hehonglu123/ABB_Primitive_Study/execution/movel_smooth/curve_exe_v50_fine.csv
timestamp, cmd_num, J1, J2, J3, J4, J5, J6
0, 1, 32.9528, 52.8019, -8.46502, 89.9168, -78.8096, 34.6812
0.002, 1, 32.9528, 52.8019, -8.46502, 89.9168, -78.8096, 34.6812
0.004, 1, 32.9528, 52.8019, -8.46502, 89.9168, -78.8096, 34.6812
0.008, 1, 32.9528, 52.8019, -8.46502, 89.9168, -78.8096, 34.6812
0.011, 1, 32.9528, 52.8019, -8.46502, 89.9168, -78.8096, 34.6812
0.016, 1, 32.9528, 52.8019, -8.46502, 89.9168, -78.8096, 34.6812
0.02, 1, 32.9528, 52.8019, -8.46502, 89.9168, -78.8096, 34.6812
0.024, 1, 32.9528, 52.8019, -8.46502, 89.9168, -78.8096, 34.6812
0.028, 1, 32.9528, 52.8019, -8.46502, 89.9168, -78.8096, 34.6812
0.032, 1, 32.9528, 52.8019, -8.46502, 89.9168, -78.8096, 34.6812
0.036, 1, 32.9528, 52.8019, -8.46502, 89.9168, -78.8096, 34.6812
0.04, 1, 32.9529, 52.8019, -8.46502, 89.9168, -78.8096, 34.6812
0.044, 1, 32.9531, 52.8018, -8.46503, 89.9168, -78.8095, 34.6812
0.048, 1, 32.9535, 52.8014, -8.46504, 89.9169, -78.8095, 34.6812
0.052, 1, 32.9543, 52.8006, -8.46509, 89.9169, -78.8093, 34.6813
0.056, 1, 32.9556, 52.7993, -8.46521, 89.917, -78.8088, 34.6815
0.06, 1, 32.9574, 52.7971, -8.46543, 89.9173, -78.8079, 34.6818
0.064, 1, 32.9597, 52.794, -8.46584, 89.9178, -78.8061, 34.6824
0.068, 1, 32.9625, 52.7899, -8.46653, 89.9186, -78.803, 34.6835
0.072, 1, 32.9659, 52.7849, -8.46761, 89.92, -78.798, 34.6852
0.076, 1, 32.9697, 52.7789, -8.46923, 89.922, -78.7905, 34.6877
0.08, 1, 32.9741, 52.7719, -8.47155, 89.925, -78.7796, 34.6915
0.084, 1, 32.9791, 52.7639, -8.47475, 89.9292, -78.7644, 34.6967
0.088, 1, 32.9847, 52.7549, -8.47904, 89.9348, -78.744, 34.7037
0.092, 1, 32.991, 52.7451, -8.48461, 89.9421, -78.7174, 34.7128
0.096, 1, 32.9978, 52.7344, -8.49169, 89.9515, -78.6834, 34.7244
0.1, 1, 33.005, 52.7231, -8.50046, 89.9631, -78.6411, 34.7389
0.104, 1, 33.0126, 52.7112, -8.51109, 89.9773, -78.5897, 34.7566
0.108, 1, 33.0204, 52.699, -8.5237, 89.9942, -78.5285, 34.7775
0.112, 1, 33.0284, 52.6863, -8.53837, 90.0139, -78.4572, 34.802
0.116, 1, 33.0368, 52.673, -8.55512, 90.0364, -78.3757, 34.8299
0.12, 1, 33.0455, 52.6592, -8.57391, 90.0617, -78.2841, 34.8613
0.124, 1, 33.0546, 52.6447, -8.59467, 90.0896, -78.183, 34.896
0.128, 1, 33.0642, 52.6296, -8.61726, 90.12, -78.0728, 34.9337
0.131, 1, 33.0741, 52.6139, -8.64153, 90.1527, -77.9545, 34.9743
0.136, 1, 33.0844, 52.5977, -8.6673, 90.1875, -77.8288, 35.0174
0.139, 1, 33.0949, 52.5809, -8.69437, 90.2239, -77.6968, 35.0627
0.144, 1, 33.1058, 52.5633, -8.72251, 90.2618, -77.5596, 35.1097
0.148, 1, 33.1172, 52.5447, -8.75152, 90.3009, -77.4182, 35.1582
0.152, 1, 33.1293, 52.525, -8.7812, 90.3408, -77.2736, 35.2077
0.156, 1, 33.1421, 52.5041, -8.81138, 90.3814, -77.1267, 35.2581
0.16, 1, 33.1556, 52.4819, -8.8419, 90.4224, -76.9782, 35.309
0.164, 1, 33.17, 52.4586, -8.87265, 90.4637, -76.8286, 35.3603
0.168, 1, 33.1849, 52.4345, -8.90354, 90.5052, -76.6784, 35.4118
0.172, 1, 33.2004, 52.4098, -8.9345, 90.5467, -76.5279, 35.4634
0.176, 1, 33.2161, 52.3847, -8.9655, 90.5883, -76.3772, 35.515
0.18, 1, 33.2321, 52.3594, -8.9965, 90.6299, -76.2265, 35.5667
0.184, 1, 33.2481, 52.334, -9.02748, 90.6715, -76.076, 35.6183
0.188, 1, 33.2643, 52.3084, -9.05844, 90.713, -75.9256, 35.6699
0.192, 1, 33.2805, 52.2828, -9.08935, 90.7545, -75.7754, 35.7214
0.196, 1, 33.2967, 52.2573, -9.12022, 90.7959, -75.6254, 35.7728
0.2, 1, 33.3129, 52.2317, -9.15103, 90.8372, -75.4757, 35.8241
0.204, 1, 33.3291, 52.2061, -9.1818, 90.8785, -75.3262, 35.8753
0.208, 1, 33.3453, 52.1806, -9.21251, 90.9197, -75.177, 35.9265
0.212, 1, 33.3614, 52.1551, -9.24316, 90.9608, -75.028, 35.9775
0.216, 1, 33.3776, 52.1296, -9.27376, 91.0018, -74.8794, 36.0285
0.22, 1, 33.3937, 52.1042, -9.3043, 91.0428, -74.731, 36.0794
0.224, 1, 33.4098, 52.0788, -9.33479, 91.0837, -74.5829, 36.1302
0.228, 1, 33.4258, 52.0535, -9.36522, 91.1245, -74.435, 36.1808
0.232, 1, 33.4419, 52.0282, -9.3956, 91.1652, -74.2874, 36.2314
0.236, 1, 33.4579, 52.003, -9.42592, 91.2059, -74.1401, 36.2819
0.24, 1, 33.4738, 51.9778, -9.45618, 91.2465, -73.9931, 36.3323
0.244, 1, 33.4898, 51.9526, -9.48639, 91.287, -73.8463, 36.3826
0.248, 1, 33.5057, 51.9275, -9.51654, 91.3275, -73.6998, 36.4329
0.252, 1, 33.5216, 51.9025, -9.54664, 91.3678, -73.5536, 36.483
0.256, 1, 33.5374, 51.8774, -9.57668, 91.4081, -73.4076, 36.533
0.26, 1, 33.5533, 51.8525, -9.60667, 91.4483, -73.2619, 36.583
0.264, 1, 33.5691, 51.8276, -9.6366, 91.4885, -73.1165, 36.6328
0.268, 1, 33.5848, 51.8027, -9.66649, 91.5286, -72.9713, 36.6826
0.272, 1, 33.6006, 51.7778, -9.69631, 91.5686, -72.8264, 36.7323
0.276, 1, 33.6163, 51.7531, -9.72609, 91.6085, -72.6817, 36.7819
0.28, 1, 33.632, 51.7283, -9.75581, 91.6484, -72.5373, 36.8314
0.284, 1, 33.6476, 51.7036, -9.78547, 91.6882, -72.3932, 36.8808
0.288, 1, 33.6633, 51.679, -9.81509, 91.7279, -72.2493, 36.9301
0.292, 1, 33.6789, 51.6544, -9.84465, 91.7675, -72.1057, 36.9794
0.296, 1, 33.6945, 51.6298, -9.87416, 91.8071, -71.9623, 37.0285
0.3, 1, 33.71, 51.6053, -9.90362, 91.8466, -71.8191, 37.0776
0.304, 1, 33.7255, 51.5808, -9.93303, 91.8861, -71.6763, 37.1265
0.308, 1, 33.741, 51.5563, -9.96238, 91.9255, -71.5336, 37.1754
0.312, 1, 33.7565, 51.5319, -9.99169, 91.9648, -71.3913, 37.2243
0.316, 1, 33.7719, 51.5076, -10.0209, 92.004, -71.2491, 37.273
0.32, 1, 33.7873, 51.4833, -10.0501, 92.0432, -71.1073, 37.3216
0.324, 1, 33.8027, 51.459, -10.0793, 92.0823, -70.9656, 37.3702
0.328, 1, 33.8181, 51.4348, -10.1084, 92.1213, -70.8242, 37.4186
0.332, 1, 33.8334, 51.4106, -10.1374, 92.1603, -70.6831, 37.467
0.336, 1, 33.8487, 51.3864, -10.1665, 92.1992, -70.5422, 37.5153
0.34, 1, 33.864, 51.3623, -10.1954, 92.238, -70.4015, 37.5636
0.344, 1, 33.8793, 51.3383, -10.2243, 92.2768, -70.261, 37.6117
0.348, 1, 33.8945, 51.3142, -10.2532, 92.3155, -70.1209, 37.6598
0.352, 1, 33.9097, 51.2903, -10.282, 92.3541, -69.9809, 37.7077
0.356, 1, 33.9249, 51.2663, -10.3107, 92.3927, -69.8412, 37.7556
0.36, 1, 33.94, 51.2424, -10.3394, 92.4312, -69.7017, 37.8034
0.364, 1, 33.9552, 51.2186, -10.3681, 92.4696, -69.5624, 37.8512
0.368, 1, 33.9703, 51.1947, -10.3967, 92.508, -69.4234, 37.8988
0.372, 1, 33.9853, 51.171, -10.4253, 92.5463, -69.2846, 37.9464
0.376, 1, 34.0004, 51.1472, -10.4538, 92.5846, -69.1461, 37.9939
0.38, 1, 34.0154, 51.1235, -10.4823, 92.6228, -69.0078, 38.0413
0.384, 1, 34.0304, 51.0998, -10.5107, 92.6609, -68.8697, 38.0887
0.388, 1, 34.0454, 51.0762, -10.5391, 92.6989, -68.7318, 38.1359
0.392, 1, 34.0604, 51.0526, -10.5674, 92.7369, -68.5941, 38.1831
0.396, 1, 34.0753, 51.0291, -10.5957, 92.7749, -68.4567, 38.2302
0.4, 1, 34.0902, 51.0056, -10.6239, 92.8127, -68.3195, 38.2773
0.404, 1, 34.1051, 50.9821, -10.6521, 92.8506, -68.1826, 38.3242
0.408, 1, 34.1199, 50.9587, -10.6803, 92.8883, -68.0458, 38.3711
0.412, 1, 34.1348, 50.9353, -10.7084, 92.926, -67.9093, 38.4179
0.416, 1, 34.1496, 50.9119, -10.7364, 92.9636, -67.773, 38.4646
0.42, 1, 34.1643, 50.8886, -10.7644, 93.0012, -67.6369, 38.5113
0.424, 1, 34.1791, 50.8653, -10.7924, 93.0387, -67.501, 38.5579
0.428, 1, 34.1938, 50.8421, -10.8203, 93.0762, -67.3653, 38.6044
0.432, 1, 34.2086, 50.8189, -10.8482, 93.1136, -67.2299, 38.6508
0.436, 1, 34.2232, 50.7957, -10.876, 93.1509, -67.0947, 38.6971
0.44, 1, 34.2379, 50.7726, -10.9038, 93.1881, -66.9597, 38.7434
0.444, 1, 34.2526, 50.7495, -10.9315, 93.2254, -66.8249, 38.7896
0.448, 1, 34.2672, 50.7264, -10.9592, 93.2625, -66.6903, 38.8358
0.452, 1, 34.2818, 50.7034, -10.9869, 93.2996, -66.5559, 38.8818
0.456, 1, 34.2964, 50.6804, -11.0145, 93.3367, -66.4217, 38.9278
0.46, 1, 34.3109, 50.6574, -11.0421, 93.3736, -66.2878, 38.9738
0.464, 1, 34.3254, 50.6345, -11.0696, 93.4106, -66.154, 39.0196
0.468, 1, 34.3399, 50.6116, -11.0971, 93.4474, -66.0204, 39.0654
0.472, 1, 34.3544, 50.5888, -11.1246, 93.4842, -65.8871, 39.1111
0.476, 1, 34.3689, 50.566, -11.152, 93.521, -65.754, 39.1567
0.48, 1, 34.3833, 50.5432, -11.1793, 93.5577, -65.621, 39.2023
0.484, 1, 34.3978, 50.5204, -11.2066, 93.5943, -65.4883, 39.2478
0.488, 1, 34.4121, 50.4977, -11.2339, 93.6309, -65.3558, 39.2933
0.492, 1, 34.4265, 50.475, -11.2612, 93.6675, -65.2234, 39.3386
0.496, 1, 34.4409, 50.4524, -11.2883, 93.7039, -65.0913, 39.3839
0.5, 1, 34.4552, 50.4298, -11.3155, 93.7404, -64.9594, 39.4291
0.504, 1, 34.4695, 50.4072, -11.3426, 93.7767, -64.8276, 39.4743
0.508, 1, 34.4838, 50.3847, -11.3697, 93.813, -64.6961, 39.5194
0.512, 1, 34.4981, 50.3622, -11.3967, 93.8493, -64.5647, 39.5644
0.516, 1, 34.5123, 50.3397, -11.4237, 93.8855, -64.4336, 39.6094
0.52, 1, 34.5265, 50.3173, -11.4507, 93.9217, -64.3026, 39.6543
0.524, 1, 34.5408, 50.2949, -11.4776, 93.9578, -64.1719, 39.6991
0.528, 1, 34.5549, 50.2725, -11.5045, 93.9938, -64.0413, 39.7439
0.532, 1, 34.5691, 50.2501, -11.5313, 94.0298, -63.9109, 39.7886
0.536, 1, 34.5832, 50.2278, -11.5581, 94.0657, -63.7807, 39.8332
0.54, 1, 34.5974, 50.2056, -11.5848, 94.1016, -63.6507, 39.8777
0.544, 1, 34.6115, 50.1833, -11.6116, 94.1375, -63.5209, 39.9222
0.548, 1, 34.6255, 50.1611, -11.6382, 94.1732, -63.3913, 39.9667
0.552, 1, 34.6396, 50.1389, -11.6649, 94.209, -63.2619, 40.0111
0.556, 1, 34.6536, 50.1168, -11.6915, 94.2447, -63.1326, 40.0554
0.56, 1, 34.6677, 50.0947, -11.718, 94.2803, -63.0036, 40.0996
0.564, 1, 34.6817, 50.0726, -11.7446, 94.3159, -62.8747, 40.1438
0.568, 1, 34.6956, 50.0505, -11.7711, 94.3514, -62.746, 40.1879
0.572, 1, 34.7096, 50.0285, -11.7975, 94.3869, -62.6175, 40.2319
0.576, 1, 34.7235, 50.0065, -11.8239, 94.4223, -62.4892, 40.2759
0.58, 1, 34.7375, 49.9846, -11.8503, 94.4577, -62.361, 40.3199
0.584, 1, 34.7514, 49.9626, -11.8766, 94.493, -62.2331, 40.3637
0.588, 1, 34.7652, 49.9407, -11.9029, 94.5283, -62.1053, 40.4075
0.592, 1, 34.7791, 49.9189, -11.9292, 94.5635, -61.9777, 40.4513
0.596, 1, 34.7929, 49.897, -11.9554, 94.5987, -61.8503, 40.495
0.6, 1, 34.8068, 49.8752, -11.9816, 94.6338, -61.723, 40.5386
0.604, 1, 34.8206, 49.8535, -12.0078, 94.6689, -61.5959, 40.5821
0.608, 1, 34.8343, 49.8317, -12.0339, 94.7039, -61.4691, 40.6256
0.612, 1, 34.8481, 49.81, -12.0599, 94.7389, -61.3423, 40.6691
0.616, 1, 34.8618, 49.7883, -12.086, 94.7738, -61.2158, 40.7125
0.62, 1, 34.8756, 49.7667, -12.112, 94.8087, -61.0894, 40.7558
0.624, 1, 34.8893, 49.7451, -12.138, 94.8435, -60.9632, 40.799
0.628, 1, 34.903, 49.7235, -12.1639, 94.8783, -60.8372, 40.8422
0.632, 1, 34.9166, 49.7019, -12.1898, 94.9131, -60.7114, 40.8854
0.636, 1, 34.9303, 49.6804, -12.2157, 94.9478, -60.5857, 40.9284
0.64, 1, 34.9439, 49.6589, -12.2415, 94.9824, -60.4602, 40.9715
0.644, 1, 34.9575, 49.6374, -12.2673, 95.017, -60.3349, 41.0144
0.648, 1, 34.9711, 49.6159, -12.2931, 95.0516, -60.2097, 41.0573
0.652, 1, 34.9847, 49.5945, -12.3188, 95.0861, -60.0847, 41.1002
0.656, 1, 34.9983, 49.5731, -12.3445, 95.1205, -59.9599, 41.143
0.66, 1, 35.0118, 49.5518, -12.3701, 95.1549, -59.8352, 41.1857
0.664, 1, 35.0253, 49.5304, -12.3958, 95.1893, -59.7107, 41.2284
0.668, 1, 35.0388, 49.5091, -12.4214, 95.2236, -59.5864, 41.271
0.672, 1, 35.0523, 49.4879, -12.4469, 95.2579, -59.4622, 41.3136
0.676, 1, 35.0658, 49.4666, -12.4724, 95.2921, -59.3382, 41.3561
0.68, 1, 35.0792, 49.4454, -12.4979, 95.3263, -59.2144, 41.3985
0.684, 1, 35.0927, 49.4242, -12.5234, 95.3605, -59.0907, 41.4409
0.688, 1, 35.1061, 49.4031, -12.5488, 95.3946, -58.9672, 41.4833
0.692, 1, 35.1195, 49.3819, -12.5742, 95.4286, -58.8439, 41.5256
0.696, 1, 35.1329, 49.3608, -12.5995, 95.4626, -58.7207, 41.5678
0.7, 1, 35.1462, 49.3397, -12.6249, 95.4966, -58.5977, 41.61
0.704, 1, 35.1596, 49.3187, -12.6501, 95.5305, -58.4748, 41.6521
0.708, 1, 35.1729, 49.2977, -12.6754, 95.5644, -58.3521, 41.6941
0.712, 1, 35.1862, 49.2767, -12.7006, 95.5982, -58.2296, 41.7361
0.716, 1, 35.1995, 49.2557, -12.7258, 95.632, -58.1072, 41.7781
0.72, 1, 35.2128, 49.2347, -12.751, 95.6657, -57.985, 41.82
0.724, 1, 35.226, 49.2138, -12.7761, 95.6994, -57.8629, 41.8618
0.728, 1, 35.2393, 49.1929, -12.8012, 95.7331, -57.741, 41.9036
0.732, 1, 35.2525, 49.1721, -12.8262, 95.7667, -57.6192, 41.9454
0.736, 1, 35.2657, 49.1512, -12.8513, 95.8003, -57.4976, 41.9871
0.74, 1, 35.2789, 49.1304, -12.8763, 95.8338, -57.3762, 42.0287
0.744, 1, 35.2921, 49.1097, -12.9012, 95.8673, -57.2549, 42.0703
0.748, 1, 35.3052, 49.0889, -12.9262, 95.9007, -57.1338, 42.1118
0.752, 1, 35.3184, 49.0682, -12.9511, 95.9341, -57.0128, 42.1533
0.756, 1, 35.3315, 49.0475, -12.9759, 95.9675, -56.8919, 42.1947
0.76, 1, 35.3446, 49.0268, -13.0008, 96.0008, -56.7712, 42.2361
0.764, 1, 35.3577, 49.0061, -13.0256, 96.0341, -56.6507, 42.2774
0.768, 1, 35.3708, 48.9855, -13.0504, 96.0673, -56.5303, 42.3187
0.772, 1, 35.3838, 48.9649, -13.0751, 96.1005, -56.4101, 42.3599
0.776, 1, 35.3969, 48.9443, -13.0998, 96.1336, -56.29, 42.401
0.78, 1, 35.4099, 48.9238, -13.1245, 96.1667, -56.1701, 42.4422
0.784, 1, 35.4229, 48.9032, -13.1492, 96.1998, -56.0503, 42.4832
0.788, 1, 35.4359, 48.8827, -13.1738, 96.2328, -55.9307, 42.5242
0.792, 1, 35.4489, 48.8623, -13.1984, 96.2658, -55.8112, 42.5652
0.796, 1, 35.4619, 48.8418, -13.2229, 96.2988, -55.6918, 42.6061
0.8, 1, 35.4748, 48.8214, -13.2475, 96.3317, -55.5726, 42.647
0.804, 1, 35.4877, 48.801, -13.272, 96.3645, -55.4535, 42.6878
0.808, 1, 35.5006, 48.7806, -13.2965, 96.3974, -55.3346, 42.7285
0.812, 1, 35.5136, 48.7603, -13.3209, 96.4302, -55.2159, 42.7693
0.816, 1, 35.5264, 48.7399, -13.3453, 96.4629, -55.0972, 42.8099
0.82, 1, 35.5393, 48.7196, -13.3697, 96.4956, -54.9787, 42.8506
0.824, 1, 35.5522, 48.6994, -13.3941, 96.5283, -54.8604, 42.8911
0.828, 1, 35.565, 48.6791, -13.4184, 96.5609, -54.7422, 42.9316
0.832, 1, 35.5778, 48.6589, -13.4427, 96.5935, -54.6241, 42.9721
0.836, 1, 35.5906, 48.6387, -13.467, 96.6261, -54.5062, 43.0125
0.84, 1, 35.6034, 48.6185, -13.4912, 96.6586, -54.3884, 43.0529
0.844, 1, 35.6162, 48.5983, -13.5154, 96.6911, -54.2707, 43.0933
0.848, 1, 35.629, 48.5782, -13.5396, 96.7235, -54.1532, 43.1335
0.852, 1, 35.6417, 48.5581, -13.5638, 96.7559, -54.0358, 43.1738
0.856, 1, 35.6545, 48.538, -13.5879, 96.7883, -53.9186, 43.214
0.86, 1, 35.6672, 48.5179, -13.612, 96.8206, -53.8015, 43.2541
0.864, 1, 35.6799, 48.4979, -13.6361, 96.8529, -53.6845, 43.2942
0.868, 1, 35.6925, 48.4779, -13.6601, 96.8852, -53.5677, 43.3343
0.872, 1, 35.7051, 48.458, -13.6841, 96.9174, -53.451, 43.3743
0.876, 1, 35.7176, 48.4381, -13.7081, 96.9496, -53.3345, 43.4142
0.88, 1, 35.73, 48.4184, -13.7321, 96.9817, -53.2181, 43.4541
0.884, 1, 35.7419, 48.3992, -13.756, 97.0137, -53.102, 43.4939
0.888, 1, 35.7533, 48.3805, -13.7798, 97.0457, -52.9863, 43.5336
0.892, 1, 35.7641, 48.3627, -13.8035, 97.0775, -52.8712, 43.5731
0.896, 1, 35.7742, 48.3457, -13.8269, 97.109, -52.757, 43.6122
0.9, 1, 35.7836, 48.3297, -13.8501, 97.1401, -52.6444, 43.6508
0.904, 1, 35.7924, 48.3145, -13.8728, 97.1706, -52.534, 43.6887
0.908, 1, 35.8007, 48.3002, -13.895, 97.2003, -52.4264, 43.7256
0.912, 1, 35.8087, 48.2866, -13.9163, 97.229, -52.3226, 43.7613
0.916, 1, 35.8164, 48.2736, -13.9367, 97.2564, -52.2234, 43.7953
0.92, 1, 35.8238, 48.2613, -13.956, 97.2823, -52.1296, 43.8275
0.924, 1, 35.8309, 48.2497, -13.9741, 97.3065, -52.042, 43.8576
0.928, 1, 35.8377, 48.2387, -13.9907, 97.3288, -51.9612, 43.8853
0.932, 1, 35.8442, 48.2281, -14.0057, 97.3491, -51.888, 43.9104
0.936, 1, 35.8507, 48.2178, -14.0192, 97.3671, -51.8226, 43.9328
0.94, 1, 35.8571, 48.2077, -14.031, 97.3829, -51.7653, 43.9524
0.944, 1, 35.8634, 48.1979, -14.0412, 97.3966, -51.716, 43.9693
0.948, 1, 35.8695, 48.1884, -14.0498, 97.4081, -51.6743, 43.9836
0.952, 1, 35.8755, 48.1793, -14.0569, 97.4175, -51.6399, 43.9954
0.956, 2, 35.8812, 48.1708, -14.0626, 97.4252, -51.612, 44.0049
0.96, 2, 35.8865, 48.1631, -14.0672, 97.4313, -51.5899, 44.0124
0.964, 2, 35.8915, 48.1562, -14.0707, 97.436, -51.5728, 44.0183
0.968, 2, 35.896, 48.1502, -14.0734, 97.4396, -51.5598, 44.0227
0.972, 2, 35.9001, 48.145, -14.0754, 97.4422, -51.5503, 44.0259
0.976, 2, 35.9037, 48.1406, -14.0768, 97.4441, -51.5433, 44.0283
0.98, 2, 35.9067, 48.1371, -14.0778, 97.4454, -51.5385, 44.0299
0.984, 2, 35.9091, 48.1343, -14.0785, 97.4463, -51.5351, 44.0311
0.988, 2, 35.911, 48.1323, -14.079, 97.4469, -51.5327, 44.0319
0.992, 2, 35.9123, 48.1308, -14.0793, 97.4474, -51.5312, 44.0324
0.996, 2, 35.9132, 48.1299, -14.0796, 97.4477, -51.5301, 44.0328
1, 2, 35.9138, 48.1292, -14.0797, 97.4479, -51.5294, 44.033
1.004, 2, 35.9142, 48.1287, -14.0798, 97.448, -51.5289, 44.0332
1.008, 2, 35.9145, 48.1284, -14.0799, 97.4481, -51.5285, 44.0333
1.012, 2, 35.9147, 48.1282, -14.0799, 97.4482, -51.5283, 44.0334
1.016, 2, 35.9149, 48.1281, -14.08, 97.4482, -51.5282, 44.0334
1.02, 2, 35.9149, 48.128, -14.08, 97.4482, -51.5281, 44.0335
1.024, 2, 35.915, 48.1279, -14.08, 97.4482, -51.528, 44.0335
1.027, 2, 35.915, 48.1279, -14.08, 97.4483, -51.5279, 44.0335
1.032, 2, 35.9151, 48.1278, -14.08, 97.4483, -51.5279, 44.0335
1.036, 2, 35.9151, 48.1278, -14.08, 97.4483, -51.5279, 44.0335
1.04, 2, 35.9151, 48.1278, -14.08, 97.4483, -51.5279, 44.0335
1.044, 2, 35.9151, 48.1278, -14.08, 97.4483, -51.5279, 44.0335
1.048, 2, 35.9151, 48.1278, -14.08, 97.4483, -51.5279, 44.0335
1.052, 2, 35.9151, 48.1278, -14.08, 97.4483, -51.5279, 44.0335
1.055, 2, 35.9151, 48.1278, -14.08, 97.4483, -51.5278, 44.0335
1.06, 2, 35.9151, 48.1278, -14.08, 97.4483, -51.5278, 44.0335
1.064, 2, 35.9151, 48.1278, -14.08, 97.4483, -51.5278, 44.0335
1.068, 2, 35.9151, 48.1278, -14.08, 97.4483, -51.5278, 44.0335
1.072, 2, 35.9151, 48.1278, -14.08, 97.4483, -51.5278, 44.0335
1.076, 2, 35.9151, 48.1278, -14.08, 97.4483, -51.5278, 44.0335
1.08, 2, 35.9151, 48.1278, -14.08, 97.4483, -51.5278, 44.0335
1.084, 2, 35.9151, 48.1278, -14.08, 97.4483, -51.5278, 44.0335
1.088, 2, 35.9151, 48.1278, -14.08, 97.4483, -51.5278, 44.0335
1.091, 2, 35.9151, 48.1278, -14.08, 97.4483, -51.5278, 44.0335
1.096, 2, 35.9151, 48.1278, -14.08, 97.4483, -51.5278, 44.0335
1.1, 2, 35.9151, 48.1278, -14.08, 97.4483, -51.5278, 44.0335
1.104, 2, 35.9151, 48.1278, -14.08, 97.4483, -51.5278, 44.0335
1.108, 2, 35.9151, 48.1278, -14.08, 97.4483, -51.5278, 44.0335
1.112, 2, 35.9151, 48.1278, -14.08, 97.4483, -51.5278, 44.0335
1.116, 2, 35.9151, 48.1278, -14.08, 97.4483, -51.5278, 44.0335
1.119, 2, 35.9151, 48.1278, -14.08, 97.4483, -51.5278, 44.0335
1.124, 2, 35.9151, 48.1278, -14.08, 97.4483, -51.5278, 44.0335
1.128, 2, 35.9151, 48.1278, -14.08, 97.4483, -51.5278, 44.0335
1.132, 2, 35.9151, 48.1278, -14.08, 97.4483, -51.5278, 44.0335
1.136, 2, 35.9151, 48.1278, -14.08, 97.4483, -51.5278, 44.0335
1.14, 2, 35.9151, 48.1278, -14.08, 97.4483, -51.5278, 44.0335
1.144, 2, 35.9151, 48.1278, -14.08, 97.4483, -51.5278, 44.0335
1.147, 2, 35.9151, 48.1278, -14.08, 97.4483, -51.5278, 44.0335
1.152, 2, 35.9151, 48.1278, -14.08, 97.4483, -51.5278, 44.0335
1.156, 2, 35.9151, 48.1278, -14.08, 97.4483, -51.5278, 44.0335
1.16, 2, 35.9151, 48.1278, -14.08, 97.4483, -51.5278, 44.0335
1.164, 2, 35.9151, 48.1278, -14.08, 97.4483, -51.5278, 44.0335
1.168, 2, 35.9151, 48.1278, -14.08, 97.4483, -51.5278, 44.0335
1.172, 2, 35.9151, 48.1278, -14.08, 97.4483, -51.5278, 44.0335
1.175, 2, 35.9151, 48.1278, -14.08, 97.4483, -51.5278, 44.0335
1.18, 2, 35.9151, 48.1278, -14.08, 97.4483, -51.5278, 44.0335
1.184, 2, 35.9151, 48.1278, -14.08, 97.4483, -51.5278, 44.0335
1.188, 2, 35.9151, 48.1278, -14.08, 97.4483, -51.5278, 44.0335
1.192, 2, 35.9151, 48.1278, -14.08, 97.4483, -51.5278, 44.0335
1.196, 2, 35.9151, 48.1278, -14.08, 97.4483, -51.5278, 44.0335
1.2, 2, 35.9151, 48.1278, -14.08, 97.4483, -51.5278, 44.0335
1.204, 2, 35.9151, 48.1278, -14.08, 97.4483, -51.5278, 44.0335
1.208, 2, 35.9151, 48.1278, -14.08, 97.4483, -51.5278, 44.0335
1.212, 2, 35.9151, 48.1278, -14.08, 97.4483, -51.5278, 44.0335
1.216, 2, 35.9151, 48.1278, -14.08, 97.4483, -51.5278, 44.0335
1.22, 2, 35.9151, 48.1278, -14.08, 97.4483, -51.5278, 44.0335
1.224, 2, 35.9151, 48.1278, -14.08, 97.4483, -51.5278, 44.0335
1.228, 2, 35.9151, 48.1278, -14.08, 97.4483, -51.5278, 44.0335
1.232, 2, 35.9151, 48.1278, -14.08, 97.4483, -51.5278, 44.0335
1.236, 2, 35.9151, 48.1278, -14.08, 97.4483, -51.5278, 44.0335
1.24, 2, 35.9151, 48.1278, -14.08, 97.4483, -51.5278, 44.0335
1.244, 2, 35.9151, 48.1278, -14.08, 97.4483, -51.5278, 44.0335
1.248, 2, 35.9151, 48.1278, -14.08, 97.4483, -51.5278, 44.0335
1.252, 2, 35.9151, 48.1278, -14.08, 97.4483, -51.5278, 44.0335
1.256, 2, 35.9151, 48.1278, -14.08, 97.4483, -51.5278, 44.0335
1.26, 2, 35.9151, 48.1278, -14.08, 97.4483, -51.5278, 44.0335
1.264, 2, 35.9151, 48.1278, -14.08, 97.4483, -51.5278, 44.0335
1.267, 2, 35.9151, 48.1278, -14.08, 97.4483, -51.5278, 44.0335
1.272, 2, 35.9151, 48.1278, -14.08, 97.4483, -51.5278, 44.0335
1.276, 2, 35.9151, 48.1278, -14.08, 97.4483, -51.5278, 44.0335
1.28, 2, 35.9151, 48.1278, -14.08, 97.4483, -51.5278, 44.0335
1.284, 2, 35.9151, 48.1278, -14.08, 97.4483, -51.5278, 44.0335
1.288, 2, 35.9151, 48.1278, -14.08, 97.4483, -51.5278, 44.0335
1.292, 2, 35.9151, 48.1278, -14.08, 97.4483, -51.5278, 44.0335
1.295, 2, 35.9151, 48.1278, -14.08, 97.4483, -51.5278, 44.0335
1.3, 2, 35.9151, 48.1278, -14.08, 97.4483, -51.5278, 44.0335
1.304, 2, 35.9151, 48.1278, -14.08, 97.4483, -51.5278, 44.0335
1.308, 2, 35.9151, 48.1278, -14.08, 97.4483, -51.5278, 44.0335
1.312, 2, 35.9151, 48.1278, -14.08, 97.4483, -51.5278, 44.0335
1.316, 2, 35.9151, 48.1278, -14.08, 97.4483, -51.5278, 44.0335
1.32, 2, 35.9151, 48.1278, -14.08, 97.4483, -51.5278, 44.0335
1.324, 2, 35.9151, 48.1278, -14.08, 97.4483, -51.5278, 44.0335
1.328, 2, 35.9151, 48.1278, -14.08, 97.4483, -51.5278, 44.0335
1.332, 2, 35.9151, 48.1278, -14.08, 97.4483, -51.5278, 44.0335
1.336, 2, 35.9151, 48.1278, -14.08, 97.4483, -51.5278, 44.0335
1.34, 2, 35.9151, 48.1278, -14.08, 97.4483, -51.5278, 44.0335
1.344, 2, 35.9151, 48.1278, -14.08, 97.4483, -51.5278, 44.0335
1.348, 2, 35.9151, 48.1278, -14.08, 97.4483, -51.5278, 44.0335
1.352, 2, 35.9151, 48.1278, -14.08, 97.4483, -51.5278, 44.0335
1.356, 2, 35.9151, 48.1278, -14.08, 97.4483, -51.5278, 44.0335
1.36, 2, 35.9151, 48.1278, -14.08, 97.4483, -51.5278, 44.0335
1.364, 2, 35.9151, 48.1278, -14.08, 97.4483, -51.5278, 44.0335
1.368, 2, 35.9151, 48.1278, -14.08, 97.4483, -51.5278, 44.0335
1.372, 2, 35.9151, 48.1278, -14.08, 97.4483, -51.5278, 44.0335
1.376, 2, 35.9151, 48.1278, -14.08, 97.4483, -51.5278, 44.0335
1.38, 2, 35.9151, 48.1278, -14.08, 97.4483, -51.5278, 44.0335
1.384, 2, 35.9151, 48.1278, -14.08, 97.4483, -51.5278, 44.0335
1.388, 2, 35.9151, 48.1278, -14.08, 97.4483, -51.5278, 44.0335
1.392, 2, 35.9151, 48.1278, -14.08, 97.4483, -51.5278, 44.0335
1.396, 2, 35.9151, 48.1278, -14.08, 97.4483, -51.5278, 44.0335
1.4, 2, 35.9151, 48.1278, -14.08, 97.4483, -51.5278, 44.0335
1.404, 2, 35.9151, 48.1278, -14.08, 97.4483, -51.5278, 44.0335
1.408, 2, 35.9151, 48.1278, -14.08, 97.4483, -51.5278, 44.0335
1.412, 2, 35.9151, 48.1278, -14.08, 97.4483, -51.5278, 44.0335
1.416, 2, 35.9151, 48.1278, -14.08, 97.4483, -51.5278, 44.0335
1.42, 2, 35.9151, 48.1278, -14.08, 97.4483, -51.5278, 44.0335
1.424, 2, 35.9151, 48.1278, -14.08, 97.4483, -51.5278, 44.0335
1.428, 2, 35.9151, 48.1278, -14.08, 97.4483, -51.5278, 44.0335
1.432, 2, 35.9151, 48.1278, -14.08, 97.4483, -51.5278, 44.0335
1.436, 2, 35.9151, 48.1278, -14.08, 97.4483, -51.5278, 44.0335
1.44, 2, 35.9151, 48.1278, -14.08, 97.4483, -51.5278, 44.0335
1.444, 2, 35.9151, 48.1278, -14.08, 97.4483, -51.5278, 44.0335
1.448, 2, 35.9151, 48.1278, -14.08, 97.4483, -51.5278, 44.0335
1.452, 2, 35.9151, 48.1278, -14.08, 97.4483, -51.5278, 44.0335
1.456, 2, 35.9151, 48.1278, -14.08, 97.4483, -51.5278, 44.0335
1.46, 2, 35.9151, 48.1278, -14.08, 97.4483, -51.5278, 44.0335
1.464, 2, 35.9151, 48.1278, -14.08, 97.4483, -51.5278, 44.0335
1.468, 2, 35.9151, 48.1278, -14.08, 97.4483, -51.5278, 44.0335
1.472, 2, 35.9151, 48.1278, -14.08, 97.4483, -51.5278, 44.0335
1.476, 2, 35.9151, 48.1278, -14.08, 97.4483, -51.5278, 44.0335
1.48, 2, 35.9151, 48.1278, -14.08, 97.4483, -51.5278, 44.0335
1.484, 2, 35.9151, 48.1278, -14.08, 97.4483, -51.5278, 44.0335
1.488, 2, 35.9151, 48.1278, -14.08, 97.4483, -51.5278, 44.0335
1.492, 2, 35.9151, 48.1278, -14.08, 97.4483, -51.5278, 44.0335
1.496, 2, 35.9151, 48.1278, -14.08, 97.4483, -51.5278, 44.0335
1.5, 2, 35.9151, 48.1278, -14.08, 97.4483, -51.5278, 44.0335
1.504, 2, 35.9151, 48.1278, -14.08, 97.4483, -51.5278, 44.0335
1.508, 2, 35.9151, 48.1278, -14.08, 97.4483, -51.5278, 44.0335
1.512, 2, 35.9151, 48.1278, -14.08, 97.4483, -51.5278, 44.0335
1.516, 2, 35.9151, 48.1278, -14.08, 97.4483, -51.5278, 44.0335
1.52, 2, 35.9151, 48.1278, -14.08, 97.4483, -51.5278, 44.0335
1.524, 2, 35.9151, 48.1278, -14.08, 97.4483, -51.5278, 44.0335
1.528, 2, 35.9151, 48.1278, -14.08, 97.4483, -51.5278, 44.0335
1.532, 2, 35.9151, 48.1278, -14.08, 97.4483, -51.5278, 44.0335
1.536, 2, 35.9151, 48.1278, -14.08, 97.4483, -51.5278, 44.0335
1.54, 2, 35.9151, 48.1278, -14.08, 97.4483, -51.5278, 44.0335
1.544, 2, 35.9151, 48.1278, -14.08, 97.4483, -51.5278, 44.0335
1.548, 2, 35.9151, 48.1278, -14.08, 97.4483, -51.5278, 44.0335
1.552, 2, 35.9151, 48.1278, -14.08, 97.4483, -51.5278, 44.0335
1.556, 2, 35.9151, 48.1278, -14.08, 97.4483, -51.5278, 44.0335
1.56, 2, 35.9151, 48.1278, -14.08, 97.4483, -51.5278, 44.0335
1.564, 2, 35.9151, 48.1278, -14.08, 97.4483, -51.5278, 44.0335
1.568, 2, 35.9151, 48.1278, -14.08, 97.4483, -51.5278, 44.0335
1.572, 2, 35.9151, 48.1278, -14.08, 97.4483, -51.5278, 44.0335
1.576, 2, 35.9151, 48.1278, -14.08, 97.4483, -51.5278, 44.0335
1.58, 2, 35.9151, 48.1278, -14.08, 97.4483, -51.5278, 44.0335
1.584, 2, 35.9151, 48.1278, -14.08, 97.4483, -51.5278, 44.0335
1.588, 2, 35.9151, 48.1278, -14.08, 97.4483, -51.5278, 44.0335
1.592, 2, 35.9151, 48.1278, -14.08, 97.4483, -51.5278, 44.0335
1.596, 2, 35.9151, 48.1278, -14.08, 97.4483, -51.5278, 44.0335
1.6, 2, 35.9151, 48.1278, -14.08, 97.4483, -51.5278, 44.0335
1.604, 2, 35.9151, 48.1278, -14.08, 97.4483, -51.5278, 44.0335
1.608, 2, 35.9151, 48.1278, -14.08, 97.4483, -51.5278, 44.0335
1.612, 2, 35.9151, 48.1278, -14.08, 97.4483, -51.5278, 44.0335
1.616, 2, 35.9151, 48.1278, -14.08, 97.4483, -51.5278, 44.0335
1.62, 2, 35.9151, 48.1278, -14.08, 97.4483, -51.5278, 44.0335
1.624, 2, 35.9151, 48.1278, -14.08, 97.4483, -51.5278, 44.0335
1.628, 2, 35.9151, 48.1278, -14.08, 97.4483, -51.5278, 44.0335
1.632, 2, 35.9151, 48.1278, -14.08, 97.4483, -51.5278, 44.0335
1.636, 2, 35.9151, 48.1278, -14.08, 97.4483, -51.5278, 44.0335
1.64, 2, 35.9151, 48.1278, -14.08, 97.4483, -51.5278, 44.0335
1.644, 2, 35.9151, 48.1278, -14.08, 97.4483, -51.5278, 44.0335
1.648, 2, 35.9151, 48.1278, -14.08, 97.4483, -51.5278, 44.0335
1.652, 2, 35.9151, 48.1278, -14.08, 97.4483, -51.5278, 44.0335
1.656, 2, 35.9151, 48.1278, -14.08, 97.4483, -51.5278, 44.0335
1.66, 2, 35.9151, 48.1278, -14.08, 97.4483, -51.5278, 44.0335
1.664, 2, 35.9151, 48.1278, -14.08, 97.4483, -51.5278, 44.0335
1.668, 2, 35.9151, 48.1278, -14.08, 97.4483, -51.5278, 44.0335
1.672, 2, 35.9151, 48.1278, -14.08, 97.4483, -51.5278, 44.0335
1.676, 2, 35.9151, 48.1278, -14.08, 97.4483, -51.5278, 44.0335
1.68, 2, 35.9151, 48.1278, -14.08, 97.4483, -51.5278, 44.0335
1.684, 2, 35.9151, 48.1278, -14.08, 97.4483, -51.5278, 44.0335
1.688, 2, 35.9151, 48.1278, -14.08, 97.4483, -51.5278, 44.0335
1.692, 2, 35.9151, 48.1278, -14.08, 97.4483, -51.5278, 44.0335
1.696, 2, 35.9151, 48.1278, -14.08, 97.4483, -51.5278, 44.0335
1.7, 2, 35.9151, 48.1278, -14.08, 97.4483, -51.5278, 44.0335
1.704, 2, 35.9151, 48.1278, -14.08, 97.4483, -51.5278, 44.0335
1.708, 2, 35.9151, 48.1278, -14.08, 97.4483, -51.5278, 44.0335
1.712, 2, 35.9151, 48.1278, -14.08, 97.4483, -51.5278, 44.0335
1.716, 2, 35.9151, 48.1278, -14.08, 97.4483, -51.5278, 44.0335
1.72, 2, 35.9151, 48.1278, -14.08, 97.4483, -51.5278, 44.0335
1.724, 2, 35.9151, 48.1278, -14.08, 97.4483, -51.5278, 44.0335
1.728, 2, 35.9151, 48.1278, -14.08, 97.4483, -51.5278, 44.0335
1.732, 2, 35.9151, 48.1278, -14.08, 97.4483, -51.5278, 44.0335
1.736, 2, 35.9151, 48.1278, -14.08, 97.4483, -51.5278, 44.0335
1.74, 2, 35.9151, 48.1278, -14.08, 97.4483, -51.5278, 44.0335
1.744, 2, 35.9151, 48.1278, -14.08, 97.4483, -51.5278, 44.0335
1.748, 2, 35.9151, 48.1278, -14.08, 97.4483, -51.5278, 44.0335
1.752, 2, 35.9151, 48.1278, -14.08, 97.4483, -51.5278, 44.0335
1.756, 2, 35.9151, 48.1278, -14.08, 97.4483, -51.5278, 44.0335
1.76, 2, 35.9151, 48.1278, -14.08, 97.4483, -51.5278, 44.0335
1.764, 2, 35.9151, 48.1278, -14.08, 97.4483, -51.5278, 44.0335
1.768, 2, 35.9151, 48.1278, -14.08, 97.4483, -51.5278, 44.0335
1.772, 2, 35.9151, 48.1278, -14.08, 97.4483, -51.5278, 44.0335
1.776, 2, 35.9151, 48.1278, -14.08, 97.4483, -51.5278, 44.0335
1.78, 2, 35.9151, 48.1278, -14.08, 97.4483, -51.5278, 44.0335
1.784, 2, 35.9151, 48.1278, -14.08, 97.4483, -51.5278, 44.0335
1.788, 2, 35.9151, 48.1278, -14.08, 97.4483, -51.5278, 44.0335
1.792, 2, 35.9151, 48.1278, -14.08, 97.4483, -51.5278, 44.0335
1.796, 2, 35.9151, 48.1278, -14.08, 97.4483, -51.5278, 44.0335
1.8, 2, 35.9151, 48.1278, -14.08, 97.4483, -51.5278, 44.0335
1.804, 2, 35.9151, 48.1278, -14.08, 97.4483, -51.5278, 44.0335
1.808, 2, 35.9151, 48.1278, -14.08, 97.4483, -51.5278, 44.0335
1.812, 2, 35.9151, 48.1278, -14.08, 97.4483, -51.5278, 44.0335
1.816, 2, 35.9151, 48.1278, -14.08, 97.4483, -51.5278, 44.0335
1.82, 2, 35.9151, 48.1278, -14.08, 97.4483, -51.5278, 44.0335
1.824, 2, 35.9151, 48.1278, -14.08, 97.4483, -51.5278, 44.0335
1.828, 2, 35.9151, 48.1278, -14.08, 97.4483, -51.5278, 44.0335
1.832, 2, 35.9151, 48.1278, -14.08, 97.4483, -51.5278, 44.0335
1.836, 2, 35.9151, 48.1278, -14.08, 97.4483, -51.5278, 44.0335
1.84, 2, 35.9151, 48.1278, -14.08, 97.4483, -51.5278, 44.0335
1.844, 2, 35.9151, 48.1278, -14.08, 97.4483, -51.5278, 44.0335
1.848, 2, 35.9151, 48.1278, -14.08, 97.4483, -51.5278, 44.0335
1.852, 2, 35.9151, 48.1278, -14.08, 97.4483, -51.5278, 44.0335
1.856, 2, 35.9151, 48.1278, -14.08, 97.4483, -51.5278, 44.0335
1.86, 2, 35.9151, 48.1278, -14.08, 97.4483, -51.5278, 44.0335
1.864, 2, 35.9151, 48.1278, -14.08, 97.4483, -51.5278, 44.0335
1.868, 2, 35.9151, 48.1278, -14.08, 97.4483, -51.5278, 44.0335
1.872, 2, 35.9151, 48.1278, -14.08, 97.4483, -51.5278, 44.0335
1.876, 2, 35.9151, 48.1278, -14.08, 97.4483, -51.5278, 44.0335
1.88, 2, 35.9151, 48.1278, -14.08, 97.4483, -51.5278, 44.0335
1.884, 2, 35.9151, 48.1278, -14.08, 97.4483, -51.5278, 44.0335
1.888, 2, 35.9151, 48.1278, -14.08, 97.4483, -51.5278, 44.0335
1.892, 2, 35.9151, 48.1278, -14.08, 97.4483, -51.5278, 44.0335
1.896, 2, 35.9151, 48.1278, -14.08, 97.4483, -51.5278, 44.0335
1.9, 2, 35.9151, 48.1278, -14.08, 97.4483, -51.5278, 44.0335
1.904, 2, 35.9151, 48.1278, -14.08, 97.4483, -51.5278, 44.0335
1.908, 2, 35.9151, 48.1278, -14.08, 97.4483, -51.5278, 44.0335
1.912, 2, 35.9151, 48.1278, -14.08, 97.4483, -51.5278, 44.0335
1.916, 2, 35.9151, 48.1278, -14.08, 97.4483, -51.5278, 44.0335
1.92, 2, 35.9151, 48.1278, -14.08, 97.4483, -51.5278, 44.0335
1.924, 2, 35.9151, 48.1278, -14.08, 97.4483, -51.5278, 44.0335
1.928, 2, 35.9151, 48.1278, -14.08, 97.4483, -51.5278, 44.0335
1.932, 2, 35.9151, 48.1278, -14.08, 97.4483, -51.5278, 44.0335
1.936, 2, 35.9151, 48.1278, -14.08, 97.4483, -51.5278, 44.0335
1.94, 2, 35.9151, 48.1278, -14.08, 97.4483, -51.5278, 44.0335
1.944, 2, 35.9151, 48.1278, -14.08, 97.4483, -51.5278, 44.0335
1.948, 2, 35.9151, 48.1278, -14.08, 97.4483, -51.5278, 44.0335
1.952, 2, 35.9151, 48.1278, -14.08, 97.4483, -51.5278, 44.0335
1.956, 3, 35.9151, 48.1278, -14.08, 97.4483, -51.5278, 44.0335
1.96, 3, 35.9151, 48.1278, -14.08, 97.4483, -51.5278, 44.0335
1.964, 3, 35.9151, 48.1278, -14.08, 97.4483, -51.5278, 44.0335
1.968, 3, 35.9151, 48.1278, -14.08, 97.4483, -51.5278, 44.0335
1.972, 3, 35.9151, 48.1278, -14.08, 97.4483, -51.5278, 44.0335
1.976, 3, 35.9151, 48.1278, -14.08, 97.4483, -51.5278, 44.0335
1.98, 3, 35.9151, 48.1278, -14.08, 97.4483, -51.5278, 44.0335
1.984, 3, 35.9151, 48.1278, -14.08, 97.4483, -51.5278, 44.0335
1.988, 3, 35.9151, 48.1278, -14.08, 97.4483, -51.5278, 44.0335
1.992, 4, 35.9151, 48.1278, -14.08, 97.4483, -51.5278, 44.0335
1.996, 4, 35.9151, 48.1278, -14.08, 97.4483, -51.5278, 44.0335
1.999, 4, 35.9151, 48.1278, -14.08, 97.4483, -51.5278, 44.0335
2.004, 4, 35.9151, 48.1278, -14.08, 97.4483, -51.5278, 44.0335
2.008, 4, 35.9151, 48.1278, -14.08, 97.4483, -51.5278, 44.0335
2.012, 4, 35.9151, 48.1278, -14.08, 97.4483, -51.5278, 44.0335
2.015, 4, 35.9151, 48.1278, -14.08, 97.4483, -51.5278, 44.0335
2.019, 4, 35.9151, 48.1278, -14.08, 97.4483, -51.5278, 44.0335
2.024, 4, 35.9151, 48.1278, -14.08, 97.4483, -51.5278, 44.0335
2.028, 4, 35.9151, 48.1278, -14.08, 97.4483, -51.5278, 44.0335
2.031, 4, 35.9151, 48.1278, -14.08, 97.4483, -51.5278, 44.0335
2.036, 4, 35.9151, 48.1278, -14.08, 97.4483, -51.5278, 44.0335
2.04, 4, 35.9151, 48.1278, -14.08, 97.4483, -51.5278, 44.0335
2.044, 4, 35.9151, 48.1278, -14.08, 97.4483, -51.5278, 44.0335
2.048, 4, 35.9151, 48.1278, -14.08, 97.4483, -51.5278, 44.0335
2.051, 4, 35.9151, 48.1278, -14.08, 97.4483, -51.5278, 44.0335
2.055, 4, 35.9151, 48.1278, -14.08, 97.4483, -51.5278, 44.0335
2.06, 4, 35.9151, 48.1278, -14.08, 97.4483, -51.5278, 44.0335
2.064, 4, 35.9151, 48.1278, -14.08, 97.4483, -51.5278, 44.0335
2.068, 4, 35.9151, 48.1278, -14.08, 97.4483, -51.5278, 44.0335
2.071, 4, 35.9151, 48.1278, -14.08, 97.4483, -51.5278, 44.0335
2.076, 4, 35.9151, 48.1278, -14.08, 97.4483, -51.5278, 44.0335
2.08, 4, 35.9151, 48.1278, -14.08, 97.4483, -51.5278, 44.0335
2.084, 4, 35.9151, 48.1278, -14.08, 97.4483, -51.5278, 44.0335
2.087, 4, 35.9151, 48.1278, -14.08, 97.4483, -51.5278, 44.0335
2.092, 5, 35.9151, 48.1278, -14.08, 97.4483, -51.5278, 44.0335
2.096, 5, 35.9151, 48.1278, -14.08, 97.4483, -51.5278, 44.0335
2.1, 5, 35.9151, 48.1278, -14.08, 97.4483, -51.5278, 44.0335
2.104, 5, 35.9151, 48.1278, -14.08, 97.4483, -51.5278, 44.0335
2.107, 5, 35.9151, 48.1278, -14.08, 97.4483, -51.5278, 44.0335
2.111, 5, 35.9151, 48.1278, -14.08, 97.4483, -51.5278, 44.0335
2.116, 5, 35.9151, 48.1278, -14.08, 97.4483, -51.5278, 44.0335
2.12, 5, 35.9151, 48.1278, -14.08, 97.4483, -51.5278, 44.0335
2.124, 5, 35.9151, 48.1278, -14.08, 97.4483, -51.5278, 44.0335
2.127, 5, 35.9151, 48.1278, -14.08, 97.4483, -51.5278, 44.0335
2.132, 5, 35.9151, 48.1278, -14.08, 97.4483, -51.5279, 44.0335
2.136, 5, 35.915, 48.1279, -14.08, 97.4483, -51.5279, 44.0335
2.14, 5, 35.9148, 48.1281, -14.0799, 97.4483, -51.528, 44.0335
2.143, 5, 35.9145, 48.1283, -14.0799, 97.4482, -51.5282, 44.0334
2.148, 5, 35.9142, 48.1286, -14.0797, 97.4482, -51.5287, 44.0332
2.152, 5, 35.9138, 48.129, -14.0795, 97.448, -51.5294, 44.0329
2.156, 5, 35.9133, 48.1294, -14.0792, 97.4479, -51.5305, 44.0324
2.16, 5, 35.9128, 48.1298, -14.0787, 97.4476, -51.5322, 44.0317
2.163, 5, 35.9123, 48.1303, -14.0782, 97.4472, -51.5346, 44.0306
2.168, 5, 35.9119, 48.1307, -14.0774, 97.4467, -51.5378, 44.0293
2.172, 5, 35.9115, 48.1311, -14.0764, 97.446, -51.5418, 44.0275
2.176, 5, 35.9112, 48.1314, -14.0752, 97.4452, -51.5468, 44.0253
2.179, 5, 35.9108, 48.1317, -14.0738, 97.4442, -51.5529, 44.0227
2.184, 5, 35.9106, 48.132, -14.0722, 97.443, -51.56, 44.0196
2.188, 5, 35.9104, 48.1323, -14.0703, 97.4417, -51.5681, 44.016
2.192, 5, 35.9102, 48.1325, -14.0682, 97.4402, -51.5772, 44.0121
2.196, 5, 35.9101, 48.1327, -14.0659, 97.4385, -51.5873, 44.0077
2.199, 5, 35.91, 48.1329, -14.0634, 97.4367, -51.5981, 44.0029
2.204, 5, 35.91, 48.133, -14.0608, 97.4348, -51.6097, 43.9979
2.208, 5, 35.9099, 48.1332, -14.058, 97.4328, -51.6219, 43.9925
2.212, 5, 35.9098, 48.1335, -14.0551, 97.4307, -51.6346, 43.987
2.216, 5, 35.9096, 48.1338, -14.0521, 97.4285, -51.6476, 43.9814
2.219, 5, 35.9093, 48.1341, -14.0491, 97.4263, -51.6609, 43.9756
2.224, 5, 35.9089, 48.1346, -14.046, 97.4241, -51.6743, 43.9697
2.228, 5, 35.9085, 48.1351, -14.0428, 97.4218, -51.6879, 43.9638
2.232, 5, 35.908, 48.1356, -14.0397, 97.4196, -51.7016, 43.9579
2.235, 5, 35.9075, 48.1362, -14.0365, 97.4173, -51.7153, 43.9519
2.24, 5, 35.907, 48.1368, -14.0333, 97.415, -51.729, 43.9459
2.244, 5, 35.9065, 48.1374, -14.0301, 97.4127, -51.7428, 43.94
2.248, 5, 35.9059, 48.138, -14.0269, 97.4104, -51.7566, 43.934
2.252, 5, 35.9054, 48.1386, -14.0237, 97.4081, -51.7704, 43.928
2.255, 5, 35.9048, 48.1392, -14.0205, 97.4058, -51.7842, 43.922
2.259, 5, 35.9043, 48.1399, -14.0173, 97.4035, -51.798, 43.916
2.264, 5, 35.9037, 48.1405, -14.0141, 97.4012, -51.8119, 43.91
2.268, 5, 35.9032, 48.1411, -14.0109, 97.3989, -51.8257, 43.904
2.272, 5, 35.9026, 48.1418, -14.0077, 97.3966, -51.8395, 43.898
2.275, 5, 35.9021, 48.1424, -14.0045, 97.3942, -51.8533, 43.892
2.28, 5, 35.9015, 48.1431, -14.0013, 97.3919, -51.8672, 43.886
2.284, 5, 35.9009, 48.1437, -13.9981, 97.3896, -51.881, 43.88
2.288, 5, 35.9004, 48.1444, -13.9949, 97.3873, -51.8948, 43.874
2.291, 5, 35.8998, 48.145, -13.9917, 97.385, -51.9086, 43.8681
2.296, 5, 35.8992, 48.1456, -13.9885, 97.3826, -51.9225, 43.8621
2.3, 5, 35.8987, 48.1463, -13.9853, 97.3803, -51.9363, 43.8561
2.304, 5, 35.8981, 48.147, -13.9821, 97.378, -51.9501, 43.8501
2.308, 5, 35.8975, 48.1476, -13.9789, 97.3756, -51.9639, 43.8441
2.311, 5, 35.897, 48.1483, -13.9757, 97.3733, -51.9778, 43.8382
2.316, 5, 35.8964, 48.1489, -13.9725, 97.371, -51.9916, 43.8322
2.32, 5, 35.8958, 48.1496, -13.9693, 97.3686, -52.0054, 43.8262
2.324, 5, 35.8953, 48.1502, -13.9661, 97.3663, -52.0192, 43.8203
2.328, 5, 35.8947, 48.1509, -13.9629, 97.3639, -52.0331, 43.8143
2.331, 5, 35.8941, 48.1516, -13.9597, 97.3616, -52.0469, 43.8083
2.336, 5, 35.8936, 48.1522, -13.9565, 97.3592, -52.0607, 43.8024
2.34, 5, 35.893, 48.1529, -13.9533, 97.3569, -52.0745, 43.7964
2.344, 5, 35.8924, 48.1536, -13.9501, 97.3545, -52.0883, 43.7905
2.347, 5, 35.8918, 48.1543, -13.947, 97.3522, -52.1022, 43.7845
2.352, 5, 35.8913, 48.1549, -13.9438, 97.3498, -52.116, 43.7785
2.356, 5, 35.8907, 48.1556, -13.9406, 97.3475, -52.1298, 43.7726
2.36, 5, 35.8901, 48.1563, -13.9374, 97.3451, -52.1436, 43.7666
2.364, 5, 35.8895, 48.157, -13.9342, 97.3428, -52.1574, 43.7607
2.367, 5, 35.889, 48.1577, -13.931, 97.3404, -52.1713, 43.7547
2.372, 5, 35.8884, 48.1583, -13.9278, 97.338, -52.1851, 43.7488
2.376, 5, 35.8878, 48.159, -13.9246, 97.3357, -52.1989, 43.7429
2.38, 5, 35.8872, 48.1597, -13.9214, 97.3333, -52.2127, 43.7369
2.383, 5, 35.8867, 48.1604, -13.9183, 97.3309, -52.2265, 43.731
2.388, 5, 35.8861, 48.1611, -13.9151, 97.3285, -52.2403, 43.725
2.392, 5, 35.8855, 48.1618, -13.9119, 97.3262, -52.2542, 43.7191
2.396, 5, 35.8849, 48.1625, -13.9087, 97.3238, -52.268, 43.7132
2.4, 5, 35.8843, 48.1632, -13.9055, 97.3214, -52.2818, 43.7072
2.403, 5, 35.8837, 48.1639, -13.9023, 97.319, -52.2956, 43.7013
2.408, 5, 35.8832, 48.1646, -13.8992, 97.3167, -52.3094, 43.6954
2.412, 5, 35.8826, 48.1653, -13.896, 97.3143, -52.3232, 43.6895
2.416, 5, 35.882, 48.166, -13.8928, 97.3119, -52.337, 43.6836
2.42, 5, 35.8814, 48.1667, -13.8896, 97.3095, -52.3508, 43.6776
2.423, 5, 35.8808, 48.1674, -13.8864, 97.3071, -52.3647, 43.6717
2.428, 5, 35.8802, 48.1681, -13.8833, 97.3047, -52.3785, 43.6658
2.432, 5, 35.8796, 48.1688, -13.8801, 97.3023, -52.3923, 43.6599
2.436, 5, 35.879, 48.1695, -13.8769, 97.2999, -52.4061, 43.654
2.439, 5, 35.8785, 48.1703, -13.8737, 97.2975, -52.4199, 43.6481
2.444, 5, 35.8779, 48.171, -13.8706, 97.2951, -52.4337, 43.6422
2.448, 5, 35.8773, 48.1717, -13.8674, 97.2927, -52.4475, 43.6362
2.452, 5, 35.8767, 48.1724, -13.8642, 97.2903, -52.4613, 43.6303
2.456, 5, 35.8761, 48.1731, -13.861, 97.2879, -52.4751, 43.6244
2.459, 5, 35.8755, 48.1739, -13.8579, 97.2855, -52.4889, 43.6185
2.464, 5, 35.8749, 48.1746, -13.8547, 97.2831, -52.5027, 43.6126
2.468, 5, 35.8743, 48.1753, -13.8515, 97.2807, -52.5165, 43.6068
2.472, 5, 35.8737, 48.176, -13.8483, 97.2783, -52.5303, 43.6009
2.476, 5, 35.8731, 48.1768, -13.8452, 97.2758, -52.5442, 43.595
2.479, 5, 35.8725, 48.1775, -13.842, 97.2734, -52.558, 43.5891
2.484, 5, 35.8719, 48.1782, -13.8388, 97.271, -52.5718, 43.5832
2.488, 5, 35.8713, 48.179, -13.8357, 97.2686, -52.5856, 43.5773
2.492, 5, 35.8707, 48.1797, -13.8325, 97.2662, -52.5994, 43.5714
2.495, 5, 35.8701, 48.1805, -13.8293, 97.2637, -52.6132, 43.5655
2.5, 5, 35.8695, 48.1812, -13.8262, 97.2613, -52.627, 43.5597
2.504, 5, 35.8689, 48.1819, -13.823, 97.2589, -52.6408, 43.5538
2.508, 5, 35.8683, 48.1827, -13.8198, 97.2564, -52.6546, 43.5479
2.512, 5, 35.8677, 48.1834, -13.8167, 97.254, -52.6684, 43.542
2.515, 5, 35.8671, 48.1842, -13.8135, 97.2516, -52.6822, 43.5362
2.52, 5, 35.8665, 48.1849, -13.8103, 97.2491, -52.696, 43.5303
2.524, 5, 35.8659, 48.1857, -13.8072, 97.2467, -52.7098, 43.5244
2.528, 5, 35.8653, 48.1865, -13.804, 97.2443, -52.7236, 43.5186
2.531, 5, 35.8647, 48.1872, -13.8008, 97.2418, -52.7374, 43.5127
2.536, 5, 35.8641, 48.188, -13.7977, 97.2394, -52.7512, 43.5068
2.54, 5, 35.8635, 48.1887, -13.7945, 97.2369, -52.765, 43.501
2.544, 5, 35.8629, 48.1895, -13.7914, 97.2345, -52.7788, 43.4951
2.548, 5, 35.8623, 48.1903, -13.7882, 97.232, -52.7926, 43.4893
2.551, 5, 35.8617, 48.191, -13.785, 97.2296, -52.8063, 43.4834
2.556, 5, 35.861, 48.1918, -13.7819, 97.2271, -52.8201, 43.4775
2.56, 5, 35.8604, 48.1926, -13.7787, 97.2247, -52.8339, 43.4717
2.564, 5, 35.8598, 48.1933, -13.7756, 97.2222, -52.8477, 43.4658
2.568, 5, 35.8592, 48.1941, -13.7724, 97.2198, -52.8615, 43.46
2.571, 5, 35.8586, 48.1949, -13.7693, 97.2173, -52.8753, 43.4542
2.576, 5, 35.858, 48.1957, -13.7661, 97.2148, -52.8891, 43.4483
2.58, 5, 35.8574, 48.1964, -13.7629, 97.2124, -52.9029, 43.4425
2.584, 5, 35.8568, 48.1972, -13.7598, 97.2099, -52.9167, 43.4366
2.587, 5, 35.8561, 48.198, -13.7566, 97.2074, -52.9305, 43.4308
2.592, 5, 35.8555, 48.1988, -13.7535, 97.205, -52.9443, 43.425
2.596, 5, 35.8549, 48.1996, -13.7503, 97.2025, -52.9581, 43.4191
2.6, 5, 35.8543, 48.2004, -13.7472, 97.2, -52.9719, 43.4133
2.604, 5, 35.8537, 48.2012, -13.744, 97.1975, -52.9856, 43.4075
2.607, 5, 35.853, 48.202, -13.7409, 97.1951, -52.9994, 43.4016
2.612, 5, 35.8524, 48.2027, -13.7377, 97.1926, -53.0132, 43.3958
2.616, 5, 35.8518, 48.2035, -13.7346, 97.1901, -53.027, 43.39
2.62, 5, 35.8512, 48.2043, -13.7314, 97.1876, -53.0408, 43.3842
2.624, 5, 35.8506, 48.2051, -13.7283, 97.1851, -53.0546, 43.3784
2.627, 5, 35.8499, 48.2059, -13.7251, 97.1826, -53.0684, 43.3725
2.632, 5, 35.8493, 48.2067, -13.722, 97.1802, -53.0822, 43.3667
2.636, 5, 35.8487, 48.2076, -13.7188, 97.1777, -53.0959, 43.3609
2.64, 5, 35.8481, 48.2084, -13.7157, 97.1752, -53.1097, 43.3551
2.643, 5, 35.8474, 48.2092, -13.7126, 97.1727, -53.1235, 43.3493
2.648, 5, 35.8468, 48.21, -13.7094, 97.1702, -53.1373, 43.3435
2.652, 5, 35.8462, 48.2108, -13.7063, 97.1677, -53.1511, 43.3377
2.656, 5, 35.8456, 48.2116, -13.7031, 97.1652, -53.1649, 43.3319
2.66, 5, 35.8449, 48.2124, -13.7, 97.1627, -53.1786, 43.3261
2.663, 5, 35.8443, 48.2132, -13.6968, 97.1602, -53.1924, 43.3203
2.668, 5, 35.8437, 48.2141, -13.6937, 97.1577, -53.2062, 43.3145
2.672, 5, 35.843, 48.2149, -13.6906, 97.1551, -53.22, 43.3087
2.676, 5, 35.8424, 48.2157, -13.6874, 97.1526, -53.2338, 43.3029
2.679, 5, 35.8418, 48.2165, -13.6843, 97.1501, -53.2475, 43.2971
2.684, 5, 35.8411, 48.2173, -13.6811, 97.1476, -53.2613, 43.2913
2.688, 5, 35.8405, 48.2182, -13.678, 97.1451, -53.2751, 43.2855
2.692, 5, 35.8399, 48.219, -13.6749, 97.1426, -53.2889, 43.2797
2.696, 5, 35.8392, 48.2198, -13.6717, 97.1401, -53.3027, 43.2739
2.699, 5, 35.8386, 48.2207, -13.6686, 97.1375, -53.3164, 43.2682
2.704, 5, 35.838, 48.2215, -13.6655, 97.135, -53.3302, 43.2624
2.708, 5, 35.8373, 48.2223, -13.6623, 97.1325, -53.344, 43.2566
2.712, 5, 35.8367, 48.2232, -13.6592, 97.1299, -53.3578, 43.2508
2.716, 5, 35.836, 48.224, -13.656, 97.1274, -53.3715, 43.2451
2.719, 5, 35.8354, 48.2249, -13.6529, 97.1249, -53.3853, 43.2393
2.724, 5, 35.8348, 48.2257, -13.6498, 97.1224, -53.3991, 43.2335
2.728, 5, 35.8341, 48.2266, -13.6467, 97.1198, -53.4129, 43.2277
2.732, 5, 35.8335, 48.2274, -13.6435, 97.1173, -53.4266, 43.222
2.735, 5, 35.8328, 48.2283, -13.6404, 97.1147, -53.4404, 43.2162
2.74, 5, 35.8322, 48.2291, -13.6373, 97.1122, -53.4542, 43.2104
2.744, 5, 35.8316, 48.23, -13.6341, 97.1097, -53.468, 43.2047
2.748, 5, 35.8309, 48.2308, -13.631, 97.1071, -53.4817, 43.1989
2.752, 5, 35.8303, 48.2317, -13.6279, 97.1046, -53.4955, 43.1932
2.755, 5, 35.8296, 48.2325, -13.6247, 97.102, -53.5093, 43.1874
2.76, 5, 35.829, 48.2334, -13.6216, 97.0995, -53.523, 43.1817
2.764, 5, 35.8283, 48.2343, -13.6185, 97.0969, -53.5368, 43.1759
2.768, 5, 35.8277, 48.2351, -13.6154, 97.0944, -53.5506, 43.1702
2.772, 5, 35.827, 48.236, -13.6122, 97.0918, -53.5643, 43.1644
2.775, 5, 35.8264, 48.2369, -13.6091, 97.0893, -53.5781, 43.1587
2.78, 5, 35.8257, 48.2377, -13.606, 97.0867, -53.5919, 43.1529
2.784, 5, 35.8251, 48.2386, -13.6029, 97.0841, -53.6056, 43.1472
2.788, 5, 35.8244, 48.2395, -13.5997, 97.0816, -53.6194, 43.1414
2.791, 5, 35.8238, 48.2404, -13.5966, 97.079, -53.6332, 43.1357
2.796, 5, 35.8231, 48.2412, -13.5935, 97.0764, -53.6469, 43.13
2.8, 5, 35.8224, 48.2421, -13.5904, 97.0739, -53.6607, 43.1242
2.804, 5, 35.8218, 48.243, -13.5873, 97.0713, -53.6745, 43.1185
2.808, 5, 35.8211, 48.2439, -13.5841, 97.0687, -53.6882, 43.1128
2.811, 5, 35.8205, 48.2448, -13.581, 97.0662, -53.702, 43.107
2.816, 5, 35.8198, 48.2456, -13.5779, 97.0636, -53.7158, 43.1013
2.82, 5, 35.8192, 48.2465, -13.5748, 97.061, -53.7295, 43.0956
2.824, 5, 35.8185, 48.2474, -13.5717, 97.0584, -53.7433, 43.0899
2.828, 5, 35.8178, 48.2483, -13.5685, 97.0558, -53.757, 43.0842
2.831, 5, 35.8172, 48.2492, -13.5654, 97.0533, -53.7708, 43.0784
2.836, 5, 35.8165, 48.2501, -13.5623, 97.0507, -53.7846, 43.0727
2.84, 5, 35.8159, 48.251, -13.5592, 97.0481, -53.7983, 43.067
2.844, 5, 35.8152, 48.2519, -13.5561, 97.0455, -53.8121, 43.0613
2.847, 5, 35.8145, 48.2528, -13.553, 97.0429, -53.8258, 43.0556
2.852, 5, 35.8139, 48.2537, -13.5498, 97.0403, -53.8396, 43.0499
2.856, 5, 35.8132, 48.2546, -13.5467, 97.0377, -53.8534, 43.0442
2.86, 5, 35.8125, 48.2555, -13.5436, 97.0351, -53.8671, 43.0385
2.864, 5, 35.8119, 48.2564, -13.5405, 97.0325, -53.8809, 43.0328
2.867, 5, 35.8112, 48.2573, -13.5374, 97.0299, -53.8946, 43.0271
2.872, 5, 35.8105, 48.2583, -13.5343, 97.0273, -53.9084, 43.0214
2.876, 5, 35.8099, 48.2592, -13.5312, 97.0247, -53.9221, 43.0157
2.88, 5, 35.8092, 48.2601, -13.5281, 97.0221, -53.9359, 43.01
2.883, 5, 35.8085, 48.261, -13.525, 97.0195, -53.9496, 43.0043
2.888, 5, 35.8079, 48.2619, -13.5219, 97.0169, -53.9634, 42.9986
2.892, 5, 35.8072, 48.2628, -13.5187, 97.0143, -53.9772, 42.9929
2.896, 5, 35.8065, 48.2638, -13.5156, 97.0117, -53.9909, 42.9872
2.9, 5, 35.8058, 48.2647, -13.5125, 97.0091, -54.0047, 42.9815
2.903, 5, 35.8052, 48.2656, -13.5094, 97.0065, -54.0184, 42.9758
2.908, 5, 35.8045, 48.2665, -13.5063, 97.0038, -54.0322, 42.9701
2.912, 5, 35.8038, 48.2675, -13.5032, 97.0012, -54.0459, 42.9645
2.916, 5, 35.8031, 48.2684, -13.5001, 96.9986, -54.0597, 42.9588
2.92, 5, 35.8025, 48.2693, -13.497, 96.996, -54.0734, 42.9531
2.923, 5, 35.8018, 48.2703, -13.4939, 96.9933, -54.0872, 42.9474
2.928, 5, 35.8011, 48.2712, -13.4908, 96.9907, -54.1009, 42.9418
2.932, 5, 35.8004, 48.2722, -13.4877, 96.9881, -54.1147, 42.9361
2.936, 5, 35.7997, 48.2731, -13.4846, 96.9855, -54.1284, 42.9304
2.939, 5, 35.7991, 48.274, -13.4815, 96.9828, -54.1422, 42.9247
2.944, 5, 35.7984, 48.275, -13.4784, 96.9802, -54.1559, 42.9191
2.948, 5, 35.7977, 48.2759, -13.4753, 96.9776, -54.1697, 42.9134
2.952, 5, 35.797, 48.2769, -13.4722, 96.9749, -54.1834, 42.9078
2.956, 5, 35.7963, 48.2778, -13.4691, 96.9723, -54.1971, 42.9021
2.959, 5, 35.7957, 48.2788, -13.466, 96.9696, -54.2109, 42.8964
2.964, 5, 35.795, 48.2797, -13.4629, 96.967, -54.2246, 42.8908
2.968, 5, 35.7943, 48.2807, -13.4598, 96.9643, -54.2384, 42.8851
2.972, 5, 35.7936, 48.2816, -13.4567, 96.9617, -54.2521, 42.8795
2.976, 5, 35.7929, 48.2826, -13.4536, 96.9591, -54.2659, 42.8738
2.98, 5, 35.7922, 48.2836, -13.4505, 96.9564, -54.2796, 42.8682
2.984, 5, 35.7915, 48.2845, -13.4474, 96.9538, -54.2933, 42.8625
2.988, 5, 35.7908, 48.2855, -13.4443, 96.9511, -54.3071, 42.8569
2.992, 5, 35.7901, 48.2865, -13.4412, 96.9484, -54.3208, 42.8512
2.995, 5, 35.7895, 48.2874, -13.4381, 96.9458, -54.3346, 42.8456
3, 5, 35.7888, 48.2884, -13.4351, 96.9431, -54.3483, 42.84
3.004, 5, 35.7881, 48.2894, -13.432, 96.9405, -54.362, 42.8343
3.008, 5, 35.7874, 48.2903, -13.4289, 96.9378, -54.3758, 42.8287
3.012, 5, 35.7867, 48.2913, -13.4258, 96.9351, -54.3895, 42.823
3.015, 5, 35.786, 48.2923, -13.4227, 96.9325, -54.4033, 42.8174
3.02, 5, 35.7853, 48.2933, -13.4196, 96.9298, -54.417, 42.8118
3.024, 5, 35.7846, 48.2943, -13.4165, 96.9271, -54.4307, 42.8062
3.028, 5, 35.7839, 48.2952, -13.4134, 96.9244, -54.4445, 42.8005
3.031, 5, 35.7832, 48.2962, -13.4103, 96.9218, -54.4582, 42.7949
3.036, 5, 35.7825, 48.2972, -13.4072, 96.9191, -54.4719, 42.7893
3.04, 5, 35.7818, 48.2982, -13.4042, 96.9164, -54.4857, 42.7837
3.044, 5, 35.7811, 48.2992, -13.4011, 96.9137, -54.4994, 42.778
3.048, 5, 35.7804, 48.3002, -13.398, 96.9111, -54.5131, 42.7724
3.051, 5, 35.7797, 48.3012, -13.3949, 96.9084, -54.5269, 42.7668
3.056, 5, 35.779, 48.3022, -13.3918, 96.9057, -54.5406, 42.7612
3.06, 5, 35.7783, 48.3032, -13.3887, 96.903, -54.5543, 42.7556
3.064, 5, 35.7776, 48.3042, -13.3857, 96.9003, -54.5681, 42.75
3.068, 5, 35.7769, 48.3052, -13.3826, 96.8976, -54.5818, 42.7444
3.071, 5, 35.7762, 48.3062, -13.3795, 96.8949, -54.5955, 42.7388
3.076, 5, 35.7755, 48.3072, -13.3764, 96.8923, -54.6093, 42.7332
3.08, 5, 35.7748, 48.3082, -13.3733, 96.8896, -54.623, 42.7275
3.084, 5, 35.774, 48.3092, -13.3702, 96.8869, -54.6367, 42.7219
3.087, 5, 35.7733, 48.3102, -13.3672, 96.8842, -54.6504, 42.7163
3.092, 5, 35.7726, 48.3112, -13.3641, 96.8815, -54.6642, 42.7107
3.096, 5, 35.7719, 48.3122, -13.361, 96.8788, -54.6779, 42.7052
3.1, 5, 35.7712, 48.3132, -13.3579, 96.8761, -54.6916, 42.6996
3.104, 5, 35.7705, 48.3143, -13.3549, 96.8733, -54.7054, 42.694
3.107, 5, 35.7698, 48.3153, -13.3518, 96.8706, -54.7191, 42.6884
3.112, 5, 35.7691, 48.3163, -13.3487, 96.8679, -54.7328, 42.6828
3.116, 5, 35.7684, 48.3173, -13.3456, 96.8652, -54.7465, 42.6772
3.12, 5, 35.7676, 48.3183, -13.3425, 96.8625, -54.7603, 42.6716
3.124, 5, 35.7669, 48.3194, -13.3395, 96.8598, -54.774, 42.666
3.128, 5, 35.7662, 48.3204, -13.3364, 96.8571, -54.7877, 42.6605
3.132, 5, 35.7655, 48.3214, -13.3333, 96.8544, -54.8014, 42.6549
3.136, 5, 35.7648, 48.3225, -13.3303, 96.8516, -54.8151, 42.6493
3.14, 5, 35.764, 48.3235, -13.3272, 96.8489, -54.8289, 42.6437
3.143, 5, 35.7633, 48.3245, -13.3241, 96.8462, -54.8426, 42.6381
3.148, 5, 35.7626, 48.3256, -13.321, 96.8435, -54.8563, 42.6326
3.152, 5, 35.7619, 48.3266, -13.318, 96.8408, -54.87, 42.627
3.156, 5, 35.7612, 48.3276, -13.3149, 96.838, -54.8837, 42.6214
3.16, 5, 35.7604, 48.3287, -13.3118, 96.8353, -54.8975, 42.6159
3.163, 5, 35.7597, 48.3297, -13.3088, 96.8326, -54.9112, 42.6103
3.168, 5, 35.759, 48.3308, -13.3057, 96.8298, -54.9249, 42.6047
3.172, 5, 35.7583, 48.3318, -13.3026, 96.8271, -54.9386, 42.5992
3.176, 5, 35.7575, 48.3329, -13.2996, 96.8244, -54.9523, 42.5936
3.179, 5, 35.7568, 48.3339, -13.2965, 96.8216, -54.9661, 42.5881
3.184, 5, 35.7561, 48.335, -13.2934, 96.8189, -54.9798, 42.5825
3.188, 5, 35.7554, 48.336, -13.2904, 96.8161, -54.9935, 42.5769
3.192, 5, 35.7546, 48.3371, -13.2873, 96.8134, -55.0072, 42.5714
3.196, 5, 35.7539, 48.3381, -13.2842, 96.8107, -55.0209, 42.5658
3.199, 5, 35.7532, 48.3392, -13.2812, 96.8079, -55.0346, 42.5603
3.204, 5, 35.7524, 48.3403, -13.2781, 96.8052, -55.0483, 42.5547
3.208, 5, 35.7517, 48.3413, -13.275, 96.8024, -55.0621, 42.5492
3.212, 5, 35.751, 48.3424, -13.272, 96.7997, -55.0758, 42.5437
3.216, 5, 35.7502, 48.3435, -13.2689, 96.7969, -55.0895, 42.5381
3.22, 5, 35.7495, 48.3445, -13.2658, 96.7941, -55.1032, 42.5326
3.224, 5, 35.7488, 48.3456, -13.2628, 96.7914, -55.1169, 42.527
3.228, 5, 35.748, 48.3467, -13.2597, 96.7886, -55.1306, 42.5215
3.232, 5, 35.7473, 48.3477, -13.2567, 96.7859, -55.1443, 42.516
3.235, 5, 35.7466, 48.3488, -13.2536, 96.7831, -55.158, 42.5104
3.24, 5, 35.7458, 48.3499, -13.2505, 96.7803, -55.1717, 42.5049
3.244, 5, 35.7451, 48.351, -13.2475, 96.7776, -55.1854, 42.4994
3.248, 5, 35.7444, 48.3521, -13.2444, 96.7748, -55.1992, 42.4938
3.252, 5, 35.7436, 48.3531, -13.2414, 96.772, -55.2129, 42.4883
3.255, 5, 35.7429, 48.3542, -13.2383, 96.7693, -55.2266, 42.4828
3.26, 5, 35.7421, 48.3553, -13.2353, 96.7665, -55.2403, 42.4773
3.264, 5, 35.7414, 48.3564, -13.2322, 96.7637, -55.254, 42.4717
3.268, 5, 35.7406, 48.3575, -13.2291, 96.7609, -55.2677, 42.4662
3.272, 5, 35.7399, 48.3586, -13.2261, 96.7582, -55.2814, 42.4607
3.276, 5, 35.7392, 48.3597, -13.223, 96.7554, -55.2951, 42.4552
3.28, 5, 35.7384, 48.3608, -13.22, 96.7526, -55.3088, 42.4497
3.284, 5, 35.7377, 48.3619, -13.2169, 96.7498, -55.3225, 42.4442
3.288, 5, 35.7369, 48.363, -13.2139, 96.747, -55.3362, 42.4387
3.291, 5, 35.7362, 48.3641, -13.2108, 96.7443, -55.3499, 42.4332
3.296, 5, 35.7354, 48.3652, -13.2078, 96.7415, -55.3636, 42.4276
3.3, 5, 35.7347, 48.3663, -13.2047, 96.7387, -55.3773, 42.4221
3.304, 5, 35.7339, 48.3674, -13.2017, 96.7359, -55.391, 42.4166
3.308, 5, 35.7332, 48.3685, -13.1986, 96.7331, -55.4047, 42.4111
3.312, 5, 35.7324, 48.3696, -13.1956, 96.7303, -55.4184, 42.4056
3.316, 5, 35.7317, 48.3707, -13.1925, 96.7275, -55.4321, 42.4001
3.32, 5, 35.7309, 48.3718, -13.1895, 96.7247, -55.4458, 42.3946
3.324, 5, 35.7301, 48.3729, -13.1864, 96.7219, -55.4595, 42.3892
3.328, 5, 35.7294, 48.3741, -13.1834, 96.7191, -55.4732, 42.3837
3.332, 5, 35.7286, 48.3752, -13.1803, 96.7163, -55.4869, 42.3782
3.336, 5, 35.7279, 48.3763, -13.1773, 96.7135, -55.5006, 42.3727
3.34, 5, 35.7271, 48.3774, -13.1742, 96.7107, -55.5143, 42.3672
3.344, 5, 35.7264, 48.3785, -13.1712, 96.7079, -55.528, 42.3617
3.347, 5, 35.7256, 48.3797, -13.1682, 96.7051, -55.5417, 42.3562
3.352, 5, 35.7248, 48.3808, -13.1651, 96.7023, -55.5554, 42.3507
3.356, 5, 35.7241, 48.3819, -13.1621, 96.6995, -55.5691, 42.3453
3.36, 5, 35.7233, 48.383, -13.159, 96.6966, -55.5828, 42.3398
3.364, 5, 35.7226, 48.3842, -13.156, 96.6938, -55.5965, 42.3343
3.368, 5, 35.7218, 48.3853, -13.1529, 96.691, -55.6101, 42.3288
3.372, 5, 35.721, 48.3865, -13.1499, 96.6882, -55.6238, 42.3234
3.376, 5, 35.7203, 48.3876, -13.1469, 96.6854, -55.6375, 42.3179
3.38, 5, 35.7195, 48.3887, -13.1438, 96.6825, -55.6512, 42.3124
3.383, 5, 35.7187, 48.3899, -13.1408, 96.6797, -55.6649, 42.3069
3.388, 5, 35.718, 48.391, -13.1377, 96.6769, -55.6786, 42.3015
3.392, 5, 35.7172, 48.3922, -13.1347, 96.6741, -55.6923, 42.296
3.396, 5, 35.7164, 48.3933, -13.1317, 96.6712, -55.706, 42.2906
3.4, 5, 35.7157, 48.3945, -13.1286, 96.6684, -55.7197, 42.2851
3.403, 5, 35.7149, 48.3956, -13.1256, 96.6656, -55.7334, 42.2796
3.408, 5, 35.7141, 48.3968, -13.1226, 96.6627, -55.747, 42.2742
3.412, 5, 35.7133, 48.3979, -13.1195, 96.6599, -55.7607, 42.2687
3.416, 5, 35.7126, 48.3991, -13.1165, 96.6571, -55.7744, 42.2633
3.42, 5, 35.7118, 48.4002, -13.1134, 96.6542, -55.7881, 42.2578
3.424, 5, 35.711, 48.4014, -13.1104, 96.6514, -55.8018, 42.2524
3.428, 5, 35.7103, 48.4025, -13.1074, 96.6485, -55.8155, 42.2469
3.432, 5, 35.7095, 48.4037, -13.1043, 96.6457, -55.8292, 42.2415
3.436, 5, 35.7087, 48.4049, -13.1013, 96.6429, -55.8428, 42.236
3.439, 5, 35.7079, 48.406, -13.0983, 96.64, -55.8565, 42.2306
3.444, 5, 35.7071, 48.4072, -13.0952, 96.6372, -55.8702, 42.2251
3.448, 5, 35.7064, 48.4084, -13.0922, 96.6343, -55.8839, 42.2197
3.452, 5, 35.7056, 48.4095, -13.0892, 96.6314, -55.8976, 42.2143
3.456, 5, 35.7048, 48.4107, -13.0862, 96.6286, -55.9112, 42.2088
3.46, 5, 35.704, 48.4119, -13.0831, 96.6257, -55.9249, 42.2034
3.464, 5, 35.7032, 48.4131, -13.0801, 96.6229, -55.9386, 42.1979
3.468, 5, 35.7025, 48.4142, -13.0771, 96.62, -55.9523, 42.1925
3.472, 5, 35.7017, 48.4154, -13.074, 96.6172, -55.966, 42.1871
3.476, 5, 35.7009, 48.4166, -13.071, 96.6143, -55.9796, 42.1817
3.48, 5, 35.7001, 48.4178, -13.068, 96.6114, -55.9933, 42.1762
3.484, 5, 35.6993, 48.419, -13.065, 96.6086, -56.007, 42.1708
3.488, 5, 35.6985, 48.4202, -13.0619, 96.6057, -56.0207, 42.1654
3.492, 5, 35.6977, 48.4214, -13.0589, 96.6028, -56.0344, 42.16
3.495, 5, 35.697, 48.4225, -13.0559, 96.6, -56.048, 42.1545
3.5, 5, 35.6962, 48.4237, -13.0529, 96.5971, -56.0617, 42.1491
3.504, 5, 35.6954, 48.4249, -13.0498, 96.5942, -56.0754, 42.1437
3.508, 5, 35.6946, 48.4261, -13.0468, 96.5913, -56.0891, 42.1383
3.512, 5, 35.6938, 48.4273, -13.0438, 96.5885, -56.1027, 42.1329
3.516, 5, 35.693, 48.4285, -13.0408, 96.5856, -56.1164, 42.1275
3.52, 5, 35.6922, 48.4297, -13.0377, 96.5827, -56.1301, 42.1221
3.524, 5, 35.6914, 48.4309, -13.0347, 96.5798, -56.1437, 42.1166
3.528, 5, 35.6906, 48.4321, -13.0317, 96.5769, -56.1574, 42.1112
3.531, 5, 35.6898, 48.4333, -13.0287, 96.5741, -56.1711, 42.1058
3.536, 5, 35.689, 48.4345, -13.0257, 96.5712, -56.1848, 42.1004
3.54, 5, 35.6882, 48.4358, -13.0226, 96.5683, -56.1984, 42.095
3.544, 5, 35.6874, 48.437, -13.0196, 96.5654, -56.2121, 42.0896
3.548, 5, 35.6866, 48.4382, -13.0166, 96.5625, -56.2258, 42.0842
3.552, 5, 35.6858, 48.4394, -13.0136, 96.5596, -56.2394, 42.0788
3.556, 5, 35.685, 48.4406, -13.0106, 96.5567, -56.2531, 42.0734
3.56, 5, 35.6842, 48.4418, -13.0076, 96.5538, -56.2668, 42.0681
3.564, 5, 35.6834, 48.4431, -13.0045, 96.5509, -56.2804, 42.0627
3.568, 5, 35.6826, 48.4443, -13.0015, 96.548, -56.2941, 42.0573
3.572, 5, 35.6818, 48.4455, -12.9985, 96.5451, -56.3078, 42.0519
3.576, 5, 35.681, 48.4467, -12.9955, 96.5422, -56.3214, 42.0465
3.58, 5, 35.6802, 48.4479, -12.9925, 96.5393, -56.3351, 42.0411
3.584, 5, 35.6794, 48.4492, -12.9895, 96.5364, -56.3488, 42.0357
3.587, 5, 35.6786, 48.4504, -12.9865, 96.5335, -56.3624, 42.0303
3.592, 5, 35.6778, 48.4516, -12.9834, 96.5306, -56.3761, 42.025
3.596, 5, 35.677, 48.4529, -12.9804, 96.5277, -56.3898, 42.0196
3.6, 5, 35.6762, 48.4541, -12.9774, 96.5247, -56.4034, 42.0142
3.604, 5, 35.6754, 48.4553, -12.9744, 96.5218, -56.4171, 42.0088
3.608, 5, 35.6746, 48.4566, -12.9714, 96.5189, -56.4307, 42.0035
3.612, 5, 35.6738, 48.4578, -12.9684, 96.516, -56.4444, 41.9981
3.616, 5, 35.6729, 48.4591, -12.9654, 96.5131, -56.4581, 41.9927
3.62, 5, 35.6721, 48.4603, -12.9624, 96.5102, -56.4717, 41.9874
3.624, 5, 35.6713, 48.4616, -12.9594, 96.5072, -56.4854, 41.982
3.628, 5, 35.6705, 48.4628, -12.9563, 96.5043, -56.499, 41.9766
3.632, 5, 35.6697, 48.4641, -12.9533, 96.5014, -56.5127, 41.9713
3.636, 5, 35.6689, 48.4653, -12.9503, 96.4985, -56.5264, 41.9659
3.64, 5, 35.6681, 48.4666, -12.9473, 96.4955, -56.54, 41.9605
3.644, 5, 35.6672, 48.4678, -12.9443, 96.4926, -56.5537, 41.9552
3.648, 5, 35.6664, 48.4691, -12.9413, 96.4897, -56.5673, 41.9498
3.652, 5, 35.6656, 48.4703, -12.9383, 96.4867, -56.581, 41.9445
3.656, 5, 35.6648, 48.4716, -12.9353, 96.4838, -56.5946, 41.9391
3.66, 5, 35.664, 48.4729, -12.9323, 96.4809, -56.6083, 41.9338
3.664, 5, 35.6631, 48.4741, -12.9293, 96.4779, -56.6219, 41.9284
3.668, 5, 35.6623, 48.4754, -12.9263, 96.475, -56.6356, 41.9231
3.672, 5, 35.6615, 48.4767, -12.9233, 96.472, -56.6493, 41.9177
3.676, 5, 35.6607, 48.4779, -12.9203, 96.4691, -56.6629, 41.9124
3.679, 5, 35.6598, 48.4792, -12.9173, 96.4661, -56.6766, 41.907
3.684, 5, 35.659, 48.4805, -12.9143, 96.4632, -56.6902, 41.9017
3.688, 5, 35.6582, 48.4817, -12.9113, 96.4603, -56.7039, 41.8964
3.692, 5, 35.6574, 48.483, -12.9083, 96.4573, -56.7175, 41.891
3.696, 5, 35.6565, 48.4843, -12.9053, 96.4544, -56.7312, 41.8857
3.7, 5, 35.6557, 48.4856, -12.9023, 96.4514, -56.7448, 41.8804
3.704, 5, 35.6549, 48.4869, -12.8993, 96.4485, -56.7585, 41.875
3.708, 5, 35.654, 48.4881, -12.8963, 96.4455, -56.7721, 41.8697
3.712, 5, 35.6532, 48.4894, -12.8933, 96.4425, -56.7858, 41.8644
3.716, 5, 35.6524, 48.4907, -12.8903, 96.4396, -56.7994, 41.859
3.72, 5, 35.6515, 48.492, -12.8873, 96.4366, -56.813, 41.8537
3.724, 5, 35.6507, 48.4933, -12.8843, 96.4337, -56.8267, 41.8484
3.728, 5, 35.6499, 48.4946, -12.8813, 96.4307, -56.8403, 41.8431
3.732, 5, 35.649, 48.4959, -12.8783, 96.4277, -56.854, 41.8377
3.735, 5, 35.6482, 48.4972, -12.8753, 96.4248, -56.8676, 41.8324
3.74, 5, 35.6474, 48.4985, -12.8723, 96.4218, -56.8813, 41.8271
3.744, 5, 35.6465, 48.4998, -12.8693, 96.4188, -56.8949, 41.8218
3.748, 5, 35.6457, 48.5011, -12.8663, 96.4158, -56.9086, 41.8165
3.752, 5, 35.6449, 48.5024, -12.8634, 96.4129, -56.9222, 41.8112
3.756, 5, 35.644, 48.5037, -12.8604, 96.4099, -56.9358, 41.8059
3.76, 5, 35.6432, 48.505, -12.8574, 96.4069, -56.9495, 41.8005
3.764, 5, 35.6423, 48.5063, -12.8544, 96.4039, -56.9631, 41.7952
3.768, 5, 35.6415, 48.5076, -12.8514, 96.401, -56.9768, 41.7899
3.772, 5, 35.6406, 48.5089, -12.8484, 96.398, -56.9904, 41.7846
3.776, 5, 35.6398, 48.5102, -12.8454, 96.395, -57.0041, 41.7793
3.78, 5, 35.639, 48.5115, -12.8424, 96.392, -57.0177, 41.774
3.784, 5, 35.6381, 48.5128, -12.8394, 96.389, -57.0313, 41.7687
3.788, 5, 35.6373, 48.5142, -12.8364, 96.386, -57.045, 41.7634
3.792, 5, 35.6364, 48.5155, -12.8335, 96.3831, -57.0586, 41.7581
3.796, 5, 35.6356, 48.5168, -12.8305, 96.3801, -57.0722, 41.7528
3.8, 5, 35.6347, 48.5181, -12.8275, 96.3771, -57.0859, 41.7475
3.804, 5, 35.6339, 48.5194, -12.8245, 96.3741, -57.0995, 41.7422
3.808, 5, 35.633, 48.5208, -12.8215, 96.3711, -57.1131, 41.737
3.812, 5, 35.6322, 48.5221, -12.8185, 96.3681, -57.1268, 41.7317
3.816, 5, 35.6313, 48.5234, -12.8155, 96.3651, -57.1404, 41.7264
3.82, 5, 35.6305, 48.5248, -12.8126, 96.3621, -57.154, 41.7211
3.824, 5, 35.6296, 48.5261, -12.8096, 96.3591, -57.1677, 41.7158
3.828, 5, 35.6287, 48.5274, -12.8066, 96.3561, -57.1813, 41.7105
3.832, 5, 35.6279, 48.5288, -12.8036, 96.3531, -57.195, 41.7052
3.836, 5, 35.627, 48.5301, -12.8006, 96.3501, -57.2086, 41.7
3.84, 5, 35.6262, 48.5314, -12.7976, 96.3471, -57.2222, 41.6947
3.844, 5, 35.6253, 48.5328, -12.7947, 96.344, -57.2358, 41.6894
3.848, 5, 35.6245, 48.5341, -12.7917, 96.341, -57.2495, 41.6841
3.852, 5, 35.6236, 48.5355, -12.7887, 96.338, -57.2631, 41.6789
3.856, 5, 35.6227, 48.5368, -12.7857, 96.335, -57.2767, 41.6736
3.86, 5, 35.6219, 48.5382, -12.7827, 96.332, -57.2904, 41.6683
3.864, 5, 35.621, 48.5395, -12.7798, 96.329, -57.304, 41.6631
3.868, 5, 35.6202, 48.5409, -12.7768, 96.326, -57.3176, 41.6578
3.872, 5, 35.6193, 48.5422, -12.7738, 96.3229, -57.3312, 41.6525
3.876, 5, 35.6184, 48.5436, -12.7708, 96.3199, -57.3449, 41.6473
3.88, 5, 35.6176, 48.5449, -12.7679, 96.3169, -57.3585, 41.642
3.884, 5, 35.6167, 48.5463, -12.7649, 96.3139, -57.3721, 41.6368
3.888, 5, 35.6158, 48.5477, -12.7619, 96.3108, -57.3857, 41.6315
3.892, 5, 35.615, 48.549, -12.7589, 96.3078, -57.3994, 41.6262
3.896, 5, 35.6141, 48.5504, -12.756, 96.3048, -57.413, 41.621
3.9, 5, 35.6132, 48.5517, -12.753, 96.3018, -57.4266, 41.6157
3.904, 5, 35.6124, 48.5531, -12.75, 96.2987, -57.4402, 41.6105
3.908, 5, 35.6115, 48.5545, -12.747, 96.2957, -57.4539, 41.6052
3.912, 5, 35.6106, 48.5559, -12.7441, 96.2927, -57.4675, 41.6
3.916, 5, 35.6097, 48.5572, -12.7411, 96.2896, -57.4811, 41.5947
3.92, 5, 35.6089, 48.5586, -12.7381, 96.2866, -57.4947, 41.5895
3.924, 5, 35.608, 48.56, -12.7352, 96.2835, -57.5084, 41.5843
3.928, 5, 35.6071, 48.5614, -12.7322, 96.2805, -57.522, 41.579
3.932, 5, 35.6062, 48.5627, -12.7292, 96.2775, -57.5356, 41.5738
3.936, 5, 35.6054, 48.5641, -12.7262, 96.2744, -57.5492, 41.5685
3.94, 5, 35.6045, 48.5655, -12.7233, 96.2714, -57.5628, 41.5633
3.944, 5, 35.6036, 48.5669, -12.7203, 96.2683, -57.5765, 41.5581
3.948, 5, 35.6027, 48.5683, -12.7173, 96.2653, -57.5901, 41.5528
3.952, 5, 35.6018, 48.5697, -12.7144, 96.2622, -57.6037, 41.5476
3.956, 5, 35.601, 48.571, -12.7114, 96.2592, -57.6173, 41.5424
3.96, 5, 35.6001, 48.5724, -12.7084, 96.2561, -57.6309, 41.5371
3.964, 5, 35.5992, 48.5738, -12.7055, 96.2531, -57.6445, 41.5319
3.968, 5, 35.5983, 48.5752, -12.7025, 96.25, -57.6581, 41.5267
3.972, 5, 35.5974, 48.5766, -12.6995, 96.2469, -57.6718, 41.5215
3.976, 5, 35.5965, 48.578, -12.6966, 96.2439, -57.6854, 41.5162
3.98, 5, 35.5957, 48.5794, -12.6936, 96.2408, -57.699, 41.511
3.984, 5, 35.5948, 48.5808, -12.6906, 96.2378, -57.7126, 41.5058
3.988, 5, 35.5939, 48.5822, -12.6877, 96.2347, -57.7262, 41.5006
3.992, 5, 35.593, 48.5836, -12.6847, 96.2316, -57.7398, 41.4954
3.996, 5, 35.5921, 48.585, -12.6818, 96.2286, -57.7534, 41.4901
3.999, 5, 35.5912, 48.5864, -12.6788, 96.2255, -57.767, 41.4849
4.004, 5, 35.5903, 48.5879, -12.6758, 96.2224, -57.7807, 41.4797
4.008, 5, 35.5894, 48.5893, -12.6729, 96.2193, -57.7943, 41.4745
4.012, 5, 35.5885, 48.5907, -12.6699, 96.2163, -57.8079, 41.4693
4.016, 5, 35.5876, 48.5921, -12.6669, 96.2132, -57.8215, 41.4641
4.02, 5, 35.5868, 48.5935, -12.664, 96.2101, -57.8351, 41.4589
4.024, 5, 35.5859, 48.5949, -12.661, 96.207, -57.8487, 41.4537
4.028, 5, 35.585, 48.5963, -12.6581, 96.204, -57.8623, 41.4485
4.032, 5, 35.5841, 48.5978, -12.6551, 96.2009, -57.8759, 41.4433
4.036, 5, 35.5832, 48.5992, -12.6522, 96.1978, -57.8895, 41.4381
4.04, 5, 35.5823, 48.6006, -12.6492, 96.1947, -57.9031, 41.4329
4.044, 5, 35.5814, 48.602, -12.6462, 96.1916, -57.9167, 41.4277
4.048, 5, 35.5805, 48.6035, -12.6433, 96.1885, -57.9303, 41.4225
4.052, 5, 35.5796, 48.6049, -12.6403, 96.1854, -57.9439, 41.4173
4.056, 5, 35.5787, 48.6063, -12.6374, 96.1824, -57.9575, 41.4121
4.06, 5, 35.5778, 48.6078, -12.6344, 96.1793, -57.9712, 41.4069
4.064, 5, 35.5769, 48.6092, -12.6315, 96.1762, -57.9848, 41.4017
4.068, 5, 35.576, 48.6106, -12.6285, 96.1731, -57.9984, 41.3965
4.072, 5, 35.5751, 48.6121, -12.6256, 96.17, -58.012, 41.3914
4.076, 5, 35.5741, 48.6135, -12.6226, 96.1669, -58.0256, 41.3862
4.08, 5, 35.5732, 48.615, -12.6197, 96.1638, -58.0392, 41.381
4.084, 5, 35.5723, 48.6164, -12.6167, 96.1607, -58.0528, 41.3758
4.088, 5, 35.5714, 48.6179, -12.6138, 96.1576, -58.0664, 41.3706
4.092, 5, 35.5705, 48.6193, -12.6108, 96.1545, -58.08, 41.3655
4.096, 5, 35.5696, 48.6208, -12.6078, 96.1514, -58.0936, 41.3603
4.1, 5, 35.5687, 48.6222, -12.6049, 96.1483, -58.1072, 41.3551
4.104, 5, 35.5678, 48.6237, -12.6019, 96.1452, -58.1208, 41.3499
4.108, 5, 35.5669, 48.6251, -12.599, 96.1421, -58.1343, 41.3448
4.112, 5, 35.566, 48.6266, -12.5961, 96.1389, -58.1479, 41.3396
4.116, 5, 35.565, 48.628, -12.5931, 96.1358, -58.1615, 41.3344
4.12, 5, 35.5641, 48.6295, -12.5902, 96.1327, -58.1751, 41.3293
4.124, 5, 35.5632, 48.6309, -12.5872, 96.1296, -58.1887, 41.3241
4.128, 5, 35.5623, 48.6324, -12.5843, 96.1265, -58.2023, 41.3189
4.132, 5, 35.5614, 48.6339, -12.5813, 96.1234, -58.2159, 41.3138
4.136, 5, 35.5605, 48.6353, -12.5784, 96.1202, -58.2295, 41.3086
4.14, 5, 35.5595, 48.6368, -12.5754, 96.1171, -58.2431, 41.3035
4.144, 5, 35.5586, 48.6383, -12.5725, 96.114, -58.2567, 41.2983
4.148, 5, 35.5577, 48.6397, -12.5695, 96.1109, -58.2703, 41.2932
4.152, 5, 35.5568, 48.6412, -12.5666, 96.1077, -58.2839, 41.288
4.156, 5, 35.5559, 48.6427, -12.5636, 96.1046, -58.2975, 41.2828
4.16, 5, 35.5549, 48.6442, -12.5607, 96.1015, -58.3111, 41.2777
4.164, 5, 35.554, 48.6456, -12.5578, 96.0984, -58.3246, 41.2725
4.168, 5, 35.5531, 48.6471, -12.5548, 96.0952, -58.3382, 41.2674
4.172, 5, 35.5522, 48.6486, -12.5519, 96.0921, -58.3518, 41.2623
4.176, 5, 35.5512, 48.6501, -12.5489, 96.089, -58.3654, 41.2571
4.18, 5, 35.5503, 48.6516, -12.546, 96.0858, -58.379, 41.252
4.184, 5, 35.5494, 48.6531, -12.5431, 96.0827, -58.3926, 41.2468
4.188, 5, 35.5484, 48.6546, -12.5401, 96.0795, -58.4062, 41.2417
4.192, 5, 35.5475, 48.656, -12.5372, 96.0764, -58.4198, 41.2366
4.196, 5, 35.5466, 48.6575, -12.5342, 96.0733, -58.4333, 41.2314
4.2, 5, 35.5457, 48.659, -12.5313, 96.0701, -58.4469, 41.2263
4.204, 5, 35.5447, 48.6605, -12.5284, 96.067, -58.4605, 41.2211
4.208, 5, 35.5438, 48.662, -12.5254, 96.0638, -58.4741, 41.216
4.212, 5, 35.5428, 48.6635, -12.5225, 96.0607, -58.4877, 41.2109
4.216, 5, 35.5419, 48.665, -12.5196, 96.0575, -58.5013, 41.2058
4.22, 5, 35.541, 48.6665, -12.5166, 96.0544, -58.5149, 41.2006
4.224, 5, 35.54, 48.668, -12.5137, 96.0512, -58.5284, 41.1955
4.228, 5, 35.5391, 48.6695, -12.5107, 96.0481, -58.542, 41.1904
4.232, 5, 35.5382, 48.671, -12.5078, 96.0449, -58.5556, 41.1853
4.236, 5, 35.5372, 48.6725, -12.5049, 96.0418, -58.5692, 41.1801
4.24, 5, 35.5363, 48.6741, -12.5019, 96.0386, -58.5828, 41.175
4.244, 5, 35.5353, 48.6756, -12.499, 96.0355, -58.5963, 41.1699
4.248, 5, 35.5344, 48.6771, -12.4961, 96.0323, -58.6099, 41.1648
4.252, 5, 35.5335, 48.6786, -12.4931, 96.0291, -58.6235, 41.1597
4.256, 5, 35.5325, 48.6801, -12.4902, 96.026, -58.6371, 41.1545
4.26, 5, 35.5316, 48.6816, -12.4873, 96.0228, -58.6506, 41.1494
4.264, 5, 35.5306, 48.6832, -12.4844, 96.0196, -58.6642, 41.1443
4.268, 5, 35.5297, 48.6847, -12.4814, 96.0165, -58.6778, 41.1392
4.272, 5, 35.5287, 48.6862, -12.4785, 96.0133, -58.6914, 41.1341
4.276, 5, 35.5278, 48.6877, -12.4756, 96.0101, -58.705, 41.129
4.28, 5, 35.5268, 48.6892, -12.4726, 96.0069, -58.7185, 41.1239
4.284, 5, 35.5259, 48.6908, -12.4697, 96.0038, -58.7321, 41.1188
4.288, 5, 35.5249, 48.6923, -12.4668, 96.0006, -58.7457, 41.1137
4.292, 5, 35.524, 48.6938, -12.4638, 95.9974, -58.7593, 41.1086
4.296, 5, 35.523, 48.6954, -12.4609, 95.9942, -58.7728, 41.1035
4.3, 5, 35.5221, 48.6969, -12.458, 95.9911, -58.7864, 41.0984
4.304, 5, 35.5211, 48.6984, -12.4551, 95.9879, -58.8, 41.0933
4.308, 5, 35.5202, 48.7, -12.4521, 95.9847, -58.8135, 41.0882
4.312, 5, 35.5192, 48.7015, -12.4492, 95.9815, -58.8271, 41.0831
4.316, 5, 35.5183, 48.7031, -12.4463, 95.9783, -58.8407, 41.078
4.32, 5, 35.5173, 48.7046, -12.4434, 95.9751, -58.8542, 41.0729
4.324, 5, 35.5163, 48.7062, -12.4404, 95.972, -58.8678, 41.0679
4.328, 5, 35.5154, 48.7077, -12.4375, 95.9688, -58.8814, 41.0628
4.332, 5, 35.5144, 48.7093, -12.4346, 95.9656, -58.895, 41.0577
4.336, 5, 35.5135, 48.7108, -12.4317, 95.9624, -58.9085, 41.0526
4.34, 5, 35.5125, 48.7124, -12.4288, 95.9592, -58.9221, 41.0475
4.344, 5, 35.5115, 48.7139, -12.4258, 95.956, -58.9357, 41.0424
4.348, 5, 35.5106, 48.7155, -12.4229, 95.9528, -58.9492, 41.0374
4.352, 5, 35.5096, 48.717, -12.42, 95.9496, -58.9628, 41.0323
4.356, 5, 35.5087, 48.7186, -12.4171, 95.9464, -58.9763, 41.0272
4.36, 5, 35.5077, 48.7201, -12.4141, 95.9432, -58.9899, 41.0221
4.364, 5, 35.5067, 48.7217, -12.4112, 95.94, -59.0035, 41.0171
4.368, 5, 35.5058, 48.7233, -12.4083, 95.9368, -59.017, 41.012
4.372, 5, 35.5048, 48.7248, -12.4054, 95.9336, -59.0306, 41.0069
4.376, 5, 35.5038, 48.7264, -12.4025, 95.9304, -59.0442, 41.0018
4.38, 5, 35.5028, 48.728, -12.3996, 95.9272, -59.0577, 40.9968
4.384, 5, 35.5019, 48.7295, -12.3966, 95.924, -59.0713, 40.9917
4.388, 5, 35.5009, 48.7311, -12.3937, 95.9207, -59.0849, 40.9866
4.392, 5, 35.4999, 48.7327, -12.3908, 95.9175, -59.0984, 40.9816
4.396, 5, 35.499, 48.7343, -12.3879, 95.9143, -59.112, 40.9765
4.4, 5, 35.498, 48.7358, -12.385, 95.9111, -59.1255, 40.9715
4.404, 5, 35.497, 48.7374, -12.3821, 95.9079, -59.1391, 40.9664
4.408, 5, 35.496, 48.739, -12.3791, 95.9047, -59.1526, 40.9613
4.412, 5, 35.4951, 48.7406, -12.3762, 95.9015, -59.1662, 40.9563
4.416, 5, 35.4941, 48.7422, -12.3733, 95.8982, -59.1798, 40.9512
4.42, 5, 35.4931, 48.7438, -12.3704, 95.895, -59.1933, 40.9462
4.424, 5, 35.4921, 48.7453, -12.3675, 95.8918, -59.2069, 40.9411
4.428, 5, 35.4911, 48.7469, -12.3646, 95.8886, -59.2204, 40.9361
4.432, 5, 35.4902, 48.7485, -12.3617, 95.8853, -59.234, 40.931
4.436, 5, 35.4892, 48.7501, -12.3588, 95.8821, -59.2475, 40.926
4.44, 5, 35.4882, 48.7517, -12.3558, 95.8789, -59.2611, 40.921
4.444, 5, 35.4872, 48.7533, -12.3529, 95.8756, -59.2746, 40.9159
4.448, 5, 35.4862, 48.7549, -12.35, 95.8724, -59.2882, 40.9109
4.452, 5, 35.4852, 48.7565, -12.3471, 95.8692, -59.3018, 40.9058
4.456, 5, 35.4843, 48.7581, -12.3442, 95.8659, -59.3153, 40.9008
4.46, 5, 35.4833, 48.7597, -12.3413, 95.8627, -59.3289, 40.8957
4.464, 5, 35.4823, 48.7613, -12.3384, 95.8595, -59.3424, 40.8907
4.468, 5, 35.4813, 48.7629, -12.3355, 95.8562, -59.356, 40.8857
4.472, 5, 35.4803, 48.7645, -12.3326, 95.853, -59.3695, 40.8806
4.476, 5, 35.4793, 48.7661, -12.3297, 95.8497, -59.3831, 40.8756
4.48, 5, 35.4783, 48.7677, -12.3268, 95.8465, -59.3966, 40.8706
4.484, 5, 35.4773, 48.7694, -12.3239, 95.8432, -59.4102, 40.8656
4.488, 5, 35.4763, 48.771, -12.3209, 95.84, -59.4237, 40.8605
4.492, 5, 35.4753, 48.7726, -12.318, 95.8368, -59.4372, 40.8555
4.496, 5, 35.4744, 48.7742, -12.3151, 95.8335, -59.4508, 40.8505
4.5, 5, 35.4734, 48.7758, -12.3122, 95.8303, -59.4643, 40.8455
4.504, 5, 35.4724, 48.7774, -12.3093, 95.827, -59.4779, 40.8404
4.508, 5, 35.4714, 48.7791, -12.3064, 95.8238, -59.4914, 40.8354
4.512, 5, 35.4704, 48.7807, -12.3035, 95.8205, -59.505, 40.8304
4.516, 5, 35.4694, 48.7823, -12.3006, 95.8172, -59.5185, 40.8254
4.52, 5, 35.4684, 48.7839, -12.2977, 95.814, -59.5321, 40.8204
4.524, 5, 35.4674, 48.7856, -12.2948, 95.8107, -59.5456, 40.8154
4.528, 5, 35.4664, 48.7872, -12.2919, 95.8075, -59.5592, 40.8103
4.532, 5, 35.4654, 48.7888, -12.289, 95.8042, -59.5727, 40.8053
4.536, 5, 35.4644, 48.7905, -12.2861, 95.8009, -59.5862, 40.8003
4.54, 5, 35.4634, 48.7921, -12.2832, 95.7977, -59.5998, 40.7953
4.544, 5, 35.4623, 48.7937, -12.2803, 95.7944, -59.6133, 40.7903
4.548, 5, 35.4613, 48.7954, -12.2774, 95.7911, -59.6269, 40.7853
4.552, 5, 35.4603, 48.797, -12.2745, 95.7879, -59.6404, 40.7803
4.556, 5, 35.4593, 48.7987, -12.2716, 95.7846, -59.6539, 40.7753
4.56, 5, 35.4583, 48.8003, -12.2687, 95.7813, -59.6675, 40.7703
4.564, 5, 35.4573, 48.802, -12.2658, 95.7781, -59.681, 40.7653
4.568, 5, 35.4563, 48.8036, -12.2629, 95.7748, -59.6945, 40.7603
4.572, 5, 35.4553, 48.8053, -12.26, 95.7715, -59.7081, 40.7553
4.576, 5, 35.4543, 48.8069, -12.2571, 95.7682, -59.7216, 40.7503
4.58, 5, 35.4533, 48.8086, -12.2542, 95.7649, -59.7352, 40.7453
4.584, 5, 35.4523, 48.8102, -12.2513, 95.7617, -59.7487, 40.7403
4.588, 5, 35.4512, 48.8119, -12.2484, 95.7584, -59.7622, 40.7353
4.592, 5, 35.4502, 48.8135, -12.2456, 95.7551, -59.7758, 40.7303
4.596, 5, 35.4492, 48.8152, -12.2427, 95.7518, -59.7893, 40.7254
4.6, 5, 35.4482, 48.8168, -12.2398, 95.7485, -59.8028, 40.7204
4.604, 5, 35.4472, 48.8185, -12.2369, 95.7452, -59.8164, 40.7154
4.608, 5, 35.4462, 48.8202, -12.234, 95.742, -59.8299, 40.7104
4.612, 5, 35.4451, 48.8218, -12.2311, 95.7387, -59.8434, 40.7054
4.616, 5, 35.4441, 48.8235, -12.2282, 95.7354, -59.857, 40.7004
4.62, 5, 35.4431, 48.8252, -12.2253, 95.7321, -59.8705, 40.6955
4.624, 5, 35.4421, 48.8268, -12.2224, 95.7288, -59.884, 40.6905
4.628, 5, 35.441, 48.8285, -12.2195, 95.7255, -59.8975, 40.6855
4.632, 5, 35.44, 48.8302, -12.2166, 95.7222, -59.9111, 40.6805
4.636, 5, 35.439, 48.8319, -12.2137, 95.7189, -59.9246, 40.6756
4.64, 5, 35.438, 48.8335, -12.2109, 95.7156, -59.9381, 40.6706
4.644, 5, 35.4369, 48.8352, -12.208, 95.7123, -59.9517, 40.6656
4.648, 5, 35.4359, 48.8369, -12.2051, 95.709, -59.9652, 40.6606
4.652, 5, 35.4349, 48.8386, -12.2022, 95.7057, -59.9787, 40.6557
4.656, 5, 35.4339, 48.8403, -12.1993, 95.7024, -59.9922, 40.6507
4.66, 5, 35.4328, 48.842, -12.1964, 95.6991, -60.0058, 40.6457
4.664, 5, 35.4318, 48.8436, -12.1935, 95.6958, -60.0193, 40.6408
4.668, 5, 35.4308, 48.8453, -12.1906, 95.6925, -60.0328, 40.6358
4.672, 5, 35.4297, 48.847, -12.1878, 95.6892, -60.0463, 40.6309
4.676, 5, 35.4287, 48.8487, -12.1849, 95.6859, -60.0599, 40.6259
4.68, 5, 35.4277, 48.8504, -12.182, 95.6825, -60.0734, 40.6209
4.684, 5, 35.4266, 48.8521, -12.1791, 95.6792, -60.0869, 40.616
4.688, 5, 35.4256, 48.8538, -12.1762, 95.6759, -60.1004, 40.611
4.692, 5, 35.4246, 48.8555, -12.1733, 95.6726, -60.114, 40.6061
4.696, 5, 35.4235, 48.8572, -12.1705, 95.6693, -60.1275, 40.6011
4.7, 5, 35.4225, 48.8589, -12.1676, 95.666, -60.141, 40.5962
4.704, 5, 35.4214, 48.8606, -12.1647, 95.6626, -60.1545, 40.5912
4.708, 5, 35.4204, 48.8623, -12.1618, 95.6593, -60.168, 40.5863
4.712, 5, 35.4194, 48.864, -12.1589, 95.656, -60.1816, 40.5813
4.716, 5, 35.4183, 48.8657, -12.156, 95.6527, -60.1951, 40.5764
4.72, 5, 35.4173, 48.8674, -12.1532, 95.6493, -60.2086, 40.5714
4.724, 5, 35.4162, 48.8692, -12.1503, 95.646, -60.2221, 40.5665
4.728, 5, 35.4152, 48.8709, -12.1474, 95.6427, -60.2356, 40.5616
4.732, 5, 35.4141, 48.8726, -12.1445, 95.6394, -60.2491, 40.5566
4.736, 5, 35.4131, 48.8743, -12.1417, 95.636, -60.2627, 40.5517
4.74, 5, 35.412, 48.876, -12.1388, 95.6327, -60.2762, 40.5468
4.744, 5, 35.411, 48.8777, -12.1359, 95.6294, -60.2897, 40.5418
4.748, 5, 35.4099, 48.8795, -12.133, 95.626, -60.3032, 40.5369
4.752, 5, 35.4089, 48.8812, -12.1301, 95.6227, -60.3167, 40.532
4.756, 5, 35.4078, 48.8829, -12.1273, 95.6193, -60.3302, 40.527
4.76, 5, 35.4068, 48.8846, -12.1244, 95.616, -60.3437, 40.5221
4.764, 5, 35.4057, 48.8864, -12.1215, 95.6127, -60.3573, 40.5172
4.768, 5, 35.4047, 48.8881, -12.1186, 95.6093, -60.3708, 40.5122
4.772, 5, 35.4036, 48.8898, -12.1158, 95.606, -60.3843, 40.5073
4.776, 5, 35.4026, 48.8916, -12.1129, 95.6026, -60.3978, 40.5024
4.78, 5, 35.4015, 48.8933, -12.11, 95.5993, -60.4113, 40.4975
4.784, 5, 35.4005, 48.895, -12.1071, 95.5959, -60.4248, 40.4925
4.788, 5, 35.3994, 48.8968, -12.1043, 95.5926, -60.4383, 40.4876
4.792, 5, 35.3983, 48.8985, -12.1014, 95.5892, -60.4518, 40.4827
4.796, 5, 35.3973, 48.9003, -12.0985, 95.5859, -60.4653, 40.4778
4.8, 5, 35.3962, 48.902, -12.0956, 95.5825, -60.4788, 40.4729
4.804, 5, 35.3952, 48.9037, -12.0928, 95.5792, -60.4923, 40.468
4.808, 5, 35.3941, 48.9055, -12.0899, 95.5758, -60.5059, 40.4631
4.812, 5, 35.393, 48.9072, -12.087, 95.5725, -60.5194, 40.4581
4.816, 5, 35.392, 48.909, -12.0842, 95.5691, -60.5329, 40.4532
4.82, 5, 35.3909, 48.9107, -12.0813, 95.5658, -60.5464, 40.4483
4.824, 5, 35.3898, 48.9125, -12.0784, 95.5624, -60.5599, 40.4434
4.828, 5, 35.3888, 48.9142, -12.0756, 95.559, -60.5734, 40.4385
4.832, 5, 35.3877, 48.916, -12.0727, 95.5557, -60.5869, 40.4336
4.836, 5, 35.3866, 48.9178, -12.0698, 95.5523, -60.6004, 40.4287
4.84, 5, 35.3856, 48.9195, -12.067, 95.5489, -60.6139, 40.4238
4.844, 5, 35.3845, 48.9213, -12.0641, 95.5456, -60.6274, 40.4189
4.848, 5, 35.3834, 48.923, -12.0612, 95.5422, -60.6409, 40.414
4.852, 5, 35.3824, 48.9248, -12.0584, 95.5388, -60.6544, 40.4091
4.856, 5, 35.3813, 48.9266, -12.0555, 95.5355, -60.6679, 40.4042
4.86, 5, 35.3802, 48.9284, -12.0526, 95.5321, -60.6814, 40.3993
4.864, 5, 35.3791, 48.9301, -12.0498, 95.5287, -60.6949, 40.3944
4.868, 5, 35.3781, 48.9319, -12.0469, 95.5253, -60.7084, 40.3895
4.872, 5, 35.377, 48.9337, -12.044, 95.522, -60.7219, 40.3846
4.876, 5, 35.3759, 48.9354, -12.0412, 95.5186, -60.7354, 40.3798
4.88, 5, 35.3748, 48.9372, -12.0383, 95.5152, -60.7489, 40.3749
4.884, 5, 35.3737, 48.939, -12.0354, 95.5118, -60.7624, 40.37
4.888, 5, 35.3727, 48.9408, -12.0326, 95.5084, -60.7759, 40.3651
4.892, 5, 35.3716, 48.9426, -12.0297, 95.5051, -60.7894, 40.3602
4.896, 5, 35.3705, 48.9443, -12.0268, 95.5017, -60.8029, 40.3553
4.9, 5, 35.3694, 48.9461, -12.024, 95.4983, -60.8164, 40.3505
4.904, 5, 35.3683, 48.9479, -12.0211, 95.4949, -60.8298, 40.3456
4.908, 5, 35.3672, 48.9497, -12.0183, 95.4915, -60.8433, 40.3407
4.912, 5, 35.3662, 48.9515, -12.0154, 95.4881, -60.8568, 40.3358
4.916, 5, 35.3651, 48.9533, -12.0125, 95.4847, -60.8703, 40.3309
4.92, 5, 35.364, 48.9551, -12.0097, 95.4813, -60.8838, 40.3261
4.924, 5, 35.3629, 48.9569, -12.0068, 95.4779, -60.8973, 40.3212
4.928, 5, 35.3618, 48.9587, -12.004, 95.4745, -60.9108, 40.3163
4.932, 5, 35.3607, 48.9605, -12.0011, 95.4712, -60.9243, 40.3115
4.936, 5, 35.3596, 48.9623, -11.9983, 95.4678, -60.9378, 40.3066
4.94, 5, 35.3585, 48.9641, -11.9954, 95.4644, -60.9513, 40.3017
4.944, 5, 35.3574, 48.9659, -11.9925, 95.461, -60.9648, 40.2969
4.948, 5, 35.3563, 48.9677, -11.9897, 95.4576, -60.9782, 40.292
4.952, 5, 35.3553, 48.9695, -11.9868, 95.4542, -60.9917, 40.2871
4.956, 5, 35.3542, 48.9713, -11.984, 95.4507, -61.0052, 40.2823
4.96, 5, 35.3531, 48.9731, -11.9811, 95.4473, -61.0187, 40.2774
4.964, 5, 35.352, 48.9749, -11.9783, 95.4439, -61.0322, 40.2726
4.968, 5, 35.3509, 48.9767, -11.9754, 95.4405, -61.0457, 40.2677
4.972, 5, 35.3498, 48.9785, -11.9726, 95.4371, -61.0592, 40.2628
4.976, 5, 35.3487, 48.9803, -11.9697, 95.4337, -61.0726, 40.258
4.98, 5, 35.3476, 48.9822, -11.9668, 95.4303, -61.0861, 40.2531
4.984, 5, 35.3465, 48.984, -11.964, 95.4269, -61.0996, 40.2483
4.988, 5, 35.3454, 48.9858, -11.9611, 95.4235, -61.1131, 40.2434
4.992, 5, 35.3443, 48.9876, -11.9583, 95.4201, -61.1266, 40.2386
4.996, 5, 35.3432, 48.9894, -11.9554, 95.4166, -61.1401, 40.2337
5, 5, 35.3421, 48.9913, -11.9526, 95.4132, -61.1535, 40.2289
5.004, 5, 35.3409, 48.9931, -11.9497, 95.4098, -61.167, 40.224
5.008, 5, 35.3398, 48.9949, -11.9469, 95.4064, -61.1805, 40.2192
5.012, 5, 35.3387, 48.9968, -11.944, 95.403, -61.194, 40.2144
5.016, 5, 35.3376, 48.9986, -11.9412, 95.3995, -61.2075, 40.2095
5.02, 5, 35.3365, 49.0004, -11.9383, 95.3961, -61.2209, 40.2047
5.024, 5, 35.3354, 49.0023, -11.9355, 95.3927, -61.2344, 40.1998
5.028, 5, 35.3343, 49.0041, -11.9326, 95.3893, -61.2479, 40.195
5.032, 5, 35.3332, 49.0059, -11.9298, 95.3858, -61.2614, 40.1902
5.036, 5, 35.3321, 49.0078, -11.9269, 95.3824, -61.2748, 40.1853
5.04, 5, 35.3309, 49.0096, -11.9241, 95.379, -61.2883, 40.1805
5.044, 5, 35.3298, 49.0115, -11.9212, 95.3755, -61.3018, 40.1757
5.048, 5, 35.3287, 49.0133, -11.9184, 95.3721, -61.3153, 40.1708
5.052, 5, 35.3276, 49.0152, -11.9156, 95.3687, -61.3288, 40.166
5.056, 5, 35.3265, 49.017, -11.9127, 95.3652, -61.3422, 40.1612
5.06, 5, 35.3254, 49.0189, -11.9099, 95.3618, -61.3557, 40.1564
5.064, 5, 35.3242, 49.0207, -11.907, 95.3584, -61.3692, 40.1515
5.068, 5, 35.3231, 49.0226, -11.9042, 95.3549, -61.3826, 40.1467
5.072, 5, 35.322, 49.0244, -11.9013, 95.3515, -61.3961, 40.1419
5.076, 5, 35.3209, 49.0263, -11.8985, 95.348, -61.4096, 40.1371
5.08, 5, 35.3198, 49.0281, -11.8956, 95.3446, -61.4231, 40.1323
5.084, 5, 35.3186, 49.03, -11.8928, 95.3411, -61.4365, 40.1274
5.088, 5, 35.3175, 49.0318, -11.89, 95.3377, -61.45, 40.1226
5.092, 5, 35.3164, 49.0337, -11.8871, 95.3342, -61.4635, 40.1178
5.096, 5, 35.3153, 49.0356, -11.8843, 95.3308, -61.4769, 40.113
5.1, 5, 35.3141, 49.0374, -11.8814, 95.3273, -61.4904, 40.1082
5.104, 5, 35.313, 49.0393, -11.8786, 95.3239, -61.5039, 40.1034
5.108, 5, 35.3119, 49.0412, -11.8758, 95.3204, -61.5173, 40.0986
5.112, 5, 35.3107, 49.043, -11.8729, 95.317, -61.5308, 40.0937
5.116, 5, 35.3096, 49.0449, -11.8701, 95.3135, -61.5443, 40.0889
5.12, 5, 35.3085, 49.0468, -11.8672, 95.3101, -61.5577, 40.0841
5.124, 5, 35.3073, 49.0487, -11.8644, 95.3066, -61.5712, 40.0793
5.128, 5, 35.3062, 49.0506, -11.8616, 95.3032, -61.5847, 40.0745
5.132, 5, 35.3051, 49.0524, -11.8587, 95.2997, -61.5981, 40.0697
5.136, 5, 35.3039, 49.0543, -11.8559, 95.2962, -61.6116, 40.0649
5.14, 5, 35.3028, 49.0562, -11.853, 95.2928, -61.6251, 40.0601
5.144, 5, 35.3017, 49.0581, -11.8502, 95.2893, -61.6385, 40.0553
5.148, 5, 35.3005, 49.06, -11.8474, 95.2859, -61.652, 40.0505
5.152, 5, 35.2994, 49.0619, -11.8445, 95.2824, -61.6654, 40.0457
5.156, 5, 35.2982, 49.0637, -11.8417, 95.2789, -61.6789, 40.0409
5.16, 5, 35.2971, 49.0656, -11.8389, 95.2754, -61.6924, 40.0361
5.164, 5, 35.296, 49.0675, -11.836, 95.272, -61.7058, 40.0314
5.168, 5, 35.2948, 49.0694, -11.8332, 95.2685, -61.7193, 40.0266
5.172, 5, 35.2937, 49.0713, -11.8304, 95.265, -61.7327, 40.0218
5.176, 5, 35.2925, 49.0732, -11.8275, 95.2616, -61.7462, 40.017
5.18, 5, 35.2914, 49.0751, -11.8247, 95.2581, -61.7597, 40.0122
5.184, 5, 35.2902, 49.077, -11.8219, 95.2546, -61.7731, 40.0074
5.188, 5, 35.2891, 49.0789, -11.819, 95.2511, -61.7866, 40.0026
5.192, 5, 35.2879, 49.0808, -11.8162, 95.2477, -61.8, 39.9979
5.196, 5, 35.2868, 49.0827, -11.8134, 95.2442, -61.8135, 39.9931
5.2, 5, 35.2856, 49.0846, -11.8105, 95.2407, -61.8269, 39.9883
5.204, 5, 35.2845, 49.0865, -11.8077, 95.2372, -61.8404, 39.9835
5.208, 5, 35.2833, 49.0884, -11.8049, 95.2337, -61.8539, 39.9787
5.212, 5, 35.2822, 49.0904, -11.802, 95.2302, -61.8673, 39.974
5.216, 5, 35.281, 49.0923, -11.7992, 95.2268, -61.8808, 39.9692
5.22, 5, 35.2799, 49.0942, -11.7964, 95.2233, -61.8942, 39.9644
5.224, 5, 35.2787, 49.0961, -11.7936, 95.2198, -61.9077, 39.9596
5.228, 5, 35.2775, 49.098, -11.7907, 95.2163, -61.9211, 39.9549
5.232, 5, 35.2764, 49.0999, -11.7879, 95.2128, -61.9346, 39.9501
5.236, 5, 35.2752, 49.1019, -11.7851, 95.2093, -61.948, 39.9453
5.24, 5, 35.2741, 49.1038, -11.7822, 95.2058, -61.9615, 39.9406
5.244, 5, 35.2729, 49.1057, -11.7794, 95.2023, -61.9749, 39.9358
5.248, 5, 35.2718, 49.1076, -11.7766, 95.1988, -61.9884, 39.931
5.252, 5, 35.2706, 49.1096, -11.7738, 95.1953, -62.0018, 39.9263
5.256, 5, 35.2694, 49.1115, -11.7709, 95.1918, -62.0153, 39.9215
5.26, 5, 35.2683, 49.1134, -11.7681, 95.1883, -62.0287, 39.9168
5.264, 5, 35.2671, 49.1154, -11.7653, 95.1848, -62.0422, 39.912
5.268, 5, 35.2659, 49.1173, -11.7625, 95.1813, -62.0556, 39.9072
5.272, 5, 35.2648, 49.1192, -11.7596, 95.1778, -62.069, 39.9025
5.276, 5, 35.2636, 49.1212, -11.7568, 95.1743, -62.0825, 39.8977
5.28, 5, 35.2624, 49.1231, -11.754, 95.1708, -62.0959, 39.893
5.284, 5, 35.2613, 49.1251, -11.7512, 95.1673, -62.1094, 39.8882
5.288, 5, 35.2601, 49.127, -11.7483, 95.1638, -62.1228, 39.8835
5.292, 5, 35.2589, 49.1289, -11.7455, 95.1603, -62.1363, 39.8787
5.296, 5, 35.2577, 49.1309, -11.7427, 95.1568, -62.1497, 39.874
5.3, 5, 35.2566, 49.1328, -11.7399, 95.1533, -62.1632, 39.8692
5.304, 5, 35.2554, 49.1348, -11.7371, 95.1497, -62.1766, 39.8645
5.308, 5, 35.2542, 49.1367, -11.7342, 95.1462, -62.19, 39.8597
5.312, 5, 35.253, 49.1387, -11.7314, 95.1427, -62.2035, 39.855
5.316, 5, 35.2519, 49.1406, -11.7286, 95.1392, -62.2169, 39.8503
5.32, 5, 35.2507, 49.1426, -11.7258, 95.1357, -62.2304, 39.8455
5.324, 5, 35.2495, 49.1446, -11.723, 95.1322, -62.2438, 39.8408
5.328, 5, 35.2483, 49.1465, -11.7201, 95.1286, -62.2572, 39.836
5.332, 5, 35.2471, 49.1485, -11.7173, 95.1251, -62.2707, 39.8313
5.336, 5, 35.246, 49.1504, -11.7145, 95.1216, -62.2841, 39.8266
5.34, 5, 35.2448, 49.1524, -11.7117, 95.1181, -62.2976, 39.8218
5.344, 5, 35.2436, 49.1544, -11.7089, 95.1145, -62.311, 39.8171
5.348, 5, 35.2424, 49.1563, -11.7061, 95.111, -62.3244, 39.8124
5.352, 5, 35.2412, 49.1583, -11.7032, 95.1075, -62.3379, 39.8076
5.356, 5, 35.24, 49.1603, -11.7004, 95.104, -62.3513, 39.8029
5.36, 5, 35.2389, 49.1622, -11.6976, 95.1004, -62.3647, 39.7982
5.364, 5, 35.2377, 49.1642, -11.6948, 95.0969, -62.3782, 39.7935
5.368, 5, 35.2365, 49.1662, -11.692, 95.0934, -62.3916, 39.7887
5.372, 5, 35.2353, 49.1682, -11.6892, 95.0898, -62.405, 39.784
5.376, 5, 35.2341, 49.1701, -11.6864, 95.0863, -62.4185, 39.7793
5.38, 5, 35.2329, 49.1721, -11.6835, 95.0827, -62.4319, 39.7746
5.384, 5, 35.2317, 49.1741, -11.6807, 95.0792, -62.4453, 39.7699
5.388, 5, 35.2305, 49.1761, -11.6779, 95.0757, -62.4588, 39.7651
5.392, 5, 35.2293, 49.1781, -11.6751, 95.0721, -62.4722, 39.7604
5.396, 5, 35.2281, 49.1801, -11.6723, 95.0686, -62.4856, 39.7557
5.4, 5, 35.2269, 49.182, -11.6695, 95.065, -62.499, 39.751
5.404, 5, 35.2257, 49.184, -11.6667, 95.0615, -62.5125, 39.7463
5.408, 5, 35.2245, 49.186, -11.6639, 95.058, -62.5259, 39.7416
5.412, 5, 35.2233, 49.188, -11.661, 95.0544, -62.5393, 39.7369
5.416, 5, 35.2221, 49.19, -11.6582, 95.0509, -62.5527, 39.7321
5.42, 5, 35.2209, 49.192, -11.6554, 95.0473, -62.5662, 39.7274
5.424, 5, 35.2197, 49.194, -11.6526, 95.0438, -62.5796, 39.7227
5.428, 5, 35.2185, 49.196, -11.6498, 95.0402, -62.593, 39.718
5.432, 5, 35.2173, 49.198, -11.647, 95.0367, -62.6065, 39.7133
5.436, 5, 35.2161, 49.2, -11.6442, 95.0331, -62.6199, 39.7086
5.44, 5, 35.2149, 49.202, -11.6414, 95.0295, -62.6333, 39.7039
5.444, 5, 35.2137, 49.204, -11.6386, 95.026, -62.6467, 39.6992
5.448, 5, 35.2125, 49.206, -11.6358, 95.0224, -62.6602, 39.6945
5.452, 5, 35.2113, 49.208, -11.633, 95.0189, -62.6736, 39.6898
5.456, 5, 35.2101, 49.21, -11.6302, 95.0153, -62.687, 39.6851
5.46, 5, 35.2089, 49.2121, -11.6273, 95.0118, -62.7004, 39.6804
5.464, 5, 35.2077, 49.2141, -11.6245, 95.0082, -62.7138, 39.6757
5.468, 5, 35.2064, 49.2161, -11.6217, 95.0046, -62.7273, 39.671
5.472, 5, 35.2052, 49.2181, -11.6189, 95.0011, -62.7407, 39.6664
5.476, 5, 35.204, 49.2201, -11.6161, 94.9975, -62.7541, 39.6617
5.48, 5, 35.2028, 49.2221, -11.6133, 94.9939, -62.7675, 39.657
5.484, 5, 35.2016, 49.2242, -11.6105, 94.9904, -62.7809, 39.6523
5.488, 5, 35.2004, 49.2262, -11.6077, 94.9868, -62.7943, 39.6476
5.492, 5, 35.1992, 49.2282, -11.6049, 94.9832, -62.8078, 39.6429
5.496, 5, 35.1979, 49.2302, -11.6021, 94.9796, -62.8212, 39.6382
5.5, 5, 35.1967, 49.2323, -11.5993, 94.9761, -62.8346, 39.6335
5.504, 5, 35.1955, 49.2343, -11.5965, 94.9725, -62.848, 39.6289
5.508, 5, 35.1943, 49.2363, -11.5937, 94.9689, -62.8614, 39.6242
5.512, 5, 35.193, 49.2384, -11.5909, 94.9654, -62.8749, 39.6195
5.516, 5, 35.1918, 49.2404, -11.5881, 94.9618, -62.8883, 39.6148
5.52, 5, 35.1906, 49.2424, -11.5853, 94.9582, -62.9017, 39.6102
5.524, 5, 35.1894, 49.2445, -11.5825, 94.9546, -62.9151, 39.6055
5.528, 5, 35.1881, 49.2465, -11.5797, 94.951, -62.9285, 39.6008
5.532, 5, 35.1869, 49.2486, -11.5769, 94.9475, -62.9419, 39.5961
5.536, 5, 35.1857, 49.2506, -11.5741, 94.9439, -62.9553, 39.5915
5.54, 5, 35.1845, 49.2526, -11.5713, 94.9403, -62.9687, 39.5868
5.544, 5, 35.1832, 49.2547, -11.5685, 94.9367, -62.9822, 39.5821
5.548, 5, 35.182, 49.2567, -11.5657, 94.9331, -62.9956, 39.5775
5.552, 5, 35.1808, 49.2588, -11.5629, 94.9295, -63.009, 39.5728
5.556, 5, 35.1795, 49.2608, -11.5601, 94.9259, -63.0224, 39.5681
5.56, 5, 35.1783, 49.2629, -11.5573, 94.9223, -63.0358, 39.5635
5.564, 5, 35.1771, 49.2649, -11.5545, 94.9187, -63.0492, 39.5588
5.568, 5, 35.1758, 49.267, -11.5517, 94.9152, -63.0626, 39.5541
5.572, 5, 35.1746, 49.2691, -11.5489, 94.9116, -63.076, 39.5495
5.576, 5, 35.1734, 49.2711, -11.5462, 94.908, -63.0894, 39.5448
5.58, 5, 35.1721, 49.2732, -11.5434, 94.9044, -63.1028, 39.5402
5.584, 5, 35.1709, 49.2752, -11.5406, 94.9008, -63.1162, 39.5355
5.588, 5, 35.1696, 49.2773, -11.5378, 94.8972, -63.1296, 39.5309
5.592, 5, 35.1684, 49.2794, -11.535, 94.8936, -63.143, 39.5262
5.596, 5, 35.1672, 49.2814, -11.5322, 94.89, -63.1564, 39.5215
5.6, 5, 35.1659, 49.2835, -11.5294, 94.8864, -63.1698, 39.5169
5.604, 5, 35.1647, 49.2856, -11.5266, 94.8828, -63.1833, 39.5122
5.608, 5, 35.1634, 49.2876, -11.5238, 94.8792, -63.1967, 39.5076
5.612, 5, 35.1622, 49.2897, -11.521, 94.8755, -63.2101, 39.503
5.616, 5, 35.1609, 49.2918, -11.5182, 94.8719, -63.2235, 39.4983
5.62, 5, 35.1597, 49.2939, -11.5154, 94.8683, -63.2369, 39.4937
5.624, 5, 35.1584, 49.2959, -11.5126, 94.8647, -63.2503, 39.489
5.628, 5, 35.1572, 49.298, -11.5099, 94.8611, -63.2637, 39.4844
5.632, 5, 35.1559, 49.3001, -11.5071, 94.8575, -63.2771, 39.4797
5.636, 5, 35.1547, 49.3022, -11.5043, 94.8539, -63.2905, 39.4751
5.64, 5, 35.1534, 49.3043, -11.5015, 94.8503, -63.3039, 39.4705
5.644, 5, 35.1522, 49.3064, -11.4987, 94.8467, -63.3173, 39.4658
5.648, 5, 35.1509, 49.3084, -11.4959, 94.843, -63.3307, 39.4612
5.652, 5, 35.1497, 49.3105, -11.4931, 94.8394, -63.344, 39.4566
5.656, 5, 35.1484, 49.3126, -11.4903, 94.8358, -63.3574, 39.4519
5.66, 5, 35.1471, 49.3147, -11.4876, 94.8322, -63.3708, 39.4473
5.664, 5, 35.1459, 49.3168, -11.4848, 94.8286, -63.3842, 39.4426
5.668, 5, 35.1446, 49.3189, -11.482, 94.8249, -63.3976, 39.438
5.672, 5, 35.1434, 49.321, -11.4792, 94.8213, -63.411, 39.4334
5.676, 5, 35.1421, 49.3231, -11.4764, 94.8177, -63.4244, 39.4288
5.68, 5, 35.1408, 49.3252, -11.4736, 94.8141, -63.4378, 39.4241
5.684, 5, 35.1396, 49.3273, -11.4708, 94.8104, -63.4512, 39.4195
5.688, 5, 35.1383, 49.3294, -11.4681, 94.8068, -63.4646, 39.4149
5.692, 5, 35.1371, 49.3315, -11.4653, 94.8032, -63.478, 39.4103
5.696, 5, 35.1358, 49.3336, -11.4625, 94.7995, -63.4914, 39.4056
5.7, 5, 35.1345, 49.3357, -11.4597, 94.7959, -63.5048, 39.401
5.704, 5, 35.1333, 49.3378, -11.4569, 94.7923, -63.5182, 39.3964
5.708, 5, 35.132, 49.3399, -11.4541, 94.7886, -63.5316, 39.3918
5.712, 5, 35.1307, 49.342, -11.4514, 94.785, -63.5449, 39.3872
5.716, 5, 35.1294, 49.3442, -11.4486, 94.7814, -63.5583, 39.3826
5.72, 5, 35.1282, 49.3463, -11.4458, 94.7777, -63.5717, 39.3779
5.724, 5, 35.1269, 49.3484, -11.443, 94.7741, -63.5851, 39.3733
5.728, 5, 35.1256, 49.3505, -11.4402, 94.7705, -63.5985, 39.3687
5.732, 5, 35.1244, 49.3526, -11.4375, 94.7668, -63.6119, 39.3641
5.736, 5, 35.1231, 49.3548, -11.4347, 94.7632, -63.6253, 39.3595
5.74, 5, 35.1218, 49.3569, -11.4319, 94.7595, -63.6387, 39.3549
5.744, 5, 35.1205, 49.359, -11.4291, 94.7559, -63.652, 39.3503
5.748, 5, 35.1192, 49.3611, -11.4263, 94.7522, -63.6654, 39.3457
5.752, 5, 35.118, 49.3633, -11.4236, 94.7486, -63.6788, 39.3411
5.756, 5, 35.1167, 49.3654, -11.4208, 94.7449, -63.6922, 39.3365
5.76, 5, 35.1154, 49.3675, -11.418, 94.7413, -63.7056, 39.3319
5.764, 5, 35.1141, 49.3697, -11.4152, 94.7376, -63.719, 39.3273
5.768, 5, 35.1128, 49.3718, -11.4125, 94.734, -63.7323, 39.3227
5.772, 5, 35.1116, 49.3739, -11.4097, 94.7303, -63.7457, 39.3181
5.776, 5, 35.1103, 49.3761, -11.4069, 94.7267, -63.7591, 39.3135
5.78, 5, 35.109, 49.3782, -11.4041, 94.723, -63.7725, 39.3089
5.784, 5, 35.1077, 49.3803, -11.4014, 94.7194, -63.7859, 39.3043
5.788, 5, 35.1064, 49.3825, -11.3986, 94.7157, -63.7992, 39.2997
5.792, 5, 35.1051, 49.3846, -11.3958, 94.7121, -63.8126, 39.2951
5.796, 5, 35.1038, 49.3868, -11.393, 94.7084, -63.826, 39.2905
5.8, 5, 35.1025, 49.3889, -11.3903, 94.7047, -63.8394, 39.2859
5.804, 5, 35.1013, 49.3911, -11.3875, 94.7011, -63.8528, 39.2813
5.808, 5, 35.1, 49.3932, -11.3847, 94.6974, -63.8661, 39.2767
5.812, 5, 35.0987, 49.3954, -11.382, 94.6937, -63.8795, 39.2722
5.816, 5, 35.0974, 49.3975, -11.3792, 94.6901, -63.8929, 39.2676
5.82, 5, 35.0961, 49.3997, -11.3764, 94.6864, -63.9063, 39.263
5.824, 5, 35.0948, 49.4018, -11.3736, 94.6827, -63.9196, 39.2584
5.828, 5, 35.0935, 49.404, -11.3709, 94.6791, -63.933, 39.2538
5.832, 5, 35.0922, 49.4062, -11.3681, 94.6754, -63.9464, 39.2492
5.836, 5, 35.0909, 49.4083, -11.3653, 94.6717, -63.9598, 39.2447
5.84, 5, 35.0896, 49.4105, -11.3626, 94.6681, -63.9731, 39.2401
5.844, 5, 35.0883, 49.4126, -11.3598, 94.6644, -63.9865, 39.2355
5.848, 5, 35.087, 49.4148, -11.357, 94.6607, -63.9999, 39.2309
5.852, 5, 35.0857, 49.417, -11.3542, 94.657, -64.0133, 39.2264
5.856, 5, 35.0844, 49.4191, -11.3515, 94.6534, -64.0266, 39.2218
5.86, 5, 35.0831, 49.4213, -11.3487, 94.6497, -64.04, 39.2172
5.864, 5, 35.0818, 49.4235, -11.3459, 94.646, -64.0534, 39.2126
5.868, 5, 35.0805, 49.4257, -11.3432, 94.6423, -64.0667, 39.2081
5.872, 5, 35.0792, 49.4278, -11.3404, 94.6386, -64.0801, 39.2035
5.876, 5, 35.0779, 49.43, -11.3376, 94.635, -64.0935, 39.1989
5.88, 5, 35.0765, 49.4322, -11.3349, 94.6313, -64.1068, 39.1944
5.884, 5, 35.0752, 49.4344, -11.3321, 94.6276, -64.1202, 39.1898
5.888, 5, 35.0739, 49.4366, -11.3294, 94.6239, -64.1336, 39.1852
5.892, 5, 35.0726, 49.4387, -11.3266, 94.6202, -64.1469, 39.1807
5.896, 5, 35.0713, 49.4409, -11.3238, 94.6165, -64.1603, 39.1761
5.9, 5, 35.07, 49.4431, -11.3211, 94.6128, -64.1737, 39.1716
5.904, 5, 35.0687, 49.4453, -11.3183, 94.6092, -64.187, 39.167
5.908, 5, 35.0673, 49.4475, -11.3155, 94.6055, -64.2004, 39.1624
5.912, 5, 35.066, 49.4497, -11.3128, 94.6018, -64.2138, 39.1579
5.916, 5, 35.0647, 49.4519, -11.31, 94.5981, -64.2271, 39.1533
5.92, 5, 35.0634, 49.4541, -11.3072, 94.5944, -64.2405, 39.1488
5.924, 5, 35.0621, 49.4563, -11.3045, 94.5907, -64.2539, 39.1442
5.928, 5, 35.0608, 49.4585, -11.3017, 94.587, -64.2672, 39.1397
5.932, 5, 35.0594, 49.4606, -11.299, 94.5833, -64.2806, 39.1351
5.936, 5, 35.0581, 49.4628, -11.2962, 94.5796, -64.294, 39.1306
5.94, 5, 35.0568, 49.465, -11.2934, 94.5759, -64.3073, 39.126
5.944, 5, 35.0555, 49.4673, -11.2907, 94.5722, -64.3207, 39.1215
5.948, 5, 35.0541, 49.4695, -11.2879, 94.5685, -64.334, 39.1169
5.952, 5, 35.0528, 49.4717, -11.2852, 94.5648, -64.3474, 39.1124
5.956, 5, 35.0515, 49.4739, -11.2824, 94.5611, -64.3608, 39.1078
5.96, 5, 35.0502, 49.4761, -11.2796, 94.5574, -64.3741, 39.1033
5.964, 5, 35.0488, 49.4783, -11.2769, 94.5537, -64.3875, 39.0988
5.968, 5, 35.0475, 49.4805, -11.2741, 94.55, -64.4008, 39.0942
5.972, 5, 35.0462, 49.4827, -11.2714, 94.5463, -64.4142, 39.0897
5.976, 5, 35.0448, 49.4849, -11.2686, 94.5425, -64.4275, 39.0851
5.98, 5, 35.0435, 49.4872, -11.2659, 94.5388, -64.4409, 39.0806
5.984, 5, 35.0422, 49.4894, -11.2631, 94.5351, -64.4543, 39.0761
5.988, 5, 35.0408, 49.4916, -11.2603, 94.5314, -64.4676, 39.0715
5.992, 5, 35.0395, 49.4938, -11.2576, 94.5277, -64.481, 39.067
5.996, 5, 35.0382, 49.496, -11.2548, 94.524, -64.4943, 39.0625
6, 5, 35.0368, 49.4983, -11.2521, 94.5203, -64.5077, 39.0579
6.004, 5, 35.0355, 49.5005, -11.2493, 94.5165, -64.521, 39.0534
6.008, 5, 35.0341, 49.5027, -11.2466, 94.5128, -64.5344, 39.0489
6.012, 5, 35.0328, 49.5049, -11.2438, 94.5091, -64.5477, 39.0444
6.016, 5, 35.0315, 49.5072, -11.2411, 94.5054, -64.5611, 39.0398
6.02, 5, 35.0301, 49.5094, -11.2383, 94.5017, -64.5744, 39.0353
6.024, 5, 35.0288, 49.5116, -11.2356, 94.4979, -64.5878, 39.0308
6.028, 5, 35.0274, 49.5139, -11.2328, 94.4942, -64.6011, 39.0263
6.032, 5, 35.0261, 49.5161, -11.2301, 94.4905, -64.6145, 39.0217
6.036, 5, 35.0247, 49.5183, -11.2273, 94.4868, -64.6278, 39.0172
6.04, 5, 35.0234, 49.5206, -11.2246, 94.483, -64.6412, 39.0127
6.044, 5, 35.022, 49.5228, -11.2218, 94.4793, -64.6545, 39.0082
6.048, 5, 35.0207, 49.5251, -11.219, 94.4756, -64.6679, 39.0037
6.052, 5, 35.0193, 49.5273, -11.2163, 94.4719, -64.6812, 38.9991
6.056, 5, 35.018, 49.5296, -11.2135, 94.4681, -64.6946, 38.9946
6.06, 5, 35.0166, 49.5318, -11.2108, 94.4644, -64.7079, 38.9901
