hehonglu123/ABB_Primitive_Study/execution/movel_smooth/curve_exe_v50_z10.csv
timestamp, cmd_num, J1, J2, J3, J4, J5, J6
0, -1, 32.9528, 52.8019, -8.46502, 89.9168, -78.8096, 34.6812
0.002, -1, 32.9528, 52.8019, -8.46502, 89.9168, -78.8096, 34.6812
0.006, -1, 32.9528, 52.8019, -8.46502, 89.9168, -78.8096, 34.6812
0.008, -1, 32.9528, 52.8019, -8.46502, 89.9168, -78.8096, 34.6812
0.011, -1, 32.9528, 52.8019, -8.46502, 89.9168, -78.8096, 34.6812
0.016, -1, 32.9528, 52.8019, -8.46502, 89.9168, -78.8096, 34.6812
0.02, -1, 32.9528, 52.8019, -8.46502, 89.9168, -78.8096, 34.6812
0.024, -1, 32.9528, 52.8019, -8.46502, 89.9168, -78.8096, 34.6812
0.028, -1, 32.9528, 52.8019, -8.46502, 89.9168, -78.8096, 34.6812
0.032, -1, 32.9528, 52.8019, -8.46502, 89.9168, -78.8096, 34.6812
0.036, -1, 32.9529, 52.8019, -8.46502, 89.9168, -78.8096, 34.6812
0.04, -1, 32.9531, 52.8018, -8.46503, 89.9168, -78.8095, 34.6812
0.044, -1, 32.9535, 52.8014, -8.46504, 89.9169, -78.8095, 34.6812
0.048, -1, 32.9543, 52.8006, -8.46509, 89.9169, -78.8093, 34.6813
0.052, -1, 32.9556, 52.7993, -8.46521, 89.917, -78.8088, 34.6815
0.056, -1, 32.9574, 52.7971, -8.46543, 89.9173, -78.8079, 34.6818
0.06, -1, 32.9597, 52.794, -8.46584, 89.9178, -78.8061, 34.6824
0.064, -1, 32.9625, 52.7899, -8.46653, 89.9186, -78.803, 34.6835
0.068, -1, 32.9659, 52.7849, -8.46761, 89.92, -78.798, 34.6852
0.072, -1, 32.9697, 52.7789, -8.46923, 89.922, -78.7905, 34.6877
0.076, -1, 32.9741, 52.7719, -8.47155, 89.925, -78.7796, 34.6915
0.08, -1, 32.9791, 52.7639, -8.47475, 89.9292, -78.7644, 34.6967
0.084, -1, 32.9847, 52.7549, -8.47904, 89.9348, -78.744, 34.7037
0.088, -1, 32.991, 52.7451, -8.48461, 89.9421, -78.7174, 34.7128
0.092, -1, 32.9978, 52.7344, -8.49169, 89.9515, -78.6834, 34.7244
0.096, -1, 33.005, 52.7231, -8.50046, 89.9631, -78.6411, 34.7389
0.1, -1, 33.0126, 52.7112, -8.51109, 89.9773, -78.5897, 34.7566
0.104, -1, 33.0204, 52.699, -8.5237, 89.9942, -78.5285, 34.7775
0.108, -1, 33.0284, 52.6863, -8.53837, 90.0139, -78.4572, 34.802
0.112, -1, 33.0368, 52.673, -8.55512, 90.0364, -78.3757, 34.8299
0.116, -1, 33.0455, 52.6592, -8.57391, 90.0617, -78.2841, 34.8613
0.12, -1, 33.0546, 52.6447, -8.59467, 90.0896, -78.183, 34.896
0.124, -1, 33.0642, 52.6296, -8.61726, 90.12, -78.0728, 34.9337
0.128, -1, 33.0741, 52.6139, -8.64153, 90.1527, -77.9545, 34.9743
0.131, -1, 33.0844, 52.5977, -8.6673, 90.1875, -77.8288, 35.0174
0.136, -1, 33.0949, 52.5809, -8.69437, 90.2239, -77.6968, 35.0627
0.139, -1, 33.1058, 52.5633, -8.72251, 90.2618, -77.5596, 35.1097
0.144, -1, 33.1172, 52.5447, -8.75152, 90.3009, -77.4182, 35.1582
0.148, -1, 33.1293, 52.525, -8.7812, 90.3408, -77.2736, 35.2077
0.152, -1, 33.1421, 52.5041, -8.81138, 90.3814, -77.1267, 35.2581
0.156, -1, 33.1556, 52.4819, -8.8419, 90.4224, -76.9782, 35.309
0.16, -1, 33.17, 52.4586, -8.87265, 90.4637, -76.8286, 35.3603
0.164, -1, 33.1849, 52.4345, -8.90354, 90.5052, -76.6784, 35.4118
0.168, -1, 33.2004, 52.4098, -8.9345, 90.5467, -76.5279, 35.4634
0.172, -1, 33.2161, 52.3847, -8.9655, 90.5883, -76.3772, 35.515
0.176, -1, 33.2321, 52.3594, -8.9965, 90.6299, -76.2265, 35.5667
0.18, -1, 33.2481, 52.334, -9.02748, 90.6715, -76.076, 35.6183
0.184, -1, 33.2643, 52.3084, -9.05844, 90.713, -75.9256, 35.6699
0.188, -1, 33.2805, 52.2828, -9.08935, 90.7545, -75.7754, 35.7214
0.192, -1, 33.2967, 52.2573, -9.12022, 90.7959, -75.6254, 35.7728
0.196, -1, 33.3129, 52.2317, -9.15103, 90.8372, -75.4757, 35.8241
0.2, -1, 33.3291, 52.2061, -9.1818, 90.8785, -75.3262, 35.8753
0.204, -1, 33.3453, 52.1806, -9.21251, 90.9197, -75.177, 35.9265
0.208, -1, 33.3614, 52.1551, -9.24316, 90.9608, -75.028, 35.9775
0.212, -1, 33.3776, 52.1296, -9.27376, 91.0018, -74.8794, 36.0285
0.216, -1, 33.3937, 52.1042, -9.3043, 91.0428, -74.731, 36.0794
0.22, -1, 33.4098, 52.0788, -9.33479, 91.0837, -74.5829, 36.1302
0.224, -1, 33.4258, 52.0535, -9.36522, 91.1245, -74.435, 36.1808
0.228, -1, 33.4419, 52.0282, -9.3956, 91.1652, -74.2874, 36.2314
0.232, -1, 33.4579, 52.003, -9.42592, 91.2059, -74.1401, 36.2819
0.236, -1, 33.4738, 51.9778, -9.45618, 91.2465, -73.9931, 36.3323
0.24, -1, 33.4898, 51.9526, -9.48639, 91.287, -73.8463, 36.3826
0.244, -1, 33.5057, 51.9275, -9.51654, 91.3275, -73.6998, 36.4329
0.248, -1, 33.5216, 51.9025, -9.54664, 91.3678, -73.5536, 36.483
0.252, -1, 33.5374, 51.8774, -9.57668, 91.4081, -73.4076, 36.533
0.256, -1, 33.5533, 51.8525, -9.60667, 91.4483, -73.2619, 36.583
0.26, -1, 33.5691, 51.8276, -9.6366, 91.4885, -73.1165, 36.6328
0.264, -1, 33.5848, 51.8027, -9.66649, 91.5286, -72.9713, 36.6826
0.268, -1, 33.6006, 51.7778, -9.69631, 91.5686, -72.8264, 36.7323
0.272, -1, 33.6163, 51.7531, -9.72609, 91.6085, -72.6817, 36.7819
0.276, -1, 33.632, 51.7283, -9.75581, 91.6484, -72.5373, 36.8314
0.28, -1, 33.6476, 51.7036, -9.78547, 91.6882, -72.3932, 36.8808
0.284, -1, 33.6633, 51.679, -9.81509, 91.7279, -72.2493, 36.9301
0.288, -1, 33.6789, 51.6544, -9.84465, 91.7675, -72.1057, 36.9794
0.292, -1, 33.6945, 51.6298, -9.87416, 91.8071, -71.9623, 37.0285
0.296, -1, 33.71, 51.6053, -9.90362, 91.8466, -71.8191, 37.0776
0.3, -1, 33.7255, 51.5808, -9.93303, 91.8861, -71.6763, 37.1265
0.304, -1, 33.741, 51.5563, -9.96238, 91.9255, -71.5336, 37.1754
0.308, -1, 33.7565, 51.5319, -9.99169, 91.9648, -71.3913, 37.2243
0.312, -1, 33.7719, 51.5076, -10.0209, 92.004, -71.2491, 37.273
0.316, -1, 33.7873, 51.4833, -10.0501, 92.0432, -71.1073, 37.3216
0.32, -1, 33.8027, 51.459, -10.0793, 92.0823, -70.9656, 37.3702
0.324, -1, 33.8181, 51.4348, -10.1084, 92.1213, -70.8242, 37.4186
0.328, -1, 33.8334, 51.4106, -10.1374, 92.1603, -70.6831, 37.467
0.332, -1, 33.8487, 51.3864, -10.1665, 92.1992, -70.5422, 37.5153
0.336, -1, 33.864, 51.3623, -10.1954, 92.238, -70.4015, 37.5636
0.34, -1, 33.8793, 51.3383, -10.2243, 92.2768, -70.261, 37.6117
0.344, -1, 33.8945, 51.3142, -10.2532, 92.3155, -70.1209, 37.6598
0.348, -1, 33.9097, 51.2903, -10.282, 92.3541, -69.9809, 37.7077
0.352, -1, 33.9249, 51.2663, -10.3107, 92.3927, -69.8412, 37.7556
0.356, -1, 33.94, 51.2424, -10.3394, 92.4312, -69.7017, 37.8034
0.36, -1, 33.9552, 51.2186, -10.3681, 92.4696, -69.5624, 37.8512
0.364, -1, 33.9703, 51.1947, -10.3967, 92.508, -69.4234, 37.8988
0.368, -1, 33.9853, 51.171, -10.4253, 92.5463, -69.2846, 37.9464
0.372, -1, 34.0004, 51.1472, -10.4538, 92.5846, -69.1461, 37.9939
0.376, -1, 34.0154, 51.1235, -10.4823, 92.6228, -69.0078, 38.0413
0.38, -1, 34.0304, 51.0998, -10.5107, 92.6609, -68.8697, 38.0887
0.384, -1, 34.0454, 51.0762, -10.5391, 92.6989, -68.7318, 38.1359
0.388, -1, 34.0604, 51.0526, -10.5674, 92.7369, -68.5941, 38.1831
0.392, -1, 34.0753, 51.0291, -10.5957, 92.7749, -68.4567, 38.2302
0.396, -1, 34.0902, 51.0056, -10.6239, 92.8127, -68.3195, 38.2773
0.4, -1, 34.1051, 50.9821, -10.6521, 92.8506, -68.1826, 38.3242
0.404, -1, 34.1199, 50.9587, -10.6803, 92.8883, -68.0458, 38.3711
0.408, -1, 34.1348, 50.9353, -10.7084, 92.926, -67.9093, 38.4179
0.412, -1, 34.1496, 50.9119, -10.7364, 92.9636, -67.773, 38.4646
0.416, -1, 34.1643, 50.8886, -10.7644, 93.0012, -67.6369, 38.5113
0.42, -1, 34.1791, 50.8653, -10.7924, 93.0387, -67.501, 38.5579
0.424, -1, 34.1938, 50.8421, -10.8203, 93.0762, -67.3653, 38.6044
0.428, -1, 34.2086, 50.8189, -10.8482, 93.1136, -67.2299, 38.6508
0.432, -1, 34.2232, 50.7957, -10.876, 93.1509, -67.0947, 38.6971
0.436, -1, 34.2379, 50.7726, -10.9038, 93.1881, -66.9597, 38.7434
0.44, -1, 34.2526, 50.7495, -10.9315, 93.2254, -66.8249, 38.7896
0.444, -1, 34.2672, 50.7264, -10.9592, 93.2625, -66.6903, 38.8358
0.448, -1, 34.2818, 50.7034, -10.9869, 93.2996, -66.5559, 38.8818
0.452, -1, 34.2964, 50.6804, -11.0145, 93.3367, -66.4217, 38.9278
0.456, -1, 34.3109, 50.6574, -11.0421, 93.3736, -66.2878, 38.9738
0.46, -1, 34.3254, 50.6345, -11.0696, 93.4106, -66.154, 39.0196
0.464, -1, 34.3399, 50.6116, -11.0971, 93.4474, -66.0204, 39.0654
0.468, -1, 34.3544, 50.5888, -11.1246, 93.4842, -65.8871, 39.1111
0.472, -1, 34.3689, 50.566, -11.152, 93.521, -65.754, 39.1567
0.476, -1, 34.3833, 50.5432, -11.1793, 93.5577, -65.621, 39.2023
0.48, -1, 34.3978, 50.5204, -11.2066, 93.5943, -65.4883, 39.2478
0.484, -1, 34.4121, 50.4977, -11.2339, 93.6309, -65.3558, 39.2933
0.488, -1, 34.4265, 50.475, -11.2612, 93.6675, -65.2234, 39.3386
0.492, -1, 34.4409, 50.4524, -11.2883, 93.7039, -65.0913, 39.3839
0.496, -1, 34.4552, 50.4298, -11.3155, 93.7404, -64.9594, 39.4291
0.5, -1, 34.4695, 50.4072, -11.3426, 93.7767, -64.8276, 39.4743
0.504, -1, 34.4838, 50.3847, -11.3697, 93.813, -64.6961, 39.5194
0.508, -1, 34.4981, 50.3622, -11.3967, 93.8493, -64.5647, 39.5644
0.512, -1, 34.5123, 50.3397, -11.4237, 93.8855, -64.4336, 39.6094
0.516, -1, 34.5265, 50.3173, -11.4507, 93.9217, -64.3026, 39.6543
0.52, -1, 34.5408, 50.2949, -11.4776, 93.9578, -64.1719, 39.6991
0.524, -1, 34.5549, 50.2725, -11.5045, 93.9938, -64.0413, 39.7439
0.528, -1, 34.5691, 50.2501, -11.5313, 94.0298, -63.9109, 39.7886
0.532, -1, 34.5832, 50.2278, -11.5581, 94.0657, -63.7807, 39.8332
0.536, -1, 34.5974, 50.2056, -11.5848, 94.1016, -63.6507, 39.8777
0.54, -1, 34.6115, 50.1833, -11.6116, 94.1375, -63.5209, 39.9222
0.544, -1, 34.6255, 50.1611, -11.6382, 94.1732, -63.3913, 39.9667
0.548, -1, 34.6396, 50.1389, -11.6649, 94.209, -63.2619, 40.0111
0.552, -1, 34.6536, 50.1168, -11.6915, 94.2447, -63.1326, 40.0554
0.556, -1, 34.6677, 50.0947, -11.718, 94.2803, -63.0036, 40.0996
0.56, -1, 34.6817, 50.0726, -11.7446, 94.3159, -62.8747, 40.1438
0.564, -1, 34.6956, 50.0505, -11.7711, 94.3514, -62.746, 40.1879
0.568, -1, 34.7096, 50.0285, -11.7975, 94.3869, -62.6175, 40.2319
0.572, -1, 34.7235, 50.0065, -11.8239, 94.4223, -62.4892, 40.2759
0.576, -1, 34.7375, 49.9846, -11.8503, 94.4577, -62.361, 40.3199
0.58, -1, 34.7514, 49.9626, -11.8766, 94.493, -62.2331, 40.3637
0.584, -1, 34.7652, 49.9407, -11.9029, 94.5283, -62.1053, 40.4075
0.588, -1, 34.7791, 49.9189, -11.9292, 94.5635, -61.9777, 40.4513
0.592, -1, 34.7929, 49.897, -11.9554, 94.5987, -61.8503, 40.495
0.596, -1, 34.8068, 49.8752, -11.9816, 94.6338, -61.723, 40.5386
0.6, -1, 34.8206, 49.8535, -12.0078, 94.6689, -61.5959, 40.5821
0.604, -1, 34.8343, 49.8317, -12.0339, 94.7039, -61.4691, 40.6256
0.608, -1, 34.8481, 49.81, -12.0599, 94.7389, -61.3423, 40.6691
0.612, -1, 34.8618, 49.7883, -12.086, 94.7738, -61.2158, 40.7125
0.616, -1, 34.8756, 49.7667, -12.112, 94.8087, -61.0894, 40.7558
0.62, -1, 34.8893, 49.7451, -12.138, 94.8435, -60.9632, 40.799
0.624, -1, 34.903, 49.7235, -12.1639, 94.8783, -60.8372, 40.8422
0.628, -1, 34.9166, 49.7019, -12.1898, 94.9131, -60.7114, 40.8854
0.632, -1, 34.9303, 49.6804, -12.2157, 94.9478, -60.5857, 40.9284
0.636, -1, 34.9439, 49.6589, -12.2415, 94.9824, -60.4602, 40.9715
0.64, -1, 34.9575, 49.6374, -12.2673, 95.017, -60.3349, 41.0144
0.644, -1, 34.9711, 49.6159, -12.2931, 95.0516, -60.2097, 41.0573
0.648, -1, 34.9847, 49.5945, -12.3188, 95.0861, -60.0847, 41.1002
0.652, -1, 34.9983, 49.5731, -12.3445, 95.1205, -59.9599, 41.143
0.656, -1, 35.0118, 49.5518, -12.3701, 95.1549, -59.8352, 41.1857
0.66, -1, 35.0253, 49.5304, -12.3958, 95.1893, -59.7107, 41.2284
0.664, -1, 35.0388, 49.5091, -12.4214, 95.2236, -59.5864, 41.271
0.668, -1, 35.0523, 49.4879, -12.4469, 95.2579, -59.4622, 41.3136
0.672, -1, 35.0658, 49.4666, -12.4724, 95.2921, -59.3382, 41.3561
0.676, -1, 35.0792, 49.4454, -12.4979, 95.3263, -59.2144, 41.3985
0.68, -1, 35.0927, 49.4242, -12.5234, 95.3605, -59.0907, 41.4409
0.684, -1, 35.1061, 49.4031, -12.5488, 95.3946, -58.9672, 41.4833
0.688, -1, 35.1195, 49.3819, -12.5742, 95.4286, -58.8439, 41.5256
0.692, -1, 35.1329, 49.3608, -12.5995, 95.4626, -58.7207, 41.5678
0.696, -1, 35.1462, 49.3397, -12.6249, 95.4966, -58.5977, 41.61
0.7, -1, 35.1596, 49.3187, -12.6501, 95.5305, -58.4748, 41.6521
0.704, -1, 35.1729, 49.2977, -12.6754, 95.5644, -58.3521, 41.6941
0.708, -1, 35.1862, 49.2767, -12.7006, 95.5982, -58.2296, 41.7361
0.712, -1, 35.1995, 49.2557, -12.7258, 95.632, -58.1072, 41.7781
0.716, -1, 35.2128, 49.2347, -12.751, 95.6657, -57.985, 41.82
0.72, -1, 35.226, 49.2138, -12.7761, 95.6994, -57.8629, 41.8618
0.724, -1, 35.2393, 49.1929, -12.8012, 95.7331, -57.741, 41.9036
0.728, -1, 35.2525, 49.1721, -12.8262, 95.7667, -57.6192, 41.9454
0.732, -1, 35.2657, 49.1512, -12.8513, 95.8003, -57.4976, 41.9871
0.736, -1, 35.2789, 49.1304, -12.8763, 95.8338, -57.3762, 42.0287
0.74, -1, 35.2921, 49.1097, -12.9012, 95.8673, -57.2549, 42.0703
0.744, -1, 35.3052, 49.0889, -12.9262, 95.9007, -57.1338, 42.1118
0.748, -1, 35.3184, 49.0682, -12.9511, 95.9341, -57.0128, 42.1533
0.752, -1, 35.3315, 49.0475, -12.9759, 95.9675, -56.8919, 42.1947
0.756, -1, 35.3446, 49.0268, -13.0008, 96.0008, -56.7712, 42.2361
0.76, -1, 35.3577, 49.0061, -13.0256, 96.0341, -56.6507, 42.2774
0.764, -1, 35.3708, 48.9855, -13.0504, 96.0673, -56.5303, 42.3187
0.768, -1, 35.3838, 48.9649, -13.0751, 96.1005, -56.4101, 42.3599
0.772, -1, 35.3969, 48.9443, -13.0998, 96.1336, -56.29, 42.401
0.776, -1, 35.4099, 48.9238, -13.1245, 96.1667, -56.1701, 42.4422
0.78, -1, 35.4229, 48.9032, -13.1492, 96.1998, -56.0503, 42.4832
0.784, -1, 35.4359, 48.8827, -13.1738, 96.2328, -55.9307, 42.5242
0.788, -1, 35.4489, 48.8623, -13.1984, 96.2658, -55.8112, 42.5652
0.792, -1, 35.4619, 48.8418, -13.2229, 96.2988, -55.6918, 42.6061
0.796, -1, 35.4748, 48.8214, -13.2475, 96.3317, -55.5726, 42.647
0.8, -1, 35.4877, 48.801, -13.272, 96.3645, -55.4535, 42.6878
0.804, -1, 35.5006, 48.7806, -13.2965, 96.3974, -55.3346, 42.7285
0.808, -1, 35.5136, 48.7603, -13.3209, 96.4302, -55.2159, 42.7693
0.812, -1, 35.5264, 48.7399, -13.3453, 96.4629, -55.0972, 42.8099
0.816, -1, 35.5393, 48.7196, -13.3697, 96.4956, -54.9787, 42.8506
0.82, -1, 35.5522, 48.6994, -13.3941, 96.5283, -54.8604, 42.8911
0.824, -1, 35.565, 48.6791, -13.4184, 96.5609, -54.7422, 42.9316
0.828, -1, 35.5778, 48.6589, -13.4427, 96.5935, -54.6241, 42.9721
0.832, -1, 35.5906, 48.6387, -13.467, 96.6261, -54.5062, 43.0125
0.836, -1, 35.6034, 48.6185, -13.4912, 96.6586, -54.3884, 43.0529
0.84, -1, 35.6162, 48.5983, -13.5154, 96.6911, -54.2707, 43.0933
0.844, -1, 35.629, 48.5782, -13.5396, 96.7235, -54.1532, 43.1335
0.848, -1, 35.6417, 48.5581, -13.5638, 96.7559, -54.0358, 43.1738
0.852, -1, 35.6545, 48.538, -13.5879, 96.7883, -53.9186, 43.214
0.856, -1, 35.6672, 48.5179, -13.612, 96.8206, -53.8015, 43.2541
0.86, -1, 35.6799, 48.4979, -13.6361, 96.8529, -53.6845, 43.2942
0.864, -1, 35.6925, 48.4779, -13.6601, 96.8852, -53.5677, 43.3343
0.868, -1, 35.7051, 48.458, -13.6841, 96.9174, -53.451, 43.3743
0.872, -1, 35.7176, 48.4381, -13.7081, 96.9496, -53.3345, 43.4142
0.876, -1, 35.73, 48.4184, -13.7321, 96.9817, -53.2181, 43.4541
0.88, -1, 35.7419, 48.3992, -13.756, 97.0137, -53.102, 43.4939
0.884, -1, 35.7533, 48.3805, -13.7798, 97.0457, -52.9863, 43.5336
0.888, -1, 35.7641, 48.3627, -13.8035, 97.0775, -52.8712, 43.5731
0.892, -1, 35.7742, 48.3457, -13.8269, 97.109, -52.757, 43.6122
0.896, -1, 35.7836, 48.3297, -13.8501, 97.1401, -52.6444, 43.6508
0.9, -1, 35.7924, 48.3145, -13.8728, 97.1706, -52.534, 43.6887
0.904, -1, 35.8007, 48.3002, -13.895, 97.2003, -52.4264, 43.7256
0.908, -1, 35.8087, 48.2866, -13.9163, 97.229, -52.3226, 43.7613
0.912, -1, 35.8164, 48.2736, -13.9367, 97.2564, -52.2234, 43.7953
0.916, -1, 35.8238, 48.2613, -13.956, 97.2823, -52.1296, 43.8275
0.92, -1, 35.8309, 48.2497, -13.9741, 97.3065, -52.042, 43.8576
0.924, -1, 35.8377, 48.2387, -13.9907, 97.3288, -51.9612, 43.8853
0.928, -1, 35.8442, 48.2281, -14.0057, 97.3491, -51.888, 43.9104
0.932, -1, 35.8507, 48.2178, -14.0192, 97.3671, -51.8226, 43.9328
0.936, -1, 35.8571, 48.2077, -14.031, 97.3829, -51.7653, 43.9524
0.94, -1, 35.8634, 48.1979, -14.0412, 97.3966, -51.716, 43.9693
0.944, -1, 35.8695, 48.1884, -14.0498, 97.4081, -51.6743, 43.9836
0.948, -1, 35.8755, 48.1793, -14.0569, 97.4175, -51.6399, 43.9954
0.952, -1, 35.8812, 48.1708, -14.0626, 97.4252, -51.612, 44.0049
0.956, -1, 35.8865, 48.1631, -14.0672, 97.4313, -51.5899, 44.0124
0.96, -1, 35.8915, 48.1562, -14.0707, 97.436, -51.5728, 44.0183
0.964, -1, 35.896, 48.1502, -14.0734, 97.4396, -51.5598, 44.0227
0.968, -1, 35.9001, 48.145, -14.0754, 97.4422, -51.5503, 44.0259
0.972, -1, 35.9037, 48.1406, -14.0768, 97.4441, -51.5433, 44.0283
0.976, 2, 35.9067, 48.1371, -14.0778, 97.4454, -51.5385, 44.0299
0.98, 2, 35.9091, 48.1343, -14.0785, 97.4463, -51.5351, 44.0311
0.984, 2, 35.911, 48.1323, -14.079, 97.4469, -51.5327, 44.0319
0.988, 2, 35.9123, 48.1308, -14.0793, 97.4474, -51.5312, 44.0324
0.992, 2, 35.9132, 48.1299, -14.0796, 97.4477, -51.5301, 44.0328
0.996, 2, 35.9138, 48.1292, -14.0797, 97.4479, -51.5294, 44.033
1, 2, 35.9142, 48.1287, -14.0798, 97.448, -51.5289, 44.0332
1.004, 2, 35.9145, 48.1284, -14.0799, 97.4481, -51.5285, 44.0333
1.008, 2, 35.9147, 48.1282, -14.0799, 97.4482, -51.5283, 44.0334
1.012, 2, 35.9149, 48.1281, -14.08, 97.4482, -51.5282, 44.0334
1.016, 2, 35.9149, 48.128, -14.08, 97.4482, -51.5281, 44.0335
1.02, 2, 35.915, 48.1279, -14.08, 97.4482, -51.528, 44.0335
1.024, 2, 35.915, 48.1279, -14.08, 97.4483, -51.5279, 44.0335
1.027, 2, 35.9151, 48.1278, -14.08, 97.4483, -51.5279, 44.0335
1.032, 2, 35.9151, 48.1278, -14.08, 97.4483, -51.5279, 44.0335
1.036, 2, 35.9151, 48.1278, -14.08, 97.4483, -51.5279, 44.0335
1.04, 2, 35.9151, 48.1278, -14.08, 97.4483, -51.5279, 44.0335
1.044, 2, 35.9151, 48.1278, -14.08, 97.4483, -51.5279, 44.0335
1.048, 2, 35.9151, 48.1278, -14.08, 97.4483, -51.5279, 44.0335
1.052, 2, 35.9151, 48.1278, -14.08, 97.4483, -51.5278, 44.0335
1.055, 2, 35.9151, 48.1278, -14.08, 97.4483, -51.5278, 44.0335
1.06, 2, 35.9151, 48.1278, -14.08, 97.4483, -51.5278, 44.0335
1.064, 2, 35.9151, 48.1278, -14.08, 97.4483, -51.5278, 44.0335
1.068, 2, 35.9151, 48.1278, -14.08, 97.4483, -51.5278, 44.0335
1.072, 2, 35.9151, 48.1278, -14.08, 97.4483, -51.5278, 44.0335
1.076, 2, 35.9151, 48.1278, -14.08, 97.4483, -51.5278, 44.0335
1.08, 2, 35.9151, 48.1278, -14.08, 97.4483, -51.5278, 44.0335
1.084, 2, 35.9151, 48.1278, -14.08, 97.4483, -51.5278, 44.0335
1.088, 2, 35.9151, 48.1278, -14.08, 97.4483, -51.5278, 44.0335
1.091, 2, 35.9151, 48.1278, -14.08, 97.4483, -51.5278, 44.0335
1.096, 2, 35.9151, 48.1278, -14.08, 97.4483, -51.5278, 44.0335
1.1, 2, 35.9151, 48.1278, -14.08, 97.4483, -51.5278, 44.0335
1.104, 2, 35.9151, 48.1278, -14.08, 97.4483, -51.5278, 44.0335
1.108, 2, 35.9151, 48.1278, -14.08, 97.4483, -51.5278, 44.0335
1.112, 2, 35.9151, 48.1278, -14.08, 97.4483, -51.5278, 44.0335
1.116, 2, 35.9151, 48.1278, -14.08, 97.4483, -51.5278, 44.0335
1.119, 2, 35.9151, 48.1278, -14.08, 97.4483, -51.5278, 44.0335
1.124, 2, 35.9151, 48.1278, -14.08, 97.4483, -51.5278, 44.0335
1.128, 2, 35.9151, 48.1278, -14.08, 97.4483, -51.5278, 44.0335
1.132, 2, 35.9151, 48.1278, -14.08, 97.4483, -51.5278, 44.0335
1.136, 2, 35.9151, 48.1278, -14.08, 97.4483, -51.5278, 44.0335
1.14, 2, 35.9151, 48.1278, -14.08, 97.4483, -51.5278, 44.0335
1.144, 2, 35.9151, 48.1278, -14.08, 97.4483, -51.5278, 44.0335
1.147, 2, 35.9151, 48.1278, -14.08, 97.4483, -51.5278, 44.0335
1.152, 2, 35.9151, 48.1278, -14.08, 97.4483, -51.5278, 44.0335
1.156, 2, 35.9151, 48.1278, -14.08, 97.4483, -51.5278, 44.0335
1.16, 2, 35.9151, 48.1278, -14.08, 97.4483, -51.5278, 44.0335
1.164, 2, 35.9151, 48.1278, -14.08, 97.4483, -51.5278, 44.0335
1.168, 2, 35.9151, 48.1278, -14.08, 97.4483, -51.5278, 44.0335
1.172, 2, 35.9151, 48.1278, -14.08, 97.4483, -51.5278, 44.0335
1.175, 2, 35.9151, 48.1278, -14.08, 97.4483, -51.5278, 44.0335
1.18, 2, 35.9151, 48.1278, -14.08, 97.4483, -51.5278, 44.0335
1.184, 2, 35.9151, 48.1278, -14.08, 97.4483, -51.5278, 44.0335
1.188, 2, 35.9151, 48.1278, -14.08, 97.4483, -51.5278, 44.0335
1.192, 2, 35.9151, 48.1278, -14.08, 97.4483, -51.5278, 44.0335
1.196, 2, 35.9151, 48.1278, -14.08, 97.4483, -51.5278, 44.0335
1.2, 2, 35.9151, 48.1278, -14.08, 97.4483, -51.5278, 44.0335
1.204, 2, 35.9151, 48.1278, -14.08, 97.4483, -51.5278, 44.0335
1.208, 2, 35.9151, 48.1278, -14.08, 97.4483, -51.5278, 44.0335
1.212, 2, 35.9151, 48.1278, -14.08, 97.4483, -51.5278, 44.0335
1.216, 2, 35.9151, 48.1278, -14.08, 97.4483, -51.5278, 44.0335
1.22, 2, 35.9151, 48.1278, -14.08, 97.4483, -51.5278, 44.0335
1.224, 2, 35.9151, 48.1278, -14.08, 97.4483, -51.5278, 44.0335
1.228, 2, 35.9151, 48.1278, -14.08, 97.4483, -51.5278, 44.0335
1.232, 2, 35.9151, 48.1278, -14.08, 97.4483, -51.5278, 44.0335
1.236, 2, 35.9151, 48.1278, -14.08, 97.4483, -51.5278, 44.0335
1.24, 2, 35.9151, 48.1278, -14.08, 97.4483, -51.5278, 44.0335
1.244, 2, 35.9151, 48.1278, -14.08, 97.4483, -51.5278, 44.0335
1.248, 2, 35.9151, 48.1278, -14.08, 97.4483, -51.5278, 44.0335
1.252, 2, 35.9151, 48.1278, -14.08, 97.4483, -51.5278, 44.0335
1.256, 2, 35.9151, 48.1278, -14.08, 97.4483, -51.5278, 44.0335
1.26, 2, 35.9151, 48.1278, -14.08, 97.4483, -51.5278, 44.0335
1.264, 2, 35.9151, 48.1278, -14.08, 97.4483, -51.5278, 44.0335
1.267, 2, 35.9151, 48.1278, -14.08, 97.4483, -51.5278, 44.0335
1.272, 2, 35.9151, 48.1278, -14.08, 97.4483, -51.5278, 44.0335
1.276, 2, 35.9151, 48.1278, -14.08, 97.4483, -51.5278, 44.0335
1.28, 2, 35.9151, 48.1278, -14.08, 97.4483, -51.5278, 44.0335
1.284, 2, 35.9151, 48.1278, -14.08, 97.4483, -51.5278, 44.0335
1.288, 2, 35.9151, 48.1278, -14.08, 97.4483, -51.5278, 44.0335
1.292, 2, 35.9151, 48.1278, -14.08, 97.4483, -51.5278, 44.0335
1.295, 2, 35.9151, 48.1278, -14.08, 97.4483, -51.5278, 44.0335
1.3, 2, 35.9151, 48.1278, -14.08, 97.4483, -51.5278, 44.0335
1.304, 2, 35.9151, 48.1278, -14.08, 97.4483, -51.5278, 44.0335
1.308, 2, 35.9151, 48.1278, -14.08, 97.4483, -51.5278, 44.0335
1.312, 2, 35.9151, 48.1278, -14.08, 97.4483, -51.5278, 44.0335
1.316, 2, 35.9151, 48.1278, -14.08, 97.4483, -51.5278, 44.0335
1.32, 2, 35.9151, 48.1278, -14.08, 97.4483, -51.5278, 44.0335
1.324, 2, 35.9151, 48.1278, -14.08, 97.4483, -51.5278, 44.0335
1.328, 2, 35.9151, 48.1278, -14.08, 97.4483, -51.5278, 44.0335
1.332, 2, 35.9151, 48.1278, -14.08, 97.4483, -51.5278, 44.0335
1.336, 2, 35.9151, 48.1278, -14.08, 97.4483, -51.5278, 44.0335
1.34, 2, 35.9151, 48.1278, -14.08, 97.4483, -51.5278, 44.0335
1.344, 2, 35.9151, 48.1278, -14.08, 97.4483, -51.5278, 44.0335
1.348, 2, 35.9151, 48.1278, -14.08, 97.4483, -51.5278, 44.0335
1.352, 2, 35.9151, 48.1278, -14.08, 97.4483, -51.5278, 44.0335
1.356, 2, 35.9151, 48.1278, -14.08, 97.4483, -51.5278, 44.0335
1.36, 2, 35.9151, 48.1278, -14.08, 97.4483, -51.5278, 44.0335
1.364, 2, 35.9151, 48.1278, -14.08, 97.4483, -51.5278, 44.0335
1.368, 2, 35.9151, 48.1278, -14.08, 97.4483, -51.5278, 44.0335
1.372, 2, 35.9151, 48.1278, -14.08, 97.4483, -51.5278, 44.0335
1.376, 2, 35.9151, 48.1278, -14.08, 97.4483, -51.5278, 44.0335
1.38, 2, 35.9151, 48.1278, -14.08, 97.4483, -51.5278, 44.0335
1.384, 2, 35.9151, 48.1278, -14.08, 97.4483, -51.5278, 44.0335
1.388, 2, 35.9151, 48.1278, -14.08, 97.4483, -51.5278, 44.0335
1.392, 2, 35.9151, 48.1278, -14.08, 97.4483, -51.5278, 44.0335
1.396, 2, 35.9151, 48.1278, -14.08, 97.4483, -51.5278, 44.0335
1.4, 2, 35.9151, 48.1278, -14.08, 97.4483, -51.5278, 44.0335
1.404, 2, 35.9151, 48.1278, -14.08, 97.4483, -51.5278, 44.0335
1.408, 2, 35.9151, 48.1278, -14.08, 97.4483, -51.5278, 44.0335
1.412, 2, 35.9151, 48.1278, -14.08, 97.4483, -51.5278, 44.0335
1.416, 2, 35.9151, 48.1278, -14.08, 97.4483, -51.5278, 44.0335
1.42, 2, 35.9151, 48.1278, -14.08, 97.4483, -51.5278, 44.0335
1.424, 2, 35.9151, 48.1278, -14.08, 97.4483, -51.5278, 44.0335
1.428, 2, 35.9151, 48.1278, -14.08, 97.4483, -51.5278, 44.0335
1.432, 2, 35.9151, 48.1278, -14.08, 97.4483, -51.5278, 44.0335
1.436, 2, 35.9151, 48.1278, -14.08, 97.4483, -51.5278, 44.0335
1.44, 2, 35.9151, 48.1278, -14.08, 97.4483, -51.5278, 44.0335
1.444, 2, 35.9151, 48.1278, -14.08, 97.4483, -51.5278, 44.0335
1.448, 2, 35.9151, 48.1278, -14.08, 97.4483, -51.5278, 44.0335
1.452, 2, 35.9151, 48.1278, -14.08, 97.4483, -51.5278, 44.0335
1.456, 2, 35.9151, 48.1278, -14.08, 97.4483, -51.5278, 44.0335
1.46, 2, 35.9151, 48.1278, -14.08, 97.4483, -51.5278, 44.0335
1.464, 2, 35.9151, 48.1278, -14.08, 97.4483, -51.5278, 44.0335
1.468, 2, 35.9151, 48.1278, -14.08, 97.4483, -51.5278, 44.0335
1.472, 2, 35.9151, 48.1278, -14.08, 97.4483, -51.5278, 44.0335
1.476, 2, 35.9151, 48.1278, -14.08, 97.4483, -51.5278, 44.0335
1.48, 2, 35.9151, 48.1278, -14.08, 97.4483, -51.5278, 44.0335
1.484, 2, 35.9151, 48.1278, -14.08, 97.4483, -51.5278, 44.0335
1.488, 2, 35.9151, 48.1278, -14.08, 97.4483, -51.5278, 44.0335
1.492, 2, 35.9151, 48.1278, -14.08, 97.4483, -51.5278, 44.0335
1.496, 2, 35.9151, 48.1278, -14.08, 97.4483, -51.5278, 44.0335
1.5, 2, 35.9151, 48.1278, -14.08, 97.4483, -51.5278, 44.0335
1.504, 2, 35.9151, 48.1278, -14.08, 97.4483, -51.5278, 44.0335
1.508, 2, 35.9151, 48.1278, -14.08, 97.4483, -51.5278, 44.0335
1.512, 2, 35.9151, 48.1278, -14.08, 97.4483, -51.5278, 44.0335
1.516, 2, 35.9151, 48.1278, -14.08, 97.4483, -51.5278, 44.0335
1.52, 2, 35.9151, 48.1278, -14.08, 97.4483, -51.5278, 44.0335
1.524, 2, 35.9151, 48.1278, -14.08, 97.4483, -51.5278, 44.0335
1.528, 2, 35.9151, 48.1278, -14.08, 97.4483, -51.5278, 44.0335
1.532, 2, 35.9151, 48.1278, -14.08, 97.4483, -51.5278, 44.0335
1.536, 2, 35.9151, 48.1278, -14.08, 97.4483, -51.5278, 44.0335
1.54, 2, 35.9151, 48.1278, -14.08, 97.4483, -51.5278, 44.0335
1.544, 2, 35.9151, 48.1278, -14.08, 97.4483, -51.5278, 44.0335
1.548, 2, 35.9151, 48.1278, -14.08, 97.4483, -51.5278, 44.0335
1.552, 2, 35.9151, 48.1278, -14.08, 97.4483, -51.5278, 44.0335
1.556, 2, 35.9151, 48.1278, -14.08, 97.4483, -51.5278, 44.0335
1.56, 2, 35.9151, 48.1278, -14.08, 97.4483, -51.5278, 44.0335
1.564, 2, 35.9151, 48.1278, -14.08, 97.4483, -51.5278, 44.0335
1.568, 2, 35.9151, 48.1278, -14.08, 97.4483, -51.5278, 44.0335
1.572, 2, 35.9151, 48.1278, -14.08, 97.4483, -51.5278, 44.0335
1.576, 2, 35.9151, 48.1278, -14.08, 97.4483, -51.5278, 44.0335
1.58, 2, 35.9151, 48.1278, -14.08, 97.4483, -51.5278, 44.0335
1.584, 2, 35.9151, 48.1278, -14.08, 97.4483, -51.5278, 44.0335
1.588, 2, 35.9151, 48.1278, -14.08, 97.4483, -51.5278, 44.0335
1.592, 2, 35.9151, 48.1278, -14.08, 97.4483, -51.5278, 44.0335
1.596, 2, 35.9151, 48.1278, -14.08, 97.4483, -51.5278, 44.0335
1.6, 2, 35.9151, 48.1278, -14.08, 97.4483, -51.5278, 44.0335
1.604, 2, 35.9151, 48.1278, -14.08, 97.4483, -51.5278, 44.0335
1.608, 2, 35.9151, 48.1278, -14.08, 97.4483, -51.5278, 44.0335
1.612, 2, 35.9151, 48.1278, -14.08, 97.4483, -51.5278, 44.0335
1.616, 2, 35.9151, 48.1278, -14.08, 97.4483, -51.5278, 44.0335
1.62, 2, 35.9151, 48.1278, -14.08, 97.4483, -51.5278, 44.0335
1.624, 2, 35.9151, 48.1278, -14.08, 97.4483, -51.5278, 44.0335
1.628, 2, 35.9151, 48.1278, -14.08, 97.4483, -51.5278, 44.0335
1.632, 2, 35.9151, 48.1278, -14.08, 97.4483, -51.5278, 44.0335
1.636, 2, 35.9151, 48.1278, -14.08, 97.4483, -51.5278, 44.0335
1.64, 2, 35.9151, 48.1278, -14.08, 97.4483, -51.5278, 44.0335
1.644, 2, 35.9151, 48.1278, -14.08, 97.4483, -51.5278, 44.0335
1.648, 2, 35.9151, 48.1278, -14.08, 97.4483, -51.5278, 44.0335
1.652, 2, 35.9151, 48.1278, -14.08, 97.4483, -51.5278, 44.0335
1.656, 2, 35.9151, 48.1278, -14.08, 97.4483, -51.5278, 44.0335
1.66, 2, 35.9151, 48.1278, -14.08, 97.4483, -51.5278, 44.0335
1.664, 2, 35.9151, 48.1278, -14.08, 97.4483, -51.5278, 44.0335
1.668, 2, 35.9151, 48.1278, -14.08, 97.4483, -51.5278, 44.0335
1.672, 2, 35.9151, 48.1278, -14.08, 97.4483, -51.5278, 44.0335
1.676, 2, 35.9151, 48.1278, -14.08, 97.4483, -51.5278, 44.0335
1.68, 2, 35.9151, 48.1278, -14.08, 97.4483, -51.5278, 44.0335
1.684, 2, 35.9151, 48.1278, -14.08, 97.4483, -51.5278, 44.0335
1.688, 2, 35.9151, 48.1278, -14.08, 97.4483, -51.5278, 44.0335
1.692, 2, 35.9151, 48.1278, -14.08, 97.4483, -51.5278, 44.0335
1.696, 2, 35.9151, 48.1278, -14.08, 97.4483, -51.5278, 44.0335
1.7, 2, 35.9151, 48.1278, -14.08, 97.4483, -51.5278, 44.0335
1.704, 2, 35.9151, 48.1278, -14.08, 97.4483, -51.5278, 44.0335
1.708, 2, 35.9151, 48.1278, -14.08, 97.4483, -51.5278, 44.0335
1.712, 2, 35.9151, 48.1278, -14.08, 97.4483, -51.5278, 44.0335
1.716, 2, 35.9151, 48.1278, -14.08, 97.4483, -51.5278, 44.0335
1.72, 2, 35.9151, 48.1278, -14.08, 97.4483, -51.5278, 44.0335
1.724, 2, 35.9151, 48.1278, -14.08, 97.4483, -51.5278, 44.0335
1.728, 2, 35.9151, 48.1278, -14.08, 97.4483, -51.5278, 44.0335
1.732, 2, 35.9151, 48.1278, -14.08, 97.4483, -51.5278, 44.0335
1.736, 2, 35.9151, 48.1278, -14.08, 97.4483, -51.5278, 44.0335
1.74, 2, 35.9151, 48.1278, -14.08, 97.4483, -51.5278, 44.0335
1.744, 2, 35.9151, 48.1278, -14.08, 97.4483, -51.5278, 44.0335
1.748, 2, 35.9151, 48.1278, -14.08, 97.4483, -51.5278, 44.0335
1.752, 2, 35.9151, 48.1278, -14.08, 97.4483, -51.5278, 44.0335
1.756, 2, 35.9151, 48.1278, -14.08, 97.4483, -51.5278, 44.0335
1.76, 2, 35.9151, 48.1278, -14.08, 97.4483, -51.5278, 44.0335
1.764, 2, 35.9151, 48.1278, -14.08, 97.4483, -51.5278, 44.0335
1.768, 2, 35.9151, 48.1278, -14.08, 97.4483, -51.5278, 44.0335
1.772, 2, 35.9151, 48.1278, -14.08, 97.4483, -51.5278, 44.0335
1.776, 2, 35.9151, 48.1278, -14.08, 97.4483, -51.5278, 44.0335
1.78, 2, 35.9151, 48.1278, -14.08, 97.4483, -51.5278, 44.0335
1.784, 2, 35.9151, 48.1278, -14.08, 97.4483, -51.5278, 44.0335
1.788, 2, 35.9151, 48.1278, -14.08, 97.4483, -51.5278, 44.0335
1.792, 2, 35.9151, 48.1278, -14.08, 97.4483, -51.5278, 44.0335
1.796, 2, 35.9151, 48.1278, -14.08, 97.4483, -51.5278, 44.0335
1.8, 2, 35.9151, 48.1278, -14.08, 97.4483, -51.5278, 44.0335
1.804, 2, 35.9151, 48.1278, -14.08, 97.4483, -51.5278, 44.0335
1.808, 2, 35.9151, 48.1278, -14.08, 97.4483, -51.5278, 44.0335
1.812, 2, 35.9151, 48.1278, -14.08, 97.4483, -51.5278, 44.0335
1.816, 2, 35.9151, 48.1278, -14.08, 97.4483, -51.5278, 44.0335
1.82, 2, 35.9151, 48.1278, -14.08, 97.4483, -51.5278, 44.0335
1.824, 2, 35.9151, 48.1278, -14.08, 97.4483, -51.5278, 44.0335
1.828, 2, 35.9151, 48.1278, -14.08, 97.4483, -51.5278, 44.0335
1.832, 2, 35.9151, 48.1278, -14.08, 97.4483, -51.5278, 44.0335
1.836, 2, 35.9151, 48.1278, -14.08, 97.4483, -51.5278, 44.0335
1.84, 2, 35.9151, 48.1278, -14.08, 97.4483, -51.5278, 44.0335
1.844, 2, 35.9151, 48.1278, -14.08, 97.4483, -51.5278, 44.0335
1.848, 2, 35.9151, 48.1278, -14.08, 97.4483, -51.5278, 44.0335
1.852, 2, 35.9151, 48.1278, -14.08, 97.4483, -51.5278, 44.0335
1.856, 2, 35.9151, 48.1278, -14.08, 97.4483, -51.5278, 44.0335
1.86, 2, 35.9151, 48.1278, -14.08, 97.4483, -51.5278, 44.0335
1.864, 2, 35.9151, 48.1278, -14.08, 97.4483, -51.5278, 44.0335
1.868, 2, 35.9151, 48.1278, -14.08, 97.4483, -51.5278, 44.0335
1.872, 2, 35.9151, 48.1278, -14.08, 97.4483, -51.5278, 44.0335
1.876, 2, 35.9151, 48.1278, -14.08, 97.4483, -51.5278, 44.0335
1.88, 2, 35.9151, 48.1278, -14.08, 97.4483, -51.5278, 44.0335
1.884, 2, 35.9151, 48.1278, -14.08, 97.4483, -51.5278, 44.0335
1.888, 2, 35.9151, 48.1278, -14.08, 97.4483, -51.5278, 44.0335
1.892, 2, 35.9151, 48.1278, -14.08, 97.4483, -51.5278, 44.0335
1.896, 2, 35.9151, 48.1278, -14.08, 97.4483, -51.5278, 44.0335
1.9, 2, 35.9151, 48.1278, -14.08, 97.4483, -51.5278, 44.0335
1.904, 2, 35.9151, 48.1278, -14.08, 97.4483, -51.5278, 44.0335
1.908, 2, 35.9151, 48.1278, -14.08, 97.4483, -51.5278, 44.0335
1.912, 2, 35.9151, 48.1278, -14.08, 97.4483, -51.5278, 44.0335
1.916, 2, 35.9151, 48.1278, -14.08, 97.4483, -51.5278, 44.0335
1.92, 2, 35.9151, 48.1278, -14.08, 97.4483, -51.5278, 44.0335
1.924, 2, 35.9151, 48.1278, -14.08, 97.4483, -51.5278, 44.0335
1.928, 2, 35.9151, 48.1278, -14.08, 97.4483, -51.5278, 44.0335
1.932, 2, 35.9151, 48.1278, -14.08, 97.4483, -51.5278, 44.0335
1.936, 2, 35.9151, 48.1278, -14.08, 97.4483, -51.5278, 44.0335
1.94, 2, 35.9151, 48.1278, -14.08, 97.4483, -51.5278, 44.0335
1.944, 2, 35.9151, 48.1278, -14.08, 97.4483, -51.5278, 44.0335
1.948, 2, 35.9151, 48.1278, -14.08, 97.4483, -51.5278, 44.0335
1.952, 2, 35.9151, 48.1278, -14.08, 97.4483, -51.5278, 44.0335
1.956, 2, 35.9151, 48.1278, -14.08, 97.4483, -51.5278, 44.0335
1.96, 2, 35.9151, 48.1278, -14.08, 97.4483, -51.5278, 44.0335
1.964, 2, 35.9151, 48.1278, -14.08, 97.4483, -51.5278, 44.0335
1.968, 2, 35.9151, 48.1278, -14.08, 97.4483, -51.5278, 44.0335
1.972, 2, 35.9151, 48.1278, -14.08, 97.4483, -51.5278, 44.0335
1.976, 2, 35.9151, 48.1278, -14.08, 97.4483, -51.5278, 44.0335
1.98, 2, 35.9151, 48.1278, -14.08, 97.4483, -51.5278, 44.0335
1.984, 2, 35.9151, 48.1278, -14.08, 97.4483, -51.5278, 44.0335
1.988, 2, 35.9151, 48.1278, -14.08, 97.4483, -51.5278, 44.0335
1.992, 2, 35.9151, 48.1278, -14.08, 97.4483, -51.5278, 44.0335
1.996, 2, 35.9151, 48.1278, -14.08, 97.4483, -51.5278, 44.0335
1.999, 2, 35.9151, 48.1278, -14.08, 97.4483, -51.5278, 44.0335
2.004, 2, 35.9151, 48.1278, -14.08, 97.4483, -51.5278, 44.0335
2.008, 2, 35.9151, 48.1278, -14.08, 97.4483, -51.5278, 44.0335
2.012, 2, 35.9151, 48.1278, -14.08, 97.4483, -51.5278, 44.0335
2.015, 2, 35.9151, 48.1278, -14.08, 97.4483, -51.5278, 44.0335
2.019, 2, 35.9151, 48.1278, -14.08, 97.4483, -51.5278, 44.0335
2.024, 2, 35.9151, 48.1278, -14.08, 97.4483, -51.5278, 44.0335
2.028, 2, 35.9151, 48.1278, -14.08, 97.4483, -51.5278, 44.0335
2.031, 4, 35.9151, 48.1278, -14.08, 97.4483, -51.5278, 44.0335
2.036, 4, 35.9151, 48.1278, -14.08, 97.4483, -51.5278, 44.0335
2.04, 4, 35.9151, 48.1278, -14.08, 97.4483, -51.5278, 44.0335
2.044, 4, 35.9151, 48.1278, -14.08, 97.4483, -51.5278, 44.0335
2.048, 4, 35.9151, 48.1278, -14.08, 97.4483, -51.5278, 44.0335
2.051, 4, 35.9151, 48.1278, -14.08, 97.4483, -51.5278, 44.0335
2.055, 4, 35.9151, 48.1278, -14.08, 97.4483, -51.5278, 44.0335
2.06, 4, 35.9151, 48.1278, -14.08, 97.4483, -51.5278, 44.0335
2.064, 4, 35.9151, 48.1278, -14.08, 97.4483, -51.5278, 44.0335
2.068, 4, 35.9151, 48.1278, -14.08, 97.4483, -51.5278, 44.0335
2.071, 4, 35.9151, 48.1278, -14.08, 97.4483, -51.5278, 44.0335
2.076, 4, 35.9151, 48.1278, -14.08, 97.4483, -51.5278, 44.0335
2.08, 4, 35.9151, 48.1278, -14.08, 97.4483, -51.5278, 44.0335
2.084, 4, 35.9151, 48.1278, -14.08, 97.4483, -51.5278, 44.0335
2.087, 4, 35.9151, 48.1278, -14.08, 97.4483, -51.5278, 44.0335
2.092, 4, 35.9151, 48.1278, -14.08, 97.4483, -51.5278, 44.0335
2.096, 4, 35.9151, 48.1278, -14.08, 97.4483, -51.5278, 44.0335
2.1, 4, 35.9151, 48.1278, -14.08, 97.4483, -51.5278, 44.0335
2.104, 4, 35.9151, 48.1278, -14.08, 97.4483, -51.5278, 44.0335
2.107, 4, 35.9151, 48.1278, -14.08, 97.4483, -51.5278, 44.0335
2.111, 4, 35.9151, 48.1278, -14.08, 97.4483, -51.5278, 44.0335
2.116, 4, 35.9151, 48.1278, -14.08, 97.4483, -51.5278, 44.0335
2.12, 4, 35.9151, 48.1278, -14.08, 97.4483, -51.5278, 44.0335
2.124, 4, 35.9151, 48.1278, -14.08, 97.4483, -51.5278, 44.0335
2.127, 4, 35.9151, 48.1278, -14.08, 97.4483, -51.5278, 44.0335
2.132, 4, 35.9151, 48.1278, -14.08, 97.4483, -51.5278, 44.0335
2.136, 4, 35.9151, 48.1278, -14.08, 97.4483, -51.5278, 44.0335
2.14, 4, 35.9151, 48.1278, -14.08, 97.4483, -51.5278, 44.0335
2.143, 4, 35.9151, 48.1278, -14.08, 97.4483, -51.5278, 44.0335
2.148, 4, 35.9151, 48.1278, -14.08, 97.4483, -51.5278, 44.0335
2.152, 4, 35.9151, 48.1278, -14.08, 97.4483, -51.5278, 44.0335
2.156, 4, 35.9151, 48.1278, -14.08, 97.4483, -51.5278, 44.0335
2.16, 4, 35.9151, 48.1278, -14.08, 97.4483, -51.5278, 44.0335
2.163, 4, 35.9151, 48.1278, -14.08, 97.4483, -51.5278, 44.0335
2.168, 4, 35.9151, 48.1278, -14.08, 97.4483, -51.5278, 44.0335
2.172, 4, 35.9151, 48.1278, -14.08, 97.4483, -51.5279, 44.0335
2.176, 4, 35.915, 48.1279, -14.08, 97.4483, -51.5279, 44.0335
2.179, 4, 35.9148, 48.1281, -14.0799, 97.4483, -51.528, 44.0335
2.184, 4, 35.9145, 48.1283, -14.0799, 97.4482, -51.5282, 44.0334
2.188, 4, 35.9142, 48.1286, -14.0797, 97.4482, -51.5287, 44.0332
2.192, 4, 35.9138, 48.129, -14.0795, 97.448, -51.5294, 44.0329
2.196, 4, 35.9133, 48.1294, -14.0792, 97.4479, -51.5305, 44.0324
2.199, 4, 35.9128, 48.1298, -14.0787, 97.4476, -51.5322, 44.0317
2.204, 4, 35.9123, 48.1303, -14.0782, 97.4472, -51.5346, 44.0306
2.208, 4, 35.9119, 48.1307, -14.0774, 97.4467, -51.5378, 44.0293
2.212, 4, 35.9115, 48.1311, -14.0764, 97.446, -51.5418, 44.0275
2.216, 4, 35.9112, 48.1314, -14.0752, 97.4452, -51.5468, 44.0253
2.219, 5, 35.9108, 48.1317, -14.0738, 97.4442, -51.5529, 44.0227
2.224, 5, 35.9106, 48.132, -14.0722, 97.443, -51.56, 44.0196
2.228, 5, 35.9104, 48.1323, -14.0703, 97.4417, -51.5681, 44.016
2.232, 5, 35.9102, 48.1325, -14.0682, 97.4402, -51.5772, 44.0121
2.235, 5, 35.9101, 48.1327, -14.0659, 97.4385, -51.5873, 44.0077
2.24, 5, 35.91, 48.1329, -14.0634, 97.4367, -51.5981, 44.0029
2.244, 5, 35.91, 48.133, -14.0608, 97.4348, -51.6097, 43.9979
2.248, 5, 35.9099, 48.1332, -14.058, 97.4328, -51.6219, 43.9925
2.252, 5, 35.9098, 48.1335, -14.0551, 97.4307, -51.6346, 43.987
2.255, 5, 35.9096, 48.1338, -14.0521, 97.4285, -51.6476, 43.9814
2.259, 5, 35.9093, 48.1341, -14.0491, 97.4263, -51.6609, 43.9756
2.264, 5, 35.9089, 48.1346, -14.046, 97.4241, -51.6743, 43.9697
2.268, 5, 35.9085, 48.1351, -14.0428, 97.4218, -51.6879, 43.9638
2.272, 5, 35.908, 48.1356, -14.0397, 97.4196, -51.7016, 43.9579
2.275, 5, 35.9075, 48.1362, -14.0365, 97.4173, -51.7153, 43.9519
2.28, 5, 35.907, 48.1368, -14.0333, 97.415, -51.729, 43.9459
2.284, 5, 35.9065, 48.1374, -14.0301, 97.4127, -51.7428, 43.94
2.288, 5, 35.9059, 48.138, -14.0269, 97.4104, -51.7566, 43.934
2.291, 5, 35.9054, 48.1386, -14.0237, 97.4081, -51.7704, 43.928
2.296, 5, 35.9048, 48.1392, -14.0205, 97.4058, -51.7842, 43.922
2.3, 5, 35.9043, 48.1399, -14.0173, 97.4035, -51.798, 43.916
2.304, 5, 35.9037, 48.1405, -14.0141, 97.4012, -51.8119, 43.91
2.308, 5, 35.9032, 48.1411, -14.0109, 97.3989, -51.8257, 43.904
2.311, 5, 35.9026, 48.1418, -14.0077, 97.3966, -51.8395, 43.898
2.316, 5, 35.9021, 48.1424, -14.0045, 97.3942, -51.8533, 43.892
2.32, 5, 35.9015, 48.1431, -14.0013, 97.3919, -51.8672, 43.886
2.324, 5, 35.9009, 48.1437, -13.9981, 97.3896, -51.881, 43.88
2.328, 5, 35.9004, 48.1444, -13.9949, 97.3873, -51.8948, 43.874
2.331, 5, 35.8998, 48.145, -13.9917, 97.385, -51.9086, 43.8681
2.336, 5, 35.8992, 48.1456, -13.9885, 97.3826, -51.9225, 43.8621
2.34, 5, 35.8987, 48.1463, -13.9853, 97.3803, -51.9363, 43.8561
2.344, 5, 35.8981, 48.147, -13.9821, 97.378, -51.9501, 43.8501
2.347, 5, 35.8975, 48.1476, -13.9789, 97.3756, -51.9639, 43.8441
2.352, 5, 35.897, 48.1483, -13.9757, 97.3733, -51.9778, 43.8382
2.356, 5, 35.8964, 48.1489, -13.9725, 97.371, -51.9916, 43.8322
2.36, 5, 35.8958, 48.1496, -13.9693, 97.3686, -52.0054, 43.8262
2.364, 5, 35.8953, 48.1502, -13.9661, 97.3663, -52.0192, 43.8203
2.367, 5, 35.8947, 48.1509, -13.9629, 97.3639, -52.0331, 43.8143
2.372, 5, 35.8941, 48.1516, -13.9597, 97.3616, -52.0469, 43.8083
2.376, 5, 35.8936, 48.1522, -13.9565, 97.3592, -52.0607, 43.8024
2.38, 5, 35.893, 48.1529, -13.9533, 97.3569, -52.0745, 43.7964
2.383, 5, 35.8924, 48.1536, -13.9501, 97.3545, -52.0883, 43.7905
2.388, 5, 35.8918, 48.1543, -13.947, 97.3522, -52.1022, 43.7845
2.392, 5, 35.8913, 48.1549, -13.9438, 97.3498, -52.116, 43.7785
2.396, 5, 35.8907, 48.1556, -13.9406, 97.3475, -52.1298, 43.7726
2.4, 5, 35.8901, 48.1563, -13.9374, 97.3451, -52.1436, 43.7666
2.403, 5, 35.8895, 48.157, -13.9342, 97.3428, -52.1574, 43.7607
2.408, 5, 35.889, 48.1577, -13.931, 97.3404, -52.1713, 43.7547
2.412, 5, 35.8884, 48.1583, -13.9278, 97.338, -52.1851, 43.7488
2.416, 5, 35.8878, 48.159, -13.9246, 97.3357, -52.1989, 43.7429
2.42, 5, 35.8872, 48.1597, -13.9214, 97.3333, -52.2127, 43.7369
2.423, 5, 35.8867, 48.1604, -13.9183, 97.3309, -52.2265, 43.731
2.428, 5, 35.8861, 48.1611, -13.9151, 97.3285, -52.2403, 43.725
2.432, 5, 35.8855, 48.1618, -13.9119, 97.3262, -52.2542, 43.7191
2.436, 5, 35.8849, 48.1625, -13.9087, 97.3238, -52.268, 43.7132
2.439, 5, 35.8843, 48.1632, -13.9055, 97.3214, -52.2818, 43.7072
2.444, 5, 35.8837, 48.1639, -13.9023, 97.319, -52.2956, 43.7013
2.448, 5, 35.8832, 48.1646, -13.8992, 97.3167, -52.3094, 43.6954
2.452, 5, 35.8826, 48.1653, -13.896, 97.3143, -52.3232, 43.6895
2.456, 5, 35.882, 48.166, -13.8928, 97.3119, -52.337, 43.6836
2.459, 5, 35.8814, 48.1667, -13.8896, 97.3095, -52.3508, 43.6776
2.464, 5, 35.8808, 48.1674, -13.8864, 97.3071, -52.3647, 43.6717
2.468, 5, 35.8802, 48.1681, -13.8833, 97.3047, -52.3785, 43.6658
2.472, 5, 35.8796, 48.1688, -13.8801, 97.3023, -52.3923, 43.6599
2.476, 5, 35.879, 48.1695, -13.8769, 97.2999, -52.4061, 43.654
2.479, 5, 35.8785, 48.1703, -13.8737, 97.2975, -52.4199, 43.6481
2.484, 5, 35.8779, 48.171, -13.8706, 97.2951, -52.4337, 43.6422
2.488, 5, 35.8773, 48.1717, -13.8674, 97.2927, -52.4475, 43.6362
2.492, 5, 35.8767, 48.1724, -13.8642, 97.2903, -52.4613, 43.6303
2.495, 5, 35.8761, 48.1731, -13.861, 97.2879, -52.4751, 43.6244
2.5, 5, 35.8755, 48.1739, -13.8579, 97.2855, -52.4889, 43.6185
2.504, 5, 35.8749, 48.1746, -13.8547, 97.2831, -52.5027, 43.6126
2.508, 5, 35.8743, 48.1753, -13.8515, 97.2807, -52.5165, 43.6068
2.512, 5, 35.8737, 48.176, -13.8483, 97.2783, -52.5303, 43.6009
2.515, 5, 35.8731, 48.1768, -13.8452, 97.2758, -52.5442, 43.595
2.52, 5, 35.8725, 48.1775, -13.842, 97.2734, -52.558, 43.5891
2.524, 5, 35.8719, 48.1782, -13.8388, 97.271, -52.5718, 43.5832
2.528, 5, 35.8713, 48.179, -13.8357, 97.2686, -52.5856, 43.5773
2.531, 5, 35.8707, 48.1797, -13.8325, 97.2662, -52.5994, 43.5714
2.536, 5, 35.8701, 48.1805, -13.8293, 97.2637, -52.6132, 43.5655
2.54, 5, 35.8695, 48.1812, -13.8262, 97.2613, -52.627, 43.5597
2.544, 5, 35.8689, 48.1819, -13.823, 97.2589, -52.6408, 43.5538
2.548, 5, 35.8683, 48.1827, -13.8198, 97.2564, -52.6546, 43.5479
2.551, 5, 35.8677, 48.1834, -13.8167, 97.254, -52.6684, 43.542
2.556, 5, 35.8671, 48.1842, -13.8135, 97.2516, -52.6822, 43.5362
2.56, 5, 35.8665, 48.1849, -13.8103, 97.2491, -52.696, 43.5303
2.564, 5, 35.8659, 48.1857, -13.8072, 97.2467, -52.7098, 43.5244
2.568, 5, 35.8653, 48.1865, -13.804, 97.2443, -52.7236, 43.5186
2.571, 5, 35.8647, 48.1872, -13.8008, 97.2418, -52.7374, 43.5127
2.576, 5, 35.8641, 48.188, -13.7977, 97.2394, -52.7512, 43.5068
2.58, 5, 35.8635, 48.1887, -13.7945, 97.2369, -52.765, 43.501
2.584, 5, 35.8629, 48.1895, -13.7914, 97.2345, -52.7788, 43.4951
2.587, 5, 35.8623, 48.1903, -13.7882, 97.232, -52.7926, 43.4893
2.592, 5, 35.8617, 48.191, -13.785, 97.2296, -52.8063, 43.4834
2.596, 5, 35.861, 48.1918, -13.7819, 97.2271, -52.8201, 43.4775
2.6, 5, 35.8604, 48.1926, -13.7787, 97.2247, -52.8339, 43.4717
2.604, 5, 35.8598, 48.1933, -13.7756, 97.2222, -52.8477, 43.4658
2.607, 5, 35.8592, 48.1941, -13.7724, 97.2198, -52.8615, 43.46
2.612, 5, 35.8586, 48.1949, -13.7693, 97.2173, -52.8753, 43.4542
2.616, 5, 35.858, 48.1957, -13.7661, 97.2148, -52.8891, 43.4483
2.62, 5, 35.8574, 48.1964, -13.7629, 97.2124, -52.9029, 43.4425
2.624, 5, 35.8568, 48.1972, -13.7598, 97.2099, -52.9167, 43.4366
2.627, 5, 35.8561, 48.198, -13.7566, 97.2074, -52.9305, 43.4308
2.632, 5, 35.8555, 48.1988, -13.7535, 97.205, -52.9443, 43.425
2.636, 5, 35.8549, 48.1996, -13.7503, 97.2025, -52.9581, 43.4191
2.64, 5, 35.8543, 48.2004, -13.7472, 97.2, -52.9719, 43.4133
2.643, 5, 35.8537, 48.2012, -13.744, 97.1975, -52.9856, 43.4075
2.648, 5, 35.853, 48.202, -13.7409, 97.1951, -52.9994, 43.4016
2.652, 5, 35.8524, 48.2027, -13.7377, 97.1926, -53.0132, 43.3958
2.656, 5, 35.8518, 48.2035, -13.7346, 97.1901, -53.027, 43.39
2.66, 5, 35.8512, 48.2043, -13.7314, 97.1876, -53.0408, 43.3842
2.663, 5, 35.8506, 48.2051, -13.7283, 97.1851, -53.0546, 43.3784
2.668, 5, 35.8499, 48.2059, -13.7251, 97.1826, -53.0684, 43.3725
2.672, 5, 35.8493, 48.2067, -13.722, 97.1802, -53.0822, 43.3667
2.676, 5, 35.8487, 48.2076, -13.7188, 97.1777, -53.0959, 43.3609
2.679, 5, 35.8481, 48.2084, -13.7157, 97.1752, -53.1097, 43.3551
2.684, 5, 35.8474, 48.2092, -13.7126, 97.1727, -53.1235, 43.3493
2.688, 5, 35.8468, 48.21, -13.7094, 97.1702, -53.1373, 43.3435
2.692, 5, 35.8462, 48.2108, -13.7063, 97.1677, -53.1511, 43.3377
2.696, 5, 35.8456, 48.2116, -13.7031, 97.1652, -53.1649, 43.3319
2.699, 5, 35.8449, 48.2124, -13.7, 97.1627, -53.1786, 43.3261
2.704, 5, 35.8443, 48.2132, -13.6968, 97.1602, -53.1924, 43.3203
2.708, 5, 35.8437, 48.2141, -13.6937, 97.1577, -53.2062, 43.3145
2.712, 5, 35.843, 48.2149, -13.6906, 97.1551, -53.22, 43.3087
2.716, 5, 35.8424, 48.2157, -13.6874, 97.1526, -53.2338, 43.3029
2.719, 5, 35.8418, 48.2165, -13.6843, 97.1501, -53.2475, 43.2971
2.724, 5, 35.8411, 48.2173, -13.6811, 97.1476, -53.2613, 43.2913
2.728, 5, 35.8405, 48.2182, -13.678, 97.1451, -53.2751, 43.2855
2.732, 5, 35.8399, 48.219, -13.6749, 97.1426, -53.2889, 43.2797
2.735, 5, 35.8392, 48.2198, -13.6717, 97.1401, -53.3027, 43.2739
2.74, 5, 35.8386, 48.2207, -13.6686, 97.1375, -53.3164, 43.2682
2.744, 5, 35.838, 48.2215, -13.6655, 97.135, -53.3302, 43.2624
2.748, 5, 35.8373, 48.2223, -13.6623, 97.1325, -53.344, 43.2566
2.752, 5, 35.8367, 48.2232, -13.6592, 97.1299, -53.3578, 43.2508
2.755, 5, 35.836, 48.224, -13.656, 97.1274, -53.3715, 43.2451
2.76, 5, 35.8354, 48.2249, -13.6529, 97.1249, -53.3853, 43.2393
2.764, 5, 35.8348, 48.2257, -13.6498, 97.1224, -53.3991, 43.2335
2.768, 5, 35.8341, 48.2266, -13.6467, 97.1198, -53.4129, 43.2277
2.772, 5, 35.8335, 48.2274, -13.6435, 97.1173, -53.4266, 43.222
2.775, 5, 35.8328, 48.2283, -13.6404, 97.1147, -53.4404, 43.2162
2.78, 5, 35.8322, 48.2291, -13.6373, 97.1122, -53.4542, 43.2104
2.784, 5, 35.8316, 48.23, -13.6341, 97.1097, -53.468, 43.2047
2.788, 5, 35.8309, 48.2308, -13.631, 97.1071, -53.4817, 43.1989
2.791, 5, 35.8303, 48.2317, -13.6279, 97.1046, -53.4955, 43.1932
2.796, 5, 35.8296, 48.2325, -13.6247, 97.102, -53.5093, 43.1874
2.8, 5, 35.829, 48.2334, -13.6216, 97.0995, -53.523, 43.1817
2.804, 5, 35.8283, 48.2343, -13.6185, 97.0969, -53.5368, 43.1759
2.808, 5, 35.8277, 48.2351, -13.6154, 97.0944, -53.5506, 43.1702
2.811, 5, 35.827, 48.236, -13.6122, 97.0918, -53.5643, 43.1644
2.816, 5, 35.8264, 48.2369, -13.6091, 97.0893, -53.5781, 43.1587
2.82, 5, 35.8257, 48.2377, -13.606, 97.0867, -53.5919, 43.1529
2.824, 5, 35.8251, 48.2386, -13.6029, 97.0841, -53.6056, 43.1472
2.828, 5, 35.8244, 48.2395, -13.5997, 97.0816, -53.6194, 43.1414
2.831, 5, 35.8238, 48.2404, -13.5966, 97.079, -53.6332, 43.1357
2.836, 5, 35.8231, 48.2412, -13.5935, 97.0764, -53.6469, 43.13
2.84, 5, 35.8224, 48.2421, -13.5904, 97.0739, -53.6607, 43.1242
2.844, 5, 35.8218, 48.243, -13.5873, 97.0713, -53.6745, 43.1185
2.847, 5, 35.8211, 48.2439, -13.5841, 97.0687, -53.6882, 43.1128
2.852, 5, 35.8205, 48.2448, -13.581, 97.0662, -53.702, 43.107
2.856, 5, 35.8198, 48.2456, -13.5779, 97.0636, -53.7158, 43.1013
2.86, 5, 35.8192, 48.2465, -13.5748, 97.061, -53.7295, 43.0956
2.864, 5, 35.8185, 48.2474, -13.5717, 97.0584, -53.7433, 43.0899
2.867, 5, 35.8178, 48.2483, -13.5685, 97.0558, -53.757, 43.0842
2.872, 5, 35.8172, 48.2492, -13.5654, 97.0533, -53.7708, 43.0784
2.876, 5, 35.8165, 48.2501, -13.5623, 97.0507, -53.7846, 43.0727
2.88, 5, 35.8159, 48.251, -13.5592, 97.0481, -53.7983, 43.067
2.883, 5, 35.8152, 48.2519, -13.5561, 97.0455, -53.8121, 43.0613
2.888, 5, 35.8145, 48.2528, -13.553, 97.0429, -53.8258, 43.0556
2.892, 5, 35.8139, 48.2537, -13.5498, 97.0403, -53.8396, 43.0499
2.896, 5, 35.8132, 48.2546, -13.5467, 97.0377, -53.8534, 43.0442
2.9, 5, 35.8125, 48.2555, -13.5436, 97.0351, -53.8671, 43.0385
2.903, 5, 35.8119, 48.2564, -13.5405, 97.0325, -53.8809, 43.0328
2.908, 5, 35.8112, 48.2573, -13.5374, 97.0299, -53.8946, 43.0271
2.912, 5, 35.8105, 48.2583, -13.5343, 97.0273, -53.9084, 43.0214
2.916, 5, 35.8099, 48.2592, -13.5312, 97.0247, -53.9221, 43.0157
2.92, 5, 35.8092, 48.2601, -13.5281, 97.0221, -53.9359, 43.01
2.923, 5, 35.8085, 48.261, -13.525, 97.0195, -53.9496, 43.0043
2.928, 5, 35.8079, 48.2619, -13.5219, 97.0169, -53.9634, 42.9986
2.932, 5, 35.8072, 48.2628, -13.5187, 97.0143, -53.9772, 42.9929
2.936, 5, 35.8065, 48.2638, -13.5156, 97.0117, -53.9909, 42.9872
2.939, 5, 35.8058, 48.2647, -13.5125, 97.0091, -54.0047, 42.9815
2.944, 5, 35.8052, 48.2656, -13.5094, 97.0065, -54.0184, 42.9758
2.948, 5, 35.8045, 48.2665, -13.5063, 97.0038, -54.0322, 42.9701
2.952, 5, 35.8038, 48.2675, -13.5032, 97.0012, -54.0459, 42.9645
2.956, 5, 35.8031, 48.2684, -13.5001, 96.9986, -54.0597, 42.9588
2.959, 5, 35.8025, 48.2693, -13.497, 96.996, -54.0734, 42.9531
2.964, 5, 35.8018, 48.2703, -13.4939, 96.9933, -54.0872, 42.9474
2.968, 5, 35.8011, 48.2712, -13.4908, 96.9907, -54.1009, 42.9418
2.972, 5, 35.8004, 48.2722, -13.4877, 96.9881, -54.1147, 42.9361
2.976, 5, 35.7997, 48.2731, -13.4846, 96.9855, -54.1284, 42.9304
2.98, 5, 35.7991, 48.274, -13.4815, 96.9828, -54.1422, 42.9247
2.984, 5, 35.7984, 48.275, -13.4784, 96.9802, -54.1559, 42.9191
2.988, 5, 35.7977, 48.2759, -13.4753, 96.9776, -54.1697, 42.9134
2.992, 5, 35.797, 48.2769, -13.4722, 96.9749, -54.1834, 42.9078
2.995, 5, 35.7963, 48.2778, -13.4691, 96.9723, -54.1971, 42.9021
3, 5, 35.7957, 48.2788, -13.466, 96.9696, -54.2109, 42.8964
3.004, 5, 35.795, 48.2797, -13.4629, 96.967, -54.2246, 42.8908
3.008, 5, 35.7943, 48.2807, -13.4598, 96.9643, -54.2384, 42.8851
3.012, 5, 35.7936, 48.2816, -13.4567, 96.9617, -54.2521, 42.8795
3.015, 5, 35.7929, 48.2826, -13.4536, 96.9591, -54.2659, 42.8738
3.02, 5, 35.7922, 48.2836, -13.4505, 96.9564, -54.2796, 42.8682
3.024, 5, 35.7915, 48.2845, -13.4474, 96.9538, -54.2933, 42.8625
3.028, 5, 35.7908, 48.2855, -13.4443, 96.9511, -54.3071, 42.8569
3.031, 5, 35.7901, 48.2865, -13.4412, 96.9484, -54.3208, 42.8512
3.036, 5, 35.7895, 48.2874, -13.4381, 96.9458, -54.3346, 42.8456
3.04, 5, 35.7888, 48.2884, -13.4351, 96.9431, -54.3483, 42.84
3.044, 5, 35.7881, 48.2894, -13.432, 96.9405, -54.362, 42.8343
3.048, 5, 35.7874, 48.2903, -13.4289, 96.9378, -54.3758, 42.8287
3.051, 5, 35.7867, 48.2913, -13.4258, 96.9351, -54.3895, 42.823
3.056, 5, 35.786, 48.2923, -13.4227, 96.9325, -54.4033, 42.8174
3.06, 5, 35.7853, 48.2933, -13.4196, 96.9298, -54.417, 42.8118
3.064, 5, 35.7846, 48.2943, -13.4165, 96.9271, -54.4307, 42.8062
3.068, 5, 35.7839, 48.2952, -13.4134, 96.9244, -54.4445, 42.8005
3.071, 5, 35.7832, 48.2962, -13.4103, 96.9218, -54.4582, 42.7949
3.076, 5, 35.7825, 48.2972, -13.4072, 96.9191, -54.4719, 42.7893
3.08, 5, 35.7818, 48.2982, -13.4042, 96.9164, -54.4857, 42.7837
3.084, 5, 35.7811, 48.2992, -13.4011, 96.9137, -54.4994, 42.778
3.087, 5, 35.7804, 48.3002, -13.398, 96.9111, -54.5131, 42.7724
3.092, 5, 35.7797, 48.3012, -13.3949, 96.9084, -54.5269, 42.7668
3.096, 5, 35.779, 48.3022, -13.3918, 96.9057, -54.5406, 42.7612
3.1, 5, 35.7783, 48.3032, -13.3887, 96.903, -54.5543, 42.7556
3.104, 5, 35.7776, 48.3042, -13.3857, 96.9003, -54.5681, 42.75
3.107, 5, 35.7769, 48.3052, -13.3826, 96.8976, -54.5818, 42.7444
3.112, 5, 35.7762, 48.3062, -13.3795, 96.8949, -54.5955, 42.7388
3.116, 5, 35.7755, 48.3072, -13.3764, 96.8923, -54.6093, 42.7332
3.12, 5, 35.7748, 48.3082, -13.3733, 96.8896, -54.623, 42.7275
3.124, 5, 35.774, 48.3092, -13.3702, 96.8869, -54.6367, 42.7219
3.128, 5, 35.7733, 48.3102, -13.3672, 96.8842, -54.6504, 42.7163
3.132, 5, 35.7726, 48.3112, -13.3641, 96.8815, -54.6642, 42.7107
3.136, 5, 35.7719, 48.3122, -13.361, 96.8788, -54.6779, 42.7052
3.14, 5, 35.7712, 48.3132, -13.3579, 96.8761, -54.6916, 42.6996
3.143, 5, 35.7705, 48.3143, -13.3549, 96.8734, -54.7053, 42.694
3.148, 5, 35.7698, 48.3153, -13.3518, 96.8707, -54.7191, 42.6884
3.152, 5, 35.7691, 48.3163, -13.3487, 96.8679, -54.7328, 42.6828
3.156, 5, 35.7684, 48.3173, -13.3456, 96.8652, -54.7465, 42.6772
3.16, 5, 35.7676, 48.3183, -13.3425, 96.8625, -54.7603, 42.6716
3.163, 5, 35.7669, 48.3194, -13.3395, 96.8598, -54.774, 42.666
3.168, 5, 35.7662, 48.3204, -13.3364, 96.8571, -54.7877, 42.6604
3.172, 5, 35.7655, 48.3214, -13.3333, 96.8544, -54.8014, 42.6549
3.176, 5, 35.7648, 48.3225, -13.3302, 96.8517, -54.8151, 42.6493
3.179, 5, 35.764, 48.3235, -13.3272, 96.8489, -54.8289, 42.6437
3.184, 5, 35.7633, 48.3245, -13.3241, 96.8462, -54.8426, 42.6381
3.188, 5, 35.7626, 48.3256, -13.321, 96.8435, -54.8563, 42.6326
3.192, 5, 35.7619, 48.3266, -13.318, 96.8408, -54.87, 42.627
3.196, 5, 35.7612, 48.3276, -13.3149, 96.838, -54.8837, 42.6214
3.199, 5, 35.7604, 48.3287, -13.3118, 96.8353, -54.8975, 42.6159
3.204, 5, 35.7597, 48.3297, -13.3088, 96.8326, -54.9112, 42.6103
3.208, 5, 35.759, 48.3308, -13.3057, 96.8298, -54.9249, 42.6047
3.212, 5, 35.7583, 48.3318, -13.3026, 96.8271, -54.9386, 42.5992
3.216, 5, 35.7575, 48.3329, -13.2995, 96.8244, -54.9523, 42.5936
3.22, 5, 35.7568, 48.3339, -13.2965, 96.8216, -54.966, 42.5881
3.224, 5, 35.7561, 48.335, -13.2934, 96.8189, -54.9798, 42.5825
3.228, 5, 35.7554, 48.336, -13.2903, 96.8161, -54.9935, 42.5769
3.232, 5, 35.7546, 48.3371, -13.2873, 96.8134, -55.0072, 42.5714
3.235, 5, 35.7539, 48.3381, -13.2842, 96.8107, -55.0209, 42.5658
3.24, 5, 35.7532, 48.3392, -13.2811, 96.8079, -55.0346, 42.5603
3.244, 5, 35.7524, 48.3403, -13.2781, 96.8052, -55.0483, 42.5547
3.248, 5, 35.7517, 48.3413, -13.275, 96.8024, -55.062, 42.5492
3.252, 5, 35.751, 48.3424, -13.272, 96.7997, -55.0758, 42.5437
3.255, 5, 35.7502, 48.3435, -13.2689, 96.7969, -55.0895, 42.5381
3.26, 5, 35.7495, 48.3445, -13.2658, 96.7942, -55.1032, 42.5326
3.264, 5, 35.7488, 48.3456, -13.2628, 96.7914, -55.1169, 42.527
3.268, 5, 35.748, 48.3467, -13.2597, 96.7886, -55.1306, 42.5215
3.272, 5, 35.7473, 48.3478, -13.2567, 96.7859, -55.1443, 42.516
3.276, 5, 35.7466, 48.3488, -13.2536, 96.7831, -55.158, 42.5104
3.28, 5, 35.7458, 48.3499, -13.2505, 96.7804, -55.1717, 42.5049
3.284, 5, 35.7451, 48.351, -13.2475, 96.7776, -55.1854, 42.4994
3.288, 5, 35.7443, 48.3521, -13.2444, 96.7748, -55.1991, 42.4938
3.291, 5, 35.7436, 48.3531, -13.2414, 96.7721, -55.2128, 42.4883
3.296, 5, 35.7429, 48.3542, -13.2383, 96.7693, -55.2266, 42.4828
3.3, 5, 35.7421, 48.3553, -13.2352, 96.7665, -55.2403, 42.4773
3.304, 5, 35.7414, 48.3564, -13.2322, 96.7637, -55.254, 42.4717
3.308, 5, 35.7406, 48.3575, -13.2291, 96.761, -55.2677, 42.4662
3.312, 5, 35.7399, 48.3586, -13.2261, 96.7582, -55.2814, 42.4607
3.316, 5, 35.7391, 48.3597, -13.223, 96.7554, -55.2951, 42.4552
3.32, 5, 35.7384, 48.3608, -13.22, 96.7526, -55.3088, 42.4497
3.324, 5, 35.7377, 48.3619, -13.2169, 96.7498, -55.3225, 42.4442
3.328, 5, 35.7369, 48.363, -13.2139, 96.7471, -55.3362, 42.4387
3.332, 5, 35.7362, 48.3641, -13.2108, 96.7443, -55.3499, 42.4331
3.336, 5, 35.7354, 48.3652, -13.2078, 96.7415, -55.3636, 42.4276
3.34, 5, 35.7347, 48.3663, -13.2047, 96.7387, -55.3773, 42.4221
3.344, 5, 35.7339, 48.3674, -13.2017, 96.7359, -55.391, 42.4166
3.347, 5, 35.7332, 48.3685, -13.1986, 96.7331, -55.4047, 42.4111
3.352, 5, 35.7324, 48.3696, -13.1956, 96.7303, -55.4184, 42.4056
3.356, 5, 35.7316, 48.3707, -13.1925, 96.7275, -55.4321, 42.4001
3.36, 5, 35.7309, 48.3718, -13.1895, 96.7247, -55.4458, 42.3946
3.364, 5, 35.7301, 48.3729, -13.1864, 96.7219, -55.4595, 42.3891
3.368, 5, 35.7294, 48.3741, -13.1834, 96.7191, -55.4732, 42.3836
3.372, 5, 35.7286, 48.3752, -13.1803, 96.7163, -55.4869, 42.3782
3.376, 5, 35.7279, 48.3763, -13.1773, 96.7135, -55.5006, 42.3727
3.38, 5, 35.7271, 48.3774, -13.1742, 96.7107, -55.5143, 42.3672
3.383, 5, 35.7264, 48.3786, -13.1712, 96.7079, -55.528, 42.3617
3.388, 5, 35.7256, 48.3797, -13.1681, 96.7051, -55.5417, 42.3562
3.392, 5, 35.7248, 48.3808, -13.1651, 96.7023, -55.5553, 42.3507
3.396, 5, 35.7241, 48.3819, -13.162, 96.6995, -55.569, 42.3452
3.4, 5, 35.7233, 48.3831, -13.159, 96.6967, -55.5827, 42.3398
3.403, 5, 35.7225, 48.3842, -13.156, 96.6939, -55.5964, 42.3343
3.408, 5, 35.7218, 48.3853, -13.1529, 96.691, -55.6101, 42.3288
3.412, 5, 35.721, 48.3865, -13.1499, 96.6882, -55.6238, 42.3233
3.416, 5, 35.7203, 48.3876, -13.1468, 96.6854, -55.6375, 42.3179
3.42, 5, 35.7195, 48.3887, -13.1438, 96.6826, -55.6512, 42.3124
3.424, 5, 35.7187, 48.3899, -13.1408, 96.6797, -55.6649, 42.3069
3.428, 5, 35.718, 48.391, -13.1377, 96.6769, -55.6786, 42.3015
3.432, 5, 35.7172, 48.3922, -13.1347, 96.6741, -55.6923, 42.296
3.436, 5, 35.7164, 48.3933, -13.1316, 96.6713, -55.7059, 42.2905
3.439, 5, 35.7156, 48.3945, -13.1286, 96.6684, -55.7196, 42.2851
3.444, 5, 35.7149, 48.3956, -13.1256, 96.6656, -55.7333, 42.2796
3.448, 5, 35.7141, 48.3968, -13.1225, 96.6628, -55.747, 42.2742
3.452, 5, 35.7133, 48.3979, -13.1195, 96.6599, -55.7607, 42.2687
3.456, 5, 35.7126, 48.3991, -13.1165, 96.6571, -55.7744, 42.2632
3.46, 5, 35.7118, 48.4002, -13.1134, 96.6543, -55.7881, 42.2578
3.464, 5, 35.711, 48.4014, -13.1104, 96.6514, -55.8018, 42.2523
3.468, 5, 35.7102, 48.4026, -13.1073, 96.6486, -55.8154, 42.2469
3.472, 5, 35.7095, 48.4037, -13.1043, 96.6457, -55.8291, 42.2414
3.476, 5, 35.7087, 48.4049, -13.1013, 96.6429, -55.8428, 42.236
3.48, 5, 35.7079, 48.4061, -13.0982, 96.64, -55.8565, 42.2306
3.484, 5, 35.7071, 48.4072, -13.0952, 96.6372, -55.8702, 42.2251
3.488, 5, 35.7064, 48.4084, -13.0922, 96.6343, -55.8838, 42.2197
3.492, 5, 35.7056, 48.4096, -13.0892, 96.6315, -55.8975, 42.2142
3.495, 5, 35.7048, 48.4107, -13.0861, 96.6286, -55.9112, 42.2088
3.5, 5, 35.704, 48.4119, -13.0831, 96.6258, -55.9249, 42.2034
3.504, 5, 35.7032, 48.4131, -13.0801, 96.6229, -55.9386, 42.1979
3.508, 5, 35.7024, 48.4143, -13.077, 96.6201, -55.9522, 42.1925
3.512, 5, 35.7017, 48.4154, -13.074, 96.6172, -55.9659, 42.1871
3.516, 5, 35.7009, 48.4166, -13.071, 96.6143, -55.9796, 42.1816
3.52, 5, 35.7001, 48.4178, -13.0679, 96.6115, -55.9933, 42.1762
3.524, 5, 35.6993, 48.419, -13.0649, 96.6086, -56.007, 42.1708
3.528, 5, 35.6985, 48.4202, -13.0619, 96.6057, -56.0206, 42.1654
3.531, 5, 35.6977, 48.4214, -13.0589, 96.6029, -56.0343, 42.1599
3.536, 5, 35.6969, 48.4226, -13.0558, 96.6, -56.048, 42.1545
3.54, 5, 35.6962, 48.4238, -13.0528, 96.5971, -56.0617, 42.1491
3.544, 5, 35.6954, 48.425, -13.0498, 96.5943, -56.0753, 42.1437
3.548, 5, 35.6946, 48.4262, -13.0468, 96.5914, -56.089, 42.1383
3.552, 5, 35.6938, 48.4273, -13.0437, 96.5885, -56.1027, 42.1328
3.556, 5, 35.693, 48.4286, -13.0407, 96.5856, -56.1163, 42.1274
3.56, 5, 35.6922, 48.4297, -13.0377, 96.5827, -56.13, 42.122
3.564, 5, 35.6914, 48.431, -13.0347, 96.5799, -56.1437, 42.1166
3.568, 5, 35.6906, 48.4322, -13.0317, 96.577, -56.1574, 42.1112
3.572, 5, 35.6898, 48.4334, -13.0286, 96.5741, -56.171, 42.1058
3.576, 5, 35.689, 48.4346, -13.0256, 96.5712, -56.1847, 42.1004
3.58, 5, 35.6882, 48.4358, -13.0226, 96.5683, -56.1984, 42.095
3.584, 5, 35.6874, 48.437, -13.0196, 96.5654, -56.212, 42.0896
3.587, 5, 35.6866, 48.4382, -13.0166, 96.5625, -56.2257, 42.0842
3.592, 5, 35.6858, 48.4394, -13.0135, 96.5597, -56.2394, 42.0788
3.596, 5, 35.685, 48.4406, -13.0105, 96.5568, -56.253, 42.0734
3.6, 5, 35.6842, 48.4419, -13.0075, 96.5539, -56.2667, 42.068
3.604, 5, 35.6834, 48.4431, -13.0045, 96.551, -56.2804, 42.0626
3.608, 5, 35.6826, 48.4443, -13.0015, 96.5481, -56.294, 42.0572
3.612, 5, 35.6818, 48.4455, -12.9985, 96.5452, -56.3077, 42.0518
3.616, 5, 35.681, 48.4468, -12.9954, 96.5423, -56.3214, 42.0465
3.62, 5, 35.6802, 48.448, -12.9924, 96.5394, -56.335, 42.0411
3.624, 5, 35.6794, 48.4492, -12.9894, 96.5364, -56.3487, 42.0357
3.628, 5, 35.6786, 48.4504, -12.9864, 96.5335, -56.3624, 42.0303
3.632, 5, 35.6778, 48.4517, -12.9834, 96.5306, -56.376, 42.0249
3.636, 5, 35.677, 48.4529, -12.9804, 96.5277, -56.3897, 42.0196
3.64, 5, 35.6762, 48.4541, -12.9774, 96.5248, -56.4034, 42.0142
3.644, 5, 35.6754, 48.4554, -12.9743, 96.5219, -56.417, 42.0088
3.648, 5, 35.6745, 48.4566, -12.9713, 96.519, -56.4307, 42.0034
3.652, 5, 35.6737, 48.4579, -12.9683, 96.5161, -56.4443, 41.9981
3.656, 5, 35.6729, 48.4591, -12.9653, 96.5131, -56.458, 41.9927
3.66, 5, 35.6721, 48.4604, -12.9623, 96.5102, -56.4717, 41.9873
3.664, 5, 35.6713, 48.4616, -12.9593, 96.5073, -56.4853, 41.982
3.668, 5, 35.6705, 48.4628, -12.9563, 96.5044, -56.499, 41.9766
3.672, 5, 35.6697, 48.4641, -12.9533, 96.5015, -56.5126, 41.9712
3.676, 5, 35.6688, 48.4653, -12.9503, 96.4985, -56.5263, 41.9659
3.679, 5, 35.668, 48.4666, -12.9473, 96.4956, -56.5399, 41.9605
3.684, 5, 35.6672, 48.4679, -12.9443, 96.4927, -56.5536, 41.9551
3.688, 5, 35.6664, 48.4691, -12.9413, 96.4897, -56.5672, 41.9498
3.692, 5, 35.6656, 48.4704, -12.9382, 96.4868, -56.5809, 41.9444
3.696, 5, 35.6647, 48.4716, -12.9352, 96.4839, -56.5946, 41.9391
3.7, 5, 35.6639, 48.4729, -12.9322, 96.4809, -56.6082, 41.9337
3.704, 5, 35.6631, 48.4742, -12.9292, 96.478, -56.6219, 41.9284
3.708, 5, 35.6623, 48.4754, -12.9262, 96.4751, -56.6355, 41.923
3.712, 5, 35.6615, 48.4767, -12.9232, 96.4721, -56.6492, 41.9177
3.716, 5, 35.6606, 48.478, -12.9202, 96.4692, -56.6628, 41.9123
3.72, 5, 35.6598, 48.4792, -12.9172, 96.4662, -56.6765, 41.907
3.724, 5, 35.659, 48.4805, -12.9142, 96.4633, -56.6901, 41.9017
3.728, 5, 35.6582, 48.4818, -12.9112, 96.4603, -56.7038, 41.8963
3.732, 5, 35.6573, 48.4831, -12.9082, 96.4574, -56.7174, 41.891
3.735, 5, 35.6565, 48.4843, -12.9052, 96.4544, -56.7311, 41.8856
3.74, 5, 35.6557, 48.4856, -12.9022, 96.4515, -56.7447, 41.8803
3.744, 5, 35.6548, 48.4869, -12.8992, 96.4485, -56.7584, 41.875
3.748, 5, 35.654, 48.4882, -12.8962, 96.4456, -56.772, 41.8696
3.752, 5, 35.6532, 48.4895, -12.8932, 96.4426, -56.7857, 41.8643
3.756, 5, 35.6523, 48.4908, -12.8902, 96.4397, -56.7993, 41.859
3.76, 5, 35.6515, 48.492, -12.8872, 96.4367, -56.813, 41.8537
3.764, 5, 35.6507, 48.4933, -12.8842, 96.4337, -56.8266, 41.8483
3.768, 5, 35.6498, 48.4946, -12.8812, 96.4308, -56.8403, 41.843
3.772, 5, 35.649, 48.4959, -12.8782, 96.4278, -56.8539, 41.8377
3.776, 5, 35.6482, 48.4972, -12.8752, 96.4248, -56.8675, 41.8324
3.78, 5, 35.6473, 48.4985, -12.8723, 96.4219, -56.8812, 41.8271
3.784, 5, 35.6465, 48.4998, -12.8693, 96.4189, -56.8948, 41.8217
3.788, 5, 35.6457, 48.5011, -12.8663, 96.4159, -56.9085, 41.8164
3.792, 5, 35.6448, 48.5024, -12.8633, 96.413, -56.9221, 41.8111
3.796, 5, 35.644, 48.5037, -12.8603, 96.41, -56.9358, 41.8058
3.8, 5, 35.6431, 48.505, -12.8573, 96.407, -56.9494, 41.8005
3.804, 5, 35.6423, 48.5063, -12.8543, 96.404, -56.963, 41.7952
3.808, 5, 35.6414, 48.5076, -12.8513, 96.4011, -56.9767, 41.7899
3.812, 5, 35.6406, 48.509, -12.8483, 96.3981, -56.9903, 41.7846
3.816, 5, 35.6398, 48.5103, -12.8453, 96.3951, -57.004, 41.7793
3.82, 5, 35.6389, 48.5116, -12.8423, 96.3921, -57.0176, 41.774
3.824, 5, 35.6381, 48.5129, -12.8393, 96.3891, -57.0312, 41.7687
3.828, 5, 35.6372, 48.5142, -12.8364, 96.3861, -57.0449, 41.7634
3.832, 5, 35.6364, 48.5155, -12.8334, 96.3831, -57.0585, 41.7581
3.836, 5, 35.6355, 48.5169, -12.8304, 96.3801, -57.0721, 41.7528
3.84, 5, 35.6347, 48.5182, -12.8274, 96.3772, -57.0858, 41.7475
3.844, 5, 35.6338, 48.5195, -12.8244, 96.3742, -57.0994, 41.7422
3.848, 5, 35.633, 48.5208, -12.8214, 96.3712, -57.113, 41.7369
3.852, 5, 35.6321, 48.5222, -12.8184, 96.3682, -57.1267, 41.7316
3.856, 5, 35.6313, 48.5235, -12.8155, 96.3652, -57.1403, 41.7263
3.86, 5, 35.6304, 48.5248, -12.8125, 96.3622, -57.1539, 41.721
3.864, 5, 35.6296, 48.5261, -12.8095, 96.3592, -57.1676, 41.7158
3.868, 5, 35.6287, 48.5275, -12.8065, 96.3562, -57.1812, 41.7105
3.872, 5, 35.6278, 48.5288, -12.8035, 96.3532, -57.1948, 41.7052
3.876, 5, 35.627, 48.5302, -12.8005, 96.3502, -57.2085, 41.6999
3.88, 5, 35.6261, 48.5315, -12.7976, 96.3472, -57.2221, 41.6946
3.884, 5, 35.6253, 48.5328, -12.7946, 96.3442, -57.2357, 41.6894
3.888, 5, 35.6244, 48.5342, -12.7916, 96.3411, -57.2494, 41.6841
3.892, 5, 35.6236, 48.5355, -12.7886, 96.3381, -57.263, 41.6788
3.896, 5, 35.6227, 48.5369, -12.7856, 96.3351, -57.2766, 41.6735
3.9, 5, 35.6218, 48.5382, -12.7827, 96.3321, -57.2903, 41.6683
3.904, 5, 35.621, 48.5396, -12.7797, 96.3291, -57.3039, 41.663
3.908, 5, 35.6201, 48.5409, -12.7767, 96.3261, -57.3175, 41.6577
3.912, 5, 35.6192, 48.5423, -12.7737, 96.323, -57.3311, 41.6525
3.916, 5, 35.6184, 48.5436, -12.7707, 96.32, -57.3448, 41.6472
3.92, 5, 35.6175, 48.545, -12.7678, 96.317, -57.3584, 41.6419
3.924, 5, 35.6166, 48.5464, -12.7648, 96.314, -57.372, 41.6367
3.928, 5, 35.6158, 48.5477, -12.7618, 96.311, -57.3856, 41.6314
3.932, 5, 35.6149, 48.5491, -12.7588, 96.3079, -57.3993, 41.6262
3.936, 5, 35.614, 48.5504, -12.7559, 96.3049, -57.4129, 41.6209
3.94, 5, 35.6132, 48.5518, -12.7529, 96.3019, -57.4265, 41.6157
3.944, 5, 35.6123, 48.5532, -12.7499, 96.2988, -57.4401, 41.6104
3.948, 5, 35.6114, 48.5546, -12.7469, 96.2958, -57.4538, 41.6052
3.952, 5, 35.6106, 48.5559, -12.744, 96.2928, -57.4674, 41.5999
3.956, 5, 35.6097, 48.5573, -12.741, 96.2897, -57.481, 41.5947
3.96, 5, 35.6088, 48.5587, -12.738, 96.2867, -57.4946, 41.5894
3.964, 5, 35.6079, 48.56, -12.735, 96.2837, -57.5082, 41.5842
3.968, 5, 35.6071, 48.5614, -12.7321, 96.2806, -57.5219, 41.5789
3.972, 5, 35.6062, 48.5628, -12.7291, 96.2776, -57.5355, 41.5737
3.976, 5, 35.6053, 48.5642, -12.7261, 96.2745, -57.5491, 41.5685
3.98, 5, 35.6044, 48.5656, -12.7232, 96.2715, -57.5627, 41.5632
3.984, 5, 35.6035, 48.567, -12.7202, 96.2684, -57.5763, 41.558
3.988, 5, 35.6027, 48.5683, -12.7172, 96.2654, -57.5899, 41.5527
3.992, 5, 35.6018, 48.5697, -12.7143, 96.2623, -57.6036, 41.5475
3.996, 5, 35.6009, 48.5711, -12.7113, 96.2593, -57.6172, 41.5423
3.999, 5, 35.6, 48.5725, -12.7083, 96.2562, -57.6308, 41.5371
4.004, 5, 35.5991, 48.5739, -12.7054, 96.2532, -57.6444, 41.5318
4.008, 5, 35.5983, 48.5753, -12.7024, 96.2501, -57.658, 41.5266
4.012, 5, 35.5974, 48.5767, -12.6994, 96.2471, -57.6716, 41.5214
4.016, 5, 35.5965, 48.5781, -12.6965, 96.244, -57.6852, 41.5162
4.02, 5, 35.5956, 48.5795, -12.6935, 96.2409, -57.6989, 41.5109
4.024, 5, 35.5947, 48.5809, -12.6905, 96.2379, -57.7125, 41.5057
4.028, 5, 35.5938, 48.5823, -12.6876, 96.2348, -57.7261, 41.5005
4.032, 5, 35.5929, 48.5837, -12.6846, 96.2317, -57.7397, 41.4953
4.036, 5, 35.592, 48.5851, -12.6816, 96.2287, -57.7533, 41.4901
4.04, 5, 35.5912, 48.5865, -12.6787, 96.2256, -57.7669, 41.4849
4.044, 5, 35.5903, 48.5879, -12.6757, 96.2225, -57.7805, 41.4796
4.048, 5, 35.5894, 48.5893, -12.6728, 96.2195, -57.7941, 41.4744
4.052, 5, 35.5885, 48.5908, -12.6698, 96.2164, -57.8077, 41.4692
4.056, 5, 35.5876, 48.5922, -12.6668, 96.2133, -57.8213, 41.464
4.06, 5, 35.5867, 48.5936, -12.6639, 96.2102, -57.835, 41.4588
4.064, 5, 35.5858, 48.595, -12.6609, 96.2072, -57.8486, 41.4536
4.068, 5, 35.5849, 48.5964, -12.658, 96.2041, -57.8622, 41.4484
4.072, 5, 35.584, 48.5979, -12.655, 96.201, -57.8758, 41.4432
4.076, 5, 35.5831, 48.5993, -12.652, 96.1979, -57.8894, 41.438
4.08, 5, 35.5822, 48.6007, -12.6491, 96.1948, -57.903, 41.4328
4.084, 5, 35.5813, 48.6021, -12.6461, 96.1918, -57.9166, 41.4276
4.088, 5, 35.5804, 48.6036, -12.6432, 96.1887, -57.9302, 41.4224
4.092, 5, 35.5795, 48.605, -12.6402, 96.1856, -57.9438, 41.4172
4.096, 5, 35.5786, 48.6064, -12.6372, 96.1825, -57.9574, 41.412
4.1, 5, 35.5777, 48.6079, -12.6343, 96.1794, -57.971, 41.4068
4.104, 5, 35.5768, 48.6093, -12.6313, 96.1763, -57.9846, 41.4017
4.108, 5, 35.5759, 48.6107, -12.6284, 96.1732, -57.9982, 41.3965
4.112, 5, 35.575, 48.6122, -12.6254, 96.1701, -58.0118, 41.3913
4.116, 5, 35.5741, 48.6136, -12.6225, 96.167, -58.0254, 41.3861
4.12, 5, 35.5732, 48.6151, -12.6195, 96.1639, -58.039, 41.3809
4.124, 5, 35.5723, 48.6165, -12.6166, 96.1608, -58.0526, 41.3757
4.128, 5, 35.5714, 48.6179, -12.6136, 96.1577, -58.0662, 41.3706
4.132, 5, 35.5705, 48.6194, -12.6107, 96.1546, -58.0798, 41.3654
4.136, 5, 35.5695, 48.6208, -12.6077, 96.1515, -58.0934, 41.3602
4.14, 5, 35.5686, 48.6223, -12.6048, 96.1484, -58.107, 41.355
4.144, 5, 35.5677, 48.6237, -12.6018, 96.1453, -58.1206, 41.3499
4.148, 5, 35.5668, 48.6252, -12.5989, 96.1422, -58.1342, 41.3447
4.152, 5, 35.5659, 48.6267, -12.5959, 96.1391, -58.1478, 41.3395
4.156, 5, 35.565, 48.6281, -12.593, 96.136, -58.1614, 41.3344
4.16, 5, 35.5641, 48.6296, -12.59, 96.1329, -58.175, 41.3292
4.164, 5, 35.5631, 48.631, -12.5871, 96.1297, -58.1886, 41.324
4.168, 5, 35.5622, 48.6325, -12.5841, 96.1266, -58.2022, 41.3189
4.172, 5, 35.5613, 48.634, -12.5812, 96.1235, -58.2158, 41.3137
4.176, 5, 35.5604, 48.6354, -12.5782, 96.1204, -58.2294, 41.3085
4.18, 5, 35.5595, 48.6369, -12.5753, 96.1173, -58.2429, 41.3034
4.184, 5, 35.5586, 48.6384, -12.5723, 96.1142, -58.2565, 41.2982
4.188, 5, 35.5576, 48.6398, -12.5694, 96.111, -58.2701, 41.2931
4.192, 5, 35.5567, 48.6413, -12.5665, 96.1079, -58.2837, 41.2879
4.196, 5, 35.5558, 48.6428, -12.5635, 96.1048, -58.2973, 41.2828
4.2, 5, 35.5549, 48.6443, -12.5606, 96.1016, -58.3109, 41.2776
4.204, 5, 35.5539, 48.6457, -12.5576, 96.0985, -58.3245, 41.2725
4.208, 5, 35.553, 48.6472, -12.5547, 96.0954, -58.3381, 41.2673
4.212, 5, 35.5521, 48.6487, -12.5517, 96.0923, -58.3517, 41.2622
4.216, 5, 35.5512, 48.6502, -12.5488, 96.0891, -58.3653, 41.257
4.22, 5, 35.5502, 48.6517, -12.5459, 96.086, -58.3788, 41.2519
4.224, 5, 35.5493, 48.6532, -12.5429, 96.0828, -58.3924, 41.2467
4.228, 5, 35.5484, 48.6547, -12.54, 96.0797, -58.406, 41.2416
4.232, 5, 35.5474, 48.6561, -12.537, 96.0766, -58.4196, 41.2365
4.236, 5, 35.5465, 48.6576, -12.5341, 96.0734, -58.4332, 41.2313
4.24, 5, 35.5456, 48.6591, -12.5312, 96.0703, -58.4468, 41.2262
4.244, 5, 35.5447, 48.6606, -12.5282, 96.0671, -58.4604, 41.221
4.248, 5, 35.5437, 48.6621, -12.5253, 96.064, -58.4739, 41.2159
4.252, 5, 35.5428, 48.6636, -12.5223, 96.0608, -58.4875, 41.2108
4.256, 5, 35.5418, 48.6651, -12.5194, 96.0577, -58.5011, 41.2057
4.26, 5, 35.5409, 48.6666, -12.5165, 96.0545, -58.5147, 41.2005
4.264, 5, 35.54, 48.6681, -12.5135, 96.0514, -58.5283, 41.1954
4.268, 5, 35.539, 48.6696, -12.5106, 96.0482, -58.5418, 41.1903
4.272, 5, 35.5381, 48.6711, -12.5077, 96.0451, -58.5554, 41.1852
4.276, 5, 35.5372, 48.6726, -12.5047, 96.0419, -58.569, 41.18
4.28, 5, 35.5362, 48.6742, -12.5018, 96.0388, -58.5826, 41.1749
4.284, 5, 35.5353, 48.6757, -12.4989, 96.0356, -58.5962, 41.1698
4.288, 5, 35.5343, 48.6772, -12.4959, 96.0325, -58.6097, 41.1647
4.292, 5, 35.5334, 48.6787, -12.493, 96.0293, -58.6233, 41.1596
4.296, 5, 35.5324, 48.6802, -12.4901, 96.0261, -58.6369, 41.1544
4.3, 5, 35.5315, 48.6817, -12.4871, 96.023, -58.6505, 41.1493
4.304, 5, 35.5306, 48.6833, -12.4842, 96.0198, -58.664, 41.1442
4.308, 5, 35.5296, 48.6848, -12.4813, 96.0166, -58.6776, 41.1391
4.312, 5, 35.5287, 48.6863, -12.4783, 96.0135, -58.6912, 41.134
4.316, 5, 35.5277, 48.6878, -12.4754, 96.0103, -58.7048, 41.1289
4.32, 5, 35.5268, 48.6894, -12.4725, 96.0071, -58.7183, 41.1238
4.324, 5, 35.5258, 48.6909, -12.4695, 96.0039, -58.7319, 41.1187
4.328, 5, 35.5249, 48.6924, -12.4666, 96.0008, -58.7455, 41.1136
4.332, 5, 35.5239, 48.6939, -12.4637, 95.9976, -58.7591, 41.1085
4.336, 5, 35.523, 48.6955, -12.4608, 95.9944, -58.7726, 41.1034
4.34, 5, 35.522, 48.697, -12.4578, 95.9912, -58.7862, 41.0983
4.344, 5, 35.5211, 48.6986, -12.4549, 95.9881, -58.7998, 41.0932
4.348, 5, 35.5201, 48.7001, -12.452, 95.9849, -58.8134, 41.0881
4.352, 5, 35.5191, 48.7016, -12.4491, 95.9817, -58.8269, 41.083
4.356, 5, 35.5182, 48.7032, -12.4461, 95.9785, -58.8405, 41.0779
4.36, 5, 35.5172, 48.7047, -12.4432, 95.9753, -58.8541, 41.0728
4.364, 5, 35.5163, 48.7063, -12.4403, 95.9721, -58.8676, 41.0677
4.368, 5, 35.5153, 48.7078, -12.4374, 95.9689, -58.8812, 41.0627
4.372, 5, 35.5144, 48.7094, -12.4344, 95.9657, -58.8948, 41.0576
4.376, 5, 35.5134, 48.7109, -12.4315, 95.9625, -58.9083, 41.0525
4.38, 5, 35.5124, 48.7125, -12.4286, 95.9594, -58.9219, 41.0474
4.384, 5, 35.5115, 48.714, -12.4257, 95.9562, -58.9355, 41.0423
4.388, 5, 35.5105, 48.7156, -12.4227, 95.953, -58.949, 41.0372
4.392, 5, 35.5095, 48.7171, -12.4198, 95.9498, -58.9626, 41.0322
4.396, 5, 35.5086, 48.7187, -12.4169, 95.9466, -58.9762, 41.0271
4.4, 5, 35.5076, 48.7203, -12.414, 95.9434, -58.9897, 41.022
4.404, 5, 35.5066, 48.7218, -12.4111, 95.9402, -59.0033, 41.0169
4.408, 5, 35.5057, 48.7234, -12.4081, 95.937, -59.0168, 41.0119
4.412, 5, 35.5047, 48.7249, -12.4052, 95.9338, -59.0304, 41.0068
4.416, 5, 35.5037, 48.7265, -12.4023, 95.9305, -59.044, 41.0017
4.42, 5, 35.5028, 48.7281, -12.3994, 95.9274, -59.0575, 40.9967
4.424, 5, 35.5018, 48.7297, -12.3965, 95.9241, -59.0711, 40.9916
4.428, 5, 35.5008, 48.7312, -12.3935, 95.9209, -59.0847, 40.9865
4.432, 5, 35.4999, 48.7328, -12.3906, 95.9177, -59.0982, 40.9815
4.436, 5, 35.4989, 48.7344, -12.3877, 95.9145, -59.1118, 40.9764
4.44, 5, 35.4979, 48.736, -12.3848, 95.9113, -59.1253, 40.9713
4.444, 5, 35.4969, 48.7375, -12.3819, 95.9081, -59.1389, 40.9663
4.448, 5, 35.496, 48.7391, -12.379, 95.9048, -59.1524, 40.9612
4.452, 5, 35.495, 48.7407, -12.3761, 95.9016, -59.166, 40.9562
4.456, 5, 35.494, 48.7423, -12.3731, 95.8984, -59.1796, 40.9511
4.46, 5, 35.493, 48.7439, -12.3702, 95.8952, -59.1931, 40.9461
4.464, 5, 35.492, 48.7455, -12.3673, 95.892, -59.2067, 40.941
4.468, 5, 35.4911, 48.747, -12.3644, 95.8887, -59.2202, 40.936
4.472, 5, 35.4901, 48.7486, -12.3615, 95.8855, -59.2338, 40.9309
4.476, 5, 35.4891, 48.7502, -12.3586, 95.8823, -59.2473, 40.9259
4.48, 5, 35.4881, 48.7518, -12.3557, 95.8791, -59.2609, 40.9208
4.484, 5, 35.4871, 48.7534, -12.3528, 95.8758, -59.2744, 40.9158
4.488, 5, 35.4862, 48.755, -12.3498, 95.8726, -59.288, 40.9108
4.492, 5, 35.4852, 48.7566, -12.3469, 95.8694, -59.3015, 40.9057
4.496, 5, 35.4842, 48.7582, -12.344, 95.8661, -59.3151, 40.9007
4.5, 5, 35.4832, 48.7598, -12.3411, 95.8629, -59.3286, 40.8956
4.504, 5, 35.4822, 48.7614, -12.3382, 95.8596, -59.3422, 40.8906
4.508, 5, 35.4812, 48.763, -12.3353, 95.8564, -59.3558, 40.8856
4.512, 5, 35.4802, 48.7646, -12.3324, 95.8532, -59.3693, 40.8805
4.516, 5, 35.4792, 48.7663, -12.3295, 95.8499, -59.3829, 40.8755
4.52, 5, 35.4782, 48.7679, -12.3266, 95.8467, -59.3964, 40.8705
4.524, 5, 35.4773, 48.7695, -12.3237, 95.8434, -59.4099, 40.8654
4.528, 5, 35.4763, 48.7711, -12.3208, 95.8402, -59.4235, 40.8604
4.532, 5, 35.4753, 48.7727, -12.3179, 95.8369, -59.437, 40.8554
4.536, 5, 35.4743, 48.7743, -12.315, 95.8337, -59.4506, 40.8504
4.54, 5, 35.4733, 48.7759, -12.3121, 95.8304, -59.4641, 40.8453
4.544, 5, 35.4723, 48.7776, -12.3091, 95.8272, -59.4777, 40.8403
4.548, 5, 35.4713, 48.7792, -12.3062, 95.8239, -59.4912, 40.8353
4.552, 5, 35.4703, 48.7808, -12.3033, 95.8207, -59.5048, 40.8303
4.556, 5, 35.4693, 48.7824, -12.3004, 95.8174, -59.5183, 40.8253
4.56, 5, 35.4683, 48.7841, -12.2975, 95.8142, -59.5319, 40.8202
4.564, 5, 35.4673, 48.7857, -12.2946, 95.8109, -59.5454, 40.8152
4.568, 5, 35.4663, 48.7873, -12.2917, 95.8077, -59.5589, 40.8102
4.572, 5, 35.4653, 48.789, -12.2888, 95.8044, -59.5725, 40.8052
4.576, 5, 35.4643, 48.7906, -12.2859, 95.8011, -59.586, 40.8002
4.58, 5, 35.4633, 48.7922, -12.283, 95.7979, -59.5996, 40.7952
4.584, 5, 35.4623, 48.7939, -12.2801, 95.7946, -59.6131, 40.7902
4.588, 5, 35.4613, 48.7955, -12.2772, 95.7913, -59.6266, 40.7852
4.592, 5, 35.4603, 48.7971, -12.2743, 95.7881, -59.6402, 40.7802
4.596, 5, 35.4592, 48.7988, -12.2714, 95.7848, -59.6537, 40.7752
4.6, 5, 35.4582, 48.8004, -12.2685, 95.7815, -59.6673, 40.7702
4.604, 5, 35.4572, 48.8021, -12.2656, 95.7783, -59.6808, 40.7652
4.608, 5, 35.4562, 48.8037, -12.2627, 95.775, -59.6943, 40.7602
4.612, 5, 35.4552, 48.8054, -12.2598, 95.7717, -59.7079, 40.7552
4.616, 5, 35.4542, 48.807, -12.2569, 95.7684, -59.7214, 40.7502
4.62, 5, 35.4532, 48.8087, -12.2541, 95.7651, -59.7349, 40.7452
4.624, 5, 35.4522, 48.8103, -12.2512, 95.7619, -59.7485, 40.7402
4.628, 5, 35.4512, 48.812, -12.2483, 95.7586, -59.762, 40.7352
4.632, 5, 35.4501, 48.8136, -12.2454, 95.7553, -59.7755, 40.7302
4.636, 5, 35.4491, 48.8153, -12.2425, 95.752, -59.7891, 40.7252
4.64, 5, 35.4481, 48.817, -12.2396, 95.7487, -59.8026, 40.7202
4.644, 5, 35.4471, 48.8186, -12.2367, 95.7454, -59.8161, 40.7153
4.648, 5, 35.4461, 48.8203, -12.2338, 95.7421, -59.8297, 40.7103
4.652, 5, 35.445, 48.822, -12.2309, 95.7389, -59.8432, 40.7053
4.656, 5, 35.444, 48.8236, -12.228, 95.7356, -59.8567, 40.7003
4.66, 5, 35.443, 48.8253, -12.2251, 95.7323, -59.8703, 40.6953
4.664, 5, 35.442, 48.827, -12.2222, 95.729, -59.8838, 40.6904
4.668, 5, 35.441, 48.8286, -12.2193, 95.7257, -59.8973, 40.6854
4.672, 5, 35.4399, 48.8303, -12.2164, 95.7224, -59.9109, 40.6804
4.676, 5, 35.4389, 48.832, -12.2136, 95.7191, -59.9244, 40.6754
4.68, 5, 35.4379, 48.8337, -12.2107, 95.7158, -59.9379, 40.6705
4.684, 5, 35.4369, 48.8354, -12.2078, 95.7125, -59.9514, 40.6655
4.688, 5, 35.4358, 48.837, -12.2049, 95.7092, -59.965, 40.6605
4.692, 5, 35.4348, 48.8387, -12.202, 95.7059, -59.9785, 40.6556
4.696, 5, 35.4338, 48.8404, -12.1991, 95.7026, -59.992, 40.6506
4.7, 5, 35.4327, 48.8421, -12.1962, 95.6993, -60.0056, 40.6456
4.704, 5, 35.4317, 48.8438, -12.1933, 95.696, -60.0191, 40.6407
4.708, 5, 35.4307, 48.8455, -12.1905, 95.6927, -60.0326, 40.6357
4.712, 5, 35.4296, 48.8471, -12.1876, 95.6894, -60.0461, 40.6307
4.716, 5, 35.4286, 48.8488, -12.1847, 95.6861, -60.0596, 40.6258
4.72, 5, 35.4276, 48.8505, -12.1818, 95.6827, -60.0732, 40.6208
4.724, 5, 35.4265, 48.8522, -12.1789, 95.6794, -60.0867, 40.6159
4.728, 5, 35.4255, 48.8539, -12.176, 95.6761, -60.1002, 40.6109
4.732, 5, 35.4245, 48.8556, -12.1732, 95.6728, -60.1137, 40.606
4.736, 5, 35.4234, 48.8573, -12.1703, 95.6695, -60.1273, 40.601
4.74, 5, 35.4224, 48.859, -12.1674, 95.6662, -60.1408, 40.5961
4.744, 5, 35.4214, 48.8607, -12.1645, 95.6628, -60.1543, 40.5911
4.748, 5, 35.4203, 48.8624, -12.1616, 95.6595, -60.1678, 40.5862
4.752, 5, 35.4193, 48.8642, -12.1587, 95.6562, -60.1813, 40.5812
4.756, 5, 35.4182, 48.8659, -12.1559, 95.6529, -60.1949, 40.5763
4.76, 5, 35.4172, 48.8676, -12.153, 95.6495, -60.2084, 40.5713
4.764, 5, 35.4161, 48.8693, -12.1501, 95.6462, -60.2219, 40.5664
4.768, 5, 35.4151, 48.871, -12.1472, 95.6429, -60.2354, 40.5614
4.772, 5, 35.4141, 48.8727, -12.1443, 95.6396, -60.2489, 40.5565
4.776, 5, 35.413, 48.8744, -12.1415, 95.6362, -60.2624, 40.5516
4.78, 5, 35.412, 48.8761, -12.1386, 95.6329, -60.276, 40.5466
4.784, 5, 35.4109, 48.8779, -12.1357, 95.6296, -60.2895, 40.5417
4.788, 5, 35.4099, 48.8796, -12.1328, 95.6262, -60.303, 40.5368
4.792, 5, 35.4088, 48.8813, -12.13, 95.6229, -60.3165, 40.5318
4.796, 5, 35.4078, 48.883, -12.1271, 95.6195, -60.33, 40.5269
4.8, 5, 35.4067, 48.8848, -12.1242, 95.6162, -60.3435, 40.522
4.804, 5, 35.4057, 48.8865, -12.1213, 95.6129, -60.357, 40.517
4.808, 5, 35.4046, 48.8882, -12.1184, 95.6095, -60.3705, 40.5121
4.812, 5, 35.4035, 48.89, -12.1156, 95.6062, -60.3841, 40.5072
4.816, 5, 35.4025, 48.8917, -12.1127, 95.6028, -60.3976, 40.5023
4.82, 5, 35.4014, 48.8934, -12.1098, 95.5995, -60.4111, 40.4973
4.824, 5, 35.4004, 48.8952, -12.107, 95.5961, -60.4246, 40.4924
4.828, 5, 35.3993, 48.8969, -12.1041, 95.5928, -60.4381, 40.4875
4.832, 5, 35.3983, 48.8986, -12.1012, 95.5894, -60.4516, 40.4826
4.836, 5, 35.3972, 48.9004, -12.0983, 95.5861, -60.4651, 40.4777
4.84, 5, 35.3961, 48.9021, -12.0955, 95.5827, -60.4786, 40.4728
4.844, 5, 35.3951, 48.9039, -12.0926, 95.5794, -60.4921, 40.4678
4.848, 5, 35.394, 48.9056, -12.0897, 95.576, -60.5056, 40.4629
4.852, 5, 35.3929, 48.9074, -12.0868, 95.5727, -60.5191, 40.458
4.856, 5, 35.3919, 48.9091, -12.084, 95.5693, -60.5326, 40.4531
4.86, 5, 35.3908, 48.9109, -12.0811, 95.566, -60.5461, 40.4482
4.864, 5, 35.3898, 48.9126, -12.0782, 95.5626, -60.5597, 40.4433
4.868, 5, 35.3887, 48.9144, -12.0754, 95.5592, -60.5732, 40.4384
4.872, 5, 35.3876, 48.9161, -12.0725, 95.5559, -60.5867, 40.4335
4.876, 5, 35.3865, 48.9179, -12.0696, 95.5525, -60.6002, 40.4286
4.88, 5, 35.3855, 48.9197, -12.0668, 95.5491, -60.6137, 40.4237
4.884, 5, 35.3844, 48.9214, -12.0639, 95.5458, -60.6272, 40.4188
4.888, 5, 35.3833, 48.9232, -12.061, 95.5424, -60.6407, 40.4139
4.892, 5, 35.3823, 48.9249, -12.0582, 95.539, -60.6542, 40.409
4.896, 5, 35.3812, 48.9267, -12.0553, 95.5357, -60.6677, 40.4041
4.9, 5, 35.3801, 48.9285, -12.0524, 95.5323, -60.6812, 40.3992
4.904, 5, 35.379, 48.9302, -12.0496, 95.5289, -60.6947, 40.3943
4.908, 5, 35.378, 48.932, -12.0467, 95.5255, -60.7082, 40.3894
4.912, 5, 35.3769, 48.9338, -12.0438, 95.5222, -60.7217, 40.3845
4.916, 5, 35.3758, 48.9356, -12.041, 95.5188, -60.7352, 40.3796
4.92, 5, 35.3747, 48.9373, -12.0381, 95.5154, -60.7487, 40.3747
4.924, 5, 35.3737, 48.9391, -12.0353, 95.512, -60.7622, 40.3699
4.928, 5, 35.3726, 48.9409, -12.0324, 95.5086, -60.7757, 40.365
4.932, 5, 35.3715, 48.9427, -12.0295, 95.5053, -60.7891, 40.3601
4.936, 5, 35.3704, 48.9445, -12.0267, 95.5019, -60.8026, 40.3552
4.94, 5, 35.3693, 48.9463, -12.0238, 95.4985, -60.8161, 40.3503
4.944, 5, 35.3682, 48.948, -12.0209, 95.4951, -60.8296, 40.3455
4.948, 5, 35.3672, 48.9498, -12.0181, 95.4917, -60.8431, 40.3406
4.952, 5, 35.3661, 48.9516, -12.0152, 95.4883, -60.8566, 40.3357
4.956, 5, 35.365, 48.9534, -12.0124, 95.4849, -60.8701, 40.3308
4.96, 5, 35.3639, 48.9552, -12.0095, 95.4815, -60.8836, 40.326
4.964, 5, 35.3628, 48.957, -12.0066, 95.4781, -60.8971, 40.3211
4.968, 5, 35.3617, 48.9588, -12.0038, 95.4747, -60.9106, 40.3162
4.972, 5, 35.3606, 48.9606, -12.0009, 95.4713, -60.9241, 40.3113
4.976, 5, 35.3595, 48.9624, -11.9981, 95.4679, -60.9376, 40.3065
4.98, 5, 35.3585, 48.9642, -11.9952, 95.4645, -60.9511, 40.3016
4.984, 5, 35.3574, 48.966, -11.9924, 95.4612, -60.9645, 40.2967
4.988, 5, 35.3563, 48.9678, -11.9895, 95.4577, -60.978, 40.2919
4.992, 5, 35.3552, 48.9696, -11.9866, 95.4543, -60.9915, 40.287
4.996, 5, 35.3541, 48.9714, -11.9838, 95.4509, -61.005, 40.2822
5, 5, 35.353, 48.9732, -11.9809, 95.4475, -61.0185, 40.2773
5.004, 5, 35.3519, 48.975, -11.9781, 95.4441, -61.032, 40.2724
5.008, 5, 35.3508, 48.9768, -11.9752, 95.4407, -61.0455, 40.2676
5.012, 5, 35.3497, 48.9786, -11.9724, 95.4373, -61.0589, 40.2627
5.016, 5, 35.3486, 48.9805, -11.9695, 95.4339, -61.0724, 40.2579
5.02, 5, 35.3475, 48.9823, -11.9667, 95.4305, -61.0859, 40.253
5.024, 5, 35.3464, 48.9841, -11.9638, 95.4271, -61.0994, 40.2482
5.028, 5, 35.3453, 48.9859, -11.961, 95.4237, -61.1129, 40.2433
5.032, 5, 35.3442, 48.9877, -11.9581, 95.4202, -61.1264, 40.2385
5.036, 5, 35.3431, 48.9896, -11.9553, 95.4168, -61.1399, 40.2336
5.04, 5, 35.342, 48.9914, -11.9524, 95.4134, -61.1533, 40.2288
5.044, 5, 35.3409, 48.9932, -11.9496, 95.41, -61.1668, 40.2239
5.048, 5, 35.3398, 48.995, -11.9467, 95.4066, -61.1803, 40.2191
5.052, 5, 35.3386, 48.9969, -11.9439, 95.4031, -61.1938, 40.2142
5.056, 5, 35.3375, 48.9987, -11.941, 95.3997, -61.2073, 40.2094
5.06, 5, 35.3364, 49.0005, -11.9382, 95.3963, -61.2207, 40.2046
5.064, 5, 35.3353, 49.0024, -11.9353, 95.3929, -61.2342, 40.1997
5.068, 5, 35.3342, 49.0042, -11.9325, 95.3894, -61.2477, 40.1949
5.072, 5, 35.3331, 49.0061, -11.9296, 95.386, -61.2612, 40.1901
5.076, 5, 35.332, 49.0079, -11.9268, 95.3826, -61.2747, 40.1852
5.08, 5, 35.3309, 49.0097, -11.9239, 95.3792, -61.2881, 40.1804
5.084, 5, 35.3298, 49.0116, -11.9211, 95.3757, -61.3016, 40.1756
5.088, 5, 35.3286, 49.0134, -11.9182, 95.3723, -61.3151, 40.1707
5.092, 5, 35.3275, 49.0153, -11.9154, 95.3688, -61.3285, 40.1659
5.096, 5, 35.3264, 49.0171, -11.9125, 95.3654, -61.342, 40.1611
5.1, 5, 35.3253, 49.019, -11.9097, 95.362, -61.3555, 40.1562
5.104, 5, 35.3242, 49.0208, -11.9069, 95.3585, -61.369, 40.1514
5.108, 5, 35.323, 49.0227, -11.904, 95.3551, -61.3825, 40.1466
5.112, 5, 35.3219, 49.0245, -11.9012, 95.3516, -61.3959, 40.1418
5.116, 5, 35.3208, 49.0264, -11.8983, 95.3482, -61.4094, 40.137
5.12, 5, 35.3197, 49.0282, -11.8955, 95.3448, -61.4229, 40.1321
5.124, 5, 35.3186, 49.0301, -11.8926, 95.3413, -61.4363, 40.1273
5.128, 5, 35.3174, 49.032, -11.8898, 95.3379, -61.4498, 40.1225
5.132, 5, 35.3163, 49.0338, -11.887, 95.3344, -61.4633, 40.1177
5.136, 5, 35.3152, 49.0357, -11.8841, 95.331, -61.4767, 40.1129
5.14, 5, 35.314, 49.0376, -11.8813, 95.3275, -61.4902, 40.1081
5.144, 5, 35.3129, 49.0394, -11.8784, 95.3241, -61.5037, 40.1033
5.148, 5, 35.3118, 49.0413, -11.8756, 95.3206, -61.5172, 40.0984
5.152, 5, 35.3107, 49.0432, -11.8728, 95.3172, -61.5306, 40.0936
5.156, 5, 35.3095, 49.045, -11.8699, 95.3137, -61.5441, 40.0888
5.16, 5, 35.3084, 49.0469, -11.8671, 95.3102, -61.5576, 40.084
5.164, 5, 35.3073, 49.0488, -11.8642, 95.3068, -61.571, 40.0792
5.168, 5, 35.3061, 49.0507, -11.8614, 95.3033, -61.5845, 40.0744
5.172, 5, 35.305, 49.0525, -11.8586, 95.2999, -61.5979, 40.0696
5.176, 5, 35.3039, 49.0544, -11.8557, 95.2964, -61.6114, 40.0648
5.18, 5, 35.3027, 49.0563, -11.8529, 95.2929, -61.6249, 40.06
5.184, 5, 35.3016, 49.0582, -11.8501, 95.2895, -61.6383, 40.0552
5.188, 5, 35.3004, 49.0601, -11.8472, 95.286, -61.6518, 40.0504
5.192, 5, 35.2993, 49.062, -11.8444, 95.2825, -61.6653, 40.0456
5.196, 5, 35.2982, 49.0638, -11.8415, 95.2791, -61.6787, 40.0408
5.2, 5, 35.297, 49.0657, -11.8387, 95.2756, -61.6922, 40.036
5.204, 5, 35.2959, 49.0676, -11.8359, 95.2721, -61.7057, 40.0313
5.208, 5, 35.2947, 49.0695, -11.833, 95.2687, -61.7191, 40.0265
5.212, 5, 35.2936, 49.0714, -11.8302, 95.2652, -61.7326, 40.0217
5.216, 5, 35.2924, 49.0733, -11.8274, 95.2617, -61.746, 40.0169
5.22, 5, 35.2913, 49.0752, -11.8245, 95.2582, -61.7595, 40.0121
5.224, 5, 35.2902, 49.0771, -11.8217, 95.2548, -61.7729, 40.0073
5.228, 5, 35.289, 49.079, -11.8189, 95.2513, -61.7864, 40.0025
5.232, 5, 35.2879, 49.0809, -11.8161, 95.2478, -61.7999, 39.9978
5.236, 5, 35.2867, 49.0828, -11.8132, 95.2443, -61.8133, 39.993
5.24, 5, 35.2856, 49.0847, -11.8104, 95.2408, -61.8268, 39.9882
5.244, 5, 35.2844, 49.0866, -11.8076, 95.2374, -61.8402, 39.9834
5.248, 5, 35.2833, 49.0885, -11.8047, 95.2339, -61.8537, 39.9786
5.252, 5, 35.2821, 49.0905, -11.8019, 95.2304, -61.8671, 39.9739
5.256, 5, 35.281, 49.0924, -11.7991, 95.2269, -61.8806, 39.9691
5.26, 5, 35.2798, 49.0943, -11.7962, 95.2234, -61.894, 39.9643
5.264, 5, 35.2786, 49.0962, -11.7934, 95.2199, -61.9075, 39.9596
5.268, 5, 35.2775, 49.0981, -11.7906, 95.2164, -61.921, 39.9548
5.272, 5, 35.2763, 49.1, -11.7878, 95.2129, -61.9344, 39.95
5.276, 5, 35.2752, 49.102, -11.7849, 95.2094, -61.9479, 39.9452
5.28, 5, 35.274, 49.1039, -11.7821, 95.2059, -61.9613, 39.9405
5.284, 5, 35.2729, 49.1058, -11.7793, 95.2025, -61.9748, 39.9357
5.288, 5, 35.2717, 49.1077, -11.7765, 95.199, -61.9882, 39.931
5.292, 5, 35.2705, 49.1097, -11.7736, 95.1955, -62.0017, 39.9262
5.296, 5, 35.2694, 49.1116, -11.7708, 95.192, -62.0151, 39.9214
5.3, 5, 35.2682, 49.1135, -11.768, 95.1885, -62.0286, 39.9167
5.304, 5, 35.267, 49.1155, -11.7652, 95.185, -62.042, 39.9119
5.308, 5, 35.2659, 49.1174, -11.7623, 95.1814, -62.0555, 39.9072
5.312, 5, 35.2647, 49.1193, -11.7595, 95.1779, -62.0689, 39.9024
5.316, 5, 35.2635, 49.1213, -11.7567, 95.1744, -62.0823, 39.8977
5.32, 5, 35.2624, 49.1232, -11.7539, 95.1709, -62.0958, 39.8929
5.324, 5, 35.2612, 49.1251, -11.751, 95.1674, -62.1092, 39.8881
5.328, 5, 35.26, 49.1271, -11.7482, 95.1639, -62.1227, 39.8834
5.332, 5, 35.2589, 49.129, -11.7454, 95.1604, -62.1361, 39.8786
5.336, 5, 35.2577, 49.131, -11.7426, 95.1569, -62.1496, 39.8739
5.34, 5, 35.2565, 49.1329, -11.7398, 95.1534, -62.163, 39.8692
5.344, 5, 35.2553, 49.1349, -11.7369, 95.1499, -62.1765, 39.8644
5.348, 5, 35.2542, 49.1368, -11.7341, 95.1464, -62.1899, 39.8597
5.352, 5, 35.253, 49.1388, -11.7313, 95.1428, -62.2033, 39.8549
5.356, 5, 35.2518, 49.1407, -11.7285, 95.1393, -62.2168, 39.8502
5.36, 5, 35.2506, 49.1427, -11.7257, 95.1358, -62.2302, 39.8454
5.364, 5, 35.2495, 49.1446, -11.7228, 95.1323, -62.2437, 39.8407
5.368, 5, 35.2483, 49.1466, -11.72, 95.1288, -62.2571, 39.836
5.372, 5, 35.2471, 49.1485, -11.7172, 95.1252, -62.2705, 39.8312
5.376, 5, 35.2459, 49.1505, -11.7144, 95.1217, -62.284, 39.8265
5.38, 5, 35.2447, 49.1525, -11.7116, 95.1182, -62.2974, 39.8218
5.384, 5, 35.2435, 49.1544, -11.7088, 95.1147, -62.3109, 39.817
5.388, 5, 35.2424, 49.1564, -11.7059, 95.1111, -62.3243, 39.8123
5.392, 5, 35.2412, 49.1584, -11.7031, 95.1076, -62.3377, 39.8076
5.396, 5, 35.24, 49.1603, -11.7003, 95.1041, -62.3512, 39.8028
5.4, 5, 35.2388, 49.1623, -11.6975, 95.1005, -62.3646, 39.7981
5.404, 5, 35.2376, 49.1643, -11.6947, 95.097, -62.378, 39.7934
5.408, 5, 35.2364, 49.1663, -11.6919, 95.0935, -62.3915, 39.7887
5.412, 5, 35.2352, 49.1682, -11.6891, 95.0899, -62.4049, 39.7839
5.416, 5, 35.2341, 49.1702, -11.6862, 95.0864, -62.4183, 39.7792
5.42, 5, 35.2329, 49.1722, -11.6834, 95.0829, -62.4318, 39.7745
5.424, 5, 35.2317, 49.1742, -11.6806, 95.0793, -62.4452, 39.7698
5.428, 5, 35.2305, 49.1762, -11.6778, 95.0758, -62.4586, 39.7651
5.432, 5, 35.2293, 49.1781, -11.675, 95.0722, -62.4721, 39.7603
5.436, 5, 35.2281, 49.1801, -11.6722, 95.0687, -62.4855, 39.7556
5.44, 5, 35.2269, 49.1821, -11.6694, 95.0652, -62.4989, 39.7509
5.444, 5, 35.2257, 49.1841, -11.6666, 95.0616, -62.5124, 39.7462
5.448, 5, 35.2245, 49.1861, -11.6638, 95.0581, -62.5258, 39.7415
5.452, 5, 35.2233, 49.1881, -11.6609, 95.0545, -62.5392, 39.7368
5.456, 5, 35.2221, 49.1901, -11.6581, 95.051, -62.5526, 39.7321
5.46, 5, 35.2209, 49.1921, -11.6553, 95.0474, -62.5661, 39.7274
5.464, 5, 35.2197, 49.1941, -11.6525, 95.0439, -62.5795, 39.7227
5.468, 5, 35.2185, 49.1961, -11.6497, 95.0403, -62.5929, 39.718
5.472, 5, 35.2173, 49.1981, -11.6469, 95.0368, -62.6064, 39.7133
5.476, 5, 35.2161, 49.2001, -11.6441, 95.0332, -62.6198, 39.7086
5.48, 5, 35.2149, 49.2021, -11.6413, 95.0296, -62.6332, 39.7039
5.484, 5, 35.2137, 49.2041, -11.6385, 95.0261, -62.6466, 39.6992
5.488, 5, 35.2125, 49.2061, -11.6357, 95.0225, -62.6601, 39.6945
5.492, 5, 35.2113, 49.2081, -11.6329, 95.019, -62.6735, 39.6898
5.496, 5, 35.21, 49.2101, -11.6301, 95.0154, -62.6869, 39.6851
5.5, 5, 35.2088, 49.2121, -11.6273, 95.0118, -62.7003, 39.6804
5.504, 5, 35.2076, 49.2141, -11.6245, 95.0083, -62.7138, 39.6757
5.508, 5, 35.2064, 49.2161, -11.6217, 95.0047, -62.7272, 39.671
5.512, 5, 35.2052, 49.2181, -11.6189, 95.0012, -62.7406, 39.6663
5.516, 5, 35.204, 49.2202, -11.6161, 94.9976, -62.754, 39.6616
5.52, 5, 35.2028, 49.2222, -11.6132, 94.994, -62.7674, 39.6569
5.524, 5, 35.2016, 49.2242, -11.6104, 94.9905, -62.7809, 39.6522
5.528, 5, 35.2003, 49.2262, -11.6076, 94.9869, -62.7943, 39.6475
5.532, 5, 35.1991, 49.2283, -11.6048, 94.9833, -62.8077, 39.6429
5.536, 5, 35.1979, 49.2303, -11.602, 94.9797, -62.8211, 39.6382
5.54, 5, 35.1967, 49.2323, -11.5992, 94.9762, -62.8345, 39.6335
5.544, 5, 35.1955, 49.2343, -11.5964, 94.9726, -62.8479, 39.6288
5.548, 5, 35.1942, 49.2364, -11.5936, 94.969, -62.8614, 39.6241
5.552, 5, 35.193, 49.2384, -11.5908, 94.9654, -62.8748, 39.6194
5.556, 5, 35.1918, 49.2404, -11.588, 94.9619, -62.8882, 39.6148
5.56, 5, 35.1906, 49.2425, -11.5852, 94.9583, -62.9016, 39.6101
5.564, 5, 35.1894, 49.2445, -11.5824, 94.9547, -62.915, 39.6054
5.568, 5, 35.1881, 49.2465, -11.5796, 94.9511, -62.9284, 39.6008
5.572, 5, 35.1869, 49.2486, -11.5768, 94.9475, -62.9418, 39.5961
5.576, 5, 35.1857, 49.2506, -11.574, 94.9439, -62.9553, 39.5914
5.58, 5, 35.1844, 49.2527, -11.5713, 94.9404, -62.9687, 39.5867
5.584, 5, 35.1832, 49.2547, -11.5685, 94.9368, -62.9821, 39.5821
5.588, 5, 35.182, 49.2568, -11.5657, 94.9332, -62.9955, 39.5774
5.592, 5, 35.1808, 49.2588, -11.5629, 94.9296, -63.0089, 39.5727
5.596, 5, 35.1795, 49.2608, -11.5601, 94.926, -63.0223, 39.5681
5.6, 5, 35.1783, 49.2629, -11.5573, 94.9224, -63.0357, 39.5634
5.604, 5, 35.1771, 49.265, -11.5545, 94.9188, -63.0491, 39.5587
5.608, 5, 35.1758, 49.267, -11.5517, 94.9152, -63.0626, 39.5541
5.612, 5, 35.1746, 49.2691, -11.5489, 94.9116, -63.076, 39.5494
5.616, 5, 35.1733, 49.2711, -11.5461, 94.908, -63.0894, 39.5448
5.62, 5, 35.1721, 49.2732, -11.5433, 94.9044, -63.1028, 39.5401
5.624, 5, 35.1709, 49.2752, -11.5405, 94.9008, -63.1162, 39.5355
5.628, 5, 35.1696, 49.2773, -11.5377, 94.8972, -63.1296, 39.5308
5.632, 5, 35.1684, 49.2794, -11.5349, 94.8936, -63.143, 39.5261
5.636, 5, 35.1671, 49.2814, -11.5321, 94.89, -63.1564, 39.5215
5.64, 5, 35.1659, 49.2835, -11.5293, 94.8864, -63.1698, 39.5168
5.644, 5, 35.1647, 49.2856, -11.5265, 94.8828, -63.1832, 39.5122
5.648, 5, 35.1634, 49.2876, -11.5238, 94.8792, -63.1966, 39.5075
5.652, 5, 35.1622, 49.2897, -11.521, 94.8756, -63.21, 39.5029
5.656, 5, 35.1609, 49.2918, -11.5182, 94.872, -63.2234, 39.4983
5.66, 5, 35.1597, 49.2939, -11.5154, 94.8684, -63.2368, 39.4936
5.664, 5, 35.1584, 49.2959, -11.5126, 94.8648, -63.2502, 39.489
5.668, 5, 35.1572, 49.298, -11.5098, 94.8612, -63.2636, 39.4843
5.672, 5, 35.1559, 49.3001, -11.507, 94.8576, -63.277, 39.4797
5.676, 5, 35.1547, 49.3022, -11.5042, 94.854, -63.2904, 39.475
5.68, 5, 35.1534, 49.3043, -11.5014, 94.8503, -63.3038, 39.4704
5.684, 5, 35.1522, 49.3063, -11.4987, 94.8467, -63.3172, 39.4658
5.688, 5, 35.1509, 49.3084, -11.4959, 94.8431, -63.3306, 39.4611
5.692, 5, 35.1497, 49.3105, -11.4931, 94.8395, -63.344, 39.4565
5.696, 5, 35.1484, 49.3126, -11.4903, 94.8359, -63.3574, 39.4519
5.7, 5, 35.1472, 49.3147, -11.4875, 94.8322, -63.3708, 39.4472
5.704, 5, 35.1459, 49.3168, -11.4847, 94.8286, -63.3842, 39.4426
5.708, 5, 35.1446, 49.3189, -11.4819, 94.825, -63.3976, 39.438
5.712, 5, 35.1434, 49.321, -11.4792, 94.8214, -63.411, 39.4333
5.716, 5, 35.1421, 49.3231, -11.4764, 94.8177, -63.4244, 39.4287
5.72, 5, 35.1409, 49.3252, -11.4736, 94.8141, -63.4378, 39.4241
5.724, 5, 35.1396, 49.3273, -11.4708, 94.8105, -63.4512, 39.4195
5.728, 5, 35.1383, 49.3294, -11.468, 94.8069, -63.4646, 39.4148
5.732, 5, 35.1371, 49.3315, -11.4652, 94.8032, -63.478, 39.4102
5.736, 5, 35.1358, 49.3336, -11.4625, 94.7996, -63.4914, 39.4056
5.74, 5, 35.1345, 49.3357, -11.4597, 94.796, -63.5048, 39.401
5.744, 5, 35.1333, 49.3378, -11.4569, 94.7923, -63.5182, 39.3964
5.748, 5, 35.132, 49.3399, -11.4541, 94.7887, -63.5315, 39.3917
5.752, 5, 35.1307, 49.342, -11.4513, 94.7851, -63.5449, 39.3871
5.756, 5, 35.1295, 49.3441, -11.4486, 94.7814, -63.5583, 39.3825
5.76, 5, 35.1282, 49.3462, -11.4458, 94.7778, -63.5717, 39.3779
5.764, 5, 35.1269, 49.3484, -11.443, 94.7741, -63.5851, 39.3733
5.768, 5, 35.1256, 49.3505, -11.4402, 94.7705, -63.5985, 39.3687
5.772, 5, 35.1244, 49.3526, -11.4374, 94.7669, -63.6119, 39.3641
5.776, 5, 35.1231, 49.3547, -11.4347, 94.7632, -63.6253, 39.3595
5.78, 5, 35.1218, 49.3568, -11.4319, 94.7596, -63.6387, 39.3548
5.784, 5, 35.1205, 49.359, -11.4291, 94.7559, -63.652, 39.3502
5.788, 5, 35.1193, 49.3611, -11.4263, 94.7523, -63.6654, 39.3456
5.792, 5, 35.118, 49.3632, -11.4235, 94.7486, -63.6788, 39.341
5.796, 5, 35.1167, 49.3653, -11.4208, 94.745, -63.6922, 39.3364
5.8, 5, 35.1154, 49.3675, -11.418, 94.7413, -63.7056, 39.3318
5.804, 5, 35.1142, 49.3696, -11.4152, 94.7377, -63.719, 39.3272
5.808, 5, 35.1129, 49.3717, -11.4124, 94.734, -63.7323, 39.3226
5.812, 5, 35.1116, 49.3739, -11.4097, 94.7304, -63.7457, 39.318
5.816, 5, 35.1103, 49.376, -11.4069, 94.7267, -63.7591, 39.3134
5.82, 5, 35.109, 49.3782, -11.4041, 94.7231, -63.7725, 39.3088
5.824, 5, 35.1077, 49.3803, -11.4013, 94.7194, -63.7859, 39.3042
5.828, 5, 35.1064, 49.3824, -11.3986, 94.7158, -63.7993, 39.2996
5.832, 5, 35.1052, 49.3846, -11.3958, 94.7121, -63.8126, 39.2951
5.836, 5, 35.1039, 49.3867, -11.393, 94.7085, -63.826, 39.2905
5.84, 5, 35.1026, 49.3889, -11.3902, 94.7048, -63.8394, 39.2859
5.844, 5, 35.1013, 49.391, -11.3875, 94.7011, -63.8528, 39.2813
5.848, 5, 35.1, 49.3932, -11.3847, 94.6975, -63.8661, 39.2767
5.852, 5, 35.0987, 49.3953, -11.3819, 94.6938, -63.8795, 39.2721
5.856, 5, 35.0974, 49.3975, -11.3792, 94.6901, -63.8929, 39.2675
5.86, 5, 35.0961, 49.3996, -11.3764, 94.6865, -63.9063, 39.2629
5.864, 5, 35.0948, 49.4018, -11.3736, 94.6828, -63.9197, 39.2584
5.868, 5, 35.0935, 49.4039, -11.3708, 94.6791, -63.933, 39.2538
5.872, 5, 35.0922, 49.4061, -11.3681, 94.6755, -63.9464, 39.2492
5.876, 5, 35.0909, 49.4083, -11.3653, 94.6718, -63.9598, 39.2446
5.88, 5, 35.0896, 49.4104, -11.3625, 94.6681, -63.9732, 39.24
5.884, 5, 35.0883, 49.4126, -11.3598, 94.6644, -63.9865, 39.2355
5.888, 5, 35.087, 49.4147, -11.357, 94.6608, -63.9999, 39.2309
5.892, 5, 35.0857, 49.4169, -11.3542, 94.6571, -64.0133, 39.2263
5.896, 5, 35.0844, 49.4191, -11.3515, 94.6534, -64.0266, 39.2217
5.9, 5, 35.0831, 49.4212, -11.3487, 94.6497, -64.04, 39.2172
5.904, 5, 35.0818, 49.4234, -11.3459, 94.6461, -64.0534, 39.2126
5.908, 5, 35.0805, 49.4256, -11.3432, 94.6424, -64.0668, 39.208
5.912, 5, 35.0792, 49.4278, -11.3404, 94.6387, -64.0801, 39.2035
5.916, 5, 35.0779, 49.4299, -11.3376, 94.635, -64.0935, 39.1989
5.92, 5, 35.0766, 49.4321, -11.3349, 94.6313, -64.1069, 39.1943
5.924, 5, 35.0753, 49.4343, -11.3321, 94.6276, -64.1202, 39.1898
5.928, 5, 35.074, 49.4365, -11.3293, 94.624, -64.1336, 39.1852
5.932, 5, 35.0726, 49.4387, -11.3266, 94.6203, -64.147, 39.1806
5.936, 5, 35.0713, 49.4408, -11.3238, 94.6166, -64.1603, 39.1761
5.94, 5, 35.07, 49.443, -11.321, 94.6129, -64.1737, 39.1715
5.944, 5, 35.0687, 49.4452, -11.3183, 94.6092, -64.1871, 39.167
5.948, 5, 35.0674, 49.4474, -11.3155, 94.6055, -64.2004, 39.1624
5.952, 5, 35.0661, 49.4496, -11.3128, 94.6018, -64.2138, 39.1578
5.956, 5, 35.0648, 49.4518, -11.31, 94.5981, -64.2272, 39.1533
5.96, 5, 35.0634, 49.454, -11.3072, 94.5944, -64.2405, 39.1487
5.964, 5, 35.0621, 49.4562, -11.3045, 94.5907, -64.2539, 39.1442
5.968, 5, 35.0608, 49.4584, -11.3017, 94.587, -64.2673, 39.1396
5.972, 5, 35.0595, 49.4606, -11.2989, 94.5834, -64.2806, 39.1351
5.976, 5, 35.0582, 49.4628, -11.2962, 94.5796, -64.294, 39.1305
5.98, 5, 35.0568, 49.465, -11.2934, 94.5759, -64.3073, 39.126
5.984, 5, 35.0555, 49.4672, -11.2907, 94.5722, -64.3207, 39.1214
5.988, 5, 35.0542, 49.4694, -11.2879, 94.5686, -64.3341, 39.1169
5.992, 5, 35.0529, 49.4716, -11.2851, 94.5648, -64.3474, 39.1123
5.996, 5, 35.0515, 49.4738, -11.2824, 94.5611, -64.3608, 39.1078
6, 5, 35.0502, 49.476, -11.2796, 94.5574, -64.3741, 39.1033
6.004, 5, 35.0489, 49.4782, -11.2769, 94.5537, -64.3875, 39.0987
6.008, 5, 35.0475, 49.4804, -11.2741, 94.55, -64.4009, 39.0942
6.012, 5, 35.0462, 49.4827, -11.2714, 94.5463, -64.4142, 39.0896
6.016, 5, 35.0449, 49.4849, -11.2686, 94.5426, -64.4276, 39.0851
6.02, 5, 35.0435, 49.4871, -11.2658, 94.5389, -64.4409, 39.0806
6.024, 5, 35.0422, 49.4893, -11.2631, 94.5352, -64.4543, 39.076
6.028, 5, 35.0409, 49.4915, -11.2603, 94.5315, -64.4676, 39.0715
6.032, 5, 35.0395, 49.4937, -11.2576, 94.5277, -64.481, 39.067
6.036, 5, 35.0382, 49.496, -11.2548, 94.524, -64.4943, 39.0624
6.04, 5, 35.0369, 49.4982, -11.2521, 94.5203, -64.5077, 39.0579
6.044, 5, 35.0355, 49.5004, -11.2493, 94.5166, -64.521, 39.0534
