hehonglu123/ABB_Primitive_Study/execution/movel_smooth/curve_exe_v300_z10.csv
timestamp, cmd_num, J1, J2, J3, J4, J5, J6
0, -1, 32.9528, 52.8019, -8.46502, 89.9168, -78.8096, 34.6812
0.002, -1, 32.9528, 52.8019, -8.46502, 89.9168, -78.8096, 34.6812
0.006, -1, 32.9528, 52.8019, -8.46502, 89.9168, -78.8096, 34.6812
0.008, -1, 32.9528, 52.8019, -8.46502, 89.9168, -78.8096, 34.6812
0.011, -1, 32.9528, 52.8019, -8.46502, 89.9168, -78.8096, 34.6812
0.016, -1, 32.9528, 52.8019, -8.46502, 89.9168, -78.8096, 34.6812
0.02, -1, 32.9528, 52.8019, -8.46502, 89.9168, -78.8096, 34.6812
0.024, -1, 32.9528, 52.8019, -8.46502, 89.9168, -78.8096, 34.6812
0.028, -1, 32.9528, 52.8019, -8.46502, 89.9168, -78.8096, 34.6812
0.032, -1, 32.9528, 52.8019, -8.46502, 89.9168, -78.8096, 34.6812
0.036, -1, 32.9529, 52.8019, -8.46502, 89.9168, -78.8096, 34.6812
0.04, -1, 32.9531, 52.8018, -8.46503, 89.9168, -78.8095, 34.6812
0.044, -1, 32.9535, 52.8014, -8.46504, 89.9169, -78.8095, 34.6812
0.048, -1, 32.9543, 52.8006, -8.46509, 89.9169, -78.8093, 34.6813
0.052, -1, 32.9556, 52.7993, -8.46521, 89.917, -78.8088, 34.6815
0.056, -1, 32.9574, 52.7971, -8.46543, 89.9173, -78.8079, 34.6818
0.06, -1, 32.9597, 52.794, -8.46584, 89.9178, -78.8061, 34.6824
0.064, -1, 32.9625, 52.7899, -8.46653, 89.9186, -78.803, 34.6835
0.068, -1, 32.9659, 52.7849, -8.46761, 89.92, -78.798, 34.6852
0.072, -1, 32.9697, 52.7789, -8.46923, 89.922, -78.7905, 34.6877
0.076, -1, 32.9741, 52.7719, -8.47155, 89.925, -78.7796, 34.6915
0.08, -1, 32.9791, 52.7639, -8.47475, 89.9292, -78.7644, 34.6967
0.084, -1, 32.9847, 52.7549, -8.47904, 89.9348, -78.744, 34.7037
0.088, -1, 32.991, 52.7451, -8.48461, 89.9421, -78.7174, 34.7128
0.092, -1, 32.9978, 52.7344, -8.49169, 89.9515, -78.6834, 34.7244
0.096, -1, 33.005, 52.7231, -8.50046, 89.9631, -78.6411, 34.7389
0.1, -1, 33.0126, 52.7112, -8.51109, 89.9773, -78.5897, 34.7566
0.104, -1, 33.0204, 52.699, -8.5237, 89.9942, -78.5285, 34.7775
0.108, -1, 33.0284, 52.6863, -8.53837, 90.0139, -78.4572, 34.802
0.112, -1, 33.0368, 52.673, -8.55512, 90.0364, -78.3757, 34.8299
0.116, -1, 33.0455, 52.6592, -8.57391, 90.0617, -78.2841, 34.8613
0.12, -1, 33.0546, 52.6447, -8.59467, 90.0896, -78.183, 34.896
0.124, -1, 33.0642, 52.6296, -8.61726, 90.12, -78.0728, 34.9337
0.128, -1, 33.0741, 52.6139, -8.64153, 90.1527, -77.9545, 34.9743
0.131, -1, 33.0844, 52.5977, -8.6673, 90.1875, -77.8288, 35.0174
0.136, -1, 33.0949, 52.5809, -8.69437, 90.2239, -77.6968, 35.0627
0.139, -1, 33.1058, 52.5633, -8.72251, 90.2618, -77.5596, 35.1097
0.144, -1, 33.1172, 52.5447, -8.75152, 90.3009, -77.4182, 35.1582
0.148, -1, 33.1293, 52.525, -8.7812, 90.3408, -77.2736, 35.2077
0.152, -1, 33.1421, 52.5041, -8.81138, 90.3814, -77.1267, 35.2581
0.156, -1, 33.1556, 52.4819, -8.8419, 90.4224, -76.9782, 35.309
0.16, -1, 33.17, 52.4586, -8.87265, 90.4637, -76.8286, 35.3603
0.164, -1, 33.1849, 52.4345, -8.90354, 90.5052, -76.6784, 35.4118
0.168, -1, 33.2004, 52.4098, -8.9345, 90.5467, -76.5279, 35.4634
0.172, -1, 33.2161, 52.3847, -8.9655, 90.5883, -76.3772, 35.515
0.176, -1, 33.2321, 52.3594, -8.9965, 90.6299, -76.2265, 35.5667
0.18, -1, 33.2481, 52.334, -9.02748, 90.6715, -76.076, 35.6183
0.184, -1, 33.2643, 52.3084, -9.05844, 90.713, -75.9256, 35.6699
0.188, -1, 33.2805, 52.2828, -9.08935, 90.7545, -75.7754, 35.7214
0.192, -1, 33.2967, 52.2573, -9.12022, 90.7959, -75.6254, 35.7728
0.196, -1, 33.3129, 52.2317, -9.15103, 90.8372, -75.4757, 35.8241
0.2, -1, 33.3291, 52.2061, -9.1818, 90.8785, -75.3262, 35.8753
0.204, -1, 33.3453, 52.1806, -9.21251, 90.9197, -75.177, 35.9265
0.208, -1, 33.3614, 52.1551, -9.24316, 90.9608, -75.028, 35.9775
0.212, -1, 33.3776, 52.1296, -9.27376, 91.0018, -74.8794, 36.0285
0.216, -1, 33.3937, 52.1042, -9.3043, 91.0428, -74.731, 36.0794
0.22, -1, 33.4098, 52.0788, -9.33479, 91.0837, -74.5829, 36.1302
0.224, -1, 33.4258, 52.0535, -9.36522, 91.1245, -74.435, 36.1808
0.228, -1, 33.4419, 52.0282, -9.3956, 91.1652, -74.2874, 36.2314
0.232, -1, 33.4579, 52.003, -9.42592, 91.2059, -74.1401, 36.2819
0.236, -1, 33.4738, 51.9778, -9.45618, 91.2465, -73.9931, 36.3323
0.24, -1, 33.4898, 51.9526, -9.48639, 91.287, -73.8463, 36.3826
0.244, -1, 33.5057, 51.9275, -9.51654, 91.3275, -73.6998, 36.4329
0.248, -1, 33.5216, 51.9025, -9.54664, 91.3678, -73.5536, 36.483
0.252, -1, 33.5374, 51.8774, -9.57668, 91.4081, -73.4076, 36.533
0.256, -1, 33.5533, 51.8525, -9.60667, 91.4483, -73.2619, 36.583
0.26, -1, 33.5691, 51.8276, -9.6366, 91.4885, -73.1165, 36.6328
0.264, -1, 33.5848, 51.8027, -9.66649, 91.5286, -72.9713, 36.6826
0.268, -1, 33.6006, 51.7778, -9.69631, 91.5686, -72.8264, 36.7323
0.272, -1, 33.6163, 51.7531, -9.72609, 91.6085, -72.6817, 36.7819
0.276, -1, 33.632, 51.7283, -9.75581, 91.6484, -72.5373, 36.8314
0.28, -1, 33.6476, 51.7036, -9.78547, 91.6882, -72.3932, 36.8808
0.284, -1, 33.6633, 51.679, -9.81509, 91.7279, -72.2493, 36.9301
0.288, -1, 33.6789, 51.6544, -9.84465, 91.7675, -72.1057, 36.9794
0.292, -1, 33.6945, 51.6298, -9.87416, 91.8071, -71.9623, 37.0285
0.296, -1, 33.71, 51.6053, -9.90362, 91.8466, -71.8191, 37.0776
0.3, -1, 33.7255, 51.5808, -9.93303, 91.8861, -71.6763, 37.1265
0.304, -1, 33.741, 51.5563, -9.96238, 91.9255, -71.5336, 37.1754
0.308, -1, 33.7565, 51.5319, -9.99169, 91.9648, -71.3913, 37.2243
0.312, -1, 33.7719, 51.5076, -10.0209, 92.004, -71.2491, 37.273
0.316, -1, 33.7873, 51.4833, -10.0501, 92.0432, -71.1073, 37.3216
0.32, -1, 33.8027, 51.459, -10.0793, 92.0823, -70.9656, 37.3702
0.324, -1, 33.8181, 51.4348, -10.1084, 92.1213, -70.8242, 37.4186
0.328, -1, 33.8334, 51.4106, -10.1374, 92.1603, -70.6831, 37.467
0.332, -1, 33.8487, 51.3864, -10.1665, 92.1992, -70.5422, 37.5153
0.336, -1, 33.864, 51.3623, -10.1954, 92.238, -70.4015, 37.5636
0.34, -1, 33.8793, 51.3383, -10.2243, 92.2768, -70.261, 37.6117
0.344, -1, 33.8945, 51.3142, -10.2532, 92.3155, -70.1209, 37.6598
0.348, -1, 33.9097, 51.2903, -10.282, 92.3541, -69.9809, 37.7077
0.352, -1, 33.9249, 51.2663, -10.3107, 92.3927, -69.8412, 37.7556
0.356, -1, 33.94, 51.2424, -10.3394, 92.4312, -69.7017, 37.8034
0.36, -1, 33.9552, 51.2186, -10.3681, 92.4696, -69.5624, 37.8512
0.364, -1, 33.9703, 51.1947, -10.3967, 92.508, -69.4234, 37.8988
0.368, -1, 33.9853, 51.171, -10.4253, 92.5463, -69.2846, 37.9464
0.372, -1, 34.0004, 51.1472, -10.4538, 92.5846, -69.1461, 37.9939
0.376, -1, 34.0154, 51.1235, -10.4823, 92.6228, -69.0078, 38.0413
0.38, -1, 34.0304, 51.0998, -10.5107, 92.6609, -68.8697, 38.0887
0.384, -1, 34.0454, 51.0762, -10.5391, 92.6989, -68.7318, 38.1359
0.388, -1, 34.0604, 51.0526, -10.5674, 92.7369, -68.5941, 38.1831
0.392, -1, 34.0753, 51.0291, -10.5957, 92.7749, -68.4567, 38.2302
0.396, -1, 34.0902, 51.0056, -10.6239, 92.8127, -68.3195, 38.2773
0.4, -1, 34.1051, 50.9821, -10.6521, 92.8506, -68.1826, 38.3242
0.404, -1, 34.1199, 50.9587, -10.6803, 92.8883, -68.0458, 38.3711
0.408, -1, 34.1348, 50.9353, -10.7084, 92.926, -67.9093, 38.4179
0.412, -1, 34.1496, 50.9119, -10.7364, 92.9636, -67.773, 38.4646
0.416, -1, 34.1643, 50.8886, -10.7644, 93.0012, -67.6369, 38.5113
0.42, -1, 34.1791, 50.8653, -10.7924, 93.0387, -67.501, 38.5579
0.424, -1, 34.1938, 50.8421, -10.8203, 93.0762, -67.3653, 38.6044
0.428, -1, 34.2086, 50.8189, -10.8482, 93.1136, -67.2299, 38.6508
0.432, -1, 34.2232, 50.7957, -10.876, 93.1509, -67.0947, 38.6971
0.436, -1, 34.2379, 50.7726, -10.9038, 93.1881, -66.9597, 38.7434
0.44, -1, 34.2526, 50.7495, -10.9315, 93.2254, -66.8249, 38.7896
0.444, -1, 34.2672, 50.7264, -10.9592, 93.2625, -66.6903, 38.8358
0.448, -1, 34.2818, 50.7034, -10.9869, 93.2996, -66.5559, 38.8818
0.452, -1, 34.2964, 50.6804, -11.0145, 93.3367, -66.4217, 38.9278
0.456, -1, 34.3109, 50.6574, -11.0421, 93.3736, -66.2878, 38.9738
0.46, -1, 34.3254, 50.6345, -11.0696, 93.4106, -66.154, 39.0196
0.464, -1, 34.3399, 50.6116, -11.0971, 93.4474, -66.0204, 39.0654
0.468, -1, 34.3544, 50.5888, -11.1246, 93.4842, -65.8871, 39.1111
0.472, -1, 34.3689, 50.566, -11.152, 93.521, -65.754, 39.1567
0.476, -1, 34.3833, 50.5432, -11.1793, 93.5577, -65.621, 39.2023
0.48, -1, 34.3978, 50.5204, -11.2066, 93.5943, -65.4883, 39.2478
0.484, -1, 34.4121, 50.4977, -11.2339, 93.6309, -65.3558, 39.2933
0.488, -1, 34.4265, 50.475, -11.2612, 93.6675, -65.2234, 39.3386
0.492, -1, 34.4409, 50.4524, -11.2883, 93.7039, -65.0913, 39.3839
0.496, -1, 34.4552, 50.4298, -11.3155, 93.7404, -64.9594, 39.4291
0.5, -1, 34.4695, 50.4072, -11.3426, 93.7767, -64.8276, 39.4743
0.504, -1, 34.4838, 50.3847, -11.3697, 93.813, -64.6961, 39.5194
0.508, -1, 34.4981, 50.3622, -11.3967, 93.8493, -64.5647, 39.5644
0.512, -1, 34.5123, 50.3397, -11.4237, 93.8855, -64.4336, 39.6094
0.516, -1, 34.5265, 50.3173, -11.4507, 93.9217, -64.3026, 39.6543
0.52, -1, 34.5408, 50.2949, -11.4776, 93.9578, -64.1719, 39.6991
0.524, -1, 34.5549, 50.2725, -11.5045, 93.9938, -64.0413, 39.7439
0.528, -1, 34.5691, 50.2501, -11.5313, 94.0298, -63.9109, 39.7886
0.532, -1, 34.5832, 50.2278, -11.5581, 94.0657, -63.7807, 39.8332
0.536, -1, 34.5974, 50.2056, -11.5848, 94.1016, -63.6507, 39.8777
0.54, -1, 34.6115, 50.1833, -11.6116, 94.1375, -63.5209, 39.9222
0.544, -1, 34.6255, 50.1611, -11.6382, 94.1732, -63.3913, 39.9667
0.548, -1, 34.6396, 50.1389, -11.6649, 94.209, -63.2619, 40.0111
0.552, -1, 34.6536, 50.1168, -11.6915, 94.2447, -63.1326, 40.0554
0.556, -1, 34.6677, 50.0947, -11.718, 94.2803, -63.0036, 40.0996
0.56, -1, 34.6817, 50.0726, -11.7446, 94.3159, -62.8747, 40.1438
0.564, -1, 34.6956, 50.0505, -11.7711, 94.3514, -62.746, 40.1879
0.568, -1, 34.7096, 50.0285, -11.7975, 94.3869, -62.6175, 40.2319
0.572, -1, 34.7235, 50.0065, -11.8239, 94.4223, -62.4892, 40.2759
0.576, -1, 34.7375, 49.9846, -11.8503, 94.4577, -62.361, 40.3199
0.58, -1, 34.7514, 49.9626, -11.8766, 94.493, -62.2331, 40.3637
0.584, -1, 34.7652, 49.9407, -11.9029, 94.5283, -62.1053, 40.4075
0.588, -1, 34.7791, 49.9189, -11.9292, 94.5635, -61.9777, 40.4513
0.592, -1, 34.7929, 49.897, -11.9554, 94.5987, -61.8503, 40.495
0.596, -1, 34.8068, 49.8752, -11.9816, 94.6338, -61.723, 40.5386
0.6, -1, 34.8206, 49.8535, -12.0078, 94.6689, -61.5959, 40.5821
0.604, -1, 34.8343, 49.8317, -12.0339, 94.7039, -61.4691, 40.6256
0.608, -1, 34.8481, 49.81, -12.0599, 94.7389, -61.3423, 40.6691
0.612, -1, 34.8618, 49.7883, -12.086, 94.7738, -61.2158, 40.7125
0.616, -1, 34.8756, 49.7667, -12.112, 94.8087, -61.0894, 40.7558
0.62, -1, 34.8893, 49.7451, -12.138, 94.8435, -60.9632, 40.799
0.624, -1, 34.903, 49.7235, -12.1639, 94.8783, -60.8372, 40.8422
0.628, -1, 34.9166, 49.7019, -12.1898, 94.9131, -60.7114, 40.8854
0.632, -1, 34.9303, 49.6804, -12.2157, 94.9478, -60.5857, 40.9284
0.636, -1, 34.9439, 49.6589, -12.2415, 94.9824, -60.4602, 40.9715
0.64, -1, 34.9575, 49.6374, -12.2673, 95.017, -60.3349, 41.0144
0.644, -1, 34.9711, 49.6159, -12.2931, 95.0516, -60.2097, 41.0573
0.648, -1, 34.9847, 49.5945, -12.3188, 95.0861, -60.0847, 41.1002
0.652, -1, 34.9983, 49.5731, -12.3445, 95.1205, -59.9599, 41.143
0.656, -1, 35.0118, 49.5518, -12.3701, 95.1549, -59.8352, 41.1857
0.66, -1, 35.0253, 49.5304, -12.3958, 95.1893, -59.7107, 41.2284
0.664, -1, 35.0388, 49.5091, -12.4214, 95.2236, -59.5864, 41.271
0.668, -1, 35.0523, 49.4879, -12.4469, 95.2579, -59.4622, 41.3136
0.672, -1, 35.0658, 49.4666, -12.4724, 95.2921, -59.3382, 41.3561
0.676, -1, 35.0792, 49.4454, -12.4979, 95.3263, -59.2144, 41.3985
0.68, -1, 35.0927, 49.4242, -12.5234, 95.3605, -59.0907, 41.4409
0.684, -1, 35.1061, 49.4031, -12.5488, 95.3946, -58.9672, 41.4833
0.688, -1, 35.1195, 49.3819, -12.5742, 95.4286, -58.8439, 41.5256
0.692, -1, 35.1329, 49.3608, -12.5995, 95.4626, -58.7207, 41.5678
0.696, -1, 35.1462, 49.3397, -12.6249, 95.4966, -58.5977, 41.61
0.7, -1, 35.1596, 49.3187, -12.6501, 95.5305, -58.4748, 41.6521
0.704, -1, 35.1729, 49.2977, -12.6754, 95.5644, -58.3521, 41.6941
0.708, -1, 35.1862, 49.2767, -12.7006, 95.5982, -58.2296, 41.7361
0.712, -1, 35.1995, 49.2557, -12.7258, 95.632, -58.1072, 41.7781
0.716, -1, 35.2128, 49.2347, -12.751, 95.6657, -57.985, 41.82
0.72, -1, 35.226, 49.2138, -12.7761, 95.6994, -57.8629, 41.8618
0.724, -1, 35.2393, 49.1929, -12.8012, 95.7331, -57.741, 41.9036
0.728, -1, 35.2525, 49.1721, -12.8262, 95.7667, -57.6192, 41.9454
0.732, -1, 35.2657, 49.1512, -12.8513, 95.8003, -57.4976, 41.9871
0.736, -1, 35.2789, 49.1304, -12.8763, 95.8338, -57.3762, 42.0287
0.74, -1, 35.2921, 49.1097, -12.9012, 95.8673, -57.2549, 42.0703
0.744, -1, 35.3052, 49.0889, -12.9262, 95.9007, -57.1338, 42.1118
0.748, -1, 35.3184, 49.0682, -12.9511, 95.9341, -57.0128, 42.1533
0.752, -1, 35.3315, 49.0475, -12.9759, 95.9675, -56.8919, 42.1947
0.756, -1, 35.3446, 49.0268, -13.0008, 96.0008, -56.7712, 42.2361
0.76, -1, 35.3577, 49.0061, -13.0256, 96.0341, -56.6507, 42.2774
0.764, -1, 35.3708, 48.9855, -13.0504, 96.0673, -56.5303, 42.3187
0.768, -1, 35.3838, 48.9649, -13.0751, 96.1005, -56.4101, 42.3599
0.772, -1, 35.3969, 48.9443, -13.0998, 96.1336, -56.29, 42.401
0.776, -1, 35.4099, 48.9238, -13.1245, 96.1667, -56.1701, 42.4422
0.78, -1, 35.4229, 48.9032, -13.1492, 96.1998, -56.0503, 42.4832
0.784, -1, 35.4359, 48.8827, -13.1738, 96.2328, -55.9307, 42.5242
0.788, -1, 35.4489, 48.8623, -13.1984, 96.2658, -55.8112, 42.5652
0.792, -1, 35.4619, 48.8418, -13.2229, 96.2988, -55.6918, 42.6061
0.796, -1, 35.4748, 48.8214, -13.2475, 96.3317, -55.5726, 42.647
0.8, -1, 35.4877, 48.801, -13.272, 96.3645, -55.4535, 42.6878
0.804, -1, 35.5006, 48.7806, -13.2965, 96.3974, -55.3346, 42.7285
0.808, -1, 35.5136, 48.7603, -13.3209, 96.4302, -55.2159, 42.7693
0.812, -1, 35.5264, 48.7399, -13.3453, 96.4629, -55.0972, 42.8099
0.816, -1, 35.5393, 48.7196, -13.3697, 96.4956, -54.9787, 42.8506
0.82, -1, 35.5522, 48.6994, -13.3941, 96.5283, -54.8604, 42.8911
0.824, -1, 35.565, 48.6791, -13.4184, 96.5609, -54.7422, 42.9316
0.828, -1, 35.5778, 48.6589, -13.4427, 96.5935, -54.6241, 42.9721
0.832, -1, 35.5906, 48.6387, -13.467, 96.6261, -54.5062, 43.0125
0.836, -1, 35.6034, 48.6185, -13.4912, 96.6586, -54.3884, 43.0529
0.84, -1, 35.6162, 48.5983, -13.5154, 96.6911, -54.2707, 43.0933
0.844, -1, 35.629, 48.5782, -13.5396, 96.7235, -54.1532, 43.1335
0.848, -1, 35.6417, 48.5581, -13.5638, 96.7559, -54.0358, 43.1738
0.852, -1, 35.6545, 48.538, -13.5879, 96.7883, -53.9186, 43.214
0.856, -1, 35.6672, 48.5179, -13.612, 96.8206, -53.8015, 43.2541
0.86, -1, 35.6799, 48.4979, -13.6361, 96.8529, -53.6845, 43.2942
0.864, -1, 35.6925, 48.4779, -13.6601, 96.8852, -53.5677, 43.3343
0.868, -1, 35.7051, 48.458, -13.6841, 96.9174, -53.451, 43.3743
0.872, -1, 35.7176, 48.4381, -13.7081, 96.9496, -53.3345, 43.4142
0.876, -1, 35.73, 48.4184, -13.7321, 96.9817, -53.2181, 43.4541
0.88, -1, 35.7419, 48.3992, -13.756, 97.0137, -53.102, 43.4939
0.884, -1, 35.7533, 48.3805, -13.7798, 97.0457, -52.9863, 43.5336
0.888, -1, 35.7641, 48.3627, -13.8035, 97.0775, -52.8712, 43.5731
0.892, -1, 35.7742, 48.3457, -13.8269, 97.109, -52.757, 43.6122
0.896, -1, 35.7836, 48.3297, -13.8501, 97.1401, -52.6444, 43.6508
0.9, -1, 35.7924, 48.3145, -13.8728, 97.1706, -52.534, 43.6887
0.904, -1, 35.8007, 48.3002, -13.895, 97.2003, -52.4264, 43.7256
0.908, -1, 35.8087, 48.2866, -13.9163, 97.229, -52.3226, 43.7613
0.912, -1, 35.8164, 48.2736, -13.9367, 97.2564, -52.2234, 43.7953
0.916, -1, 35.8238, 48.2613, -13.956, 97.2823, -52.1296, 43.8275
0.92, -1, 35.8309, 48.2497, -13.9741, 97.3065, -52.042, 43.8576
0.924, -1, 35.8377, 48.2387, -13.9907, 97.3288, -51.9612, 43.8853
0.928, -1, 35.8442, 48.2281, -14.0057, 97.3491, -51.888, 43.9104
0.932, -1, 35.8507, 48.2178, -14.0192, 97.3671, -51.8226, 43.9328
0.936, -1, 35.8571, 48.2077, -14.031, 97.3829, -51.7653, 43.9524
0.94, -1, 35.8634, 48.1979, -14.0412, 97.3966, -51.716, 43.9693
0.944, -1, 35.8695, 48.1884, -14.0498, 97.4081, -51.6743, 43.9836
0.948, -1, 35.8755, 48.1793, -14.0569, 97.4175, -51.6399, 43.9954
0.952, -1, 35.8812, 48.1708, -14.0626, 97.4252, -51.612, 44.0049
0.956, -1, 35.8865, 48.1631, -14.0672, 97.4313, -51.5899, 44.0124
0.96, -1, 35.8915, 48.1562, -14.0707, 97.436, -51.5728, 44.0183
0.964, -1, 35.896, 48.1502, -14.0734, 97.4396, -51.5598, 44.0227
0.968, -1, 35.9001, 48.145, -14.0754, 97.4422, -51.5503, 44.0259
0.972, -1, 35.9037, 48.1406, -14.0768, 97.4441, -51.5433, 44.0283
0.976, 2, 35.9067, 48.1371, -14.0778, 97.4454, -51.5385, 44.0299
0.98, 2, 35.9091, 48.1343, -14.0785, 97.4463, -51.5351, 44.0311
0.984, 2, 35.911, 48.1323, -14.079, 97.4469, -51.5327, 44.0319
0.988, 2, 35.9123, 48.1308, -14.0793, 97.4474, -51.5312, 44.0324
0.992, 2, 35.9132, 48.1299, -14.0796, 97.4477, -51.5301, 44.0328
0.996, 2, 35.9138, 48.1292, -14.0797, 97.4479, -51.5294, 44.033
1, 2, 35.9142, 48.1287, -14.0798, 97.448, -51.5289, 44.0332
1.004, 2, 35.9145, 48.1284, -14.0799, 97.4481, -51.5285, 44.0333
1.008, 2, 35.9147, 48.1282, -14.0799, 97.4482, -51.5283, 44.0334
1.012, 2, 35.9149, 48.1281, -14.08, 97.4482, -51.5282, 44.0334
1.016, 2, 35.9149, 48.128, -14.08, 97.4482, -51.5281, 44.0335
1.02, 2, 35.915, 48.1279, -14.08, 97.4482, -51.528, 44.0335
1.024, 2, 35.915, 48.1279, -14.08, 97.4483, -51.5279, 44.0335
1.027, 2, 35.9151, 48.1278, -14.08, 97.4483, -51.5279, 44.0335
1.032, 2, 35.9151, 48.1278, -14.08, 97.4483, -51.5279, 44.0335
1.036, 2, 35.9151, 48.1278, -14.08, 97.4483, -51.5279, 44.0335
1.04, 2, 35.9151, 48.1278, -14.08, 97.4483, -51.5279, 44.0335
1.044, 2, 35.9151, 48.1278, -14.08, 97.4483, -51.5279, 44.0335
1.048, 2, 35.9151, 48.1278, -14.08, 97.4483, -51.5279, 44.0335
1.052, 2, 35.9151, 48.1278, -14.08, 97.4483, -51.5278, 44.0335
1.055, 2, 35.9151, 48.1278, -14.08, 97.4483, -51.5278, 44.0335
1.06, 2, 35.9151, 48.1278, -14.08, 97.4483, -51.5278, 44.0335
1.064, 2, 35.9151, 48.1278, -14.08, 97.4483, -51.5278, 44.0335
1.068, 2, 35.9151, 48.1278, -14.08, 97.4483, -51.5278, 44.0335
1.072, 2, 35.9151, 48.1278, -14.08, 97.4483, -51.5278, 44.0335
1.076, 2, 35.9151, 48.1278, -14.08, 97.4483, -51.5278, 44.0335
1.08, 2, 35.9151, 48.1278, -14.08, 97.4483, -51.5278, 44.0335
1.084, 2, 35.9151, 48.1278, -14.08, 97.4483, -51.5278, 44.0335
1.088, 2, 35.9151, 48.1278, -14.08, 97.4483, -51.5278, 44.0335
1.091, 2, 35.9151, 48.1278, -14.08, 97.4483, -51.5278, 44.0335
1.096, 2, 35.9151, 48.1278, -14.08, 97.4483, -51.5278, 44.0335
1.1, 2, 35.9151, 48.1278, -14.08, 97.4483, -51.5278, 44.0335
1.104, 2, 35.9151, 48.1278, -14.08, 97.4483, -51.5278, 44.0335
1.108, 2, 35.9151, 48.1278, -14.08, 97.4483, -51.5278, 44.0335
1.112, 2, 35.9151, 48.1278, -14.08, 97.4483, -51.5278, 44.0335
1.116, 2, 35.9151, 48.1278, -14.08, 97.4483, -51.5278, 44.0335
1.119, 2, 35.9151, 48.1278, -14.08, 97.4483, -51.5278, 44.0335
1.124, 2, 35.9151, 48.1278, -14.08, 97.4483, -51.5278, 44.0335
1.128, 2, 35.9151, 48.1278, -14.08, 97.4483, -51.5278, 44.0335
1.132, 2, 35.9151, 48.1278, -14.08, 97.4483, -51.5278, 44.0335
1.136, 2, 35.9151, 48.1278, -14.08, 97.4483, -51.5278, 44.0335
1.14, 2, 35.9151, 48.1278, -14.08, 97.4483, -51.5278, 44.0335
1.144, 2, 35.9151, 48.1278, -14.08, 97.4483, -51.5278, 44.0335
1.147, 2, 35.9151, 48.1278, -14.08, 97.4483, -51.5278, 44.0335
1.152, 2, 35.9151, 48.1278, -14.08, 97.4483, -51.5278, 44.0335
1.156, 2, 35.9151, 48.1278, -14.08, 97.4483, -51.5278, 44.0335
1.16, 2, 35.9151, 48.1278, -14.08, 97.4483, -51.5278, 44.0335
1.164, 2, 35.9151, 48.1278, -14.08, 97.4483, -51.5278, 44.0335
1.168, 2, 35.9151, 48.1278, -14.08, 97.4483, -51.5278, 44.0335
1.172, 2, 35.9151, 48.1278, -14.08, 97.4483, -51.5278, 44.0335
1.175, 2, 35.9151, 48.1278, -14.08, 97.4483, -51.5278, 44.0335
1.18, 2, 35.9151, 48.1278, -14.08, 97.4483, -51.5278, 44.0335
1.184, 2, 35.9151, 48.1278, -14.08, 97.4483, -51.5278, 44.0335
1.188, 2, 35.9151, 48.1278, -14.08, 97.4483, -51.5278, 44.0335
1.192, 2, 35.9151, 48.1278, -14.08, 97.4483, -51.5278, 44.0335
1.196, 2, 35.9151, 48.1278, -14.08, 97.4483, -51.5278, 44.0335
1.2, 2, 35.9151, 48.1278, -14.08, 97.4483, -51.5278, 44.0335
1.204, 2, 35.9151, 48.1278, -14.08, 97.4483, -51.5278, 44.0335
1.208, 2, 35.9151, 48.1278, -14.08, 97.4483, -51.5278, 44.0335
1.212, 2, 35.9151, 48.1278, -14.08, 97.4483, -51.5278, 44.0335
1.216, 2, 35.9151, 48.1278, -14.08, 97.4483, -51.5278, 44.0335
1.22, 2, 35.9151, 48.1278, -14.08, 97.4483, -51.5278, 44.0335
1.224, 2, 35.9151, 48.1278, -14.08, 97.4483, -51.5278, 44.0335
1.228, 2, 35.9151, 48.1278, -14.08, 97.4483, -51.5278, 44.0335
1.232, 2, 35.9151, 48.1278, -14.08, 97.4483, -51.5278, 44.0335
1.236, 2, 35.9151, 48.1278, -14.08, 97.4483, -51.5278, 44.0335
1.24, 2, 35.9151, 48.1278, -14.08, 97.4483, -51.5278, 44.0335
1.244, 2, 35.9151, 48.1278, -14.08, 97.4483, -51.5278, 44.0335
1.248, 2, 35.9151, 48.1278, -14.08, 97.4483, -51.5278, 44.0335
1.252, 2, 35.9151, 48.1278, -14.08, 97.4483, -51.5278, 44.0335
1.256, 2, 35.9151, 48.1278, -14.08, 97.4483, -51.5278, 44.0335
1.26, 2, 35.9151, 48.1278, -14.08, 97.4483, -51.5278, 44.0335
1.264, 2, 35.9151, 48.1278, -14.08, 97.4483, -51.5278, 44.0335
1.267, 2, 35.9151, 48.1278, -14.08, 97.4483, -51.5278, 44.0335
1.272, 2, 35.9151, 48.1278, -14.08, 97.4483, -51.5278, 44.0335
1.276, 2, 35.9151, 48.1278, -14.08, 97.4483, -51.5278, 44.0335
1.28, 2, 35.9151, 48.1278, -14.08, 97.4483, -51.5278, 44.0335
1.284, 2, 35.9151, 48.1278, -14.08, 97.4483, -51.5278, 44.0335
1.288, 2, 35.9151, 48.1278, -14.08, 97.4483, -51.5278, 44.0335
1.292, 2, 35.9151, 48.1278, -14.08, 97.4483, -51.5278, 44.0335
1.295, 2, 35.9151, 48.1278, -14.08, 97.4483, -51.5278, 44.0335
1.3, 2, 35.9151, 48.1278, -14.08, 97.4483, -51.5278, 44.0335
1.304, 2, 35.9151, 48.1278, -14.08, 97.4483, -51.5278, 44.0335
1.308, 2, 35.9151, 48.1278, -14.08, 97.4483, -51.5278, 44.0335
1.312, 2, 35.9151, 48.1278, -14.08, 97.4483, -51.5278, 44.0335
1.316, 2, 35.9151, 48.1278, -14.08, 97.4483, -51.5278, 44.0335
1.32, 2, 35.9151, 48.1278, -14.08, 97.4483, -51.5278, 44.0335
1.324, 2, 35.9151, 48.1278, -14.08, 97.4483, -51.5278, 44.0335
1.328, 2, 35.9151, 48.1278, -14.08, 97.4483, -51.5278, 44.0335
1.332, 2, 35.9151, 48.1278, -14.08, 97.4483, -51.5278, 44.0335
1.336, 2, 35.9151, 48.1278, -14.08, 97.4483, -51.5278, 44.0335
1.34, 2, 35.9151, 48.1278, -14.08, 97.4483, -51.5278, 44.0335
1.344, 2, 35.9151, 48.1278, -14.08, 97.4483, -51.5278, 44.0335
1.348, 2, 35.9151, 48.1278, -14.08, 97.4483, -51.5278, 44.0335
1.352, 2, 35.9151, 48.1278, -14.08, 97.4483, -51.5278, 44.0335
1.356, 2, 35.9151, 48.1278, -14.08, 97.4483, -51.5278, 44.0335
1.36, 2, 35.9151, 48.1278, -14.08, 97.4483, -51.5278, 44.0335
1.364, 2, 35.9151, 48.1278, -14.08, 97.4483, -51.5278, 44.0335
1.368, 2, 35.9151, 48.1278, -14.08, 97.4483, -51.5278, 44.0335
1.372, 2, 35.9151, 48.1278, -14.08, 97.4483, -51.5278, 44.0335
1.376, 2, 35.9151, 48.1278, -14.08, 97.4483, -51.5278, 44.0335
1.38, 2, 35.9151, 48.1278, -14.08, 97.4483, -51.5278, 44.0335
1.384, 2, 35.9151, 48.1278, -14.08, 97.4483, -51.5278, 44.0335
1.388, 2, 35.9151, 48.1278, -14.08, 97.4483, -51.5278, 44.0335
1.392, 2, 35.9151, 48.1278, -14.08, 97.4483, -51.5278, 44.0335
1.396, 2, 35.9151, 48.1278, -14.08, 97.4483, -51.5278, 44.0335
1.4, 2, 35.9151, 48.1278, -14.08, 97.4483, -51.5278, 44.0335
1.404, 2, 35.9151, 48.1278, -14.08, 97.4483, -51.5278, 44.0335
1.408, 2, 35.9151, 48.1278, -14.08, 97.4483, -51.5278, 44.0335
1.412, 2, 35.9151, 48.1278, -14.08, 97.4483, -51.5278, 44.0335
1.416, 2, 35.9151, 48.1278, -14.08, 97.4483, -51.5278, 44.0335
1.42, 2, 35.9151, 48.1278, -14.08, 97.4483, -51.5278, 44.0335
1.424, 2, 35.9151, 48.1278, -14.08, 97.4483, -51.5278, 44.0335
1.428, 2, 35.9151, 48.1278, -14.08, 97.4483, -51.5278, 44.0335
1.432, 2, 35.9151, 48.1278, -14.08, 97.4483, -51.5278, 44.0335
1.436, 2, 35.9151, 48.1278, -14.08, 97.4483, -51.5278, 44.0335
1.44, 2, 35.9151, 48.1278, -14.08, 97.4483, -51.5278, 44.0335
1.444, 2, 35.9151, 48.1278, -14.08, 97.4483, -51.5278, 44.0335
1.448, 2, 35.9151, 48.1278, -14.08, 97.4483, -51.5278, 44.0335
1.452, 2, 35.9151, 48.1278, -14.08, 97.4483, -51.5278, 44.0335
1.456, 2, 35.9151, 48.1278, -14.08, 97.4483, -51.5278, 44.0335
1.46, 2, 35.9151, 48.1278, -14.08, 97.4483, -51.5278, 44.0335
1.464, 2, 35.9151, 48.1278, -14.08, 97.4483, -51.5278, 44.0335
1.468, 2, 35.9151, 48.1278, -14.08, 97.4483, -51.5278, 44.0335
1.472, 2, 35.9151, 48.1278, -14.08, 97.4483, -51.5278, 44.0335
1.476, 2, 35.9151, 48.1278, -14.08, 97.4483, -51.5278, 44.0335
1.48, 2, 35.9151, 48.1278, -14.08, 97.4483, -51.5278, 44.0335
1.484, 2, 35.9151, 48.1278, -14.08, 97.4483, -51.5278, 44.0335
1.488, 2, 35.9151, 48.1278, -14.08, 97.4483, -51.5278, 44.0335
1.492, 2, 35.9151, 48.1278, -14.08, 97.4483, -51.5278, 44.0335
1.496, 2, 35.9151, 48.1278, -14.08, 97.4483, -51.5278, 44.0335
1.5, 2, 35.9151, 48.1278, -14.08, 97.4483, -51.5278, 44.0335
1.504, 2, 35.9151, 48.1278, -14.08, 97.4483, -51.5278, 44.0335
1.508, 2, 35.9151, 48.1278, -14.08, 97.4483, -51.5278, 44.0335
1.512, 2, 35.9151, 48.1278, -14.08, 97.4483, -51.5278, 44.0335
1.516, 2, 35.9151, 48.1278, -14.08, 97.4483, -51.5278, 44.0335
1.52, 2, 35.9151, 48.1278, -14.08, 97.4483, -51.5278, 44.0335
1.524, 2, 35.9151, 48.1278, -14.08, 97.4483, -51.5278, 44.0335
1.528, 2, 35.9151, 48.1278, -14.08, 97.4483, -51.5278, 44.0335
1.532, 2, 35.9151, 48.1278, -14.08, 97.4483, -51.5278, 44.0335
1.536, 2, 35.9151, 48.1278, -14.08, 97.4483, -51.5278, 44.0335
1.54, 2, 35.9151, 48.1278, -14.08, 97.4483, -51.5278, 44.0335
1.544, 2, 35.9151, 48.1278, -14.08, 97.4483, -51.5278, 44.0335
1.548, 2, 35.9151, 48.1278, -14.08, 97.4483, -51.5278, 44.0335
1.552, 2, 35.9151, 48.1278, -14.08, 97.4483, -51.5278, 44.0335
1.556, 2, 35.9151, 48.1278, -14.08, 97.4483, -51.5278, 44.0335
1.56, 2, 35.9151, 48.1278, -14.08, 97.4483, -51.5278, 44.0335
1.564, 2, 35.9151, 48.1278, -14.08, 97.4483, -51.5278, 44.0335
1.568, 2, 35.9151, 48.1278, -14.08, 97.4483, -51.5278, 44.0335
1.572, 2, 35.9151, 48.1278, -14.08, 97.4483, -51.5278, 44.0335
1.576, 2, 35.9151, 48.1278, -14.08, 97.4483, -51.5278, 44.0335
1.58, 2, 35.9151, 48.1278, -14.08, 97.4483, -51.5278, 44.0335
1.584, 2, 35.9151, 48.1278, -14.08, 97.4483, -51.5278, 44.0335
1.588, 2, 35.9151, 48.1278, -14.08, 97.4483, -51.5278, 44.0335
1.592, 2, 35.9151, 48.1278, -14.08, 97.4483, -51.5278, 44.0335
1.596, 2, 35.9151, 48.1278, -14.08, 97.4483, -51.5278, 44.0335
1.6, 2, 35.9151, 48.1278, -14.08, 97.4483, -51.5278, 44.0335
1.604, 2, 35.9151, 48.1278, -14.08, 97.4483, -51.5278, 44.0335
1.608, 2, 35.9151, 48.1278, -14.08, 97.4483, -51.5278, 44.0335
1.612, 2, 35.9151, 48.1278, -14.08, 97.4483, -51.5278, 44.0335
1.616, 2, 35.9151, 48.1278, -14.08, 97.4483, -51.5278, 44.0335
1.62, 2, 35.9151, 48.1278, -14.08, 97.4483, -51.5278, 44.0335
1.624, 2, 35.9151, 48.1278, -14.08, 97.4483, -51.5278, 44.0335
1.628, 2, 35.9151, 48.1278, -14.08, 97.4483, -51.5278, 44.0335
1.632, 2, 35.9151, 48.1278, -14.08, 97.4483, -51.5278, 44.0335
1.636, 2, 35.9151, 48.1278, -14.08, 97.4483, -51.5278, 44.0335
1.64, 2, 35.9151, 48.1278, -14.08, 97.4483, -51.5278, 44.0335
1.644, 2, 35.9151, 48.1278, -14.08, 97.4483, -51.5278, 44.0335
1.648, 2, 35.9151, 48.1278, -14.08, 97.4483, -51.5278, 44.0335
1.652, 2, 35.9151, 48.1278, -14.08, 97.4483, -51.5278, 44.0335
1.656, 2, 35.9151, 48.1278, -14.08, 97.4483, -51.5278, 44.0335
1.66, 2, 35.9151, 48.1278, -14.08, 97.4483, -51.5278, 44.0335
1.664, 2, 35.9151, 48.1278, -14.08, 97.4483, -51.5278, 44.0335
1.668, 2, 35.9151, 48.1278, -14.08, 97.4483, -51.5278, 44.0335
1.672, 2, 35.9151, 48.1278, -14.08, 97.4483, -51.5278, 44.0335
1.676, 2, 35.9151, 48.1278, -14.08, 97.4483, -51.5278, 44.0335
1.68, 2, 35.9151, 48.1278, -14.08, 97.4483, -51.5278, 44.0335
1.684, 2, 35.9151, 48.1278, -14.08, 97.4483, -51.5278, 44.0335
1.688, 2, 35.9151, 48.1278, -14.08, 97.4483, -51.5278, 44.0335
1.692, 2, 35.9151, 48.1278, -14.08, 97.4483, -51.5278, 44.0335
1.696, 2, 35.9151, 48.1278, -14.08, 97.4483, -51.5278, 44.0335
1.7, 2, 35.9151, 48.1278, -14.08, 97.4483, -51.5278, 44.0335
1.704, 2, 35.9151, 48.1278, -14.08, 97.4483, -51.5278, 44.0335
1.708, 2, 35.9151, 48.1278, -14.08, 97.4483, -51.5278, 44.0335
1.712, 2, 35.9151, 48.1278, -14.08, 97.4483, -51.5278, 44.0335
1.716, 2, 35.9151, 48.1278, -14.08, 97.4483, -51.5278, 44.0335
1.72, 2, 35.9151, 48.1278, -14.08, 97.4483, -51.5278, 44.0335
1.724, 2, 35.9151, 48.1278, -14.08, 97.4483, -51.5278, 44.0335
1.728, 2, 35.9151, 48.1278, -14.08, 97.4483, -51.5278, 44.0335
1.732, 2, 35.9151, 48.1278, -14.08, 97.4483, -51.5278, 44.0335
1.736, 2, 35.9151, 48.1278, -14.08, 97.4483, -51.5278, 44.0335
1.74, 2, 35.9151, 48.1278, -14.08, 97.4483, -51.5278, 44.0335
1.744, 2, 35.9151, 48.1278, -14.08, 97.4483, -51.5278, 44.0335
1.748, 2, 35.9151, 48.1278, -14.08, 97.4483, -51.5278, 44.0335
1.752, 2, 35.9151, 48.1278, -14.08, 97.4483, -51.5278, 44.0335
1.756, 2, 35.9151, 48.1278, -14.08, 97.4483, -51.5278, 44.0335
1.76, 2, 35.9151, 48.1278, -14.08, 97.4483, -51.5278, 44.0335
1.764, 2, 35.9151, 48.1278, -14.08, 97.4483, -51.5278, 44.0335
1.768, 2, 35.9151, 48.1278, -14.08, 97.4483, -51.5278, 44.0335
1.772, 2, 35.9151, 48.1278, -14.08, 97.4483, -51.5278, 44.0335
1.776, 2, 35.9151, 48.1278, -14.08, 97.4483, -51.5278, 44.0335
1.78, 2, 35.9151, 48.1278, -14.08, 97.4483, -51.5278, 44.0335
1.784, 2, 35.9151, 48.1278, -14.08, 97.4483, -51.5278, 44.0335
1.788, 2, 35.9151, 48.1278, -14.08, 97.4483, -51.5278, 44.0335
1.792, 2, 35.9151, 48.1278, -14.08, 97.4483, -51.5278, 44.0335
1.796, 2, 35.9151, 48.1278, -14.08, 97.4483, -51.5278, 44.0335
1.8, 2, 35.9151, 48.1278, -14.08, 97.4483, -51.5278, 44.0335
1.804, 2, 35.9151, 48.1278, -14.08, 97.4483, -51.5278, 44.0335
1.808, 2, 35.9151, 48.1278, -14.08, 97.4483, -51.5278, 44.0335
1.812, 2, 35.9151, 48.1278, -14.08, 97.4483, -51.5278, 44.0335
1.816, 2, 35.9151, 48.1278, -14.08, 97.4483, -51.5278, 44.0335
1.82, 2, 35.9151, 48.1278, -14.08, 97.4483, -51.5278, 44.0335
1.824, 2, 35.9151, 48.1278, -14.08, 97.4483, -51.5278, 44.0335
1.828, 2, 35.9151, 48.1278, -14.08, 97.4483, -51.5278, 44.0335
1.832, 2, 35.9151, 48.1278, -14.08, 97.4483, -51.5278, 44.0335
1.836, 2, 35.9151, 48.1278, -14.08, 97.4483, -51.5278, 44.0335
1.84, 2, 35.9151, 48.1278, -14.08, 97.4483, -51.5278, 44.0335
1.844, 2, 35.9151, 48.1278, -14.08, 97.4483, -51.5278, 44.0335
1.848, 2, 35.9151, 48.1278, -14.08, 97.4483, -51.5278, 44.0335
1.852, 2, 35.9151, 48.1278, -14.08, 97.4483, -51.5278, 44.0335
1.856, 2, 35.9151, 48.1278, -14.08, 97.4483, -51.5278, 44.0335
1.86, 2, 35.9151, 48.1278, -14.08, 97.4483, -51.5278, 44.0335
1.864, 2, 35.9151, 48.1278, -14.08, 97.4483, -51.5278, 44.0335
1.868, 2, 35.9151, 48.1278, -14.08, 97.4483, -51.5278, 44.0335
1.872, 2, 35.9151, 48.1278, -14.08, 97.4483, -51.5278, 44.0335
1.876, 2, 35.9151, 48.1278, -14.08, 97.4483, -51.5278, 44.0335
1.88, 2, 35.9151, 48.1278, -14.08, 97.4483, -51.5278, 44.0335
1.884, 2, 35.9151, 48.1278, -14.08, 97.4483, -51.5278, 44.0335
1.888, 2, 35.9151, 48.1278, -14.08, 97.4483, -51.5278, 44.0335
1.892, 2, 35.9151, 48.1278, -14.08, 97.4483, -51.5278, 44.0335
1.896, 2, 35.9151, 48.1278, -14.08, 97.4483, -51.5278, 44.0335
1.9, 2, 35.9151, 48.1278, -14.08, 97.4483, -51.5278, 44.0335
1.904, 2, 35.9151, 48.1278, -14.08, 97.4483, -51.5278, 44.0335
1.908, 2, 35.9151, 48.1278, -14.08, 97.4483, -51.5278, 44.0335
1.912, 2, 35.9151, 48.1278, -14.08, 97.4483, -51.5278, 44.0335
1.916, 2, 35.9151, 48.1278, -14.08, 97.4483, -51.5278, 44.0335
1.92, 2, 35.9151, 48.1278, -14.08, 97.4483, -51.5278, 44.0335
1.924, 2, 35.9151, 48.1278, -14.08, 97.4483, -51.5278, 44.0335
1.928, 2, 35.9151, 48.1278, -14.08, 97.4483, -51.5278, 44.0335
1.932, 2, 35.9151, 48.1278, -14.08, 97.4483, -51.5278, 44.0335
1.936, 2, 35.9151, 48.1278, -14.08, 97.4483, -51.5278, 44.0335
1.94, 2, 35.9151, 48.1278, -14.08, 97.4483, -51.5278, 44.0335
1.944, 2, 35.9151, 48.1278, -14.08, 97.4483, -51.5278, 44.0335
1.948, 2, 35.9151, 48.1278, -14.08, 97.4483, -51.5278, 44.0335
1.952, 2, 35.9151, 48.1278, -14.08, 97.4483, -51.5278, 44.0335
1.956, 2, 35.9151, 48.1278, -14.08, 97.4483, -51.5278, 44.0335
1.96, 2, 35.9151, 48.1278, -14.08, 97.4483, -51.5278, 44.0335
1.964, 2, 35.9151, 48.1278, -14.08, 97.4483, -51.5278, 44.0335
1.968, 2, 35.9151, 48.1278, -14.08, 97.4483, -51.5278, 44.0335
1.972, 2, 35.9151, 48.1278, -14.08, 97.4483, -51.5278, 44.0335
1.976, 2, 35.9151, 48.1278, -14.08, 97.4483, -51.5278, 44.0335
1.98, 2, 35.9151, 48.1278, -14.08, 97.4483, -51.5278, 44.0335
1.984, 2, 35.9151, 48.1278, -14.08, 97.4483, -51.5278, 44.0335
1.988, 2, 35.9151, 48.1278, -14.08, 97.4483, -51.5278, 44.0335
1.992, 2, 35.9151, 48.1278, -14.08, 97.4483, -51.5278, 44.0335
1.996, 2, 35.9151, 48.1278, -14.08, 97.4483, -51.5278, 44.0335
1.999, 2, 35.9151, 48.1278, -14.08, 97.4483, -51.5278, 44.0335
2.004, 2, 35.9151, 48.1278, -14.08, 97.4483, -51.5278, 44.0335
2.008, 2, 35.9151, 48.1278, -14.08, 97.4483, -51.5278, 44.0335
2.012, 2, 35.9151, 48.1278, -14.08, 97.4483, -51.5278, 44.0335
2.015, 2, 35.9151, 48.1278, -14.08, 97.4483, -51.5278, 44.0335
2.019, 2, 35.9151, 48.1278, -14.08, 97.4483, -51.5278, 44.0335
2.024, 2, 35.9151, 48.1278, -14.08, 97.4483, -51.5278, 44.0335
2.028, 2, 35.9151, 48.1278, -14.08, 97.4483, -51.5278, 44.0335
2.031, 4, 35.9151, 48.1278, -14.08, 97.4483, -51.5278, 44.0335
2.036, 4, 35.9151, 48.1278, -14.08, 97.4483, -51.5278, 44.0335
2.04, 4, 35.9151, 48.1278, -14.08, 97.4483, -51.5278, 44.0335
2.044, 4, 35.9151, 48.1278, -14.08, 97.4483, -51.5278, 44.0335
2.048, 4, 35.9151, 48.1278, -14.08, 97.4483, -51.5278, 44.0335
2.051, 4, 35.9151, 48.1278, -14.08, 97.4483, -51.5278, 44.0335
2.055, 4, 35.9151, 48.1278, -14.08, 97.4483, -51.5278, 44.0335
2.06, 4, 35.9151, 48.1278, -14.08, 97.4483, -51.5278, 44.0335
2.064, 4, 35.9151, 48.1278, -14.08, 97.4483, -51.5278, 44.0335
2.068, 4, 35.9151, 48.1278, -14.08, 97.4483, -51.5278, 44.0335
2.071, 4, 35.9151, 48.1278, -14.08, 97.4483, -51.5278, 44.0335
2.076, 4, 35.9151, 48.1278, -14.08, 97.4483, -51.5278, 44.0335
2.08, 4, 35.9151, 48.1278, -14.08, 97.4483, -51.5278, 44.0335
2.084, 4, 35.9151, 48.1278, -14.08, 97.4483, -51.5278, 44.0335
2.087, 4, 35.9151, 48.1278, -14.08, 97.4483, -51.5278, 44.0335
2.092, 4, 35.9151, 48.1278, -14.08, 97.4483, -51.5278, 44.0335
2.096, 4, 35.9151, 48.1278, -14.08, 97.4483, -51.5278, 44.0335
2.1, 4, 35.9151, 48.1278, -14.08, 97.4483, -51.5278, 44.0335
2.104, 4, 35.9151, 48.1278, -14.08, 97.4483, -51.5278, 44.0335
2.107, 4, 35.9151, 48.1278, -14.08, 97.4483, -51.5278, 44.0335
2.111, 4, 35.9151, 48.1278, -14.08, 97.4483, -51.5278, 44.0335
2.116, 4, 35.9151, 48.1278, -14.08, 97.4483, -51.5278, 44.0335
2.12, 4, 35.9151, 48.1278, -14.08, 97.4483, -51.5278, 44.0335
2.124, 4, 35.9151, 48.1278, -14.08, 97.4483, -51.5278, 44.0335
2.127, 4, 35.9151, 48.1278, -14.08, 97.4483, -51.5278, 44.0335
2.132, 4, 35.9151, 48.1278, -14.08, 97.4483, -51.5278, 44.0335
2.136, 4, 35.9151, 48.1278, -14.08, 97.4483, -51.5278, 44.0335
2.14, 4, 35.9151, 48.1278, -14.08, 97.4483, -51.5278, 44.0335
2.143, 4, 35.9151, 48.1278, -14.08, 97.4483, -51.5278, 44.0335
2.148, 4, 35.9151, 48.1278, -14.08, 97.4483, -51.5278, 44.0335
2.152, 4, 35.9151, 48.1278, -14.08, 97.4483, -51.5278, 44.0335
2.156, 4, 35.9151, 48.1278, -14.08, 97.4483, -51.5278, 44.0335
2.16, 4, 35.9151, 48.1278, -14.08, 97.4483, -51.5278, 44.0335
2.163, 4, 35.9151, 48.1278, -14.08, 97.4483, -51.5278, 44.0335
2.168, 4, 35.9151, 48.1278, -14.08, 97.4483, -51.5278, 44.0335
2.172, 4, 35.9151, 48.1278, -14.08, 97.4483, -51.5279, 44.0335
2.176, 4, 35.9149, 48.128, -14.08, 97.4483, -51.5279, 44.0335
2.179, 4, 35.9146, 48.1283, -14.0799, 97.4483, -51.528, 44.0335
2.184, 4, 35.9139, 48.129, -14.0797, 97.4482, -51.5284, 44.0333
2.188, 4, 35.9128, 48.1301, -14.0793, 97.4481, -51.5293, 44.0329
2.192, 4, 35.9114, 48.1317, -14.0787, 97.4478, -51.5312, 44.0321
2.196, 4, 35.9096, 48.1336, -14.0776, 97.4472, -51.5347, 44.0306
2.199, 4, 35.9077, 48.1358, -14.0759, 97.4463, -51.5405, 44.0282
2.204, 4, 35.9056, 48.1382, -14.0735, 97.4448, -51.5494, 44.0244
2.208, 4, 35.9036, 48.1405, -14.0703, 97.4427, -51.5622, 44.0188
2.212, 4, 35.9017, 48.1428, -14.066, 97.4399, -51.5796, 44.0113
2.216, 5, 35.8998, 48.145, -14.0606, 97.4361, -51.6022, 44.0015
2.219, 5, 35.898, 48.1471, -14.0539, 97.4314, -51.6306, 43.9892
2.224, 5, 35.8962, 48.1492, -14.0458, 97.4256, -51.6651, 43.9742
2.228, 5, 35.8944, 48.1513, -14.0364, 97.4188, -51.7058, 43.9566
2.232, 5, 35.8926, 48.1532, -14.0256, 97.4109, -51.7527, 43.9362
2.235, 5, 35.891, 48.155, -14.0135, 97.402, -51.8058, 43.9133
2.24, 5, 35.8895, 48.1567, -14.0001, 97.392, -51.8646, 43.8878
2.244, 5, 35.8881, 48.1582, -13.9856, 97.3812, -51.9287, 43.8601
2.248, 5, 35.8867, 48.1598, -13.97, 97.3695, -51.9972, 43.8305
2.252, 5, 35.8852, 48.1615, -13.9537, 97.3572, -52.0695, 43.7993
2.255, 5, 35.8835, 48.1636, -13.9366, 97.3443, -52.1448, 43.7669
2.259, 5, 35.8815, 48.1661, -13.9189, 97.331, -52.2223, 43.7335
2.264, 5, 35.8791, 48.169, -13.9009, 97.3173, -52.3014, 43.6995
2.268, 5, 35.8764, 48.1723, -13.8826, 97.3034, -52.3817, 43.6651
2.272, 5, 35.8735, 48.176, -13.864, 97.2893, -52.4628, 43.6304
2.275, 5, 35.8703, 48.1799, -13.8453, 97.275, -52.5444, 43.5956
2.28, 5, 35.867, 48.184, -13.8265, 97.2606, -52.6264, 43.5606
2.284, 5, 35.8636, 48.1883, -13.8077, 97.2461, -52.7087, 43.5256
2.288, 5, 35.8601, 48.1927, -13.7888, 97.2315, -52.7911, 43.4906
2.291, 5, 35.8565, 48.1973, -13.77, 97.2168, -52.8736, 43.4556
2.296, 5, 35.8528, 48.2019, -13.7511, 97.202, -52.9562, 43.4206
2.3, 5, 35.8492, 48.2066, -13.7322, 97.1872, -53.0388, 43.3857
2.304, 5, 35.8454, 48.2114, -13.7134, 97.1722, -53.1214, 43.3509
2.308, 5, 35.8417, 48.2162, -13.6945, 97.1572, -53.204, 43.3161
2.311, 5, 35.8379, 48.2212, -13.6757, 97.1422, -53.2867, 43.2814
2.316, 5, 35.8341, 48.2262, -13.6569, 97.127, -53.3693, 43.2467
2.32, 5, 35.8302, 48.2313, -13.6381, 97.1118, -53.4519, 43.2121
2.324, 5, 35.8263, 48.2364, -13.6193, 97.0965, -53.5346, 43.1775
2.328, 5, 35.8224, 48.2416, -13.6006, 97.0812, -53.6172, 43.1431
2.331, 5, 35.8185, 48.2469, -13.5819, 97.0658, -53.6997, 43.1087
2.336, 5, 35.8145, 48.2522, -13.5632, 97.0503, -53.7823, 43.0743
2.34, 5, 35.8105, 48.2577, -13.5445, 97.0348, -53.8649, 43.0401
2.344, 5, 35.8065, 48.2631, -13.5258, 97.0191, -53.9474, 43.0059
2.347, 5, 35.8025, 48.2687, -13.5072, 97.0035, -54.0299, 42.9718
2.352, 5, 35.7984, 48.2743, -13.4885, 96.9877, -54.1124, 42.9377
2.356, 5, 35.7943, 48.2799, -13.4699, 96.9719, -54.1949, 42.9037
2.36, 5, 35.7902, 48.2857, -13.4514, 96.9561, -54.2773, 42.8698
2.364, 5, 35.786, 48.2915, -13.4328, 96.9401, -54.3598, 42.8359
2.367, 5, 35.7819, 48.2973, -13.4143, 96.9241, -54.4422, 42.8021
2.372, 5, 35.7777, 48.3033, -13.3957, 96.9081, -54.5246, 42.7684
2.376, 5, 35.7734, 48.3093, -13.3772, 96.8919, -54.607, 42.7347
2.38, 5, 35.7692, 48.3153, -13.3588, 96.8757, -54.6894, 42.7011
2.383, 5, 35.7649, 48.3214, -13.3403, 96.8595, -54.7717, 42.6676
2.388, 5, 35.7606, 48.3276, -13.3219, 96.8432, -54.854, 42.6341
2.392, 5, 35.7562, 48.3339, -13.3034, 96.8268, -54.9363, 42.6007
2.396, 5, 35.7518, 48.3402, -13.285, 96.8104, -55.0186, 42.5674
2.4, 5, 35.7474, 48.3466, -13.2667, 96.7939, -55.1009, 42.5341
2.403, 5, 35.743, 48.353, -13.2483, 96.7773, -55.1832, 42.5009
2.408, 5, 35.7386, 48.3595, -13.23, 96.7607, -55.2654, 42.4678
2.412, 5, 35.7341, 48.3661, -13.2116, 96.744, -55.3476, 42.4347
2.416, 5, 35.7296, 48.3728, -13.1933, 96.7272, -55.4298, 42.4017
2.42, 5, 35.725, 48.3795, -13.175, 96.7104, -55.512, 42.3687
2.423, 5, 35.7205, 48.3862, -13.1568, 96.6936, -55.5942, 42.3358
2.428, 5, 35.7159, 48.3931, -13.1385, 96.6767, -55.6763, 42.303
2.432, 5, 35.7112, 48.3999, -13.1203, 96.6597, -55.7584, 42.2702
2.436, 5, 35.7066, 48.4069, -13.1021, 96.6426, -55.8405, 42.2375
2.439, 5, 35.7019, 48.4139, -13.0839, 96.6255, -55.9226, 42.2049
2.444, 5, 35.6972, 48.421, -13.0657, 96.6084, -56.0047, 42.1723
2.448, 5, 35.6925, 48.4281, -13.0476, 96.5911, -56.0868, 42.1398
2.452, 5, 35.6877, 48.4353, -13.0294, 96.5739, -56.1688, 42.1073
2.456, 5, 35.6829, 48.4426, -13.0113, 96.5565, -56.2508, 42.0749
2.459, 5, 35.6781, 48.45, -12.9932, 96.5391, -56.3328, 42.0426
2.464, 5, 35.6732, 48.4574, -12.9752, 96.5217, -56.4148, 42.0103
2.468, 5, 35.6684, 48.4648, -12.9571, 96.5041, -56.4967, 41.9781
2.472, 5, 35.6634, 48.4723, -12.939, 96.4866, -56.5787, 41.9459
2.476, 5, 35.6585, 48.4799, -12.921, 96.4689, -56.6606, 41.9138
2.479, 5, 35.6535, 48.4876, -12.903, 96.4513, -56.7425, 41.8818
2.484, 5, 35.6485, 48.4953, -12.885, 96.4335, -56.8244, 41.8498
2.488, 5, 35.6435, 48.503, -12.8671, 96.4157, -56.9062, 41.8179
2.492, 5, 35.6385, 48.5109, -12.8491, 96.3979, -56.9881, 41.786
2.495, 5, 35.6334, 48.5188, -12.8312, 96.3799, -57.0699, 41.7542
2.5, 5, 35.6283, 48.5267, -12.8133, 96.362, -57.1517, 41.7225
2.504, 5, 35.6231, 48.5348, -12.7954, 96.344, -57.2335, 41.6908
2.508, 5, 35.6179, 48.5428, -12.7775, 96.3259, -57.3153, 41.6592
2.512, 5, 35.6127, 48.551, -12.7596, 96.3077, -57.397, 41.6276
2.515, 5, 35.6075, 48.5592, -12.7418, 96.2895, -57.4788, 41.5961
2.52, 5, 35.6023, 48.5675, -12.724, 96.2713, -57.5605, 41.5646
2.524, 5, 35.597, 48.5758, -12.7061, 96.253, -57.6422, 41.5333
2.528, 5, 35.5916, 48.5842, -12.6883, 96.2346, -57.7239, 41.5019
2.531, 5, 35.5863, 48.5926, -12.6706, 96.2162, -57.8055, 41.4706
2.536, 5, 35.5809, 48.6012, -12.6528, 96.1978, -57.8872, 41.4394
2.54, 5, 35.5755, 48.6097, -12.6351, 96.1792, -57.9688, 41.4082
2.544, 5, 35.5701, 48.6184, -12.6174, 96.1607, -58.0504, 41.3771
2.548, 5, 35.5646, 48.6271, -12.5996, 96.142, -58.132, 41.3461
2.551, 5, 35.5591, 48.6358, -12.582, 96.1234, -58.2135, 41.3151
2.556, 5, 35.5536, 48.6446, -12.5643, 96.1046, -58.2951, 41.2841
2.56, 5, 35.548, 48.6535, -12.5466, 96.0858, -58.3766, 41.2533
2.564, 5, 35.5424, 48.6625, -12.529, 96.067, -58.4581, 41.2224
2.568, 5, 35.5368, 48.6715, -12.5114, 96.0481, -58.5396, 41.1917
2.571, 5, 35.5312, 48.6805, -12.4938, 96.0292, -58.6211, 41.1609
2.576, 5, 35.5255, 48.6897, -12.4762, 96.0102, -58.7026, 41.1303
2.58, 5, 35.5198, 48.6988, -12.4586, 95.9911, -58.784, 41.0997
2.584, 5, 35.514, 48.7081, -12.441, 95.972, -58.8654, 41.0691
2.587, 5, 35.5083, 48.7174, -12.4235, 95.9529, -58.9468, 41.0386
2.592, 5, 35.5025, 48.7268, -12.406, 95.9336, -59.0282, 41.0082
2.596, 5, 35.4966, 48.7362, -12.3885, 95.9144, -59.1096, 40.9778
2.6, 5, 35.4908, 48.7457, -12.371, 95.8951, -59.1909, 40.9474
2.604, 5, 35.4849, 48.7552, -12.3535, 95.8757, -59.2722, 40.9171
2.607, 5, 35.479, 48.7648, -12.3361, 95.8563, -59.3535, 40.8869
2.612, 5, 35.473, 48.7745, -12.3186, 95.8368, -59.4348, 40.8567
2.616, 5, 35.467, 48.7842, -12.3012, 95.8173, -59.5161, 40.8266
2.62, 5, 35.461, 48.794, -12.2838, 95.7978, -59.5974, 40.7965
2.624, 5, 35.455, 48.8039, -12.2664, 95.7782, -59.6786, 40.7665
2.627, 5, 35.4489, 48.8138, -12.249, 95.7585, -59.7598, 40.7365
2.632, 5, 35.4428, 48.8237, -12.2317, 95.7388, -59.841, 40.7066
2.636, 5, 35.4366, 48.8338, -12.2143, 95.719, -59.9222, 40.6768
2.64, 5, 35.4305, 48.8438, -12.197, 95.6992, -60.0033, 40.6469
2.643, 5, 35.4243, 48.854, -12.1797, 95.6793, -60.0845, 40.6172
2.648, 5, 35.418, 48.8642, -12.1624, 95.6594, -60.1656, 40.5875
2.652, 5, 35.4118, 48.8745, -12.1451, 95.6395, -60.2467, 40.5578
2.656, 5, 35.4055, 48.8848, -12.1278, 95.6195, -60.3278, 40.5282
2.66, 5, 35.3991, 48.8952, -12.1106, 95.5994, -60.4089, 40.4986
2.663, 5, 35.3928, 48.9056, -12.0933, 95.5793, -60.4899, 40.4691
2.668, 5, 35.3864, 48.9161, -12.0761, 95.5592, -60.571, 40.4397
2.672, 5, 35.3799, 48.9267, -12.0589, 95.539, -60.652, 40.4103
2.676, 5, 35.3735, 48.9373, -12.0417, 95.5187, -60.733, 40.3809
2.679, 5, 35.367, 48.948, -12.0245, 95.4984, -60.8139, 40.3516
2.684, 5, 35.3605, 48.9587, -12.0074, 95.4781, -60.8949, 40.3224
2.688, 5, 35.3539, 48.9695, -11.9902, 95.4577, -60.9758, 40.2932
2.692, 5, 35.3473, 48.9804, -11.9731, 95.4373, -61.0568, 40.264
2.696, 5, 35.3407, 48.9913, -11.956, 95.4168, -61.1377, 40.2349
2.699, 5, 35.3341, 49.0022, -11.9389, 95.3963, -61.2185, 40.2058
2.704, 5, 35.3274, 49.0133, -11.9218, 95.3757, -61.2994, 40.1768
2.708, 5, 35.3207, 49.0244, -11.9047, 95.3551, -61.3803, 40.1479
2.712, 5, 35.3139, 49.0355, -11.8877, 95.3344, -61.4611, 40.1189
2.716, 5, 35.3072, 49.0467, -11.8706, 95.3137, -61.5419, 40.0901
2.719, 5, 35.3004, 49.058, -11.8536, 95.2929, -61.6227, 40.0613
2.724, 5, 35.2935, 49.0693, -11.8366, 95.2721, -61.7035, 40.0325
2.728, 5, 35.2866, 49.0807, -11.8196, 95.2513, -61.7842, 40.0038
2.732, 5, 35.2797, 49.0921, -11.8026, 95.2304, -61.865, 39.9751
2.735, 5, 35.2728, 49.1036, -11.7857, 95.2094, -61.9457, 39.9465
2.74, 5, 35.2658, 49.1152, -11.7687, 95.1885, -62.0264, 39.9179
2.744, 5, 35.2588, 49.1268, -11.7518, 95.1674, -62.1071, 39.8894
2.748, 5, 35.2518, 49.1385, -11.7348, 95.1464, -62.1877, 39.8609
2.752, 5, 35.2447, 49.1502, -11.7179, 95.1252, -62.2684, 39.8325
2.755, 5, 35.2376, 49.162, -11.701, 95.1041, -62.349, 39.8041
2.76, 5, 35.2304, 49.1738, -11.6842, 95.0829, -62.4296, 39.7757
2.764, 5, 35.2233, 49.1857, -11.6673, 95.0616, -62.5102, 39.7474
2.768, 5, 35.2161, 49.1977, -11.6504, 95.0403, -62.5908, 39.7192
2.772, 5, 35.2088, 49.2097, -11.6336, 95.019, -62.6713, 39.691
2.775, 5, 35.2016, 49.2218, -11.6168, 94.9976, -62.7518, 39.6628
2.78, 5, 35.1943, 49.2339, -11.6, 94.9762, -62.8324, 39.6347
2.784, 5, 35.1869, 49.2461, -11.5832, 94.9547, -62.9128, 39.6066
2.788, 5, 35.1795, 49.2584, -11.5664, 94.9332, -62.9933, 39.5786
2.791, 5, 35.1721, 49.2707, -11.5496, 94.9117, -63.0738, 39.5506
2.796, 5, 35.1647, 49.283, -11.5328, 94.8901, -63.1542, 39.5227
2.8, 5, 35.1572, 49.2955, -11.5161, 94.8684, -63.2346, 39.4948
2.804, 5, 35.1497, 49.3079, -11.4994, 94.8468, -63.3151, 39.4669
2.808, 5, 35.1422, 49.3205, -11.4827, 94.825, -63.3954, 39.4391
2.811, 5, 35.1346, 49.3331, -11.466, 94.8033, -63.4758, 39.4114
2.816, 5, 35.127, 49.3457, -11.4493, 94.7815, -63.5562, 39.3837
2.82, 5, 35.1194, 49.3584, -11.4326, 94.7596, -63.6365, 39.356
2.824, 5, 35.1117, 49.3712, -11.4159, 94.7378, -63.7168, 39.3284
2.828, 5, 35.104, 49.384, -11.3993, 94.7158, -63.7971, 39.3008
2.831, 5, 35.0962, 49.3969, -11.3826, 94.6939, -63.8774, 39.2733
2.836, 5, 35.0884, 49.4098, -11.366, 94.6719, -63.9576, 39.2458
2.84, 5, 35.0806, 49.4228, -11.3494, 94.6498, -64.0379, 39.2183
2.844, 5, 35.0728, 49.4359, -11.3328, 94.6277, -64.1181, 39.1909
2.847, 5, 35.0649, 49.449, -11.3162, 94.6056, -64.1983, 39.1635
2.852, 5, 35.057, 49.4621, -11.2996, 94.5834, -64.2785, 39.1362
2.856, 5, 35.049, 49.4753, -11.2831, 94.5612, -64.3586, 39.1089
2.86, 5, 35.041, 49.4886, -11.2665, 94.539, -64.4388, 39.0817
2.864, 5, 35.033, 49.5019, -11.25, 94.5167, -64.5189, 39.0545
2.867, 5, 35.025, 49.5153, -11.2335, 94.4943, -64.599, 39.0274
2.872, 5, 35.0169, 49.5288, -11.217, 94.472, -64.6791, 39.0002
2.876, 5, 35.0087, 49.5423, -11.2005, 94.4496, -64.7592, 38.9732
2.88, 6, 35.0006, 49.5558, -11.184, 94.4271, -64.8392, 38.9461
2.883, 6, 34.9924, 49.5694, -11.1676, 94.4046, -64.9193, 38.9192
2.888, 6, 34.9842, 49.5831, -11.1511, 94.3821, -64.9993, 38.8922
2.892, 6, 34.9759, 49.5968, -11.1347, 94.3596, -65.0793, 38.8653
2.896, 6, 34.9676, 49.6106, -11.1182, 94.337, -65.1593, 38.8384
2.9, 6, 34.9593, 49.6244, -11.1018, 94.3143, -65.2392, 38.8116
2.903, 6, 34.9509, 49.6383, -11.0854, 94.2916, -65.3192, 38.7848
2.908, 6, 34.9425, 49.6523, -11.069, 94.2689, -65.3991, 38.7581
2.912, 6, 34.934, 49.6663, -11.0527, 94.2461, -65.479, 38.7314
2.916, 6, 34.9256, 49.6803, -11.0363, 94.2234, -65.5589, 38.7047
2.92, 6, 34.9171, 49.6945, -11.0199, 94.2005, -65.6388, 38.6781
2.923, 6, 34.9085, 49.7086, -11.0036, 94.1776, -65.7187, 38.6515
2.928, 6, 34.8999, 49.7229, -10.9873, 94.1547, -65.7985, 38.625
2.932, 6, 34.8913, 49.7371, -10.971, 94.1318, -65.8783, 38.5985
2.936, 6, 34.8827, 49.7515, -10.9547, 94.1088, -65.9581, 38.572
2.939, 6, 34.874, 49.7659, -10.9384, 94.0858, -66.0379, 38.5456
2.944, 6, 34.8652, 49.7803, -10.9221, 94.0627, -66.1177, 38.5192
2.948, 6, 34.8565, 49.7948, -10.9059, 94.0396, -66.1975, 38.4929
2.952, 6, 34.8477, 49.8094, -10.8896, 94.0165, -66.2772, 38.4666
2.956, 6, 34.8388, 49.824, -10.8734, 93.9933, -66.3569, 38.4403
2.959, 6, 34.83, 49.8386, -10.8572, 93.9701, -66.4366, 38.4141
2.964, 6, 34.8211, 49.8534, -10.841, 93.9469, -66.5163, 38.3879
2.968, 6, 34.8121, 49.8681, -10.8248, 93.9236, -66.596, 38.3618
2.972, 6, 34.8032, 49.883, -10.8086, 93.9003, -66.6756, 38.3357
2.976, 6, 34.7941, 49.8979, -10.7924, 93.8769, -66.7552, 38.3096
2.98, 6, 34.7851, 49.9128, -10.7763, 93.8535, -66.8349, 38.2836
2.984, 6, 34.776, 49.9278, -10.7601, 93.8301, -66.9145, 38.2576
2.988, 6, 34.7669, 49.9428, -10.744, 93.8066, -66.994, 38.2316
2.992, 6, 34.7577, 49.9579, -10.7279, 93.7831, -67.0736, 38.2057
2.995, 6, 34.7485, 49.9731, -10.7118, 93.7596, -67.1532, 38.1798
3, 6, 34.7393, 49.9883, -10.6957, 93.736, -67.2327, 38.154
3.004, 6, 34.73, 50.0036, -10.6796, 93.7124, -67.3122, 38.1282
3.008, 6, 34.7207, 50.0189, -10.6635, 93.6888, -67.3917, 38.1024
3.012, 6, 34.7114, 50.0343, -10.6475, 93.6651, -67.4712, 38.0767
3.015, 6, 34.702, 50.0497, -10.6314, 93.6414, -67.5506, 38.051
3.02, 6, 34.6926, 50.0652, -10.6154, 93.6177, -67.6301, 38.0253
3.024, 6, 34.6831, 50.0807, -10.5994, 93.5939, -67.7095, 37.9997
3.028, 6, 34.6737, 50.0963, -10.5834, 93.5701, -67.7889, 37.9741
3.031, 6, 34.6641, 50.112, -10.5674, 93.5462, -67.8683, 37.9486
3.036, 6, 34.6546, 50.1277, -10.5514, 93.5223, -67.9477, 37.923
3.04, 6, 34.645, 50.1434, -10.5354, 93.4984, -68.027, 37.8976
3.044, 6, 34.6353, 50.1592, -10.5195, 93.4745, -68.1064, 37.8721
3.048, 6, 34.6257, 50.1751, -10.5035, 93.4505, -68.1857, 37.8467
3.051, 6, 34.616, 50.191, -10.4876, 93.4264, -68.265, 37.8214
3.056, 6, 34.6062, 50.207, -10.4717, 93.4024, -68.3443, 37.796
3.06, 6, 34.5964, 50.223, -10.4558, 93.3783, -68.4236, 37.7707
3.064, 6, 34.5866, 50.2391, -10.4399, 93.3542, -68.5028, 37.7455
3.068, 6, 34.5767, 50.2552, -10.424, 93.33, -68.5821, 37.7202
3.071, 6, 34.5668, 50.2714, -10.4082, 93.3058, -68.6613, 37.695
3.076, 6, 34.5569, 50.2876, -10.3923, 93.2816, -68.7405, 37.6699
3.08, 6, 34.5469, 50.3039, -10.3765, 93.2573, -68.8197, 37.6448
3.084, 6, 34.5369, 50.3203, -10.3606, 93.233, -68.8989, 37.6197
3.087, 6, 34.5269, 50.3367, -10.3448, 93.2087, -68.9781, 37.5946
3.092, 6, 34.5168, 50.3531, -10.329, 93.1844, -69.0572, 37.5696
3.096, 6, 34.5067, 50.3696, -10.3132, 93.16, -69.1363, 37.5446
3.1, 6, 34.4965, 50.3862, -10.2975, 93.1355, -69.2155, 37.5197
3.104, 6, 34.4863, 50.4028, -10.2817, 93.1111, -69.2946, 37.4948
3.107, 6, 34.4761, 50.4194, -10.2659, 93.0866, -69.3736, 37.4699
3.112, 6, 34.4658, 50.4361, -10.2502, 93.0621, -69.4527, 37.445
3.116, 6, 34.4555, 50.4529, -10.2345, 93.0375, -69.5318, 37.4202
3.12, 6, 34.4452, 50.4697, -10.2188, 93.0129, -69.6108, 37.3954
3.124, 6, 34.4348, 50.4866, -10.2031, 92.9883, -69.6898, 37.3707
3.128, 6, 34.4243, 50.5035, -10.1874, 92.9637, -69.7688, 37.346
3.132, 6, 34.4139, 50.5205, -10.1717, 92.939, -69.8478, 37.3213
3.136, 6, 34.4034, 50.5375, -10.1561, 92.9143, -69.9268, 37.2967
3.14, 6, 34.3928, 50.5546, -10.1404, 92.8895, -70.0057, 37.272
3.143, 6, 34.3823, 50.5717, -10.1248, 92.8647, -70.0847, 37.2475
3.148, 6, 34.3717, 50.5889, -10.1092, 92.8399, -70.1636, 37.2229
3.152, 6, 34.361, 50.6062, -10.0936, 92.8151, -70.2425, 37.1984
3.156, 6, 34.3503, 50.6235, -10.078, 92.7902, -70.3214, 37.1739
3.16, 6, 34.3396, 50.6408, -10.0624, 92.7653, -70.4003, 37.1495
3.163, 6, 34.3288, 50.6582, -10.0468, 92.7403, -70.4791, 37.1251
3.168, 6, 34.318, 50.6757, -10.0313, 92.7154, -70.558, 37.1007
3.172, 6, 34.3072, 50.6932, -10.0157, 92.6904, -70.6368, 37.0763
3.176, 6, 34.2963, 50.7107, -10.0002, 92.6653, -70.7156, 37.052
3.179, 6, 34.2854, 50.7283, -9.98467, 92.6402, -70.7944, 37.0277
3.184, 6, 34.2744, 50.746, -9.96917, 92.6152, -70.8732, 37.0034
3.188, 6, 34.2634, 50.7637, -9.95368, 92.59, -70.952, 36.9792
3.192, 6, 34.2524, 50.7814, -9.93821, 92.5649, -71.0307, 36.955
3.196, 6, 34.2413, 50.7993, -9.92274, 92.5397, -71.1095, 36.9309
3.199, 6, 34.2302, 50.8171, -9.90729, 92.5145, -71.1882, 36.9067
3.204, 6, 34.219, 50.835, -9.89186, 92.4892, -71.2669, 36.8826
3.208, 6, 34.2078, 50.853, -9.87643, 92.4639, -71.3456, 36.8586
3.212, 6, 34.1966, 50.871, -9.86102, 92.4386, -71.4243, 36.8345
3.216, 6, 34.1853, 50.8891, -9.84563, 92.4133, -71.503, 36.8105
3.22, 6, 34.174, 50.9072, -9.83024, 92.3879, -71.5816, 36.7865
3.224, 6, 34.1627, 50.9254, -9.81487, 92.3625, -71.6603, 36.7626
3.228, 6, 34.1513, 50.9436, -9.79951, 92.337, -71.7389, 36.7387
3.232, 6, 34.1398, 50.9619, -9.78417, 92.3116, -71.8175, 36.7148
3.235, 6, 34.1284, 50.9802, -9.76884, 92.2861, -71.8961, 36.6909
3.24, 6, 34.1169, 50.9986, -9.75352, 92.2606, -71.9747, 36.6671
3.244, 6, 34.1053, 51.017, -9.73822, 92.235, -72.0532, 36.6433
3.248, 6, 34.0937, 51.0355, -9.72293, 92.2094, -72.1318, 36.6195
3.252, 6, 34.0821, 51.054, -9.70765, 92.1838, -72.2103, 36.5958
3.255, 6, 34.0704, 51.0726, -9.69239, 92.1582, -72.2888, 36.5721
3.26, 6, 34.0587, 51.0913, -9.67713, 92.1325, -72.3673, 36.5484
3.264, 6, 34.047, 51.1099, -9.6619, 92.1068, -72.4458, 36.5247
3.268, 6, 34.0352, 51.1287, -9.64667, 92.081, -72.5243, 36.5011
3.272, 6, 34.0234, 51.1475, -9.63146, 92.0553, -72.6028, 36.4775
3.276, 6, 34.0115, 51.1663, -9.61626, 92.0295, -72.6812, 36.4539
3.28, 6, 33.9996, 51.1852, -9.60108, 92.0037, -72.7596, 36.4304
3.284, 6, 33.9877, 51.2041, -9.58591, 91.9778, -72.8381, 36.4069
3.288, 6, 33.9757, 51.2231, -9.57075, 91.952, -72.9165, 36.3834
3.291, 6, 33.9636, 51.2422, -9.55561, 91.9261, -72.9949, 36.36
3.296, 6, 33.9516, 51.2612, -9.54048, 91.9001, -73.0732, 36.3366
3.3, 6, 33.9395, 51.2804, -9.52536, 91.8742, -73.1516, 36.3132
3.304, 6, 33.9273, 51.2996, -9.51026, 91.8482, -73.2299, 36.2898
3.308, 6, 33.9151, 51.3188, -9.49517, 91.8221, -73.3083, 36.2665
3.312, 6, 33.9029, 51.3381, -9.48009, 91.7961, -73.3866, 36.2431
3.316, 6, 33.8906, 51.3575, -9.46503, 91.77, -73.4649, 36.2199
3.32, 6, 33.8783, 51.3769, -9.44998, 91.7439, -73.5432, 36.1966
3.324, 6, 33.866, 51.3963, -9.43495, 91.7178, -73.6215, 36.1734
3.328, 6, 33.8536, 51.4158, -9.41993, 91.6916, -73.6998, 36.1502
3.332, 6, 33.8412, 51.4353, -9.40492, 91.6654, -73.778, 36.127
3.336, 6, 33.8287, 51.4549, -9.38992, 91.6392, -73.8562, 36.1039
3.34, 6, 33.8162, 51.4746, -9.37494, 91.613, -73.9345, 36.0807
3.344, 6, 33.8036, 51.4943, -9.35998, 91.5867, -74.0127, 36.0576
3.347, 6, 33.791, 51.514, -9.34502, 91.5604, -74.0909, 36.0346
3.352, 6, 33.7784, 51.5338, -9.33008, 91.5341, -74.1691, 36.0115
3.356, 6, 33.7657, 51.5537, -9.31516, 91.5077, -74.2472, 35.9885
3.36, 6, 33.753, 51.5736, -9.30025, 91.4813, -74.3254, 35.9655
3.364, 6, 33.7403, 51.5935, -9.28535, 91.4549, -74.4035, 35.9426
3.368, 6, 33.7275, 51.6135, -9.27046, 91.4285, -74.4817, 35.9197
3.372, 6, 33.7146, 51.6336, -9.25559, 91.402, -74.5598, 35.8967
3.376, 6, 33.7017, 51.6537, -9.24074, 91.3756, -74.6379, 35.8739
3.38, 6, 33.6888, 51.6738, -9.22589, 91.349, -74.716, 35.851
3.383, 6, 33.6759, 51.694, -9.21107, 91.3225, -74.7941, 35.8282
3.388, 6, 33.6629, 51.7142, -9.19625, 91.2959, -74.8721, 35.8054
3.392, 6, 33.6498, 51.7345, -9.18145, 91.2693, -74.9502, 35.7826
3.396, 6, 33.6367, 51.7549, -9.16667, 91.2427, -75.0282, 35.7598
3.4, 6, 33.6236, 51.7753, -9.15189, 91.2161, -75.1062, 35.7371
3.403, 6, 33.6104, 51.7957, -9.13713, 91.1894, -75.1843, 35.7144
3.408, 6, 33.5972, 51.8162, -9.12239, 91.1627, -75.2623, 35.6917
3.412, 6, 33.584, 51.8368, -9.10766, 91.1359, -75.3402, 35.6691
3.416, 6, 33.5707, 51.8574, -9.09294, 91.1092, -75.4182, 35.6465
3.42, 6, 33.5573, 51.878, -9.07824, 91.0824, -75.4962, 35.6238
3.424, 6, 33.5439, 51.8987, -9.06356, 91.0556, -75.5741, 35.6013
3.428, 6, 33.5305, 51.9194, -9.04889, 91.0288, -75.6521, 35.5787
3.432, 6, 33.5171, 51.9402, -9.03423, 91.0019, -75.73, 35.5562
3.436, 6, 33.5035, 51.9611, -9.01958, 90.975, -75.8079, 35.5337
3.439, 6, 33.49, 51.982, -9.00496, 90.9481, -75.8858, 35.5112
3.444, 6, 33.4764, 52.0029, -8.99034, 90.9212, -75.9637, 35.4887
3.448, 6, 33.4628, 52.0239, -8.97574, 90.8942, -76.0416, 35.4663
3.452, 6, 33.4491, 52.0449, -8.96116, 90.8672, -76.1194, 35.4439
3.456, 6, 33.4354, 52.066, -8.94659, 90.8402, -76.1973, 35.4215
3.46, 6, 33.4216, 52.0871, -8.93204, 90.8131, -76.2751, 35.3992
3.464, 6, 33.4078, 52.1083, -8.9175, 90.7861, -76.353, 35.3768
3.468, 6, 33.394, 52.1296, -8.90297, 90.759, -76.4308, 35.3545
3.472, 6, 33.3801, 52.1508, -8.88846, 90.7318, -76.5086, 35.3322
3.476, 6, 33.3662, 52.1722, -8.87397, 90.7047, -76.5864, 35.3099
3.48, 6, 33.3522, 52.1936, -8.85949, 90.6775, -76.6641, 35.2877
3.484, 6, 33.3382, 52.215, -8.84502, 90.6503, -76.7419, 35.2655
3.488, 6, 33.3242, 52.2364, -8.83057, 90.6231, -76.8197, 35.2433
3.492, 6, 33.3101, 52.258, -8.81614, 90.5958, -76.8974, 35.2211
3.495, 6, 33.2959, 52.2795, -8.80172, 90.5686, -76.9751, 35.1989
3.5, 6, 33.2817, 52.3012, -8.78732, 90.5413, -77.0529, 35.1768
3.504, 6, 33.2675, 52.3228, -8.77293, 90.5139, -77.1306, 35.1547
3.508, 6, 33.2533, 52.3445, -8.75855, 90.4866, -77.2083, 35.1326
3.512, 6, 33.2389, 52.3663, -8.74419, 90.4592, -77.286, 35.1105
3.516, 6, 33.2246, 52.3881, -8.72985, 90.4318, -77.3636, 35.0885
3.52, 6, 33.2102, 52.41, -8.71552, 90.4044, -77.4413, 35.0665
3.524, 6, 33.1959, 52.4318, -8.70121, 90.3769, -77.519, 35.0445
3.528, 6, 33.1818, 52.4535, -8.6869, 90.3494, -77.5966, 35.0225
3.531, 6, 33.1681, 52.4749, -8.67261, 90.322, -77.6741, 35.0005
3.536, 6, 33.1548, 52.4959, -8.65834, 90.2945, -77.7516, 34.9787
3.54, 6, 33.1422, 52.5161, -8.6441, 90.2671, -77.8287, 34.9569
3.544, 6, 33.1301, 52.5355, -8.62993, 90.2399, -77.9054, 34.9352
3.548, 6, 33.1187, 52.5539, -8.61588, 90.2129, -77.9814, 34.9138
3.552, 6, 33.1077, 52.5714, -8.60201, 90.1862, -78.0563, 34.8927
3.556, 6, 33.0972, 52.588, -8.58841, 90.1601, -78.1297, 34.8721
3.56, 6, 33.087, 52.6039, -8.57516, 90.1346, -78.2011, 34.852
3.564, 6, 33.0772, 52.619, -8.56237, 90.11, -78.2701, 34.8326
3.568, 6, 33.0678, 52.6334, -8.55012, 90.0864, -78.336, 34.814
3.572, 6, 33.0589, 52.6472, -8.53853, 90.0641, -78.3985, 34.7965
3.576, 6, 33.0503, 52.6604, -8.5277, 90.0432, -78.4569, 34.7801
3.58, 6, 33.0421, 52.673, -8.51771, 90.0239, -78.5109, 34.765
3.584, 6, 33.0342, 52.6852, -8.50866, 90.0063, -78.56, 34.7512
3.587, 6, 33.0265, 52.697, -8.50059, 89.9906, -78.604, 34.7388
3.592, 6, 33.0189, 52.7083, -8.49353, 89.9767, -78.6428, 34.728
3.596, 6, 33.0116, 52.7193, -8.48746, 89.9646, -78.6765, 34.7185
3.6, 6, 33.0045, 52.7297, -8.48235, 89.9543, -78.7051, 34.7105
3.604, 6, 32.9978, 52.7397, -8.47813, 89.9458, -78.729, 34.7038
3.608, 6, 32.9916, 52.749, -8.47473, 89.9388, -78.7486, 34.6983
3.612, 6, 32.9858, 52.7578, -8.47205, 89.9331, -78.7642, 34.6939
3.616, 6, 32.9804, 52.7659, -8.46999, 89.9287, -78.7765, 34.6905
3.62, 6, 32.9754, 52.7733, -8.46846, 89.9253, -78.7859, 34.6879
3.624, 6, 32.9708, 52.7798, -8.46736, 89.9228, -78.7929, 34.6859
3.628, 6, 32.9667, 52.7854, -8.46659, 89.921, -78.798, 34.6844
3.632, 7, 32.9632, 52.79, -8.46607, 89.9197, -78.8016, 34.6834
3.636, 7, 32.9603, 52.7935, -8.46572, 89.9188, -78.8042, 34.6827
3.64, 7, 32.958, 52.7961, -8.46549, 89.9181, -78.8059, 34.6822
3.644, 7, 32.9564, 52.798, -8.46534, 89.9177, -78.8071, 34.6819
3.648, 7, 32.9552, 52.7993, -8.46523, 89.9174, -78.8079, 34.6817
3.652, 7, 32.9545, 52.8001, -8.46517, 89.9173, -78.8084, 34.6815
3.656, 7, 32.9539, 52.8007, -8.46512, 89.9171, -78.8088, 34.6814
3.66, 7, 32.9536, 52.8011, -8.46509, 89.917, -78.809, 34.6814
3.664, 7, 32.9533, 52.8014, -8.46506, 89.917, -78.8092, 34.6813
3.668, 7, 32.9532, 52.8016, -8.46505, 89.9169, -78.8093, 34.6813
3.672, 7, 32.9531, 52.8017, -8.46504, 89.9169, -78.8094, 34.6813
3.676, 7, 32.953, 52.8018, -8.46503, 89.9169, -78.8094, 34.6812
3.679, 7, 32.9529, 52.8018, -8.46503, 89.9169, -78.8095, 34.6812
3.684, 7, 32.9529, 52.8019, -8.46502, 89.9169, -78.8095, 34.6812
3.688, 7, 32.9529, 52.8019, -8.46502, 89.9168, -78.8095, 34.6812
3.692, 7, 32.9529, 52.8019, -8.46502, 89.9168, -78.8095, 34.6812
3.696, 7, 32.9529, 52.8019, -8.46502, 89.9168, -78.8095, 34.6812
3.7, 7, 32.9529, 52.8019, -8.46502, 89.9168, -78.8095, 34.6812
3.704, 7, 32.9528, 52.8019, -8.46502, 89.9168, -78.8095, 34.6812
3.708, 7, 32.9528, 52.8019, -8.46502, 89.9168, -78.8095, 34.6812
3.712, 7, 32.9528, 52.8019, -8.46502, 89.9168, -78.8095, 34.6812
3.716, 7, 32.9528, 52.8019, -8.46502, 89.9168, -78.8096, 34.6812
3.72, 7, 32.9528, 52.8019, -8.46502, 89.9168, -78.8096, 34.6812
3.724, 7, 32.9528, 52.8019, -8.46502, 89.9168, -78.8096, 34.6812
3.728, 7, 32.9528, 52.8019, -8.46502, 89.9168, -78.8096, 34.6812
3.732, 7, 32.9528, 52.8019, -8.46502, 89.9168, -78.8096, 34.6812
3.735, 7, 32.9528, 52.8019, -8.46502, 89.9168, -78.8096, 34.6812
3.74, 7, 32.9528, 52.8019, -8.46502, 89.9168, -78.8096, 34.6812
3.744, 7, 32.9528, 52.8019, -8.46502, 89.9168, -78.8096, 34.6812
3.748, 7, 32.9528, 52.8019, -8.46502, 89.9168, -78.8096, 34.6812
