hehonglu123/ABB_Primitive_Study/execution/movel_smooth/curve_exe_v500_z1.csv
timestamp, cmd_num, J1, J2, J3, J4, J5, J6
0, -1, -17.7491, 35.9016, 27.5363, -15.3564, -94.4966, 7.85923
0.002, -1, -17.7491, 35.9016, 27.5363, -15.3564, -94.4966, 7.85923
0.006, -1, -17.7491, 35.9016, 27.5363, -15.3564, -94.4966, 7.85923
0.008, -1, -17.7491, 35.9016, 27.5363, -15.3564, -94.4966, 7.85923
0.011, -1, -17.7491, 35.9016, 27.5363, -15.3564, -94.4966, 7.85923
0.016, -1, -17.7491, 35.9016, 27.5363, -15.3564, -94.4966, 7.85923
0.02, -1, -17.7491, 35.9016, 27.5363, -15.3564, -94.4966, 7.85923
0.024, -1, -17.7491, 35.9016, 27.5363, -15.3564, -94.4966, 7.85923
0.028, -1, -17.7491, 35.9016, 27.5363, -15.3564, -94.4966, 7.85923
0.032, -1, -17.7491, 35.9016, 27.5363, -15.3564, -94.4966, 7.85923
0.036, -1, -17.749, 35.9016, 27.5363, -15.3564, -94.4966, 7.85923
0.04, -1, -17.7488, 35.9015, 27.5363, -15.3564, -94.4966, 7.85922
0.044, -1, -17.7482, 35.9013, 27.5363, -15.3564, -94.4966, 7.85921
0.048, -1, -17.7471, 35.9008, 27.5364, -15.3563, -94.4965, 7.85915
0.052, -1, -17.7453, 35.9, 27.5365, -15.3562, -94.4963, 7.85903
0.056, -1, -17.7428, 35.8988, 27.5367, -15.3558, -94.4958, 7.85875
0.06, -1, -17.7394, 35.8971, 27.5369, -15.3551, -94.4949, 7.85824
0.064, -1, -17.7351, 35.8948, 27.5372, -15.3539, -94.4934, 7.85735
0.068, -1, -17.7298, 35.892, 27.5374, -15.3519, -94.491, 7.85592
0.072, -1, -17.7233, 35.8884, 27.5377, -15.3489, -94.4872, 7.85373
0.076, -1, -17.7153, 35.884, 27.5379, -15.3445, -94.4817, 7.85055
0.08, -1, -17.7057, 35.8785, 27.5381, -15.3382, -94.474, 7.84608
0.084, -1, -17.6941, 35.8719, 27.5381, -15.3297, -94.4634, 7.83999
0.088, -1, -17.6802, 35.864, 27.538, -15.3184, -94.4494, 7.83193
0.092, -1, -17.6638, 35.8547, 27.5377, -15.3037, -94.4314, 7.82151
0.096, -1, -17.6449, 35.8439, 27.537, -15.2851, -94.4084, 7.80831
0.1, -1, -17.6232, 35.8316, 27.5359, -15.262, -94.3799, 7.79193
0.104, -1, -17.5984, 35.8175, 27.5344, -15.2337, -94.3452, 7.77197
0.108, -1, -17.5704, 35.8016, 27.5323, -15.1999, -94.3035, 7.74804
0.112, -1, -17.5389, 35.7838, 27.5296, -15.1599, -94.2544, 7.71981
0.116, -1, -17.504, 35.764, 27.5263, -15.1134, -94.1971, 7.68696
0.12, -1, -17.4656, 35.7423, 27.5223, -15.0599, -94.1314, 7.64925
0.124, -1, -17.4237, 35.7186, 27.5174, -14.9992, -94.0569, 7.60649
0.128, -1, -17.3785, 35.6931, 27.5118, -14.9313, -93.9734, 7.5586
0.131, -1, -17.3299, 35.6657, 27.5054, -14.856, -93.8809, 7.50556
0.136, -1, -17.2779, 35.6365, 27.4982, -14.7734, -93.7795, 7.44747
0.139, -1, -17.2225, 35.6054, 27.4903, -14.684, -93.6697, 7.38449
0.144, -1, -17.1638, 35.5724, 27.4817, -14.588, -93.5517, 7.3169
0.148, -1, -17.1017, 35.5375, 27.4724, -14.4858, -93.4263, 7.245
0.152, -1, -17.0365, 35.5009, 27.4626, -14.378, -93.2939, 7.16916
0.156, -1, -16.9683, 35.4626, 27.4524, -14.2653, -93.1554, 7.08978
0.16, -1, -16.8974, 35.4228, 27.4417, -14.1481, -93.0115, 7.0073
0.164, -1, -16.8239, 35.3815, 27.4308, -14.027, -92.8629, 6.92213
0.168, -1, -16.7481, 35.3389, 27.4196, -13.9028, -92.7103, 6.8347
0.172, -1, -16.6699, 35.2949, 27.4082, -13.776, -92.5546, 6.74543
0.176, -1, -16.5897, 35.2497, 27.3968, -13.6471, -92.3962, 6.65467
0.18, -1, -16.5077, 35.2034, 27.3854, -13.5166, -92.2358, 6.56273
0.184, -1, -16.424, 35.1561, 27.3739, -13.3847, -92.0739, 6.46989
0.188, -1, -16.3388, 35.1081, 27.3625, -13.2519, -91.9107, 6.37635
0.192, -1, -16.2526, 35.0593, 27.3511, -13.1184, -91.7466, 6.28227
0.196, -1, -16.1654, 35.0101, 27.3397, -12.9842, -91.5818, 6.18779
0.2, -1, -16.0774, 34.9604, 27.3284, -12.8497, -91.4165, 6.09298
0.204, -1, -15.9889, 34.9105, 27.317, -12.7147, -91.2507, 5.99793
0.208, -1, -15.8998, 34.8603, 27.3056, -12.5795, -91.0846, 5.90267
0.212, -1, -15.8104, 34.8099, 27.2943, -12.4441, -90.9181, 5.80723
0.216, -1, -15.7206, 34.7594, 27.2829, -12.3084, -90.7514, 5.71165
0.22, -1, -15.6306, 34.7087, 27.2715, -12.1726, -90.5845, 5.61595
0.224, -1, -15.5405, 34.658, 27.2601, -12.0366, -90.4174, 5.52012
0.228, -1, -15.4502, 34.6071, 27.2487, -11.9004, -90.2501, 5.42418
0.232, -1, -15.3598, 34.5563, 27.2373, -11.7641, -90.0826, 5.32814
0.236, -1, -15.2692, 34.5053, 27.2259, -11.6277, -89.9149, 5.23201
0.24, -1, -15.1786, 34.4543, 27.2145, -11.4911, -89.7471, 5.13578
0.244, -1, -15.0879, 34.4033, 27.2031, -11.3544, -89.5792, 5.03946
0.248, -1, -14.997, 34.3521, 27.1916, -11.2176, -89.411, 4.94306
0.252, -1, -14.9061, 34.301, 27.1802, -11.0806, -89.2428, 4.84657
0.256, -1, -14.8152, 34.2498, 27.1687, -10.9436, -89.0744, 4.75
0.26, -1, -14.7241, 34.1986, 27.1573, -10.8064, -88.9058, 4.65336
0.264, -1, -14.633, 34.1473, 27.1458, -10.6691, -88.7371, 4.55664
0.268, -1, -14.5418, 34.096, 27.1343, -10.5318, -88.5683, 4.45985
0.272, -1, -14.4505, 34.0446, 27.1228, -10.3943, -88.3994, 4.36298
0.276, -1, -14.3592, 33.9932, 27.1113, -10.2567, -88.2304, 4.26605
0.28, -1, -14.2678, 33.9418, 27.0998, -10.119, -88.0612, 4.16905
0.284, -1, -14.1763, 33.8904, 27.0883, -9.98128, -87.8919, 4.07199
0.288, -1, -14.0848, 33.8389, 27.0768, -9.84344, -87.7226, 3.97487
0.292, -1, -13.9933, 33.7873, 27.0652, -9.70552, -87.5531, 3.8777
0.296, -1, -13.9017, 33.7358, 27.0537, -9.56751, -87.3835, 3.78046
0.3, -1, -13.81, 33.6842, 27.0422, -9.42944, -87.2139, 3.68317
0.304, -1, -13.7183, 33.6326, 27.0306, -9.29129, -87.0441, 3.58584
0.308, -1, -13.6265, 33.581, 27.0191, -9.15307, -86.8743, 3.48845
0.312, -1, -13.5347, 33.5293, 27.0075, -9.01478, -86.7043, 3.39102
0.316, -1, -13.4429, 33.4776, 26.9959, -8.87644, -86.5343, 3.29354
0.32, -1, -13.351, 33.4259, 26.9844, -8.73803, -86.3643, 3.19602
0.324, -1, -13.2591, 33.3742, 26.9728, -8.59957, -86.1941, 3.09847
0.328, -1, -13.1672, 33.3225, 26.9612, -8.46107, -86.0239, 3.00088
0.332, -1, -13.0752, 33.2707, 26.9496, -8.32251, -85.8537, 2.90325
0.336, -1, -12.9832, 33.219, 26.938, -8.18391, -85.6834, 2.8056
0.34, -1, -12.8912, 33.1672, 26.9264, -8.04527, -85.513, 2.70792
0.344, -1, -12.7991, 33.1154, 26.9148, -7.9066, -85.3426, 2.61021
0.348, -1, -12.7071, 33.0636, 26.9032, -7.7679, -85.1722, 2.51248
0.352, -1, -12.615, 33.0118, 26.8916, -7.62917, -85.0017, 2.41474
0.356, -1, -12.5229, 32.9599, 26.88, -7.49042, -84.8312, 2.31698
0.36, -1, -12.4308, 32.9081, 26.8684, -7.35165, -84.6607, 2.2192
0.364, -1, -12.3387, 32.8563, 26.8568, -7.21286, -84.4902, 2.12142
0.368, -1, -12.2466, 32.8044, 26.8452, -7.07407, -84.3197, 2.02362
0.372, -1, -12.1545, 32.7526, 26.8336, -6.93527, -84.1491, 1.92583
0.376, -1, -12.0623, 32.7007, 26.822, -6.79647, -83.9786, 1.82803
0.38, -1, -11.9702, 32.6489, 26.8104, -6.65767, -83.808, 1.73024
0.384, -1, -11.8781, 32.5971, 26.7988, -6.51889, -83.6375, 1.63245
0.388, -1, -11.786, 32.5452, 26.7872, -6.38011, -83.4669, 1.53467
0.392, -1, -11.6939, 32.4934, 26.7756, -6.24135, -83.2964, 1.4369
0.396, -1, -11.6018, 32.4416, 26.764, -6.10261, -83.126, 1.33915
0.4, -1, -11.5097, 32.3898, 26.7524, -5.96389, -82.9555, 1.24141
0.404, -1, -11.4177, 32.338, 26.7408, -5.8252, -82.7851, 1.14369
0.408, -1, -11.3256, 32.2862, 26.7292, -5.68655, -82.6147, 1.046
0.412, -1, -11.2336, 32.2344, 26.7176, -5.54793, -82.4444, 0.948334
0.416, -1, -11.1416, 32.1826, 26.706, -5.40936, -82.2741, 0.850697
0.42, -1, -11.0497, 32.1309, 26.6945, -5.27083, -82.1039, 0.753093
0.424, -1, -10.9577, 32.0792, 26.6829, -5.13235, -81.9337, 0.655523
0.428, -1, -10.8658, 32.0275, 26.6713, -4.99393, -81.7636, 0.557993
0.432, -1, -10.774, 31.9758, 26.6597, -4.85556, -81.5936, 0.460503
0.436, -1, -10.6822, 31.9241, 26.6482, -4.71726, -81.4237, 0.363058
0.44, -1, -10.5904, 31.8725, 26.6366, -4.57903, -81.2538, 0.26566
0.444, -1, -10.4986, 31.8209, 26.625, -4.44086, -81.0841, 0.168312
0.448, -1, -10.4069, 31.7693, 26.6135, -4.30277, -80.9144, 0.0710176
0.452, -1, -10.3153, 31.7178, 26.602, -4.16477, -80.7448, -0.0262211
0.456, -1, -10.2237, 31.6662, 26.5904, -4.02684, -80.5753, -0.123401
0.46, -1, -10.1322, 31.6148, 26.5789, -3.889, -80.406, -0.220519
0.464, -1, -10.0407, 31.5633, 26.5674, -3.75126, -80.2367, -0.317573
0.468, -1, -9.9493, 31.5119, 26.5559, -3.61361, -80.0676, -0.41456
0.472, -1, -9.85796, 31.4605, 26.5444, -3.47605, -79.8985, -0.511477
0.476, -1, -9.76668, 31.4092, 26.5329, -3.3386, -79.7296, -0.60832
0.48, -1, -9.67548, 31.3579, 26.5214, -3.20126, -79.5609, -0.705089
0.484, -1, -9.58434, 31.3066, 26.5099, -3.06403, -79.3923, -0.801779
0.488, -1, -9.49329, 31.2554, 26.4984, -2.92692, -79.2238, -0.898388
0.492, -1, -9.4023, 31.2042, 26.487, -2.78992, -79.0554, -0.994913
0.496, -1, -9.31141, 31.1531, 26.4755, -2.65305, -78.8872, -1.09135
0.5, -1, -9.22059, 31.102, 26.4641, -2.5163, -78.7192, -1.1877
0.504, -1, -9.12986, 31.051, 26.4527, -2.37968, -78.5513, -1.28396
0.508, -1, -9.03921, 31, 26.4413, -2.2432, -78.3836, -1.38013
0.512, -1, -8.94865, 30.9491, 26.4299, -2.10685, -78.2161, -1.47619
0.516, -1, -8.85819, 30.8982, 26.4185, -1.97064, -78.0487, -1.57216
0.52, -1, -8.76782, 30.8474, 26.4071, -1.83458, -77.8815, -1.66803
0.524, -1, -8.67755, 30.7966, 26.3957, -1.69867, -77.7145, -1.7638
0.528, -1, -8.58737, 30.7459, 26.3844, -1.5629, -77.5477, -1.85945
0.532, -1, -8.4973, 30.6952, 26.373, -1.42729, -77.3811, -1.955
0.536, -1, -8.40733, 30.6446, 26.3617, -1.29183, -77.2146, -2.05044
0.54, -1, -8.31746, 30.5941, 26.3504, -1.15654, -77.0484, -2.14577
0.544, -1, -8.22771, 30.5436, 26.3391, -1.02141, -76.8823, -2.24098
0.548, -1, -8.13806, 30.4932, 26.3278, -0.886442, -76.7165, -2.33608
0.552, -1, -8.04852, 30.4428, 26.3165, -0.751646, -76.5509, -2.43105
0.556, -1, -7.9591, 30.3925, 26.3053, -0.617022, -76.3854, -2.5259
0.56, -1, -7.86979, 30.3423, 26.294, -0.482572, -76.2202, -2.62064
0.564, -1, -7.7806, 30.2921, 26.2828, -0.348301, -76.0552, -2.71524
0.568, -1, -7.69153, 30.2421, 26.2716, -0.21421, -75.8905, -2.80972
0.572, -1, -7.60258, 30.192, 26.2604, -0.0803022, -75.7259, -2.90407
0.576, -1, -7.51375, 30.1421, 26.2492, 0.0534192, -75.5616, -2.99829
0.58, -1, -7.42505, 30.0922, 26.2381, 0.186952, -75.3975, -3.09237
0.584, -1, -7.33647, 30.0424, 26.2269, 0.320293, -75.2337, -3.18632
0.588, -1, -7.24802, 29.9926, 26.2158, 0.45344, -75.0701, -3.28014
0.592, -1, -7.1597, 29.943, 26.2047, 0.58639, -74.9067, -3.37381
0.596, -1, -7.07152, 29.8934, 26.1936, 0.719142, -74.7436, -3.46735
0.6, -1, -6.98346, 29.8438, 26.1825, 0.851691, -74.5807, -3.56074
0.604, -1, -6.89554, 29.7944, 26.1714, 0.984037, -74.4181, -3.65399
0.608, -1, -6.80776, 29.745, 26.1604, 1.11618, -74.2557, -3.74709
0.612, -1, -6.72011, 29.6957, 26.1493, 1.24811, -74.0936, -3.84005
0.616, -1, -6.63261, 29.6465, 26.1383, 1.37983, -73.9318, -3.93285
0.62, -1, -6.54524, 29.5974, 26.1273, 1.51133, -73.7702, -4.02551
0.624, -1, -6.45802, 29.5484, 26.1163, 1.64262, -73.6089, -4.11802
0.628, -1, -6.37094, 29.4994, 26.1054, 1.7737, -73.4478, -4.21037
0.632, -1, -6.28401, 29.4505, 26.0944, 1.90455, -73.287, -4.30257
0.636, -1, -6.19722, 29.4017, 26.0835, 2.03518, -73.1265, -4.39461
0.64, -1, -6.11058, 29.353, 26.0726, 2.16559, -72.9663, -4.48649
0.644, -1, -6.02409, 29.3043, 26.0617, 2.29577, -72.8063, -4.57822
0.648, -1, -5.93775, 29.2558, 26.0509, 2.42572, -72.6466, -4.66978
0.652, -1, -5.85156, 29.2073, 26.04, 2.55545, -72.4872, -4.76118
0.656, -1, -5.76553, 29.1589, 26.0292, 2.68494, -72.3281, -4.85242
0.66, -1, -5.67965, 29.1106, 26.0184, 2.8142, -72.1693, -4.94349
0.664, -1, -5.59392, 29.0624, 26.0076, 2.94322, -72.0107, -5.0344
0.668, -1, -5.50836, 29.0143, 25.9968, 3.07201, -71.8525, -5.12514
0.672, -1, -5.42294, 28.9663, 25.9861, 3.20056, -71.6945, -5.21572
0.676, -1, -5.33769, 28.9183, 25.9753, 3.32887, -71.5368, -5.30612
0.68, -1, -5.2526, 28.8705, 25.9646, 3.45693, -71.3795, -5.39636
0.684, -1, -5.16767, 28.8227, 25.954, 3.58476, -71.2224, -5.48642
0.688, -1, -5.0829, 28.7751, 25.9433, 3.71233, -71.0657, -5.57631
0.692, -1, -4.9983, 28.7275, 25.9326, 3.83967, -70.9092, -5.66602
0.696, -1, -4.91386, 28.68, 25.922, 3.96675, -70.753, -5.75557
0.7, -1, -4.82958, 28.6326, 25.9114, 4.09359, -70.5972, -5.84493
0.704, -1, -4.74547, 28.5853, 25.9008, 4.22017, -70.4416, -5.93412
0.708, -1, -4.66153, 28.5381, 25.8903, 4.3465, -70.2864, -6.02313
0.712, -1, -4.57775, 28.491, 25.8797, 4.47258, -70.1315, -6.11197
0.716, -1, -4.49414, 28.444, 25.8692, 4.59841, -69.9769, -6.20062
0.72, -1, -4.4107, 28.3971, 25.8587, 4.72398, -69.8226, -6.2891
0.724, -1, -4.32743, 28.3502, 25.8482, 4.84929, -69.6686, -6.37739
0.728, -1, -4.24433, 28.3035, 25.8378, 4.97435, -69.5149, -6.4655
0.732, -1, -4.1614, 28.2569, 25.8273, 5.09914, -69.3616, -6.55343
0.736, -1, -4.07864, 28.2104, 25.8169, 5.22368, -69.2086, -6.64118
0.74, -1, -3.99605, 28.1639, 25.8065, 5.34796, -69.0559, -6.72874
0.744, -1, -3.91363, 28.1176, 25.7962, 5.47197, -68.9035, -6.81612
0.748, -1, -3.83139, 28.0713, 25.7858, 5.59573, -68.7514, -6.90332
0.752, -1, -3.74932, 28.0252, 25.7755, 5.71922, -68.5997, -6.99033
0.756, -1, -3.66742, 27.9791, 25.7652, 5.84245, -68.4482, -7.07716
0.76, -1, -3.58569, 27.9332, 25.7549, 5.96542, -68.2971, -7.1638
0.764, -1, -3.50414, 27.8873, 25.7447, 6.08812, -68.1464, -7.25026
0.768, -1, -3.42277, 27.8416, 25.7344, 6.21056, -67.9959, -7.33653
0.772, -1, -3.34156, 27.7959, 25.7242, 6.33274, -67.8458, -7.42261
0.776, -1, -3.26053, 27.7503, 25.714, 6.45465, -67.696, -7.50851
0.78, -1, -3.17968, 27.7049, 25.7038, 6.57631, -67.5465, -7.59423
0.784, -1, -3.099, 27.6595, 25.6937, 6.69769, -67.3973, -7.67975
0.788, -1, -3.0185, 27.6143, 25.6836, 6.81882, -67.2485, -7.7651
0.792, -1, -2.93816, 27.5691, 25.6735, 6.93968, -67.1, -7.85026
0.796, -1, -2.85801, 27.524, 25.6634, 7.06028, -66.9518, -7.93523
0.8, -1, -2.77803, 27.479, 25.6533, 7.18061, -66.8039, -8.02001
0.804, -1, -2.69822, 27.4342, 25.6433, 7.30068, -66.6564, -8.10461
0.808, -1, -2.61859, 27.3894, 25.6333, 7.42049, -66.5092, -8.18903
0.812, -1, -2.53913, 27.3447, 25.6233, 7.54004, -66.3623, -8.27326
0.816, -1, -2.45984, 27.3001, 25.6133, 7.65932, -66.2157, -8.35731
0.82, -1, -2.38073, 27.2557, 25.6034, 7.77834, -66.0695, -8.44117
0.824, -1, -2.3018, 27.2113, 25.5934, 7.8971, -65.9235, -8.52484
0.828, -1, -2.22303, 27.167, 25.5835, 8.0156, -65.7779, -8.60833
0.832, -1, -2.14444, 27.1228, 25.5736, 8.13383, -65.6327, -8.69164
0.836, -1, -2.06603, 27.0787, 25.5638, 8.25181, -65.4877, -8.77477
0.84, -1, -1.98779, 27.0347, 25.5539, 8.36952, -65.343, -8.8577
0.844, -1, -1.90972, 26.9908, 25.5441, 8.48697, -65.1987, -8.94046
0.848, -1, -1.83182, 26.947, 25.5343, 8.60416, -65.0547, -9.02303
0.852, -1, -1.7541, 26.9033, 25.5246, 8.7211, -64.911, -9.10542
0.856, -1, -1.67655, 26.8597, 25.5148, 8.83777, -64.7677, -9.18763
0.86, -1, -1.59917, 26.8162, 25.5051, 8.95418, -64.6246, -9.26965
0.864, -1, -1.52196, 26.7728, 25.4954, 9.07033, -64.4819, -9.35149
0.868, -1, -1.44493, 26.7295, 25.4857, 9.18623, -64.3395, -9.43315
0.872, -1, -1.36806, 26.6863, 25.476, 9.30186, -64.1974, -9.51462
0.876, -1, -1.29137, 26.6432, 25.4664, 9.41724, -64.0556, -9.59592
0.88, -1, -1.21485, 26.6001, 25.4567, 9.53236, -63.9142, -9.67703
0.884, -1, -1.1385, 26.5572, 25.4471, 9.64723, -63.773, -9.75796
0.888, -1, -1.06232, 26.5144, 25.4376, 9.76183, -63.6322, -9.83871
0.892, -1, -0.986311, 26.4716, 25.428, 9.87618, -63.4917, -9.91928
0.896, -1, -0.910471, 26.429, 25.4185, 9.99028, -63.3515, -9.99967
0.9, -1, -0.8348, 26.3864, 25.409, 10.1041, -63.2116, -10.0799
0.904, -1, -0.759299, 26.344, 25.3995, 10.2177, -63.0721, -10.1599
0.908, -1, -0.683967, 26.3016, 25.39, 10.331, -62.9328, -10.2398
0.912, -1, -0.608804, 26.2594, 25.3805, 10.4441, -62.7939, -10.3194
0.916, -1, -0.533808, 26.2172, 25.3711, 10.5569, -62.6552, -10.3989
0.92, -1, -0.458981, 26.1751, 25.3617, 10.6695, -62.5169, -10.4782
0.924, -1, -0.384322, 26.1332, 25.3523, 10.7818, -62.3789, -10.5574
0.928, -1, -0.30983, 26.0913, 25.3429, 10.8939, -62.2412, -10.6363
0.932, -1, -0.235505, 26.0495, 25.3336, 11.0057, -62.1038, -10.7151
0.936, -1, -0.161347, 26.0078, 25.3243, 11.1173, -61.9667, -10.7937
0.94, -1, -0.0873549, 25.9662, 25.315, 11.2286, -61.8299, -10.8722
0.944, -1, -0.013529, 25.9247, 25.3057, 11.3396, -61.6935, -10.9504
0.948, -1, 0.0601312, 25.8833, 25.2964, 11.4504, -61.5573, -11.0285
0.952, -1, 0.133626, 25.8419, 25.2872, 11.561, -61.4215, -11.1064
0.956, -1, 0.206956, 25.8007, 25.278, 11.6713, -61.2859, -11.1841
0.96, -1, 0.280122, 25.7596, 25.2688, 11.7814, -61.1507, -11.2617
0.964, -1, 0.353123, 25.7185, 25.2596, 11.8912, -61.0157, -11.339
0.968, -1, 0.42596, 25.6776, 25.2504, 12.0008, -60.8811, -11.4162
0.972, -1, 0.498634, 25.6367, 25.2413, 12.1101, -60.7467, -11.4933
0.976, -1, 0.571145, 25.5959, 25.2322, 12.2192, -60.6127, -11.5701
0.98, -1, 0.643494, 25.5553, 25.2231, 12.328, -60.479, -11.6468
0.984, -1, 0.71568, 25.5147, 25.214, 12.4366, -60.3455, -11.7233
0.988, -1, 0.787704, 25.4742, 25.2049, 12.545, -60.2124, -11.7997
0.992, -1, 0.859567, 25.4338, 25.1959, 12.6531, -60.0796, -11.8758
0.996, -1, 0.931268, 25.3935, 25.1869, 12.7609, -59.947, -11.9518
1, -1, 1.00281, 25.3532, 25.1779, 12.8686, -59.8148, -12.0277
1.004, -1, 1.07419, 25.3131, 25.1689, 12.9759, -59.6828, -12.1033
1.008, -1, 1.14541, 25.2731, 25.16, 13.0831, -59.5512, -12.1788
1.012, -1, 1.21647, 25.2331, 25.151, 13.19, -59.4198, -12.2541
1.016, -1, 1.28738, 25.1932, 25.1421, 13.2966, -59.2888, -12.3293
1.02, -1, 1.35813, 25.1535, 25.1332, 13.4031, -59.158, -12.4043
1.024, -1, 1.42871, 25.1138, 25.1243, 13.5092, -59.0275, -12.4791
1.027, -1, 1.49915, 25.0742, 25.1155, 13.6152, -58.8973, -12.5537
1.032, -1, 1.56942, 25.0347, 25.1067, 13.7209, -58.7674, -12.6282
1.036, -1, 1.63954, 24.9952, 25.0978, 13.8264, -58.6378, -12.7025
1.04, -1, 1.70951, 24.9559, 25.089, 13.9316, -58.5085, -12.7767
1.044, -1, 1.77932, 24.9167, 25.0803, 14.0366, -58.3795, -12.8507
1.048, -1, 1.84898, 24.8775, 25.0715, 14.1414, -58.2507, -12.9245
1.052, -1, 1.91848, 24.8384, 25.0628, 14.246, -58.1223, -12.9982
1.055, -1, 1.98783, 24.7994, 25.0541, 14.3503, -57.9941, -13.0717
1.06, -1, 2.05703, 24.7605, 25.0454, 14.4544, -57.8662, -13.145
1.064, -1, 2.12608, 24.7217, 25.0367, 14.5582, -57.7386, -13.2182
1.068, -1, 2.19497, 24.683, 25.028, 14.6618, -57.6112, -13.2912
1.072, -1, 2.26372, 24.6443, 25.0194, 14.7652, -57.4842, -13.3641
1.076, -1, 2.33231, 24.6057, 25.0107, 14.8684, -57.3574, -13.4368
1.08, -1, 2.40076, 24.5673, 25.0021, 14.9714, -57.2309, -13.5093
1.084, -1, 2.46906, 24.5289, 24.9936, 15.0741, -57.1047, -13.5817
1.088, -1, 2.53721, 24.4905, 24.985, 15.1766, -56.9787, -13.6539
1.091, -1, 2.60521, 24.4523, 24.9764, 15.2789, -56.853, -13.726
1.096, -1, 2.67306, 24.4142, 24.9679, 15.381, -56.7276, -13.7979
1.1, -1, 2.74078, 24.3761, 24.9594, 15.4828, -56.6024, -13.8697
1.104, -1, 2.80834, 24.3381, 24.9509, 15.5845, -56.4776, -13.9413
1.108, -1, 2.87576, 24.3002, 24.9424, 15.6859, -56.353, -14.0127
1.112, -1, 2.94304, 24.2624, 24.934, 15.7871, -56.2286, -14.084
1.116, -1, 3.01017, 24.2246, 24.9255, 15.888, -56.1045, -14.1552
1.119, -1, 3.07716, 24.187, 24.9171, 15.9888, -55.9807, -14.2262
1.124, -1, 3.14401, 24.1494, 24.9087, 16.0894, -55.8572, -14.297
1.128, -1, 3.21072, 24.1119, 24.9003, 16.1897, -55.7339, -14.3677
1.132, -1, 3.27729, 24.0744, 24.892, 16.2898, -55.6108, -14.4383
1.136, -1, 3.34372, 24.0371, 24.8836, 16.3898, -55.488, -14.5087
1.14, -1, 3.41001, 23.9998, 24.8753, 16.4895, -55.3655, -14.5789
1.144, -1, 3.47616, 23.9626, 24.867, 16.589, -55.2433, -14.649
1.147, -1, 3.54217, 23.9255, 24.8587, 16.6883, -55.1212, -14.719
1.152, -1, 3.60804, 23.8885, 24.8504, 16.7873, -54.9995, -14.7888
1.156, -1, 3.67378, 23.8515, 24.8421, 16.8862, -54.878, -14.8585
1.16, -1, 3.73938, 23.8146, 24.8339, 16.9849, -54.7567, -14.928
1.164, -1, 3.80485, 23.7778, 24.8256, 17.0834, -54.6357, -14.9974
1.168, -1, 3.87018, 23.7411, 24.8174, 17.1816, -54.515, -15.0666
1.172, -1, 3.93537, 23.7045, 24.8092, 17.2797, -54.3945, -15.1357
1.175, -1, 4.00044, 23.6679, 24.8011, 17.3776, -54.2742, -15.2047
1.18, -1, 4.06536, 23.6314, 24.7929, 17.4752, -54.1542, -15.2735
1.184, -1, 4.13016, 23.5949, 24.7847, 17.5727, -54.0345, -15.3422
1.188, -1, 4.19482, 23.5586, 24.7766, 17.67, -53.9149, -15.4107
1.192, -1, 4.25936, 23.5223, 24.7685, 17.767, -53.7957, -15.4791
1.196, -1, 4.32376, 23.4861, 24.7604, 17.8639, -53.6766, -15.5474
1.2, -1, 4.38803, 23.45, 24.7523, 17.9606, -53.5578, -15.6155
1.204, -1, 4.45217, 23.4139, 24.7443, 18.0571, -53.4393, -15.6835
1.208, -1, 4.51618, 23.3779, 24.7362, 18.1534, -53.321, -15.7513
1.212, -1, 4.58006, 23.342, 24.7282, 18.2495, -53.2029, -15.819
1.216, -1, 4.64382, 23.3061, 24.7202, 18.3454, -53.0851, -15.8866
1.22, -1, 4.70745, 23.2704, 24.7122, 18.4411, -52.9675, -15.954
1.224, -1, 4.77095, 23.2347, 24.7042, 18.5366, -52.8501, -16.0213
1.228, -1, 4.83432, 23.199, 24.6962, 18.6319, -52.733, -16.0885
1.232, -1, 4.89757, 23.1635, 24.6883, 18.727, -52.6161, -16.1555
1.236, -1, 4.96069, 23.128, 24.6803, 18.822, -52.4994, -16.2224
1.24, -1, 5.02369, 23.0926, 24.6724, 18.9168, -52.3829, -16.2892
1.244, -1, 5.08656, 23.0572, 24.6645, 19.0113, -52.2667, -16.3558
1.248, -1, 5.14931, 23.0219, 24.6566, 19.1057, -52.1508, -16.4223
1.252, -1, 5.21193, 22.9867, 24.6488, 19.1999, -52.035, -16.4887
1.256, -1, 5.27444, 22.9516, 24.6409, 19.2939, -51.9195, -16.5549
1.26, -1, 5.33682, 22.9165, 24.6331, 19.3878, -51.8042, -16.621
1.264, -1, 5.39908, 22.8815, 24.6252, 19.4814, -51.6891, -16.687
1.267, -1, 5.46121, 22.8466, 24.6174, 19.5749, -51.5742, -16.7529
1.272, -1, 5.52323, 22.8117, 24.6096, 19.6682, -51.4596, -16.8186
1.276, -1, 5.58513, 22.7769, 24.6018, 19.7613, -51.3452, -16.8842
1.28, -1, 5.6469, 22.7422, 24.5941, 19.8542, -51.231, -16.9497
1.284, -1, 5.70856, 22.7075, 24.5863, 19.947, -51.1171, -17.015
1.288, -1, 5.7701, 22.6729, 24.5786, 20.0395, -51.0033, -17.0803
1.292, -1, 5.83152, 22.6384, 24.5709, 20.1319, -50.8898, -17.1454
1.295, -1, 5.89282, 22.6039, 24.5632, 20.2241, -50.7765, -17.2103
1.3, -1, 5.95401, 22.5695, 24.5555, 20.3162, -50.6634, -17.2752
1.304, -1, 6.01508, 22.5352, 24.5478, 20.408, -50.5505, -17.3399
1.308, -1, 6.07603, 22.5009, 24.5401, 20.4997, -50.4379, -17.4045
1.312, -1, 6.13687, 22.4667, 24.5325, 20.5912, -50.3254, -17.469
1.316, -1, 6.19759, 22.4326, 24.5249, 20.6826, -50.2132, -17.5333
1.32, -1, 6.25819, 22.3985, 24.5172, 20.7737, -50.1012, -17.5976
1.324, -1, 6.31869, 22.3645, 24.5096, 20.8647, -49.9894, -17.6617
1.328, -1, 6.37907, 22.3305, 24.502, 20.9555, -49.8778, -17.7257
1.332, -1, 6.43933, 22.2966, 24.4945, 21.0462, -49.7664, -17.7895
1.336, -1, 6.49948, 22.2628, 24.4869, 21.1367, -49.6552, -17.8533
1.34, -1, 6.55952, 22.2291, 24.4794, 21.227, -49.5442, -17.9169
1.344, -1, 6.61945, 22.1954, 24.4718, 21.3171, -49.4335, -17.9804
1.348, -1, 6.67926, 22.1617, 24.4643, 21.4071, -49.3229, -18.0438
1.352, -1, 6.73897, 22.1282, 24.4568, 21.4969, -49.2125, -18.1071
1.356, -1, 6.79856, 22.0947, 24.4493, 21.5865, -49.1024, -18.1703
1.36, -1, 6.85805, 22.0612, 24.4418, 21.676, -48.9924, -18.2333
1.364, -1, 6.91742, 22.0278, 24.4344, 21.7653, -48.8827, -18.2962
1.368, -1, 6.97669, 21.9945, 24.4269, 21.8545, -48.7732, -18.3591
1.372, -1, 7.03584, 21.9613, 24.4195, 21.9435, -48.6638, -18.4218
1.376, -1, 7.09489, 21.9281, 24.4121, 22.0323, -48.5547, -18.4843
1.38, -1, 7.15383, 21.8949, 24.4046, 22.1209, -48.4457, -18.5468
1.384, -1, 7.21267, 21.8618, 24.3972, 22.2094, -48.337, -18.6092
1.388, -1, 7.2714, 21.8288, 24.3899, 22.2978, -48.2284, -18.6714
1.392, -1, 7.33002, 21.7959, 24.3825, 22.386, -48.1201, -18.7335
1.396, -1, 7.38854, 21.763, 24.3751, 22.474, -48.0119, -18.7956
1.4, -1, 7.44695, 21.7301, 24.3678, 22.5618, -47.904, -18.8575
1.404, -1, 7.50525, 21.6973, 24.3605, 22.6495, -47.7962, -18.9193
1.408, -1, 7.56346, 21.6646, 24.3532, 22.7371, -47.6886, -18.9809
1.412, -1, 7.62156, 21.6319, 24.3458, 22.8245, -47.5812, -19.0425
1.416, -1, 7.67955, 21.5993, 24.3386, 22.9117, -47.4741, -19.104
1.42, -1, 7.73745, 21.5668, 24.3313, 22.9988, -47.3671, -19.1653
1.424, -1, 7.79524, 21.5343, 24.324, 23.0857, -47.2602, -19.2266
1.428, -1, 7.85293, 21.5019, 24.3168, 23.1725, -47.1536, -19.2877
1.432, -1, 7.91053, 21.4695, 24.3095, 23.2591, -47.0472, -19.3488
1.436, -1, 7.96802, 21.4372, 24.3023, 23.3456, -46.9409, -19.4097
1.44, -1, 8.02541, 21.4049, 24.2951, 23.4319, -46.8348, -19.4705
1.444, -1, 8.0827, 21.3727, 24.2879, 23.5181, -46.729, -19.5312
1.448, -1, 8.1399, 21.3405, 24.2807, 23.6041, -46.6232, -19.5918
1.452, -1, 8.19699, 21.3084, 24.2735, 23.69, -46.5177, -19.6523
1.456, -1, 8.25399, 21.2764, 24.2664, 23.7757, -46.4124, -19.7128
1.46, -1, 8.31089, 21.2444, 24.2592, 23.8613, -46.3072, -19.7731
1.464, -1, 8.36769, 21.2125, 24.2521, 23.9468, -46.2022, -19.8333
1.468, -1, 8.4244, 21.1806, 24.2449, 24.032, -46.0975, -19.8933
1.472, -1, 8.48101, 21.1488, 24.2378, 24.1172, -45.9928, -19.9533
1.476, -1, 8.53752, 21.117, 24.2307, 24.2022, -45.8884, -20.0132
1.48, -1, 8.59394, 21.0853, 24.2236, 24.287, -45.7841, -20.073
1.484, -1, 8.65026, 21.0536, 24.2165, 24.3718, -45.68, -20.1327
1.488, -1, 8.70649, 21.022, 24.2095, 24.4563, -45.5761, -20.1923
1.492, -1, 8.76262, 20.9904, 24.2024, 24.5408, -45.4724, -20.2518
1.496, -1, 8.81866, 20.9589, 24.1954, 24.6251, -45.3688, -20.3112
1.5, -1, 8.87461, 20.9275, 24.1883, 24.7092, -45.2654, -20.3705
1.504, -1, 8.93046, 20.8961, 24.1813, 24.7932, -45.1621, -20.4297
1.508, -1, 8.98623, 20.8647, 24.1743, 24.8771, -45.0591, -20.4888
1.512, -1, 9.04189, 20.8334, 24.1673, 24.9608, -44.9562, -20.5478
1.516, -1, 9.09747, 20.8022, 24.1603, 25.0444, -44.8535, -20.6067
1.52, -1, 9.15296, 20.771, 24.1534, 25.1279, -44.7509, -20.6655
1.524, -1, 9.20836, 20.7398, 24.1464, 25.2112, -44.6485, -20.7242
1.528, -1, 9.26366, 20.7087, 24.1394, 25.2944, -44.5463, -20.7828
1.532, -1, 9.31888, 20.6777, 24.1325, 25.3774, -44.4443, -20.8413
1.536, -1, 9.37401, 20.6467, 24.1256, 25.4604, -44.3424, -20.8997
1.54, -1, 9.42904, 20.6158, 24.1187, 25.5431, -44.2407, -20.9581
1.544, -1, 9.48399, 20.5849, 24.1118, 25.6258, -44.1391, -21.0163
1.548, -1, 9.53885, 20.554, 24.1049, 25.7083, -44.0377, -21.0744
1.552, -1, 9.59363, 20.5232, 24.098, 25.7907, -43.9365, -21.1325
1.556, -1, 9.64831, 20.4925, 24.0911, 25.873, -43.8354, -21.1904
1.56, -1, 9.70291, 20.4618, 24.0842, 25.9551, -43.7345, -21.2483
1.564, -1, 9.75742, 20.4311, 24.0774, 26.0371, -43.6337, -21.3061
1.568, -1, 9.81184, 20.4005, 24.0705, 26.1189, -43.5331, -21.3637
1.572, -1, 9.86618, 20.37, 24.0637, 26.2007, -43.4327, -21.4213
1.576, -1, 9.92043, 20.3395, 24.0569, 26.2823, -43.3324, -21.4788
1.58, -1, 9.9746, 20.309, 24.0501, 26.3638, -43.2323, -21.5362
1.584, -1, 10.0287, 20.2786, 24.0433, 26.4451, -43.1324, -21.5936
1.588, -1, 10.0827, 20.2483, 24.0365, 26.5263, -43.0326, -21.6508
1.592, -1, 10.1366, 20.218, 24.0297, 26.6074, -42.9329, -21.7079
1.596, -1, 10.1904, 20.1877, 24.023, 26.6884, -42.8334, -21.765
1.6, -1, 10.2442, 20.1575, 24.0162, 26.7692, -42.7341, -21.8219
1.604, -1, 10.2978, 20.1273, 24.0095, 26.85, -42.6349, -21.8788
1.608, -1, 10.3514, 20.0972, 24.0027, 26.9306, -42.5359, -21.9356
1.612, -1, 10.4049, 20.0671, 23.996, 27.011, -42.437, -21.9923
1.616, -1, 10.4583, 20.0371, 23.9893, 27.0914, -42.3382, -22.0489
1.62, -1, 10.5117, 20.0071, 23.9826, 27.1716, -42.2397, -22.1054
1.624, -1, 10.5649, 19.9771, 23.9759, 27.2517, -42.1412, -22.1619
1.628, -1, 10.6181, 19.9472, 23.9692, 27.3317, -42.0429, -22.2182
1.632, -1, 10.6712, 19.9174, 23.9625, 27.4116, -41.9448, -22.2745
1.636, -1, 10.7242, 19.8876, 23.9559, 27.4913, -41.8468, -22.3307
1.64, -1, 10.7771, 19.8578, 23.9492, 27.5709, -41.749, -22.3868
1.644, -1, 10.83, 19.8281, 23.9426, 27.6504, -41.6513, -22.4428
1.648, -1, 10.8828, 19.7984, 23.9359, 27.7298, -41.5538, -22.4987
1.652, -1, 10.9355, 19.7688, 23.9293, 27.8091, -41.4564, -22.5546
1.656, -1, 10.9881, 19.7392, 23.9227, 27.8882, -41.3591, -22.6104
1.66, -1, 11.0406, 19.7097, 23.9161, 27.9672, -41.262, -22.666
1.664, -1, 11.0931, 19.6802, 23.9095, 28.0461, -41.1651, -22.7216
1.668, -1, 11.1455, 19.6507, 23.9029, 28.1249, -41.0682, -22.7772
1.672, -1, 11.1978, 19.6213, 23.8963, 28.2036, -40.9716, -22.8326
1.676, -1, 11.25, 19.592, 23.8898, 28.2822, -40.875, -22.8879
1.68, -1, 11.3022, 19.5627, 23.8832, 28.3606, -40.7786, -22.9432
1.684, -1, 11.3542, 19.5334, 23.8767, 28.439, -40.6824, -22.9984
1.688, -1, 11.4062, 19.5041, 23.8701, 28.5172, -40.5863, -23.0535
1.692, -1, 11.4582, 19.4749, 23.8636, 28.5953, -40.4903, -23.1085
1.696, -1, 11.51, 19.4458, 23.8571, 28.6733, -40.3945, -23.1635
1.7, -1, 11.5618, 19.4167, 23.8506, 28.7511, -40.2988, -23.2184
1.704, -1, 11.6135, 19.3876, 23.8441, 28.8289, -40.2032, -23.2732
1.708, -1, 11.6651, 19.3586, 23.8376, 28.9066, -40.1078, -23.3279
1.712, -1, 11.7166, 19.3296, 23.8311, 28.9841, -40.0125, -23.3825
1.716, -1, 11.7681, 19.3007, 23.8246, 29.0615, -39.9174, -23.4371
1.72, -1, 11.8195, 19.2718, 23.8182, 29.1388, -39.8224, -23.4915
1.724, -1, 11.8709, 19.2429, 23.8117, 29.2161, -39.7275, -23.5459
1.728, -1, 11.9221, 19.2141, 23.8053, 29.2931, -39.6328, -23.6003
1.732, -1, 11.9733, 19.1853, 23.7989, 29.3701, -39.5382, -23.6545
1.736, -1, 12.0244, 19.1566, 23.7924, 29.447, -39.4437, -23.7087
1.74, -1, 12.0754, 19.1279, 23.786, 29.5238, -39.3494, -23.7628
1.744, -1, 12.1264, 19.0992, 23.7796, 29.6004, -39.2552, -23.8168
1.748, -1, 12.1773, 19.0706, 23.7732, 29.677, -39.1611, -23.8707
1.752, -1, 12.2281, 19.0421, 23.7668, 29.7535, -39.0672, -23.9246
1.756, -1, 12.2789, 19.0135, 23.7604, 29.8298, -38.9734, -23.9784
1.76, -1, 12.3295, 18.985, 23.7541, 29.906, -38.8797, -24.0321
1.764, -1, 12.3802, 18.9566, 23.7477, 29.9822, -38.7861, -24.0857
1.768, -1, 12.4307, 18.9282, 23.7414, 30.0582, -38.6927, -24.1393
1.772, -1, 12.4812, 18.8998, 23.735, 30.1341, -38.5995, -24.1928
1.776, -1, 12.5316, 18.8714, 23.7287, 30.2099, -38.5063, -24.2462
1.78, -1, 12.5819, 18.8431, 23.7223, 30.2856, -38.4133, -24.2995
1.784, -1, 12.6322, 18.8149, 23.716, 30.3612, -38.3204, -24.3528
1.788, -1, 12.6824, 18.7867, 23.7097, 30.4367, -38.2276, -24.406
1.792, -1, 12.7325, 18.7585, 23.7034, 30.5121, -38.1349, -24.4591
1.796, -1, 12.7825, 18.7303, 23.6971, 30.5874, -38.0424, -24.5122
1.8, -1, 12.8325, 18.7022, 23.6908, 30.6626, -37.95, -24.5652
1.804, -1, 12.8825, 18.6742, 23.6846, 30.7377, -37.8578, -24.6181
1.808, -1, 12.9323, 18.6461, 23.6783, 30.8127, -37.7656, -24.6709
1.812, -1, 12.9821, 18.6181, 23.672, 30.8876, -37.6736, -24.7237
1.816, -1, 13.0318, 18.5902, 23.6658, 30.9624, -37.5817, -24.7764
1.82, -1, 13.0815, 18.5623, 23.6596, 31.0371, -37.4899, -24.829
1.824, -1, 13.1311, 18.5344, 23.6533, 31.1117, -37.3982, -24.8816
1.828, -1, 13.1806, 18.5065, 23.6471, 31.1862, -37.3067, -24.9341
1.832, -1, 13.23, 18.4787, 23.6409, 31.2606, -37.2153, -24.9865
1.836, -1, 13.2794, 18.451, 23.6347, 31.3349, -37.124, -25.0388
1.84, -1, 13.3288, 18.4232, 23.6285, 31.4091, -37.0328, -25.0911
1.844, -1, 13.378, 18.3955, 23.6223, 31.4832, -36.9418, -25.1433
1.848, -1, 13.4272, 18.3679, 23.6161, 31.5572, -36.8508, -25.1955
1.852, -1, 13.4764, 18.3402, 23.6099, 31.6311, -36.76, -25.2475
1.856, -1, 13.5254, 18.3127, 23.6037, 31.7049, -36.6693, -25.2995
1.86, -1, 13.5744, 18.2851, 23.5976, 31.7786, -36.5787, -25.3515
1.864, -1, 13.6234, 18.2576, 23.5914, 31.8522, -36.4883, -25.4034
1.868, -1, 13.6723, 18.2301, 23.5853, 31.9258, -36.3979, -25.4552
1.872, -1, 13.7211, 18.2027, 23.5792, 31.9992, -36.3077, -25.5069
1.876, -1, 13.7698, 18.1752, 23.573, 32.0725, -36.2176, -25.5586
1.88, -1, 13.8185, 18.1479, 23.5669, 32.1458, -36.1275, -25.6102
1.884, -1, 13.8672, 18.1205, 23.5608, 32.2189, -36.0377, -25.6617
1.888, -1, 13.9157, 18.0932, 23.5547, 32.292, -35.9479, -25.7132
1.892, -1, 13.9643, 18.0659, 23.5486, 32.365, -35.8582, -25.7646
1.896, -1, 14.0127, 18.0387, 23.5425, 32.4378, -35.7687, -25.816
1.9, -1, 14.0611, 18.0115, 23.5364, 32.5106, -35.6792, -25.8673
1.904, -1, 14.1094, 17.9843, 23.5303, 32.5833, -35.5899, -25.9185
1.908, -1, 14.1577, 17.9572, 23.5243, 32.6559, -35.5007, -25.9696
1.912, -1, 14.2059, 17.9301, 23.5182, 32.7284, -35.4116, -26.0207
1.916, -1, 14.254, 17.903, 23.5122, 32.8009, -35.3226, -26.0718
1.92, -1, 14.3021, 17.876, 23.5061, 32.8732, -35.2337, -26.1227
1.924, -1, 14.3501, 17.849, 23.5001, 32.9454, -35.145, -26.1736
1.928, -1, 14.3981, 17.822, 23.494, 33.0176, -35.0563, -26.2245
1.932, -1, 14.446, 17.7951, 23.488, 33.0897, -34.9677, -26.2752
1.936, -1, 14.4939, 17.7682, 23.482, 33.1616, -34.8793, -26.3259
1.94, -1, 14.5416, 17.7413, 23.476, 33.2335, -34.791, -26.3766
1.944, -1, 14.5894, 17.7145, 23.47, 33.3053, -34.7027, -26.4272
1.948, -1, 14.6371, 17.6877, 23.464, 33.377, -34.6146, -26.4777
1.952, -1, 14.6847, 17.6609, 23.458, 33.4487, -34.5266, -26.5282
1.956, -1, 14.7322, 17.6341, 23.452, 33.5202, -34.4387, -26.5786
1.96, -1, 14.7797, 17.6074, 23.4461, 33.5917, -34.3509, -26.6289
1.964, -1, 14.8272, 17.5808, 23.4401, 33.663, -34.2632, -26.6792
1.968, -1, 14.8745, 17.5541, 23.4342, 33.7343, -34.1756, -26.7294
1.972, -1, 14.9219, 17.5275, 23.4282, 33.8055, -34.0882, -26.7796
1.976, -1, 14.9692, 17.5009, 23.4223, 33.8766, -34.0008, -26.8297
1.98, -1, 15.0164, 17.4744, 23.4163, 33.9476, -33.9135, -26.8798
1.984, -1, 15.0635, 17.4479, 23.4104, 34.0186, -33.8263, -26.9297
1.988, -1, 15.1106, 17.4214, 23.4045, 34.0894, -33.7393, -26.9797
1.992, -1, 15.1577, 17.3949, 23.3986, 34.1602, -33.6523, -27.0295
1.996, -1, 15.2047, 17.3685, 23.3927, 34.2309, -33.5654, -27.0793
1.999, -1, 15.2516, 17.3421, 23.3868, 34.3015, -33.4787, -27.1291
2.004, -1, 15.2985, 17.3158, 23.3809, 34.372, -33.392, -27.1788
2.008, -1, 15.3453, 17.2894, 23.375, 34.4425, -33.3055, -27.2284
2.012, -1, 15.3921, 17.2631, 23.3691, 34.5128, -33.219, -27.278
2.015, -1, 15.4388, 17.2369, 23.3632, 34.5831, -33.1327, -27.3275
2.019, -1, 15.4855, 17.2106, 23.3574, 34.6533, -33.0464, -27.377
2.024, -1, 15.5321, 17.1844, 23.3515, 34.7234, -32.9602, -27.4264
2.028, -1, 15.5786, 17.1582, 23.3456, 34.7934, -32.8742, -27.4757
2.031, -1, 15.6251, 17.1321, 23.3398, 34.8634, -32.7882, -27.525
2.036, -1, 15.6716, 17.106, 23.334, 34.9333, -32.7024, -27.5742
2.04, -1, 15.718, 17.0799, 23.3281, 35.0031, -32.6166, -27.6234
2.044, -1, 15.7643, 17.0538, 23.3223, 35.0728, -32.531, -27.6725
2.048, -1, 15.8106, 17.0278, 23.3165, 35.1424, -32.4454, -27.7216
2.051, -1, 15.8568, 17.0018, 23.3107, 35.212, -32.3599, -27.7706
2.055, -1, 15.903, 16.9759, 23.3049, 35.2814, -32.2746, -27.8195
2.06, -1, 15.9491, 16.9499, 23.2991, 35.3508, -32.1893, -27.8684
2.064, -1, 15.9952, 16.924, 23.2933, 35.4201, -32.1041, -27.9173
2.068, -1, 16.0413, 16.8981, 23.2875, 35.4894, -32.019, -27.9661
2.071, -1, 16.0872, 16.8723, 23.2817, 35.5585, -31.9341, -28.0148
2.076, -1, 16.1331, 16.8465, 23.2759, 35.6276, -31.8492, -28.0635
2.08, -1, 16.179, 16.8207, 23.2702, 35.6966, -31.7644, -28.1121
2.084, -1, 16.2248, 16.7949, 23.2644, 35.7656, -31.6797, -28.1606
2.087, -1, 16.2706, 16.7692, 23.2587, 35.8344, -31.5951, -28.2092
2.092, -1, 16.3163, 16.7435, 23.2529, 35.9032, -31.5106, -28.2576
2.096, -1, 16.362, 16.7178, 23.2472, 35.9719, -31.4262, -28.306
2.1, -1, 16.4076, 16.6921, 23.2414, 36.0405, -31.3418, -28.3544
2.104, -1, 16.4532, 16.6665, 23.2357, 36.1091, -31.2576, -28.4027
2.107, -1, 16.4987, 16.6409, 23.23, 36.1775, -31.1735, -28.4509
2.111, -1, 16.5442, 16.6154, 23.2243, 36.2459, -31.0894, -28.4991
2.116, -1, 16.5896, 16.5898, 23.2186, 36.3143, -31.0055, -28.5472
2.12, -1, 16.635, 16.5643, 23.2129, 36.3825, -30.9216, -28.5953
2.124, -1, 16.6803, 16.5388, 23.2072, 36.4507, -30.8378, -28.6434
2.127, -1, 16.7255, 16.5134, 23.2015, 36.5188, -30.7542, -28.6913
2.132, -1, 16.7708, 16.488, 23.1958, 36.5868, -30.6706, -28.7393
2.136, -1, 16.8159, 16.4626, 23.1901, 36.6548, -30.5871, -28.7872
2.14, -1, 16.8611, 16.4372, 23.1844, 36.7226, -30.5037, -28.835
2.143, -1, 16.9061, 16.4118, 23.1788, 36.7904, -30.4204, -28.8828
2.148, -1, 16.9512, 16.3865, 23.1731, 36.8582, -30.3371, -28.9305
2.152, -1, 16.9961, 16.3612, 23.1675, 36.9258, -30.254, -28.9782
2.156, -1, 17.0411, 16.336, 23.1618, 36.9934, -30.1709, -29.0258
2.16, -1, 17.086, 16.3107, 23.1562, 37.061, -30.088, -29.0734
2.163, -1, 17.1307, 16.2856, 23.1505, 37.1284, -30.0051, -29.1209
2.168, -1, 17.1752, 16.2605, 23.1449, 37.1958, -29.9223, -29.1684
2.172, -1, 17.2191, 16.2357, 23.1392, 37.263, -29.8397, -29.2157
2.176, -1, 17.2623, 16.2112, 23.1335, 37.3301, -29.7572, -29.263
2.179, -1, 17.3045, 16.1873, 23.1277, 37.397, -29.6751, -29.3101
2.184, -1, 17.3456, 16.164, 23.1218, 37.4635, -29.5935, -29.357
2.188, -1, 17.3855, 16.1414, 23.116, 37.5293, -29.5126, -29.4033
2.192, -1, 17.4241, 16.1195, 23.1101, 37.5942, -29.433, -29.4491
2.196, -1, 17.4614, 16.0985, 23.1043, 37.6578, -29.3548, -29.4939
2.199, -1, 17.4974, 16.0784, 23.0986, 37.7198, -29.2788, -29.5376
2.204, -1, 17.532, 16.0593, 23.093, 37.7796, -29.2053, -29.5798
2.208, -1, 17.565, 16.0414, 23.0876, 37.837, -29.1349, -29.6202
2.212, -1, 17.5961, 16.0246, 23.0825, 37.8913, -29.0682, -29.6585
2.216, -1, 17.6255, 16.0089, 23.0778, 37.9423, -29.0056, -29.6944
2.219, -1, 17.6531, 15.9942, 23.0734, 37.9894, -28.9477, -29.7277
2.224, -1, 17.6791, 15.9802, 23.0695, 38.0325, -28.8949, -29.758
2.228, -1, 17.7034, 15.9668, 23.0661, 38.0711, -28.8475, -29.7852
2.232, -1, 17.7262, 15.9539, 23.0633, 38.1052, -28.8055, -29.8093
2.235, -1, 17.7475, 15.9416, 23.0609, 38.1349, -28.769, -29.8302
2.24, -1, 17.767, 15.9299, 23.0591, 38.1603, -28.7379, -29.848
2.244, -1, 17.7847, 15.9192, 23.0578, 38.1815, -28.7117, -29.863
2.248, -1, 17.8006, 15.9096, 23.0568, 38.1989, -28.6902, -29.8752
2.252, -1, 17.8146, 15.9012, 23.0561, 38.213, -28.6728, -29.8851
2.255, -1, 17.827, 15.8938, 23.0557, 38.2241, -28.6592, -29.8929
2.259, -1, 17.8379, 15.8875, 23.0556, 38.2326, -28.6486, -29.8989
2.264, -1, 17.8474, 15.8821, 23.0556, 38.239, -28.6407, -29.9034
2.268, -1, 17.8555, 15.8777, 23.0556, 38.2437, -28.6349, -29.9067
2.272, -1, 17.8622, 15.8741, 23.0558, 38.247, -28.6307, -29.9091
2.275, 2, 17.8677, 15.8713, 23.0559, 38.2493, -28.6278, -29.9107
2.28, 2, 17.8718, 15.8692, 23.0561, 38.2509, -28.6258, -29.9118
2.284, 2, 17.8749, 15.8678, 23.0562, 38.252, -28.6244, -29.9126
2.288, 2, 17.877, 15.8667, 23.0562, 38.2528, -28.6235, -29.9131
2.291, 2, 17.8785, 15.866, 23.0563, 38.2533, -28.6229, -29.9135
2.296, 2, 17.8795, 15.8655, 23.0563, 38.2536, -28.6224, -29.9137
2.3, 2, 17.8802, 15.8652, 23.0563, 38.2539, -28.6221, -29.9139
2.304, 2, 17.8806, 15.865, 23.0564, 38.254, -28.6219, -29.914
2.308, 2, 17.8809, 15.8649, 23.0564, 38.2541, -28.6218, -29.9141
2.311, 2, 17.8811, 15.8648, 23.0564, 38.2542, -28.6217, -29.9141
2.316, 2, 17.8813, 15.8647, 23.0564, 38.2543, -28.6216, -29.9142
2.32, 2, 17.8814, 15.8646, 23.0564, 38.2543, -28.6216, -29.9142
2.324, 2, 17.8814, 15.8646, 23.0564, 38.2543, -28.6216, -29.9142
2.328, 2, 17.8815, 15.8646, 23.0564, 38.2543, -28.6216, -29.9142
2.331, 2, 17.8815, 15.8646, 23.0564, 38.2543, -28.6215, -29.9142
2.336, 2, 17.8815, 15.8646, 23.0564, 38.2544, -28.6215, -29.9142
2.34, 2, 17.8815, 15.8646, 23.0564, 38.2544, -28.6215, -29.9142
2.344, 2, 17.8816, 15.8646, 23.0564, 38.2544, -28.6215, -29.9142
2.347, 2, 17.8816, 15.8646, 23.0564, 38.2544, -28.6215, -29.9142
2.352, 2, 17.8816, 15.8646, 23.0564, 38.2544, -28.6215, -29.9142
2.356, 2, 17.8816, 15.8646, 23.0564, 38.2544, -28.6215, -29.9142
2.36, 2, 17.8816, 15.8646, 23.0564, 38.2544, -28.6215, -29.9142
2.364, 2, 17.8816, 15.8645, 23.0564, 38.2544, -28.6215, -29.9142
2.367, 2, 17.8816, 15.8645, 23.0564, 38.2544, -28.6215, -29.9142
2.372, 2, 17.8816, 15.8645, 23.0564, 38.2544, -28.6215, -29.9142
2.376, 2, 17.8816, 15.8645, 23.0564, 38.2544, -28.6215, -29.9142
2.38, 2, 17.8816, 15.8645, 23.0564, 38.2544, -28.6215, -29.9142
2.383, 2, 17.8816, 15.8645, 23.0564, 38.2544, -28.6215, -29.9142
2.388, 2, 17.8816, 15.8645, 23.0564, 38.2544, -28.6215, -29.9142
2.392, 2, 17.8816, 15.8645, 23.0564, 38.2544, -28.6215, -29.9142
2.396, 2, 17.8816, 15.8645, 23.0564, 38.2544, -28.6215, -29.9142
2.4, 2, 17.8816, 15.8645, 23.0564, 38.2544, -28.6215, -29.9142
2.403, 2, 17.8816, 15.8645, 23.0564, 38.2544, -28.6215, -29.9142
2.408, 2, 17.8816, 15.8645, 23.0564, 38.2544, -28.6215, -29.9142
2.412, 2, 17.8816, 15.8645, 23.0564, 38.2544, -28.6215, -29.9142
2.416, 2, 17.8816, 15.8645, 23.0564, 38.2544, -28.6215, -29.9142
2.42, 2, 17.8816, 15.8645, 23.0564, 38.2544, -28.6215, -29.9142
2.423, 2, 17.8816, 15.8645, 23.0564, 38.2544, -28.6215, -29.9142
2.428, 2, 17.8816, 15.8645, 23.0564, 38.2544, -28.6215, -29.9142
2.432, 2, 17.8816, 15.8645, 23.0564, 38.2544, -28.6215, -29.9142
2.436, 2, 17.8816, 15.8645, 23.0564, 38.2544, -28.6215, -29.9142
2.439, 2, 17.8816, 15.8645, 23.0564, 38.2544, -28.6215, -29.9142
2.444, 2, 17.8816, 15.8645, 23.0564, 38.2544, -28.6215, -29.9142
2.448, 2, 17.8816, 15.8645, 23.0564, 38.2544, -28.6215, -29.9142
2.452, 2, 17.8816, 15.8645, 23.0564, 38.2544, -28.6215, -29.9142
2.456, 2, 17.8816, 15.8645, 23.0564, 38.2544, -28.6215, -29.9142
2.459, 2, 17.8816, 15.8645, 23.0564, 38.2544, -28.6215, -29.9142
2.464, 2, 17.8816, 15.8645, 23.0564, 38.2544, -28.6215, -29.9142
2.468, 2, 17.8816, 15.8645, 23.0564, 38.2544, -28.6215, -29.9142
2.472, 2, 17.8816, 15.8645, 23.0564, 38.2544, -28.6215, -29.9142
2.476, 2, 17.8816, 15.8645, 23.0564, 38.2544, -28.6215, -29.9142
2.479, 2, 17.8816, 15.8645, 23.0564, 38.2544, -28.6215, -29.9142
2.484, 2, 17.8816, 15.8645, 23.0564, 38.2544, -28.6215, -29.9142
2.488, 2, 17.8816, 15.8645, 23.0564, 38.2544, -28.6215, -29.9142
2.492, 2, 17.8816, 15.8645, 23.0564, 38.2544, -28.6215, -29.9142
2.495, 2, 17.8816, 15.8645, 23.0564, 38.2544, -28.6215, -29.9142
2.5, 2, 17.8816, 15.8645, 23.0564, 38.2544, -28.6215, -29.9142
2.504, 2, 17.8816, 15.8645, 23.0564, 38.2544, -28.6215, -29.9142
2.508, 2, 17.8816, 15.8645, 23.0564, 38.2544, -28.6215, -29.9142
2.512, 2, 17.8816, 15.8645, 23.0564, 38.2544, -28.6215, -29.9142
2.515, 2, 17.8816, 15.8645, 23.0564, 38.2544, -28.6215, -29.9142
2.52, 2, 17.8816, 15.8645, 23.0564, 38.2544, -28.6215, -29.9142
2.524, 2, 17.8816, 15.8645, 23.0564, 38.2544, -28.6215, -29.9142
2.528, 2, 17.8816, 15.8645, 23.0564, 38.2544, -28.6215, -29.9142
2.531, 2, 17.8816, 15.8645, 23.0564, 38.2544, -28.6215, -29.9142
2.536, 2, 17.8816, 15.8645, 23.0564, 38.2544, -28.6215, -29.9142
2.54, 2, 17.8816, 15.8645, 23.0564, 38.2544, -28.6215, -29.9142
2.544, 2, 17.8816, 15.8645, 23.0564, 38.2544, -28.6215, -29.9142
2.548, 2, 17.8816, 15.8645, 23.0564, 38.2544, -28.6215, -29.9142
2.551, 2, 17.8816, 15.8645, 23.0564, 38.2544, -28.6215, -29.9142
2.556, 2, 17.8816, 15.8645, 23.0564, 38.2544, -28.6215, -29.9142
2.56, 2, 17.8816, 15.8645, 23.0564, 38.2544, -28.6215, -29.9142
2.564, 2, 17.8816, 15.8645, 23.0564, 38.2544, -28.6215, -29.9142
2.568, 2, 17.8816, 15.8645, 23.0564, 38.2544, -28.6215, -29.9142
2.571, 2, 17.8816, 15.8645, 23.0564, 38.2544, -28.6215, -29.9142
2.576, 2, 17.8816, 15.8645, 23.0564, 38.2544, -28.6215, -29.9142
2.58, 2, 17.8816, 15.8645, 23.0564, 38.2544, -28.6215, -29.9142
2.584, 2, 17.8816, 15.8645, 23.0564, 38.2544, -28.6215, -29.9142
2.587, 2, 17.8816, 15.8645, 23.0564, 38.2544, -28.6215, -29.9142
2.592, 2, 17.8816, 15.8645, 23.0564, 38.2544, -28.6215, -29.9142
2.596, 2, 17.8816, 15.8645, 23.0564, 38.2544, -28.6215, -29.9142
2.6, 2, 17.8816, 15.8645, 23.0564, 38.2544, -28.6215, -29.9142
2.604, 2, 17.8816, 15.8645, 23.0564, 38.2544, -28.6215, -29.9142
2.607, 2, 17.8816, 15.8645, 23.0564, 38.2544, -28.6215, -29.9142
2.612, 2, 17.8816, 15.8645, 23.0564, 38.2544, -28.6215, -29.9142
2.616, 2, 17.8816, 15.8645, 23.0564, 38.2544, -28.6215, -29.9142
2.62, 2, 17.8816, 15.8645, 23.0564, 38.2544, -28.6215, -29.9142
2.624, 2, 17.8816, 15.8645, 23.0564, 38.2544, -28.6215, -29.9142
2.627, 2, 17.8816, 15.8645, 23.0564, 38.2544, -28.6215, -29.9142
2.632, 2, 17.8816, 15.8645, 23.0564, 38.2544, -28.6215, -29.9142
2.636, 2, 17.8816, 15.8645, 23.0564, 38.2544, -28.6215, -29.9142
2.64, 2, 17.8816, 15.8645, 23.0564, 38.2544, -28.6215, -29.9142
2.643, 2, 17.8816, 15.8645, 23.0564, 38.2544, -28.6215, -29.9142
2.648, 2, 17.8816, 15.8645, 23.0564, 38.2544, -28.6215, -29.9142
2.652, 2, 17.8816, 15.8645, 23.0564, 38.2544, -28.6215, -29.9142
2.656, 2, 17.8816, 15.8645, 23.0564, 38.2544, -28.6215, -29.9142
2.66, 2, 17.8816, 15.8645, 23.0564, 38.2544, -28.6215, -29.9142
2.663, 2, 17.8816, 15.8645, 23.0564, 38.2544, -28.6215, -29.9142
2.668, 2, 17.8816, 15.8645, 23.0564, 38.2544, -28.6215, -29.9142
2.672, 2, 17.8816, 15.8645, 23.0564, 38.2544, -28.6215, -29.9142
2.676, 2, 17.8816, 15.8645, 23.0564, 38.2544, -28.6215, -29.9142
2.679, 2, 17.8816, 15.8645, 23.0564, 38.2544, -28.6215, -29.9142
2.684, 2, 17.8816, 15.8645, 23.0564, 38.2544, -28.6215, -29.9142
2.688, 2, 17.8816, 15.8645, 23.0564, 38.2544, -28.6215, -29.9142
2.692, 2, 17.8816, 15.8645, 23.0564, 38.2544, -28.6215, -29.9142
2.696, 2, 17.8816, 15.8645, 23.0564, 38.2544, -28.6215, -29.9142
2.699, 2, 17.8816, 15.8645, 23.0564, 38.2544, -28.6215, -29.9142
2.704, 2, 17.8816, 15.8645, 23.0564, 38.2544, -28.6215, -29.9142
2.708, 2, 17.8816, 15.8645, 23.0564, 38.2544, -28.6215, -29.9142
2.712, 2, 17.8816, 15.8645, 23.0564, 38.2544, -28.6215, -29.9142
2.716, 2, 17.8816, 15.8645, 23.0564, 38.2544, -28.6215, -29.9142
2.719, 2, 17.8816, 15.8645, 23.0564, 38.2544, -28.6215, -29.9142
2.724, 2, 17.8816, 15.8645, 23.0564, 38.2544, -28.6215, -29.9142
2.728, 2, 17.8816, 15.8645, 23.0564, 38.2544, -28.6215, -29.9142
2.732, 2, 17.8816, 15.8645, 23.0564, 38.2544, -28.6215, -29.9142
2.735, 2, 17.8816, 15.8645, 23.0564, 38.2544, -28.6215, -29.9142
2.74, 2, 17.8816, 15.8645, 23.0564, 38.2544, -28.6215, -29.9142
2.744, 2, 17.8816, 15.8645, 23.0564, 38.2544, -28.6215, -29.9142
2.748, 2, 17.8816, 15.8645, 23.0564, 38.2544, -28.6215, -29.9142
2.752, 2, 17.8816, 15.8645, 23.0564, 38.2544, -28.6215, -29.9142
2.755, 2, 17.8816, 15.8645, 23.0564, 38.2544, -28.6215, -29.9142
2.76, 2, 17.8816, 15.8645, 23.0564, 38.2544, -28.6215, -29.9142
2.764, 2, 17.8816, 15.8645, 23.0564, 38.2544, -28.6215, -29.9142
2.768, 2, 17.8816, 15.8645, 23.0564, 38.2544, -28.6215, -29.9142
2.772, 2, 17.8816, 15.8645, 23.0564, 38.2544, -28.6215, -29.9142
2.775, 2, 17.8816, 15.8645, 23.0564, 38.2544, -28.6215, -29.9142
2.78, 2, 17.8816, 15.8645, 23.0564, 38.2544, -28.6215, -29.9142
2.784, 2, 17.8816, 15.8645, 23.0564, 38.2544, -28.6215, -29.9142
2.788, 2, 17.8816, 15.8645, 23.0564, 38.2544, -28.6215, -29.9142
2.791, 2, 17.8816, 15.8645, 23.0564, 38.2544, -28.6215, -29.9142
2.796, 2, 17.8816, 15.8645, 23.0564, 38.2544, -28.6215, -29.9142
2.8, 2, 17.8816, 15.8645, 23.0564, 38.2544, -28.6215, -29.9142
2.804, 2, 17.8816, 15.8645, 23.0564, 38.2544, -28.6215, -29.9142
2.808, 2, 17.8816, 15.8645, 23.0564, 38.2544, -28.6215, -29.9142
2.811, 2, 17.8816, 15.8645, 23.0564, 38.2544, -28.6215, -29.9142
2.816, 2, 17.8816, 15.8645, 23.0564, 38.2544, -28.6215, -29.9142
2.82, 2, 17.8816, 15.8645, 23.0564, 38.2544, -28.6215, -29.9142
2.824, 2, 17.8816, 15.8645, 23.0564, 38.2544, -28.6215, -29.9142
2.828, 2, 17.8816, 15.8645, 23.0564, 38.2544, -28.6215, -29.9142
2.831, 2, 17.8816, 15.8645, 23.0564, 38.2544, -28.6215, -29.9142
2.836, 2, 17.8816, 15.8645, 23.0564, 38.2544, -28.6215, -29.9142
2.84, 2, 17.8816, 15.8645, 23.0564, 38.2544, -28.6215, -29.9142
2.844, 2, 17.8816, 15.8645, 23.0564, 38.2544, -28.6215, -29.9142
2.847, 2, 17.8816, 15.8645, 23.0564, 38.2544, -28.6215, -29.9142
2.852, 2, 17.8816, 15.8645, 23.0564, 38.2544, -28.6215, -29.9142
2.856, 2, 17.8816, 15.8645, 23.0564, 38.2544, -28.6215, -29.9142
2.86, 2, 17.8816, 15.8645, 23.0564, 38.2544, -28.6215, -29.9142
2.864, 2, 17.8816, 15.8645, 23.0564, 38.2544, -28.6215, -29.9142
2.867, 2, 17.8816, 15.8645, 23.0564, 38.2544, -28.6215, -29.9142
2.872, 2, 17.8816, 15.8645, 23.0564, 38.2544, -28.6215, -29.9142
2.876, 2, 17.8816, 15.8645, 23.0564, 38.2544, -28.6215, -29.9142
2.88, 2, 17.8816, 15.8645, 23.0564, 38.2544, -28.6215, -29.9142
2.883, 2, 17.8816, 15.8645, 23.0564, 38.2544, -28.6215, -29.9142
2.888, 2, 17.8816, 15.8645, 23.0564, 38.2544, -28.6215, -29.9142
2.892, 2, 17.8816, 15.8645, 23.0564, 38.2544, -28.6215, -29.9142
2.896, 2, 17.8816, 15.8645, 23.0564, 38.2544, -28.6215, -29.9142
2.9, 2, 17.8816, 15.8645, 23.0564, 38.2544, -28.6215, -29.9142
2.903, 2, 17.8816, 15.8645, 23.0564, 38.2544, -28.6215, -29.9142
2.908, 2, 17.8816, 15.8645, 23.0564, 38.2544, -28.6215, -29.9142
2.912, 2, 17.8816, 15.8645, 23.0564, 38.2544, -28.6215, -29.9142
2.916, 2, 17.8816, 15.8645, 23.0564, 38.2544, -28.6215, -29.9142
2.92, 2, 17.8816, 15.8645, 23.0564, 38.2544, -28.6215, -29.9142
2.923, 2, 17.8816, 15.8645, 23.0564, 38.2544, -28.6215, -29.9142
2.928, 2, 17.8816, 15.8645, 23.0564, 38.2544, -28.6215, -29.9142
2.932, 2, 17.8816, 15.8645, 23.0564, 38.2544, -28.6215, -29.9142
2.936, 2, 17.8816, 15.8645, 23.0564, 38.2544, -28.6215, -29.9142
2.939, 2, 17.8816, 15.8645, 23.0564, 38.2544, -28.6215, -29.9142
2.944, 2, 17.8816, 15.8645, 23.0564, 38.2544, -28.6215, -29.9142
2.948, 2, 17.8816, 15.8645, 23.0564, 38.2544, -28.6215, -29.9142
2.952, 2, 17.8816, 15.8645, 23.0564, 38.2544, -28.6215, -29.9142
2.956, 2, 17.8816, 15.8645, 23.0564, 38.2544, -28.6215, -29.9142
2.959, 2, 17.8816, 15.8645, 23.0564, 38.2544, -28.6215, -29.9142
2.964, 2, 17.8816, 15.8645, 23.0564, 38.2544, -28.6215, -29.9142
2.968, 2, 17.8816, 15.8645, 23.0564, 38.2544, -28.6215, -29.9142
2.972, 2, 17.8816, 15.8645, 23.0564, 38.2544, -28.6215, -29.9142
2.976, 2, 17.8816, 15.8645, 23.0564, 38.2544, -28.6215, -29.9142
2.98, 2, 17.8816, 15.8645, 23.0564, 38.2544, -28.6215, -29.9142
2.984, 2, 17.8816, 15.8645, 23.0564, 38.2544, -28.6215, -29.9142
2.988, 2, 17.8816, 15.8645, 23.0564, 38.2544, -28.6215, -29.9142
2.992, 2, 17.8816, 15.8645, 23.0564, 38.2544, -28.6215, -29.9142
2.995, 2, 17.8816, 15.8645, 23.0564, 38.2544, -28.6215, -29.9142
3, 2, 17.8816, 15.8645, 23.0564, 38.2544, -28.6215, -29.9142
3.004, 2, 17.8816, 15.8645, 23.0564, 38.2544, -28.6215, -29.9142
3.008, 2, 17.8816, 15.8645, 23.0564, 38.2544, -28.6215, -29.9142
3.012, 2, 17.8816, 15.8645, 23.0564, 38.2544, -28.6215, -29.9142
3.015, 2, 17.8816, 15.8645, 23.0564, 38.2544, -28.6215, -29.9142
3.02, 2, 17.8816, 15.8645, 23.0564, 38.2544, -28.6215, -29.9142
3.024, 2, 17.8816, 15.8645, 23.0564, 38.2544, -28.6215, -29.9142
3.028, 2, 17.8816, 15.8645, 23.0564, 38.2544, -28.6215, -29.9142
3.031, 2, 17.8816, 15.8645, 23.0564, 38.2544, -28.6215, -29.9142
3.036, 2, 17.8816, 15.8645, 23.0564, 38.2544, -28.6215, -29.9142
3.04, 2, 17.8816, 15.8645, 23.0564, 38.2544, -28.6215, -29.9142
3.044, 2, 17.8816, 15.8645, 23.0564, 38.2544, -28.6215, -29.9142
3.048, 2, 17.8816, 15.8645, 23.0564, 38.2544, -28.6215, -29.9142
3.051, 2, 17.8816, 15.8645, 23.0564, 38.2544, -28.6215, -29.9142
3.056, 2, 17.8816, 15.8645, 23.0564, 38.2544, -28.6215, -29.9142
3.06, 2, 17.8816, 15.8645, 23.0564, 38.2544, -28.6215, -29.9142
3.064, 2, 17.8816, 15.8645, 23.0564, 38.2544, -28.6215, -29.9142
3.068, 2, 17.8816, 15.8645, 23.0564, 38.2544, -28.6215, -29.9142
3.071, 2, 17.8816, 15.8645, 23.0564, 38.2544, -28.6215, -29.9142
3.076, 2, 17.8816, 15.8645, 23.0564, 38.2544, -28.6215, -29.9142
3.08, 2, 17.8816, 15.8645, 23.0564, 38.2544, -28.6215, -29.9142
3.084, 2, 17.8816, 15.8645, 23.0564, 38.2544, -28.6215, -29.9142
3.087, 2, 17.8816, 15.8645, 23.0564, 38.2544, -28.6215, -29.9142
3.092, 2, 17.8816, 15.8645, 23.0564, 38.2544, -28.6215, -29.9142
3.096, 2, 17.8816, 15.8645, 23.0564, 38.2544, -28.6215, -29.9142
3.1, 2, 17.8816, 15.8645, 23.0564, 38.2544, -28.6215, -29.9142
3.104, 2, 17.8816, 15.8645, 23.0564, 38.2544, -28.6215, -29.9142
3.107, 2, 17.8816, 15.8645, 23.0564, 38.2544, -28.6215, -29.9142
3.112, 2, 17.8816, 15.8645, 23.0564, 38.2544, -28.6215, -29.9142
3.116, 2, 17.8816, 15.8645, 23.0564, 38.2544, -28.6215, -29.9142
3.12, 2, 17.8816, 15.8645, 23.0564, 38.2544, -28.6215, -29.9142
3.124, 2, 17.8816, 15.8645, 23.0564, 38.2544, -28.6215, -29.9142
3.128, 2, 17.8816, 15.8645, 23.0564, 38.2544, -28.6215, -29.9142
3.132, 2, 17.8816, 15.8645, 23.0564, 38.2544, -28.6215, -29.9142
3.136, 2, 17.8816, 15.8645, 23.0564, 38.2544, -28.6215, -29.9142
3.14, 2, 17.8816, 15.8645, 23.0564, 38.2544, -28.6215, -29.9142
3.143, 2, 17.8816, 15.8645, 23.0564, 38.2544, -28.6215, -29.9142
3.148, 2, 17.8816, 15.8645, 23.0564, 38.2544, -28.6215, -29.9142
3.152, 2, 17.8816, 15.8645, 23.0564, 38.2544, -28.6215, -29.9142
3.156, 2, 17.8816, 15.8645, 23.0564, 38.2544, -28.6215, -29.9142
3.16, 2, 17.8816, 15.8645, 23.0564, 38.2544, -28.6215, -29.9142
3.163, 2, 17.8816, 15.8645, 23.0564, 38.2544, -28.6215, -29.9142
3.168, 2, 17.8816, 15.8645, 23.0564, 38.2544, -28.6215, -29.9142
3.172, 2, 17.8816, 15.8645, 23.0564, 38.2544, -28.6215, -29.9142
3.176, 2, 17.8816, 15.8645, 23.0564, 38.2544, -28.6215, -29.9142
3.179, 2, 17.8816, 15.8645, 23.0564, 38.2544, -28.6215, -29.9142
3.184, 2, 17.8816, 15.8645, 23.0564, 38.2544, -28.6215, -29.9142
3.188, 2, 17.8816, 15.8645, 23.0564, 38.2544, -28.6215, -29.9142
3.192, 2, 17.8816, 15.8645, 23.0564, 38.2544, -28.6215, -29.9142
3.196, 2, 17.8816, 15.8645, 23.0564, 38.2544, -28.6215, -29.9142
3.199, 2, 17.8816, 15.8645, 23.0564, 38.2544, -28.6215, -29.9142
3.204, 2, 17.8816, 15.8645, 23.0564, 38.2544, -28.6215, -29.9142
3.208, 2, 17.8816, 15.8645, 23.0564, 38.2544, -28.6215, -29.9142
3.212, 2, 17.8816, 15.8645, 23.0564, 38.2544, -28.6215, -29.9142
3.216, 2, 17.8816, 15.8645, 23.0564, 38.2544, -28.6215, -29.9142
3.22, 2, 17.8816, 15.8645, 23.0564, 38.2544, -28.6215, -29.9142
3.224, 2, 17.8816, 15.8645, 23.0564, 38.2544, -28.6215, -29.9142
3.228, 2, 17.8816, 15.8645, 23.0564, 38.2544, -28.6215, -29.9142
3.232, 2, 17.8816, 15.8645, 23.0564, 38.2544, -28.6215, -29.9142
3.235, 2, 17.8816, 15.8645, 23.0564, 38.2544, -28.6215, -29.9142
3.24, 2, 17.8816, 15.8645, 23.0564, 38.2544, -28.6215, -29.9142
3.244, 2, 17.8816, 15.8645, 23.0564, 38.2544, -28.6215, -29.9142
3.248, 2, 17.8816, 15.8645, 23.0564, 38.2544, -28.6215, -29.9142
3.252, 2, 17.8816, 15.8645, 23.0564, 38.2544, -28.6215, -29.9142
3.255, 2, 17.8816, 15.8645, 23.0564, 38.2544, -28.6215, -29.9142
3.26, 2, 17.8816, 15.8645, 23.0564, 38.2544, -28.6215, -29.9142
3.264, 2, 17.8816, 15.8645, 23.0564, 38.2544, -28.6215, -29.9142
3.268, 2, 17.8816, 15.8645, 23.0564, 38.2544, -28.6215, -29.9142
3.272, 2, 17.8816, 15.8645, 23.0564, 38.2544, -28.6215, -29.9142
3.276, 2, 17.8816, 15.8645, 23.0564, 38.2544, -28.6215, -29.9142
3.28, 2, 17.8816, 15.8645, 23.0564, 38.2544, -28.6215, -29.9142
3.284, 2, 17.8816, 15.8645, 23.0564, 38.2544, -28.6215, -29.9142
3.288, 2, 17.8816, 15.8645, 23.0564, 38.2544, -28.6215, -29.9142
3.291, 2, 17.8816, 15.8645, 23.0564, 38.2544, -28.6215, -29.9142
3.296, 2, 17.8816, 15.8645, 23.0564, 38.2544, -28.6215, -29.9142
3.3, 2, 17.8816, 15.8645, 23.0564, 38.2544, -28.6215, -29.9142
3.304, 2, 17.8816, 15.8645, 23.0564, 38.2544, -28.6215, -29.9142
3.308, 2, 17.8816, 15.8645, 23.0564, 38.2544, -28.6215, -29.9142
3.312, 2, 17.8816, 15.8645, 23.0564, 38.2544, -28.6215, -29.9142
3.316, 2, 17.8816, 15.8645, 23.0564, 38.2544, -28.6215, -29.9142
3.32, 2, 17.8816, 15.8645, 23.0564, 38.2544, -28.6215, -29.9142
3.324, 2, 17.8816, 15.8645, 23.0564, 38.2544, -28.6215, -29.9142
3.328, 2, 17.8816, 15.8645, 23.0564, 38.2544, -28.6215, -29.9142
3.332, 2, 17.8816, 15.8645, 23.0564, 38.2544, -28.6215, -29.9142
3.336, 2, 17.8816, 15.8645, 23.0564, 38.2544, -28.6215, -29.9142
3.34, 2, 17.8816, 15.8645, 23.0564, 38.2544, -28.6215, -29.9142
3.344, 2, 17.8816, 15.8645, 23.0564, 38.2544, -28.6215, -29.9142
3.347, 2, 17.8816, 15.8645, 23.0564, 38.2544, -28.6215, -29.9142
3.352, 4, 17.8816, 15.8645, 23.0564, 38.2544, -28.6215, -29.9142
3.356, 4, 17.8816, 15.8645, 23.0564, 38.2544, -28.6215, -29.9142
3.36, 4, 17.8816, 15.8645, 23.0564, 38.2544, -28.6215, -29.9142
3.364, 4, 17.8816, 15.8645, 23.0564, 38.2544, -28.6215, -29.9142
3.368, 4, 17.8816, 15.8645, 23.0564, 38.2544, -28.6215, -29.9142
3.372, 4, 17.8816, 15.8645, 23.0564, 38.2544, -28.6215, -29.9142
3.376, 4, 17.8816, 15.8645, 23.0564, 38.2544, -28.6215, -29.9142
3.38, 4, 17.8816, 15.8645, 23.0564, 38.2544, -28.6215, -29.9142
3.383, 4, 17.8816, 15.8645, 23.0564, 38.2544, -28.6215, -29.9142
3.388, 4, 17.8816, 15.8645, 23.0564, 38.2544, -28.6215, -29.9142
3.392, 4, 17.8816, 15.8645, 23.0564, 38.2544, -28.6215, -29.9142
3.396, 4, 17.8816, 15.8645, 23.0564, 38.2544, -28.6215, -29.9142
3.4, 4, 17.8816, 15.8645, 23.0564, 38.2544, -28.6215, -29.9142
3.403, 4, 17.8816, 15.8645, 23.0564, 38.2544, -28.6215, -29.9142
3.408, 4, 17.8816, 15.8645, 23.0564, 38.2544, -28.6215, -29.9142
3.412, 4, 17.8816, 15.8645, 23.0564, 38.2544, -28.6215, -29.9142
3.416, 4, 17.8816, 15.8645, 23.0564, 38.2544, -28.6215, -29.9142
3.42, 4, 17.8816, 15.8645, 23.0564, 38.2544, -28.6215, -29.9142
3.424, 4, 17.8816, 15.8645, 23.0564, 38.2544, -28.6215, -29.9142
3.428, 4, 17.8816, 15.8645, 23.0564, 38.2544, -28.6215, -29.9142
3.432, 4, 17.8816, 15.8645, 23.0564, 38.2544, -28.6215, -29.9142
3.436, 4, 17.8816, 15.8645, 23.0564, 38.2544, -28.6215, -29.9142
3.439, 4, 17.8816, 15.8645, 23.0564, 38.2544, -28.6215, -29.9142
3.444, 4, 17.8816, 15.8645, 23.0564, 38.2544, -28.6215, -29.9142
3.448, 4, 17.8816, 15.8645, 23.0564, 38.2544, -28.6215, -29.9142
3.452, 4, 17.8816, 15.8645, 23.0564, 38.2544, -28.6215, -29.9142
3.456, 4, 17.8816, 15.8645, 23.0564, 38.2544, -28.6215, -29.9142
3.46, 4, 17.8816, 15.8645, 23.0564, 38.2544, -28.6215, -29.9142
3.464, 4, 17.8816, 15.8645, 23.0564, 38.2544, -28.6215, -29.9142
3.468, 4, 17.8816, 15.8645, 23.0564, 38.2544, -28.6215, -29.9142
3.472, 4, 17.8816, 15.8645, 23.0564, 38.2544, -28.6215, -29.9142
3.476, 4, 17.8816, 15.8645, 23.0564, 38.2544, -28.6215, -29.9142
3.48, 4, 17.8816, 15.8645, 23.0564, 38.2544, -28.6215, -29.9142
3.484, 4, 17.8815, 15.8645, 23.0564, 38.2544, -28.6215, -29.9142
3.488, 4, 17.8812, 15.8645, 23.0564, 38.2543, -28.6215, -29.9142
3.492, 4, 17.8806, 15.8645, 23.0565, 38.2542, -28.6216, -29.9141
3.495, 4, 17.8793, 15.8645, 23.0566, 38.2539, -28.6217, -29.9139
3.5, 4, 17.8773, 15.8644, 23.0569, 38.2532, -28.6219, -29.9133
3.504, 4, 17.8745, 15.8643, 23.0576, 38.2517, -28.6225, -29.912
3.508, 4, 17.8706, 15.864, 23.0586, 38.2489, -28.6235, -29.9095
3.512, 4, 17.8657, 15.8636, 23.0603, 38.2441, -28.6252, -29.9053
3.516, 4, 17.8595, 15.863, 23.063, 38.2364, -28.628, -29.8984
3.52, 4, 17.8519, 15.862, 23.067, 38.2246, -28.6323, -29.8881
3.524, 5, 17.8425, 15.8607, 23.0726, 38.2075, -28.6384, -29.873
3.528, 5, 17.8311, 15.8589, 23.0804, 38.1837, -28.647, -29.852
3.531, 5, 17.8174, 15.8565, 23.0908, 38.1514, -28.6586, -29.8234
3.536, 5, 17.801, 15.8533, 23.1043, 38.1089, -28.674, -29.7858
3.54, 5, 17.7821, 15.8494, 23.1216, 38.0544, -28.6938, -29.7376
3.544, 5, 17.7607, 15.8444, 23.143, 37.986, -28.7187, -29.6771
3.548, 5, 17.7368, 15.8384, 23.1691, 37.9022, -28.7493, -29.603
3.552, 5, 17.7105, 15.8313, 23.2001, 37.8019, -28.7861, -29.5142
3.556, 5, 17.6816, 15.823, 23.2364, 37.6842, -28.8295, -29.4101
3.56, 5, 17.6501, 15.8135, 23.278, 37.5489, -28.8796, -29.2903
3.564, 5, 17.6158, 15.8028, 23.3249, 37.3961, -28.9365, -29.1552
3.568, 5, 17.5787, 15.7909, 23.3769, 37.2264, -29.0001, -29.0052
3.572, 5, 17.5388, 15.778, 23.4339, 37.041, -29.07, -28.8413
3.576, 5, 17.4962, 15.7642, 23.4953, 36.841, -29.1458, -28.6647
3.58, 5, 17.4511, 15.7495, 23.5608, 36.6281, -29.2271, -28.4767
3.584, 5, 17.4038, 15.7341, 23.6298, 36.404, -29.3133, -28.279
3.587, 5, 17.3544, 15.7181, 23.7017, 36.1708, -29.4036, -28.0734
3.592, 5, 17.3028, 15.7017, 23.7761, 35.9303, -29.4976, -27.8615
3.596, 5, 17.249, 15.6851, 23.8524, 35.6845, -29.5945, -27.645
3.6, 5, 17.1932, 15.6683, 23.93, 35.4349, -29.6937, -27.4255
3.604, 5, 17.1353, 15.6514, 24.0087, 35.183, -29.7948, -27.2041
3.608, 5, 17.0757, 15.6345, 24.088, 34.93, -29.8974, -26.9818
3.612, 5, 17.0146, 15.6178, 24.1676, 34.6765, -30.0011, -26.7594
3.616, 5, 16.9523, 15.6012, 24.2475, 34.4233, -30.1058, -26.5374
3.62, 5, 16.8892, 15.5849, 24.3273, 34.1708, -30.2112, -26.3162
3.624, 5, 16.8256, 15.5687, 24.4071, 33.9191, -30.3173, -26.0959
3.628, 5, 16.7615, 15.5527, 24.4868, 33.6685, -30.4241, -25.8769
3.632, 5, 16.697, 15.5371, 24.5663, 33.4191, -30.5314, -25.659
3.636, 5, 16.6324, 15.5216, 24.6455, 33.171, -30.6392, -25.4425
3.64, 5, 16.5675, 15.5064, 24.7246, 32.9243, -30.7476, -25.2274
3.644, 5, 16.5025, 15.4915, 24.8034, 32.6789, -30.8564, -25.0136
3.648, 5, 16.4373, 15.4769, 24.8819, 32.4349, -30.9657, -24.8013
3.652, 5, 16.3721, 15.4625, 24.9602, 32.1923, -31.0754, -24.5904
3.656, 5, 16.3067, 15.4483, 25.0382, 31.951, -31.1856, -24.3808
3.66, 5, 16.2412, 15.4345, 25.1159, 31.7112, -31.2963, -24.1728
3.664, 5, 16.1756, 15.4209, 25.1934, 31.4728, -31.4074, -23.9661
3.668, 5, 16.1098, 15.4076, 25.2706, 31.2357, -31.5189, -23.7608
3.672, 5, 16.0441, 15.3946, 25.3475, 31.0001, -31.6309, -23.5569
3.676, 5, 15.9782, 15.3818, 25.4241, 30.7658, -31.7433, -23.3544
3.679, 5, 15.9122, 15.3693, 25.5005, 30.5328, -31.8561, -23.1533
3.684, 5, 15.8461, 15.3571, 25.5766, 30.3012, -31.9693, -22.9536
3.688, 5, 15.7799, 15.3451, 25.6524, 30.071, -32.0829, -22.7552
3.692, 5, 15.7137, 15.3334, 25.7279, 29.8421, -32.197, -22.5582
3.696, 5, 15.6474, 15.322, 25.8031, 29.6145, -32.3114, -22.3626
3.7, 5, 15.5809, 15.3109, 25.8781, 29.3883, -32.4263, -22.1683
3.704, 5, 15.5144, 15.3001, 25.9527, 29.1634, -32.5415, -21.9753
3.708, 5, 15.4478, 15.2895, 26.0271, 28.9397, -32.6571, -21.7836
3.712, 5, 15.3811, 15.2792, 26.1012, 28.7174, -32.7732, -21.5933
3.716, 5, 15.3143, 15.2692, 26.1751, 28.4963, -32.8896, -21.4042
3.72, 5, 15.2474, 15.2594, 26.2486, 28.2765, -33.0064, -21.2165
3.724, 5, 15.1805, 15.2499, 26.3219, 28.058, -33.1235, -21.03
3.728, 5, 15.1134, 15.2407, 26.3949, 27.8408, -33.2411, -20.8448
3.732, 5, 15.0463, 15.2318, 26.4676, 27.6248, -33.359, -20.6609
3.735, 5, 14.9791, 15.2231, 26.54, 27.41, -33.4773, -20.4782
3.74, 5, 14.9118, 15.2147, 26.6122, 27.1965, -33.5959, -20.2968
3.744, 5, 14.8444, 15.2066, 26.684, 26.9842, -33.7149, -20.1167
3.748, 5, 14.7769, 15.1988, 26.7556, 26.7731, -33.8343, -19.9377
3.752, 5, 14.7093, 15.1912, 26.8269, 26.5632, -33.954, -19.76
3.756, 5, 14.6417, 15.184, 26.898, 26.3545, -34.0741, -19.5836
3.76, 5, 14.574, 15.1769, 26.9687, 26.1471, -34.1945, -19.4083
3.764, 5, 14.5061, 15.1702, 27.0392, 25.9407, -34.3153, -19.2342
3.768, 5, 14.4382, 15.1637, 27.1094, 25.7356, -34.4364, -19.0614
3.772, 5, 14.3702, 15.1575, 27.1793, 25.5317, -34.5579, -18.8897
3.776, 5, 14.3022, 15.1516, 27.2489, 25.3288, -34.6797, -18.7192
3.78, 5, 14.234, 15.146, 27.3183, 25.1272, -34.8018, -18.5498
3.784, 5, 14.1658, 15.1406, 27.3874, 24.9267, -34.9243, -18.3817
3.788, 5, 14.0974, 15.1355, 27.4562, 24.7273, -35.0471, -18.2146
3.792, 5, 14.029, 15.1307, 27.5247, 24.529, -35.1702, -18.0487
3.796, 5, 13.9605, 15.1261, 27.5929, 24.3319, -35.2937, -17.884
3.8, 5, 13.892, 15.1219, 27.6609, 24.1359, -35.4174, -17.7204
3.804, 5, 13.8233, 15.1179, 27.7286, 23.9409, -35.5415, -17.5579
3.808, 5, 13.7546, 15.1142, 27.7959, 23.7471, -35.6659, -17.3965
3.812, 5, 13.6858, 15.1107, 27.863, 23.5543, -35.7906, -17.2362
3.816, 5, 13.6169, 15.1076, 27.9299, 23.3626, -35.9156, -17.077
3.82, 5, 13.5479, 15.1047, 27.9964, 23.172, -36.0409, -16.9189
3.824, 5, 13.4788, 15.1021, 28.0627, 22.9824, -36.1665, -16.7618
3.828, 5, 13.4097, 15.0998, 28.1286, 22.7939, -36.2924, -16.6058
3.832, 5, 13.3405, 15.0977, 28.1943, 22.6064, -36.4186, -16.4509
3.836, 5, 13.2712, 15.0959, 28.2597, 22.4199, -36.5451, -16.297
3.84, 5, 13.2018, 15.0944, 28.3248, 22.2344, -36.6719, -16.1442
3.844, 5, 13.1323, 15.0932, 28.3896, 22.05, -36.799, -15.9923
3.848, 5, 13.0628, 15.0923, 28.4541, 21.8665, -36.9263, -15.8415
3.852, 5, 12.9932, 15.0917, 28.5184, 21.6841, -37.0539, -15.6917
3.856, 5, 12.9235, 15.0913, 28.5823, 21.5026, -37.1818, -15.543
3.86, 5, 12.8537, 15.0912, 28.646, 21.3221, -37.31, -15.3952
3.864, 5, 12.7839, 15.0914, 28.7093, 21.1426, -37.4384, -15.2484
3.868, 5, 12.7139, 15.0919, 28.7724, 20.964, -37.5672, -15.1026
3.872, 5, 12.6439, 15.0926, 28.8352, 20.7864, -37.6961, -14.9577
3.876, 5, 12.5739, 15.0936, 28.8977, 20.6097, -37.8254, -14.8138
3.88, 5, 12.5037, 15.0949, 28.9599, 20.434, -37.9549, -14.6709
3.884, 5, 12.4335, 15.0965, 29.0218, 20.2592, -38.0847, -14.529
3.888, 5, 12.3632, 15.0984, 29.0835, 20.0853, -38.2147, -14.3879
3.892, 5, 12.2928, 15.1006, 29.1448, 19.9124, -38.345, -14.2478
3.896, 5, 12.2223, 15.103, 29.2058, 19.7403, -38.4755, -14.1087
3.9, 5, 12.1518, 15.1057, 29.2666, 19.5692, -38.6063, -13.9705
3.904, 5, 12.0812, 15.1087, 29.327, 19.399, -38.7373, -13.8332
3.908, 5, 12.0105, 15.112, 29.3872, 19.2296, -38.8685, -13.6968
3.912, 5, 11.9398, 15.1156, 29.4471, 19.0612, -39.0001, -13.5613
3.916, 5, 11.869, 15.1194, 29.5067, 18.8936, -39.1318, -13.4267
3.92, 5, 11.7981, 15.1236, 29.566, 18.7269, -39.2638, -13.293
3.924, 5, 11.7271, 15.128, 29.625, 18.561, -39.396, -13.1602
3.928, 5, 11.656, 15.1326, 29.6837, 18.396, -39.5285, -13.0282
3.932, 5, 11.5849, 15.1376, 29.7421, 18.2319, -39.6612, -12.8972
3.936, 5, 11.5138, 15.1429, 29.8002, 18.0686, -39.7941, -12.767
3.94, 5, 11.4425, 15.1484, 29.858, 17.9062, -39.9273, -12.6376
3.944, 5, 11.3712, 15.1542, 29.9156, 17.7446, -40.0607, -12.5092
3.948, 5, 11.2998, 15.1603, 29.9728, 17.5838, -40.1943, -12.3815
3.952, 5, 11.2283, 15.1667, 30.0298, 17.4238, -40.3281, -12.2548
3.956, 5, 11.1568, 15.1733, 30.0864, 17.2647, -40.4622, -12.1288
3.96, 5, 11.0851, 15.1803, 30.1428, 17.1064, -40.5964, -12.0037
3.964, 5, 11.0135, 15.1875, 30.1989, 16.9489, -40.7309, -11.8794
3.968, 5, 10.9417, 15.195, 30.2547, 16.7922, -40.8657, -11.756
3.972, 5, 10.8699, 15.2028, 30.3101, 16.6363, -41.0006, -11.6334
3.976, 5, 10.798, 15.2109, 30.3653, 16.4811, -41.1357, -11.5115
3.98, 5, 10.7261, 15.2192, 30.4202, 16.3268, -41.2711, -11.3905
3.984, 5, 10.654, 15.2278, 30.4748, 16.1733, -41.4066, -11.2703
3.988, 5, 10.5819, 15.2368, 30.5291, 16.0205, -41.5424, -11.1509
3.992, 5, 10.5098, 15.246, 30.5831, 15.8685, -41.6783, -11.0323
3.996, 5, 10.4376, 15.2554, 30.6368, 15.7172, -41.8145, -10.9144
3.999, 5, 10.3653, 15.2652, 30.6903, 15.5667, -41.9509, -10.7973
4.004, 5, 10.2929, 15.2752, 30.7434, 15.417, -42.0874, -10.681
4.008, 5, 10.2205, 15.2856, 30.7962, 15.268, -42.2242, -10.5655
4.012, 5, 10.148, 15.2962, 30.8487, 15.1197, -42.3611, -10.4507
4.016, 5, 10.0755, 15.3071, 30.9009, 14.9721, -42.4982, -10.3366
4.02, 5, 10.0029, 15.3183, 30.9528, 14.8253, -42.6356, -10.2233
4.024, 5, 9.93019, 15.3297, 31.0045, 14.6792, -42.7731, -10.1107
4.028, 5, 9.85746, 15.3414, 31.0558, 14.5338, -42.9107, -9.99886
4.032, 5, 9.78466, 15.3535, 31.1068, 14.3891, -43.0486, -9.88772
4.036, 5, 9.7118, 15.3658, 31.1575, 14.2451, -43.1867, -9.77731
4.04, 5, 9.63887, 15.3784, 31.208, 14.1017, -43.3249, -9.6676
4.044, 5, 9.56589, 15.3912, 31.2581, 13.9591, -43.4633, -9.55859
4.048, 5, 9.49285, 15.4044, 31.3079, 13.8171, -43.6018, -9.45028
4.052, 5, 9.41974, 15.4178, 31.3574, 13.6758, -43.7406, -9.34266
4.056, 5, 9.34658, 15.4315, 31.4066, 13.5352, -43.8794, -9.23572
4.06, 5, 9.27336, 15.4455, 31.4556, 13.3952, -44.0185, -9.12947
4.064, 5, 9.20008, 15.4597, 31.5042, 13.2559, -44.1577, -9.02388
4.068, 5, 9.12674, 15.4743, 31.5525, 13.1172, -44.2971, -8.91897
4.072, 5, 9.05335, 15.4891, 31.6005, 12.9792, -44.4367, -8.81472
4.076, 5, 8.97989, 15.5042, 31.6482, 12.8418, -44.5764, -8.71113
4.08, 5, 8.90639, 15.5196, 31.6956, 12.705, -44.7162, -8.60819
4.084, 5, 8.83282, 15.5353, 31.7427, 12.5689, -44.8562, -8.5059
4.088, 5, 8.7592, 15.5512, 31.7895, 12.4334, -44.9964, -8.40425
4.092, 5, 8.68553, 15.5674, 31.836, 12.2985, -45.1367, -8.30324
4.096, 5, 8.6118, 15.5839, 31.8822, 12.1643, -45.2771, -8.20287
4.1, 5, 8.53801, 15.6007, 31.9281, 12.0306, -45.4177, -8.10312
4.104, 5, 8.46418, 15.6178, 31.9737, 11.8975, -45.5585, -8.004
4.108, 5, 8.39029, 15.6351, 32.019, 11.7651, -45.6994, -7.9055
4.112, 5, 8.31634, 15.6527, 32.0639, 11.6332, -45.8404, -7.80761
4.116, 5, 8.24235, 15.6706, 32.1086, 11.5019, -45.9816, -7.71034
4.12, 5, 8.1683, 15.6888, 32.153, 11.3713, -46.1229, -7.61367
4.124, 5, 8.0942, 15.7072, 32.197, 11.2412, -46.2643, -7.5176
4.128, 5, 8.02005, 15.726, 32.2408, 11.1116, -46.4059, -7.42214
4.132, 5, 7.94585, 15.745, 32.2842, 10.9827, -46.5476, -7.32727
4.136, 5, 7.87159, 15.7643, 32.3274, 10.8543, -46.6894, -7.23298
4.14, 5, 7.79729, 15.7838, 32.3702, 10.7265, -46.8314, -7.13929
4.144, 5, 7.72294, 15.8037, 32.4128, 10.5993, -46.9735, -7.04618
4.148, 5, 7.64853, 15.8238, 32.455, 10.4726, -47.1157, -6.95364
4.152, 5, 7.57408, 15.8442, 32.4969, 10.3465, -47.258, -6.86169
4.156, 5, 7.49958, 15.8649, 32.5385, 10.2209, -47.4005, -6.7703
4.16, 5, 7.42503, 15.8858, 32.5798, 10.0959, -47.5431, -6.67948
4.164, 5, 7.35043, 15.907, 32.6208, 9.97139, -47.6858, -6.58923
4.168, 5, 7.27579, 15.9286, 32.6614, 9.84745, -47.8286, -6.49953
4.172, 5, 7.2011, 15.9503, 32.7018, 9.72404, -47.9716, -6.4104
4.176, 5, 7.12636, 15.9724, 32.7419, 9.60118, -48.1147, -6.32181
4.18, 5, 7.05157, 15.9948, 32.7816, 9.47884, -48.2579, -6.23378
4.184, 5, 6.97674, 16.0174, 32.8211, 9.35703, -48.4012, -6.1463
4.188, 5, 6.90186, 16.0403, 32.8602, 9.23575, -48.5446, -6.05936
4.192, 5, 6.82694, 16.0635, 32.899, 9.11498, -48.6881, -5.97296
4.196, 5, 6.75197, 16.0869, 32.9375, 8.99474, -48.8317, -5.88709
4.2, 5, 6.67696, 16.1107, 32.9757, 8.875, -48.9755, -5.80176
4.204, 5, 6.6019, 16.1347, 33.0136, 8.75578, -49.1193, -5.71696
4.208, 5, 6.52681, 16.159, 33.0512, 8.63706, -49.2633, -5.63268
4.212, 5, 6.45167, 16.1835, 33.0884, 8.51885, -49.4073, -5.54892
4.216, 5, 6.37649, 16.2084, 33.1253, 8.40113, -49.5515, -5.46569
4.22, 5, 6.30126, 16.2335, 33.162, 8.28391, -49.6958, -5.38296
4.224, 5, 6.226, 16.2589, 33.1983, 8.16718, -49.8401, -5.30074
4.228, 5, 6.15069, 16.2845, 33.2343, 8.05093, -49.9846, -5.21903
4.232, 5, 6.07535, 16.3105, 33.27, 7.93517, -50.1292, -5.13782
4.236, 5, 5.99996, 16.3367, 33.3054, 7.81988, -50.2738, -5.05711
4.24, 5, 5.92454, 16.3632, 33.3404, 7.70507, -50.4185, -4.97689
4.244, 5, 5.84907, 16.3899, 33.3752, 7.59073, -50.5634, -4.89715
4.248, 5, 5.77357, 16.417, 33.4096, 7.47685, -50.7083, -4.81791
4.252, 5, 5.69803, 16.4443, 33.4437, 7.36344, -50.8533, -4.73914
4.256, 5, 5.62245, 16.4719, 33.4775, 7.25049, -50.9984, -4.66085
4.26, 5, 5.54683, 16.4997, 33.511, 7.13799, -51.1435, -4.58303
4.264, 5, 5.47118, 16.5279, 33.5442, 7.02595, -51.2888, -4.50569
4.268, 5, 5.3955, 16.5563, 33.577, 6.91435, -51.4341, -4.42881
4.272, 5, 5.31978, 16.5849, 33.6096, 6.8032, -51.5795, -4.35239
4.276, 5, 5.24402, 16.6139, 33.6418, 6.69249, -51.725, -4.27643
4.28, 5, 5.16823, 16.6431, 33.6737, 6.58222, -51.8706, -4.20093
4.284, 5, 5.09241, 16.6726, 33.7053, 6.47239, -52.0162, -4.12588
4.288, 5, 5.01656, 16.7023, 33.7366, 6.36299, -52.1619, -4.05128
4.292, 5, 4.94067, 16.7323, 33.7675, 6.25402, -52.3076, -3.97713
4.296, 5, 4.86475, 16.7626, 33.7982, 6.14547, -52.4535, -3.90342
4.3, 5, 4.7888, 16.7932, 33.8285, 6.03735, -52.5994, -3.83015
4.304, 5, 4.71282, 16.824, 33.8585, 5.92965, -52.7453, -3.75731
4.308, 5, 4.63681, 16.8551, 33.8882, 5.82236, -52.8914, -3.68491
4.312, 5, 4.56077, 16.8864, 33.9175, 5.71549, -53.0374, -3.61294
4.316, 5, 4.4847, 16.918, 33.9466, 5.60903, -53.1836, -3.5414
4.32, 5, 4.4086, 16.9499, 33.9753, 5.50298, -53.3298, -3.47028
4.324, 5, 4.33248, 16.9821, 34.0038, 5.39733, -53.4761, -3.39959
4.328, 5, 4.25632, 17.0145, 34.0319, 5.29209, -53.6224, -3.32931
4.332, 5, 4.18014, 17.0472, 34.0596, 5.18725, -53.7687, -3.25945
4.336, 5, 4.10393, 17.0801, 34.0871, 5.08281, -53.9152, -3.19
4.34, 5, 4.0277, 17.1133, 34.1142, 4.97875, -54.0616, -3.12096
4.344, 5, 3.95144, 17.1468, 34.1411, 4.8751, -54.2082, -3.05233
4.348, 5, 3.87516, 17.1805, 34.1676, 4.77183, -54.3547, -2.98411
4.352, 5, 3.79885, 17.2145, 34.1937, 4.66895, -54.5013, -2.91629
4.356, 5, 3.72251, 17.2488, 34.2196, 4.56645, -54.648, -2.84886
4.36, 5, 3.64616, 17.2833, 34.2451, 4.46434, -54.7947, -2.78184
4.364, 5, 3.56978, 17.3181, 34.2703, 4.3626, -54.9415, -2.7152
4.368, 5, 3.49338, 17.3532, 34.2952, 4.26124, -55.0883, -2.64896
4.372, 5, 3.41695, 17.3885, 34.3198, 4.16026, -55.2351, -2.58311
4.376, 5, 3.34051, 17.424, 34.3441, 4.05965, -55.382, -2.51765
4.38, 5, 3.26404, 17.4599, 34.368, 3.9594, -55.5289, -2.45257
4.384, 5, 3.18755, 17.496, 34.3916, 3.85953, -55.6758, -2.38787
4.388, 5, 3.11105, 17.5323, 34.4149, 3.76001, -55.8228, -2.32354
4.392, 5, 3.03452, 17.5689, 34.4378, 3.66086, -55.9698, -2.2596
4.396, 5, 2.95798, 17.6058, 34.4605, 3.56207, -56.1168, -2.19602
4.4, 5, 2.88141, 17.6429, 34.4828, 3.46363, -56.2639, -2.13282
4.404, 5, 2.80483, 17.6803, 34.5048, 3.36555, -56.411, -2.06998
4.408, 5, 2.72824, 17.7179, 34.5264, 3.26781, -56.5581, -2.00751
4.412, 5, 2.65162, 17.7558, 34.5478, 3.17043, -56.7053, -1.94539
4.416, 5, 2.57499, 17.794, 34.5688, 3.0734, -56.8524, -1.88364
4.42, 5, 2.49835, 17.8324, 34.5895, 2.9767, -56.9996, -1.82225
4.424, 5, 2.42168, 17.8711, 34.6099, 2.88035, -57.1469, -1.76121
4.428, 5, 2.34501, 17.91, 34.6299, 2.78434, -57.2941, -1.70052
4.432, 5, 2.26832, 17.9491, 34.6496, 2.68867, -57.4413, -1.64018
4.436, 5, 2.19162, 17.9886, 34.669, 2.59333, -57.5886, -1.58019
4.44, 5, 2.1149, 18.0282, 34.6881, 2.49833, -57.7359, -1.52054
4.444, 5, 2.03817, 18.0682, 34.7068, 2.40365, -57.8832, -1.46123
4.448, 5, 1.96143, 18.1083, 34.7253, 2.30931, -58.0305, -1.40226
4.452, 5, 1.88468, 18.1488, 34.7434, 2.21529, -58.1778, -1.34363
4.456, 5, 1.80792, 18.1894, 34.7611, 2.12159, -58.3251, -1.28533
4.46, 5, 1.73115, 18.2303, 34.7786, 2.02822, -58.4724, -1.22737
4.464, 5, 1.65437, 18.2715, 34.7957, 1.93517, -58.6197, -1.16973
4.468, 5, 1.57758, 18.3129, 34.8125, 1.84243, -58.7671, -1.11243
4.472, 5, 1.50078, 18.3546, 34.829, 1.75001, -58.9144, -1.05544
4.476, 5, 1.42397, 18.3965, 34.8451, 1.6579, -59.0617, -0.998785
4.48, 5, 1.34716, 18.4387, 34.8609, 1.56611, -59.2091, -0.942446
4.484, 5, 1.27036, 18.4811, 34.8764, 1.47462, -59.3564, -0.886426
4.488, 5, 1.19356, 18.5237, 34.8916, 1.38345, -59.5037, -0.830723
4.492, 5, 1.1168, 18.5666, 34.9064, 1.29258, -59.6511, -0.775335
4.496, 5, 1.04007, 18.6097, 34.921, 1.20202, -59.7984, -0.720261
4.5, 5, 0.963383, 18.653, 34.9352, 1.11177, -59.9457, -0.665501
4.504, 5, 0.886748, 18.6965, 34.949, 1.02182, -60.0929, -0.611056
4.508, 5, 0.81015, 18.7403, 34.9626, 0.9322, -60.2401, -0.556927
4.512, 5, 0.73357, 18.7843, 34.9758, 0.842895, -60.3873, -0.503116
4.516, 5, 0.656986, 18.8286, 34.9886, 0.753917, -60.5344, -0.449625
4.52, 5, 0.580377, 18.873, 35.0012, 0.665267, -60.6814, -0.396454
4.524, 6, 0.50373, 18.9178, 35.0134, 0.576949, -60.8283, -0.343603
4.528, 6, 0.427036, 18.9627, 35.0253, 0.488963, -60.9752, -0.291073
4.532, 6, 0.350295, 19.0079, 35.0368, 0.401304, -61.122, -0.238858
4.536, 6, 0.273514, 19.0533, 35.048, 0.313967, -61.2687, -0.186956
4.54, 6, 0.196702, 19.099, 35.0589, 0.226945, -61.4153, -0.135361
4.544, 6, 0.119869, 19.1449, 35.0694, 0.140226, -61.5618, -0.0840659
4.548, 6, 0.0430212, 19.1911, 35.0796, 0.0538005, -61.7084, -0.0330631
4.552, 6, -0.0338354, 19.2375, 35.0895, -0.0323444, -61.8549, 0.0176553
4.556, 6, -0.110689, 19.2841, 35.099, -0.118221, -62.0014, 0.0680973
4.56, 6, -0.187522, 19.331, 35.1082, -0.203842, -62.1479, 0.118271
4.564, 6, -0.264319, 19.378, 35.1171, -0.289218, -62.2944, 0.168184
4.568, 6, -0.341067, 19.4254, 35.1257, -0.374359, -62.4409, 0.217842
4.572, 6, -0.417757, 19.4729, 35.134, -0.459271, -62.5875, 0.26725
4.576, 6, -0.49439, 19.5207, 35.1419, -0.543958, -62.7342, 0.316412
4.58, 6, -0.570973, 19.5687, 35.1495, -0.628422, -62.8809, 0.365329
4.584, 6, -0.647524, 19.617, 35.1568, -0.712662, -63.0276, 0.414001
4.588, 6, -0.724065, 19.6655, 35.1638, -0.796672, -63.1743, 0.462427
4.592, 6, -0.800618, 19.7142, 35.1704, -0.880451, -63.321, 0.510607
4.596, 6, -0.877195, 19.7632, 35.1767, -0.963992, -63.4678, 0.558538
4.6, 6, -0.953804, 19.8124, 35.1827, -1.04729, -63.6145, 0.606219
4.604, 6, -1.03045, 19.8619, 35.1884, -1.13035, -63.7612, 0.65365
4.608, 6, -1.10712, 19.9116, 35.1937, -1.21316, -63.9078, 0.700829
4.612, 6, -1.18381, 19.9615, 35.1987, -1.29572, -64.0545, 0.747758
4.616, 6, -1.26051, 20.0117, 35.2033, -1.37803, -64.201, 0.794437
4.62, 6, -1.33721, 20.0621, 35.2077, -1.46009, -64.3476, 0.840868
4.624, 6, -1.41391, 20.1127, 35.2116, -1.54191, -64.4941, 0.887051
4.628, 6, -1.49061, 20.1636, 35.2153, -1.62347, -64.6405, 0.932987
4.632, 6, -1.5673, 20.2146, 35.2186, -1.70479, -64.7869, 0.97868
4.636, 6, -1.64398, 20.2659, 35.2216, -1.78587, -64.9333, 1.02413
4.64, 6, -1.72064, 20.3174, 35.2243, -1.8667, -65.0795, 1.06934
4.644, 6, -1.7973, 20.3692, 35.2267, -1.94729, -65.2258, 1.11431
4.648, 6, -1.87393, 20.4211, 35.2287, -2.02763, -65.3719, 1.15904
4.652, 6, -1.95056, 20.4733, 35.2304, -2.10774, -65.518, 1.20353
4.656, 6, -2.02716, 20.5257, 35.2317, -2.1876, -65.6641, 1.2478
4.66, 6, -2.10375, 20.5782, 35.2327, -2.26723, -65.8101, 1.29182
4.664, 6, -2.18032, 20.631, 35.2334, -2.34662, -65.956, 1.33562
4.668, 6, -2.25688, 20.6841, 35.2338, -2.42577, -66.1018, 1.37919
4.672, 6, -2.33341, 20.7373, 35.2338, -2.50469, -66.2476, 1.42253
4.676, 6, -2.40993, 20.7907, 35.2335, -2.58337, -66.3933, 1.46565
4.68, 6, -2.48642, 20.8443, 35.2329, -2.66182, -66.5389, 1.50854
4.684, 6, -2.5629, 20.8982, 35.2319, -2.74004, -66.6845, 1.55121
4.688, 6, -2.63935, 20.9523, 35.2306, -2.81803, -66.83, 1.59366
4.692, 6, -2.71579, 21.0065, 35.229, -2.89579, -66.9754, 1.63589
4.696, 6, -2.7922, 21.061, 35.227, -2.97332, -67.1208, 1.67791
4.7, 6, -2.86858, 21.1157, 35.2248, -3.05062, -67.266, 1.7197
4.704, 6, -2.94495, 21.1705, 35.2222, -3.1277, -67.4112, 1.76129
4.708, 6, -3.02129, 21.2256, 35.2192, -3.20456, -67.5563, 1.80266
4.712, 6, -3.09761, 21.2809, 35.2159, -3.28119, -67.7014, 1.84382
4.716, 6, -3.1739, 21.3364, 35.2123, -3.35759, -67.8463, 1.88477
4.72, 6, -3.25017, 21.3921, 35.2084, -3.43378, -67.9912, 1.92552
4.724, 6, -3.32641, 21.448, 35.2041, -3.50975, -68.1359, 1.96606
4.728, 6, -3.40263, 21.5041, 35.1996, -3.5855, -68.2806, 2.00639
4.732, 6, -3.47882, 21.5603, 35.1946, -3.66103, -68.4252, 2.04653
4.736, 6, -3.55498, 21.6168, 35.1894, -3.73634, -68.5698, 2.08646
4.74, 6, -3.63111, 21.6735, 35.1838, -3.81144, -68.7142, 2.12619
4.744, 6, -3.70722, 21.7304, 35.1779, -3.88632, -68.8585, 2.16572
4.748, 6, -3.7833, 21.7874, 35.1716, -3.96099, -69.0028, 2.20506
4.752, 6, -3.85934, 21.8447, 35.1651, -4.03545, -69.1469, 2.2442
4.756, 6, -3.93536, 21.9022, 35.1582, -4.1097, -69.291, 2.28315
4.76, 6, -4.01135, 21.9598, 35.1509, -4.18373, -69.4349, 2.32191
4.764, 6, -4.08731, 22.0177, 35.1434, -4.25756, -69.5788, 2.36048
4.768, 6, -4.16323, 22.0757, 35.1355, -4.33118, -69.7226, 2.39886
4.772, 6, -4.23913, 22.1339, 35.1273, -4.40459, -69.8662, 2.43705
4.776, 6, -4.31499, 22.1923, 35.1187, -4.47779, -70.0098, 2.47506
4.78, 6, -4.39082, 22.2509, 35.1098, -4.5508, -70.1533, 2.51288
4.784, 6, -4.46661, 22.3097, 35.1006, -4.62359, -70.2966, 2.55052
4.788, 6, -4.54237, 22.3687, 35.0911, -4.69618, -70.4399, 2.58798
4.792, 6, -4.6181, 22.4278, 35.0812, -4.76858, -70.583, 2.62526
4.796, 6, -4.69379, 22.4872, 35.071, -4.84077, -70.7261, 2.66236
4.8, 6, -4.76945, 22.5467, 35.0605, -4.91276, -70.869, 2.69929
4.804, 6, -4.84507, 22.6064, 35.0496, -4.98455, -71.0118, 2.73603
4.808, 6, -4.92066, 22.6663, 35.0384, -5.05614, -71.1545, 2.77261
4.812, 6, -4.99621, 22.7264, 35.0269, -5.12754, -71.2971, 2.80901
4.816, 6, -5.07172, 22.7867, 35.015, -5.19874, -71.4396, 2.84525
4.82, 6, -5.1472, 22.8471, 35.0028, -5.26975, -71.582, 2.88131
4.824, 6, -5.22263, 22.9077, 34.9903, -5.34056, -71.7243, 2.9172
4.828, 6, -5.29803, 22.9685, 34.9775, -5.41118, -71.8664, 2.95293
4.832, 6, -5.37339, 23.0295, 34.9643, -5.48161, -72.0084, 2.9885
4.836, 6, -5.44871, 23.0907, 34.9508, -5.55185, -72.1504, 3.0239
4.84, 6, -5.52399, 23.152, 34.937, -5.62189, -72.2922, 3.05913
4.844, 6, -5.59923, 23.2135, 34.9228, -5.69175, -72.4338, 3.09421
4.848, 6, -5.67443, 23.2752, 34.9083, -5.76142, -72.5754, 3.12913
4.852, 6, -5.74958, 23.3371, 34.8935, -5.8309, -72.7168, 3.16389
4.856, 6, -5.8247, 23.3991, 34.8783, -5.9002, -72.8581, 3.19849
4.86, 6, -5.89977, 23.4614, 34.8628, -5.96931, -72.9993, 3.23293
4.864, 6, -5.9748, 23.5237, 34.847, -6.03823, -73.1403, 3.26723
4.868, 6, -6.04979, 23.5863, 34.8309, -6.10698, -73.2812, 3.30137
4.872, 6, -6.12473, 23.649, 34.8144, -6.17553, -73.422, 3.33535
4.876, 6, -6.19963, 23.7119, 34.7976, -6.24391, -73.5627, 3.36919
4.88, 6, -6.27448, 23.775, 34.7804, -6.31211, -73.7032, 3.40288
4.884, 6, -6.34929, 23.8383, 34.7629, -6.38013, -73.8436, 3.43642
4.888, 6, -6.42405, 23.9017, 34.7451, -6.44797, -73.9839, 3.46982
4.892, 6, -6.49876, 23.9652, 34.727, -6.51563, -74.124, 3.50307
4.896, 6, -6.57343, 24.029, 34.7085, -6.58311, -74.264, 3.53618
4.9, 6, -6.64805, 24.0929, 34.6897, -6.65041, -74.4039, 3.56915
4.904, 6, -6.72262, 24.1569, 34.6706, -6.71754, -74.5436, 3.60197
4.908, 6, -6.79715, 24.2212, 34.6512, -6.78449, -74.6832, 3.63466
4.912, 6, -6.87162, 24.2856, 34.6314, -6.85127, -74.8226, 3.66721
4.916, 6, -6.94605, 24.3501, 34.6113, -6.91787, -74.9619, 3.69962
4.92, 6, -7.02043, 24.4148, 34.5908, -6.9843, -75.1011, 3.73189
4.924, 6, -7.09476, 24.4797, 34.5701, -7.05055, -75.2401, 3.76404
4.928, 6, -7.16903, 24.5447, 34.549, -7.11663, -75.379, 3.79605
4.932, 6, -7.24326, 24.6099, 34.5275, -7.18254, -75.5177, 3.82792
4.936, 6, -7.31744, 24.6753, 34.5058, -7.24827, -75.6562, 3.85967
4.94, 6, -7.39156, 24.7408, 34.4837, -7.31383, -75.7947, 3.89129
4.944, 6, -7.46563, 24.8064, 34.4613, -7.37922, -75.933, 3.92278
4.948, 6, -7.53965, 24.8722, 34.4386, -7.44444, -76.0711, 3.95415
4.952, 6, -7.61362, 24.9382, 34.4155, -7.50949, -76.2091, 3.98539
4.956, 6, -7.68753, 25.0043, 34.3921, -7.57436, -76.3469, 4.01651
4.96, 6, -7.76139, 25.0706, 34.3684, -7.63906, -76.4846, 4.0475
4.964, 6, -7.83519, 25.137, 34.3443, -7.7036, -76.6221, 4.07838
4.968, 6, -7.90894, 25.2035, 34.32, -7.76796, -76.7594, 4.10913
4.972, 6, -7.98263, 25.2702, 34.2953, -7.83215, -76.8967, 4.13977
4.976, 6, -8.05627, 25.3371, 34.2703, -7.89618, -77.0337, 4.17029
4.98, 6, -8.12985, 25.4041, 34.2449, -7.96003, -77.1706, 4.20069
4.984, 6, -8.20337, 25.4712, 34.2192, -8.02372, -77.3073, 4.23098
4.988, 6, -8.27684, 25.5385, 34.1932, -8.08723, -77.4439, 4.26116
4.992, 6, -8.35025, 25.6059, 34.1669, -8.15058, -77.5803, 4.29122
4.996, 6, -8.4236, 25.6735, 34.1403, -8.21376, -77.7166, 4.32117
5, 6, -8.4969, 25.7412, 34.1133, -8.27677, -77.8527, 4.35101
5.004, 6, -8.57013, 25.8091, 34.086, -8.33962, -77.9886, 4.38075
5.008, 6, -8.64331, 25.8771, 34.0584, -8.4023, -78.1244, 4.41038
5.012, 6, -8.71642, 25.9452, 34.0304, -8.46481, -78.26, 4.4399
5.016, 6, -8.78948, 26.0135, 34.0021, -8.52715, -78.3954, 4.46932
5.02, 6, -8.86247, 26.0819, 33.9735, -8.58933, -78.5307, 4.49863
5.024, 6, -8.93541, 26.1504, 33.9446, -8.65135, -78.6658, 4.52784
5.028, 6, -9.00828, 26.2191, 33.9154, -8.71319, -78.8007, 4.55696
5.032, 6, -9.08109, 26.2879, 33.8858, -8.77488, -78.9355, 4.58597
5.036, 6, -9.15384, 26.3569, 33.8559, -8.8364, -79.0701, 4.61488
5.04, 6, -9.22653, 26.4259, 33.8257, -8.89775, -79.2045, 4.6437
5.044, 6, -9.29916, 26.4952, 33.7952, -8.95894, -79.3388, 4.67242
5.048, 6, -9.37172, 26.5645, 33.7643, -9.01996, -79.4729, 4.70104
5.052, 6, -9.44421, 26.634, 33.7331, -9.08083, -79.6068, 4.72957
5.056, 6, -9.51665, 26.7036, 33.7016, -9.14153, -79.7405, 4.75801
5.06, 6, -9.58902, 26.7733, 33.6698, -9.20206, -79.8741, 4.78636
5.064, 6, -9.66132, 26.8432, 33.6376, -9.26243, -80.0074, 4.81461
5.068, 6, -9.73356, 26.9131, 33.6052, -9.32265, -80.1406, 4.84278
5.072, 6, -9.80574, 26.9832, 33.5724, -9.3827, -80.2737, 4.87086
5.076, 6, -9.87784, 27.0535, 33.5393, -9.44258, -80.4065, 4.89886
5.08, 6, -9.94989, 27.1238, 33.5058, -9.50231, -80.5392, 4.92676
5.084, 6, -10.0219, 27.1943, 33.4721, -9.56187, -80.6717, 4.95459
5.088, 6, -10.0938, 27.2649, 33.438, -9.62128, -80.804, 4.98233
5.092, 6, -10.1656, 27.3357, 33.4036, -9.68052, -80.9361, 5.00999
5.096, 6, -10.2374, 27.4065, 33.3689, -9.7396, -81.0681, 5.03756
5.1, 6, -10.3091, 27.4775, 33.3338, -9.79853, -81.1998, 5.06506
5.104, 6, -10.3807, 27.5486, 33.2985, -9.85729, -81.3314, 5.09248
5.108, 6, -10.4523, 27.6198, 33.2628, -9.9159, -81.4628, 5.11982
5.112, 6, -10.5238, 27.6911, 33.2268, -9.97434, -81.594, 5.14709
5.116, 6, -10.5952, 27.7625, 33.1905, -10.0326, -81.725, 5.17428
5.12, 6, -10.6666, 27.8341, 33.1538, -10.0908, -81.8558, 5.20139
5.124, 6, -10.7379, 27.9058, 33.1169, -10.1487, -81.9865, 5.22844
5.128, 6, -10.8091, 27.9775, 33.0796, -10.2065, -82.1169, 5.25541
5.132, 6, -10.8802, 28.0494, 33.042, -10.2642, -82.2472, 5.28231
5.136, 6, -10.9513, 28.1215, 33.0041, -10.3217, -82.3773, 5.30914
5.14, 6, -11.0223, 28.1936, 32.9659, -10.379, -82.5071, 5.3359
5.144, 6, -11.0932, 28.2658, 32.9273, -10.4362, -82.6368, 5.3626
5.148, 6, -11.1641, 28.3382, 32.8885, -10.4932, -82.7663, 5.38922
5.152, 6, -11.2349, 28.4106, 32.8493, -10.5501, -82.8956, 5.41579
5.156, 6, -11.3056, 28.4832, 32.8098, -10.6068, -83.0247, 5.44229
5.16, 6, -11.3762, 28.5559, 32.77, -10.6634, -83.1536, 5.46872
5.164, 6, -11.4468, 28.6287, 32.7298, -10.7198, -83.2823, 5.49509
5.168, 6, -11.5173, 28.7016, 32.6894, -10.7761, -83.4109, 5.52141
5.172, 6, -11.5877, 28.7745, 32.6486, -10.8322, -83.5392, 5.54766
5.176, 6, -11.658, 28.8477, 32.6075, -10.8881, -83.6673, 5.57385
5.18, 6, -11.7283, 28.9209, 32.5661, -10.9439, -83.7952, 5.59999
5.184, 6, -11.7985, 28.9942, 32.5244, -10.9995, -83.9229, 5.62607
5.188, 6, -11.8686, 29.0676, 32.4824, -11.055, -84.0505, 5.65209
5.192, 6, -11.9386, 29.1411, 32.44, -11.1103, -84.1778, 5.67806
5.196, 6, -12.0086, 29.2147, 32.3974, -11.1655, -84.3049, 5.70397
5.2, 6, -12.0785, 29.2884, 32.3544, -11.2205, -84.4318, 5.72984
5.204, 6, -12.1483, 29.3622, 32.3111, -11.2754, -84.5585, 5.75565
5.208, 6, -12.218, 29.4362, 32.2675, -11.3301, -84.685, 5.78141
5.212, 6, -12.2876, 29.5102, 32.2236, -11.3847, -84.8113, 5.80712
5.216, 6, -12.3572, 29.5843, 32.1793, -11.4391, -84.9374, 5.83278
5.22, 6, -12.4267, 29.6585, 32.1348, -11.4933, -85.0633, 5.8584
5.224, 6, -12.4961, 29.7328, 32.0899, -11.5475, -85.189, 5.88397
5.228, 6, -12.5655, 29.8072, 32.0447, -11.6014, -85.3145, 5.90949
5.232, 6, -12.6347, 29.8817, 31.9992, -11.6552, -85.4397, 5.93497
5.236, 6, -12.7039, 29.9563, 31.9534, -11.7089, -85.5648, 5.96041
5.24, 6, -12.773, 30.031, 31.9073, -11.7624, -85.6897, 5.98581
5.244, 6, -12.842, 30.1058, 31.8609, -11.8157, -85.8143, 6.01116
5.248, 6, -12.9109, 30.1806, 31.8141, -11.8689, -85.9387, 6.03648
5.252, 6, -12.9798, 30.2556, 31.7671, -11.9219, -86.0629, 6.06175
5.256, 6, -13.0485, 30.3306, 31.7197, -11.9748, -86.187, 6.08699
5.26, 6, -13.1172, 30.4058, 31.672, -12.0275, -86.3108, 6.11219
5.264, 6, -13.1858, 30.481, 31.624, -12.0801, -86.4343, 6.13736
5.268, 6, -13.2544, 30.5563, 31.5757, -12.1325, -86.5577, 6.16249
5.272, 6, -13.3228, 30.6317, 31.5271, -12.1848, -86.6809, 6.18759
5.276, 6, -13.3912, 30.7072, 31.4782, -12.2369, -86.8038, 6.21265
5.28, 6, -13.4594, 30.7828, 31.4289, -12.2889, -86.9266, 6.23768
5.284, 6, -13.5276, 30.8585, 31.3794, -12.3407, -87.0491, 6.26269
5.288, 6, -13.5958, 30.9342, 31.3296, -12.3923, -87.1714, 6.28766
5.292, 6, -13.6638, 31.01, 31.2794, -12.4438, -87.2935, 6.31261
5.296, 6, -13.7317, 31.086, 31.2289, -12.4951, -87.4153, 6.33753
5.3, 6, -13.7996, 31.162, 31.1781, -12.5463, -87.537, 6.36242
5.304, 6, -13.8674, 31.238, 31.1271, -12.5973, -87.6584, 6.38728
5.308, 6, -13.9351, 31.3142, 31.0757, -12.6482, -87.7797, 6.41213
5.312, 6, -14.0027, 31.3904, 31.024, -12.6989, -87.9007, 6.43694
5.316, 6, -14.0702, 31.4668, 30.972, -12.7495, -88.0215, 6.46174
5.32, 6, -14.1376, 31.5432, 30.9196, -12.7999, -88.142, 6.48651
5.324, 6, -14.205, 31.6197, 30.867, -12.8502, -88.2624, 6.51127
5.328, 6, -14.2722, 31.6962, 30.8141, -12.9002, -88.3825, 6.536
5.332, 6, -14.3394, 31.7729, 30.7608, -12.9502, -88.5024, 6.56072
5.336, 6, -14.4065, 31.8496, 30.7073, -13, -88.6221, 6.58542
5.34, 6, -14.4735, 31.9264, 30.6535, -13.0496, -88.7416, 6.6101
5.344, 6, -14.5404, 32.0033, 30.5993, -13.0991, -88.8609, 6.63477
5.348, 6, -14.6073, 32.0802, 30.5448, -13.1484, -88.9799, 6.65942
5.352, 6, -14.674, 32.1572, 30.4901, -13.1975, -89.0987, 6.68406
5.356, 6, -14.7407, 32.2343, 30.435, -13.2465, -89.2173, 6.70868
5.36, 6, -14.8072, 32.3115, 30.3796, -13.2954, -89.3357, 6.7333
5.364, 6, -14.8737, 32.3887, 30.3239, -13.344, -89.4538, 6.7579
5.368, 6, -14.9401, 32.466, 30.268, -13.3926, -89.5717, 6.78249
5.372, 6, -15.0064, 32.5434, 30.2117, -13.4409, -89.6894, 6.80708
5.376, 6, -15.0726, 32.6209, 30.1551, -13.4892, -89.8069, 6.83165
5.38, 6, -15.1388, 32.6984, 30.0982, -13.5372, -89.9241, 6.85622
5.384, 6, -15.2048, 32.776, 30.041, -13.5851, -90.0412, 6.88079
5.388, 6, -15.2708, 32.8537, 29.9835, -13.6329, -90.158, 6.90534
5.392, 6, -15.3366, 32.9314, 29.9257, -13.6804, -90.2745, 6.9299
5.396, 6, -15.4024, 33.0092, 29.8676, -13.7279, -90.3909, 6.95445
5.4, 6, -15.4681, 33.0871, 29.8092, -13.7751, -90.507, 6.979
5.404, 6, -15.5337, 33.165, 29.7505, -13.8222, -90.6229, 7.00355
5.408, 6, -15.5992, 33.2431, 29.6915, -13.8692, -90.7386, 7.02809
5.412, 6, -15.6646, 33.3211, 29.6321, -13.916, -90.854, 7.05264
5.416, 6, -15.7299, 33.3993, 29.5725, -13.9626, -90.9692, 7.07719
5.42, 6, -15.7951, 33.4775, 29.5126, -14.0091, -91.0842, 7.10174
5.424, 6, -15.8602, 33.5557, 29.4524, -14.0554, -91.1989, 7.12629
5.428, 6, -15.9253, 33.6341, 29.3919, -14.1015, -91.3135, 7.15085
5.432, 6, -15.9902, 33.7125, 29.3311, -14.1475, -91.4277, 7.17541
5.436, 6, -16.0551, 33.7909, 29.2699, -14.1934, -91.5418, 7.19998
5.44, 6, -16.1199, 33.8694, 29.2085, -14.2391, -91.6556, 7.22456
5.444, 6, -16.1845, 33.948, 29.1468, -14.2846, -91.7692, 7.24914
5.448, 6, -16.2491, 34.0267, 29.0848, -14.3299, -91.8826, 7.27373
5.452, 6, -16.3135, 34.1053, 29.0225, -14.3751, -91.9957, 7.29833
5.456, 6, -16.3778, 34.184, 28.9599, -14.4202, -92.1086, 7.32294
5.46, 6, -16.4418, 34.2627, 28.897, -14.465, -92.2213, 7.34756
5.464, 6, -16.5055, 34.3413, 28.8339, -14.5097, -92.3337, 7.37219
5.468, 6, -16.5689, 34.4199, 28.7705, -14.5542, -92.4458, 7.39682
5.472, 6, -16.6319, 34.4982, 28.7069, -14.5986, -92.5576, 7.42145
5.476, 6, -16.6945, 34.5763, 28.6432, -14.6427, -92.6691, 7.44607
5.48, 6, -16.7563, 34.6539, 28.5794, -14.6866, -92.7802, 7.47066
5.484, 6, -16.8173, 34.7308, 28.5158, -14.7303, -92.8908, 7.49519
5.488, 6, -16.8771, 34.8066, 28.4524, -14.7736, -93.0006, 7.51964
5.492, 6, -16.9355, 34.8811, 28.3894, -14.8165, -93.1096, 7.54395
5.496, 6, -16.9923, 34.954, 28.3272, -14.8588, -93.2174, 7.56804
5.5, 6, -17.0473, 35.025, 28.2658, -14.9005, -93.3235, 7.59181
5.504, 6, -17.1005, 35.0939, 28.2057, -14.9412, -93.4275, 7.61516
5.508, 6, -17.1519, 35.1607, 28.147, -14.9808, -93.5287, 7.63794
5.512, 6, -17.2014, 35.2253, 28.0901, -15.0191, -93.6266, 7.66003
5.516, 6, -17.249, 35.2873, 28.0351, -15.0558, -93.7205, 7.68127
5.52, 6, -17.2946, 35.3467, 27.9825, -15.0907, -93.81, 7.70154
5.524, 6, -17.3379, 35.4032, 27.9326, -15.1236, -93.8944, 7.7207
5.528, 6, -17.379, 35.4565, 27.8855, -15.1543, -93.9733, 7.73864
5.532, 6, -17.4177, 35.5066, 27.8416, -15.1827, -94.0462, 7.75528
5.536, 6, -17.454, 35.5533, 27.801, -15.2086, -94.113, 7.77053
5.54, 6, -17.4879, 35.5967, 27.7638, -15.232, -94.1733, 7.78434
5.544, 6, -17.5196, 35.6368, 27.7299, -15.2528, -94.2272, 7.7967
5.548, 6, -17.5491, 35.6737, 27.6995, -15.2712, -94.2746, 7.80762
5.552, 6, -17.5763, 35.7073, 27.6724, -15.2871, -94.3159, 7.81713
5.556, 6, -17.6012, 35.7376, 27.6485, -15.3008, -94.3514, 7.82532
5.56, 6, -17.6236, 35.7647, 27.6278, -15.3124, -94.3814, 7.83227
5.564, 6, -17.6436, 35.7884, 27.6101, -15.322, -94.4065, 7.83809
5.568, 6, -17.661, 35.8089, 27.595, -15.3299, -94.4272, 7.8429
5.572, 6, -17.6761, 35.8265, 27.5825, -15.3364, -94.4439, 7.84682
5.576, 6, -17.6891, 35.8413, 27.5722, -15.3415, -94.4574, 7.84995
5.58, 6, -17.7002, 35.8537, 27.5638, -15.3455, -94.4679, 7.85241
5.584, 6, -17.7098, 35.8641, 27.5571, -15.3486, -94.4759, 7.85431
5.588, 6, -17.7181, 35.8728, 27.5517, -15.3509, -94.482, 7.85574
5.592, 6, -17.7252, 35.8799, 27.5475, -15.3526, -94.4864, 7.85679
5.596, 6, -17.7311, 35.8857, 27.5443, -15.3538, -94.4896, 7.85755
5.6, 7, -17.736, 35.8902, 27.5419, -15.3546, -94.4918, 7.85808
5.604, 7, -17.7398, 35.8936, 27.5402, -15.3552, -94.4934, 7.85845
5.608, 7, -17.7427, 35.8961, 27.539, -15.3556, -94.4944, 7.8587
5.612, 7, -17.7447, 35.8979, 27.5381, -15.3559, -94.4951, 7.85887
5.616, 7, -17.7462, 35.8991, 27.5375, -15.356, -94.4956, 7.85899
5.62, 7, -17.7471, 35.8999, 27.5371, -15.3562, -94.4959, 7.85906
5.624, 7, -17.7478, 35.9005, 27.5368, -15.3562, -94.4961, 7.85912
5.628, 7, -17.7482, 35.9008, 27.5367, -15.3563, -94.4963, 7.85915
5.632, 7, -17.7485, 35.9011, 27.5365, -15.3563, -94.4964, 7.85918
5.636, 7, -17.7487, 35.9013, 27.5365, -15.3564, -94.4965, 7.85919
5.64, 7, -17.7488, 35.9014, 27.5364, -15.3564, -94.4965, 7.85921
5.644, 7, -17.7489, 35.9015, 27.5364, -15.3564, -94.4965, 7.85921
5.648, 7, -17.749, 35.9015, 27.5363, -15.3564, -94.4966, 7.85922
5.652, 7, -17.749, 35.9015, 27.5363, -15.3564, -94.4966, 7.85922
5.656, 7, -17.749, 35.9016, 27.5363, -15.3564, -94.4966, 7.85922
5.66, 7, -17.7491, 35.9016, 27.5363, -15.3564, -94.4966, 7.85923
5.664, 7, -17.7491, 35.9016, 27.5363, -15.3564, -94.4966, 7.85923
5.668, 7, -17.7491, 35.9016, 27.5363, -15.3564, -94.4966, 7.85923
5.672, 7, -17.7491, 35.9016, 27.5363, -15.3564, -94.4966, 7.85923
5.676, 7, -17.7491, 35.9016, 27.5363, -15.3564, -94.4966, 7.85923
5.68, 7, -17.7491, 35.9016, 27.5363, -15.3564, -94.4966, 7.85923
5.684, 7, -17.7491, 35.9016, 27.5363, -15.3564, -94.4966, 7.85923
5.688, 7, -17.7491, 35.9016, 27.5363, -15.3564, -94.4966, 7.85923
5.692, 7, -17.7491, 35.9016, 27.5363, -15.3564, -94.4966, 7.85923
5.696, 7, -17.7491, 35.9016, 27.5363, -15.3564, -94.4966, 7.85923
5.7, 7, -17.7491, 35.9016, 27.5363, -15.3564, -94.4966, 7.85923
5.704, 7, -17.7491, 35.9016, 27.5363, -15.3564, -94.4966, 7.85923
5.708, 7, -17.7491, 35.9016, 27.5363, -15.3564, -94.4966, 7.85923
5.712, 7, -17.7491, 35.9016, 27.5363, -15.3564, -94.4966, 7.85923
5.716, 7, -17.7491, 35.9016, 27.5363, -15.3564, -94.4966, 7.85923
