hehonglu123/ABB_Primitive_Study/execution/movel_smooth/curve_exe_v50_z20.csv
timestamp, cmd_num, J1, J2, J3, J4, J5, J6
0, -1, 32.7465, 54.2623, -9.50115, 89.6875, -78.664, 35.1143
0.002, -1, 32.7465, 54.2623, -9.50115, 89.6875, -78.664, 35.1143
0.006, -1, 32.7465, 54.2623, -9.50115, 89.6875, -78.664, 35.1143
0.008, -1, 32.7465, 54.2623, -9.50115, 89.6875, -78.664, 35.1143
0.011, -1, 32.7465, 54.2623, -9.50115, 89.6875, -78.664, 35.1143
0.016, -1, 32.7465, 54.2623, -9.50115, 89.6875, -78.664, 35.1143
0.02, -1, 32.7465, 54.2623, -9.50115, 89.6875, -78.664, 35.1143
0.024, -1, 32.7465, 54.2623, -9.50115, 89.6875, -78.664, 35.1143
0.028, -1, 32.7465, 54.2623, -9.50115, 89.6875, -78.664, 35.1143
0.032, -1, 32.7465, 54.2623, -9.50115, 89.6875, -78.664, 35.1143
0.036, -1, 32.7466, 54.2623, -9.50115, 89.6875, -78.664, 35.1143
0.04, -1, 32.7467, 54.2621, -9.50116, 89.6875, -78.664, 35.1143
0.044, -1, 32.7471, 54.2618, -9.50116, 89.6875, -78.6639, 35.1143
0.048, -1, 32.7479, 54.2611, -9.50118, 89.6876, -78.6638, 35.1144
0.052, -1, 32.7491, 54.2598, -9.50124, 89.6877, -78.6634, 35.1145
0.056, -1, 32.7507, 54.2577, -9.50136, 89.6879, -78.6626, 35.1147
0.06, -1, 32.7529, 54.2547, -9.50159, 89.6883, -78.6611, 35.1152
0.064, -1, 32.7556, 54.2507, -9.502, 89.689, -78.6586, 35.1161
0.068, -1, 32.7588, 54.2455, -9.50267, 89.6902, -78.6545, 35.1174
0.072, -1, 32.7625, 54.2391, -9.5037, 89.692, -78.6482, 35.1195
0.076, -1, 32.7668, 54.2314, -9.50521, 89.6946, -78.6391, 35.1225
0.08, -1, 32.7718, 54.2224, -9.50734, 89.6982, -78.6262, 35.1267
0.084, -1, 32.7776, 54.212, -9.51024, 89.7032, -78.6088, 35.1325
0.088, -1, 32.784, 54.2002, -9.5141, 89.7098, -78.5857, 35.1401
0.092, -1, 32.7912, 54.1873, -9.51908, 89.7183, -78.5559, 35.1499
0.096, -1, 32.7988, 54.1733, -9.52538, 89.729, -78.5183, 35.1622
0.1, -1, 32.8067, 54.1585, -9.53315, 89.7422, -78.472, 35.1774
0.104, -1, 32.815, 54.143, -9.54252, 89.7581, -78.4163, 35.1957
0.108, -1, 32.8235, 54.1267, -9.55357, 89.7769, -78.3507, 35.2173
0.112, -1, 32.8324, 54.1096, -9.56636, 89.7986, -78.2748, 35.2423
0.116, -1, 32.8415, 54.0916, -9.58087, 89.8232, -78.1888, 35.2705
0.12, -1, 32.8511, 54.0725, -9.59706, 89.8507, -78.0929, 35.3021
0.124, -1, 32.8611, 54.0525, -9.61485, 89.8808, -77.9875, 35.3367
0.128, -1, 32.8716, 54.0317, -9.63411, 89.9134, -77.8735, 35.3742
0.131, -1, 32.8823, 54.0101, -9.65471, 89.9483, -77.7516, 35.4142
0.136, -1, 32.8932, 53.9877, -9.67648, 89.9852, -77.6227, 35.4566
0.139, -1, 32.9045, 53.9644, -9.69923, 90.0237, -77.4881, 35.5008
0.144, -1, 32.9163, 53.9399, -9.72278, 90.0636, -77.3487, 35.5466
0.148, -1, 32.9288, 53.914, -9.74695, 90.1045, -77.2057, 35.5936
0.152, -1, 32.942, 53.8866, -9.77157, 90.1462, -77.0599, 35.6415
0.156, -1, 32.9561, 53.8575, -9.79651, 90.1885, -76.9123, 35.6901
0.16, -1, 32.9711, 53.8271, -9.82165, 90.231, -76.7634, 35.739
0.164, -1, 32.9869, 53.7955, -9.84692, 90.2739, -76.6137, 35.7882
0.168, -1, 33.0032, 53.7631, -9.87226, 90.3168, -76.4636, 35.8375
0.172, -1, 33.02, 53.7302, -9.89762, 90.3598, -76.3133, 35.8869
0.176, -1, 33.037, 53.6969, -9.92299, 90.4028, -76.163, 35.9363
0.18, -1, 33.0541, 53.6634, -9.94833, 90.4457, -76.0128, 35.9857
0.184, -1, 33.0714, 53.6298, -9.97365, 90.4886, -75.8628, 36.035
0.188, -1, 33.0888, 53.5962, -9.99894, 90.5315, -75.713, 36.0842
0.192, -1, 33.1061, 53.5625, -10.0242, 90.5743, -75.5634, 36.1334
0.196, -1, 33.1235, 53.5289, -10.0494, 90.617, -75.4141, 36.1825
0.2, -1, 33.1409, 53.4952, -10.0745, 90.6596, -75.265, 36.2315
0.204, -1, 33.1582, 53.4616, -10.0996, 90.7021, -75.1163, 36.2804
0.208, -1, 33.1755, 53.4281, -10.1247, 90.7446, -74.9678, 36.3292
0.212, -1, 33.1928, 53.3946, -10.1497, 90.787, -74.8197, 36.3779
0.216, -1, 33.2101, 53.3612, -10.1746, 90.8292, -74.6718, 36.4265
0.22, -1, 33.2273, 53.3278, -10.1995, 90.8714, -74.5242, 36.475
0.224, -1, 33.2446, 53.2945, -10.2244, 90.9136, -74.377, 36.5234
0.228, -1, 33.2617, 53.2613, -10.2492, 90.9556, -74.23, 36.5717
0.232, -1, 33.2789, 53.2282, -10.2739, 90.9975, -74.0834, 36.6199
0.236, -1, 33.296, 53.1951, -10.2986, 91.0394, -73.937, 36.668
0.24, -1, 33.313, 53.162, -10.3233, 91.0812, -73.7909, 36.716
0.244, -1, 33.3301, 53.1291, -10.3479, 91.1229, -73.6451, 36.7639
0.248, -1, 33.3471, 53.0962, -10.3724, 91.1645, -73.4996, 36.8117
0.252, -1, 33.364, 53.0633, -10.3969, 91.206, -73.3544, 36.8595
0.256, -1, 33.381, 53.0306, -10.4214, 91.2474, -73.2095, 36.9071
0.26, -1, 33.3979, 52.9979, -10.4458, 91.2888, -73.0649, 36.9546
0.264, -1, 33.4147, 52.9652, -10.4701, 91.3301, -72.9206, 37.0021
0.268, -1, 33.4316, 52.9327, -10.4944, 91.3713, -72.7765, 37.0494
0.272, -1, 33.4484, 52.9002, -10.5187, 91.4124, -72.6327, 37.0967
0.276, -1, 33.4651, 52.8677, -10.5429, 91.4534, -72.4893, 37.1438
0.28, -1, 33.4819, 52.8353, -10.5671, 91.4944, -72.346, 37.1909
0.284, -1, 33.4986, 52.803, -10.5912, 91.5353, -72.2031, 37.2379
0.288, -1, 33.5152, 52.7708, -10.6153, 91.5761, -72.0604, 37.2848
0.292, -1, 33.5319, 52.7386, -10.6393, 91.6168, -71.9181, 37.3316
0.296, -1, 33.5485, 52.7065, -10.6633, 91.6574, -71.776, 37.3783
0.3, -1, 33.5651, 52.6744, -10.6872, 91.698, -71.6341, 37.4249
0.304, -1, 33.5816, 52.6424, -10.7111, 91.7385, -71.4925, 37.4714
0.308, -1, 33.5981, 52.6104, -10.7349, 91.7789, -71.3513, 37.5179
0.312, -1, 33.6146, 52.5785, -10.7587, 91.8192, -71.2102, 37.5642
0.316, -1, 33.631, 52.5467, -10.7825, 91.8595, -71.0695, 37.6105
0.32, -1, 33.6474, 52.5149, -10.8062, 91.8997, -70.929, 37.6567
0.324, -1, 33.6638, 52.4832, -10.8299, 91.9398, -70.7887, 37.7028
0.328, -1, 33.6802, 52.4516, -10.8535, 91.9798, -70.6488, 37.7488
0.332, -1, 33.6965, 52.42, -10.8771, 92.0198, -70.509, 37.7947
0.336, -1, 33.7128, 52.3885, -10.9006, 92.0597, -70.3696, 37.8405
0.34, -1, 33.7291, 52.357, -10.9241, 92.0995, -70.2304, 37.8863
0.344, -1, 33.7453, 52.3256, -10.9475, 92.1392, -70.0914, 37.9319
0.348, -1, 33.7615, 52.2942, -10.9709, 92.1789, -69.9528, 37.9775
0.352, -1, 33.7777, 52.2629, -10.9943, 92.2185, -69.8143, 38.023
0.356, -1, 33.7938, 52.2317, -11.0176, 92.258, -69.6762, 38.0685
0.36, -1, 33.8099, 52.2005, -11.0409, 92.2974, -69.5382, 38.1138
0.364, -1, 33.826, 52.1694, -11.0641, 92.3368, -69.4006, 38.159
0.368, -1, 33.8421, 52.1383, -11.0873, 92.3761, -69.2631, 38.2042
0.372, -1, 33.8581, 52.1073, -11.1104, 92.4153, -69.126, 38.2493
0.376, -1, 33.8741, 52.0763, -11.1336, 92.4545, -68.989, 38.2943
0.38, -1, 33.8901, 52.0454, -11.1566, 92.4936, -68.8523, 38.3392
0.384, -1, 33.906, 52.0146, -11.1796, 92.5326, -68.7159, 38.3841
0.388, -1, 33.9219, 51.9838, -11.2026, 92.5716, -68.5797, 38.4288
0.392, -1, 33.9378, 51.953, -11.2256, 92.6104, -68.4437, 38.4735
0.396, -1, 33.9537, 51.9224, -11.2485, 92.6493, -68.308, 38.5181
0.4, -1, 33.9695, 51.8917, -11.2713, 92.688, -68.1725, 38.5627
0.404, -1, 33.9853, 51.8611, -11.2942, 92.7267, -68.0373, 38.6071
0.408, -1, 34.0011, 51.8306, -11.3169, 92.7653, -67.9023, 38.6515
0.412, -1, 34.0168, 51.8002, -11.3397, 92.8038, -67.7675, 38.6958
0.416, -1, 34.0326, 51.7697, -11.3624, 92.8423, -67.633, 38.74
0.42, -1, 34.0483, 51.7394, -11.385, 92.8807, -67.4987, 38.7842
0.424, -1, 34.0639, 51.7091, -11.4077, 92.9191, -67.3646, 38.8282
0.428, -1, 34.0796, 51.6788, -11.4302, 92.9574, -67.2307, 38.8722
0.432, -1, 34.0952, 51.6486, -11.4528, 92.9956, -67.0971, 38.9161
0.436, -1, 34.1108, 51.6184, -11.4753, 93.0337, -66.9637, 38.96
0.44, -1, 34.1263, 51.5883, -11.4978, 93.0718, -66.8306, 39.0038
0.444, -1, 34.1418, 51.5583, -11.5202, 93.1098, -66.6976, 39.0474
0.448, -1, 34.1573, 51.5282, -11.5426, 93.1478, -66.5649, 39.0911
0.452, -1, 34.1728, 51.4983, -11.565, 93.1857, -66.4324, 39.1346
0.456, -1, 34.1883, 51.4684, -11.5873, 93.2235, -66.3002, 39.1781
0.46, -1, 34.2037, 51.4385, -11.6096, 93.2613, -66.1681, 39.2215
0.464, -1, 34.2191, 51.4087, -11.6318, 93.299, -66.0363, 39.2648
0.468, -1, 34.2345, 51.379, -11.654, 93.3366, -65.9047, 39.3081
0.472, -1, 34.2498, 51.3493, -11.6762, 93.3742, -65.7733, 39.3513
0.476, -1, 34.2652, 51.3196, -11.6983, 93.4117, -65.6421, 39.3944
0.48, -1, 34.2805, 51.29, -11.7204, 93.4492, -65.5111, 39.4374
0.484, -1, 34.2957, 51.2604, -11.7425, 93.4865, -65.3804, 39.4804
0.488, -1, 34.311, 51.2309, -11.7645, 93.5239, -65.2498, 39.5233
0.492, -1, 34.3262, 51.2014, -11.7865, 93.5611, -65.1195, 39.5662
0.496, -1, 34.3414, 51.172, -11.8085, 93.5984, -64.9894, 39.6089
0.5, -1, 34.3566, 51.1426, -11.8304, 93.6355, -64.8595, 39.6516
0.504, -1, 34.3718, 51.1133, -11.8523, 93.6726, -64.7298, 39.6943
0.508, -1, 34.3869, 51.084, -11.8741, 93.7096, -64.6003, 39.7368
0.512, -1, 34.402, 51.0548, -11.8959, 93.7466, -64.471, 39.7793
0.516, -1, 34.4171, 51.0256, -11.9177, 93.7835, -64.3419, 39.8217
0.52, -1, 34.4321, 50.9965, -11.9395, 93.8204, -64.213, 39.8641
0.524, -1, 34.4472, 50.9674, -11.9612, 93.8572, -64.0844, 39.9064
0.528, -1, 34.4622, 50.9384, -11.9828, 93.8939, -63.9559, 39.9486
0.532, -1, 34.4771, 50.9094, -12.0045, 93.9306, -63.8276, 39.9908
0.536, -1, 34.4921, 50.8804, -12.0261, 93.9672, -63.6996, 40.0329
0.54, -1, 34.507, 50.8515, -12.0477, 94.0038, -63.5717, 40.0749
0.544, -1, 34.522, 50.8226, -12.0692, 94.0403, -63.444, 40.1169
0.548, -1, 34.5369, 50.7938, -12.0907, 94.0768, -63.3166, 40.1588
0.552, -1, 34.5517, 50.765, -12.1122, 94.1132, -63.1893, 40.2006
0.556, -1, 34.5666, 50.7363, -12.1337, 94.1495, -63.0622, 40.2424
0.56, -1, 34.5814, 50.7076, -12.1551, 94.1858, -62.9353, 40.2841
0.564, -1, 34.5962, 50.679, -12.1764, 94.2221, -62.8086, 40.3257
0.568, -1, 34.611, 50.6504, -12.1978, 94.2582, -62.6821, 40.3673
0.572, -1, 34.6257, 50.6218, -12.2191, 94.2943, -62.5558, 40.4088
0.576, -1, 34.6405, 50.5933, -12.2404, 94.3304, -62.4297, 40.4502
0.58, -1, 34.6552, 50.5648, -12.2616, 94.3664, -62.3038, 40.4916
0.584, -1, 34.6699, 50.5364, -12.2828, 94.4024, -62.1781, 40.533
0.588, -1, 34.6845, 50.508, -12.304, 94.4383, -62.0525, 40.5742
0.592, -1, 34.6992, 50.4797, -12.3252, 94.4741, -61.9272, 40.6154
0.596, -1, 34.7138, 50.4514, -12.3463, 94.5099, -61.802, 40.6566
0.6, -1, 34.7284, 50.4231, -12.3674, 94.5457, -61.677, 40.6977
0.604, -1, 34.743, 50.3949, -12.3884, 94.5814, -61.5522, 40.7387
0.608, -1, 34.7575, 50.3667, -12.4095, 94.617, -61.4276, 40.7796
0.612, -1, 34.7721, 50.3386, -12.4305, 94.6526, -61.3032, 40.8205
0.616, -1, 34.7866, 50.3105, -12.4514, 94.6881, -61.1789, 40.8614
0.62, -1, 34.8011, 50.2824, -12.4724, 94.7236, -61.0548, 40.9022
0.624, -1, 34.8155, 50.2544, -12.4933, 94.7591, -60.931, 40.9429
0.628, -1, 34.83, 50.2265, -12.5142, 94.7944, -60.8073, 40.9835
0.632, -1, 34.8444, 50.1985, -12.535, 94.8298, -60.6837, 41.0241
0.636, -1, 34.8588, 50.1707, -12.5558, 94.865, -60.5604, 41.0647
0.64, -1, 34.8732, 50.1428, -12.5766, 94.9003, -60.4372, 41.1052
0.644, -1, 34.8876, 50.115, -12.5973, 94.9354, -60.3142, 41.1456
0.648, -1, 34.9019, 50.0872, -12.6181, 94.9706, -60.1914, 41.1859
0.652, -1, 34.9163, 50.0595, -12.6388, 95.0056, -60.0688, 41.2263
0.656, -1, 34.9306, 50.0318, -12.6594, 95.0407, -59.9463, 41.2665
0.66, -1, 34.9449, 50.0042, -12.6801, 95.0756, -59.824, 41.3067
0.664, -1, 34.9591, 49.9766, -12.7007, 95.1106, -59.7019, 41.3468
0.668, -1, 34.9734, 49.949, -12.7212, 95.1454, -59.58, 41.3869
0.672, -1, 34.9876, 49.9215, -12.7418, 95.1803, -59.4582, 41.427
0.676, -1, 35.0018, 49.894, -12.7623, 95.215, -59.3366, 41.4669
0.68, -1, 35.016, 49.8665, -12.7828, 95.2498, -59.2151, 41.5068
0.684, -1, 35.0301, 49.8391, -12.8033, 95.2844, -59.0939, 41.5467
0.688, -1, 35.0443, 49.8117, -12.8237, 95.3191, -58.9728, 41.5865
0.692, -1, 35.0584, 49.7844, -12.8441, 95.3537, -58.8519, 41.6262
0.696, -1, 35.0725, 49.7571, -12.8645, 95.3882, -58.7311, 41.6659
0.7, -1, 35.0866, 49.7298, -12.8848, 95.4227, -58.6105, 41.7056
0.704, -1, 35.1007, 49.7026, -12.9051, 95.4571, -58.4901, 41.7451
0.708, -1, 35.1147, 49.6754, -12.9254, 95.4915, -58.3698, 41.7847
0.712, -1, 35.1288, 49.6482, -12.9457, 95.5259, -58.2497, 41.8241
0.716, -1, 35.1428, 49.6211, -12.9659, 95.5602, -58.1298, 41.8636
0.72, -1, 35.1568, 49.5941, -12.9862, 95.5944, -58.01, 41.9029
0.724, -1, 35.1707, 49.567, -13.0063, 95.6286, -57.8904, 41.9422
0.728, -1, 35.1847, 49.54, -13.0265, 95.6628, -57.771, 41.9815
0.732, -1, 35.1986, 49.513, -13.0466, 95.6969, -57.6517, 42.0207
0.736, -1, 35.2125, 49.4861, -13.0667, 95.731, -57.5326, 42.0599
0.74, -1, 35.2264, 49.4592, -13.0868, 95.765, -57.4136, 42.099
0.744, -1, 35.2403, 49.4324, -13.1068, 95.799, -57.2948, 42.138
0.748, -1, 35.2542, 49.4055, -13.1269, 95.8329, -57.1762, 42.177
0.752, -1, 35.268, 49.3787, -13.1468, 95.8668, -57.0577, 42.2159
0.756, -1, 35.2818, 49.352, -13.1668, 95.9006, -56.9394, 42.2548
0.76, -1, 35.2956, 49.3253, -13.1868, 95.9344, -56.8212, 42.2937
0.764, -1, 35.3094, 49.2986, -13.2067, 95.9682, -56.7032, 42.3325
0.768, -1, 35.3232, 49.272, -13.2266, 96.0019, -56.5854, 42.3712
0.772, -1, 35.3369, 49.2453, -13.2464, 96.0355, -56.4676, 42.4099
0.776, -1, 35.3507, 49.2188, -13.2663, 96.0692, -56.3501, 42.4485
0.78, -1, 35.3644, 49.1922, -13.2861, 96.1027, -56.2327, 42.4871
0.784, -1, 35.3781, 49.1657, -13.3058, 96.1363, -56.1155, 42.5257
0.788, -1, 35.3917, 49.1392, -13.3256, 96.1698, -55.9984, 42.5641
0.792, -1, 35.4054, 49.1128, -13.3453, 96.2032, -55.8814, 42.6026
0.796, -1, 35.4191, 49.0864, -13.365, 96.2366, -55.7646, 42.641
0.8, -1, 35.4327, 49.06, -13.3847, 96.27, -55.648, 42.6793
0.804, -1, 35.4463, 49.0337, -13.4044, 96.3033, -55.5315, 42.7176
0.808, -1, 35.4599, 49.0074, -13.424, 96.3365, -55.4151, 42.7558
0.812, -1, 35.4734, 48.9811, -13.4436, 96.3698, -55.2989, 42.794
0.816, -1, 35.487, 48.9549, -13.4632, 96.403, -55.1829, 42.8322
0.82, -1, 35.5005, 48.9287, -13.4828, 96.4361, -55.067, 42.8703
0.824, -1, 35.5141, 48.9025, -13.5023, 96.4692, -54.9512, 42.9083
0.828, -1, 35.5276, 48.8764, -13.5218, 96.5023, -54.8356, 42.9463
0.832, -1, 35.5411, 48.8503, -13.5413, 96.5353, -54.7201, 42.9843
0.836, -1, 35.5545, 48.8242, -13.5608, 96.5683, -54.6048, 43.0222
0.84, -1, 35.568, 48.7981, -13.5802, 96.6012, -54.4896, 43.06
0.844, -1, 35.5814, 48.7721, -13.5996, 96.6341, -54.3746, 43.0979
0.848, -1, 35.5949, 48.7461, -13.619, 96.667, -54.2597, 43.1356
0.852, -1, 35.6083, 48.7202, -13.6384, 96.6998, -54.1449, 43.1733
0.856, -1, 35.6216, 48.6943, -13.6577, 96.7326, -54.0303, 43.211
0.86, -1, 35.635, 48.6684, -13.677, 96.7654, -53.9158, 43.2486
0.864, -1, 35.6483, 48.6426, -13.6963, 96.798, -53.8015, 43.2862
0.868, -1, 35.6616, 48.6169, -13.7156, 96.8307, -53.6873, 43.3238
0.872, -1, 35.6747, 48.5912, -13.7348, 96.8633, -53.5732, 43.3612
0.876, -1, 35.6878, 48.5656, -13.754, 96.8959, -53.4594, 43.3987
0.88, -1, 35.7008, 48.5402, -13.7732, 96.9284, -53.3457, 43.436
0.884, -1, 35.7135, 48.515, -13.7924, 96.9608, -53.2323, 43.4733
0.888, -1, 35.726, 48.4902, -13.8115, 96.9932, -53.1192, 43.5105
0.892, -1, 35.738, 48.466, -13.8305, 97.0254, -53.0066, 43.5475
0.896, -1, 35.7494, 48.4426, -13.8494, 97.0574, -52.8946, 43.5843
0.9, -1, 35.7603, 48.4201, -13.8682, 97.0892, -52.7836, 43.6208
0.904, -1, 35.7705, 48.3986, -13.8867, 97.1205, -52.6741, 43.6568
0.908, -1, 35.7802, 48.3781, -13.9049, 97.1513, -52.5665, 43.6922
0.912, -1, 35.7894, 48.3586, -13.9227, 97.1813, -52.4615, 43.7267
0.916, -1, 35.7982, 48.3399, -13.9399, 97.2104, -52.3599, 43.7602
0.92, -1, 35.8067, 48.3221, -13.9564, 97.2383, -52.2624, 43.7923
0.924, -1, 35.8148, 48.3051, -13.9721, 97.2649, -52.1697, 43.8228
0.928, -1, 35.8225, 48.2891, -13.9869, 97.2898, -52.0824, 43.8514
0.932, -1, 35.8299, 48.274, -14.0006, 97.313, -52.0014, 43.8781
0.936, -1, 35.837, 48.2597, -14.0132, 97.3343, -51.927, 43.9026
0.94, -1, 35.8438, 48.2461, -14.0246, 97.3535, -51.8598, 43.9247
0.944, -1, 35.8505, 48.233, -14.0347, 97.3706, -51.8, 43.9443
0.948, -1, 35.8571, 48.2204, -14.0435, 97.3856, -51.7476, 43.9615
0.952, -1, 35.8636, 48.2083, -14.0511, 97.3985, -51.7026, 43.9763
0.956, -1, 35.8699, 48.1968, -14.0574, 97.4093, -51.6646, 43.9888
0.96, -1, 35.8759, 48.1861, -14.0627, 97.4183, -51.633, 43.9991
0.964, -1, 35.8815, 48.1763, -14.067, 97.4257, -51.6074, 44.0075
0.968, -1, 35.8866, 48.1676, -14.0704, 97.4315, -51.5869, 44.0143
0.972, -1, 35.8914, 48.16, -14.073, 97.436, -51.5709, 44.0195
0.976, -1, 35.8957, 48.1533, -14.075, 97.4395, -51.5587, 44.0235
0.98, -1, 35.8997, 48.1475, -14.0765, 97.4421, -51.5496, 44.0264
0.984, -1, 35.9032, 48.1427, -14.0776, 97.444, -51.543, 44.0286
0.988, 2, 35.9062, 48.1387, -14.0784, 97.4453, -51.5382, 44.0302
0.992, 2, 35.9087, 48.1355, -14.0789, 97.4463, -51.5349, 44.0312
0.996, 2, 35.9106, 48.1332, -14.0793, 97.4469, -51.5327, 44.032
1, 2, 35.912, 48.1315, -14.0795, 97.4474, -51.5311, 44.0325
1.004, 2, 35.913, 48.1303, -14.0797, 97.4477, -51.5301, 44.0328
1.008, 2, 35.9137, 48.1295, -14.0798, 97.4479, -51.5293, 44.033
1.012, 2, 35.9142, 48.1289, -14.0799, 97.448, -51.5289, 44.0332
1.016, 2, 35.9145, 48.1286, -14.0799, 97.4481, -51.5285, 44.0333
1.02, 2, 35.9147, 48.1283, -14.08, 97.4482, -51.5283, 44.0334
1.024, 2, 35.9148, 48.1281, -14.08, 97.4482, -51.5282, 44.0334
1.027, 2, 35.9149, 48.128, -14.08, 97.4482, -51.5281, 44.0335
1.032, 2, 35.915, 48.1279, -14.08, 97.4482, -51.528, 44.0335
1.036, 2, 35.915, 48.1279, -14.08, 97.4483, -51.5279, 44.0335
1.04, 2, 35.9151, 48.1279, -14.08, 97.4483, -51.5279, 44.0335
1.044, 2, 35.9151, 48.1278, -14.08, 97.4483, -51.5279, 44.0335
1.048, 2, 35.9151, 48.1278, -14.08, 97.4483, -51.5279, 44.0335
1.052, 2, 35.9151, 48.1278, -14.08, 97.4483, -51.5279, 44.0335
1.055, 2, 35.9151, 48.1278, -14.08, 97.4483, -51.5279, 44.0335
1.06, 2, 35.9151, 48.1278, -14.08, 97.4483, -51.5279, 44.0335
1.064, 2, 35.9151, 48.1278, -14.08, 97.4483, -51.5278, 44.0335
1.068, 2, 35.9151, 48.1278, -14.08, 97.4483, -51.5278, 44.0335
1.072, 2, 35.9151, 48.1278, -14.08, 97.4483, -51.5278, 44.0335
1.076, 2, 35.9151, 48.1278, -14.08, 97.4483, -51.5278, 44.0335
1.08, 2, 35.9151, 48.1278, -14.08, 97.4483, -51.5278, 44.0335
1.084, 2, 35.9151, 48.1278, -14.08, 97.4483, -51.5278, 44.0335
1.088, 2, 35.9151, 48.1278, -14.08, 97.4483, -51.5278, 44.0335
1.091, 2, 35.9151, 48.1278, -14.08, 97.4483, -51.5278, 44.0335
1.096, 2, 35.9151, 48.1278, -14.08, 97.4483, -51.5278, 44.0335
1.1, 2, 35.9151, 48.1278, -14.08, 97.4483, -51.5278, 44.0335
1.104, 2, 35.9151, 48.1278, -14.08, 97.4483, -51.5278, 44.0335
1.108, 2, 35.9151, 48.1278, -14.08, 97.4483, -51.5278, 44.0335
1.112, 2, 35.9151, 48.1278, -14.08, 97.4483, -51.5278, 44.0335
1.116, 2, 35.9151, 48.1278, -14.08, 97.4483, -51.5278, 44.0335
1.119, 2, 35.9151, 48.1278, -14.08, 97.4483, -51.5278, 44.0335
1.124, 2, 35.9151, 48.1278, -14.08, 97.4483, -51.5278, 44.0335
1.128, 2, 35.9151, 48.1278, -14.08, 97.4483, -51.5278, 44.0335
1.132, 2, 35.9151, 48.1278, -14.08, 97.4483, -51.5278, 44.0335
1.136, 2, 35.9151, 48.1278, -14.08, 97.4483, -51.5278, 44.0335
1.14, 2, 35.9151, 48.1278, -14.08, 97.4483, -51.5278, 44.0335
1.144, 2, 35.9151, 48.1278, -14.08, 97.4483, -51.5278, 44.0335
1.147, 2, 35.9151, 48.1278, -14.08, 97.4483, -51.5278, 44.0335
1.152, 2, 35.9151, 48.1278, -14.08, 97.4483, -51.5278, 44.0335
1.156, 2, 35.9151, 48.1278, -14.08, 97.4483, -51.5278, 44.0335
1.16, 2, 35.9151, 48.1278, -14.08, 97.4483, -51.5278, 44.0335
1.164, 2, 35.9151, 48.1278, -14.08, 97.4483, -51.5278, 44.0335
1.168, 2, 35.9151, 48.1278, -14.08, 97.4483, -51.5278, 44.0335
1.172, 2, 35.9151, 48.1278, -14.08, 97.4483, -51.5278, 44.0335
1.175, 2, 35.9151, 48.1278, -14.08, 97.4483, -51.5278, 44.0335
1.18, 2, 35.9151, 48.1278, -14.08, 97.4483, -51.5278, 44.0335
1.184, 2, 35.9151, 48.1278, -14.08, 97.4483, -51.5278, 44.0335
1.188, 2, 35.9151, 48.1278, -14.08, 97.4483, -51.5278, 44.0335
1.192, 2, 35.9151, 48.1278, -14.08, 97.4483, -51.5278, 44.0335
1.196, 2, 35.9151, 48.1278, -14.08, 97.4483, -51.5278, 44.0335
1.2, 2, 35.9151, 48.1278, -14.08, 97.4483, -51.5278, 44.0335
1.204, 2, 35.9151, 48.1278, -14.08, 97.4483, -51.5278, 44.0335
1.208, 2, 35.9151, 48.1278, -14.08, 97.4483, -51.5278, 44.0335
1.212, 2, 35.9151, 48.1278, -14.08, 97.4483, -51.5278, 44.0335
1.216, 2, 35.9151, 48.1278, -14.08, 97.4483, -51.5278, 44.0335
1.22, 2, 35.9151, 48.1278, -14.08, 97.4483, -51.5278, 44.0335
1.224, 2, 35.9151, 48.1278, -14.08, 97.4483, -51.5278, 44.0335
1.228, 2, 35.9151, 48.1278, -14.08, 97.4483, -51.5278, 44.0335
1.232, 2, 35.9151, 48.1278, -14.08, 97.4483, -51.5278, 44.0335
1.236, 2, 35.9151, 48.1278, -14.08, 97.4483, -51.5278, 44.0335
1.24, 2, 35.9151, 48.1278, -14.08, 97.4483, -51.5278, 44.0335
1.244, 2, 35.9151, 48.1278, -14.08, 97.4483, -51.5278, 44.0335
1.248, 2, 35.9151, 48.1278, -14.08, 97.4483, -51.5278, 44.0335
1.252, 2, 35.9151, 48.1278, -14.08, 97.4483, -51.5278, 44.0335
1.256, 2, 35.9151, 48.1278, -14.08, 97.4483, -51.5278, 44.0335
1.26, 2, 35.9151, 48.1278, -14.08, 97.4483, -51.5278, 44.0335
1.264, 2, 35.9151, 48.1278, -14.08, 97.4483, -51.5278, 44.0335
1.267, 2, 35.9151, 48.1278, -14.08, 97.4483, -51.5278, 44.0335
1.272, 2, 35.9151, 48.1278, -14.08, 97.4483, -51.5278, 44.0335
1.276, 2, 35.9151, 48.1278, -14.08, 97.4483, -51.5278, 44.0335
1.28, 2, 35.9151, 48.1278, -14.08, 97.4483, -51.5278, 44.0335
1.284, 2, 35.9151, 48.1278, -14.08, 97.4483, -51.5278, 44.0335
1.288, 2, 35.9151, 48.1278, -14.08, 97.4483, -51.5278, 44.0335
1.292, 2, 35.9151, 48.1278, -14.08, 97.4483, -51.5278, 44.0335
1.295, 2, 35.9151, 48.1278, -14.08, 97.4483, -51.5278, 44.0335
1.3, 2, 35.9151, 48.1278, -14.08, 97.4483, -51.5278, 44.0335
1.304, 2, 35.9151, 48.1278, -14.08, 97.4483, -51.5278, 44.0335
1.308, 2, 35.9151, 48.1278, -14.08, 97.4483, -51.5278, 44.0335
1.312, 2, 35.9151, 48.1278, -14.08, 97.4483, -51.5278, 44.0335
1.316, 2, 35.9151, 48.1278, -14.08, 97.4483, -51.5278, 44.0335
1.32, 2, 35.9151, 48.1278, -14.08, 97.4483, -51.5278, 44.0335
1.324, 2, 35.9151, 48.1278, -14.08, 97.4483, -51.5278, 44.0335
1.328, 2, 35.9151, 48.1278, -14.08, 97.4483, -51.5278, 44.0335
1.332, 2, 35.9151, 48.1278, -14.08, 97.4483, -51.5278, 44.0335
1.336, 2, 35.9151, 48.1278, -14.08, 97.4483, -51.5278, 44.0335
1.34, 2, 35.9151, 48.1278, -14.08, 97.4483, -51.5278, 44.0335
1.344, 2, 35.9151, 48.1278, -14.08, 97.4483, -51.5278, 44.0335
1.348, 2, 35.9151, 48.1278, -14.08, 97.4483, -51.5278, 44.0335
1.352, 2, 35.9151, 48.1278, -14.08, 97.4483, -51.5278, 44.0335
1.356, 2, 35.9151, 48.1278, -14.08, 97.4483, -51.5278, 44.0335
1.36, 2, 35.9151, 48.1278, -14.08, 97.4483, -51.5278, 44.0335
1.364, 2, 35.9151, 48.1278, -14.08, 97.4483, -51.5278, 44.0335
1.368, 2, 35.9151, 48.1278, -14.08, 97.4483, -51.5278, 44.0335
1.372, 2, 35.9151, 48.1278, -14.08, 97.4483, -51.5278, 44.0335
1.376, 2, 35.9151, 48.1278, -14.08, 97.4483, -51.5278, 44.0335
1.38, 2, 35.9151, 48.1278, -14.08, 97.4483, -51.5278, 44.0335
1.384, 2, 35.9151, 48.1278, -14.08, 97.4483, -51.5278, 44.0335
1.388, 2, 35.9151, 48.1278, -14.08, 97.4483, -51.5278, 44.0335
1.392, 2, 35.9151, 48.1278, -14.08, 97.4483, -51.5278, 44.0335
1.396, 2, 35.9151, 48.1278, -14.08, 97.4483, -51.5278, 44.0335
1.4, 2, 35.9151, 48.1278, -14.08, 97.4483, -51.5278, 44.0335
1.404, 2, 35.9151, 48.1278, -14.08, 97.4483, -51.5278, 44.0335
1.408, 2, 35.9151, 48.1278, -14.08, 97.4483, -51.5278, 44.0335
1.412, 2, 35.9151, 48.1278, -14.08, 97.4483, -51.5278, 44.0335
1.416, 2, 35.9151, 48.1278, -14.08, 97.4483, -51.5278, 44.0335
1.42, 2, 35.9151, 48.1278, -14.08, 97.4483, -51.5278, 44.0335
1.424, 2, 35.9151, 48.1278, -14.08, 97.4483, -51.5278, 44.0335
1.428, 2, 35.9151, 48.1278, -14.08, 97.4483, -51.5278, 44.0335
1.432, 2, 35.9151, 48.1278, -14.08, 97.4483, -51.5278, 44.0335
1.436, 2, 35.9151, 48.1278, -14.08, 97.4483, -51.5278, 44.0335
1.44, 2, 35.9151, 48.1278, -14.08, 97.4483, -51.5278, 44.0335
1.444, 2, 35.9151, 48.1278, -14.08, 97.4483, -51.5278, 44.0335
1.448, 2, 35.9151, 48.1278, -14.08, 97.4483, -51.5278, 44.0335
1.452, 2, 35.9151, 48.1278, -14.08, 97.4483, -51.5278, 44.0335
1.456, 2, 35.9151, 48.1278, -14.08, 97.4483, -51.5278, 44.0335
1.46, 2, 35.9151, 48.1278, -14.08, 97.4483, -51.5278, 44.0335
1.464, 2, 35.9151, 48.1278, -14.08, 97.4483, -51.5278, 44.0335
1.468, 2, 35.9151, 48.1278, -14.08, 97.4483, -51.5278, 44.0335
1.472, 2, 35.9151, 48.1278, -14.08, 97.4483, -51.5278, 44.0335
1.476, 2, 35.9151, 48.1278, -14.08, 97.4483, -51.5278, 44.0335
1.48, 2, 35.9151, 48.1278, -14.08, 97.4483, -51.5278, 44.0335
1.484, 2, 35.9151, 48.1278, -14.08, 97.4483, -51.5278, 44.0335
1.488, 2, 35.9151, 48.1278, -14.08, 97.4483, -51.5278, 44.0335
1.492, 2, 35.9151, 48.1278, -14.08, 97.4483, -51.5278, 44.0335
1.496, 2, 35.9151, 48.1278, -14.08, 97.4483, -51.5278, 44.0335
1.5, 2, 35.9151, 48.1278, -14.08, 97.4483, -51.5278, 44.0335
1.504, 2, 35.9151, 48.1278, -14.08, 97.4483, -51.5278, 44.0335
1.508, 2, 35.9151, 48.1278, -14.08, 97.4483, -51.5278, 44.0335
1.512, 2, 35.9151, 48.1278, -14.08, 97.4483, -51.5278, 44.0335
1.516, 2, 35.9151, 48.1278, -14.08, 97.4483, -51.5278, 44.0335
1.52, 2, 35.9151, 48.1278, -14.08, 97.4483, -51.5278, 44.0335
1.524, 2, 35.9151, 48.1278, -14.08, 97.4483, -51.5278, 44.0335
1.528, 2, 35.9151, 48.1278, -14.08, 97.4483, -51.5278, 44.0335
1.532, 2, 35.9151, 48.1278, -14.08, 97.4483, -51.5278, 44.0335
1.536, 2, 35.9151, 48.1278, -14.08, 97.4483, -51.5278, 44.0335
1.54, 2, 35.9151, 48.1278, -14.08, 97.4483, -51.5278, 44.0335
1.544, 2, 35.9151, 48.1278, -14.08, 97.4483, -51.5278, 44.0335
1.548, 2, 35.9151, 48.1278, -14.08, 97.4483, -51.5278, 44.0335
1.552, 2, 35.9151, 48.1278, -14.08, 97.4483, -51.5278, 44.0335
1.556, 2, 35.9151, 48.1278, -14.08, 97.4483, -51.5278, 44.0335
1.56, 2, 35.9151, 48.1278, -14.08, 97.4483, -51.5278, 44.0335
1.564, 2, 35.9151, 48.1278, -14.08, 97.4483, -51.5278, 44.0335
1.568, 2, 35.9151, 48.1278, -14.08, 97.4483, -51.5278, 44.0335
1.572, 2, 35.9151, 48.1278, -14.08, 97.4483, -51.5278, 44.0335
1.576, 2, 35.9151, 48.1278, -14.08, 97.4483, -51.5278, 44.0335
1.58, 2, 35.9151, 48.1278, -14.08, 97.4483, -51.5278, 44.0335
1.584, 2, 35.9151, 48.1278, -14.08, 97.4483, -51.5278, 44.0335
1.588, 2, 35.9151, 48.1278, -14.08, 97.4483, -51.5278, 44.0335
1.592, 2, 35.9151, 48.1278, -14.08, 97.4483, -51.5278, 44.0335
1.596, 2, 35.9151, 48.1278, -14.08, 97.4483, -51.5278, 44.0335
1.6, 2, 35.9151, 48.1278, -14.08, 97.4483, -51.5278, 44.0335
1.604, 2, 35.9151, 48.1278, -14.08, 97.4483, -51.5278, 44.0335
1.608, 2, 35.9151, 48.1278, -14.08, 97.4483, -51.5278, 44.0335
1.612, 2, 35.9151, 48.1278, -14.08, 97.4483, -51.5278, 44.0335
1.616, 2, 35.9151, 48.1278, -14.08, 97.4483, -51.5278, 44.0335
1.62, 2, 35.9151, 48.1278, -14.08, 97.4483, -51.5278, 44.0335
1.624, 2, 35.9151, 48.1278, -14.08, 97.4483, -51.5278, 44.0335
1.628, 2, 35.9151, 48.1278, -14.08, 97.4483, -51.5278, 44.0335
1.632, 2, 35.9151, 48.1278, -14.08, 97.4483, -51.5278, 44.0335
1.636, 2, 35.9151, 48.1278, -14.08, 97.4483, -51.5278, 44.0335
1.64, 2, 35.9151, 48.1278, -14.08, 97.4483, -51.5278, 44.0335
1.644, 2, 35.9151, 48.1278, -14.08, 97.4483, -51.5278, 44.0335
1.648, 2, 35.9151, 48.1278, -14.08, 97.4483, -51.5278, 44.0335
1.652, 2, 35.9151, 48.1278, -14.08, 97.4483, -51.5278, 44.0335
1.656, 2, 35.9151, 48.1278, -14.08, 97.4483, -51.5278, 44.0335
1.66, 2, 35.9151, 48.1278, -14.08, 97.4483, -51.5278, 44.0335
1.664, 2, 35.9151, 48.1278, -14.08, 97.4483, -51.5278, 44.0335
1.668, 2, 35.9151, 48.1278, -14.08, 97.4483, -51.5278, 44.0335
1.672, 2, 35.9151, 48.1278, -14.08, 97.4483, -51.5278, 44.0335
1.676, 2, 35.9151, 48.1278, -14.08, 97.4483, -51.5278, 44.0335
1.68, 2, 35.9151, 48.1278, -14.08, 97.4483, -51.5278, 44.0335
1.684, 2, 35.9151, 48.1278, -14.08, 97.4483, -51.5278, 44.0335
1.688, 2, 35.9151, 48.1278, -14.08, 97.4483, -51.5278, 44.0335
1.692, 2, 35.9151, 48.1278, -14.08, 97.4483, -51.5278, 44.0335
1.696, 2, 35.9151, 48.1278, -14.08, 97.4483, -51.5278, 44.0335
1.7, 2, 35.9151, 48.1278, -14.08, 97.4483, -51.5278, 44.0335
1.704, 2, 35.9151, 48.1278, -14.08, 97.4483, -51.5278, 44.0335
1.708, 2, 35.9151, 48.1278, -14.08, 97.4483, -51.5278, 44.0335
1.712, 2, 35.9151, 48.1278, -14.08, 97.4483, -51.5278, 44.0335
1.716, 2, 35.9151, 48.1278, -14.08, 97.4483, -51.5278, 44.0335
1.72, 2, 35.9151, 48.1278, -14.08, 97.4483, -51.5278, 44.0335
1.724, 2, 35.9151, 48.1278, -14.08, 97.4483, -51.5278, 44.0335
1.728, 2, 35.9151, 48.1278, -14.08, 97.4483, -51.5278, 44.0335
1.732, 2, 35.9151, 48.1278, -14.08, 97.4483, -51.5278, 44.0335
1.736, 2, 35.9151, 48.1278, -14.08, 97.4483, -51.5278, 44.0335
1.74, 2, 35.9151, 48.1278, -14.08, 97.4483, -51.5278, 44.0335
1.744, 2, 35.9151, 48.1278, -14.08, 97.4483, -51.5278, 44.0335
1.748, 2, 35.9151, 48.1278, -14.08, 97.4483, -51.5278, 44.0335
1.752, 2, 35.9151, 48.1278, -14.08, 97.4483, -51.5278, 44.0335
1.756, 2, 35.9151, 48.1278, -14.08, 97.4483, -51.5278, 44.0335
1.76, 2, 35.9151, 48.1278, -14.08, 97.4483, -51.5278, 44.0335
1.764, 2, 35.9151, 48.1278, -14.08, 97.4483, -51.5278, 44.0335
1.768, 2, 35.9151, 48.1278, -14.08, 97.4483, -51.5278, 44.0335
1.772, 2, 35.9151, 48.1278, -14.08, 97.4483, -51.5278, 44.0335
1.776, 2, 35.9151, 48.1278, -14.08, 97.4483, -51.5278, 44.0335
1.78, 2, 35.9151, 48.1278, -14.08, 97.4483, -51.5278, 44.0335
1.784, 2, 35.9151, 48.1278, -14.08, 97.4483, -51.5278, 44.0335
1.788, 2, 35.9151, 48.1278, -14.08, 97.4483, -51.5278, 44.0335
1.792, 2, 35.9151, 48.1278, -14.08, 97.4483, -51.5278, 44.0335
1.796, 2, 35.9151, 48.1278, -14.08, 97.4483, -51.5278, 44.0335
1.8, 2, 35.9151, 48.1278, -14.08, 97.4483, -51.5278, 44.0335
1.804, 2, 35.9151, 48.1278, -14.08, 97.4483, -51.5278, 44.0335
1.808, 2, 35.9151, 48.1278, -14.08, 97.4483, -51.5278, 44.0335
1.812, 2, 35.9151, 48.1278, -14.08, 97.4483, -51.5278, 44.0335
1.816, 2, 35.9151, 48.1278, -14.08, 97.4483, -51.5278, 44.0335
1.82, 2, 35.9151, 48.1278, -14.08, 97.4483, -51.5278, 44.0335
1.824, 2, 35.9151, 48.1278, -14.08, 97.4483, -51.5278, 44.0335
1.828, 2, 35.9151, 48.1278, -14.08, 97.4483, -51.5278, 44.0335
1.832, 2, 35.9151, 48.1278, -14.08, 97.4483, -51.5278, 44.0335
1.836, 2, 35.9151, 48.1278, -14.08, 97.4483, -51.5278, 44.0335
1.84, 2, 35.9151, 48.1278, -14.08, 97.4483, -51.5278, 44.0335
1.844, 2, 35.9151, 48.1278, -14.08, 97.4483, -51.5278, 44.0335
1.848, 2, 35.9151, 48.1278, -14.08, 97.4483, -51.5278, 44.0335
1.852, 2, 35.9151, 48.1278, -14.08, 97.4483, -51.5278, 44.0335
1.856, 2, 35.9151, 48.1278, -14.08, 97.4483, -51.5278, 44.0335
1.86, 2, 35.9151, 48.1278, -14.08, 97.4483, -51.5278, 44.0335
1.864, 2, 35.9151, 48.1278, -14.08, 97.4483, -51.5278, 44.0335
1.868, 2, 35.9151, 48.1278, -14.08, 97.4483, -51.5278, 44.0335
1.872, 2, 35.9151, 48.1278, -14.08, 97.4483, -51.5278, 44.0335
1.876, 2, 35.9151, 48.1278, -14.08, 97.4483, -51.5278, 44.0335
1.88, 2, 35.9151, 48.1278, -14.08, 97.4483, -51.5278, 44.0335
1.884, 2, 35.9151, 48.1278, -14.08, 97.4483, -51.5278, 44.0335
1.888, 2, 35.9151, 48.1278, -14.08, 97.4483, -51.5278, 44.0335
1.892, 2, 35.9151, 48.1278, -14.08, 97.4483, -51.5278, 44.0335
1.896, 2, 35.9151, 48.1278, -14.08, 97.4483, -51.5278, 44.0335
1.9, 2, 35.9151, 48.1278, -14.08, 97.4483, -51.5278, 44.0335
1.904, 2, 35.9151, 48.1278, -14.08, 97.4483, -51.5278, 44.0335
1.908, 2, 35.9151, 48.1278, -14.08, 97.4483, -51.5278, 44.0335
1.912, 2, 35.9151, 48.1278, -14.08, 97.4483, -51.5278, 44.0335
1.916, 2, 35.9151, 48.1278, -14.08, 97.4483, -51.5278, 44.0335
1.92, 2, 35.9151, 48.1278, -14.08, 97.4483, -51.5278, 44.0335
1.924, 2, 35.9151, 48.1278, -14.08, 97.4483, -51.5278, 44.0335
1.928, 2, 35.9151, 48.1278, -14.08, 97.4483, -51.5278, 44.0335
1.932, 2, 35.9151, 48.1278, -14.08, 97.4483, -51.5278, 44.0335
1.936, 2, 35.9151, 48.1278, -14.08, 97.4483, -51.5278, 44.0335
1.94, 2, 35.9151, 48.1278, -14.08, 97.4483, -51.5278, 44.0335
1.944, 2, 35.9151, 48.1278, -14.08, 97.4483, -51.5278, 44.0335
1.948, 2, 35.9151, 48.1278, -14.08, 97.4483, -51.5278, 44.0335
1.952, 2, 35.9151, 48.1278, -14.08, 97.4483, -51.5278, 44.0335
1.956, 2, 35.9151, 48.1278, -14.08, 97.4483, -51.5278, 44.0335
1.96, 2, 35.9151, 48.1278, -14.08, 97.4483, -51.5278, 44.0335
1.964, 2, 35.9151, 48.1278, -14.08, 97.4483, -51.5278, 44.0335
1.968, 2, 35.9151, 48.1278, -14.08, 97.4483, -51.5278, 44.0335
1.972, 2, 35.9151, 48.1278, -14.08, 97.4483, -51.5278, 44.0335
1.976, 2, 35.9151, 48.1278, -14.08, 97.4483, -51.5278, 44.0335
1.98, 2, 35.9151, 48.1278, -14.08, 97.4483, -51.5278, 44.0335
1.984, 2, 35.9151, 48.1278, -14.08, 97.4483, -51.5278, 44.0335
1.988, 2, 35.9151, 48.1278, -14.08, 97.4483, -51.5278, 44.0335
1.992, 2, 35.9151, 48.1278, -14.08, 97.4483, -51.5278, 44.0335
1.996, 2, 35.9151, 48.1278, -14.08, 97.4483, -51.5278, 44.0335
1.999, 2, 35.9151, 48.1278, -14.08, 97.4483, -51.5278, 44.0335
2.004, 2, 35.9151, 48.1278, -14.08, 97.4483, -51.5278, 44.0335
2.008, 2, 35.9151, 48.1278, -14.08, 97.4483, -51.5278, 44.0335
2.012, 2, 35.9151, 48.1278, -14.08, 97.4483, -51.5278, 44.0335
2.015, 2, 35.9151, 48.1278, -14.08, 97.4483, -51.5278, 44.0335
2.019, 2, 35.9151, 48.1278, -14.08, 97.4483, -51.5278, 44.0335
2.024, 2, 35.9151, 48.1278, -14.08, 97.4483, -51.5278, 44.0335
2.028, 2, 35.9151, 48.1278, -14.08, 97.4483, -51.5278, 44.0335
2.031, 2, 35.9151, 48.1278, -14.08, 97.4483, -51.5278, 44.0335
2.036, 2, 35.9151, 48.1278, -14.08, 97.4483, -51.5278, 44.0335
2.04, 2, 35.9151, 48.1278, -14.08, 97.4483, -51.5278, 44.0335
2.044, 4, 35.9151, 48.1278, -14.08, 97.4483, -51.5278, 44.0335
2.048, 4, 35.9151, 48.1278, -14.08, 97.4483, -51.5278, 44.0335
2.051, 4, 35.9151, 48.1278, -14.08, 97.4483, -51.5278, 44.0335
2.055, 4, 35.9151, 48.1278, -14.08, 97.4483, -51.5278, 44.0335
2.06, 4, 35.9151, 48.1278, -14.08, 97.4483, -51.5278, 44.0335
2.064, 4, 35.9151, 48.1278, -14.08, 97.4483, -51.5278, 44.0335
2.068, 4, 35.9151, 48.1278, -14.08, 97.4483, -51.5278, 44.0335
2.071, 4, 35.9151, 48.1278, -14.08, 97.4483, -51.5278, 44.0335
2.076, 4, 35.9151, 48.1278, -14.08, 97.4483, -51.5278, 44.0335
2.08, 4, 35.9151, 48.1278, -14.08, 97.4483, -51.5278, 44.0335
2.084, 4, 35.9151, 48.1278, -14.08, 97.4483, -51.5278, 44.0335
2.087, 4, 35.9151, 48.1278, -14.08, 97.4483, -51.5278, 44.0335
2.092, 4, 35.9151, 48.1278, -14.08, 97.4483, -51.5278, 44.0335
2.096, 4, 35.9151, 48.1278, -14.08, 97.4483, -51.5278, 44.0335
2.1, 4, 35.9151, 48.1278, -14.08, 97.4483, -51.5278, 44.0335
2.104, 4, 35.9151, 48.1278, -14.08, 97.4483, -51.5278, 44.0335
2.107, 4, 35.9151, 48.1278, -14.08, 97.4483, -51.5278, 44.0335
2.111, 4, 35.9151, 48.1278, -14.08, 97.4483, -51.5278, 44.0335
2.116, 4, 35.9151, 48.1278, -14.08, 97.4483, -51.5278, 44.0335
2.12, 4, 35.9151, 48.1278, -14.08, 97.4483, -51.5278, 44.0335
2.124, 4, 35.9151, 48.1278, -14.08, 97.4483, -51.5278, 44.0335
2.127, 4, 35.9151, 48.1278, -14.08, 97.4483, -51.5278, 44.0335
2.132, 4, 35.9151, 48.1278, -14.08, 97.4483, -51.5278, 44.0335
2.136, 4, 35.9151, 48.1278, -14.08, 97.4483, -51.5278, 44.0335
2.14, 4, 35.9151, 48.1278, -14.08, 97.4483, -51.5278, 44.0335
2.143, 4, 35.9151, 48.1278, -14.08, 97.4483, -51.5278, 44.0335
2.148, 4, 35.9151, 48.1278, -14.08, 97.4483, -51.5278, 44.0335
2.152, 4, 35.9151, 48.1278, -14.08, 97.4483, -51.5278, 44.0335
2.156, 4, 35.9151, 48.1278, -14.08, 97.4483, -51.5278, 44.0335
2.16, 4, 35.9151, 48.1278, -14.08, 97.4483, -51.5278, 44.0335
2.163, 4, 35.9151, 48.1278, -14.08, 97.4483, -51.5278, 44.0335
2.168, 4, 35.9151, 48.1278, -14.08, 97.4483, -51.5278, 44.0335
2.172, 4, 35.9151, 48.1278, -14.08, 97.4483, -51.5278, 44.0335
2.176, 4, 35.9151, 48.1278, -14.08, 97.4483, -51.5278, 44.0335
2.179, 4, 35.9151, 48.1278, -14.08, 97.4483, -51.5278, 44.0335
2.184, 4, 35.9151, 48.1278, -14.08, 97.4483, -51.5279, 44.0335
2.188, 4, 35.915, 48.1279, -14.08, 97.4483, -51.5279, 44.0335
2.192, 4, 35.9148, 48.1281, -14.0799, 97.4483, -51.528, 44.0335
2.196, 4, 35.9145, 48.1283, -14.0799, 97.4482, -51.5282, 44.0334
2.199, 4, 35.9142, 48.1286, -14.0797, 97.4482, -51.5287, 44.0332
2.204, 4, 35.9138, 48.129, -14.0795, 97.448, -51.5294, 44.0329
2.208, 4, 35.9133, 48.1294, -14.0792, 97.4479, -51.5305, 44.0324
2.212, 4, 35.9128, 48.1298, -14.0787, 97.4476, -51.5322, 44.0317
2.216, 4, 35.9123, 48.1303, -14.0782, 97.4472, -51.5346, 44.0306
2.219, 4, 35.9119, 48.1307, -14.0774, 97.4467, -51.5378, 44.0293
2.224, 4, 35.9115, 48.1311, -14.0764, 97.446, -51.5418, 44.0275
2.228, 4, 35.9112, 48.1314, -14.0752, 97.4452, -51.5468, 44.0253
2.232, 5, 35.9108, 48.1317, -14.0738, 97.4442, -51.5529, 44.0227
2.235, 5, 35.9106, 48.132, -14.0722, 97.443, -51.56, 44.0196
2.24, 5, 35.9104, 48.1323, -14.0703, 97.4417, -51.5681, 44.016
2.244, 5, 35.9102, 48.1325, -14.0682, 97.4402, -51.5772, 44.0121
2.248, 5, 35.9101, 48.1327, -14.0659, 97.4385, -51.5873, 44.0077
2.252, 5, 35.91, 48.1329, -14.0634, 97.4367, -51.5981, 44.0029
2.255, 5, 35.91, 48.133, -14.0608, 97.4348, -51.6097, 43.9979
2.259, 5, 35.9099, 48.1332, -14.058, 97.4328, -51.6219, 43.9925
2.264, 5, 35.9098, 48.1335, -14.0551, 97.4307, -51.6346, 43.987
2.268, 5, 35.9096, 48.1338, -14.0521, 97.4285, -51.6476, 43.9814
2.272, 5, 35.9093, 48.1341, -14.0491, 97.4263, -51.6609, 43.9756
2.275, 5, 35.9089, 48.1346, -14.046, 97.4241, -51.6743, 43.9697
2.28, 5, 35.9085, 48.1351, -14.0428, 97.4218, -51.6879, 43.9638
2.284, 5, 35.908, 48.1356, -14.0397, 97.4196, -51.7016, 43.9579
2.288, 5, 35.9075, 48.1362, -14.0365, 97.4173, -51.7153, 43.9519
2.291, 5, 35.907, 48.1368, -14.0333, 97.415, -51.729, 43.9459
2.296, 5, 35.9065, 48.1374, -14.0301, 97.4127, -51.7428, 43.94
2.3, 5, 35.9059, 48.138, -14.0269, 97.4104, -51.7566, 43.934
2.304, 5, 35.9054, 48.1386, -14.0237, 97.4081, -51.7704, 43.928
2.308, 5, 35.9048, 48.1392, -14.0205, 97.4058, -51.7842, 43.922
2.311, 5, 35.9043, 48.1399, -14.0173, 97.4035, -51.798, 43.916
2.316, 5, 35.9037, 48.1405, -14.0141, 97.4012, -51.8119, 43.91
2.32, 5, 35.9032, 48.1411, -14.0109, 97.3989, -51.8257, 43.904
2.324, 5, 35.9026, 48.1418, -14.0077, 97.3966, -51.8395, 43.898
2.328, 5, 35.9021, 48.1424, -14.0045, 97.3942, -51.8533, 43.892
2.331, 5, 35.9015, 48.1431, -14.0013, 97.3919, -51.8672, 43.886
2.336, 5, 35.9009, 48.1437, -13.9981, 97.3896, -51.881, 43.88
2.34, 5, 35.9004, 48.1444, -13.9949, 97.3873, -51.8948, 43.874
2.344, 5, 35.8998, 48.145, -13.9917, 97.385, -51.9086, 43.8681
2.347, 5, 35.8992, 48.1456, -13.9885, 97.3826, -51.9225, 43.8621
2.352, 5, 35.8987, 48.1463, -13.9853, 97.3803, -51.9363, 43.8561
2.356, 5, 35.8981, 48.147, -13.9821, 97.378, -51.9501, 43.8501
2.36, 5, 35.8975, 48.1476, -13.9789, 97.3756, -51.9639, 43.8441
2.364, 5, 35.897, 48.1483, -13.9757, 97.3733, -51.9778, 43.8382
2.367, 5, 35.8964, 48.1489, -13.9725, 97.371, -51.9916, 43.8322
2.372, 5, 35.8958, 48.1496, -13.9693, 97.3686, -52.0054, 43.8262
2.376, 5, 35.8953, 48.1502, -13.9661, 97.3663, -52.0192, 43.8203
2.38, 5, 35.8947, 48.1509, -13.9629, 97.3639, -52.0331, 43.8143
2.383, 5, 35.8941, 48.1516, -13.9597, 97.3616, -52.0469, 43.8083
2.388, 5, 35.8936, 48.1522, -13.9565, 97.3592, -52.0607, 43.8024
2.392, 5, 35.893, 48.1529, -13.9533, 97.3569, -52.0745, 43.7964
2.396, 5, 35.8924, 48.1536, -13.9501, 97.3545, -52.0883, 43.7905
2.4, 5, 35.8918, 48.1543, -13.947, 97.3522, -52.1022, 43.7845
2.403, 5, 35.8913, 48.1549, -13.9438, 97.3498, -52.116, 43.7785
2.408, 5, 35.8907, 48.1556, -13.9406, 97.3475, -52.1298, 43.7726
2.412, 5, 35.8901, 48.1563, -13.9374, 97.3451, -52.1436, 43.7666
2.416, 5, 35.8895, 48.157, -13.9342, 97.3428, -52.1574, 43.7607
2.42, 5, 35.889, 48.1577, -13.931, 97.3404, -52.1713, 43.7547
2.423, 5, 35.8884, 48.1583, -13.9278, 97.338, -52.1851, 43.7488
2.428, 5, 35.8878, 48.159, -13.9246, 97.3357, -52.1989, 43.7429
2.432, 5, 35.8872, 48.1597, -13.9214, 97.3333, -52.2127, 43.7369
2.436, 5, 35.8867, 48.1604, -13.9183, 97.3309, -52.2265, 43.731
2.439, 5, 35.8861, 48.1611, -13.9151, 97.3285, -52.2403, 43.725
2.444, 5, 35.8855, 48.1618, -13.9119, 97.3262, -52.2542, 43.7191
2.448, 5, 35.8849, 48.1625, -13.9087, 97.3238, -52.268, 43.7132
2.452, 5, 35.8843, 48.1632, -13.9055, 97.3214, -52.2818, 43.7072
2.456, 5, 35.8837, 48.1639, -13.9023, 97.319, -52.2956, 43.7013
2.459, 5, 35.8832, 48.1646, -13.8992, 97.3167, -52.3094, 43.6954
2.464, 5, 35.8826, 48.1653, -13.896, 97.3143, -52.3232, 43.6895
2.468, 5, 35.882, 48.166, -13.8928, 97.3119, -52.337, 43.6836
2.472, 5, 35.8814, 48.1667, -13.8896, 97.3095, -52.3508, 43.6776
2.476, 5, 35.8808, 48.1674, -13.8864, 97.3071, -52.3647, 43.6717
2.479, 5, 35.8802, 48.1681, -13.8833, 97.3047, -52.3785, 43.6658
2.484, 5, 35.8796, 48.1688, -13.8801, 97.3023, -52.3923, 43.6599
2.488, 5, 35.879, 48.1695, -13.8769, 97.2999, -52.4061, 43.654
2.492, 5, 35.8785, 48.1703, -13.8737, 97.2975, -52.4199, 43.6481
2.495, 5, 35.8779, 48.171, -13.8706, 97.2951, -52.4337, 43.6422
2.5, 5, 35.8773, 48.1717, -13.8674, 97.2927, -52.4475, 43.6362
2.504, 5, 35.8767, 48.1724, -13.8642, 97.2903, -52.4613, 43.6303
2.508, 5, 35.8761, 48.1731, -13.861, 97.2879, -52.4751, 43.6244
2.512, 5, 35.8755, 48.1739, -13.8579, 97.2855, -52.4889, 43.6185
2.515, 5, 35.8749, 48.1746, -13.8547, 97.2831, -52.5027, 43.6126
2.52, 5, 35.8743, 48.1753, -13.8515, 97.2807, -52.5165, 43.6068
2.524, 5, 35.8737, 48.176, -13.8483, 97.2783, -52.5303, 43.6009
2.528, 5, 35.8731, 48.1768, -13.8452, 97.2758, -52.5442, 43.595
2.531, 5, 35.8725, 48.1775, -13.842, 97.2734, -52.558, 43.5891
2.536, 5, 35.8719, 48.1782, -13.8388, 97.271, -52.5718, 43.5832
2.54, 5, 35.8713, 48.179, -13.8357, 97.2686, -52.5856, 43.5773
2.544, 5, 35.8707, 48.1797, -13.8325, 97.2662, -52.5994, 43.5714
2.548, 5, 35.8701, 48.1805, -13.8293, 97.2637, -52.6132, 43.5655
2.551, 5, 35.8695, 48.1812, -13.8262, 97.2613, -52.627, 43.5597
2.556, 5, 35.8689, 48.1819, -13.823, 97.2589, -52.6408, 43.5538
2.56, 5, 35.8683, 48.1827, -13.8198, 97.2564, -52.6546, 43.5479
2.564, 5, 35.8677, 48.1834, -13.8167, 97.254, -52.6684, 43.542
2.568, 5, 35.8671, 48.1842, -13.8135, 97.2516, -52.6822, 43.5362
2.571, 5, 35.8665, 48.1849, -13.8103, 97.2491, -52.696, 43.5303
2.576, 5, 35.8659, 48.1857, -13.8072, 97.2467, -52.7098, 43.5244
2.58, 5, 35.8653, 48.1865, -13.804, 97.2443, -52.7236, 43.5186
2.584, 5, 35.8647, 48.1872, -13.8008, 97.2418, -52.7374, 43.5127
2.587, 5, 35.8641, 48.188, -13.7977, 97.2394, -52.7512, 43.5068
2.592, 5, 35.8635, 48.1887, -13.7945, 97.2369, -52.765, 43.501
2.596, 5, 35.8629, 48.1895, -13.7914, 97.2345, -52.7788, 43.4951
2.6, 5, 35.8623, 48.1903, -13.7882, 97.232, -52.7926, 43.4893
2.604, 5, 35.8617, 48.191, -13.785, 97.2296, -52.8063, 43.4834
2.607, 5, 35.861, 48.1918, -13.7819, 97.2271, -52.8201, 43.4775
2.612, 5, 35.8604, 48.1926, -13.7787, 97.2247, -52.8339, 43.4717
2.616, 5, 35.8598, 48.1933, -13.7756, 97.2222, -52.8477, 43.4658
2.62, 5, 35.8592, 48.1941, -13.7724, 97.2198, -52.8615, 43.46
2.624, 5, 35.8586, 48.1949, -13.7693, 97.2173, -52.8753, 43.4542
2.627, 5, 35.858, 48.1957, -13.7661, 97.2148, -52.8891, 43.4483
2.632, 5, 35.8574, 48.1964, -13.7629, 97.2124, -52.9029, 43.4425
2.636, 5, 35.8568, 48.1972, -13.7598, 97.2099, -52.9167, 43.4366
2.64, 5, 35.8561, 48.198, -13.7566, 97.2074, -52.9305, 43.4308
2.643, 5, 35.8555, 48.1988, -13.7535, 97.205, -52.9443, 43.425
2.648, 5, 35.8549, 48.1996, -13.7503, 97.2025, -52.9581, 43.4191
2.652, 5, 35.8543, 48.2004, -13.7472, 97.2, -52.9719, 43.4133
2.656, 5, 35.8537, 48.2012, -13.744, 97.1975, -52.9856, 43.4075
2.66, 5, 35.853, 48.202, -13.7409, 97.1951, -52.9994, 43.4016
2.663, 5, 35.8524, 48.2027, -13.7377, 97.1926, -53.0132, 43.3958
2.668, 5, 35.8518, 48.2035, -13.7346, 97.1901, -53.027, 43.39
2.672, 5, 35.8512, 48.2043, -13.7314, 97.1876, -53.0408, 43.3842
2.676, 5, 35.8506, 48.2051, -13.7283, 97.1851, -53.0546, 43.3784
2.679, 5, 35.8499, 48.2059, -13.7251, 97.1826, -53.0684, 43.3725
2.684, 5, 35.8493, 48.2067, -13.722, 97.1802, -53.0822, 43.3667
2.688, 5, 35.8487, 48.2076, -13.7188, 97.1777, -53.0959, 43.3609
2.692, 5, 35.8481, 48.2084, -13.7157, 97.1752, -53.1097, 43.3551
2.696, 5, 35.8474, 48.2092, -13.7126, 97.1727, -53.1235, 43.3493
2.699, 5, 35.8468, 48.21, -13.7094, 97.1702, -53.1373, 43.3435
2.704, 5, 35.8462, 48.2108, -13.7063, 97.1677, -53.1511, 43.3377
2.708, 5, 35.8456, 48.2116, -13.7031, 97.1652, -53.1649, 43.3319
2.712, 5, 35.8449, 48.2124, -13.7, 97.1627, -53.1786, 43.3261
2.716, 5, 35.8443, 48.2132, -13.6968, 97.1602, -53.1924, 43.3203
2.719, 5, 35.8437, 48.2141, -13.6937, 97.1577, -53.2062, 43.3145
2.724, 5, 35.843, 48.2149, -13.6906, 97.1551, -53.22, 43.3087
2.728, 5, 35.8424, 48.2157, -13.6874, 97.1526, -53.2338, 43.3029
2.732, 5, 35.8418, 48.2165, -13.6843, 97.1501, -53.2475, 43.2971
2.735, 5, 35.8411, 48.2173, -13.6811, 97.1476, -53.2613, 43.2913
2.74, 5, 35.8405, 48.2182, -13.678, 97.1451, -53.2751, 43.2855
2.744, 5, 35.8399, 48.219, -13.6749, 97.1426, -53.2889, 43.2797
2.748, 5, 35.8392, 48.2198, -13.6717, 97.1401, -53.3027, 43.2739
2.752, 5, 35.8386, 48.2207, -13.6686, 97.1375, -53.3164, 43.2682
2.755, 5, 35.838, 48.2215, -13.6655, 97.135, -53.3302, 43.2624
2.76, 5, 35.8373, 48.2223, -13.6623, 97.1325, -53.344, 43.2566
2.764, 5, 35.8367, 48.2232, -13.6592, 97.1299, -53.3578, 43.2508
2.768, 5, 35.836, 48.224, -13.656, 97.1274, -53.3715, 43.2451
2.772, 5, 35.8354, 48.2249, -13.6529, 97.1249, -53.3853, 43.2393
2.775, 5, 35.8348, 48.2257, -13.6498, 97.1224, -53.3991, 43.2335
2.78, 5, 35.8341, 48.2266, -13.6467, 97.1198, -53.4129, 43.2277
2.784, 5, 35.8335, 48.2274, -13.6435, 97.1173, -53.4266, 43.222
2.788, 5, 35.8328, 48.2283, -13.6404, 97.1147, -53.4404, 43.2162
2.791, 5, 35.8322, 48.2291, -13.6373, 97.1122, -53.4542, 43.2104
2.796, 5, 35.8316, 48.23, -13.6341, 97.1097, -53.468, 43.2047
2.8, 5, 35.8309, 48.2308, -13.631, 97.1071, -53.4817, 43.1989
2.804, 5, 35.8303, 48.2317, -13.6279, 97.1046, -53.4955, 43.1932
2.808, 5, 35.8296, 48.2325, -13.6247, 97.102, -53.5093, 43.1874
2.811, 5, 35.829, 48.2334, -13.6216, 97.0995, -53.523, 43.1817
2.816, 5, 35.8283, 48.2343, -13.6185, 97.0969, -53.5368, 43.1759
2.82, 5, 35.8277, 48.2351, -13.6154, 97.0944, -53.5506, 43.1702
2.824, 5, 35.827, 48.236, -13.6122, 97.0918, -53.5643, 43.1644
2.828, 5, 35.8264, 48.2369, -13.6091, 97.0893, -53.5781, 43.1587
2.831, 5, 35.8257, 48.2377, -13.606, 97.0867, -53.5919, 43.1529
2.836, 5, 35.8251, 48.2386, -13.6029, 97.0841, -53.6056, 43.1472
2.84, 5, 35.8244, 48.2395, -13.5997, 97.0816, -53.6194, 43.1414
2.844, 5, 35.8238, 48.2404, -13.5966, 97.079, -53.6332, 43.1357
2.847, 5, 35.8231, 48.2412, -13.5935, 97.0764, -53.6469, 43.13
2.852, 5, 35.8224, 48.2421, -13.5904, 97.0739, -53.6607, 43.1242
2.856, 5, 35.8218, 48.243, -13.5873, 97.0713, -53.6745, 43.1185
2.86, 5, 35.8211, 48.2439, -13.5841, 97.0687, -53.6882, 43.1128
2.864, 5, 35.8205, 48.2448, -13.581, 97.0662, -53.702, 43.107
2.867, 5, 35.8198, 48.2456, -13.5779, 97.0636, -53.7158, 43.1013
2.872, 5, 35.8192, 48.2465, -13.5748, 97.061, -53.7295, 43.0956
2.876, 5, 35.8185, 48.2474, -13.5717, 97.0584, -53.7433, 43.0899
2.88, 5, 35.8178, 48.2483, -13.5685, 97.0558, -53.757, 43.0842
2.883, 5, 35.8172, 48.2492, -13.5654, 97.0533, -53.7708, 43.0784
2.888, 5, 35.8165, 48.2501, -13.5623, 97.0507, -53.7846, 43.0727
2.892, 5, 35.8159, 48.251, -13.5592, 97.0481, -53.7983, 43.067
2.896, 5, 35.8152, 48.2519, -13.5561, 97.0455, -53.8121, 43.0613
2.9, 5, 35.8145, 48.2528, -13.553, 97.0429, -53.8258, 43.0556
2.903, 5, 35.8139, 48.2537, -13.5498, 97.0403, -53.8396, 43.0499
2.908, 5, 35.8132, 48.2546, -13.5467, 97.0377, -53.8534, 43.0442
2.912, 5, 35.8125, 48.2555, -13.5436, 97.0351, -53.8671, 43.0385
2.916, 5, 35.8119, 48.2564, -13.5405, 97.0325, -53.8809, 43.0328
2.92, 5, 35.8112, 48.2573, -13.5374, 97.0299, -53.8946, 43.0271
2.923, 5, 35.8105, 48.2583, -13.5343, 97.0273, -53.9084, 43.0214
2.928, 5, 35.8099, 48.2592, -13.5312, 97.0247, -53.9221, 43.0157
2.932, 5, 35.8092, 48.2601, -13.5281, 97.0221, -53.9359, 43.01
2.936, 5, 35.8085, 48.261, -13.525, 97.0195, -53.9496, 43.0043
2.939, 5, 35.8079, 48.2619, -13.5219, 97.0169, -53.9634, 42.9986
2.944, 5, 35.8072, 48.2628, -13.5187, 97.0143, -53.9772, 42.9929
2.948, 5, 35.8065, 48.2638, -13.5156, 97.0117, -53.9909, 42.9872
2.952, 5, 35.8058, 48.2647, -13.5125, 97.0091, -54.0047, 42.9815
2.956, 5, 35.8052, 48.2656, -13.5094, 97.0065, -54.0184, 42.9758
2.959, 5, 35.8045, 48.2665, -13.5063, 97.0038, -54.0322, 42.9701
2.964, 5, 35.8038, 48.2675, -13.5032, 97.0012, -54.0459, 42.9645
2.968, 5, 35.8031, 48.2684, -13.5001, 96.9986, -54.0597, 42.9588
2.972, 5, 35.8025, 48.2693, -13.497, 96.996, -54.0734, 42.9531
2.976, 5, 35.8018, 48.2703, -13.4939, 96.9933, -54.0872, 42.9474
2.98, 5, 35.8011, 48.2712, -13.4908, 96.9907, -54.1009, 42.9418
2.984, 5, 35.8004, 48.2722, -13.4877, 96.9881, -54.1147, 42.9361
2.988, 5, 35.7997, 48.2731, -13.4846, 96.9855, -54.1284, 42.9304
2.992, 5, 35.7991, 48.274, -13.4815, 96.9828, -54.1422, 42.9247
2.995, 5, 35.7984, 48.275, -13.4784, 96.9802, -54.1559, 42.9191
3, 5, 35.7977, 48.2759, -13.4753, 96.9776, -54.1697, 42.9134
3.004, 5, 35.797, 48.2769, -13.4722, 96.9749, -54.1834, 42.9078
3.008, 5, 35.7963, 48.2778, -13.4691, 96.9723, -54.1971, 42.9021
3.012, 5, 35.7957, 48.2788, -13.466, 96.9696, -54.2109, 42.8964
3.015, 5, 35.795, 48.2797, -13.4629, 96.967, -54.2246, 42.8908
3.02, 5, 35.7943, 48.2807, -13.4598, 96.9643, -54.2384, 42.8851
3.024, 5, 35.7936, 48.2816, -13.4567, 96.9617, -54.2521, 42.8795
3.028, 5, 35.7929, 48.2826, -13.4536, 96.9591, -54.2659, 42.8738
3.031, 5, 35.7922, 48.2836, -13.4505, 96.9564, -54.2796, 42.8682
3.036, 5, 35.7915, 48.2845, -13.4474, 96.9538, -54.2933, 42.8625
3.04, 5, 35.7908, 48.2855, -13.4443, 96.9511, -54.3071, 42.8569
3.044, 5, 35.7901, 48.2865, -13.4412, 96.9484, -54.3208, 42.8512
3.048, 5, 35.7895, 48.2874, -13.4381, 96.9458, -54.3346, 42.8456
3.051, 5, 35.7888, 48.2884, -13.4351, 96.9431, -54.3483, 42.84
3.056, 5, 35.7881, 48.2894, -13.432, 96.9405, -54.362, 42.8343
3.06, 5, 35.7874, 48.2903, -13.4289, 96.9378, -54.3758, 42.8287
3.064, 5, 35.7867, 48.2913, -13.4258, 96.9351, -54.3895, 42.823
3.068, 5, 35.786, 48.2923, -13.4227, 96.9325, -54.4033, 42.8174
3.071, 5, 35.7853, 48.2933, -13.4196, 96.9298, -54.417, 42.8118
3.076, 5, 35.7846, 48.2943, -13.4165, 96.9271, -54.4307, 42.8062
3.08, 5, 35.7839, 48.2952, -13.4134, 96.9244, -54.4445, 42.8005
3.084, 5, 35.7832, 48.2962, -13.4103, 96.9218, -54.4582, 42.7949
3.087, 5, 35.7825, 48.2972, -13.4072, 96.9191, -54.4719, 42.7893
3.092, 5, 35.7818, 48.2982, -13.4042, 96.9164, -54.4857, 42.7837
3.096, 5, 35.7811, 48.2992, -13.4011, 96.9137, -54.4994, 42.778
3.1, 5, 35.7804, 48.3002, -13.398, 96.9111, -54.5131, 42.7724
3.104, 5, 35.7797, 48.3012, -13.3949, 96.9084, -54.5269, 42.7668
3.107, 5, 35.779, 48.3022, -13.3918, 96.9057, -54.5406, 42.7612
3.112, 5, 35.7783, 48.3032, -13.3887, 96.903, -54.5543, 42.7556
3.116, 5, 35.7776, 48.3042, -13.3857, 96.9003, -54.5681, 42.75
3.12, 5, 35.7769, 48.3052, -13.3826, 96.8976, -54.5818, 42.7444
3.124, 5, 35.7762, 48.3062, -13.3795, 96.8949, -54.5955, 42.7388
3.128, 5, 35.7755, 48.3072, -13.3764, 96.8923, -54.6093, 42.7332
3.132, 5, 35.7748, 48.3082, -13.3733, 96.8896, -54.623, 42.7275
3.136, 5, 35.774, 48.3092, -13.3702, 96.8869, -54.6367, 42.7219
3.14, 5, 35.7733, 48.3102, -13.3672, 96.8842, -54.6504, 42.7163
3.143, 5, 35.7726, 48.3112, -13.3641, 96.8815, -54.6642, 42.7107
3.148, 5, 35.7719, 48.3122, -13.361, 96.8788, -54.6779, 42.7052
3.152, 5, 35.7712, 48.3132, -13.3579, 96.8761, -54.6916, 42.6996
3.156, 5, 35.7705, 48.3143, -13.3549, 96.8734, -54.7053, 42.694
3.16, 5, 35.7698, 48.3153, -13.3518, 96.8707, -54.7191, 42.6884
3.163, 5, 35.7691, 48.3163, -13.3487, 96.8679, -54.7328, 42.6828
3.168, 5, 35.7684, 48.3173, -13.3456, 96.8652, -54.7465, 42.6772
3.172, 5, 35.7676, 48.3183, -13.3425, 96.8625, -54.7603, 42.6716
3.176, 5, 35.7669, 48.3194, -13.3395, 96.8598, -54.774, 42.666
3.179, 5, 35.7662, 48.3204, -13.3364, 96.8571, -54.7877, 42.6604
3.184, 5, 35.7655, 48.3214, -13.3333, 96.8544, -54.8014, 42.6549
3.188, 5, 35.7648, 48.3225, -13.3303, 96.8517, -54.8151, 42.6493
3.192, 5, 35.764, 48.3235, -13.3272, 96.8489, -54.8289, 42.6437
3.196, 5, 35.7633, 48.3245, -13.3241, 96.8462, -54.8426, 42.6381
3.199, 5, 35.7626, 48.3256, -13.321, 96.8435, -54.8563, 42.6326
3.204, 5, 35.7619, 48.3266, -13.318, 96.8408, -54.87, 42.627
3.208, 5, 35.7612, 48.3276, -13.3149, 96.838, -54.8837, 42.6214
3.212, 5, 35.7604, 48.3287, -13.3118, 96.8353, -54.8975, 42.6159
3.216, 5, 35.7597, 48.3297, -13.3088, 96.8326, -54.9112, 42.6103
3.22, 5, 35.759, 48.3308, -13.3057, 96.8298, -54.9249, 42.6047
3.224, 5, 35.7583, 48.3318, -13.3026, 96.8271, -54.9386, 42.5992
3.228, 5, 35.7575, 48.3329, -13.2995, 96.8244, -54.9523, 42.5936
3.232, 5, 35.7568, 48.3339, -13.2965, 96.8216, -54.966, 42.5881
3.235, 5, 35.7561, 48.335, -13.2934, 96.8189, -54.9798, 42.5825
3.24, 5, 35.7554, 48.336, -13.2903, 96.8161, -54.9935, 42.5769
3.244, 5, 35.7546, 48.3371, -13.2873, 96.8134, -55.0072, 42.5714
3.248, 5, 35.7539, 48.3381, -13.2842, 96.8107, -55.0209, 42.5658
3.252, 5, 35.7532, 48.3392, -13.2812, 96.8079, -55.0346, 42.5603
3.255, 5, 35.7524, 48.3403, -13.2781, 96.8052, -55.0483, 42.5547
3.26, 5, 35.7517, 48.3413, -13.275, 96.8024, -55.0621, 42.5492
3.264, 5, 35.751, 48.3424, -13.272, 96.7997, -55.0758, 42.5437
3.268, 5, 35.7502, 48.3435, -13.2689, 96.7969, -55.0895, 42.5381
3.272, 5, 35.7495, 48.3445, -13.2658, 96.7942, -55.1032, 42.5326
3.276, 5, 35.7488, 48.3456, -13.2628, 96.7914, -55.1169, 42.527
3.28, 5, 35.748, 48.3467, -13.2597, 96.7886, -55.1306, 42.5215
3.284, 5, 35.7473, 48.3477, -13.2567, 96.7859, -55.1443, 42.516
3.288, 5, 35.7466, 48.3488, -13.2536, 96.7831, -55.158, 42.5104
3.291, 5, 35.7458, 48.3499, -13.2505, 96.7803, -55.1717, 42.5049
3.296, 5, 35.7451, 48.351, -13.2475, 96.7776, -55.1854, 42.4994
3.3, 5, 35.7443, 48.3521, -13.2444, 96.7748, -55.1992, 42.4938
3.304, 5, 35.7436, 48.3531, -13.2414, 96.7721, -55.2129, 42.4883
3.308, 5, 35.7429, 48.3542, -13.2383, 96.7693, -55.2266, 42.4828
3.312, 5, 35.7421, 48.3553, -13.2352, 96.7665, -55.2403, 42.4773
3.316, 5, 35.7414, 48.3564, -13.2322, 96.7637, -55.254, 42.4717
3.32, 5, 35.7406, 48.3575, -13.2291, 96.761, -55.2677, 42.4662
3.324, 5, 35.7399, 48.3586, -13.2261, 96.7582, -55.2814, 42.4607
3.328, 5, 35.7391, 48.3597, -13.223, 96.7554, -55.2951, 42.4552
3.332, 5, 35.7384, 48.3608, -13.22, 96.7526, -55.3088, 42.4497
3.336, 5, 35.7377, 48.3619, -13.2169, 96.7498, -55.3225, 42.4442
3.34, 5, 35.7369, 48.363, -13.2139, 96.7471, -55.3362, 42.4387
3.344, 5, 35.7362, 48.3641, -13.2108, 96.7443, -55.3499, 42.4332
3.347, 5, 35.7354, 48.3652, -13.2078, 96.7415, -55.3636, 42.4276
3.352, 5, 35.7347, 48.3663, -13.2047, 96.7387, -55.3773, 42.4221
3.356, 5, 35.7339, 48.3674, -13.2017, 96.7359, -55.391, 42.4166
3.36, 5, 35.7332, 48.3685, -13.1986, 96.7331, -55.4047, 42.4111
3.364, 5, 35.7324, 48.3696, -13.1956, 96.7303, -55.4184, 42.4056
3.368, 5, 35.7317, 48.3707, -13.1925, 96.7275, -55.4321, 42.4001
3.372, 5, 35.7309, 48.3718, -13.1895, 96.7247, -55.4458, 42.3946
3.376, 5, 35.7301, 48.3729, -13.1864, 96.7219, -55.4595, 42.3891
3.38, 5, 35.7294, 48.3741, -13.1834, 96.7191, -55.4732, 42.3837
3.383, 5, 35.7286, 48.3752, -13.1803, 96.7163, -55.4869, 42.3782
3.388, 5, 35.7279, 48.3763, -13.1773, 96.7135, -55.5006, 42.3727
3.392, 5, 35.7271, 48.3774, -13.1742, 96.7107, -55.5143, 42.3672
3.396, 5, 35.7264, 48.3785, -13.1712, 96.7079, -55.528, 42.3617
3.4, 5, 35.7256, 48.3797, -13.1681, 96.7051, -55.5417, 42.3562
3.403, 5, 35.7248, 48.3808, -13.1651, 96.7023, -55.5554, 42.3507
3.408, 5, 35.7241, 48.3819, -13.1621, 96.6995, -55.5691, 42.3453
3.412, 5, 35.7233, 48.3831, -13.159, 96.6967, -55.5827, 42.3398
3.416, 5, 35.7226, 48.3842, -13.156, 96.6938, -55.5964, 42.3343
3.42, 5, 35.7218, 48.3853, -13.1529, 96.691, -55.6101, 42.3288
3.424, 5, 35.721, 48.3865, -13.1499, 96.6882, -55.6238, 42.3233
3.428, 5, 35.7203, 48.3876, -13.1468, 96.6854, -55.6375, 42.3179
3.432, 5, 35.7195, 48.3887, -13.1438, 96.6826, -55.6512, 42.3124
3.436, 5, 35.7187, 48.3899, -13.1408, 96.6797, -55.6649, 42.3069
3.439, 5, 35.718, 48.391, -13.1377, 96.6769, -55.6786, 42.3015
3.444, 5, 35.7172, 48.3922, -13.1347, 96.6741, -55.6923, 42.296
3.448, 5, 35.7164, 48.3933, -13.1316, 96.6712, -55.706, 42.2905
3.452, 5, 35.7157, 48.3945, -13.1286, 96.6684, -55.7196, 42.2851
3.456, 5, 35.7149, 48.3956, -13.1256, 96.6656, -55.7333, 42.2796
3.46, 5, 35.7141, 48.3968, -13.1225, 96.6628, -55.747, 42.2742
3.464, 5, 35.7133, 48.3979, -13.1195, 96.6599, -55.7607, 42.2687
3.468, 5, 35.7126, 48.3991, -13.1165, 96.6571, -55.7744, 42.2633
3.472, 5, 35.7118, 48.4002, -13.1134, 96.6542, -55.7881, 42.2578
3.476, 5, 35.711, 48.4014, -13.1104, 96.6514, -55.8018, 42.2523
3.48, 5, 35.7102, 48.4026, -13.1074, 96.6486, -55.8154, 42.2469
3.484, 5, 35.7095, 48.4037, -13.1043, 96.6457, -55.8291, 42.2415
3.488, 5, 35.7087, 48.4049, -13.1013, 96.6429, -55.8428, 42.236
3.492, 5, 35.7079, 48.406, -13.0983, 96.64, -55.8565, 42.2306
3.495, 5, 35.7071, 48.4072, -13.0952, 96.6372, -55.8702, 42.2251
3.5, 5, 35.7064, 48.4084, -13.0922, 96.6343, -55.8839, 42.2197
3.504, 5, 35.7056, 48.4096, -13.0892, 96.6315, -55.8975, 42.2142
3.508, 5, 35.7048, 48.4107, -13.0861, 96.6286, -55.9112, 42.2088
3.512, 5, 35.704, 48.4119, -13.0831, 96.6258, -55.9249, 42.2034
3.516, 5, 35.7032, 48.4131, -13.0801, 96.6229, -55.9386, 42.1979
3.52, 5, 35.7025, 48.4143, -13.077, 96.62, -55.9523, 42.1925
3.524, 5, 35.7017, 48.4154, -13.074, 96.6172, -55.9659, 42.1871
3.528, 5, 35.7009, 48.4166, -13.071, 96.6143, -55.9796, 42.1816
3.531, 5, 35.7001, 48.4178, -13.068, 96.6115, -55.9933, 42.1762
3.536, 5, 35.6993, 48.419, -13.0649, 96.6086, -56.007, 42.1708
3.54, 5, 35.6985, 48.4202, -13.0619, 96.6057, -56.0206, 42.1654
3.544, 5, 35.6977, 48.4214, -13.0589, 96.6029, -56.0343, 42.1599
3.548, 5, 35.697, 48.4226, -13.0559, 96.6, -56.048, 42.1545
3.552, 5, 35.6962, 48.4237, -13.0528, 96.5971, -56.0617, 42.1491
3.556, 5, 35.6954, 48.4249, -13.0498, 96.5942, -56.0753, 42.1437
3.56, 5, 35.6946, 48.4261, -13.0468, 96.5914, -56.089, 42.1383
3.564, 5, 35.6938, 48.4273, -13.0438, 96.5885, -56.1027, 42.1329
3.568, 5, 35.693, 48.4285, -13.0407, 96.5856, -56.1164, 42.1274
3.572, 5, 35.6922, 48.4297, -13.0377, 96.5827, -56.13, 42.122
3.576, 5, 35.6914, 48.4309, -13.0347, 96.5798, -56.1437, 42.1166
3.58, 5, 35.6906, 48.4321, -13.0317, 96.577, -56.1574, 42.1112
3.584, 5, 35.6898, 48.4334, -13.0287, 96.5741, -56.1711, 42.1058
3.587, 5, 35.689, 48.4346, -13.0256, 96.5712, -56.1847, 42.1004
3.592, 5, 35.6882, 48.4358, -13.0226, 96.5683, -56.1984, 42.095
3.596, 5, 35.6874, 48.437, -13.0196, 96.5654, -56.2121, 42.0896
3.6, 5, 35.6866, 48.4382, -13.0166, 96.5625, -56.2257, 42.0842
3.604, 5, 35.6858, 48.4394, -13.0136, 96.5596, -56.2394, 42.0788
3.608, 5, 35.685, 48.4406, -13.0105, 96.5567, -56.2531, 42.0734
3.612, 5, 35.6842, 48.4418, -13.0075, 96.5538, -56.2667, 42.068
3.616, 5, 35.6834, 48.4431, -13.0045, 96.5509, -56.2804, 42.0626
3.62, 5, 35.6826, 48.4443, -13.0015, 96.548, -56.2941, 42.0573
3.624, 5, 35.6818, 48.4455, -12.9985, 96.5451, -56.3077, 42.0519
3.628, 5, 35.681, 48.4467, -12.9955, 96.5422, -56.3214, 42.0465
3.632, 5, 35.6802, 48.448, -12.9925, 96.5393, -56.3351, 42.0411
3.636, 5, 35.6794, 48.4492, -12.9894, 96.5364, -56.3487, 42.0357
3.64, 5, 35.6786, 48.4504, -12.9864, 96.5335, -56.3624, 42.0303
3.644, 5, 35.6778, 48.4517, -12.9834, 96.5306, -56.3761, 42.0249
3.648, 5, 35.677, 48.4529, -12.9804, 96.5277, -56.3897, 42.0196
3.652, 5, 35.6762, 48.4541, -12.9774, 96.5248, -56.4034, 42.0142
3.656, 5, 35.6754, 48.4554, -12.9744, 96.5219, -56.417, 42.0088
3.66, 5, 35.6746, 48.4566, -12.9714, 96.519, -56.4307, 42.0034
3.664, 5, 35.6737, 48.4578, -12.9684, 96.516, -56.4444, 41.9981
3.668, 5, 35.6729, 48.4591, -12.9653, 96.5131, -56.458, 41.9927
3.672, 5, 35.6721, 48.4603, -12.9623, 96.5102, -56.4717, 41.9873
3.676, 5, 35.6713, 48.4616, -12.9593, 96.5073, -56.4853, 41.982
3.679, 5, 35.6705, 48.4628, -12.9563, 96.5043, -56.499, 41.9766
3.684, 5, 35.6697, 48.4641, -12.9533, 96.5014, -56.5127, 41.9712
3.688, 5, 35.6689, 48.4653, -12.9503, 96.4985, -56.5263, 41.9659
3.692, 5, 35.668, 48.4666, -12.9473, 96.4956, -56.54, 41.9605
3.696, 5, 35.6672, 48.4678, -12.9443, 96.4926, -56.5536, 41.9552
3.7, 5, 35.6664, 48.4691, -12.9413, 96.4897, -56.5673, 41.9498
3.704, 5, 35.6656, 48.4704, -12.9383, 96.4868, -56.5809, 41.9445
3.708, 5, 35.6648, 48.4716, -12.9353, 96.4838, -56.5946, 41.9391
3.712, 5, 35.6639, 48.4729, -12.9323, 96.4809, -56.6082, 41.9338
3.716, 5, 35.6631, 48.4741, -12.9293, 96.478, -56.6219, 41.9284
3.72, 5, 35.6623, 48.4754, -12.9263, 96.475, -56.6356, 41.9231
3.724, 5, 35.6615, 48.4767, -12.9233, 96.4721, -56.6492, 41.9177
3.728, 5, 35.6606, 48.4779, -12.9203, 96.4691, -56.6629, 41.9124
3.732, 5, 35.6598, 48.4792, -12.9173, 96.4662, -56.6765, 41.907
3.735, 5, 35.659, 48.4805, -12.9143, 96.4632, -56.6902, 41.9017
3.74, 5, 35.6582, 48.4818, -12.9113, 96.4603, -56.7038, 41.8963
3.744, 5, 35.6573, 48.483, -12.9083, 96.4574, -56.7175, 41.891
3.748, 5, 35.6565, 48.4843, -12.9053, 96.4544, -56.7311, 41.8857
3.752, 5, 35.6557, 48.4856, -12.9023, 96.4514, -56.7448, 41.8803
3.756, 5, 35.6549, 48.4869, -12.8993, 96.4485, -56.7584, 41.875
3.76, 5, 35.654, 48.4882, -12.8963, 96.4455, -56.7721, 41.8697
3.764, 5, 35.6532, 48.4894, -12.8933, 96.4426, -56.7857, 41.8643
3.768, 5, 35.6524, 48.4907, -12.8903, 96.4396, -56.7994, 41.859
3.772, 5, 35.6515, 48.492, -12.8873, 96.4367, -56.813, 41.8537
3.776, 5, 35.6507, 48.4933, -12.8843, 96.4337, -56.8266, 41.8484
3.78, 5, 35.6499, 48.4946, -12.8813, 96.4307, -56.8403, 41.843
3.784, 5, 35.649, 48.4959, -12.8783, 96.4278, -56.8539, 41.8377
3.788, 5, 35.6482, 48.4972, -12.8753, 96.4248, -56.8676, 41.8324
3.792, 5, 35.6474, 48.4985, -12.8723, 96.4218, -56.8812, 41.8271
3.796, 5, 35.6465, 48.4998, -12.8693, 96.4189, -56.8949, 41.8218
3.8, 5, 35.6457, 48.5011, -12.8663, 96.4159, -56.9085, 41.8164
3.804, 5, 35.6448, 48.5024, -12.8633, 96.4129, -56.9222, 41.8111
3.808, 5, 35.644, 48.5037, -12.8603, 96.4099, -56.9358, 41.8058
3.812, 5, 35.6432, 48.505, -12.8573, 96.407, -56.9494, 41.8005
3.816, 5, 35.6423, 48.5063, -12.8543, 96.404, -56.9631, 41.7952
3.82, 5, 35.6415, 48.5076, -12.8513, 96.401, -56.9767, 41.7899
3.824, 5, 35.6406, 48.5089, -12.8484, 96.398, -56.9904, 41.7846
3.828, 5, 35.6398, 48.5102, -12.8454, 96.395, -57.004, 41.7793
3.832, 5, 35.6389, 48.5116, -12.8424, 96.3921, -57.0176, 41.774
3.836, 5, 35.6381, 48.5129, -12.8394, 96.3891, -57.0313, 41.7687
3.84, 5, 35.6372, 48.5142, -12.8364, 96.3861, -57.0449, 41.7634
3.844, 5, 35.6364, 48.5155, -12.8334, 96.3831, -57.0586, 41.7581
3.848, 5, 35.6355, 48.5168, -12.8304, 96.3801, -57.0722, 41.7528
3.852, 5, 35.6347, 48.5182, -12.8274, 96.3771, -57.0858, 41.7475
3.856, 5, 35.6338, 48.5195, -12.8245, 96.3741, -57.0995, 41.7422
3.86, 5, 35.633, 48.5208, -12.8215, 96.3711, -57.1131, 41.7369
3.864, 5, 35.6321, 48.5221, -12.8185, 96.3681, -57.1267, 41.7316
3.868, 5, 35.6313, 48.5235, -12.8155, 96.3651, -57.1404, 41.7263
3.872, 5, 35.6304, 48.5248, -12.8125, 96.3621, -57.154, 41.7211
3.876, 5, 35.6296, 48.5261, -12.8095, 96.3591, -57.1676, 41.7158
3.88, 5, 35.6287, 48.5275, -12.8065, 96.3561, -57.1813, 41.7105
3.884, 5, 35.6279, 48.5288, -12.8036, 96.3531, -57.1949, 41.7052
3.888, 5, 35.627, 48.5301, -12.8006, 96.3501, -57.2085, 41.6999
3.892, 5, 35.6262, 48.5315, -12.7976, 96.3471, -57.2222, 41.6947
3.896, 5, 35.6253, 48.5328, -12.7946, 96.3441, -57.2358, 41.6894
3.9, 5, 35.6244, 48.5342, -12.7916, 96.3411, -57.2494, 41.6841
3.904, 5, 35.6236, 48.5355, -12.7887, 96.3381, -57.263, 41.6788
3.908, 5, 35.6227, 48.5368, -12.7857, 96.3351, -57.2767, 41.6736
3.912, 5, 35.6219, 48.5382, -12.7827, 96.3321, -57.2903, 41.6683
3.916, 5, 35.621, 48.5396, -12.7797, 96.329, -57.3039, 41.663
3.92, 5, 35.6201, 48.5409, -12.7767, 96.326, -57.3176, 41.6578
3.924, 5, 35.6193, 48.5423, -12.7738, 96.323, -57.3312, 41.6525
3.928, 5, 35.6184, 48.5436, -12.7708, 96.32, -57.3448, 41.6472
3.932, 5, 35.6175, 48.545, -12.7678, 96.3169, -57.3584, 41.642
3.936, 5, 35.6167, 48.5463, -12.7648, 96.3139, -57.3721, 41.6367
3.94, 5, 35.6158, 48.5477, -12.7619, 96.3109, -57.3857, 41.6315
3.944, 5, 35.6149, 48.549, -12.7589, 96.3079, -57.3993, 41.6262
3.948, 5, 35.6141, 48.5504, -12.7559, 96.3048, -57.4129, 41.6209
3.952, 5, 35.6132, 48.5518, -12.7529, 96.3018, -57.4266, 41.6157
3.956, 5, 35.6123, 48.5532, -12.75, 96.2988, -57.4402, 41.6104
3.96, 5, 35.6115, 48.5545, -12.747, 96.2958, -57.4538, 41.6052
3.964, 5, 35.6106, 48.5559, -12.744, 96.2927, -57.4674, 41.5999
3.968, 5, 35.6097, 48.5573, -12.741, 96.2897, -57.4811, 41.5947
3.972, 5, 35.6088, 48.5586, -12.7381, 96.2866, -57.4947, 41.5895
3.976, 5, 35.608, 48.56, -12.7351, 96.2836, -57.5083, 41.5842
3.98, 5, 35.6071, 48.5614, -12.7321, 96.2805, -57.5219, 41.579
3.984, 5, 35.6062, 48.5628, -12.7292, 96.2775, -57.5355, 41.5737
3.988, 5, 35.6053, 48.5641, -12.7262, 96.2745, -57.5491, 41.5685
3.992, 5, 35.6045, 48.5655, -12.7232, 96.2714, -57.5628, 41.5633
3.996, 5, 35.6036, 48.5669, -12.7202, 96.2684, -57.5764, 41.558
3.999, 5, 35.6027, 48.5683, -12.7173, 96.2653, -57.59, 41.5528
4.004, 5, 35.6018, 48.5697, -12.7143, 96.2623, -57.6036, 41.5476
4.008, 5, 35.6009, 48.5711, -12.7113, 96.2592, -57.6172, 41.5423
4.012, 5, 35.6001, 48.5725, -12.7084, 96.2562, -57.6309, 41.5371
4.016, 5, 35.5992, 48.5739, -12.7054, 96.2531, -57.6445, 41.5319
4.02, 5, 35.5983, 48.5753, -12.7024, 96.2501, -57.6581, 41.5266
4.024, 5, 35.5974, 48.5767, -12.6995, 96.247, -57.6717, 41.5214
4.028, 5, 35.5965, 48.5781, -12.6965, 96.2439, -57.6853, 41.5162
4.032, 5, 35.5956, 48.5795, -12.6935, 96.2409, -57.6989, 41.511
4.036, 5, 35.5947, 48.5809, -12.6906, 96.2378, -57.7125, 41.5058
4.04, 5, 35.5939, 48.5823, -12.6876, 96.2347, -57.7261, 41.5005
4.044, 5, 35.593, 48.5837, -12.6847, 96.2317, -57.7398, 41.4953
4.048, 5, 35.5921, 48.5851, -12.6817, 96.2286, -57.7534, 41.4901
4.052, 5, 35.5912, 48.5865, -12.6787, 96.2256, -57.767, 41.4849
4.056, 5, 35.5903, 48.5879, -12.6758, 96.2225, -57.7806, 41.4797
4.06, 5, 35.5894, 48.5893, -12.6728, 96.2194, -57.7942, 41.4745
4.064, 5, 35.5885, 48.5907, -12.6698, 96.2163, -57.8078, 41.4693
4.068, 5, 35.5876, 48.5921, -12.6669, 96.2133, -57.8214, 41.4641
4.072, 5, 35.5867, 48.5935, -12.6639, 96.2102, -57.835, 41.4588
4.076, 5, 35.5858, 48.595, -12.661, 96.2071, -57.8486, 41.4536
4.08, 5, 35.5849, 48.5964, -12.658, 96.204, -57.8622, 41.4484
4.084, 5, 35.584, 48.5978, -12.6551, 96.2009, -57.8758, 41.4432
4.088, 5, 35.5831, 48.5992, -12.6521, 96.1979, -57.8895, 41.438
4.092, 5, 35.5822, 48.6007, -12.6491, 96.1948, -57.9031, 41.4328
4.096, 5, 35.5813, 48.6021, -12.6462, 96.1917, -57.9167, 41.4277
4.1, 5, 35.5804, 48.6035, -12.6432, 96.1886, -57.9303, 41.4225
4.104, 5, 35.5795, 48.6049, -12.6403, 96.1855, -57.9439, 41.4173
4.108, 5, 35.5786, 48.6064, -12.6373, 96.1824, -57.9575, 41.4121
4.112, 5, 35.5777, 48.6078, -12.6344, 96.1793, -57.9711, 41.4069
4.116, 5, 35.5768, 48.6093, -12.6314, 96.1762, -57.9847, 41.4017
4.12, 5, 35.5759, 48.6107, -12.6284, 96.1731, -57.9983, 41.3965
4.124, 5, 35.575, 48.6121, -12.6255, 96.1701, -58.0119, 41.3913
4.128, 5, 35.5741, 48.6136, -12.6225, 96.167, -58.0255, 41.3861
4.132, 5, 35.5732, 48.615, -12.6196, 96.1639, -58.0391, 41.381
4.136, 5, 35.5723, 48.6165, -12.6166, 96.1608, -58.0527, 41.3758
4.14, 5, 35.5714, 48.6179, -12.6137, 96.1577, -58.0663, 41.3706
4.144, 5, 35.5705, 48.6194, -12.6107, 96.1546, -58.0799, 41.3654
4.148, 5, 35.5696, 48.6208, -12.6078, 96.1514, -58.0935, 41.3602
4.152, 5, 35.5687, 48.6222, -12.6048, 96.1483, -58.1071, 41.3551
4.156, 5, 35.5677, 48.6237, -12.6019, 96.1452, -58.1207, 41.3499
4.16, 5, 35.5668, 48.6252, -12.5989, 96.1421, -58.1343, 41.3447
4.164, 5, 35.5659, 48.6266, -12.596, 96.139, -58.1479, 41.3396
4.168, 5, 35.565, 48.6281, -12.593, 96.1359, -58.1615, 41.3344
4.172, 5, 35.5641, 48.6295, -12.5901, 96.1328, -58.1751, 41.3292
4.176, 5, 35.5632, 48.631, -12.5871, 96.1297, -58.1886, 41.3241
4.18, 5, 35.5623, 48.6325, -12.5842, 96.1266, -58.2022, 41.3189
4.184, 5, 35.5613, 48.6339, -12.5812, 96.1234, -58.2158, 41.3137
4.188, 5, 35.5604, 48.6354, -12.5783, 96.1203, -58.2294, 41.3086
4.192, 5, 35.5595, 48.6369, -12.5754, 96.1172, -58.243, 41.3034
4.196, 5, 35.5586, 48.6383, -12.5724, 96.1141, -58.2566, 41.2983
4.2, 5, 35.5577, 48.6398, -12.5695, 96.111, -58.2702, 41.2931
4.204, 5, 35.5567, 48.6413, -12.5665, 96.1078, -58.2838, 41.288
4.208, 5, 35.5558, 48.6427, -12.5636, 96.1047, -58.2974, 41.2828
4.212, 5, 35.5549, 48.6442, -12.5606, 96.1016, -58.311, 41.2776
4.216, 5, 35.554, 48.6457, -12.5577, 96.0984, -58.3246, 41.2725
4.22, 5, 35.553, 48.6472, -12.5547, 96.0953, -58.3382, 41.2674
4.224, 5, 35.5521, 48.6487, -12.5518, 96.0922, -58.3517, 41.2622
4.228, 5, 35.5512, 48.6501, -12.5489, 96.089, -58.3653, 41.2571
4.232, 5, 35.5503, 48.6516, -12.5459, 96.0859, -58.3789, 41.2519
4.236, 5, 35.5493, 48.6531, -12.543, 96.0828, -58.3925, 41.2468
4.24, 5, 35.5484, 48.6546, -12.54, 96.0796, -58.4061, 41.2416
4.244, 5, 35.5475, 48.6561, -12.5371, 96.0765, -58.4197, 41.2365
4.248, 5, 35.5465, 48.6576, -12.5342, 96.0733, -58.4333, 41.2314
4.252, 5, 35.5456, 48.6591, -12.5312, 96.0702, -58.4468, 41.2262
4.256, 5, 35.5447, 48.6606, -12.5283, 96.0671, -58.4604, 41.2211
4.26, 5, 35.5438, 48.6621, -12.5254, 96.0639, -58.474, 41.216
4.264, 5, 35.5428, 48.6636, -12.5224, 96.0608, -58.4876, 41.2108
4.268, 5, 35.5419, 48.6651, -12.5195, 96.0576, -58.5012, 41.2057
4.272, 5, 35.5409, 48.6666, -12.5165, 96.0545, -58.5148, 41.2006
4.276, 5, 35.54, 48.6681, -12.5136, 96.0513, -58.5283, 41.1954
4.28, 5, 35.5391, 48.6696, -12.5107, 96.0482, -58.5419, 41.1903
4.284, 5, 35.5381, 48.6711, -12.5077, 96.045, -58.5555, 41.1852
4.288, 5, 35.5372, 48.6726, -12.5048, 96.0418, -58.5691, 41.1801
4.292, 5, 35.5363, 48.6741, -12.5019, 96.0387, -58.5827, 41.175
4.296, 5, 35.5353, 48.6756, -12.4989, 96.0355, -58.5962, 41.1698
4.3, 5, 35.5344, 48.6771, -12.496, 96.0324, -58.6098, 41.1647
4.304, 5, 35.5334, 48.6786, -12.4931, 96.0292, -58.6234, 41.1596
4.308, 5, 35.5325, 48.6802, -12.4901, 96.026, -58.637, 41.1545
4.312, 5, 35.5315, 48.6817, -12.4872, 96.0229, -58.6506, 41.1494
4.316, 5, 35.5306, 48.6832, -12.4843, 96.0197, -58.6641, 41.1443
4.32, 5, 35.5296, 48.6847, -12.4813, 96.0165, -58.6777, 41.1392
4.324, 5, 35.5287, 48.6862, -12.4784, 96.0134, -58.6913, 41.1341
4.328, 5, 35.5278, 48.6878, -12.4755, 96.0102, -58.7049, 41.1289
4.332, 5, 35.5268, 48.6893, -12.4726, 96.007, -58.7184, 41.1238
4.336, 5, 35.5259, 48.6908, -12.4696, 96.0039, -58.732, 41.1187
4.34, 5, 35.5249, 48.6924, -12.4667, 96.0007, -58.7456, 41.1136
4.344, 5, 35.524, 48.6939, -12.4638, 95.9975, -58.7592, 41.1085
4.348, 5, 35.523, 48.6954, -12.4608, 95.9943, -58.7727, 41.1034
4.352, 5, 35.522, 48.697, -12.4579, 95.9911, -58.7863, 41.0983
4.356, 5, 35.5211, 48.6985, -12.455, 95.988, -58.7999, 41.0932
4.36, 5, 35.5201, 48.7, -12.4521, 95.9848, -58.8134, 41.0882
4.364, 5, 35.5192, 48.7016, -12.4491, 95.9816, -58.827, 41.0831
4.368, 5, 35.5182, 48.7031, -12.4462, 95.9784, -58.8406, 41.078
4.372, 5, 35.5173, 48.7047, -12.4433, 95.9752, -58.8541, 41.0729
4.376, 5, 35.5163, 48.7062, -12.4404, 95.972, -58.8677, 41.0678
4.38, 5, 35.5154, 48.7078, -12.4374, 95.9688, -58.8813, 41.0627
4.384, 5, 35.5144, 48.7093, -12.4345, 95.9657, -58.8949, 41.0576
4.388, 5, 35.5134, 48.7109, -12.4316, 95.9625, -58.9084, 41.0525
4.392, 5, 35.5125, 48.7124, -12.4287, 95.9593, -58.922, 41.0475
4.396, 5, 35.5115, 48.714, -12.4257, 95.9561, -58.9356, 41.0424
4.4, 5, 35.5105, 48.7155, -12.4228, 95.9529, -58.9491, 41.0373
4.404, 5, 35.5096, 48.7171, -12.4199, 95.9497, -58.9627, 41.0322
4.408, 5, 35.5086, 48.7186, -12.417, 95.9465, -58.9762, 41.0271
4.412, 5, 35.5077, 48.7202, -12.4141, 95.9433, -58.9898, 41.0221
4.416, 5, 35.5067, 48.7218, -12.4111, 95.9401, -59.0034, 41.017
4.42, 5, 35.5057, 48.7233, -12.4082, 95.9369, -59.0169, 41.0119
4.424, 5, 35.5047, 48.7249, -12.4053, 95.9337, -59.0305, 41.0069
4.428, 5, 35.5038, 48.7265, -12.4024, 95.9305, -59.0441, 41.0018
4.432, 5, 35.5028, 48.728, -12.3995, 95.9273, -59.0576, 40.9967
4.436, 5, 35.5018, 48.7296, -12.3966, 95.924, -59.0712, 40.9916
4.44, 5, 35.5009, 48.7312, -12.3936, 95.9208, -59.0848, 40.9866
4.444, 5, 35.4999, 48.7327, -12.3907, 95.9176, -59.0983, 40.9815
4.448, 5, 35.4989, 48.7343, -12.3878, 95.9144, -59.1119, 40.9765
4.452, 5, 35.4979, 48.7359, -12.3849, 95.9112, -59.1254, 40.9714
4.456, 5, 35.497, 48.7375, -12.382, 95.908, -59.139, 40.9663
4.46, 5, 35.496, 48.7391, -12.3791, 95.9048, -59.1525, 40.9613
4.464, 5, 35.495, 48.7406, -12.3761, 95.9015, -59.1661, 40.9562
4.468, 5, 35.494, 48.7422, -12.3732, 95.8983, -59.1797, 40.9512
4.472, 5, 35.4931, 48.7438, -12.3703, 95.8951, -59.1932, 40.9461
4.476, 5, 35.4921, 48.7454, -12.3674, 95.8919, -59.2068, 40.9411
4.48, 5, 35.4911, 48.747, -12.3645, 95.8886, -59.2203, 40.936
4.484, 5, 35.4901, 48.7486, -12.3616, 95.8854, -59.2339, 40.931
4.488, 5, 35.4891, 48.7502, -12.3587, 95.8822, -59.2474, 40.9259
4.492, 5, 35.4882, 48.7518, -12.3558, 95.879, -59.261, 40.9209
4.496, 5, 35.4872, 48.7534, -12.3528, 95.8757, -59.2745, 40.9158
4.5, 5, 35.4862, 48.755, -12.3499, 95.8725, -59.2881, 40.9108
4.504, 5, 35.4852, 48.7566, -12.347, 95.8693, -59.3017, 40.9058
4.508, 5, 35.4842, 48.7582, -12.3441, 95.866, -59.3152, 40.9007
4.512, 5, 35.4832, 48.7598, -12.3412, 95.8628, -59.3288, 40.8957
4.516, 5, 35.4822, 48.7614, -12.3383, 95.8596, -59.3423, 40.8907
4.52, 5, 35.4813, 48.763, -12.3354, 95.8563, -59.3559, 40.8856
4.524, 5, 35.4803, 48.7646, -12.3325, 95.8531, -59.3694, 40.8806
4.528, 5, 35.4793, 48.7662, -12.3296, 95.8498, -59.383, 40.8756
4.532, 5, 35.4783, 48.7678, -12.3267, 95.8466, -59.3965, 40.8705
4.536, 5, 35.4773, 48.7694, -12.3238, 95.8433, -59.41, 40.8655
4.54, 5, 35.4763, 48.771, -12.3209, 95.8401, -59.4236, 40.8605
4.544, 5, 35.4753, 48.7726, -12.318, 95.8369, -59.4371, 40.8554
4.548, 5, 35.4743, 48.7743, -12.315, 95.8336, -59.4507, 40.8504
4.552, 5, 35.4733, 48.7759, -12.3121, 95.8303, -59.4642, 40.8454
4.556, 5, 35.4723, 48.7775, -12.3092, 95.8271, -59.4778, 40.8404
4.56, 5, 35.4713, 48.7791, -12.3063, 95.8238, -59.4913, 40.8354
4.564, 5, 35.4703, 48.7808, -12.3034, 95.8206, -59.5049, 40.8303
4.568, 5, 35.4693, 48.7824, -12.3005, 95.8173, -59.5184, 40.8253
4.572, 5, 35.4683, 48.784, -12.2976, 95.8141, -59.532, 40.8203
4.576, 5, 35.4673, 48.7856, -12.2947, 95.8108, -59.5455, 40.8153
4.58, 5, 35.4663, 48.7873, -12.2918, 95.8076, -59.559, 40.8103
4.584, 5, 35.4653, 48.7889, -12.2889, 95.8043, -59.5726, 40.8053
4.588, 5, 35.4643, 48.7905, -12.286, 95.801, -59.5861, 40.8003
4.592, 5, 35.4633, 48.7922, -12.2831, 95.7978, -59.5997, 40.7952
4.596, 5, 35.4623, 48.7938, -12.2802, 95.7945, -59.6132, 40.7902
4.6, 5, 35.4613, 48.7954, -12.2773, 95.7912, -59.6268, 40.7852
4.604, 5, 35.4603, 48.7971, -12.2744, 95.788, -59.6403, 40.7802
4.608, 5, 35.4593, 48.7987, -12.2715, 95.7847, -59.6538, 40.7752
4.612, 5, 35.4583, 48.8004, -12.2686, 95.7814, -59.6674, 40.7702
4.616, 5, 35.4573, 48.802, -12.2657, 95.7782, -59.6809, 40.7652
4.62, 5, 35.4563, 48.8037, -12.2628, 95.7749, -59.6944, 40.7602
4.624, 5, 35.4552, 48.8053, -12.2599, 95.7716, -59.708, 40.7552
4.628, 5, 35.4542, 48.807, -12.257, 95.7683, -59.7215, 40.7502
4.632, 5, 35.4532, 48.8086, -12.2541, 95.765, -59.7351, 40.7453
4.636, 5, 35.4522, 48.8103, -12.2513, 95.7618, -59.7486, 40.7403
4.64, 5, 35.4512, 48.8119, -12.2484, 95.7585, -59.7621, 40.7353
4.644, 5, 35.4502, 48.8136, -12.2455, 95.7552, -59.7757, 40.7303
4.648, 5, 35.4492, 48.8152, -12.2426, 95.7519, -59.7892, 40.7253
4.652, 5, 35.4482, 48.8169, -12.2397, 95.7486, -59.8027, 40.7203
4.656, 5, 35.4471, 48.8186, -12.2368, 95.7453, -59.8163, 40.7153
4.66, 5, 35.4461, 48.8202, -12.2339, 95.7421, -59.8298, 40.7103
4.664, 5, 35.4451, 48.8219, -12.231, 95.7388, -59.8433, 40.7054
4.668, 5, 35.4441, 48.8236, -12.2281, 95.7355, -59.8569, 40.7004
4.672, 5, 35.4431, 48.8252, -12.2252, 95.7322, -59.8704, 40.6954
4.676, 5, 35.442, 48.8269, -12.2223, 95.7289, -59.8839, 40.6904
4.68, 5, 35.441, 48.8286, -12.2194, 95.7256, -59.8974, 40.6854
4.684, 5, 35.44, 48.8303, -12.2165, 95.7223, -59.911, 40.6805
4.688, 5, 35.439, 48.8319, -12.2137, 95.719, -59.9245, 40.6755
4.692, 5, 35.4379, 48.8336, -12.2108, 95.7157, -59.938, 40.6705
4.696, 5, 35.4369, 48.8353, -12.2079, 95.7124, -59.9516, 40.6656
4.7, 5, 35.4359, 48.837, -12.205, 95.7091, -59.9651, 40.6606
4.704, 5, 35.4348, 48.8386, -12.2021, 95.7058, -59.9786, 40.6556
4.708, 5, 35.4338, 48.8403, -12.1992, 95.7025, -59.9921, 40.6507
4.712, 5, 35.4328, 48.842, -12.1963, 95.6992, -60.0057, 40.6457
4.716, 5, 35.4318, 48.8437, -12.1934, 95.6959, -60.0192, 40.6407
4.72, 5, 35.4307, 48.8454, -12.1906, 95.6926, -60.0327, 40.6358
4.724, 5, 35.4297, 48.8471, -12.1877, 95.6893, -60.0462, 40.6308
4.728, 5, 35.4287, 48.8488, -12.1848, 95.686, -60.0598, 40.6258
4.732, 5, 35.4276, 48.8505, -12.1819, 95.6826, -60.0733, 40.6209
4.736, 5, 35.4266, 48.8522, -12.179, 95.6793, -60.0868, 40.6159
4.74, 5, 35.4256, 48.8539, -12.1761, 95.676, -60.1003, 40.611
4.744, 5, 35.4245, 48.8556, -12.1733, 95.6727, -60.1138, 40.606
4.748, 5, 35.4235, 48.8573, -12.1704, 95.6694, -60.1274, 40.6011
4.752, 5, 35.4224, 48.859, -12.1675, 95.666, -60.1409, 40.5961
4.756, 5, 35.4214, 48.8607, -12.1646, 95.6627, -60.1544, 40.5912
4.76, 5, 35.4204, 48.8624, -12.1617, 95.6594, -60.1679, 40.5862
4.764, 5, 35.4193, 48.8641, -12.1588, 95.6561, -60.1814, 40.5813
4.768, 5, 35.4183, 48.8658, -12.156, 95.6528, -60.195, 40.5763
4.772, 5, 35.4172, 48.8675, -12.1531, 95.6494, -60.2085, 40.5714
4.776, 5, 35.4162, 48.8692, -12.1502, 95.6461, -60.222, 40.5664
4.78, 5, 35.4151, 48.8709, -12.1473, 95.6428, -60.2355, 40.5615
4.784, 5, 35.4141, 48.8726, -12.1444, 95.6394, -60.249, 40.5566
4.788, 5, 35.4131, 48.8744, -12.1416, 95.6361, -60.2626, 40.5516
4.792, 5, 35.412, 48.8761, -12.1387, 95.6328, -60.2761, 40.5467
4.796, 5, 35.411, 48.8778, -12.1358, 95.6295, -60.2896, 40.5418
4.8, 5, 35.4099, 48.8795, -12.1329, 95.6261, -60.3031, 40.5368
4.804, 5, 35.4089, 48.8812, -12.1301, 95.6228, -60.3166, 40.5319
4.808, 5, 35.4078, 48.883, -12.1272, 95.6194, -60.3301, 40.527
4.812, 5, 35.4068, 48.8847, -12.1243, 95.6161, -60.3436, 40.522
4.816, 5, 35.4057, 48.8864, -12.1214, 95.6128, -60.3571, 40.5171
4.82, 5, 35.4046, 48.8882, -12.1186, 95.6094, -60.3707, 40.5122
4.824, 5, 35.4036, 48.8899, -12.1157, 95.6061, -60.3842, 40.5073
4.828, 5, 35.4025, 48.8916, -12.1128, 95.6027, -60.3977, 40.5023
4.832, 5, 35.4015, 48.8934, -12.1099, 95.5994, -60.4112, 40.4974
4.836, 5, 35.4004, 48.8951, -12.1071, 95.596, -60.4247, 40.4925
4.84, 5, 35.3994, 48.8968, -12.1042, 95.5927, -60.4382, 40.4876
4.844, 5, 35.3983, 48.8986, -12.1013, 95.5893, -60.4517, 40.4827
4.848, 5, 35.3972, 48.9003, -12.0984, 95.586, -60.4652, 40.4777
4.852, 5, 35.3962, 48.9021, -12.0956, 95.5826, -60.4787, 40.4728
4.856, 5, 35.3951, 48.9038, -12.0927, 95.5793, -60.4922, 40.4679
4.86, 5, 35.3941, 48.9056, -12.0898, 95.5759, -60.5057, 40.463
4.864, 5, 35.393, 48.9073, -12.087, 95.5726, -60.5193, 40.4581
4.868, 5, 35.3919, 48.909, -12.0841, 95.5692, -60.5328, 40.4532
4.872, 5, 35.3909, 48.9108, -12.0812, 95.5658, -60.5463, 40.4483
4.876, 5, 35.3898, 48.9126, -12.0783, 95.5625, -60.5598, 40.4434
4.88, 5, 35.3887, 48.9143, -12.0755, 95.5591, -60.5733, 40.4385
4.884, 5, 35.3877, 48.9161, -12.0726, 95.5558, -60.5868, 40.4336
4.888, 5, 35.3866, 48.9178, -12.0697, 95.5524, -60.6003, 40.4286
4.892, 5, 35.3855, 48.9196, -12.0669, 95.549, -60.6138, 40.4237
4.896, 5, 35.3845, 48.9213, -12.064, 95.5457, -60.6273, 40.4188
4.9, 5, 35.3834, 48.9231, -12.0611, 95.5423, -60.6408, 40.414
4.904, 5, 35.3823, 48.9249, -12.0583, 95.5389, -60.6543, 40.4091
4.908, 5, 35.3812, 48.9266, -12.0554, 95.5355, -60.6678, 40.4042
4.912, 5, 35.3802, 48.9284, -12.0525, 95.5322, -60.6813, 40.3993
4.916, 5, 35.3791, 48.9302, -12.0497, 95.5288, -60.6948, 40.3944
4.92, 5, 35.378, 48.9319, -12.0468, 95.5254, -60.7083, 40.3895
4.924, 5, 35.3769, 48.9337, -12.0439, 95.522, -60.7218, 40.3846
4.928, 5, 35.3759, 48.9355, -12.0411, 95.5187, -60.7353, 40.3797
4.932, 5, 35.3748, 48.9373, -12.0382, 95.5153, -60.7488, 40.3748
4.936, 5, 35.3737, 48.9391, -12.0354, 95.5119, -60.7623, 40.3699
4.94, 5, 35.3726, 48.9408, -12.0325, 95.5085, -60.7758, 40.365
4.944, 5, 35.3715, 48.9426, -12.0296, 95.5051, -60.7893, 40.3602
4.948, 5, 35.3705, 48.9444, -12.0268, 95.5018, -60.8028, 40.3553
4.952, 5, 35.3694, 48.9462, -12.0239, 95.4984, -60.8163, 40.3504
4.956, 5, 35.3683, 48.948, -12.021, 95.495, -60.8297, 40.3455
4.96, 5, 35.3672, 48.9498, -12.0182, 95.4916, -60.8432, 40.3406
4.964, 5, 35.3661, 48.9515, -12.0153, 95.4882, -60.8567, 40.3358
4.968, 5, 35.365, 48.9533, -12.0125, 95.4848, -60.8702, 40.3309
4.972, 5, 35.3639, 48.9551, -12.0096, 95.4814, -60.8837, 40.326
4.976, 5, 35.3629, 48.9569, -12.0067, 95.478, -60.8972, 40.3211
4.98, 5, 35.3618, 48.9587, -12.0039, 95.4746, -60.9107, 40.3163
4.984, 5, 35.3607, 48.9605, -12.001, 95.4712, -60.9242, 40.3114
4.988, 5, 35.3596, 48.9623, -11.9982, 95.4678, -60.9377, 40.3065
4.992, 5, 35.3585, 48.9641, -11.9953, 95.4644, -60.9512, 40.3017
4.996, 5, 35.3574, 48.9659, -11.9925, 95.461, -60.9647, 40.2968
5, 5, 35.3563, 48.9677, -11.9896, 95.4576, -60.9782, 40.2919
5.004, 5, 35.3552, 48.9695, -11.9867, 95.4542, -60.9916, 40.2871
5.008, 5, 35.3541, 48.9713, -11.9839, 95.4508, -61.0051, 40.2822
5.012, 5, 35.353, 48.9731, -11.981, 95.4474, -61.0186, 40.2774
5.016, 5, 35.3519, 48.975, -11.9782, 95.444, -61.0321, 40.2725
5.02, 5, 35.3508, 48.9768, -11.9753, 95.4406, -61.0456, 40.2676
5.024, 5, 35.3497, 48.9786, -11.9725, 95.4372, -61.0591, 40.2628
5.028, 5, 35.3486, 48.9804, -11.9696, 95.4338, -61.0726, 40.2579
5.032, 5, 35.3475, 48.9822, -11.9668, 95.4304, -61.086, 40.2531
5.036, 5, 35.3464, 48.984, -11.9639, 95.427, -61.0995, 40.2482
5.04, 5, 35.3453, 48.9859, -11.9611, 95.4236, -61.113, 40.2434
5.044, 5, 35.3442, 48.9877, -11.9582, 95.4201, -61.1265, 40.2385
5.048, 5, 35.3431, 48.9895, -11.9554, 95.4167, -61.14, 40.2337
5.052, 5, 35.342, 48.9913, -11.9525, 95.4133, -61.1535, 40.2288
5.056, 5, 35.3409, 48.9932, -11.9497, 95.4099, -61.1669, 40.224
5.06, 5, 35.3398, 48.995, -11.9468, 95.4065, -61.1804, 40.2192
5.064, 5, 35.3387, 48.9968, -11.944, 95.403, -61.1939, 40.2143
5.068, 5, 35.3376, 48.9986, -11.9411, 95.3996, -61.2074, 40.2095
5.072, 5, 35.3365, 49.0005, -11.9383, 95.3962, -61.2209, 40.2046
5.076, 5, 35.3354, 49.0023, -11.9354, 95.3928, -61.2343, 40.1998
5.08, 5, 35.3343, 49.0041, -11.9326, 95.3893, -61.2478, 40.195
5.084, 5, 35.3331, 49.006, -11.9297, 95.3859, -61.2613, 40.1901
5.088, 5, 35.332, 49.0078, -11.9269, 95.3825, -61.2748, 40.1853
5.092, 5, 35.3309, 49.0097, -11.924, 95.379, -61.2882, 40.1805
5.096, 5, 35.3298, 49.0115, -11.9212, 95.3756, -61.3017, 40.1756
5.1, 5, 35.3287, 49.0134, -11.9183, 95.3722, -61.3152, 40.1708
5.104, 5, 35.3276, 49.0152, -11.9155, 95.3687, -61.3287, 40.166
5.108, 5, 35.3264, 49.017, -11.9126, 95.3653, -61.3421, 40.1611
5.112, 5, 35.3253, 49.0189, -11.9098, 95.3619, -61.3556, 40.1563
5.116, 5, 35.3242, 49.0207, -11.907, 95.3584, -61.3691, 40.1515
5.12, 5, 35.3231, 49.0226, -11.9041, 95.355, -61.3826, 40.1467
5.124, 5, 35.322, 49.0245, -11.9013, 95.3515, -61.396, 40.1418
5.128, 5, 35.3208, 49.0263, -11.8984, 95.3481, -61.4095, 40.137
5.132, 5, 35.3197, 49.0282, -11.8956, 95.3447, -61.423, 40.1322
5.136, 5, 35.3186, 49.03, -11.8927, 95.3412, -61.4364, 40.1274
5.14, 5, 35.3175, 49.0319, -11.8899, 95.3378, -61.4499, 40.1226
5.144, 5, 35.3163, 49.0338, -11.8871, 95.3343, -61.4634, 40.1178
5.148, 5, 35.3152, 49.0356, -11.8842, 95.3309, -61.4769, 40.1129
5.152, 5, 35.3141, 49.0375, -11.8814, 95.3274, -61.4903, 40.1081
5.156, 5, 35.313, 49.0394, -11.8785, 95.324, -61.5038, 40.1033
5.16, 5, 35.3118, 49.0412, -11.8757, 95.3205, -61.5173, 40.0985
5.164, 5, 35.3107, 49.0431, -11.8729, 95.3171, -61.5307, 40.0937
5.168, 5, 35.3096, 49.045, -11.87, 95.3136, -61.5442, 40.0889
5.172, 5, 35.3084, 49.0468, -11.8672, 95.3102, -61.5577, 40.0841
5.176, 5, 35.3073, 49.0487, -11.8643, 95.3067, -61.5711, 40.0793
5.18, 5, 35.3062, 49.0506, -11.8615, 95.3032, -61.5846, 40.0745
5.184, 5, 35.305, 49.0525, -11.8587, 95.2998, -61.5981, 40.0697
5.188, 5, 35.3039, 49.0544, -11.8558, 95.2963, -61.6115, 40.0649
5.192, 5, 35.3028, 49.0562, -11.853, 95.2928, -61.625, 40.0601
5.196, 5, 35.3016, 49.0581, -11.8501, 95.2894, -61.6385, 40.0553
5.2, 5, 35.3005, 49.06, -11.8473, 95.2859, -61.6519, 40.0505
5.204, 5, 35.2994, 49.0619, -11.8445, 95.2824, -61.6654, 40.0457
5.208, 5, 35.2982, 49.0638, -11.8416, 95.279, -61.6788, 40.0409
5.212, 5, 35.2971, 49.0657, -11.8388, 95.2755, -61.6923, 40.0361
5.216, 5, 35.2959, 49.0676, -11.836, 95.272, -61.7058, 40.0313
5.22, 5, 35.2948, 49.0695, -11.8331, 95.2686, -61.7192, 40.0265
5.224, 5, 35.2936, 49.0714, -11.8303, 95.2651, -61.7327, 40.0217
5.228, 5, 35.2925, 49.0732, -11.8275, 95.2616, -61.7461, 40.017
5.232, 5, 35.2914, 49.0751, -11.8246, 95.2581, -61.7596, 40.0122
5.236, 5, 35.2902, 49.077, -11.8218, 95.2547, -61.7731, 40.0074
5.24, 5, 35.2891, 49.079, -11.819, 95.2512, -61.7865, 40.0026
5.244, 5, 35.2879, 49.0809, -11.8161, 95.2477, -61.8, 39.9978
5.248, 5, 35.2868, 49.0828, -11.8133, 95.2442, -61.8134, 39.993
5.252, 5, 35.2856, 49.0847, -11.8105, 95.2407, -61.8269, 39.9883
5.256, 5, 35.2845, 49.0866, -11.8077, 95.2373, -61.8403, 39.9835
5.26, 5, 35.2833, 49.0885, -11.8048, 95.2338, -61.8538, 39.9787
5.264, 5, 35.2822, 49.0904, -11.802, 95.2303, -61.8672, 39.9739
5.268, 5, 35.281, 49.0923, -11.7992, 95.2268, -61.8807, 39.9692
5.272, 5, 35.2798, 49.0942, -11.7963, 95.2233, -61.8941, 39.9644
5.276, 5, 35.2787, 49.0961, -11.7935, 95.2198, -61.9076, 39.9596
5.28, 5, 35.2775, 49.0981, -11.7907, 95.2163, -61.9211, 39.9548
5.284, 5, 35.2764, 49.1, -11.7879, 95.2128, -61.9345, 39.9501
5.288, 5, 35.2752, 49.1019, -11.785, 95.2094, -61.948, 39.9453
5.292, 5, 35.2741, 49.1038, -11.7822, 95.2058, -61.9614, 39.9405
5.296, 5, 35.2729, 49.1057, -11.7794, 95.2024, -61.9749, 39.9358
5.3, 5, 35.2717, 49.1077, -11.7765, 95.1989, -61.9883, 39.931
5.304, 5, 35.2706, 49.1096, -11.7737, 95.1954, -62.0018, 39.9263
5.308, 5, 35.2694, 49.1115, -11.7709, 95.1919, -62.0152, 39.9215
5.312, 5, 35.2682, 49.1135, -11.7681, 95.1884, -62.0287, 39.9167
5.316, 5, 35.2671, 49.1154, -11.7652, 95.1849, -62.0421, 39.912
5.32, 5, 35.2659, 49.1173, -11.7624, 95.1814, -62.0556, 39.9072
5.324, 5, 35.2647, 49.1193, -11.7596, 95.1778, -62.069, 39.9025
5.328, 5, 35.2636, 49.1212, -11.7568, 95.1743, -62.0824, 39.8977
5.332, 5, 35.2624, 49.1231, -11.754, 95.1708, -62.0959, 39.893
5.336, 5, 35.2612, 49.1251, -11.7511, 95.1673, -62.1093, 39.8882
5.34, 5, 35.2601, 49.127, -11.7483, 95.1638, -62.1228, 39.8835
5.344, 5, 35.2589, 49.129, -11.7455, 95.1603, -62.1362, 39.8787
5.348, 5, 35.2577, 49.1309, -11.7427, 95.1568, -62.1497, 39.874
5.352, 5, 35.2566, 49.1329, -11.7398, 95.1533, -62.1631, 39.8692
5.356, 5, 35.2554, 49.1348, -11.737, 95.1498, -62.1766, 39.8645
5.36, 5, 35.2542, 49.1368, -11.7342, 95.1463, -62.19, 39.8597
5.364, 5, 35.253, 49.1387, -11.7314, 95.1427, -62.2034, 39.855
5.368, 5, 35.2519, 49.1407, -11.7286, 95.1392, -62.2169, 39.8502
5.372, 5, 35.2507, 49.1426, -11.7257, 95.1357, -62.2303, 39.8455
5.376, 5, 35.2495, 49.1446, -11.7229, 95.1322, -62.2438, 39.8408
5.38, 5, 35.2483, 49.1465, -11.7201, 95.1287, -62.2572, 39.836
5.384, 5, 35.2471, 49.1485, -11.7173, 95.1251, -62.2706, 39.8313
5.388, 5, 35.246, 49.1505, -11.7145, 95.1216, -62.2841, 39.8265
5.392, 5, 35.2448, 49.1524, -11.7117, 95.1181, -62.2975, 39.8218
5.396, 5, 35.2436, 49.1544, -11.7088, 95.1146, -62.311, 39.8171
5.4, 5, 35.2424, 49.1563, -11.706, 95.111, -62.3244, 39.8124
5.404, 5, 35.2412, 49.1583, -11.7032, 95.1075, -62.3378, 39.8076
5.408, 5, 35.24, 49.1603, -11.7004, 95.104, -62.3513, 39.8029
5.412, 5, 35.2388, 49.1623, -11.6976, 95.1004, -62.3647, 39.7982
5.416, 5, 35.2377, 49.1642, -11.6948, 95.0969, -62.3781, 39.7934
5.42, 5, 35.2365, 49.1662, -11.692, 95.0934, -62.3916, 39.7887
5.424, 5, 35.2353, 49.1682, -11.6891, 95.0898, -62.405, 39.784
5.428, 5, 35.2341, 49.1702, -11.6863, 95.0863, -62.4184, 39.7793
5.432, 5, 35.2329, 49.1721, -11.6835, 95.0828, -62.4319, 39.7746
5.436, 5, 35.2317, 49.1741, -11.6807, 95.0792, -62.4453, 39.7698
5.44, 5, 35.2305, 49.1761, -11.6779, 95.0757, -62.4587, 39.7651
5.444, 5, 35.2293, 49.1781, -11.6751, 95.0722, -62.4722, 39.7604
5.448, 5, 35.2281, 49.1801, -11.6723, 95.0686, -62.4856, 39.7557
5.452, 5, 35.2269, 49.1821, -11.6695, 95.0651, -62.499, 39.751
5.456, 5, 35.2257, 49.184, -11.6666, 95.0615, -62.5124, 39.7463
5.46, 5, 35.2245, 49.186, -11.6638, 95.058, -62.5259, 39.7415
5.464, 5, 35.2233, 49.188, -11.661, 95.0544, -62.5393, 39.7368
5.468, 5, 35.2221, 49.19, -11.6582, 95.0509, -62.5527, 39.7321
5.472, 5, 35.2209, 49.192, -11.6554, 95.0473, -62.5662, 39.7274
5.476, 5, 35.2197, 49.194, -11.6526, 95.0438, -62.5796, 39.7227
5.48, 5, 35.2185, 49.196, -11.6498, 95.0402, -62.593, 39.718
5.484, 5, 35.2173, 49.198, -11.647, 95.0367, -62.6064, 39.7133
5.488, 5, 35.2161, 49.2, -11.6442, 95.0331, -62.6199, 39.7086
5.492, 5, 35.2149, 49.202, -11.6414, 95.0296, -62.6333, 39.7039
5.496, 5, 35.2137, 49.204, -11.6386, 95.026, -62.6467, 39.6992
5.5, 5, 35.2125, 49.206, -11.6357, 95.0225, -62.6601, 39.6945
5.504, 5, 35.2113, 49.208, -11.6329, 95.0189, -62.6736, 39.6898
5.508, 5, 35.2101, 49.21, -11.6301, 95.0153, -62.687, 39.6851
5.512, 5, 35.2089, 49.2121, -11.6273, 95.0118, -62.7004, 39.6804
5.516, 5, 35.2077, 49.2141, -11.6245, 95.0082, -62.7138, 39.6757
5.52, 5, 35.2064, 49.2161, -11.6217, 95.0047, -62.7272, 39.671
5.524, 5, 35.2052, 49.2181, -11.6189, 95.0011, -62.7407, 39.6663
5.528, 5, 35.204, 49.2201, -11.6161, 94.9975, -62.7541, 39.6616
5.532, 5, 35.2028, 49.2221, -11.6133, 94.994, -62.7675, 39.657
5.536, 5, 35.2016, 49.2242, -11.6105, 94.9904, -62.7809, 39.6523
5.54, 5, 35.2004, 49.2262, -11.6077, 94.9868, -62.7943, 39.6476
5.544, 5, 35.1992, 49.2282, -11.6049, 94.9832, -62.8078, 39.6429
5.548, 5, 35.1979, 49.2302, -11.6021, 94.9797, -62.8212, 39.6382
5.552, 5, 35.1967, 49.2323, -11.5993, 94.9761, -62.8346, 39.6335
5.556, 5, 35.1955, 49.2343, -11.5965, 94.9725, -62.848, 39.6288
5.56, 5, 35.1943, 49.2363, -11.5937, 94.969, -62.8614, 39.6242
5.564, 5, 35.1931, 49.2383, -11.5909, 94.9654, -62.8748, 39.6195
5.568, 5, 35.1918, 49.2404, -11.5881, 94.9618, -62.8883, 39.6148
5.572, 5, 35.1906, 49.2424, -11.5853, 94.9582, -62.9017, 39.6101
5.576, 5, 35.1894, 49.2445, -11.5825, 94.9546, -62.9151, 39.6055
5.58, 5, 35.1882, 49.2465, -11.5797, 94.951, -62.9285, 39.6008
5.584, 5, 35.1869, 49.2485, -11.5769, 94.9475, -62.9419, 39.5961
5.588, 5, 35.1857, 49.2506, -11.5741, 94.9439, -62.9553, 39.5914
5.592, 5, 35.1845, 49.2526, -11.5713, 94.9403, -62.9687, 39.5868
5.596, 5, 35.1832, 49.2547, -11.5685, 94.9367, -62.9822, 39.5821
5.6, 5, 35.182, 49.2567, -11.5657, 94.9331, -62.9956, 39.5774
5.604, 5, 35.1808, 49.2588, -11.5629, 94.9295, -63.009, 39.5728
5.608, 5, 35.1795, 49.2608, -11.5601, 94.926, -63.0224, 39.5681
5.612, 5, 35.1783, 49.2629, -11.5573, 94.9224, -63.0358, 39.5634
5.616, 5, 35.1771, 49.2649, -11.5545, 94.9188, -63.0492, 39.5588
5.62, 5, 35.1758, 49.267, -11.5517, 94.9152, -63.0626, 39.5541
5.624, 5, 35.1746, 49.269, -11.5489, 94.9116, -63.076, 39.5495
5.628, 5, 35.1734, 49.2711, -11.5461, 94.908, -63.0894, 39.5448
5.632, 5, 35.1721, 49.2731, -11.5434, 94.9044, -63.1028, 39.5401
5.636, 5, 35.1709, 49.2752, -11.5406, 94.9008, -63.1162, 39.5355
5.64, 5, 35.1697, 49.2773, -11.5378, 94.8972, -63.1296, 39.5308
5.644, 5, 35.1684, 49.2793, -11.535, 94.8936, -63.143, 39.5262
5.648, 5, 35.1672, 49.2814, -11.5322, 94.89, -63.1565, 39.5215
5.652, 5, 35.1659, 49.2835, -11.5294, 94.8864, -63.1699, 39.5169
5.656, 5, 35.1647, 49.2855, -11.5266, 94.8828, -63.1833, 39.5122
5.66, 5, 35.1634, 49.2876, -11.5238, 94.8792, -63.1967, 39.5076
5.664, 5, 35.1622, 49.2897, -11.521, 94.8756, -63.2101, 39.5029
5.668, 5, 35.1609, 49.2917, -11.5182, 94.872, -63.2235, 39.4983
5.672, 5, 35.1597, 49.2938, -11.5154, 94.8684, -63.2369, 39.4936
5.676, 5, 35.1585, 49.2959, -11.5126, 94.8647, -63.2503, 39.489
5.68, 5, 35.1572, 49.298, -11.5099, 94.8611, -63.2637, 39.4844
5.684, 5, 35.156, 49.3001, -11.5071, 94.8575, -63.2771, 39.4797
5.688, 5, 35.1547, 49.3021, -11.5043, 94.8539, -63.2905, 39.4751
5.692, 5, 35.1535, 49.3042, -11.5015, 94.8503, -63.3039, 39.4704
5.696, 5, 35.1522, 49.3063, -11.4987, 94.8467, -63.3173, 39.4658
5.7, 5, 35.1509, 49.3084, -11.4959, 94.8431, -63.3307, 39.4612
5.704, 5, 35.1497, 49.3105, -11.4931, 94.8394, -63.3441, 39.4565
5.708, 5, 35.1484, 49.3126, -11.4903, 94.8358, -63.3575, 39.4519
5.712, 5, 35.1472, 49.3147, -11.4875, 94.8322, -63.3709, 39.4473
5.716, 5, 35.1459, 49.3168, -11.4848, 94.8286, -63.3843, 39.4426
5.72, 5, 35.1447, 49.3189, -11.482, 94.825, -63.3976, 39.438
5.724, 5, 35.1434, 49.3209, -11.4792, 94.8213, -63.411, 39.4334
5.728, 5, 35.1421, 49.323, -11.4764, 94.8177, -63.4244, 39.4287
5.732, 5, 35.1409, 49.3251, -11.4736, 94.8141, -63.4378, 39.4241
5.736, 5, 35.1396, 49.3272, -11.4708, 94.8105, -63.4512, 39.4195
5.74, 5, 35.1383, 49.3293, -11.4681, 94.8068, -63.4646, 39.4149
5.744, 5, 35.1371, 49.3315, -11.4653, 94.8032, -63.478, 39.4102
5.748, 5, 35.1358, 49.3336, -11.4625, 94.7996, -63.4914, 39.4056
5.752, 5, 35.1346, 49.3357, -11.4597, 94.7959, -63.5048, 39.401
5.756, 5, 35.1333, 49.3378, -11.4569, 94.7923, -63.5182, 39.3964
5.76, 5, 35.132, 49.3399, -11.4541, 94.7887, -63.5316, 39.3918
5.764, 5, 35.1307, 49.342, -11.4514, 94.785, -63.545, 39.3871
5.768, 5, 35.1295, 49.3441, -11.4486, 94.7814, -63.5583, 39.3825
5.772, 5, 35.1282, 49.3462, -11.4458, 94.7778, -63.5717, 39.3779
5.776, 5, 35.1269, 49.3483, -11.443, 94.7741, -63.5851, 39.3733
5.78, 5, 35.1257, 49.3505, -11.4402, 94.7705, -63.5985, 39.3687
5.784, 5, 35.1244, 49.3526, -11.4375, 94.7668, -63.6119, 39.3641
5.788, 5, 35.1231, 49.3547, -11.4347, 94.7632, -63.6253, 39.3595
5.792, 5, 35.1218, 49.3568, -11.4319, 94.7596, -63.6387, 39.3549
5.796, 5, 35.1206, 49.359, -11.4291, 94.7559, -63.6521, 39.3503
5.8, 5, 35.1193, 49.3611, -11.4263, 94.7523, -63.6654, 39.3456
5.804, 5, 35.118, 49.3632, -11.4236, 94.7486, -63.6788, 39.341
5.808, 5, 35.1167, 49.3653, -11.4208, 94.745, -63.6922, 39.3364
5.812, 5, 35.1154, 49.3675, -11.418, 94.7413, -63.7056, 39.3318
5.816, 5, 35.1142, 49.3696, -11.4152, 94.7377, -63.719, 39.3272
5.82, 5, 35.1129, 49.3717, -11.4125, 94.734, -63.7324, 39.3226
5.824, 5, 35.1116, 49.3739, -11.4097, 94.7304, -63.7457, 39.318
5.828, 5, 35.1103, 49.376, -11.4069, 94.7267, -63.7591, 39.3134
5.832, 5, 35.109, 49.3781, -11.4041, 94.7231, -63.7725, 39.3088
5.836, 5, 35.1077, 49.3803, -11.4014, 94.7194, -63.7859, 39.3042
5.84, 5, 35.1064, 49.3824, -11.3986, 94.7158, -63.7993, 39.2997
5.844, 5, 35.1052, 49.3846, -11.3958, 94.7121, -63.8126, 39.2951
5.848, 5, 35.1039, 49.3867, -11.393, 94.7084, -63.826, 39.2905
5.852, 5, 35.1026, 49.3889, -11.3903, 94.7048, -63.8394, 39.2859
5.856, 5, 35.1013, 49.391, -11.3875, 94.7011, -63.8528, 39.2813
5.86, 5, 35.1, 49.3932, -11.3847, 94.6974, -63.8662, 39.2767
5.864, 5, 35.0987, 49.3953, -11.3819, 94.6938, -63.8795, 39.2721
5.868, 5, 35.0974, 49.3975, -11.3792, 94.6901, -63.8929, 39.2675
5.872, 5, 35.0961, 49.3996, -11.3764, 94.6865, -63.9063, 39.2629
5.876, 5, 35.0948, 49.4018, -11.3736, 94.6828, -63.9197, 39.2584
5.88, 5, 35.0935, 49.4039, -11.3709, 94.6791, -63.933, 39.2538
5.884, 5, 35.0922, 49.4061, -11.3681, 94.6755, -63.9464, 39.2492
5.888, 5, 35.0909, 49.4082, -11.3653, 94.6718, -63.9598, 39.2446
5.892, 5, 35.0896, 49.4104, -11.3625, 94.6681, -63.9732, 39.24
5.896, 5, 35.0883, 49.4126, -11.3598, 94.6644, -63.9865, 39.2355
5.9, 5, 35.087, 49.4147, -11.357, 94.6608, -63.9999, 39.2309
5.904, 5, 35.0857, 49.4169, -11.3542, 94.6571, -64.0133, 39.2263
5.908, 5, 35.0844, 49.4191, -11.3515, 94.6534, -64.0267, 39.2217
5.912, 5, 35.0831, 49.4212, -11.3487, 94.6497, -64.04, 39.2172
5.916, 5, 35.0818, 49.4234, -11.3459, 94.6461, -64.0534, 39.2126
5.92, 5, 35.0805, 49.4256, -11.3432, 94.6424, -64.0668, 39.208
5.924, 5, 35.0792, 49.4278, -11.3404, 94.6387, -64.0801, 39.2035
5.928, 5, 35.0779, 49.4299, -11.3376, 94.635, -64.0935, 39.1989
5.932, 5, 35.0766, 49.4321, -11.3349, 94.6313, -64.1069, 39.1943
5.936, 5, 35.0753, 49.4343, -11.3321, 94.6276, -64.1202, 39.1898
5.94, 5, 35.074, 49.4365, -11.3293, 94.624, -64.1336, 39.1852
5.944, 5, 35.0727, 49.4387, -11.3266, 94.6203, -64.147, 39.1806
5.948, 5, 35.0713, 49.4408, -11.3238, 94.6166, -64.1603, 39.1761
5.952, 5, 35.07, 49.443, -11.321, 94.6129, -64.1737, 39.1715
5.956, 5, 35.0687, 49.4452, -11.3183, 94.6092, -64.1871, 39.167
5.96, 5, 35.0674, 49.4474, -11.3155, 94.6055, -64.2004, 39.1624
5.964, 5, 35.0661, 49.4496, -11.3128, 94.6018, -64.2138, 39.1578
5.968, 5, 35.0648, 49.4518, -11.31, 94.5981, -64.2272, 39.1533
5.972, 5, 35.0634, 49.454, -11.3072, 94.5944, -64.2405, 39.1487
5.976, 5, 35.0621, 49.4562, -11.3045, 94.5907, -64.2539, 39.1442
5.98, 5, 35.0608, 49.4584, -11.3017, 94.587, -64.2673, 39.1396
5.984, 5, 35.0595, 49.4606, -11.2989, 94.5833, -64.2806, 39.1351
5.988, 5, 35.0582, 49.4628, -11.2962, 94.5796, -64.294, 39.1305
5.992, 5, 35.0568, 49.465, -11.2934, 94.5759, -64.3073, 39.126
5.996, 5, 35.0555, 49.4672, -11.2907, 94.5722, -64.3207, 39.1214
6, 5, 35.0542, 49.4694, -11.2879, 94.5686, -64.3341, 39.1169
6.004, 5, 35.0529, 49.4716, -11.2851, 94.5648, -64.3474, 39.1123
6.008, 5, 35.0515, 49.4738, -11.2824, 94.5611, -64.3608, 39.1078
6.012, 5, 35.0502, 49.476, -11.2796, 94.5574, -64.3741, 39.1033
6.016, 5, 35.0489, 49.4782, -11.2769, 94.5537, -64.3875, 39.0987
6.02, 5, 35.0475, 49.4804, -11.2741, 94.55, -64.4009, 39.0942
6.024, 5, 35.0462, 49.4827, -11.2714, 94.5463, -64.4142, 39.0896
6.028, 5, 35.0449, 49.4849, -11.2686, 94.5426, -64.4276, 39.0851
6.032, 5, 35.0435, 49.4871, -11.2658, 94.5389, -64.4409, 39.0806
6.036, 5, 35.0422, 49.4893, -11.2631, 94.5352, -64.4543, 39.076
6.04, 5, 35.0409, 49.4915, -11.2603, 94.5315, -64.4676, 39.0715
6.044, 5, 35.0395, 49.4937, -11.2576, 94.5277, -64.481, 39.067
6.048, 5, 35.0382, 49.496, -11.2548, 94.524, -64.4943, 39.0624
