hehonglu123/ABB_Primitive_Study/execution/movel_smooth/curve_exe_v300_fine.csv
timestamp, cmd_num, J1, J2, J3, J4, J5, J6
0, -1, -17.7491, 35.9016, 27.5363, -15.3564, -94.4966, 7.85923
0.002, -1, -17.7491, 35.9016, 27.5363, -15.3564, -94.4966, 7.85923
0.006, -1, -17.7491, 35.9016, 27.5363, -15.3564, -94.4966, 7.85923
0.008, -1, -17.7491, 35.9016, 27.5363, -15.3564, -94.4966, 7.85923
0.011, -1, -17.7491, 35.9016, 27.5363, -15.3564, -94.4966, 7.85923
0.016, -1, -17.7491, 35.9016, 27.5363, -15.3564, -94.4966, 7.85923
0.02, -1, -17.7491, 35.9016, 27.5363, -15.3564, -94.4966, 7.85923
0.024, -1, -17.7491, 35.9016, 27.5363, -15.3564, -94.4966, 7.85923
0.028, -1, -17.7491, 35.9016, 27.5363, -15.3564, -94.4966, 7.85923
0.032, -1, -17.7491, 35.9016, 27.5363, -15.3564, -94.4966, 7.85923
0.036, -1, -17.749, 35.9016, 27.5363, -15.3564, -94.4966, 7.85923
0.04, -1, -17.7488, 35.9015, 27.5363, -15.3564, -94.4966, 7.85922
0.044, -1, -17.7482, 35.9013, 27.5363, -15.3564, -94.4966, 7.85921
0.048, -1, -17.7471, 35.9008, 27.5364, -15.3563, -94.4965, 7.85915
0.052, -1, -17.7453, 35.9, 27.5365, -15.3562, -94.4963, 7.85903
0.056, -1, -17.7428, 35.8988, 27.5367, -15.3558, -94.4958, 7.85875
0.06, -1, -17.7394, 35.8971, 27.5369, -15.3551, -94.4949, 7.85824
0.064, -1, -17.7351, 35.8948, 27.5372, -15.3539, -94.4934, 7.85735
0.068, -1, -17.7298, 35.892, 27.5374, -15.3519, -94.491, 7.85592
0.072, -1, -17.7233, 35.8884, 27.5377, -15.3489, -94.4872, 7.85373
0.076, -1, -17.7153, 35.884, 27.5379, -15.3445, -94.4817, 7.85055
0.08, -1, -17.7057, 35.8785, 27.5381, -15.3382, -94.474, 7.84608
0.084, -1, -17.6941, 35.8719, 27.5381, -15.3297, -94.4634, 7.83999
0.088, -1, -17.6802, 35.864, 27.538, -15.3184, -94.4494, 7.83193
0.092, -1, -17.6638, 35.8547, 27.5377, -15.3037, -94.4314, 7.82151
0.096, -1, -17.6449, 35.8439, 27.537, -15.2851, -94.4084, 7.80831
0.1, -1, -17.6232, 35.8316, 27.5359, -15.262, -94.3799, 7.79193
0.104, -1, -17.5984, 35.8175, 27.5344, -15.2337, -94.3452, 7.77197
0.108, -1, -17.5704, 35.8016, 27.5323, -15.1999, -94.3035, 7.74804
0.112, -1, -17.5389, 35.7838, 27.5296, -15.1599, -94.2544, 7.71981
0.116, -1, -17.504, 35.764, 27.5263, -15.1134, -94.1971, 7.68696
0.12, -1, -17.4656, 35.7423, 27.5223, -15.0599, -94.1314, 7.64925
0.124, -1, -17.4237, 35.7187, 27.5174, -14.9992, -94.0569, 7.60649
0.128, -1, -17.3785, 35.6931, 27.5118, -14.9313, -93.9734, 7.5586
0.131, -1, -17.3299, 35.6657, 27.5054, -14.856, -93.8809, 7.50556
0.136, -1, -17.2779, 35.6365, 27.4982, -14.7734, -93.7795, 7.44747
0.139, -1, -17.2225, 35.6054, 27.4903, -14.684, -93.6697, 7.38449
0.144, -1, -17.1638, 35.5724, 27.4817, -14.588, -93.5517, 7.3169
0.148, -1, -17.1017, 35.5375, 27.4724, -14.4858, -93.4263, 7.245
0.152, -1, -17.0365, 35.5009, 27.4626, -14.378, -93.2939, 7.16916
0.156, -1, -16.9683, 35.4626, 27.4524, -14.2653, -93.1554, 7.08978
0.16, -1, -16.8974, 35.4228, 27.4417, -14.1481, -93.0115, 7.0073
0.164, -1, -16.8239, 35.3815, 27.4308, -14.027, -92.8629, 6.92213
0.168, -1, -16.7481, 35.3389, 27.4196, -13.9028, -92.7103, 6.8347
0.172, -1, -16.6699, 35.2949, 27.4082, -13.776, -92.5546, 6.74543
0.176, -1, -16.5897, 35.2497, 27.3968, -13.6471, -92.3962, 6.65467
0.18, -1, -16.5077, 35.2034, 27.3854, -13.5166, -92.2358, 6.56273
0.184, -1, -16.424, 35.1561, 27.3739, -13.3847, -92.0739, 6.46989
0.188, -1, -16.3388, 35.1081, 27.3625, -13.2519, -91.9107, 6.37635
0.192, -1, -16.2526, 35.0593, 27.3511, -13.1184, -91.7466, 6.28227
0.196, -1, -16.1654, 35.0101, 27.3397, -12.9842, -91.5818, 6.18779
0.2, -1, -16.0774, 34.9604, 27.3284, -12.8497, -91.4165, 6.09298
0.204, -1, -15.9889, 34.9105, 27.317, -12.7147, -91.2507, 5.99793
0.208, -1, -15.8998, 34.8603, 27.3056, -12.5795, -91.0846, 5.90267
0.212, -1, -15.8104, 34.8099, 27.2943, -12.4441, -90.9181, 5.80723
0.216, -1, -15.7206, 34.7594, 27.2829, -12.3084, -90.7514, 5.71165
0.22, -1, -15.6306, 34.7087, 27.2715, -12.1726, -90.5845, 5.61595
0.224, -1, -15.5405, 34.658, 27.2601, -12.0366, -90.4174, 5.52012
0.228, -1, -15.4502, 34.6071, 27.2487, -11.9004, -90.2501, 5.42418
0.232, -1, -15.3598, 34.5563, 27.2373, -11.7641, -90.0826, 5.32814
0.236, -1, -15.2692, 34.5053, 27.2259, -11.6277, -89.9149, 5.23201
0.24, -1, -15.1786, 34.4543, 27.2145, -11.4911, -89.7471, 5.13578
0.244, -1, -15.0879, 34.4033, 27.2031, -11.3544, -89.5792, 5.03946
0.248, -1, -14.997, 34.3521, 27.1916, -11.2176, -89.411, 4.94306
0.252, -1, -14.9061, 34.301, 27.1802, -11.0806, -89.2428, 4.84657
0.256, -1, -14.8152, 34.2498, 27.1687, -10.9436, -89.0744, 4.75
0.26, -1, -14.7241, 34.1986, 27.1573, -10.8064, -88.9058, 4.65336
0.264, -1, -14.633, 34.1473, 27.1458, -10.6691, -88.7371, 4.55664
0.268, -1, -14.5418, 34.096, 27.1343, -10.5318, -88.5683, 4.45985
0.272, -1, -14.4505, 34.0446, 27.1228, -10.3943, -88.3994, 4.36298
0.276, -1, -14.3592, 33.9932, 27.1113, -10.2567, -88.2304, 4.26605
0.28, -1, -14.2678, 33.9418, 27.0998, -10.119, -88.0612, 4.16905
0.284, -1, -14.1763, 33.8904, 27.0883, -9.98128, -87.8919, 4.07199
0.288, -1, -14.0848, 33.8389, 27.0768, -9.84344, -87.7226, 3.97487
0.292, -1, -13.9933, 33.7873, 27.0652, -9.70552, -87.5531, 3.8777
0.296, -1, -13.9017, 33.7358, 27.0537, -9.56751, -87.3835, 3.78046
0.3, -1, -13.81, 33.6842, 27.0422, -9.42944, -87.2139, 3.68317
0.304, -1, -13.7183, 33.6326, 27.0306, -9.29129, -87.0441, 3.58584
0.308, -1, -13.6265, 33.581, 27.0191, -9.15307, -86.8743, 3.48845
0.312, -1, -13.5347, 33.5293, 27.0075, -9.01478, -86.7043, 3.39102
0.316, -1, -13.4429, 33.4776, 26.9959, -8.87644, -86.5343, 3.29354
0.32, -1, -13.351, 33.4259, 26.9844, -8.73803, -86.3643, 3.19602
0.324, -1, -13.2591, 33.3742, 26.9728, -8.59957, -86.1941, 3.09847
0.328, -1, -13.1672, 33.3225, 26.9612, -8.46107, -86.0239, 3.00088
0.332, -1, -13.0752, 33.2707, 26.9496, -8.32251, -85.8537, 2.90325
0.336, -1, -12.9832, 33.219, 26.938, -8.18391, -85.6834, 2.8056
0.34, -1, -12.8912, 33.1672, 26.9264, -8.04527, -85.513, 2.70792
0.344, -1, -12.7991, 33.1154, 26.9148, -7.9066, -85.3426, 2.61021
0.348, -1, -12.7071, 33.0636, 26.9032, -7.7679, -85.1722, 2.51248
0.352, -1, -12.615, 33.0118, 26.8916, -7.62917, -85.0017, 2.41474
0.356, -1, -12.5229, 32.9599, 26.88, -7.49042, -84.8312, 2.31698
0.36, -1, -12.4308, 32.9081, 26.8684, -7.35165, -84.6607, 2.2192
0.364, -1, -12.3387, 32.8563, 26.8568, -7.21286, -84.4902, 2.12142
0.368, -1, -12.2466, 32.8044, 26.8452, -7.07407, -84.3197, 2.02362
0.372, -1, -12.1545, 32.7526, 26.8336, -6.93527, -84.1491, 1.92583
0.376, -1, -12.0623, 32.7007, 26.822, -6.79647, -83.9786, 1.82803
0.38, -1, -11.9702, 32.6489, 26.8104, -6.65767, -83.808, 1.73024
0.384, -1, -11.8781, 32.5971, 26.7988, -6.51889, -83.6375, 1.63245
0.388, -1, -11.786, 32.5452, 26.7872, -6.38011, -83.4669, 1.53467
0.392, -1, -11.6939, 32.4934, 26.7756, -6.24135, -83.2964, 1.4369
0.396, -1, -11.6018, 32.4416, 26.764, -6.10261, -83.126, 1.33915
0.4, -1, -11.5097, 32.3898, 26.7524, -5.96389, -82.9555, 1.24141
0.404, -1, -11.4177, 32.338, 26.7408, -5.8252, -82.7851, 1.14369
0.408, -1, -11.3256, 32.2862, 26.7292, -5.68655, -82.6147, 1.046
0.412, -1, -11.2336, 32.2344, 26.7176, -5.54793, -82.4444, 0.948334
0.416, -1, -11.1416, 32.1826, 26.706, -5.40936, -82.2741, 0.850697
0.42, -1, -11.0497, 32.1309, 26.6945, -5.27083, -82.1039, 0.753093
0.424, -1, -10.9577, 32.0792, 26.6829, -5.13235, -81.9337, 0.655523
0.428, -1, -10.8658, 32.0275, 26.6713, -4.99393, -81.7636, 0.557993
0.432, -1, -10.774, 31.9758, 26.6597, -4.85556, -81.5936, 0.460503
0.436, -1, -10.6822, 31.9241, 26.6482, -4.71726, -81.4237, 0.363058
0.44, -1, -10.5904, 31.8725, 26.6366, -4.57903, -81.2538, 0.26566
0.444, -1, -10.4986, 31.8209, 26.625, -4.44086, -81.0841, 0.168312
0.448, -1, -10.4069, 31.7693, 26.6135, -4.30277, -80.9144, 0.0710176
0.452, -1, -10.3153, 31.7178, 26.602, -4.16477, -80.7448, -0.0262211
0.456, -1, -10.2237, 31.6662, 26.5904, -4.02684, -80.5753, -0.123401
0.46, -1, -10.1322, 31.6148, 26.5789, -3.889, -80.406, -0.220519
0.464, -1, -10.0407, 31.5633, 26.5674, -3.75126, -80.2367, -0.317573
0.468, -1, -9.9493, 31.5119, 26.5559, -3.61361, -80.0676, -0.41456
0.472, -1, -9.85796, 31.4605, 26.5444, -3.47605, -79.8985, -0.511477
0.476, -1, -9.76668, 31.4092, 26.5329, -3.3386, -79.7296, -0.60832
0.48, -1, -9.67548, 31.3579, 26.5214, -3.20126, -79.5609, -0.705089
0.484, -1, -9.58434, 31.3066, 26.5099, -3.06403, -79.3923, -0.801779
0.488, -1, -9.49329, 31.2554, 26.4984, -2.92692, -79.2238, -0.898388
0.492, -1, -9.4023, 31.2042, 26.487, -2.78992, -79.0554, -0.994913
0.496, -1, -9.31141, 31.1531, 26.4755, -2.65305, -78.8872, -1.09135
0.5, -1, -9.22059, 31.102, 26.4641, -2.5163, -78.7192, -1.1877
0.504, -1, -9.12986, 31.051, 26.4527, -2.37968, -78.5513, -1.28396
0.508, -1, -9.03921, 31, 26.4413, -2.2432, -78.3836, -1.38013
0.512, -1, -8.94865, 30.9491, 26.4299, -2.10685, -78.2161, -1.47619
0.516, -1, -8.85819, 30.8982, 26.4185, -1.97064, -78.0487, -1.57216
0.52, -1, -8.76782, 30.8474, 26.4071, -1.83458, -77.8815, -1.66803
0.524, -1, -8.67755, 30.7966, 26.3957, -1.69867, -77.7145, -1.7638
0.528, -1, -8.58737, 30.7459, 26.3844, -1.5629, -77.5477, -1.85945
0.532, -1, -8.4973, 30.6952, 26.373, -1.42729, -77.3811, -1.955
0.536, -1, -8.40733, 30.6446, 26.3617, -1.29183, -77.2146, -2.05044
0.54, -1, -8.31746, 30.5941, 26.3504, -1.15654, -77.0484, -2.14577
0.544, -1, -8.22771, 30.5436, 26.3391, -1.02141, -76.8823, -2.24098
0.548, -1, -8.13806, 30.4932, 26.3278, -0.886442, -76.7165, -2.33608
0.552, -1, -8.04852, 30.4428, 26.3165, -0.751646, -76.5509, -2.43105
0.556, -1, -7.9591, 30.3925, 26.3053, -0.617022, -76.3854, -2.5259
0.56, -1, -7.86979, 30.3423, 26.294, -0.482572, -76.2202, -2.62064
0.564, -1, -7.7806, 30.2921, 26.2828, -0.348301, -76.0552, -2.71524
0.568, -1, -7.69153, 30.2421, 26.2716, -0.21421, -75.8905, -2.80972
0.572, -1, -7.60258, 30.192, 26.2604, -0.0803022, -75.7259, -2.90407
0.576, -1, -7.51375, 30.1421, 26.2492, 0.0534192, -75.5616, -2.99829
0.58, -1, -7.42505, 30.0922, 26.2381, 0.186952, -75.3975, -3.09237
0.584, -1, -7.33647, 30.0424, 26.2269, 0.320293, -75.2337, -3.18632
0.588, -1, -7.24802, 29.9926, 26.2158, 0.45344, -75.0701, -3.28014
0.592, -1, -7.1597, 29.943, 26.2047, 0.58639, -74.9067, -3.37381
0.596, -1, -7.07152, 29.8934, 26.1936, 0.719142, -74.7436, -3.46735
0.6, -1, -6.98346, 29.8438, 26.1825, 0.851691, -74.5807, -3.56074
0.604, -1, -6.89554, 29.7944, 26.1714, 0.984037, -74.4181, -3.65399
0.608, -1, -6.80776, 29.745, 26.1604, 1.11618, -74.2557, -3.74709
0.612, -1, -6.72011, 29.6957, 26.1493, 1.24811, -74.0936, -3.84005
0.616, -1, -6.63261, 29.6465, 26.1383, 1.37983, -73.9318, -3.93285
0.62, -1, -6.54524, 29.5974, 26.1273, 1.51133, -73.7702, -4.02551
0.624, -1, -6.45802, 29.5484, 26.1163, 1.64262, -73.6089, -4.11802
0.628, -1, -6.37094, 29.4994, 26.1054, 1.7737, -73.4478, -4.21037
0.632, -1, -6.28401, 29.4505, 26.0944, 1.90455, -73.287, -4.30257
0.636, -1, -6.19722, 29.4017, 26.0835, 2.03518, -73.1265, -4.39461
0.64, -1, -6.11058, 29.353, 26.0726, 2.16559, -72.9663, -4.48649
0.644, -1, -6.02409, 29.3043, 26.0617, 2.29577, -72.8063, -4.57822
0.648, -1, -5.93775, 29.2558, 26.0509, 2.42572, -72.6466, -4.66978
0.652, -1, -5.85156, 29.2073, 26.04, 2.55545, -72.4872, -4.76118
0.656, -1, -5.76553, 29.1589, 26.0292, 2.68494, -72.3281, -4.85242
0.66, -1, -5.67965, 29.1106, 26.0184, 2.8142, -72.1693, -4.94349
0.664, -1, -5.59392, 29.0624, 26.0076, 2.94322, -72.0107, -5.0344
0.668, -1, -5.50836, 29.0143, 25.9968, 3.07201, -71.8525, -5.12514
0.672, -1, -5.42294, 28.9663, 25.9861, 3.20056, -71.6945, -5.21572
0.676, -1, -5.33769, 28.9183, 25.9753, 3.32887, -71.5368, -5.30612
0.68, -1, -5.2526, 28.8705, 25.9646, 3.45693, -71.3795, -5.39636
0.684, -1, -5.16767, 28.8227, 25.954, 3.58476, -71.2224, -5.48642
0.688, -1, -5.0829, 28.7751, 25.9433, 3.71233, -71.0657, -5.57631
0.692, -1, -4.9983, 28.7275, 25.9326, 3.83967, -70.9092, -5.66602
0.696, -1, -4.91386, 28.68, 25.922, 3.96675, -70.753, -5.75557
0.7, -1, -4.82958, 28.6326, 25.9114, 4.09359, -70.5972, -5.84493
0.704, -1, -4.74547, 28.5853, 25.9008, 4.22017, -70.4416, -5.93412
0.708, -1, -4.66153, 28.5381, 25.8903, 4.3465, -70.2864, -6.02313
0.712, -1, -4.57775, 28.491, 25.8797, 4.47258, -70.1315, -6.11197
0.716, -1, -4.49414, 28.444, 25.8692, 4.59841, -69.9769, -6.20062
0.72, -1, -4.4107, 28.3971, 25.8587, 4.72398, -69.8226, -6.2891
0.724, -1, -4.32743, 28.3502, 25.8482, 4.84929, -69.6686, -6.37739
0.728, -1, -4.24433, 28.3035, 25.8378, 4.97435, -69.5149, -6.4655
0.732, -1, -4.1614, 28.2569, 25.8273, 5.09914, -69.3616, -6.55343
0.736, -1, -4.07864, 28.2104, 25.8169, 5.22368, -69.2086, -6.64118
0.74, -1, -3.99605, 28.1639, 25.8065, 5.34796, -69.0559, -6.72874
0.744, -1, -3.91363, 28.1176, 25.7962, 5.47197, -68.9035, -6.81612
0.748, -1, -3.83139, 28.0713, 25.7858, 5.59573, -68.7514, -6.90332
0.752, -1, -3.74932, 28.0252, 25.7755, 5.71922, -68.5997, -6.99033
0.756, -1, -3.66742, 27.9791, 25.7652, 5.84245, -68.4482, -7.07716
0.76, -1, -3.58569, 27.9332, 25.7549, 5.96542, -68.2971, -7.1638
0.764, -1, -3.50414, 27.8873, 25.7447, 6.08812, -68.1464, -7.25026
0.768, -1, -3.42277, 27.8416, 25.7344, 6.21056, -67.9959, -7.33653
0.772, -1, -3.34156, 27.7959, 25.7242, 6.33274, -67.8458, -7.42261
0.776, -1, -3.26053, 27.7503, 25.714, 6.45465, -67.696, -7.50851
0.78, -1, -3.17968, 27.7049, 25.7038, 6.57631, -67.5465, -7.59423
0.784, -1, -3.099, 27.6595, 25.6937, 6.69769, -67.3973, -7.67975
0.788, -1, -3.0185, 27.6143, 25.6836, 6.81882, -67.2485, -7.7651
0.792, -1, -2.93816, 27.5691, 25.6735, 6.93968, -67.1, -7.85026
0.796, -1, -2.85801, 27.524, 25.6634, 7.06028, -66.9518, -7.93523
0.8, -1, -2.77803, 27.479, 25.6533, 7.18061, -66.8039, -8.02001
0.804, -1, -2.69822, 27.4342, 25.6433, 7.30068, -66.6564, -8.10461
0.808, -1, -2.61859, 27.3894, 25.6333, 7.42049, -66.5092, -8.18903
0.812, -1, -2.53913, 27.3447, 25.6233, 7.54004, -66.3623, -8.27326
0.816, -1, -2.45984, 27.3001, 25.6133, 7.65932, -66.2157, -8.35731
0.82, -1, -2.38073, 27.2557, 25.6034, 7.77834, -66.0695, -8.44117
0.824, -1, -2.3018, 27.2113, 25.5934, 7.8971, -65.9235, -8.52484
0.828, -1, -2.22303, 27.167, 25.5835, 8.0156, -65.7779, -8.60833
0.832, -1, -2.14444, 27.1228, 25.5736, 8.13383, -65.6327, -8.69164
0.836, -1, -2.06603, 27.0787, 25.5638, 8.25181, -65.4877, -8.77477
0.84, -1, -1.98779, 27.0347, 25.5539, 8.36952, -65.343, -8.8577
0.844, -1, -1.90972, 26.9908, 25.5441, 8.48697, -65.1987, -8.94046
0.848, -1, -1.83182, 26.947, 25.5343, 8.60416, -65.0547, -9.02303
0.852, -1, -1.7541, 26.9033, 25.5246, 8.7211, -64.911, -9.10542
0.856, -1, -1.67655, 26.8597, 25.5148, 8.83777, -64.7677, -9.18763
0.86, -1, -1.59917, 26.8162, 25.5051, 8.95418, -64.6246, -9.26965
0.864, -1, -1.52196, 26.7728, 25.4954, 9.07033, -64.4819, -9.35149
0.868, -1, -1.44493, 26.7295, 25.4857, 9.18623, -64.3395, -9.43315
0.872, -1, -1.36806, 26.6863, 25.476, 9.30186, -64.1974, -9.51462
0.876, -1, -1.29137, 26.6432, 25.4664, 9.41724, -64.0556, -9.59592
0.88, -1, -1.21485, 26.6001, 25.4567, 9.53236, -63.9142, -9.67703
0.884, -1, -1.1385, 26.5572, 25.4471, 9.64723, -63.773, -9.75796
0.888, -1, -1.06232, 26.5144, 25.4376, 9.76183, -63.6322, -9.83871
0.892, -1, -0.986311, 26.4716, 25.428, 9.87618, -63.4917, -9.91928
0.896, -1, -0.910471, 26.429, 25.4185, 9.99028, -63.3515, -9.99967
0.9, -1, -0.8348, 26.3864, 25.409, 10.1041, -63.2116, -10.0799
0.904, -1, -0.759299, 26.344, 25.3995, 10.2177, -63.0721, -10.1599
0.908, -1, -0.683967, 26.3016, 25.39, 10.331, -62.9328, -10.2398
0.912, -1, -0.608804, 26.2594, 25.3805, 10.4441, -62.7939, -10.3194
0.916, -1, -0.533808, 26.2172, 25.3711, 10.5569, -62.6552, -10.3989
0.92, -1, -0.458981, 26.1751, 25.3617, 10.6695, -62.5169, -10.4782
0.924, -1, -0.384322, 26.1332, 25.3523, 10.7818, -62.3789, -10.5574
0.928, -1, -0.30983, 26.0913, 25.3429, 10.8939, -62.2412, -10.6363
0.932, -1, -0.235505, 26.0495, 25.3336, 11.0057, -62.1038, -10.7151
0.936, -1, -0.161347, 26.0078, 25.3243, 11.1173, -61.9667, -10.7937
0.94, -1, -0.0873549, 25.9662, 25.315, 11.2286, -61.8299, -10.8722
0.944, -1, -0.013529, 25.9247, 25.3057, 11.3396, -61.6935, -10.9504
0.948, -1, 0.0601312, 25.8833, 25.2964, 11.4504, -61.5573, -11.0285
0.952, -1, 0.133626, 25.8419, 25.2872, 11.561, -61.4215, -11.1064
0.956, -1, 0.206956, 25.8007, 25.278, 11.6713, -61.2859, -11.1841
0.96, -1, 0.280122, 25.7596, 25.2688, 11.7814, -61.1507, -11.2617
0.964, -1, 0.353123, 25.7185, 25.2596, 11.8912, -61.0157, -11.339
0.968, -1, 0.42596, 25.6776, 25.2504, 12.0008, -60.8811, -11.4162
0.972, -1, 0.498634, 25.6367, 25.2413, 12.1101, -60.7467, -11.4933
0.976, -1, 0.571145, 25.5959, 25.2322, 12.2192, -60.6127, -11.5701
0.98, -1, 0.643494, 25.5553, 25.2231, 12.328, -60.479, -11.6468
0.984, -1, 0.71568, 25.5147, 25.214, 12.4366, -60.3455, -11.7233
0.988, -1, 0.787704, 25.4742, 25.2049, 12.545, -60.2124, -11.7997
0.992, -1, 0.859567, 25.4338, 25.1959, 12.6531, -60.0796, -11.8758
0.996, -1, 0.931268, 25.3935, 25.1869, 12.7609, -59.947, -11.9518
1, -1, 1.00281, 25.3532, 25.1779, 12.8686, -59.8148, -12.0277
1.004, -1, 1.07419, 25.3131, 25.1689, 12.9759, -59.6828, -12.1033
1.008, -1, 1.14541, 25.2731, 25.16, 13.0831, -59.5512, -12.1788
1.012, -1, 1.21647, 25.2331, 25.151, 13.19, -59.4198, -12.2541
1.016, -1, 1.28738, 25.1932, 25.1421, 13.2966, -59.2888, -12.3293
1.02, -1, 1.35813, 25.1535, 25.1332, 13.4031, -59.158, -12.4043
1.024, -1, 1.42871, 25.1138, 25.1243, 13.5092, -59.0275, -12.4791
1.027, -1, 1.49915, 25.0742, 25.1155, 13.6152, -58.8973, -12.5537
1.032, -1, 1.56942, 25.0347, 25.1067, 13.7209, -58.7674, -12.6282
1.036, -1, 1.63954, 24.9952, 25.0978, 13.8264, -58.6378, -12.7025
1.04, -1, 1.70951, 24.9559, 25.089, 13.9316, -58.5085, -12.7767
1.044, -1, 1.77932, 24.9167, 25.0803, 14.0366, -58.3795, -12.8507
1.048, -1, 1.84898, 24.8775, 25.0715, 14.1414, -58.2507, -12.9245
1.052, -1, 1.91848, 24.8384, 25.0628, 14.246, -58.1223, -12.9982
1.055, -1, 1.98783, 24.7994, 25.0541, 14.3503, -57.9941, -13.0717
1.06, -1, 2.05703, 24.7605, 25.0454, 14.4544, -57.8662, -13.145
1.064, -1, 2.12608, 24.7217, 25.0367, 14.5582, -57.7386, -13.2182
1.068, -1, 2.19497, 24.683, 25.028, 14.6618, -57.6112, -13.2912
1.072, -1, 2.26372, 24.6443, 25.0194, 14.7652, -57.4842, -13.3641
1.076, -1, 2.33231, 24.6057, 25.0107, 14.8684, -57.3574, -13.4368
1.08, -1, 2.40076, 24.5673, 25.0021, 14.9714, -57.2309, -13.5093
1.084, -1, 2.46906, 24.5289, 24.9936, 15.0741, -57.1047, -13.5817
1.088, -1, 2.53721, 24.4905, 24.985, 15.1766, -56.9787, -13.6539
1.091, -1, 2.60521, 24.4523, 24.9764, 15.2789, -56.853, -13.726
1.096, -1, 2.67306, 24.4142, 24.9679, 15.381, -56.7276, -13.7979
1.1, -1, 2.74078, 24.3761, 24.9594, 15.4828, -56.6024, -13.8697
1.104, -1, 2.80834, 24.3381, 24.9509, 15.5845, -56.4776, -13.9413
1.108, -1, 2.87576, 24.3002, 24.9424, 15.6859, -56.353, -14.0127
1.112, -1, 2.94304, 24.2624, 24.934, 15.7871, -56.2286, -14.084
1.116, -1, 3.01017, 24.2246, 24.9255, 15.888, -56.1045, -14.1552
1.119, -1, 3.07716, 24.187, 24.9171, 15.9888, -55.9807, -14.2262
1.124, -1, 3.14401, 24.1494, 24.9087, 16.0894, -55.8572, -14.297
1.128, -1, 3.21072, 24.1119, 24.9003, 16.1897, -55.7339, -14.3677
1.132, -1, 3.27729, 24.0744, 24.892, 16.2898, -55.6108, -14.4383
1.136, -1, 3.34372, 24.0371, 24.8836, 16.3898, -55.488, -14.5087
1.14, -1, 3.41001, 23.9998, 24.8753, 16.4895, -55.3655, -14.5789
1.144, -1, 3.47616, 23.9626, 24.867, 16.589, -55.2433, -14.649
1.147, -1, 3.54217, 23.9255, 24.8587, 16.6883, -55.1212, -14.719
1.152, -1, 3.60804, 23.8885, 24.8504, 16.7873, -54.9995, -14.7888
1.156, -1, 3.67378, 23.8515, 24.8421, 16.8862, -54.878, -14.8585
1.16, -1, 3.73938, 23.8146, 24.8339, 16.9849, -54.7567, -14.928
1.164, -1, 3.80485, 23.7778, 24.8256, 17.0834, -54.6357, -14.9974
1.168, -1, 3.87018, 23.7411, 24.8174, 17.1816, -54.515, -15.0666
1.172, -1, 3.93537, 23.7045, 24.8092, 17.2797, -54.3945, -15.1357
1.175, -1, 4.00044, 23.6679, 24.8011, 17.3776, -54.2742, -15.2047
1.18, -1, 4.06536, 23.6314, 24.7929, 17.4752, -54.1542, -15.2735
1.184, -1, 4.13016, 23.5949, 24.7847, 17.5727, -54.0345, -15.3422
1.188, -1, 4.19482, 23.5586, 24.7766, 17.67, -53.9149, -15.4107
1.192, -1, 4.25936, 23.5223, 24.7685, 17.767, -53.7957, -15.4791
1.196, -1, 4.32376, 23.4861, 24.7604, 17.8639, -53.6766, -15.5474
1.2, -1, 4.38803, 23.45, 24.7523, 17.9606, -53.5578, -15.6155
1.204, -1, 4.45217, 23.4139, 24.7443, 18.0571, -53.4393, -15.6835
1.208, -1, 4.51618, 23.3779, 24.7362, 18.1534, -53.321, -15.7513
1.212, -1, 4.58006, 23.342, 24.7282, 18.2495, -53.2029, -15.819
1.216, -1, 4.64382, 23.3061, 24.7202, 18.3454, -53.0851, -15.8866
1.22, -1, 4.70745, 23.2704, 24.7122, 18.4411, -52.9675, -15.954
1.224, -1, 4.77095, 23.2347, 24.7042, 18.5366, -52.8501, -16.0213
1.228, -1, 4.83432, 23.199, 24.6962, 18.6319, -52.733, -16.0885
1.232, -1, 4.89757, 23.1635, 24.6883, 18.727, -52.6161, -16.1555
1.236, -1, 4.96069, 23.128, 24.6803, 18.822, -52.4994, -16.2224
1.24, -1, 5.02369, 23.0926, 24.6724, 18.9168, -52.3829, -16.2892
1.244, -1, 5.08656, 23.0572, 24.6645, 19.0113, -52.2667, -16.3558
1.248, -1, 5.14931, 23.0219, 24.6566, 19.1057, -52.1508, -16.4223
1.252, -1, 5.21193, 22.9867, 24.6488, 19.1999, -52.035, -16.4887
1.256, -1, 5.27444, 22.9516, 24.6409, 19.2939, -51.9195, -16.5549
1.26, -1, 5.33682, 22.9165, 24.6331, 19.3878, -51.8042, -16.621
1.264, -1, 5.39908, 22.8815, 24.6252, 19.4814, -51.6891, -16.687
1.267, -1, 5.46121, 22.8466, 24.6174, 19.5749, -51.5742, -16.7529
1.272, -1, 5.52323, 22.8117, 24.6096, 19.6682, -51.4596, -16.8186
1.276, -1, 5.58513, 22.7769, 24.6018, 19.7613, -51.3452, -16.8842
1.28, -1, 5.6469, 22.7422, 24.5941, 19.8542, -51.231, -16.9497
1.284, -1, 5.70856, 22.7075, 24.5863, 19.947, -51.1171, -17.015
1.288, -1, 5.7701, 22.6729, 24.5786, 20.0395, -51.0033, -17.0803
1.292, -1, 5.83152, 22.6384, 24.5709, 20.1319, -50.8898, -17.1454
1.295, -1, 5.89282, 22.6039, 24.5632, 20.2241, -50.7765, -17.2103
1.3, -1, 5.95401, 22.5695, 24.5555, 20.3162, -50.6634, -17.2752
1.304, -1, 6.01508, 22.5352, 24.5478, 20.408, -50.5505, -17.3399
1.308, -1, 6.07603, 22.5009, 24.5401, 20.4997, -50.4379, -17.4045
1.312, -1, 6.13687, 22.4667, 24.5325, 20.5912, -50.3254, -17.469
1.316, -1, 6.19759, 22.4326, 24.5249, 20.6826, -50.2132, -17.5333
1.32, -1, 6.25819, 22.3985, 24.5172, 20.7737, -50.1012, -17.5976
1.324, -1, 6.31869, 22.3645, 24.5096, 20.8647, -49.9894, -17.6617
1.328, -1, 6.37907, 22.3305, 24.502, 20.9555, -49.8778, -17.7257
1.332, -1, 6.43933, 22.2966, 24.4945, 21.0462, -49.7664, -17.7895
1.336, -1, 6.49948, 22.2628, 24.4869, 21.1367, -49.6552, -17.8533
1.34, -1, 6.55952, 22.2291, 24.4794, 21.227, -49.5442, -17.9169
1.344, -1, 6.61945, 22.1954, 24.4718, 21.3171, -49.4335, -17.9804
1.348, -1, 6.67926, 22.1617, 24.4643, 21.4071, -49.3229, -18.0438
1.352, -1, 6.73897, 22.1282, 24.4568, 21.4969, -49.2125, -18.1071
1.356, -1, 6.79856, 22.0947, 24.4493, 21.5865, -49.1024, -18.1703
1.36, -1, 6.85805, 22.0612, 24.4418, 21.676, -48.9924, -18.2333
1.364, -1, 6.91742, 22.0278, 24.4344, 21.7653, -48.8827, -18.2962
1.368, -1, 6.97669, 21.9945, 24.4269, 21.8545, -48.7732, -18.3591
1.372, -1, 7.03584, 21.9613, 24.4195, 21.9435, -48.6638, -18.4218
1.376, -1, 7.09489, 21.9281, 24.4121, 22.0323, -48.5547, -18.4843
1.38, -1, 7.15383, 21.8949, 24.4046, 22.1209, -48.4457, -18.5468
1.384, -1, 7.21267, 21.8618, 24.3972, 22.2094, -48.337, -18.6092
1.388, -1, 7.2714, 21.8288, 24.3899, 22.2978, -48.2284, -18.6714
1.392, -1, 7.33002, 21.7959, 24.3825, 22.386, -48.1201, -18.7335
1.396, -1, 7.38854, 21.763, 24.3751, 22.474, -48.0119, -18.7956
1.4, -1, 7.44695, 21.7301, 24.3678, 22.5618, -47.904, -18.8575
1.404, -1, 7.50525, 21.6973, 24.3605, 22.6495, -47.7962, -18.9193
1.408, -1, 7.56346, 21.6646, 24.3532, 22.7371, -47.6886, -18.9809
1.412, -1, 7.62156, 21.6319, 24.3458, 22.8245, -47.5812, -19.0425
1.416, -1, 7.67955, 21.5993, 24.3386, 22.9117, -47.4741, -19.104
1.42, -1, 7.73745, 21.5668, 24.3313, 22.9988, -47.3671, -19.1653
1.424, -1, 7.79524, 21.5343, 24.324, 23.0857, -47.2602, -19.2266
1.428, -1, 7.85293, 21.5019, 24.3168, 23.1725, -47.1536, -19.2877
1.432, -1, 7.91053, 21.4695, 24.3095, 23.2591, -47.0472, -19.3488
1.436, -1, 7.96802, 21.4372, 24.3023, 23.3456, -46.9409, -19.4097
1.44, -1, 8.02541, 21.4049, 24.2951, 23.4319, -46.8348, -19.4705
1.444, -1, 8.0827, 21.3727, 24.2879, 23.5181, -46.729, -19.5312
1.448, -1, 8.1399, 21.3405, 24.2807, 23.6041, -46.6232, -19.5918
1.452, -1, 8.19699, 21.3084, 24.2735, 23.69, -46.5177, -19.6523
1.456, -1, 8.25399, 21.2764, 24.2664, 23.7757, -46.4124, -19.7128
1.46, -1, 8.31089, 21.2444, 24.2592, 23.8613, -46.3072, -19.7731
1.464, -1, 8.36769, 21.2125, 24.2521, 23.9468, -46.2022, -19.8333
1.468, -1, 8.4244, 21.1806, 24.2449, 24.032, -46.0975, -19.8933
1.472, -1, 8.48101, 21.1488, 24.2378, 24.1172, -45.9928, -19.9533
1.476, -1, 8.53752, 21.117, 24.2307, 24.2022, -45.8884, -20.0132
1.48, -1, 8.59394, 21.0853, 24.2236, 24.287, -45.7841, -20.073
1.484, -1, 8.65026, 21.0536, 24.2165, 24.3718, -45.68, -20.1327
1.488, -1, 8.70649, 21.022, 24.2095, 24.4563, -45.5761, -20.1923
1.492, -1, 8.76262, 20.9904, 24.2024, 24.5408, -45.4724, -20.2518
1.496, -1, 8.81866, 20.9589, 24.1954, 24.6251, -45.3688, -20.3112
1.5, -1, 8.87461, 20.9275, 24.1883, 24.7092, -45.2654, -20.3705
1.504, -1, 8.93046, 20.8961, 24.1813, 24.7932, -45.1621, -20.4297
1.508, -1, 8.98623, 20.8647, 24.1743, 24.8771, -45.0591, -20.4888
1.512, -1, 9.04189, 20.8334, 24.1673, 24.9608, -44.9562, -20.5478
1.516, -1, 9.09747, 20.8022, 24.1603, 25.0444, -44.8535, -20.6067
1.52, -1, 9.15296, 20.771, 24.1534, 25.1279, -44.7509, -20.6655
1.524, -1, 9.20836, 20.7398, 24.1464, 25.2112, -44.6485, -20.7242
1.528, -1, 9.26366, 20.7087, 24.1394, 25.2944, -44.5463, -20.7828
1.532, -1, 9.31888, 20.6777, 24.1325, 25.3774, -44.4443, -20.8413
1.536, -1, 9.37401, 20.6467, 24.1256, 25.4604, -44.3424, -20.8997
1.54, -1, 9.42904, 20.6158, 24.1187, 25.5431, -44.2407, -20.9581
1.544, -1, 9.48399, 20.5849, 24.1118, 25.6258, -44.1391, -21.0163
1.548, -1, 9.53885, 20.554, 24.1049, 25.7083, -44.0377, -21.0744
1.552, -1, 9.59363, 20.5232, 24.098, 25.7907, -43.9365, -21.1325
1.556, -1, 9.64831, 20.4925, 24.0911, 25.873, -43.8354, -21.1904
1.56, -1, 9.70291, 20.4618, 24.0842, 25.9551, -43.7345, -21.2483
1.564, -1, 9.75742, 20.4311, 24.0774, 26.0371, -43.6337, -21.3061
1.568, -1, 9.81184, 20.4005, 24.0705, 26.1189, -43.5331, -21.3637
1.572, -1, 9.86618, 20.37, 24.0637, 26.2007, -43.4327, -21.4213
1.576, -1, 9.92043, 20.3395, 24.0569, 26.2823, -43.3324, -21.4788
1.58, -1, 9.9746, 20.309, 24.0501, 26.3638, -43.2323, -21.5362
1.584, -1, 10.0287, 20.2786, 24.0433, 26.4451, -43.1324, -21.5936
1.588, -1, 10.0827, 20.2483, 24.0365, 26.5263, -43.0326, -21.6508
1.592, -1, 10.1366, 20.218, 24.0297, 26.6074, -42.9329, -21.7079
1.596, -1, 10.1904, 20.1877, 24.023, 26.6884, -42.8334, -21.765
1.6, -1, 10.2442, 20.1575, 24.0162, 26.7692, -42.7341, -21.8219
1.604, -1, 10.2978, 20.1273, 24.0095, 26.85, -42.6349, -21.8788
1.608, -1, 10.3514, 20.0972, 24.0027, 26.9306, -42.5359, -21.9356
1.612, -1, 10.4049, 20.0671, 23.996, 27.011, -42.437, -21.9923
1.616, -1, 10.4583, 20.0371, 23.9893, 27.0914, -42.3382, -22.0489
1.62, -1, 10.5117, 20.0071, 23.9826, 27.1716, -42.2397, -22.1054
1.624, -1, 10.5649, 19.9771, 23.9759, 27.2517, -42.1412, -22.1619
1.628, -1, 10.6181, 19.9472, 23.9692, 27.3317, -42.0429, -22.2182
1.632, -1, 10.6712, 19.9174, 23.9625, 27.4116, -41.9448, -22.2745
1.636, -1, 10.7242, 19.8876, 23.9559, 27.4913, -41.8468, -22.3307
1.64, -1, 10.7771, 19.8578, 23.9492, 27.5709, -41.749, -22.3868
1.644, -1, 10.83, 19.8281, 23.9426, 27.6504, -41.6513, -22.4428
1.648, -1, 10.8828, 19.7984, 23.9359, 27.7298, -41.5538, -22.4987
1.652, -1, 10.9355, 19.7688, 23.9293, 27.8091, -41.4564, -22.5546
1.656, -1, 10.9881, 19.7392, 23.9227, 27.8882, -41.3591, -22.6104
1.66, -1, 11.0406, 19.7097, 23.9161, 27.9672, -41.262, -22.666
1.664, -1, 11.0931, 19.6802, 23.9095, 28.0461, -41.1651, -22.7216
1.668, -1, 11.1455, 19.6507, 23.9029, 28.1249, -41.0682, -22.7772
1.672, -1, 11.1978, 19.6213, 23.8963, 28.2036, -40.9716, -22.8326
1.676, -1, 11.25, 19.592, 23.8898, 28.2822, -40.875, -22.8879
1.68, -1, 11.3022, 19.5627, 23.8832, 28.3606, -40.7786, -22.9432
1.684, -1, 11.3542, 19.5334, 23.8767, 28.439, -40.6824, -22.9984
1.688, -1, 11.4062, 19.5041, 23.8701, 28.5172, -40.5863, -23.0535
1.692, -1, 11.4582, 19.4749, 23.8636, 28.5953, -40.4903, -23.1085
1.696, -1, 11.51, 19.4458, 23.8571, 28.6733, -40.3945, -23.1635
1.7, -1, 11.5618, 19.4167, 23.8506, 28.7511, -40.2988, -23.2184
1.704, -1, 11.6135, 19.3876, 23.8441, 28.8289, -40.2032, -23.2732
1.708, -1, 11.6651, 19.3586, 23.8376, 28.9066, -40.1078, -23.3279
1.712, -1, 11.7166, 19.3296, 23.8311, 28.9841, -40.0125, -23.3825
1.716, -1, 11.7681, 19.3007, 23.8246, 29.0615, -39.9174, -23.4371
1.72, -1, 11.8195, 19.2718, 23.8182, 29.1388, -39.8224, -23.4915
1.724, -1, 11.8709, 19.2429, 23.8117, 29.2161, -39.7275, -23.5459
1.728, -1, 11.9221, 19.2141, 23.8053, 29.2931, -39.6328, -23.6003
1.732, -1, 11.9733, 19.1853, 23.7989, 29.3701, -39.5382, -23.6545
1.736, -1, 12.0244, 19.1566, 23.7924, 29.447, -39.4437, -23.7087
1.74, -1, 12.0754, 19.1279, 23.786, 29.5238, -39.3494, -23.7628
1.744, -1, 12.1264, 19.0992, 23.7796, 29.6004, -39.2552, -23.8168
1.748, -1, 12.1773, 19.0706, 23.7732, 29.677, -39.1611, -23.8707
1.752, -1, 12.2281, 19.0421, 23.7668, 29.7535, -39.0672, -23.9246
1.756, -1, 12.2789, 19.0135, 23.7604, 29.8298, -38.9734, -23.9784
1.76, -1, 12.3295, 18.985, 23.7541, 29.906, -38.8797, -24.0321
1.764, -1, 12.3802, 18.9566, 23.7477, 29.9822, -38.7861, -24.0857
1.768, -1, 12.4307, 18.9282, 23.7414, 30.0582, -38.6927, -24.1393
1.772, -1, 12.4812, 18.8998, 23.735, 30.1341, -38.5995, -24.1928
1.776, -1, 12.5316, 18.8714, 23.7287, 30.2099, -38.5063, -24.2462
1.78, -1, 12.5819, 18.8431, 23.7223, 30.2856, -38.4133, -24.2995
1.784, -1, 12.6322, 18.8149, 23.716, 30.3612, -38.3204, -24.3528
1.788, -1, 12.6824, 18.7867, 23.7097, 30.4367, -38.2276, -24.406
1.792, -1, 12.7325, 18.7585, 23.7034, 30.5121, -38.1349, -24.4591
1.796, -1, 12.7825, 18.7303, 23.6971, 30.5874, -38.0424, -24.5122
1.8, -1, 12.8325, 18.7022, 23.6908, 30.6626, -37.95, -24.5652
1.804, -1, 12.8825, 18.6742, 23.6846, 30.7377, -37.8578, -24.6181
1.808, -1, 12.9323, 18.6461, 23.6783, 30.8127, -37.7656, -24.6709
1.812, -1, 12.9821, 18.6181, 23.672, 30.8876, -37.6736, -24.7237
1.816, -1, 13.0318, 18.5902, 23.6658, 30.9624, -37.5817, -24.7764
1.82, -1, 13.0815, 18.5623, 23.6596, 31.0371, -37.4899, -24.829
1.824, -1, 13.1311, 18.5344, 23.6533, 31.1117, -37.3982, -24.8816
1.828, -1, 13.1806, 18.5065, 23.6471, 31.1862, -37.3067, -24.9341
1.832, -1, 13.23, 18.4787, 23.6409, 31.2606, -37.2153, -24.9865
1.836, -1, 13.2794, 18.451, 23.6347, 31.3349, -37.124, -25.0388
1.84, -1, 13.3288, 18.4232, 23.6285, 31.4091, -37.0328, -25.0911
1.844, -1, 13.378, 18.3955, 23.6223, 31.4832, -36.9418, -25.1433
1.848, -1, 13.4272, 18.3679, 23.6161, 31.5572, -36.8508, -25.1955
1.852, -1, 13.4764, 18.3402, 23.6099, 31.6311, -36.76, -25.2475
1.856, -1, 13.5254, 18.3127, 23.6037, 31.7049, -36.6693, -25.2995
1.86, -1, 13.5744, 18.2851, 23.5976, 31.7786, -36.5787, -25.3515
1.864, -1, 13.6234, 18.2576, 23.5914, 31.8522, -36.4883, -25.4034
1.868, -1, 13.6723, 18.2301, 23.5853, 31.9258, -36.3979, -25.4552
1.872, -1, 13.7211, 18.2027, 23.5792, 31.9992, -36.3077, -25.5069
1.876, -1, 13.7698, 18.1752, 23.573, 32.0725, -36.2176, -25.5586
1.88, -1, 13.8185, 18.1479, 23.5669, 32.1458, -36.1275, -25.6102
1.884, -1, 13.8672, 18.1205, 23.5608, 32.2189, -36.0377, -25.6617
1.888, -1, 13.9157, 18.0932, 23.5547, 32.292, -35.9479, -25.7132
1.892, -1, 13.9643, 18.0659, 23.5486, 32.365, -35.8582, -25.7646
1.896, -1, 14.0127, 18.0387, 23.5425, 32.4378, -35.7687, -25.816
1.9, -1, 14.0611, 18.0115, 23.5364, 32.5106, -35.6792, -25.8673
1.904, -1, 14.1094, 17.9843, 23.5303, 32.5833, -35.5899, -25.9185
1.908, -1, 14.1577, 17.9572, 23.5243, 32.6559, -35.5007, -25.9696
1.912, -1, 14.2059, 17.9301, 23.5182, 32.7284, -35.4116, -26.0207
1.916, -1, 14.254, 17.903, 23.5122, 32.8009, -35.3226, -26.0718
1.92, -1, 14.3021, 17.876, 23.5061, 32.8732, -35.2337, -26.1227
1.924, -1, 14.3501, 17.849, 23.5001, 32.9454, -35.145, -26.1736
1.928, -1, 14.3981, 17.822, 23.494, 33.0176, -35.0563, -26.2245
1.932, -1, 14.446, 17.7951, 23.488, 33.0897, -34.9677, -26.2752
1.936, -1, 14.4939, 17.7682, 23.482, 33.1616, -34.8793, -26.3259
1.94, -1, 14.5416, 17.7413, 23.476, 33.2335, -34.791, -26.3766
1.944, -1, 14.5894, 17.7145, 23.47, 33.3053, -34.7027, -26.4272
1.948, -1, 14.6371, 17.6877, 23.464, 33.377, -34.6146, -26.4777
1.952, -1, 14.6847, 17.6609, 23.458, 33.4487, -34.5266, -26.5282
1.956, -1, 14.7322, 17.6341, 23.452, 33.5202, -34.4387, -26.5786
1.96, -1, 14.7797, 17.6074, 23.4461, 33.5917, -34.3509, -26.6289
1.964, -1, 14.8272, 17.5808, 23.4401, 33.663, -34.2632, -26.6792
1.968, -1, 14.8745, 17.5541, 23.4342, 33.7343, -34.1756, -26.7294
1.972, -1, 14.9219, 17.5275, 23.4282, 33.8055, -34.0882, -26.7796
1.976, -1, 14.9692, 17.5009, 23.4223, 33.8766, -34.0008, -26.8297
1.98, -1, 15.0164, 17.4744, 23.4163, 33.9476, -33.9135, -26.8798
1.984, -1, 15.0635, 17.4479, 23.4104, 34.0186, -33.8263, -26.9297
1.988, -1, 15.1106, 17.4214, 23.4045, 34.0894, -33.7393, -26.9797
1.992, -1, 15.1577, 17.3949, 23.3986, 34.1602, -33.6523, -27.0295
1.996, -1, 15.2047, 17.3685, 23.3927, 34.2309, -33.5654, -27.0793
1.999, -1, 15.2516, 17.3421, 23.3868, 34.3015, -33.4787, -27.1291
2.004, -1, 15.2985, 17.3158, 23.3809, 34.372, -33.392, -27.1788
2.008, -1, 15.3453, 17.2894, 23.375, 34.4425, -33.3055, -27.2284
2.012, -1, 15.3921, 17.2631, 23.3691, 34.5128, -33.219, -27.278
2.015, -1, 15.4388, 17.2369, 23.3632, 34.5831, -33.1327, -27.3275
2.019, -1, 15.4855, 17.2106, 23.3574, 34.6533, -33.0464, -27.377
2.024, -1, 15.5321, 17.1844, 23.3515, 34.7234, -32.9602, -27.4264
2.028, -1, 15.5786, 17.1582, 23.3456, 34.7934, -32.8742, -27.4757
2.031, -1, 15.6251, 17.1321, 23.3398, 34.8634, -32.7882, -27.525
2.036, -1, 15.6716, 17.106, 23.334, 34.9333, -32.7024, -27.5742
2.04, -1, 15.718, 17.0799, 23.3281, 35.0031, -32.6166, -27.6234
2.044, -1, 15.7643, 17.0538, 23.3223, 35.0728, -32.531, -27.6725
2.048, -1, 15.8106, 17.0278, 23.3165, 35.1424, -32.4454, -27.7216
2.051, -1, 15.8568, 17.0018, 23.3107, 35.212, -32.3599, -27.7706
2.055, -1, 15.903, 16.9759, 23.3049, 35.2814, -32.2746, -27.8195
2.06, -1, 15.9491, 16.9499, 23.2991, 35.3508, -32.1893, -27.8684
2.064, -1, 15.9952, 16.924, 23.2933, 35.4201, -32.1041, -27.9173
2.068, -1, 16.0413, 16.8981, 23.2875, 35.4894, -32.019, -27.9661
2.071, -1, 16.0872, 16.8723, 23.2817, 35.5585, -31.9341, -28.0148
2.076, -1, 16.1331, 16.8465, 23.2759, 35.6276, -31.8492, -28.0635
2.08, -1, 16.179, 16.8207, 23.2702, 35.6966, -31.7644, -28.1121
2.084, -1, 16.2248, 16.7949, 23.2644, 35.7656, -31.6797, -28.1606
2.087, -1, 16.2706, 16.7692, 23.2587, 35.8344, -31.5951, -28.2092
2.092, -1, 16.3163, 16.7435, 23.2529, 35.9032, -31.5106, -28.2576
2.096, -1, 16.362, 16.7178, 23.2472, 35.9719, -31.4262, -28.306
2.1, -1, 16.4076, 16.6921, 23.2414, 36.0405, -31.3418, -28.3544
2.104, -1, 16.4532, 16.6665, 23.2357, 36.1091, -31.2576, -28.4027
2.107, -1, 16.4987, 16.6409, 23.23, 36.1775, -31.1735, -28.4509
2.111, -1, 16.5442, 16.6154, 23.2243, 36.2459, -31.0894, -28.4991
2.116, -1, 16.5896, 16.5898, 23.2186, 36.3143, -31.0055, -28.5472
2.12, -1, 16.635, 16.5643, 23.2129, 36.3825, -30.9216, -28.5953
2.124, -1, 16.6803, 16.5388, 23.2072, 36.4507, -30.8378, -28.6434
2.127, -1, 16.7255, 16.5134, 23.2015, 36.5188, -30.7542, -28.6913
2.132, -1, 16.7708, 16.488, 23.1958, 36.5868, -30.6706, -28.7393
2.136, -1, 16.8159, 16.4626, 23.1901, 36.6548, -30.5871, -28.7872
2.14, -1, 16.8611, 16.4372, 23.1844, 36.7226, -30.5037, -28.835
2.143, -1, 16.9061, 16.4118, 23.1788, 36.7904, -30.4204, -28.8828
2.148, -1, 16.9512, 16.3865, 23.1731, 36.8582, -30.3371, -28.9305
2.152, -1, 16.9961, 16.3612, 23.1675, 36.9258, -30.254, -28.9782
2.156, -1, 17.0411, 16.336, 23.1618, 36.9934, -30.1709, -29.0258
2.16, -1, 17.086, 16.3107, 23.1562, 37.061, -30.088, -29.0734
2.163, -1, 17.1307, 16.2856, 23.1505, 37.1284, -30.0051, -29.1209
2.168, -1, 17.1752, 16.2605, 23.1449, 37.1958, -29.9223, -29.1684
2.172, -1, 17.2191, 16.2357, 23.1392, 37.263, -29.8397, -29.2157
2.176, -1, 17.2623, 16.2112, 23.1335, 37.3301, -29.7572, -29.263
2.179, -1, 17.3045, 16.1873, 23.1277, 37.397, -29.6751, -29.3101
2.184, -1, 17.3456, 16.164, 23.1218, 37.4635, -29.5935, -29.357
2.188, -1, 17.3855, 16.1414, 23.116, 37.5293, -29.5126, -29.4033
2.192, -1, 17.4241, 16.1195, 23.1101, 37.5942, -29.433, -29.4491
2.196, -1, 17.4614, 16.0985, 23.1043, 37.6578, -29.3548, -29.4939
2.199, -1, 17.4974, 16.0784, 23.0986, 37.7198, -29.2788, -29.5376
2.204, -1, 17.532, 16.0593, 23.093, 37.7796, -29.2053, -29.5798
2.208, -1, 17.565, 16.0414, 23.0876, 37.837, -29.1349, -29.6202
2.212, -1, 17.5961, 16.0246, 23.0825, 37.8913, -29.0682, -29.6585
2.216, -1, 17.6255, 16.0089, 23.0778, 37.9423, -29.0056, -29.6944
2.219, -1, 17.6531, 15.9942, 23.0734, 37.9894, -28.9477, -29.7277
2.224, -1, 17.6791, 15.9802, 23.0695, 38.0325, -28.8949, -29.758
2.228, -1, 17.7034, 15.9668, 23.0661, 38.0711, -28.8475, -29.7852
2.232, -1, 17.7262, 15.9539, 23.0633, 38.1052, -28.8055, -29.8093
2.235, -1, 17.7475, 15.9416, 23.0609, 38.1349, -28.769, -29.8302
2.24, -1, 17.767, 15.9299, 23.0591, 38.1603, -28.7379, -29.848
2.244, -1, 17.7847, 15.9192, 23.0578, 38.1815, -28.7117, -29.863
2.248, -1, 17.8006, 15.9096, 23.0568, 38.1989, -28.6902, -29.8752
2.252, -1, 17.8146, 15.9012, 23.0561, 38.213, -28.6728, -29.8851
2.255, -1, 17.827, 15.8938, 23.0557, 38.2241, -28.6592, -29.8929
2.259, -1, 17.8379, 15.8875, 23.0556, 38.2326, -28.6486, -29.8989
2.264, -1, 17.8474, 15.8821, 23.0556, 38.239, -28.6407, -29.9034
2.268, -1, 17.8555, 15.8777, 23.0556, 38.2437, -28.6349, -29.9067
2.272, -1, 17.8622, 15.8741, 23.0558, 38.247, -28.6307, -29.9091
2.275, 2, 17.8677, 15.8713, 23.0559, 38.2493, -28.6278, -29.9107
2.28, 2, 17.8718, 15.8692, 23.0561, 38.2509, -28.6258, -29.9118
2.284, 2, 17.8749, 15.8678, 23.0562, 38.252, -28.6244, -29.9126
2.288, 2, 17.877, 15.8667, 23.0562, 38.2528, -28.6235, -29.9131
2.291, 2, 17.8785, 15.866, 23.0563, 38.2533, -28.6229, -29.9135
2.296, 2, 17.8795, 15.8655, 23.0563, 38.2536, -28.6224, -29.9137
2.3, 2, 17.8802, 15.8652, 23.0563, 38.2539, -28.6221, -29.9139
2.304, 2, 17.8806, 15.865, 23.0564, 38.254, -28.6219, -29.914
2.308, 2, 17.8809, 15.8649, 23.0564, 38.2541, -28.6218, -29.9141
2.311, 2, 17.8811, 15.8648, 23.0564, 38.2542, -28.6217, -29.9141
2.316, 2, 17.8813, 15.8647, 23.0564, 38.2543, -28.6216, -29.9142
2.32, 2, 17.8814, 15.8646, 23.0564, 38.2543, -28.6216, -29.9142
2.324, 2, 17.8814, 15.8646, 23.0564, 38.2543, -28.6216, -29.9142
2.328, 2, 17.8815, 15.8646, 23.0564, 38.2543, -28.6216, -29.9142
2.331, 2, 17.8815, 15.8646, 23.0564, 38.2543, -28.6215, -29.9142
2.336, 2, 17.8815, 15.8646, 23.0564, 38.2544, -28.6215, -29.9142
2.34, 2, 17.8815, 15.8646, 23.0564, 38.2544, -28.6215, -29.9142
2.344, 2, 17.8816, 15.8646, 23.0564, 38.2544, -28.6215, -29.9142
2.347, 2, 17.8816, 15.8646, 23.0564, 38.2544, -28.6215, -29.9142
2.352, 2, 17.8816, 15.8646, 23.0564, 38.2544, -28.6215, -29.9142
2.356, 2, 17.8816, 15.8646, 23.0564, 38.2544, -28.6215, -29.9142
2.36, 2, 17.8816, 15.8646, 23.0564, 38.2544, -28.6215, -29.9142
2.364, 2, 17.8816, 15.8645, 23.0564, 38.2544, -28.6215, -29.9142
2.367, 2, 17.8816, 15.8645, 23.0564, 38.2544, -28.6215, -29.9142
2.372, 2, 17.8816, 15.8645, 23.0564, 38.2544, -28.6215, -29.9142
2.376, 2, 17.8816, 15.8645, 23.0564, 38.2544, -28.6215, -29.9142
2.38, 2, 17.8816, 15.8645, 23.0564, 38.2544, -28.6215, -29.9142
2.383, 2, 17.8816, 15.8645, 23.0564, 38.2544, -28.6215, -29.9142
2.388, 2, 17.8816, 15.8645, 23.0564, 38.2544, -28.6215, -29.9142
2.392, 2, 17.8816, 15.8645, 23.0564, 38.2544, -28.6215, -29.9142
2.396, 2, 17.8816, 15.8645, 23.0564, 38.2544, -28.6215, -29.9142
2.4, 2, 17.8816, 15.8645, 23.0564, 38.2544, -28.6215, -29.9142
2.403, 2, 17.8816, 15.8645, 23.0564, 38.2544, -28.6215, -29.9142
2.408, 2, 17.8816, 15.8645, 23.0564, 38.2544, -28.6215, -29.9142
2.412, 2, 17.8816, 15.8645, 23.0564, 38.2544, -28.6215, -29.9142
2.416, 2, 17.8816, 15.8645, 23.0564, 38.2544, -28.6215, -29.9142
2.42, 2, 17.8816, 15.8645, 23.0564, 38.2544, -28.6215, -29.9142
2.423, 2, 17.8816, 15.8645, 23.0564, 38.2544, -28.6215, -29.9142
2.428, 2, 17.8816, 15.8645, 23.0564, 38.2544, -28.6215, -29.9142
2.432, 2, 17.8816, 15.8645, 23.0564, 38.2544, -28.6215, -29.9142
2.436, 2, 17.8816, 15.8645, 23.0564, 38.2544, -28.6215, -29.9142
2.439, 2, 17.8816, 15.8645, 23.0564, 38.2544, -28.6215, -29.9142
2.444, 2, 17.8816, 15.8645, 23.0564, 38.2544, -28.6215, -29.9142
2.448, 2, 17.8816, 15.8645, 23.0564, 38.2544, -28.6215, -29.9142
2.452, 2, 17.8816, 15.8645, 23.0564, 38.2544, -28.6215, -29.9142
2.456, 2, 17.8816, 15.8645, 23.0564, 38.2544, -28.6215, -29.9142
2.459, 2, 17.8816, 15.8645, 23.0564, 38.2544, -28.6215, -29.9142
2.464, 2, 17.8816, 15.8645, 23.0564, 38.2544, -28.6215, -29.9142
2.468, 2, 17.8816, 15.8645, 23.0564, 38.2544, -28.6215, -29.9142
2.472, 2, 17.8816, 15.8645, 23.0564, 38.2544, -28.6215, -29.9142
2.476, 2, 17.8816, 15.8645, 23.0564, 38.2544, -28.6215, -29.9142
2.479, 2, 17.8816, 15.8645, 23.0564, 38.2544, -28.6215, -29.9142
2.484, 2, 17.8816, 15.8645, 23.0564, 38.2544, -28.6215, -29.9142
2.488, 2, 17.8816, 15.8645, 23.0564, 38.2544, -28.6215, -29.9142
2.492, 2, 17.8816, 15.8645, 23.0564, 38.2544, -28.6215, -29.9142
2.495, 2, 17.8816, 15.8645, 23.0564, 38.2544, -28.6215, -29.9142
2.5, 2, 17.8816, 15.8645, 23.0564, 38.2544, -28.6215, -29.9142
2.504, 2, 17.8816, 15.8645, 23.0564, 38.2544, -28.6215, -29.9142
2.508, 2, 17.8816, 15.8645, 23.0564, 38.2544, -28.6215, -29.9142
2.512, 2, 17.8816, 15.8645, 23.0564, 38.2544, -28.6215, -29.9142
2.515, 2, 17.8816, 15.8645, 23.0564, 38.2544, -28.6215, -29.9142
2.52, 2, 17.8816, 15.8645, 23.0564, 38.2544, -28.6215, -29.9142
2.524, 2, 17.8816, 15.8645, 23.0564, 38.2544, -28.6215, -29.9142
2.528, 2, 17.8816, 15.8645, 23.0564, 38.2544, -28.6215, -29.9142
2.531, 2, 17.8816, 15.8645, 23.0564, 38.2544, -28.6215, -29.9142
2.536, 2, 17.8816, 15.8645, 23.0564, 38.2544, -28.6215, -29.9142
2.54, 2, 17.8816, 15.8645, 23.0564, 38.2544, -28.6215, -29.9142
2.544, 2, 17.8816, 15.8645, 23.0564, 38.2544, -28.6215, -29.9142
2.548, 2, 17.8816, 15.8645, 23.0564, 38.2544, -28.6215, -29.9142
2.551, 2, 17.8816, 15.8645, 23.0564, 38.2544, -28.6215, -29.9142
2.556, 2, 17.8816, 15.8645, 23.0564, 38.2544, -28.6215, -29.9142
2.56, 2, 17.8816, 15.8645, 23.0564, 38.2544, -28.6215, -29.9142
2.564, 2, 17.8816, 15.8645, 23.0564, 38.2544, -28.6215, -29.9142
2.568, 2, 17.8816, 15.8645, 23.0564, 38.2544, -28.6215, -29.9142
2.571, 2, 17.8816, 15.8645, 23.0564, 38.2544, -28.6215, -29.9142
2.576, 2, 17.8816, 15.8645, 23.0564, 38.2544, -28.6215, -29.9142
2.58, 2, 17.8816, 15.8645, 23.0564, 38.2544, -28.6215, -29.9142
2.584, 2, 17.8816, 15.8645, 23.0564, 38.2544, -28.6215, -29.9142
2.587, 2, 17.8816, 15.8645, 23.0564, 38.2544, -28.6215, -29.9142
2.592, 2, 17.8816, 15.8645, 23.0564, 38.2544, -28.6215, -29.9142
2.596, 2, 17.8816, 15.8645, 23.0564, 38.2544, -28.6215, -29.9142
2.6, 2, 17.8816, 15.8645, 23.0564, 38.2544, -28.6215, -29.9142
2.604, 2, 17.8816, 15.8645, 23.0564, 38.2544, -28.6215, -29.9142
2.607, 2, 17.8816, 15.8645, 23.0564, 38.2544, -28.6215, -29.9142
2.612, 2, 17.8816, 15.8645, 23.0564, 38.2544, -28.6215, -29.9142
2.616, 2, 17.8816, 15.8645, 23.0564, 38.2544, -28.6215, -29.9142
2.62, 2, 17.8816, 15.8645, 23.0564, 38.2544, -28.6215, -29.9142
2.624, 2, 17.8816, 15.8645, 23.0564, 38.2544, -28.6215, -29.9142
2.627, 2, 17.8816, 15.8645, 23.0564, 38.2544, -28.6215, -29.9142
2.632, 2, 17.8816, 15.8645, 23.0564, 38.2544, -28.6215, -29.9142
2.636, 2, 17.8816, 15.8645, 23.0564, 38.2544, -28.6215, -29.9142
2.64, 2, 17.8816, 15.8645, 23.0564, 38.2544, -28.6215, -29.9142
2.643, 2, 17.8816, 15.8645, 23.0564, 38.2544, -28.6215, -29.9142
2.648, 2, 17.8816, 15.8645, 23.0564, 38.2544, -28.6215, -29.9142
2.652, 2, 17.8816, 15.8645, 23.0564, 38.2544, -28.6215, -29.9142
2.656, 2, 17.8816, 15.8645, 23.0564, 38.2544, -28.6215, -29.9142
2.66, 2, 17.8816, 15.8645, 23.0564, 38.2544, -28.6215, -29.9142
2.663, 2, 17.8816, 15.8645, 23.0564, 38.2544, -28.6215, -29.9142
2.668, 2, 17.8816, 15.8645, 23.0564, 38.2544, -28.6215, -29.9142
2.672, 2, 17.8816, 15.8645, 23.0564, 38.2544, -28.6215, -29.9142
2.676, 2, 17.8816, 15.8645, 23.0564, 38.2544, -28.6215, -29.9142
2.679, 2, 17.8816, 15.8645, 23.0564, 38.2544, -28.6215, -29.9142
2.684, 2, 17.8816, 15.8645, 23.0564, 38.2544, -28.6215, -29.9142
2.688, 2, 17.8816, 15.8645, 23.0564, 38.2544, -28.6215, -29.9142
2.692, 2, 17.8816, 15.8645, 23.0564, 38.2544, -28.6215, -29.9142
2.696, 2, 17.8816, 15.8645, 23.0564, 38.2544, -28.6215, -29.9142
2.699, 2, 17.8816, 15.8645, 23.0564, 38.2544, -28.6215, -29.9142
2.704, 2, 17.8816, 15.8645, 23.0564, 38.2544, -28.6215, -29.9142
2.708, 2, 17.8816, 15.8645, 23.0564, 38.2544, -28.6215, -29.9142
2.712, 2, 17.8816, 15.8645, 23.0564, 38.2544, -28.6215, -29.9142
2.716, 2, 17.8816, 15.8645, 23.0564, 38.2544, -28.6215, -29.9142
2.719, 2, 17.8816, 15.8645, 23.0564, 38.2544, -28.6215, -29.9142
2.724, 2, 17.8816, 15.8645, 23.0564, 38.2544, -28.6215, -29.9142
2.728, 2, 17.8816, 15.8645, 23.0564, 38.2544, -28.6215, -29.9142
2.732, 2, 17.8816, 15.8645, 23.0564, 38.2544, -28.6215, -29.9142
2.735, 2, 17.8816, 15.8645, 23.0564, 38.2544, -28.6215, -29.9142
2.74, 2, 17.8816, 15.8645, 23.0564, 38.2544, -28.6215, -29.9142
2.744, 2, 17.8816, 15.8645, 23.0564, 38.2544, -28.6215, -29.9142
2.748, 2, 17.8816, 15.8645, 23.0564, 38.2544, -28.6215, -29.9142
2.752, 2, 17.8816, 15.8645, 23.0564, 38.2544, -28.6215, -29.9142
2.755, 2, 17.8816, 15.8645, 23.0564, 38.2544, -28.6215, -29.9142
2.76, 2, 17.8816, 15.8645, 23.0564, 38.2544, -28.6215, -29.9142
2.764, 2, 17.8816, 15.8645, 23.0564, 38.2544, -28.6215, -29.9142
2.768, 2, 17.8816, 15.8645, 23.0564, 38.2544, -28.6215, -29.9142
2.772, 2, 17.8816, 15.8645, 23.0564, 38.2544, -28.6215, -29.9142
2.775, 2, 17.8816, 15.8645, 23.0564, 38.2544, -28.6215, -29.9142
2.78, 2, 17.8816, 15.8645, 23.0564, 38.2544, -28.6215, -29.9142
2.784, 2, 17.8816, 15.8645, 23.0564, 38.2544, -28.6215, -29.9142
2.788, 2, 17.8816, 15.8645, 23.0564, 38.2544, -28.6215, -29.9142
2.791, 2, 17.8816, 15.8645, 23.0564, 38.2544, -28.6215, -29.9142
2.796, 2, 17.8816, 15.8645, 23.0564, 38.2544, -28.6215, -29.9142
2.8, 2, 17.8816, 15.8645, 23.0564, 38.2544, -28.6215, -29.9142
2.804, 2, 17.8816, 15.8645, 23.0564, 38.2544, -28.6215, -29.9142
2.808, 2, 17.8816, 15.8645, 23.0564, 38.2544, -28.6215, -29.9142
2.811, 2, 17.8816, 15.8645, 23.0564, 38.2544, -28.6215, -29.9142
2.816, 2, 17.8816, 15.8645, 23.0564, 38.2544, -28.6215, -29.9142
2.82, 2, 17.8816, 15.8645, 23.0564, 38.2544, -28.6215, -29.9142
2.824, 2, 17.8816, 15.8645, 23.0564, 38.2544, -28.6215, -29.9142
2.828, 2, 17.8816, 15.8645, 23.0564, 38.2544, -28.6215, -29.9142
2.831, 2, 17.8816, 15.8645, 23.0564, 38.2544, -28.6215, -29.9142
2.836, 2, 17.8816, 15.8645, 23.0564, 38.2544, -28.6215, -29.9142
2.84, 2, 17.8816, 15.8645, 23.0564, 38.2544, -28.6215, -29.9142
2.844, 2, 17.8816, 15.8645, 23.0564, 38.2544, -28.6215, -29.9142
2.847, 2, 17.8816, 15.8645, 23.0564, 38.2544, -28.6215, -29.9142
2.852, 2, 17.8816, 15.8645, 23.0564, 38.2544, -28.6215, -29.9142
2.856, 2, 17.8816, 15.8645, 23.0564, 38.2544, -28.6215, -29.9142
2.86, 2, 17.8816, 15.8645, 23.0564, 38.2544, -28.6215, -29.9142
2.864, 2, 17.8816, 15.8645, 23.0564, 38.2544, -28.6215, -29.9142
2.867, 2, 17.8816, 15.8645, 23.0564, 38.2544, -28.6215, -29.9142
2.872, 2, 17.8816, 15.8645, 23.0564, 38.2544, -28.6215, -29.9142
2.876, 2, 17.8816, 15.8645, 23.0564, 38.2544, -28.6215, -29.9142
2.88, 2, 17.8816, 15.8645, 23.0564, 38.2544, -28.6215, -29.9142
2.883, 2, 17.8816, 15.8645, 23.0564, 38.2544, -28.6215, -29.9142
2.888, 2, 17.8816, 15.8645, 23.0564, 38.2544, -28.6215, -29.9142
2.892, 2, 17.8816, 15.8645, 23.0564, 38.2544, -28.6215, -29.9142
2.896, 2, 17.8816, 15.8645, 23.0564, 38.2544, -28.6215, -29.9142
2.9, 2, 17.8816, 15.8645, 23.0564, 38.2544, -28.6215, -29.9142
2.903, 2, 17.8816, 15.8645, 23.0564, 38.2544, -28.6215, -29.9142
2.908, 2, 17.8816, 15.8645, 23.0564, 38.2544, -28.6215, -29.9142
2.912, 2, 17.8816, 15.8645, 23.0564, 38.2544, -28.6215, -29.9142
2.916, 2, 17.8816, 15.8645, 23.0564, 38.2544, -28.6215, -29.9142
2.92, 2, 17.8816, 15.8645, 23.0564, 38.2544, -28.6215, -29.9142
2.923, 2, 17.8816, 15.8645, 23.0564, 38.2544, -28.6215, -29.9142
2.928, 2, 17.8816, 15.8645, 23.0564, 38.2544, -28.6215, -29.9142
2.932, 2, 17.8816, 15.8645, 23.0564, 38.2544, -28.6215, -29.9142
2.936, 2, 17.8816, 15.8645, 23.0564, 38.2544, -28.6215, -29.9142
2.939, 2, 17.8816, 15.8645, 23.0564, 38.2544, -28.6215, -29.9142
2.944, 2, 17.8816, 15.8645, 23.0564, 38.2544, -28.6215, -29.9142
2.948, 2, 17.8816, 15.8645, 23.0564, 38.2544, -28.6215, -29.9142
2.952, 2, 17.8816, 15.8645, 23.0564, 38.2544, -28.6215, -29.9142
2.956, 2, 17.8816, 15.8645, 23.0564, 38.2544, -28.6215, -29.9142
2.959, 2, 17.8816, 15.8645, 23.0564, 38.2544, -28.6215, -29.9142
2.964, 2, 17.8816, 15.8645, 23.0564, 38.2544, -28.6215, -29.9142
2.968, 2, 17.8816, 15.8645, 23.0564, 38.2544, -28.6215, -29.9142
2.972, 2, 17.8816, 15.8645, 23.0564, 38.2544, -28.6215, -29.9142
2.976, 2, 17.8816, 15.8645, 23.0564, 38.2544, -28.6215, -29.9142
2.98, 2, 17.8816, 15.8645, 23.0564, 38.2544, -28.6215, -29.9142
2.984, 2, 17.8816, 15.8645, 23.0564, 38.2544, -28.6215, -29.9142
2.988, 2, 17.8816, 15.8645, 23.0564, 38.2544, -28.6215, -29.9142
2.992, 2, 17.8816, 15.8645, 23.0564, 38.2544, -28.6215, -29.9142
2.995, 2, 17.8816, 15.8645, 23.0564, 38.2544, -28.6215, -29.9142
3, 2, 17.8816, 15.8645, 23.0564, 38.2544, -28.6215, -29.9142
3.004, 2, 17.8816, 15.8645, 23.0564, 38.2544, -28.6215, -29.9142
3.008, 2, 17.8816, 15.8645, 23.0564, 38.2544, -28.6215, -29.9142
3.012, 2, 17.8816, 15.8645, 23.0564, 38.2544, -28.6215, -29.9142
3.015, 2, 17.8816, 15.8645, 23.0564, 38.2544, -28.6215, -29.9142
3.02, 2, 17.8816, 15.8645, 23.0564, 38.2544, -28.6215, -29.9142
3.024, 2, 17.8816, 15.8645, 23.0564, 38.2544, -28.6215, -29.9142
3.028, 2, 17.8816, 15.8645, 23.0564, 38.2544, -28.6215, -29.9142
3.031, 2, 17.8816, 15.8645, 23.0564, 38.2544, -28.6215, -29.9142
3.036, 2, 17.8816, 15.8645, 23.0564, 38.2544, -28.6215, -29.9142
3.04, 2, 17.8816, 15.8645, 23.0564, 38.2544, -28.6215, -29.9142
3.044, 2, 17.8816, 15.8645, 23.0564, 38.2544, -28.6215, -29.9142
3.048, 2, 17.8816, 15.8645, 23.0564, 38.2544, -28.6215, -29.9142
3.051, 2, 17.8816, 15.8645, 23.0564, 38.2544, -28.6215, -29.9142
3.056, 2, 17.8816, 15.8645, 23.0564, 38.2544, -28.6215, -29.9142
3.06, 2, 17.8816, 15.8645, 23.0564, 38.2544, -28.6215, -29.9142
3.064, 2, 17.8816, 15.8645, 23.0564, 38.2544, -28.6215, -29.9142
3.068, 2, 17.8816, 15.8645, 23.0564, 38.2544, -28.6215, -29.9142
3.071, 2, 17.8816, 15.8645, 23.0564, 38.2544, -28.6215, -29.9142
3.076, 2, 17.8816, 15.8645, 23.0564, 38.2544, -28.6215, -29.9142
3.08, 2, 17.8816, 15.8645, 23.0564, 38.2544, -28.6215, -29.9142
3.084, 2, 17.8816, 15.8645, 23.0564, 38.2544, -28.6215, -29.9142
3.087, 2, 17.8816, 15.8645, 23.0564, 38.2544, -28.6215, -29.9142
3.092, 2, 17.8816, 15.8645, 23.0564, 38.2544, -28.6215, -29.9142
3.096, 2, 17.8816, 15.8645, 23.0564, 38.2544, -28.6215, -29.9142
3.1, 2, 17.8816, 15.8645, 23.0564, 38.2544, -28.6215, -29.9142
3.104, 2, 17.8816, 15.8645, 23.0564, 38.2544, -28.6215, -29.9142
3.107, 2, 17.8816, 15.8645, 23.0564, 38.2544, -28.6215, -29.9142
3.112, 2, 17.8816, 15.8645, 23.0564, 38.2544, -28.6215, -29.9142
3.116, 2, 17.8816, 15.8645, 23.0564, 38.2544, -28.6215, -29.9142
3.12, 2, 17.8816, 15.8645, 23.0564, 38.2544, -28.6215, -29.9142
3.124, 2, 17.8816, 15.8645, 23.0564, 38.2544, -28.6215, -29.9142
3.128, 2, 17.8816, 15.8645, 23.0564, 38.2544, -28.6215, -29.9142
3.132, 2, 17.8816, 15.8645, 23.0564, 38.2544, -28.6215, -29.9142
3.136, 2, 17.8816, 15.8645, 23.0564, 38.2544, -28.6215, -29.9142
3.14, 2, 17.8816, 15.8645, 23.0564, 38.2544, -28.6215, -29.9142
3.143, 2, 17.8816, 15.8645, 23.0564, 38.2544, -28.6215, -29.9142
3.148, 2, 17.8816, 15.8645, 23.0564, 38.2544, -28.6215, -29.9142
3.152, 2, 17.8816, 15.8645, 23.0564, 38.2544, -28.6215, -29.9142
3.156, 2, 17.8816, 15.8645, 23.0564, 38.2544, -28.6215, -29.9142
3.16, 2, 17.8816, 15.8645, 23.0564, 38.2544, -28.6215, -29.9142
3.163, 2, 17.8816, 15.8645, 23.0564, 38.2544, -28.6215, -29.9142
3.168, 2, 17.8816, 15.8645, 23.0564, 38.2544, -28.6215, -29.9142
3.172, 2, 17.8816, 15.8645, 23.0564, 38.2544, -28.6215, -29.9142
3.176, 2, 17.8816, 15.8645, 23.0564, 38.2544, -28.6215, -29.9142
3.179, 2, 17.8816, 15.8645, 23.0564, 38.2544, -28.6215, -29.9142
3.184, 2, 17.8816, 15.8645, 23.0564, 38.2544, -28.6215, -29.9142
3.188, 2, 17.8816, 15.8645, 23.0564, 38.2544, -28.6215, -29.9142
3.192, 2, 17.8816, 15.8645, 23.0564, 38.2544, -28.6215, -29.9142
3.196, 2, 17.8816, 15.8645, 23.0564, 38.2544, -28.6215, -29.9142
3.199, 2, 17.8816, 15.8645, 23.0564, 38.2544, -28.6215, -29.9142
3.204, 2, 17.8816, 15.8645, 23.0564, 38.2544, -28.6215, -29.9142
3.208, 2, 17.8816, 15.8645, 23.0564, 38.2544, -28.6215, -29.9142
3.212, 2, 17.8816, 15.8645, 23.0564, 38.2544, -28.6215, -29.9142
3.216, 2, 17.8816, 15.8645, 23.0564, 38.2544, -28.6215, -29.9142
3.22, 2, 17.8816, 15.8645, 23.0564, 38.2544, -28.6215, -29.9142
3.224, 2, 17.8816, 15.8645, 23.0564, 38.2544, -28.6215, -29.9142
3.228, 2, 17.8816, 15.8645, 23.0564, 38.2544, -28.6215, -29.9142
3.232, 2, 17.8816, 15.8645, 23.0564, 38.2544, -28.6215, -29.9142
3.235, 2, 17.8816, 15.8645, 23.0564, 38.2544, -28.6215, -29.9142
3.24, 2, 17.8816, 15.8645, 23.0564, 38.2544, -28.6215, -29.9142
3.244, 2, 17.8816, 15.8645, 23.0564, 38.2544, -28.6215, -29.9142
3.248, 2, 17.8816, 15.8645, 23.0564, 38.2544, -28.6215, -29.9142
3.252, 2, 17.8816, 15.8645, 23.0564, 38.2544, -28.6215, -29.9142
3.255, 2, 17.8816, 15.8645, 23.0564, 38.2544, -28.6215, -29.9142
3.26, 2, 17.8816, 15.8645, 23.0564, 38.2544, -28.6215, -29.9142
3.264, 2, 17.8816, 15.8645, 23.0564, 38.2544, -28.6215, -29.9142
3.268, 2, 17.8816, 15.8645, 23.0564, 38.2544, -28.6215, -29.9142
3.272, 2, 17.8816, 15.8645, 23.0564, 38.2544, -28.6215, -29.9142
3.276, 2, 17.8816, 15.8645, 23.0564, 38.2544, -28.6215, -29.9142
3.28, 2, 17.8816, 15.8645, 23.0564, 38.2544, -28.6215, -29.9142
3.284, 2, 17.8816, 15.8645, 23.0564, 38.2544, -28.6215, -29.9142
3.288, 2, 17.8816, 15.8645, 23.0564, 38.2544, -28.6215, -29.9142
3.291, 2, 17.8816, 15.8645, 23.0564, 38.2544, -28.6215, -29.9142
3.296, 2, 17.8816, 15.8645, 23.0564, 38.2544, -28.6215, -29.9142
3.3, 2, 17.8816, 15.8645, 23.0564, 38.2544, -28.6215, -29.9142
3.304, 2, 17.8816, 15.8645, 23.0564, 38.2544, -28.6215, -29.9142
3.308, 2, 17.8816, 15.8645, 23.0564, 38.2544, -28.6215, -29.9142
3.312, 2, 17.8816, 15.8645, 23.0564, 38.2544, -28.6215, -29.9142
3.316, 2, 17.8816, 15.8645, 23.0564, 38.2544, -28.6215, -29.9142
3.32, 2, 17.8816, 15.8645, 23.0564, 38.2544, -28.6215, -29.9142
3.324, 2, 17.8816, 15.8645, 23.0564, 38.2544, -28.6215, -29.9142
3.328, 2, 17.8816, 15.8645, 23.0564, 38.2544, -28.6215, -29.9142
3.332, 2, 17.8816, 15.8645, 23.0564, 38.2544, -28.6215, -29.9142
3.336, 2, 17.8816, 15.8645, 23.0564, 38.2544, -28.6215, -29.9142
3.34, 2, 17.8816, 15.8645, 23.0564, 38.2544, -28.6215, -29.9142
3.344, 2, 17.8816, 15.8645, 23.0564, 38.2544, -28.6215, -29.9142
3.347, 2, 17.8816, 15.8645, 23.0564, 38.2544, -28.6215, -29.9142
3.352, 4, 17.8816, 15.8645, 23.0564, 38.2544, -28.6215, -29.9142
3.356, 4, 17.8816, 15.8645, 23.0564, 38.2544, -28.6215, -29.9142
3.36, 4, 17.8816, 15.8645, 23.0564, 38.2544, -28.6215, -29.9142
3.364, 4, 17.8816, 15.8645, 23.0564, 38.2544, -28.6215, -29.9142
3.368, 4, 17.8816, 15.8645, 23.0564, 38.2544, -28.6215, -29.9142
3.372, 4, 17.8816, 15.8645, 23.0564, 38.2544, -28.6215, -29.9142
3.376, 4, 17.8816, 15.8645, 23.0564, 38.2544, -28.6215, -29.9142
3.38, 4, 17.8816, 15.8645, 23.0564, 38.2544, -28.6215, -29.9142
3.383, 4, 17.8816, 15.8645, 23.0564, 38.2544, -28.6215, -29.9142
3.388, 4, 17.8816, 15.8645, 23.0564, 38.2544, -28.6215, -29.9142
3.392, 4, 17.8816, 15.8645, 23.0564, 38.2544, -28.6215, -29.9142
3.396, 4, 17.8816, 15.8645, 23.0564, 38.2544, -28.6215, -29.9142
3.4, 4, 17.8816, 15.8645, 23.0564, 38.2544, -28.6215, -29.9142
3.403, 4, 17.8816, 15.8645, 23.0564, 38.2544, -28.6215, -29.9142
3.408, 4, 17.8816, 15.8645, 23.0564, 38.2544, -28.6215, -29.9142
3.412, 4, 17.8816, 15.8645, 23.0564, 38.2544, -28.6215, -29.9142
3.416, 4, 17.8816, 15.8645, 23.0564, 38.2544, -28.6215, -29.9142
3.42, 4, 17.8816, 15.8645, 23.0564, 38.2544, -28.6215, -29.9142
3.424, 4, 17.8816, 15.8645, 23.0564, 38.2544, -28.6215, -29.9142
3.428, 4, 17.8816, 15.8645, 23.0564, 38.2544, -28.6215, -29.9142
3.432, 4, 17.8816, 15.8645, 23.0564, 38.2544, -28.6215, -29.9142
3.436, 4, 17.8816, 15.8645, 23.0564, 38.2544, -28.6215, -29.9142
3.439, 4, 17.8816, 15.8645, 23.0564, 38.2544, -28.6215, -29.9142
3.444, 4, 17.8816, 15.8645, 23.0564, 38.2544, -28.6215, -29.9142
3.448, 4, 17.8816, 15.8645, 23.0564, 38.2544, -28.6215, -29.9142
3.452, 4, 17.8816, 15.8645, 23.0564, 38.2544, -28.6215, -29.9142
3.456, 4, 17.8816, 15.8645, 23.0564, 38.2544, -28.6215, -29.9142
3.46, 4, 17.8816, 15.8645, 23.0564, 38.2544, -28.6215, -29.9142
3.464, 4, 17.8816, 15.8645, 23.0564, 38.2544, -28.6215, -29.9142
3.468, 4, 17.8816, 15.8645, 23.0564, 38.2544, -28.6215, -29.9142
3.472, 4, 17.8816, 15.8645, 23.0564, 38.2544, -28.6215, -29.9142
3.476, 4, 17.8816, 15.8645, 23.0564, 38.2544, -28.6215, -29.9142
3.48, 4, 17.8816, 15.8645, 23.0564, 38.2544, -28.6215, -29.9142
3.484, 4, 17.8815, 15.8645, 23.0564, 38.2544, -28.6215, -29.9142
3.488, 4, 17.8812, 15.8645, 23.0564, 38.2543, -28.6215, -29.9142
3.492, 4, 17.8806, 15.8645, 23.0565, 38.2542, -28.6216, -29.9141
3.495, 4, 17.8793, 15.8645, 23.0566, 38.2539, -28.6217, -29.9139
3.5, 4, 17.8773, 15.8644, 23.0569, 38.2532, -28.6219, -29.9133
3.504, 4, 17.8745, 15.8643, 23.0576, 38.2517, -28.6225, -29.912
3.508, 4, 17.8707, 15.864, 23.0586, 38.2489, -28.6235, -29.9095
3.512, 4, 17.8659, 15.8636, 23.0603, 38.2441, -28.6252, -29.9053
3.516, 4, 17.8601, 15.863, 23.0629, 38.2365, -28.628, -29.8986
3.52, 4, 17.8533, 15.8621, 23.0667, 38.225, -28.6321, -29.8885
3.524, 5, 17.8454, 15.8608, 23.072, 38.2087, -28.6379, -29.874
3.528, 5, 17.8363, 15.8591, 23.0792, 38.1865, -28.6459, -29.8544
3.531, 5, 17.8257, 15.857, 23.0884, 38.1572, -28.6565, -29.8284
3.536, 5, 17.8136, 15.8542, 23.1001, 38.1198, -28.6699, -29.7953
3.54, 5, 17.8, 15.8508, 23.1146, 38.0734, -28.6867, -29.7542
3.544, 5, 17.7848, 15.8467, 23.132, 38.0171, -28.7071, -29.7044
3.548, 5, 17.7681, 15.8419, 23.1525, 37.9503, -28.7313, -29.6453
3.552, 5, 17.75, 15.8363, 23.1763, 37.8728, -28.7594, -29.5766
3.556, 5, 17.7303, 15.83, 23.2033, 37.7846, -28.7916, -29.4984
3.56, 5, 17.7091, 15.8229, 23.2334, 37.6858, -28.8278, -29.4109
3.564, 5, 17.6863, 15.8152, 23.2666, 37.5771, -28.8677, -29.3147
3.568, 5, 17.6618, 15.8068, 23.3025, 37.4592, -28.9111, -29.2103
3.572, 5, 17.6358, 15.7979, 23.341, 37.3331, -28.9578, -29.0987
3.576, 5, 17.6082, 15.7885, 23.3818, 37.1998, -29.0073, -28.9808
3.58, 5, 17.5792, 15.7787, 23.4244, 37.0604, -29.0593, -28.8576
3.584, 5, 17.549, 15.7685, 23.4687, 36.916, -29.1135, -28.7299
3.587, 5, 17.5176, 15.7581, 23.5143, 36.7675, -29.1695, -28.5987
3.592, 5, 17.4851, 15.7475, 23.5609, 36.616, -29.227, -28.4649
3.596, 5, 17.4516, 15.7367, 23.6084, 36.4622, -29.2856, -28.3292
3.6, 5, 17.4171, 15.7259, 23.6563, 36.307, -29.3452, -28.1922
3.604, 5, 17.3816, 15.7151, 23.7047, 36.1508, -29.4055, -28.0544
3.608, 5, 17.3453, 15.7042, 23.7534, 35.9941, -29.4663, -27.9163
3.612, 5, 17.3083, 15.6934, 23.8022, 35.8372, -29.5276, -27.7782
3.616, 5, 17.2708, 15.6827, 23.8511, 35.6805, -29.5892, -27.6401
3.62, 5, 17.233, 15.672, 23.8999, 35.5239, -29.6511, -27.5024
3.624, 5, 17.1949, 15.6614, 23.9488, 35.3677, -29.7133, -27.365
3.628, 5, 17.1567, 15.6509, 23.9976, 35.2119, -29.7757, -27.2281
3.632, 5, 17.1183, 15.6405, 24.0464, 35.0565, -29.8383, -27.0916
3.636, 5, 17.0798, 15.6301, 24.0951, 34.9017, -29.9012, -26.9556
3.64, 5, 17.0413, 15.6199, 24.1437, 34.7473, -29.9642, -26.8201
3.644, 5, 17.0027, 15.6097, 24.1922, 34.5934, -30.0274, -26.6851
3.648, 5, 16.964, 15.5996, 24.2406, 34.4401, -30.0908, -26.5507
3.652, 5, 16.9253, 15.5897, 24.289, 34.2873, -30.1544, -26.4168
3.656, 5, 16.8865, 15.5798, 24.3372, 34.135, -30.2181, -26.2835
3.66, 5, 16.8477, 15.57, 24.3853, 33.9832, -30.2821, -26.1506
3.664, 5, 16.8089, 15.5603, 24.4334, 33.832, -30.3462, -26.0184
3.668, 5, 16.77, 15.5507, 24.4813, 33.6813, -30.4104, -25.8866
3.672, 5, 16.7311, 15.5412, 24.5292, 33.5312, -30.4749, -25.7554
3.676, 5, 16.6922, 15.5318, 24.577, 33.3815, -30.5395, -25.6247
3.679, 5, 16.6532, 15.5225, 24.6246, 33.2324, -30.6042, -25.4946
3.684, 5, 16.6142, 15.5133, 24.6722, 33.0838, -30.6692, -25.365
3.688, 5, 16.5751, 15.5042, 24.7196, 32.9358, -30.7343, -25.2359
3.692, 5, 16.536, 15.4952, 24.767, 32.7882, -30.7995, -25.1074
3.696, 5, 16.4969, 15.4863, 24.8143, 32.6412, -30.865, -24.9794
3.7, 5, 16.4578, 15.4775, 24.8614, 32.4947, -30.9306, -24.8519
3.704, 5, 16.4186, 15.4687, 24.9085, 32.3487, -30.9963, -24.7249
3.708, 5, 16.3794, 15.4601, 24.9555, 32.2033, -31.0622, -24.5985
3.712, 5, 16.3402, 15.4516, 25.0023, 32.0583, -31.1283, -24.4725
3.716, 5, 16.3009, 15.4432, 25.0491, 31.9139, -31.1945, -24.3471
3.72, 5, 16.2616, 15.4348, 25.0958, 31.7699, -31.2609, -24.2222
3.724, 5, 16.2222, 15.4266, 25.1423, 31.6265, -31.3275, -24.0978
3.728, 5, 16.1828, 15.4185, 25.1888, 31.4835, -31.3942, -23.9739
3.732, 5, 16.1434, 15.4104, 25.2352, 31.3411, -31.4611, -23.8506
3.735, 5, 16.104, 15.4025, 25.2814, 31.1992, -31.5281, -23.7277
3.74, 5, 16.0645, 15.3946, 25.3276, 31.0578, -31.5952, -23.6054
3.744, 5, 16.025, 15.3869, 25.3736, 30.9168, -31.6626, -23.4835
3.748, 5, 15.9855, 15.3792, 25.4196, 30.7764, -31.73, -23.3622
3.752, 5, 15.9459, 15.3717, 25.4655, 30.6364, -31.7976, -23.2413
3.756, 5, 15.9063, 15.3643, 25.5112, 30.497, -31.8654, -23.1209
3.76, 5, 15.8667, 15.3569, 25.5569, 30.358, -31.9333, -23.0011
3.764, 5, 15.827, 15.3497, 25.6024, 30.2195, -32.0014, -22.8817
3.768, 5, 15.7873, 15.3425, 25.6479, 30.0815, -32.0696, -22.7628
3.772, 5, 15.7476, 15.3355, 25.6933, 29.944, -32.138, -22.6444
3.776, 5, 15.7078, 15.3285, 25.7385, 29.807, -32.2065, -22.5265
3.78, 5, 15.668, 15.3216, 25.7837, 29.6704, -32.2752, -22.4091
3.784, 5, 15.6282, 15.3149, 25.8287, 29.5343, -32.344, -22.2922
3.788, 5, 15.5883, 15.3082, 25.8737, 29.3987, -32.4129, -22.1757
3.792, 5, 15.5484, 15.3017, 25.9185, 29.2636, -32.482, -22.0598
3.796, 5, 15.5085, 15.2952, 25.9633, 29.1289, -32.5512, -21.9443
3.8, 5, 15.4686, 15.2889, 26.0079, 28.9947, -32.6206, -21.8292
3.804, 5, 15.4286, 15.2826, 26.0525, 28.861, -32.6901, -21.7147
3.808, 5, 15.3886, 15.2764, 26.0969, 28.7277, -32.7598, -21.6006
3.812, 5, 15.3485, 15.2704, 26.1412, 28.5949, -32.8295, -21.487
3.816, 5, 15.3084, 15.2644, 26.1855, 28.4625, -32.8995, -21.3739
3.82, 5, 15.2683, 15.2585, 26.2296, 28.3307, -32.9695, -21.2612
3.824, 5, 15.2282, 15.2528, 26.2737, 28.1992, -33.0397, -21.149
3.828, 5, 15.188, 15.2471, 26.3176, 28.0682, -33.1101, -21.0373
3.832, 5, 15.1478, 15.2415, 26.3614, 27.9377, -33.1805, -20.926
3.836, 5, 15.1075, 15.2361, 26.4052, 27.8077, -33.2512, -20.8151
3.84, 5, 15.0673, 15.2307, 26.4488, 27.678, -33.3219, -20.7048
3.844, 5, 15.027, 15.2254, 26.4923, 27.5489, -33.3928, -20.5948
3.848, 5, 14.9866, 15.2203, 26.5358, 27.4201, -33.4638, -20.4854
3.852, 5, 14.9463, 15.2152, 26.5791, 27.2919, -33.5349, -20.3764
3.856, 5, 14.9059, 15.2102, 26.6223, 27.164, -33.6062, -20.2678
3.86, 5, 14.8654, 15.2053, 26.6655, 27.0366, -33.6776, -20.1597
3.864, 5, 14.825, 15.2006, 26.7085, 26.9096, -33.7491, -20.052
3.868, 5, 14.7845, 15.1959, 26.7514, 26.7831, -33.8208, -19.9448
3.872, 5, 14.744, 15.1913, 26.7943, 26.657, -33.8925, -19.838
3.876, 5, 14.7034, 15.1868, 26.837, 26.5314, -33.9644, -19.7316
3.88, 5, 14.6629, 15.1824, 26.8796, 26.4061, -34.0365, -19.6257
3.884, 5, 14.6222, 15.1781, 26.9222, 26.2813, -34.1086, -19.5203
3.888, 5, 14.5816, 15.1739, 26.9646, 26.157, -34.1809, -19.4152
3.892, 5, 14.5409, 15.1698, 27.0069, 26.033, -34.2533, -19.3106
3.896, 5, 14.5002, 15.1659, 27.0491, 25.9095, -34.3259, -19.2064
3.9, 5, 14.4595, 15.162, 27.0913, 25.7864, -34.3985, -19.1027
3.904, 5, 14.4187, 15.1582, 27.1333, 25.6637, -34.4713, -18.9994
3.908, 5, 14.3779, 15.1545, 27.1752, 25.5415, -34.5442, -18.8965
3.912, 5, 14.3371, 15.1509, 27.2171, 25.4196, -34.6173, -18.794
3.916, 5, 14.2963, 15.1474, 27.2588, 25.2982, -34.6904, -18.692
3.92, 5, 14.2554, 15.144, 27.3004, 25.1772, -34.7637, -18.5904
3.924, 5, 14.2145, 15.1406, 27.342, 25.0566, -34.8371, -18.4892
3.928, 5, 14.1735, 15.1374, 27.3834, 24.9364, -34.9106, -18.3884
3.932, 5, 14.1325, 15.1343, 27.4247, 24.8167, -34.9842, -18.288
3.936, 5, 14.0915, 15.1313, 27.4659, 24.6973, -35.0579, -18.188
3.94, 5, 14.0505, 15.1284, 27.5071, 24.5783, -35.1318, -18.0885
3.944, 5, 14.0094, 15.1256, 27.5481, 24.4598, -35.2058, -17.9894
3.948, 5, 13.9683, 15.1229, 27.589, 24.3416, -35.2799, -17.8907
3.952, 5, 13.9272, 15.1203, 27.6298, 24.2239, -35.3541, -17.7923
3.956, 5, 13.8861, 15.1178, 27.6706, 24.1065, -35.4284, -17.6944
3.96, 5, 13.8449, 15.1154, 27.7112, 23.9895, -35.5029, -17.5969
3.964, 5, 13.8037, 15.113, 27.7517, 23.8729, -35.5774, -17.4998
3.968, 5, 13.7624, 15.1108, 27.7921, 23.7568, -35.6521, -17.4031
3.972, 5, 13.7211, 15.1087, 27.8324, 23.641, -35.7268, -17.3068
3.976, 5, 13.6798, 15.1067, 27.8726, 23.5256, -35.8017, -17.2108
3.98, 5, 13.6385, 15.1048, 27.9127, 23.4105, -35.8767, -17.1153
3.984, 5, 13.5972, 15.103, 27.9527, 23.2959, -35.9518, -17.0202
3.988, 5, 13.5558, 15.1012, 27.9927, 23.1816, -36.027, -16.9254
3.992, 5, 13.5143, 15.0996, 28.0324, 23.0678, -36.1024, -16.831
3.996, 5, 13.4729, 15.0981, 28.0721, 22.9542, -36.1778, -16.7371
3.999, 5, 13.4314, 15.0967, 28.1117, 22.8411, -36.2533, -16.6435
4.004, 5, 13.3899, 15.0954, 28.1512, 22.7284, -36.329, -16.5502
4.008, 5, 13.3484, 15.0942, 28.1906, 22.616, -36.4047, -16.4574
4.012, 5, 13.3068, 15.0931, 28.2299, 22.504, -36.4806, -16.3649
4.016, 5, 13.2652, 15.0921, 28.2691, 22.3923, -36.5565, -16.2728
4.02, 5, 13.2236, 15.0911, 28.3082, 22.281, -36.6326, -16.1811
4.024, 5, 13.182, 15.0903, 28.3471, 22.1701, -36.7087, -16.0898
4.028, 5, 13.1403, 15.0896, 28.386, 22.0595, -36.785, -15.9988
4.032, 5, 13.0986, 15.089, 28.4248, 21.9493, -36.8614, -15.9082
4.036, 5, 13.0569, 15.0885, 28.4634, 21.8395, -36.9378, -15.8179
4.04, 5, 13.0151, 15.0881, 28.502, 21.73, -37.0144, -15.728
4.044, 5, 12.9733, 15.0878, 28.5404, 21.6209, -37.0911, -15.6385
4.048, 5, 12.9315, 15.0876, 28.5788, 21.5121, -37.1678, -15.5493
4.052, 5, 12.8896, 15.0875, 28.617, 21.4037, -37.2447, -15.4605
4.056, 5, 12.8478, 15.0875, 28.6552, 21.2956, -37.3216, -15.3721
4.06, 5, 12.8059, 15.0876, 28.6932, 21.1879, -37.3987, -15.284
4.064, 5, 12.7639, 15.0878, 28.7311, 21.0805, -37.4759, -15.1962
4.068, 5, 12.722, 15.0881, 28.769, 20.9734, -37.5531, -15.1089
4.072, 5, 12.68, 15.0885, 28.8067, 20.8668, -37.6305, -15.0218
4.076, 5, 12.638, 15.089, 28.8443, 20.7604, -37.7079, -14.9351
4.08, 5, 12.596, 15.0896, 28.8818, 20.6544, -37.7854, -14.8488
4.084, 5, 12.5539, 15.0903, 28.9192, 20.5487, -37.8631, -14.7628
4.088, 5, 12.5118, 15.0911, 28.9565, 20.4434, -37.9408, -14.6771
4.092, 5, 12.4697, 15.092, 28.9937, 20.3384, -38.0186, -14.5918
4.096, 5, 12.4275, 15.093, 29.0308, 20.2337, -38.0965, -14.5069
4.1, 5, 12.3854, 15.0941, 29.0678, 20.1294, -38.1745, -14.4222
4.104, 5, 12.3432, 15.0953, 29.1047, 20.0254, -38.2526, -14.3379
4.108, 5, 12.3009, 15.0967, 29.1415, 19.9217, -38.3308, -14.254
4.112, 5, 12.2587, 15.0981, 29.1782, 19.8184, -38.4091, -14.1704
4.116, 5, 12.2164, 15.0996, 29.2147, 19.7153, -38.4875, -14.0871
4.12, 5, 12.1741, 15.1012, 29.2512, 19.6126, -38.5659, -14.0041
4.124, 5, 12.1318, 15.1029, 29.2876, 19.5103, -38.6445, -13.9215
4.128, 5, 12.0894, 15.1047, 29.3238, 19.4082, -38.7231, -13.8392
4.132, 5, 12.047, 15.1067, 29.36, 19.3065, -38.8018, -13.7573
4.136, 5, 12.0046, 15.1087, 29.396, 19.2051, -38.8806, -13.6756
4.14, 5, 11.9622, 15.1108, 29.432, 19.104, -38.9595, -13.5943
4.144, 5, 11.9197, 15.113, 29.4678, 19.0032, -39.0385, -13.5133
4.148, 5, 11.8772, 15.1153, 29.5035, 18.9027, -39.1176, -13.4327
4.152, 5, 11.8347, 15.1178, 29.5392, 18.8026, -39.1967, -13.3523
4.156, 5, 11.7921, 15.1203, 29.5747, 18.7028, -39.276, -13.2723
4.16, 5, 11.7496, 15.1229, 29.6101, 18.6032, -39.3553, -13.1926
4.164, 5, 11.707, 15.1257, 29.6454, 18.504, -39.4347, -13.1132
4.168, 5, 11.6643, 15.1285, 29.6806, 18.4051, -39.5142, -13.0341
4.172, 5, 11.6217, 15.1314, 29.7157, 18.3065, -39.5938, -12.9554
4.176, 5, 11.579, 15.1345, 29.7507, 18.2083, -39.6734, -12.8769
4.18, 5, 11.5363, 15.1376, 29.7856, 18.1103, -39.7532, -12.7988
4.184, 5, 11.4936, 15.1408, 29.8204, 18.0126, -39.833, -12.721
4.188, 5, 11.4508, 15.1442, 29.855, 17.9152, -39.9129, -12.6434
4.192, 5, 11.4081, 15.1476, 29.8896, 17.8181, -39.9929, -12.5662
4.196, 5, 11.3653, 15.1511, 29.9241, 17.7214, -40.073, -12.4893
4.2, 5, 11.3224, 15.1548, 29.9584, 17.6249, -40.1532, -12.4128
4.204, 5, 11.2796, 15.1585, 29.9927, 17.5287, -40.2334, -12.3365
4.208, 5, 11.2367, 15.1624, 30.0268, 17.4328, -40.3137, -12.2605
4.212, 5, 11.1938, 15.1663, 30.0609, 17.3372, -40.3941, -12.1848
4.216, 5, 11.1509, 15.1704, 30.0948, 17.2419, -40.4746, -12.1094
4.22, 5, 11.1079, 15.1745, 30.1287, 17.1469, -40.5551, -12.0344
4.224, 5, 11.0649, 15.1788, 30.1624, 17.0522, -40.6357, -11.9596
4.228, 5, 11.0219, 15.1831, 30.196, 16.9578, -40.7165, -11.8851
4.232, 5, 10.9789, 15.1876, 30.2295, 16.8637, -40.7972, -11.8109
4.236, 5, 10.9358, 15.1921, 30.263, 16.7698, -40.8781, -11.737
4.24, 5, 10.8927, 15.1968, 30.2963, 16.6763, -40.959, -11.6634
4.244, 5, 10.8496, 15.2015, 30.3295, 16.583, -41.0401, -11.5901
4.248, 5, 10.8065, 15.2064, 30.3626, 16.49, -41.1212, -11.5171
4.252, 5, 10.7634, 15.2113, 30.3956, 16.3973, -41.2023, -11.4444
4.256, 5, 10.7202, 15.2164, 30.4284, 16.3049, -41.2836, -11.372
4.26, 5, 10.677, 15.2216, 30.4612, 16.2128, -41.3649, -11.2999
4.264, 5, 10.6337, 15.2268, 30.4939, 16.1209, -41.4463, -11.228
4.268, 5, 10.5905, 15.2322, 30.5264, 16.0293, -41.5278, -11.1564
4.272, 5, 10.5472, 15.2377, 30.5589, 15.938, -41.6093, -11.0851
4.276, 5, 10.5039, 15.2432, 30.5912, 15.847, -41.6909, -11.0141
4.28, 5, 10.4606, 15.2489, 30.6235, 15.7563, -41.7726, -10.9434
4.284, 5, 10.4172, 15.2547, 30.6556, 15.6658, -41.8544, -10.873
4.288, 5, 10.3738, 15.2605, 30.6877, 15.5756, -41.9362, -10.8028
4.292, 5, 10.3305, 15.2665, 30.7196, 15.4856, -42.0181, -10.7329
4.296, 5, 10.287, 15.2726, 30.7514, 15.3959, -42.1001, -10.6633
4.3, 5, 10.2436, 15.2788, 30.7831, 15.3065, -42.1822, -10.594
4.304, 5, 10.2001, 15.2851, 30.8147, 15.2174, -42.2643, -10.5249
4.308, 5, 10.1566, 15.2915, 30.8462, 15.1285, -42.3464, -10.4561
4.312, 5, 10.1131, 15.2979, 30.8776, 15.0399, -42.4287, -10.3876
4.316, 5, 10.0696, 15.3045, 30.9088, 14.9515, -42.511, -10.3193
4.32, 5, 10.026, 15.3112, 30.94, 14.8634, -42.5934, -10.2513
4.324, 5, 9.98242, 15.318, 30.9711, 14.7756, -42.6759, -10.1836
4.328, 5, 9.93881, 15.3249, 31.002, 14.688, -42.7584, -10.1161
4.332, 5, 9.89518, 15.3319, 31.0329, 14.6006, -42.841, -10.0489
4.336, 5, 9.85152, 15.339, 31.0636, 14.5135, -42.9236, -9.98196
4.34, 5, 9.80785, 15.3462, 31.0942, 14.4267, -43.0063, -9.91527
4.344, 5, 9.76415, 15.3535, 31.1248, 14.3401, -43.0891, -9.84884
4.348, 5, 9.72043, 15.3609, 31.1552, 14.2538, -43.1719, -9.78267
4.352, 5, 9.67669, 15.3684, 31.1855, 14.1677, -43.2548, -9.71675
4.356, 5, 9.63292, 15.376, 31.2157, 14.0819, -43.3378, -9.65108
4.36, 5, 9.58914, 15.3837, 31.2458, 13.9963, -43.4208, -9.58567
4.364, 5, 9.54533, 15.3915, 31.2757, 13.9109, -43.5039, -9.5205
4.368, 5, 9.5015, 15.3994, 31.3056, 13.8258, -43.5871, -9.45559
4.372, 5, 9.45765, 15.4074, 31.3354, 13.7409, -43.6703, -9.39092
4.376, 5, 9.41378, 15.4155, 31.365, 13.6563, -43.7536, -9.3265
4.38, 5, 9.36989, 15.4237, 31.3946, 13.5719, -43.8369, -9.26233
4.384, 5, 9.32597, 15.4321, 31.424, 13.4878, -43.9203, -9.19841
4.388, 5, 9.28204, 15.4405, 31.4534, 13.4039, -44.0037, -9.13472
4.392, 5, 9.23808, 15.449, 31.4826, 13.3202, -44.0872, -9.07128
4.396, 5, 9.1941, 15.4576, 31.5117, 13.2367, -44.1708, -9.00808
4.4, 5, 9.1501, 15.4663, 31.5407, 13.1535, -44.2544, -8.94512
4.404, 5, 9.10609, 15.4751, 31.5696, 13.0705, -44.3381, -8.8824
4.408, 5, 9.06205, 15.484, 31.5984, 12.9878, -44.4219, -8.81992
4.412, 5, 9.01799, 15.493, 31.6271, 12.9053, -44.5057, -8.75767
4.416, 5, 8.97391, 15.5022, 31.6556, 12.823, -44.5895, -8.69566
4.42, 5, 8.92981, 15.5114, 31.6841, 12.7409, -44.6734, -8.63389
4.424, 5, 8.88569, 15.5207, 31.7125, 12.6591, -44.7574, -8.57235
4.428, 5, 8.84155, 15.5301, 31.7407, 12.5775, -44.8414, -8.51104
4.432, 5, 8.79739, 15.5396, 31.7688, 12.4961, -44.9255, -8.44996
4.436, 5, 8.75321, 15.5492, 31.7969, 12.4149, -45.0096, -8.38911
4.44, 5, 8.70901, 15.559, 31.8248, 12.334, -45.0938, -8.32849
4.444, 5, 8.66479, 15.5688, 31.8526, 12.2533, -45.178, -8.2681
4.448, 5, 8.62055, 15.5787, 31.8803, 12.1728, -45.2623, -8.20794
4.452, 5, 8.57629, 15.5887, 31.9079, 12.0925, -45.3466, -8.14801
4.456, 5, 8.53202, 15.5988, 31.9354, 12.0124, -45.431, -8.0883
4.46, 5, 8.48772, 15.6091, 31.9627, 11.9326, -45.5155, -8.02881
4.464, 5, 8.4434, 15.6194, 31.99, 11.8529, -45.5999, -7.96955
4.468, 5, 8.39907, 15.6298, 32.0171, 11.7735, -45.6845, -7.91051
4.472, 5, 8.35471, 15.6403, 32.0442, 11.6943, -45.7691, -7.85169
4.476, 5, 8.31034, 15.6509, 32.0711, 11.6153, -45.8537, -7.79309
4.48, 5, 8.26595, 15.6617, 32.0979, 11.5366, -45.9384, -7.73471
4.484, 5, 8.22154, 15.6725, 32.1246, 11.458, -46.0232, -7.67655
4.488, 5, 8.17711, 15.6834, 32.1512, 11.3797, -46.108, -7.61861
4.492, 5, 8.13266, 15.6944, 32.1777, 11.3015, -46.1928, -7.56088
4.496, 5, 8.08819, 15.7055, 32.2041, 11.2236, -46.2777, -7.50338
4.5, 5, 8.04371, 15.7168, 32.2304, 11.1459, -46.3626, -7.44608
4.504, 5, 7.99921, 15.7281, 32.2566, 11.0683, -46.4476, -7.389
4.508, 5, 7.95469, 15.7395, 32.2826, 10.991, -46.5327, -7.33214
4.512, 5, 7.91015, 15.751, 32.3085, 10.9139, -46.6177, -7.27548
4.516, 5, 7.86559, 15.7627, 32.3344, 10.837, -46.7029, -7.21904
4.52, 5, 7.82101, 15.7744, 32.3601, 10.7603, -46.788, -7.16281
4.524, 5, 7.77642, 15.7862, 32.3857, 10.6838, -46.8733, -7.10679
4.528, 5, 7.73181, 15.7981, 32.4112, 10.6075, -46.9585, -7.05097
4.532, 5, 7.68718, 15.8101, 32.4366, 10.5315, -47.0438, -6.99537
4.536, 5, 7.64253, 15.8223, 32.4619, 10.4556, -47.1292, -6.93997
4.54, 5, 7.59787, 15.8345, 32.487, 10.3799, -47.2146, -6.88478
4.544, 5, 7.55319, 15.8468, 32.5121, 10.3044, -47.3001, -6.8298
4.548, 5, 7.50849, 15.8592, 32.537, 10.2291, -47.3855, -6.77502
4.552, 5, 7.46377, 15.8718, 32.5619, 10.154, -47.4711, -6.72045
4.556, 5, 7.41903, 15.8844, 32.5866, 10.0791, -47.5567, -6.66608
4.56, 5, 7.37428, 15.8971, 32.6112, 10.0044, -47.6423, -6.61191
4.564, 5, 7.32951, 15.9099, 32.6357, 9.9299, -47.728, -6.55794
4.568, 5, 7.28473, 15.9228, 32.6601, 9.85558, -47.8137, -6.50418
4.572, 5, 7.23992, 15.9359, 32.6844, 9.78146, -47.8994, -6.45062
4.576, 5, 7.1951, 15.949, 32.7085, 9.70754, -47.9852, -6.39725
4.58, 5, 7.15027, 15.9622, 32.7326, 9.6338, -48.0711, -6.34409
4.584, 5, 7.10541, 15.9755, 32.7565, 9.56026, -48.1569, -6.29112
4.588, 5, 7.06054, 15.989, 32.7804, 9.48691, -48.2428, -6.23835
4.592, 5, 7.01565, 16.0025, 32.8041, 9.41375, -48.3288, -6.18578
4.596, 5, 6.97075, 16.0161, 32.8277, 9.34078, -48.4148, -6.13341
4.6, 5, 6.92583, 16.0298, 32.8512, 9.26799, -48.5009, -6.08123
4.604, 5, 6.88089, 16.0437, 32.8746, 9.1954, -48.5869, -6.02924
4.608, 5, 6.83594, 16.0576, 32.8978, 9.12299, -48.6731, -5.97745
4.612, 5, 6.79097, 16.0716, 32.921, 9.05077, -48.7592, -5.92585
4.616, 5, 6.74598, 16.0857, 32.944, 8.97873, -48.8454, -5.87445
4.62, 5, 6.70098, 16.1, 32.967, 8.90688, -48.9317, -5.82324
4.624, 5, 6.65596, 16.1143, 32.9898, 8.83521, -49.018, -5.77222
4.628, 5, 6.61092, 16.1287, 33.0125, 8.76373, -49.1043, -5.72139
4.632, 5, 6.56587, 16.1432, 33.0351, 8.69243, -49.1906, -5.67075
4.636, 5, 6.52081, 16.1579, 33.0576, 8.62131, -49.277, -5.6203
4.64, 5, 6.47573, 16.1726, 33.08, 8.55037, -49.3635, -5.57003
4.644, 5, 6.43063, 16.1874, 33.1022, 8.47962, -49.45, -5.51996
4.648, 5, 6.38551, 16.2023, 33.1244, 8.40904, -49.5365, -5.47007
4.652, 5, 6.34039, 16.2174, 33.1464, 8.33864, -49.623, -5.42036
4.656, 5, 6.29524, 16.2325, 33.1683, 8.26842, -49.7096, -5.37084
4.66, 5, 6.25008, 16.2477, 33.1901, 8.19838, -49.7962, -5.32151
4.664, 5, 6.20491, 16.263, 33.2118, 8.12851, -49.8829, -5.27235
4.668, 5, 6.15972, 16.2785, 33.2334, 8.05881, -49.9696, -5.22338
4.672, 5, 6.11452, 16.294, 33.2549, 7.98929, -50.0563, -5.17459
4.676, 5, 6.0693, 16.3096, 33.2762, 7.91994, -50.143, -5.12598
4.68, 5, 6.02407, 16.3253, 33.2975, 7.85077, -50.2298, -5.07754
4.684, 5, 5.97882, 16.3412, 33.3186, 7.78176, -50.3167, -5.02929
4.688, 5, 5.93356, 16.3571, 33.3396, 7.71293, -50.4035, -4.98121
4.692, 5, 5.88829, 16.3731, 33.3605, 7.64426, -50.4904, -4.93331
4.696, 5, 5.843, 16.3892, 33.3813, 7.57577, -50.5773, -4.88558
4.7, 5, 5.79769, 16.4055, 33.402, 7.50744, -50.6643, -4.83803
4.704, 5, 5.75238, 16.4218, 33.4225, 7.43928, -50.7513, -4.79065
4.708, 5, 5.70705, 16.4382, 33.443, 7.37128, -50.8383, -4.74345
4.712, 5, 5.6617, 16.4547, 33.4633, 7.30345, -50.9253, -4.69641
4.716, 5, 5.61634, 16.4713, 33.4835, 7.23579, -51.0124, -4.64955
4.72, 5, 5.57097, 16.488, 33.5036, 7.16829, -51.0995, -4.60286
4.724, 5, 5.52559, 16.5048, 33.5236, 7.10095, -51.1867, -4.55634
4.728, 5, 5.48019, 16.5218, 33.5435, 7.03377, -51.2738, -4.50998
4.732, 5, 5.43478, 16.5388, 33.5633, 6.96676, -51.361, -4.4638
4.736, 5, 5.38936, 16.5559, 33.5829, 6.8999, -51.4482, -4.41778
4.74, 5, 5.34393, 16.5731, 33.6024, 6.83321, -51.5355, -4.37193
4.744, 5, 5.29848, 16.5904, 33.6219, 6.76668, -51.6228, -4.32624
4.748, 5, 5.25302, 16.6078, 33.6412, 6.7003, -51.7101, -4.28072
4.752, 5, 5.20755, 16.6252, 33.6604, 6.63409, -51.7974, -4.23537
4.756, 5, 5.16206, 16.6428, 33.6794, 6.56803, -51.8848, -4.19017
4.76, 5, 5.11657, 16.6605, 33.6984, 6.50212, -51.9721, -4.14514
4.764, 5, 5.07106, 16.6783, 33.7173, 6.43638, -52.0596, -4.10027
4.768, 5, 5.02554, 16.6962, 33.736, 6.37078, -52.147, -4.05556
4.772, 5, 4.98001, 16.7142, 33.7546, 6.30535, -52.2344, -4.01102
4.776, 5, 4.93447, 16.7322, 33.7731, 6.24006, -52.3219, -3.96663
4.78, 5, 4.88892, 16.7504, 33.7915, 6.17493, -52.4094, -3.9224
4.784, 5, 4.84335, 16.7687, 33.8098, 6.10995, -52.497, -3.87833
4.788, 5, 4.79778, 16.787, 33.828, 6.04513, -52.5845, -3.83442
4.792, 5, 4.75219, 16.8055, 33.8461, 5.98045, -52.6721, -3.79067
4.796, 5, 4.7066, 16.824, 33.864, 5.91593, -52.7597, -3.74707
4.8, 5, 4.66099, 16.8427, 33.8818, 5.85155, -52.8473, -3.70362
4.804, 5, 4.61537, 16.8614, 33.8995, 5.78733, -52.935, -3.66034
4.808, 5, 4.56974, 16.8803, 33.9171, 5.72325, -53.0226, -3.6172
4.812, 5, 4.5241, 16.8992, 33.9346, 5.65932, -53.1103, -3.57422
4.816, 5, 4.47846, 16.9182, 33.952, 5.59554, -53.198, -3.5314
4.82, 5, 4.4328, 16.9374, 33.9692, 5.5319, -53.2857, -3.48872
4.824, 5, 4.38713, 16.9566, 33.9864, 5.46841, -53.3735, -3.4462
4.828, 5, 4.34145, 16.9759, 34.0034, 5.40507, -53.4613, -3.40382
4.832, 5, 4.29576, 16.9953, 34.0203, 5.34187, -53.549, -3.3616
4.836, 5, 4.25006, 17.0148, 34.0371, 5.27881, -53.6369, -3.31953
4.84, 5, 4.20435, 17.0344, 34.0538, 5.2159, -53.7247, -3.27761
4.844, 5, 4.15864, 17.0541, 34.0704, 5.15313, -53.8125, -3.23583
4.848, 5, 4.11291, 17.0739, 34.0868, 5.09051, -53.9004, -3.1942
4.852, 5, 4.06718, 17.0938, 34.1032, 5.02802, -53.9883, -3.15272
4.856, 5, 4.02143, 17.1137, 34.1194, 4.96568, -54.0762, -3.11139
4.86, 5, 3.97568, 17.1338, 34.1355, 4.90347, -54.1641, -3.0702
4.864, 5, 3.92991, 17.154, 34.1515, 4.84141, -54.252, -3.02916
4.868, 5, 3.88414, 17.1742, 34.1674, 4.77948, -54.34, -2.98826
4.872, 5, 3.83836, 17.1946, 34.1832, 4.7177, -54.4279, -2.94751
4.876, 5, 3.79258, 17.215, 34.1988, 4.65605, -54.5159, -2.9069
4.88, 5, 3.74678, 17.2356, 34.2144, 4.59454, -54.6039, -2.86643
4.884, 5, 3.70097, 17.2562, 34.2298, 4.53317, -54.6919, -2.82611
4.888, 5, 3.65516, 17.2769, 34.2451, 4.47194, -54.78, -2.78593
4.892, 5, 3.60934, 17.2978, 34.2603, 4.41084, -54.868, -2.74588
4.896, 5, 3.56351, 17.3187, 34.2754, 4.34987, -54.9561, -2.70598
4.9, 5, 3.51767, 17.3397, 34.2903, 4.28904, -55.0441, -2.66622
4.904, 5, 3.47183, 17.3608, 34.3052, 4.22835, -55.1322, -2.6266
4.908, 5, 3.42598, 17.382, 34.3199, 4.16779, -55.2203, -2.58712
4.912, 5, 3.38012, 17.4033, 34.3345, 4.10736, -55.3084, -2.54777
4.916, 5, 3.33425, 17.4247, 34.349, 4.04707, -55.3966, -2.50857
4.92, 5, 3.28837, 17.4461, 34.3634, 3.9869, -55.4847, -2.4695
4.924, 5, 3.24249, 17.4677, 34.3777, 3.92687, -55.5728, -2.43057
4.928, 5, 3.1966, 17.4894, 34.3918, 3.86697, -55.661, -2.39177
4.932, 5, 3.1507, 17.5111, 34.4058, 3.8072, -55.7492, -2.35311
4.936, 5, 3.1048, 17.533, 34.4198, 3.74757, -55.8374, -2.31458
4.94, 5, 3.05889, 17.5549, 34.4336, 3.68806, -55.9256, -2.27619
4.944, 5, 3.01297, 17.5769, 34.4473, 3.62868, -56.0138, -2.23794
4.948, 5, 2.96705, 17.5991, 34.4608, 3.56943, -56.102, -2.19981
4.952, 5, 2.92112, 17.6213, 34.4743, 3.5103, -56.1902, -2.16182
4.956, 5, 2.87518, 17.6436, 34.4876, 3.45131, -56.2785, -2.12397
4.96, 5, 2.82924, 17.666, 34.5008, 3.39244, -56.3667, -2.08624
4.964, 5, 2.78329, 17.6885, 34.514, 3.3337, -56.455, -2.04865
4.968, 5, 2.73733, 17.7111, 34.5269, 3.27509, -56.5432, -2.01118
4.972, 5, 2.69137, 17.7338, 34.5398, 3.2166, -56.6315, -1.97385
4.976, 5, 2.6454, 17.7565, 34.5526, 3.15823, -56.7198, -1.93665
4.98, 5, 2.59942, 17.7794, 34.5652, 3.09999, -56.8081, -1.89958
4.984, 5, 2.55344, 17.8024, 34.5777, 3.04188, -56.8964, -1.86263
4.988, 5, 2.50746, 17.8254, 34.5901, 2.98389, -56.9847, -1.82582
4.992, 5, 2.46146, 17.8486, 34.6024, 2.92602, -57.073, -1.78913
4.996, 5, 2.41547, 17.8718, 34.6146, 2.86828, -57.1614, -1.75257
5, 5, 2.36946, 17.8951, 34.6267, 2.81066, -57.2497, -1.71613
5.004, 5, 2.32346, 17.9185, 34.6386, 2.75316, -57.338, -1.67983
5.008, 5, 2.27744, 17.942, 34.6504, 2.69578, -57.4264, -1.64365
5.012, 5, 2.23143, 17.9656, 34.6621, 2.63852, -57.5147, -1.60759
5.016, 5, 2.1854, 17.9893, 34.6737, 2.58139, -57.6031, -1.57166
5.02, 5, 2.13938, 18.0131, 34.6852, 2.52437, -57.6915, -1.53586
5.024, 5, 2.09334, 18.037, 34.6965, 2.46748, -57.7798, -1.50018
5.028, 5, 2.04731, 18.061, 34.7078, 2.4107, -57.8682, -1.46462
5.032, 5, 2.00127, 18.085, 34.7189, 2.35404, -57.9566, -1.42919
5.036, 5, 1.95522, 18.1092, 34.7299, 2.2975, -58.045, -1.39387
5.04, 5, 1.90917, 18.1334, 34.7408, 2.24108, -58.1334, -1.35869
5.044, 5, 1.86312, 18.1577, 34.7515, 2.18478, -58.2218, -1.32362
5.048, 5, 1.81706, 18.1822, 34.7622, 2.12859, -58.3102, -1.28867
5.052, 5, 1.771, 18.2067, 34.7727, 2.07252, -58.3985, -1.25385
5.056, 5, 1.72493, 18.2313, 34.7831, 2.01657, -58.4869, -1.21914
5.06, 5, 1.67886, 18.256, 34.7934, 1.96073, -58.5753, -1.18455
5.064, 5, 1.63279, 18.2808, 34.8036, 1.90501, -58.6637, -1.15009
5.068, 5, 1.58672, 18.3056, 34.8136, 1.8494, -58.7522, -1.11574
5.072, 5, 1.54064, 18.3306, 34.8235, 1.79391, -58.8406, -1.08151
5.076, 5, 1.49456, 18.3556, 34.8334, 1.73853, -58.929, -1.04739
5.08, 5, 1.44847, 18.3808, 34.8431, 1.68326, -59.0174, -1.01339
5.084, 5, 1.40238, 18.406, 34.8526, 1.62811, -59.1058, -0.979513
5.088, 5, 1.35629, 18.4313, 34.8621, 1.57307, -59.1942, -0.945746
5.092, 5, 1.3102, 18.4567, 34.8714, 1.51814, -59.2826, -0.912095
5.096, 5, 1.2641, 18.4822, 34.8807, 1.46332, -59.371, -0.878558
5.1, 5, 1.21801, 18.5078, 34.8898, 1.40861, -59.4594, -0.845135
5.104, 5, 1.17191, 18.5335, 34.8988, 1.35401, -59.5478, -0.811825
5.108, 5, 1.12581, 18.5593, 34.9077, 1.29952, -59.6362, -0.778627
5.112, 5, 1.0797, 18.5851, 34.9164, 1.24514, -59.7246, -0.745542
5.116, 5, 1.0336, 18.611, 34.9251, 1.19087, -59.813, -0.712568
5.12, 5, 0.987488, 18.6371, 34.9336, 1.13671, -59.9014, -0.679705
5.124, 5, 0.941379, 18.6632, 34.942, 1.08265, -59.9898, -0.646953
5.128, 5, 0.895269, 18.6894, 34.9503, 1.02871, -60.0782, -0.61431
5.132, 5, 0.849169, 18.7156, 34.9585, 0.974864, -60.1665, -0.581777
5.136, 5, 0.80314, 18.742, 34.9665, 0.921129, -60.2549, -0.549354
5.14, 5, 0.757318, 18.7683, 34.9745, 0.867504, -60.3433, -0.517041
5.144, 5, 0.711906, 18.7946, 34.9823, 0.813999, -60.4316, -0.484849
5.148, 5, 0.667112, 18.8207, 34.9901, 0.760644, -60.5199, -0.452794
5.152, 5, 0.623112, 18.8465, 34.9978, 0.707497, -60.6079, -0.420912
5.156, 5, 0.580047, 18.8718, 35.0055, 0.654655, -60.6956, -0.389262
5.16, 5, 0.538014, 18.8967, 35.013, 0.602261, -60.7827, -0.357928
5.164, 5, 0.497058, 18.9209, 35.0205, 0.550506, -60.8689, -0.327021
5.168, 5, 0.4572, 18.9445, 35.0277, 0.499624, -60.9538, -0.296677
5.172, 5, 0.4185, 18.9673, 35.0348, 0.449889, -61.0369, -0.267057
5.176, 5, 0.381102, 18.9893, 35.0417, 0.4016, -61.1177, -0.238333
5.18, 5, 0.345212, 19.0104, 35.0483, 0.355076, -61.1956, -0.210691
5.184, 5, 0.311037, 19.0305, 35.0545, 0.310648, -61.2701, -0.184323
5.188, 5, 0.278704, 19.0494, 35.0604, 0.26865, -61.3406, -0.159421
5.192, 5, 0.248243, 19.0673, 35.0658, 0.229401, -61.4066, -0.136167
5.196, 5, 0.219626, 19.0841, 35.0707, 0.193188, -61.4676, -0.114724
5.2, 5, 0.192812, 19.1, 35.0751, 0.160241, -61.5231, -0.0952213
5.204, 5, 0.167776, 19.1148, 35.0788, 0.13071, -61.5729, -0.077743
5.208, 5, 0.144518, 19.1287, 35.082, 0.10466, -61.6169, -0.0623216
5.212, 5, 0.12309, 19.1416, 35.0846, 0.0820551, -61.6551, -0.0489352
5.216, 5, 0.103583, 19.1534, 35.0867, 0.062775, -61.6877, -0.0375106
5.22, 5, 0.0860673, 19.1641, 35.0883, 0.0466235, -61.7151, -0.0279325
5.224, 5, 0.0705271, 19.1736, 35.0895, 0.03335, -61.7376, -0.0200529
5.228, 5, 0.0568397, 19.1819, 35.0903, 0.0226663, -61.7557, -0.0137018
5.232, 5, 0.0448239, 19.1892, 35.0909, 0.0142595, -61.77, -0.0086946
5.236, 5, 0.0343137, 19.1955, 35.0912, 0.007803, -61.781, -0.00483926
5.24, 5, 0.0252052, 19.2008, 35.0913, 0.00296847, -61.7893, -0.00194324
5.244, 5, 0.0174441, 19.2052, 35.0913, -0.000560432, -61.7953, 0.000178676
5.248, 5, 0.010989, 19.2087, 35.0912, -0.00307466, -61.7996, 0.00169687
5.252, 5, 0.00579124, 19.2115, 35.0911, -0.00482878, -61.8026, 0.00276061
5.256, 5, 0.0017806, 19.2136, 35.091, -0.00603363, -61.8046, 0.00349395
5.26, 5, -0.00117654, 19.2151, 35.0909, -0.00685366, -61.806, 0.00399433
5.264, 5, -0.00332642, 19.2161, 35.0908, -0.0074101, -61.807, 0.00433461
5.268, 5, -0.00502457, 19.2169, 35.0908, -0.00779062, -61.8077, 0.00456857
5.272, 5, -0.0066658, 19.2177, 35.0907, -0.00806444, -61.8081, 0.00473948
5.276, 5, -0.00860261, 19.2185, 35.0906, -0.00830003, -61.8085, 0.00489003
5.28, 5, -0.0111118, 19.2197, 35.0905, -0.00858206, -61.809, 0.00507196
5.284, 5, -0.0144036, 19.2213, 35.0903, -0.00902516, -61.8098, 0.00535402
5.288, 5, -0.0186271, 19.2235, 35.0901, -0.00978334, -61.8111, 0.00582741
5.292, 5, -0.0238693, 19.2264, 35.0899, -0.0110546, -61.8133, 0.00660835
5.296, 5, -0.0301869, 19.2301, 35.0897, -0.0130802, -61.8168, 0.00783765
5.3, 6, -0.0376689, 19.2348, 35.0896, -0.0161383, -61.8221, 0.00967747
5.304, 6, -0.0464785, 19.2406, 35.0896, -0.0205362, -61.8296, 0.0123068
5.308, 6, -0.0568334, 19.2477, 35.0897, -0.026602, -61.84, 0.0159169
5.312, 6, -0.0689324, 19.2561, 35.0901, -0.0346777, -61.8539, 0.0207061
5.316, 6, -0.0828867, 19.2658, 35.0907, -0.0451083, -61.8717, 0.0268734
5.32, 6, -0.098709, 19.2767, 35.0917, -0.0582249, -61.8942, 0.0346082
5.324, 6, -0.116362, 19.2885, 35.0931, -0.0743214, -61.9218, 0.0440776
5.328, 6, -0.135806, 19.3011, 35.0949, -0.0936302, -61.9549, 0.0554127
5.332, 6, -0.157021, 19.3144, 35.0972, -0.116302, -61.9937, 0.0686976
5.336, 6, -0.180019, 19.3283, 35.1, -0.142395, -62.0385, 0.0839624
5.34, 6, -0.204865, 19.343, 35.1033, -0.171869, -62.0891, 0.101181
5.344, 6, -0.231653, 19.3586, 35.107, -0.204594, -62.1453, 0.120277
5.348, 6, -0.260439, 19.3752, 35.111, -0.240365, -62.2067, 0.14113
5.352, 6, -0.291182, 19.3932, 35.1154, -0.278924, -62.2731, 0.163585
5.356, 6, -0.323738, 19.4124, 35.1199, -0.319972, -62.3438, 0.187469
5.36, 6, -0.35793, 19.4329, 35.1247, -0.363185, -62.4183, 0.212588
5.364, 6, -0.393621, 19.4547, 35.1296, -0.408225, -62.4961, 0.238745
5.368, 6, -0.430738, 19.4777, 35.1345, -0.454752, -62.5765, 0.265741
5.372, 6, -0.469246, 19.5018, 35.1394, -0.502444, -62.6591, 0.293387
5.376, 6, -0.509103, 19.5269, 35.1443, -0.551007, -62.7433, 0.321513
5.38, 6, -0.550255, 19.553, 35.149, -0.60019, -62.8287, 0.34997
5.384, 6, -0.59261, 19.5799, 35.1536, -0.649788, -62.915, 0.378638
5.388, 6, -0.636011, 19.6074, 35.1581, -0.699646, -63.0019, 0.407425
5.392, 6, -0.680235, 19.6355, 35.1624, -0.749651, -63.0892, 0.436265
5.396, 6, -0.725053, 19.6641, 35.1666, -0.799725, -63.1767, 0.46511
5.4, 6, -0.770277, 19.6929, 35.1707, -0.849817, -63.2645, 0.493928
5.404, 6, -0.815776, 19.7219, 35.1746, -0.89989, -63.3523, 0.522698
5.408, 6, -0.86146, 19.7511, 35.1784, -0.949921, -63.4402, 0.551405
5.412, 6, -0.907268, 19.7805, 35.1821, -0.999893, -63.5282, 0.58004
5.416, 6, -0.953159, 19.81, 35.1857, -1.0498, -63.6161, 0.608595
5.42, 6, -0.999105, 19.8396, 35.1891, -1.09962, -63.7041, 0.637068
5.424, 6, -1.04509, 19.8693, 35.1924, -1.14937, -63.7921, 0.665455
5.428, 6, -1.09109, 19.8991, 35.1956, -1.19902, -63.8801, 0.693753
5.432, 6, -1.13711, 19.929, 35.1987, -1.2486, -63.9681, 0.721964
5.436, 6, -1.18314, 19.959, 35.2017, -1.29808, -64.0561, 0.750084
5.44, 6, -1.22918, 19.989, 35.2045, -1.34748, -64.144, 0.778115
5.444, 6, -1.27521, 20.0192, 35.2073, -1.39678, -64.232, 0.806056
5.448, 6, -1.32124, 20.0494, 35.2099, -1.446, -64.3199, 0.833908
5.452, 6, -1.36728, 20.0797, 35.2123, -1.49513, -64.4078, 0.86167
5.456, 6, -1.41331, 20.1101, 35.2147, -1.54417, -64.4957, 0.889343
5.46, 6, -1.45933, 20.1406, 35.217, -1.59311, -64.5836, 0.916927
5.464, 6, -1.50536, 20.1712, 35.2191, -1.64198, -64.6715, 0.944423
5.468, 6, -1.55137, 20.2018, 35.2211, -1.69075, -64.7593, 0.971831
5.472, 6, -1.59739, 20.2325, 35.223, -1.73943, -64.8471, 0.999151
5.476, 6, -1.6434, 20.2633, 35.2247, -1.78803, -64.9349, 1.02638
5.48, 6, -1.6894, 20.2942, 35.2264, -1.83654, -65.0227, 1.05353
5.484, 6, -1.7354, 20.3252, 35.2279, -1.88497, -65.1104, 1.08059
5.488, 6, -1.7814, 20.3562, 35.2293, -1.9333, -65.1982, 1.10756
5.492, 6, -1.82739, 20.3873, 35.2306, -1.98155, -65.2859, 1.13445
5.496, 6, -1.87337, 20.4185, 35.2318, -2.02972, -65.3736, 1.16125
5.5, 6, -1.91935, 20.4498, 35.2328, -2.0778, -65.4613, 1.18797
5.504, 6, -1.96532, 20.4811, 35.2338, -2.12579, -65.5489, 1.2146
5.508, 6, -2.01129, 20.5125, 35.2346, -2.1737, -65.6365, 1.24115
5.512, 6, -2.05725, 20.544, 35.2353, -2.22152, -65.7241, 1.26762
5.516, 6, -2.1032, 20.5756, 35.2359, -2.26926, -65.8117, 1.294
5.52, 6, -2.14915, 20.6073, 35.2363, -2.31691, -65.8993, 1.32029
5.524, 6, -2.19509, 20.639, 35.2366, -2.36448, -65.9868, 1.34651
5.528, 6, -2.24102, 20.6708, 35.2369, -2.41196, -66.0743, 1.37264
5.532, 6, -2.28695, 20.7027, 35.237, -2.45937, -66.1618, 1.39869
5.536, 6, -2.33288, 20.7347, 35.2369, -2.50668, -66.2493, 1.42466
5.54, 6, -2.37879, 20.7667, 35.2368, -2.55392, -66.3367, 1.45055
5.544, 6, -2.4247, 20.7989, 35.2365, -2.60106, -66.4241, 1.47636
5.548, 6, -2.4706, 20.8311, 35.2361, -2.64813, -66.5115, 1.50209
5.552, 6, -2.51649, 20.8633, 35.2356, -2.69512, -66.5989, 1.52773
5.556, 6, -2.56238, 20.8957, 35.235, -2.74202, -66.6862, 1.5533
5.56, 6, -2.60826, 20.9281, 35.2343, -2.78884, -66.7735, 1.57879
5.564, 6, -2.65413, 20.9606, 35.2334, -2.83557, -66.8608, 1.6042
5.568, 6, -2.69999, 20.9932, 35.2325, -2.88223, -66.9481, 1.62953
5.572, 6, -2.74585, 21.0258, 35.2314, -2.9288, -67.0353, 1.65478
5.576, 6, -2.7917, 21.0585, 35.2301, -2.9753, -67.1225, 1.67995
5.58, 6, -2.83754, 21.0913, 35.2288, -3.02171, -67.2097, 1.70505
5.584, 6, -2.88337, 21.1242, 35.2274, -3.06804, -67.2968, 1.73007
5.588, 6, -2.9292, 21.1571, 35.2258, -3.11429, -67.384, 1.75501
5.592, 6, -2.97501, 21.1902, 35.2241, -3.16046, -67.4711, 1.77988
5.596, 6, -3.02082, 21.2232, 35.2223, -3.20654, -67.5581, 1.80466
5.6, 6, -3.06662, 21.2564, 35.2204, -3.25255, -67.6451, 1.82938
5.604, 6, -3.11241, 21.2896, 35.2183, -3.29848, -67.7322, 1.85402
5.608, 6, -3.15819, 21.3229, 35.2161, -3.34433, -67.8191, 1.87858
5.612, 6, -3.20396, 21.3563, 35.2138, -3.3901, -67.9061, 1.90307
5.616, 6, -3.24972, 21.3898, 35.2114, -3.43579, -67.993, 1.92748
5.62, 6, -3.29547, 21.4233, 35.2089, -3.4814, -68.0799, 1.95182
5.624, 6, -3.34122, 21.4569, 35.2063, -3.52694, -68.1667, 1.97608
5.628, 6, -3.38695, 21.4906, 35.2035, -3.57239, -68.2535, 2.00028
5.632, 6, -3.43268, 21.5243, 35.2006, -3.61777, -68.3403, 2.0244
5.636, 6, -3.47839, 21.5581, 35.1976, -3.66307, -68.4271, 2.04844
5.64, 6, -3.5241, 21.592, 35.1945, -3.70829, -68.5138, 2.07242
5.644, 6, -3.56979, 21.626, 35.1913, -3.75343, -68.6005, 2.09632
5.648, 6, -3.61548, 21.66, 35.1879, -3.79849, -68.6872, 2.12015
5.652, 6, -3.66116, 21.6941, 35.1844, -3.84348, -68.7738, 2.14391
5.656, 6, -3.70682, 21.7283, 35.1808, -3.88839, -68.8604, 2.1676
5.66, 6, -3.75248, 21.7625, 35.1771, -3.93323, -68.947, 2.19121
5.664, 6, -3.79812, 21.7968, 35.1733, -3.97799, -69.0335, 2.21476
5.668, 6, -3.84376, 21.8312, 35.1693, -4.02267, -69.12, 2.23824
5.672, 6, -3.88938, 21.8656, 35.1652, -4.06727, -69.2065, 2.26164
5.676, 6, -3.93499, 21.9002, 35.1611, -4.1118, -69.2929, 2.28498
5.68, 6, -3.98059, 21.9347, 35.1567, -4.15626, -69.3793, 2.30825
5.684, 6, -4.02619, 21.9694, 35.1523, -4.20064, -69.4657, 2.33145
5.688, 6, -4.07176, 22.0041, 35.1478, -4.24494, -69.552, 2.35458
5.692, 6, -4.11733, 22.0389, 35.1431, -4.28917, -69.6383, 2.37765
5.696, 6, -4.16289, 22.0738, 35.1383, -4.33332, -69.7245, 2.40064
5.7, 6, -4.20844, 22.1087, 35.1334, -4.3774, -69.8107, 2.42357
5.704, 6, -4.25397, 22.1437, 35.1284, -4.42141, -69.8969, 2.44643
5.708, 6, -4.29949, 22.1788, 35.1232, -4.46534, -69.9831, 2.46923
5.712, 6, -4.345, 22.2139, 35.118, -4.50919, -70.0692, 2.49196
5.716, 6, -4.3905, 22.2491, 35.1126, -4.55297, -70.1553, 2.51462
5.72, 6, -4.43599, 22.2844, 35.1071, -4.59668, -70.2413, 2.53722
5.724, 6, -4.48146, 22.3197, 35.1015, -4.64032, -70.3273, 2.55975
5.728, 6, -4.52693, 22.3551, 35.0958, -4.68388, -70.4132, 2.58222
5.732, 6, -4.57238, 22.3906, 35.0899, -4.72737, -70.4992, 2.60462
5.736, 6, -4.61782, 22.4262, 35.0839, -4.77079, -70.5851, 2.62695
5.74, 6, -4.66324, 22.4618, 35.0778, -4.81413, -70.6709, 2.64923
5.744, 6, -4.70865, 22.4974, 35.0716, -4.8574, -70.7567, 2.67144
5.748, 6, -4.75405, 22.5332, 35.0653, -4.9006, -70.8425, 2.69358
5.752, 6, -4.79944, 22.569, 35.0588, -4.94373, -70.9282, 2.71567
5.756, 6, -4.84481, 22.6048, 35.0523, -4.98678, -71.0139, 2.73769
5.76, 6, -4.89018, 22.6408, 35.0456, -5.02977, -71.0995, 2.75964
5.764, 6, -4.93552, 22.6768, 35.0388, -5.07268, -71.1852, 2.78154
5.768, 6, -4.98086, 22.7128, 35.0319, -5.11552, -71.2707, 2.80337
5.772, 6, -5.02618, 22.749, 35.0248, -5.15829, -71.3562, 2.82514
5.776, 6, -5.07149, 22.7852, 35.0177, -5.20099, -71.4417, 2.84685
5.78, 6, -5.11678, 22.8214, 35.0104, -5.24362, -71.5272, 2.8685
5.784, 6, -5.16206, 22.8578, 35.003, -5.28618, -71.6126, 2.89009
5.788, 6, -5.20733, 22.8942, 34.9955, -5.32867, -71.698, 2.91162
5.792, 6, -5.25258, 22.9306, 34.9878, -5.37109, -71.7833, 2.93309
5.796, 6, -5.29782, 22.9671, 34.9801, -5.41344, -71.8686, 2.9545
5.8, 6, -5.34304, 23.0037, 34.9722, -5.45572, -71.9538, 2.97585
5.804, 6, -5.38826, 23.0404, 34.9642, -5.49793, -72.039, 2.99714
5.808, 6, -5.43345, 23.0771, 34.9561, -5.54007, -72.1241, 3.01837
5.812, 6, -5.47863, 23.1138, 34.9479, -5.58214, -72.2092, 3.03954
5.816, 6, -5.5238, 23.1507, 34.9395, -5.62414, -72.2943, 3.06066
5.82, 6, -5.56895, 23.1876, 34.931, -5.66608, -72.3793, 3.08171
5.824, 6, -5.61409, 23.2246, 34.9225, -5.70794, -72.4643, 3.10271
5.828, 6, -5.65921, 23.2616, 34.9138, -5.74974, -72.5492, 3.12365
5.832, 6, -5.70432, 23.2987, 34.9049, -5.79147, -72.6341, 3.14454
5.836, 6, -5.74942, 23.3358, 34.896, -5.83313, -72.719, 3.16537
5.84, 6, -5.79449, 23.373, 34.8869, -5.87472, -72.8038, 3.18614
5.844, 6, -5.83956, 23.4103, 34.8778, -5.91625, -72.8885, 3.20686
5.848, 6, -5.8846, 23.4476, 34.8685, -5.95771, -72.9732, 3.22752
5.852, 6, -5.92964, 23.485, 34.859, -5.9991, -73.0579, 3.24812
5.856, 6, -5.97465, 23.5225, 34.8495, -6.04043, -73.1425, 3.26867
5.86, 6, -6.01965, 23.56, 34.8399, -6.08169, -73.2271, 3.28916
5.864, 6, -6.06464, 23.5976, 34.8301, -6.12288, -73.3116, 3.3096
5.868, 6, -6.10961, 23.6353, 34.8202, -6.164, -73.3961, 3.32999
5.872, 6, -6.15456, 23.673, 34.8102, -6.20506, -73.4805, 3.35032
5.876, 6, -6.1995, 23.7107, 34.8001, -6.24606, -73.5649, 3.3706
5.88, 6, -6.24442, 23.7486, 34.7898, -6.28698, -73.6493, 3.39082
5.884, 6, -6.28932, 23.7864, 34.7794, -6.32785, -73.7336, 3.411
5.888, 6, -6.33421, 23.8244, 34.769, -6.36864, -73.8178, 3.43111
5.892, 6, -6.37909, 23.8624, 34.7584, -6.40938, -73.902, 3.45118
5.896, 6, -6.42394, 23.9005, 34.7476, -6.45004, -73.9861, 3.47119
5.9, 6, -6.46878, 23.9386, 34.7368, -6.49064, -74.0703, 3.49115
5.904, 6, -6.5136, 23.9768, 34.7258, -6.53118, -74.1543, 3.51107
5.908, 6, -6.55841, 24.015, 34.7148, -6.57165, -74.2383, 3.53092
5.912, 6, -6.6032, 24.0533, 34.7036, -6.61206, -74.3223, 3.55073
5.916, 6, -6.64797, 24.0917, 34.6922, -6.6524, -74.4062, 3.57049
5.92, 6, -6.69272, 24.1301, 34.6808, -6.69268, -74.49, 3.59019
5.924, 6, -6.73746, 24.1686, 34.6693, -6.7329, -74.5738, 3.60985
5.928, 6, -6.78218, 24.2071, 34.6576, -6.77305, -74.6576, 3.62946
5.932, 6, -6.82688, 24.2458, 34.6458, -6.81314, -74.7413, 3.64901
5.936, 6, -6.87157, 24.2844, 34.6339, -6.85317, -74.8249, 3.66852
5.94, 6, -6.91624, 24.3231, 34.6219, -6.89313, -74.9085, 3.68798
