hehonglu123/ABB_Primitive_Study/execution/movel_smooth/curve_exe_v50_z20.csv
timestamp, cmd_num, J1, J2, J3, J4, J5, J6
0, -1, -17.7491, 35.9016, 27.5363, -15.3564, -94.4966, 7.85923
0.002, -1, -17.7491, 35.9016, 27.5363, -15.3564, -94.4966, 7.85923
0.006, -1, -17.7491, 35.9016, 27.5363, -15.3564, -94.4966, 7.85923
0.008, -1, -17.7491, 35.9016, 27.5363, -15.3564, -94.4966, 7.85923
0.011, -1, -17.7491, 35.9016, 27.5363, -15.3564, -94.4966, 7.85923
0.016, -1, -17.7491, 35.9016, 27.5363, -15.3564, -94.4966, 7.85923
0.02, -1, -17.7491, 35.9016, 27.5363, -15.3564, -94.4966, 7.85923
0.024, -1, -17.7491, 35.9016, 27.5363, -15.3564, -94.4966, 7.85923
0.028, -1, -17.7491, 35.9016, 27.5363, -15.3564, -94.4966, 7.85923
0.032, -1, -17.7491, 35.9016, 27.5363, -15.3564, -94.4966, 7.85923
0.036, -1, -17.749, 35.9016, 27.5363, -15.3564, -94.4966, 7.85923
0.04, -1, -17.7488, 35.9015, 27.5363, -15.3564, -94.4966, 7.85922
0.044, -1, -17.7482, 35.9013, 27.5363, -15.3564, -94.4966, 7.85921
0.048, -1, -17.7471, 35.9008, 27.5364, -15.3563, -94.4965, 7.85915
0.052, -1, -17.7453, 35.9, 27.5365, -15.3562, -94.4963, 7.85903
0.056, -1, -17.7428, 35.8988, 27.5367, -15.3558, -94.4958, 7.85875
0.06, -1, -17.7394, 35.8971, 27.5369, -15.3551, -94.4949, 7.85824
0.064, -1, -17.7351, 35.8948, 27.5372, -15.3539, -94.4934, 7.85735
0.068, -1, -17.7298, 35.892, 27.5374, -15.3519, -94.491, 7.85592
0.072, -1, -17.7233, 35.8884, 27.5377, -15.3489, -94.4872, 7.85373
0.076, -1, -17.7153, 35.884, 27.5379, -15.3445, -94.4817, 7.85055
0.08, -1, -17.7057, 35.8785, 27.5381, -15.3382, -94.474, 7.84608
0.084, -1, -17.6941, 35.8719, 27.5381, -15.3297, -94.4634, 7.83999
0.088, -1, -17.6802, 35.864, 27.538, -15.3184, -94.4494, 7.83193
0.092, -1, -17.6638, 35.8547, 27.5377, -15.3037, -94.4314, 7.82151
0.096, -1, -17.6449, 35.8439, 27.537, -15.2851, -94.4084, 7.80831
0.1, -1, -17.6232, 35.8316, 27.5359, -15.262, -94.3799, 7.79193
0.104, -1, -17.5984, 35.8175, 27.5344, -15.2337, -94.3452, 7.77197
0.108, -1, -17.5704, 35.8016, 27.5323, -15.1999, -94.3035, 7.74804
0.112, -1, -17.5389, 35.7838, 27.5296, -15.1599, -94.2544, 7.71981
0.116, -1, -17.504, 35.764, 27.5263, -15.1134, -94.1971, 7.68696
0.12, -1, -17.4656, 35.7423, 27.5223, -15.0599, -94.1314, 7.64925
0.124, -1, -17.4237, 35.7187, 27.5174, -14.9992, -94.0569, 7.60649
0.128, -1, -17.3785, 35.6931, 27.5118, -14.9313, -93.9734, 7.5586
0.131, -1, -17.3299, 35.6657, 27.5054, -14.856, -93.8809, 7.50556
0.136, -1, -17.2779, 35.6365, 27.4982, -14.7734, -93.7795, 7.44747
0.139, -1, -17.2225, 35.6054, 27.4903, -14.684, -93.6697, 7.38449
0.144, -1, -17.1638, 35.5724, 27.4817, -14.588, -93.5517, 7.3169
0.148, -1, -17.1017, 35.5375, 27.4724, -14.4858, -93.4263, 7.245
0.152, -1, -17.0365, 35.5009, 27.4626, -14.378, -93.2939, 7.16916
0.156, -1, -16.9683, 35.4626, 27.4524, -14.2653, -93.1554, 7.08978
0.16, -1, -16.8974, 35.4228, 27.4417, -14.1481, -93.0115, 7.0073
0.164, -1, -16.8239, 35.3815, 27.4308, -14.027, -92.8629, 6.92213
0.168, -1, -16.7481, 35.3389, 27.4196, -13.9028, -92.7103, 6.8347
0.172, -1, -16.6699, 35.2949, 27.4082, -13.776, -92.5546, 6.74543
0.176, -1, -16.5897, 35.2497, 27.3968, -13.6471, -92.3962, 6.65467
0.18, -1, -16.5077, 35.2034, 27.3854, -13.5166, -92.2358, 6.56273
0.184, -1, -16.424, 35.1561, 27.3739, -13.3847, -92.0739, 6.46989
0.188, -1, -16.3388, 35.1081, 27.3625, -13.2519, -91.9107, 6.37635
0.192, -1, -16.2526, 35.0593, 27.3511, -13.1184, -91.7466, 6.28227
0.196, -1, -16.1654, 35.0101, 27.3397, -12.9842, -91.5818, 6.18779
0.2, -1, -16.0774, 34.9604, 27.3284, -12.8497, -91.4165, 6.09298
0.204, -1, -15.9889, 34.9105, 27.317, -12.7147, -91.2507, 5.99793
0.208, -1, -15.8998, 34.8603, 27.3056, -12.5795, -91.0846, 5.90267
0.212, -1, -15.8104, 34.8099, 27.2943, -12.4441, -90.9181, 5.80723
0.216, -1, -15.7206, 34.7594, 27.2829, -12.3084, -90.7514, 5.71165
0.22, -1, -15.6306, 34.7087, 27.2715, -12.1726, -90.5845, 5.61595
0.224, -1, -15.5405, 34.658, 27.2601, -12.0366, -90.4174, 5.52012
0.228, -1, -15.4502, 34.6071, 27.2487, -11.9004, -90.2501, 5.42418
0.232, -1, -15.3598, 34.5563, 27.2373, -11.7641, -90.0826, 5.32814
0.236, -1, -15.2692, 34.5053, 27.2259, -11.6277, -89.9149, 5.23201
0.24, -1, -15.1786, 34.4543, 27.2145, -11.4911, -89.7471, 5.13578
0.244, -1, -15.0879, 34.4033, 27.2031, -11.3544, -89.5792, 5.03946
0.248, -1, -14.997, 34.3521, 27.1916, -11.2176, -89.411, 4.94306
0.252, -1, -14.9061, 34.301, 27.1802, -11.0806, -89.2428, 4.84657
0.256, -1, -14.8152, 34.2498, 27.1687, -10.9436, -89.0744, 4.75
0.26, -1, -14.7241, 34.1986, 27.1573, -10.8064, -88.9058, 4.65336
0.264, -1, -14.633, 34.1473, 27.1458, -10.6691, -88.7371, 4.55664
0.268, -1, -14.5418, 34.096, 27.1343, -10.5318, -88.5683, 4.45985
0.272, -1, -14.4505, 34.0446, 27.1228, -10.3943, -88.3994, 4.36298
0.276, -1, -14.3592, 33.9932, 27.1113, -10.2567, -88.2304, 4.26605
0.28, -1, -14.2678, 33.9418, 27.0998, -10.119, -88.0612, 4.16905
0.284, -1, -14.1763, 33.8904, 27.0883, -9.98128, -87.8919, 4.07199
0.288, -1, -14.0848, 33.8389, 27.0768, -9.84344, -87.7226, 3.97487
0.292, -1, -13.9933, 33.7873, 27.0652, -9.70552, -87.5531, 3.8777
0.296, -1, -13.9017, 33.7358, 27.0537, -9.56751, -87.3835, 3.78046
0.3, -1, -13.81, 33.6842, 27.0422, -9.42944, -87.2139, 3.68317
0.304, -1, -13.7183, 33.6326, 27.0306, -9.29129, -87.0441, 3.58584
0.308, -1, -13.6265, 33.581, 27.0191, -9.15307, -86.8743, 3.48845
0.312, -1, -13.5347, 33.5293, 27.0075, -9.01478, -86.7043, 3.39102
0.316, -1, -13.4429, 33.4776, 26.9959, -8.87644, -86.5343, 3.29354
0.32, -1, -13.351, 33.4259, 26.9844, -8.73803, -86.3643, 3.19602
0.324, -1, -13.2591, 33.3742, 26.9728, -8.59957, -86.1941, 3.09847
0.328, -1, -13.1672, 33.3225, 26.9612, -8.46107, -86.0239, 3.00088
0.332, -1, -13.0752, 33.2707, 26.9496, -8.32251, -85.8537, 2.90325
0.336, -1, -12.9832, 33.219, 26.938, -8.18391, -85.6834, 2.8056
0.34, -1, -12.8912, 33.1672, 26.9264, -8.04527, -85.513, 2.70792
0.344, -1, -12.7991, 33.1154, 26.9148, -7.9066, -85.3426, 2.61021
0.348, -1, -12.7071, 33.0636, 26.9032, -7.7679, -85.1722, 2.51248
0.352, -1, -12.615, 33.0118, 26.8916, -7.62917, -85.0017, 2.41474
0.356, -1, -12.5229, 32.9599, 26.88, -7.49042, -84.8312, 2.31698
0.36, -1, -12.4308, 32.9081, 26.8684, -7.35165, -84.6607, 2.2192
0.364, -1, -12.3387, 32.8563, 26.8568, -7.21286, -84.4902, 2.12142
0.368, -1, -12.2466, 32.8044, 26.8452, -7.07407, -84.3197, 2.02362
0.372, -1, -12.1545, 32.7526, 26.8336, -6.93527, -84.1491, 1.92583
0.376, -1, -12.0623, 32.7007, 26.822, -6.79647, -83.9786, 1.82803
0.38, -1, -11.9702, 32.6489, 26.8104, -6.65767, -83.808, 1.73024
0.384, -1, -11.8781, 32.5971, 26.7988, -6.51889, -83.6375, 1.63245
0.388, -1, -11.786, 32.5452, 26.7872, -6.38011, -83.4669, 1.53467
0.392, -1, -11.6939, 32.4934, 26.7756, -6.24135, -83.2964, 1.4369
0.396, -1, -11.6018, 32.4416, 26.764, -6.10261, -83.126, 1.33915
0.4, -1, -11.5097, 32.3898, 26.7524, -5.96389, -82.9555, 1.24141
0.404, -1, -11.4177, 32.338, 26.7408, -5.8252, -82.7851, 1.14369
0.408, -1, -11.3256, 32.2862, 26.7292, -5.68655, -82.6147, 1.046
0.412, -1, -11.2336, 32.2344, 26.7176, -5.54793, -82.4444, 0.948334
0.416, -1, -11.1416, 32.1826, 26.706, -5.40936, -82.2741, 0.850697
0.42, -1, -11.0497, 32.1309, 26.6945, -5.27083, -82.1039, 0.753093
0.424, -1, -10.9577, 32.0792, 26.6829, -5.13235, -81.9337, 0.655523
0.428, -1, -10.8658, 32.0275, 26.6713, -4.99393, -81.7636, 0.557993
0.432, -1, -10.774, 31.9758, 26.6597, -4.85556, -81.5936, 0.460503
0.436, -1, -10.6822, 31.9241, 26.6482, -4.71726, -81.4237, 0.363058
0.44, -1, -10.5904, 31.8725, 26.6366, -4.57903, -81.2538, 0.26566
0.444, -1, -10.4986, 31.8209, 26.625, -4.44086, -81.0841, 0.168312
0.448, -1, -10.4069, 31.7693, 26.6135, -4.30277, -80.9144, 0.0710176
0.452, -1, -10.3153, 31.7178, 26.602, -4.16477, -80.7448, -0.0262211
0.456, -1, -10.2237, 31.6662, 26.5904, -4.02684, -80.5753, -0.123401
0.46, -1, -10.1322, 31.6148, 26.5789, -3.889, -80.406, -0.220519
0.464, -1, -10.0407, 31.5633, 26.5674, -3.75126, -80.2367, -0.317573
0.468, -1, -9.9493, 31.5119, 26.5559, -3.61361, -80.0676, -0.41456
0.472, -1, -9.85796, 31.4605, 26.5444, -3.47605, -79.8985, -0.511477
0.476, -1, -9.76668, 31.4092, 26.5329, -3.3386, -79.7296, -0.60832
0.48, -1, -9.67548, 31.3579, 26.5214, -3.20126, -79.5609, -0.705089
0.484, -1, -9.58434, 31.3066, 26.5099, -3.06403, -79.3923, -0.801779
0.488, -1, -9.49329, 31.2554, 26.4984, -2.92692, -79.2238, -0.898388
0.492, -1, -9.4023, 31.2042, 26.487, -2.78992, -79.0554, -0.994913
0.496, -1, -9.31141, 31.1531, 26.4755, -2.65305, -78.8872, -1.09135
0.5, -1, -9.22059, 31.102, 26.4641, -2.5163, -78.7192, -1.1877
0.504, -1, -9.12986, 31.051, 26.4527, -2.37968, -78.5513, -1.28396
0.508, -1, -9.03921, 31, 26.4413, -2.2432, -78.3836, -1.38013
0.512, -1, -8.94865, 30.9491, 26.4299, -2.10685, -78.2161, -1.47619
0.516, -1, -8.85819, 30.8982, 26.4185, -1.97064, -78.0487, -1.57216
0.52, -1, -8.76782, 30.8474, 26.4071, -1.83458, -77.8815, -1.66803
0.524, -1, -8.67755, 30.7966, 26.3957, -1.69867, -77.7145, -1.7638
0.528, -1, -8.58737, 30.7459, 26.3844, -1.5629, -77.5477, -1.85945
0.532, -1, -8.4973, 30.6952, 26.373, -1.42729, -77.3811, -1.955
0.536, -1, -8.40733, 30.6446, 26.3617, -1.29183, -77.2146, -2.05044
0.54, -1, -8.31746, 30.5941, 26.3504, -1.15654, -77.0484, -2.14577
0.544, -1, -8.22771, 30.5436, 26.3391, -1.02141, -76.8823, -2.24098
0.548, -1, -8.13806, 30.4932, 26.3278, -0.886442, -76.7165, -2.33608
0.552, -1, -8.04852, 30.4428, 26.3165, -0.751646, -76.5509, -2.43105
0.556, -1, -7.9591, 30.3925, 26.3053, -0.617022, -76.3854, -2.5259
0.56, -1, -7.86979, 30.3423, 26.294, -0.482572, -76.2202, -2.62064
0.564, -1, -7.7806, 30.2921, 26.2828, -0.348301, -76.0552, -2.71524
0.568, -1, -7.69153, 30.2421, 26.2716, -0.21421, -75.8905, -2.80972
0.572, -1, -7.60258, 30.192, 26.2604, -0.0803022, -75.7259, -2.90407
0.576, -1, -7.51375, 30.1421, 26.2492, 0.0534192, -75.5616, -2.99829
0.58, -1, -7.42505, 30.0922, 26.2381, 0.186952, -75.3975, -3.09237
0.584, -1, -7.33647, 30.0424, 26.2269, 0.320293, -75.2337, -3.18632
0.588, -1, -7.24802, 29.9926, 26.2158, 0.45344, -75.0701, -3.28014
0.592, -1, -7.1597, 29.943, 26.2047, 0.58639, -74.9067, -3.37381
0.596, -1, -7.07152, 29.8934, 26.1936, 0.719142, -74.7436, -3.46735
0.6, -1, -6.98346, 29.8438, 26.1825, 0.851691, -74.5807, -3.56074
0.604, -1, -6.89554, 29.7944, 26.1714, 0.984037, -74.4181, -3.65399
0.608, -1, -6.80776, 29.745, 26.1604, 1.11618, -74.2557, -3.74709
0.612, -1, -6.72011, 29.6957, 26.1493, 1.24811, -74.0936, -3.84005
0.616, -1, -6.63261, 29.6465, 26.1383, 1.37983, -73.9318, -3.93285
0.62, -1, -6.54524, 29.5974, 26.1273, 1.51133, -73.7702, -4.02551
0.624, -1, -6.45802, 29.5484, 26.1163, 1.64262, -73.6089, -4.11802
0.628, -1, -6.37094, 29.4994, 26.1054, 1.7737, -73.4478, -4.21037
0.632, -1, -6.28401, 29.4505, 26.0944, 1.90455, -73.287, -4.30257
0.636, -1, -6.19722, 29.4017, 26.0835, 2.03518, -73.1265, -4.39461
0.64, -1, -6.11058, 29.353, 26.0726, 2.16559, -72.9663, -4.48649
0.644, -1, -6.02409, 29.3043, 26.0617, 2.29577, -72.8063, -4.57822
0.648, -1, -5.93775, 29.2558, 26.0509, 2.42572, -72.6466, -4.66978
0.652, -1, -5.85156, 29.2073, 26.04, 2.55545, -72.4872, -4.76118
0.656, -1, -5.76553, 29.1589, 26.0292, 2.68494, -72.3281, -4.85242
0.66, -1, -5.67965, 29.1106, 26.0184, 2.8142, -72.1693, -4.94349
0.664, -1, -5.59392, 29.0624, 26.0076, 2.94322, -72.0107, -5.0344
0.668, -1, -5.50836, 29.0143, 25.9968, 3.07201, -71.8525, -5.12514
0.672, -1, -5.42294, 28.9663, 25.9861, 3.20056, -71.6945, -5.21572
0.676, -1, -5.33769, 28.9183, 25.9753, 3.32887, -71.5368, -5.30612
0.68, -1, -5.2526, 28.8705, 25.9646, 3.45693, -71.3795, -5.39636
0.684, -1, -5.16767, 28.8227, 25.954, 3.58476, -71.2224, -5.48642
0.688, -1, -5.0829, 28.7751, 25.9433, 3.71233, -71.0657, -5.57631
0.692, -1, -4.9983, 28.7275, 25.9326, 3.83967, -70.9092, -5.66602
0.696, -1, -4.91386, 28.68, 25.922, 3.96675, -70.753, -5.75557
0.7, -1, -4.82958, 28.6326, 25.9114, 4.09359, -70.5972, -5.84493
0.704, -1, -4.74547, 28.5853, 25.9008, 4.22017, -70.4416, -5.93412
0.708, -1, -4.66153, 28.5381, 25.8903, 4.3465, -70.2864, -6.02313
0.712, -1, -4.57775, 28.491, 25.8797, 4.47258, -70.1315, -6.11197
0.716, -1, -4.49414, 28.444, 25.8692, 4.59841, -69.9769, -6.20062
0.72, -1, -4.4107, 28.3971, 25.8587, 4.72398, -69.8226, -6.2891
0.724, -1, -4.32743, 28.3502, 25.8482, 4.84929, -69.6686, -6.37739
0.728, -1, -4.24433, 28.3035, 25.8378, 4.97435, -69.5149, -6.4655
0.732, -1, -4.1614, 28.2569, 25.8273, 5.09914, -69.3616, -6.55343
0.736, -1, -4.07864, 28.2104, 25.8169, 5.22368, -69.2086, -6.64118
0.74, -1, -3.99605, 28.1639, 25.8065, 5.34796, -69.0559, -6.72874
0.744, -1, -3.91363, 28.1176, 25.7962, 5.47197, -68.9035, -6.81612
0.748, -1, -3.83139, 28.0713, 25.7858, 5.59573, -68.7514, -6.90332
0.752, -1, -3.74932, 28.0252, 25.7755, 5.71922, -68.5997, -6.99033
0.756, -1, -3.66742, 27.9791, 25.7652, 5.84245, -68.4482, -7.07716
0.76, -1, -3.58569, 27.9332, 25.7549, 5.96542, -68.2971, -7.1638
0.764, -1, -3.50414, 27.8873, 25.7447, 6.08812, -68.1464, -7.25026
0.768, -1, -3.42277, 27.8416, 25.7344, 6.21056, -67.9959, -7.33653
0.772, -1, -3.34156, 27.7959, 25.7242, 6.33274, -67.8458, -7.42261
0.776, -1, -3.26053, 27.7503, 25.714, 6.45465, -67.696, -7.50851
0.78, -1, -3.17968, 27.7049, 25.7038, 6.57631, -67.5465, -7.59423
0.784, -1, -3.099, 27.6595, 25.6937, 6.69769, -67.3973, -7.67975
0.788, -1, -3.0185, 27.6143, 25.6836, 6.81882, -67.2485, -7.7651
0.792, -1, -2.93816, 27.5691, 25.6735, 6.93968, -67.1, -7.85026
0.796, -1, -2.85801, 27.524, 25.6634, 7.06028, -66.9518, -7.93523
0.8, -1, -2.77803, 27.479, 25.6533, 7.18061, -66.8039, -8.02001
0.804, -1, -2.69822, 27.4342, 25.6433, 7.30068, -66.6564, -8.10461
0.808, -1, -2.61859, 27.3894, 25.6333, 7.42049, -66.5092, -8.18903
0.812, -1, -2.53913, 27.3447, 25.6233, 7.54004, -66.3623, -8.27326
0.816, -1, -2.45984, 27.3001, 25.6133, 7.65932, -66.2157, -8.35731
0.82, -1, -2.38073, 27.2557, 25.6034, 7.77834, -66.0695, -8.44117
0.824, -1, -2.3018, 27.2113, 25.5934, 7.8971, -65.9235, -8.52484
0.828, -1, -2.22303, 27.167, 25.5835, 8.0156, -65.7779, -8.60833
0.832, -1, -2.14444, 27.1228, 25.5736, 8.13383, -65.6327, -8.69164
0.836, -1, -2.06603, 27.0787, 25.5638, 8.25181, -65.4877, -8.77477
0.84, -1, -1.98779, 27.0347, 25.5539, 8.36952, -65.343, -8.8577
0.844, -1, -1.90972, 26.9908, 25.5441, 8.48697, -65.1987, -8.94046
0.848, -1, -1.83182, 26.947, 25.5343, 8.60416, -65.0547, -9.02303
0.852, -1, -1.7541, 26.9033, 25.5246, 8.7211, -64.911, -9.10542
0.856, -1, -1.67655, 26.8597, 25.5148, 8.83777, -64.7677, -9.18763
0.86, -1, -1.59917, 26.8162, 25.5051, 8.95418, -64.6246, -9.26965
0.864, -1, -1.52196, 26.7728, 25.4954, 9.07033, -64.4819, -9.35149
0.868, -1, -1.44493, 26.7295, 25.4857, 9.18623, -64.3395, -9.43315
0.872, -1, -1.36806, 26.6863, 25.476, 9.30186, -64.1974, -9.51462
0.876, -1, -1.29137, 26.6432, 25.4664, 9.41724, -64.0556, -9.59592
0.88, -1, -1.21485, 26.6001, 25.4567, 9.53236, -63.9142, -9.67703
0.884, -1, -1.1385, 26.5572, 25.4471, 9.64723, -63.773, -9.75796
0.888, -1, -1.06232, 26.5144, 25.4376, 9.76183, -63.6322, -9.83871
0.892, -1, -0.986311, 26.4716, 25.428, 9.87618, -63.4917, -9.91928
0.896, -1, -0.910471, 26.429, 25.4185, 9.99028, -63.3515, -9.99967
0.9, -1, -0.8348, 26.3864, 25.409, 10.1041, -63.2116, -10.0799
0.904, -1, -0.759299, 26.344, 25.3995, 10.2177, -63.0721, -10.1599
0.908, -1, -0.683967, 26.3016, 25.39, 10.331, -62.9328, -10.2398
0.912, -1, -0.608804, 26.2594, 25.3805, 10.4441, -62.7939, -10.3194
0.916, -1, -0.533808, 26.2172, 25.3711, 10.5569, -62.6552, -10.3989
0.92, -1, -0.458981, 26.1751, 25.3617, 10.6695, -62.5169, -10.4782
0.924, -1, -0.384322, 26.1332, 25.3523, 10.7818, -62.3789, -10.5574
0.928, -1, -0.30983, 26.0913, 25.3429, 10.8939, -62.2412, -10.6363
0.932, -1, -0.235505, 26.0495, 25.3336, 11.0057, -62.1038, -10.7151
0.936, -1, -0.161347, 26.0078, 25.3243, 11.1173, -61.9667, -10.7937
0.94, -1, -0.0873549, 25.9662, 25.315, 11.2286, -61.8299, -10.8722
0.944, -1, -0.013529, 25.9247, 25.3057, 11.3396, -61.6935, -10.9504
0.948, -1, 0.0601312, 25.8833, 25.2964, 11.4504, -61.5573, -11.0285
0.952, -1, 0.133626, 25.8419, 25.2872, 11.561, -61.4215, -11.1064
0.956, -1, 0.206956, 25.8007, 25.278, 11.6713, -61.2859, -11.1841
0.96, -1, 0.280122, 25.7596, 25.2688, 11.7814, -61.1507, -11.2617
0.964, -1, 0.353123, 25.7185, 25.2596, 11.8912, -61.0157, -11.339
0.968, -1, 0.42596, 25.6776, 25.2504, 12.0008, -60.8811, -11.4162
0.972, -1, 0.498634, 25.6367, 25.2413, 12.1101, -60.7467, -11.4933
0.976, -1, 0.571145, 25.5959, 25.2322, 12.2192, -60.6127, -11.5701
0.98, -1, 0.643494, 25.5553, 25.2231, 12.328, -60.479, -11.6468
0.984, -1, 0.71568, 25.5147, 25.214, 12.4366, -60.3455, -11.7233
0.988, -1, 0.787704, 25.4742, 25.2049, 12.545, -60.2124, -11.7997
0.992, -1, 0.859567, 25.4338, 25.1959, 12.6531, -60.0796, -11.8758
0.996, -1, 0.931268, 25.3935, 25.1869, 12.7609, -59.947, -11.9518
1, -1, 1.00281, 25.3532, 25.1779, 12.8686, -59.8148, -12.0277
1.004, -1, 1.07419, 25.3131, 25.1689, 12.9759, -59.6828, -12.1033
1.008, -1, 1.14541, 25.2731, 25.16, 13.0831, -59.5512, -12.1788
1.012, -1, 1.21647, 25.2331, 25.151, 13.19, -59.4198, -12.2541
1.016, -1, 1.28738, 25.1932, 25.1421, 13.2966, -59.2888, -12.3293
1.02, -1, 1.35813, 25.1535, 25.1332, 13.4031, -59.158, -12.4043
1.024, -1, 1.42871, 25.1138, 25.1243, 13.5092, -59.0275, -12.4791
1.027, -1, 1.49915, 25.0742, 25.1155, 13.6152, -58.8973, -12.5537
1.032, -1, 1.56942, 25.0347, 25.1067, 13.7209, -58.7674, -12.6282
1.036, -1, 1.63954, 24.9952, 25.0978, 13.8264, -58.6378, -12.7025
1.04, -1, 1.70951, 24.9559, 25.089, 13.9316, -58.5085, -12.7767
1.044, -1, 1.77932, 24.9167, 25.0803, 14.0366, -58.3795, -12.8507
1.048, -1, 1.84898, 24.8775, 25.0715, 14.1414, -58.2507, -12.9245
1.052, -1, 1.91848, 24.8384, 25.0628, 14.246, -58.1223, -12.9982
1.055, -1, 1.98783, 24.7994, 25.0541, 14.3503, -57.9941, -13.0717
1.06, -1, 2.05703, 24.7605, 25.0454, 14.4544, -57.8662, -13.145
1.064, -1, 2.12608, 24.7217, 25.0367, 14.5582, -57.7386, -13.2182
1.068, -1, 2.19497, 24.683, 25.028, 14.6618, -57.6112, -13.2912
1.072, -1, 2.26372, 24.6443, 25.0194, 14.7652, -57.4842, -13.3641
1.076, -1, 2.33231, 24.6057, 25.0107, 14.8684, -57.3574, -13.4368
1.08, -1, 2.40076, 24.5673, 25.0021, 14.9714, -57.2309, -13.5093
1.084, -1, 2.46906, 24.5289, 24.9936, 15.0741, -57.1047, -13.5817
1.088, -1, 2.53721, 24.4905, 24.985, 15.1766, -56.9787, -13.6539
1.091, -1, 2.60521, 24.4523, 24.9764, 15.2789, -56.853, -13.726
1.096, -1, 2.67306, 24.4142, 24.9679, 15.381, -56.7276, -13.7979
1.1, -1, 2.74078, 24.3761, 24.9594, 15.4828, -56.6024, -13.8697
1.104, -1, 2.80834, 24.3381, 24.9509, 15.5845, -56.4776, -13.9413
1.108, -1, 2.87576, 24.3002, 24.9424, 15.6859, -56.353, -14.0127
1.112, -1, 2.94304, 24.2624, 24.934, 15.7871, -56.2286, -14.084
1.116, -1, 3.01017, 24.2246, 24.9255, 15.888, -56.1045, -14.1552
1.119, -1, 3.07716, 24.187, 24.9171, 15.9888, -55.9807, -14.2262
1.124, -1, 3.14401, 24.1494, 24.9087, 16.0894, -55.8572, -14.297
1.128, -1, 3.21072, 24.1119, 24.9003, 16.1897, -55.7339, -14.3677
1.132, -1, 3.27729, 24.0744, 24.892, 16.2898, -55.6108, -14.4383
1.136, -1, 3.34372, 24.0371, 24.8836, 16.3898, -55.488, -14.5087
1.14, -1, 3.41001, 23.9998, 24.8753, 16.4895, -55.3655, -14.5789
1.144, -1, 3.47616, 23.9626, 24.867, 16.589, -55.2433, -14.649
1.147, -1, 3.54217, 23.9255, 24.8587, 16.6883, -55.1212, -14.719
1.152, -1, 3.60804, 23.8885, 24.8504, 16.7873, -54.9995, -14.7888
1.156, -1, 3.67378, 23.8515, 24.8421, 16.8862, -54.878, -14.8585
1.16, -1, 3.73938, 23.8146, 24.8339, 16.9849, -54.7567, -14.928
1.164, -1, 3.80485, 23.7778, 24.8256, 17.0834, -54.6357, -14.9974
1.168, -1, 3.87018, 23.7411, 24.8174, 17.1816, -54.515, -15.0666
1.172, -1, 3.93537, 23.7045, 24.8092, 17.2797, -54.3945, -15.1357
1.175, -1, 4.00044, 23.6679, 24.8011, 17.3776, -54.2742, -15.2047
1.18, -1, 4.06536, 23.6314, 24.7929, 17.4752, -54.1542, -15.2735
1.184, -1, 4.13016, 23.5949, 24.7847, 17.5727, -54.0345, -15.3422
1.188, -1, 4.19482, 23.5586, 24.7766, 17.67, -53.9149, -15.4107
1.192, -1, 4.25936, 23.5223, 24.7685, 17.767, -53.7957, -15.4791
1.196, -1, 4.32376, 23.4861, 24.7604, 17.8639, -53.6766, -15.5474
1.2, -1, 4.38803, 23.45, 24.7523, 17.9606, -53.5578, -15.6155
1.204, -1, 4.45217, 23.4139, 24.7443, 18.0571, -53.4393, -15.6835
1.208, -1, 4.51618, 23.3779, 24.7362, 18.1534, -53.321, -15.7513
1.212, -1, 4.58006, 23.342, 24.7282, 18.2495, -53.2029, -15.819
1.216, -1, 4.64382, 23.3061, 24.7202, 18.3454, -53.0851, -15.8866
1.22, -1, 4.70745, 23.2704, 24.7122, 18.4411, -52.9675, -15.954
1.224, -1, 4.77095, 23.2347, 24.7042, 18.5366, -52.8501, -16.0213
1.228, -1, 4.83432, 23.199, 24.6962, 18.6319, -52.733, -16.0885
1.232, -1, 4.89757, 23.1635, 24.6883, 18.727, -52.6161, -16.1555
1.236, -1, 4.96069, 23.128, 24.6803, 18.822, -52.4994, -16.2224
1.24, -1, 5.02369, 23.0926, 24.6724, 18.9168, -52.3829, -16.2892
1.244, -1, 5.08656, 23.0572, 24.6645, 19.0113, -52.2667, -16.3558
1.248, -1, 5.14931, 23.0219, 24.6566, 19.1057, -52.1508, -16.4223
1.252, -1, 5.21193, 22.9867, 24.6488, 19.1999, -52.035, -16.4887
1.256, -1, 5.27444, 22.9516, 24.6409, 19.2939, -51.9195, -16.5549
1.26, -1, 5.33682, 22.9165, 24.6331, 19.3878, -51.8042, -16.621
1.264, -1, 5.39908, 22.8815, 24.6252, 19.4814, -51.6891, -16.687
1.267, -1, 5.46121, 22.8466, 24.6174, 19.5749, -51.5742, -16.7529
1.272, -1, 5.52323, 22.8117, 24.6096, 19.6682, -51.4596, -16.8186
1.276, -1, 5.58513, 22.7769, 24.6018, 19.7613, -51.3452, -16.8842
1.28, -1, 5.6469, 22.7422, 24.5941, 19.8542, -51.231, -16.9497
1.284, -1, 5.70856, 22.7075, 24.5863, 19.947, -51.1171, -17.015
1.288, -1, 5.7701, 22.6729, 24.5786, 20.0395, -51.0033, -17.0803
1.292, -1, 5.83152, 22.6384, 24.5709, 20.1319, -50.8898, -17.1454
1.295, -1, 5.89282, 22.6039, 24.5632, 20.2241, -50.7765, -17.2103
1.3, -1, 5.95401, 22.5695, 24.5555, 20.3162, -50.6634, -17.2752
1.304, -1, 6.01508, 22.5352, 24.5478, 20.408, -50.5505, -17.3399
1.308, -1, 6.07603, 22.5009, 24.5401, 20.4997, -50.4379, -17.4045
1.312, -1, 6.13687, 22.4667, 24.5325, 20.5912, -50.3254, -17.469
1.316, -1, 6.19759, 22.4326, 24.5249, 20.6826, -50.2132, -17.5333
1.32, -1, 6.25819, 22.3985, 24.5172, 20.7737, -50.1012, -17.5976
1.324, -1, 6.31869, 22.3645, 24.5096, 20.8647, -49.9894, -17.6617
1.328, -1, 6.37907, 22.3305, 24.502, 20.9555, -49.8778, -17.7257
1.332, -1, 6.43933, 22.2966, 24.4945, 21.0462, -49.7664, -17.7895
1.336, -1, 6.49948, 22.2628, 24.4869, 21.1367, -49.6552, -17.8533
1.34, -1, 6.55952, 22.2291, 24.4794, 21.227, -49.5442, -17.9169
1.344, -1, 6.61945, 22.1954, 24.4718, 21.3171, -49.4335, -17.9804
1.348, -1, 6.67926, 22.1617, 24.4643, 21.4071, -49.3229, -18.0438
1.352, -1, 6.73897, 22.1282, 24.4568, 21.4969, -49.2125, -18.1071
1.356, -1, 6.79856, 22.0947, 24.4493, 21.5865, -49.1024, -18.1703
1.36, -1, 6.85805, 22.0612, 24.4418, 21.676, -48.9924, -18.2333
1.364, -1, 6.91742, 22.0278, 24.4344, 21.7653, -48.8827, -18.2962
1.368, -1, 6.97669, 21.9945, 24.4269, 21.8545, -48.7732, -18.3591
1.372, -1, 7.03584, 21.9613, 24.4195, 21.9435, -48.6638, -18.4218
1.376, -1, 7.09489, 21.9281, 24.4121, 22.0323, -48.5547, -18.4843
1.38, -1, 7.15383, 21.8949, 24.4046, 22.1209, -48.4457, -18.5468
1.384, -1, 7.21267, 21.8618, 24.3972, 22.2094, -48.337, -18.6092
1.388, -1, 7.2714, 21.8288, 24.3899, 22.2978, -48.2284, -18.6714
1.392, -1, 7.33002, 21.7959, 24.3825, 22.386, -48.1201, -18.7335
1.396, -1, 7.38854, 21.763, 24.3751, 22.474, -48.0119, -18.7956
1.4, -1, 7.44695, 21.7301, 24.3678, 22.5618, -47.904, -18.8575
1.404, -1, 7.50525, 21.6973, 24.3605, 22.6495, -47.7962, -18.9193
1.408, -1, 7.56346, 21.6646, 24.3532, 22.7371, -47.6886, -18.9809
1.412, -1, 7.62156, 21.6319, 24.3458, 22.8245, -47.5812, -19.0425
1.416, -1, 7.67955, 21.5993, 24.3386, 22.9117, -47.4741, -19.104
1.42, -1, 7.73745, 21.5668, 24.3313, 22.9988, -47.3671, -19.1653
1.424, -1, 7.79524, 21.5343, 24.324, 23.0857, -47.2602, -19.2266
1.428, -1, 7.85293, 21.5019, 24.3168, 23.1725, -47.1536, -19.2877
1.432, -1, 7.91053, 21.4695, 24.3095, 23.2591, -47.0472, -19.3488
1.436, -1, 7.96802, 21.4372, 24.3023, 23.3456, -46.9409, -19.4097
1.44, -1, 8.02541, 21.4049, 24.2951, 23.4319, -46.8348, -19.4705
1.444, -1, 8.0827, 21.3727, 24.2879, 23.5181, -46.729, -19.5312
1.448, -1, 8.1399, 21.3405, 24.2807, 23.6041, -46.6232, -19.5918
1.452, -1, 8.19699, 21.3084, 24.2735, 23.69, -46.5177, -19.6523
1.456, -1, 8.25399, 21.2764, 24.2664, 23.7757, -46.4124, -19.7128
1.46, -1, 8.31089, 21.2444, 24.2592, 23.8613, -46.3072, -19.7731
1.464, -1, 8.36769, 21.2125, 24.2521, 23.9468, -46.2022, -19.8333
1.468, -1, 8.4244, 21.1806, 24.2449, 24.032, -46.0975, -19.8933
1.472, -1, 8.48101, 21.1488, 24.2378, 24.1172, -45.9928, -19.9533
1.476, -1, 8.53752, 21.117, 24.2307, 24.2022, -45.8884, -20.0132
1.48, -1, 8.59394, 21.0853, 24.2236, 24.287, -45.7841, -20.073
1.484, -1, 8.65026, 21.0536, 24.2165, 24.3718, -45.68, -20.1327
1.488, -1, 8.70649, 21.022, 24.2095, 24.4563, -45.5761, -20.1923
1.492, -1, 8.76262, 20.9904, 24.2024, 24.5408, -45.4724, -20.2518
1.496, -1, 8.81866, 20.9589, 24.1954, 24.6251, -45.3688, -20.3112
1.5, -1, 8.87461, 20.9275, 24.1883, 24.7092, -45.2654, -20.3705
1.504, -1, 8.93046, 20.8961, 24.1813, 24.7932, -45.1621, -20.4297
1.508, -1, 8.98623, 20.8647, 24.1743, 24.8771, -45.0591, -20.4888
1.512, -1, 9.04189, 20.8334, 24.1673, 24.9608, -44.9562, -20.5478
1.516, -1, 9.09747, 20.8022, 24.1603, 25.0444, -44.8535, -20.6067
1.52, -1, 9.15296, 20.771, 24.1534, 25.1279, -44.7509, -20.6655
1.524, -1, 9.20836, 20.7398, 24.1464, 25.2112, -44.6485, -20.7242
1.528, -1, 9.26366, 20.7087, 24.1394, 25.2944, -44.5463, -20.7828
1.532, -1, 9.31888, 20.6777, 24.1325, 25.3774, -44.4443, -20.8413
1.536, -1, 9.37401, 20.6467, 24.1256, 25.4604, -44.3424, -20.8997
1.54, -1, 9.42904, 20.6158, 24.1187, 25.5431, -44.2407, -20.9581
1.544, -1, 9.48399, 20.5849, 24.1118, 25.6258, -44.1391, -21.0163
1.548, -1, 9.53885, 20.554, 24.1049, 25.7083, -44.0377, -21.0744
1.552, -1, 9.59363, 20.5232, 24.098, 25.7907, -43.9365, -21.1325
1.556, -1, 9.64831, 20.4925, 24.0911, 25.873, -43.8354, -21.1904
1.56, -1, 9.70291, 20.4618, 24.0842, 25.9551, -43.7345, -21.2483
1.564, -1, 9.75742, 20.4311, 24.0774, 26.0371, -43.6337, -21.3061
1.568, -1, 9.81184, 20.4005, 24.0705, 26.1189, -43.5331, -21.3637
1.572, -1, 9.86618, 20.37, 24.0637, 26.2007, -43.4327, -21.4213
1.576, -1, 9.92043, 20.3395, 24.0569, 26.2823, -43.3324, -21.4788
1.58, -1, 9.9746, 20.309, 24.0501, 26.3638, -43.2323, -21.5362
1.584, -1, 10.0287, 20.2786, 24.0433, 26.4451, -43.1324, -21.5936
1.588, -1, 10.0827, 20.2483, 24.0365, 26.5263, -43.0326, -21.6508
1.592, -1, 10.1366, 20.218, 24.0297, 26.6074, -42.9329, -21.7079
1.596, -1, 10.1904, 20.1877, 24.023, 26.6884, -42.8334, -21.765
1.6, -1, 10.2442, 20.1575, 24.0162, 26.7692, -42.7341, -21.8219
1.604, -1, 10.2978, 20.1273, 24.0095, 26.85, -42.6349, -21.8788
1.608, -1, 10.3514, 20.0972, 24.0027, 26.9306, -42.5359, -21.9356
1.612, -1, 10.4049, 20.0671, 23.996, 27.011, -42.437, -21.9923
1.616, -1, 10.4583, 20.0371, 23.9893, 27.0914, -42.3382, -22.0489
1.62, -1, 10.5117, 20.0071, 23.9826, 27.1716, -42.2397, -22.1054
1.624, -1, 10.5649, 19.9771, 23.9759, 27.2517, -42.1412, -22.1619
1.628, -1, 10.6181, 19.9472, 23.9692, 27.3317, -42.0429, -22.2182
1.632, -1, 10.6712, 19.9174, 23.9625, 27.4116, -41.9448, -22.2745
1.636, -1, 10.7242, 19.8876, 23.9559, 27.4913, -41.8468, -22.3307
1.64, -1, 10.7771, 19.8578, 23.9492, 27.5709, -41.749, -22.3868
1.644, -1, 10.83, 19.8281, 23.9426, 27.6504, -41.6513, -22.4428
1.648, -1, 10.8828, 19.7984, 23.9359, 27.7298, -41.5538, -22.4987
1.652, -1, 10.9355, 19.7688, 23.9293, 27.8091, -41.4564, -22.5546
1.656, -1, 10.9881, 19.7392, 23.9227, 27.8882, -41.3591, -22.6104
1.66, -1, 11.0406, 19.7097, 23.9161, 27.9672, -41.262, -22.666
1.664, -1, 11.0931, 19.6802, 23.9095, 28.0461, -41.1651, -22.7216
1.668, -1, 11.1455, 19.6507, 23.9029, 28.1249, -41.0682, -22.7772
1.672, -1, 11.1978, 19.6213, 23.8963, 28.2036, -40.9716, -22.8326
1.676, -1, 11.25, 19.592, 23.8898, 28.2822, -40.875, -22.8879
1.68, -1, 11.3022, 19.5627, 23.8832, 28.3606, -40.7786, -22.9432
1.684, -1, 11.3542, 19.5334, 23.8767, 28.439, -40.6824, -22.9984
1.688, -1, 11.4062, 19.5041, 23.8701, 28.5172, -40.5863, -23.0535
1.692, -1, 11.4582, 19.4749, 23.8636, 28.5953, -40.4903, -23.1085
1.696, -1, 11.51, 19.4458, 23.8571, 28.6733, -40.3945, -23.1635
1.7, -1, 11.5618, 19.4167, 23.8506, 28.7511, -40.2988, -23.2184
1.704, -1, 11.6135, 19.3876, 23.8441, 28.8289, -40.2032, -23.2732
1.708, -1, 11.6651, 19.3586, 23.8376, 28.9066, -40.1078, -23.3279
1.712, -1, 11.7166, 19.3296, 23.8311, 28.9841, -40.0125, -23.3825
1.716, -1, 11.7681, 19.3007, 23.8246, 29.0615, -39.9174, -23.4371
1.72, -1, 11.8195, 19.2718, 23.8182, 29.1388, -39.8224, -23.4915
1.724, -1, 11.8709, 19.2429, 23.8117, 29.2161, -39.7275, -23.5459
1.728, -1, 11.9221, 19.2141, 23.8053, 29.2931, -39.6328, -23.6003
1.732, -1, 11.9733, 19.1853, 23.7989, 29.3701, -39.5382, -23.6545
1.736, -1, 12.0244, 19.1566, 23.7924, 29.447, -39.4437, -23.7087
1.74, -1, 12.0754, 19.1279, 23.786, 29.5238, -39.3494, -23.7628
1.744, -1, 12.1264, 19.0992, 23.7796, 29.6004, -39.2552, -23.8168
1.748, -1, 12.1773, 19.0706, 23.7732, 29.677, -39.1611, -23.8707
1.752, -1, 12.2281, 19.0421, 23.7668, 29.7535, -39.0672, -23.9246
1.756, -1, 12.2789, 19.0135, 23.7604, 29.8298, -38.9734, -23.9784
1.76, -1, 12.3295, 18.985, 23.7541, 29.906, -38.8797, -24.0321
1.764, -1, 12.3802, 18.9566, 23.7477, 29.9822, -38.7861, -24.0857
1.768, -1, 12.4307, 18.9282, 23.7414, 30.0582, -38.6927, -24.1393
1.772, -1, 12.4812, 18.8998, 23.735, 30.1341, -38.5995, -24.1928
1.776, -1, 12.5316, 18.8714, 23.7287, 30.2099, -38.5063, -24.2462
1.78, -1, 12.5819, 18.8431, 23.7223, 30.2856, -38.4133, -24.2995
1.784, -1, 12.6322, 18.8149, 23.716, 30.3612, -38.3204, -24.3528
1.788, -1, 12.6824, 18.7867, 23.7097, 30.4367, -38.2276, -24.406
1.792, -1, 12.7325, 18.7585, 23.7034, 30.5121, -38.1349, -24.4591
1.796, -1, 12.7825, 18.7303, 23.6971, 30.5874, -38.0424, -24.5122
1.8, -1, 12.8325, 18.7022, 23.6908, 30.6626, -37.95, -24.5652
1.804, -1, 12.8825, 18.6742, 23.6846, 30.7377, -37.8578, -24.6181
1.808, -1, 12.9323, 18.6461, 23.6783, 30.8127, -37.7656, -24.6709
1.812, -1, 12.9821, 18.6181, 23.672, 30.8876, -37.6736, -24.7237
1.816, -1, 13.0318, 18.5902, 23.6658, 30.9624, -37.5817, -24.7764
1.82, -1, 13.0815, 18.5623, 23.6596, 31.0371, -37.4899, -24.829
1.824, -1, 13.1311, 18.5344, 23.6533, 31.1117, -37.3982, -24.8816
1.828, -1, 13.1806, 18.5065, 23.6471, 31.1862, -37.3067, -24.9341
1.832, -1, 13.23, 18.4787, 23.6409, 31.2606, -37.2153, -24.9865
1.836, -1, 13.2794, 18.451, 23.6347, 31.3349, -37.124, -25.0388
1.84, -1, 13.3288, 18.4232, 23.6285, 31.4091, -37.0328, -25.0911
1.844, -1, 13.378, 18.3955, 23.6223, 31.4832, -36.9418, -25.1433
1.848, -1, 13.4272, 18.3679, 23.6161, 31.5572, -36.8508, -25.1955
1.852, -1, 13.4764, 18.3402, 23.6099, 31.6311, -36.76, -25.2475
1.856, -1, 13.5254, 18.3127, 23.6037, 31.7049, -36.6693, -25.2995
1.86, -1, 13.5744, 18.2851, 23.5976, 31.7786, -36.5787, -25.3515
1.864, -1, 13.6234, 18.2576, 23.5914, 31.8522, -36.4883, -25.4034
1.868, -1, 13.6723, 18.2301, 23.5853, 31.9258, -36.3979, -25.4552
1.872, -1, 13.7211, 18.2027, 23.5792, 31.9992, -36.3077, -25.5069
1.876, -1, 13.7698, 18.1752, 23.573, 32.0725, -36.2176, -25.5586
1.88, -1, 13.8185, 18.1479, 23.5669, 32.1458, -36.1275, -25.6102
1.884, -1, 13.8672, 18.1205, 23.5608, 32.2189, -36.0377, -25.6617
1.888, -1, 13.9157, 18.0932, 23.5547, 32.292, -35.9479, -25.7132
1.892, -1, 13.9643, 18.0659, 23.5486, 32.365, -35.8582, -25.7646
1.896, -1, 14.0127, 18.0387, 23.5425, 32.4378, -35.7687, -25.816
1.9, -1, 14.0611, 18.0115, 23.5364, 32.5106, -35.6792, -25.8673
1.904, -1, 14.1094, 17.9843, 23.5303, 32.5833, -35.5899, -25.9185
1.908, -1, 14.1577, 17.9572, 23.5243, 32.6559, -35.5007, -25.9696
1.912, -1, 14.2059, 17.9301, 23.5182, 32.7284, -35.4116, -26.0207
1.916, -1, 14.254, 17.903, 23.5122, 32.8009, -35.3226, -26.0718
1.92, -1, 14.3021, 17.876, 23.5061, 32.8732, -35.2337, -26.1227
1.924, -1, 14.3501, 17.849, 23.5001, 32.9454, -35.145, -26.1736
1.928, -1, 14.3981, 17.822, 23.494, 33.0176, -35.0563, -26.2245
1.932, -1, 14.446, 17.7951, 23.488, 33.0897, -34.9677, -26.2752
1.936, -1, 14.4939, 17.7682, 23.482, 33.1616, -34.8793, -26.3259
1.94, -1, 14.5416, 17.7413, 23.476, 33.2335, -34.791, -26.3766
1.944, -1, 14.5894, 17.7145, 23.47, 33.3053, -34.7027, -26.4272
1.948, -1, 14.6371, 17.6877, 23.464, 33.377, -34.6146, -26.4777
1.952, -1, 14.6847, 17.6609, 23.458, 33.4487, -34.5266, -26.5282
1.956, -1, 14.7322, 17.6341, 23.452, 33.5202, -34.4387, -26.5786
1.96, -1, 14.7797, 17.6074, 23.4461, 33.5917, -34.3509, -26.6289
1.964, -1, 14.8272, 17.5808, 23.4401, 33.663, -34.2632, -26.6792
1.968, -1, 14.8745, 17.5541, 23.4342, 33.7343, -34.1756, -26.7294
1.972, -1, 14.9219, 17.5275, 23.4282, 33.8055, -34.0882, -26.7796
1.976, -1, 14.9692, 17.5009, 23.4223, 33.8766, -34.0008, -26.8297
1.98, -1, 15.0164, 17.4744, 23.4163, 33.9476, -33.9135, -26.8798
1.984, -1, 15.0635, 17.4479, 23.4104, 34.0186, -33.8263, -26.9297
1.988, -1, 15.1106, 17.4214, 23.4045, 34.0894, -33.7393, -26.9797
1.992, -1, 15.1577, 17.3949, 23.3986, 34.1602, -33.6523, -27.0295
1.996, -1, 15.2047, 17.3685, 23.3927, 34.2309, -33.5654, -27.0793
1.999, -1, 15.2516, 17.3421, 23.3868, 34.3015, -33.4787, -27.1291
2.004, -1, 15.2985, 17.3158, 23.3809, 34.372, -33.392, -27.1788
2.008, -1, 15.3453, 17.2894, 23.375, 34.4425, -33.3055, -27.2284
2.012, -1, 15.3921, 17.2631, 23.3691, 34.5128, -33.219, -27.278
2.015, -1, 15.4388, 17.2369, 23.3632, 34.5831, -33.1327, -27.3275
2.019, -1, 15.4855, 17.2106, 23.3574, 34.6533, -33.0464, -27.377
2.024, -1, 15.5321, 17.1844, 23.3515, 34.7234, -32.9602, -27.4264
2.028, -1, 15.5786, 17.1582, 23.3456, 34.7934, -32.8742, -27.4757
2.031, -1, 15.6251, 17.1321, 23.3398, 34.8634, -32.7882, -27.525
2.036, -1, 15.6716, 17.106, 23.334, 34.9333, -32.7024, -27.5742
2.04, -1, 15.718, 17.0799, 23.3281, 35.0031, -32.6166, -27.6234
2.044, -1, 15.7643, 17.0538, 23.3223, 35.0728, -32.531, -27.6725
2.048, -1, 15.8106, 17.0278, 23.3165, 35.1424, -32.4454, -27.7216
2.051, -1, 15.8568, 17.0018, 23.3107, 35.212, -32.3599, -27.7706
2.055, -1, 15.903, 16.9759, 23.3049, 35.2814, -32.2746, -27.8195
2.06, -1, 15.9491, 16.9499, 23.2991, 35.3508, -32.1893, -27.8684
2.064, -1, 15.9952, 16.924, 23.2933, 35.4201, -32.1041, -27.9173
2.068, -1, 16.0413, 16.8981, 23.2875, 35.4894, -32.019, -27.9661
2.071, -1, 16.0872, 16.8723, 23.2817, 35.5585, -31.9341, -28.0148
2.076, -1, 16.1331, 16.8465, 23.2759, 35.6276, -31.8492, -28.0635
2.08, -1, 16.179, 16.8207, 23.2702, 35.6966, -31.7644, -28.1121
2.084, -1, 16.2248, 16.7949, 23.2644, 35.7656, -31.6797, -28.1606
2.087, -1, 16.2706, 16.7692, 23.2587, 35.8344, -31.5951, -28.2092
2.092, -1, 16.3163, 16.7435, 23.2529, 35.9032, -31.5106, -28.2576
2.096, -1, 16.362, 16.7178, 23.2472, 35.9719, -31.4262, -28.306
2.1, -1, 16.4076, 16.6921, 23.2414, 36.0405, -31.3418, -28.3544
2.104, -1, 16.4532, 16.6665, 23.2357, 36.1091, -31.2576, -28.4027
2.107, -1, 16.4987, 16.6409, 23.23, 36.1775, -31.1735, -28.4509
2.111, -1, 16.5442, 16.6154, 23.2243, 36.2459, -31.0894, -28.4991
2.116, -1, 16.5896, 16.5898, 23.2186, 36.3143, -31.0055, -28.5472
2.12, -1, 16.635, 16.5643, 23.2129, 36.3825, -30.9216, -28.5953
2.124, -1, 16.6803, 16.5388, 23.2072, 36.4507, -30.8378, -28.6434
2.127, -1, 16.7255, 16.5134, 23.2015, 36.5188, -30.7542, -28.6913
2.132, -1, 16.7708, 16.488, 23.1958, 36.5868, -30.6706, -28.7393
2.136, -1, 16.8159, 16.4626, 23.1901, 36.6548, -30.5871, -28.7872
2.14, -1, 16.8611, 16.4372, 23.1844, 36.7226, -30.5037, -28.835
2.143, -1, 16.9061, 16.4118, 23.1788, 36.7904, -30.4204, -28.8828
2.148, -1, 16.9512, 16.3865, 23.1731, 36.8582, -30.3371, -28.9305
2.152, -1, 16.9961, 16.3612, 23.1675, 36.9258, -30.254, -28.9782
2.156, -1, 17.0411, 16.336, 23.1618, 36.9934, -30.1709, -29.0258
2.16, -1, 17.086, 16.3107, 23.1562, 37.061, -30.088, -29.0734
2.163, -1, 17.1307, 16.2856, 23.1505, 37.1284, -30.0051, -29.1209
2.168, -1, 17.1752, 16.2605, 23.1449, 37.1958, -29.9223, -29.1684
2.172, -1, 17.2191, 16.2357, 23.1392, 37.263, -29.8397, -29.2157
2.176, -1, 17.2623, 16.2112, 23.1335, 37.3301, -29.7572, -29.263
2.179, -1, 17.3045, 16.1873, 23.1277, 37.397, -29.6751, -29.3101
2.184, -1, 17.3456, 16.164, 23.1218, 37.4635, -29.5935, -29.357
2.188, -1, 17.3855, 16.1414, 23.116, 37.5293, -29.5126, -29.4033
2.192, -1, 17.4241, 16.1195, 23.1101, 37.5942, -29.433, -29.4491
2.196, -1, 17.4614, 16.0985, 23.1043, 37.6578, -29.3548, -29.4939
2.199, -1, 17.4974, 16.0784, 23.0986, 37.7198, -29.2788, -29.5376
2.204, -1, 17.532, 16.0593, 23.093, 37.7796, -29.2053, -29.5798
2.208, -1, 17.565, 16.0414, 23.0876, 37.837, -29.1349, -29.6202
2.212, -1, 17.5961, 16.0246, 23.0825, 37.8913, -29.0682, -29.6585
2.216, -1, 17.6255, 16.0089, 23.0778, 37.9423, -29.0056, -29.6944
2.219, -1, 17.6531, 15.9942, 23.0734, 37.9894, -28.9477, -29.7277
2.224, -1, 17.6791, 15.9802, 23.0695, 38.0325, -28.8949, -29.758
2.228, -1, 17.7034, 15.9668, 23.0661, 38.0711, -28.8475, -29.7852
2.232, -1, 17.7262, 15.9539, 23.0633, 38.1052, -28.8055, -29.8093
2.235, -1, 17.7475, 15.9416, 23.0609, 38.1349, -28.769, -29.8302
2.24, -1, 17.767, 15.9299, 23.0591, 38.1603, -28.7379, -29.848
2.244, -1, 17.7847, 15.9192, 23.0578, 38.1815, -28.7117, -29.863
2.248, -1, 17.8006, 15.9096, 23.0568, 38.1989, -28.6902, -29.8752
2.252, -1, 17.8146, 15.9012, 23.0561, 38.213, -28.6728, -29.8851
2.255, -1, 17.827, 15.8938, 23.0557, 38.2241, -28.6592, -29.8929
2.259, -1, 17.8379, 15.8875, 23.0556, 38.2326, -28.6486, -29.8989
2.264, -1, 17.8474, 15.8821, 23.0556, 38.239, -28.6407, -29.9034
2.268, -1, 17.8555, 15.8777, 23.0556, 38.2437, -28.6349, -29.9067
2.272, -1, 17.8622, 15.8741, 23.0558, 38.247, -28.6307, -29.9091
2.275, 2, 17.8677, 15.8713, 23.0559, 38.2493, -28.6278, -29.9107
2.28, 2, 17.8718, 15.8692, 23.0561, 38.2509, -28.6258, -29.9118
2.284, 2, 17.8749, 15.8678, 23.0562, 38.252, -28.6244, -29.9126
2.288, 2, 17.877, 15.8667, 23.0562, 38.2528, -28.6235, -29.9131
2.291, 2, 17.8785, 15.866, 23.0563, 38.2533, -28.6229, -29.9135
2.296, 2, 17.8795, 15.8655, 23.0563, 38.2536, -28.6224, -29.9137
2.3, 2, 17.8802, 15.8652, 23.0563, 38.2539, -28.6221, -29.9139
2.304, 2, 17.8806, 15.865, 23.0564, 38.254, -28.6219, -29.914
2.308, 2, 17.8809, 15.8649, 23.0564, 38.2541, -28.6218, -29.9141
2.311, 2, 17.8811, 15.8648, 23.0564, 38.2542, -28.6217, -29.9141
2.316, 2, 17.8813, 15.8647, 23.0564, 38.2543, -28.6216, -29.9142
2.32, 2, 17.8814, 15.8646, 23.0564, 38.2543, -28.6216, -29.9142
2.324, 2, 17.8814, 15.8646, 23.0564, 38.2543, -28.6216, -29.9142
2.328, 2, 17.8815, 15.8646, 23.0564, 38.2543, -28.6216, -29.9142
2.331, 2, 17.8815, 15.8646, 23.0564, 38.2543, -28.6215, -29.9142
2.336, 2, 17.8815, 15.8646, 23.0564, 38.2544, -28.6215, -29.9142
2.34, 2, 17.8815, 15.8646, 23.0564, 38.2544, -28.6215, -29.9142
2.344, 2, 17.8816, 15.8646, 23.0564, 38.2544, -28.6215, -29.9142
2.347, 2, 17.8816, 15.8646, 23.0564, 38.2544, -28.6215, -29.9142
2.352, 2, 17.8816, 15.8646, 23.0564, 38.2544, -28.6215, -29.9142
2.356, 2, 17.8816, 15.8646, 23.0564, 38.2544, -28.6215, -29.9142
2.36, 2, 17.8816, 15.8646, 23.0564, 38.2544, -28.6215, -29.9142
2.364, 2, 17.8816, 15.8645, 23.0564, 38.2544, -28.6215, -29.9142
2.367, 2, 17.8816, 15.8645, 23.0564, 38.2544, -28.6215, -29.9142
2.372, 2, 17.8816, 15.8645, 23.0564, 38.2544, -28.6215, -29.9142
2.376, 2, 17.8816, 15.8645, 23.0564, 38.2544, -28.6215, -29.9142
2.38, 2, 17.8816, 15.8645, 23.0564, 38.2544, -28.6215, -29.9142
2.383, 2, 17.8816, 15.8645, 23.0564, 38.2544, -28.6215, -29.9142
2.388, 2, 17.8816, 15.8645, 23.0564, 38.2544, -28.6215, -29.9142
2.392, 2, 17.8816, 15.8645, 23.0564, 38.2544, -28.6215, -29.9142
2.396, 2, 17.8816, 15.8645, 23.0564, 38.2544, -28.6215, -29.9142
2.4, 2, 17.8816, 15.8645, 23.0564, 38.2544, -28.6215, -29.9142
2.403, 2, 17.8816, 15.8645, 23.0564, 38.2544, -28.6215, -29.9142
2.408, 2, 17.8816, 15.8645, 23.0564, 38.2544, -28.6215, -29.9142
2.412, 2, 17.8816, 15.8645, 23.0564, 38.2544, -28.6215, -29.9142
2.416, 2, 17.8816, 15.8645, 23.0564, 38.2544, -28.6215, -29.9142
2.42, 2, 17.8816, 15.8645, 23.0564, 38.2544, -28.6215, -29.9142
2.423, 2, 17.8816, 15.8645, 23.0564, 38.2544, -28.6215, -29.9142
2.428, 2, 17.8816, 15.8645, 23.0564, 38.2544, -28.6215, -29.9142
2.432, 2, 17.8816, 15.8645, 23.0564, 38.2544, -28.6215, -29.9142
2.436, 2, 17.8816, 15.8645, 23.0564, 38.2544, -28.6215, -29.9142
2.439, 2, 17.8816, 15.8645, 23.0564, 38.2544, -28.6215, -29.9142
2.444, 2, 17.8816, 15.8645, 23.0564, 38.2544, -28.6215, -29.9142
2.448, 2, 17.8816, 15.8645, 23.0564, 38.2544, -28.6215, -29.9142
2.452, 2, 17.8816, 15.8645, 23.0564, 38.2544, -28.6215, -29.9142
2.456, 2, 17.8816, 15.8645, 23.0564, 38.2544, -28.6215, -29.9142
2.459, 2, 17.8816, 15.8645, 23.0564, 38.2544, -28.6215, -29.9142
2.464, 2, 17.8816, 15.8645, 23.0564, 38.2544, -28.6215, -29.9142
2.468, 2, 17.8816, 15.8645, 23.0564, 38.2544, -28.6215, -29.9142
2.472, 2, 17.8816, 15.8645, 23.0564, 38.2544, -28.6215, -29.9142
2.476, 2, 17.8816, 15.8645, 23.0564, 38.2544, -28.6215, -29.9142
2.479, 2, 17.8816, 15.8645, 23.0564, 38.2544, -28.6215, -29.9142
2.484, 2, 17.8816, 15.8645, 23.0564, 38.2544, -28.6215, -29.9142
2.488, 2, 17.8816, 15.8645, 23.0564, 38.2544, -28.6215, -29.9142
2.492, 2, 17.8816, 15.8645, 23.0564, 38.2544, -28.6215, -29.9142
2.495, 2, 17.8816, 15.8645, 23.0564, 38.2544, -28.6215, -29.9142
2.5, 2, 17.8816, 15.8645, 23.0564, 38.2544, -28.6215, -29.9142
2.504, 2, 17.8816, 15.8645, 23.0564, 38.2544, -28.6215, -29.9142
2.508, 2, 17.8816, 15.8645, 23.0564, 38.2544, -28.6215, -29.9142
2.512, 2, 17.8816, 15.8645, 23.0564, 38.2544, -28.6215, -29.9142
2.515, 2, 17.8816, 15.8645, 23.0564, 38.2544, -28.6215, -29.9142
2.52, 2, 17.8816, 15.8645, 23.0564, 38.2544, -28.6215, -29.9142
2.524, 2, 17.8816, 15.8645, 23.0564, 38.2544, -28.6215, -29.9142
2.528, 2, 17.8816, 15.8645, 23.0564, 38.2544, -28.6215, -29.9142
2.531, 2, 17.8816, 15.8645, 23.0564, 38.2544, -28.6215, -29.9142
2.536, 2, 17.8816, 15.8645, 23.0564, 38.2544, -28.6215, -29.9142
2.54, 2, 17.8816, 15.8645, 23.0564, 38.2544, -28.6215, -29.9142
2.544, 2, 17.8816, 15.8645, 23.0564, 38.2544, -28.6215, -29.9142
2.548, 2, 17.8816, 15.8645, 23.0564, 38.2544, -28.6215, -29.9142
2.551, 2, 17.8816, 15.8645, 23.0564, 38.2544, -28.6215, -29.9142
2.556, 2, 17.8816, 15.8645, 23.0564, 38.2544, -28.6215, -29.9142
2.56, 2, 17.8816, 15.8645, 23.0564, 38.2544, -28.6215, -29.9142
2.564, 2, 17.8816, 15.8645, 23.0564, 38.2544, -28.6215, -29.9142
2.568, 2, 17.8816, 15.8645, 23.0564, 38.2544, -28.6215, -29.9142
2.571, 2, 17.8816, 15.8645, 23.0564, 38.2544, -28.6215, -29.9142
2.576, 2, 17.8816, 15.8645, 23.0564, 38.2544, -28.6215, -29.9142
2.58, 2, 17.8816, 15.8645, 23.0564, 38.2544, -28.6215, -29.9142
2.584, 2, 17.8816, 15.8645, 23.0564, 38.2544, -28.6215, -29.9142
2.587, 2, 17.8816, 15.8645, 23.0564, 38.2544, -28.6215, -29.9142
2.592, 2, 17.8816, 15.8645, 23.0564, 38.2544, -28.6215, -29.9142
2.596, 2, 17.8816, 15.8645, 23.0564, 38.2544, -28.6215, -29.9142
2.6, 2, 17.8816, 15.8645, 23.0564, 38.2544, -28.6215, -29.9142
2.604, 2, 17.8816, 15.8645, 23.0564, 38.2544, -28.6215, -29.9142
2.607, 2, 17.8816, 15.8645, 23.0564, 38.2544, -28.6215, -29.9142
2.612, 2, 17.8816, 15.8645, 23.0564, 38.2544, -28.6215, -29.9142
2.616, 2, 17.8816, 15.8645, 23.0564, 38.2544, -28.6215, -29.9142
2.62, 2, 17.8816, 15.8645, 23.0564, 38.2544, -28.6215, -29.9142
2.624, 2, 17.8816, 15.8645, 23.0564, 38.2544, -28.6215, -29.9142
2.627, 2, 17.8816, 15.8645, 23.0564, 38.2544, -28.6215, -29.9142
2.632, 2, 17.8816, 15.8645, 23.0564, 38.2544, -28.6215, -29.9142
2.636, 2, 17.8816, 15.8645, 23.0564, 38.2544, -28.6215, -29.9142
2.64, 2, 17.8816, 15.8645, 23.0564, 38.2544, -28.6215, -29.9142
2.643, 2, 17.8816, 15.8645, 23.0564, 38.2544, -28.6215, -29.9142
2.648, 2, 17.8816, 15.8645, 23.0564, 38.2544, -28.6215, -29.9142
2.652, 2, 17.8816, 15.8645, 23.0564, 38.2544, -28.6215, -29.9142
2.656, 2, 17.8816, 15.8645, 23.0564, 38.2544, -28.6215, -29.9142
2.66, 2, 17.8816, 15.8645, 23.0564, 38.2544, -28.6215, -29.9142
2.663, 2, 17.8816, 15.8645, 23.0564, 38.2544, -28.6215, -29.9142
2.668, 2, 17.8816, 15.8645, 23.0564, 38.2544, -28.6215, -29.9142
2.672, 2, 17.8816, 15.8645, 23.0564, 38.2544, -28.6215, -29.9142
2.676, 2, 17.8816, 15.8645, 23.0564, 38.2544, -28.6215, -29.9142
2.679, 2, 17.8816, 15.8645, 23.0564, 38.2544, -28.6215, -29.9142
2.684, 2, 17.8816, 15.8645, 23.0564, 38.2544, -28.6215, -29.9142
2.688, 2, 17.8816, 15.8645, 23.0564, 38.2544, -28.6215, -29.9142
2.692, 2, 17.8816, 15.8645, 23.0564, 38.2544, -28.6215, -29.9142
2.696, 2, 17.8816, 15.8645, 23.0564, 38.2544, -28.6215, -29.9142
2.699, 2, 17.8816, 15.8645, 23.0564, 38.2544, -28.6215, -29.9142
2.704, 2, 17.8816, 15.8645, 23.0564, 38.2544, -28.6215, -29.9142
2.708, 2, 17.8816, 15.8645, 23.0564, 38.2544, -28.6215, -29.9142
2.712, 2, 17.8816, 15.8645, 23.0564, 38.2544, -28.6215, -29.9142
2.716, 2, 17.8816, 15.8645, 23.0564, 38.2544, -28.6215, -29.9142
2.719, 2, 17.8816, 15.8645, 23.0564, 38.2544, -28.6215, -29.9142
2.724, 2, 17.8816, 15.8645, 23.0564, 38.2544, -28.6215, -29.9142
2.728, 2, 17.8816, 15.8645, 23.0564, 38.2544, -28.6215, -29.9142
2.732, 2, 17.8816, 15.8645, 23.0564, 38.2544, -28.6215, -29.9142
2.735, 2, 17.8816, 15.8645, 23.0564, 38.2544, -28.6215, -29.9142
2.74, 2, 17.8816, 15.8645, 23.0564, 38.2544, -28.6215, -29.9142
2.744, 2, 17.8816, 15.8645, 23.0564, 38.2544, -28.6215, -29.9142
2.748, 2, 17.8816, 15.8645, 23.0564, 38.2544, -28.6215, -29.9142
2.752, 2, 17.8816, 15.8645, 23.0564, 38.2544, -28.6215, -29.9142
2.755, 2, 17.8816, 15.8645, 23.0564, 38.2544, -28.6215, -29.9142
2.76, 2, 17.8816, 15.8645, 23.0564, 38.2544, -28.6215, -29.9142
2.764, 2, 17.8816, 15.8645, 23.0564, 38.2544, -28.6215, -29.9142
2.768, 2, 17.8816, 15.8645, 23.0564, 38.2544, -28.6215, -29.9142
2.772, 2, 17.8816, 15.8645, 23.0564, 38.2544, -28.6215, -29.9142
2.775, 2, 17.8816, 15.8645, 23.0564, 38.2544, -28.6215, -29.9142
2.78, 2, 17.8816, 15.8645, 23.0564, 38.2544, -28.6215, -29.9142
2.784, 2, 17.8816, 15.8645, 23.0564, 38.2544, -28.6215, -29.9142
2.788, 2, 17.8816, 15.8645, 23.0564, 38.2544, -28.6215, -29.9142
2.791, 2, 17.8816, 15.8645, 23.0564, 38.2544, -28.6215, -29.9142
2.796, 2, 17.8816, 15.8645, 23.0564, 38.2544, -28.6215, -29.9142
2.8, 2, 17.8816, 15.8645, 23.0564, 38.2544, -28.6215, -29.9142
2.804, 2, 17.8816, 15.8645, 23.0564, 38.2544, -28.6215, -29.9142
2.808, 2, 17.8816, 15.8645, 23.0564, 38.2544, -28.6215, -29.9142
2.811, 2, 17.8816, 15.8645, 23.0564, 38.2544, -28.6215, -29.9142
2.816, 2, 17.8816, 15.8645, 23.0564, 38.2544, -28.6215, -29.9142
2.82, 2, 17.8816, 15.8645, 23.0564, 38.2544, -28.6215, -29.9142
2.824, 2, 17.8816, 15.8645, 23.0564, 38.2544, -28.6215, -29.9142
2.828, 2, 17.8816, 15.8645, 23.0564, 38.2544, -28.6215, -29.9142
2.831, 2, 17.8816, 15.8645, 23.0564, 38.2544, -28.6215, -29.9142
2.836, 2, 17.8816, 15.8645, 23.0564, 38.2544, -28.6215, -29.9142
2.84, 2, 17.8816, 15.8645, 23.0564, 38.2544, -28.6215, -29.9142
2.844, 2, 17.8816, 15.8645, 23.0564, 38.2544, -28.6215, -29.9142
2.847, 2, 17.8816, 15.8645, 23.0564, 38.2544, -28.6215, -29.9142
2.852, 2, 17.8816, 15.8645, 23.0564, 38.2544, -28.6215, -29.9142
2.856, 2, 17.8816, 15.8645, 23.0564, 38.2544, -28.6215, -29.9142
2.86, 2, 17.8816, 15.8645, 23.0564, 38.2544, -28.6215, -29.9142
2.864, 2, 17.8816, 15.8645, 23.0564, 38.2544, -28.6215, -29.9142
2.867, 2, 17.8816, 15.8645, 23.0564, 38.2544, -28.6215, -29.9142
2.872, 2, 17.8816, 15.8645, 23.0564, 38.2544, -28.6215, -29.9142
2.876, 2, 17.8816, 15.8645, 23.0564, 38.2544, -28.6215, -29.9142
2.88, 2, 17.8816, 15.8645, 23.0564, 38.2544, -28.6215, -29.9142
2.883, 2, 17.8816, 15.8645, 23.0564, 38.2544, -28.6215, -29.9142
2.888, 2, 17.8816, 15.8645, 23.0564, 38.2544, -28.6215, -29.9142
2.892, 2, 17.8816, 15.8645, 23.0564, 38.2544, -28.6215, -29.9142
2.896, 2, 17.8816, 15.8645, 23.0564, 38.2544, -28.6215, -29.9142
2.9, 2, 17.8816, 15.8645, 23.0564, 38.2544, -28.6215, -29.9142
2.903, 2, 17.8816, 15.8645, 23.0564, 38.2544, -28.6215, -29.9142
2.908, 2, 17.8816, 15.8645, 23.0564, 38.2544, -28.6215, -29.9142
2.912, 2, 17.8816, 15.8645, 23.0564, 38.2544, -28.6215, -29.9142
2.916, 2, 17.8816, 15.8645, 23.0564, 38.2544, -28.6215, -29.9142
2.92, 2, 17.8816, 15.8645, 23.0564, 38.2544, -28.6215, -29.9142
2.923, 2, 17.8816, 15.8645, 23.0564, 38.2544, -28.6215, -29.9142
2.928, 2, 17.8816, 15.8645, 23.0564, 38.2544, -28.6215, -29.9142
2.932, 2, 17.8816, 15.8645, 23.0564, 38.2544, -28.6215, -29.9142
2.936, 2, 17.8816, 15.8645, 23.0564, 38.2544, -28.6215, -29.9142
2.939, 2, 17.8816, 15.8645, 23.0564, 38.2544, -28.6215, -29.9142
2.944, 2, 17.8816, 15.8645, 23.0564, 38.2544, -28.6215, -29.9142
2.948, 2, 17.8816, 15.8645, 23.0564, 38.2544, -28.6215, -29.9142
2.952, 2, 17.8816, 15.8645, 23.0564, 38.2544, -28.6215, -29.9142
2.956, 2, 17.8816, 15.8645, 23.0564, 38.2544, -28.6215, -29.9142
2.959, 2, 17.8816, 15.8645, 23.0564, 38.2544, -28.6215, -29.9142
2.964, 2, 17.8816, 15.8645, 23.0564, 38.2544, -28.6215, -29.9142
2.968, 2, 17.8816, 15.8645, 23.0564, 38.2544, -28.6215, -29.9142
2.972, 2, 17.8816, 15.8645, 23.0564, 38.2544, -28.6215, -29.9142
2.976, 2, 17.8816, 15.8645, 23.0564, 38.2544, -28.6215, -29.9142
2.98, 2, 17.8816, 15.8645, 23.0564, 38.2544, -28.6215, -29.9142
2.984, 2, 17.8816, 15.8645, 23.0564, 38.2544, -28.6215, -29.9142
2.988, 2, 17.8816, 15.8645, 23.0564, 38.2544, -28.6215, -29.9142
2.992, 2, 17.8816, 15.8645, 23.0564, 38.2544, -28.6215, -29.9142
2.995, 2, 17.8816, 15.8645, 23.0564, 38.2544, -28.6215, -29.9142
3, 2, 17.8816, 15.8645, 23.0564, 38.2544, -28.6215, -29.9142
3.004, 2, 17.8816, 15.8645, 23.0564, 38.2544, -28.6215, -29.9142
3.008, 2, 17.8816, 15.8645, 23.0564, 38.2544, -28.6215, -29.9142
3.012, 2, 17.8816, 15.8645, 23.0564, 38.2544, -28.6215, -29.9142
3.015, 2, 17.8816, 15.8645, 23.0564, 38.2544, -28.6215, -29.9142
3.02, 2, 17.8816, 15.8645, 23.0564, 38.2544, -28.6215, -29.9142
3.024, 2, 17.8816, 15.8645, 23.0564, 38.2544, -28.6215, -29.9142
3.028, 2, 17.8816, 15.8645, 23.0564, 38.2544, -28.6215, -29.9142
3.031, 2, 17.8816, 15.8645, 23.0564, 38.2544, -28.6215, -29.9142
3.036, 2, 17.8816, 15.8645, 23.0564, 38.2544, -28.6215, -29.9142
3.04, 2, 17.8816, 15.8645, 23.0564, 38.2544, -28.6215, -29.9142
3.044, 2, 17.8816, 15.8645, 23.0564, 38.2544, -28.6215, -29.9142
3.048, 2, 17.8816, 15.8645, 23.0564, 38.2544, -28.6215, -29.9142
3.051, 2, 17.8816, 15.8645, 23.0564, 38.2544, -28.6215, -29.9142
3.056, 2, 17.8816, 15.8645, 23.0564, 38.2544, -28.6215, -29.9142
3.06, 2, 17.8816, 15.8645, 23.0564, 38.2544, -28.6215, -29.9142
3.064, 2, 17.8816, 15.8645, 23.0564, 38.2544, -28.6215, -29.9142
3.068, 2, 17.8816, 15.8645, 23.0564, 38.2544, -28.6215, -29.9142
3.071, 2, 17.8816, 15.8645, 23.0564, 38.2544, -28.6215, -29.9142
3.076, 2, 17.8816, 15.8645, 23.0564, 38.2544, -28.6215, -29.9142
3.08, 2, 17.8816, 15.8645, 23.0564, 38.2544, -28.6215, -29.9142
3.084, 2, 17.8816, 15.8645, 23.0564, 38.2544, -28.6215, -29.9142
3.087, 2, 17.8816, 15.8645, 23.0564, 38.2544, -28.6215, -29.9142
3.092, 2, 17.8816, 15.8645, 23.0564, 38.2544, -28.6215, -29.9142
3.096, 2, 17.8816, 15.8645, 23.0564, 38.2544, -28.6215, -29.9142
3.1, 2, 17.8816, 15.8645, 23.0564, 38.2544, -28.6215, -29.9142
3.104, 2, 17.8816, 15.8645, 23.0564, 38.2544, -28.6215, -29.9142
3.107, 2, 17.8816, 15.8645, 23.0564, 38.2544, -28.6215, -29.9142
3.112, 2, 17.8816, 15.8645, 23.0564, 38.2544, -28.6215, -29.9142
3.116, 2, 17.8816, 15.8645, 23.0564, 38.2544, -28.6215, -29.9142
3.12, 2, 17.8816, 15.8645, 23.0564, 38.2544, -28.6215, -29.9142
3.124, 2, 17.8816, 15.8645, 23.0564, 38.2544, -28.6215, -29.9142
3.128, 2, 17.8816, 15.8645, 23.0564, 38.2544, -28.6215, -29.9142
3.132, 2, 17.8816, 15.8645, 23.0564, 38.2544, -28.6215, -29.9142
3.136, 2, 17.8816, 15.8645, 23.0564, 38.2544, -28.6215, -29.9142
3.14, 2, 17.8816, 15.8645, 23.0564, 38.2544, -28.6215, -29.9142
3.143, 2, 17.8816, 15.8645, 23.0564, 38.2544, -28.6215, -29.9142
3.148, 2, 17.8816, 15.8645, 23.0564, 38.2544, -28.6215, -29.9142
3.152, 2, 17.8816, 15.8645, 23.0564, 38.2544, -28.6215, -29.9142
3.156, 2, 17.8816, 15.8645, 23.0564, 38.2544, -28.6215, -29.9142
3.16, 2, 17.8816, 15.8645, 23.0564, 38.2544, -28.6215, -29.9142
3.163, 2, 17.8816, 15.8645, 23.0564, 38.2544, -28.6215, -29.9142
3.168, 2, 17.8816, 15.8645, 23.0564, 38.2544, -28.6215, -29.9142
3.172, 2, 17.8816, 15.8645, 23.0564, 38.2544, -28.6215, -29.9142
3.176, 2, 17.8816, 15.8645, 23.0564, 38.2544, -28.6215, -29.9142
3.179, 2, 17.8816, 15.8645, 23.0564, 38.2544, -28.6215, -29.9142
3.184, 2, 17.8816, 15.8645, 23.0564, 38.2544, -28.6215, -29.9142
3.188, 2, 17.8816, 15.8645, 23.0564, 38.2544, -28.6215, -29.9142
3.192, 2, 17.8816, 15.8645, 23.0564, 38.2544, -28.6215, -29.9142
3.196, 2, 17.8816, 15.8645, 23.0564, 38.2544, -28.6215, -29.9142
3.199, 2, 17.8816, 15.8645, 23.0564, 38.2544, -28.6215, -29.9142
3.204, 2, 17.8816, 15.8645, 23.0564, 38.2544, -28.6215, -29.9142
3.208, 2, 17.8816, 15.8645, 23.0564, 38.2544, -28.6215, -29.9142
3.212, 2, 17.8816, 15.8645, 23.0564, 38.2544, -28.6215, -29.9142
3.216, 2, 17.8816, 15.8645, 23.0564, 38.2544, -28.6215, -29.9142
3.22, 2, 17.8816, 15.8645, 23.0564, 38.2544, -28.6215, -29.9142
3.224, 2, 17.8816, 15.8645, 23.0564, 38.2544, -28.6215, -29.9142
3.228, 2, 17.8816, 15.8645, 23.0564, 38.2544, -28.6215, -29.9142
3.232, 2, 17.8816, 15.8645, 23.0564, 38.2544, -28.6215, -29.9142
3.235, 2, 17.8816, 15.8645, 23.0564, 38.2544, -28.6215, -29.9142
3.24, 2, 17.8816, 15.8645, 23.0564, 38.2544, -28.6215, -29.9142
3.244, 2, 17.8816, 15.8645, 23.0564, 38.2544, -28.6215, -29.9142
3.248, 2, 17.8816, 15.8645, 23.0564, 38.2544, -28.6215, -29.9142
3.252, 2, 17.8816, 15.8645, 23.0564, 38.2544, -28.6215, -29.9142
3.255, 2, 17.8816, 15.8645, 23.0564, 38.2544, -28.6215, -29.9142
3.26, 2, 17.8816, 15.8645, 23.0564, 38.2544, -28.6215, -29.9142
3.264, 2, 17.8816, 15.8645, 23.0564, 38.2544, -28.6215, -29.9142
3.268, 2, 17.8816, 15.8645, 23.0564, 38.2544, -28.6215, -29.9142
3.272, 2, 17.8816, 15.8645, 23.0564, 38.2544, -28.6215, -29.9142
3.276, 2, 17.8816, 15.8645, 23.0564, 38.2544, -28.6215, -29.9142
3.28, 2, 17.8816, 15.8645, 23.0564, 38.2544, -28.6215, -29.9142
3.284, 2, 17.8816, 15.8645, 23.0564, 38.2544, -28.6215, -29.9142
3.288, 2, 17.8816, 15.8645, 23.0564, 38.2544, -28.6215, -29.9142
3.291, 2, 17.8816, 15.8645, 23.0564, 38.2544, -28.6215, -29.9142
3.296, 2, 17.8816, 15.8645, 23.0564, 38.2544, -28.6215, -29.9142
3.3, 2, 17.8816, 15.8645, 23.0564, 38.2544, -28.6215, -29.9142
3.304, 2, 17.8816, 15.8645, 23.0564, 38.2544, -28.6215, -29.9142
3.308, 2, 17.8816, 15.8645, 23.0564, 38.2544, -28.6215, -29.9142
3.312, 2, 17.8816, 15.8645, 23.0564, 38.2544, -28.6215, -29.9142
3.316, 2, 17.8816, 15.8645, 23.0564, 38.2544, -28.6215, -29.9142
3.32, 2, 17.8816, 15.8645, 23.0564, 38.2544, -28.6215, -29.9142
3.324, 2, 17.8816, 15.8645, 23.0564, 38.2544, -28.6215, -29.9142
3.328, 2, 17.8816, 15.8645, 23.0564, 38.2544, -28.6215, -29.9142
3.332, 2, 17.8816, 15.8645, 23.0564, 38.2544, -28.6215, -29.9142
3.336, 2, 17.8816, 15.8645, 23.0564, 38.2544, -28.6215, -29.9142
3.34, 2, 17.8816, 15.8645, 23.0564, 38.2544, -28.6215, -29.9142
3.344, 2, 17.8816, 15.8645, 23.0564, 38.2544, -28.6215, -29.9142
3.347, 2, 17.8816, 15.8645, 23.0564, 38.2544, -28.6215, -29.9142
3.352, 4, 17.8816, 15.8645, 23.0564, 38.2544, -28.6215, -29.9142
3.356, 4, 17.8816, 15.8645, 23.0564, 38.2544, -28.6215, -29.9142
3.36, 4, 17.8816, 15.8645, 23.0564, 38.2544, -28.6215, -29.9142
3.364, 4, 17.8816, 15.8645, 23.0564, 38.2544, -28.6215, -29.9142
3.368, 4, 17.8816, 15.8645, 23.0564, 38.2544, -28.6215, -29.9142
3.372, 4, 17.8816, 15.8645, 23.0564, 38.2544, -28.6215, -29.9142
3.376, 4, 17.8816, 15.8645, 23.0564, 38.2544, -28.6215, -29.9142
3.38, 4, 17.8816, 15.8645, 23.0564, 38.2544, -28.6215, -29.9142
3.383, 4, 17.8816, 15.8645, 23.0564, 38.2544, -28.6215, -29.9142
3.388, 4, 17.8816, 15.8645, 23.0564, 38.2544, -28.6215, -29.9142
3.392, 4, 17.8816, 15.8645, 23.0564, 38.2544, -28.6215, -29.9142
3.396, 4, 17.8816, 15.8645, 23.0564, 38.2544, -28.6215, -29.9142
3.4, 4, 17.8816, 15.8645, 23.0564, 38.2544, -28.6215, -29.9142
3.403, 4, 17.8816, 15.8645, 23.0564, 38.2544, -28.6215, -29.9142
3.408, 4, 17.8816, 15.8645, 23.0564, 38.2544, -28.6215, -29.9142
3.412, 4, 17.8816, 15.8645, 23.0564, 38.2544, -28.6215, -29.9142
3.416, 4, 17.8816, 15.8645, 23.0564, 38.2544, -28.6215, -29.9142
3.42, 4, 17.8816, 15.8645, 23.0564, 38.2544, -28.6215, -29.9142
3.424, 4, 17.8816, 15.8645, 23.0564, 38.2544, -28.6215, -29.9142
3.428, 4, 17.8816, 15.8645, 23.0564, 38.2544, -28.6215, -29.9142
3.432, 4, 17.8816, 15.8645, 23.0564, 38.2544, -28.6215, -29.9142
3.436, 4, 17.8816, 15.8645, 23.0564, 38.2544, -28.6215, -29.9142
3.439, 4, 17.8816, 15.8645, 23.0564, 38.2544, -28.6215, -29.9142
3.444, 4, 17.8816, 15.8645, 23.0564, 38.2544, -28.6215, -29.9142
3.448, 4, 17.8816, 15.8645, 23.0564, 38.2544, -28.6215, -29.9142
3.452, 4, 17.8816, 15.8645, 23.0564, 38.2544, -28.6215, -29.9142
3.456, 4, 17.8816, 15.8645, 23.0564, 38.2544, -28.6215, -29.9142
3.46, 4, 17.8816, 15.8645, 23.0564, 38.2544, -28.6215, -29.9142
3.464, 4, 17.8816, 15.8645, 23.0564, 38.2544, -28.6215, -29.9142
3.468, 4, 17.8816, 15.8645, 23.0564, 38.2544, -28.6215, -29.9142
3.472, 4, 17.8816, 15.8645, 23.0564, 38.2544, -28.6215, -29.9142
3.476, 4, 17.8816, 15.8645, 23.0564, 38.2544, -28.6215, -29.9142
3.48, 4, 17.8816, 15.8645, 23.0564, 38.2544, -28.6215, -29.9142
3.484, 4, 17.8816, 15.8645, 23.0564, 38.2544, -28.6215, -29.9142
3.488, 4, 17.8816, 15.8645, 23.0564, 38.2544, -28.6215, -29.9142
3.492, 4, 17.8816, 15.8645, 23.0564, 38.2544, -28.6215, -29.9142
3.495, 4, 17.8816, 15.8645, 23.0564, 38.2544, -28.6215, -29.9142
3.5, 4, 17.8815, 15.8645, 23.0564, 38.2544, -28.6215, -29.9142
3.504, 4, 17.8812, 15.8645, 23.0564, 38.2543, -28.6215, -29.9142
3.508, 4, 17.8806, 15.8645, 23.0565, 38.2542, -28.6216, -29.9141
3.512, 4, 17.8796, 15.8645, 23.0566, 38.254, -28.6217, -29.9139
3.516, 4, 17.8782, 15.8644, 23.0568, 38.2534, -28.6219, -29.9134
3.52, 4, 17.8763, 15.8643, 23.0573, 38.2523, -28.6223, -29.9124
3.524, 4, 17.8742, 15.8642, 23.0579, 38.2504, -28.623, -29.9107
3.528, 4, 17.8719, 15.8639, 23.0589, 38.2474, -28.624, -29.9081
3.531, 4, 17.8695, 15.8636, 23.0603, 38.243, -28.6256, -29.9042
3.536, 4, 17.867, 15.8631, 23.0622, 38.237, -28.6278, -29.8989
3.54, 4, 17.8644, 15.8625, 23.0647, 38.2291, -28.6306, -29.8919
3.544, 5, 17.8617, 15.8618, 23.0677, 38.2193, -28.6341, -29.8832
3.548, 5, 17.8586, 15.8609, 23.0713, 38.2074, -28.6383, -29.8726
3.552, 5, 17.8554, 15.8599, 23.0756, 38.1933, -28.6433, -29.8602
3.556, 5, 17.852, 15.8587, 23.0805, 38.1771, -28.6491, -29.8458
3.56, 5, 17.8485, 15.8574, 23.0861, 38.1589, -28.6556, -29.8296
3.564, 5, 17.845, 15.8559, 23.0922, 38.1387, -28.6628, -29.8117
3.568, 5, 17.8415, 15.8543, 23.0988, 38.1168, -28.6706, -29.7923
3.572, 5, 17.8378, 15.8526, 23.1058, 38.0934, -28.679, -29.7715
3.576, 5, 17.8338, 15.8509, 23.1132, 38.0689, -28.6877, -29.7497
3.58, 5, 17.8294, 15.849, 23.1209, 38.0434, -28.6969, -29.7271
3.584, 5, 17.8246, 15.8471, 23.1289, 38.0172, -28.7062, -29.7039
3.587, 5, 17.8194, 15.8452, 23.137, 37.9907, -28.7158, -29.6804
3.592, 5, 17.8138, 15.8432, 23.1451, 37.9638, -28.7254, -29.6565
3.596, 5, 17.808, 15.8412, 23.1534, 37.9366, -28.7352, -29.6325
3.6, 5, 17.802, 15.8392, 23.1617, 37.9094, -28.745, -29.6083
3.604, 5, 17.7959, 15.8372, 23.1701, 37.8821, -28.7548, -29.5841
3.608, 5, 17.7897, 15.8352, 23.1784, 37.8547, -28.7647, -29.5598
3.612, 5, 17.7835, 15.8332, 23.1868, 37.8273, -28.7746, -29.5355
3.616, 5, 17.7772, 15.8312, 23.1952, 37.7999, -28.7845, -29.5112
3.62, 5, 17.771, 15.8292, 23.2036, 37.7724, -28.7944, -29.4869
3.624, 5, 17.7647, 15.8272, 23.212, 37.745, -28.8043, -29.4626
3.628, 5, 17.7583, 15.8252, 23.2204, 37.7176, -28.8143, -29.4383
3.632, 5, 17.752, 15.8232, 23.2288, 37.6902, -28.8242, -29.414
3.636, 5, 17.7457, 15.8212, 23.2372, 37.6627, -28.8342, -29.3898
3.64, 5, 17.7393, 15.8193, 23.2456, 37.6354, -28.8442, -29.3655
3.644, 5, 17.733, 15.8173, 23.254, 37.608, -28.8541, -29.3413
3.648, 5, 17.7267, 15.8153, 23.2623, 37.5806, -28.8641, -29.317
3.652, 5, 17.7203, 15.8133, 23.2707, 37.5533, -28.8741, -29.2928
3.656, 5, 17.714, 15.8113, 23.2791, 37.5259, -28.8841, -29.2686
3.66, 5, 17.7076, 15.8093, 23.2875, 37.4986, -28.8941, -29.2444
3.664, 5, 17.7013, 15.8074, 23.2959, 37.4713, -28.9041, -29.2202
3.668, 5, 17.695, 15.8054, 23.3043, 37.444, -28.9141, -29.1961
3.672, 5, 17.6886, 15.8034, 23.3126, 37.4167, -28.9241, -29.172
3.676, 5, 17.6823, 15.8015, 23.321, 37.3895, -28.9341, -29.1478
3.679, 5, 17.6759, 15.7995, 23.3294, 37.3622, -28.9441, -29.1237
3.684, 5, 17.6696, 15.7975, 23.3377, 37.335, -28.9541, -29.0996
3.688, 5, 17.6632, 15.7956, 23.3461, 37.3078, -28.9642, -29.0756
3.692, 5, 17.6568, 15.7936, 23.3545, 37.2806, -28.9742, -29.0515
3.696, 5, 17.6505, 15.7917, 23.3628, 37.2534, -28.9842, -29.0274
3.7, 5, 17.6441, 15.7897, 23.3712, 37.2263, -28.9943, -29.0034
3.704, 5, 17.6378, 15.7878, 23.3795, 37.1991, -29.0043, -28.9794
3.708, 5, 17.6314, 15.7858, 23.3879, 37.172, -29.0144, -28.9554
3.712, 5, 17.6251, 15.7839, 23.3962, 37.1449, -29.0245, -28.9314
3.716, 5, 17.6187, 15.7819, 23.4046, 37.1178, -29.0345, -28.9075
3.72, 5, 17.6123, 15.78, 23.4129, 37.0907, -29.0446, -28.8835
3.724, 5, 17.606, 15.778, 23.4212, 37.0636, -29.0547, -28.8596
3.728, 5, 17.5996, 15.7761, 23.4296, 37.0366, -29.0648, -28.8357
3.732, 5, 17.5933, 15.7742, 23.4379, 37.0095, -29.0748, -28.8118
3.735, 5, 17.5869, 15.7723, 23.4462, 36.9825, -29.0849, -28.7879
3.74, 5, 17.5805, 15.7703, 23.4546, 36.9555, -29.095, -28.764
3.744, 5, 17.5742, 15.7684, 23.4629, 36.9285, -29.1051, -28.7402
3.748, 5, 17.5678, 15.7665, 23.4712, 36.9016, -29.1152, -28.7163
3.752, 5, 17.5614, 15.7646, 23.4795, 36.8746, -29.1254, -28.6925
3.756, 5, 17.5551, 15.7627, 23.4879, 36.8477, -29.1355, -28.6687
3.76, 5, 17.5487, 15.7607, 23.4962, 36.8207, -29.1456, -28.6449
3.764, 5, 17.5423, 15.7588, 23.5045, 36.7938, -29.1557, -28.6211
3.768, 5, 17.536, 15.7569, 23.5128, 36.7669, -29.1659, -28.5974
3.772, 5, 17.5296, 15.755, 23.5211, 36.74, -29.176, -28.5736
3.776, 5, 17.5232, 15.7531, 23.5294, 36.7132, -29.1862, -28.5499
3.78, 5, 17.5168, 15.7512, 23.5377, 36.6863, -29.1963, -28.5262
3.784, 5, 17.5105, 15.7493, 23.546, 36.6595, -29.2065, -28.5025
3.788, 5, 17.5041, 15.7474, 23.5543, 36.6327, -29.2166, -28.4788
3.792, 5, 17.4977, 15.7455, 23.5626, 36.6059, -29.2268, -28.4552
3.796, 5, 17.4913, 15.7436, 23.5709, 36.5791, -29.237, -28.4315
3.8, 5, 17.485, 15.7418, 23.5792, 36.5523, -29.2471, -28.4079
3.804, 5, 17.4786, 15.7399, 23.5874, 36.5256, -29.2573, -28.3843
3.808, 5, 17.4722, 15.738, 23.5957, 36.4988, -29.2675, -28.3607
3.812, 5, 17.4658, 15.7361, 23.604, 36.4721, -29.2777, -28.3371
3.816, 5, 17.4594, 15.7342, 23.6123, 36.4454, -29.2879, -28.3135
3.82, 5, 17.4531, 15.7324, 23.6206, 36.4187, -29.2981, -28.29
3.824, 5, 17.4467, 15.7305, 23.6288, 36.392, -29.3083, -28.2664
3.828, 5, 17.4403, 15.7286, 23.6371, 36.3654, -29.3185, -28.2429
3.832, 5, 17.4339, 15.7268, 23.6454, 36.3387, -29.3287, -28.2194
3.836, 5, 17.4275, 15.7249, 23.6536, 36.3121, -29.3389, -28.1959
3.84, 5, 17.4211, 15.723, 23.6619, 36.2855, -29.3492, -28.1724
3.844, 5, 17.4147, 15.7212, 23.6701, 36.2589, -29.3594, -28.149
3.848, 5, 17.4083, 15.7193, 23.6784, 36.2323, -29.3696, -28.1255
3.852, 5, 17.402, 15.7175, 23.6866, 36.2057, -29.3799, -28.1021
3.856, 5, 17.3956, 15.7156, 23.6949, 36.1792, -29.3901, -28.0787
3.86, 5, 17.3892, 15.7138, 23.7031, 36.1526, -29.4004, -28.0553
3.864, 5, 17.3828, 15.7119, 23.7114, 36.1261, -29.4106, -28.0319
3.868, 5, 17.3764, 15.7101, 23.7196, 36.0996, -29.4209, -28.0086
3.872, 5, 17.37, 15.7083, 23.7279, 36.0731, -29.4312, -27.9852
3.876, 5, 17.3636, 15.7064, 23.7361, 36.0467, -29.4414, -27.9619
3.88, 5, 17.3572, 15.7046, 23.7443, 36.0202, -29.4517, -27.9386
3.884, 5, 17.3508, 15.7028, 23.7526, 35.9938, -29.462, -27.9153
3.888, 5, 17.3444, 15.7009, 23.7608, 35.9673, -29.4723, -27.892
3.892, 5, 17.338, 15.6991, 23.769, 35.9409, -29.4826, -27.8687
3.896, 5, 17.3316, 15.6973, 23.7772, 35.9145, -29.4929, -27.8455
3.9, 5, 17.3252, 15.6955, 23.7855, 35.8881, -29.5032, -27.8222
3.904, 5, 17.3188, 15.6936, 23.7937, 35.8618, -29.5135, -27.799
3.908, 5, 17.3124, 15.6918, 23.8019, 35.8354, -29.5238, -27.7758
3.912, 5, 17.306, 15.69, 23.8101, 35.8091, -29.5341, -27.7526
3.916, 5, 17.2996, 15.6882, 23.8183, 35.7828, -29.5445, -27.7294
3.92, 5, 17.2932, 15.6864, 23.8265, 35.7565, -29.5548, -27.7063
3.924, 5, 17.2868, 15.6846, 23.8347, 35.7302, -29.5651, -27.6831
3.928, 5, 17.2803, 15.6828, 23.8429, 35.7039, -29.5755, -27.66
3.932, 5, 17.2739, 15.681, 23.8511, 35.6777, -29.5858, -27.6369
3.936, 5, 17.2675, 15.6792, 23.8593, 35.6514, -29.5962, -27.6138
3.94, 5, 17.2611, 15.6774, 23.8675, 35.6252, -29.6065, -27.5907
3.944, 5, 17.2547, 15.6756, 23.8757, 35.599, -29.6169, -27.5676
3.948, 5, 17.2483, 15.6738, 23.8839, 35.5728, -29.6272, -27.5446
3.952, 5, 17.2419, 15.672, 23.892, 35.5466, -29.6376, -27.5216
3.956, 5, 17.2355, 15.6703, 23.9002, 35.5204, -29.648, -27.4985
3.96, 5, 17.229, 15.6685, 23.9084, 35.4943, -29.6584, -27.4755
3.964, 5, 17.2226, 15.6667, 23.9166, 35.4682, -29.6687, -27.4526
3.968, 5, 17.2162, 15.6649, 23.9248, 35.442, -29.6791, -27.4296
3.972, 5, 17.2098, 15.6632, 23.9329, 35.4159, -29.6895, -27.4066
3.976, 5, 17.2034, 15.6614, 23.9411, 35.3898, -29.6999, -27.3837
3.98, 5, 17.197, 15.6596, 23.9493, 35.3638, -29.7103, -27.3608
3.984, 5, 17.1905, 15.6579, 23.9574, 35.3377, -29.7207, -27.3379
3.988, 5, 17.1841, 15.6561, 23.9656, 35.3117, -29.7312, -27.315
3.992, 5, 17.1777, 15.6543, 23.9737, 35.2857, -29.7416, -27.2921
3.996, 5, 17.1713, 15.6526, 23.9819, 35.2596, -29.752, -27.2692
3.999, 5, 17.1648, 15.6508, 23.99, 35.2337, -29.7624, -27.2464
4.004, 5, 17.1584, 15.6491, 23.9982, 35.2077, -29.7729, -27.2236
4.008, 5, 17.152, 15.6473, 24.0063, 35.1817, -29.7833, -27.2007
4.012, 5, 17.1456, 15.6456, 24.0145, 35.1558, -29.7938, -27.1779
4.016, 5, 17.1391, 15.6439, 24.0226, 35.1298, -29.8042, -27.1552
4.02, 5, 17.1327, 15.6421, 24.0307, 35.1039, -29.8147, -27.1324
4.024, 5, 17.1263, 15.6404, 24.0389, 35.078, -29.8251, -27.1096
4.028, 5, 17.1198, 15.6386, 24.047, 35.0521, -29.8356, -27.0869
4.032, 5, 17.1134, 15.6369, 24.0551, 35.0262, -29.8461, -27.0642
4.036, 5, 17.107, 15.6352, 24.0633, 35.0004, -29.8565, -27.0415
4.04, 5, 17.1005, 15.6335, 24.0714, 34.9746, -29.867, -27.0188
4.044, 5, 17.0941, 15.6317, 24.0795, 34.9487, -29.8775, -26.9961
4.048, 5, 17.0877, 15.63, 24.0876, 34.9229, -29.888, -26.9734
4.052, 5, 17.0812, 15.6283, 24.0957, 34.8971, -29.8985, -26.9508
4.056, 5, 17.0748, 15.6266, 24.1038, 34.8713, -29.909, -26.9282
4.06, 5, 17.0683, 15.6249, 24.112, 34.8456, -29.9195, -26.9055
4.064, 5, 17.0619, 15.6231, 24.1201, 34.8198, -29.93, -26.883
4.068, 5, 17.0555, 15.6214, 24.1282, 34.7941, -29.9405, -26.8604
4.072, 5, 17.049, 15.6197, 24.1363, 34.7684, -29.951, -26.8378
4.076, 5, 17.0426, 15.618, 24.1444, 34.7427, -29.9615, -26.8152
4.08, 5, 17.0361, 15.6163, 24.1525, 34.717, -29.9721, -26.7927
4.084, 5, 17.0297, 15.6146, 24.1606, 34.6913, -29.9826, -26.7702
4.088, 5, 17.0232, 15.6129, 24.1687, 34.6656, -29.9931, -26.7477
4.092, 5, 17.0168, 15.6112, 24.1767, 34.64, -30.0037, -26.7252
4.096, 5, 17.0103, 15.6096, 24.1848, 34.6144, -30.0142, -26.7027
4.1, 5, 17.0039, 15.6079, 24.1929, 34.5888, -30.0248, -26.6803
4.104, 5, 16.9974, 15.6062, 24.201, 34.5632, -30.0353, -26.6578
4.108, 5, 16.991, 15.6045, 24.2091, 34.5376, -30.0459, -26.6354
4.112, 5, 16.9845, 15.6028, 24.2171, 34.512, -30.0565, -26.613
4.116, 5, 16.9781, 15.6011, 24.2252, 34.4865, -30.067, -26.5906
4.12, 5, 16.9716, 15.5995, 24.2333, 34.4609, -30.0776, -26.5682
4.124, 5, 16.9652, 15.5978, 24.2414, 34.4354, -30.0882, -26.5458
4.128, 5, 16.9587, 15.5961, 24.2494, 34.4099, -30.0988, -26.5235
4.132, 5, 16.9523, 15.5945, 24.2575, 34.3844, -30.1094, -26.5011
4.136, 5, 16.9458, 15.5928, 24.2655, 34.3589, -30.12, -26.4788
4.14, 5, 16.9394, 15.5911, 24.2736, 34.3335, -30.1306, -26.4565
4.144, 5, 16.9329, 15.5895, 24.2816, 34.308, -30.1412, -26.4342
4.148, 5, 16.9264, 15.5878, 24.2897, 34.2826, -30.1518, -26.4119
4.152, 5, 16.92, 15.5862, 24.2977, 34.2572, -30.1624, -26.3897
4.156, 5, 16.9135, 15.5845, 24.3058, 34.2318, -30.173, -26.3674
4.16, 5, 16.9071, 15.5829, 24.3138, 34.2064, -30.1837, -26.3452
4.164, 5, 16.9006, 15.5812, 24.3219, 34.181, -30.1943, -26.323
4.168, 5, 16.8941, 15.5796, 24.3299, 34.1556, -30.2049, -26.3008
4.172, 5, 16.8877, 15.5779, 24.3379, 34.1303, -30.2156, -26.2786
4.176, 5, 16.8812, 15.5763, 24.346, 34.105, -30.2262, -26.2564
4.18, 5, 16.8747, 15.5747, 24.354, 34.0797, -30.2369, -26.2342
4.184, 5, 16.8683, 15.573, 24.362, 34.0544, -30.2475, -26.2121
4.188, 5, 16.8618, 15.5714, 24.3701, 34.0291, -30.2582, -26.19
4.192, 5, 16.8553, 15.5698, 24.3781, 34.0038, -30.2688, -26.1679
4.196, 5, 16.8489, 15.5682, 24.3861, 33.9786, -30.2795, -26.1458
4.2, 5, 16.8424, 15.5665, 24.3941, 33.9533, -30.2902, -26.1237
4.204, 5, 16.8359, 15.5649, 24.4021, 33.9281, -30.3008, -26.1016
4.208, 5, 16.8294, 15.5633, 24.4101, 33.9029, -30.3115, -26.0796
4.212, 5, 16.823, 15.5617, 24.4181, 33.8777, -30.3222, -26.0575
4.216, 5, 16.8165, 15.5601, 24.4261, 33.8525, -30.3329, -26.0355
4.22, 5, 16.81, 15.5585, 24.4341, 33.8274, -30.3436, -26.0135
4.224, 5, 16.8035, 15.5569, 24.4422, 33.8022, -30.3543, -25.9915
4.228, 5, 16.7971, 15.5553, 24.4501, 33.7771, -30.365, -25.9695
4.232, 5, 16.7906, 15.5537, 24.4581, 33.7519, -30.3757, -25.9476
4.236, 5, 16.7841, 15.5521, 24.4661, 33.7268, -30.3864, -25.9256
4.24, 5, 16.7776, 15.5505, 24.4741, 33.7018, -30.3972, -25.9037
4.244, 5, 16.7711, 15.5489, 24.4821, 33.6767, -30.4079, -25.8818
4.248, 5, 16.7647, 15.5473, 24.4901, 33.6516, -30.4186, -25.8599
4.252, 5, 16.7582, 15.5457, 24.4981, 33.6266, -30.4293, -25.838
4.256, 5, 16.7517, 15.5441, 24.506, 33.6015, -30.4401, -25.8161
4.26, 5, 16.7452, 15.5425, 24.514, 33.5765, -30.4508, -25.7943
4.264, 5, 16.7387, 15.5409, 24.522, 33.5515, -30.4616, -25.7724
4.268, 5, 16.7322, 15.5394, 24.53, 33.5265, -30.4723, -25.7506
4.272, 5, 16.7257, 15.5378, 24.5379, 33.5016, -30.4831, -25.7288
4.276, 5, 16.7192, 15.5362, 24.5459, 33.4766, -30.4938, -25.707
4.28, 5, 16.7128, 15.5347, 24.5539, 33.4517, -30.5046, -25.6852
4.284, 5, 16.7063, 15.5331, 24.5618, 33.4267, -30.5154, -25.6634
4.288, 5, 16.6998, 15.5315, 24.5698, 33.4018, -30.5262, -25.6417
4.292, 5, 16.6933, 15.53, 24.5777, 33.3769, -30.5369, -25.6199
4.296, 5, 16.6868, 15.5284, 24.5857, 33.352, -30.5477, -25.5982
4.3, 5, 16.6803, 15.5269, 24.5936, 33.3272, -30.5585, -25.5765
4.304, 5, 16.6738, 15.5253, 24.6016, 33.3023, -30.5693, -25.5548
4.308, 5, 16.6673, 15.5238, 24.6095, 33.2775, -30.5801, -25.5331
4.312, 5, 16.6608, 15.5222, 24.6174, 33.2527, -30.5909, -25.5115
4.316, 5, 16.6543, 15.5207, 24.6254, 33.2278, -30.6017, -25.4898
4.32, 5, 16.6478, 15.5191, 24.6333, 33.203, -30.6125, -25.4682
4.324, 5, 16.6413, 15.5176, 24.6413, 33.1783, -30.6233, -25.4466
4.328, 5, 16.6348, 15.516, 24.6492, 33.1535, -30.6342, -25.425
4.332, 5, 16.6283, 15.5145, 24.6571, 33.1287, -30.645, -25.4034
4.336, 5, 16.6218, 15.513, 24.665, 33.104, -30.6558, -25.3818
4.34, 5, 16.6153, 15.5114, 24.6729, 33.0793, -30.6667, -25.3603
4.344, 5, 16.6088, 15.5099, 24.6809, 33.0546, -30.6775, -25.3387
4.348, 5, 16.6023, 15.5084, 24.6888, 33.0299, -30.6883, -25.3172
4.352, 5, 16.5958, 15.5069, 24.6967, 33.0052, -30.6992, -25.2957
4.356, 5, 16.5893, 15.5054, 24.7046, 32.9805, -30.71, -25.2742
4.36, 5, 16.5828, 15.5038, 24.7125, 32.9559, -30.7209, -25.2527
4.364, 5, 16.5763, 15.5023, 24.7204, 32.9312, -30.7318, -25.2312
4.368, 5, 16.5697, 15.5008, 24.7283, 32.9066, -30.7426, -25.2097
4.372, 5, 16.5632, 15.4993, 24.7362, 32.882, -30.7535, -25.1883
4.376, 5, 16.5567, 15.4978, 24.7441, 32.8574, -30.7644, -25.1669
4.38, 5, 16.5502, 15.4963, 24.752, 32.8328, -30.7753, -25.1455
4.384, 5, 16.5437, 15.4948, 24.7599, 32.8083, -30.7862, -25.1241
4.388, 5, 16.5372, 15.4933, 24.7678, 32.7837, -30.797, -25.1027
4.392, 5, 16.5307, 15.4918, 24.7757, 32.7592, -30.8079, -25.0813
4.396, 5, 16.5241, 15.4903, 24.7835, 32.7347, -30.8188, -25.06
4.4, 5, 16.5176, 15.4888, 24.7914, 32.7102, -30.8297, -25.0386
4.404, 5, 16.5111, 15.4874, 24.7993, 32.6857, -30.8406, -25.0173
4.408, 5, 16.5046, 15.4859, 24.8072, 32.6612, -30.8516, -24.996
4.412, 5, 16.4981, 15.4844, 24.815, 32.6367, -30.8625, -24.9747
4.416, 5, 16.4916, 15.4829, 24.8229, 32.6123, -30.8734, -24.9534
4.42, 5, 16.485, 15.4814, 24.8308, 32.5879, -30.8843, -24.9321
4.424, 5, 16.4785, 15.48, 24.8386, 32.5634, -30.8953, -24.9109
4.428, 5, 16.472, 15.4785, 24.8465, 32.539, -30.9062, -24.8896
4.432, 5, 16.4655, 15.477, 24.8544, 32.5146, -30.9171, -24.8684
4.436, 5, 16.4589, 15.4756, 24.8622, 32.4903, -30.9281, -24.8472
4.44, 5, 16.4524, 15.4741, 24.8701, 32.4659, -30.939, -24.826
4.444, 5, 16.4459, 15.4726, 24.8779, 32.4416, -30.95, -24.8048
4.448, 5, 16.4393, 15.4712, 24.8858, 32.4172, -30.9609, -24.7837
4.452, 5, 16.4328, 15.4697, 24.8936, 32.3929, -30.9719, -24.7625
4.456, 5, 16.4263, 15.4683, 24.9014, 32.3686, -30.9829, -24.7414
4.46, 5, 16.4198, 15.4668, 24.9093, 32.3443, -30.9938, -24.7203
4.464, 5, 16.4132, 15.4654, 24.9171, 32.32, -31.0048, -24.6992
4.468, 5, 16.4067, 15.464, 24.9249, 32.2958, -31.0158, -24.6781
4.472, 5, 16.4002, 15.4625, 24.9328, 32.2715, -31.0268, -24.657
4.476, 5, 16.3936, 15.4611, 24.9406, 32.2473, -31.0378, -24.6359
4.48, 5, 16.3871, 15.4596, 24.9484, 32.2231, -31.0488, -24.6149
4.484, 5, 16.3806, 15.4582, 24.9562, 32.1989, -31.0598, -24.5938
4.488, 5, 16.374, 15.4568, 24.9641, 32.1747, -31.0708, -24.5728
4.492, 5, 16.3675, 15.4554, 24.9719, 32.1505, -31.0818, -24.5518
4.496, 5, 16.3609, 15.4539, 24.9797, 32.1263, -31.0928, -24.5308
4.5, 5, 16.3544, 15.4525, 24.9875, 32.1022, -31.1038, -24.5098
4.504, 5, 16.3479, 15.4511, 24.9953, 32.078, -31.1148, -24.4889
4.508, 5, 16.3413, 15.4497, 25.0031, 32.0539, -31.1258, -24.4679
4.512, 5, 16.3348, 15.4483, 25.0109, 32.0298, -31.1369, -24.447
4.516, 5, 16.3282, 15.4469, 25.0187, 32.0057, -31.1479, -24.4261
4.52, 5, 16.3217, 15.4454, 25.0265, 31.9816, -31.1589, -24.4052
4.524, 5, 16.3151, 15.444, 25.0343, 31.9576, -31.17, -24.3843
4.528, 5, 16.3086, 15.4426, 25.0421, 31.9335, -31.181, -24.3634
4.532, 5, 16.302, 15.4412, 25.0499, 31.9095, -31.1921, -24.3425
4.536, 5, 16.2955, 15.4398, 25.0577, 31.8855, -31.2031, -24.3217
4.54, 5, 16.2889, 15.4385, 25.0654, 31.8615, -31.2142, -24.3009
4.544, 5, 16.2824, 15.4371, 25.0732, 31.8375, -31.2253, -24.28
4.548, 5, 16.2758, 15.4357, 25.081, 31.8135, -31.2363, -24.2592
4.552, 5, 16.2693, 15.4343, 25.0888, 31.7895, -31.2474, -24.2384
4.556, 5, 16.2627, 15.4329, 25.0965, 31.7656, -31.2585, -24.2177
4.56, 5, 16.2562, 15.4315, 25.1043, 31.7416, -31.2696, -24.1969
4.564, 5, 16.2496, 15.4302, 25.1121, 31.7177, -31.2806, -24.1761
4.568, 5, 16.2431, 15.4288, 25.1198, 31.6938, -31.2917, -24.1554
4.572, 5, 16.2365, 15.4274, 25.1276, 31.6699, -31.3028, -24.1347
4.576, 5, 16.23, 15.426, 25.1354, 31.646, -31.3139, -24.114
4.58, 5, 16.2234, 15.4247, 25.1431, 31.6222, -31.325, -24.0933
4.584, 5, 16.2168, 15.4233, 25.1509, 31.5983, -31.3361, -24.0726
4.588, 5, 16.2103, 15.4219, 25.1586, 31.5745, -31.3472, -24.052
4.592, 5, 16.2037, 15.4206, 25.1664, 31.5507, -31.3584, -24.0313
4.596, 5, 16.1972, 15.4192, 25.1741, 31.5268, -31.3695, -24.0107
4.6, 5, 16.1906, 15.4179, 25.1818, 31.503, -31.3806, -23.99
4.604, 5, 16.184, 15.4165, 25.1896, 31.4793, -31.3917, -23.9694
4.608, 5, 16.1775, 15.4152, 25.1973, 31.4555, -31.4029, -23.9489
4.612, 5, 16.1709, 15.4138, 25.205, 31.4317, -31.414, -23.9283
4.616, 5, 16.1643, 15.4125, 25.2128, 31.408, -31.4252, -23.9077
4.62, 5, 16.1578, 15.4112, 25.2205, 31.3843, -31.4363, -23.8872
4.624, 5, 16.1512, 15.4098, 25.2282, 31.3606, -31.4474, -23.8666
4.628, 5, 16.1446, 15.4085, 25.2359, 31.3369, -31.4586, -23.8461
4.632, 5, 16.1381, 15.4072, 25.2437, 31.3132, -31.4698, -23.8256
4.636, 5, 16.1315, 15.4058, 25.2514, 31.2895, -31.4809, -23.8051
4.64, 5, 16.1249, 15.4045, 25.2591, 31.2658, -31.4921, -23.7846
4.644, 5, 16.1183, 15.4032, 25.2668, 31.2422, -31.5033, -23.7642
4.648, 5, 16.1118, 15.4019, 25.2745, 31.2186, -31.5144, -23.7437
4.652, 5, 16.1052, 15.4005, 25.2822, 31.1949, -31.5256, -23.7233
4.656, 5, 16.0986, 15.3992, 25.2899, 31.1713, -31.5368, -23.7028
4.66, 5, 16.092, 15.3979, 25.2976, 31.1478, -31.548, -23.6824
4.664, 5, 16.0855, 15.3966, 25.3053, 31.1242, -31.5592, -23.662
4.668, 5, 16.0789, 15.3953, 25.313, 31.1006, -31.5704, -23.6416
4.672, 5, 16.0723, 15.394, 25.3207, 31.0771, -31.5816, -23.6213
4.676, 5, 16.0657, 15.3927, 25.3284, 31.0535, -31.5928, -23.6009
4.68, 5, 16.0591, 15.3914, 25.3361, 31.03, -31.604, -23.5806
4.684, 5, 16.0526, 15.3901, 25.3437, 31.0065, -31.6152, -23.5603
4.688, 5, 16.046, 15.3888, 25.3514, 30.983, -31.6264, -23.5399
4.692, 5, 16.0394, 15.3875, 25.3591, 30.9595, -31.6377, -23.5196
4.696, 5, 16.0328, 15.3862, 25.3668, 30.9361, -31.6489, -23.4994
4.7, 5, 16.0262, 15.385, 25.3744, 30.9126, -31.6601, -23.4791
4.704, 5, 16.0196, 15.3837, 25.3821, 30.8892, -31.6714, -23.4588
4.708, 5, 16.013, 15.3824, 25.3898, 30.8658, -31.6826, -23.4386
4.712, 5, 16.0065, 15.3811, 25.3974, 30.8424, -31.6938, -23.4184
4.716, 5, 15.9999, 15.3798, 25.4051, 30.819, -31.7051, -23.3982
4.72, 5, 15.9933, 15.3786, 25.4127, 30.7956, -31.7163, -23.3779
4.724, 5, 15.9867, 15.3773, 25.4204, 30.7722, -31.7276, -23.3578
4.728, 5, 15.9801, 15.376, 25.4281, 30.7489, -31.7389, -23.3376
4.732, 5, 15.9735, 15.3748, 25.4357, 30.7255, -31.7501, -23.3174
4.736, 5, 15.9669, 15.3735, 25.4433, 30.7022, -31.7614, -23.2973
4.74, 5, 15.9603, 15.3723, 25.451, 30.6789, -31.7727, -23.2772
4.744, 5, 15.9537, 15.371, 25.4586, 30.6556, -31.7839, -23.257
4.748, 5, 15.9471, 15.3698, 25.4663, 30.6323, -31.7952, -23.2369
4.752, 5, 15.9405, 15.3685, 25.4739, 30.609, -31.8065, -23.2168
4.756, 5, 15.9339, 15.3673, 25.4815, 30.5858, -31.8178, -23.1968
4.76, 5, 15.9273, 15.366, 25.4892, 30.5625, -31.8291, -23.1767
4.764, 5, 15.9207, 15.3648, 25.4968, 30.5393, -31.8404, -23.1567
4.768, 5, 15.9141, 15.3635, 25.5044, 30.5161, -31.8517, -23.1366
4.772, 5, 15.9075, 15.3623, 25.512, 30.4929, -31.863, -23.1166
4.776, 5, 15.9009, 15.3611, 25.5196, 30.4697, -31.8743, -23.0966
4.78, 5, 15.8943, 15.3598, 25.5273, 30.4465, -31.8856, -23.0766
4.784, 5, 15.8877, 15.3586, 25.5349, 30.4233, -31.8969, -23.0566
4.788, 5, 15.8811, 15.3574, 25.5425, 30.4002, -31.9083, -23.0366
4.792, 5, 15.8745, 15.3562, 25.5501, 30.377, -31.9196, -23.0167
4.796, 5, 15.8679, 15.355, 25.5577, 30.3539, -31.9309, -22.9968
4.8, 5, 15.8613, 15.3537, 25.5653, 30.3308, -31.9423, -22.9768
4.804, 5, 15.8547, 15.3525, 25.5729, 30.3077, -31.9536, -22.9569
4.808, 5, 15.8481, 15.3513, 25.5805, 30.2846, -31.965, -22.937
4.812, 5, 15.8414, 15.3501, 25.5881, 30.2615, -31.9763, -22.9171
4.816, 5, 15.8348, 15.3489, 25.5957, 30.2385, -31.9876, -22.8973
4.82, 5, 15.8282, 15.3477, 25.6032, 30.2154, -31.999, -22.8774
4.824, 5, 15.8216, 15.3465, 25.6108, 30.1924, -32.0104, -22.8576
4.828, 5, 15.815, 15.3453, 25.6184, 30.1694, -32.0217, -22.8377
4.832, 5, 15.8084, 15.3441, 25.626, 30.1464, -32.0331, -22.8179
4.836, 5, 15.8018, 15.3429, 25.6336, 30.1234, -32.0445, -22.7981
4.84, 5, 15.7951, 15.3417, 25.6411, 30.1004, -32.0558, -22.7783
4.844, 5, 15.7885, 15.3406, 25.6487, 30.0775, -32.0672, -22.7586
4.848, 5, 15.7819, 15.3394, 25.6563, 30.0545, -32.0786, -22.7388
4.852, 5, 15.7753, 15.3382, 25.6638, 30.0316, -32.09, -22.719
4.856, 5, 15.7687, 15.337, 25.6714, 30.0087, -32.1014, -22.6993
4.86, 5, 15.762, 15.3358, 25.6789, 29.9857, -32.1128, -22.6796
4.864, 5, 15.7554, 15.3347, 25.6865, 29.9628, -32.1242, -22.6599
4.868, 5, 15.7488, 15.3335, 25.694, 29.94, -32.1356, -22.6402
4.872, 5, 15.7422, 15.3323, 25.7016, 29.9171, -32.147, -22.6205
4.876, 5, 15.7355, 15.3312, 25.7091, 29.8942, -32.1584, -22.6008
4.88, 5, 15.7289, 15.33, 25.7167, 29.8714, -32.1698, -22.5812
4.884, 5, 15.7223, 15.3289, 25.7242, 29.8486, -32.1813, -22.5615
4.888, 5, 15.7157, 15.3277, 25.7318, 29.8258, -32.1927, -22.5419
4.892, 5, 15.709, 15.3265, 25.7393, 29.8029, -32.2041, -22.5223
4.896, 5, 15.7024, 15.3254, 25.7468, 29.7802, -32.2155, -22.5027
4.9, 5, 15.6958, 15.3243, 25.7544, 29.7574, -32.227, -22.4831
4.904, 5, 15.6891, 15.3231, 25.7619, 29.7346, -32.2384, -22.4635
4.908, 5, 15.6825, 15.322, 25.7694, 29.7119, -32.2499, -22.444
4.912, 5, 15.6759, 15.3208, 25.7769, 29.6891, -32.2613, -22.4244
4.916, 5, 15.6692, 15.3197, 25.7845, 29.6664, -32.2728, -22.4049
4.92, 5, 15.6626, 15.3186, 25.792, 29.6437, -32.2842, -22.3854
4.924, 5, 15.656, 15.3174, 25.7995, 29.621, -32.2957, -22.3659
4.928, 5, 15.6493, 15.3163, 25.807, 29.5983, -32.3072, -22.3464
4.932, 5, 15.6427, 15.3152, 25.8145, 29.5757, -32.3186, -22.3269
4.936, 5, 15.6361, 15.3141, 25.822, 29.553, -32.3301, -22.3074
4.94, 5, 15.6294, 15.3129, 25.8295, 29.5303, -32.3416, -22.288
4.944, 5, 15.6228, 15.3118, 25.837, 29.5077, -32.3531, -22.2686
4.948, 5, 15.6161, 15.3107, 25.8445, 29.4851, -32.3645, -22.2491
4.952, 5, 15.6095, 15.3096, 25.852, 29.4625, -32.376, -22.2297
4.956, 5, 15.6029, 15.3085, 25.8595, 29.4399, -32.3875, -22.2103
4.96, 5, 15.5962, 15.3074, 25.867, 29.4173, -32.399, -22.1909
4.964, 5, 15.5896, 15.3063, 25.8745, 29.3948, -32.4105, -22.1716
4.968, 5, 15.5829, 15.3052, 25.8819, 29.3722, -32.422, -22.1522
4.972, 5, 15.5763, 15.3041, 25.8894, 29.3497, -32.4335, -22.1329
4.976, 5, 15.5696, 15.303, 25.8969, 29.3271, -32.4451, -22.1135
4.98, 5, 15.563, 15.3019, 25.9044, 29.3046, -32.4566, -22.0942
4.984, 5, 15.5563, 15.3008, 25.9118, 29.2821, -32.4681, -22.0749
4.988, 5, 15.5497, 15.2997, 25.9193, 29.2596, -32.4796, -22.0556
4.992, 5, 15.543, 15.2986, 25.9268, 29.2372, -32.4911, -22.0363
4.996, 5, 15.5364, 15.2976, 25.9342, 29.2147, -32.5027, -22.0171
5, 5, 15.5297, 15.2965, 25.9417, 29.1923, -32.5142, -21.9978
5.004, 5, 15.5231, 15.2954, 25.9491, 29.1698, -32.5258, -21.9786
5.008, 5, 15.5164, 15.2943, 25.9566, 29.1474, -32.5373, -21.9594
5.012, 5, 15.5098, 15.2933, 25.9641, 29.125, -32.5489, -21.9401
5.016, 5, 15.5031, 15.2922, 25.9715, 29.1026, -32.5604, -21.9209
5.02, 5, 15.4964, 15.2911, 25.9789, 29.0802, -32.572, -21.9018
5.024, 5, 15.4898, 15.2901, 25.9864, 29.0579, -32.5835, -21.8826
5.028, 5, 15.4831, 15.289, 25.9938, 29.0355, -32.5951, -21.8634
5.032, 5, 15.4765, 15.288, 26.0013, 29.0132, -32.6067, -21.8443
5.036, 5, 15.4698, 15.2869, 26.0087, 28.9908, -32.6182, -21.8251
5.04, 5, 15.4631, 15.2859, 26.0161, 28.9685, -32.6298, -21.806
5.044, 5, 15.4565, 15.2848, 26.0236, 28.9462, -32.6414, -21.7869
5.048, 5, 15.4498, 15.2838, 26.031, 28.9239, -32.653, -21.7678
5.052, 5, 15.4431, 15.2827, 26.0384, 28.9016, -32.6646, -21.7487
5.056, 5, 15.4365, 15.2817, 26.0458, 28.8794, -32.6761, -21.7297
5.06, 5, 15.4298, 15.2806, 26.0532, 28.8571, -32.6877, -21.7106
5.064, 5, 15.4231, 15.2796, 26.0607, 28.8349, -32.6993, -21.6916
5.068, 5, 15.4165, 15.2786, 26.0681, 28.8126, -32.7109, -21.6725
5.072, 5, 15.4098, 15.2775, 26.0755, 28.7904, -32.7226, -21.6535
5.076, 5, 15.4031, 15.2765, 26.0829, 28.7682, -32.7342, -21.6345
5.08, 5, 15.3965, 15.2755, 26.0903, 28.746, -32.7458, -21.6155
5.084, 5, 15.3898, 15.2745, 26.0977, 28.7239, -32.7574, -21.5966
5.088, 5, 15.3831, 15.2735, 26.1051, 28.7017, -32.769, -21.5776
5.092, 5, 15.3765, 15.2724, 26.1125, 28.6796, -32.7806, -21.5586
5.096, 5, 15.3698, 15.2714, 26.1199, 28.6574, -32.7923, -21.5397
5.1, 5, 15.3631, 15.2704, 26.1273, 28.6353, -32.8039, -21.5208
5.104, 5, 15.3564, 15.2694, 26.1346, 28.6132, -32.8155, -21.5019
5.108, 5, 15.3498, 15.2684, 26.142, 28.5911, -32.8272, -21.483
5.112, 5, 15.3431, 15.2674, 26.1494, 28.569, -32.8388, -21.4641
5.116, 5, 15.3364, 15.2664, 26.1568, 28.5469, -32.8505, -21.4452
5.12, 5, 15.3297, 15.2654, 26.1642, 28.5249, -32.8621, -21.4264
5.124, 5, 15.323, 15.2644, 26.1715, 28.5028, -32.8738, -21.4075
5.128, 5, 15.3164, 15.2634, 26.1789, 28.4808, -32.8855, -21.3887
5.132, 5, 15.3097, 15.2625, 26.1863, 28.4588, -32.8971, -21.3699
5.136, 5, 15.303, 15.2615, 26.1936, 28.4368, -32.9088, -21.3511
5.14, 5, 15.2963, 15.2605, 26.201, 28.4148, -32.9205, -21.3323
5.144, 5, 15.2896, 15.2595, 26.2083, 28.3928, -32.9321, -21.3135
5.148, 5, 15.2829, 15.2585, 26.2157, 28.3708, -32.9438, -21.2947
5.152, 5, 15.2762, 15.2576, 26.2231, 28.3488, -32.9555, -21.276
5.156, 5, 15.2696, 15.2566, 26.2304, 28.3269, -32.9672, -21.2572
5.16, 5, 15.2629, 15.2556, 26.2378, 28.305, -32.9789, -21.2385
5.164, 5, 15.2562, 15.2547, 26.2451, 28.283, -32.9906, -21.2198
5.168, 5, 15.2495, 15.2537, 26.2524, 28.2611, -33.0023, -21.2011
5.172, 5, 15.2428, 15.2527, 26.2598, 28.2392, -33.014, -21.1824
5.176, 5, 15.2361, 15.2518, 26.2671, 28.2174, -33.0257, -21.1637
5.18, 5, 15.2294, 15.2508, 26.2744, 28.1955, -33.0374, -21.145
5.184, 5, 15.2227, 15.2499, 26.2818, 28.1736, -33.0491, -21.1264
5.188, 5, 15.216, 15.2489, 26.2891, 28.1518, -33.0608, -21.1077
5.192, 5, 15.2093, 15.248, 26.2964, 28.13, -33.0725, -21.0891
5.196, 5, 15.2026, 15.247, 26.3037, 28.1081, -33.0843, -21.0705
5.2, 5, 15.1959, 15.2461, 26.3111, 28.0863, -33.096, -21.0519
5.204, 5, 15.1892, 15.2452, 26.3184, 28.0645, -33.1077, -21.0333
5.208, 5, 15.1825, 15.2442, 26.3257, 28.0428, -33.1195, -21.0147
5.212, 5, 15.1758, 15.2433, 26.333, 28.021, -33.1312, -20.9962
5.216, 5, 15.1691, 15.2424, 26.3403, 27.9992, -33.143, -20.9776
5.22, 5, 15.1624, 15.2414, 26.3476, 27.9775, -33.1547, -20.9591
5.224, 5, 15.1557, 15.2405, 26.3549, 27.9558, -33.1665, -20.9405
5.228, 5, 15.149, 15.2396, 26.3622, 27.934, -33.1782, -20.922
5.232, 5, 15.1423, 15.2387, 26.3695, 27.9123, -33.19, -20.9035
5.236, 5, 15.1356, 15.2378, 26.3768, 27.8906, -33.2017, -20.885
5.24, 5, 15.1289, 15.2368, 26.3841, 27.869, -33.2135, -20.8666
5.244, 5, 15.1222, 15.2359, 26.3914, 27.8473, -33.2253, -20.8481
5.248, 5, 15.1155, 15.235, 26.3987, 27.8256, -33.237, -20.8297
5.252, 5, 15.1088, 15.2341, 26.406, 27.804, -33.2488, -20.8112
5.256, 5, 15.1021, 15.2332, 26.4132, 27.7824, -33.2606, -20.7928
5.26, 5, 15.0954, 15.2323, 26.4205, 27.7607, -33.2724, -20.7744
5.264, 5, 15.0887, 15.2314, 26.4278, 27.7391, -33.2842, -20.756
5.268, 5, 15.082, 15.2305, 26.4351, 27.7175, -33.296, -20.7376
5.272, 5, 15.0752, 15.2296, 26.4423, 27.696, -33.3078, -20.7192
5.276, 5, 15.0685, 15.2288, 26.4496, 27.6744, -33.3196, -20.7009
5.28, 5, 15.0618, 15.2279, 26.4568, 27.6528, -33.3314, -20.6825
5.284, 5, 15.0551, 15.227, 26.4641, 27.6313, -33.3432, -20.6642
5.288, 5, 15.0484, 15.2261, 26.4714, 27.6098, -33.355, -20.6459
5.292, 5, 15.0417, 15.2252, 26.4786, 27.5882, -33.3668, -20.6276
5.296, 5, 15.035, 15.2244, 26.4859, 27.5667, -33.3786, -20.6093
5.3, 5, 15.0282, 15.2235, 26.4931, 27.5452, -33.3904, -20.591
5.304, 5, 15.0215, 15.2226, 26.5004, 27.5238, -33.4023, -20.5727
5.308, 5, 15.0148, 15.2217, 26.5076, 27.5023, -33.4141, -20.5544
5.312, 5, 15.0081, 15.2209, 26.5148, 27.4808, -33.4259, -20.5362
5.316, 5, 15.0014, 15.22, 26.5221, 27.4594, -33.4378, -20.518
5.32, 5, 14.9946, 15.2192, 26.5293, 27.438, -33.4496, -20.4997
5.324, 5, 14.9879, 15.2183, 26.5366, 27.4165, -33.4615, -20.4815
5.328, 5, 14.9812, 15.2175, 26.5438, 27.3951, -33.4733, -20.4633
5.332, 5, 14.9745, 15.2166, 26.551, 27.3737, -33.4852, -20.4451
5.336, 5, 14.9677, 15.2158, 26.5582, 27.3524, -33.497, -20.427
5.34, 5, 14.961, 15.2149, 26.5654, 27.331, -33.5089, -20.4088
5.344, 5, 14.9543, 15.2141, 26.5727, 27.3096, -33.5207, -20.3907
5.348, 5, 14.9475, 15.2132, 26.5799, 27.2883, -33.5326, -20.3725
5.352, 5, 14.9408, 15.2124, 26.5871, 27.2669, -33.5445, -20.3544
5.356, 5, 14.9341, 15.2116, 26.5943, 27.2456, -33.5563, -20.3363
5.36, 5, 14.9273, 15.2107, 26.6015, 27.2243, -33.5682, -20.3182
5.364, 5, 14.9206, 15.2099, 26.6087, 27.203, -33.5801, -20.3001
5.368, 5, 14.9139, 15.2091, 26.6159, 27.1817, -33.592, -20.282
5.372, 5, 14.9071, 15.2083, 26.6231, 27.1605, -33.6039, -20.264
5.376, 5, 14.9004, 15.2074, 26.6303, 27.1392, -33.6158, -20.2459
5.38, 5, 14.8937, 15.2066, 26.6375, 27.1179, -33.6276, -20.2279
5.384, 5, 14.8869, 15.2058, 26.6447, 27.0967, -33.6395, -20.2099
5.388, 5, 14.8802, 15.205, 26.6519, 27.0755, -33.6515, -20.1919
5.392, 5, 14.8735, 15.2042, 26.6591, 27.0543, -33.6634, -20.1739
5.396, 5, 14.8667, 15.2034, 26.6662, 27.0331, -33.6753, -20.1559
5.4, 5, 14.86, 15.2026, 26.6734, 27.0119, -33.6872, -20.1379
5.404, 5, 14.8532, 15.2018, 26.6806, 26.9907, -33.6991, -20.12
5.408, 5, 14.8465, 15.201, 26.6878, 26.9695, -33.711, -20.102
5.412, 5, 14.8398, 15.2002, 26.6949, 26.9484, -33.7229, -20.0841
5.416, 5, 14.833, 15.1994, 26.7021, 26.9273, -33.7349, -20.0661
5.42, 5, 14.8263, 15.1986, 26.7093, 26.9061, -33.7468, -20.0482
5.424, 5, 14.8195, 15.1978, 26.7164, 26.885, -33.7587, -20.0303
5.428, 5, 14.8128, 15.197, 26.7236, 26.8639, -33.7707, -20.0125
5.432, 5, 14.806, 15.1963, 26.7307, 26.8428, -33.7826, -19.9946
5.436, 5, 14.7993, 15.1955, 26.7379, 26.8217, -33.7946, -19.9767
5.44, 5, 14.7925, 15.1947, 26.7451, 26.8007, -33.8065, -19.9589
5.444, 5, 14.7858, 15.1939, 26.7522, 26.7796, -33.8185, -19.941
5.448, 5, 14.779, 15.1932, 26.7593, 26.7586, -33.8304, -19.9232
5.452, 5, 14.7723, 15.1924, 26.7665, 26.7376, -33.8424, -19.9054
5.456, 5, 14.7655, 15.1916, 26.7736, 26.7165, -33.8543, -19.8876
5.46, 5, 14.7588, 15.1909, 26.7808, 26.6955, -33.8663, -19.8698
5.464, 5, 14.752, 15.1901, 26.7879, 26.6745, -33.8783, -19.852
5.468, 5, 14.7453, 15.1893, 26.795, 26.6536, -33.8902, -19.8343
5.472, 5, 14.7385, 15.1886, 26.8022, 26.6326, -33.9022, -19.8165
5.476, 5, 14.7318, 15.1878, 26.8093, 26.6116, -33.9142, -19.7988
5.48, 5, 14.725, 15.1871, 26.8164, 26.5907, -33.9262, -19.781
5.484, 5, 14.7182, 15.1863, 26.8235, 26.5697, -33.9382, -19.7633
5.488, 5, 14.7115, 15.1856, 26.8306, 26.5488, -33.9502, -19.7456
5.492, 5, 14.7047, 15.1849, 26.8378, 26.5279, -33.9622, -19.7279
5.496, 5, 14.698, 15.1841, 26.8449, 26.507, -33.9742, -19.7103
5.5, 5, 14.6912, 15.1834, 26.852, 26.4861, -33.9862, -19.6926
5.504, 5, 14.6844, 15.1827, 26.8591, 26.4653, -33.9982, -19.6749
5.508, 5, 14.6777, 15.1819, 26.8662, 26.4444, -34.0102, -19.6573
5.512, 5, 14.6709, 15.1812, 26.8733, 26.4235, -34.0222, -19.6397
5.516, 5, 14.6641, 15.1805, 26.8804, 26.4027, -34.0342, -19.622
5.52, 5, 14.6574, 15.1798, 26.8875, 26.3819, -34.0462, -19.6044
5.524, 5, 14.6506, 15.179, 26.8946, 26.3611, -34.0582, -19.5868
5.528, 5, 14.6438, 15.1783, 26.9017, 26.3403, -34.0703, -19.5693
5.532, 5, 14.6371, 15.1776, 26.9088, 26.3195, -34.0823, -19.5517
5.536, 5, 14.6303, 15.1769, 26.9158, 26.2987, -34.0943, -19.5341
5.54, 5, 14.6235, 15.1762, 26.9229, 26.2779, -34.1064, -19.5166
5.544, 5, 14.6168, 15.1755, 26.93, 26.2572, -34.1184, -19.4991
5.548, 5, 14.61, 15.1748, 26.9371, 26.2364, -34.1304, -19.4815
5.552, 5, 14.6032, 15.1741, 26.9441, 26.2157, -34.1425, -19.464
5.556, 5, 14.5964, 15.1734, 26.9512, 26.195, -34.1545, -19.4465
5.56, 5, 14.5897, 15.1727, 26.9583, 26.1743, -34.1666, -19.429
5.564, 5, 14.5829, 15.172, 26.9653, 26.1536, -34.1786, -19.4116
5.568, 5, 14.5761, 15.1713, 26.9724, 26.1329, -34.1907, -19.3941
5.572, 5, 14.5693, 15.1706, 26.9795, 26.1122, -34.2028, -19.3766
5.576, 5, 14.5626, 15.1699, 26.9865, 26.0916, -34.2148, -19.3592
5.58, 5, 14.5558, 15.1693, 26.9936, 26.0709, -34.2269, -19.3418
5.584, 5, 14.549, 15.1686, 27.0006, 26.0503, -34.239, -19.3244
5.588, 5, 14.5422, 15.1679, 27.0077, 26.0297, -34.2511, -19.307
5.592, 5, 14.5354, 15.1672, 27.0147, 26.009, -34.2631, -19.2896
5.596, 5, 14.5287, 15.1666, 27.0218, 25.9884, -34.2752, -19.2722
5.6, 5, 14.5219, 15.1659, 27.0288, 25.9678, -34.2873, -19.2548
5.604, 5, 14.5151, 15.1652, 27.0358, 25.9473, -34.2994, -19.2375
5.608, 5, 14.5083, 15.1646, 27.0429, 25.9267, -34.3115, -19.2201
5.612, 5, 14.5015, 15.1639, 27.0499, 25.9062, -34.3236, -19.2028
5.616, 5, 14.4947, 15.1633, 27.0569, 25.8856, -34.3357, -19.1855
5.62, 5, 14.488, 15.1626, 27.064, 25.8651, -34.3478, -19.1682
5.624, 5, 14.4812, 15.162, 27.071, 25.8446, -34.3599, -19.1509
5.628, 5, 14.4744, 15.1613, 27.078, 25.8241, -34.372, -19.1336
5.632, 5, 14.4676, 15.1607, 27.085, 25.8036, -34.3841, -19.1163
5.636, 5, 14.4608, 15.16, 27.092, 25.7831, -34.3963, -19.0991
5.64, 5, 14.454, 15.1594, 27.099, 25.7626, -34.4084, -19.0818
5.644, 5, 14.4472, 15.1587, 27.1061, 25.7421, -34.4205, -19.0646
5.648, 5, 14.4404, 15.1581, 27.1131, 25.7217, -34.4326, -19.0474
5.652, 5, 14.4336, 15.1575, 27.1201, 25.7013, -34.4448, -19.0302
5.656, 5, 14.4268, 15.1568, 27.1271, 25.6808, -34.4569, -19.013
5.66, 5, 14.42, 15.1562, 27.1341, 25.6604, -34.469, -18.9958
5.664, 5, 14.4132, 15.1556, 27.1411, 25.64, -34.4812, -18.9786
5.668, 5, 14.4064, 15.155, 27.1481, 25.6196, -34.4933, -18.9614
5.672, 5, 14.3996, 15.1544, 27.155, 25.5992, -34.5055, -18.9443
5.676, 5, 14.3928, 15.1537, 27.162, 25.5789, -34.5176, -18.9271
5.68, 5, 14.386, 15.1531, 27.169, 25.5585, -34.5298, -18.91
5.684, 5, 14.3792, 15.1525, 27.176, 25.5382, -34.542, -18.8929
5.688, 5, 14.3724, 15.1519, 27.183, 25.5178, -34.5541, -18.8758
5.692, 5, 14.3656, 15.1513, 27.1899, 25.4975, -34.5663, -18.8587
5.696, 5, 14.3588, 15.1507, 27.1969, 25.4772, -34.5785, -18.8416
5.7, 5, 14.352, 15.1501, 27.2039, 25.4569, -34.5906, -18.8246
5.704, 5, 14.3452, 15.1495, 27.2109, 25.4366, -34.6028, -18.8075
5.708, 5, 14.3384, 15.1489, 27.2178, 25.4163, -34.615, -18.7905
5.712, 5, 14.3316, 15.1483, 27.2248, 25.3961, -34.6272, -18.7734
5.716, 5, 14.3248, 15.1477, 27.2317, 25.3758, -34.6394, -18.7564
5.72, 5, 14.318, 15.1471, 27.2387, 25.3556, -34.6515, -18.7394
5.724, 5, 14.3112, 15.1466, 27.2457, 25.3354, -34.6637, -18.7224
5.728, 5, 14.3044, 15.146, 27.2526, 25.3151, -34.6759, -18.7054
5.732, 5, 14.2976, 15.1454, 27.2596, 25.2949, -34.6881, -18.6884
5.736, 5, 14.2908, 15.1448, 27.2665, 25.2747, -34.7003, -18.6715
5.74, 5, 14.284, 15.1443, 27.2734, 25.2546, -34.7125, -18.6545
5.744, 5, 14.2771, 15.1437, 27.2804, 25.2344, -34.7248, -18.6376
5.748, 5, 14.2703, 15.1431, 27.2873, 25.2142, -34.737, -18.6206
5.752, 5, 14.2635, 15.1426, 27.2943, 25.1941, -34.7492, -18.6037
5.756, 5, 14.2567, 15.142, 27.3012, 25.174, -34.7614, -18.5868
5.76, 5, 14.2499, 15.1414, 27.3081, 25.1538, -34.7736, -18.5699
5.764, 5, 14.2431, 15.1409, 27.315, 25.1337, -34.7859, -18.553
5.768, 5, 14.2362, 15.1403, 27.322, 25.1136, -34.7981, -18.5362
5.772, 5, 14.2294, 15.1398, 27.3289, 25.0935, -34.8103, -18.5193
5.776, 5, 14.2226, 15.1392, 27.3358, 25.0734, -34.8226, -18.5025
5.78, 5, 14.2158, 15.1387, 27.3427, 25.0534, -34.8348, -18.4856
5.784, 5, 14.209, 15.1382, 27.3496, 25.0333, -34.847, -18.4688
5.788, 5, 14.2021, 15.1376, 27.3565, 25.0133, -34.8593, -18.452
5.792, 5, 14.1953, 15.1371, 27.3634, 24.9932, -34.8715, -18.4352
5.796, 5, 14.1885, 15.1365, 27.3704, 24.9732, -34.8838, -18.4184
5.8, 5, 14.1817, 15.136, 27.3773, 24.9532, -34.896, -18.4016
5.804, 5, 14.1748, 15.1355, 27.3842, 24.9332, -34.9083, -18.3849
5.808, 5, 14.168, 15.135, 27.391, 24.9132, -34.9206, -18.3681
5.812, 5, 14.1612, 15.1344, 27.3979, 24.8933, -34.9328, -18.3514
5.816, 5, 14.1544, 15.1339, 27.4048, 24.8733, -34.9451, -18.3347
5.82, 5, 14.1475, 15.1334, 27.4117, 24.8533, -34.9574, -18.3179
5.824, 5, 14.1407, 15.1329, 27.4186, 24.8334, -34.9697, -18.3012
5.828, 5, 14.1339, 15.1324, 27.4255, 24.8135, -34.9819, -18.2845
5.832, 5, 14.127, 15.1319, 27.4324, 24.7935, -34.9942, -18.2678
5.836, 5, 14.1202, 15.1314, 27.4392, 24.7736, -35.0065, -18.2512
5.84, 5, 14.1134, 15.1309, 27.4461, 24.7537, -35.0188, -18.2345
5.844, 5, 14.1065, 15.1304, 27.453, 24.7339, -35.0311, -18.2179
5.848, 5, 14.0997, 15.1299, 27.4598, 24.714, -35.0434, -18.2012
5.852, 5, 14.0929, 15.1294, 27.4667, 24.6941, -35.0557, -18.1846
5.856, 5, 14.086, 15.1289, 27.4736, 24.6743, -35.068, -18.168
5.86, 5, 14.0792, 15.1284, 27.4804, 24.6544, -35.0803, -18.1514
5.864, 5, 14.0724, 15.1279, 27.4873, 24.6346, -35.0926, -18.1348
5.868, 5, 14.0655, 15.1274, 27.4941, 24.6148, -35.1049, -18.1182
5.872, 5, 14.0587, 15.1269, 27.501, 24.595, -35.1172, -18.1016
5.876, 5, 14.0518, 15.1264, 27.5078, 24.5752, -35.1296, -18.0851
5.88, 5, 14.045, 15.126, 27.5147, 24.5554, -35.1419, -18.0685
5.884, 5, 14.0382, 15.1255, 27.5215, 24.5356, -35.1542, -18.052
5.888, 5, 14.0313, 15.125, 27.5284, 24.5159, -35.1665, -18.0355
5.892, 5, 14.0245, 15.1246, 27.5352, 24.4961, -35.1789, -18.019
5.896, 5, 14.0176, 15.1241, 27.542, 24.4764, -35.1912, -18.0025
5.9, 5, 14.0108, 15.1236, 27.5489, 24.4567, -35.2035, -17.986
5.904, 5, 14.0039, 15.1232, 27.5557, 24.4369, -35.2159, -17.9695
5.908, 5, 13.9971, 15.1227, 27.5625, 24.4172, -35.2282, -17.953
5.912, 5, 13.9902, 15.1223, 27.5693, 24.3975, -35.2406, -17.9366
5.916, 5, 13.9834, 15.1218, 27.5762, 24.3779, -35.2529, -17.9201
5.92, 5, 13.9765, 15.1214, 27.583, 24.3582, -35.2653, -17.9037
5.924, 5, 13.9697, 15.1209, 27.5898, 24.3385, -35.2776, -17.8873
5.928, 5, 13.9628, 15.1205, 27.5966, 24.3189, -35.29, -17.8709
5.932, 5, 13.956, 15.12, 27.6034, 24.2992, -35.3024, -17.8545
5.936, 5, 13.9491, 15.1196, 27.6102, 24.2796, -35.3147, -17.8381
5.94, 5, 13.9423, 15.1192, 27.617, 24.26, -35.3271, -17.8217
5.944, 5, 13.9354, 15.1187, 27.6238, 24.2404, -35.3395, -17.8053
5.948, 5, 13.9286, 15.1183, 27.6306, 24.2208, -35.3518, -17.789
5.952, 5, 13.9217, 15.1179, 27.6374, 24.2012, -35.3642, -17.7726
5.956, 5, 13.9149, 15.1174, 27.6442, 24.1816, -35.3766, -17.7563
5.96, 5, 13.908, 15.117, 27.651, 24.1621, -35.389, -17.74
5.964, 5, 13.9011, 15.1166, 27.6578, 24.1425, -35.4014, -17.7237
5.968, 5, 13.8943, 15.1162, 27.6646, 24.123, -35.4138, -17.7074
5.972, 5, 13.8874, 15.1158, 27.6713, 24.1035, -35.4262, -17.6911
