hehonglu123/ABB_Primitive_Study/execution/movel_smooth/curve_exe_v500_z1.csv
timestamp, cmd_num, J1, J2, J3, J4, J5, J6
0, -1, 32.9528, 52.8019, -8.46502, 89.9168, -78.8096, 34.6812
0.003, -1, 32.9528, 52.8019, -8.46502, 89.9168, -78.8096, 34.6812
0.006, -1, 32.9528, 52.8019, -8.46502, 89.9168, -78.8096, 34.6812
0.008, -1, 32.9528, 52.8019, -8.46502, 89.9168, -78.8096, 34.6812
0.011, -1, 32.9528, 52.8019, -8.46502, 89.9168, -78.8096, 34.6812
0.016, -1, 32.9528, 52.8019, -8.46502, 89.9168, -78.8096, 34.6812
0.02, -1, 32.9528, 52.8019, -8.46502, 89.9168, -78.8096, 34.6812
0.024, -1, 32.9528, 52.8019, -8.46502, 89.9168, -78.8096, 34.6812
0.028, -1, 32.9528, 52.8019, -8.46502, 89.9168, -78.8096, 34.6812
0.032, -1, 32.9528, 52.8019, -8.46502, 89.9168, -78.8096, 34.6812
0.036, -1, 32.9529, 52.8019, -8.46502, 89.9168, -78.8096, 34.6812
0.04, -1, 32.9531, 52.8018, -8.46503, 89.9168, -78.8095, 34.6812
0.044, -1, 32.9535, 52.8014, -8.46504, 89.9169, -78.8095, 34.6812
0.048, -1, 32.9543, 52.8006, -8.46509, 89.9169, -78.8093, 34.6813
0.052, -1, 32.9556, 52.7993, -8.46521, 89.917, -78.8088, 34.6815
0.056, -1, 32.9574, 52.7971, -8.46543, 89.9173, -78.8079, 34.6818
0.06, -1, 32.9597, 52.794, -8.46584, 89.9178, -78.8061, 34.6824
0.064, -1, 32.9625, 52.7899, -8.46653, 89.9186, -78.803, 34.6835
0.068, -1, 32.9659, 52.7849, -8.46761, 89.92, -78.798, 34.6852
0.072, -1, 32.9697, 52.7789, -8.46923, 89.922, -78.7905, 34.6877
0.076, -1, 32.9741, 52.7719, -8.47155, 89.925, -78.7796, 34.6915
0.08, -1, 32.9791, 52.7639, -8.47475, 89.9292, -78.7644, 34.6967
0.084, -1, 32.9847, 52.7549, -8.47904, 89.9348, -78.744, 34.7037
0.088, -1, 32.991, 52.7451, -8.48461, 89.9421, -78.7174, 34.7128
0.092, -1, 32.9978, 52.7344, -8.49169, 89.9515, -78.6834, 34.7244
0.096, -1, 33.005, 52.7231, -8.50046, 89.9631, -78.6411, 34.7389
0.1, -1, 33.0126, 52.7112, -8.51109, 89.9773, -78.5897, 34.7566
0.104, -1, 33.0204, 52.699, -8.5237, 89.9942, -78.5285, 34.7775
0.108, -1, 33.0284, 52.6863, -8.53837, 90.0139, -78.4572, 34.802
0.112, -1, 33.0368, 52.673, -8.55512, 90.0364, -78.3757, 34.8299
0.116, -1, 33.0455, 52.6592, -8.57391, 90.0617, -78.2841, 34.8613
0.12, -1, 33.0546, 52.6447, -8.59467, 90.0896, -78.183, 34.896
0.124, -1, 33.0642, 52.6296, -8.61726, 90.12, -78.0728, 34.9337
0.128, -1, 33.0741, 52.6139, -8.64153, 90.1527, -77.9545, 34.9743
0.131, -1, 33.0844, 52.5977, -8.6673, 90.1875, -77.8288, 35.0174
0.136, -1, 33.0949, 52.5809, -8.69437, 90.2239, -77.6968, 35.0627
0.139, -1, 33.1058, 52.5633, -8.72251, 90.2618, -77.5596, 35.1097
0.144, -1, 33.1172, 52.5447, -8.75152, 90.3009, -77.4182, 35.1582
0.148, -1, 33.1293, 52.525, -8.7812, 90.3408, -77.2736, 35.2077
0.152, -1, 33.1421, 52.5041, -8.81138, 90.3814, -77.1267, 35.2581
0.156, -1, 33.1556, 52.4819, -8.8419, 90.4224, -76.9782, 35.309
0.16, -1, 33.17, 52.4586, -8.87265, 90.4637, -76.8286, 35.3603
0.164, -1, 33.1849, 52.4345, -8.90354, 90.5052, -76.6784, 35.4118
0.168, -1, 33.2004, 52.4098, -8.9345, 90.5467, -76.5279, 35.4634
0.172, -1, 33.2161, 52.3847, -8.9655, 90.5883, -76.3772, 35.515
0.176, -1, 33.2321, 52.3594, -8.9965, 90.6299, -76.2265, 35.5667
0.18, -1, 33.2481, 52.334, -9.02748, 90.6715, -76.076, 35.6183
0.184, -1, 33.2643, 52.3084, -9.05844, 90.713, -75.9256, 35.6699
0.188, -1, 33.2805, 52.2828, -9.08935, 90.7545, -75.7754, 35.7214
0.192, -1, 33.2967, 52.2573, -9.12022, 90.7959, -75.6254, 35.7728
0.196, -1, 33.3129, 52.2317, -9.15103, 90.8372, -75.4757, 35.8241
0.2, -1, 33.3291, 52.2061, -9.1818, 90.8785, -75.3262, 35.8753
0.204, -1, 33.3453, 52.1806, -9.21251, 90.9197, -75.177, 35.9265
0.208, -1, 33.3614, 52.1551, -9.24316, 90.9608, -75.028, 35.9775
0.212, -1, 33.3776, 52.1296, -9.27376, 91.0018, -74.8794, 36.0285
0.216, -1, 33.3937, 52.1042, -9.3043, 91.0428, -74.731, 36.0794
0.22, -1, 33.4098, 52.0788, -9.33479, 91.0837, -74.5829, 36.1302
0.224, -1, 33.4258, 52.0535, -9.36522, 91.1245, -74.435, 36.1808
0.228, -1, 33.4419, 52.0282, -9.3956, 91.1652, -74.2874, 36.2314
0.232, -1, 33.4579, 52.003, -9.42592, 91.2059, -74.1401, 36.2819
0.236, -1, 33.4738, 51.9778, -9.45618, 91.2465, -73.9931, 36.3323
0.24, -1, 33.4898, 51.9526, -9.48639, 91.287, -73.8463, 36.3826
0.244, -1, 33.5057, 51.9275, -9.51654, 91.3275, -73.6998, 36.4329
0.248, -1, 33.5216, 51.9025, -9.54664, 91.3678, -73.5536, 36.483
0.252, -1, 33.5374, 51.8774, -9.57668, 91.4081, -73.4076, 36.533
0.256, -1, 33.5533, 51.8525, -9.60667, 91.4483, -73.2619, 36.583
0.26, -1, 33.5691, 51.8276, -9.6366, 91.4885, -73.1165, 36.6328
0.264, -1, 33.5848, 51.8027, -9.66649, 91.5286, -72.9713, 36.6826
0.268, -1, 33.6006, 51.7778, -9.69631, 91.5686, -72.8264, 36.7323
0.272, -1, 33.6163, 51.7531, -9.72609, 91.6085, -72.6817, 36.7819
0.276, -1, 33.632, 51.7283, -9.75581, 91.6484, -72.5373, 36.8314
0.28, -1, 33.6476, 51.7036, -9.78547, 91.6882, -72.3932, 36.8808
0.284, -1, 33.6633, 51.679, -9.81509, 91.7279, -72.2493, 36.9301
0.288, -1, 33.6789, 51.6544, -9.84465, 91.7675, -72.1057, 36.9794
0.292, -1, 33.6945, 51.6298, -9.87416, 91.8071, -71.9623, 37.0285
0.296, -1, 33.71, 51.6053, -9.90362, 91.8466, -71.8191, 37.0776
0.3, -1, 33.7255, 51.5808, -9.93303, 91.8861, -71.6763, 37.1265
0.304, -1, 33.741, 51.5563, -9.96238, 91.9255, -71.5336, 37.1754
0.308, -1, 33.7565, 51.5319, -9.99169, 91.9648, -71.3913, 37.2243
0.312, -1, 33.7719, 51.5076, -10.0209, 92.004, -71.2491, 37.273
0.316, -1, 33.7873, 51.4833, -10.0501, 92.0432, -71.1073, 37.3216
0.32, -1, 33.8027, 51.459, -10.0793, 92.0823, -70.9656, 37.3702
0.324, -1, 33.8181, 51.4348, -10.1084, 92.1213, -70.8242, 37.4186
0.328, -1, 33.8334, 51.4106, -10.1374, 92.1603, -70.6831, 37.467
0.332, -1, 33.8487, 51.3864, -10.1665, 92.1992, -70.5422, 37.5153
0.336, -1, 33.864, 51.3623, -10.1954, 92.238, -70.4015, 37.5636
0.34, -1, 33.8793, 51.3383, -10.2243, 92.2768, -70.261, 37.6117
0.344, -1, 33.8945, 51.3142, -10.2532, 92.3155, -70.1209, 37.6598
0.348, -1, 33.9097, 51.2903, -10.282, 92.3541, -69.9809, 37.7077
0.352, -1, 33.9249, 51.2663, -10.3107, 92.3927, -69.8412, 37.7556
0.356, -1, 33.94, 51.2424, -10.3394, 92.4312, -69.7017, 37.8034
0.36, -1, 33.9552, 51.2186, -10.3681, 92.4696, -69.5624, 37.8512
0.364, -1, 33.9703, 51.1947, -10.3967, 92.508, -69.4234, 37.8988
0.368, -1, 33.9853, 51.171, -10.4253, 92.5463, -69.2846, 37.9464
0.372, -1, 34.0004, 51.1472, -10.4538, 92.5846, -69.1461, 37.9939
0.376, -1, 34.0154, 51.1235, -10.4823, 92.6228, -69.0078, 38.0413
0.38, -1, 34.0304, 51.0998, -10.5107, 92.6609, -68.8697, 38.0887
0.384, -1, 34.0454, 51.0762, -10.5391, 92.6989, -68.7318, 38.1359
0.388, -1, 34.0604, 51.0526, -10.5674, 92.7369, -68.5941, 38.1831
0.392, -1, 34.0753, 51.0291, -10.5957, 92.7749, -68.4567, 38.2302
0.396, -1, 34.0902, 51.0056, -10.6239, 92.8127, -68.3195, 38.2773
0.4, -1, 34.1051, 50.9821, -10.6521, 92.8506, -68.1826, 38.3242
0.404, -1, 34.1199, 50.9587, -10.6803, 92.8883, -68.0458, 38.3711
0.408, -1, 34.1348, 50.9353, -10.7084, 92.926, -67.9093, 38.4179
0.412, -1, 34.1496, 50.9119, -10.7364, 92.9636, -67.773, 38.4646
0.416, -1, 34.1643, 50.8886, -10.7644, 93.0012, -67.6369, 38.5113
0.42, -1, 34.1791, 50.8653, -10.7924, 93.0387, -67.501, 38.5579
0.424, -1, 34.1938, 50.8421, -10.8203, 93.0762, -67.3653, 38.6044
0.428, -1, 34.2086, 50.8189, -10.8482, 93.1136, -67.2299, 38.6508
0.432, -1, 34.2232, 50.7957, -10.876, 93.1509, -67.0947, 38.6971
0.436, -1, 34.2379, 50.7726, -10.9038, 93.1881, -66.9597, 38.7434
0.44, -1, 34.2526, 50.7495, -10.9315, 93.2254, -66.8249, 38.7896
0.444, -1, 34.2672, 50.7264, -10.9592, 93.2625, -66.6903, 38.8358
0.448, -1, 34.2818, 50.7034, -10.9869, 93.2996, -66.5559, 38.8818
0.452, -1, 34.2964, 50.6804, -11.0145, 93.3367, -66.4217, 38.9278
0.456, -1, 34.3109, 50.6574, -11.0421, 93.3736, -66.2878, 38.9738
0.46, -1, 34.3254, 50.6345, -11.0696, 93.4106, -66.154, 39.0196
0.464, -1, 34.3399, 50.6116, -11.0971, 93.4474, -66.0204, 39.0654
0.468, -1, 34.3544, 50.5888, -11.1246, 93.4842, -65.8871, 39.1111
0.472, -1, 34.3689, 50.566, -11.152, 93.521, -65.754, 39.1567
0.476, -1, 34.3833, 50.5432, -11.1793, 93.5577, -65.621, 39.2023
0.48, -1, 34.3978, 50.5204, -11.2066, 93.5943, -65.4883, 39.2478
0.484, -1, 34.4121, 50.4977, -11.2339, 93.6309, -65.3558, 39.2933
0.488, -1, 34.4265, 50.475, -11.2612, 93.6675, -65.2234, 39.3386
0.492, -1, 34.4409, 50.4524, -11.2883, 93.7039, -65.0913, 39.3839
0.496, -1, 34.4552, 50.4298, -11.3155, 93.7404, -64.9594, 39.4291
0.5, -1, 34.4695, 50.4072, -11.3426, 93.7767, -64.8276, 39.4743
0.504, -1, 34.4838, 50.3847, -11.3697, 93.813, -64.6961, 39.5194
0.508, -1, 34.4981, 50.3622, -11.3967, 93.8493, -64.5647, 39.5644
0.512, -1, 34.5123, 50.3397, -11.4237, 93.8855, -64.4336, 39.6094
0.516, -1, 34.5265, 50.3173, -11.4507, 93.9217, -64.3026, 39.6543
0.52, -1, 34.5408, 50.2949, -11.4776, 93.9578, -64.1719, 39.6991
0.524, -1, 34.5549, 50.2725, -11.5045, 93.9938, -64.0413, 39.7439
0.528, -1, 34.5691, 50.2501, -11.5313, 94.0298, -63.9109, 39.7886
0.532, -1, 34.5832, 50.2278, -11.5581, 94.0657, -63.7807, 39.8332
0.536, -1, 34.5974, 50.2056, -11.5848, 94.1016, -63.6507, 39.8777
0.54, -1, 34.6115, 50.1833, -11.6116, 94.1375, -63.5209, 39.9222
0.544, -1, 34.6255, 50.1611, -11.6382, 94.1732, -63.3913, 39.9667
0.548, -1, 34.6396, 50.1389, -11.6649, 94.209, -63.2619, 40.0111
0.552, -1, 34.6536, 50.1168, -11.6915, 94.2447, -63.1326, 40.0554
0.556, -1, 34.6677, 50.0947, -11.718, 94.2803, -63.0036, 40.0996
0.56, -1, 34.6817, 50.0726, -11.7446, 94.3159, -62.8747, 40.1438
0.564, -1, 34.6956, 50.0505, -11.7711, 94.3514, -62.746, 40.1879
0.568, -1, 34.7096, 50.0285, -11.7975, 94.3869, -62.6175, 40.2319
0.572, -1, 34.7235, 50.0065, -11.8239, 94.4223, -62.4892, 40.2759
0.576, -1, 34.7375, 49.9846, -11.8503, 94.4577, -62.361, 40.3199
0.58, -1, 34.7514, 49.9626, -11.8766, 94.493, -62.2331, 40.3637
0.584, -1, 34.7652, 49.9407, -11.9029, 94.5283, -62.1053, 40.4075
0.588, -1, 34.7791, 49.9189, -11.9292, 94.5635, -61.9777, 40.4513
0.592, -1, 34.7929, 49.897, -11.9554, 94.5987, -61.8503, 40.495
0.596, -1, 34.8068, 49.8752, -11.9816, 94.6338, -61.723, 40.5386
0.6, -1, 34.8206, 49.8535, -12.0078, 94.6689, -61.5959, 40.5821
0.604, -1, 34.8343, 49.8317, -12.0339, 94.7039, -61.4691, 40.6256
0.608, -1, 34.8481, 49.81, -12.0599, 94.7389, -61.3423, 40.6691
0.612, -1, 34.8618, 49.7883, -12.086, 94.7738, -61.2158, 40.7125
0.616, -1, 34.8756, 49.7667, -12.112, 94.8087, -61.0894, 40.7558
0.62, -1, 34.8893, 49.7451, -12.138, 94.8435, -60.9632, 40.799
0.624, -1, 34.903, 49.7235, -12.1639, 94.8783, -60.8372, 40.8422
0.628, -1, 34.9166, 49.7019, -12.1898, 94.9131, -60.7114, 40.8854
0.632, -1, 34.9303, 49.6804, -12.2157, 94.9478, -60.5857, 40.9284
0.636, -1, 34.9439, 49.6589, -12.2415, 94.9824, -60.4602, 40.9715
0.64, -1, 34.9575, 49.6374, -12.2673, 95.017, -60.3349, 41.0144
0.644, -1, 34.9711, 49.6159, -12.2931, 95.0516, -60.2097, 41.0573
0.648, -1, 34.9847, 49.5945, -12.3188, 95.0861, -60.0847, 41.1002
0.652, -1, 34.9983, 49.5731, -12.3445, 95.1205, -59.9599, 41.143
0.656, -1, 35.0118, 49.5518, -12.3701, 95.1549, -59.8352, 41.1857
0.66, -1, 35.0253, 49.5304, -12.3958, 95.1893, -59.7107, 41.2284
0.664, -1, 35.0388, 49.5091, -12.4214, 95.2236, -59.5864, 41.271
0.668, -1, 35.0523, 49.4879, -12.4469, 95.2579, -59.4622, 41.3136
0.672, -1, 35.0658, 49.4666, -12.4724, 95.2921, -59.3382, 41.3561
0.676, -1, 35.0792, 49.4454, -12.4979, 95.3263, -59.2144, 41.3985
0.68, -1, 35.0927, 49.4242, -12.5234, 95.3605, -59.0907, 41.4409
0.684, -1, 35.1061, 49.4031, -12.5488, 95.3946, -58.9672, 41.4833
0.688, -1, 35.1195, 49.3819, -12.5742, 95.4286, -58.8439, 41.5256
0.692, -1, 35.1329, 49.3608, -12.5995, 95.4626, -58.7207, 41.5678
0.696, -1, 35.1462, 49.3397, -12.6249, 95.4966, -58.5977, 41.61
0.7, -1, 35.1596, 49.3187, -12.6501, 95.5305, -58.4748, 41.6521
0.704, -1, 35.1729, 49.2977, -12.6754, 95.5644, -58.3521, 41.6941
0.708, -1, 35.1862, 49.2767, -12.7006, 95.5982, -58.2296, 41.7361
0.712, -1, 35.1995, 49.2557, -12.7258, 95.632, -58.1072, 41.7781
0.716, -1, 35.2128, 49.2347, -12.751, 95.6657, -57.985, 41.82
0.72, -1, 35.226, 49.2138, -12.7761, 95.6994, -57.8629, 41.8618
0.724, -1, 35.2393, 49.1929, -12.8012, 95.7331, -57.741, 41.9036
0.728, -1, 35.2525, 49.1721, -12.8262, 95.7667, -57.6192, 41.9454
0.732, -1, 35.2657, 49.1512, -12.8513, 95.8003, -57.4976, 41.9871
0.736, -1, 35.2789, 49.1304, -12.8763, 95.8338, -57.3762, 42.0287
0.74, -1, 35.2921, 49.1097, -12.9012, 95.8673, -57.2549, 42.0703
0.744, -1, 35.3052, 49.0889, -12.9262, 95.9007, -57.1338, 42.1118
0.748, -1, 35.3184, 49.0682, -12.9511, 95.9341, -57.0128, 42.1533
0.752, -1, 35.3315, 49.0475, -12.9759, 95.9675, -56.8919, 42.1947
0.756, -1, 35.3446, 49.0268, -13.0008, 96.0008, -56.7712, 42.2361
0.76, -1, 35.3577, 49.0061, -13.0256, 96.0341, -56.6507, 42.2774
0.764, -1, 35.3708, 48.9855, -13.0504, 96.0673, -56.5303, 42.3187
0.768, -1, 35.3838, 48.9649, -13.0751, 96.1005, -56.4101, 42.3599
0.772, -1, 35.3969, 48.9443, -13.0998, 96.1336, -56.29, 42.401
0.776, -1, 35.4099, 48.9238, -13.1245, 96.1667, -56.1701, 42.4422
0.78, -1, 35.4229, 48.9032, -13.1492, 96.1998, -56.0503, 42.4832
0.784, -1, 35.4359, 48.8827, -13.1738, 96.2328, -55.9307, 42.5242
0.788, -1, 35.4489, 48.8623, -13.1984, 96.2658, -55.8112, 42.5652
0.792, -1, 35.4619, 48.8418, -13.2229, 96.2988, -55.6918, 42.6061
0.796, -1, 35.4748, 48.8214, -13.2475, 96.3317, -55.5726, 42.647
0.8, -1, 35.4877, 48.801, -13.272, 96.3645, -55.4535, 42.6878
0.804, -1, 35.5006, 48.7806, -13.2965, 96.3974, -55.3346, 42.7285
0.808, -1, 35.5136, 48.7603, -13.3209, 96.4302, -55.2159, 42.7693
0.812, -1, 35.5264, 48.7399, -13.3453, 96.4629, -55.0972, 42.8099
0.816, -1, 35.5393, 48.7196, -13.3697, 96.4956, -54.9787, 42.8506
0.82, -1, 35.5522, 48.6994, -13.3941, 96.5283, -54.8604, 42.8911
0.824, -1, 35.565, 48.6791, -13.4184, 96.5609, -54.7422, 42.9316
0.828, -1, 35.5778, 48.6589, -13.4427, 96.5935, -54.6241, 42.9721
0.832, -1, 35.5906, 48.6387, -13.467, 96.6261, -54.5062, 43.0125
0.836, -1, 35.6034, 48.6185, -13.4912, 96.6586, -54.3884, 43.0529
0.84, -1, 35.6162, 48.5983, -13.5154, 96.6911, -54.2707, 43.0933
0.844, -1, 35.629, 48.5782, -13.5396, 96.7235, -54.1532, 43.1335
0.848, -1, 35.6417, 48.5581, -13.5638, 96.7559, -54.0358, 43.1738
0.852, -1, 35.6545, 48.538, -13.5879, 96.7883, -53.9186, 43.214
0.856, -1, 35.6672, 48.5179, -13.612, 96.8206, -53.8015, 43.2541
0.86, -1, 35.6799, 48.4979, -13.6361, 96.8529, -53.6845, 43.2942
0.864, -1, 35.6925, 48.4779, -13.6601, 96.8852, -53.5677, 43.3343
0.868, -1, 35.7051, 48.458, -13.6841, 96.9174, -53.451, 43.3743
0.872, -1, 35.7176, 48.4381, -13.7081, 96.9496, -53.3345, 43.4142
0.876, -1, 35.73, 48.4184, -13.7321, 96.9817, -53.2181, 43.4541
0.88, -1, 35.7419, 48.3992, -13.756, 97.0137, -53.102, 43.4939
0.884, -1, 35.7533, 48.3805, -13.7798, 97.0457, -52.9863, 43.5336
0.888, -1, 35.7641, 48.3627, -13.8035, 97.0775, -52.8712, 43.5731
0.892, -1, 35.7742, 48.3457, -13.8269, 97.109, -52.757, 43.6122
0.896, -1, 35.7836, 48.3297, -13.8501, 97.1401, -52.6444, 43.6508
0.9, -1, 35.7924, 48.3145, -13.8728, 97.1706, -52.534, 43.6887
0.904, -1, 35.8007, 48.3002, -13.895, 97.2003, -52.4264, 43.7256
0.908, -1, 35.8087, 48.2866, -13.9163, 97.229, -52.3226, 43.7613
0.912, -1, 35.8164, 48.2736, -13.9367, 97.2564, -52.2234, 43.7953
0.916, -1, 35.8238, 48.2613, -13.956, 97.2823, -52.1296, 43.8275
0.92, -1, 35.8309, 48.2497, -13.9741, 97.3065, -52.042, 43.8576
0.924, -1, 35.8377, 48.2387, -13.9907, 97.3288, -51.9612, 43.8853
0.928, -1, 35.8442, 48.2281, -14.0057, 97.3491, -51.888, 43.9104
0.932, -1, 35.8507, 48.2178, -14.0192, 97.3671, -51.8226, 43.9328
0.936, -1, 35.8571, 48.2077, -14.031, 97.3829, -51.7653, 43.9524
0.94, -1, 35.8634, 48.1979, -14.0412, 97.3966, -51.716, 43.9693
0.944, -1, 35.8695, 48.1884, -14.0498, 97.4081, -51.6743, 43.9836
0.948, -1, 35.8755, 48.1793, -14.0569, 97.4175, -51.6399, 43.9954
0.952, -1, 35.8812, 48.1708, -14.0626, 97.4252, -51.612, 44.0049
0.956, -1, 35.8865, 48.1631, -14.0672, 97.4313, -51.5899, 44.0124
0.96, -1, 35.8915, 48.1562, -14.0707, 97.436, -51.5728, 44.0183
0.964, -1, 35.896, 48.1502, -14.0734, 97.4396, -51.5598, 44.0227
0.968, -1, 35.9001, 48.145, -14.0754, 97.4422, -51.5503, 44.0259
0.972, -1, 35.9037, 48.1406, -14.0768, 97.4441, -51.5433, 44.0283
0.976, 2, 35.9067, 48.1371, -14.0778, 97.4454, -51.5385, 44.0299
0.98, 2, 35.9091, 48.1343, -14.0785, 97.4463, -51.5351, 44.0311
0.984, 2, 35.911, 48.1323, -14.079, 97.4469, -51.5327, 44.0319
0.988, 2, 35.9123, 48.1308, -14.0793, 97.4474, -51.5312, 44.0324
0.992, 2, 35.9132, 48.1299, -14.0796, 97.4477, -51.5301, 44.0328
0.996, 2, 35.9138, 48.1292, -14.0797, 97.4479, -51.5294, 44.033
1, 2, 35.9142, 48.1287, -14.0798, 97.448, -51.5289, 44.0332
1.004, 2, 35.9145, 48.1284, -14.0799, 97.4481, -51.5285, 44.0333
1.008, 2, 35.9147, 48.1282, -14.0799, 97.4482, -51.5283, 44.0334
1.012, 2, 35.9149, 48.1281, -14.08, 97.4482, -51.5282, 44.0334
1.016, 2, 35.9149, 48.128, -14.08, 97.4482, -51.5281, 44.0335
1.02, 2, 35.915, 48.1279, -14.08, 97.4482, -51.528, 44.0335
1.024, 2, 35.915, 48.1279, -14.08, 97.4483, -51.5279, 44.0335
1.027, 2, 35.9151, 48.1278, -14.08, 97.4483, -51.5279, 44.0335
1.032, 2, 35.9151, 48.1278, -14.08, 97.4483, -51.5279, 44.0335
1.036, 2, 35.9151, 48.1278, -14.08, 97.4483, -51.5279, 44.0335
1.04, 2, 35.9151, 48.1278, -14.08, 97.4483, -51.5279, 44.0335
1.044, 2, 35.9151, 48.1278, -14.08, 97.4483, -51.5279, 44.0335
1.048, 2, 35.9151, 48.1278, -14.08, 97.4483, -51.5279, 44.0335
1.052, 2, 35.9151, 48.1278, -14.08, 97.4483, -51.5278, 44.0335
1.055, 2, 35.9151, 48.1278, -14.08, 97.4483, -51.5278, 44.0335
1.06, 2, 35.9151, 48.1278, -14.08, 97.4483, -51.5278, 44.0335
1.064, 2, 35.9151, 48.1278, -14.08, 97.4483, -51.5278, 44.0335
1.068, 2, 35.9151, 48.1278, -14.08, 97.4483, -51.5278, 44.0335
1.072, 2, 35.9151, 48.1278, -14.08, 97.4483, -51.5278, 44.0335
1.076, 2, 35.9151, 48.1278, -14.08, 97.4483, -51.5278, 44.0335
1.08, 2, 35.9151, 48.1278, -14.08, 97.4483, -51.5278, 44.0335
1.084, 2, 35.9151, 48.1278, -14.08, 97.4483, -51.5278, 44.0335
1.088, 2, 35.9151, 48.1278, -14.08, 97.4483, -51.5278, 44.0335
1.091, 2, 35.9151, 48.1278, -14.08, 97.4483, -51.5278, 44.0335
1.096, 2, 35.9151, 48.1278, -14.08, 97.4483, -51.5278, 44.0335
1.1, 2, 35.9151, 48.1278, -14.08, 97.4483, -51.5278, 44.0335
1.104, 2, 35.9151, 48.1278, -14.08, 97.4483, -51.5278, 44.0335
1.108, 2, 35.9151, 48.1278, -14.08, 97.4483, -51.5278, 44.0335
1.112, 2, 35.9151, 48.1278, -14.08, 97.4483, -51.5278, 44.0335
1.116, 2, 35.9151, 48.1278, -14.08, 97.4483, -51.5278, 44.0335
1.119, 2, 35.9151, 48.1278, -14.08, 97.4483, -51.5278, 44.0335
1.124, 2, 35.9151, 48.1278, -14.08, 97.4483, -51.5278, 44.0335
1.128, 2, 35.9151, 48.1278, -14.08, 97.4483, -51.5278, 44.0335
1.132, 2, 35.9151, 48.1278, -14.08, 97.4483, -51.5278, 44.0335
1.136, 2, 35.9151, 48.1278, -14.08, 97.4483, -51.5278, 44.0335
1.14, 2, 35.9151, 48.1278, -14.08, 97.4483, -51.5278, 44.0335
1.144, 2, 35.9151, 48.1278, -14.08, 97.4483, -51.5278, 44.0335
1.147, 2, 35.9151, 48.1278, -14.08, 97.4483, -51.5278, 44.0335
1.152, 2, 35.9151, 48.1278, -14.08, 97.4483, -51.5278, 44.0335
1.156, 2, 35.9151, 48.1278, -14.08, 97.4483, -51.5278, 44.0335
1.16, 2, 35.9151, 48.1278, -14.08, 97.4483, -51.5278, 44.0335
1.164, 2, 35.9151, 48.1278, -14.08, 97.4483, -51.5278, 44.0335
1.168, 2, 35.9151, 48.1278, -14.08, 97.4483, -51.5278, 44.0335
1.172, 2, 35.9151, 48.1278, -14.08, 97.4483, -51.5278, 44.0335
1.175, 2, 35.9151, 48.1278, -14.08, 97.4483, -51.5278, 44.0335
1.18, 2, 35.9151, 48.1278, -14.08, 97.4483, -51.5278, 44.0335
1.184, 2, 35.9151, 48.1278, -14.08, 97.4483, -51.5278, 44.0335
1.188, 2, 35.9151, 48.1278, -14.08, 97.4483, -51.5278, 44.0335
1.192, 2, 35.9151, 48.1278, -14.08, 97.4483, -51.5278, 44.0335
1.196, 2, 35.9151, 48.1278, -14.08, 97.4483, -51.5278, 44.0335
1.2, 2, 35.9151, 48.1278, -14.08, 97.4483, -51.5278, 44.0335
1.204, 2, 35.9151, 48.1278, -14.08, 97.4483, -51.5278, 44.0335
1.208, 2, 35.9151, 48.1278, -14.08, 97.4483, -51.5278, 44.0335
1.212, 2, 35.9151, 48.1278, -14.08, 97.4483, -51.5278, 44.0335
1.216, 2, 35.9151, 48.1278, -14.08, 97.4483, -51.5278, 44.0335
1.22, 2, 35.9151, 48.1278, -14.08, 97.4483, -51.5278, 44.0335
1.224, 2, 35.9151, 48.1278, -14.08, 97.4483, -51.5278, 44.0335
1.228, 2, 35.9151, 48.1278, -14.08, 97.4483, -51.5278, 44.0335
1.232, 2, 35.9151, 48.1278, -14.08, 97.4483, -51.5278, 44.0335
1.236, 2, 35.9151, 48.1278, -14.08, 97.4483, -51.5278, 44.0335
1.24, 2, 35.9151, 48.1278, -14.08, 97.4483, -51.5278, 44.0335
1.244, 2, 35.9151, 48.1278, -14.08, 97.4483, -51.5278, 44.0335
1.248, 2, 35.9151, 48.1278, -14.08, 97.4483, -51.5278, 44.0335
1.252, 2, 35.9151, 48.1278, -14.08, 97.4483, -51.5278, 44.0335
1.256, 2, 35.9151, 48.1278, -14.08, 97.4483, -51.5278, 44.0335
1.26, 2, 35.9151, 48.1278, -14.08, 97.4483, -51.5278, 44.0335
1.264, 2, 35.9151, 48.1278, -14.08, 97.4483, -51.5278, 44.0335
1.267, 2, 35.9151, 48.1278, -14.08, 97.4483, -51.5278, 44.0335
1.272, 2, 35.9151, 48.1278, -14.08, 97.4483, -51.5278, 44.0335
1.276, 2, 35.9151, 48.1278, -14.08, 97.4483, -51.5278, 44.0335
1.28, 2, 35.9151, 48.1278, -14.08, 97.4483, -51.5278, 44.0335
1.284, 2, 35.9151, 48.1278, -14.08, 97.4483, -51.5278, 44.0335
1.288, 2, 35.9151, 48.1278, -14.08, 97.4483, -51.5278, 44.0335
1.292, 2, 35.9151, 48.1278, -14.08, 97.4483, -51.5278, 44.0335
1.295, 2, 35.9151, 48.1278, -14.08, 97.4483, -51.5278, 44.0335
1.3, 2, 35.9151, 48.1278, -14.08, 97.4483, -51.5278, 44.0335
1.304, 2, 35.9151, 48.1278, -14.08, 97.4483, -51.5278, 44.0335
1.308, 2, 35.9151, 48.1278, -14.08, 97.4483, -51.5278, 44.0335
1.312, 2, 35.9151, 48.1278, -14.08, 97.4483, -51.5278, 44.0335
1.316, 2, 35.9151, 48.1278, -14.08, 97.4483, -51.5278, 44.0335
1.32, 2, 35.9151, 48.1278, -14.08, 97.4483, -51.5278, 44.0335
1.324, 2, 35.9151, 48.1278, -14.08, 97.4483, -51.5278, 44.0335
1.328, 2, 35.9151, 48.1278, -14.08, 97.4483, -51.5278, 44.0335
1.332, 2, 35.9151, 48.1278, -14.08, 97.4483, -51.5278, 44.0335
1.336, 2, 35.9151, 48.1278, -14.08, 97.4483, -51.5278, 44.0335
1.34, 2, 35.9151, 48.1278, -14.08, 97.4483, -51.5278, 44.0335
1.344, 2, 35.9151, 48.1278, -14.08, 97.4483, -51.5278, 44.0335
1.348, 2, 35.9151, 48.1278, -14.08, 97.4483, -51.5278, 44.0335
1.352, 2, 35.9151, 48.1278, -14.08, 97.4483, -51.5278, 44.0335
1.356, 2, 35.9151, 48.1278, -14.08, 97.4483, -51.5278, 44.0335
1.36, 2, 35.9151, 48.1278, -14.08, 97.4483, -51.5278, 44.0335
1.364, 2, 35.9151, 48.1278, -14.08, 97.4483, -51.5278, 44.0335
1.368, 2, 35.9151, 48.1278, -14.08, 97.4483, -51.5278, 44.0335
1.372, 2, 35.9151, 48.1278, -14.08, 97.4483, -51.5278, 44.0335
1.376, 2, 35.9151, 48.1278, -14.08, 97.4483, -51.5278, 44.0335
1.38, 2, 35.9151, 48.1278, -14.08, 97.4483, -51.5278, 44.0335
1.384, 2, 35.9151, 48.1278, -14.08, 97.4483, -51.5278, 44.0335
1.388, 2, 35.9151, 48.1278, -14.08, 97.4483, -51.5278, 44.0335
1.392, 2, 35.9151, 48.1278, -14.08, 97.4483, -51.5278, 44.0335
1.396, 2, 35.9151, 48.1278, -14.08, 97.4483, -51.5278, 44.0335
1.4, 2, 35.9151, 48.1278, -14.08, 97.4483, -51.5278, 44.0335
1.404, 2, 35.9151, 48.1278, -14.08, 97.4483, -51.5278, 44.0335
1.408, 2, 35.9151, 48.1278, -14.08, 97.4483, -51.5278, 44.0335
1.412, 2, 35.9151, 48.1278, -14.08, 97.4483, -51.5278, 44.0335
1.416, 2, 35.9151, 48.1278, -14.08, 97.4483, -51.5278, 44.0335
1.42, 2, 35.9151, 48.1278, -14.08, 97.4483, -51.5278, 44.0335
1.424, 2, 35.9151, 48.1278, -14.08, 97.4483, -51.5278, 44.0335
1.428, 2, 35.9151, 48.1278, -14.08, 97.4483, -51.5278, 44.0335
1.432, 2, 35.9151, 48.1278, -14.08, 97.4483, -51.5278, 44.0335
1.436, 2, 35.9151, 48.1278, -14.08, 97.4483, -51.5278, 44.0335
1.44, 2, 35.9151, 48.1278, -14.08, 97.4483, -51.5278, 44.0335
1.444, 2, 35.9151, 48.1278, -14.08, 97.4483, -51.5278, 44.0335
1.448, 2, 35.9151, 48.1278, -14.08, 97.4483, -51.5278, 44.0335
1.452, 2, 35.9151, 48.1278, -14.08, 97.4483, -51.5278, 44.0335
1.456, 2, 35.9151, 48.1278, -14.08, 97.4483, -51.5278, 44.0335
1.46, 2, 35.9151, 48.1278, -14.08, 97.4483, -51.5278, 44.0335
1.464, 2, 35.9151, 48.1278, -14.08, 97.4483, -51.5278, 44.0335
1.468, 2, 35.9151, 48.1278, -14.08, 97.4483, -51.5278, 44.0335
1.472, 2, 35.9151, 48.1278, -14.08, 97.4483, -51.5278, 44.0335
1.476, 2, 35.9151, 48.1278, -14.08, 97.4483, -51.5278, 44.0335
1.48, 2, 35.9151, 48.1278, -14.08, 97.4483, -51.5278, 44.0335
1.484, 2, 35.9151, 48.1278, -14.08, 97.4483, -51.5278, 44.0335
1.488, 2, 35.9151, 48.1278, -14.08, 97.4483, -51.5278, 44.0335
1.492, 2, 35.9151, 48.1278, -14.08, 97.4483, -51.5278, 44.0335
1.496, 2, 35.9151, 48.1278, -14.08, 97.4483, -51.5278, 44.0335
1.5, 2, 35.9151, 48.1278, -14.08, 97.4483, -51.5278, 44.0335
1.504, 2, 35.9151, 48.1278, -14.08, 97.4483, -51.5278, 44.0335
1.508, 2, 35.9151, 48.1278, -14.08, 97.4483, -51.5278, 44.0335
1.512, 2, 35.9151, 48.1278, -14.08, 97.4483, -51.5278, 44.0335
1.516, 2, 35.9151, 48.1278, -14.08, 97.4483, -51.5278, 44.0335
1.52, 2, 35.9151, 48.1278, -14.08, 97.4483, -51.5278, 44.0335
1.524, 2, 35.9151, 48.1278, -14.08, 97.4483, -51.5278, 44.0335
1.528, 2, 35.9151, 48.1278, -14.08, 97.4483, -51.5278, 44.0335
1.532, 2, 35.9151, 48.1278, -14.08, 97.4483, -51.5278, 44.0335
1.536, 2, 35.9151, 48.1278, -14.08, 97.4483, -51.5278, 44.0335
1.54, 2, 35.9151, 48.1278, -14.08, 97.4483, -51.5278, 44.0335
1.544, 2, 35.9151, 48.1278, -14.08, 97.4483, -51.5278, 44.0335
1.548, 2, 35.9151, 48.1278, -14.08, 97.4483, -51.5278, 44.0335
1.552, 2, 35.9151, 48.1278, -14.08, 97.4483, -51.5278, 44.0335
1.556, 2, 35.9151, 48.1278, -14.08, 97.4483, -51.5278, 44.0335
1.56, 2, 35.9151, 48.1278, -14.08, 97.4483, -51.5278, 44.0335
1.564, 2, 35.9151, 48.1278, -14.08, 97.4483, -51.5278, 44.0335
1.568, 2, 35.9151, 48.1278, -14.08, 97.4483, -51.5278, 44.0335
1.572, 2, 35.9151, 48.1278, -14.08, 97.4483, -51.5278, 44.0335
1.576, 2, 35.9151, 48.1278, -14.08, 97.4483, -51.5278, 44.0335
1.58, 2, 35.9151, 48.1278, -14.08, 97.4483, -51.5278, 44.0335
1.584, 2, 35.9151, 48.1278, -14.08, 97.4483, -51.5278, 44.0335
1.588, 2, 35.9151, 48.1278, -14.08, 97.4483, -51.5278, 44.0335
1.592, 2, 35.9151, 48.1278, -14.08, 97.4483, -51.5278, 44.0335
1.596, 2, 35.9151, 48.1278, -14.08, 97.4483, -51.5278, 44.0335
1.6, 2, 35.9151, 48.1278, -14.08, 97.4483, -51.5278, 44.0335
1.604, 2, 35.9151, 48.1278, -14.08, 97.4483, -51.5278, 44.0335
1.608, 2, 35.9151, 48.1278, -14.08, 97.4483, -51.5278, 44.0335
1.612, 2, 35.9151, 48.1278, -14.08, 97.4483, -51.5278, 44.0335
1.616, 2, 35.9151, 48.1278, -14.08, 97.4483, -51.5278, 44.0335
1.62, 2, 35.9151, 48.1278, -14.08, 97.4483, -51.5278, 44.0335
1.624, 2, 35.9151, 48.1278, -14.08, 97.4483, -51.5278, 44.0335
1.628, 2, 35.9151, 48.1278, -14.08, 97.4483, -51.5278, 44.0335
1.632, 2, 35.9151, 48.1278, -14.08, 97.4483, -51.5278, 44.0335
1.636, 2, 35.9151, 48.1278, -14.08, 97.4483, -51.5278, 44.0335
1.64, 2, 35.9151, 48.1278, -14.08, 97.4483, -51.5278, 44.0335
1.644, 2, 35.9151, 48.1278, -14.08, 97.4483, -51.5278, 44.0335
1.648, 2, 35.9151, 48.1278, -14.08, 97.4483, -51.5278, 44.0335
1.652, 2, 35.9151, 48.1278, -14.08, 97.4483, -51.5278, 44.0335
1.656, 2, 35.9151, 48.1278, -14.08, 97.4483, -51.5278, 44.0335
1.66, 2, 35.9151, 48.1278, -14.08, 97.4483, -51.5278, 44.0335
1.664, 2, 35.9151, 48.1278, -14.08, 97.4483, -51.5278, 44.0335
1.668, 2, 35.9151, 48.1278, -14.08, 97.4483, -51.5278, 44.0335
1.672, 2, 35.9151, 48.1278, -14.08, 97.4483, -51.5278, 44.0335
1.676, 2, 35.9151, 48.1278, -14.08, 97.4483, -51.5278, 44.0335
1.68, 2, 35.9151, 48.1278, -14.08, 97.4483, -51.5278, 44.0335
1.684, 2, 35.9151, 48.1278, -14.08, 97.4483, -51.5278, 44.0335
1.688, 2, 35.9151, 48.1278, -14.08, 97.4483, -51.5278, 44.0335
1.692, 2, 35.9151, 48.1278, -14.08, 97.4483, -51.5278, 44.0335
1.696, 2, 35.9151, 48.1278, -14.08, 97.4483, -51.5278, 44.0335
1.7, 2, 35.9151, 48.1278, -14.08, 97.4483, -51.5278, 44.0335
1.704, 2, 35.9151, 48.1278, -14.08, 97.4483, -51.5278, 44.0335
1.708, 2, 35.9151, 48.1278, -14.08, 97.4483, -51.5278, 44.0335
1.712, 2, 35.9151, 48.1278, -14.08, 97.4483, -51.5278, 44.0335
1.716, 2, 35.9151, 48.1278, -14.08, 97.4483, -51.5278, 44.0335
1.72, 2, 35.9151, 48.1278, -14.08, 97.4483, -51.5278, 44.0335
1.724, 2, 35.9151, 48.1278, -14.08, 97.4483, -51.5278, 44.0335
1.728, 2, 35.9151, 48.1278, -14.08, 97.4483, -51.5278, 44.0335
1.732, 2, 35.9151, 48.1278, -14.08, 97.4483, -51.5278, 44.0335
1.736, 2, 35.9151, 48.1278, -14.08, 97.4483, -51.5278, 44.0335
1.74, 2, 35.9151, 48.1278, -14.08, 97.4483, -51.5278, 44.0335
1.744, 2, 35.9151, 48.1278, -14.08, 97.4483, -51.5278, 44.0335
1.748, 2, 35.9151, 48.1278, -14.08, 97.4483, -51.5278, 44.0335
1.752, 2, 35.9151, 48.1278, -14.08, 97.4483, -51.5278, 44.0335
1.756, 2, 35.9151, 48.1278, -14.08, 97.4483, -51.5278, 44.0335
1.76, 2, 35.9151, 48.1278, -14.08, 97.4483, -51.5278, 44.0335
1.764, 2, 35.9151, 48.1278, -14.08, 97.4483, -51.5278, 44.0335
1.768, 2, 35.9151, 48.1278, -14.08, 97.4483, -51.5278, 44.0335
1.772, 2, 35.9151, 48.1278, -14.08, 97.4483, -51.5278, 44.0335
1.776, 2, 35.9151, 48.1278, -14.08, 97.4483, -51.5278, 44.0335
1.78, 2, 35.9151, 48.1278, -14.08, 97.4483, -51.5278, 44.0335
1.784, 2, 35.9151, 48.1278, -14.08, 97.4483, -51.5278, 44.0335
1.788, 2, 35.9151, 48.1278, -14.08, 97.4483, -51.5278, 44.0335
1.792, 2, 35.9151, 48.1278, -14.08, 97.4483, -51.5278, 44.0335
1.796, 2, 35.9151, 48.1278, -14.08, 97.4483, -51.5278, 44.0335
1.8, 2, 35.9151, 48.1278, -14.08, 97.4483, -51.5278, 44.0335
1.804, 2, 35.9151, 48.1278, -14.08, 97.4483, -51.5278, 44.0335
1.808, 2, 35.9151, 48.1278, -14.08, 97.4483, -51.5278, 44.0335
1.812, 2, 35.9151, 48.1278, -14.08, 97.4483, -51.5278, 44.0335
1.816, 2, 35.9151, 48.1278, -14.08, 97.4483, -51.5278, 44.0335
1.82, 2, 35.9151, 48.1278, -14.08, 97.4483, -51.5278, 44.0335
1.824, 2, 35.9151, 48.1278, -14.08, 97.4483, -51.5278, 44.0335
1.828, 2, 35.9151, 48.1278, -14.08, 97.4483, -51.5278, 44.0335
1.832, 2, 35.9151, 48.1278, -14.08, 97.4483, -51.5278, 44.0335
1.836, 2, 35.9151, 48.1278, -14.08, 97.4483, -51.5278, 44.0335
1.84, 2, 35.9151, 48.1278, -14.08, 97.4483, -51.5278, 44.0335
1.844, 2, 35.9151, 48.1278, -14.08, 97.4483, -51.5278, 44.0335
1.848, 2, 35.9151, 48.1278, -14.08, 97.4483, -51.5278, 44.0335
1.852, 2, 35.9151, 48.1278, -14.08, 97.4483, -51.5278, 44.0335
1.856, 2, 35.9151, 48.1278, -14.08, 97.4483, -51.5278, 44.0335
1.86, 2, 35.9151, 48.1278, -14.08, 97.4483, -51.5278, 44.0335
1.864, 2, 35.9151, 48.1278, -14.08, 97.4483, -51.5278, 44.0335
1.868, 2, 35.9151, 48.1278, -14.08, 97.4483, -51.5278, 44.0335
1.872, 2, 35.9151, 48.1278, -14.08, 97.4483, -51.5278, 44.0335
1.876, 2, 35.9151, 48.1278, -14.08, 97.4483, -51.5278, 44.0335
1.88, 2, 35.9151, 48.1278, -14.08, 97.4483, -51.5278, 44.0335
1.884, 2, 35.9151, 48.1278, -14.08, 97.4483, -51.5278, 44.0335
1.888, 2, 35.9151, 48.1278, -14.08, 97.4483, -51.5278, 44.0335
1.892, 2, 35.9151, 48.1278, -14.08, 97.4483, -51.5278, 44.0335
1.896, 2, 35.9151, 48.1278, -14.08, 97.4483, -51.5278, 44.0335
1.9, 2, 35.9151, 48.1278, -14.08, 97.4483, -51.5278, 44.0335
1.904, 2, 35.9151, 48.1278, -14.08, 97.4483, -51.5278, 44.0335
1.908, 2, 35.9151, 48.1278, -14.08, 97.4483, -51.5278, 44.0335
1.912, 2, 35.9151, 48.1278, -14.08, 97.4483, -51.5278, 44.0335
1.916, 2, 35.9151, 48.1278, -14.08, 97.4483, -51.5278, 44.0335
1.92, 2, 35.9151, 48.1278, -14.08, 97.4483, -51.5278, 44.0335
1.924, 2, 35.9151, 48.1278, -14.08, 97.4483, -51.5278, 44.0335
1.928, 2, 35.9151, 48.1278, -14.08, 97.4483, -51.5278, 44.0335
1.932, 2, 35.9151, 48.1278, -14.08, 97.4483, -51.5278, 44.0335
1.936, 2, 35.9151, 48.1278, -14.08, 97.4483, -51.5278, 44.0335
1.94, 2, 35.9151, 48.1278, -14.08, 97.4483, -51.5278, 44.0335
1.944, 2, 35.9151, 48.1278, -14.08, 97.4483, -51.5278, 44.0335
1.948, 2, 35.9151, 48.1278, -14.08, 97.4483, -51.5278, 44.0335
1.952, 2, 35.9151, 48.1278, -14.08, 97.4483, -51.5278, 44.0335
1.956, 2, 35.9151, 48.1278, -14.08, 97.4483, -51.5278, 44.0335
1.96, 2, 35.9151, 48.1278, -14.08, 97.4483, -51.5278, 44.0335
1.964, 2, 35.9151, 48.1278, -14.08, 97.4483, -51.5278, 44.0335
1.968, 2, 35.9151, 48.1278, -14.08, 97.4483, -51.5278, 44.0335
1.972, 2, 35.9151, 48.1278, -14.08, 97.4483, -51.5278, 44.0335
1.976, 2, 35.9151, 48.1278, -14.08, 97.4483, -51.5278, 44.0335
1.98, 2, 35.9151, 48.1278, -14.08, 97.4483, -51.5278, 44.0335
1.984, 2, 35.9151, 48.1278, -14.08, 97.4483, -51.5278, 44.0335
1.988, 2, 35.9151, 48.1278, -14.08, 97.4483, -51.5278, 44.0335
1.992, 2, 35.9151, 48.1278, -14.08, 97.4483, -51.5278, 44.0335
1.996, 2, 35.9151, 48.1278, -14.08, 97.4483, -51.5278, 44.0335
1.999, 2, 35.9151, 48.1278, -14.08, 97.4483, -51.5278, 44.0335
2.004, 2, 35.9151, 48.1278, -14.08, 97.4483, -51.5278, 44.0335
2.008, 2, 35.9151, 48.1278, -14.08, 97.4483, -51.5278, 44.0335
2.012, 2, 35.9151, 48.1278, -14.08, 97.4483, -51.5278, 44.0335
2.015, 2, 35.9151, 48.1278, -14.08, 97.4483, -51.5278, 44.0335
2.019, 2, 35.9151, 48.1278, -14.08, 97.4483, -51.5278, 44.0335
2.024, 2, 35.9151, 48.1278, -14.08, 97.4483, -51.5278, 44.0335
2.028, 2, 35.9151, 48.1278, -14.08, 97.4483, -51.5278, 44.0335
2.031, 4, 35.9151, 48.1278, -14.08, 97.4483, -51.5278, 44.0335
2.036, 4, 35.9151, 48.1278, -14.08, 97.4483, -51.5278, 44.0335
2.04, 4, 35.9151, 48.1278, -14.08, 97.4483, -51.5278, 44.0335
2.044, 4, 35.9151, 48.1278, -14.08, 97.4483, -51.5278, 44.0335
2.048, 4, 35.9151, 48.1278, -14.08, 97.4483, -51.5278, 44.0335
2.051, 4, 35.9151, 48.1278, -14.08, 97.4483, -51.5278, 44.0335
2.055, 4, 35.9151, 48.1278, -14.08, 97.4483, -51.5278, 44.0335
2.06, 4, 35.9151, 48.1278, -14.08, 97.4483, -51.5278, 44.0335
2.064, 4, 35.9151, 48.1278, -14.08, 97.4483, -51.5278, 44.0335
2.068, 4, 35.9151, 48.1278, -14.08, 97.4483, -51.5278, 44.0335
2.071, 4, 35.9151, 48.1278, -14.08, 97.4483, -51.5278, 44.0335
2.076, 4, 35.9151, 48.1278, -14.08, 97.4483, -51.5278, 44.0335
2.08, 4, 35.9151, 48.1278, -14.08, 97.4483, -51.5278, 44.0335
2.084, 4, 35.9151, 48.1278, -14.08, 97.4483, -51.5278, 44.0335
2.087, 4, 35.9151, 48.1278, -14.08, 97.4483, -51.5278, 44.0335
2.092, 4, 35.9151, 48.1278, -14.08, 97.4483, -51.5278, 44.0335
2.096, 4, 35.9151, 48.1278, -14.08, 97.4483, -51.5278, 44.0335
2.1, 4, 35.9151, 48.1278, -14.08, 97.4483, -51.5278, 44.0335
2.104, 4, 35.9151, 48.1278, -14.08, 97.4483, -51.5278, 44.0335
2.107, 4, 35.9151, 48.1278, -14.08, 97.4483, -51.5278, 44.0335
2.111, 4, 35.9151, 48.1278, -14.08, 97.4483, -51.5278, 44.0335
2.116, 4, 35.9151, 48.1278, -14.08, 97.4483, -51.5278, 44.0335
2.12, 4, 35.9151, 48.1278, -14.08, 97.4483, -51.5278, 44.0335
2.124, 4, 35.9151, 48.1278, -14.08, 97.4483, -51.5278, 44.0335
2.127, 4, 35.9151, 48.1278, -14.08, 97.4483, -51.5278, 44.0335
2.132, 4, 35.9151, 48.1278, -14.08, 97.4483, -51.5278, 44.0335
2.138, 4, 35.9151, 48.1278, -14.08, 97.4483, -51.5278, 44.0335
2.14, 4, 35.9151, 48.1278, -14.08, 97.4483, -51.5278, 44.0335
2.143, 4, 35.9151, 48.1278, -14.08, 97.4483, -51.5278, 44.0335
2.148, 4, 35.9151, 48.1278, -14.08, 97.4483, -51.5278, 44.0335
2.152, 4, 35.9151, 48.1278, -14.08, 97.4483, -51.5278, 44.0335
2.156, 4, 35.9151, 48.1278, -14.08, 97.4483, -51.5278, 44.0335
2.16, 4, 35.9151, 48.1278, -14.08, 97.4483, -51.5278, 44.0335
2.163, 4, 35.9151, 48.1278, -14.08, 97.4483, -51.5279, 44.0335
2.168, 4, 35.9149, 48.1279, -14.08, 97.4483, -51.5279, 44.0335
2.172, 4, 35.9146, 48.1283, -14.0799, 97.4483, -51.528, 44.0335
2.176, 4, 35.9139, 48.1289, -14.0797, 97.4482, -51.5284, 44.0333
2.179, 4, 35.9129, 48.13, -14.0794, 97.4481, -51.5293, 44.0329
2.184, 4, 35.9114, 48.1316, -14.0787, 97.4478, -51.5311, 44.0322
2.188, 4, 35.9096, 48.1338, -14.0776, 97.4472, -51.5345, 44.0307
2.192, 4, 35.9073, 48.1364, -14.0758, 97.4463, -51.5404, 44.0282
2.196, 4, 35.9048, 48.1394, -14.0733, 97.4448, -51.5496, 44.0243
2.199, 4, 35.9022, 48.1427, -14.0697, 97.4426, -51.5633, 44.0184
2.204, 5, 35.8994, 48.1461, -14.0648, 97.4394, -51.5826, 44.01
2.208, 5, 35.8966, 48.1497, -14.0584, 97.4351, -51.6087, 43.9988
2.212, 5, 35.8938, 48.1533, -14.0503, 97.4294, -51.6424, 43.9842
2.216, 5, 35.8909, 48.1569, -14.0403, 97.4224, -51.6846, 43.966
2.219, 5, 35.888, 48.1605, -14.0282, 97.4137, -51.736, 43.9438
2.224, 5, 35.885, 48.164, -14.0141, 97.4034, -51.797, 43.9175
2.228, 5, 35.882, 48.1675, -13.9978, 97.3914, -51.8676, 43.887
2.232, 5, 35.879, 48.1709, -13.9795, 97.3777, -51.948, 43.8523
2.235, 5, 35.876, 48.1742, -13.9591, 97.3623, -52.0376, 43.8138
2.24, 5, 35.873, 48.1776, -13.9368, 97.3454, -52.1358, 43.7715
2.244, 5, 35.8699, 48.181, -13.9128, 97.327, -52.2419, 43.726
2.248, 5, 35.8665, 48.1847, -13.8873, 97.3074, -52.3547, 43.6777
2.252, 5, 35.863, 48.1888, -13.8605, 97.2866, -52.4732, 43.627
2.255, 5, 35.859, 48.1935, -13.8326, 97.2649, -52.5965, 43.5745
2.259, 5, 35.8547, 48.1987, -13.8038, 97.2424, -52.7234, 43.5205
2.264, 5, 35.8501, 48.2045, -13.7744, 97.2192, -52.8533, 43.4654
2.268, 5, 35.845, 48.2109, -13.7444, 97.1955, -52.9853, 43.4095
2.272, 5, 35.8397, 48.2178, -13.714, 97.1714, -53.119, 43.3531
2.275, 5, 35.8341, 48.2251, -13.6834, 97.1468, -53.2539, 43.2964
2.28, 5, 35.8283, 48.2327, -13.6526, 97.1219, -53.3896, 43.2394
2.284, 5, 35.8222, 48.2408, -13.6217, 97.0967, -53.5259, 43.1824
2.288, 5, 35.816, 48.2491, -13.5908, 97.0713, -53.6626, 43.1254
2.291, 5, 35.8096, 48.2578, -13.5598, 97.0456, -53.7996, 43.0684
2.296, 5, 35.803, 48.2667, -13.5288, 97.0197, -53.9367, 43.0115
2.3, 5, 35.7963, 48.2758, -13.4978, 96.9937, -54.0739, 42.9548
2.304, 5, 35.7896, 48.2852, -13.4668, 96.9674, -54.2112, 42.8982
2.308, 5, 35.7827, 48.2947, -13.4359, 96.9409, -54.3485, 42.8418
2.311, 5, 35.7757, 48.3045, -13.405, 96.9142, -54.4857, 42.7855
2.316, 5, 35.7687, 48.3144, -13.3742, 96.8874, -54.623, 42.7294
2.32, 5, 35.7616, 48.3246, -13.3434, 96.8604, -54.7602, 42.6735
2.324, 5, 35.7544, 48.3349, -13.3127, 96.8332, -54.8974, 42.6177
2.328, 5, 35.7471, 48.3454, -13.2821, 96.8058, -55.0345, 42.5621
2.331, 5, 35.7397, 48.356, -13.2514, 96.7783, -55.1716, 42.5067
2.336, 5, 35.7323, 48.3669, -13.2209, 96.7506, -55.3087, 42.4515
2.34, 5, 35.7248, 48.3779, -13.1904, 96.7227, -55.4457, 42.3964
2.344, 5, 35.7172, 48.3891, -13.1599, 96.6946, -55.5826, 42.3416
2.347, 5, 35.7095, 48.4005, -13.1295, 96.6664, -55.7195, 42.2869
2.352, 5, 35.7017, 48.4121, -13.0991, 96.638, -55.8564, 42.2323
2.356, 5, 35.6939, 48.4238, -13.0688, 96.6095, -55.9932, 42.178
2.36, 5, 35.686, 48.4358, -13.0386, 96.5807, -56.1299, 42.1238
2.364, 5, 35.678, 48.4479, -13.0084, 96.5519, -56.2666, 42.0698
2.367, 5, 35.6699, 48.4601, -12.9782, 96.5228, -56.4032, 42.0159
2.372, 5, 35.6618, 48.4726, -12.9481, 96.4936, -56.5398, 41.9622
2.376, 5, 35.6535, 48.4852, -12.9181, 96.4643, -56.6763, 41.9087
2.38, 5, 35.6452, 48.498, -12.8881, 96.4348, -56.8128, 41.8553
2.383, 5, 35.6368, 48.511, -12.8581, 96.4051, -56.9493, 41.8022
2.388, 5, 35.6284, 48.5241, -12.8282, 96.3753, -57.0856, 41.7491
2.392, 5, 35.6198, 48.5374, -12.7984, 96.3453, -57.222, 41.6963
2.396, 5, 35.6112, 48.5509, -12.7686, 96.3151, -57.3582, 41.6436
2.4, 5, 35.6025, 48.5645, -12.7388, 96.2848, -57.4945, 41.591
2.403, 5, 35.5937, 48.5784, -12.7091, 96.2544, -57.6306, 41.5387
2.408, 5, 35.5848, 48.5924, -12.6795, 96.2238, -57.7668, 41.4864
2.412, 5, 35.5758, 48.6065, -12.6499, 96.193, -57.9028, 41.4344
2.416, 5, 35.5668, 48.6209, -12.6203, 96.1621, -58.0389, 41.3825
2.42, 5, 35.5576, 48.6354, -12.5908, 96.1311, -58.1748, 41.3307
2.423, 5, 35.5484, 48.6501, -12.5613, 96.0999, -58.3107, 41.2791
2.428, 5, 35.5391, 48.6649, -12.5319, 96.0685, -58.4466, 41.2277
2.432, 5, 35.5297, 48.6799, -12.5025, 96.037, -58.5824, 41.1764
2.436, 5, 35.5203, 48.6951, -12.4732, 96.0054, -58.7182, 41.1253
2.439, 5, 35.5107, 48.7105, -12.4439, 95.9736, -58.8539, 41.0743
2.444, 5, 35.5011, 48.726, -12.4147, 95.9417, -58.9896, 41.0235
2.448, 5, 35.4914, 48.7417, -12.3855, 95.9096, -59.1252, 40.9728
2.452, 5, 35.4816, 48.7576, -12.3564, 95.8774, -59.2607, 40.9223
2.456, 5, 35.4717, 48.7736, -12.3273, 95.845, -59.3962, 40.8719
2.459, 5, 35.4617, 48.7898, -12.2982, 95.8125, -59.5317, 40.8217
2.464, 5, 35.4516, 48.8061, -12.2692, 95.7799, -59.6671, 40.7716
2.468, 5, 35.4415, 48.8227, -12.2403, 95.7471, -59.8024, 40.7216
2.472, 5, 35.4312, 48.8393, -12.2114, 95.7142, -59.9377, 40.6719
2.476, 5, 35.4209, 48.8562, -12.1825, 95.6811, -60.073, 40.6222
2.479, 5, 35.4105, 48.8732, -12.1537, 95.6479, -60.2082, 40.5727
2.484, 5, 35.4, 48.8904, -12.1249, 95.6146, -60.3433, 40.5233
2.488, 5, 35.3894, 48.9078, -12.0961, 95.5812, -60.4784, 40.4741
2.492, 5, 35.3787, 48.9253, -12.0674, 95.5476, -60.6135, 40.425
2.495, 5, 35.368, 48.943, -12.0388, 95.5138, -60.7485, 40.3761
2.5, 5, 35.3571, 48.9608, -12.0102, 95.48, -60.8834, 40.3273
2.504, 5, 35.3462, 48.9788, -11.9816, 95.446, -61.0183, 40.2786
2.508, 5, 35.3352, 48.997, -11.9531, 95.4119, -61.1532, 40.2301
2.512, 5, 35.3241, 49.0153, -11.9246, 95.3776, -61.288, 40.1817
2.515, 5, 35.3129, 49.0338, -11.8961, 95.3432, -61.4227, 40.1334
2.52, 5, 35.3016, 49.0525, -11.8677, 95.3087, -61.5574, 40.0853
2.524, 5, 35.2902, 49.0713, -11.8394, 95.2741, -61.692, 40.0373
2.528, 5, 35.2787, 49.0902, -11.811, 95.2393, -61.8266, 39.9894
2.531, 5, 35.2671, 49.1094, -11.7827, 95.2045, -61.9611, 39.9417
2.536, 5, 35.2555, 49.1287, -11.7545, 95.1694, -62.0956, 39.8941
2.54, 5, 35.2437, 49.1482, -11.7263, 95.1343, -62.2301, 39.8467
2.544, 5, 35.2319, 49.1678, -11.6981, 95.0991, -62.3645, 39.7993
2.548, 5, 35.2199, 49.1876, -11.67, 95.0637, -62.4988, 39.7521
2.551, 5, 35.2079, 49.2075, -11.6419, 95.0282, -62.6331, 39.7051
2.556, 5, 35.1958, 49.2276, -11.6139, 94.9926, -62.7673, 39.6581
2.56, 5, 35.1836, 49.2479, -11.5859, 94.9568, -62.9015, 39.6113
2.564, 5, 35.1713, 49.2683, -11.5579, 94.921, -63.0356, 39.5646
2.568, 5, 35.1589, 49.2889, -11.53, 94.885, -63.1697, 39.518
2.571, 5, 35.1464, 49.3096, -11.5021, 94.8489, -63.3037, 39.4716
2.576, 5, 35.1338, 49.3305, -11.4742, 94.8127, -63.4377, 39.4252
2.58, 5, 35.1211, 49.3516, -11.4464, 94.7764, -63.5716, 39.3791
2.584, 5, 35.1084, 49.3728, -11.4186, 94.7399, -63.7055, 39.333
2.587, 5, 35.0956, 49.3941, -11.3909, 94.7034, -63.8393, 39.287
2.592, 5, 35.0826, 49.4156, -11.3632, 94.6667, -63.973, 39.2412
2.596, 5, 35.0696, 49.4372, -11.3356, 94.6299, -64.1067, 39.1955
2.6, 5, 35.0566, 49.459, -11.3079, 94.5931, -64.2403, 39.1499
2.604, 5, 35.0434, 49.481, -11.2804, 94.5561, -64.3738, 39.1045
2.607, 6, 35.0301, 49.5031, -11.2529, 94.519, -64.5072, 39.0592
2.612, 6, 35.0167, 49.5253, -11.2254, 94.4819, -64.6405, 39.014
2.616, 6, 35.0031, 49.5478, -11.198, 94.4446, -64.7736, 38.969
2.62, 6, 34.9895, 49.5704, -11.1706, 94.4073, -64.9067, 38.9241
2.624, 6, 34.9758, 49.5931, -11.1432, 94.3698, -65.0397, 38.8793
2.627, 6, 34.9619, 49.6161, -11.116, 94.3323, -65.1725, 38.8347
2.632, 6, 34.948, 49.6391, -11.0887, 94.2947, -65.3053, 38.7902
2.636, 6, 34.934, 49.6624, -11.0615, 94.2569, -65.4381, 38.7458
2.64, 6, 34.9198, 49.6858, -11.0343, 94.2191, -65.5707, 38.7015
2.643, 6, 34.9056, 49.7093, -11.0072, 94.1811, -65.7034, 38.6573
2.648, 6, 34.8912, 49.733, -10.9801, 94.1431, -65.836, 38.6132
2.652, 6, 34.8768, 49.7569, -10.953, 94.1049, -65.9686, 38.5693
2.656, 6, 34.8623, 49.7808, -10.9259, 94.0666, -66.1011, 38.5254
2.66, 6, 34.8477, 49.805, -10.8989, 94.0282, -66.2337, 38.4816
2.663, 6, 34.833, 49.8292, -10.8719, 93.9897, -66.3663, 38.4379
2.668, 6, 34.8183, 49.8537, -10.8449, 93.9511, -66.499, 38.3943
2.672, 6, 34.8034, 49.8782, -10.818, 93.9123, -66.6316, 38.3508
2.676, 6, 34.7884, 49.9029, -10.791, 93.8734, -66.7642, 38.3073
2.679, 6, 34.7734, 49.9278, -10.7641, 93.8345, -66.8968, 38.264
2.684, 6, 34.7582, 49.9529, -10.7373, 93.7954, -67.0293, 38.2208
2.688, 6, 34.7429, 49.9781, -10.7104, 93.7562, -67.1619, 38.1776
2.692, 6, 34.7275, 50.0034, -10.6836, 93.7169, -67.2944, 38.1346
2.696, 6, 34.712, 50.0289, -10.6568, 93.6775, -67.4268, 38.0916
2.699, 6, 34.6964, 50.0546, -10.6301, 93.638, -67.5593, 38.0488
2.704, 6, 34.6807, 50.0804, -10.6034, 93.5984, -67.6917, 38.0061
2.708, 6, 34.6649, 50.1064, -10.5767, 93.5587, -67.824, 37.9634
2.712, 6, 34.6489, 50.1326, -10.5501, 93.5189, -67.9563, 37.9209
2.716, 6, 34.6329, 50.1588, -10.5235, 93.479, -68.0886, 37.8784
2.719, 6, 34.6168, 50.1853, -10.4969, 93.4391, -68.2208, 37.8361
2.724, 6, 34.6005, 50.2119, -10.4704, 93.399, -68.3529, 37.7939
2.728, 6, 34.5842, 50.2386, -10.4439, 93.3588, -68.485, 37.7517
2.732, 6, 34.5678, 50.2655, -10.4174, 93.3186, -68.6171, 37.7097
2.735, 6, 34.5512, 50.2925, -10.391, 93.2782, -68.7491, 37.6677
2.74, 6, 34.5346, 50.3197, -10.3646, 93.2377, -68.8811, 37.6259
2.744, 6, 34.5178, 50.347, -10.3382, 93.1972, -69.0131, 37.5841
2.748, 6, 34.5009, 50.3745, -10.3119, 93.1566, -69.1449, 37.5425
2.752, 6, 34.484, 50.4021, -10.2856, 93.1158, -69.2768, 37.5009
2.755, 6, 34.4669, 50.4299, -10.2594, 93.075, -69.4086, 37.4595
2.76, 6, 34.4497, 50.4578, -10.2332, 93.0341, -69.5404, 37.4181
2.764, 6, 34.4325, 50.4859, -10.207, 92.9931, -69.6721, 37.3768
2.768, 6, 34.4151, 50.5141, -10.1809, 92.952, -69.8037, 37.3356
2.772, 6, 34.3976, 50.5424, -10.1548, 92.9108, -69.9354, 37.2945
2.775, 6, 34.38, 50.5709, -10.1287, 92.8695, -70.067, 37.2535
2.78, 6, 34.3623, 50.5996, -10.1027, 92.8282, -70.1985, 37.2126
2.784, 6, 34.3445, 50.6284, -10.0767, 92.7867, -70.33, 37.1718
2.788, 6, 34.3266, 50.6573, -10.0507, 92.7452, -70.4615, 37.1311
2.791, 6, 34.3085, 50.6864, -10.0248, 92.7036, -70.5929, 37.0904
2.796, 6, 34.2904, 50.7156, -9.99893, 92.6618, -70.7242, 37.0499
2.8, 6, 34.2722, 50.745, -9.97308, 92.62, -70.8556, 37.0094
2.804, 6, 34.2538, 50.7745, -9.94727, 92.5782, -70.9869, 36.969
2.808, 6, 34.2354, 50.8042, -9.9215, 92.5362, -71.1181, 36.9287
2.811, 6, 34.2168, 50.834, -9.89576, 92.4941, -71.2493, 36.8885
2.816, 6, 34.1981, 50.8639, -9.87006, 92.452, -71.3805, 36.8484
2.82, 6, 34.1794, 50.894, -9.8444, 92.4097, -71.5116, 36.8084
2.824, 6, 34.1605, 50.9243, -9.81877, 92.3674, -71.6427, 36.7684
2.828, 6, 34.1415, 50.9546, -9.79318, 92.325, -71.7737, 36.7286
2.831, 6, 34.1224, 50.9851, -9.76763, 92.2825, -71.9047, 36.6888
2.836, 6, 34.1032, 51.0158, -9.74211, 92.24, -72.0357, 36.6491
2.84, 6, 34.0838, 51.0466, -9.71663, 92.1973, -72.1666, 36.6095
2.844, 6, 34.0644, 51.0776, -9.69119, 92.1546, -72.2975, 36.57
2.847, 6, 34.0449, 51.1086, -9.66579, 92.1118, -72.4283, 36.5305
2.852, 6, 34.0252, 51.1399, -9.64042, 92.0689, -72.5591, 36.4911
2.856, 6, 34.0054, 51.1712, -9.61509, 92.0259, -72.6898, 36.4519
2.86, 6, 33.9856, 51.2028, -9.58979, 91.9829, -72.8206, 36.4126
2.864, 6, 33.9656, 51.2344, -9.56454, 91.9398, -72.9512, 36.3735
2.867, 6, 33.9455, 51.2662, -9.53932, 91.8965, -73.0819, 36.3345
2.872, 6, 33.9253, 51.2981, -9.51413, 91.8533, -73.2125, 36.2955
2.876, 6, 33.9049, 51.3302, -9.48899, 91.8099, -73.343, 36.2566
2.88, 6, 33.8845, 51.3624, -9.46388, 91.7664, -73.4736, 36.2178
2.883, 6, 33.864, 51.3948, -9.43881, 91.7229, -73.604, 36.179
2.888, 6, 33.8433, 51.4273, -9.41378, 91.6793, -73.7345, 36.1404
2.892, 6, 33.8225, 51.4599, -9.38879, 91.6356, -73.8649, 36.1018
2.896, 6, 33.8016, 51.4927, -9.36383, 91.5919, -73.9953, 36.0633
2.9, 6, 33.7806, 51.5256, -9.33891, 91.548, -74.1256, 36.0248
2.903, 6, 33.7595, 51.5587, -9.31403, 91.5041, -74.2559, 35.9865
2.908, 6, 33.7383, 51.5918, -9.28919, 91.4601, -74.3861, 35.9482
2.912, 6, 33.7169, 51.6252, -9.26439, 91.4161, -74.5163, 35.9099
2.916, 6, 33.6955, 51.6586, -9.23962, 91.3719, -74.6465, 35.8718
2.92, 6, 33.6739, 51.6923, -9.2149, 91.3277, -74.7767, 35.8337
2.923, 6, 33.6522, 51.726, -9.19021, 91.2834, -74.9068, 35.7957
2.928, 6, 33.6304, 51.7599, -9.16556, 91.2391, -75.0369, 35.7578
2.932, 6, 33.6085, 51.7939, -9.14095, 91.1946, -75.1669, 35.7199
2.936, 6, 33.5865, 51.8281, -9.11638, 91.1501, -75.2969, 35.6821
2.939, 6, 33.5643, 51.8624, -9.09186, 91.1056, -75.4269, 35.6444
2.944, 6, 33.5421, 51.8968, -9.06736, 91.0609, -75.5568, 35.6067
2.948, 6, 33.5197, 51.9314, -9.04292, 91.0162, -75.6867, 35.5691
2.952, 6, 33.4972, 51.9661, -9.01851, 90.9714, -75.8165, 35.5316
2.956, 6, 33.4746, 52.0009, -8.99414, 90.9265, -75.9464, 35.4942
2.959, 6, 33.4518, 52.0359, -8.96981, 90.8815, -76.0762, 35.4568
2.964, 6, 33.429, 52.071, -8.94552, 90.8365, -76.2059, 35.4194
2.968, 6, 33.406, 52.1063, -8.92128, 90.7914, -76.3356, 35.3822
2.972, 6, 33.383, 52.1416, -8.89707, 90.7463, -76.4653, 35.345
2.976, 6, 33.3601, 52.1769, -8.8729, 90.701, -76.595, 35.3079
2.98, 6, 33.3375, 52.212, -8.84877, 90.6557, -76.7245, 35.2708
2.984, 6, 33.3155, 52.2467, -8.82468, 90.6104, -76.854, 35.2339
2.988, 6, 33.2941, 52.2805, -8.80064, 90.5651, -76.9831, 35.1971
2.992, 6, 33.2735, 52.3134, -8.7767, 90.5199, -77.1117, 35.1604
2.995, 6, 33.2538, 52.345, -8.7529, 90.475, -77.2395, 35.1241
3, 6, 33.2349, 52.3754, -8.72933, 90.4304, -77.366, 35.0882
3.004, 6, 33.2166, 52.4045, -8.7061, 90.3864, -77.4906, 35.0529
3.008, 6, 33.1989, 52.4325, -8.68333, 90.3432, -77.6126, 35.0183
3.012, 6, 33.1817, 52.4596, -8.66119, 90.3012, -77.7314, 34.9847
3.015, 6, 33.165, 52.4858, -8.6398, 90.2605, -77.8461, 34.9523
3.02, 6, 33.1488, 52.5111, -8.61934, 90.2215, -77.956, 34.9213
3.024, 6, 33.1332, 52.5355, -8.59994, 90.1845, -78.0603, 34.8919
3.028, 6, 33.1182, 52.5588, -8.58174, 90.1496, -78.1582, 34.8643
3.031, 6, 33.1039, 52.5811, -8.56486, 90.1172, -78.2493, 34.8386
3.036, 6, 33.0902, 52.6022, -8.54939, 90.0873, -78.3329, 34.8151
3.04, 6, 33.077, 52.6223, -8.53542, 90.0603, -78.4088, 34.7938
3.044, 6, 33.0644, 52.6415, -8.52299, 90.036, -78.4767, 34.7747
3.048, 6, 33.0523, 52.6599, -8.51209, 90.0147, -78.5365, 34.7579
3.051, 6, 33.0406, 52.6772, -8.5027, 89.9961, -78.5885, 34.7433
3.056, 6, 33.0296, 52.6935, -8.49474, 89.9801, -78.6331, 34.7307
3.06, 6, 33.0193, 52.7086, -8.48808, 89.9667, -78.6707, 34.7202
3.064, 6, 33.0099, 52.7224, -8.48262, 89.9555, -78.7019, 34.7114
3.068, 6, 33.0014, 52.7349, -8.4782, 89.9463, -78.7274, 34.7043
3.071, 6, 32.9938, 52.7461, -8.4747, 89.9389, -78.748, 34.6985
3.076, 6, 32.9871, 52.7562, -8.47198, 89.9331, -78.7642, 34.694
3.08, 6, 32.981, 52.7652, -8.46991, 89.9286, -78.7767, 34.6904
3.084, 6, 32.9756, 52.7731, -8.46839, 89.9252, -78.7862, 34.6878
3.087, 6, 32.9707, 52.7799, -8.46731, 89.9227, -78.7932, 34.6858
3.092, 6, 32.9665, 52.7856, -8.46655, 89.9209, -78.7982, 34.6844
3.096, 7, 32.963, 52.7902, -8.46604, 89.9196, -78.8018, 34.6834
3.1, 7, 32.9601, 52.7937, -8.4657, 89.9187, -78.8043, 34.6827
3.104, 7, 32.9579, 52.7963, -8.46548, 89.9181, -78.806, 34.6822
3.107, 7, 32.9563, 52.7981, -8.46533, 89.9177, -78.8071, 34.6819
3.112, 7, 32.9552, 52.7993, -8.46523, 89.9174, -78.8079, 34.6817
3.116, 7, 32.9544, 52.8002, -8.46516, 89.9172, -78.8084, 34.6815
3.12, 7, 32.9539, 52.8008, -8.46512, 89.9171, -78.8088, 34.6814
3.124, 7, 32.9536, 52.8011, -8.46509, 89.917, -78.809, 34.6814
3.128, 7, 32.9533, 52.8014, -8.46506, 89.917, -78.8092, 34.6813
3.132, 7, 32.9532, 52.8016, -8.46505, 89.9169, -78.8093, 34.6813
3.136, 7, 32.9531, 52.8017, -8.46504, 89.9169, -78.8094, 34.6813
3.14, 7, 32.953, 52.8018, -8.46503, 89.9169, -78.8094, 34.6812
3.143, 7, 32.9529, 52.8018, -8.46503, 89.9169, -78.8095, 34.6812
3.148, 7, 32.9529, 52.8019, -8.46502, 89.9169, -78.8095, 34.6812
3.152, 7, 32.9529, 52.8019, -8.46502, 89.9168, -78.8095, 34.6812
3.156, 7, 32.9529, 52.8019, -8.46502, 89.9168, -78.8095, 34.6812
3.16, 7, 32.9529, 52.8019, -8.46502, 89.9168, -78.8095, 34.6812
3.163, 7, 32.9529, 52.8019, -8.46502, 89.9168, -78.8095, 34.6812
3.168, 7, 32.9528, 52.8019, -8.46502, 89.9168, -78.8095, 34.6812
3.172, 7, 32.9528, 52.8019, -8.46502, 89.9168, -78.8095, 34.6812
3.176, 7, 32.9528, 52.8019, -8.46502, 89.9168, -78.8095, 34.6812
3.179, 7, 32.9528, 52.8019, -8.46502, 89.9168, -78.8096, 34.6812
3.184, 7, 32.9528, 52.8019, -8.46502, 89.9168, -78.8096, 34.6812
3.188, 7, 32.9528, 52.8019, -8.46502, 89.9168, -78.8096, 34.6812
3.192, 7, 32.9528, 52.8019, -8.46502, 89.9168, -78.8096, 34.6812
3.196, 7, 32.9528, 52.8019, -8.46502, 89.9168, -78.8096, 34.6812
3.199, 7, 32.9528, 52.8019, -8.46502, 89.9168, -78.8096, 34.6812
3.204, 7, 32.9528, 52.8019, -8.46502, 89.9168, -78.8096, 34.6812
3.208, 7, 32.9528, 52.8019, -8.46502, 89.9168, -78.8096, 34.6812
3.212, 7, 32.9528, 52.8019, -8.46502, 89.9168, -78.8096, 34.6812
