hehonglu123/ABB_Primitive_Study/execution/movel_smooth/curve_exe_v500_z10.csv
timestamp, cmd_num, J1, J2, J3, J4, J5, J6
0, -1, -17.7491, 35.9016, 27.5363, -15.3564, -94.4966, 7.85923
0.002, -1, -17.7491, 35.9016, 27.5363, -15.3564, -94.4966, 7.85923
0.006, -1, -17.7491, 35.9016, 27.5363, -15.3564, -94.4966, 7.85923
0.008, -1, -17.7491, 35.9016, 27.5363, -15.3564, -94.4966, 7.85923
0.011, -1, -17.7491, 35.9016, 27.5363, -15.3564, -94.4966, 7.85923
0.016, -1, -17.7491, 35.9016, 27.5363, -15.3564, -94.4966, 7.85923
0.02, -1, -17.7491, 35.9016, 27.5363, -15.3564, -94.4966, 7.85923
0.024, -1, -17.7491, 35.9016, 27.5363, -15.3564, -94.4966, 7.85923
0.028, -1, -17.7491, 35.9016, 27.5363, -15.3564, -94.4966, 7.85923
0.032, -1, -17.7491, 35.9016, 27.5363, -15.3564, -94.4966, 7.85923
0.036, -1, -17.749, 35.9016, 27.5363, -15.3564, -94.4966, 7.85923
0.04, -1, -17.7488, 35.9015, 27.5363, -15.3564, -94.4966, 7.85922
0.044, -1, -17.7482, 35.9013, 27.5363, -15.3564, -94.4966, 7.85921
0.048, -1, -17.7471, 35.9008, 27.5364, -15.3563, -94.4965, 7.85915
0.052, -1, -17.7453, 35.9, 27.5365, -15.3562, -94.4963, 7.85903
0.056, -1, -17.7428, 35.8988, 27.5367, -15.3558, -94.4958, 7.85875
0.06, -1, -17.7394, 35.8971, 27.5369, -15.3551, -94.4949, 7.85824
0.064, -1, -17.7351, 35.8948, 27.5372, -15.3539, -94.4934, 7.85735
0.068, -1, -17.7298, 35.892, 27.5374, -15.3519, -94.491, 7.85592
0.072, -1, -17.7233, 35.8884, 27.5377, -15.3489, -94.4872, 7.85373
0.076, -1, -17.7153, 35.884, 27.5379, -15.3445, -94.4817, 7.85055
0.08, -1, -17.7057, 35.8785, 27.5381, -15.3382, -94.474, 7.84608
0.084, -1, -17.6941, 35.8719, 27.5381, -15.3297, -94.4634, 7.83999
0.088, -1, -17.6802, 35.864, 27.538, -15.3184, -94.4494, 7.83193
0.092, -1, -17.6638, 35.8547, 27.5377, -15.3037, -94.4314, 7.82151
0.096, -1, -17.6449, 35.8439, 27.537, -15.2851, -94.4084, 7.80831
0.1, -1, -17.6232, 35.8316, 27.5359, -15.262, -94.3799, 7.79193
0.104, -1, -17.5984, 35.8175, 27.5344, -15.2337, -94.3452, 7.77197
0.108, -1, -17.5704, 35.8016, 27.5323, -15.1999, -94.3035, 7.74804
0.112, -1, -17.5389, 35.7838, 27.5296, -15.1599, -94.2544, 7.71981
0.116, -1, -17.504, 35.764, 27.5263, -15.1134, -94.1971, 7.68696
0.12, -1, -17.4656, 35.7423, 27.5223, -15.0599, -94.1314, 7.64925
0.124, -1, -17.4237, 35.7186, 27.5174, -14.9992, -94.0569, 7.60649
0.128, -1, -17.3785, 35.6931, 27.5118, -14.9313, -93.9734, 7.5586
0.131, -1, -17.3299, 35.6657, 27.5054, -14.856, -93.8809, 7.50556
0.136, -1, -17.2779, 35.6365, 27.4982, -14.7734, -93.7795, 7.44747
0.139, -1, -17.2225, 35.6054, 27.4903, -14.684, -93.6697, 7.38449
0.144, -1, -17.1638, 35.5724, 27.4817, -14.588, -93.5517, 7.3169
0.148, -1, -17.1017, 35.5375, 27.4724, -14.4858, -93.4263, 7.245
0.152, -1, -17.0365, 35.5009, 27.4626, -14.378, -93.2939, 7.16916
0.156, -1, -16.9683, 35.4626, 27.4524, -14.2653, -93.1554, 7.08978
0.16, -1, -16.8974, 35.4228, 27.4417, -14.1481, -93.0115, 7.0073
0.164, -1, -16.8239, 35.3815, 27.4308, -14.027, -92.8629, 6.92213
0.168, -1, -16.7481, 35.3389, 27.4196, -13.9028, -92.7103, 6.8347
0.172, -1, -16.6699, 35.2949, 27.4082, -13.776, -92.5546, 6.74543
0.176, -1, -16.5897, 35.2497, 27.3968, -13.6471, -92.3962, 6.65467
0.18, -1, -16.5077, 35.2034, 27.3854, -13.5166, -92.2358, 6.56273
0.184, -1, -16.424, 35.1561, 27.3739, -13.3847, -92.0739, 6.46989
0.188, -1, -16.3388, 35.1081, 27.3625, -13.2519, -91.9107, 6.37635
0.192, -1, -16.2526, 35.0593, 27.3511, -13.1184, -91.7466, 6.28227
0.196, -1, -16.1654, 35.0101, 27.3397, -12.9842, -91.5818, 6.18779
0.2, -1, -16.0774, 34.9604, 27.3284, -12.8497, -91.4165, 6.09298
0.204, -1, -15.9889, 34.9105, 27.317, -12.7147, -91.2507, 5.99793
0.208, -1, -15.8998, 34.8603, 27.3056, -12.5795, -91.0846, 5.90267
0.212, -1, -15.8104, 34.8099, 27.2943, -12.4441, -90.9181, 5.80723
0.216, -1, -15.7206, 34.7594, 27.2829, -12.3084, -90.7514, 5.71165
0.22, -1, -15.6306, 34.7087, 27.2715, -12.1726, -90.5845, 5.61595
0.224, -1, -15.5405, 34.658, 27.2601, -12.0366, -90.4174, 5.52012
0.228, -1, -15.4502, 34.6071, 27.2487, -11.9004, -90.2501, 5.42418
0.232, -1, -15.3598, 34.5563, 27.2373, -11.7641, -90.0826, 5.32814
0.236, -1, -15.2692, 34.5053, 27.2259, -11.6277, -89.9149, 5.23201
0.24, -1, -15.1786, 34.4543, 27.2145, -11.4911, -89.7471, 5.13578
0.244, -1, -15.0879, 34.4033, 27.2031, -11.3544, -89.5792, 5.03946
0.248, -1, -14.997, 34.3521, 27.1916, -11.2176, -89.411, 4.94306
0.252, -1, -14.9061, 34.301, 27.1802, -11.0806, -89.2428, 4.84657
0.256, -1, -14.8152, 34.2498, 27.1687, -10.9436, -89.0744, 4.75
0.26, -1, -14.7241, 34.1986, 27.1573, -10.8064, -88.9058, 4.65336
0.264, -1, -14.633, 34.1473, 27.1458, -10.6691, -88.7371, 4.55664
0.268, -1, -14.5418, 34.096, 27.1343, -10.5318, -88.5683, 4.45985
0.272, -1, -14.4505, 34.0446, 27.1228, -10.3943, -88.3994, 4.36298
0.276, -1, -14.3592, 33.9932, 27.1113, -10.2567, -88.2304, 4.26605
0.28, -1, -14.2678, 33.9418, 27.0998, -10.119, -88.0612, 4.16905
0.284, -1, -14.1763, 33.8904, 27.0883, -9.98128, -87.8919, 4.07199
0.288, -1, -14.0848, 33.8389, 27.0768, -9.84344, -87.7226, 3.97487
0.292, -1, -13.9933, 33.7873, 27.0652, -9.70552, -87.5531, 3.8777
0.296, -1, -13.9017, 33.7358, 27.0537, -9.56751, -87.3835, 3.78046
0.3, -1, -13.81, 33.6842, 27.0422, -9.42944, -87.2139, 3.68317
0.304, -1, -13.7183, 33.6326, 27.0306, -9.29129, -87.0441, 3.58584
0.308, -1, -13.6265, 33.581, 27.0191, -9.15307, -86.8743, 3.48845
0.312, -1, -13.5347, 33.5293, 27.0075, -9.01478, -86.7043, 3.39102
0.316, -1, -13.4429, 33.4776, 26.9959, -8.87644, -86.5343, 3.29354
0.32, -1, -13.351, 33.4259, 26.9844, -8.73803, -86.3643, 3.19602
0.324, -1, -13.2591, 33.3742, 26.9728, -8.59957, -86.1941, 3.09847
0.328, -1, -13.1672, 33.3225, 26.9612, -8.46107, -86.0239, 3.00088
0.332, -1, -13.0752, 33.2707, 26.9496, -8.32251, -85.8537, 2.90325
0.336, -1, -12.9832, 33.219, 26.938, -8.18391, -85.6834, 2.8056
0.34, -1, -12.8912, 33.1672, 26.9264, -8.04527, -85.513, 2.70792
0.344, -1, -12.7991, 33.1154, 26.9148, -7.9066, -85.3426, 2.61021
0.348, -1, -12.7071, 33.0636, 26.9032, -7.7679, -85.1722, 2.51248
0.352, -1, -12.615, 33.0118, 26.8916, -7.62917, -85.0017, 2.41474
0.356, -1, -12.5229, 32.9599, 26.88, -7.49042, -84.8312, 2.31698
0.36, -1, -12.4308, 32.9081, 26.8684, -7.35165, -84.6607, 2.2192
0.364, -1, -12.3387, 32.8563, 26.8568, -7.21286, -84.4902, 2.12142
0.368, -1, -12.2466, 32.8044, 26.8452, -7.07407, -84.3197, 2.02362
0.372, -1, -12.1545, 32.7526, 26.8336, -6.93527, -84.1491, 1.92583
0.376, -1, -12.0623, 32.7007, 26.822, -6.79647, -83.9786, 1.82803
0.38, -1, -11.9702, 32.6489, 26.8104, -6.65767, -83.808, 1.73024
0.384, -1, -11.8781, 32.5971, 26.7988, -6.51889, -83.6375, 1.63245
0.388, -1, -11.786, 32.5452, 26.7872, -6.38011, -83.4669, 1.53467
0.392, -1, -11.6939, 32.4934, 26.7756, -6.24135, -83.2964, 1.4369
0.396, -1, -11.6018, 32.4416, 26.764, -6.10261, -83.126, 1.33915
0.4, -1, -11.5097, 32.3898, 26.7524, -5.96389, -82.9555, 1.24141
0.404, -1, -11.4177, 32.338, 26.7408, -5.8252, -82.7851, 1.14369
0.408, -1, -11.3256, 32.2862, 26.7292, -5.68655, -82.6147, 1.046
0.412, -1, -11.2336, 32.2344, 26.7176, -5.54793, -82.4444, 0.948334
0.416, -1, -11.1416, 32.1826, 26.706, -5.40936, -82.2741, 0.850697
0.42, -1, -11.0497, 32.1309, 26.6945, -5.27083, -82.1039, 0.753093
0.424, -1, -10.9577, 32.0792, 26.6829, -5.13235, -81.9337, 0.655523
0.428, -1, -10.8658, 32.0275, 26.6713, -4.99393, -81.7636, 0.557993
0.432, -1, -10.774, 31.9758, 26.6597, -4.85556, -81.5936, 0.460503
0.436, -1, -10.6822, 31.9241, 26.6482, -4.71726, -81.4237, 0.363058
0.44, -1, -10.5904, 31.8725, 26.6366, -4.57903, -81.2538, 0.26566
0.444, -1, -10.4986, 31.8209, 26.625, -4.44086, -81.0841, 0.168312
0.448, -1, -10.4069, 31.7693, 26.6135, -4.30277, -80.9144, 0.0710176
0.452, -1, -10.3153, 31.7178, 26.602, -4.16477, -80.7448, -0.0262211
0.456, -1, -10.2237, 31.6662, 26.5904, -4.02684, -80.5753, -0.123401
0.46, -1, -10.1322, 31.6148, 26.5789, -3.889, -80.406, -0.220519
0.464, -1, -10.0407, 31.5633, 26.5674, -3.75126, -80.2367, -0.317573
0.468, -1, -9.9493, 31.5119, 26.5559, -3.61361, -80.0676, -0.41456
0.472, -1, -9.85796, 31.4605, 26.5444, -3.47605, -79.8985, -0.511477
0.476, -1, -9.76668, 31.4092, 26.5329, -3.3386, -79.7296, -0.60832
0.48, -1, -9.67548, 31.3579, 26.5214, -3.20126, -79.5609, -0.705089
0.484, -1, -9.58434, 31.3066, 26.5099, -3.06403, -79.3923, -0.801779
0.488, -1, -9.49329, 31.2554, 26.4984, -2.92692, -79.2238, -0.898388
0.492, -1, -9.4023, 31.2042, 26.487, -2.78992, -79.0554, -0.994913
0.496, -1, -9.31141, 31.1531, 26.4755, -2.65305, -78.8872, -1.09135
0.5, -1, -9.22059, 31.102, 26.4641, -2.5163, -78.7192, -1.1877
0.504, -1, -9.12986, 31.051, 26.4527, -2.37968, -78.5513, -1.28396
0.508, -1, -9.03921, 31, 26.4413, -2.2432, -78.3836, -1.38013
0.512, -1, -8.94865, 30.9491, 26.4299, -2.10685, -78.2161, -1.47619
0.516, -1, -8.85819, 30.8982, 26.4185, -1.97064, -78.0487, -1.57216
0.52, -1, -8.76782, 30.8474, 26.4071, -1.83458, -77.8815, -1.66803
0.524, -1, -8.67755, 30.7966, 26.3957, -1.69867, -77.7145, -1.7638
0.528, -1, -8.58737, 30.7459, 26.3844, -1.5629, -77.5477, -1.85945
0.532, -1, -8.4973, 30.6952, 26.373, -1.42729, -77.3811, -1.955
0.536, -1, -8.40733, 30.6446, 26.3617, -1.29183, -77.2146, -2.05044
0.54, -1, -8.31746, 30.5941, 26.3504, -1.15654, -77.0484, -2.14577
0.544, -1, -8.22771, 30.5436, 26.3391, -1.02141, -76.8823, -2.24098
0.548, -1, -8.13806, 30.4932, 26.3278, -0.886442, -76.7165, -2.33608
0.552, -1, -8.04852, 30.4428, 26.3165, -0.751646, -76.5509, -2.43105
0.556, -1, -7.9591, 30.3925, 26.3053, -0.617022, -76.3854, -2.5259
0.56, -1, -7.86979, 30.3423, 26.294, -0.482572, -76.2202, -2.62064
0.564, -1, -7.7806, 30.2921, 26.2828, -0.348301, -76.0552, -2.71524
0.568, -1, -7.69153, 30.2421, 26.2716, -0.21421, -75.8905, -2.80972
0.572, -1, -7.60258, 30.192, 26.2604, -0.0803022, -75.7259, -2.90407
0.576, -1, -7.51375, 30.1421, 26.2492, 0.0534192, -75.5616, -2.99829
0.58, -1, -7.42505, 30.0922, 26.2381, 0.186952, -75.3975, -3.09237
0.584, -1, -7.33647, 30.0424, 26.2269, 0.320293, -75.2337, -3.18632
0.588, -1, -7.24802, 29.9926, 26.2158, 0.45344, -75.0701, -3.28014
0.592, -1, -7.1597, 29.943, 26.2047, 0.58639, -74.9067, -3.37381
0.596, -1, -7.07152, 29.8934, 26.1936, 0.719142, -74.7436, -3.46735
0.6, -1, -6.98346, 29.8438, 26.1825, 0.851691, -74.5807, -3.56074
0.604, -1, -6.89554, 29.7944, 26.1714, 0.984037, -74.4181, -3.65399
0.608, -1, -6.80776, 29.745, 26.1604, 1.11618, -74.2557, -3.74709
0.612, -1, -6.72011, 29.6957, 26.1493, 1.24811, -74.0936, -3.84005
0.616, -1, -6.63261, 29.6465, 26.1383, 1.37983, -73.9318, -3.93285
0.62, -1, -6.54524, 29.5974, 26.1273, 1.51133, -73.7702, -4.02551
0.624, -1, -6.45802, 29.5484, 26.1163, 1.64262, -73.6089, -4.11802
0.628, -1, -6.37094, 29.4994, 26.1054, 1.7737, -73.4478, -4.21037
0.632, -1, -6.28401, 29.4505, 26.0944, 1.90455, -73.287, -4.30257
0.636, -1, -6.19722, 29.4017, 26.0835, 2.03518, -73.1265, -4.39461
0.64, -1, -6.11058, 29.353, 26.0726, 2.16559, -72.9663, -4.48649
0.644, -1, -6.02409, 29.3043, 26.0617, 2.29577, -72.8063, -4.57822
0.648, -1, -5.93775, 29.2558, 26.0509, 2.42572, -72.6466, -4.66978
0.652, -1, -5.85156, 29.2073, 26.04, 2.55545, -72.4872, -4.76118
0.656, -1, -5.76553, 29.1589, 26.0292, 2.68494, -72.3281, -4.85242
0.66, -1, -5.67965, 29.1106, 26.0184, 2.8142, -72.1693, -4.94349
0.664, -1, -5.59392, 29.0624, 26.0076, 2.94322, -72.0107, -5.0344
0.668, -1, -5.50836, 29.0143, 25.9968, 3.07201, -71.8525, -5.12514
0.672, -1, -5.42294, 28.9663, 25.9861, 3.20056, -71.6945, -5.21572
0.676, -1, -5.33769, 28.9183, 25.9753, 3.32887, -71.5368, -5.30612
0.68, -1, -5.2526, 28.8705, 25.9646, 3.45693, -71.3795, -5.39636
0.684, -1, -5.16767, 28.8227, 25.954, 3.58476, -71.2224, -5.48642
0.688, -1, -5.0829, 28.7751, 25.9433, 3.71233, -71.0657, -5.57631
0.692, -1, -4.9983, 28.7275, 25.9326, 3.83967, -70.9092, -5.66602
0.696, -1, -4.91386, 28.68, 25.922, 3.96675, -70.753, -5.75557
0.7, -1, -4.82958, 28.6326, 25.9114, 4.09359, -70.5972, -5.84493
0.704, -1, -4.74547, 28.5853, 25.9008, 4.22017, -70.4416, -5.93412
0.708, -1, -4.66153, 28.5381, 25.8903, 4.3465, -70.2864, -6.02313
0.712, -1, -4.57775, 28.491, 25.8797, 4.47258, -70.1315, -6.11197
0.716, -1, -4.49414, 28.444, 25.8692, 4.59841, -69.9769, -6.20062
0.72, -1, -4.4107, 28.3971, 25.8587, 4.72398, -69.8226, -6.2891
0.724, -1, -4.32743, 28.3502, 25.8482, 4.84929, -69.6686, -6.37739
0.728, -1, -4.24433, 28.3035, 25.8378, 4.97435, -69.5149, -6.4655
0.732, -1, -4.1614, 28.2569, 25.8273, 5.09914, -69.3616, -6.55343
0.736, -1, -4.07864, 28.2104, 25.8169, 5.22368, -69.2086, -6.64118
0.74, -1, -3.99605, 28.1639, 25.8065, 5.34796, -69.0559, -6.72874
0.744, -1, -3.91363, 28.1176, 25.7962, 5.47197, -68.9035, -6.81612
0.748, -1, -3.83139, 28.0713, 25.7858, 5.59573, -68.7514, -6.90332
0.752, -1, -3.74932, 28.0252, 25.7755, 5.71922, -68.5997, -6.99033
0.756, -1, -3.66742, 27.9791, 25.7652, 5.84245, -68.4482, -7.07716
0.76, -1, -3.58569, 27.9332, 25.7549, 5.96542, -68.2971, -7.1638
0.764, -1, -3.50414, 27.8873, 25.7447, 6.08812, -68.1464, -7.25026
0.768, -1, -3.42277, 27.8416, 25.7344, 6.21056, -67.9959, -7.33653
0.772, -1, -3.34156, 27.7959, 25.7242, 6.33274, -67.8458, -7.42261
0.776, -1, -3.26053, 27.7503, 25.714, 6.45465, -67.696, -7.50851
0.78, -1, -3.17968, 27.7049, 25.7038, 6.57631, -67.5465, -7.59423
0.784, -1, -3.099, 27.6595, 25.6937, 6.69769, -67.3973, -7.67975
0.788, -1, -3.0185, 27.6143, 25.6836, 6.81882, -67.2485, -7.7651
0.792, -1, -2.93816, 27.5691, 25.6735, 6.93968, -67.1, -7.85026
0.796, -1, -2.85801, 27.524, 25.6634, 7.06028, -66.9518, -7.93523
0.8, -1, -2.77803, 27.479, 25.6533, 7.18061, -66.8039, -8.02001
0.804, -1, -2.69822, 27.4342, 25.6433, 7.30068, -66.6564, -8.10461
0.808, -1, -2.61859, 27.3894, 25.6333, 7.42049, -66.5092, -8.18903
0.812, -1, -2.53913, 27.3447, 25.6233, 7.54004, -66.3623, -8.27326
0.816, -1, -2.45984, 27.3001, 25.6133, 7.65932, -66.2157, -8.35731
0.82, -1, -2.38073, 27.2557, 25.6034, 7.77834, -66.0695, -8.44117
0.824, -1, -2.3018, 27.2113, 25.5934, 7.8971, -65.9235, -8.52484
0.828, -1, -2.22303, 27.167, 25.5835, 8.0156, -65.7779, -8.60833
0.832, -1, -2.14444, 27.1228, 25.5736, 8.13383, -65.6327, -8.69164
0.836, -1, -2.06603, 27.0787, 25.5638, 8.25181, -65.4877, -8.77477
0.84, -1, -1.98779, 27.0347, 25.5539, 8.36952, -65.343, -8.8577
0.844, -1, -1.90972, 26.9908, 25.5441, 8.48697, -65.1987, -8.94046
0.848, -1, -1.83182, 26.947, 25.5343, 8.60416, -65.0547, -9.02303
0.852, -1, -1.7541, 26.9033, 25.5246, 8.7211, -64.911, -9.10542
0.856, -1, -1.67655, 26.8597, 25.5148, 8.83777, -64.7677, -9.18763
0.86, -1, -1.59917, 26.8162, 25.5051, 8.95418, -64.6246, -9.26965
0.864, -1, -1.52196, 26.7728, 25.4954, 9.07033, -64.4819, -9.35149
0.868, -1, -1.44493, 26.7295, 25.4857, 9.18623, -64.3395, -9.43315
0.872, -1, -1.36806, 26.6863, 25.476, 9.30186, -64.1974, -9.51462
0.876, -1, -1.29137, 26.6432, 25.4664, 9.41724, -64.0556, -9.59592
0.88, -1, -1.21485, 26.6001, 25.4567, 9.53236, -63.9142, -9.67703
0.884, -1, -1.1385, 26.5572, 25.4471, 9.64723, -63.773, -9.75796
0.888, -1, -1.06232, 26.5144, 25.4376, 9.76183, -63.6322, -9.83871
0.892, -1, -0.986311, 26.4716, 25.428, 9.87618, -63.4917, -9.91928
0.896, -1, -0.910471, 26.429, 25.4185, 9.99028, -63.3515, -9.99967
0.9, -1, -0.8348, 26.3864, 25.409, 10.1041, -63.2116, -10.0799
0.904, -1, -0.759299, 26.344, 25.3995, 10.2177, -63.0721, -10.1599
0.908, -1, -0.683967, 26.3016, 25.39, 10.331, -62.9328, -10.2398
0.912, -1, -0.608804, 26.2594, 25.3805, 10.4441, -62.7939, -10.3194
0.916, -1, -0.533808, 26.2172, 25.3711, 10.5569, -62.6552, -10.3989
0.92, -1, -0.458981, 26.1751, 25.3617, 10.6695, -62.5169, -10.4782
0.924, -1, -0.384322, 26.1332, 25.3523, 10.7818, -62.3789, -10.5574
0.928, -1, -0.30983, 26.0913, 25.3429, 10.8939, -62.2412, -10.6363
0.932, -1, -0.235505, 26.0495, 25.3336, 11.0057, -62.1038, -10.7151
0.936, -1, -0.161347, 26.0078, 25.3243, 11.1173, -61.9667, -10.7937
0.94, -1, -0.0873549, 25.9662, 25.315, 11.2286, -61.8299, -10.8722
0.944, -1, -0.013529, 25.9247, 25.3057, 11.3396, -61.6935, -10.9504
0.948, -1, 0.0601312, 25.8833, 25.2964, 11.4504, -61.5573, -11.0285
0.952, -1, 0.133626, 25.8419, 25.2872, 11.561, -61.4215, -11.1064
0.956, -1, 0.206956, 25.8007, 25.278, 11.6713, -61.2859, -11.1841
0.96, -1, 0.280122, 25.7596, 25.2688, 11.7814, -61.1507, -11.2617
0.964, -1, 0.353123, 25.7185, 25.2596, 11.8912, -61.0157, -11.339
0.968, -1, 0.42596, 25.6776, 25.2504, 12.0008, -60.8811, -11.4162
0.972, -1, 0.498634, 25.6367, 25.2413, 12.1101, -60.7467, -11.4933
0.976, -1, 0.571145, 25.5959, 25.2322, 12.2192, -60.6127, -11.5701
0.98, -1, 0.643494, 25.5553, 25.2231, 12.328, -60.479, -11.6468
0.984, -1, 0.71568, 25.5147, 25.214, 12.4366, -60.3455, -11.7233
0.988, -1, 0.787704, 25.4742, 25.2049, 12.545, -60.2124, -11.7997
0.992, -1, 0.859567, 25.4338, 25.1959, 12.6531, -60.0796, -11.8758
0.996, -1, 0.931268, 25.3935, 25.1869, 12.7609, -59.947, -11.9518
1, -1, 1.00281, 25.3532, 25.1779, 12.8686, -59.8148, -12.0277
1.004, -1, 1.07419, 25.3131, 25.1689, 12.9759, -59.6828, -12.1033
1.008, -1, 1.14541, 25.2731, 25.16, 13.0831, -59.5512, -12.1788
1.012, -1, 1.21647, 25.2331, 25.151, 13.19, -59.4198, -12.2541
1.016, -1, 1.28738, 25.1932, 25.1421, 13.2966, -59.2888, -12.3293
1.02, -1, 1.35813, 25.1535, 25.1332, 13.4031, -59.158, -12.4043
1.024, -1, 1.42871, 25.1138, 25.1243, 13.5092, -59.0275, -12.4791
1.027, -1, 1.49915, 25.0742, 25.1155, 13.6152, -58.8973, -12.5537
1.032, -1, 1.56942, 25.0347, 25.1067, 13.7209, -58.7674, -12.6282
1.036, -1, 1.63954, 24.9952, 25.0978, 13.8264, -58.6378, -12.7025
1.04, -1, 1.70951, 24.9559, 25.089, 13.9316, -58.5085, -12.7767
1.044, -1, 1.77932, 24.9167, 25.0803, 14.0366, -58.3795, -12.8507
1.048, -1, 1.84898, 24.8775, 25.0715, 14.1414, -58.2507, -12.9245
1.052, -1, 1.91848, 24.8384, 25.0628, 14.246, -58.1223, -12.9982
1.055, -1, 1.98783, 24.7994, 25.0541, 14.3503, -57.9941, -13.0717
1.06, -1, 2.05703, 24.7605, 25.0454, 14.4544, -57.8662, -13.145
1.064, -1, 2.12608, 24.7217, 25.0367, 14.5582, -57.7386, -13.2182
1.068, -1, 2.19497, 24.683, 25.028, 14.6618, -57.6112, -13.2912
1.072, -1, 2.26372, 24.6443, 25.0194, 14.7652, -57.4842, -13.3641
1.076, -1, 2.33231, 24.6057, 25.0107, 14.8684, -57.3574, -13.4368
1.08, -1, 2.40076, 24.5673, 25.0021, 14.9714, -57.2309, -13.5093
1.084, -1, 2.46906, 24.5289, 24.9936, 15.0741, -57.1047, -13.5817
1.088, -1, 2.53721, 24.4905, 24.985, 15.1766, -56.9787, -13.6539
1.091, -1, 2.60521, 24.4523, 24.9764, 15.2789, -56.853, -13.726
1.096, -1, 2.67306, 24.4142, 24.9679, 15.381, -56.7276, -13.7979
1.1, -1, 2.74078, 24.3761, 24.9594, 15.4828, -56.6024, -13.8697
1.104, -1, 2.80834, 24.3381, 24.9509, 15.5845, -56.4776, -13.9413
1.108, -1, 2.87576, 24.3002, 24.9424, 15.6859, -56.353, -14.0127
1.112, -1, 2.94304, 24.2624, 24.934, 15.7871, -56.2286, -14.084
1.116, -1, 3.01017, 24.2246, 24.9255, 15.888, -56.1045, -14.1552
1.119, -1, 3.07716, 24.187, 24.9171, 15.9888, -55.9807, -14.2262
1.124, -1, 3.14401, 24.1494, 24.9087, 16.0894, -55.8572, -14.297
1.128, -1, 3.21072, 24.1119, 24.9003, 16.1897, -55.7339, -14.3677
1.132, -1, 3.27729, 24.0744, 24.892, 16.2898, -55.6108, -14.4383
1.136, -1, 3.34372, 24.0371, 24.8836, 16.3898, -55.488, -14.5087
1.14, -1, 3.41001, 23.9998, 24.8753, 16.4895, -55.3655, -14.5789
1.144, -1, 3.47616, 23.9626, 24.867, 16.589, -55.2433, -14.649
1.147, -1, 3.54217, 23.9255, 24.8587, 16.6883, -55.1212, -14.719
1.152, -1, 3.60804, 23.8885, 24.8504, 16.7873, -54.9995, -14.7888
1.156, -1, 3.67378, 23.8515, 24.8421, 16.8862, -54.878, -14.8585
1.16, -1, 3.73938, 23.8146, 24.8339, 16.9849, -54.7567, -14.928
1.164, -1, 3.80485, 23.7778, 24.8256, 17.0834, -54.6357, -14.9974
1.168, -1, 3.87018, 23.7411, 24.8174, 17.1816, -54.515, -15.0666
1.172, -1, 3.93537, 23.7045, 24.8092, 17.2797, -54.3945, -15.1357
1.175, -1, 4.00044, 23.6679, 24.8011, 17.3776, -54.2742, -15.2047
1.18, -1, 4.06536, 23.6314, 24.7929, 17.4752, -54.1542, -15.2735
1.184, -1, 4.13016, 23.5949, 24.7847, 17.5727, -54.0345, -15.3422
1.188, -1, 4.19482, 23.5586, 24.7766, 17.67, -53.9149, -15.4107
1.192, -1, 4.25936, 23.5223, 24.7685, 17.767, -53.7957, -15.4791
1.196, -1, 4.32376, 23.4861, 24.7604, 17.8639, -53.6766, -15.5474
1.2, -1, 4.38803, 23.45, 24.7523, 17.9606, -53.5578, -15.6155
1.204, -1, 4.45217, 23.4139, 24.7443, 18.0571, -53.4393, -15.6835
1.208, -1, 4.51618, 23.3779, 24.7362, 18.1534, -53.321, -15.7513
1.212, -1, 4.58006, 23.342, 24.7282, 18.2495, -53.2029, -15.819
1.216, -1, 4.64382, 23.3061, 24.7202, 18.3454, -53.0851, -15.8866
1.22, -1, 4.70745, 23.2704, 24.7122, 18.4411, -52.9675, -15.954
1.224, -1, 4.77095, 23.2347, 24.7042, 18.5366, -52.8501, -16.0213
1.228, -1, 4.83432, 23.199, 24.6962, 18.6319, -52.733, -16.0885
1.232, -1, 4.89757, 23.1635, 24.6883, 18.727, -52.6161, -16.1555
1.236, -1, 4.96069, 23.128, 24.6803, 18.822, -52.4994, -16.2224
1.24, -1, 5.02369, 23.0926, 24.6724, 18.9168, -52.3829, -16.2892
1.244, -1, 5.08656, 23.0572, 24.6645, 19.0113, -52.2667, -16.3558
1.248, -1, 5.14931, 23.0219, 24.6566, 19.1057, -52.1508, -16.4223
1.252, -1, 5.21193, 22.9867, 24.6488, 19.1999, -52.035, -16.4887
1.256, -1, 5.27444, 22.9516, 24.6409, 19.2939, -51.9195, -16.5549
1.26, -1, 5.33682, 22.9165, 24.6331, 19.3878, -51.8042, -16.621
1.264, -1, 5.39908, 22.8815, 24.6252, 19.4814, -51.6891, -16.687
1.267, -1, 5.46121, 22.8466, 24.6174, 19.5749, -51.5742, -16.7529
1.272, -1, 5.52323, 22.8117, 24.6096, 19.6682, -51.4596, -16.8186
1.276, -1, 5.58513, 22.7769, 24.6018, 19.7613, -51.3452, -16.8842
1.28, -1, 5.6469, 22.7422, 24.5941, 19.8542, -51.231, -16.9497
1.284, -1, 5.70856, 22.7075, 24.5863, 19.947, -51.1171, -17.015
1.288, -1, 5.7701, 22.6729, 24.5786, 20.0395, -51.0033, -17.0803
1.292, -1, 5.83152, 22.6384, 24.5709, 20.1319, -50.8898, -17.1454
1.295, -1, 5.89282, 22.6039, 24.5632, 20.2241, -50.7765, -17.2103
1.3, -1, 5.95401, 22.5695, 24.5555, 20.3162, -50.6634, -17.2752
1.304, -1, 6.01508, 22.5352, 24.5478, 20.408, -50.5505, -17.3399
1.308, -1, 6.07603, 22.5009, 24.5401, 20.4997, -50.4379, -17.4045
1.312, -1, 6.13687, 22.4667, 24.5325, 20.5912, -50.3254, -17.469
1.316, -1, 6.19759, 22.4326, 24.5249, 20.6826, -50.2132, -17.5333
1.32, -1, 6.25819, 22.3985, 24.5172, 20.7737, -50.1012, -17.5976
1.324, -1, 6.31869, 22.3645, 24.5096, 20.8647, -49.9894, -17.6617
1.328, -1, 6.37907, 22.3305, 24.502, 20.9555, -49.8778, -17.7257
1.332, -1, 6.43933, 22.2966, 24.4945, 21.0462, -49.7664, -17.7895
1.336, -1, 6.49948, 22.2628, 24.4869, 21.1367, -49.6552, -17.8533
1.34, -1, 6.55952, 22.2291, 24.4794, 21.227, -49.5442, -17.9169
1.344, -1, 6.61945, 22.1954, 24.4718, 21.3171, -49.4335, -17.9804
1.348, -1, 6.67926, 22.1617, 24.4643, 21.4071, -49.3229, -18.0438
1.352, -1, 6.73897, 22.1282, 24.4568, 21.4969, -49.2125, -18.1071
1.356, -1, 6.79856, 22.0947, 24.4493, 21.5865, -49.1024, -18.1703
1.36, -1, 6.85805, 22.0612, 24.4418, 21.676, -48.9924, -18.2333
1.364, -1, 6.91742, 22.0278, 24.4344, 21.7653, -48.8827, -18.2962
1.368, -1, 6.97669, 21.9945, 24.4269, 21.8545, -48.7732, -18.3591
1.372, -1, 7.03584, 21.9613, 24.4195, 21.9435, -48.6638, -18.4218
1.376, -1, 7.09489, 21.9281, 24.4121, 22.0323, -48.5547, -18.4843
1.38, -1, 7.15383, 21.8949, 24.4046, 22.1209, -48.4457, -18.5468
1.384, -1, 7.21267, 21.8618, 24.3972, 22.2094, -48.337, -18.6092
1.388, -1, 7.2714, 21.8288, 24.3899, 22.2978, -48.2284, -18.6714
1.392, -1, 7.33002, 21.7959, 24.3825, 22.386, -48.1201, -18.7335
1.396, -1, 7.38854, 21.763, 24.3751, 22.474, -48.0119, -18.7956
1.4, -1, 7.44695, 21.7301, 24.3678, 22.5618, -47.904, -18.8575
1.404, -1, 7.50525, 21.6973, 24.3605, 22.6495, -47.7962, -18.9193
1.408, -1, 7.56346, 21.6646, 24.3532, 22.7371, -47.6886, -18.9809
1.412, -1, 7.62156, 21.6319, 24.3458, 22.8245, -47.5812, -19.0425
1.416, -1, 7.67955, 21.5993, 24.3386, 22.9117, -47.4741, -19.104
1.42, -1, 7.73745, 21.5668, 24.3313, 22.9988, -47.3671, -19.1653
1.424, -1, 7.79524, 21.5343, 24.324, 23.0857, -47.2602, -19.2266
1.428, -1, 7.85293, 21.5019, 24.3168, 23.1725, -47.1536, -19.2877
1.432, -1, 7.91053, 21.4695, 24.3095, 23.2591, -47.0472, -19.3488
1.436, -1, 7.96802, 21.4372, 24.3023, 23.3456, -46.9409, -19.4097
1.44, -1, 8.02541, 21.4049, 24.2951, 23.4319, -46.8348, -19.4705
1.444, -1, 8.0827, 21.3727, 24.2879, 23.5181, -46.729, -19.5312
1.448, -1, 8.1399, 21.3405, 24.2807, 23.6041, -46.6232, -19.5918
1.452, -1, 8.19699, 21.3084, 24.2735, 23.69, -46.5177, -19.6523
1.456, -1, 8.25399, 21.2764, 24.2664, 23.7757, -46.4124, -19.7128
1.46, -1, 8.31089, 21.2444, 24.2592, 23.8613, -46.3072, -19.7731
1.464, -1, 8.36769, 21.2125, 24.2521, 23.9468, -46.2022, -19.8333
1.468, -1, 8.4244, 21.1806, 24.2449, 24.032, -46.0975, -19.8933
1.472, -1, 8.48101, 21.1488, 24.2378, 24.1172, -45.9928, -19.9533
1.476, -1, 8.53752, 21.117, 24.2307, 24.2022, -45.8884, -20.0132
1.48, -1, 8.59394, 21.0853, 24.2236, 24.287, -45.7841, -20.073
1.484, -1, 8.65026, 21.0536, 24.2165, 24.3718, -45.68, -20.1327
1.488, -1, 8.70649, 21.022, 24.2095, 24.4563, -45.5761, -20.1923
1.492, -1, 8.76262, 20.9904, 24.2024, 24.5408, -45.4724, -20.2518
1.496, -1, 8.81866, 20.9589, 24.1954, 24.6251, -45.3688, -20.3112
1.5, -1, 8.87461, 20.9275, 24.1883, 24.7092, -45.2654, -20.3705
1.504, -1, 8.93046, 20.8961, 24.1813, 24.7932, -45.1621, -20.4297
1.508, -1, 8.98623, 20.8647, 24.1743, 24.8771, -45.0591, -20.4888
1.512, -1, 9.04189, 20.8334, 24.1673, 24.9608, -44.9562, -20.5478
1.516, -1, 9.09747, 20.8022, 24.1603, 25.0444, -44.8535, -20.6067
1.52, -1, 9.15296, 20.771, 24.1534, 25.1279, -44.7509, -20.6655
1.524, -1, 9.20836, 20.7398, 24.1464, 25.2112, -44.6485, -20.7242
1.528, -1, 9.26366, 20.7087, 24.1394, 25.2944, -44.5463, -20.7828
1.532, -1, 9.31888, 20.6777, 24.1325, 25.3774, -44.4443, -20.8413
1.536, -1, 9.37401, 20.6467, 24.1256, 25.4604, -44.3424, -20.8997
1.54, -1, 9.42904, 20.6158, 24.1187, 25.5431, -44.2407, -20.9581
1.544, -1, 9.48399, 20.5849, 24.1118, 25.6258, -44.1391, -21.0163
1.548, -1, 9.53885, 20.554, 24.1049, 25.7083, -44.0377, -21.0744
1.552, -1, 9.59363, 20.5232, 24.098, 25.7907, -43.9365, -21.1325
1.556, -1, 9.64831, 20.4925, 24.0911, 25.873, -43.8354, -21.1904
1.56, -1, 9.70291, 20.4618, 24.0842, 25.9551, -43.7345, -21.2483
1.564, -1, 9.75742, 20.4311, 24.0774, 26.0371, -43.6337, -21.3061
1.568, -1, 9.81184, 20.4005, 24.0705, 26.1189, -43.5331, -21.3637
1.572, -1, 9.86618, 20.37, 24.0637, 26.2007, -43.4327, -21.4213
1.576, -1, 9.92043, 20.3395, 24.0569, 26.2823, -43.3324, -21.4788
1.58, -1, 9.9746, 20.309, 24.0501, 26.3638, -43.2323, -21.5362
1.584, -1, 10.0287, 20.2786, 24.0433, 26.4451, -43.1324, -21.5936
1.588, -1, 10.0827, 20.2483, 24.0365, 26.5263, -43.0326, -21.6508
1.592, -1, 10.1366, 20.218, 24.0297, 26.6074, -42.9329, -21.7079
1.596, -1, 10.1904, 20.1877, 24.023, 26.6884, -42.8334, -21.765
1.6, -1, 10.2442, 20.1575, 24.0162, 26.7692, -42.7341, -21.8219
1.604, -1, 10.2978, 20.1273, 24.0095, 26.85, -42.6349, -21.8788
1.608, -1, 10.3514, 20.0972, 24.0027, 26.9306, -42.5359, -21.9356
1.612, -1, 10.4049, 20.0671, 23.996, 27.011, -42.437, -21.9923
1.616, -1, 10.4583, 20.0371, 23.9893, 27.0914, -42.3382, -22.0489
1.62, -1, 10.5117, 20.0071, 23.9826, 27.1716, -42.2397, -22.1054
1.624, -1, 10.5649, 19.9771, 23.9759, 27.2517, -42.1412, -22.1619
1.628, -1, 10.6181, 19.9472, 23.9692, 27.3317, -42.0429, -22.2182
1.632, -1, 10.6712, 19.9174, 23.9625, 27.4116, -41.9448, -22.2745
1.636, -1, 10.7242, 19.8876, 23.9559, 27.4913, -41.8468, -22.3307
1.64, -1, 10.7771, 19.8578, 23.9492, 27.5709, -41.749, -22.3868
1.644, -1, 10.83, 19.8281, 23.9426, 27.6504, -41.6513, -22.4428
1.648, -1, 10.8828, 19.7984, 23.9359, 27.7298, -41.5538, -22.4987
1.652, -1, 10.9355, 19.7688, 23.9293, 27.8091, -41.4564, -22.5546
1.656, -1, 10.9881, 19.7392, 23.9227, 27.8882, -41.3591, -22.6104
1.66, -1, 11.0406, 19.7097, 23.9161, 27.9672, -41.262, -22.666
1.664, -1, 11.0931, 19.6802, 23.9095, 28.0461, -41.1651, -22.7216
1.668, -1, 11.1455, 19.6507, 23.9029, 28.1249, -41.0682, -22.7772
1.672, -1, 11.1978, 19.6213, 23.8963, 28.2036, -40.9716, -22.8326
1.676, -1, 11.25, 19.592, 23.8898, 28.2822, -40.875, -22.8879
1.68, -1, 11.3022, 19.5627, 23.8832, 28.3606, -40.7786, -22.9432
1.684, -1, 11.3542, 19.5334, 23.8767, 28.439, -40.6824, -22.9984
1.688, -1, 11.4062, 19.5041, 23.8701, 28.5172, -40.5863, -23.0535
1.692, -1, 11.4582, 19.4749, 23.8636, 28.5953, -40.4903, -23.1085
1.696, -1, 11.51, 19.4458, 23.8571, 28.6733, -40.3945, -23.1635
1.7, -1, 11.5618, 19.4167, 23.8506, 28.7511, -40.2988, -23.2184
1.704, -1, 11.6135, 19.3876, 23.8441, 28.8289, -40.2032, -23.2732
1.708, -1, 11.6651, 19.3586, 23.8376, 28.9066, -40.1078, -23.3279
1.712, -1, 11.7166, 19.3296, 23.8311, 28.9841, -40.0125, -23.3825
1.716, -1, 11.7681, 19.3007, 23.8246, 29.0615, -39.9174, -23.4371
1.72, -1, 11.8195, 19.2718, 23.8182, 29.1388, -39.8224, -23.4915
1.724, -1, 11.8709, 19.2429, 23.8117, 29.2161, -39.7275, -23.5459
1.728, -1, 11.9221, 19.2141, 23.8053, 29.2931, -39.6328, -23.6003
1.732, -1, 11.9733, 19.1853, 23.7989, 29.3701, -39.5382, -23.6545
1.736, -1, 12.0244, 19.1566, 23.7924, 29.447, -39.4437, -23.7087
1.74, -1, 12.0754, 19.1279, 23.786, 29.5238, -39.3494, -23.7628
1.744, -1, 12.1264, 19.0992, 23.7796, 29.6004, -39.2552, -23.8168
1.748, -1, 12.1773, 19.0706, 23.7732, 29.677, -39.1611, -23.8707
1.752, -1, 12.2281, 19.0421, 23.7668, 29.7535, -39.0672, -23.9246
1.756, -1, 12.2789, 19.0135, 23.7604, 29.8298, -38.9734, -23.9784
1.76, -1, 12.3295, 18.985, 23.7541, 29.906, -38.8797, -24.0321
1.764, -1, 12.3802, 18.9566, 23.7477, 29.9822, -38.7861, -24.0857
1.768, -1, 12.4307, 18.9282, 23.7414, 30.0582, -38.6927, -24.1393
1.772, -1, 12.4812, 18.8998, 23.735, 30.1341, -38.5995, -24.1928
1.776, -1, 12.5316, 18.8714, 23.7287, 30.2099, -38.5063, -24.2462
1.78, -1, 12.5819, 18.8431, 23.7223, 30.2856, -38.4133, -24.2995
1.784, -1, 12.6322, 18.8149, 23.716, 30.3612, -38.3204, -24.3528
1.788, -1, 12.6824, 18.7867, 23.7097, 30.4367, -38.2276, -24.406
1.792, -1, 12.7325, 18.7585, 23.7034, 30.5121, -38.1349, -24.4591
1.796, -1, 12.7825, 18.7303, 23.6971, 30.5874, -38.0424, -24.5122
1.8, -1, 12.8325, 18.7022, 23.6908, 30.6626, -37.95, -24.5652
1.804, -1, 12.8825, 18.6742, 23.6846, 30.7377, -37.8578, -24.6181
1.808, -1, 12.9323, 18.6461, 23.6783, 30.8127, -37.7656, -24.6709
1.812, -1, 12.9821, 18.6181, 23.672, 30.8876, -37.6736, -24.7237
1.816, -1, 13.0318, 18.5902, 23.6658, 30.9624, -37.5817, -24.7764
1.82, -1, 13.0815, 18.5623, 23.6596, 31.0371, -37.4899, -24.829
1.824, -1, 13.1311, 18.5344, 23.6533, 31.1117, -37.3982, -24.8816
1.828, -1, 13.1806, 18.5065, 23.6471, 31.1862, -37.3067, -24.9341
1.832, -1, 13.23, 18.4787, 23.6409, 31.2606, -37.2153, -24.9865
1.836, -1, 13.2794, 18.451, 23.6347, 31.3349, -37.124, -25.0388
1.84, -1, 13.3288, 18.4232, 23.6285, 31.4091, -37.0328, -25.0911
1.844, -1, 13.378, 18.3955, 23.6223, 31.4832, -36.9418, -25.1433
1.848, -1, 13.4272, 18.3679, 23.6161, 31.5572, -36.8508, -25.1955
1.852, -1, 13.4764, 18.3402, 23.6099, 31.6311, -36.76, -25.2475
1.856, -1, 13.5254, 18.3127, 23.6037, 31.7049, -36.6693, -25.2995
1.86, -1, 13.5744, 18.2851, 23.5976, 31.7786, -36.5787, -25.3515
1.864, -1, 13.6234, 18.2576, 23.5914, 31.8522, -36.4883, -25.4034
1.868, -1, 13.6723, 18.2301, 23.5853, 31.9258, -36.3979, -25.4552
1.872, -1, 13.7211, 18.2027, 23.5792, 31.9992, -36.3077, -25.5069
1.876, -1, 13.7698, 18.1752, 23.573, 32.0725, -36.2176, -25.5586
1.88, -1, 13.8185, 18.1479, 23.5669, 32.1458, -36.1275, -25.6102
1.884, -1, 13.8672, 18.1205, 23.5608, 32.2189, -36.0377, -25.6617
1.888, -1, 13.9157, 18.0932, 23.5547, 32.292, -35.9479, -25.7132
1.892, -1, 13.9643, 18.0659, 23.5486, 32.365, -35.8582, -25.7646
1.896, -1, 14.0127, 18.0387, 23.5425, 32.4378, -35.7687, -25.816
1.9, -1, 14.0611, 18.0115, 23.5364, 32.5106, -35.6792, -25.8673
1.904, -1, 14.1094, 17.9843, 23.5303, 32.5833, -35.5899, -25.9185
1.908, -1, 14.1577, 17.9572, 23.5243, 32.6559, -35.5007, -25.9696
1.912, -1, 14.2059, 17.9301, 23.5182, 32.7284, -35.4116, -26.0207
1.916, -1, 14.254, 17.903, 23.5122, 32.8009, -35.3226, -26.0718
1.92, -1, 14.3021, 17.876, 23.5061, 32.8732, -35.2337, -26.1227
1.924, -1, 14.3501, 17.849, 23.5001, 32.9454, -35.145, -26.1736
1.928, -1, 14.3981, 17.822, 23.494, 33.0176, -35.0563, -26.2245
1.932, -1, 14.446, 17.7951, 23.488, 33.0897, -34.9677, -26.2752
1.936, -1, 14.4939, 17.7682, 23.482, 33.1616, -34.8793, -26.3259
1.94, -1, 14.5416, 17.7413, 23.476, 33.2335, -34.791, -26.3766
1.944, -1, 14.5894, 17.7145, 23.47, 33.3053, -34.7027, -26.4272
1.948, -1, 14.6371, 17.6877, 23.464, 33.377, -34.6146, -26.4777
1.952, -1, 14.6847, 17.6609, 23.458, 33.4487, -34.5266, -26.5282
1.956, -1, 14.7322, 17.6341, 23.452, 33.5202, -34.4387, -26.5786
1.96, -1, 14.7797, 17.6074, 23.4461, 33.5917, -34.3509, -26.6289
1.964, -1, 14.8272, 17.5808, 23.4401, 33.663, -34.2632, -26.6792
1.968, -1, 14.8745, 17.5541, 23.4342, 33.7343, -34.1756, -26.7294
1.972, -1, 14.9219, 17.5275, 23.4282, 33.8055, -34.0882, -26.7796
1.976, -1, 14.9692, 17.5009, 23.4223, 33.8766, -34.0008, -26.8297
1.98, -1, 15.0164, 17.4744, 23.4163, 33.9476, -33.9135, -26.8798
1.984, -1, 15.0635, 17.4479, 23.4104, 34.0186, -33.8263, -26.9297
1.988, -1, 15.1106, 17.4214, 23.4045, 34.0894, -33.7393, -26.9797
1.992, -1, 15.1577, 17.3949, 23.3986, 34.1602, -33.6523, -27.0295
1.996, -1, 15.2047, 17.3685, 23.3927, 34.2309, -33.5654, -27.0793
1.999, -1, 15.2516, 17.3421, 23.3868, 34.3015, -33.4787, -27.1291
2.004, -1, 15.2985, 17.3158, 23.3809, 34.372, -33.392, -27.1788
2.008, -1, 15.3453, 17.2894, 23.375, 34.4425, -33.3055, -27.2284
2.012, -1, 15.3921, 17.2631, 23.3691, 34.5128, -33.219, -27.278
2.015, -1, 15.4388, 17.2369, 23.3632, 34.5831, -33.1327, -27.3275
2.019, -1, 15.4855, 17.2106, 23.3574, 34.6533, -33.0464, -27.377
2.024, -1, 15.5321, 17.1844, 23.3515, 34.7234, -32.9602, -27.4264
2.028, -1, 15.5786, 17.1582, 23.3456, 34.7934, -32.8742, -27.4757
2.031, -1, 15.6251, 17.1321, 23.3398, 34.8634, -32.7882, -27.525
2.036, -1, 15.6716, 17.106, 23.334, 34.9333, -32.7024, -27.5742
2.04, -1, 15.718, 17.0799, 23.3281, 35.0031, -32.6166, -27.6234
2.044, -1, 15.7643, 17.0538, 23.3223, 35.0728, -32.531, -27.6725
2.048, -1, 15.8106, 17.0278, 23.3165, 35.1424, -32.4454, -27.7216
2.051, -1, 15.8568, 17.0018, 23.3107, 35.212, -32.3599, -27.7706
2.055, -1, 15.903, 16.9759, 23.3049, 35.2814, -32.2746, -27.8195
2.06, -1, 15.9491, 16.9499, 23.2991, 35.3508, -32.1893, -27.8684
2.064, -1, 15.9952, 16.924, 23.2933, 35.4201, -32.1041, -27.9173
2.068, -1, 16.0413, 16.8981, 23.2875, 35.4894, -32.019, -27.9661
2.071, -1, 16.0872, 16.8723, 23.2817, 35.5585, -31.9341, -28.0148
2.076, -1, 16.1331, 16.8465, 23.2759, 35.6276, -31.8492, -28.0635
2.08, -1, 16.179, 16.8207, 23.2702, 35.6966, -31.7644, -28.1121
2.084, -1, 16.2248, 16.7949, 23.2644, 35.7656, -31.6797, -28.1606
2.087, -1, 16.2706, 16.7692, 23.2587, 35.8344, -31.5951, -28.2092
2.092, -1, 16.3163, 16.7435, 23.2529, 35.9032, -31.5106, -28.2576
2.096, -1, 16.362, 16.7178, 23.2472, 35.9719, -31.4262, -28.306
2.1, -1, 16.4076, 16.6921, 23.2414, 36.0405, -31.3418, -28.3544
2.104, -1, 16.4532, 16.6665, 23.2357, 36.1091, -31.2576, -28.4027
2.107, -1, 16.4987, 16.6409, 23.23, 36.1775, -31.1735, -28.4509
2.111, -1, 16.5442, 16.6154, 23.2243, 36.2459, -31.0894, -28.4991
2.116, -1, 16.5896, 16.5898, 23.2186, 36.3143, -31.0055, -28.5472
2.12, -1, 16.635, 16.5643, 23.2129, 36.3825, -30.9216, -28.5953
2.124, -1, 16.6803, 16.5388, 23.2072, 36.4507, -30.8378, -28.6434
2.127, -1, 16.7255, 16.5134, 23.2015, 36.5188, -30.7542, -28.6913
2.132, -1, 16.7708, 16.488, 23.1958, 36.5868, -30.6706, -28.7393
2.136, -1, 16.8159, 16.4626, 23.1901, 36.6548, -30.5871, -28.7872
2.14, -1, 16.8611, 16.4372, 23.1844, 36.7226, -30.5037, -28.835
2.143, -1, 16.9061, 16.4118, 23.1788, 36.7904, -30.4204, -28.8828
2.148, -1, 16.9512, 16.3865, 23.1731, 36.8582, -30.3371, -28.9305
2.152, -1, 16.9961, 16.3612, 23.1675, 36.9258, -30.254, -28.9782
2.156, -1, 17.0411, 16.336, 23.1618, 36.9934, -30.1709, -29.0258
2.16, -1, 17.086, 16.3107, 23.1562, 37.061, -30.088, -29.0734
2.163, -1, 17.1307, 16.2856, 23.1505, 37.1284, -30.0051, -29.1209
2.168, -1, 17.1752, 16.2605, 23.1449, 37.1958, -29.9223, -29.1684
2.172, -1, 17.2191, 16.2357, 23.1392, 37.263, -29.8397, -29.2157
2.176, -1, 17.2623, 16.2112, 23.1335, 37.3301, -29.7572, -29.263
2.179, -1, 17.3045, 16.1873, 23.1277, 37.397, -29.6751, -29.3101
2.184, -1, 17.3456, 16.164, 23.1218, 37.4635, -29.5935, -29.357
2.188, -1, 17.3855, 16.1414, 23.116, 37.5293, -29.5126, -29.4033
2.192, -1, 17.4241, 16.1195, 23.1101, 37.5942, -29.433, -29.4491
2.196, -1, 17.4614, 16.0985, 23.1043, 37.6578, -29.3548, -29.4939
2.199, -1, 17.4974, 16.0784, 23.0986, 37.7198, -29.2788, -29.5376
2.204, -1, 17.532, 16.0593, 23.093, 37.7796, -29.2053, -29.5798
2.208, -1, 17.565, 16.0414, 23.0876, 37.837, -29.1349, -29.6202
2.212, -1, 17.5961, 16.0246, 23.0825, 37.8913, -29.0682, -29.6585
2.216, -1, 17.6255, 16.0089, 23.0778, 37.9423, -29.0056, -29.6944
2.219, -1, 17.6531, 15.9942, 23.0734, 37.9894, -28.9477, -29.7277
2.224, -1, 17.6791, 15.9802, 23.0695, 38.0325, -28.8949, -29.758
2.228, -1, 17.7034, 15.9668, 23.0661, 38.0711, -28.8475, -29.7852
2.232, -1, 17.7262, 15.9539, 23.0633, 38.1052, -28.8055, -29.8093
2.235, -1, 17.7475, 15.9416, 23.0609, 38.1349, -28.769, -29.8302
2.24, -1, 17.767, 15.9299, 23.0591, 38.1603, -28.7379, -29.848
2.244, -1, 17.7847, 15.9192, 23.0578, 38.1815, -28.7117, -29.863
2.248, -1, 17.8006, 15.9096, 23.0568, 38.1989, -28.6902, -29.8752
2.252, -1, 17.8146, 15.9012, 23.0561, 38.213, -28.6728, -29.8851
2.255, -1, 17.827, 15.8938, 23.0557, 38.2241, -28.6592, -29.8929
2.259, -1, 17.8379, 15.8875, 23.0556, 38.2326, -28.6486, -29.8989
2.264, -1, 17.8474, 15.8821, 23.0556, 38.239, -28.6407, -29.9034
2.268, -1, 17.8555, 15.8777, 23.0556, 38.2437, -28.6349, -29.9067
2.272, -1, 17.8622, 15.8741, 23.0558, 38.247, -28.6307, -29.9091
2.275, 2, 17.8677, 15.8713, 23.0559, 38.2493, -28.6278, -29.9107
2.28, 2, 17.8718, 15.8692, 23.0561, 38.2509, -28.6258, -29.9118
2.284, 2, 17.8749, 15.8678, 23.0562, 38.252, -28.6244, -29.9126
2.288, 2, 17.877, 15.8667, 23.0562, 38.2528, -28.6235, -29.9131
2.291, 2, 17.8785, 15.866, 23.0563, 38.2533, -28.6229, -29.9135
2.296, 2, 17.8795, 15.8655, 23.0563, 38.2536, -28.6224, -29.9137
2.3, 2, 17.8802, 15.8652, 23.0563, 38.2539, -28.6221, -29.9139
2.304, 2, 17.8806, 15.865, 23.0564, 38.254, -28.6219, -29.914
2.308, 2, 17.8809, 15.8649, 23.0564, 38.2541, -28.6218, -29.9141
2.311, 2, 17.8811, 15.8648, 23.0564, 38.2542, -28.6217, -29.9141
2.316, 2, 17.8813, 15.8647, 23.0564, 38.2543, -28.6216, -29.9142
2.32, 2, 17.8814, 15.8646, 23.0564, 38.2543, -28.6216, -29.9142
2.324, 2, 17.8814, 15.8646, 23.0564, 38.2543, -28.6216, -29.9142
2.328, 2, 17.8815, 15.8646, 23.0564, 38.2543, -28.6216, -29.9142
2.331, 2, 17.8815, 15.8646, 23.0564, 38.2543, -28.6215, -29.9142
2.336, 2, 17.8815, 15.8646, 23.0564, 38.2544, -28.6215, -29.9142
2.34, 2, 17.8815, 15.8646, 23.0564, 38.2544, -28.6215, -29.9142
2.344, 2, 17.8816, 15.8646, 23.0564, 38.2544, -28.6215, -29.9142
2.347, 2, 17.8816, 15.8646, 23.0564, 38.2544, -28.6215, -29.9142
2.352, 2, 17.8816, 15.8646, 23.0564, 38.2544, -28.6215, -29.9142
2.356, 2, 17.8816, 15.8646, 23.0564, 38.2544, -28.6215, -29.9142
2.36, 2, 17.8816, 15.8646, 23.0564, 38.2544, -28.6215, -29.9142
2.364, 2, 17.8816, 15.8645, 23.0564, 38.2544, -28.6215, -29.9142
2.367, 2, 17.8816, 15.8645, 23.0564, 38.2544, -28.6215, -29.9142
2.372, 2, 17.8816, 15.8645, 23.0564, 38.2544, -28.6215, -29.9142
2.376, 2, 17.8816, 15.8645, 23.0564, 38.2544, -28.6215, -29.9142
2.38, 2, 17.8816, 15.8645, 23.0564, 38.2544, -28.6215, -29.9142
2.383, 2, 17.8816, 15.8645, 23.0564, 38.2544, -28.6215, -29.9142
2.388, 2, 17.8816, 15.8645, 23.0564, 38.2544, -28.6215, -29.9142
2.392, 2, 17.8816, 15.8645, 23.0564, 38.2544, -28.6215, -29.9142
2.396, 2, 17.8816, 15.8645, 23.0564, 38.2544, -28.6215, -29.9142
2.4, 2, 17.8816, 15.8645, 23.0564, 38.2544, -28.6215, -29.9142
2.403, 2, 17.8816, 15.8645, 23.0564, 38.2544, -28.6215, -29.9142
2.408, 2, 17.8816, 15.8645, 23.0564, 38.2544, -28.6215, -29.9142
2.412, 2, 17.8816, 15.8645, 23.0564, 38.2544, -28.6215, -29.9142
2.416, 2, 17.8816, 15.8645, 23.0564, 38.2544, -28.6215, -29.9142
2.42, 2, 17.8816, 15.8645, 23.0564, 38.2544, -28.6215, -29.9142
2.423, 2, 17.8816, 15.8645, 23.0564, 38.2544, -28.6215, -29.9142
2.428, 2, 17.8816, 15.8645, 23.0564, 38.2544, -28.6215, -29.9142
2.432, 2, 17.8816, 15.8645, 23.0564, 38.2544, -28.6215, -29.9142
2.436, 2, 17.8816, 15.8645, 23.0564, 38.2544, -28.6215, -29.9142
2.439, 2, 17.8816, 15.8645, 23.0564, 38.2544, -28.6215, -29.9142
2.444, 2, 17.8816, 15.8645, 23.0564, 38.2544, -28.6215, -29.9142
2.448, 2, 17.8816, 15.8645, 23.0564, 38.2544, -28.6215, -29.9142
2.452, 2, 17.8816, 15.8645, 23.0564, 38.2544, -28.6215, -29.9142
2.456, 2, 17.8816, 15.8645, 23.0564, 38.2544, -28.6215, -29.9142
2.459, 2, 17.8816, 15.8645, 23.0564, 38.2544, -28.6215, -29.9142
2.464, 2, 17.8816, 15.8645, 23.0564, 38.2544, -28.6215, -29.9142
2.468, 2, 17.8816, 15.8645, 23.0564, 38.2544, -28.6215, -29.9142
2.472, 2, 17.8816, 15.8645, 23.0564, 38.2544, -28.6215, -29.9142
2.476, 2, 17.8816, 15.8645, 23.0564, 38.2544, -28.6215, -29.9142
2.479, 2, 17.8816, 15.8645, 23.0564, 38.2544, -28.6215, -29.9142
2.484, 2, 17.8816, 15.8645, 23.0564, 38.2544, -28.6215, -29.9142
2.488, 2, 17.8816, 15.8645, 23.0564, 38.2544, -28.6215, -29.9142
2.492, 2, 17.8816, 15.8645, 23.0564, 38.2544, -28.6215, -29.9142
2.495, 2, 17.8816, 15.8645, 23.0564, 38.2544, -28.6215, -29.9142
2.5, 2, 17.8816, 15.8645, 23.0564, 38.2544, -28.6215, -29.9142
2.504, 2, 17.8816, 15.8645, 23.0564, 38.2544, -28.6215, -29.9142
2.508, 2, 17.8816, 15.8645, 23.0564, 38.2544, -28.6215, -29.9142
2.512, 2, 17.8816, 15.8645, 23.0564, 38.2544, -28.6215, -29.9142
2.515, 2, 17.8816, 15.8645, 23.0564, 38.2544, -28.6215, -29.9142
2.52, 2, 17.8816, 15.8645, 23.0564, 38.2544, -28.6215, -29.9142
2.524, 2, 17.8816, 15.8645, 23.0564, 38.2544, -28.6215, -29.9142
2.528, 2, 17.8816, 15.8645, 23.0564, 38.2544, -28.6215, -29.9142
2.531, 2, 17.8816, 15.8645, 23.0564, 38.2544, -28.6215, -29.9142
2.536, 2, 17.8816, 15.8645, 23.0564, 38.2544, -28.6215, -29.9142
2.54, 2, 17.8816, 15.8645, 23.0564, 38.2544, -28.6215, -29.9142
2.544, 2, 17.8816, 15.8645, 23.0564, 38.2544, -28.6215, -29.9142
2.548, 2, 17.8816, 15.8645, 23.0564, 38.2544, -28.6215, -29.9142
2.551, 2, 17.8816, 15.8645, 23.0564, 38.2544, -28.6215, -29.9142
2.556, 2, 17.8816, 15.8645, 23.0564, 38.2544, -28.6215, -29.9142
2.56, 2, 17.8816, 15.8645, 23.0564, 38.2544, -28.6215, -29.9142
2.564, 2, 17.8816, 15.8645, 23.0564, 38.2544, -28.6215, -29.9142
2.568, 2, 17.8816, 15.8645, 23.0564, 38.2544, -28.6215, -29.9142
2.571, 2, 17.8816, 15.8645, 23.0564, 38.2544, -28.6215, -29.9142
2.576, 2, 17.8816, 15.8645, 23.0564, 38.2544, -28.6215, -29.9142
2.58, 2, 17.8816, 15.8645, 23.0564, 38.2544, -28.6215, -29.9142
2.584, 2, 17.8816, 15.8645, 23.0564, 38.2544, -28.6215, -29.9142
2.587, 2, 17.8816, 15.8645, 23.0564, 38.2544, -28.6215, -29.9142
2.592, 2, 17.8816, 15.8645, 23.0564, 38.2544, -28.6215, -29.9142
2.596, 2, 17.8816, 15.8645, 23.0564, 38.2544, -28.6215, -29.9142
2.6, 2, 17.8816, 15.8645, 23.0564, 38.2544, -28.6215, -29.9142
2.604, 2, 17.8816, 15.8645, 23.0564, 38.2544, -28.6215, -29.9142
2.607, 2, 17.8816, 15.8645, 23.0564, 38.2544, -28.6215, -29.9142
2.612, 2, 17.8816, 15.8645, 23.0564, 38.2544, -28.6215, -29.9142
2.616, 2, 17.8816, 15.8645, 23.0564, 38.2544, -28.6215, -29.9142
2.62, 2, 17.8816, 15.8645, 23.0564, 38.2544, -28.6215, -29.9142
2.624, 2, 17.8816, 15.8645, 23.0564, 38.2544, -28.6215, -29.9142
2.627, 2, 17.8816, 15.8645, 23.0564, 38.2544, -28.6215, -29.9142
2.632, 2, 17.8816, 15.8645, 23.0564, 38.2544, -28.6215, -29.9142
2.636, 2, 17.8816, 15.8645, 23.0564, 38.2544, -28.6215, -29.9142
2.64, 2, 17.8816, 15.8645, 23.0564, 38.2544, -28.6215, -29.9142
2.643, 2, 17.8816, 15.8645, 23.0564, 38.2544, -28.6215, -29.9142
2.648, 2, 17.8816, 15.8645, 23.0564, 38.2544, -28.6215, -29.9142
2.652, 2, 17.8816, 15.8645, 23.0564, 38.2544, -28.6215, -29.9142
2.656, 2, 17.8816, 15.8645, 23.0564, 38.2544, -28.6215, -29.9142
2.66, 2, 17.8816, 15.8645, 23.0564, 38.2544, -28.6215, -29.9142
2.663, 2, 17.8816, 15.8645, 23.0564, 38.2544, -28.6215, -29.9142
2.668, 2, 17.8816, 15.8645, 23.0564, 38.2544, -28.6215, -29.9142
2.672, 2, 17.8816, 15.8645, 23.0564, 38.2544, -28.6215, -29.9142
2.676, 2, 17.8816, 15.8645, 23.0564, 38.2544, -28.6215, -29.9142
2.679, 2, 17.8816, 15.8645, 23.0564, 38.2544, -28.6215, -29.9142
2.684, 2, 17.8816, 15.8645, 23.0564, 38.2544, -28.6215, -29.9142
2.688, 2, 17.8816, 15.8645, 23.0564, 38.2544, -28.6215, -29.9142
2.692, 2, 17.8816, 15.8645, 23.0564, 38.2544, -28.6215, -29.9142
2.696, 2, 17.8816, 15.8645, 23.0564, 38.2544, -28.6215, -29.9142
2.699, 2, 17.8816, 15.8645, 23.0564, 38.2544, -28.6215, -29.9142
2.704, 2, 17.8816, 15.8645, 23.0564, 38.2544, -28.6215, -29.9142
2.708, 2, 17.8816, 15.8645, 23.0564, 38.2544, -28.6215, -29.9142
2.712, 2, 17.8816, 15.8645, 23.0564, 38.2544, -28.6215, -29.9142
2.716, 2, 17.8816, 15.8645, 23.0564, 38.2544, -28.6215, -29.9142
2.719, 2, 17.8816, 15.8645, 23.0564, 38.2544, -28.6215, -29.9142
2.724, 2, 17.8816, 15.8645, 23.0564, 38.2544, -28.6215, -29.9142
2.728, 2, 17.8816, 15.8645, 23.0564, 38.2544, -28.6215, -29.9142
2.732, 2, 17.8816, 15.8645, 23.0564, 38.2544, -28.6215, -29.9142
2.735, 2, 17.8816, 15.8645, 23.0564, 38.2544, -28.6215, -29.9142
2.74, 2, 17.8816, 15.8645, 23.0564, 38.2544, -28.6215, -29.9142
2.744, 2, 17.8816, 15.8645, 23.0564, 38.2544, -28.6215, -29.9142
2.748, 2, 17.8816, 15.8645, 23.0564, 38.2544, -28.6215, -29.9142
2.752, 2, 17.8816, 15.8645, 23.0564, 38.2544, -28.6215, -29.9142
2.755, 2, 17.8816, 15.8645, 23.0564, 38.2544, -28.6215, -29.9142
2.76, 2, 17.8816, 15.8645, 23.0564, 38.2544, -28.6215, -29.9142
2.764, 2, 17.8816, 15.8645, 23.0564, 38.2544, -28.6215, -29.9142
2.768, 2, 17.8816, 15.8645, 23.0564, 38.2544, -28.6215, -29.9142
2.772, 2, 17.8816, 15.8645, 23.0564, 38.2544, -28.6215, -29.9142
2.775, 2, 17.8816, 15.8645, 23.0564, 38.2544, -28.6215, -29.9142
2.78, 2, 17.8816, 15.8645, 23.0564, 38.2544, -28.6215, -29.9142
2.784, 2, 17.8816, 15.8645, 23.0564, 38.2544, -28.6215, -29.9142
2.788, 2, 17.8816, 15.8645, 23.0564, 38.2544, -28.6215, -29.9142
2.791, 2, 17.8816, 15.8645, 23.0564, 38.2544, -28.6215, -29.9142
2.796, 2, 17.8816, 15.8645, 23.0564, 38.2544, -28.6215, -29.9142
2.8, 2, 17.8816, 15.8645, 23.0564, 38.2544, -28.6215, -29.9142
2.804, 2, 17.8816, 15.8645, 23.0564, 38.2544, -28.6215, -29.9142
2.808, 2, 17.8816, 15.8645, 23.0564, 38.2544, -28.6215, -29.9142
2.811, 2, 17.8816, 15.8645, 23.0564, 38.2544, -28.6215, -29.9142
2.816, 2, 17.8816, 15.8645, 23.0564, 38.2544, -28.6215, -29.9142
2.82, 2, 17.8816, 15.8645, 23.0564, 38.2544, -28.6215, -29.9142
2.824, 2, 17.8816, 15.8645, 23.0564, 38.2544, -28.6215, -29.9142
2.828, 2, 17.8816, 15.8645, 23.0564, 38.2544, -28.6215, -29.9142
2.831, 2, 17.8816, 15.8645, 23.0564, 38.2544, -28.6215, -29.9142
2.836, 2, 17.8816, 15.8645, 23.0564, 38.2544, -28.6215, -29.9142
2.84, 2, 17.8816, 15.8645, 23.0564, 38.2544, -28.6215, -29.9142
2.844, 2, 17.8816, 15.8645, 23.0564, 38.2544, -28.6215, -29.9142
2.847, 2, 17.8816, 15.8645, 23.0564, 38.2544, -28.6215, -29.9142
2.852, 2, 17.8816, 15.8645, 23.0564, 38.2544, -28.6215, -29.9142
2.856, 2, 17.8816, 15.8645, 23.0564, 38.2544, -28.6215, -29.9142
2.86, 2, 17.8816, 15.8645, 23.0564, 38.2544, -28.6215, -29.9142
2.864, 2, 17.8816, 15.8645, 23.0564, 38.2544, -28.6215, -29.9142
2.867, 2, 17.8816, 15.8645, 23.0564, 38.2544, -28.6215, -29.9142
2.872, 2, 17.8816, 15.8645, 23.0564, 38.2544, -28.6215, -29.9142
2.876, 2, 17.8816, 15.8645, 23.0564, 38.2544, -28.6215, -29.9142
2.88, 2, 17.8816, 15.8645, 23.0564, 38.2544, -28.6215, -29.9142
2.883, 2, 17.8816, 15.8645, 23.0564, 38.2544, -28.6215, -29.9142
2.888, 2, 17.8816, 15.8645, 23.0564, 38.2544, -28.6215, -29.9142
2.892, 2, 17.8816, 15.8645, 23.0564, 38.2544, -28.6215, -29.9142
2.896, 2, 17.8816, 15.8645, 23.0564, 38.2544, -28.6215, -29.9142
2.9, 2, 17.8816, 15.8645, 23.0564, 38.2544, -28.6215, -29.9142
2.903, 2, 17.8816, 15.8645, 23.0564, 38.2544, -28.6215, -29.9142
2.908, 2, 17.8816, 15.8645, 23.0564, 38.2544, -28.6215, -29.9142
2.912, 2, 17.8816, 15.8645, 23.0564, 38.2544, -28.6215, -29.9142
2.916, 2, 17.8816, 15.8645, 23.0564, 38.2544, -28.6215, -29.9142
2.92, 2, 17.8816, 15.8645, 23.0564, 38.2544, -28.6215, -29.9142
2.923, 2, 17.8816, 15.8645, 23.0564, 38.2544, -28.6215, -29.9142
2.928, 2, 17.8816, 15.8645, 23.0564, 38.2544, -28.6215, -29.9142
2.932, 2, 17.8816, 15.8645, 23.0564, 38.2544, -28.6215, -29.9142
2.936, 2, 17.8816, 15.8645, 23.0564, 38.2544, -28.6215, -29.9142
2.939, 2, 17.8816, 15.8645, 23.0564, 38.2544, -28.6215, -29.9142
2.944, 2, 17.8816, 15.8645, 23.0564, 38.2544, -28.6215, -29.9142
2.948, 2, 17.8816, 15.8645, 23.0564, 38.2544, -28.6215, -29.9142
2.952, 2, 17.8816, 15.8645, 23.0564, 38.2544, -28.6215, -29.9142
2.956, 2, 17.8816, 15.8645, 23.0564, 38.2544, -28.6215, -29.9142
2.959, 2, 17.8816, 15.8645, 23.0564, 38.2544, -28.6215, -29.9142
2.964, 2, 17.8816, 15.8645, 23.0564, 38.2544, -28.6215, -29.9142
2.968, 2, 17.8816, 15.8645, 23.0564, 38.2544, -28.6215, -29.9142
2.972, 2, 17.8816, 15.8645, 23.0564, 38.2544, -28.6215, -29.9142
2.976, 2, 17.8816, 15.8645, 23.0564, 38.2544, -28.6215, -29.9142
2.98, 2, 17.8816, 15.8645, 23.0564, 38.2544, -28.6215, -29.9142
2.984, 2, 17.8816, 15.8645, 23.0564, 38.2544, -28.6215, -29.9142
2.988, 2, 17.8816, 15.8645, 23.0564, 38.2544, -28.6215, -29.9142
2.992, 2, 17.8816, 15.8645, 23.0564, 38.2544, -28.6215, -29.9142
2.995, 2, 17.8816, 15.8645, 23.0564, 38.2544, -28.6215, -29.9142
3, 2, 17.8816, 15.8645, 23.0564, 38.2544, -28.6215, -29.9142
3.004, 2, 17.8816, 15.8645, 23.0564, 38.2544, -28.6215, -29.9142
3.008, 2, 17.8816, 15.8645, 23.0564, 38.2544, -28.6215, -29.9142
3.012, 2, 17.8816, 15.8645, 23.0564, 38.2544, -28.6215, -29.9142
3.015, 2, 17.8816, 15.8645, 23.0564, 38.2544, -28.6215, -29.9142
3.02, 2, 17.8816, 15.8645, 23.0564, 38.2544, -28.6215, -29.9142
3.024, 2, 17.8816, 15.8645, 23.0564, 38.2544, -28.6215, -29.9142
3.028, 2, 17.8816, 15.8645, 23.0564, 38.2544, -28.6215, -29.9142
3.031, 2, 17.8816, 15.8645, 23.0564, 38.2544, -28.6215, -29.9142
3.036, 2, 17.8816, 15.8645, 23.0564, 38.2544, -28.6215, -29.9142
3.04, 2, 17.8816, 15.8645, 23.0564, 38.2544, -28.6215, -29.9142
3.044, 2, 17.8816, 15.8645, 23.0564, 38.2544, -28.6215, -29.9142
3.048, 2, 17.8816, 15.8645, 23.0564, 38.2544, -28.6215, -29.9142
3.051, 2, 17.8816, 15.8645, 23.0564, 38.2544, -28.6215, -29.9142
3.056, 2, 17.8816, 15.8645, 23.0564, 38.2544, -28.6215, -29.9142
3.06, 2, 17.8816, 15.8645, 23.0564, 38.2544, -28.6215, -29.9142
3.064, 2, 17.8816, 15.8645, 23.0564, 38.2544, -28.6215, -29.9142
3.068, 2, 17.8816, 15.8645, 23.0564, 38.2544, -28.6215, -29.9142
3.071, 2, 17.8816, 15.8645, 23.0564, 38.2544, -28.6215, -29.9142
3.076, 2, 17.8816, 15.8645, 23.0564, 38.2544, -28.6215, -29.9142
3.08, 2, 17.8816, 15.8645, 23.0564, 38.2544, -28.6215, -29.9142
3.084, 2, 17.8816, 15.8645, 23.0564, 38.2544, -28.6215, -29.9142
3.087, 2, 17.8816, 15.8645, 23.0564, 38.2544, -28.6215, -29.9142
3.092, 2, 17.8816, 15.8645, 23.0564, 38.2544, -28.6215, -29.9142
3.096, 2, 17.8816, 15.8645, 23.0564, 38.2544, -28.6215, -29.9142
3.1, 2, 17.8816, 15.8645, 23.0564, 38.2544, -28.6215, -29.9142
3.104, 2, 17.8816, 15.8645, 23.0564, 38.2544, -28.6215, -29.9142
3.107, 2, 17.8816, 15.8645, 23.0564, 38.2544, -28.6215, -29.9142
3.112, 2, 17.8816, 15.8645, 23.0564, 38.2544, -28.6215, -29.9142
3.116, 2, 17.8816, 15.8645, 23.0564, 38.2544, -28.6215, -29.9142
3.12, 2, 17.8816, 15.8645, 23.0564, 38.2544, -28.6215, -29.9142
3.124, 2, 17.8816, 15.8645, 23.0564, 38.2544, -28.6215, -29.9142
3.128, 2, 17.8816, 15.8645, 23.0564, 38.2544, -28.6215, -29.9142
3.132, 2, 17.8816, 15.8645, 23.0564, 38.2544, -28.6215, -29.9142
3.136, 2, 17.8816, 15.8645, 23.0564, 38.2544, -28.6215, -29.9142
3.14, 2, 17.8816, 15.8645, 23.0564, 38.2544, -28.6215, -29.9142
3.143, 2, 17.8816, 15.8645, 23.0564, 38.2544, -28.6215, -29.9142
3.148, 2, 17.8816, 15.8645, 23.0564, 38.2544, -28.6215, -29.9142
3.152, 2, 17.8816, 15.8645, 23.0564, 38.2544, -28.6215, -29.9142
3.156, 2, 17.8816, 15.8645, 23.0564, 38.2544, -28.6215, -29.9142
3.16, 2, 17.8816, 15.8645, 23.0564, 38.2544, -28.6215, -29.9142
3.163, 2, 17.8816, 15.8645, 23.0564, 38.2544, -28.6215, -29.9142
3.168, 2, 17.8816, 15.8645, 23.0564, 38.2544, -28.6215, -29.9142
3.172, 2, 17.8816, 15.8645, 23.0564, 38.2544, -28.6215, -29.9142
3.176, 2, 17.8816, 15.8645, 23.0564, 38.2544, -28.6215, -29.9142
3.179, 2, 17.8816, 15.8645, 23.0564, 38.2544, -28.6215, -29.9142
3.184, 2, 17.8816, 15.8645, 23.0564, 38.2544, -28.6215, -29.9142
3.188, 2, 17.8816, 15.8645, 23.0564, 38.2544, -28.6215, -29.9142
3.192, 2, 17.8816, 15.8645, 23.0564, 38.2544, -28.6215, -29.9142
3.196, 2, 17.8816, 15.8645, 23.0564, 38.2544, -28.6215, -29.9142
3.199, 2, 17.8816, 15.8645, 23.0564, 38.2544, -28.6215, -29.9142
3.204, 2, 17.8816, 15.8645, 23.0564, 38.2544, -28.6215, -29.9142
3.208, 2, 17.8816, 15.8645, 23.0564, 38.2544, -28.6215, -29.9142
3.212, 2, 17.8816, 15.8645, 23.0564, 38.2544, -28.6215, -29.9142
3.216, 2, 17.8816, 15.8645, 23.0564, 38.2544, -28.6215, -29.9142
3.22, 2, 17.8816, 15.8645, 23.0564, 38.2544, -28.6215, -29.9142
3.224, 2, 17.8816, 15.8645, 23.0564, 38.2544, -28.6215, -29.9142
3.228, 2, 17.8816, 15.8645, 23.0564, 38.2544, -28.6215, -29.9142
3.232, 2, 17.8816, 15.8645, 23.0564, 38.2544, -28.6215, -29.9142
3.235, 2, 17.8816, 15.8645, 23.0564, 38.2544, -28.6215, -29.9142
3.24, 2, 17.8816, 15.8645, 23.0564, 38.2544, -28.6215, -29.9142
3.244, 2, 17.8816, 15.8645, 23.0564, 38.2544, -28.6215, -29.9142
3.248, 2, 17.8816, 15.8645, 23.0564, 38.2544, -28.6215, -29.9142
3.252, 2, 17.8816, 15.8645, 23.0564, 38.2544, -28.6215, -29.9142
3.255, 2, 17.8816, 15.8645, 23.0564, 38.2544, -28.6215, -29.9142
3.26, 2, 17.8816, 15.8645, 23.0564, 38.2544, -28.6215, -29.9142
3.264, 2, 17.8816, 15.8645, 23.0564, 38.2544, -28.6215, -29.9142
3.268, 2, 17.8816, 15.8645, 23.0564, 38.2544, -28.6215, -29.9142
3.272, 2, 17.8816, 15.8645, 23.0564, 38.2544, -28.6215, -29.9142
3.276, 2, 17.8816, 15.8645, 23.0564, 38.2544, -28.6215, -29.9142
3.28, 2, 17.8816, 15.8645, 23.0564, 38.2544, -28.6215, -29.9142
3.284, 2, 17.8816, 15.8645, 23.0564, 38.2544, -28.6215, -29.9142
3.288, 2, 17.8816, 15.8645, 23.0564, 38.2544, -28.6215, -29.9142
3.291, 2, 17.8816, 15.8645, 23.0564, 38.2544, -28.6215, -29.9142
3.296, 2, 17.8816, 15.8645, 23.0564, 38.2544, -28.6215, -29.9142
3.3, 2, 17.8816, 15.8645, 23.0564, 38.2544, -28.6215, -29.9142
3.304, 2, 17.8816, 15.8645, 23.0564, 38.2544, -28.6215, -29.9142
3.308, 2, 17.8816, 15.8645, 23.0564, 38.2544, -28.6215, -29.9142
3.312, 2, 17.8816, 15.8645, 23.0564, 38.2544, -28.6215, -29.9142
3.316, 2, 17.8816, 15.8645, 23.0564, 38.2544, -28.6215, -29.9142
3.32, 2, 17.8816, 15.8645, 23.0564, 38.2544, -28.6215, -29.9142
3.324, 2, 17.8816, 15.8645, 23.0564, 38.2544, -28.6215, -29.9142
3.328, 2, 17.8816, 15.8645, 23.0564, 38.2544, -28.6215, -29.9142
3.332, 2, 17.8816, 15.8645, 23.0564, 38.2544, -28.6215, -29.9142
3.336, 2, 17.8816, 15.8645, 23.0564, 38.2544, -28.6215, -29.9142
3.34, 2, 17.8816, 15.8645, 23.0564, 38.2544, -28.6215, -29.9142
3.344, 2, 17.8816, 15.8645, 23.0564, 38.2544, -28.6215, -29.9142
3.347, 2, 17.8816, 15.8645, 23.0564, 38.2544, -28.6215, -29.9142
3.352, 4, 17.8816, 15.8645, 23.0564, 38.2544, -28.6215, -29.9142
3.356, 4, 17.8816, 15.8645, 23.0564, 38.2544, -28.6215, -29.9142
3.36, 4, 17.8816, 15.8645, 23.0564, 38.2544, -28.6215, -29.9142
3.364, 4, 17.8816, 15.8645, 23.0564, 38.2544, -28.6215, -29.9142
3.368, 4, 17.8816, 15.8645, 23.0564, 38.2544, -28.6215, -29.9142
3.372, 4, 17.8816, 15.8645, 23.0564, 38.2544, -28.6215, -29.9142
3.376, 4, 17.8816, 15.8645, 23.0564, 38.2544, -28.6215, -29.9142
3.38, 4, 17.8816, 15.8645, 23.0564, 38.2544, -28.6215, -29.9142
3.383, 4, 17.8816, 15.8645, 23.0564, 38.2544, -28.6215, -29.9142
3.388, 4, 17.8816, 15.8645, 23.0564, 38.2544, -28.6215, -29.9142
3.392, 4, 17.8816, 15.8645, 23.0564, 38.2544, -28.6215, -29.9142
3.396, 4, 17.8816, 15.8645, 23.0564, 38.2544, -28.6215, -29.9142
3.4, 4, 17.8816, 15.8645, 23.0564, 38.2544, -28.6215, -29.9142
3.403, 4, 17.8816, 15.8645, 23.0564, 38.2544, -28.6215, -29.9142
3.408, 4, 17.8816, 15.8645, 23.0564, 38.2544, -28.6215, -29.9142
3.412, 4, 17.8816, 15.8645, 23.0564, 38.2544, -28.6215, -29.9142
3.416, 4, 17.8816, 15.8645, 23.0564, 38.2544, -28.6215, -29.9142
3.42, 4, 17.8816, 15.8645, 23.0564, 38.2544, -28.6215, -29.9142
3.424, 4, 17.8816, 15.8645, 23.0564, 38.2544, -28.6215, -29.9142
3.428, 4, 17.8816, 15.8645, 23.0564, 38.2544, -28.6215, -29.9142
3.432, 4, 17.8816, 15.8645, 23.0564, 38.2544, -28.6215, -29.9142
3.436, 4, 17.8816, 15.8645, 23.0564, 38.2544, -28.6215, -29.9142
3.439, 4, 17.8816, 15.8645, 23.0564, 38.2544, -28.6215, -29.9142
3.444, 4, 17.8816, 15.8645, 23.0564, 38.2544, -28.6215, -29.9142
3.448, 4, 17.8816, 15.8645, 23.0564, 38.2544, -28.6215, -29.9142
3.452, 4, 17.8816, 15.8645, 23.0564, 38.2544, -28.6215, -29.9142
3.456, 4, 17.8816, 15.8645, 23.0564, 38.2544, -28.6215, -29.9142
3.46, 4, 17.8816, 15.8645, 23.0564, 38.2544, -28.6215, -29.9142
3.464, 4, 17.8816, 15.8645, 23.0564, 38.2544, -28.6215, -29.9142
3.468, 4, 17.8816, 15.8645, 23.0564, 38.2544, -28.6215, -29.9142
3.472, 4, 17.8816, 15.8645, 23.0564, 38.2544, -28.6215, -29.9142
3.476, 4, 17.8816, 15.8645, 23.0564, 38.2544, -28.6215, -29.9142
3.48, 4, 17.8816, 15.8645, 23.0564, 38.2544, -28.6215, -29.9142
3.484, 4, 17.8815, 15.8645, 23.0564, 38.2544, -28.6215, -29.9142
3.488, 4, 17.8812, 15.8645, 23.0564, 38.2543, -28.6215, -29.9142
3.492, 4, 17.8806, 15.8645, 23.0565, 38.2542, -28.6216, -29.9141
3.495, 4, 17.8793, 15.8645, 23.0566, 38.2539, -28.6217, -29.9139
3.5, 4, 17.8773, 15.8644, 23.0569, 38.2532, -28.6219, -29.9133
3.504, 4, 17.8745, 15.8643, 23.0576, 38.2517, -28.6225, -29.912
3.508, 4, 17.8706, 15.864, 23.0586, 38.2489, -28.6235, -29.9095
3.512, 4, 17.8657, 15.8636, 23.0603, 38.2441, -28.6252, -29.9053
3.516, 4, 17.8595, 15.863, 23.063, 38.2364, -28.628, -29.8984
3.52, 4, 17.8519, 15.862, 23.067, 38.2246, -28.6323, -29.8881
3.524, 5, 17.8425, 15.8607, 23.0726, 38.2075, -28.6384, -29.873
3.528, 5, 17.8311, 15.8589, 23.0804, 38.1837, -28.647, -29.852
3.531, 5, 17.8174, 15.8565, 23.0908, 38.1514, -28.6586, -29.8234
3.536, 5, 17.801, 15.8533, 23.1043, 38.1089, -28.674, -29.7858
3.54, 5, 17.7821, 15.8494, 23.1216, 38.0544, -28.6938, -29.7376
3.544, 5, 17.7607, 15.8444, 23.143, 37.986, -28.7187, -29.6771
3.548, 5, 17.7368, 15.8384, 23.1691, 37.9022, -28.7493, -29.603
3.552, 5, 17.7105, 15.8313, 23.2001, 37.8019, -28.7861, -29.5142
3.556, 5, 17.6816, 15.823, 23.2364, 37.6842, -28.8295, -29.4101
3.56, 5, 17.6501, 15.8135, 23.278, 37.5489, -28.8796, -29.2903
3.564, 5, 17.6158, 15.8028, 23.3249, 37.3961, -28.9365, -29.1552
3.568, 5, 17.5787, 15.7909, 23.3769, 37.2264, -29.0001, -29.0052
3.572, 5, 17.5388, 15.778, 23.4339, 37.041, -29.07, -28.8413
3.576, 5, 17.4962, 15.7642, 23.4953, 36.841, -29.1458, -28.6647
3.58, 5, 17.4511, 15.7495, 23.5608, 36.6281, -29.2271, -28.4767
3.584, 5, 17.4038, 15.7341, 23.6298, 36.404, -29.3133, -28.279
3.587, 5, 17.3544, 15.7181, 23.7017, 36.1708, -29.4036, -28.0734
3.592, 5, 17.3028, 15.7017, 23.7761, 35.9303, -29.4976, -27.8615
3.596, 5, 17.249, 15.6851, 23.8524, 35.6845, -29.5945, -27.645
3.6, 5, 17.1932, 15.6683, 23.93, 35.4349, -29.6937, -27.4255
3.604, 5, 17.1353, 15.6514, 24.0087, 35.183, -29.7948, -27.2041
3.608, 5, 17.0757, 15.6345, 24.088, 34.93, -29.8974, -26.9818
3.612, 5, 17.0146, 15.6178, 24.1676, 34.6765, -30.0011, -26.7594
3.616, 5, 16.9523, 15.6012, 24.2475, 34.4233, -30.1058, -26.5374
3.62, 5, 16.8892, 15.5849, 24.3273, 34.1708, -30.2112, -26.3162
3.624, 5, 16.8256, 15.5687, 24.4071, 33.9191, -30.3173, -26.0959
3.628, 5, 16.7615, 15.5527, 24.4868, 33.6685, -30.4241, -25.8769
3.632, 5, 16.697, 15.5371, 24.5663, 33.4191, -30.5314, -25.659
3.636, 5, 16.6324, 15.5216, 24.6455, 33.171, -30.6392, -25.4425
3.64, 5, 16.5675, 15.5064, 24.7246, 32.9243, -30.7476, -25.2274
3.644, 5, 16.5025, 15.4915, 24.8034, 32.6789, -30.8564, -25.0136
3.648, 5, 16.4373, 15.4769, 24.8819, 32.4349, -30.9657, -24.8013
3.652, 5, 16.3721, 15.4625, 24.9602, 32.1923, -31.0754, -24.5904
3.656, 5, 16.3067, 15.4483, 25.0382, 31.951, -31.1856, -24.3808
3.66, 5, 16.2412, 15.4345, 25.1159, 31.7112, -31.2963, -24.1728
3.664, 5, 16.1756, 15.4209, 25.1934, 31.4728, -31.4074, -23.9661
3.668, 5, 16.1098, 15.4076, 25.2706, 31.2357, -31.5189, -23.7608
3.672, 5, 16.0441, 15.3946, 25.3475, 31.0001, -31.6309, -23.5569
3.676, 5, 15.9782, 15.3818, 25.4241, 30.7658, -31.7433, -23.3544
3.679, 5, 15.9122, 15.3693, 25.5005, 30.5328, -31.8561, -23.1533
3.684, 5, 15.8461, 15.3571, 25.5766, 30.3012, -31.9693, -22.9536
3.688, 5, 15.7799, 15.3451, 25.6524, 30.071, -32.0829, -22.7552
3.692, 5, 15.7137, 15.3334, 25.7279, 29.8421, -32.197, -22.5582
3.696, 5, 15.6474, 15.322, 25.8031, 29.6145, -32.3114, -22.3626
3.7, 5, 15.5809, 15.3109, 25.8781, 29.3883, -32.4263, -22.1683
3.704, 5, 15.5144, 15.3001, 25.9527, 29.1634, -32.5415, -21.9753
3.708, 5, 15.4478, 15.2895, 26.0271, 28.9397, -32.6571, -21.7836
3.712, 5, 15.3811, 15.2792, 26.1012, 28.7174, -32.7732, -21.5933
3.716, 5, 15.3143, 15.2692, 26.1751, 28.4963, -32.8896, -21.4042
3.72, 5, 15.2474, 15.2594, 26.2486, 28.2765, -33.0064, -21.2165
3.724, 5, 15.1805, 15.2499, 26.3219, 28.058, -33.1235, -21.03
3.728, 5, 15.1134, 15.2407, 26.3949, 27.8408, -33.2411, -20.8448
3.732, 5, 15.0463, 15.2318, 26.4676, 27.6248, -33.359, -20.6609
3.735, 5, 14.9791, 15.2231, 26.54, 27.41, -33.4773, -20.4782
3.74, 5, 14.9118, 15.2147, 26.6122, 27.1965, -33.5959, -20.2968
3.744, 5, 14.8444, 15.2066, 26.684, 26.9842, -33.7149, -20.1167
3.748, 5, 14.7769, 15.1988, 26.7556, 26.7731, -33.8343, -19.9377
3.752, 5, 14.7093, 15.1912, 26.8269, 26.5632, -33.954, -19.76
3.756, 5, 14.6417, 15.184, 26.898, 26.3545, -34.0741, -19.5836
3.76, 5, 14.574, 15.1769, 26.9687, 26.1471, -34.1945, -19.4083
3.764, 5, 14.5061, 15.1702, 27.0392, 25.9407, -34.3153, -19.2342
3.768, 5, 14.4382, 15.1637, 27.1094, 25.7356, -34.4364, -19.0614
3.772, 5, 14.3702, 15.1575, 27.1793, 25.5317, -34.5579, -18.8897
3.776, 5, 14.3022, 15.1516, 27.2489, 25.3288, -34.6797, -18.7192
3.78, 5, 14.234, 15.146, 27.3183, 25.1272, -34.8018, -18.5498
3.784, 5, 14.1658, 15.1406, 27.3874, 24.9267, -34.9243, -18.3817
3.788, 5, 14.0974, 15.1355, 27.4562, 24.7273, -35.0471, -18.2146
3.792, 5, 14.029, 15.1307, 27.5247, 24.529, -35.1702, -18.0487
3.796, 5, 13.9605, 15.1261, 27.5929, 24.3319, -35.2937, -17.884
3.8, 5, 13.892, 15.1219, 27.6609, 24.1359, -35.4174, -17.7204
3.804, 5, 13.8233, 15.1179, 27.7286, 23.9409, -35.5415, -17.5579
3.808, 5, 13.7546, 15.1142, 27.7959, 23.7471, -35.6659, -17.3965
3.812, 5, 13.6858, 15.1107, 27.863, 23.5543, -35.7906, -17.2362
3.816, 5, 13.6169, 15.1076, 27.9299, 23.3626, -35.9156, -17.077
3.82, 5, 13.5479, 15.1047, 27.9964, 23.172, -36.0409, -16.9189
3.824, 5, 13.4788, 15.1021, 28.0627, 22.9824, -36.1665, -16.7618
3.828, 5, 13.4097, 15.0998, 28.1286, 22.7939, -36.2924, -16.6058
3.832, 5, 13.3405, 15.0977, 28.1943, 22.6064, -36.4186, -16.4509
3.836, 5, 13.2712, 15.0959, 28.2597, 22.4199, -36.5451, -16.297
3.84, 5, 13.2018, 15.0944, 28.3248, 22.2344, -36.6719, -16.1442
3.844, 5, 13.1323, 15.0932, 28.3896, 22.05, -36.799, -15.9923
3.848, 5, 13.0628, 15.0923, 28.4541, 21.8665, -36.9263, -15.8415
3.852, 5, 12.9932, 15.0917, 28.5184, 21.6841, -37.0539, -15.6917
3.856, 5, 12.9235, 15.0913, 28.5823, 21.5026, -37.1818, -15.543
3.86, 5, 12.8537, 15.0912, 28.646, 21.3221, -37.31, -15.3952
3.864, 5, 12.7839, 15.0914, 28.7093, 21.1426, -37.4384, -15.2484
3.868, 5, 12.7139, 15.0919, 28.7724, 20.964, -37.5672, -15.1026
3.872, 5, 12.6439, 15.0926, 28.8352, 20.7864, -37.6961, -14.9577
3.876, 5, 12.5739, 15.0936, 28.8977, 20.6097, -37.8254, -14.8138
3.88, 5, 12.5037, 15.0949, 28.9599, 20.434, -37.9549, -14.6709
3.884, 5, 12.4335, 15.0965, 29.0218, 20.2592, -38.0847, -14.529
3.888, 5, 12.3632, 15.0984, 29.0835, 20.0853, -38.2147, -14.3879
3.892, 5, 12.2928, 15.1006, 29.1448, 19.9124, -38.345, -14.2478
3.896, 5, 12.2223, 15.103, 29.2058, 19.7403, -38.4755, -14.1087
3.9, 5, 12.1518, 15.1057, 29.2666, 19.5692, -38.6063, -13.9705
3.904, 5, 12.0812, 15.1087, 29.327, 19.399, -38.7373, -13.8332
3.908, 5, 12.0105, 15.112, 29.3872, 19.2296, -38.8685, -13.6968
3.912, 5, 11.9398, 15.1156, 29.4471, 19.0612, -39.0001, -13.5613
3.916, 5, 11.869, 15.1194, 29.5067, 18.8936, -39.1318, -13.4267
3.92, 5, 11.7981, 15.1236, 29.566, 18.7269, -39.2638, -13.293
3.924, 5, 11.7271, 15.128, 29.625, 18.561, -39.396, -13.1602
3.928, 5, 11.656, 15.1326, 29.6837, 18.396, -39.5285, -13.0282
3.932, 5, 11.5849, 15.1376, 29.7421, 18.2319, -39.6612, -12.8972
3.936, 5, 11.5138, 15.1429, 29.8002, 18.0686, -39.7941, -12.767
3.94, 5, 11.4425, 15.1484, 29.858, 17.9062, -39.9273, -12.6376
3.944, 5, 11.3712, 15.1542, 29.9156, 17.7446, -40.0607, -12.5092
3.948, 5, 11.2998, 15.1603, 29.9728, 17.5838, -40.1943, -12.3815
3.952, 5, 11.2283, 15.1667, 30.0298, 17.4238, -40.3281, -12.2548
3.956, 5, 11.1568, 15.1733, 30.0864, 17.2647, -40.4622, -12.1288
3.96, 5, 11.0851, 15.1803, 30.1428, 17.1064, -40.5964, -12.0037
3.964, 5, 11.0135, 15.1875, 30.1989, 16.9489, -40.7309, -11.8794
3.968, 5, 10.9417, 15.195, 30.2547, 16.7922, -40.8657, -11.756
3.972, 5, 10.8699, 15.2028, 30.3101, 16.6363, -41.0006, -11.6334
3.976, 5, 10.798, 15.2109, 30.3653, 16.4811, -41.1357, -11.5115
3.98, 5, 10.7261, 15.2192, 30.4202, 16.3268, -41.2711, -11.3905
3.984, 5, 10.654, 15.2278, 30.4748, 16.1733, -41.4066, -11.2703
3.988, 5, 10.5819, 15.2368, 30.5291, 16.0205, -41.5424, -11.1509
3.992, 5, 10.5098, 15.246, 30.5831, 15.8685, -41.6783, -11.0323
3.996, 5, 10.4376, 15.2554, 30.6368, 15.7172, -41.8145, -10.9144
3.999, 5, 10.3653, 15.2652, 30.6903, 15.5667, -41.9509, -10.7973
4.004, 5, 10.2929, 15.2752, 30.7434, 15.417, -42.0874, -10.681
4.008, 5, 10.2205, 15.2856, 30.7962, 15.268, -42.2242, -10.5655
4.012, 5, 10.148, 15.2962, 30.8487, 15.1197, -42.3611, -10.4507
4.016, 5, 10.0755, 15.3071, 30.9009, 14.9721, -42.4982, -10.3366
4.02, 5, 10.0029, 15.3183, 30.9528, 14.8253, -42.6356, -10.2233
4.024, 5, 9.93019, 15.3297, 31.0045, 14.6792, -42.7731, -10.1107
4.028, 5, 9.85746, 15.3414, 31.0558, 14.5338, -42.9107, -9.99886
4.032, 5, 9.78466, 15.3535, 31.1068, 14.3891, -43.0486, -9.88772
4.036, 5, 9.7118, 15.3658, 31.1575, 14.2451, -43.1867, -9.77731
4.04, 5, 9.63887, 15.3784, 31.208, 14.1017, -43.3249, -9.6676
4.044, 5, 9.56589, 15.3912, 31.2581, 13.9591, -43.4633, -9.55859
4.048, 5, 9.49285, 15.4044, 31.3079, 13.8171, -43.6018, -9.45028
4.052, 5, 9.41974, 15.4178, 31.3574, 13.6758, -43.7406, -9.34266
4.056, 5, 9.34658, 15.4315, 31.4066, 13.5352, -43.8794, -9.23572
4.06, 5, 9.27336, 15.4455, 31.4556, 13.3952, -44.0185, -9.12947
4.064, 5, 9.20008, 15.4597, 31.5042, 13.2559, -44.1577, -9.02388
4.068, 5, 9.12674, 15.4743, 31.5525, 13.1172, -44.2971, -8.91897
4.072, 5, 9.05335, 15.4891, 31.6005, 12.9792, -44.4367, -8.81472
4.076, 5, 8.97989, 15.5042, 31.6482, 12.8418, -44.5764, -8.71113
4.08, 5, 8.90639, 15.5196, 31.6956, 12.705, -44.7162, -8.60819
4.084, 5, 8.83282, 15.5353, 31.7427, 12.5689, -44.8562, -8.5059
4.088, 5, 8.7592, 15.5512, 31.7895, 12.4334, -44.9964, -8.40425
4.092, 5, 8.68553, 15.5674, 31.836, 12.2985, -45.1367, -8.30324
4.096, 5, 8.6118, 15.5839, 31.8822, 12.1643, -45.2771, -8.20287
4.1, 5, 8.53801, 15.6007, 31.9281, 12.0306, -45.4177, -8.10312
4.104, 5, 8.46418, 15.6178, 31.9737, 11.8975, -45.5585, -8.004
4.108, 5, 8.39029, 15.6351, 32.019, 11.7651, -45.6994, -7.9055
4.112, 5, 8.31634, 15.6527, 32.0639, 11.6332, -45.8404, -7.80761
4.116, 5, 8.24235, 15.6706, 32.1086, 11.5019, -45.9816, -7.71034
4.12, 5, 8.1683, 15.6888, 32.153, 11.3713, -46.1229, -7.61367
4.124, 5, 8.0942, 15.7072, 32.197, 11.2412, -46.2643, -7.5176
4.128, 5, 8.02005, 15.726, 32.2408, 11.1116, -46.4059, -7.42214
4.132, 5, 7.94585, 15.745, 32.2842, 10.9827, -46.5476, -7.32727
4.136, 5, 7.87159, 15.7643, 32.3274, 10.8543, -46.6894, -7.23298
4.14, 5, 7.79729, 15.7838, 32.3702, 10.7265, -46.8314, -7.13929
4.144, 5, 7.72294, 15.8037, 32.4128, 10.5993, -46.9735, -7.04618
4.148, 5, 7.64853, 15.8238, 32.455, 10.4726, -47.1157, -6.95364
4.152, 5, 7.57408, 15.8442, 32.4969, 10.3465, -47.258, -6.86169
4.156, 5, 7.49958, 15.8649, 32.5385, 10.2209, -47.4005, -6.7703
4.16, 5, 7.42503, 15.8858, 32.5798, 10.0959, -47.5431, -6.67948
4.164, 5, 7.35043, 15.907, 32.6208, 9.97139, -47.6858, -6.58923
4.168, 5, 7.27579, 15.9286, 32.6614, 9.84745, -47.8286, -6.49953
4.172, 5, 7.2011, 15.9503, 32.7018, 9.72404, -47.9716, -6.4104
4.176, 5, 7.12636, 15.9724, 32.7419, 9.60118, -48.1147, -6.32181
4.18, 5, 7.05157, 15.9948, 32.7816, 9.47884, -48.2579, -6.23378
4.184, 5, 6.97674, 16.0174, 32.8211, 9.35703, -48.4012, -6.1463
4.188, 5, 6.90186, 16.0403, 32.8602, 9.23575, -48.5446, -6.05936
4.192, 5, 6.82694, 16.0635, 32.899, 9.11498, -48.6881, -5.97296
4.196, 5, 6.75197, 16.0869, 32.9375, 8.99473, -48.8317, -5.88709
4.2, 5, 6.67696, 16.1107, 32.9757, 8.875, -48.9755, -5.80176
4.204, 5, 6.60191, 16.1347, 33.0136, 8.75578, -49.1193, -5.71696
4.208, 5, 6.52681, 16.1589, 33.0512, 8.63706, -49.2633, -5.63268
4.212, 5, 6.45167, 16.1835, 33.0884, 8.51885, -49.4073, -5.54892
4.216, 5, 6.37649, 16.2083, 33.1254, 8.40113, -49.5515, -5.46568
4.22, 5, 6.30127, 16.2335, 33.162, 8.28391, -49.6958, -5.38296
4.224, 5, 6.226, 16.2589, 33.1983, 8.16717, -49.8401, -5.30074
4.228, 5, 6.1507, 16.2845, 33.2343, 8.05093, -49.9846, -5.21903
4.232, 5, 6.07535, 16.3105, 33.27, 7.93516, -50.1292, -5.13782
4.236, 5, 5.99997, 16.3367, 33.3054, 7.81987, -50.2738, -5.0571
4.24, 5, 5.92454, 16.3632, 33.3404, 7.70506, -50.4185, -4.97688
4.244, 5, 5.84908, 16.3899, 33.3752, 7.59072, -50.5634, -4.89714
4.248, 5, 5.77357, 16.417, 33.4096, 7.47684, -50.7083, -4.81789
4.252, 5, 5.69804, 16.4443, 33.4437, 7.36343, -50.8533, -4.73913
4.256, 5, 5.62246, 16.4719, 33.4775, 7.25048, -50.9984, -4.66083
4.26, 5, 5.54684, 16.4997, 33.511, 7.13798, -51.1435, -4.58302
4.264, 5, 5.47119, 16.5278, 33.5442, 7.02593, -51.2888, -4.50567
4.268, 5, 5.39551, 16.5562, 33.577, 6.91433, -51.4341, -4.42879
4.272, 5, 5.31979, 16.5849, 33.6096, 6.80318, -51.5795, -4.35237
4.276, 5, 5.24403, 16.6139, 33.6418, 6.69247, -51.725, -4.27641
4.28, 5, 5.16824, 16.6431, 33.6737, 6.5822, -51.8705, -4.2009
4.284, 5, 5.09242, 16.6725, 33.7053, 6.47237, -52.0162, -4.12585
4.288, 5, 5.01657, 16.7023, 33.7366, 6.36296, -52.1619, -4.05125
4.292, 5, 4.94068, 16.7323, 33.7675, 6.25399, -52.3076, -3.97709
4.296, 5, 4.86476, 16.7626, 33.7982, 6.14544, -52.4534, -3.90338
4.3, 5, 4.78881, 16.7931, 33.8285, 6.03732, -52.5993, -3.83011
4.304, 5, 4.71283, 16.8239, 33.8585, 5.92962, -52.7453, -3.75728
4.308, 5, 4.63682, 16.855, 33.8882, 5.82233, -52.8913, -3.68487
4.312, 5, 4.56078, 16.8864, 33.9176, 5.71546, -53.0374, -3.6129
4.316, 5, 4.4847, 16.918, 33.9466, 5.609, -53.1836, -3.54136
4.32, 5, 4.4086, 16.9499, 33.9754, 5.50295, -53.3298, -3.47024
4.324, 5, 4.33248, 16.982, 34.0038, 5.3973, -53.476, -3.39955
4.328, 5, 4.25632, 17.0145, 34.0319, 5.29206, -53.6223, -3.32927
4.332, 5, 4.18014, 17.0471, 34.0597, 5.18722, -53.7687, -3.25941
4.336, 5, 4.10393, 17.0801, 34.0871, 5.08277, -53.9151, -3.18996
4.34, 5, 4.0277, 17.1133, 34.1143, 4.97872, -54.0616, -3.12092
4.344, 5, 3.95144, 17.1468, 34.1411, 4.87506, -54.2081, -3.05229
4.348, 5, 3.87515, 17.1805, 34.1676, 4.77179, -54.3547, -2.98407
4.352, 5, 3.79884, 17.2145, 34.1938, 4.66891, -54.5013, -2.91625
4.356, 5, 3.72251, 17.2488, 34.2196, 4.56642, -54.648, -2.84883
4.36, 5, 3.64615, 17.2833, 34.2451, 4.4643, -54.7947, -2.7818
4.364, 5, 3.56977, 17.3181, 34.2704, 4.36257, -54.9415, -2.71517
4.368, 5, 3.49337, 17.3531, 34.2952, 4.26121, -55.0883, -2.64894
4.372, 5, 3.41694, 17.3885, 34.3198, 4.16022, -55.2351, -2.58309
4.376, 5, 3.3405, 17.424, 34.3441, 4.05961, -55.382, -2.51762
4.38, 5, 3.26403, 17.4599, 34.368, 3.95937, -55.5289, -2.45254
4.384, 5, 3.18754, 17.496, 34.3916, 3.85949, -55.6759, -2.38785
4.388, 5, 3.11103, 17.5323, 34.4149, 3.75998, -55.8228, -2.32352
4.392, 5, 3.03451, 17.5689, 34.4378, 3.66083, -55.9698, -2.25958
4.396, 5, 2.95796, 17.6058, 34.4605, 3.56204, -56.1169, -2.196
4.4, 5, 2.8814, 17.6429, 34.4828, 3.4636, -56.264, -2.1328
4.404, 5, 2.80482, 17.6803, 34.5048, 3.36552, -56.4111, -2.06996
4.408, 5, 2.72822, 17.718, 34.5264, 3.26779, -56.5582, -2.00749
4.412, 5, 2.6516, 17.7558, 34.5478, 3.1704, -56.7053, -1.94538
4.416, 5, 2.57497, 17.794, 34.5688, 3.07337, -56.8525, -1.88363
4.42, 5, 2.49833, 17.8324, 34.5895, 2.97668, -56.9997, -1.82223
4.424, 5, 2.42166, 17.8711, 34.6099, 2.88033, -57.1469, -1.76119
4.428, 5, 2.34499, 17.91, 34.6299, 2.78432, -57.2941, -1.7005
4.432, 5, 2.2683, 17.9491, 34.6496, 2.68864, -57.4414, -1.64016
4.436, 5, 2.1916, 17.9886, 34.669, 2.59331, -57.5886, -1.58017
4.44, 5, 2.11488, 18.0282, 34.6881, 2.4983, -57.7359, -1.52051
4.444, 5, 2.03815, 18.0682, 34.7069, 2.40363, -57.8832, -1.46121
4.448, 5, 1.96141, 18.1083, 34.7253, 2.30928, -58.0305, -1.40224
4.452, 5, 1.88466, 18.1487, 34.7434, 2.21526, -58.1778, -1.3436
4.456, 5, 1.8079, 18.1894, 34.7611, 2.12156, -58.3251, -1.2853
4.46, 5, 1.73113, 18.2303, 34.7786, 2.02819, -58.4724, -1.22734
4.464, 5, 1.65435, 18.2715, 34.7957, 1.93514, -58.6198, -1.1697
4.468, 5, 1.57755, 18.3129, 34.8125, 1.8424, -58.7671, -1.11239
4.472, 5, 1.50075, 18.3546, 34.829, 1.74998, -58.9144, -1.05541
4.476, 5, 1.42395, 18.3965, 34.8451, 1.65787, -59.0618, -0.998749
4.48, 5, 1.34713, 18.4386, 34.861, 1.56608, -59.2091, -0.942409
4.484, 5, 1.27031, 18.481, 34.8765, 1.47459, -59.3564, -0.886388
4.488, 5, 1.19348, 18.5237, 34.8916, 1.38341, -59.5038, -0.830683
4.492, 5, 1.11665, 18.5666, 34.9065, 1.29254, -59.6511, -0.775293
4.496, 5, 1.03981, 18.6097, 34.921, 1.20197, -59.7984, -0.720214
4.5, 5, 0.962971, 18.6531, 34.9352, 1.1117, -59.9457, -0.665446
4.504, 5, 0.886124, 18.6967, 34.949, 1.02174, -60.093, -0.610985
4.508, 5, 0.809273, 18.7406, 34.9626, 0.932069, -60.2403, -0.556831
4.512, 5, 0.73242, 18.7847, 34.9758, 0.842697, -60.3876, -0.502979
4.516, 5, 0.655565, 18.829, 34.9886, 0.753619, -60.5349, -0.44943
4.52, 5, 0.578707, 18.8736, 35.0012, 0.664833, -60.6822, -0.39618
4.524, 6, 0.501848, 18.9184, 35.0134, 0.576339, -60.8294, -0.343227
4.528, 6, 0.424988, 18.9635, 35.0253, 0.488133, -60.9767, -0.290569
4.532, 6, 0.348126, 19.0088, 35.0369, 0.400215, -61.1239, -0.238205
4.536, 6, 0.271265, 19.0544, 35.0481, 0.312582, -61.2711, -0.186131
4.54, 6, 0.194404, 19.1002, 35.059, 0.225233, -61.4183, -0.134347
4.544, 6, 0.117545, 19.1462, 35.0696, 0.138166, -61.5655, -0.0828496
4.548, 6, 0.0406872, 19.1924, 35.0799, 0.0513787, -61.7126, -0.0316369
4.552, 6, -0.0361679, 19.2389, 35.0898, -0.0351302, -61.8598, 0.0192929
4.556, 6, -0.11302, 19.2857, 35.0994, -0.121363, -62.0069, 0.069942
4.56, 6, -0.189869, 19.3326, 35.1086, -0.20732, -62.154, 0.120312
4.564, 6, -0.266714, 19.3798, 35.1176, -0.293005, -62.3011, 0.170406
4.568, 6, -0.343555, 19.4273, 35.1262, -0.378419, -62.4481, 0.220224
4.572, 6, -0.420391, 19.475, 35.1345, -0.463563, -62.5951, 0.26977
4.576, 6, -0.497222, 19.5229, 35.1424, -0.54844, -62.7421, 0.319045
4.58, 6, -0.574046, 19.571, 35.15, -0.633051, -62.8891, 0.36805
4.584, 6, -0.650864, 19.6194, 35.1573, -0.717398, -63.036, 0.416789
4.588, 6, -0.727674, 19.668, 35.1643, -0.801483, -63.1829, 0.465262
4.592, 6, -0.804477, 19.7168, 35.1709, -0.885307, -63.3297, 0.513472
4.596, 6, -0.881271, 19.7659, 35.1772, -0.968872, -63.4766, 0.561421
4.6, 6, -0.958056, 19.8151, 35.1832, -1.05218, -63.6233, 0.60911
4.604, 6, -1.03483, 19.8646, 35.1888, -1.13523, -63.7701, 0.656541
4.608, 6, -1.1116, 19.9144, 35.1941, -1.21803, -63.9167, 0.703717
4.612, 6, -1.18835, 19.9644, 35.1991, -1.30057, -64.0634, 0.750639
4.616, 6, -1.2651, 20.0145, 35.2037, -1.38287, -64.21, 0.797308
4.62, 6, -1.34183, 20.0649, 35.2081, -1.46491, -64.3565, 0.843728
4.624, 6, -1.41855, 20.1156, 35.212, -1.5467, -64.503, 0.889899
4.628, 6, -1.49526, 20.1664, 35.2157, -1.62825, -64.6495, 0.935823
4.632, 6, -1.57195, 20.2175, 35.219, -1.70955, -64.7959, 0.981502
4.636, 6, -1.64864, 20.2688, 35.222, -1.7906, -64.9422, 1.02694
4.64, 6, -1.7253, 20.3203, 35.2247, -1.87141, -65.0885, 1.07213
4.644, 6, -1.80196, 20.3721, 35.227, -1.95198, -65.2347, 1.11709
4.648, 6, -1.87859, 20.424, 35.229, -2.03231, -65.3808, 1.16181
4.652, 6, -1.95521, 20.4762, 35.2306, -2.11239, -65.5269, 1.20629
4.656, 6, -2.03182, 20.5286, 35.232, -2.19224, -65.673, 1.25054
4.66, 6, -2.10841, 20.5812, 35.233, -2.27185, -65.8189, 1.29455
4.664, 6, -2.18498, 20.634, 35.2337, -2.35122, -65.9649, 1.33834
4.668, 6, -2.26153, 20.687, 35.234, -2.43035, -66.1107, 1.38189
4.672, 6, -2.33806, 20.7402, 35.234, -2.50926, -66.2565, 1.42522
4.676, 6, -2.41458, 20.7937, 35.2337, -2.58792, -66.4022, 1.46832
4.68, 6, -2.49107, 20.8473, 35.233, -2.66636, -66.5478, 1.5112
4.684, 6, -2.56755, 20.9012, 35.2321, -2.74457, -66.6934, 1.55386
4.688, 6, -2.644, 20.9553, 35.2307, -2.82254, -66.8389, 1.5963
4.692, 6, -2.72043, 21.0095, 35.2291, -2.90029, -66.9843, 1.63851
4.696, 6, -2.79684, 21.064, 35.2271, -2.97781, -67.1296, 1.68052
4.7, 6, -2.87323, 21.1187, 35.2248, -3.0551, -67.2749, 1.7223
4.704, 6, -2.94959, 21.1736, 35.2222, -3.13217, -67.4201, 1.76387
4.708, 6, -3.02594, 21.2287, 35.2192, -3.20901, -67.5652, 1.80523
4.712, 6, -3.10225, 21.284, 35.2159, -3.28564, -67.7102, 1.84638
4.716, 6, -3.17854, 21.3395, 35.2123, -3.36203, -67.8551, 1.88732
4.72, 6, -3.25481, 21.3952, 35.2084, -3.43821, -68, 1.92805
4.724, 6, -3.33105, 21.4511, 35.2041, -3.51417, -68.1448, 1.96858
4.728, 6, -3.40727, 21.5072, 35.1995, -3.58991, -68.2895, 2.0089
4.732, 6, -3.48346, 21.5635, 35.1945, -3.66543, -68.4341, 2.04902
4.736, 6, -3.55962, 21.62, 35.1892, -3.74074, -68.5786, 2.08894
4.74, 6, -3.63575, 21.6767, 35.1836, -3.81583, -68.723, 2.12866
4.744, 6, -3.71186, 21.7336, 35.1777, -3.89071, -68.8673, 2.16818
4.748, 6, -3.78793, 21.7907, 35.1714, -3.96537, -69.0116, 2.2075
4.752, 6, -3.86398, 21.848, 35.1648, -4.03982, -69.1557, 2.24663
4.756, 6, -3.94, 21.9055, 35.1579, -4.11406, -69.2998, 2.28557
4.76, 6, -4.01599, 21.9631, 35.1506, -4.18809, -69.4437, 2.32432
4.764, 6, -4.09194, 22.021, 35.1431, -4.26191, -69.5876, 2.36287
4.768, 6, -4.16787, 22.079, 35.1351, -4.33552, -69.7314, 2.40124
4.772, 6, -4.24376, 22.1373, 35.1269, -4.40893, -69.875, 2.43942
4.776, 6, -4.31962, 22.1957, 35.1183, -4.48213, -70.0186, 2.47741
4.78, 6, -4.39545, 22.2543, 35.1094, -4.55513, -70.162, 2.51522
4.784, 6, -4.47125, 22.3131, 35.1002, -4.62792, -70.3054, 2.55285
4.788, 6, -4.54701, 22.3721, 35.0906, -4.7005, -70.4487, 2.5903
4.792, 6, -4.62273, 22.4313, 35.0807, -4.77289, -70.5918, 2.62757
4.796, 6, -4.69843, 22.4907, 35.0705, -4.84508, -70.7348, 2.66466
4.8, 6, -4.77408, 22.5502, 35.0599, -4.91706, -70.8778, 2.70157
4.804, 6, -4.8497, 22.61, 35.049, -4.98885, -71.0206, 2.73831
4.808, 6, -4.92529, 22.6699, 35.0378, -5.06044, -71.1633, 2.77487
4.812, 6, -5.00084, 22.73, 35.0262, -5.13183, -71.3059, 2.81126
4.816, 6, -5.07635, 22.7903, 35.0144, -5.20302, -71.4484, 2.84749
4.82, 6, -5.15182, 22.8507, 35.0022, -5.27403, -71.5908, 2.88354
4.824, 6, -5.22726, 22.9114, 34.9896, -5.34483, -71.733, 2.91942
4.828, 6, -5.30265, 22.9722, 34.9767, -5.41545, -71.8752, 2.95514
4.832, 6, -5.37801, 23.0332, 34.9635, -5.48587, -72.0172, 2.99069
4.836, 6, -5.45333, 23.0944, 34.95, -5.5561, -72.1591, 3.02608
4.84, 6, -5.52861, 23.1557, 34.9362, -5.62614, -72.3009, 3.06131
4.844, 6, -5.60385, 23.2173, 34.922, -5.69599, -72.4425, 3.09637
4.848, 6, -5.67904, 23.279, 34.9074, -5.76566, -72.5841, 3.13128
4.852, 6, -5.7542, 23.3409, 34.8926, -5.83513, -72.7255, 3.16603
4.856, 6, -5.82931, 23.4029, 34.8774, -5.90442, -72.8668, 3.20062
4.86, 6, -5.90438, 23.4652, 34.8619, -5.97352, -73.0079, 3.23505
4.864, 6, -5.97941, 23.5276, 34.846, -6.04244, -73.149, 3.26934
4.868, 6, -6.0544, 23.5901, 34.8299, -6.11118, -73.2899, 3.30347
4.872, 6, -6.12933, 23.6529, 34.8134, -6.17973, -73.4307, 3.33744
4.876, 6, -6.20423, 23.7158, 34.7965, -6.2481, -73.5714, 3.37127
4.88, 6, -6.27908, 23.7789, 34.7794, -6.31629, -73.7119, 3.40495
4.884, 6, -6.35388, 23.8421, 34.7619, -6.3843, -73.8523, 3.43848
4.888, 6, -6.42864, 23.9056, 34.744, -6.45213, -73.9925, 3.47187
4.892, 6, -6.50336, 23.9691, 34.7259, -6.51978, -74.1326, 3.50511
4.896, 6, -6.57802, 24.0329, 34.7074, -6.58725, -74.2726, 3.53821
4.9, 6, -6.65264, 24.0968, 34.6886, -6.65455, -74.4125, 3.57117
4.904, 6, -6.72721, 24.1609, 34.6694, -6.72167, -74.5522, 3.60399
4.908, 6, -6.80173, 24.2251, 34.65, -6.78861, -74.6918, 3.63666
4.912, 6, -6.8762, 24.2895, 34.6302, -6.85538, -74.8312, 3.6692
4.916, 6, -6.95063, 24.3541, 34.61, -6.92197, -74.9705, 3.70161
4.92, 6, -7.025, 24.4188, 34.5896, -6.98839, -75.1096, 3.73387
4.924, 6, -7.09933, 24.4837, 34.5688, -7.05464, -75.2486, 3.76601
4.928, 6, -7.1736, 24.5488, 34.5477, -7.12071, -75.3875, 3.79801
4.932, 6, -7.24783, 24.614, 34.5262, -7.1866, -75.5262, 3.82988
4.936, 6, -7.322, 24.6793, 34.5044, -7.25233, -75.6648, 3.86162
4.94, 6, -7.39612, 24.7448, 34.4823, -7.31788, -75.8032, 3.89323
4.944, 6, -7.47019, 24.8105, 34.4599, -7.38326, -75.9415, 3.92471
4.948, 6, -7.54421, 24.8763, 34.4371, -7.44846, -76.0796, 3.95607
4.952, 6, -7.61817, 24.9423, 34.4141, -7.5135, -76.2175, 3.98731
4.956, 6, -7.69208, 25.0084, 34.3907, -7.57836, -76.3554, 4.01842
4.96, 6, -7.76593, 25.0746, 34.3669, -7.64306, -76.493, 4.0494
4.964, 6, -7.83973, 25.1411, 34.3429, -7.70758, -76.6305, 4.08027
4.968, 6, -7.91348, 25.2076, 34.3185, -7.77193, -76.7679, 4.11102
4.972, 6, -7.98717, 25.2744, 34.2937, -7.83611, -76.9051, 4.14165
4.976, 6, -8.0608, 25.3412, 34.2687, -7.90013, -77.0421, 4.17216
4.98, 6, -8.13438, 25.4082, 34.2433, -7.96397, -77.179, 4.20256
4.984, 6, -8.2079, 25.4754, 34.2176, -8.02764, -77.3157, 4.23284
4.988, 6, -8.28136, 25.5427, 34.1916, -8.09115, -77.4523, 4.26301
4.992, 6, -8.35477, 25.6101, 34.1653, -8.15449, -77.5887, 4.29306
4.996, 6, -8.42812, 25.6777, 34.1386, -8.21766, -77.725, 4.32301
5, 6, -8.50141, 25.7454, 34.1116, -8.28066, -77.861, 4.35285
5.004, 6, -8.57464, 25.8133, 34.0843, -8.34349, -77.997, 4.38258
5.008, 6, -8.64781, 25.8813, 34.0566, -8.40616, -78.1327, 4.4122
5.012, 6, -8.72092, 25.9494, 34.0287, -8.46866, -78.2683, 4.44171
5.016, 6, -8.79397, 26.0177, 34.0004, -8.53099, -78.4037, 4.47112
5.02, 6, -8.86697, 26.0861, 33.9718, -8.59316, -78.539, 4.50043
5.024, 6, -8.9399, 26.1547, 33.9428, -8.65516, -78.6741, 4.52964
5.028, 6, -9.01277, 26.2233, 33.9136, -8.717, -78.809, 4.55874
5.032, 6, -9.08557, 26.2922, 33.884, -8.77867, -78.9438, 4.58775
5.036, 6, -9.15832, 26.3611, 33.8541, -8.84018, -79.0784, 4.61666
5.04, 6, -9.231, 26.4302, 33.8238, -8.90152, -79.2128, 4.64547
5.044, 6, -9.30363, 26.4994, 33.7933, -8.9627, -79.347, 4.67418
5.048, 6, -9.37618, 26.5688, 33.7624, -9.02372, -79.4811, 4.7028
5.052, 6, -9.44868, 26.6382, 33.7312, -9.08457, -79.615, 4.73132
5.056, 6, -9.52111, 26.7079, 33.6997, -9.14526, -79.7487, 4.75976
5.06, 6, -9.59347, 26.7776, 33.6678, -9.20578, -79.8823, 4.7881
5.064, 6, -9.66577, 26.8475, 33.6356, -9.26614, -80.0156, 4.81635
5.068, 6, -9.73801, 26.9174, 33.6031, -9.32634, -80.1488, 4.84451
5.072, 6, -9.81018, 26.9876, 33.5703, -9.38638, -80.2819, 4.87259
5.076, 6, -9.88228, 27.0578, 33.5372, -9.44626, -80.4147, 4.90058
5.08, 6, -9.95432, 27.1282, 33.5037, -9.50597, -80.5473, 4.92848
5.084, 6, -10.0263, 27.1987, 33.47, -9.56553, -80.6798, 4.9563
5.088, 6, -10.0982, 27.2693, 33.4359, -9.62492, -80.8121, 4.98403
5.092, 6, -10.17, 27.34, 33.4015, -9.68415, -80.9442, 5.01169
5.096, 6, -10.2418, 27.4109, 33.3667, -9.74323, -81.0762, 5.03926
5.1, 6, -10.3135, 27.4818, 33.3317, -9.80214, -81.2079, 5.06675
5.104, 6, -10.3851, 27.5529, 33.2963, -9.86089, -81.3395, 5.09417
5.108, 6, -10.4567, 27.6241, 33.2606, -9.91949, -81.4709, 5.1215
5.112, 6, -10.5282, 27.6955, 33.2246, -9.97792, -81.6021, 5.14877
5.116, 6, -10.5996, 27.7669, 33.1882, -10.0362, -81.7331, 5.17595
5.12, 6, -10.671, 27.8385, 33.1516, -10.0943, -81.8639, 5.20306
5.124, 6, -10.7422, 27.9102, 33.1146, -10.1523, -81.9945, 5.2301
5.128, 6, -10.8135, 27.982, 33.0773, -10.2101, -82.1249, 5.25707
5.132, 6, -10.8846, 28.0539, 33.0397, -10.2677, -82.2552, 5.28396
5.136, 6, -10.9557, 28.1259, 33.0018, -10.3252, -82.3853, 5.31079
5.14, 6, -11.0267, 28.198, 32.9635, -10.3825, -82.5151, 5.33755
5.144, 6, -11.0976, 28.2703, 32.925, -10.4397, -82.6448, 5.36424
5.148, 6, -11.1684, 28.3426, 32.8861, -10.4967, -82.7743, 5.39086
5.152, 6, -11.2392, 28.4151, 32.8469, -10.5536, -82.9036, 5.41742
5.156, 6, -11.3099, 28.4877, 32.8073, -10.6103, -83.0327, 5.44392
5.16, 6, -11.3806, 28.5604, 32.7675, -10.6669, -83.1616, 5.47035
5.164, 6, -11.4511, 28.6331, 32.7274, -10.7233, -83.2903, 5.49672
5.168, 6, -11.5216, 28.706, 32.6869, -10.7795, -83.4188, 5.52303
5.172, 6, -11.592, 28.779, 32.6461, -10.8356, -83.5471, 5.54927
5.176, 6, -11.6624, 28.8522, 32.605, -10.8915, -83.6752, 5.57546
5.18, 6, -11.7326, 28.9254, 32.5636, -10.9473, -83.8031, 5.6016
5.184, 6, -11.8028, 28.9987, 32.5218, -11.0029, -83.9308, 5.62767
5.188, 6, -11.8729, 29.0721, 32.4798, -11.0584, -84.0583, 5.65369
5.192, 6, -11.9429, 29.1456, 32.4374, -11.1137, -84.1856, 5.67966
5.196, 6, -12.0129, 29.2192, 32.3947, -11.1689, -84.3127, 5.70557
5.2, 6, -12.0828, 29.293, 32.3517, -11.2239, -84.4396, 5.73143
5.204, 6, -12.1526, 29.3668, 32.3084, -11.2788, -84.5663, 5.75724
5.208, 6, -12.2223, 29.4407, 32.2648, -11.3335, -84.6928, 5.78299
5.212, 6, -12.2919, 29.5147, 32.2208, -11.388, -84.8191, 5.8087
5.216, 6, -12.3615, 29.5889, 32.1766, -11.4424, -84.9452, 5.83436
5.22, 6, -12.431, 29.6631, 32.132, -11.4967, -85.0711, 5.85997
5.224, 6, -12.5004, 29.7374, 32.0871, -11.5508, -85.1967, 5.88554
5.228, 6, -12.5697, 29.8118, 32.0419, -11.6047, -85.3222, 5.91106
5.232, 6, -12.639, 29.8863, 31.9964, -11.6585, -85.4474, 5.93654
5.236, 6, -12.7081, 29.9609, 31.9506, -11.7122, -85.5725, 5.96197
5.24, 6, -12.7772, 30.0356, 31.9044, -11.7656, -85.6973, 5.98737
5.244, 6, -12.8462, 30.1104, 31.858, -11.819, -85.822, 6.01272
5.248, 6, -12.9152, 30.1852, 31.8112, -11.8722, -85.9464, 6.03803
5.252, 6, -12.984, 30.2602, 31.7642, -11.9252, -86.0706, 6.0633
5.256, 6, -13.0528, 30.3353, 31.7168, -11.9781, -86.1946, 6.08854
5.26, 6, -13.1215, 30.4104, 31.6691, -12.0308, -86.3184, 6.11374
5.264, 6, -13.1901, 30.4856, 31.6211, -12.0833, -86.4419, 6.1389
5.268, 6, -13.2586, 30.5609, 31.5727, -12.1357, -86.5653, 6.16403
5.272, 6, -13.327, 30.6364, 31.5241, -12.188, -86.6884, 6.18913
5.276, 6, -13.3954, 30.7119, 31.4752, -12.2401, -86.8114, 6.21419
5.28, 6, -13.4636, 30.7874, 31.4259, -12.2921, -86.9341, 6.23922
5.284, 6, -13.5318, 30.8631, 31.3763, -12.3438, -87.0566, 6.26423
5.288, 6, -13.5999, 30.9389, 31.3265, -12.3955, -87.1789, 6.2892
5.292, 6, -13.668, 31.0147, 31.2763, -12.447, -87.301, 6.31414
5.296, 6, -13.7359, 31.0906, 31.2258, -12.4983, -87.4228, 6.33906
5.3, 6, -13.8038, 31.1666, 31.175, -12.5495, -87.5445, 6.36395
5.304, 6, -13.8715, 31.2427, 31.1239, -12.6005, -87.6659, 6.38881
5.308, 6, -13.9392, 31.3189, 31.0725, -12.6513, -87.7871, 6.41365
5.312, 6, -14.0068, 31.3951, 31.0208, -12.7021, -87.9081, 6.43847
5.316, 6, -14.0743, 31.4715, 30.9687, -12.7526, -88.0289, 6.46326
5.32, 6, -14.1418, 31.5479, 30.9164, -12.803, -88.1494, 6.48804
5.324, 6, -14.2091, 31.6244, 30.8638, -12.8532, -88.2698, 6.51279
5.328, 6, -14.2764, 31.7009, 30.8108, -12.9033, -88.3899, 6.53752
5.332, 6, -14.3435, 31.7776, 30.7576, -12.9533, -88.5098, 6.56224
5.336, 6, -14.4106, 31.8543, 30.704, -13.003, -88.6295, 6.58694
5.34, 6, -14.4776, 31.9311, 30.6501, -13.0526, -88.749, 6.61162
5.344, 6, -14.5445, 32.008, 30.596, -13.1021, -88.8682, 6.63628
5.348, 6, -14.6114, 32.0849, 30.5415, -13.1514, -88.9872, 6.66093
5.352, 6, -14.6781, 32.162, 30.4867, -13.2005, -89.106, 6.68557
5.356, 6, -14.7448, 32.2391, 30.4316, -13.2495, -89.2246, 6.7102
5.36, 6, -14.8113, 32.3162, 30.3762, -13.2984, -89.3429, 6.73481
5.364, 6, -14.8778, 32.3935, 30.3205, -13.347, -89.4611, 6.75941
5.368, 6, -14.9442, 32.4708, 30.2645, -13.3956, -89.579, 6.784
5.372, 6, -15.0105, 32.5482, 30.2082, -13.4439, -89.6967, 6.80859
5.376, 6, -15.0767, 32.6257, 30.1516, -13.4921, -89.8141, 6.83317
5.38, 6, -15.1428, 32.7032, 30.0947, -13.5402, -89.9314, 6.85773
5.384, 6, -15.2089, 32.7808, 30.0375, -13.5881, -90.0484, 6.8823
5.388, 6, -15.2748, 32.8585, 29.9799, -13.6358, -90.1651, 6.90686
5.392, 6, -15.3407, 32.9362, 29.9221, -13.6834, -90.2817, 6.93141
5.396, 6, -15.4064, 33.014, 29.864, -13.7308, -90.398, 6.95596
5.4, 6, -15.4721, 33.0919, 29.8056, -13.778, -90.5141, 6.98051
5.404, 6, -15.5377, 33.1698, 29.7468, -13.8251, -90.63, 7.00506
5.408, 6, -15.6032, 33.2479, 29.6878, -13.8721, -90.7457, 7.0296
5.412, 6, -15.6686, 33.3259, 29.6285, -13.9188, -90.8611, 7.05415
5.416, 6, -15.7339, 33.4041, 29.5688, -13.9655, -90.9763, 7.0787
5.42, 6, -15.7991, 33.4823, 29.5089, -14.0119, -91.0912, 7.10325
5.424, 6, -15.8642, 33.5606, 29.4487, -14.0582, -91.206, 7.1278
5.428, 6, -15.9293, 33.6389, 29.3881, -14.1044, -91.3205, 7.15236
5.432, 6, -15.9942, 33.7173, 29.3273, -14.1504, -91.4348, 7.17692
5.436, 6, -16.0591, 33.7958, 29.2662, -14.1962, -91.5488, 7.20149
5.44, 6, -16.1238, 33.8743, 29.2047, -14.2419, -91.6626, 7.22607
5.444, 6, -16.1885, 33.9529, 29.143, -14.2874, -91.7762, 7.25065
5.448, 6, -16.2531, 34.0315, 29.0809, -14.3327, -91.8895, 7.27525
5.452, 6, -16.3175, 34.1102, 29.0186, -14.3779, -92.0027, 7.29985
5.456, 6, -16.3818, 34.1889, 28.956, -14.4229, -92.1155, 7.32446
5.46, 6, -16.4458, 34.2676, 28.8931, -14.4678, -92.2282, 7.34908
5.464, 6, -16.5096, 34.3463, 28.8299, -14.5125, -92.3406, 7.37371
5.468, 6, -16.5731, 34.4249, 28.7665, -14.557, -92.4527, 7.39834
5.472, 6, -16.6362, 34.5033, 28.7029, -14.6013, -92.5645, 7.42298
5.476, 6, -16.6989, 34.5815, 28.6391, -14.6455, -92.676, 7.4476
5.48, 6, -16.7608, 34.6592, 28.5753, -14.6894, -92.7872, 7.47221
5.484, 6, -16.8217, 34.736, 28.5116, -14.733, -92.8978, 7.49676
5.488, 6, -16.8814, 34.8118, 28.4481, -14.7764, -93.0078, 7.52124
5.492, 6, -16.9397, 34.8862, 28.3852, -14.8193, -93.1169, 7.54557
5.496, 6, -16.9963, 34.959, 28.3229, -14.8617, -93.2247, 7.56967
5.5, 6, -17.0511, 35.0298, 28.2616, -14.9033, -93.3308, 7.59346
5.504, 6, -17.1042, 35.0986, 28.2015, -14.9441, -93.4348, 7.61681
5.508, 6, -17.1554, 35.1653, 28.1428, -14.9837, -93.536, 7.63959
5.512, 6, -17.2048, 35.2298, 28.086, -15.0219, -93.6337, 7.66165
5.516, 6, -17.2523, 35.2917, 28.0311, -15.0585, -93.7275, 7.68285
5.52, 6, -17.2977, 35.3509, 27.9787, -15.0933, -93.8167, 7.70306
5.524, 6, -17.3409, 35.4071, 27.9289, -15.1261, -93.9008, 7.72215
5.528, 6, -17.3818, 35.4603, 27.8821, -15.1566, -93.9792, 7.74
5.532, 6, -17.4203, 35.5101, 27.8384, -15.1848, -94.0518, 7.75654
5.536, 6, -17.4565, 35.5567, 27.798, -15.2105, -94.118, 7.77167
5.54, 6, -17.4903, 35.5998, 27.761, -15.2337, -94.1778, 7.78536
5.544, 6, -17.5219, 35.6398, 27.7275, -15.2543, -94.2311, 7.7976
5.548, 6, -17.5513, 35.6764, 27.6973, -15.2725, -94.278, 7.80839
5.552, 6, -17.5784, 35.7098, 27.6705, -15.2882, -94.3188, 7.81779
5.556, 6, -17.6031, 35.7399, 27.6469, -15.3017, -94.3537, 7.82587
5.56, 6, -17.6253, 35.7667, 27.6264, -15.3131, -94.3833, 7.83272
5.564, 6, -17.645, 35.7901, 27.6089, -15.3226, -94.4081, 7.83846
5.568, 6, -17.6623, 35.8104, 27.594, -15.3304, -94.4284, 7.8432
5.572, 6, -17.6772, 35.8277, 27.5817, -15.3368, -94.4449, 7.84705
5.576, 6, -17.6899, 35.8422, 27.5715, -15.3418, -94.4581, 7.85013
5.58, 6, -17.7009, 35.8545, 27.5633, -15.3458, -94.4685, 7.85255
5.584, 6, -17.7104, 35.8648, 27.5567, -15.3488, -94.4764, 7.85441
5.588, 6, -17.7186, 35.8733, 27.5514, -15.351, -94.4823, 7.85582
5.592, 6, -17.7256, 35.8803, 27.5473, -15.3527, -94.4867, 7.85685
5.596, 6, -17.7315, 35.886, 27.5442, -15.3538, -94.4898, 7.85759
5.6, 7, -17.7363, 35.8904, 27.5418, -15.3547, -94.492, 7.85811
5.604, 7, -17.74, 35.8938, 27.5401, -15.3552, -94.4934, 7.85847
5.608, 7, -17.7429, 35.8962, 27.5389, -15.3556, -94.4945, 7.85871
5.612, 7, -17.7448, 35.898, 27.5381, -15.3559, -94.4951, 7.85888
5.616, 7, -17.7462, 35.8991, 27.5375, -15.356, -94.4956, 7.85899
5.62, 7, -17.7472, 35.8999, 27.5371, -15.3562, -94.4959, 7.85907
5.624, 7, -17.7478, 35.9005, 27.5368, -15.3562, -94.4961, 7.85912
5.628, 7, -17.7482, 35.9008, 27.5367, -15.3563, -94.4963, 7.85916
5.632, 7, -17.7485, 35.9011, 27.5365, -15.3563, -94.4964, 7.85918
5.636, 7, -17.7487, 35.9013, 27.5365, -15.3564, -94.4965, 7.8592
5.64, 7, -17.7488, 35.9014, 27.5364, -15.3564, -94.4965, 7.85921
5.644, 7, -17.7489, 35.9015, 27.5364, -15.3564, -94.4965, 7.85921
5.648, 7, -17.749, 35.9015, 27.5363, -15.3564, -94.4966, 7.85922
5.652, 7, -17.749, 35.9015, 27.5363, -15.3564, -94.4966, 7.85922
5.656, 7, -17.749, 35.9016, 27.5363, -15.3564, -94.4966, 7.85923
5.66, 7, -17.7491, 35.9016, 27.5363, -15.3564, -94.4966, 7.85923
5.664, 7, -17.7491, 35.9016, 27.5363, -15.3564, -94.4966, 7.85923
5.668, 7, -17.7491, 35.9016, 27.5363, -15.3564, -94.4966, 7.85923
5.672, 7, -17.7491, 35.9016, 27.5363, -15.3564, -94.4966, 7.85923
5.676, 7, -17.7491, 35.9016, 27.5363, -15.3564, -94.4966, 7.85923
5.68, 7, -17.7491, 35.9016, 27.5363, -15.3564, -94.4966, 7.85923
5.684, 7, -17.7491, 35.9016, 27.5363, -15.3564, -94.4966, 7.85923
5.688, 7, -17.7491, 35.9016, 27.5363, -15.3564, -94.4966, 7.85923
5.692, 7, -17.7491, 35.9016, 27.5363, -15.3564, -94.4966, 7.85923
5.696, 7, -17.7491, 35.9016, 27.5363, -15.3564, -94.4966, 7.85923
5.7, 7, -17.7491, 35.9016, 27.5363, -15.3564, -94.4966, 7.85923
5.704, 7, -17.7491, 35.9016, 27.5363, -15.3564, -94.4966, 7.85923
5.708, 7, -17.7491, 35.9016, 27.5363, -15.3564, -94.4966, 7.85923
5.712, 7, -17.7491, 35.9016, 27.5363, -15.3564, -94.4966, 7.85923
5.716, 7, -17.7491, 35.9016, 27.5363, -15.3564, -94.4966, 7.85923
