hehonglu123/ABB_Primitive_Study/execution/movel_smooth/curve_exe_v300_fine.csv
timestamp, cmd_num, J1, J2, J3, J4, J5, J6
0, -1, 32.9528, 52.8019, -8.46502, 89.9168, -78.8096, 34.6812
0.002, -1, 32.9528, 52.8019, -8.46502, 89.9168, -78.8096, 34.6812
0.006, -1, 32.9528, 52.8019, -8.46502, 89.9168, -78.8096, 34.6812
0.008, -1, 32.9528, 52.8019, -8.46502, 89.9168, -78.8096, 34.6812
0.011, -1, 32.9528, 52.8019, -8.46502, 89.9168, -78.8096, 34.6812
0.016, -1, 32.9528, 52.8019, -8.46502, 89.9168, -78.8096, 34.6812
0.02, -1, 32.9528, 52.8019, -8.46502, 89.9168, -78.8096, 34.6812
0.024, -1, 32.9528, 52.8019, -8.46502, 89.9168, -78.8096, 34.6812
0.028, -1, 32.9528, 52.8019, -8.46502, 89.9168, -78.8096, 34.6812
0.032, -1, 32.9528, 52.8019, -8.46502, 89.9168, -78.8096, 34.6812
0.036, -1, 32.9529, 52.8019, -8.46502, 89.9168, -78.8096, 34.6812
0.04, -1, 32.9531, 52.8018, -8.46503, 89.9168, -78.8095, 34.6812
0.044, -1, 32.9535, 52.8014, -8.46504, 89.9169, -78.8095, 34.6812
0.048, -1, 32.9543, 52.8006, -8.46509, 89.9169, -78.8093, 34.6813
0.052, -1, 32.9556, 52.7993, -8.46521, 89.917, -78.8088, 34.6815
0.056, -1, 32.9574, 52.7971, -8.46543, 89.9173, -78.8079, 34.6818
0.06, -1, 32.9597, 52.794, -8.46584, 89.9178, -78.8061, 34.6824
0.064, -1, 32.9625, 52.7899, -8.46653, 89.9186, -78.803, 34.6835
0.068, -1, 32.9659, 52.7849, -8.46761, 89.92, -78.798, 34.6852
0.072, -1, 32.9697, 52.7789, -8.46923, 89.922, -78.7905, 34.6877
0.076, -1, 32.9741, 52.7719, -8.47155, 89.925, -78.7796, 34.6915
0.08, -1, 32.9791, 52.7639, -8.47475, 89.9292, -78.7644, 34.6967
0.084, -1, 32.9847, 52.7549, -8.47904, 89.9348, -78.744, 34.7037
0.088, -1, 32.991, 52.7451, -8.48461, 89.9421, -78.7174, 34.7128
0.092, -1, 32.9978, 52.7344, -8.49169, 89.9515, -78.6834, 34.7244
0.096, -1, 33.005, 52.7231, -8.50046, 89.9631, -78.6411, 34.7389
0.1, -1, 33.0126, 52.7112, -8.51109, 89.9773, -78.5897, 34.7566
0.104, -1, 33.0204, 52.699, -8.5237, 89.9942, -78.5285, 34.7775
0.108, -1, 33.0284, 52.6863, -8.53837, 90.0139, -78.4572, 34.802
0.112, -1, 33.0368, 52.673, -8.55512, 90.0364, -78.3757, 34.8299
0.116, -1, 33.0455, 52.6592, -8.57391, 90.0617, -78.2841, 34.8613
0.12, -1, 33.0546, 52.6447, -8.59467, 90.0896, -78.183, 34.896
0.124, -1, 33.0642, 52.6296, -8.61726, 90.12, -78.0728, 34.9337
0.128, -1, 33.0741, 52.6139, -8.64153, 90.1527, -77.9545, 34.9743
0.131, -1, 33.0844, 52.5977, -8.6673, 90.1875, -77.8288, 35.0174
0.136, -1, 33.0949, 52.5809, -8.69437, 90.2239, -77.6968, 35.0627
0.139, -1, 33.1058, 52.5633, -8.72251, 90.2618, -77.5596, 35.1097
0.144, -1, 33.1172, 52.5447, -8.75152, 90.3009, -77.4182, 35.1582
0.148, -1, 33.1293, 52.525, -8.7812, 90.3408, -77.2736, 35.2077
0.152, -1, 33.1421, 52.5041, -8.81138, 90.3814, -77.1267, 35.2581
0.156, -1, 33.1556, 52.4819, -8.8419, 90.4224, -76.9782, 35.309
0.16, -1, 33.17, 52.4586, -8.87265, 90.4637, -76.8286, 35.3603
0.164, -1, 33.1849, 52.4345, -8.90354, 90.5052, -76.6784, 35.4118
0.168, -1, 33.2004, 52.4098, -8.9345, 90.5467, -76.5279, 35.4634
0.172, -1, 33.2161, 52.3847, -8.9655, 90.5883, -76.3772, 35.515
0.176, -1, 33.2321, 52.3594, -8.9965, 90.6299, -76.2265, 35.5667
0.18, -1, 33.2481, 52.334, -9.02748, 90.6715, -76.076, 35.6183
0.184, -1, 33.2643, 52.3084, -9.05844, 90.713, -75.9256, 35.6699
0.188, -1, 33.2805, 52.2828, -9.08935, 90.7545, -75.7754, 35.7214
0.192, -1, 33.2967, 52.2573, -9.12022, 90.7959, -75.6254, 35.7728
0.196, -1, 33.3129, 52.2317, -9.15103, 90.8372, -75.4757, 35.8241
0.2, -1, 33.3291, 52.2061, -9.1818, 90.8785, -75.3262, 35.8753
0.204, -1, 33.3453, 52.1806, -9.21251, 90.9197, -75.177, 35.9265
0.208, -1, 33.3614, 52.1551, -9.24316, 90.9608, -75.028, 35.9775
0.212, -1, 33.3776, 52.1296, -9.27376, 91.0018, -74.8794, 36.0285
0.216, -1, 33.3937, 52.1042, -9.3043, 91.0428, -74.731, 36.0794
0.22, -1, 33.4098, 52.0788, -9.33479, 91.0837, -74.5829, 36.1302
0.224, -1, 33.4258, 52.0535, -9.36522, 91.1245, -74.435, 36.1808
0.228, -1, 33.4419, 52.0282, -9.3956, 91.1652, -74.2874, 36.2314
0.232, -1, 33.4579, 52.003, -9.42592, 91.2059, -74.1401, 36.2819
0.236, -1, 33.4738, 51.9778, -9.45618, 91.2465, -73.9931, 36.3323
0.24, -1, 33.4898, 51.9526, -9.48639, 91.287, -73.8463, 36.3826
0.244, -1, 33.5057, 51.9275, -9.51654, 91.3275, -73.6998, 36.4329
0.248, -1, 33.5216, 51.9025, -9.54664, 91.3678, -73.5536, 36.483
0.252, -1, 33.5374, 51.8774, -9.57668, 91.4081, -73.4076, 36.533
0.256, -1, 33.5533, 51.8525, -9.60667, 91.4483, -73.2619, 36.583
0.26, -1, 33.5691, 51.8276, -9.6366, 91.4885, -73.1165, 36.6328
0.264, -1, 33.5848, 51.8027, -9.66649, 91.5286, -72.9713, 36.6826
0.268, -1, 33.6006, 51.7778, -9.69631, 91.5686, -72.8264, 36.7323
0.272, -1, 33.6163, 51.7531, -9.72609, 91.6085, -72.6817, 36.7819
0.276, -1, 33.632, 51.7283, -9.75581, 91.6484, -72.5373, 36.8314
0.28, -1, 33.6476, 51.7036, -9.78547, 91.6882, -72.3932, 36.8808
0.284, -1, 33.6633, 51.679, -9.81509, 91.7279, -72.2493, 36.9301
0.288, -1, 33.6789, 51.6544, -9.84465, 91.7675, -72.1057, 36.9794
0.292, -1, 33.6945, 51.6298, -9.87416, 91.8071, -71.9623, 37.0285
0.296, -1, 33.71, 51.6053, -9.90362, 91.8466, -71.8191, 37.0776
0.3, -1, 33.7255, 51.5808, -9.93303, 91.8861, -71.6763, 37.1265
0.304, -1, 33.741, 51.5563, -9.96238, 91.9255, -71.5336, 37.1754
0.308, -1, 33.7565, 51.5319, -9.99169, 91.9648, -71.3913, 37.2243
0.312, -1, 33.7719, 51.5076, -10.0209, 92.004, -71.2491, 37.273
0.316, -1, 33.7873, 51.4833, -10.0501, 92.0432, -71.1073, 37.3216
0.32, -1, 33.8027, 51.459, -10.0793, 92.0823, -70.9656, 37.3702
0.324, -1, 33.8181, 51.4348, -10.1084, 92.1213, -70.8242, 37.4186
0.328, -1, 33.8334, 51.4106, -10.1374, 92.1603, -70.6831, 37.467
0.332, -1, 33.8487, 51.3864, -10.1665, 92.1992, -70.5422, 37.5153
0.336, -1, 33.864, 51.3623, -10.1954, 92.238, -70.4015, 37.5636
0.34, -1, 33.8793, 51.3383, -10.2243, 92.2768, -70.261, 37.6117
0.344, -1, 33.8945, 51.3142, -10.2532, 92.3155, -70.1209, 37.6598
0.348, -1, 33.9097, 51.2903, -10.282, 92.3541, -69.9809, 37.7077
0.352, -1, 33.9249, 51.2663, -10.3107, 92.3927, -69.8412, 37.7556
0.356, -1, 33.94, 51.2424, -10.3394, 92.4312, -69.7017, 37.8034
0.36, -1, 33.9552, 51.2186, -10.3681, 92.4696, -69.5624, 37.8512
0.364, -1, 33.9703, 51.1947, -10.3967, 92.508, -69.4234, 37.8988
0.368, -1, 33.9853, 51.171, -10.4253, 92.5463, -69.2846, 37.9464
0.372, -1, 34.0004, 51.1472, -10.4538, 92.5846, -69.1461, 37.9939
0.376, -1, 34.0154, 51.1235, -10.4823, 92.6228, -69.0078, 38.0413
0.38, -1, 34.0304, 51.0998, -10.5107, 92.6609, -68.8697, 38.0887
0.384, -1, 34.0454, 51.0762, -10.5391, 92.6989, -68.7318, 38.1359
0.388, -1, 34.0604, 51.0526, -10.5674, 92.7369, -68.5941, 38.1831
0.392, -1, 34.0753, 51.0291, -10.5957, 92.7749, -68.4567, 38.2302
0.396, -1, 34.0902, 51.0056, -10.6239, 92.8127, -68.3195, 38.2773
0.4, -1, 34.1051, 50.9821, -10.6521, 92.8506, -68.1826, 38.3242
0.404, -1, 34.1199, 50.9587, -10.6803, 92.8883, -68.0458, 38.3711
0.408, -1, 34.1348, 50.9353, -10.7084, 92.926, -67.9093, 38.4179
0.412, -1, 34.1496, 50.9119, -10.7364, 92.9636, -67.773, 38.4646
0.416, -1, 34.1643, 50.8886, -10.7644, 93.0012, -67.6369, 38.5113
0.42, -1, 34.1791, 50.8653, -10.7924, 93.0387, -67.501, 38.5579
0.424, -1, 34.1938, 50.8421, -10.8203, 93.0762, -67.3653, 38.6044
0.428, -1, 34.2086, 50.8189, -10.8482, 93.1136, -67.2299, 38.6508
0.432, -1, 34.2232, 50.7957, -10.876, 93.1509, -67.0947, 38.6971
0.436, -1, 34.2379, 50.7726, -10.9038, 93.1881, -66.9597, 38.7434
0.44, -1, 34.2526, 50.7495, -10.9315, 93.2254, -66.8249, 38.7896
0.444, -1, 34.2672, 50.7264, -10.9592, 93.2625, -66.6903, 38.8358
0.448, -1, 34.2818, 50.7034, -10.9869, 93.2996, -66.5559, 38.8818
0.452, -1, 34.2964, 50.6804, -11.0145, 93.3367, -66.4217, 38.9278
0.456, -1, 34.3109, 50.6574, -11.0421, 93.3736, -66.2878, 38.9738
0.46, -1, 34.3254, 50.6345, -11.0696, 93.4106, -66.154, 39.0196
0.464, -1, 34.3399, 50.6116, -11.0971, 93.4474, -66.0204, 39.0654
0.468, -1, 34.3544, 50.5888, -11.1246, 93.4842, -65.8871, 39.1111
0.472, -1, 34.3689, 50.566, -11.152, 93.521, -65.754, 39.1567
0.476, -1, 34.3833, 50.5432, -11.1793, 93.5577, -65.621, 39.2023
0.48, -1, 34.3978, 50.5204, -11.2066, 93.5943, -65.4883, 39.2478
0.484, -1, 34.4121, 50.4977, -11.2339, 93.6309, -65.3558, 39.2933
0.488, -1, 34.4265, 50.475, -11.2612, 93.6675, -65.2234, 39.3386
0.492, -1, 34.4409, 50.4524, -11.2883, 93.7039, -65.0913, 39.3839
0.496, -1, 34.4552, 50.4298, -11.3155, 93.7404, -64.9594, 39.4291
0.5, -1, 34.4695, 50.4072, -11.3426, 93.7767, -64.8276, 39.4743
0.504, -1, 34.4838, 50.3847, -11.3697, 93.813, -64.6961, 39.5194
0.508, -1, 34.4981, 50.3622, -11.3967, 93.8493, -64.5647, 39.5644
0.512, -1, 34.5123, 50.3397, -11.4237, 93.8855, -64.4336, 39.6094
0.516, -1, 34.5265, 50.3173, -11.4507, 93.9217, -64.3026, 39.6543
0.52, -1, 34.5408, 50.2949, -11.4776, 93.9578, -64.1719, 39.6991
0.524, -1, 34.5549, 50.2725, -11.5045, 93.9938, -64.0413, 39.7439
0.528, -1, 34.5691, 50.2501, -11.5313, 94.0298, -63.9109, 39.7886
0.532, -1, 34.5832, 50.2278, -11.5581, 94.0657, -63.7807, 39.8332
0.536, -1, 34.5974, 50.2056, -11.5848, 94.1016, -63.6507, 39.8777
0.54, -1, 34.6115, 50.1833, -11.6116, 94.1375, -63.5209, 39.9222
0.544, -1, 34.6255, 50.1611, -11.6382, 94.1732, -63.3913, 39.9667
0.548, -1, 34.6396, 50.1389, -11.6649, 94.209, -63.2619, 40.0111
0.552, -1, 34.6536, 50.1168, -11.6915, 94.2447, -63.1326, 40.0554
0.556, -1, 34.6677, 50.0947, -11.718, 94.2803, -63.0036, 40.0996
0.56, -1, 34.6817, 50.0726, -11.7446, 94.3159, -62.8747, 40.1438
0.564, -1, 34.6956, 50.0505, -11.7711, 94.3514, -62.746, 40.1879
0.568, -1, 34.7096, 50.0285, -11.7975, 94.3869, -62.6175, 40.2319
0.572, -1, 34.7235, 50.0065, -11.8239, 94.4223, -62.4892, 40.2759
0.576, -1, 34.7375, 49.9846, -11.8503, 94.4577, -62.361, 40.3199
0.58, -1, 34.7514, 49.9626, -11.8766, 94.493, -62.2331, 40.3637
0.584, -1, 34.7652, 49.9407, -11.9029, 94.5283, -62.1053, 40.4075
0.588, -1, 34.7791, 49.9189, -11.9292, 94.5635, -61.9777, 40.4513
0.592, -1, 34.7929, 49.897, -11.9554, 94.5987, -61.8503, 40.495
0.596, -1, 34.8068, 49.8752, -11.9816, 94.6338, -61.723, 40.5386
0.6, -1, 34.8206, 49.8535, -12.0078, 94.6689, -61.5959, 40.5821
0.604, -1, 34.8343, 49.8317, -12.0339, 94.7039, -61.4691, 40.6256
0.608, -1, 34.8481, 49.81, -12.0599, 94.7389, -61.3423, 40.6691
0.612, -1, 34.8618, 49.7883, -12.086, 94.7738, -61.2158, 40.7125
0.616, -1, 34.8756, 49.7667, -12.112, 94.8087, -61.0894, 40.7558
0.62, -1, 34.8893, 49.7451, -12.138, 94.8435, -60.9632, 40.799
0.624, -1, 34.903, 49.7235, -12.1639, 94.8783, -60.8372, 40.8422
0.628, -1, 34.9166, 49.7019, -12.1898, 94.9131, -60.7114, 40.8854
0.632, -1, 34.9303, 49.6804, -12.2157, 94.9478, -60.5857, 40.9284
0.636, -1, 34.9439, 49.6589, -12.2415, 94.9824, -60.4602, 40.9715
0.64, -1, 34.9575, 49.6374, -12.2673, 95.017, -60.3349, 41.0144
0.644, -1, 34.9711, 49.6159, -12.2931, 95.0516, -60.2097, 41.0573
0.648, -1, 34.9847, 49.5945, -12.3188, 95.0861, -60.0847, 41.1002
0.652, -1, 34.9983, 49.5731, -12.3445, 95.1205, -59.9599, 41.143
0.656, -1, 35.0118, 49.5518, -12.3701, 95.1549, -59.8352, 41.1857
0.66, -1, 35.0253, 49.5304, -12.3958, 95.1893, -59.7107, 41.2284
0.664, -1, 35.0388, 49.5091, -12.4214, 95.2236, -59.5864, 41.271
0.668, -1, 35.0523, 49.4879, -12.4469, 95.2579, -59.4622, 41.3136
0.672, -1, 35.0658, 49.4666, -12.4724, 95.2921, -59.3382, 41.3561
0.676, -1, 35.0792, 49.4454, -12.4979, 95.3263, -59.2144, 41.3985
0.68, -1, 35.0927, 49.4242, -12.5234, 95.3605, -59.0907, 41.4409
0.684, -1, 35.1061, 49.4031, -12.5488, 95.3946, -58.9672, 41.4833
0.688, -1, 35.1195, 49.3819, -12.5742, 95.4286, -58.8439, 41.5256
0.692, -1, 35.1329, 49.3608, -12.5995, 95.4626, -58.7207, 41.5678
0.696, -1, 35.1462, 49.3397, -12.6249, 95.4966, -58.5977, 41.61
0.7, -1, 35.1596, 49.3187, -12.6501, 95.5305, -58.4748, 41.6521
0.704, -1, 35.1729, 49.2977, -12.6754, 95.5644, -58.3521, 41.6941
0.708, -1, 35.1862, 49.2767, -12.7006, 95.5982, -58.2296, 41.7361
0.712, -1, 35.1995, 49.2557, -12.7258, 95.632, -58.1072, 41.7781
0.716, -1, 35.2128, 49.2347, -12.751, 95.6657, -57.985, 41.82
0.72, -1, 35.226, 49.2138, -12.7761, 95.6994, -57.8629, 41.8618
0.724, -1, 35.2393, 49.1929, -12.8012, 95.7331, -57.741, 41.9036
0.728, -1, 35.2525, 49.1721, -12.8262, 95.7667, -57.6192, 41.9454
0.732, -1, 35.2657, 49.1512, -12.8513, 95.8003, -57.4976, 41.9871
0.736, -1, 35.2789, 49.1304, -12.8763, 95.8338, -57.3762, 42.0287
0.74, -1, 35.2921, 49.1097, -12.9012, 95.8673, -57.2549, 42.0703
0.744, -1, 35.3052, 49.0889, -12.9262, 95.9007, -57.1338, 42.1118
0.748, -1, 35.3184, 49.0682, -12.9511, 95.9341, -57.0128, 42.1533
0.752, -1, 35.3315, 49.0475, -12.9759, 95.9675, -56.8919, 42.1947
0.756, -1, 35.3446, 49.0268, -13.0008, 96.0008, -56.7712, 42.2361
0.76, -1, 35.3577, 49.0061, -13.0256, 96.0341, -56.6507, 42.2774
0.764, -1, 35.3708, 48.9855, -13.0504, 96.0673, -56.5303, 42.3187
0.768, -1, 35.3838, 48.9649, -13.0751, 96.1005, -56.4101, 42.3599
0.772, -1, 35.3969, 48.9443, -13.0998, 96.1336, -56.29, 42.401
0.776, -1, 35.4099, 48.9238, -13.1245, 96.1667, -56.1701, 42.4422
0.78, -1, 35.4229, 48.9032, -13.1492, 96.1998, -56.0503, 42.4832
0.784, -1, 35.4359, 48.8827, -13.1738, 96.2328, -55.9307, 42.5242
0.788, -1, 35.4489, 48.8623, -13.1984, 96.2658, -55.8112, 42.5652
0.792, -1, 35.4619, 48.8418, -13.2229, 96.2988, -55.6918, 42.6061
0.796, -1, 35.4748, 48.8214, -13.2475, 96.3317, -55.5726, 42.647
0.8, -1, 35.4877, 48.801, -13.272, 96.3645, -55.4535, 42.6878
0.804, -1, 35.5006, 48.7806, -13.2965, 96.3974, -55.3346, 42.7285
0.808, -1, 35.5136, 48.7603, -13.3209, 96.4302, -55.2159, 42.7693
0.812, -1, 35.5264, 48.7399, -13.3453, 96.4629, -55.0972, 42.8099
0.816, -1, 35.5393, 48.7196, -13.3697, 96.4956, -54.9787, 42.8506
0.82, -1, 35.5522, 48.6994, -13.3941, 96.5283, -54.8604, 42.8911
0.824, -1, 35.565, 48.6791, -13.4184, 96.5609, -54.7422, 42.9316
0.828, -1, 35.5778, 48.6589, -13.4427, 96.5935, -54.6241, 42.9721
0.832, -1, 35.5906, 48.6387, -13.467, 96.6261, -54.5062, 43.0125
0.836, -1, 35.6034, 48.6185, -13.4912, 96.6586, -54.3884, 43.0529
0.84, -1, 35.6162, 48.5983, -13.5154, 96.6911, -54.2707, 43.0933
0.844, -1, 35.629, 48.5782, -13.5396, 96.7235, -54.1532, 43.1335
0.848, -1, 35.6417, 48.5581, -13.5638, 96.7559, -54.0358, 43.1738
0.852, -1, 35.6545, 48.538, -13.5879, 96.7883, -53.9186, 43.214
0.856, -1, 35.6672, 48.5179, -13.612, 96.8206, -53.8015, 43.2541
0.86, -1, 35.6799, 48.4979, -13.6361, 96.8529, -53.6845, 43.2942
0.864, -1, 35.6925, 48.4779, -13.6601, 96.8852, -53.5677, 43.3343
0.868, -1, 35.7051, 48.458, -13.6841, 96.9174, -53.451, 43.3743
0.872, -1, 35.7176, 48.4381, -13.7081, 96.9496, -53.3345, 43.4142
0.876, -1, 35.73, 48.4184, -13.7321, 96.9817, -53.2181, 43.4541
0.88, -1, 35.7419, 48.3992, -13.756, 97.0137, -53.102, 43.4939
0.884, -1, 35.7533, 48.3805, -13.7798, 97.0457, -52.9863, 43.5336
0.888, -1, 35.7641, 48.3627, -13.8035, 97.0775, -52.8712, 43.5731
0.892, -1, 35.7742, 48.3457, -13.8269, 97.109, -52.757, 43.6122
0.896, -1, 35.7836, 48.3297, -13.8501, 97.1401, -52.6444, 43.6508
0.9, -1, 35.7924, 48.3145, -13.8728, 97.1706, -52.534, 43.6887
0.904, -1, 35.8007, 48.3002, -13.895, 97.2003, -52.4264, 43.7256
0.908, -1, 35.8087, 48.2866, -13.9163, 97.229, -52.3226, 43.7613
0.912, -1, 35.8164, 48.2736, -13.9367, 97.2564, -52.2234, 43.7953
0.916, -1, 35.8238, 48.2613, -13.956, 97.2823, -52.1296, 43.8275
0.92, -1, 35.8309, 48.2497, -13.9741, 97.3065, -52.042, 43.8576
0.924, -1, 35.8377, 48.2387, -13.9907, 97.3288, -51.9612, 43.8853
0.928, -1, 35.8442, 48.2281, -14.0057, 97.3491, -51.888, 43.9104
0.932, -1, 35.8507, 48.2178, -14.0192, 97.3671, -51.8226, 43.9328
0.936, -1, 35.8571, 48.2077, -14.031, 97.3829, -51.7653, 43.9524
0.94, -1, 35.8634, 48.1979, -14.0412, 97.3966, -51.716, 43.9693
0.944, -1, 35.8695, 48.1884, -14.0498, 97.4081, -51.6743, 43.9836
0.948, -1, 35.8755, 48.1793, -14.0569, 97.4175, -51.6399, 43.9954
0.952, -1, 35.8812, 48.1708, -14.0626, 97.4252, -51.612, 44.0049
0.956, -1, 35.8865, 48.1631, -14.0672, 97.4313, -51.5899, 44.0124
0.96, -1, 35.8915, 48.1562, -14.0707, 97.436, -51.5728, 44.0183
0.964, -1, 35.896, 48.1502, -14.0734, 97.4396, -51.5598, 44.0227
0.968, -1, 35.9001, 48.145, -14.0754, 97.4422, -51.5503, 44.0259
0.972, -1, 35.9037, 48.1406, -14.0768, 97.4441, -51.5433, 44.0283
0.976, 2, 35.9067, 48.1371, -14.0778, 97.4454, -51.5385, 44.0299
0.98, 2, 35.9091, 48.1343, -14.0785, 97.4463, -51.5351, 44.0311
0.984, 2, 35.911, 48.1323, -14.079, 97.4469, -51.5327, 44.0319
0.988, 2, 35.9123, 48.1308, -14.0793, 97.4474, -51.5312, 44.0324
0.992, 2, 35.9132, 48.1299, -14.0796, 97.4477, -51.5301, 44.0328
0.996, 2, 35.9138, 48.1292, -14.0797, 97.4479, -51.5294, 44.033
1, 2, 35.9142, 48.1287, -14.0798, 97.448, -51.5289, 44.0332
1.004, 2, 35.9145, 48.1284, -14.0799, 97.4481, -51.5285, 44.0333
1.008, 2, 35.9147, 48.1282, -14.0799, 97.4482, -51.5283, 44.0334
1.012, 2, 35.9149, 48.1281, -14.08, 97.4482, -51.5282, 44.0334
1.016, 2, 35.9149, 48.128, -14.08, 97.4482, -51.5281, 44.0335
1.02, 2, 35.915, 48.1279, -14.08, 97.4482, -51.528, 44.0335
1.024, 2, 35.915, 48.1279, -14.08, 97.4483, -51.5279, 44.0335
1.027, 2, 35.9151, 48.1278, -14.08, 97.4483, -51.5279, 44.0335
1.032, 2, 35.9151, 48.1278, -14.08, 97.4483, -51.5279, 44.0335
1.036, 2, 35.9151, 48.1278, -14.08, 97.4483, -51.5279, 44.0335
1.04, 2, 35.9151, 48.1278, -14.08, 97.4483, -51.5279, 44.0335
1.044, 2, 35.9151, 48.1278, -14.08, 97.4483, -51.5279, 44.0335
1.048, 2, 35.9151, 48.1278, -14.08, 97.4483, -51.5279, 44.0335
1.052, 2, 35.9151, 48.1278, -14.08, 97.4483, -51.5278, 44.0335
1.055, 2, 35.9151, 48.1278, -14.08, 97.4483, -51.5278, 44.0335
1.06, 2, 35.9151, 48.1278, -14.08, 97.4483, -51.5278, 44.0335
1.064, 2, 35.9151, 48.1278, -14.08, 97.4483, -51.5278, 44.0335
1.068, 2, 35.9151, 48.1278, -14.08, 97.4483, -51.5278, 44.0335
1.072, 2, 35.9151, 48.1278, -14.08, 97.4483, -51.5278, 44.0335
1.076, 2, 35.9151, 48.1278, -14.08, 97.4483, -51.5278, 44.0335
1.08, 2, 35.9151, 48.1278, -14.08, 97.4483, -51.5278, 44.0335
1.084, 2, 35.9151, 48.1278, -14.08, 97.4483, -51.5278, 44.0335
1.088, 2, 35.9151, 48.1278, -14.08, 97.4483, -51.5278, 44.0335
1.091, 2, 35.9151, 48.1278, -14.08, 97.4483, -51.5278, 44.0335
1.096, 2, 35.9151, 48.1278, -14.08, 97.4483, -51.5278, 44.0335
1.1, 2, 35.9151, 48.1278, -14.08, 97.4483, -51.5278, 44.0335
1.104, 2, 35.9151, 48.1278, -14.08, 97.4483, -51.5278, 44.0335
1.108, 2, 35.9151, 48.1278, -14.08, 97.4483, -51.5278, 44.0335
1.112, 2, 35.9151, 48.1278, -14.08, 97.4483, -51.5278, 44.0335
1.116, 2, 35.9151, 48.1278, -14.08, 97.4483, -51.5278, 44.0335
1.119, 2, 35.9151, 48.1278, -14.08, 97.4483, -51.5278, 44.0335
1.124, 2, 35.9151, 48.1278, -14.08, 97.4483, -51.5278, 44.0335
1.128, 2, 35.9151, 48.1278, -14.08, 97.4483, -51.5278, 44.0335
1.132, 2, 35.9151, 48.1278, -14.08, 97.4483, -51.5278, 44.0335
1.136, 2, 35.9151, 48.1278, -14.08, 97.4483, -51.5278, 44.0335
1.14, 2, 35.9151, 48.1278, -14.08, 97.4483, -51.5278, 44.0335
1.144, 2, 35.9151, 48.1278, -14.08, 97.4483, -51.5278, 44.0335
1.147, 2, 35.9151, 48.1278, -14.08, 97.4483, -51.5278, 44.0335
1.152, 2, 35.9151, 48.1278, -14.08, 97.4483, -51.5278, 44.0335
1.156, 2, 35.9151, 48.1278, -14.08, 97.4483, -51.5278, 44.0335
1.16, 2, 35.9151, 48.1278, -14.08, 97.4483, -51.5278, 44.0335
1.164, 2, 35.9151, 48.1278, -14.08, 97.4483, -51.5278, 44.0335
1.168, 2, 35.9151, 48.1278, -14.08, 97.4483, -51.5278, 44.0335
1.172, 2, 35.9151, 48.1278, -14.08, 97.4483, -51.5278, 44.0335
1.175, 2, 35.9151, 48.1278, -14.08, 97.4483, -51.5278, 44.0335
1.18, 2, 35.9151, 48.1278, -14.08, 97.4483, -51.5278, 44.0335
1.184, 2, 35.9151, 48.1278, -14.08, 97.4483, -51.5278, 44.0335
1.188, 2, 35.9151, 48.1278, -14.08, 97.4483, -51.5278, 44.0335
1.192, 2, 35.9151, 48.1278, -14.08, 97.4483, -51.5278, 44.0335
1.196, 2, 35.9151, 48.1278, -14.08, 97.4483, -51.5278, 44.0335
1.2, 2, 35.9151, 48.1278, -14.08, 97.4483, -51.5278, 44.0335
1.204, 2, 35.9151, 48.1278, -14.08, 97.4483, -51.5278, 44.0335
1.208, 2, 35.9151, 48.1278, -14.08, 97.4483, -51.5278, 44.0335
1.212, 2, 35.9151, 48.1278, -14.08, 97.4483, -51.5278, 44.0335
1.216, 2, 35.9151, 48.1278, -14.08, 97.4483, -51.5278, 44.0335
1.22, 2, 35.9151, 48.1278, -14.08, 97.4483, -51.5278, 44.0335
1.224, 2, 35.9151, 48.1278, -14.08, 97.4483, -51.5278, 44.0335
1.228, 2, 35.9151, 48.1278, -14.08, 97.4483, -51.5278, 44.0335
1.232, 2, 35.9151, 48.1278, -14.08, 97.4483, -51.5278, 44.0335
1.236, 2, 35.9151, 48.1278, -14.08, 97.4483, -51.5278, 44.0335
1.24, 2, 35.9151, 48.1278, -14.08, 97.4483, -51.5278, 44.0335
1.244, 2, 35.9151, 48.1278, -14.08, 97.4483, -51.5278, 44.0335
1.248, 2, 35.9151, 48.1278, -14.08, 97.4483, -51.5278, 44.0335
1.252, 2, 35.9151, 48.1278, -14.08, 97.4483, -51.5278, 44.0335
1.256, 2, 35.9151, 48.1278, -14.08, 97.4483, -51.5278, 44.0335
1.26, 2, 35.9151, 48.1278, -14.08, 97.4483, -51.5278, 44.0335
1.264, 2, 35.9151, 48.1278, -14.08, 97.4483, -51.5278, 44.0335
1.267, 2, 35.9151, 48.1278, -14.08, 97.4483, -51.5278, 44.0335
1.272, 2, 35.9151, 48.1278, -14.08, 97.4483, -51.5278, 44.0335
1.276, 2, 35.9151, 48.1278, -14.08, 97.4483, -51.5278, 44.0335
1.28, 2, 35.9151, 48.1278, -14.08, 97.4483, -51.5278, 44.0335
1.284, 2, 35.9151, 48.1278, -14.08, 97.4483, -51.5278, 44.0335
1.288, 2, 35.9151, 48.1278, -14.08, 97.4483, -51.5278, 44.0335
1.292, 2, 35.9151, 48.1278, -14.08, 97.4483, -51.5278, 44.0335
1.295, 2, 35.9151, 48.1278, -14.08, 97.4483, -51.5278, 44.0335
1.3, 2, 35.9151, 48.1278, -14.08, 97.4483, -51.5278, 44.0335
1.304, 2, 35.9151, 48.1278, -14.08, 97.4483, -51.5278, 44.0335
1.308, 2, 35.9151, 48.1278, -14.08, 97.4483, -51.5278, 44.0335
1.312, 2, 35.9151, 48.1278, -14.08, 97.4483, -51.5278, 44.0335
1.316, 2, 35.9151, 48.1278, -14.08, 97.4483, -51.5278, 44.0335
1.32, 2, 35.9151, 48.1278, -14.08, 97.4483, -51.5278, 44.0335
1.324, 2, 35.9151, 48.1278, -14.08, 97.4483, -51.5278, 44.0335
1.328, 2, 35.9151, 48.1278, -14.08, 97.4483, -51.5278, 44.0335
1.332, 2, 35.9151, 48.1278, -14.08, 97.4483, -51.5278, 44.0335
1.336, 2, 35.9151, 48.1278, -14.08, 97.4483, -51.5278, 44.0335
1.34, 2, 35.9151, 48.1278, -14.08, 97.4483, -51.5278, 44.0335
1.344, 2, 35.9151, 48.1278, -14.08, 97.4483, -51.5278, 44.0335
1.348, 2, 35.9151, 48.1278, -14.08, 97.4483, -51.5278, 44.0335
1.352, 2, 35.9151, 48.1278, -14.08, 97.4483, -51.5278, 44.0335
1.356, 2, 35.9151, 48.1278, -14.08, 97.4483, -51.5278, 44.0335
1.36, 2, 35.9151, 48.1278, -14.08, 97.4483, -51.5278, 44.0335
1.364, 2, 35.9151, 48.1278, -14.08, 97.4483, -51.5278, 44.0335
1.368, 2, 35.9151, 48.1278, -14.08, 97.4483, -51.5278, 44.0335
1.372, 2, 35.9151, 48.1278, -14.08, 97.4483, -51.5278, 44.0335
1.376, 2, 35.9151, 48.1278, -14.08, 97.4483, -51.5278, 44.0335
1.38, 2, 35.9151, 48.1278, -14.08, 97.4483, -51.5278, 44.0335
1.384, 2, 35.9151, 48.1278, -14.08, 97.4483, -51.5278, 44.0335
1.388, 2, 35.9151, 48.1278, -14.08, 97.4483, -51.5278, 44.0335
1.392, 2, 35.9151, 48.1278, -14.08, 97.4483, -51.5278, 44.0335
1.396, 2, 35.9151, 48.1278, -14.08, 97.4483, -51.5278, 44.0335
1.4, 2, 35.9151, 48.1278, -14.08, 97.4483, -51.5278, 44.0335
1.404, 2, 35.9151, 48.1278, -14.08, 97.4483, -51.5278, 44.0335
1.408, 2, 35.9151, 48.1278, -14.08, 97.4483, -51.5278, 44.0335
1.412, 2, 35.9151, 48.1278, -14.08, 97.4483, -51.5278, 44.0335
1.416, 2, 35.9151, 48.1278, -14.08, 97.4483, -51.5278, 44.0335
1.42, 2, 35.9151, 48.1278, -14.08, 97.4483, -51.5278, 44.0335
1.424, 2, 35.9151, 48.1278, -14.08, 97.4483, -51.5278, 44.0335
1.428, 2, 35.9151, 48.1278, -14.08, 97.4483, -51.5278, 44.0335
1.432, 2, 35.9151, 48.1278, -14.08, 97.4483, -51.5278, 44.0335
1.436, 2, 35.9151, 48.1278, -14.08, 97.4483, -51.5278, 44.0335
1.44, 2, 35.9151, 48.1278, -14.08, 97.4483, -51.5278, 44.0335
1.444, 2, 35.9151, 48.1278, -14.08, 97.4483, -51.5278, 44.0335
1.448, 2, 35.9151, 48.1278, -14.08, 97.4483, -51.5278, 44.0335
1.452, 2, 35.9151, 48.1278, -14.08, 97.4483, -51.5278, 44.0335
1.456, 2, 35.9151, 48.1278, -14.08, 97.4483, -51.5278, 44.0335
1.46, 2, 35.9151, 48.1278, -14.08, 97.4483, -51.5278, 44.0335
1.464, 2, 35.9151, 48.1278, -14.08, 97.4483, -51.5278, 44.0335
1.468, 2, 35.9151, 48.1278, -14.08, 97.4483, -51.5278, 44.0335
1.472, 2, 35.9151, 48.1278, -14.08, 97.4483, -51.5278, 44.0335
1.476, 2, 35.9151, 48.1278, -14.08, 97.4483, -51.5278, 44.0335
1.48, 2, 35.9151, 48.1278, -14.08, 97.4483, -51.5278, 44.0335
1.484, 2, 35.9151, 48.1278, -14.08, 97.4483, -51.5278, 44.0335
1.488, 2, 35.9151, 48.1278, -14.08, 97.4483, -51.5278, 44.0335
1.492, 2, 35.9151, 48.1278, -14.08, 97.4483, -51.5278, 44.0335
1.496, 2, 35.9151, 48.1278, -14.08, 97.4483, -51.5278, 44.0335
1.5, 2, 35.9151, 48.1278, -14.08, 97.4483, -51.5278, 44.0335
1.504, 2, 35.9151, 48.1278, -14.08, 97.4483, -51.5278, 44.0335
1.508, 2, 35.9151, 48.1278, -14.08, 97.4483, -51.5278, 44.0335
1.512, 2, 35.9151, 48.1278, -14.08, 97.4483, -51.5278, 44.0335
1.516, 2, 35.9151, 48.1278, -14.08, 97.4483, -51.5278, 44.0335
1.52, 2, 35.9151, 48.1278, -14.08, 97.4483, -51.5278, 44.0335
1.524, 2, 35.9151, 48.1278, -14.08, 97.4483, -51.5278, 44.0335
1.528, 2, 35.9151, 48.1278, -14.08, 97.4483, -51.5278, 44.0335
1.532, 2, 35.9151, 48.1278, -14.08, 97.4483, -51.5278, 44.0335
1.536, 2, 35.9151, 48.1278, -14.08, 97.4483, -51.5278, 44.0335
1.54, 2, 35.9151, 48.1278, -14.08, 97.4483, -51.5278, 44.0335
1.544, 2, 35.9151, 48.1278, -14.08, 97.4483, -51.5278, 44.0335
1.548, 2, 35.9151, 48.1278, -14.08, 97.4483, -51.5278, 44.0335
1.552, 2, 35.9151, 48.1278, -14.08, 97.4483, -51.5278, 44.0335
1.556, 2, 35.9151, 48.1278, -14.08, 97.4483, -51.5278, 44.0335
1.56, 2, 35.9151, 48.1278, -14.08, 97.4483, -51.5278, 44.0335
1.564, 2, 35.9151, 48.1278, -14.08, 97.4483, -51.5278, 44.0335
1.568, 2, 35.9151, 48.1278, -14.08, 97.4483, -51.5278, 44.0335
1.572, 2, 35.9151, 48.1278, -14.08, 97.4483, -51.5278, 44.0335
1.576, 2, 35.9151, 48.1278, -14.08, 97.4483, -51.5278, 44.0335
1.58, 2, 35.9151, 48.1278, -14.08, 97.4483, -51.5278, 44.0335
1.584, 2, 35.9151, 48.1278, -14.08, 97.4483, -51.5278, 44.0335
1.588, 2, 35.9151, 48.1278, -14.08, 97.4483, -51.5278, 44.0335
1.592, 2, 35.9151, 48.1278, -14.08, 97.4483, -51.5278, 44.0335
1.596, 2, 35.9151, 48.1278, -14.08, 97.4483, -51.5278, 44.0335
1.6, 2, 35.9151, 48.1278, -14.08, 97.4483, -51.5278, 44.0335
1.604, 2, 35.9151, 48.1278, -14.08, 97.4483, -51.5278, 44.0335
1.608, 2, 35.9151, 48.1278, -14.08, 97.4483, -51.5278, 44.0335
1.612, 2, 35.9151, 48.1278, -14.08, 97.4483, -51.5278, 44.0335
1.616, 2, 35.9151, 48.1278, -14.08, 97.4483, -51.5278, 44.0335
1.62, 2, 35.9151, 48.1278, -14.08, 97.4483, -51.5278, 44.0335
1.624, 2, 35.9151, 48.1278, -14.08, 97.4483, -51.5278, 44.0335
1.628, 2, 35.9151, 48.1278, -14.08, 97.4483, -51.5278, 44.0335
1.632, 2, 35.9151, 48.1278, -14.08, 97.4483, -51.5278, 44.0335
1.636, 2, 35.9151, 48.1278, -14.08, 97.4483, -51.5278, 44.0335
1.64, 2, 35.9151, 48.1278, -14.08, 97.4483, -51.5278, 44.0335
1.644, 2, 35.9151, 48.1278, -14.08, 97.4483, -51.5278, 44.0335
1.648, 2, 35.9151, 48.1278, -14.08, 97.4483, -51.5278, 44.0335
1.652, 2, 35.9151, 48.1278, -14.08, 97.4483, -51.5278, 44.0335
1.656, 2, 35.9151, 48.1278, -14.08, 97.4483, -51.5278, 44.0335
1.66, 2, 35.9151, 48.1278, -14.08, 97.4483, -51.5278, 44.0335
1.664, 2, 35.9151, 48.1278, -14.08, 97.4483, -51.5278, 44.0335
1.668, 2, 35.9151, 48.1278, -14.08, 97.4483, -51.5278, 44.0335
1.672, 2, 35.9151, 48.1278, -14.08, 97.4483, -51.5278, 44.0335
1.676, 2, 35.9151, 48.1278, -14.08, 97.4483, -51.5278, 44.0335
1.68, 2, 35.9151, 48.1278, -14.08, 97.4483, -51.5278, 44.0335
1.684, 2, 35.9151, 48.1278, -14.08, 97.4483, -51.5278, 44.0335
1.688, 2, 35.9151, 48.1278, -14.08, 97.4483, -51.5278, 44.0335
1.692, 2, 35.9151, 48.1278, -14.08, 97.4483, -51.5278, 44.0335
1.696, 2, 35.9151, 48.1278, -14.08, 97.4483, -51.5278, 44.0335
1.7, 2, 35.9151, 48.1278, -14.08, 97.4483, -51.5278, 44.0335
1.704, 2, 35.9151, 48.1278, -14.08, 97.4483, -51.5278, 44.0335
1.708, 2, 35.9151, 48.1278, -14.08, 97.4483, -51.5278, 44.0335
1.712, 2, 35.9151, 48.1278, -14.08, 97.4483, -51.5278, 44.0335
1.716, 2, 35.9151, 48.1278, -14.08, 97.4483, -51.5278, 44.0335
1.72, 2, 35.9151, 48.1278, -14.08, 97.4483, -51.5278, 44.0335
1.724, 2, 35.9151, 48.1278, -14.08, 97.4483, -51.5278, 44.0335
1.728, 2, 35.9151, 48.1278, -14.08, 97.4483, -51.5278, 44.0335
1.732, 2, 35.9151, 48.1278, -14.08, 97.4483, -51.5278, 44.0335
1.736, 2, 35.9151, 48.1278, -14.08, 97.4483, -51.5278, 44.0335
1.74, 2, 35.9151, 48.1278, -14.08, 97.4483, -51.5278, 44.0335
1.744, 2, 35.9151, 48.1278, -14.08, 97.4483, -51.5278, 44.0335
1.748, 2, 35.9151, 48.1278, -14.08, 97.4483, -51.5278, 44.0335
1.752, 2, 35.9151, 48.1278, -14.08, 97.4483, -51.5278, 44.0335
1.756, 2, 35.9151, 48.1278, -14.08, 97.4483, -51.5278, 44.0335
1.76, 2, 35.9151, 48.1278, -14.08, 97.4483, -51.5278, 44.0335
1.764, 2, 35.9151, 48.1278, -14.08, 97.4483, -51.5278, 44.0335
1.768, 2, 35.9151, 48.1278, -14.08, 97.4483, -51.5278, 44.0335
1.772, 2, 35.9151, 48.1278, -14.08, 97.4483, -51.5278, 44.0335
1.776, 2, 35.9151, 48.1278, -14.08, 97.4483, -51.5278, 44.0335
1.78, 2, 35.9151, 48.1278, -14.08, 97.4483, -51.5278, 44.0335
1.784, 2, 35.9151, 48.1278, -14.08, 97.4483, -51.5278, 44.0335
1.788, 2, 35.9151, 48.1278, -14.08, 97.4483, -51.5278, 44.0335
1.792, 2, 35.9151, 48.1278, -14.08, 97.4483, -51.5278, 44.0335
1.796, 2, 35.9151, 48.1278, -14.08, 97.4483, -51.5278, 44.0335
1.8, 2, 35.9151, 48.1278, -14.08, 97.4483, -51.5278, 44.0335
1.804, 2, 35.9151, 48.1278, -14.08, 97.4483, -51.5278, 44.0335
1.808, 2, 35.9151, 48.1278, -14.08, 97.4483, -51.5278, 44.0335
1.812, 2, 35.9151, 48.1278, -14.08, 97.4483, -51.5278, 44.0335
1.816, 2, 35.9151, 48.1278, -14.08, 97.4483, -51.5278, 44.0335
1.82, 2, 35.9151, 48.1278, -14.08, 97.4483, -51.5278, 44.0335
1.824, 2, 35.9151, 48.1278, -14.08, 97.4483, -51.5278, 44.0335
1.828, 2, 35.9151, 48.1278, -14.08, 97.4483, -51.5278, 44.0335
1.832, 2, 35.9151, 48.1278, -14.08, 97.4483, -51.5278, 44.0335
1.836, 2, 35.9151, 48.1278, -14.08, 97.4483, -51.5278, 44.0335
1.84, 2, 35.9151, 48.1278, -14.08, 97.4483, -51.5278, 44.0335
1.844, 2, 35.9151, 48.1278, -14.08, 97.4483, -51.5278, 44.0335
1.848, 2, 35.9151, 48.1278, -14.08, 97.4483, -51.5278, 44.0335
1.852, 2, 35.9151, 48.1278, -14.08, 97.4483, -51.5278, 44.0335
1.856, 2, 35.9151, 48.1278, -14.08, 97.4483, -51.5278, 44.0335
1.86, 2, 35.9151, 48.1278, -14.08, 97.4483, -51.5278, 44.0335
1.864, 2, 35.9151, 48.1278, -14.08, 97.4483, -51.5278, 44.0335
1.868, 2, 35.9151, 48.1278, -14.08, 97.4483, -51.5278, 44.0335
1.872, 2, 35.9151, 48.1278, -14.08, 97.4483, -51.5278, 44.0335
1.876, 2, 35.9151, 48.1278, -14.08, 97.4483, -51.5278, 44.0335
1.88, 2, 35.9151, 48.1278, -14.08, 97.4483, -51.5278, 44.0335
1.884, 2, 35.9151, 48.1278, -14.08, 97.4483, -51.5278, 44.0335
1.888, 2, 35.9151, 48.1278, -14.08, 97.4483, -51.5278, 44.0335
1.892, 2, 35.9151, 48.1278, -14.08, 97.4483, -51.5278, 44.0335
1.896, 2, 35.9151, 48.1278, -14.08, 97.4483, -51.5278, 44.0335
1.9, 2, 35.9151, 48.1278, -14.08, 97.4483, -51.5278, 44.0335
1.904, 2, 35.9151, 48.1278, -14.08, 97.4483, -51.5278, 44.0335
1.908, 2, 35.9151, 48.1278, -14.08, 97.4483, -51.5278, 44.0335
1.912, 2, 35.9151, 48.1278, -14.08, 97.4483, -51.5278, 44.0335
1.916, 2, 35.9151, 48.1278, -14.08, 97.4483, -51.5278, 44.0335
1.92, 2, 35.9151, 48.1278, -14.08, 97.4483, -51.5278, 44.0335
1.924, 2, 35.9151, 48.1278, -14.08, 97.4483, -51.5278, 44.0335
1.928, 2, 35.9151, 48.1278, -14.08, 97.4483, -51.5278, 44.0335
1.932, 2, 35.9151, 48.1278, -14.08, 97.4483, -51.5278, 44.0335
1.936, 2, 35.9151, 48.1278, -14.08, 97.4483, -51.5278, 44.0335
1.94, 2, 35.9151, 48.1278, -14.08, 97.4483, -51.5278, 44.0335
1.944, 2, 35.9151, 48.1278, -14.08, 97.4483, -51.5278, 44.0335
1.948, 2, 35.9151, 48.1278, -14.08, 97.4483, -51.5278, 44.0335
1.952, 2, 35.9151, 48.1278, -14.08, 97.4483, -51.5278, 44.0335
1.956, 2, 35.9151, 48.1278, -14.08, 97.4483, -51.5278, 44.0335
1.96, 2, 35.9151, 48.1278, -14.08, 97.4483, -51.5278, 44.0335
1.964, 2, 35.9151, 48.1278, -14.08, 97.4483, -51.5278, 44.0335
1.968, 2, 35.9151, 48.1278, -14.08, 97.4483, -51.5278, 44.0335
1.972, 2, 35.9151, 48.1278, -14.08, 97.4483, -51.5278, 44.0335
1.976, 2, 35.9151, 48.1278, -14.08, 97.4483, -51.5278, 44.0335
1.98, 2, 35.9151, 48.1278, -14.08, 97.4483, -51.5278, 44.0335
1.984, 2, 35.9151, 48.1278, -14.08, 97.4483, -51.5278, 44.0335
1.988, 2, 35.9151, 48.1278, -14.08, 97.4483, -51.5278, 44.0335
1.992, 2, 35.9151, 48.1278, -14.08, 97.4483, -51.5278, 44.0335
1.996, 2, 35.9151, 48.1278, -14.08, 97.4483, -51.5278, 44.0335
1.999, 2, 35.9151, 48.1278, -14.08, 97.4483, -51.5278, 44.0335
2.004, 2, 35.9151, 48.1278, -14.08, 97.4483, -51.5278, 44.0335
2.008, 2, 35.9151, 48.1278, -14.08, 97.4483, -51.5278, 44.0335
2.012, 2, 35.9151, 48.1278, -14.08, 97.4483, -51.5278, 44.0335
2.015, 2, 35.9151, 48.1278, -14.08, 97.4483, -51.5278, 44.0335
2.019, 2, 35.9151, 48.1278, -14.08, 97.4483, -51.5278, 44.0335
2.024, 2, 35.9151, 48.1278, -14.08, 97.4483, -51.5278, 44.0335
2.028, 2, 35.9151, 48.1278, -14.08, 97.4483, -51.5278, 44.0335
2.031, 4, 35.9151, 48.1278, -14.08, 97.4483, -51.5278, 44.0335
2.036, 4, 35.9151, 48.1278, -14.08, 97.4483, -51.5278, 44.0335
2.04, 4, 35.9151, 48.1278, -14.08, 97.4483, -51.5278, 44.0335
2.044, 4, 35.9151, 48.1278, -14.08, 97.4483, -51.5278, 44.0335
2.048, 4, 35.9151, 48.1278, -14.08, 97.4483, -51.5278, 44.0335
2.051, 4, 35.9151, 48.1278, -14.08, 97.4483, -51.5278, 44.0335
2.055, 4, 35.9151, 48.1278, -14.08, 97.4483, -51.5278, 44.0335
2.06, 4, 35.9151, 48.1278, -14.08, 97.4483, -51.5278, 44.0335
2.064, 4, 35.9151, 48.1278, -14.08, 97.4483, -51.5278, 44.0335
2.068, 4, 35.9151, 48.1278, -14.08, 97.4483, -51.5278, 44.0335
2.071, 4, 35.9151, 48.1278, -14.08, 97.4483, -51.5278, 44.0335
2.076, 4, 35.9151, 48.1278, -14.08, 97.4483, -51.5278, 44.0335
2.08, 4, 35.9151, 48.1278, -14.08, 97.4483, -51.5278, 44.0335
2.084, 4, 35.9151, 48.1278, -14.08, 97.4483, -51.5278, 44.0335
2.087, 4, 35.9151, 48.1278, -14.08, 97.4483, -51.5278, 44.0335
2.092, 4, 35.9151, 48.1278, -14.08, 97.4483, -51.5278, 44.0335
2.096, 4, 35.9151, 48.1278, -14.08, 97.4483, -51.5278, 44.0335
2.1, 4, 35.9151, 48.1278, -14.08, 97.4483, -51.5278, 44.0335
2.104, 4, 35.9151, 48.1278, -14.08, 97.4483, -51.5278, 44.0335
2.107, 4, 35.9151, 48.1278, -14.08, 97.4483, -51.5278, 44.0335
2.111, 4, 35.9151, 48.1278, -14.08, 97.4483, -51.5278, 44.0335
2.116, 4, 35.9151, 48.1278, -14.08, 97.4483, -51.5278, 44.0335
2.12, 4, 35.9151, 48.1278, -14.08, 97.4483, -51.5278, 44.0335
2.124, 4, 35.9151, 48.1278, -14.08, 97.4483, -51.5278, 44.0335
2.127, 4, 35.9151, 48.1278, -14.08, 97.4483, -51.5278, 44.0335
2.132, 4, 35.9151, 48.1278, -14.08, 97.4483, -51.5278, 44.0335
2.136, 4, 35.9151, 48.1278, -14.08, 97.4483, -51.5278, 44.0335
2.14, 4, 35.9151, 48.1278, -14.08, 97.4483, -51.5278, 44.0335
2.143, 4, 35.9151, 48.1278, -14.08, 97.4483, -51.5278, 44.0335
2.148, 4, 35.9151, 48.1278, -14.08, 97.4483, -51.5278, 44.0335
2.152, 4, 35.9151, 48.1278, -14.08, 97.4483, -51.5278, 44.0335
2.156, 4, 35.9151, 48.1278, -14.08, 97.4483, -51.5278, 44.0335
2.16, 4, 35.9151, 48.1278, -14.08, 97.4483, -51.5278, 44.0335
2.163, 4, 35.9151, 48.1278, -14.08, 97.4483, -51.5278, 44.0335
2.168, 4, 35.9151, 48.1278, -14.08, 97.4483, -51.5278, 44.0335
2.172, 4, 35.9151, 48.1278, -14.08, 97.4483, -51.5279, 44.0335
2.176, 4, 35.9149, 48.128, -14.08, 97.4483, -51.5279, 44.0335
2.179, 4, 35.9146, 48.1283, -14.0799, 97.4483, -51.528, 44.0335
2.184, 4, 35.9139, 48.129, -14.0797, 97.4482, -51.5284, 44.0333
2.188, 4, 35.9128, 48.1301, -14.0793, 97.4481, -51.5293, 44.0329
2.192, 4, 35.9114, 48.1317, -14.0787, 97.4478, -51.5312, 44.0321
2.196, 4, 35.9096, 48.1336, -14.0776, 97.4472, -51.5347, 44.0306
2.199, 4, 35.9077, 48.1358, -14.0759, 97.4463, -51.5405, 44.0282
2.204, 4, 35.9056, 48.1382, -14.0735, 97.4448, -51.5494, 44.0244
2.208, 4, 35.9036, 48.1405, -14.0703, 97.4427, -51.5622, 44.0188
2.212, 4, 35.9017, 48.1428, -14.066, 97.4399, -51.5796, 44.0113
2.216, 5, 35.8998, 48.145, -14.0606, 97.4361, -51.6022, 44.0015
2.219, 5, 35.898, 48.1471, -14.0539, 97.4314, -51.6306, 43.9892
2.224, 5, 35.8962, 48.1492, -14.0458, 97.4256, -51.6651, 43.9742
2.228, 5, 35.8944, 48.1513, -14.0364, 97.4188, -51.7058, 43.9566
2.232, 5, 35.8926, 48.1532, -14.0256, 97.4109, -51.7527, 43.9362
2.235, 5, 35.891, 48.155, -14.0135, 97.402, -51.8058, 43.9133
2.24, 5, 35.8895, 48.1567, -14.0001, 97.392, -51.8646, 43.8878
2.244, 5, 35.8881, 48.1582, -13.9856, 97.3812, -51.9287, 43.8601
2.248, 5, 35.8867, 48.1598, -13.97, 97.3695, -51.9972, 43.8305
2.252, 5, 35.8852, 48.1615, -13.9537, 97.3572, -52.0695, 43.7993
2.255, 5, 35.8835, 48.1636, -13.9366, 97.3443, -52.1448, 43.7669
2.259, 5, 35.8815, 48.1661, -13.9189, 97.331, -52.2223, 43.7335
2.264, 5, 35.8791, 48.169, -13.9009, 97.3173, -52.3014, 43.6995
2.268, 5, 35.8764, 48.1723, -13.8826, 97.3034, -52.3817, 43.6651
2.272, 5, 35.8735, 48.176, -13.864, 97.2893, -52.4628, 43.6304
2.275, 5, 35.8703, 48.1799, -13.8453, 97.275, -52.5444, 43.5956
2.28, 5, 35.867, 48.184, -13.8265, 97.2606, -52.6264, 43.5606
2.284, 5, 35.8636, 48.1883, -13.8077, 97.2461, -52.7087, 43.5256
2.288, 5, 35.8601, 48.1927, -13.7888, 97.2315, -52.7911, 43.4906
2.291, 5, 35.8565, 48.1973, -13.77, 97.2168, -52.8736, 43.4556
2.296, 5, 35.8528, 48.2019, -13.7511, 97.202, -52.9562, 43.4206
2.3, 5, 35.8492, 48.2066, -13.7322, 97.1872, -53.0388, 43.3857
2.304, 5, 35.8454, 48.2114, -13.7134, 97.1722, -53.1214, 43.3509
2.308, 5, 35.8417, 48.2162, -13.6945, 97.1572, -53.204, 43.3161
2.311, 5, 35.8379, 48.2212, -13.6757, 97.1422, -53.2867, 43.2814
2.316, 5, 35.8341, 48.2262, -13.6569, 97.127, -53.3693, 43.2467
2.32, 5, 35.8302, 48.2313, -13.6381, 97.1118, -53.4519, 43.2121
2.324, 5, 35.8263, 48.2364, -13.6193, 97.0965, -53.5346, 43.1775
2.328, 5, 35.8224, 48.2416, -13.6006, 97.0812, -53.6172, 43.1431
2.331, 5, 35.8185, 48.2469, -13.5819, 97.0658, -53.6997, 43.1087
2.336, 5, 35.8145, 48.2522, -13.5632, 97.0503, -53.7823, 43.0743
2.34, 5, 35.8105, 48.2577, -13.5445, 97.0348, -53.8649, 43.0401
2.344, 5, 35.8065, 48.2631, -13.5258, 97.0191, -53.9474, 43.0059
2.347, 5, 35.8025, 48.2687, -13.5072, 97.0035, -54.0299, 42.9718
2.352, 5, 35.7984, 48.2743, -13.4885, 96.9877, -54.1124, 42.9377
2.356, 5, 35.7943, 48.2799, -13.4699, 96.9719, -54.1949, 42.9037
2.36, 5, 35.7902, 48.2857, -13.4514, 96.9561, -54.2773, 42.8698
2.364, 5, 35.786, 48.2915, -13.4328, 96.9401, -54.3598, 42.8359
2.367, 5, 35.7819, 48.2973, -13.4143, 96.9241, -54.4422, 42.8021
2.372, 5, 35.7777, 48.3033, -13.3957, 96.9081, -54.5246, 42.7684
2.376, 5, 35.7734, 48.3093, -13.3772, 96.8919, -54.607, 42.7347
2.38, 5, 35.7692, 48.3153, -13.3588, 96.8757, -54.6894, 42.7011
2.383, 5, 35.7649, 48.3214, -13.3403, 96.8595, -54.7717, 42.6676
2.388, 5, 35.7606, 48.3276, -13.3219, 96.8432, -54.854, 42.6341
2.392, 5, 35.7562, 48.3339, -13.3034, 96.8268, -54.9364, 42.6007
2.396, 5, 35.7519, 48.3402, -13.285, 96.8104, -55.0187, 42.5674
2.4, 5, 35.7475, 48.3466, -13.2667, 96.7938, -55.1009, 42.5341
2.403, 5, 35.743, 48.353, -13.2483, 96.7773, -55.1832, 42.5009
2.408, 5, 35.7386, 48.3595, -13.23, 96.7607, -55.2654, 42.4678
2.412, 5, 35.7341, 48.3661, -13.2116, 96.744, -55.3477, 42.4347
2.416, 5, 35.7296, 48.3727, -13.1933, 96.7272, -55.4299, 42.4017
2.42, 5, 35.725, 48.3794, -13.1751, 96.7104, -55.512, 42.3687
2.423, 5, 35.7205, 48.3862, -13.1568, 96.6936, -55.5942, 42.3358
2.428, 5, 35.7159, 48.393, -13.1386, 96.6766, -55.6763, 42.303
2.432, 5, 35.7113, 48.3999, -13.1203, 96.6596, -55.7585, 42.2702
2.436, 5, 35.7066, 48.4069, -13.1021, 96.6426, -55.8406, 42.2375
2.439, 5, 35.7019, 48.4139, -13.0839, 96.6255, -55.9227, 42.2049
2.444, 5, 35.6972, 48.421, -13.0658, 96.6083, -56.0047, 42.1723
2.448, 5, 35.6925, 48.4281, -13.0476, 96.5911, -56.0868, 42.1398
2.452, 5, 35.6877, 48.4353, -13.0295, 96.5738, -56.1688, 42.1073
2.456, 5, 35.6829, 48.4426, -13.0114, 96.5565, -56.2509, 42.0749
2.459, 5, 35.6781, 48.4499, -12.9933, 96.5391, -56.3329, 42.0426
2.464, 5, 35.6733, 48.4573, -12.9752, 96.5216, -56.4148, 42.0103
2.468, 5, 35.6684, 48.4648, -12.9572, 96.5041, -56.4968, 41.9781
2.472, 5, 35.6635, 48.4723, -12.9391, 96.4865, -56.5787, 41.946
2.476, 5, 35.6585, 48.4799, -12.9211, 96.4689, -56.6607, 41.9139
2.479, 5, 35.6536, 48.4875, -12.9031, 96.4512, -56.7426, 41.8818
2.484, 5, 35.6486, 48.4952, -12.8851, 96.4334, -56.8245, 41.8498
2.488, 5, 35.6436, 48.503, -12.8671, 96.4156, -56.9063, 41.8179
2.492, 5, 35.6385, 48.5108, -12.8492, 96.3978, -56.9882, 41.7861
2.495, 5, 35.6334, 48.5187, -12.8313, 96.3799, -57.07, 41.7543
2.5, 5, 35.6283, 48.5267, -12.8134, 96.3619, -57.1518, 41.7225
2.504, 5, 35.6232, 48.5347, -12.7955, 96.3439, -57.2336, 41.6909
2.508, 5, 35.618, 48.5428, -12.7776, 96.3258, -57.3154, 41.6592
2.512, 5, 35.6128, 48.5509, -12.7597, 96.3076, -57.3971, 41.6277
2.515, 5, 35.6076, 48.5591, -12.7419, 96.2894, -57.4789, 41.5962
2.52, 5, 35.6023, 48.5674, -12.7241, 96.2712, -57.5606, 41.5647
2.524, 5, 35.597, 48.5757, -12.7063, 96.2529, -57.6423, 41.5333
2.528, 5, 35.5917, 48.5841, -12.6885, 96.2345, -57.724, 41.502
2.531, 5, 35.5864, 48.5926, -12.6707, 96.2161, -57.8056, 41.4707
2.536, 5, 35.581, 48.6011, -12.6529, 96.1976, -57.8873, 41.4395
2.54, 5, 35.5756, 48.6096, -12.6352, 96.1791, -57.9689, 41.4083
2.544, 5, 35.5701, 48.6183, -12.6175, 96.1605, -58.0505, 41.3772
2.548, 5, 35.5647, 48.627, -12.5998, 96.1419, -58.1321, 41.3462
2.551, 5, 35.5592, 48.6357, -12.5821, 96.1232, -58.2137, 41.3152
2.556, 5, 35.5536, 48.6446, -12.5644, 96.1045, -58.2952, 41.2842
2.56, 5, 35.5481, 48.6534, -12.5468, 96.0857, -58.3768, 41.2534
2.564, 5, 35.5425, 48.6624, -12.5291, 96.0668, -58.4583, 41.2225
2.568, 5, 35.5369, 48.6714, -12.5115, 96.0479, -58.5398, 41.1918
2.571, 5, 35.5312, 48.6804, -12.4939, 96.029, -58.6213, 41.161
2.576, 5, 35.5256, 48.6896, -12.4763, 96.01, -58.7027, 41.1304
2.58, 5, 35.5199, 48.6987, -12.4588, 95.9909, -58.7842, 41.0998
2.584, 5, 35.5141, 48.708, -12.4412, 95.9718, -58.8656, 41.0692
2.587, 5, 35.5083, 48.7173, -12.4237, 95.9527, -58.947, 41.0387
2.592, 5, 35.5025, 48.7267, -12.4062, 95.9335, -59.0284, 41.0083
2.596, 5, 35.4967, 48.7361, -12.3886, 95.9142, -59.1098, 40.9779
2.6, 5, 35.4909, 48.7456, -12.3712, 95.8949, -59.1911, 40.9475
2.604, 5, 35.485, 48.7551, -12.3537, 95.8755, -59.2724, 40.9173
2.607, 5, 35.479, 48.7647, -12.3362, 95.8561, -59.3537, 40.887
2.612, 5, 35.4731, 48.7744, -12.3188, 95.8367, -59.435, 40.8568
2.616, 5, 35.4671, 48.7841, -12.3014, 95.8171, -59.5163, 40.8267
2.62, 5, 35.4611, 48.7939, -12.284, 95.7976, -59.5976, 40.7966
2.624, 5, 35.455, 48.8037, -12.2666, 95.778, -59.6788, 40.7666
2.627, 5, 35.449, 48.8136, -12.2492, 95.7583, -59.76, 40.7367
2.632, 5, 35.4428, 48.8236, -12.2318, 95.7386, -59.8412, 40.7067
2.636, 5, 35.4367, 48.8336, -12.2145, 95.7188, -59.9224, 40.6769
2.64, 5, 35.4305, 48.8437, -12.1972, 95.699, -60.0036, 40.6471
2.643, 5, 35.4243, 48.8539, -12.1799, 95.6792, -60.0847, 40.6173
2.648, 5, 35.4181, 48.8641, -12.1626, 95.6592, -60.1658, 40.5876
2.652, 5, 35.4118, 48.8743, -12.1453, 95.6393, -60.2469, 40.5579
2.656, 5, 35.4055, 48.8847, -12.128, 95.6193, -60.328, 40.5283
2.66, 5, 35.3992, 48.895, -12.1108, 95.5992, -60.4091, 40.4988
2.663, 5, 35.3928, 48.9055, -12.0935, 95.5791, -60.4901, 40.4693
2.668, 5, 35.3865, 48.916, -12.0763, 95.559, -60.5712, 40.4398
2.672, 5, 35.38, 48.9265, -12.0591, 95.5388, -60.6522, 40.4104
2.676, 5, 35.3736, 48.9372, -12.0419, 95.5185, -60.7332, 40.381
2.679, 5, 35.3671, 48.9479, -12.0247, 95.4982, -60.8142, 40.3517
2.684, 5, 35.3606, 48.9586, -12.0076, 95.4779, -60.8951, 40.3225
2.688, 5, 35.354, 48.9694, -11.9904, 95.4575, -60.976, 40.2933
2.692, 5, 35.3474, 48.9802, -11.9733, 95.4371, -61.057, 40.2641
2.696, 5, 35.3408, 48.9912, -11.9562, 95.4166, -61.1379, 40.235
2.699, 5, 35.3342, 49.0021, -11.9391, 95.3961, -61.2187, 40.2059
2.704, 5, 35.3275, 49.0132, -11.922, 95.3755, -61.2996, 40.1769
2.708, 5, 35.3208, 49.0243, -11.9049, 95.3549, -61.3805, 40.148
2.712, 5, 35.314, 49.0354, -11.8878, 95.3342, -61.4613, 40.1191
2.716, 5, 35.3072, 49.0466, -11.8708, 95.3135, -61.5421, 40.0902
2.719, 5, 35.3004, 49.0579, -11.8538, 95.2928, -61.6229, 40.0614
2.724, 5, 35.2936, 49.0692, -11.8368, 95.272, -61.7036, 40.0326
2.728, 5, 35.2867, 49.0806, -11.8198, 95.2511, -61.7844, 40.0039
2.732, 5, 35.2798, 49.092, -11.8028, 95.2302, -61.8651, 39.9752
2.735, 5, 35.2728, 49.1035, -11.7858, 95.2093, -61.9458, 39.9466
2.74, 5, 35.2659, 49.1151, -11.7688, 95.1883, -62.0265, 39.918
2.744, 5, 35.2589, 49.1267, -11.7519, 95.1673, -62.1072, 39.8895
2.748, 5, 35.2518, 49.1384, -11.735, 95.1462, -62.1879, 39.861
2.752, 5, 35.2447, 49.1501, -11.7181, 95.1251, -62.2685, 39.8325
2.755, 5, 35.2376, 49.1619, -11.7012, 95.104, -62.3491, 39.8041
2.76, 5, 35.2305, 49.1738, -11.6843, 95.0828, -62.4297, 39.7758
2.764, 5, 35.2233, 49.1857, -11.6674, 95.0615, -62.5103, 39.7475
2.768, 5, 35.2161, 49.1977, -11.6505, 95.0402, -62.5909, 39.7192
2.772, 5, 35.2089, 49.2097, -11.6337, 95.0189, -62.6714, 39.691
2.775, 5, 35.2016, 49.2218, -11.6169, 94.9975, -62.7519, 39.6629
2.78, 5, 35.1943, 49.2339, -11.6, 94.9761, -62.8324, 39.6347
2.784, 5, 35.1869, 49.2461, -11.5832, 94.9546, -62.9129, 39.6067
2.788, 5, 35.1796, 49.2583, -11.5664, 94.9331, -62.9934, 39.5787
2.791, 5, 35.1721, 49.2707, -11.5497, 94.9116, -63.0738, 39.5507
2.796, 5, 35.1647, 49.283, -11.5329, 94.89, -63.1543, 39.5227
2.8, 5, 35.1572, 49.2955, -11.5162, 94.8684, -63.2347, 39.4948
2.804, 5, 35.1497, 49.3079, -11.4994, 94.8467, -63.3151, 39.467
2.808, 5, 35.1422, 49.3205, -11.4827, 94.825, -63.3955, 39.4392
2.811, 5, 35.1346, 49.3331, -11.466, 94.8032, -63.4758, 39.4114
2.816, 5, 35.127, 49.3457, -11.4493, 94.7814, -63.5562, 39.3837
2.82, 5, 35.1193, 49.3584, -11.4326, 94.7596, -63.6365, 39.3561
2.824, 5, 35.1117, 49.3712, -11.416, 94.7377, -63.7168, 39.3284
2.828, 5, 35.104, 49.384, -11.3993, 94.7158, -63.7971, 39.3009
2.831, 5, 35.0962, 49.3969, -11.3827, 94.6938, -63.8774, 39.2733
2.836, 5, 35.0884, 49.4099, -11.366, 94.6718, -63.9576, 39.2458
2.84, 5, 35.0806, 49.4228, -11.3494, 94.6498, -64.0378, 39.2184
2.844, 5, 35.0728, 49.4358, -11.3328, 94.6277, -64.1181, 39.191
2.847, 5, 35.0651, 49.4488, -11.3162, 94.6056, -64.1982, 39.1636
2.852, 5, 35.0577, 49.4616, -11.2997, 94.5834, -64.2784, 39.1363
2.856, 5, 35.0505, 49.4741, -11.2832, 94.5612, -64.3583, 39.1091
2.86, 5, 35.0437, 49.4861, -11.2667, 94.5391, -64.4381, 39.082
2.864, 5, 35.0373, 49.4974, -11.2504, 94.517, -64.5174, 39.055
2.867, 5, 35.0314, 49.508, -11.2342, 94.4951, -64.596, 39.0284
2.872, 5, 35.0259, 49.5178, -11.2183, 94.4735, -64.6735, 39.0021
2.876, 5, 35.0207, 49.5269, -11.2026, 94.4522, -64.7495, 38.9764
2.88, 5, 35.0159, 49.5353, -11.1875, 94.4315, -64.8233, 38.9514
2.883, 5, 35.0113, 49.5432, -11.1729, 94.4116, -64.8945, 38.9274
2.888, 5, 35.0069, 49.5508, -11.159, 94.3925, -64.9623, 38.9045
2.892, 5, 35.0026, 49.5582, -11.1459, 94.3745, -65.0262, 38.883
2.896, 5, 34.9984, 49.5654, -11.1337, 94.3579, -65.0855, 38.863
2.9, 5, 34.9942, 49.5726, -11.1226, 94.3426, -65.1397, 38.8447
2.903, 5, 34.9901, 49.5796, -11.1126, 94.3288, -65.1885, 38.8283
2.908, 5, 34.986, 49.5865, -11.1037, 94.3166, -65.2317, 38.8138
2.912, 5, 34.9819, 49.5933, -11.096, 94.306, -65.2691, 38.8012
2.916, 5, 34.9778, 49.6, -11.0894, 94.2971, -65.301, 38.7905
2.92, 5, 34.9738, 49.6065, -11.0839, 94.2896, -65.3275, 38.7816
2.923, 5, 34.9699, 49.613, -11.0794, 94.2835, -65.349, 38.7744
2.928, 5, 34.966, 49.6194, -11.0759, 94.2787, -65.3661, 38.7687
2.932, 5, 34.9622, 49.6255, -11.0731, 94.2749, -65.3792, 38.7643
2.936, 5, 34.9586, 49.6312, -11.071, 94.2722, -65.3891, 38.761
2.939, 5, 34.9554, 49.6363, -11.0695, 94.2701, -65.3964, 38.7586
2.944, 5, 34.9525, 49.6407, -11.0684, 94.2687, -65.4016, 38.7569
2.948, 5, 34.9501, 49.6442, -11.0676, 94.2677, -65.4052, 38.7557
2.952, 5, 34.9482, 49.6468, -11.0671, 94.267, -65.4077, 38.7548
2.956, 5, 34.9468, 49.6488, -11.0667, 94.2665, -65.4093, 38.7543
2.959, 5, 34.9457, 49.6502, -11.0665, 94.2662, -65.4105, 38.7539
2.964, 5, 34.9446, 49.6515, -11.0663, 94.2659, -65.4114, 38.7536
2.968, 5, 34.9434, 49.6527, -11.0661, 94.2657, -65.4121, 38.7534
2.972, 5, 34.9419, 49.6543, -11.0659, 94.2655, -65.4129, 38.7531
2.976, 5, 34.94, 49.6563, -11.0657, 94.2652, -65.414, 38.7527
2.98, 5, 34.9376, 49.6588, -11.0652, 94.2647, -65.4159, 38.7521
2.984, 5, 34.9349, 49.6619, -11.0646, 94.2638, -65.4189, 38.7511
2.988, 5, 34.9318, 49.6656, -11.0636, 94.2625, -65.4237, 38.7495
2.992, 5, 34.9286, 49.6697, -11.0621, 94.2605, -65.4307, 38.7472
2.995, 6, 34.9252, 49.6743, -11.06, 94.2577, -65.4405, 38.7439
3, 6, 34.9217, 49.6793, -11.0573, 94.2539, -65.4538, 38.7395
3.004, 6, 34.918, 49.6847, -11.0537, 94.249, -65.4711, 38.7337
3.008, 6, 34.9141, 49.6906, -11.0492, 94.2428, -65.493, 38.7265
3.012, 6, 34.91, 49.6969, -11.0437, 94.2351, -65.5197, 38.7176
3.015, 6, 34.9059, 49.7035, -11.0372, 94.226, -65.5516, 38.707
3.02, 6, 34.9016, 49.7104, -11.0296, 94.2153, -65.5889, 38.6945
3.024, 6, 34.8973, 49.7176, -11.0209, 94.203, -65.6317, 38.6803
3.028, 6, 34.893, 49.725, -11.0111, 94.1892, -65.6798, 38.6643
3.031, 6, 34.8885, 49.7327, -11.0002, 94.1739, -65.7329, 38.6467
3.036, 6, 34.8839, 49.7408, -10.9885, 94.1573, -65.7908, 38.6275
3.04, 6, 34.879, 49.7495, -10.9759, 94.1394, -65.8528, 38.6069
3.044, 6, 34.8738, 49.7588, -10.9625, 94.1204, -65.9184, 38.5852
3.048, 6, 34.8682, 49.7688, -10.9485, 94.1006, -65.9872, 38.5624
3.051, 6, 34.8622, 49.7794, -10.934, 94.0799, -66.0585, 38.5388
3.056, 6, 34.8559, 49.7908, -10.9191, 94.0587, -66.132, 38.5145
3.06, 6, 34.8492, 49.8027, -10.9038, 94.0369, -66.207, 38.4897
3.064, 6, 34.8422, 49.8152, -10.8883, 94.0147, -66.2834, 38.4646
3.068, 6, 34.8348, 49.8281, -10.8726, 93.9922, -66.3608, 38.4391
3.071, 6, 34.8271, 49.8415, -10.8567, 93.9695, -66.4388, 38.4134
3.076, 6, 34.8191, 49.8553, -10.8407, 93.9465, -66.5173, 38.3876
3.08, 6, 34.8108, 49.8694, -10.8247, 93.9235, -66.5962, 38.3617
3.084, 6, 34.8023, 49.8837, -10.8086, 93.9003, -66.6754, 38.3358
3.087, 6, 34.7936, 49.8983, -10.7925, 93.8771, -66.7546, 38.3098
3.092, 6, 34.7848, 49.913, -10.7764, 93.8537, -66.834, 38.2839
3.096, 6, 34.7759, 49.9279, -10.7603, 93.8304, -66.9135, 38.2579
3.1, 6, 34.7668, 49.9428, -10.7442, 93.8069, -66.9929, 38.232
3.104, 6, 34.7577, 49.9579, -10.7281, 93.7834, -67.0724, 38.2061
3.107, 6, 34.7486, 49.973, -10.712, 93.7599, -67.1519, 38.1802
3.112, 6, 34.7394, 49.9881, -10.696, 93.7364, -67.2314, 38.1544
3.116, 6, 34.7302, 50.0034, -10.6799, 93.7128, -67.3109, 38.1286
3.12, 6, 34.7209, 50.0187, -10.6638, 93.6891, -67.3904, 38.1028
3.124, 6, 34.7115, 50.034, -10.6478, 93.6655, -67.4699, 38.0771
3.128, 6, 34.7022, 50.0495, -10.6317, 93.6417, -67.5493, 38.0514
3.132, 6, 34.6928, 50.0649, -10.6157, 93.618, -67.6288, 38.0258
3.136, 6, 34.6833, 50.0805, -10.5997, 93.5942, -67.7082, 38.0001
3.14, 6, 34.6738, 50.0961, -10.5837, 93.5704, -67.7876, 37.9745
3.143, 6, 34.6643, 50.1117, -10.5677, 93.5466, -67.867, 37.949
3.148, 6, 34.6547, 50.1274, -10.5517, 93.5227, -67.9464, 37.9235
3.152, 6, 34.6452, 50.1431, -10.5358, 93.4988, -68.0257, 37.898
3.156, 6, 34.6355, 50.1589, -10.5198, 93.4748, -68.1051, 37.8726
3.16, 6, 34.6259, 50.1748, -10.5039, 93.4508, -68.1844, 37.8472
3.163, 6, 34.6161, 50.1907, -10.4879, 93.4268, -68.2637, 37.8218
3.168, 6, 34.6064, 50.2067, -10.472, 93.4027, -68.343, 37.7965
3.172, 6, 34.5966, 50.2227, -10.4561, 93.3786, -68.4223, 37.7712
3.176, 6, 34.5868, 50.2388, -10.4402, 93.3545, -68.5016, 37.7459
3.179, 6, 34.5769, 50.2549, -10.4244, 93.3303, -68.5808, 37.7207
3.184, 6, 34.5671, 50.2711, -10.4085, 93.3062, -68.66, 37.6955
3.188, 6, 34.5571, 50.2873, -10.3927, 93.2819, -68.7393, 37.6703
3.192, 6, 34.5472, 50.3036, -10.3768, 93.2577, -68.8185, 37.6452
3.196, 6, 34.5371, 50.3199, -10.361, 93.2334, -68.8976, 37.6201
3.199, 6, 34.5271, 50.3363, -10.3452, 93.209, -68.9768, 37.5951
3.204, 6, 34.517, 50.3528, -10.3294, 93.1847, -69.0559, 37.57
3.208, 6, 34.5069, 50.3693, -10.3136, 93.1603, -69.1351, 37.5451
3.212, 6, 34.4967, 50.3858, -10.2978, 93.1359, -69.2142, 37.5201
3.216, 6, 34.4865, 50.4024, -10.2821, 93.1114, -69.2933, 37.4952
3.22, 6, 34.4763, 50.4191, -10.2663, 93.0869, -69.3724, 37.4703
3.224, 6, 34.466, 50.4358, -10.2506, 93.0624, -69.4514, 37.4455
3.228, 6, 34.4557, 50.4526, -10.2348, 93.0378, -69.5305, 37.4207
3.232, 6, 34.4454, 50.4694, -10.2191, 93.0133, -69.6095, 37.3959
3.235, 6, 34.435, 50.4863, -10.2034, 92.9886, -69.6885, 37.3711
3.24, 6, 34.4246, 50.5032, -10.1877, 92.964, -69.7675, 37.3464
3.244, 6, 34.4141, 50.5202, -10.1721, 92.9393, -69.8465, 37.3217
3.248, 6, 34.4036, 50.5372, -10.1564, 92.9146, -69.9255, 37.2971
3.252, 6, 34.3931, 50.5543, -10.1408, 92.8898, -70.0045, 37.2725
3.255, 6, 34.3825, 50.5714, -10.1251, 92.865, -70.0834, 37.2479
3.26, 6, 34.3719, 50.5886, -10.1095, 92.8402, -70.1623, 37.2233
3.264, 6, 34.3612, 50.6058, -10.0939, 92.8154, -70.2412, 37.1988
3.268, 6, 34.3505, 50.6231, -10.0783, 92.7905, -70.3201, 37.1743
3.272, 6, 34.3398, 50.6405, -10.0627, 92.7656, -70.399, 37.1499
3.276, 6, 34.329, 50.6579, -10.0472, 92.7407, -70.4779, 37.1255
3.28, 6, 34.3182, 50.6753, -10.0316, 92.7157, -70.5567, 37.1011
3.284, 6, 34.3074, 50.6928, -10.0161, 92.6907, -70.6356, 37.0767
3.288, 6, 34.2965, 50.7104, -10.0005, 92.6656, -70.7144, 37.0524
3.291, 6, 34.2856, 50.728, -9.98501, 92.6406, -70.7932, 37.0281
3.296, 6, 34.2746, 50.7456, -9.96951, 92.6155, -70.872, 37.0039
3.3, 6, 34.2636, 50.7633, -9.95402, 92.5904, -70.9507, 36.9796
3.304, 6, 34.2526, 50.7811, -9.93854, 92.5652, -71.0295, 36.9554
3.308, 6, 34.2415, 50.7989, -9.92307, 92.54, -71.1082, 36.9313
3.312, 6, 34.2304, 50.8168, -9.90762, 92.5148, -71.1869, 36.9071
3.316, 6, 34.2192, 50.8347, -9.89218, 92.4895, -71.2656, 36.883
3.32, 6, 34.208, 50.8527, -9.87676, 92.4643, -71.3443, 36.859
3.324, 6, 34.1968, 50.8707, -9.86134, 92.439, -71.423, 36.8349
3.328, 6, 34.1855, 50.8888, -9.84595, 92.4136, -71.5017, 36.8109
3.332, 6, 34.1742, 50.9069, -9.83056, 92.3882, -71.5803, 36.7869
3.336, 6, 34.1629, 50.9251, -9.81519, 92.3628, -71.659, 36.763
3.34, 6, 34.1515, 50.9433, -9.79983, 92.3374, -71.7376, 36.7391
3.344, 6, 34.1401, 50.9616, -9.78448, 92.312, -71.8162, 36.7152
3.347, 6, 34.1286, 50.9799, -9.76915, 92.2865, -71.8948, 36.6913
3.352, 6, 34.1171, 50.9983, -9.75383, 92.2609, -71.9734, 36.6675
3.356, 6, 34.1055, 51.0167, -9.73852, 92.2354, -72.0519, 36.6437
3.36, 6, 34.0939, 51.0352, -9.72323, 92.2098, -72.1305, 36.6199
3.364, 6, 34.0823, 51.0537, -9.70794, 92.1842, -72.209, 36.5962
3.368, 6, 34.0706, 51.0723, -9.69268, 92.1586, -72.2875, 36.5725
3.372, 6, 34.0589, 51.0909, -9.67742, 92.1329, -72.366, 36.5488
3.376, 6, 34.0472, 51.1096, -9.66218, 92.1072, -72.4445, 36.5251
3.38, 6, 34.0354, 51.1283, -9.64696, 92.0815, -72.523, 36.5015
3.383, 6, 34.0236, 51.1471, -9.63174, 92.0557, -72.6015, 36.4779
3.388, 6, 34.0117, 51.166, -9.61654, 92.0299, -72.6799, 36.4543
3.392, 6, 33.9998, 51.1849, -9.60136, 92.0041, -72.7583, 36.4308
3.396, 6, 33.9879, 51.2038, -9.58618, 91.9782, -72.8368, 36.4073
3.4, 6, 33.9759, 51.2228, -9.57102, 91.9524, -72.9152, 36.3838
3.403, 6, 33.9639, 51.2418, -9.55588, 91.9265, -72.9936, 36.3604
3.408, 6, 33.9518, 51.2609, -9.54075, 91.9005, -73.0719, 36.3369
3.412, 6, 33.9397, 51.2801, -9.52563, 91.8746, -73.1503, 36.3136
3.416, 6, 33.9275, 51.2993, -9.51052, 91.8486, -73.2286, 36.2902
3.42, 6, 33.9154, 51.3185, -9.49543, 91.8226, -73.307, 36.2668
3.424, 6, 33.9031, 51.3378, -9.48035, 91.7965, -73.3853, 36.2435
3.428, 6, 33.8909, 51.3571, -9.46529, 91.7705, -73.4636, 36.2203
3.432, 6, 33.8785, 51.3765, -9.45024, 91.7444, -73.5419, 36.197
3.436, 6, 33.8662, 51.396, -9.4352, 91.7182, -73.6202, 36.1738
3.439, 6, 33.8538, 51.4155, -9.42018, 91.6921, -73.6984, 36.1506
3.444, 6, 33.8414, 51.435, -9.40517, 91.6659, -73.7767, 36.1274
3.448, 6, 33.8289, 51.4546, -9.39017, 91.6397, -73.8549, 36.1042
3.452, 6, 33.8164, 51.4743, -9.37519, 91.6134, -73.9332, 36.0811
3.456, 6, 33.8039, 51.494, -9.36022, 91.5872, -74.0114, 36.058
3.46, 6, 33.7913, 51.5137, -9.34527, 91.5609, -74.0896, 36.035
3.464, 6, 33.7786, 51.5335, -9.33033, 91.5345, -74.1677, 36.0119
3.468, 6, 33.766, 51.5533, -9.3154, 91.5082, -74.2459, 35.9889
3.472, 6, 33.7532, 51.5732, -9.30049, 91.4818, -74.3241, 35.9659
3.476, 6, 33.7405, 51.5932, -9.28559, 91.4554, -74.4022, 35.943
3.48, 6, 33.7277, 51.6132, -9.27071, 91.429, -74.4804, 35.92
3.484, 6, 33.7148, 51.6332, -9.25584, 91.4025, -74.5585, 35.8971
3.488, 6, 33.702, 51.6533, -9.24098, 91.376, -74.6366, 35.8742
3.492, 6, 33.689, 51.6735, -9.22614, 91.3495, -74.7147, 35.8514
3.495, 6, 33.6761, 51.6937, -9.21131, 91.3229, -74.7927, 35.8286
3.5, 6, 33.6631, 51.7139, -9.19649, 91.2964, -74.8708, 35.8058
3.504, 6, 33.65, 51.7342, -9.18169, 91.2698, -74.9489, 35.783
3.508, 6, 33.6369, 51.7545, -9.16691, 91.2432, -75.0269, 35.7602
3.512, 6, 33.6238, 51.7749, -9.15213, 91.2165, -75.1049, 35.7375
3.516, 6, 33.6106, 51.7954, -9.13738, 91.1898, -75.1829, 35.7148
3.52, 6, 33.5974, 51.8159, -9.12263, 91.1631, -75.2609, 35.6921
3.524, 6, 33.5842, 51.8364, -9.1079, 91.1364, -75.3389, 35.6695
3.528, 6, 33.5709, 51.857, -9.09319, 91.1096, -75.4169, 35.6468
3.531, 6, 33.5576, 51.8777, -9.07849, 91.0829, -75.4949, 35.6242
3.536, 6, 33.5442, 51.8983, -9.0638, 91.056, -75.5728, 35.6016
3.54, 6, 33.5308, 51.9191, -9.04913, 91.0292, -75.6508, 35.5791
3.544, 6, 33.5173, 51.9399, -9.03447, 91.0023, -75.7287, 35.5566
3.548, 6, 33.5038, 51.9607, -9.01983, 90.9755, -75.8066, 35.534
3.552, 6, 33.4902, 51.9816, -9.0052, 90.9486, -75.8845, 35.5116
3.556, 6, 33.4767, 52.0025, -8.99058, 90.9216, -75.9624, 35.4891
3.56, 6, 33.463, 52.0235, -8.97598, 90.8946, -76.0403, 35.4667
3.564, 6, 33.4493, 52.0446, -8.9614, 90.8677, -76.1181, 35.4443
3.568, 6, 33.4356, 52.0656, -8.94683, 90.8406, -76.196, 35.4219
3.572, 6, 33.4219, 52.0868, -8.93227, 90.8136, -76.2738, 35.3995
3.576, 6, 33.4081, 52.108, -8.91774, 90.7865, -76.3516, 35.3772
3.58, 6, 33.3942, 52.1292, -8.90321, 90.7594, -76.4295, 35.3549
3.584, 6, 33.3804, 52.1505, -8.8887, 90.7323, -76.5073, 35.3326
3.587, 6, 33.3664, 52.1718, -8.8742, 90.7051, -76.5851, 35.3103
3.592, 6, 33.3525, 52.1932, -8.85972, 90.678, -76.6628, 35.2881
3.596, 6, 33.3385, 52.2146, -8.84526, 90.6508, -76.7406, 35.2658
3.6, 6, 33.3244, 52.2361, -8.83081, 90.6236, -76.8184, 35.2436
3.604, 6, 33.3103, 52.2576, -8.81638, 90.5963, -76.8961, 35.2214
3.608, 6, 33.2962, 52.2792, -8.80196, 90.569, -76.9738, 35.1993
3.612, 6, 33.282, 52.3008, -8.78755, 90.5417, -77.0516, 35.1772
3.616, 6, 33.2678, 52.3224, -8.77316, 90.5144, -77.1293, 35.155
3.62, 6, 33.2535, 52.3442, -8.75879, 90.487, -77.207, 35.133
3.624, 6, 33.2392, 52.3659, -8.74443, 90.4597, -77.2847, 35.1109
3.628, 6, 33.2248, 52.3877, -8.73009, 90.4323, -77.3623, 35.0888
3.632, 6, 33.2105, 52.4096, -8.71576, 90.4048, -77.44, 35.0668
3.636, 6, 33.1961, 52.4315, -8.70145, 90.3774, -77.5176, 35.0448
3.64, 6, 33.1819, 52.4533, -8.68714, 90.3499, -77.5953, 35.0228
3.644, 6, 33.1679, 52.4748, -8.67285, 90.3224, -77.6729, 35.0009
3.648, 6, 33.1545, 52.4959, -8.65857, 90.2949, -77.7504, 34.979
3.652, 6, 33.1417, 52.5163, -8.64432, 90.2675, -77.8276, 34.9572
3.656, 6, 33.1295, 52.5357, -8.63012, 90.2402, -77.9045, 34.9355
3.66, 6, 33.118, 52.5542, -8.61602, 90.2131, -77.9807, 34.914
3.664, 6, 33.1071, 52.5716, -8.6021, 90.1863, -78.0559, 34.8928
3.668, 6, 33.0967, 52.5882, -8.58843, 90.1601, -78.1296, 34.8721
3.672, 6, 33.0867, 52.604, -8.57511, 90.1345, -78.2014, 34.8519
3.676, 6, 33.077, 52.6191, -8.56224, 90.1097, -78.2707, 34.8324
3.679, 6, 33.0676, 52.6335, -8.54992, 90.0861, -78.3371, 34.8138
3.684, 6, 33.0588, 52.6473, -8.53826, 90.0636, -78.3999, 34.7961
3.688, 6, 33.0503, 52.6605, -8.52737, 90.0426, -78.4586, 34.7796
3.692, 6, 33.0421, 52.6731, -8.51734, 90.0232, -78.5128, 34.7644
3.696, 6, 33.0342, 52.6852, -8.50825, 90.0056, -78.5621, 34.7506
3.7, 6, 33.0265, 52.697, -8.50016, 89.9898, -78.6062, 34.7382
3.704, 6, 33.0189, 52.7084, -8.4931, 89.9759, -78.645, 34.7274
3.708, 6, 33.0115, 52.7194, -8.48705, 89.9639, -78.6786, 34.718
3.712, 6, 33.0044, 52.7299, -8.48198, 89.9537, -78.707, 34.71
3.716, 6, 32.9977, 52.74, -8.47781, 89.9452, -78.7307, 34.7033
3.72, 6, 32.9914, 52.7495, -8.47446, 89.9382, -78.75, 34.6979
3.724, 6, 32.9855, 52.7583, -8.47183, 89.9327, -78.7655, 34.6936
3.728, 6, 32.98, 52.7665, -8.46982, 89.9284, -78.7775, 34.6902
3.732, 6, 32.975, 52.7739, -8.46834, 89.9251, -78.7867, 34.6876
3.735, 6, 32.9704, 52.7804, -8.46727, 89.9226, -78.7935, 34.6857
3.74, 6, 32.9663, 52.7859, -8.46653, 89.9208, -78.7984, 34.6843
3.744, 7, 32.9629, 52.7904, -8.46603, 89.9196, -78.8019, 34.6834
3.748, 7, 32.96, 52.7938, -8.46569, 89.9187, -78.8044, 34.6827
3.752, 7, 32.9578, 52.7963, -8.46547, 89.9181, -78.806, 34.6822
3.756, 7, 32.9563, 52.7981, -8.46533, 89.9177, -78.8072, 34.6819
3.76, 7, 32.9552, 52.7994, -8.46523, 89.9174, -78.8079, 34.6817
3.764, 7, 32.9544, 52.8002, -8.46516, 89.9172, -78.8085, 34.6815
3.768, 7, 32.9539, 52.8008, -8.46511, 89.9171, -78.8088, 34.6814
3.772, 7, 32.9536, 52.8011, -8.46508, 89.917, -78.8091, 34.6813
3.776, 7, 32.9533, 52.8014, -8.46506, 89.917, -78.8092, 34.6813
3.78, 7, 32.9532, 52.8016, -8.46505, 89.9169, -78.8093, 34.6813
3.784, 7, 32.9531, 52.8017, -8.46504, 89.9169, -78.8094, 34.6813
3.788, 7, 32.953, 52.8018, -8.46503, 89.9169, -78.8094, 34.6812
3.792, 7, 32.9529, 52.8018, -8.46503, 89.9169, -78.8095, 34.6812
3.796, 7, 32.9529, 52.8019, -8.46502, 89.9169, -78.8095, 34.6812
3.8, 7, 32.9529, 52.8019, -8.46502, 89.9168, -78.8095, 34.6812
3.804, 7, 32.9529, 52.8019, -8.46502, 89.9168, -78.8095, 34.6812
3.808, 7, 32.9529, 52.8019, -8.46502, 89.9168, -78.8095, 34.6812
3.812, 7, 32.9529, 52.8019, -8.46502, 89.9168, -78.8095, 34.6812
3.816, 7, 32.9528, 52.8019, -8.46502, 89.9168, -78.8095, 34.6812
3.82, 7, 32.9528, 52.8019, -8.46502, 89.9168, -78.8095, 34.6812
3.824, 7, 32.9528, 52.8019, -8.46502, 89.9168, -78.8095, 34.6812
3.828, 7, 32.9528, 52.8019, -8.46502, 89.9168, -78.8096, 34.6812
3.832, 7, 32.9528, 52.8019, -8.46502, 89.9168, -78.8096, 34.6812
3.836, 7, 32.9528, 52.8019, -8.46502, 89.9168, -78.8096, 34.6812
3.84, 7, 32.9528, 52.8019, -8.46502, 89.9168, -78.8096, 34.6812
3.844, 7, 32.9528, 52.8019, -8.46502, 89.9168, -78.8096, 34.6812
3.848, 7, 32.9528, 52.8019, -8.46502, 89.9168, -78.8096, 34.6812
3.852, 7, 32.9528, 52.8019, -8.46502, 89.9168, -78.8096, 34.6812
3.856, 7, 32.9528, 52.8019, -8.46502, 89.9168, -78.8096, 34.6812
3.86, 7, 32.9528, 52.8019, -8.46502, 89.9168, -78.8096, 34.6812
