hehonglu123/ABB_Primitive_Study/execution/movel_smooth/curve_exe_v1500_z20.csv
timestamp, cmd_num, J1, J2, J3, J4, J5, J6
0, -1, 32.9528, 52.8019, -8.46502, 89.9168, -78.8096, 34.6812
0.002, -1, 32.9528, 52.8019, -8.46502, 89.9168, -78.8096, 34.6812
0.006, -1, 32.9528, 52.8019, -8.46502, 89.9168, -78.8096, 34.6812
0.008, -1, 32.9528, 52.8019, -8.46502, 89.9168, -78.8096, 34.6812
0.011, -1, 32.9528, 52.8019, -8.46502, 89.9168, -78.8096, 34.6812
0.016, -1, 32.9528, 52.8019, -8.46502, 89.9168, -78.8096, 34.6812
0.02, -1, 32.9528, 52.8019, -8.46502, 89.9168, -78.8096, 34.6812
0.024, -1, 32.9528, 52.8019, -8.46502, 89.9168, -78.8096, 34.6812
0.028, -1, 32.9528, 52.8019, -8.46502, 89.9168, -78.8096, 34.6812
0.032, -1, 32.9528, 52.8019, -8.46502, 89.9168, -78.8096, 34.6812
0.036, -1, 32.9529, 52.8019, -8.46502, 89.9168, -78.8096, 34.6812
0.04, -1, 32.9531, 52.8018, -8.46503, 89.9168, -78.8095, 34.6812
0.044, -1, 32.9535, 52.8014, -8.46504, 89.9169, -78.8095, 34.6812
0.048, -1, 32.9543, 52.8006, -8.46509, 89.9169, -78.8093, 34.6813
0.052, -1, 32.9556, 52.7993, -8.46521, 89.917, -78.8088, 34.6815
0.056, -1, 32.9574, 52.7971, -8.46543, 89.9173, -78.8079, 34.6818
0.06, -1, 32.9597, 52.794, -8.46584, 89.9178, -78.8061, 34.6824
0.064, -1, 32.9625, 52.7899, -8.46653, 89.9186, -78.803, 34.6835
0.068, -1, 32.9659, 52.7849, -8.46761, 89.92, -78.798, 34.6852
0.072, -1, 32.9697, 52.7789, -8.46923, 89.922, -78.7905, 34.6877
0.076, -1, 32.9741, 52.7719, -8.47155, 89.925, -78.7796, 34.6915
0.08, -1, 32.9791, 52.7639, -8.47475, 89.9292, -78.7644, 34.6967
0.084, -1, 32.9847, 52.7549, -8.47904, 89.9348, -78.744, 34.7037
0.088, -1, 32.991, 52.7451, -8.48461, 89.9421, -78.7174, 34.7128
0.092, -1, 32.9978, 52.7344, -8.49169, 89.9515, -78.6834, 34.7244
0.096, -1, 33.005, 52.7231, -8.50046, 89.9631, -78.6411, 34.7389
0.1, -1, 33.0126, 52.7112, -8.51109, 89.9773, -78.5897, 34.7566
0.104, -1, 33.0204, 52.699, -8.5237, 89.9942, -78.5285, 34.7775
0.108, -1, 33.0284, 52.6863, -8.53837, 90.0139, -78.4572, 34.802
0.112, -1, 33.0368, 52.673, -8.55512, 90.0364, -78.3757, 34.8299
0.116, -1, 33.0455, 52.6592, -8.57391, 90.0617, -78.2841, 34.8613
0.12, -1, 33.0546, 52.6447, -8.59467, 90.0896, -78.183, 34.896
0.124, -1, 33.0642, 52.6296, -8.61726, 90.12, -78.0728, 34.9337
0.128, -1, 33.0741, 52.6139, -8.64153, 90.1527, -77.9545, 34.9743
0.131, -1, 33.0844, 52.5977, -8.6673, 90.1875, -77.8288, 35.0174
0.136, -1, 33.0949, 52.5809, -8.69437, 90.2239, -77.6968, 35.0627
0.139, -1, 33.1058, 52.5633, -8.72251, 90.2618, -77.5596, 35.1097
0.144, -1, 33.1172, 52.5447, -8.75152, 90.3009, -77.4182, 35.1582
0.148, -1, 33.1293, 52.525, -8.7812, 90.3408, -77.2736, 35.2077
0.152, -1, 33.1421, 52.5041, -8.81138, 90.3814, -77.1267, 35.2581
0.156, -1, 33.1556, 52.4819, -8.8419, 90.4224, -76.9782, 35.309
0.16, -1, 33.17, 52.4586, -8.87265, 90.4637, -76.8286, 35.3603
0.164, -1, 33.1849, 52.4345, -8.90354, 90.5052, -76.6784, 35.4118
0.168, -1, 33.2004, 52.4098, -8.9345, 90.5467, -76.5279, 35.4634
0.172, -1, 33.2161, 52.3847, -8.9655, 90.5883, -76.3772, 35.515
0.176, -1, 33.2321, 52.3594, -8.9965, 90.6299, -76.2265, 35.5667
0.18, -1, 33.2481, 52.334, -9.02748, 90.6715, -76.076, 35.6183
0.184, -1, 33.2643, 52.3084, -9.05844, 90.713, -75.9256, 35.6699
0.188, -1, 33.2805, 52.2828, -9.08935, 90.7545, -75.7754, 35.7214
0.192, -1, 33.2967, 52.2573, -9.12022, 90.7959, -75.6254, 35.7728
0.196, -1, 33.3129, 52.2317, -9.15103, 90.8372, -75.4757, 35.8241
0.2, -1, 33.3291, 52.2061, -9.1818, 90.8785, -75.3262, 35.8753
0.204, -1, 33.3453, 52.1806, -9.21251, 90.9197, -75.177, 35.9265
0.208, -1, 33.3614, 52.1551, -9.24316, 90.9608, -75.028, 35.9775
0.212, -1, 33.3776, 52.1296, -9.27376, 91.0018, -74.8794, 36.0285
0.216, -1, 33.3937, 52.1042, -9.3043, 91.0428, -74.731, 36.0794
0.22, -1, 33.4098, 52.0788, -9.33479, 91.0837, -74.5829, 36.1302
0.224, -1, 33.4258, 52.0535, -9.36522, 91.1245, -74.435, 36.1808
0.228, -1, 33.4419, 52.0282, -9.3956, 91.1652, -74.2874, 36.2314
0.232, -1, 33.4579, 52.003, -9.42592, 91.2059, -74.1401, 36.2819
0.236, -1, 33.4738, 51.9778, -9.45618, 91.2465, -73.9931, 36.3323
0.24, -1, 33.4898, 51.9526, -9.48639, 91.287, -73.8463, 36.3826
0.244, -1, 33.5057, 51.9275, -9.51654, 91.3275, -73.6998, 36.4329
0.248, -1, 33.5216, 51.9025, -9.54664, 91.3678, -73.5536, 36.483
0.252, -1, 33.5374, 51.8774, -9.57668, 91.4081, -73.4076, 36.533
0.256, -1, 33.5533, 51.8525, -9.60667, 91.4483, -73.2619, 36.583
0.26, -1, 33.5691, 51.8276, -9.6366, 91.4885, -73.1165, 36.6328
0.264, -1, 33.5848, 51.8027, -9.66649, 91.5286, -72.9713, 36.6826
0.268, -1, 33.6006, 51.7778, -9.69631, 91.5686, -72.8264, 36.7323
0.272, -1, 33.6163, 51.7531, -9.72609, 91.6085, -72.6817, 36.7819
0.276, -1, 33.632, 51.7283, -9.75581, 91.6484, -72.5373, 36.8314
0.28, -1, 33.6476, 51.7036, -9.78547, 91.6882, -72.3932, 36.8808
0.284, -1, 33.6633, 51.679, -9.81509, 91.7279, -72.2493, 36.9301
0.288, -1, 33.6789, 51.6544, -9.84465, 91.7675, -72.1057, 36.9794
0.292, -1, 33.6945, 51.6298, -9.87416, 91.8071, -71.9623, 37.0285
0.296, -1, 33.71, 51.6053, -9.90362, 91.8466, -71.8191, 37.0776
0.3, -1, 33.7255, 51.5808, -9.93303, 91.8861, -71.6763, 37.1265
0.304, -1, 33.741, 51.5563, -9.96238, 91.9255, -71.5336, 37.1754
0.308, -1, 33.7565, 51.5319, -9.99169, 91.9648, -71.3913, 37.2243
0.312, -1, 33.7719, 51.5076, -10.0209, 92.004, -71.2491, 37.273
0.316, -1, 33.7873, 51.4833, -10.0501, 92.0432, -71.1073, 37.3216
0.32, -1, 33.8027, 51.459, -10.0793, 92.0823, -70.9656, 37.3702
0.324, -1, 33.8181, 51.4348, -10.1084, 92.1213, -70.8242, 37.4186
0.328, -1, 33.8334, 51.4106, -10.1374, 92.1603, -70.6831, 37.467
0.332, -1, 33.8487, 51.3864, -10.1665, 92.1992, -70.5422, 37.5153
0.336, -1, 33.864, 51.3623, -10.1954, 92.238, -70.4015, 37.5636
0.34, -1, 33.8793, 51.3383, -10.2243, 92.2768, -70.261, 37.6117
0.344, -1, 33.8945, 51.3142, -10.2532, 92.3155, -70.1209, 37.6598
0.348, -1, 33.9097, 51.2903, -10.282, 92.3541, -69.9809, 37.7077
0.352, -1, 33.9249, 51.2663, -10.3107, 92.3927, -69.8412, 37.7556
0.356, -1, 33.94, 51.2424, -10.3394, 92.4312, -69.7017, 37.8034
0.36, -1, 33.9552, 51.2186, -10.3681, 92.4696, -69.5624, 37.8512
0.364, -1, 33.9703, 51.1947, -10.3967, 92.508, -69.4234, 37.8988
0.368, -1, 33.9853, 51.171, -10.4253, 92.5463, -69.2846, 37.9464
0.372, -1, 34.0004, 51.1472, -10.4538, 92.5846, -69.1461, 37.9939
0.376, -1, 34.0154, 51.1235, -10.4823, 92.6228, -69.0078, 38.0413
0.38, -1, 34.0304, 51.0998, -10.5107, 92.6609, -68.8697, 38.0887
0.384, -1, 34.0454, 51.0762, -10.5391, 92.6989, -68.7318, 38.1359
0.388, -1, 34.0604, 51.0526, -10.5674, 92.7369, -68.5941, 38.1831
0.392, -1, 34.0753, 51.0291, -10.5957, 92.7749, -68.4567, 38.2302
0.396, -1, 34.0902, 51.0056, -10.6239, 92.8127, -68.3195, 38.2773
0.4, -1, 34.1051, 50.9821, -10.6521, 92.8506, -68.1826, 38.3242
0.404, -1, 34.1199, 50.9587, -10.6803, 92.8883, -68.0458, 38.3711
0.408, -1, 34.1348, 50.9353, -10.7084, 92.926, -67.9093, 38.4179
0.412, -1, 34.1496, 50.9119, -10.7364, 92.9636, -67.773, 38.4646
0.416, -1, 34.1643, 50.8886, -10.7644, 93.0012, -67.6369, 38.5113
0.42, -1, 34.1791, 50.8653, -10.7924, 93.0387, -67.501, 38.5579
0.424, -1, 34.1938, 50.8421, -10.8203, 93.0762, -67.3653, 38.6044
0.428, -1, 34.2086, 50.8189, -10.8482, 93.1136, -67.2299, 38.6508
0.432, -1, 34.2232, 50.7957, -10.876, 93.1509, -67.0947, 38.6971
0.436, -1, 34.2379, 50.7726, -10.9038, 93.1881, -66.9597, 38.7434
0.44, -1, 34.2526, 50.7495, -10.9315, 93.2254, -66.8249, 38.7896
0.444, -1, 34.2672, 50.7264, -10.9592, 93.2625, -66.6903, 38.8358
0.448, -1, 34.2818, 50.7034, -10.9869, 93.2996, -66.5559, 38.8818
0.452, -1, 34.2964, 50.6804, -11.0145, 93.3367, -66.4217, 38.9278
0.456, -1, 34.3109, 50.6574, -11.0421, 93.3736, -66.2878, 38.9738
0.46, -1, 34.3254, 50.6345, -11.0696, 93.4106, -66.154, 39.0196
0.464, -1, 34.3399, 50.6116, -11.0971, 93.4474, -66.0204, 39.0654
0.468, -1, 34.3544, 50.5888, -11.1246, 93.4842, -65.8871, 39.1111
0.472, -1, 34.3689, 50.566, -11.152, 93.521, -65.754, 39.1567
0.476, -1, 34.3833, 50.5432, -11.1793, 93.5577, -65.621, 39.2023
0.48, -1, 34.3978, 50.5204, -11.2066, 93.5943, -65.4883, 39.2478
0.484, -1, 34.4121, 50.4977, -11.2339, 93.6309, -65.3558, 39.2933
0.488, -1, 34.4265, 50.475, -11.2612, 93.6675, -65.2234, 39.3386
0.492, -1, 34.4409, 50.4524, -11.2883, 93.7039, -65.0913, 39.3839
0.496, -1, 34.4552, 50.4298, -11.3155, 93.7404, -64.9594, 39.4291
0.5, -1, 34.4695, 50.4072, -11.3426, 93.7767, -64.8276, 39.4743
0.504, -1, 34.4838, 50.3847, -11.3697, 93.813, -64.6961, 39.5194
0.508, -1, 34.4981, 50.3622, -11.3967, 93.8493, -64.5647, 39.5644
0.512, -1, 34.5123, 50.3397, -11.4237, 93.8855, -64.4336, 39.6094
0.516, -1, 34.5265, 50.3173, -11.4507, 93.9217, -64.3026, 39.6543
0.52, -1, 34.5408, 50.2949, -11.4776, 93.9578, -64.1719, 39.6991
0.524, -1, 34.5549, 50.2725, -11.5045, 93.9938, -64.0413, 39.7439
0.528, -1, 34.5691, 50.2501, -11.5313, 94.0298, -63.9109, 39.7886
0.532, -1, 34.5832, 50.2278, -11.5581, 94.0657, -63.7807, 39.8332
0.536, -1, 34.5974, 50.2056, -11.5848, 94.1016, -63.6507, 39.8777
0.54, -1, 34.6115, 50.1833, -11.6116, 94.1375, -63.5209, 39.9222
0.544, -1, 34.6255, 50.1611, -11.6382, 94.1732, -63.3913, 39.9667
0.548, -1, 34.6396, 50.1389, -11.6649, 94.209, -63.2619, 40.0111
0.552, -1, 34.6536, 50.1168, -11.6915, 94.2447, -63.1326, 40.0554
0.556, -1, 34.6677, 50.0947, -11.718, 94.2803, -63.0036, 40.0996
0.56, -1, 34.6817, 50.0726, -11.7446, 94.3159, -62.8747, 40.1438
0.564, -1, 34.6956, 50.0505, -11.7711, 94.3514, -62.746, 40.1879
0.568, -1, 34.7096, 50.0285, -11.7975, 94.3869, -62.6175, 40.2319
0.572, -1, 34.7235, 50.0065, -11.8239, 94.4223, -62.4892, 40.2759
0.576, -1, 34.7375, 49.9846, -11.8503, 94.4577, -62.361, 40.3199
0.58, -1, 34.7514, 49.9626, -11.8766, 94.493, -62.2331, 40.3637
0.584, -1, 34.7652, 49.9407, -11.9029, 94.5283, -62.1053, 40.4075
0.588, -1, 34.7791, 49.9189, -11.9292, 94.5635, -61.9777, 40.4513
0.592, -1, 34.7929, 49.897, -11.9554, 94.5987, -61.8503, 40.495
0.596, -1, 34.8068, 49.8752, -11.9816, 94.6338, -61.723, 40.5386
0.6, -1, 34.8206, 49.8535, -12.0078, 94.6689, -61.5959, 40.5821
0.604, -1, 34.8343, 49.8317, -12.0339, 94.7039, -61.4691, 40.6256
0.608, -1, 34.8481, 49.81, -12.0599, 94.7389, -61.3423, 40.6691
0.612, -1, 34.8618, 49.7883, -12.086, 94.7738, -61.2158, 40.7125
0.616, -1, 34.8756, 49.7667, -12.112, 94.8087, -61.0894, 40.7558
0.62, -1, 34.8893, 49.7451, -12.138, 94.8435, -60.9632, 40.799
0.624, -1, 34.903, 49.7235, -12.1639, 94.8783, -60.8372, 40.8422
0.628, -1, 34.9166, 49.7019, -12.1898, 94.9131, -60.7114, 40.8854
0.632, -1, 34.9303, 49.6804, -12.2157, 94.9478, -60.5857, 40.9284
0.636, -1, 34.9439, 49.6589, -12.2415, 94.9824, -60.4602, 40.9715
0.64, -1, 34.9575, 49.6374, -12.2673, 95.017, -60.3349, 41.0144
0.644, -1, 34.9711, 49.6159, -12.2931, 95.0516, -60.2097, 41.0573
0.648, -1, 34.9847, 49.5945, -12.3188, 95.0861, -60.0847, 41.1002
0.652, -1, 34.9983, 49.5731, -12.3445, 95.1205, -59.9599, 41.143
0.656, -1, 35.0118, 49.5518, -12.3701, 95.1549, -59.8352, 41.1857
0.66, -1, 35.0253, 49.5304, -12.3958, 95.1893, -59.7107, 41.2284
0.664, -1, 35.0388, 49.5091, -12.4214, 95.2236, -59.5864, 41.271
0.668, -1, 35.0523, 49.4879, -12.4469, 95.2579, -59.4622, 41.3136
0.672, -1, 35.0658, 49.4666, -12.4724, 95.2921, -59.3382, 41.3561
0.676, -1, 35.0792, 49.4454, -12.4979, 95.3263, -59.2144, 41.3985
0.68, -1, 35.0927, 49.4242, -12.5234, 95.3605, -59.0907, 41.4409
0.684, -1, 35.1061, 49.4031, -12.5488, 95.3946, -58.9672, 41.4833
0.688, -1, 35.1195, 49.3819, -12.5742, 95.4286, -58.8439, 41.5256
0.692, -1, 35.1329, 49.3608, -12.5995, 95.4626, -58.7207, 41.5678
0.696, -1, 35.1462, 49.3397, -12.6249, 95.4966, -58.5977, 41.61
0.7, -1, 35.1596, 49.3187, -12.6501, 95.5305, -58.4748, 41.6521
0.704, -1, 35.1729, 49.2977, -12.6754, 95.5644, -58.3521, 41.6941
0.708, -1, 35.1862, 49.2767, -12.7006, 95.5982, -58.2296, 41.7361
0.712, -1, 35.1995, 49.2557, -12.7258, 95.632, -58.1072, 41.7781
0.716, -1, 35.2128, 49.2347, -12.751, 95.6657, -57.985, 41.82
0.72, -1, 35.226, 49.2138, -12.7761, 95.6994, -57.8629, 41.8618
0.724, -1, 35.2393, 49.1929, -12.8012, 95.7331, -57.741, 41.9036
0.728, -1, 35.2525, 49.1721, -12.8262, 95.7667, -57.6192, 41.9454
0.732, -1, 35.2657, 49.1512, -12.8513, 95.8003, -57.4976, 41.9871
0.736, -1, 35.2789, 49.1304, -12.8763, 95.8338, -57.3762, 42.0287
0.74, -1, 35.2921, 49.1097, -12.9012, 95.8673, -57.2549, 42.0703
0.744, -1, 35.3052, 49.0889, -12.9262, 95.9007, -57.1338, 42.1118
0.748, -1, 35.3184, 49.0682, -12.9511, 95.9341, -57.0128, 42.1533
0.752, -1, 35.3315, 49.0475, -12.9759, 95.9675, -56.8919, 42.1947
0.756, -1, 35.3446, 49.0268, -13.0008, 96.0008, -56.7712, 42.2361
0.76, -1, 35.3577, 49.0061, -13.0256, 96.0341, -56.6507, 42.2774
0.764, -1, 35.3708, 48.9855, -13.0504, 96.0673, -56.5303, 42.3187
0.768, -1, 35.3838, 48.9649, -13.0751, 96.1005, -56.4101, 42.3599
0.772, -1, 35.3969, 48.9443, -13.0998, 96.1336, -56.29, 42.401
0.776, -1, 35.4099, 48.9238, -13.1245, 96.1667, -56.1701, 42.4422
0.78, -1, 35.4229, 48.9032, -13.1492, 96.1998, -56.0503, 42.4832
0.784, -1, 35.4359, 48.8827, -13.1738, 96.2328, -55.9307, 42.5242
0.788, -1, 35.4489, 48.8623, -13.1984, 96.2658, -55.8112, 42.5652
0.792, -1, 35.4619, 48.8418, -13.2229, 96.2988, -55.6918, 42.6061
0.796, -1, 35.4748, 48.8214, -13.2475, 96.3317, -55.5726, 42.647
0.8, -1, 35.4877, 48.801, -13.272, 96.3645, -55.4535, 42.6878
0.804, -1, 35.5006, 48.7806, -13.2965, 96.3974, -55.3346, 42.7285
0.808, -1, 35.5136, 48.7603, -13.3209, 96.4302, -55.2159, 42.7693
0.812, -1, 35.5264, 48.7399, -13.3453, 96.4629, -55.0972, 42.8099
0.816, -1, 35.5393, 48.7196, -13.3697, 96.4956, -54.9787, 42.8506
0.82, -1, 35.5522, 48.6994, -13.3941, 96.5283, -54.8604, 42.8911
0.824, -1, 35.565, 48.6791, -13.4184, 96.5609, -54.7422, 42.9316
0.828, -1, 35.5778, 48.6589, -13.4427, 96.5935, -54.6241, 42.9721
0.832, -1, 35.5906, 48.6387, -13.467, 96.6261, -54.5062, 43.0125
0.836, -1, 35.6034, 48.6185, -13.4912, 96.6586, -54.3884, 43.0529
0.84, -1, 35.6162, 48.5983, -13.5154, 96.6911, -54.2707, 43.0933
0.844, -1, 35.629, 48.5782, -13.5396, 96.7235, -54.1532, 43.1335
0.848, -1, 35.6417, 48.5581, -13.5638, 96.7559, -54.0358, 43.1738
0.852, -1, 35.6545, 48.538, -13.5879, 96.7883, -53.9186, 43.214
0.856, -1, 35.6672, 48.5179, -13.612, 96.8206, -53.8015, 43.2541
0.86, -1, 35.6799, 48.4979, -13.6361, 96.8529, -53.6845, 43.2942
0.864, -1, 35.6925, 48.4779, -13.6601, 96.8852, -53.5677, 43.3343
0.868, -1, 35.7051, 48.458, -13.6841, 96.9174, -53.451, 43.3743
0.872, -1, 35.7176, 48.4381, -13.7081, 96.9496, -53.3345, 43.4142
0.876, -1, 35.73, 48.4184, -13.7321, 96.9817, -53.2181, 43.4541
0.88, -1, 35.7419, 48.3992, -13.756, 97.0137, -53.102, 43.4939
0.884, -1, 35.7533, 48.3805, -13.7798, 97.0457, -52.9863, 43.5336
0.888, -1, 35.7641, 48.3627, -13.8035, 97.0775, -52.8712, 43.5731
0.892, -1, 35.7742, 48.3457, -13.8269, 97.109, -52.757, 43.6122
0.896, -1, 35.7836, 48.3297, -13.8501, 97.1401, -52.6444, 43.6508
0.9, -1, 35.7924, 48.3145, -13.8728, 97.1706, -52.534, 43.6887
0.904, -1, 35.8007, 48.3002, -13.895, 97.2003, -52.4264, 43.7256
0.908, -1, 35.8087, 48.2866, -13.9163, 97.229, -52.3226, 43.7613
0.912, -1, 35.8164, 48.2736, -13.9367, 97.2564, -52.2234, 43.7953
0.916, -1, 35.8238, 48.2613, -13.956, 97.2823, -52.1296, 43.8275
0.92, -1, 35.8309, 48.2497, -13.9741, 97.3065, -52.042, 43.8576
0.924, -1, 35.8377, 48.2387, -13.9907, 97.3288, -51.9612, 43.8853
0.928, -1, 35.8442, 48.2281, -14.0057, 97.3491, -51.888, 43.9104
0.932, -1, 35.8507, 48.2178, -14.0192, 97.3671, -51.8226, 43.9328
0.936, -1, 35.8571, 48.2077, -14.031, 97.3829, -51.7653, 43.9524
0.94, -1, 35.8634, 48.1979, -14.0412, 97.3966, -51.716, 43.9693
0.944, -1, 35.8695, 48.1884, -14.0498, 97.4081, -51.6743, 43.9836
0.948, -1, 35.8755, 48.1793, -14.0569, 97.4175, -51.6399, 43.9954
0.952, -1, 35.8812, 48.1708, -14.0626, 97.4252, -51.612, 44.0049
0.956, -1, 35.8865, 48.1631, -14.0672, 97.4313, -51.5899, 44.0124
0.96, -1, 35.8915, 48.1562, -14.0707, 97.436, -51.5728, 44.0183
0.964, -1, 35.896, 48.1502, -14.0734, 97.4396, -51.5598, 44.0227
0.968, -1, 35.9001, 48.145, -14.0754, 97.4422, -51.5503, 44.0259
0.972, -1, 35.9037, 48.1406, -14.0768, 97.4441, -51.5433, 44.0283
0.976, 2, 35.9067, 48.1371, -14.0778, 97.4454, -51.5385, 44.0299
0.98, 2, 35.9091, 48.1343, -14.0785, 97.4463, -51.5351, 44.0311
0.984, 2, 35.911, 48.1323, -14.079, 97.4469, -51.5327, 44.0319
0.988, 2, 35.9123, 48.1308, -14.0793, 97.4474, -51.5312, 44.0324
0.992, 2, 35.9132, 48.1299, -14.0796, 97.4477, -51.5301, 44.0328
0.996, 2, 35.9138, 48.1292, -14.0797, 97.4479, -51.5294, 44.033
1, 2, 35.9142, 48.1287, -14.0798, 97.448, -51.5289, 44.0332
1.004, 2, 35.9145, 48.1284, -14.0799, 97.4481, -51.5285, 44.0333
1.008, 2, 35.9147, 48.1282, -14.0799, 97.4482, -51.5283, 44.0334
1.012, 2, 35.9149, 48.1281, -14.08, 97.4482, -51.5282, 44.0334
1.016, 2, 35.9149, 48.128, -14.08, 97.4482, -51.5281, 44.0335
1.02, 2, 35.915, 48.1279, -14.08, 97.4482, -51.528, 44.0335
1.024, 2, 35.915, 48.1279, -14.08, 97.4483, -51.5279, 44.0335
1.027, 2, 35.9151, 48.1278, -14.08, 97.4483, -51.5279, 44.0335
1.032, 2, 35.9151, 48.1278, -14.08, 97.4483, -51.5279, 44.0335
1.036, 2, 35.9151, 48.1278, -14.08, 97.4483, -51.5279, 44.0335
1.04, 2, 35.9151, 48.1278, -14.08, 97.4483, -51.5279, 44.0335
1.044, 2, 35.9151, 48.1278, -14.08, 97.4483, -51.5279, 44.0335
1.048, 2, 35.9151, 48.1278, -14.08, 97.4483, -51.5279, 44.0335
1.052, 2, 35.9151, 48.1278, -14.08, 97.4483, -51.5278, 44.0335
1.055, 2, 35.9151, 48.1278, -14.08, 97.4483, -51.5278, 44.0335
1.06, 2, 35.9151, 48.1278, -14.08, 97.4483, -51.5278, 44.0335
1.064, 2, 35.9151, 48.1278, -14.08, 97.4483, -51.5278, 44.0335
1.068, 2, 35.9151, 48.1278, -14.08, 97.4483, -51.5278, 44.0335
1.072, 2, 35.9151, 48.1278, -14.08, 97.4483, -51.5278, 44.0335
1.076, 2, 35.9151, 48.1278, -14.08, 97.4483, -51.5278, 44.0335
1.08, 2, 35.9151, 48.1278, -14.08, 97.4483, -51.5278, 44.0335
1.084, 2, 35.9151, 48.1278, -14.08, 97.4483, -51.5278, 44.0335
1.088, 2, 35.9151, 48.1278, -14.08, 97.4483, -51.5278, 44.0335
1.091, 2, 35.9151, 48.1278, -14.08, 97.4483, -51.5278, 44.0335
1.096, 2, 35.9151, 48.1278, -14.08, 97.4483, -51.5278, 44.0335
1.1, 2, 35.9151, 48.1278, -14.08, 97.4483, -51.5278, 44.0335
1.104, 2, 35.9151, 48.1278, -14.08, 97.4483, -51.5278, 44.0335
1.108, 2, 35.9151, 48.1278, -14.08, 97.4483, -51.5278, 44.0335
1.112, 2, 35.9151, 48.1278, -14.08, 97.4483, -51.5278, 44.0335
1.116, 2, 35.9151, 48.1278, -14.08, 97.4483, -51.5278, 44.0335
1.119, 2, 35.9151, 48.1278, -14.08, 97.4483, -51.5278, 44.0335
1.124, 2, 35.9151, 48.1278, -14.08, 97.4483, -51.5278, 44.0335
1.128, 2, 35.9151, 48.1278, -14.08, 97.4483, -51.5278, 44.0335
1.132, 2, 35.9151, 48.1278, -14.08, 97.4483, -51.5278, 44.0335
1.136, 2, 35.9151, 48.1278, -14.08, 97.4483, -51.5278, 44.0335
1.14, 2, 35.9151, 48.1278, -14.08, 97.4483, -51.5278, 44.0335
1.144, 2, 35.9151, 48.1278, -14.08, 97.4483, -51.5278, 44.0335
1.147, 2, 35.9151, 48.1278, -14.08, 97.4483, -51.5278, 44.0335
1.152, 2, 35.9151, 48.1278, -14.08, 97.4483, -51.5278, 44.0335
1.156, 2, 35.9151, 48.1278, -14.08, 97.4483, -51.5278, 44.0335
1.16, 2, 35.9151, 48.1278, -14.08, 97.4483, -51.5278, 44.0335
1.164, 2, 35.9151, 48.1278, -14.08, 97.4483, -51.5278, 44.0335
1.168, 2, 35.9151, 48.1278, -14.08, 97.4483, -51.5278, 44.0335
1.172, 2, 35.9151, 48.1278, -14.08, 97.4483, -51.5278, 44.0335
1.175, 2, 35.9151, 48.1278, -14.08, 97.4483, -51.5278, 44.0335
1.18, 2, 35.9151, 48.1278, -14.08, 97.4483, -51.5278, 44.0335
1.184, 2, 35.9151, 48.1278, -14.08, 97.4483, -51.5278, 44.0335
1.188, 2, 35.9151, 48.1278, -14.08, 97.4483, -51.5278, 44.0335
1.192, 2, 35.9151, 48.1278, -14.08, 97.4483, -51.5278, 44.0335
1.196, 2, 35.9151, 48.1278, -14.08, 97.4483, -51.5278, 44.0335
1.2, 2, 35.9151, 48.1278, -14.08, 97.4483, -51.5278, 44.0335
1.204, 2, 35.9151, 48.1278, -14.08, 97.4483, -51.5278, 44.0335
1.208, 2, 35.9151, 48.1278, -14.08, 97.4483, -51.5278, 44.0335
1.212, 2, 35.9151, 48.1278, -14.08, 97.4483, -51.5278, 44.0335
1.216, 2, 35.9151, 48.1278, -14.08, 97.4483, -51.5278, 44.0335
1.22, 2, 35.9151, 48.1278, -14.08, 97.4483, -51.5278, 44.0335
1.224, 2, 35.9151, 48.1278, -14.08, 97.4483, -51.5278, 44.0335
1.228, 2, 35.9151, 48.1278, -14.08, 97.4483, -51.5278, 44.0335
1.232, 2, 35.9151, 48.1278, -14.08, 97.4483, -51.5278, 44.0335
1.236, 2, 35.9151, 48.1278, -14.08, 97.4483, -51.5278, 44.0335
1.24, 2, 35.9151, 48.1278, -14.08, 97.4483, -51.5278, 44.0335
1.244, 2, 35.9151, 48.1278, -14.08, 97.4483, -51.5278, 44.0335
1.248, 2, 35.9151, 48.1278, -14.08, 97.4483, -51.5278, 44.0335
1.252, 2, 35.9151, 48.1278, -14.08, 97.4483, -51.5278, 44.0335
1.256, 2, 35.9151, 48.1278, -14.08, 97.4483, -51.5278, 44.0335
1.26, 2, 35.9151, 48.1278, -14.08, 97.4483, -51.5278, 44.0335
1.264, 2, 35.9151, 48.1278, -14.08, 97.4483, -51.5278, 44.0335
1.267, 2, 35.9151, 48.1278, -14.08, 97.4483, -51.5278, 44.0335
1.272, 2, 35.9151, 48.1278, -14.08, 97.4483, -51.5278, 44.0335
1.276, 2, 35.9151, 48.1278, -14.08, 97.4483, -51.5278, 44.0335
1.28, 2, 35.9151, 48.1278, -14.08, 97.4483, -51.5278, 44.0335
1.284, 2, 35.9151, 48.1278, -14.08, 97.4483, -51.5278, 44.0335
1.288, 2, 35.9151, 48.1278, -14.08, 97.4483, -51.5278, 44.0335
1.292, 2, 35.9151, 48.1278, -14.08, 97.4483, -51.5278, 44.0335
1.295, 2, 35.9151, 48.1278, -14.08, 97.4483, -51.5278, 44.0335
1.3, 2, 35.9151, 48.1278, -14.08, 97.4483, -51.5278, 44.0335
1.304, 2, 35.9151, 48.1278, -14.08, 97.4483, -51.5278, 44.0335
1.308, 2, 35.9151, 48.1278, -14.08, 97.4483, -51.5278, 44.0335
1.312, 2, 35.9151, 48.1278, -14.08, 97.4483, -51.5278, 44.0335
1.316, 2, 35.9151, 48.1278, -14.08, 97.4483, -51.5278, 44.0335
1.32, 2, 35.9151, 48.1278, -14.08, 97.4483, -51.5278, 44.0335
1.324, 2, 35.9151, 48.1278, -14.08, 97.4483, -51.5278, 44.0335
1.328, 2, 35.9151, 48.1278, -14.08, 97.4483, -51.5278, 44.0335
1.332, 2, 35.9151, 48.1278, -14.08, 97.4483, -51.5278, 44.0335
1.336, 2, 35.9151, 48.1278, -14.08, 97.4483, -51.5278, 44.0335
1.34, 2, 35.9151, 48.1278, -14.08, 97.4483, -51.5278, 44.0335
1.344, 2, 35.9151, 48.1278, -14.08, 97.4483, -51.5278, 44.0335
1.348, 2, 35.9151, 48.1278, -14.08, 97.4483, -51.5278, 44.0335
1.352, 2, 35.9151, 48.1278, -14.08, 97.4483, -51.5278, 44.0335
1.356, 2, 35.9151, 48.1278, -14.08, 97.4483, -51.5278, 44.0335
1.36, 2, 35.9151, 48.1278, -14.08, 97.4483, -51.5278, 44.0335
1.364, 2, 35.9151, 48.1278, -14.08, 97.4483, -51.5278, 44.0335
1.368, 2, 35.9151, 48.1278, -14.08, 97.4483, -51.5278, 44.0335
1.372, 2, 35.9151, 48.1278, -14.08, 97.4483, -51.5278, 44.0335
1.376, 2, 35.9151, 48.1278, -14.08, 97.4483, -51.5278, 44.0335
1.38, 2, 35.9151, 48.1278, -14.08, 97.4483, -51.5278, 44.0335
1.384, 2, 35.9151, 48.1278, -14.08, 97.4483, -51.5278, 44.0335
1.388, 2, 35.9151, 48.1278, -14.08, 97.4483, -51.5278, 44.0335
1.392, 2, 35.9151, 48.1278, -14.08, 97.4483, -51.5278, 44.0335
1.396, 2, 35.9151, 48.1278, -14.08, 97.4483, -51.5278, 44.0335
1.4, 2, 35.9151, 48.1278, -14.08, 97.4483, -51.5278, 44.0335
1.404, 2, 35.9151, 48.1278, -14.08, 97.4483, -51.5278, 44.0335
1.408, 2, 35.9151, 48.1278, -14.08, 97.4483, -51.5278, 44.0335
1.412, 2, 35.9151, 48.1278, -14.08, 97.4483, -51.5278, 44.0335
1.416, 2, 35.9151, 48.1278, -14.08, 97.4483, -51.5278, 44.0335
1.42, 2, 35.9151, 48.1278, -14.08, 97.4483, -51.5278, 44.0335
1.424, 2, 35.9151, 48.1278, -14.08, 97.4483, -51.5278, 44.0335
1.428, 2, 35.9151, 48.1278, -14.08, 97.4483, -51.5278, 44.0335
1.432, 2, 35.9151, 48.1278, -14.08, 97.4483, -51.5278, 44.0335
1.436, 2, 35.9151, 48.1278, -14.08, 97.4483, -51.5278, 44.0335
1.44, 2, 35.9151, 48.1278, -14.08, 97.4483, -51.5278, 44.0335
1.444, 2, 35.9151, 48.1278, -14.08, 97.4483, -51.5278, 44.0335
1.448, 2, 35.9151, 48.1278, -14.08, 97.4483, -51.5278, 44.0335
1.452, 2, 35.9151, 48.1278, -14.08, 97.4483, -51.5278, 44.0335
1.456, 2, 35.9151, 48.1278, -14.08, 97.4483, -51.5278, 44.0335
1.46, 2, 35.9151, 48.1278, -14.08, 97.4483, -51.5278, 44.0335
1.464, 2, 35.9151, 48.1278, -14.08, 97.4483, -51.5278, 44.0335
1.468, 2, 35.9151, 48.1278, -14.08, 97.4483, -51.5278, 44.0335
1.472, 2, 35.9151, 48.1278, -14.08, 97.4483, -51.5278, 44.0335
1.476, 2, 35.9151, 48.1278, -14.08, 97.4483, -51.5278, 44.0335
1.48, 2, 35.9151, 48.1278, -14.08, 97.4483, -51.5278, 44.0335
1.484, 2, 35.9151, 48.1278, -14.08, 97.4483, -51.5278, 44.0335
1.488, 2, 35.9151, 48.1278, -14.08, 97.4483, -51.5278, 44.0335
1.492, 2, 35.9151, 48.1278, -14.08, 97.4483, -51.5278, 44.0335
1.496, 2, 35.9151, 48.1278, -14.08, 97.4483, -51.5278, 44.0335
1.5, 2, 35.9151, 48.1278, -14.08, 97.4483, -51.5278, 44.0335
1.504, 2, 35.9151, 48.1278, -14.08, 97.4483, -51.5278, 44.0335
1.508, 2, 35.9151, 48.1278, -14.08, 97.4483, -51.5278, 44.0335
1.512, 2, 35.9151, 48.1278, -14.08, 97.4483, -51.5278, 44.0335
1.516, 2, 35.9151, 48.1278, -14.08, 97.4483, -51.5278, 44.0335
1.52, 2, 35.9151, 48.1278, -14.08, 97.4483, -51.5278, 44.0335
1.524, 2, 35.9151, 48.1278, -14.08, 97.4483, -51.5278, 44.0335
1.528, 2, 35.9151, 48.1278, -14.08, 97.4483, -51.5278, 44.0335
1.532, 2, 35.9151, 48.1278, -14.08, 97.4483, -51.5278, 44.0335
1.536, 2, 35.9151, 48.1278, -14.08, 97.4483, -51.5278, 44.0335
1.54, 2, 35.9151, 48.1278, -14.08, 97.4483, -51.5278, 44.0335
1.544, 2, 35.9151, 48.1278, -14.08, 97.4483, -51.5278, 44.0335
1.548, 2, 35.9151, 48.1278, -14.08, 97.4483, -51.5278, 44.0335
1.552, 2, 35.9151, 48.1278, -14.08, 97.4483, -51.5278, 44.0335
1.556, 2, 35.9151, 48.1278, -14.08, 97.4483, -51.5278, 44.0335
1.56, 2, 35.9151, 48.1278, -14.08, 97.4483, -51.5278, 44.0335
1.564, 2, 35.9151, 48.1278, -14.08, 97.4483, -51.5278, 44.0335
1.568, 2, 35.9151, 48.1278, -14.08, 97.4483, -51.5278, 44.0335
1.572, 2, 35.9151, 48.1278, -14.08, 97.4483, -51.5278, 44.0335
1.576, 2, 35.9151, 48.1278, -14.08, 97.4483, -51.5278, 44.0335
1.58, 2, 35.9151, 48.1278, -14.08, 97.4483, -51.5278, 44.0335
1.584, 2, 35.9151, 48.1278, -14.08, 97.4483, -51.5278, 44.0335
1.588, 2, 35.9151, 48.1278, -14.08, 97.4483, -51.5278, 44.0335
1.592, 2, 35.9151, 48.1278, -14.08, 97.4483, -51.5278, 44.0335
1.596, 2, 35.9151, 48.1278, -14.08, 97.4483, -51.5278, 44.0335
1.6, 2, 35.9151, 48.1278, -14.08, 97.4483, -51.5278, 44.0335
1.604, 2, 35.9151, 48.1278, -14.08, 97.4483, -51.5278, 44.0335
1.608, 2, 35.9151, 48.1278, -14.08, 97.4483, -51.5278, 44.0335
1.612, 2, 35.9151, 48.1278, -14.08, 97.4483, -51.5278, 44.0335
1.616, 2, 35.9151, 48.1278, -14.08, 97.4483, -51.5278, 44.0335
1.62, 2, 35.9151, 48.1278, -14.08, 97.4483, -51.5278, 44.0335
1.624, 2, 35.9151, 48.1278, -14.08, 97.4483, -51.5278, 44.0335
1.628, 2, 35.9151, 48.1278, -14.08, 97.4483, -51.5278, 44.0335
1.632, 2, 35.9151, 48.1278, -14.08, 97.4483, -51.5278, 44.0335
1.636, 2, 35.9151, 48.1278, -14.08, 97.4483, -51.5278, 44.0335
1.64, 2, 35.9151, 48.1278, -14.08, 97.4483, -51.5278, 44.0335
1.644, 2, 35.9151, 48.1278, -14.08, 97.4483, -51.5278, 44.0335
1.648, 2, 35.9151, 48.1278, -14.08, 97.4483, -51.5278, 44.0335
1.652, 2, 35.9151, 48.1278, -14.08, 97.4483, -51.5278, 44.0335
1.656, 2, 35.9151, 48.1278, -14.08, 97.4483, -51.5278, 44.0335
1.66, 2, 35.9151, 48.1278, -14.08, 97.4483, -51.5278, 44.0335
1.664, 2, 35.9151, 48.1278, -14.08, 97.4483, -51.5278, 44.0335
1.668, 2, 35.9151, 48.1278, -14.08, 97.4483, -51.5278, 44.0335
1.672, 2, 35.9151, 48.1278, -14.08, 97.4483, -51.5278, 44.0335
1.676, 2, 35.9151, 48.1278, -14.08, 97.4483, -51.5278, 44.0335
1.68, 2, 35.9151, 48.1278, -14.08, 97.4483, -51.5278, 44.0335
1.684, 2, 35.9151, 48.1278, -14.08, 97.4483, -51.5278, 44.0335
1.688, 2, 35.9151, 48.1278, -14.08, 97.4483, -51.5278, 44.0335
1.692, 2, 35.9151, 48.1278, -14.08, 97.4483, -51.5278, 44.0335
1.696, 2, 35.9151, 48.1278, -14.08, 97.4483, -51.5278, 44.0335
1.7, 2, 35.9151, 48.1278, -14.08, 97.4483, -51.5278, 44.0335
1.704, 2, 35.9151, 48.1278, -14.08, 97.4483, -51.5278, 44.0335
1.708, 2, 35.9151, 48.1278, -14.08, 97.4483, -51.5278, 44.0335
1.712, 2, 35.9151, 48.1278, -14.08, 97.4483, -51.5278, 44.0335
1.716, 2, 35.9151, 48.1278, -14.08, 97.4483, -51.5278, 44.0335
1.72, 2, 35.9151, 48.1278, -14.08, 97.4483, -51.5278, 44.0335
1.724, 2, 35.9151, 48.1278, -14.08, 97.4483, -51.5278, 44.0335
1.728, 2, 35.9151, 48.1278, -14.08, 97.4483, -51.5278, 44.0335
1.732, 2, 35.9151, 48.1278, -14.08, 97.4483, -51.5278, 44.0335
1.736, 2, 35.9151, 48.1278, -14.08, 97.4483, -51.5278, 44.0335
1.74, 2, 35.9151, 48.1278, -14.08, 97.4483, -51.5278, 44.0335
1.744, 2, 35.9151, 48.1278, -14.08, 97.4483, -51.5278, 44.0335
1.748, 2, 35.9151, 48.1278, -14.08, 97.4483, -51.5278, 44.0335
1.752, 2, 35.9151, 48.1278, -14.08, 97.4483, -51.5278, 44.0335
1.756, 2, 35.9151, 48.1278, -14.08, 97.4483, -51.5278, 44.0335
1.76, 2, 35.9151, 48.1278, -14.08, 97.4483, -51.5278, 44.0335
1.764, 2, 35.9151, 48.1278, -14.08, 97.4483, -51.5278, 44.0335
1.768, 2, 35.9151, 48.1278, -14.08, 97.4483, -51.5278, 44.0335
1.772, 2, 35.9151, 48.1278, -14.08, 97.4483, -51.5278, 44.0335
1.776, 2, 35.9151, 48.1278, -14.08, 97.4483, -51.5278, 44.0335
1.78, 2, 35.9151, 48.1278, -14.08, 97.4483, -51.5278, 44.0335
1.784, 2, 35.9151, 48.1278, -14.08, 97.4483, -51.5278, 44.0335
1.788, 2, 35.9151, 48.1278, -14.08, 97.4483, -51.5278, 44.0335
1.792, 2, 35.9151, 48.1278, -14.08, 97.4483, -51.5278, 44.0335
1.796, 2, 35.9151, 48.1278, -14.08, 97.4483, -51.5278, 44.0335
1.8, 2, 35.9151, 48.1278, -14.08, 97.4483, -51.5278, 44.0335
1.804, 2, 35.9151, 48.1278, -14.08, 97.4483, -51.5278, 44.0335
1.808, 2, 35.9151, 48.1278, -14.08, 97.4483, -51.5278, 44.0335
1.812, 2, 35.9151, 48.1278, -14.08, 97.4483, -51.5278, 44.0335
1.816, 2, 35.9151, 48.1278, -14.08, 97.4483, -51.5278, 44.0335
1.82, 2, 35.9151, 48.1278, -14.08, 97.4483, -51.5278, 44.0335
1.824, 2, 35.9151, 48.1278, -14.08, 97.4483, -51.5278, 44.0335
1.828, 2, 35.9151, 48.1278, -14.08, 97.4483, -51.5278, 44.0335
1.832, 2, 35.9151, 48.1278, -14.08, 97.4483, -51.5278, 44.0335
1.836, 2, 35.9151, 48.1278, -14.08, 97.4483, -51.5278, 44.0335
1.84, 2, 35.9151, 48.1278, -14.08, 97.4483, -51.5278, 44.0335
1.844, 2, 35.9151, 48.1278, -14.08, 97.4483, -51.5278, 44.0335
1.848, 2, 35.9151, 48.1278, -14.08, 97.4483, -51.5278, 44.0335
1.852, 2, 35.9151, 48.1278, -14.08, 97.4483, -51.5278, 44.0335
1.856, 2, 35.9151, 48.1278, -14.08, 97.4483, -51.5278, 44.0335
1.86, 2, 35.9151, 48.1278, -14.08, 97.4483, -51.5278, 44.0335
1.864, 2, 35.9151, 48.1278, -14.08, 97.4483, -51.5278, 44.0335
1.868, 2, 35.9151, 48.1278, -14.08, 97.4483, -51.5278, 44.0335
1.872, 2, 35.9151, 48.1278, -14.08, 97.4483, -51.5278, 44.0335
1.876, 2, 35.9151, 48.1278, -14.08, 97.4483, -51.5278, 44.0335
1.88, 2, 35.9151, 48.1278, -14.08, 97.4483, -51.5278, 44.0335
1.884, 2, 35.9151, 48.1278, -14.08, 97.4483, -51.5278, 44.0335
1.888, 2, 35.9151, 48.1278, -14.08, 97.4483, -51.5278, 44.0335
1.892, 2, 35.9151, 48.1278, -14.08, 97.4483, -51.5278, 44.0335
1.896, 2, 35.9151, 48.1278, -14.08, 97.4483, -51.5278, 44.0335
1.9, 2, 35.9151, 48.1278, -14.08, 97.4483, -51.5278, 44.0335
1.904, 2, 35.9151, 48.1278, -14.08, 97.4483, -51.5278, 44.0335
1.908, 2, 35.9151, 48.1278, -14.08, 97.4483, -51.5278, 44.0335
1.912, 2, 35.9151, 48.1278, -14.08, 97.4483, -51.5278, 44.0335
1.916, 2, 35.9151, 48.1278, -14.08, 97.4483, -51.5278, 44.0335
1.92, 2, 35.9151, 48.1278, -14.08, 97.4483, -51.5278, 44.0335
1.924, 2, 35.9151, 48.1278, -14.08, 97.4483, -51.5278, 44.0335
1.928, 2, 35.9151, 48.1278, -14.08, 97.4483, -51.5278, 44.0335
1.932, 2, 35.9151, 48.1278, -14.08, 97.4483, -51.5278, 44.0335
1.936, 2, 35.9151, 48.1278, -14.08, 97.4483, -51.5278, 44.0335
1.94, 2, 35.9151, 48.1278, -14.08, 97.4483, -51.5278, 44.0335
1.944, 2, 35.9151, 48.1278, -14.08, 97.4483, -51.5278, 44.0335
1.948, 2, 35.9151, 48.1278, -14.08, 97.4483, -51.5278, 44.0335
1.952, 2, 35.9151, 48.1278, -14.08, 97.4483, -51.5278, 44.0335
1.956, 2, 35.9151, 48.1278, -14.08, 97.4483, -51.5278, 44.0335
1.96, 2, 35.9151, 48.1278, -14.08, 97.4483, -51.5278, 44.0335
1.964, 2, 35.9151, 48.1278, -14.08, 97.4483, -51.5278, 44.0335
1.968, 2, 35.9151, 48.1278, -14.08, 97.4483, -51.5278, 44.0335
1.972, 2, 35.9151, 48.1278, -14.08, 97.4483, -51.5278, 44.0335
1.976, 2, 35.9151, 48.1278, -14.08, 97.4483, -51.5278, 44.0335
1.98, 2, 35.9151, 48.1278, -14.08, 97.4483, -51.5278, 44.0335
1.984, 2, 35.9151, 48.1278, -14.08, 97.4483, -51.5278, 44.0335
1.988, 2, 35.9151, 48.1278, -14.08, 97.4483, -51.5278, 44.0335
1.992, 2, 35.9151, 48.1278, -14.08, 97.4483, -51.5278, 44.0335
1.996, 2, 35.9151, 48.1278, -14.08, 97.4483, -51.5278, 44.0335
1.999, 2, 35.9151, 48.1278, -14.08, 97.4483, -51.5278, 44.0335
2.004, 2, 35.9151, 48.1278, -14.08, 97.4483, -51.5278, 44.0335
2.008, 2, 35.9151, 48.1278, -14.08, 97.4483, -51.5278, 44.0335
2.012, 2, 35.9151, 48.1278, -14.08, 97.4483, -51.5278, 44.0335
2.015, 2, 35.9151, 48.1278, -14.08, 97.4483, -51.5278, 44.0335
2.019, 2, 35.9151, 48.1278, -14.08, 97.4483, -51.5278, 44.0335
2.024, 2, 35.9151, 48.1278, -14.08, 97.4483, -51.5278, 44.0335
2.028, 2, 35.9151, 48.1278, -14.08, 97.4483, -51.5278, 44.0335
2.031, 4, 35.9151, 48.1278, -14.08, 97.4483, -51.5278, 44.0335
2.036, 4, 35.9151, 48.1278, -14.08, 97.4483, -51.5278, 44.0335
2.04, 4, 35.9151, 48.1278, -14.08, 97.4483, -51.5278, 44.0335
2.044, 4, 35.9151, 48.1278, -14.08, 97.4483, -51.5278, 44.0335
2.048, 4, 35.9151, 48.1278, -14.08, 97.4483, -51.5278, 44.0335
2.051, 4, 35.9151, 48.1278, -14.08, 97.4483, -51.5278, 44.0335
2.055, 4, 35.9151, 48.1278, -14.08, 97.4483, -51.5278, 44.0335
2.06, 4, 35.9151, 48.1278, -14.08, 97.4483, -51.5278, 44.0335
2.064, 4, 35.9151, 48.1278, -14.08, 97.4483, -51.5278, 44.0335
2.068, 4, 35.9151, 48.1278, -14.08, 97.4483, -51.5278, 44.0335
2.071, 4, 35.9151, 48.1278, -14.08, 97.4483, -51.5278, 44.0335
2.076, 4, 35.9151, 48.1278, -14.08, 97.4483, -51.5278, 44.0335
2.08, 4, 35.9151, 48.1278, -14.08, 97.4483, -51.5278, 44.0335
2.084, 4, 35.9151, 48.1278, -14.08, 97.4483, -51.5278, 44.0335
2.087, 4, 35.9151, 48.1278, -14.08, 97.4483, -51.5278, 44.0335
2.092, 4, 35.9151, 48.1278, -14.08, 97.4483, -51.5278, 44.0335
2.096, 4, 35.9151, 48.1278, -14.08, 97.4483, -51.5278, 44.0335
2.1, 4, 35.9151, 48.1278, -14.08, 97.4483, -51.5278, 44.0335
2.104, 4, 35.9151, 48.1278, -14.08, 97.4483, -51.5278, 44.0335
2.107, 4, 35.9151, 48.1278, -14.08, 97.4483, -51.5278, 44.0335
2.111, 4, 35.9151, 48.1278, -14.08, 97.4483, -51.5278, 44.0335
2.116, 4, 35.9151, 48.1278, -14.08, 97.4483, -51.5278, 44.0335
2.12, 4, 35.9151, 48.1278, -14.08, 97.4483, -51.5278, 44.0335
2.124, 4, 35.9151, 48.1278, -14.08, 97.4483, -51.5278, 44.0335
2.127, 4, 35.9151, 48.1278, -14.08, 97.4483, -51.5278, 44.0335
2.132, 4, 35.9151, 48.1278, -14.08, 97.4483, -51.5278, 44.0335
2.138, 4, 35.9151, 48.1278, -14.08, 97.4483, -51.5278, 44.0335
2.14, 4, 35.9151, 48.1278, -14.08, 97.4483, -51.5278, 44.0335
2.143, 4, 35.9151, 48.1278, -14.08, 97.4483, -51.5278, 44.0335
2.148, 4, 35.9151, 48.1278, -14.08, 97.4483, -51.5278, 44.0335
2.152, 4, 35.9151, 48.1278, -14.08, 97.4483, -51.5278, 44.0335
2.156, 4, 35.9151, 48.1278, -14.08, 97.4483, -51.5278, 44.0335
2.16, 4, 35.9151, 48.1278, -14.08, 97.4483, -51.5278, 44.0335
2.163, 4, 35.9151, 48.1278, -14.08, 97.4483, -51.5278, 44.0335
2.168, 4, 35.9151, 48.1278, -14.08, 97.4483, -51.5278, 44.0335
2.172, 4, 35.9151, 48.1278, -14.08, 97.4483, -51.5279, 44.0335
2.176, 4, 35.9149, 48.1279, -14.08, 97.4483, -51.5279, 44.0335
2.179, 4, 35.9146, 48.1283, -14.0799, 97.4483, -51.528, 44.0335
2.184, 4, 35.9139, 48.1289, -14.0797, 97.4482, -51.5284, 44.0333
2.188, 4, 35.9129, 48.13, -14.0794, 97.4481, -51.5293, 44.0329
2.192, 4, 35.9114, 48.1316, -14.0787, 97.4478, -51.5311, 44.0322
2.196, 4, 35.9095, 48.1338, -14.0776, 97.4472, -51.5345, 44.0307
2.199, 4, 35.9072, 48.1365, -14.0758, 97.4463, -51.5404, 44.0282
2.204, 5, 35.9045, 48.1399, -14.0732, 97.4448, -51.5498, 44.0242
2.208, 5, 35.9014, 48.1439, -14.0694, 97.4425, -51.5639, 44.0182
2.212, 5, 35.8979, 48.1485, -14.064, 97.4391, -51.5842, 44.0094
2.216, 5, 35.894, 48.154, -14.0569, 97.4345, -51.6123, 43.9974
2.219, 5, 35.8895, 48.1604, -14.0473, 97.4282, -51.65, 43.9811
2.224, 5, 35.8843, 48.1677, -14.035, 97.4199, -51.6992, 43.96
2.228, 5, 35.8785, 48.1759, -14.0193, 97.4093, -51.7618, 43.9331
2.232, 5, 35.8721, 48.1851, -13.9999, 97.396, -51.84, 43.8996
2.235, 5, 35.865, 48.1951, -13.9763, 97.3795, -51.9356, 43.8587
2.24, 5, 35.8572, 48.206, -13.9483, 97.3596, -52.0503, 43.8097
2.244, 5, 35.8488, 48.2176, -13.9157, 97.3358, -52.1858, 43.7519
2.248, 5, 35.8397, 48.23, -13.8785, 97.308, -52.3432, 43.6851
2.252, 5, 35.8298, 48.2432, -13.8367, 97.2757, -52.5232, 43.609
2.255, 5, 35.8193, 48.2572, -13.7904, 97.2389, -52.7263, 43.5234
2.259, 5, 35.808, 48.2722, -13.7396, 97.1974, -52.9525, 43.4285
2.264, 5, 35.7959, 48.2882, -13.6843, 97.1512, -53.2011, 43.3246
2.268, 5, 35.7829, 48.3053, -13.6247, 97.1004, -53.4714, 43.2122
2.272, 5, 35.7691, 48.3237, -13.5609, 97.045, -53.7621, 43.092
2.275, 5, 35.7544, 48.3435, -13.493, 96.9851, -54.0718, 42.9646
2.28, 5, 35.7387, 48.3648, -13.4214, 96.9211, -54.3988, 42.8309
2.284, 5, 35.7221, 48.3877, -13.3464, 96.853, -54.7411, 42.6917
2.288, 5, 35.7044, 48.4124, -13.2684, 96.7813, -55.0967, 42.548
2.291, 5, 35.6858, 48.4389, -13.1879, 96.7062, -55.4637, 42.4008
2.296, 5, 35.666, 48.4675, -13.1055, 96.6279, -55.8402, 42.2507
2.3, 5, 35.645, 48.4983, -13.0214, 96.5469, -56.2243, 42.0987
2.304, 5, 35.6229, 48.5312, -12.9361, 96.4633, -56.6143, 41.9454
2.308, 5, 35.5997, 48.5664, -12.85, 96.3775, -57.0091, 41.7914
2.311, 5, 35.5753, 48.6037, -12.7633, 96.2895, -57.4073, 41.6372
2.316, 5, 35.5499, 48.643, -12.6763, 96.1997, -57.808, 41.4832
2.32, 5, 35.5235, 48.6843, -12.5891, 96.1081, -58.2105, 41.3296
2.324, 5, 35.4961, 48.7275, -12.5019, 96.0149, -58.6143, 41.1768
2.328, 5, 35.4678, 48.7725, -12.4148, 95.9202, -59.0187, 41.0248
2.331, 5, 35.4386, 48.8192, -12.3279, 95.824, -59.4236, 40.8738
2.336, 5, 35.4084, 48.8677, -12.2412, 95.7264, -59.8286, 40.7239
2.34, 5, 35.3774, 48.9178, -12.1547, 95.6276, -60.2335, 40.5751
2.344, 5, 35.3455, 48.9695, -12.0686, 95.5274, -60.6382, 40.4275
2.347, 5, 35.3128, 49.0228, -11.9829, 95.4261, -61.0427, 40.2811
2.352, 5, 35.2793, 49.0776, -11.8974, 95.3235, -61.4468, 40.1359
2.356, 5, 35.2449, 49.1339, -11.8123, 95.2198, -61.8505, 39.9918
2.36, 5, 35.2097, 49.1916, -11.7276, 95.115, -62.2539, 39.8489
2.364, 6, 35.1736, 49.2509, -11.6432, 95.009, -62.6568, 39.7072
2.367, 6, 35.1367, 49.3116, -11.5591, 94.9019, -63.0593, 39.5666
2.372, 6, 35.099, 49.3737, -11.4754, 94.7938, -63.4613, 39.4271
2.376, 6, 35.0604, 49.4372, -11.392, 94.6846, -63.8629, 39.2887
2.38, 6, 35.021, 49.5021, -11.309, 94.5744, -64.2641, 39.1514
2.383, 6, 34.9807, 49.5685, -11.2263, 94.4631, -64.6648, 39.0152
2.388, 6, 34.9396, 49.6363, -11.1439, 94.3509, -65.0651, 38.88
2.392, 6, 34.8975, 49.7055, -11.0619, 94.2377, -65.465, 38.7458
2.396, 6, 34.8546, 49.7761, -10.9802, 94.1235, -65.8644, 38.6127
2.4, 6, 34.8108, 49.848, -10.8988, 94.0084, -66.2633, 38.4805
2.403, 6, 34.7661, 49.9214, -10.8177, 93.8924, -66.6618, 38.3494
2.408, 6, 34.7205, 49.9961, -10.737, 93.7754, -67.06, 38.2192
2.412, 6, 34.674, 50.0721, -10.6566, 93.6576, -67.4576, 38.0899
2.416, 6, 34.6266, 50.1496, -10.5765, 93.5388, -67.8549, 37.9616
2.42, 6, 34.5782, 50.2283, -10.4967, 93.4192, -68.2517, 37.8342
2.423, 6, 34.529, 50.3084, -10.4173, 93.2987, -68.6481, 37.7077
2.428, 6, 34.4788, 50.3898, -10.3381, 93.1774, -69.0441, 37.582
2.432, 6, 34.4278, 50.4724, -10.2593, 93.0553, -69.4397, 37.4572
2.436, 6, 34.3761, 50.5559, -10.1808, 92.9324, -69.8348, 37.3333
2.439, 6, 34.3241, 50.64, -10.1027, 92.8087, -70.2293, 37.2103
2.444, 6, 34.2718, 50.7243, -10.0249, 92.6843, -70.6231, 37.0882
2.448, 6, 34.2198, 50.8085, -9.94752, 92.5594, -71.0158, 36.9671
2.452, 6, 34.1683, 50.8922, -9.87066, 92.4341, -71.407, 36.8471
2.456, 6, 34.1174, 50.9752, -9.79442, 92.3087, -71.7959, 36.7284
2.459, 6, 34.0672, 51.0575, -9.71897, 92.1835, -72.1817, 36.6113
2.464, 6, 34.0174, 51.1392, -9.6445, 92.0589, -72.5634, 36.496
2.468, 6, 33.968, 51.2203, -9.57122, 91.9352, -72.94, 36.3828
2.472, 6, 33.9189, 51.3008, -9.49935, 91.8129, -73.3103, 36.2719
2.476, 6, 33.87, 51.3806, -9.4291, 91.6923, -73.6731, 36.1638
2.479, 6, 33.8214, 51.4596, -9.36071, 91.5741, -74.0273, 36.0588
2.484, 6, 33.7732, 51.5375, -9.29438, 91.4585, -74.3716, 35.957
2.488, 6, 33.7255, 51.6142, -9.23033, 91.346, -74.705, 35.8589
2.492, 6, 33.6784, 51.6896, -9.16874, 91.237, -75.0265, 35.7646
2.495, 6, 33.632, 51.7635, -9.10977, 91.132, -75.3353, 35.6744
2.5, 6, 33.5864, 51.8358, -9.05355, 91.031, -75.6305, 35.5885
2.504, 6, 33.5418, 51.9063, -9.00016, 90.9345, -75.9117, 35.5069
2.508, 6, 33.4984, 51.9745, -8.94964, 90.8425, -76.1785, 35.4298
2.512, 6, 33.4566, 52.0402, -8.90202, 90.7553, -76.4308, 35.357
2.515, 6, 33.4165, 52.103, -8.85729, 90.6728, -76.6685, 35.2887
2.52, 6, 33.3783, 52.1626, -8.81543, 90.5951, -76.8915, 35.2247
2.524, 6, 33.342, 52.2191, -8.77641, 90.5223, -77.0999, 35.1651
2.528, 6, 33.3076, 52.2723, -8.74022, 90.4544, -77.2937, 35.1098
2.531, 6, 33.2752, 52.3225, -8.7068, 90.3914, -77.4733, 35.0587
2.536, 6, 33.2446, 52.3695, -8.67611, 90.3331, -77.6386, 35.0116
2.54, 6, 33.216, 52.4135, -8.64808, 90.2797, -77.7901, 34.9687
2.544, 6, 33.1891, 52.4545, -8.62264, 90.2309, -77.9281, 34.9296
2.548, 6, 33.1642, 52.4925, -8.59968, 90.1867, -78.053, 34.8942
2.551, 6, 33.1411, 52.5274, -8.5791, 90.1468, -78.1653, 34.8625
2.556, 6, 33.12, 52.5594, -8.56079, 90.1112, -78.2656, 34.8342
2.56, 6, 33.1005, 52.5886, -8.54464, 90.0796, -78.3544, 34.8092
2.564, 6, 33.0828, 52.6151, -8.53052, 90.0518, -78.4324, 34.7872
2.568, 6, 33.0665, 52.6393, -8.5183, 90.0276, -78.5002, 34.7681
2.571, 6, 33.0518, 52.6611, -8.50784, 90.0067, -78.5587, 34.7517
2.576, 6, 33.0384, 52.6808, -8.499, 89.9889, -78.6084, 34.7377
2.58, 6, 33.0263, 52.6984, -8.4916, 89.9739, -78.6504, 34.7259
2.584, 6, 33.0156, 52.714, -8.48549, 89.9614, -78.6853, 34.7161
2.587, 6, 33.0062, 52.7278, -8.48052, 89.9511, -78.714, 34.708
2.592, 6, 32.9979, 52.7399, -8.47653, 89.9428, -78.7372, 34.7015
2.596, 6, 32.9907, 52.7507, -8.47339, 89.9362, -78.7557, 34.6963
2.6, 6, 32.9843, 52.7603, -8.47098, 89.931, -78.7702, 34.6923
2.604, 6, 32.9785, 52.7688, -8.46917, 89.927, -78.7813, 34.6892
2.607, 6, 32.9733, 52.7763, -8.46786, 89.924, -78.7896, 34.6868
2.612, 6, 32.9688, 52.7826, -8.46693, 89.9218, -78.7957, 34.6851
2.616, 6, 32.9648, 52.7878, -8.4663, 89.9203, -78.8, 34.6839
2.62, 7, 32.9616, 52.7919, -8.46587, 89.9192, -78.803, 34.683
2.624, 7, 32.959, 52.795, -8.46559, 89.9184, -78.8051, 34.6825
2.627, 7, 32.9571, 52.7972, -8.46541, 89.9179, -78.8065, 34.6821
2.632, 7, 32.9557, 52.7987, -8.46528, 89.9176, -78.8075, 34.6818
2.636, 7, 32.9548, 52.7998, -8.4652, 89.9173, -78.8082, 34.6816
2.64, 7, 32.9542, 52.8005, -8.46514, 89.9172, -78.8086, 34.6815
2.643, 7, 32.9537, 52.8009, -8.4651, 89.9171, -78.8089, 34.6814
2.648, 7, 32.9534, 52.8013, -8.46507, 89.917, -78.8091, 34.6813
2.652, 7, 32.9532, 52.8015, -8.46506, 89.9169, -78.8093, 34.6813
2.656, 7, 32.9531, 52.8016, -8.46504, 89.9169, -78.8094, 34.6813
2.66, 7, 32.953, 52.8017, -8.46504, 89.9169, -78.8094, 34.6812
2.663, 7, 32.953, 52.8018, -8.46503, 89.9169, -78.8095, 34.6812
2.668, 7, 32.9529, 52.8019, -8.46503, 89.9169, -78.8095, 34.6812
2.672, 7, 32.9529, 52.8019, -8.46502, 89.9169, -78.8095, 34.6812
2.676, 7, 32.9529, 52.8019, -8.46502, 89.9168, -78.8095, 34.6812
2.679, 7, 32.9529, 52.8019, -8.46502, 89.9168, -78.8095, 34.6812
2.684, 7, 32.9529, 52.8019, -8.46502, 89.9168, -78.8095, 34.6812
2.688, 7, 32.9528, 52.8019, -8.46502, 89.9168, -78.8095, 34.6812
2.692, 7, 32.9528, 52.8019, -8.46502, 89.9168, -78.8095, 34.6812
2.696, 7, 32.9528, 52.8019, -8.46502, 89.9168, -78.8095, 34.6812
2.699, 7, 32.9528, 52.8019, -8.46502, 89.9168, -78.8095, 34.6812
2.704, 7, 32.9528, 52.8019, -8.46502, 89.9168, -78.8096, 34.6812
2.708, 7, 32.9528, 52.8019, -8.46502, 89.9168, -78.8096, 34.6812
2.712, 7, 32.9528, 52.8019, -8.46502, 89.9168, -78.8096, 34.6812
2.716, 7, 32.9528, 52.8019, -8.46502, 89.9168, -78.8096, 34.6812
2.719, 7, 32.9528, 52.8019, -8.46502, 89.9168, -78.8096, 34.6812
2.724, 7, 32.9528, 52.8019, -8.46502, 89.9168, -78.8096, 34.6812
2.728, 7, 32.9528, 52.8019, -8.46502, 89.9168, -78.8096, 34.6812
2.732, 7, 32.9528, 52.8019, -8.46502, 89.9168, -78.8096, 34.6812
2.735, 7, 32.9528, 52.8019, -8.46502, 89.9168, -78.8096, 34.6812
