hehonglu123/ABB_Primitive_Study/execution/blade/curve_exe_v50_z20.csv
timestamp, cmd_num, J1, J2, J3, J4, J5, J6
0, -1, -18.2639, 27.6366, 43.2521, -16.0925, -101.723, 6.01522
0.002, -1, -18.2639, 27.6366, 43.2521, -16.0925, -101.723, 6.01522
0.006, -1, -18.2639, 27.6366, 43.2521, -16.0925, -101.723, 6.01522
0.008, -1, -18.2639, 27.6366, 43.2521, -16.0925, -101.723, 6.01522
0.011, -1, -18.2639, 27.6366, 43.2521, -16.0925, -101.723, 6.01522
0.016, -1, -18.2639, 27.6366, 43.2521, -16.0925, -101.723, 6.01522
0.02, -1, -18.2639, 27.6366, 43.2521, -16.0925, -101.723, 6.01522
0.024, -1, -18.2639, 27.6366, 43.2521, -16.0925, -101.723, 6.01522
0.028, -1, -18.2639, 27.6366, 43.2521, -16.0925, -101.723, 6.01522
0.032, -1, -18.2639, 27.6366, 43.2521, -16.0925, -101.723, 6.01522
0.036, -1, -18.2638, 27.6366, 43.2521, -16.0925, -101.723, 6.01522
0.04, -1, -18.2636, 27.6367, 43.252, -16.0925, -101.723, 6.01522
0.044, -1, -18.263, 27.6367, 43.252, -16.0925, -101.723, 6.01523
0.048, -1, -18.2619, 27.6369, 43.2518, -16.0924, -101.723, 6.01528
0.052, -1, -18.2602, 27.6373, 43.2515, -16.0921, -101.723, 6.01538
0.056, -1, -18.2578, 27.6378, 43.2509, -16.0914, -101.723, 6.0156
0.06, -1, -18.2545, 27.6387, 43.25, -16.0902, -101.722, 6.01602
0.064, -1, -18.2503, 27.6398, 43.2485, -16.0881, -101.721, 6.01675
0.068, -1, -18.2451, 27.6415, 43.2463, -16.0847, -101.719, 6.01792
0.072, -1, -18.2385, 27.6437, 43.243, -16.0794, -101.717, 6.0197
0.076, -1, -18.2304, 27.6467, 43.2385, -16.0717, -101.714, 6.0223
0.08, -1, -18.2205, 27.6505, 43.2323, -16.061, -101.709, 6.02594
0.084, -1, -18.2083, 27.6553, 43.224, -16.0463, -101.702, 6.03089
0.088, -1, -18.1935, 27.6612, 43.2132, -16.0268, -101.693, 6.03744
0.092, -1, -18.1761, 27.6681, 43.1996, -16.0016, -101.682, 6.04591
0.096, -1, -18.1558, 27.676, 43.1827, -15.9699, -101.668, 6.05659
0.1, -1, -18.1325, 27.6851, 43.1621, -15.9306, -101.65, 6.06978
0.104, -1, -18.106, 27.6952, 43.1375, -15.883, -101.629, 6.08573
0.108, -1, -18.0762, 27.7065, 43.1086, -15.8265, -101.604, 6.10468
0.112, -1, -18.0429, 27.719, 43.075, -15.7606, -101.575, 6.12676
0.116, -1, -18.006, 27.7329, 43.0368, -15.685, -101.541, 6.15208
0.12, -1, -17.9654, 27.7481, 42.9938, -15.5995, -101.504, 6.18069
0.124, -1, -17.9212, 27.7645, 42.9461, -15.5043, -101.462, 6.21256
0.128, -1, -17.8735, 27.7822, 42.8937, -15.3996, -101.415, 6.24761
0.131, -1, -17.8225, 27.801, 42.8369, -15.2858, -101.365, 6.28569
0.136, -1, -17.7682, 27.8211, 42.776, -15.1635, -101.311, 6.3266
0.139, -1, -17.7108, 27.8423, 42.7113, -15.0335, -101.254, 6.3701
0.144, -1, -17.6503, 27.8647, 42.643, -14.8966, -101.194, 6.41592
0.148, -1, -17.5869, 27.8882, 42.5717, -14.7536, -101.131, 6.46376
0.152, -1, -17.5209, 27.9129, 42.4978, -14.6054, -101.065, 6.51335
0.156, -1, -17.4526, 27.9387, 42.4215, -14.4529, -100.998, 6.5644
0.16, -1, -17.3821, 27.9653, 42.3434, -14.2967, -100.929, 6.61666
0.164, -1, -17.3099, 27.9927, 42.2636, -14.1376, -100.859, 6.66992
0.168, -1, -17.2361, 28.0208, 42.1826, -13.9761, -100.787, 6.72396
0.172, -1, -17.1609, 28.0494, 42.1005, -13.8128, -100.715, 6.77863
0.176, -1, -17.0846, 28.0785, 42.0177, -13.6481, -100.642, 6.83378
0.18, -1, -17.0073, 28.1079, 41.9342, -13.4822, -100.569, 6.88929
0.184, -1, -16.9291, 28.1376, 41.8503, -13.3156, -100.496, 6.94509
0.188, -1, -16.8502, 28.1675, 41.7659, -13.1483, -100.422, 7.0011
0.192, -1, -16.7707, 28.1976, 41.6813, -12.9805, -100.347, 7.05728
0.196, -1, -16.6909, 28.2279, 41.5964, -12.8123, -100.273, 7.1136
0.2, -1, -16.6108, 28.2582, 41.5114, -12.6437, -100.199, 7.17004
0.204, -1, -16.5304, 28.2886, 41.4261, -12.4749, -100.124, 7.22658
0.208, -1, -16.4498, 28.3191, 41.3407, -12.3057, -100.049, 7.28322
0.212, -1, -16.369, 28.3497, 41.2552, -12.1363, -99.9743, 7.33994
0.216, -1, -16.2881, 28.3803, 41.1696, -11.9667, -99.8993, 7.39675
0.22, -1, -16.2071, 28.4109, 41.0838, -11.7968, -99.8242, 7.45363
0.224, -1, -16.1259, 28.4416, 40.9979, -11.6266, -99.749, 7.5106
0.228, -1, -16.0447, 28.4723, 40.9119, -11.4563, -99.6737, 7.56764
0.232, -1, -15.9633, 28.5031, 40.8258, -11.2857, -99.5983, 7.62475
0.236, -1, -15.8818, 28.5339, 40.7395, -11.1149, -99.5228, 7.68194
0.24, -1, -15.8002, 28.5648, 40.6532, -10.9439, -99.4472, 7.73921
0.244, -1, -15.7185, 28.5957, 40.5667, -10.7727, -99.3715, 7.79655
0.248, -1, -15.6366, 28.6266, 40.4801, -10.6012, -99.2957, 7.85396
0.252, -1, -15.5547, 28.6576, 40.3934, -10.4295, -99.2197, 7.91145
0.256, -1, -15.4727, 28.6886, 40.3066, -10.2576, -99.1438, 7.96901
0.26, -1, -15.3905, 28.7197, 40.2197, -10.0855, -99.0677, 8.02664
0.264, -1, -15.3083, 28.7508, 40.1327, -9.91315, -98.9915, 8.08435
0.268, -1, -15.2259, 28.7819, 40.0456, -9.7406, -98.9152, 8.14213
0.272, -1, -15.1435, 28.8131, 39.9584, -9.56782, -98.8388, 8.19998
0.276, -1, -15.0609, 28.8443, 39.871, -9.39482, -98.7623, 8.2579
0.28, -1, -14.9783, 28.8755, 39.7835, -9.22161, -98.6857, 8.3159
0.284, -1, -14.8955, 28.9068, 39.696, -9.04818, -98.6091, 8.37398
0.288, -1, -14.8126, 28.9382, 39.6083, -8.87453, -98.5323, 8.43212
0.292, -1, -14.7297, 28.9695, 39.5205, -8.70066, -98.4554, 8.49034
0.296, -1, -14.6466, 29.001, 39.4326, -8.52657, -98.3785, 8.54863
0.3, -1, -14.5634, 29.0324, 39.3446, -8.35227, -98.3014, 8.607
0.304, -1, -14.4801, 29.0639, 39.2565, -8.17775, -98.2243, 8.66543
0.308, -1, -14.3967, 29.0954, 39.1682, -8.00301, -98.147, 8.72394
0.312, -1, -14.3132, 29.127, 39.0799, -7.82805, -98.0697, 8.78253
0.316, -1, -14.2296, 29.1586, 38.9915, -7.65288, -97.9922, 8.84118
0.32, -1, -14.1459, 29.1903, 38.9029, -7.47749, -97.9147, 8.89991
0.324, -1, -14.0621, 29.222, 38.8142, -7.30188, -97.8371, 8.95871
0.328, -1, -13.9782, 29.2537, 38.7255, -7.12606, -97.7593, 9.01758
0.332, -1, -13.8942, 29.2854, 38.6366, -6.95002, -97.6815, 9.07653
0.336, -1, -13.8101, 29.3172, 38.5476, -6.77376, -97.6036, 9.13555
0.34, -1, -13.7259, 29.3491, 38.4585, -6.59729, -97.5256, 9.19464
0.344, -1, -13.6416, 29.381, 38.3693, -6.4206, -97.4474, 9.2538
0.348, -1, -13.5572, 29.4129, 38.2799, -6.2437, -97.3692, 9.31304
0.352, -1, -13.4726, 29.4449, 38.1905, -6.06658, -97.2909, 9.37234
0.356, -1, -13.388, 29.4768, 38.101, -5.88925, -97.2125, 9.43172
0.36, -1, -13.3033, 29.5089, 38.0113, -5.7117, -97.134, 9.49117
0.364, -1, -13.2185, 29.541, 37.9216, -5.53395, -97.0555, 9.55069
0.368, -1, -13.1336, 29.5731, 37.8317, -5.35598, -96.9768, 9.61028
0.372, -1, -13.0486, 29.6052, 37.7417, -5.17781, -96.898, 9.66994
0.376, -1, -12.9634, 29.6374, 37.6517, -4.99942, -96.8192, 9.72967
0.38, -1, -12.8782, 29.6696, 37.5615, -4.82083, -96.7402, 9.78947
0.384, -1, -12.7929, 29.7019, 37.4712, -4.64204, -96.6612, 9.84934
0.388, -1, -12.7075, 29.7342, 37.3808, -4.46303, -96.582, 9.90928
0.392, -1, -12.622, 29.7665, 37.2904, -4.28383, -96.5028, 9.96928
0.396, -1, -12.5364, 29.7989, 37.1998, -4.10442, -96.4235, 10.0294
0.4, -1, -12.4507, 29.8313, 37.1091, -3.92482, -96.3441, 10.0895
0.404, -1, -12.3649, 29.8637, 37.0183, -3.74501, -96.2646, 10.1497
0.408, -1, -12.279, 29.8962, 36.9274, -3.56501, -96.185, 10.21
0.412, -1, -12.193, 29.9287, 36.8364, -3.38481, -96.1054, 10.2703
0.416, -1, -12.107, 29.9613, 36.7453, -3.20442, -96.0256, 10.3307
0.42, -1, -12.0208, 29.9939, 36.6542, -3.02384, -95.9458, 10.3912
0.424, -1, -11.9346, 30.0265, 36.5629, -2.84306, -95.8659, 10.4517
0.428, -1, -11.8482, 30.0591, 36.4715, -2.6621, -95.7859, 10.5123
0.432, -1, -11.7618, 30.0918, 36.38, -2.48094, -95.7058, 10.573
0.436, -1, -11.6753, 30.1245, 36.2885, -2.2996, -95.6256, 10.6337
0.44, -1, -11.5886, 30.1573, 36.1968, -2.11807, -95.5453, 10.6945
0.444, -1, -11.502, 30.1901, 36.1051, -1.93637, -95.465, 10.7553
0.448, -1, -11.4152, 30.2229, 36.0132, -1.75448, -95.3846, 10.8162
0.452, -1, -11.3283, 30.2558, 35.9213, -1.5724, -95.3041, 10.8772
0.456, -1, -11.2413, 30.2886, 35.8293, -1.39016, -95.2235, 10.9382
0.46, -1, -11.1543, 30.3216, 35.7372, -1.20773, -95.1429, 10.9993
0.464, -1, -11.0672, 30.3545, 35.645, -1.02513, -95.0622, 11.0604
0.468, -1, -10.98, 30.3875, 35.5527, -0.842356, -94.9814, 11.1216
0.472, -1, -10.8927, 30.4205, 35.4603, -0.659411, -94.9005, 11.1829
0.476, -1, -10.8053, 30.4535, 35.3679, -0.476297, -94.8195, 11.2442
0.48, -1, -10.7179, 30.4866, 35.2753, -0.293015, -94.7385, 11.3056
0.484, -1, -10.6304, 30.5197, 35.1827, -0.109567, -94.6574, 11.367
0.488, -1, -10.5428, 30.5528, 35.09, 0.0740454, -94.5762, 11.4285
0.492, -1, -10.4551, 30.586, 34.9972, 0.25782, -94.495, 11.49
0.496, -1, -10.3673, 30.6192, 34.9043, 0.441755, -94.4137, 11.5516
0.5, -1, -10.2795, 30.6524, 34.8114, 0.625848, -94.3323, 11.6132
0.504, -1, -10.1916, 30.6856, 34.7183, 0.810098, -94.2508, 11.6749
0.508, -1, -10.1036, 30.7189, 34.6252, 0.994503, -94.1693, 11.7367
0.512, -1, -10.0155, 30.7522, 34.532, 1.17906, -94.0877, 11.7985
0.516, -1, -9.92742, 30.7855, 34.4388, 1.36377, -94.0061, 11.8603
0.52, -1, -9.83923, 30.8189, 34.3454, 1.54863, -93.9243, 11.9222
0.524, -1, -9.75096, 30.8523, 34.252, 1.73363, -93.8425, 11.9842
0.528, -1, -9.66263, 30.8857, 34.1585, 1.91878, -93.7607, 12.0462
0.532, -1, -9.57423, 30.9191, 34.065, 2.10408, -93.6788, 12.1082
0.536, -1, -9.48576, 30.9526, 33.9714, 2.28951, -93.5968, 12.1703
0.54, -1, -9.39723, 30.9861, 33.8777, 2.47508, -93.5148, 12.2324
0.544, -1, -9.30864, 31.0196, 33.7839, 2.66079, -93.4327, 12.2946
0.548, -1, -9.21998, 31.0531, 33.69, 2.84663, -93.3505, 12.3569
0.552, -1, -9.13127, 31.0867, 33.5961, 3.03261, -93.2683, 12.4191
0.556, -1, -9.04249, 31.1202, 33.5022, 3.21871, -93.186, 12.4814
0.56, -1, -8.95366, 31.1538, 33.4081, 3.40493, -93.1037, 12.5438
0.564, -1, -8.86477, 31.1875, 33.3141, 3.59128, -93.0213, 12.6062
0.568, -1, -8.77582, 31.2211, 33.2199, 3.77775, -92.9389, 12.6686
0.572, -1, -8.68683, 31.2548, 33.1257, 3.96433, -92.8564, 12.7311
0.576, -1, -8.59778, 31.2884, 33.0314, 4.15103, -92.7738, 12.7936
0.58, -1, -8.50868, 31.3222, 32.9371, 4.33783, -92.6913, 12.8562
0.584, -1, -8.41953, 31.3559, 32.8427, 4.52473, -92.6086, 12.9188
0.588, -1, -8.33033, 31.3896, 32.7483, 4.71174, -92.526, 12.9814
0.592, -1, -8.24109, 31.4234, 32.6538, 4.89885, -92.4432, 13.044
0.596, -1, -8.1518, 31.4572, 32.5593, 5.08605, -92.3605, 13.1067
0.6, -1, -8.06247, 31.4909, 32.4648, 5.27334, -92.2777, 13.1694
0.604, -1, -7.9731, 31.5247, 32.3701, 5.46071, -92.1948, 13.2322
0.608, -1, -7.88369, 31.5586, 32.2755, 5.64817, -92.112, 13.2949
0.612, -1, -7.79425, 31.5924, 32.1808, 5.8357, -92.0291, 13.3577
0.616, -1, -7.70477, 31.6263, 32.0861, 6.02331, -91.9461, 13.4205
0.62, -1, -7.61526, 31.6601, 31.9913, 6.21099, -91.8632, 13.4834
0.624, -1, -7.52571, 31.694, 31.8965, 6.39874, -91.7802, 13.5462
0.628, -1, -7.43614, 31.7279, 31.8017, 6.58655, -91.6971, 13.6091
0.632, -1, -7.34654, 31.7618, 31.7068, 6.77442, -91.6141, 13.672
0.636, -1, -7.25691, 31.7957, 31.6119, 6.96234, -91.531, 13.735
0.64, -1, -7.16726, 31.8296, 31.517, 7.15032, -91.4479, 13.7979
0.644, -1, -7.07759, 31.8635, 31.4221, 7.33834, -91.3648, 13.8609
0.648, -1, -6.9879, 31.8975, 31.3271, 7.5264, -91.2816, 13.9238
0.652, -1, -6.89819, 31.9314, 31.2321, 7.7145, -91.1985, 13.9868
0.656, -1, -6.80846, 31.9653, 31.1371, 7.90264, -91.1153, 14.0498
0.66, -1, -6.71872, 31.9993, 31.0421, 8.09081, -91.0321, 14.1128
0.664, -1, -6.62897, 32.0333, 30.9471, 8.279, -90.9489, 14.1758
0.668, -1, -6.53921, 32.0672, 30.8521, 8.46722, -90.8657, 14.2389
0.672, -1, -6.44944, 32.1012, 30.757, 8.65546, -90.7825, 14.3019
0.676, -1, -6.35967, 32.1352, 30.662, 8.84371, -90.6992, 14.3649
0.68, -1, -6.26989, 32.1691, 30.5669, 9.03198, -90.616, 14.428
0.684, -1, -6.18012, 32.2031, 30.4718, 9.22025, -90.5328, 14.491
0.688, -1, -6.09034, 32.2371, 30.3768, 9.40853, -90.4496, 14.5541
0.692, -1, -6.00057, 32.271, 30.2817, 9.5968, -90.3663, 14.6171
0.696, -1, -5.9108, 32.305, 30.1867, 9.78507, -90.2831, 14.6801
0.7, -1, -5.82104, 32.339, 30.0916, 9.97333, -90.1999, 14.7432
0.704, -1, -5.73128, 32.3729, 29.9965, 10.1616, -90.1166, 14.8062
0.708, -1, -5.64153, 32.4069, 29.9015, 10.3498, -90.0334, 14.8692
0.712, -1, -5.5518, 32.4409, 29.8065, 10.538, -89.9502, 14.9323
0.716, -1, -5.46208, 32.4748, 29.7114, 10.7262, -89.867, 14.9953
0.72, -1, -5.37237, 32.5088, 29.6164, 10.9144, -89.7839, 15.0583
0.724, -1, -5.28268, 32.5427, 29.5214, 11.1025, -89.7007, 15.1213
0.728, -1, -5.19301, 32.5767, 29.4265, 11.2906, -89.6175, 15.1842
0.732, -1, -5.10336, 32.6106, 29.3315, 11.4786, -89.5344, 15.2472
0.736, -1, -5.01373, 32.6445, 29.2366, 11.6666, -89.4513, 15.3101
0.74, -1, -4.92413, 32.6784, 29.1417, 11.8545, -89.3682, 15.3731
0.744, -1, -4.83455, 32.7123, 29.0468, 12.0424, -89.2851, 15.436
0.748, -1, -4.745, 32.7462, 28.952, 12.2303, -89.2021, 15.4989
0.752, -1, -4.65548, 32.7801, 28.8572, 12.4181, -89.1191, 15.5618
0.756, -1, -4.56599, 32.814, 28.7624, 12.6058, -89.0361, 15.6246
0.76, -1, -4.47653, 32.8478, 28.6676, 12.7934, -88.9531, 15.6875
0.764, -1, -4.38711, 32.8817, 28.5729, 12.981, -88.8702, 15.7503
0.768, -1, -4.29772, 32.9155, 28.4782, 13.1685, -88.7873, 15.813
0.772, -1, -4.20838, 32.9493, 28.3836, 13.3559, -88.7045, 15.8758
0.776, -1, -4.11908, 32.9831, 28.289, 13.5432, -88.6217, 15.9385
0.78, -1, -4.02982, 33.0169, 28.1945, 13.7305, -88.5389, 16.0012
0.784, -1, -3.9406, 33.0507, 28.1, 13.9176, -88.4561, 16.0639
0.788, -1, -3.85143, 33.0844, 28.0055, 14.1047, -88.3734, 16.1265
0.792, -1, -3.76231, 33.1182, 27.9111, 14.2916, -88.2908, 16.1891
0.796, -1, -3.67325, 33.1519, 27.8168, 14.4785, -88.2082, 16.2517
0.8, -1, -3.58423, 33.1856, 27.7225, 14.6652, -88.1256, 16.3142
0.804, -1, -3.49527, 33.2193, 27.6282, 14.8518, -88.0431, 16.3767
0.808, -1, -3.40637, 33.2529, 27.5341, 15.0383, -87.9607, 16.4391
0.812, -1, -3.31752, 33.2865, 27.44, 15.2247, -87.8783, 16.5016
0.816, -1, -3.22874, 33.3202, 27.3459, 15.411, -87.7959, 16.5639
0.82, -1, -3.14001, 33.3537, 27.2519, 15.5971, -87.7136, 16.6262
0.824, -1, -3.05135, 33.3873, 27.158, 15.7831, -87.6314, 16.6885
0.828, -1, -2.96275, 33.4208, 27.0641, 15.969, -87.5493, 16.7508
0.832, -1, -2.87423, 33.4544, 26.9704, 16.1547, -87.4671, 16.8129
0.836, -1, -2.78577, 33.4878, 26.8767, 16.3403, -87.3851, 16.8751
0.84, -1, -2.69738, 33.5213, 26.783, 16.5257, -87.3031, 16.9372
0.844, -1, -2.60907, 33.5547, 26.6895, 16.711, -87.2212, 16.9992
0.848, -1, -2.52083, 33.5881, 26.596, 16.8961, -87.1394, 17.0612
0.852, -1, -2.43266, 33.6215, 26.5026, 17.081, -87.0576, 17.1231
0.856, -1, -2.34458, 33.6549, 26.4093, 17.2658, -86.9759, 17.185
0.86, -1, -2.25658, 33.6882, 26.3161, 17.4504, -86.8943, 17.2468
0.864, -1, -2.16866, 33.7215, 26.2229, 17.6349, -86.8128, 17.3086
0.868, -1, -2.08082, 33.7547, 26.1299, 17.8191, -86.7313, 17.3703
0.872, -1, -1.99307, 33.7879, 26.0369, 18.0032, -86.6499, 17.4319
0.876, -1, -1.9054, 33.8211, 25.9441, 18.1871, -86.5686, 17.4935
0.88, -1, -1.81783, 33.8543, 25.8513, 18.3708, -86.4874, 17.555
0.884, -1, -1.73035, 33.8874, 25.7586, 18.5543, -86.4063, 17.6165
0.888, -1, -1.64295, 33.9205, 25.6661, 18.7377, -86.3252, 17.6778
0.892, -1, -1.55566, 33.9535, 25.5736, 18.9208, -86.2443, 17.7392
0.896, -1, -1.46846, 33.9865, 25.4812, 19.1037, -86.1634, 17.8004
0.9, -1, -1.38135, 34.0195, 25.389, 19.2864, -86.0826, 17.8616
0.904, -1, -1.29435, 34.0524, 25.2968, 19.469, -86.0019, 17.9227
0.908, -1, -1.20745, 34.0853, 25.2048, 19.6513, -85.9214, 17.9837
0.912, -1, -1.12064, 34.1182, 25.1128, 19.8333, -85.8409, 18.0447
0.916, -1, -1.03395, 34.151, 25.021, 20.0152, -85.7605, 18.1056
0.92, -1, -0.947355, 34.1838, 24.9292, 20.1968, -85.6802, 18.1664
0.924, -1, -0.86087, 34.2165, 24.8376, 20.3783, -85.6, 18.2272
0.928, -1, -0.774493, 34.2492, 24.7461, 20.5594, -85.5198, 18.2878
0.932, -1, -0.688227, 34.2819, 24.6548, 20.7404, -85.4398, 18.3484
0.936, -1, -0.602071, 34.3145, 24.5635, 20.9211, -85.36, 18.4089
0.94, -1, -0.516029, 34.3471, 24.4724, 21.1016, -85.2802, 18.4694
0.944, -1, -0.4301, 34.3796, 24.3814, 21.2818, -85.2005, 18.5297
0.948, -1, -0.344287, 34.4121, 24.2905, 21.4618, -85.1209, 18.59
0.952, -1, -0.258591, 34.4445, 24.1997, 21.6416, -85.0414, 18.6502
0.956, -1, -0.173013, 34.4769, 24.1091, 21.8211, -84.9621, 18.7103
0.96, -1, -0.0875549, 34.5093, 24.0185, 22.0003, -84.8828, 18.7703
0.964, -1, -0.00221738, 34.5416, 23.9282, 22.1793, -84.8037, 18.8303
0.968, -1, 0.0829981, 34.5738, 23.8379, 22.3581, -84.7247, 18.8901
0.972, -1, 0.16809, 34.606, 23.7478, 22.5366, -84.6458, 18.9499
0.976, -1, 0.253058, 34.6382, 23.6578, 22.7148, -84.567, 19.0095
0.98, -1, 0.3379, 34.6703, 23.5679, 22.8927, -84.4883, 19.0691
0.984, -1, 0.422615, 34.7024, 23.4782, 23.0704, -84.4098, 19.1286
0.988, -1, 0.507202, 34.7344, 23.3886, 23.2478, -84.3313, 19.188
0.992, -1, 0.591659, 34.7664, 23.2992, 23.425, -84.253, 19.2473
0.996, -1, 0.675986, 34.7983, 23.2098, 23.6018, -84.1748, 19.3066
1, -1, 0.760182, 34.8302, 23.1207, 23.7784, -84.0968, 19.3657
1.004, -1, 0.844247, 34.862, 23.0316, 23.9547, -84.0188, 19.4247
1.008, -1, 0.928179, 34.8938, 22.9427, 24.1308, -83.941, 19.4837
1.012, -1, 1.01198, 34.9255, 22.854, 24.3065, -83.8633, 19.5425
1.016, -1, 1.09564, 34.9571, 22.7654, 24.482, -83.7857, 19.6013
1.02, -1, 1.17917, 34.9888, 22.6769, 24.6571, -83.7083, 19.6599
1.024, -1, 1.26256, 35.0203, 22.5886, 24.832, -83.631, 19.7185
1.027, -1, 1.34582, 35.0518, 22.5005, 25.0066, -83.5538, 19.7769
1.032, -1, 1.42894, 35.0833, 22.4125, 25.1809, -83.4767, 19.8353
1.036, -1, 1.51191, 35.1147, 22.3246, 25.3549, -83.3998, 19.8936
1.04, -1, 1.59475, 35.1461, 22.2369, 25.5286, -83.323, 19.9517
1.044, -1, 1.67745, 35.1774, 22.1493, 25.702, -83.2464, 20.0098
1.048, -1, 1.76001, 35.2086, 22.0619, 25.8752, -83.1698, 20.0678
1.052, -1, 1.84243, 35.2398, 21.9746, 26.048, -83.0934, 20.1256
1.055, -1, 1.9247, 35.2709, 21.8875, 26.2205, -83.0172, 20.1834
1.06, -1, 2.00683, 35.302, 21.8005, 26.3927, -82.941, 20.2411
1.064, -1, 2.08882, 35.333, 21.7137, 26.5646, -82.865, 20.2986
1.068, -1, 2.17066, 35.364, 21.6271, 26.7362, -82.7891, 20.3561
1.072, -1, 2.25236, 35.3949, 21.5406, 26.9075, -82.7134, 20.4134
1.076, -1, 2.33391, 35.4258, 21.4542, 27.0785, -82.6378, 20.4707
1.08, -1, 2.41532, 35.4566, 21.368, 27.2492, -82.5624, 20.5279
1.084, -1, 2.49658, 35.4874, 21.282, 27.4196, -82.487, 20.5849
1.088, -1, 2.57769, 35.518, 21.1961, 27.5897, -82.4118, 20.6419
1.091, -1, 2.65866, 35.5487, 21.1104, 27.7594, -82.3368, 20.6987
1.096, -1, 2.73948, 35.5793, 21.0248, 27.9289, -82.2619, 20.7554
1.1, -1, 2.82015, 35.6098, 20.9394, 28.098, -82.1871, 20.8121
1.104, -1, 2.90068, 35.6403, 20.8541, 28.2668, -82.1125, 20.8686
1.108, -1, 2.98105, 35.6707, 20.769, 28.4354, -82.038, 20.925
1.112, -1, 3.06128, 35.7011, 20.6841, 28.6036, -81.9636, 20.9814
1.116, -1, 3.14136, 35.7314, 20.5993, 28.7715, -81.8894, 21.0376
1.119, -1, 3.22128, 35.7616, 20.5147, 28.939, -81.8153, 21.0937
1.124, -1, 3.30106, 35.7918, 20.4302, 29.1063, -81.7414, 21.1497
1.128, -1, 3.38069, 35.8219, 20.3459, 29.2733, -81.6675, 21.2056
1.132, -1, 3.46017, 35.852, 20.2618, 29.4399, -81.5939, 21.2614
1.136, -1, 3.5395, 35.882, 20.1778, 29.6062, -81.5204, 21.3171
1.14, -1, 3.61867, 35.912, 20.094, 29.7722, -81.447, 21.3727
1.144, -1, 3.6977, 35.9419, 20.0103, 29.9379, -81.3737, 21.4281
1.147, -1, 3.77658, 35.9717, 19.9268, 30.1032, -81.3006, 21.4835
1.152, -1, 3.8553, 36.0015, 19.8434, 30.2683, -81.2277, 21.5388
1.156, -1, 3.93388, 36.0313, 19.7603, 30.433, -81.1548, 21.5939
1.16, -1, 4.0123, 36.0609, 19.6772, 30.5974, -81.0822, 21.649
1.164, -1, 4.09057, 36.0906, 19.5944, 30.7615, -81.0096, 21.7039
1.168, -1, 4.16868, 36.1201, 19.5117, 30.9253, -80.9372, 21.7588
1.172, -1, 4.24665, 36.1496, 19.4291, 31.0887, -80.865, 21.8135
1.175, -1, 4.32446, 36.1791, 19.3468, 31.2518, -80.7928, 21.8681
1.18, -1, 4.40212, 36.2084, 19.2646, 31.4146, -80.7209, 21.9226
1.184, -1, 4.47963, 36.2378, 19.1825, 31.5771, -80.649, 21.977
1.188, -1, 4.55699, 36.267, 19.1006, 31.7393, -80.5773, 22.0313
1.192, -1, 4.63419, 36.2962, 19.0189, 31.9011, -80.5058, 22.0855
1.196, -1, 4.71124, 36.3254, 18.9373, 32.0626, -80.4344, 22.1396
1.2, -1, 4.78813, 36.3545, 18.8559, 32.2238, -80.3631, 22.1936
1.204, -1, 4.86488, 36.3835, 18.7747, 32.3847, -80.292, 22.2474
1.208, -1, 4.94147, 36.4125, 18.6936, 32.5452, -80.221, 22.3012
1.212, -1, 5.0179, 36.4414, 18.6127, 32.7055, -80.1502, 22.3548
1.216, -1, 5.09419, 36.4703, 18.532, 32.8654, -80.0795, 22.4084
1.22, -1, 5.17032, 36.4991, 18.4514, 33.025, -80.0089, 22.4618
1.224, -1, 5.24629, 36.5279, 18.371, 33.1842, -79.9385, 22.5152
1.228, -1, 5.32212, 36.5565, 18.2907, 33.3432, -79.8683, 22.5684
1.232, -1, 5.39779, 36.5852, 18.2106, 33.5018, -79.7981, 22.6215
1.236, -1, 5.4733, 36.6138, 18.1307, 33.6601, -79.7282, 22.6745
1.24, -1, 5.54867, 36.6423, 18.0509, 33.8181, -79.6583, 22.7274
1.244, -1, 5.62388, 36.6707, 17.9713, 33.9757, -79.5886, 22.7802
1.248, -1, 5.69893, 36.6991, 17.8918, 34.133, -79.5191, 22.8329
1.252, -1, 5.77384, 36.7275, 17.8125, 34.29, -79.4497, 22.8854
1.256, -1, 5.84859, 36.7557, 17.7334, 34.4467, -79.3804, 22.9379
1.26, -1, 5.92319, 36.784, 17.6544, 34.6031, -79.3113, 22.9903
1.264, -1, 5.99763, 36.8121, 17.5757, 34.7591, -79.2423, 23.0425
1.267, -1, 6.07192, 36.8402, 17.497, 34.9149, -79.1734, 23.0946
1.272, -1, 6.14606, 36.8683, 17.4185, 35.0703, -79.1047, 23.1467
1.276, -1, 6.22005, 36.8963, 17.3402, 35.2253, -79.0362, 23.1986
1.28, -1, 6.29388, 36.9242, 17.2621, 35.3801, -78.9678, 23.2504
1.284, -1, 6.36757, 36.9521, 17.1841, 35.5346, -78.8995, 23.3021
1.288, -1, 6.4411, 36.9799, 17.1063, 35.6887, -78.8313, 23.3538
1.292, -1, 6.51448, 37.0077, 17.0286, 35.8425, -78.7633, 23.4053
1.295, -1, 6.58772, 37.0354, 16.9511, 35.996, -78.6955, 23.4566
1.3, -1, 6.6608, 37.063, 16.8737, 36.1491, -78.6278, 23.5079
1.304, -1, 6.73373, 37.0906, 16.7966, 36.302, -78.5602, 23.5591
1.308, -1, 6.80651, 37.1182, 16.7195, 36.4545, -78.4928, 23.6102
1.312, -1, 6.87914, 37.1456, 16.6427, 36.6067, -78.4255, 23.6612
1.316, -1, 6.95162, 37.1731, 16.566, 36.7586, -78.3583, 23.712
1.32, -1, 7.02395, 37.2004, 16.4894, 36.9102, -78.2913, 23.7628
1.324, -1, 7.09614, 37.2277, 16.413, 37.0615, -78.2244, 23.8134
1.328, -1, 7.16817, 37.255, 16.3368, 37.2124, -78.1577, 23.864
1.332, -1, 7.24006, 37.2822, 16.2607, 37.3631, -78.0911, 23.9144
1.336, -1, 7.3118, 37.3093, 16.1848, 37.5134, -78.0246, 23.9648
1.34, -1, 7.38339, 37.3364, 16.109, 37.6635, -77.9583, 24.015
1.344, -1, 7.45483, 37.3634, 16.0334, 37.8132, -77.8921, 24.0651
1.348, -1, 7.52613, 37.3904, 15.958, 37.9626, -77.8261, 24.1152
1.352, -1, 7.59728, 37.4173, 15.8827, 38.1117, -77.7601, 24.1651
1.356, -1, 7.66828, 37.4442, 15.8075, 38.2605, -77.6944, 24.2149
1.36, -1, 7.73914, 37.471, 15.7326, 38.409, -77.6287, 24.2646
1.364, -1, 7.80986, 37.4977, 15.6577, 38.5572, -77.5632, 24.3142
1.368, -1, 7.88043, 37.5244, 15.583, 38.7051, -77.4978, 24.3638
1.372, -1, 7.95085, 37.551, 15.5085, 38.8526, -77.4326, 24.4132
1.376, -1, 8.02113, 37.5776, 15.4341, 38.9999, -77.3675, 24.4625
1.38, -1, 8.09127, 37.6042, 15.3599, 39.1469, -77.3025, 24.5117
1.384, -1, 8.16127, 37.6306, 15.2859, 39.2936, -77.2376, 24.5608
1.388, -1, 8.23112, 37.6571, 15.2119, 39.44, -77.1729, 24.6098
1.392, -1, 8.30084, 37.6834, 15.1382, 39.5861, -77.1083, 24.6588
1.396, -1, 8.37041, 37.7098, 15.0645, 39.7318, -77.0439, 24.7076
1.4, -1, 8.43984, 37.736, 14.9911, 39.8773, -76.9796, 24.7563
1.404, -1, 8.50912, 37.7622, 14.9177, 40.0225, -76.9154, 24.8049
1.408, -1, 8.57827, 37.7884, 14.8446, 40.1674, -76.8513, 24.8534
1.412, -1, 8.64728, 37.8145, 14.7715, 40.3121, -76.7874, 24.9019
1.416, -1, 8.71615, 37.8405, 14.6987, 40.4564, -76.7236, 24.9502
1.42, -1, 8.78489, 37.8665, 14.6259, 40.6004, -76.6599, 24.9984
1.424, -1, 8.85348, 37.8925, 14.5533, 40.7442, -76.5963, 25.0465
1.428, -1, 8.92194, 37.9184, 14.4809, 40.8876, -76.5329, 25.0946
1.432, -1, 8.99025, 37.9442, 14.4086, 41.0308, -76.4696, 25.1425
1.436, -1, 9.05844, 37.97, 14.3365, 41.1737, -76.4065, 25.1904
1.44, -1, 9.12648, 37.9958, 14.2645, 41.3162, -76.3434, 25.2381
1.444, -1, 9.19439, 38.0214, 14.1926, 41.4586, -76.2805, 25.2858
1.448, -1, 9.26216, 38.0471, 14.1209, 41.6006, -76.2177, 25.3333
1.452, -1, 9.3298, 38.0727, 14.0493, 41.7423, -76.1551, 25.3808
1.456, -1, 9.39731, 38.0982, 13.9779, 41.8838, -76.0925, 25.4281
1.46, -1, 9.46468, 38.1237, 13.9066, 42.025, -76.0301, 25.4754
1.464, -1, 9.53191, 38.1491, 13.8354, 42.1658, -75.9678, 25.5226
1.468, -1, 9.59901, 38.1745, 13.7644, 42.3065, -75.9057, 25.5697
1.472, -1, 9.66598, 38.1998, 13.6936, 42.4468, -75.8436, 25.6167
1.476, -1, 9.73282, 38.2251, 13.6228, 42.5869, -75.7817, 25.6636
1.48, -1, 9.79953, 38.2503, 13.5522, 42.7266, -75.7199, 25.7104
1.484, -1, 9.8661, 38.2755, 13.4818, 42.8662, -75.6582, 25.7571
1.488, -1, 9.93254, 38.3007, 13.4115, 43.0054, -75.5967, 25.8037
1.492, -1, 9.99886, 38.3257, 13.3413, 43.1443, -75.5352, 25.8502
1.496, -1, 10.065, 38.3508, 13.2713, 43.283, -75.4739, 25.8967
1.5, -1, 10.1311, 38.3758, 13.2014, 43.4214, -75.4127, 25.943
1.504, -1, 10.197, 38.4007, 13.1316, 43.5596, -75.3517, 25.9893
1.508, -1, 10.2628, 38.4256, 13.062, 43.6975, -75.2907, 26.0354
1.512, -1, 10.3285, 38.4504, 12.9925, 43.8351, -75.2299, 26.0815
1.516, -1, 10.394, 38.4752, 12.9232, 43.9724, -75.1692, 26.1275
1.52, -1, 10.4594, 38.4999, 12.854, 44.1095, -75.1086, 26.1734
1.524, -1, 10.5247, 38.5246, 12.7849, 44.2463, -75.0481, 26.2192
1.528, -1, 10.5899, 38.5493, 12.7159, 44.3828, -74.9877, 26.2649
1.532, -1, 10.6549, 38.5739, 12.6471, 44.5191, -74.9275, 26.3105
1.536, -1, 10.7198, 38.5984, 12.5784, 44.6551, -74.8674, 26.3561
1.54, -1, 10.7846, 38.6229, 12.5099, 44.7908, -74.8074, 26.4015
1.544, -1, 10.8492, 38.6474, 12.4415, 44.9263, -74.7475, 26.4469
1.548, -1, 10.9137, 38.6718, 12.3732, 45.0615, -74.6877, 26.4922
1.552, -1, 10.9781, 38.6961, 12.3051, 45.1964, -74.628, 26.5374
1.556, -1, 11.0424, 38.7205, 12.237, 45.3312, -74.5685, 26.5825
1.56, -1, 11.1066, 38.7447, 12.1692, 45.4656, -74.509, 26.6275
1.564, -1, 11.1706, 38.7689, 12.1014, 45.5998, -74.4497, 26.6724
1.568, -1, 11.2345, 38.7931, 12.0338, 45.7337, -74.3905, 26.7173
1.572, -1, 11.2983, 38.8172, 11.9663, 45.8674, -74.3314, 26.762
1.576, -1, 11.362, 38.8413, 11.8989, 46.0008, -74.2724, 26.8067
1.58, -1, 11.4255, 38.8654, 11.8317, 46.1339, -74.2136, 26.8513
1.584, -1, 11.4889, 38.8893, 11.7645, 46.2668, -74.1548, 26.8958
1.588, -1, 11.5522, 38.9133, 11.6976, 46.3995, -74.0962, 26.9402
1.592, -1, 11.6154, 38.9372, 11.6307, 46.5319, -74.0376, 26.9845
1.596, -1, 11.6785, 38.961, 11.564, 46.664, -73.9792, 27.0288
1.6, -1, 11.7414, 38.9848, 11.4974, 46.7959, -73.9209, 27.0729
1.604, -1, 11.8043, 39.0086, 11.4309, 46.9276, -73.8627, 27.117
1.608, -1, 11.867, 39.0323, 11.3645, 47.059, -73.8046, 27.161
1.612, -1, 11.9296, 39.056, 11.2983, 47.1901, -73.7466, 27.2049
1.616, -1, 11.992, 39.0796, 11.2322, 47.321, -73.6888, 27.2488
1.62, -1, 12.0544, 39.1032, 11.1662, 47.4517, -73.631, 27.2925
1.624, -1, 12.1166, 39.1268, 11.1004, 47.5821, -73.5733, 27.3362
1.628, -1, 12.1787, 39.1502, 11.0346, 47.7123, -73.5158, 27.3798
1.632, -1, 12.2408, 39.1737, 10.969, 47.8422, -73.4583, 27.4233
1.636, -1, 12.3026, 39.1971, 10.9035, 47.9719, -73.401, 27.4667
1.64, -1, 12.3644, 39.2205, 10.8382, 48.1013, -73.3438, 27.51
1.644, -1, 12.4261, 39.2438, 10.7729, 48.2305, -73.2867, 27.5533
1.648, -1, 12.4876, 39.2671, 10.7078, 48.3595, -73.2297, 27.5965
1.652, -1, 12.5491, 39.2903, 10.6428, 48.4882, -73.1727, 27.6396
1.656, -1, 12.6104, 39.3135, 10.5779, 48.6167, -73.1159, 27.6826
1.66, -1, 12.6716, 39.3367, 10.5132, 48.745, -73.0592, 27.7256
1.664, -1, 12.7327, 39.3598, 10.4485, 48.873, -73.0026, 27.7684
1.668, -1, 12.7937, 39.3828, 10.384, 49.0008, -72.9461, 27.8112
1.672, -1, 12.8546, 39.4059, 10.3196, 49.1284, -72.8897, 27.8539
1.676, -1, 12.9154, 39.4288, 10.2553, 49.2557, -72.8335, 27.8966
1.68, -1, 12.976, 39.4518, 10.1911, 49.3828, -72.7773, 27.9391
1.684, -1, 13.0366, 39.4747, 10.127, 49.5097, -72.7212, 27.9816
1.688, -1, 13.097, 39.4975, 10.0631, 49.6363, -72.6652, 28.024
1.692, -1, 13.1574, 39.5204, 9.99924, 49.7627, -72.6093, 28.0663
1.696, -1, 13.2176, 39.5431, 9.93551, 49.8889, -72.5535, 28.1086
1.7, -1, 13.2777, 39.5659, 9.87191, 50.0149, -72.4978, 28.1508
1.704, -1, 13.3377, 39.5886, 9.80841, 50.1406, -72.4422, 28.1929
1.708, -1, 13.3976, 39.6112, 9.74503, 50.2661, -72.3868, 28.2349
1.712, -1, 13.4574, 39.6338, 9.68176, 50.3914, -72.3314, 28.2769
1.716, -1, 13.5171, 39.6564, 9.6186, 50.5165, -72.2761, 28.3187
1.72, -1, 13.5767, 39.6789, 9.55556, 50.6413, -72.2209, 28.3605
1.724, -1, 13.6362, 39.7014, 9.49262, 50.766, -72.1658, 28.4023
1.728, -1, 13.6956, 39.7239, 9.4298, 50.8904, -72.1108, 28.4439
1.732, -1, 13.7548, 39.7463, 9.36708, 51.0146, -72.0559, 28.4855
1.736, -1, 13.814, 39.7687, 9.30447, 51.1386, -72.0011, 28.527
1.74, -1, 13.8731, 39.791, 9.24198, 51.2623, -71.9463, 28.5685
1.744, -1, 13.932, 39.8133, 9.17959, 51.3859, -71.8917, 28.6099
1.748, -1, 13.9909, 39.8356, 9.1173, 51.5092, -71.8372, 28.6512
1.752, -1, 14.0497, 39.8578, 9.05513, 51.6323, -71.7828, 28.6924
1.756, -1, 14.1083, 39.88, 8.99306, 51.7553, -71.7284, 28.7335
1.76, -1, 14.1669, 39.9022, 8.9311, 51.878, -71.6742, 28.7746
1.764, -1, 14.2254, 39.9243, 8.86925, 52.0005, -71.62, 28.8156
1.768, -1, 14.2837, 39.9463, 8.8075, 52.1227, -71.5659, 28.8566
1.772, -1, 14.342, 39.9684, 8.74585, 52.2448, -71.512, 28.8975
1.776, -1, 14.4001, 39.9904, 8.68431, 52.3667, -71.4581, 28.9383
1.78, -1, 14.4582, 40.0123, 8.62288, 52.4883, -71.4043, 28.979
1.784, -1, 14.5162, 40.0342, 8.56155, 52.6098, -71.3506, 29.0197
1.788, -1, 14.574, 40.0561, 8.50032, 52.7311, -71.297, 29.0603
1.792, -1, 14.6318, 40.078, 8.43919, 52.8521, -71.2435, 29.1008
1.796, -1, 14.6895, 40.0998, 8.37817, 52.9729, -71.1901, 29.1413
1.8, -1, 14.7471, 40.1216, 8.31725, 53.0936, -71.1367, 29.1817
1.804, -1, 14.8046, 40.1433, 8.25643, 53.214, -71.0835, 29.222
1.808, -1, 14.8619, 40.165, 8.19571, 53.3343, -71.0303, 29.2623
1.812, -1, 14.9192, 40.1867, 8.1351, 53.4543, -70.9773, 29.3025
1.816, -1, 14.9764, 40.2083, 8.07458, 53.5742, -70.9243, 29.3426
1.82, -1, 15.0335, 40.2299, 8.01416, 53.6938, -70.8714, 29.3826
1.824, -1, 15.0905, 40.2515, 7.95385, 53.8133, -70.8186, 29.4226
1.828, -1, 15.1475, 40.273, 7.89363, 53.9325, -70.7659, 29.4626
1.832, -1, 15.2043, 40.2945, 7.83351, 54.0516, -70.7132, 29.5024
1.836, -1, 15.261, 40.3159, 7.77349, 54.1704, -70.6607, 29.5422
1.84, -1, 15.3176, 40.3374, 7.71357, 54.2891, -70.6082, 29.582
1.844, -1, 15.3742, 40.3587, 7.65374, 54.4076, -70.5559, 29.6216
1.848, -1, 15.4306, 40.3801, 7.59402, 54.5258, -70.5036, 29.6612
1.852, -1, 15.487, 40.4014, 7.53439, 54.6439, -70.4514, 29.7008
1.856, -1, 15.5433, 40.4227, 7.47485, 54.7618, -70.3992, 29.7403
1.86, -1, 15.5994, 40.4439, 7.41541, 54.8795, -70.3472, 29.7797
1.864, -1, 15.6555, 40.4651, 7.35607, 54.997, -70.2952, 29.819
1.868, -1, 15.7115, 40.4863, 7.29682, 55.1144, -70.2434, 29.8583
1.872, -1, 15.7674, 40.5075, 7.23767, 55.2315, -70.1916, 29.8975
1.876, -1, 15.8232, 40.5286, 7.17861, 55.3485, -70.1399, 29.9367
1.88, -1, 15.879, 40.5496, 7.11965, 55.4652, -70.0883, 29.9758
1.884, -1, 15.9346, 40.5707, 7.06078, 55.5818, -70.0367, 30.0148
1.888, -1, 15.9902, 40.5917, 7.002, 55.6982, -69.9853, 30.0538
1.892, -1, 16.0456, 40.6127, 6.94332, 55.8144, -69.9339, 30.0927
1.896, -1, 16.101, 40.6336, 6.88473, 55.9305, -69.8826, 30.1316
1.9, -1, 16.1563, 40.6545, 6.82623, 56.0463, -69.8314, 30.1704
1.904, -1, 16.2115, 40.6754, 6.76783, 56.162, -69.7802, 30.2091
1.908, -1, 16.2666, 40.6962, 6.70951, 56.2775, -69.7292, 30.2478
1.912, -1, 16.3216, 40.7171, 6.65129, 56.3928, -69.6782, 30.2864
1.916, -1, 16.3766, 40.7378, 6.59315, 56.5079, -69.6273, 30.3249
1.92, -1, 16.4314, 40.7586, 6.53511, 56.6228, -69.5765, 30.3634
1.924, -1, 16.4862, 40.7793, 6.47716, 56.7376, -69.5258, 30.4018
1.928, -1, 16.5409, 40.8, 6.4193, 56.8522, -69.4751, 30.4402
1.932, -1, 16.5955, 40.8206, 6.36153, 56.9666, -69.4245, 30.4785
1.936, -1, 16.65, 40.8412, 6.30384, 57.0808, -69.374, 30.5168
1.94, -1, 16.7044, 40.8618, 6.24625, 57.1949, -69.3236, 30.555
1.944, -1, 16.7588, 40.8824, 6.18874, 57.3088, -69.2733, 30.5931
1.948, -1, 16.8131, 40.9029, 6.13133, 57.4225, -69.223, 30.6312
1.952, -1, 16.8672, 40.9234, 6.074, 57.536, -69.1728, 30.6692
1.956, -1, 16.9213, 40.9438, 6.01675, 57.6494, -69.1227, 30.7071
1.96, -1, 16.9754, 40.9643, 5.9596, 57.7625, -69.0726, 30.745
1.964, -1, 17.0293, 40.9846, 5.90253, 57.8756, -69.0227, 30.7829
1.968, -1, 17.0831, 41.005, 5.84555, 57.9884, -68.9728, 30.8207
1.972, -1, 17.1369, 41.0253, 5.78865, 58.1011, -68.923, 30.8584
1.976, -1, 17.1906, 41.0456, 5.73184, 58.2136, -68.8732, 30.8961
1.98, -1, 17.2442, 41.0659, 5.67512, 58.3259, -68.8236, 30.9337
1.984, -1, 17.2978, 41.0862, 5.61848, 58.4381, -68.774, 30.9712
1.988, -1, 17.3512, 41.1064, 5.56192, 58.5501, -68.7245, 31.0087
1.992, -1, 17.4046, 41.1265, 5.50545, 58.6619, -68.675, 31.0462
1.996, -1, 17.4579, 41.1467, 5.44907, 58.7736, -68.6257, 31.0836
1.999, -1, 17.5111, 41.1668, 5.39277, 58.8851, -68.5764, 31.1209
2.004, -1, 17.5642, 41.1869, 5.33655, 58.9964, -68.5272, 31.1582
2.008, -1, 17.6173, 41.207, 5.28042, 59.1076, -68.478, 31.1954
2.012, -1, 17.6702, 41.227, 5.22436, 59.2186, -68.4289, 31.2326
2.015, -1, 17.7231, 41.247, 5.16839, 59.3294, -68.3799, 31.2697
2.019, -1, 17.776, 41.267, 5.11251, 59.4401, -68.331, 31.3067
2.024, -1, 17.8287, 41.2869, 5.0567, 59.5506, -68.2822, 31.3438
2.028, -1, 17.8814, 41.3068, 5.00098, 59.6609, -68.2334, 31.3807
2.031, -1, 17.934, 41.3267, 4.94534, 59.7711, -68.1847, 31.4176
2.036, -1, 17.9865, 41.3466, 4.88978, 59.8812, -68.136, 31.4544
2.04, -1, 18.0389, 41.3664, 4.8343, 59.991, -68.0874, 31.4912
2.044, -1, 18.0913, 41.3862, 4.77889, 60.1008, -68.0389, 31.528
2.048, -1, 18.1436, 41.406, 4.72357, 60.2103, -67.9905, 31.5647
2.051, -1, 18.1958, 41.4257, 4.66833, 60.3197, -67.9421, 31.6013
2.055, -1, 18.2479, 41.4454, 4.61317, 60.4289, -67.8938, 31.6379
2.06, -1, 18.3, 41.4651, 4.55809, 60.538, -67.8456, 31.6744
2.064, -1, 18.352, 41.4848, 4.50308, 60.647, -67.7975, 31.7109
2.068, -1, 18.4039, 41.5044, 4.44815, 60.7557, -67.7494, 31.7473
2.071, -1, 18.4557, 41.524, 4.3933, 60.8644, -67.7013, 31.7837
2.076, -1, 18.5075, 41.5436, 4.33853, 60.9728, -67.6534, 31.82
2.08, -1, 18.5592, 41.5632, 4.28383, 61.0811, -67.6055, 31.8562
2.084, -1, 18.6108, 41.5827, 4.22922, 61.1893, -67.5577, 31.8925
2.087, -1, 18.6624, 41.6022, 4.17467, 61.2973, -67.5099, 31.9286
2.092, -1, 18.7139, 41.6216, 4.12021, 61.4052, -67.4622, 31.9648
2.096, -1, 18.7653, 41.6411, 4.06582, 61.5129, -67.4146, 32.0008
2.1, -1, 18.8166, 41.6605, 4.0115, 61.6205, -67.3671, 32.0368
2.104, -1, 18.8679, 41.6799, 3.95726, 61.7279, -67.3196, 32.0728
2.107, -1, 18.9191, 41.6993, 3.9031, 61.8351, -67.2722, 32.1087
2.111, -1, 18.9702, 41.7186, 3.84901, 61.9423, -67.2248, 32.1446
2.116, -1, 19.0212, 41.7379, 3.79499, 62.0492, -67.1775, 32.1804
2.12, -1, 19.0722, 41.7572, 3.74105, 62.1561, -67.1303, 32.2162
2.124, -1, 19.1231, 41.7764, 3.68718, 62.2627, -67.0831, 32.2519
2.127, -1, 19.174, 41.7957, 3.63339, 62.3693, -67.036, 32.2876
2.132, -1, 19.2247, 41.8149, 3.57966, 62.4757, -66.989, 32.3232
2.136, -1, 19.2755, 41.834, 3.52602, 62.5819, -66.942, 32.3588
2.14, -1, 19.3261, 41.8532, 3.47244, 62.688, -66.8951, 32.3943
2.143, -1, 19.3767, 41.8723, 3.41893, 62.794, -66.8483, 32.4298
2.148, -1, 19.4272, 41.8914, 3.3655, 62.8998, -66.8015, 32.4652
2.152, -1, 19.4776, 41.9105, 3.31214, 63.0055, -66.7548, 32.5006
2.156, -1, 19.528, 41.9296, 3.25885, 63.111, -66.7081, 32.5359
2.16, -1, 19.5783, 41.9486, 3.20563, 63.2164, -66.6615, 32.5712
2.163, -1, 19.6285, 41.9676, 3.15248, 63.3216, -66.615, 32.6065
2.168, -1, 19.6787, 41.9866, 3.0994, 63.4267, -66.5685, 32.6417
2.172, -1, 19.7288, 42.0055, 3.0464, 63.5317, -66.5221, 32.6768
2.176, -1, 19.7788, 42.0244, 2.99346, 63.6366, -66.4758, 32.7119
2.179, -1, 19.8288, 42.0433, 2.94059, 63.7413, -66.4295, 32.747
2.184, -1, 19.8787, 42.0622, 2.88779, 63.8458, -66.3833, 32.782
2.188, -1, 19.9285, 42.081, 2.83506, 63.9502, -66.3371, 32.8169
2.192, -1, 19.9783, 42.0999, 2.7824, 64.0545, -66.291, 32.8519
2.196, -1, 20.028, 42.1187, 2.72981, 64.1587, -66.2449, 32.8867
2.199, -1, 20.0776, 42.1374, 2.67728, 64.2627, -66.199, 32.9216
2.204, -1, 20.1272, 42.1562, 2.62483, 64.3666, -66.153, 32.9564
2.208, -1, 20.1767, 42.1749, 2.57244, 64.4703, -66.1072, 32.9911
2.212, -1, 20.2262, 42.1936, 2.52012, 64.5739, -66.0614, 33.0258
2.216, -1, 20.2755, 42.2123, 2.46786, 64.6774, -66.0156, 33.0604
2.219, -1, 20.3249, 42.231, 2.41568, 64.7808, -65.9699, 33.095
2.224, -1, 20.3741, 42.2496, 2.36356, 64.884, -65.9243, 33.1296
2.228, -1, 20.4233, 42.2682, 2.3115, 64.9871, -65.8787, 33.1641
2.232, -1, 20.4725, 42.2868, 2.25952, 65.09, -65.8332, 33.1986
2.235, -1, 20.5215, 42.3053, 2.20759, 65.1929, -65.7878, 33.233
2.24, -1, 20.5705, 42.3239, 2.15574, 65.2955, -65.7423, 33.2674
2.244, -1, 20.6195, 42.3424, 2.10395, 65.3981, -65.697, 33.3018
2.248, -1, 20.6684, 42.3609, 2.05222, 65.5005, -65.6517, 33.3361
2.252, -1, 20.7172, 42.3794, 2.00056, 65.6029, -65.6065, 33.3703
2.255, -1, 20.766, 42.3978, 1.94897, 65.705, -65.5613, 33.4045
2.259, -1, 20.8147, 42.4162, 1.89744, 65.8071, -65.5162, 33.4387
2.264, -1, 20.8633, 42.4346, 1.84597, 65.909, -65.4711, 33.4728
2.268, -1, 20.9119, 42.453, 1.79457, 66.0108, -65.4261, 33.5069
2.272, -1, 20.9604, 42.4713, 1.74323, 66.1125, -65.3812, 33.541
2.275, -1, 21.0089, 42.4897, 1.69195, 66.214, -65.3363, 33.575
2.28, -1, 21.0573, 42.508, 1.64074, 66.3154, -65.2915, 33.6089
2.284, -1, 21.1056, 42.5263, 1.58959, 66.4167, -65.2467, 33.6428
2.288, -1, 21.1539, 42.5445, 1.5385, 66.5179, -65.202, 33.6767
2.291, -1, 21.2021, 42.5628, 1.48748, 66.6189, -65.1573, 33.7105
2.296, -1, 21.2503, 42.581, 1.43652, 66.7199, -65.1127, 33.7443
2.3, -1, 21.2984, 42.5992, 1.38562, 66.8207, -65.0681, 33.7781
2.304, -1, 21.3465, 42.6173, 1.33478, 66.9213, -65.0236, 33.8118
2.308, -1, 21.3944, 42.6355, 1.284, 67.0219, -64.9791, 33.8455
2.311, -1, 21.4424, 42.6536, 1.23329, 67.1223, -64.9347, 33.8791
2.316, -1, 21.4902, 42.6717, 1.18264, 67.2226, -64.8904, 33.9127
2.32, -1, 21.5381, 42.6898, 1.13205, 67.3228, -64.8461, 33.9462
2.324, -1, 21.5858, 42.7079, 1.08151, 67.4229, -64.8019, 33.9797
2.328, -1, 21.6335, 42.7259, 1.03104, 67.5229, -64.7577, 34.0132
2.331, -1, 21.6812, 42.7439, 0.980633, 67.6227, -64.7135, 34.0466
2.336, -1, 21.7287, 42.7619, 0.930283, 67.7224, -64.6695, 34.08
2.34, -1, 21.7763, 42.7799, 0.879993, 67.822, -64.6254, 34.1134
2.344, -1, 21.8237, 42.7979, 0.829762, 67.9215, -64.5815, 34.1467
2.347, -1, 21.8712, 42.8158, 0.779591, 68.0208, -64.5375, 34.18
2.352, -1, 21.9185, 42.8337, 0.729479, 68.1201, -64.4937, 34.2132
2.356, -1, 21.9658, 42.8516, 0.679427, 68.2192, -64.4498, 34.2464
2.36, -1, 22.0131, 42.8695, 0.629433, 68.3182, -64.4061, 34.2795
2.364, -1, 22.0603, 42.8873, 0.579498, 68.4171, -64.3623, 34.3126
2.367, -1, 22.1074, 42.9052, 0.529621, 68.5159, -64.3187, 34.3457
2.372, -1, 22.1545, 42.923, 0.479803, 68.6145, -64.2751, 34.3787
2.376, -1, 22.2015, 42.9408, 0.430043, 68.7131, -64.2315, 34.4117
2.38, -1, 22.2485, 42.9585, 0.380341, 68.8115, -64.188, 34.4447
2.383, -1, 22.2954, 42.9763, 0.330696, 68.9098, -64.1445, 34.4776
2.388, -1, 22.3423, 42.994, 0.281109, 69.008, -64.1011, 34.5105
2.392, -1, 22.3891, 43.0117, 0.231579, 69.1061, -64.0577, 34.5433
2.396, -1, 22.4359, 43.0294, 0.182106, 69.2041, -64.0144, 34.5762
2.4, -1, 22.4826, 43.047, 0.13269, 69.3019, -63.9712, 34.6089
2.403, -1, 22.5292, 43.0647, 0.0833302, 69.3997, -63.9279, 34.6417
2.408, -1, 22.5758, 43.0823, 0.0340273, 69.4973, -63.8848, 34.6743
2.412, -1, 22.6223, 43.0999, -0.0152193, 69.5948, -63.8417, 34.707
2.416, -1, 22.6688, 43.1175, -0.0644098, 69.6923, -63.7986, 34.7396
2.42, -1, 22.7153, 43.1351, -0.113544, 69.7896, -63.7556, 34.7722
2.423, -1, 22.7617, 43.1526, -0.162623, 69.8868, -63.7126, 34.8047
2.428, -1, 22.808, 43.1701, -0.211647, 69.9838, -63.6697, 34.8373
2.432, -1, 22.8543, 43.1876, -0.260615, 70.0808, -63.6268, 34.8697
2.436, -1, 22.9005, 43.2051, -0.309528, 70.1777, -63.584, 34.9022
2.439, -1, 22.9467, 43.2226, -0.358386, 70.2744, -63.5412, 34.9346
2.444, -1, 22.9928, 43.24, -0.407189, 70.3711, -63.4985, 34.9669
2.448, -1, 23.0389, 43.2575, -0.455937, 70.4676, -63.4558, 34.9992
2.452, -1, 23.0849, 43.2749, -0.504631, 70.5641, -63.4132, 35.0315
2.456, -1, 23.1309, 43.2923, -0.553271, 70.6604, -63.3706, 35.0638
2.459, -1, 23.1768, 43.3096, -0.601857, 70.7566, -63.3281, 35.096
2.464, -1, 23.2227, 43.327, -0.650388, 70.8527, -63.2856, 35.1282
2.468, -1, 23.2685, 43.3443, -0.698867, 70.9487, -63.2431, 35.1603
2.472, -1, 23.3142, 43.3616, -0.747292, 71.0446, -63.2007, 35.1924
2.476, -1, 23.36, 43.3789, -0.795663, 71.1404, -63.1584, 35.2245
2.479, -1, 23.4056, 43.3962, -0.843982, 71.2361, -63.1161, 35.2566
2.484, -1, 23.4512, 43.4134, -0.892248, 71.3317, -63.0738, 35.2886
2.488, -1, 23.4968, 43.4307, -0.940462, 71.4272, -63.0316, 35.3205
2.492, -1, 23.5423, 43.4479, -0.988623, 71.5225, -62.9894, 35.3525
2.495, -1, 23.5878, 43.4651, -1.03673, 71.6178, -62.9473, 35.3844
2.5, -1, 23.6332, 43.4822, -1.08479, 71.713, -62.9052, 35.4162
2.504, -1, 23.6786, 43.4994, -1.1328, 71.8081, -62.8632, 35.4481
2.508, -1, 23.7239, 43.5165, -1.18075, 71.903, -62.8212, 35.4799
2.512, -1, 23.7692, 43.5337, -1.22865, 71.9979, -62.7793, 35.5116
2.515, -1, 23.8144, 43.5508, -1.2765, 72.0927, -62.7374, 35.5434
2.52, -1, 23.8596, 43.5679, -1.3243, 72.1873, -62.6955, 35.5751
2.524, -1, 23.9047, 43.5849, -1.37205, 72.2819, -62.6537, 35.6067
2.528, -1, 23.9498, 43.602, -1.41975, 72.3763, -62.612, 35.6384
2.531, -1, 23.9948, 43.619, -1.4674, 72.4707, -62.5703, 35.67
2.536, -1, 24.0398, 43.636, -1.515, 72.565, -62.5286, 35.7015
2.54, -1, 24.0848, 43.653, -1.56255, 72.6591, -62.487, 35.7331
2.544, -1, 24.1296, 43.67, -1.61005, 72.7532, -62.4454, 35.7646
2.548, -1, 24.1745, 43.687, -1.6575, 72.8472, -62.4038, 35.796
2.551, -1, 24.2193, 43.7039, -1.70489, 72.941, -62.3623, 35.8274
2.556, -1, 24.264, 43.7208, -1.75224, 73.0348, -62.3209, 35.8588
2.56, -1, 24.3087, 43.7377, -1.79954, 73.1285, -62.2795, 35.8902
2.564, -1, 24.3534, 43.7546, -1.8468, 73.222, -62.2381, 35.9215
2.568, -1, 24.398, 43.7715, -1.894, 73.3155, -62.1968, 35.9528
2.571, -1, 24.4426, 43.7884, -1.94115, 73.4089, -62.1555, 35.9841
2.576, -1, 24.4871, 43.8052, -1.98826, 73.5022, -62.1142, 36.0154
2.58, -1, 24.5316, 43.822, -2.03532, 73.5954, -62.073, 36.0466
2.584, -1, 24.576, 43.8388, -2.08233, 73.6885, -62.0319, 36.0777
2.587, -1, 24.6204, 43.8556, -2.12929, 73.7815, -61.9908, 36.1089
2.592, -1, 24.6647, 43.8724, -2.1762, 73.8744, -61.9497, 36.14
2.596, -1, 24.709, 43.8891, -2.22307, 73.9672, -61.9087, 36.1711
2.6, -1, 24.7533, 43.9059, -2.26989, 74.0599, -61.8677, 36.2021
2.604, -1, 24.7975, 43.9226, -2.31666, 74.1525, -61.8267, 36.2331
2.607, -1, 24.8416, 43.9393, -2.36338, 74.2451, -61.7858, 36.2641
2.612, -1, 24.8857, 43.956, -2.41006, 74.3375, -61.745, 36.2951
2.616, -1, 24.9298, 43.9726, -2.45669, 74.4299, -61.7041, 36.326
2.62, -1, 24.9738, 43.9893, -2.50327, 74.5221, -61.6634, 36.3569
2.624, -1, 25.0178, 44.0059, -2.54981, 74.6143, -61.6226, 36.3877
2.627, -1, 25.0618, 44.0225, -2.5963, 74.7064, -61.5819, 36.4186
2.632, -1, 25.1057, 44.0391, -2.64274, 74.7983, -61.5412, 36.4494
2.636, -1, 25.1495, 44.0557, -2.68914, 74.8902, -61.5006, 36.4801
2.64, -1, 25.1933, 44.0723, -2.7355, 74.982, -61.46, 36.5109
2.643, -1, 25.2371, 44.0888, -2.7818, 75.0737, -61.4195, 36.5416
2.648, -1, 25.2808, 44.1054, -2.82806, 75.1653, -61.379, 36.5722
2.652, -1, 25.3245, 44.1219, -2.87428, 75.2569, -61.3385, 36.6029
2.656, -1, 25.3681, 44.1384, -2.92045, 75.3483, -61.2981, 36.6335
2.66, -1, 25.4117, 44.1549, -2.96658, 75.4396, -61.2577, 36.6641
2.663, -1, 25.4553, 44.1714, -3.01266, 75.5309, -61.2174, 36.6946
2.668, -1, 25.4988, 44.1878, -3.0587, 75.6221, -61.1771, 36.7252
2.672, -1, 25.5422, 44.2043, -3.10469, 75.7132, -61.1368, 36.7557
2.676, -1, 25.5857, 44.2207, -3.15064, 75.8041, -61.0966, 36.7861
2.679, -1, 25.629, 44.2371, -3.19654, 75.8951, -61.0564, 36.8166
2.684, -1, 25.6724, 44.2535, -3.2424, 75.9859, -61.0162, 36.847
2.688, -1, 25.7157, 44.2699, -3.28821, 76.0766, -60.9761, 36.8774
2.692, -1, 25.7589, 44.2862, -3.33398, 76.1672, -60.9361, 36.9077
2.696, -1, 25.8022, 44.3026, -3.37971, 76.2578, -60.896, 36.938
2.699, -1, 25.8453, 44.3189, -3.42539, 76.3483, -60.856, 36.9683
2.704, -1, 25.8885, 44.3352, -3.47103, 76.4387, -60.8161, 36.9986
2.708, -1, 25.9316, 44.3515, -3.51663, 76.529, -60.7761, 37.0288
2.712, -1, 25.9746, 44.3678, -3.56219, 76.6192, -60.7363, 37.059
2.716, -1, 26.0176, 44.3841, -3.6077, 76.7093, -60.6964, 37.0892
2.719, -1, 26.0606, 44.4003, -3.65316, 76.7993, -60.6566, 37.1194
2.724, -1, 26.1035, 44.4165, -3.69859, 76.8893, -60.6168, 37.1495
2.728, -1, 26.1464, 44.4328, -3.74397, 76.9792, -60.5771, 37.1796
2.732, -1, 26.1893, 44.449, -3.78931, 77.069, -60.5374, 37.2097
2.735, -1, 26.2321, 44.4652, -3.83461, 77.1587, -60.4977, 37.2397
2.74, -1, 26.2749, 44.4813, -3.87987, 77.2483, -60.4581, 37.2697
2.744, -1, 26.3176, 44.4975, -3.92508, 77.3378, -60.4185, 37.2997
2.748, -1, 26.3603, 44.5137, -3.97025, 77.4273, -60.379, 37.3296
2.752, -1, 26.4029, 44.5298, -4.01538, 77.5167, -60.3395, 37.3596
2.755, -1, 26.4455, 44.5459, -4.06047, 77.606, -60.3, 37.3895
2.76, -1, 26.4881, 44.562, -4.10552, 77.6952, -60.2606, 37.4193
2.764, -1, 26.5307, 44.5781, -4.15052, 77.7843, -60.2212, 37.4492
2.768, -1, 26.5731, 44.5942, -4.19549, 77.8734, -60.1818, 37.479
2.772, -1, 26.6156, 44.6102, -4.24041, 77.9623, -60.1425, 37.5088
2.775, -1, 26.658, 44.6263, -4.2853, 78.0512, -60.1032, 37.5386
2.78, -1, 26.7004, 44.6423, -4.33014, 78.14, -60.0639, 37.5683
2.784, -1, 26.7427, 44.6583, -4.37494, 78.2287, -60.0247, 37.598
2.788, -1, 26.785, 44.6743, -4.4197, 78.3174, -59.9855, 37.6277
2.791, -1, 26.8273, 44.6903, -4.46442, 78.4059, -59.9463, 37.6573
2.796, -1, 26.8695, 44.7063, -4.5091, 78.4944, -59.9072, 37.687
2.8, -1, 26.9117, 44.7222, -4.55374, 78.5828, -59.8681, 37.7166
2.804, -1, 26.9539, 44.7382, -4.59834, 78.6712, -59.8291, 37.7461
2.808, -1, 26.996, 44.7541, -4.6429, 78.7594, -59.7901, 37.7757
2.811, -1, 27.0381, 44.77, -4.68742, 78.8476, -59.7511, 37.8052
2.816, -1, 27.0801, 44.7859, -4.7319, 78.9357, -59.7122, 37.8347
2.82, -1, 27.1221, 44.8018, -4.77634, 79.0237, -59.6733, 37.8642
2.824, -1, 27.1641, 44.8177, -4.82074, 79.1116, -59.6344, 37.8936
2.828, -1, 27.206, 44.8335, -4.8651, 79.1994, -59.5955, 37.923
2.831, -1, 27.2479, 44.8494, -4.90942, 79.2872, -59.5567, 37.9524
2.836, -1, 27.2897, 44.8652, -4.95371, 79.3749, -59.518, 37.9818
2.84, -1, 27.3315, 44.881, -4.99795, 79.4625, -59.4792, 38.0111
2.844, -1, 27.3733, 44.8968, -5.04216, 79.5501, -59.4405, 38.0404
2.847, -1, 27.4151, 44.9126, -5.08633, 79.6376, -59.4019, 38.0697
2.852, -1, 27.4568, 44.9284, -5.13046, 79.725, -59.3632, 38.099
2.856, -1, 27.4984, 44.9441, -5.17455, 79.8123, -59.3246, 38.1282
2.86, -1, 27.5401, 44.9599, -5.2186, 79.8995, -59.286, 38.1574
2.864, -1, 27.5817, 44.9756, -5.26261, 79.9867, -59.2475, 38.1866
2.867, -1, 27.6232, 44.9913, -5.30659, 80.0738, -59.209, 38.2158
2.872, -1, 27.6648, 45.007, -5.35052, 80.1608, -59.1705, 38.2449
2.876, -1, 27.7062, 45.0227, -5.39442, 80.2477, -59.1321, 38.274
2.88, -1, 27.7477, 45.0384, -5.43829, 80.3346, -59.0937, 38.3031
2.883, -1, 27.7891, 45.0541, -5.48211, 80.4214, -59.0553, 38.3322
2.888, -1, 27.8305, 45.0697, -5.5259, 80.5081, -59.017, 38.3612
2.892, -1, 27.8718, 45.0854, -5.56965, 80.5947, -58.9787, 38.3902
2.896, -1, 27.9132, 45.101, -5.61336, 80.6813, -58.9404, 38.4192
2.9, -1, 27.9544, 45.1166, -5.65703, 80.7678, -58.9022, 38.4482
2.903, -1, 27.9957, 45.1322, -5.70067, 80.8542, -58.864, 38.4771
2.908, -1, 28.0369, 45.1478, -5.74427, 80.9405, -58.8258, 38.506
2.912, -1, 28.0781, 45.1634, -5.78784, 81.0268, -58.7877, 38.5349
2.916, -1, 28.1192, 45.1789, -5.83137, 81.113, -58.7496, 38.5638
2.92, -1, 28.1603, 45.1945, -5.87486, 81.1992, -58.7115, 38.5926
2.923, -1, 28.2014, 45.21, -5.91831, 81.2852, -58.6734, 38.6214
2.928, -1, 28.2424, 45.2255, -5.96173, 81.3712, -58.6354, 38.6502
2.932, -1, 28.2834, 45.241, -6.00511, 81.4571, -58.5974, 38.679
2.936, -1, 28.3244, 45.2565, -6.04845, 81.5429, -58.5595, 38.7077
2.939, -1, 28.3653, 45.272, -6.09176, 81.6287, -58.5216, 38.7365
2.944, -1, 28.4062, 45.2875, -6.13504, 81.7144, -58.4837, 38.7651
2.948, -1, 28.447, 45.303, -6.17827, 81.8, -58.4458, 38.7938
2.952, -1, 28.4879, 45.3184, -6.22148, 81.8856, -58.408, 38.8225
2.956, -1, 28.5287, 45.3338, -6.26464, 81.9711, -58.3702, 38.8511
2.959, -1, 28.5694, 45.3493, -6.30777, 82.0565, -58.3325, 38.8797
2.964, -1, 28.6102, 45.3647, -6.35087, 82.1418, -58.2947, 38.9083
2.968, -1, 28.6509, 45.3801, -6.39393, 82.2271, -58.257, 38.9368
2.972, -1, 28.6915, 45.3954, -6.43695, 82.3123, -58.2194, 38.9654
2.976, -1, 28.7321, 45.4108, -6.47994, 82.3975, -58.1817, 38.9939
2.98, -1, 28.7727, 45.4262, -6.5229, 82.4825, -58.1441, 39.0223
2.984, -1, 28.8133, 45.4415, -6.56581, 82.5675, -58.1065, 39.0508
2.988, -1, 28.8538, 45.4569, -6.6087, 82.6524, -58.069, 39.0792
2.992, -1, 28.8943, 45.4722, -6.65155, 82.7373, -58.0315, 39.1077
2.995, -1, 28.9348, 45.4875, -6.69437, 82.8221, -57.994, 39.1361
3, -1, 28.9752, 45.5028, -6.73715, 82.9068, -57.9565, 39.1644
3.004, -1, 29.0156, 45.518, -6.77989, 82.9915, -57.9191, 39.1928
3.008, -1, 29.056, 45.5333, -6.82261, 83.0761, -57.8817, 39.2211
3.012, -1, 29.0963, 45.5486, -6.86529, 83.1606, -57.8443, 39.2494
3.015, -1, 29.1366, 45.5638, -6.90793, 83.245, -57.807, 39.2777
3.02, -1, 29.1769, 45.5791, -6.95054, 83.3294, -57.7697, 39.3059
3.024, -1, 29.2171, 45.5943, -6.99312, 83.4137, -57.7324, 39.3342
3.028, -1, 29.2574, 45.6095, -7.03566, 83.498, -57.6952, 39.3624
3.031, -1, 29.2975, 45.6247, -7.07817, 83.5822, -57.658, 39.3906
3.036, -1, 29.3377, 45.6399, -7.12065, 83.6663, -57.6208, 39.4187
3.04, -1, 29.3778, 45.655, -7.1631, 83.7504, -57.5836, 39.4469
3.044, -1, 29.4179, 45.6702, -7.20551, 83.8344, -57.5465, 39.475
3.048, -1, 29.4579, 45.6853, -7.24788, 83.9183, -57.5094, 39.5031
3.051, -1, 29.4979, 45.7005, -7.29023, 84.0021, -57.4723, 39.5312
3.056, -1, 29.5379, 45.7156, -7.33254, 84.0859, -57.4353, 39.5592
3.06, -1, 29.5779, 45.7307, -7.37482, 84.1697, -57.3982, 39.5873
3.064, -1, 29.6178, 45.7458, -7.41707, 84.2533, -57.3613, 39.6153
3.068, -1, 29.6577, 45.7609, -7.45928, 84.3369, -57.3243, 39.6433
3.071, -1, 29.6976, 45.776, -7.50146, 84.4205, -57.2874, 39.6713
3.076, -1, 29.7374, 45.791, -7.54361, 84.5039, -57.2505, 39.6992
3.08, -1, 29.7772, 45.8061, -7.58573, 84.5873, -57.2136, 39.7271
3.084, -1, 29.817, 45.8211, -7.62781, 84.6707, -57.1767, 39.755
3.087, -1, 29.8567, 45.8362, -7.66986, 84.754, -57.1399, 39.7829
3.092, -1, 29.8964, 45.8512, -7.71189, 84.8372, -57.1031, 39.8108
3.096, -1, 29.9361, 45.8662, -7.75387, 84.9203, -57.0664, 39.8386
3.1, -1, 29.9758, 45.8812, -7.79583, 85.0034, -57.0296, 39.8665
3.104, -1, 30.0154, 45.8962, -7.83776, 85.0865, -56.9929, 39.8943
3.107, -1, 30.055, 45.9112, -7.87965, 85.1694, -56.9563, 39.922
3.112, -1, 30.0946, 45.9261, -7.92151, 85.2523, -56.9196, 39.9498
3.116, -1, 30.1341, 45.9411, -7.96335, 85.3352, -56.883, 39.9775
3.12, -1, 30.1736, 45.956, -8.00515, 85.4179, -56.8464, 40.0053
3.124, -1, 30.2131, 45.9709, -8.04691, 85.5007, -56.8098, 40.033
3.128, -1, 30.2525, 45.9859, -8.08865, 85.5833, -56.7733, 40.0606
3.132, -1, 30.2919, 46.0008, -8.13036, 85.6659, -56.7368, 40.0883
3.136, -1, 30.3313, 46.0157, -8.17203, 85.7485, -56.7003, 40.1159
3.14, -1, 30.3707, 46.0306, -8.21368, 85.8309, -56.6638, 40.1435
3.143, -1, 30.41, 46.0454, -8.25529, 85.9133, -56.6274, 40.1711
3.148, -1, 30.4493, 46.0603, -8.29688, 85.9957, -56.591, 40.1987
3.152, -1, 30.4886, 46.0751, -8.33843, 86.078, -56.5546, 40.2263
3.156, -1, 30.5278, 46.09, -8.37995, 86.1602, -56.5182, 40.2538
3.16, -1, 30.567, 46.1048, -8.42144, 86.2424, -56.4819, 40.2813
3.163, -1, 30.6062, 46.1196, -8.46291, 86.3245, -56.4456, 40.3088
3.168, -1, 30.6454, 46.1345, -8.50434, 86.4065, -56.4093, 40.3363
3.172, -1, 30.6845, 46.1493, -8.54574, 86.4885, -56.3731, 40.3637
3.176, -1, 30.7236, 46.164, -8.58711, 86.5705, -56.3369, 40.3912
3.179, -1, 30.7627, 46.1788, -8.62845, 86.6523, -56.3007, 40.4186
3.184, -1, 30.8017, 46.1936, -8.66977, 86.7342, -56.2645, 40.446
3.188, -1, 30.8407, 46.2083, -8.71105, 86.8159, -56.2284, 40.4734
3.192, -1, 30.8797, 46.2231, -8.7523, 86.8976, -56.1922, 40.5007
3.196, -1, 30.9187, 46.2378, -8.79352, 86.9793, -56.1561, 40.528
3.199, -1, 30.9576, 46.2525, -8.83472, 87.0608, -56.1201, 40.5554
3.204, -1, 30.9965, 46.2673, -8.87588, 87.1423, -56.084, 40.5827
3.208, -1, 31.0354, 46.282, -8.91702, 87.2238, -56.048, 40.6099
3.212, -1, 31.0742, 46.2967, -8.95812, 87.3052, -56.012, 40.6372
3.216, -1, 31.113, 46.3113, -8.9992, 87.3866, -55.9761, 40.6644
3.22, -1, 31.1518, 46.326, -9.04025, 87.4679, -55.9401, 40.6917
3.224, -1, 31.1906, 46.3407, -9.08127, 87.5491, -55.9042, 40.7189
3.228, -1, 31.2293, 46.3553, -9.12226, 87.6303, -55.8683, 40.746
3.232, -1, 31.2681, 46.37, -9.16322, 87.7114, -55.8325, 40.7732
3.235, -1, 31.3067, 46.3846, -9.20415, 87.7924, -55.7966, 40.8003
3.24, -1, 31.3454, 46.3992, -9.24506, 87.8735, -55.7608, 40.8275
3.244, -1, 31.384, 46.4138, -9.28593, 87.9544, -55.725, 40.8546
3.248, -1, 31.4226, 46.4284, -9.32678, 88.0353, -55.6893, 40.8817
3.252, -1, 31.4612, 46.443, -9.3676, 88.1161, -55.6535, 40.9087
3.255, -1, 31.4998, 46.4576, -9.40839, 88.1969, -55.6178, 40.9358
3.26, -1, 31.5383, 46.4722, -9.44915, 88.2776, -55.5821, 40.9628
3.264, -1, 31.5768, 46.4867, -9.48988, 88.3583, -55.5465, 40.9898
3.268, -1, 31.6152, 46.5013, -9.53059, 88.4389, -55.5108, 41.0168
3.272, -1, 31.6537, 46.5158, -9.57127, 88.5195, -55.4752, 41.0438
3.276, -1, 31.6921, 46.5303, -9.61192, 88.6, -55.4396, 41.0707
3.28, -1, 31.7305, 46.5449, -9.65254, 88.6804, -55.4041, 41.0977
3.284, -1, 31.7689, 46.5594, -9.69313, 88.7608, -55.3685, 41.1246
3.288, -1, 31.8072, 46.5739, -9.7337, 88.8412, -55.333, 41.1515
3.291, -1, 31.8455, 46.5884, -9.77424, 88.9214, -55.2975, 41.1784
3.296, -1, 31.8838, 46.6028, -9.81475, 89.0017, -55.262, 41.2052
3.3, -1, 31.9221, 46.6173, -9.85524, 89.0819, -55.2266, 41.2321
3.304, -1, 31.9603, 46.6318, -9.89569, 89.162, -55.1912, 41.2589
3.308, -1, 31.9985, 46.6462, -9.93612, 89.2421, -55.1558, 41.2857
3.312, -1, 32.0367, 46.6607, -9.97653, 89.3221, -55.1204, 41.3125
3.316, -1, 32.0748, 46.6751, -10.0169, 89.402, -55.0851, 41.3393
3.32, -1, 32.113, 46.6895, -10.0573, 89.4819, -55.0497, 41.366
3.324, -1, 32.1511, 46.7039, -10.0976, 89.5618, -55.0144, 41.3928
3.328, -1, 32.1892, 46.7183, -10.1379, 89.6416, -54.9792, 41.4195
3.332, -1, 32.2272, 46.7327, -10.1781, 89.7213, -54.9439, 41.4462
3.336, -1, 32.2652, 46.7471, -10.2184, 89.801, -54.9087, 41.4729
3.34, -1, 32.3033, 46.7615, -10.2586, 89.8807, -54.8735, 41.4996
3.344, -1, 32.3412, 46.7759, -10.2988, 89.9603, -54.8383, 41.5262
3.347, -1, 32.3792, 46.7902, -10.3389, 90.0398, -54.8031, 41.5528
3.352, -1, 32.4171, 46.8046, -10.3791, 90.1193, -54.768, 41.5795
3.356, -1, 32.455, 46.8189, -10.4192, 90.1987, -54.7329, 41.6061
3.36, -1, 32.4929, 46.8332, -10.4593, 90.2781, -54.6978, 41.6326
3.364, -1, 32.5308, 46.8475, -10.4993, 90.3574, -54.6627, 41.6592
3.368, -1, 32.5686, 46.8619, -10.5394, 90.4367, -54.6276, 41.6857
3.372, -1, 32.6064, 46.8761, -10.5794, 90.5159, -54.5926, 41.7123
3.376, -1, 32.6442, 46.8904, -10.6193, 90.5951, -54.5576, 41.7388
3.38, -1, 32.6819, 46.9047, -10.6593, 90.6742, -54.5226, 41.7653
3.383, -1, 32.7197, 46.919, -10.6992, 90.7533, -54.4877, 41.7917
3.388, -1, 32.7574, 46.9333, -10.7391, 90.8323, -54.4528, 41.8182
3.392, -1, 32.7951, 46.9475, -10.779, 90.9113, -54.4178, 41.8447
3.396, -1, 32.8327, 46.9618, -10.8188, 90.9902, -54.3829, 41.8711
3.4, -1, 32.8704, 46.976, -10.8587, 91.069, -54.3481, 41.8975
3.403, -1, 32.908, 46.9902, -10.8985, 91.1479, -54.3132, 41.9239
3.408, -1, 32.9456, 47.0044, -10.9382, 91.2266, -54.2784, 41.9502
3.412, -1, 32.9831, 47.0186, -10.978, 91.3053, -54.2436, 41.9766
3.416, -1, 33.0207, 47.0328, -11.0177, 91.384, -54.2088, 42.0029
3.42, -1, 33.0582, 47.047, -11.0574, 91.4626, -54.1741, 42.0293
3.424, -1, 33.0957, 47.0612, -11.0971, 91.5412, -54.1394, 42.0556
3.428, -1, 33.1331, 47.0754, -11.1367, 91.6197, -54.1046, 42.0819
3.432, -1, 33.1706, 47.0895, -11.1763, 91.6982, -54.07, 42.1081
3.436, -1, 33.208, 47.1037, -11.2159, 91.7766, -54.0353, 42.1344
3.439, -1, 33.2454, 47.1178, -11.2555, 91.855, -54.0006, 42.1606
3.444, -1, 33.2828, 47.132, -11.2951, 91.9333, -53.966, 42.1869
3.448, -1, 33.3201, 47.1461, -11.3346, 92.0115, -53.9314, 42.2131
3.452, -1, 33.3575, 47.1602, -11.3741, 92.0898, -53.8968, 42.2393
3.456, -1, 33.3948, 47.1743, -11.4136, 92.1679, -53.8623, 42.2654
3.46, -1, 33.432, 47.1884, -11.453, 92.2461, -53.8277, 42.2916
3.464, -1, 33.4693, 47.2025, -11.4924, 92.3241, -53.7932, 42.3177
3.468, -1, 33.5065, 47.2166, -11.5318, 92.4022, -53.7587, 42.3439
3.472, -1, 33.5437, 47.2307, -11.5712, 92.4801, -53.7242, 42.37
3.476, -1, 33.5809, 47.2447, -11.6105, 92.5581, -53.6898, 42.3961
3.48, -1, 33.6181, 47.2588, -11.6499, 92.6359, -53.6554, 42.4221
3.484, -1, 33.6552, 47.2728, -11.6892, 92.7138, -53.621, 42.4482
3.488, -1, 33.6924, 47.2869, -11.7285, 92.7916, -53.5866, 42.4743
3.492, -1, 33.7295, 47.3009, -11.7677, 92.8693, -53.5522, 42.5003
3.495, -1, 33.7665, 47.3149, -11.8069, 92.947, -53.5178, 42.5263
3.5, -1, 33.8036, 47.329, -11.8461, 93.0247, -53.4835, 42.5523
3.504, -1, 33.8406, 47.343, -11.8853, 93.1022, -53.4492, 42.5783
3.508, -1, 33.8776, 47.357, -11.9245, 93.1798, -53.4149, 42.6043
3.512, -1, 33.9146, 47.3709, -11.9636, 93.2573, -53.3807, 42.6302
3.516, -1, 33.9516, 47.3849, -12.0027, 93.3348, -53.3464, 42.6561
3.52, -1, 33.9885, 47.3989, -12.0418, 93.4122, -53.3122, 42.6821
3.524, -1, 34.0254, 47.4129, -12.0809, 93.4895, -53.278, 42.708
3.528, -1, 34.0623, 47.4268, -12.1199, 93.5668, -53.2438, 42.7339
3.531, -1, 34.0992, 47.4408, -12.1589, 93.6441, -53.2097, 42.7597
3.536, -1, 34.1361, 47.4547, -12.1979, 93.7213, -53.1755, 42.7856
3.54, -1, 34.1729, 47.4686, -12.2369, 93.7985, -53.1414, 42.8114
3.544, -1, 34.2097, 47.4825, -12.2759, 93.8756, -53.1073, 42.8373
3.548, -1, 34.2465, 47.4965, -12.3148, 93.9527, -53.0732, 42.8631
3.552, -1, 34.2832, 47.5104, -12.3537, 94.0298, -53.0392, 42.8889
3.556, -1, 34.32, 47.5243, -12.3926, 94.1068, -53.0051, 42.9146
3.56, -1, 34.3567, 47.5382, -12.4314, 94.1837, -52.9711, 42.9404
3.564, -1, 34.3934, 47.552, -12.4703, 94.2606, -52.9371, 42.9662
3.568, -1, 34.4301, 47.5659, -12.5091, 94.3375, -52.9031, 42.9919
3.572, -1, 34.4667, 47.5798, -12.5479, 94.4143, -52.8692, 43.0176
3.576, -1, 34.5034, 47.5936, -12.5866, 94.4911, -52.8352, 43.0433
3.58, -1, 34.54, 47.6075, -12.6254, 94.5678, -52.8013, 43.069
3.584, -1, 34.5766, 47.6213, -12.6641, 94.6445, -52.7674, 43.0947
3.587, -1, 34.6132, 47.6351, -12.7028, 94.7211, -52.7335, 43.1203
3.592, -1, 34.6497, 47.649, -12.7415, 94.7977, -52.6997, 43.146
3.596, -1, 34.6862, 47.6628, -12.7801, 94.8743, -52.6658, 43.1716
3.6, -1, 34.7228, 47.6766, -12.8187, 94.9508, -52.632, 43.1972
3.604, -1, 34.7592, 47.6904, -12.8573, 95.0272, -52.5982, 43.2229
3.608, -1, 34.7957, 47.7042, -12.8959, 95.1037, -52.5644, 43.2484
3.612, -1, 34.8322, 47.718, -12.9345, 95.18, -52.5307, 43.274
3.616, -1, 34.8686, 47.7318, -12.973, 95.2564, -52.4969, 43.2996
3.62, -1, 34.905, 47.7455, -13.0116, 95.3326, -52.4632, 43.3251
3.624, -1, 34.9414, 47.7593, -13.0501, 95.4089, -52.4295, 43.3506
3.628, -1, 34.9777, 47.773, -13.0885, 95.4851, -52.3958, 43.3762
3.632, -1, 35.0141, 47.7868, -13.127, 95.5613, -52.3621, 43.4017
3.636, -1, 35.0504, 47.8005, -13.1654, 95.6374, -52.3285, 43.4272
3.64, -1, 35.0867, 47.8142, -13.2039, 95.7134, -52.2948, 43.4526
3.644, -1, 35.123, 47.828, -13.2422, 95.7895, -52.2612, 43.4781
3.648, -1, 35.1591, 47.8417, -13.2806, 95.8655, -52.2276, 43.5035
3.652, -1, 35.1952, 47.8554, -13.319, 95.9414, -52.1941, 43.529
3.656, -1, 35.2311, 47.8691, -13.3573, 96.0173, -52.1605, 43.5544
3.66, -1, 35.2668, 47.8828, -13.3956, 96.0931, -52.127, 43.5798
3.664, -1, 35.3023, 47.8964, -13.4339, 96.1689, -52.0935, 43.6051
3.668, -1, 35.3376, 47.9101, -13.4722, 96.2445, -52.0601, 43.6305
3.672, -1, 35.3723, 47.9237, -13.5104, 96.32, -52.0267, 43.6557
3.676, -1, 35.4063, 47.9373, -13.5486, 96.3953, -51.9935, 43.6809
3.679, -1, 35.4395, 47.9507, -13.5868, 96.4702, -51.9604, 43.7061
3.684, -1, 35.4715, 47.9641, -13.6248, 96.5446, -51.9277, 43.731
3.688, -1, 35.5023, 47.9773, -13.6626, 96.6183, -51.8952, 43.7557
3.692, -1, 35.5318, 47.9902, -13.7, 96.6909, -51.8633, 43.78
3.696, -1, 35.5601, 48.0028, -13.7368, 96.762, -51.832, 43.8039
3.7, -1, 35.5872, 48.0151, -13.7726, 96.8312, -51.8016, 43.8271
3.704, -1, 35.6133, 48.0269, -13.8073, 96.898, -51.7723, 43.8495
3.708, -1, 35.6383, 48.0382, -13.8405, 96.962, -51.7442, 43.8709
3.712, -1, 35.6623, 48.0489, -13.8719, 97.0227, -51.7176, 43.8913
3.716, -1, 35.6849, 48.0589, -13.9014, 97.0797, -51.6925, 43.9104
3.72, -1, 35.7064, 48.0683, -13.9287, 97.1325, -51.6693, 43.9281
3.724, -1, 35.7268, 48.0769, -13.9537, 97.1809, -51.648, 43.9444
3.728, -1, 35.7461, 48.0847, -13.976, 97.2247, -51.6287, 43.959
3.732, -1, 35.7645, 48.0918, -13.9958, 97.2638, -51.6114, 43.9721
3.735, -1, 35.7821, 48.0981, -14.0129, 97.298, -51.5963, 43.9836
3.74, -1, 35.7989, 48.1036, -14.0274, 97.3276, -51.5831, 43.9934
3.744, -1, 35.8147, 48.1084, -14.0395, 97.3527, -51.5718, 44.0018
3.748, -1, 35.8293, 48.1126, -14.0493, 97.3737, -51.5624, 44.0088
3.752, -1, 35.8426, 48.116, -14.0572, 97.391, -51.5545, 44.0146
3.756, -1, 35.8544, 48.1188, -14.0635, 97.405, -51.5482, 44.0192
3.76, -1, 35.8647, 48.121, -14.0683, 97.4161, -51.5431, 44.0229
3.764, -1, 35.8738, 48.1228, -14.0719, 97.4247, -51.5391, 44.0258
3.768, -1, 35.8817, 48.1242, -14.0746, 97.4314, -51.536, 44.028
3.772, -1, 35.8887, 48.1252, -14.0764, 97.4363, -51.5337, 44.0296
3.776, -1, 35.8947, 48.126, -14.0777, 97.4399, -51.5319, 44.0308
3.78, 2, 35.8998, 48.1265, -14.0785, 97.4425, -51.5307, 44.0317
3.784, 2, 35.904, 48.1269, -14.079, 97.4444, -51.5298, 44.0322
3.788, 2, 35.9073, 48.1272, -14.0794, 97.4456, -51.5292, 44.0327
3.792, 2, 35.9097, 48.1274, -14.0796, 97.4465, -51.5288, 44.0329
3.796, 2, 35.9115, 48.1275, -14.0797, 97.4471, -51.5285, 44.0331
3.8, 2, 35.9126, 48.1276, -14.0798, 97.4474, -51.5283, 44.0333
3.804, 2, 35.9134, 48.1277, -14.0799, 97.4477, -51.5281, 44.0333
3.808, 2, 35.914, 48.1277, -14.0799, 97.4479, -51.528, 44.0334
3.812, 2, 35.9144, 48.1277, -14.08, 97.448, -51.528, 44.0334
3.816, 2, 35.9146, 48.1277, -14.08, 97.4481, -51.5279, 44.0335
3.82, 2, 35.9148, 48.1278, -14.08, 97.4482, -51.5279, 44.0335
3.824, 2, 35.9149, 48.1278, -14.08, 97.4482, -51.5279, 44.0335
3.828, 2, 35.915, 48.1278, -14.08, 97.4482, -51.5279, 44.0335
3.832, 2, 35.915, 48.1278, -14.08, 97.4482, -51.5279, 44.0335
3.836, 2, 35.9151, 48.1278, -14.08, 97.4483, -51.5279, 44.0335
3.84, 2, 35.9151, 48.1278, -14.08, 97.4483, -51.5279, 44.0335
3.844, 2, 35.9151, 48.1278, -14.08, 97.4483, -51.5278, 44.0335
3.848, 2, 35.9151, 48.1278, -14.08, 97.4483, -51.5278, 44.0335
3.852, 2, 35.9151, 48.1278, -14.08, 97.4483, -51.5278, 44.0335
3.856, 2, 35.9151, 48.1278, -14.08, 97.4483, -51.5278, 44.0335
3.86, 2, 35.9151, 48.1278, -14.08, 97.4483, -51.5278, 44.0335
3.864, 2, 35.9151, 48.1278, -14.08, 97.4483, -51.5278, 44.0335
3.868, 2, 35.9151, 48.1278, -14.08, 97.4483, -51.5278, 44.0335
3.872, 2, 35.9151, 48.1278, -14.08, 97.4483, -51.5278, 44.0335
3.876, 2, 35.9151, 48.1278, -14.08, 97.4483, -51.5278, 44.0335
3.88, 2, 35.9151, 48.1278, -14.08, 97.4483, -51.5278, 44.0335
3.884, 2, 35.9151, 48.1278, -14.08, 97.4483, -51.5278, 44.0335
3.888, 2, 35.9151, 48.1278, -14.08, 97.4483, -51.5278, 44.0335
3.892, 2, 35.9151, 48.1278, -14.08, 97.4483, -51.5278, 44.0335
3.896, 2, 35.9151, 48.1278, -14.08, 97.4483, -51.5278, 44.0335
3.9, 2, 35.9151, 48.1278, -14.08, 97.4483, -51.5278, 44.0335
3.904, 2, 35.9151, 48.1278, -14.08, 97.4483, -51.5278, 44.0335
3.908, 2, 35.9151, 48.1278, -14.08, 97.4483, -51.5278, 44.0335
3.912, 2, 35.9151, 48.1278, -14.08, 97.4483, -51.5278, 44.0335
3.916, 2, 35.9151, 48.1278, -14.08, 97.4483, -51.5278, 44.0335
3.92, 2, 35.9151, 48.1278, -14.08, 97.4483, -51.5278, 44.0335
3.924, 2, 35.9151, 48.1278, -14.08, 97.4483, -51.5278, 44.0335
3.928, 2, 35.9151, 48.1278, -14.08, 97.4483, -51.5278, 44.0335
3.932, 2, 35.9151, 48.1278, -14.08, 97.4483, -51.5278, 44.0335
3.936, 2, 35.9151, 48.1278, -14.08, 97.4483, -51.5278, 44.0335
3.94, 2, 35.9151, 48.1278, -14.08, 97.4483, -51.5278, 44.0335
3.944, 2, 35.9151, 48.1278, -14.08, 97.4483, -51.5278, 44.0335
3.948, 2, 35.9151, 48.1278, -14.08, 97.4483, -51.5278, 44.0335
3.952, 2, 35.9151, 48.1278, -14.08, 97.4483, -51.5278, 44.0335
3.956, 2, 35.9151, 48.1278, -14.08, 97.4483, -51.5278, 44.0335
3.96, 2, 35.9151, 48.1278, -14.08, 97.4483, -51.5278, 44.0335
3.964, 2, 35.9151, 48.1278, -14.08, 97.4483, -51.5278, 44.0335
3.968, 2, 35.9151, 48.1278, -14.08, 97.4483, -51.5278, 44.0335
3.972, 2, 35.9151, 48.1278, -14.08, 97.4483, -51.5278, 44.0335
3.976, 2, 35.9151, 48.1278, -14.08, 97.4483, -51.5278, 44.0335
3.98, 2, 35.9151, 48.1278, -14.08, 97.4483, -51.5278, 44.0335
3.984, 2, 35.9151, 48.1278, -14.08, 97.4483, -51.5278, 44.0335
3.988, 2, 35.9151, 48.1278, -14.08, 97.4483, -51.5278, 44.0335
3.992, 2, 35.9151, 48.1278, -14.08, 97.4483, -51.5278, 44.0335
3.996, 2, 35.9151, 48.1278, -14.08, 97.4483, -51.5278, 44.0335
3.999, 2, 35.9151, 48.1278, -14.08, 97.4483, -51.5278, 44.0335
4.004, 2, 35.9151, 48.1278, -14.08, 97.4483, -51.5278, 44.0335
4.008, 2, 35.9151, 48.1278, -14.08, 97.4483, -51.5278, 44.0335
4.012, 2, 35.9151, 48.1278, -14.08, 97.4483, -51.5278, 44.0335
4.016, 2, 35.9151, 48.1278, -14.08, 97.4483, -51.5278, 44.0335
4.02, 2, 35.9151, 48.1278, -14.08, 97.4483, -51.5278, 44.0335
4.024, 2, 35.9151, 48.1278, -14.08, 97.4483, -51.5278, 44.0335
4.028, 2, 35.9151, 48.1278, -14.08, 97.4483, -51.5278, 44.0335
4.032, 2, 35.9151, 48.1278, -14.08, 97.4483, -51.5278, 44.0335
4.036, 2, 35.9151, 48.1278, -14.08, 97.4483, -51.5278, 44.0335
4.04, 2, 35.9151, 48.1278, -14.08, 97.4483, -51.5278, 44.0335
4.044, 2, 35.9151, 48.1278, -14.08, 97.4483, -51.5278, 44.0335
4.048, 2, 35.9151, 48.1278, -14.08, 97.4483, -51.5278, 44.0335
4.052, 2, 35.9151, 48.1278, -14.08, 97.4483, -51.5278, 44.0335
4.056, 2, 35.9151, 48.1278, -14.08, 97.4483, -51.5278, 44.0335
4.06, 2, 35.9151, 48.1278, -14.08, 97.4483, -51.5278, 44.0335
4.064, 2, 35.9151, 48.1278, -14.08, 97.4483, -51.5278, 44.0335
4.068, 2, 35.9151, 48.1278, -14.08, 97.4483, -51.5278, 44.0335
4.072, 2, 35.9151, 48.1278, -14.08, 97.4483, -51.5278, 44.0335
4.076, 2, 35.9151, 48.1278, -14.08, 97.4483, -51.5278, 44.0335
4.08, 2, 35.9151, 48.1278, -14.08, 97.4483, -51.5278, 44.0335
4.084, 2, 35.9151, 48.1278, -14.08, 97.4483, -51.5278, 44.0335
4.088, 2, 35.9151, 48.1278, -14.08, 97.4483, -51.5278, 44.0335
4.092, 2, 35.9151, 48.1278, -14.08, 97.4483, -51.5278, 44.0335
4.096, 2, 35.9151, 48.1278, -14.08, 97.4483, -51.5278, 44.0335
4.1, 2, 35.9151, 48.1278, -14.08, 97.4483, -51.5278, 44.0335
4.104, 2, 35.9151, 48.1278, -14.08, 97.4483, -51.5278, 44.0335
4.108, 2, 35.9151, 48.1278, -14.08, 97.4483, -51.5278, 44.0335
4.112, 2, 35.9151, 48.1278, -14.08, 97.4483, -51.5278, 44.0335
4.116, 2, 35.9151, 48.1278, -14.08, 97.4483, -51.5278, 44.0335
4.12, 2, 35.9151, 48.1278, -14.08, 97.4483, -51.5278, 44.0335
4.124, 2, 35.9151, 48.1278, -14.08, 97.4483, -51.5278, 44.0335
4.128, 2, 35.9151, 48.1278, -14.08, 97.4483, -51.5278, 44.0335
4.132, 2, 35.9151, 48.1278, -14.08, 97.4483, -51.5278, 44.0335
4.136, 2, 35.9151, 48.1278, -14.08, 97.4483, -51.5278, 44.0335
4.14, 2, 35.9151, 48.1278, -14.08, 97.4483, -51.5278, 44.0335
4.144, 2, 35.9151, 48.1278, -14.08, 97.4483, -51.5278, 44.0335
4.148, 2, 35.9151, 48.1278, -14.08, 97.4483, -51.5278, 44.0335
4.152, 2, 35.9151, 48.1278, -14.08, 97.4483, -51.5278, 44.0335
4.156, 2, 35.9151, 48.1278, -14.08, 97.4483, -51.5278, 44.0335
4.16, 2, 35.9151, 48.1278, -14.08, 97.4483, -51.5278, 44.0335
4.164, 2, 35.9151, 48.1278, -14.08, 97.4483, -51.5278, 44.0335
4.168, 2, 35.9151, 48.1278, -14.08, 97.4483, -51.5278, 44.0335
4.172, 2, 35.9151, 48.1278, -14.08, 97.4483, -51.5278, 44.0335
4.176, 2, 35.9151, 48.1278, -14.08, 97.4483, -51.5278, 44.0335
4.18, 2, 35.9151, 48.1278, -14.08, 97.4483, -51.5278, 44.0335
4.184, 2, 35.9151, 48.1278, -14.08, 97.4483, -51.5278, 44.0335
4.188, 2, 35.9151, 48.1278, -14.08, 97.4483, -51.5278, 44.0335
4.192, 2, 35.9151, 48.1278, -14.08, 97.4483, -51.5278, 44.0335
4.196, 2, 35.9151, 48.1278, -14.08, 97.4483, -51.5278, 44.0335
4.2, 2, 35.9151, 48.1278, -14.08, 97.4483, -51.5278, 44.0335
4.204, 2, 35.9151, 48.1278, -14.08, 97.4483, -51.5278, 44.0335
4.208, 2, 35.9151, 48.1278, -14.08, 97.4483, -51.5278, 44.0335
4.212, 2, 35.9151, 48.1278, -14.08, 97.4483, -51.5278, 44.0335
4.216, 2, 35.9151, 48.1278, -14.08, 97.4483, -51.5278, 44.0335
4.22, 2, 35.9151, 48.1278, -14.08, 97.4483, -51.5278, 44.0335
4.224, 2, 35.9151, 48.1278, -14.08, 97.4483, -51.5278, 44.0335
4.228, 2, 35.9151, 48.1278, -14.08, 97.4483, -51.5278, 44.0335
4.232, 2, 35.9151, 48.1278, -14.08, 97.4483, -51.5278, 44.0335
4.236, 2, 35.9151, 48.1278, -14.08, 97.4483, -51.5278, 44.0335
4.24, 2, 35.9151, 48.1278, -14.08, 97.4483, -51.5278, 44.0335
4.244, 2, 35.9151, 48.1278, -14.08, 97.4483, -51.5278, 44.0335
4.248, 2, 35.9151, 48.1278, -14.08, 97.4483, -51.5278, 44.0335
4.252, 2, 35.9151, 48.1278, -14.08, 97.4483, -51.5278, 44.0335
4.256, 2, 35.9151, 48.1278, -14.08, 97.4483, -51.5278, 44.0335
4.26, 2, 35.9151, 48.1278, -14.08, 97.4483, -51.5278, 44.0335
4.264, 2, 35.9151, 48.1278, -14.08, 97.4483, -51.5278, 44.0335
4.268, 2, 35.9151, 48.1278, -14.08, 97.4483, -51.5278, 44.0335
4.272, 2, 35.9151, 48.1278, -14.08, 97.4483, -51.5278, 44.0335
4.276, 2, 35.9151, 48.1278, -14.08, 97.4483, -51.5278, 44.0335
4.28, 2, 35.9151, 48.1278, -14.08, 97.4483, -51.5278, 44.0335
4.284, 2, 35.9151, 48.1278, -14.08, 97.4483, -51.5278, 44.0335
4.288, 2, 35.9151, 48.1278, -14.08, 97.4483, -51.5278, 44.0335
4.292, 2, 35.9151, 48.1278, -14.08, 97.4483, -51.5278, 44.0335
4.296, 2, 35.9151, 48.1278, -14.08, 97.4483, -51.5278, 44.0335
4.3, 2, 35.9151, 48.1278, -14.08, 97.4483, -51.5278, 44.0335
4.304, 2, 35.9151, 48.1278, -14.08, 97.4483, -51.5278, 44.0335
4.308, 2, 35.9151, 48.1278, -14.08, 97.4483, -51.5278, 44.0335
4.312, 2, 35.9151, 48.1278, -14.08, 97.4483, -51.5278, 44.0335
4.316, 2, 35.9151, 48.1278, -14.08, 97.4483, -51.5278, 44.0335
4.32, 2, 35.9151, 48.1278, -14.08, 97.4483, -51.5278, 44.0335
4.324, 2, 35.9151, 48.1278, -14.08, 97.4483, -51.5278, 44.0335
4.328, 2, 35.9151, 48.1278, -14.08, 97.4483, -51.5278, 44.0335
4.332, 2, 35.9151, 48.1278, -14.08, 97.4483, -51.5278, 44.0335
4.336, 2, 35.9151, 48.1278, -14.08, 97.4483, -51.5278, 44.0335
4.34, 2, 35.9151, 48.1278, -14.08, 97.4483, -51.5278, 44.0335
4.344, 2, 35.9151, 48.1278, -14.08, 97.4483, -51.5278, 44.0335
4.348, 2, 35.9151, 48.1278, -14.08, 97.4483, -51.5278, 44.0335
4.352, 2, 35.9151, 48.1278, -14.08, 97.4483, -51.5278, 44.0335
4.356, 2, 35.9151, 48.1278, -14.08, 97.4483, -51.5278, 44.0335
4.36, 2, 35.9151, 48.1278, -14.08, 97.4483, -51.5278, 44.0335
4.364, 2, 35.9151, 48.1278, -14.08, 97.4483, -51.5278, 44.0335
4.368, 2, 35.9151, 48.1278, -14.08, 97.4483, -51.5278, 44.0335
4.372, 2, 35.9151, 48.1278, -14.08, 97.4483, -51.5278, 44.0335
4.376, 2, 35.9151, 48.1278, -14.08, 97.4483, -51.5278, 44.0335
4.38, 2, 35.9151, 48.1278, -14.08, 97.4483, -51.5278, 44.0335
4.384, 2, 35.9151, 48.1278, -14.08, 97.4483, -51.5278, 44.0335
4.388, 2, 35.9151, 48.1278, -14.08, 97.4483, -51.5278, 44.0335
4.392, 2, 35.9151, 48.1278, -14.08, 97.4483, -51.5278, 44.0335
4.396, 2, 35.9151, 48.1278, -14.08, 97.4483, -51.5278, 44.0335
4.4, 2, 35.9151, 48.1278, -14.08, 97.4483, -51.5278, 44.0335
4.404, 2, 35.9151, 48.1278, -14.08, 97.4483, -51.5278, 44.0335
4.408, 2, 35.9151, 48.1278, -14.08, 97.4483, -51.5278, 44.0335
4.412, 2, 35.9151, 48.1278, -14.08, 97.4483, -51.5278, 44.0335
4.416, 2, 35.9151, 48.1278, -14.08, 97.4483, -51.5278, 44.0335
4.42, 2, 35.9151, 48.1278, -14.08, 97.4483, -51.5278, 44.0335
4.424, 2, 35.9151, 48.1278, -14.08, 97.4483, -51.5278, 44.0335
4.428, 2, 35.9151, 48.1278, -14.08, 97.4483, -51.5278, 44.0335
4.432, 2, 35.9151, 48.1278, -14.08, 97.4483, -51.5278, 44.0335
4.436, 2, 35.9151, 48.1278, -14.08, 97.4483, -51.5278, 44.0335
4.44, 2, 35.9151, 48.1278, -14.08, 97.4483, -51.5278, 44.0335
4.444, 2, 35.9151, 48.1278, -14.08, 97.4483, -51.5278, 44.0335
4.448, 2, 35.9151, 48.1278, -14.08, 97.4483, -51.5278, 44.0335
4.452, 2, 35.9151, 48.1278, -14.08, 97.4483, -51.5278, 44.0335
4.456, 2, 35.9151, 48.1278, -14.08, 97.4483, -51.5278, 44.0335
4.46, 2, 35.9151, 48.1278, -14.08, 97.4483, -51.5278, 44.0335
4.464, 2, 35.9151, 48.1278, -14.08, 97.4483, -51.5278, 44.0335
4.468, 2, 35.9151, 48.1278, -14.08, 97.4483, -51.5278, 44.0335
4.472, 2, 35.9151, 48.1278, -14.08, 97.4483, -51.5278, 44.0335
4.476, 2, 35.9151, 48.1278, -14.08, 97.4483, -51.5278, 44.0335
4.48, 2, 35.9151, 48.1278, -14.08, 97.4483, -51.5278, 44.0335
4.484, 2, 35.9151, 48.1278, -14.08, 97.4483, -51.5278, 44.0335
4.488, 2, 35.9151, 48.1278, -14.08, 97.4483, -51.5278, 44.0335
4.492, 2, 35.9151, 48.1278, -14.08, 97.4483, -51.5278, 44.0335
4.496, 2, 35.9151, 48.1278, -14.08, 97.4483, -51.5278, 44.0335
4.5, 2, 35.9151, 48.1278, -14.08, 97.4483, -51.5278, 44.0335
4.504, 2, 35.9151, 48.1278, -14.08, 97.4483, -51.5278, 44.0335
4.508, 2, 35.9151, 48.1278, -14.08, 97.4483, -51.5278, 44.0335
4.512, 2, 35.9151, 48.1278, -14.08, 97.4483, -51.5278, 44.0335
4.516, 2, 35.9151, 48.1278, -14.08, 97.4483, -51.5278, 44.0335
4.52, 2, 35.9151, 48.1278, -14.08, 97.4483, -51.5278, 44.0335
4.524, 2, 35.9151, 48.1278, -14.08, 97.4483, -51.5278, 44.0335
4.528, 2, 35.9151, 48.1278, -14.08, 97.4483, -51.5278, 44.0335
4.532, 2, 35.9151, 48.1278, -14.08, 97.4483, -51.5278, 44.0335
4.536, 2, 35.9151, 48.1278, -14.08, 97.4483, -51.5278, 44.0335
4.54, 2, 35.9151, 48.1278, -14.08, 97.4483, -51.5278, 44.0335
4.544, 2, 35.9151, 48.1278, -14.08, 97.4483, -51.5278, 44.0335
4.548, 2, 35.9151, 48.1278, -14.08, 97.4483, -51.5278, 44.0335
4.552, 2, 35.9151, 48.1278, -14.08, 97.4483, -51.5278, 44.0335
4.556, 2, 35.9151, 48.1278, -14.08, 97.4483, -51.5278, 44.0335
4.56, 2, 35.9151, 48.1278, -14.08, 97.4483, -51.5278, 44.0335
4.564, 2, 35.9151, 48.1278, -14.08, 97.4483, -51.5278, 44.0335
4.568, 2, 35.9151, 48.1278, -14.08, 97.4483, -51.5278, 44.0335
4.572, 2, 35.9151, 48.1278, -14.08, 97.4483, -51.5278, 44.0335
4.576, 2, 35.9151, 48.1278, -14.08, 97.4483, -51.5278, 44.0335
4.58, 2, 35.9151, 48.1278, -14.08, 97.4483, -51.5278, 44.0335
4.584, 2, 35.9151, 48.1278, -14.08, 97.4483, -51.5278, 44.0335
4.588, 2, 35.9151, 48.1278, -14.08, 97.4483, -51.5278, 44.0335
4.592, 2, 35.9151, 48.1278, -14.08, 97.4483, -51.5278, 44.0335
4.596, 2, 35.9151, 48.1278, -14.08, 97.4483, -51.5278, 44.0335
4.6, 2, 35.9151, 48.1278, -14.08, 97.4483, -51.5278, 44.0335
4.604, 2, 35.9151, 48.1278, -14.08, 97.4483, -51.5278, 44.0335
4.608, 2, 35.9151, 48.1278, -14.08, 97.4483, -51.5278, 44.0335
4.612, 2, 35.9151, 48.1278, -14.08, 97.4483, -51.5278, 44.0335
4.616, 2, 35.9151, 48.1278, -14.08, 97.4483, -51.5278, 44.0335
4.62, 2, 35.9151, 48.1278, -14.08, 97.4483, -51.5278, 44.0335
4.624, 2, 35.9151, 48.1278, -14.08, 97.4483, -51.5278, 44.0335
4.628, 2, 35.9151, 48.1278, -14.08, 97.4483, -51.5278, 44.0335
4.632, 2, 35.9151, 48.1278, -14.08, 97.4483, -51.5278, 44.0335
4.636, 2, 35.9151, 48.1278, -14.08, 97.4483, -51.5278, 44.0335
4.64, 2, 35.9151, 48.1278, -14.08, 97.4483, -51.5278, 44.0335
4.644, 2, 35.9151, 48.1278, -14.08, 97.4483, -51.5278, 44.0335
4.648, 2, 35.9151, 48.1278, -14.08, 97.4483, -51.5278, 44.0335
4.652, 2, 35.9151, 48.1278, -14.08, 97.4483, -51.5278, 44.0335
4.656, 2, 35.9151, 48.1278, -14.08, 97.4483, -51.5278, 44.0335
4.66, 2, 35.9151, 48.1278, -14.08, 97.4483, -51.5278, 44.0335
4.664, 2, 35.9151, 48.1278, -14.08, 97.4483, -51.5278, 44.0335
4.668, 2, 35.9151, 48.1278, -14.08, 97.4483, -51.5278, 44.0335
4.672, 2, 35.9151, 48.1278, -14.08, 97.4483, -51.5278, 44.0335
4.676, 2, 35.9151, 48.1278, -14.08, 97.4483, -51.5278, 44.0335
4.68, 2, 35.9151, 48.1278, -14.08, 97.4483, -51.5278, 44.0335
4.684, 2, 35.9151, 48.1278, -14.08, 97.4483, -51.5278, 44.0335
4.688, 2, 35.9151, 48.1278, -14.08, 97.4483, -51.5278, 44.0335
4.692, 2, 35.9151, 48.1278, -14.08, 97.4483, -51.5278, 44.0335
4.696, 2, 35.9151, 48.1278, -14.08, 97.4483, -51.5278, 44.0335
4.7, 2, 35.9151, 48.1278, -14.08, 97.4483, -51.5278, 44.0335
4.704, 2, 35.9151, 48.1278, -14.08, 97.4483, -51.5278, 44.0335
4.708, 2, 35.9151, 48.1278, -14.08, 97.4483, -51.5278, 44.0335
4.712, 2, 35.9151, 48.1278, -14.08, 97.4483, -51.5278, 44.0335
4.716, 2, 35.9151, 48.1278, -14.08, 97.4483, -51.5278, 44.0335
4.72, 2, 35.9151, 48.1278, -14.08, 97.4483, -51.5278, 44.0335
4.724, 2, 35.9151, 48.1278, -14.08, 97.4483, -51.5278, 44.0335
4.728, 2, 35.9151, 48.1278, -14.08, 97.4483, -51.5278, 44.0335
4.732, 2, 35.9151, 48.1278, -14.08, 97.4483, -51.5278, 44.0335
4.736, 2, 35.9151, 48.1278, -14.08, 97.4483, -51.5278, 44.0335
4.74, 2, 35.9151, 48.1278, -14.08, 97.4483, -51.5278, 44.0335
4.744, 2, 35.9151, 48.1278, -14.08, 97.4483, -51.5278, 44.0335
4.748, 2, 35.9151, 48.1278, -14.08, 97.4483, -51.5278, 44.0335
4.752, 2, 35.9151, 48.1278, -14.08, 97.4483, -51.5278, 44.0335
4.756, 2, 35.9151, 48.1278, -14.08, 97.4483, -51.5278, 44.0335
4.76, 2, 35.9151, 48.1278, -14.08, 97.4483, -51.5278, 44.0335
4.764, 2, 35.9151, 48.1278, -14.08, 97.4483, -51.5278, 44.0335
4.768, 2, 35.9151, 48.1278, -14.08, 97.4483, -51.5278, 44.0335
4.772, 2, 35.9151, 48.1278, -14.08, 97.4483, -51.5278, 44.0335
4.776, 2, 35.9151, 48.1278, -14.08, 97.4483, -51.5278, 44.0335
4.78, 2, 35.9151, 48.1278, -14.08, 97.4483, -51.5278, 44.0335
4.784, 2, 35.9151, 48.1278, -14.08, 97.4483, -51.5278, 44.0335
4.788, 2, 35.9151, 48.1278, -14.08, 97.4483, -51.5278, 44.0335
4.792, 2, 35.9151, 48.1278, -14.08, 97.4483, -51.5278, 44.0335
4.796, 2, 35.9151, 48.1278, -14.08, 97.4483, -51.5278, 44.0335
4.8, 2, 35.9151, 48.1278, -14.08, 97.4483, -51.5278, 44.0335
4.804, 2, 35.9151, 48.1278, -14.08, 97.4483, -51.5278, 44.0335
4.808, 2, 35.9151, 48.1278, -14.08, 97.4483, -51.5278, 44.0335
4.812, 2, 35.9151, 48.1278, -14.08, 97.4483, -51.5278, 44.0335
4.816, 2, 35.9151, 48.1278, -14.08, 97.4483, -51.5278, 44.0335
4.82, 2, 35.9151, 48.1278, -14.08, 97.4483, -51.5278, 44.0335
4.824, 2, 35.9151, 48.1278, -14.08, 97.4483, -51.5278, 44.0335
4.828, 2, 35.9151, 48.1278, -14.08, 97.4483, -51.5278, 44.0335
4.832, 2, 35.9151, 48.1278, -14.08, 97.4483, -51.5278, 44.0335
4.836, 4, 35.9151, 48.1278, -14.08, 97.4483, -51.5278, 44.0335
4.84, 4, 35.9151, 48.1278, -14.08, 97.4483, -51.5278, 44.0335
4.844, 4, 35.9151, 48.1278, -14.08, 97.4483, -51.5278, 44.0335
4.848, 4, 35.9151, 48.1278, -14.08, 97.4483, -51.5278, 44.0335
4.852, 4, 35.9151, 48.1278, -14.08, 97.4483, -51.5278, 44.0335
4.856, 4, 35.9151, 48.1278, -14.08, 97.4483, -51.5278, 44.0335
4.86, 4, 35.9151, 48.1278, -14.08, 97.4483, -51.5278, 44.0335
4.864, 4, 35.9151, 48.1278, -14.08, 97.4483, -51.5278, 44.0335
4.868, 4, 35.9151, 48.1278, -14.08, 97.4483, -51.5278, 44.0335
4.872, 4, 35.9151, 48.1278, -14.08, 97.4483, -51.5278, 44.0335
4.876, 4, 35.9151, 48.1278, -14.08, 97.4483, -51.5278, 44.0335
4.88, 4, 35.9151, 48.1278, -14.08, 97.4483, -51.5278, 44.0335
4.884, 4, 35.9151, 48.1278, -14.08, 97.4483, -51.5278, 44.0335
4.888, 4, 35.9151, 48.1278, -14.08, 97.4483, -51.5278, 44.0335
4.892, 4, 35.9151, 48.1278, -14.08, 97.4483, -51.5278, 44.0335
4.896, 4, 35.9151, 48.1278, -14.08, 97.4483, -51.5278, 44.0335
4.9, 4, 35.9151, 48.1278, -14.08, 97.4483, -51.5278, 44.0335
4.904, 4, 35.9151, 48.1278, -14.08, 97.4483, -51.5278, 44.0335
4.908, 4, 35.9151, 48.1278, -14.08, 97.4483, -51.5278, 44.0335
4.912, 4, 35.9151, 48.1278, -14.08, 97.4483, -51.5278, 44.0335
4.916, 4, 35.9151, 48.1278, -14.08, 97.4483, -51.5278, 44.0335
4.92, 4, 35.9151, 48.1278, -14.08, 97.4483, -51.5278, 44.0335
4.924, 4, 35.9151, 48.1278, -14.08, 97.4483, -51.5278, 44.0335
4.928, 4, 35.9151, 48.1278, -14.08, 97.4483, -51.5278, 44.0335
4.932, 4, 35.9151, 48.1278, -14.08, 97.4483, -51.5278, 44.0335
4.936, 4, 35.9151, 48.1278, -14.08, 97.4483, -51.5278, 44.0335
4.942, 4, 35.9151, 48.1278, -14.08, 97.4483, -51.5278, 44.0335
4.944, 4, 35.9151, 48.1278, -14.08, 97.4483, -51.5278, 44.0335
4.948, 4, 35.9151, 48.1278, -14.08, 97.4483, -51.5278, 44.0335
4.952, 4, 35.9151, 48.1278, -14.08, 97.4483, -51.5278, 44.0335
4.956, 4, 35.9151, 48.1278, -14.08, 97.4483, -51.5278, 44.0335
4.96, 4, 35.9151, 48.1278, -14.08, 97.4483, -51.5278, 44.0335
4.964, 4, 35.9151, 48.1278, -14.08, 97.4483, -51.5278, 44.0335
4.968, 4, 35.9151, 48.1278, -14.08, 97.4483, -51.5278, 44.0335
4.972, 4, 35.9151, 48.1278, -14.08, 97.4483, -51.5278, 44.0335
4.976, 4, 35.9151, 48.1278, -14.08, 97.4483, -51.5278, 44.0335
4.98, 4, 35.9151, 48.1278, -14.08, 97.4483, -51.5278, 44.0335
4.984, 4, 35.9151, 48.1278, -14.08, 97.4483, -51.5278, 44.0335
4.988, 4, 35.9151, 48.128, -14.08, 97.4483, -51.5279, 44.0335
4.992, 4, 35.915, 48.1283, -14.08, 97.4483, -51.5279, 44.0335
4.996, 4, 35.9147, 48.1289, -14.0801, 97.4483, -51.528, 44.0334
5, 4, 35.9144, 48.1299, -14.0801, 97.4483, -51.5283, 44.0332
5.004, 4, 35.9141, 48.1311, -14.0802, 97.4483, -51.5289, 44.0329
5.008, 4, 35.9136, 48.1325, -14.0804, 97.4483, -51.5299, 44.0323
5.012, 4, 35.9132, 48.1341, -14.0806, 97.4484, -51.5315, 44.0313
5.016, 4, 35.9128, 48.1359, -14.0809, 97.4484, -51.5339, 44.0298
5.02, 4, 35.9124, 48.1377, -14.0813, 97.4485, -51.5371, 44.0279
5.024, 4, 35.912, 48.1396, -14.0818, 97.4486, -51.5414, 44.0252
5.028, 5, 35.9118, 48.1417, -14.0824, 97.4487, -51.5468, 44.022
5.032, 5, 35.9115, 48.144, -14.0832, 97.4489, -51.5533, 44.018
5.036, 5, 35.9112, 48.1465, -14.0841, 97.4491, -51.5611, 44.0132
5.04, 5, 35.9111, 48.1491, -14.0851, 97.4492, -51.57, 44.0078
5.044, 5, 35.9109, 48.1518, -14.0862, 97.4495, -51.5802, 44.0016
5.048, 5, 35.9109, 48.1546, -14.0875, 97.4497, -51.5914, 43.9947
5.052, 5, 35.9109, 48.1575, -14.0889, 97.45, -51.6036, 43.9873
5.056, 5, 35.9109, 48.1605, -14.0903, 97.4502, -51.6167, 43.9793
5.06, 5, 35.9109, 48.1637, -14.0919, 97.4505, -51.6305, 43.9709
5.064, 5, 35.9109, 48.1672, -14.0935, 97.4508, -51.6448, 43.9622
5.068, 5, 35.9107, 48.171, -14.0951, 97.4511, -51.6595, 43.9532
5.072, 5, 35.9105, 48.1751, -14.0968, 97.4514, -51.6744, 43.9441
5.076, 5, 35.9102, 48.1795, -14.0985, 97.4517, -51.6896, 43.9348
5.08, 5, 35.9099, 48.184, -14.1003, 97.452, -51.7049, 43.9255
5.084, 5, 35.9095, 48.1887, -14.102, 97.4523, -51.7203, 43.9161
5.088, 5, 35.9091, 48.1934, -14.1038, 97.4527, -51.7357, 43.9067
5.092, 5, 35.9087, 48.1981, -14.1055, 97.4529, -51.7512, 43.8973
5.096, 5, 35.9083, 48.203, -14.1073, 97.4532, -51.7667, 43.8879
5.1, 5, 35.9078, 48.2078, -14.109, 97.4535, -51.7822, 43.8784
5.104, 5, 35.9074, 48.2126, -14.1108, 97.4538, -51.7977, 43.869
5.108, 5, 35.9069, 48.2175, -14.1125, 97.4541, -51.8133, 43.8596
5.112, 5, 35.9065, 48.2224, -14.1143, 97.4544, -51.8288, 43.8501
5.116, 5, 35.9061, 48.2272, -14.116, 97.4547, -51.8444, 43.8407
5.12, 5, 35.9056, 48.2321, -14.1178, 97.455, -51.8599, 43.8312
5.124, 5, 35.9052, 48.237, -14.1195, 97.4552, -51.8755, 43.8218
5.128, 5, 35.9047, 48.2418, -14.1213, 97.4555, -51.891, 43.8123
5.132, 5, 35.9043, 48.2467, -14.123, 97.4558, -51.9066, 43.8029
5.136, 5, 35.9038, 48.2516, -14.1248, 97.456, -51.9221, 43.7935
5.14, 5, 35.9033, 48.2564, -14.1265, 97.4563, -51.9377, 43.784
5.144, 5, 35.9029, 48.2613, -14.1282, 97.4565, -51.9532, 43.7746
5.148, 5, 35.9024, 48.2662, -14.13, 97.4568, -51.9688, 43.7652
5.152, 5, 35.902, 48.271, -14.1317, 97.457, -51.9844, 43.7558
5.156, 5, 35.9015, 48.2759, -14.1334, 97.4573, -51.9999, 43.7463
5.16, 5, 35.9011, 48.2808, -14.1351, 97.4575, -52.0155, 43.7369
5.164, 5, 35.9006, 48.2856, -14.1369, 97.4578, -52.031, 43.7275
5.168, 5, 35.9001, 48.2905, -14.1386, 97.458, -52.0466, 43.7181
5.172, 5, 35.8997, 48.2954, -14.1403, 97.4582, -52.0621, 43.7087
5.176, 5, 35.8992, 48.3002, -14.142, 97.4584, -52.0777, 43.6993
5.18, 5, 35.8987, 48.3051, -14.1438, 97.4586, -52.0932, 43.6899
5.184, 5, 35.8983, 48.3099, -14.1455, 97.4589, -52.1088, 43.6805
5.188, 5, 35.8978, 48.3148, -14.1472, 97.4591, -52.1243, 43.6711
5.192, 5, 35.8973, 48.3197, -14.1489, 97.4593, -52.1399, 43.6617
5.196, 5, 35.8969, 48.3245, -14.1506, 97.4595, -52.1554, 43.6523
5.2, 5, 35.8964, 48.3294, -14.1523, 97.4597, -52.171, 43.643
5.204, 5, 35.8959, 48.3342, -14.154, 97.4599, -52.1865, 43.6336
5.208, 5, 35.8955, 48.3391, -14.1557, 97.4601, -52.2021, 43.6242
5.212, 5, 35.895, 48.3439, -14.1574, 97.4603, -52.2176, 43.6148
5.216, 5, 35.8945, 48.3488, -14.1591, 97.4605, -52.2332, 43.6055
5.22, 5, 35.8941, 48.3536, -14.1608, 97.4606, -52.2487, 43.5961
5.224, 5, 35.8936, 48.3585, -14.1625, 97.4608, -52.2643, 43.5867
5.228, 5, 35.8931, 48.3633, -14.1642, 97.461, -52.2798, 43.5774
5.232, 5, 35.8926, 48.3681, -14.1659, 97.4612, -52.2954, 43.568
5.236, 5, 35.8922, 48.373, -14.1676, 97.4613, -52.3109, 43.5587
5.24, 5, 35.8917, 48.3778, -14.1693, 97.4615, -52.3264, 43.5493
5.244, 5, 35.8912, 48.3827, -14.1709, 97.4617, -52.342, 43.54
5.248, 5, 35.8907, 48.3875, -14.1726, 97.4618, -52.3575, 43.5306
5.252, 5, 35.8903, 48.3923, -14.1743, 97.462, -52.3731, 43.5213
5.256, 5, 35.8898, 48.3972, -14.176, 97.4621, -52.3886, 43.5119
5.26, 5, 35.8893, 48.402, -14.1776, 97.4623, -52.4042, 43.5026
5.264, 5, 35.8888, 48.4068, -14.1793, 97.4624, -52.4197, 43.4933
5.268, 5, 35.8883, 48.4117, -14.181, 97.4625, -52.4353, 43.4839
5.272, 5, 35.8879, 48.4165, -14.1827, 97.4627, -52.4508, 43.4746
5.276, 5, 35.8874, 48.4213, -14.1843, 97.4628, -52.4663, 43.4653
5.28, 5, 35.8869, 48.4262, -14.186, 97.4629, -52.4819, 43.456
5.284, 5, 35.8864, 48.431, -14.1876, 97.4631, -52.4974, 43.4467
5.288, 5, 35.8859, 48.4358, -14.1893, 97.4632, -52.513, 43.4374
5.292, 5, 35.8854, 48.4406, -14.191, 97.4633, -52.5285, 43.4281
5.296, 5, 35.8849, 48.4455, -14.1926, 97.4634, -52.544, 43.4187
5.3, 5, 35.8845, 48.4503, -14.1943, 97.4635, -52.5596, 43.4094
5.304, 5, 35.884, 48.4551, -14.1959, 97.4636, -52.5751, 43.4001
5.308, 5, 35.8835, 48.4599, -14.1976, 97.4637, -52.5907, 43.3909
5.312, 5, 35.883, 48.4647, -14.1992, 97.4638, -52.6062, 43.3816
5.316, 5, 35.8825, 48.4696, -14.2009, 97.4639, -52.6217, 43.3723
5.32, 5, 35.882, 48.4744, -14.2025, 97.464, -52.6373, 43.363
5.324, 5, 35.8815, 48.4792, -14.2041, 97.4641, -52.6528, 43.3537
5.328, 5, 35.881, 48.484, -14.2058, 97.4642, -52.6683, 43.3444
5.332, 5, 35.8805, 48.4888, -14.2074, 97.4642, -52.6839, 43.3351
5.336, 5, 35.88, 48.4936, -14.209, 97.4643, -52.6994, 43.3259
5.34, 5, 35.8795, 48.4985, -14.2107, 97.4644, -52.7149, 43.3166
5.344, 5, 35.879, 48.5033, -14.2123, 97.4645, -52.7305, 43.3073
5.348, 5, 35.8785, 48.5081, -14.2139, 97.4645, -52.746, 43.2981
5.352, 5, 35.878, 48.5129, -14.2156, 97.4646, -52.7615, 43.2888
5.356, 5, 35.8775, 48.5177, -14.2172, 97.4646, -52.7771, 43.2796
5.36, 5, 35.877, 48.5225, -14.2188, 97.4647, -52.7926, 43.2703
5.364, 5, 35.8765, 48.5273, -14.2204, 97.4647, -52.8081, 43.2611
5.368, 5, 35.876, 48.5321, -14.222, 97.4648, -52.8237, 43.2518
5.372, 5, 35.8755, 48.5369, -14.2237, 97.4648, -52.8392, 43.2426
5.376, 5, 35.875, 48.5417, -14.2253, 97.4649, -52.8547, 43.2333
5.38, 5, 35.8745, 48.5465, -14.2269, 97.4649, -52.8703, 43.2241
5.384, 5, 35.874, 48.5513, -14.2285, 97.4649, -52.8858, 43.2148
5.388, 5, 35.8735, 48.5561, -14.2301, 97.465, -52.9013, 43.2056
5.392, 5, 35.873, 48.5609, -14.2317, 97.465, -52.9168, 43.1964
5.396, 5, 35.8725, 48.5657, -14.2333, 97.465, -52.9324, 43.1872
5.4, 5, 35.872, 48.5705, -14.2349, 97.465, -52.9479, 43.1779
5.404, 5, 35.8715, 48.5753, -14.2365, 97.465, -52.9634, 43.1687
5.408, 5, 35.871, 48.58, -14.2381, 97.465, -52.979, 43.1595
5.412, 5, 35.8705, 48.5848, -14.2397, 97.465, -52.9945, 43.1503
5.416, 5, 35.8699, 48.5896, -14.2413, 97.4651, -53.01, 43.1411
5.42, 5, 35.8694, 48.5944, -14.2429, 97.4651, -53.0255, 43.1319
5.424, 5, 35.8689, 48.5992, -14.2444, 97.465, -53.0411, 43.1227
5.428, 5, 35.8684, 48.604, -14.246, 97.465, -53.0566, 43.1135
5.432, 5, 35.8679, 48.6088, -14.2476, 97.465, -53.0721, 43.1043
5.436, 5, 35.8674, 48.6135, -14.2492, 97.465, -53.0876, 43.0951
5.44, 5, 35.8669, 48.6183, -14.2508, 97.465, -53.1032, 43.0859
5.444, 5, 35.8663, 48.6231, -14.2523, 97.465, -53.1187, 43.0767
5.448, 5, 35.8658, 48.6279, -14.2539, 97.4649, -53.1342, 43.0675
5.452, 5, 35.8653, 48.6326, -14.2555, 97.4649, -53.1497, 43.0583
5.456, 5, 35.8648, 48.6374, -14.2571, 97.4649, -53.1652, 43.0491
5.46, 5, 35.8643, 48.6422, -14.2586, 97.4648, -53.1808, 43.04
5.464, 5, 35.8638, 48.647, -14.2602, 97.4648, -53.1963, 43.0308
5.468, 5, 35.8632, 48.6517, -14.2617, 97.4648, -53.2118, 43.0216
5.472, 5, 35.8627, 48.6565, -14.2633, 97.4647, -53.2273, 43.0125
5.476, 5, 35.8622, 48.6613, -14.2649, 97.4647, -53.2429, 43.0033
5.48, 5, 35.8617, 48.666, -14.2664, 97.4646, -53.2584, 42.9941
5.484, 5, 35.8611, 48.6708, -14.268, 97.4645, -53.2739, 42.985
5.488, 5, 35.8606, 48.6756, -14.2695, 97.4645, -53.2894, 42.9758
5.492, 5, 35.8601, 48.6803, -14.2711, 97.4644, -53.3049, 42.9667
5.496, 5, 35.8595, 48.6851, -14.2726, 97.4643, -53.3204, 42.9575
5.5, 5, 35.859, 48.6899, -14.2742, 97.4643, -53.336, 42.9484
5.504, 5, 35.8585, 48.6946, -14.2757, 97.4642, -53.3515, 42.9392
5.508, 5, 35.858, 48.6994, -14.2772, 97.4641, -53.367, 42.9301
5.512, 5, 35.8574, 48.7041, -14.2788, 97.464, -53.3825, 42.921
5.516, 5, 35.8569, 48.7089, -14.2803, 97.4639, -53.398, 42.9118
5.52, 5, 35.8564, 48.7136, -14.2819, 97.4639, -53.4135, 42.9027
5.524, 5, 35.8558, 48.7184, -14.2834, 97.4638, -53.4291, 42.8936
5.528, 5, 35.8553, 48.7232, -14.2849, 97.4637, -53.4446, 42.8844
5.532, 5, 35.8548, 48.7279, -14.2864, 97.4636, -53.4601, 42.8753
5.536, 5, 35.8542, 48.7327, -14.288, 97.4635, -53.4756, 42.8662
5.54, 5, 35.8537, 48.7374, -14.2895, 97.4633, -53.4911, 42.8571
5.544, 5, 35.8531, 48.7421, -14.291, 97.4632, -53.5066, 42.848
5.548, 5, 35.8526, 48.7469, -14.2925, 97.4631, -53.5221, 42.8389
5.552, 5, 35.8521, 48.7516, -14.294, 97.463, -53.5376, 42.8298
5.556, 5, 35.8515, 48.7564, -14.2956, 97.4629, -53.5532, 42.8207
5.56, 5, 35.851, 48.7611, -14.2971, 97.4628, -53.5687, 42.8116
5.564, 5, 35.8504, 48.7659, -14.2986, 97.4626, -53.5842, 42.8025
5.568, 5, 35.8499, 48.7706, -14.3001, 97.4625, -53.5997, 42.7934
5.572, 5, 35.8494, 48.7753, -14.3016, 97.4623, -53.6152, 42.7843
5.576, 5, 35.8488, 48.7801, -14.3031, 97.4622, -53.6307, 42.7752
5.58, 5, 35.8483, 48.7848, -14.3046, 97.4621, -53.6462, 42.7661
5.584, 5, 35.8477, 48.7896, -14.3061, 97.4619, -53.6617, 42.757
5.588, 5, 35.8472, 48.7943, -14.3076, 97.4618, -53.6772, 42.748
5.592, 5, 35.8466, 48.799, -14.3091, 97.4616, -53.6927, 42.7389
5.596, 5, 35.8461, 48.8038, -14.3106, 97.4614, -53.7082, 42.7298
5.6, 5, 35.8455, 48.8085, -14.3121, 97.4613, -53.7237, 42.7207
5.604, 5, 35.845, 48.8132, -14.3136, 97.4611, -53.7393, 42.7117
5.608, 5, 35.8444, 48.8179, -14.315, 97.461, -53.7548, 42.7026
5.612, 5, 35.8439, 48.8227, -14.3165, 97.4608, -53.7703, 42.6936
5.616, 5, 35.8433, 48.8274, -14.318, 97.4606, -53.7858, 42.6845
5.62, 5, 35.8428, 48.8321, -14.3195, 97.4604, -53.8013, 42.6754
5.624, 5, 35.8422, 48.8368, -14.321, 97.4603, -53.8168, 42.6664
5.628, 5, 35.8417, 48.8416, -14.3224, 97.4601, -53.8323, 42.6573
5.632, 5, 35.8411, 48.8463, -14.3239, 97.4599, -53.8478, 42.6483
5.636, 5, 35.8406, 48.851, -14.3254, 97.4597, -53.8633, 42.6393
5.64, 5, 35.84, 48.8557, -14.3268, 97.4595, -53.8788, 42.6302
5.644, 5, 35.8394, 48.8604, -14.3283, 97.4593, -53.8943, 42.6212
5.648, 5, 35.8389, 48.8651, -14.3298, 97.4591, -53.9098, 42.6121
5.652, 5, 35.8383, 48.8699, -14.3312, 97.4589, -53.9253, 42.6031
5.656, 5, 35.8378, 48.8746, -14.3327, 97.4587, -53.9408, 42.5941
5.66, 5, 35.8372, 48.8793, -14.3342, 97.4585, -53.9563, 42.5851
5.664, 5, 35.8366, 48.884, -14.3356, 97.4582, -53.9718, 42.576
5.668, 5, 35.8361, 48.8887, -14.3371, 97.458, -53.9873, 42.567
5.672, 5, 35.8355, 48.8934, -14.3385, 97.4578, -54.0028, 42.558
5.676, 5, 35.8349, 48.8981, -14.34, 97.4576, -54.0183, 42.549
5.68, 5, 35.8344, 48.9028, -14.3414, 97.4573, -54.0338, 42.54
5.684, 5, 35.8338, 48.9075, -14.3429, 97.4571, -54.0493, 42.531
5.688, 5, 35.8332, 48.9122, -14.3443, 97.4569, -54.0648, 42.522
5.692, 5, 35.8327, 48.9169, -14.3457, 97.4566, -54.0803, 42.513
5.696, 5, 35.8321, 48.9216, -14.3472, 97.4564, -54.0957, 42.504
5.7, 5, 35.8315, 48.9263, -14.3486, 97.4561, -54.1112, 42.495
5.704, 5, 35.831, 48.931, -14.35, 97.4559, -54.1267, 42.486
5.708, 5, 35.8304, 48.9357, -14.3515, 97.4556, -54.1422, 42.477
5.712, 5, 35.8298, 48.9404, -14.3529, 97.4554, -54.1577, 42.468
5.716, 5, 35.8293, 48.9451, -14.3543, 97.4551, -54.1732, 42.459
5.72, 5, 35.8287, 48.9498, -14.3557, 97.4548, -54.1887, 42.4501
5.724, 5, 35.8281, 48.9545, -14.3572, 97.4546, -54.2042, 42.4411
5.728, 5, 35.8275, 48.9592, -14.3586, 97.4543, -54.2197, 42.4321
5.732, 5, 35.827, 48.9638, -14.36, 97.454, -54.2352, 42.4231
5.736, 5, 35.8264, 48.9685, -14.3614, 97.4537, -54.2507, 42.4142
5.74, 5, 35.8258, 48.9732, -14.3628, 97.4534, -54.2662, 42.4052
5.744, 5, 35.8252, 48.9779, -14.3642, 97.4532, -54.2817, 42.3962
5.748, 5, 35.8246, 48.9826, -14.3656, 97.4529, -54.2971, 42.3873
5.752, 5, 35.8241, 48.9873, -14.3671, 97.4526, -54.3126, 42.3783
5.756, 5, 35.8235, 48.9919, -14.3685, 97.4523, -54.3281, 42.3694
5.76, 5, 35.8229, 48.9966, -14.3699, 97.452, -54.3436, 42.3604
5.764, 5, 35.8223, 49.0013, -14.3713, 97.4517, -54.3591, 42.3515
5.768, 5, 35.8217, 49.006, -14.3727, 97.4514, -54.3746, 42.3425
5.772, 5, 35.8211, 49.0107, -14.3741, 97.4511, -54.3901, 42.3336
5.776, 5, 35.8206, 49.0153, -14.3754, 97.4508, -54.4056, 42.3246
5.78, 5, 35.82, 49.02, -14.3768, 97.4504, -54.421, 42.3157
5.784, 5, 35.8194, 49.0247, -14.3782, 97.4501, -54.4365, 42.3068
5.788, 5, 35.8188, 49.0293, -14.3796, 97.4498, -54.452, 42.2978
5.792, 5, 35.8182, 49.034, -14.381, 97.4495, -54.4675, 42.2889
5.796, 5, 35.8176, 49.0387, -14.3824, 97.4491, -54.483, 42.28
5.8, 5, 35.817, 49.0433, -14.3838, 97.4488, -54.4985, 42.2711
5.804, 5, 35.8164, 49.048, -14.3851, 97.4485, -54.5139, 42.2621
5.808, 5, 35.8158, 49.0527, -14.3865, 97.4481, -54.5294, 42.2532
5.812, 5, 35.8153, 49.0573, -14.3879, 97.4478, -54.5449, 42.2443
5.816, 5, 35.8147, 49.062, -14.3892, 97.4474, -54.5604, 42.2354
5.82, 5, 35.8141, 49.0667, -14.3906, 97.4471, -54.5759, 42.2265
5.824, 5, 35.8135, 49.0713, -14.392, 97.4467, -54.5914, 42.2176
5.828, 5, 35.8129, 49.076, -14.3933, 97.4464, -54.6068, 42.2087
5.832, 5, 35.8123, 49.0806, -14.3947, 97.446, -54.6223, 42.1998
5.836, 5, 35.8117, 49.0853, -14.3961, 97.4456, -54.6378, 42.1909
5.84, 5, 35.8111, 49.0899, -14.3974, 97.4453, -54.6533, 42.182
5.844, 5, 35.8105, 49.0946, -14.3988, 97.4449, -54.6687, 42.1731
5.848, 5, 35.8099, 49.0992, -14.4001, 97.4445, -54.6842, 42.1642
5.852, 5, 35.8093, 49.1039, -14.4015, 97.4442, -54.6997, 42.1553
5.856, 5, 35.8087, 49.1085, -14.4028, 97.4438, -54.7152, 42.1464
5.86, 5, 35.8081, 49.1132, -14.4042, 97.4434, -54.7307, 42.1376
5.864, 5, 35.8075, 49.1178, -14.4055, 97.443, -54.7461, 42.1287
5.868, 5, 35.8069, 49.1225, -14.4069, 97.4426, -54.7616, 42.1198
5.872, 5, 35.8063, 49.1271, -14.4082, 97.4422, -54.7771, 42.1109
5.876, 5, 35.8057, 49.1317, -14.4095, 97.4418, -54.7926, 42.1021
5.88, 5, 35.8051, 49.1364, -14.4109, 97.4414, -54.808, 42.0932
5.884, 5, 35.8044, 49.141, -14.4122, 97.441, -54.8235, 42.0843
5.888, 5, 35.8038, 49.1457, -14.4135, 97.4406, -54.839, 42.0755
5.892, 5, 35.8032, 49.1503, -14.4149, 97.4402, -54.8545, 42.0666
5.896, 5, 35.8026, 49.1549, -14.4162, 97.4398, -54.8699, 42.0578
5.9, 5, 35.802, 49.1596, -14.4175, 97.4394, -54.8854, 42.0489
5.904, 5, 35.8014, 49.1642, -14.4188, 97.439, -54.9009, 42.0401
5.908, 5, 35.8008, 49.1688, -14.4202, 97.4385, -54.9163, 42.0312
5.912, 5, 35.8002, 49.1735, -14.4215, 97.4381, -54.9318, 42.0224
5.916, 5, 35.7996, 49.1781, -14.4228, 97.4377, -54.9473, 42.0135
5.92, 5, 35.7989, 49.1827, -14.4241, 97.4373, -54.9627, 42.0047
5.924, 5, 35.7983, 49.1873, -14.4254, 97.4368, -54.9782, 41.9958
5.928, 5, 35.7977, 49.192, -14.4267, 97.4364, -54.9937, 41.987
5.932, 5, 35.7971, 49.1966, -14.428, 97.4359, -55.0092, 41.9782
5.936, 5, 35.7965, 49.2012, -14.4293, 97.4355, -55.0246, 41.9694
5.94, 5, 35.7959, 49.2058, -14.4306, 97.435, -55.0401, 41.9605
5.944, 5, 35.7952, 49.2104, -14.4319, 97.4346, -55.0556, 41.9517
5.948, 5, 35.7946, 49.2151, -14.4332, 97.4341, -55.071, 41.9429
5.952, 5, 35.794, 49.2197, -14.4345, 97.4337, -55.0865, 41.9341
5.956, 5, 35.7934, 49.2243, -14.4358, 97.4332, -55.102, 41.9253
5.96, 5, 35.7928, 49.2289, -14.4371, 97.4327, -55.1174, 41.9164
5.964, 5, 35.7921, 49.2335, -14.4384, 97.4323, -55.1329, 41.9076
5.968, 5, 35.7915, 49.2381, -14.4397, 97.4318, -55.1483, 41.8988
5.972, 5, 35.7909, 49.2427, -14.441, 97.4313, -55.1638, 41.89
5.976, 5, 35.7903, 49.2474, -14.4423, 97.4308, -55.1793, 41.8812
5.98, 5, 35.7896, 49.252, -14.4435, 97.4304, -55.1947, 41.8724
5.984, 5, 35.789, 49.2566, -14.4448, 97.4299, -55.2102, 41.8636
5.988, 5, 35.7884, 49.2612, -14.4461, 97.4294, -55.2257, 41.8548
5.992, 5, 35.7877, 49.2658, -14.4474, 97.4289, -55.2411, 41.8461
5.996, 5, 35.7871, 49.2704, -14.4486, 97.4284, -55.2566, 41.8373
6, 5, 35.7865, 49.275, -14.4499, 97.4279, -55.272, 41.8285
6.004, 5, 35.7858, 49.2796, -14.4512, 97.4274, -55.2875, 41.8197
6.008, 5, 35.7852, 49.2842, -14.4524, 97.4269, -55.303, 41.8109
6.012, 5, 35.7846, 49.2888, -14.4537, 97.4264, -55.3184, 41.8021
6.016, 5, 35.7839, 49.2934, -14.4549, 97.4259, -55.3339, 41.7934
