hehonglu123/ABB_Primitive_Study/execution/blade/curve_exe_v300_z1.csv
timestamp, cmd_num, J1, J2, J3, J4, J5, J6
0, -1, 29.9929, 48.8333, 1.53404, 84.3822, -82.855, 37.0358
0.002, -1, 29.9929, 48.8333, 1.53404, 84.3822, -82.855, 37.0358
0.006, -1, 29.9929, 48.8333, 1.53404, 84.3822, -82.855, 37.0358
0.008, -1, 29.9929, 48.8333, 1.53404, 84.3822, -82.855, 37.0358
0.011, -1, 29.9929, 48.8333, 1.53404, 84.3822, -82.855, 37.0358
0.016, -1, 29.9929, 48.8333, 1.53404, 84.3822, -82.855, 37.0358
0.02, -1, 29.9929, 48.8333, 1.53404, 84.3822, -82.855, 37.0358
0.024, -1, 29.9929, 48.8333, 1.53404, 84.3822, -82.855, 37.0358
0.028, -1, 29.9929, 48.8333, 1.53404, 84.3822, -82.855, 37.0358
0.032, -1, 29.993, 48.8333, 1.53404, 84.3822, -82.855, 37.0358
0.036, -1, 29.993, 48.8333, 1.53404, 84.3822, -82.855, 37.0358
0.04, -1, 29.9933, 48.8332, 1.53402, 84.3822, -82.855, 37.0358
0.044, -1, 29.9938, 48.833, 1.53395, 84.3823, -82.8549, 37.0358
0.048, -1, 29.9948, 48.8325, 1.53379, 84.3823, -82.8548, 37.0358
0.052, -1, 29.9964, 48.8318, 1.53345, 84.3825, -82.8543, 37.0359
0.056, -1, 29.9986, 48.8306, 1.53283, 84.3829, -82.8534, 37.0361
0.06, -1, 30.0015, 48.8289, 1.53176, 84.3835, -82.8518, 37.0365
0.064, -1, 30.005, 48.8267, 1.53002, 84.3847, -82.8489, 37.0371
0.068, -1, 30.0092, 48.824, 1.52738, 84.3866, -82.8443, 37.0381
0.072, -1, 30.0141, 48.821, 1.52352, 84.3895, -82.8373, 37.0397
0.076, -1, 30.0196, 48.8176, 1.51811, 84.3936, -82.8273, 37.0419
0.08, -1, 30.026, 48.814, 1.51078, 84.3993, -82.8136, 37.045
0.084, -1, 30.0333, 48.8103, 1.50113, 84.4069, -82.7952, 37.0491
0.088, -1, 30.0415, 48.8067, 1.48876, 84.4168, -82.7713, 37.0544
0.092, -1, 30.0505, 48.8033, 1.4733, 84.4294, -82.7411, 37.0611
0.096, -1, 30.0602, 48.8002, 1.45441, 84.4448, -82.7039, 37.0694
0.1, -1, 30.0707, 48.7976, 1.4318, 84.4635, -82.659, 37.0794
0.104, -1, 30.0817, 48.7956, 1.40529, 84.4856, -82.6061, 37.0913
0.108, -1, 30.0933, 48.7941, 1.37476, 84.5112, -82.5447, 37.1049
0.112, -1, 30.1055, 48.7932, 1.34022, 84.5402, -82.4751, 37.1205
0.116, -1, 30.1185, 48.7927, 1.30174, 84.5727, -82.3974, 37.1379
0.12, -1, 30.1323, 48.7927, 1.25953, 84.6083, -82.312, 37.1569
0.124, -1, 30.1469, 48.793, 1.21383, 84.6469, -82.2196, 37.1776
0.128, -1, 30.1623, 48.7937, 1.16497, 84.6882, -82.1206, 37.1997
0.131, -1, 30.1783, 48.7946, 1.11332, 84.7319, -82.016, 37.2231
0.136, -1, 30.1948, 48.7955, 1.05927, 84.7776, -81.9066, 37.2476
0.139, -1, 30.212, 48.7963, 1.00321, 84.825, -81.7932, 37.2729
0.144, -1, 30.2298, 48.7968, 0.945529, 84.8736, -81.6766, 37.299
0.148, -1, 30.2485, 48.7968, 0.886585, 84.9233, -81.5576, 37.3256
0.152, -1, 30.2681, 48.7963, 0.826699, 84.9737, -81.4368, 37.3525
0.156, -1, 30.2885, 48.7951, 0.766138, 85.0246, -81.3148, 37.3798
0.16, -1, 30.3097, 48.7935, 0.705122, 85.0758, -81.1921, 37.4072
0.164, -1, 30.3317, 48.7916, 0.643816, 85.1272, -81.0689, 37.4348
0.168, -1, 30.3541, 48.7893, 0.582346, 85.1787, -80.9454, 37.4623
0.172, -1, 30.3768, 48.7869, 0.520796, 85.2303, -80.8218, 37.49
0.176, -1, 30.3997, 48.7844, 0.459227, 85.2819, -80.6982, 37.5176
0.18, -1, 30.4228, 48.7818, 0.397677, 85.3334, -80.5746, 37.5452
0.184, -1, 30.446, 48.7791, 0.336173, 85.3849, -80.4512, 37.5727
0.188, -1, 30.4691, 48.7764, 0.274733, 85.4363, -80.3279, 37.6003
0.192, -1, 30.4923, 48.7737, 0.213369, 85.4876, -80.2048, 37.6278
0.196, -1, 30.5155, 48.771, 0.152089, 85.5389, -80.0818, 37.6552
0.2, -1, 30.5387, 48.7682, 0.0908988, 85.5901, -79.9591, 37.6827
0.204, -1, 30.5619, 48.7655, 0.0298009, 85.6413, -79.8365, 37.7101
0.208, -1, 30.585, 48.7627, -0.0312022, 85.6923, -79.7141, 37.7374
0.212, -1, 30.6081, 48.76, -0.0921092, 85.7433, -79.5919, 37.7647
0.216, -1, 30.6311, 48.7573, -0.152919, 85.7942, -79.4699, 37.7919
0.22, -1, 30.6542, 48.7545, -0.213632, 85.845, -79.3481, 37.8191
0.224, -1, 30.6772, 48.7518, -0.274248, 85.8957, -79.2264, 37.8463
0.228, -1, 30.7001, 48.749, -0.334767, 85.9463, -79.105, 37.8734
0.232, -1, 30.723, 48.7463, -0.395188, 85.9969, -78.9838, 37.9005
0.236, -1, 30.7459, 48.7436, -0.455513, 86.0474, -78.8628, 37.9276
0.24, -1, 30.7688, 48.7409, -0.515741, 86.0978, -78.7419, 37.9545
0.244, -1, 30.7916, 48.7381, -0.575873, 86.1481, -78.6213, 37.9815
0.248, -1, 30.8144, 48.7354, -0.635909, 86.1983, -78.5008, 38.0084
0.252, -1, 30.8371, 48.7327, -0.69585, 86.2485, -78.3806, 38.0353
0.256, -1, 30.8598, 48.73, -0.755696, 86.2986, -78.2605, 38.0621
0.26, -1, 30.8825, 48.7273, -0.815448, 86.3486, -78.1406, 38.0889
0.264, -1, 30.9051, 48.7246, -0.875105, 86.3985, -78.0209, 38.1156
0.268, -1, 30.9277, 48.7219, -0.934668, 86.4483, -77.9014, 38.1423
0.272, -1, 30.9503, 48.7192, -0.994138, 86.4981, -77.7821, 38.1689
0.276, -1, 30.9728, 48.7166, -1.05351, 86.5478, -77.663, 38.1955
0.28, -1, 30.9953, 48.7139, -1.1128, 86.5974, -77.5441, 38.2221
0.284, -1, 31.0177, 48.7112, -1.17199, 86.6469, -77.4253, 38.2486
0.288, -1, 31.0402, 48.7085, -1.23109, 86.6964, -77.3067, 38.2751
0.292, -1, 31.0625, 48.7059, -1.2901, 86.7458, -77.1883, 38.3016
0.296, -1, 31.0849, 48.7032, -1.34902, 86.7951, -77.0701, 38.328
0.3, -1, 31.1072, 48.7005, -1.40784, 86.8443, -76.9521, 38.3543
0.304, -1, 31.1295, 48.6979, -1.46658, 86.8934, -76.8343, 38.3807
0.308, -1, 31.1517, 48.6952, -1.52522, 86.9425, -76.7166, 38.407
0.312, -1, 31.174, 48.6926, -1.58378, 86.9915, -76.5991, 38.4332
0.316, -1, 31.1961, 48.6899, -1.64225, 87.0404, -76.4818, 38.4594
0.32, -1, 31.2183, 48.6873, -1.70063, 87.0893, -76.3647, 38.4856
0.324, -1, 31.2404, 48.6847, -1.75892, 87.1381, -76.2477, 38.5117
0.328, -1, 31.2625, 48.682, -1.81712, 87.1868, -76.131, 38.5378
0.332, -1, 31.2845, 48.6794, -1.87523, 87.2354, -76.0144, 38.5638
0.336, -1, 31.3065, 48.6768, -1.93326, 87.2839, -75.898, 38.5898
0.34, -1, 31.3285, 48.6742, -1.9912, 87.3324, -75.7817, 38.6158
0.344, -1, 31.3505, 48.6716, -2.04905, 87.3808, -75.6656, 38.6417
0.348, -1, 31.3724, 48.669, -2.10682, 87.4292, -75.5498, 38.6676
0.352, -1, 31.3943, 48.6664, -2.1645, 87.4774, -75.434, 38.6935
0.356, -1, 31.4161, 48.6637, -2.22209, 87.5256, -75.3185, 38.7193
0.36, -1, 31.4379, 48.6611, -2.2796, 87.5738, -75.2031, 38.745
0.364, -1, 31.4597, 48.6586, -2.33702, 87.6218, -75.0879, 38.7708
0.368, -1, 31.4815, 48.656, -2.39436, 87.6698, -74.9728, 38.7965
0.372, -1, 31.5032, 48.6534, -2.45162, 87.7177, -74.858, 38.8221
0.376, -1, 31.5249, 48.6508, -2.50879, 87.7655, -74.7433, 38.8477
0.38, -1, 31.5465, 48.6482, -2.56588, 87.8133, -74.6287, 38.8733
0.384, -1, 31.5682, 48.6456, -2.62288, 87.861, -74.5144, 38.8989
0.388, -1, 31.5898, 48.6431, -2.6798, 87.9086, -74.4002, 38.9244
0.392, -1, 31.6113, 48.6405, -2.73664, 87.9562, -74.2861, 38.9499
0.396, -1, 31.6329, 48.6379, -2.7934, 88.0037, -74.1723, 38.9753
0.4, -1, 31.6544, 48.6354, -2.85007, 88.0511, -74.0586, 39.0007
0.404, -1, 31.6758, 48.6328, -2.90666, 88.0985, -73.945, 39.0261
0.408, -1, 31.6973, 48.6303, -2.96317, 88.1458, -73.8316, 39.0514
0.412, -1, 31.7187, 48.6277, -3.0196, 88.193, -73.7184, 39.0767
0.416, -1, 31.74, 48.6252, -3.07595, 88.2401, -73.6054, 39.1019
0.42, -1, 31.7614, 48.6226, -3.13222, 88.2872, -73.4925, 39.1271
0.424, -1, 31.7827, 48.6201, -3.18841, 88.3342, -73.3798, 39.1523
0.428, -1, 31.804, 48.6175, -3.24451, 88.3812, -73.2672, 39.1775
0.432, -1, 31.8252, 48.615, -3.30054, 88.4281, -73.1548, 39.2026
0.436, -1, 31.8465, 48.6125, -3.35649, 88.4749, -73.0425, 39.2277
0.44, -1, 31.8677, 48.61, -3.41236, 88.5216, -72.9304, 39.2527
0.444, -1, 31.8888, 48.6074, -3.46815, 88.5683, -72.8185, 39.2777
0.448, -1, 31.91, 48.6049, -3.52387, 88.615, -72.7067, 39.3027
0.452, -1, 31.9311, 48.6024, -3.57951, 88.6615, -72.5951, 39.3276
0.456, -1, 31.9522, 48.5999, -3.63506, 88.708, -72.4836, 39.3525
0.46, -1, 31.9732, 48.5974, -3.69055, 88.7544, -72.3723, 39.3774
0.464, -1, 31.9942, 48.5949, -3.74595, 88.8008, -72.2611, 39.4022
0.468, -1, 32.0152, 48.5924, -3.80128, 88.8471, -72.1501, 39.427
0.472, -1, 32.0362, 48.5899, -3.85653, 88.8933, -72.0393, 39.4518
0.476, -1, 32.0571, 48.5874, -3.91171, 88.9395, -71.9286, 39.4765
0.48, -1, 32.078, 48.5849, -3.96681, 88.9856, -71.818, 39.5012
0.484, -1, 32.0989, 48.5824, -4.02184, 89.0317, -71.7076, 39.5258
0.488, -1, 32.1197, 48.5799, -4.07679, 89.0776, -71.5974, 39.5505
0.492, -1, 32.1406, 48.5774, -4.13167, 89.1236, -71.4873, 39.5751
0.496, -1, 32.1614, 48.575, -4.18647, 89.1694, -71.3773, 39.5996
0.5, -1, 32.1821, 48.5725, -4.2412, 89.2152, -71.2675, 39.6241
0.504, -1, 32.2028, 48.57, -4.29586, 89.261, -71.1579, 39.6486
0.508, -1, 32.2236, 48.5676, -4.35044, 89.3066, -71.0484, 39.6731
0.512, -1, 32.2442, 48.5651, -4.40495, 89.3522, -70.939, 39.6975
0.516, -1, 32.2649, 48.5626, -4.45939, 89.3978, -70.8298, 39.7219
0.52, -1, 32.2855, 48.5602, -4.51375, 89.4433, -70.7207, 39.7463
0.524, -1, 32.3061, 48.5577, -4.56805, 89.4887, -70.6118, 39.7706
0.528, -1, 32.3267, 48.5553, -4.62227, 89.5341, -70.503, 39.7949
0.532, -1, 32.3472, 48.5528, -4.67642, 89.5794, -70.3943, 39.8192
0.536, -1, 32.3677, 48.5504, -4.73049, 89.6247, -70.2858, 39.8434
0.54, -1, 32.3882, 48.5479, -4.7845, 89.6699, -70.1775, 39.8676
0.544, -1, 32.4087, 48.5455, -4.83844, 89.715, -70.0693, 39.8918
0.548, -1, 32.4291, 48.5431, -4.8923, 89.7601, -69.9612, 39.916
0.552, -1, 32.4495, 48.5406, -4.9461, 89.8051, -69.8533, 39.9401
0.556, -1, 32.4699, 48.5382, -4.99983, 89.85, -69.7455, 39.9641
0.56, -1, 32.4903, 48.5358, -5.05348, 89.8949, -69.6378, 39.9882
0.564, -1, 32.5106, 48.5334, -5.10707, 89.9398, -69.5303, 40.0122
0.568, -1, 32.5309, 48.5309, -5.16059, 89.9846, -69.4229, 40.0362
0.572, -1, 32.5512, 48.5285, -5.21404, 90.0293, -69.3157, 40.0601
0.576, -1, 32.5714, 48.5261, -5.26742, 90.074, -69.2086, 40.0841
0.58, -1, 32.5916, 48.5237, -5.32073, 90.1186, -69.1016, 40.108
0.584, -1, 32.6118, 48.5213, -5.37398, 90.1631, -68.9948, 40.1318
0.588, -1, 32.632, 48.5189, -5.42716, 90.2076, -68.8881, 40.1557
0.592, -1, 32.6522, 48.5165, -5.48026, 90.2521, -68.7816, 40.1795
0.596, -1, 32.6723, 48.5141, -5.53331, 90.2965, -68.6752, 40.2032
0.6, -1, 32.6924, 48.5117, -5.58628, 90.3408, -68.5689, 40.227
0.604, -1, 32.7125, 48.5093, -5.63919, 90.3851, -68.4627, 40.2507
0.608, -1, 32.7325, 48.5069, -5.69203, 90.4293, -68.3567, 40.2744
0.612, -1, 32.7525, 48.5045, -5.74481, 90.4734, -68.2508, 40.298
0.616, -1, 32.7725, 48.5021, -5.79752, 90.5175, -68.1451, 40.3216
0.62, -1, 32.7925, 48.4998, -5.85017, 90.5616, -68.0394, 40.3452
0.624, -1, 32.8124, 48.4974, -5.90275, 90.6056, -67.9339, 40.3688
0.628, -1, 32.8324, 48.495, -5.95526, 90.6495, -67.8286, 40.3923
0.632, -1, 32.8523, 48.4926, -6.00771, 90.6934, -67.7234, 40.4158
0.636, -1, 32.8721, 48.4903, -6.06009, 90.7373, -67.6182, 40.4393
0.64, -1, 32.892, 48.4879, -6.11241, 90.781, -67.5133, 40.4628
0.644, -1, 32.9118, 48.4856, -6.16467, 90.8248, -67.4084, 40.4862
0.648, -1, 32.9316, 48.4832, -6.21686, 90.8685, -67.3037, 40.5096
0.652, -1, 32.9514, 48.4808, -6.26899, 90.9121, -67.1991, 40.5329
0.656, -1, 32.9711, 48.4785, -6.32106, 90.9556, -67.0947, 40.5563
0.66, -1, 32.9908, 48.4761, -6.37306, 90.9991, -66.9903, 40.5796
0.664, -1, 33.0106, 48.4738, -6.425, 91.0426, -66.8861, 40.6028
0.668, -1, 33.0302, 48.4714, -6.47687, 91.086, -66.7821, 40.6261
0.672, -1, 33.0499, 48.4691, -6.52868, 91.1294, -66.6781, 40.6493
0.676, -1, 33.0695, 48.4668, -6.58043, 91.1727, -66.5743, 40.6725
0.68, -1, 33.0891, 48.4644, -6.63212, 91.2159, -66.4706, 40.6957
0.684, -1, 33.1087, 48.4621, -6.68375, 91.2591, -66.367, 40.7188
0.688, -1, 33.1283, 48.4598, -6.73531, 91.3023, -66.2635, 40.7419
0.692, -1, 33.1478, 48.4574, -6.78682, 91.3454, -66.1602, 40.765
0.696, -1, 33.1673, 48.4551, -6.83826, 91.3884, -66.057, 40.7881
0.7, -1, 33.1868, 48.4528, -6.88964, 91.4314, -65.9539, 40.8111
0.704, -1, 33.2063, 48.4505, -6.94096, 91.4744, -65.851, 40.8341
0.708, -1, 33.2257, 48.4482, -6.99222, 91.5173, -65.7481, 40.8571
0.712, -1, 33.2452, 48.4458, -7.04342, 91.5601, -65.6454, 40.88
0.716, -1, 33.2646, 48.4435, -7.09456, 91.6029, -65.5428, 40.9029
0.72, -1, 33.2839, 48.4412, -7.14564, 91.6457, -65.4403, 40.9258
0.724, -1, 33.3033, 48.4389, -7.19666, 91.6883, -65.3379, 40.9487
0.728, -1, 33.3226, 48.4366, -7.24762, 91.731, -65.2357, 40.9715
0.732, -1, 33.3419, 48.4343, -7.29852, 91.7736, -65.1336, 40.9943
0.736, -1, 33.3612, 48.432, -7.34936, 91.8161, -65.0316, 41.0171
0.74, -1, 33.3805, 48.4297, -7.40015, 91.8586, -64.9297, 41.0399
0.744, -1, 33.3997, 48.4274, -7.45087, 91.9011, -64.8279, 41.0626
0.748, -1, 33.4189, 48.4251, -7.50153, 91.9435, -64.7263, 41.0853
0.752, -1, 33.4381, 48.4228, -7.55214, 91.9858, -64.6247, 41.108
0.756, -1, 33.4573, 48.4206, -7.60269, 92.0281, -64.5233, 41.1306
0.76, -1, 33.4765, 48.4183, -7.65318, 92.0704, -64.422, 41.1533
0.764, -1, 33.4956, 48.416, -7.70362, 92.1126, -64.3208, 41.1759
0.768, -1, 33.5147, 48.4137, -7.75399, 92.1547, -64.2197, 41.1985
0.772, -1, 33.5338, 48.4115, -7.80431, 92.1968, -64.1188, 41.221
0.776, -1, 33.5529, 48.4092, -7.85457, 92.2389, -64.018, 41.2435
0.78, -1, 33.5719, 48.4069, -7.90478, 92.2809, -63.9172, 41.266
0.784, -1, 33.5909, 48.4046, -7.95493, 92.3229, -63.8166, 41.2885
0.788, -1, 33.6099, 48.4024, -8.00502, 92.3648, -63.7161, 41.311
0.792, -1, 33.6289, 48.4001, -8.05505, 92.4066, -63.6157, 41.3334
0.796, -1, 33.6479, 48.3979, -8.10503, 92.4485, -63.5154, 41.3558
0.8, -1, 33.6668, 48.3956, -8.15496, 92.4902, -63.4153, 41.3782
0.804, -1, 33.6857, 48.3934, -8.20482, 92.532, -63.3152, 41.4005
0.808, -1, 33.7046, 48.3911, -8.25464, 92.5737, -63.2153, 41.4228
0.812, -1, 33.7235, 48.3889, -8.30439, 92.6153, -63.1155, 41.4451
0.816, -1, 33.7424, 48.3866, -8.3541, 92.6569, -63.0158, 41.4674
0.82, -1, 33.7612, 48.3844, -8.40374, 92.6984, -62.9161, 41.4897
0.824, -1, 33.78, 48.3821, -8.45333, 92.7399, -62.8166, 41.5119
0.828, -1, 33.7988, 48.3799, -8.50287, 92.7814, -62.7173, 41.5341
0.832, -1, 33.8176, 48.3776, -8.55236, 92.8228, -62.618, 41.5563
0.836, -1, 33.8363, 48.3754, -8.60179, 92.8642, -62.5188, 41.5784
0.84, -1, 33.855, 48.3732, -8.65116, 92.9055, -62.4197, 41.6005
0.844, -1, 33.8738, 48.3709, -8.70049, 92.9467, -62.3208, 41.6226
0.848, -1, 33.8925, 48.3687, -8.74975, 92.988, -62.2219, 41.6447
0.852, -1, 33.9111, 48.3665, -8.79897, 93.0292, -62.1232, 41.6668
0.856, -1, 33.9298, 48.3643, -8.84813, 93.0703, -62.0246, 41.6888
0.86, -1, 33.9484, 48.3621, -8.89725, 93.1114, -61.926, 41.7108
0.864, -1, 33.967, 48.3598, -8.9463, 93.1524, -61.8276, 41.7328
0.868, -1, 33.9856, 48.3576, -8.99531, 93.1935, -61.7293, 41.7548
0.872, -1, 34.0042, 48.3554, -9.04426, 93.2344, -61.6311, 41.7767
0.876, -1, 34.0227, 48.3532, -9.09317, 93.2753, -61.5329, 41.7986
0.88, -1, 34.0413, 48.351, -9.14202, 93.3162, -61.4349, 41.8205
0.884, -1, 34.0598, 48.3488, -9.19082, 93.3571, -61.337, 41.8424
0.888, -1, 34.0783, 48.3466, -9.23956, 93.3979, -61.2392, 41.8642
0.892, -1, 34.0967, 48.3444, -9.28826, 93.4386, -61.1415, 41.8861
0.896, -1, 34.1152, 48.3422, -9.33691, 93.4793, -61.0439, 41.9079
0.9, -1, 34.1336, 48.34, -9.3855, 93.52, -60.9464, 41.9296
0.904, -1, 34.152, 48.3378, -9.43405, 93.5606, -60.849, 41.9514
0.908, -1, 34.1704, 48.3356, -9.48254, 93.6012, -60.7517, 41.9731
0.912, -1, 34.1888, 48.3334, -9.53098, 93.6417, -60.6545, 41.9948
0.916, -1, 34.2072, 48.3312, -9.57938, 93.6822, -60.5574, 42.0165
0.92, -1, 34.2255, 48.329, -9.62772, 93.7227, -60.4604, 42.0382
0.924, -1, 34.2438, 48.3269, -9.67601, 93.7631, -60.3636, 42.0598
0.928, -1, 34.2621, 48.3247, -9.72426, 93.8034, -60.2668, 42.0815
0.932, -1, 34.2804, 48.3225, -9.77246, 93.8438, -60.1701, 42.1031
0.936, -1, 34.2987, 48.3203, -9.8206, 93.8841, -60.0735, 42.1246
0.94, -1, 34.3169, 48.3182, -9.8687, 93.9243, -59.977, 42.1462
0.944, -1, 34.3351, 48.316, -9.91674, 93.9645, -59.8806, 42.1677
0.948, -1, 34.3534, 48.3138, -9.96474, 94.0047, -59.7843, 42.1892
0.952, -1, 34.3715, 48.3116, -10.0127, 94.0448, -59.6881, 42.2107
0.956, -1, 34.3897, 48.3095, -10.0606, 94.0849, -59.592, 42.2322
0.96, -1, 34.4079, 48.3073, -10.1085, 94.1249, -59.4959, 42.2536
0.964, -1, 34.426, 48.3052, -10.1563, 94.1649, -59.4, 42.2751
0.968, -1, 34.4441, 48.303, -10.204, 94.2049, -59.3042, 42.2965
0.972, -1, 34.4622, 48.3008, -10.2517, 94.2448, -59.2085, 42.3179
0.976, -1, 34.4803, 48.2987, -10.2994, 94.2847, -59.1129, 42.3392
0.98, -1, 34.4984, 48.2965, -10.347, 94.3246, -59.0173, 42.3606
0.984, -1, 34.5164, 48.2944, -10.3946, 94.3644, -58.9219, 42.3819
0.988, -1, 34.5344, 48.2922, -10.4421, 94.4041, -58.8266, 42.4032
0.992, -1, 34.5524, 48.2901, -10.4896, 94.4439, -58.7313, 42.4244
0.996, -1, 34.5704, 48.2879, -10.537, 94.4835, -58.6362, 42.4457
1, -1, 34.5884, 48.2858, -10.5844, 94.5232, -58.5411, 42.4669
1.004, -1, 34.6064, 48.2837, -10.6317, 94.5628, -58.4461, 42.4881
1.008, -1, 34.6243, 48.2815, -10.679, 94.6024, -58.3512, 42.5093
1.012, -1, 34.6422, 48.2794, -10.7262, 94.6419, -58.2565, 42.5305
1.016, -1, 34.6601, 48.2773, -10.7734, 94.6814, -58.1618, 42.5517
1.02, -1, 34.678, 48.2751, -10.8206, 94.7209, -58.0672, 42.5728
1.024, -1, 34.6959, 48.273, -10.8677, 94.7603, -57.9727, 42.5939
1.027, -1, 34.7137, 48.2709, -10.9147, 94.7996, -57.8783, 42.615
1.032, -1, 34.7316, 48.2687, -10.9618, 94.839, -57.7839, 42.6361
1.036, -1, 34.7494, 48.2666, -11.0087, 94.8783, -57.6897, 42.6571
1.04, -1, 34.7672, 48.2645, -11.0557, 94.9176, -57.5956, 42.6781
1.044, -1, 34.785, 48.2624, -11.1025, 94.9568, -57.5015, 42.6992
1.048, -1, 34.8027, 48.2603, -11.1494, 94.996, -57.4075, 42.7201
1.052, -1, 34.8205, 48.2582, -11.1962, 95.0351, -57.3137, 42.7411
1.055, -1, 34.8382, 48.256, -11.2429, 95.0742, -57.2199, 42.7621
1.06, -1, 34.8559, 48.2539, -11.2896, 95.1133, -57.1262, 42.783
1.064, -1, 34.8736, 48.2518, -11.3362, 95.1524, -57.0326, 42.8039
1.068, -1, 34.8913, 48.2497, -11.3829, 95.1914, -56.9391, 42.8248
1.072, -1, 34.909, 48.2476, -11.4294, 95.2303, -56.8456, 42.8457
1.076, -1, 34.9266, 48.2455, -11.4759, 95.2693, -56.7523, 42.8665
1.08, -1, 34.9442, 48.2434, -11.5224, 95.3082, -56.659, 42.8873
1.084, -1, 34.9618, 48.2413, -11.5689, 95.347, -56.5659, 42.9081
1.088, -1, 34.9795, 48.2392, -11.6153, 95.3858, -56.4728, 42.9289
1.091, -1, 34.997, 48.2371, -11.6616, 95.4246, -56.3798, 42.9497
1.096, -1, 35.0146, 48.235, -11.7079, 95.4634, -56.2869, 42.9705
1.1, -1, 35.0321, 48.2329, -11.7542, 95.5021, -56.1941, 42.9912
1.104, -1, 35.0497, 48.2309, -11.8004, 95.5408, -56.1014, 43.0119
1.108, -1, 35.0672, 48.2288, -11.8466, 95.5794, -56.0087, 43.0326
1.112, -1, 35.0847, 48.2267, -11.8927, 95.618, -55.9161, 43.0533
1.116, -1, 35.1022, 48.2246, -11.9388, 95.6566, -55.8237, 43.0739
1.119, -1, 35.1196, 48.2225, -11.9848, 95.6951, -55.7313, 43.0946
1.124, -1, 35.1371, 48.2204, -12.0309, 95.7336, -55.639, 43.1152
1.128, -1, 35.1545, 48.2184, -12.0768, 95.7721, -55.5468, 43.1358
1.132, -1, 35.172, 48.2163, -12.1227, 95.8105, -55.4546, 43.1564
1.136, -1, 35.1894, 48.2142, -12.1686, 95.8489, -55.3626, 43.1769
1.14, -1, 35.2067, 48.2121, -12.2145, 95.8873, -55.2706, 43.1975
1.144, -1, 35.2241, 48.2101, -12.2603, 95.9256, -55.1787, 43.218
1.147, -1, 35.2415, 48.208, -12.306, 95.9639, -55.0869, 43.2385
1.152, -1, 35.2588, 48.2059, -12.3517, 96.0021, -54.9952, 43.259
1.156, -1, 35.2761, 48.2039, -12.3974, 96.0404, -54.9035, 43.2795
1.16, -1, 35.2935, 48.2018, -12.443, 96.0785, -54.812, 43.2999
1.164, -1, 35.3108, 48.1997, -12.4886, 96.1167, -54.7205, 43.3204
1.168, -1, 35.328, 48.1977, -12.5342, 96.1548, -54.6291, 43.3408
1.172, -1, 35.3453, 48.1956, -12.5797, 96.1929, -54.5378, 43.3612
1.175, -1, 35.3625, 48.1936, -12.6252, 96.2309, -54.4466, 43.3816
1.18, -1, 35.3798, 48.1915, -12.6706, 96.269, -54.3554, 43.4019
1.184, -1, 35.397, 48.1895, -12.716, 96.3069, -54.2644, 43.4223
1.188, -1, 35.4142, 48.1874, -12.7614, 96.3449, -54.1734, 43.4426
1.192, -1, 35.4314, 48.1854, -12.8067, 96.3828, -54.0825, 43.4629
1.196, -1, 35.4486, 48.1833, -12.8519, 96.4207, -53.9916, 43.4832
1.2, -1, 35.4657, 48.1813, -12.8972, 96.4585, -53.9009, 43.5035
1.204, -1, 35.4829, 48.1792, -12.9424, 96.4964, -53.8102, 43.5237
1.208, -1, 35.5, 48.1772, -12.9875, 96.5341, -53.7196, 43.5439
1.212, -1, 35.5171, 48.1752, -13.0326, 96.5719, -53.6291, 43.5642
1.216, -1, 35.5342, 48.1731, -13.0777, 96.6096, -53.5387, 43.5844
1.22, -1, 35.5513, 48.1711, -13.1227, 96.6473, -53.4483, 43.6045
1.224, -1, 35.5684, 48.1691, -13.1677, 96.685, -53.358, 43.6247
1.228, -1, 35.5854, 48.167, -13.2127, 96.7226, -53.2678, 43.6449
1.232, -1, 35.6024, 48.165, -13.2576, 96.7602, -53.1777, 43.665
1.236, -1, 35.6193, 48.163, -13.3025, 96.7977, -53.0876, 43.6851
1.24, -1, 35.6361, 48.1611, -13.3473, 96.8352, -52.9977, 43.7052
1.244, -1, 35.6526, 48.1593, -13.3921, 96.8727, -52.9079, 43.7253
1.248, -1, 35.6687, 48.1576, -13.4368, 96.9101, -52.8182, 43.7453
1.252, -1, 35.6845, 48.1561, -13.4813, 96.9474, -52.7288, 43.7653
1.256, -1, 35.6998, 48.1549, -13.5257, 96.9846, -52.6398, 43.7852
1.26, -1, 35.7144, 48.154, -13.5697, 97.0214, -52.5514, 43.8049
1.264, -1, 35.7284, 48.1534, -13.6133, 97.058, -52.4638, 43.8245
1.267, -1, 35.7418, 48.1533, -13.6563, 97.094, -52.3775, 43.8438
1.272, -1, 35.7544, 48.1534, -13.6984, 97.1293, -52.293, 43.8627
1.276, -1, 35.7664, 48.1539, -13.7394, 97.1637, -52.2106, 43.8812
1.28, -1, 35.7778, 48.1545, -13.7789, 97.1969, -52.1312, 43.8989
1.284, -1, 35.7885, 48.1552, -13.8167, 97.2286, -52.0552, 43.9159
1.288, -1, 35.7988, 48.1559, -13.8524, 97.2586, -51.9835, 43.932
1.292, -1, 35.8086, 48.1563, -13.8858, 97.2866, -51.9165, 43.947
1.295, -1, 35.818, 48.1565, -13.9165, 97.3123, -51.8549, 43.9608
1.3, -1, 35.8271, 48.1563, -13.9443, 97.3356, -51.7991, 43.9733
1.304, -1, 35.8359, 48.1556, -13.9691, 97.3564, -51.7493, 43.9844
1.308, -1, 35.8444, 48.1544, -13.9909, 97.3746, -51.7057, 43.9941
1.312, -1, 35.8525, 48.1528, -14.0096, 97.3902, -51.6681, 44.0025
1.316, -1, 35.8603, 48.1509, -14.0254, 97.4034, -51.6365, 44.0096
1.32, -1, 35.8677, 48.1486, -14.0385, 97.4142, -51.6103, 44.0154
1.324, -1, 35.8747, 48.1461, -14.049, 97.423, -51.5893, 44.02
1.328, -1, 35.8814, 48.1434, -14.0573, 97.4298, -51.5727, 44.0237
1.332, -1, 35.8876, 48.1407, -14.0637, 97.4351, -51.56, 44.0265
1.336, -1, 35.8933, 48.1381, -14.0685, 97.439, -51.5505, 44.0286
1.34, -1, 35.8984, 48.1357, -14.072, 97.4419, -51.5436, 44.0301
1.344, 2, 35.9027, 48.1336, -14.0745, 97.4439, -51.5387, 44.0312
1.348, 2, 35.9062, 48.1319, -14.0763, 97.4453, -51.5352, 44.0319
1.352, 2, 35.9089, 48.1307, -14.0775, 97.4462, -51.5328, 44.0324
1.356, 2, 35.9109, 48.1297, -14.0783, 97.4469, -51.5312, 44.0328
1.36, 2, 35.9123, 48.1291, -14.0789, 97.4473, -51.5301, 44.033
1.364, 2, 35.9132, 48.1287, -14.0792, 97.4476, -51.5294, 44.0332
1.368, 2, 35.9138, 48.1284, -14.0795, 97.4479, -51.5289, 44.0333
1.372, 2, 35.9142, 48.1282, -14.0797, 97.448, -51.5286, 44.0334
1.376, 2, 35.9145, 48.1281, -14.0798, 97.4481, -51.5283, 44.0334
1.38, 2, 35.9147, 48.128, -14.0799, 97.4482, -51.5282, 44.0335
1.384, 2, 35.9149, 48.1279, -14.0799, 97.4482, -51.5281, 44.0335
1.388, 2, 35.9149, 48.1279, -14.0799, 97.4482, -51.528, 44.0335
1.392, 2, 35.915, 48.1278, -14.08, 97.4482, -51.5279, 44.0335
1.396, 2, 35.915, 48.1278, -14.08, 97.4483, -51.5279, 44.0335
1.4, 2, 35.9151, 48.1278, -14.08, 97.4483, -51.5279, 44.0335
1.404, 2, 35.9151, 48.1278, -14.08, 97.4483, -51.5279, 44.0335
1.408, 2, 35.9151, 48.1278, -14.08, 97.4483, -51.5279, 44.0335
1.412, 2, 35.9151, 48.1278, -14.08, 97.4483, -51.5279, 44.0335
1.416, 2, 35.9151, 48.1278, -14.08, 97.4483, -51.5279, 44.0335
1.42, 2, 35.9151, 48.1278, -14.08, 97.4483, -51.5278, 44.0335
1.424, 2, 35.9151, 48.1278, -14.08, 97.4483, -51.5278, 44.0335
1.428, 2, 35.9151, 48.1278, -14.08, 97.4483, -51.5278, 44.0335
1.432, 2, 35.9151, 48.1278, -14.08, 97.4483, -51.5278, 44.0335
1.436, 2, 35.9151, 48.1278, -14.08, 97.4483, -51.5278, 44.0335
1.44, 2, 35.9151, 48.1278, -14.08, 97.4483, -51.5278, 44.0335
1.444, 2, 35.9151, 48.1278, -14.08, 97.4483, -51.5278, 44.0335
1.448, 2, 35.9151, 48.1278, -14.08, 97.4483, -51.5278, 44.0335
1.452, 2, 35.9151, 48.1278, -14.08, 97.4483, -51.5278, 44.0335
1.456, 2, 35.9151, 48.1278, -14.08, 97.4483, -51.5278, 44.0335
1.46, 2, 35.9151, 48.1278, -14.08, 97.4483, -51.5278, 44.0335
1.464, 2, 35.9151, 48.1278, -14.08, 97.4483, -51.5278, 44.0335
1.468, 2, 35.9151, 48.1278, -14.08, 97.4483, -51.5278, 44.0335
1.472, 2, 35.9151, 48.1278, -14.08, 97.4483, -51.5278, 44.0335
1.476, 2, 35.9151, 48.1278, -14.08, 97.4483, -51.5278, 44.0335
1.48, 2, 35.9151, 48.1278, -14.08, 97.4483, -51.5278, 44.0335
1.484, 2, 35.9151, 48.1278, -14.08, 97.4483, -51.5278, 44.0335
1.488, 2, 35.9151, 48.1278, -14.08, 97.4483, -51.5278, 44.0335
1.492, 2, 35.9151, 48.1278, -14.08, 97.4483, -51.5278, 44.0335
1.496, 2, 35.9151, 48.1278, -14.08, 97.4483, -51.5278, 44.0335
1.5, 2, 35.9151, 48.1278, -14.08, 97.4483, -51.5278, 44.0335
1.504, 2, 35.9151, 48.1278, -14.08, 97.4483, -51.5278, 44.0335
1.508, 2, 35.9151, 48.1278, -14.08, 97.4483, -51.5278, 44.0335
1.512, 2, 35.9151, 48.1278, -14.08, 97.4483, -51.5278, 44.0335
1.516, 2, 35.9151, 48.1278, -14.08, 97.4483, -51.5278, 44.0335
1.52, 2, 35.9151, 48.1278, -14.08, 97.4483, -51.5278, 44.0335
1.524, 2, 35.9151, 48.1278, -14.08, 97.4483, -51.5278, 44.0335
1.528, 2, 35.9151, 48.1278, -14.08, 97.4483, -51.5278, 44.0335
1.532, 2, 35.9151, 48.1278, -14.08, 97.4483, -51.5278, 44.0335
1.536, 2, 35.9151, 48.1278, -14.08, 97.4483, -51.5278, 44.0335
1.54, 2, 35.9151, 48.1278, -14.08, 97.4483, -51.5278, 44.0335
1.544, 2, 35.9151, 48.1278, -14.08, 97.4483, -51.5278, 44.0335
1.548, 2, 35.9151, 48.1278, -14.08, 97.4483, -51.5278, 44.0335
1.552, 2, 35.9151, 48.1278, -14.08, 97.4483, -51.5278, 44.0335
1.556, 2, 35.9151, 48.1278, -14.08, 97.4483, -51.5278, 44.0335
1.56, 2, 35.9151, 48.1278, -14.08, 97.4483, -51.5278, 44.0335
1.564, 2, 35.9151, 48.1278, -14.08, 97.4483, -51.5278, 44.0335
1.568, 2, 35.9151, 48.1278, -14.08, 97.4483, -51.5278, 44.0335
1.572, 2, 35.9151, 48.1278, -14.08, 97.4483, -51.5278, 44.0335
1.576, 2, 35.9151, 48.1278, -14.08, 97.4483, -51.5278, 44.0335
1.58, 2, 35.9151, 48.1278, -14.08, 97.4483, -51.5278, 44.0335
1.584, 2, 35.9151, 48.1278, -14.08, 97.4483, -51.5278, 44.0335
1.588, 2, 35.9151, 48.1278, -14.08, 97.4483, -51.5278, 44.0335
1.592, 2, 35.9151, 48.1278, -14.08, 97.4483, -51.5278, 44.0335
1.596, 2, 35.9151, 48.1278, -14.08, 97.4483, -51.5278, 44.0335
1.6, 2, 35.9151, 48.1278, -14.08, 97.4483, -51.5278, 44.0335
1.604, 2, 35.9151, 48.1278, -14.08, 97.4483, -51.5278, 44.0335
1.608, 2, 35.9151, 48.1278, -14.08, 97.4483, -51.5278, 44.0335
1.612, 2, 35.9151, 48.1278, -14.08, 97.4483, -51.5278, 44.0335
1.616, 2, 35.9151, 48.1278, -14.08, 97.4483, -51.5278, 44.0335
1.62, 2, 35.9151, 48.1278, -14.08, 97.4483, -51.5278, 44.0335
1.624, 2, 35.9151, 48.1278, -14.08, 97.4483, -51.5278, 44.0335
1.628, 2, 35.9151, 48.1278, -14.08, 97.4483, -51.5278, 44.0335
1.632, 2, 35.9151, 48.1278, -14.08, 97.4483, -51.5278, 44.0335
1.636, 2, 35.9151, 48.1278, -14.08, 97.4483, -51.5278, 44.0335
1.64, 2, 35.9151, 48.1278, -14.08, 97.4483, -51.5278, 44.0335
1.644, 2, 35.9151, 48.1278, -14.08, 97.4483, -51.5278, 44.0335
1.648, 2, 35.9151, 48.1278, -14.08, 97.4483, -51.5278, 44.0335
1.652, 2, 35.9151, 48.1278, -14.08, 97.4483, -51.5278, 44.0335
1.656, 2, 35.9151, 48.1278, -14.08, 97.4483, -51.5278, 44.0335
1.66, 2, 35.9151, 48.1278, -14.08, 97.4483, -51.5278, 44.0335
1.664, 2, 35.9151, 48.1278, -14.08, 97.4483, -51.5278, 44.0335
1.668, 2, 35.9151, 48.1278, -14.08, 97.4483, -51.5278, 44.0335
1.672, 2, 35.9151, 48.1278, -14.08, 97.4483, -51.5278, 44.0335
1.676, 2, 35.9151, 48.1278, -14.08, 97.4483, -51.5278, 44.0335
1.68, 2, 35.9151, 48.1278, -14.08, 97.4483, -51.5278, 44.0335
1.684, 2, 35.9151, 48.1278, -14.08, 97.4483, -51.5278, 44.0335
1.688, 2, 35.9151, 48.1278, -14.08, 97.4483, -51.5278, 44.0335
1.692, 2, 35.9151, 48.1278, -14.08, 97.4483, -51.5278, 44.0335
1.696, 2, 35.9151, 48.1278, -14.08, 97.4483, -51.5278, 44.0335
1.7, 2, 35.9151, 48.1278, -14.08, 97.4483, -51.5278, 44.0335
1.704, 2, 35.9151, 48.1278, -14.08, 97.4483, -51.5278, 44.0335
1.708, 2, 35.9151, 48.1278, -14.08, 97.4483, -51.5278, 44.0335
1.712, 2, 35.9151, 48.1278, -14.08, 97.4483, -51.5278, 44.0335
1.716, 2, 35.9151, 48.1278, -14.08, 97.4483, -51.5278, 44.0335
1.72, 2, 35.9151, 48.1278, -14.08, 97.4483, -51.5278, 44.0335
1.724, 2, 35.9151, 48.1278, -14.08, 97.4483, -51.5278, 44.0335
1.728, 2, 35.9151, 48.1278, -14.08, 97.4483, -51.5278, 44.0335
1.732, 2, 35.9151, 48.1278, -14.08, 97.4483, -51.5278, 44.0335
1.736, 2, 35.9151, 48.1278, -14.08, 97.4483, -51.5278, 44.0335
1.74, 2, 35.9151, 48.1278, -14.08, 97.4483, -51.5278, 44.0335
1.744, 2, 35.9151, 48.1278, -14.08, 97.4483, -51.5278, 44.0335
1.748, 2, 35.9151, 48.1278, -14.08, 97.4483, -51.5278, 44.0335
1.752, 2, 35.9151, 48.1278, -14.08, 97.4483, -51.5278, 44.0335
1.756, 2, 35.9151, 48.1278, -14.08, 97.4483, -51.5278, 44.0335
1.76, 2, 35.9151, 48.1278, -14.08, 97.4483, -51.5278, 44.0335
1.764, 2, 35.9151, 48.1278, -14.08, 97.4483, -51.5278, 44.0335
1.768, 2, 35.9151, 48.1278, -14.08, 97.4483, -51.5278, 44.0335
1.772, 2, 35.9151, 48.1278, -14.08, 97.4483, -51.5278, 44.0335
1.776, 2, 35.9151, 48.1278, -14.08, 97.4483, -51.5278, 44.0335
1.78, 2, 35.9151, 48.1278, -14.08, 97.4483, -51.5278, 44.0335
1.784, 2, 35.9151, 48.1278, -14.08, 97.4483, -51.5278, 44.0335
1.788, 2, 35.9151, 48.1278, -14.08, 97.4483, -51.5278, 44.0335
1.792, 2, 35.9151, 48.1278, -14.08, 97.4483, -51.5278, 44.0335
1.796, 2, 35.9151, 48.1278, -14.08, 97.4483, -51.5278, 44.0335
1.8, 2, 35.9151, 48.1278, -14.08, 97.4483, -51.5278, 44.0335
1.804, 2, 35.9151, 48.1278, -14.08, 97.4483, -51.5278, 44.0335
1.808, 2, 35.9151, 48.1278, -14.08, 97.4483, -51.5278, 44.0335
1.812, 2, 35.9151, 48.1278, -14.08, 97.4483, -51.5278, 44.0335
1.816, 2, 35.9151, 48.1278, -14.08, 97.4483, -51.5278, 44.0335
1.82, 2, 35.9151, 48.1278, -14.08, 97.4483, -51.5278, 44.0335
1.824, 2, 35.9151, 48.1278, -14.08, 97.4483, -51.5278, 44.0335
1.828, 2, 35.9151, 48.1278, -14.08, 97.4483, -51.5278, 44.0335
1.832, 2, 35.9151, 48.1278, -14.08, 97.4483, -51.5278, 44.0335
1.836, 2, 35.9151, 48.1278, -14.08, 97.4483, -51.5278, 44.0335
1.84, 2, 35.9151, 48.1278, -14.08, 97.4483, -51.5278, 44.0335
1.844, 2, 35.9151, 48.1278, -14.08, 97.4483, -51.5278, 44.0335
1.848, 2, 35.9151, 48.1278, -14.08, 97.4483, -51.5278, 44.0335
1.852, 2, 35.9151, 48.1278, -14.08, 97.4483, -51.5278, 44.0335
1.856, 2, 35.9151, 48.1278, -14.08, 97.4483, -51.5278, 44.0335
1.86, 2, 35.9151, 48.1278, -14.08, 97.4483, -51.5278, 44.0335
1.864, 2, 35.9151, 48.1278, -14.08, 97.4483, -51.5278, 44.0335
1.868, 2, 35.9151, 48.1278, -14.08, 97.4483, -51.5278, 44.0335
1.872, 2, 35.9151, 48.1278, -14.08, 97.4483, -51.5278, 44.0335
1.876, 2, 35.9151, 48.1278, -14.08, 97.4483, -51.5278, 44.0335
1.88, 2, 35.9151, 48.1278, -14.08, 97.4483, -51.5278, 44.0335
1.884, 2, 35.9151, 48.1278, -14.08, 97.4483, -51.5278, 44.0335
1.888, 2, 35.9151, 48.1278, -14.08, 97.4483, -51.5278, 44.0335
1.892, 2, 35.9151, 48.1278, -14.08, 97.4483, -51.5278, 44.0335
1.896, 2, 35.9151, 48.1278, -14.08, 97.4483, -51.5278, 44.0335
1.9, 2, 35.9151, 48.1278, -14.08, 97.4483, -51.5278, 44.0335
1.904, 2, 35.9151, 48.1278, -14.08, 97.4483, -51.5278, 44.0335
1.908, 2, 35.9151, 48.1278, -14.08, 97.4483, -51.5278, 44.0335
1.912, 2, 35.9151, 48.1278, -14.08, 97.4483, -51.5278, 44.0335
1.916, 2, 35.9151, 48.1278, -14.08, 97.4483, -51.5278, 44.0335
1.92, 2, 35.9151, 48.1278, -14.08, 97.4483, -51.5278, 44.0335
1.924, 2, 35.9151, 48.1278, -14.08, 97.4483, -51.5278, 44.0335
1.928, 2, 35.9151, 48.1278, -14.08, 97.4483, -51.5278, 44.0335
1.932, 2, 35.9151, 48.1278, -14.08, 97.4483, -51.5278, 44.0335
1.936, 2, 35.9151, 48.1278, -14.08, 97.4483, -51.5278, 44.0335
1.94, 2, 35.9151, 48.1278, -14.08, 97.4483, -51.5278, 44.0335
1.944, 2, 35.9151, 48.1278, -14.08, 97.4483, -51.5278, 44.0335
1.948, 2, 35.9151, 48.1278, -14.08, 97.4483, -51.5278, 44.0335
1.952, 2, 35.9151, 48.1278, -14.08, 97.4483, -51.5278, 44.0335
1.956, 2, 35.9151, 48.1278, -14.08, 97.4483, -51.5278, 44.0335
1.96, 2, 35.9151, 48.1278, -14.08, 97.4483, -51.5278, 44.0335
1.964, 2, 35.9151, 48.1278, -14.08, 97.4483, -51.5278, 44.0335
1.968, 2, 35.9151, 48.1278, -14.08, 97.4483, -51.5278, 44.0335
1.972, 2, 35.9151, 48.1278, -14.08, 97.4483, -51.5278, 44.0335
1.976, 2, 35.9151, 48.1278, -14.08, 97.4483, -51.5278, 44.0335
1.98, 2, 35.9151, 48.1278, -14.08, 97.4483, -51.5278, 44.0335
1.984, 2, 35.9151, 48.1278, -14.08, 97.4483, -51.5278, 44.0335
1.988, 2, 35.9151, 48.1278, -14.08, 97.4483, -51.5278, 44.0335
1.992, 2, 35.9151, 48.1278, -14.08, 97.4483, -51.5278, 44.0335
1.996, 2, 35.9151, 48.1278, -14.08, 97.4483, -51.5278, 44.0335
1.999, 2, 35.9151, 48.1278, -14.08, 97.4483, -51.5278, 44.0335
2.004, 2, 35.9151, 48.1278, -14.08, 97.4483, -51.5278, 44.0335
2.008, 2, 35.9151, 48.1278, -14.08, 97.4483, -51.5278, 44.0335
2.012, 2, 35.9151, 48.1278, -14.08, 97.4483, -51.5278, 44.0335
2.015, 2, 35.9151, 48.1278, -14.08, 97.4483, -51.5278, 44.0335
2.019, 2, 35.9151, 48.1278, -14.08, 97.4483, -51.5278, 44.0335
2.024, 2, 35.9151, 48.1278, -14.08, 97.4483, -51.5278, 44.0335
2.028, 2, 35.9151, 48.1278, -14.08, 97.4483, -51.5278, 44.0335
2.031, 2, 35.9151, 48.1278, -14.08, 97.4483, -51.5278, 44.0335
2.036, 2, 35.9151, 48.1278, -14.08, 97.4483, -51.5278, 44.0335
2.04, 2, 35.9151, 48.1278, -14.08, 97.4483, -51.5278, 44.0335
2.044, 2, 35.9151, 48.1278, -14.08, 97.4483, -51.5278, 44.0335
2.048, 2, 35.9151, 48.1278, -14.08, 97.4483, -51.5278, 44.0335
2.051, 2, 35.9151, 48.1278, -14.08, 97.4483, -51.5278, 44.0335
2.055, 2, 35.9151, 48.1278, -14.08, 97.4483, -51.5278, 44.0335
2.06, 2, 35.9151, 48.1278, -14.08, 97.4483, -51.5278, 44.0335
2.064, 2, 35.9151, 48.1278, -14.08, 97.4483, -51.5278, 44.0335
2.068, 2, 35.9151, 48.1278, -14.08, 97.4483, -51.5278, 44.0335
2.071, 2, 35.9151, 48.1278, -14.08, 97.4483, -51.5278, 44.0335
2.076, 2, 35.9151, 48.1278, -14.08, 97.4483, -51.5278, 44.0335
2.08, 2, 35.9151, 48.1278, -14.08, 97.4483, -51.5278, 44.0335
2.084, 2, 35.9151, 48.1278, -14.08, 97.4483, -51.5278, 44.0335
2.087, 2, 35.9151, 48.1278, -14.08, 97.4483, -51.5278, 44.0335
2.092, 2, 35.9151, 48.1278, -14.08, 97.4483, -51.5278, 44.0335
2.096, 2, 35.9151, 48.1278, -14.08, 97.4483, -51.5278, 44.0335
2.1, 2, 35.9151, 48.1278, -14.08, 97.4483, -51.5278, 44.0335
2.104, 2, 35.9151, 48.1278, -14.08, 97.4483, -51.5278, 44.0335
2.107, 2, 35.9151, 48.1278, -14.08, 97.4483, -51.5278, 44.0335
2.111, 2, 35.9151, 48.1278, -14.08, 97.4483, -51.5278, 44.0335
2.116, 2, 35.9151, 48.1278, -14.08, 97.4483, -51.5278, 44.0335
2.12, 2, 35.9151, 48.1278, -14.08, 97.4483, -51.5278, 44.0335
2.124, 2, 35.9151, 48.1278, -14.08, 97.4483, -51.5278, 44.0335
2.127, 2, 35.9151, 48.1278, -14.08, 97.4483, -51.5278, 44.0335
2.132, 2, 35.9151, 48.1278, -14.08, 97.4483, -51.5278, 44.0335
2.136, 2, 35.9151, 48.1278, -14.08, 97.4483, -51.5278, 44.0335
2.14, 2, 35.9151, 48.1278, -14.08, 97.4483, -51.5278, 44.0335
2.143, 2, 35.9151, 48.1278, -14.08, 97.4483, -51.5278, 44.0335
2.148, 2, 35.9151, 48.1278, -14.08, 97.4483, -51.5278, 44.0335
2.152, 2, 35.9151, 48.1278, -14.08, 97.4483, -51.5278, 44.0335
2.156, 2, 35.9151, 48.1278, -14.08, 97.4483, -51.5278, 44.0335
2.16, 2, 35.9151, 48.1278, -14.08, 97.4483, -51.5278, 44.0335
2.163, 2, 35.9151, 48.1278, -14.08, 97.4483, -51.5278, 44.0335
2.168, 2, 35.9151, 48.1278, -14.08, 97.4483, -51.5278, 44.0335
2.172, 2, 35.9151, 48.1278, -14.08, 97.4483, -51.5278, 44.0335
2.176, 2, 35.9151, 48.1278, -14.08, 97.4483, -51.5278, 44.0335
2.179, 2, 35.9151, 48.1278, -14.08, 97.4483, -51.5278, 44.0335
2.184, 2, 35.9151, 48.1278, -14.08, 97.4483, -51.5278, 44.0335
2.188, 2, 35.9151, 48.1278, -14.08, 97.4483, -51.5278, 44.0335
2.192, 2, 35.9151, 48.1278, -14.08, 97.4483, -51.5278, 44.0335
2.196, 2, 35.9151, 48.1278, -14.08, 97.4483, -51.5278, 44.0335
2.199, 2, 35.9151, 48.1278, -14.08, 97.4483, -51.5278, 44.0335
2.204, 2, 35.9151, 48.1278, -14.08, 97.4483, -51.5278, 44.0335
2.208, 2, 35.9151, 48.1278, -14.08, 97.4483, -51.5278, 44.0335
2.212, 2, 35.9151, 48.1278, -14.08, 97.4483, -51.5278, 44.0335
2.216, 2, 35.9151, 48.1278, -14.08, 97.4483, -51.5278, 44.0335
2.219, 2, 35.9151, 48.1278, -14.08, 97.4483, -51.5278, 44.0335
2.224, 2, 35.9151, 48.1278, -14.08, 97.4483, -51.5278, 44.0335
2.228, 2, 35.9151, 48.1278, -14.08, 97.4483, -51.5278, 44.0335
2.232, 2, 35.9151, 48.1278, -14.08, 97.4483, -51.5278, 44.0335
2.235, 2, 35.9151, 48.1278, -14.08, 97.4483, -51.5278, 44.0335
2.24, 2, 35.9151, 48.1278, -14.08, 97.4483, -51.5278, 44.0335
2.244, 2, 35.9151, 48.1278, -14.08, 97.4483, -51.5278, 44.0335
2.248, 2, 35.9151, 48.1278, -14.08, 97.4483, -51.5278, 44.0335
2.252, 2, 35.9151, 48.1278, -14.08, 97.4483, -51.5278, 44.0335
2.255, 2, 35.9151, 48.1278, -14.08, 97.4483, -51.5278, 44.0335
2.259, 2, 35.9151, 48.1278, -14.08, 97.4483, -51.5278, 44.0335
2.264, 2, 35.9151, 48.1278, -14.08, 97.4483, -51.5278, 44.0335
2.268, 2, 35.9151, 48.1278, -14.08, 97.4483, -51.5278, 44.0335
2.272, 2, 35.9151, 48.1278, -14.08, 97.4483, -51.5278, 44.0335
2.275, 2, 35.9151, 48.1278, -14.08, 97.4483, -51.5278, 44.0335
2.28, 2, 35.9151, 48.1278, -14.08, 97.4483, -51.5278, 44.0335
2.284, 2, 35.9151, 48.1278, -14.08, 97.4483, -51.5278, 44.0335
2.288, 2, 35.9151, 48.1278, -14.08, 97.4483, -51.5278, 44.0335
2.291, 2, 35.9151, 48.1278, -14.08, 97.4483, -51.5278, 44.0335
2.296, 2, 35.9151, 48.1278, -14.08, 97.4483, -51.5278, 44.0335
2.3, 2, 35.9151, 48.1278, -14.08, 97.4483, -51.5278, 44.0335
2.304, 2, 35.9151, 48.1278, -14.08, 97.4483, -51.5278, 44.0335
2.308, 2, 35.9151, 48.1278, -14.08, 97.4483, -51.5278, 44.0335
2.311, 2, 35.9151, 48.1278, -14.08, 97.4483, -51.5278, 44.0335
2.316, 2, 35.9151, 48.1278, -14.08, 97.4483, -51.5278, 44.0335
2.32, 2, 35.9151, 48.1278, -14.08, 97.4483, -51.5278, 44.0335
2.324, 2, 35.9151, 48.1278, -14.08, 97.4483, -51.5278, 44.0335
2.328, 2, 35.9151, 48.1278, -14.08, 97.4483, -51.5278, 44.0335
2.331, 2, 35.9151, 48.1278, -14.08, 97.4483, -51.5278, 44.0335
2.336, 2, 35.9151, 48.1278, -14.08, 97.4483, -51.5278, 44.0335
2.34, 2, 35.9151, 48.1278, -14.08, 97.4483, -51.5278, 44.0335
2.344, 2, 35.9151, 48.1278, -14.08, 97.4483, -51.5278, 44.0335
2.347, 2, 35.9151, 48.1278, -14.08, 97.4483, -51.5278, 44.0335
2.352, 2, 35.9151, 48.1278, -14.08, 97.4483, -51.5278, 44.0335
2.356, 2, 35.9151, 48.1278, -14.08, 97.4483, -51.5278, 44.0335
2.36, 2, 35.9151, 48.1278, -14.08, 97.4483, -51.5278, 44.0335
2.364, 2, 35.9151, 48.1278, -14.08, 97.4483, -51.5278, 44.0335
2.367, 2, 35.9151, 48.1278, -14.08, 97.4483, -51.5278, 44.0335
2.372, 2, 35.9151, 48.1278, -14.08, 97.4483, -51.5278, 44.0335
2.376, 2, 35.9151, 48.1278, -14.08, 97.4483, -51.5278, 44.0335
2.38, 2, 35.9151, 48.1278, -14.08, 97.4483, -51.5278, 44.0335
2.383, 2, 35.9151, 48.1278, -14.08, 97.4483, -51.5278, 44.0335
2.388, 2, 35.9151, 48.1278, -14.08, 97.4483, -51.5278, 44.0335
2.392, 2, 35.9151, 48.1278, -14.08, 97.4483, -51.5278, 44.0335
2.396, 2, 35.9151, 48.1278, -14.08, 97.4483, -51.5278, 44.0335
2.4, 4, 35.9151, 48.1278, -14.08, 97.4483, -51.5278, 44.0335
2.403, 4, 35.9151, 48.1278, -14.08, 97.4483, -51.5278, 44.0335
2.408, 4, 35.9151, 48.1278, -14.08, 97.4483, -51.5278, 44.0335
2.412, 4, 35.9151, 48.1278, -14.08, 97.4483, -51.5278, 44.0335
2.416, 4, 35.9151, 48.1278, -14.08, 97.4483, -51.5278, 44.0335
2.42, 4, 35.9151, 48.1278, -14.08, 97.4483, -51.5278, 44.0335
2.423, 4, 35.9151, 48.1278, -14.08, 97.4483, -51.5278, 44.0335
2.428, 4, 35.9151, 48.1278, -14.08, 97.4483, -51.5278, 44.0335
2.432, 4, 35.9151, 48.1278, -14.08, 97.4483, -51.5278, 44.0335
2.436, 4, 35.9151, 48.1278, -14.08, 97.4483, -51.5278, 44.0335
2.439, 4, 35.9151, 48.1278, -14.08, 97.4483, -51.5278, 44.0335
2.444, 4, 35.9151, 48.1278, -14.08, 97.4483, -51.5278, 44.0335
2.448, 4, 35.9151, 48.1278, -14.08, 97.4483, -51.5278, 44.0335
2.452, 4, 35.9151, 48.1278, -14.08, 97.4483, -51.5278, 44.0335
2.456, 4, 35.9151, 48.1278, -14.08, 97.4483, -51.5278, 44.0335
2.459, 4, 35.9151, 48.1278, -14.08, 97.4483, -51.5278, 44.0335
2.464, 4, 35.9151, 48.1278, -14.08, 97.4483, -51.5278, 44.0335
2.468, 4, 35.9151, 48.1278, -14.08, 97.4483, -51.5278, 44.0335
2.472, 4, 35.9151, 48.1278, -14.08, 97.4483, -51.5278, 44.0335
2.476, 4, 35.9151, 48.1278, -14.08, 97.4483, -51.5278, 44.0335
2.479, 4, 35.9151, 48.1278, -14.08, 97.4483, -51.5278, 44.0335
2.484, 4, 35.9151, 48.1278, -14.08, 97.4483, -51.5278, 44.0335
2.488, 4, 35.9151, 48.1278, -14.08, 97.4483, -51.5278, 44.0335
2.492, 4, 35.9151, 48.1278, -14.08, 97.4483, -51.5278, 44.0335
2.495, 4, 35.9151, 48.1278, -14.08, 97.4483, -51.5278, 44.0335
2.5, 4, 35.9151, 48.1278, -14.08, 97.4483, -51.5278, 44.0335
2.506, 4, 35.9151, 48.1278, -14.08, 97.4483, -51.5278, 44.0335
2.508, 4, 35.9151, 48.1278, -14.08, 97.4483, -51.5278, 44.0335
2.512, 4, 35.9151, 48.1278, -14.08, 97.4483, -51.5278, 44.0335
2.515, 4, 35.9151, 48.1278, -14.08, 97.4483, -51.5278, 44.0335
2.52, 4, 35.9151, 48.1278, -14.08, 97.4483, -51.5278, 44.0335
2.524, 4, 35.9151, 48.1278, -14.08, 97.4483, -51.5278, 44.0335
2.528, 4, 35.9151, 48.1278, -14.08, 97.4483, -51.5278, 44.0335
2.531, 4, 35.9151, 48.1278, -14.08, 97.4483, -51.5278, 44.0335
2.536, 4, 35.9151, 48.1278, -14.08, 97.4483, -51.5278, 44.0335
2.54, 4, 35.9151, 48.128, -14.08, 97.4483, -51.5279, 44.0335
2.544, 4, 35.9149, 48.1283, -14.08, 97.4483, -51.5279, 44.0335
2.548, 4, 35.9147, 48.1291, -14.0801, 97.4483, -51.528, 44.0334
2.551, 4, 35.9142, 48.1303, -14.0802, 97.4483, -51.5284, 44.0332
2.556, 4, 35.9136, 48.1322, -14.0803, 97.4483, -51.5291, 44.0328
2.56, 4, 35.9128, 48.1348, -14.0805, 97.4484, -51.5305, 44.0319
2.564, 4, 35.9117, 48.1382, -14.0809, 97.4484, -51.5328, 44.0305
2.568, 4, 35.9105, 48.1424, -14.0814, 97.4485, -51.5366, 44.0282
2.571, 5, 35.9092, 48.1474, -14.0821, 97.4487, -51.5422, 44.0248
2.576, 5, 35.9077, 48.1534, -14.0832, 97.4489, -51.5503, 44.0198
2.58, 5, 35.9061, 48.1605, -14.0846, 97.4491, -51.5614, 44.013
2.584, 5, 35.9045, 48.1688, -14.0864, 97.4494, -51.5762, 44.004
2.587, 5, 35.9028, 48.1782, -14.0887, 97.4499, -51.5953, 43.9924
2.592, 5, 35.9011, 48.1888, -14.0915, 97.4503, -51.6192, 43.9778
2.596, 5, 35.8995, 48.2004, -14.0949, 97.4509, -51.6486, 43.96
2.6, 5, 35.8979, 48.2131, -14.0989, 97.4516, -51.6837, 43.9386
2.604, 5, 35.8964, 48.2266, -14.1035, 97.4523, -51.7249, 43.9136
2.607, 5, 35.895, 48.241, -14.1088, 97.4531, -51.7723, 43.8848
2.612, 5, 35.8937, 48.2565, -14.1148, 97.454, -51.8258, 43.8524
2.616, 5, 35.8925, 48.273, -14.1213, 97.4549, -51.8853, 43.8164
2.62, 5, 35.8912, 48.2906, -14.1284, 97.4559, -51.9503, 43.777
2.624, 5, 35.8899, 48.3095, -14.1361, 97.4568, -52.0204, 43.7347
2.627, 5, 35.8886, 48.3294, -14.1441, 97.4578, -52.0951, 43.6896
2.632, 5, 35.8873, 48.3504, -14.1526, 97.4587, -52.1739, 43.6421
2.636, 5, 35.8859, 48.3725, -14.1614, 97.4596, -52.256, 43.5927
2.64, 5, 35.8843, 48.3955, -14.1705, 97.4604, -52.341, 43.5416
2.643, 5, 35.8827, 48.4194, -14.1798, 97.4612, -52.4282, 43.4892
2.648, 5, 35.8808, 48.4442, -14.1892, 97.4619, -52.5172, 43.4359
2.652, 5, 35.8787, 48.4699, -14.1987, 97.4624, -52.6074, 43.3819
2.656, 5, 35.8764, 48.4964, -14.2082, 97.4629, -52.6986, 43.3275
2.66, 5, 35.8739, 48.5236, -14.2178, 97.4632, -52.7904, 43.2728
2.663, 5, 35.8712, 48.5512, -14.2273, 97.4635, -52.8827, 43.2179
2.668, 5, 35.8683, 48.5791, -14.2368, 97.4636, -52.9752, 43.1629
2.672, 5, 35.8654, 48.6073, -14.2463, 97.4636, -53.0679, 43.1079
2.676, 5, 35.8624, 48.6356, -14.2557, 97.4634, -53.1608, 43.053
2.679, 5, 35.8593, 48.664, -14.265, 97.4632, -53.2537, 42.9981
2.684, 5, 35.8562, 48.6924, -14.2743, 97.4627, -53.3466, 42.9432
2.688, 5, 35.8531, 48.7208, -14.2835, 97.4622, -53.4397, 42.8885
2.692, 5, 35.8498, 48.7492, -14.2926, 97.4616, -53.5327, 42.8339
2.696, 5, 35.8466, 48.7776, -14.3017, 97.4608, -53.6257, 42.7793
2.699, 5, 35.8433, 48.8059, -14.3107, 97.4599, -53.7187, 42.7248
2.704, 5, 35.84, 48.8343, -14.3196, 97.4589, -53.8117, 42.6705
2.708, 5, 35.8367, 48.8626, -14.3284, 97.4577, -53.9047, 42.6162
2.712, 5, 35.8333, 48.8908, -14.3371, 97.4564, -53.9977, 42.5621
2.716, 5, 35.8299, 48.919, -14.3458, 97.455, -54.0907, 42.5081
2.719, 5, 35.8265, 48.9472, -14.3543, 97.4535, -54.1836, 42.4541
2.724, 5, 35.823, 48.9753, -14.3628, 97.4518, -54.2766, 42.4003
2.728, 5, 35.8196, 49.0034, -14.3713, 97.4501, -54.3695, 42.3466
2.732, 5, 35.816, 49.0314, -14.3796, 97.4482, -54.4624, 42.2929
2.735, 5, 35.8125, 49.0594, -14.3879, 97.4462, -54.5553, 42.2394
2.74, 5, 35.8089, 49.0873, -14.396, 97.444, -54.6482, 42.186
2.744, 5, 35.8053, 49.1152, -14.4041, 97.4418, -54.741, 42.1327
2.748, 5, 35.8017, 49.1431, -14.4122, 97.4394, -54.8339, 42.0794
2.752, 5, 35.798, 49.1709, -14.4201, 97.4369, -54.9267, 42.0263
2.755, 5, 35.7943, 49.1986, -14.428, 97.4343, -55.0195, 41.9733
2.76, 5, 35.7906, 49.2263, -14.4357, 97.4315, -55.1123, 41.9204
2.764, 5, 35.7868, 49.254, -14.4434, 97.4287, -55.2051, 41.8675
2.768, 5, 35.7831, 49.2816, -14.4511, 97.4257, -55.2979, 41.8148
2.772, 5, 35.7793, 49.3091, -14.4586, 97.4227, -55.3906, 41.7622
2.775, 5, 35.7754, 49.3367, -14.466, 97.4195, -55.4834, 41.7096
2.78, 5, 35.7716, 49.3641, -14.4734, 97.4162, -55.5761, 41.6572
2.784, 5, 35.7677, 49.3915, -14.4807, 97.4127, -55.6688, 41.6049
2.788, 5, 35.7637, 49.4189, -14.4879, 97.4092, -55.7615, 41.5526
2.791, 5, 35.7598, 49.4462, -14.4951, 97.4055, -55.8541, 41.5005
2.796, 5, 35.7558, 49.4735, -14.5021, 97.4018, -55.9468, 41.4484
2.8, 5, 35.7518, 49.5008, -14.5091, 97.3979, -56.0394, 41.3964
2.804, 5, 35.7477, 49.5279, -14.516, 97.3939, -56.1321, 41.3445
2.808, 5, 35.7437, 49.5551, -14.5228, 97.3898, -56.2247, 41.2928
2.811, 5, 35.7396, 49.5822, -14.5296, 97.3856, -56.3173, 41.2411
2.816, 5, 35.7354, 49.6092, -14.5362, 97.3813, -56.4098, 41.1895
2.82, 5, 35.7313, 49.6362, -14.5428, 97.3769, -56.5024, 41.1379
2.824, 5, 35.7271, 49.6631, -14.5493, 97.3723, -56.5949, 41.0865
2.828, 5, 35.7229, 49.69, -14.5557, 97.3677, -56.6874, 41.0352
2.831, 5, 35.7186, 49.7169, -14.562, 97.3629, -56.7799, 40.9839
2.836, 5, 35.7144, 49.7437, -14.5683, 97.3581, -56.8724, 40.9328
2.84, 5, 35.7101, 49.7704, -14.5745, 97.3531, -56.9649, 40.8817
2.844, 5, 35.7057, 49.7971, -14.5806, 97.348, -57.0574, 40.8307
2.847, 5, 35.7014, 49.8238, -14.5866, 97.3428, -57.1498, 40.7798
2.852, 5, 35.697, 49.8504, -14.5925, 97.3376, -57.2422, 40.729
2.856, 5, 35.6926, 49.877, -14.5984, 97.3322, -57.3346, 40.6783
2.86, 5, 35.6881, 49.9035, -14.6041, 97.3267, -57.427, 40.6277
2.864, 5, 35.6836, 49.9299, -14.6098, 97.3211, -57.5194, 40.5771
2.867, 5, 35.6791, 49.9563, -14.6155, 97.3153, -57.6117, 40.5266
2.872, 5, 35.6746, 49.9827, -14.621, 97.3095, -57.7041, 40.4762
2.876, 5, 35.67, 50.009, -14.6264, 97.3036, -57.7964, 40.4259
2.88, 5, 35.6655, 50.0353, -14.6318, 97.2976, -57.8887, 40.3757
2.883, 5, 35.6608, 50.0615, -14.6371, 97.2915, -57.981, 40.3256
2.888, 5, 35.6562, 50.0877, -14.6423, 97.2853, -58.0733, 40.2755
2.892, 5, 35.6515, 50.1138, -14.6474, 97.2789, -58.1655, 40.2255
2.896, 5, 35.6468, 50.1398, -14.6525, 97.2725, -58.2578, 40.1756
2.9, 5, 35.6421, 50.1658, -14.6574, 97.266, -58.35, 40.1258
2.903, 5, 35.6373, 50.1918, -14.6623, 97.2594, -58.4422, 40.0761
2.908, 5, 35.6325, 50.2177, -14.6671, 97.2526, -58.5344, 40.0264
2.912, 5, 35.6277, 50.2436, -14.6719, 97.2458, -58.6265, 39.9769
2.916, 5, 35.6229, 50.2694, -14.6765, 97.2389, -58.7187, 39.9274
2.92, 5, 35.618, 50.2952, -14.6811, 97.2318, -58.8108, 39.8779
2.923, 5, 35.6131, 50.3209, -14.6855, 97.2247, -58.903, 39.8286
2.928, 5, 35.6082, 50.3466, -14.69, 97.2175, -58.9951, 39.7793
2.932, 5, 35.6032, 50.3722, -14.6943, 97.2102, -59.0872, 39.7301
2.936, 5, 35.5982, 50.3977, -14.6985, 97.2028, -59.1792, 39.681
2.939, 5, 35.5932, 50.4233, -14.7027, 97.1953, -59.2713, 39.632
2.944, 5, 35.5882, 50.4487, -14.7067, 97.1877, -59.3633, 39.583
2.948, 5, 35.5831, 50.4741, -14.7107, 97.18, -59.4553, 39.5341
2.952, 5, 35.578, 50.4995, -14.7147, 97.1722, -59.5473, 39.4853
2.956, 5, 35.5729, 50.5248, -14.7185, 97.1643, -59.6393, 39.4366
2.959, 5, 35.5677, 50.5501, -14.7222, 97.1563, -59.7313, 39.3879
2.966, 5, 35.5573, 50.6004, -14.7295, 97.1401, -59.9152, 39.2908
2.968, 5, 35.5573, 50.6004, -14.7295, 97.1401, -59.9152, 39.2908
2.972, 5, 35.5521, 50.6255, -14.733, 97.1318, -60.0071, 39.2423
2.976, 5, 35.5468, 50.6506, -14.7364, 97.1234, -60.099, 39.1939
2.98, 5, 35.5415, 50.6756, -14.7398, 97.115, -60.1909, 39.1456
2.984, 5, 35.5362, 50.7005, -14.7431, 97.1064, -60.2827, 39.0974
2.988, 5, 35.5309, 50.7254, -14.7462, 97.0978, -60.3746, 39.0492
2.992, 5, 35.5255, 50.7503, -14.7493, 97.0891, -60.4664, 39.0011
2.995, 5, 35.5201, 50.7751, -14.7524, 97.0803, -60.5582, 38.9531
3, 5, 35.5147, 50.7998, -14.7553, 97.0714, -60.65, 38.9051
3.004, 5, 35.5092, 50.8245, -14.7582, 97.0624, -60.7418, 38.8572
3.008, 5, 35.5037, 50.8492, -14.7609, 97.0533, -60.8336, 38.8094
3.012, 5, 35.4982, 50.8738, -14.7636, 97.0441, -60.9253, 38.7617
3.015, 5, 35.4926, 50.8983, -14.7662, 97.0349, -61.0171, 38.714
3.02, 5, 35.4871, 50.9228, -14.7688, 97.0255, -61.1088, 38.6663
3.024, 5, 35.4815, 50.9472, -14.7712, 97.0161, -61.2005, 38.6188
3.028, 5, 35.4758, 50.9716, -14.7736, 97.0065, -61.2921, 38.5713
3.031, 5, 35.4702, 50.9959, -14.7759, 96.9969, -61.3838, 38.5239
3.036, 5, 35.4645, 51.0202, -14.7781, 96.9872, -61.4754, 38.4765
3.04, 5, 35.4588, 51.0444, -14.7802, 96.9774, -61.5671, 38.4292
3.044, 5, 35.453, 51.0686, -14.7822, 96.9676, -61.6587, 38.382
3.048, 5, 35.4473, 51.0927, -14.7842, 96.9576, -61.7503, 38.3348
3.051, 5, 35.4415, 51.1168, -14.7861, 96.9475, -61.8418, 38.2877
3.056, 5, 35.4357, 51.1408, -14.7878, 96.9374, -61.9334, 38.2407
3.06, 5, 35.4298, 51.1647, -14.7896, 96.9272, -62.0249, 38.1937
3.064, 5, 35.4239, 51.1886, -14.7912, 96.9169, -62.1164, 38.1468
3.068, 5, 35.418, 51.2125, -14.7927, 96.9065, -62.2079, 38.0999
3.071, 5, 35.4121, 51.2363, -14.7942, 96.896, -62.2994, 38.0532
3.076, 5, 35.4061, 51.26, -14.7956, 96.8855, -62.3909, 38.0064
3.08, 5, 35.4001, 51.2837, -14.7969, 96.8748, -62.4823, 37.9598
3.084, 5, 35.3941, 51.3074, -14.7981, 96.8641, -62.5738, 37.9132
3.087, 5, 35.3881, 51.3309, -14.7992, 96.8533, -62.6652, 37.8666
3.092, 5, 35.382, 51.3545, -14.8003, 96.8424, -62.7566, 37.8201
3.096, 5, 35.3759, 51.3779, -14.8012, 96.8315, -62.848, 37.7737
3.1, 5, 35.3698, 51.4014, -14.8021, 96.8204, -62.9393, 37.7273
3.104, 5, 35.3636, 51.4247, -14.8029, 96.8093, -63.0307, 37.681
3.107, 5, 35.3574, 51.448, -14.8036, 96.7981, -63.122, 37.6348
3.112, 5, 35.3512, 51.4713, -14.8043, 96.7868, -63.2133, 37.5886
3.116, 5, 35.345, 51.4945, -14.8048, 96.7754, -63.3046, 37.5424
3.12, 5, 35.3387, 51.5176, -14.8053, 96.764, -63.3959, 37.4963
3.124, 5, 35.3324, 51.5407, -14.8057, 96.7524, -63.4871, 37.4503
3.128, 5, 35.3261, 51.5638, -14.806, 96.7408, -63.5784, 37.4043
3.132, 5, 35.3198, 51.5868, -14.8062, 96.7291, -63.6696, 37.3584
3.136, 5, 35.3134, 51.6097, -14.8063, 96.7174, -63.7608, 37.3126
3.14, 5, 35.307, 51.6326, -14.8064, 96.7055, -63.852, 37.2668
3.143, 5, 35.3005, 51.6554, -14.8063, 96.6936, -63.9431, 37.221
3.148, 5, 35.2941, 51.6781, -14.8062, 96.6816, -64.0343, 37.1753
3.152, 5, 35.2876, 51.7008, -14.806, 96.6695, -64.1254, 37.1297
3.156, 5, 35.2811, 51.7235, -14.8057, 96.6574, -64.2165, 37.0841
3.16, 5, 35.2746, 51.7461, -14.8054, 96.6452, -64.3076, 37.0386
3.163, 5, 35.268, 51.7686, -14.8049, 96.6328, -64.3987, 36.9931
3.168, 5, 35.2614, 51.7911, -14.8044, 96.6205, -64.4898, 36.9477
3.172, 5, 35.2548, 51.8135, -14.8038, 96.608, -64.5808, 36.9023
3.176, 5, 35.2481, 51.8359, -14.8031, 96.5955, -64.6718, 36.857
3.179, 5, 35.2414, 51.8582, -14.8023, 96.5829, -64.7629, 36.8117
3.184, 5, 35.2347, 51.8805, -14.8014, 96.5702, -64.8539, 36.7665
3.188, 5, 35.228, 51.9027, -14.8005, 96.5574, -64.9448, 36.7213
3.192, 5, 35.2212, 51.9249, -14.7994, 96.5446, -65.0358, 36.6762
3.196, 5, 35.2145, 51.947, -14.7983, 96.5317, -65.1267, 36.6311
3.199, 5, 35.2076, 51.969, -14.7971, 96.5187, -65.2177, 36.5861
3.204, 5, 35.2008, 51.991, -14.7958, 96.5056, -65.3086, 36.5411
3.208, 5, 35.1939, 52.0129, -14.7945, 96.4925, -65.3995, 36.4962
3.212, 5, 35.187, 52.0348, -14.793, 96.4793, -65.4904, 36.4513
3.216, 5, 35.1801, 52.0566, -14.7915, 96.466, -65.5813, 36.4065
3.22, 5, 35.1732, 52.0784, -14.7899, 96.4526, -65.6721, 36.3617
3.224, 5, 35.1662, 52.1001, -14.7882, 96.4392, -65.7629, 36.3169
3.228, 5, 35.1592, 52.1217, -14.7864, 96.4257, -65.8538, 36.2723
3.232, 5, 35.1522, 52.1433, -14.7845, 96.4121, -65.9446, 36.2276
3.235, 5, 35.1451, 52.1649, -14.7826, 96.3985, -66.0353, 36.183
3.24, 5, 35.138, 52.1863, -14.7806, 96.3848, -66.1261, 36.1385
3.244, 5, 35.1309, 52.2078, -14.7784, 96.371, -66.2169, 36.094
3.248, 5, 35.1238, 52.2291, -14.7762, 96.3572, -66.3076, 36.0495
3.252, 5, 35.1166, 52.2504, -14.774, 96.3432, -66.3983, 36.0051
3.255, 5, 35.1094, 52.2717, -14.7716, 96.3292, -66.489, 35.9607
3.26, 5, 35.1022, 52.2929, -14.7692, 96.3152, -66.5797, 35.9164
3.264, 5, 35.095, 52.314, -14.7666, 96.301, -66.6704, 35.8721
3.268, 5, 35.0877, 52.3351, -14.764, 96.2868, -66.7611, 35.8279
3.272, 5, 35.0804, 52.3562, -14.7613, 96.2725, -66.8517, 35.7837
3.276, 5, 35.0731, 52.3771, -14.7586, 96.2582, -66.9423, 35.7396
3.28, 5, 35.0657, 52.3981, -14.7557, 96.2438, -67.033, 35.6955
3.284, 5, 35.0583, 52.4189, -14.7528, 96.2293, -67.1235, 35.6514
3.288, 5, 35.0509, 52.4397, -14.7498, 96.2147, -67.2141, 35.6074
3.291, 5, 35.0435, 52.4605, -14.7467, 96.2001, -67.3047, 35.5634
3.296, 5, 35.036, 52.4812, -14.7435, 96.1854, -67.3952, 35.5195
3.3, 5, 35.0286, 52.5018, -14.7402, 96.1706, -67.4858, 35.4756
3.304, 5, 35.021, 52.5224, -14.7369, 96.1558, -67.5763, 35.4317
3.308, 5, 35.0135, 52.5429, -14.7334, 96.1409, -67.6668, 35.3879
3.312, 5, 35.0059, 52.5633, -14.7299, 96.1259, -67.7573, 35.3442
3.316, 5, 34.9984, 52.5837, -14.7263, 96.1109, -67.8477, 35.3004
3.32, 5, 34.9907, 52.6041, -14.7226, 96.0958, -67.9382, 35.2568
3.324, 5, 34.9831, 52.6244, -14.7189, 96.0806, -68.0286, 35.2131
3.328, 5, 34.9754, 52.6446, -14.715, 96.0654, -68.119, 35.1695
3.332, 5, 34.9677, 52.6648, -14.7111, 96.05, -68.2094, 35.1259
3.336, 5, 34.96, 52.6849, -14.7071, 96.0347, -68.2998, 35.0824
3.34, 5, 34.9523, 52.705, -14.703, 96.0192, -68.3902, 35.0389
3.344, 5, 34.9445, 52.725, -14.6989, 96.0037, -68.4806, 34.9955
3.347, 5, 34.9367, 52.7449, -14.6946, 95.9882, -68.5709, 34.952
3.352, 5, 34.9289, 52.7648, -14.6903, 95.9725, -68.6612, 34.9087
3.356, 5, 34.921, 52.7846, -14.6859, 95.9568, -68.7516, 34.8653
3.36, 5, 34.9131, 52.8044, -14.6814, 95.9411, -68.8419, 34.822
3.364, 5, 34.9052, 52.8241, -14.6768, 95.9252, -68.9321, 34.7788
3.368, 5, 34.8973, 52.8438, -14.6721, 95.9093, -69.0224, 34.7355
3.372, 5, 34.8893, 52.8634, -14.6674, 95.8934, -69.1126, 34.6923
3.376, 5, 34.8814, 52.8829, -14.6626, 95.8774, -69.2029, 34.6492
3.38, 5, 34.8734, 52.9024, -14.6577, 95.8613, -69.2931, 34.6061
3.383, 5, 34.8653, 52.9218, -14.6527, 95.8451, -69.3833, 34.563
3.388, 5, 34.8573, 52.9412, -14.6476, 95.8289, -69.4735, 34.5199
3.392, 5, 34.8492, 52.9605, -14.6425, 95.8126, -69.5637, 34.4769
3.396, 5, 34.8411, 52.9798, -14.6372, 95.7963, -69.6538, 34.4339
3.4, 5, 34.8329, 52.999, -14.6319, 95.7799, -69.744, 34.391
3.403, 5, 34.8248, 53.0181, -14.6265, 95.7634, -69.8341, 34.3481
3.408, 5, 34.8166, 53.0372, -14.6211, 95.7469, -69.9242, 34.3052
3.412, 5, 34.8084, 53.0562, -14.6155, 95.7303, -70.0143, 34.2623
3.416, 5, 34.8001, 53.0751, -14.6099, 95.7136, -70.1044, 34.2195
3.422, 5, 34.7836, 53.1129, -14.5983, 95.6801, -70.2845, 34.134
3.424, 5, 34.7836, 53.1129, -14.5983, 95.6801, -70.2845, 34.134
3.428, 5, 34.7752, 53.1317, -14.5925, 95.6633, -70.3745, 34.0913
3.432, 5, 34.7669, 53.1504, -14.5865, 95.6464, -70.4645, 34.0486
3.436, 5, 34.7585, 53.169, -14.5805, 95.6294, -70.5545, 34.006
3.439, 5, 34.7501, 53.1877, -14.5743, 95.6124, -70.6445, 33.9633
3.444, 5, 34.7417, 53.2062, -14.5681, 95.5953, -70.7345, 33.9207
3.448, 5, 34.7333, 53.2247, -14.5618, 95.5781, -70.8244, 33.8782
3.452, 5, 34.7248, 53.2431, -14.5555, 95.5609, -70.9144, 33.8357
3.456, 5, 34.7163, 53.2615, -14.549, 95.5436, -71.0043, 33.7932
3.46, 5, 34.7078, 53.2798, -14.5425, 95.5263, -71.0942, 33.7507
3.464, 5, 34.6992, 53.298, -14.5359, 95.5089, -71.1841, 33.7083
3.468, 5, 34.6907, 53.3162, -14.5292, 95.4915, -71.274, 33.6659
3.472, 5, 34.6821, 53.3344, -14.5224, 95.474, -71.3639, 33.6235
3.476, 5, 34.6734, 53.3524, -14.5155, 95.4564, -71.4537, 33.5811
3.48, 5, 34.6648, 53.3705, -14.5086, 95.4388, -71.5435, 33.5388
3.484, 5, 34.6561, 53.3884, -14.5016, 95.4211, -71.6334, 33.4965
3.488, 5, 34.6474, 53.4063, -14.4945, 95.4033, -71.7232, 33.4543
3.492, 5, 34.6387, 53.4241, -14.4873, 95.3855, -71.813, 33.412
3.495, 5, 34.6299, 53.4419, -14.48, 95.3676, -71.9027, 33.3698
3.5, 5, 34.6211, 53.4596, -14.4727, 95.3497, -71.9925, 33.3277
3.504, 5, 34.6123, 53.4773, -14.4652, 95.3317, -72.0822, 33.2855
3.508, 5, 34.6035, 53.4949, -14.4577, 95.3137, -72.172, 33.2434
3.512, 5, 34.5947, 53.5124, -14.4501, 95.2956, -72.2617, 33.2013
3.516, 5, 34.5859, 53.5298, -14.4425, 95.2774, -72.3513, 33.1592
3.52, 5, 34.5773, 53.547, -14.4347, 95.2592, -72.441, 33.1172
3.524, 5, 34.5689, 53.564, -14.4268, 95.241, -72.5306, 33.0752
3.528, 5, 34.5609, 53.5806, -14.4189, 95.2227, -72.6199, 33.0333
3.531, 5, 34.5532, 53.5967, -14.4109, 95.2044, -72.709, 32.9916
3.536, 5, 34.5458, 53.6123, -14.4029, 95.1862, -72.7977, 32.9501
3.54, 5, 34.5387, 53.6272, -14.3948, 95.1681, -72.8855, 32.909
3.544, 5, 34.5316, 53.6415, -14.3866, 95.1501, -72.9723, 32.8685
3.548, 5, 34.5243, 53.655, -14.3784, 95.1323, -73.0577, 32.8287
3.552, 5, 34.5166, 53.6678, -14.3699, 95.1146, -73.1412, 32.7899
3.556, 5, 34.5084, 53.6797, -14.3611, 95.0971, -73.2225, 32.7526
3.56, 5, 34.4995, 53.6909, -14.3517, 95.0796, -73.3012, 32.717
3.564, 6, 34.49, 53.7016, -14.3415, 95.0618, -73.3767, 32.6839
3.568, 6, 34.4798, 53.7116, -14.3302, 95.0437, -73.4489, 32.6535
3.572, 6, 34.4692, 53.7212, -14.3173, 95.0247, -73.5173, 32.6265
3.576, 6, 34.4582, 53.7304, -14.3026, 95.0048, -73.5821, 32.6033
3.58, 6, 34.447, 53.739, -14.2856, 94.9834, -73.643, 32.5842
3.584, 6, 34.4356, 53.7467, -14.266, 94.9603, -73.7004, 32.5695
3.587, 6, 34.4242, 53.7535, -14.2433, 94.9351, -73.7546, 32.5592
3.592, 6, 34.4128, 53.759, -14.2175, 94.9077, -73.8058, 32.5535
3.596, 6, 34.4016, 53.7631, -14.1882, 94.8778, -73.8546, 32.5522
3.6, 6, 34.3905, 53.7657, -14.1555, 94.8452, -73.9015, 32.5551
3.604, 6, 34.3796, 53.7667, -14.1193, 94.81, -73.9468, 32.562
3.608, 6, 34.3688, 53.7661, -14.0798, 94.7722, -73.9911, 32.5725
3.612, 6, 34.3581, 53.7641, -14.0372, 94.7319, -74.0348, 32.5861
3.616, 6, 34.3475, 53.7605, -13.9917, 94.6894, -74.0782, 32.6024
3.62, 6, 34.3369, 53.7557, -13.9437, 94.6449, -74.1218, 32.6207
3.624, 6, 34.3262, 53.7497, -13.8936, 94.5988, -74.1657, 32.6406
3.628, 6, 34.3155, 53.7427, -13.8417, 94.5513, -74.21, 32.6618
3.632, 6, 34.3045, 53.735, -13.7884, 94.5027, -74.2547, 32.684
3.636, 6, 34.2932, 53.7268, -13.734, 94.4533, -74.2999, 32.7067
3.64, 6, 34.2815, 53.7183, -13.6788, 94.4033, -74.3454, 32.7299
3.644, 6, 34.2694, 53.7096, -13.623, 94.3529, -74.3912, 32.7534
3.648, 6, 34.2568, 53.7009, -13.5667, 94.3022, -74.4372, 32.777
3.652, 6, 34.2439, 53.692, -13.5102, 94.2514, -74.4833, 32.8008
3.656, 6, 34.2306, 53.6832, -13.4535, 94.2005, -74.5296, 32.8246
3.66, 6, 34.2172, 53.6743, -13.3966, 94.1495, -74.576, 32.8485
3.664, 6, 34.2036, 53.6653, -13.3396, 94.0985, -74.6225, 32.8723
3.668, 6, 34.1899, 53.6564, -13.2826, 94.0475, -74.6691, 32.8961
3.672, 6, 34.1761, 53.6474, -13.2256, 93.9966, -74.7158, 32.9198
3.676, 6, 34.1623, 53.6384, -13.1685, 93.9457, -74.7625, 32.9435
3.679, 6, 34.1485, 53.6293, -13.1114, 93.8948, -74.8092, 32.9671
3.684, 6, 34.1346, 53.6202, -13.0543, 93.844, -74.856, 32.9907
3.688, 6, 34.1206, 53.6111, -12.9972, 93.7933, -74.9029, 33.0142
3.692, 6, 34.1067, 53.602, -12.9402, 93.7426, -74.9499, 33.0377
3.696, 6, 34.0927, 53.5929, -12.8831, 93.6919, -74.9968, 33.0611
3.7, 6, 34.0787, 53.5837, -12.826, 93.6413, -75.0439, 33.0844
3.704, 6, 34.0647, 53.5745, -12.769, 93.5908, -75.0909, 33.1077
3.708, 6, 34.0507, 53.5653, -12.7119, 93.5403, -75.1381, 33.1309
3.712, 6, 34.0367, 53.556, -12.6549, 93.4899, -75.1853, 33.154
3.716, 6, 34.0226, 53.5468, -12.5978, 93.4396, -75.2325, 33.1771
3.72, 6, 34.0085, 53.5375, -12.5408, 93.3893, -75.2798, 33.2001
3.724, 6, 33.9944, 53.5281, -12.4838, 93.3391, -75.3271, 33.223
3.728, 6, 33.9803, 53.5188, -12.4268, 93.2889, -75.3745, 33.2459
3.732, 6, 33.9662, 53.5094, -12.3698, 93.2388, -75.4219, 33.2687
3.735, 6, 33.952, 53.5, -12.3129, 93.1887, -75.4694, 33.2915
3.74, 6, 33.9379, 53.4906, -12.2559, 93.1387, -75.517, 33.3141
3.744, 6, 33.9237, 53.4812, -12.1989, 93.0888, -75.5645, 33.3367
3.748, 6, 33.9095, 53.4717, -12.142, 93.0389, -75.6122, 33.3593
3.752, 6, 33.8953, 53.4622, -12.0851, 92.9891, -75.6598, 33.3817
3.756, 6, 33.881, 53.4527, -12.0281, 92.9393, -75.7076, 33.4041
3.76, 6, 33.8668, 53.4431, -11.9712, 92.8896, -75.7553, 33.4265
3.764, 6, 33.8525, 53.4335, -11.9143, 92.84, -75.8032, 33.4488
3.768, 6, 33.8383, 53.424, -11.8575, 92.7904, -75.8511, 33.471
3.772, 6, 33.824, 53.4143, -11.8006, 92.7408, -75.899, 33.4931
3.776, 6, 33.8097, 53.4047, -11.7437, 92.6914, -75.947, 33.5152
3.78, 6, 33.7953, 53.395, -11.6869, 92.642, -75.995, 33.5372
3.784, 6, 33.781, 53.3853, -11.63, 92.5926, -76.043, 33.5591
3.788, 6, 33.7666, 53.3756, -11.5732, 92.5433, -76.0911, 33.581
3.792, 6, 33.7523, 53.3658, -11.5164, 92.4941, -76.1393, 33.6028
3.796, 6, 33.7379, 53.3561, -11.4596, 92.4449, -76.1875, 33.6245
3.8, 6, 33.7235, 53.3463, -11.4028, 92.3958, -76.2358, 33.6462
3.804, 6, 33.709, 53.3364, -11.346, 92.3467, -76.2841, 33.6678
3.808, 6, 33.6946, 53.3266, -11.2892, 92.2977, -76.3324, 33.6894
3.812, 6, 33.6801, 53.3167, -11.2325, 92.2488, -76.3808, 33.7108
3.816, 6, 33.6657, 53.3068, -11.1757, 92.1999, -76.4293, 33.7322
3.82, 6, 33.6512, 53.2969, -11.119, 92.151, -76.4778, 33.7536
3.824, 6, 33.6367, 53.2869, -11.0623, 92.1023, -76.5263, 33.7748
3.828, 6, 33.6222, 53.277, -11.0056, 92.0536, -76.5749, 33.796
3.832, 6, 33.6076, 53.267, -10.9489, 92.0049, -76.6236, 33.8172
3.836, 6, 33.5931, 53.2569, -10.8922, 91.9563, -76.6722, 33.8382
3.84, 6, 33.5785, 53.2469, -10.8355, 91.9077, -76.721, 33.8592
3.844, 6, 33.5639, 53.2368, -10.7788, 91.8592, -76.7698, 33.8802
3.848, 6, 33.5493, 53.2267, -10.7222, 91.8108, -76.8186, 33.901
3.852, 6, 33.5347, 53.2166, -10.6656, 91.7624, -76.8674, 33.9218
3.856, 6, 33.5201, 53.2064, -10.6089, 91.7141, -76.9164, 33.9426
3.86, 6, 33.5054, 53.1962, -10.5523, 91.6658, -76.9653, 33.9632
3.864, 6, 33.4908, 53.186, -10.4957, 91.6176, -77.0143, 33.9838
3.868, 6, 33.4761, 53.1758, -10.4392, 91.5695, -77.0634, 34.0043
3.872, 6, 33.4614, 53.1655, -10.3826, 91.5214, -77.1125, 34.0248
3.876, 6, 33.4467, 53.1552, -10.326, 91.4734, -77.1616, 34.0452
3.88, 6, 33.432, 53.1449, -10.2695, 91.4254, -77.2108, 34.0655
3.884, 6, 33.4172, 53.1346, -10.213, 91.3774, -77.26, 34.0858
3.888, 6, 33.4025, 53.1242, -10.1564, 91.3296, -77.3093, 34.1059
3.892, 6, 33.3877, 53.1139, -10.0999, 91.2818, -77.3586, 34.1261
3.896, 6, 33.3729, 53.1034, -10.0434, 91.234, -77.408, 34.1461
3.9, 6, 33.3581, 53.093, -9.98697, 91.1863, -77.4574, 34.1661
3.904, 6, 33.3433, 53.0825, -9.9305, 91.1386, -77.5069, 34.186
3.908, 6, 33.3285, 53.072, -9.87405, 91.0911, -77.5564, 34.2058
3.912, 6, 33.3136, 53.0615, -9.81761, 91.0435, -77.6059, 34.2256
3.916, 6, 33.2988, 53.051, -9.76119, 90.996, -77.6555, 34.2453
3.92, 6, 33.2839, 53.0404, -9.70478, 90.9486, -77.7052, 34.265
3.924, 6, 33.269, 53.0298, -9.64838, 90.9013, -77.7548, 34.2846
3.928, 6, 33.2541, 53.0192, -9.592, 90.8539, -77.8046, 34.3041
3.932, 6, 33.2392, 53.0086, -9.53563, 90.8067, -77.8543, 34.3235
3.936, 6, 33.2244, 52.9979, -9.47929, 90.7595, -77.9041, 34.3429
3.94, 6, 33.2097, 52.9872, -9.42298, 90.7123, -77.954, 34.3622
3.944, 6, 33.1952, 52.9764, -9.36672, 90.6653, -78.0038, 34.3814
3.948, 6, 33.181, 52.9656, -9.31056, 90.6183, -78.0537, 34.4005
3.952, 6, 33.167, 52.9548, -9.25452, 90.5715, -78.1035, 34.4195
3.956, 6, 33.1532, 52.9439, -9.19868, 90.5249, -78.1532, 34.4384
3.96, 6, 33.1396, 52.933, -9.14312, 90.4785, -78.2027, 34.4572
3.964, 6, 33.1261, 52.922, -9.08792, 90.4325, -78.2519, 34.4758
3.968, 6, 33.1126, 52.9108, -9.03316, 90.3869, -78.3008, 34.4941
3.972, 6, 33.099, 52.8991, -8.97891, 90.3418, -78.3491, 34.5123
3.976, 6, 33.085, 52.8867, -8.92521, 90.2974, -78.3968, 34.5301
3.98, 6, 33.0707, 52.8737, -8.87208, 90.2537, -78.4436, 34.5477
3.984, 7, 33.056, 52.8602, -8.81948, 90.2109, -78.4892, 34.5649
3.988, 7, 33.0407, 52.8461, -8.76731, 90.1691, -78.5334, 34.5819
3.992, 7, 33.025, 52.8318, -8.71545, 90.1282, -78.5761, 34.5986
3.996, 7, 33.009, 52.8172, -8.66372, 90.0884, -78.617, 34.615
3.999, 7, 32.9927, 52.8026, -8.61193, 90.0497, -78.6559, 34.6313
4.004, 7, 32.9763, 52.7876, -8.55985, 90.0119, -78.6929, 34.6474
4.008, 7, 32.9599, 52.7722, -8.50725, 89.9749, -78.7279, 34.6634
4.012, 7, 32.9436, 52.7563, -8.45392, 89.9388, -78.7609, 34.6794
4.016, 7, 32.9274, 52.7399, -8.39966, 89.9032, -78.7922, 34.6955
4.02, 7, 32.9113, 52.7231, -8.34429, 89.8681, -78.8217, 34.7116
4.024, 7, 32.8955, 52.706, -8.28771, 89.8334, -78.8498, 34.728
4.028, 7, 32.8797, 52.6884, -8.22984, 89.7988, -78.8765, 34.7445
4.032, 7, 32.8641, 52.6702, -8.17068, 89.7644, -78.9022, 34.7613
4.036, 7, 32.8486, 52.6513, -8.11028, 89.7299, -78.9271, 34.7782
4.04, 7, 32.8331, 52.6314, -8.04874, 89.6952, -78.9514, 34.7954
4.044, 7, 32.8176, 52.6105, -7.98617, 89.6604, -78.9753, 34.8128
4.048, 7, 32.8022, 52.5886, -7.92273, 89.6254, -78.9991, 34.8304
4.052, 7, 32.7865, 52.5657, -7.85857, 89.5902, -79.0228, 34.848
4.056, 7, 32.7707, 52.5421, -7.79385, 89.5548, -79.0464, 34.8658
4.06, 7, 32.7547, 52.5181, -7.72869, 89.5193, -79.0701, 34.8837
4.064, 7, 32.7383, 52.4936, -7.66322, 89.4837, -79.0938, 34.9016
4.068, 7, 32.7217, 52.4688, -7.59754, 89.448, -79.1176, 34.9195
4.072, 7, 32.7047, 52.4439, -7.53171, 89.4123, -79.1414, 34.9374
4.076, 7, 32.6875, 52.4188, -7.46581, 89.3765, -79.1653, 34.9553
4.08, 7, 32.6702, 52.3936, -7.39986, 89.3407, -79.1892, 34.9731
4.084, 7, 32.6527, 52.3683, -7.33391, 89.3049, -79.2131, 34.9909
4.088, 7, 32.6352, 52.3431, -7.26797, 89.2691, -79.2371, 35.0087
4.092, 7, 32.6175, 52.3178, -7.20206, 89.2333, -79.261, 35.0264
4.096, 7, 32.5999, 52.2924, -7.13618, 89.1976, -79.285, 35.0441
4.1, 7, 32.5822, 52.2671, -7.07033, 89.1618, -79.3091, 35.0618
4.104, 7, 32.5644, 52.2418, -7.00454, 89.1261, -79.3332, 35.0794
4.108, 7, 32.5466, 52.2165, -6.93879, 89.0904, -79.3573, 35.0969
4.112, 7, 32.5289, 52.1912, -6.87308, 89.0547, -79.3814, 35.1144
4.116, 7, 32.511, 52.1659, -6.80743, 89.019, -79.4055, 35.1319
4.12, 7, 32.4932, 52.1406, -6.74183, 88.9833, -79.4297, 35.1493
4.124, 7, 32.4754, 52.1153, -6.67628, 88.9477, -79.4539, 35.1667
4.128, 7, 32.4575, 52.09, -6.61077, 88.912, -79.4782, 35.184
4.132, 7, 32.4396, 52.0648, -6.54533, 88.8764, -79.5024, 35.2012
4.136, 7, 32.4217, 52.0395, -6.47993, 88.8408, -79.5267, 35.2184
4.14, 7, 32.4038, 52.0142, -6.41458, 88.8052, -79.551, 35.2356
4.144, 7, 32.3859, 51.989, -6.34929, 88.7697, -79.5754, 35.2527
4.148, 7, 32.368, 51.9637, -6.28405, 88.7341, -79.5998, 35.2698
4.152, 7, 32.35, 51.9385, -6.21886, 88.6986, -79.6242, 35.2868
4.156, 7, 32.332, 51.9133, -6.15372, 88.6631, -79.6486, 35.3038
4.16, 7, 32.3141, 51.8881, -6.08863, 88.6276, -79.673, 35.3207
4.164, 7, 32.2961, 51.8629, -6.02359, 88.5921, -79.6975, 35.3376
4.168, 7, 32.278, 51.8377, -5.95861, 88.5566, -79.722, 35.3544
4.172, 7, 32.26, 51.8125, -5.89367, 88.5212, -79.7466, 35.3712
4.176, 7, 32.242, 51.7873, -5.82879, 88.4857, -79.7711, 35.3879
4.18, 7, 32.2239, 51.7621, -5.76395, 88.4503, -79.7957, 35.4046
4.184, 7, 32.2058, 51.737, -5.69917, 88.4149, -79.8203, 35.4212
4.188, 7, 32.1878, 51.7118, -5.63444, 88.3795, -79.845, 35.4378
4.192, 7, 32.1697, 51.6866, -5.56976, 88.3442, -79.8696, 35.4544
4.196, 7, 32.1515, 51.6615, -5.50513, 88.3088, -79.8943, 35.4709
4.2, 7, 32.1334, 51.6364, -5.44055, 88.2735, -79.919, 35.4873
4.204, 7, 32.1153, 51.6112, -5.37602, 88.2382, -79.9438, 35.5037
4.208, 7, 32.0971, 51.5861, -5.31154, 88.2029, -79.9686, 35.52
4.212, 7, 32.0789, 51.561, -5.24711, 88.1676, -79.9934, 35.5363
4.216, 7, 32.0607, 51.5359, -5.18273, 88.1323, -80.0182, 35.5526
4.22, 7, 32.0425, 51.5108, -5.1184, 88.097, -80.043, 35.5688
4.224, 7, 32.0243, 51.4857, -5.05413, 88.0618, -80.0679, 35.5849
4.228, 7, 32.006, 51.4606, -4.9899, 88.0266, -80.0928, 35.601
4.232, 7, 31.9878, 51.4355, -4.92572, 87.9914, -80.1177, 35.6171
4.236, 7, 31.9695, 51.4104, -4.86159, 87.9562, -80.1427, 35.6331
4.24, 7, 31.9512, 51.3854, -4.79751, 87.921, -80.1677, 35.6491
4.244, 7, 31.9329, 51.3603, -4.73347, 87.8859, -80.1927, 35.665
4.248, 7, 31.9146, 51.3353, -4.66949, 87.8507, -80.2177, 35.6809
4.252, 7, 31.8963, 51.3102, -4.60556, 87.8156, -80.2427, 35.6967
4.256, 7, 31.878, 51.2852, -4.54168, 87.7805, -80.2678, 35.7124
4.26, 7, 31.8596, 51.2601, -4.47784, 87.7454, -80.2929, 35.7282
4.264, 7, 31.8412, 51.2351, -4.41406, 87.7103, -80.318, 35.7438
4.268, 7, 31.8228, 51.2101, -4.35032, 87.6752, -80.3432, 35.7595
4.272, 7, 31.8044, 51.1851, -4.28663, 87.6402, -80.3684, 35.775
4.276, 7, 31.786, 51.1601, -4.22299, 87.6051, -80.3936, 35.7906
4.28, 7, 31.7676, 51.135, -4.1594, 87.5701, -80.4188, 35.8061
4.284, 7, 31.7491, 51.11, -4.09586, 87.5351, -80.4441, 35.8215
4.288, 7, 31.7307, 51.085, -4.03237, 87.5001, -80.4693, 35.8369
4.292, 7, 31.7122, 51.0601, -3.96892, 87.4651, -80.4946, 35.8522
4.296, 7, 31.6937, 51.0351, -3.90553, 87.4302, -80.52, 35.8675
4.3, 7, 31.6752, 51.0101, -3.84218, 87.3952, -80.5453, 35.8828
4.304, 7, 31.6566, 50.9851, -3.77888, 87.3603, -80.5707, 35.898
4.308, 7, 31.6381, 50.9602, -3.71563, 87.3254, -80.5961, 35.9131
4.312, 7, 31.6196, 50.9352, -3.65242, 87.2905, -80.6215, 35.9282
4.316, 7, 31.601, 50.9102, -3.58927, 87.2556, -80.6469, 35.9433
4.32, 7, 31.5824, 50.8853, -3.52616, 87.2207, -80.6724, 35.9583
4.324, 7, 31.5638, 50.8603, -3.4631, 87.1858, -80.6979, 35.9732
4.328, 7, 31.5452, 50.8354, -3.40009, 87.151, -80.7234, 35.9881
4.332, 7, 31.5265, 50.8105, -3.33712, 87.1162, -80.749, 36.003
4.336, 7, 31.5079, 50.7855, -3.2742, 87.0813, -80.7745, 36.0178
4.34, 7, 31.4892, 50.7606, -3.21133, 87.0465, -80.8001, 36.0326
4.344, 7, 31.4706, 50.7357, -3.14851, 87.0117, -80.8257, 36.0473
4.348, 7, 31.4519, 50.7108, -3.08574, 86.977, -80.8514, 36.062
4.352, 7, 31.4332, 50.6858, -3.02301, 86.9422, -80.877, 36.0766
4.356, 7, 31.4144, 50.6609, -2.96033, 86.9075, -80.9027, 36.0912
4.36, 7, 31.3957, 50.636, -2.89769, 86.8727, -80.9284, 36.1057
4.364, 7, 31.377, 50.6111, -2.8351, 86.838, -80.9541, 36.1202
4.368, 7, 31.3582, 50.5862, -2.77256, 86.8033, -80.9799, 36.1346
4.372, 7, 31.3394, 50.5613, -2.71007, 86.7686, -81.0057, 36.149
4.376, 7, 31.3206, 50.5364, -2.64762, 86.7339, -81.0315, 36.1634
4.38, 7, 31.3018, 50.5116, -2.58522, 86.6993, -81.0573, 36.1777
4.384, 7, 31.283, 50.4867, -2.52287, 86.6646, -81.0831, 36.1919
4.388, 7, 31.2641, 50.4618, -2.46056, 86.63, -81.109, 36.2061
4.392, 7, 31.2453, 50.4369, -2.3983, 86.5954, -81.1349, 36.2203
4.396, 7, 31.2264, 50.4121, -2.33609, 86.5608, -81.1608, 36.2344
4.4, 7, 31.2075, 50.3872, -2.27392, 86.5262, -81.1867, 36.2484
4.404, 7, 31.1886, 50.3623, -2.2118, 86.4916, -81.2127, 36.2624
4.408, 7, 31.1697, 50.3375, -2.14973, 86.457, -81.2387, 36.2764
4.412, 7, 31.1507, 50.3126, -2.0877, 86.4224, -81.2647, 36.2903
4.416, 7, 31.1318, 50.2878, -2.02571, 86.3879, -81.2907, 36.3042
4.42, 7, 31.1128, 50.2629, -1.96378, 86.3534, -81.3168, 36.318
4.424, 7, 31.0938, 50.2381, -1.90188, 86.3189, -81.3428, 36.3318
4.428, 7, 31.0748, 50.2132, -1.84004, 86.2843, -81.3689, 36.3455
4.432, 7, 31.0558, 50.1884, -1.77824, 86.2499, -81.395, 36.3592
4.436, 7, 31.0368, 50.1636, -1.71649, 86.2154, -81.4212, 36.3728
4.44, 7, 31.0177, 50.1387, -1.65478, 86.1809, -81.4473, 36.3864
4.444, 7, 30.9987, 50.1139, -1.59311, 86.1465, -81.4735, 36.3999
4.448, 7, 30.9796, 50.0891, -1.5315, 86.112, -81.4997, 36.4134
4.452, 7, 30.9605, 50.0642, -1.46992, 86.0776, -81.5259, 36.4268
4.456, 7, 30.9414, 50.0394, -1.4084, 86.0432, -81.5522, 36.4402
4.46, 7, 30.9223, 50.0146, -1.34692, 86.0088, -81.5785, 36.4536
4.464, 7, 30.9032, 49.9898, -1.28548, 85.9744, -81.6047, 36.4669
4.468, 7, 30.884, 49.965, -1.22409, 85.94, -81.6311, 36.4801
4.472, 7, 30.8648, 49.9402, -1.16274, 85.9057, -81.6574, 36.4933
4.476, 7, 30.8457, 49.9153, -1.10144, 85.8713, -81.6837, 36.5065
4.48, 7, 30.8265, 49.8905, -1.04018, 85.837, -81.7101, 36.5196
4.484, 7, 30.8072, 49.8657, -0.978973, 85.8027, -81.7365, 36.5327
4.488, 7, 30.788, 49.8409, -0.917806, 85.7683, -81.7629, 36.5457
4.492, 7, 30.7688, 49.8161, -0.856684, 85.734, -81.7894, 36.5586
4.496, 7, 30.7495, 49.7913, -0.795607, 85.6998, -81.8158, 36.5716
4.5, 7, 30.7302, 49.7665, -0.734574, 85.6655, -81.8423, 36.5844
4.504, 7, 30.7109, 49.7417, -0.673586, 85.6312, -81.8688, 36.5973
4.508, 7, 30.6916, 49.7169, -0.612642, 85.597, -81.8954, 36.61
4.512, 7, 30.6723, 49.6922, -0.551743, 85.5627, -81.9219, 36.6228
4.516, 7, 30.653, 49.6674, -0.490888, 85.5285, -81.9485, 36.6355
4.52, 7, 30.6336, 49.6426, -0.430077, 85.4943, -81.9751, 36.6481
4.524, 7, 30.6143, 49.6178, -0.36931, 85.4601, -82.0017, 36.6607
4.528, 7, 30.5949, 49.593, -0.308588, 85.4259, -82.0283, 36.6732
4.532, 7, 30.5755, 49.5682, -0.247909, 85.3917, -82.0549, 36.6857
4.536, 7, 30.5561, 49.5434, -0.187275, 85.3576, -82.0816, 36.6982
4.54, 7, 30.5366, 49.5187, -0.126684, 85.3234, -82.1083, 36.7106
4.544, 7, 30.5172, 49.4939, -0.0661377, 85.2893, -82.135, 36.7229
4.548, 7, 30.4977, 49.4691, -0.0056349, 85.2551, -82.1618, 36.7352
4.552, 7, 30.4782, 49.4443, 0.0548241, 85.221, -82.1885, 36.7475
4.556, 7, 30.4588, 49.4196, 0.115239, 85.1869, -82.2153, 36.7597
4.56, 7, 30.4392, 49.3948, 0.175611, 85.1528, -82.2421, 36.7719
4.564, 7, 30.4197, 49.37, 0.235939, 85.1187, -82.2689, 36.784
4.568, 7, 30.4002, 49.3452, 0.296224, 85.0846, -82.2957, 36.7961
4.572, 7, 30.3806, 49.3205, 0.356465, 85.0506, -82.3226, 36.8081
4.576, 7, 30.3611, 49.2957, 0.416663, 85.0165, -82.3495, 36.8201
4.58, 7, 30.3415, 49.2709, 0.476817, 84.9825, -82.3764, 36.832
4.584, 7, 30.3219, 49.2462, 0.536924, 84.9485, -82.4033, 36.8439
4.588, 7, 30.3025, 49.2215, 0.596972, 84.9145, -82.4302, 36.8557
4.592, 7, 30.2833, 49.1968, 0.656932, 84.8805, -82.4571, 36.8675
4.596, 7, 30.2646, 49.1723, 0.716748, 84.8465, -82.484, 36.8792
4.6, 7, 30.2465, 49.148, 0.776327, 84.8127, -82.5109, 36.8909
4.604, 7, 30.229, 49.124, 0.83553, 84.779, -82.5377, 36.9025
4.608, 7, 30.2122, 49.1004, 0.894159, 84.7455, -82.5642, 36.9139
4.612, 7, 30.196, 49.0773, 0.951959, 84.7125, -82.5904, 36.9251
4.616, 7, 30.1805, 49.0548, 1.00862, 84.6801, -82.6161, 36.9361
4.62, 7, 30.1655, 49.033, 1.06378, 84.6486, -82.6412, 36.9468
4.624, 7, 30.1511, 49.012, 1.11705, 84.618, -82.6655, 36.9571
4.628, 7, 30.1373, 48.9919, 1.16802, 84.5888, -82.6887, 36.967
4.632, 7, 30.1241, 48.973, 1.21625, 84.5611, -82.7107, 36.9763
4.636, 7, 30.1117, 48.9552, 1.26138, 84.5352, -82.7313, 36.9849
4.64, 7, 30.0999, 48.9386, 1.30304, 84.5113, -82.7504, 36.9929
4.644, 7, 30.0887, 48.9234, 1.34097, 84.4896, -82.7677, 37.0002
4.648, 7, 30.078, 48.9095, 1.37498, 84.4702, -82.7832, 37.0066
4.652, 7, 30.068, 48.897, 1.40497, 84.4531, -82.7969, 37.0123
4.656, 7, 30.0585, 48.8859, 1.43097, 84.4384, -82.8087, 37.0172
4.66, 7, 30.0497, 48.8762, 1.4531, 84.426, -82.8188, 37.0213
4.664, 7, 30.0415, 48.8677, 1.47157, 84.4157, -82.8272, 37.0247
4.668, 7, 30.0341, 48.8605, 1.48667, 84.4073, -82.834, 37.0275
4.672, 7, 30.0272, 48.8545, 1.49877, 84.4007, -82.8394, 37.0297
4.676, 7, 30.021, 48.8496, 1.50824, 84.3956, -82.8437, 37.0314
4.68, 7, 30.0155, 48.8455, 1.5155, 84.3917, -82.8469, 37.0326
4.684, 7, 30.0105, 48.8423, 1.52093, 84.3889, -82.8493, 37.0336
4.688, 7, 30.0062, 48.8398, 1.5249, 84.3868, -82.8511, 37.0343
4.692, 8, 30.0027, 48.8379, 1.52775, 84.3854, -82.8523, 37.0347
4.696, 8, 29.9999, 48.8365, 1.52974, 84.3844, -82.8532, 37.0351
4.7, 8, 29.9977, 48.8355, 1.53112, 84.3837, -82.8538, 37.0353
4.704, 8, 29.9962, 48.8348, 1.53206, 84.3832, -82.8542, 37.0354
4.708, 8, 29.9951, 48.8343, 1.5327, 84.3829, -82.8544, 37.0355
4.712, 8, 29.9944, 48.834, 1.53313, 84.3827, -82.8546, 37.0356
4.716, 8, 29.994, 48.8338, 1.53343, 84.3825, -82.8548, 37.0357
4.72, 8, 29.9936, 48.8336, 1.53363, 84.3824, -82.8548, 37.0357
4.724, 8, 29.9934, 48.8335, 1.53376, 84.3824, -82.8549, 37.0357
4.728, 8, 29.9933, 48.8334, 1.53385, 84.3823, -82.8549, 37.0357
4.732, 8, 29.9932, 48.8334, 1.53391, 84.3823, -82.855, 37.0357
4.736, 8, 29.9931, 48.8334, 1.53396, 84.3823, -82.855, 37.0357
4.74, 8, 29.993, 48.8333, 1.53398, 84.3823, -82.855, 37.0358
4.744, 8, 29.993, 48.8333, 1.534, 84.3823, -82.855, 37.0358
4.748, 8, 29.993, 48.8333, 1.53402, 84.3822, -82.855, 37.0358
4.752, 8, 29.993, 48.8333, 1.53402, 84.3822, -82.855, 37.0358
4.756, 8, 29.993, 48.8333, 1.53403, 84.3822, -82.855, 37.0358
4.76, 8, 29.993, 48.8333, 1.53403, 84.3822, -82.855, 37.0358
4.764, 8, 29.993, 48.8333, 1.53404, 84.3822, -82.855, 37.0358
4.768, 8, 29.993, 48.8333, 1.53404, 84.3822, -82.855, 37.0358
4.772, 8, 29.993, 48.8333, 1.53404, 84.3822, -82.855, 37.0358
4.776, 8, 29.9929, 48.8333, 1.53404, 84.3822, -82.855, 37.0358
4.78, 8, 29.9929, 48.8333, 1.53404, 84.3822, -82.855, 37.0358
4.784, 8, 29.9929, 48.8333, 1.53404, 84.3822, -82.855, 37.0358
4.788, 8, 29.9929, 48.8333, 1.53404, 84.3822, -82.855, 37.0358
4.792, 8, 29.9929, 48.8333, 1.53404, 84.3822, -82.855, 37.0358
4.796, 8, 29.9929, 48.8333, 1.53404, 84.3822, -82.855, 37.0358
4.8, 8, 29.9929, 48.8333, 1.53404, 84.3822, -82.855, 37.0358
4.804, 8, 29.9929, 48.8333, 1.53404, 84.3822, -82.855, 37.0358
4.808, 8, 29.9929, 48.8333, 1.53404, 84.3822, -82.855, 37.0358
