hehonglu123/ABB_Primitive_Study/execution/blade/curve_exe_v1500_z10.csv
timestamp, cmd_num, J1, J2, J3, J4, J5, J6
0, -1, 29.9929, 48.8333, 1.53404, 84.3822, -82.855, 37.0358
0.003, -1, 29.9929, 48.8333, 1.53404, 84.3822, -82.855, 37.0358
0.006, -1, 29.9929, 48.8333, 1.53404, 84.3822, -82.855, 37.0358
0.008, -1, 29.9929, 48.8333, 1.53404, 84.3822, -82.855, 37.0358
0.011, -1, 29.9929, 48.8333, 1.53404, 84.3822, -82.855, 37.0358
0.016, -1, 29.9929, 48.8333, 1.53404, 84.3822, -82.855, 37.0358
0.02, -1, 29.9929, 48.8333, 1.53404, 84.3822, -82.855, 37.0358
0.024, -1, 29.9929, 48.8333, 1.53404, 84.3822, -82.855, 37.0358
0.028, -1, 29.9929, 48.8333, 1.53404, 84.3822, -82.855, 37.0358
0.032, -1, 29.993, 48.8333, 1.53404, 84.3822, -82.855, 37.0358
0.036, -1, 29.993, 48.8333, 1.53404, 84.3822, -82.855, 37.0358
0.04, -1, 29.9933, 48.8332, 1.53402, 84.3822, -82.855, 37.0358
0.044, -1, 29.9938, 48.833, 1.53395, 84.3823, -82.8549, 37.0358
0.048, -1, 29.9948, 48.8325, 1.53379, 84.3823, -82.8548, 37.0358
0.052, -1, 29.9964, 48.8318, 1.53345, 84.3825, -82.8543, 37.0359
0.056, -1, 29.9986, 48.8306, 1.53283, 84.3829, -82.8534, 37.0361
0.06, -1, 30.0015, 48.8289, 1.53176, 84.3835, -82.8518, 37.0365
0.064, -1, 30.005, 48.8267, 1.53002, 84.3847, -82.8489, 37.0371
0.068, -1, 30.0092, 48.824, 1.52738, 84.3866, -82.8443, 37.0381
0.072, -1, 30.0141, 48.821, 1.52352, 84.3895, -82.8373, 37.0397
0.076, -1, 30.0196, 48.8176, 1.51811, 84.3936, -82.8273, 37.0419
0.08, -1, 30.026, 48.814, 1.51078, 84.3993, -82.8136, 37.045
0.084, -1, 30.0333, 48.8103, 1.50113, 84.4069, -82.7952, 37.0491
0.088, -1, 30.0415, 48.8067, 1.48876, 84.4168, -82.7713, 37.0544
0.092, -1, 30.0505, 48.8033, 1.4733, 84.4294, -82.7411, 37.0611
0.096, -1, 30.0602, 48.8002, 1.45441, 84.4448, -82.7039, 37.0694
0.1, -1, 30.0707, 48.7976, 1.4318, 84.4635, -82.659, 37.0794
0.104, -1, 30.0817, 48.7956, 1.40529, 84.4856, -82.6061, 37.0913
0.108, -1, 30.0933, 48.7941, 1.37476, 84.5112, -82.5447, 37.1049
0.112, -1, 30.1055, 48.7932, 1.34022, 84.5402, -82.4751, 37.1205
0.116, -1, 30.1185, 48.7927, 1.30174, 84.5727, -82.3974, 37.1379
0.12, -1, 30.1323, 48.7927, 1.25953, 84.6083, -82.312, 37.1569
0.124, -1, 30.1469, 48.793, 1.21383, 84.6469, -82.2196, 37.1776
0.128, -1, 30.1623, 48.7937, 1.16497, 84.6882, -82.1206, 37.1997
0.131, -1, 30.1783, 48.7946, 1.11332, 84.7319, -82.016, 37.2231
0.136, -1, 30.1948, 48.7955, 1.05927, 84.7776, -81.9066, 37.2476
0.139, -1, 30.212, 48.7963, 1.00321, 84.825, -81.7932, 37.2729
0.144, -1, 30.2298, 48.7968, 0.945528, 84.8736, -81.6766, 37.299
0.148, -1, 30.2485, 48.7968, 0.886585, 84.9233, -81.5576, 37.3256
0.152, -1, 30.2681, 48.7963, 0.826699, 84.9737, -81.4368, 37.3525
0.156, -1, 30.2885, 48.7951, 0.766138, 85.0246, -81.3148, 37.3798
0.16, -1, 30.3097, 48.7935, 0.705121, 85.0758, -81.1921, 37.4072
0.164, -1, 30.3317, 48.7916, 0.643816, 85.1272, -81.0689, 37.4348
0.168, -1, 30.3541, 48.7893, 0.582346, 85.1787, -80.9454, 37.4623
0.172, -1, 30.3768, 48.7869, 0.520796, 85.2303, -80.8218, 37.49
0.176, -1, 30.3997, 48.7844, 0.459227, 85.2819, -80.6982, 37.5176
0.18, -1, 30.4228, 48.7818, 0.397677, 85.3334, -80.5746, 37.5452
0.184, -1, 30.446, 48.7791, 0.336173, 85.3849, -80.4512, 37.5727
0.188, -1, 30.4691, 48.7764, 0.274733, 85.4363, -80.3279, 37.6003
0.192, -1, 30.4923, 48.7737, 0.213369, 85.4876, -80.2048, 37.6278
0.196, -1, 30.5155, 48.771, 0.152089, 85.5389, -80.0818, 37.6552
0.2, -1, 30.5387, 48.7682, 0.0908988, 85.5901, -79.9591, 37.6827
0.204, -1, 30.5619, 48.7655, 0.0298009, 85.6413, -79.8365, 37.7101
0.208, -1, 30.585, 48.7627, -0.0312022, 85.6923, -79.7141, 37.7374
0.212, -1, 30.6081, 48.76, -0.0921092, 85.7433, -79.5919, 37.7647
0.216, -1, 30.6311, 48.7573, -0.152919, 85.7942, -79.4699, 37.7919
0.22, -1, 30.6542, 48.7545, -0.213632, 85.845, -79.3481, 37.8191
0.224, -1, 30.6772, 48.7518, -0.274248, 85.8957, -79.2264, 37.8463
0.228, -1, 30.7001, 48.749, -0.334767, 85.9463, -79.105, 37.8734
0.232, -1, 30.723, 48.7463, -0.395188, 85.9969, -78.9838, 37.9005
0.236, -1, 30.7459, 48.7436, -0.455513, 86.0474, -78.8628, 37.9276
0.24, -1, 30.7688, 48.7409, -0.515741, 86.0978, -78.7419, 37.9545
0.244, -1, 30.7916, 48.7381, -0.575873, 86.1481, -78.6213, 37.9815
0.248, -1, 30.8144, 48.7354, -0.635909, 86.1983, -78.5008, 38.0084
0.252, -1, 30.8371, 48.7327, -0.69585, 86.2485, -78.3806, 38.0353
0.256, -1, 30.8598, 48.73, -0.755696, 86.2986, -78.2605, 38.0621
0.26, -1, 30.8825, 48.7273, -0.815448, 86.3486, -78.1406, 38.0889
0.264, -1, 30.9051, 48.7246, -0.875105, 86.3985, -78.0209, 38.1156
0.268, -1, 30.9277, 48.7219, -0.934668, 86.4483, -77.9014, 38.1423
0.272, -1, 30.9503, 48.7192, -0.994138, 86.4981, -77.7821, 38.1689
0.276, -1, 30.9728, 48.7166, -1.05351, 86.5478, -77.663, 38.1955
0.28, -1, 30.9953, 48.7139, -1.1128, 86.5974, -77.5441, 38.2221
0.284, -1, 31.0177, 48.7112, -1.17199, 86.6469, -77.4253, 38.2486
0.288, -1, 31.0402, 48.7085, -1.23109, 86.6964, -77.3067, 38.2751
0.292, -1, 31.0625, 48.7059, -1.2901, 86.7458, -77.1883, 38.3016
0.296, -1, 31.0849, 48.7032, -1.34902, 86.7951, -77.0701, 38.328
0.3, -1, 31.1072, 48.7005, -1.40784, 86.8443, -76.9521, 38.3543
0.304, -1, 31.1295, 48.6979, -1.46658, 86.8934, -76.8343, 38.3807
0.308, -1, 31.1517, 48.6952, -1.52522, 86.9425, -76.7166, 38.407
0.312, -1, 31.174, 48.6926, -1.58378, 86.9915, -76.5991, 38.4332
0.316, -1, 31.1961, 48.6899, -1.64225, 87.0404, -76.4818, 38.4594
0.32, -1, 31.2183, 48.6873, -1.70063, 87.0893, -76.3647, 38.4856
0.324, -1, 31.2404, 48.6847, -1.75892, 87.1381, -76.2477, 38.5117
0.328, -1, 31.2625, 48.682, -1.81712, 87.1868, -76.131, 38.5378
0.332, -1, 31.2845, 48.6794, -1.87523, 87.2354, -76.0144, 38.5638
0.336, -1, 31.3065, 48.6768, -1.93326, 87.2839, -75.898, 38.5898
0.34, -1, 31.3285, 48.6742, -1.9912, 87.3324, -75.7817, 38.6158
0.344, -1, 31.3505, 48.6716, -2.04905, 87.3808, -75.6656, 38.6417
0.348, -1, 31.3724, 48.669, -2.10682, 87.4292, -75.5498, 38.6676
0.352, -1, 31.3943, 48.6664, -2.1645, 87.4774, -75.434, 38.6935
0.356, -1, 31.4161, 48.6637, -2.22209, 87.5256, -75.3185, 38.7193
0.36, -1, 31.4379, 48.6611, -2.2796, 87.5738, -75.2031, 38.745
0.364, -1, 31.4597, 48.6586, -2.33702, 87.6218, -75.0879, 38.7708
0.368, -1, 31.4815, 48.656, -2.39436, 87.6698, -74.9728, 38.7965
0.372, -1, 31.5032, 48.6534, -2.45162, 87.7177, -74.858, 38.8221
0.376, -1, 31.5249, 48.6508, -2.50879, 87.7655, -74.7433, 38.8477
0.38, -1, 31.5465, 48.6482, -2.56588, 87.8133, -74.6287, 38.8733
0.384, -1, 31.5682, 48.6456, -2.62288, 87.861, -74.5144, 38.8989
0.388, -1, 31.5898, 48.6431, -2.6798, 87.9086, -74.4002, 38.9244
0.392, -1, 31.6113, 48.6405, -2.73664, 87.9562, -74.2861, 38.9499
0.396, -1, 31.6329, 48.6379, -2.7934, 88.0037, -74.1723, 38.9753
0.4, -1, 31.6544, 48.6354, -2.85007, 88.0511, -74.0586, 39.0007
0.404, -1, 31.6758, 48.6328, -2.90666, 88.0985, -73.945, 39.0261
0.408, -1, 31.6973, 48.6303, -2.96317, 88.1458, -73.8316, 39.0514
0.412, -1, 31.7187, 48.6277, -3.0196, 88.193, -73.7184, 39.0767
0.416, -1, 31.74, 48.6252, -3.07595, 88.2401, -73.6054, 39.1019
0.42, -1, 31.7614, 48.6226, -3.13222, 88.2872, -73.4925, 39.1271
0.424, -1, 31.7827, 48.6201, -3.18841, 88.3342, -73.3798, 39.1523
0.428, -1, 31.804, 48.6175, -3.24451, 88.3812, -73.2672, 39.1775
0.432, -1, 31.8252, 48.615, -3.30054, 88.4281, -73.1548, 39.2026
0.436, -1, 31.8465, 48.6125, -3.35649, 88.4749, -73.0425, 39.2277
0.44, -1, 31.8677, 48.61, -3.41236, 88.5216, -72.9304, 39.2527
0.444, -1, 31.8888, 48.6074, -3.46815, 88.5683, -72.8185, 39.2777
0.448, -1, 31.91, 48.6049, -3.52387, 88.615, -72.7067, 39.3027
0.452, -1, 31.9311, 48.6024, -3.57951, 88.6615, -72.5951, 39.3276
0.456, -1, 31.9522, 48.5999, -3.63506, 88.708, -72.4836, 39.3525
0.46, -1, 31.9732, 48.5974, -3.69055, 88.7544, -72.3723, 39.3774
0.464, -1, 31.9942, 48.5949, -3.74595, 88.8008, -72.2611, 39.4022
0.468, -1, 32.0152, 48.5924, -3.80128, 88.8471, -72.1501, 39.427
0.472, -1, 32.0362, 48.5899, -3.85653, 88.8933, -72.0393, 39.4518
0.476, -1, 32.0571, 48.5874, -3.91171, 88.9395, -71.9286, 39.4765
0.48, -1, 32.078, 48.5849, -3.96681, 88.9856, -71.818, 39.5012
0.484, -1, 32.0989, 48.5824, -4.02184, 89.0317, -71.7076, 39.5258
0.488, -1, 32.1197, 48.5799, -4.07679, 89.0776, -71.5974, 39.5505
0.492, -1, 32.1406, 48.5774, -4.13167, 89.1236, -71.4873, 39.5751
0.496, -1, 32.1614, 48.575, -4.18647, 89.1694, -71.3773, 39.5996
0.5, -1, 32.1821, 48.5725, -4.2412, 89.2152, -71.2675, 39.6241
0.504, -1, 32.2028, 48.57, -4.29586, 89.261, -71.1579, 39.6486
0.508, -1, 32.2236, 48.5676, -4.35044, 89.3066, -71.0484, 39.6731
0.512, -1, 32.2442, 48.5651, -4.40495, 89.3522, -70.939, 39.6975
0.516, -1, 32.2649, 48.5626, -4.45939, 89.3978, -70.8298, 39.7219
0.52, -1, 32.2855, 48.5602, -4.51375, 89.4433, -70.7207, 39.7463
0.524, -1, 32.3061, 48.5577, -4.56805, 89.4887, -70.6118, 39.7706
0.528, -1, 32.3267, 48.5553, -4.62227, 89.5341, -70.503, 39.7949
0.532, -1, 32.3472, 48.5528, -4.67642, 89.5794, -70.3943, 39.8192
0.536, -1, 32.3677, 48.5504, -4.73049, 89.6247, -70.2858, 39.8434
0.54, -1, 32.3882, 48.5479, -4.7845, 89.6699, -70.1775, 39.8676
0.544, -1, 32.4087, 48.5455, -4.83844, 89.715, -70.0693, 39.8918
0.548, -1, 32.4291, 48.5431, -4.8923, 89.7601, -69.9612, 39.916
0.552, -1, 32.4495, 48.5406, -4.9461, 89.8051, -69.8533, 39.9401
0.556, -1, 32.4699, 48.5382, -4.99983, 89.85, -69.7455, 39.9641
0.56, -1, 32.4903, 48.5358, -5.05348, 89.8949, -69.6378, 39.9882
0.564, -1, 32.5106, 48.5334, -5.10707, 89.9398, -69.5303, 40.0122
0.568, -1, 32.5309, 48.5309, -5.16059, 89.9846, -69.4229, 40.0362
0.572, -1, 32.5512, 48.5285, -5.21404, 90.0293, -69.3157, 40.0601
0.576, -1, 32.5714, 48.5261, -5.26742, 90.074, -69.2086, 40.0841
0.58, -1, 32.5916, 48.5237, -5.32073, 90.1186, -69.1016, 40.108
0.584, -1, 32.6118, 48.5213, -5.37398, 90.1631, -68.9948, 40.1318
0.588, -1, 32.632, 48.5189, -5.42716, 90.2076, -68.8881, 40.1557
0.592, -1, 32.6522, 48.5165, -5.48026, 90.2521, -68.7816, 40.1795
0.596, -1, 32.6723, 48.5141, -5.53331, 90.2965, -68.6752, 40.2032
0.6, -1, 32.6924, 48.5117, -5.58628, 90.3408, -68.5689, 40.227
0.604, -1, 32.7125, 48.5093, -5.63919, 90.3851, -68.4627, 40.2507
0.608, -1, 32.7325, 48.5069, -5.69203, 90.4293, -68.3567, 40.2744
0.612, -1, 32.7525, 48.5045, -5.74481, 90.4734, -68.2508, 40.298
0.616, -1, 32.7725, 48.5021, -5.79752, 90.5175, -68.1451, 40.3216
0.62, -1, 32.7925, 48.4998, -5.85017, 90.5616, -68.0394, 40.3452
0.624, -1, 32.8124, 48.4974, -5.90275, 90.6056, -67.9339, 40.3688
0.628, -1, 32.8324, 48.495, -5.95526, 90.6495, -67.8286, 40.3923
0.632, -1, 32.8523, 48.4926, -6.00771, 90.6934, -67.7234, 40.4158
0.636, -1, 32.8721, 48.4903, -6.06009, 90.7373, -67.6182, 40.4393
0.64, -1, 32.892, 48.4879, -6.11241, 90.781, -67.5133, 40.4628
0.644, -1, 32.9118, 48.4856, -6.16467, 90.8248, -67.4084, 40.4862
0.648, -1, 32.9316, 48.4832, -6.21686, 90.8685, -67.3037, 40.5096
0.652, -1, 32.9514, 48.4808, -6.26899, 90.9121, -67.1991, 40.5329
0.656, -1, 32.9711, 48.4785, -6.32106, 90.9556, -67.0947, 40.5563
0.66, -1, 32.9908, 48.4761, -6.37306, 90.9991, -66.9903, 40.5796
0.664, -1, 33.0106, 48.4738, -6.425, 91.0426, -66.8861, 40.6028
0.668, -1, 33.0302, 48.4714, -6.47687, 91.086, -66.7821, 40.6261
0.672, -1, 33.0499, 48.4691, -6.52868, 91.1294, -66.6781, 40.6493
0.676, -1, 33.0695, 48.4668, -6.58043, 91.1727, -66.5743, 40.6725
0.68, -1, 33.0891, 48.4644, -6.63212, 91.2159, -66.4706, 40.6957
0.684, -1, 33.1087, 48.4621, -6.68375, 91.2591, -66.367, 40.7188
0.688, -1, 33.1283, 48.4598, -6.73531, 91.3023, -66.2635, 40.7419
0.692, -1, 33.1478, 48.4574, -6.78682, 91.3454, -66.1602, 40.765
0.696, -1, 33.1673, 48.4551, -6.83826, 91.3884, -66.057, 40.7881
0.7, -1, 33.1868, 48.4528, -6.88964, 91.4314, -65.9539, 40.8111
0.704, -1, 33.2063, 48.4505, -6.94096, 91.4744, -65.851, 40.8341
0.708, -1, 33.2257, 48.4482, -6.99222, 91.5173, -65.7481, 40.8571
0.712, -1, 33.2452, 48.4458, -7.04342, 91.5601, -65.6454, 40.88
0.716, -1, 33.2646, 48.4435, -7.09456, 91.6029, -65.5428, 40.9029
0.72, -1, 33.2839, 48.4412, -7.14564, 91.6457, -65.4403, 40.9258
0.724, -1, 33.3033, 48.4389, -7.19666, 91.6883, -65.3379, 40.9487
0.728, -1, 33.3226, 48.4366, -7.24762, 91.731, -65.2357, 40.9715
0.732, -1, 33.3419, 48.4343, -7.29852, 91.7736, -65.1336, 40.9943
0.736, -1, 33.3612, 48.432, -7.34936, 91.8161, -65.0316, 41.0171
0.74, -1, 33.3805, 48.4297, -7.40015, 91.8586, -64.9297, 41.0399
0.744, -1, 33.3997, 48.4274, -7.45087, 91.9011, -64.8279, 41.0626
0.748, -1, 33.4189, 48.4251, -7.50153, 91.9435, -64.7263, 41.0853
0.752, -1, 33.4381, 48.4228, -7.55214, 91.9858, -64.6247, 41.108
0.756, -1, 33.4573, 48.4206, -7.60269, 92.0281, -64.5233, 41.1306
0.76, -1, 33.4765, 48.4183, -7.65318, 92.0704, -64.422, 41.1533
0.764, -1, 33.4956, 48.416, -7.70362, 92.1126, -64.3208, 41.1759
0.768, -1, 33.5147, 48.4137, -7.75399, 92.1547, -64.2197, 41.1985
0.772, -1, 33.5338, 48.4115, -7.80431, 92.1968, -64.1188, 41.221
0.776, -1, 33.5529, 48.4092, -7.85457, 92.2389, -64.018, 41.2435
0.78, -1, 33.5719, 48.4069, -7.90478, 92.2809, -63.9172, 41.266
0.784, -1, 33.5909, 48.4046, -7.95493, 92.3229, -63.8166, 41.2885
0.788, -1, 33.6099, 48.4024, -8.00502, 92.3648, -63.7161, 41.311
0.792, -1, 33.6289, 48.4001, -8.05505, 92.4066, -63.6157, 41.3334
0.796, -1, 33.6479, 48.3979, -8.10503, 92.4485, -63.5154, 41.3558
0.8, -1, 33.6668, 48.3956, -8.15496, 92.4902, -63.4153, 41.3782
0.804, -1, 33.6857, 48.3934, -8.20482, 92.532, -63.3152, 41.4005
0.808, -1, 33.7046, 48.3911, -8.25464, 92.5737, -63.2153, 41.4228
0.812, -1, 33.7235, 48.3889, -8.30439, 92.6153, -63.1155, 41.4451
0.816, -1, 33.7424, 48.3866, -8.3541, 92.6569, -63.0158, 41.4674
0.82, -1, 33.7612, 48.3844, -8.40374, 92.6984, -62.9161, 41.4897
0.824, -1, 33.78, 48.3821, -8.45333, 92.7399, -62.8166, 41.5119
0.828, -1, 33.7988, 48.3799, -8.50287, 92.7814, -62.7173, 41.5341
0.832, -1, 33.8176, 48.3776, -8.55236, 92.8228, -62.618, 41.5563
0.836, -1, 33.8363, 48.3754, -8.60179, 92.8642, -62.5188, 41.5784
0.84, -1, 33.855, 48.3732, -8.65116, 92.9055, -62.4197, 41.6005
0.844, -1, 33.8738, 48.3709, -8.70049, 92.9467, -62.3208, 41.6226
0.848, -1, 33.8925, 48.3687, -8.74975, 92.988, -62.2219, 41.6447
0.852, -1, 33.9111, 48.3665, -8.79897, 93.0292, -62.1232, 41.6668
0.856, -1, 33.9298, 48.3643, -8.84813, 93.0703, -62.0246, 41.6888
0.86, -1, 33.9484, 48.3621, -8.89725, 93.1114, -61.926, 41.7108
0.864, -1, 33.967, 48.3598, -8.9463, 93.1524, -61.8276, 41.7328
0.868, -1, 33.9856, 48.3576, -8.99531, 93.1935, -61.7293, 41.7548
0.872, -1, 34.0042, 48.3554, -9.04426, 93.2344, -61.6311, 41.7767
0.876, -1, 34.0227, 48.3532, -9.09317, 93.2753, -61.5329, 41.7986
0.88, -1, 34.0413, 48.351, -9.14202, 93.3162, -61.4349, 41.8205
0.884, -1, 34.0598, 48.3488, -9.19082, 93.3571, -61.337, 41.8424
0.888, -1, 34.0783, 48.3466, -9.23956, 93.3979, -61.2392, 41.8642
0.892, -1, 34.0967, 48.3444, -9.28826, 93.4386, -61.1415, 41.8861
0.896, -1, 34.1152, 48.3422, -9.33691, 93.4793, -61.0439, 41.9079
0.9, -1, 34.1336, 48.34, -9.3855, 93.52, -60.9464, 41.9296
0.904, -1, 34.152, 48.3378, -9.43405, 93.5606, -60.849, 41.9514
0.908, -1, 34.1704, 48.3356, -9.48254, 93.6012, -60.7517, 41.9731
0.912, -1, 34.1888, 48.3334, -9.53098, 93.6417, -60.6545, 41.9948
0.916, -1, 34.2072, 48.3312, -9.57938, 93.6822, -60.5574, 42.0165
0.92, -1, 34.2255, 48.329, -9.62772, 93.7227, -60.4604, 42.0382
0.924, -1, 34.2438, 48.3269, -9.67601, 93.7631, -60.3636, 42.0598
0.928, -1, 34.2621, 48.3247, -9.72426, 93.8034, -60.2668, 42.0815
0.932, -1, 34.2804, 48.3225, -9.77246, 93.8438, -60.1701, 42.1031
0.936, -1, 34.2987, 48.3203, -9.8206, 93.8841, -60.0735, 42.1246
0.94, -1, 34.3169, 48.3182, -9.8687, 93.9243, -59.977, 42.1462
0.944, -1, 34.3351, 48.316, -9.91674, 93.9645, -59.8806, 42.1677
0.948, -1, 34.3534, 48.3138, -9.96474, 94.0047, -59.7843, 42.1892
0.952, -1, 34.3715, 48.3116, -10.0127, 94.0448, -59.6881, 42.2107
0.956, -1, 34.3897, 48.3095, -10.0606, 94.0849, -59.592, 42.2322
0.96, -1, 34.4079, 48.3073, -10.1085, 94.1249, -59.4959, 42.2536
0.964, -1, 34.426, 48.3052, -10.1563, 94.1649, -59.4, 42.2751
0.968, -1, 34.4441, 48.303, -10.204, 94.2049, -59.3042, 42.2965
0.972, -1, 34.4622, 48.3008, -10.2517, 94.2448, -59.2085, 42.3179
0.976, -1, 34.4803, 48.2987, -10.2994, 94.2847, -59.1129, 42.3392
0.98, -1, 34.4984, 48.2965, -10.347, 94.3246, -59.0173, 42.3606
0.984, -1, 34.5164, 48.2944, -10.3946, 94.3644, -58.9219, 42.3819
0.988, -1, 34.5344, 48.2922, -10.4421, 94.4041, -58.8266, 42.4032
0.992, -1, 34.5524, 48.2901, -10.4896, 94.4439, -58.7313, 42.4244
0.996, -1, 34.5704, 48.2879, -10.537, 94.4835, -58.6362, 42.4457
1, -1, 34.5884, 48.2858, -10.5844, 94.5232, -58.5411, 42.4669
1.004, -1, 34.6064, 48.2837, -10.6317, 94.5628, -58.4461, 42.4881
1.008, -1, 34.6243, 48.2815, -10.679, 94.6024, -58.3512, 42.5093
1.012, -1, 34.6422, 48.2794, -10.7262, 94.6419, -58.2565, 42.5305
1.016, -1, 34.6601, 48.2773, -10.7734, 94.6814, -58.1618, 42.5517
1.02, -1, 34.678, 48.2751, -10.8206, 94.7209, -58.0672, 42.5728
1.024, -1, 34.6959, 48.273, -10.8677, 94.7603, -57.9727, 42.5939
1.027, -1, 34.7137, 48.2709, -10.9147, 94.7996, -57.8783, 42.615
1.032, -1, 34.7316, 48.2687, -10.9618, 94.839, -57.7839, 42.6361
1.036, -1, 34.7494, 48.2666, -11.0087, 94.8783, -57.6897, 42.6571
1.04, -1, 34.7672, 48.2645, -11.0557, 94.9176, -57.5956, 42.6781
1.044, -1, 34.785, 48.2624, -11.1025, 94.9568, -57.5015, 42.6992
1.048, -1, 34.8027, 48.2603, -11.1494, 94.996, -57.4075, 42.7201
1.052, -1, 34.8205, 48.2582, -11.1962, 95.0351, -57.3137, 42.7411
1.055, -1, 34.8382, 48.256, -11.2429, 95.0742, -57.2199, 42.7621
1.06, -1, 34.8559, 48.2539, -11.2896, 95.1133, -57.1262, 42.783
1.064, -1, 34.8736, 48.2518, -11.3362, 95.1524, -57.0326, 42.8039
1.068, -1, 34.8913, 48.2497, -11.3829, 95.1914, -56.9391, 42.8248
1.072, -1, 34.909, 48.2476, -11.4294, 95.2303, -56.8456, 42.8457
1.076, -1, 34.9266, 48.2455, -11.4759, 95.2693, -56.7523, 42.8665
1.08, -1, 34.9442, 48.2434, -11.5224, 95.3082, -56.659, 42.8873
1.084, -1, 34.9618, 48.2413, -11.5689, 95.347, -56.5659, 42.9081
1.088, -1, 34.9795, 48.2392, -11.6153, 95.3858, -56.4728, 42.9289
1.091, -1, 34.997, 48.2371, -11.6616, 95.4246, -56.3798, 42.9497
1.096, -1, 35.0146, 48.235, -11.7079, 95.4634, -56.2869, 42.9705
1.1, -1, 35.0321, 48.2329, -11.7542, 95.5021, -56.1941, 42.9912
1.104, -1, 35.0497, 48.2309, -11.8004, 95.5408, -56.1014, 43.0119
1.108, -1, 35.0672, 48.2288, -11.8466, 95.5794, -56.0087, 43.0326
1.112, -1, 35.0847, 48.2267, -11.8927, 95.618, -55.9161, 43.0533
1.116, -1, 35.1022, 48.2246, -11.9388, 95.6566, -55.8237, 43.0739
1.119, -1, 35.1196, 48.2225, -11.9848, 95.6951, -55.7313, 43.0946
1.124, -1, 35.1371, 48.2204, -12.0309, 95.7336, -55.639, 43.1152
1.128, -1, 35.1545, 48.2184, -12.0768, 95.7721, -55.5468, 43.1358
1.132, -1, 35.172, 48.2163, -12.1227, 95.8105, -55.4546, 43.1564
1.136, -1, 35.1894, 48.2142, -12.1686, 95.8489, -55.3626, 43.1769
1.14, -1, 35.2067, 48.2121, -12.2145, 95.8873, -55.2706, 43.1975
1.144, -1, 35.2241, 48.2101, -12.2603, 95.9256, -55.1787, 43.218
1.147, -1, 35.2415, 48.208, -12.306, 95.9639, -55.0869, 43.2385
1.152, -1, 35.2588, 48.2059, -12.3517, 96.0021, -54.9952, 43.259
1.156, -1, 35.2761, 48.2039, -12.3974, 96.0404, -54.9035, 43.2795
1.16, -1, 35.2935, 48.2018, -12.443, 96.0785, -54.812, 43.2999
1.164, -1, 35.3108, 48.1997, -12.4886, 96.1167, -54.7205, 43.3204
1.168, -1, 35.328, 48.1977, -12.5342, 96.1548, -54.6291, 43.3408
1.172, -1, 35.3453, 48.1956, -12.5797, 96.1929, -54.5378, 43.3612
1.175, -1, 35.3625, 48.1936, -12.6252, 96.2309, -54.4466, 43.3816
1.18, -1, 35.3798, 48.1915, -12.6706, 96.269, -54.3554, 43.4019
1.184, -1, 35.397, 48.1895, -12.716, 96.3069, -54.2644, 43.4223
1.188, -1, 35.4142, 48.1874, -12.7614, 96.3449, -54.1734, 43.4426
1.192, -1, 35.4314, 48.1854, -12.8067, 96.3828, -54.0825, 43.4629
1.196, -1, 35.4486, 48.1833, -12.8519, 96.4207, -53.9916, 43.4832
1.2, -1, 35.4657, 48.1813, -12.8972, 96.4585, -53.9009, 43.5035
1.204, -1, 35.4829, 48.1792, -12.9424, 96.4964, -53.8102, 43.5237
1.208, -1, 35.5, 48.1772, -12.9875, 96.5341, -53.7196, 43.5439
1.212, -1, 35.5171, 48.1752, -13.0326, 96.5719, -53.6291, 43.5642
1.216, -1, 35.5342, 48.1731, -13.0777, 96.6096, -53.5387, 43.5844
1.22, -1, 35.5513, 48.1711, -13.1227, 96.6473, -53.4483, 43.6045
1.224, -1, 35.5684, 48.1691, -13.1677, 96.685, -53.358, 43.6247
1.228, -1, 35.5854, 48.167, -13.2127, 96.7226, -53.2678, 43.6449
1.232, -1, 35.6024, 48.165, -13.2576, 96.7602, -53.1777, 43.665
1.236, -1, 35.6193, 48.163, -13.3025, 96.7977, -53.0876, 43.6851
1.24, -1, 35.6361, 48.1611, -13.3473, 96.8352, -52.9977, 43.7052
1.244, -1, 35.6526, 48.1593, -13.3921, 96.8727, -52.9079, 43.7253
1.248, -1, 35.6687, 48.1576, -13.4368, 96.9101, -52.8182, 43.7453
1.252, -1, 35.6845, 48.1561, -13.4813, 96.9474, -52.7288, 43.7653
1.256, -1, 35.6998, 48.1549, -13.5257, 96.9846, -52.6398, 43.7852
1.26, -1, 35.7144, 48.154, -13.5697, 97.0214, -52.5514, 43.8049
1.264, -1, 35.7284, 48.1534, -13.6133, 97.058, -52.4638, 43.8245
1.267, -1, 35.7418, 48.1533, -13.6563, 97.094, -52.3775, 43.8438
1.272, -1, 35.7544, 48.1534, -13.6984, 97.1293, -52.293, 43.8627
1.276, -1, 35.7664, 48.1539, -13.7394, 97.1637, -52.2106, 43.8812
1.28, -1, 35.7778, 48.1545, -13.7789, 97.1969, -52.1312, 43.8989
1.284, -1, 35.7885, 48.1552, -13.8167, 97.2286, -52.0552, 43.9159
1.288, -1, 35.7988, 48.1559, -13.8524, 97.2586, -51.9835, 43.932
1.292, -1, 35.8086, 48.1563, -13.8858, 97.2866, -51.9165, 43.947
1.295, -1, 35.818, 48.1565, -13.9165, 97.3123, -51.8549, 43.9608
1.3, -1, 35.8271, 48.1563, -13.9443, 97.3356, -51.7991, 43.9733
1.304, -1, 35.8359, 48.1556, -13.9691, 97.3564, -51.7493, 43.9844
1.308, -1, 35.8444, 48.1544, -13.9909, 97.3746, -51.7057, 43.9941
1.312, -1, 35.8525, 48.1528, -14.0096, 97.3902, -51.6681, 44.0025
1.316, -1, 35.8603, 48.1509, -14.0254, 97.4034, -51.6365, 44.0096
1.32, -1, 35.8677, 48.1486, -14.0385, 97.4142, -51.6103, 44.0154
1.324, -1, 35.8747, 48.1461, -14.049, 97.423, -51.5893, 44.02
1.328, -1, 35.8814, 48.1434, -14.0573, 97.4298, -51.5727, 44.0237
1.332, -1, 35.8876, 48.1407, -14.0637, 97.4351, -51.56, 44.0265
1.336, -1, 35.8933, 48.1381, -14.0685, 97.439, -51.5505, 44.0286
1.34, -1, 35.8984, 48.1357, -14.072, 97.4419, -51.5436, 44.0301
1.344, 2, 35.9027, 48.1336, -14.0745, 97.4439, -51.5387, 44.0312
1.348, 2, 35.9062, 48.1319, -14.0763, 97.4453, -51.5352, 44.0319
1.352, 2, 35.9089, 48.1307, -14.0775, 97.4462, -51.5328, 44.0324
1.356, 2, 35.9109, 48.1297, -14.0783, 97.4469, -51.5312, 44.0328
1.36, 2, 35.9123, 48.1291, -14.0789, 97.4473, -51.5301, 44.033
1.364, 2, 35.9132, 48.1287, -14.0792, 97.4476, -51.5294, 44.0332
1.368, 2, 35.9138, 48.1284, -14.0795, 97.4479, -51.5289, 44.0333
1.372, 2, 35.9142, 48.1282, -14.0797, 97.448, -51.5286, 44.0334
1.376, 2, 35.9145, 48.1281, -14.0798, 97.4481, -51.5283, 44.0334
1.38, 2, 35.9147, 48.128, -14.0799, 97.4482, -51.5282, 44.0335
1.384, 2, 35.9149, 48.1279, -14.0799, 97.4482, -51.5281, 44.0335
1.388, 2, 35.9149, 48.1279, -14.0799, 97.4482, -51.528, 44.0335
1.392, 2, 35.915, 48.1278, -14.08, 97.4482, -51.5279, 44.0335
1.396, 2, 35.915, 48.1278, -14.08, 97.4483, -51.5279, 44.0335
1.4, 2, 35.9151, 48.1278, -14.08, 97.4483, -51.5279, 44.0335
1.404, 2, 35.9151, 48.1278, -14.08, 97.4483, -51.5279, 44.0335
1.408, 2, 35.9151, 48.1278, -14.08, 97.4483, -51.5279, 44.0335
1.412, 2, 35.9151, 48.1278, -14.08, 97.4483, -51.5279, 44.0335
1.416, 2, 35.9151, 48.1278, -14.08, 97.4483, -51.5279, 44.0335
1.42, 2, 35.9151, 48.1278, -14.08, 97.4483, -51.5278, 44.0335
1.424, 2, 35.9151, 48.1278, -14.08, 97.4483, -51.5278, 44.0335
1.428, 2, 35.9151, 48.1278, -14.08, 97.4483, -51.5278, 44.0335
1.432, 2, 35.9151, 48.1278, -14.08, 97.4483, -51.5278, 44.0335
1.436, 2, 35.9151, 48.1278, -14.08, 97.4483, -51.5278, 44.0335
1.44, 2, 35.9151, 48.1278, -14.08, 97.4483, -51.5278, 44.0335
1.444, 2, 35.9151, 48.1278, -14.08, 97.4483, -51.5278, 44.0335
1.448, 2, 35.9151, 48.1278, -14.08, 97.4483, -51.5278, 44.0335
1.452, 2, 35.9151, 48.1278, -14.08, 97.4483, -51.5278, 44.0335
1.456, 2, 35.9151, 48.1278, -14.08, 97.4483, -51.5278, 44.0335
1.46, 2, 35.9151, 48.1278, -14.08, 97.4483, -51.5278, 44.0335
1.464, 2, 35.9151, 48.1278, -14.08, 97.4483, -51.5278, 44.0335
1.468, 2, 35.9151, 48.1278, -14.08, 97.4483, -51.5278, 44.0335
1.472, 2, 35.9151, 48.1278, -14.08, 97.4483, -51.5278, 44.0335
1.476, 2, 35.9151, 48.1278, -14.08, 97.4483, -51.5278, 44.0335
1.48, 2, 35.9151, 48.1278, -14.08, 97.4483, -51.5278, 44.0335
1.484, 2, 35.9151, 48.1278, -14.08, 97.4483, -51.5278, 44.0335
1.488, 2, 35.9151, 48.1278, -14.08, 97.4483, -51.5278, 44.0335
1.492, 2, 35.9151, 48.1278, -14.08, 97.4483, -51.5278, 44.0335
1.496, 2, 35.9151, 48.1278, -14.08, 97.4483, -51.5278, 44.0335
1.5, 2, 35.9151, 48.1278, -14.08, 97.4483, -51.5278, 44.0335
1.504, 2, 35.9151, 48.1278, -14.08, 97.4483, -51.5278, 44.0335
1.508, 2, 35.9151, 48.1278, -14.08, 97.4483, -51.5278, 44.0335
1.512, 2, 35.9151, 48.1278, -14.08, 97.4483, -51.5278, 44.0335
1.516, 2, 35.9151, 48.1278, -14.08, 97.4483, -51.5278, 44.0335
1.52, 2, 35.9151, 48.1278, -14.08, 97.4483, -51.5278, 44.0335
1.524, 2, 35.9151, 48.1278, -14.08, 97.4483, -51.5278, 44.0335
1.528, 2, 35.9151, 48.1278, -14.08, 97.4483, -51.5278, 44.0335
1.532, 2, 35.9151, 48.1278, -14.08, 97.4483, -51.5278, 44.0335
1.536, 2, 35.9151, 48.1278, -14.08, 97.4483, -51.5278, 44.0335
1.54, 2, 35.9151, 48.1278, -14.08, 97.4483, -51.5278, 44.0335
1.544, 2, 35.9151, 48.1278, -14.08, 97.4483, -51.5278, 44.0335
1.548, 2, 35.9151, 48.1278, -14.08, 97.4483, -51.5278, 44.0335
1.552, 2, 35.9151, 48.1278, -14.08, 97.4483, -51.5278, 44.0335
1.556, 2, 35.9151, 48.1278, -14.08, 97.4483, -51.5278, 44.0335
1.56, 2, 35.9151, 48.1278, -14.08, 97.4483, -51.5278, 44.0335
1.564, 2, 35.9151, 48.1278, -14.08, 97.4483, -51.5278, 44.0335
1.568, 2, 35.9151, 48.1278, -14.08, 97.4483, -51.5278, 44.0335
1.572, 2, 35.9151, 48.1278, -14.08, 97.4483, -51.5278, 44.0335
1.576, 2, 35.9151, 48.1278, -14.08, 97.4483, -51.5278, 44.0335
1.58, 2, 35.9151, 48.1278, -14.08, 97.4483, -51.5278, 44.0335
1.584, 2, 35.9151, 48.1278, -14.08, 97.4483, -51.5278, 44.0335
1.588, 2, 35.9151, 48.1278, -14.08, 97.4483, -51.5278, 44.0335
1.592, 2, 35.9151, 48.1278, -14.08, 97.4483, -51.5278, 44.0335
1.596, 2, 35.9151, 48.1278, -14.08, 97.4483, -51.5278, 44.0335
1.6, 2, 35.9151, 48.1278, -14.08, 97.4483, -51.5278, 44.0335
1.604, 2, 35.9151, 48.1278, -14.08, 97.4483, -51.5278, 44.0335
1.608, 2, 35.9151, 48.1278, -14.08, 97.4483, -51.5278, 44.0335
1.612, 2, 35.9151, 48.1278, -14.08, 97.4483, -51.5278, 44.0335
1.616, 2, 35.9151, 48.1278, -14.08, 97.4483, -51.5278, 44.0335
1.62, 2, 35.9151, 48.1278, -14.08, 97.4483, -51.5278, 44.0335
1.624, 2, 35.9151, 48.1278, -14.08, 97.4483, -51.5278, 44.0335
1.628, 2, 35.9151, 48.1278, -14.08, 97.4483, -51.5278, 44.0335
1.632, 2, 35.9151, 48.1278, -14.08, 97.4483, -51.5278, 44.0335
1.636, 2, 35.9151, 48.1278, -14.08, 97.4483, -51.5278, 44.0335
1.64, 2, 35.9151, 48.1278, -14.08, 97.4483, -51.5278, 44.0335
1.644, 2, 35.9151, 48.1278, -14.08, 97.4483, -51.5278, 44.0335
1.648, 2, 35.9151, 48.1278, -14.08, 97.4483, -51.5278, 44.0335
1.652, 2, 35.9151, 48.1278, -14.08, 97.4483, -51.5278, 44.0335
1.656, 2, 35.9151, 48.1278, -14.08, 97.4483, -51.5278, 44.0335
1.66, 2, 35.9151, 48.1278, -14.08, 97.4483, -51.5278, 44.0335
1.664, 2, 35.9151, 48.1278, -14.08, 97.4483, -51.5278, 44.0335
1.668, 2, 35.9151, 48.1278, -14.08, 97.4483, -51.5278, 44.0335
1.672, 2, 35.9151, 48.1278, -14.08, 97.4483, -51.5278, 44.0335
1.676, 2, 35.9151, 48.1278, -14.08, 97.4483, -51.5278, 44.0335
1.68, 2, 35.9151, 48.1278, -14.08, 97.4483, -51.5278, 44.0335
1.684, 2, 35.9151, 48.1278, -14.08, 97.4483, -51.5278, 44.0335
1.688, 2, 35.9151, 48.1278, -14.08, 97.4483, -51.5278, 44.0335
1.692, 2, 35.9151, 48.1278, -14.08, 97.4483, -51.5278, 44.0335
1.696, 2, 35.9151, 48.1278, -14.08, 97.4483, -51.5278, 44.0335
1.7, 2, 35.9151, 48.1278, -14.08, 97.4483, -51.5278, 44.0335
1.704, 2, 35.9151, 48.1278, -14.08, 97.4483, -51.5278, 44.0335
1.708, 2, 35.9151, 48.1278, -14.08, 97.4483, -51.5278, 44.0335
1.712, 2, 35.9151, 48.1278, -14.08, 97.4483, -51.5278, 44.0335
1.716, 2, 35.9151, 48.1278, -14.08, 97.4483, -51.5278, 44.0335
1.72, 2, 35.9151, 48.1278, -14.08, 97.4483, -51.5278, 44.0335
1.724, 2, 35.9151, 48.1278, -14.08, 97.4483, -51.5278, 44.0335
1.728, 2, 35.9151, 48.1278, -14.08, 97.4483, -51.5278, 44.0335
1.732, 2, 35.9151, 48.1278, -14.08, 97.4483, -51.5278, 44.0335
1.736, 2, 35.9151, 48.1278, -14.08, 97.4483, -51.5278, 44.0335
1.74, 2, 35.9151, 48.1278, -14.08, 97.4483, -51.5278, 44.0335
1.744, 2, 35.9151, 48.1278, -14.08, 97.4483, -51.5278, 44.0335
1.748, 2, 35.9151, 48.1278, -14.08, 97.4483, -51.5278, 44.0335
1.752, 2, 35.9151, 48.1278, -14.08, 97.4483, -51.5278, 44.0335
1.756, 2, 35.9151, 48.1278, -14.08, 97.4483, -51.5278, 44.0335
1.76, 2, 35.9151, 48.1278, -14.08, 97.4483, -51.5278, 44.0335
1.764, 2, 35.9151, 48.1278, -14.08, 97.4483, -51.5278, 44.0335
1.768, 2, 35.9151, 48.1278, -14.08, 97.4483, -51.5278, 44.0335
1.772, 2, 35.9151, 48.1278, -14.08, 97.4483, -51.5278, 44.0335
1.776, 2, 35.9151, 48.1278, -14.08, 97.4483, -51.5278, 44.0335
1.78, 2, 35.9151, 48.1278, -14.08, 97.4483, -51.5278, 44.0335
1.784, 2, 35.9151, 48.1278, -14.08, 97.4483, -51.5278, 44.0335
1.788, 2, 35.9151, 48.1278, -14.08, 97.4483, -51.5278, 44.0335
1.792, 2, 35.9151, 48.1278, -14.08, 97.4483, -51.5278, 44.0335
1.796, 2, 35.9151, 48.1278, -14.08, 97.4483, -51.5278, 44.0335
1.8, 2, 35.9151, 48.1278, -14.08, 97.4483, -51.5278, 44.0335
1.804, 2, 35.9151, 48.1278, -14.08, 97.4483, -51.5278, 44.0335
1.808, 2, 35.9151, 48.1278, -14.08, 97.4483, -51.5278, 44.0335
1.812, 2, 35.9151, 48.1278, -14.08, 97.4483, -51.5278, 44.0335
1.816, 2, 35.9151, 48.1278, -14.08, 97.4483, -51.5278, 44.0335
1.82, 2, 35.9151, 48.1278, -14.08, 97.4483, -51.5278, 44.0335
1.824, 2, 35.9151, 48.1278, -14.08, 97.4483, -51.5278, 44.0335
1.828, 2, 35.9151, 48.1278, -14.08, 97.4483, -51.5278, 44.0335
1.832, 2, 35.9151, 48.1278, -14.08, 97.4483, -51.5278, 44.0335
1.836, 2, 35.9151, 48.1278, -14.08, 97.4483, -51.5278, 44.0335
1.84, 2, 35.9151, 48.1278, -14.08, 97.4483, -51.5278, 44.0335
1.844, 2, 35.9151, 48.1278, -14.08, 97.4483, -51.5278, 44.0335
1.848, 2, 35.9151, 48.1278, -14.08, 97.4483, -51.5278, 44.0335
1.852, 2, 35.9151, 48.1278, -14.08, 97.4483, -51.5278, 44.0335
1.856, 2, 35.9151, 48.1278, -14.08, 97.4483, -51.5278, 44.0335
1.86, 2, 35.9151, 48.1278, -14.08, 97.4483, -51.5278, 44.0335
1.864, 2, 35.9151, 48.1278, -14.08, 97.4483, -51.5278, 44.0335
1.868, 2, 35.9151, 48.1278, -14.08, 97.4483, -51.5278, 44.0335
1.872, 2, 35.9151, 48.1278, -14.08, 97.4483, -51.5278, 44.0335
1.876, 2, 35.9151, 48.1278, -14.08, 97.4483, -51.5278, 44.0335
1.88, 2, 35.9151, 48.1278, -14.08, 97.4483, -51.5278, 44.0335
1.884, 2, 35.9151, 48.1278, -14.08, 97.4483, -51.5278, 44.0335
1.888, 2, 35.9151, 48.1278, -14.08, 97.4483, -51.5278, 44.0335
1.892, 2, 35.9151, 48.1278, -14.08, 97.4483, -51.5278, 44.0335
1.896, 2, 35.9151, 48.1278, -14.08, 97.4483, -51.5278, 44.0335
1.9, 2, 35.9151, 48.1278, -14.08, 97.4483, -51.5278, 44.0335
1.904, 2, 35.9151, 48.1278, -14.08, 97.4483, -51.5278, 44.0335
1.908, 2, 35.9151, 48.1278, -14.08, 97.4483, -51.5278, 44.0335
1.912, 2, 35.9151, 48.1278, -14.08, 97.4483, -51.5278, 44.0335
1.916, 2, 35.9151, 48.1278, -14.08, 97.4483, -51.5278, 44.0335
1.92, 2, 35.9151, 48.1278, -14.08, 97.4483, -51.5278, 44.0335
1.924, 2, 35.9151, 48.1278, -14.08, 97.4483, -51.5278, 44.0335
1.928, 2, 35.9151, 48.1278, -14.08, 97.4483, -51.5278, 44.0335
1.932, 2, 35.9151, 48.1278, -14.08, 97.4483, -51.5278, 44.0335
1.936, 2, 35.9151, 48.1278, -14.08, 97.4483, -51.5278, 44.0335
1.94, 2, 35.9151, 48.1278, -14.08, 97.4483, -51.5278, 44.0335
1.944, 2, 35.9151, 48.1278, -14.08, 97.4483, -51.5278, 44.0335
1.948, 2, 35.9151, 48.1278, -14.08, 97.4483, -51.5278, 44.0335
1.952, 2, 35.9151, 48.1278, -14.08, 97.4483, -51.5278, 44.0335
1.956, 2, 35.9151, 48.1278, -14.08, 97.4483, -51.5278, 44.0335
1.96, 2, 35.9151, 48.1278, -14.08, 97.4483, -51.5278, 44.0335
1.964, 2, 35.9151, 48.1278, -14.08, 97.4483, -51.5278, 44.0335
1.968, 2, 35.9151, 48.1278, -14.08, 97.4483, -51.5278, 44.0335
1.972, 2, 35.9151, 48.1278, -14.08, 97.4483, -51.5278, 44.0335
1.976, 2, 35.9151, 48.1278, -14.08, 97.4483, -51.5278, 44.0335
1.98, 2, 35.9151, 48.1278, -14.08, 97.4483, -51.5278, 44.0335
1.984, 2, 35.9151, 48.1278, -14.08, 97.4483, -51.5278, 44.0335
1.988, 2, 35.9151, 48.1278, -14.08, 97.4483, -51.5278, 44.0335
1.992, 2, 35.9151, 48.1278, -14.08, 97.4483, -51.5278, 44.0335
1.996, 2, 35.9151, 48.1278, -14.08, 97.4483, -51.5278, 44.0335
1.999, 2, 35.9151, 48.1278, -14.08, 97.4483, -51.5278, 44.0335
2.004, 2, 35.9151, 48.1278, -14.08, 97.4483, -51.5278, 44.0335
2.008, 2, 35.9151, 48.1278, -14.08, 97.4483, -51.5278, 44.0335
2.012, 2, 35.9151, 48.1278, -14.08, 97.4483, -51.5278, 44.0335
2.015, 2, 35.9151, 48.1278, -14.08, 97.4483, -51.5278, 44.0335
2.019, 2, 35.9151, 48.1278, -14.08, 97.4483, -51.5278, 44.0335
2.024, 2, 35.9151, 48.1278, -14.08, 97.4483, -51.5278, 44.0335
2.028, 2, 35.9151, 48.1278, -14.08, 97.4483, -51.5278, 44.0335
2.031, 2, 35.9151, 48.1278, -14.08, 97.4483, -51.5278, 44.0335
2.036, 2, 35.9151, 48.1278, -14.08, 97.4483, -51.5278, 44.0335
2.04, 2, 35.9151, 48.1278, -14.08, 97.4483, -51.5278, 44.0335
2.044, 2, 35.9151, 48.1278, -14.08, 97.4483, -51.5278, 44.0335
2.048, 2, 35.9151, 48.1278, -14.08, 97.4483, -51.5278, 44.0335
2.051, 2, 35.9151, 48.1278, -14.08, 97.4483, -51.5278, 44.0335
2.055, 2, 35.9151, 48.1278, -14.08, 97.4483, -51.5278, 44.0335
2.06, 2, 35.9151, 48.1278, -14.08, 97.4483, -51.5278, 44.0335
2.064, 2, 35.9151, 48.1278, -14.08, 97.4483, -51.5278, 44.0335
2.068, 2, 35.9151, 48.1278, -14.08, 97.4483, -51.5278, 44.0335
2.071, 2, 35.9151, 48.1278, -14.08, 97.4483, -51.5278, 44.0335
2.076, 2, 35.9151, 48.1278, -14.08, 97.4483, -51.5278, 44.0335
2.08, 2, 35.9151, 48.1278, -14.08, 97.4483, -51.5278, 44.0335
2.084, 2, 35.9151, 48.1278, -14.08, 97.4483, -51.5278, 44.0335
2.087, 2, 35.9151, 48.1278, -14.08, 97.4483, -51.5278, 44.0335
2.092, 2, 35.9151, 48.1278, -14.08, 97.4483, -51.5278, 44.0335
2.096, 2, 35.9151, 48.1278, -14.08, 97.4483, -51.5278, 44.0335
2.1, 2, 35.9151, 48.1278, -14.08, 97.4483, -51.5278, 44.0335
2.104, 2, 35.9151, 48.1278, -14.08, 97.4483, -51.5278, 44.0335
2.107, 2, 35.9151, 48.1278, -14.08, 97.4483, -51.5278, 44.0335
2.111, 2, 35.9151, 48.1278, -14.08, 97.4483, -51.5278, 44.0335
2.116, 2, 35.9151, 48.1278, -14.08, 97.4483, -51.5278, 44.0335
2.12, 2, 35.9151, 48.1278, -14.08, 97.4483, -51.5278, 44.0335
2.124, 2, 35.9151, 48.1278, -14.08, 97.4483, -51.5278, 44.0335
2.127, 2, 35.9151, 48.1278, -14.08, 97.4483, -51.5278, 44.0335
2.132, 2, 35.9151, 48.1278, -14.08, 97.4483, -51.5278, 44.0335
2.136, 2, 35.9151, 48.1278, -14.08, 97.4483, -51.5278, 44.0335
2.14, 2, 35.9151, 48.1278, -14.08, 97.4483, -51.5278, 44.0335
2.143, 2, 35.9151, 48.1278, -14.08, 97.4483, -51.5278, 44.0335
2.148, 2, 35.9151, 48.1278, -14.08, 97.4483, -51.5278, 44.0335
2.152, 2, 35.9151, 48.1278, -14.08, 97.4483, -51.5278, 44.0335
2.156, 2, 35.9151, 48.1278, -14.08, 97.4483, -51.5278, 44.0335
2.16, 2, 35.9151, 48.1278, -14.08, 97.4483, -51.5278, 44.0335
2.163, 2, 35.9151, 48.1278, -14.08, 97.4483, -51.5278, 44.0335
2.168, 2, 35.9151, 48.1278, -14.08, 97.4483, -51.5278, 44.0335
2.172, 2, 35.9151, 48.1278, -14.08, 97.4483, -51.5278, 44.0335
2.176, 2, 35.9151, 48.1278, -14.08, 97.4483, -51.5278, 44.0335
2.179, 2, 35.9151, 48.1278, -14.08, 97.4483, -51.5278, 44.0335
2.184, 2, 35.9151, 48.1278, -14.08, 97.4483, -51.5278, 44.0335
2.188, 2, 35.9151, 48.1278, -14.08, 97.4483, -51.5278, 44.0335
2.192, 2, 35.9151, 48.1278, -14.08, 97.4483, -51.5278, 44.0335
2.196, 2, 35.9151, 48.1278, -14.08, 97.4483, -51.5278, 44.0335
2.199, 2, 35.9151, 48.1278, -14.08, 97.4483, -51.5278, 44.0335
2.204, 2, 35.9151, 48.1278, -14.08, 97.4483, -51.5278, 44.0335
2.208, 2, 35.9151, 48.1278, -14.08, 97.4483, -51.5278, 44.0335
2.212, 2, 35.9151, 48.1278, -14.08, 97.4483, -51.5278, 44.0335
2.216, 2, 35.9151, 48.1278, -14.08, 97.4483, -51.5278, 44.0335
2.219, 2, 35.9151, 48.1278, -14.08, 97.4483, -51.5278, 44.0335
2.224, 2, 35.9151, 48.1278, -14.08, 97.4483, -51.5278, 44.0335
2.228, 2, 35.9151, 48.1278, -14.08, 97.4483, -51.5278, 44.0335
2.232, 2, 35.9151, 48.1278, -14.08, 97.4483, -51.5278, 44.0335
2.235, 2, 35.9151, 48.1278, -14.08, 97.4483, -51.5278, 44.0335
2.24, 2, 35.9151, 48.1278, -14.08, 97.4483, -51.5278, 44.0335
2.244, 2, 35.9151, 48.1278, -14.08, 97.4483, -51.5278, 44.0335
2.248, 2, 35.9151, 48.1278, -14.08, 97.4483, -51.5278, 44.0335
2.252, 2, 35.9151, 48.1278, -14.08, 97.4483, -51.5278, 44.0335
2.255, 2, 35.9151, 48.1278, -14.08, 97.4483, -51.5278, 44.0335
2.259, 2, 35.9151, 48.1278, -14.08, 97.4483, -51.5278, 44.0335
2.264, 2, 35.9151, 48.1278, -14.08, 97.4483, -51.5278, 44.0335
2.268, 2, 35.9151, 48.1278, -14.08, 97.4483, -51.5278, 44.0335
2.272, 2, 35.9151, 48.1278, -14.08, 97.4483, -51.5278, 44.0335
2.275, 2, 35.9151, 48.1278, -14.08, 97.4483, -51.5278, 44.0335
2.28, 2, 35.9151, 48.1278, -14.08, 97.4483, -51.5278, 44.0335
2.284, 2, 35.9151, 48.1278, -14.08, 97.4483, -51.5278, 44.0335
2.288, 2, 35.9151, 48.1278, -14.08, 97.4483, -51.5278, 44.0335
2.291, 2, 35.9151, 48.1278, -14.08, 97.4483, -51.5278, 44.0335
2.296, 2, 35.9151, 48.1278, -14.08, 97.4483, -51.5278, 44.0335
2.3, 2, 35.9151, 48.1278, -14.08, 97.4483, -51.5278, 44.0335
2.304, 2, 35.9151, 48.1278, -14.08, 97.4483, -51.5278, 44.0335
2.308, 2, 35.9151, 48.1278, -14.08, 97.4483, -51.5278, 44.0335
2.311, 2, 35.9151, 48.1278, -14.08, 97.4483, -51.5278, 44.0335
2.316, 2, 35.9151, 48.1278, -14.08, 97.4483, -51.5278, 44.0335
2.32, 2, 35.9151, 48.1278, -14.08, 97.4483, -51.5278, 44.0335
2.324, 2, 35.9151, 48.1278, -14.08, 97.4483, -51.5278, 44.0335
2.328, 2, 35.9151, 48.1278, -14.08, 97.4483, -51.5278, 44.0335
2.331, 2, 35.9151, 48.1278, -14.08, 97.4483, -51.5278, 44.0335
2.336, 2, 35.9151, 48.1278, -14.08, 97.4483, -51.5278, 44.0335
2.34, 2, 35.9151, 48.1278, -14.08, 97.4483, -51.5278, 44.0335
2.344, 2, 35.9151, 48.1278, -14.08, 97.4483, -51.5278, 44.0335
2.347, 2, 35.9151, 48.1278, -14.08, 97.4483, -51.5278, 44.0335
2.352, 2, 35.9151, 48.1278, -14.08, 97.4483, -51.5278, 44.0335
2.356, 2, 35.9151, 48.1278, -14.08, 97.4483, -51.5278, 44.0335
2.36, 2, 35.9151, 48.1278, -14.08, 97.4483, -51.5278, 44.0335
2.364, 2, 35.9151, 48.1278, -14.08, 97.4483, -51.5278, 44.0335
2.367, 2, 35.9151, 48.1278, -14.08, 97.4483, -51.5278, 44.0335
2.372, 2, 35.9151, 48.1278, -14.08, 97.4483, -51.5278, 44.0335
2.376, 2, 35.9151, 48.1278, -14.08, 97.4483, -51.5278, 44.0335
2.38, 2, 35.9151, 48.1278, -14.08, 97.4483, -51.5278, 44.0335
2.383, 2, 35.9151, 48.1278, -14.08, 97.4483, -51.5278, 44.0335
2.388, 2, 35.9151, 48.1278, -14.08, 97.4483, -51.5278, 44.0335
2.392, 2, 35.9151, 48.1278, -14.08, 97.4483, -51.5278, 44.0335
2.396, 2, 35.9151, 48.1278, -14.08, 97.4483, -51.5278, 44.0335
2.4, 4, 35.9151, 48.1278, -14.08, 97.4483, -51.5278, 44.0335
2.403, 4, 35.9151, 48.1278, -14.08, 97.4483, -51.5278, 44.0335
2.408, 4, 35.9151, 48.1278, -14.08, 97.4483, -51.5278, 44.0335
2.412, 4, 35.9151, 48.1278, -14.08, 97.4483, -51.5278, 44.0335
2.416, 4, 35.9151, 48.1278, -14.08, 97.4483, -51.5278, 44.0335
2.42, 4, 35.9151, 48.1278, -14.08, 97.4483, -51.5278, 44.0335
2.423, 4, 35.9151, 48.1278, -14.08, 97.4483, -51.5278, 44.0335
2.428, 4, 35.9151, 48.1278, -14.08, 97.4483, -51.5278, 44.0335
2.432, 4, 35.9151, 48.1278, -14.08, 97.4483, -51.5278, 44.0335
2.436, 4, 35.9151, 48.1278, -14.08, 97.4483, -51.5278, 44.0335
2.439, 4, 35.9151, 48.1278, -14.08, 97.4483, -51.5278, 44.0335
2.444, 4, 35.9151, 48.1278, -14.08, 97.4483, -51.5278, 44.0335
2.448, 4, 35.9151, 48.1278, -14.08, 97.4483, -51.5278, 44.0335
2.452, 4, 35.9151, 48.1278, -14.08, 97.4483, -51.5278, 44.0335
2.456, 4, 35.9151, 48.1278, -14.08, 97.4483, -51.5278, 44.0335
2.459, 4, 35.9151, 48.1278, -14.08, 97.4483, -51.5278, 44.0335
2.464, 4, 35.9151, 48.1278, -14.08, 97.4483, -51.5278, 44.0335
2.468, 4, 35.9151, 48.1278, -14.08, 97.4483, -51.5278, 44.0335
2.472, 4, 35.9151, 48.1278, -14.08, 97.4483, -51.5278, 44.0335
2.476, 4, 35.9151, 48.1278, -14.08, 97.4483, -51.5278, 44.0335
2.479, 4, 35.9151, 48.1278, -14.08, 97.4483, -51.5278, 44.0335
2.484, 4, 35.9151, 48.1278, -14.08, 97.4483, -51.5278, 44.0335
2.488, 4, 35.9151, 48.1278, -14.08, 97.4483, -51.5278, 44.0335
2.492, 4, 35.9151, 48.1278, -14.08, 97.4483, -51.5278, 44.0335
2.495, 4, 35.9151, 48.1278, -14.08, 97.4483, -51.5278, 44.0335
2.5, 4, 35.9151, 48.1278, -14.08, 97.4483, -51.5278, 44.0335
2.506, 4, 35.9151, 48.1278, -14.08, 97.4483, -51.5278, 44.0335
2.51, 4, 35.9151, 48.1278, -14.08, 97.4483, -51.5278, 44.0335
2.514, 4, 35.9151, 48.1278, -14.08, 97.4483, -51.5278, 44.0335
2.517, 4, 35.9151, 48.1278, -14.08, 97.4483, -51.5278, 44.0335
2.522, 4, 35.9151, 48.1278, -14.08, 97.4483, -51.5278, 44.0335
2.526, 4, 35.9151, 48.1278, -14.08, 97.4483, -51.5278, 44.0335
2.528, 4, 35.9151, 48.1278, -14.08, 97.4483, -51.5278, 44.0335
2.531, 4, 35.9151, 48.1278, -14.08, 97.4483, -51.5278, 44.0335
2.536, 4, 35.9151, 48.1278, -14.08, 97.4483, -51.5278, 44.0335
2.54, 4, 35.9151, 48.1278, -14.08, 97.4483, -51.5278, 44.0335
2.544, 4, 35.9151, 48.1278, -14.08, 97.4483, -51.5278, 44.0335
2.548, 4, 35.9151, 48.1278, -14.08, 97.4483, -51.5278, 44.0335
2.551, 4, 35.9151, 48.1278, -14.08, 97.4483, -51.5278, 44.0335
2.556, 4, 35.9151, 48.128, -14.08, 97.4483, -51.5279, 44.0335
2.56, 4, 35.9149, 48.1283, -14.08, 97.4483, -51.5279, 44.0335
2.564, 4, 35.9147, 48.1291, -14.0801, 97.4483, -51.528, 44.0334
2.568, 4, 35.9142, 48.1303, -14.0802, 97.4483, -51.5284, 44.0332
2.571, 4, 35.9136, 48.1322, -14.0803, 97.4483, -51.5291, 44.0328
2.576, 4, 35.9128, 48.1348, -14.0805, 97.4484, -51.5305, 44.0319
2.58, 4, 35.9117, 48.1383, -14.0809, 97.4484, -51.5328, 44.0305
2.584, 4, 35.9104, 48.1428, -14.0814, 97.4485, -51.5366, 44.0282
2.587, 4, 35.9089, 48.1485, -14.0822, 97.4487, -51.5424, 44.0246
2.592, 4, 35.9071, 48.1556, -14.0833, 97.4489, -51.5508, 44.0195
2.596, 5, 35.9051, 48.1643, -14.0848, 97.4492, -51.5626, 44.0123
2.6, 5, 35.9029, 48.1749, -14.0868, 97.4495, -51.5788, 44.0025
2.604, 5, 35.9005, 48.1876, -14.0895, 97.45, -51.6001, 43.9895
2.607, 5, 35.8978, 48.2025, -14.0928, 97.4505, -51.6277, 43.9727
2.612, 5, 35.8948, 48.2197, -14.0969, 97.4512, -51.6627, 43.9515
2.616, 5, 35.8917, 48.2394, -14.102, 97.452, -51.7061, 43.9251
2.62, 5, 35.8884, 48.2618, -14.1081, 97.4528, -51.759, 43.8931
2.624, 5, 35.8848, 48.2869, -14.1153, 97.4538, -51.8225, 43.8547
2.627, 5, 35.8809, 48.3152, -14.1237, 97.4548, -51.8974, 43.8094
2.632, 5, 35.8767, 48.3467, -14.1333, 97.4559, -51.9847, 43.7568
2.636, 5, 35.8722, 48.3817, -14.1443, 97.4569, -52.0851, 43.6964
2.64, 5, 35.8673, 48.4204, -14.1566, 97.4579, -52.1994, 43.6279
2.643, 5, 35.862, 48.4628, -14.1702, 97.4587, -52.3281, 43.5509
2.648, 5, 35.8562, 48.5092, -14.1853, 97.4594, -52.4717, 43.4653
2.652, 5, 35.8499, 48.5597, -14.2017, 97.4597, -52.6306, 43.3708
2.656, 5, 35.843, 48.6145, -14.2194, 97.4596, -52.8051, 43.2674
2.66, 5, 35.8355, 48.6736, -14.2384, 97.4589, -52.9955, 43.155
2.663, 5, 35.8273, 48.7372, -14.2587, 97.4576, -53.202, 43.0335
2.668, 5, 35.8184, 48.8052, -14.2801, 97.4555, -53.4247, 42.9031
2.672, 5, 35.8088, 48.8775, -14.3026, 97.4524, -53.6636, 42.7638
2.676, 5, 35.7984, 48.9541, -14.326, 97.4482, -53.919, 42.6156
2.679, 5, 35.7873, 49.0348, -14.3503, 97.4428, -54.1906, 42.4587
2.684, 5, 35.7753, 49.1195, -14.3754, 97.4359, -54.4785, 42.2933
2.688, 5, 35.7626, 49.208, -14.401, 97.4274, -54.7824, 42.1196
2.692, 5, 35.749, 49.3, -14.4271, 97.4171, -55.102, 41.9379
2.696, 5, 35.7347, 49.3955, -14.4534, 97.405, -55.4369, 41.7485
2.699, 5, 35.7196, 49.4939, -14.4798, 97.3908, -55.7867, 41.5519
2.704, 5, 35.7038, 49.5951, -14.506, 97.3743, -56.1506, 41.3485
2.708, 5, 35.6872, 49.6988, -14.532, 97.3556, -56.528, 41.1388
2.712, 5, 35.6698, 49.8047, -14.5574, 97.3345, -56.9177, 40.9235
2.716, 5, 35.6516, 49.9127, -14.5822, 97.3109, -57.3189, 40.7032
2.719, 5, 35.6326, 50.0225, -14.6061, 97.2848, -57.7304, 40.4787
2.724, 5, 35.6127, 50.134, -14.6291, 97.2562, -58.1509, 40.2506
2.728, 5, 35.5918, 50.247, -14.6509, 97.225, -58.5792, 40.0196
2.732, 5, 35.5701, 50.3609, -14.6713, 97.1913, -59.0143, 39.7864
2.735, 5, 35.5474, 50.4756, -14.6903, 97.155, -59.4549, 39.5517
2.74, 5, 35.5237, 50.5908, -14.7078, 97.1163, -59.9, 39.316
2.744, 5, 35.4991, 50.7064, -14.7235, 97.0752, -60.3486, 39.0798
2.748, 5, 35.4736, 50.8222, -14.7376, 97.0316, -60.7999, 38.8436
2.752, 5, 35.4471, 50.9381, -14.7498, 96.9858, -61.253, 38.6078
2.755, 5, 35.4197, 51.0539, -14.7601, 96.9377, -61.7074, 38.3728
2.76, 5, 35.3914, 51.1695, -14.7685, 96.8874, -62.1625, 38.1386
2.764, 5, 35.3625, 51.2845, -14.7749, 96.835, -62.6179, 37.9056
2.768, 5, 35.3328, 51.3987, -14.7793, 96.7806, -63.0732, 37.6739
2.772, 5, 35.3026, 51.5116, -14.7817, 96.7241, -63.528, 37.4437
2.775, 5, 35.272, 51.6231, -14.782, 96.6658, -63.982, 37.215
2.78, 5, 35.2409, 51.7329, -14.7804, 96.6057, -64.4347, 36.9881
2.784, 5, 35.2097, 51.8408, -14.7767, 96.5439, -64.8858, 36.763
2.788, 5, 35.1785, 51.9465, -14.7711, 96.4805, -65.3347, 36.5401
2.791, 5, 35.1475, 52.05, -14.7636, 96.4158, -65.7807, 36.3196
2.796, 5, 35.1169, 52.1509, -14.7541, 96.3498, -66.2232, 36.1017
2.8, 5, 35.0867, 52.2492, -14.743, 96.2829, -66.6612, 35.8869
2.804, 5, 35.0568, 52.3447, -14.7301, 96.2151, -67.0938, 35.6756
2.808, 5, 35.0273, 52.4375, -14.7156, 96.1469, -67.5199, 35.4681
2.811, 5, 34.9979, 52.5274, -14.6998, 96.0784, -67.9383, 35.2651
2.816, 5, 34.9686, 52.6144, -14.6827, 96.01, -68.3481, 35.067
2.82, 5, 34.9394, 52.6985, -14.6644, 95.9419, -68.7479, 34.8743
2.824, 5, 34.9104, 52.7794, -14.6452, 95.8746, -69.1366, 34.6874
2.828, 5, 34.8816, 52.8571, -14.6253, 95.8082, -69.5132, 34.5069
2.831, 5, 34.8531, 52.9316, -14.6048, 95.743, -69.8766, 34.3331
2.836, 5, 34.825, 53.0028, -14.5839, 95.6795, -70.2259, 34.1665
2.84, 5, 34.797, 53.071, -14.5626, 95.6178, -70.5602, 34.0075
2.844, 5, 34.769, 53.1361, -14.5411, 95.5579, -70.8789, 33.8564
2.847, 5, 34.7408, 53.1983, -14.5193, 95.5001, -71.1816, 33.7135
2.852, 5, 34.7124, 53.2573, -14.4969, 95.4441, -71.4682, 33.5792
2.856, 5, 34.6837, 53.3131, -14.4737, 95.3898, -71.7386, 33.4537
2.86, 5, 34.6547, 53.3652, -14.4492, 95.3365, -71.9932, 33.3374
2.864, 5, 34.6255, 53.4134, -14.4227, 95.2839, -72.2325, 33.2305
2.867, 6, 34.5961, 53.4573, -14.3936, 95.2313, -72.4571, 33.1335
2.872, 6, 34.5667, 53.497, -14.3611, 95.1779, -72.6676, 33.0468
2.876, 6, 34.537, 53.5326, -14.3244, 95.123, -72.8647, 32.9708
2.88, 6, 34.5069, 53.5642, -14.2828, 95.0657, -73.0494, 32.9057
2.883, 6, 34.4764, 53.5917, -14.2352, 95.0053, -73.2225, 32.8519
2.888, 6, 34.4455, 53.6153, -14.1809, 94.9409, -73.3853, 32.8096
2.892, 6, 34.4143, 53.6348, -14.119, 94.8716, -73.5391, 32.7788
2.896, 6, 34.3827, 53.6502, -14.0488, 94.7966, -73.6853, 32.7595
2.9, 6, 34.3508, 53.6613, -13.9695, 94.7152, -73.8254, 32.7513
2.903, 6, 34.3184, 53.668, -13.8807, 94.6268, -73.961, 32.7541
2.908, 6, 34.2853, 53.6707, -13.7818, 94.5309, -74.0934, 32.7673
2.912, 6, 34.2513, 53.6693, -13.6727, 94.4272, -74.2243, 32.7904
2.916, 6, 34.2159, 53.6642, -13.5532, 94.3155, -74.3548, 32.8225
2.92, 6, 34.1792, 53.6552, -13.4232, 94.1957, -74.4865, 32.8631
2.923, 6, 34.1413, 53.6424, -13.2831, 94.0677, -74.6205, 32.9111
2.928, 6, 34.1025, 53.6255, -13.133, 93.9318, -74.758, 32.9657
2.932, 6, 34.063, 53.6047, -12.9733, 93.7882, -74.8999, 33.026
2.936, 6, 34.0232, 53.5802, -12.8049, 93.6374, -75.0467, 33.0912
2.939, 6, 33.9833, 53.5521, -12.6283, 93.48, -75.1987, 33.1603
2.944, 6, 33.9434, 53.5211, -12.4447, 93.3168, -75.3557, 33.2326
2.948, 6, 33.9034, 53.4876, -12.2551, 93.149, -75.5173, 33.3073
2.952, 6, 33.8632, 53.4523, -12.0608, 92.9775, -75.6827, 33.3836
2.956, 6, 33.8228, 53.4156, -11.8631, 92.8037, -75.8511, 33.4608
2.959, 6, 33.782, 53.378, -11.6634, 92.6287, -76.0214, 33.5383
2.964, 6, 33.7411, 53.3399, -11.4631, 92.4538, -76.1925, 33.6155
2.968, 6, 33.6997, 53.3018, -11.2637, 92.2801, -76.3635, 33.6918
2.972, 6, 33.6578, 53.264, -11.0663, 92.1088, -76.533, 33.7667
2.976, 6, 33.6154, 53.227, -10.8721, 91.9409, -76.7003, 33.8396
2.98, 6, 33.5724, 53.1909, -10.6822, 91.7774, -76.8642, 33.9103
2.984, 6, 33.5288, 53.1559, -10.4974, 91.6189, -77.024, 33.9784
2.988, 6, 33.4848, 53.122, -10.3182, 91.4661, -77.179, 34.0437
2.992, 6, 33.4405, 53.0891, -10.145, 91.3192, -77.3289, 34.1062
2.995, 6, 33.3962, 53.0569, -9.97777, 91.1783, -77.4734, 34.1657
3, 6, 33.352, 53.025, -9.81646, 91.0434, -77.6122, 34.2225
3.004, 6, 33.3081, 52.9932, -9.66065, 90.9142, -77.7453, 34.2767
3.008, 6, 33.2644, 52.9612, -9.50978, 90.7906, -77.8727, 34.3285
3.012, 7, 33.2207, 52.9287, -9.36313, 90.6721, -77.9944, 34.3781
3.015, 7, 33.1767, 52.8954, -9.21986, 90.5583, -78.1105, 34.4259
3.02, 7, 33.1323, 52.8611, -9.07902, 90.4489, -78.2211, 34.472
3.024, 7, 33.0875, 52.8255, -8.93956, 90.3432, -78.3263, 34.5169
3.028, 7, 33.0424, 52.7884, -8.80038, 90.2406, -78.4264, 34.5609
3.031, 7, 32.9969, 52.7494, -8.6603, 90.1406, -78.5216, 34.6043
3.036, 7, 32.9512, 52.7081, -8.51817, 90.0425, -78.6125, 34.6475
3.04, 7, 32.905, 52.6643, -8.37282, 89.9454, -78.6995, 34.6909
3.044, 7, 32.8583, 52.6175, -8.22315, 89.8487, -78.7831, 34.7348
3.048, 7, 32.8106, 52.5674, -8.06808, 89.7516, -78.8641, 34.7796
3.051, 7, 32.7616, 52.5137, -7.90664, 89.6534, -78.9431, 34.8254
3.056, 7, 32.7109, 52.4563, -7.7379, 89.5534, -79.0209, 34.8726
3.06, 7, 32.6584, 52.3948, -7.56105, 89.4508, -79.0982, 34.9214
3.064, 7, 32.6041, 52.3291, -7.37543, 89.345, -79.1758, 34.9721
3.068, 7, 32.5481, 52.259, -7.18047, 89.2354, -79.2547, 35.0248
3.071, 7, 32.4903, 52.1844, -6.9758, 89.1214, -79.3354, 35.0796
3.076, 7, 32.4309, 52.1053, -6.76126, 89.0027, -79.4187, 35.1366
3.08, 7, 32.3699, 52.0217, -6.53686, 88.8789, -79.505, 35.1957
3.084, 7, 32.3073, 51.9338, -6.30286, 88.7501, -79.5946, 35.2569
3.087, 7, 32.243, 51.842, -6.05972, 88.6164, -79.6876, 35.3201
3.092, 7, 32.1771, 51.7467, -5.80808, 88.478, -79.7842, 35.385
3.096, 7, 32.1097, 51.6485, -5.5488, 88.3352, -79.884, 35.4513
3.1, 7, 32.0412, 51.5479, -5.28289, 88.1887, -79.9869, 35.5189
3.104, 7, 31.9719, 51.4452, -5.01149, 88.039, -80.0926, 35.5872
3.107, 7, 31.9018, 51.341, -4.73588, 87.8868, -80.2005, 35.656
3.112, 7, 31.8311, 51.2356, -4.45738, 87.7328, -80.3103, 35.725
3.116, 7, 31.7596, 51.1293, -4.17733, 87.5777, -80.4214, 35.7937
3.12, 7, 31.6873, 51.0225, -3.89707, 87.4224, -80.5333, 35.8618
3.124, 7, 31.6142, 50.9155, -3.6179, 87.2675, -80.6456, 35.9291
3.128, 7, 31.5404, 50.8089, -3.34103, 87.1137, -80.7576, 35.995
3.132, 7, 31.4661, 50.703, -3.06759, 86.9617, -80.869, 36.0596
3.136, 7, 31.3916, 50.5983, -2.79857, 86.812, -80.9792, 36.1224
3.14, 7, 31.3174, 50.4952, -2.53488, 86.6651, -81.088, 36.1833
3.143, 7, 31.2438, 50.3941, -2.27727, 86.5215, -81.1949, 36.2423
3.148, 7, 31.1711, 50.2952, -2.02638, 86.3815, -81.2997, 36.299
3.152, 7, 31.0995, 50.1988, -1.78276, 86.2455, -81.402, 36.3536
3.156, 7, 31.0293, 50.1051, -1.54683, 86.1136, -81.5017, 36.4059
3.16, 7, 30.9607, 50.0142, -1.31895, 85.9861, -81.5985, 36.4559
3.163, 7, 30.894, 49.9264, -1.0994, 85.8631, -81.6923, 36.5036
3.168, 7, 30.8294, 49.8419, -0.888395, 85.7448, -81.7829, 36.549
3.172, 7, 30.7671, 49.7606, -0.686125, 85.6313, -81.8702, 36.5921
3.176, 7, 30.7073, 49.6828, -0.492751, 85.5226, -81.9541, 36.6329
3.179, 7, 30.6502, 49.6086, -0.308426, 85.4188, -82.0344, 36.6715
3.184, 7, 30.5957, 49.538, -0.133298, 85.3202, -82.1111, 36.7079
3.188, 7, 30.544, 49.4711, 0.0324874, 85.2267, -82.1839, 36.742
3.192, 7, 30.495, 49.4078, 0.188788, 85.1384, -82.2529, 36.7739
3.196, 7, 30.4488, 49.3484, 0.335482, 85.0555, -82.3179, 36.8037
3.199, 7, 30.4052, 49.2927, 0.472475, 84.9781, -82.3787, 36.8312
3.204, 7, 30.3642, 49.2407, 0.599719, 84.9062, -82.4354, 36.8567
3.208, 7, 30.3259, 49.1925, 0.717216, 84.8397, -82.4879, 36.88
3.212, 7, 30.2902, 49.1481, 0.825031, 84.7788, -82.5361, 36.9012
3.216, 7, 30.2572, 49.1074, 0.923288, 84.7232, -82.5802, 36.9204
3.22, 7, 30.2267, 49.0703, 1.01218, 84.673, -82.6202, 36.9377
3.224, 7, 30.1988, 49.0368, 1.09195, 84.628, -82.6561, 36.9532
3.228, 7, 30.1733, 49.0067, 1.16295, 84.5879, -82.6881, 36.9668
3.232, 7, 30.1501, 48.9799, 1.22555, 84.5527, -82.7163, 36.9788
3.235, 7, 30.129, 48.9561, 1.28021, 84.522, -82.741, 36.9891
3.24, 7, 30.11, 48.9353, 1.32746, 84.4955, -82.7623, 36.998
3.244, 7, 30.0929, 48.9171, 1.36784, 84.4729, -82.7805, 37.0056
3.248, 7, 30.0778, 48.9015, 1.40198, 84.4539, -82.7959, 37.012
3.252, 7, 30.0645, 48.8883, 1.43047, 84.4381, -82.8088, 37.0172
3.255, 7, 30.0529, 48.8771, 1.45395, 84.4251, -82.8194, 37.0216
3.26, 7, 30.043, 48.8678, 1.47303, 84.4146, -82.8279, 37.025
3.264, 7, 30.0344, 48.8602, 1.48829, 84.4063, -82.8348, 37.0278
3.268, 7, 30.027, 48.854, 1.50028, 84.3998, -82.8401, 37.03
3.272, 7, 30.0204, 48.849, 1.50954, 84.3948, -82.8443, 37.0316
3.276, 7, 30.0147, 48.845, 1.51655, 84.3911, -82.8474, 37.0328
3.28, 7, 30.0097, 48.8418, 1.52174, 84.3884, -82.8497, 37.0337
3.284, 8, 30.0055, 48.8394, 1.5255, 84.3865, -82.8513, 37.0344
3.288, 8, 30.0021, 48.8376, 1.52817, 84.3851, -82.8525, 37.0348
3.291, 8, 29.9994, 48.8363, 1.53004, 84.3842, -82.8533, 37.0351
3.296, 8, 29.9974, 48.8353, 1.53133, 84.3836, -82.8539, 37.0353
3.3, 8, 29.9959, 48.8347, 1.5322, 84.3831, -82.8542, 37.0355
3.304, 8, 29.995, 48.8342, 1.5328, 84.3829, -82.8545, 37.0356
3.308, 8, 29.9943, 48.8339, 1.5332, 84.3827, -82.8547, 37.0356
3.312, 8, 29.9939, 48.8337, 1.53347, 84.3825, -82.8548, 37.0357
3.316, 8, 29.9936, 48.8336, 1.53366, 84.3824, -82.8549, 37.0357
3.32, 8, 29.9934, 48.8335, 1.53378, 84.3824, -82.8549, 37.0357
3.324, 8, 29.9932, 48.8334, 1.53387, 84.3823, -82.8549, 37.0357
3.328, 8, 29.9931, 48.8334, 1.53392, 84.3823, -82.855, 37.0357
3.332, 8, 29.9931, 48.8334, 1.53396, 84.3823, -82.855, 37.0357
3.336, 8, 29.993, 48.8333, 1.53399, 84.3823, -82.855, 37.0358
3.34, 8, 29.993, 48.8333, 1.53401, 84.3823, -82.855, 37.0358
3.344, 8, 29.993, 48.8333, 1.53402, 84.3822, -82.855, 37.0358
3.347, 8, 29.993, 48.8333, 1.53403, 84.3822, -82.855, 37.0358
3.352, 8, 29.993, 48.8333, 1.53403, 84.3822, -82.855, 37.0358
3.356, 8, 29.993, 48.8333, 1.53403, 84.3822, -82.855, 37.0358
3.36, 8, 29.993, 48.8333, 1.53404, 84.3822, -82.855, 37.0358
3.364, 8, 29.993, 48.8333, 1.53404, 84.3822, -82.855, 37.0358
3.368, 8, 29.993, 48.8333, 1.53404, 84.3822, -82.855, 37.0358
3.372, 8, 29.9929, 48.8333, 1.53404, 84.3822, -82.855, 37.0358
3.376, 8, 29.9929, 48.8333, 1.53404, 84.3822, -82.855, 37.0358
3.38, 8, 29.9929, 48.8333, 1.53404, 84.3822, -82.855, 37.0358
3.383, 8, 29.9929, 48.8333, 1.53404, 84.3822, -82.855, 37.0358
3.388, 8, 29.9929, 48.8333, 1.53404, 84.3822, -82.855, 37.0358
3.392, 8, 29.9929, 48.8333, 1.53404, 84.3822, -82.855, 37.0358
3.396, 8, 29.9929, 48.8333, 1.53404, 84.3822, -82.855, 37.0358
3.4, 8, 29.9929, 48.8333, 1.53404, 84.3822, -82.855, 37.0358
