hehonglu123/ABB_Primitive_Study/execution/blade/curve_exe_v300_fine.csv
timestamp, cmd_num, J1, J2, J3, J4, J5, J6
0, -1, 29.9929, 48.8333, 1.53404, 84.3822, -82.855, 37.0358
0.003, -1, 29.9929, 48.8333, 1.53404, 84.3822, -82.855, 37.0358
0.006, -1, 29.9929, 48.8333, 1.53404, 84.3822, -82.855, 37.0358
0.008, -1, 29.9929, 48.8333, 1.53404, 84.3822, -82.855, 37.0358
0.011, -1, 29.9929, 48.8333, 1.53404, 84.3822, -82.855, 37.0358
0.016, -1, 29.9929, 48.8333, 1.53404, 84.3822, -82.855, 37.0358
0.02, -1, 29.9929, 48.8333, 1.53404, 84.3822, -82.855, 37.0358
0.024, -1, 29.9929, 48.8333, 1.53404, 84.3822, -82.855, 37.0358
0.028, -1, 29.9929, 48.8333, 1.53404, 84.3822, -82.855, 37.0358
0.032, -1, 29.993, 48.8333, 1.53404, 84.3822, -82.855, 37.0358
0.036, -1, 29.993, 48.8333, 1.53404, 84.3822, -82.855, 37.0358
0.04, -1, 29.9933, 48.8332, 1.53402, 84.3822, -82.855, 37.0358
0.044, -1, 29.9938, 48.833, 1.53395, 84.3823, -82.8549, 37.0358
0.048, -1, 29.9948, 48.8325, 1.53379, 84.3823, -82.8548, 37.0358
0.052, -1, 29.9964, 48.8318, 1.53345, 84.3825, -82.8543, 37.0359
0.056, -1, 29.9986, 48.8306, 1.53283, 84.3829, -82.8534, 37.0361
0.06, -1, 30.0015, 48.8289, 1.53176, 84.3835, -82.8518, 37.0365
0.064, -1, 30.005, 48.8267, 1.53002, 84.3847, -82.8489, 37.0371
0.068, -1, 30.0092, 48.824, 1.52738, 84.3866, -82.8443, 37.0381
0.072, -1, 30.0141, 48.821, 1.52352, 84.3895, -82.8373, 37.0397
0.076, -1, 30.0196, 48.8176, 1.51811, 84.3936, -82.8273, 37.0419
0.08, -1, 30.026, 48.814, 1.51078, 84.3993, -82.8136, 37.045
0.084, -1, 30.0333, 48.8103, 1.50113, 84.4069, -82.7952, 37.0491
0.088, -1, 30.0415, 48.8067, 1.48876, 84.4168, -82.7713, 37.0544
0.092, -1, 30.0505, 48.8033, 1.4733, 84.4294, -82.7411, 37.0611
0.096, -1, 30.0602, 48.8002, 1.45441, 84.4448, -82.7039, 37.0694
0.1, -1, 30.0707, 48.7976, 1.4318, 84.4635, -82.659, 37.0794
0.104, -1, 30.0817, 48.7956, 1.40529, 84.4856, -82.6061, 37.0913
0.108, -1, 30.0933, 48.7941, 1.37476, 84.5112, -82.5447, 37.1049
0.112, -1, 30.1055, 48.7932, 1.34022, 84.5402, -82.4751, 37.1205
0.116, -1, 30.1185, 48.7927, 1.30174, 84.5727, -82.3974, 37.1379
0.12, -1, 30.1323, 48.7927, 1.25953, 84.6083, -82.312, 37.1569
0.124, -1, 30.1469, 48.793, 1.21383, 84.6469, -82.2196, 37.1776
0.128, -1, 30.1623, 48.7937, 1.16497, 84.6882, -82.1206, 37.1997
0.131, -1, 30.1783, 48.7946, 1.11332, 84.7319, -82.016, 37.2231
0.136, -1, 30.1948, 48.7955, 1.05927, 84.7776, -81.9066, 37.2476
0.139, -1, 30.212, 48.7963, 1.00321, 84.825, -81.7932, 37.2729
0.144, -1, 30.2298, 48.7968, 0.945529, 84.8736, -81.6766, 37.299
0.148, -1, 30.2485, 48.7968, 0.886585, 84.9233, -81.5576, 37.3256
0.152, -1, 30.2681, 48.7963, 0.826699, 84.9737, -81.4368, 37.3525
0.156, -1, 30.2885, 48.7951, 0.766138, 85.0246, -81.3148, 37.3798
0.16, -1, 30.3097, 48.7935, 0.705122, 85.0758, -81.1921, 37.4072
0.164, -1, 30.3317, 48.7916, 0.643816, 85.1272, -81.0689, 37.4348
0.168, -1, 30.3541, 48.7893, 0.582346, 85.1787, -80.9454, 37.4623
0.172, -1, 30.3768, 48.7869, 0.520796, 85.2303, -80.8218, 37.49
0.176, -1, 30.3997, 48.7844, 0.459227, 85.2819, -80.6982, 37.5176
0.18, -1, 30.4228, 48.7818, 0.397677, 85.3334, -80.5746, 37.5452
0.184, -1, 30.446, 48.7791, 0.336173, 85.3849, -80.4512, 37.5727
0.188, -1, 30.4691, 48.7764, 0.274733, 85.4363, -80.3279, 37.6003
0.192, -1, 30.4923, 48.7737, 0.213369, 85.4876, -80.2048, 37.6278
0.196, -1, 30.5155, 48.771, 0.152089, 85.5389, -80.0818, 37.6552
0.2, -1, 30.5387, 48.7682, 0.0908988, 85.5901, -79.9591, 37.6827
0.204, -1, 30.5619, 48.7655, 0.0298009, 85.6413, -79.8365, 37.7101
0.208, -1, 30.585, 48.7627, -0.0312022, 85.6923, -79.7141, 37.7374
0.212, -1, 30.6081, 48.76, -0.0921092, 85.7433, -79.5919, 37.7647
0.216, -1, 30.6311, 48.7573, -0.152919, 85.7942, -79.4699, 37.7919
0.22, -1, 30.6542, 48.7545, -0.213632, 85.845, -79.3481, 37.8191
0.224, -1, 30.6772, 48.7518, -0.274248, 85.8957, -79.2264, 37.8463
0.228, -1, 30.7001, 48.749, -0.334767, 85.9463, -79.105, 37.8734
0.232, -1, 30.723, 48.7463, -0.395188, 85.9969, -78.9838, 37.9005
0.236, -1, 30.7459, 48.7436, -0.455513, 86.0474, -78.8628, 37.9276
0.24, -1, 30.7688, 48.7409, -0.515741, 86.0978, -78.7419, 37.9545
0.244, -1, 30.7916, 48.7381, -0.575873, 86.1481, -78.6213, 37.9815
0.248, -1, 30.8144, 48.7354, -0.635909, 86.1983, -78.5008, 38.0084
0.252, -1, 30.8371, 48.7327, -0.69585, 86.2485, -78.3806, 38.0353
0.256, -1, 30.8598, 48.73, -0.755696, 86.2986, -78.2605, 38.0621
0.26, -1, 30.8825, 48.7273, -0.815448, 86.3486, -78.1406, 38.0889
0.264, -1, 30.9051, 48.7246, -0.875105, 86.3985, -78.0209, 38.1156
0.268, -1, 30.9277, 48.7219, -0.934668, 86.4483, -77.9014, 38.1423
0.272, -1, 30.9503, 48.7192, -0.994138, 86.4981, -77.7821, 38.1689
0.276, -1, 30.9728, 48.7166, -1.05351, 86.5478, -77.663, 38.1955
0.28, -1, 30.9953, 48.7139, -1.1128, 86.5974, -77.5441, 38.2221
0.284, -1, 31.0177, 48.7112, -1.17199, 86.6469, -77.4253, 38.2486
0.288, -1, 31.0402, 48.7085, -1.23109, 86.6964, -77.3067, 38.2751
0.292, -1, 31.0625, 48.7059, -1.2901, 86.7458, -77.1883, 38.3016
0.296, -1, 31.0849, 48.7032, -1.34902, 86.7951, -77.0701, 38.328
0.3, -1, 31.1072, 48.7005, -1.40784, 86.8443, -76.9521, 38.3543
0.304, -1, 31.1295, 48.6979, -1.46658, 86.8934, -76.8343, 38.3807
0.308, -1, 31.1517, 48.6952, -1.52522, 86.9425, -76.7166, 38.407
0.312, -1, 31.174, 48.6926, -1.58378, 86.9915, -76.5991, 38.4332
0.316, -1, 31.1961, 48.6899, -1.64225, 87.0404, -76.4818, 38.4594
0.32, -1, 31.2183, 48.6873, -1.70063, 87.0893, -76.3647, 38.4856
0.324, -1, 31.2404, 48.6847, -1.75892, 87.1381, -76.2477, 38.5117
0.328, -1, 31.2625, 48.682, -1.81712, 87.1868, -76.131, 38.5378
0.332, -1, 31.2845, 48.6794, -1.87523, 87.2354, -76.0144, 38.5638
0.336, -1, 31.3065, 48.6768, -1.93326, 87.2839, -75.898, 38.5898
0.34, -1, 31.3285, 48.6742, -1.9912, 87.3324, -75.7817, 38.6158
0.344, -1, 31.3505, 48.6716, -2.04905, 87.3808, -75.6656, 38.6417
0.348, -1, 31.3724, 48.669, -2.10682, 87.4292, -75.5498, 38.6676
0.352, -1, 31.3943, 48.6664, -2.1645, 87.4774, -75.434, 38.6935
0.356, -1, 31.4161, 48.6637, -2.22209, 87.5256, -75.3185, 38.7193
0.36, -1, 31.4379, 48.6611, -2.2796, 87.5738, -75.2031, 38.745
0.364, -1, 31.4597, 48.6586, -2.33702, 87.6218, -75.0879, 38.7708
0.368, -1, 31.4815, 48.656, -2.39436, 87.6698, -74.9728, 38.7965
0.372, -1, 31.5032, 48.6534, -2.45162, 87.7177, -74.858, 38.8221
0.376, -1, 31.5249, 48.6508, -2.50879, 87.7655, -74.7433, 38.8477
0.38, -1, 31.5465, 48.6482, -2.56588, 87.8133, -74.6287, 38.8733
0.384, -1, 31.5682, 48.6456, -2.62288, 87.861, -74.5144, 38.8989
0.388, -1, 31.5898, 48.6431, -2.6798, 87.9086, -74.4002, 38.9244
0.392, -1, 31.6113, 48.6405, -2.73664, 87.9562, -74.2861, 38.9499
0.396, -1, 31.6329, 48.6379, -2.7934, 88.0037, -74.1723, 38.9753
0.4, -1, 31.6544, 48.6354, -2.85007, 88.0511, -74.0586, 39.0007
0.404, -1, 31.6758, 48.6328, -2.90666, 88.0985, -73.945, 39.0261
0.408, -1, 31.6973, 48.6303, -2.96317, 88.1458, -73.8316, 39.0514
0.412, -1, 31.7187, 48.6277, -3.0196, 88.193, -73.7184, 39.0767
0.416, -1, 31.74, 48.6252, -3.07595, 88.2401, -73.6054, 39.1019
0.42, -1, 31.7614, 48.6226, -3.13222, 88.2872, -73.4925, 39.1271
0.424, -1, 31.7827, 48.6201, -3.18841, 88.3342, -73.3798, 39.1523
0.428, -1, 31.804, 48.6175, -3.24451, 88.3812, -73.2672, 39.1775
0.432, -1, 31.8252, 48.615, -3.30054, 88.4281, -73.1548, 39.2026
0.436, -1, 31.8465, 48.6125, -3.35649, 88.4749, -73.0425, 39.2277
0.44, -1, 31.8677, 48.61, -3.41236, 88.5216, -72.9304, 39.2527
0.444, -1, 31.8888, 48.6074, -3.46815, 88.5683, -72.8185, 39.2777
0.448, -1, 31.91, 48.6049, -3.52387, 88.615, -72.7067, 39.3027
0.452, -1, 31.9311, 48.6024, -3.57951, 88.6615, -72.5951, 39.3276
0.456, -1, 31.9522, 48.5999, -3.63506, 88.708, -72.4836, 39.3525
0.46, -1, 31.9732, 48.5974, -3.69055, 88.7544, -72.3723, 39.3774
0.464, -1, 31.9942, 48.5949, -3.74595, 88.8008, -72.2611, 39.4022
0.468, -1, 32.0152, 48.5924, -3.80128, 88.8471, -72.1501, 39.427
0.472, -1, 32.0362, 48.5899, -3.85653, 88.8933, -72.0393, 39.4518
0.476, -1, 32.0571, 48.5874, -3.91171, 88.9395, -71.9286, 39.4765
0.48, -1, 32.078, 48.5849, -3.96681, 88.9856, -71.818, 39.5012
0.484, -1, 32.0989, 48.5824, -4.02184, 89.0317, -71.7076, 39.5258
0.488, -1, 32.1197, 48.5799, -4.07679, 89.0776, -71.5974, 39.5505
0.492, -1, 32.1406, 48.5774, -4.13167, 89.1236, -71.4873, 39.5751
0.496, -1, 32.1614, 48.575, -4.18647, 89.1694, -71.3773, 39.5996
0.5, -1, 32.1821, 48.5725, -4.2412, 89.2152, -71.2675, 39.6241
0.504, -1, 32.2028, 48.57, -4.29586, 89.261, -71.1579, 39.6486
0.508, -1, 32.2236, 48.5676, -4.35044, 89.3066, -71.0484, 39.6731
0.512, -1, 32.2442, 48.5651, -4.40495, 89.3522, -70.939, 39.6975
0.516, -1, 32.2649, 48.5626, -4.45939, 89.3978, -70.8298, 39.7219
0.52, -1, 32.2855, 48.5602, -4.51375, 89.4433, -70.7207, 39.7463
0.524, -1, 32.3061, 48.5577, -4.56805, 89.4887, -70.6118, 39.7706
0.528, -1, 32.3267, 48.5553, -4.62227, 89.5341, -70.503, 39.7949
0.532, -1, 32.3472, 48.5528, -4.67642, 89.5794, -70.3943, 39.8192
0.536, -1, 32.3677, 48.5504, -4.73049, 89.6247, -70.2858, 39.8434
0.54, -1, 32.3882, 48.5479, -4.7845, 89.6699, -70.1775, 39.8676
0.544, -1, 32.4087, 48.5455, -4.83844, 89.715, -70.0693, 39.8918
0.548, -1, 32.4291, 48.5431, -4.8923, 89.7601, -69.9612, 39.916
0.552, -1, 32.4495, 48.5406, -4.9461, 89.8051, -69.8533, 39.9401
0.556, -1, 32.4699, 48.5382, -4.99983, 89.85, -69.7455, 39.9641
0.56, -1, 32.4903, 48.5358, -5.05348, 89.8949, -69.6378, 39.9882
0.564, -1, 32.5106, 48.5334, -5.10707, 89.9398, -69.5303, 40.0122
0.568, -1, 32.5309, 48.5309, -5.16059, 89.9846, -69.4229, 40.0362
0.572, -1, 32.5512, 48.5285, -5.21404, 90.0293, -69.3157, 40.0601
0.576, -1, 32.5714, 48.5261, -5.26742, 90.074, -69.2086, 40.0841
0.58, -1, 32.5916, 48.5237, -5.32073, 90.1186, -69.1016, 40.108
0.584, -1, 32.6118, 48.5213, -5.37398, 90.1631, -68.9948, 40.1318
0.588, -1, 32.632, 48.5189, -5.42716, 90.2076, -68.8881, 40.1557
0.592, -1, 32.6522, 48.5165, -5.48026, 90.2521, -68.7816, 40.1795
0.596, -1, 32.6723, 48.5141, -5.53331, 90.2965, -68.6752, 40.2032
0.6, -1, 32.6924, 48.5117, -5.58628, 90.3408, -68.5689, 40.227
0.604, -1, 32.7125, 48.5093, -5.63919, 90.3851, -68.4627, 40.2507
0.608, -1, 32.7325, 48.5069, -5.69203, 90.4293, -68.3567, 40.2744
0.612, -1, 32.7525, 48.5045, -5.74481, 90.4734, -68.2508, 40.298
0.616, -1, 32.7725, 48.5021, -5.79752, 90.5175, -68.1451, 40.3216
0.62, -1, 32.7925, 48.4998, -5.85017, 90.5616, -68.0394, 40.3452
0.624, -1, 32.8124, 48.4974, -5.90275, 90.6056, -67.9339, 40.3688
0.628, -1, 32.8324, 48.495, -5.95526, 90.6495, -67.8286, 40.3923
0.632, -1, 32.8523, 48.4926, -6.00771, 90.6934, -67.7234, 40.4158
0.636, -1, 32.8721, 48.4903, -6.06009, 90.7373, -67.6182, 40.4393
0.64, -1, 32.892, 48.4879, -6.11241, 90.781, -67.5133, 40.4628
0.644, -1, 32.9118, 48.4856, -6.16467, 90.8248, -67.4084, 40.4862
0.648, -1, 32.9316, 48.4832, -6.21686, 90.8685, -67.3037, 40.5096
0.652, -1, 32.9514, 48.4808, -6.26899, 90.9121, -67.1991, 40.5329
0.656, -1, 32.9711, 48.4785, -6.32106, 90.9556, -67.0947, 40.5563
0.66, -1, 32.9908, 48.4761, -6.37306, 90.9991, -66.9903, 40.5796
0.664, -1, 33.0106, 48.4738, -6.425, 91.0426, -66.8861, 40.6028
0.668, -1, 33.0302, 48.4714, -6.47687, 91.086, -66.7821, 40.6261
0.672, -1, 33.0499, 48.4691, -6.52868, 91.1294, -66.6781, 40.6493
0.676, -1, 33.0695, 48.4668, -6.58043, 91.1727, -66.5743, 40.6725
0.68, -1, 33.0891, 48.4644, -6.63212, 91.2159, -66.4706, 40.6957
0.684, -1, 33.1087, 48.4621, -6.68375, 91.2591, -66.367, 40.7188
0.688, -1, 33.1283, 48.4598, -6.73531, 91.3023, -66.2635, 40.7419
0.692, -1, 33.1478, 48.4574, -6.78682, 91.3454, -66.1602, 40.765
0.696, -1, 33.1673, 48.4551, -6.83826, 91.3884, -66.057, 40.7881
0.7, -1, 33.1868, 48.4528, -6.88964, 91.4314, -65.9539, 40.8111
0.704, -1, 33.2063, 48.4505, -6.94096, 91.4744, -65.851, 40.8341
0.708, -1, 33.2257, 48.4482, -6.99222, 91.5173, -65.7481, 40.8571
0.712, -1, 33.2452, 48.4458, -7.04342, 91.5601, -65.6454, 40.88
0.716, -1, 33.2646, 48.4435, -7.09456, 91.6029, -65.5428, 40.9029
0.72, -1, 33.2839, 48.4412, -7.14564, 91.6457, -65.4403, 40.9258
0.724, -1, 33.3033, 48.4389, -7.19666, 91.6883, -65.3379, 40.9487
0.728, -1, 33.3226, 48.4366, -7.24762, 91.731, -65.2357, 40.9715
0.732, -1, 33.3419, 48.4343, -7.29852, 91.7736, -65.1336, 40.9943
0.736, -1, 33.3612, 48.432, -7.34936, 91.8161, -65.0316, 41.0171
0.74, -1, 33.3805, 48.4297, -7.40015, 91.8586, -64.9297, 41.0399
0.744, -1, 33.3997, 48.4274, -7.45087, 91.9011, -64.8279, 41.0626
0.748, -1, 33.4189, 48.4251, -7.50153, 91.9435, -64.7263, 41.0853
0.752, -1, 33.4381, 48.4228, -7.55214, 91.9858, -64.6247, 41.108
0.756, -1, 33.4573, 48.4206, -7.60269, 92.0281, -64.5233, 41.1306
0.76, -1, 33.4765, 48.4183, -7.65318, 92.0704, -64.422, 41.1533
0.764, -1, 33.4956, 48.416, -7.70362, 92.1126, -64.3208, 41.1759
0.768, -1, 33.5147, 48.4137, -7.75399, 92.1547, -64.2197, 41.1985
0.772, -1, 33.5338, 48.4115, -7.80431, 92.1968, -64.1188, 41.221
0.776, -1, 33.5529, 48.4092, -7.85457, 92.2389, -64.018, 41.2435
0.78, -1, 33.5719, 48.4069, -7.90478, 92.2809, -63.9172, 41.266
0.784, -1, 33.5909, 48.4046, -7.95493, 92.3229, -63.8166, 41.2885
0.788, -1, 33.6099, 48.4024, -8.00502, 92.3648, -63.7161, 41.311
0.792, -1, 33.6289, 48.4001, -8.05505, 92.4066, -63.6157, 41.3334
0.796, -1, 33.6479, 48.3979, -8.10503, 92.4485, -63.5154, 41.3558
0.8, -1, 33.6668, 48.3956, -8.15496, 92.4902, -63.4153, 41.3782
0.804, -1, 33.6857, 48.3934, -8.20482, 92.532, -63.3152, 41.4005
0.808, -1, 33.7046, 48.3911, -8.25464, 92.5737, -63.2153, 41.4228
0.812, -1, 33.7235, 48.3889, -8.30439, 92.6153, -63.1155, 41.4451
0.816, -1, 33.7424, 48.3866, -8.3541, 92.6569, -63.0158, 41.4674
0.82, -1, 33.7612, 48.3844, -8.40374, 92.6984, -62.9161, 41.4897
0.824, -1, 33.78, 48.3821, -8.45333, 92.7399, -62.8166, 41.5119
0.828, -1, 33.7988, 48.3799, -8.50287, 92.7814, -62.7173, 41.5341
0.832, -1, 33.8176, 48.3776, -8.55236, 92.8228, -62.618, 41.5563
0.836, -1, 33.8363, 48.3754, -8.60179, 92.8642, -62.5188, 41.5784
0.84, -1, 33.855, 48.3732, -8.65116, 92.9055, -62.4197, 41.6005
0.844, -1, 33.8738, 48.3709, -8.70049, 92.9467, -62.3208, 41.6226
0.848, -1, 33.8925, 48.3687, -8.74975, 92.988, -62.2219, 41.6447
0.852, -1, 33.9111, 48.3665, -8.79897, 93.0292, -62.1232, 41.6668
0.856, -1, 33.9298, 48.3643, -8.84813, 93.0703, -62.0246, 41.6888
0.86, -1, 33.9484, 48.3621, -8.89725, 93.1114, -61.926, 41.7108
0.864, -1, 33.967, 48.3598, -8.9463, 93.1524, -61.8276, 41.7328
0.868, -1, 33.9856, 48.3576, -8.99531, 93.1935, -61.7293, 41.7548
0.872, -1, 34.0042, 48.3554, -9.04426, 93.2344, -61.6311, 41.7767
0.876, -1, 34.0227, 48.3532, -9.09317, 93.2753, -61.5329, 41.7986
0.88, -1, 34.0413, 48.351, -9.14202, 93.3162, -61.4349, 41.8205
0.884, -1, 34.0598, 48.3488, -9.19082, 93.3571, -61.337, 41.8424
0.888, -1, 34.0783, 48.3466, -9.23956, 93.3979, -61.2392, 41.8642
0.892, -1, 34.0967, 48.3444, -9.28826, 93.4386, -61.1415, 41.8861
0.896, -1, 34.1152, 48.3422, -9.33691, 93.4793, -61.0439, 41.9079
0.9, -1, 34.1336, 48.34, -9.3855, 93.52, -60.9464, 41.9296
0.904, -1, 34.152, 48.3378, -9.43405, 93.5606, -60.849, 41.9514
0.908, -1, 34.1704, 48.3356, -9.48254, 93.6012, -60.7517, 41.9731
0.912, -1, 34.1888, 48.3334, -9.53098, 93.6417, -60.6545, 41.9948
0.916, -1, 34.2072, 48.3312, -9.57938, 93.6822, -60.5574, 42.0165
0.92, -1, 34.2255, 48.329, -9.62772, 93.7227, -60.4604, 42.0382
0.924, -1, 34.2438, 48.3269, -9.67601, 93.7631, -60.3636, 42.0598
0.928, -1, 34.2621, 48.3247, -9.72426, 93.8034, -60.2668, 42.0815
0.932, -1, 34.2804, 48.3225, -9.77246, 93.8438, -60.1701, 42.1031
0.936, -1, 34.2987, 48.3203, -9.8206, 93.8841, -60.0735, 42.1246
0.94, -1, 34.3169, 48.3182, -9.8687, 93.9243, -59.977, 42.1462
0.944, -1, 34.3351, 48.316, -9.91674, 93.9645, -59.8806, 42.1677
0.948, -1, 34.3534, 48.3138, -9.96474, 94.0047, -59.7843, 42.1892
0.952, -1, 34.3715, 48.3116, -10.0127, 94.0448, -59.6881, 42.2107
0.956, -1, 34.3897, 48.3095, -10.0606, 94.0849, -59.592, 42.2322
0.96, -1, 34.4079, 48.3073, -10.1085, 94.1249, -59.4959, 42.2536
0.964, -1, 34.426, 48.3052, -10.1563, 94.1649, -59.4, 42.2751
0.968, -1, 34.4441, 48.303, -10.204, 94.2049, -59.3042, 42.2965
0.972, -1, 34.4622, 48.3008, -10.2517, 94.2448, -59.2085, 42.3179
0.976, -1, 34.4803, 48.2987, -10.2994, 94.2847, -59.1129, 42.3392
0.98, -1, 34.4984, 48.2965, -10.347, 94.3246, -59.0173, 42.3606
0.984, -1, 34.5164, 48.2944, -10.3946, 94.3644, -58.9219, 42.3819
0.988, -1, 34.5344, 48.2922, -10.4421, 94.4041, -58.8266, 42.4032
0.992, -1, 34.5524, 48.2901, -10.4896, 94.4439, -58.7313, 42.4244
0.996, -1, 34.5704, 48.2879, -10.537, 94.4835, -58.6362, 42.4457
1, -1, 34.5884, 48.2858, -10.5844, 94.5232, -58.5411, 42.4669
1.004, -1, 34.6064, 48.2837, -10.6317, 94.5628, -58.4461, 42.4881
1.008, -1, 34.6243, 48.2815, -10.679, 94.6024, -58.3512, 42.5093
1.012, -1, 34.6422, 48.2794, -10.7262, 94.6419, -58.2565, 42.5305
1.016, -1, 34.6601, 48.2773, -10.7734, 94.6814, -58.1618, 42.5517
1.02, -1, 34.678, 48.2751, -10.8206, 94.7209, -58.0672, 42.5728
1.024, -1, 34.6959, 48.273, -10.8677, 94.7603, -57.9727, 42.5939
1.027, -1, 34.7137, 48.2709, -10.9147, 94.7996, -57.8783, 42.615
1.032, -1, 34.7316, 48.2687, -10.9618, 94.839, -57.7839, 42.6361
1.036, -1, 34.7494, 48.2666, -11.0087, 94.8783, -57.6897, 42.6571
1.04, -1, 34.7672, 48.2645, -11.0557, 94.9176, -57.5956, 42.6781
1.044, -1, 34.785, 48.2624, -11.1025, 94.9568, -57.5015, 42.6992
1.048, -1, 34.8027, 48.2603, -11.1494, 94.996, -57.4075, 42.7201
1.052, -1, 34.8205, 48.2582, -11.1962, 95.0351, -57.3137, 42.7411
1.055, -1, 34.8382, 48.256, -11.2429, 95.0742, -57.2199, 42.7621
1.06, -1, 34.8559, 48.2539, -11.2896, 95.1133, -57.1262, 42.783
1.064, -1, 34.8736, 48.2518, -11.3362, 95.1524, -57.0326, 42.8039
1.068, -1, 34.8913, 48.2497, -11.3829, 95.1914, -56.9391, 42.8248
1.072, -1, 34.909, 48.2476, -11.4294, 95.2303, -56.8456, 42.8457
1.076, -1, 34.9266, 48.2455, -11.4759, 95.2693, -56.7523, 42.8665
1.08, -1, 34.9442, 48.2434, -11.5224, 95.3082, -56.659, 42.8873
1.084, -1, 34.9618, 48.2413, -11.5689, 95.347, -56.5659, 42.9081
1.088, -1, 34.9795, 48.2392, -11.6153, 95.3858, -56.4728, 42.9289
1.091, -1, 34.997, 48.2371, -11.6616, 95.4246, -56.3798, 42.9497
1.096, -1, 35.0146, 48.235, -11.7079, 95.4634, -56.2869, 42.9705
1.1, -1, 35.0321, 48.2329, -11.7542, 95.5021, -56.1941, 42.9912
1.104, -1, 35.0497, 48.2309, -11.8004, 95.5408, -56.1014, 43.0119
1.108, -1, 35.0672, 48.2288, -11.8466, 95.5794, -56.0087, 43.0326
1.112, -1, 35.0847, 48.2267, -11.8927, 95.618, -55.9161, 43.0533
1.116, -1, 35.1022, 48.2246, -11.9388, 95.6566, -55.8237, 43.0739
1.119, -1, 35.1196, 48.2225, -11.9848, 95.6951, -55.7313, 43.0946
1.124, -1, 35.1371, 48.2204, -12.0309, 95.7336, -55.639, 43.1152
1.128, -1, 35.1545, 48.2184, -12.0768, 95.7721, -55.5468, 43.1358
1.132, -1, 35.172, 48.2163, -12.1227, 95.8105, -55.4546, 43.1564
1.136, -1, 35.1894, 48.2142, -12.1686, 95.8489, -55.3626, 43.1769
1.14, -1, 35.2067, 48.2121, -12.2145, 95.8873, -55.2706, 43.1975
1.144, -1, 35.2241, 48.2101, -12.2603, 95.9256, -55.1787, 43.218
1.147, -1, 35.2415, 48.208, -12.306, 95.9639, -55.0869, 43.2385
1.152, -1, 35.2588, 48.2059, -12.3517, 96.0021, -54.9952, 43.259
1.156, -1, 35.2761, 48.2039, -12.3974, 96.0404, -54.9035, 43.2795
1.16, -1, 35.2935, 48.2018, -12.443, 96.0785, -54.812, 43.2999
1.164, -1, 35.3108, 48.1997, -12.4886, 96.1167, -54.7205, 43.3204
1.168, -1, 35.328, 48.1977, -12.5342, 96.1548, -54.6291, 43.3408
1.172, -1, 35.3453, 48.1956, -12.5797, 96.1929, -54.5378, 43.3612
1.175, -1, 35.3625, 48.1936, -12.6252, 96.2309, -54.4466, 43.3816
1.18, -1, 35.3798, 48.1915, -12.6706, 96.269, -54.3554, 43.4019
1.184, -1, 35.397, 48.1895, -12.716, 96.3069, -54.2644, 43.4223
1.188, -1, 35.4142, 48.1874, -12.7614, 96.3449, -54.1734, 43.4426
1.192, -1, 35.4314, 48.1854, -12.8067, 96.3828, -54.0825, 43.4629
1.196, -1, 35.4486, 48.1833, -12.8519, 96.4207, -53.9916, 43.4832
1.2, -1, 35.4657, 48.1813, -12.8972, 96.4585, -53.9009, 43.5035
1.204, -1, 35.4829, 48.1792, -12.9424, 96.4964, -53.8102, 43.5237
1.208, -1, 35.5, 48.1772, -12.9875, 96.5341, -53.7196, 43.5439
1.212, -1, 35.5171, 48.1752, -13.0326, 96.5719, -53.6291, 43.5642
1.216, -1, 35.5342, 48.1731, -13.0777, 96.6096, -53.5387, 43.5844
1.22, -1, 35.5513, 48.1711, -13.1227, 96.6473, -53.4483, 43.6045
1.224, -1, 35.5684, 48.1691, -13.1677, 96.685, -53.358, 43.6247
1.228, -1, 35.5854, 48.167, -13.2127, 96.7226, -53.2678, 43.6449
1.232, -1, 35.6024, 48.165, -13.2576, 96.7602, -53.1777, 43.665
1.236, -1, 35.6193, 48.163, -13.3025, 96.7977, -53.0876, 43.6851
1.24, -1, 35.6361, 48.1611, -13.3473, 96.8352, -52.9977, 43.7052
1.244, -1, 35.6526, 48.1593, -13.3921, 96.8727, -52.9079, 43.7253
1.248, -1, 35.6687, 48.1576, -13.4368, 96.9101, -52.8182, 43.7453
1.252, -1, 35.6845, 48.1561, -13.4813, 96.9474, -52.7288, 43.7653
1.256, -1, 35.6998, 48.1549, -13.5257, 96.9846, -52.6398, 43.7852
1.26, -1, 35.7144, 48.154, -13.5697, 97.0214, -52.5514, 43.8049
1.264, -1, 35.7284, 48.1534, -13.6133, 97.058, -52.4638, 43.8245
1.267, -1, 35.7418, 48.1533, -13.6563, 97.094, -52.3775, 43.8438
1.272, -1, 35.7544, 48.1534, -13.6984, 97.1293, -52.293, 43.8627
1.276, -1, 35.7664, 48.1539, -13.7394, 97.1637, -52.2106, 43.8812
1.28, -1, 35.7778, 48.1545, -13.7789, 97.1969, -52.1312, 43.8989
1.284, -1, 35.7885, 48.1552, -13.8167, 97.2286, -52.0552, 43.9159
1.288, -1, 35.7988, 48.1559, -13.8524, 97.2586, -51.9835, 43.932
1.292, -1, 35.8086, 48.1563, -13.8858, 97.2866, -51.9165, 43.947
1.295, -1, 35.818, 48.1565, -13.9165, 97.3123, -51.8549, 43.9608
1.3, -1, 35.8271, 48.1563, -13.9443, 97.3356, -51.7991, 43.9733
1.304, -1, 35.8359, 48.1556, -13.9691, 97.3564, -51.7493, 43.9844
1.308, -1, 35.8444, 48.1544, -13.9909, 97.3746, -51.7057, 43.9941
1.312, -1, 35.8525, 48.1528, -14.0096, 97.3902, -51.6681, 44.0025
1.316, -1, 35.8603, 48.1509, -14.0254, 97.4034, -51.6365, 44.0096
1.32, -1, 35.8677, 48.1486, -14.0385, 97.4142, -51.6103, 44.0154
1.324, -1, 35.8747, 48.1461, -14.049, 97.423, -51.5893, 44.02
1.328, -1, 35.8814, 48.1434, -14.0573, 97.4298, -51.5727, 44.0237
1.332, -1, 35.8876, 48.1407, -14.0637, 97.4351, -51.56, 44.0265
1.336, -1, 35.8933, 48.1381, -14.0685, 97.439, -51.5505, 44.0286
1.34, -1, 35.8984, 48.1357, -14.072, 97.4419, -51.5436, 44.0301
1.344, 2, 35.9027, 48.1336, -14.0745, 97.4439, -51.5387, 44.0312
1.348, 2, 35.9062, 48.1319, -14.0763, 97.4453, -51.5352, 44.0319
1.352, 2, 35.9089, 48.1307, -14.0775, 97.4462, -51.5328, 44.0324
1.356, 2, 35.9109, 48.1297, -14.0783, 97.4469, -51.5312, 44.0328
1.36, 2, 35.9123, 48.1291, -14.0789, 97.4473, -51.5301, 44.033
1.364, 2, 35.9132, 48.1287, -14.0792, 97.4476, -51.5294, 44.0332
1.368, 2, 35.9138, 48.1284, -14.0795, 97.4479, -51.5289, 44.0333
1.372, 2, 35.9142, 48.1282, -14.0797, 97.448, -51.5286, 44.0334
1.376, 2, 35.9145, 48.1281, -14.0798, 97.4481, -51.5283, 44.0334
1.38, 2, 35.9147, 48.128, -14.0799, 97.4482, -51.5282, 44.0335
1.384, 2, 35.9149, 48.1279, -14.0799, 97.4482, -51.5281, 44.0335
1.388, 2, 35.9149, 48.1279, -14.0799, 97.4482, -51.528, 44.0335
1.392, 2, 35.915, 48.1278, -14.08, 97.4482, -51.5279, 44.0335
1.396, 2, 35.915, 48.1278, -14.08, 97.4483, -51.5279, 44.0335
1.4, 2, 35.9151, 48.1278, -14.08, 97.4483, -51.5279, 44.0335
1.404, 2, 35.9151, 48.1278, -14.08, 97.4483, -51.5279, 44.0335
1.408, 2, 35.9151, 48.1278, -14.08, 97.4483, -51.5279, 44.0335
1.412, 2, 35.9151, 48.1278, -14.08, 97.4483, -51.5279, 44.0335
1.416, 2, 35.9151, 48.1278, -14.08, 97.4483, -51.5279, 44.0335
1.42, 2, 35.9151, 48.1278, -14.08, 97.4483, -51.5278, 44.0335
1.424, 2, 35.9151, 48.1278, -14.08, 97.4483, -51.5278, 44.0335
1.428, 2, 35.9151, 48.1278, -14.08, 97.4483, -51.5278, 44.0335
1.432, 2, 35.9151, 48.1278, -14.08, 97.4483, -51.5278, 44.0335
1.436, 2, 35.9151, 48.1278, -14.08, 97.4483, -51.5278, 44.0335
1.44, 2, 35.9151, 48.1278, -14.08, 97.4483, -51.5278, 44.0335
1.444, 2, 35.9151, 48.1278, -14.08, 97.4483, -51.5278, 44.0335
1.448, 2, 35.9151, 48.1278, -14.08, 97.4483, -51.5278, 44.0335
1.452, 2, 35.9151, 48.1278, -14.08, 97.4483, -51.5278, 44.0335
1.456, 2, 35.9151, 48.1278, -14.08, 97.4483, -51.5278, 44.0335
1.46, 2, 35.9151, 48.1278, -14.08, 97.4483, -51.5278, 44.0335
1.464, 2, 35.9151, 48.1278, -14.08, 97.4483, -51.5278, 44.0335
1.468, 2, 35.9151, 48.1278, -14.08, 97.4483, -51.5278, 44.0335
1.472, 2, 35.9151, 48.1278, -14.08, 97.4483, -51.5278, 44.0335
1.476, 2, 35.9151, 48.1278, -14.08, 97.4483, -51.5278, 44.0335
1.48, 2, 35.9151, 48.1278, -14.08, 97.4483, -51.5278, 44.0335
1.484, 2, 35.9151, 48.1278, -14.08, 97.4483, -51.5278, 44.0335
1.488, 2, 35.9151, 48.1278, -14.08, 97.4483, -51.5278, 44.0335
1.492, 2, 35.9151, 48.1278, -14.08, 97.4483, -51.5278, 44.0335
1.496, 2, 35.9151, 48.1278, -14.08, 97.4483, -51.5278, 44.0335
1.5, 2, 35.9151, 48.1278, -14.08, 97.4483, -51.5278, 44.0335
1.504, 2, 35.9151, 48.1278, -14.08, 97.4483, -51.5278, 44.0335
1.508, 2, 35.9151, 48.1278, -14.08, 97.4483, -51.5278, 44.0335
1.512, 2, 35.9151, 48.1278, -14.08, 97.4483, -51.5278, 44.0335
1.516, 2, 35.9151, 48.1278, -14.08, 97.4483, -51.5278, 44.0335
1.52, 2, 35.9151, 48.1278, -14.08, 97.4483, -51.5278, 44.0335
1.524, 2, 35.9151, 48.1278, -14.08, 97.4483, -51.5278, 44.0335
1.528, 2, 35.9151, 48.1278, -14.08, 97.4483, -51.5278, 44.0335
1.532, 2, 35.9151, 48.1278, -14.08, 97.4483, -51.5278, 44.0335
1.536, 2, 35.9151, 48.1278, -14.08, 97.4483, -51.5278, 44.0335
1.54, 2, 35.9151, 48.1278, -14.08, 97.4483, -51.5278, 44.0335
1.544, 2, 35.9151, 48.1278, -14.08, 97.4483, -51.5278, 44.0335
1.548, 2, 35.9151, 48.1278, -14.08, 97.4483, -51.5278, 44.0335
1.552, 2, 35.9151, 48.1278, -14.08, 97.4483, -51.5278, 44.0335
1.556, 2, 35.9151, 48.1278, -14.08, 97.4483, -51.5278, 44.0335
1.56, 2, 35.9151, 48.1278, -14.08, 97.4483, -51.5278, 44.0335
1.564, 2, 35.9151, 48.1278, -14.08, 97.4483, -51.5278, 44.0335
1.568, 2, 35.9151, 48.1278, -14.08, 97.4483, -51.5278, 44.0335
1.572, 2, 35.9151, 48.1278, -14.08, 97.4483, -51.5278, 44.0335
1.576, 2, 35.9151, 48.1278, -14.08, 97.4483, -51.5278, 44.0335
1.58, 2, 35.9151, 48.1278, -14.08, 97.4483, -51.5278, 44.0335
1.584, 2, 35.9151, 48.1278, -14.08, 97.4483, -51.5278, 44.0335
1.588, 2, 35.9151, 48.1278, -14.08, 97.4483, -51.5278, 44.0335
1.592, 2, 35.9151, 48.1278, -14.08, 97.4483, -51.5278, 44.0335
1.596, 2, 35.9151, 48.1278, -14.08, 97.4483, -51.5278, 44.0335
1.6, 2, 35.9151, 48.1278, -14.08, 97.4483, -51.5278, 44.0335
1.604, 2, 35.9151, 48.1278, -14.08, 97.4483, -51.5278, 44.0335
1.608, 2, 35.9151, 48.1278, -14.08, 97.4483, -51.5278, 44.0335
1.612, 2, 35.9151, 48.1278, -14.08, 97.4483, -51.5278, 44.0335
1.616, 2, 35.9151, 48.1278, -14.08, 97.4483, -51.5278, 44.0335
1.62, 2, 35.9151, 48.1278, -14.08, 97.4483, -51.5278, 44.0335
1.624, 2, 35.9151, 48.1278, -14.08, 97.4483, -51.5278, 44.0335
1.628, 2, 35.9151, 48.1278, -14.08, 97.4483, -51.5278, 44.0335
1.632, 2, 35.9151, 48.1278, -14.08, 97.4483, -51.5278, 44.0335
1.636, 2, 35.9151, 48.1278, -14.08, 97.4483, -51.5278, 44.0335
1.64, 2, 35.9151, 48.1278, -14.08, 97.4483, -51.5278, 44.0335
1.644, 2, 35.9151, 48.1278, -14.08, 97.4483, -51.5278, 44.0335
1.648, 2, 35.9151, 48.1278, -14.08, 97.4483, -51.5278, 44.0335
1.652, 2, 35.9151, 48.1278, -14.08, 97.4483, -51.5278, 44.0335
1.656, 2, 35.9151, 48.1278, -14.08, 97.4483, -51.5278, 44.0335
1.66, 2, 35.9151, 48.1278, -14.08, 97.4483, -51.5278, 44.0335
1.664, 2, 35.9151, 48.1278, -14.08, 97.4483, -51.5278, 44.0335
1.668, 2, 35.9151, 48.1278, -14.08, 97.4483, -51.5278, 44.0335
1.672, 2, 35.9151, 48.1278, -14.08, 97.4483, -51.5278, 44.0335
1.676, 2, 35.9151, 48.1278, -14.08, 97.4483, -51.5278, 44.0335
1.68, 2, 35.9151, 48.1278, -14.08, 97.4483, -51.5278, 44.0335
1.684, 2, 35.9151, 48.1278, -14.08, 97.4483, -51.5278, 44.0335
1.688, 2, 35.9151, 48.1278, -14.08, 97.4483, -51.5278, 44.0335
1.692, 2, 35.9151, 48.1278, -14.08, 97.4483, -51.5278, 44.0335
1.696, 2, 35.9151, 48.1278, -14.08, 97.4483, -51.5278, 44.0335
1.7, 2, 35.9151, 48.1278, -14.08, 97.4483, -51.5278, 44.0335
1.704, 2, 35.9151, 48.1278, -14.08, 97.4483, -51.5278, 44.0335
1.708, 2, 35.9151, 48.1278, -14.08, 97.4483, -51.5278, 44.0335
1.712, 2, 35.9151, 48.1278, -14.08, 97.4483, -51.5278, 44.0335
1.716, 2, 35.9151, 48.1278, -14.08, 97.4483, -51.5278, 44.0335
1.72, 2, 35.9151, 48.1278, -14.08, 97.4483, -51.5278, 44.0335
1.724, 2, 35.9151, 48.1278, -14.08, 97.4483, -51.5278, 44.0335
1.728, 2, 35.9151, 48.1278, -14.08, 97.4483, -51.5278, 44.0335
1.732, 2, 35.9151, 48.1278, -14.08, 97.4483, -51.5278, 44.0335
1.736, 2, 35.9151, 48.1278, -14.08, 97.4483, -51.5278, 44.0335
1.74, 2, 35.9151, 48.1278, -14.08, 97.4483, -51.5278, 44.0335
1.744, 2, 35.9151, 48.1278, -14.08, 97.4483, -51.5278, 44.0335
1.748, 2, 35.9151, 48.1278, -14.08, 97.4483, -51.5278, 44.0335
1.752, 2, 35.9151, 48.1278, -14.08, 97.4483, -51.5278, 44.0335
1.756, 2, 35.9151, 48.1278, -14.08, 97.4483, -51.5278, 44.0335
1.76, 2, 35.9151, 48.1278, -14.08, 97.4483, -51.5278, 44.0335
1.764, 2, 35.9151, 48.1278, -14.08, 97.4483, -51.5278, 44.0335
1.768, 2, 35.9151, 48.1278, -14.08, 97.4483, -51.5278, 44.0335
1.772, 2, 35.9151, 48.1278, -14.08, 97.4483, -51.5278, 44.0335
1.776, 2, 35.9151, 48.1278, -14.08, 97.4483, -51.5278, 44.0335
1.78, 2, 35.9151, 48.1278, -14.08, 97.4483, -51.5278, 44.0335
1.784, 2, 35.9151, 48.1278, -14.08, 97.4483, -51.5278, 44.0335
1.788, 2, 35.9151, 48.1278, -14.08, 97.4483, -51.5278, 44.0335
1.792, 2, 35.9151, 48.1278, -14.08, 97.4483, -51.5278, 44.0335
1.796, 2, 35.9151, 48.1278, -14.08, 97.4483, -51.5278, 44.0335
1.8, 2, 35.9151, 48.1278, -14.08, 97.4483, -51.5278, 44.0335
1.804, 2, 35.9151, 48.1278, -14.08, 97.4483, -51.5278, 44.0335
1.808, 2, 35.9151, 48.1278, -14.08, 97.4483, -51.5278, 44.0335
1.812, 2, 35.9151, 48.1278, -14.08, 97.4483, -51.5278, 44.0335
1.816, 2, 35.9151, 48.1278, -14.08, 97.4483, -51.5278, 44.0335
1.82, 2, 35.9151, 48.1278, -14.08, 97.4483, -51.5278, 44.0335
1.824, 2, 35.9151, 48.1278, -14.08, 97.4483, -51.5278, 44.0335
1.828, 2, 35.9151, 48.1278, -14.08, 97.4483, -51.5278, 44.0335
1.832, 2, 35.9151, 48.1278, -14.08, 97.4483, -51.5278, 44.0335
1.836, 2, 35.9151, 48.1278, -14.08, 97.4483, -51.5278, 44.0335
1.84, 2, 35.9151, 48.1278, -14.08, 97.4483, -51.5278, 44.0335
1.844, 2, 35.9151, 48.1278, -14.08, 97.4483, -51.5278, 44.0335
1.848, 2, 35.9151, 48.1278, -14.08, 97.4483, -51.5278, 44.0335
1.852, 2, 35.9151, 48.1278, -14.08, 97.4483, -51.5278, 44.0335
1.856, 2, 35.9151, 48.1278, -14.08, 97.4483, -51.5278, 44.0335
1.86, 2, 35.9151, 48.1278, -14.08, 97.4483, -51.5278, 44.0335
1.864, 2, 35.9151, 48.1278, -14.08, 97.4483, -51.5278, 44.0335
1.868, 2, 35.9151, 48.1278, -14.08, 97.4483, -51.5278, 44.0335
1.872, 2, 35.9151, 48.1278, -14.08, 97.4483, -51.5278, 44.0335
1.876, 2, 35.9151, 48.1278, -14.08, 97.4483, -51.5278, 44.0335
1.88, 2, 35.9151, 48.1278, -14.08, 97.4483, -51.5278, 44.0335
1.884, 2, 35.9151, 48.1278, -14.08, 97.4483, -51.5278, 44.0335
1.888, 2, 35.9151, 48.1278, -14.08, 97.4483, -51.5278, 44.0335
1.892, 2, 35.9151, 48.1278, -14.08, 97.4483, -51.5278, 44.0335
1.896, 2, 35.9151, 48.1278, -14.08, 97.4483, -51.5278, 44.0335
1.9, 2, 35.9151, 48.1278, -14.08, 97.4483, -51.5278, 44.0335
1.904, 2, 35.9151, 48.1278, -14.08, 97.4483, -51.5278, 44.0335
1.908, 2, 35.9151, 48.1278, -14.08, 97.4483, -51.5278, 44.0335
1.912, 2, 35.9151, 48.1278, -14.08, 97.4483, -51.5278, 44.0335
1.916, 2, 35.9151, 48.1278, -14.08, 97.4483, -51.5278, 44.0335
1.92, 2, 35.9151, 48.1278, -14.08, 97.4483, -51.5278, 44.0335
1.924, 2, 35.9151, 48.1278, -14.08, 97.4483, -51.5278, 44.0335
1.928, 2, 35.9151, 48.1278, -14.08, 97.4483, -51.5278, 44.0335
1.932, 2, 35.9151, 48.1278, -14.08, 97.4483, -51.5278, 44.0335
1.936, 2, 35.9151, 48.1278, -14.08, 97.4483, -51.5278, 44.0335
1.94, 2, 35.9151, 48.1278, -14.08, 97.4483, -51.5278, 44.0335
1.944, 2, 35.9151, 48.1278, -14.08, 97.4483, -51.5278, 44.0335
1.948, 2, 35.9151, 48.1278, -14.08, 97.4483, -51.5278, 44.0335
1.952, 2, 35.9151, 48.1278, -14.08, 97.4483, -51.5278, 44.0335
1.956, 2, 35.9151, 48.1278, -14.08, 97.4483, -51.5278, 44.0335
1.96, 2, 35.9151, 48.1278, -14.08, 97.4483, -51.5278, 44.0335
1.964, 2, 35.9151, 48.1278, -14.08, 97.4483, -51.5278, 44.0335
1.968, 2, 35.9151, 48.1278, -14.08, 97.4483, -51.5278, 44.0335
1.972, 2, 35.9151, 48.1278, -14.08, 97.4483, -51.5278, 44.0335
1.976, 2, 35.9151, 48.1278, -14.08, 97.4483, -51.5278, 44.0335
1.98, 2, 35.9151, 48.1278, -14.08, 97.4483, -51.5278, 44.0335
1.984, 2, 35.9151, 48.1278, -14.08, 97.4483, -51.5278, 44.0335
1.988, 2, 35.9151, 48.1278, -14.08, 97.4483, -51.5278, 44.0335
1.992, 2, 35.9151, 48.1278, -14.08, 97.4483, -51.5278, 44.0335
1.996, 2, 35.9151, 48.1278, -14.08, 97.4483, -51.5278, 44.0335
1.999, 2, 35.9151, 48.1278, -14.08, 97.4483, -51.5278, 44.0335
2.004, 2, 35.9151, 48.1278, -14.08, 97.4483, -51.5278, 44.0335
2.008, 2, 35.9151, 48.1278, -14.08, 97.4483, -51.5278, 44.0335
2.012, 2, 35.9151, 48.1278, -14.08, 97.4483, -51.5278, 44.0335
2.015, 2, 35.9151, 48.1278, -14.08, 97.4483, -51.5278, 44.0335
2.019, 2, 35.9151, 48.1278, -14.08, 97.4483, -51.5278, 44.0335
2.024, 2, 35.9151, 48.1278, -14.08, 97.4483, -51.5278, 44.0335
2.028, 2, 35.9151, 48.1278, -14.08, 97.4483, -51.5278, 44.0335
2.031, 2, 35.9151, 48.1278, -14.08, 97.4483, -51.5278, 44.0335
2.036, 2, 35.9151, 48.1278, -14.08, 97.4483, -51.5278, 44.0335
2.04, 2, 35.9151, 48.1278, -14.08, 97.4483, -51.5278, 44.0335
2.044, 2, 35.9151, 48.1278, -14.08, 97.4483, -51.5278, 44.0335
2.048, 2, 35.9151, 48.1278, -14.08, 97.4483, -51.5278, 44.0335
2.051, 2, 35.9151, 48.1278, -14.08, 97.4483, -51.5278, 44.0335
2.055, 2, 35.9151, 48.1278, -14.08, 97.4483, -51.5278, 44.0335
2.06, 2, 35.9151, 48.1278, -14.08, 97.4483, -51.5278, 44.0335
2.064, 2, 35.9151, 48.1278, -14.08, 97.4483, -51.5278, 44.0335
2.068, 2, 35.9151, 48.1278, -14.08, 97.4483, -51.5278, 44.0335
2.071, 2, 35.9151, 48.1278, -14.08, 97.4483, -51.5278, 44.0335
2.076, 2, 35.9151, 48.1278, -14.08, 97.4483, -51.5278, 44.0335
2.08, 2, 35.9151, 48.1278, -14.08, 97.4483, -51.5278, 44.0335
2.084, 2, 35.9151, 48.1278, -14.08, 97.4483, -51.5278, 44.0335
2.087, 2, 35.9151, 48.1278, -14.08, 97.4483, -51.5278, 44.0335
2.092, 2, 35.9151, 48.1278, -14.08, 97.4483, -51.5278, 44.0335
2.096, 2, 35.9151, 48.1278, -14.08, 97.4483, -51.5278, 44.0335
2.1, 2, 35.9151, 48.1278, -14.08, 97.4483, -51.5278, 44.0335
2.104, 2, 35.9151, 48.1278, -14.08, 97.4483, -51.5278, 44.0335
2.107, 2, 35.9151, 48.1278, -14.08, 97.4483, -51.5278, 44.0335
2.111, 2, 35.9151, 48.1278, -14.08, 97.4483, -51.5278, 44.0335
2.116, 2, 35.9151, 48.1278, -14.08, 97.4483, -51.5278, 44.0335
2.12, 2, 35.9151, 48.1278, -14.08, 97.4483, -51.5278, 44.0335
2.124, 2, 35.9151, 48.1278, -14.08, 97.4483, -51.5278, 44.0335
2.127, 2, 35.9151, 48.1278, -14.08, 97.4483, -51.5278, 44.0335
2.132, 2, 35.9151, 48.1278, -14.08, 97.4483, -51.5278, 44.0335
2.136, 2, 35.9151, 48.1278, -14.08, 97.4483, -51.5278, 44.0335
2.14, 2, 35.9151, 48.1278, -14.08, 97.4483, -51.5278, 44.0335
2.143, 2, 35.9151, 48.1278, -14.08, 97.4483, -51.5278, 44.0335
2.148, 2, 35.9151, 48.1278, -14.08, 97.4483, -51.5278, 44.0335
2.152, 2, 35.9151, 48.1278, -14.08, 97.4483, -51.5278, 44.0335
2.156, 2, 35.9151, 48.1278, -14.08, 97.4483, -51.5278, 44.0335
2.16, 2, 35.9151, 48.1278, -14.08, 97.4483, -51.5278, 44.0335
2.163, 2, 35.9151, 48.1278, -14.08, 97.4483, -51.5278, 44.0335
2.168, 2, 35.9151, 48.1278, -14.08, 97.4483, -51.5278, 44.0335
2.172, 2, 35.9151, 48.1278, -14.08, 97.4483, -51.5278, 44.0335
2.176, 2, 35.9151, 48.1278, -14.08, 97.4483, -51.5278, 44.0335
2.179, 2, 35.9151, 48.1278, -14.08, 97.4483, -51.5278, 44.0335
2.184, 2, 35.9151, 48.1278, -14.08, 97.4483, -51.5278, 44.0335
2.188, 2, 35.9151, 48.1278, -14.08, 97.4483, -51.5278, 44.0335
2.192, 2, 35.9151, 48.1278, -14.08, 97.4483, -51.5278, 44.0335
2.196, 2, 35.9151, 48.1278, -14.08, 97.4483, -51.5278, 44.0335
2.199, 2, 35.9151, 48.1278, -14.08, 97.4483, -51.5278, 44.0335
2.204, 2, 35.9151, 48.1278, -14.08, 97.4483, -51.5278, 44.0335
2.208, 2, 35.9151, 48.1278, -14.08, 97.4483, -51.5278, 44.0335
2.212, 2, 35.9151, 48.1278, -14.08, 97.4483, -51.5278, 44.0335
2.216, 2, 35.9151, 48.1278, -14.08, 97.4483, -51.5278, 44.0335
2.219, 2, 35.9151, 48.1278, -14.08, 97.4483, -51.5278, 44.0335
2.224, 2, 35.9151, 48.1278, -14.08, 97.4483, -51.5278, 44.0335
2.228, 2, 35.9151, 48.1278, -14.08, 97.4483, -51.5278, 44.0335
2.232, 2, 35.9151, 48.1278, -14.08, 97.4483, -51.5278, 44.0335
2.235, 2, 35.9151, 48.1278, -14.08, 97.4483, -51.5278, 44.0335
2.24, 2, 35.9151, 48.1278, -14.08, 97.4483, -51.5278, 44.0335
2.244, 2, 35.9151, 48.1278, -14.08, 97.4483, -51.5278, 44.0335
2.248, 2, 35.9151, 48.1278, -14.08, 97.4483, -51.5278, 44.0335
2.252, 2, 35.9151, 48.1278, -14.08, 97.4483, -51.5278, 44.0335
2.255, 2, 35.9151, 48.1278, -14.08, 97.4483, -51.5278, 44.0335
2.259, 2, 35.9151, 48.1278, -14.08, 97.4483, -51.5278, 44.0335
2.264, 2, 35.9151, 48.1278, -14.08, 97.4483, -51.5278, 44.0335
2.268, 2, 35.9151, 48.1278, -14.08, 97.4483, -51.5278, 44.0335
2.272, 2, 35.9151, 48.1278, -14.08, 97.4483, -51.5278, 44.0335
2.275, 2, 35.9151, 48.1278, -14.08, 97.4483, -51.5278, 44.0335
2.28, 2, 35.9151, 48.1278, -14.08, 97.4483, -51.5278, 44.0335
2.284, 2, 35.9151, 48.1278, -14.08, 97.4483, -51.5278, 44.0335
2.288, 2, 35.9151, 48.1278, -14.08, 97.4483, -51.5278, 44.0335
2.291, 2, 35.9151, 48.1278, -14.08, 97.4483, -51.5278, 44.0335
2.296, 2, 35.9151, 48.1278, -14.08, 97.4483, -51.5278, 44.0335
2.3, 2, 35.9151, 48.1278, -14.08, 97.4483, -51.5278, 44.0335
2.304, 2, 35.9151, 48.1278, -14.08, 97.4483, -51.5278, 44.0335
2.308, 2, 35.9151, 48.1278, -14.08, 97.4483, -51.5278, 44.0335
2.311, 2, 35.9151, 48.1278, -14.08, 97.4483, -51.5278, 44.0335
2.316, 2, 35.9151, 48.1278, -14.08, 97.4483, -51.5278, 44.0335
2.32, 2, 35.9151, 48.1278, -14.08, 97.4483, -51.5278, 44.0335
2.324, 2, 35.9151, 48.1278, -14.08, 97.4483, -51.5278, 44.0335
2.328, 2, 35.9151, 48.1278, -14.08, 97.4483, -51.5278, 44.0335
2.331, 2, 35.9151, 48.1278, -14.08, 97.4483, -51.5278, 44.0335
2.336, 2, 35.9151, 48.1278, -14.08, 97.4483, -51.5278, 44.0335
2.34, 2, 35.9151, 48.1278, -14.08, 97.4483, -51.5278, 44.0335
2.344, 2, 35.9151, 48.1278, -14.08, 97.4483, -51.5278, 44.0335
2.347, 2, 35.9151, 48.1278, -14.08, 97.4483, -51.5278, 44.0335
2.352, 2, 35.9151, 48.1278, -14.08, 97.4483, -51.5278, 44.0335
2.356, 2, 35.9151, 48.1278, -14.08, 97.4483, -51.5278, 44.0335
2.36, 2, 35.9151, 48.1278, -14.08, 97.4483, -51.5278, 44.0335
2.364, 2, 35.9151, 48.1278, -14.08, 97.4483, -51.5278, 44.0335
2.367, 2, 35.9151, 48.1278, -14.08, 97.4483, -51.5278, 44.0335
2.372, 2, 35.9151, 48.1278, -14.08, 97.4483, -51.5278, 44.0335
2.376, 2, 35.9151, 48.1278, -14.08, 97.4483, -51.5278, 44.0335
2.38, 2, 35.9151, 48.1278, -14.08, 97.4483, -51.5278, 44.0335
2.383, 2, 35.9151, 48.1278, -14.08, 97.4483, -51.5278, 44.0335
2.388, 2, 35.9151, 48.1278, -14.08, 97.4483, -51.5278, 44.0335
2.392, 2, 35.9151, 48.1278, -14.08, 97.4483, -51.5278, 44.0335
2.396, 2, 35.9151, 48.1278, -14.08, 97.4483, -51.5278, 44.0335
2.4, 4, 35.9151, 48.1278, -14.08, 97.4483, -51.5278, 44.0335
2.403, 4, 35.9151, 48.1278, -14.08, 97.4483, -51.5278, 44.0335
2.408, 4, 35.9151, 48.1278, -14.08, 97.4483, -51.5278, 44.0335
2.412, 4, 35.9151, 48.1278, -14.08, 97.4483, -51.5278, 44.0335
2.416, 4, 35.9151, 48.1278, -14.08, 97.4483, -51.5278, 44.0335
2.42, 4, 35.9151, 48.1278, -14.08, 97.4483, -51.5278, 44.0335
2.423, 4, 35.9151, 48.1278, -14.08, 97.4483, -51.5278, 44.0335
2.428, 4, 35.9151, 48.1278, -14.08, 97.4483, -51.5278, 44.0335
2.432, 4, 35.9151, 48.1278, -14.08, 97.4483, -51.5278, 44.0335
2.436, 4, 35.9151, 48.1278, -14.08, 97.4483, -51.5278, 44.0335
2.439, 4, 35.9151, 48.1278, -14.08, 97.4483, -51.5278, 44.0335
2.444, 4, 35.9151, 48.1278, -14.08, 97.4483, -51.5278, 44.0335
2.448, 4, 35.9151, 48.1278, -14.08, 97.4483, -51.5278, 44.0335
2.452, 4, 35.9151, 48.1278, -14.08, 97.4483, -51.5278, 44.0335
2.456, 4, 35.9151, 48.1278, -14.08, 97.4483, -51.5278, 44.0335
2.459, 4, 35.9151, 48.1278, -14.08, 97.4483, -51.5278, 44.0335
2.464, 4, 35.9151, 48.1278, -14.08, 97.4483, -51.5278, 44.0335
2.468, 4, 35.9151, 48.1278, -14.08, 97.4483, -51.5278, 44.0335
2.472, 4, 35.9151, 48.1278, -14.08, 97.4483, -51.5278, 44.0335
2.476, 4, 35.9151, 48.1278, -14.08, 97.4483, -51.5278, 44.0335
2.479, 4, 35.9151, 48.1278, -14.08, 97.4483, -51.5278, 44.0335
2.484, 4, 35.9151, 48.1278, -14.08, 97.4483, -51.5278, 44.0335
2.488, 4, 35.9151, 48.1278, -14.08, 97.4483, -51.5278, 44.0335
2.492, 4, 35.9151, 48.1278, -14.08, 97.4483, -51.5278, 44.0335
2.495, 4, 35.9151, 48.1278, -14.08, 97.4483, -51.5278, 44.0335
2.5, 4, 35.9151, 48.1278, -14.08, 97.4483, -51.5278, 44.0335
2.506, 4, 35.9151, 48.1278, -14.08, 97.4483, -51.5278, 44.0335
2.508, 4, 35.9151, 48.1278, -14.08, 97.4483, -51.5278, 44.0335
2.512, 4, 35.9151, 48.1278, -14.08, 97.4483, -51.5278, 44.0335
2.515, 4, 35.9151, 48.1278, -14.08, 97.4483, -51.5278, 44.0335
2.52, 4, 35.9151, 48.1278, -14.08, 97.4483, -51.5278, 44.0335
2.524, 4, 35.9151, 48.1278, -14.08, 97.4483, -51.5278, 44.0335
2.528, 4, 35.9151, 48.1278, -14.08, 97.4483, -51.5278, 44.0335
2.531, 4, 35.9151, 48.1278, -14.08, 97.4483, -51.5278, 44.0335
2.536, 4, 35.9151, 48.1278, -14.08, 97.4483, -51.5278, 44.0335
2.54, 4, 35.9151, 48.128, -14.08, 97.4483, -51.5279, 44.0335
2.544, 4, 35.9149, 48.1283, -14.08, 97.4483, -51.5279, 44.0335
2.548, 4, 35.9147, 48.1291, -14.0801, 97.4483, -51.528, 44.0334
2.551, 4, 35.9142, 48.1303, -14.0802, 97.4483, -51.5284, 44.0332
2.556, 4, 35.9136, 48.1322, -14.0803, 97.4483, -51.5291, 44.0328
2.56, 4, 35.9128, 48.1348, -14.0805, 97.4484, -51.5305, 44.0319
2.564, 4, 35.9117, 48.1382, -14.0809, 97.4484, -51.5328, 44.0305
2.568, 4, 35.9105, 48.1424, -14.0814, 97.4485, -51.5366, 44.0282
2.571, 5, 35.9092, 48.1474, -14.0821, 97.4487, -51.5422, 44.0248
2.576, 5, 35.9077, 48.1534, -14.0832, 97.4489, -51.5503, 44.0198
2.58, 5, 35.9061, 48.1605, -14.0846, 97.4491, -51.5614, 44.013
2.584, 5, 35.9045, 48.1688, -14.0864, 97.4494, -51.5762, 44.004
2.587, 5, 35.9028, 48.1782, -14.0887, 97.4499, -51.5953, 43.9924
2.592, 5, 35.9011, 48.1888, -14.0915, 97.4503, -51.6192, 43.9778
2.596, 5, 35.8995, 48.2004, -14.0949, 97.4509, -51.6486, 43.96
2.6, 5, 35.8979, 48.2131, -14.0989, 97.4516, -51.6837, 43.9386
2.604, 5, 35.8964, 48.2266, -14.1035, 97.4523, -51.7249, 43.9136
2.607, 5, 35.895, 48.241, -14.1088, 97.4531, -51.7723, 43.8848
2.612, 5, 35.8937, 48.2565, -14.1148, 97.454, -51.8258, 43.8524
2.616, 5, 35.8925, 48.273, -14.1213, 97.4549, -51.8853, 43.8164
2.62, 5, 35.8912, 48.2906, -14.1284, 97.4559, -51.9503, 43.777
2.624, 5, 35.8899, 48.3095, -14.1361, 97.4568, -52.0204, 43.7347
2.627, 5, 35.8886, 48.3294, -14.1441, 97.4578, -52.0951, 43.6896
2.632, 5, 35.8873, 48.3504, -14.1526, 97.4587, -52.1739, 43.6421
2.636, 5, 35.8859, 48.3725, -14.1614, 97.4596, -52.256, 43.5927
2.64, 5, 35.8843, 48.3955, -14.1705, 97.4604, -52.341, 43.5416
2.643, 5, 35.8827, 48.4194, -14.1798, 97.4612, -52.4282, 43.4892
2.648, 5, 35.8808, 48.4442, -14.1892, 97.4619, -52.5172, 43.4359
2.652, 5, 35.8787, 48.4699, -14.1987, 97.4624, -52.6074, 43.3819
2.656, 5, 35.8764, 48.4964, -14.2082, 97.4629, -52.6986, 43.3275
2.66, 5, 35.8739, 48.5236, -14.2178, 97.4632, -52.7904, 43.2728
2.663, 5, 35.8712, 48.5512, -14.2273, 97.4635, -52.8827, 43.2179
2.668, 5, 35.8683, 48.5791, -14.2368, 97.4636, -52.9752, 43.1629
2.672, 5, 35.8654, 48.6073, -14.2463, 97.4636, -53.0679, 43.1079
2.676, 5, 35.8624, 48.6356, -14.2557, 97.4634, -53.1608, 43.053
2.679, 5, 35.8593, 48.664, -14.265, 97.4632, -53.2537, 42.9981
2.684, 5, 35.8562, 48.6924, -14.2743, 97.4627, -53.3466, 42.9432
2.688, 5, 35.8531, 48.7208, -14.2835, 97.4622, -53.4397, 42.8885
2.692, 5, 35.8498, 48.7492, -14.2926, 97.4616, -53.5327, 42.8339
2.696, 5, 35.8466, 48.7776, -14.3017, 97.4608, -53.6257, 42.7793
2.699, 5, 35.8433, 48.8059, -14.3107, 97.4599, -53.7187, 42.7248
2.704, 5, 35.84, 48.8343, -14.3196, 97.4589, -53.8117, 42.6705
2.708, 5, 35.8367, 48.8626, -14.3284, 97.4577, -53.9047, 42.6162
2.712, 5, 35.8333, 48.8908, -14.3371, 97.4564, -53.9977, 42.5621
2.716, 5, 35.8299, 48.919, -14.3458, 97.455, -54.0907, 42.5081
2.719, 5, 35.8265, 48.9472, -14.3543, 97.4535, -54.1836, 42.4541
2.724, 5, 35.823, 48.9753, -14.3628, 97.4518, -54.2766, 42.4003
2.728, 5, 35.8195, 49.0034, -14.3713, 97.4501, -54.3695, 42.3465
2.732, 5, 35.816, 49.0314, -14.3796, 97.4482, -54.4624, 42.2929
2.735, 5, 35.8125, 49.0594, -14.3878, 97.4462, -54.5553, 42.2394
2.74, 5, 35.8089, 49.0873, -14.396, 97.444, -54.6482, 42.186
2.744, 5, 35.8053, 49.1152, -14.4041, 97.4418, -54.741, 42.1326
2.748, 5, 35.8017, 49.143, -14.4121, 97.4394, -54.8339, 42.0794
2.752, 5, 35.798, 49.1708, -14.4201, 97.4369, -54.9267, 42.0263
2.755, 5, 35.7943, 49.1986, -14.4279, 97.4343, -55.0195, 41.9733
2.76, 5, 35.7906, 49.2263, -14.4357, 97.4316, -55.1123, 41.9203
2.764, 5, 35.7868, 49.2539, -14.4434, 97.4287, -55.2051, 41.8675
2.768, 5, 35.783, 49.2816, -14.451, 97.4258, -55.2979, 41.8148
2.772, 5, 35.7792, 49.3091, -14.4585, 97.4227, -55.3906, 41.7622
2.775, 5, 35.7754, 49.3366, -14.466, 97.4195, -55.4834, 41.7096
2.78, 5, 35.7715, 49.3641, -14.4733, 97.4162, -55.5761, 41.6572
2.784, 5, 35.7676, 49.3915, -14.4806, 97.4128, -55.6688, 41.6048
2.788, 5, 35.7637, 49.4189, -14.4878, 97.4092, -55.7615, 41.5526
2.791, 5, 35.7597, 49.4462, -14.495, 97.4056, -55.8541, 41.5004
2.796, 5, 35.7557, 49.4735, -14.502, 97.4018, -55.9468, 41.4483
2.8, 5, 35.7517, 49.5007, -14.509, 97.398, -56.0394, 41.3964
2.804, 5, 35.7477, 49.5279, -14.5159, 97.394, -56.132, 41.3445
2.808, 5, 35.7436, 49.555, -14.5227, 97.3899, -56.2246, 41.2927
2.811, 5, 35.7395, 49.5821, -14.5294, 97.3857, -56.3172, 41.241
2.816, 5, 35.7354, 49.6091, -14.536, 97.3814, -56.4098, 41.1894
2.82, 5, 35.7312, 49.6361, -14.5426, 97.3769, -56.5024, 41.1379
2.824, 5, 35.727, 49.6631, -14.5491, 97.3724, -56.5949, 41.0864
2.828, 5, 35.7228, 49.69, -14.5555, 97.3678, -56.6874, 41.0351
2.831, 5, 35.7185, 49.7168, -14.5618, 97.363, -56.7799, 40.9838
2.836, 5, 35.7143, 49.7436, -14.5681, 97.3582, -56.8724, 40.9327
2.84, 5, 35.71, 49.7703, -14.5742, 97.3532, -56.9649, 40.8816
2.844, 5, 35.7056, 49.797, -14.5803, 97.3481, -57.0573, 40.8306
2.847, 5, 35.7013, 49.8237, -14.5863, 97.343, -57.1498, 40.7797
2.852, 5, 35.6969, 49.8503, -14.5922, 97.3377, -57.2422, 40.7289
2.856, 5, 35.6925, 49.8769, -14.5981, 97.3323, -57.3346, 40.6782
2.86, 5, 35.688, 49.9034, -14.6038, 97.3268, -57.427, 40.6275
2.864, 5, 35.6835, 49.9298, -14.6095, 97.3212, -57.5194, 40.5769
2.867, 5, 35.679, 49.9562, -14.6151, 97.3155, -57.6117, 40.5265
2.872, 5, 35.6745, 49.9826, -14.6206, 97.3097, -57.7041, 40.4761
2.876, 5, 35.6699, 50.0089, -14.626, 97.3038, -57.7964, 40.4258
2.88, 5, 35.6653, 50.0351, -14.6314, 97.2978, -57.8887, 40.3755
2.883, 5, 35.6607, 50.0613, -14.6367, 97.2916, -57.981, 40.3254
2.888, 5, 35.6561, 50.0875, -14.6419, 97.2854, -58.0732, 40.2753
2.892, 5, 35.6514, 50.1136, -14.647, 97.2791, -58.1655, 40.2253
2.896, 5, 35.6467, 50.1397, -14.652, 97.2727, -58.2577, 40.1754
2.9, 5, 35.6419, 50.1657, -14.657, 97.2662, -58.35, 40.1256
2.903, 5, 35.6372, 50.1916, -14.6618, 97.2596, -58.4422, 40.0759
2.908, 5, 35.6324, 50.2176, -14.6666, 97.2528, -58.5344, 40.0262
2.912, 5, 35.6276, 50.2434, -14.6713, 97.246, -58.6265, 39.9766
2.916, 5, 35.6227, 50.2692, -14.676, 97.2391, -58.7187, 39.9271
2.92, 5, 35.6178, 50.295, -14.6805, 97.2321, -58.8108, 39.8777
2.923, 5, 35.6129, 50.3207, -14.685, 97.225, -58.903, 39.8283
2.928, 5, 35.608, 50.3464, -14.6894, 97.2178, -58.9951, 39.779
2.932, 5, 35.603, 50.372, -14.6937, 97.2104, -59.0872, 39.7298
2.936, 5, 35.598, 50.3975, -14.6979, 97.203, -59.1792, 39.6807
2.939, 5, 35.593, 50.423, -14.702, 97.1955, -59.2713, 39.6316
2.944, 5, 35.588, 50.4485, -14.7061, 97.1879, -59.3633, 39.5827
2.948, 5, 35.5829, 50.4739, -14.7101, 97.1802, -59.4554, 39.5338
2.952, 5, 35.5778, 50.4993, -14.714, 97.1724, -59.5474, 39.485
2.956, 5, 35.5727, 50.5246, -14.7178, 97.1646, -59.6394, 39.4362
2.959, 5, 35.5675, 50.5498, -14.7215, 97.1566, -59.7313, 39.3875
2.964, 5, 35.5623, 50.575, -14.7252, 97.1485, -59.8233, 39.3389
2.968, 5, 35.5571, 50.6002, -14.7288, 97.1403, -59.9152, 39.2904
2.972, 5, 35.5519, 50.6253, -14.7323, 97.1321, -60.0072, 39.2419
2.976, 5, 35.5466, 50.6504, -14.7357, 97.1237, -60.0991, 39.1935
2.98, 5, 35.5413, 50.6754, -14.739, 97.1153, -60.191, 39.1452
2.984, 5, 35.536, 50.7003, -14.7423, 97.1067, -60.2829, 39.097
2.988, 5, 35.5306, 50.7252, -14.7455, 97.0981, -60.3747, 39.0488
2.992, 5, 35.5252, 50.7501, -14.7486, 97.0894, -60.4665, 39.0007
2.995, 5, 35.5198, 50.7749, -14.7516, 97.0806, -60.5584, 38.9526
3, 5, 35.5144, 50.7996, -14.7545, 97.0717, -60.6502, 38.9047
3.004, 5, 35.5089, 50.8243, -14.7573, 97.0627, -60.742, 38.8568
3.008, 5, 35.5034, 50.8489, -14.7601, 97.0536, -60.8337, 38.8089
3.012, 5, 35.4979, 50.8735, -14.7628, 97.0444, -60.9255, 38.7612
3.015, 5, 35.4924, 50.8981, -14.7654, 97.0352, -61.0172, 38.7135
3.02, 5, 35.4868, 50.9226, -14.7679, 97.0258, -61.109, 38.6659
3.024, 5, 35.4812, 50.947, -14.7704, 97.0164, -61.2007, 38.6183
3.028, 5, 35.4756, 50.9714, -14.7727, 97.0068, -61.2924, 38.5708
3.031, 5, 35.4699, 50.9957, -14.775, 96.9972, -61.384, 38.5234
3.036, 5, 35.4642, 51.02, -14.7772, 96.9875, -61.4757, 38.476
3.04, 5, 35.4585, 51.0442, -14.7793, 96.9777, -61.5673, 38.4287
3.044, 5, 35.4528, 51.0684, -14.7814, 96.9678, -61.659, 38.3815
3.048, 5, 35.447, 51.0925, -14.7833, 96.9579, -61.7506, 38.3343
3.051, 5, 35.4412, 51.1166, -14.7852, 96.9478, -61.8422, 38.2872
3.056, 5, 35.4354, 51.1406, -14.787, 96.9377, -61.9337, 38.2401
3.06, 5, 35.4295, 51.1645, -14.7887, 96.9275, -62.0253, 38.1931
3.064, 5, 35.4237, 51.1884, -14.7903, 96.9172, -62.1168, 38.1462
3.068, 5, 35.4177, 51.2123, -14.7919, 96.9068, -62.2083, 38.0994
3.071, 5, 35.4118, 51.2361, -14.7934, 96.8963, -62.2998, 38.0526
3.076, 5, 35.4059, 51.2599, -14.7947, 96.8857, -62.3913, 38.0058
3.08, 5, 35.3999, 51.2836, -14.796, 96.8751, -62.4828, 37.9592
3.084, 5, 35.3938, 51.3072, -14.7973, 96.8644, -62.5742, 37.9125
3.087, 5, 35.3878, 51.3308, -14.7984, 96.8536, -62.6657, 37.866
3.092, 5, 35.3817, 51.3543, -14.7995, 96.8427, -62.7571, 37.8195
3.096, 5, 35.3756, 51.3778, -14.8004, 96.8317, -62.8485, 37.7731
3.1, 5, 35.3695, 51.4012, -14.8013, 96.8206, -62.9399, 37.7267
3.104, 5, 35.3634, 51.4246, -14.8021, 96.8095, -63.0313, 37.6804
3.107, 5, 35.3572, 51.4479, -14.8029, 96.7983, -63.1226, 37.6341
3.112, 5, 35.351, 51.4712, -14.8035, 96.787, -63.2139, 37.5879
3.116, 5, 35.3447, 51.4944, -14.8041, 96.7756, -63.3053, 37.5418
3.12, 5, 35.3385, 51.5176, -14.8046, 96.7642, -63.3966, 37.4957
3.124, 5, 35.3322, 51.5407, -14.805, 96.7526, -63.4878, 37.4496
3.128, 5, 35.3259, 51.5637, -14.8053, 96.741, -63.5791, 37.4037
3.132, 5, 35.3195, 51.5867, -14.8055, 96.7293, -63.6703, 37.3577
3.136, 5, 35.3131, 51.6097, -14.8057, 96.7175, -63.7616, 37.3119
3.14, 5, 35.3067, 51.6325, -14.8057, 96.7057, -63.8528, 37.2661
3.143, 5, 35.3003, 51.6554, -14.8057, 96.6937, -63.944, 37.2203
3.148, 5, 35.2939, 51.6782, -14.8056, 96.6817, -64.0352, 37.1746
3.152, 5, 35.2874, 51.7009, -14.8055, 96.6696, -64.1263, 37.129
3.156, 5, 35.2809, 51.7235, -14.8052, 96.6574, -64.2175, 37.0834
3.16, 5, 35.2743, 51.7462, -14.8049, 96.6452, -64.3086, 37.0379
3.163, 5, 35.2678, 51.7687, -14.8044, 96.6329, -64.3997, 36.9924
3.168, 5, 35.2612, 51.7912, -14.8039, 96.6205, -64.4908, 36.9469
3.172, 5, 35.2546, 51.8137, -14.8034, 96.608, -64.5819, 36.9016
3.176, 5, 35.2479, 51.8361, -14.8027, 96.5955, -64.6729, 36.8562
3.179, 5, 35.2413, 51.8584, -14.8019, 96.5828, -64.764, 36.811
3.184, 5, 35.2346, 51.8807, -14.8011, 96.5701, -64.855, 36.7657
3.188, 5, 35.2278, 51.9029, -14.8002, 96.5574, -64.946, 36.7206
3.192, 5, 35.2211, 51.9251, -14.7992, 96.5445, -65.037, 36.6755
3.196, 5, 35.2143, 51.9472, -14.7981, 96.5316, -65.1279, 36.6304
3.199, 5, 35.2075, 51.9692, -14.7969, 96.5186, -65.2189, 36.5854
3.204, 5, 35.2007, 51.9912, -14.7957, 96.5055, -65.3098, 36.5404
3.208, 5, 35.1938, 52.0132, -14.7943, 96.4923, -65.4007, 36.4955
3.212, 5, 35.1869, 52.0351, -14.7929, 96.4791, -65.4916, 36.4506
3.216, 5, 35.18, 52.0569, -14.7914, 96.4658, -65.5825, 36.4058
3.22, 5, 35.173, 52.0787, -14.7898, 96.4525, -65.6734, 36.361
3.224, 5, 35.1661, 52.1004, -14.7881, 96.439, -65.7642, 36.3163
3.228, 5, 35.1591, 52.1221, -14.7864, 96.4255, -65.8551, 36.2716
3.232, 5, 35.1521, 52.1437, -14.7846, 96.4119, -65.9459, 36.227
3.235, 5, 35.145, 52.1652, -14.7826, 96.3983, -66.0367, 36.1824
3.24, 5, 35.1379, 52.1867, -14.7806, 96.3846, -66.1274, 36.1378
3.244, 5, 35.1308, 52.2081, -14.7785, 96.3708, -66.2182, 36.0933
3.248, 5, 35.1237, 52.2295, -14.7764, 96.3569, -66.3089, 36.0489
3.252, 5, 35.1165, 52.2508, -14.7741, 96.3429, -66.3997, 36.0045
3.255, 5, 35.1093, 52.2721, -14.7718, 96.3289, -66.4904, 35.9601
3.26, 5, 35.1021, 52.2933, -14.7693, 96.3149, -66.5811, 35.9158
3.264, 5, 35.0949, 52.3145, -14.7668, 96.3007, -66.6717, 35.8715
3.268, 5, 35.0876, 52.3356, -14.7642, 96.2865, -66.7624, 35.8273
3.272, 5, 35.0803, 52.3566, -14.7616, 96.2722, -66.853, 35.7831
3.276, 5, 35.073, 52.3776, -14.7588, 96.2579, -66.9436, 35.739
3.28, 5, 35.0657, 52.3985, -14.756, 96.2434, -67.0342, 35.6949
3.284, 5, 35.0583, 52.4194, -14.753, 96.2289, -67.1248, 35.6509
3.288, 5, 35.0509, 52.4402, -14.75, 96.2144, -67.2154, 35.6068
3.291, 5, 35.0435, 52.4609, -14.7469, 96.1997, -67.306, 35.5629
3.296, 5, 35.036, 52.4816, -14.7438, 96.185, -67.3965, 35.519
3.3, 5, 35.0285, 52.5022, -14.7405, 96.1703, -67.487, 35.4751
3.304, 5, 35.021, 52.5228, -14.7372, 96.1554, -67.5775, 35.4312
3.308, 5, 35.0135, 52.5433, -14.7337, 96.1405, -67.668, 35.3874
3.312, 5, 35.0059, 52.5638, -14.7302, 96.1256, -67.7585, 35.3437
3.316, 5, 34.9983, 52.5842, -14.7267, 96.1105, -67.8489, 35.3
3.32, 5, 34.9907, 52.6045, -14.723, 96.0954, -67.9394, 35.2563
3.324, 5, 34.9831, 52.6248, -14.7192, 96.0803, -68.0298, 35.2126
3.328, 5, 34.9754, 52.6451, -14.7154, 96.065, -68.1202, 35.169
3.332, 5, 34.9677, 52.6652, -14.7115, 96.0497, -68.2106, 35.1255
3.336, 5, 34.96, 52.6854, -14.7075, 96.0343, -68.301, 35.0819
3.34, 5, 34.9523, 52.7054, -14.7034, 96.0189, -68.3913, 35.0385
3.344, 5, 34.9445, 52.7254, -14.6992, 96.0034, -68.4817, 34.995
3.347, 5, 34.9367, 52.7454, -14.695, 95.9878, -68.572, 34.9516
3.352, 5, 34.9289, 52.7652, -14.6906, 95.9722, -68.6623, 34.9082
3.356, 5, 34.921, 52.7851, -14.6862, 95.9565, -68.7526, 34.8649
3.36, 5, 34.9131, 52.8048, -14.6817, 95.9407, -68.8429, 34.8216
3.364, 5, 34.9052, 52.8246, -14.6772, 95.9249, -68.9332, 34.7784
3.368, 5, 34.8973, 52.8442, -14.6725, 95.909, -69.0234, 34.7351
3.372, 5, 34.8894, 52.8638, -14.6678, 95.8931, -69.1137, 34.6919
3.376, 5, 34.8814, 52.8833, -14.6629, 95.877, -69.2039, 34.6488
3.38, 5, 34.8734, 52.9028, -14.658, 95.8609, -69.2941, 34.6057
3.383, 5, 34.8653, 52.9222, -14.653, 95.8448, -69.3843, 34.5626
3.388, 5, 34.8573, 52.9416, -14.648, 95.8286, -69.4744, 34.5196
3.392, 5, 34.8492, 52.9609, -14.6428, 95.8123, -69.5646, 34.4765
3.396, 5, 34.8411, 52.9801, -14.6376, 95.796, -69.6547, 34.4336
3.4, 5, 34.8329, 52.9993, -14.6323, 95.7796, -69.7449, 34.3906
3.403, 5, 34.8248, 53.0185, -14.6269, 95.7631, -69.835, 34.3477
3.408, 5, 34.8166, 53.0375, -14.6214, 95.7466, -69.9251, 34.3049
3.412, 5, 34.8084, 53.0565, -14.6158, 95.73, -70.0152, 34.262
3.416, 5, 34.8001, 53.0755, -14.6102, 95.7133, -70.1052, 34.2192
3.42, 5, 34.7919, 53.0944, -14.6045, 95.6966, -70.1953, 34.1764
3.424, 5, 34.7836, 53.1132, -14.5987, 95.6798, -70.2853, 34.1337
3.428, 5, 34.7753, 53.132, -14.5928, 95.663, -70.3753, 34.091
3.432, 5, 34.7669, 53.1507, -14.5868, 95.6461, -70.4653, 34.0483
3.436, 5, 34.7585, 53.1694, -14.5807, 95.6291, -70.5553, 34.0057
3.439, 5, 34.7501, 53.188, -14.5746, 95.6121, -70.6453, 33.9631
3.444, 5, 34.7417, 53.2065, -14.5684, 95.595, -70.7352, 33.9205
3.448, 5, 34.7333, 53.225, -14.5621, 95.5779, -70.8252, 33.8779
3.452, 5, 34.7248, 53.2434, -14.5557, 95.5607, -70.9151, 33.8354
3.456, 5, 34.7163, 53.2618, -14.5492, 95.5434, -71.005, 33.7929
3.46, 5, 34.7078, 53.2801, -14.5427, 95.5261, -71.0949, 33.7504
3.464, 5, 34.6992, 53.2983, -14.5361, 95.5087, -71.1848, 33.708
3.468, 5, 34.6907, 53.3165, -14.5294, 95.4913, -71.2747, 33.6656
3.472, 5, 34.682, 53.3346, -14.5226, 95.4738, -71.3645, 33.6232
3.476, 5, 34.6734, 53.3527, -14.5157, 95.4562, -71.4543, 33.5809
3.48, 5, 34.6648, 53.3707, -14.5088, 95.4386, -71.5442, 33.5386
3.484, 5, 34.6561, 53.3886, -14.5017, 95.4209, -71.634, 33.4963
3.488, 5, 34.6474, 53.4065, -14.4946, 95.4031, -71.7237, 33.454
3.492, 5, 34.6387, 53.4243, -14.4874, 95.3853, -71.8135, 33.4118
3.495, 5, 34.6299, 53.4421, -14.4801, 95.3675, -71.9033, 33.3696
3.5, 5, 34.6211, 53.4598, -14.4728, 95.3496, -71.993, 33.3274
3.504, 5, 34.6123, 53.4775, -14.4653, 95.3316, -72.0828, 33.2853
3.508, 5, 34.6035, 53.495, -14.4578, 95.3135, -72.1725, 33.2432
3.512, 5, 34.5946, 53.5126, -14.4502, 95.2954, -72.2622, 33.2011
3.516, 5, 34.5858, 53.53, -14.4425, 95.2773, -72.3519, 33.159
3.52, 5, 34.577, 53.5473, -14.4347, 95.2591, -72.4415, 33.117
3.524, 5, 34.5684, 53.5644, -14.4269, 95.2408, -72.5311, 33.075
3.528, 5, 34.5601, 53.5812, -14.4189, 95.2225, -72.6207, 33.033
3.531, 5, 34.5522, 53.5975, -14.4109, 95.2042, -72.71, 32.9912
3.536, 5, 34.5448, 53.6131, -14.4028, 95.1859, -72.7989, 32.9496
3.54, 5, 34.5379, 53.6278, -14.3947, 95.1677, -72.8872, 32.9083
3.544, 5, 34.5314, 53.6416, -14.3866, 95.1496, -72.9745, 32.8674
3.548, 5, 34.5253, 53.6543, -14.3785, 95.1318, -73.0603, 32.8273
3.552, 5, 34.5196, 53.6662, -14.3705, 95.1144, -73.144, 32.7882
3.556, 5, 34.5142, 53.6773, -14.3627, 95.0975, -73.2251, 32.7503
3.56, 5, 34.5091, 53.6877, -14.3551, 95.0812, -73.3028, 32.714
3.564, 5, 34.5041, 53.6976, -14.3479, 95.0658, -73.3763, 32.6796
3.568, 5, 34.4993, 53.7071, -14.3412, 95.0514, -73.4451, 32.6475
3.572, 5, 34.4945, 53.7163, -14.335, 95.038, -73.5085, 32.6179
3.576, 5, 34.4898, 53.7253, -14.3293, 95.0259, -73.5661, 32.591
3.58, 5, 34.4852, 53.734, -14.3243, 95.0151, -73.6174, 32.5671
3.584, 5, 34.4805, 53.7425, -14.3199, 95.0056, -73.6625, 32.5461
3.587, 5, 34.4759, 53.7509, -14.3161, 94.9974, -73.7012, 32.528
3.592, 5, 34.4714, 53.759, -14.313, 94.9905, -73.7338, 32.5128
3.596, 5, 34.467, 53.7669, -14.3105, 94.9848, -73.7607, 32.5003
3.6, 5, 34.4627, 53.7746, -14.3085, 94.9802, -73.7823, 32.4902
3.606, 5, 34.4545, 53.7884, -14.3059, 94.9739, -73.8122, 32.4763
3.608, 5, 34.4545, 53.7884, -14.3059, 94.9739, -73.8122, 32.4763
3.612, 5, 34.4507, 53.7944, -14.3051, 94.9719, -73.8218, 32.4718
3.616, 5, 34.4474, 53.7994, -14.3046, 94.9704, -73.8288, 32.4686
3.62, 5, 34.4444, 53.8034, -14.3042, 94.9693, -73.8338, 32.4663
3.624, 5, 34.4421, 53.8065, -14.304, 94.9686, -73.8372, 32.4647
3.628, 5, 34.4402, 53.8088, -14.3038, 94.9681, -73.8396, 32.4636
3.632, 5, 34.4389, 53.8104, -14.3037, 94.9678, -73.8412, 32.4628
3.636, 5, 34.4379, 53.8115, -14.3037, 94.9676, -73.8423, 32.4623
3.64, 5, 34.4371, 53.8123, -14.3036, 94.9674, -73.843, 32.462
3.644, 5, 34.4361, 53.8129, -14.3035, 94.9672, -73.8435, 32.4618
3.648, 5, 34.4348, 53.8135, -14.3032, 94.9671, -73.844, 32.4617
3.652, 5, 34.4329, 53.8141, -14.3028, 94.9667, -73.8445, 32.4617
3.656, 5, 34.4305, 53.8147, -14.3019, 94.9661, -73.8452, 32.4619
3.66, 5, 34.4275, 53.8154, -14.3004, 94.965, -73.8463, 32.4624
3.664, 5, 34.424, 53.8161, -14.298, 94.9631, -73.8481, 32.4632
3.668, 5, 34.42, 53.8168, -14.2944, 94.9602, -73.8508, 32.4646
3.672, 6, 34.4156, 53.8172, -14.2891, 94.9557, -73.8548, 32.4667
3.676, 6, 34.411, 53.8172, -14.2818, 94.9495, -73.8604, 32.4697
3.679, 6, 34.4061, 53.8169, -14.2721, 94.941, -73.8679, 32.4737
3.684, 6, 34.4008, 53.816, -14.2596, 94.93, -73.8777, 32.4789
3.688, 6, 34.3952, 53.8144, -14.244, 94.9161, -73.89, 32.4856
3.692, 6, 34.3892, 53.8122, -14.225, 94.8991, -73.9051, 32.4937
3.696, 6, 34.3829, 53.8091, -14.2023, 94.8787, -73.9232, 32.5034
3.7, 6, 34.3763, 53.8052, -14.1759, 94.8548, -73.9443, 32.5148
3.704, 6, 34.3694, 53.8004, -14.1457, 94.8274, -73.9686, 32.5279
3.708, 6, 34.3624, 53.7947, -14.1118, 94.7965, -73.9959, 32.5426
3.712, 6, 34.3551, 53.7882, -14.0744, 94.7624, -74.0261, 32.5588
3.716, 6, 34.3474, 53.781, -14.0336, 94.7252, -74.0591, 32.5765
3.72, 6, 34.3393, 53.7733, -13.9898, 94.6853, -74.0945, 32.5955
3.724, 6, 34.3307, 53.7651, -13.9434, 94.6431, -74.1321, 32.6156
3.728, 6, 34.3216, 53.7566, -13.8947, 94.5988, -74.1716, 32.6366
3.732, 6, 34.3119, 53.7478, -13.8441, 94.5528, -74.2126, 32.6584
3.735, 6, 34.3017, 53.7389, -13.7919, 94.5054, -74.255, 32.6808
3.74, 6, 34.2911, 53.7299, -13.7384, 94.457, -74.2984, 32.7037
3.744, 6, 34.28, 53.7209, -13.6839, 94.4078, -74.3426, 32.7269
3.748, 6, 34.2685, 53.7118, -13.6287, 94.358, -74.3875, 32.7504
3.752, 6, 34.2565, 53.7027, -13.5729, 94.3077, -74.4328, 32.774
3.756, 6, 34.2441, 53.6937, -13.5166, 94.2572, -74.4785, 32.7978
3.76, 6, 34.2313, 53.6846, -13.4601, 94.2064, -74.5245, 32.8216
3.764, 6, 34.2182, 53.6756, -13.4034, 94.1556, -74.5707, 32.8455
3.768, 6, 34.2049, 53.6666, -13.3465, 94.1047, -74.617, 32.8693
3.772, 6, 34.1913, 53.6576, -13.2896, 94.0537, -74.6635, 32.8931
3.776, 6, 34.1777, 53.6486, -13.2326, 94.0028, -74.7101, 32.9168
3.78, 6, 34.1639, 53.6395, -13.1755, 93.9519, -74.7567, 32.9405
3.784, 6, 34.1501, 53.6305, -13.1185, 93.9011, -74.8034, 32.9642
3.788, 6, 34.1363, 53.6214, -13.0614, 93.8503, -74.8502, 32.9878
3.792, 6, 34.1224, 53.6123, -13.0043, 93.7995, -74.8971, 33.0113
3.796, 6, 34.1084, 53.6032, -12.9473, 93.7488, -74.944, 33.0348
3.8, 6, 34.0945, 53.594, -12.8902, 93.6982, -74.9909, 33.0582
3.804, 6, 34.0805, 53.5848, -12.8331, 93.6476, -75.038, 33.0815
3.808, 6, 34.0665, 53.5756, -12.7761, 93.597, -75.085, 33.1048
3.812, 6, 34.0525, 53.5664, -12.719, 93.5465, -75.1321, 33.128
3.816, 6, 34.0384, 53.5572, -12.662, 93.4961, -75.1793, 33.1512
3.82, 6, 34.0244, 53.5479, -12.605, 93.4458, -75.2265, 33.1742
3.824, 6, 34.0103, 53.5386, -12.548, 93.3955, -75.2738, 33.1973
3.828, 6, 33.9962, 53.5293, -12.491, 93.3452, -75.3211, 33.2202
3.832, 6, 33.9821, 53.52, -12.434, 93.295, -75.3685, 33.2431
3.836, 6, 33.968, 53.5106, -12.377, 93.2449, -75.4159, 33.2659
3.84, 6, 33.9538, 53.5012, -12.32, 93.1949, -75.4634, 33.2886
3.844, 6, 33.9396, 53.4918, -12.2631, 93.1449, -75.5109, 33.3113
3.848, 6, 33.9255, 53.4823, -12.2061, 93.0949, -75.5585, 33.3339
3.852, 6, 33.9113, 53.4729, -12.1492, 93.045, -75.6061, 33.3565
3.856, 6, 33.8971, 53.4634, -12.0922, 92.9952, -75.6538, 33.3789
3.86, 6, 33.8828, 53.4538, -12.0353, 92.9454, -75.7015, 33.4014
3.864, 6, 33.8686, 53.4443, -11.9784, 92.8957, -75.7493, 33.4237
3.868, 6, 33.8543, 53.4347, -11.9215, 92.8461, -75.7971, 33.446
3.872, 6, 33.8401, 53.4251, -11.8646, 92.7965, -75.845, 33.4682
3.876, 6, 33.8258, 53.4155, -11.8078, 92.747, -75.8929, 33.4903
3.88, 6, 33.8115, 53.4059, -11.7509, 92.6975, -75.9408, 33.5124
3.884, 6, 33.7971, 53.3962, -11.6941, 92.6481, -75.9889, 33.5344
3.888, 6, 33.7828, 53.3865, -11.6372, 92.5988, -76.0369, 33.5563
3.892, 6, 33.7685, 53.3768, -11.5804, 92.5495, -76.085, 33.5782
3.896, 6, 33.7541, 53.367, -11.5236, 92.5002, -76.1332, 33.6
3.9, 6, 33.7397, 53.3573, -11.4668, 92.451, -76.1814, 33.6218
3.904, 6, 33.7253, 53.3475, -11.41, 92.4019, -76.2296, 33.6434
3.908, 6, 33.7109, 53.3376, -11.3532, 92.3529, -76.2779, 33.665
3.912, 6, 33.6964, 53.3278, -11.2965, 92.3039, -76.3263, 33.6866
3.916, 6, 33.682, 53.3179, -11.2397, 92.2549, -76.3747, 33.708
3.92, 6, 33.6675, 53.308, -11.183, 92.206, -76.4231, 33.7294
3.924, 6, 33.653, 53.2981, -11.1262, 92.1572, -76.4716, 33.7508
3.928, 6, 33.6385, 53.2881, -11.0695, 92.1084, -76.5202, 33.772
3.932, 6, 33.624, 53.2782, -11.0128, 92.0597, -76.5688, 33.7932
3.936, 6, 33.6095, 53.2682, -10.9561, 92.0111, -76.6174, 33.8144
3.94, 6, 33.5949, 53.2581, -10.8994, 91.9625, -76.6661, 33.8354
3.944, 6, 33.5804, 53.2481, -10.8428, 91.9139, -76.7148, 33.8564
3.948, 6, 33.5658, 53.238, -10.7861, 91.8654, -76.7636, 33.8774
3.952, 6, 33.5512, 53.2279, -10.7295, 91.817, -76.8124, 33.8982
3.956, 6, 33.5366, 53.2178, -10.6728, 91.7686, -76.8613, 33.919
3.96, 6, 33.5219, 53.2076, -10.6162, 91.7203, -76.9102, 33.9397
3.964, 6, 33.5073, 53.1974, -10.5596, 91.6721, -76.9591, 33.9604
3.968, 6, 33.4926, 53.1872, -10.503, 91.6238, -77.0081, 33.981
3.972, 6, 33.478, 53.177, -10.4464, 91.5757, -77.0572, 34.0015
3.976, 6, 33.4633, 53.1668, -10.3899, 91.5276, -77.1063, 34.022
3.98, 6, 33.4486, 53.1565, -10.3333, 91.4796, -77.1554, 34.0424
3.984, 6, 33.4338, 53.1462, -10.2768, 91.4316, -77.2046, 34.0627
3.988, 6, 33.4191, 53.1358, -10.2202, 91.3837, -77.2538, 34.083
3.992, 6, 33.4044, 53.1255, -10.1637, 91.3358, -77.3031, 34.1031
3.996, 6, 33.3896, 53.1151, -10.1072, 91.288, -77.3524, 34.1233
3.999, 6, 33.3748, 53.1047, -10.0507, 91.2402, -77.4018, 34.1433
4.004, 6, 33.36, 53.0942, -9.99425, 91.1925, -77.4512, 34.1633
4.008, 6, 33.3452, 53.0838, -9.93779, 91.1449, -77.5007, 34.1832
4.012, 6, 33.3303, 53.0733, -9.88134, 91.0973, -77.5502, 34.2031
4.016, 6, 33.3155, 53.0628, -9.8249, 91.0498, -77.5997, 34.2229
4.02, 6, 33.3006, 53.0522, -9.76848, 91.0023, -77.6493, 34.2426
4.024, 6, 33.2858, 53.0417, -9.71207, 90.9548, -77.6989, 34.2622
4.028, 6, 33.2709, 53.0311, -9.65567, 90.9075, -77.7486, 34.2818
4.032, 6, 33.256, 53.0205, -9.59929, 90.8602, -77.7983, 34.3013
4.036, 6, 33.241, 53.0098, -9.54291, 90.8129, -77.8481, 34.3208
4.04, 6, 33.2261, 52.9992, -9.48656, 90.7657, -77.8979, 34.3402
4.044, 6, 33.2112, 52.9885, -9.43021, 90.7185, -77.9477, 34.3595
4.048, 6, 33.1962, 52.9778, -9.37389, 90.6714, -77.9976, 34.3787
4.052, 6, 33.1814, 52.967, -9.31758, 90.6244, -78.0476, 34.3979
4.056, 6, 33.1668, 52.9562, -9.26134, 90.5774, -78.0975, 34.417
4.06, 6, 33.1527, 52.9453, -9.20521, 90.5305, -78.1474, 34.436
4.064, 6, 33.1392, 52.9343, -9.1493, 90.4838, -78.1973, 34.4549
4.068, 6, 33.1264, 52.9232, -9.09376, 90.4374, -78.2469, 34.4737
4.072, 6, 33.1144, 52.9121, -9.03881, 90.3915, -78.2961, 34.4922
4.076, 6, 33.103, 52.901, -8.98472, 90.3462, -78.3446, 34.5104
4.08, 6, 33.0922, 52.89, -8.93184, 90.3019, -78.3921, 34.5281
4.084, 6, 33.0818, 52.8793, -8.88052, 90.259, -78.4383, 34.5453
4.088, 6, 33.0717, 52.8689, -8.83119, 90.2177, -78.4828, 34.5619
4.092, 6, 33.062, 52.859, -8.78425, 90.1784, -78.5251, 34.5775
4.096, 6, 33.0528, 52.8497, -8.74009, 90.1415, -78.5649, 34.5923
4.1, 6, 33.0439, 52.8411, -8.69908, 90.1072, -78.6019, 34.6059
4.104, 6, 33.0355, 52.8334, -8.66153, 90.0759, -78.6358, 34.6183
4.108, 6, 33.0274, 52.8265, -8.62766, 90.0478, -78.6663, 34.6295
4.112, 6, 33.0196, 52.8206, -8.59761, 90.0229, -78.6933, 34.6394
4.116, 6, 33.0121, 52.8156, -8.5714, 90.0013, -78.7168, 34.6479
4.12, 6, 33.0048, 52.8116, -8.54898, 89.9829, -78.7368, 34.6552
4.124, 6, 32.998, 52.8085, -8.53015, 89.9676, -78.7535, 34.6612
4.128, 6, 32.9915, 52.8062, -8.51467, 89.9552, -78.7672, 34.6661
4.134, 6, 32.9799, 52.8033, -8.49236, 89.9375, -78.7866, 34.6731
4.136, 6, 32.9799, 52.8033, -8.49236, 89.9375, -78.7866, 34.6731
4.14, 6, 32.9748, 52.8026, -8.48479, 89.9316, -78.7931, 34.6754
4.144, 6, 32.9702, 52.8022, -8.47907, 89.9272, -78.798, 34.6771
4.148, 6, 32.9662, 52.8019, -8.47487, 89.924, -78.8015, 34.6784
4.152, 6, 32.9628, 52.8019, -8.47183, 89.9218, -78.804, 34.6793
4.156, 6, 32.96, 52.8018, -8.46969, 89.9202, -78.8058, 34.6799
4.16, 6, 32.9578, 52.8019, -8.46819, 89.9191, -78.807, 34.6803
4.164, 6, 32.9562, 52.8019, -8.46717, 89.9184, -78.8078, 34.6806
4.168, 6, 32.9548, 52.8019, -8.46644, 89.9179, -78.8084, 34.6808
4.172, 6, 32.9535, 52.8018, -8.46589, 89.9175, -78.8088, 34.6809
4.176, 6, 32.952, 52.8015, -8.46535, 89.9172, -78.8091, 34.6811
4.18, 6, 32.95, 52.801, -8.46469, 89.9169, -78.8094, 34.6812
4.184, 6, 32.9476, 52.8003, -8.46368, 89.9165, -78.8098, 34.6814
4.188, 6, 32.9445, 52.7991, -8.46209, 89.9157, -78.8104, 34.6818
4.192, 6, 32.9409, 52.7975, -8.45961, 89.9146, -78.8113, 34.6824
4.196, 6, 32.9368, 52.7952, -8.45589, 89.9128, -78.8126, 34.6833
4.2, 6, 32.9323, 52.7922, -8.45051, 89.9101, -78.8144, 34.6847
4.204, 7, 32.9274, 52.7883, -8.44306, 89.9063, -78.817, 34.6866
4.208, 7, 32.922, 52.7833, -8.4331, 89.9012, -78.8205, 34.6892
4.212, 7, 32.916, 52.7773, -8.42018, 89.8944, -78.825, 34.6927
4.216, 7, 32.9095, 52.77, -8.4039, 89.8858, -78.8307, 34.6971
4.22, 7, 32.9024, 52.7614, -8.38391, 89.8752, -78.8377, 34.7026
4.224, 7, 32.8947, 52.7515, -8.3599, 89.8624, -78.8462, 34.7091
4.228, 7, 32.8867, 52.7403, -8.33167, 89.8472, -78.8561, 34.7169
4.232, 7, 32.8781, 52.7279, -8.29913, 89.8296, -78.8676, 34.7259
4.236, 7, 32.8691, 52.7142, -8.26228, 89.8096, -78.8806, 34.7361
4.24, 7, 32.8597, 52.6992, -8.22125, 89.7873, -78.8952, 34.7475
4.244, 7, 32.8497, 52.6829, -8.17624, 89.7628, -78.9111, 34.76
4.248, 7, 32.8391, 52.6653, -8.12757, 89.7363, -78.9284, 34.7736
4.252, 7, 32.8278, 52.6465, -8.07559, 89.708, -78.9469, 34.788
4.256, 7, 32.8159, 52.6265, -8.02071, 89.6781, -78.9664, 34.8032
4.26, 7, 32.8034, 52.6055, -7.96332, 89.6468, -78.9869, 34.8191
4.264, 7, 32.7904, 52.5836, -7.90384, 89.6144, -79.0081, 34.8355
4.268, 7, 32.7769, 52.561, -7.84265, 89.5811, -79.03, 34.8523
4.272, 7, 32.7628, 52.5377, -7.78011, 89.5471, -79.0524, 34.8695
4.276, 7, 32.7482, 52.5139, -7.71653, 89.5125, -79.0752, 34.8869
4.28, 7, 32.733, 52.4896, -7.65218, 89.4776, -79.0983, 34.9045
4.284, 7, 32.7173, 52.4651, -7.58727, 89.4423, -79.1216, 34.9222
4.288, 7, 32.701, 52.4402, -7.52198, 89.4069, -79.1452, 34.94
4.292, 7, 32.6843, 52.4152, -7.45644, 89.3713, -79.1688, 34.9578
4.296, 7, 32.6672, 52.3901, -7.39075, 89.3357, -79.1926, 34.9756
4.3, 7, 32.65, 52.3649, -7.32497, 89.3, -79.2164, 34.9933
4.304, 7, 32.6325, 52.3397, -7.25915, 89.2643, -79.2403, 35.0111
4.308, 7, 32.615, 52.3144, -7.19332, 89.2285, -79.2642, 35.0288
4.312, 7, 32.5974, 52.2891, -7.1275, 89.1928, -79.2882, 35.0464
4.316, 7, 32.5797, 52.2638, -7.0617, 89.157, -79.3122, 35.0641
4.32, 7, 32.562, 52.2385, -6.99593, 89.1213, -79.3363, 35.0817
4.324, 7, 32.5443, 52.2132, -6.9302, 89.0856, -79.3604, 35.0992
4.328, 7, 32.5265, 52.1879, -6.86452, 89.0499, -79.3845, 35.1167
4.332, 7, 32.5087, 52.1626, -6.79888, 89.0142, -79.4086, 35.1341
4.336, 7, 32.4909, 52.1373, -6.73329, 88.9785, -79.4328, 35.1515
4.34, 7, 32.473, 52.112, -6.66775, 88.9429, -79.457, 35.1689
4.344, 7, 32.4552, 52.0867, -6.60226, 88.9073, -79.4812, 35.1862
4.348, 7, 32.4373, 52.0614, -6.53682, 88.8716, -79.5055, 35.2035
4.352, 7, 32.4194, 52.0362, -6.47143, 88.836, -79.5298, 35.2207
4.356, 7, 32.4015, 52.0109, -6.4061, 88.8004, -79.5541, 35.2378
4.36, 7, 32.3836, 51.9857, -6.34081, 88.7649, -79.5784, 35.2549
4.364, 7, 32.3656, 51.9604, -6.27558, 88.7293, -79.6028, 35.272
4.368, 7, 32.3477, 51.9352, -6.2104, 88.6938, -79.6272, 35.289
4.372, 7, 32.3297, 51.91, -6.14527, 88.6582, -79.6516, 35.306
4.376, 7, 32.3117, 51.8847, -6.08019, 88.6227, -79.6761, 35.3229
4.38, 7, 32.2937, 51.8595, -6.01516, 88.5873, -79.7005, 35.3398
4.384, 7, 32.2757, 51.8343, -5.95019, 88.5518, -79.7251, 35.3566
4.388, 7, 32.2577, 51.8092, -5.88526, 88.5163, -79.7496, 35.3734
4.392, 7, 32.2397, 51.784, -5.82039, 88.4809, -79.7741, 35.3901
4.396, 7, 32.2216, 51.7588, -5.75557, 88.4455, -79.7987, 35.4068
4.4, 7, 32.2035, 51.7336, -5.69079, 88.4101, -79.8233, 35.4234
4.404, 7, 32.1854, 51.7085, -5.62607, 88.3747, -79.848, 35.44
4.408, 7, 32.1673, 51.6833, -5.5614, 88.3393, -79.8726, 35.4565
4.412, 7, 32.1492, 51.6582, -5.49678, 88.304, -79.8973, 35.473
4.416, 7, 32.1311, 51.633, -5.43221, 88.2686, -79.9221, 35.4894
4.42, 7, 32.1129, 51.6079, -5.36769, 88.2333, -79.9468, 35.5058
4.424, 7, 32.0948, 51.5828, -5.30323, 88.198, -79.9716, 35.5221
4.428, 7, 32.0766, 51.5577, -5.23881, 88.1627, -79.9964, 35.5384
4.432, 7, 32.0584, 51.5326, -5.17444, 88.1275, -80.0212, 35.5547
4.436, 7, 32.0402, 51.5075, -5.11012, 88.0922, -80.046, 35.5709
4.44, 7, 32.022, 51.4824, -5.04585, 88.057, -80.0709, 35.587
4.444, 7, 32.0037, 51.4573, -4.98163, 88.0217, -80.0958, 35.6031
4.448, 7, 31.9855, 51.4322, -4.91746, 87.9865, -80.1207, 35.6192
4.452, 7, 31.9672, 51.4071, -4.85334, 87.9513, -80.1457, 35.6352
4.456, 7, 31.9489, 51.3821, -4.78927, 87.9162, -80.1707, 35.6511
4.46, 7, 31.9306, 51.357, -4.72525, 87.881, -80.1957, 35.667
4.464, 7, 31.9123, 51.3319, -4.66128, 87.8459, -80.2207, 35.6829
4.468, 7, 31.894, 51.3069, -4.59735, 87.8107, -80.2457, 35.6987
4.472, 7, 31.8756, 51.2819, -4.53348, 87.7756, -80.2708, 35.7145
4.476, 7, 31.8573, 51.2568, -4.46966, 87.7405, -80.2959, 35.7302
4.48, 7, 31.8389, 51.2318, -4.40588, 87.7054, -80.321, 35.7458
4.484, 7, 31.8205, 51.2068, -4.34215, 87.6704, -80.3462, 35.7615
4.488, 7, 31.8021, 51.1818, -4.27847, 87.6353, -80.3714, 35.777
4.492, 7, 31.7837, 51.1567, -4.21485, 87.6003, -80.3966, 35.7926
4.496, 7, 31.7652, 51.1317, -4.15126, 87.5653, -80.4218, 35.808
4.5, 7, 31.7468, 51.1067, -4.08773, 87.5303, -80.4471, 35.8235
4.504, 7, 31.7283, 51.0817, -4.02425, 87.4953, -80.4723, 35.8388
4.508, 7, 31.7099, 51.0568, -3.96081, 87.4603, -80.4976, 35.8542
4.512, 7, 31.6914, 51.0318, -3.89743, 87.4253, -80.5229, 35.8695
4.516, 7, 31.6728, 51.0068, -3.83409, 87.3904, -80.5483, 35.8847
4.52, 7, 31.6543, 50.9818, -3.7708, 87.3554, -80.5737, 35.8999
4.524, 7, 31.6358, 50.9569, -3.70755, 87.3205, -80.5991, 35.915
4.528, 7, 31.6172, 50.9319, -3.64436, 87.2856, -80.6245, 35.9301
4.532, 7, 31.5986, 50.9069, -3.58121, 87.2507, -80.6499, 35.9452
4.536, 7, 31.5801, 50.882, -3.51811, 87.2159, -80.6754, 35.9602
4.54, 7, 31.5615, 50.857, -3.45506, 87.181, -80.7009, 35.9751
4.544, 7, 31.5428, 50.8321, -3.39206, 87.1462, -80.7264, 35.99
4.548, 7, 31.5242, 50.8072, -3.3291, 87.1113, -80.752, 36.0049
4.552, 7, 31.5056, 50.7822, -3.26619, 87.0765, -80.7775, 36.0197
4.556, 7, 31.4869, 50.7573, -3.20333, 87.0417, -80.8031, 36.0345
4.56, 7, 31.4682, 50.7324, -3.14052, 87.0069, -80.8287, 36.0492
4.564, 7, 31.4495, 50.7075, -3.07775, 86.9722, -80.8544, 36.0638
4.568, 7, 31.4308, 50.6826, -3.01503, 86.9374, -80.88, 36.0785
4.572, 7, 31.4121, 50.6577, -2.95236, 86.9027, -80.9057, 36.093
4.576, 7, 31.3934, 50.6328, -2.88973, 86.8679, -80.9314, 36.1076
4.58, 7, 31.3746, 50.6079, -2.82715, 86.8332, -80.9572, 36.122
4.584, 7, 31.3558, 50.583, -2.76462, 86.7985, -80.9829, 36.1365
4.588, 7, 31.337, 50.5581, -2.70214, 86.7638, -81.0087, 36.1508
4.592, 7, 31.3182, 50.5332, -2.6397, 86.7292, -81.0345, 36.1652
4.596, 7, 31.2994, 50.5083, -2.57731, 86.6945, -81.0603, 36.1795
4.6, 7, 31.2806, 50.4834, -2.51496, 86.6599, -81.0862, 36.1937
4.604, 7, 31.2618, 50.4585, -2.45266, 86.6252, -81.1121, 36.2079
4.608, 7, 31.2429, 50.4337, -2.39041, 86.5906, -81.1379, 36.222
4.612, 7, 31.224, 50.4088, -2.3282, 86.556, -81.1639, 36.2361
4.616, 7, 31.2051, 50.3839, -2.26604, 86.5214, -81.1898, 36.2502
4.62, 7, 31.1862, 50.3591, -2.20393, 86.4868, -81.2158, 36.2642
4.624, 7, 31.1673, 50.3342, -2.14186, 86.4523, -81.2417, 36.2781
4.628, 7, 31.1484, 50.3094, -2.07984, 86.4177, -81.2678, 36.2921
4.632, 7, 31.1294, 50.2845, -2.01787, 86.3832, -81.2938, 36.3059
4.636, 7, 31.1104, 50.2597, -1.95594, 86.3487, -81.3198, 36.3197
4.64, 7, 31.0914, 50.2348, -1.89405, 86.3142, -81.3459, 36.3335
4.644, 7, 31.0724, 50.21, -1.83222, 86.2797, -81.372, 36.3472
4.648, 7, 31.0534, 50.1852, -1.77042, 86.2452, -81.3981, 36.3609
4.652, 7, 31.0344, 50.1603, -1.70868, 86.2107, -81.4243, 36.3745
4.656, 7, 31.0154, 50.1355, -1.64698, 86.1763, -81.4504, 36.3881
4.66, 7, 30.9963, 50.1107, -1.58532, 86.1418, -81.4766, 36.4016
4.664, 7, 30.9772, 50.0858, -1.52371, 86.1074, -81.5028, 36.4151
4.668, 7, 30.9581, 50.061, -1.46215, 86.073, -81.5291, 36.4285
4.672, 7, 30.939, 50.0362, -1.40063, 86.0386, -81.5553, 36.4419
4.676, 7, 30.9199, 50.0114, -1.33915, 86.0042, -81.5816, 36.4553
4.68, 7, 30.9008, 49.9866, -1.27772, 85.9698, -81.6079, 36.4686
4.684, 7, 30.8816, 49.9618, -1.21634, 85.9354, -81.6342, 36.4818
4.688, 7, 30.8624, 49.937, -1.155, 85.9011, -81.6605, 36.495
4.692, 7, 30.8433, 49.9121, -1.09371, 85.8667, -81.6869, 36.5081
4.696, 7, 30.8241, 49.8873, -1.03246, 85.8324, -81.7133, 36.5212
4.7, 7, 30.8048, 49.8625, -0.971252, 85.7981, -81.7397, 36.5343
4.704, 7, 30.7856, 49.8377, -0.910093, 85.7638, -81.7661, 36.5473
4.708, 7, 30.7664, 49.8129, -0.848978, 85.7295, -81.7926, 36.5603
4.712, 7, 30.7471, 49.7881, -0.787908, 85.6952, -81.819, 36.5732
4.716, 7, 30.7278, 49.7634, -0.726882, 85.6609, -81.8455, 36.5861
4.72, 7, 30.7085, 49.7386, -0.665901, 85.6267, -81.872, 36.5989
4.724, 7, 30.6892, 49.7138, -0.604965, 85.5925, -81.8986, 36.6117
4.728, 7, 30.6699, 49.689, -0.544073, 85.5582, -81.9251, 36.6244
4.732, 7, 30.6506, 49.6642, -0.483226, 85.524, -81.9517, 36.6371
4.736, 7, 30.6312, 49.6394, -0.422422, 85.4898, -81.9783, 36.6497
4.74, 7, 30.6118, 49.6146, -0.361664, 85.4556, -82.0049, 36.6623
4.744, 7, 30.5924, 49.5898, -0.300949, 85.4214, -82.0316, 36.6748
4.748, 7, 30.573, 49.5651, -0.240278, 85.3873, -82.0582, 36.6873
4.752, 7, 30.5536, 49.5403, -0.179652, 85.3531, -82.0849, 36.6997
4.756, 7, 30.5342, 49.5155, -0.119069, 85.319, -82.1116, 36.7121
4.76, 7, 30.5147, 49.4907, -0.0585308, 85.2848, -82.1383, 36.7245
4.764, 7, 30.4953, 49.466, 0.00196398, 85.2507, -82.1651, 36.7368
4.768, 7, 30.4758, 49.4412, 0.062415, 85.2166, -82.1918, 36.749
4.772, 7, 30.4563, 49.4164, 0.122822, 85.1825, -82.2186, 36.7612
4.776, 7, 30.4368, 49.3916, 0.183186, 85.1484, -82.2454, 36.7734
4.78, 7, 30.4173, 49.3669, 0.243507, 85.1143, -82.2722, 36.7855
4.784, 7, 30.3977, 49.3421, 0.303784, 85.0803, -82.2991, 36.7976
4.788, 7, 30.3782, 49.3173, 0.364017, 85.0462, -82.3259, 36.8096
4.792, 7, 30.3586, 49.2926, 0.424206, 85.0122, -82.3528, 36.8215
4.796, 7, 30.3391, 49.2678, 0.484344, 84.9782, -82.3797, 36.8335
4.8, 7, 30.3198, 49.2431, 0.544416, 84.9441, -82.4066, 36.8453
4.804, 7, 30.3008, 49.2185, 0.604393, 84.9102, -82.4335, 36.8572
4.808, 7, 30.2821, 49.194, 0.664225, 84.8762, -82.4604, 36.8689
4.812, 7, 30.2639, 49.1697, 0.723831, 84.8424, -82.4873, 36.8806
4.816, 7, 30.2461, 49.1456, 0.783095, 84.8087, -82.514, 36.8922
4.82, 7, 30.2289, 49.1218, 0.841859, 84.7753, -82.5405, 36.9037
4.824, 7, 30.2122, 49.0985, 0.899918, 84.7422, -82.5668, 36.915
4.828, 7, 30.196, 49.0756, 0.957023, 84.7096, -82.5927, 36.9261
4.832, 7, 30.1803, 49.0533, 1.01288, 84.6776, -82.6181, 36.9369
4.836, 7, 30.1651, 49.0317, 1.06716, 84.6466, -82.6427, 36.9475
4.84, 7, 30.1506, 49.011, 1.1195, 84.6166, -82.6666, 36.9576
4.844, 7, 30.1368, 48.9913, 1.16952, 84.5879, -82.6894, 36.9672
4.848, 7, 30.1237, 48.9726, 1.21684, 84.5608, -82.711, 36.9764
4.852, 7, 30.1113, 48.955, 1.26112, 84.5354, -82.7312, 36.9849
4.856, 7, 30.0995, 48.9387, 1.30204, 84.512, -82.7499, 36.9927
4.86, 7, 30.0883, 48.9237, 1.33936, 84.4906, -82.7669, 36.9998
4.864, 7, 30.0777, 48.9099, 1.3729, 84.4715, -82.7822, 37.0062
4.868, 7, 30.0677, 48.8976, 1.40259, 84.4546, -82.7958, 37.0118
4.872, 7, 30.0584, 48.8865, 1.42845, 84.44, -82.8075, 37.0167
4.876, 7, 30.0497, 48.8768, 1.45059, 84.4275, -82.8176, 37.0208
4.88, 7, 30.0418, 48.8685, 1.4692, 84.4171, -82.826, 37.0243
4.884, 7, 30.0345, 48.8613, 1.48453, 84.4086, -82.833, 37.0271
4.888, 7, 30.0279, 48.8553, 1.49692, 84.4018, -82.8386, 37.0293
4.892, 7, 30.0218, 48.8503, 1.50672, 84.3964, -82.843, 37.0311
4.896, 7, 30.0163, 48.8461, 1.51428, 84.3924, -82.8464, 37.0324
4.9, 7, 30.0114, 48.8428, 1.51999, 84.3894, -82.8489, 37.0334
4.904, 7, 30.007, 48.8402, 1.52421, 84.3872, -82.8507, 37.0341
4.908, 8, 30.0034, 48.8382, 1.52724, 84.3856, -82.8521, 37.0346
4.912, 8, 30.0004, 48.8367, 1.52939, 84.3845, -82.853, 37.035
4.916, 8, 29.9981, 48.8357, 1.53088, 84.3838, -82.8537, 37.0352
4.92, 8, 29.9965, 48.8349, 1.5319, 84.3833, -82.8541, 37.0354
4.924, 8, 29.9953, 48.8344, 1.53259, 84.383, -82.8544, 37.0355
4.928, 8, 29.9946, 48.834, 1.53306, 84.3827, -82.8546, 37.0356
4.932, 8, 29.994, 48.8338, 1.53338, 84.3826, -82.8547, 37.0357
4.936, 8, 29.9937, 48.8336, 1.53359, 84.3825, -82.8548, 37.0357
4.94, 8, 29.9935, 48.8335, 1.53374, 84.3824, -82.8549, 37.0357
4.944, 8, 29.9933, 48.8335, 1.53384, 84.3823, -82.8549, 37.0357
4.948, 8, 29.9932, 48.8334, 1.5339, 84.3823, -82.855, 37.0357
4.952, 8, 29.9931, 48.8334, 1.53395, 84.3823, -82.855, 37.0357
4.956, 8, 29.9931, 48.8334, 1.53398, 84.3823, -82.855, 37.0358
4.96, 8, 29.993, 48.8333, 1.534, 84.3823, -82.855, 37.0358
4.964, 8, 29.993, 48.8333, 1.53401, 84.3823, -82.855, 37.0358
4.968, 8, 29.993, 48.8333, 1.53402, 84.3822, -82.855, 37.0358
4.972, 8, 29.993, 48.8333, 1.53403, 84.3822, -82.855, 37.0358
4.976, 8, 29.993, 48.8333, 1.53403, 84.3822, -82.855, 37.0358
4.98, 8, 29.993, 48.8333, 1.53404, 84.3822, -82.855, 37.0358
4.984, 8, 29.993, 48.8333, 1.53404, 84.3822, -82.855, 37.0358
4.988, 8, 29.993, 48.8333, 1.53404, 84.3822, -82.855, 37.0358
4.992, 8, 29.9929, 48.8333, 1.53404, 84.3822, -82.855, 37.0358
4.996, 8, 29.9929, 48.8333, 1.53404, 84.3822, -82.855, 37.0358
5, 8, 29.9929, 48.8333, 1.53404, 84.3822, -82.855, 37.0358
5.004, 8, 29.9929, 48.8333, 1.53404, 84.3822, -82.855, 37.0358
5.008, 8, 29.9929, 48.8333, 1.53404, 84.3822, -82.855, 37.0358
5.012, 8, 29.9929, 48.8333, 1.53404, 84.3822, -82.855, 37.0358
5.016, 8, 29.9929, 48.8333, 1.53404, 84.3822, -82.855, 37.0358
5.02, 8, 29.9929, 48.8333, 1.53404, 84.3822, -82.855, 37.0358
5.024, 8, 29.9929, 48.8333, 1.53404, 84.3822, -82.855, 37.0358
