hehonglu123/ABB_Primitive_Study/execution/blade/curve_exe_v1500_fine.csv
timestamp, cmd_num, J1, J2, J3, J4, J5, J6
0, -1, 29.9929, 48.8333, 1.53404, 84.3822, -82.855, 37.0358
0.002, -1, 29.9929, 48.8333, 1.53404, 84.3822, -82.855, 37.0358
0.006, -1, 29.9929, 48.8333, 1.53404, 84.3822, -82.855, 37.0358
0.008, -1, 29.9929, 48.8333, 1.53404, 84.3822, -82.855, 37.0358
0.011, -1, 29.9929, 48.8333, 1.53404, 84.3822, -82.855, 37.0358
0.016, -1, 29.9929, 48.8333, 1.53404, 84.3822, -82.855, 37.0358
0.02, -1, 29.9929, 48.8333, 1.53404, 84.3822, -82.855, 37.0358
0.024, -1, 29.9929, 48.8333, 1.53404, 84.3822, -82.855, 37.0358
0.028, -1, 29.9929, 48.8333, 1.53404, 84.3822, -82.855, 37.0358
0.032, -1, 29.993, 48.8333, 1.53404, 84.3822, -82.855, 37.0358
0.036, -1, 29.993, 48.8333, 1.53404, 84.3822, -82.855, 37.0358
0.04, -1, 29.9933, 48.8332, 1.53402, 84.3822, -82.855, 37.0358
0.044, -1, 29.9938, 48.833, 1.53395, 84.3823, -82.8549, 37.0358
0.048, -1, 29.9948, 48.8325, 1.53379, 84.3823, -82.8548, 37.0358
0.052, -1, 29.9964, 48.8318, 1.53345, 84.3825, -82.8543, 37.0359
0.056, -1, 29.9986, 48.8306, 1.53283, 84.3829, -82.8534, 37.0361
0.06, -1, 30.0015, 48.8289, 1.53176, 84.3835, -82.8518, 37.0365
0.064, -1, 30.005, 48.8267, 1.53002, 84.3847, -82.8489, 37.0371
0.068, -1, 30.0092, 48.824, 1.52738, 84.3866, -82.8443, 37.0381
0.072, -1, 30.0141, 48.821, 1.52352, 84.3895, -82.8373, 37.0397
0.076, -1, 30.0196, 48.8176, 1.51811, 84.3936, -82.8273, 37.0419
0.08, -1, 30.026, 48.814, 1.51078, 84.3993, -82.8136, 37.045
0.084, -1, 30.0333, 48.8103, 1.50113, 84.4069, -82.7952, 37.0491
0.088, -1, 30.0415, 48.8067, 1.48876, 84.4168, -82.7713, 37.0544
0.092, -1, 30.0505, 48.8033, 1.4733, 84.4294, -82.7411, 37.0611
0.096, -1, 30.0602, 48.8002, 1.45441, 84.4448, -82.7039, 37.0694
0.1, -1, 30.0707, 48.7976, 1.4318, 84.4635, -82.659, 37.0794
0.104, -1, 30.0817, 48.7956, 1.40529, 84.4856, -82.6061, 37.0913
0.108, -1, 30.0933, 48.7941, 1.37476, 84.5112, -82.5447, 37.1049
0.112, -1, 30.1055, 48.7932, 1.34022, 84.5402, -82.4751, 37.1205
0.116, -1, 30.1185, 48.7927, 1.30174, 84.5727, -82.3974, 37.1379
0.12, -1, 30.1323, 48.7927, 1.25953, 84.6083, -82.312, 37.1569
0.124, -1, 30.1469, 48.793, 1.21383, 84.6469, -82.2196, 37.1776
0.128, -1, 30.1623, 48.7937, 1.16497, 84.6882, -82.1206, 37.1997
0.131, -1, 30.1783, 48.7946, 1.11332, 84.7319, -82.016, 37.2231
0.136, -1, 30.1948, 48.7955, 1.05927, 84.7776, -81.9066, 37.2476
0.139, -1, 30.212, 48.7963, 1.00321, 84.825, -81.7932, 37.2729
0.144, -1, 30.2298, 48.7968, 0.945528, 84.8736, -81.6766, 37.299
0.148, -1, 30.2485, 48.7968, 0.886585, 84.9233, -81.5576, 37.3256
0.152, -1, 30.2681, 48.7963, 0.826699, 84.9737, -81.4368, 37.3525
0.156, -1, 30.2885, 48.7951, 0.766138, 85.0246, -81.3148, 37.3798
0.16, -1, 30.3097, 48.7935, 0.705121, 85.0758, -81.1921, 37.4072
0.164, -1, 30.3317, 48.7916, 0.643816, 85.1272, -81.0689, 37.4348
0.168, -1, 30.3541, 48.7893, 0.582346, 85.1787, -80.9454, 37.4623
0.172, -1, 30.3768, 48.7869, 0.520796, 85.2303, -80.8218, 37.49
0.176, -1, 30.3997, 48.7844, 0.459227, 85.2819, -80.6982, 37.5176
0.18, -1, 30.4228, 48.7818, 0.397677, 85.3334, -80.5746, 37.5452
0.184, -1, 30.446, 48.7791, 0.336173, 85.3849, -80.4512, 37.5727
0.188, -1, 30.4691, 48.7764, 0.274733, 85.4363, -80.3279, 37.6003
0.192, -1, 30.4923, 48.7737, 0.213369, 85.4876, -80.2048, 37.6278
0.196, -1, 30.5155, 48.771, 0.152089, 85.5389, -80.0818, 37.6552
0.2, -1, 30.5387, 48.7682, 0.0908988, 85.5901, -79.9591, 37.6827
0.204, -1, 30.5619, 48.7655, 0.0298009, 85.6413, -79.8365, 37.7101
0.208, -1, 30.585, 48.7627, -0.0312022, 85.6923, -79.7141, 37.7374
0.212, -1, 30.6081, 48.76, -0.0921092, 85.7433, -79.5919, 37.7647
0.216, -1, 30.6311, 48.7573, -0.152919, 85.7942, -79.4699, 37.7919
0.22, -1, 30.6542, 48.7545, -0.213632, 85.845, -79.3481, 37.8191
0.224, -1, 30.6772, 48.7518, -0.274248, 85.8957, -79.2264, 37.8463
0.228, -1, 30.7001, 48.749, -0.334767, 85.9463, -79.105, 37.8734
0.232, -1, 30.723, 48.7463, -0.395188, 85.9969, -78.9838, 37.9005
0.236, -1, 30.7459, 48.7436, -0.455513, 86.0474, -78.8628, 37.9276
0.24, -1, 30.7688, 48.7409, -0.515741, 86.0978, -78.7419, 37.9545
0.244, -1, 30.7916, 48.7381, -0.575873, 86.1481, -78.6213, 37.9815
0.248, -1, 30.8144, 48.7354, -0.635909, 86.1983, -78.5008, 38.0084
0.252, -1, 30.8371, 48.7327, -0.69585, 86.2485, -78.3806, 38.0353
0.256, -1, 30.8598, 48.73, -0.755696, 86.2986, -78.2605, 38.0621
0.26, -1, 30.8825, 48.7273, -0.815448, 86.3486, -78.1406, 38.0889
0.264, -1, 30.9051, 48.7246, -0.875105, 86.3985, -78.0209, 38.1156
0.268, -1, 30.9277, 48.7219, -0.934668, 86.4483, -77.9014, 38.1423
0.272, -1, 30.9503, 48.7192, -0.994138, 86.4981, -77.7821, 38.1689
0.276, -1, 30.9728, 48.7166, -1.05351, 86.5478, -77.663, 38.1955
0.28, -1, 30.9953, 48.7139, -1.1128, 86.5974, -77.5441, 38.2221
0.284, -1, 31.0177, 48.7112, -1.17199, 86.6469, -77.4253, 38.2486
0.288, -1, 31.0402, 48.7085, -1.23109, 86.6964, -77.3067, 38.2751
0.292, -1, 31.0625, 48.7059, -1.2901, 86.7458, -77.1883, 38.3016
0.296, -1, 31.0849, 48.7032, -1.34902, 86.7951, -77.0701, 38.328
0.3, -1, 31.1072, 48.7005, -1.40784, 86.8443, -76.9521, 38.3543
0.304, -1, 31.1295, 48.6979, -1.46658, 86.8934, -76.8343, 38.3807
0.308, -1, 31.1517, 48.6952, -1.52522, 86.9425, -76.7166, 38.407
0.312, -1, 31.174, 48.6926, -1.58378, 86.9915, -76.5991, 38.4332
0.316, -1, 31.1961, 48.6899, -1.64225, 87.0404, -76.4818, 38.4594
0.32, -1, 31.2183, 48.6873, -1.70063, 87.0893, -76.3647, 38.4856
0.324, -1, 31.2404, 48.6847, -1.75892, 87.1381, -76.2477, 38.5117
0.328, -1, 31.2625, 48.682, -1.81712, 87.1868, -76.131, 38.5378
0.332, -1, 31.2845, 48.6794, -1.87523, 87.2354, -76.0144, 38.5638
0.336, -1, 31.3065, 48.6768, -1.93326, 87.2839, -75.898, 38.5898
0.34, -1, 31.3285, 48.6742, -1.9912, 87.3324, -75.7817, 38.6158
0.344, -1, 31.3505, 48.6716, -2.04905, 87.3808, -75.6656, 38.6417
0.348, -1, 31.3724, 48.669, -2.10682, 87.4292, -75.5498, 38.6676
0.352, -1, 31.3943, 48.6664, -2.1645, 87.4774, -75.434, 38.6935
0.356, -1, 31.4161, 48.6637, -2.22209, 87.5256, -75.3185, 38.7193
0.36, -1, 31.4379, 48.6611, -2.2796, 87.5738, -75.2031, 38.745
0.364, -1, 31.4597, 48.6586, -2.33702, 87.6218, -75.0879, 38.7708
0.368, -1, 31.4815, 48.656, -2.39436, 87.6698, -74.9728, 38.7965
0.372, -1, 31.5032, 48.6534, -2.45162, 87.7177, -74.858, 38.8221
0.376, -1, 31.5249, 48.6508, -2.50879, 87.7655, -74.7433, 38.8477
0.38, -1, 31.5465, 48.6482, -2.56588, 87.8133, -74.6287, 38.8733
0.384, -1, 31.5682, 48.6456, -2.62288, 87.861, -74.5144, 38.8989
0.388, -1, 31.5898, 48.6431, -2.6798, 87.9086, -74.4002, 38.9244
0.392, -1, 31.6113, 48.6405, -2.73664, 87.9562, -74.2861, 38.9499
0.396, -1, 31.6329, 48.6379, -2.7934, 88.0037, -74.1723, 38.9753
0.4, -1, 31.6544, 48.6354, -2.85007, 88.0511, -74.0586, 39.0007
0.404, -1, 31.6758, 48.6328, -2.90666, 88.0985, -73.945, 39.0261
0.408, -1, 31.6973, 48.6303, -2.96317, 88.1458, -73.8316, 39.0514
0.412, -1, 31.7187, 48.6277, -3.0196, 88.193, -73.7184, 39.0767
0.416, -1, 31.74, 48.6252, -3.07595, 88.2401, -73.6054, 39.1019
0.42, -1, 31.7614, 48.6226, -3.13222, 88.2872, -73.4925, 39.1271
0.424, -1, 31.7827, 48.6201, -3.18841, 88.3342, -73.3798, 39.1523
0.428, -1, 31.804, 48.6175, -3.24451, 88.3812, -73.2672, 39.1775
0.432, -1, 31.8252, 48.615, -3.30054, 88.4281, -73.1548, 39.2026
0.436, -1, 31.8465, 48.6125, -3.35649, 88.4749, -73.0425, 39.2277
0.44, -1, 31.8677, 48.61, -3.41236, 88.5216, -72.9304, 39.2527
0.444, -1, 31.8888, 48.6074, -3.46815, 88.5683, -72.8185, 39.2777
0.448, -1, 31.91, 48.6049, -3.52387, 88.615, -72.7067, 39.3027
0.452, -1, 31.9311, 48.6024, -3.57951, 88.6615, -72.5951, 39.3276
0.456, -1, 31.9522, 48.5999, -3.63506, 88.708, -72.4836, 39.3525
0.46, -1, 31.9732, 48.5974, -3.69055, 88.7544, -72.3723, 39.3774
0.464, -1, 31.9942, 48.5949, -3.74595, 88.8008, -72.2611, 39.4022
0.468, -1, 32.0152, 48.5924, -3.80128, 88.8471, -72.1501, 39.427
0.472, -1, 32.0362, 48.5899, -3.85653, 88.8933, -72.0393, 39.4518
0.476, -1, 32.0571, 48.5874, -3.91171, 88.9395, -71.9286, 39.4765
0.48, -1, 32.078, 48.5849, -3.96681, 88.9856, -71.818, 39.5012
0.484, -1, 32.0989, 48.5824, -4.02184, 89.0317, -71.7076, 39.5258
0.488, -1, 32.1197, 48.5799, -4.07679, 89.0776, -71.5974, 39.5505
0.492, -1, 32.1406, 48.5774, -4.13167, 89.1236, -71.4873, 39.5751
0.496, -1, 32.1614, 48.575, -4.18647, 89.1694, -71.3773, 39.5996
0.5, -1, 32.1821, 48.5725, -4.2412, 89.2152, -71.2675, 39.6241
0.504, -1, 32.2028, 48.57, -4.29586, 89.261, -71.1579, 39.6486
0.508, -1, 32.2236, 48.5676, -4.35044, 89.3066, -71.0484, 39.6731
0.512, -1, 32.2442, 48.5651, -4.40495, 89.3522, -70.939, 39.6975
0.516, -1, 32.2649, 48.5626, -4.45939, 89.3978, -70.8298, 39.7219
0.52, -1, 32.2855, 48.5602, -4.51375, 89.4433, -70.7207, 39.7463
0.524, -1, 32.3061, 48.5577, -4.56805, 89.4887, -70.6118, 39.7706
0.528, -1, 32.3267, 48.5553, -4.62227, 89.5341, -70.503, 39.7949
0.532, -1, 32.3472, 48.5528, -4.67642, 89.5794, -70.3943, 39.8192
0.536, -1, 32.3677, 48.5504, -4.73049, 89.6247, -70.2858, 39.8434
0.54, -1, 32.3882, 48.5479, -4.7845, 89.6699, -70.1775, 39.8676
0.544, -1, 32.4087, 48.5455, -4.83844, 89.715, -70.0693, 39.8918
0.548, -1, 32.4291, 48.5431, -4.8923, 89.7601, -69.9612, 39.916
0.552, -1, 32.4495, 48.5406, -4.9461, 89.8051, -69.8533, 39.9401
0.556, -1, 32.4699, 48.5382, -4.99983, 89.85, -69.7455, 39.9641
0.56, -1, 32.4903, 48.5358, -5.05348, 89.8949, -69.6378, 39.9882
0.564, -1, 32.5106, 48.5334, -5.10707, 89.9398, -69.5303, 40.0122
0.568, -1, 32.5309, 48.5309, -5.16059, 89.9846, -69.4229, 40.0362
0.572, -1, 32.5512, 48.5285, -5.21404, 90.0293, -69.3157, 40.0601
0.576, -1, 32.5714, 48.5261, -5.26742, 90.074, -69.2086, 40.0841
0.58, -1, 32.5916, 48.5237, -5.32073, 90.1186, -69.1016, 40.108
0.584, -1, 32.6118, 48.5213, -5.37398, 90.1631, -68.9948, 40.1318
0.588, -1, 32.632, 48.5189, -5.42716, 90.2076, -68.8881, 40.1557
0.592, -1, 32.6522, 48.5165, -5.48026, 90.2521, -68.7816, 40.1795
0.596, -1, 32.6723, 48.5141, -5.53331, 90.2965, -68.6752, 40.2032
0.6, -1, 32.6924, 48.5117, -5.58628, 90.3408, -68.5689, 40.227
0.604, -1, 32.7125, 48.5093, -5.63919, 90.3851, -68.4627, 40.2507
0.608, -1, 32.7325, 48.5069, -5.69203, 90.4293, -68.3567, 40.2744
0.612, -1, 32.7525, 48.5045, -5.74481, 90.4734, -68.2508, 40.298
0.616, -1, 32.7725, 48.5021, -5.79752, 90.5175, -68.1451, 40.3216
0.62, -1, 32.7925, 48.4998, -5.85017, 90.5616, -68.0394, 40.3452
0.624, -1, 32.8124, 48.4974, -5.90275, 90.6056, -67.9339, 40.3688
0.628, -1, 32.8324, 48.495, -5.95526, 90.6495, -67.8286, 40.3923
0.632, -1, 32.8523, 48.4926, -6.00771, 90.6934, -67.7234, 40.4158
0.636, -1, 32.8721, 48.4903, -6.06009, 90.7373, -67.6182, 40.4393
0.64, -1, 32.892, 48.4879, -6.11241, 90.781, -67.5133, 40.4628
0.644, -1, 32.9118, 48.4856, -6.16467, 90.8248, -67.4084, 40.4862
0.648, -1, 32.9316, 48.4832, -6.21686, 90.8685, -67.3037, 40.5096
0.652, -1, 32.9514, 48.4808, -6.26899, 90.9121, -67.1991, 40.5329
0.656, -1, 32.9711, 48.4785, -6.32106, 90.9556, -67.0947, 40.5563
0.66, -1, 32.9908, 48.4761, -6.37306, 90.9991, -66.9903, 40.5796
0.664, -1, 33.0106, 48.4738, -6.425, 91.0426, -66.8861, 40.6028
0.668, -1, 33.0302, 48.4714, -6.47687, 91.086, -66.7821, 40.6261
0.672, -1, 33.0499, 48.4691, -6.52868, 91.1294, -66.6781, 40.6493
0.676, -1, 33.0695, 48.4668, -6.58043, 91.1727, -66.5743, 40.6725
0.68, -1, 33.0891, 48.4644, -6.63212, 91.2159, -66.4706, 40.6957
0.684, -1, 33.1087, 48.4621, -6.68375, 91.2591, -66.367, 40.7188
0.688, -1, 33.1283, 48.4598, -6.73531, 91.3023, -66.2635, 40.7419
0.692, -1, 33.1478, 48.4574, -6.78682, 91.3454, -66.1602, 40.765
0.696, -1, 33.1673, 48.4551, -6.83826, 91.3884, -66.057, 40.7881
0.7, -1, 33.1868, 48.4528, -6.88964, 91.4314, -65.9539, 40.8111
0.704, -1, 33.2063, 48.4505, -6.94096, 91.4744, -65.851, 40.8341
0.708, -1, 33.2257, 48.4482, -6.99222, 91.5173, -65.7481, 40.8571
0.712, -1, 33.2452, 48.4458, -7.04342, 91.5601, -65.6454, 40.88
0.716, -1, 33.2646, 48.4435, -7.09456, 91.6029, -65.5428, 40.9029
0.72, -1, 33.2839, 48.4412, -7.14564, 91.6457, -65.4403, 40.9258
0.724, -1, 33.3033, 48.4389, -7.19666, 91.6883, -65.3379, 40.9487
0.728, -1, 33.3226, 48.4366, -7.24762, 91.731, -65.2357, 40.9715
0.732, -1, 33.3419, 48.4343, -7.29852, 91.7736, -65.1336, 40.9943
0.736, -1, 33.3612, 48.432, -7.34936, 91.8161, -65.0316, 41.0171
0.74, -1, 33.3805, 48.4297, -7.40015, 91.8586, -64.9297, 41.0399
0.744, -1, 33.3997, 48.4274, -7.45087, 91.9011, -64.8279, 41.0626
0.748, -1, 33.4189, 48.4251, -7.50153, 91.9435, -64.7263, 41.0853
0.752, -1, 33.4381, 48.4228, -7.55214, 91.9858, -64.6247, 41.108
0.756, -1, 33.4573, 48.4206, -7.60269, 92.0281, -64.5233, 41.1306
0.76, -1, 33.4765, 48.4183, -7.65318, 92.0704, -64.422, 41.1533
0.764, -1, 33.4956, 48.416, -7.70362, 92.1126, -64.3208, 41.1759
0.768, -1, 33.5147, 48.4137, -7.75399, 92.1547, -64.2197, 41.1985
0.772, -1, 33.5338, 48.4115, -7.80431, 92.1968, -64.1188, 41.221
0.776, -1, 33.5529, 48.4092, -7.85457, 92.2389, -64.018, 41.2435
0.78, -1, 33.5719, 48.4069, -7.90478, 92.2809, -63.9172, 41.266
0.784, -1, 33.5909, 48.4046, -7.95493, 92.3229, -63.8166, 41.2885
0.788, -1, 33.6099, 48.4024, -8.00502, 92.3648, -63.7161, 41.311
0.792, -1, 33.6289, 48.4001, -8.05505, 92.4066, -63.6157, 41.3334
0.796, -1, 33.6479, 48.3979, -8.10503, 92.4485, -63.5154, 41.3558
0.8, -1, 33.6668, 48.3956, -8.15496, 92.4902, -63.4153, 41.3782
0.804, -1, 33.6857, 48.3934, -8.20482, 92.532, -63.3152, 41.4005
0.808, -1, 33.7046, 48.3911, -8.25464, 92.5737, -63.2153, 41.4228
0.812, -1, 33.7235, 48.3889, -8.30439, 92.6153, -63.1155, 41.4451
0.816, -1, 33.7424, 48.3866, -8.3541, 92.6569, -63.0158, 41.4674
0.82, -1, 33.7612, 48.3844, -8.40374, 92.6984, -62.9161, 41.4897
0.824, -1, 33.78, 48.3821, -8.45333, 92.7399, -62.8166, 41.5119
0.828, -1, 33.7988, 48.3799, -8.50287, 92.7814, -62.7173, 41.5341
0.832, -1, 33.8176, 48.3776, -8.55236, 92.8228, -62.618, 41.5563
0.836, -1, 33.8363, 48.3754, -8.60179, 92.8642, -62.5188, 41.5784
0.84, -1, 33.855, 48.3732, -8.65116, 92.9055, -62.4197, 41.6005
0.844, -1, 33.8738, 48.3709, -8.70049, 92.9467, -62.3208, 41.6226
0.848, -1, 33.8925, 48.3687, -8.74975, 92.988, -62.2219, 41.6447
0.852, -1, 33.9111, 48.3665, -8.79897, 93.0292, -62.1232, 41.6668
0.856, -1, 33.9298, 48.3643, -8.84813, 93.0703, -62.0246, 41.6888
0.86, -1, 33.9484, 48.3621, -8.89725, 93.1114, -61.926, 41.7108
0.864, -1, 33.967, 48.3598, -8.9463, 93.1524, -61.8276, 41.7328
0.868, -1, 33.9856, 48.3576, -8.99531, 93.1935, -61.7293, 41.7548
0.872, -1, 34.0042, 48.3554, -9.04426, 93.2344, -61.6311, 41.7767
0.876, -1, 34.0227, 48.3532, -9.09317, 93.2753, -61.5329, 41.7986
0.88, -1, 34.0413, 48.351, -9.14202, 93.3162, -61.4349, 41.8205
0.884, -1, 34.0598, 48.3488, -9.19082, 93.3571, -61.337, 41.8424
0.888, -1, 34.0783, 48.3466, -9.23956, 93.3979, -61.2392, 41.8642
0.892, -1, 34.0967, 48.3444, -9.28826, 93.4386, -61.1415, 41.8861
0.896, -1, 34.1152, 48.3422, -9.33691, 93.4793, -61.0439, 41.9079
0.9, -1, 34.1336, 48.34, -9.3855, 93.52, -60.9464, 41.9296
0.904, -1, 34.152, 48.3378, -9.43405, 93.5606, -60.849, 41.9514
0.908, -1, 34.1704, 48.3356, -9.48254, 93.6012, -60.7517, 41.9731
0.912, -1, 34.1888, 48.3334, -9.53098, 93.6417, -60.6545, 41.9948
0.916, -1, 34.2072, 48.3312, -9.57938, 93.6822, -60.5574, 42.0165
0.92, -1, 34.2255, 48.329, -9.62772, 93.7227, -60.4604, 42.0382
0.924, -1, 34.2438, 48.3269, -9.67601, 93.7631, -60.3636, 42.0598
0.928, -1, 34.2621, 48.3247, -9.72426, 93.8034, -60.2668, 42.0815
0.932, -1, 34.2804, 48.3225, -9.77246, 93.8438, -60.1701, 42.1031
0.936, -1, 34.2987, 48.3203, -9.8206, 93.8841, -60.0735, 42.1246
0.94, -1, 34.3169, 48.3182, -9.8687, 93.9243, -59.977, 42.1462
0.944, -1, 34.3351, 48.316, -9.91674, 93.9645, -59.8806, 42.1677
0.948, -1, 34.3534, 48.3138, -9.96474, 94.0047, -59.7843, 42.1892
0.952, -1, 34.3715, 48.3116, -10.0127, 94.0448, -59.6881, 42.2107
0.956, -1, 34.3897, 48.3095, -10.0606, 94.0849, -59.592, 42.2322
0.96, -1, 34.4079, 48.3073, -10.1085, 94.1249, -59.4959, 42.2536
0.964, -1, 34.426, 48.3052, -10.1563, 94.1649, -59.4, 42.2751
0.968, -1, 34.4441, 48.303, -10.204, 94.2049, -59.3042, 42.2965
0.972, -1, 34.4622, 48.3008, -10.2517, 94.2448, -59.2085, 42.3179
0.976, -1, 34.4803, 48.2987, -10.2994, 94.2847, -59.1129, 42.3392
0.98, -1, 34.4984, 48.2965, -10.347, 94.3246, -59.0173, 42.3606
0.984, -1, 34.5164, 48.2944, -10.3946, 94.3644, -58.9219, 42.3819
0.988, -1, 34.5344, 48.2922, -10.4421, 94.4041, -58.8266, 42.4032
0.992, -1, 34.5524, 48.2901, -10.4896, 94.4439, -58.7313, 42.4244
0.996, -1, 34.5704, 48.2879, -10.537, 94.4835, -58.6362, 42.4457
1, -1, 34.5884, 48.2858, -10.5844, 94.5232, -58.5411, 42.4669
1.004, -1, 34.6064, 48.2837, -10.6317, 94.5628, -58.4461, 42.4881
1.008, -1, 34.6243, 48.2815, -10.679, 94.6024, -58.3512, 42.5093
1.012, -1, 34.6422, 48.2794, -10.7262, 94.6419, -58.2565, 42.5305
1.016, -1, 34.6601, 48.2773, -10.7734, 94.6814, -58.1618, 42.5517
1.02, -1, 34.678, 48.2751, -10.8206, 94.7209, -58.0672, 42.5728
1.024, -1, 34.6959, 48.273, -10.8677, 94.7603, -57.9727, 42.5939
1.027, -1, 34.7137, 48.2709, -10.9147, 94.7996, -57.8783, 42.615
1.032, -1, 34.7316, 48.2687, -10.9618, 94.839, -57.7839, 42.6361
1.036, -1, 34.7494, 48.2666, -11.0087, 94.8783, -57.6897, 42.6571
1.04, -1, 34.7672, 48.2645, -11.0557, 94.9176, -57.5956, 42.6781
1.044, -1, 34.785, 48.2624, -11.1025, 94.9568, -57.5015, 42.6992
1.048, -1, 34.8027, 48.2603, -11.1494, 94.996, -57.4075, 42.7201
1.052, -1, 34.8205, 48.2582, -11.1962, 95.0351, -57.3137, 42.7411
1.055, -1, 34.8382, 48.256, -11.2429, 95.0742, -57.2199, 42.7621
1.06, -1, 34.8559, 48.2539, -11.2896, 95.1133, -57.1262, 42.783
1.064, -1, 34.8736, 48.2518, -11.3362, 95.1524, -57.0326, 42.8039
1.068, -1, 34.8913, 48.2497, -11.3829, 95.1914, -56.9391, 42.8248
1.072, -1, 34.909, 48.2476, -11.4294, 95.2303, -56.8456, 42.8457
1.076, -1, 34.9266, 48.2455, -11.4759, 95.2693, -56.7523, 42.8665
1.08, -1, 34.9442, 48.2434, -11.5224, 95.3082, -56.659, 42.8873
1.084, -1, 34.9618, 48.2413, -11.5689, 95.347, -56.5659, 42.9081
1.088, -1, 34.9795, 48.2392, -11.6153, 95.3858, -56.4728, 42.9289
1.091, -1, 34.997, 48.2371, -11.6616, 95.4246, -56.3798, 42.9497
1.096, -1, 35.0146, 48.235, -11.7079, 95.4634, -56.2869, 42.9705
1.1, -1, 35.0321, 48.2329, -11.7542, 95.5021, -56.1941, 42.9912
1.104, -1, 35.0497, 48.2309, -11.8004, 95.5408, -56.1014, 43.0119
1.108, -1, 35.0672, 48.2288, -11.8466, 95.5794, -56.0087, 43.0326
1.112, -1, 35.0847, 48.2267, -11.8927, 95.618, -55.9161, 43.0533
1.116, -1, 35.1022, 48.2246, -11.9388, 95.6566, -55.8237, 43.0739
1.119, -1, 35.1196, 48.2225, -11.9848, 95.6951, -55.7313, 43.0946
1.124, -1, 35.1371, 48.2204, -12.0309, 95.7336, -55.639, 43.1152
1.128, -1, 35.1545, 48.2184, -12.0768, 95.7721, -55.5468, 43.1358
1.132, -1, 35.172, 48.2163, -12.1227, 95.8105, -55.4546, 43.1564
1.136, -1, 35.1894, 48.2142, -12.1686, 95.8489, -55.3626, 43.1769
1.14, -1, 35.2067, 48.2121, -12.2145, 95.8873, -55.2706, 43.1975
1.144, -1, 35.2241, 48.2101, -12.2603, 95.9256, -55.1787, 43.218
1.147, -1, 35.2415, 48.208, -12.306, 95.9639, -55.0869, 43.2385
1.152, -1, 35.2588, 48.2059, -12.3517, 96.0021, -54.9952, 43.259
1.156, -1, 35.2761, 48.2039, -12.3974, 96.0404, -54.9035, 43.2795
1.16, -1, 35.2935, 48.2018, -12.443, 96.0785, -54.812, 43.2999
1.164, -1, 35.3108, 48.1997, -12.4886, 96.1167, -54.7205, 43.3204
1.168, -1, 35.328, 48.1977, -12.5342, 96.1548, -54.6291, 43.3408
1.172, -1, 35.3453, 48.1956, -12.5797, 96.1929, -54.5378, 43.3612
1.175, -1, 35.3625, 48.1936, -12.6252, 96.2309, -54.4466, 43.3816
1.18, -1, 35.3798, 48.1915, -12.6706, 96.269, -54.3554, 43.4019
1.184, -1, 35.397, 48.1895, -12.716, 96.3069, -54.2644, 43.4223
1.188, -1, 35.4142, 48.1874, -12.7614, 96.3449, -54.1734, 43.4426
1.192, -1, 35.4314, 48.1854, -12.8067, 96.3828, -54.0825, 43.4629
1.196, -1, 35.4486, 48.1833, -12.8519, 96.4207, -53.9916, 43.4832
1.2, -1, 35.4657, 48.1813, -12.8972, 96.4585, -53.9009, 43.5035
1.204, -1, 35.4829, 48.1792, -12.9424, 96.4964, -53.8102, 43.5237
1.208, -1, 35.5, 48.1772, -12.9875, 96.5341, -53.7196, 43.5439
1.212, -1, 35.5171, 48.1752, -13.0326, 96.5719, -53.6291, 43.5642
1.216, -1, 35.5342, 48.1731, -13.0777, 96.6096, -53.5387, 43.5844
1.22, -1, 35.5513, 48.1711, -13.1227, 96.6473, -53.4483, 43.6045
1.224, -1, 35.5684, 48.1691, -13.1677, 96.685, -53.358, 43.6247
1.228, -1, 35.5854, 48.167, -13.2127, 96.7226, -53.2678, 43.6449
1.232, -1, 35.6024, 48.165, -13.2576, 96.7602, -53.1777, 43.665
1.236, -1, 35.6193, 48.163, -13.3025, 96.7977, -53.0876, 43.6851
1.24, -1, 35.6361, 48.1611, -13.3473, 96.8352, -52.9977, 43.7052
1.244, -1, 35.6526, 48.1593, -13.3921, 96.8727, -52.9079, 43.7253
1.248, -1, 35.6687, 48.1576, -13.4368, 96.9101, -52.8182, 43.7453
1.252, -1, 35.6845, 48.1561, -13.4813, 96.9474, -52.7288, 43.7653
1.256, -1, 35.6998, 48.1549, -13.5257, 96.9846, -52.6398, 43.7852
1.26, -1, 35.7144, 48.154, -13.5697, 97.0214, -52.5514, 43.8049
1.264, -1, 35.7284, 48.1534, -13.6133, 97.058, -52.4638, 43.8245
1.267, -1, 35.7418, 48.1533, -13.6563, 97.094, -52.3775, 43.8438
1.272, -1, 35.7544, 48.1534, -13.6984, 97.1293, -52.293, 43.8627
1.276, -1, 35.7664, 48.1539, -13.7394, 97.1637, -52.2106, 43.8812
1.28, -1, 35.7778, 48.1545, -13.7789, 97.1969, -52.1312, 43.8989
1.284, -1, 35.7885, 48.1552, -13.8167, 97.2286, -52.0552, 43.9159
1.288, -1, 35.7988, 48.1559, -13.8524, 97.2586, -51.9835, 43.932
1.292, -1, 35.8086, 48.1563, -13.8858, 97.2866, -51.9165, 43.947
1.295, -1, 35.818, 48.1565, -13.9165, 97.3123, -51.8549, 43.9608
1.3, -1, 35.8271, 48.1563, -13.9443, 97.3356, -51.7991, 43.9733
1.304, -1, 35.8359, 48.1556, -13.9691, 97.3564, -51.7493, 43.9844
1.308, -1, 35.8444, 48.1544, -13.9909, 97.3746, -51.7057, 43.9941
1.312, -1, 35.8525, 48.1528, -14.0096, 97.3902, -51.6681, 44.0025
1.316, -1, 35.8603, 48.1509, -14.0254, 97.4034, -51.6365, 44.0096
1.32, -1, 35.8677, 48.1486, -14.0385, 97.4142, -51.6103, 44.0154
1.324, -1, 35.8747, 48.1461, -14.049, 97.423, -51.5893, 44.02
1.328, -1, 35.8814, 48.1434, -14.0573, 97.4298, -51.5727, 44.0237
1.332, -1, 35.8876, 48.1407, -14.0637, 97.4351, -51.56, 44.0265
1.336, -1, 35.8933, 48.1381, -14.0685, 97.439, -51.5505, 44.0286
1.34, -1, 35.8984, 48.1357, -14.072, 97.4419, -51.5436, 44.0301
1.344, 2, 35.9027, 48.1336, -14.0745, 97.4439, -51.5387, 44.0312
1.348, 2, 35.9062, 48.1319, -14.0763, 97.4453, -51.5352, 44.0319
1.352, 2, 35.9089, 48.1307, -14.0775, 97.4462, -51.5328, 44.0324
1.356, 2, 35.9109, 48.1297, -14.0783, 97.4469, -51.5312, 44.0328
1.36, 2, 35.9123, 48.1291, -14.0789, 97.4473, -51.5301, 44.033
1.364, 2, 35.9132, 48.1287, -14.0792, 97.4476, -51.5294, 44.0332
1.368, 2, 35.9138, 48.1284, -14.0795, 97.4479, -51.5289, 44.0333
1.372, 2, 35.9142, 48.1282, -14.0797, 97.448, -51.5286, 44.0334
1.376, 2, 35.9145, 48.1281, -14.0798, 97.4481, -51.5283, 44.0334
1.38, 2, 35.9147, 48.128, -14.0799, 97.4482, -51.5282, 44.0335
1.384, 2, 35.9149, 48.1279, -14.0799, 97.4482, -51.5281, 44.0335
1.388, 2, 35.9149, 48.1279, -14.0799, 97.4482, -51.528, 44.0335
1.392, 2, 35.915, 48.1278, -14.08, 97.4482, -51.5279, 44.0335
1.396, 2, 35.915, 48.1278, -14.08, 97.4483, -51.5279, 44.0335
1.4, 2, 35.9151, 48.1278, -14.08, 97.4483, -51.5279, 44.0335
1.404, 2, 35.9151, 48.1278, -14.08, 97.4483, -51.5279, 44.0335
1.408, 2, 35.9151, 48.1278, -14.08, 97.4483, -51.5279, 44.0335
1.412, 2, 35.9151, 48.1278, -14.08, 97.4483, -51.5279, 44.0335
1.416, 2, 35.9151, 48.1278, -14.08, 97.4483, -51.5279, 44.0335
1.42, 2, 35.9151, 48.1278, -14.08, 97.4483, -51.5278, 44.0335
1.424, 2, 35.9151, 48.1278, -14.08, 97.4483, -51.5278, 44.0335
1.428, 2, 35.9151, 48.1278, -14.08, 97.4483, -51.5278, 44.0335
1.432, 2, 35.9151, 48.1278, -14.08, 97.4483, -51.5278, 44.0335
1.436, 2, 35.9151, 48.1278, -14.08, 97.4483, -51.5278, 44.0335
1.44, 2, 35.9151, 48.1278, -14.08, 97.4483, -51.5278, 44.0335
1.444, 2, 35.9151, 48.1278, -14.08, 97.4483, -51.5278, 44.0335
1.448, 2, 35.9151, 48.1278, -14.08, 97.4483, -51.5278, 44.0335
1.452, 2, 35.9151, 48.1278, -14.08, 97.4483, -51.5278, 44.0335
1.456, 2, 35.9151, 48.1278, -14.08, 97.4483, -51.5278, 44.0335
1.46, 2, 35.9151, 48.1278, -14.08, 97.4483, -51.5278, 44.0335
1.464, 2, 35.9151, 48.1278, -14.08, 97.4483, -51.5278, 44.0335
1.468, 2, 35.9151, 48.1278, -14.08, 97.4483, -51.5278, 44.0335
1.472, 2, 35.9151, 48.1278, -14.08, 97.4483, -51.5278, 44.0335
1.476, 2, 35.9151, 48.1278, -14.08, 97.4483, -51.5278, 44.0335
1.48, 2, 35.9151, 48.1278, -14.08, 97.4483, -51.5278, 44.0335
1.484, 2, 35.9151, 48.1278, -14.08, 97.4483, -51.5278, 44.0335
1.488, 2, 35.9151, 48.1278, -14.08, 97.4483, -51.5278, 44.0335
1.492, 2, 35.9151, 48.1278, -14.08, 97.4483, -51.5278, 44.0335
1.496, 2, 35.9151, 48.1278, -14.08, 97.4483, -51.5278, 44.0335
1.5, 2, 35.9151, 48.1278, -14.08, 97.4483, -51.5278, 44.0335
1.504, 2, 35.9151, 48.1278, -14.08, 97.4483, -51.5278, 44.0335
1.508, 2, 35.9151, 48.1278, -14.08, 97.4483, -51.5278, 44.0335
1.512, 2, 35.9151, 48.1278, -14.08, 97.4483, -51.5278, 44.0335
1.516, 2, 35.9151, 48.1278, -14.08, 97.4483, -51.5278, 44.0335
1.52, 2, 35.9151, 48.1278, -14.08, 97.4483, -51.5278, 44.0335
1.524, 2, 35.9151, 48.1278, -14.08, 97.4483, -51.5278, 44.0335
1.528, 2, 35.9151, 48.1278, -14.08, 97.4483, -51.5278, 44.0335
1.532, 2, 35.9151, 48.1278, -14.08, 97.4483, -51.5278, 44.0335
1.536, 2, 35.9151, 48.1278, -14.08, 97.4483, -51.5278, 44.0335
1.54, 2, 35.9151, 48.1278, -14.08, 97.4483, -51.5278, 44.0335
1.544, 2, 35.9151, 48.1278, -14.08, 97.4483, -51.5278, 44.0335
1.548, 2, 35.9151, 48.1278, -14.08, 97.4483, -51.5278, 44.0335
1.552, 2, 35.9151, 48.1278, -14.08, 97.4483, -51.5278, 44.0335
1.556, 2, 35.9151, 48.1278, -14.08, 97.4483, -51.5278, 44.0335
1.56, 2, 35.9151, 48.1278, -14.08, 97.4483, -51.5278, 44.0335
1.564, 2, 35.9151, 48.1278, -14.08, 97.4483, -51.5278, 44.0335
1.568, 2, 35.9151, 48.1278, -14.08, 97.4483, -51.5278, 44.0335
1.572, 2, 35.9151, 48.1278, -14.08, 97.4483, -51.5278, 44.0335
1.576, 2, 35.9151, 48.1278, -14.08, 97.4483, -51.5278, 44.0335
1.58, 2, 35.9151, 48.1278, -14.08, 97.4483, -51.5278, 44.0335
1.584, 2, 35.9151, 48.1278, -14.08, 97.4483, -51.5278, 44.0335
1.588, 2, 35.9151, 48.1278, -14.08, 97.4483, -51.5278, 44.0335
1.592, 2, 35.9151, 48.1278, -14.08, 97.4483, -51.5278, 44.0335
1.596, 2, 35.9151, 48.1278, -14.08, 97.4483, -51.5278, 44.0335
1.6, 2, 35.9151, 48.1278, -14.08, 97.4483, -51.5278, 44.0335
1.604, 2, 35.9151, 48.1278, -14.08, 97.4483, -51.5278, 44.0335
1.608, 2, 35.9151, 48.1278, -14.08, 97.4483, -51.5278, 44.0335
1.612, 2, 35.9151, 48.1278, -14.08, 97.4483, -51.5278, 44.0335
1.616, 2, 35.9151, 48.1278, -14.08, 97.4483, -51.5278, 44.0335
1.62, 2, 35.9151, 48.1278, -14.08, 97.4483, -51.5278, 44.0335
1.624, 2, 35.9151, 48.1278, -14.08, 97.4483, -51.5278, 44.0335
1.628, 2, 35.9151, 48.1278, -14.08, 97.4483, -51.5278, 44.0335
1.632, 2, 35.9151, 48.1278, -14.08, 97.4483, -51.5278, 44.0335
1.636, 2, 35.9151, 48.1278, -14.08, 97.4483, -51.5278, 44.0335
1.64, 2, 35.9151, 48.1278, -14.08, 97.4483, -51.5278, 44.0335
1.644, 2, 35.9151, 48.1278, -14.08, 97.4483, -51.5278, 44.0335
1.648, 2, 35.9151, 48.1278, -14.08, 97.4483, -51.5278, 44.0335
1.652, 2, 35.9151, 48.1278, -14.08, 97.4483, -51.5278, 44.0335
1.656, 2, 35.9151, 48.1278, -14.08, 97.4483, -51.5278, 44.0335
1.66, 2, 35.9151, 48.1278, -14.08, 97.4483, -51.5278, 44.0335
1.664, 2, 35.9151, 48.1278, -14.08, 97.4483, -51.5278, 44.0335
1.668, 2, 35.9151, 48.1278, -14.08, 97.4483, -51.5278, 44.0335
1.672, 2, 35.9151, 48.1278, -14.08, 97.4483, -51.5278, 44.0335
1.676, 2, 35.9151, 48.1278, -14.08, 97.4483, -51.5278, 44.0335
1.68, 2, 35.9151, 48.1278, -14.08, 97.4483, -51.5278, 44.0335
1.684, 2, 35.9151, 48.1278, -14.08, 97.4483, -51.5278, 44.0335
1.688, 2, 35.9151, 48.1278, -14.08, 97.4483, -51.5278, 44.0335
1.692, 2, 35.9151, 48.1278, -14.08, 97.4483, -51.5278, 44.0335
1.696, 2, 35.9151, 48.1278, -14.08, 97.4483, -51.5278, 44.0335
1.7, 2, 35.9151, 48.1278, -14.08, 97.4483, -51.5278, 44.0335
1.704, 2, 35.9151, 48.1278, -14.08, 97.4483, -51.5278, 44.0335
1.708, 2, 35.9151, 48.1278, -14.08, 97.4483, -51.5278, 44.0335
1.712, 2, 35.9151, 48.1278, -14.08, 97.4483, -51.5278, 44.0335
1.716, 2, 35.9151, 48.1278, -14.08, 97.4483, -51.5278, 44.0335
1.72, 2, 35.9151, 48.1278, -14.08, 97.4483, -51.5278, 44.0335
1.724, 2, 35.9151, 48.1278, -14.08, 97.4483, -51.5278, 44.0335
1.728, 2, 35.9151, 48.1278, -14.08, 97.4483, -51.5278, 44.0335
1.732, 2, 35.9151, 48.1278, -14.08, 97.4483, -51.5278, 44.0335
1.736, 2, 35.9151, 48.1278, -14.08, 97.4483, -51.5278, 44.0335
1.74, 2, 35.9151, 48.1278, -14.08, 97.4483, -51.5278, 44.0335
1.744, 2, 35.9151, 48.1278, -14.08, 97.4483, -51.5278, 44.0335
1.748, 2, 35.9151, 48.1278, -14.08, 97.4483, -51.5278, 44.0335
1.752, 2, 35.9151, 48.1278, -14.08, 97.4483, -51.5278, 44.0335
1.756, 2, 35.9151, 48.1278, -14.08, 97.4483, -51.5278, 44.0335
1.76, 2, 35.9151, 48.1278, -14.08, 97.4483, -51.5278, 44.0335
1.764, 2, 35.9151, 48.1278, -14.08, 97.4483, -51.5278, 44.0335
1.768, 2, 35.9151, 48.1278, -14.08, 97.4483, -51.5278, 44.0335
1.772, 2, 35.9151, 48.1278, -14.08, 97.4483, -51.5278, 44.0335
1.776, 2, 35.9151, 48.1278, -14.08, 97.4483, -51.5278, 44.0335
1.78, 2, 35.9151, 48.1278, -14.08, 97.4483, -51.5278, 44.0335
1.784, 2, 35.9151, 48.1278, -14.08, 97.4483, -51.5278, 44.0335
1.788, 2, 35.9151, 48.1278, -14.08, 97.4483, -51.5278, 44.0335
1.792, 2, 35.9151, 48.1278, -14.08, 97.4483, -51.5278, 44.0335
1.796, 2, 35.9151, 48.1278, -14.08, 97.4483, -51.5278, 44.0335
1.8, 2, 35.9151, 48.1278, -14.08, 97.4483, -51.5278, 44.0335
1.804, 2, 35.9151, 48.1278, -14.08, 97.4483, -51.5278, 44.0335
1.808, 2, 35.9151, 48.1278, -14.08, 97.4483, -51.5278, 44.0335
1.812, 2, 35.9151, 48.1278, -14.08, 97.4483, -51.5278, 44.0335
1.816, 2, 35.9151, 48.1278, -14.08, 97.4483, -51.5278, 44.0335
1.82, 2, 35.9151, 48.1278, -14.08, 97.4483, -51.5278, 44.0335
1.824, 2, 35.9151, 48.1278, -14.08, 97.4483, -51.5278, 44.0335
1.828, 2, 35.9151, 48.1278, -14.08, 97.4483, -51.5278, 44.0335
1.832, 2, 35.9151, 48.1278, -14.08, 97.4483, -51.5278, 44.0335
1.836, 2, 35.9151, 48.1278, -14.08, 97.4483, -51.5278, 44.0335
1.84, 2, 35.9151, 48.1278, -14.08, 97.4483, -51.5278, 44.0335
1.844, 2, 35.9151, 48.1278, -14.08, 97.4483, -51.5278, 44.0335
1.848, 2, 35.9151, 48.1278, -14.08, 97.4483, -51.5278, 44.0335
1.852, 2, 35.9151, 48.1278, -14.08, 97.4483, -51.5278, 44.0335
1.856, 2, 35.9151, 48.1278, -14.08, 97.4483, -51.5278, 44.0335
1.86, 2, 35.9151, 48.1278, -14.08, 97.4483, -51.5278, 44.0335
1.864, 2, 35.9151, 48.1278, -14.08, 97.4483, -51.5278, 44.0335
1.868, 2, 35.9151, 48.1278, -14.08, 97.4483, -51.5278, 44.0335
1.872, 2, 35.9151, 48.1278, -14.08, 97.4483, -51.5278, 44.0335
1.876, 2, 35.9151, 48.1278, -14.08, 97.4483, -51.5278, 44.0335
1.88, 2, 35.9151, 48.1278, -14.08, 97.4483, -51.5278, 44.0335
1.884, 2, 35.9151, 48.1278, -14.08, 97.4483, -51.5278, 44.0335
1.888, 2, 35.9151, 48.1278, -14.08, 97.4483, -51.5278, 44.0335
1.892, 2, 35.9151, 48.1278, -14.08, 97.4483, -51.5278, 44.0335
1.896, 2, 35.9151, 48.1278, -14.08, 97.4483, -51.5278, 44.0335
1.9, 2, 35.9151, 48.1278, -14.08, 97.4483, -51.5278, 44.0335
1.904, 2, 35.9151, 48.1278, -14.08, 97.4483, -51.5278, 44.0335
1.908, 2, 35.9151, 48.1278, -14.08, 97.4483, -51.5278, 44.0335
1.912, 2, 35.9151, 48.1278, -14.08, 97.4483, -51.5278, 44.0335
1.916, 2, 35.9151, 48.1278, -14.08, 97.4483, -51.5278, 44.0335
1.92, 2, 35.9151, 48.1278, -14.08, 97.4483, -51.5278, 44.0335
1.924, 2, 35.9151, 48.1278, -14.08, 97.4483, -51.5278, 44.0335
1.928, 2, 35.9151, 48.1278, -14.08, 97.4483, -51.5278, 44.0335
1.932, 2, 35.9151, 48.1278, -14.08, 97.4483, -51.5278, 44.0335
1.936, 2, 35.9151, 48.1278, -14.08, 97.4483, -51.5278, 44.0335
1.94, 2, 35.9151, 48.1278, -14.08, 97.4483, -51.5278, 44.0335
1.944, 2, 35.9151, 48.1278, -14.08, 97.4483, -51.5278, 44.0335
1.948, 2, 35.9151, 48.1278, -14.08, 97.4483, -51.5278, 44.0335
1.952, 2, 35.9151, 48.1278, -14.08, 97.4483, -51.5278, 44.0335
1.956, 2, 35.9151, 48.1278, -14.08, 97.4483, -51.5278, 44.0335
1.96, 2, 35.9151, 48.1278, -14.08, 97.4483, -51.5278, 44.0335
1.964, 2, 35.9151, 48.1278, -14.08, 97.4483, -51.5278, 44.0335
1.968, 2, 35.9151, 48.1278, -14.08, 97.4483, -51.5278, 44.0335
1.972, 2, 35.9151, 48.1278, -14.08, 97.4483, -51.5278, 44.0335
1.976, 2, 35.9151, 48.1278, -14.08, 97.4483, -51.5278, 44.0335
1.98, 2, 35.9151, 48.1278, -14.08, 97.4483, -51.5278, 44.0335
1.984, 2, 35.9151, 48.1278, -14.08, 97.4483, -51.5278, 44.0335
1.988, 2, 35.9151, 48.1278, -14.08, 97.4483, -51.5278, 44.0335
1.992, 2, 35.9151, 48.1278, -14.08, 97.4483, -51.5278, 44.0335
1.996, 2, 35.9151, 48.1278, -14.08, 97.4483, -51.5278, 44.0335
1.999, 2, 35.9151, 48.1278, -14.08, 97.4483, -51.5278, 44.0335
2.004, 2, 35.9151, 48.1278, -14.08, 97.4483, -51.5278, 44.0335
2.008, 2, 35.9151, 48.1278, -14.08, 97.4483, -51.5278, 44.0335
2.012, 2, 35.9151, 48.1278, -14.08, 97.4483, -51.5278, 44.0335
2.015, 2, 35.9151, 48.1278, -14.08, 97.4483, -51.5278, 44.0335
2.019, 2, 35.9151, 48.1278, -14.08, 97.4483, -51.5278, 44.0335
2.024, 2, 35.9151, 48.1278, -14.08, 97.4483, -51.5278, 44.0335
2.028, 2, 35.9151, 48.1278, -14.08, 97.4483, -51.5278, 44.0335
2.031, 2, 35.9151, 48.1278, -14.08, 97.4483, -51.5278, 44.0335
2.036, 2, 35.9151, 48.1278, -14.08, 97.4483, -51.5278, 44.0335
2.04, 2, 35.9151, 48.1278, -14.08, 97.4483, -51.5278, 44.0335
2.044, 2, 35.9151, 48.1278, -14.08, 97.4483, -51.5278, 44.0335
2.048, 2, 35.9151, 48.1278, -14.08, 97.4483, -51.5278, 44.0335
2.051, 2, 35.9151, 48.1278, -14.08, 97.4483, -51.5278, 44.0335
2.055, 2, 35.9151, 48.1278, -14.08, 97.4483, -51.5278, 44.0335
2.06, 2, 35.9151, 48.1278, -14.08, 97.4483, -51.5278, 44.0335
2.064, 2, 35.9151, 48.1278, -14.08, 97.4483, -51.5278, 44.0335
2.068, 2, 35.9151, 48.1278, -14.08, 97.4483, -51.5278, 44.0335
2.071, 2, 35.9151, 48.1278, -14.08, 97.4483, -51.5278, 44.0335
2.076, 2, 35.9151, 48.1278, -14.08, 97.4483, -51.5278, 44.0335
2.08, 2, 35.9151, 48.1278, -14.08, 97.4483, -51.5278, 44.0335
2.084, 2, 35.9151, 48.1278, -14.08, 97.4483, -51.5278, 44.0335
2.087, 2, 35.9151, 48.1278, -14.08, 97.4483, -51.5278, 44.0335
2.092, 2, 35.9151, 48.1278, -14.08, 97.4483, -51.5278, 44.0335
2.096, 2, 35.9151, 48.1278, -14.08, 97.4483, -51.5278, 44.0335
2.1, 2, 35.9151, 48.1278, -14.08, 97.4483, -51.5278, 44.0335
2.104, 2, 35.9151, 48.1278, -14.08, 97.4483, -51.5278, 44.0335
2.107, 2, 35.9151, 48.1278, -14.08, 97.4483, -51.5278, 44.0335
2.111, 2, 35.9151, 48.1278, -14.08, 97.4483, -51.5278, 44.0335
2.116, 2, 35.9151, 48.1278, -14.08, 97.4483, -51.5278, 44.0335
2.12, 2, 35.9151, 48.1278, -14.08, 97.4483, -51.5278, 44.0335
2.124, 2, 35.9151, 48.1278, -14.08, 97.4483, -51.5278, 44.0335
2.127, 2, 35.9151, 48.1278, -14.08, 97.4483, -51.5278, 44.0335
2.132, 2, 35.9151, 48.1278, -14.08, 97.4483, -51.5278, 44.0335
2.136, 2, 35.9151, 48.1278, -14.08, 97.4483, -51.5278, 44.0335
2.14, 2, 35.9151, 48.1278, -14.08, 97.4483, -51.5278, 44.0335
2.143, 2, 35.9151, 48.1278, -14.08, 97.4483, -51.5278, 44.0335
2.148, 2, 35.9151, 48.1278, -14.08, 97.4483, -51.5278, 44.0335
2.152, 2, 35.9151, 48.1278, -14.08, 97.4483, -51.5278, 44.0335
2.156, 2, 35.9151, 48.1278, -14.08, 97.4483, -51.5278, 44.0335
2.16, 2, 35.9151, 48.1278, -14.08, 97.4483, -51.5278, 44.0335
2.163, 2, 35.9151, 48.1278, -14.08, 97.4483, -51.5278, 44.0335
2.168, 2, 35.9151, 48.1278, -14.08, 97.4483, -51.5278, 44.0335
2.172, 2, 35.9151, 48.1278, -14.08, 97.4483, -51.5278, 44.0335
2.176, 2, 35.9151, 48.1278, -14.08, 97.4483, -51.5278, 44.0335
2.179, 2, 35.9151, 48.1278, -14.08, 97.4483, -51.5278, 44.0335
2.184, 2, 35.9151, 48.1278, -14.08, 97.4483, -51.5278, 44.0335
2.188, 2, 35.9151, 48.1278, -14.08, 97.4483, -51.5278, 44.0335
2.192, 2, 35.9151, 48.1278, -14.08, 97.4483, -51.5278, 44.0335
2.196, 2, 35.9151, 48.1278, -14.08, 97.4483, -51.5278, 44.0335
2.199, 2, 35.9151, 48.1278, -14.08, 97.4483, -51.5278, 44.0335
2.204, 2, 35.9151, 48.1278, -14.08, 97.4483, -51.5278, 44.0335
2.208, 2, 35.9151, 48.1278, -14.08, 97.4483, -51.5278, 44.0335
2.212, 2, 35.9151, 48.1278, -14.08, 97.4483, -51.5278, 44.0335
2.216, 2, 35.9151, 48.1278, -14.08, 97.4483, -51.5278, 44.0335
2.219, 2, 35.9151, 48.1278, -14.08, 97.4483, -51.5278, 44.0335
2.224, 2, 35.9151, 48.1278, -14.08, 97.4483, -51.5278, 44.0335
2.228, 2, 35.9151, 48.1278, -14.08, 97.4483, -51.5278, 44.0335
2.232, 2, 35.9151, 48.1278, -14.08, 97.4483, -51.5278, 44.0335
2.235, 2, 35.9151, 48.1278, -14.08, 97.4483, -51.5278, 44.0335
2.24, 2, 35.9151, 48.1278, -14.08, 97.4483, -51.5278, 44.0335
2.244, 2, 35.9151, 48.1278, -14.08, 97.4483, -51.5278, 44.0335
2.248, 2, 35.9151, 48.1278, -14.08, 97.4483, -51.5278, 44.0335
2.252, 2, 35.9151, 48.1278, -14.08, 97.4483, -51.5278, 44.0335
2.255, 2, 35.9151, 48.1278, -14.08, 97.4483, -51.5278, 44.0335
2.259, 2, 35.9151, 48.1278, -14.08, 97.4483, -51.5278, 44.0335
2.264, 2, 35.9151, 48.1278, -14.08, 97.4483, -51.5278, 44.0335
2.268, 2, 35.9151, 48.1278, -14.08, 97.4483, -51.5278, 44.0335
2.272, 2, 35.9151, 48.1278, -14.08, 97.4483, -51.5278, 44.0335
2.275, 2, 35.9151, 48.1278, -14.08, 97.4483, -51.5278, 44.0335
2.28, 2, 35.9151, 48.1278, -14.08, 97.4483, -51.5278, 44.0335
2.284, 2, 35.9151, 48.1278, -14.08, 97.4483, -51.5278, 44.0335
2.288, 2, 35.9151, 48.1278, -14.08, 97.4483, -51.5278, 44.0335
2.291, 2, 35.9151, 48.1278, -14.08, 97.4483, -51.5278, 44.0335
2.296, 2, 35.9151, 48.1278, -14.08, 97.4483, -51.5278, 44.0335
2.3, 2, 35.9151, 48.1278, -14.08, 97.4483, -51.5278, 44.0335
2.304, 2, 35.9151, 48.1278, -14.08, 97.4483, -51.5278, 44.0335
2.308, 2, 35.9151, 48.1278, -14.08, 97.4483, -51.5278, 44.0335
2.311, 2, 35.9151, 48.1278, -14.08, 97.4483, -51.5278, 44.0335
2.316, 2, 35.9151, 48.1278, -14.08, 97.4483, -51.5278, 44.0335
2.32, 2, 35.9151, 48.1278, -14.08, 97.4483, -51.5278, 44.0335
2.324, 2, 35.9151, 48.1278, -14.08, 97.4483, -51.5278, 44.0335
2.328, 2, 35.9151, 48.1278, -14.08, 97.4483, -51.5278, 44.0335
2.331, 2, 35.9151, 48.1278, -14.08, 97.4483, -51.5278, 44.0335
2.336, 2, 35.9151, 48.1278, -14.08, 97.4483, -51.5278, 44.0335
2.34, 2, 35.9151, 48.1278, -14.08, 97.4483, -51.5278, 44.0335
2.344, 2, 35.9151, 48.1278, -14.08, 97.4483, -51.5278, 44.0335
2.347, 2, 35.9151, 48.1278, -14.08, 97.4483, -51.5278, 44.0335
2.352, 2, 35.9151, 48.1278, -14.08, 97.4483, -51.5278, 44.0335
2.356, 2, 35.9151, 48.1278, -14.08, 97.4483, -51.5278, 44.0335
2.36, 2, 35.9151, 48.1278, -14.08, 97.4483, -51.5278, 44.0335
2.364, 2, 35.9151, 48.1278, -14.08, 97.4483, -51.5278, 44.0335
2.367, 2, 35.9151, 48.1278, -14.08, 97.4483, -51.5278, 44.0335
2.372, 2, 35.9151, 48.1278, -14.08, 97.4483, -51.5278, 44.0335
2.376, 2, 35.9151, 48.1278, -14.08, 97.4483, -51.5278, 44.0335
2.38, 2, 35.9151, 48.1278, -14.08, 97.4483, -51.5278, 44.0335
2.383, 2, 35.9151, 48.1278, -14.08, 97.4483, -51.5278, 44.0335
2.388, 2, 35.9151, 48.1278, -14.08, 97.4483, -51.5278, 44.0335
2.392, 2, 35.9151, 48.1278, -14.08, 97.4483, -51.5278, 44.0335
2.396, 2, 35.9151, 48.1278, -14.08, 97.4483, -51.5278, 44.0335
2.4, 4, 35.9151, 48.1278, -14.08, 97.4483, -51.5278, 44.0335
2.403, 4, 35.9151, 48.1278, -14.08, 97.4483, -51.5278, 44.0335
2.408, 4, 35.9151, 48.1278, -14.08, 97.4483, -51.5278, 44.0335
2.412, 4, 35.9151, 48.1278, -14.08, 97.4483, -51.5278, 44.0335
2.416, 4, 35.9151, 48.1278, -14.08, 97.4483, -51.5278, 44.0335
2.42, 4, 35.9151, 48.1278, -14.08, 97.4483, -51.5278, 44.0335
2.423, 4, 35.9151, 48.1278, -14.08, 97.4483, -51.5278, 44.0335
2.428, 4, 35.9151, 48.1278, -14.08, 97.4483, -51.5278, 44.0335
2.432, 4, 35.9151, 48.1278, -14.08, 97.4483, -51.5278, 44.0335
2.436, 4, 35.9151, 48.1278, -14.08, 97.4483, -51.5278, 44.0335
2.439, 4, 35.9151, 48.1278, -14.08, 97.4483, -51.5278, 44.0335
2.444, 4, 35.9151, 48.1278, -14.08, 97.4483, -51.5278, 44.0335
2.448, 4, 35.9151, 48.1278, -14.08, 97.4483, -51.5278, 44.0335
2.452, 4, 35.9151, 48.1278, -14.08, 97.4483, -51.5278, 44.0335
2.456, 4, 35.9151, 48.1278, -14.08, 97.4483, -51.5278, 44.0335
2.459, 4, 35.9151, 48.1278, -14.08, 97.4483, -51.5278, 44.0335
2.464, 4, 35.9151, 48.1278, -14.08, 97.4483, -51.5278, 44.0335
2.468, 4, 35.9151, 48.1278, -14.08, 97.4483, -51.5278, 44.0335
2.472, 4, 35.9151, 48.1278, -14.08, 97.4483, -51.5278, 44.0335
2.476, 4, 35.9151, 48.1278, -14.08, 97.4483, -51.5278, 44.0335
2.479, 4, 35.9151, 48.1278, -14.08, 97.4483, -51.5278, 44.0335
2.484, 4, 35.9151, 48.1278, -14.08, 97.4483, -51.5278, 44.0335
2.488, 4, 35.9151, 48.1278, -14.08, 97.4483, -51.5278, 44.0335
2.492, 4, 35.9151, 48.1278, -14.08, 97.4483, -51.5278, 44.0335
2.495, 4, 35.9151, 48.1278, -14.08, 97.4483, -51.5278, 44.0335
2.5, 4, 35.9151, 48.1278, -14.08, 97.4483, -51.5278, 44.0335
2.506, 4, 35.9151, 48.1278, -14.08, 97.4483, -51.5278, 44.0335
2.508, 4, 35.9151, 48.1278, -14.08, 97.4483, -51.5278, 44.0335
2.512, 4, 35.9151, 48.1278, -14.08, 97.4483, -51.5278, 44.0335
2.515, 4, 35.9151, 48.1278, -14.08, 97.4483, -51.5278, 44.0335
2.52, 4, 35.9151, 48.1278, -14.08, 97.4483, -51.5278, 44.0335
2.524, 4, 35.9151, 48.1278, -14.08, 97.4483, -51.5278, 44.0335
2.528, 4, 35.9151, 48.1278, -14.08, 97.4483, -51.5278, 44.0335
2.531, 4, 35.9151, 48.1278, -14.08, 97.4483, -51.5278, 44.0335
2.536, 4, 35.9151, 48.1278, -14.08, 97.4483, -51.5278, 44.0335
2.54, 4, 35.9151, 48.128, -14.08, 97.4483, -51.5279, 44.0335
2.544, 4, 35.9149, 48.1283, -14.08, 97.4483, -51.5279, 44.0335
2.548, 4, 35.9147, 48.1291, -14.0801, 97.4483, -51.528, 44.0334
2.551, 4, 35.9142, 48.1303, -14.0802, 97.4483, -51.5284, 44.0332
2.556, 4, 35.9136, 48.1322, -14.0803, 97.4483, -51.5291, 44.0328
2.56, 4, 35.9128, 48.1348, -14.0805, 97.4484, -51.5305, 44.0319
2.564, 4, 35.9117, 48.1383, -14.0809, 97.4484, -51.5328, 44.0305
2.568, 4, 35.9104, 48.1428, -14.0814, 97.4485, -51.5366, 44.0282
2.571, 5, 35.9089, 48.1485, -14.0822, 97.4487, -51.5424, 44.0246
2.576, 5, 35.9071, 48.1556, -14.0833, 97.4489, -51.5508, 44.0195
2.58, 5, 35.9051, 48.1643, -14.0848, 97.4492, -51.5626, 44.0123
2.584, 5, 35.9029, 48.1749, -14.0868, 97.4495, -51.5788, 44.0025
2.587, 5, 35.9005, 48.1876, -14.0895, 97.45, -51.6001, 43.9895
2.592, 5, 35.8978, 48.2025, -14.0928, 97.4505, -51.6277, 43.9727
2.596, 5, 35.8948, 48.2197, -14.0969, 97.4512, -51.6627, 43.9515
2.6, 5, 35.8917, 48.2394, -14.102, 97.452, -51.7061, 43.9251
2.604, 5, 35.8884, 48.2618, -14.1081, 97.4528, -51.759, 43.8931
2.607, 5, 35.8848, 48.2869, -14.1153, 97.4538, -51.8225, 43.8547
2.612, 5, 35.8809, 48.3152, -14.1237, 97.4548, -51.8974, 43.8094
2.616, 5, 35.8767, 48.3467, -14.1333, 97.4559, -51.9847, 43.7568
2.62, 5, 35.8722, 48.3817, -14.1443, 97.4569, -52.0851, 43.6964
2.624, 5, 35.8673, 48.4204, -14.1566, 97.4579, -52.1994, 43.6279
2.627, 5, 35.862, 48.4628, -14.1702, 97.4587, -52.3281, 43.5509
2.632, 5, 35.8562, 48.5092, -14.1853, 97.4594, -52.4717, 43.4653
2.636, 5, 35.8499, 48.5597, -14.2017, 97.4597, -52.6306, 43.3708
2.64, 5, 35.843, 48.6145, -14.2194, 97.4596, -52.8051, 43.2674
2.643, 5, 35.8355, 48.6736, -14.2384, 97.4589, -52.9955, 43.155
2.648, 5, 35.8273, 48.7372, -14.2587, 97.4576, -53.202, 43.0335
2.652, 5, 35.8184, 48.8052, -14.2801, 97.4555, -53.4247, 42.9031
2.656, 5, 35.8088, 48.8775, -14.3026, 97.4524, -53.6636, 42.7638
2.66, 5, 35.7984, 48.9541, -14.326, 97.4482, -53.919, 42.6156
2.663, 5, 35.7872, 49.0348, -14.3503, 97.4428, -54.1906, 42.4587
2.668, 5, 35.7753, 49.1194, -14.3753, 97.4359, -54.4785, 42.2932
2.672, 5, 35.7625, 49.2079, -14.4009, 97.4274, -54.7824, 42.1195
2.676, 5, 35.749, 49.3, -14.427, 97.4172, -55.102, 41.9378
2.679, 5, 35.7346, 49.3954, -14.4532, 97.405, -55.4369, 41.7484
2.684, 5, 35.7195, 49.4939, -14.4796, 97.3908, -55.7867, 41.5518
2.688, 5, 35.7037, 49.5951, -14.5058, 97.3744, -56.1507, 41.3483
2.692, 5, 35.687, 49.6987, -14.5317, 97.3557, -56.528, 41.1386
2.696, 5, 35.6697, 49.8046, -14.5571, 97.3346, -56.9178, 40.9233
2.699, 5, 35.6515, 49.9126, -14.5818, 97.3111, -57.319, 40.703
2.704, 5, 35.6325, 50.0224, -14.6057, 97.285, -57.7305, 40.4784
2.708, 5, 35.6125, 50.1339, -14.6286, 97.2564, -58.151, 40.2503
2.712, 5, 35.5917, 50.2468, -14.6503, 97.2252, -58.5794, 40.0192
2.716, 5, 35.5699, 50.3608, -14.6707, 97.1915, -59.0145, 39.786
2.719, 5, 35.5472, 50.4755, -14.6897, 97.1553, -59.4552, 39.5512
2.724, 5, 35.5235, 50.5907, -14.7071, 97.1166, -59.9003, 39.3155
2.728, 5, 35.4989, 50.7063, -14.7228, 97.0754, -60.349, 39.0792
2.732, 5, 35.4734, 50.8221, -14.7368, 97.0319, -60.8004, 38.843
2.735, 5, 35.4469, 50.9381, -14.749, 96.986, -61.2536, 38.6072
2.74, 5, 35.4194, 51.0541, -14.7594, 96.9379, -61.7082, 38.372
2.744, 5, 35.3911, 51.17, -14.7678, 96.8876, -62.1634, 38.1378
2.748, 5, 35.3619, 51.2853, -14.7742, 96.8351, -62.6191, 37.9047
2.752, 5, 35.3322, 51.3998, -14.7787, 96.7806, -63.0747, 37.6729
2.755, 5, 35.3019, 51.5129, -14.7811, 96.724, -63.5301, 37.4424
2.76, 5, 35.2713, 51.6244, -14.7815, 96.6656, -63.9847, 37.2135
2.764, 5, 35.2404, 51.7341, -14.7799, 96.6053, -64.4383, 36.9862
2.768, 5, 35.2093, 51.8418, -14.7763, 96.5433, -64.8902, 36.7608
2.772, 5, 35.1781, 51.9475, -14.7707, 96.4798, -65.3399, 36.5375
2.775, 5, 35.1472, 52.0508, -14.7632, 96.4149, -65.7868, 36.3166
2.78, 5, 35.1165, 52.1519, -14.7538, 96.3488, -66.2299, 36.0984
2.784, 5, 35.0862, 52.2503, -14.7427, 96.2817, -66.6685, 35.8833
2.788, 5, 35.0562, 52.346, -14.7298, 96.2138, -67.1015, 35.6718
2.791, 5, 35.0266, 52.4389, -14.7154, 96.1455, -67.528, 35.4642
2.796, 5, 34.9972, 52.5289, -14.6995, 96.0769, -67.9468, 35.2611
2.8, 5, 34.9679, 52.616, -14.6824, 96.0085, -68.3567, 35.0629
2.804, 5, 34.9387, 52.7002, -14.6641, 95.9404, -68.7566, 34.8701
2.808, 5, 34.9095, 52.7813, -14.6449, 95.8729, -69.1455, 34.6832
2.811, 5, 34.8805, 52.8594, -14.625, 95.8065, -69.5222, 34.5026
2.816, 5, 34.852, 52.9342, -14.6044, 95.7413, -69.8858, 34.3288
2.82, 5, 34.8239, 53.0055, -14.5835, 95.6777, -70.2354, 34.162
2.824, 5, 34.7966, 53.0734, -14.5624, 95.6159, -70.5701, 34.0028
2.828, 5, 34.7702, 53.1377, -14.5412, 95.5563, -70.8891, 33.8512
2.831, 5, 34.7447, 53.1983, -14.5203, 95.4989, -71.1919, 33.7078
2.836, 5, 34.7202, 53.2554, -14.4997, 95.4442, -71.4776, 33.5725
2.84, 5, 34.6967, 53.3089, -14.4797, 95.3922, -71.7459, 33.4458
2.844, 5, 34.6744, 53.3588, -14.4605, 95.3432, -71.9964, 33.3277
2.847, 5, 34.6531, 53.4054, -14.4421, 95.2974, -72.2286, 33.2183
2.852, 5, 34.633, 53.4486, -14.4247, 95.2548, -72.4425, 33.1176
2.856, 5, 34.614, 53.4886, -14.4084, 95.2155, -72.6382, 33.0257
2.86, 5, 34.5962, 53.5254, -14.3934, 95.1797, -72.8156, 32.9424
2.864, 5, 34.5796, 53.559, -14.3797, 95.1473, -72.9753, 32.8675
2.867, 5, 34.5642, 53.5897, -14.3672, 95.1182, -73.1175, 32.8009
2.872, 5, 34.5498, 53.6177, -14.3561, 95.0924, -73.243, 32.7421
2.876, 5, 34.5365, 53.643, -14.3464, 95.0698, -73.3525, 32.6909
2.88, 5, 34.5242, 53.6661, -14.3379, 95.0503, -73.4469, 32.6468
2.883, 5, 34.5128, 53.6869, -14.3308, 95.0336, -73.5272, 32.6092
2.888, 5, 34.5024, 53.7056, -14.3247, 95.0195, -73.5947, 32.5777
2.892, 5, 34.4929, 53.7224, -14.3197, 95.0078, -73.6506, 32.5516
2.896, 5, 34.4844, 53.7373, -14.3157, 94.9983, -73.6962, 32.5303
2.9, 5, 34.4768, 53.7505, -14.3125, 94.9906, -73.7329, 32.5132
2.903, 5, 34.4702, 53.7621, -14.31, 94.9845, -73.7619, 32.4997
2.908, 5, 34.4642, 53.7723, -14.3081, 94.9797, -73.7844, 32.4893
2.914, 5, 34.4542, 53.7888, -14.3056, 94.9735, -73.8142, 32.4754
2.916, 5, 34.4542, 53.7888, -14.3056, 94.9735, -73.8142, 32.4754
2.92, 5, 34.4501, 53.7951, -14.3049, 94.9715, -73.8234, 32.4711
2.923, 5, 34.4466, 53.8002, -14.3045, 94.9701, -73.83, 32.468
2.928, 5, 34.4437, 53.8042, -14.3041, 94.9692, -73.8346, 32.4659
2.932, 5, 34.4414, 53.8072, -14.3039, 94.9685, -73.8378, 32.4644
2.936, 5, 34.4398, 53.8093, -14.3038, 94.968, -73.84, 32.4634
2.939, 5, 34.4386, 53.8107, -14.3037, 94.9677, -73.8415, 32.4627
2.944, 5, 34.4377, 53.8117, -14.3036, 94.9675, -73.8424, 32.4622
2.948, 5, 34.4369, 53.8124, -14.3036, 94.9674, -73.8431, 32.4619
2.952, 5, 34.436, 53.813, -14.3035, 94.9672, -73.8436, 32.4617
2.956, 5, 34.4347, 53.8135, -14.3032, 94.967, -73.8441, 32.4616
2.959, 5, 34.4329, 53.8141, -14.3028, 94.9667, -73.8445, 32.4617
2.964, 5, 34.4305, 53.8148, -14.3019, 94.9661, -73.8452, 32.4619
2.968, 5, 34.4274, 53.8155, -14.3004, 94.965, -73.8463, 32.4624
2.972, 5, 34.4237, 53.8162, -14.2979, 94.9631, -73.8481, 32.4632
2.976, 6, 34.4193, 53.817, -14.2942, 94.9601, -73.8509, 32.4646
2.98, 6, 34.4141, 53.8178, -14.2885, 94.9555, -73.8551, 32.4668
2.984, 6, 34.4079, 53.8184, -14.2805, 94.9488, -73.8611, 32.47
2.988, 6, 34.4007, 53.8188, -14.2694, 94.9394, -73.8695, 32.4744
2.992, 6, 34.3921, 53.8188, -14.2544, 94.9267, -73.8809, 32.4805
2.995, 6, 34.3822, 53.8183, -14.2347, 94.9098, -73.896, 32.4885
3, 6, 34.3709, 53.8169, -14.2092, 94.8881, -73.9154, 32.4989
3.004, 6, 34.3582, 53.8146, -14.1771, 94.8606, -73.94, 32.5119
3.008, 6, 34.3439, 53.8109, -14.1375, 94.8265, -73.9704, 32.5281
3.012, 6, 34.3281, 53.8058, -14.0895, 94.7851, -74.0075, 32.5478
3.015, 6, 34.3105, 53.7989, -14.0326, 94.7356, -74.0518, 32.5712
3.02, 6, 34.2912, 53.7902, -13.966, 94.6774, -74.104, 32.5987
3.024, 6, 34.27, 53.7795, -13.8893, 94.6101, -74.1647, 32.6305
3.028, 6, 34.2469, 53.7667, -13.8023, 94.533, -74.2343, 32.6668
3.031, 6, 34.222, 53.7515, -13.7047, 94.4461, -74.3131, 32.7076
3.036, 6, 34.1954, 53.7339, -13.5964, 94.349, -74.4013, 32.7531
3.04, 6, 34.1672, 53.7139, -13.4774, 94.2419, -74.4991, 32.8031
3.044, 6, 34.1374, 53.6914, -13.3477, 94.1249, -74.6064, 32.8576
3.048, 6, 34.1061, 53.6665, -13.2077, 93.9985, -74.7229, 32.9162
3.051, 6, 34.0731, 53.6395, -13.0576, 93.8633, -74.8481, 32.9787
3.056, 6, 34.0385, 53.6105, -12.8979, 93.72, -74.9816, 33.0447
3.06, 6, 34.0023, 53.5796, -12.7295, 93.5694, -75.1226, 33.1137
3.064, 6, 33.965, 53.5471, -12.5534, 93.4125, -75.2704, 33.1852
3.068, 6, 33.9269, 53.5131, -12.3706, 93.2504, -75.424, 33.2588
3.071, 6, 33.8882, 53.4778, -12.1825, 93.0842, -75.5826, 33.3339
3.076, 6, 33.8491, 53.4414, -11.9903, 92.9149, -75.745, 33.41
3.08, 6, 33.8096, 53.4043, -11.7955, 92.7438, -75.9101, 33.4865
3.084, 6, 33.7697, 53.3668, -11.5994, 92.5722, -76.077, 33.5628
3.087, 6, 33.7291, 53.3293, -11.4032, 92.4011, -76.2444, 33.6384
3.092, 6, 33.6879, 53.2921, -11.2083, 92.2316, -76.4112, 33.7129
3.096, 6, 33.6462, 53.2555, -11.0157, 92.0649, -76.5765, 33.7857
3.1, 6, 33.6043, 53.2198, -10.8266, 91.9016, -76.7393, 33.8566
3.104, 6, 33.5626, 53.1851, -10.642, 91.7427, -76.8988, 33.9252
3.107, 6, 33.5214, 53.1515, -10.4628, 91.589, -77.0541, 33.9912
3.112, 6, 33.481, 53.1192, -10.2896, 91.4409, -77.2046, 34.0544
3.116, 6, 33.4417, 53.0882, -10.1234, 91.2991, -77.3495, 34.1146
3.12, 6, 33.4037, 53.0587, -9.96455, 91.164, -77.4883, 34.1716
3.124, 6, 33.367, 53.0308, -9.81371, 91.0361, -77.6204, 34.2253
3.128, 6, 33.3317, 53.0046, -9.67127, 90.9157, -77.7454, 34.2755
3.132, 6, 33.298, 52.9801, -9.53755, 90.8029, -77.863, 34.3223
3.136, 6, 33.266, 52.9575, -9.41279, 90.698, -77.973, 34.3657
3.14, 6, 33.2358, 52.9366, -9.29709, 90.601, -78.0751, 34.4056
3.143, 6, 33.2073, 52.9176, -9.1905, 90.5118, -78.1693, 34.4421
3.148, 6, 33.1806, 52.9004, -9.09297, 90.4305, -78.2556, 34.4753
3.152, 6, 33.1559, 52.8849, -9.00435, 90.3567, -78.3341, 34.5052
3.156, 6, 33.1331, 52.871, -8.92445, 90.2904, -78.405, 34.532
3.16, 6, 33.1121, 52.8588, -8.85298, 90.2312, -78.4683, 34.5559
3.163, 6, 33.0929, 52.848, -8.7896, 90.1789, -78.5246, 34.5769
3.168, 6, 33.0754, 52.8388, -8.73392, 90.1331, -78.5739, 34.5953
3.172, 6, 33.0595, 52.8309, -8.68548, 90.0934, -78.6169, 34.6112
3.176, 6, 33.045, 52.8242, -8.64377, 90.0593, -78.6538, 34.6248
3.179, 6, 33.032, 52.8188, -8.60825, 90.0304, -78.6851, 34.6363
3.184, 6, 33.0204, 52.8144, -8.57835, 90.0062, -78.7115, 34.6459
3.188, 6, 33.0102, 52.8108, -8.55349, 89.9861, -78.7333, 34.6539
3.192, 6, 33.0013, 52.808, -8.5331, 89.9697, -78.7512, 34.6603
3.196, 6, 32.9935, 52.8059, -8.51662, 89.9566, -78.7656, 34.6655
3.201, 6, 32.9868, 52.8043, -8.50351, 89.9462, -78.777, 34.6696
3.204, 6, 32.9807, 52.8032, -8.49326, 89.9381, -78.7859, 34.6728
3.208, 6, 32.9754, 52.8025, -8.4854, 89.932, -78.7926, 34.6752
3.212, 6, 32.9706, 52.8021, -8.4795, 89.9275, -78.7976, 34.677
3.216, 6, 32.9665, 52.8019, -8.47516, 89.9242, -78.8013, 34.6783
3.22, 6, 32.963, 52.8018, -8.47203, 89.9219, -78.8039, 34.6792
3.224, 6, 32.9601, 52.8018, -8.46982, 89.9203, -78.8057, 34.6799
3.228, 6, 32.9579, 52.8019, -8.46829, 89.9192, -78.8069, 34.6803
3.232, 6, 32.9562, 52.8019, -8.46723, 89.9184, -78.8078, 34.6806
3.235, 6, 32.9549, 52.8018, -8.46649, 89.9179, -78.8083, 34.6808
3.24, 6, 32.9536, 52.8017, -8.46591, 89.9175, -78.8088, 34.6809
3.244, 6, 32.952, 52.8015, -8.46537, 89.9172, -78.8091, 34.6811
3.248, 6, 32.9501, 52.801, -8.4647, 89.9169, -78.8094, 34.6812
3.252, 6, 32.9476, 52.8003, -8.46369, 89.9165, -78.8098, 34.6814
3.255, 6, 32.9445, 52.7991, -8.46209, 89.9157, -78.8104, 34.6818
3.26, 6, 32.9407, 52.7974, -8.45957, 89.9146, -78.8113, 34.6824
3.264, 6, 32.9363, 52.7948, -8.45573, 89.9127, -78.8126, 34.6833
3.268, 6, 32.9311, 52.7913, -8.45008, 89.91, -78.8146, 34.6847
3.272, 7, 32.925, 52.7865, -8.44205, 89.906, -78.8174, 34.6868
3.276, 7, 32.9177, 52.7801, -8.43098, 89.9004, -78.8212, 34.6896
3.28, 7, 32.9091, 52.7721, -8.41613, 89.8928, -78.8264, 34.6935
3.284, 7, 32.899, 52.7621, -8.39668, 89.8828, -78.8331, 34.6987
3.288, 7, 32.8874, 52.7499, -8.37179, 89.8698, -78.8419, 34.7053
3.291, 7, 32.8741, 52.7354, -8.34057, 89.8534, -78.8528, 34.7137
3.296, 7, 32.8591, 52.7183, -8.30213, 89.8331, -78.8663, 34.724
3.3, 7, 32.8423, 52.6984, -8.25562, 89.8084, -78.8827, 34.7366
3.304, 7, 32.8234, 52.6753, -8.2002, 89.7789, -78.9024, 34.7516
3.308, 7, 32.8024, 52.6487, -8.13512, 89.744, -78.9255, 34.7693
3.312, 7, 32.7791, 52.6185, -8.0597, 89.7036, -78.9523, 34.7898
3.316, 7, 32.7533, 52.5842, -7.97336, 89.6571, -78.9832, 34.8132
3.32, 7, 32.725, 52.5457, -7.87559, 89.6044, -79.0182, 34.8397
3.324, 7, 32.6939, 52.5028, -7.766, 89.5453, -79.0576, 34.8694
3.328, 7, 32.6599, 52.4553, -7.64428, 89.4794, -79.1015, 34.9022
3.332, 7, 32.623, 52.4032, -7.51022, 89.4068, -79.1502, 34.9383
3.336, 7, 32.5829, 52.3464, -7.3637, 89.3274, -79.2035, 34.9776
3.34, 7, 32.5396, 52.2847, -7.20465, 89.241, -79.2617, 35.0201
3.344, 7, 32.493, 52.2182, -7.03307, 89.1477, -79.3249, 35.0657
3.347, 7, 32.4431, 52.1469, -6.84903, 89.0475, -79.3929, 35.1144
3.352, 7, 32.3901, 52.071, -6.65273, 88.9405, -79.4659, 35.1661
3.356, 7, 32.3344, 51.9905, -6.44445, 88.8268, -79.5438, 35.2206
3.36, 7, 32.2762, 51.9058, -6.22461, 88.7066, -79.6266, 35.2778
3.364, 7, 32.2157, 51.8171, -5.99382, 88.5801, -79.714, 35.3375
3.368, 7, 32.1531, 51.7248, -5.75283, 88.4478, -79.8059, 35.3994
3.372, 7, 32.0886, 51.6293, -5.50259, 88.3102, -79.902, 35.4632
3.376, 7, 32.0225, 51.531, -5.2442, 88.1679, -80.0018, 35.5287
3.38, 7, 31.9549, 51.4303, -4.97887, 88.0215, -80.1051, 35.5953
3.383, 7, 31.8863, 51.3277, -4.70798, 87.8719, -80.2112, 35.6629
3.388, 7, 31.8168, 51.2236, -4.43295, 87.7197, -80.3197, 35.7309
3.392, 7, 31.7466, 51.1184, -4.15529, 87.5659, -80.4299, 35.7989
3.396, 7, 31.6757, 51.0124, -3.87651, 87.4113, -80.5413, 35.8666
3.4, 7, 31.6042, 50.9062, -3.59808, 87.2567, -80.6534, 35.9336
3.403, 7, 31.5319, 50.8002, -3.32143, 87.1029, -80.7654, 35.9996
3.408, 7, 31.4589, 50.6946, -3.04784, 86.9506, -80.8769, 36.0641
3.412, 7, 31.3852, 50.5901, -2.77849, 86.8007, -80.9874, 36.127
3.416, 7, 31.3113, 50.487, -2.51437, 86.6535, -81.0964, 36.188
3.42, 7, 31.2376, 50.3857, -2.25632, 86.5097, -81.2036, 36.247
3.424, 7, 31.1645, 50.2866, -2.00501, 86.3695, -81.3086, 36.3038
3.428, 7, 31.0925, 50.1899, -1.76098, 86.2332, -81.4112, 36.3584
3.432, 7, 31.022, 50.0959, -1.52464, 86.1011, -81.5111, 36.4107
3.436, 7, 30.9532, 50.0049, -1.29633, 85.9734, -81.6081, 36.4608
3.439, 7, 30.8864, 49.9169, -1.07632, 85.8501, -81.7022, 36.5085
3.444, 7, 30.8217, 49.8322, -0.864814, 85.7315, -81.7931, 36.554
3.448, 7, 30.7594, 49.7508, -0.662021, 85.6176, -81.8807, 36.5971
3.452, 7, 30.6997, 49.6729, -0.468126, 85.5086, -81.9649, 36.638
3.456, 7, 30.6425, 49.5985, -0.28331, 85.4045, -82.0455, 36.6767
3.46, 7, 30.5881, 49.5278, -0.107758, 85.3056, -82.1224, 36.7131
3.464, 7, 30.5364, 49.4608, 0.058348, 85.2119, -82.1954, 36.7472
3.468, 7, 30.4875, 49.3975, 0.214834, 85.1235, -82.2645, 36.7792
3.472, 7, 30.4414, 49.3381, 0.361548, 85.0406, -82.3296, 36.8089
3.476, 7, 30.398, 49.2825, 0.498378, 84.9633, -82.3904, 36.8364
3.48, 7, 30.3572, 49.2307, 0.625253, 84.8915, -82.4469, 36.8617
3.484, 7, 30.3192, 49.1828, 0.742165, 84.8254, -82.4992, 36.8849
3.488, 7, 30.2837, 49.1387, 0.849174, 84.7649, -82.5471, 36.9059
3.492, 7, 30.2509, 49.0983, 0.946408, 84.71, -82.5907, 36.9249
3.495, 7, 30.2206, 49.0617, 1.03407, 84.6604, -82.6301, 36.942
3.5, 7, 30.193, 49.0287, 1.11245, 84.6162, -82.6654, 36.9571
3.504, 7, 30.1677, 48.9991, 1.1819, 84.5771, -82.6967, 36.9704
3.508, 7, 30.1447, 48.9729, 1.24285, 84.5428, -82.7242, 36.9821
3.512, 7, 30.124, 48.9497, 1.29579, 84.5131, -82.7481, 36.9921
3.516, 7, 30.1052, 48.9295, 1.3413, 84.4876, -82.7686, 37.0007
3.52, 7, 30.0885, 48.912, 1.37997, 84.466, -82.7861, 37.0079
3.524, 7, 30.0737, 48.897, 1.41243, 84.448, -82.8007, 37.0139
3.528, 7, 30.0608, 48.8843, 1.43934, 84.4331, -82.8128, 37.0189
3.531, 7, 30.0496, 48.8737, 1.46134, 84.421, -82.8227, 37.0229
3.536, 7, 30.04, 48.865, 1.47907, 84.4113, -82.8307, 37.0261
3.54, 7, 30.0317, 48.8578, 1.49313, 84.4036, -82.837, 37.0287
3.544, 7, 30.0245, 48.852, 1.50408, 84.3977, -82.8419, 37.0306
3.548, 7, 30.0182, 48.8474, 1.51246, 84.3933, -82.8456, 37.0321
3.552, 7, 30.0127, 48.8437, 1.51874, 84.39, -82.8484, 37.0332
3.556, 7, 30.008, 48.8408, 1.52334, 84.3876, -82.8504, 37.034
3.56, 8, 30.004, 48.8386, 1.52665, 84.3859, -82.8518, 37.0346
3.564, 8, 30.0009, 48.837, 1.52898, 84.3847, -82.8528, 37.0349
3.568, 8, 29.9985, 48.8359, 1.5306, 84.3839, -82.8535, 37.0352
3.572, 8, 29.9967, 48.835, 1.53171, 84.3834, -82.854, 37.0354
3.576, 8, 29.9955, 48.8345, 1.53246, 84.383, -82.8543, 37.0355
3.58, 8, 29.9947, 48.8341, 1.53297, 84.3828, -82.8546, 37.0356
3.584, 8, 29.9941, 48.8338, 1.53332, 84.3826, -82.8547, 37.0356
3.587, 8, 29.9937, 48.8337, 1.53355, 84.3825, -82.8548, 37.0357
3.592, 8, 29.9935, 48.8335, 1.53371, 84.3824, -82.8549, 37.0357
3.596, 8, 29.9933, 48.8335, 1.53382, 84.3824, -82.8549, 37.0357
3.6, 8, 29.9932, 48.8334, 1.53389, 84.3823, -82.855, 37.0357
3.604, 8, 29.9931, 48.8334, 1.53394, 84.3823, -82.855, 37.0357
3.608, 8, 29.9931, 48.8334, 1.53397, 84.3823, -82.855, 37.0357
3.612, 8, 29.993, 48.8333, 1.534, 84.3823, -82.855, 37.0358
3.616, 8, 29.993, 48.8333, 1.53401, 84.3823, -82.855, 37.0358
3.62, 8, 29.993, 48.8333, 1.53402, 84.3822, -82.855, 37.0358
3.624, 8, 29.993, 48.8333, 1.53403, 84.3822, -82.855, 37.0358
3.628, 8, 29.993, 48.8333, 1.53403, 84.3822, -82.855, 37.0358
3.632, 8, 29.993, 48.8333, 1.53404, 84.3822, -82.855, 37.0358
3.636, 8, 29.993, 48.8333, 1.53404, 84.3822, -82.855, 37.0358
3.64, 8, 29.993, 48.8333, 1.53404, 84.3822, -82.855, 37.0358
3.644, 8, 29.9929, 48.8333, 1.53404, 84.3822, -82.855, 37.0358
3.648, 8, 29.9929, 48.8333, 1.53404, 84.3822, -82.855, 37.0358
3.652, 8, 29.9929, 48.8333, 1.53404, 84.3822, -82.855, 37.0358
3.656, 8, 29.9929, 48.8333, 1.53404, 84.3822, -82.855, 37.0358
3.66, 8, 29.9929, 48.8333, 1.53404, 84.3822, -82.855, 37.0358
3.664, 8, 29.9929, 48.8333, 1.53404, 84.3822, -82.855, 37.0358
3.668, 8, 29.9929, 48.8333, 1.53404, 84.3822, -82.855, 37.0358
3.672, 8, 29.9929, 48.8333, 1.53404, 84.3822, -82.855, 37.0358
3.676, 8, 29.9929, 48.8333, 1.53404, 84.3822, -82.855, 37.0358
