hehonglu123/ABB_Primitive_Study/execution/blade/curve_exe_v50_z10.csv
timestamp, cmd_num, J1, J2, J3, J4, J5, J6
0, -1, 29.9929, 48.8333, 1.53404, 84.3822, -82.855, 37.0358
0.002, -1, 29.9929, 48.8333, 1.53404, 84.3822, -82.855, 37.0358
0.006, -1, 29.9929, 48.8333, 1.53404, 84.3822, -82.855, 37.0358
0.008, -1, 29.9929, 48.8333, 1.53404, 84.3822, -82.855, 37.0358
0.011, -1, 29.9929, 48.8333, 1.53404, 84.3822, -82.855, 37.0358
0.016, -1, 29.9929, 48.8333, 1.53404, 84.3822, -82.855, 37.0358
0.02, -1, 29.9929, 48.8333, 1.53404, 84.3822, -82.855, 37.0358
0.024, -1, 29.9929, 48.8333, 1.53404, 84.3822, -82.855, 37.0358
0.028, -1, 29.9929, 48.8333, 1.53404, 84.3822, -82.855, 37.0358
0.032, -1, 29.993, 48.8333, 1.53404, 84.3822, -82.855, 37.0358
0.036, -1, 29.993, 48.8333, 1.53404, 84.3822, -82.855, 37.0358
0.04, -1, 29.9933, 48.8332, 1.53402, 84.3822, -82.855, 37.0358
0.044, -1, 29.9938, 48.833, 1.53395, 84.3823, -82.8549, 37.0358
0.048, -1, 29.9948, 48.8325, 1.53379, 84.3823, -82.8548, 37.0358
0.052, -1, 29.9964, 48.8318, 1.53345, 84.3825, -82.8543, 37.0359
0.056, -1, 29.9986, 48.8306, 1.53283, 84.3829, -82.8534, 37.0361
0.06, -1, 30.0015, 48.8289, 1.53176, 84.3835, -82.8518, 37.0365
0.064, -1, 30.005, 48.8267, 1.53002, 84.3847, -82.8489, 37.0371
0.068, -1, 30.0092, 48.824, 1.52738, 84.3866, -82.8443, 37.0381
0.072, -1, 30.0141, 48.821, 1.52352, 84.3895, -82.8373, 37.0397
0.076, -1, 30.0196, 48.8176, 1.51811, 84.3936, -82.8273, 37.0419
0.08, -1, 30.026, 48.814, 1.51078, 84.3993, -82.8136, 37.045
0.084, -1, 30.0333, 48.8103, 1.50113, 84.4069, -82.7952, 37.0491
0.088, -1, 30.0415, 48.8067, 1.48876, 84.4168, -82.7713, 37.0544
0.092, -1, 30.0505, 48.8033, 1.4733, 84.4294, -82.7411, 37.0611
0.096, -1, 30.0602, 48.8002, 1.45441, 84.4448, -82.7039, 37.0694
0.1, -1, 30.0707, 48.7976, 1.4318, 84.4635, -82.659, 37.0794
0.104, -1, 30.0817, 48.7956, 1.40529, 84.4856, -82.6061, 37.0913
0.108, -1, 30.0933, 48.7941, 1.37476, 84.5112, -82.5447, 37.1049
0.112, -1, 30.1055, 48.7932, 1.34022, 84.5402, -82.4751, 37.1205
0.116, -1, 30.1185, 48.7927, 1.30174, 84.5727, -82.3974, 37.1379
0.12, -1, 30.1323, 48.7927, 1.25953, 84.6083, -82.312, 37.1569
0.124, -1, 30.1469, 48.793, 1.21383, 84.6469, -82.2196, 37.1776
0.128, -1, 30.1623, 48.7937, 1.16497, 84.6882, -82.1206, 37.1997
0.131, -1, 30.1783, 48.7946, 1.11332, 84.7319, -82.016, 37.2231
0.136, -1, 30.1948, 48.7955, 1.05927, 84.7776, -81.9066, 37.2476
0.139, -1, 30.212, 48.7963, 1.00321, 84.825, -81.7932, 37.2729
0.144, -1, 30.2298, 48.7968, 0.945529, 84.8736, -81.6766, 37.299
0.148, -1, 30.2485, 48.7968, 0.886585, 84.9233, -81.5576, 37.3256
0.152, -1, 30.2681, 48.7963, 0.826699, 84.9737, -81.4368, 37.3525
0.156, -1, 30.2885, 48.7951, 0.766138, 85.0246, -81.3148, 37.3798
0.16, -1, 30.3097, 48.7935, 0.705122, 85.0758, -81.1921, 37.4072
0.164, -1, 30.3317, 48.7916, 0.643816, 85.1272, -81.0689, 37.4348
0.168, -1, 30.3541, 48.7893, 0.582346, 85.1787, -80.9454, 37.4623
0.172, -1, 30.3768, 48.7869, 0.520796, 85.2303, -80.8218, 37.49
0.176, -1, 30.3997, 48.7844, 0.459227, 85.2819, -80.6982, 37.5176
0.18, -1, 30.4228, 48.7818, 0.397677, 85.3334, -80.5746, 37.5452
0.184, -1, 30.446, 48.7791, 0.336173, 85.3849, -80.4512, 37.5727
0.188, -1, 30.4691, 48.7764, 0.274733, 85.4363, -80.3279, 37.6003
0.192, -1, 30.4923, 48.7737, 0.213369, 85.4876, -80.2048, 37.6278
0.196, -1, 30.5155, 48.771, 0.152089, 85.5389, -80.0818, 37.6552
0.2, -1, 30.5387, 48.7682, 0.0908988, 85.5901, -79.9591, 37.6827
0.204, -1, 30.5619, 48.7655, 0.0298009, 85.6413, -79.8365, 37.7101
0.208, -1, 30.585, 48.7627, -0.0312022, 85.6923, -79.7141, 37.7374
0.212, -1, 30.6081, 48.76, -0.0921092, 85.7433, -79.5919, 37.7647
0.216, -1, 30.6311, 48.7573, -0.152919, 85.7942, -79.4699, 37.7919
0.22, -1, 30.6542, 48.7545, -0.213632, 85.845, -79.3481, 37.8191
0.224, -1, 30.6772, 48.7518, -0.274248, 85.8957, -79.2264, 37.8463
0.228, -1, 30.7001, 48.749, -0.334767, 85.9463, -79.105, 37.8734
0.232, -1, 30.723, 48.7463, -0.395188, 85.9969, -78.9838, 37.9005
0.236, -1, 30.7459, 48.7436, -0.455513, 86.0474, -78.8628, 37.9276
0.24, -1, 30.7688, 48.7409, -0.515741, 86.0978, -78.7419, 37.9545
0.244, -1, 30.7916, 48.7381, -0.575873, 86.1481, -78.6213, 37.9815
0.248, -1, 30.8144, 48.7354, -0.635909, 86.1983, -78.5008, 38.0084
0.252, -1, 30.8371, 48.7327, -0.69585, 86.2485, -78.3806, 38.0353
0.256, -1, 30.8598, 48.73, -0.755696, 86.2986, -78.2605, 38.0621
0.26, -1, 30.8825, 48.7273, -0.815448, 86.3486, -78.1406, 38.0889
0.264, -1, 30.9051, 48.7246, -0.875105, 86.3985, -78.0209, 38.1156
0.268, -1, 30.9277, 48.7219, -0.934668, 86.4483, -77.9014, 38.1423
0.272, -1, 30.9503, 48.7192, -0.994138, 86.4981, -77.7821, 38.1689
0.276, -1, 30.9728, 48.7166, -1.05351, 86.5478, -77.663, 38.1955
0.28, -1, 30.9953, 48.7139, -1.1128, 86.5974, -77.5441, 38.2221
0.284, -1, 31.0177, 48.7112, -1.17199, 86.6469, -77.4253, 38.2486
0.288, -1, 31.0402, 48.7085, -1.23109, 86.6964, -77.3067, 38.2751
0.292, -1, 31.0625, 48.7059, -1.2901, 86.7458, -77.1883, 38.3016
0.296, -1, 31.0849, 48.7032, -1.34902, 86.7951, -77.0701, 38.328
0.3, -1, 31.1072, 48.7005, -1.40784, 86.8443, -76.9521, 38.3543
0.304, -1, 31.1295, 48.6979, -1.46658, 86.8934, -76.8343, 38.3807
0.308, -1, 31.1517, 48.6952, -1.52522, 86.9425, -76.7166, 38.407
0.312, -1, 31.174, 48.6926, -1.58378, 86.9915, -76.5991, 38.4332
0.316, -1, 31.1961, 48.6899, -1.64225, 87.0404, -76.4818, 38.4594
0.32, -1, 31.2183, 48.6873, -1.70063, 87.0893, -76.3647, 38.4856
0.324, -1, 31.2404, 48.6847, -1.75892, 87.1381, -76.2477, 38.5117
0.328, -1, 31.2625, 48.682, -1.81712, 87.1868, -76.131, 38.5378
0.332, -1, 31.2845, 48.6794, -1.87523, 87.2354, -76.0144, 38.5638
0.336, -1, 31.3065, 48.6768, -1.93326, 87.2839, -75.898, 38.5898
0.34, -1, 31.3285, 48.6742, -1.9912, 87.3324, -75.7817, 38.6158
0.344, -1, 31.3505, 48.6716, -2.04905, 87.3808, -75.6656, 38.6417
0.348, -1, 31.3724, 48.669, -2.10682, 87.4292, -75.5498, 38.6676
0.352, -1, 31.3943, 48.6664, -2.1645, 87.4774, -75.434, 38.6935
0.356, -1, 31.4161, 48.6637, -2.22209, 87.5256, -75.3185, 38.7193
0.36, -1, 31.4379, 48.6611, -2.2796, 87.5738, -75.2031, 38.745
0.364, -1, 31.4597, 48.6586, -2.33702, 87.6218, -75.0879, 38.7708
0.368, -1, 31.4815, 48.656, -2.39436, 87.6698, -74.9728, 38.7965
0.372, -1, 31.5032, 48.6534, -2.45162, 87.7177, -74.858, 38.8221
0.376, -1, 31.5249, 48.6508, -2.50879, 87.7655, -74.7433, 38.8477
0.38, -1, 31.5465, 48.6482, -2.56588, 87.8133, -74.6287, 38.8733
0.384, -1, 31.5682, 48.6456, -2.62288, 87.861, -74.5144, 38.8989
0.388, -1, 31.5898, 48.6431, -2.6798, 87.9086, -74.4002, 38.9244
0.392, -1, 31.6113, 48.6405, -2.73664, 87.9562, -74.2861, 38.9499
0.396, -1, 31.6329, 48.6379, -2.7934, 88.0037, -74.1723, 38.9753
0.4, -1, 31.6544, 48.6354, -2.85007, 88.0511, -74.0586, 39.0007
0.404, -1, 31.6758, 48.6328, -2.90666, 88.0985, -73.945, 39.0261
0.408, -1, 31.6973, 48.6303, -2.96317, 88.1458, -73.8316, 39.0514
0.412, -1, 31.7187, 48.6277, -3.0196, 88.193, -73.7184, 39.0767
0.416, -1, 31.74, 48.6252, -3.07595, 88.2401, -73.6054, 39.1019
0.42, -1, 31.7614, 48.6226, -3.13222, 88.2872, -73.4925, 39.1271
0.424, -1, 31.7827, 48.6201, -3.18841, 88.3342, -73.3798, 39.1523
0.428, -1, 31.804, 48.6175, -3.24451, 88.3812, -73.2672, 39.1775
0.432, -1, 31.8252, 48.615, -3.30054, 88.4281, -73.1548, 39.2026
0.436, -1, 31.8465, 48.6125, -3.35649, 88.4749, -73.0425, 39.2277
0.44, -1, 31.8677, 48.61, -3.41236, 88.5216, -72.9304, 39.2527
0.444, -1, 31.8888, 48.6074, -3.46815, 88.5683, -72.8185, 39.2777
0.448, -1, 31.91, 48.6049, -3.52387, 88.615, -72.7067, 39.3027
0.452, -1, 31.9311, 48.6024, -3.57951, 88.6615, -72.5951, 39.3276
0.456, -1, 31.9522, 48.5999, -3.63506, 88.708, -72.4836, 39.3525
0.46, -1, 31.9732, 48.5974, -3.69055, 88.7544, -72.3723, 39.3774
0.464, -1, 31.9942, 48.5949, -3.74595, 88.8008, -72.2611, 39.4022
0.468, -1, 32.0152, 48.5924, -3.80128, 88.8471, -72.1501, 39.427
0.472, -1, 32.0362, 48.5899, -3.85653, 88.8933, -72.0393, 39.4518
0.476, -1, 32.0571, 48.5874, -3.91171, 88.9395, -71.9286, 39.4765
0.48, -1, 32.078, 48.5849, -3.96681, 88.9856, -71.818, 39.5012
0.484, -1, 32.0989, 48.5824, -4.02184, 89.0317, -71.7076, 39.5258
0.488, -1, 32.1197, 48.5799, -4.07679, 89.0776, -71.5974, 39.5505
0.492, -1, 32.1406, 48.5774, -4.13167, 89.1236, -71.4873, 39.5751
0.496, -1, 32.1614, 48.575, -4.18647, 89.1694, -71.3773, 39.5996
0.5, -1, 32.1821, 48.5725, -4.2412, 89.2152, -71.2675, 39.6241
0.504, -1, 32.2028, 48.57, -4.29586, 89.261, -71.1579, 39.6486
0.508, -1, 32.2236, 48.5676, -4.35044, 89.3066, -71.0484, 39.6731
0.512, -1, 32.2442, 48.5651, -4.40495, 89.3522, -70.939, 39.6975
0.516, -1, 32.2649, 48.5626, -4.45939, 89.3978, -70.8298, 39.7219
0.52, -1, 32.2855, 48.5602, -4.51375, 89.4433, -70.7207, 39.7463
0.524, -1, 32.3061, 48.5577, -4.56805, 89.4887, -70.6118, 39.7706
0.528, -1, 32.3267, 48.5553, -4.62227, 89.5341, -70.503, 39.7949
0.532, -1, 32.3472, 48.5528, -4.67642, 89.5794, -70.3943, 39.8192
0.536, -1, 32.3677, 48.5504, -4.73049, 89.6247, -70.2858, 39.8434
0.54, -1, 32.3882, 48.5479, -4.7845, 89.6699, -70.1775, 39.8676
0.544, -1, 32.4087, 48.5455, -4.83844, 89.715, -70.0693, 39.8918
0.548, -1, 32.4291, 48.5431, -4.8923, 89.7601, -69.9612, 39.916
0.552, -1, 32.4495, 48.5406, -4.9461, 89.8051, -69.8533, 39.9401
0.556, -1, 32.4699, 48.5382, -4.99983, 89.85, -69.7455, 39.9641
0.56, -1, 32.4903, 48.5358, -5.05348, 89.8949, -69.6378, 39.9882
0.564, -1, 32.5106, 48.5334, -5.10707, 89.9398, -69.5303, 40.0122
0.568, -1, 32.5309, 48.5309, -5.16059, 89.9846, -69.4229, 40.0362
0.572, -1, 32.5512, 48.5285, -5.21404, 90.0293, -69.3157, 40.0601
0.576, -1, 32.5714, 48.5261, -5.26742, 90.074, -69.2086, 40.0841
0.58, -1, 32.5916, 48.5237, -5.32073, 90.1186, -69.1016, 40.108
0.584, -1, 32.6118, 48.5213, -5.37398, 90.1631, -68.9948, 40.1318
0.588, -1, 32.632, 48.5189, -5.42716, 90.2076, -68.8881, 40.1557
0.592, -1, 32.6522, 48.5165, -5.48026, 90.2521, -68.7816, 40.1795
0.596, -1, 32.6723, 48.5141, -5.53331, 90.2965, -68.6752, 40.2032
0.6, -1, 32.6924, 48.5117, -5.58628, 90.3408, -68.5689, 40.227
0.604, -1, 32.7125, 48.5093, -5.63919, 90.3851, -68.4627, 40.2507
0.608, -1, 32.7325, 48.5069, -5.69203, 90.4293, -68.3567, 40.2744
0.612, -1, 32.7525, 48.5045, -5.74481, 90.4734, -68.2508, 40.298
0.616, -1, 32.7725, 48.5021, -5.79752, 90.5175, -68.1451, 40.3216
0.62, -1, 32.7925, 48.4998, -5.85017, 90.5616, -68.0394, 40.3452
0.624, -1, 32.8124, 48.4974, -5.90275, 90.6056, -67.9339, 40.3688
0.628, -1, 32.8324, 48.495, -5.95526, 90.6495, -67.8286, 40.3923
0.632, -1, 32.8523, 48.4926, -6.00771, 90.6934, -67.7234, 40.4158
0.636, -1, 32.8721, 48.4903, -6.06009, 90.7373, -67.6182, 40.4393
0.64, -1, 32.892, 48.4879, -6.11241, 90.781, -67.5133, 40.4628
0.644, -1, 32.9118, 48.4856, -6.16467, 90.8248, -67.4084, 40.4862
0.648, -1, 32.9316, 48.4832, -6.21686, 90.8685, -67.3037, 40.5096
0.652, -1, 32.9514, 48.4808, -6.26899, 90.9121, -67.1991, 40.5329
0.656, -1, 32.9711, 48.4785, -6.32106, 90.9556, -67.0947, 40.5563
0.66, -1, 32.9908, 48.4761, -6.37306, 90.9991, -66.9903, 40.5796
0.664, -1, 33.0106, 48.4738, -6.425, 91.0426, -66.8861, 40.6028
0.668, -1, 33.0302, 48.4714, -6.47687, 91.086, -66.7821, 40.6261
0.672, -1, 33.0499, 48.4691, -6.52868, 91.1294, -66.6781, 40.6493
0.676, -1, 33.0695, 48.4668, -6.58043, 91.1727, -66.5743, 40.6725
0.68, -1, 33.0891, 48.4644, -6.63212, 91.2159, -66.4706, 40.6957
0.684, -1, 33.1087, 48.4621, -6.68375, 91.2591, -66.367, 40.7188
0.688, -1, 33.1283, 48.4598, -6.73531, 91.3023, -66.2635, 40.7419
0.692, -1, 33.1478, 48.4574, -6.78682, 91.3454, -66.1602, 40.765
0.696, -1, 33.1673, 48.4551, -6.83826, 91.3884, -66.057, 40.7881
0.7, -1, 33.1868, 48.4528, -6.88964, 91.4314, -65.9539, 40.8111
0.704, -1, 33.2063, 48.4505, -6.94096, 91.4744, -65.851, 40.8341
0.708, -1, 33.2257, 48.4482, -6.99222, 91.5173, -65.7481, 40.8571
0.712, -1, 33.2452, 48.4458, -7.04342, 91.5601, -65.6454, 40.88
0.716, -1, 33.2646, 48.4435, -7.09456, 91.6029, -65.5428, 40.9029
0.72, -1, 33.2839, 48.4412, -7.14564, 91.6457, -65.4403, 40.9258
0.724, -1, 33.3033, 48.4389, -7.19666, 91.6883, -65.3379, 40.9487
0.728, -1, 33.3226, 48.4366, -7.24762, 91.731, -65.2357, 40.9715
0.732, -1, 33.3419, 48.4343, -7.29852, 91.7736, -65.1336, 40.9943
0.736, -1, 33.3612, 48.432, -7.34936, 91.8161, -65.0316, 41.0171
0.74, -1, 33.3805, 48.4297, -7.40015, 91.8586, -64.9297, 41.0399
0.744, -1, 33.3997, 48.4274, -7.45087, 91.9011, -64.8279, 41.0626
0.748, -1, 33.4189, 48.4251, -7.50153, 91.9435, -64.7263, 41.0853
0.752, -1, 33.4381, 48.4228, -7.55214, 91.9858, -64.6247, 41.108
0.756, -1, 33.4573, 48.4206, -7.60269, 92.0281, -64.5233, 41.1306
0.76, -1, 33.4765, 48.4183, -7.65318, 92.0704, -64.422, 41.1533
0.764, -1, 33.4956, 48.416, -7.70362, 92.1126, -64.3208, 41.1759
0.768, -1, 33.5147, 48.4137, -7.75399, 92.1547, -64.2197, 41.1985
0.772, -1, 33.5338, 48.4115, -7.80431, 92.1968, -64.1188, 41.221
0.776, -1, 33.5529, 48.4092, -7.85457, 92.2389, -64.018, 41.2435
0.78, -1, 33.5719, 48.4069, -7.90478, 92.2809, -63.9172, 41.266
0.784, -1, 33.5909, 48.4046, -7.95493, 92.3229, -63.8166, 41.2885
0.788, -1, 33.6099, 48.4024, -8.00502, 92.3648, -63.7161, 41.311
0.792, -1, 33.6289, 48.4001, -8.05505, 92.4066, -63.6157, 41.3334
0.796, -1, 33.6479, 48.3979, -8.10503, 92.4485, -63.5154, 41.3558
0.8, -1, 33.6668, 48.3956, -8.15496, 92.4902, -63.4153, 41.3782
0.804, -1, 33.6857, 48.3934, -8.20482, 92.532, -63.3152, 41.4005
0.808, -1, 33.7046, 48.3911, -8.25464, 92.5737, -63.2153, 41.4228
0.812, -1, 33.7235, 48.3889, -8.30439, 92.6153, -63.1155, 41.4451
0.816, -1, 33.7424, 48.3866, -8.3541, 92.6569, -63.0158, 41.4674
0.82, -1, 33.7612, 48.3844, -8.40374, 92.6984, -62.9161, 41.4897
0.824, -1, 33.78, 48.3821, -8.45333, 92.7399, -62.8166, 41.5119
0.828, -1, 33.7988, 48.3799, -8.50287, 92.7814, -62.7173, 41.5341
0.832, -1, 33.8176, 48.3776, -8.55236, 92.8228, -62.618, 41.5563
0.836, -1, 33.8363, 48.3754, -8.60179, 92.8642, -62.5188, 41.5784
0.84, -1, 33.855, 48.3732, -8.65116, 92.9055, -62.4197, 41.6005
0.844, -1, 33.8738, 48.3709, -8.70049, 92.9467, -62.3208, 41.6226
0.848, -1, 33.8925, 48.3687, -8.74975, 92.988, -62.2219, 41.6447
0.852, -1, 33.9111, 48.3665, -8.79897, 93.0292, -62.1232, 41.6668
0.856, -1, 33.9298, 48.3643, -8.84813, 93.0703, -62.0246, 41.6888
0.86, -1, 33.9484, 48.3621, -8.89725, 93.1114, -61.926, 41.7108
0.864, -1, 33.967, 48.3598, -8.9463, 93.1524, -61.8276, 41.7328
0.868, -1, 33.9856, 48.3576, -8.99531, 93.1935, -61.7293, 41.7548
0.872, -1, 34.0042, 48.3554, -9.04426, 93.2344, -61.6311, 41.7767
0.876, -1, 34.0227, 48.3532, -9.09317, 93.2753, -61.5329, 41.7986
0.88, -1, 34.0413, 48.351, -9.14202, 93.3162, -61.4349, 41.8205
0.884, -1, 34.0598, 48.3488, -9.19082, 93.3571, -61.337, 41.8424
0.888, -1, 34.0783, 48.3466, -9.23956, 93.3979, -61.2392, 41.8642
0.892, -1, 34.0967, 48.3444, -9.28826, 93.4386, -61.1415, 41.8861
0.896, -1, 34.1152, 48.3422, -9.33691, 93.4793, -61.0439, 41.9079
0.9, -1, 34.1336, 48.34, -9.3855, 93.52, -60.9464, 41.9296
0.904, -1, 34.152, 48.3378, -9.43405, 93.5606, -60.849, 41.9514
0.908, -1, 34.1704, 48.3356, -9.48254, 93.6012, -60.7517, 41.9731
0.912, -1, 34.1888, 48.3334, -9.53098, 93.6417, -60.6545, 41.9948
0.916, -1, 34.2072, 48.3312, -9.57938, 93.6822, -60.5574, 42.0165
0.92, -1, 34.2255, 48.329, -9.62772, 93.7227, -60.4604, 42.0382
0.924, -1, 34.2438, 48.3269, -9.67601, 93.7631, -60.3636, 42.0598
0.928, -1, 34.2621, 48.3247, -9.72426, 93.8034, -60.2668, 42.0815
0.932, -1, 34.2804, 48.3225, -9.77246, 93.8438, -60.1701, 42.1031
0.936, -1, 34.2987, 48.3203, -9.8206, 93.8841, -60.0735, 42.1246
0.94, -1, 34.3169, 48.3182, -9.8687, 93.9243, -59.977, 42.1462
0.944, -1, 34.3351, 48.316, -9.91674, 93.9645, -59.8806, 42.1677
0.948, -1, 34.3534, 48.3138, -9.96474, 94.0047, -59.7843, 42.1892
0.952, -1, 34.3715, 48.3116, -10.0127, 94.0448, -59.6881, 42.2107
0.956, -1, 34.3897, 48.3095, -10.0606, 94.0849, -59.592, 42.2322
0.96, -1, 34.4079, 48.3073, -10.1085, 94.1249, -59.4959, 42.2536
0.964, -1, 34.426, 48.3052, -10.1563, 94.1649, -59.4, 42.2751
0.968, -1, 34.4441, 48.303, -10.204, 94.2049, -59.3042, 42.2965
0.972, -1, 34.4622, 48.3008, -10.2517, 94.2448, -59.2085, 42.3179
0.976, -1, 34.4803, 48.2987, -10.2994, 94.2847, -59.1129, 42.3392
0.98, -1, 34.4984, 48.2965, -10.347, 94.3246, -59.0173, 42.3606
0.984, -1, 34.5164, 48.2944, -10.3946, 94.3644, -58.9219, 42.3819
0.988, -1, 34.5344, 48.2922, -10.4421, 94.4041, -58.8266, 42.4032
0.992, -1, 34.5524, 48.2901, -10.4896, 94.4439, -58.7313, 42.4244
0.996, -1, 34.5704, 48.2879, -10.537, 94.4835, -58.6362, 42.4457
1, -1, 34.5884, 48.2858, -10.5844, 94.5232, -58.5411, 42.4669
1.004, -1, 34.6064, 48.2837, -10.6317, 94.5628, -58.4461, 42.4881
1.008, -1, 34.6243, 48.2815, -10.679, 94.6024, -58.3512, 42.5093
1.012, -1, 34.6422, 48.2794, -10.7262, 94.6419, -58.2565, 42.5305
1.016, -1, 34.6601, 48.2773, -10.7734, 94.6814, -58.1618, 42.5517
1.02, -1, 34.678, 48.2751, -10.8206, 94.7209, -58.0672, 42.5728
1.024, -1, 34.6959, 48.273, -10.8677, 94.7603, -57.9727, 42.5939
1.027, -1, 34.7137, 48.2709, -10.9147, 94.7996, -57.8783, 42.615
1.032, -1, 34.7316, 48.2687, -10.9618, 94.839, -57.7839, 42.6361
1.036, -1, 34.7494, 48.2666, -11.0087, 94.8783, -57.6897, 42.6571
1.04, -1, 34.7672, 48.2645, -11.0557, 94.9176, -57.5956, 42.6781
1.044, -1, 34.785, 48.2624, -11.1025, 94.9568, -57.5015, 42.6992
1.048, -1, 34.8027, 48.2603, -11.1494, 94.996, -57.4075, 42.7201
1.052, -1, 34.8205, 48.2582, -11.1962, 95.0351, -57.3137, 42.7411
1.055, -1, 34.8382, 48.256, -11.2429, 95.0742, -57.2199, 42.7621
1.06, -1, 34.8559, 48.2539, -11.2896, 95.1133, -57.1262, 42.783
1.064, -1, 34.8736, 48.2518, -11.3362, 95.1524, -57.0326, 42.8039
1.068, -1, 34.8913, 48.2497, -11.3829, 95.1914, -56.9391, 42.8248
1.072, -1, 34.909, 48.2476, -11.4294, 95.2303, -56.8456, 42.8457
1.076, -1, 34.9266, 48.2455, -11.4759, 95.2693, -56.7523, 42.8665
1.08, -1, 34.9442, 48.2434, -11.5224, 95.3082, -56.659, 42.8873
1.084, -1, 34.9618, 48.2413, -11.5689, 95.347, -56.5659, 42.9081
1.088, -1, 34.9795, 48.2392, -11.6153, 95.3858, -56.4728, 42.9289
1.091, -1, 34.997, 48.2371, -11.6616, 95.4246, -56.3798, 42.9497
1.096, -1, 35.0146, 48.235, -11.7079, 95.4634, -56.2869, 42.9705
1.1, -1, 35.0321, 48.2329, -11.7542, 95.5021, -56.1941, 42.9912
1.104, -1, 35.0497, 48.2309, -11.8004, 95.5408, -56.1014, 43.0119
1.108, -1, 35.0672, 48.2288, -11.8466, 95.5794, -56.0087, 43.0326
1.112, -1, 35.0847, 48.2267, -11.8927, 95.618, -55.9161, 43.0533
1.116, -1, 35.1022, 48.2246, -11.9388, 95.6566, -55.8237, 43.0739
1.119, -1, 35.1196, 48.2225, -11.9848, 95.6951, -55.7313, 43.0946
1.124, -1, 35.1371, 48.2204, -12.0309, 95.7336, -55.639, 43.1152
1.128, -1, 35.1545, 48.2184, -12.0768, 95.7721, -55.5468, 43.1358
1.132, -1, 35.172, 48.2163, -12.1227, 95.8105, -55.4546, 43.1564
1.136, -1, 35.1894, 48.2142, -12.1686, 95.8489, -55.3626, 43.1769
1.14, -1, 35.2067, 48.2121, -12.2145, 95.8873, -55.2706, 43.1975
1.144, -1, 35.2241, 48.2101, -12.2603, 95.9256, -55.1787, 43.218
1.147, -1, 35.2415, 48.208, -12.306, 95.9639, -55.0869, 43.2385
1.152, -1, 35.2588, 48.2059, -12.3517, 96.0021, -54.9952, 43.259
1.156, -1, 35.2761, 48.2039, -12.3974, 96.0404, -54.9035, 43.2795
1.16, -1, 35.2935, 48.2018, -12.443, 96.0785, -54.812, 43.2999
1.164, -1, 35.3108, 48.1997, -12.4886, 96.1167, -54.7205, 43.3204
1.168, -1, 35.328, 48.1977, -12.5342, 96.1548, -54.6291, 43.3408
1.172, -1, 35.3453, 48.1956, -12.5797, 96.1929, -54.5378, 43.3612
1.175, -1, 35.3625, 48.1936, -12.6252, 96.2309, -54.4466, 43.3816
1.18, -1, 35.3798, 48.1915, -12.6706, 96.269, -54.3554, 43.4019
1.184, -1, 35.397, 48.1895, -12.716, 96.3069, -54.2644, 43.4223
1.188, -1, 35.4142, 48.1874, -12.7614, 96.3449, -54.1734, 43.4426
1.192, -1, 35.4314, 48.1854, -12.8067, 96.3828, -54.0825, 43.4629
1.196, -1, 35.4486, 48.1833, -12.8519, 96.4207, -53.9916, 43.4832
1.2, -1, 35.4657, 48.1813, -12.8972, 96.4585, -53.9009, 43.5035
1.204, -1, 35.4829, 48.1792, -12.9424, 96.4964, -53.8102, 43.5237
1.208, -1, 35.5, 48.1772, -12.9875, 96.5341, -53.7196, 43.5439
1.212, -1, 35.5171, 48.1752, -13.0326, 96.5719, -53.6291, 43.5642
1.216, -1, 35.5342, 48.1731, -13.0777, 96.6096, -53.5387, 43.5844
1.22, -1, 35.5513, 48.1711, -13.1227, 96.6473, -53.4483, 43.6045
1.224, -1, 35.5684, 48.1691, -13.1677, 96.685, -53.358, 43.6247
1.228, -1, 35.5854, 48.167, -13.2127, 96.7226, -53.2678, 43.6449
1.232, -1, 35.6024, 48.165, -13.2576, 96.7602, -53.1777, 43.665
1.236, -1, 35.6193, 48.163, -13.3025, 96.7977, -53.0876, 43.6851
1.24, -1, 35.6361, 48.1611, -13.3473, 96.8352, -52.9977, 43.7052
1.244, -1, 35.6526, 48.1593, -13.3921, 96.8727, -52.9079, 43.7253
1.248, -1, 35.6687, 48.1576, -13.4368, 96.9101, -52.8182, 43.7453
1.252, -1, 35.6845, 48.1561, -13.4813, 96.9474, -52.7288, 43.7653
1.256, -1, 35.6998, 48.1549, -13.5257, 96.9846, -52.6398, 43.7852
1.26, -1, 35.7144, 48.154, -13.5697, 97.0214, -52.5514, 43.8049
1.264, -1, 35.7284, 48.1534, -13.6133, 97.058, -52.4638, 43.8245
1.267, -1, 35.7418, 48.1533, -13.6563, 97.094, -52.3775, 43.8438
1.272, -1, 35.7544, 48.1534, -13.6984, 97.1293, -52.293, 43.8627
1.276, -1, 35.7664, 48.1539, -13.7394, 97.1637, -52.2106, 43.8812
1.28, -1, 35.7778, 48.1545, -13.7789, 97.1969, -52.1312, 43.8989
1.284, -1, 35.7885, 48.1552, -13.8167, 97.2286, -52.0552, 43.9159
1.288, -1, 35.7988, 48.1559, -13.8524, 97.2586, -51.9835, 43.932
1.292, -1, 35.8086, 48.1563, -13.8858, 97.2866, -51.9165, 43.947
1.295, -1, 35.818, 48.1565, -13.9165, 97.3123, -51.8549, 43.9608
1.3, -1, 35.8271, 48.1563, -13.9443, 97.3356, -51.7991, 43.9733
1.304, -1, 35.8359, 48.1556, -13.9691, 97.3564, -51.7493, 43.9844
1.308, -1, 35.8444, 48.1544, -13.9909, 97.3746, -51.7057, 43.9941
1.312, -1, 35.8525, 48.1528, -14.0096, 97.3902, -51.6681, 44.0025
1.316, -1, 35.8603, 48.1509, -14.0254, 97.4034, -51.6365, 44.0096
1.32, -1, 35.8677, 48.1486, -14.0385, 97.4142, -51.6103, 44.0154
1.324, -1, 35.8747, 48.1461, -14.049, 97.423, -51.5893, 44.02
1.328, -1, 35.8814, 48.1434, -14.0573, 97.4298, -51.5727, 44.0237
1.332, -1, 35.8876, 48.1407, -14.0637, 97.4351, -51.56, 44.0265
1.336, -1, 35.8933, 48.1381, -14.0685, 97.439, -51.5505, 44.0286
1.34, -1, 35.8984, 48.1357, -14.072, 97.4419, -51.5436, 44.0301
1.344, 2, 35.9027, 48.1336, -14.0745, 97.4439, -51.5387, 44.0312
1.348, 2, 35.9062, 48.1319, -14.0763, 97.4453, -51.5352, 44.0319
1.352, 2, 35.9089, 48.1307, -14.0775, 97.4462, -51.5328, 44.0324
1.356, 2, 35.9109, 48.1297, -14.0783, 97.4469, -51.5312, 44.0328
1.36, 2, 35.9123, 48.1291, -14.0789, 97.4473, -51.5301, 44.033
1.364, 2, 35.9132, 48.1287, -14.0792, 97.4476, -51.5294, 44.0332
1.368, 2, 35.9138, 48.1284, -14.0795, 97.4479, -51.5289, 44.0333
1.372, 2, 35.9142, 48.1282, -14.0797, 97.448, -51.5286, 44.0334
1.376, 2, 35.9145, 48.1281, -14.0798, 97.4481, -51.5283, 44.0334
1.38, 2, 35.9147, 48.128, -14.0799, 97.4482, -51.5282, 44.0335
1.384, 2, 35.9149, 48.1279, -14.0799, 97.4482, -51.5281, 44.0335
1.388, 2, 35.9149, 48.1279, -14.0799, 97.4482, -51.528, 44.0335
1.392, 2, 35.915, 48.1278, -14.08, 97.4482, -51.5279, 44.0335
1.396, 2, 35.915, 48.1278, -14.08, 97.4483, -51.5279, 44.0335
1.4, 2, 35.9151, 48.1278, -14.08, 97.4483, -51.5279, 44.0335
1.404, 2, 35.9151, 48.1278, -14.08, 97.4483, -51.5279, 44.0335
1.408, 2, 35.9151, 48.1278, -14.08, 97.4483, -51.5279, 44.0335
1.412, 2, 35.9151, 48.1278, -14.08, 97.4483, -51.5279, 44.0335
1.416, 2, 35.9151, 48.1278, -14.08, 97.4483, -51.5279, 44.0335
1.42, 2, 35.9151, 48.1278, -14.08, 97.4483, -51.5278, 44.0335
1.424, 2, 35.9151, 48.1278, -14.08, 97.4483, -51.5278, 44.0335
1.428, 2, 35.9151, 48.1278, -14.08, 97.4483, -51.5278, 44.0335
1.432, 2, 35.9151, 48.1278, -14.08, 97.4483, -51.5278, 44.0335
1.436, 2, 35.9151, 48.1278, -14.08, 97.4483, -51.5278, 44.0335
1.44, 2, 35.9151, 48.1278, -14.08, 97.4483, -51.5278, 44.0335
1.444, 2, 35.9151, 48.1278, -14.08, 97.4483, -51.5278, 44.0335
1.448, 2, 35.9151, 48.1278, -14.08, 97.4483, -51.5278, 44.0335
1.452, 2, 35.9151, 48.1278, -14.08, 97.4483, -51.5278, 44.0335
1.456, 2, 35.9151, 48.1278, -14.08, 97.4483, -51.5278, 44.0335
1.46, 2, 35.9151, 48.1278, -14.08, 97.4483, -51.5278, 44.0335
1.464, 2, 35.9151, 48.1278, -14.08, 97.4483, -51.5278, 44.0335
1.468, 2, 35.9151, 48.1278, -14.08, 97.4483, -51.5278, 44.0335
1.472, 2, 35.9151, 48.1278, -14.08, 97.4483, -51.5278, 44.0335
1.476, 2, 35.9151, 48.1278, -14.08, 97.4483, -51.5278, 44.0335
1.48, 2, 35.9151, 48.1278, -14.08, 97.4483, -51.5278, 44.0335
1.484, 2, 35.9151, 48.1278, -14.08, 97.4483, -51.5278, 44.0335
1.488, 2, 35.9151, 48.1278, -14.08, 97.4483, -51.5278, 44.0335
1.492, 2, 35.9151, 48.1278, -14.08, 97.4483, -51.5278, 44.0335
1.496, 2, 35.9151, 48.1278, -14.08, 97.4483, -51.5278, 44.0335
1.5, 2, 35.9151, 48.1278, -14.08, 97.4483, -51.5278, 44.0335
1.504, 2, 35.9151, 48.1278, -14.08, 97.4483, -51.5278, 44.0335
1.508, 2, 35.9151, 48.1278, -14.08, 97.4483, -51.5278, 44.0335
1.512, 2, 35.9151, 48.1278, -14.08, 97.4483, -51.5278, 44.0335
1.516, 2, 35.9151, 48.1278, -14.08, 97.4483, -51.5278, 44.0335
1.52, 2, 35.9151, 48.1278, -14.08, 97.4483, -51.5278, 44.0335
1.524, 2, 35.9151, 48.1278, -14.08, 97.4483, -51.5278, 44.0335
1.528, 2, 35.9151, 48.1278, -14.08, 97.4483, -51.5278, 44.0335
1.532, 2, 35.9151, 48.1278, -14.08, 97.4483, -51.5278, 44.0335
1.536, 2, 35.9151, 48.1278, -14.08, 97.4483, -51.5278, 44.0335
1.54, 2, 35.9151, 48.1278, -14.08, 97.4483, -51.5278, 44.0335
1.544, 2, 35.9151, 48.1278, -14.08, 97.4483, -51.5278, 44.0335
1.548, 2, 35.9151, 48.1278, -14.08, 97.4483, -51.5278, 44.0335
1.552, 2, 35.9151, 48.1278, -14.08, 97.4483, -51.5278, 44.0335
1.556, 2, 35.9151, 48.1278, -14.08, 97.4483, -51.5278, 44.0335
1.56, 2, 35.9151, 48.1278, -14.08, 97.4483, -51.5278, 44.0335
1.564, 2, 35.9151, 48.1278, -14.08, 97.4483, -51.5278, 44.0335
1.568, 2, 35.9151, 48.1278, -14.08, 97.4483, -51.5278, 44.0335
1.572, 2, 35.9151, 48.1278, -14.08, 97.4483, -51.5278, 44.0335
1.576, 2, 35.9151, 48.1278, -14.08, 97.4483, -51.5278, 44.0335
1.58, 2, 35.9151, 48.1278, -14.08, 97.4483, -51.5278, 44.0335
1.584, 2, 35.9151, 48.1278, -14.08, 97.4483, -51.5278, 44.0335
1.588, 2, 35.9151, 48.1278, -14.08, 97.4483, -51.5278, 44.0335
1.592, 2, 35.9151, 48.1278, -14.08, 97.4483, -51.5278, 44.0335
1.596, 2, 35.9151, 48.1278, -14.08, 97.4483, -51.5278, 44.0335
1.6, 2, 35.9151, 48.1278, -14.08, 97.4483, -51.5278, 44.0335
1.604, 2, 35.9151, 48.1278, -14.08, 97.4483, -51.5278, 44.0335
1.608, 2, 35.9151, 48.1278, -14.08, 97.4483, -51.5278, 44.0335
1.612, 2, 35.9151, 48.1278, -14.08, 97.4483, -51.5278, 44.0335
1.616, 2, 35.9151, 48.1278, -14.08, 97.4483, -51.5278, 44.0335
1.62, 2, 35.9151, 48.1278, -14.08, 97.4483, -51.5278, 44.0335
1.624, 2, 35.9151, 48.1278, -14.08, 97.4483, -51.5278, 44.0335
1.628, 2, 35.9151, 48.1278, -14.08, 97.4483, -51.5278, 44.0335
1.632, 2, 35.9151, 48.1278, -14.08, 97.4483, -51.5278, 44.0335
1.636, 2, 35.9151, 48.1278, -14.08, 97.4483, -51.5278, 44.0335
1.64, 2, 35.9151, 48.1278, -14.08, 97.4483, -51.5278, 44.0335
1.644, 2, 35.9151, 48.1278, -14.08, 97.4483, -51.5278, 44.0335
1.648, 2, 35.9151, 48.1278, -14.08, 97.4483, -51.5278, 44.0335
1.652, 2, 35.9151, 48.1278, -14.08, 97.4483, -51.5278, 44.0335
1.656, 2, 35.9151, 48.1278, -14.08, 97.4483, -51.5278, 44.0335
1.66, 2, 35.9151, 48.1278, -14.08, 97.4483, -51.5278, 44.0335
1.664, 2, 35.9151, 48.1278, -14.08, 97.4483, -51.5278, 44.0335
1.668, 2, 35.9151, 48.1278, -14.08, 97.4483, -51.5278, 44.0335
1.672, 2, 35.9151, 48.1278, -14.08, 97.4483, -51.5278, 44.0335
1.676, 2, 35.9151, 48.1278, -14.08, 97.4483, -51.5278, 44.0335
1.68, 2, 35.9151, 48.1278, -14.08, 97.4483, -51.5278, 44.0335
1.684, 2, 35.9151, 48.1278, -14.08, 97.4483, -51.5278, 44.0335
1.688, 2, 35.9151, 48.1278, -14.08, 97.4483, -51.5278, 44.0335
1.692, 2, 35.9151, 48.1278, -14.08, 97.4483, -51.5278, 44.0335
1.696, 2, 35.9151, 48.1278, -14.08, 97.4483, -51.5278, 44.0335
1.7, 2, 35.9151, 48.1278, -14.08, 97.4483, -51.5278, 44.0335
1.704, 2, 35.9151, 48.1278, -14.08, 97.4483, -51.5278, 44.0335
1.708, 2, 35.9151, 48.1278, -14.08, 97.4483, -51.5278, 44.0335
1.712, 2, 35.9151, 48.1278, -14.08, 97.4483, -51.5278, 44.0335
1.716, 2, 35.9151, 48.1278, -14.08, 97.4483, -51.5278, 44.0335
1.72, 2, 35.9151, 48.1278, -14.08, 97.4483, -51.5278, 44.0335
1.724, 2, 35.9151, 48.1278, -14.08, 97.4483, -51.5278, 44.0335
1.728, 2, 35.9151, 48.1278, -14.08, 97.4483, -51.5278, 44.0335
1.732, 2, 35.9151, 48.1278, -14.08, 97.4483, -51.5278, 44.0335
1.736, 2, 35.9151, 48.1278, -14.08, 97.4483, -51.5278, 44.0335
1.74, 2, 35.9151, 48.1278, -14.08, 97.4483, -51.5278, 44.0335
1.744, 2, 35.9151, 48.1278, -14.08, 97.4483, -51.5278, 44.0335
1.748, 2, 35.9151, 48.1278, -14.08, 97.4483, -51.5278, 44.0335
1.752, 2, 35.9151, 48.1278, -14.08, 97.4483, -51.5278, 44.0335
1.756, 2, 35.9151, 48.1278, -14.08, 97.4483, -51.5278, 44.0335
1.76, 2, 35.9151, 48.1278, -14.08, 97.4483, -51.5278, 44.0335
1.764, 2, 35.9151, 48.1278, -14.08, 97.4483, -51.5278, 44.0335
1.768, 2, 35.9151, 48.1278, -14.08, 97.4483, -51.5278, 44.0335
1.772, 2, 35.9151, 48.1278, -14.08, 97.4483, -51.5278, 44.0335
1.776, 2, 35.9151, 48.1278, -14.08, 97.4483, -51.5278, 44.0335
1.78, 2, 35.9151, 48.1278, -14.08, 97.4483, -51.5278, 44.0335
1.784, 2, 35.9151, 48.1278, -14.08, 97.4483, -51.5278, 44.0335
1.788, 2, 35.9151, 48.1278, -14.08, 97.4483, -51.5278, 44.0335
1.792, 2, 35.9151, 48.1278, -14.08, 97.4483, -51.5278, 44.0335
1.796, 2, 35.9151, 48.1278, -14.08, 97.4483, -51.5278, 44.0335
1.8, 2, 35.9151, 48.1278, -14.08, 97.4483, -51.5278, 44.0335
1.804, 2, 35.9151, 48.1278, -14.08, 97.4483, -51.5278, 44.0335
1.808, 2, 35.9151, 48.1278, -14.08, 97.4483, -51.5278, 44.0335
1.812, 2, 35.9151, 48.1278, -14.08, 97.4483, -51.5278, 44.0335
1.816, 2, 35.9151, 48.1278, -14.08, 97.4483, -51.5278, 44.0335
1.82, 2, 35.9151, 48.1278, -14.08, 97.4483, -51.5278, 44.0335
1.824, 2, 35.9151, 48.1278, -14.08, 97.4483, -51.5278, 44.0335
1.828, 2, 35.9151, 48.1278, -14.08, 97.4483, -51.5278, 44.0335
1.832, 2, 35.9151, 48.1278, -14.08, 97.4483, -51.5278, 44.0335
1.836, 2, 35.9151, 48.1278, -14.08, 97.4483, -51.5278, 44.0335
1.84, 2, 35.9151, 48.1278, -14.08, 97.4483, -51.5278, 44.0335
1.844, 2, 35.9151, 48.1278, -14.08, 97.4483, -51.5278, 44.0335
1.848, 2, 35.9151, 48.1278, -14.08, 97.4483, -51.5278, 44.0335
1.852, 2, 35.9151, 48.1278, -14.08, 97.4483, -51.5278, 44.0335
1.856, 2, 35.9151, 48.1278, -14.08, 97.4483, -51.5278, 44.0335
1.86, 2, 35.9151, 48.1278, -14.08, 97.4483, -51.5278, 44.0335
1.864, 2, 35.9151, 48.1278, -14.08, 97.4483, -51.5278, 44.0335
1.868, 2, 35.9151, 48.1278, -14.08, 97.4483, -51.5278, 44.0335
1.872, 2, 35.9151, 48.1278, -14.08, 97.4483, -51.5278, 44.0335
1.876, 2, 35.9151, 48.1278, -14.08, 97.4483, -51.5278, 44.0335
1.88, 2, 35.9151, 48.1278, -14.08, 97.4483, -51.5278, 44.0335
1.884, 2, 35.9151, 48.1278, -14.08, 97.4483, -51.5278, 44.0335
1.888, 2, 35.9151, 48.1278, -14.08, 97.4483, -51.5278, 44.0335
1.892, 2, 35.9151, 48.1278, -14.08, 97.4483, -51.5278, 44.0335
1.896, 2, 35.9151, 48.1278, -14.08, 97.4483, -51.5278, 44.0335
1.9, 2, 35.9151, 48.1278, -14.08, 97.4483, -51.5278, 44.0335
1.904, 2, 35.9151, 48.1278, -14.08, 97.4483, -51.5278, 44.0335
1.908, 2, 35.9151, 48.1278, -14.08, 97.4483, -51.5278, 44.0335
1.912, 2, 35.9151, 48.1278, -14.08, 97.4483, -51.5278, 44.0335
1.916, 2, 35.9151, 48.1278, -14.08, 97.4483, -51.5278, 44.0335
1.92, 2, 35.9151, 48.1278, -14.08, 97.4483, -51.5278, 44.0335
1.924, 2, 35.9151, 48.1278, -14.08, 97.4483, -51.5278, 44.0335
1.928, 2, 35.9151, 48.1278, -14.08, 97.4483, -51.5278, 44.0335
1.932, 2, 35.9151, 48.1278, -14.08, 97.4483, -51.5278, 44.0335
1.936, 2, 35.9151, 48.1278, -14.08, 97.4483, -51.5278, 44.0335
1.94, 2, 35.9151, 48.1278, -14.08, 97.4483, -51.5278, 44.0335
1.944, 2, 35.9151, 48.1278, -14.08, 97.4483, -51.5278, 44.0335
1.948, 2, 35.9151, 48.1278, -14.08, 97.4483, -51.5278, 44.0335
1.952, 2, 35.9151, 48.1278, -14.08, 97.4483, -51.5278, 44.0335
1.956, 2, 35.9151, 48.1278, -14.08, 97.4483, -51.5278, 44.0335
1.96, 2, 35.9151, 48.1278, -14.08, 97.4483, -51.5278, 44.0335
1.964, 2, 35.9151, 48.1278, -14.08, 97.4483, -51.5278, 44.0335
1.968, 2, 35.9151, 48.1278, -14.08, 97.4483, -51.5278, 44.0335
1.972, 2, 35.9151, 48.1278, -14.08, 97.4483, -51.5278, 44.0335
1.976, 2, 35.9151, 48.1278, -14.08, 97.4483, -51.5278, 44.0335
1.98, 2, 35.9151, 48.1278, -14.08, 97.4483, -51.5278, 44.0335
1.984, 2, 35.9151, 48.1278, -14.08, 97.4483, -51.5278, 44.0335
1.988, 2, 35.9151, 48.1278, -14.08, 97.4483, -51.5278, 44.0335
1.992, 2, 35.9151, 48.1278, -14.08, 97.4483, -51.5278, 44.0335
1.996, 2, 35.9151, 48.1278, -14.08, 97.4483, -51.5278, 44.0335
1.999, 2, 35.9151, 48.1278, -14.08, 97.4483, -51.5278, 44.0335
2.004, 2, 35.9151, 48.1278, -14.08, 97.4483, -51.5278, 44.0335
2.008, 2, 35.9151, 48.1278, -14.08, 97.4483, -51.5278, 44.0335
2.012, 2, 35.9151, 48.1278, -14.08, 97.4483, -51.5278, 44.0335
2.015, 2, 35.9151, 48.1278, -14.08, 97.4483, -51.5278, 44.0335
2.019, 2, 35.9151, 48.1278, -14.08, 97.4483, -51.5278, 44.0335
2.024, 2, 35.9151, 48.1278, -14.08, 97.4483, -51.5278, 44.0335
2.028, 2, 35.9151, 48.1278, -14.08, 97.4483, -51.5278, 44.0335
2.031, 2, 35.9151, 48.1278, -14.08, 97.4483, -51.5278, 44.0335
2.036, 2, 35.9151, 48.1278, -14.08, 97.4483, -51.5278, 44.0335
2.04, 2, 35.9151, 48.1278, -14.08, 97.4483, -51.5278, 44.0335
2.044, 2, 35.9151, 48.1278, -14.08, 97.4483, -51.5278, 44.0335
2.048, 2, 35.9151, 48.1278, -14.08, 97.4483, -51.5278, 44.0335
2.051, 2, 35.9151, 48.1278, -14.08, 97.4483, -51.5278, 44.0335
2.055, 2, 35.9151, 48.1278, -14.08, 97.4483, -51.5278, 44.0335
2.06, 2, 35.9151, 48.1278, -14.08, 97.4483, -51.5278, 44.0335
2.064, 2, 35.9151, 48.1278, -14.08, 97.4483, -51.5278, 44.0335
2.068, 2, 35.9151, 48.1278, -14.08, 97.4483, -51.5278, 44.0335
2.071, 2, 35.9151, 48.1278, -14.08, 97.4483, -51.5278, 44.0335
2.076, 2, 35.9151, 48.1278, -14.08, 97.4483, -51.5278, 44.0335
2.08, 2, 35.9151, 48.1278, -14.08, 97.4483, -51.5278, 44.0335
2.084, 2, 35.9151, 48.1278, -14.08, 97.4483, -51.5278, 44.0335
2.087, 2, 35.9151, 48.1278, -14.08, 97.4483, -51.5278, 44.0335
2.092, 2, 35.9151, 48.1278, -14.08, 97.4483, -51.5278, 44.0335
2.096, 2, 35.9151, 48.1278, -14.08, 97.4483, -51.5278, 44.0335
2.1, 2, 35.9151, 48.1278, -14.08, 97.4483, -51.5278, 44.0335
2.104, 2, 35.9151, 48.1278, -14.08, 97.4483, -51.5278, 44.0335
2.107, 2, 35.9151, 48.1278, -14.08, 97.4483, -51.5278, 44.0335
2.111, 2, 35.9151, 48.1278, -14.08, 97.4483, -51.5278, 44.0335
2.116, 2, 35.9151, 48.1278, -14.08, 97.4483, -51.5278, 44.0335
2.12, 2, 35.9151, 48.1278, -14.08, 97.4483, -51.5278, 44.0335
2.124, 2, 35.9151, 48.1278, -14.08, 97.4483, -51.5278, 44.0335
2.127, 2, 35.9151, 48.1278, -14.08, 97.4483, -51.5278, 44.0335
2.132, 2, 35.9151, 48.1278, -14.08, 97.4483, -51.5278, 44.0335
2.136, 2, 35.9151, 48.1278, -14.08, 97.4483, -51.5278, 44.0335
2.14, 2, 35.9151, 48.1278, -14.08, 97.4483, -51.5278, 44.0335
2.143, 2, 35.9151, 48.1278, -14.08, 97.4483, -51.5278, 44.0335
2.148, 2, 35.9151, 48.1278, -14.08, 97.4483, -51.5278, 44.0335
2.152, 2, 35.9151, 48.1278, -14.08, 97.4483, -51.5278, 44.0335
2.156, 2, 35.9151, 48.1278, -14.08, 97.4483, -51.5278, 44.0335
2.16, 2, 35.9151, 48.1278, -14.08, 97.4483, -51.5278, 44.0335
2.163, 2, 35.9151, 48.1278, -14.08, 97.4483, -51.5278, 44.0335
2.168, 2, 35.9151, 48.1278, -14.08, 97.4483, -51.5278, 44.0335
2.172, 2, 35.9151, 48.1278, -14.08, 97.4483, -51.5278, 44.0335
2.176, 2, 35.9151, 48.1278, -14.08, 97.4483, -51.5278, 44.0335
2.179, 2, 35.9151, 48.1278, -14.08, 97.4483, -51.5278, 44.0335
2.184, 2, 35.9151, 48.1278, -14.08, 97.4483, -51.5278, 44.0335
2.188, 2, 35.9151, 48.1278, -14.08, 97.4483, -51.5278, 44.0335
2.192, 2, 35.9151, 48.1278, -14.08, 97.4483, -51.5278, 44.0335
2.196, 2, 35.9151, 48.1278, -14.08, 97.4483, -51.5278, 44.0335
2.199, 2, 35.9151, 48.1278, -14.08, 97.4483, -51.5278, 44.0335
2.204, 2, 35.9151, 48.1278, -14.08, 97.4483, -51.5278, 44.0335
2.208, 2, 35.9151, 48.1278, -14.08, 97.4483, -51.5278, 44.0335
2.212, 2, 35.9151, 48.1278, -14.08, 97.4483, -51.5278, 44.0335
2.216, 2, 35.9151, 48.1278, -14.08, 97.4483, -51.5278, 44.0335
2.219, 2, 35.9151, 48.1278, -14.08, 97.4483, -51.5278, 44.0335
2.224, 2, 35.9151, 48.1278, -14.08, 97.4483, -51.5278, 44.0335
2.228, 2, 35.9151, 48.1278, -14.08, 97.4483, -51.5278, 44.0335
2.232, 2, 35.9151, 48.1278, -14.08, 97.4483, -51.5278, 44.0335
2.235, 2, 35.9151, 48.1278, -14.08, 97.4483, -51.5278, 44.0335
2.24, 2, 35.9151, 48.1278, -14.08, 97.4483, -51.5278, 44.0335
2.244, 2, 35.9151, 48.1278, -14.08, 97.4483, -51.5278, 44.0335
2.248, 2, 35.9151, 48.1278, -14.08, 97.4483, -51.5278, 44.0335
2.252, 2, 35.9151, 48.1278, -14.08, 97.4483, -51.5278, 44.0335
2.255, 2, 35.9151, 48.1278, -14.08, 97.4483, -51.5278, 44.0335
2.259, 2, 35.9151, 48.1278, -14.08, 97.4483, -51.5278, 44.0335
2.264, 2, 35.9151, 48.1278, -14.08, 97.4483, -51.5278, 44.0335
2.268, 2, 35.9151, 48.1278, -14.08, 97.4483, -51.5278, 44.0335
2.272, 2, 35.9151, 48.1278, -14.08, 97.4483, -51.5278, 44.0335
2.275, 2, 35.9151, 48.1278, -14.08, 97.4483, -51.5278, 44.0335
2.28, 2, 35.9151, 48.1278, -14.08, 97.4483, -51.5278, 44.0335
2.284, 2, 35.9151, 48.1278, -14.08, 97.4483, -51.5278, 44.0335
2.288, 2, 35.9151, 48.1278, -14.08, 97.4483, -51.5278, 44.0335
2.291, 2, 35.9151, 48.1278, -14.08, 97.4483, -51.5278, 44.0335
2.296, 2, 35.9151, 48.1278, -14.08, 97.4483, -51.5278, 44.0335
2.3, 2, 35.9151, 48.1278, -14.08, 97.4483, -51.5278, 44.0335
2.304, 2, 35.9151, 48.1278, -14.08, 97.4483, -51.5278, 44.0335
2.308, 2, 35.9151, 48.1278, -14.08, 97.4483, -51.5278, 44.0335
2.311, 2, 35.9151, 48.1278, -14.08, 97.4483, -51.5278, 44.0335
2.316, 2, 35.9151, 48.1278, -14.08, 97.4483, -51.5278, 44.0335
2.32, 2, 35.9151, 48.1278, -14.08, 97.4483, -51.5278, 44.0335
2.324, 2, 35.9151, 48.1278, -14.08, 97.4483, -51.5278, 44.0335
2.328, 2, 35.9151, 48.1278, -14.08, 97.4483, -51.5278, 44.0335
2.331, 2, 35.9151, 48.1278, -14.08, 97.4483, -51.5278, 44.0335
2.336, 2, 35.9151, 48.1278, -14.08, 97.4483, -51.5278, 44.0335
2.34, 2, 35.9151, 48.1278, -14.08, 97.4483, -51.5278, 44.0335
2.344, 2, 35.9151, 48.1278, -14.08, 97.4483, -51.5278, 44.0335
2.347, 2, 35.9151, 48.1278, -14.08, 97.4483, -51.5278, 44.0335
2.352, 2, 35.9151, 48.1278, -14.08, 97.4483, -51.5278, 44.0335
2.356, 2, 35.9151, 48.1278, -14.08, 97.4483, -51.5278, 44.0335
2.36, 2, 35.9151, 48.1278, -14.08, 97.4483, -51.5278, 44.0335
2.364, 2, 35.9151, 48.1278, -14.08, 97.4483, -51.5278, 44.0335
2.367, 2, 35.9151, 48.1278, -14.08, 97.4483, -51.5278, 44.0335
2.372, 2, 35.9151, 48.1278, -14.08, 97.4483, -51.5278, 44.0335
2.376, 2, 35.9151, 48.1278, -14.08, 97.4483, -51.5278, 44.0335
2.38, 2, 35.9151, 48.1278, -14.08, 97.4483, -51.5278, 44.0335
2.383, 2, 35.9151, 48.1278, -14.08, 97.4483, -51.5278, 44.0335
2.388, 2, 35.9151, 48.1278, -14.08, 97.4483, -51.5278, 44.0335
2.392, 2, 35.9151, 48.1278, -14.08, 97.4483, -51.5278, 44.0335
2.396, 2, 35.9151, 48.1278, -14.08, 97.4483, -51.5278, 44.0335
2.4, 4, 35.9151, 48.1278, -14.08, 97.4483, -51.5278, 44.0335
2.403, 4, 35.9151, 48.1278, -14.08, 97.4483, -51.5278, 44.0335
2.408, 4, 35.9151, 48.1278, -14.08, 97.4483, -51.5278, 44.0335
2.412, 4, 35.9151, 48.1278, -14.08, 97.4483, -51.5278, 44.0335
2.416, 4, 35.9151, 48.1278, -14.08, 97.4483, -51.5278, 44.0335
2.42, 4, 35.9151, 48.1278, -14.08, 97.4483, -51.5278, 44.0335
2.423, 4, 35.9151, 48.1278, -14.08, 97.4483, -51.5278, 44.0335
2.428, 4, 35.9151, 48.1278, -14.08, 97.4483, -51.5278, 44.0335
2.432, 4, 35.9151, 48.1278, -14.08, 97.4483, -51.5278, 44.0335
2.436, 4, 35.9151, 48.1278, -14.08, 97.4483, -51.5278, 44.0335
2.439, 4, 35.9151, 48.1278, -14.08, 97.4483, -51.5278, 44.0335
2.444, 4, 35.9151, 48.1278, -14.08, 97.4483, -51.5278, 44.0335
2.448, 4, 35.9151, 48.1278, -14.08, 97.4483, -51.5278, 44.0335
2.452, 4, 35.9151, 48.1278, -14.08, 97.4483, -51.5278, 44.0335
2.456, 4, 35.9151, 48.1278, -14.08, 97.4483, -51.5278, 44.0335
2.459, 4, 35.9151, 48.1278, -14.08, 97.4483, -51.5278, 44.0335
2.464, 4, 35.9151, 48.1278, -14.08, 97.4483, -51.5278, 44.0335
2.468, 4, 35.9151, 48.1278, -14.08, 97.4483, -51.5278, 44.0335
2.472, 4, 35.9151, 48.1278, -14.08, 97.4483, -51.5278, 44.0335
2.476, 4, 35.9151, 48.1278, -14.08, 97.4483, -51.5278, 44.0335
2.479, 4, 35.9151, 48.1278, -14.08, 97.4483, -51.5278, 44.0335
2.484, 4, 35.9151, 48.1278, -14.08, 97.4483, -51.5278, 44.0335
2.488, 4, 35.9151, 48.1278, -14.08, 97.4483, -51.5278, 44.0335
2.492, 4, 35.9151, 48.1278, -14.08, 97.4483, -51.5278, 44.0335
2.495, 4, 35.9151, 48.1278, -14.08, 97.4483, -51.5278, 44.0335
2.5, 4, 35.9151, 48.1278, -14.08, 97.4483, -51.5278, 44.0335
2.506, 4, 35.9151, 48.1278, -14.08, 97.4483, -51.5278, 44.0335
2.508, 4, 35.9151, 48.1278, -14.08, 97.4483, -51.5278, 44.0335
2.512, 4, 35.9151, 48.1278, -14.08, 97.4483, -51.5278, 44.0335
2.515, 4, 35.9151, 48.1278, -14.08, 97.4483, -51.5278, 44.0335
2.52, 4, 35.9151, 48.1278, -14.08, 97.4483, -51.5278, 44.0335
2.524, 4, 35.9151, 48.1278, -14.08, 97.4483, -51.5278, 44.0335
2.528, 4, 35.9151, 48.1278, -14.08, 97.4483, -51.5278, 44.0335
2.531, 4, 35.9151, 48.1278, -14.08, 97.4483, -51.5278, 44.0335
2.536, 4, 35.9151, 48.1278, -14.08, 97.4483, -51.5278, 44.0335
2.54, 4, 35.9151, 48.1278, -14.08, 97.4483, -51.5278, 44.0335
2.544, 4, 35.9151, 48.1278, -14.08, 97.4483, -51.5278, 44.0335
2.548, 4, 35.9151, 48.1278, -14.08, 97.4483, -51.5278, 44.0335
2.551, 4, 35.9151, 48.128, -14.08, 97.4483, -51.5279, 44.0335
2.556, 4, 35.915, 48.1283, -14.08, 97.4483, -51.5279, 44.0335
2.56, 4, 35.9147, 48.1289, -14.0801, 97.4483, -51.528, 44.0334
2.564, 4, 35.9144, 48.1299, -14.0801, 97.4483, -51.5283, 44.0332
2.568, 4, 35.9141, 48.1311, -14.0802, 97.4483, -51.5289, 44.0329
2.571, 4, 35.9136, 48.1325, -14.0804, 97.4483, -51.5299, 44.0323
2.576, 4, 35.9132, 48.1341, -14.0806, 97.4484, -51.5315, 44.0313
2.58, 4, 35.9128, 48.1359, -14.0809, 97.4484, -51.5339, 44.0298
2.584, 4, 35.9124, 48.1377, -14.0813, 97.4485, -51.5371, 44.0279
2.587, 4, 35.912, 48.1396, -14.0818, 97.4486, -51.5414, 44.0252
2.592, 5, 35.9118, 48.1417, -14.0824, 97.4487, -51.5468, 44.022
2.596, 5, 35.9115, 48.144, -14.0832, 97.4489, -51.5533, 44.018
2.6, 5, 35.9112, 48.1465, -14.0841, 97.4491, -51.5611, 44.0132
2.604, 5, 35.9111, 48.1491, -14.0851, 97.4492, -51.57, 44.0078
2.607, 5, 35.9109, 48.1518, -14.0862, 97.4495, -51.5802, 44.0016
2.612, 5, 35.9109, 48.1546, -14.0875, 97.4497, -51.5914, 43.9947
2.616, 5, 35.9109, 48.1575, -14.0889, 97.45, -51.6036, 43.9873
2.62, 5, 35.9109, 48.1605, -14.0903, 97.4502, -51.6167, 43.9793
2.624, 5, 35.9109, 48.1637, -14.0919, 97.4505, -51.6305, 43.9709
2.627, 5, 35.9109, 48.1672, -14.0935, 97.4508, -51.6448, 43.9622
2.632, 5, 35.9107, 48.171, -14.0951, 97.4511, -51.6595, 43.9532
2.636, 5, 35.9105, 48.1751, -14.0968, 97.4514, -51.6744, 43.9441
2.64, 5, 35.9102, 48.1795, -14.0985, 97.4517, -51.6896, 43.9348
2.643, 5, 35.9099, 48.184, -14.1003, 97.452, -51.7049, 43.9255
2.648, 5, 35.9095, 48.1887, -14.102, 97.4523, -51.7203, 43.9161
2.652, 5, 35.9091, 48.1934, -14.1038, 97.4527, -51.7357, 43.9067
2.656, 5, 35.9087, 48.1981, -14.1055, 97.4529, -51.7512, 43.8973
2.66, 5, 35.9083, 48.203, -14.1073, 97.4532, -51.7667, 43.8879
2.663, 5, 35.9078, 48.2078, -14.109, 97.4535, -51.7822, 43.8784
2.668, 5, 35.9074, 48.2126, -14.1108, 97.4538, -51.7977, 43.869
2.672, 5, 35.9069, 48.2175, -14.1125, 97.4541, -51.8133, 43.8596
2.676, 5, 35.9065, 48.2224, -14.1143, 97.4544, -51.8288, 43.8501
2.679, 5, 35.9061, 48.2272, -14.116, 97.4547, -51.8444, 43.8407
2.684, 5, 35.9056, 48.2321, -14.1178, 97.455, -51.8599, 43.8312
2.688, 5, 35.9052, 48.237, -14.1195, 97.4552, -51.8755, 43.8218
2.692, 5, 35.9047, 48.2418, -14.1213, 97.4555, -51.891, 43.8123
2.696, 5, 35.9043, 48.2467, -14.123, 97.4558, -51.9066, 43.8029
2.699, 5, 35.9038, 48.2516, -14.1248, 97.456, -51.9221, 43.7935
2.704, 5, 35.9033, 48.2564, -14.1265, 97.4563, -51.9377, 43.784
2.708, 5, 35.9029, 48.2613, -14.1282, 97.4565, -51.9532, 43.7746
2.712, 5, 35.9024, 48.2662, -14.13, 97.4568, -51.9688, 43.7652
2.716, 5, 35.902, 48.271, -14.1317, 97.457, -51.9844, 43.7558
2.719, 5, 35.9015, 48.2759, -14.1334, 97.4573, -51.9999, 43.7463
2.724, 5, 35.9011, 48.2808, -14.1351, 97.4575, -52.0155, 43.7369
2.728, 5, 35.9006, 48.2856, -14.1369, 97.4578, -52.031, 43.7275
2.732, 5, 35.9001, 48.2905, -14.1386, 97.458, -52.0466, 43.7181
2.735, 5, 35.8997, 48.2954, -14.1403, 97.4582, -52.0621, 43.7087
2.74, 5, 35.8992, 48.3002, -14.142, 97.4584, -52.0777, 43.6993
2.744, 5, 35.8987, 48.3051, -14.1438, 97.4586, -52.0932, 43.6899
2.748, 5, 35.8983, 48.3099, -14.1455, 97.4589, -52.1088, 43.6805
2.752, 5, 35.8978, 48.3148, -14.1472, 97.4591, -52.1243, 43.6711
2.755, 5, 35.8973, 48.3197, -14.1489, 97.4593, -52.1399, 43.6617
2.76, 5, 35.8969, 48.3245, -14.1506, 97.4595, -52.1554, 43.6523
2.764, 5, 35.8964, 48.3294, -14.1523, 97.4597, -52.171, 43.643
2.768, 5, 35.8959, 48.3342, -14.154, 97.4599, -52.1865, 43.6336
2.772, 5, 35.8955, 48.3391, -14.1557, 97.4601, -52.2021, 43.6242
2.775, 5, 35.895, 48.3439, -14.1574, 97.4603, -52.2176, 43.6148
2.78, 5, 35.8945, 48.3488, -14.1591, 97.4605, -52.2332, 43.6055
2.784, 5, 35.8941, 48.3536, -14.1608, 97.4606, -52.2487, 43.5961
2.788, 5, 35.8936, 48.3585, -14.1625, 97.4608, -52.2643, 43.5867
2.791, 5, 35.8931, 48.3633, -14.1642, 97.461, -52.2798, 43.5774
2.796, 5, 35.8926, 48.3681, -14.1659, 97.4612, -52.2954, 43.568
2.8, 5, 35.8922, 48.373, -14.1676, 97.4613, -52.3109, 43.5587
2.804, 5, 35.8917, 48.3778, -14.1693, 97.4615, -52.3264, 43.5493
2.808, 5, 35.8912, 48.3827, -14.1709, 97.4617, -52.342, 43.54
2.811, 5, 35.8907, 48.3875, -14.1726, 97.4618, -52.3575, 43.5306
2.816, 5, 35.8903, 48.3923, -14.1743, 97.462, -52.3731, 43.5213
2.82, 5, 35.8898, 48.3972, -14.176, 97.4621, -52.3886, 43.5119
2.824, 5, 35.8893, 48.402, -14.1776, 97.4623, -52.4042, 43.5026
2.828, 5, 35.8888, 48.4068, -14.1793, 97.4624, -52.4197, 43.4933
2.831, 5, 35.8883, 48.4117, -14.181, 97.4625, -52.4353, 43.4839
2.836, 5, 35.8879, 48.4165, -14.1827, 97.4627, -52.4508, 43.4746
2.84, 5, 35.8874, 48.4213, -14.1843, 97.4628, -52.4663, 43.4653
2.844, 5, 35.8869, 48.4262, -14.186, 97.4629, -52.4819, 43.456
2.847, 5, 35.8864, 48.431, -14.1876, 97.4631, -52.4974, 43.4467
2.852, 5, 35.8859, 48.4358, -14.1893, 97.4632, -52.513, 43.4374
2.856, 5, 35.8854, 48.4406, -14.191, 97.4633, -52.5285, 43.4281
2.86, 5, 35.8849, 48.4455, -14.1926, 97.4634, -52.544, 43.4187
2.864, 5, 35.8845, 48.4503, -14.1943, 97.4635, -52.5596, 43.4094
2.867, 5, 35.884, 48.4551, -14.1959, 97.4636, -52.5751, 43.4001
2.872, 5, 35.8835, 48.4599, -14.1976, 97.4637, -52.5907, 43.3909
2.876, 5, 35.883, 48.4647, -14.1992, 97.4638, -52.6062, 43.3816
2.88, 5, 35.8825, 48.4696, -14.2009, 97.4639, -52.6217, 43.3723
2.883, 5, 35.882, 48.4744, -14.2025, 97.464, -52.6373, 43.363
2.888, 5, 35.8815, 48.4792, -14.2041, 97.4641, -52.6528, 43.3537
2.892, 5, 35.881, 48.484, -14.2058, 97.4642, -52.6683, 43.3444
2.896, 5, 35.8805, 48.4888, -14.2074, 97.4642, -52.6839, 43.3351
2.9, 5, 35.88, 48.4936, -14.209, 97.4643, -52.6994, 43.3259
2.903, 5, 35.8795, 48.4985, -14.2107, 97.4644, -52.7149, 43.3166
2.908, 5, 35.879, 48.5033, -14.2123, 97.4645, -52.7305, 43.3073
2.912, 5, 35.8785, 48.5081, -14.2139, 97.4645, -52.746, 43.2981
2.916, 5, 35.878, 48.5129, -14.2156, 97.4646, -52.7615, 43.2888
2.92, 5, 35.8775, 48.5177, -14.2172, 97.4646, -52.7771, 43.2796
2.923, 5, 35.877, 48.5225, -14.2188, 97.4647, -52.7926, 43.2703
2.928, 5, 35.8765, 48.5273, -14.2204, 97.4647, -52.8081, 43.2611
2.932, 5, 35.876, 48.5321, -14.222, 97.4648, -52.8237, 43.2518
2.936, 5, 35.8755, 48.5369, -14.2237, 97.4648, -52.8392, 43.2426
2.939, 5, 35.875, 48.5417, -14.2253, 97.4649, -52.8547, 43.2333
2.944, 5, 35.8745, 48.5465, -14.2269, 97.4649, -52.8703, 43.2241
2.948, 5, 35.874, 48.5513, -14.2285, 97.4649, -52.8858, 43.2148
2.952, 5, 35.8735, 48.5561, -14.2301, 97.465, -52.9013, 43.2056
2.956, 5, 35.873, 48.5609, -14.2317, 97.465, -52.9168, 43.1964
2.959, 5, 35.8725, 48.5657, -14.2333, 97.465, -52.9324, 43.1872
2.964, 5, 35.872, 48.5705, -14.2349, 97.465, -52.9479, 43.1779
2.968, 5, 35.8715, 48.5753, -14.2365, 97.465, -52.9634, 43.1687
2.972, 5, 35.871, 48.58, -14.2381, 97.465, -52.979, 43.1595
2.976, 5, 35.8705, 48.5848, -14.2397, 97.465, -52.9945, 43.1503
2.98, 5, 35.8699, 48.5896, -14.2413, 97.4651, -53.01, 43.1411
2.984, 5, 35.8694, 48.5944, -14.2429, 97.4651, -53.0255, 43.1319
2.988, 5, 35.8689, 48.5992, -14.2444, 97.465, -53.0411, 43.1227
2.992, 5, 35.8684, 48.604, -14.246, 97.465, -53.0566, 43.1135
2.995, 5, 35.8679, 48.6088, -14.2476, 97.465, -53.0721, 43.1043
3, 5, 35.8674, 48.6135, -14.2492, 97.465, -53.0876, 43.0951
3.004, 5, 35.8669, 48.6183, -14.2508, 97.465, -53.1032, 43.0859
3.008, 5, 35.8663, 48.6231, -14.2523, 97.465, -53.1187, 43.0767
3.012, 5, 35.8658, 48.6279, -14.2539, 97.4649, -53.1342, 43.0675
3.015, 5, 35.8653, 48.6326, -14.2555, 97.4649, -53.1497, 43.0583
3.02, 5, 35.8648, 48.6374, -14.2571, 97.4649, -53.1652, 43.0491
3.024, 5, 35.8643, 48.6422, -14.2586, 97.4648, -53.1808, 43.04
3.028, 5, 35.8638, 48.647, -14.2602, 97.4648, -53.1963, 43.0308
3.031, 5, 35.8632, 48.6517, -14.2617, 97.4648, -53.2118, 43.0216
3.036, 5, 35.8627, 48.6565, -14.2633, 97.4647, -53.2273, 43.0125
3.04, 5, 35.8622, 48.6613, -14.2649, 97.4647, -53.2429, 43.0033
3.044, 5, 35.8617, 48.666, -14.2664, 97.4646, -53.2584, 42.9941
3.048, 5, 35.8611, 48.6708, -14.268, 97.4645, -53.2739, 42.985
3.051, 5, 35.8606, 48.6756, -14.2695, 97.4645, -53.2894, 42.9758
3.056, 5, 35.8601, 48.6803, -14.2711, 97.4644, -53.3049, 42.9667
3.06, 5, 35.8595, 48.6851, -14.2726, 97.4643, -53.3204, 42.9575
3.064, 5, 35.859, 48.6899, -14.2742, 97.4643, -53.336, 42.9484
3.068, 5, 35.8585, 48.6946, -14.2757, 97.4642, -53.3515, 42.9392
3.071, 5, 35.858, 48.6994, -14.2772, 97.4641, -53.367, 42.9301
3.076, 5, 35.8574, 48.7041, -14.2788, 97.464, -53.3825, 42.921
3.08, 5, 35.8569, 48.7089, -14.2803, 97.4639, -53.398, 42.9118
3.084, 5, 35.8564, 48.7136, -14.2819, 97.4639, -53.4135, 42.9027
3.087, 5, 35.8558, 48.7184, -14.2834, 97.4638, -53.4291, 42.8936
3.092, 5, 35.8553, 48.7232, -14.2849, 97.4637, -53.4446, 42.8844
3.096, 5, 35.8548, 48.7279, -14.2864, 97.4636, -53.4601, 42.8753
3.1, 5, 35.8542, 48.7327, -14.288, 97.4635, -53.4756, 42.8662
3.104, 5, 35.8537, 48.7374, -14.2895, 97.4633, -53.4911, 42.8571
3.107, 5, 35.8531, 48.7421, -14.291, 97.4632, -53.5066, 42.848
3.112, 5, 35.8526, 48.7469, -14.2925, 97.4631, -53.5221, 42.8389
3.116, 5, 35.8521, 48.7516, -14.294, 97.463, -53.5376, 42.8298
3.12, 5, 35.8515, 48.7564, -14.2956, 97.4629, -53.5532, 42.8207
3.124, 5, 35.851, 48.7611, -14.2971, 97.4628, -53.5687, 42.8116
3.128, 5, 35.8504, 48.7659, -14.2986, 97.4626, -53.5842, 42.8025
3.132, 5, 35.8499, 48.7706, -14.3001, 97.4625, -53.5997, 42.7934
3.136, 5, 35.8494, 48.7753, -14.3016, 97.4623, -53.6152, 42.7843
3.14, 5, 35.8488, 48.7801, -14.3031, 97.4622, -53.6307, 42.7752
3.143, 5, 35.8483, 48.7848, -14.3046, 97.4621, -53.6462, 42.7661
3.148, 5, 35.8477, 48.7896, -14.3061, 97.4619, -53.6617, 42.757
3.152, 5, 35.8472, 48.7943, -14.3076, 97.4618, -53.6772, 42.748
3.156, 5, 35.8466, 48.799, -14.3091, 97.4616, -53.6927, 42.7389
3.16, 5, 35.8461, 48.8038, -14.3106, 97.4614, -53.7082, 42.7298
3.163, 5, 35.8455, 48.8085, -14.3121, 97.4613, -53.7237, 42.7207
3.168, 5, 35.845, 48.8132, -14.3136, 97.4611, -53.7393, 42.7117
3.172, 5, 35.8444, 48.8179, -14.315, 97.461, -53.7548, 42.7026
3.176, 5, 35.8439, 48.8227, -14.3165, 97.4608, -53.7703, 42.6936
3.179, 5, 35.8433, 48.8274, -14.318, 97.4606, -53.7858, 42.6845
3.184, 5, 35.8428, 48.8321, -14.3195, 97.4604, -53.8013, 42.6754
3.188, 5, 35.8422, 48.8368, -14.321, 97.4603, -53.8168, 42.6664
3.192, 5, 35.8417, 48.8416, -14.3224, 97.4601, -53.8323, 42.6573
3.196, 5, 35.8411, 48.8463, -14.3239, 97.4599, -53.8478, 42.6483
3.199, 5, 35.8406, 48.851, -14.3254, 97.4597, -53.8633, 42.6393
3.204, 5, 35.84, 48.8557, -14.3268, 97.4595, -53.8788, 42.6302
3.208, 5, 35.8394, 48.8604, -14.3283, 97.4593, -53.8943, 42.6212
3.212, 5, 35.8389, 48.8651, -14.3298, 97.4591, -53.9098, 42.6121
3.216, 5, 35.8383, 48.8699, -14.3312, 97.4589, -53.9253, 42.6031
3.22, 5, 35.8378, 48.8746, -14.3327, 97.4587, -53.9408, 42.5941
3.224, 5, 35.8372, 48.8793, -14.3342, 97.4585, -53.9563, 42.5851
3.228, 5, 35.8366, 48.884, -14.3356, 97.4582, -53.9718, 42.576
3.232, 5, 35.8361, 48.8887, -14.3371, 97.458, -53.9873, 42.567
3.235, 5, 35.8355, 48.8934, -14.3385, 97.4578, -54.0028, 42.558
3.24, 5, 35.8349, 48.8981, -14.34, 97.4576, -54.0183, 42.549
3.244, 5, 35.8344, 48.9028, -14.3414, 97.4573, -54.0338, 42.54
3.248, 5, 35.8338, 48.9075, -14.3429, 97.4571, -54.0493, 42.531
3.252, 5, 35.8332, 48.9122, -14.3443, 97.4569, -54.0648, 42.522
3.255, 5, 35.8327, 48.9169, -14.3457, 97.4566, -54.0803, 42.513
3.26, 5, 35.8321, 48.9216, -14.3472, 97.4564, -54.0957, 42.504
3.264, 5, 35.8315, 48.9263, -14.3486, 97.4561, -54.1112, 42.495
3.268, 5, 35.831, 48.931, -14.35, 97.4559, -54.1267, 42.486
3.272, 5, 35.8304, 48.9357, -14.3515, 97.4556, -54.1422, 42.477
3.276, 5, 35.8298, 48.9404, -14.3529, 97.4554, -54.1577, 42.468
3.28, 5, 35.8293, 48.9451, -14.3543, 97.4551, -54.1732, 42.459
3.284, 5, 35.8287, 48.9498, -14.3557, 97.4548, -54.1887, 42.4501
3.288, 5, 35.8281, 48.9545, -14.3572, 97.4546, -54.2042, 42.4411
3.291, 5, 35.8275, 48.9592, -14.3586, 97.4543, -54.2197, 42.4321
3.296, 5, 35.827, 48.9638, -14.36, 97.454, -54.2352, 42.4231
3.3, 5, 35.8264, 48.9685, -14.3614, 97.4537, -54.2507, 42.4142
3.304, 5, 35.8258, 48.9732, -14.3628, 97.4534, -54.2662, 42.4052
3.308, 5, 35.8252, 48.9779, -14.3642, 97.4532, -54.2817, 42.3962
3.312, 5, 35.8246, 48.9826, -14.3656, 97.4529, -54.2971, 42.3873
3.316, 5, 35.8241, 48.9873, -14.3671, 97.4526, -54.3126, 42.3783
3.32, 5, 35.8235, 48.9919, -14.3685, 97.4523, -54.3281, 42.3694
3.324, 5, 35.8229, 48.9966, -14.3699, 97.452, -54.3436, 42.3604
3.328, 5, 35.8223, 49.0013, -14.3713, 97.4517, -54.3591, 42.3515
3.332, 5, 35.8217, 49.006, -14.3727, 97.4514, -54.3746, 42.3425
3.336, 5, 35.8211, 49.0107, -14.3741, 97.4511, -54.3901, 42.3336
3.34, 5, 35.8206, 49.0153, -14.3754, 97.4508, -54.4056, 42.3246
3.344, 5, 35.82, 49.02, -14.3768, 97.4504, -54.421, 42.3157
3.347, 5, 35.8194, 49.0247, -14.3782, 97.4501, -54.4365, 42.3068
3.352, 5, 35.8188, 49.0293, -14.3796, 97.4498, -54.452, 42.2978
3.356, 5, 35.8182, 49.034, -14.381, 97.4495, -54.4675, 42.2889
3.36, 5, 35.8176, 49.0387, -14.3824, 97.4491, -54.483, 42.28
3.364, 5, 35.817, 49.0433, -14.3838, 97.4488, -54.4985, 42.2711
3.368, 5, 35.8164, 49.048, -14.3851, 97.4485, -54.5139, 42.2621
3.372, 5, 35.8158, 49.0527, -14.3865, 97.4481, -54.5294, 42.2532
3.376, 5, 35.8153, 49.0573, -14.3879, 97.4478, -54.5449, 42.2443
3.38, 5, 35.8147, 49.062, -14.3892, 97.4474, -54.5604, 42.2354
3.383, 5, 35.8141, 49.0667, -14.3906, 97.4471, -54.5759, 42.2265
3.388, 5, 35.8135, 49.0713, -14.392, 97.4467, -54.5914, 42.2176
3.392, 5, 35.8129, 49.076, -14.3933, 97.4464, -54.6068, 42.2087
3.396, 5, 35.8123, 49.0806, -14.3947, 97.446, -54.6223, 42.1998
3.4, 5, 35.8117, 49.0853, -14.3961, 97.4456, -54.6378, 42.1909
3.403, 5, 35.8111, 49.0899, -14.3974, 97.4453, -54.6533, 42.182
3.408, 5, 35.8105, 49.0946, -14.3988, 97.4449, -54.6687, 42.1731
3.412, 5, 35.8099, 49.0992, -14.4001, 97.4445, -54.6842, 42.1642
3.416, 5, 35.8093, 49.1039, -14.4015, 97.4442, -54.6997, 42.1553
3.42, 5, 35.8087, 49.1085, -14.4028, 97.4438, -54.7152, 42.1464
3.424, 5, 35.8081, 49.1132, -14.4042, 97.4434, -54.7307, 42.1376
3.428, 5, 35.8075, 49.1178, -14.4055, 97.443, -54.7461, 42.1287
3.432, 5, 35.8069, 49.1225, -14.4069, 97.4426, -54.7616, 42.1198
3.436, 5, 35.8063, 49.1271, -14.4082, 97.4422, -54.7771, 42.1109
3.439, 5, 35.8057, 49.1317, -14.4095, 97.4418, -54.7926, 42.1021
3.444, 5, 35.8051, 49.1364, -14.4109, 97.4414, -54.808, 42.0932
3.448, 5, 35.8044, 49.141, -14.4122, 97.441, -54.8235, 42.0843
3.452, 5, 35.8038, 49.1457, -14.4135, 97.4406, -54.839, 42.0755
3.456, 5, 35.8032, 49.1503, -14.4149, 97.4402, -54.8545, 42.0666
3.46, 5, 35.8026, 49.1549, -14.4162, 97.4398, -54.8699, 42.0578
3.464, 5, 35.802, 49.1596, -14.4175, 97.4394, -54.8854, 42.0489
3.468, 5, 35.8014, 49.1642, -14.4188, 97.439, -54.9009, 42.0401
3.472, 5, 35.8008, 49.1688, -14.4202, 97.4385, -54.9163, 42.0312
3.476, 5, 35.8002, 49.1735, -14.4215, 97.4381, -54.9318, 42.0224
3.48, 5, 35.7996, 49.1781, -14.4228, 97.4377, -54.9473, 42.0135
3.484, 5, 35.7989, 49.1827, -14.4241, 97.4373, -54.9627, 42.0047
3.488, 5, 35.7983, 49.1873, -14.4254, 97.4368, -54.9782, 41.9958
3.492, 5, 35.7977, 49.192, -14.4267, 97.4364, -54.9937, 41.987
3.495, 5, 35.7971, 49.1966, -14.428, 97.4359, -55.0092, 41.9782
3.5, 5, 35.7965, 49.2012, -14.4293, 97.4355, -55.0246, 41.9694
3.504, 5, 35.7959, 49.2058, -14.4306, 97.435, -55.0401, 41.9605
3.508, 5, 35.7952, 49.2104, -14.4319, 97.4346, -55.0556, 41.9517
3.512, 5, 35.7946, 49.2151, -14.4332, 97.4341, -55.071, 41.9429
3.516, 5, 35.794, 49.2197, -14.4345, 97.4337, -55.0865, 41.9341
3.52, 5, 35.7934, 49.2243, -14.4358, 97.4332, -55.102, 41.9253
3.524, 5, 35.7928, 49.2289, -14.4371, 97.4327, -55.1174, 41.9164
3.528, 5, 35.7921, 49.2335, -14.4384, 97.4323, -55.1329, 41.9076
3.531, 5, 35.7915, 49.2381, -14.4397, 97.4318, -55.1483, 41.8988
3.536, 5, 35.7909, 49.2427, -14.441, 97.4313, -55.1638, 41.89
3.54, 5, 35.7902, 49.2474, -14.4422, 97.4308, -55.1793, 41.8812
3.544, 5, 35.7896, 49.252, -14.4435, 97.4304, -55.1947, 41.8724
3.548, 5, 35.789, 49.2566, -14.4448, 97.4299, -55.2102, 41.8636
3.552, 5, 35.7884, 49.2612, -14.4461, 97.4294, -55.2257, 41.8548
3.556, 5, 35.7877, 49.2658, -14.4473, 97.4289, -55.2411, 41.846
3.56, 5, 35.7871, 49.2704, -14.4486, 97.4284, -55.2566, 41.8373
3.564, 5, 35.7865, 49.275, -14.4499, 97.4279, -55.272, 41.8285
3.568, 5, 35.7858, 49.2796, -14.4512, 97.4274, -55.2875, 41.8197
3.572, 5, 35.7852, 49.2842, -14.4524, 97.4269, -55.303, 41.8109
3.576, 5, 35.7846, 49.2888, -14.4537, 97.4264, -55.3184, 41.8021
3.58, 5, 35.7839, 49.2934, -14.4549, 97.4259, -55.3339, 41.7934
3.584, 5, 35.7833, 49.298, -14.4562, 97.4254, -55.3493, 41.7846
3.587, 5, 35.7827, 49.3026, -14.4575, 97.4249, -55.3648, 41.7758
3.592, 5, 35.782, 49.3072, -14.4587, 97.4243, -55.3803, 41.7671
3.596, 5, 35.7814, 49.3117, -14.46, 97.4238, -55.3957, 41.7583
3.6, 5, 35.7808, 49.3163, -14.4612, 97.4233, -55.4112, 41.7495
3.604, 5, 35.7801, 49.3209, -14.4624, 97.4228, -55.4266, 41.7408
3.608, 5, 35.7795, 49.3255, -14.4637, 97.4222, -55.4421, 41.732
3.612, 5, 35.7788, 49.3301, -14.4649, 97.4217, -55.4575, 41.7233
3.616, 5, 35.7782, 49.3347, -14.4662, 97.4212, -55.473, 41.7145
3.62, 5, 35.7776, 49.3393, -14.4674, 97.4206, -55.4884, 41.7058
3.624, 5, 35.7769, 49.3438, -14.4686, 97.4201, -55.5039, 41.697
3.628, 5, 35.7763, 49.3484, -14.4699, 97.4195, -55.5194, 41.6883
3.632, 5, 35.7756, 49.353, -14.4711, 97.419, -55.5348, 41.6795
3.636, 5, 35.775, 49.3576, -14.4723, 97.4184, -55.5503, 41.6708
3.64, 5, 35.7743, 49.3622, -14.4736, 97.4179, -55.5657, 41.6621
3.644, 5, 35.7737, 49.3667, -14.4748, 97.4173, -55.5812, 41.6533
3.648, 5, 35.773, 49.3713, -14.476, 97.4167, -55.5966, 41.6446
3.652, 5, 35.7724, 49.3759, -14.4772, 97.4162, -55.6121, 41.6359
3.656, 5, 35.7717, 49.3804, -14.4784, 97.4156, -55.6275, 41.6272
3.66, 5, 35.7711, 49.385, -14.4797, 97.415, -55.643, 41.6184
3.664, 5, 35.7704, 49.3896, -14.4809, 97.4144, -55.6584, 41.6097
3.668, 5, 35.7698, 49.3941, -14.4821, 97.4139, -55.6739, 41.601
3.672, 5, 35.7691, 49.3987, -14.4833, 97.4133, -55.6893, 41.5923
3.676, 5, 35.7685, 49.4033, -14.4845, 97.4127, -55.7048, 41.5836
3.679, 5, 35.7678, 49.4078, -14.4857, 97.4121, -55.7202, 41.5749
3.684, 5, 35.7672, 49.4124, -14.4869, 97.4115, -55.7357, 41.5662
3.688, 5, 35.7665, 49.417, -14.4881, 97.4109, -55.7511, 41.5575
3.692, 5, 35.7659, 49.4215, -14.4893, 97.4103, -55.7666, 41.5488
3.696, 5, 35.7652, 49.4261, -14.4905, 97.4097, -55.782, 41.5401
3.7, 5, 35.7645, 49.4306, -14.4917, 97.4091, -55.7974, 41.5314
3.704, 5, 35.7639, 49.4352, -14.4929, 97.4085, -55.8129, 41.5227
3.708, 5, 35.7632, 49.4397, -14.4941, 97.4079, -55.8283, 41.514
3.712, 5, 35.7626, 49.4443, -14.4952, 97.4073, -55.8438, 41.5053
3.716, 5, 35.7619, 49.4489, -14.4964, 97.4066, -55.8592, 41.4966
3.72, 5, 35.7612, 49.4534, -14.4976, 97.406, -55.8747, 41.4879
3.724, 5, 35.7606, 49.458, -14.4988, 97.4054, -55.8901, 41.4793
3.728, 5, 35.7599, 49.4625, -14.5, 97.4048, -55.9055, 41.4706
3.732, 5, 35.7592, 49.467, -14.5011, 97.4041, -55.921, 41.4619
3.735, 5, 35.7586, 49.4716, -14.5023, 97.4035, -55.9364, 41.4532
3.74, 5, 35.7579, 49.4761, -14.5035, 97.4029, -55.9519, 41.4446
3.744, 5, 35.7572, 49.4807, -14.5047, 97.4022, -55.9673, 41.4359
3.748, 5, 35.7566, 49.4852, -14.5058, 97.4016, -55.9827, 41.4272
3.752, 5, 35.7559, 49.4897, -14.507, 97.4009, -55.9982, 41.4186
3.756, 5, 35.7552, 49.4943, -14.5081, 97.4003, -56.0136, 41.4099
3.76, 5, 35.7546, 49.4988, -14.5093, 97.3996, -56.0291, 41.4013
3.764, 5, 35.7539, 49.5034, -14.5105, 97.399, -56.0445, 41.3926
3.768, 5, 35.7532, 49.5079, -14.5116, 97.3983, -56.0599, 41.384
3.772, 5, 35.7525, 49.5124, -14.5128, 97.3977, -56.0754, 41.3753
3.776, 5, 35.7519, 49.517, -14.5139, 97.397, -56.0908, 41.3667
3.78, 5, 35.7512, 49.5215, -14.5151, 97.3963, -56.1062, 41.358
3.784, 5, 35.7505, 49.526, -14.5162, 97.3957, -56.1217, 41.3494
3.788, 5, 35.7498, 49.5305, -14.5174, 97.395, -56.1371, 41.3408
3.792, 5, 35.7492, 49.5351, -14.5185, 97.3943, -56.1526, 41.3321
3.796, 5, 35.7485, 49.5396, -14.5196, 97.3936, -56.168, 41.3235
3.8, 5, 35.7478, 49.5441, -14.5208, 97.3929, -56.1834, 41.3149
3.804, 5, 35.7471, 49.5486, -14.5219, 97.3923, -56.1989, 41.3062
3.808, 5, 35.7465, 49.5532, -14.523, 97.3916, -56.2143, 41.2976
3.812, 5, 35.7458, 49.5577, -14.5242, 97.3909, -56.2297, 41.289
3.816, 5, 35.7451, 49.5622, -14.5253, 97.3902, -56.2452, 41.2804
3.82, 5, 35.7444, 49.5667, -14.5264, 97.3895, -56.2606, 41.2717
3.824, 5, 35.7437, 49.5712, -14.5275, 97.3888, -56.276, 41.2631
3.828, 5, 35.743, 49.5757, -14.5287, 97.3881, -56.2914, 41.2545
3.832, 5, 35.7424, 49.5803, -14.5298, 97.3874, -56.3069, 41.2459
3.836, 5, 35.7417, 49.5848, -14.5309, 97.3867, -56.3223, 41.2373
3.84, 5, 35.741, 49.5893, -14.532, 97.3859, -56.3377, 41.2287
3.844, 5, 35.7403, 49.5938, -14.5331, 97.3852, -56.3532, 41.2201
3.848, 5, 35.7396, 49.5983, -14.5342, 97.3845, -56.3686, 41.2115
3.852, 5, 35.7389, 49.6028, -14.5354, 97.3838, -56.384, 41.2029
3.856, 5, 35.7382, 49.6073, -14.5365, 97.3831, -56.3994, 41.1943
3.86, 5, 35.7375, 49.6118, -14.5376, 97.3823, -56.4149, 41.1857
3.864, 5, 35.7368, 49.6163, -14.5387, 97.3816, -56.4303, 41.1771
3.868, 5, 35.7362, 49.6208, -14.5398, 97.3809, -56.4457, 41.1685
3.872, 5, 35.7355, 49.6253, -14.5409, 97.3801, -56.4612, 41.1599
3.876, 5, 35.7348, 49.6298, -14.542, 97.3794, -56.4766, 41.1514
3.88, 5, 35.7341, 49.6343, -14.543, 97.3786, -56.492, 41.1428
3.884, 5, 35.7334, 49.6388, -14.5441, 97.3779, -56.5074, 41.1342
3.888, 5, 35.7327, 49.6433, -14.5452, 97.3771, -56.5229, 41.1256
3.892, 5, 35.732, 49.6478, -14.5463, 97.3764, -56.5383, 41.1171
3.896, 5, 35.7313, 49.6523, -14.5474, 97.3756, -56.5537, 41.1085
3.9, 5, 35.7306, 49.6568, -14.5485, 97.3749, -56.5691, 41.0999
3.904, 5, 35.7299, 49.6613, -14.5496, 97.3741, -56.5845, 41.0914
3.908, 5, 35.7292, 49.6657, -14.5506, 97.3733, -56.6, 41.0828
3.912, 5, 35.7285, 49.6702, -14.5517, 97.3726, -56.6154, 41.0742
3.916, 5, 35.7278, 49.6747, -14.5528, 97.3718, -56.6308, 41.0657
3.92, 5, 35.7271, 49.6792, -14.5538, 97.371, -56.6462, 41.0571
3.924, 5, 35.7264, 49.6837, -14.5549, 97.3702, -56.6616, 41.0486
3.928, 5, 35.7257, 49.6882, -14.556, 97.3695, -56.6771, 41.04
3.932, 5, 35.725, 49.6926, -14.557, 97.3687, -56.6925, 41.0315
3.936, 5, 35.7243, 49.6971, -14.5581, 97.3679, -56.7079, 41.0229
3.94, 5, 35.7236, 49.7016, -14.5592, 97.3671, -56.7233, 41.0144
3.944, 5, 35.7228, 49.7061, -14.5602, 97.3663, -56.7387, 41.0058
3.948, 5, 35.7221, 49.7105, -14.5613, 97.3655, -56.7542, 40.9973
3.952, 5, 35.7214, 49.715, -14.5623, 97.3647, -56.7696, 40.9888
3.956, 5, 35.7207, 49.7195, -14.5634, 97.3639, -56.785, 40.9802
3.96, 5, 35.72, 49.724, -14.5644, 97.3631, -56.8004, 40.9717
3.964, 5, 35.7193, 49.7284, -14.5655, 97.3623, -56.8158, 40.9632
3.968, 5, 35.7186, 49.7329, -14.5665, 97.3615, -56.8312, 40.9547
3.972, 5, 35.7179, 49.7374, -14.5676, 97.3607, -56.8466, 40.9461
3.976, 5, 35.7172, 49.7418, -14.5686, 97.3598, -56.8621, 40.9376
3.98, 5, 35.7164, 49.7463, -14.5696, 97.359, -56.8775, 40.9291
3.984, 5, 35.7157, 49.7508, -14.5707, 97.3582, -56.8929, 40.9206
3.988, 5, 35.715, 49.7552, -14.5717, 97.3574, -56.9083, 40.9121
3.992, 5, 35.7143, 49.7597, -14.5727, 97.3566, -56.9237, 40.9036
3.996, 5, 35.7136, 49.7641, -14.5738, 97.3557, -56.9391, 40.895
3.999, 5, 35.7129, 49.7686, -14.5748, 97.3549, -56.9545, 40.8865
4.004, 5, 35.7121, 49.773, -14.5758, 97.354, -56.9699, 40.878
4.008, 5, 35.7114, 49.7775, -14.5768, 97.3532, -56.9854, 40.8695
4.012, 5, 35.7107, 49.782, -14.5778, 97.3524, -57.0008, 40.861
4.016, 5, 35.71, 49.7864, -14.5789, 97.3515, -57.0162, 40.8525
4.02, 5, 35.7093, 49.7909, -14.5799, 97.3507, -57.0316, 40.844
4.024, 5, 35.7085, 49.7953, -14.5809, 97.3498, -57.047, 40.8356
4.028, 5, 35.7078, 49.7997, -14.5819, 97.349, -57.0624, 40.8271
4.032, 5, 35.7071, 49.8042, -14.5829, 97.3481, -57.0778, 40.8186
4.036, 5, 35.7064, 49.8086, -14.5839, 97.3472, -57.0932, 40.8101
4.04, 5, 35.7056, 49.8131, -14.5849, 97.3464, -57.1086, 40.8016
4.044, 5, 35.7049, 49.8175, -14.5859, 97.3455, -57.124, 40.7931
4.048, 5, 35.7042, 49.822, -14.5869, 97.3446, -57.1394, 40.7847
4.052, 5, 35.7034, 49.8264, -14.5879, 97.3438, -57.1548, 40.7762
4.056, 5, 35.7027, 49.8308, -14.5889, 97.3429, -57.1702, 40.7677
4.06, 5, 35.702, 49.8353, -14.5899, 97.342, -57.1856, 40.7592
4.064, 5, 35.7013, 49.8397, -14.5909, 97.3411, -57.201, 40.7508
4.068, 5, 35.7005, 49.8441, -14.5919, 97.3402, -57.2164, 40.7423
4.072, 5, 35.6998, 49.8486, -14.5929, 97.3394, -57.2319, 40.7338
4.076, 5, 35.6991, 49.853, -14.5938, 97.3385, -57.2473, 40.7254
4.08, 5, 35.6983, 49.8574, -14.5948, 97.3376, -57.2627, 40.7169
4.084, 5, 35.6976, 49.8619, -14.5958, 97.3367, -57.2781, 40.7085
4.088, 5, 35.6968, 49.8663, -14.5968, 97.3358, -57.2935, 40.7
4.092, 5, 35.6961, 49.8707, -14.5977, 97.3349, -57.3089, 40.6916
4.096, 5, 35.6954, 49.8751, -14.5987, 97.334, -57.3243, 40.6831
4.1, 5, 35.6946, 49.8796, -14.5997, 97.3331, -57.3397, 40.6747
4.104, 5, 35.6939, 49.884, -14.6007, 97.3322, -57.3551, 40.6662
4.108, 5, 35.6932, 49.8884, -14.6016, 97.3312, -57.3705, 40.6578
4.112, 5, 35.6924, 49.8928, -14.6026, 97.3303, -57.3859, 40.6493
4.116, 5, 35.6917, 49.8972, -14.6035, 97.3294, -57.4013, 40.6409
4.12, 5, 35.6909, 49.9017, -14.6045, 97.3285, -57.4166, 40.6325
4.124, 5, 35.6902, 49.9061, -14.6055, 97.3275, -57.432, 40.624
4.128, 5, 35.6894, 49.9105, -14.6064, 97.3266, -57.4474, 40.6156
4.132, 5, 35.6887, 49.9149, -14.6074, 97.3257, -57.4628, 40.6072
4.136, 5, 35.688, 49.9193, -14.6083, 97.3248, -57.4782, 40.5988
4.14, 5, 35.6872, 49.9237, -14.6093, 97.3238, -57.4936, 40.5903
4.144, 5, 35.6865, 49.9281, -14.6102, 97.3229, -57.509, 40.5819
4.148, 5, 35.6857, 49.9325, -14.6111, 97.3219, -57.5244, 40.5735
4.152, 5, 35.685, 49.9369, -14.6121, 97.321, -57.5398, 40.5651
4.156, 5, 35.6842, 49.9413, -14.613, 97.32, -57.5552, 40.5567
4.16, 5, 35.6835, 49.9457, -14.614, 97.3191, -57.5706, 40.5483
4.164, 5, 35.6827, 49.9501, -14.6149, 97.3181, -57.586, 40.5398
4.168, 5, 35.682, 49.9545, -14.6158, 97.3172, -57.6014, 40.5314
4.172, 5, 35.6812, 49.9589, -14.6168, 97.3162, -57.6168, 40.523
4.176, 5, 35.6805, 49.9633, -14.6177, 97.3152, -57.6322, 40.5146
4.18, 5, 35.6797, 49.9677, -14.6186, 97.3143, -57.6475, 40.5062
4.184, 5, 35.6789, 49.9721, -14.6195, 97.3133, -57.6629, 40.4978
4.188, 5, 35.6782, 49.9765, -14.6205, 97.3123, -57.6783, 40.4894
4.192, 5, 35.6774, 49.9809, -14.6214, 97.3114, -57.6937, 40.481
4.196, 5, 35.6767, 49.9853, -14.6223, 97.3104, -57.7091, 40.4727
4.2, 5, 35.6759, 49.9897, -14.6232, 97.3094, -57.7245, 40.4643
4.204, 5, 35.6752, 49.9941, -14.6241, 97.3084, -57.7399, 40.4559
4.208, 5, 35.6744, 49.9985, -14.625, 97.3074, -57.7553, 40.4475
4.212, 5, 35.6736, 50.0028, -14.6259, 97.3064, -57.7707, 40.4391
4.216, 5, 35.6729, 50.0072, -14.6268, 97.3055, -57.786, 40.4307
4.22, 5, 35.6721, 50.0116, -14.6277, 97.3045, -57.8014, 40.4224
4.224, 5, 35.6713, 50.016, -14.6286, 97.3035, -57.8168, 40.414
4.228, 5, 35.6706, 50.0204, -14.6295, 97.3025, -57.8322, 40.4056
4.232, 5, 35.6698, 50.0247, -14.6304, 97.3015, -57.8476, 40.3973
4.236, 5, 35.6691, 50.0291, -14.6313, 97.3005, -57.863, 40.3889
4.24, 5, 35.6683, 50.0335, -14.6322, 97.2994, -57.8783, 40.3805
4.244, 5, 35.6675, 50.0379, -14.6331, 97.2984, -57.8937, 40.3722
4.248, 5, 35.6668, 50.0422, -14.634, 97.2974, -57.9091, 40.3638
4.252, 5, 35.666, 50.0466, -14.6349, 97.2964, -57.9245, 40.3554
4.256, 5, 35.6652, 50.051, -14.6358, 97.2954, -57.9399, 40.3471
4.26, 5, 35.6644, 50.0554, -14.6366, 97.2944, -57.9553, 40.3387
4.264, 5, 35.6637, 50.0597, -14.6375, 97.2933, -57.9706, 40.3304
4.268, 5, 35.6629, 50.0641, -14.6384, 97.2923, -57.986, 40.322
4.272, 5, 35.6621, 50.0685, -14.6393, 97.2913, -58.0014, 40.3137
4.276, 5, 35.6614, 50.0728, -14.6401, 97.2902, -58.0168, 40.3053
4.28, 5, 35.6606, 50.0772, -14.641, 97.2892, -58.0322, 40.297
4.284, 5, 35.6598, 50.0815, -14.6419, 97.2881, -58.0475, 40.2887
4.288, 5, 35.659, 50.0859, -14.6427, 97.2871, -58.0629, 40.2803
4.292, 5, 35.6583, 50.0903, -14.6436, 97.2861, -58.0783, 40.272
4.296, 5, 35.6575, 50.0946, -14.6445, 97.285, -58.0937, 40.2636
4.3, 5, 35.6567, 50.099, -14.6453, 97.284, -58.109, 40.2553
4.304, 5, 35.6559, 50.1033, -14.6462, 97.2829, -58.1244, 40.247
4.308, 5, 35.6551, 50.1077, -14.647, 97.2819, -58.1398, 40.2387
4.312, 5, 35.6544, 50.112, -14.6479, 97.2808, -58.1552, 40.2303
4.316, 5, 35.6536, 50.1164, -14.6487, 97.2797, -58.1705, 40.222
4.32, 5, 35.6528, 50.1207, -14.6496, 97.2787, -58.1859, 40.2137
4.324, 5, 35.652, 50.1251, -14.6504, 97.2776, -58.2013, 40.2054
4.328, 5, 35.6512, 50.1294, -14.6513, 97.2765, -58.2167, 40.1971
4.332, 5, 35.6504, 50.1337, -14.6521, 97.2755, -58.232, 40.1887
4.336, 5, 35.6497, 50.1381, -14.6529, 97.2744, -58.2474, 40.1804
4.34, 5, 35.6489, 50.1424, -14.6538, 97.2733, -58.2628, 40.1721
4.344, 5, 35.6481, 50.1468, -14.6546, 97.2722, -58.2781, 40.1638
4.348, 5, 35.6473, 50.1511, -14.6554, 97.2711, -58.2935, 40.1555
4.352, 5, 35.6465, 50.1554, -14.6563, 97.27, -58.3089, 40.1472
4.356, 5, 35.6457, 50.1598, -14.6571, 97.269, -58.3243, 40.1389
4.36, 5, 35.6449, 50.1641, -14.6579, 97.2679, -58.3396, 40.1306
4.364, 5, 35.6441, 50.1684, -14.6587, 97.2668, -58.355, 40.1223
4.368, 5, 35.6433, 50.1728, -14.6596, 97.2657, -58.3704, 40.114
4.372, 5, 35.6426, 50.1771, -14.6604, 97.2646, -58.3857, 40.1057
4.376, 5, 35.6418, 50.1814, -14.6612, 97.2635, -58.4011, 40.0975
4.38, 5, 35.641, 50.1858, -14.662, 97.2624, -58.4165, 40.0892
4.384, 5, 35.6402, 50.1901, -14.6628, 97.2612, -58.4318, 40.0809
4.388, 5, 35.6394, 50.1944, -14.6636, 97.2601, -58.4472, 40.0726
4.392, 5, 35.6386, 50.1987, -14.6644, 97.259, -58.4626, 40.0643
4.396, 5, 35.6378, 50.2031, -14.6652, 97.2579, -58.4779, 40.056
4.4, 5, 35.637, 50.2074, -14.666, 97.2568, -58.4933, 40.0478
4.404, 5, 35.6362, 50.2117, -14.6668, 97.2556, -58.5087, 40.0395
4.408, 5, 35.6354, 50.216, -14.6676, 97.2545, -58.524, 40.0312
4.412, 5, 35.6346, 50.2203, -14.6684, 97.2534, -58.5394, 40.023
4.416, 5, 35.6338, 50.2246, -14.6692, 97.2523, -58.5547, 40.0147
4.42, 5, 35.633, 50.229, -14.67, 97.2511, -58.5701, 40.0064
4.424, 5, 35.6322, 50.2333, -14.6708, 97.25, -58.5855, 39.9982
4.428, 5, 35.6314, 50.2376, -14.6716, 97.2488, -58.6008, 39.9899
4.432, 5, 35.6306, 50.2419, -14.6724, 97.2477, -58.6162, 39.9816
4.436, 5, 35.6298, 50.2462, -14.6731, 97.2466, -58.6316, 39.9734
4.44, 5, 35.629, 50.2505, -14.6739, 97.2454, -58.6469, 39.9651
4.444, 5, 35.6282, 50.2548, -14.6747, 97.2442, -58.6623, 39.9569
4.448, 5, 35.6274, 50.2591, -14.6755, 97.2431, -58.6776, 39.9486
4.452, 5, 35.6265, 50.2634, -14.6762, 97.2419, -58.693, 39.9404
4.456, 5, 35.6257, 50.2677, -14.677, 97.2408, -58.7083, 39.9321
4.46, 5, 35.6249, 50.272, -14.6778, 97.2396, -58.7237, 39.9239
4.464, 5, 35.6241, 50.2763, -14.6785, 97.2384, -58.7391, 39.9157
4.468, 5, 35.6233, 50.2806, -14.6793, 97.2373, -58.7544, 39.9074
4.472, 5, 35.6225, 50.2849, -14.6801, 97.2361, -58.7698, 39.8992
4.476, 5, 35.6217, 50.2892, -14.6808, 97.2349, -58.7851, 39.8909
4.48, 5, 35.6209, 50.2935, -14.6816, 97.2338, -58.8005, 39.8827
4.484, 5, 35.62, 50.2978, -14.6823, 97.2326, -58.8158, 39.8745
4.488, 5, 35.6192, 50.3021, -14.6831, 97.2314, -58.8312, 39.8663
4.492, 5, 35.6184, 50.3063, -14.6838, 97.2302, -58.8466, 39.858
4.496, 5, 35.6176, 50.3106, -14.6846, 97.229, -58.8619, 39.8498
4.5, 5, 35.6168, 50.3149, -14.6853, 97.2278, -58.8773, 39.8416
4.504, 5, 35.616, 50.3192, -14.6861, 97.2266, -58.8926, 39.8334
4.508, 5, 35.6151, 50.3235, -14.6868, 97.2255, -58.908, 39.8252
4.512, 5, 35.6143, 50.3278, -14.6876, 97.2243, -58.9233, 39.8169
4.516, 5, 35.6135, 50.332, -14.6883, 97.2231, -58.9387, 39.8087
4.52, 5, 35.6127, 50.3363, -14.689, 97.2218, -58.954, 39.8005
4.524, 5, 35.6119, 50.3406, -14.6898, 97.2206, -58.9694, 39.7923
4.528, 5, 35.611, 50.3449, -14.6905, 97.2194, -58.9847, 39.7841
4.532, 5, 35.6102, 50.3492, -14.6912, 97.2182, -59.0001, 39.7759
4.536, 5, 35.6094, 50.3534, -14.6919, 97.217, -59.0154, 39.7677
4.54, 5, 35.6086, 50.3577, -14.6927, 97.2158, -59.0308, 39.7595
4.544, 5, 35.6077, 50.362, -14.6934, 97.2146, -59.0461, 39.7513
4.548, 5, 35.6069, 50.3662, -14.6941, 97.2134, -59.0615, 39.7431
4.552, 5, 35.6061, 50.3705, -14.6948, 97.2121, -59.0768, 39.7349
4.556, 5, 35.6053, 50.3748, -14.6955, 97.2109, -59.0921, 39.7267
4.56, 5, 35.6044, 50.379, -14.6963, 97.2097, -59.1075, 39.7185
4.564, 5, 35.6036, 50.3833, -14.697, 97.2084, -59.1228, 39.7103
4.568, 5, 35.6028, 50.3876, -14.6977, 97.2072, -59.1382, 39.7022
4.572, 5, 35.6019, 50.3918, -14.6984, 97.206, -59.1535, 39.694
4.576, 5, 35.6011, 50.3961, -14.6991, 97.2047, -59.1689, 39.6858
4.58, 5, 35.6003, 50.4003, -14.6998, 97.2035, -59.1842, 39.6776
4.584, 5, 35.5994, 50.4046, -14.7005, 97.2022, -59.1996, 39.6694
4.588, 5, 35.5986, 50.4088, -14.7012, 97.201, -59.2149, 39.6613
4.592, 5, 35.5978, 50.4131, -14.7019, 97.1997, -59.2302, 39.6531
4.596, 5, 35.5969, 50.4173, -14.7026, 97.1985, -59.2456, 39.6449
4.6, 5, 35.5961, 50.4216, -14.7032, 97.1972, -59.2609, 39.6367
4.604, 5, 35.5953, 50.4258, -14.7039, 97.196, -59.2763, 39.6286
4.608, 5, 35.5944, 50.4301, -14.7046, 97.1947, -59.2916, 39.6204
4.612, 5, 35.5936, 50.4343, -14.7053, 97.1934, -59.3069, 39.6123
4.616, 5, 35.5927, 50.4386, -14.706, 97.1922, -59.3223, 39.6041
4.62, 5, 35.5919, 50.4428, -14.7067, 97.1909, -59.3376, 39.5959
4.624, 5, 35.5911, 50.4471, -14.7073, 97.1896, -59.353, 39.5878
4.628, 5, 35.5902, 50.4513, -14.708, 97.1883, -59.3683, 39.5796
4.632, 5, 35.5894, 50.4555, -14.7087, 97.1871, -59.3836, 39.5715
4.636, 5, 35.5885, 50.4598, -14.7093, 97.1858, -59.399, 39.5633
4.64, 5, 35.5877, 50.464, -14.71, 97.1845, -59.4143, 39.5552
4.644, 5, 35.5868, 50.4683, -14.7107, 97.1832, -59.4296, 39.547
4.648, 5, 35.586, 50.4725, -14.7113, 97.1819, -59.445, 39.5389
4.652, 5, 35.5851, 50.4767, -14.712, 97.1806, -59.4603, 39.5307
4.656, 5, 35.5843, 50.4809, -14.7127, 97.1793, -59.4757, 39.5226
4.66, 5, 35.5834, 50.4852, -14.7133, 97.178, -59.491, 39.5145
4.664, 5, 35.5826, 50.4894, -14.714, 97.1767, -59.5063, 39.5063
4.668, 5, 35.5817, 50.4936, -14.7146, 97.1754, -59.5216, 39.4982
4.672, 5, 35.5809, 50.4979, -14.7153, 97.1741, -59.537, 39.4901
4.676, 5, 35.58, 50.5021, -14.7159, 97.1728, -59.5523, 39.4819
4.68, 5, 35.5792, 50.5063, -14.7166, 97.1715, -59.5676, 39.4738
4.684, 5, 35.5783, 50.5105, -14.7172, 97.1702, -59.583, 39.4657
4.688, 5, 35.5775, 50.5147, -14.7178, 97.1689, -59.5983, 39.4576
4.692, 5, 35.5766, 50.519, -14.7185, 97.1676, -59.6136, 39.4494
4.696, 5, 35.5758, 50.5232, -14.7191, 97.1663, -59.629, 39.4413
4.7, 5, 35.5749, 50.5274, -14.7197, 97.1649, -59.6443, 39.4332
4.704, 5, 35.5741, 50.5316, -14.7204, 97.1636, -59.6596, 39.4251
4.708, 5, 35.5732, 50.5358, -14.721, 97.1623, -59.675, 39.417
4.712, 5, 35.5723, 50.54, -14.7216, 97.1609, -59.6903, 39.4089
4.716, 5, 35.5715, 50.5442, -14.7223, 97.1596, -59.7056, 39.4008
4.72, 5, 35.5706, 50.5484, -14.7229, 97.1583, -59.7209, 39.3927
4.724, 5, 35.5698, 50.5527, -14.7235, 97.1569, -59.7363, 39.3846
4.728, 5, 35.5689, 50.5569, -14.7241, 97.1556, -59.7516, 39.3764
4.732, 5, 35.568, 50.5611, -14.7247, 97.1543, -59.7669, 39.3683
4.736, 5, 35.5672, 50.5653, -14.7253, 97.1529, -59.7822, 39.3602
4.74, 5, 35.5663, 50.5695, -14.7259, 97.1516, -59.7976, 39.3522
4.744, 5, 35.5654, 50.5737, -14.7266, 97.1502, -59.8129, 39.3441
4.748, 5, 35.5646, 50.5779, -14.7272, 97.1489, -59.8282, 39.336
4.752, 5, 35.5637, 50.5821, -14.7278, 97.1475, -59.8435, 39.3279
4.756, 5, 35.5628, 50.5862, -14.7284, 97.1461, -59.8589, 39.3198
4.76, 5, 35.562, 50.5904, -14.729, 97.1448, -59.8742, 39.3117
4.764, 5, 35.5611, 50.5946, -14.7296, 97.1434, -59.8895, 39.3036
4.768, 5, 35.5602, 50.5988, -14.7302, 97.142, -59.9048, 39.2955
4.772, 5, 35.5594, 50.603, -14.7308, 97.1407, -59.9201, 39.2875
4.776, 5, 35.5585, 50.6072, -14.7313, 97.1393, -59.9355, 39.2794
4.78, 5, 35.5576, 50.6114, -14.7319, 97.1379, -59.9508, 39.2713
4.784, 5, 35.5567, 50.6156, -14.7325, 97.1365, -59.9661, 39.2632
4.788, 5, 35.5559, 50.6198, -14.7331, 97.1352, -59.9814, 39.2551
4.792, 5, 35.555, 50.6239, -14.7337, 97.1338, -59.9967, 39.2471
4.796, 5, 35.5541, 50.6281, -14.7343, 97.1324, -60.0121, 39.239
4.8, 5, 35.5532, 50.6323, -14.7348, 97.131, -60.0274, 39.2309
4.804, 5, 35.5524, 50.6365, -14.7354, 97.1296, -60.0427, 39.2229
4.808, 5, 35.5515, 50.6406, -14.736, 97.1282, -60.058, 39.2148
4.812, 5, 35.5506, 50.6448, -14.7365, 97.1268, -60.0733, 39.2068
4.816, 5, 35.5497, 50.649, -14.7371, 97.1254, -60.0886, 39.1987
4.82, 5, 35.5489, 50.6532, -14.7377, 97.124, -60.104, 39.1906
4.824, 5, 35.548, 50.6573, -14.7382, 97.1226, -60.1193, 39.1826
4.828, 5, 35.5471, 50.6615, -14.7388, 97.1212, -60.1346, 39.1745
4.832, 5, 35.5462, 50.6657, -14.7394, 97.1198, -60.1499, 39.1665
4.836, 5, 35.5453, 50.6698, -14.7399, 97.1184, -60.1652, 39.1584
4.84, 5, 35.5444, 50.674, -14.7405, 97.117, -60.1805, 39.1504
4.844, 5, 35.5436, 50.6782, -14.741, 97.1156, -60.1958, 39.1423
4.848, 5, 35.5427, 50.6823, -14.7416, 97.1142, -60.2111, 39.1343
4.852, 5, 35.5418, 50.6865, -14.7421, 97.1127, -60.2265, 39.1263
4.856, 5, 35.5409, 50.6907, -14.7427, 97.1113, -60.2418, 39.1182
4.86, 5, 35.54, 50.6948, -14.7432, 97.1099, -60.2571, 39.1102
4.864, 5, 35.5391, 50.699, -14.7437, 97.1084, -60.2724, 39.1021
4.868, 5, 35.5382, 50.7031, -14.7443, 97.107, -60.2877, 39.0941
4.872, 5, 35.5373, 50.7073, -14.7448, 97.1056, -60.303, 39.0861
4.876, 5, 35.5365, 50.7114, -14.7454, 97.1041, -60.3183, 39.0781
4.88, 5, 35.5356, 50.7156, -14.7459, 97.1027, -60.3336, 39.07
4.884, 5, 35.5347, 50.7197, -14.7464, 97.1013, -60.3489, 39.062
4.888, 5, 35.5338, 50.7239, -14.7469, 97.0998, -60.3642, 39.054
4.892, 5, 35.5329, 50.728, -14.7475, 97.0984, -60.3795, 39.046
4.896, 5, 35.532, 50.7322, -14.748, 97.0969, -60.3948, 39.0379
4.9, 5, 35.5311, 50.7363, -14.7485, 97.0955, -60.4102, 39.0299
4.904, 5, 35.5302, 50.7405, -14.749, 97.094, -60.4255, 39.0219
4.908, 5, 35.5293, 50.7446, -14.7495, 97.0926, -60.4408, 39.0139
4.912, 5, 35.5284, 50.7487, -14.7501, 97.0911, -60.4561, 39.0059
4.916, 5, 35.5275, 50.7529, -14.7506, 97.0896, -60.4714, 38.9979
4.92, 5, 35.5266, 50.757, -14.7511, 97.0882, -60.4867, 38.9899
4.924, 5, 35.5257, 50.7611, -14.7516, 97.0867, -60.502, 38.9819
4.928, 5, 35.5248, 50.7653, -14.7521, 97.0852, -60.5173, 38.9739
4.932, 5, 35.5239, 50.7694, -14.7526, 97.0838, -60.5326, 38.9658
4.936, 5, 35.523, 50.7735, -14.7531, 97.0823, -60.5479, 38.9578
4.94, 5, 35.5221, 50.7777, -14.7536, 97.0808, -60.5632, 38.9498
4.944, 5, 35.5212, 50.7818, -14.7541, 97.0793, -60.5785, 38.9419
4.948, 5, 35.5203, 50.7859, -14.7546, 97.0779, -60.5938, 38.9339
4.952, 5, 35.5194, 50.79, -14.7551, 97.0764, -60.6091, 38.9259
4.956, 5, 35.5185, 50.7942, -14.7555, 97.0749, -60.6244, 38.9179
4.96, 5, 35.5176, 50.7983, -14.756, 97.0734, -60.6397, 38.9099
4.964, 5, 35.5167, 50.8024, -14.7565, 97.0719, -60.655, 38.9019
4.968, 5, 35.5158, 50.8065, -14.757, 97.0704, -60.6703, 38.8939
4.972, 5, 35.5148, 50.8106, -14.7575, 97.0689, -60.6856, 38.8859
4.976, 5, 35.5139, 50.8148, -14.7579, 97.0674, -60.7009, 38.8779
4.98, 5, 35.513, 50.8189, -14.7584, 97.0659, -60.7162, 38.87
4.984, 5, 35.5121, 50.823, -14.7589, 97.0644, -60.7315, 38.862
4.988, 5, 35.5112, 50.8271, -14.7594, 97.0629, -60.7467, 38.854
4.992, 5, 35.5103, 50.8312, -14.7598, 97.0614, -60.762, 38.846
4.996, 5, 35.5094, 50.8353, -14.7603, 97.0599, -60.7773, 38.8381
5, 5, 35.5085, 50.8394, -14.7608, 97.0584, -60.7926, 38.8301
5.004, 5, 35.5075, 50.8435, -14.7612, 97.0568, -60.8079, 38.8221
5.008, 5, 35.5066, 50.8476, -14.7617, 97.0553, -60.8232, 38.8142
5.012, 5, 35.5057, 50.8517, -14.7621, 97.0538, -60.8385, 38.8062
5.016, 5, 35.5048, 50.8559, -14.7626, 97.0523, -60.8538, 38.7982
5.02, 5, 35.5039, 50.8599, -14.763, 97.0508, -60.8691, 38.7903
5.024, 5, 35.5029, 50.864, -14.7635, 97.0492, -60.8844, 38.7823
5.028, 5, 35.502, 50.8681, -14.7639, 97.0477, -60.8997, 38.7744
5.032, 5, 35.5011, 50.8722, -14.7644, 97.0462, -60.915, 38.7664
5.036, 5, 35.5002, 50.8763, -14.7648, 97.0446, -60.9302, 38.7585
5.04, 5, 35.4993, 50.8804, -14.7653, 97.0431, -60.9455, 38.7505
5.044, 5, 35.4983, 50.8845, -14.7657, 97.0415, -60.9608, 38.7426
5.048, 5, 35.4974, 50.8886, -14.7661, 97.04, -60.9761, 38.7346
5.052, 5, 35.4965, 50.8927, -14.7666, 97.0385, -60.9914, 38.7267
5.056, 5, 35.4956, 50.8968, -14.767, 97.0369, -61.0067, 38.7187
5.06, 5, 35.4946, 50.9009, -14.7674, 97.0354, -61.022, 38.7108
5.064, 5, 35.4937, 50.905, -14.7679, 97.0338, -61.0373, 38.7028
5.068, 5, 35.4928, 50.909, -14.7683, 97.0322, -61.0525, 38.6949
5.072, 5, 35.4919, 50.9131, -14.7687, 97.0307, -61.0678, 38.687
5.076, 5, 35.4909, 50.9172, -14.7691, 97.0291, -61.0831, 38.679
5.08, 5, 35.49, 50.9213, -14.7695, 97.0276, -61.0984, 38.6711
5.084, 5, 35.4891, 50.9254, -14.77, 97.026, -61.1137, 38.6632
5.088, 5, 35.4881, 50.9294, -14.7704, 97.0244, -61.129, 38.6552
5.092, 5, 35.4872, 50.9335, -14.7708, 97.0229, -61.1442, 38.6473
5.096, 5, 35.4863, 50.9376, -14.7712, 97.0213, -61.1595, 38.6394
5.1, 5, 35.4853, 50.9416, -14.7716, 97.0197, -61.1748, 38.6315
5.104, 5, 35.4844, 50.9457, -14.772, 97.0181, -61.1901, 38.6235
5.108, 5, 35.4835, 50.9498, -14.7724, 97.0165, -61.2054, 38.6156
5.112, 5, 35.4825, 50.9538, -14.7728, 97.015, -61.2206, 38.6077
5.116, 5, 35.4816, 50.9579, -14.7732, 97.0134, -61.2359, 38.5998
5.12, 5, 35.4806, 50.962, -14.7736, 97.0118, -61.2512, 38.5919
5.124, 5, 35.4797, 50.966, -14.774, 97.0102, -61.2665, 38.584
5.128, 5, 35.4788, 50.9701, -14.7744, 97.0086, -61.2818, 38.576
5.132, 5, 35.4778, 50.9742, -14.7748, 97.007, -61.297, 38.5681
5.136, 5, 35.4769, 50.9782, -14.7752, 97.0054, -61.3123, 38.5602
5.14, 5, 35.4759, 50.9823, -14.7755, 97.0038, -61.3276, 38.5523
5.144, 5, 35.475, 50.9863, -14.7759, 97.0022, -61.3429, 38.5444
5.148, 5, 35.4741, 50.9904, -14.7763, 97.0006, -61.3581, 38.5365
5.152, 5, 35.4731, 50.9944, -14.7767, 96.999, -61.3734, 38.5286
5.156, 5, 35.4722, 50.9985, -14.777, 96.9974, -61.3887, 38.5207
5.16, 5, 35.4712, 51.0025, -14.7774, 96.9958, -61.404, 38.5128
5.164, 5, 35.4703, 51.0066, -14.7778, 96.9942, -61.4192, 38.5049
5.168, 5, 35.4693, 51.0106, -14.7782, 96.9925, -61.4345, 38.497
5.172, 5, 35.4684, 51.0147, -14.7785, 96.9909, -61.4498, 38.4892
5.176, 5, 35.4674, 51.0187, -14.7789, 96.9893, -61.4651, 38.4813
5.18, 5, 35.4665, 51.0228, -14.7792, 96.9877, -61.4803, 38.4734
5.184, 5, 35.4655, 51.0268, -14.7796, 96.986, -61.4956, 38.4655
5.188, 5, 35.4646, 51.0308, -14.78, 96.9844, -61.5109, 38.4576
5.192, 5, 35.4636, 51.0349, -14.7803, 96.9828, -61.5261, 38.4497
5.196, 5, 35.4627, 51.0389, -14.7807, 96.9812, -61.5414, 38.4418
5.2, 5, 35.4617, 51.0429, -14.781, 96.9795, -61.5567, 38.434
5.204, 5, 35.4608, 51.047, -14.7814, 96.9779, -61.572, 38.4261
5.208, 5, 35.4598, 51.051, -14.7817, 96.9762, -61.5872, 38.4182
5.212, 5, 35.4589, 51.055, -14.782, 96.9746, -61.6025, 38.4103
5.216, 5, 35.4579, 51.0591, -14.7824, 96.9729, -61.6178, 38.4025
5.22, 5, 35.4569, 51.0631, -14.7827, 96.9713, -61.633, 38.3946
5.224, 5, 35.456, 51.0671, -14.7831, 96.9697, -61.6483, 38.3867
5.228, 5, 35.455, 51.0711, -14.7834, 96.968, -61.6636, 38.3789
5.232, 5, 35.4541, 51.0752, -14.7837, 96.9663, -61.6788, 38.371
5.236, 5, 35.4531, 51.0792, -14.784, 96.9647, -61.6941, 38.3631
5.24, 5, 35.4521, 51.0832, -14.7844, 96.963, -61.7093, 38.3553
5.244, 5, 35.4512, 51.0872, -14.7847, 96.9614, -61.7246, 38.3474
5.248, 5, 35.4502, 51.0912, -14.785, 96.9597, -61.7399, 38.3396
5.252, 5, 35.4493, 51.0953, -14.7853, 96.958, -61.7551, 38.3317
5.256, 5, 35.4483, 51.0993, -14.7857, 96.9564, -61.7704, 38.3239
5.26, 5, 35.4473, 51.1033, -14.786, 96.9547, -61.7857, 38.316
5.264, 5, 35.4464, 51.1073, -14.7863, 96.953, -61.8009, 38.3082
5.268, 5, 35.4454, 51.1113, -14.7866, 96.9513, -61.8162, 38.3003
5.272, 5, 35.4444, 51.1153, -14.7869, 96.9497, -61.8314, 38.2925
5.276, 5, 35.4435, 51.1193, -14.7872, 96.948, -61.8467, 38.2846
5.28, 5, 35.4425, 51.1233, -14.7875, 96.9463, -61.862, 38.2768
5.284, 5, 35.4415, 51.1273, -14.7878, 96.9446, -61.8772, 38.2689
5.288, 5, 35.4405, 51.1313, -14.7881, 96.9429, -61.8925, 38.2611
5.292, 5, 35.4396, 51.1353, -14.7884, 96.9412, -61.9077, 38.2533
5.296, 5, 35.4386, 51.1393, -14.7887, 96.9395, -61.923, 38.2454
5.3, 5, 35.4376, 51.1433, -14.789, 96.9378, -61.9383, 38.2376
5.304, 5, 35.4367, 51.1473, -14.7893, 96.9361, -61.9535, 38.2298
5.308, 5, 35.4357, 51.1513, -14.7896, 96.9344, -61.9688, 38.2219
5.312, 5, 35.4347, 51.1553, -14.7899, 96.9327, -61.984, 38.2141
5.316, 5, 35.4337, 51.1593, -14.7901, 96.931, -61.9993, 38.2063
5.32, 5, 35.4328, 51.1633, -14.7904, 96.9293, -62.0145, 38.1985
5.324, 5, 35.4318, 51.1673, -14.7907, 96.9276, -62.0298, 38.1906
5.328, 5, 35.4308, 51.1713, -14.791, 96.9259, -62.045, 38.1828
5.332, 5, 35.4298, 51.1753, -14.7912, 96.9242, -62.0603, 38.175
5.336, 5, 35.4288, 51.1792, -14.7915, 96.9225, -62.0755, 38.1672
5.34, 5, 35.4279, 51.1832, -14.7918, 96.9207, -62.0908, 38.1593
5.344, 5, 35.4269, 51.1872, -14.7921, 96.919, -62.106, 38.1515
5.348, 5, 35.4259, 51.1912, -14.7923, 96.9173, -62.1213, 38.1437
5.352, 5, 35.4249, 51.1952, -14.7926, 96.9156, -62.1365, 38.1359
5.356, 5, 35.4239, 51.1991, -14.7928, 96.9138, -62.1518, 38.1281
5.36, 5, 35.4229, 51.2031, -14.7931, 96.9121, -62.167, 38.1203
5.364, 5, 35.422, 51.2071, -14.7934, 96.9104, -62.1823, 38.1125
5.368, 5, 35.421, 51.2111, -14.7936, 96.9086, -62.1975, 38.1047
5.372, 5, 35.42, 51.215, -14.7939, 96.9069, -62.2128, 38.0969
5.376, 5, 35.419, 51.219, -14.7941, 96.9052, -62.228, 38.0891
5.38, 5, 35.418, 51.223, -14.7944, 96.9034, -62.2433, 38.0813
5.384, 5, 35.417, 51.2269, -14.7946, 96.9017, -62.2585, 38.0735
5.388, 5, 35.416, 51.2309, -14.7948, 96.8999, -62.2738, 38.0657
5.392, 5, 35.415, 51.2349, -14.7951, 96.8982, -62.289, 38.0579
5.396, 5, 35.4141, 51.2388, -14.7953, 96.8964, -62.3043, 38.0501
5.4, 5, 35.4131, 51.2428, -14.7955, 96.8947, -62.3195, 38.0423
5.404, 5, 35.4121, 51.2467, -14.7958, 96.8929, -62.3348, 38.0345
5.408, 5, 35.4111, 51.2507, -14.796, 96.8912, -62.35, 38.0267
5.412, 5, 35.4101, 51.2547, -14.7962, 96.8894, -62.3652, 38.0189
5.416, 5, 35.4091, 51.2586, -14.7965, 96.8876, -62.3805, 38.0112
5.42, 5, 35.4081, 51.2626, -14.7967, 96.8859, -62.3957, 38.0034
5.424, 5, 35.4071, 51.2665, -14.7969, 96.8841, -62.411, 37.9956
5.428, 5, 35.4061, 51.2705, -14.7971, 96.8823, -62.4262, 37.9878
5.432, 5, 35.4051, 51.2744, -14.7973, 96.8806, -62.4415, 37.98
5.436, 5, 35.4041, 51.2784, -14.7976, 96.8788, -62.4567, 37.9723
5.44, 5, 35.4031, 51.2823, -14.7978, 96.877, -62.4719, 37.9645
5.444, 5, 35.4021, 51.2863, -14.798, 96.8752, -62.4872, 37.9567
5.448, 5, 35.4011, 51.2902, -14.7982, 96.8734, -62.5024, 37.9489
5.452, 5, 35.4001, 51.2941, -14.7984, 96.8717, -62.5177, 37.9412
5.456, 5, 35.3991, 51.2981, -14.7986, 96.8699, -62.5329, 37.9334
5.46, 5, 35.3981, 51.302, -14.7988, 96.8681, -62.5481, 37.9256
5.464, 5, 35.3971, 51.306, -14.799, 96.8663, -62.5634, 37.9179
5.468, 5, 35.3961, 51.3099, -14.7992, 96.8645, -62.5786, 37.9101
5.472, 5, 35.3951, 51.3138, -14.7994, 96.8627, -62.5938, 37.9024
5.476, 5, 35.3941, 51.3178, -14.7996, 96.8609, -62.6091, 37.8946
5.48, 5, 35.3931, 51.3217, -14.7998, 96.8591, -62.6243, 37.8868
5.484, 5, 35.392, 51.3256, -14.7999, 96.8573, -62.6395, 37.8791
5.488, 5, 35.391, 51.3295, -14.8001, 96.8555, -62.6548, 37.8713
5.492, 5, 35.39, 51.3335, -14.8003, 96.8537, -62.67, 37.8636
5.496, 5, 35.389, 51.3374, -14.8005, 96.8519, -62.6852, 37.8558
5.5, 5, 35.388, 51.3413, -14.8007, 96.8501, -62.7005, 37.8481
5.504, 5, 35.387, 51.3452, -14.8008, 96.8483, -62.7157, 37.8403
5.508, 5, 35.386, 51.3492, -14.801, 96.8464, -62.7309, 37.8326
5.512, 5, 35.385, 51.3531, -14.8012, 96.8446, -62.7462, 37.8248
5.516, 5, 35.384, 51.357, -14.8014, 96.8428, -62.7614, 37.8171
5.52, 5, 35.3829, 51.3609, -14.8015, 96.841, -62.7766, 37.8094
5.524, 5, 35.3819, 51.3648, -14.8017, 96.8391, -62.7919, 37.8016
5.528, 5, 35.3809, 51.3687, -14.8018, 96.8373, -62.8071, 37.7939
5.532, 5, 35.3799, 51.3726, -14.802, 96.8355, -62.8223, 37.7861
5.536, 5, 35.3789, 51.3766, -14.8022, 96.8337, -62.8375, 37.7784
5.54, 5, 35.3778, 51.3805, -14.8023, 96.8318, -62.8528, 37.7707
5.544, 5, 35.3768, 51.3844, -14.8025, 96.83, -62.868, 37.7629
5.548, 5, 35.3758, 51.3883, -14.8026, 96.8282, -62.8832, 37.7552
5.552, 5, 35.3748, 51.3922, -14.8028, 96.8263, -62.8985, 37.7475
5.556, 5, 35.3738, 51.3961, -14.8029, 96.8245, -62.9137, 37.7398
5.56, 5, 35.3727, 51.4, -14.803, 96.8226, -62.9289, 37.732
5.564, 5, 35.3717, 51.4039, -14.8032, 96.8208, -62.9441, 37.7243
5.568, 5, 35.3707, 51.4078, -14.8033, 96.8189, -62.9594, 37.7166
5.572, 5, 35.3697, 51.4117, -14.8035, 96.8171, -62.9746, 37.7089
5.576, 5, 35.3686, 51.4156, -14.8036, 96.8152, -62.9898, 37.7012
5.58, 5, 35.3676, 51.4195, -14.8037, 96.8134, -63.005, 37.6934
5.584, 5, 35.3666, 51.4234, -14.8039, 96.8115, -63.0202, 37.6857
5.588, 5, 35.3656, 51.4272, -14.804, 96.8096, -63.0355, 37.678
5.592, 5, 35.3645, 51.4311, -14.8041, 96.8078, -63.0507, 37.6703
5.596, 5, 35.3635, 51.435, -14.8042, 96.8059, -63.0659, 37.6626
5.6, 5, 35.3625, 51.4389, -14.8043, 96.804, -63.0811, 37.6549
5.604, 5, 35.3614, 51.4428, -14.8045, 96.8022, -63.0963, 37.6472
5.608, 5, 35.3604, 51.4467, -14.8046, 96.8003, -63.1116, 37.6395
5.612, 5, 35.3594, 51.4505, -14.8047, 96.7984, -63.1268, 37.6318
5.616, 5, 35.3583, 51.4544, -14.8048, 96.7966, -63.142, 37.6241
5.62, 5, 35.3573, 51.4583, -14.8049, 96.7947, -63.1572, 37.6164
5.624, 5, 35.3563, 51.4622, -14.805, 96.7928, -63.1724, 37.6087
5.628, 5, 35.3552, 51.4661, -14.8051, 96.7909, -63.1876, 37.601
5.632, 5, 35.3542, 51.4699, -14.8052, 96.789, -63.2029, 37.5933
5.636, 5, 35.3532, 51.4738, -14.8053, 96.7871, -63.2181, 37.5856
5.64, 5, 35.3521, 51.4777, -14.8054, 96.7852, -63.2333, 37.5779
5.644, 5, 35.3511, 51.4815, -14.8055, 96.7833, -63.2485, 37.5702
5.648, 5, 35.35, 51.4854, -14.8056, 96.7815, -63.2637, 37.5625
5.652, 5, 35.349, 51.4893, -14.8057, 96.7796, -63.2789, 37.5548
5.656, 5, 35.348, 51.4931, -14.8058, 96.7777, -63.2942, 37.5471
5.66, 5, 35.3469, 51.497, -14.8059, 96.7758, -63.3094, 37.5395
5.664, 5, 35.3459, 51.5009, -14.8059, 96.7738, -63.3246, 37.5318
5.668, 5, 35.3448, 51.5047, -14.806, 96.7719, -63.3398, 37.5241
5.672, 5, 35.3438, 51.5086, -14.8061, 96.77, -63.355, 37.5164
5.676, 5, 35.3427, 51.5124, -14.8062, 96.7681, -63.3702, 37.5087
5.68, 5, 35.3417, 51.5163, -14.8062, 96.7662, -63.3854, 37.5011
5.684, 5, 35.3406, 51.5201, -14.8063, 96.7643, -63.4006, 37.4934
5.688, 5, 35.3396, 51.524, -14.8064, 96.7624, -63.4158, 37.4857
5.692, 5, 35.3386, 51.5278, -14.8065, 96.7605, -63.431, 37.478
5.696, 5, 35.3375, 51.5317, -14.8065, 96.7585, -63.4463, 37.4704
5.7, 5, 35.3365, 51.5355, -14.8066, 96.7566, -63.4615, 37.4627
5.704, 5, 35.3354, 51.5394, -14.8066, 96.7547, -63.4767, 37.455
5.708, 5, 35.3344, 51.5432, -14.8067, 96.7528, -63.4919, 37.4474
5.712, 5, 35.3333, 51.5471, -14.8067, 96.7508, -63.5071, 37.4397
5.716, 5, 35.3322, 51.5509, -14.8068, 96.7489, -63.5223, 37.432
5.72, 5, 35.3312, 51.5548, -14.8069, 96.747, -63.5375, 37.4244
5.724, 5, 35.3301, 51.5586, -14.8069, 96.745, -63.5527, 37.4167
5.728, 5, 35.3291, 51.5624, -14.8069, 96.7431, -63.5679, 37.4091
5.732, 5, 35.328, 51.5663, -14.807, 96.7411, -63.5831, 37.4014
5.736, 5, 35.327, 51.5701, -14.807, 96.7392, -63.5983, 37.3937
5.74, 5, 35.3259, 51.5739, -14.8071, 96.7373, -63.6135, 37.3861
5.744, 5, 35.3249, 51.5778, -14.8071, 96.7353, -63.6287, 37.3784
5.748, 5, 35.3238, 51.5816, -14.8071, 96.7334, -63.6439, 37.3708
5.752, 5, 35.3227, 51.5854, -14.8072, 96.7314, -63.6591, 37.3631
5.756, 5, 35.3217, 51.5892, -14.8072, 96.7295, -63.6743, 37.3555
5.76, 5, 35.3206, 51.5931, -14.8072, 96.7275, -63.6895, 37.3479
5.764, 5, 35.3196, 51.5969, -14.8072, 96.7255, -63.7047, 37.3402
5.768, 5, 35.3185, 51.6007, -14.8073, 96.7236, -63.7199, 37.3326
5.772, 5, 35.3174, 51.6045, -14.8073, 96.7216, -63.7351, 37.3249
5.776, 5, 35.3164, 51.6084, -14.8073, 96.7197, -63.7503, 37.3173
5.78, 5, 35.3153, 51.6122, -14.8073, 96.7177, -63.7655, 37.3096
5.784, 5, 35.3142, 51.616, -14.8073, 96.7157, -63.7807, 37.302
5.788, 5, 35.3132, 51.6198, -14.8073, 96.7138, -63.7959, 37.2944
5.792, 5, 35.3121, 51.6236, -14.8074, 96.7118, -63.8111, 37.2867
5.796, 5, 35.311, 51.6274, -14.8074, 96.7098, -63.8263, 37.2791
5.8, 5, 35.31, 51.6312, -14.8074, 96.7078, -63.8415, 37.2715
5.804, 5, 35.3089, 51.635, -14.8074, 96.7058, -63.8567, 37.2639
5.808, 5, 35.3078, 51.6388, -14.8074, 96.7039, -63.8719, 37.2562
5.812, 5, 35.3067, 51.6427, -14.8074, 96.7019, -63.8871, 37.2486
5.816, 5, 35.3057, 51.6465, -14.8074, 96.6999, -63.9023, 37.241
5.82, 5, 35.3046, 51.6503, -14.8073, 96.6979, -63.9175, 37.2333
5.824, 5, 35.3035, 51.6541, -14.8073, 96.6959, -63.9327, 37.2257
5.828, 5, 35.3025, 51.6579, -14.8073, 96.6939, -63.9479, 37.2181
5.832, 5, 35.3014, 51.6617, -14.8073, 96.6919, -63.963, 37.2105
5.836, 5, 35.3003, 51.6654, -14.8073, 96.6899, -63.9782, 37.2029
5.84, 5, 35.2992, 51.6692, -14.8073, 96.6879, -63.9934, 37.1953
5.844, 5, 35.2981, 51.673, -14.8072, 96.6859, -64.0086, 37.1876
5.848, 5, 35.2971, 51.6768, -14.8072, 96.6839, -64.0238, 37.18
5.852, 5, 35.296, 51.6806, -14.8072, 96.6819, -64.039, 37.1724
5.856, 5, 35.2949, 51.6844, -14.8072, 96.6799, -64.0542, 37.1648
5.86, 5, 35.2938, 51.6882, -14.8071, 96.6779, -64.0694, 37.1572
5.864, 5, 35.2927, 51.692, -14.8071, 96.6759, -64.0846, 37.1496
5.868, 5, 35.2917, 51.6958, -14.8071, 96.6739, -64.0998, 37.142
5.872, 5, 35.2906, 51.6995, -14.807, 96.6718, -64.1149, 37.1344
5.876, 5, 35.2895, 51.7033, -14.807, 96.6698, -64.1301, 37.1268
5.88, 5, 35.2884, 51.7071, -14.8069, 96.6678, -64.1453, 37.1192
5.884, 5, 35.2873, 51.7109, -14.8069, 96.6658, -64.1605, 37.1116
5.888, 5, 35.2862, 51.7146, -14.8069, 96.6638, -64.1757, 37.104
5.892, 5, 35.2852, 51.7184, -14.8068, 96.6617, -64.1909, 37.0964
5.896, 5, 35.2841, 51.7222, -14.8068, 96.6597, -64.2061, 37.0888
5.9, 5, 35.283, 51.726, -14.8067, 96.6577, -64.2212, 37.0812
5.904, 5, 35.2819, 51.7297, -14.8066, 96.6556, -64.2364, 37.0736
5.908, 5, 35.2808, 51.7335, -14.8066, 96.6536, -64.2516, 37.066
5.912, 5, 35.2797, 51.7373, -14.8065, 96.6516, -64.2668, 37.0584
5.916, 5, 35.2786, 51.741, -14.8065, 96.6495, -64.282, 37.0508
5.92, 5, 35.2775, 51.7448, -14.8064, 96.6475, -64.2972, 37.0433
5.924, 5, 35.2764, 51.7486, -14.8063, 96.6454, -64.3123, 37.0357
5.928, 5, 35.2753, 51.7523, -14.8063, 96.6434, -64.3275, 37.0281
5.932, 5, 35.2743, 51.7561, -14.8062, 96.6413, -64.3427, 37.0205
5.936, 5, 35.2732, 51.7598, -14.8061, 96.6393, -64.3579, 37.0129
5.94, 5, 35.2721, 51.7636, -14.806, 96.6372, -64.3731, 37.0054
5.944, 5, 35.271, 51.7673, -14.8059, 96.6352, -64.3882, 36.9978
5.948, 5, 35.2699, 51.7711, -14.8059, 96.6331, -64.4034, 36.9902
5.952, 5, 35.2688, 51.7748, -14.8058, 96.6311, -64.4186, 36.9826
5.956, 5, 35.2677, 51.7786, -14.8057, 96.629, -64.4338, 36.975
5.96, 5, 35.2666, 51.7823, -14.8056, 96.6269, -64.449, 36.9675
5.964, 5, 35.2655, 51.7861, -14.8055, 96.6249, -64.4641, 36.9599
5.968, 5, 35.2644, 51.7898, -14.8054, 96.6228, -64.4793, 36.9523
5.972, 5, 35.2633, 51.7936, -14.8053, 96.6207, -64.4945, 36.9448
5.976, 5, 35.2622, 51.7973, -14.8052, 96.6187, -64.5097, 36.9372
5.98, 5, 35.2611, 51.8011, -14.8051, 96.6166, -64.5248, 36.9296
5.984, 5, 35.26, 51.8048, -14.805, 96.6145, -64.54, 36.9221
5.988, 5, 35.2589, 51.8085, -14.8049, 96.6124, -64.5552, 36.9145
5.992, 5, 35.2577, 51.8123, -14.8048, 96.6103, -64.5704, 36.907
5.996, 5, 35.2566, 51.816, -14.8047, 96.6083, -64.5855, 36.8994
6, 5, 35.2555, 51.8197, -14.8046, 96.6062, -64.6007, 36.8918
6.004, 5, 35.2544, 51.8235, -14.8045, 96.6041, -64.6159, 36.8843
6.008, 5, 35.2533, 51.8272, -14.8044, 96.602, -64.631, 36.8767
6.012, 5, 35.2522, 51.8309, -14.8042, 96.5999, -64.6462, 36.8692
6.016, 5, 35.2511, 51.8347, -14.8041, 96.5978, -64.6614, 36.8616
6.02, 5, 35.25, 51.8384, -14.804, 96.5957, -64.6766, 36.8541
6.024, 5, 35.2489, 51.8421, -14.8039, 96.5936, -64.6917, 36.8465
6.028, 5, 35.2478, 51.8458, -14.8037, 96.5915, -64.7069, 36.839
6.032, 5, 35.2467, 51.8495, -14.8036, 96.5894, -64.7221, 36.8314
6.036, 5, 35.2455, 51.8533, -14.8035, 96.5873, -64.7372, 36.8239
6.04, 5, 35.2444, 51.857, -14.8033, 96.5852, -64.7524, 36.8164
6.044, 5, 35.2433, 51.8607, -14.8032, 96.5831, -64.7676, 36.8088
