hehonglu123/ABB_Primitive_Study/execution/blade/curve_exe_v500_z10.csv
timestamp, cmd_num, J1, J2, J3, J4, J5, J6
0, -1, 29.9929, 48.8333, 1.53404, 84.3822, -82.855, 37.0358
0.003, -1, 29.9929, 48.8333, 1.53404, 84.3822, -82.855, 37.0358
0.006, -1, 29.9929, 48.8333, 1.53404, 84.3822, -82.855, 37.0358
0.008, -1, 29.9929, 48.8333, 1.53404, 84.3822, -82.855, 37.0358
0.011, -1, 29.9929, 48.8333, 1.53404, 84.3822, -82.855, 37.0358
0.016, -1, 29.9929, 48.8333, 1.53404, 84.3822, -82.855, 37.0358
0.02, -1, 29.9929, 48.8333, 1.53404, 84.3822, -82.855, 37.0358
0.024, -1, 29.9929, 48.8333, 1.53404, 84.3822, -82.855, 37.0358
0.028, -1, 29.9929, 48.8333, 1.53404, 84.3822, -82.855, 37.0358
0.032, -1, 29.993, 48.8333, 1.53404, 84.3822, -82.855, 37.0358
0.036, -1, 29.993, 48.8333, 1.53404, 84.3822, -82.855, 37.0358
0.04, -1, 29.9933, 48.8332, 1.53402, 84.3822, -82.855, 37.0358
0.044, -1, 29.9938, 48.833, 1.53395, 84.3823, -82.8549, 37.0358
0.048, -1, 29.9948, 48.8325, 1.53379, 84.3823, -82.8548, 37.0358
0.052, -1, 29.9964, 48.8318, 1.53345, 84.3825, -82.8543, 37.0359
0.056, -1, 29.9986, 48.8306, 1.53283, 84.3829, -82.8534, 37.0361
0.06, -1, 30.0015, 48.8289, 1.53176, 84.3835, -82.8518, 37.0365
0.064, -1, 30.005, 48.8267, 1.53002, 84.3847, -82.8489, 37.0371
0.068, -1, 30.0092, 48.824, 1.52738, 84.3866, -82.8443, 37.0381
0.072, -1, 30.0141, 48.821, 1.52352, 84.3895, -82.8373, 37.0397
0.076, -1, 30.0196, 48.8176, 1.51811, 84.3936, -82.8273, 37.0419
0.08, -1, 30.026, 48.814, 1.51078, 84.3993, -82.8136, 37.045
0.084, -1, 30.0333, 48.8103, 1.50113, 84.4069, -82.7952, 37.0491
0.088, -1, 30.0415, 48.8067, 1.48876, 84.4168, -82.7713, 37.0544
0.092, -1, 30.0505, 48.8033, 1.4733, 84.4294, -82.7411, 37.0611
0.096, -1, 30.0602, 48.8002, 1.45441, 84.4448, -82.7039, 37.0694
0.1, -1, 30.0707, 48.7976, 1.4318, 84.4635, -82.659, 37.0794
0.104, -1, 30.0817, 48.7956, 1.40529, 84.4856, -82.6061, 37.0913
0.108, -1, 30.0933, 48.7941, 1.37476, 84.5112, -82.5447, 37.1049
0.112, -1, 30.1055, 48.7932, 1.34022, 84.5402, -82.4751, 37.1205
0.116, -1, 30.1185, 48.7927, 1.30174, 84.5727, -82.3974, 37.1379
0.12, -1, 30.1323, 48.7927, 1.25953, 84.6083, -82.312, 37.1569
0.124, -1, 30.1469, 48.793, 1.21383, 84.6469, -82.2196, 37.1776
0.128, -1, 30.1623, 48.7937, 1.16497, 84.6882, -82.1206, 37.1997
0.131, -1, 30.1783, 48.7946, 1.11332, 84.7319, -82.016, 37.2231
0.136, -1, 30.1948, 48.7955, 1.05927, 84.7776, -81.9066, 37.2476
0.139, -1, 30.212, 48.7963, 1.00321, 84.825, -81.7932, 37.2729
0.144, -1, 30.2298, 48.7968, 0.945528, 84.8736, -81.6766, 37.299
0.148, -1, 30.2485, 48.7968, 0.886585, 84.9233, -81.5576, 37.3256
0.152, -1, 30.2681, 48.7963, 0.826699, 84.9737, -81.4368, 37.3525
0.156, -1, 30.2885, 48.7951, 0.766138, 85.0246, -81.3148, 37.3798
0.16, -1, 30.3097, 48.7935, 0.705121, 85.0758, -81.1921, 37.4072
0.164, -1, 30.3317, 48.7916, 0.643816, 85.1272, -81.0689, 37.4348
0.168, -1, 30.3541, 48.7893, 0.582346, 85.1787, -80.9454, 37.4623
0.172, -1, 30.3768, 48.7869, 0.520796, 85.2303, -80.8218, 37.49
0.176, -1, 30.3997, 48.7844, 0.459227, 85.2819, -80.6982, 37.5176
0.18, -1, 30.4228, 48.7818, 0.397677, 85.3334, -80.5746, 37.5452
0.184, -1, 30.446, 48.7791, 0.336173, 85.3849, -80.4512, 37.5727
0.188, -1, 30.4691, 48.7764, 0.274733, 85.4363, -80.3279, 37.6003
0.192, -1, 30.4923, 48.7737, 0.213369, 85.4876, -80.2048, 37.6278
0.196, -1, 30.5155, 48.771, 0.152089, 85.5389, -80.0818, 37.6552
0.2, -1, 30.5387, 48.7682, 0.0908988, 85.5901, -79.9591, 37.6827
0.204, -1, 30.5619, 48.7655, 0.0298009, 85.6413, -79.8365, 37.7101
0.208, -1, 30.585, 48.7627, -0.0312022, 85.6923, -79.7141, 37.7374
0.212, -1, 30.6081, 48.76, -0.0921092, 85.7433, -79.5919, 37.7647
0.216, -1, 30.6311, 48.7573, -0.152919, 85.7942, -79.4699, 37.7919
0.22, -1, 30.6542, 48.7545, -0.213632, 85.845, -79.3481, 37.8191
0.224, -1, 30.6772, 48.7518, -0.274248, 85.8957, -79.2264, 37.8463
0.228, -1, 30.7001, 48.749, -0.334767, 85.9463, -79.105, 37.8734
0.232, -1, 30.723, 48.7463, -0.395188, 85.9969, -78.9838, 37.9005
0.236, -1, 30.7459, 48.7436, -0.455513, 86.0474, -78.8628, 37.9276
0.24, -1, 30.7688, 48.7409, -0.515741, 86.0978, -78.7419, 37.9545
0.244, -1, 30.7916, 48.7381, -0.575873, 86.1481, -78.6213, 37.9815
0.248, -1, 30.8144, 48.7354, -0.635909, 86.1983, -78.5008, 38.0084
0.252, -1, 30.8371, 48.7327, -0.69585, 86.2485, -78.3806, 38.0353
0.256, -1, 30.8598, 48.73, -0.755696, 86.2986, -78.2605, 38.0621
0.26, -1, 30.8825, 48.7273, -0.815448, 86.3486, -78.1406, 38.0889
0.264, -1, 30.9051, 48.7246, -0.875105, 86.3985, -78.0209, 38.1156
0.268, -1, 30.9277, 48.7219, -0.934668, 86.4483, -77.9014, 38.1423
0.272, -1, 30.9503, 48.7192, -0.994138, 86.4981, -77.7821, 38.1689
0.276, -1, 30.9728, 48.7166, -1.05351, 86.5478, -77.663, 38.1955
0.28, -1, 30.9953, 48.7139, -1.1128, 86.5974, -77.5441, 38.2221
0.284, -1, 31.0177, 48.7112, -1.17199, 86.6469, -77.4253, 38.2486
0.288, -1, 31.0402, 48.7085, -1.23109, 86.6964, -77.3067, 38.2751
0.292, -1, 31.0625, 48.7059, -1.2901, 86.7458, -77.1883, 38.3016
0.296, -1, 31.0849, 48.7032, -1.34902, 86.7951, -77.0701, 38.328
0.3, -1, 31.1072, 48.7005, -1.40784, 86.8443, -76.9521, 38.3543
0.304, -1, 31.1295, 48.6979, -1.46658, 86.8934, -76.8343, 38.3807
0.308, -1, 31.1517, 48.6952, -1.52522, 86.9425, -76.7166, 38.407
0.312, -1, 31.174, 48.6926, -1.58378, 86.9915, -76.5991, 38.4332
0.316, -1, 31.1961, 48.6899, -1.64225, 87.0404, -76.4818, 38.4594
0.32, -1, 31.2183, 48.6873, -1.70063, 87.0893, -76.3647, 38.4856
0.324, -1, 31.2404, 48.6847, -1.75892, 87.1381, -76.2477, 38.5117
0.328, -1, 31.2625, 48.682, -1.81712, 87.1868, -76.131, 38.5378
0.332, -1, 31.2845, 48.6794, -1.87523, 87.2354, -76.0144, 38.5638
0.336, -1, 31.3065, 48.6768, -1.93326, 87.2839, -75.898, 38.5898
0.34, -1, 31.3285, 48.6742, -1.9912, 87.3324, -75.7817, 38.6158
0.344, -1, 31.3505, 48.6716, -2.04905, 87.3808, -75.6656, 38.6417
0.348, -1, 31.3724, 48.669, -2.10682, 87.4292, -75.5498, 38.6676
0.352, -1, 31.3943, 48.6664, -2.1645, 87.4774, -75.434, 38.6935
0.356, -1, 31.4161, 48.6637, -2.22209, 87.5256, -75.3185, 38.7193
0.36, -1, 31.4379, 48.6611, -2.2796, 87.5738, -75.2031, 38.745
0.364, -1, 31.4597, 48.6586, -2.33702, 87.6218, -75.0879, 38.7708
0.368, -1, 31.4815, 48.656, -2.39436, 87.6698, -74.9728, 38.7965
0.372, -1, 31.5032, 48.6534, -2.45162, 87.7177, -74.858, 38.8221
0.376, -1, 31.5249, 48.6508, -2.50879, 87.7655, -74.7433, 38.8477
0.38, -1, 31.5465, 48.6482, -2.56588, 87.8133, -74.6287, 38.8733
0.384, -1, 31.5682, 48.6456, -2.62288, 87.861, -74.5144, 38.8989
0.388, -1, 31.5898, 48.6431, -2.6798, 87.9086, -74.4002, 38.9244
0.392, -1, 31.6113, 48.6405, -2.73664, 87.9562, -74.2861, 38.9499
0.396, -1, 31.6329, 48.6379, -2.7934, 88.0037, -74.1723, 38.9753
0.4, -1, 31.6544, 48.6354, -2.85007, 88.0511, -74.0586, 39.0007
0.404, -1, 31.6758, 48.6328, -2.90666, 88.0985, -73.945, 39.0261
0.408, -1, 31.6973, 48.6303, -2.96317, 88.1458, -73.8316, 39.0514
0.412, -1, 31.7187, 48.6277, -3.0196, 88.193, -73.7184, 39.0767
0.416, -1, 31.74, 48.6252, -3.07595, 88.2401, -73.6054, 39.1019
0.42, -1, 31.7614, 48.6226, -3.13222, 88.2872, -73.4925, 39.1271
0.424, -1, 31.7827, 48.6201, -3.18841, 88.3342, -73.3798, 39.1523
0.428, -1, 31.804, 48.6175, -3.24451, 88.3812, -73.2672, 39.1775
0.432, -1, 31.8252, 48.615, -3.30054, 88.4281, -73.1548, 39.2026
0.436, -1, 31.8465, 48.6125, -3.35649, 88.4749, -73.0425, 39.2277
0.44, -1, 31.8677, 48.61, -3.41236, 88.5216, -72.9304, 39.2527
0.444, -1, 31.8888, 48.6074, -3.46815, 88.5683, -72.8185, 39.2777
0.448, -1, 31.91, 48.6049, -3.52387, 88.615, -72.7067, 39.3027
0.452, -1, 31.9311, 48.6024, -3.57951, 88.6615, -72.5951, 39.3276
0.456, -1, 31.9522, 48.5999, -3.63506, 88.708, -72.4836, 39.3525
0.46, -1, 31.9732, 48.5974, -3.69055, 88.7544, -72.3723, 39.3774
0.464, -1, 31.9942, 48.5949, -3.74595, 88.8008, -72.2611, 39.4022
0.468, -1, 32.0152, 48.5924, -3.80128, 88.8471, -72.1501, 39.427
0.472, -1, 32.0362, 48.5899, -3.85653, 88.8933, -72.0393, 39.4518
0.476, -1, 32.0571, 48.5874, -3.91171, 88.9395, -71.9286, 39.4765
0.48, -1, 32.078, 48.5849, -3.96681, 88.9856, -71.818, 39.5012
0.484, -1, 32.0989, 48.5824, -4.02184, 89.0317, -71.7076, 39.5258
0.488, -1, 32.1197, 48.5799, -4.07679, 89.0776, -71.5974, 39.5505
0.492, -1, 32.1406, 48.5774, -4.13167, 89.1236, -71.4873, 39.5751
0.496, -1, 32.1614, 48.575, -4.18647, 89.1694, -71.3773, 39.5996
0.5, -1, 32.1821, 48.5725, -4.2412, 89.2152, -71.2675, 39.6241
0.504, -1, 32.2028, 48.57, -4.29586, 89.261, -71.1579, 39.6486
0.508, -1, 32.2236, 48.5676, -4.35044, 89.3066, -71.0484, 39.6731
0.512, -1, 32.2442, 48.5651, -4.40495, 89.3522, -70.939, 39.6975
0.516, -1, 32.2649, 48.5626, -4.45939, 89.3978, -70.8298, 39.7219
0.52, -1, 32.2855, 48.5602, -4.51375, 89.4433, -70.7207, 39.7463
0.524, -1, 32.3061, 48.5577, -4.56805, 89.4887, -70.6118, 39.7706
0.528, -1, 32.3267, 48.5553, -4.62227, 89.5341, -70.503, 39.7949
0.532, -1, 32.3472, 48.5528, -4.67642, 89.5794, -70.3943, 39.8192
0.536, -1, 32.3677, 48.5504, -4.73049, 89.6247, -70.2858, 39.8434
0.54, -1, 32.3882, 48.5479, -4.7845, 89.6699, -70.1775, 39.8676
0.544, -1, 32.4087, 48.5455, -4.83844, 89.715, -70.0693, 39.8918
0.548, -1, 32.4291, 48.5431, -4.8923, 89.7601, -69.9612, 39.916
0.552, -1, 32.4495, 48.5406, -4.9461, 89.8051, -69.8533, 39.9401
0.556, -1, 32.4699, 48.5382, -4.99983, 89.85, -69.7455, 39.9641
0.56, -1, 32.4903, 48.5358, -5.05348, 89.8949, -69.6378, 39.9882
0.564, -1, 32.5106, 48.5334, -5.10707, 89.9398, -69.5303, 40.0122
0.568, -1, 32.5309, 48.5309, -5.16059, 89.9846, -69.4229, 40.0362
0.572, -1, 32.5512, 48.5285, -5.21404, 90.0293, -69.3157, 40.0601
0.576, -1, 32.5714, 48.5261, -5.26742, 90.074, -69.2086, 40.0841
0.58, -1, 32.5916, 48.5237, -5.32073, 90.1186, -69.1016, 40.108
0.584, -1, 32.6118, 48.5213, -5.37398, 90.1631, -68.9948, 40.1318
0.588, -1, 32.632, 48.5189, -5.42716, 90.2076, -68.8881, 40.1557
0.592, -1, 32.6522, 48.5165, -5.48026, 90.2521, -68.7816, 40.1795
0.596, -1, 32.6723, 48.5141, -5.53331, 90.2965, -68.6752, 40.2032
0.6, -1, 32.6924, 48.5117, -5.58628, 90.3408, -68.5689, 40.227
0.604, -1, 32.7125, 48.5093, -5.63919, 90.3851, -68.4627, 40.2507
0.608, -1, 32.7325, 48.5069, -5.69203, 90.4293, -68.3567, 40.2744
0.612, -1, 32.7525, 48.5045, -5.74481, 90.4734, -68.2508, 40.298
0.616, -1, 32.7725, 48.5021, -5.79752, 90.5175, -68.1451, 40.3216
0.62, -1, 32.7925, 48.4998, -5.85017, 90.5616, -68.0394, 40.3452
0.624, -1, 32.8124, 48.4974, -5.90275, 90.6056, -67.9339, 40.3688
0.628, -1, 32.8324, 48.495, -5.95526, 90.6495, -67.8286, 40.3923
0.632, -1, 32.8523, 48.4926, -6.00771, 90.6934, -67.7234, 40.4158
0.636, -1, 32.8721, 48.4903, -6.06009, 90.7373, -67.6182, 40.4393
0.64, -1, 32.892, 48.4879, -6.11241, 90.781, -67.5133, 40.4628
0.644, -1, 32.9118, 48.4856, -6.16467, 90.8248, -67.4084, 40.4862
0.648, -1, 32.9316, 48.4832, -6.21686, 90.8685, -67.3037, 40.5096
0.652, -1, 32.9514, 48.4808, -6.26899, 90.9121, -67.1991, 40.5329
0.656, -1, 32.9711, 48.4785, -6.32106, 90.9556, -67.0947, 40.5563
0.66, -1, 32.9908, 48.4761, -6.37306, 90.9991, -66.9903, 40.5796
0.664, -1, 33.0106, 48.4738, -6.425, 91.0426, -66.8861, 40.6028
0.668, -1, 33.0302, 48.4714, -6.47687, 91.086, -66.7821, 40.6261
0.672, -1, 33.0499, 48.4691, -6.52868, 91.1294, -66.6781, 40.6493
0.676, -1, 33.0695, 48.4668, -6.58043, 91.1727, -66.5743, 40.6725
0.68, -1, 33.0891, 48.4644, -6.63212, 91.2159, -66.4706, 40.6957
0.684, -1, 33.1087, 48.4621, -6.68375, 91.2591, -66.367, 40.7188
0.688, -1, 33.1283, 48.4598, -6.73531, 91.3023, -66.2635, 40.7419
0.692, -1, 33.1478, 48.4574, -6.78682, 91.3454, -66.1602, 40.765
0.696, -1, 33.1673, 48.4551, -6.83826, 91.3884, -66.057, 40.7881
0.7, -1, 33.1868, 48.4528, -6.88964, 91.4314, -65.9539, 40.8111
0.704, -1, 33.2063, 48.4505, -6.94096, 91.4744, -65.851, 40.8341
0.708, -1, 33.2257, 48.4482, -6.99222, 91.5173, -65.7481, 40.8571
0.712, -1, 33.2452, 48.4458, -7.04342, 91.5601, -65.6454, 40.88
0.716, -1, 33.2646, 48.4435, -7.09456, 91.6029, -65.5428, 40.9029
0.72, -1, 33.2839, 48.4412, -7.14564, 91.6457, -65.4403, 40.9258
0.724, -1, 33.3033, 48.4389, -7.19666, 91.6883, -65.3379, 40.9487
0.728, -1, 33.3226, 48.4366, -7.24762, 91.731, -65.2357, 40.9715
0.732, -1, 33.3419, 48.4343, -7.29852, 91.7736, -65.1336, 40.9943
0.736, -1, 33.3612, 48.432, -7.34936, 91.8161, -65.0316, 41.0171
0.74, -1, 33.3805, 48.4297, -7.40015, 91.8586, -64.9297, 41.0399
0.744, -1, 33.3997, 48.4274, -7.45087, 91.9011, -64.8279, 41.0626
0.748, -1, 33.4189, 48.4251, -7.50153, 91.9435, -64.7263, 41.0853
0.752, -1, 33.4381, 48.4228, -7.55214, 91.9858, -64.6247, 41.108
0.756, -1, 33.4573, 48.4206, -7.60269, 92.0281, -64.5233, 41.1306
0.76, -1, 33.4765, 48.4183, -7.65318, 92.0704, -64.422, 41.1533
0.764, -1, 33.4956, 48.416, -7.70362, 92.1126, -64.3208, 41.1759
0.768, -1, 33.5147, 48.4137, -7.75399, 92.1547, -64.2197, 41.1985
0.772, -1, 33.5338, 48.4115, -7.80431, 92.1968, -64.1188, 41.221
0.776, -1, 33.5529, 48.4092, -7.85457, 92.2389, -64.018, 41.2435
0.78, -1, 33.5719, 48.4069, -7.90478, 92.2809, -63.9172, 41.266
0.784, -1, 33.5909, 48.4046, -7.95493, 92.3229, -63.8166, 41.2885
0.788, -1, 33.6099, 48.4024, -8.00502, 92.3648, -63.7161, 41.311
0.792, -1, 33.6289, 48.4001, -8.05505, 92.4066, -63.6157, 41.3334
0.796, -1, 33.6479, 48.3979, -8.10503, 92.4485, -63.5154, 41.3558
0.8, -1, 33.6668, 48.3956, -8.15496, 92.4902, -63.4153, 41.3782
0.804, -1, 33.6857, 48.3934, -8.20482, 92.532, -63.3152, 41.4005
0.808, -1, 33.7046, 48.3911, -8.25464, 92.5737, -63.2153, 41.4228
0.812, -1, 33.7235, 48.3889, -8.30439, 92.6153, -63.1155, 41.4451
0.816, -1, 33.7424, 48.3866, -8.3541, 92.6569, -63.0158, 41.4674
0.82, -1, 33.7612, 48.3844, -8.40374, 92.6984, -62.9161, 41.4897
0.824, -1, 33.78, 48.3821, -8.45333, 92.7399, -62.8166, 41.5119
0.828, -1, 33.7988, 48.3799, -8.50287, 92.7814, -62.7173, 41.5341
0.832, -1, 33.8176, 48.3776, -8.55236, 92.8228, -62.618, 41.5563
0.836, -1, 33.8363, 48.3754, -8.60179, 92.8642, -62.5188, 41.5784
0.84, -1, 33.855, 48.3732, -8.65116, 92.9055, -62.4197, 41.6005
0.844, -1, 33.8738, 48.3709, -8.70049, 92.9467, -62.3208, 41.6226
0.848, -1, 33.8925, 48.3687, -8.74975, 92.988, -62.2219, 41.6447
0.852, -1, 33.9111, 48.3665, -8.79897, 93.0292, -62.1232, 41.6668
0.856, -1, 33.9298, 48.3643, -8.84813, 93.0703, -62.0246, 41.6888
0.86, -1, 33.9484, 48.3621, -8.89725, 93.1114, -61.926, 41.7108
0.864, -1, 33.967, 48.3598, -8.9463, 93.1524, -61.8276, 41.7328
0.868, -1, 33.9856, 48.3576, -8.99531, 93.1935, -61.7293, 41.7548
0.872, -1, 34.0042, 48.3554, -9.04426, 93.2344, -61.6311, 41.7767
0.876, -1, 34.0227, 48.3532, -9.09317, 93.2753, -61.5329, 41.7986
0.88, -1, 34.0413, 48.351, -9.14202, 93.3162, -61.4349, 41.8205
0.884, -1, 34.0598, 48.3488, -9.19082, 93.3571, -61.337, 41.8424
0.888, -1, 34.0783, 48.3466, -9.23956, 93.3979, -61.2392, 41.8642
0.892, -1, 34.0967, 48.3444, -9.28826, 93.4386, -61.1415, 41.8861
0.896, -1, 34.1152, 48.3422, -9.33691, 93.4793, -61.0439, 41.9079
0.9, -1, 34.1336, 48.34, -9.3855, 93.52, -60.9464, 41.9296
0.904, -1, 34.152, 48.3378, -9.43405, 93.5606, -60.849, 41.9514
0.908, -1, 34.1704, 48.3356, -9.48254, 93.6012, -60.7517, 41.9731
0.912, -1, 34.1888, 48.3334, -9.53098, 93.6417, -60.6545, 41.9948
0.916, -1, 34.2072, 48.3312, -9.57938, 93.6822, -60.5574, 42.0165
0.92, -1, 34.2255, 48.329, -9.62772, 93.7227, -60.4604, 42.0382
0.924, -1, 34.2438, 48.3269, -9.67601, 93.7631, -60.3636, 42.0598
0.928, -1, 34.2621, 48.3247, -9.72426, 93.8034, -60.2668, 42.0815
0.932, -1, 34.2804, 48.3225, -9.77246, 93.8438, -60.1701, 42.1031
0.936, -1, 34.2987, 48.3203, -9.8206, 93.8841, -60.0735, 42.1246
0.94, -1, 34.3169, 48.3182, -9.8687, 93.9243, -59.977, 42.1462
0.944, -1, 34.3351, 48.316, -9.91674, 93.9645, -59.8806, 42.1677
0.948, -1, 34.3534, 48.3138, -9.96474, 94.0047, -59.7843, 42.1892
0.952, -1, 34.3715, 48.3116, -10.0127, 94.0448, -59.6881, 42.2107
0.956, -1, 34.3897, 48.3095, -10.0606, 94.0849, -59.592, 42.2322
0.96, -1, 34.4079, 48.3073, -10.1085, 94.1249, -59.4959, 42.2536
0.964, -1, 34.426, 48.3052, -10.1563, 94.1649, -59.4, 42.2751
0.968, -1, 34.4441, 48.303, -10.204, 94.2049, -59.3042, 42.2965
0.972, -1, 34.4622, 48.3008, -10.2517, 94.2448, -59.2085, 42.3179
0.976, -1, 34.4803, 48.2987, -10.2994, 94.2847, -59.1129, 42.3392
0.98, -1, 34.4984, 48.2965, -10.347, 94.3246, -59.0173, 42.3606
0.984, -1, 34.5164, 48.2944, -10.3946, 94.3644, -58.9219, 42.3819
0.988, -1, 34.5344, 48.2922, -10.4421, 94.4041, -58.8266, 42.4032
0.992, -1, 34.5524, 48.2901, -10.4896, 94.4439, -58.7313, 42.4244
0.996, -1, 34.5704, 48.2879, -10.537, 94.4835, -58.6362, 42.4457
1, -1, 34.5884, 48.2858, -10.5844, 94.5232, -58.5411, 42.4669
1.004, -1, 34.6064, 48.2837, -10.6317, 94.5628, -58.4461, 42.4881
1.008, -1, 34.6243, 48.2815, -10.679, 94.6024, -58.3512, 42.5093
1.012, -1, 34.6422, 48.2794, -10.7262, 94.6419, -58.2565, 42.5305
1.016, -1, 34.6601, 48.2773, -10.7734, 94.6814, -58.1618, 42.5517
1.02, -1, 34.678, 48.2751, -10.8206, 94.7209, -58.0672, 42.5728
1.024, -1, 34.6959, 48.273, -10.8677, 94.7603, -57.9727, 42.5939
1.027, -1, 34.7137, 48.2709, -10.9147, 94.7996, -57.8783, 42.615
1.032, -1, 34.7316, 48.2687, -10.9618, 94.839, -57.7839, 42.6361
1.036, -1, 34.7494, 48.2666, -11.0087, 94.8783, -57.6897, 42.6571
1.04, -1, 34.7672, 48.2645, -11.0557, 94.9176, -57.5956, 42.6781
1.044, -1, 34.785, 48.2624, -11.1025, 94.9568, -57.5015, 42.6992
1.048, -1, 34.8027, 48.2603, -11.1494, 94.996, -57.4075, 42.7201
1.052, -1, 34.8205, 48.2582, -11.1962, 95.0351, -57.3137, 42.7411
1.055, -1, 34.8382, 48.256, -11.2429, 95.0742, -57.2199, 42.7621
1.06, -1, 34.8559, 48.2539, -11.2896, 95.1133, -57.1262, 42.783
1.064, -1, 34.8736, 48.2518, -11.3362, 95.1524, -57.0326, 42.8039
1.068, -1, 34.8913, 48.2497, -11.3829, 95.1914, -56.9391, 42.8248
1.072, -1, 34.909, 48.2476, -11.4294, 95.2303, -56.8456, 42.8457
1.076, -1, 34.9266, 48.2455, -11.4759, 95.2693, -56.7523, 42.8665
1.08, -1, 34.9442, 48.2434, -11.5224, 95.3082, -56.659, 42.8873
1.084, -1, 34.9618, 48.2413, -11.5689, 95.347, -56.5659, 42.9081
1.088, -1, 34.9795, 48.2392, -11.6153, 95.3858, -56.4728, 42.9289
1.091, -1, 34.997, 48.2371, -11.6616, 95.4246, -56.3798, 42.9497
1.096, -1, 35.0146, 48.235, -11.7079, 95.4634, -56.2869, 42.9705
1.1, -1, 35.0321, 48.2329, -11.7542, 95.5021, -56.1941, 42.9912
1.104, -1, 35.0497, 48.2309, -11.8004, 95.5408, -56.1014, 43.0119
1.108, -1, 35.0672, 48.2288, -11.8466, 95.5794, -56.0087, 43.0326
1.112, -1, 35.0847, 48.2267, -11.8927, 95.618, -55.9161, 43.0533
1.116, -1, 35.1022, 48.2246, -11.9388, 95.6566, -55.8237, 43.0739
1.119, -1, 35.1196, 48.2225, -11.9848, 95.6951, -55.7313, 43.0946
1.124, -1, 35.1371, 48.2204, -12.0309, 95.7336, -55.639, 43.1152
1.128, -1, 35.1545, 48.2184, -12.0768, 95.7721, -55.5468, 43.1358
1.132, -1, 35.172, 48.2163, -12.1227, 95.8105, -55.4546, 43.1564
1.136, -1, 35.1894, 48.2142, -12.1686, 95.8489, -55.3626, 43.1769
1.14, -1, 35.2067, 48.2121, -12.2145, 95.8873, -55.2706, 43.1975
1.144, -1, 35.2241, 48.2101, -12.2603, 95.9256, -55.1787, 43.218
1.147, -1, 35.2415, 48.208, -12.306, 95.9639, -55.0869, 43.2385
1.152, -1, 35.2588, 48.2059, -12.3517, 96.0021, -54.9952, 43.259
1.156, -1, 35.2761, 48.2039, -12.3974, 96.0404, -54.9035, 43.2795
1.16, -1, 35.2935, 48.2018, -12.443, 96.0785, -54.812, 43.2999
1.164, -1, 35.3108, 48.1997, -12.4886, 96.1167, -54.7205, 43.3204
1.168, -1, 35.328, 48.1977, -12.5342, 96.1548, -54.6291, 43.3408
1.172, -1, 35.3453, 48.1956, -12.5797, 96.1929, -54.5378, 43.3612
1.175, -1, 35.3625, 48.1936, -12.6252, 96.2309, -54.4466, 43.3816
1.18, -1, 35.3798, 48.1915, -12.6706, 96.269, -54.3554, 43.4019
1.184, -1, 35.397, 48.1895, -12.716, 96.3069, -54.2644, 43.4223
1.188, -1, 35.4142, 48.1874, -12.7614, 96.3449, -54.1734, 43.4426
1.192, -1, 35.4314, 48.1854, -12.8067, 96.3828, -54.0825, 43.4629
1.196, -1, 35.4486, 48.1833, -12.8519, 96.4207, -53.9916, 43.4832
1.2, -1, 35.4657, 48.1813, -12.8972, 96.4585, -53.9009, 43.5035
1.204, -1, 35.4829, 48.1792, -12.9424, 96.4964, -53.8102, 43.5237
1.208, -1, 35.5, 48.1772, -12.9875, 96.5341, -53.7196, 43.5439
1.212, -1, 35.5171, 48.1752, -13.0326, 96.5719, -53.6291, 43.5642
1.216, -1, 35.5342, 48.1731, -13.0777, 96.6096, -53.5387, 43.5844
1.22, -1, 35.5513, 48.1711, -13.1227, 96.6473, -53.4483, 43.6045
1.224, -1, 35.5684, 48.1691, -13.1677, 96.685, -53.358, 43.6247
1.228, -1, 35.5854, 48.167, -13.2127, 96.7226, -53.2678, 43.6449
1.232, -1, 35.6024, 48.165, -13.2576, 96.7602, -53.1777, 43.665
1.236, -1, 35.6193, 48.163, -13.3025, 96.7977, -53.0876, 43.6851
1.24, -1, 35.6361, 48.1611, -13.3473, 96.8352, -52.9977, 43.7052
1.244, -1, 35.6526, 48.1593, -13.3921, 96.8727, -52.9079, 43.7253
1.248, -1, 35.6687, 48.1576, -13.4368, 96.9101, -52.8182, 43.7453
1.252, -1, 35.6845, 48.1561, -13.4813, 96.9474, -52.7288, 43.7653
1.256, -1, 35.6998, 48.1549, -13.5257, 96.9846, -52.6398, 43.7852
1.26, -1, 35.7144, 48.154, -13.5697, 97.0214, -52.5514, 43.8049
1.264, -1, 35.7284, 48.1534, -13.6133, 97.058, -52.4638, 43.8245
1.267, -1, 35.7418, 48.1533, -13.6563, 97.094, -52.3775, 43.8438
1.272, -1, 35.7544, 48.1534, -13.6984, 97.1293, -52.293, 43.8627
1.276, -1, 35.7664, 48.1539, -13.7394, 97.1637, -52.2106, 43.8812
1.28, -1, 35.7778, 48.1545, -13.7789, 97.1969, -52.1312, 43.8989
1.284, -1, 35.7885, 48.1552, -13.8167, 97.2286, -52.0552, 43.9159
1.288, -1, 35.7988, 48.1559, -13.8524, 97.2586, -51.9835, 43.932
1.292, -1, 35.8086, 48.1563, -13.8858, 97.2866, -51.9165, 43.947
1.295, -1, 35.818, 48.1565, -13.9165, 97.3123, -51.8549, 43.9608
1.3, -1, 35.8271, 48.1563, -13.9443, 97.3356, -51.7991, 43.9733
1.304, -1, 35.8359, 48.1556, -13.9691, 97.3564, -51.7493, 43.9844
1.308, -1, 35.8444, 48.1544, -13.9909, 97.3746, -51.7057, 43.9941
1.312, -1, 35.8525, 48.1528, -14.0096, 97.3902, -51.6681, 44.0025
1.316, -1, 35.8603, 48.1509, -14.0254, 97.4034, -51.6365, 44.0096
1.32, -1, 35.8677, 48.1486, -14.0385, 97.4142, -51.6103, 44.0154
1.324, -1, 35.8747, 48.1461, -14.049, 97.423, -51.5893, 44.02
1.328, -1, 35.8814, 48.1434, -14.0573, 97.4298, -51.5727, 44.0237
1.332, -1, 35.8876, 48.1407, -14.0637, 97.4351, -51.56, 44.0265
1.336, -1, 35.8933, 48.1381, -14.0685, 97.439, -51.5505, 44.0286
1.34, -1, 35.8984, 48.1357, -14.072, 97.4419, -51.5436, 44.0301
1.344, 2, 35.9027, 48.1336, -14.0745, 97.4439, -51.5387, 44.0312
1.348, 2, 35.9062, 48.1319, -14.0763, 97.4453, -51.5352, 44.0319
1.352, 2, 35.9089, 48.1307, -14.0775, 97.4462, -51.5328, 44.0324
1.356, 2, 35.9109, 48.1297, -14.0783, 97.4469, -51.5312, 44.0328
1.36, 2, 35.9123, 48.1291, -14.0789, 97.4473, -51.5301, 44.033
1.364, 2, 35.9132, 48.1287, -14.0792, 97.4476, -51.5294, 44.0332
1.368, 2, 35.9138, 48.1284, -14.0795, 97.4479, -51.5289, 44.0333
1.372, 2, 35.9142, 48.1282, -14.0797, 97.448, -51.5286, 44.0334
1.376, 2, 35.9145, 48.1281, -14.0798, 97.4481, -51.5283, 44.0334
1.38, 2, 35.9147, 48.128, -14.0799, 97.4482, -51.5282, 44.0335
1.384, 2, 35.9149, 48.1279, -14.0799, 97.4482, -51.5281, 44.0335
1.388, 2, 35.9149, 48.1279, -14.0799, 97.4482, -51.528, 44.0335
1.392, 2, 35.915, 48.1278, -14.08, 97.4482, -51.5279, 44.0335
1.396, 2, 35.915, 48.1278, -14.08, 97.4483, -51.5279, 44.0335
1.4, 2, 35.9151, 48.1278, -14.08, 97.4483, -51.5279, 44.0335
1.404, 2, 35.9151, 48.1278, -14.08, 97.4483, -51.5279, 44.0335
1.408, 2, 35.9151, 48.1278, -14.08, 97.4483, -51.5279, 44.0335
1.412, 2, 35.9151, 48.1278, -14.08, 97.4483, -51.5279, 44.0335
1.416, 2, 35.9151, 48.1278, -14.08, 97.4483, -51.5279, 44.0335
1.42, 2, 35.9151, 48.1278, -14.08, 97.4483, -51.5278, 44.0335
1.424, 2, 35.9151, 48.1278, -14.08, 97.4483, -51.5278, 44.0335
1.428, 2, 35.9151, 48.1278, -14.08, 97.4483, -51.5278, 44.0335
1.432, 2, 35.9151, 48.1278, -14.08, 97.4483, -51.5278, 44.0335
1.436, 2, 35.9151, 48.1278, -14.08, 97.4483, -51.5278, 44.0335
1.44, 2, 35.9151, 48.1278, -14.08, 97.4483, -51.5278, 44.0335
1.444, 2, 35.9151, 48.1278, -14.08, 97.4483, -51.5278, 44.0335
1.448, 2, 35.9151, 48.1278, -14.08, 97.4483, -51.5278, 44.0335
1.452, 2, 35.9151, 48.1278, -14.08, 97.4483, -51.5278, 44.0335
1.456, 2, 35.9151, 48.1278, -14.08, 97.4483, -51.5278, 44.0335
1.46, 2, 35.9151, 48.1278, -14.08, 97.4483, -51.5278, 44.0335
1.464, 2, 35.9151, 48.1278, -14.08, 97.4483, -51.5278, 44.0335
1.468, 2, 35.9151, 48.1278, -14.08, 97.4483, -51.5278, 44.0335
1.472, 2, 35.9151, 48.1278, -14.08, 97.4483, -51.5278, 44.0335
1.476, 2, 35.9151, 48.1278, -14.08, 97.4483, -51.5278, 44.0335
1.48, 2, 35.9151, 48.1278, -14.08, 97.4483, -51.5278, 44.0335
1.484, 2, 35.9151, 48.1278, -14.08, 97.4483, -51.5278, 44.0335
1.488, 2, 35.9151, 48.1278, -14.08, 97.4483, -51.5278, 44.0335
1.492, 2, 35.9151, 48.1278, -14.08, 97.4483, -51.5278, 44.0335
1.496, 2, 35.9151, 48.1278, -14.08, 97.4483, -51.5278, 44.0335
1.5, 2, 35.9151, 48.1278, -14.08, 97.4483, -51.5278, 44.0335
1.504, 2, 35.9151, 48.1278, -14.08, 97.4483, -51.5278, 44.0335
1.508, 2, 35.9151, 48.1278, -14.08, 97.4483, -51.5278, 44.0335
1.512, 2, 35.9151, 48.1278, -14.08, 97.4483, -51.5278, 44.0335
1.516, 2, 35.9151, 48.1278, -14.08, 97.4483, -51.5278, 44.0335
1.52, 2, 35.9151, 48.1278, -14.08, 97.4483, -51.5278, 44.0335
1.524, 2, 35.9151, 48.1278, -14.08, 97.4483, -51.5278, 44.0335
1.528, 2, 35.9151, 48.1278, -14.08, 97.4483, -51.5278, 44.0335
1.532, 2, 35.9151, 48.1278, -14.08, 97.4483, -51.5278, 44.0335
1.536, 2, 35.9151, 48.1278, -14.08, 97.4483, -51.5278, 44.0335
1.54, 2, 35.9151, 48.1278, -14.08, 97.4483, -51.5278, 44.0335
1.544, 2, 35.9151, 48.1278, -14.08, 97.4483, -51.5278, 44.0335
1.548, 2, 35.9151, 48.1278, -14.08, 97.4483, -51.5278, 44.0335
1.552, 2, 35.9151, 48.1278, -14.08, 97.4483, -51.5278, 44.0335
1.556, 2, 35.9151, 48.1278, -14.08, 97.4483, -51.5278, 44.0335
1.56, 2, 35.9151, 48.1278, -14.08, 97.4483, -51.5278, 44.0335
1.564, 2, 35.9151, 48.1278, -14.08, 97.4483, -51.5278, 44.0335
1.568, 2, 35.9151, 48.1278, -14.08, 97.4483, -51.5278, 44.0335
1.572, 2, 35.9151, 48.1278, -14.08, 97.4483, -51.5278, 44.0335
1.576, 2, 35.9151, 48.1278, -14.08, 97.4483, -51.5278, 44.0335
1.58, 2, 35.9151, 48.1278, -14.08, 97.4483, -51.5278, 44.0335
1.584, 2, 35.9151, 48.1278, -14.08, 97.4483, -51.5278, 44.0335
1.588, 2, 35.9151, 48.1278, -14.08, 97.4483, -51.5278, 44.0335
1.592, 2, 35.9151, 48.1278, -14.08, 97.4483, -51.5278, 44.0335
1.596, 2, 35.9151, 48.1278, -14.08, 97.4483, -51.5278, 44.0335
1.6, 2, 35.9151, 48.1278, -14.08, 97.4483, -51.5278, 44.0335
1.604, 2, 35.9151, 48.1278, -14.08, 97.4483, -51.5278, 44.0335
1.608, 2, 35.9151, 48.1278, -14.08, 97.4483, -51.5278, 44.0335
1.612, 2, 35.9151, 48.1278, -14.08, 97.4483, -51.5278, 44.0335
1.616, 2, 35.9151, 48.1278, -14.08, 97.4483, -51.5278, 44.0335
1.62, 2, 35.9151, 48.1278, -14.08, 97.4483, -51.5278, 44.0335
1.624, 2, 35.9151, 48.1278, -14.08, 97.4483, -51.5278, 44.0335
1.628, 2, 35.9151, 48.1278, -14.08, 97.4483, -51.5278, 44.0335
1.632, 2, 35.9151, 48.1278, -14.08, 97.4483, -51.5278, 44.0335
1.636, 2, 35.9151, 48.1278, -14.08, 97.4483, -51.5278, 44.0335
1.64, 2, 35.9151, 48.1278, -14.08, 97.4483, -51.5278, 44.0335
1.644, 2, 35.9151, 48.1278, -14.08, 97.4483, -51.5278, 44.0335
1.648, 2, 35.9151, 48.1278, -14.08, 97.4483, -51.5278, 44.0335
1.652, 2, 35.9151, 48.1278, -14.08, 97.4483, -51.5278, 44.0335
1.656, 2, 35.9151, 48.1278, -14.08, 97.4483, -51.5278, 44.0335
1.66, 2, 35.9151, 48.1278, -14.08, 97.4483, -51.5278, 44.0335
1.664, 2, 35.9151, 48.1278, -14.08, 97.4483, -51.5278, 44.0335
1.668, 2, 35.9151, 48.1278, -14.08, 97.4483, -51.5278, 44.0335
1.672, 2, 35.9151, 48.1278, -14.08, 97.4483, -51.5278, 44.0335
1.676, 2, 35.9151, 48.1278, -14.08, 97.4483, -51.5278, 44.0335
1.68, 2, 35.9151, 48.1278, -14.08, 97.4483, -51.5278, 44.0335
1.684, 2, 35.9151, 48.1278, -14.08, 97.4483, -51.5278, 44.0335
1.688, 2, 35.9151, 48.1278, -14.08, 97.4483, -51.5278, 44.0335
1.692, 2, 35.9151, 48.1278, -14.08, 97.4483, -51.5278, 44.0335
1.696, 2, 35.9151, 48.1278, -14.08, 97.4483, -51.5278, 44.0335
1.7, 2, 35.9151, 48.1278, -14.08, 97.4483, -51.5278, 44.0335
1.704, 2, 35.9151, 48.1278, -14.08, 97.4483, -51.5278, 44.0335
1.708, 2, 35.9151, 48.1278, -14.08, 97.4483, -51.5278, 44.0335
1.712, 2, 35.9151, 48.1278, -14.08, 97.4483, -51.5278, 44.0335
1.716, 2, 35.9151, 48.1278, -14.08, 97.4483, -51.5278, 44.0335
1.72, 2, 35.9151, 48.1278, -14.08, 97.4483, -51.5278, 44.0335
1.724, 2, 35.9151, 48.1278, -14.08, 97.4483, -51.5278, 44.0335
1.728, 2, 35.9151, 48.1278, -14.08, 97.4483, -51.5278, 44.0335
1.732, 2, 35.9151, 48.1278, -14.08, 97.4483, -51.5278, 44.0335
1.736, 2, 35.9151, 48.1278, -14.08, 97.4483, -51.5278, 44.0335
1.74, 2, 35.9151, 48.1278, -14.08, 97.4483, -51.5278, 44.0335
1.744, 2, 35.9151, 48.1278, -14.08, 97.4483, -51.5278, 44.0335
1.748, 2, 35.9151, 48.1278, -14.08, 97.4483, -51.5278, 44.0335
1.752, 2, 35.9151, 48.1278, -14.08, 97.4483, -51.5278, 44.0335
1.756, 2, 35.9151, 48.1278, -14.08, 97.4483, -51.5278, 44.0335
1.76, 2, 35.9151, 48.1278, -14.08, 97.4483, -51.5278, 44.0335
1.764, 2, 35.9151, 48.1278, -14.08, 97.4483, -51.5278, 44.0335
1.768, 2, 35.9151, 48.1278, -14.08, 97.4483, -51.5278, 44.0335
1.772, 2, 35.9151, 48.1278, -14.08, 97.4483, -51.5278, 44.0335
1.776, 2, 35.9151, 48.1278, -14.08, 97.4483, -51.5278, 44.0335
1.78, 2, 35.9151, 48.1278, -14.08, 97.4483, -51.5278, 44.0335
1.784, 2, 35.9151, 48.1278, -14.08, 97.4483, -51.5278, 44.0335
1.788, 2, 35.9151, 48.1278, -14.08, 97.4483, -51.5278, 44.0335
1.792, 2, 35.9151, 48.1278, -14.08, 97.4483, -51.5278, 44.0335
1.796, 2, 35.9151, 48.1278, -14.08, 97.4483, -51.5278, 44.0335
1.8, 2, 35.9151, 48.1278, -14.08, 97.4483, -51.5278, 44.0335
1.804, 2, 35.9151, 48.1278, -14.08, 97.4483, -51.5278, 44.0335
1.808, 2, 35.9151, 48.1278, -14.08, 97.4483, -51.5278, 44.0335
1.812, 2, 35.9151, 48.1278, -14.08, 97.4483, -51.5278, 44.0335
1.816, 2, 35.9151, 48.1278, -14.08, 97.4483, -51.5278, 44.0335
1.82, 2, 35.9151, 48.1278, -14.08, 97.4483, -51.5278, 44.0335
1.824, 2, 35.9151, 48.1278, -14.08, 97.4483, -51.5278, 44.0335
1.828, 2, 35.9151, 48.1278, -14.08, 97.4483, -51.5278, 44.0335
1.832, 2, 35.9151, 48.1278, -14.08, 97.4483, -51.5278, 44.0335
1.836, 2, 35.9151, 48.1278, -14.08, 97.4483, -51.5278, 44.0335
1.84, 2, 35.9151, 48.1278, -14.08, 97.4483, -51.5278, 44.0335
1.844, 2, 35.9151, 48.1278, -14.08, 97.4483, -51.5278, 44.0335
1.848, 2, 35.9151, 48.1278, -14.08, 97.4483, -51.5278, 44.0335
1.852, 2, 35.9151, 48.1278, -14.08, 97.4483, -51.5278, 44.0335
1.856, 2, 35.9151, 48.1278, -14.08, 97.4483, -51.5278, 44.0335
1.86, 2, 35.9151, 48.1278, -14.08, 97.4483, -51.5278, 44.0335
1.864, 2, 35.9151, 48.1278, -14.08, 97.4483, -51.5278, 44.0335
1.868, 2, 35.9151, 48.1278, -14.08, 97.4483, -51.5278, 44.0335
1.872, 2, 35.9151, 48.1278, -14.08, 97.4483, -51.5278, 44.0335
1.876, 2, 35.9151, 48.1278, -14.08, 97.4483, -51.5278, 44.0335
1.88, 2, 35.9151, 48.1278, -14.08, 97.4483, -51.5278, 44.0335
1.884, 2, 35.9151, 48.1278, -14.08, 97.4483, -51.5278, 44.0335
1.888, 2, 35.9151, 48.1278, -14.08, 97.4483, -51.5278, 44.0335
1.892, 2, 35.9151, 48.1278, -14.08, 97.4483, -51.5278, 44.0335
1.896, 2, 35.9151, 48.1278, -14.08, 97.4483, -51.5278, 44.0335
1.9, 2, 35.9151, 48.1278, -14.08, 97.4483, -51.5278, 44.0335
1.904, 2, 35.9151, 48.1278, -14.08, 97.4483, -51.5278, 44.0335
1.908, 2, 35.9151, 48.1278, -14.08, 97.4483, -51.5278, 44.0335
1.912, 2, 35.9151, 48.1278, -14.08, 97.4483, -51.5278, 44.0335
1.916, 2, 35.9151, 48.1278, -14.08, 97.4483, -51.5278, 44.0335
1.92, 2, 35.9151, 48.1278, -14.08, 97.4483, -51.5278, 44.0335
1.924, 2, 35.9151, 48.1278, -14.08, 97.4483, -51.5278, 44.0335
1.928, 2, 35.9151, 48.1278, -14.08, 97.4483, -51.5278, 44.0335
1.932, 2, 35.9151, 48.1278, -14.08, 97.4483, -51.5278, 44.0335
1.936, 2, 35.9151, 48.1278, -14.08, 97.4483, -51.5278, 44.0335
1.94, 2, 35.9151, 48.1278, -14.08, 97.4483, -51.5278, 44.0335
1.944, 2, 35.9151, 48.1278, -14.08, 97.4483, -51.5278, 44.0335
1.948, 2, 35.9151, 48.1278, -14.08, 97.4483, -51.5278, 44.0335
1.952, 2, 35.9151, 48.1278, -14.08, 97.4483, -51.5278, 44.0335
1.956, 2, 35.9151, 48.1278, -14.08, 97.4483, -51.5278, 44.0335
1.96, 2, 35.9151, 48.1278, -14.08, 97.4483, -51.5278, 44.0335
1.964, 2, 35.9151, 48.1278, -14.08, 97.4483, -51.5278, 44.0335
1.968, 2, 35.9151, 48.1278, -14.08, 97.4483, -51.5278, 44.0335
1.972, 2, 35.9151, 48.1278, -14.08, 97.4483, -51.5278, 44.0335
1.976, 2, 35.9151, 48.1278, -14.08, 97.4483, -51.5278, 44.0335
1.98, 2, 35.9151, 48.1278, -14.08, 97.4483, -51.5278, 44.0335
1.984, 2, 35.9151, 48.1278, -14.08, 97.4483, -51.5278, 44.0335
1.988, 2, 35.9151, 48.1278, -14.08, 97.4483, -51.5278, 44.0335
1.992, 2, 35.9151, 48.1278, -14.08, 97.4483, -51.5278, 44.0335
1.996, 2, 35.9151, 48.1278, -14.08, 97.4483, -51.5278, 44.0335
1.999, 2, 35.9151, 48.1278, -14.08, 97.4483, -51.5278, 44.0335
2.004, 2, 35.9151, 48.1278, -14.08, 97.4483, -51.5278, 44.0335
2.008, 2, 35.9151, 48.1278, -14.08, 97.4483, -51.5278, 44.0335
2.012, 2, 35.9151, 48.1278, -14.08, 97.4483, -51.5278, 44.0335
2.015, 2, 35.9151, 48.1278, -14.08, 97.4483, -51.5278, 44.0335
2.019, 2, 35.9151, 48.1278, -14.08, 97.4483, -51.5278, 44.0335
2.024, 2, 35.9151, 48.1278, -14.08, 97.4483, -51.5278, 44.0335
2.028, 2, 35.9151, 48.1278, -14.08, 97.4483, -51.5278, 44.0335
2.031, 2, 35.9151, 48.1278, -14.08, 97.4483, -51.5278, 44.0335
2.036, 2, 35.9151, 48.1278, -14.08, 97.4483, -51.5278, 44.0335
2.04, 2, 35.9151, 48.1278, -14.08, 97.4483, -51.5278, 44.0335
2.044, 2, 35.9151, 48.1278, -14.08, 97.4483, -51.5278, 44.0335
2.048, 2, 35.9151, 48.1278, -14.08, 97.4483, -51.5278, 44.0335
2.051, 2, 35.9151, 48.1278, -14.08, 97.4483, -51.5278, 44.0335
2.055, 2, 35.9151, 48.1278, -14.08, 97.4483, -51.5278, 44.0335
2.06, 2, 35.9151, 48.1278, -14.08, 97.4483, -51.5278, 44.0335
2.064, 2, 35.9151, 48.1278, -14.08, 97.4483, -51.5278, 44.0335
2.068, 2, 35.9151, 48.1278, -14.08, 97.4483, -51.5278, 44.0335
2.071, 2, 35.9151, 48.1278, -14.08, 97.4483, -51.5278, 44.0335
2.076, 2, 35.9151, 48.1278, -14.08, 97.4483, -51.5278, 44.0335
2.08, 2, 35.9151, 48.1278, -14.08, 97.4483, -51.5278, 44.0335
2.084, 2, 35.9151, 48.1278, -14.08, 97.4483, -51.5278, 44.0335
2.087, 2, 35.9151, 48.1278, -14.08, 97.4483, -51.5278, 44.0335
2.092, 2, 35.9151, 48.1278, -14.08, 97.4483, -51.5278, 44.0335
2.096, 2, 35.9151, 48.1278, -14.08, 97.4483, -51.5278, 44.0335
2.1, 2, 35.9151, 48.1278, -14.08, 97.4483, -51.5278, 44.0335
2.104, 2, 35.9151, 48.1278, -14.08, 97.4483, -51.5278, 44.0335
2.107, 2, 35.9151, 48.1278, -14.08, 97.4483, -51.5278, 44.0335
2.111, 2, 35.9151, 48.1278, -14.08, 97.4483, -51.5278, 44.0335
2.116, 2, 35.9151, 48.1278, -14.08, 97.4483, -51.5278, 44.0335
2.12, 2, 35.9151, 48.1278, -14.08, 97.4483, -51.5278, 44.0335
2.124, 2, 35.9151, 48.1278, -14.08, 97.4483, -51.5278, 44.0335
2.127, 2, 35.9151, 48.1278, -14.08, 97.4483, -51.5278, 44.0335
2.132, 2, 35.9151, 48.1278, -14.08, 97.4483, -51.5278, 44.0335
2.136, 2, 35.9151, 48.1278, -14.08, 97.4483, -51.5278, 44.0335
2.14, 2, 35.9151, 48.1278, -14.08, 97.4483, -51.5278, 44.0335
2.143, 2, 35.9151, 48.1278, -14.08, 97.4483, -51.5278, 44.0335
2.148, 2, 35.9151, 48.1278, -14.08, 97.4483, -51.5278, 44.0335
2.152, 2, 35.9151, 48.1278, -14.08, 97.4483, -51.5278, 44.0335
2.156, 2, 35.9151, 48.1278, -14.08, 97.4483, -51.5278, 44.0335
2.16, 2, 35.9151, 48.1278, -14.08, 97.4483, -51.5278, 44.0335
2.163, 2, 35.9151, 48.1278, -14.08, 97.4483, -51.5278, 44.0335
2.168, 2, 35.9151, 48.1278, -14.08, 97.4483, -51.5278, 44.0335
2.172, 2, 35.9151, 48.1278, -14.08, 97.4483, -51.5278, 44.0335
2.176, 2, 35.9151, 48.1278, -14.08, 97.4483, -51.5278, 44.0335
2.179, 2, 35.9151, 48.1278, -14.08, 97.4483, -51.5278, 44.0335
2.184, 2, 35.9151, 48.1278, -14.08, 97.4483, -51.5278, 44.0335
2.188, 2, 35.9151, 48.1278, -14.08, 97.4483, -51.5278, 44.0335
2.192, 2, 35.9151, 48.1278, -14.08, 97.4483, -51.5278, 44.0335
2.196, 2, 35.9151, 48.1278, -14.08, 97.4483, -51.5278, 44.0335
2.199, 2, 35.9151, 48.1278, -14.08, 97.4483, -51.5278, 44.0335
2.204, 2, 35.9151, 48.1278, -14.08, 97.4483, -51.5278, 44.0335
2.208, 2, 35.9151, 48.1278, -14.08, 97.4483, -51.5278, 44.0335
2.212, 2, 35.9151, 48.1278, -14.08, 97.4483, -51.5278, 44.0335
2.216, 2, 35.9151, 48.1278, -14.08, 97.4483, -51.5278, 44.0335
2.219, 2, 35.9151, 48.1278, -14.08, 97.4483, -51.5278, 44.0335
2.224, 2, 35.9151, 48.1278, -14.08, 97.4483, -51.5278, 44.0335
2.228, 2, 35.9151, 48.1278, -14.08, 97.4483, -51.5278, 44.0335
2.232, 2, 35.9151, 48.1278, -14.08, 97.4483, -51.5278, 44.0335
2.235, 2, 35.9151, 48.1278, -14.08, 97.4483, -51.5278, 44.0335
2.24, 2, 35.9151, 48.1278, -14.08, 97.4483, -51.5278, 44.0335
2.244, 2, 35.9151, 48.1278, -14.08, 97.4483, -51.5278, 44.0335
2.248, 2, 35.9151, 48.1278, -14.08, 97.4483, -51.5278, 44.0335
2.252, 2, 35.9151, 48.1278, -14.08, 97.4483, -51.5278, 44.0335
2.255, 2, 35.9151, 48.1278, -14.08, 97.4483, -51.5278, 44.0335
2.259, 2, 35.9151, 48.1278, -14.08, 97.4483, -51.5278, 44.0335
2.264, 2, 35.9151, 48.1278, -14.08, 97.4483, -51.5278, 44.0335
2.268, 2, 35.9151, 48.1278, -14.08, 97.4483, -51.5278, 44.0335
2.272, 2, 35.9151, 48.1278, -14.08, 97.4483, -51.5278, 44.0335
2.275, 2, 35.9151, 48.1278, -14.08, 97.4483, -51.5278, 44.0335
2.28, 2, 35.9151, 48.1278, -14.08, 97.4483, -51.5278, 44.0335
2.284, 2, 35.9151, 48.1278, -14.08, 97.4483, -51.5278, 44.0335
2.288, 2, 35.9151, 48.1278, -14.08, 97.4483, -51.5278, 44.0335
2.291, 2, 35.9151, 48.1278, -14.08, 97.4483, -51.5278, 44.0335
2.296, 2, 35.9151, 48.1278, -14.08, 97.4483, -51.5278, 44.0335
2.3, 2, 35.9151, 48.1278, -14.08, 97.4483, -51.5278, 44.0335
2.304, 2, 35.9151, 48.1278, -14.08, 97.4483, -51.5278, 44.0335
2.308, 2, 35.9151, 48.1278, -14.08, 97.4483, -51.5278, 44.0335
2.311, 2, 35.9151, 48.1278, -14.08, 97.4483, -51.5278, 44.0335
2.316, 2, 35.9151, 48.1278, -14.08, 97.4483, -51.5278, 44.0335
2.32, 2, 35.9151, 48.1278, -14.08, 97.4483, -51.5278, 44.0335
2.324, 2, 35.9151, 48.1278, -14.08, 97.4483, -51.5278, 44.0335
2.328, 2, 35.9151, 48.1278, -14.08, 97.4483, -51.5278, 44.0335
2.331, 2, 35.9151, 48.1278, -14.08, 97.4483, -51.5278, 44.0335
2.336, 2, 35.9151, 48.1278, -14.08, 97.4483, -51.5278, 44.0335
2.34, 2, 35.9151, 48.1278, -14.08, 97.4483, -51.5278, 44.0335
2.344, 2, 35.9151, 48.1278, -14.08, 97.4483, -51.5278, 44.0335
2.347, 2, 35.9151, 48.1278, -14.08, 97.4483, -51.5278, 44.0335
2.352, 2, 35.9151, 48.1278, -14.08, 97.4483, -51.5278, 44.0335
2.356, 2, 35.9151, 48.1278, -14.08, 97.4483, -51.5278, 44.0335
2.36, 2, 35.9151, 48.1278, -14.08, 97.4483, -51.5278, 44.0335
2.364, 2, 35.9151, 48.1278, -14.08, 97.4483, -51.5278, 44.0335
2.367, 2, 35.9151, 48.1278, -14.08, 97.4483, -51.5278, 44.0335
2.372, 2, 35.9151, 48.1278, -14.08, 97.4483, -51.5278, 44.0335
2.376, 2, 35.9151, 48.1278, -14.08, 97.4483, -51.5278, 44.0335
2.38, 2, 35.9151, 48.1278, -14.08, 97.4483, -51.5278, 44.0335
2.383, 2, 35.9151, 48.1278, -14.08, 97.4483, -51.5278, 44.0335
2.388, 2, 35.9151, 48.1278, -14.08, 97.4483, -51.5278, 44.0335
2.392, 2, 35.9151, 48.1278, -14.08, 97.4483, -51.5278, 44.0335
2.396, 2, 35.9151, 48.1278, -14.08, 97.4483, -51.5278, 44.0335
2.4, 4, 35.9151, 48.1278, -14.08, 97.4483, -51.5278, 44.0335
2.403, 4, 35.9151, 48.1278, -14.08, 97.4483, -51.5278, 44.0335
2.408, 4, 35.9151, 48.1278, -14.08, 97.4483, -51.5278, 44.0335
2.412, 4, 35.9151, 48.1278, -14.08, 97.4483, -51.5278, 44.0335
2.416, 4, 35.9151, 48.1278, -14.08, 97.4483, -51.5278, 44.0335
2.42, 4, 35.9151, 48.1278, -14.08, 97.4483, -51.5278, 44.0335
2.423, 4, 35.9151, 48.1278, -14.08, 97.4483, -51.5278, 44.0335
2.428, 4, 35.9151, 48.1278, -14.08, 97.4483, -51.5278, 44.0335
2.432, 4, 35.9151, 48.1278, -14.08, 97.4483, -51.5278, 44.0335
2.436, 4, 35.9151, 48.1278, -14.08, 97.4483, -51.5278, 44.0335
2.439, 4, 35.9151, 48.1278, -14.08, 97.4483, -51.5278, 44.0335
2.444, 4, 35.9151, 48.1278, -14.08, 97.4483, -51.5278, 44.0335
2.448, 4, 35.9151, 48.1278, -14.08, 97.4483, -51.5278, 44.0335
2.452, 4, 35.9151, 48.1278, -14.08, 97.4483, -51.5278, 44.0335
2.456, 4, 35.9151, 48.1278, -14.08, 97.4483, -51.5278, 44.0335
2.459, 4, 35.9151, 48.1278, -14.08, 97.4483, -51.5278, 44.0335
2.464, 4, 35.9151, 48.1278, -14.08, 97.4483, -51.5278, 44.0335
2.468, 4, 35.9151, 48.1278, -14.08, 97.4483, -51.5278, 44.0335
2.472, 4, 35.9151, 48.1278, -14.08, 97.4483, -51.5278, 44.0335
2.476, 4, 35.9151, 48.1278, -14.08, 97.4483, -51.5278, 44.0335
2.479, 4, 35.9151, 48.1278, -14.08, 97.4483, -51.5278, 44.0335
2.484, 4, 35.9151, 48.1278, -14.08, 97.4483, -51.5278, 44.0335
2.488, 4, 35.9151, 48.1278, -14.08, 97.4483, -51.5278, 44.0335
2.492, 4, 35.9151, 48.1278, -14.08, 97.4483, -51.5278, 44.0335
2.495, 4, 35.9151, 48.1278, -14.08, 97.4483, -51.5278, 44.0335
2.5, 4, 35.9151, 48.1278, -14.08, 97.4483, -51.5278, 44.0335
2.506, 4, 35.9151, 48.1278, -14.08, 97.4483, -51.5278, 44.0335
2.508, 4, 35.9151, 48.1278, -14.08, 97.4483, -51.5278, 44.0335
2.512, 4, 35.9151, 48.1278, -14.08, 97.4483, -51.5278, 44.0335
2.515, 4, 35.9151, 48.1278, -14.08, 97.4483, -51.5278, 44.0335
2.52, 4, 35.9151, 48.1278, -14.08, 97.4483, -51.5278, 44.0335
2.524, 4, 35.9151, 48.1278, -14.08, 97.4483, -51.5278, 44.0335
2.528, 4, 35.9151, 48.1278, -14.08, 97.4483, -51.5278, 44.0335
2.531, 4, 35.9151, 48.1278, -14.08, 97.4483, -51.5278, 44.0335
2.536, 4, 35.9151, 48.1278, -14.08, 97.4483, -51.5278, 44.0335
2.54, 4, 35.9151, 48.128, -14.08, 97.4483, -51.5279, 44.0335
2.544, 4, 35.9149, 48.1283, -14.08, 97.4483, -51.5279, 44.0335
2.548, 4, 35.9147, 48.1291, -14.0801, 97.4483, -51.528, 44.0334
2.552, 4, 35.9142, 48.1303, -14.0802, 97.4483, -51.5284, 44.0332
2.558, 4, 35.9136, 48.1322, -14.0803, 97.4483, -51.5291, 44.0328
2.56, 4, 35.9128, 48.1348, -14.0805, 97.4484, -51.5305, 44.0319
2.564, 4, 35.9117, 48.1383, -14.0809, 97.4484, -51.5328, 44.0305
2.568, 4, 35.9104, 48.1428, -14.0814, 97.4485, -51.5366, 44.0282
2.571, 5, 35.9089, 48.1485, -14.0822, 97.4487, -51.5424, 44.0246
2.576, 5, 35.9071, 48.1556, -14.0833, 97.4489, -51.5508, 44.0195
2.58, 5, 35.9051, 48.1643, -14.0848, 97.4492, -51.5626, 44.0123
2.584, 5, 35.9029, 48.1749, -14.0868, 97.4495, -51.5787, 44.0025
2.587, 5, 35.9005, 48.1873, -14.0894, 97.45, -51.6001, 43.9895
2.592, 5, 35.898, 48.2017, -14.0927, 97.4505, -51.6276, 43.9728
2.596, 5, 35.8954, 48.2178, -14.0968, 97.4512, -51.6623, 43.9517
2.6, 5, 35.8928, 48.2355, -14.1018, 97.4519, -51.7051, 43.9257
2.604, 5, 35.8902, 48.2548, -14.1076, 97.4528, -51.7567, 43.8944
2.607, 5, 35.8876, 48.2757, -14.1145, 97.4537, -51.8178, 43.8575
2.612, 5, 35.8852, 48.2983, -14.1223, 97.4547, -51.8885, 43.8147
2.616, 5, 35.8827, 48.3227, -14.1311, 97.4558, -51.9691, 43.766
2.62, 5, 35.8803, 48.3489, -14.1409, 97.4568, -52.0594, 43.7116
2.624, 5, 35.8778, 48.3769, -14.1516, 97.4579, -52.1591, 43.6517
2.627, 5, 35.8753, 48.4067, -14.1631, 97.4589, -52.2677, 43.5865
2.632, 5, 35.8727, 48.4381, -14.1754, 97.4598, -52.3845, 43.5165
2.636, 5, 35.8701, 48.4712, -14.1884, 97.4605, -52.5086, 43.4422
2.64, 5, 35.8674, 48.5059, -14.2019, 97.4611, -52.6393, 43.3643
2.643, 5, 35.8644, 48.5423, -14.2159, 97.4615, -52.7754, 43.2832
2.648, 5, 35.8611, 48.5803, -14.2302, 97.4616, -52.916, 43.1996
2.652, 5, 35.8576, 48.62, -14.2447, 97.4615, -53.0603, 43.1142
2.656, 5, 35.8537, 48.6613, -14.2594, 97.4611, -53.2074, 43.0272
2.66, 5, 35.8495, 48.7038, -14.2741, 97.4604, -53.3567, 42.9392
2.663, 5, 35.8449, 48.7473, -14.2889, 97.4594, -53.5076, 42.8505
2.668, 5, 35.8401, 48.7918, -14.3036, 97.458, -53.6597, 42.7613
2.672, 5, 35.8351, 48.8368, -14.3182, 97.4564, -53.8127, 42.6719
2.676, 5, 35.8299, 48.8823, -14.3326, 97.4544, -53.9662, 42.5824
2.679, 5, 35.8245, 48.9281, -14.3469, 97.452, -54.1202, 42.4929
2.684, 5, 35.8189, 48.9741, -14.361, 97.4494, -54.2744, 42.4035
2.688, 5, 35.8132, 49.0203, -14.3749, 97.4464, -54.4288, 42.3143
2.692, 5, 35.8074, 49.0665, -14.3887, 97.443, -54.5834, 42.2252
2.696, 5, 35.8015, 49.1127, -14.4022, 97.4393, -54.7379, 42.1364
2.699, 5, 35.7955, 49.1589, -14.4155, 97.4353, -54.8925, 42.0478
2.704, 5, 35.7893, 49.205, -14.4286, 97.431, -55.0471, 41.9595
2.708, 5, 35.7831, 49.2511, -14.4415, 97.4263, -55.2017, 41.8714
2.712, 5, 35.7768, 49.297, -14.4541, 97.4214, -55.3563, 41.7835
2.716, 5, 35.7704, 49.3428, -14.4665, 97.4161, -55.5108, 41.696
2.719, 5, 35.764, 49.3885, -14.4787, 97.4105, -55.6653, 41.6087
2.724, 5, 35.7574, 49.4341, -14.4907, 97.4045, -55.8198, 41.5216
2.728, 5, 35.7508, 49.4796, -14.5025, 97.3983, -55.9742, 41.4348
2.732, 5, 35.7441, 49.5249, -14.5141, 97.3917, -56.1286, 41.3483
2.735, 5, 35.7373, 49.5701, -14.5254, 97.3848, -56.2829, 41.262
2.74, 5, 35.7304, 49.6151, -14.5365, 97.3777, -56.4372, 41.176
2.744, 5, 35.7235, 49.6601, -14.5474, 97.3702, -56.5914, 41.0902
2.748, 5, 35.7164, 49.7049, -14.558, 97.3624, -56.7456, 41.0047
2.752, 5, 35.7093, 49.7495, -14.5684, 97.3543, -56.8998, 40.9194
2.755, 5, 35.7021, 49.794, -14.5787, 97.3459, -57.0539, 40.8343
2.76, 5, 35.6948, 49.8384, -14.5886, 97.3372, -57.2079, 40.7495
2.764, 5, 35.6875, 49.8827, -14.5984, 97.3283, -57.3619, 40.665
2.768, 5, 35.68, 49.9268, -14.6079, 97.319, -57.5159, 40.5806
2.772, 5, 35.6725, 49.9708, -14.6173, 97.3095, -57.6698, 40.4966
2.775, 5, 35.6649, 50.0147, -14.6263, 97.2996, -57.8237, 40.4127
2.78, 5, 35.6573, 50.0584, -14.6352, 97.2895, -57.9775, 40.3291
2.784, 5, 35.6495, 50.102, -14.6439, 97.2791, -58.1313, 40.2456
2.788, 5, 35.6417, 50.1454, -14.6523, 97.2684, -58.285, 40.1625
2.791, 5, 35.6338, 50.1887, -14.6605, 97.2574, -58.4387, 40.0795
2.796, 5, 35.6258, 50.2319, -14.6684, 97.2462, -58.5924, 39.9968
2.8, 5, 35.6177, 50.2749, -14.6762, 97.2347, -58.7459, 39.9142
2.804, 5, 35.6096, 50.3178, -14.6837, 97.2229, -58.8995, 39.8319
2.808, 5, 35.6013, 50.3605, -14.691, 97.2108, -59.053, 39.7499
2.811, 5, 35.593, 50.4031, -14.6981, 97.1985, -59.2064, 39.668
2.816, 5, 35.5847, 50.4456, -14.7049, 97.1859, -59.3598, 39.5863
2.82, 5, 35.5762, 50.4879, -14.7115, 97.173, -59.5132, 39.5048
2.824, 5, 35.5677, 50.5301, -14.7179, 97.1599, -59.6665, 39.4236
2.828, 5, 35.559, 50.5721, -14.7241, 97.1465, -59.8198, 39.3425
2.831, 5, 35.5503, 50.614, -14.7301, 97.1329, -59.973, 39.2617
2.836, 5, 35.5416, 50.6558, -14.7358, 97.1189, -60.1262, 39.181
2.84, 5, 35.5327, 50.6974, -14.7413, 97.1048, -60.2793, 39.1006
2.846, 5, 35.5238, 50.7389, -14.7465, 97.0904, -60.4323, 39.0203
2.848, 5, 35.5148, 50.7802, -14.7516, 97.0757, -60.5854, 38.9402
2.852, 5, 35.5057, 50.8214, -14.7564, 97.0608, -60.7383, 38.8604
2.856, 5, 35.4965, 50.8624, -14.761, 97.0456, -60.8913, 38.7807
2.86, 5, 35.4873, 50.9033, -14.7653, 97.0302, -61.0442, 38.7012
2.864, 5, 35.478, 50.944, -14.7694, 97.0145, -61.197, 38.6219
2.867, 5, 35.4686, 50.9846, -14.7733, 96.9986, -61.3498, 38.5427
2.872, 5, 35.4591, 51.0251, -14.777, 96.9824, -61.5025, 38.4638
2.876, 5, 35.4496, 51.0654, -14.7805, 96.966, -61.6552, 38.385
2.88, 5, 35.4399, 51.1056, -14.7837, 96.9494, -61.8078, 38.3064
2.883, 5, 35.4302, 51.1456, -14.7867, 96.9325, -61.9604, 38.228
2.888, 5, 35.4205, 51.1854, -14.7894, 96.9154, -62.1129, 38.1498
2.892, 5, 35.4106, 51.2251, -14.7919, 96.8981, -62.2654, 38.0717
2.896, 5, 35.4007, 51.2647, -14.7942, 96.8805, -62.4179, 37.9938
2.9, 5, 35.3907, 51.3041, -14.7963, 96.8627, -62.5703, 37.9161
2.903, 5, 35.3806, 51.3434, -14.7981, 96.8447, -62.7226, 37.8385
2.908, 5, 35.3704, 51.3825, -14.7997, 96.8264, -62.8749, 37.7611
2.912, 5, 35.3602, 51.4215, -14.8011, 96.808, -63.0271, 37.6839
2.916, 5, 35.3498, 51.4603, -14.8023, 96.7893, -63.1793, 37.6068
2.92, 5, 35.3395, 51.499, -14.8032, 96.7703, -63.3315, 37.5299
2.923, 5, 35.329, 51.5375, -14.8039, 96.7512, -63.4836, 37.4531
2.928, 5, 35.3184, 51.5758, -14.8043, 96.7318, -63.6356, 37.3765
2.932, 5, 35.3078, 51.614, -14.8045, 96.7122, -63.7876, 37.3001
2.936, 5, 35.2971, 51.6521, -14.8045, 96.6924, -63.9396, 37.2238
2.939, 5, 35.2863, 51.69, -14.8043, 96.6724, -64.0915, 37.1476
2.944, 5, 35.2755, 51.7277, -14.8038, 96.6521, -64.2434, 37.0716
2.948, 5, 35.2646, 51.7653, -14.8031, 96.6317, -64.3952, 36.9958
2.952, 5, 35.2536, 51.8028, -14.8022, 96.611, -64.547, 36.9201
2.956, 5, 35.2425, 51.8401, -14.801, 96.5901, -64.6987, 36.8445
2.959, 5, 35.2313, 51.8772, -14.7996, 96.569, -64.8504, 36.7691
2.964, 5, 35.2201, 51.9142, -14.798, 96.5477, -65.002, 36.6938
2.968, 5, 35.2088, 51.951, -14.7961, 96.5262, -65.1536, 36.6187
2.972, 5, 35.1974, 51.9877, -14.794, 96.5045, -65.3051, 36.5437
2.976, 5, 35.186, 52.0242, -14.7917, 96.4826, -65.4566, 36.4688
2.98, 5, 35.1744, 52.0606, -14.7892, 96.4605, -65.6081, 36.3941
2.984, 5, 35.1628, 52.0968, -14.7864, 96.4382, -65.7595, 36.3195
2.988, 5, 35.1511, 52.1328, -14.7834, 96.4156, -65.9109, 36.245
2.992, 5, 35.1394, 52.1687, -14.7802, 96.3929, -66.0622, 36.1707
2.995, 5, 35.1275, 52.2045, -14.7767, 96.37, -66.2134, 36.0965
3, 5, 35.1156, 52.2401, -14.773, 96.3469, -66.3647, 36.0224
3.004, 5, 35.1037, 52.2755, -14.7691, 96.3235, -66.5159, 35.9484
3.008, 5, 35.0916, 52.3108, -14.7649, 96.3, -66.667, 35.8746
3.012, 5, 35.0795, 52.3459, -14.7605, 96.2763, -66.8181, 35.8009
3.015, 5, 35.0673, 52.3808, -14.7559, 96.2524, -66.9691, 35.7273
3.02, 5, 35.055, 52.4156, -14.7511, 96.2283, -67.1201, 35.6538
3.024, 5, 35.0427, 52.4503, -14.746, 96.204, -67.2711, 35.5805
3.028, 5, 35.0302, 52.4848, -14.7407, 96.1795, -67.422, 35.5072
3.031, 5, 35.0177, 52.5191, -14.7352, 96.1548, -67.5729, 35.4341
3.036, 5, 35.0052, 52.5533, -14.7295, 96.13, -67.7237, 35.3611
3.04, 5, 34.9925, 52.5873, -14.7235, 96.1049, -67.8745, 35.2882
3.044, 5, 34.9798, 52.6211, -14.7173, 96.0797, -68.0253, 35.2154
3.048, 5, 34.967, 52.6548, -14.7109, 96.0543, -68.1759, 35.1428
3.051, 5, 34.9542, 52.6883, -14.7042, 96.0286, -68.3266, 35.0702
3.056, 5, 34.9412, 52.7217, -14.6973, 96.0028, -68.4772, 34.9978
3.06, 5, 34.9282, 52.7549, -14.6902, 95.9769, -68.6278, 34.9254
3.064, 5, 34.9151, 52.788, -14.6828, 95.9507, -68.7783, 34.8532
3.068, 5, 34.902, 52.8209, -14.6753, 95.9244, -68.9288, 34.781
3.071, 5, 34.8888, 52.8536, -14.6675, 95.8979, -69.0792, 34.709
3.076, 5, 34.8755, 52.8862, -14.6595, 95.8712, -69.2296, 34.6371
3.08, 5, 34.8621, 52.9186, -14.6512, 95.8443, -69.38, 34.5652
3.084, 5, 34.8487, 52.9508, -14.6427, 95.8172, -69.5303, 34.4935
3.087, 5, 34.8352, 52.9829, -14.634, 95.79, -69.6805, 34.4218
3.092, 5, 34.8216, 53.0148, -14.6251, 95.7626, -69.8307, 34.3503
3.096, 5, 34.8079, 53.0466, -14.6159, 95.735, -69.9809, 34.2788
3.1, 5, 34.7942, 53.0782, -14.6065, 95.7073, -70.131, 34.2075
3.104, 5, 34.7804, 53.1096, -14.5969, 95.6793, -70.2811, 34.1362
3.107, 5, 34.7665, 53.1409, -14.5871, 95.6512, -70.4312, 34.065
3.112, 5, 34.7526, 53.172, -14.577, 95.623, -70.5812, 33.9939
3.116, 5, 34.7386, 53.2029, -14.5667, 95.5945, -70.7311, 33.9229
3.12, 5, 34.7245, 53.2337, -14.5562, 95.5659, -70.881, 33.852
3.124, 5, 34.7103, 53.2643, -14.5454, 95.5371, -71.0309, 33.7812
3.128, 5, 34.696, 53.2946, -14.5344, 95.5082, -71.1807, 33.7104
3.132, 5, 34.6815, 53.3246, -14.5231, 95.4791, -71.3305, 33.6398
3.136, 5, 34.6669, 53.3541, -14.5114, 95.4497, -71.4801, 33.5694
3.14, 5, 34.6519, 53.3831, -14.4992, 95.42, -71.6296, 33.4993
3.143, 5, 34.6367, 53.4113, -14.4863, 95.39, -71.7788, 33.4297
3.148, 5, 34.6212, 53.4387, -14.4726, 95.3594, -71.9276, 33.3609
3.152, 5, 34.6054, 53.465, -14.4577, 95.3281, -72.0757, 33.2931
3.156, 5, 34.5893, 53.4903, -14.4415, 95.2959, -72.2229, 33.227
3.16, 5, 34.573, 53.5144, -14.4234, 95.2624, -72.3689, 33.1628
3.163, 5, 34.5566, 53.5371, -14.4032, 95.2275, -72.5134, 33.1012
3.168, 5, 34.5399, 53.5585, -14.3805, 95.1908, -72.656, 33.0427
3.172, 6, 34.5229, 53.5783, -14.3549, 95.1521, -72.7963, 32.9879
3.176, 6, 34.5057, 53.5966, -14.3259, 95.1111, -72.9341, 32.9373
3.179, 6, 34.4882, 53.6131, -14.2932, 95.0675, -73.0688, 32.8915
3.184, 6, 34.4704, 53.6279, -14.2566, 95.0211, -73.2001, 32.8511
3.188, 6, 34.4523, 53.6408, -14.2156, 94.9718, -73.3276, 32.8164
3.192, 6, 34.4339, 53.6518, -14.1701, 94.9193, -73.4511, 32.788
3.196, 6, 34.4153, 53.6608, -14.12, 94.8636, -73.5704, 32.766
3.199, 6, 34.3964, 53.6678, -14.0652, 94.8046, -73.6854, 32.7506
3.204, 6, 34.3773, 53.6729, -14.0058, 94.7423, -73.796, 32.7417
3.208, 6, 34.3578, 53.6761, -13.9418, 94.677, -73.9024, 32.7392
3.212, 6, 34.3379, 53.6774, -13.8736, 94.6088, -74.0046, 32.7427
3.216, 6, 34.3178, 53.6769, -13.8012, 94.5379, -74.1029, 32.752
3.22, 6, 34.2972, 53.6748, -13.7251, 94.4645, -74.1977, 32.7665
3.224, 6, 34.2764, 53.6711, -13.6456, 94.3889, -74.2893, 32.7857
3.228, 6, 34.2554, 53.666, -13.563, 94.3114, -74.378, 32.8091
3.232, 6, 34.2342, 53.6594, -13.4779, 94.2322, -74.4644, 32.836
3.235, 6, 34.2128, 53.6515, -13.3905, 94.1517, -74.5487, 32.866
3.24, 6, 34.1912, 53.6424, -13.3012, 94.0701, -74.6313, 32.8983
3.244, 6, 34.1693, 53.6321, -13.2105, 93.9877, -74.7127, 32.9326
3.248, 6, 34.1473, 53.6206, -13.1185, 93.9046, -74.7932, 32.9683
3.252, 6, 34.1249, 53.6083, -13.0256, 93.8212, -74.873, 33.0049
3.255, 6, 34.1023, 53.5951, -12.9321, 93.7375, -74.9524, 33.0422
3.26, 6, 34.0795, 53.5812, -12.8381, 93.6537, -75.0316, 33.0799
3.264, 6, 34.0565, 53.5668, -12.7437, 93.5699, -75.1106, 33.1179
3.268, 6, 34.0333, 53.552, -12.6492, 93.4862, -75.1896, 33.1559
3.272, 6, 34.01, 53.537, -12.5545, 93.4025, -75.2686, 33.1939
3.276, 6, 33.9867, 53.5218, -12.4597, 93.3189, -75.3477, 33.2318
3.28, 6, 33.9632, 53.5064, -12.3649, 93.2354, -75.4268, 33.2697
3.284, 6, 33.9397, 53.4908, -12.2701, 93.1521, -75.506, 33.3074
3.288, 6, 33.9161, 53.4752, -12.1752, 93.0689, -75.5854, 33.345
3.291, 6, 33.8924, 53.4594, -12.0804, 92.9859, -75.6649, 33.3824
3.296, 6, 33.8687, 53.4436, -11.9856, 92.903, -75.7445, 33.4197
3.3, 6, 33.845, 53.4276, -11.8908, 92.8203, -75.8242, 33.4568
3.304, 6, 33.8212, 53.4116, -11.796, 92.7377, -75.904, 33.4937
3.308, 6, 33.7973, 53.3955, -11.7013, 92.6553, -75.984, 33.5304
3.312, 6, 33.7734, 53.3794, -11.6066, 92.5731, -76.0641, 33.5669
3.316, 6, 33.7495, 53.3631, -11.5119, 92.491, -76.1444, 33.6033
3.32, 6, 33.7255, 53.3468, -11.4172, 92.4091, -76.2247, 33.6395
3.324, 6, 33.7015, 53.3305, -11.3226, 92.3273, -76.3053, 33.6755
3.328, 6, 33.6774, 53.314, -11.228, 92.2457, -76.3859, 33.7113
3.332, 6, 33.6533, 53.2975, -11.1335, 92.1643, -76.4667, 33.7469
3.336, 6, 33.6291, 53.2809, -11.0389, 92.083, -76.5476, 33.7823
3.34, 6, 33.6049, 53.2642, -10.9445, 92.0019, -76.6286, 33.8176
3.344, 6, 33.5807, 53.2475, -10.85, 91.9209, -76.7098, 33.8526
3.347, 6, 33.5564, 53.2307, -10.7556, 91.8401, -76.791, 33.8875
3.352, 6, 33.532, 53.2138, -10.6612, 91.7595, -76.8725, 33.9222
3.356, 6, 33.5076, 53.1969, -10.5668, 91.679, -76.954, 33.9567
3.36, 6, 33.4832, 53.1799, -10.4725, 91.5986, -77.0357, 33.991
3.364, 6, 33.4588, 53.1628, -10.3782, 91.5185, -77.1175, 34.0251
3.368, 6, 33.4342, 53.1456, -10.284, 91.4385, -77.1994, 34.059
3.372, 6, 33.4096, 53.1283, -10.1898, 91.3586, -77.2815, 34.0928
3.376, 6, 33.385, 53.1109, -10.0956, 91.2789, -77.3636, 34.1263
3.38, 6, 33.3602, 53.0931, -10.0014, 91.1994, -77.4459, 34.1597
3.383, 6, 33.3352, 53.075, -9.90729, 91.12, -77.5283, 34.1929
3.388, 6, 33.3101, 53.0564, -9.8131, 91.0409, -77.6106, 34.2259
3.392, 6, 33.2848, 53.0372, -9.71885, 90.9619, -77.6929, 34.2587
3.396, 6, 33.2594, 53.0173, -9.62448, 90.8833, -77.7749, 34.2913
3.4, 6, 33.2338, 52.9967, -9.52994, 90.805, -77.8566, 34.3237
3.403, 6, 33.2082, 52.9753, -9.43515, 90.7271, -77.9378, 34.3559
3.408, 6, 33.1824, 52.9532, -9.34002, 90.6496, -78.0182, 34.388
3.412, 6, 33.1565, 52.9302, -9.24448, 90.5727, -78.0976, 34.4199
3.416, 6, 33.1305, 52.9066, -9.14843, 90.4965, -78.1758, 34.4517
3.42, 7, 33.1043, 52.8821, -9.05179, 90.421, -78.2526, 34.4833
3.424, 7, 33.078, 52.8568, -8.95447, 90.3462, -78.3277, 34.5147
3.428, 7, 33.0516, 52.8307, -8.85639, 90.2724, -78.4009, 34.5461
3.432, 7, 33.0249, 52.8037, -8.75747, 90.1995, -78.4719, 34.5772
3.436, 7, 32.9982, 52.7759, -8.65766, 90.1276, -78.5406, 34.6083
3.439, 7, 32.9712, 52.7472, -8.55692, 90.0568, -78.6069, 34.6393
3.444, 7, 32.9442, 52.7176, -8.45522, 89.9871, -78.6706, 34.6701
3.448, 7, 32.9169, 52.6872, -8.35255, 89.9184, -78.7317, 34.7009
3.452, 7, 32.8895, 52.656, -8.24895, 89.8509, -78.7902, 34.7316
3.456, 7, 32.862, 52.6239, -8.14445, 89.7844, -78.8462, 34.7621
3.46, 7, 32.8342, 52.591, -8.0391, 89.7189, -78.8998, 34.7926
3.464, 7, 32.8063, 52.5573, -7.93298, 89.6543, -78.9512, 34.8229
3.468, 7, 32.7783, 52.5228, -7.82616, 89.5906, -79.0006, 34.8532
3.472, 7, 32.7501, 52.4875, -7.71874, 89.5276, -79.0481, 34.8834
3.476, 7, 32.7218, 52.4513, -7.61079, 89.4654, -79.0941, 34.9134
3.48, 7, 32.6934, 52.4145, -7.50242, 89.4037, -79.1387, 34.9433
3.484, 7, 32.6649, 52.3768, -7.39372, 89.3425, -79.1822, 34.9731
3.488, 7, 32.6363, 52.3384, -7.28477, 89.2818, -79.2248, 35.0028
3.492, 7, 32.6075, 52.2993, -7.17565, 89.2214, -79.2667, 35.0324
3.495, 7, 32.5786, 52.2595, -7.06645, 89.1612, -79.3081, 35.0618
3.5, 7, 32.5495, 52.2191, -6.9572, 89.1013, -79.3492, 35.0911
3.504, 7, 32.5202, 52.1782, -6.84798, 89.0415, -79.39, 35.1203
3.508, 7, 32.4907, 52.137, -6.7388, 88.9819, -79.4307, 35.1493
3.512, 7, 32.4612, 52.0954, -6.62971, 88.9224, -79.4714, 35.1782
3.516, 7, 32.4315, 52.0537, -6.52072, 88.8629, -79.512, 35.207
3.52, 7, 32.4018, 52.0119, -6.41185, 88.8035, -79.5527, 35.2356
3.524, 7, 32.3719, 51.97, -6.3031, 88.7442, -79.5934, 35.2641
3.528, 7, 32.342, 51.9281, -6.19448, 88.685, -79.6341, 35.2924
3.531, 7, 32.3121, 51.8862, -6.08599, 88.6258, -79.6749, 35.3207
3.536, 7, 32.2821, 51.8442, -5.97764, 88.5666, -79.7157, 35.3488
3.54, 7, 32.2521, 51.8023, -5.86943, 88.5075, -79.7566, 35.3767
3.544, 7, 32.222, 51.7603, -5.76135, 88.4485, -79.7976, 35.4046
3.548, 7, 32.1919, 51.7184, -5.65342, 88.3895, -79.8386, 35.4323
3.552, 7, 32.1617, 51.6765, -5.54562, 88.3305, -79.8797, 35.4598
3.556, 7, 32.1315, 51.6346, -5.43796, 88.2716, -79.9209, 35.4872
3.56, 7, 32.1013, 51.5927, -5.33045, 88.2128, -79.9622, 35.5145
3.564, 7, 32.071, 51.5508, -5.22307, 88.154, -80.0035, 35.5417
3.568, 7, 32.0406, 51.509, -5.11583, 88.0952, -80.0449, 35.5687
3.572, 7, 32.0102, 51.4672, -5.00873, 88.0365, -80.0864, 35.5956
3.576, 7, 31.9798, 51.4254, -4.90176, 87.9778, -80.1279, 35.6224
3.58, 7, 31.9494, 51.3836, -4.79494, 87.9192, -80.1695, 35.649
3.584, 7, 31.9189, 51.3418, -4.68825, 87.8606, -80.2112, 35.6755
3.587, 7, 31.8883, 51.3001, -4.5817, 87.802, -80.253, 35.7018
3.592, 7, 31.8577, 51.2583, -4.47528, 87.7435, -80.2948, 35.7281
3.596, 7, 31.8271, 51.2166, -4.369, 87.685, -80.3367, 35.7542
3.6, 7, 31.7964, 51.1749, -4.26286, 87.6266, -80.3786, 35.7801
3.604, 7, 31.7657, 51.1332, -4.15685, 87.5682, -80.4207, 35.8059
3.608, 7, 31.7349, 51.0915, -4.05098, 87.5099, -80.4628, 35.8316
3.612, 7, 31.7041, 51.0499, -3.94524, 87.4516, -80.5049, 35.8572
3.616, 7, 31.6733, 51.0083, -3.83963, 87.3933, -80.5472, 35.8826
3.62, 7, 31.6424, 50.9666, -3.73416, 87.3351, -80.5895, 35.9079
3.624, 7, 31.6115, 50.925, -3.62883, 87.2769, -80.6318, 35.9331
3.628, 7, 31.5805, 50.8834, -3.52362, 87.2188, -80.6743, 35.9581
3.632, 7, 31.5495, 50.8419, -3.41855, 87.1607, -80.7168, 35.983
3.636, 7, 31.5185, 50.8003, -3.31361, 87.1027, -80.7593, 36.0078
3.64, 7, 31.4874, 50.7587, -3.2088, 87.0447, -80.802, 36.0324
3.644, 7, 31.4562, 50.7172, -3.10413, 86.9867, -80.8447, 36.0569
3.648, 7, 31.4251, 50.6757, -2.99958, 86.9287, -80.8874, 36.0813
3.652, 7, 31.3938, 50.6341, -2.89517, 86.8708, -80.9303, 36.1056
3.656, 7, 31.3626, 50.5926, -2.79088, 86.813, -80.9732, 36.1297
3.66, 7, 31.3313, 50.5511, -2.68673, 86.7552, -81.0161, 36.1536
3.664, 7, 31.2999, 50.5097, -2.58271, 86.6974, -81.0592, 36.1775
3.668, 7, 31.2685, 50.4682, -2.47881, 86.6396, -81.1022, 36.2012
3.672, 7, 31.2371, 50.4267, -2.37505, 86.5819, -81.1454, 36.2248
3.676, 7, 31.2056, 50.3853, -2.27141, 86.5243, -81.1886, 36.2482
3.679, 7, 31.1741, 50.3438, -2.1679, 86.4667, -81.2319, 36.2715
3.684, 7, 31.1425, 50.3024, -2.06452, 86.4091, -81.2752, 36.2947
3.688, 7, 31.1109, 50.261, -1.96127, 86.3515, -81.3186, 36.3178
3.692, 7, 31.0793, 50.2196, -1.85814, 86.294, -81.3621, 36.3407
3.696, 7, 31.0476, 50.1782, -1.75515, 86.2365, -81.4056, 36.3635
3.7, 7, 31.0159, 50.1368, -1.65227, 86.1791, -81.4492, 36.3862
3.704, 7, 30.9841, 50.0954, -1.54953, 86.1217, -81.4929, 36.4087
3.708, 7, 30.9523, 50.054, -1.44691, 86.0643, -81.5366, 36.4311
3.712, 7, 30.9204, 50.0127, -1.34442, 86.007, -81.5803, 36.4534
3.716, 7, 30.8885, 49.9713, -1.24205, 85.9497, -81.6242, 36.4755
3.72, 7, 30.8566, 49.9299, -1.13981, 85.8924, -81.6681, 36.4975
3.724, 7, 30.8246, 49.8886, -1.03769, 85.8352, -81.712, 36.5194
3.728, 7, 30.7926, 49.8472, -0.9357, 85.778, -81.756, 36.5411
3.732, 7, 30.7605, 49.8059, -0.833831, 85.7208, -81.8001, 36.5627
3.735, 7, 30.7284, 49.7646, -0.732087, 85.6637, -81.8442, 36.5842
3.74, 7, 30.6962, 49.7232, -0.630466, 85.6066, -81.8884, 36.6055
3.744, 7, 30.664, 49.6819, -0.528968, 85.5495, -81.9327, 36.6268
3.748, 7, 30.6318, 49.6406, -0.427596, 85.4925, -81.977, 36.6478
3.752, 7, 30.5996, 49.5993, -0.326356, 85.4355, -82.0213, 36.6688
3.756, 7, 30.5676, 49.5581, -0.225266, 85.3786, -82.0657, 36.6896
3.76, 7, 30.536, 49.517, -0.124366, 85.3217, -82.1102, 36.7103
3.764, 7, 30.5047, 49.476, -0.0237225, 85.2648, -82.1546, 36.7308
3.768, 7, 30.474, 49.4353, 0.0765566, 85.2082, -82.199, 36.7512
3.772, 7, 30.444, 49.3949, 0.176306, 85.1517, -82.2433, 36.7714
3.776, 7, 30.4147, 49.355, 0.275293, 85.0956, -82.2874, 36.7913
3.78, 7, 30.3862, 49.3158, 0.373214, 85.04, -82.3311, 36.811
3.784, 7, 30.3584, 49.2772, 0.469692, 84.9852, -82.3743, 36.8302
3.788, 7, 30.3315, 49.2396, 0.564284, 84.9313, -82.4167, 36.8491
3.792, 7, 30.3053, 49.203, 0.656489, 84.8787, -82.4582, 36.8674
3.796, 7, 30.28, 49.1676, 0.745767, 84.8278, -82.4984, 36.885
3.8, 7, 30.2557, 49.1336, 0.831566, 84.7788, -82.5372, 36.9019
3.804, 7, 30.2323, 49.1011, 0.913338, 84.7321, -82.5741, 36.9179
3.808, 7, 30.21, 49.0704, 0.990567, 84.688, -82.6091, 36.933
3.812, 7, 30.1889, 49.0416, 1.06278, 84.6467, -82.6418, 36.9471
3.816, 7, 30.169, 49.0148, 1.12958, 84.6086, -82.6722, 36.96
3.82, 7, 30.1502, 48.99, 1.19067, 84.5738, -82.6999, 36.9718
3.824, 7, 30.1326, 48.9674, 1.24586, 84.5423, -82.725, 36.9824
3.828, 7, 30.1161, 48.947, 1.29506, 84.5144, -82.7473, 36.9918
3.832, 7, 30.1006, 48.9286, 1.33834, 84.4899, -82.767, 37
3.836, 7, 30.0862, 48.9123, 1.37587, 84.4688, -82.784, 37.007
3.84, 7, 30.073, 48.898, 1.40795, 84.4508, -82.7985, 37.013
3.844, 7, 30.0611, 48.8857, 1.43496, 84.4358, -82.8107, 37.0181
3.848, 7, 30.0505, 48.8752, 1.45735, 84.4233, -82.8208, 37.0222
3.852, 7, 30.0412, 48.8664, 1.4756, 84.4133, -82.8291, 37.0255
3.856, 7, 30.033, 48.8591, 1.49023, 84.4053, -82.8356, 37.0282
3.86, 7, 30.0259, 48.8532, 1.50174, 84.399, -82.8408, 37.0302
3.864, 7, 30.0195, 48.8483, 1.51063, 84.3943, -82.8447, 37.0318
3.868, 7, 30.0139, 48.8445, 1.51734, 84.3907, -82.8477, 37.033
3.872, 7, 30.0091, 48.8415, 1.52231, 84.3881, -82.8499, 37.0338
3.876, 8, 30.005, 48.8391, 1.5259, 84.3863, -82.8515, 37.0344
3.88, 8, 30.0017, 48.8374, 1.52846, 84.385, -82.8526, 37.0349
3.884, 8, 29.9991, 48.8361, 1.53024, 84.3841, -82.8534, 37.0351
3.888, 8, 29.9971, 48.8352, 1.53146, 84.3835, -82.8539, 37.0353
3.892, 8, 29.9958, 48.8346, 1.53229, 84.3831, -82.8543, 37.0355
3.896, 8, 29.9949, 48.8342, 1.53286, 84.3828, -82.8545, 37.0356
3.9, 8, 29.9943, 48.8339, 1.53324, 84.3826, -82.8547, 37.0356
3.904, 8, 29.9938, 48.8337, 1.5335, 84.3825, -82.8548, 37.0357
3.908, 8, 29.9935, 48.8336, 1.53367, 84.3824, -82.8549, 37.0357
3.912, 8, 29.9934, 48.8335, 1.53379, 84.3824, -82.8549, 37.0357
3.916, 8, 29.9932, 48.8334, 1.53387, 84.3823, -82.8549, 37.0357
3.92, 8, 29.9931, 48.8334, 1.53393, 84.3823, -82.855, 37.0357
3.924, 8, 29.9931, 48.8334, 1.53397, 84.3823, -82.855, 37.0357
3.928, 8, 29.993, 48.8333, 1.53399, 84.3823, -82.855, 37.0358
3.932, 8, 29.993, 48.8333, 1.53401, 84.3823, -82.855, 37.0358
3.936, 8, 29.993, 48.8333, 1.53402, 84.3822, -82.855, 37.0358
3.94, 8, 29.993, 48.8333, 1.53403, 84.3822, -82.855, 37.0358
3.944, 8, 29.993, 48.8333, 1.53403, 84.3822, -82.855, 37.0358
3.948, 8, 29.993, 48.8333, 1.53404, 84.3822, -82.855, 37.0358
3.952, 8, 29.993, 48.8333, 1.53404, 84.3822, -82.855, 37.0358
3.956, 8, 29.993, 48.8333, 1.53404, 84.3822, -82.855, 37.0358
3.96, 8, 29.9929, 48.8333, 1.53404, 84.3822, -82.855, 37.0358
3.964, 8, 29.9929, 48.8333, 1.53404, 84.3822, -82.855, 37.0358
3.968, 8, 29.9929, 48.8333, 1.53404, 84.3822, -82.855, 37.0358
3.972, 8, 29.9929, 48.8333, 1.53404, 84.3822, -82.855, 37.0358
3.976, 8, 29.9929, 48.8333, 1.53404, 84.3822, -82.855, 37.0358
3.98, 8, 29.9929, 48.8333, 1.53404, 84.3822, -82.855, 37.0358
3.984, 8, 29.9929, 48.8333, 1.53404, 84.3822, -82.855, 37.0358
3.988, 8, 29.9929, 48.8333, 1.53404, 84.3822, -82.855, 37.0358
3.992, 8, 29.9929, 48.8333, 1.53404, 84.3822, -82.855, 37.0358
