hehonglu123/ABB_Primitive_Study/execution/blade/curve_exe_v300_z20.csv
timestamp, cmd_num, J1, J2, J3, J4, J5, J6
0, -1, 29.9929, 48.8333, 1.53404, 84.3822, -82.855, 37.0358
0.003, -1, 29.9929, 48.8333, 1.53404, 84.3822, -82.855, 37.0358
0.006, -1, 29.9929, 48.8333, 1.53404, 84.3822, -82.855, 37.0358
0.008, -1, 29.9929, 48.8333, 1.53404, 84.3822, -82.855, 37.0358
0.011, -1, 29.9929, 48.8333, 1.53404, 84.3822, -82.855, 37.0358
0.016, -1, 29.9929, 48.8333, 1.53404, 84.3822, -82.855, 37.0358
0.02, -1, 29.9929, 48.8333, 1.53404, 84.3822, -82.855, 37.0358
0.024, -1, 29.9929, 48.8333, 1.53404, 84.3822, -82.855, 37.0358
0.028, -1, 29.9929, 48.8333, 1.53404, 84.3822, -82.855, 37.0358
0.032, -1, 29.993, 48.8333, 1.53404, 84.3822, -82.855, 37.0358
0.036, -1, 29.993, 48.8333, 1.53404, 84.3822, -82.855, 37.0358
0.04, -1, 29.9933, 48.8332, 1.53402, 84.3822, -82.855, 37.0358
0.044, -1, 29.9938, 48.833, 1.53395, 84.3823, -82.8549, 37.0358
0.048, -1, 29.9948, 48.8325, 1.53379, 84.3823, -82.8548, 37.0358
0.052, -1, 29.9964, 48.8318, 1.53345, 84.3825, -82.8543, 37.0359
0.056, -1, 29.9986, 48.8306, 1.53283, 84.3829, -82.8534, 37.0361
0.06, -1, 30.0015, 48.8289, 1.53176, 84.3835, -82.8518, 37.0365
0.064, -1, 30.005, 48.8267, 1.53002, 84.3847, -82.8489, 37.0371
0.068, -1, 30.0092, 48.824, 1.52738, 84.3866, -82.8443, 37.0381
0.072, -1, 30.0141, 48.821, 1.52352, 84.3895, -82.8373, 37.0397
0.076, -1, 30.0196, 48.8176, 1.51811, 84.3936, -82.8273, 37.0419
0.08, -1, 30.026, 48.814, 1.51078, 84.3993, -82.8136, 37.045
0.084, -1, 30.0333, 48.8103, 1.50113, 84.4069, -82.7952, 37.0491
0.088, -1, 30.0415, 48.8067, 1.48876, 84.4168, -82.7713, 37.0544
0.092, -1, 30.0505, 48.8033, 1.4733, 84.4294, -82.7411, 37.0611
0.096, -1, 30.0602, 48.8002, 1.45441, 84.4448, -82.7039, 37.0694
0.1, -1, 30.0707, 48.7976, 1.4318, 84.4635, -82.659, 37.0794
0.104, -1, 30.0817, 48.7956, 1.40529, 84.4856, -82.6061, 37.0913
0.108, -1, 30.0933, 48.7941, 1.37476, 84.5112, -82.5447, 37.1049
0.112, -1, 30.1055, 48.7932, 1.34022, 84.5402, -82.4751, 37.1205
0.116, -1, 30.1185, 48.7927, 1.30174, 84.5727, -82.3974, 37.1379
0.12, -1, 30.1323, 48.7927, 1.25953, 84.6083, -82.312, 37.1569
0.124, -1, 30.1469, 48.793, 1.21383, 84.6469, -82.2196, 37.1776
0.128, -1, 30.1623, 48.7937, 1.16497, 84.6882, -82.1206, 37.1997
0.131, -1, 30.1783, 48.7946, 1.11332, 84.7319, -82.016, 37.2231
0.136, -1, 30.1948, 48.7955, 1.05927, 84.7776, -81.9066, 37.2476
0.139, -1, 30.212, 48.7963, 1.00321, 84.825, -81.7932, 37.2729
0.144, -1, 30.2298, 48.7968, 0.945528, 84.8736, -81.6766, 37.299
0.148, -1, 30.2485, 48.7968, 0.886585, 84.9233, -81.5576, 37.3256
0.152, -1, 30.2681, 48.7963, 0.826699, 84.9737, -81.4368, 37.3525
0.156, -1, 30.2885, 48.7951, 0.766138, 85.0246, -81.3148, 37.3798
0.16, -1, 30.3097, 48.7935, 0.705121, 85.0758, -81.1921, 37.4072
0.164, -1, 30.3317, 48.7916, 0.643816, 85.1272, -81.0689, 37.4348
0.168, -1, 30.3541, 48.7893, 0.582346, 85.1787, -80.9454, 37.4623
0.172, -1, 30.3768, 48.7869, 0.520796, 85.2303, -80.8218, 37.49
0.176, -1, 30.3997, 48.7844, 0.459227, 85.2819, -80.6982, 37.5176
0.18, -1, 30.4228, 48.7818, 0.397677, 85.3334, -80.5746, 37.5452
0.184, -1, 30.446, 48.7791, 0.336173, 85.3849, -80.4512, 37.5727
0.188, -1, 30.4691, 48.7764, 0.274733, 85.4363, -80.3279, 37.6003
0.192, -1, 30.4923, 48.7737, 0.213369, 85.4876, -80.2048, 37.6278
0.196, -1, 30.5155, 48.771, 0.152089, 85.5389, -80.0818, 37.6552
0.2, -1, 30.5387, 48.7682, 0.0908988, 85.5901, -79.9591, 37.6827
0.204, -1, 30.5619, 48.7655, 0.0298009, 85.6413, -79.8365, 37.7101
0.208, -1, 30.585, 48.7627, -0.0312022, 85.6923, -79.7141, 37.7374
0.212, -1, 30.6081, 48.76, -0.0921092, 85.7433, -79.5919, 37.7647
0.216, -1, 30.6311, 48.7573, -0.152919, 85.7942, -79.4699, 37.7919
0.22, -1, 30.6542, 48.7545, -0.213632, 85.845, -79.3481, 37.8191
0.224, -1, 30.6772, 48.7518, -0.274248, 85.8957, -79.2264, 37.8463
0.228, -1, 30.7001, 48.749, -0.334767, 85.9463, -79.105, 37.8734
0.232, -1, 30.723, 48.7463, -0.395188, 85.9969, -78.9838, 37.9005
0.236, -1, 30.7459, 48.7436, -0.455513, 86.0474, -78.8628, 37.9276
0.24, -1, 30.7688, 48.7409, -0.515741, 86.0978, -78.7419, 37.9545
0.244, -1, 30.7916, 48.7381, -0.575873, 86.1481, -78.6213, 37.9815
0.248, -1, 30.8144, 48.7354, -0.635909, 86.1983, -78.5008, 38.0084
0.252, -1, 30.8371, 48.7327, -0.69585, 86.2485, -78.3806, 38.0353
0.256, -1, 30.8598, 48.73, -0.755696, 86.2986, -78.2605, 38.0621
0.26, -1, 30.8825, 48.7273, -0.815448, 86.3486, -78.1406, 38.0889
0.264, -1, 30.9051, 48.7246, -0.875105, 86.3985, -78.0209, 38.1156
0.268, -1, 30.9277, 48.7219, -0.934668, 86.4483, -77.9014, 38.1423
0.272, -1, 30.9503, 48.7192, -0.994138, 86.4981, -77.7821, 38.1689
0.276, -1, 30.9728, 48.7166, -1.05351, 86.5478, -77.663, 38.1955
0.28, -1, 30.9953, 48.7139, -1.1128, 86.5974, -77.5441, 38.2221
0.284, -1, 31.0177, 48.7112, -1.17199, 86.6469, -77.4253, 38.2486
0.288, -1, 31.0402, 48.7085, -1.23109, 86.6964, -77.3067, 38.2751
0.292, -1, 31.0625, 48.7059, -1.2901, 86.7458, -77.1883, 38.3016
0.296, -1, 31.0849, 48.7032, -1.34902, 86.7951, -77.0701, 38.328
0.3, -1, 31.1072, 48.7005, -1.40784, 86.8443, -76.9521, 38.3543
0.304, -1, 31.1295, 48.6979, -1.46658, 86.8934, -76.8343, 38.3807
0.308, -1, 31.1517, 48.6952, -1.52522, 86.9425, -76.7166, 38.407
0.312, -1, 31.174, 48.6926, -1.58378, 86.9915, -76.5991, 38.4332
0.316, -1, 31.1961, 48.6899, -1.64225, 87.0404, -76.4818, 38.4594
0.32, -1, 31.2183, 48.6873, -1.70063, 87.0893, -76.3647, 38.4856
0.324, -1, 31.2404, 48.6847, -1.75892, 87.1381, -76.2477, 38.5117
0.328, -1, 31.2625, 48.682, -1.81712, 87.1868, -76.131, 38.5378
0.332, -1, 31.2845, 48.6794, -1.87523, 87.2354, -76.0144, 38.5638
0.336, -1, 31.3065, 48.6768, -1.93326, 87.2839, -75.898, 38.5898
0.34, -1, 31.3285, 48.6742, -1.9912, 87.3324, -75.7817, 38.6158
0.344, -1, 31.3505, 48.6716, -2.04905, 87.3808, -75.6656, 38.6417
0.348, -1, 31.3724, 48.669, -2.10682, 87.4292, -75.5498, 38.6676
0.352, -1, 31.3943, 48.6664, -2.1645, 87.4774, -75.434, 38.6935
0.356, -1, 31.4161, 48.6637, -2.22209, 87.5256, -75.3185, 38.7193
0.36, -1, 31.4379, 48.6611, -2.2796, 87.5738, -75.2031, 38.745
0.364, -1, 31.4597, 48.6586, -2.33702, 87.6218, -75.0879, 38.7708
0.368, -1, 31.4815, 48.656, -2.39436, 87.6698, -74.9728, 38.7965
0.372, -1, 31.5032, 48.6534, -2.45162, 87.7177, -74.858, 38.8221
0.376, -1, 31.5249, 48.6508, -2.50879, 87.7655, -74.7433, 38.8477
0.38, -1, 31.5465, 48.6482, -2.56588, 87.8133, -74.6287, 38.8733
0.384, -1, 31.5682, 48.6456, -2.62288, 87.861, -74.5144, 38.8989
0.388, -1, 31.5898, 48.6431, -2.6798, 87.9086, -74.4002, 38.9244
0.392, -1, 31.6113, 48.6405, -2.73664, 87.9562, -74.2861, 38.9499
0.396, -1, 31.6329, 48.6379, -2.7934, 88.0037, -74.1723, 38.9753
0.4, -1, 31.6544, 48.6354, -2.85007, 88.0511, -74.0586, 39.0007
0.404, -1, 31.6758, 48.6328, -2.90666, 88.0985, -73.945, 39.0261
0.408, -1, 31.6973, 48.6303, -2.96317, 88.1458, -73.8316, 39.0514
0.412, -1, 31.7187, 48.6277, -3.0196, 88.193, -73.7184, 39.0767
0.416, -1, 31.74, 48.6252, -3.07595, 88.2401, -73.6054, 39.1019
0.42, -1, 31.7614, 48.6226, -3.13222, 88.2872, -73.4925, 39.1271
0.424, -1, 31.7827, 48.6201, -3.18841, 88.3342, -73.3798, 39.1523
0.428, -1, 31.804, 48.6175, -3.24451, 88.3812, -73.2672, 39.1775
0.432, -1, 31.8252, 48.615, -3.30054, 88.4281, -73.1548, 39.2026
0.436, -1, 31.8465, 48.6125, -3.35649, 88.4749, -73.0425, 39.2277
0.44, -1, 31.8677, 48.61, -3.41236, 88.5216, -72.9304, 39.2527
0.444, -1, 31.8888, 48.6074, -3.46815, 88.5683, -72.8185, 39.2777
0.448, -1, 31.91, 48.6049, -3.52387, 88.615, -72.7067, 39.3027
0.452, -1, 31.9311, 48.6024, -3.57951, 88.6615, -72.5951, 39.3276
0.456, -1, 31.9522, 48.5999, -3.63506, 88.708, -72.4836, 39.3525
0.46, -1, 31.9732, 48.5974, -3.69055, 88.7544, -72.3723, 39.3774
0.464, -1, 31.9942, 48.5949, -3.74595, 88.8008, -72.2611, 39.4022
0.468, -1, 32.0152, 48.5924, -3.80128, 88.8471, -72.1501, 39.427
0.472, -1, 32.0362, 48.5899, -3.85653, 88.8933, -72.0393, 39.4518
0.476, -1, 32.0571, 48.5874, -3.91171, 88.9395, -71.9286, 39.4765
0.48, -1, 32.078, 48.5849, -3.96681, 88.9856, -71.818, 39.5012
0.484, -1, 32.0989, 48.5824, -4.02184, 89.0317, -71.7076, 39.5258
0.488, -1, 32.1197, 48.5799, -4.07679, 89.0776, -71.5974, 39.5505
0.492, -1, 32.1406, 48.5774, -4.13167, 89.1236, -71.4873, 39.5751
0.496, -1, 32.1614, 48.575, -4.18647, 89.1694, -71.3773, 39.5996
0.5, -1, 32.1821, 48.5725, -4.2412, 89.2152, -71.2675, 39.6241
0.504, -1, 32.2028, 48.57, -4.29586, 89.261, -71.1579, 39.6486
0.508, -1, 32.2236, 48.5676, -4.35044, 89.3066, -71.0484, 39.6731
0.512, -1, 32.2442, 48.5651, -4.40495, 89.3522, -70.939, 39.6975
0.516, -1, 32.2649, 48.5626, -4.45939, 89.3978, -70.8298, 39.7219
0.52, -1, 32.2855, 48.5602, -4.51375, 89.4433, -70.7207, 39.7463
0.524, -1, 32.3061, 48.5577, -4.56805, 89.4887, -70.6118, 39.7706
0.528, -1, 32.3267, 48.5553, -4.62227, 89.5341, -70.503, 39.7949
0.532, -1, 32.3472, 48.5528, -4.67642, 89.5794, -70.3943, 39.8192
0.536, -1, 32.3677, 48.5504, -4.73049, 89.6247, -70.2858, 39.8434
0.54, -1, 32.3882, 48.5479, -4.7845, 89.6699, -70.1775, 39.8676
0.544, -1, 32.4087, 48.5455, -4.83844, 89.715, -70.0693, 39.8918
0.548, -1, 32.4291, 48.5431, -4.8923, 89.7601, -69.9612, 39.916
0.552, -1, 32.4495, 48.5406, -4.9461, 89.8051, -69.8533, 39.9401
0.556, -1, 32.4699, 48.5382, -4.99983, 89.85, -69.7455, 39.9641
0.56, -1, 32.4903, 48.5358, -5.05348, 89.8949, -69.6378, 39.9882
0.564, -1, 32.5106, 48.5334, -5.10707, 89.9398, -69.5303, 40.0122
0.568, -1, 32.5309, 48.5309, -5.16059, 89.9846, -69.4229, 40.0362
0.572, -1, 32.5512, 48.5285, -5.21404, 90.0293, -69.3157, 40.0601
0.576, -1, 32.5714, 48.5261, -5.26742, 90.074, -69.2086, 40.0841
0.58, -1, 32.5916, 48.5237, -5.32073, 90.1186, -69.1016, 40.108
0.584, -1, 32.6118, 48.5213, -5.37398, 90.1631, -68.9948, 40.1318
0.588, -1, 32.632, 48.5189, -5.42716, 90.2076, -68.8881, 40.1557
0.592, -1, 32.6522, 48.5165, -5.48026, 90.2521, -68.7816, 40.1795
0.596, -1, 32.6723, 48.5141, -5.53331, 90.2965, -68.6752, 40.2032
0.6, -1, 32.6924, 48.5117, -5.58628, 90.3408, -68.5689, 40.227
0.604, -1, 32.7125, 48.5093, -5.63919, 90.3851, -68.4627, 40.2507
0.608, -1, 32.7325, 48.5069, -5.69203, 90.4293, -68.3567, 40.2744
0.612, -1, 32.7525, 48.5045, -5.74481, 90.4734, -68.2508, 40.298
0.616, -1, 32.7725, 48.5021, -5.79752, 90.5175, -68.1451, 40.3216
0.62, -1, 32.7925, 48.4998, -5.85017, 90.5616, -68.0394, 40.3452
0.624, -1, 32.8124, 48.4974, -5.90275, 90.6056, -67.9339, 40.3688
0.628, -1, 32.8324, 48.495, -5.95526, 90.6495, -67.8286, 40.3923
0.632, -1, 32.8523, 48.4926, -6.00771, 90.6934, -67.7234, 40.4158
0.636, -1, 32.8721, 48.4903, -6.06009, 90.7373, -67.6182, 40.4393
0.64, -1, 32.892, 48.4879, -6.11241, 90.781, -67.5133, 40.4628
0.644, -1, 32.9118, 48.4856, -6.16467, 90.8248, -67.4084, 40.4862
0.648, -1, 32.9316, 48.4832, -6.21686, 90.8685, -67.3037, 40.5096
0.652, -1, 32.9514, 48.4808, -6.26899, 90.9121, -67.1991, 40.5329
0.656, -1, 32.9711, 48.4785, -6.32106, 90.9556, -67.0947, 40.5563
0.66, -1, 32.9908, 48.4761, -6.37306, 90.9991, -66.9903, 40.5796
0.664, -1, 33.0106, 48.4738, -6.425, 91.0426, -66.8861, 40.6028
0.668, -1, 33.0302, 48.4714, -6.47687, 91.086, -66.7821, 40.6261
0.672, -1, 33.0499, 48.4691, -6.52868, 91.1294, -66.6781, 40.6493
0.676, -1, 33.0695, 48.4668, -6.58043, 91.1727, -66.5743, 40.6725
0.68, -1, 33.0891, 48.4644, -6.63212, 91.2159, -66.4706, 40.6957
0.684, -1, 33.1087, 48.4621, -6.68375, 91.2591, -66.367, 40.7188
0.688, -1, 33.1283, 48.4598, -6.73531, 91.3023, -66.2635, 40.7419
0.692, -1, 33.1478, 48.4574, -6.78682, 91.3454, -66.1602, 40.765
0.696, -1, 33.1673, 48.4551, -6.83826, 91.3884, -66.057, 40.7881
0.7, -1, 33.1868, 48.4528, -6.88964, 91.4314, -65.9539, 40.8111
0.704, -1, 33.2063, 48.4505, -6.94096, 91.4744, -65.851, 40.8341
0.708, -1, 33.2257, 48.4482, -6.99222, 91.5173, -65.7481, 40.8571
0.712, -1, 33.2452, 48.4458, -7.04342, 91.5601, -65.6454, 40.88
0.716, -1, 33.2646, 48.4435, -7.09456, 91.6029, -65.5428, 40.9029
0.72, -1, 33.2839, 48.4412, -7.14564, 91.6457, -65.4403, 40.9258
0.724, -1, 33.3033, 48.4389, -7.19666, 91.6883, -65.3379, 40.9487
0.728, -1, 33.3226, 48.4366, -7.24762, 91.731, -65.2357, 40.9715
0.732, -1, 33.3419, 48.4343, -7.29852, 91.7736, -65.1336, 40.9943
0.736, -1, 33.3612, 48.432, -7.34936, 91.8161, -65.0316, 41.0171
0.74, -1, 33.3805, 48.4297, -7.40015, 91.8586, -64.9297, 41.0399
0.744, -1, 33.3997, 48.4274, -7.45087, 91.9011, -64.8279, 41.0626
0.748, -1, 33.4189, 48.4251, -7.50153, 91.9435, -64.7263, 41.0853
0.752, -1, 33.4381, 48.4228, -7.55214, 91.9858, -64.6247, 41.108
0.756, -1, 33.4573, 48.4206, -7.60269, 92.0281, -64.5233, 41.1306
0.76, -1, 33.4765, 48.4183, -7.65318, 92.0704, -64.422, 41.1533
0.764, -1, 33.4956, 48.416, -7.70362, 92.1126, -64.3208, 41.1759
0.768, -1, 33.5147, 48.4137, -7.75399, 92.1547, -64.2197, 41.1985
0.772, -1, 33.5338, 48.4115, -7.80431, 92.1968, -64.1188, 41.221
0.776, -1, 33.5529, 48.4092, -7.85457, 92.2389, -64.018, 41.2435
0.78, -1, 33.5719, 48.4069, -7.90478, 92.2809, -63.9172, 41.266
0.784, -1, 33.5909, 48.4046, -7.95493, 92.3229, -63.8166, 41.2885
0.788, -1, 33.6099, 48.4024, -8.00502, 92.3648, -63.7161, 41.311
0.792, -1, 33.6289, 48.4001, -8.05505, 92.4066, -63.6157, 41.3334
0.796, -1, 33.6479, 48.3979, -8.10503, 92.4485, -63.5154, 41.3558
0.8, -1, 33.6668, 48.3956, -8.15496, 92.4902, -63.4153, 41.3782
0.804, -1, 33.6857, 48.3934, -8.20482, 92.532, -63.3152, 41.4005
0.808, -1, 33.7046, 48.3911, -8.25464, 92.5737, -63.2153, 41.4228
0.812, -1, 33.7235, 48.3889, -8.30439, 92.6153, -63.1155, 41.4451
0.816, -1, 33.7424, 48.3866, -8.3541, 92.6569, -63.0158, 41.4674
0.82, -1, 33.7612, 48.3844, -8.40374, 92.6984, -62.9161, 41.4897
0.824, -1, 33.78, 48.3821, -8.45333, 92.7399, -62.8166, 41.5119
0.828, -1, 33.7988, 48.3799, -8.50287, 92.7814, -62.7173, 41.5341
0.832, -1, 33.8176, 48.3776, -8.55236, 92.8228, -62.618, 41.5563
0.836, -1, 33.8363, 48.3754, -8.60179, 92.8642, -62.5188, 41.5784
0.84, -1, 33.855, 48.3732, -8.65116, 92.9055, -62.4197, 41.6005
0.844, -1, 33.8738, 48.3709, -8.70049, 92.9467, -62.3208, 41.6226
0.848, -1, 33.8925, 48.3687, -8.74975, 92.988, -62.2219, 41.6447
0.852, -1, 33.9111, 48.3665, -8.79897, 93.0292, -62.1232, 41.6668
0.856, -1, 33.9298, 48.3643, -8.84813, 93.0703, -62.0246, 41.6888
0.86, -1, 33.9484, 48.3621, -8.89725, 93.1114, -61.926, 41.7108
0.864, -1, 33.967, 48.3598, -8.9463, 93.1524, -61.8276, 41.7328
0.868, -1, 33.9856, 48.3576, -8.99531, 93.1935, -61.7293, 41.7548
0.872, -1, 34.0042, 48.3554, -9.04426, 93.2344, -61.6311, 41.7767
0.876, -1, 34.0227, 48.3532, -9.09317, 93.2753, -61.5329, 41.7986
0.88, -1, 34.0413, 48.351, -9.14202, 93.3162, -61.4349, 41.8205
0.884, -1, 34.0598, 48.3488, -9.19082, 93.3571, -61.337, 41.8424
0.888, -1, 34.0783, 48.3466, -9.23956, 93.3979, -61.2392, 41.8642
0.892, -1, 34.0967, 48.3444, -9.28826, 93.4386, -61.1415, 41.8861
0.896, -1, 34.1152, 48.3422, -9.33691, 93.4793, -61.0439, 41.9079
0.9, -1, 34.1336, 48.34, -9.3855, 93.52, -60.9464, 41.9296
0.904, -1, 34.152, 48.3378, -9.43405, 93.5606, -60.849, 41.9514
0.908, -1, 34.1704, 48.3356, -9.48254, 93.6012, -60.7517, 41.9731
0.912, -1, 34.1888, 48.3334, -9.53098, 93.6417, -60.6545, 41.9948
0.916, -1, 34.2072, 48.3312, -9.57938, 93.6822, -60.5574, 42.0165
0.92, -1, 34.2255, 48.329, -9.62772, 93.7227, -60.4604, 42.0382
0.924, -1, 34.2438, 48.3269, -9.67601, 93.7631, -60.3636, 42.0598
0.928, -1, 34.2621, 48.3247, -9.72426, 93.8034, -60.2668, 42.0815
0.932, -1, 34.2804, 48.3225, -9.77246, 93.8438, -60.1701, 42.1031
0.936, -1, 34.2987, 48.3203, -9.8206, 93.8841, -60.0735, 42.1246
0.94, -1, 34.3169, 48.3182, -9.8687, 93.9243, -59.977, 42.1462
0.944, -1, 34.3351, 48.316, -9.91674, 93.9645, -59.8806, 42.1677
0.948, -1, 34.3534, 48.3138, -9.96474, 94.0047, -59.7843, 42.1892
0.952, -1, 34.3715, 48.3116, -10.0127, 94.0448, -59.6881, 42.2107
0.956, -1, 34.3897, 48.3095, -10.0606, 94.0849, -59.592, 42.2322
0.96, -1, 34.4079, 48.3073, -10.1085, 94.1249, -59.4959, 42.2536
0.964, -1, 34.426, 48.3052, -10.1563, 94.1649, -59.4, 42.2751
0.968, -1, 34.4441, 48.303, -10.204, 94.2049, -59.3042, 42.2965
0.972, -1, 34.4622, 48.3008, -10.2517, 94.2448, -59.2085, 42.3179
0.976, -1, 34.4803, 48.2987, -10.2994, 94.2847, -59.1129, 42.3392
0.98, -1, 34.4984, 48.2965, -10.347, 94.3246, -59.0173, 42.3606
0.984, -1, 34.5164, 48.2944, -10.3946, 94.3644, -58.9219, 42.3819
0.988, -1, 34.5344, 48.2922, -10.4421, 94.4041, -58.8266, 42.4032
0.992, -1, 34.5524, 48.2901, -10.4896, 94.4439, -58.7313, 42.4244
0.996, -1, 34.5704, 48.2879, -10.537, 94.4835, -58.6362, 42.4457
1, -1, 34.5884, 48.2858, -10.5844, 94.5232, -58.5411, 42.4669
1.004, -1, 34.6064, 48.2837, -10.6317, 94.5628, -58.4461, 42.4881
1.008, -1, 34.6243, 48.2815, -10.679, 94.6024, -58.3512, 42.5093
1.012, -1, 34.6422, 48.2794, -10.7262, 94.6419, -58.2565, 42.5305
1.016, -1, 34.6601, 48.2773, -10.7734, 94.6814, -58.1618, 42.5517
1.02, -1, 34.678, 48.2751, -10.8206, 94.7209, -58.0672, 42.5728
1.024, -1, 34.6959, 48.273, -10.8677, 94.7603, -57.9727, 42.5939
1.027, -1, 34.7137, 48.2709, -10.9147, 94.7996, -57.8783, 42.615
1.032, -1, 34.7316, 48.2687, -10.9618, 94.839, -57.7839, 42.6361
1.036, -1, 34.7494, 48.2666, -11.0087, 94.8783, -57.6897, 42.6571
1.04, -1, 34.7672, 48.2645, -11.0557, 94.9176, -57.5956, 42.6781
1.044, -1, 34.785, 48.2624, -11.1025, 94.9568, -57.5015, 42.6992
1.048, -1, 34.8027, 48.2603, -11.1494, 94.996, -57.4075, 42.7201
1.052, -1, 34.8205, 48.2582, -11.1962, 95.0351, -57.3137, 42.7411
1.055, -1, 34.8382, 48.256, -11.2429, 95.0742, -57.2199, 42.7621
1.06, -1, 34.8559, 48.2539, -11.2896, 95.1133, -57.1262, 42.783
1.064, -1, 34.8736, 48.2518, -11.3362, 95.1524, -57.0326, 42.8039
1.068, -1, 34.8913, 48.2497, -11.3829, 95.1914, -56.9391, 42.8248
1.072, -1, 34.909, 48.2476, -11.4294, 95.2303, -56.8456, 42.8457
1.076, -1, 34.9266, 48.2455, -11.4759, 95.2693, -56.7523, 42.8665
1.08, -1, 34.9442, 48.2434, -11.5224, 95.3082, -56.659, 42.8873
1.084, -1, 34.9618, 48.2413, -11.5689, 95.347, -56.5659, 42.9081
1.088, -1, 34.9795, 48.2392, -11.6153, 95.3858, -56.4728, 42.9289
1.091, -1, 34.997, 48.2371, -11.6616, 95.4246, -56.3798, 42.9497
1.096, -1, 35.0146, 48.235, -11.7079, 95.4634, -56.2869, 42.9705
1.1, -1, 35.0321, 48.2329, -11.7542, 95.5021, -56.1941, 42.9912
1.104, -1, 35.0497, 48.2309, -11.8004, 95.5408, -56.1014, 43.0119
1.108, -1, 35.0672, 48.2288, -11.8466, 95.5794, -56.0087, 43.0326
1.112, -1, 35.0847, 48.2267, -11.8927, 95.618, -55.9161, 43.0533
1.116, -1, 35.1022, 48.2246, -11.9388, 95.6566, -55.8237, 43.0739
1.119, -1, 35.1196, 48.2225, -11.9848, 95.6951, -55.7313, 43.0946
1.124, -1, 35.1371, 48.2204, -12.0309, 95.7336, -55.639, 43.1152
1.128, -1, 35.1545, 48.2184, -12.0768, 95.7721, -55.5468, 43.1358
1.132, -1, 35.172, 48.2163, -12.1227, 95.8105, -55.4546, 43.1564
1.136, -1, 35.1894, 48.2142, -12.1686, 95.8489, -55.3626, 43.1769
1.14, -1, 35.2067, 48.2121, -12.2145, 95.8873, -55.2706, 43.1975
1.144, -1, 35.2241, 48.2101, -12.2603, 95.9256, -55.1787, 43.218
1.147, -1, 35.2415, 48.208, -12.306, 95.9639, -55.0869, 43.2385
1.152, -1, 35.2588, 48.2059, -12.3517, 96.0021, -54.9952, 43.259
1.156, -1, 35.2761, 48.2039, -12.3974, 96.0404, -54.9035, 43.2795
1.16, -1, 35.2935, 48.2018, -12.443, 96.0785, -54.812, 43.2999
1.164, -1, 35.3108, 48.1997, -12.4886, 96.1167, -54.7205, 43.3204
1.168, -1, 35.328, 48.1977, -12.5342, 96.1548, -54.6291, 43.3408
1.172, -1, 35.3453, 48.1956, -12.5797, 96.1929, -54.5378, 43.3612
1.175, -1, 35.3625, 48.1936, -12.6252, 96.2309, -54.4466, 43.3816
1.18, -1, 35.3798, 48.1915, -12.6706, 96.269, -54.3554, 43.4019
1.184, -1, 35.397, 48.1895, -12.716, 96.3069, -54.2644, 43.4223
1.188, -1, 35.4142, 48.1874, -12.7614, 96.3449, -54.1734, 43.4426
1.192, -1, 35.4314, 48.1854, -12.8067, 96.3828, -54.0825, 43.4629
1.196, -1, 35.4486, 48.1833, -12.8519, 96.4207, -53.9916, 43.4832
1.2, -1, 35.4657, 48.1813, -12.8972, 96.4585, -53.9009, 43.5035
1.204, -1, 35.4829, 48.1792, -12.9424, 96.4964, -53.8102, 43.5237
1.208, -1, 35.5, 48.1772, -12.9875, 96.5341, -53.7196, 43.5439
1.212, -1, 35.5171, 48.1752, -13.0326, 96.5719, -53.6291, 43.5642
1.216, -1, 35.5342, 48.1731, -13.0777, 96.6096, -53.5387, 43.5844
1.22, -1, 35.5513, 48.1711, -13.1227, 96.6473, -53.4483, 43.6045
1.224, -1, 35.5684, 48.1691, -13.1677, 96.685, -53.358, 43.6247
1.228, -1, 35.5854, 48.167, -13.2127, 96.7226, -53.2678, 43.6449
1.232, -1, 35.6024, 48.165, -13.2576, 96.7602, -53.1777, 43.665
1.236, -1, 35.6193, 48.163, -13.3025, 96.7977, -53.0876, 43.6851
1.24, -1, 35.6361, 48.1611, -13.3473, 96.8352, -52.9977, 43.7052
1.244, -1, 35.6526, 48.1593, -13.3921, 96.8727, -52.9079, 43.7253
1.248, -1, 35.6687, 48.1576, -13.4368, 96.9101, -52.8182, 43.7453
1.252, -1, 35.6845, 48.1561, -13.4813, 96.9474, -52.7288, 43.7653
1.256, -1, 35.6998, 48.1549, -13.5257, 96.9846, -52.6398, 43.7852
1.26, -1, 35.7144, 48.154, -13.5697, 97.0214, -52.5514, 43.8049
1.264, -1, 35.7284, 48.1534, -13.6133, 97.058, -52.4638, 43.8245
1.267, -1, 35.7418, 48.1533, -13.6563, 97.094, -52.3775, 43.8438
1.272, -1, 35.7544, 48.1534, -13.6984, 97.1293, -52.293, 43.8627
1.276, -1, 35.7664, 48.1539, -13.7394, 97.1637, -52.2106, 43.8812
1.28, -1, 35.7778, 48.1545, -13.7789, 97.1969, -52.1312, 43.8989
1.284, -1, 35.7885, 48.1552, -13.8167, 97.2286, -52.0552, 43.9159
1.288, -1, 35.7988, 48.1559, -13.8524, 97.2586, -51.9835, 43.932
1.292, -1, 35.8086, 48.1563, -13.8858, 97.2866, -51.9165, 43.947
1.295, -1, 35.818, 48.1565, -13.9165, 97.3123, -51.8549, 43.9608
1.3, -1, 35.8271, 48.1563, -13.9443, 97.3356, -51.7991, 43.9733
1.304, -1, 35.8359, 48.1556, -13.9691, 97.3564, -51.7493, 43.9844
1.308, -1, 35.8444, 48.1544, -13.9909, 97.3746, -51.7057, 43.9941
1.312, -1, 35.8525, 48.1528, -14.0096, 97.3902, -51.6681, 44.0025
1.316, -1, 35.8603, 48.1509, -14.0254, 97.4034, -51.6365, 44.0096
1.32, -1, 35.8677, 48.1486, -14.0385, 97.4142, -51.6103, 44.0154
1.324, -1, 35.8747, 48.1461, -14.049, 97.423, -51.5893, 44.02
1.328, -1, 35.8814, 48.1434, -14.0573, 97.4298, -51.5727, 44.0237
1.332, -1, 35.8876, 48.1407, -14.0637, 97.4351, -51.56, 44.0265
1.336, -1, 35.8933, 48.1381, -14.0685, 97.439, -51.5505, 44.0286
1.34, -1, 35.8984, 48.1357, -14.072, 97.4419, -51.5436, 44.0301
1.344, 2, 35.9027, 48.1336, -14.0745, 97.4439, -51.5387, 44.0312
1.348, 2, 35.9062, 48.1319, -14.0763, 97.4453, -51.5352, 44.0319
1.352, 2, 35.9089, 48.1307, -14.0775, 97.4462, -51.5328, 44.0324
1.356, 2, 35.9109, 48.1297, -14.0783, 97.4469, -51.5312, 44.0328
1.36, 2, 35.9123, 48.1291, -14.0789, 97.4473, -51.5301, 44.033
1.364, 2, 35.9132, 48.1287, -14.0792, 97.4476, -51.5294, 44.0332
1.368, 2, 35.9138, 48.1284, -14.0795, 97.4479, -51.5289, 44.0333
1.372, 2, 35.9142, 48.1282, -14.0797, 97.448, -51.5286, 44.0334
1.376, 2, 35.9145, 48.1281, -14.0798, 97.4481, -51.5283, 44.0334
1.38, 2, 35.9147, 48.128, -14.0799, 97.4482, -51.5282, 44.0335
1.384, 2, 35.9149, 48.1279, -14.0799, 97.4482, -51.5281, 44.0335
1.388, 2, 35.9149, 48.1279, -14.0799, 97.4482, -51.528, 44.0335
1.392, 2, 35.915, 48.1278, -14.08, 97.4482, -51.5279, 44.0335
1.396, 2, 35.915, 48.1278, -14.08, 97.4483, -51.5279, 44.0335
1.4, 2, 35.9151, 48.1278, -14.08, 97.4483, -51.5279, 44.0335
1.404, 2, 35.9151, 48.1278, -14.08, 97.4483, -51.5279, 44.0335
1.408, 2, 35.9151, 48.1278, -14.08, 97.4483, -51.5279, 44.0335
1.412, 2, 35.9151, 48.1278, -14.08, 97.4483, -51.5279, 44.0335
1.416, 2, 35.9151, 48.1278, -14.08, 97.4483, -51.5279, 44.0335
1.42, 2, 35.9151, 48.1278, -14.08, 97.4483, -51.5278, 44.0335
1.424, 2, 35.9151, 48.1278, -14.08, 97.4483, -51.5278, 44.0335
1.428, 2, 35.9151, 48.1278, -14.08, 97.4483, -51.5278, 44.0335
1.432, 2, 35.9151, 48.1278, -14.08, 97.4483, -51.5278, 44.0335
1.436, 2, 35.9151, 48.1278, -14.08, 97.4483, -51.5278, 44.0335
1.44, 2, 35.9151, 48.1278, -14.08, 97.4483, -51.5278, 44.0335
1.444, 2, 35.9151, 48.1278, -14.08, 97.4483, -51.5278, 44.0335
1.448, 2, 35.9151, 48.1278, -14.08, 97.4483, -51.5278, 44.0335
1.452, 2, 35.9151, 48.1278, -14.08, 97.4483, -51.5278, 44.0335
1.456, 2, 35.9151, 48.1278, -14.08, 97.4483, -51.5278, 44.0335
1.46, 2, 35.9151, 48.1278, -14.08, 97.4483, -51.5278, 44.0335
1.464, 2, 35.9151, 48.1278, -14.08, 97.4483, -51.5278, 44.0335
1.468, 2, 35.9151, 48.1278, -14.08, 97.4483, -51.5278, 44.0335
1.472, 2, 35.9151, 48.1278, -14.08, 97.4483, -51.5278, 44.0335
1.476, 2, 35.9151, 48.1278, -14.08, 97.4483, -51.5278, 44.0335
1.48, 2, 35.9151, 48.1278, -14.08, 97.4483, -51.5278, 44.0335
1.484, 2, 35.9151, 48.1278, -14.08, 97.4483, -51.5278, 44.0335
1.488, 2, 35.9151, 48.1278, -14.08, 97.4483, -51.5278, 44.0335
1.492, 2, 35.9151, 48.1278, -14.08, 97.4483, -51.5278, 44.0335
1.496, 2, 35.9151, 48.1278, -14.08, 97.4483, -51.5278, 44.0335
1.5, 2, 35.9151, 48.1278, -14.08, 97.4483, -51.5278, 44.0335
1.504, 2, 35.9151, 48.1278, -14.08, 97.4483, -51.5278, 44.0335
1.508, 2, 35.9151, 48.1278, -14.08, 97.4483, -51.5278, 44.0335
1.512, 2, 35.9151, 48.1278, -14.08, 97.4483, -51.5278, 44.0335
1.516, 2, 35.9151, 48.1278, -14.08, 97.4483, -51.5278, 44.0335
1.52, 2, 35.9151, 48.1278, -14.08, 97.4483, -51.5278, 44.0335
1.524, 2, 35.9151, 48.1278, -14.08, 97.4483, -51.5278, 44.0335
1.528, 2, 35.9151, 48.1278, -14.08, 97.4483, -51.5278, 44.0335
1.532, 2, 35.9151, 48.1278, -14.08, 97.4483, -51.5278, 44.0335
1.536, 2, 35.9151, 48.1278, -14.08, 97.4483, -51.5278, 44.0335
1.54, 2, 35.9151, 48.1278, -14.08, 97.4483, -51.5278, 44.0335
1.544, 2, 35.9151, 48.1278, -14.08, 97.4483, -51.5278, 44.0335
1.548, 2, 35.9151, 48.1278, -14.08, 97.4483, -51.5278, 44.0335
1.552, 2, 35.9151, 48.1278, -14.08, 97.4483, -51.5278, 44.0335
1.556, 2, 35.9151, 48.1278, -14.08, 97.4483, -51.5278, 44.0335
1.56, 2, 35.9151, 48.1278, -14.08, 97.4483, -51.5278, 44.0335
1.564, 2, 35.9151, 48.1278, -14.08, 97.4483, -51.5278, 44.0335
1.568, 2, 35.9151, 48.1278, -14.08, 97.4483, -51.5278, 44.0335
1.572, 2, 35.9151, 48.1278, -14.08, 97.4483, -51.5278, 44.0335
1.576, 2, 35.9151, 48.1278, -14.08, 97.4483, -51.5278, 44.0335
1.58, 2, 35.9151, 48.1278, -14.08, 97.4483, -51.5278, 44.0335
1.584, 2, 35.9151, 48.1278, -14.08, 97.4483, -51.5278, 44.0335
1.588, 2, 35.9151, 48.1278, -14.08, 97.4483, -51.5278, 44.0335
1.592, 2, 35.9151, 48.1278, -14.08, 97.4483, -51.5278, 44.0335
1.596, 2, 35.9151, 48.1278, -14.08, 97.4483, -51.5278, 44.0335
1.6, 2, 35.9151, 48.1278, -14.08, 97.4483, -51.5278, 44.0335
1.604, 2, 35.9151, 48.1278, -14.08, 97.4483, -51.5278, 44.0335
1.608, 2, 35.9151, 48.1278, -14.08, 97.4483, -51.5278, 44.0335
1.612, 2, 35.9151, 48.1278, -14.08, 97.4483, -51.5278, 44.0335
1.616, 2, 35.9151, 48.1278, -14.08, 97.4483, -51.5278, 44.0335
1.62, 2, 35.9151, 48.1278, -14.08, 97.4483, -51.5278, 44.0335
1.624, 2, 35.9151, 48.1278, -14.08, 97.4483, -51.5278, 44.0335
1.628, 2, 35.9151, 48.1278, -14.08, 97.4483, -51.5278, 44.0335
1.632, 2, 35.9151, 48.1278, -14.08, 97.4483, -51.5278, 44.0335
1.636, 2, 35.9151, 48.1278, -14.08, 97.4483, -51.5278, 44.0335
1.64, 2, 35.9151, 48.1278, -14.08, 97.4483, -51.5278, 44.0335
1.644, 2, 35.9151, 48.1278, -14.08, 97.4483, -51.5278, 44.0335
1.648, 2, 35.9151, 48.1278, -14.08, 97.4483, -51.5278, 44.0335
1.652, 2, 35.9151, 48.1278, -14.08, 97.4483, -51.5278, 44.0335
1.656, 2, 35.9151, 48.1278, -14.08, 97.4483, -51.5278, 44.0335
1.66, 2, 35.9151, 48.1278, -14.08, 97.4483, -51.5278, 44.0335
1.664, 2, 35.9151, 48.1278, -14.08, 97.4483, -51.5278, 44.0335
1.668, 2, 35.9151, 48.1278, -14.08, 97.4483, -51.5278, 44.0335
1.672, 2, 35.9151, 48.1278, -14.08, 97.4483, -51.5278, 44.0335
1.676, 2, 35.9151, 48.1278, -14.08, 97.4483, -51.5278, 44.0335
1.68, 2, 35.9151, 48.1278, -14.08, 97.4483, -51.5278, 44.0335
1.684, 2, 35.9151, 48.1278, -14.08, 97.4483, -51.5278, 44.0335
1.688, 2, 35.9151, 48.1278, -14.08, 97.4483, -51.5278, 44.0335
1.692, 2, 35.9151, 48.1278, -14.08, 97.4483, -51.5278, 44.0335
1.696, 2, 35.9151, 48.1278, -14.08, 97.4483, -51.5278, 44.0335
1.7, 2, 35.9151, 48.1278, -14.08, 97.4483, -51.5278, 44.0335
1.704, 2, 35.9151, 48.1278, -14.08, 97.4483, -51.5278, 44.0335
1.708, 2, 35.9151, 48.1278, -14.08, 97.4483, -51.5278, 44.0335
1.712, 2, 35.9151, 48.1278, -14.08, 97.4483, -51.5278, 44.0335
1.716, 2, 35.9151, 48.1278, -14.08, 97.4483, -51.5278, 44.0335
1.72, 2, 35.9151, 48.1278, -14.08, 97.4483, -51.5278, 44.0335
1.724, 2, 35.9151, 48.1278, -14.08, 97.4483, -51.5278, 44.0335
1.728, 2, 35.9151, 48.1278, -14.08, 97.4483, -51.5278, 44.0335
1.732, 2, 35.9151, 48.1278, -14.08, 97.4483, -51.5278, 44.0335
1.736, 2, 35.9151, 48.1278, -14.08, 97.4483, -51.5278, 44.0335
1.74, 2, 35.9151, 48.1278, -14.08, 97.4483, -51.5278, 44.0335
1.744, 2, 35.9151, 48.1278, -14.08, 97.4483, -51.5278, 44.0335
1.748, 2, 35.9151, 48.1278, -14.08, 97.4483, -51.5278, 44.0335
1.752, 2, 35.9151, 48.1278, -14.08, 97.4483, -51.5278, 44.0335
1.756, 2, 35.9151, 48.1278, -14.08, 97.4483, -51.5278, 44.0335
1.76, 2, 35.9151, 48.1278, -14.08, 97.4483, -51.5278, 44.0335
1.764, 2, 35.9151, 48.1278, -14.08, 97.4483, -51.5278, 44.0335
1.768, 2, 35.9151, 48.1278, -14.08, 97.4483, -51.5278, 44.0335
1.772, 2, 35.9151, 48.1278, -14.08, 97.4483, -51.5278, 44.0335
1.776, 2, 35.9151, 48.1278, -14.08, 97.4483, -51.5278, 44.0335
1.78, 2, 35.9151, 48.1278, -14.08, 97.4483, -51.5278, 44.0335
1.784, 2, 35.9151, 48.1278, -14.08, 97.4483, -51.5278, 44.0335
1.788, 2, 35.9151, 48.1278, -14.08, 97.4483, -51.5278, 44.0335
1.792, 2, 35.9151, 48.1278, -14.08, 97.4483, -51.5278, 44.0335
1.796, 2, 35.9151, 48.1278, -14.08, 97.4483, -51.5278, 44.0335
1.8, 2, 35.9151, 48.1278, -14.08, 97.4483, -51.5278, 44.0335
1.804, 2, 35.9151, 48.1278, -14.08, 97.4483, -51.5278, 44.0335
1.808, 2, 35.9151, 48.1278, -14.08, 97.4483, -51.5278, 44.0335
1.812, 2, 35.9151, 48.1278, -14.08, 97.4483, -51.5278, 44.0335
1.816, 2, 35.9151, 48.1278, -14.08, 97.4483, -51.5278, 44.0335
1.82, 2, 35.9151, 48.1278, -14.08, 97.4483, -51.5278, 44.0335
1.824, 2, 35.9151, 48.1278, -14.08, 97.4483, -51.5278, 44.0335
1.828, 2, 35.9151, 48.1278, -14.08, 97.4483, -51.5278, 44.0335
1.832, 2, 35.9151, 48.1278, -14.08, 97.4483, -51.5278, 44.0335
1.836, 2, 35.9151, 48.1278, -14.08, 97.4483, -51.5278, 44.0335
1.84, 2, 35.9151, 48.1278, -14.08, 97.4483, -51.5278, 44.0335
1.844, 2, 35.9151, 48.1278, -14.08, 97.4483, -51.5278, 44.0335
1.848, 2, 35.9151, 48.1278, -14.08, 97.4483, -51.5278, 44.0335
1.852, 2, 35.9151, 48.1278, -14.08, 97.4483, -51.5278, 44.0335
1.856, 2, 35.9151, 48.1278, -14.08, 97.4483, -51.5278, 44.0335
1.86, 2, 35.9151, 48.1278, -14.08, 97.4483, -51.5278, 44.0335
1.864, 2, 35.9151, 48.1278, -14.08, 97.4483, -51.5278, 44.0335
1.868, 2, 35.9151, 48.1278, -14.08, 97.4483, -51.5278, 44.0335
1.872, 2, 35.9151, 48.1278, -14.08, 97.4483, -51.5278, 44.0335
1.876, 2, 35.9151, 48.1278, -14.08, 97.4483, -51.5278, 44.0335
1.88, 2, 35.9151, 48.1278, -14.08, 97.4483, -51.5278, 44.0335
1.884, 2, 35.9151, 48.1278, -14.08, 97.4483, -51.5278, 44.0335
1.888, 2, 35.9151, 48.1278, -14.08, 97.4483, -51.5278, 44.0335
1.892, 2, 35.9151, 48.1278, -14.08, 97.4483, -51.5278, 44.0335
1.896, 2, 35.9151, 48.1278, -14.08, 97.4483, -51.5278, 44.0335
1.9, 2, 35.9151, 48.1278, -14.08, 97.4483, -51.5278, 44.0335
1.904, 2, 35.9151, 48.1278, -14.08, 97.4483, -51.5278, 44.0335
1.908, 2, 35.9151, 48.1278, -14.08, 97.4483, -51.5278, 44.0335
1.912, 2, 35.9151, 48.1278, -14.08, 97.4483, -51.5278, 44.0335
1.916, 2, 35.9151, 48.1278, -14.08, 97.4483, -51.5278, 44.0335
1.92, 2, 35.9151, 48.1278, -14.08, 97.4483, -51.5278, 44.0335
1.924, 2, 35.9151, 48.1278, -14.08, 97.4483, -51.5278, 44.0335
1.928, 2, 35.9151, 48.1278, -14.08, 97.4483, -51.5278, 44.0335
1.932, 2, 35.9151, 48.1278, -14.08, 97.4483, -51.5278, 44.0335
1.936, 2, 35.9151, 48.1278, -14.08, 97.4483, -51.5278, 44.0335
1.94, 2, 35.9151, 48.1278, -14.08, 97.4483, -51.5278, 44.0335
1.944, 2, 35.9151, 48.1278, -14.08, 97.4483, -51.5278, 44.0335
1.948, 2, 35.9151, 48.1278, -14.08, 97.4483, -51.5278, 44.0335
1.952, 2, 35.9151, 48.1278, -14.08, 97.4483, -51.5278, 44.0335
1.956, 2, 35.9151, 48.1278, -14.08, 97.4483, -51.5278, 44.0335
1.96, 2, 35.9151, 48.1278, -14.08, 97.4483, -51.5278, 44.0335
1.964, 2, 35.9151, 48.1278, -14.08, 97.4483, -51.5278, 44.0335
1.968, 2, 35.9151, 48.1278, -14.08, 97.4483, -51.5278, 44.0335
1.972, 2, 35.9151, 48.1278, -14.08, 97.4483, -51.5278, 44.0335
1.976, 2, 35.9151, 48.1278, -14.08, 97.4483, -51.5278, 44.0335
1.98, 2, 35.9151, 48.1278, -14.08, 97.4483, -51.5278, 44.0335
1.984, 2, 35.9151, 48.1278, -14.08, 97.4483, -51.5278, 44.0335
1.988, 2, 35.9151, 48.1278, -14.08, 97.4483, -51.5278, 44.0335
1.992, 2, 35.9151, 48.1278, -14.08, 97.4483, -51.5278, 44.0335
1.996, 2, 35.9151, 48.1278, -14.08, 97.4483, -51.5278, 44.0335
1.999, 2, 35.9151, 48.1278, -14.08, 97.4483, -51.5278, 44.0335
2.004, 2, 35.9151, 48.1278, -14.08, 97.4483, -51.5278, 44.0335
2.008, 2, 35.9151, 48.1278, -14.08, 97.4483, -51.5278, 44.0335
2.012, 2, 35.9151, 48.1278, -14.08, 97.4483, -51.5278, 44.0335
2.015, 2, 35.9151, 48.1278, -14.08, 97.4483, -51.5278, 44.0335
2.019, 2, 35.9151, 48.1278, -14.08, 97.4483, -51.5278, 44.0335
2.024, 2, 35.9151, 48.1278, -14.08, 97.4483, -51.5278, 44.0335
2.028, 2, 35.9151, 48.1278, -14.08, 97.4483, -51.5278, 44.0335
2.031, 2, 35.9151, 48.1278, -14.08, 97.4483, -51.5278, 44.0335
2.036, 2, 35.9151, 48.1278, -14.08, 97.4483, -51.5278, 44.0335
2.04, 2, 35.9151, 48.1278, -14.08, 97.4483, -51.5278, 44.0335
2.044, 2, 35.9151, 48.1278, -14.08, 97.4483, -51.5278, 44.0335
2.048, 2, 35.9151, 48.1278, -14.08, 97.4483, -51.5278, 44.0335
2.051, 2, 35.9151, 48.1278, -14.08, 97.4483, -51.5278, 44.0335
2.055, 2, 35.9151, 48.1278, -14.08, 97.4483, -51.5278, 44.0335
2.06, 2, 35.9151, 48.1278, -14.08, 97.4483, -51.5278, 44.0335
2.064, 2, 35.9151, 48.1278, -14.08, 97.4483, -51.5278, 44.0335
2.068, 2, 35.9151, 48.1278, -14.08, 97.4483, -51.5278, 44.0335
2.071, 2, 35.9151, 48.1278, -14.08, 97.4483, -51.5278, 44.0335
2.076, 2, 35.9151, 48.1278, -14.08, 97.4483, -51.5278, 44.0335
2.08, 2, 35.9151, 48.1278, -14.08, 97.4483, -51.5278, 44.0335
2.084, 2, 35.9151, 48.1278, -14.08, 97.4483, -51.5278, 44.0335
2.087, 2, 35.9151, 48.1278, -14.08, 97.4483, -51.5278, 44.0335
2.092, 2, 35.9151, 48.1278, -14.08, 97.4483, -51.5278, 44.0335
2.096, 2, 35.9151, 48.1278, -14.08, 97.4483, -51.5278, 44.0335
2.1, 2, 35.9151, 48.1278, -14.08, 97.4483, -51.5278, 44.0335
2.104, 2, 35.9151, 48.1278, -14.08, 97.4483, -51.5278, 44.0335
2.107, 2, 35.9151, 48.1278, -14.08, 97.4483, -51.5278, 44.0335
2.111, 2, 35.9151, 48.1278, -14.08, 97.4483, -51.5278, 44.0335
2.116, 2, 35.9151, 48.1278, -14.08, 97.4483, -51.5278, 44.0335
2.12, 2, 35.9151, 48.1278, -14.08, 97.4483, -51.5278, 44.0335
2.124, 2, 35.9151, 48.1278, -14.08, 97.4483, -51.5278, 44.0335
2.127, 2, 35.9151, 48.1278, -14.08, 97.4483, -51.5278, 44.0335
2.132, 2, 35.9151, 48.1278, -14.08, 97.4483, -51.5278, 44.0335
2.136, 2, 35.9151, 48.1278, -14.08, 97.4483, -51.5278, 44.0335
2.14, 2, 35.9151, 48.1278, -14.08, 97.4483, -51.5278, 44.0335
2.143, 2, 35.9151, 48.1278, -14.08, 97.4483, -51.5278, 44.0335
2.148, 2, 35.9151, 48.1278, -14.08, 97.4483, -51.5278, 44.0335
2.152, 2, 35.9151, 48.1278, -14.08, 97.4483, -51.5278, 44.0335
2.156, 2, 35.9151, 48.1278, -14.08, 97.4483, -51.5278, 44.0335
2.16, 2, 35.9151, 48.1278, -14.08, 97.4483, -51.5278, 44.0335
2.163, 2, 35.9151, 48.1278, -14.08, 97.4483, -51.5278, 44.0335
2.168, 2, 35.9151, 48.1278, -14.08, 97.4483, -51.5278, 44.0335
2.172, 2, 35.9151, 48.1278, -14.08, 97.4483, -51.5278, 44.0335
2.176, 2, 35.9151, 48.1278, -14.08, 97.4483, -51.5278, 44.0335
2.179, 2, 35.9151, 48.1278, -14.08, 97.4483, -51.5278, 44.0335
2.184, 2, 35.9151, 48.1278, -14.08, 97.4483, -51.5278, 44.0335
2.188, 2, 35.9151, 48.1278, -14.08, 97.4483, -51.5278, 44.0335
2.192, 2, 35.9151, 48.1278, -14.08, 97.4483, -51.5278, 44.0335
2.196, 2, 35.9151, 48.1278, -14.08, 97.4483, -51.5278, 44.0335
2.199, 2, 35.9151, 48.1278, -14.08, 97.4483, -51.5278, 44.0335
2.204, 2, 35.9151, 48.1278, -14.08, 97.4483, -51.5278, 44.0335
2.208, 2, 35.9151, 48.1278, -14.08, 97.4483, -51.5278, 44.0335
2.212, 2, 35.9151, 48.1278, -14.08, 97.4483, -51.5278, 44.0335
2.216, 2, 35.9151, 48.1278, -14.08, 97.4483, -51.5278, 44.0335
2.219, 2, 35.9151, 48.1278, -14.08, 97.4483, -51.5278, 44.0335
2.224, 2, 35.9151, 48.1278, -14.08, 97.4483, -51.5278, 44.0335
2.228, 2, 35.9151, 48.1278, -14.08, 97.4483, -51.5278, 44.0335
2.232, 2, 35.9151, 48.1278, -14.08, 97.4483, -51.5278, 44.0335
2.235, 2, 35.9151, 48.1278, -14.08, 97.4483, -51.5278, 44.0335
2.24, 2, 35.9151, 48.1278, -14.08, 97.4483, -51.5278, 44.0335
2.244, 2, 35.9151, 48.1278, -14.08, 97.4483, -51.5278, 44.0335
2.248, 2, 35.9151, 48.1278, -14.08, 97.4483, -51.5278, 44.0335
2.252, 2, 35.9151, 48.1278, -14.08, 97.4483, -51.5278, 44.0335
2.255, 2, 35.9151, 48.1278, -14.08, 97.4483, -51.5278, 44.0335
2.259, 2, 35.9151, 48.1278, -14.08, 97.4483, -51.5278, 44.0335
2.264, 2, 35.9151, 48.1278, -14.08, 97.4483, -51.5278, 44.0335
2.268, 2, 35.9151, 48.1278, -14.08, 97.4483, -51.5278, 44.0335
2.272, 2, 35.9151, 48.1278, -14.08, 97.4483, -51.5278, 44.0335
2.275, 2, 35.9151, 48.1278, -14.08, 97.4483, -51.5278, 44.0335
2.28, 2, 35.9151, 48.1278, -14.08, 97.4483, -51.5278, 44.0335
2.284, 2, 35.9151, 48.1278, -14.08, 97.4483, -51.5278, 44.0335
2.288, 2, 35.9151, 48.1278, -14.08, 97.4483, -51.5278, 44.0335
2.291, 2, 35.9151, 48.1278, -14.08, 97.4483, -51.5278, 44.0335
2.296, 2, 35.9151, 48.1278, -14.08, 97.4483, -51.5278, 44.0335
2.3, 2, 35.9151, 48.1278, -14.08, 97.4483, -51.5278, 44.0335
2.304, 2, 35.9151, 48.1278, -14.08, 97.4483, -51.5278, 44.0335
2.308, 2, 35.9151, 48.1278, -14.08, 97.4483, -51.5278, 44.0335
2.311, 2, 35.9151, 48.1278, -14.08, 97.4483, -51.5278, 44.0335
2.316, 2, 35.9151, 48.1278, -14.08, 97.4483, -51.5278, 44.0335
2.32, 2, 35.9151, 48.1278, -14.08, 97.4483, -51.5278, 44.0335
2.324, 2, 35.9151, 48.1278, -14.08, 97.4483, -51.5278, 44.0335
2.328, 2, 35.9151, 48.1278, -14.08, 97.4483, -51.5278, 44.0335
2.331, 2, 35.9151, 48.1278, -14.08, 97.4483, -51.5278, 44.0335
2.336, 2, 35.9151, 48.1278, -14.08, 97.4483, -51.5278, 44.0335
2.34, 2, 35.9151, 48.1278, -14.08, 97.4483, -51.5278, 44.0335
2.344, 2, 35.9151, 48.1278, -14.08, 97.4483, -51.5278, 44.0335
2.347, 2, 35.9151, 48.1278, -14.08, 97.4483, -51.5278, 44.0335
2.352, 2, 35.9151, 48.1278, -14.08, 97.4483, -51.5278, 44.0335
2.356, 2, 35.9151, 48.1278, -14.08, 97.4483, -51.5278, 44.0335
2.36, 2, 35.9151, 48.1278, -14.08, 97.4483, -51.5278, 44.0335
2.364, 2, 35.9151, 48.1278, -14.08, 97.4483, -51.5278, 44.0335
2.367, 2, 35.9151, 48.1278, -14.08, 97.4483, -51.5278, 44.0335
2.372, 2, 35.9151, 48.1278, -14.08, 97.4483, -51.5278, 44.0335
2.376, 2, 35.9151, 48.1278, -14.08, 97.4483, -51.5278, 44.0335
2.38, 2, 35.9151, 48.1278, -14.08, 97.4483, -51.5278, 44.0335
2.383, 2, 35.9151, 48.1278, -14.08, 97.4483, -51.5278, 44.0335
2.388, 2, 35.9151, 48.1278, -14.08, 97.4483, -51.5278, 44.0335
2.392, 2, 35.9151, 48.1278, -14.08, 97.4483, -51.5278, 44.0335
2.396, 2, 35.9151, 48.1278, -14.08, 97.4483, -51.5278, 44.0335
2.4, 4, 35.9151, 48.1278, -14.08, 97.4483, -51.5278, 44.0335
2.403, 4, 35.9151, 48.1278, -14.08, 97.4483, -51.5278, 44.0335
2.408, 4, 35.9151, 48.1278, -14.08, 97.4483, -51.5278, 44.0335
2.412, 4, 35.9151, 48.1278, -14.08, 97.4483, -51.5278, 44.0335
2.416, 4, 35.9151, 48.1278, -14.08, 97.4483, -51.5278, 44.0335
2.42, 4, 35.9151, 48.1278, -14.08, 97.4483, -51.5278, 44.0335
2.423, 4, 35.9151, 48.1278, -14.08, 97.4483, -51.5278, 44.0335
2.428, 4, 35.9151, 48.1278, -14.08, 97.4483, -51.5278, 44.0335
2.432, 4, 35.9151, 48.1278, -14.08, 97.4483, -51.5278, 44.0335
2.436, 4, 35.9151, 48.1278, -14.08, 97.4483, -51.5278, 44.0335
2.439, 4, 35.9151, 48.1278, -14.08, 97.4483, -51.5278, 44.0335
2.444, 4, 35.9151, 48.1278, -14.08, 97.4483, -51.5278, 44.0335
2.448, 4, 35.9151, 48.1278, -14.08, 97.4483, -51.5278, 44.0335
2.452, 4, 35.9151, 48.1278, -14.08, 97.4483, -51.5278, 44.0335
2.456, 4, 35.9151, 48.1278, -14.08, 97.4483, -51.5278, 44.0335
2.459, 4, 35.9151, 48.1278, -14.08, 97.4483, -51.5278, 44.0335
2.464, 4, 35.9151, 48.1278, -14.08, 97.4483, -51.5278, 44.0335
2.468, 4, 35.9151, 48.1278, -14.08, 97.4483, -51.5278, 44.0335
2.472, 4, 35.9151, 48.1278, -14.08, 97.4483, -51.5278, 44.0335
2.476, 4, 35.9151, 48.1278, -14.08, 97.4483, -51.5278, 44.0335
2.479, 4, 35.9151, 48.1278, -14.08, 97.4483, -51.5278, 44.0335
2.484, 4, 35.9151, 48.1278, -14.08, 97.4483, -51.5278, 44.0335
2.488, 4, 35.9151, 48.1278, -14.08, 97.4483, -51.5278, 44.0335
2.492, 4, 35.9151, 48.1278, -14.08, 97.4483, -51.5278, 44.0335
2.495, 4, 35.9151, 48.1278, -14.08, 97.4483, -51.5278, 44.0335
2.5, 4, 35.9151, 48.1278, -14.08, 97.4483, -51.5278, 44.0335
2.506, 4, 35.9151, 48.1278, -14.08, 97.4483, -51.5278, 44.0335
2.508, 4, 35.9151, 48.1278, -14.08, 97.4483, -51.5278, 44.0335
2.512, 4, 35.9151, 48.1278, -14.08, 97.4483, -51.5278, 44.0335
2.515, 4, 35.9151, 48.1278, -14.08, 97.4483, -51.5278, 44.0335
2.52, 4, 35.9151, 48.1278, -14.08, 97.4483, -51.5278, 44.0335
2.524, 4, 35.9151, 48.1278, -14.08, 97.4483, -51.5278, 44.0335
2.528, 4, 35.9151, 48.1278, -14.08, 97.4483, -51.5278, 44.0335
2.531, 4, 35.9151, 48.1278, -14.08, 97.4483, -51.5278, 44.0335
2.536, 4, 35.9151, 48.1278, -14.08, 97.4483, -51.5278, 44.0335
2.54, 4, 35.9151, 48.128, -14.08, 97.4483, -51.5279, 44.0335
2.544, 4, 35.9149, 48.1283, -14.08, 97.4483, -51.5279, 44.0335
2.548, 4, 35.9147, 48.1291, -14.0801, 97.4483, -51.528, 44.0334
2.551, 4, 35.9142, 48.1303, -14.0802, 97.4483, -51.5284, 44.0332
2.556, 4, 35.9136, 48.1322, -14.0803, 97.4483, -51.5291, 44.0328
2.56, 4, 35.9128, 48.1348, -14.0805, 97.4484, -51.5305, 44.0319
2.564, 4, 35.9117, 48.1382, -14.0809, 97.4484, -51.5328, 44.0305
2.568, 4, 35.9105, 48.1424, -14.0814, 97.4485, -51.5366, 44.0282
2.571, 5, 35.9092, 48.1474, -14.0821, 97.4487, -51.5422, 44.0248
2.576, 5, 35.9077, 48.1534, -14.0832, 97.4489, -51.5503, 44.0198
2.58, 5, 35.9061, 48.1605, -14.0846, 97.4491, -51.5614, 44.013
2.584, 5, 35.9045, 48.1688, -14.0864, 97.4494, -51.5762, 44.004
2.587, 5, 35.9028, 48.1782, -14.0887, 97.4499, -51.5953, 43.9924
2.592, 5, 35.9011, 48.1888, -14.0915, 97.4503, -51.6192, 43.9778
2.596, 5, 35.8995, 48.2004, -14.0949, 97.4509, -51.6486, 43.96
2.6, 5, 35.8979, 48.2131, -14.0989, 97.4516, -51.6837, 43.9386
2.604, 5, 35.8964, 48.2266, -14.1035, 97.4523, -51.7249, 43.9136
2.607, 5, 35.895, 48.241, -14.1088, 97.4531, -51.7723, 43.8848
2.612, 5, 35.8937, 48.2565, -14.1148, 97.454, -51.8258, 43.8524
2.616, 5, 35.8925, 48.273, -14.1213, 97.4549, -51.8853, 43.8164
2.62, 5, 35.8912, 48.2906, -14.1284, 97.4559, -51.9503, 43.777
2.624, 5, 35.8899, 48.3095, -14.1361, 97.4568, -52.0204, 43.7347
2.627, 5, 35.8886, 48.3294, -14.1441, 97.4578, -52.0951, 43.6896
2.632, 5, 35.8873, 48.3504, -14.1526, 97.4587, -52.1739, 43.6421
2.636, 5, 35.8859, 48.3725, -14.1614, 97.4596, -52.256, 43.5927
2.64, 5, 35.8843, 48.3955, -14.1705, 97.4604, -52.341, 43.5416
2.643, 5, 35.8827, 48.4194, -14.1798, 97.4612, -52.4282, 43.4892
2.648, 5, 35.8808, 48.4442, -14.1892, 97.4619, -52.5172, 43.4359
2.652, 5, 35.8787, 48.4699, -14.1987, 97.4624, -52.6074, 43.3819
2.656, 5, 35.8764, 48.4964, -14.2082, 97.4629, -52.6986, 43.3275
2.66, 5, 35.8739, 48.5236, -14.2178, 97.4632, -52.7904, 43.2728
2.663, 5, 35.8712, 48.5512, -14.2273, 97.4635, -52.8827, 43.2179
2.668, 5, 35.8683, 48.5791, -14.2368, 97.4636, -52.9752, 43.1629
2.672, 5, 35.8654, 48.6073, -14.2463, 97.4636, -53.0679, 43.1079
2.676, 5, 35.8624, 48.6356, -14.2557, 97.4634, -53.1608, 43.053
2.679, 5, 35.8593, 48.664, -14.265, 97.4632, -53.2537, 42.9981
2.684, 5, 35.8562, 48.6924, -14.2743, 97.4627, -53.3466, 42.9432
2.688, 5, 35.8531, 48.7208, -14.2835, 97.4622, -53.4397, 42.8885
2.692, 5, 35.8498, 48.7492, -14.2926, 97.4616, -53.5327, 42.8339
2.696, 5, 35.8466, 48.7776, -14.3017, 97.4608, -53.6257, 42.7793
2.699, 5, 35.8433, 48.8059, -14.3107, 97.4599, -53.7187, 42.7248
2.704, 5, 35.84, 48.8343, -14.3196, 97.4589, -53.8117, 42.6705
2.708, 5, 35.8367, 48.8626, -14.3284, 97.4577, -53.9047, 42.6162
2.712, 5, 35.8333, 48.8908, -14.3371, 97.4564, -53.9977, 42.5621
2.716, 5, 35.8299, 48.919, -14.3458, 97.455, -54.0907, 42.5081
2.719, 5, 35.8265, 48.9472, -14.3543, 97.4535, -54.1836, 42.4541
2.724, 5, 35.823, 48.9753, -14.3628, 97.4518, -54.2766, 42.4003
2.728, 5, 35.8196, 49.0034, -14.3713, 97.4501, -54.3695, 42.3466
2.732, 5, 35.816, 49.0314, -14.3796, 97.4482, -54.4624, 42.2929
2.735, 5, 35.8125, 49.0594, -14.3879, 97.4462, -54.5553, 42.2394
2.74, 5, 35.8089, 49.0873, -14.396, 97.444, -54.6482, 42.186
2.744, 5, 35.8053, 49.1152, -14.4041, 97.4418, -54.741, 42.1327
2.748, 5, 35.8017, 49.1431, -14.4122, 97.4394, -54.8339, 42.0794
2.752, 5, 35.798, 49.1709, -14.4201, 97.4369, -54.9267, 42.0263
2.755, 5, 35.7943, 49.1986, -14.428, 97.4343, -55.0195, 41.9733
2.76, 5, 35.7906, 49.2263, -14.4357, 97.4315, -55.1123, 41.9204
2.764, 5, 35.7869, 49.254, -14.4434, 97.4287, -55.2051, 41.8675
2.768, 5, 35.7831, 49.2816, -14.4511, 97.4257, -55.2979, 41.8148
2.772, 5, 35.7793, 49.3091, -14.4586, 97.4227, -55.3906, 41.7622
2.775, 5, 35.7754, 49.3367, -14.4661, 97.4195, -55.4834, 41.7097
2.78, 5, 35.7716, 49.3641, -14.4735, 97.4161, -55.5761, 41.6572
2.784, 5, 35.7677, 49.3916, -14.4808, 97.4127, -55.6688, 41.6049
2.788, 5, 35.7637, 49.4189, -14.488, 97.4092, -55.7615, 41.5526
2.791, 5, 35.7598, 49.4463, -14.4951, 97.4055, -55.8542, 41.5005
2.796, 5, 35.7558, 49.4735, -14.5022, 97.4018, -55.9468, 41.4484
2.8, 5, 35.7518, 49.5008, -14.5092, 97.3979, -56.0394, 41.3964
2.804, 5, 35.7477, 49.528, -14.5161, 97.3939, -56.1321, 41.3446
2.808, 5, 35.7437, 49.5551, -14.5229, 97.3898, -56.2247, 41.2928
2.811, 5, 35.7396, 49.5822, -14.5296, 97.3856, -56.3173, 41.2411
2.816, 5, 35.7355, 49.6092, -14.5363, 97.3813, -56.4098, 41.1895
2.82, 5, 35.7313, 49.6362, -14.5429, 97.3768, -56.5024, 41.138
2.824, 5, 35.7271, 49.6632, -14.5494, 97.3723, -56.5949, 41.0865
2.828, 5, 35.7229, 49.6901, -14.5558, 97.3677, -56.6874, 41.0352
2.831, 5, 35.7186, 49.7169, -14.5621, 97.3629, -56.7799, 40.984
2.836, 5, 35.7144, 49.7437, -14.5684, 97.358, -56.8724, 40.9328
2.84, 5, 35.7101, 49.7705, -14.5746, 97.3531, -56.9649, 40.8817
2.844, 5, 35.7057, 49.7972, -14.5807, 97.348, -57.0574, 40.8308
2.847, 5, 35.7014, 49.8238, -14.5867, 97.3428, -57.1498, 40.7799
2.852, 5, 35.697, 49.8504, -14.5926, 97.3375, -57.2422, 40.7291
2.856, 5, 35.6926, 49.877, -14.5985, 97.3321, -57.3346, 40.6783
2.86, 5, 35.6881, 49.9035, -14.6042, 97.3266, -57.427, 40.6277
2.864, 5, 35.6837, 49.93, -14.6099, 97.321, -57.5194, 40.5772
2.87, 5, 35.6792, 49.9564, -14.6156, 97.3153, -57.6117, 40.5267
2.872, 5, 35.6746, 49.9827, -14.6211, 97.3095, -57.7041, 40.4763
2.876, 5, 35.6701, 50.009, -14.6265, 97.3036, -57.7964, 40.426
2.88, 5, 35.6655, 50.0353, -14.6319, 97.2975, -57.8887, 40.3758
2.883, 5, 35.6609, 50.0615, -14.6372, 97.2914, -57.981, 40.3256
2.888, 5, 35.6562, 50.0877, -14.6424, 97.2852, -58.0733, 40.2756
2.892, 5, 35.6516, 50.1138, -14.6476, 97.2789, -58.1655, 40.2256
2.896, 5, 35.6469, 50.1399, -14.6526, 97.2725, -58.2577, 40.1757
2.9, 5, 35.6421, 50.1659, -14.6576, 97.2659, -58.35, 40.1259
2.903, 5, 35.6374, 50.1918, -14.6625, 97.2593, -58.4422, 40.0762
2.908, 5, 35.6326, 50.2178, -14.6673, 97.2526, -58.5344, 40.0265
2.912, 5, 35.6278, 50.2436, -14.672, 97.2457, -58.6265, 39.9769
2.916, 5, 35.6229, 50.2695, -14.6766, 97.2388, -58.7187, 39.9274
2.92, 5, 35.6181, 50.2952, -14.6812, 97.2318, -58.8108, 39.878
2.923, 5, 35.6132, 50.3209, -14.6857, 97.2247, -58.9029, 39.8287
2.928, 5, 35.6082, 50.3466, -14.6901, 97.2175, -58.995, 39.7794
2.932, 5, 35.6033, 50.3722, -14.6944, 97.2101, -59.0871, 39.7302
2.936, 5, 35.5983, 50.3978, -14.6987, 97.2027, -59.1792, 39.6811
2.939, 5, 35.5933, 50.4233, -14.7028, 97.1952, -59.2712, 39.6321
2.944, 5, 35.5882, 50.4488, -14.7069, 97.1876, -59.3633, 39.5831
2.948, 5, 35.5832, 50.4742, -14.7109, 97.1799, -59.4553, 39.5342
2.952, 5, 35.5781, 50.4995, -14.7148, 97.1721, -59.5473, 39.4854
2.956, 5, 35.5729, 50.5248, -14.7187, 97.1642, -59.6393, 39.4367
2.959, 5, 35.5678, 50.5501, -14.7224, 97.1562, -59.7312, 39.388
2.964, 5, 35.5626, 50.5753, -14.7261, 97.1482, -59.8232, 39.3394
2.968, 5, 35.5574, 50.6005, -14.7297, 97.14, -59.9151, 39.2909
2.972, 5, 35.5522, 50.6256, -14.7332, 97.1317, -60.007, 39.2424
2.976, 5, 35.5469, 50.6506, -14.7366, 97.1234, -60.0989, 39.1941
2.98, 5, 35.5416, 50.6756, -14.74, 97.1149, -60.1908, 39.1458
2.984, 5, 35.5363, 50.7006, -14.7432, 97.1064, -60.2827, 39.0975
2.988, 5, 35.5309, 50.7255, -14.7464, 97.0978, -60.3745, 39.0494
2.992, 5, 35.5256, 50.7503, -14.7495, 97.089, -60.4663, 39.0013
2.995, 5, 35.5201, 50.7751, -14.7525, 97.0802, -60.5581, 38.9532
3, 5, 35.5147, 50.7999, -14.7555, 97.0713, -60.6499, 38.9053
3.004, 5, 35.5093, 50.8246, -14.7583, 97.0623, -60.7417, 38.8574
3.008, 5, 35.5038, 50.8492, -14.7611, 97.0532, -60.8335, 38.8096
3.012, 5, 35.4982, 50.8738, -14.7638, 97.0441, -60.9252, 38.7618
3.015, 5, 35.4927, 50.8983, -14.7664, 97.0348, -61.0169, 38.7141
3.02, 5, 35.4871, 50.9228, -14.7689, 97.0255, -61.1086, 38.6665
3.024, 5, 35.4815, 50.9472, -14.7714, 97.016, -61.2003, 38.6189
3.028, 5, 35.4759, 50.9716, -14.7737, 97.0065, -61.292, 38.5715
3.031, 5, 35.4702, 50.9959, -14.776, 96.9969, -61.3836, 38.524
3.036, 5, 35.4646, 51.0202, -14.7782, 96.9872, -61.4753, 38.4767
3.04, 5, 35.4588, 51.0444, -14.7803, 96.9774, -61.5669, 38.4294
3.044, 5, 35.4531, 51.0686, -14.7824, 96.9675, -61.6585, 38.3822
3.048, 5, 35.4473, 51.0927, -14.7843, 96.9576, -61.7501, 38.335
3.051, 5, 35.4415, 51.1168, -14.7862, 96.9475, -61.8416, 38.2879
3.056, 5, 35.4357, 51.1408, -14.788, 96.9374, -61.9332, 38.2409
3.06, 5, 35.4299, 51.1647, -14.7897, 96.9272, -62.0247, 38.1939
3.064, 5, 35.424, 51.1886, -14.7913, 96.9169, -62.1162, 38.147
3.068, 5, 35.4181, 51.2125, -14.7928, 96.9065, -62.2077, 38.1001
3.071, 5, 35.4121, 51.2363, -14.7943, 96.896, -62.2992, 38.0533
3.076, 5, 35.4062, 51.26, -14.7957, 96.8855, -62.3906, 38.0066
3.08, 5, 35.4002, 51.2837, -14.797, 96.8748, -62.4821, 37.9599
3.084, 5, 35.3942, 51.3073, -14.7982, 96.8641, -62.5735, 37.9133
3.087, 5, 35.3881, 51.3309, -14.7993, 96.8533, -62.6649, 37.8668
3.092, 5, 35.382, 51.3544, -14.8003, 96.8424, -62.7563, 37.8203
3.096, 5, 35.3759, 51.3779, -14.8013, 96.8315, -62.8477, 37.7739
3.1, 5, 35.3698, 51.4013, -14.8022, 96.8204, -62.939, 37.7275
3.104, 5, 35.3637, 51.4247, -14.803, 96.8093, -63.0304, 37.6812
3.107, 5, 35.3575, 51.448, -14.8037, 96.7981, -63.1217, 37.6349
3.112, 5, 35.3513, 51.4712, -14.8043, 96.7868, -63.213, 37.5887
3.116, 5, 35.345, 51.4944, -14.8048, 96.7755, -63.3043, 37.5426
3.12, 5, 35.3388, 51.5176, -14.8053, 96.764, -63.3955, 37.4965
3.124, 5, 35.3325, 51.5406, -14.8057, 96.7525, -63.4868, 37.4505
3.128, 5, 35.3261, 51.5637, -14.806, 96.7409, -63.578, 37.4045
3.132, 5, 35.3198, 51.5867, -14.8062, 96.7292, -63.6692, 37.3586
3.136, 5, 35.3134, 51.6096, -14.8063, 96.7174, -63.7604, 37.3127
3.14, 5, 35.307, 51.6325, -14.8063, 96.7056, -63.8516, 37.2669
3.143, 5, 35.3006, 51.6553, -14.8063, 96.6937, -63.9428, 37.2212
3.148, 5, 35.2941, 51.678, -14.8062, 96.6817, -64.0339, 37.1755
3.152, 5, 35.2876, 51.7007, -14.806, 96.6696, -64.1251, 37.1298
3.156, 5, 35.2811, 51.7234, -14.8057, 96.6575, -64.2162, 37.0843
3.16, 5, 35.2746, 51.746, -14.8053, 96.6452, -64.3073, 37.0387
3.163, 5, 35.268, 51.7685, -14.8049, 96.6329, -64.3984, 36.9932
3.168, 5, 35.2614, 51.791, -14.8043, 96.6205, -64.4894, 36.9478
3.172, 5, 35.2548, 51.8134, -14.8037, 96.6081, -64.5805, 36.9024
3.176, 5, 35.2481, 51.8358, -14.803, 96.5955, -64.6715, 36.8571
3.179, 5, 35.2415, 51.8581, -14.8022, 96.5829, -64.7625, 36.8118
3.184, 5, 35.2347, 51.8804, -14.8013, 96.5702, -64.8535, 36.7666
3.188, 5, 35.228, 51.9026, -14.8004, 96.5575, -64.9445, 36.7214
3.192, 5, 35.2213, 51.9248, -14.7994, 96.5446, -65.0355, 36.6763
3.196, 5, 35.2145, 51.9469, -14.7982, 96.5317, -65.1264, 36.6312
3.199, 5, 35.2077, 51.9689, -14.797, 96.5188, -65.2174, 36.5862
3.204, 5, 35.2008, 51.9909, -14.7958, 96.5057, -65.3083, 36.5412
3.208, 5, 35.194, 52.0128, -14.7944, 96.4925, -65.3992, 36.4963
3.212, 5, 35.1871, 52.0347, -14.793, 96.4793, -65.4901, 36.4514
3.216, 5, 35.1801, 52.0565, -14.7914, 96.4661, -65.581, 36.4066
3.22, 5, 35.1732, 52.0783, -14.7898, 96.4527, -65.6718, 36.3618
3.224, 5, 35.1662, 52.1, -14.7881, 96.4393, -65.7626, 36.3171
3.228, 5, 35.1592, 52.1216, -14.7863, 96.4258, -65.8535, 36.2724
3.232, 5, 35.1522, 52.1432, -14.7845, 96.4122, -65.9443, 36.2277
3.235, 5, 35.1451, 52.1648, -14.7825, 96.3986, -66.0351, 36.1831
3.24, 5, 35.138, 52.1863, -14.7805, 96.3848, -66.1258, 36.1386
3.244, 5, 35.1309, 52.2077, -14.7784, 96.3711, -66.2166, 36.0941
3.248, 5, 35.1238, 52.2291, -14.7762, 96.3572, -66.3073, 36.0496
3.252, 5, 35.1166, 52.2504, -14.774, 96.3433, -66.3981, 36.0052
3.255, 5, 35.1094, 52.2716, -14.7716, 96.3293, -66.4888, 35.9609
3.26, 5, 35.1022, 52.2928, -14.7692, 96.3152, -66.5795, 35.9165
3.264, 5, 35.095, 52.314, -14.7667, 96.301, -66.6701, 35.8723
3.268, 5, 35.0877, 52.3351, -14.7641, 96.2868, -66.7608, 35.828
3.272, 5, 35.0804, 52.3561, -14.7614, 96.2725, -66.8514, 35.7838
3.276, 5, 35.0731, 52.3771, -14.7586, 96.2582, -66.9421, 35.7397
3.28, 5, 35.0657, 52.398, -14.7558, 96.2438, -67.0327, 35.6956
3.284, 5, 35.0584, 52.4189, -14.7528, 96.2293, -67.1233, 35.6515
3.288, 5, 35.051, 52.4397, -14.7498, 96.2147, -67.2139, 35.6075
3.291, 5, 35.0435, 52.4604, -14.7467, 96.2001, -67.3044, 35.5636
3.296, 5, 35.0361, 52.4811, -14.7436, 96.1854, -67.395, 35.5196
3.302, 5, 35.0286, 52.5018, -14.7403, 96.1706, -67.4855, 35.4757
3.304, 5, 35.0211, 52.5224, -14.737, 96.1558, -67.576, 35.4319
3.308, 5, 35.0136, 52.5429, -14.7335, 96.1409, -67.6665, 35.3881
3.312, 5, 35.006, 52.5633, -14.73, 96.1259, -67.757, 35.3443
3.316, 5, 34.9984, 52.5838, -14.7265, 96.1109, -67.8475, 35.3006
3.32, 5, 34.9908, 52.6041, -14.7228, 96.0958, -67.9379, 35.2569
3.324, 5, 34.9832, 52.6244, -14.719, 96.0806, -68.0284, 35.2133
3.328, 5, 34.9755, 52.6446, -14.7152, 96.0653, -68.1188, 35.1697
3.332, 5, 34.9678, 52.6648, -14.7113, 96.05, -68.2092, 35.1261
3.336, 5, 34.9601, 52.6849, -14.7073, 96.0347, -68.2996, 35.0826
3.34, 5, 34.9523, 52.705, -14.7032, 96.0192, -68.39, 35.0391
3.344, 5, 34.9446, 52.725, -14.6991, 96.0037, -68.4803, 34.9956
3.347, 5, 34.9368, 52.745, -14.6948, 95.9881, -68.5706, 34.9522
3.352, 5, 34.9289, 52.7649, -14.6905, 95.9725, -68.661, 34.9088
3.356, 5, 34.9211, 52.7847, -14.6861, 95.9568, -68.7513, 34.8655
3.36, 5, 34.9132, 52.8045, -14.6816, 95.941, -68.8416, 34.8222
3.364, 5, 34.9053, 52.8242, -14.677, 95.9252, -68.9319, 34.7789
3.368, 5, 34.8974, 52.8438, -14.6724, 95.9093, -69.0221, 34.7357
3.372, 5, 34.8894, 52.8634, -14.6677, 95.8933, -69.1124, 34.6925
3.376, 5, 34.8815, 52.883, -14.6628, 95.8773, -69.2026, 34.6494
3.38, 5, 34.8734, 52.9025, -14.658, 95.8612, -69.2928, 34.6063
3.383, 5, 34.8654, 52.9219, -14.653, 95.8451, -69.383, 34.5632
3.388, 5, 34.8574, 52.9413, -14.6479, 95.8289, -69.4732, 34.5201
3.392, 5, 34.8493, 52.9606, -14.6428, 95.8126, -69.5633, 34.4771
3.396, 5, 34.8412, 52.9798, -14.6375, 95.7962, -69.6535, 34.4341
3.4, 5, 34.833, 52.999, -14.6322, 95.7798, -69.7436, 34.3912
3.403, 5, 34.8249, 53.0182, -14.6268, 95.7634, -69.8337, 34.3483
3.408, 5, 34.8167, 53.0372, -14.6214, 95.7468, -69.9239, 34.3054
3.412, 5, 34.8085, 53.0562, -14.6158, 95.7302, -70.0139, 34.2626
3.416, 5, 34.8002, 53.0752, -14.6102, 95.7136, -70.104, 34.2198
3.42, 5, 34.792, 53.0941, -14.6045, 95.6969, -70.1941, 34.177
3.424, 5, 34.7837, 53.1129, -14.5987, 95.6801, -70.2841, 34.1342
3.428, 5, 34.7753, 53.1317, -14.5928, 95.6632, -70.3741, 34.0915
3.432, 5, 34.767, 53.1504, -14.5868, 95.6463, -70.4641, 34.0489
3.436, 5, 34.7586, 53.1691, -14.5808, 95.6294, -70.5541, 34.0062
3.439, 5, 34.7502, 53.1877, -14.5746, 95.6123, -70.6441, 33.9636
3.444, 5, 34.7418, 53.2062, -14.5684, 95.5953, -70.7341, 33.921
3.448, 5, 34.7332, 53.2246, -14.5621, 95.5781, -70.824, 33.8785
3.452, 5, 34.7246, 53.2429, -14.5556, 95.5609, -70.9139, 33.836
3.456, 5, 34.7159, 53.2611, -14.5491, 95.5435, -71.0038, 33.7936
3.46, 5, 34.7071, 53.2791, -14.5423, 95.5261, -71.0936, 33.7514
3.464, 5, 34.6983, 53.2969, -14.5353, 95.5085, -71.1832, 33.7093
3.468, 5, 34.6893, 53.3145, -14.5281, 95.4908, -71.2728, 33.6675
3.472, 5, 34.6803, 53.3319, -14.5205, 95.4728, -71.3621, 33.626
3.476, 5, 34.6713, 53.3491, -14.5126, 95.4545, -71.4512, 33.5849
3.48, 5, 34.6622, 53.3659, -14.5042, 95.436, -71.5399, 33.5443
3.484, 5, 34.653, 53.3825, -14.4952, 95.4171, -71.6283, 33.5044
3.488, 5, 34.6438, 53.3987, -14.4857, 95.3977, -71.7162, 33.4652
3.492, 5, 34.6345, 53.4145, -14.4754, 95.3779, -71.8036, 33.4269
3.495, 5, 34.6252, 53.43, -14.4645, 95.3575, -71.8904, 33.3895
3.5, 5, 34.6158, 53.445, -14.4526, 95.3366, -71.9765, 33.3532
3.504, 5, 34.6063, 53.4596, -14.4399, 95.315, -72.0619, 33.318
3.508, 5, 34.5968, 53.4738, -14.4263, 95.2928, -72.1464, 33.284
3.512, 5, 34.5872, 53.4875, -14.4116, 95.2699, -72.2302, 33.2513
3.516, 5, 34.5776, 53.5007, -14.396, 95.2462, -72.3131, 33.2199
3.52, 5, 34.5679, 53.5134, -14.3793, 95.2219, -72.3951, 33.19
3.524, 5, 34.558, 53.5256, -14.3615, 95.1968, -72.4762, 33.1613
3.528, 5, 34.5481, 53.5372, -14.3427, 95.171, -72.5563, 33.1341
3.531, 5, 34.5381, 53.5483, -14.3228, 95.1445, -72.6356, 33.1083
3.536, 5, 34.528, 53.5588, -14.3019, 95.1173, -72.7139, 33.0839
3.54, 5, 34.5178, 53.5688, -14.2799, 95.0893, -72.7914, 33.0608
3.544, 5, 34.5075, 53.5782, -14.2569, 95.0606, -72.8679, 33.0391
3.548, 5, 34.497, 53.5871, -14.2328, 95.0313, -72.9435, 33.0188
3.552, 5, 34.4865, 53.5954, -14.2077, 95.0012, -73.0183, 32.9998
3.556, 6, 34.4759, 53.6032, -14.1816, 94.9705, -73.0922, 32.9821
3.56, 6, 34.4651, 53.6105, -14.1545, 94.9391, -73.1652, 32.9657
3.564, 6, 34.4543, 53.6172, -14.1265, 94.9071, -73.2374, 32.9506
3.568, 6, 34.4433, 53.6234, -14.0975, 94.8745, -73.3087, 32.9368
3.572, 6, 34.4322, 53.6291, -14.0675, 94.8411, -73.3792, 32.9242
3.576, 6, 34.421, 53.6342, -14.0365, 94.8072, -73.4489, 32.9129
3.58, 6, 34.4097, 53.6389, -14.0047, 94.7727, -73.5177, 32.9028
3.584, 6, 34.3983, 53.643, -13.9719, 94.7375, -73.5858, 32.894
3.587, 6, 34.3868, 53.6466, -13.9381, 94.7017, -73.653, 32.8864
3.592, 6, 34.3752, 53.6498, -13.9034, 94.6653, -73.7194, 32.88
3.596, 6, 34.3634, 53.6524, -13.8678, 94.6283, -73.785, 32.8749
3.6, 6, 34.3516, 53.6545, -13.8313, 94.5906, -73.8498, 32.871
3.604, 6, 34.3396, 53.6561, -13.7938, 94.5524, -73.9138, 32.8684
3.608, 6, 34.3276, 53.6571, -13.7553, 94.5135, -73.9769, 32.867
3.612, 6, 34.3154, 53.6577, -13.7159, 94.474, -74.0392, 32.8669
3.616, 6, 34.3031, 53.6577, -13.6755, 94.4339, -74.1007, 32.8681
3.62, 6, 34.2908, 53.6572, -13.6342, 94.3931, -74.1613, 32.8706
3.624, 6, 34.2783, 53.6562, -13.5918, 94.3517, -74.2211, 32.8744
3.628, 6, 34.2657, 53.6546, -13.5485, 94.3097, -74.2799, 32.8795
3.632, 6, 34.253, 53.6525, -13.5042, 94.267, -74.3379, 32.886
3.636, 6, 34.2403, 53.6498, -13.4588, 94.2237, -74.3951, 32.8937
3.64, 6, 34.2274, 53.6467, -13.4125, 94.1797, -74.4514, 32.9029
3.644, 6, 34.2145, 53.643, -13.3652, 94.1351, -74.5068, 32.9133
3.648, 6, 34.2015, 53.6388, -13.3169, 94.0899, -74.5613, 32.9251
3.652, 6, 34.1884, 53.6342, -13.2676, 94.044, -74.615, 32.9382
3.656, 6, 34.1753, 53.6291, -13.2174, 93.9976, -74.6679, 32.9525
3.66, 6, 34.1621, 53.6235, -13.1663, 93.9506, -74.7201, 32.968
3.664, 6, 34.1489, 53.6176, -13.1143, 93.9031, -74.7715, 32.9846
3.668, 6, 34.1357, 53.6112, -13.0616, 93.855, -74.8222, 33.0023
3.672, 6, 34.1224, 53.6045, -13.0082, 93.8066, -74.8723, 33.021
3.676, 6, 34.109, 53.5974, -12.9541, 93.7578, -74.9219, 33.0404
3.679, 6, 34.0956, 53.59, -12.8995, 93.7086, -74.971, 33.0606
3.684, 6, 34.0822, 53.5823, -12.8443, 93.6592, -75.0197, 33.0815
3.688, 6, 34.0686, 53.5743, -12.7887, 93.6095, -75.068, 33.1029
3.692, 6, 34.0551, 53.5661, -12.7328, 93.5597, -75.1161, 33.1247
3.696, 6, 34.0414, 53.5576, -12.6767, 93.5098, -75.1639, 33.1468
3.7, 6, 34.0277, 53.549, -12.6202, 93.4597, -75.2116, 33.1691
3.704, 6, 34.0138, 53.5402, -12.5637, 93.4097, -75.2592, 33.1916
3.708, 6, 33.9999, 53.5312, -12.507, 93.3596, -75.3068, 33.2142
3.712, 6, 33.9859, 53.5222, -12.4502, 93.3095, -75.3543, 33.2369
3.716, 6, 33.9719, 53.513, -12.3934, 93.2594, -75.4018, 33.2596
3.72, 6, 33.9578, 53.5037, -12.3365, 93.2094, -75.4493, 33.2822
3.724, 6, 33.9437, 53.4944, -12.2796, 93.1594, -75.4969, 33.3048
3.728, 6, 33.9296, 53.485, -12.2227, 93.1095, -75.5445, 33.3274
3.732, 6, 33.9154, 53.4756, -12.1658, 93.0596, -75.5921, 33.35
3.735, 6, 33.9012, 53.4661, -12.1089, 93.0098, -75.6398, 33.3724
3.74, 6, 33.887, 53.4566, -12.0519, 92.96, -75.6875, 33.3949
3.744, 6, 33.8728, 53.4471, -11.995, 92.9103, -75.7353, 33.4172
3.748, 6, 33.8585, 53.4375, -11.9382, 92.8606, -75.7831, 33.4395
3.752, 6, 33.8443, 53.4279, -11.8813, 92.811, -75.8309, 33.4617
3.756, 6, 33.83, 53.4183, -11.8244, 92.7614, -75.8788, 33.4839
3.76, 6, 33.8157, 53.4087, -11.7675, 92.712, -75.9268, 33.506
3.764, 6, 33.8014, 53.399, -11.7107, 92.6625, -75.9748, 33.528
3.768, 6, 33.787, 53.3894, -11.6538, 92.6131, -76.0228, 33.55
3.772, 6, 33.7727, 53.3797, -11.597, 92.5638, -76.0709, 33.5719
3.776, 6, 33.7583, 53.3699, -11.5402, 92.5146, -76.119, 33.5937
3.78, 6, 33.7439, 53.3601, -11.4834, 92.4654, -76.1672, 33.6155
3.784, 6, 33.7295, 53.3504, -11.4266, 92.4162, -76.2155, 33.6372
3.788, 6, 33.7151, 53.3406, -11.3698, 92.3671, -76.2637, 33.6588
3.792, 6, 33.7007, 53.3307, -11.313, 92.3181, -76.3121, 33.6804
3.796, 6, 33.6862, 53.3209, -11.2563, 92.2691, -76.3605, 33.7019
3.8, 6, 33.6718, 53.311, -11.1995, 92.2202, -76.4089, 33.7233
3.804, 6, 33.6573, 53.301, -11.1428, 92.1714, -76.4574, 33.7447
3.808, 6, 33.6428, 53.2911, -11.0861, 92.1226, -76.5059, 33.766
3.812, 6, 33.6283, 53.2811, -11.0294, 92.0739, -76.5544, 33.7872
3.816, 6, 33.6138, 53.2712, -10.9727, 92.0252, -76.6031, 33.8083
3.82, 6, 33.5992, 53.2611, -10.916, 91.9765, -76.6517, 33.8294
3.824, 6, 33.5847, 53.2511, -10.8593, 91.928, -76.7004, 33.8505
3.828, 6, 33.5701, 53.241, -10.8027, 91.8795, -76.7492, 33.8714
3.832, 6, 33.5555, 53.2309, -10.746, 91.831, -76.798, 33.8923
3.836, 6, 33.5409, 53.2208, -10.6894, 91.7826, -76.8468, 33.9131
3.84, 6, 33.5263, 53.2107, -10.6328, 91.7343, -76.8957, 33.9339
3.844, 6, 33.5116, 53.2005, -10.5761, 91.686, -76.9446, 33.9546
3.848, 6, 33.497, 53.1903, -10.5196, 91.6378, -76.9936, 33.9752
3.852, 6, 33.4823, 53.1801, -10.463, 91.5896, -77.0427, 33.9957
3.856, 6, 33.4676, 53.1698, -10.4064, 91.5415, -77.0917, 34.0162
3.86, 6, 33.4529, 53.1594, -10.3498, 91.4935, -77.1408, 34.0366
3.864, 6, 33.4381, 53.149, -10.2933, 91.4455, -77.19, 34.057
3.868, 6, 33.4232, 53.1385, -10.2367, 91.3975, -77.2392, 34.0773
3.872, 6, 33.4084, 53.1279, -10.1801, 91.3497, -77.2883, 34.0975
3.876, 6, 33.3934, 53.1171, -10.1236, 91.3019, -77.3375, 34.1176
3.88, 6, 33.3784, 53.1063, -10.0669, 91.2542, -77.3866, 34.1377
3.884, 6, 33.3634, 53.0953, -10.0103, 91.2067, -77.4356, 34.1577
3.888, 6, 33.3484, 53.0841, -9.95357, 91.1592, -77.4845, 34.1777
3.892, 6, 33.3333, 53.0728, -9.89678, 91.1119, -77.5332, 34.1975
3.896, 6, 33.3181, 53.0613, -9.8399, 91.0647, -77.5817, 34.2173
3.9, 6, 33.303, 53.0497, -9.7829, 91.0177, -77.63, 34.2371
3.904, 6, 33.2878, 53.0378, -9.72578, 90.9709, -77.678, 34.2567
3.908, 6, 33.2726, 53.0257, -9.66852, 90.9243, -77.7257, 34.2763
3.912, 6, 33.2573, 53.0135, -9.6111, 90.8779, -77.7729, 34.2959
3.916, 6, 33.242, 53.001, -9.55352, 90.8317, -77.8198, 34.3154
3.92, 6, 33.2267, 52.9883, -9.49576, 90.7857, -77.8663, 34.3348
3.924, 6, 33.2114, 52.9753, -9.43781, 90.74, -77.9123, 34.3541
3.928, 6, 33.196, 52.9621, -9.37966, 90.6946, -77.9578, 34.3734
3.932, 6, 33.1806, 52.9486, -9.32133, 90.6494, -78.0029, 34.3926
3.936, 6, 33.1652, 52.9349, -9.26279, 90.6044, -78.0474, 34.4118
3.94, 6, 33.1496, 52.9208, -9.20405, 90.5597, -78.0915, 34.4309
3.944, 6, 33.1341, 52.9065, -9.14512, 90.5152, -78.135, 34.4499
3.948, 6, 33.1184, 52.8918, -9.08599, 90.471, -78.1781, 34.4689
3.952, 6, 33.1028, 52.8769, -9.02665, 90.4271, -78.2206, 34.4879
3.956, 6, 33.087, 52.8616, -8.96712, 90.3834, -78.2627, 34.5067
3.96, 6, 33.0712, 52.846, -8.90739, 90.3399, -78.3042, 34.5256
3.964, 6, 33.0554, 52.8301, -8.84747, 90.2967, -78.3453, 34.5444
3.968, 7, 33.0394, 52.814, -8.78735, 90.2538, -78.3858, 34.5631
3.972, 7, 33.0235, 52.7975, -8.72705, 90.2111, -78.4258, 34.5818
3.976, 7, 33.0074, 52.7807, -8.66655, 90.1686, -78.4653, 34.6004
3.98, 7, 32.9913, 52.7636, -8.60586, 90.1264, -78.5044, 34.619
3.984, 7, 32.9752, 52.7463, -8.54499, 90.0844, -78.5429, 34.6376
3.988, 7, 32.959, 52.7286, -8.48393, 90.0427, -78.5809, 34.6561
3.992, 7, 32.9427, 52.7106, -8.42269, 90.0012, -78.6183, 34.6746
3.996, 7, 32.9263, 52.6924, -8.36126, 89.9599, -78.6553, 34.693
3.999, 7, 32.9099, 52.6739, -8.29965, 89.9188, -78.6918, 34.7114
4.004, 7, 32.8935, 52.655, -8.23787, 89.8781, -78.7277, 34.7297
4.008, 7, 32.877, 52.6359, -8.1759, 89.8375, -78.7632, 34.748
4.012, 7, 32.8604, 52.6165, -8.11376, 89.7971, -78.7981, 34.7663
4.016, 7, 32.8437, 52.5969, -8.05145, 89.757, -78.8325, 34.7845
4.02, 7, 32.827, 52.5769, -7.98896, 89.7172, -78.8664, 34.8027
4.024, 7, 32.8102, 52.5566, -7.92629, 89.6775, -78.8998, 34.8209
4.028, 7, 32.7934, 52.5361, -7.86346, 89.6381, -78.9327, 34.839
4.032, 7, 32.7765, 52.5153, -7.80045, 89.5989, -78.965, 34.8571
4.036, 7, 32.7596, 52.4942, -7.73728, 89.5599, -78.9969, 34.8751
4.04, 7, 32.7426, 52.4728, -7.67393, 89.5212, -79.0282, 34.8932
4.044, 7, 32.7255, 52.4511, -7.61042, 89.4827, -79.059, 34.9111
4.048, 7, 32.7084, 52.4292, -7.54673, 89.4444, -79.0893, 34.9291
4.052, 7, 32.6913, 52.407, -7.48288, 89.4063, -79.119, 34.947
4.056, 7, 32.6741, 52.3845, -7.41886, 89.3685, -79.1483, 34.9649
4.06, 7, 32.6569, 52.3618, -7.35468, 89.3308, -79.177, 34.9827
4.064, 7, 32.6396, 52.3388, -7.29033, 89.2934, -79.2052, 35.0005
4.068, 7, 32.6223, 52.3157, -7.22584, 89.2562, -79.2329, 35.0182
4.072, 7, 32.605, 52.2924, -7.1612, 89.2192, -79.2602, 35.0359
4.076, 7, 32.5876, 52.2688, -7.09643, 89.1824, -79.287, 35.0536
4.08, 7, 32.5702, 52.2451, -7.03154, 89.1457, -79.3135, 35.0712
4.084, 7, 32.5528, 52.2212, -6.96654, 89.1093, -79.3395, 35.0888
4.088, 7, 32.5353, 52.1972, -6.90145, 89.0729, -79.3652, 35.1063
4.092, 7, 32.5178, 52.1729, -6.83629, 89.0368, -79.3906, 35.1238
4.096, 7, 32.5003, 52.1486, -6.77106, 89.0007, -79.4158, 35.1412
4.1, 7, 32.4827, 52.1241, -6.7058, 88.9648, -79.4407, 35.1586
4.104, 7, 32.465, 52.0995, -6.64051, 88.9289, -79.4655, 35.176
4.108, 7, 32.4474, 52.0748, -6.57521, 88.8931, -79.4902, 35.1932
4.112, 7, 32.4296, 52.05, -6.50992, 88.8574, -79.5147, 35.2105
4.116, 7, 32.4118, 52.0251, -6.44464, 88.8217, -79.5392, 35.2277
4.12, 7, 32.394, 52.0001, -6.37939, 88.7861, -79.5637, 35.2448
4.124, 7, 32.3762, 51.975, -6.31416, 88.7505, -79.5882, 35.2619
4.128, 7, 32.3583, 51.9499, -6.24898, 88.7149, -79.6126, 35.2789
4.132, 7, 32.3403, 51.9247, -6.18384, 88.6794, -79.637, 35.2959
4.136, 7, 32.3224, 51.8996, -6.11874, 88.6438, -79.6615, 35.3129
4.14, 7, 32.3044, 51.8744, -6.0537, 88.6083, -79.686, 35.3298
4.144, 7, 32.2864, 51.8492, -5.9887, 88.5729, -79.7105, 35.3466
4.148, 7, 32.2684, 51.8241, -5.92374, 88.5374, -79.735, 35.3634
4.152, 7, 32.2504, 51.7989, -5.85884, 88.5019, -79.7596, 35.3802
4.156, 7, 32.2323, 51.7737, -5.79399, 88.4665, -79.7842, 35.3969
4.16, 7, 32.2142, 51.7485, -5.72919, 88.4311, -79.8088, 35.4135
4.164, 7, 32.1962, 51.7234, -5.66444, 88.3957, -79.8334, 35.4301
4.168, 7, 32.1781, 51.6982, -5.59974, 88.3603, -79.858, 35.4467
4.172, 7, 32.16, 51.6731, -5.53509, 88.325, -79.8827, 35.4632
4.176, 7, 32.1418, 51.6479, -5.47049, 88.2896, -79.9074, 35.4797
4.18, 7, 32.1237, 51.6228, -5.40594, 88.2543, -79.9322, 35.4961
4.184, 7, 32.1055, 51.5977, -5.34144, 88.219, -79.9569, 35.5125
4.188, 7, 32.0874, 51.5726, -5.27699, 88.1837, -79.9817, 35.5288
4.192, 7, 32.0692, 51.5475, -5.21259, 88.1484, -80.0065, 35.545
4.196, 7, 32.051, 51.5224, -5.14824, 88.1131, -80.0313, 35.5613
4.2, 7, 32.0328, 51.4973, -5.08394, 88.0779, -80.0562, 35.5774
4.204, 7, 32.0145, 51.4722, -5.01969, 88.0426, -80.0811, 35.5936
4.208, 7, 31.9963, 51.4471, -4.95549, 88.0074, -80.106, 35.6097
4.212, 7, 31.978, 51.422, -4.89134, 87.9722, -80.1309, 35.6257
4.216, 7, 31.9598, 51.3969, -4.82724, 87.937, -80.1559, 35.6417
4.22, 7, 31.9415, 51.3719, -4.76319, 87.9019, -80.1809, 35.6576
4.224, 7, 31.9232, 51.3468, -4.69918, 87.8667, -80.2059, 35.6735
4.228, 7, 31.9048, 51.3218, -4.63523, 87.8316, -80.2309, 35.6893
4.232, 7, 31.8865, 51.2967, -4.57133, 87.7965, -80.256, 35.7051
4.236, 7, 31.8681, 51.2717, -4.50747, 87.7614, -80.2811, 35.7209
4.24, 7, 31.8498, 51.2466, -4.44367, 87.7263, -80.3062, 35.7366
4.244, 7, 31.8314, 51.2216, -4.37991, 87.6912, -80.3313, 35.7522
4.248, 7, 31.813, 51.1966, -4.3162, 87.6561, -80.3565, 35.7678
4.252, 7, 31.7946, 51.1716, -4.25254, 87.6211, -80.3817, 35.7834
4.256, 7, 31.7762, 51.1466, -4.18893, 87.5861, -80.4069, 35.7989
4.26, 7, 31.7577, 51.1216, -4.12537, 87.551, -80.4321, 35.8143
4.264, 7, 31.7393, 51.0966, -4.06186, 87.516, -80.4574, 35.8297
4.268, 7, 31.7208, 51.0716, -3.99839, 87.4811, -80.4827, 35.8451
4.272, 7, 31.7023, 51.0466, -3.93498, 87.4461, -80.508, 35.8604
4.276, 7, 31.6838, 51.0216, -3.87161, 87.4111, -80.5333, 35.8757
4.28, 7, 31.6653, 50.9966, -3.80829, 87.3762, -80.5587, 35.8909
4.284, 7, 31.6468, 50.9717, -3.74502, 87.3413, -80.5841, 35.9061
4.288, 7, 31.6282, 50.9467, -3.68179, 87.3064, -80.6095, 35.9212
4.292, 7, 31.6096, 50.9217, -3.61862, 87.2715, -80.6349, 35.9363
4.296, 7, 31.5911, 50.8968, -3.55549, 87.2366, -80.6604, 35.9513
4.3, 7, 31.5725, 50.8718, -3.49241, 87.2017, -80.6858, 35.9663
4.304, 7, 31.5539, 50.8469, -3.42937, 87.1669, -80.7114, 35.9812
4.308, 7, 31.5352, 50.822, -3.36639, 87.132, -80.7369, 35.9961
4.312, 7, 31.5166, 50.797, -3.30345, 87.0972, -80.7624, 36.0109
4.316, 7, 31.4979, 50.7721, -3.24056, 87.0624, -80.788, 36.0257
4.32, 7, 31.4793, 50.7472, -3.17772, 87.0276, -80.8136, 36.0405
4.324, 7, 31.4606, 50.7223, -3.11492, 86.9928, -80.8392, 36.0552
4.328, 7, 31.4419, 50.6973, -3.05217, 86.9581, -80.8649, 36.0698
4.332, 7, 31.4232, 50.6724, -2.98947, 86.9233, -80.8906, 36.0844
4.336, 7, 31.4045, 50.6475, -2.92682, 86.8886, -80.9163, 36.099
4.34, 7, 31.3857, 50.6226, -2.86421, 86.8538, -80.942, 36.1135
4.344, 7, 31.3669, 50.5977, -2.80165, 86.8191, -80.9677, 36.1279
4.348, 7, 31.3482, 50.5728, -2.73914, 86.7844, -80.9935, 36.1423
4.352, 7, 31.3294, 50.5479, -2.67667, 86.7498, -81.0193, 36.1567
4.356, 7, 31.3106, 50.5231, -2.61425, 86.7151, -81.0451, 36.171
4.36, 7, 31.2917, 50.4982, -2.55188, 86.6804, -81.0709, 36.1853
4.364, 7, 31.2729, 50.4733, -2.48955, 86.6458, -81.0968, 36.1995
4.368, 7, 31.2541, 50.4484, -2.42727, 86.6112, -81.1226, 36.2137
4.372, 7, 31.2352, 50.4235, -2.36504, 86.5766, -81.1485, 36.2278
4.376, 7, 31.2163, 50.3987, -2.30285, 86.542, -81.1745, 36.2419
4.38, 7, 31.1974, 50.3738, -2.24071, 86.5074, -81.2004, 36.2559
4.384, 7, 31.1785, 50.349, -2.17861, 86.4728, -81.2264, 36.2699
4.388, 7, 31.1596, 50.3241, -2.11656, 86.4382, -81.2524, 36.2838
4.392, 7, 31.1406, 50.2993, -2.05456, 86.4037, -81.2784, 36.2977
4.396, 7, 31.1217, 50.2744, -1.9926, 86.3692, -81.3044, 36.3116
4.4, 7, 31.1027, 50.2496, -1.93069, 86.3346, -81.3305, 36.3253
4.404, 7, 31.0837, 50.2247, -1.86883, 86.3001, -81.3566, 36.3391
4.408, 7, 31.0647, 50.1999, -1.80701, 86.2656, -81.3827, 36.3528
4.412, 7, 31.0457, 50.175, -1.74523, 86.2312, -81.4088, 36.3664
4.416, 7, 31.0266, 50.1502, -1.68351, 86.1967, -81.435, 36.3801
4.42, 7, 31.0076, 50.1254, -1.62182, 86.1622, -81.4611, 36.3936
4.424, 7, 30.9885, 50.1006, -1.56019, 86.1278, -81.4873, 36.4071
4.428, 7, 30.9694, 50.0757, -1.49859, 86.0934, -81.5136, 36.4206
4.432, 7, 30.9503, 50.0509, -1.43705, 86.059, -81.5398, 36.434
4.436, 7, 30.9312, 50.0261, -1.37555, 86.0246, -81.5661, 36.4474
4.44, 7, 30.9121, 50.0013, -1.31409, 85.9902, -81.5923, 36.4607
4.444, 7, 30.8929, 49.9765, -1.25268, 85.9558, -81.6186, 36.474
4.448, 7, 30.8738, 49.9516, -1.19131, 85.9214, -81.645, 36.4872
4.452, 7, 30.8546, 49.9268, -1.12999, 85.8871, -81.6713, 36.5004
4.456, 7, 30.8354, 49.902, -1.06871, 85.8528, -81.6977, 36.5135
4.46, 7, 30.8162, 49.8772, -1.00748, 85.8184, -81.7241, 36.5266
4.464, 7, 30.797, 49.8524, -0.946297, 85.7841, -81.7505, 36.5396
4.468, 7, 30.7778, 49.8276, -0.885155, 85.7498, -81.7769, 36.5526
4.472, 7, 30.7585, 49.8028, -0.824058, 85.7155, -81.8034, 36.5656
4.476, 7, 30.7392, 49.778, -0.763005, 85.6813, -81.8299, 36.5784
4.48, 7, 30.72, 49.7532, -0.701997, 85.647, -81.8564, 36.5913
4.484, 7, 30.7007, 49.7285, -0.641033, 85.6127, -81.8829, 36.6041
4.488, 7, 30.6813, 49.7037, -0.580114, 85.5785, -81.9094, 36.6169
4.492, 7, 30.662, 49.6789, -0.519239, 85.5443, -81.936, 36.6296
4.496, 7, 30.6427, 49.6541, -0.458409, 85.5101, -81.9626, 36.6422
4.5, 7, 30.6233, 49.6293, -0.397622, 85.4759, -81.9892, 36.6548
4.504, 7, 30.6039, 49.6045, -0.33688, 85.4417, -82.0158, 36.6674
4.508, 7, 30.5845, 49.5797, -0.276182, 85.4075, -82.0424, 36.6799
4.512, 7, 30.5651, 49.555, -0.215528, 85.3733, -82.0691, 36.6924
4.516, 7, 30.5457, 49.5302, -0.154918, 85.3392, -82.0958, 36.7048
4.52, 7, 30.5263, 49.5054, -0.0943514, 85.305, -82.1225, 36.7172
4.524, 7, 30.5068, 49.4806, -0.0338291, 85.2709, -82.1492, 36.7295
4.528, 7, 30.4873, 49.4559, 0.0266494, 85.2368, -82.176, 36.7418
4.532, 7, 30.4678, 49.4311, 0.0870841, 85.2027, -82.2027, 36.754
4.536, 7, 30.4483, 49.4063, 0.147475, 85.1686, -82.2295, 36.7662
4.54, 7, 30.4288, 49.3815, 0.207822, 85.1345, -82.2563, 36.7784
4.544, 7, 30.4093, 49.3568, 0.268126, 85.1004, -82.2832, 36.7905
4.548, 7, 30.3898, 49.332, 0.328386, 85.0664, -82.31, 36.8025
4.552, 7, 30.3702, 49.3072, 0.388602, 85.0323, -82.3369, 36.8145
4.556, 7, 30.3507, 49.2825, 0.448771, 84.9983, -82.3638, 36.8264
4.56, 7, 30.3313, 49.2577, 0.508881, 84.9643, -82.3907, 36.8383
4.564, 7, 30.3121, 49.2331, 0.568911, 84.9303, -82.4176, 36.8502
4.568, 7, 30.2933, 49.2085, 0.628824, 84.8963, -82.4445, 36.862
4.572, 7, 30.2748, 49.1841, 0.688556, 84.8624, -82.4714, 36.8737
4.576, 7, 30.2568, 49.1599, 0.748012, 84.8286, -82.4982, 36.8854
4.58, 7, 30.2393, 49.1359, 0.807059, 84.7951, -82.5248, 36.8969
4.584, 7, 30.2222, 49.1123, 0.865521, 84.7618, -82.5512, 36.9083
4.588, 7, 30.2057, 49.0891, 0.923178, 84.7289, -82.5773, 36.9195
4.592, 7, 30.1896, 49.0665, 0.979764, 84.6966, -82.603, 36.9305
4.596, 7, 30.1741, 49.0445, 1.03497, 84.665, -82.6281, 36.9412
4.6, 7, 30.1592, 49.0233, 1.08846, 84.6344, -82.6524, 36.9516
4.604, 7, 30.145, 49.003, 1.13985, 84.6049, -82.6758, 36.9615
4.608, 7, 30.1315, 48.9836, 1.18878, 84.5769, -82.6982, 36.971
4.612, 7, 30.1186, 48.9654, 1.23488, 84.5505, -82.7192, 36.9798
4.616, 7, 30.1065, 48.9484, 1.27781, 84.5259, -82.7388, 36.9881
4.62, 7, 30.0949, 48.9326, 1.31728, 84.5033, -82.7568, 36.9956
4.624, 7, 30.084, 48.918, 1.35308, 84.4828, -82.7732, 37.0024
4.628, 7, 30.0736, 48.9049, 1.38508, 84.4646, -82.7878, 37.0085
4.632, 7, 30.0639, 48.893, 1.41323, 84.4486, -82.8006, 37.0138
4.636, 7, 30.0549, 48.8826, 1.43759, 84.4348, -82.8117, 37.0184
4.64, 7, 30.0465, 48.8734, 1.4583, 84.4232, -82.8211, 37.0222
4.644, 7, 30.0388, 48.8655, 1.47558, 84.4136, -82.8289, 37.0254
4.648, 7, 30.0319, 48.8588, 1.48972, 84.4057, -82.8353, 37.028
4.652, 7, 30.0255, 48.8532, 1.50105, 84.3995, -82.8404, 37.0301
4.656, 7, 30.0196, 48.8485, 1.50992, 84.3947, -82.8444, 37.0317
4.66, 7, 30.0143, 48.8448, 1.51672, 84.3911, -82.8474, 37.0329
4.664, 7, 30.0096, 48.8417, 1.5218, 84.3884, -82.8497, 37.0337
4.668, 8, 30.0056, 48.8394, 1.52552, 84.3865, -82.8513, 37.0344
4.672, 8, 30.0022, 48.8376, 1.52817, 84.3851, -82.8525, 37.0348
4.676, 8, 29.9995, 48.8363, 1.53004, 84.3842, -82.8533, 37.0351
4.68, 8, 29.9975, 48.8353, 1.53132, 84.3836, -82.8538, 37.0353
4.684, 8, 29.996, 48.8347, 1.5322, 84.3831, -82.8542, 37.0355
4.688, 8, 29.995, 48.8342, 1.53279, 84.3829, -82.8545, 37.0356
4.692, 8, 29.9944, 48.8339, 1.5332, 84.3827, -82.8547, 37.0356
4.696, 8, 29.9939, 48.8337, 1.53347, 84.3825, -82.8548, 37.0357
4.7, 8, 29.9936, 48.8336, 1.53365, 84.3824, -82.8549, 37.0357
4.704, 8, 29.9934, 48.8335, 1.53378, 84.3824, -82.8549, 37.0357
4.708, 8, 29.9932, 48.8334, 1.53386, 84.3823, -82.8549, 37.0357
4.712, 8, 29.9931, 48.8334, 1.53392, 84.3823, -82.855, 37.0357
4.716, 8, 29.9931, 48.8334, 1.53396, 84.3823, -82.855, 37.0357
4.72, 8, 29.993, 48.8333, 1.53399, 84.3823, -82.855, 37.0358
4.724, 8, 29.993, 48.8333, 1.53401, 84.3823, -82.855, 37.0358
4.728, 8, 29.993, 48.8333, 1.53402, 84.3822, -82.855, 37.0358
4.732, 8, 29.993, 48.8333, 1.53403, 84.3822, -82.855, 37.0358
4.736, 8, 29.993, 48.8333, 1.53403, 84.3822, -82.855, 37.0358
4.74, 8, 29.993, 48.8333, 1.53403, 84.3822, -82.855, 37.0358
4.744, 8, 29.993, 48.8333, 1.53404, 84.3822, -82.855, 37.0358
4.748, 8, 29.993, 48.8333, 1.53404, 84.3822, -82.855, 37.0358
4.752, 8, 29.993, 48.8333, 1.53404, 84.3822, -82.855, 37.0358
4.756, 8, 29.9929, 48.8333, 1.53404, 84.3822, -82.855, 37.0358
4.76, 8, 29.9929, 48.8333, 1.53404, 84.3822, -82.855, 37.0358
4.764, 8, 29.9929, 48.8333, 1.53404, 84.3822, -82.855, 37.0358
4.768, 8, 29.9929, 48.8333, 1.53404, 84.3822, -82.855, 37.0358
4.772, 8, 29.9929, 48.8333, 1.53404, 84.3822, -82.855, 37.0358
4.776, 8, 29.9929, 48.8333, 1.53404, 84.3822, -82.855, 37.0358
4.78, 8, 29.9929, 48.8333, 1.53404, 84.3822, -82.855, 37.0358
4.784, 8, 29.9929, 48.8333, 1.53404, 84.3822, -82.855, 37.0358
