hehonglu123/ABB_Primitive_Study/execution/blade/curve_exe_v300_z10.csv
timestamp, cmd_num, J1, J2, J3, J4, J5, J6
0, -1, 29.9929, 48.8333, 1.53404, 84.3822, -82.855, 37.0358
0.002, -1, 29.9929, 48.8333, 1.53404, 84.3822, -82.855, 37.0358
0.006, -1, 29.9929, 48.8333, 1.53404, 84.3822, -82.855, 37.0358
0.008, -1, 29.9929, 48.8333, 1.53404, 84.3822, -82.855, 37.0358
0.011, -1, 29.9929, 48.8333, 1.53404, 84.3822, -82.855, 37.0358
0.016, -1, 29.9929, 48.8333, 1.53404, 84.3822, -82.855, 37.0358
0.02, -1, 29.9929, 48.8333, 1.53404, 84.3822, -82.855, 37.0358
0.024, -1, 29.9929, 48.8333, 1.53404, 84.3822, -82.855, 37.0358
0.028, -1, 29.9929, 48.8333, 1.53404, 84.3822, -82.855, 37.0358
0.032, -1, 29.993, 48.8333, 1.53404, 84.3822, -82.855, 37.0358
0.036, -1, 29.993, 48.8333, 1.53404, 84.3822, -82.855, 37.0358
0.04, -1, 29.9933, 48.8332, 1.53402, 84.3822, -82.855, 37.0358
0.044, -1, 29.9938, 48.833, 1.53395, 84.3823, -82.8549, 37.0358
0.048, -1, 29.9948, 48.8325, 1.53379, 84.3823, -82.8548, 37.0358
0.052, -1, 29.9964, 48.8318, 1.53345, 84.3825, -82.8543, 37.0359
0.056, -1, 29.9986, 48.8306, 1.53283, 84.3829, -82.8534, 37.0361
0.06, -1, 30.0015, 48.8289, 1.53176, 84.3835, -82.8518, 37.0365
0.064, -1, 30.005, 48.8267, 1.53002, 84.3847, -82.8489, 37.0371
0.068, -1, 30.0092, 48.824, 1.52738, 84.3866, -82.8443, 37.0381
0.072, -1, 30.0141, 48.821, 1.52352, 84.3895, -82.8373, 37.0397
0.076, -1, 30.0196, 48.8176, 1.51811, 84.3936, -82.8273, 37.0419
0.08, -1, 30.026, 48.814, 1.51078, 84.3993, -82.8136, 37.045
0.084, -1, 30.0333, 48.8103, 1.50113, 84.4069, -82.7952, 37.0491
0.088, -1, 30.0415, 48.8067, 1.48876, 84.4168, -82.7713, 37.0544
0.092, -1, 30.0505, 48.8033, 1.4733, 84.4294, -82.7411, 37.0611
0.096, -1, 30.0602, 48.8002, 1.45441, 84.4448, -82.7039, 37.0694
0.1, -1, 30.0707, 48.7976, 1.4318, 84.4635, -82.659, 37.0794
0.104, -1, 30.0817, 48.7956, 1.40529, 84.4856, -82.6061, 37.0913
0.108, -1, 30.0933, 48.7941, 1.37476, 84.5112, -82.5447, 37.1049
0.112, -1, 30.1055, 48.7932, 1.34022, 84.5402, -82.4751, 37.1205
0.116, -1, 30.1185, 48.7927, 1.30174, 84.5727, -82.3974, 37.1379
0.12, -1, 30.1323, 48.7927, 1.25953, 84.6083, -82.312, 37.1569
0.124, -1, 30.1469, 48.793, 1.21383, 84.6469, -82.2196, 37.1776
0.128, -1, 30.1623, 48.7937, 1.16497, 84.6882, -82.1206, 37.1997
0.131, -1, 30.1783, 48.7946, 1.11332, 84.7319, -82.016, 37.2231
0.136, -1, 30.1948, 48.7955, 1.05927, 84.7776, -81.9066, 37.2476
0.139, -1, 30.212, 48.7963, 1.00321, 84.825, -81.7932, 37.2729
0.144, -1, 30.2298, 48.7968, 0.945529, 84.8736, -81.6766, 37.299
0.148, -1, 30.2485, 48.7968, 0.886585, 84.9233, -81.5576, 37.3256
0.152, -1, 30.2681, 48.7963, 0.826699, 84.9737, -81.4368, 37.3525
0.156, -1, 30.2885, 48.7951, 0.766138, 85.0246, -81.3148, 37.3798
0.16, -1, 30.3097, 48.7935, 0.705121, 85.0758, -81.1921, 37.4072
0.164, -1, 30.3317, 48.7916, 0.643816, 85.1272, -81.0689, 37.4348
0.168, -1, 30.3541, 48.7893, 0.582346, 85.1787, -80.9454, 37.4623
0.172, -1, 30.3768, 48.7869, 0.520796, 85.2303, -80.8218, 37.49
0.176, -1, 30.3997, 48.7844, 0.459227, 85.2819, -80.6982, 37.5176
0.18, -1, 30.4228, 48.7818, 0.397677, 85.3334, -80.5746, 37.5452
0.184, -1, 30.446, 48.7791, 0.336173, 85.3849, -80.4512, 37.5727
0.188, -1, 30.4691, 48.7764, 0.274733, 85.4363, -80.3279, 37.6003
0.192, -1, 30.4923, 48.7737, 0.213369, 85.4876, -80.2048, 37.6278
0.196, -1, 30.5155, 48.771, 0.152089, 85.5389, -80.0818, 37.6552
0.2, -1, 30.5387, 48.7682, 0.0908988, 85.5901, -79.9591, 37.6827
0.204, -1, 30.5619, 48.7655, 0.0298009, 85.6413, -79.8365, 37.7101
0.208, -1, 30.585, 48.7627, -0.0312022, 85.6923, -79.7141, 37.7374
0.212, -1, 30.6081, 48.76, -0.0921092, 85.7433, -79.5919, 37.7647
0.216, -1, 30.6311, 48.7573, -0.152919, 85.7942, -79.4699, 37.7919
0.22, -1, 30.6542, 48.7545, -0.213632, 85.845, -79.3481, 37.8191
0.224, -1, 30.6772, 48.7518, -0.274248, 85.8957, -79.2264, 37.8463
0.228, -1, 30.7001, 48.749, -0.334767, 85.9463, -79.105, 37.8734
0.232, -1, 30.723, 48.7463, -0.395188, 85.9969, -78.9838, 37.9005
0.236, -1, 30.7459, 48.7436, -0.455513, 86.0474, -78.8628, 37.9276
0.24, -1, 30.7688, 48.7409, -0.515741, 86.0978, -78.7419, 37.9545
0.244, -1, 30.7916, 48.7381, -0.575873, 86.1481, -78.6213, 37.9815
0.248, -1, 30.8144, 48.7354, -0.635909, 86.1983, -78.5008, 38.0084
0.252, -1, 30.8371, 48.7327, -0.69585, 86.2485, -78.3806, 38.0353
0.256, -1, 30.8598, 48.73, -0.755696, 86.2986, -78.2605, 38.0621
0.26, -1, 30.8825, 48.7273, -0.815448, 86.3486, -78.1406, 38.0889
0.264, -1, 30.9051, 48.7246, -0.875105, 86.3985, -78.0209, 38.1156
0.268, -1, 30.9277, 48.7219, -0.934668, 86.4483, -77.9014, 38.1423
0.272, -1, 30.9503, 48.7192, -0.994138, 86.4981, -77.7821, 38.1689
0.276, -1, 30.9728, 48.7166, -1.05351, 86.5478, -77.663, 38.1955
0.28, -1, 30.9953, 48.7139, -1.1128, 86.5974, -77.5441, 38.2221
0.284, -1, 31.0177, 48.7112, -1.17199, 86.6469, -77.4253, 38.2486
0.288, -1, 31.0402, 48.7085, -1.23109, 86.6964, -77.3067, 38.2751
0.292, -1, 31.0625, 48.7059, -1.2901, 86.7458, -77.1883, 38.3016
0.296, -1, 31.0849, 48.7032, -1.34902, 86.7951, -77.0701, 38.328
0.3, -1, 31.1072, 48.7005, -1.40784, 86.8443, -76.9521, 38.3543
0.304, -1, 31.1295, 48.6979, -1.46658, 86.8934, -76.8343, 38.3807
0.308, -1, 31.1517, 48.6952, -1.52522, 86.9425, -76.7166, 38.407
0.312, -1, 31.174, 48.6926, -1.58378, 86.9915, -76.5991, 38.4332
0.316, -1, 31.1961, 48.6899, -1.64225, 87.0404, -76.4818, 38.4594
0.32, -1, 31.2183, 48.6873, -1.70063, 87.0893, -76.3647, 38.4856
0.324, -1, 31.2404, 48.6847, -1.75892, 87.1381, -76.2477, 38.5117
0.328, -1, 31.2625, 48.682, -1.81712, 87.1868, -76.131, 38.5378
0.332, -1, 31.2845, 48.6794, -1.87523, 87.2354, -76.0144, 38.5638
0.336, -1, 31.3065, 48.6768, -1.93326, 87.2839, -75.898, 38.5898
0.34, -1, 31.3285, 48.6742, -1.9912, 87.3324, -75.7817, 38.6158
0.344, -1, 31.3505, 48.6716, -2.04905, 87.3808, -75.6656, 38.6417
0.348, -1, 31.3724, 48.669, -2.10682, 87.4292, -75.5498, 38.6676
0.352, -1, 31.3943, 48.6664, -2.1645, 87.4774, -75.434, 38.6935
0.356, -1, 31.4161, 48.6637, -2.22209, 87.5256, -75.3185, 38.7193
0.36, -1, 31.4379, 48.6611, -2.2796, 87.5738, -75.2031, 38.745
0.364, -1, 31.4597, 48.6586, -2.33702, 87.6218, -75.0879, 38.7708
0.368, -1, 31.4815, 48.656, -2.39436, 87.6698, -74.9728, 38.7965
0.372, -1, 31.5032, 48.6534, -2.45162, 87.7177, -74.858, 38.8221
0.376, -1, 31.5249, 48.6508, -2.50879, 87.7655, -74.7433, 38.8477
0.38, -1, 31.5465, 48.6482, -2.56588, 87.8133, -74.6287, 38.8733
0.384, -1, 31.5682, 48.6456, -2.62288, 87.861, -74.5144, 38.8989
0.388, -1, 31.5898, 48.6431, -2.6798, 87.9086, -74.4002, 38.9244
0.392, -1, 31.6113, 48.6405, -2.73664, 87.9562, -74.2861, 38.9499
0.396, -1, 31.6329, 48.6379, -2.7934, 88.0037, -74.1723, 38.9753
0.4, -1, 31.6544, 48.6354, -2.85007, 88.0511, -74.0586, 39.0007
0.404, -1, 31.6758, 48.6328, -2.90666, 88.0985, -73.945, 39.0261
0.408, -1, 31.6973, 48.6303, -2.96317, 88.1458, -73.8316, 39.0514
0.412, -1, 31.7187, 48.6277, -3.0196, 88.193, -73.7184, 39.0767
0.416, -1, 31.74, 48.6252, -3.07595, 88.2401, -73.6054, 39.1019
0.42, -1, 31.7614, 48.6226, -3.13222, 88.2872, -73.4925, 39.1271
0.424, -1, 31.7827, 48.6201, -3.18841, 88.3342, -73.3798, 39.1523
0.428, -1, 31.804, 48.6175, -3.24451, 88.3812, -73.2672, 39.1775
0.432, -1, 31.8252, 48.615, -3.30054, 88.4281, -73.1548, 39.2026
0.436, -1, 31.8465, 48.6125, -3.35649, 88.4749, -73.0425, 39.2277
0.44, -1, 31.8677, 48.61, -3.41236, 88.5216, -72.9304, 39.2527
0.444, -1, 31.8888, 48.6074, -3.46815, 88.5683, -72.8185, 39.2777
0.448, -1, 31.91, 48.6049, -3.52387, 88.615, -72.7067, 39.3027
0.452, -1, 31.9311, 48.6024, -3.57951, 88.6615, -72.5951, 39.3276
0.456, -1, 31.9522, 48.5999, -3.63506, 88.708, -72.4836, 39.3525
0.46, -1, 31.9732, 48.5974, -3.69055, 88.7544, -72.3723, 39.3774
0.464, -1, 31.9942, 48.5949, -3.74595, 88.8008, -72.2611, 39.4022
0.468, -1, 32.0152, 48.5924, -3.80128, 88.8471, -72.1501, 39.427
0.472, -1, 32.0362, 48.5899, -3.85653, 88.8933, -72.0393, 39.4518
0.476, -1, 32.0571, 48.5874, -3.91171, 88.9395, -71.9286, 39.4765
0.48, -1, 32.078, 48.5849, -3.96681, 88.9856, -71.818, 39.5012
0.484, -1, 32.0989, 48.5824, -4.02184, 89.0317, -71.7076, 39.5258
0.488, -1, 32.1197, 48.5799, -4.07679, 89.0776, -71.5974, 39.5505
0.492, -1, 32.1406, 48.5774, -4.13167, 89.1236, -71.4873, 39.5751
0.496, -1, 32.1614, 48.575, -4.18647, 89.1694, -71.3773, 39.5996
0.5, -1, 32.1821, 48.5725, -4.2412, 89.2152, -71.2675, 39.6241
0.504, -1, 32.2028, 48.57, -4.29586, 89.261, -71.1579, 39.6486
0.508, -1, 32.2236, 48.5676, -4.35044, 89.3066, -71.0484, 39.6731
0.512, -1, 32.2442, 48.5651, -4.40495, 89.3522, -70.939, 39.6975
0.516, -1, 32.2649, 48.5626, -4.45939, 89.3978, -70.8298, 39.7219
0.52, -1, 32.2855, 48.5602, -4.51375, 89.4433, -70.7207, 39.7463
0.524, -1, 32.3061, 48.5577, -4.56805, 89.4887, -70.6118, 39.7706
0.528, -1, 32.3267, 48.5553, -4.62227, 89.5341, -70.503, 39.7949
0.532, -1, 32.3472, 48.5528, -4.67642, 89.5794, -70.3943, 39.8192
0.536, -1, 32.3677, 48.5504, -4.73049, 89.6247, -70.2858, 39.8434
0.54, -1, 32.3882, 48.5479, -4.7845, 89.6699, -70.1775, 39.8676
0.544, -1, 32.4087, 48.5455, -4.83844, 89.715, -70.0693, 39.8918
0.548, -1, 32.4291, 48.5431, -4.8923, 89.7601, -69.9612, 39.916
0.552, -1, 32.4495, 48.5406, -4.9461, 89.8051, -69.8533, 39.9401
0.556, -1, 32.4699, 48.5382, -4.99983, 89.85, -69.7455, 39.9641
0.56, -1, 32.4903, 48.5358, -5.05348, 89.8949, -69.6378, 39.9882
0.564, -1, 32.5106, 48.5334, -5.10707, 89.9398, -69.5303, 40.0122
0.568, -1, 32.5309, 48.5309, -5.16059, 89.9846, -69.4229, 40.0362
0.572, -1, 32.5512, 48.5285, -5.21404, 90.0293, -69.3157, 40.0601
0.576, -1, 32.5714, 48.5261, -5.26742, 90.074, -69.2086, 40.0841
0.58, -1, 32.5916, 48.5237, -5.32073, 90.1186, -69.1016, 40.108
0.584, -1, 32.6118, 48.5213, -5.37398, 90.1631, -68.9948, 40.1318
0.588, -1, 32.632, 48.5189, -5.42716, 90.2076, -68.8881, 40.1557
0.592, -1, 32.6522, 48.5165, -5.48026, 90.2521, -68.7816, 40.1795
0.596, -1, 32.6723, 48.5141, -5.53331, 90.2965, -68.6752, 40.2032
0.6, -1, 32.6924, 48.5117, -5.58628, 90.3408, -68.5689, 40.227
0.604, -1, 32.7125, 48.5093, -5.63919, 90.3851, -68.4627, 40.2507
0.608, -1, 32.7325, 48.5069, -5.69203, 90.4293, -68.3567, 40.2744
0.612, -1, 32.7525, 48.5045, -5.74481, 90.4734, -68.2508, 40.298
0.616, -1, 32.7725, 48.5021, -5.79752, 90.5175, -68.1451, 40.3216
0.62, -1, 32.7925, 48.4998, -5.85017, 90.5616, -68.0394, 40.3452
0.624, -1, 32.8124, 48.4974, -5.90275, 90.6056, -67.9339, 40.3688
0.628, -1, 32.8324, 48.495, -5.95526, 90.6495, -67.8286, 40.3923
0.632, -1, 32.8523, 48.4926, -6.00771, 90.6934, -67.7234, 40.4158
0.636, -1, 32.8721, 48.4903, -6.06009, 90.7373, -67.6182, 40.4393
0.64, -1, 32.892, 48.4879, -6.11241, 90.781, -67.5133, 40.4628
0.644, -1, 32.9118, 48.4856, -6.16467, 90.8248, -67.4084, 40.4862
0.648, -1, 32.9316, 48.4832, -6.21686, 90.8685, -67.3037, 40.5096
0.652, -1, 32.9514, 48.4808, -6.26899, 90.9121, -67.1991, 40.5329
0.656, -1, 32.9711, 48.4785, -6.32106, 90.9556, -67.0947, 40.5563
0.66, -1, 32.9908, 48.4761, -6.37306, 90.9991, -66.9903, 40.5796
0.664, -1, 33.0106, 48.4738, -6.425, 91.0426, -66.8861, 40.6028
0.668, -1, 33.0302, 48.4714, -6.47687, 91.086, -66.7821, 40.6261
0.672, -1, 33.0499, 48.4691, -6.52868, 91.1294, -66.6781, 40.6493
0.676, -1, 33.0695, 48.4668, -6.58043, 91.1727, -66.5743, 40.6725
0.68, -1, 33.0891, 48.4644, -6.63212, 91.2159, -66.4706, 40.6957
0.684, -1, 33.1087, 48.4621, -6.68375, 91.2591, -66.367, 40.7188
0.688, -1, 33.1283, 48.4598, -6.73531, 91.3023, -66.2635, 40.7419
0.692, -1, 33.1478, 48.4574, -6.78682, 91.3454, -66.1602, 40.765
0.696, -1, 33.1673, 48.4551, -6.83826, 91.3884, -66.057, 40.7881
0.7, -1, 33.1868, 48.4528, -6.88964, 91.4314, -65.9539, 40.8111
0.704, -1, 33.2063, 48.4505, -6.94096, 91.4744, -65.851, 40.8341
0.708, -1, 33.2257, 48.4482, -6.99222, 91.5173, -65.7481, 40.8571
0.712, -1, 33.2452, 48.4458, -7.04342, 91.5601, -65.6454, 40.88
0.716, -1, 33.2646, 48.4435, -7.09456, 91.6029, -65.5428, 40.9029
0.72, -1, 33.2839, 48.4412, -7.14564, 91.6457, -65.4403, 40.9258
0.724, -1, 33.3033, 48.4389, -7.19666, 91.6883, -65.3379, 40.9487
0.728, -1, 33.3226, 48.4366, -7.24762, 91.731, -65.2357, 40.9715
0.732, -1, 33.3419, 48.4343, -7.29852, 91.7736, -65.1336, 40.9943
0.736, -1, 33.3612, 48.432, -7.34936, 91.8161, -65.0316, 41.0171
0.74, -1, 33.3805, 48.4297, -7.40015, 91.8586, -64.9297, 41.0399
0.744, -1, 33.3997, 48.4274, -7.45087, 91.9011, -64.8279, 41.0626
0.748, -1, 33.4189, 48.4251, -7.50153, 91.9435, -64.7263, 41.0853
0.752, -1, 33.4381, 48.4228, -7.55214, 91.9858, -64.6247, 41.108
0.756, -1, 33.4573, 48.4206, -7.60269, 92.0281, -64.5233, 41.1306
0.76, -1, 33.4765, 48.4183, -7.65318, 92.0704, -64.422, 41.1533
0.764, -1, 33.4956, 48.416, -7.70362, 92.1126, -64.3208, 41.1759
0.768, -1, 33.5147, 48.4137, -7.75399, 92.1547, -64.2197, 41.1985
0.772, -1, 33.5338, 48.4115, -7.80431, 92.1968, -64.1188, 41.221
0.776, -1, 33.5529, 48.4092, -7.85457, 92.2389, -64.018, 41.2435
0.78, -1, 33.5719, 48.4069, -7.90478, 92.2809, -63.9172, 41.266
0.784, -1, 33.5909, 48.4046, -7.95493, 92.3229, -63.8166, 41.2885
0.788, -1, 33.6099, 48.4024, -8.00502, 92.3648, -63.7161, 41.311
0.792, -1, 33.6289, 48.4001, -8.05505, 92.4066, -63.6157, 41.3334
0.796, -1, 33.6479, 48.3979, -8.10503, 92.4485, -63.5154, 41.3558
0.8, -1, 33.6668, 48.3956, -8.15496, 92.4902, -63.4153, 41.3782
0.804, -1, 33.6857, 48.3934, -8.20482, 92.532, -63.3152, 41.4005
0.808, -1, 33.7046, 48.3911, -8.25464, 92.5737, -63.2153, 41.4228
0.812, -1, 33.7235, 48.3889, -8.30439, 92.6153, -63.1155, 41.4451
0.816, -1, 33.7424, 48.3866, -8.3541, 92.6569, -63.0158, 41.4674
0.82, -1, 33.7612, 48.3844, -8.40374, 92.6984, -62.9161, 41.4897
0.824, -1, 33.78, 48.3821, -8.45333, 92.7399, -62.8166, 41.5119
0.828, -1, 33.7988, 48.3799, -8.50287, 92.7814, -62.7173, 41.5341
0.832, -1, 33.8176, 48.3776, -8.55236, 92.8228, -62.618, 41.5563
0.836, -1, 33.8363, 48.3754, -8.60179, 92.8642, -62.5188, 41.5784
0.84, -1, 33.855, 48.3732, -8.65116, 92.9055, -62.4197, 41.6005
0.844, -1, 33.8738, 48.3709, -8.70049, 92.9467, -62.3208, 41.6226
0.848, -1, 33.8925, 48.3687, -8.74975, 92.988, -62.2219, 41.6447
0.852, -1, 33.9111, 48.3665, -8.79897, 93.0292, -62.1232, 41.6668
0.856, -1, 33.9298, 48.3643, -8.84813, 93.0703, -62.0246, 41.6888
0.86, -1, 33.9484, 48.3621, -8.89725, 93.1114, -61.926, 41.7108
0.864, -1, 33.967, 48.3598, -8.9463, 93.1524, -61.8276, 41.7328
0.868, -1, 33.9856, 48.3576, -8.99531, 93.1935, -61.7293, 41.7548
0.872, -1, 34.0042, 48.3554, -9.04426, 93.2344, -61.6311, 41.7767
0.876, -1, 34.0227, 48.3532, -9.09317, 93.2753, -61.5329, 41.7986
0.88, -1, 34.0413, 48.351, -9.14202, 93.3162, -61.4349, 41.8205
0.884, -1, 34.0598, 48.3488, -9.19082, 93.3571, -61.337, 41.8424
0.888, -1, 34.0783, 48.3466, -9.23956, 93.3979, -61.2392, 41.8642
0.892, -1, 34.0967, 48.3444, -9.28826, 93.4386, -61.1415, 41.8861
0.896, -1, 34.1152, 48.3422, -9.33691, 93.4793, -61.0439, 41.9079
0.9, -1, 34.1336, 48.34, -9.3855, 93.52, -60.9464, 41.9296
0.904, -1, 34.152, 48.3378, -9.43405, 93.5606, -60.849, 41.9514
0.908, -1, 34.1704, 48.3356, -9.48254, 93.6012, -60.7517, 41.9731
0.912, -1, 34.1888, 48.3334, -9.53098, 93.6417, -60.6545, 41.9948
0.916, -1, 34.2072, 48.3312, -9.57938, 93.6822, -60.5574, 42.0165
0.92, -1, 34.2255, 48.329, -9.62772, 93.7227, -60.4604, 42.0382
0.924, -1, 34.2438, 48.3269, -9.67601, 93.7631, -60.3636, 42.0598
0.928, -1, 34.2621, 48.3247, -9.72426, 93.8034, -60.2668, 42.0815
0.932, -1, 34.2804, 48.3225, -9.77246, 93.8438, -60.1701, 42.1031
0.936, -1, 34.2987, 48.3203, -9.8206, 93.8841, -60.0735, 42.1246
0.94, -1, 34.3169, 48.3182, -9.8687, 93.9243, -59.977, 42.1462
0.944, -1, 34.3351, 48.316, -9.91674, 93.9645, -59.8806, 42.1677
0.948, -1, 34.3534, 48.3138, -9.96474, 94.0047, -59.7843, 42.1892
0.952, -1, 34.3715, 48.3116, -10.0127, 94.0448, -59.6881, 42.2107
0.956, -1, 34.3897, 48.3095, -10.0606, 94.0849, -59.592, 42.2322
0.96, -1, 34.4079, 48.3073, -10.1085, 94.1249, -59.4959, 42.2536
0.964, -1, 34.426, 48.3052, -10.1563, 94.1649, -59.4, 42.2751
0.968, -1, 34.4441, 48.303, -10.204, 94.2049, -59.3042, 42.2965
0.972, -1, 34.4622, 48.3008, -10.2517, 94.2448, -59.2085, 42.3179
0.976, -1, 34.4803, 48.2987, -10.2994, 94.2847, -59.1129, 42.3392
0.98, -1, 34.4984, 48.2965, -10.347, 94.3246, -59.0173, 42.3606
0.984, -1, 34.5164, 48.2944, -10.3946, 94.3644, -58.9219, 42.3819
0.988, -1, 34.5344, 48.2922, -10.4421, 94.4041, -58.8266, 42.4032
0.992, -1, 34.5524, 48.2901, -10.4896, 94.4439, -58.7313, 42.4244
0.996, -1, 34.5704, 48.2879, -10.537, 94.4835, -58.6362, 42.4457
1, -1, 34.5884, 48.2858, -10.5844, 94.5232, -58.5411, 42.4669
1.004, -1, 34.6064, 48.2837, -10.6317, 94.5628, -58.4461, 42.4881
1.008, -1, 34.6243, 48.2815, -10.679, 94.6024, -58.3512, 42.5093
1.012, -1, 34.6422, 48.2794, -10.7262, 94.6419, -58.2565, 42.5305
1.016, -1, 34.6601, 48.2773, -10.7734, 94.6814, -58.1618, 42.5517
1.02, -1, 34.678, 48.2751, -10.8206, 94.7209, -58.0672, 42.5728
1.024, -1, 34.6959, 48.273, -10.8677, 94.7603, -57.9727, 42.5939
1.027, -1, 34.7137, 48.2709, -10.9147, 94.7996, -57.8783, 42.615
1.032, -1, 34.7316, 48.2687, -10.9618, 94.839, -57.7839, 42.6361
1.036, -1, 34.7494, 48.2666, -11.0087, 94.8783, -57.6897, 42.6571
1.04, -1, 34.7672, 48.2645, -11.0557, 94.9176, -57.5956, 42.6781
1.044, -1, 34.785, 48.2624, -11.1025, 94.9568, -57.5015, 42.6992
1.048, -1, 34.8027, 48.2603, -11.1494, 94.996, -57.4075, 42.7201
1.052, -1, 34.8205, 48.2582, -11.1962, 95.0351, -57.3137, 42.7411
1.055, -1, 34.8382, 48.256, -11.2429, 95.0742, -57.2199, 42.7621
1.06, -1, 34.8559, 48.2539, -11.2896, 95.1133, -57.1262, 42.783
1.064, -1, 34.8736, 48.2518, -11.3362, 95.1524, -57.0326, 42.8039
1.068, -1, 34.8913, 48.2497, -11.3829, 95.1914, -56.9391, 42.8248
1.072, -1, 34.909, 48.2476, -11.4294, 95.2303, -56.8456, 42.8457
1.076, -1, 34.9266, 48.2455, -11.4759, 95.2693, -56.7523, 42.8665
1.08, -1, 34.9442, 48.2434, -11.5224, 95.3082, -56.659, 42.8873
1.084, -1, 34.9618, 48.2413, -11.5689, 95.347, -56.5659, 42.9081
1.088, -1, 34.9795, 48.2392, -11.6153, 95.3858, -56.4728, 42.9289
1.091, -1, 34.997, 48.2371, -11.6616, 95.4246, -56.3798, 42.9497
1.096, -1, 35.0146, 48.235, -11.7079, 95.4634, -56.2869, 42.9705
1.1, -1, 35.0321, 48.2329, -11.7542, 95.5021, -56.1941, 42.9912
1.104, -1, 35.0497, 48.2309, -11.8004, 95.5408, -56.1014, 43.0119
1.108, -1, 35.0672, 48.2288, -11.8466, 95.5794, -56.0087, 43.0326
1.112, -1, 35.0847, 48.2267, -11.8927, 95.618, -55.9161, 43.0533
1.116, -1, 35.1022, 48.2246, -11.9388, 95.6566, -55.8237, 43.0739
1.119, -1, 35.1196, 48.2225, -11.9848, 95.6951, -55.7313, 43.0946
1.124, -1, 35.1371, 48.2204, -12.0309, 95.7336, -55.639, 43.1152
1.128, -1, 35.1545, 48.2184, -12.0768, 95.7721, -55.5468, 43.1358
1.132, -1, 35.172, 48.2163, -12.1227, 95.8105, -55.4546, 43.1564
1.136, -1, 35.1894, 48.2142, -12.1686, 95.8489, -55.3626, 43.1769
1.14, -1, 35.2067, 48.2121, -12.2145, 95.8873, -55.2706, 43.1975
1.144, -1, 35.2241, 48.2101, -12.2603, 95.9256, -55.1787, 43.218
1.147, -1, 35.2415, 48.208, -12.306, 95.9639, -55.0869, 43.2385
1.152, -1, 35.2588, 48.2059, -12.3517, 96.0021, -54.9952, 43.259
1.156, -1, 35.2761, 48.2039, -12.3974, 96.0404, -54.9035, 43.2795
1.16, -1, 35.2935, 48.2018, -12.443, 96.0785, -54.812, 43.2999
1.164, -1, 35.3108, 48.1997, -12.4886, 96.1167, -54.7205, 43.3204
1.168, -1, 35.328, 48.1977, -12.5342, 96.1548, -54.6291, 43.3408
1.172, -1, 35.3453, 48.1956, -12.5797, 96.1929, -54.5378, 43.3612
1.175, -1, 35.3625, 48.1936, -12.6252, 96.2309, -54.4466, 43.3816
1.18, -1, 35.3798, 48.1915, -12.6706, 96.269, -54.3554, 43.4019
1.184, -1, 35.397, 48.1895, -12.716, 96.3069, -54.2644, 43.4223
1.188, -1, 35.4142, 48.1874, -12.7614, 96.3449, -54.1734, 43.4426
1.192, -1, 35.4314, 48.1854, -12.8067, 96.3828, -54.0825, 43.4629
1.196, -1, 35.4486, 48.1833, -12.8519, 96.4207, -53.9916, 43.4832
1.2, -1, 35.4657, 48.1813, -12.8972, 96.4585, -53.9009, 43.5035
1.204, -1, 35.4829, 48.1792, -12.9424, 96.4964, -53.8102, 43.5237
1.208, -1, 35.5, 48.1772, -12.9875, 96.5341, -53.7196, 43.5439
1.212, -1, 35.5171, 48.1752, -13.0326, 96.5719, -53.6291, 43.5642
1.216, -1, 35.5342, 48.1731, -13.0777, 96.6096, -53.5387, 43.5844
1.22, -1, 35.5513, 48.1711, -13.1227, 96.6473, -53.4483, 43.6045
1.224, -1, 35.5684, 48.1691, -13.1677, 96.685, -53.358, 43.6247
1.228, -1, 35.5854, 48.167, -13.2127, 96.7226, -53.2678, 43.6449
1.232, -1, 35.6024, 48.165, -13.2576, 96.7602, -53.1777, 43.665
1.236, -1, 35.6193, 48.163, -13.3025, 96.7977, -53.0876, 43.6851
1.24, -1, 35.6361, 48.1611, -13.3473, 96.8352, -52.9977, 43.7052
1.244, -1, 35.6526, 48.1593, -13.3921, 96.8727, -52.9079, 43.7253
1.248, -1, 35.6687, 48.1576, -13.4368, 96.9101, -52.8182, 43.7453
1.252, -1, 35.6845, 48.1561, -13.4813, 96.9474, -52.7288, 43.7653
1.256, -1, 35.6998, 48.1549, -13.5257, 96.9846, -52.6398, 43.7852
1.26, -1, 35.7144, 48.154, -13.5697, 97.0214, -52.5514, 43.8049
1.264, -1, 35.7284, 48.1534, -13.6133, 97.058, -52.4638, 43.8245
1.267, -1, 35.7418, 48.1533, -13.6563, 97.094, -52.3775, 43.8438
1.272, -1, 35.7544, 48.1534, -13.6984, 97.1293, -52.293, 43.8627
1.276, -1, 35.7664, 48.1539, -13.7394, 97.1637, -52.2106, 43.8812
1.28, -1, 35.7778, 48.1545, -13.7789, 97.1969, -52.1312, 43.8989
1.284, -1, 35.7885, 48.1552, -13.8167, 97.2286, -52.0552, 43.9159
1.288, -1, 35.7988, 48.1559, -13.8524, 97.2586, -51.9835, 43.932
1.292, -1, 35.8086, 48.1563, -13.8858, 97.2866, -51.9165, 43.947
1.295, -1, 35.818, 48.1565, -13.9165, 97.3123, -51.8549, 43.9608
1.3, -1, 35.8271, 48.1563, -13.9443, 97.3356, -51.7991, 43.9733
1.304, -1, 35.8359, 48.1556, -13.9691, 97.3564, -51.7493, 43.9844
1.308, -1, 35.8444, 48.1544, -13.9909, 97.3746, -51.7057, 43.9941
1.312, -1, 35.8525, 48.1528, -14.0096, 97.3902, -51.6681, 44.0025
1.316, -1, 35.8603, 48.1509, -14.0254, 97.4034, -51.6365, 44.0096
1.32, -1, 35.8677, 48.1486, -14.0385, 97.4142, -51.6103, 44.0154
1.324, -1, 35.8747, 48.1461, -14.049, 97.423, -51.5893, 44.02
1.328, -1, 35.8814, 48.1434, -14.0573, 97.4298, -51.5727, 44.0237
1.332, -1, 35.8876, 48.1407, -14.0637, 97.4351, -51.56, 44.0265
1.336, -1, 35.8933, 48.1381, -14.0685, 97.439, -51.5505, 44.0286
1.34, -1, 35.8984, 48.1357, -14.072, 97.4419, -51.5436, 44.0301
1.344, 2, 35.9027, 48.1336, -14.0745, 97.4439, -51.5387, 44.0312
1.348, 2, 35.9062, 48.1319, -14.0763, 97.4453, -51.5352, 44.0319
1.352, 2, 35.9089, 48.1307, -14.0775, 97.4462, -51.5328, 44.0324
1.356, 2, 35.9109, 48.1297, -14.0783, 97.4469, -51.5312, 44.0328
1.36, 2, 35.9123, 48.1291, -14.0789, 97.4473, -51.5301, 44.033
1.364, 2, 35.9132, 48.1287, -14.0792, 97.4476, -51.5294, 44.0332
1.368, 2, 35.9138, 48.1284, -14.0795, 97.4479, -51.5289, 44.0333
1.372, 2, 35.9142, 48.1282, -14.0797, 97.448, -51.5286, 44.0334
1.376, 2, 35.9145, 48.1281, -14.0798, 97.4481, -51.5283, 44.0334
1.38, 2, 35.9147, 48.128, -14.0799, 97.4482, -51.5282, 44.0335
1.384, 2, 35.9149, 48.1279, -14.0799, 97.4482, -51.5281, 44.0335
1.388, 2, 35.9149, 48.1279, -14.0799, 97.4482, -51.528, 44.0335
1.392, 2, 35.915, 48.1278, -14.08, 97.4482, -51.5279, 44.0335
1.396, 2, 35.915, 48.1278, -14.08, 97.4483, -51.5279, 44.0335
1.4, 2, 35.9151, 48.1278, -14.08, 97.4483, -51.5279, 44.0335
1.404, 2, 35.9151, 48.1278, -14.08, 97.4483, -51.5279, 44.0335
1.408, 2, 35.9151, 48.1278, -14.08, 97.4483, -51.5279, 44.0335
1.412, 2, 35.9151, 48.1278, -14.08, 97.4483, -51.5279, 44.0335
1.416, 2, 35.9151, 48.1278, -14.08, 97.4483, -51.5279, 44.0335
1.42, 2, 35.9151, 48.1278, -14.08, 97.4483, -51.5278, 44.0335
1.424, 2, 35.9151, 48.1278, -14.08, 97.4483, -51.5278, 44.0335
1.428, 2, 35.9151, 48.1278, -14.08, 97.4483, -51.5278, 44.0335
1.432, 2, 35.9151, 48.1278, -14.08, 97.4483, -51.5278, 44.0335
1.436, 2, 35.9151, 48.1278, -14.08, 97.4483, -51.5278, 44.0335
1.44, 2, 35.9151, 48.1278, -14.08, 97.4483, -51.5278, 44.0335
1.444, 2, 35.9151, 48.1278, -14.08, 97.4483, -51.5278, 44.0335
1.448, 2, 35.9151, 48.1278, -14.08, 97.4483, -51.5278, 44.0335
1.452, 2, 35.9151, 48.1278, -14.08, 97.4483, -51.5278, 44.0335
1.456, 2, 35.9151, 48.1278, -14.08, 97.4483, -51.5278, 44.0335
1.46, 2, 35.9151, 48.1278, -14.08, 97.4483, -51.5278, 44.0335
1.464, 2, 35.9151, 48.1278, -14.08, 97.4483, -51.5278, 44.0335
1.468, 2, 35.9151, 48.1278, -14.08, 97.4483, -51.5278, 44.0335
1.472, 2, 35.9151, 48.1278, -14.08, 97.4483, -51.5278, 44.0335
1.476, 2, 35.9151, 48.1278, -14.08, 97.4483, -51.5278, 44.0335
1.48, 2, 35.9151, 48.1278, -14.08, 97.4483, -51.5278, 44.0335
1.484, 2, 35.9151, 48.1278, -14.08, 97.4483, -51.5278, 44.0335
1.488, 2, 35.9151, 48.1278, -14.08, 97.4483, -51.5278, 44.0335
1.492, 2, 35.9151, 48.1278, -14.08, 97.4483, -51.5278, 44.0335
1.496, 2, 35.9151, 48.1278, -14.08, 97.4483, -51.5278, 44.0335
1.5, 2, 35.9151, 48.1278, -14.08, 97.4483, -51.5278, 44.0335
1.504, 2, 35.9151, 48.1278, -14.08, 97.4483, -51.5278, 44.0335
1.508, 2, 35.9151, 48.1278, -14.08, 97.4483, -51.5278, 44.0335
1.512, 2, 35.9151, 48.1278, -14.08, 97.4483, -51.5278, 44.0335
1.516, 2, 35.9151, 48.1278, -14.08, 97.4483, -51.5278, 44.0335
1.52, 2, 35.9151, 48.1278, -14.08, 97.4483, -51.5278, 44.0335
1.524, 2, 35.9151, 48.1278, -14.08, 97.4483, -51.5278, 44.0335
1.528, 2, 35.9151, 48.1278, -14.08, 97.4483, -51.5278, 44.0335
1.532, 2, 35.9151, 48.1278, -14.08, 97.4483, -51.5278, 44.0335
1.536, 2, 35.9151, 48.1278, -14.08, 97.4483, -51.5278, 44.0335
1.54, 2, 35.9151, 48.1278, -14.08, 97.4483, -51.5278, 44.0335
1.544, 2, 35.9151, 48.1278, -14.08, 97.4483, -51.5278, 44.0335
1.548, 2, 35.9151, 48.1278, -14.08, 97.4483, -51.5278, 44.0335
1.552, 2, 35.9151, 48.1278, -14.08, 97.4483, -51.5278, 44.0335
1.556, 2, 35.9151, 48.1278, -14.08, 97.4483, -51.5278, 44.0335
1.56, 2, 35.9151, 48.1278, -14.08, 97.4483, -51.5278, 44.0335
1.564, 2, 35.9151, 48.1278, -14.08, 97.4483, -51.5278, 44.0335
1.568, 2, 35.9151, 48.1278, -14.08, 97.4483, -51.5278, 44.0335
1.572, 2, 35.9151, 48.1278, -14.08, 97.4483, -51.5278, 44.0335
1.576, 2, 35.9151, 48.1278, -14.08, 97.4483, -51.5278, 44.0335
1.58, 2, 35.9151, 48.1278, -14.08, 97.4483, -51.5278, 44.0335
1.584, 2, 35.9151, 48.1278, -14.08, 97.4483, -51.5278, 44.0335
1.588, 2, 35.9151, 48.1278, -14.08, 97.4483, -51.5278, 44.0335
1.592, 2, 35.9151, 48.1278, -14.08, 97.4483, -51.5278, 44.0335
1.596, 2, 35.9151, 48.1278, -14.08, 97.4483, -51.5278, 44.0335
1.6, 2, 35.9151, 48.1278, -14.08, 97.4483, -51.5278, 44.0335
1.604, 2, 35.9151, 48.1278, -14.08, 97.4483, -51.5278, 44.0335
1.608, 2, 35.9151, 48.1278, -14.08, 97.4483, -51.5278, 44.0335
1.612, 2, 35.9151, 48.1278, -14.08, 97.4483, -51.5278, 44.0335
1.616, 2, 35.9151, 48.1278, -14.08, 97.4483, -51.5278, 44.0335
1.62, 2, 35.9151, 48.1278, -14.08, 97.4483, -51.5278, 44.0335
1.624, 2, 35.9151, 48.1278, -14.08, 97.4483, -51.5278, 44.0335
1.628, 2, 35.9151, 48.1278, -14.08, 97.4483, -51.5278, 44.0335
1.632, 2, 35.9151, 48.1278, -14.08, 97.4483, -51.5278, 44.0335
1.636, 2, 35.9151, 48.1278, -14.08, 97.4483, -51.5278, 44.0335
1.64, 2, 35.9151, 48.1278, -14.08, 97.4483, -51.5278, 44.0335
1.644, 2, 35.9151, 48.1278, -14.08, 97.4483, -51.5278, 44.0335
1.648, 2, 35.9151, 48.1278, -14.08, 97.4483, -51.5278, 44.0335
1.652, 2, 35.9151, 48.1278, -14.08, 97.4483, -51.5278, 44.0335
1.656, 2, 35.9151, 48.1278, -14.08, 97.4483, -51.5278, 44.0335
1.66, 2, 35.9151, 48.1278, -14.08, 97.4483, -51.5278, 44.0335
1.664, 2, 35.9151, 48.1278, -14.08, 97.4483, -51.5278, 44.0335
1.668, 2, 35.9151, 48.1278, -14.08, 97.4483, -51.5278, 44.0335
1.672, 2, 35.9151, 48.1278, -14.08, 97.4483, -51.5278, 44.0335
1.676, 2, 35.9151, 48.1278, -14.08, 97.4483, -51.5278, 44.0335
1.68, 2, 35.9151, 48.1278, -14.08, 97.4483, -51.5278, 44.0335
1.684, 2, 35.9151, 48.1278, -14.08, 97.4483, -51.5278, 44.0335
1.688, 2, 35.9151, 48.1278, -14.08, 97.4483, -51.5278, 44.0335
1.692, 2, 35.9151, 48.1278, -14.08, 97.4483, -51.5278, 44.0335
1.696, 2, 35.9151, 48.1278, -14.08, 97.4483, -51.5278, 44.0335
1.7, 2, 35.9151, 48.1278, -14.08, 97.4483, -51.5278, 44.0335
1.704, 2, 35.9151, 48.1278, -14.08, 97.4483, -51.5278, 44.0335
1.708, 2, 35.9151, 48.1278, -14.08, 97.4483, -51.5278, 44.0335
1.712, 2, 35.9151, 48.1278, -14.08, 97.4483, -51.5278, 44.0335
1.716, 2, 35.9151, 48.1278, -14.08, 97.4483, -51.5278, 44.0335
1.72, 2, 35.9151, 48.1278, -14.08, 97.4483, -51.5278, 44.0335
1.724, 2, 35.9151, 48.1278, -14.08, 97.4483, -51.5278, 44.0335
1.728, 2, 35.9151, 48.1278, -14.08, 97.4483, -51.5278, 44.0335
1.732, 2, 35.9151, 48.1278, -14.08, 97.4483, -51.5278, 44.0335
1.736, 2, 35.9151, 48.1278, -14.08, 97.4483, -51.5278, 44.0335
1.74, 2, 35.9151, 48.1278, -14.08, 97.4483, -51.5278, 44.0335
1.744, 2, 35.9151, 48.1278, -14.08, 97.4483, -51.5278, 44.0335
1.748, 2, 35.9151, 48.1278, -14.08, 97.4483, -51.5278, 44.0335
1.752, 2, 35.9151, 48.1278, -14.08, 97.4483, -51.5278, 44.0335
1.756, 2, 35.9151, 48.1278, -14.08, 97.4483, -51.5278, 44.0335
1.76, 2, 35.9151, 48.1278, -14.08, 97.4483, -51.5278, 44.0335
1.764, 2, 35.9151, 48.1278, -14.08, 97.4483, -51.5278, 44.0335
1.768, 2, 35.9151, 48.1278, -14.08, 97.4483, -51.5278, 44.0335
1.772, 2, 35.9151, 48.1278, -14.08, 97.4483, -51.5278, 44.0335
1.776, 2, 35.9151, 48.1278, -14.08, 97.4483, -51.5278, 44.0335
1.78, 2, 35.9151, 48.1278, -14.08, 97.4483, -51.5278, 44.0335
1.784, 2, 35.9151, 48.1278, -14.08, 97.4483, -51.5278, 44.0335
1.788, 2, 35.9151, 48.1278, -14.08, 97.4483, -51.5278, 44.0335
1.792, 2, 35.9151, 48.1278, -14.08, 97.4483, -51.5278, 44.0335
1.796, 2, 35.9151, 48.1278, -14.08, 97.4483, -51.5278, 44.0335
1.8, 2, 35.9151, 48.1278, -14.08, 97.4483, -51.5278, 44.0335
1.804, 2, 35.9151, 48.1278, -14.08, 97.4483, -51.5278, 44.0335
1.808, 2, 35.9151, 48.1278, -14.08, 97.4483, -51.5278, 44.0335
1.812, 2, 35.9151, 48.1278, -14.08, 97.4483, -51.5278, 44.0335
1.816, 2, 35.9151, 48.1278, -14.08, 97.4483, -51.5278, 44.0335
1.82, 2, 35.9151, 48.1278, -14.08, 97.4483, -51.5278, 44.0335
1.824, 2, 35.9151, 48.1278, -14.08, 97.4483, -51.5278, 44.0335
1.828, 2, 35.9151, 48.1278, -14.08, 97.4483, -51.5278, 44.0335
1.832, 2, 35.9151, 48.1278, -14.08, 97.4483, -51.5278, 44.0335
1.836, 2, 35.9151, 48.1278, -14.08, 97.4483, -51.5278, 44.0335
1.84, 2, 35.9151, 48.1278, -14.08, 97.4483, -51.5278, 44.0335
1.844, 2, 35.9151, 48.1278, -14.08, 97.4483, -51.5278, 44.0335
1.848, 2, 35.9151, 48.1278, -14.08, 97.4483, -51.5278, 44.0335
1.852, 2, 35.9151, 48.1278, -14.08, 97.4483, -51.5278, 44.0335
1.856, 2, 35.9151, 48.1278, -14.08, 97.4483, -51.5278, 44.0335
1.86, 2, 35.9151, 48.1278, -14.08, 97.4483, -51.5278, 44.0335
1.864, 2, 35.9151, 48.1278, -14.08, 97.4483, -51.5278, 44.0335
1.868, 2, 35.9151, 48.1278, -14.08, 97.4483, -51.5278, 44.0335
1.872, 2, 35.9151, 48.1278, -14.08, 97.4483, -51.5278, 44.0335
1.876, 2, 35.9151, 48.1278, -14.08, 97.4483, -51.5278, 44.0335
1.88, 2, 35.9151, 48.1278, -14.08, 97.4483, -51.5278, 44.0335
1.884, 2, 35.9151, 48.1278, -14.08, 97.4483, -51.5278, 44.0335
1.888, 2, 35.9151, 48.1278, -14.08, 97.4483, -51.5278, 44.0335
1.892, 2, 35.9151, 48.1278, -14.08, 97.4483, -51.5278, 44.0335
1.896, 2, 35.9151, 48.1278, -14.08, 97.4483, -51.5278, 44.0335
1.9, 2, 35.9151, 48.1278, -14.08, 97.4483, -51.5278, 44.0335
1.904, 2, 35.9151, 48.1278, -14.08, 97.4483, -51.5278, 44.0335
1.908, 2, 35.9151, 48.1278, -14.08, 97.4483, -51.5278, 44.0335
1.912, 2, 35.9151, 48.1278, -14.08, 97.4483, -51.5278, 44.0335
1.916, 2, 35.9151, 48.1278, -14.08, 97.4483, -51.5278, 44.0335
1.92, 2, 35.9151, 48.1278, -14.08, 97.4483, -51.5278, 44.0335
1.924, 2, 35.9151, 48.1278, -14.08, 97.4483, -51.5278, 44.0335
1.928, 2, 35.9151, 48.1278, -14.08, 97.4483, -51.5278, 44.0335
1.932, 2, 35.9151, 48.1278, -14.08, 97.4483, -51.5278, 44.0335
1.936, 2, 35.9151, 48.1278, -14.08, 97.4483, -51.5278, 44.0335
1.94, 2, 35.9151, 48.1278, -14.08, 97.4483, -51.5278, 44.0335
1.944, 2, 35.9151, 48.1278, -14.08, 97.4483, -51.5278, 44.0335
1.948, 2, 35.9151, 48.1278, -14.08, 97.4483, -51.5278, 44.0335
1.952, 2, 35.9151, 48.1278, -14.08, 97.4483, -51.5278, 44.0335
1.956, 2, 35.9151, 48.1278, -14.08, 97.4483, -51.5278, 44.0335
1.96, 2, 35.9151, 48.1278, -14.08, 97.4483, -51.5278, 44.0335
1.964, 2, 35.9151, 48.1278, -14.08, 97.4483, -51.5278, 44.0335
1.968, 2, 35.9151, 48.1278, -14.08, 97.4483, -51.5278, 44.0335
1.972, 2, 35.9151, 48.1278, -14.08, 97.4483, -51.5278, 44.0335
1.976, 2, 35.9151, 48.1278, -14.08, 97.4483, -51.5278, 44.0335
1.98, 2, 35.9151, 48.1278, -14.08, 97.4483, -51.5278, 44.0335
1.984, 2, 35.9151, 48.1278, -14.08, 97.4483, -51.5278, 44.0335
1.988, 2, 35.9151, 48.1278, -14.08, 97.4483, -51.5278, 44.0335
1.992, 2, 35.9151, 48.1278, -14.08, 97.4483, -51.5278, 44.0335
1.996, 2, 35.9151, 48.1278, -14.08, 97.4483, -51.5278, 44.0335
1.999, 2, 35.9151, 48.1278, -14.08, 97.4483, -51.5278, 44.0335
2.004, 2, 35.9151, 48.1278, -14.08, 97.4483, -51.5278, 44.0335
2.008, 2, 35.9151, 48.1278, -14.08, 97.4483, -51.5278, 44.0335
2.012, 2, 35.9151, 48.1278, -14.08, 97.4483, -51.5278, 44.0335
2.015, 2, 35.9151, 48.1278, -14.08, 97.4483, -51.5278, 44.0335
2.019, 2, 35.9151, 48.1278, -14.08, 97.4483, -51.5278, 44.0335
2.024, 2, 35.9151, 48.1278, -14.08, 97.4483, -51.5278, 44.0335
2.028, 2, 35.9151, 48.1278, -14.08, 97.4483, -51.5278, 44.0335
2.031, 2, 35.9151, 48.1278, -14.08, 97.4483, -51.5278, 44.0335
2.036, 2, 35.9151, 48.1278, -14.08, 97.4483, -51.5278, 44.0335
2.04, 2, 35.9151, 48.1278, -14.08, 97.4483, -51.5278, 44.0335
2.044, 2, 35.9151, 48.1278, -14.08, 97.4483, -51.5278, 44.0335
2.048, 2, 35.9151, 48.1278, -14.08, 97.4483, -51.5278, 44.0335
2.051, 2, 35.9151, 48.1278, -14.08, 97.4483, -51.5278, 44.0335
2.055, 2, 35.9151, 48.1278, -14.08, 97.4483, -51.5278, 44.0335
2.06, 2, 35.9151, 48.1278, -14.08, 97.4483, -51.5278, 44.0335
2.064, 2, 35.9151, 48.1278, -14.08, 97.4483, -51.5278, 44.0335
2.068, 2, 35.9151, 48.1278, -14.08, 97.4483, -51.5278, 44.0335
2.071, 2, 35.9151, 48.1278, -14.08, 97.4483, -51.5278, 44.0335
2.076, 2, 35.9151, 48.1278, -14.08, 97.4483, -51.5278, 44.0335
2.08, 2, 35.9151, 48.1278, -14.08, 97.4483, -51.5278, 44.0335
2.084, 2, 35.9151, 48.1278, -14.08, 97.4483, -51.5278, 44.0335
2.087, 2, 35.9151, 48.1278, -14.08, 97.4483, -51.5278, 44.0335
2.092, 2, 35.9151, 48.1278, -14.08, 97.4483, -51.5278, 44.0335
2.096, 2, 35.9151, 48.1278, -14.08, 97.4483, -51.5278, 44.0335
2.1, 2, 35.9151, 48.1278, -14.08, 97.4483, -51.5278, 44.0335
2.104, 2, 35.9151, 48.1278, -14.08, 97.4483, -51.5278, 44.0335
2.107, 2, 35.9151, 48.1278, -14.08, 97.4483, -51.5278, 44.0335
2.111, 2, 35.9151, 48.1278, -14.08, 97.4483, -51.5278, 44.0335
2.116, 2, 35.9151, 48.1278, -14.08, 97.4483, -51.5278, 44.0335
2.12, 2, 35.9151, 48.1278, -14.08, 97.4483, -51.5278, 44.0335
2.124, 2, 35.9151, 48.1278, -14.08, 97.4483, -51.5278, 44.0335
2.127, 2, 35.9151, 48.1278, -14.08, 97.4483, -51.5278, 44.0335
2.132, 2, 35.9151, 48.1278, -14.08, 97.4483, -51.5278, 44.0335
2.136, 2, 35.9151, 48.1278, -14.08, 97.4483, -51.5278, 44.0335
2.14, 2, 35.9151, 48.1278, -14.08, 97.4483, -51.5278, 44.0335
2.143, 2, 35.9151, 48.1278, -14.08, 97.4483, -51.5278, 44.0335
2.148, 2, 35.9151, 48.1278, -14.08, 97.4483, -51.5278, 44.0335
2.152, 2, 35.9151, 48.1278, -14.08, 97.4483, -51.5278, 44.0335
2.156, 2, 35.9151, 48.1278, -14.08, 97.4483, -51.5278, 44.0335
2.16, 2, 35.9151, 48.1278, -14.08, 97.4483, -51.5278, 44.0335
2.163, 2, 35.9151, 48.1278, -14.08, 97.4483, -51.5278, 44.0335
2.168, 2, 35.9151, 48.1278, -14.08, 97.4483, -51.5278, 44.0335
2.172, 2, 35.9151, 48.1278, -14.08, 97.4483, -51.5278, 44.0335
2.176, 2, 35.9151, 48.1278, -14.08, 97.4483, -51.5278, 44.0335
2.179, 2, 35.9151, 48.1278, -14.08, 97.4483, -51.5278, 44.0335
2.184, 2, 35.9151, 48.1278, -14.08, 97.4483, -51.5278, 44.0335
2.188, 2, 35.9151, 48.1278, -14.08, 97.4483, -51.5278, 44.0335
2.192, 2, 35.9151, 48.1278, -14.08, 97.4483, -51.5278, 44.0335
2.196, 2, 35.9151, 48.1278, -14.08, 97.4483, -51.5278, 44.0335
2.199, 2, 35.9151, 48.1278, -14.08, 97.4483, -51.5278, 44.0335
2.204, 2, 35.9151, 48.1278, -14.08, 97.4483, -51.5278, 44.0335
2.208, 2, 35.9151, 48.1278, -14.08, 97.4483, -51.5278, 44.0335
2.212, 2, 35.9151, 48.1278, -14.08, 97.4483, -51.5278, 44.0335
2.216, 2, 35.9151, 48.1278, -14.08, 97.4483, -51.5278, 44.0335
2.219, 2, 35.9151, 48.1278, -14.08, 97.4483, -51.5278, 44.0335
2.224, 2, 35.9151, 48.1278, -14.08, 97.4483, -51.5278, 44.0335
2.228, 2, 35.9151, 48.1278, -14.08, 97.4483, -51.5278, 44.0335
2.232, 2, 35.9151, 48.1278, -14.08, 97.4483, -51.5278, 44.0335
2.235, 2, 35.9151, 48.1278, -14.08, 97.4483, -51.5278, 44.0335
2.24, 2, 35.9151, 48.1278, -14.08, 97.4483, -51.5278, 44.0335
2.244, 2, 35.9151, 48.1278, -14.08, 97.4483, -51.5278, 44.0335
2.248, 2, 35.9151, 48.1278, -14.08, 97.4483, -51.5278, 44.0335
2.252, 2, 35.9151, 48.1278, -14.08, 97.4483, -51.5278, 44.0335
2.255, 2, 35.9151, 48.1278, -14.08, 97.4483, -51.5278, 44.0335
2.259, 2, 35.9151, 48.1278, -14.08, 97.4483, -51.5278, 44.0335
2.264, 2, 35.9151, 48.1278, -14.08, 97.4483, -51.5278, 44.0335
2.268, 2, 35.9151, 48.1278, -14.08, 97.4483, -51.5278, 44.0335
2.272, 2, 35.9151, 48.1278, -14.08, 97.4483, -51.5278, 44.0335
2.275, 2, 35.9151, 48.1278, -14.08, 97.4483, -51.5278, 44.0335
2.28, 2, 35.9151, 48.1278, -14.08, 97.4483, -51.5278, 44.0335
2.284, 2, 35.9151, 48.1278, -14.08, 97.4483, -51.5278, 44.0335
2.288, 2, 35.9151, 48.1278, -14.08, 97.4483, -51.5278, 44.0335
2.291, 2, 35.9151, 48.1278, -14.08, 97.4483, -51.5278, 44.0335
2.296, 2, 35.9151, 48.1278, -14.08, 97.4483, -51.5278, 44.0335
2.3, 2, 35.9151, 48.1278, -14.08, 97.4483, -51.5278, 44.0335
2.304, 2, 35.9151, 48.1278, -14.08, 97.4483, -51.5278, 44.0335
2.308, 2, 35.9151, 48.1278, -14.08, 97.4483, -51.5278, 44.0335
2.311, 2, 35.9151, 48.1278, -14.08, 97.4483, -51.5278, 44.0335
2.316, 2, 35.9151, 48.1278, -14.08, 97.4483, -51.5278, 44.0335
2.32, 2, 35.9151, 48.1278, -14.08, 97.4483, -51.5278, 44.0335
2.324, 2, 35.9151, 48.1278, -14.08, 97.4483, -51.5278, 44.0335
2.328, 2, 35.9151, 48.1278, -14.08, 97.4483, -51.5278, 44.0335
2.331, 2, 35.9151, 48.1278, -14.08, 97.4483, -51.5278, 44.0335
2.336, 2, 35.9151, 48.1278, -14.08, 97.4483, -51.5278, 44.0335
2.34, 2, 35.9151, 48.1278, -14.08, 97.4483, -51.5278, 44.0335
2.344, 2, 35.9151, 48.1278, -14.08, 97.4483, -51.5278, 44.0335
2.347, 2, 35.9151, 48.1278, -14.08, 97.4483, -51.5278, 44.0335
2.352, 2, 35.9151, 48.1278, -14.08, 97.4483, -51.5278, 44.0335
2.356, 2, 35.9151, 48.1278, -14.08, 97.4483, -51.5278, 44.0335
2.36, 2, 35.9151, 48.1278, -14.08, 97.4483, -51.5278, 44.0335
2.364, 2, 35.9151, 48.1278, -14.08, 97.4483, -51.5278, 44.0335
2.367, 2, 35.9151, 48.1278, -14.08, 97.4483, -51.5278, 44.0335
2.372, 2, 35.9151, 48.1278, -14.08, 97.4483, -51.5278, 44.0335
2.376, 2, 35.9151, 48.1278, -14.08, 97.4483, -51.5278, 44.0335
2.38, 2, 35.9151, 48.1278, -14.08, 97.4483, -51.5278, 44.0335
2.383, 2, 35.9151, 48.1278, -14.08, 97.4483, -51.5278, 44.0335
2.388, 2, 35.9151, 48.1278, -14.08, 97.4483, -51.5278, 44.0335
2.392, 2, 35.9151, 48.1278, -14.08, 97.4483, -51.5278, 44.0335
2.396, 2, 35.9151, 48.1278, -14.08, 97.4483, -51.5278, 44.0335
2.4, 4, 35.9151, 48.1278, -14.08, 97.4483, -51.5278, 44.0335
2.403, 4, 35.9151, 48.1278, -14.08, 97.4483, -51.5278, 44.0335
2.408, 4, 35.9151, 48.1278, -14.08, 97.4483, -51.5278, 44.0335
2.412, 4, 35.9151, 48.1278, -14.08, 97.4483, -51.5278, 44.0335
2.416, 4, 35.9151, 48.1278, -14.08, 97.4483, -51.5278, 44.0335
2.42, 4, 35.9151, 48.1278, -14.08, 97.4483, -51.5278, 44.0335
2.423, 4, 35.9151, 48.1278, -14.08, 97.4483, -51.5278, 44.0335
2.428, 4, 35.9151, 48.1278, -14.08, 97.4483, -51.5278, 44.0335
2.432, 4, 35.9151, 48.1278, -14.08, 97.4483, -51.5278, 44.0335
2.436, 4, 35.9151, 48.1278, -14.08, 97.4483, -51.5278, 44.0335
2.439, 4, 35.9151, 48.1278, -14.08, 97.4483, -51.5278, 44.0335
2.444, 4, 35.9151, 48.1278, -14.08, 97.4483, -51.5278, 44.0335
2.448, 4, 35.9151, 48.1278, -14.08, 97.4483, -51.5278, 44.0335
2.452, 4, 35.9151, 48.1278, -14.08, 97.4483, -51.5278, 44.0335
2.456, 4, 35.9151, 48.1278, -14.08, 97.4483, -51.5278, 44.0335
2.459, 4, 35.9151, 48.1278, -14.08, 97.4483, -51.5278, 44.0335
2.464, 4, 35.9151, 48.1278, -14.08, 97.4483, -51.5278, 44.0335
2.468, 4, 35.9151, 48.1278, -14.08, 97.4483, -51.5278, 44.0335
2.472, 4, 35.9151, 48.1278, -14.08, 97.4483, -51.5278, 44.0335
2.476, 4, 35.9151, 48.1278, -14.08, 97.4483, -51.5278, 44.0335
2.479, 4, 35.9151, 48.1278, -14.08, 97.4483, -51.5278, 44.0335
2.484, 4, 35.9151, 48.1278, -14.08, 97.4483, -51.5278, 44.0335
2.488, 4, 35.9151, 48.1278, -14.08, 97.4483, -51.5278, 44.0335
2.492, 4, 35.9151, 48.1278, -14.08, 97.4483, -51.5278, 44.0335
2.495, 4, 35.9151, 48.1278, -14.08, 97.4483, -51.5278, 44.0335
2.5, 4, 35.9151, 48.1278, -14.08, 97.4483, -51.5278, 44.0335
2.506, 4, 35.9151, 48.1278, -14.08, 97.4483, -51.5278, 44.0335
2.508, 4, 35.9151, 48.1278, -14.08, 97.4483, -51.5278, 44.0335
2.512, 4, 35.9151, 48.1278, -14.08, 97.4483, -51.5278, 44.0335
2.515, 4, 35.9151, 48.1278, -14.08, 97.4483, -51.5278, 44.0335
2.52, 4, 35.9151, 48.1278, -14.08, 97.4483, -51.5278, 44.0335
2.524, 4, 35.9151, 48.1278, -14.08, 97.4483, -51.5278, 44.0335
2.528, 4, 35.9151, 48.1278, -14.08, 97.4483, -51.5278, 44.0335
2.531, 4, 35.9151, 48.1278, -14.08, 97.4483, -51.5278, 44.0335
2.536, 4, 35.9151, 48.1278, -14.08, 97.4483, -51.5278, 44.0335
2.54, 4, 35.9151, 48.128, -14.08, 97.4483, -51.5279, 44.0335
2.544, 4, 35.9149, 48.1283, -14.08, 97.4483, -51.5279, 44.0335
2.548, 4, 35.9147, 48.1291, -14.0801, 97.4483, -51.528, 44.0334
2.551, 4, 35.9142, 48.1303, -14.0802, 97.4483, -51.5284, 44.0332
2.556, 4, 35.9136, 48.1322, -14.0803, 97.4483, -51.5291, 44.0328
2.56, 4, 35.9128, 48.1348, -14.0805, 97.4484, -51.5305, 44.0319
2.564, 4, 35.9117, 48.1382, -14.0809, 97.4484, -51.5328, 44.0305
2.568, 4, 35.9105, 48.1424, -14.0814, 97.4485, -51.5366, 44.0282
2.571, 5, 35.9092, 48.1474, -14.0821, 97.4487, -51.5422, 44.0248
2.576, 5, 35.9077, 48.1534, -14.0832, 97.4489, -51.5503, 44.0198
2.58, 5, 35.9061, 48.1605, -14.0846, 97.4491, -51.5614, 44.013
2.584, 5, 35.9045, 48.1688, -14.0864, 97.4494, -51.5762, 44.004
2.587, 5, 35.9028, 48.1782, -14.0887, 97.4499, -51.5953, 43.9924
2.592, 5, 35.9011, 48.1888, -14.0915, 97.4503, -51.6192, 43.9778
2.596, 5, 35.8995, 48.2004, -14.0949, 97.4509, -51.6486, 43.96
2.6, 5, 35.8979, 48.2131, -14.0989, 97.4516, -51.6837, 43.9386
2.604, 5, 35.8964, 48.2266, -14.1035, 97.4523, -51.7249, 43.9136
2.607, 5, 35.895, 48.241, -14.1088, 97.4531, -51.7723, 43.8848
2.612, 5, 35.8937, 48.2565, -14.1148, 97.454, -51.8258, 43.8524
2.616, 5, 35.8925, 48.273, -14.1213, 97.4549, -51.8853, 43.8164
2.62, 5, 35.8912, 48.2906, -14.1284, 97.4559, -51.9503, 43.777
2.624, 5, 35.8899, 48.3095, -14.1361, 97.4568, -52.0204, 43.7347
2.627, 5, 35.8886, 48.3294, -14.1441, 97.4578, -52.0951, 43.6896
2.632, 5, 35.8873, 48.3504, -14.1526, 97.4587, -52.1739, 43.6421
2.636, 5, 35.8859, 48.3725, -14.1614, 97.4596, -52.256, 43.5927
2.64, 5, 35.8843, 48.3955, -14.1705, 97.4604, -52.341, 43.5416
2.643, 5, 35.8827, 48.4194, -14.1798, 97.4612, -52.4282, 43.4892
2.648, 5, 35.8808, 48.4442, -14.1892, 97.4619, -52.5172, 43.4359
2.652, 5, 35.8787, 48.4699, -14.1987, 97.4624, -52.6074, 43.3819
2.656, 5, 35.8764, 48.4964, -14.2082, 97.4629, -52.6986, 43.3275
2.66, 5, 35.8739, 48.5236, -14.2178, 97.4632, -52.7904, 43.2728
2.663, 5, 35.8712, 48.5512, -14.2273, 97.4635, -52.8827, 43.2179
2.668, 5, 35.8683, 48.5791, -14.2368, 97.4636, -52.9752, 43.1629
2.672, 5, 35.8654, 48.6073, -14.2463, 97.4636, -53.0679, 43.1079
2.676, 5, 35.8624, 48.6356, -14.2557, 97.4634, -53.1608, 43.053
2.679, 5, 35.8593, 48.664, -14.265, 97.4632, -53.2537, 42.9981
2.684, 5, 35.8562, 48.6924, -14.2743, 97.4627, -53.3466, 42.9432
2.688, 5, 35.8531, 48.7208, -14.2835, 97.4622, -53.4397, 42.8885
2.692, 5, 35.8498, 48.7492, -14.2926, 97.4616, -53.5327, 42.8339
2.696, 5, 35.8466, 48.7776, -14.3017, 97.4608, -53.6257, 42.7793
2.699, 5, 35.8433, 48.8059, -14.3107, 97.4599, -53.7187, 42.7248
2.704, 5, 35.84, 48.8343, -14.3196, 97.4589, -53.8117, 42.6705
2.708, 5, 35.8367, 48.8626, -14.3284, 97.4577, -53.9047, 42.6162
2.712, 5, 35.8333, 48.8908, -14.3371, 97.4564, -53.9977, 42.5621
2.716, 5, 35.8299, 48.919, -14.3458, 97.455, -54.0907, 42.5081
2.719, 5, 35.8265, 48.9472, -14.3543, 97.4535, -54.1836, 42.4541
2.724, 5, 35.823, 48.9753, -14.3628, 97.4518, -54.2766, 42.4003
2.728, 5, 35.8196, 49.0034, -14.3713, 97.4501, -54.3695, 42.3466
2.732, 5, 35.816, 49.0314, -14.3796, 97.4482, -54.4624, 42.2929
2.735, 5, 35.8125, 49.0594, -14.3879, 97.4462, -54.5553, 42.2394
2.74, 5, 35.8089, 49.0873, -14.396, 97.444, -54.6482, 42.186
2.744, 5, 35.8053, 49.1152, -14.4041, 97.4418, -54.741, 42.1327
2.748, 5, 35.8017, 49.1431, -14.4122, 97.4394, -54.8339, 42.0794
2.752, 5, 35.798, 49.1709, -14.4201, 97.4369, -54.9267, 42.0263
2.755, 5, 35.7943, 49.1986, -14.428, 97.4343, -55.0195, 41.9733
2.76, 5, 35.7906, 49.2263, -14.4357, 97.4315, -55.1123, 41.9204
2.764, 5, 35.7869, 49.254, -14.4434, 97.4287, -55.2051, 41.8675
2.768, 5, 35.7831, 49.2816, -14.4511, 97.4257, -55.2979, 41.8148
2.772, 5, 35.7793, 49.3091, -14.4586, 97.4227, -55.3906, 41.7622
2.775, 5, 35.7754, 49.3367, -14.4661, 97.4195, -55.4834, 41.7097
2.78, 5, 35.7716, 49.3641, -14.4734, 97.4162, -55.5761, 41.6572
2.784, 5, 35.7677, 49.3916, -14.4807, 97.4127, -55.6688, 41.6049
2.788, 5, 35.7637, 49.4189, -14.488, 97.4092, -55.7615, 41.5526
2.791, 5, 35.7598, 49.4463, -14.4951, 97.4055, -55.8542, 41.5005
2.796, 5, 35.7558, 49.4735, -14.5022, 97.4018, -55.9468, 41.4484
2.8, 5, 35.7518, 49.5008, -14.5091, 97.3979, -56.0394, 41.3964
2.804, 5, 35.7477, 49.528, -14.516, 97.3939, -56.1321, 41.3446
2.808, 5, 35.7437, 49.5551, -14.5229, 97.3898, -56.2247, 41.2928
2.811, 5, 35.7396, 49.5822, -14.5296, 97.3856, -56.3173, 41.2411
2.816, 5, 35.7354, 49.6092, -14.5363, 97.3813, -56.4098, 41.1895
2.82, 5, 35.7313, 49.6362, -14.5428, 97.3769, -56.5024, 41.138
2.824, 5, 35.7271, 49.6632, -14.5493, 97.3723, -56.5949, 41.0865
2.828, 5, 35.7229, 49.6901, -14.5557, 97.3677, -56.6874, 41.0352
2.831, 5, 35.7186, 49.7169, -14.5621, 97.3629, -56.7799, 40.984
2.836, 5, 35.7144, 49.7437, -14.5683, 97.3581, -56.8724, 40.9328
2.84, 5, 35.7101, 49.7705, -14.5745, 97.3531, -56.9649, 40.8817
2.844, 5, 35.7057, 49.7972, -14.5806, 97.348, -57.0574, 40.8307
2.847, 5, 35.7014, 49.8238, -14.5866, 97.3428, -57.1498, 40.7799
2.852, 5, 35.697, 49.8504, -14.5926, 97.3375, -57.2422, 40.729
2.856, 5, 35.6926, 49.877, -14.5984, 97.3321, -57.3346, 40.6783
2.86, 5, 35.6881, 49.9035, -14.6042, 97.3266, -57.427, 40.6277
2.864, 5, 35.6837, 49.9299, -14.6099, 97.321, -57.5194, 40.5771
2.867, 5, 35.6791, 49.9564, -14.6155, 97.3153, -57.6117, 40.5267
2.872, 5, 35.6746, 49.9827, -14.621, 97.3095, -57.7041, 40.4763
2.876, 5, 35.6701, 50.009, -14.6265, 97.3036, -57.7964, 40.426
2.88, 5, 35.6655, 50.0353, -14.6319, 97.2976, -57.8887, 40.3757
2.883, 5, 35.6609, 50.0615, -14.6372, 97.2915, -57.981, 40.3256
2.888, 5, 35.6562, 50.0877, -14.6424, 97.2852, -58.0733, 40.2756
2.892, 5, 35.6515, 50.1138, -14.6475, 97.2789, -58.1655, 40.2256
2.896, 5, 35.6468, 50.1399, -14.6525, 97.2725, -58.2578, 40.1757
2.9, 5, 35.6421, 50.1659, -14.6575, 97.2659, -58.35, 40.1259
2.903, 5, 35.6373, 50.1918, -14.6624, 97.2593, -58.4422, 40.0761
2.908, 5, 35.6326, 50.2178, -14.6672, 97.2526, -58.5344, 40.0265
2.912, 5, 35.6277, 50.2436, -14.6719, 97.2458, -58.6265, 39.9769
2.918, 5, 35.618, 50.2952, -14.6811, 97.2318, -58.8108, 39.878
2.92, 5, 35.618, 50.2952, -14.6811, 97.2318, -58.8108, 39.878
2.923, 5, 35.6131, 50.3209, -14.6856, 97.2247, -58.903, 39.8286
2.928, 5, 35.6082, 50.3466, -14.69, 97.2175, -58.9951, 39.7794
2.932, 5, 35.6032, 50.3722, -14.6943, 97.2102, -59.0871, 39.7302
2.936, 5, 35.5983, 50.3978, -14.6986, 97.2028, -59.1792, 39.6811
2.939, 5, 35.5933, 50.4233, -14.7027, 97.1952, -59.2713, 39.632
2.944, 5, 35.5882, 50.4487, -14.7068, 97.1876, -59.3633, 39.5831
2.948, 5, 35.5831, 50.4742, -14.7108, 97.1799, -59.4553, 39.5342
2.952, 5, 35.578, 50.4995, -14.7147, 97.1721, -59.5473, 39.4854
2.956, 5, 35.5729, 50.5248, -14.7186, 97.1643, -59.6393, 39.4366
2.959, 5, 35.5678, 50.5501, -14.7223, 97.1563, -59.7313, 39.3879
2.964, 5, 35.5626, 50.5753, -14.726, 97.1482, -59.8232, 39.3393
2.968, 5, 35.5574, 50.6004, -14.7296, 97.14, -59.9151, 39.2908
2.972, 5, 35.5521, 50.6256, -14.7331, 97.1318, -60.0071, 39.2424
2.976, 5, 35.5469, 50.6506, -14.7365, 97.1234, -60.099, 39.194
2.98, 5, 35.5416, 50.6756, -14.7399, 97.115, -60.1908, 39.1457
2.984, 5, 35.5363, 50.7006, -14.7431, 97.1064, -60.2827, 39.0975
2.988, 5, 35.5309, 50.7255, -14.7463, 97.0978, -60.3745, 39.0493
2.992, 5, 35.5255, 50.7503, -14.7494, 97.0891, -60.4664, 39.0012
2.995, 5, 35.5201, 50.7751, -14.7524, 97.0802, -60.5582, 38.9532
3, 5, 35.5147, 50.7999, -14.7554, 97.0713, -60.65, 38.9052
3.004, 5, 35.5092, 50.8245, -14.7582, 97.0623, -60.7418, 38.8573
3.008, 5, 35.5037, 50.8492, -14.761, 97.0533, -60.8335, 38.8095
3.012, 5, 35.4982, 50.8738, -14.7637, 97.0441, -60.9253, 38.7617
3.015, 5, 35.4927, 50.8983, -14.7663, 97.0348, -61.017, 38.714
3.02, 5, 35.4871, 50.9228, -14.7689, 97.0255, -61.1087, 38.6664
3.024, 5, 35.4815, 50.9472, -14.7713, 97.016, -61.2004, 38.6189
3.028, 5, 35.4759, 50.9716, -14.7737, 97.0065, -61.2921, 38.5714
3.031, 5, 35.4702, 50.9959, -14.7759, 96.9969, -61.3837, 38.524
3.036, 5, 35.4645, 51.0202, -14.7781, 96.9872, -61.4754, 38.4766
3.04, 5, 35.4588, 51.0444, -14.7803, 96.9774, -61.567, 38.4293
3.044, 5, 35.4531, 51.0686, -14.7823, 96.9675, -61.6586, 38.3821
3.048, 5, 35.4473, 51.0927, -14.7843, 96.9576, -61.7502, 38.3349
3.051, 5, 35.4415, 51.1168, -14.7861, 96.9475, -61.8417, 38.2878
3.056, 5, 35.4357, 51.1408, -14.7879, 96.9374, -61.9333, 38.2408
3.06, 5, 35.4298, 51.1647, -14.7896, 96.9272, -62.0248, 38.1938
3.064, 5, 35.424, 51.1886, -14.7913, 96.9169, -62.1163, 38.1469
3.068, 5, 35.4181, 51.2125, -14.7928, 96.9065, -62.2078, 38.1
3.071, 5, 35.4121, 51.2363, -14.7943, 96.896, -62.2993, 38.0532
3.076, 5, 35.4062, 51.26, -14.7956, 96.8855, -62.3908, 38.0065
3.08, 5, 35.4002, 51.2837, -14.7969, 96.8748, -62.4822, 37.9599
3.084, 5, 35.3941, 51.3073, -14.7981, 96.8641, -62.5737, 37.9132
3.087, 5, 35.3881, 51.3309, -14.7993, 96.8533, -62.6651, 37.8667
3.092, 5, 35.382, 51.3544, -14.8003, 96.8424, -62.7565, 37.8202
3.096, 5, 35.3759, 51.3779, -14.8013, 96.8315, -62.8478, 37.7738
3.1, 5, 35.3698, 51.4013, -14.8022, 96.8204, -62.9392, 37.7274
3.104, 5, 35.3636, 51.4247, -14.8029, 96.8093, -63.0305, 37.6811
3.107, 5, 35.3575, 51.448, -14.8037, 96.7981, -63.1218, 37.6348
3.112, 5, 35.3512, 51.4713, -14.8043, 96.7868, -63.2131, 37.5887
3.116, 5, 35.345, 51.4945, -14.8048, 96.7754, -63.3044, 37.5425
3.12, 5, 35.3387, 51.5176, -14.8053, 96.764, -63.3957, 37.4964
3.124, 5, 35.3324, 51.5407, -14.8057, 96.7525, -63.4869, 37.4504
3.128, 5, 35.3261, 51.5637, -14.806, 96.7409, -63.5782, 37.4044
3.132, 5, 35.3198, 51.5867, -14.8062, 96.7292, -63.6694, 37.3585
3.136, 5, 35.3134, 51.6096, -14.8063, 96.7174, -63.7606, 37.3127
3.14, 5, 35.307, 51.6325, -14.8064, 96.7056, -63.8518, 37.2669
3.143, 5, 35.3006, 51.6553, -14.8063, 96.6936, -63.9429, 37.2211
3.148, 5, 35.2941, 51.6781, -14.8062, 96.6816, -64.0341, 37.1754
3.152, 5, 35.2876, 51.7008, -14.806, 96.6696, -64.1252, 37.1298
3.156, 5, 35.2811, 51.7234, -14.8057, 96.6574, -64.2163, 37.0842
3.16, 5, 35.2746, 51.746, -14.8053, 96.6452, -64.3074, 37.0387
3.163, 5, 35.268, 51.7686, -14.8049, 96.6329, -64.3985, 36.9932
3.168, 5, 35.2614, 51.7911, -14.8044, 96.6205, -64.4896, 36.9477
3.172, 5, 35.2548, 51.8135, -14.8037, 96.608, -64.5806, 36.9024
3.176, 5, 35.2481, 51.8359, -14.803, 96.5955, -64.6717, 36.857
3.179, 5, 35.2414, 51.8582, -14.8022, 96.5829, -64.7627, 36.8118
3.184, 5, 35.2347, 51.8804, -14.8014, 96.5702, -64.8537, 36.7665
3.188, 5, 35.228, 51.9027, -14.8004, 96.5574, -64.9447, 36.7214
3.192, 5, 35.2212, 51.9248, -14.7994, 96.5446, -65.0356, 36.6762
3.196, 5, 35.2145, 51.9469, -14.7983, 96.5317, -65.1266, 36.6312
3.199, 5, 35.2076, 51.9689, -14.7971, 96.5187, -65.2175, 36.5861
3.204, 5, 35.2008, 51.9909, -14.7958, 96.5057, -65.3084, 36.5412
3.208, 5, 35.1939, 52.0129, -14.7944, 96.4925, -65.3993, 36.4962
3.212, 5, 35.187, 52.0347, -14.793, 96.4793, -65.4902, 36.4514
3.216, 5, 35.1801, 52.0566, -14.7914, 96.466, -65.5811, 36.4065
3.22, 5, 35.1732, 52.0783, -14.7898, 96.4527, -65.6719, 36.3617
3.224, 5, 35.1662, 52.1, -14.7881, 96.4393, -65.7628, 36.317
3.228, 5, 35.1592, 52.1217, -14.7864, 96.4258, -65.8536, 36.2723
3.232, 5, 35.1522, 52.1433, -14.7845, 96.4122, -65.9444, 36.2277
3.235, 5, 35.1451, 52.1648, -14.7825, 96.3985, -66.0352, 36.1831
3.24, 5, 35.138, 52.1863, -14.7805, 96.3848, -66.126, 36.1385
3.244, 5, 35.1309, 52.2077, -14.7784, 96.371, -66.2167, 36.094
3.248, 5, 35.1238, 52.2291, -14.7762, 96.3572, -66.3075, 36.0496
3.252, 5, 35.1166, 52.2504, -14.7739, 96.3432, -66.3982, 36.0052
3.255, 5, 35.1094, 52.2717, -14.7716, 96.3292, -66.4889, 35.9608
3.26, 5, 35.1022, 52.2929, -14.7691, 96.3152, -66.5796, 35.9165
3.264, 5, 35.095, 52.314, -14.7666, 96.301, -66.6703, 35.8722
3.268, 5, 35.0877, 52.3351, -14.764, 96.2868, -66.7609, 35.828
3.272, 5, 35.0804, 52.3561, -14.7613, 96.2725, -66.8516, 35.7838
3.276, 5, 35.0731, 52.3771, -14.7586, 96.2582, -66.9422, 35.7396
3.28, 5, 35.0657, 52.398, -14.7557, 96.2438, -67.0328, 35.6955
3.284, 5, 35.0583, 52.4189, -14.7528, 96.2293, -67.1234, 35.6515
3.288, 5, 35.0509, 52.4397, -14.7498, 96.2147, -67.214, 35.6075
3.291, 5, 35.0435, 52.4604, -14.7467, 96.2001, -67.3046, 35.5635
3.296, 5, 35.0361, 52.4811, -14.7435, 96.1854, -67.3951, 35.5196
3.3, 5, 35.0286, 52.5018, -14.7402, 96.1706, -67.4856, 35.4757
3.304, 5, 35.0211, 52.5224, -14.7369, 96.1558, -67.5761, 35.4318
3.308, 5, 35.0135, 52.5429, -14.7335, 96.1409, -67.6666, 35.388
3.312, 5, 35.006, 52.5633, -14.73, 96.1259, -67.7571, 35.3442
3.316, 5, 34.9984, 52.5837, -14.7264, 96.1109, -67.8476, 35.3005
3.32, 5, 34.9908, 52.6041, -14.7227, 96.0958, -67.9381, 35.2568
3.324, 5, 34.9831, 52.6244, -14.7189, 96.0806, -68.0285, 35.2132
3.328, 5, 34.9755, 52.6446, -14.7151, 96.0654, -68.1189, 35.1696
3.332, 5, 34.9678, 52.6648, -14.7112, 96.05, -68.2093, 35.126
3.336, 5, 34.96, 52.6849, -14.7072, 96.0347, -68.2997, 35.0825
3.34, 5, 34.9523, 52.705, -14.7031, 96.0192, -68.3901, 35.039
3.344, 5, 34.9445, 52.725, -14.699, 96.0037, -68.4804, 34.9955
3.349, 5, 34.9367, 52.7449, -14.6947, 95.9882, -68.5708, 34.9521
3.352, 5, 34.9289, 52.7648, -14.6904, 95.9725, -68.6611, 34.9087
3.356, 5, 34.9211, 52.7847, -14.686, 95.9568, -68.7514, 34.8654
3.36, 5, 34.9132, 52.8044, -14.6815, 95.9411, -68.8417, 34.8221
3.364, 5, 34.9053, 52.8242, -14.6769, 95.9252, -68.932, 34.7788
3.368, 5, 34.8973, 52.8438, -14.6723, 95.9093, -69.0223, 34.7356
3.372, 5, 34.8894, 52.8634, -14.6675, 95.8934, -69.1125, 34.6924
3.376, 5, 34.8814, 52.8829, -14.6627, 95.8773, -69.2027, 34.6493
3.38, 5, 34.8734, 52.9024, -14.6578, 95.8612, -69.293, 34.6061
3.383, 5, 34.8654, 52.9219, -14.6528, 95.8451, -69.3832, 34.5631
3.388, 5, 34.8573, 52.9412, -14.6478, 95.8289, -69.4733, 34.52
3.392, 5, 34.8492, 52.9605, -14.6426, 95.8126, -69.5635, 34.477
3.396, 5, 34.8411, 52.9798, -14.6374, 95.7962, -69.6537, 34.434
3.4, 5, 34.833, 52.999, -14.6321, 95.7798, -69.7438, 34.3911
3.403, 5, 34.8248, 53.0181, -14.6267, 95.7634, -69.8339, 34.3482
3.408, 5, 34.8166, 53.0372, -14.6212, 95.7468, -69.924, 34.3053
3.412, 5, 34.8084, 53.0562, -14.6157, 95.7302, -70.0141, 34.2624
3.416, 5, 34.8002, 53.0752, -14.61, 95.7136, -70.1042, 34.2196
3.42, 5, 34.7919, 53.0941, -14.6043, 95.6969, -70.1943, 34.1769
3.424, 5, 34.7836, 53.1129, -14.5985, 95.6801, -70.2843, 34.1341
3.428, 5, 34.7753, 53.1317, -14.5926, 95.6632, -70.3743, 34.0914
3.432, 5, 34.767, 53.1504, -14.5867, 95.6463, -70.4644, 34.0487
3.436, 5, 34.7586, 53.1691, -14.5806, 95.6294, -70.5544, 34.0061
3.439, 5, 34.7502, 53.1877, -14.5745, 95.6123, -70.6443, 33.9635
3.444, 5, 34.7418, 53.2062, -14.5683, 95.5953, -70.7343, 33.9209
3.448, 5, 34.7333, 53.2247, -14.562, 95.5781, -70.8243, 33.8783
3.452, 5, 34.7249, 53.2432, -14.5556, 95.5609, -70.9142, 33.8358
3.456, 5, 34.7164, 53.2615, -14.5492, 95.5436, -71.0041, 33.7933
3.46, 5, 34.7078, 53.2798, -14.5427, 95.5263, -71.094, 33.7508
3.464, 5, 34.6993, 53.2981, -14.536, 95.5089, -71.1839, 33.7084
3.468, 5, 34.6907, 53.3163, -14.5293, 95.4915, -71.2738, 33.666
3.472, 5, 34.6821, 53.3344, -14.5226, 95.474, -71.3636, 33.6236
3.476, 5, 34.6735, 53.3525, -14.5157, 95.4564, -71.4535, 33.5813
3.48, 5, 34.6648, 53.3705, -14.5088, 95.4388, -71.5433, 33.539
3.484, 5, 34.6562, 53.3884, -14.5017, 95.4211, -71.6331, 33.4967
3.488, 5, 34.6474, 53.4063, -14.4946, 95.4033, -71.7229, 33.4544
3.492, 5, 34.6387, 53.4241, -14.4874, 95.3855, -71.8127, 33.4122
3.495, 5, 34.6298, 53.4418, -14.4801, 95.3676, -71.9025, 33.37
3.5, 5, 34.6208, 53.4593, -14.4726, 95.3497, -71.9922, 33.3279
3.504, 5, 34.6117, 53.4766, -14.465, 95.3316, -72.0818, 33.2859
3.508, 5, 34.6025, 53.4936, -14.4571, 95.3134, -72.1713, 33.2441
3.512, 5, 34.5931, 53.5104, -14.4489, 95.295, -72.2607, 33.2026
3.516, 5, 34.5836, 53.5268, -14.4403, 95.2764, -72.3498, 33.1615
3.52, 5, 34.574, 53.5428, -14.4312, 95.2574, -72.4386, 33.1209
3.524, 5, 34.5644, 53.5585, -14.4214, 95.2379, -72.5269, 33.0812
3.528, 5, 34.5546, 53.5737, -14.4108, 95.2179, -72.6146, 33.0423
3.531, 5, 34.5448, 53.5883, -14.3993, 95.1973, -72.7016, 33.0046
3.536, 5, 34.5349, 53.6023, -14.3867, 95.176, -72.7878, 32.9683
3.54, 5, 34.5249, 53.6158, -14.3729, 95.1538, -72.8729, 32.9336
3.544, 5, 34.5148, 53.6285, -14.3577, 95.1306, -72.9569, 32.9006
3.548, 5, 34.5047, 53.6405, -14.3411, 95.1064, -73.0397, 32.8696
3.552, 5, 34.4944, 53.6519, -14.3228, 95.0811, -73.1211, 32.8408
3.556, 6, 34.4841, 53.6624, -14.3028, 95.0546, -73.201, 32.8142
3.56, 6, 34.4736, 53.6722, -14.2811, 95.0268, -73.2794, 32.7901
3.564, 6, 34.463, 53.6811, -14.2575, 94.9978, -73.3562, 32.7684
3.568, 6, 34.4523, 53.6892, -14.2321, 94.9675, -73.4313, 32.7492
3.572, 6, 34.4414, 53.6963, -14.2048, 94.9359, -73.5047, 32.7326
3.576, 6, 34.4303, 53.7024, -14.1755, 94.903, -73.5765, 32.7186
3.58, 6, 34.419, 53.7075, -14.1444, 94.8689, -73.6465, 32.7072
3.584, 6, 34.4076, 53.7115, -14.1114, 94.8334, -73.7148, 32.6984
3.587, 6, 34.3959, 53.7146, -14.0764, 94.7966, -73.7814, 32.6922
3.592, 6, 34.3841, 53.7167, -14.0396, 94.7586, -73.8463, 32.6886
3.596, 6, 34.3722, 53.7178, -14.0009, 94.7193, -73.9094, 32.6876
3.6, 6, 34.3601, 53.718, -13.9603, 94.6788, -73.9708, 32.6892
3.604, 6, 34.3478, 53.7174, -13.9179, 94.637, -74.0305, 32.6933
3.608, 6, 34.3355, 53.716, -13.8737, 94.594, -74.0886, 32.6998
3.612, 6, 34.323, 53.7138, -13.8279, 94.5499, -74.1451, 32.7088
3.616, 6, 34.3105, 53.7108, -13.7804, 94.5047, -74.2001, 32.7199
3.62, 6, 34.2978, 53.7071, -13.7314, 94.4586, -74.2538, 32.7332
3.624, 6, 34.2851, 53.7027, -13.6811, 94.4116, -74.3062, 32.7483
3.628, 6, 34.2723, 53.6977, -13.6295, 94.3637, -74.3575, 32.7651
3.632, 6, 34.2595, 53.6921, -13.5769, 94.3152, -74.4077, 32.7834
3.636, 6, 34.2466, 53.6859, -13.5232, 94.2661, -74.4572, 32.8029
3.64, 6, 34.2336, 53.6793, -13.4688, 94.2165, -74.506, 32.8235
3.644, 6, 34.2206, 53.6722, -13.4137, 94.1665, -74.5542, 32.845
3.648, 6, 34.2074, 53.6648, -13.3581, 94.1162, -74.6019, 32.8671
3.652, 6, 34.1941, 53.657, -13.3021, 94.0657, -74.6494, 32.8897
3.656, 6, 34.1807, 53.6488, -13.2457, 94.0151, -74.6966, 32.9126
3.66, 6, 34.1671, 53.6404, -13.1892, 93.9644, -74.7438, 32.9357
3.664, 6, 34.1534, 53.6318, -13.1324, 93.9137, -74.7908, 32.959
3.668, 6, 34.1396, 53.6231, -13.0755, 93.863, -74.8378, 32.9823
3.672, 6, 34.1258, 53.6142, -13.0186, 93.8123, -74.8848, 33.0057
3.676, 6, 34.1119, 53.6052, -12.9616, 93.7617, -74.9318, 33.0291
3.679, 6, 34.098, 53.5962, -12.9046, 93.711, -74.9788, 33.0524
3.684, 6, 34.084, 53.5871, -12.8476, 93.6604, -75.0258, 33.0757
3.688, 6, 34.07, 53.5779, -12.7906, 93.6099, -75.0729, 33.099
3.692, 6, 34.056, 53.5687, -12.7336, 93.5594, -75.1201, 33.1222
3.696, 6, 34.042, 53.5595, -12.6765, 93.509, -75.1672, 33.1453
3.7, 6, 34.028, 53.5503, -12.6195, 93.4586, -75.2144, 33.1684
3.704, 6, 34.0139, 53.541, -12.5625, 93.4083, -75.2617, 33.1914
3.708, 6, 33.9998, 53.5317, -12.5055, 93.358, -75.309, 33.2144
3.712, 6, 33.9857, 53.5223, -12.4485, 93.3079, -75.3564, 33.2373
3.716, 6, 33.9716, 53.513, -12.3915, 93.2577, -75.4038, 33.2601
3.72, 6, 33.9574, 53.5036, -12.3346, 93.2076, -75.4513, 33.2828
3.724, 6, 33.9433, 53.4942, -12.2776, 93.1576, -75.4988, 33.3055
3.728, 6, 33.9291, 53.4847, -12.2206, 93.1077, -75.5463, 33.3282
3.732, 6, 33.9149, 53.4753, -12.1637, 93.0578, -75.5939, 33.3507
3.735, 6, 33.9007, 53.4658, -12.1068, 93.0079, -75.6416, 33.3732
3.74, 6, 33.8865, 53.4563, -12.0499, 92.9581, -75.6893, 33.3957
3.744, 6, 33.8723, 53.4468, -11.9929, 92.9084, -75.7371, 33.418
3.748, 6, 33.858, 53.4372, -11.9361, 92.8587, -75.7849, 33.4403
3.752, 6, 33.8437, 53.4276, -11.8792, 92.8091, -75.8327, 33.4625
3.756, 6, 33.8294, 53.418, -11.8223, 92.7596, -75.8806, 33.4847
3.76, 6, 33.8151, 53.4084, -11.7654, 92.7101, -75.9286, 33.5068
3.764, 6, 33.8008, 53.3987, -11.7086, 92.6607, -75.9765, 33.5288
3.768, 6, 33.7865, 53.389, -11.6517, 92.6113, -76.0246, 33.5508
3.772, 6, 33.7721, 53.3793, -11.5949, 92.562, -76.0727, 33.5727
3.776, 6, 33.7578, 53.3696, -11.5381, 92.5127, -76.1208, 33.5945
3.78, 6, 33.7434, 53.3598, -11.4813, 92.4635, -76.169, 33.6163
3.784, 6, 33.729, 53.35, -11.4245, 92.4144, -76.2172, 33.638
3.788, 6, 33.7146, 53.3402, -11.3677, 92.3653, -76.2655, 33.6596
3.792, 6, 33.7001, 53.3303, -11.3109, 92.3163, -76.3139, 33.6812
3.796, 6, 33.6857, 53.3205, -11.2542, 92.2673, -76.3622, 33.7027
3.8, 6, 33.6712, 53.3106, -11.1974, 92.2184, -76.4107, 33.7241
3.804, 6, 33.6568, 53.3007, -11.1407, 92.1696, -76.4591, 33.7454
3.808, 6, 33.6423, 53.2907, -11.084, 92.1208, -76.5077, 33.7667
3.812, 6, 33.6278, 53.2808, -11.0273, 92.072, -76.5562, 33.788
3.816, 6, 33.6132, 53.2708, -10.9706, 92.0234, -76.6048, 33.8091
3.82, 6, 33.5987, 53.2608, -10.9139, 91.9747, -76.6535, 33.8302
3.824, 6, 33.5841, 53.2507, -10.8572, 91.9262, -76.7022, 33.8512
3.828, 6, 33.5695, 53.2407, -10.8006, 91.8777, -76.751, 33.8722
3.832, 6, 33.555, 53.2306, -10.7439, 91.8292, -76.7998, 33.8931
3.836, 6, 33.5403, 53.2204, -10.6873, 91.7808, -76.8486, 33.9139
3.84, 6, 33.5257, 53.2103, -10.6307, 91.7325, -76.8975, 33.9346
3.844, 6, 33.5111, 53.2001, -10.5741, 91.6842, -76.9464, 33.9553
3.848, 6, 33.4964, 53.1899, -10.5175, 91.636, -76.9954, 33.9759
3.852, 6, 33.4818, 53.1797, -10.4609, 91.5878, -77.0445, 33.9965
3.856, 6, 33.4671, 53.1695, -10.4043, 91.5397, -77.0935, 34.017
3.86, 6, 33.4524, 53.1592, -10.3478, 91.4917, -77.1427, 34.0374
3.864, 6, 33.4377, 53.1489, -10.2912, 91.4437, -77.1918, 34.0577
3.868, 6, 33.4229, 53.1386, -10.2347, 91.3957, -77.2411, 34.078
3.872, 6, 33.4082, 53.1282, -10.1782, 91.3479, -77.2903, 34.0982
3.876, 6, 33.3934, 53.1178, -10.1217, 91.3, -77.3396, 34.1184
3.88, 6, 33.3786, 53.1074, -10.0652, 91.2523, -77.389, 34.1384
3.884, 6, 33.3638, 53.097, -10.0087, 91.2045, -77.4384, 34.1584
3.888, 6, 33.349, 53.0866, -9.95222, 91.1569, -77.4878, 34.1784
3.892, 6, 33.3342, 53.0761, -9.89577, 91.1093, -77.5373, 34.1982
3.896, 6, 33.3194, 53.0656, -9.83933, 91.0617, -77.5868, 34.2181
3.9, 6, 33.3045, 53.055, -9.7829, 91.0142, -77.6364, 34.2378
3.904, 6, 33.2896, 53.0444, -9.72649, 90.9668, -77.686, 34.2574
3.908, 6, 33.2746, 53.0337, -9.67008, 90.9194, -77.7357, 34.277
3.912, 6, 33.2596, 53.0229, -9.61367, 90.8721, -77.7853, 34.2966
3.916, 6, 33.2446, 53.0119, -9.55726, 90.8249, -77.835, 34.316
3.92, 6, 33.2294, 53.0008, -9.50082, 90.7777, -77.8847, 34.3354
3.924, 6, 33.2141, 52.9894, -9.44435, 90.7306, -77.9343, 34.3548
3.928, 6, 33.1988, 52.9778, -9.38781, 90.6837, -77.9837, 34.374
3.932, 6, 33.1834, 52.966, -9.33119, 90.6369, -78.033, 34.3932
3.936, 6, 33.168, 52.9539, -9.27445, 90.5903, -78.082, 34.4123
3.94, 6, 33.1525, 52.9416, -9.21756, 90.5438, -78.1307, 34.4314
3.944, 6, 33.137, 52.9289, -9.16049, 90.4976, -78.1789, 34.4504
3.948, 6, 33.1214, 52.9159, -9.10321, 90.4517, -78.2266, 34.4693
3.952, 6, 33.1058, 52.9025, -9.04568, 90.4061, -78.2737, 34.4882
3.956, 6, 33.0901, 52.8888, -8.98787, 90.3607, -78.3202, 34.507
3.96, 6, 33.0745, 52.8747, -8.92976, 90.3157, -78.3659, 34.5258
3.964, 7, 33.0587, 52.8602, -8.87131, 90.2711, -78.4107, 34.5445
3.968, 7, 33.0429, 52.8454, -8.81251, 90.2269, -78.4547, 34.5632
3.972, 7, 33.0271, 52.8301, -8.75334, 90.1831, -78.4977, 34.5818
3.976, 7, 33.0111, 52.8144, -8.69379, 90.1397, -78.5398, 34.6004
3.98, 7, 32.9951, 52.7983, -8.63385, 90.0968, -78.5808, 34.6189
3.984, 7, 32.9791, 52.7816, -8.57351, 90.0543, -78.6208, 34.6374
3.988, 7, 32.9629, 52.7644, -8.51278, 90.0122, -78.6598, 34.6559
3.992, 7, 32.9466, 52.7466, -8.45166, 89.9705, -78.6978, 34.6744
3.996, 7, 32.9302, 52.7283, -8.39013, 89.9293, -78.7347, 34.6928
3.999, 7, 32.9138, 52.7094, -8.32822, 89.8885, -78.7706, 34.7112
4.004, 7, 32.8972, 52.6899, -8.26591, 89.8482, -78.8054, 34.7296
4.008, 7, 32.8806, 52.67, -8.20322, 89.8082, -78.8391, 34.7479
4.012, 7, 32.8639, 52.6496, -8.14015, 89.7687, -78.8718, 34.7662
4.016, 7, 32.8472, 52.6288, -8.07671, 89.7297, -78.9035, 34.7845
4.02, 7, 32.8304, 52.6076, -8.01293, 89.691, -78.9343, 34.8028
4.024, 7, 32.8135, 52.586, -7.94881, 89.6526, -78.964, 34.821
4.028, 7, 32.7966, 52.564, -7.88438, 89.6147, -78.9929, 34.8392
4.032, 7, 32.7796, 52.5417, -7.81967, 89.5771, -79.021, 34.8574
4.036, 7, 32.7626, 52.519, -7.7547, 89.5398, -79.0483, 34.8755
4.04, 7, 32.7456, 52.4959, -7.68952, 89.5028, -79.075, 34.8936
4.044, 7, 32.7285, 52.4726, -7.62414, 89.466, -79.1011, 34.9116
4.048, 7, 32.7114, 52.4489, -7.55862, 89.4294, -79.1267, 34.9296
4.052, 7, 32.6942, 52.425, -7.49297, 89.393, -79.1519, 34.9476
4.056, 7, 32.677, 52.4009, -7.42723, 89.3568, -79.1768, 34.9655
4.06, 7, 32.6597, 52.3765, -7.36143, 89.3207, -79.2014, 34.9833
4.064, 7, 32.6422, 52.352, -7.2956, 89.2847, -79.2258, 35.0012
4.068, 7, 32.6247, 52.3272, -7.22976, 89.2487, -79.2501, 35.0189
4.072, 7, 32.6072, 52.3023, -7.16392, 89.2129, -79.2743, 35.0366
4.076, 7, 32.5895, 52.2772, -7.0981, 89.177, -79.2985, 35.0543
4.08, 7, 32.5718, 52.2521, -7.03231, 89.1413, -79.3227, 35.0719
4.084, 7, 32.5541, 52.2269, -6.96656, 89.1055, -79.3468, 35.0895
4.088, 7, 32.5364, 52.2017, -6.90085, 89.0698, -79.371, 35.107
4.092, 7, 32.5186, 52.1765, -6.83519, 89.034, -79.3952, 35.1245
4.096, 7, 32.5008, 52.1512, -6.76957, 88.9984, -79.4194, 35.1419
4.1, 7, 32.4829, 52.1259, -6.704, 88.9627, -79.4436, 35.1593
4.104, 7, 32.4651, 52.1007, -6.63848, 88.927, -79.4678, 35.1766
4.108, 7, 32.4472, 52.0754, -6.57302, 88.8914, -79.4921, 35.1939
4.112, 7, 32.4293, 52.0501, -6.5076, 88.8558, -79.5163, 35.2112
4.116, 7, 32.4114, 52.0249, -6.44224, 88.8202, -79.5407, 35.2283
4.12, 7, 32.3935, 51.9996, -6.37692, 88.7846, -79.565, 35.2455
4.124, 7, 32.3756, 51.9744, -6.31166, 88.749, -79.5894, 35.2626
4.128, 7, 32.3576, 51.9492, -6.24645, 88.7135, -79.6137, 35.2796
4.132, 7, 32.3397, 51.9239, -6.18129, 88.678, -79.6382, 35.2966
4.136, 7, 32.3217, 51.8987, -6.11618, 88.6425, -79.6626, 35.3135
4.14, 7, 32.3037, 51.8735, -6.05113, 88.607, -79.6871, 35.3304
4.144, 7, 32.2857, 51.8483, -5.98612, 88.5715, -79.7115, 35.3473
4.148, 7, 32.2677, 51.8231, -5.92117, 88.536, -79.7361, 35.3641
4.152, 7, 32.2496, 51.7979, -5.85626, 88.5006, -79.7606, 35.3808
4.156, 7, 32.2316, 51.7727, -5.79141, 88.4652, -79.7852, 35.3975
4.16, 7, 32.2135, 51.7476, -5.72661, 88.4298, -79.8098, 35.4142
4.164, 7, 32.1954, 51.7224, -5.66186, 88.3944, -79.8344, 35.4308
4.168, 7, 32.1773, 51.6973, -5.59716, 88.359, -79.8591, 35.4474
4.172, 7, 32.1592, 51.6721, -5.53251, 88.3236, -79.8838, 35.4639
4.176, 7, 32.1411, 51.647, -5.46791, 88.2883, -79.9085, 35.4803
4.18, 7, 32.123, 51.6218, -5.40336, 88.253, -79.9332, 35.4967
4.184, 7, 32.1048, 51.5967, -5.33886, 88.2177, -79.958, 35.5131
4.188, 7, 32.0866, 51.5716, -5.27441, 88.1824, -79.9827, 35.5294
4.192, 7, 32.0684, 51.5465, -5.21001, 88.1471, -80.0076, 35.5457
4.196, 7, 32.0502, 51.5214, -5.14566, 88.1118, -80.0324, 35.5619
4.2, 7, 32.032, 51.4963, -5.08136, 88.0766, -80.0573, 35.5781
4.204, 7, 32.0138, 51.4712, -5.01711, 88.0413, -80.0821, 35.5942
4.208, 7, 31.9955, 51.4461, -4.95291, 88.0061, -80.107, 35.6103
4.212, 7, 31.9773, 51.421, -4.88876, 87.9709, -80.132, 35.6263
4.216, 7, 31.959, 51.396, -4.82466, 87.9358, -80.157, 35.6423
4.22, 7, 31.9407, 51.3709, -4.76061, 87.9006, -80.1819, 35.6582
4.224, 7, 31.9224, 51.3458, -4.69661, 87.8654, -80.207, 35.6741
4.228, 7, 31.9041, 51.3208, -4.63266, 87.8303, -80.232, 35.69
4.232, 7, 31.8857, 51.2957, -4.56876, 87.7952, -80.2571, 35.7058
4.236, 7, 31.8674, 51.2707, -4.5049, 87.7601, -80.2822, 35.7215
4.24, 7, 31.849, 51.2457, -4.4411, 87.725, -80.3073, 35.7372
4.244, 7, 31.8306, 51.2206, -4.37734, 87.6899, -80.3324, 35.7528
4.248, 7, 31.8123, 51.1956, -4.31363, 87.6548, -80.3576, 35.7684
4.252, 7, 31.7938, 51.1706, -4.24998, 87.6198, -80.3828, 35.784
4.256, 7, 31.7754, 51.1456, -4.18637, 87.5848, -80.408, 35.7995
4.26, 7, 31.757, 51.1206, -4.12281, 87.5498, -80.4332, 35.8149
4.264, 7, 31.7385, 51.0956, -4.05929, 87.5147, -80.4585, 35.8304
4.268, 7, 31.72, 51.0706, -3.99583, 87.4798, -80.4838, 35.8457
4.272, 7, 31.7015, 51.0456, -3.93241, 87.4448, -80.5091, 35.861
4.276, 7, 31.683, 51.0206, -3.86905, 87.4098, -80.5344, 35.8763
4.28, 7, 31.6645, 50.9957, -3.80573, 87.3749, -80.5598, 35.8915
4.284, 7, 31.646, 50.9707, -3.74246, 87.34, -80.5852, 35.9067
4.288, 7, 31.6274, 50.9457, -3.67923, 87.3051, -80.6106, 35.9218
4.292, 7, 31.6089, 50.9208, -3.61606, 87.2702, -80.636, 35.9369
4.296, 7, 31.5903, 50.8958, -3.55293, 87.2353, -80.6615, 35.9519
4.3, 7, 31.5717, 50.8709, -3.48985, 87.2004, -80.687, 35.9669
4.304, 7, 31.5531, 50.8459, -3.42682, 87.1656, -80.7125, 35.9818
4.308, 7, 31.5345, 50.821, -3.36383, 87.1307, -80.738, 35.9967
4.312, 7, 31.5158, 50.7961, -3.3009, 87.0959, -80.7635, 36.0115
4.316, 7, 31.4972, 50.7711, -3.23801, 87.0611, -80.7891, 36.0263
4.32, 7, 31.4785, 50.7462, -3.17517, 87.0263, -80.8147, 36.0411
4.324, 7, 31.4598, 50.7213, -3.11237, 86.9915, -80.8404, 36.0558
4.328, 7, 31.4411, 50.6964, -3.04963, 86.9568, -80.866, 36.0704
4.332, 7, 31.4224, 50.6714, -2.98693, 86.922, -80.8917, 36.085
4.336, 7, 31.4037, 50.6465, -2.92427, 86.8873, -80.9174, 36.0996
4.34, 7, 31.3849, 50.6216, -2.86167, 86.8525, -80.9431, 36.1141
4.344, 7, 31.3662, 50.5967, -2.79911, 86.8178, -80.9688, 36.1285
4.348, 7, 31.3474, 50.5718, -2.73659, 86.7831, -80.9946, 36.1429
4.352, 7, 31.3286, 50.547, -2.67413, 86.7485, -81.0204, 36.1573
4.356, 7, 31.3098, 50.5221, -2.61171, 86.7138, -81.0462, 36.1716
4.36, 7, 31.291, 50.4972, -2.54934, 86.6791, -81.072, 36.1859
4.364, 7, 31.2721, 50.4723, -2.48701, 86.6445, -81.0979, 36.2001
4.368, 7, 31.2533, 50.4474, -2.42473, 86.6099, -81.1238, 36.2143
4.372, 7, 31.2344, 50.4226, -2.3625, 86.5753, -81.1497, 36.2284
4.376, 7, 31.2155, 50.3977, -2.30031, 86.5407, -81.1756, 36.2425
4.38, 7, 31.1966, 50.3728, -2.23817, 86.5061, -81.2016, 36.2565
4.384, 7, 31.1777, 50.348, -2.17608, 86.4715, -81.2275, 36.2705
4.388, 7, 31.1588, 50.3231, -2.11403, 86.4369, -81.2535, 36.2844
4.392, 7, 31.1398, 50.2983, -2.05203, 86.4024, -81.2795, 36.2983
4.396, 7, 31.1209, 50.2734, -1.99007, 86.3679, -81.3056, 36.3121
4.4, 7, 31.1019, 50.2486, -1.92816, 86.3333, -81.3316, 36.3259
4.404, 7, 31.0829, 50.2237, -1.8663, 86.2988, -81.3577, 36.3397
4.408, 7, 31.0639, 50.1989, -1.80448, 86.2643, -81.3838, 36.3534
4.412, 7, 31.0449, 50.1741, -1.74271, 86.2299, -81.41, 36.367
4.416, 7, 31.0258, 50.1492, -1.68098, 86.1954, -81.4361, 36.3806
4.42, 7, 31.0068, 50.1244, -1.6193, 86.1609, -81.4623, 36.3942
4.424, 7, 30.9877, 50.0996, -1.55766, 86.1265, -81.4885, 36.4077
4.428, 7, 30.9686, 50.0747, -1.49607, 86.0921, -81.5147, 36.4211
4.432, 7, 30.9495, 50.0499, -1.43453, 86.0576, -81.5409, 36.4345
4.436, 7, 30.9304, 50.0251, -1.37303, 86.0232, -81.5672, 36.4479
4.44, 7, 30.9113, 50.0003, -1.31157, 85.9889, -81.5935, 36.4612
4.444, 7, 30.8922, 49.9755, -1.25016, 85.9545, -81.6198, 36.4745
4.448, 7, 30.873, 49.9507, -1.1888, 85.9201, -81.6461, 36.4877
4.452, 7, 30.8538, 49.9258, -1.12748, 85.8858, -81.6724, 36.5009
4.456, 7, 30.8346, 49.901, -1.0662, 85.8514, -81.6988, 36.514
4.46, 7, 30.8154, 49.8762, -1.00497, 85.8171, -81.7252, 36.5271
4.464, 7, 30.7962, 49.8514, -0.943788, 85.7828, -81.7516, 36.5402
4.468, 7, 30.777, 49.8266, -0.882647, 85.7485, -81.7781, 36.5531
4.472, 7, 30.7577, 49.8018, -0.821552, 85.7142, -81.8045, 36.5661
4.476, 7, 30.7384, 49.777, -0.7605, 85.6799, -81.831, 36.579
4.48, 7, 30.7192, 49.7522, -0.699494, 85.6457, -81.8575, 36.5918
4.484, 7, 30.6999, 49.7275, -0.638531, 85.6114, -81.884, 36.6046
4.488, 7, 30.6805, 49.7027, -0.577614, 85.5772, -81.9105, 36.6174
4.492, 7, 30.6612, 49.6779, -0.51674, 85.5429, -81.9371, 36.6301
4.496, 7, 30.6419, 49.6531, -0.455911, 85.5087, -81.9637, 36.6427
4.5, 7, 30.6225, 49.6283, -0.395126, 85.4745, -81.9903, 36.6553
4.504, 7, 30.6031, 49.6035, -0.334385, 85.4403, -82.0169, 36.6679
4.508, 7, 30.5837, 49.5787, -0.273688, 85.4061, -82.0436, 36.6804
4.512, 7, 30.5643, 49.554, -0.213036, 85.372, -82.0702, 36.6929
4.516, 7, 30.5449, 49.5292, -0.152427, 85.3378, -82.0969, 36.7053
4.52, 7, 30.5255, 49.5044, -0.0918619, 85.3037, -82.1236, 36.7177
4.524, 7, 30.506, 49.4796, -0.0313408, 85.2695, -82.1503, 36.73
4.528, 7, 30.4865, 49.4548, 0.0291365, 85.2354, -82.1771, 36.7423
4.532, 7, 30.467, 49.4301, 0.0895701, 85.2013, -82.2039, 36.7545
4.536, 7, 30.4475, 49.4053, 0.14996, 85.1672, -82.2306, 36.7667
4.54, 7, 30.428, 49.3805, 0.210306, 85.1331, -82.2575, 36.7789
4.544, 7, 30.4085, 49.3558, 0.270609, 85.0991, -82.2843, 36.791
4.548, 7, 30.3889, 49.331, 0.330869, 85.065, -82.3111, 36.803
4.552, 7, 30.3694, 49.3062, 0.391084, 85.0309, -82.338, 36.815
4.556, 7, 30.3499, 49.2815, 0.451254, 84.9969, -82.3649, 36.8269
4.56, 7, 30.3304, 49.2567, 0.511368, 84.9629, -82.3918, 36.8388
4.564, 7, 30.3112, 49.232, 0.571407, 84.9289, -82.4187, 36.8507
4.568, 7, 30.2923, 49.2075, 0.631333, 84.8949, -82.4456, 36.8625
4.572, 7, 30.2738, 49.183, 0.691087, 84.861, -82.4725, 36.8742
4.576, 7, 30.2557, 49.1588, 0.750571, 84.8272, -82.4993, 36.8859
4.58, 7, 30.2382, 49.1348, 0.809652, 84.7936, -82.526, 36.8974
4.584, 7, 30.2212, 49.1112, 0.86815, 84.7603, -82.5524, 36.9088
4.588, 7, 30.2048, 49.0881, 0.92584, 84.7274, -82.5785, 36.9201
4.592, 7, 30.1888, 49.0654, 0.982452, 84.695, -82.6042, 36.9311
4.596, 7, 30.1733, 49.0435, 1.03767, 84.6635, -82.6293, 36.9418
4.6, 7, 30.1585, 49.0223, 1.09115, 84.6329, -82.6536, 36.9521
4.604, 7, 30.1443, 49.0019, 1.14252, 84.6034, -82.677, 36.9621
4.608, 7, 30.1308, 48.9826, 1.19139, 84.5754, -82.6993, 36.9715
4.612, 7, 30.118, 48.9644, 1.2374, 84.549, -82.7203, 36.9803
4.616, 7, 30.1059, 48.9474, 1.28022, 84.5245, -82.7399, 36.9885
4.62, 7, 30.0943, 48.9317, 1.31954, 84.502, -82.7579, 36.9961
4.624, 7, 30.0834, 48.9172, 1.35517, 84.4816, -82.7741, 37.0029
4.628, 7, 30.0731, 48.9041, 1.38697, 84.4635, -82.7886, 37.0089
4.632, 7, 30.0634, 48.8924, 1.41491, 84.4476, -82.8014, 37.0141
4.636, 7, 30.0544, 48.8819, 1.43906, 84.434, -82.8124, 37.0187
4.64, 7, 30.046, 48.8729, 1.45955, 84.4225, -82.8217, 37.0225
4.644, 7, 30.0384, 48.865, 1.47663, 84.413, -82.8294, 37.0256
4.648, 7, 30.0314, 48.8584, 1.49057, 84.4053, -82.8357, 37.0282
4.652, 7, 30.0251, 48.8528, 1.50172, 84.3991, -82.8407, 37.0302
4.656, 7, 30.0193, 48.8483, 1.51045, 84.3944, -82.8446, 37.0317
4.66, 7, 30.014, 48.8445, 1.51711, 84.3909, -82.8476, 37.0329
4.664, 7, 30.0093, 48.8416, 1.52209, 84.3883, -82.8498, 37.0338
4.668, 8, 30.0053, 48.8392, 1.52573, 84.3864, -82.8514, 37.0344
4.672, 8, 30.002, 48.8375, 1.52832, 84.3851, -82.8525, 37.0348
4.676, 8, 29.9993, 48.8362, 1.53014, 84.3842, -82.8533, 37.0351
4.68, 8, 29.9973, 48.8353, 1.53139, 84.3835, -82.8539, 37.0353
4.684, 8, 29.9959, 48.8346, 1.53225, 84.3831, -82.8542, 37.0355
4.688, 8, 29.995, 48.8342, 1.53283, 84.3828, -82.8545, 37.0356
4.692, 8, 29.9943, 48.8339, 1.53322, 84.3826, -82.8547, 37.0356
4.696, 8, 29.9939, 48.8337, 1.53348, 84.3825, -82.8548, 37.0357
4.7, 8, 29.9936, 48.8336, 1.53366, 84.3824, -82.8549, 37.0357
4.704, 8, 29.9934, 48.8335, 1.53379, 84.3824, -82.8549, 37.0357
4.708, 8, 29.9932, 48.8334, 1.53387, 84.3823, -82.8549, 37.0357
4.712, 8, 29.9931, 48.8334, 1.53393, 84.3823, -82.855, 37.0357
4.716, 8, 29.9931, 48.8334, 1.53396, 84.3823, -82.855, 37.0357
4.72, 8, 29.993, 48.8333, 1.53399, 84.3823, -82.855, 37.0358
4.724, 8, 29.993, 48.8333, 1.53401, 84.3823, -82.855, 37.0358
4.728, 8, 29.993, 48.8333, 1.53402, 84.3822, -82.855, 37.0358
4.732, 8, 29.993, 48.8333, 1.53403, 84.3822, -82.855, 37.0358
4.736, 8, 29.993, 48.8333, 1.53403, 84.3822, -82.855, 37.0358
4.74, 8, 29.993, 48.8333, 1.53404, 84.3822, -82.855, 37.0358
4.744, 8, 29.993, 48.8333, 1.53404, 84.3822, -82.855, 37.0358
4.748, 8, 29.993, 48.8333, 1.53404, 84.3822, -82.855, 37.0358
4.752, 8, 29.993, 48.8333, 1.53404, 84.3822, -82.855, 37.0358
4.756, 8, 29.9929, 48.8333, 1.53404, 84.3822, -82.855, 37.0358
4.76, 8, 29.9929, 48.8333, 1.53404, 84.3822, -82.855, 37.0358
4.764, 8, 29.9929, 48.8333, 1.53404, 84.3822, -82.855, 37.0358
4.768, 8, 29.9929, 48.8333, 1.53404, 84.3822, -82.855, 37.0358
4.772, 8, 29.9929, 48.8333, 1.53404, 84.3822, -82.855, 37.0358
4.776, 8, 29.9929, 48.8333, 1.53404, 84.3822, -82.855, 37.0358
4.78, 8, 29.9929, 48.8333, 1.53404, 84.3822, -82.855, 37.0358
4.784, 8, 29.9929, 48.8333, 1.53404, 84.3822, -82.855, 37.0358
