hehonglu123/ABB_Primitive_Study/execution/movelcl_30_car2/curve_exe_v500_z10.csv
timestamp, cmd_num, J1, J2, J3, J4, J5, J6
0, -1, -13.4393, 43.6787, 12.5946, -11.6275, -87.029, 7.42441
0.002, -1, -13.4393, 43.6787, 12.5946, -11.6275, -87.029, 7.42441
0.006, -1, -13.4393, 43.6787, 12.5946, -11.6275, -87.029, 7.42441
0.008, -1, -13.4393, 43.6787, 12.5946, -11.6275, -87.029, 7.42441
0.011, -1, -13.4393, 43.6787, 12.5946, -11.6275, -87.029, 7.42441
0.016, -1, -13.4393, 43.6787, 12.5946, -11.6275, -87.029, 7.42441
0.02, -1, -13.4393, 43.6787, 12.5946, -11.6275, -87.029, 7.42441
0.024, -1, -13.4393, 43.6787, 12.5946, -11.6275, -87.029, 7.42441
0.028, -1, -13.4393, 43.6787, 12.5946, -11.6275, -87.029, 7.42441
0.032, -1, -13.4393, 43.6787, 12.5946, -11.6275, -87.029, 7.42441
0.036, -1, -13.4392, 43.6786, 12.5946, -11.6275, -87.029, 7.42441
0.04, -1, -13.439, 43.6785, 12.5946, -11.6275, -87.029, 7.42441
0.044, -1, -13.4384, 43.678, 12.5947, -11.6275, -87.029, 7.42439
0.048, -1, -13.4372, 43.6772, 12.5949, -11.6274, -87.0289, 7.42434
0.052, -1, -13.4355, 43.6758, 12.5951, -11.6273, -87.0287, 7.42422
0.056, -1, -13.433, 43.6738, 12.5955, -11.627, -87.0284, 7.42397
0.06, -1, -13.4296, 43.671, 12.5961, -11.6264, -87.0277, 7.42349
0.064, -1, -13.4254, 43.6675, 12.5969, -11.6253, -87.0264, 7.42266
0.068, -1, -13.4203, 43.6631, 12.598, -11.6236, -87.0244, 7.42132
0.072, -1, -13.4141, 43.6579, 12.5994, -11.6209, -87.0213, 7.41928
0.076, -1, -13.4066, 43.6516, 12.6011, -11.617, -87.0167, 7.4163
0.08, -1, -13.3977, 43.6442, 12.6034, -11.6115, -87.0103, 7.41213
0.084, -1, -13.3869, 43.6352, 12.6062, -11.604, -87.0016, 7.40644
0.088, -1, -13.3743, 43.6247, 12.6097, -11.5941, -86.9899, 7.39892
0.092, -1, -13.3596, 43.6124, 12.6138, -11.5812, -86.9748, 7.38918
0.096, -1, -13.3427, 43.5982, 12.6186, -11.5648, -86.9557, 7.37685
0.1, -1, -13.3235, 43.582, 12.6243, -11.5444, -86.9319, 7.36155
0.104, -1, -13.3019, 43.5636, 12.6308, -11.5196, -86.9029, 7.3429
0.108, -1, -13.2776, 43.5427, 12.6382, -11.4899, -86.868, 7.32054
0.112, -1, -13.2505, 43.5193, 12.6467, -11.4547, -86.8269, 7.29416
0.116, -1, -13.2206, 43.4932, 12.6562, -11.4137, -86.7789, 7.26346
0.12, -1, -13.1877, 43.4644, 12.6669, -11.3667, -86.7238, 7.22818
0.124, -1, -13.1519, 43.4328, 12.6786, -11.3132, -86.6612, 7.18814
0.128, -1, -13.113, 43.3984, 12.6916, -11.2532, -86.591, 7.14319
0.131, -1, -13.071, 43.3611, 12.7056, -11.1865, -86.5129, 7.09326
0.136, -1, -13.026, 43.321, 12.7209, -11.1131, -86.4269, 7.03835
0.139, -1, -12.9779, 43.2779, 12.7373, -11.0331, -86.3333, 6.9785
0.144, -1, -12.9267, 43.232, 12.7548, -10.9467, -86.2321, 6.91384
0.148, -1, -12.8726, 43.1833, 12.7734, -10.854, -86.1236, 6.84454
0.152, -1, -12.8155, 43.132, 12.7932, -10.7555, -86.0082, 6.77084
0.156, -1, -12.7557, 43.0781, 12.8139, -10.6514, -85.8863, 6.69301
0.16, -1, -12.6932, 43.0219, 12.8355, -10.5422, -85.7585, 6.61137
0.164, -1, -12.6282, 42.9633, 12.8581, -10.4284, -85.6253, 6.52627
0.168, -1, -12.5607, 42.9025, 12.8815, -10.3105, -85.4872, 6.43809
0.172, -1, -12.4909, 42.8396, 12.9056, -10.189, -85.3449, 6.34721
0.176, -1, -12.4189, 42.7749, 12.9305, -10.0644, -85.1989, 6.25399
0.18, -1, -12.345, 42.7085, 12.956, -9.93711, -85.0499, 6.15879
0.184, -1, -12.2694, 42.6406, 12.9821, -9.80765, -84.8983, 6.06194
0.188, -1, -12.1925, 42.5714, 13.0086, -9.6764, -84.7446, 5.96375
0.192, -1, -12.1142, 42.5011, 13.0356, -9.54373, -84.5892, 5.86449
0.196, -1, -12.0348, 42.4297, 13.0629, -9.40995, -84.4326, 5.76439
0.2, -1, -11.9542, 42.3573, 13.0906, -9.27534, -84.2749, 5.66366
0.204, -1, -11.8724, 42.2841, 13.1185, -9.14011, -84.1166, 5.56246
0.208, -1, -11.7897, 42.21, 13.1466, -9.00443, -83.9577, 5.46092
0.212, -1, -11.7061, 42.1354, 13.1749, -8.86843, -83.7985, 5.35913
0.216, -1, -11.6218, 42.0602, 13.2033, -8.7322, -83.6389, 5.25717
0.22, -1, -11.5371, 41.9847, 13.2318, -8.5958, -83.4792, 5.15507
0.224, -1, -11.452, 41.909, 13.2603, -8.45928, -83.3194, 5.05288
0.228, -1, -11.3667, 41.8332, 13.2889, -8.32266, -83.1594, 4.95062
0.232, -1, -11.2813, 41.7572, 13.3176, -8.18597, -82.9993, 4.8483
0.236, -1, -11.1957, 41.6811, 13.3462, -8.04922, -82.8392, 4.74595
0.24, -1, -11.11, 41.605, 13.3749, -7.91243, -82.679, 4.64355
0.244, -1, -11.0243, 41.5288, 13.4035, -7.77561, -82.5188, 4.54114
0.248, -1, -10.9386, 41.4526, 13.4322, -7.63876, -82.3586, 4.4387
0.252, -1, -10.8528, 41.3764, 13.4609, -7.50189, -82.1983, 4.33625
0.256, -1, -10.767, 41.3002, 13.4896, -7.36501, -82.0381, 4.2338
0.26, -1, -10.6811, 41.2239, 13.5183, -7.22813, -81.8778, 4.13133
0.264, -1, -10.5953, 41.1477, 13.547, -7.09125, -81.7175, 4.02887
0.268, -1, -10.5094, 41.0714, 13.5757, -6.95436, -81.5572, 3.92641
0.272, -1, -10.4236, 40.9952, 13.6044, -6.81749, -81.397, 3.82396
0.276, -1, -10.3378, 40.9189, 13.6331, -6.68063, -81.2367, 3.72151
0.28, -1, -10.252, 40.8427, 13.6618, -6.54379, -81.0765, 3.61908
0.284, -1, -10.1661, 40.7665, 13.6904, -6.40697, -80.9163, 3.51666
0.288, -1, -10.0803, 40.6903, 13.7191, -6.27017, -80.7561, 3.41427
0.292, -1, -9.99456, 40.6141, 13.7478, -6.13341, -80.596, 3.31189
0.296, -1, -9.9088, 40.538, 13.7764, -5.99668, -80.4359, 3.20955
0.3, -1, -9.82306, 40.4618, 13.8051, -5.85999, -80.2758, 3.10723
0.304, -1, -9.73734, 40.3857, 13.8337, -5.72334, -80.1158, 3.00494
0.308, -1, -9.65166, 40.3096, 13.8624, -5.58674, -79.9558, 2.90269
0.312, -1, -9.566, 40.2336, 13.891, -5.45019, -79.796, 2.80048
0.316, -1, -9.48038, 40.1575, 13.9196, -5.31369, -79.6361, 2.69831
0.32, -1, -9.3948, 40.0815, 13.9482, -5.17726, -79.4764, 2.59618
0.324, -1, -9.30925, 40.0055, 13.9768, -5.04089, -79.3167, 2.4941
0.328, -1, -9.22375, 39.9296, 14.0054, -4.90458, -79.1571, 2.39207
0.332, -1, -9.13829, 39.8537, 14.0339, -4.76835, -78.9976, 2.2901
0.336, -1, -9.05287, 39.7778, 14.0625, -4.63219, -78.8382, 2.18818
0.34, -1, -8.9675, 39.702, 14.091, -4.49612, -78.6788, 2.08632
0.344, -1, -8.88219, 39.6262, 14.1195, -4.36012, -78.5196, 1.98452
0.348, -1, -8.79692, 39.5505, 14.148, -4.22421, -78.3604, 1.88279
0.352, -1, -8.71172, 39.4748, 14.1765, -4.0884, -78.2014, 1.78113
0.356, -1, -8.62657, 39.3992, 14.2049, -3.95267, -78.0425, 1.67953
0.36, -1, -8.54148, 39.3236, 14.2334, -3.81705, -77.8837, 1.57801
0.364, -1, -8.45646, 39.2481, 14.2618, -3.68152, -77.725, 1.47657
0.368, -1, -8.3715, 39.1727, 14.2902, -3.54611, -77.5664, 1.3752
0.372, -1, -8.28661, 39.0973, 14.3185, -3.4108, -77.408, 1.27392
0.376, -1, -8.20179, 39.0219, 14.3469, -3.2756, -77.2497, 1.17272
0.38, -1, -8.11704, 38.9467, 14.3752, -3.14052, -77.0915, 1.07161
0.384, -1, -8.03237, 38.8715, 14.4035, -3.00557, -76.9335, 0.970588
0.388, -1, -7.94777, 38.7963, 14.4318, -2.87073, -76.7756, 0.869659
0.392, -1, -7.86325, 38.7212, 14.46, -2.73602, -76.6179, 0.768825
0.396, -1, -7.77881, 38.6463, 14.4882, -2.60145, -76.4603, 0.668089
0.4, -1, -7.69446, 38.5713, 14.5164, -2.467, -76.3029, 0.567454
0.404, -1, -7.61019, 38.4965, 14.5446, -2.3327, -76.1456, 0.466921
0.408, -1, -7.526, 38.4217, 14.5727, -2.19854, -75.9885, 0.366494
0.412, -1, -7.44191, 38.347, 14.6008, -2.06452, -75.8316, 0.266176
0.416, -1, -7.35791, 38.2724, 14.6288, -1.93064, -75.6748, 0.165968
0.42, -1, -7.274, 38.1979, 14.6569, -1.79692, -75.5183, 0.0658724
0.424, -1, -7.19019, 38.1235, 14.6849, -1.66336, -75.3619, -0.0341072
0.428, -1, -7.10648, 38.0491, 14.7128, -1.52995, -75.2057, -0.133969
0.432, -1, -7.02287, 37.9748, 14.7408, -1.3967, -75.0496, -0.233711
0.436, -1, -6.93935, 37.9007, 14.7687, -1.26362, -74.8938, -0.33333
0.44, -1, -6.85595, 37.8266, 14.7965, -1.1307, -74.7382, -0.432824
0.444, -1, -6.77264, 37.7526, 14.8244, -0.99795, -74.5827, -0.532191
0.448, -1, -6.68945, 37.6787, 14.8522, -0.865375, -74.4275, -0.631429
0.452, -1, -6.60636, 37.6049, 14.8799, -0.732975, -74.2725, -0.730535
0.456, -1, -6.52339, 37.5312, 14.9077, -0.600755, -74.1176, -0.829507
0.46, -1, -6.44053, 37.4576, 14.9353, -0.468716, -73.963, -0.928344
0.464, -1, -6.35778, 37.3842, 14.963, -0.336861, -73.8086, -1.02704
0.468, -1, -6.27515, 37.3108, 14.9906, -0.205193, -73.6545, -1.1256
0.472, -1, -6.19264, 37.2375, 15.0181, -0.0737153, -73.5005, -1.22402
0.476, -1, -6.11024, 37.1643, 15.0457, 0.0575699, -73.3468, -1.32229
0.48, -1, -6.02797, 37.0912, 15.0732, 0.18866, -73.1933, -1.42042
0.484, -1, -5.94582, 37.0183, 15.1006, 0.319552, -73.04, -1.51839
0.488, -1, -5.8638, 36.9454, 15.128, 0.450244, -72.887, -1.61622
0.492, -1, -5.7819, 36.8727, 15.1554, 0.580734, -72.7342, -1.7139
0.496, -1, -5.70012, 36.8001, 15.1827, 0.711018, -72.5817, -1.81142
0.5, -1, -5.61848, 36.7276, 15.2099, 0.841096, -72.4294, -1.90879
0.504, -1, -5.53697, 36.6552, 15.2372, 0.970964, -72.2773, -2.006
0.508, -1, -5.45558, 36.5829, 15.2644, 1.10062, -72.1255, -2.10306
0.512, -1, -5.37433, 36.5108, 15.2915, 1.23006, -71.9739, -2.19995
0.516, -1, -5.29321, 36.4387, 15.3186, 1.35929, -71.8226, -2.29668
0.52, -1, -5.21223, 36.3668, 15.3456, 1.4883, -71.6715, -2.39325
0.524, -1, -5.13138, 36.295, 15.3726, 1.6171, -71.5207, -2.48966
0.528, -1, -5.05067, 36.2233, 15.3996, 1.74567, -71.3702, -2.5859
0.532, -1, -4.97009, 36.1518, 15.4265, 1.87402, -71.2199, -2.68198
0.536, -1, -4.88966, 36.0803, 15.4534, 2.00215, -71.0698, -2.77789
0.54, -1, -4.80936, 36.009, 15.4802, 2.13005, -70.9201, -2.87363
0.544, -1, -4.7292, 35.9378, 15.507, 2.25773, -70.7706, -2.9692
0.548, -1, -4.64919, 35.8668, 15.5337, 2.38518, -70.6213, -3.0646
0.552, -1, -4.56931, 35.7959, 15.5604, 2.51241, -70.4724, -3.15984
0.556, -1, -4.48958, 35.725, 15.587, 2.6394, -70.3237, -3.2549
0.56, -1, -4.41, 35.6544, 15.6136, 2.76617, -70.1752, -3.34979
0.564, -1, -4.33056, 35.5838, 15.6401, 2.8927, -70.0271, -3.44451
0.568, -1, -4.25126, 35.5134, 15.6666, 3.01901, -69.8792, -3.53905
0.572, -1, -4.17211, 35.4431, 15.693, 3.14508, -69.7316, -3.63342
0.576, -1, -4.0931, 35.373, 15.7194, 3.27092, -69.5842, -3.72761
0.58, -1, -4.01424, 35.3029, 15.7458, 3.39652, -69.4372, -3.82163
0.584, -1, -3.93553, 35.233, 15.772, 3.52189, -69.2904, -3.91547
0.588, -1, -3.85696, 35.1633, 15.7983, 3.64702, -69.1438, -4.00914
0.592, -1, -3.77855, 35.0936, 15.8245, 3.77191, -68.9976, -4.10263
0.596, -1, -3.70028, 35.0241, 15.8506, 3.89657, -68.8516, -4.19594
0.6, -1, -3.62216, 34.9548, 15.8767, 4.02099, -68.7059, -4.28908
0.604, -1, -3.54419, 34.8855, 15.9027, 4.14517, -68.5605, -4.38203
0.608, -1, -3.46637, 34.8164, 15.9287, 4.26911, -68.4154, -4.47481
0.612, -1, -3.3887, 34.7474, 15.9547, 4.39281, -68.2706, -4.5674
0.616, -1, -3.31118, 34.6786, 15.9806, 4.51628, -68.126, -4.65982
0.62, -1, -3.23382, 34.6099, 16.0064, 4.63949, -67.9817, -4.75205
0.624, -1, -3.1566, 34.5413, 16.0322, 4.76247, -67.8377, -4.84411
0.628, -1, -3.07954, 34.4729, 16.0579, 4.88521, -67.694, -4.93598
0.632, -1, -3.00262, 34.4046, 16.0836, 5.0077, -67.5506, -5.02767
0.636, -1, -2.92586, 34.3364, 16.1092, 5.12995, -67.4074, -5.11918
0.64, -1, -2.84926, 34.2684, 16.1348, 5.25195, -67.2646, -5.2105
0.644, -1, -2.7728, 34.2005, 16.1604, 5.37371, -67.122, -5.30165
0.648, -1, -2.6965, 34.1328, 16.1858, 5.49523, -66.9797, -5.39261
0.652, -1, -2.62035, 34.0652, 16.2113, 5.6165, -66.8377, -5.48338
0.656, -1, -2.54436, 33.9977, 16.2366, 5.73753, -66.696, -5.57398
0.66, -1, -2.46852, 33.9303, 16.262, 5.85831, -66.5546, -5.66439
0.664, -1, -2.39283, 33.8631, 16.2872, 5.97884, -66.4135, -5.75461
0.668, -1, -2.3173, 33.7961, 16.3125, 6.09913, -66.2726, -5.84465
0.672, -1, -2.24192, 33.7291, 16.3376, 6.21917, -66.1321, -5.93451
0.676, -1, -2.1667, 33.6623, 16.3628, 6.33897, -65.9918, -6.02418
0.68, -1, -2.09163, 33.5957, 16.3878, 6.45851, -65.8518, -6.11367
0.684, -1, -2.01672, 33.5292, 16.4129, 6.57781, -65.7121, -6.20297
0.688, -1, -1.94196, 33.4628, 16.4378, 6.69687, -65.5727, -6.29208
0.692, -1, -1.86736, 33.3965, 16.4627, 6.81567, -65.4336, -6.38101
0.696, -1, -1.79291, 33.3304, 16.4876, 6.93423, -65.2948, -6.46976
0.7, -1, -1.71862, 33.2645, 16.5124, 7.05254, -65.1562, -6.55832
0.704, -1, -1.64448, 33.1986, 16.5372, 7.1706, -65.018, -6.64669
0.708, -1, -1.5705, 33.1329, 16.5619, 7.28841, -64.8801, -6.73488
0.712, -1, -1.49668, 33.0674, 16.5865, 7.40597, -64.7424, -6.82288
0.716, -1, -1.42301, 33.002, 16.6111, 7.52329, -64.605, -6.9107
0.72, -1, -1.34949, 32.9367, 16.6357, 7.64036, -64.468, -6.99833
0.724, -1, -1.27614, 32.8715, 16.6602, 7.75718, -64.3312, -7.08577
0.728, -1, -1.20293, 32.8065, 16.6846, 7.87375, -64.1947, -7.17303
0.732, -1, -1.12989, 32.7417, 16.709, 7.99007, -64.0585, -7.2601
0.736, -1, -1.057, 32.677, 16.7333, 8.10615, -63.9226, -7.34699
0.74, -1, -0.984259, 32.6124, 16.7576, 8.22197, -63.7869, -7.43369
0.744, -1, -0.911678, 32.5479, 16.7819, 8.33755, -63.6516, -7.52021
0.748, -1, -0.839252, 32.4836, 16.8061, 8.45288, -63.5166, -7.60653
0.752, -1, -0.766981, 32.4194, 16.8302, 8.56796, -63.3818, -7.69268
0.756, -1, -0.694864, 32.3554, 16.8543, 8.6828, -63.2474, -7.77864
0.76, -1, -0.622901, 32.2915, 16.8783, 8.79738, -63.1132, -7.86441
0.764, -1, -0.551092, 32.2277, 16.9023, 8.91172, -62.9793, -7.95
0.768, -1, -0.479437, 32.1641, 16.9262, 9.02582, -62.8457, -8.0354
0.772, -1, -0.407935, 32.1006, 16.9501, 9.13966, -62.7124, -8.12062
0.776, -1, -0.336586, 32.0373, 16.9739, 9.25326, -62.5794, -8.20566
0.78, -1, -0.26539, 31.9741, 16.9977, 9.36662, -62.4467, -8.29051
0.784, -1, -0.194346, 31.911, 17.0214, 9.47973, -62.3142, -8.37518
0.788, -1, -0.123455, 31.848, 17.0451, 9.5926, -62.182, -8.45966
0.792, -1, -0.0527154, 31.7852, 17.0687, 9.70522, -62.0502, -8.54397
0.796, -1, 0.0178725, 31.7226, 17.0923, 9.81761, -61.9186, -8.62809
0.8, -1, 0.0883091, 31.66, 17.1158, 9.92975, -61.7873, -8.71204
0.804, -1, 0.158595, 31.5976, 17.1393, 10.0417, -61.6562, -8.7958
0.808, -1, 0.22873, 31.5353, 17.1627, 10.1533, -61.5255, -8.87938
0.812, -1, 0.298716, 31.4732, 17.186, 10.2647, -61.395, -8.96279
0.816, -1, 0.368552, 31.4112, 17.2094, 10.3759, -61.2648, -9.04602
0.82, -1, 0.438239, 31.3493, 17.2326, 10.4869, -61.1349, -9.12907
0.824, -1, 0.507778, 31.2876, 17.2559, 10.5976, -61.0053, -9.21194
0.828, -1, 0.577169, 31.226, 17.279, 10.7081, -60.8759, -9.29464
0.832, -1, 0.646413, 31.1645, 17.3021, 10.8183, -60.7468, -9.37716
0.836, -1, 0.71551, 31.1031, 17.3252, 10.9283, -60.618, -9.45951
0.84, -1, 0.78446, 31.0419, 17.3482, 11.0381, -60.4895, -9.54168
0.844, -1, 0.853265, 30.9808, 17.3712, 11.1476, -60.3612, -9.62368
0.848, -1, 0.921925, 30.9199, 17.3941, 11.2569, -60.2332, -9.7055
0.852, -1, 0.990441, 30.859, 17.417, 11.366, -60.1055, -9.78716
0.856, -1, 1.05881, 30.7983, 17.4398, 11.4749, -59.9781, -9.86864
0.86, -1, 1.12704, 30.7378, 17.4626, 11.5835, -59.8509, -9.94995
0.864, -1, 1.19512, 30.6773, 17.4854, 11.6919, -59.7239, -10.0311
0.868, -1, 1.26307, 30.617, 17.508, 11.8001, -59.5973, -10.1121
0.872, -1, 1.33087, 30.5568, 17.5307, 11.908, -59.4709, -10.1929
0.876, -1, 1.39853, 30.4967, 17.5533, 12.0157, -59.3448, -10.2735
0.88, -1, 1.46604, 30.4368, 17.5758, 12.1232, -59.2189, -10.354
0.884, -1, 1.53342, 30.377, 17.5983, 12.2305, -59.0933, -10.4343
0.888, -1, 1.60066, 30.3173, 17.6208, 12.3375, -58.9679, -10.5144
0.892, -1, 1.66775, 30.2577, 17.6432, 12.4444, -58.8429, -10.5943
0.896, -1, 1.73471, 30.1982, 17.6655, 12.551, -58.718, -10.6741
0.9, -1, 1.80153, 30.1389, 17.6878, 12.6574, -58.5935, -10.7538
0.904, -1, 1.86821, 30.0797, 17.7101, 12.7635, -58.4692, -10.8332
0.908, -1, 1.93476, 30.0206, 17.7323, 12.8695, -58.3451, -10.9125
0.912, -1, 2.00117, 29.9617, 17.7545, 12.9752, -58.2213, -10.9917
0.916, -1, 2.06744, 29.9028, 17.7766, 13.0807, -58.0978, -11.0707
0.92, -1, 2.13357, 29.8441, 17.7987, 13.186, -57.9745, -11.1495
0.924, -1, 2.19957, 29.7855, 17.8207, 13.2911, -57.8514, -11.2281
0.928, -1, 2.26543, 29.727, 17.8427, 13.3959, -57.7287, -11.3066
0.932, -1, 2.33116, 29.6687, 17.8647, 13.5006, -57.6061, -11.385
0.936, -1, 2.39676, 29.6104, 17.8866, 13.605, -57.4838, -11.4631
0.94, -1, 2.46222, 29.5523, 17.9084, 13.7092, -57.3618, -11.5412
0.944, -1, 2.52755, 29.4943, 17.9303, 13.8133, -57.24, -11.619
0.948, -1, 2.59275, 29.4364, 17.952, 13.9171, -57.1185, -11.6967
0.952, -1, 2.65781, 29.3787, 17.9738, 14.0206, -56.9972, -11.7743
0.956, -1, 2.72274, 29.321, 17.9954, 14.124, -56.8761, -11.8516
0.96, -1, 2.78755, 29.2635, 18.0171, 14.2272, -56.7553, -11.9289
0.964, -1, 2.85222, 29.2061, 18.0387, 14.3302, -56.6348, -12.0059
0.968, -1, 2.91676, 29.1488, 18.0602, 14.4329, -56.5144, -12.0829
0.972, -1, 2.98117, 29.0916, 18.0817, 14.5355, -56.3944, -12.1596
0.976, -1, 3.04545, 29.0345, 18.1032, 14.6378, -56.2745, -12.2362
0.98, -1, 3.10961, 28.9775, 18.1246, 14.7399, -56.1549, -12.3127
0.984, -1, 3.17363, 28.9207, 18.146, 14.8419, -56.0356, -12.389
0.988, -1, 3.23753, 28.864, 18.1673, 14.9436, -55.9165, -12.4651
0.992, -1, 3.3013, 28.8074, 18.1886, 15.0451, -55.7976, -12.5411
0.996, -1, 3.36494, 28.7508, 18.2099, 15.1465, -55.6789, -12.617
1, -1, 3.42846, 28.6945, 18.2311, 15.2476, -55.5605, -12.6927
1.004, -1, 3.49185, 28.6382, 18.2523, 15.3485, -55.4423, -12.7682
1.008, -1, 3.55512, 28.582, 18.2734, 15.4492, -55.3244, -12.8436
1.012, -1, 3.61826, 28.5259, 18.2945, 15.5498, -55.2067, -12.9189
1.016, -1, 3.68127, 28.47, 18.3155, 15.6501, -55.0892, -12.994
1.02, -1, 3.74416, 28.4142, 18.3365, 15.7502, -54.972, -13.0689
1.024, -1, 3.80693, 28.3584, 18.3575, 15.8502, -54.855, -13.1437
1.027, -1, 3.86958, 28.3028, 18.3784, 15.9499, -54.7382, -13.2184
1.032, -1, 3.9321, 28.2473, 18.3993, 16.0494, -54.6216, -13.2929
1.036, -1, 3.9945, 28.1919, 18.4201, 16.1488, -54.5053, -13.3673
1.04, -1, 4.05678, 28.1366, 18.4409, 16.2479, -54.3892, -13.4415
1.044, -1, 4.11893, 28.0814, 18.4616, 16.3469, -54.2733, -13.5156
1.048, -1, 4.18097, 28.0263, 18.4824, 16.4457, -54.1577, -13.5895
1.052, -1, 4.24289, 27.9714, 18.503, 16.5442, -54.0422, -13.6633
1.055, -1, 4.30468, 27.9165, 18.5237, 16.6426, -53.927, -13.7369
1.06, -1, 4.36636, 27.8617, 18.5443, 16.7408, -53.8121, -13.8104
1.064, -1, 4.42792, 27.8071, 18.5648, 16.8388, -53.6973, -13.8838
1.068, -1, 4.48936, 27.7525, 18.5853, 16.9366, -53.5828, -13.957
1.072, -1, 4.55068, 27.6981, 18.6058, 17.0343, -53.4685, -14.0301
1.076, -1, 4.61188, 27.6438, 18.6262, 17.1317, -53.3544, -14.103
1.08, -1, 4.67297, 27.5895, 18.6466, 17.229, -53.2405, -14.1758
1.084, -1, 4.73394, 27.5354, 18.667, 17.326, -53.1268, -14.2485
1.088, -1, 4.7948, 27.4814, 18.6873, 17.4229, -53.0134, -14.321
1.091, -1, 4.85554, 27.4274, 18.7076, 17.5196, -52.9002, -14.3934
1.096, -1, 4.91617, 27.3736, 18.7278, 17.6161, -52.7871, -14.4656
1.1, -1, 4.97668, 27.3199, 18.7481, 17.7125, -52.6743, -14.5378
1.104, -1, 5.03708, 27.2663, 18.7682, 17.8086, -52.5618, -14.6097
1.108, -1, 5.09737, 27.2127, 18.7883, 17.9046, -52.4494, -14.6816
1.112, -1, 5.15754, 27.1593, 18.8084, 18.0004, -52.3372, -14.7533
1.116, -1, 5.2176, 27.106, 18.8285, 18.096, -52.2253, -14.8249
1.119, -1, 5.27755, 27.0528, 18.8485, 18.1915, -52.1135, -14.8963
1.124, -1, 5.33739, 26.9996, 18.8685, 18.2867, -52.0019, -14.9676
1.128, -1, 5.39712, 26.9466, 18.8884, 18.3818, -51.8906, -15.0388
1.132, -1, 5.45673, 26.8937, 18.9083, 18.4767, -51.7795, -15.1098
1.136, -1, 5.51624, 26.8408, 18.9282, 18.5715, -51.6685, -15.1807
1.14, -1, 5.57564, 26.7881, 18.948, 18.666, -51.5578, -15.2515
1.144, -1, 5.63493, 26.7355, 18.9678, 18.7604, -51.4473, -15.3222
1.147, -1, 5.69412, 26.6829, 18.9876, 18.8547, -51.337, -15.3927
1.152, -1, 5.75319, 26.6305, 19.0073, 18.9487, -51.2268, -15.4631
1.156, -1, 5.81216, 26.5781, 19.027, 19.0426, -51.1169, -15.5334
1.16, -1, 5.87103, 26.5259, 19.0467, 19.1363, -51.0072, -15.6035
1.164, -1, 5.92979, 26.4737, 19.0663, 19.2298, -50.8976, -15.6736
1.168, -1, 5.98844, 26.4216, 19.0859, 19.3232, -50.7883, -15.7435
1.172, -1, 6.04699, 26.3696, 19.1054, 19.4164, -50.6792, -15.8132
1.175, -1, 6.10543, 26.3177, 19.1249, 19.5095, -50.5702, -15.8829
1.18, -1, 6.16377, 26.266, 19.1444, 19.6024, -50.4614, -15.9524
1.184, -1, 6.22201, 26.2142, 19.1639, 19.6951, -50.3529, -16.0218
1.188, -1, 6.28015, 26.1626, 19.1833, 19.7876, -50.2445, -16.0911
1.192, -1, 6.33818, 26.1111, 19.2027, 19.88, -50.1363, -16.1603
1.196, -1, 6.39611, 26.0597, 19.222, 19.9723, -50.0283, -16.2293
1.2, -1, 6.45394, 26.0083, 19.2413, 20.0643, -49.9205, -16.2982
1.204, -1, 6.51167, 25.9571, 19.2606, 20.1562, -49.8129, -16.367
1.208, -1, 6.5693, 25.9059, 19.2798, 20.248, -49.7055, -16.4357
1.212, -1, 6.62683, 25.8548, 19.299, 20.3396, -49.5982, -16.5042
1.216, -1, 6.68426, 25.8038, 19.3182, 20.431, -49.4912, -16.5727
1.22, -1, 6.74159, 25.7529, 19.3374, 20.5223, -49.3843, -16.641
1.224, -1, 6.79882, 25.7021, 19.3565, 20.6134, -49.2776, -16.7092
1.228, -1, 6.85596, 25.6514, 19.3756, 20.7044, -49.1711, -16.7773
1.232, -1, 6.91299, 25.6008, 19.3946, 20.7952, -49.0648, -16.8453
1.236, -1, 6.96993, 25.5502, 19.4136, 20.8858, -48.9586, -16.9131
1.24, -1, 7.02678, 25.4997, 19.4326, 20.9763, -48.8526, -16.9809
1.244, -1, 7.08352, 25.4494, 19.4515, 21.0667, -48.7469, -17.0485
1.248, -1, 7.14018, 25.3991, 19.4705, 21.1569, -48.6413, -17.116
1.252, -1, 7.19673, 25.3488, 19.4893, 21.2469, -48.5358, -17.1834
1.256, -1, 7.25319, 25.2987, 19.5082, 21.3368, -48.4306, -17.2507
1.26, -1, 7.30956, 25.2487, 19.527, 21.4266, -48.3255, -17.3179
1.264, -1, 7.36583, 25.1987, 19.5458, 21.5161, -48.2206, -17.385
1.267, -1, 7.42201, 25.1488, 19.5646, 21.6056, -48.1158, -17.4519
1.272, -1, 7.4781, 25.099, 19.5833, 21.6949, -48.0113, -17.5188
1.276, -1, 7.53409, 25.0493, 19.602, 21.784, -47.9069, -17.5855
1.28, -1, 7.58999, 24.9997, 19.6207, 21.873, -47.8027, -17.6521
1.284, -1, 7.6458, 24.9501, 19.6393, 21.9619, -47.6986, -17.7186
1.288, -1, 7.70152, 24.9007, 19.6579, 22.0506, -47.5948, -17.785
1.292, -1, 7.75715, 24.8513, 19.6765, 22.1392, -47.4911, -17.8513
1.295, -1, 7.81268, 24.802, 19.695, 22.2276, -47.3875, -17.9175
1.3, -1, 7.86813, 24.7528, 19.7135, 22.3159, -47.2842, -17.9836
1.304, -1, 7.92348, 24.7036, 19.732, 22.404, -47.181, -18.0496
1.308, -1, 7.97875, 24.6545, 19.7505, 22.492, -47.0779, -18.1154
1.312, -1, 8.03393, 24.6055, 19.7689, 22.5798, -46.9751, -18.1812
1.316, -1, 8.08901, 24.5566, 19.7873, 22.6675, -46.8724, -18.2468
1.32, -1, 8.14401, 24.5078, 19.8057, 22.7551, -46.7699, -18.3124
1.324, -1, 8.19893, 24.4591, 19.824, 22.8425, -46.6675, -18.3778
1.328, -1, 8.25375, 24.4104, 19.8423, 22.9298, -46.5653, -18.4432
1.332, -1, 8.30849, 24.3618, 19.8606, 23.017, -46.4632, -18.5084
1.336, -1, 8.36314, 24.3133, 19.8788, 23.104, -46.3614, -18.5735
1.34, -1, 8.4177, 24.2648, 19.8971, 23.1909, -46.2596, -18.6386
1.344, -1, 8.47218, 24.2165, 19.9153, 23.2776, -46.1581, -18.7035
1.348, -1, 8.52657, 24.1682, 19.9334, 23.3642, -46.0567, -18.7683
1.352, -1, 8.58088, 24.1199, 19.9515, 23.4507, -45.9554, -18.833
1.356, -1, 8.6351, 24.0718, 19.9697, 23.537, -45.8543, -18.8976
1.36, -1, 8.68923, 24.0237, 19.9877, 23.6232, -45.7534, -18.9622
1.364, -1, 8.74328, 23.9757, 20.0058, 23.7092, -45.6526, -19.0266
1.368, -1, 8.79725, 23.9278, 20.0238, 23.7952, -45.552, -19.0909
1.372, -1, 8.85114, 23.88, 20.0418, 23.881, -45.4516, -19.1551
1.376, -1, 8.90494, 23.8322, 20.0598, 23.9666, -45.3513, -19.2192
1.38, -1, 8.95866, 23.7845, 20.0777, 24.0521, -45.2511, -19.2833
1.384, -1, 9.01229, 23.7369, 20.0956, 24.1375, -45.1511, -19.3472
1.388, -1, 9.06584, 23.6894, 20.1135, 24.2228, -45.0513, -19.411
1.392, -1, 9.11932, 23.6419, 20.1314, 24.3079, -44.9516, -19.4747
1.396, -1, 9.1727, 23.5945, 20.1492, 24.393, -44.8521, -19.5384
1.4, -1, 9.22601, 23.5472, 20.167, 24.4778, -44.7527, -19.6019
1.404, -1, 9.27924, 23.4999, 20.1848, 24.5626, -44.6535, -19.6653
1.408, -1, 9.33239, 23.4527, 20.2025, 24.6472, -44.5544, -19.7287
1.412, -1, 9.38546, 23.4056, 20.2202, 24.7317, -44.4554, -19.7919
1.416, -1, 9.43844, 23.3585, 20.2379, 24.8161, -44.3567, -19.8551
1.42, -1, 9.49135, 23.3116, 20.2556, 24.9003, -44.258, -19.9181
1.424, -1, 9.54418, 23.2647, 20.2732, 24.9844, -44.1595, -19.9811
1.428, -1, 9.59693, 23.2178, 20.2908, 25.0684, -44.0612, -20.044
1.432, -1, 9.6496, 23.1711, 20.3084, 25.1523, -43.963, -20.1067
1.436, -1, 9.7022, 23.1244, 20.326, 25.236, -43.865, -20.1694
1.44, -1, 9.75472, 23.0777, 20.3435, 25.3196, -43.767, -20.232
1.444, -1, 9.80716, 23.0312, 20.361, 25.4031, -43.6693, -20.2945
1.448, -1, 9.85952, 22.9847, 20.3785, 25.4865, -43.5717, -20.3569
1.452, -1, 9.91181, 22.9383, 20.396, 25.5697, -43.4742, -20.4192
1.456, -1, 9.96403, 22.8919, 20.4134, 25.6528, -43.3769, -20.4814
1.46, -1, 10.0162, 22.8456, 20.4308, 25.7358, -43.2797, -20.5436
1.464, -1, 10.0682, 22.7994, 20.4482, 25.8187, -43.1826, -20.6056
1.468, -1, 10.1202, 22.7533, 20.4656, 25.9015, -43.0857, -20.6676
1.472, -1, 10.1721, 22.7072, 20.4829, 25.9841, -42.989, -20.7294
1.476, -1, 10.224, 22.6612, 20.5002, 26.0666, -42.8923, -20.7912
1.48, -1, 10.2757, 22.6152, 20.5175, 26.149, -42.7958, -20.8529
1.484, -1, 10.3274, 22.5693, 20.5348, 26.2313, -42.6995, -20.9145
1.488, -1, 10.379, 22.5235, 20.552, 26.3135, -42.6033, -20.976
1.492, -1, 10.4306, 22.4777, 20.5692, 26.3956, -42.5072, -21.0374
1.496, -1, 10.482, 22.432, 20.5864, 26.4775, -42.4113, -21.0987
1.5, -1, 10.5334, 22.3864, 20.6035, 26.5593, -42.3154, -21.16
1.504, -1, 10.5848, 22.3408, 20.6207, 26.641, -42.2198, -21.2212
1.508, -1, 10.636, 22.2953, 20.6378, 26.7226, -42.1242, -21.2822
1.512, -1, 10.6872, 22.2499, 20.6549, 26.8041, -42.0288, -21.3432
1.516, -1, 10.7383, 22.2045, 20.6719, 26.8855, -41.9336, -21.4041
1.52, -1, 10.7893, 22.1592, 20.689, 26.9667, -41.8384, -21.4649
1.524, -1, 10.8403, 22.114, 20.706, 27.0479, -41.7434, -21.5257
1.528, -1, 10.8912, 22.0688, 20.723, 27.1289, -41.6485, -21.5863
1.532, -1, 10.942, 22.0237, 20.74, 27.2098, -41.5538, -21.6469
1.536, -1, 10.9928, 21.9786, 20.7569, 27.2906, -41.4592, -21.7074
1.54, -1, 11.0435, 21.9336, 20.7738, 27.3713, -41.3647, -21.7678
1.544, -1, 11.0941, 21.8887, 20.7908, 27.4519, -41.2703, -21.8281
1.548, -1, 11.1446, 21.8438, 20.8076, 27.5324, -41.1761, -21.8884
1.552, -1, 11.1951, 21.799, 20.8245, 27.6127, -41.082, -21.9485
1.556, -1, 11.2455, 21.7542, 20.8413, 27.693, -40.988, -22.0086
1.56, -1, 11.2959, 21.7095, 20.8581, 27.7732, -40.8941, -22.0686
1.564, -1, 11.3462, 21.6649, 20.8749, 27.8532, -40.8004, -22.1285
1.568, -1, 11.3964, 21.6203, 20.8917, 27.9331, -40.7068, -22.1884
1.572, -1, 11.4465, 21.5758, 20.9084, 28.013, -40.6133, -22.2481
1.576, -1, 11.4966, 21.5313, 20.9251, 28.0927, -40.52, -22.3078
1.58, -1, 11.5466, 21.4869, 20.9418, 28.1723, -40.4268, -22.3674
1.584, -1, 11.5965, 21.4426, 20.9585, 28.2518, -40.3336, -22.4269
1.588, -1, 11.6464, 21.3983, 20.9752, 28.3313, -40.2407, -22.4864
1.592, -1, 11.6962, 21.3541, 20.9918, 28.4106, -40.1478, -22.5457
1.596, -1, 11.746, 21.3099, 21.0084, 28.4898, -40.0551, -22.605
1.6, -1, 11.7957, 21.2658, 21.025, 28.5689, -39.9624, -22.6642
1.604, -1, 11.8453, 21.2217, 21.0416, 28.6479, -39.8699, -22.7234
1.608, -1, 11.8948, 21.1778, 21.0581, 28.7268, -39.7776, -22.7824
1.612, -1, 11.9443, 21.1338, 21.0747, 28.8055, -39.6853, -22.8414
1.616, -1, 11.9938, 21.0899, 21.0912, 28.8842, -39.5932, -22.9003
1.62, -1, 12.0431, 21.0461, 21.1076, 28.9628, -39.5011, -22.9591
1.624, -1, 12.0924, 21.0023, 21.1241, 29.0413, -39.4092, -23.0179
1.628, -1, 12.1417, 20.9586, 21.1405, 29.1197, -39.3174, -23.0765
1.632, -1, 12.1908, 20.915, 21.157, 29.198, -39.2258, -23.1352
1.636, -1, 12.2399, 20.8714, 21.1734, 29.2762, -39.1342, -23.1937
1.64, -1, 12.289, 20.8278, 21.1897, 29.3543, -39.0428, -23.2521
1.644, -1, 12.338, 20.7843, 21.2061, 29.4323, -38.9515, -23.3105
1.648, -1, 12.3869, 20.7409, 21.2224, 29.5102, -38.8603, -23.3688
1.652, -1, 12.4358, 20.6975, 21.2388, 29.588, -38.7692, -23.4271
1.656, -1, 12.4846, 20.6542, 21.2551, 29.6657, -38.6782, -23.4852
1.66, -1, 12.5333, 20.6109, 21.2713, 29.7433, -38.5873, -23.5433
1.664, -1, 12.582, 20.5677, 21.2876, 29.8208, -38.4966, -23.6013
1.668, -1, 12.6306, 20.5245, 21.3038, 29.8982, -38.4059, -23.6593
1.672, -1, 12.6792, 20.4814, 21.32, 29.9755, -38.3154, -23.7171
1.676, -1, 12.7277, 20.4384, 21.3362, 30.0527, -38.225, -23.7749
1.68, -1, 12.7761, 20.3953, 21.3524, 30.1298, -38.1347, -23.8327
1.684, -1, 12.8245, 20.3524, 21.3686, 30.2069, -38.0445, -23.8903
1.688, -1, 12.8728, 20.3095, 21.3847, 30.2838, -37.9544, -23.9479
1.692, -1, 12.9211, 20.2666, 21.4008, 30.3606, -37.8644, -24.0054
1.696, -1, 12.9693, 20.2238, 21.4169, 30.4374, -37.7746, -24.0629
1.7, -1, 13.0174, 20.1811, 21.433, 30.514, -37.6848, -24.1203
1.704, -1, 13.0655, 20.1384, 21.449, 30.5906, -37.5951, -24.1776
1.708, -1, 13.1136, 20.0958, 21.4651, 30.6671, -37.5056, -24.2348
1.712, -1, 13.1615, 20.0532, 21.4811, 30.7435, -37.4162, -24.292
1.716, -1, 13.2094, 20.0106, 21.4971, 30.8197, -37.3269, -24.3491
1.72, -1, 13.2573, 19.9681, 21.5131, 30.8959, -37.2376, -24.4061
1.724, -1, 13.3051, 19.9257, 21.529, 30.972, -37.1485, -24.4631
1.728, -1, 13.3528, 19.8833, 21.545, 31.0481, -37.0595, -24.52
1.732, -1, 13.4005, 19.841, 21.5609, 31.124, -36.9706, -24.5768
1.736, -1, 13.4482, 19.7987, 21.5768, 31.1998, -36.8818, -24.6336
1.74, -1, 13.4957, 19.7565, 21.5927, 31.2756, -36.7931, -24.6903
1.744, -1, 13.5433, 19.7143, 21.6086, 31.3512, -36.7045, -24.7469
1.748, -1, 13.5907, 19.6721, 21.6244, 31.4268, -36.6161, -24.8035
1.752, -1, 13.6381, 19.63, 21.6402, 31.5023, -36.5277, -24.86
1.756, -1, 13.6855, 19.588, 21.6561, 31.5776, -36.4394, -24.9164
1.76, -1, 13.7328, 19.546, 21.6719, 31.6529, -36.3512, -24.9728
1.764, -1, 13.78, 19.5041, 21.6876, 31.7282, -36.2632, -25.0291
1.768, -1, 13.8272, 19.4622, 21.7034, 31.8033, -36.1752, -25.0853
1.772, -1, 13.8743, 19.4203, 21.7191, 31.8783, -36.0873, -25.1415
1.776, -1, 13.9214, 19.3785, 21.7348, 31.9533, -35.9996, -25.1976
1.78, -1, 13.9684, 19.3368, 21.7505, 32.0281, -35.9119, -25.2536
1.784, -1, 14.0154, 19.2951, 21.7662, 32.1029, -35.8243, -25.3096
1.788, -1, 14.0623, 19.2534, 21.7819, 32.1776, -35.7369, -25.3655
1.792, -1, 14.1092, 19.2118, 21.7975, 32.2522, -35.6495, -25.4214
1.796, -1, 14.156, 19.1703, 21.8132, 32.3268, -35.5622, -25.4772
1.8, -1, 14.2027, 19.1288, 21.8288, 32.4012, -35.4751, -25.5329
1.804, -1, 14.2494, 19.0873, 21.8444, 32.4756, -35.388, -25.5886
1.808, -1, 14.2961, 19.0459, 21.86, 32.5498, -35.301, -25.6442
1.812, -1, 14.3427, 19.0045, 21.8755, 32.624, -35.2142, -25.6997
1.816, -1, 14.3892, 18.9632, 21.8911, 32.6981, -35.1274, -25.7552
1.82, -1, 14.4357, 18.9219, 21.9066, 32.7722, -35.0407, -25.8106
1.824, -1, 14.4822, 18.8807, 21.9221, 32.8461, -34.9541, -25.8659
1.828, -1, 14.5286, 18.8395, 21.9376, 32.92, -34.8676, -25.9212
1.832, -1, 14.5749, 18.7983, 21.9531, 32.9938, -34.7813, -25.9764
1.836, -1, 14.6212, 18.7572, 21.9685, 33.0675, -34.695, -26.0316
1.84, -1, 14.6674, 18.7162, 21.984, 33.1411, -34.6088, -26.0867
1.844, -1, 14.7136, 18.6752, 21.9994, 33.2146, -34.5227, -26.1418
1.848, -1, 14.7598, 18.6342, 22.0148, 33.2881, -34.4367, -26.1967
1.852, -1, 14.8058, 18.5933, 22.0302, 33.3614, -34.3507, -26.2517
1.856, -1, 14.8519, 18.5524, 22.0456, 33.4347, -34.2649, -26.3065
1.86, -1, 14.8979, 18.5116, 22.0609, 33.5079, -34.1792, -26.3613
1.864, -1, 14.9438, 18.4708, 22.0762, 33.5811, -34.0936, -26.4161
1.868, -1, 14.9897, 18.4301, 22.0916, 33.6541, -34.008, -26.4708
1.872, -1, 15.0355, 18.3894, 22.1069, 33.7271, -33.9226, -26.5254
1.876, -1, 15.0813, 18.3487, 22.1222, 33.8, -33.8372, -26.58
1.88, -1, 15.127, 18.3081, 22.1374, 33.8728, -33.7519, -26.6345
1.884, -1, 15.1727, 18.2676, 22.1527, 33.9456, -33.6668, -26.6889
1.888, -1, 15.2184, 18.227, 22.1679, 34.0182, -33.5817, -26.7433
1.892, -1, 15.264, 18.1866, 22.1832, 34.0908, -33.4967, -26.7976
1.896, -1, 15.3095, 18.1461, 22.1984, 34.1633, -33.4118, -26.8519
1.9, -1, 15.355, 18.1057, 22.2136, 34.2358, -33.3269, -26.9062
1.904, -1, 15.4004, 18.0654, 22.2287, 34.3081, -33.2422, -26.9603
1.908, -1, 15.4458, 18.0251, 22.2439, 34.3804, -33.1576, -27.0144
1.912, -1, 15.4912, 17.9848, 22.259, 34.4526, -33.073, -27.0685
1.916, -1, 15.5365, 17.9446, 22.2742, 34.5248, -32.9886, -27.1225
1.92, -1, 15.5818, 17.9044, 22.2893, 34.5968, -32.9042, -27.1764
1.924, -1, 15.627, 17.8643, 22.3044, 34.6688, -32.8199, -27.2303
1.928, -1, 15.6721, 17.8242, 22.3195, 34.7407, -32.7357, -27.2841
1.932, -1, 15.7173, 17.7841, 22.3345, 34.8126, -32.6516, -27.3379
1.936, -1, 15.7623, 17.7441, 22.3496, 34.8843, -32.5676, -27.3916
1.94, -1, 15.8073, 17.7041, 22.3646, 34.956, -32.4836, -27.4453
1.944, -1, 15.8523, 17.6642, 22.3796, 35.0276, -32.3997, -27.4989
1.948, -1, 15.8973, 17.6243, 22.3946, 35.0992, -32.316, -27.5524
1.952, -1, 15.9422, 17.5844, 22.4096, 35.1707, -32.2323, -27.6059
1.956, -1, 15.987, 17.5446, 22.4246, 35.2421, -32.1487, -27.6594
1.96, -1, 16.0318, 17.5048, 22.4396, 35.3134, -32.0652, -27.7128
1.964, -1, 16.0765, 17.4651, 22.4545, 35.3846, -31.9817, -27.7661
1.968, -1, 16.1212, 17.4254, 22.4694, 35.4558, -31.8984, -27.8194
1.972, -1, 16.1659, 17.3858, 22.4844, 35.5269, -31.8151, -27.8726
1.976, -1, 16.2105, 17.3461, 22.4993, 35.598, -31.7319, -27.9258
1.98, -1, 16.2551, 17.3066, 22.5141, 35.6689, -31.6488, -27.9789
1.984, -1, 16.2996, 17.267, 22.529, 35.7398, -31.5658, -28.032
1.988, -1, 16.3441, 17.2275, 22.5439, 35.8107, -31.4829, -28.085
1.992, -1, 16.3886, 17.1881, 22.5587, 35.8814, -31.4, -28.138
1.996, -1, 16.433, 17.1487, 22.5735, 35.9521, -31.3173, -28.1909
1.999, -1, 16.4773, 17.1093, 22.5883, 36.0228, -31.2346, -28.2438
2.004, -1, 16.5216, 17.0699, 22.6031, 36.0933, -31.1519, -28.2966
2.008, -1, 16.5659, 17.0306, 22.6179, 36.1638, -31.0694, -28.3493
2.012, -1, 16.6101, 16.9914, 22.6327, 36.2342, -30.987, -28.4021
2.015, -1, 16.6543, 16.9521, 22.6474, 36.3046, -30.9046, -28.4547
2.019, -1, 16.6984, 16.9129, 22.6622, 36.3748, -30.8223, -28.5073
2.024, -1, 16.7425, 16.8738, 22.6769, 36.445, -30.7401, -28.5599
2.028, -1, 16.7866, 16.8347, 22.6916, 36.5152, -30.658, -28.6124
2.031, -1, 16.8306, 16.7956, 22.7063, 36.5853, -30.5759, -28.6648
2.036, -1, 16.8746, 16.7566, 22.721, 36.6553, -30.4939, -28.7172
2.04, -1, 16.9185, 16.7176, 22.7357, 36.7252, -30.412, -28.7696
2.044, -1, 16.9624, 16.6786, 22.7503, 36.7951, -30.3302, -28.8219
2.048, -1, 17.0062, 16.6397, 22.765, 36.8649, -30.2485, -28.8742
2.051, -1, 17.05, 16.6008, 22.7796, 36.9346, -30.1668, -28.9264
2.055, -1, 17.0938, 16.5619, 22.7942, 37.0043, -30.0852, -28.9785
2.06, -1, 17.1375, 16.5231, 22.8088, 37.0739, -30.0037, -29.0306
2.064, -1, 17.1811, 16.4844, 22.8234, 37.1435, -29.9223, -29.0827
2.068, -1, 17.2244, 16.4458, 22.8379, 37.2129, -29.841, -29.1347
2.071, -1, 17.2671, 16.4077, 22.8523, 37.2823, -29.7597, -29.1866
2.076, -1, 17.3088, 16.3701, 22.8666, 37.3515, -29.6787, -29.2384
2.08, -1, 17.3495, 16.3335, 22.8807, 37.4204, -29.5981, -29.29
2.084, -1, 17.3888, 16.2979, 22.8945, 37.4888, -29.518, -29.3412
2.087, -1, 17.4267, 16.2635, 22.9079, 37.5564, -29.4389, -29.3918
2.092, -1, 17.4632, 16.2306, 22.921, 37.6229, -29.3611, -29.4417
2.096, -1, 17.4983, 16.1992, 22.9337, 37.6879, -29.2851, -29.4903
2.1, -1, 17.5321, 16.1694, 22.9459, 37.7508, -29.2115, -29.5374
2.104, -1, 17.5644, 16.1411, 22.9576, 37.8112, -29.1408, -29.5827
2.107, -1, 17.5951, 16.1145, 22.9686, 37.8686, -29.0737, -29.6257
2.111, -1, 17.624, 16.0896, 22.9791, 37.9226, -29.0106, -29.6661
2.116, -1, 17.6513, 16.0662, 22.9888, 37.9726, -28.9521, -29.7035
2.12, -1, 17.6768, 16.044, 22.9978, 38.0183, -28.8986, -29.7378
2.124, -1, 17.7009, 16.023, 23.0061, 38.0595, -28.8504, -29.7686
2.127, -1, 17.7234, 16.0029, 23.0136, 38.0959, -28.8078, -29.7958
2.132, -1, 17.7446, 15.9838, 23.0205, 38.1275, -28.7707, -29.8195
2.136, -1, 17.7642, 15.9657, 23.0267, 38.1546, -28.739, -29.8397
2.14, -1, 17.7823, 15.9489, 23.0321, 38.1772, -28.7125, -29.8566
2.143, -1, 17.7986, 15.9337, 23.0368, 38.1957, -28.6907, -29.8705
2.148, -1, 17.8131, 15.9202, 23.0409, 38.2106, -28.6732, -29.8816
2.152, -1, 17.8259, 15.9085, 23.0443, 38.2223, -28.6594, -29.8904
2.156, -1, 17.8371, 15.8987, 23.0471, 38.2313, -28.6488, -29.8971
2.16, -1, 17.8467, 15.8905, 23.0494, 38.2381, -28.6409, -29.9021
2.163, -1, 17.855, 15.8838, 23.0513, 38.243, -28.635, -29.9058
2.168, -1, 17.8619, 15.8785, 23.0527, 38.2465, -28.6308, -29.9084
2.172, -1, 17.8674, 15.8744, 23.0538, 38.249, -28.6279, -29.9103
2.176, 2, 17.8716, 15.8714, 23.0546, 38.2507, -28.6258, -29.9115
2.179, 2, 17.8747, 15.8692, 23.0552, 38.2519, -28.6245, -29.9124
2.184, 2, 17.8769, 15.8677, 23.0556, 38.2527, -28.6235, -29.913
2.188, 2, 17.8784, 15.8667, 23.0558, 38.2532, -28.6229, -29.9134
2.192, 2, 17.8794, 15.866, 23.056, 38.2536, -28.6224, -29.9137
2.196, 2, 17.8801, 15.8655, 23.0561, 38.2538, -28.6221, -29.9138
2.199, 2, 17.8806, 15.8652, 23.0562, 38.254, -28.6219, -29.914
2.204, 2, 17.8809, 15.865, 23.0563, 38.2541, -28.6218, -29.9141
2.208, 2, 17.8811, 15.8649, 23.0563, 38.2542, -28.6217, -29.9141
2.212, 2, 17.8813, 15.8648, 23.0563, 38.2543, -28.6217, -29.9141
2.216, 2, 17.8814, 15.8647, 23.0564, 38.2543, -28.6216, -29.9142
2.219, 2, 17.8814, 15.8646, 23.0564, 38.2543, -28.6216, -29.9142
2.224, 2, 17.8815, 15.8646, 23.0564, 38.2543, -28.6216, -29.9142
2.228, 2, 17.8815, 15.8646, 23.0564, 38.2543, -28.6215, -29.9142
2.232, 2, 17.8815, 15.8646, 23.0564, 38.2543, -28.6215, -29.9142
2.235, 2, 17.8815, 15.8646, 23.0564, 38.2544, -28.6215, -29.9142
2.24, 2, 17.8815, 15.8646, 23.0564, 38.2544, -28.6215, -29.9142
2.244, 2, 17.8816, 15.8646, 23.0564, 38.2544, -28.6215, -29.9142
2.248, 2, 17.8816, 15.8646, 23.0564, 38.2544, -28.6215, -29.9142
2.252, 2, 17.8816, 15.8646, 23.0564, 38.2544, -28.6215, -29.9142
2.255, 2, 17.8816, 15.8646, 23.0564, 38.2544, -28.6215, -29.9142
2.259, 2, 17.8816, 15.8646, 23.0564, 38.2544, -28.6215, -29.9142
2.264, 2, 17.8816, 15.8645, 23.0564, 38.2544, -28.6215, -29.9142
2.268, 2, 17.8816, 15.8645, 23.0564, 38.2544, -28.6215, -29.9142
2.272, 2, 17.8816, 15.8645, 23.0564, 38.2544, -28.6215, -29.9142
2.275, 2, 17.8816, 15.8645, 23.0564, 38.2544, -28.6215, -29.9142
2.28, 2, 17.8816, 15.8645, 23.0564, 38.2544, -28.6215, -29.9142
2.284, 2, 17.8816, 15.8645, 23.0564, 38.2544, -28.6215, -29.9142
2.288, 2, 17.8816, 15.8645, 23.0564, 38.2544, -28.6215, -29.9142
2.291, 2, 17.8816, 15.8645, 23.0564, 38.2544, -28.6215, -29.9142
2.296, 2, 17.8816, 15.8645, 23.0564, 38.2544, -28.6215, -29.9142
2.3, 2, 17.8816, 15.8645, 23.0564, 38.2544, -28.6215, -29.9142
2.304, 2, 17.8816, 15.8645, 23.0564, 38.2544, -28.6215, -29.9142
2.308, 2, 17.8816, 15.8645, 23.0564, 38.2544, -28.6215, -29.9142
2.311, 2, 17.8816, 15.8645, 23.0564, 38.2544, -28.6215, -29.9142
2.316, 2, 17.8816, 15.8645, 23.0564, 38.2544, -28.6215, -29.9142
2.32, 2, 17.8816, 15.8645, 23.0564, 38.2544, -28.6215, -29.9142
2.324, 2, 17.8816, 15.8645, 23.0564, 38.2544, -28.6215, -29.9142
2.328, 2, 17.8816, 15.8645, 23.0564, 38.2544, -28.6215, -29.9142
2.331, 2, 17.8816, 15.8645, 23.0564, 38.2544, -28.6215, -29.9142
2.336, 2, 17.8816, 15.8645, 23.0564, 38.2544, -28.6215, -29.9142
2.34, 2, 17.8816, 15.8645, 23.0564, 38.2544, -28.6215, -29.9142
2.344, 2, 17.8816, 15.8645, 23.0564, 38.2544, -28.6215, -29.9142
2.347, 2, 17.8816, 15.8645, 23.0564, 38.2544, -28.6215, -29.9142
2.352, 2, 17.8816, 15.8645, 23.0564, 38.2544, -28.6215, -29.9142
2.356, 2, 17.8816, 15.8645, 23.0564, 38.2544, -28.6215, -29.9142
2.36, 2, 17.8816, 15.8645, 23.0564, 38.2544, -28.6215, -29.9142
2.364, 2, 17.8816, 15.8645, 23.0564, 38.2544, -28.6215, -29.9142
2.367, 2, 17.8816, 15.8645, 23.0564, 38.2544, -28.6215, -29.9142
2.372, 2, 17.8816, 15.8645, 23.0564, 38.2544, -28.6215, -29.9142
2.376, 2, 17.8816, 15.8645, 23.0564, 38.2544, -28.6215, -29.9142
2.38, 2, 17.8816, 15.8645, 23.0564, 38.2544, -28.6215, -29.9142
2.383, 2, 17.8816, 15.8645, 23.0564, 38.2544, -28.6215, -29.9142
2.388, 2, 17.8816, 15.8645, 23.0564, 38.2544, -28.6215, -29.9142
2.392, 2, 17.8816, 15.8645, 23.0564, 38.2544, -28.6215, -29.9142
2.396, 2, 17.8816, 15.8645, 23.0564, 38.2544, -28.6215, -29.9142
2.4, 2, 17.8816, 15.8645, 23.0564, 38.2544, -28.6215, -29.9142
2.403, 2, 17.8816, 15.8645, 23.0564, 38.2544, -28.6215, -29.9142
2.408, 2, 17.8816, 15.8645, 23.0564, 38.2544, -28.6215, -29.9142
2.412, 2, 17.8816, 15.8645, 23.0564, 38.2544, -28.6215, -29.9142
2.416, 2, 17.8816, 15.8645, 23.0564, 38.2544, -28.6215, -29.9142
2.42, 2, 17.8816, 15.8645, 23.0564, 38.2544, -28.6215, -29.9142
2.423, 2, 17.8816, 15.8645, 23.0564, 38.2544, -28.6215, -29.9142
2.428, 2, 17.8816, 15.8645, 23.0564, 38.2544, -28.6215, -29.9142
2.432, 2, 17.8816, 15.8645, 23.0564, 38.2544, -28.6215, -29.9142
2.436, 2, 17.8816, 15.8645, 23.0564, 38.2544, -28.6215, -29.9142
2.439, 2, 17.8816, 15.8645, 23.0564, 38.2544, -28.6215, -29.9142
2.444, 2, 17.8816, 15.8645, 23.0564, 38.2544, -28.6215, -29.9142
2.448, 2, 17.8816, 15.8645, 23.0564, 38.2544, -28.6215, -29.9142
2.452, 2, 17.8816, 15.8645, 23.0564, 38.2544, -28.6215, -29.9142
2.456, 2, 17.8816, 15.8645, 23.0564, 38.2544, -28.6215, -29.9142
2.459, 2, 17.8816, 15.8645, 23.0564, 38.2544, -28.6215, -29.9142
2.464, 2, 17.8816, 15.8645, 23.0564, 38.2544, -28.6215, -29.9142
2.468, 2, 17.8816, 15.8645, 23.0564, 38.2544, -28.6215, -29.9142
2.472, 2, 17.8816, 15.8645, 23.0564, 38.2544, -28.6215, -29.9142
2.476, 2, 17.8816, 15.8645, 23.0564, 38.2544, -28.6215, -29.9142
2.479, 2, 17.8816, 15.8645, 23.0564, 38.2544, -28.6215, -29.9142
2.484, 2, 17.8816, 15.8645, 23.0564, 38.2544, -28.6215, -29.9142
2.488, 2, 17.8816, 15.8645, 23.0564, 38.2544, -28.6215, -29.9142
2.492, 2, 17.8816, 15.8645, 23.0564, 38.2544, -28.6215, -29.9142
2.495, 2, 17.8816, 15.8645, 23.0564, 38.2544, -28.6215, -29.9142
2.5, 2, 17.8816, 15.8645, 23.0564, 38.2544, -28.6215, -29.9142
2.504, 2, 17.8816, 15.8645, 23.0564, 38.2544, -28.6215, -29.9142
2.508, 2, 17.8816, 15.8645, 23.0564, 38.2544, -28.6215, -29.9142
2.512, 2, 17.8816, 15.8645, 23.0564, 38.2544, -28.6215, -29.9142
2.515, 2, 17.8816, 15.8645, 23.0564, 38.2544, -28.6215, -29.9142
2.52, 2, 17.8816, 15.8645, 23.0564, 38.2544, -28.6215, -29.9142
2.524, 2, 17.8816, 15.8645, 23.0564, 38.2544, -28.6215, -29.9142
2.528, 2, 17.8816, 15.8645, 23.0564, 38.2544, -28.6215, -29.9142
2.531, 2, 17.8816, 15.8645, 23.0564, 38.2544, -28.6215, -29.9142
2.536, 2, 17.8816, 15.8645, 23.0564, 38.2544, -28.6215, -29.9142
2.54, 2, 17.8816, 15.8645, 23.0564, 38.2544, -28.6215, -29.9142
2.544, 2, 17.8816, 15.8645, 23.0564, 38.2544, -28.6215, -29.9142
2.548, 2, 17.8816, 15.8645, 23.0564, 38.2544, -28.6215, -29.9142
2.551, 2, 17.8816, 15.8645, 23.0564, 38.2544, -28.6215, -29.9142
2.556, 2, 17.8816, 15.8645, 23.0564, 38.2544, -28.6215, -29.9142
2.56, 2, 17.8816, 15.8645, 23.0564, 38.2544, -28.6215, -29.9142
2.564, 2, 17.8816, 15.8645, 23.0564, 38.2544, -28.6215, -29.9142
2.568, 2, 17.8816, 15.8645, 23.0564, 38.2544, -28.6215, -29.9142
2.571, 2, 17.8816, 15.8645, 23.0564, 38.2544, -28.6215, -29.9142
2.576, 2, 17.8816, 15.8645, 23.0564, 38.2544, -28.6215, -29.9142
2.58, 2, 17.8816, 15.8645, 23.0564, 38.2544, -28.6215, -29.9142
2.584, 2, 17.8816, 15.8645, 23.0564, 38.2544, -28.6215, -29.9142
2.587, 2, 17.8816, 15.8645, 23.0564, 38.2544, -28.6215, -29.9142
2.592, 2, 17.8816, 15.8645, 23.0564, 38.2544, -28.6215, -29.9142
2.596, 2, 17.8816, 15.8645, 23.0564, 38.2544, -28.6215, -29.9142
2.6, 2, 17.8816, 15.8645, 23.0564, 38.2544, -28.6215, -29.9142
2.604, 2, 17.8816, 15.8645, 23.0564, 38.2544, -28.6215, -29.9142
2.607, 2, 17.8816, 15.8645, 23.0564, 38.2544, -28.6215, -29.9142
2.612, 2, 17.8816, 15.8645, 23.0564, 38.2544, -28.6215, -29.9142
2.616, 2, 17.8816, 15.8645, 23.0564, 38.2544, -28.6215, -29.9142
2.62, 2, 17.8816, 15.8645, 23.0564, 38.2544, -28.6215, -29.9142
2.624, 2, 17.8816, 15.8645, 23.0564, 38.2544, -28.6215, -29.9142
2.627, 2, 17.8816, 15.8645, 23.0564, 38.2544, -28.6215, -29.9142
2.632, 2, 17.8816, 15.8645, 23.0564, 38.2544, -28.6215, -29.9142
2.636, 2, 17.8816, 15.8645, 23.0564, 38.2544, -28.6215, -29.9142
2.64, 2, 17.8816, 15.8645, 23.0564, 38.2544, -28.6215, -29.9142
2.643, 2, 17.8816, 15.8645, 23.0564, 38.2544, -28.6215, -29.9142
2.648, 2, 17.8816, 15.8645, 23.0564, 38.2544, -28.6215, -29.9142
2.652, 2, 17.8816, 15.8645, 23.0564, 38.2544, -28.6215, -29.9142
2.656, 2, 17.8816, 15.8645, 23.0564, 38.2544, -28.6215, -29.9142
2.66, 2, 17.8816, 15.8645, 23.0564, 38.2544, -28.6215, -29.9142
2.663, 2, 17.8816, 15.8645, 23.0564, 38.2544, -28.6215, -29.9142
2.668, 2, 17.8816, 15.8645, 23.0564, 38.2544, -28.6215, -29.9142
2.672, 2, 17.8816, 15.8645, 23.0564, 38.2544, -28.6215, -29.9142
2.676, 2, 17.8816, 15.8645, 23.0564, 38.2544, -28.6215, -29.9142
2.679, 2, 17.8816, 15.8645, 23.0564, 38.2544, -28.6215, -29.9142
2.684, 2, 17.8816, 15.8645, 23.0564, 38.2544, -28.6215, -29.9142
2.688, 2, 17.8816, 15.8645, 23.0564, 38.2544, -28.6215, -29.9142
2.692, 2, 17.8816, 15.8645, 23.0564, 38.2544, -28.6215, -29.9142
2.696, 2, 17.8816, 15.8645, 23.0564, 38.2544, -28.6215, -29.9142
2.699, 2, 17.8816, 15.8645, 23.0564, 38.2544, -28.6215, -29.9142
2.704, 2, 17.8816, 15.8645, 23.0564, 38.2544, -28.6215, -29.9142
2.708, 2, 17.8816, 15.8645, 23.0564, 38.2544, -28.6215, -29.9142
2.712, 2, 17.8816, 15.8645, 23.0564, 38.2544, -28.6215, -29.9142
2.716, 2, 17.8816, 15.8645, 23.0564, 38.2544, -28.6215, -29.9142
2.719, 2, 17.8816, 15.8645, 23.0564, 38.2544, -28.6215, -29.9142
2.724, 2, 17.8816, 15.8645, 23.0564, 38.2544, -28.6215, -29.9142
2.728, 2, 17.8816, 15.8645, 23.0564, 38.2544, -28.6215, -29.9142
2.732, 2, 17.8816, 15.8645, 23.0564, 38.2544, -28.6215, -29.9142
2.735, 2, 17.8816, 15.8645, 23.0564, 38.2544, -28.6215, -29.9142
2.74, 2, 17.8816, 15.8645, 23.0564, 38.2544, -28.6215, -29.9142
2.744, 2, 17.8816, 15.8645, 23.0564, 38.2544, -28.6215, -29.9142
2.748, 2, 17.8816, 15.8645, 23.0564, 38.2544, -28.6215, -29.9142
2.752, 2, 17.8816, 15.8645, 23.0564, 38.2544, -28.6215, -29.9142
2.755, 2, 17.8816, 15.8645, 23.0564, 38.2544, -28.6215, -29.9142
2.76, 2, 17.8816, 15.8645, 23.0564, 38.2544, -28.6215, -29.9142
2.764, 2, 17.8816, 15.8645, 23.0564, 38.2544, -28.6215, -29.9142
2.768, 2, 17.8816, 15.8645, 23.0564, 38.2544, -28.6215, -29.9142
2.772, 2, 17.8816, 15.8645, 23.0564, 38.2544, -28.6215, -29.9142
2.775, 2, 17.8816, 15.8645, 23.0564, 38.2544, -28.6215, -29.9142
2.78, 2, 17.8816, 15.8645, 23.0564, 38.2544, -28.6215, -29.9142
2.784, 2, 17.8816, 15.8645, 23.0564, 38.2544, -28.6215, -29.9142
2.788, 2, 17.8816, 15.8645, 23.0564, 38.2544, -28.6215, -29.9142
2.791, 2, 17.8816, 15.8645, 23.0564, 38.2544, -28.6215, -29.9142
2.796, 2, 17.8816, 15.8645, 23.0564, 38.2544, -28.6215, -29.9142
2.8, 2, 17.8816, 15.8645, 23.0564, 38.2544, -28.6215, -29.9142
2.804, 2, 17.8816, 15.8645, 23.0564, 38.2544, -28.6215, -29.9142
2.808, 2, 17.8816, 15.8645, 23.0564, 38.2544, -28.6215, -29.9142
2.811, 2, 17.8816, 15.8645, 23.0564, 38.2544, -28.6215, -29.9142
2.816, 2, 17.8816, 15.8645, 23.0564, 38.2544, -28.6215, -29.9142
2.82, 2, 17.8816, 15.8645, 23.0564, 38.2544, -28.6215, -29.9142
2.824, 2, 17.8816, 15.8645, 23.0564, 38.2544, -28.6215, -29.9142
2.828, 2, 17.8816, 15.8645, 23.0564, 38.2544, -28.6215, -29.9142
2.831, 2, 17.8816, 15.8645, 23.0564, 38.2544, -28.6215, -29.9142
2.836, 2, 17.8816, 15.8645, 23.0564, 38.2544, -28.6215, -29.9142
2.84, 2, 17.8816, 15.8645, 23.0564, 38.2544, -28.6215, -29.9142
2.844, 2, 17.8816, 15.8645, 23.0564, 38.2544, -28.6215, -29.9142
2.847, 2, 17.8816, 15.8645, 23.0564, 38.2544, -28.6215, -29.9142
2.852, 2, 17.8816, 15.8645, 23.0564, 38.2544, -28.6215, -29.9142
2.856, 2, 17.8816, 15.8645, 23.0564, 38.2544, -28.6215, -29.9142
2.86, 2, 17.8816, 15.8645, 23.0564, 38.2544, -28.6215, -29.9142
2.864, 2, 17.8816, 15.8645, 23.0564, 38.2544, -28.6215, -29.9142
2.867, 2, 17.8816, 15.8645, 23.0564, 38.2544, -28.6215, -29.9142
2.872, 2, 17.8816, 15.8645, 23.0564, 38.2544, -28.6215, -29.9142
2.876, 2, 17.8816, 15.8645, 23.0564, 38.2544, -28.6215, -29.9142
2.88, 2, 17.8816, 15.8645, 23.0564, 38.2544, -28.6215, -29.9142
2.883, 2, 17.8816, 15.8645, 23.0564, 38.2544, -28.6215, -29.9142
2.888, 2, 17.8816, 15.8645, 23.0564, 38.2544, -28.6215, -29.9142
2.892, 2, 17.8816, 15.8645, 23.0564, 38.2544, -28.6215, -29.9142
2.896, 2, 17.8816, 15.8645, 23.0564, 38.2544, -28.6215, -29.9142
2.9, 2, 17.8816, 15.8645, 23.0564, 38.2544, -28.6215, -29.9142
2.903, 2, 17.8816, 15.8645, 23.0564, 38.2544, -28.6215, -29.9142
2.908, 2, 17.8816, 15.8645, 23.0564, 38.2544, -28.6215, -29.9142
2.912, 2, 17.8816, 15.8645, 23.0564, 38.2544, -28.6215, -29.9142
2.916, 2, 17.8816, 15.8645, 23.0564, 38.2544, -28.6215, -29.9142
2.92, 2, 17.8816, 15.8645, 23.0564, 38.2544, -28.6215, -29.9142
2.923, 2, 17.8816, 15.8645, 23.0564, 38.2544, -28.6215, -29.9142
2.928, 2, 17.8816, 15.8645, 23.0564, 38.2544, -28.6215, -29.9142
2.932, 2, 17.8816, 15.8645, 23.0564, 38.2544, -28.6215, -29.9142
2.936, 2, 17.8816, 15.8645, 23.0564, 38.2544, -28.6215, -29.9142
2.939, 2, 17.8816, 15.8645, 23.0564, 38.2544, -28.6215, -29.9142
2.944, 2, 17.8816, 15.8645, 23.0564, 38.2544, -28.6215, -29.9142
2.948, 2, 17.8816, 15.8645, 23.0564, 38.2544, -28.6215, -29.9142
2.952, 2, 17.8816, 15.8645, 23.0564, 38.2544, -28.6215, -29.9142
2.956, 2, 17.8816, 15.8645, 23.0564, 38.2544, -28.6215, -29.9142
2.959, 2, 17.8816, 15.8645, 23.0564, 38.2544, -28.6215, -29.9142
2.964, 2, 17.8816, 15.8645, 23.0564, 38.2544, -28.6215, -29.9142
2.968, 2, 17.8816, 15.8645, 23.0564, 38.2544, -28.6215, -29.9142
2.972, 2, 17.8816, 15.8645, 23.0564, 38.2544, -28.6215, -29.9142
2.976, 2, 17.8816, 15.8645, 23.0564, 38.2544, -28.6215, -29.9142
2.98, 2, 17.8816, 15.8645, 23.0564, 38.2544, -28.6215, -29.9142
2.984, 2, 17.8816, 15.8645, 23.0564, 38.2544, -28.6215, -29.9142
2.988, 2, 17.8816, 15.8645, 23.0564, 38.2544, -28.6215, -29.9142
2.992, 2, 17.8816, 15.8645, 23.0564, 38.2544, -28.6215, -29.9142
2.995, 2, 17.8816, 15.8645, 23.0564, 38.2544, -28.6215, -29.9142
3, 2, 17.8816, 15.8645, 23.0564, 38.2544, -28.6215, -29.9142
3.004, 2, 17.8816, 15.8645, 23.0564, 38.2544, -28.6215, -29.9142
3.008, 2, 17.8816, 15.8645, 23.0564, 38.2544, -28.6215, -29.9142
3.012, 2, 17.8816, 15.8645, 23.0564, 38.2544, -28.6215, -29.9142
3.015, 2, 17.8816, 15.8645, 23.0564, 38.2544, -28.6215, -29.9142
3.02, 2, 17.8816, 15.8645, 23.0564, 38.2544, -28.6215, -29.9142
3.024, 2, 17.8816, 15.8645, 23.0564, 38.2544, -28.6215, -29.9142
3.028, 2, 17.8816, 15.8645, 23.0564, 38.2544, -28.6215, -29.9142
3.031, 2, 17.8816, 15.8645, 23.0564, 38.2544, -28.6215, -29.9142
3.036, 2, 17.8816, 15.8645, 23.0564, 38.2544, -28.6215, -29.9142
3.04, 2, 17.8816, 15.8645, 23.0564, 38.2544, -28.6215, -29.9142
3.044, 2, 17.8816, 15.8645, 23.0564, 38.2544, -28.6215, -29.9142
3.048, 2, 17.8816, 15.8645, 23.0564, 38.2544, -28.6215, -29.9142
3.051, 2, 17.8816, 15.8645, 23.0564, 38.2544, -28.6215, -29.9142
3.056, 2, 17.8816, 15.8645, 23.0564, 38.2544, -28.6215, -29.9142
3.06, 2, 17.8816, 15.8645, 23.0564, 38.2544, -28.6215, -29.9142
3.064, 2, 17.8816, 15.8645, 23.0564, 38.2544, -28.6215, -29.9142
3.068, 2, 17.8816, 15.8645, 23.0564, 38.2544, -28.6215, -29.9142
3.071, 2, 17.8816, 15.8645, 23.0564, 38.2544, -28.6215, -29.9142
3.076, 2, 17.8816, 15.8645, 23.0564, 38.2544, -28.6215, -29.9142
3.08, 2, 17.8816, 15.8645, 23.0564, 38.2544, -28.6215, -29.9142
3.084, 2, 17.8816, 15.8645, 23.0564, 38.2544, -28.6215, -29.9142
3.087, 2, 17.8816, 15.8645, 23.0564, 38.2544, -28.6215, -29.9142
3.092, 2, 17.8816, 15.8645, 23.0564, 38.2544, -28.6215, -29.9142
3.096, 2, 17.8816, 15.8645, 23.0564, 38.2544, -28.6215, -29.9142
3.1, 2, 17.8816, 15.8645, 23.0564, 38.2544, -28.6215, -29.9142
3.104, 2, 17.8816, 15.8645, 23.0564, 38.2544, -28.6215, -29.9142
3.107, 2, 17.8816, 15.8645, 23.0564, 38.2544, -28.6215, -29.9142
3.112, 2, 17.8816, 15.8645, 23.0564, 38.2544, -28.6215, -29.9142
3.116, 2, 17.8816, 15.8645, 23.0564, 38.2544, -28.6215, -29.9142
3.12, 2, 17.8816, 15.8645, 23.0564, 38.2544, -28.6215, -29.9142
3.124, 2, 17.8816, 15.8645, 23.0564, 38.2544, -28.6215, -29.9142
3.128, 2, 17.8816, 15.8645, 23.0564, 38.2544, -28.6215, -29.9142
3.132, 2, 17.8816, 15.8645, 23.0564, 38.2544, -28.6215, -29.9142
3.136, 2, 17.8816, 15.8645, 23.0564, 38.2544, -28.6215, -29.9142
3.14, 2, 17.8816, 15.8645, 23.0564, 38.2544, -28.6215, -29.9142
3.143, 2, 17.8816, 15.8645, 23.0564, 38.2544, -28.6215, -29.9142
3.148, 2, 17.8816, 15.8645, 23.0564, 38.2544, -28.6215, -29.9142
3.152, 2, 17.8816, 15.8645, 23.0564, 38.2544, -28.6215, -29.9142
3.156, 2, 17.8816, 15.8645, 23.0564, 38.2544, -28.6215, -29.9142
3.16, 2, 17.8816, 15.8645, 23.0564, 38.2544, -28.6215, -29.9142
3.163, 2, 17.8816, 15.8645, 23.0564, 38.2544, -28.6215, -29.9142
3.168, 2, 17.8816, 15.8645, 23.0564, 38.2544, -28.6215, -29.9142
3.172, 2, 17.8816, 15.8645, 23.0564, 38.2544, -28.6215, -29.9142
3.176, 2, 17.8816, 15.8645, 23.0564, 38.2544, -28.6215, -29.9142
3.179, 2, 17.8816, 15.8645, 23.0564, 38.2544, -28.6215, -29.9142
3.184, 2, 17.8816, 15.8645, 23.0564, 38.2544, -28.6215, -29.9142
3.188, 2, 17.8816, 15.8645, 23.0564, 38.2544, -28.6215, -29.9142
3.192, 2, 17.8816, 15.8645, 23.0564, 38.2544, -28.6215, -29.9142
3.196, 2, 17.8816, 15.8645, 23.0564, 38.2544, -28.6215, -29.9142
3.199, 2, 17.8816, 15.8645, 23.0564, 38.2544, -28.6215, -29.9142
3.204, 2, 17.8816, 15.8645, 23.0564, 38.2544, -28.6215, -29.9142
3.208, 2, 17.8816, 15.8645, 23.0564, 38.2544, -28.6215, -29.9142
3.212, 2, 17.8816, 15.8645, 23.0564, 38.2544, -28.6215, -29.9142
3.216, 2, 17.8816, 15.8645, 23.0564, 38.2544, -28.6215, -29.9142
3.22, 2, 17.8816, 15.8645, 23.0564, 38.2544, -28.6215, -29.9142
3.224, 2, 17.8816, 15.8645, 23.0564, 38.2544, -28.6215, -29.9142
3.228, 2, 17.8816, 15.8645, 23.0564, 38.2544, -28.6215, -29.9142
3.232, 2, 17.8816, 15.8645, 23.0564, 38.2544, -28.6215, -29.9142
3.235, 2, 17.8816, 15.8645, 23.0564, 38.2544, -28.6215, -29.9142
3.24, 2, 17.8816, 15.8645, 23.0564, 38.2544, -28.6215, -29.9142
3.244, 2, 17.8816, 15.8645, 23.0564, 38.2544, -28.6215, -29.9142
3.248, 4, 17.8816, 15.8645, 23.0564, 38.2544, -28.6215, -29.9142
3.252, 4, 17.8816, 15.8645, 23.0564, 38.2544, -28.6215, -29.9142
3.255, 4, 17.8816, 15.8645, 23.0564, 38.2544, -28.6215, -29.9142
3.26, 4, 17.8816, 15.8645, 23.0564, 38.2544, -28.6215, -29.9142
3.264, 4, 17.8816, 15.8645, 23.0564, 38.2544, -28.6215, -29.9142
3.268, 4, 17.8816, 15.8645, 23.0564, 38.2544, -28.6215, -29.9142
3.272, 4, 17.8816, 15.8645, 23.0564, 38.2544, -28.6215, -29.9142
3.276, 4, 17.8816, 15.8645, 23.0564, 38.2544, -28.6215, -29.9142
3.28, 4, 17.8816, 15.8645, 23.0564, 38.2544, -28.6215, -29.9142
3.284, 4, 17.8816, 15.8645, 23.0564, 38.2544, -28.6215, -29.9142
3.288, 4, 17.8816, 15.8645, 23.0564, 38.2544, -28.6215, -29.9142
3.291, 4, 17.8816, 15.8645, 23.0564, 38.2544, -28.6215, -29.9142
3.296, 4, 17.8816, 15.8645, 23.0564, 38.2544, -28.6215, -29.9142
3.3, 4, 17.8816, 15.8645, 23.0564, 38.2544, -28.6215, -29.9142
3.304, 4, 17.8816, 15.8645, 23.0564, 38.2544, -28.6215, -29.9142
3.308, 4, 17.8816, 15.8645, 23.0564, 38.2544, -28.6215, -29.9142
3.312, 4, 17.8816, 15.8645, 23.0564, 38.2544, -28.6215, -29.9142
3.316, 4, 17.8816, 15.8645, 23.0564, 38.2544, -28.6215, -29.9142
3.32, 4, 17.8816, 15.8645, 23.0564, 38.2544, -28.6215, -29.9142
3.324, 4, 17.8816, 15.8645, 23.0564, 38.2544, -28.6215, -29.9142
3.328, 4, 17.8816, 15.8645, 23.0564, 38.2544, -28.6215, -29.9142
3.332, 4, 17.8816, 15.8645, 23.0564, 38.2544, -28.6215, -29.9142
3.336, 4, 17.8816, 15.8645, 23.0564, 38.2544, -28.6215, -29.9142
3.34, 4, 17.8816, 15.8645, 23.0564, 38.2544, -28.6215, -29.9142
3.344, 4, 17.8816, 15.8645, 23.0564, 38.2544, -28.6215, -29.9142
3.347, 4, 17.8816, 15.8645, 23.0564, 38.2544, -28.6215, -29.9142
3.354, 4, 17.8816, 15.8645, 23.0564, 38.2544, -28.6215, -29.9142
3.358, 4, 17.8816, 15.8645, 23.0564, 38.2544, -28.6215, -29.9142
3.362, 4, 17.8816, 15.8645, 23.0564, 38.2544, -28.6215, -29.9142
3.366, 4, 17.8816, 15.8645, 23.0564, 38.2544, -28.6215, -29.9142
3.37, 4, 17.8816, 15.8645, 23.0564, 38.2544, -28.6215, -29.9142
3.372, 4, 17.8816, 15.8645, 23.0564, 38.2544, -28.6215, -29.9142
3.376, 4, 17.8816, 15.8645, 23.0564, 38.2544, -28.6215, -29.9142
3.38, 4, 17.8816, 15.8645, 23.0564, 38.2544, -28.6215, -29.9142
3.383, 4, 17.8816, 15.8645, 23.0564, 38.2544, -28.6215, -29.9142
3.388, 4, 17.8815, 15.8645, 23.0564, 38.2544, -28.6215, -29.9142
3.392, 4, 17.8812, 15.8645, 23.0564, 38.2543, -28.6215, -29.9142
3.396, 4, 17.8806, 15.8645, 23.0565, 38.2542, -28.6216, -29.9141
3.4, 4, 17.8793, 15.8645, 23.0566, 38.2539, -28.6217, -29.9139
3.403, 4, 17.8773, 15.8644, 23.0569, 38.2532, -28.6219, -29.9133
3.408, 4, 17.8745, 15.8643, 23.0576, 38.2517, -28.6225, -29.912
3.412, 4, 17.8706, 15.864, 23.0586, 38.2489, -28.6235, -29.9095
3.416, 4, 17.8657, 15.8636, 23.0603, 38.2441, -28.6252, -29.9053
3.42, 5, 17.8595, 15.863, 23.063, 38.2364, -28.628, -29.8984
3.424, 5, 17.8519, 15.862, 23.067, 38.2246, -28.6323, -29.8881
3.428, 5, 17.8425, 15.8607, 23.0726, 38.2075, -28.6384, -29.873
3.432, 5, 17.8311, 15.8589, 23.0804, 38.1837, -28.647, -29.8519
3.436, 5, 17.8174, 15.8565, 23.0908, 38.1514, -28.6587, -29.8234
3.439, 5, 17.801, 15.8533, 23.1043, 38.1089, -28.674, -29.7858
3.444, 5, 17.7821, 15.8494, 23.1216, 38.0543, -28.6938, -29.7375
3.448, 5, 17.7607, 15.8444, 23.143, 37.9859, -28.7187, -29.677
3.452, 5, 17.7368, 15.8384, 23.1691, 37.9021, -28.7494, -29.6029
3.456, 5, 17.7105, 15.8313, 23.2001, 37.8018, -28.7862, -29.5141
3.46, 5, 17.6816, 15.823, 23.2364, 37.684, -28.8296, -29.4099
3.464, 5, 17.6502, 15.8134, 23.2781, 37.5487, -28.8797, -29.2902
3.468, 5, 17.6159, 15.8027, 23.325, 37.3959, -28.9366, -29.155
3.472, 5, 17.5788, 15.7909, 23.3771, 37.2262, -29.0002, -29.005
3.476, 5, 17.5389, 15.778, 23.434, 37.0407, -29.0701, -28.8411
3.48, 5, 17.4963, 15.7642, 23.4954, 36.8407, -29.146, -28.6644
3.484, 5, 17.4512, 15.7495, 23.5609, 36.6277, -29.2273, -28.4764
3.488, 5, 17.4039, 15.7341, 23.6299, 36.4036, -29.3135, -28.2787
3.492, 5, 17.3545, 15.7181, 23.7019, 36.1704, -29.404, -28.073
3.495, 5, 17.3028, 15.7018, 23.7762, 35.9299, -29.498, -27.8611
3.5, 5, 17.2491, 15.6851, 23.8525, 35.684, -29.5949, -27.6445
3.504, 5, 17.1932, 15.6683, 23.9302, 35.4344, -29.6942, -27.4249
3.508, 5, 17.1354, 15.6515, 24.0088, 35.1825, -29.7954, -27.2035
3.512, 5, 17.0757, 15.6346, 24.0881, 34.9294, -29.898, -26.9812
3.516, 5, 17.0146, 15.6179, 24.1678, 34.6759, -30.0018, -26.7588
3.52, 5, 16.9524, 15.6014, 24.2477, 34.4226, -30.1065, -26.5367
3.524, 5, 16.8893, 15.585, 24.3275, 34.17, -30.2119, -26.3155
3.528, 5, 16.8256, 15.5688, 24.4073, 33.9183, -30.3181, -26.0952
3.531, 5, 16.7615, 15.5529, 24.487, 33.6677, -30.4249, -25.876
3.536, 5, 16.6971, 15.5373, 24.5665, 33.4183, -30.5323, -25.6582
3.54, 5, 16.6324, 15.5218, 24.6457, 33.1701, -30.6402, -25.4416
3.544, 5, 16.5676, 15.5067, 24.7248, 32.9233, -30.7486, -25.2264
3.548, 5, 16.5025, 15.4918, 24.8036, 32.6779, -30.8574, -25.0126
3.552, 5, 16.4374, 15.4771, 24.8821, 32.4338, -30.9668, -24.8002
3.556, 5, 16.3721, 15.4628, 24.9604, 32.1912, -31.0766, -24.5893
3.56, 5, 16.3067, 15.4487, 25.0384, 31.9499, -31.1869, -24.3797
3.564, 5, 16.2412, 15.4349, 25.1161, 31.71, -31.2976, -24.1716
3.568, 5, 16.1756, 15.4213, 25.1936, 31.4715, -31.4087, -23.9649
3.572, 5, 16.1099, 15.408, 25.2707, 31.2345, -31.5203, -23.7595
3.576, 5, 16.0441, 15.395, 25.3477, 30.9987, -31.6323, -23.5556
3.58, 5, 15.9782, 15.3822, 25.4243, 30.7644, -31.7448, -23.3531
3.584, 5, 15.9122, 15.3697, 25.5007, 30.5314, -31.8576, -23.1519
3.587, 5, 15.8462, 15.3575, 25.5767, 30.2998, -31.9709, -22.9522
3.592, 5, 15.78, 15.3456, 25.6526, 30.0695, -32.0846, -22.7538
3.596, 5, 15.7137, 15.3339, 25.7281, 29.8406, -32.1987, -22.5568
3.6, 6, 15.6474, 15.3225, 25.8033, 29.613, -32.3132, -22.3611
3.604, 6, 15.581, 15.3114, 25.8783, 29.3867, -32.4281, -22.1667
3.608, 6, 15.5145, 15.3006, 25.953, 29.1618, -32.5434, -21.9737
3.612, 6, 15.4479, 15.29, 26.0274, 28.9381, -32.6591, -21.782
3.616, 6, 15.3812, 15.2797, 26.1016, 28.7158, -32.7752, -21.5917
3.62, 6, 15.3144, 15.2697, 26.1754, 28.4947, -32.8916, -21.4026
3.624, 6, 15.2475, 15.2599, 26.249, 28.2749, -33.0085, -21.2149
3.628, 6, 15.1805, 15.2504, 26.3223, 28.0564, -33.1257, -21.0284
3.632, 6, 15.1135, 15.2412, 26.3953, 27.8392, -33.2433, -20.8432
3.636, 6, 15.0464, 15.2323, 26.4681, 27.6231, -33.3613, -20.6593
3.64, 6, 14.9791, 15.2236, 26.5405, 27.4084, -33.4796, -20.4766
3.644, 6, 14.9118, 15.2152, 26.6127, 27.1949, -33.5983, -20.2952
3.648, 6, 14.8444, 15.2071, 26.6846, 26.9826, -33.7174, -20.115
3.652, 6, 14.777, 15.1992, 26.7562, 26.7715, -33.8368, -19.9361
3.656, 6, 14.7094, 15.1917, 26.8276, 26.5616, -33.9566, -19.7584
3.66, 6, 14.6418, 15.1844, 26.8986, 26.3529, -34.0768, -19.5819
3.664, 6, 14.574, 15.1774, 26.9694, 26.1454, -34.1972, -19.4066
3.668, 6, 14.5062, 15.1706, 27.0399, 25.9391, -34.3181, -19.2326
3.672, 6, 14.4383, 15.1642, 27.1101, 25.7339, -34.4393, -19.0597
3.676, 6, 14.3703, 15.158, 27.1801, 25.53, -34.5608, -18.888
3.681, 6, 14.3023, 15.1521, 27.2497, 25.3271, -34.6826, -18.7174
3.684, 6, 14.2341, 15.1464, 27.3191, 25.1254, -34.8048, -18.5481
3.688, 6, 14.1659, 15.1411, 27.3882, 24.9249, -34.9273, -18.3798
3.692, 6, 14.0976, 15.136, 27.457, 24.7255, -35.0502, -18.2128
3.696, 6, 14.0292, 15.1312, 27.5255, 24.5272, -35.1733, -18.0468
3.7, 6, 13.9607, 15.1266, 27.5937, 24.33, -35.2968, -17.882
3.704, 6, 13.8921, 15.1224, 27.6617, 24.1339, -35.4206, -17.7184
3.708, 6, 13.8235, 15.1184, 27.7294, 23.9389, -35.5447, -17.5558
3.712, 6, 13.7547, 15.1147, 27.7967, 23.745, -35.6692, -17.3944
3.716, 6, 13.6859, 15.1113, 27.8638, 23.5521, -35.7939, -17.234
3.72, 6, 13.617, 15.1082, 27.9307, 23.3604, -35.9189, -17.0747
3.724, 6, 13.548, 15.1053, 27.9972, 23.1697, -36.0443, -16.9165
3.728, 6, 13.479, 15.1027, 28.0634, 22.98, -36.1699, -16.7594
3.732, 6, 13.4099, 15.1004, 28.1294, 22.7914, -36.2959, -16.6034
3.735, 6, 13.3406, 15.0984, 28.1951, 22.6039, -36.4221, -16.4484
3.74, 6, 13.2713, 15.0966, 28.2604, 22.4173, -36.5486, -16.2944
3.744, 6, 13.202, 15.0952, 28.3255, 22.2318, -36.6755, -16.1415
3.748, 6, 13.1325, 15.094, 28.3903, 22.0473, -36.8026, -15.9897
3.752, 6, 13.063, 15.0931, 28.4549, 21.8638, -36.93, -15.8388
3.756, 6, 12.9934, 15.0924, 28.5191, 21.6814, -37.0576, -15.689
3.76, 6, 12.9237, 15.0921, 28.583, 21.4999, -37.1856, -15.5402
3.764, 6, 12.8539, 15.092, 28.6467, 21.3193, -37.3138, -15.3924
3.768, 7, 12.7841, 15.0922, 28.7101, 21.1398, -37.4423, -15.2456
3.772, 7, 12.7142, 15.0927, 28.7732, 20.9612, -37.5711, -15.0998
3.776, 7, 12.6442, 15.0935, 28.836, 20.7836, -37.7001, -14.9549
3.78, 7, 12.5741, 15.0945, 28.8985, 20.607, -37.8294, -14.8111
3.784, 7, 12.5039, 15.0958, 28.9607, 20.4313, -37.959, -14.6682
3.788, 7, 12.4337, 15.0974, 29.0226, 20.2565, -38.0888, -14.5262
3.792, 7, 12.3634, 15.0993, 29.0843, 20.0827, -38.2189, -14.3852
3.796, 7, 12.293, 15.1015, 29.1456, 19.9097, -38.3492, -14.2452
3.8, 7, 12.2226, 15.1039, 29.2067, 19.7377, -38.4798, -14.1061
3.804, 7, 12.152, 15.1067, 29.2674, 19.5667, -38.6107, -13.9679
3.808, 7, 12.0814, 15.1097, 29.3279, 19.3965, -38.7418, -13.8306
3.812, 7, 12.0108, 15.1129, 29.3881, 19.2272, -38.8731, -13.6943
3.816, 7, 11.94, 15.1165, 29.448, 19.0588, -39.0047, -13.5589
3.82, 7, 11.8692, 15.1204, 29.5076, 18.8913, -39.1365, -13.4243
3.824, 7, 11.7983, 15.1245, 29.5669, 18.7246, -39.2686, -13.2907
3.828, 7, 11.7273, 15.1289, 29.626, 18.5588, -39.4009, -13.1579
3.832, 7, 11.6563, 15.1336, 29.6847, 18.3939, -39.5334, -13.0261
3.836, 7, 11.5852, 15.1386, 29.7431, 18.2298, -39.6662, -12.8951
3.84, 7, 11.514, 15.1438, 29.8013, 18.0666, -39.7992, -12.7649
3.844, 7, 11.4427, 15.1494, 29.8591, 17.9043, -39.9324, -12.6357
3.848, 7, 11.3714, 15.1552, 29.9167, 17.7427, -40.0659, -12.5073
3.852, 7, 11.3, 15.1613, 29.974, 17.582, -40.1996, -12.3797
3.856, 7, 11.2285, 15.1677, 30.0309, 17.4221, -40.3335, -12.253
3.86, 7, 11.157, 15.1743, 30.0876, 17.263, -40.4676, -12.1271
3.864, 7, 11.0854, 15.1813, 30.144, 17.1047, -40.602, -12.002
3.868, 7, 11.0137, 15.1885, 30.2001, 16.9473, -40.7365, -11.8778
3.872, 7, 10.942, 15.196, 30.2559, 16.7906, -40.8713, -11.7543
3.876, 7, 10.8702, 15.2038, 30.3114, 16.6347, -41.0063, -11.6317
3.88, 7, 10.7983, 15.2119, 30.3666, 16.4796, -41.1415, -11.5099
3.884, 7, 10.7263, 15.2202, 30.4215, 16.3252, -41.2769, -11.3889
3.888, 7, 10.6543, 15.2289, 30.4761, 16.1717, -41.4125, -11.2686
3.892, 7, 10.5823, 15.2378, 30.5304, 16.0189, -41.5482, -11.1492
3.896, 7, 10.5101, 15.247, 30.5844, 15.8668, -41.6842, -11.0305
3.9, 7, 10.4379, 15.2565, 30.6381, 15.7155, -41.8204, -10.9126
3.904, 7, 10.3656, 15.2662, 30.6916, 15.565, -41.9568, -10.7955
3.908, 7, 10.2933, 15.2763, 30.7447, 15.4152, -42.0934, -10.6791
3.912, 7, 10.2209, 15.2866, 30.7975, 15.2661, -42.2302, -10.5635
3.916, 7, 10.1484, 15.2972, 30.85, 15.1178, -42.3672, -10.4486
3.92, 7, 10.0759, 15.3081, 30.9023, 14.9702, -42.5043, -10.3345
3.924, 7, 10.0033, 15.3193, 30.9542, 14.8233, -42.6416, -10.2212
3.928, 7, 9.93059, 15.3308, 31.0058, 14.6771, -42.7792, -10.1085
3.932, 7, 9.85786, 15.3425, 31.0572, 14.5316, -42.9169, -9.99659
3.936, 8, 9.78508, 15.3545, 31.1082, 14.3869, -43.0548, -9.8854
3.94, 8, 9.71222, 15.3668, 31.1589, 14.2428, -43.1928, -9.77492
3.944, 8, 9.63931, 15.3794, 31.2093, 14.0994, -43.3311, -9.66516
3.948, 8, 9.56634, 15.3923, 31.2595, 13.9567, -43.4695, -9.5561
3.952, 8, 9.49331, 15.4054, 31.3093, 13.8147, -43.6081, -9.44774
3.956, 8, 9.42022, 15.4188, 31.3588, 13.6734, -43.7468, -9.34008
3.96, 8, 9.34707, 15.4325, 31.4081, 13.5327, -43.8858, -9.2331
3.964, 8, 9.27386, 15.4465, 31.457, 13.3927, -44.0248, -9.12681
3.968, 8, 9.20058, 15.4608, 31.5056, 13.2534, -44.1641, -9.0212
3.972, 8, 9.12725, 15.4754, 31.5539, 13.1147, -44.3035, -8.91627
3.976, 8, 9.05386, 15.4902, 31.6019, 12.9766, -44.4431, -8.81201
3.98, 8, 8.98042, 15.5053, 31.6497, 12.8392, -44.5829, -8.7084
3.984, 8, 8.90691, 15.5207, 31.6971, 12.7025, -44.7228, -8.60546
3.988, 8, 8.83335, 15.5364, 31.7442, 12.5664, -44.8628, -8.50318
3.992, 8, 8.75973, 15.5524, 31.791, 12.4309, -45.003, -8.40154
3.996, 8, 8.68605, 15.5686, 31.8375, 12.296, -45.1434, -8.30055
3.999, 8, 8.61232, 15.5851, 31.8837, 12.1618, -45.2839, -8.2002
4.004, 8, 8.53854, 15.6019, 31.9296, 12.0281, -45.4246, -8.10048
4.008, 8, 8.4647, 15.619, 31.9752, 11.8951, -45.5654, -8.00139
4.012, 8, 8.39081, 15.6364, 32.0205, 11.7627, -45.7064, -7.90293
4.016, 8, 8.31686, 15.654, 32.0654, 11.6309, -45.8475, -7.80509
4.02, 8, 8.24286, 15.6719, 32.1101, 11.4996, -45.9887, -7.70786
4.024, 8, 8.16881, 15.6901, 32.1545, 11.369, -46.1301, -7.61125
4.028, 8, 8.0947, 15.7086, 32.1985, 11.239, -46.2716, -7.51524
4.032, 8, 8.02054, 15.7274, 32.2423, 11.1095, -46.4133, -7.41984
4.036, 8, 7.94633, 15.7464, 32.2857, 10.9806, -46.5551, -7.32503
4.04, 8, 7.87207, 15.7657, 32.3289, 10.8523, -46.697, -7.23081
4.044, 8, 7.79776, 15.7853, 32.3717, 10.7246, -46.839, -7.13719
4.048, 8, 7.7234, 15.8052, 32.4142, 10.5974, -46.9812, -7.04415
4.052, 8, 7.64898, 15.8254, 32.4565, 10.4708, -47.1236, -6.95169
4.056, 8, 7.57452, 15.8458, 32.4984, 10.3447, -47.266, -6.8598
4.06, 8, 7.50001, 15.8665, 32.54, 10.2192, -47.4086, -6.76849
4.064, 8, 7.42546, 15.8875, 32.5813, 10.0943, -47.5512, -6.67774
4.068, 8, 7.35085, 15.9088, 32.6222, 9.96987, -47.694, -6.58756
4.072, 8, 7.27619, 15.9303, 32.6629, 9.846, -47.837, -6.49794
4.076, 8, 7.20149, 15.9522, 32.7033, 9.72266, -47.98, -6.40888
4.08, 8, 7.12674, 15.9743, 32.7433, 9.59986, -48.1232, -6.32036
4.084, 8, 7.05195, 15.9967, 32.7831, 9.47759, -48.2664, -6.2324
4.088, 8, 6.97711, 16.0193, 32.8225, 9.35584, -48.4098, -6.14497
4.092, 8, 6.90222, 16.0422, 32.8616, 9.23461, -48.5533, -6.05809
4.096, 8, 6.8273, 16.0655, 32.9005, 9.1139, -48.6969, -5.97174
4.1, 9, 6.75232, 16.0889, 32.939, 8.9937, -48.8406, -5.88593
4.104, 9, 6.67731, 16.1127, 32.9771, 8.87401, -48.9845, -5.80064
4.108, 9, 6.60225, 16.1368, 33.015, 8.75483, -49.1284, -5.71588
4.112, 9, 6.52715, 16.1611, 33.0526, 8.63615, -49.2724, -5.63164
4.116, 9, 6.452, 16.1857, 33.0898, 8.51797, -49.4165, -5.54792
4.12, 9, 6.37682, 16.2105, 33.1268, 8.40028, -49.5608, -5.4647
4.124, 9, 6.30159, 16.2357, 33.1634, 8.28308, -49.7051, -5.382
4.128, 9, 6.22632, 16.2611, 33.1997, 8.16637, -49.8495, -5.2998
4.132, 9, 6.15101, 16.2868, 33.2357, 8.05014, -49.994, -5.21811
4.136, 9, 6.07566, 16.3127, 33.2714, 7.93439, -50.1387, -5.13691
4.14, 9, 6.00028, 16.339, 33.3068, 7.81912, -50.2834, -5.05621
4.144, 9, 5.92485, 16.3655, 33.3419, 7.70432, -50.4282, -4.976
4.148, 9, 5.84938, 16.3923, 33.3766, 7.58998, -50.5731, -4.89627
4.152, 9, 5.77388, 16.4194, 33.411, 7.47612, -50.718, -4.81703
4.156, 9, 5.69834, 16.4467, 33.4452, 7.36272, -50.8631, -4.73827
4.16, 9, 5.62276, 16.4743, 33.479, 7.24977, -51.0082, -4.65999
4.164, 9, 5.54714, 16.5022, 33.5124, 7.13728, -51.1535, -4.58218
4.168, 9, 5.47149, 16.5303, 33.5456, 7.02525, -51.2988, -4.50484
4.172, 9, 5.39581, 16.5587, 33.5785, 6.91366, -51.4442, -4.42797
4.176, 9, 5.32009, 16.5874, 33.611, 6.80252, -51.5896, -4.35156
4.18, 9, 5.24433, 16.6164, 33.6432, 6.69182, -51.7352, -4.27561
4.184, 9, 5.16855, 16.6456, 33.6751, 6.58156, -51.8808, -4.20012
4.188, 9, 5.09272, 16.6751, 33.7067, 6.47174, -52.0265, -4.12508
4.192, 9, 5.01687, 16.7049, 33.738, 6.36235, -52.1722, -4.05049
4.196, 9, 4.94098, 16.735, 33.769, 6.25339, -52.3181, -3.97635
4.2, 9, 4.86507, 16.7653, 33.7996, 6.14486, -52.464, -3.90265
4.204, 9, 4.78912, 16.7958, 33.8299, 6.03675, -52.6099, -3.82939
4.208, 9, 4.71313, 16.8267, 33.8599, 5.92906, -52.756, -3.75657
4.212, 9, 4.63712, 16.8578, 33.8896, 5.82179, -52.9021, -3.68419
4.216, 9, 4.56108, 16.8892, 33.919, 5.71493, -53.0482, -3.61223
4.22, 9, 4.48501, 16.9208, 33.948, 5.60849, -53.1944, -3.54071
4.224, 9, 4.40891, 16.9528, 33.9768, 5.50246, -53.3407, -3.4696
4.228, 9, 4.33279, 16.9849, 34.0052, 5.39683, -53.487, -3.39893
4.232, 9, 4.25663, 17.0174, 34.0333, 5.2916, -53.6334, -3.32867
4.236, 9, 4.18045, 17.0501, 34.0611, 5.18678, -53.7799, -3.25882
4.24, 9, 4.10425, 17.0831, 34.0885, 5.08235, -53.9264, -3.18939
4.244, 9, 4.02801, 17.1164, 34.1157, 4.97832, -54.073, -3.12037
4.248, 9, 3.95176, 17.15, 34.1425, 4.87468, -54.2196, -3.05176
4.252, 9, 3.87547, 17.1839, 34.169, 4.77142, -54.3664, -2.98355
4.256, 9, 3.79915, 17.2181, 34.1952, 4.66855, -54.5132, -2.91574
4.26, 9, 3.7228, 17.2526, 34.221, 4.56607, -54.6602, -2.84833
4.264, 9, 3.64642, 17.2875, 34.2465, 4.46396, -54.8073, -2.78131
4.268, 10, 3.57, 17.3228, 34.2716, 4.36222, -54.9545, -2.71468
4.272, 10, 3.49355, 17.3585, 34.2963, 4.26086, -55.1018, -2.64844
4.276, 10, 3.41706, 17.3946, 34.3206, 4.15986, -55.2493, -2.58258
4.28, 10, 3.34055, 17.4312, 34.3444, 4.05923, -55.397, -2.51711
4.284, 10, 3.26401, 17.4683, 34.3676, 3.95896, -55.5448, -2.45201
4.288, 10, 3.18745, 17.5058, 34.3904, 3.85905, -55.6927, -2.38729
4.292, 10, 3.11086, 17.5439, 34.4124, 3.75949, -55.8408, -2.32294
4.296, 10, 3.03426, 17.5826, 34.4339, 3.66029, -55.989, -2.25897
4.3, 10, 2.95765, 17.6219, 34.4546, 3.56144, -56.1373, -2.19537
4.304, 10, 2.88104, 17.6618, 34.4745, 3.46295, -56.2857, -2.13214
4.308, 10, 2.80443, 17.7024, 34.4935, 3.3648, -56.4342, -2.06927
4.312, 10, 2.72782, 17.7436, 34.5117, 3.26702, -56.5827, -2.00678
4.316, 10, 2.65123, 17.7856, 34.5289, 3.16958, -56.7312, -1.94466
4.32, 10, 2.57465, 17.8282, 34.5451, 3.07251, -56.8796, -1.88292
4.324, 10, 2.49808, 17.8717, 34.5603, 2.9758, -57.028, -1.82154
4.328, 10, 2.42153, 17.9159, 34.5745, 2.87945, -57.1764, -1.76054
4.332, 10, 2.345, 17.9608, 34.5876, 2.78347, -57.3246, -1.69991
4.336, 10, 2.26849, 18.0066, 34.5996, 2.68786, -57.4727, -1.63965
4.34, 10, 2.19201, 18.0532, 34.6105, 2.59263, -57.6206, -1.57978
4.344, 10, 2.11555, 18.1007, 34.6202, 2.49777, -57.7684, -1.52027
4.348, 10, 2.03913, 18.1489, 34.6288, 2.4033, -57.916, -1.46115
4.352, 10, 1.96274, 18.198, 34.6363, 2.30922, -58.0633, -1.4024
4.356, 10, 1.88639, 18.248, 34.6427, 2.21552, -58.2105, -1.34403
4.36, 10, 1.81008, 18.2987, 34.6479, 2.12222, -58.3574, -1.28603
4.364, 10, 1.73383, 18.3503, 34.6519, 2.02931, -58.5041, -1.22841
4.368, 10, 1.65763, 18.4027, 34.6548, 1.9368, -58.6506, -1.17117
4.372, 10, 1.5815, 18.4559, 34.6566, 1.8447, -58.7968, -1.11431
4.376, 10, 1.50544, 18.51, 34.6573, 1.75301, -58.9428, -1.05782
4.38, 10, 1.42945, 18.5648, 34.6567, 1.66172, -59.0885, -1.00171
4.384, 10, 1.35355, 18.6204, 34.6551, 1.57085, -59.2339, -0.945974
4.388, 10, 1.27773, 18.6769, 34.6523, 1.48039, -59.3791, -0.890613
4.392, 10, 1.20201, 18.7341, 34.6484, 1.39036, -59.524, -0.835628
4.396, 10, 1.12639, 18.7921, 34.6433, 1.30074, -59.6686, -0.781017
4.4, 10, 1.05087, 18.8509, 34.6371, 1.21156, -59.813, -0.726781
4.404, 10, 0.975471, 18.9105, 34.6297, 1.1228, -59.9571, -0.67292
4.408, 10, 0.900186, 18.9709, 34.6213, 1.03447, -60.1009, -0.619433
4.412, 10, 0.825027, 19.032, 34.6116, 0.946583, -60.2444, -0.56632
4.416, 10, 0.749998, 19.094, 34.6009, 0.859131, -60.3876, -0.513581
4.42, 10, 0.675105, 19.1567, 34.589, 0.772121, -60.5305, -0.461216
4.424, 10, 0.600355, 19.2202, 34.5759, 0.685556, -60.6731, -0.409224
4.428, 10, 0.525752, 19.2844, 34.5618, 0.599439, -60.8154, -0.357606
4.432, 10, 0.451303, 19.3494, 34.5464, 0.513773, -60.9575, -0.306361
4.436, 10, 0.377013, 19.4152, 34.53, 0.428562, -61.0992, -0.255489
4.44, 10, 0.302888, 19.4817, 34.5124, 0.343807, -61.2406, -0.204989
4.444, 10, 0.228931, 19.549, 34.4937, 0.259512, -61.3817, -0.154861
4.448, 10, 0.155149, 19.617, 34.4738, 0.17568, -61.5224, -0.105104
4.452, 10, 0.0815465, 19.6857, 34.4528, 0.0923136, -61.6629, -0.0557177
4.456, 10, 0.00812863, 19.7552, 34.4307, 0.00941472, -61.803, -0.00670107
4.46, 10, -0.0650994, 19.8255, 34.4075, -0.0730139, -61.9428, 0.0419468
4.464, 10, -0.138133, 19.8965, 34.3831, -0.15497, -62.0822, 0.0902269
4.468, 10, -0.210966, 19.9682, 34.3576, -0.236451, -62.2213, 0.13814
4.472, 10, -0.283594, 20.0406, 34.331, -0.317455, -62.3601, 0.185688
4.476, 10, -0.356013, 20.1137, 34.3032, -0.39798, -62.4986, 0.232872
4.48, 10, -0.428217, 20.1876, 34.2744, -0.478024, -62.6367, 0.279693
4.484, 10, -0.5002, 20.2622, 34.2444, -0.557585, -62.7744, 0.326152
4.488, 10, -0.571957, 20.3374, 34.2133, -0.63666, -62.9118, 0.37225
4.492, 10, -0.643481, 20.4134, 34.1811, -0.715248, -63.0488, 0.417989
4.496, 10, -0.714768, 20.4901, 34.1478, -0.793347, -63.1855, 0.463369
4.5, 10, -0.78581, 20.5675, 34.1134, -0.870955, -63.3218, 0.508393
4.504, 10, -0.856603, 20.6455, 34.0778, -0.948069, -63.4578, 0.553061
4.508, 10, -0.927142, 20.7242, 34.0412, -1.02469, -63.5934, 0.597374
4.512, 10, -0.997421, 20.8036, 34.0035, -1.10081, -63.7286, 0.641333
4.516, 10, -1.06744, 20.8837, 33.9647, -1.17643, -63.8634, 0.68494
4.52, 10, -1.13718, 20.9645, 33.9248, -1.25155, -63.9979, 0.728195
4.524, 10, -1.20665, 21.0459, 33.8838, -1.32616, -64.132, 0.7711
4.528, 10, -1.27584, 21.1279, 33.8418, -1.40027, -64.2657, 0.813654
4.532, 10, -1.34475, 21.2107, 33.7986, -1.47387, -64.399, 0.85586
4.536, 10, -1.41336, 21.294, 33.7544, -1.54696, -64.5319, 0.897719
4.54, 10, -1.48168, 21.378, 33.709, -1.61953, -64.6644, 0.93923
4.544, 10, -1.54969, 21.4626, 33.6626, -1.69159, -64.7965, 0.980395
4.548, 10, -1.6174, 21.5479, 33.6151, -1.76313, -64.9282, 1.02121
4.552, 10, -1.68479, 21.6338, 33.5666, -1.83416, -65.0595, 1.06169
4.556, 10, -1.75187, 21.7202, 33.517, -1.90465, -65.1903, 1.10182
4.56, 10, -1.81864, 21.8073, 33.4663, -1.97463, -65.3207, 1.14161
4.564, 10, -1.88511, 21.8949, 33.4145, -2.04407, -65.4507, 1.18106
4.568, 10, -1.95128, 21.9831, 33.3617, -2.11299, -65.5802, 1.22017
4.572, 10, -2.01716, 22.0719, 33.3078, -2.18139, -65.7091, 1.25895
4.576, 11, -2.08277, 22.1611, 33.253, -2.24926, -65.8376, 1.2974
4.58, 11, -2.14811, 22.2508, 33.1971, -2.31662, -65.9656, 1.33552
4.584, 11, -2.2132, 22.341, 33.1402, -2.38346, -66.0931, 1.37332
4.588, 11, -2.27806, 22.4317, 33.0824, -2.44982, -66.22, 1.41081
4.592, 11, -2.3427, 22.5227, 33.0237, -2.5157, -66.3464, 1.44801
4.596, 11, -2.40714, 22.6142, 32.9642, -2.58111, -66.4723, 1.48492
4.6, 11, -2.4714, 22.706, 32.9038, -2.64608, -66.5976, 1.52156
4.604, 11, -2.53546, 22.7981, 32.8427, -2.71064, -66.7225, 1.55793
4.608, 11, -2.59934, 22.8906, 32.7808, -2.7748, -66.8469, 1.59406
4.612, 11, -2.66302, 22.9834, 32.7184, -2.83858, -66.9707, 1.62995
4.616, 11, -2.72649, 23.0764, 32.6553, -2.90201, -67.0942, 1.66563
4.62, 11, -2.78974, 23.1696, 32.5916, -2.96512, -67.2172, 1.7011
4.624, 11, -2.85277, 23.263, 32.5274, -3.02791, -67.3398, 1.73638
4.628, 11, -2.91557, 23.3567, 32.4628, -3.09041, -67.462, 1.77147
4.632, 11, -2.97815, 23.4505, 32.3977, -3.15263, -67.5839, 1.80639
4.636, 11, -3.04053, 23.5444, 32.3323, -3.21458, -67.7055, 1.84114
4.64, 11, -3.10272, 23.6385, 32.2664, -3.27627, -67.8267, 1.87572
4.644, 11, -3.16474, 23.7327, 32.2002, -3.33771, -67.9476, 1.91015
4.648, 11, -3.22661, 23.827, 32.1336, -3.3989, -68.0683, 1.94442
4.652, 11, -3.28834, 23.9214, 32.0667, -3.45985, -68.1887, 1.97855
4.656, 11, -3.34994, 24.0158, 31.9994, -3.52055, -68.3088, 2.01252
4.66, 11, -3.41144, 24.1104, 31.9318, -3.58102, -68.4288, 2.04635
4.664, 11, -3.47282, 24.205, 31.8639, -3.64124, -68.5485, 2.08003
4.668, 11, -3.5341, 24.2997, 31.7956, -3.70123, -68.6679, 2.11357
4.672, 11, -3.59527, 24.3945, 31.7271, -3.76098, -68.7872, 2.14697
4.676, 11, -3.65634, 24.4893, 31.6582, -3.8205, -68.9062, 2.18023
4.68, 11, -3.7173, 24.5842, 31.589, -3.87978, -69.025, 2.21335
4.684, 11, -3.77817, 24.6792, 31.5194, -3.93883, -69.1436, 2.24633
4.688, 11, -3.83893, 24.7743, 31.4496, -3.99764, -69.262, 2.27918
4.692, 11, -3.89959, 24.8695, 31.3794, -4.05623, -69.3801, 2.31189
4.696, 11, -3.96015, 24.9647, 31.3089, -4.11458, -69.4981, 2.34447
4.7, 11, -4.0206, 25.06, 31.2381, -4.17271, -69.6158, 2.37693
4.704, 11, -4.08096, 25.1554, 31.1669, -4.23061, -69.7333, 2.40925
4.708, 11, -4.14121, 25.2509, 31.0954, -4.28828, -69.8506, 2.44144
4.712, 11, -4.20136, 25.3465, 31.0236, -4.34572, -69.9676, 2.47351
4.716, 11, -4.26141, 25.4421, 30.9515, -4.40294, -70.0845, 2.50546
4.72, 11, -4.32136, 25.5378, 30.8791, -4.45993, -70.2011, 2.53728
4.724, 11, -4.3812, 25.6336, 30.8063, -4.5167, -70.3175, 2.56899
4.728, 11, -4.44095, 25.7294, 30.7333, -4.57325, -70.4337, 2.60057
4.732, 11, -4.5006, 25.8253, 30.6599, -4.62958, -70.5496, 2.63203
4.736, 11, -4.56014, 25.9213, 30.5861, -4.68569, -70.6653, 2.66338
4.74, 11, -4.61958, 26.0174, 30.5121, -4.74157, -70.7808, 2.69462
4.744, 12, -4.67892, 26.1135, 30.4377, -4.79724, -70.8961, 2.72574
4.748, 12, -4.73815, 26.2097, 30.3631, -4.85269, -71.0111, 2.75675
4.752, 12, -4.79728, 26.306, 30.2881, -4.90793, -71.1258, 2.78764
4.756, 12, -4.85631, 26.4023, 30.2127, -4.96295, -71.2403, 2.81843
4.76, 12, -4.91524, 26.4987, 30.1371, -5.01775, -71.3546, 2.84912
4.764, 12, -4.97406, 26.5952, 30.0611, -5.07234, -71.4687, 2.8797
4.768, 12, -5.03278, 26.6918, 29.9848, -5.12672, -71.5824, 2.91017
4.772, 12, -5.0914, 26.7884, 29.9082, -5.18089, -71.696, 2.94054
4.776, 12, -5.14992, 26.885, 29.8313, -5.23484, -71.8092, 2.97081
4.78, 12, -5.20834, 26.9817, 29.7541, -5.28859, -71.9223, 3.00098
4.784, 12, -5.26665, 27.0785, 29.6765, -5.34212, -72.035, 3.03105
4.788, 12, -5.32486, 27.1754, 29.5986, -5.39545, -72.1476, 3.06103
4.792, 12, -5.38297, 27.2723, 29.5204, -5.44857, -72.2599, 3.09091
4.796, 12, -5.44097, 27.3693, 29.4419, -5.50148, -72.3719, 3.12069
4.8, 12, -5.49887, 27.4663, 29.363, -5.55418, -72.4837, 3.15038
4.804, 12, -5.55667, 27.5635, 29.2839, -5.60668, -72.5952, 3.17998
4.808, 12, -5.61437, 27.6606, 29.2044, -5.65897, -72.7065, 3.20949
4.812, 12, -5.67196, 27.7579, 29.1246, -5.71106, -72.8175, 3.23891
4.816, 12, -5.72945, 27.8552, 29.0444, -5.76294, -72.9283, 3.26824
4.82, 12, -5.78684, 27.9525, 28.964, -5.81462, -73.0389, 3.29748
4.824, 12, -5.84412, 28.0499, 28.8832, -5.8661, -73.1492, 3.32664
4.828, 12, -5.9013, 28.1474, 28.8021, -5.91737, -73.2593, 3.35571
4.832, 12, -5.95838, 28.2449, 28.7207, -5.96845, -73.3691, 3.3847
4.836, 12, -6.01535, 28.3425, 28.639, -6.01932, -73.4787, 3.41361
4.84, 12, -6.07223, 28.4402, 28.5569, -6.06999, -73.5881, 3.44243
4.844, 12, -6.12899, 28.5379, 28.4746, -6.12046, -73.6972, 3.47118
4.848, 12, -6.18566, 28.6357, 28.3919, -6.17073, -73.806, 3.49985
4.852, 12, -6.24222, 28.7336, 28.3089, -6.2208, -73.9146, 3.52844
4.856, 12, -6.29868, 28.8315, 28.2255, -6.27067, -74.023, 3.55696
4.86, 12, -6.35503, 28.9295, 28.1419, -6.32035, -74.1312, 3.5854
4.864, 12, -6.41128, 29.0275, 28.0579, -6.36983, -74.2391, 3.61376
4.868, 12, -6.46743, 29.1256, 27.9736, -6.41911, -74.3467, 3.64206
4.872, 12, -6.52347, 29.2237, 27.889, -6.4682, -74.4541, 3.67028
4.876, 12, -6.57941, 29.322, 27.8041, -6.51709, -74.5613, 3.69843
4.88, 12, -6.63525, 29.4202, 27.7188, -6.56579, -74.6682, 3.72652
4.884, 12, -6.69098, 29.5186, 27.6332, -6.61429, -74.7749, 3.75454
4.888, 12, -6.74661, 29.6169, 27.5474, -6.6626, -74.8813, 3.78249
4.892, 12, -6.80214, 29.7154, 27.4611, -6.71072, -74.9875, 3.81037
4.896, 12, -6.85757, 29.8139, 27.3746, -6.75864, -75.0934, 3.83819
4.9, 12, -6.91289, 29.9125, 27.2877, -6.80637, -75.1991, 3.86595
4.904, 12, -6.96811, 30.0111, 27.2006, -6.85391, -75.3046, 3.89365
4.908, 12, -7.02322, 30.1098, 27.1131, -6.90126, -75.4098, 3.92128
4.912, 13, -7.07823, 30.2085, 27.0253, -6.94842, -75.5147, 3.94886
4.916, 13, -7.13314, 30.3073, 26.9371, -6.99539, -75.6194, 3.97638
4.92, 13, -7.18794, 30.4061, 26.8487, -7.04217, -75.7238, 4.00384
4.924, 13, -7.24263, 30.5051, 26.7599, -7.08877, -75.828, 4.03125
4.928, 13, -7.29723, 30.604, 26.6708, -7.13517, -75.9319, 4.0586
4.932, 13, -7.35172, 30.703, 26.5814, -7.18138, -76.0356, 4.08589
4.936, 13, -7.40611, 30.8021, 26.4916, -7.22741, -76.1391, 4.11313
4.94, 13, -7.46039, 30.9012, 26.4015, -7.27325, -76.2422, 4.14033
4.944, 13, -7.51457, 31.0004, 26.3112, -7.31891, -76.3452, 4.16747
4.948, 13, -7.56865, 31.0997, 26.2204, -7.36438, -76.4478, 4.19456
4.952, 13, -7.62263, 31.1989, 26.1294, -7.40966, -76.5503, 4.2216
4.956, 13, -7.6765, 31.2983, 26.0381, -7.45476, -76.6524, 4.2486
4.96, 13, -7.73027, 31.3977, 25.9464, -7.49967, -76.7543, 4.27554
4.964, 13, -7.78394, 31.4972, 25.8544, -7.5444, -76.856, 4.30245
4.968, 13, -7.8375, 31.5967, 25.7621, -7.58895, -76.9574, 4.32931
4.972, 13, -7.89096, 31.6962, 25.6694, -7.63331, -77.0585, 4.35612
4.976, 13, -7.94431, 31.7958, 25.5765, -7.67749, -77.1594, 4.3829
4.98, 13, -7.99756, 31.8955, 25.4832, -7.72148, -77.2601, 4.40963
4.984, 13, -8.05071, 31.9952, 25.3896, -7.7653, -77.3604, 4.43632
4.988, 13, -8.10376, 32.095, 25.2957, -7.80893, -77.4606, 4.46297
4.992, 13, -8.1567, 32.1948, 25.2014, -7.85238, -77.5604, 4.48959
4.996, 13, -8.20954, 32.2947, 25.1069, -7.89565, -77.66, 4.51616
5, 13, -8.26227, 32.3947, 25.012, -7.93874, -77.7594, 4.54271
5.004, 13, -8.31491, 32.4946, 24.9167, -7.98165, -77.8585, 4.56921
5.008, 13, -8.36744, 32.5947, 24.8212, -8.02437, -77.9573, 4.59568
5.012, 13, -8.41986, 32.6948, 24.7253, -8.06692, -78.0558, 4.62212
5.016, 13, -8.47219, 32.7949, 24.6292, -8.10929, -78.1542, 4.64853
5.02, 13, -8.52441, 32.8951, 24.5326, -8.15148, -78.2522, 4.6749
5.024, 13, -8.57653, 32.9953, 24.4358, -8.1935, -78.35, 4.70124
5.028, 13, -8.62854, 33.0956, 24.3387, -8.23533, -78.4475, 4.72756
5.032, 13, -8.68046, 33.196, 24.2412, -8.27699, -78.5448, 4.75384
5.036, 13, -8.73226, 33.2964, 24.1434, -8.31846, -78.6418, 4.7801
5.04, 13, -8.78397, 33.3968, 24.0453, -8.35977, -78.7385, 4.80633
5.044, 13, -8.83557, 33.4973, 23.9468, -8.40089, -78.835, 4.83254
5.048, 13, -8.88707, 33.5979, 23.8481, -8.44184, -78.9312, 4.85872
5.052, 13, -8.93847, 33.6985, 23.749, -8.48261, -79.0272, 4.88487
5.056, 13, -8.98977, 33.7992, 23.6495, -8.5232, -79.1229, 4.911
5.06, 13, -9.04096, 33.8999, 23.5498, -8.56362, -79.2183, 4.93711
5.064, 13, -9.09206, 34.0006, 23.4497, -8.60386, -79.3135, 4.9632
5.068, 13, -9.14305, 34.1014, 23.3493, -8.64393, -79.4084, 4.98927
5.072, 13, -9.19394, 34.2023, 23.2486, -8.68383, -79.503, 5.01532
5.076, 14, -9.24472, 34.3032, 23.1476, -8.72355, -79.5974, 5.04135
5.08, 14, -9.29541, 34.4041, 23.0462, -8.76309, -79.6915, 5.06737
5.084, 14, -9.34599, 34.5051, 22.9445, -8.80246, -79.7853, 5.09336
5.088, 14, -9.39646, 34.6062, 22.8425, -8.84166, -79.8789, 5.11934
5.092, 14, -9.44684, 34.7073, 22.7402, -8.88068, -79.9722, 5.14531
5.096, 14, -9.49711, 34.8085, 22.6375, -8.91953, -80.0653, 5.17126
5.1, 14, -9.54729, 34.9097, 22.5345, -8.95821, -80.1581, 5.1972
5.104, 14, -9.59736, 35.0109, 22.4312, -8.99671, -80.2506, 5.22312
5.108, 14, -9.64733, 35.1122, 22.3275, -9.03504, -80.3428, 5.24904
5.112, 14, -9.6972, 35.2136, 22.2235, -9.0732, -80.4348, 5.27494
5.116, 14, -9.74697, 35.315, 22.1192, -9.11119, -80.5265, 5.30083
5.12, 14, -9.79663, 35.4165, 22.0146, -9.14901, -80.618, 5.32672
5.124, 14, -9.8462, 35.518, 21.9097, -9.18665, -80.7091, 5.35259
5.128, 14, -9.89566, 35.6195, 21.8044, -9.22412, -80.8, 5.37846
5.132, 14, -9.94502, 35.7211, 21.6988, -9.26142, -80.8907, 5.40432
5.136, 14, -9.99428, 35.8228, 21.5928, -9.29855, -80.981, 5.43017
5.14, 14, -10.0434, 35.9245, 21.4866, -9.33551, -81.0711, 5.45602
5.144, 14, -10.0925, 36.0263, 21.38, -9.3723, -81.161, 5.48187
5.148, 14, -10.1415, 36.1281, 21.273, -9.40892, -81.2505, 5.50771
5.152, 14, -10.1903, 36.2299, 21.1658, -9.44537, -81.3398, 5.53355
5.156, 14, -10.2391, 36.3318, 21.0582, -9.48165, -81.4289, 5.55939
5.16, 14, -10.2877, 36.4338, 20.9503, -9.51776, -81.5176, 5.58522
5.164, 14, -10.3363, 36.5358, 20.842, -9.5537, -81.6061, 5.61106
5.168, 14, -10.3847, 36.6379, 20.7335, -9.58947, -81.6943, 5.6369
5.172, 14, -10.4331, 36.74, 20.6245, -9.62507, -81.7822, 5.66273
5.176, 14, -10.4813, 36.8422, 20.5153, -9.6605, -81.8699, 5.68857
5.18, 14, -10.5295, 36.9444, 20.4057, -9.69577, -81.9573, 5.71441
5.184, 14, -10.5775, 37.0467, 20.2959, -9.73086, -82.0444, 5.74026
5.188, 14, -10.6255, 37.149, 20.1856, -9.76579, -82.1313, 5.7661
5.192, 14, -10.6733, 37.2513, 20.0751, -9.80055, -82.2179, 5.79196
5.196, 14, -10.7211, 37.3538, 19.9642, -9.83514, -82.3042, 5.81782
5.2, 14, -10.7687, 37.4562, 19.8529, -9.86956, -82.3902, 5.84368
5.204, 14, -10.8163, 37.5588, 19.7414, -9.90381, -82.476, 5.86955
5.208, 14, -10.8637, 37.6614, 19.6295, -9.9379, -82.5614, 5.89543
5.212, 14, -10.9111, 37.764, 19.5173, -9.97182, -82.6467, 5.92132
5.216, 14, -10.9583, 37.8667, 19.4047, -10.0056, -82.7316, 5.94721
5.22, 14, -11.0055, 37.9694, 19.2918, -10.0392, -82.8163, 5.97312
5.224, 14, -11.0525, 38.0722, 19.1786, -10.0726, -82.9007, 5.99904
5.228, 14, -11.0995, 38.175, 19.065, -10.1058, -82.9848, 6.02496
5.232, 14, -11.1463, 38.2779, 18.9512, -10.1389, -83.0686, 6.0509
5.236, 14, -11.1931, 38.3809, 18.8369, -10.1718, -83.1522, 6.07686
5.24, 14, -11.2397, 38.4839, 18.7224, -10.2046, -83.2355, 6.10282
5.244, 15, -11.2863, 38.5869, 18.6075, -10.2372, -83.3185, 6.1288
5.248, 15, -11.3328, 38.69, 18.4922, -10.2696, -83.4012, 6.15479
5.252, 15, -11.3791, 38.7932, 18.3766, -10.3018, -83.4837, 6.1808
5.256, 15, -11.4254, 38.8964, 18.2607, -10.3339, -83.5659, 6.20683
5.26, 15, -11.4715, 38.9997, 18.1445, -10.3658, -83.6478, 6.23287
5.264, 15, -11.5176, 39.103, 18.0279, -10.3976, -83.7295, 6.25893
5.268, 15, -11.5636, 39.2064, 17.911, -10.4292, -83.8108, 6.28501
5.272, 15, -11.6094, 39.3098, 17.7937, -10.4606, -83.8919, 6.31111
5.276, 15, -11.6552, 39.4133, 17.6761, -10.4919, -83.9727, 6.33722
5.28, 15, -11.7009, 39.5168, 17.5581, -10.5229, -84.0532, 6.36336
5.284, 15, -11.7464, 39.6204, 17.4398, -10.5539, -84.1335, 6.38952
5.288, 15, -11.7919, 39.7241, 17.3212, -10.5846, -84.2134, 6.41569
5.292, 15, -11.8373, 39.8278, 17.2022, -10.6152, -84.2931, 6.44189
5.296, 15, -11.8826, 39.9316, 17.0829, -10.6457, -84.3725, 6.46812
5.3, 15, -11.9277, 40.0354, 16.9633, -10.6759, -84.4517, 6.49436
5.304, 15, -11.9728, 40.1393, 16.8433, -10.706, -84.5305, 6.52063
5.308, 15, -12.0178, 40.2432, 16.7229, -10.736, -84.6091, 6.54693
5.312, 15, -12.0627, 40.3472, 16.6022, -10.7657, -84.6874, 6.57325
5.316, 15, -12.1075, 40.4513, 16.4812, -10.7953, -84.7654, 6.5996
5.32, 15, -12.1522, 40.5554, 16.3598, -10.8248, -84.8431, 6.62597
5.324, 15, -12.1968, 40.6596, 16.2381, -10.854, -84.9206, 6.65237
5.328, 15, -12.2413, 40.7638, 16.116, -10.8832, -84.9977, 6.67879
5.332, 15, -12.2857, 40.8681, 15.9936, -10.9121, -85.0746, 6.70525
5.336, 15, -12.33, 40.9724, 15.8708, -10.9409, -85.1512, 6.73173
5.34, 15, -12.3742, 41.0768, 15.7477, -10.9695, -85.2275, 6.75825
5.344, 15, -12.4183, 41.1813, 15.6242, -10.9979, -85.3036, 6.78479
5.348, 15, -12.4623, 41.2858, 15.5004, -11.0262, -85.3793, 6.81136
5.352, 15, -12.5062, 41.3903, 15.3763, -11.0544, -85.4548, 6.83797
5.356, 15, -12.5498, 41.4947, 15.2518, -11.0823, -85.53, 6.8646
5.36, 15, -12.593, 41.5987, 15.1272, -11.1101, -85.6049, 6.89126
5.364, 15, -12.6356, 41.7022, 15.0023, -11.1377, -85.6795, 6.91794
5.368, 15, -12.6777, 41.8049, 14.8775, -11.1652, -85.7537, 6.94462
5.372, 15, -12.719, 41.9068, 14.7527, -11.1924, -85.8276, 6.97128
5.376, 15, -12.7595, 42.0077, 14.6283, -11.2194, -85.9009, 6.99788
5.38, 15, -12.7994, 42.1075, 14.5044, -11.2461, -85.9736, 7.02438
5.384, 15, -12.8385, 42.2062, 14.3813, -11.2724, -86.0456, 7.05071
5.388, 15, -12.8768, 42.3035, 14.2593, -11.2984, -86.1165, 7.07681
5.392, 15, -12.9142, 42.3991, 14.1388, -11.3238, -86.1864, 7.10259
5.396, 15, -12.9506, 42.4927, 14.0203, -11.3487, -86.2548, 7.12797
5.4, 15, -12.9858, 42.5837, 13.9043, -11.373, -86.3216, 7.15284
5.404, 15, -13.0197, 42.672, 13.7912, -11.3965, -86.3865, 7.17709
5.408, 15, -13.0522, 42.7572, 13.6816, -11.4192, -86.4491, 7.20061
5.412, 15, -13.0834, 42.8391, 13.576, -11.4409, -86.5092, 7.22326
5.416, 15, -13.1132, 42.9175, 13.4749, -11.4616, -86.5665, 7.24492
5.42, 15, -13.1418, 42.9922, 13.3787, -11.4811, -86.6206, 7.26548
5.424, 15, -13.169, 43.0631, 13.2878, -11.4993, -86.6714, 7.28484
5.428, 15, -13.1948, 43.13, 13.2027, -11.5163, -86.7186, 7.3029
5.432, 15, -13.2192, 43.1926, 13.1237, -11.5319, -86.7621, 7.3196
5.436, 15, -13.2421, 43.2507, 13.0509, -11.5461, -86.8018, 7.33489
5.44, 15, -13.2636, 43.3043, 12.9847, -11.559, -86.8376, 7.34875
5.444, 15, -13.2835, 43.3534, 12.9248, -11.5704, -86.8696, 7.36117
5.448, 15, -13.302, 43.3981, 12.8714, -11.5805, -86.8978, 7.37216
5.452, 15, -13.3191, 43.4385, 12.8241, -11.5893, -86.9224, 7.38177
5.456, 15, -13.3349, 43.4749, 12.7828, -11.5968, -86.9435, 7.39006
5.46, 15, -13.3495, 43.5074, 12.7472, -11.6032, -86.9613, 7.3971
5.464, 15, -13.3627, 43.536, 12.7167, -11.6085, -86.9762, 7.403
5.468, 15, -13.3745, 43.5609, 12.6911, -11.6129, -86.9884, 7.40787
5.472, 15, -13.385, 43.5824, 12.6699, -11.6165, -86.9983, 7.41182
5.476, 15, -13.3943, 43.6006, 12.6525, -11.6193, -87.0062, 7.41499
5.48, 15, -13.4023, 43.616, 12.6385, -11.6215, -87.0123, 7.41747
5.484, 15, -13.4093, 43.629, 12.6274, -11.6232, -87.017, 7.41938
5.488, 15, -13.4154, 43.6399, 12.6188, -11.6244, -87.0205, 7.42083
5.492, 15, -13.4206, 43.6489, 12.6121, -11.6254, -87.0231, 7.4219
5.496, 15, -13.4251, 43.6564, 12.6071, -11.626, -87.0249, 7.42267
5.5, 15, -13.4288, 43.6624, 12.6034, -11.6265, -87.0262, 7.42322
5.504, 16, -13.4318, 43.6672, 12.6007, -11.6268, -87.0271, 7.4236
5.508, 16, -13.4341, 43.6707, 12.5988, -11.627, -87.0277, 7.42386
5.512, 16, -13.4357, 43.6732, 12.5974, -11.6272, -87.0281, 7.42404
5.516, 16, -13.4369, 43.675, 12.5965, -11.6273, -87.0284, 7.42416
5.52, 16, -13.4377, 43.6762, 12.5959, -11.6274, -87.0286, 7.42424
5.524, 16, -13.4382, 43.677, 12.5955, -11.6274, -87.0287, 7.42429
5.528, 16, -13.4385, 43.6775, 12.5952, -11.6274, -87.0288, 7.42433
5.532, 16, -13.4388, 43.6779, 12.595, -11.6275, -87.0289, 7.42436
5.536, 16, -13.4389, 43.6781, 12.5949, -11.6275, -87.0289, 7.42437
5.54, 16, -13.4391, 43.6783, 12.5948, -11.6275, -87.0289, 7.42439
5.544, 16, -13.4391, 43.6784, 12.5947, -11.6275, -87.0289, 7.42439
5.548, 16, -13.4392, 43.6785, 12.5947, -11.6275, -87.029, 7.4244
5.552, 16, -13.4392, 43.6785, 12.5947, -11.6275, -87.029, 7.4244
5.556, 16, -13.4392, 43.6786, 12.5946, -11.6275, -87.029, 7.42441
5.56, 16, -13.4393, 43.6786, 12.5946, -11.6275, -87.029, 7.42441
5.564, 16, -13.4393, 43.6786, 12.5946, -11.6275, -87.029, 7.42441
5.568, 16, -13.4393, 43.6786, 12.5946, -11.6275, -87.029, 7.42441
5.572, 16, -13.4393, 43.6786, 12.5946, -11.6275, -87.029, 7.42441
5.576, 16, -13.4393, 43.6786, 12.5946, -11.6275, -87.029, 7.42441
5.58, 16, -13.4393, 43.6786, 12.5946, -11.6275, -87.029, 7.42441
5.584, 16, -13.4393, 43.6787, 12.5946, -11.6275, -87.029, 7.42441
5.588, 16, -13.4393, 43.6787, 12.5946, -11.6275, -87.029, 7.42441
5.592, 16, -13.4393, 43.6787, 12.5946, -11.6275, -87.029, 7.42441
5.596, 16, -13.4393, 43.6787, 12.5946, -11.6275, -87.029, 7.42441
5.6, 16, -13.4393, 43.6787, 12.5946, -11.6275, -87.029, 7.42441
5.604, 16, -13.4393, 43.6787, 12.5946, -11.6275, -87.029, 7.42441
5.608, 16, -13.4393, 43.6787, 12.5946, -11.6275, -87.029, 7.42441
5.612, 16, -13.4393, 43.6787, 12.5946, -11.6275, -87.029, 7.42441
5.616, 16, -13.4393, 43.6787, 12.5946, -11.6275, -87.029, 7.42441
5.62, 16, -13.4393, 43.6787, 12.5946, -11.6275, -87.029, 7.42441
