hehonglu123/ABB_Primitive_Study/execution/movelcl_30_car2/curve_exe_v1000_z1.csv
timestamp, cmd_num, J1, J2, J3, J4, J5, J6
0, -1, -13.4393, 43.6787, 12.5946, -11.6275, -87.029, 7.42441
0.003, -1, -13.4393, 43.6787, 12.5946, -11.6275, -87.029, 7.42441
0.006, -1, -13.4393, 43.6787, 12.5946, -11.6275, -87.029, 7.42441
0.008, -1, -13.4393, 43.6787, 12.5946, -11.6275, -87.029, 7.42441
0.011, -1, -13.4393, 43.6787, 12.5946, -11.6275, -87.029, 7.42441
0.016, -1, -13.4393, 43.6787, 12.5946, -11.6275, -87.029, 7.42441
0.02, -1, -13.4393, 43.6787, 12.5946, -11.6275, -87.029, 7.42441
0.024, -1, -13.4393, 43.6787, 12.5946, -11.6275, -87.029, 7.42441
0.028, -1, -13.4393, 43.6787, 12.5946, -11.6275, -87.029, 7.42441
0.032, -1, -13.4393, 43.6787, 12.5946, -11.6275, -87.029, 7.42441
0.036, -1, -13.4392, 43.6786, 12.5946, -11.6275, -87.029, 7.42441
0.04, -1, -13.439, 43.6785, 12.5946, -11.6275, -87.029, 7.42441
0.044, -1, -13.4384, 43.678, 12.5947, -11.6275, -87.029, 7.42439
0.048, -1, -13.4372, 43.6772, 12.5949, -11.6274, -87.0289, 7.42434
0.052, -1, -13.4355, 43.6758, 12.5951, -11.6273, -87.0287, 7.42422
0.056, -1, -13.433, 43.6738, 12.5955, -11.627, -87.0284, 7.42397
0.06, -1, -13.4296, 43.671, 12.5961, -11.6264, -87.0277, 7.42349
0.064, -1, -13.4254, 43.6675, 12.5969, -11.6253, -87.0264, 7.42266
0.068, -1, -13.4203, 43.6631, 12.598, -11.6236, -87.0244, 7.42132
0.072, -1, -13.4141, 43.6579, 12.5994, -11.6209, -87.0213, 7.41928
0.076, -1, -13.4066, 43.6516, 12.6011, -11.617, -87.0167, 7.4163
0.08, -1, -13.3977, 43.6442, 12.6034, -11.6115, -87.0103, 7.41213
0.084, -1, -13.3869, 43.6352, 12.6062, -11.604, -87.0016, 7.40644
0.088, -1, -13.3743, 43.6247, 12.6097, -11.5941, -86.9899, 7.39892
0.092, -1, -13.3596, 43.6124, 12.6138, -11.5812, -86.9748, 7.38918
0.096, -1, -13.3427, 43.5982, 12.6186, -11.5648, -86.9557, 7.37685
0.1, -1, -13.3235, 43.582, 12.6243, -11.5444, -86.9319, 7.36155
0.104, -1, -13.3019, 43.5636, 12.6308, -11.5196, -86.9029, 7.3429
0.108, -1, -13.2776, 43.5427, 12.6382, -11.4899, -86.868, 7.32054
0.112, -1, -13.2505, 43.5193, 12.6467, -11.4547, -86.8269, 7.29416
0.116, -1, -13.2206, 43.4932, 12.6562, -11.4137, -86.7789, 7.26346
0.12, -1, -13.1877, 43.4644, 12.6669, -11.3667, -86.7238, 7.22818
0.124, -1, -13.1519, 43.4328, 12.6786, -11.3132, -86.6612, 7.18814
0.128, -1, -13.113, 43.3984, 12.6916, -11.2532, -86.591, 7.14319
0.131, -1, -13.071, 43.3611, 12.7056, -11.1865, -86.5129, 7.09326
0.136, -1, -13.026, 43.321, 12.7209, -11.1131, -86.4269, 7.03835
0.139, -1, -12.9779, 43.2779, 12.7373, -11.0331, -86.3333, 6.9785
0.144, -1, -12.9267, 43.232, 12.7548, -10.9467, -86.2321, 6.91384
0.148, -1, -12.8726, 43.1833, 12.7734, -10.854, -86.1236, 6.84454
0.152, -1, -12.8155, 43.132, 12.7932, -10.7555, -86.0082, 6.77084
0.156, -1, -12.7557, 43.0781, 12.8139, -10.6514, -85.8863, 6.69301
0.16, -1, -12.6932, 43.0219, 12.8355, -10.5422, -85.7585, 6.61137
0.164, -1, -12.6282, 42.9633, 12.8581, -10.4284, -85.6253, 6.52627
0.168, -1, -12.5607, 42.9025, 12.8815, -10.3105, -85.4872, 6.43809
0.172, -1, -12.4909, 42.8396, 12.9056, -10.189, -85.3449, 6.34721
0.176, -1, -12.4189, 42.7749, 12.9305, -10.0644, -85.1989, 6.25399
0.18, -1, -12.345, 42.7085, 12.956, -9.93711, -85.0499, 6.15879
0.184, -1, -12.2694, 42.6406, 12.9821, -9.80765, -84.8983, 6.06194
0.188, -1, -12.1925, 42.5714, 13.0086, -9.6764, -84.7446, 5.96375
0.192, -1, -12.1142, 42.5011, 13.0356, -9.54373, -84.5892, 5.86449
0.196, -1, -12.0348, 42.4297, 13.0629, -9.40995, -84.4326, 5.76439
0.2, -1, -11.9542, 42.3573, 13.0906, -9.27534, -84.2749, 5.66366
0.204, -1, -11.8724, 42.2841, 13.1185, -9.14011, -84.1166, 5.56246
0.208, -1, -11.7897, 42.21, 13.1466, -9.00443, -83.9577, 5.46092
0.212, -1, -11.7061, 42.1354, 13.1749, -8.86843, -83.7985, 5.35913
0.216, -1, -11.6218, 42.0602, 13.2033, -8.7322, -83.6389, 5.25717
0.22, -1, -11.5371, 41.9847, 13.2318, -8.5958, -83.4792, 5.15507
0.224, -1, -11.452, 41.909, 13.2603, -8.45928, -83.3194, 5.05288
0.228, -1, -11.3667, 41.8332, 13.2889, -8.32266, -83.1594, 4.95062
0.232, -1, -11.2813, 41.7572, 13.3176, -8.18597, -82.9993, 4.8483
0.236, -1, -11.1957, 41.6811, 13.3462, -8.04922, -82.8392, 4.74595
0.24, -1, -11.11, 41.605, 13.3749, -7.91243, -82.679, 4.64355
0.244, -1, -11.0243, 41.5288, 13.4035, -7.77561, -82.5188, 4.54114
0.248, -1, -10.9386, 41.4526, 13.4322, -7.63876, -82.3586, 4.4387
0.252, -1, -10.8528, 41.3764, 13.4609, -7.50189, -82.1983, 4.33625
0.256, -1, -10.767, 41.3002, 13.4896, -7.36501, -82.0381, 4.2338
0.26, -1, -10.6811, 41.2239, 13.5183, -7.22813, -81.8778, 4.13133
0.264, -1, -10.5953, 41.1477, 13.547, -7.09125, -81.7175, 4.02887
0.268, -1, -10.5094, 41.0714, 13.5757, -6.95436, -81.5572, 3.92641
0.272, -1, -10.4236, 40.9952, 13.6044, -6.81749, -81.397, 3.82396
0.276, -1, -10.3378, 40.9189, 13.6331, -6.68063, -81.2367, 3.72151
0.28, -1, -10.252, 40.8427, 13.6618, -6.54379, -81.0765, 3.61908
0.284, -1, -10.1661, 40.7665, 13.6904, -6.40697, -80.9163, 3.51666
0.288, -1, -10.0803, 40.6903, 13.7191, -6.27017, -80.7561, 3.41427
0.292, -1, -9.99456, 40.6141, 13.7478, -6.13341, -80.596, 3.31189
0.296, -1, -9.9088, 40.538, 13.7764, -5.99668, -80.4359, 3.20955
0.3, -1, -9.82306, 40.4618, 13.8051, -5.85999, -80.2758, 3.10723
0.304, -1, -9.73734, 40.3857, 13.8337, -5.72334, -80.1158, 3.00494
0.308, -1, -9.65166, 40.3096, 13.8624, -5.58674, -79.9558, 2.90269
0.312, -1, -9.566, 40.2336, 13.891, -5.45019, -79.796, 2.80048
0.316, -1, -9.48038, 40.1575, 13.9196, -5.31369, -79.6361, 2.69831
0.32, -1, -9.3948, 40.0815, 13.9482, -5.17726, -79.4764, 2.59618
0.324, -1, -9.30925, 40.0055, 13.9768, -5.04089, -79.3167, 2.4941
0.328, -1, -9.22375, 39.9296, 14.0054, -4.90458, -79.1571, 2.39207
0.332, -1, -9.13829, 39.8537, 14.0339, -4.76835, -78.9976, 2.2901
0.336, -1, -9.05287, 39.7778, 14.0625, -4.63219, -78.8382, 2.18818
0.34, -1, -8.9675, 39.702, 14.091, -4.49612, -78.6788, 2.08632
0.344, -1, -8.88219, 39.6262, 14.1195, -4.36012, -78.5196, 1.98452
0.348, -1, -8.79692, 39.5505, 14.148, -4.22421, -78.3604, 1.88279
0.352, -1, -8.71172, 39.4748, 14.1765, -4.0884, -78.2014, 1.78113
0.356, -1, -8.62657, 39.3992, 14.2049, -3.95267, -78.0425, 1.67953
0.36, -1, -8.54148, 39.3236, 14.2334, -3.81705, -77.8837, 1.57801
0.364, -1, -8.45646, 39.2481, 14.2618, -3.68152, -77.725, 1.47657
0.368, -1, -8.3715, 39.1727, 14.2902, -3.54611, -77.5664, 1.3752
0.372, -1, -8.28661, 39.0973, 14.3185, -3.4108, -77.408, 1.27392
0.376, -1, -8.20179, 39.0219, 14.3469, -3.2756, -77.2497, 1.17272
0.38, -1, -8.11704, 38.9467, 14.3752, -3.14052, -77.0915, 1.07161
0.384, -1, -8.03237, 38.8715, 14.4035, -3.00557, -76.9335, 0.970588
0.388, -1, -7.94777, 38.7963, 14.4318, -2.87073, -76.7756, 0.869659
0.392, -1, -7.86325, 38.7212, 14.46, -2.73602, -76.6179, 0.768825
0.396, -1, -7.77881, 38.6463, 14.4882, -2.60145, -76.4603, 0.668089
0.4, -1, -7.69446, 38.5713, 14.5164, -2.467, -76.3029, 0.567454
0.404, -1, -7.61019, 38.4965, 14.5446, -2.3327, -76.1456, 0.466921
0.408, -1, -7.526, 38.4217, 14.5727, -2.19854, -75.9885, 0.366494
0.412, -1, -7.44191, 38.347, 14.6008, -2.06452, -75.8316, 0.266176
0.416, -1, -7.35791, 38.2724, 14.6288, -1.93064, -75.6748, 0.165968
0.42, -1, -7.274, 38.1979, 14.6569, -1.79692, -75.5183, 0.0658724
0.424, -1, -7.19019, 38.1235, 14.6849, -1.66336, -75.3619, -0.0341072
0.428, -1, -7.10648, 38.0491, 14.7128, -1.52995, -75.2057, -0.133969
0.432, -1, -7.02287, 37.9748, 14.7408, -1.3967, -75.0496, -0.233711
0.436, -1, -6.93935, 37.9007, 14.7687, -1.26362, -74.8938, -0.33333
0.44, -1, -6.85595, 37.8266, 14.7965, -1.1307, -74.7382, -0.432824
0.444, -1, -6.77264, 37.7526, 14.8244, -0.99795, -74.5827, -0.532191
0.448, -1, -6.68945, 37.6787, 14.8522, -0.865375, -74.4275, -0.631429
0.452, -1, -6.60636, 37.6049, 14.8799, -0.732975, -74.2725, -0.730535
0.456, -1, -6.52339, 37.5312, 14.9077, -0.600755, -74.1176, -0.829507
0.46, -1, -6.44053, 37.4576, 14.9353, -0.468716, -73.963, -0.928344
0.464, -1, -6.35778, 37.3842, 14.963, -0.336861, -73.8086, -1.02704
0.468, -1, -6.27515, 37.3108, 14.9906, -0.205193, -73.6545, -1.1256
0.472, -1, -6.19264, 37.2375, 15.0181, -0.0737153, -73.5005, -1.22402
0.476, -1, -6.11024, 37.1643, 15.0457, 0.0575699, -73.3468, -1.32229
0.48, -1, -6.02797, 37.0912, 15.0732, 0.18866, -73.1933, -1.42042
0.484, -1, -5.94582, 37.0183, 15.1006, 0.319552, -73.04, -1.51839
0.488, -1, -5.8638, 36.9454, 15.128, 0.450244, -72.887, -1.61622
0.492, -1, -5.7819, 36.8727, 15.1554, 0.580734, -72.7342, -1.7139
0.496, -1, -5.70012, 36.8001, 15.1827, 0.711018, -72.5817, -1.81142
0.5, -1, -5.61848, 36.7276, 15.2099, 0.841096, -72.4294, -1.90879
0.504, -1, -5.53697, 36.6552, 15.2372, 0.970964, -72.2773, -2.006
0.508, -1, -5.45558, 36.5829, 15.2644, 1.10062, -72.1255, -2.10306
0.512, -1, -5.37433, 36.5108, 15.2915, 1.23006, -71.9739, -2.19995
0.516, -1, -5.29321, 36.4387, 15.3186, 1.35929, -71.8226, -2.29668
0.52, -1, -5.21223, 36.3668, 15.3456, 1.4883, -71.6715, -2.39325
0.524, -1, -5.13138, 36.295, 15.3726, 1.6171, -71.5207, -2.48966
0.528, -1, -5.05067, 36.2233, 15.3996, 1.74567, -71.3702, -2.5859
0.532, -1, -4.97009, 36.1518, 15.4265, 1.87402, -71.2199, -2.68198
0.536, -1, -4.88966, 36.0803, 15.4534, 2.00215, -71.0698, -2.77789
0.54, -1, -4.80936, 36.009, 15.4802, 2.13005, -70.9201, -2.87363
0.544, -1, -4.7292, 35.9378, 15.507, 2.25773, -70.7706, -2.9692
0.548, -1, -4.64919, 35.8668, 15.5337, 2.38518, -70.6213, -3.0646
0.552, -1, -4.56931, 35.7959, 15.5604, 2.51241, -70.4724, -3.15984
0.556, -1, -4.48958, 35.725, 15.587, 2.6394, -70.3237, -3.2549
0.56, -1, -4.41, 35.6544, 15.6136, 2.76617, -70.1752, -3.34979
0.564, -1, -4.33056, 35.5838, 15.6401, 2.8927, -70.0271, -3.44451
0.568, -1, -4.25126, 35.5134, 15.6666, 3.01901, -69.8792, -3.53905
0.572, -1, -4.17211, 35.4431, 15.693, 3.14508, -69.7316, -3.63342
0.576, -1, -4.0931, 35.373, 15.7194, 3.27092, -69.5842, -3.72761
0.58, -1, -4.01424, 35.3029, 15.7458, 3.39652, -69.4372, -3.82163
0.584, -1, -3.93553, 35.233, 15.772, 3.52189, -69.2904, -3.91547
0.588, -1, -3.85696, 35.1633, 15.7983, 3.64702, -69.1438, -4.00914
0.592, -1, -3.77855, 35.0936, 15.8245, 3.77191, -68.9976, -4.10263
0.596, -1, -3.70028, 35.0241, 15.8506, 3.89657, -68.8516, -4.19594
0.6, -1, -3.62216, 34.9548, 15.8767, 4.02099, -68.7059, -4.28908
0.604, -1, -3.54419, 34.8855, 15.9027, 4.14517, -68.5605, -4.38203
0.608, -1, -3.46637, 34.8164, 15.9287, 4.26911, -68.4154, -4.47481
0.612, -1, -3.3887, 34.7474, 15.9547, 4.39281, -68.2706, -4.5674
0.616, -1, -3.31118, 34.6786, 15.9806, 4.51628, -68.126, -4.65982
0.62, -1, -3.23382, 34.6099, 16.0064, 4.63949, -67.9817, -4.75205
0.624, -1, -3.1566, 34.5413, 16.0322, 4.76247, -67.8377, -4.84411
0.628, -1, -3.07954, 34.4729, 16.0579, 4.88521, -67.694, -4.93598
0.632, -1, -3.00262, 34.4046, 16.0836, 5.0077, -67.5506, -5.02767
0.636, -1, -2.92586, 34.3364, 16.1092, 5.12995, -67.4074, -5.11918
0.64, -1, -2.84926, 34.2684, 16.1348, 5.25195, -67.2646, -5.2105
0.644, -1, -2.7728, 34.2005, 16.1604, 5.37371, -67.122, -5.30165
0.648, -1, -2.6965, 34.1328, 16.1858, 5.49523, -66.9797, -5.39261
0.652, -1, -2.62035, 34.0652, 16.2113, 5.6165, -66.8377, -5.48338
0.656, -1, -2.54436, 33.9977, 16.2366, 5.73753, -66.696, -5.57398
0.66, -1, -2.46852, 33.9303, 16.262, 5.85831, -66.5546, -5.66439
0.664, -1, -2.39283, 33.8631, 16.2872, 5.97884, -66.4135, -5.75461
0.668, -1, -2.3173, 33.7961, 16.3125, 6.09913, -66.2726, -5.84465
0.672, -1, -2.24192, 33.7291, 16.3376, 6.21917, -66.1321, -5.93451
0.676, -1, -2.1667, 33.6623, 16.3628, 6.33897, -65.9918, -6.02418
0.68, -1, -2.09163, 33.5957, 16.3878, 6.45851, -65.8518, -6.11367
0.684, -1, -2.01672, 33.5292, 16.4129, 6.57781, -65.7121, -6.20297
0.688, -1, -1.94196, 33.4628, 16.4378, 6.69687, -65.5727, -6.29208
0.692, -1, -1.86736, 33.3965, 16.4627, 6.81567, -65.4336, -6.38101
0.696, -1, -1.79291, 33.3304, 16.4876, 6.93423, -65.2948, -6.46976
0.7, -1, -1.71862, 33.2645, 16.5124, 7.05254, -65.1562, -6.55832
0.704, -1, -1.64448, 33.1986, 16.5372, 7.1706, -65.018, -6.64669
0.708, -1, -1.5705, 33.1329, 16.5619, 7.28841, -64.8801, -6.73488
0.712, -1, -1.49668, 33.0674, 16.5865, 7.40597, -64.7424, -6.82288
0.716, -1, -1.42301, 33.002, 16.6111, 7.52329, -64.605, -6.9107
0.72, -1, -1.34949, 32.9367, 16.6357, 7.64036, -64.468, -6.99833
0.724, -1, -1.27614, 32.8715, 16.6602, 7.75718, -64.3312, -7.08577
0.728, -1, -1.20293, 32.8065, 16.6846, 7.87375, -64.1947, -7.17303
0.732, -1, -1.12989, 32.7417, 16.709, 7.99007, -64.0585, -7.2601
0.736, -1, -1.057, 32.677, 16.7333, 8.10615, -63.9226, -7.34699
0.74, -1, -0.984259, 32.6124, 16.7576, 8.22197, -63.7869, -7.43369
0.744, -1, -0.911678, 32.5479, 16.7819, 8.33755, -63.6516, -7.52021
0.748, -1, -0.839252, 32.4836, 16.8061, 8.45288, -63.5166, -7.60653
0.752, -1, -0.766981, 32.4194, 16.8302, 8.56796, -63.3818, -7.69268
0.756, -1, -0.694864, 32.3554, 16.8543, 8.6828, -63.2474, -7.77864
0.76, -1, -0.622901, 32.2915, 16.8783, 8.79738, -63.1132, -7.86441
0.764, -1, -0.551092, 32.2277, 16.9023, 8.91172, -62.9793, -7.95
0.768, -1, -0.479437, 32.1641, 16.9262, 9.02582, -62.8457, -8.0354
0.772, -1, -0.407935, 32.1006, 16.9501, 9.13966, -62.7124, -8.12062
0.776, -1, -0.336586, 32.0373, 16.9739, 9.25326, -62.5794, -8.20566
0.78, -1, -0.26539, 31.9741, 16.9977, 9.36662, -62.4467, -8.29051
0.784, -1, -0.194346, 31.911, 17.0214, 9.47973, -62.3142, -8.37518
0.788, -1, -0.123455, 31.848, 17.0451, 9.5926, -62.182, -8.45966
0.792, -1, -0.0527154, 31.7852, 17.0687, 9.70522, -62.0502, -8.54397
0.796, -1, 0.0178725, 31.7226, 17.0923, 9.81761, -61.9186, -8.62809
0.8, -1, 0.0883091, 31.66, 17.1158, 9.92975, -61.7873, -8.71204
0.804, -1, 0.158595, 31.5976, 17.1393, 10.0417, -61.6562, -8.7958
0.808, -1, 0.22873, 31.5353, 17.1627, 10.1533, -61.5255, -8.87938
0.812, -1, 0.298716, 31.4732, 17.186, 10.2647, -61.395, -8.96279
0.816, -1, 0.368552, 31.4112, 17.2094, 10.3759, -61.2648, -9.04602
0.82, -1, 0.438239, 31.3493, 17.2326, 10.4869, -61.1349, -9.12907
0.824, -1, 0.507778, 31.2876, 17.2559, 10.5976, -61.0053, -9.21194
0.828, -1, 0.577169, 31.226, 17.279, 10.7081, -60.8759, -9.29464
0.832, -1, 0.646413, 31.1645, 17.3021, 10.8183, -60.7468, -9.37716
0.836, -1, 0.71551, 31.1031, 17.3252, 10.9283, -60.618, -9.45951
0.84, -1, 0.78446, 31.0419, 17.3482, 11.0381, -60.4895, -9.54168
0.844, -1, 0.853266, 30.9808, 17.3712, 11.1476, -60.3612, -9.62368
0.848, -1, 0.921925, 30.9199, 17.3941, 11.2569, -60.2332, -9.7055
0.852, -1, 0.990441, 30.859, 17.417, 11.366, -60.1055, -9.78716
0.856, -1, 1.05881, 30.7983, 17.4398, 11.4749, -59.9781, -9.86864
0.86, -1, 1.12704, 30.7378, 17.4626, 11.5835, -59.8509, -9.94995
0.864, -1, 1.19512, 30.6773, 17.4854, 11.6919, -59.7239, -10.0311
0.868, -1, 1.26307, 30.617, 17.508, 11.8001, -59.5973, -10.1121
0.872, -1, 1.33087, 30.5568, 17.5307, 11.908, -59.4709, -10.1929
0.876, -1, 1.39853, 30.4967, 17.5533, 12.0157, -59.3448, -10.2735
0.88, -1, 1.46604, 30.4368, 17.5758, 12.1232, -59.2189, -10.354
0.884, -1, 1.53342, 30.377, 17.5983, 12.2305, -59.0933, -10.4343
0.888, -1, 1.60066, 30.3173, 17.6208, 12.3375, -58.9679, -10.5144
0.892, -1, 1.66775, 30.2577, 17.6432, 12.4444, -58.8429, -10.5943
0.896, -1, 1.73471, 30.1982, 17.6655, 12.551, -58.718, -10.6741
0.9, -1, 1.80153, 30.1389, 17.6878, 12.6574, -58.5935, -10.7538
0.904, -1, 1.86821, 30.0797, 17.7101, 12.7635, -58.4692, -10.8332
0.908, -1, 1.93476, 30.0206, 17.7323, 12.8695, -58.3451, -10.9125
0.912, -1, 2.00117, 29.9617, 17.7545, 12.9752, -58.2213, -10.9917
0.916, -1, 2.06744, 29.9028, 17.7766, 13.0807, -58.0978, -11.0707
0.92, -1, 2.13357, 29.8441, 17.7987, 13.186, -57.9745, -11.1495
0.924, -1, 2.19957, 29.7855, 17.8207, 13.2911, -57.8514, -11.2281
0.928, -1, 2.26543, 29.727, 17.8427, 13.3959, -57.7287, -11.3066
0.932, -1, 2.33116, 29.6687, 17.8647, 13.5006, -57.6061, -11.385
0.936, -1, 2.39676, 29.6104, 17.8866, 13.605, -57.4838, -11.4631
0.94, -1, 2.46222, 29.5523, 17.9084, 13.7092, -57.3618, -11.5412
0.944, -1, 2.52755, 29.4943, 17.9303, 13.8133, -57.24, -11.619
0.948, -1, 2.59275, 29.4364, 17.952, 13.9171, -57.1185, -11.6967
0.952, -1, 2.65781, 29.3787, 17.9738, 14.0206, -56.9972, -11.7743
0.956, -1, 2.72274, 29.321, 17.9954, 14.124, -56.8761, -11.8516
0.96, -1, 2.78755, 29.2635, 18.0171, 14.2272, -56.7553, -11.9289
0.964, -1, 2.85222, 29.2061, 18.0387, 14.3302, -56.6348, -12.0059
0.968, -1, 2.91676, 29.1488, 18.0602, 14.4329, -56.5144, -12.0829
0.972, -1, 2.98117, 29.0916, 18.0817, 14.5355, -56.3944, -12.1596
0.976, -1, 3.04545, 29.0345, 18.1032, 14.6378, -56.2745, -12.2362
0.98, -1, 3.10961, 28.9775, 18.1246, 14.7399, -56.1549, -12.3127
0.984, -1, 3.17363, 28.9207, 18.146, 14.8419, -56.0356, -12.389
0.988, -1, 3.23753, 28.864, 18.1673, 14.9436, -55.9165, -12.4651
0.992, -1, 3.3013, 28.8074, 18.1886, 15.0451, -55.7976, -12.5411
0.996, -1, 3.36494, 28.7508, 18.2099, 15.1465, -55.6789, -12.617
1, -1, 3.42846, 28.6945, 18.2311, 15.2476, -55.5605, -12.6927
1.004, -1, 3.49185, 28.6382, 18.2523, 15.3485, -55.4423, -12.7682
1.008, -1, 3.55512, 28.582, 18.2734, 15.4492, -55.3244, -12.8436
1.012, -1, 3.61826, 28.5259, 18.2945, 15.5498, -55.2067, -12.9189
1.016, -1, 3.68127, 28.47, 18.3155, 15.6501, -55.0892, -12.994
1.02, -1, 3.74416, 28.4142, 18.3365, 15.7502, -54.972, -13.0689
1.024, -1, 3.80693, 28.3584, 18.3575, 15.8502, -54.855, -13.1437
1.027, -1, 3.86958, 28.3028, 18.3784, 15.9499, -54.7382, -13.2184
1.032, -1, 3.9321, 28.2473, 18.3993, 16.0494, -54.6216, -13.2929
1.036, -1, 3.9945, 28.1919, 18.4201, 16.1488, -54.5053, -13.3673
1.04, -1, 4.05678, 28.1366, 18.4409, 16.2479, -54.3892, -13.4415
1.044, -1, 4.11893, 28.0814, 18.4616, 16.3469, -54.2733, -13.5156
1.048, -1, 4.18097, 28.0263, 18.4824, 16.4457, -54.1577, -13.5895
1.052, -1, 4.24289, 27.9714, 18.503, 16.5442, -54.0422, -13.6633
1.055, -1, 4.30468, 27.9165, 18.5237, 16.6426, -53.927, -13.7369
1.06, -1, 4.36636, 27.8617, 18.5443, 16.7408, -53.8121, -13.8104
1.064, -1, 4.42792, 27.8071, 18.5648, 16.8388, -53.6973, -13.8838
1.068, -1, 4.48936, 27.7525, 18.5853, 16.9366, -53.5828, -13.957
1.072, -1, 4.55068, 27.6981, 18.6058, 17.0343, -53.4685, -14.0301
1.076, -1, 4.61188, 27.6438, 18.6262, 17.1317, -53.3544, -14.103
1.08, -1, 4.67297, 27.5895, 18.6466, 17.229, -53.2405, -14.1758
1.084, -1, 4.73394, 27.5354, 18.667, 17.326, -53.1268, -14.2485
1.088, -1, 4.7948, 27.4814, 18.6873, 17.4229, -53.0134, -14.321
1.091, -1, 4.85554, 27.4274, 18.7076, 17.5196, -52.9002, -14.3934
1.096, -1, 4.91617, 27.3736, 18.7278, 17.6161, -52.7871, -14.4656
1.1, -1, 4.97668, 27.3199, 18.7481, 17.7125, -52.6743, -14.5378
1.104, -1, 5.03708, 27.2663, 18.7682, 17.8086, -52.5618, -14.6097
1.108, -1, 5.09737, 27.2127, 18.7883, 17.9046, -52.4494, -14.6816
1.112, -1, 5.15754, 27.1593, 18.8084, 18.0004, -52.3372, -14.7533
1.116, -1, 5.2176, 27.106, 18.8285, 18.096, -52.2253, -14.8249
1.119, -1, 5.27755, 27.0528, 18.8485, 18.1915, -52.1135, -14.8963
1.124, -1, 5.33739, 26.9996, 18.8685, 18.2867, -52.0019, -14.9676
1.128, -1, 5.39712, 26.9466, 18.8884, 18.3818, -51.8906, -15.0388
1.132, -1, 5.45673, 26.8937, 18.9083, 18.4767, -51.7795, -15.1098
1.136, -1, 5.51624, 26.8408, 18.9282, 18.5715, -51.6685, -15.1807
1.14, -1, 5.57564, 26.7881, 18.948, 18.666, -51.5578, -15.2515
1.144, -1, 5.63493, 26.7355, 18.9678, 18.7604, -51.4473, -15.3222
1.147, -1, 5.69412, 26.6829, 18.9876, 18.8547, -51.337, -15.3927
1.152, -1, 5.75319, 26.6305, 19.0073, 18.9487, -51.2268, -15.4631
1.156, -1, 5.81216, 26.5781, 19.027, 19.0426, -51.1169, -15.5334
1.16, -1, 5.87103, 26.5259, 19.0467, 19.1363, -51.0072, -15.6035
1.164, -1, 5.92979, 26.4737, 19.0663, 19.2298, -50.8976, -15.6736
1.168, -1, 5.98844, 26.4216, 19.0859, 19.3232, -50.7883, -15.7435
1.172, -1, 6.04699, 26.3696, 19.1054, 19.4164, -50.6792, -15.8132
1.175, -1, 6.10543, 26.3177, 19.1249, 19.5095, -50.5702, -15.8829
1.18, -1, 6.16377, 26.266, 19.1444, 19.6024, -50.4614, -15.9524
1.184, -1, 6.22201, 26.2142, 19.1639, 19.6951, -50.3529, -16.0218
1.188, -1, 6.28015, 26.1626, 19.1833, 19.7876, -50.2445, -16.0911
1.192, -1, 6.33818, 26.1111, 19.2027, 19.88, -50.1363, -16.1603
1.196, -1, 6.39611, 26.0597, 19.222, 19.9723, -50.0283, -16.2293
1.2, -1, 6.45394, 26.0083, 19.2413, 20.0643, -49.9205, -16.2982
1.204, -1, 6.51167, 25.9571, 19.2606, 20.1562, -49.8129, -16.367
1.208, -1, 6.5693, 25.9059, 19.2798, 20.248, -49.7055, -16.4357
1.212, -1, 6.62683, 25.8548, 19.299, 20.3396, -49.5982, -16.5042
1.216, -1, 6.68426, 25.8038, 19.3182, 20.431, -49.4912, -16.5727
1.22, -1, 6.74159, 25.7529, 19.3374, 20.5223, -49.3843, -16.641
1.224, -1, 6.79882, 25.7021, 19.3565, 20.6134, -49.2776, -16.7092
1.228, -1, 6.85596, 25.6514, 19.3756, 20.7044, -49.1711, -16.7773
1.232, -1, 6.91299, 25.6008, 19.3946, 20.7952, -49.0648, -16.8453
1.236, -1, 6.96993, 25.5502, 19.4136, 20.8858, -48.9586, -16.9131
1.24, -1, 7.02678, 25.4997, 19.4326, 20.9763, -48.8526, -16.9809
1.244, -1, 7.08352, 25.4494, 19.4515, 21.0667, -48.7469, -17.0485
1.248, -1, 7.14018, 25.3991, 19.4705, 21.1569, -48.6413, -17.116
1.252, -1, 7.19673, 25.3488, 19.4893, 21.2469, -48.5358, -17.1834
1.256, -1, 7.25319, 25.2987, 19.5082, 21.3368, -48.4306, -17.2507
1.26, -1, 7.30956, 25.2487, 19.527, 21.4266, -48.3255, -17.3179
1.264, -1, 7.36583, 25.1987, 19.5458, 21.5161, -48.2206, -17.385
1.267, -1, 7.42201, 25.1488, 19.5646, 21.6056, -48.1158, -17.4519
1.272, -1, 7.4781, 25.099, 19.5833, 21.6949, -48.0113, -17.5188
1.276, -1, 7.53409, 25.0493, 19.602, 21.784, -47.9069, -17.5855
1.28, -1, 7.58999, 24.9997, 19.6207, 21.873, -47.8027, -17.6521
1.284, -1, 7.6458, 24.9501, 19.6393, 21.9619, -47.6986, -17.7186
1.288, -1, 7.70152, 24.9007, 19.6579, 22.0506, -47.5948, -17.785
1.292, -1, 7.75715, 24.8513, 19.6765, 22.1392, -47.4911, -17.8513
1.295, -1, 7.81268, 24.802, 19.695, 22.2276, -47.3875, -17.9175
1.3, -1, 7.86813, 24.7528, 19.7135, 22.3159, -47.2842, -17.9836
1.304, -1, 7.92348, 24.7036, 19.732, 22.404, -47.181, -18.0496
1.308, -1, 7.97875, 24.6545, 19.7505, 22.492, -47.0779, -18.1154
1.312, -1, 8.03393, 24.6055, 19.7689, 22.5798, -46.9751, -18.1812
1.316, -1, 8.08901, 24.5566, 19.7873, 22.6675, -46.8724, -18.2468
1.32, -1, 8.14401, 24.5078, 19.8057, 22.7551, -46.7699, -18.3124
1.324, -1, 8.19893, 24.4591, 19.824, 22.8425, -46.6675, -18.3778
1.328, -1, 8.25375, 24.4104, 19.8423, 22.9298, -46.5653, -18.4432
1.332, -1, 8.30849, 24.3618, 19.8606, 23.017, -46.4632, -18.5084
1.336, -1, 8.36314, 24.3133, 19.8788, 23.104, -46.3614, -18.5735
1.34, -1, 8.4177, 24.2648, 19.8971, 23.1909, -46.2596, -18.6386
1.344, -1, 8.47218, 24.2165, 19.9153, 23.2776, -46.1581, -18.7035
1.348, -1, 8.52657, 24.1682, 19.9334, 23.3642, -46.0567, -18.7683
1.352, -1, 8.58088, 24.1199, 19.9515, 23.4507, -45.9554, -18.833
1.356, -1, 8.6351, 24.0718, 19.9697, 23.537, -45.8543, -18.8976
1.36, -1, 8.68923, 24.0237, 19.9877, 23.6232, -45.7534, -18.9622
1.364, -1, 8.74328, 23.9757, 20.0058, 23.7092, -45.6526, -19.0266
1.368, -1, 8.79725, 23.9278, 20.0238, 23.7952, -45.552, -19.0909
1.372, -1, 8.85114, 23.88, 20.0418, 23.881, -45.4516, -19.1551
1.376, -1, 8.90494, 23.8322, 20.0598, 23.9666, -45.3513, -19.2192
1.38, -1, 8.95866, 23.7845, 20.0777, 24.0521, -45.2511, -19.2833
1.384, -1, 9.01229, 23.7369, 20.0956, 24.1375, -45.1511, -19.3472
1.388, -1, 9.06584, 23.6894, 20.1135, 24.2228, -45.0513, -19.411
1.392, -1, 9.11932, 23.6419, 20.1314, 24.3079, -44.9516, -19.4747
1.396, -1, 9.1727, 23.5945, 20.1492, 24.393, -44.8521, -19.5384
1.4, -1, 9.22601, 23.5472, 20.167, 24.4778, -44.7527, -19.6019
1.404, -1, 9.27924, 23.4999, 20.1848, 24.5626, -44.6535, -19.6653
1.408, -1, 9.33239, 23.4527, 20.2025, 24.6472, -44.5544, -19.7287
1.412, -1, 9.38546, 23.4056, 20.2202, 24.7317, -44.4554, -19.7919
1.416, -1, 9.43844, 23.3585, 20.2379, 24.8161, -44.3567, -19.8551
1.42, -1, 9.49135, 23.3116, 20.2556, 24.9003, -44.258, -19.9181
1.424, -1, 9.54418, 23.2647, 20.2732, 24.9844, -44.1595, -19.9811
1.428, -1, 9.59693, 23.2178, 20.2908, 25.0684, -44.0612, -20.044
1.432, -1, 9.6496, 23.1711, 20.3084, 25.1523, -43.963, -20.1067
1.436, -1, 9.7022, 23.1244, 20.326, 25.236, -43.865, -20.1694
1.44, -1, 9.75472, 23.0777, 20.3435, 25.3196, -43.767, -20.232
1.444, -1, 9.80716, 23.0312, 20.361, 25.4031, -43.6693, -20.2945
1.448, -1, 9.85952, 22.9847, 20.3785, 25.4865, -43.5717, -20.3569
1.452, -1, 9.91181, 22.9383, 20.396, 25.5697, -43.4742, -20.4192
1.456, -1, 9.96403, 22.8919, 20.4134, 25.6528, -43.3769, -20.4814
1.46, -1, 10.0162, 22.8456, 20.4308, 25.7358, -43.2797, -20.5436
1.464, -1, 10.0682, 22.7994, 20.4482, 25.8187, -43.1826, -20.6056
1.468, -1, 10.1202, 22.7533, 20.4656, 25.9015, -43.0857, -20.6676
1.472, -1, 10.1721, 22.7072, 20.4829, 25.9841, -42.989, -20.7294
1.476, -1, 10.224, 22.6612, 20.5002, 26.0666, -42.8923, -20.7912
1.48, -1, 10.2757, 22.6152, 20.5175, 26.149, -42.7958, -20.8529
1.484, -1, 10.3274, 22.5693, 20.5348, 26.2313, -42.6995, -20.9145
1.488, -1, 10.379, 22.5235, 20.552, 26.3135, -42.6033, -20.976
1.492, -1, 10.4306, 22.4777, 20.5692, 26.3956, -42.5072, -21.0374
1.496, -1, 10.482, 22.432, 20.5864, 26.4775, -42.4113, -21.0987
1.5, -1, 10.5334, 22.3864, 20.6035, 26.5593, -42.3154, -21.16
1.504, -1, 10.5848, 22.3408, 20.6207, 26.641, -42.2198, -21.2212
1.508, -1, 10.636, 22.2953, 20.6378, 26.7226, -42.1242, -21.2822
1.512, -1, 10.6872, 22.2499, 20.6549, 26.8041, -42.0288, -21.3432
1.516, -1, 10.7383, 22.2045, 20.6719, 26.8855, -41.9336, -21.4041
1.52, -1, 10.7893, 22.1592, 20.689, 26.9667, -41.8384, -21.4649
1.524, -1, 10.8403, 22.114, 20.706, 27.0479, -41.7434, -21.5257
1.528, -1, 10.8912, 22.0688, 20.723, 27.1289, -41.6485, -21.5863
1.532, -1, 10.942, 22.0237, 20.74, 27.2098, -41.5538, -21.6469
1.536, -1, 10.9928, 21.9786, 20.7569, 27.2906, -41.4592, -21.7074
1.54, -1, 11.0435, 21.9336, 20.7738, 27.3713, -41.3647, -21.7678
1.544, -1, 11.0941, 21.8887, 20.7908, 27.4519, -41.2703, -21.8281
1.548, -1, 11.1446, 21.8438, 20.8076, 27.5324, -41.1761, -21.8884
1.552, -1, 11.1951, 21.799, 20.8245, 27.6127, -41.082, -21.9485
1.556, -1, 11.2455, 21.7542, 20.8413, 27.693, -40.988, -22.0086
1.56, -1, 11.2959, 21.7095, 20.8581, 27.7732, -40.8941, -22.0686
1.564, -1, 11.3462, 21.6649, 20.8749, 27.8532, -40.8004, -22.1285
1.568, -1, 11.3964, 21.6203, 20.8917, 27.9331, -40.7068, -22.1884
1.572, -1, 11.4465, 21.5758, 20.9084, 28.013, -40.6133, -22.2481
1.576, -1, 11.4966, 21.5313, 20.9251, 28.0927, -40.52, -22.3078
1.58, -1, 11.5466, 21.4869, 20.9418, 28.1723, -40.4268, -22.3674
1.584, -1, 11.5965, 21.4426, 20.9585, 28.2518, -40.3336, -22.4269
1.588, -1, 11.6464, 21.3983, 20.9752, 28.3313, -40.2407, -22.4864
1.592, -1, 11.6962, 21.3541, 20.9918, 28.4106, -40.1478, -22.5457
1.596, -1, 11.746, 21.3099, 21.0084, 28.4898, -40.0551, -22.605
1.6, -1, 11.7957, 21.2658, 21.025, 28.5689, -39.9624, -22.6642
1.604, -1, 11.8453, 21.2217, 21.0416, 28.6479, -39.8699, -22.7234
1.608, -1, 11.8948, 21.1778, 21.0581, 28.7268, -39.7776, -22.7824
1.612, -1, 11.9443, 21.1338, 21.0747, 28.8055, -39.6853, -22.8414
1.616, -1, 11.9938, 21.0899, 21.0912, 28.8842, -39.5932, -22.9003
1.62, -1, 12.0431, 21.0461, 21.1076, 28.9628, -39.5011, -22.9591
1.624, -1, 12.0924, 21.0023, 21.1241, 29.0413, -39.4092, -23.0179
1.628, -1, 12.1417, 20.9586, 21.1405, 29.1197, -39.3174, -23.0765
1.632, -1, 12.1908, 20.915, 21.157, 29.198, -39.2258, -23.1352
1.636, -1, 12.2399, 20.8714, 21.1734, 29.2762, -39.1342, -23.1937
1.64, -1, 12.289, 20.8278, 21.1897, 29.3543, -39.0428, -23.2521
1.644, -1, 12.338, 20.7843, 21.2061, 29.4323, -38.9515, -23.3105
1.648, -1, 12.3869, 20.7409, 21.2224, 29.5102, -38.8603, -23.3688
1.652, -1, 12.4358, 20.6975, 21.2388, 29.588, -38.7692, -23.4271
1.656, -1, 12.4846, 20.6542, 21.2551, 29.6657, -38.6782, -23.4852
1.66, -1, 12.5333, 20.6109, 21.2713, 29.7433, -38.5873, -23.5433
1.664, -1, 12.582, 20.5677, 21.2876, 29.8208, -38.4966, -23.6013
1.668, -1, 12.6306, 20.5245, 21.3038, 29.8982, -38.4059, -23.6593
1.672, -1, 12.6792, 20.4814, 21.32, 29.9755, -38.3154, -23.7171
1.676, -1, 12.7277, 20.4384, 21.3362, 30.0527, -38.225, -23.7749
1.68, -1, 12.7761, 20.3953, 21.3524, 30.1298, -38.1347, -23.8327
1.684, -1, 12.8245, 20.3524, 21.3686, 30.2069, -38.0445, -23.8903
1.688, -1, 12.8728, 20.3095, 21.3847, 30.2838, -37.9544, -23.9479
1.692, -1, 12.9211, 20.2666, 21.4008, 30.3606, -37.8644, -24.0054
1.696, -1, 12.9693, 20.2238, 21.4169, 30.4374, -37.7746, -24.0629
1.7, -1, 13.0174, 20.1811, 21.433, 30.514, -37.6848, -24.1203
1.704, -1, 13.0655, 20.1384, 21.449, 30.5906, -37.5951, -24.1776
1.708, -1, 13.1136, 20.0958, 21.4651, 30.6671, -37.5056, -24.2348
1.712, -1, 13.1615, 20.0532, 21.4811, 30.7435, -37.4162, -24.292
1.716, -1, 13.2094, 20.0106, 21.4971, 30.8197, -37.3269, -24.3491
1.72, -1, 13.2573, 19.9681, 21.5131, 30.8959, -37.2376, -24.4061
1.724, -1, 13.3051, 19.9257, 21.529, 30.972, -37.1485, -24.4631
1.728, -1, 13.3528, 19.8833, 21.545, 31.0481, -37.0595, -24.52
1.732, -1, 13.4005, 19.841, 21.5609, 31.124, -36.9706, -24.5768
1.736, -1, 13.4482, 19.7987, 21.5768, 31.1998, -36.8818, -24.6336
1.74, -1, 13.4957, 19.7565, 21.5927, 31.2756, -36.7931, -24.6903
1.744, -1, 13.5433, 19.7143, 21.6086, 31.3512, -36.7045, -24.7469
1.748, -1, 13.5907, 19.6721, 21.6244, 31.4268, -36.6161, -24.8035
1.752, -1, 13.6381, 19.63, 21.6402, 31.5023, -36.5277, -24.86
1.756, -1, 13.6855, 19.588, 21.6561, 31.5776, -36.4394, -24.9164
1.76, -1, 13.7328, 19.546, 21.6719, 31.6529, -36.3512, -24.9728
1.764, -1, 13.78, 19.5041, 21.6876, 31.7282, -36.2632, -25.0291
1.768, -1, 13.8272, 19.4622, 21.7034, 31.8033, -36.1752, -25.0853
1.772, -1, 13.8743, 19.4203, 21.7191, 31.8783, -36.0873, -25.1415
1.776, -1, 13.9214, 19.3785, 21.7348, 31.9533, -35.9996, -25.1976
1.78, -1, 13.9684, 19.3368, 21.7505, 32.0281, -35.9119, -25.2536
1.784, -1, 14.0154, 19.2951, 21.7662, 32.1029, -35.8243, -25.3096
1.788, -1, 14.0623, 19.2534, 21.7819, 32.1776, -35.7369, -25.3655
1.792, -1, 14.1092, 19.2118, 21.7975, 32.2522, -35.6495, -25.4214
1.796, -1, 14.156, 19.1703, 21.8132, 32.3268, -35.5622, -25.4772
1.8, -1, 14.2027, 19.1288, 21.8288, 32.4012, -35.4751, -25.5329
1.804, -1, 14.2494, 19.0873, 21.8444, 32.4756, -35.388, -25.5886
1.808, -1, 14.2961, 19.0459, 21.86, 32.5498, -35.301, -25.6442
1.812, -1, 14.3427, 19.0045, 21.8755, 32.624, -35.2142, -25.6997
1.816, -1, 14.3892, 18.9632, 21.8911, 32.6981, -35.1274, -25.7552
1.82, -1, 14.4357, 18.9219, 21.9066, 32.7722, -35.0407, -25.8106
1.824, -1, 14.4822, 18.8807, 21.9221, 32.8461, -34.9541, -25.8659
1.828, -1, 14.5286, 18.8395, 21.9376, 32.92, -34.8676, -25.9212
1.832, -1, 14.5749, 18.7983, 21.9531, 32.9938, -34.7813, -25.9764
1.836, -1, 14.6212, 18.7572, 21.9685, 33.0675, -34.695, -26.0316
1.84, -1, 14.6674, 18.7162, 21.984, 33.1411, -34.6088, -26.0867
1.844, -1, 14.7136, 18.6752, 21.9994, 33.2146, -34.5227, -26.1418
1.848, -1, 14.7598, 18.6342, 22.0148, 33.2881, -34.4367, -26.1967
1.852, -1, 14.8058, 18.5933, 22.0302, 33.3614, -34.3507, -26.2517
1.856, -1, 14.8519, 18.5524, 22.0456, 33.4347, -34.2649, -26.3065
1.86, -1, 14.8979, 18.5116, 22.0609, 33.5079, -34.1792, -26.3613
1.864, -1, 14.9438, 18.4708, 22.0762, 33.5811, -34.0936, -26.4161
1.868, -1, 14.9897, 18.4301, 22.0916, 33.6541, -34.008, -26.4708
1.872, -1, 15.0355, 18.3894, 22.1069, 33.7271, -33.9226, -26.5254
1.876, -1, 15.0813, 18.3487, 22.1222, 33.8, -33.8372, -26.58
1.88, -1, 15.127, 18.3081, 22.1374, 33.8728, -33.7519, -26.6345
1.884, -1, 15.1727, 18.2676, 22.1527, 33.9456, -33.6668, -26.6889
1.888, -1, 15.2184, 18.227, 22.1679, 34.0182, -33.5817, -26.7433
1.892, -1, 15.264, 18.1866, 22.1832, 34.0908, -33.4967, -26.7976
1.896, -1, 15.3095, 18.1461, 22.1984, 34.1633, -33.4118, -26.8519
1.9, -1, 15.355, 18.1057, 22.2136, 34.2358, -33.3269, -26.9062
1.904, -1, 15.4004, 18.0654, 22.2287, 34.3081, -33.2422, -26.9603
1.908, -1, 15.4458, 18.0251, 22.2439, 34.3804, -33.1576, -27.0144
1.912, -1, 15.4912, 17.9848, 22.259, 34.4526, -33.073, -27.0685
1.916, -1, 15.5365, 17.9446, 22.2742, 34.5248, -32.9886, -27.1225
1.92, -1, 15.5818, 17.9044, 22.2893, 34.5968, -32.9042, -27.1764
1.924, -1, 15.627, 17.8643, 22.3044, 34.6688, -32.8199, -27.2303
1.928, -1, 15.6721, 17.8242, 22.3195, 34.7407, -32.7357, -27.2841
1.932, -1, 15.7173, 17.7841, 22.3345, 34.8126, -32.6516, -27.3379
1.936, -1, 15.7623, 17.7441, 22.3496, 34.8843, -32.5676, -27.3916
1.94, -1, 15.8073, 17.7041, 22.3646, 34.956, -32.4836, -27.4453
1.944, -1, 15.8523, 17.6642, 22.3796, 35.0276, -32.3997, -27.4989
1.948, -1, 15.8973, 17.6243, 22.3946, 35.0992, -32.316, -27.5524
1.952, -1, 15.9422, 17.5844, 22.4096, 35.1707, -32.2323, -27.6059
1.956, -1, 15.987, 17.5446, 22.4246, 35.2421, -32.1487, -27.6594
1.96, -1, 16.0318, 17.5048, 22.4396, 35.3134, -32.0652, -27.7128
1.964, -1, 16.0765, 17.4651, 22.4545, 35.3846, -31.9817, -27.7661
1.968, -1, 16.1212, 17.4254, 22.4694, 35.4558, -31.8984, -27.8194
1.972, -1, 16.1659, 17.3858, 22.4844, 35.5269, -31.8151, -27.8726
1.976, -1, 16.2105, 17.3461, 22.4993, 35.598, -31.7319, -27.9258
1.98, -1, 16.2551, 17.3066, 22.5141, 35.6689, -31.6488, -27.9789
1.984, -1, 16.2996, 17.267, 22.529, 35.7398, -31.5658, -28.032
1.988, -1, 16.3441, 17.2275, 22.5439, 35.8107, -31.4829, -28.085
1.992, -1, 16.3886, 17.1881, 22.5587, 35.8814, -31.4, -28.138
1.996, -1, 16.433, 17.1487, 22.5735, 35.9521, -31.3173, -28.1909
1.999, -1, 16.4773, 17.1093, 22.5883, 36.0228, -31.2346, -28.2438
2.004, -1, 16.5216, 17.0699, 22.6031, 36.0933, -31.1519, -28.2966
2.008, -1, 16.5659, 17.0306, 22.6179, 36.1638, -31.0694, -28.3493
2.012, -1, 16.6101, 16.9914, 22.6327, 36.2342, -30.987, -28.4021
2.015, -1, 16.6543, 16.9521, 22.6474, 36.3046, -30.9046, -28.4547
2.019, -1, 16.6984, 16.9129, 22.6622, 36.3748, -30.8223, -28.5073
2.024, -1, 16.7425, 16.8738, 22.6769, 36.445, -30.7401, -28.5599
2.028, -1, 16.7866, 16.8347, 22.6916, 36.5152, -30.658, -28.6124
2.031, -1, 16.8306, 16.7956, 22.7063, 36.5853, -30.5759, -28.6648
2.036, -1, 16.8746, 16.7566, 22.721, 36.6553, -30.4939, -28.7172
2.04, -1, 16.9185, 16.7176, 22.7357, 36.7252, -30.412, -28.7696
2.044, -1, 16.9624, 16.6786, 22.7503, 36.7951, -30.3302, -28.8219
2.048, -1, 17.0062, 16.6397, 22.765, 36.8649, -30.2485, -28.8742
2.051, -1, 17.05, 16.6008, 22.7796, 36.9346, -30.1668, -28.9264
2.055, -1, 17.0938, 16.5619, 22.7942, 37.0043, -30.0852, -28.9785
2.06, -1, 17.1375, 16.5231, 22.8088, 37.0739, -30.0037, -29.0306
2.064, -1, 17.1811, 16.4844, 22.8234, 37.1435, -29.9223, -29.0827
2.068, -1, 17.2244, 16.4458, 22.8379, 37.2129, -29.841, -29.1347
2.071, -1, 17.2671, 16.4077, 22.8523, 37.2823, -29.7597, -29.1866
2.076, -1, 17.3088, 16.3701, 22.8666, 37.3515, -29.6787, -29.2384
2.08, -1, 17.3495, 16.3335, 22.8807, 37.4204, -29.5981, -29.29
2.084, -1, 17.3888, 16.2979, 22.8945, 37.4888, -29.518, -29.3412
2.087, -1, 17.4267, 16.2635, 22.9079, 37.5564, -29.4389, -29.3918
2.092, -1, 17.4632, 16.2306, 22.921, 37.6229, -29.3611, -29.4417
2.096, -1, 17.4983, 16.1992, 22.9337, 37.6879, -29.2851, -29.4903
2.1, -1, 17.5321, 16.1694, 22.9459, 37.7508, -29.2115, -29.5374
2.104, -1, 17.5644, 16.1411, 22.9576, 37.8112, -29.1408, -29.5827
2.107, -1, 17.5951, 16.1145, 22.9686, 37.8686, -29.0737, -29.6257
2.111, -1, 17.624, 16.0896, 22.9791, 37.9226, -29.0106, -29.6661
2.116, -1, 17.6513, 16.0662, 22.9888, 37.9726, -28.9521, -29.7035
2.12, -1, 17.6768, 16.044, 22.9978, 38.0183, -28.8986, -29.7378
2.124, -1, 17.7009, 16.023, 23.0061, 38.0595, -28.8504, -29.7686
2.127, -1, 17.7234, 16.0029, 23.0136, 38.0959, -28.8078, -29.7958
2.132, -1, 17.7446, 15.9838, 23.0205, 38.1275, -28.7707, -29.8195
2.136, -1, 17.7642, 15.9657, 23.0267, 38.1546, -28.739, -29.8397
2.14, -1, 17.7823, 15.9489, 23.0321, 38.1772, -28.7125, -29.8566
2.143, -1, 17.7986, 15.9337, 23.0368, 38.1957, -28.6907, -29.8705
2.148, -1, 17.8131, 15.9202, 23.0409, 38.2106, -28.6732, -29.8816
2.152, -1, 17.8259, 15.9085, 23.0443, 38.2223, -28.6594, -29.8904
2.156, -1, 17.8371, 15.8987, 23.0471, 38.2313, -28.6488, -29.8971
2.16, -1, 17.8467, 15.8905, 23.0494, 38.2381, -28.6409, -29.9021
2.163, -1, 17.855, 15.8838, 23.0513, 38.243, -28.635, -29.9058
2.168, -1, 17.8619, 15.8785, 23.0527, 38.2465, -28.6308, -29.9084
2.172, -1, 17.8674, 15.8744, 23.0538, 38.249, -28.6279, -29.9103
2.176, 2, 17.8716, 15.8714, 23.0546, 38.2507, -28.6258, -29.9115
2.179, 2, 17.8747, 15.8692, 23.0552, 38.2519, -28.6245, -29.9124
2.184, 2, 17.8769, 15.8677, 23.0556, 38.2527, -28.6235, -29.913
2.188, 2, 17.8784, 15.8667, 23.0558, 38.2532, -28.6229, -29.9134
2.192, 2, 17.8794, 15.866, 23.056, 38.2536, -28.6224, -29.9137
2.196, 2, 17.8801, 15.8655, 23.0561, 38.2538, -28.6221, -29.9138
2.199, 2, 17.8806, 15.8652, 23.0562, 38.254, -28.6219, -29.914
2.204, 2, 17.8809, 15.865, 23.0563, 38.2541, -28.6218, -29.9141
2.208, 2, 17.8811, 15.8649, 23.0563, 38.2542, -28.6217, -29.9141
2.212, 2, 17.8813, 15.8648, 23.0563, 38.2543, -28.6217, -29.9141
2.216, 2, 17.8814, 15.8647, 23.0564, 38.2543, -28.6216, -29.9142
2.219, 2, 17.8814, 15.8646, 23.0564, 38.2543, -28.6216, -29.9142
2.224, 2, 17.8815, 15.8646, 23.0564, 38.2543, -28.6216, -29.9142
2.228, 2, 17.8815, 15.8646, 23.0564, 38.2543, -28.6215, -29.9142
2.232, 2, 17.8815, 15.8646, 23.0564, 38.2543, -28.6215, -29.9142
2.235, 2, 17.8815, 15.8646, 23.0564, 38.2544, -28.6215, -29.9142
2.24, 2, 17.8815, 15.8646, 23.0564, 38.2544, -28.6215, -29.9142
2.244, 2, 17.8816, 15.8646, 23.0564, 38.2544, -28.6215, -29.9142
2.248, 2, 17.8816, 15.8646, 23.0564, 38.2544, -28.6215, -29.9142
2.252, 2, 17.8816, 15.8646, 23.0564, 38.2544, -28.6215, -29.9142
2.255, 2, 17.8816, 15.8646, 23.0564, 38.2544, -28.6215, -29.9142
2.259, 2, 17.8816, 15.8646, 23.0564, 38.2544, -28.6215, -29.9142
2.264, 2, 17.8816, 15.8645, 23.0564, 38.2544, -28.6215, -29.9142
2.268, 2, 17.8816, 15.8645, 23.0564, 38.2544, -28.6215, -29.9142
2.272, 2, 17.8816, 15.8645, 23.0564, 38.2544, -28.6215, -29.9142
2.275, 2, 17.8816, 15.8645, 23.0564, 38.2544, -28.6215, -29.9142
2.28, 2, 17.8816, 15.8645, 23.0564, 38.2544, -28.6215, -29.9142
2.284, 2, 17.8816, 15.8645, 23.0564, 38.2544, -28.6215, -29.9142
2.288, 2, 17.8816, 15.8645, 23.0564, 38.2544, -28.6215, -29.9142
2.291, 2, 17.8816, 15.8645, 23.0564, 38.2544, -28.6215, -29.9142
2.296, 2, 17.8816, 15.8645, 23.0564, 38.2544, -28.6215, -29.9142
2.3, 2, 17.8816, 15.8645, 23.0564, 38.2544, -28.6215, -29.9142
2.304, 2, 17.8816, 15.8645, 23.0564, 38.2544, -28.6215, -29.9142
2.308, 2, 17.8816, 15.8645, 23.0564, 38.2544, -28.6215, -29.9142
2.311, 2, 17.8816, 15.8645, 23.0564, 38.2544, -28.6215, -29.9142
2.316, 2, 17.8816, 15.8645, 23.0564, 38.2544, -28.6215, -29.9142
2.32, 2, 17.8816, 15.8645, 23.0564, 38.2544, -28.6215, -29.9142
2.324, 2, 17.8816, 15.8645, 23.0564, 38.2544, -28.6215, -29.9142
2.328, 2, 17.8816, 15.8645, 23.0564, 38.2544, -28.6215, -29.9142
2.331, 2, 17.8816, 15.8645, 23.0564, 38.2544, -28.6215, -29.9142
2.336, 2, 17.8816, 15.8645, 23.0564, 38.2544, -28.6215, -29.9142
2.34, 2, 17.8816, 15.8645, 23.0564, 38.2544, -28.6215, -29.9142
2.344, 2, 17.8816, 15.8645, 23.0564, 38.2544, -28.6215, -29.9142
2.347, 2, 17.8816, 15.8645, 23.0564, 38.2544, -28.6215, -29.9142
2.352, 2, 17.8816, 15.8645, 23.0564, 38.2544, -28.6215, -29.9142
2.356, 2, 17.8816, 15.8645, 23.0564, 38.2544, -28.6215, -29.9142
2.36, 2, 17.8816, 15.8645, 23.0564, 38.2544, -28.6215, -29.9142
2.364, 2, 17.8816, 15.8645, 23.0564, 38.2544, -28.6215, -29.9142
2.367, 2, 17.8816, 15.8645, 23.0564, 38.2544, -28.6215, -29.9142
2.372, 2, 17.8816, 15.8645, 23.0564, 38.2544, -28.6215, -29.9142
2.376, 2, 17.8816, 15.8645, 23.0564, 38.2544, -28.6215, -29.9142
2.38, 2, 17.8816, 15.8645, 23.0564, 38.2544, -28.6215, -29.9142
2.383, 2, 17.8816, 15.8645, 23.0564, 38.2544, -28.6215, -29.9142
2.388, 2, 17.8816, 15.8645, 23.0564, 38.2544, -28.6215, -29.9142
2.392, 2, 17.8816, 15.8645, 23.0564, 38.2544, -28.6215, -29.9142
2.396, 2, 17.8816, 15.8645, 23.0564, 38.2544, -28.6215, -29.9142
2.4, 2, 17.8816, 15.8645, 23.0564, 38.2544, -28.6215, -29.9142
2.403, 2, 17.8816, 15.8645, 23.0564, 38.2544, -28.6215, -29.9142
2.408, 2, 17.8816, 15.8645, 23.0564, 38.2544, -28.6215, -29.9142
2.412, 2, 17.8816, 15.8645, 23.0564, 38.2544, -28.6215, -29.9142
2.416, 2, 17.8816, 15.8645, 23.0564, 38.2544, -28.6215, -29.9142
2.42, 2, 17.8816, 15.8645, 23.0564, 38.2544, -28.6215, -29.9142
2.423, 2, 17.8816, 15.8645, 23.0564, 38.2544, -28.6215, -29.9142
2.428, 2, 17.8816, 15.8645, 23.0564, 38.2544, -28.6215, -29.9142
2.432, 2, 17.8816, 15.8645, 23.0564, 38.2544, -28.6215, -29.9142
2.436, 2, 17.8816, 15.8645, 23.0564, 38.2544, -28.6215, -29.9142
2.439, 2, 17.8816, 15.8645, 23.0564, 38.2544, -28.6215, -29.9142
2.444, 2, 17.8816, 15.8645, 23.0564, 38.2544, -28.6215, -29.9142
2.448, 2, 17.8816, 15.8645, 23.0564, 38.2544, -28.6215, -29.9142
2.452, 2, 17.8816, 15.8645, 23.0564, 38.2544, -28.6215, -29.9142
2.456, 2, 17.8816, 15.8645, 23.0564, 38.2544, -28.6215, -29.9142
2.459, 2, 17.8816, 15.8645, 23.0564, 38.2544, -28.6215, -29.9142
2.464, 2, 17.8816, 15.8645, 23.0564, 38.2544, -28.6215, -29.9142
2.468, 2, 17.8816, 15.8645, 23.0564, 38.2544, -28.6215, -29.9142
2.472, 2, 17.8816, 15.8645, 23.0564, 38.2544, -28.6215, -29.9142
2.476, 2, 17.8816, 15.8645, 23.0564, 38.2544, -28.6215, -29.9142
2.479, 2, 17.8816, 15.8645, 23.0564, 38.2544, -28.6215, -29.9142
2.484, 2, 17.8816, 15.8645, 23.0564, 38.2544, -28.6215, -29.9142
2.488, 2, 17.8816, 15.8645, 23.0564, 38.2544, -28.6215, -29.9142
2.492, 2, 17.8816, 15.8645, 23.0564, 38.2544, -28.6215, -29.9142
2.495, 2, 17.8816, 15.8645, 23.0564, 38.2544, -28.6215, -29.9142
2.5, 2, 17.8816, 15.8645, 23.0564, 38.2544, -28.6215, -29.9142
2.504, 2, 17.8816, 15.8645, 23.0564, 38.2544, -28.6215, -29.9142
2.508, 2, 17.8816, 15.8645, 23.0564, 38.2544, -28.6215, -29.9142
2.512, 2, 17.8816, 15.8645, 23.0564, 38.2544, -28.6215, -29.9142
2.515, 2, 17.8816, 15.8645, 23.0564, 38.2544, -28.6215, -29.9142
2.52, 2, 17.8816, 15.8645, 23.0564, 38.2544, -28.6215, -29.9142
2.524, 2, 17.8816, 15.8645, 23.0564, 38.2544, -28.6215, -29.9142
2.528, 2, 17.8816, 15.8645, 23.0564, 38.2544, -28.6215, -29.9142
2.531, 2, 17.8816, 15.8645, 23.0564, 38.2544, -28.6215, -29.9142
2.536, 2, 17.8816, 15.8645, 23.0564, 38.2544, -28.6215, -29.9142
2.54, 2, 17.8816, 15.8645, 23.0564, 38.2544, -28.6215, -29.9142
2.544, 2, 17.8816, 15.8645, 23.0564, 38.2544, -28.6215, -29.9142
2.548, 2, 17.8816, 15.8645, 23.0564, 38.2544, -28.6215, -29.9142
2.551, 2, 17.8816, 15.8645, 23.0564, 38.2544, -28.6215, -29.9142
2.556, 2, 17.8816, 15.8645, 23.0564, 38.2544, -28.6215, -29.9142
2.56, 2, 17.8816, 15.8645, 23.0564, 38.2544, -28.6215, -29.9142
2.564, 2, 17.8816, 15.8645, 23.0564, 38.2544, -28.6215, -29.9142
2.568, 2, 17.8816, 15.8645, 23.0564, 38.2544, -28.6215, -29.9142
2.571, 2, 17.8816, 15.8645, 23.0564, 38.2544, -28.6215, -29.9142
2.576, 2, 17.8816, 15.8645, 23.0564, 38.2544, -28.6215, -29.9142
2.58, 2, 17.8816, 15.8645, 23.0564, 38.2544, -28.6215, -29.9142
2.584, 2, 17.8816, 15.8645, 23.0564, 38.2544, -28.6215, -29.9142
2.587, 2, 17.8816, 15.8645, 23.0564, 38.2544, -28.6215, -29.9142
2.592, 2, 17.8816, 15.8645, 23.0564, 38.2544, -28.6215, -29.9142
2.596, 2, 17.8816, 15.8645, 23.0564, 38.2544, -28.6215, -29.9142
2.6, 2, 17.8816, 15.8645, 23.0564, 38.2544, -28.6215, -29.9142
2.604, 2, 17.8816, 15.8645, 23.0564, 38.2544, -28.6215, -29.9142
2.607, 2, 17.8816, 15.8645, 23.0564, 38.2544, -28.6215, -29.9142
2.612, 2, 17.8816, 15.8645, 23.0564, 38.2544, -28.6215, -29.9142
2.616, 2, 17.8816, 15.8645, 23.0564, 38.2544, -28.6215, -29.9142
2.62, 2, 17.8816, 15.8645, 23.0564, 38.2544, -28.6215, -29.9142
2.624, 2, 17.8816, 15.8645, 23.0564, 38.2544, -28.6215, -29.9142
2.627, 2, 17.8816, 15.8645, 23.0564, 38.2544, -28.6215, -29.9142
2.632, 2, 17.8816, 15.8645, 23.0564, 38.2544, -28.6215, -29.9142
2.636, 2, 17.8816, 15.8645, 23.0564, 38.2544, -28.6215, -29.9142
2.64, 2, 17.8816, 15.8645, 23.0564, 38.2544, -28.6215, -29.9142
2.643, 2, 17.8816, 15.8645, 23.0564, 38.2544, -28.6215, -29.9142
2.648, 2, 17.8816, 15.8645, 23.0564, 38.2544, -28.6215, -29.9142
2.652, 2, 17.8816, 15.8645, 23.0564, 38.2544, -28.6215, -29.9142
2.656, 2, 17.8816, 15.8645, 23.0564, 38.2544, -28.6215, -29.9142
2.66, 2, 17.8816, 15.8645, 23.0564, 38.2544, -28.6215, -29.9142
2.663, 2, 17.8816, 15.8645, 23.0564, 38.2544, -28.6215, -29.9142
2.668, 2, 17.8816, 15.8645, 23.0564, 38.2544, -28.6215, -29.9142
2.672, 2, 17.8816, 15.8645, 23.0564, 38.2544, -28.6215, -29.9142
2.676, 2, 17.8816, 15.8645, 23.0564, 38.2544, -28.6215, -29.9142
2.679, 2, 17.8816, 15.8645, 23.0564, 38.2544, -28.6215, -29.9142
2.684, 2, 17.8816, 15.8645, 23.0564, 38.2544, -28.6215, -29.9142
2.688, 2, 17.8816, 15.8645, 23.0564, 38.2544, -28.6215, -29.9142
2.692, 2, 17.8816, 15.8645, 23.0564, 38.2544, -28.6215, -29.9142
2.696, 2, 17.8816, 15.8645, 23.0564, 38.2544, -28.6215, -29.9142
2.699, 2, 17.8816, 15.8645, 23.0564, 38.2544, -28.6215, -29.9142
2.704, 2, 17.8816, 15.8645, 23.0564, 38.2544, -28.6215, -29.9142
2.708, 2, 17.8816, 15.8645, 23.0564, 38.2544, -28.6215, -29.9142
2.712, 2, 17.8816, 15.8645, 23.0564, 38.2544, -28.6215, -29.9142
2.716, 2, 17.8816, 15.8645, 23.0564, 38.2544, -28.6215, -29.9142
2.719, 2, 17.8816, 15.8645, 23.0564, 38.2544, -28.6215, -29.9142
2.724, 2, 17.8816, 15.8645, 23.0564, 38.2544, -28.6215, -29.9142
2.728, 2, 17.8816, 15.8645, 23.0564, 38.2544, -28.6215, -29.9142
2.732, 2, 17.8816, 15.8645, 23.0564, 38.2544, -28.6215, -29.9142
2.735, 2, 17.8816, 15.8645, 23.0564, 38.2544, -28.6215, -29.9142
2.74, 2, 17.8816, 15.8645, 23.0564, 38.2544, -28.6215, -29.9142
2.744, 2, 17.8816, 15.8645, 23.0564, 38.2544, -28.6215, -29.9142
2.748, 2, 17.8816, 15.8645, 23.0564, 38.2544, -28.6215, -29.9142
2.752, 2, 17.8816, 15.8645, 23.0564, 38.2544, -28.6215, -29.9142
2.755, 2, 17.8816, 15.8645, 23.0564, 38.2544, -28.6215, -29.9142
2.76, 2, 17.8816, 15.8645, 23.0564, 38.2544, -28.6215, -29.9142
2.764, 2, 17.8816, 15.8645, 23.0564, 38.2544, -28.6215, -29.9142
2.768, 2, 17.8816, 15.8645, 23.0564, 38.2544, -28.6215, -29.9142
2.772, 2, 17.8816, 15.8645, 23.0564, 38.2544, -28.6215, -29.9142
2.775, 2, 17.8816, 15.8645, 23.0564, 38.2544, -28.6215, -29.9142
2.78, 2, 17.8816, 15.8645, 23.0564, 38.2544, -28.6215, -29.9142
2.784, 2, 17.8816, 15.8645, 23.0564, 38.2544, -28.6215, -29.9142
2.788, 2, 17.8816, 15.8645, 23.0564, 38.2544, -28.6215, -29.9142
2.791, 2, 17.8816, 15.8645, 23.0564, 38.2544, -28.6215, -29.9142
2.796, 2, 17.8816, 15.8645, 23.0564, 38.2544, -28.6215, -29.9142
2.8, 2, 17.8816, 15.8645, 23.0564, 38.2544, -28.6215, -29.9142
2.804, 2, 17.8816, 15.8645, 23.0564, 38.2544, -28.6215, -29.9142
2.808, 2, 17.8816, 15.8645, 23.0564, 38.2544, -28.6215, -29.9142
2.811, 2, 17.8816, 15.8645, 23.0564, 38.2544, -28.6215, -29.9142
2.816, 2, 17.8816, 15.8645, 23.0564, 38.2544, -28.6215, -29.9142
2.82, 2, 17.8816, 15.8645, 23.0564, 38.2544, -28.6215, -29.9142
2.824, 2, 17.8816, 15.8645, 23.0564, 38.2544, -28.6215, -29.9142
2.828, 2, 17.8816, 15.8645, 23.0564, 38.2544, -28.6215, -29.9142
2.831, 2, 17.8816, 15.8645, 23.0564, 38.2544, -28.6215, -29.9142
2.836, 2, 17.8816, 15.8645, 23.0564, 38.2544, -28.6215, -29.9142
2.84, 2, 17.8816, 15.8645, 23.0564, 38.2544, -28.6215, -29.9142
2.844, 2, 17.8816, 15.8645, 23.0564, 38.2544, -28.6215, -29.9142
2.847, 2, 17.8816, 15.8645, 23.0564, 38.2544, -28.6215, -29.9142
2.852, 2, 17.8816, 15.8645, 23.0564, 38.2544, -28.6215, -29.9142
2.856, 2, 17.8816, 15.8645, 23.0564, 38.2544, -28.6215, -29.9142
2.86, 2, 17.8816, 15.8645, 23.0564, 38.2544, -28.6215, -29.9142
2.864, 2, 17.8816, 15.8645, 23.0564, 38.2544, -28.6215, -29.9142
2.867, 2, 17.8816, 15.8645, 23.0564, 38.2544, -28.6215, -29.9142
2.872, 2, 17.8816, 15.8645, 23.0564, 38.2544, -28.6215, -29.9142
2.876, 2, 17.8816, 15.8645, 23.0564, 38.2544, -28.6215, -29.9142
2.88, 2, 17.8816, 15.8645, 23.0564, 38.2544, -28.6215, -29.9142
2.883, 2, 17.8816, 15.8645, 23.0564, 38.2544, -28.6215, -29.9142
2.888, 2, 17.8816, 15.8645, 23.0564, 38.2544, -28.6215, -29.9142
2.892, 2, 17.8816, 15.8645, 23.0564, 38.2544, -28.6215, -29.9142
2.896, 2, 17.8816, 15.8645, 23.0564, 38.2544, -28.6215, -29.9142
2.9, 2, 17.8816, 15.8645, 23.0564, 38.2544, -28.6215, -29.9142
2.903, 2, 17.8816, 15.8645, 23.0564, 38.2544, -28.6215, -29.9142
2.908, 2, 17.8816, 15.8645, 23.0564, 38.2544, -28.6215, -29.9142
2.912, 2, 17.8816, 15.8645, 23.0564, 38.2544, -28.6215, -29.9142
2.916, 2, 17.8816, 15.8645, 23.0564, 38.2544, -28.6215, -29.9142
2.92, 2, 17.8816, 15.8645, 23.0564, 38.2544, -28.6215, -29.9142
2.923, 2, 17.8816, 15.8645, 23.0564, 38.2544, -28.6215, -29.9142
2.928, 2, 17.8816, 15.8645, 23.0564, 38.2544, -28.6215, -29.9142
2.932, 2, 17.8816, 15.8645, 23.0564, 38.2544, -28.6215, -29.9142
2.936, 2, 17.8816, 15.8645, 23.0564, 38.2544, -28.6215, -29.9142
2.939, 2, 17.8816, 15.8645, 23.0564, 38.2544, -28.6215, -29.9142
2.944, 2, 17.8816, 15.8645, 23.0564, 38.2544, -28.6215, -29.9142
2.948, 2, 17.8816, 15.8645, 23.0564, 38.2544, -28.6215, -29.9142
2.952, 2, 17.8816, 15.8645, 23.0564, 38.2544, -28.6215, -29.9142
2.956, 2, 17.8816, 15.8645, 23.0564, 38.2544, -28.6215, -29.9142
2.959, 2, 17.8816, 15.8645, 23.0564, 38.2544, -28.6215, -29.9142
2.964, 2, 17.8816, 15.8645, 23.0564, 38.2544, -28.6215, -29.9142
2.968, 2, 17.8816, 15.8645, 23.0564, 38.2544, -28.6215, -29.9142
2.972, 2, 17.8816, 15.8645, 23.0564, 38.2544, -28.6215, -29.9142
2.976, 2, 17.8816, 15.8645, 23.0564, 38.2544, -28.6215, -29.9142
2.98, 2, 17.8816, 15.8645, 23.0564, 38.2544, -28.6215, -29.9142
2.984, 2, 17.8816, 15.8645, 23.0564, 38.2544, -28.6215, -29.9142
2.988, 2, 17.8816, 15.8645, 23.0564, 38.2544, -28.6215, -29.9142
2.992, 2, 17.8816, 15.8645, 23.0564, 38.2544, -28.6215, -29.9142
2.995, 2, 17.8816, 15.8645, 23.0564, 38.2544, -28.6215, -29.9142
3, 2, 17.8816, 15.8645, 23.0564, 38.2544, -28.6215, -29.9142
3.004, 2, 17.8816, 15.8645, 23.0564, 38.2544, -28.6215, -29.9142
3.008, 2, 17.8816, 15.8645, 23.0564, 38.2544, -28.6215, -29.9142
3.012, 2, 17.8816, 15.8645, 23.0564, 38.2544, -28.6215, -29.9142
3.015, 2, 17.8816, 15.8645, 23.0564, 38.2544, -28.6215, -29.9142
3.02, 2, 17.8816, 15.8645, 23.0564, 38.2544, -28.6215, -29.9142
3.024, 2, 17.8816, 15.8645, 23.0564, 38.2544, -28.6215, -29.9142
3.028, 2, 17.8816, 15.8645, 23.0564, 38.2544, -28.6215, -29.9142
3.031, 2, 17.8816, 15.8645, 23.0564, 38.2544, -28.6215, -29.9142
3.036, 2, 17.8816, 15.8645, 23.0564, 38.2544, -28.6215, -29.9142
3.04, 2, 17.8816, 15.8645, 23.0564, 38.2544, -28.6215, -29.9142
3.044, 2, 17.8816, 15.8645, 23.0564, 38.2544, -28.6215, -29.9142
3.048, 2, 17.8816, 15.8645, 23.0564, 38.2544, -28.6215, -29.9142
3.051, 2, 17.8816, 15.8645, 23.0564, 38.2544, -28.6215, -29.9142
3.056, 2, 17.8816, 15.8645, 23.0564, 38.2544, -28.6215, -29.9142
3.06, 2, 17.8816, 15.8645, 23.0564, 38.2544, -28.6215, -29.9142
3.064, 2, 17.8816, 15.8645, 23.0564, 38.2544, -28.6215, -29.9142
3.068, 2, 17.8816, 15.8645, 23.0564, 38.2544, -28.6215, -29.9142
3.071, 2, 17.8816, 15.8645, 23.0564, 38.2544, -28.6215, -29.9142
3.076, 2, 17.8816, 15.8645, 23.0564, 38.2544, -28.6215, -29.9142
3.08, 2, 17.8816, 15.8645, 23.0564, 38.2544, -28.6215, -29.9142
3.084, 2, 17.8816, 15.8645, 23.0564, 38.2544, -28.6215, -29.9142
3.087, 2, 17.8816, 15.8645, 23.0564, 38.2544, -28.6215, -29.9142
3.092, 2, 17.8816, 15.8645, 23.0564, 38.2544, -28.6215, -29.9142
3.096, 2, 17.8816, 15.8645, 23.0564, 38.2544, -28.6215, -29.9142
3.1, 2, 17.8816, 15.8645, 23.0564, 38.2544, -28.6215, -29.9142
3.104, 2, 17.8816, 15.8645, 23.0564, 38.2544, -28.6215, -29.9142
3.107, 2, 17.8816, 15.8645, 23.0564, 38.2544, -28.6215, -29.9142
3.112, 2, 17.8816, 15.8645, 23.0564, 38.2544, -28.6215, -29.9142
3.116, 2, 17.8816, 15.8645, 23.0564, 38.2544, -28.6215, -29.9142
3.12, 2, 17.8816, 15.8645, 23.0564, 38.2544, -28.6215, -29.9142
3.124, 2, 17.8816, 15.8645, 23.0564, 38.2544, -28.6215, -29.9142
3.128, 2, 17.8816, 15.8645, 23.0564, 38.2544, -28.6215, -29.9142
3.132, 2, 17.8816, 15.8645, 23.0564, 38.2544, -28.6215, -29.9142
3.136, 2, 17.8816, 15.8645, 23.0564, 38.2544, -28.6215, -29.9142
3.14, 2, 17.8816, 15.8645, 23.0564, 38.2544, -28.6215, -29.9142
3.143, 2, 17.8816, 15.8645, 23.0564, 38.2544, -28.6215, -29.9142
3.148, 2, 17.8816, 15.8645, 23.0564, 38.2544, -28.6215, -29.9142
3.152, 2, 17.8816, 15.8645, 23.0564, 38.2544, -28.6215, -29.9142
3.156, 2, 17.8816, 15.8645, 23.0564, 38.2544, -28.6215, -29.9142
3.16, 2, 17.8816, 15.8645, 23.0564, 38.2544, -28.6215, -29.9142
3.163, 2, 17.8816, 15.8645, 23.0564, 38.2544, -28.6215, -29.9142
3.168, 2, 17.8816, 15.8645, 23.0564, 38.2544, -28.6215, -29.9142
3.172, 2, 17.8816, 15.8645, 23.0564, 38.2544, -28.6215, -29.9142
3.176, 2, 17.8816, 15.8645, 23.0564, 38.2544, -28.6215, -29.9142
3.179, 2, 17.8816, 15.8645, 23.0564, 38.2544, -28.6215, -29.9142
3.184, 2, 17.8816, 15.8645, 23.0564, 38.2544, -28.6215, -29.9142
3.188, 2, 17.8816, 15.8645, 23.0564, 38.2544, -28.6215, -29.9142
3.192, 2, 17.8816, 15.8645, 23.0564, 38.2544, -28.6215, -29.9142
3.196, 2, 17.8816, 15.8645, 23.0564, 38.2544, -28.6215, -29.9142
3.199, 2, 17.8816, 15.8645, 23.0564, 38.2544, -28.6215, -29.9142
3.204, 2, 17.8816, 15.8645, 23.0564, 38.2544, -28.6215, -29.9142
3.208, 2, 17.8816, 15.8645, 23.0564, 38.2544, -28.6215, -29.9142
3.212, 2, 17.8816, 15.8645, 23.0564, 38.2544, -28.6215, -29.9142
3.216, 2, 17.8816, 15.8645, 23.0564, 38.2544, -28.6215, -29.9142
3.22, 2, 17.8816, 15.8645, 23.0564, 38.2544, -28.6215, -29.9142
3.224, 2, 17.8816, 15.8645, 23.0564, 38.2544, -28.6215, -29.9142
3.228, 2, 17.8816, 15.8645, 23.0564, 38.2544, -28.6215, -29.9142
3.232, 2, 17.8816, 15.8645, 23.0564, 38.2544, -28.6215, -29.9142
3.235, 2, 17.8816, 15.8645, 23.0564, 38.2544, -28.6215, -29.9142
3.24, 2, 17.8816, 15.8645, 23.0564, 38.2544, -28.6215, -29.9142
3.244, 2, 17.8816, 15.8645, 23.0564, 38.2544, -28.6215, -29.9142
3.248, 4, 17.8816, 15.8645, 23.0564, 38.2544, -28.6215, -29.9142
3.252, 4, 17.8816, 15.8645, 23.0564, 38.2544, -28.6215, -29.9142
3.255, 4, 17.8816, 15.8645, 23.0564, 38.2544, -28.6215, -29.9142
3.26, 4, 17.8816, 15.8645, 23.0564, 38.2544, -28.6215, -29.9142
3.264, 4, 17.8816, 15.8645, 23.0564, 38.2544, -28.6215, -29.9142
3.268, 4, 17.8816, 15.8645, 23.0564, 38.2544, -28.6215, -29.9142
3.272, 4, 17.8816, 15.8645, 23.0564, 38.2544, -28.6215, -29.9142
3.276, 4, 17.8816, 15.8645, 23.0564, 38.2544, -28.6215, -29.9142
3.28, 4, 17.8816, 15.8645, 23.0564, 38.2544, -28.6215, -29.9142
3.284, 4, 17.8816, 15.8645, 23.0564, 38.2544, -28.6215, -29.9142
3.288, 4, 17.8816, 15.8645, 23.0564, 38.2544, -28.6215, -29.9142
3.291, 4, 17.8816, 15.8645, 23.0564, 38.2544, -28.6215, -29.9142
3.296, 4, 17.8816, 15.8645, 23.0564, 38.2544, -28.6215, -29.9142
3.3, 4, 17.8816, 15.8645, 23.0564, 38.2544, -28.6215, -29.9142
3.304, 4, 17.8816, 15.8645, 23.0564, 38.2544, -28.6215, -29.9142
3.308, 4, 17.8816, 15.8645, 23.0564, 38.2544, -28.6215, -29.9142
3.312, 4, 17.8816, 15.8645, 23.0564, 38.2544, -28.6215, -29.9142
3.316, 4, 17.8816, 15.8645, 23.0564, 38.2544, -28.6215, -29.9142
3.32, 4, 17.8816, 15.8645, 23.0564, 38.2544, -28.6215, -29.9142
3.324, 4, 17.8816, 15.8645, 23.0564, 38.2544, -28.6215, -29.9142
3.328, 4, 17.8816, 15.8645, 23.0564, 38.2544, -28.6215, -29.9142
3.332, 4, 17.8816, 15.8645, 23.0564, 38.2544, -28.6215, -29.9142
3.336, 4, 17.8816, 15.8645, 23.0564, 38.2544, -28.6215, -29.9142
3.34, 4, 17.8816, 15.8645, 23.0564, 38.2544, -28.6215, -29.9142
3.344, 4, 17.8816, 15.8645, 23.0564, 38.2544, -28.6215, -29.9142
3.347, 4, 17.8816, 15.8645, 23.0564, 38.2544, -28.6215, -29.9142
3.354, 4, 17.8816, 15.8645, 23.0564, 38.2544, -28.6215, -29.9142
3.358, 4, 17.8816, 15.8645, 23.0564, 38.2544, -28.6215, -29.9142
3.362, 4, 17.8816, 15.8645, 23.0564, 38.2544, -28.6215, -29.9142
3.366, 4, 17.8816, 15.8645, 23.0564, 38.2544, -28.6215, -29.9142
3.37, 4, 17.8816, 15.8645, 23.0564, 38.2544, -28.6215, -29.9142
3.374, 4, 17.8816, 15.8645, 23.0564, 38.2544, -28.6215, -29.9142
3.378, 4, 17.8816, 15.8645, 23.0564, 38.2544, -28.6215, -29.9142
3.38, 4, 17.8816, 15.8645, 23.0564, 38.2544, -28.6215, -29.9142
3.383, 4, 17.8816, 15.8645, 23.0564, 38.2544, -28.6215, -29.9142
3.388, 4, 17.8816, 15.8645, 23.0564, 38.2544, -28.6215, -29.9142
3.392, 4, 17.8816, 15.8645, 23.0564, 38.2544, -28.6215, -29.9142
3.396, 4, 17.8816, 15.8645, 23.0564, 38.2544, -28.6215, -29.9142
3.4, 4, 17.8815, 15.8645, 23.0564, 38.2544, -28.6215, -29.9142
3.403, 4, 17.8812, 15.8645, 23.0564, 38.2543, -28.6215, -29.9142
3.408, 4, 17.8806, 15.8645, 23.0565, 38.2542, -28.6216, -29.9141
3.412, 4, 17.8793, 15.8645, 23.0566, 38.2539, -28.6217, -29.9139
3.416, 4, 17.8773, 15.8644, 23.0569, 38.2532, -28.6219, -29.9133
3.42, 4, 17.8745, 15.8643, 23.0576, 38.2517, -28.6225, -29.912
3.426, 4, 17.8657, 15.8636, 23.0603, 38.2441, -28.6252, -29.9053
3.428, 4, 17.8657, 15.8636, 23.0603, 38.2441, -28.6252, -29.9053
3.432, 4, 17.8595, 15.863, 23.063, 38.2364, -28.628, -29.8984
3.436, 4, 17.8518, 15.862, 23.067, 38.2246, -28.6323, -29.8881
3.439, 4, 17.8424, 15.8607, 23.0727, 38.2075, -28.6384, -29.873
3.444, 5, 17.831, 15.8589, 23.0804, 38.1836, -28.647, -29.8519
3.448, 5, 17.817, 15.8565, 23.0909, 38.1512, -28.6587, -29.8232
3.452, 5, 17.8002, 15.8533, 23.1045, 38.1085, -28.6742, -29.7854
3.456, 5, 17.7803, 15.8493, 23.122, 38.0534, -28.6942, -29.7368
3.46, 5, 17.7571, 15.8443, 23.1439, 37.984, -28.7195, -29.6754
3.464, 5, 17.7302, 15.8382, 23.1708, 37.8982, -28.7509, -29.5995
3.468, 5, 17.6995, 15.8309, 23.2033, 37.7942, -28.7892, -29.5075
3.472, 5, 17.6645, 15.8222, 23.242, 37.6701, -28.8351, -29.3978
3.476, 5, 17.6249, 15.8121, 23.2873, 37.5243, -28.8894, -29.2689
3.48, 5, 17.5804, 15.8005, 23.3398, 37.3556, -28.9527, -29.1198
3.484, 5, 17.5307, 15.7874, 23.3997, 37.1628, -29.0257, -28.9496
3.488, 5, 17.4758, 15.7727, 23.4674, 36.9453, -29.1087, -28.7576
3.492, 5, 17.4157, 15.7565, 23.5429, 36.7024, -29.2024, -28.5435
3.495, 5, 17.3505, 15.7387, 23.6264, 36.4343, -29.3068, -28.3072
3.5, 5, 17.2804, 15.7193, 23.7176, 36.1412, -29.4223, -28.0491
3.504, 5, 17.2056, 15.6986, 23.8165, 35.8241, -29.5487, -27.7702
3.508, 5, 17.1264, 15.6765, 23.9225, 35.4845, -29.6858, -27.4717
3.512, 5, 17.0428, 15.6533, 24.0353, 35.1241, -29.8331, -27.1554
3.516, 5, 16.9554, 15.629, 24.1541, 34.7453, -29.99, -26.8232
3.52, 5, 16.8647, 15.604, 24.2782, 34.3508, -30.1557, -26.4778
3.524, 5, 16.7712, 15.5783, 24.4067, 33.9436, -30.3291, -26.1216
3.528, 5, 16.6757, 15.5522, 24.5386, 33.5269, -30.509, -25.7575
3.531, 5, 16.5789, 15.526, 24.6729, 33.104, -30.6943, -25.3886
3.536, 5, 16.4811, 15.4998, 24.8084, 32.6786, -30.8833, -25.018
3.54, 5, 16.3826, 15.474, 24.944, 32.2543, -31.0745, -24.6488
3.544, 5, 16.2835, 15.4487, 25.0786, 31.8345, -31.2664, -24.2842
3.548, 5, 16.1837, 15.4243, 25.2113, 31.4225, -31.4573, -23.9268
3.552, 5, 16.0832, 15.401, 25.3411, 31.0213, -31.6459, -23.5793
3.556, 5, 15.982, 15.379, 25.4673, 30.633, -31.831, -23.2435
3.56, 6, 15.8802, 15.3585, 25.5895, 30.2592, -32.0117, -22.9207
3.564, 6, 15.7779, 15.3395, 25.7073, 29.9005, -32.1874, -22.6114
3.568, 6, 15.6752, 15.322, 25.8208, 29.5568, -32.3582, -22.3155
3.572, 6, 15.5721, 15.306, 25.9302, 29.2272, -32.5244, -22.0322
3.576, 6, 15.4688, 15.2914, 26.036, 28.91, -32.6866, -21.7601
3.58, 6, 15.3653, 15.278, 26.1388, 28.6032, -32.8458, -21.4973
3.584, 6, 15.2616, 15.2657, 26.2394, 28.3043, -33.0033, -21.2417
3.587, 6, 15.1577, 15.2543, 26.3387, 28.0105, -33.1605, -20.991
3.592, 6, 15.0534, 15.2436, 26.4375, 27.7191, -33.3188, -20.7428
3.596, 6, 14.9488, 15.2334, 26.5368, 27.4271, -33.4798, -20.4945
3.6, 6, 14.8441, 15.2235, 26.6373, 27.1321, -33.6449, -20.2441
3.604, 6, 14.7392, 15.2138, 26.7397, 26.8319, -33.8154, -19.9897
3.608, 6, 14.6341, 15.204, 26.8446, 26.5247, -33.9923, -19.7299
3.612, 6, 14.5285, 15.1942, 26.9522, 26.2096, -34.1763, -19.464
3.616, 6, 14.4224, 15.1843, 27.0628, 25.8863, -34.3676, -19.1915
3.62, 6, 14.3156, 15.1743, 27.1761, 25.5551, -34.5661, -18.913
3.624, 6, 14.208, 15.1644, 27.2919, 25.2171, -34.7713, -18.6293
3.628, 6, 14.0996, 15.1546, 27.4098, 24.8737, -34.9826, -18.3415
3.632, 6, 13.9903, 15.145, 27.5291, 24.5267, -35.1987, -18.0513
3.636, 6, 13.8806, 15.1359, 27.6492, 24.1781, -35.4186, -17.7603
3.64, 6, 13.7706, 15.1271, 27.7694, 23.8301, -35.641, -17.4703
3.644, 6, 13.6608, 15.1189, 27.8888, 23.4848, -35.8643, -17.1832
3.648, 6, 13.5511, 15.1113, 28.0068, 23.1445, -36.0871, -16.9007
3.652, 6, 13.4417, 15.1045, 28.1226, 22.8112, -36.3079, -16.6246
3.656, 6, 13.3326, 15.0987, 28.2356, 22.4869, -36.5253, -16.3566
3.66, 6, 13.2236, 15.0941, 28.3452, 22.1732, -36.7381, -16.0977
3.664, 7, 13.1148, 15.0908, 28.451, 21.8712, -36.9453, -15.8489
3.668, 7, 13.0062, 15.089, 28.5528, 21.5814, -37.1464, -15.6107
3.672, 7, 12.8977, 15.0885, 28.6505, 21.3038, -37.3412, -15.383
3.676, 7, 12.7893, 15.0894, 28.7444, 21.038, -37.53, -15.1653
3.679, 7, 12.6809, 15.0916, 28.8349, 20.7828, -37.7133, -14.9567
3.684, 7, 12.5726, 15.0949, 28.9223, 20.5366, -37.8923, -14.756
3.688, 7, 12.4643, 15.0993, 29.0072, 20.2976, -38.0681, -14.5615
3.692, 7, 12.3558, 15.1046, 29.0906, 20.0638, -38.2423, -14.3717
3.696, 7, 12.2469, 15.1108, 29.1729, 19.8328, -38.4164, -14.1846
3.7, 7, 12.1378, 15.1177, 29.2551, 19.6025, -38.5922, -13.9985
3.704, 7, 12.0284, 15.1252, 29.3378, 19.3708, -38.7713, -13.8117
3.708, 7, 11.9188, 15.133, 29.4218, 19.1355, -38.9552, -13.6225
3.712, 7, 11.809, 15.1411, 29.5074, 18.8952, -39.1453, -13.4297
3.716, 7, 11.6988, 15.1492, 29.5952, 18.6488, -39.3425, -13.2324
3.72, 7, 11.5882, 15.1573, 29.6853, 18.3957, -39.5472, -13.0303
3.724, 7, 11.477, 15.1656, 29.7777, 18.1358, -39.7597, -12.8233
3.728, 7, 11.365, 15.174, 29.8723, 17.8697, -39.9796, -12.6118
3.732, 7, 11.2522, 15.1828, 29.9686, 17.5983, -40.2062, -12.3966
3.735, 7, 11.1384, 15.192, 30.0664, 17.3229, -40.4386, -12.1787
3.74, 7, 11.024, 15.2017, 30.165, 17.045, -40.6755, -11.9594
3.744, 7, 10.9092, 15.2119, 30.2639, 16.7663, -40.9155, -11.7399
3.748, 7, 10.7944, 15.2226, 30.3624, 16.4884, -41.1572, -11.5217
3.752, 7, 10.6797, 15.2338, 30.46, 16.2132, -41.399, -11.306
3.756, 7, 10.5654, 15.2457, 30.556, 15.9424, -41.6393, -11.0944
3.76, 7, 10.4514, 15.2582, 30.6497, 15.6777, -41.8764, -10.8879
3.764, 7, 10.3377, 15.2717, 30.7408, 15.4206, -42.109, -10.6879
3.768, 7, 10.2243, 15.2862, 30.8288, 15.1722, -42.3358, -10.495
3.772, 8, 10.1111, 15.3019, 30.9133, 14.9332, -42.556, -10.3099
3.776, 8, 9.9982, 15.3188, 30.9944, 14.7039, -42.7692, -10.1327
3.78, 8, 9.88544, 15.3369, 31.072, 14.4843, -42.9754, -9.96339
3.784, 8, 9.7728, 15.3562, 31.1463, 14.2736, -43.175, -9.80132
3.788, 8, 9.6603, 15.3765, 31.2178, 14.0709, -43.369, -9.64575
3.792, 8, 9.54794, 15.3977, 31.2867, 13.8748, -43.5585, -9.49562
3.796, 8, 9.43558, 15.4199, 31.3538, 13.6837, -43.7449, -9.34974
3.8, 8, 9.32302, 15.4432, 31.4195, 13.496, -43.93, -9.20678
3.804, 8, 9.21015, 15.4674, 31.4846, 13.3097, -44.1154, -9.06534
3.808, 8, 9.097, 15.4926, 31.5496, 13.1231, -44.303, -8.92407
3.812, 8, 8.98365, 15.5185, 31.615, 12.9345, -44.4945, -8.78167
3.816, 8, 8.87009, 15.5447, 31.6815, 12.7423, -44.6915, -8.63704
3.82, 8, 8.75628, 15.571, 31.7494, 12.5455, -44.8952, -8.48933
3.824, 8, 8.64211, 15.5972, 31.819, 12.3432, -45.1064, -8.33797
3.828, 8, 8.52746, 15.6235, 31.8903, 12.1351, -45.3256, -8.18275
3.832, 8, 8.41214, 15.6497, 31.9633, 11.9214, -45.5526, -8.02381
3.836, 8, 8.29599, 15.6764, 32.0378, 11.7027, -45.7871, -7.86155
3.84, 8, 8.17896, 15.7036, 32.1135, 11.4797, -46.028, -7.69664
3.844, 8, 8.06113, 15.7316, 32.19, 11.2536, -46.2744, -7.52991
3.848, 8, 7.94274, 15.7603, 32.2669, 11.0257, -46.5249, -7.36231
3.852, 8, 7.82414, 15.7897, 32.3437, 10.7974, -46.7779, -7.19486
3.856, 8, 7.70567, 15.8197, 32.4198, 10.57, -47.0319, -7.02862
3.86, 8, 7.58753, 15.8502, 32.4948, 10.3452, -47.2851, -6.86466
3.864, 8, 7.46975, 15.8812, 32.5682, 10.1243, -47.5359, -6.70402
3.868, 8, 7.35234, 15.9128, 32.6395, 9.90858, -47.7827, -6.54762
3.872, 8, 7.23529, 15.9452, 32.7084, 9.6993, -48.0239, -6.39626
3.876, 8, 7.11858, 15.9786, 32.7745, 9.49728, -48.2587, -6.25053
3.88, 9, 7.0022, 16.0129, 32.8377, 9.30301, -48.4861, -6.11076
3.884, 9, 6.8861, 16.0482, 32.898, 9.11666, -48.7059, -5.97702
3.888, 9, 6.77019, 16.0845, 32.9553, 8.93795, -48.9182, -5.84911
3.892, 9, 6.65446, 16.1217, 33.01, 8.76628, -49.1239, -5.72656
3.896, 9, 6.53894, 16.1597, 33.0623, 8.60072, -49.3237, -5.6087
3.9, 9, 6.42358, 16.1986, 33.1126, 8.4401, -49.5191, -5.4947
3.904, 9, 6.3082, 16.2386, 33.1614, 8.28307, -49.7118, -5.38358
3.908, 9, 6.19261, 16.2796, 33.2091, 8.12818, -49.9033, -5.27433
3.912, 9, 6.07674, 16.3217, 33.2563, 7.97391, -50.0956, -5.16586
3.916, 9, 5.96064, 16.3648, 33.3033, 7.81875, -50.2906, -5.05715
3.92, 9, 5.84439, 16.4086, 33.3507, 7.66133, -50.49, -4.94724
3.924, 9, 5.72796, 16.4527, 33.3988, 7.50048, -50.6953, -4.83532
3.928, 9, 5.61128, 16.4968, 33.4479, 7.3353, -50.9077, -4.72079
3.932, 9, 5.49425, 16.5408, 33.4981, 7.16526, -51.1279, -4.60332
3.936, 9, 5.37669, 16.5848, 33.5495, 6.99021, -51.3562, -4.48279
3.94, 9, 5.25842, 16.6289, 33.602, 6.81035, -51.5924, -4.35939
3.944, 9, 5.13927, 16.6736, 33.6554, 6.62621, -51.8359, -4.23347
3.948, 9, 5.01926, 16.7191, 33.7094, 6.43859, -52.0857, -4.10559
3.952, 9, 4.89853, 16.7654, 33.7636, 6.24843, -52.3405, -3.97641
3.956, 9, 4.7774, 16.8127, 33.8179, 6.05684, -52.599, -3.84668
3.96, 9, 4.65623, 16.8608, 33.8717, 5.86499, -52.8596, -3.7172
3.964, 9, 4.53533, 16.9095, 33.9248, 5.67411, -53.1205, -3.5888
3.968, 9, 4.41484, 16.9586, 33.9767, 5.48545, -53.3801, -3.4623
3.972, 9, 4.2948, 17.0083, 34.0272, 5.30021, -53.6367, -3.33849
3.976, 9, 4.17516, 17.0585, 34.0758, 5.11949, -53.8885, -3.21806
3.98, 9, 4.05591, 17.1095, 34.1223, 4.94422, -54.1343, -3.10161
3.984, 9, 3.93703, 17.1613, 34.1664, 4.77507, -54.3731, -2.98956
3.988, 10, 3.81851, 17.2142, 34.208, 4.61242, -54.6042, -2.88212
3.992, 10, 3.70027, 17.2681, 34.2471, 4.45632, -54.8274, -2.7793
3.996, 10, 3.58223, 17.3232, 34.2836, 4.30651, -55.0431, -2.6809
3.999, 10, 3.46436, 17.3795, 34.3177, 4.16241, -55.2521, -2.58655
4.004, 10, 3.34668, 17.4371, 34.3495, 4.0232, -55.4554, -2.49568
4.008, 10, 3.22913, 17.4962, 34.3791, 3.88787, -55.6545, -2.40764
4.012, 10, 3.11152, 17.557, 34.4068, 3.75525, -55.8511, -2.32165
4.016, 10, 2.99366, 17.6196, 34.4327, 3.62408, -56.0469, -2.23693
4.02, 10, 2.87549, 17.684, 34.457, 3.4931, -56.2438, -2.15264
4.024, 10, 2.75704, 17.7503, 34.4798, 3.36102, -56.4437, -2.06798
4.028, 10, 2.63828, 17.8184, 34.5011, 3.22671, -56.6483, -1.98223
4.032, 10, 2.51912, 17.8882, 34.5211, 3.08916, -56.859, -1.89477
4.036, 10, 2.39939, 17.96, 34.5397, 2.94763, -57.0769, -1.80514
4.04, 10, 2.27886, 18.0341, 34.5568, 2.80165, -57.3028, -1.71307
4.044, 10, 2.15717, 18.1107, 34.5722, 2.65102, -57.537, -1.61844
4.048, 10, 2.03383, 18.1904, 34.5856, 2.49584, -57.7794, -1.52132
4.052, 10, 1.90832, 18.2736, 34.5966, 2.33642, -58.0294, -1.42193
4.056, 10, 1.7803, 18.3608, 34.605, 2.17324, -58.2866, -1.32057
4.06, 10, 1.64969, 18.4521, 34.6104, 2.00686, -58.5499, -1.2176
4.064, 10, 1.51667, 18.5476, 34.6125, 1.83791, -58.8186, -1.11342
4.068, 10, 1.38154, 18.6475, 34.611, 1.66702, -59.0916, -1.00843
4.072, 10, 1.24459, 18.7515, 34.6058, 1.49481, -59.3681, -0.903032
4.076, 10, 1.10603, 18.8598, 34.5966, 1.32187, -59.6472, -0.79758
4.08, 10, 0.966017, 18.9722, 34.5832, 1.14875, -59.9281, -0.692409
4.084, 10, 0.824743, 19.0886, 34.5655, 0.975928, -60.21, -0.587811
4.088, 10, 0.682404, 19.2088, 34.5435, 0.803803, -60.4924, -0.484029
4.092, 10, 0.53926, 19.3325, 34.517, 0.632723, -60.7747, -0.381265
4.096, 10, 0.395678, 19.4594, 34.4862, 0.462965, -61.0566, -0.279677
4.1, 10, 0.252114, 19.5891, 34.451, 0.294765, -61.3376, -0.179397
4.104, 10, 0.109031, 19.7214, 34.4115, 0.128326, -61.6174, -0.0805324
4.108, 10, -0.0331621, 19.8559, 34.3677, -0.0361604, -61.8957, 0.0168176
4.112, 10, -0.174107, 19.9924, 34.3199, -0.198501, -62.1721, 0.112557
4.116, 10, -0.313464, 20.1307, 34.2682, -0.358493, -62.4464, 0.206585
4.12, 10, -0.450894, 20.2703, 34.2127, -0.515917, -62.718, 0.298794
4.124, 10, -0.586059, 20.411, 34.1537, -0.670529, -62.9866, 0.389064
4.128, 10, -0.718645, 20.5524, 34.0915, -0.822058, -63.2516, 0.47726
4.132, 10, -0.848397, 20.694, 34.0263, -0.970207, -63.5125, 0.563233
4.136, 10, -0.975145, 20.8353, 33.9585, -1.11466, -63.7685, 0.646825
4.14, 10, -1.09877, 20.9762, 33.8884, -1.25508, -64.0191, 0.727871
4.144, 10, -1.21915, 21.1162, 33.8163, -1.39114, -64.2635, 0.80621
4.148, 10, -1.33618, 21.2549, 33.7427, -1.52254, -64.5012, 0.881691
4.152, 10, -1.44981, 21.3922, 33.6679, -1.64902, -64.7314, 0.954183
4.156, 10, -1.56014, 21.5278, 33.5923, -1.77034, -64.9536, 1.02358
4.16, 10, -1.66742, 21.6618, 33.5161, -1.88635, -65.1675, 1.08983
4.164, 10, -1.77198, 21.7944, 33.4396, -1.997, -65.3728, 1.15291
4.168, 11, -1.87419, 21.9257, 33.3629, -2.10234, -65.5694, 1.21288
4.172, 11, -1.97447, 22.0562, 33.2862, -2.20257, -65.7575, 1.26986
4.176, 11, -2.07321, 22.1859, 33.2094, -2.29802, -65.9375, 1.32407
4.18, 11, -2.17073, 22.3151, 33.1325, -2.38916, -66.1104, 1.37576
4.184, 11, -2.2672, 22.444, 33.0554, -2.47659, -66.277, 1.42531
4.188, 11, -2.36272, 22.5728, 32.9779, -2.56101, -66.4385, 1.47309
4.192, 11, -2.45743, 22.7018, 32.8998, -2.64316, -66.5964, 1.51955
4.196, 11, -2.55154, 22.8314, 32.8207, -2.72383, -66.752, 1.56511
4.2, 11, -2.6452, 22.9618, 32.74, -2.8038, -66.9067, 1.61024
4.204, 11, -2.73841, 23.0934, 32.6575, -2.88385, -67.0621, 1.65537
4.208, 11, -2.83105, 23.226, 32.5728, -2.96471, -67.2195, 1.7009
4.212, 11, -2.923, 23.3595, 32.4855, -3.04701, -67.3801, 1.74718
4.216, 11, -3.01425, 23.4938, 32.3956, -3.13125, -67.545, 1.79451
4.22, 11, -3.10484, 23.6291, 32.3027, -3.21777, -67.7148, 1.84305
4.224, 11, -3.19487, 23.7654, 32.2069, -3.30673, -67.8899, 1.89292
4.228, 11, -3.28454, 23.9027, 32.1079, -3.39811, -68.0703, 1.94409
4.232, 11, -3.37408, 24.0413, 32.0059, -3.49173, -68.2557, 1.99647
4.236, 11, -3.4636, 24.1815, 31.901, -3.58725, -68.4455, 2.04988
4.24, 11, -3.55314, 24.3232, 31.7935, -3.68427, -68.6388, 2.1041
4.244, 11, -3.64259, 24.4662, 31.6837, -3.78229, -68.8347, 2.15885
4.248, 11, -3.73183, 24.6101, 31.5723, -3.88077, -69.0321, 2.21383
4.252, 11, -3.82076, 24.7546, 31.4597, -3.97915, -69.23, 2.26874
4.256, 11, -3.90937, 24.8993, 31.3465, -4.07685, -69.427, 2.32326
4.26, 11, -3.99771, 25.0439, 31.2332, -4.17329, -69.6222, 2.37707
4.264, 11, -4.08576, 25.1878, 31.1204, -4.26794, -69.8142, 2.42988
4.268, 11, -4.17346, 25.3309, 31.0085, -4.36033, -70.0023, 2.48143
4.272, 11, -4.26079, 25.473, 30.8979, -4.45006, -70.1854, 2.53152
4.276, 11, -4.3477, 25.6138, 30.7889, -4.53684, -70.363, 2.57997
4.28, 11, -4.43419, 25.7534, 30.6817, -4.62051, -70.5347, 2.6267
4.284, 12, -4.52025, 25.8916, 30.5765, -4.70101, -70.7004, 2.6717
4.288, 12, -4.60598, 26.0285, 30.4732, -4.77845, -70.8601, 2.715
4.292, 12, -4.69153, 26.1642, 30.3717, -4.85302, -71.0144, 2.75674
4.296, 12, -4.77698, 26.2989, 30.2717, -4.92505, -71.1637, 2.79708
4.3, 12, -4.8623, 26.4329, 30.1729, -4.99495, -71.309, 2.83626
4.304, 12, -4.9475, 26.5664, 30.0749, -5.06319, -71.4512, 2.87455
4.308, 12, -5.03263, 26.7, 29.9769, -5.13031, -71.5914, 2.91223
4.312, 12, -5.11776, 26.8339, 29.8785, -5.19685, -71.7308, 2.94963
4.316, 12, -5.20287, 26.9686, 29.779, -5.26338, -71.8705, 2.98705
4.32, 12, -5.2878, 27.1042, 29.6777, -5.33046, -72.0117, 3.02481
4.324, 12, -5.3724, 27.2405, 29.5743, -5.3986, -72.1555, 3.0632
4.328, 12, -5.45654, 27.3777, 29.4681, -5.46823, -72.3029, 3.10246
4.332, 12, -5.54016, 27.5156, 29.359, -5.53969, -72.4545, 3.14278
4.336, 12, -5.62326, 27.6545, 29.2466, -5.61317, -72.6109, 3.18428
4.34, 12, -5.70595, 27.7945, 29.1309, -5.68872, -72.772, 3.22699
4.344, 12, -5.7884, 27.9358, 29.0116, -5.76628, -72.938, 3.27087
4.348, 12, -5.87076, 28.0786, 28.8889, -5.84564, -73.1081, 3.31582
4.352, 12, -5.95312, 28.2229, 28.763, -5.92651, -73.282, 3.36169
4.356, 12, -6.03543, 28.3688, 28.6343, -6.00851, -73.4588, 3.40827
4.36, 12, -6.1176, 28.5158, 28.5033, -6.09123, -73.6375, 3.45534
4.364, 12, -6.1995, 28.6636, 28.3705, -6.17423, -73.8174, 3.50264
4.368, 12, -6.2811, 28.8118, 28.2366, -6.25704, -73.9972, 3.54992
4.372, 12, -6.36246, 28.9601, 28.1023, -6.33918, -74.1761, 3.5969
4.376, 12, -6.44362, 29.1082, 27.9682, -6.4202, -74.353, 3.64334
4.38, 12, -6.52457, 29.2555, 27.8348, -6.49966, -74.5268, 3.68899
4.384, 12, -6.60525, 29.4019, 27.7028, -6.57718, -74.6969, 3.73362
4.388, 12, -6.68563, 29.547, 27.5725, -6.65246, -74.8624, 3.77707
4.392, 12, -6.76569, 29.6909, 27.4444, -6.72527, -75.0228, 3.8192
4.396, 12, -6.84542, 29.8333, 27.3185, -6.79549, -75.1779, 3.85994
4.4, 13, -6.92487, 29.9743, 27.1951, -6.86308, -75.3275, 3.89927
4.404, 13, -7.00415, 30.114, 27.0741, -6.92814, -75.4718, 3.93723
4.408, 13, -7.08341, 30.2525, 26.9552, -6.99085, -75.6112, 3.97393
4.412, 13, -7.16271, 30.3901, 26.8383, -7.05147, -75.7463, 4.00951
4.416, 13, -7.242, 30.527, 26.7227, -7.11036, -75.8777, 4.04419
4.42, 13, -7.32126, 30.6635, 26.6081, -7.16791, -76.0066, 4.07819
4.424, 13, -7.40049, 30.8, 26.4936, -7.22457, -76.1337, 4.11177
4.428, 13, -7.4797, 30.9368, 26.3785, -7.28079, -76.2601, 4.14521
4.432, 13, -7.55881, 31.0743, 26.2622, -7.33706, -76.3869, 4.17878
4.436, 13, -7.63764, 31.2126, 26.1439, -7.39382, -76.5152, 4.21276
4.44, 13, -7.71599, 31.3516, 26.023, -7.45148, -76.6458, 4.24739
4.444, 13, -7.79374, 31.4914, 25.8991, -7.51041, -76.7797, 4.28289
4.448, 13, -7.87082, 31.6321, 25.7718, -7.57085, -76.9173, 4.31941
4.452, 13, -7.94728, 31.7737, 25.6407, -7.63294, -77.059, 4.35706
4.456, 13, -8.0232, 31.9165, 25.5058, -7.69672, -77.205, 4.39586
4.46, 13, -8.09879, 32.0607, 25.3669, -7.76211, -77.355, 4.43576
4.464, 13, -8.17418, 32.2065, 25.2243, -7.82891, -77.5086, 4.47669
4.468, 13, -8.24946, 32.3538, 25.0781, -7.89689, -77.6653, 4.51848
4.472, 13, -8.32459, 32.5026, 24.9288, -7.96572, -77.8243, 4.56097
4.476, 13, -8.39951, 32.6524, 24.7771, -8.03506, -77.9849, 4.60395
4.48, 13, -8.47413, 32.8029, 24.6236, -8.10454, -78.1461, 4.6472
4.484, 13, -8.54847, 32.9538, 24.469, -8.17379, -78.3072, 4.69048
4.488, 13, -8.62262, 33.1046, 24.3141, -8.2424, -78.4672, 4.73357
4.492, 13, -8.69665, 33.2552, 24.1596, -8.31001, -78.6252, 4.77622
4.496, 13, -8.77053, 33.4049, 24.0062, -8.37628, -78.7804, 4.81822
4.5, 13, -8.84419, 33.5536, 23.8544, -8.4409, -78.9321, 4.85937
4.504, 13, -8.91761, 33.701, 23.7049, -8.50363, -79.0796, 4.89952
4.508, 13, -8.99077, 33.847, 23.5579, -8.56428, -79.2226, 4.93854
4.512, 13, -9.06366, 33.9914, 23.4138, -8.62278, -79.3607, 4.97637
4.516, 14, -9.13635, 34.1343, 23.2725, -8.67908, -79.494, 5.01298
4.52, 14, -9.20897, 34.2758, 23.1342, -8.73328, -79.6225, 5.0484
4.524, 14, -9.28167, 34.4161, 22.9984, -8.78551, -79.7467, 5.08274
4.528, 14, -9.35449, 34.5555, 22.8649, -8.836, -79.8669, 5.11611
4.532, 14, -9.42739, 34.6941, 22.7332, -8.88502, -79.9839, 5.14871
4.536, 14, -9.50031, 34.8322, 22.6026, -8.93292, -80.0984, 5.18075
4.54, 14, -9.57322, 34.9702, 22.4723, -8.98004, -80.2113, 5.21245
4.544, 14, -9.64609, 35.1084, 22.3415, -9.02677, -80.3236, 5.24408
4.548, 14, -9.71881, 35.2472, 22.2094, -9.07348, -80.4361, 5.27589
4.552, 14, -9.7912, 35.3867, 22.0752, -9.12053, -80.5497, 5.30813
4.556, 14, -9.86306, 35.5269, 21.9382, -9.16828, -80.6652, 5.34103
4.56, 14, -9.93427, 35.668, 21.7978, -9.21699, -80.7834, 5.3748
4.564, 14, -10.0048, 35.8101, 21.6537, -9.26688, -80.9048, 5.40958
4.568, 14, -10.0746, 35.9532, 21.5054, -9.31808, -81.0297, 5.44548
4.572, 14, -10.1438, 36.0976, 21.3527, -9.37061, -81.1581, 5.48253
4.576, 14, -10.2127, 36.2436, 21.1957, -9.4244, -81.29, 5.5207
4.58, 14, -10.2813, 36.3913, 21.0343, -9.47933, -81.4249, 5.55992
4.584, 14, -10.3496, 36.5407, 20.869, -9.53519, -81.5626, 5.60006
4.588, 14, -10.4178, 36.6915, 20.7002, -9.59174, -81.7022, 5.64097
4.592, 14, -10.4857, 36.8434, 20.5286, -9.64871, -81.8432, 5.68245
4.596, 14, -10.5533, 36.996, 20.3549, -9.70582, -81.9849, 5.72432
4.6, 14, -10.6206, 37.1489, 20.18, -9.76274, -82.1265, 5.76635
4.604, 14, -10.6877, 37.3019, 20.0045, -9.81918, -82.2673, 5.80832
4.608, 14, -10.7547, 37.4546, 19.8293, -9.87483, -82.4064, 5.85
4.612, 14, -10.8217, 37.6067, 19.6553, -9.92942, -82.5431, 5.8912
4.616, 14, -10.8885, 37.7577, 19.4831, -9.98269, -82.6769, 5.9317
4.62, 14, -10.9551, 37.9074, 19.3133, -10.0344, -82.8072, 5.97135
4.624, 14, -11.0216, 38.0556, 19.1463, -10.0845, -82.9335, 6.01002
4.628, 14, -11.0878, 38.2023, 18.9826, -10.1328, -83.0557, 6.04761
4.632, 15, -11.154, 38.3474, 18.8223, -10.1793, -83.1735, 6.08409
4.636, 15, -11.2203, 38.491, 18.6653, -10.2241, -83.2871, 6.11947
4.64, 15, -11.2867, 38.6335, 18.5114, -10.2671, -83.3968, 6.15381
4.644, 15, -11.3534, 38.7749, 18.3602, -10.3087, -83.5028, 6.18724
4.648, 15, -11.4203, 38.9155, 18.2113, -10.349, -83.6058, 6.21991
4.652, 15, -11.4873, 39.0555, 18.064, -10.3882, -83.7064, 6.25201
4.656, 15, -11.5543, 39.1951, 17.9174, -10.4267, -83.8053, 6.28377
4.66, 15, -11.6213, 39.3348, 17.7706, -10.4647, -83.9032, 6.31542
4.664, 15, -11.6881, 39.4748, 17.6227, -10.5026, -84.0011, 6.34723
4.668, 15, -11.7544, 39.6153, 17.4729, -10.5406, -84.0995, 6.37942
4.672, 15, -11.8201, 39.7563, 17.3204, -10.579, -84.1993, 6.41225
4.676, 15, -11.8847, 39.8977, 17.1647, -10.618, -84.301, 6.44589
4.68, 15, -11.9482, 40.0395, 17.0052, -10.6578, -84.4052, 6.48052
4.684, 15, -12.0104, 40.1816, 16.8416, -10.6986, -84.512, 6.51622
4.688, 15, -12.0712, 40.3242, 16.6739, -10.7402, -84.6215, 6.55301
4.692, 15, -12.1308, 40.4672, 16.5022, -10.7827, -84.7335, 6.59084
4.696, 15, -12.1893, 40.611, 16.3266, -10.8259, -84.8477, 6.62962
4.7, 15, -12.2471, 40.7555, 16.1476, -10.8695, -84.9635, 6.66917
4.704, 15, -12.3044, 40.9006, 15.9659, -10.9134, -85.0804, 6.70931
4.708, 15, -12.3612, 41.0461, 15.7824, -10.9574, -85.1975, 6.74982
4.712, 15, -12.4175, 41.1915, 15.5982, -11.001, -85.3143, 6.79044
4.716, 15, -12.4735, 41.3363, 15.4141, -11.0442, -85.4301, 6.83094
4.72, 15, -12.5292, 41.4801, 15.2313, -11.0865, -85.544, 6.87106
4.724, 15, -12.5846, 41.6226, 15.0506, -11.1278, -85.6554, 6.91056
4.728, 15, -12.6396, 41.7631, 14.8731, -11.1679, -85.7637, 6.94921
4.732, 15, -12.6939, 41.9011, 14.6997, -11.2065, -85.8683, 6.9868
4.736, 15, -12.7475, 42.0361, 14.5311, -11.2435, -85.9688, 7.02316
4.74, 15, -12.7998, 42.1672, 14.3681, -11.2787, -86.0648, 7.05814
4.744, 15, -12.8505, 42.2938, 14.2114, -11.3122, -86.1562, 7.09164
4.748, 15, -12.8993, 42.4151, 14.0615, -11.3438, -86.2427, 7.12355
4.752, 15, -12.9458, 42.5308, 13.9189, -11.3735, -86.3243, 7.15383
4.756, 15, -12.99, 42.6403, 13.784, -11.4014, -86.4009, 7.1824
4.76, 15, -13.0316, 42.7436, 13.6569, -11.4273, -86.4724, 7.20923
4.764, 15, -13.0707, 42.8404, 13.5379, -11.4514, -86.5389, 7.23429
4.768, 15, -13.1072, 42.9309, 13.4271, -11.4735, -86.6003, 7.25756
4.772, 15, -13.1414, 43.0149, 13.3245, -11.4939, -86.6567, 7.27903
4.776, 15, -13.1731, 43.0927, 13.2301, -11.5124, -86.7081, 7.29871
4.78, 15, -13.2025, 43.1641, 13.1439, -11.5292, -86.7547, 7.31663
4.784, 15, -13.2295, 43.2295, 13.0656, -11.5442, -86.7967, 7.3328
4.788, 15, -13.2542, 43.2888, 12.9952, -11.5577, -86.8341, 7.34728
4.792, 15, -13.2768, 43.3423, 12.9324, -11.5695, -86.8671, 7.36013
4.796, 15, -13.2974, 43.3904, 12.8767, -11.5799, -86.896, 7.37141
4.8, 15, -13.316, 43.4332, 12.828, -11.5888, -86.921, 7.38121
4.804, 15, -13.3329, 43.4713, 12.7856, -11.5965, -86.9424, 7.38962
4.808, 15, -13.3481, 43.5049, 12.7493, -11.6029, -86.9605, 7.39675
4.812, 15, -13.3618, 43.5342, 12.7183, -11.6083, -86.9755, 7.40271
4.816, 15, -13.3739, 43.5597, 12.6924, -11.6127, -86.9878, 7.40763
4.82, 15, -13.3846, 43.5814, 12.6709, -11.6163, -86.9978, 7.41162
4.824, 15, -13.3939, 43.5998, 12.6534, -11.6191, -87.0058, 7.41482
4.828, 15, -13.402, 43.6153, 12.6392, -11.6214, -87.012, 7.41734
4.832, 15, -13.409, 43.6284, 12.628, -11.6231, -87.0167, 7.41928
4.836, 15, -13.415, 43.6393, 12.6192, -11.6244, -87.0203, 7.42075
4.84, 15, -13.4203, 43.6484, 12.6125, -11.6253, -87.023, 7.42184
4.844, 15, -13.4248, 43.656, 12.6074, -11.626, -87.0248, 7.42263
4.848, 15, -13.4286, 43.6621, 12.6036, -11.6265, -87.0262, 7.42319
4.852, 16, -13.4316, 43.6669, 12.6008, -11.6268, -87.0271, 7.42358
4.856, 16, -13.4339, 43.6705, 12.5989, -11.627, -87.0277, 7.42385
4.86, 16, -13.4356, 43.6731, 12.5975, -11.6272, -87.0281, 7.42403
4.864, 16, -13.4368, 43.6749, 12.5966, -11.6273, -87.0284, 7.42415
4.868, 16, -13.4376, 43.6761, 12.5959, -11.6274, -87.0286, 7.42423
4.872, 16, -13.4382, 43.6769, 12.5955, -11.6274, -87.0287, 7.42429
4.876, 16, -13.4385, 43.6775, 12.5952, -11.6274, -87.0288, 7.42433
4.88, 16, -13.4388, 43.6779, 12.595, -11.6275, -87.0289, 7.42436
4.884, 16, -13.4389, 43.6781, 12.5949, -11.6275, -87.0289, 7.42437
4.888, 16, -13.4391, 43.6783, 12.5948, -11.6275, -87.0289, 7.42439
4.892, 16, -13.4391, 43.6784, 12.5947, -11.6275, -87.0289, 7.42439
4.896, 16, -13.4392, 43.6785, 12.5947, -11.6275, -87.029, 7.4244
4.9, 16, -13.4392, 43.6785, 12.5947, -11.6275, -87.029, 7.4244
4.904, 16, -13.4392, 43.6786, 12.5946, -11.6275, -87.029, 7.42441
4.908, 16, -13.4393, 43.6786, 12.5946, -11.6275, -87.029, 7.42441
4.912, 16, -13.4393, 43.6786, 12.5946, -11.6275, -87.029, 7.42441
4.916, 16, -13.4393, 43.6786, 12.5946, -11.6275, -87.029, 7.42441
4.92, 16, -13.4393, 43.6786, 12.5946, -11.6275, -87.029, 7.42441
4.924, 16, -13.4393, 43.6786, 12.5946, -11.6275, -87.029, 7.42441
4.928, 16, -13.4393, 43.6786, 12.5946, -11.6275, -87.029, 7.42441
4.932, 16, -13.4393, 43.6787, 12.5946, -11.6275, -87.029, 7.42441
4.936, 16, -13.4393, 43.6787, 12.5946, -11.6275, -87.029, 7.42441
4.94, 16, -13.4393, 43.6787, 12.5946, -11.6275, -87.029, 7.42441
4.944, 16, -13.4393, 43.6787, 12.5946, -11.6275, -87.029, 7.42441
4.948, 16, -13.4393, 43.6787, 12.5946, -11.6275, -87.029, 7.42441
4.952, 16, -13.4393, 43.6787, 12.5946, -11.6275, -87.029, 7.42441
4.956, 16, -13.4393, 43.6787, 12.5946, -11.6275, -87.029, 7.42441
4.96, 16, -13.4393, 43.6787, 12.5946, -11.6275, -87.029, 7.42441
4.964, 16, -13.4393, 43.6787, 12.5946, -11.6275, -87.029, 7.42441
4.968, 16, -13.4393, 43.6787, 12.5946, -11.6275, -87.029, 7.42441
