hehonglu123/ABB_Primitive_Study/execution/movelcl_30_car2/curve_exe_v300_z20.csv
timestamp, cmd_num, J1, J2, J3, J4, J5, J6
0, -1, -13.4393, 43.6787, 12.5946, -11.6275, -87.029, 7.42441
0.002, -1, -13.4393, 43.6787, 12.5946, -11.6275, -87.029, 7.42441
0.006, -1, -13.4393, 43.6787, 12.5946, -11.6275, -87.029, 7.42441
0.008, -1, -13.4393, 43.6787, 12.5946, -11.6275, -87.029, 7.42441
0.011, -1, -13.4393, 43.6787, 12.5946, -11.6275, -87.029, 7.42441
0.016, -1, -13.4393, 43.6787, 12.5946, -11.6275, -87.029, 7.42441
0.02, -1, -13.4393, 43.6787, 12.5946, -11.6275, -87.029, 7.42441
0.024, -1, -13.4393, 43.6787, 12.5946, -11.6275, -87.029, 7.42441
0.028, -1, -13.4393, 43.6787, 12.5946, -11.6275, -87.029, 7.42441
0.032, -1, -13.4393, 43.6787, 12.5946, -11.6275, -87.029, 7.42441
0.036, -1, -13.4392, 43.6786, 12.5946, -11.6275, -87.029, 7.42441
0.04, -1, -13.439, 43.6785, 12.5946, -11.6275, -87.029, 7.42441
0.044, -1, -13.4384, 43.678, 12.5947, -11.6275, -87.029, 7.42439
0.048, -1, -13.4372, 43.6772, 12.5949, -11.6274, -87.0289, 7.42434
0.052, -1, -13.4355, 43.6758, 12.5951, -11.6273, -87.0287, 7.42422
0.056, -1, -13.433, 43.6738, 12.5955, -11.627, -87.0284, 7.42397
0.06, -1, -13.4296, 43.671, 12.5961, -11.6264, -87.0277, 7.42349
0.064, -1, -13.4254, 43.6675, 12.5969, -11.6253, -87.0264, 7.42266
0.068, -1, -13.4203, 43.6631, 12.598, -11.6236, -87.0244, 7.42132
0.072, -1, -13.4141, 43.6579, 12.5994, -11.6209, -87.0213, 7.41928
0.076, -1, -13.4066, 43.6516, 12.6011, -11.617, -87.0167, 7.4163
0.08, -1, -13.3977, 43.6442, 12.6034, -11.6115, -87.0103, 7.41213
0.084, -1, -13.3869, 43.6352, 12.6062, -11.604, -87.0016, 7.40644
0.088, -1, -13.3743, 43.6247, 12.6097, -11.5941, -86.9899, 7.39892
0.092, -1, -13.3596, 43.6124, 12.6138, -11.5812, -86.9748, 7.38918
0.096, -1, -13.3427, 43.5982, 12.6186, -11.5648, -86.9557, 7.37685
0.1, -1, -13.3235, 43.582, 12.6243, -11.5444, -86.9319, 7.36155
0.104, -1, -13.3019, 43.5636, 12.6308, -11.5196, -86.9029, 7.3429
0.108, -1, -13.2776, 43.5427, 12.6382, -11.4899, -86.868, 7.32054
0.112, -1, -13.2505, 43.5193, 12.6467, -11.4547, -86.8269, 7.29416
0.116, -1, -13.2206, 43.4932, 12.6562, -11.4137, -86.7789, 7.26346
0.12, -1, -13.1877, 43.4644, 12.6669, -11.3667, -86.7238, 7.22818
0.124, -1, -13.1519, 43.4328, 12.6786, -11.3132, -86.6612, 7.18814
0.128, -1, -13.113, 43.3984, 12.6916, -11.2532, -86.591, 7.14319
0.131, -1, -13.071, 43.3611, 12.7056, -11.1865, -86.5129, 7.09326
0.136, -1, -13.026, 43.321, 12.7209, -11.1131, -86.4269, 7.03835
0.139, -1, -12.9779, 43.2779, 12.7373, -11.0331, -86.3333, 6.9785
0.144, -1, -12.9267, 43.232, 12.7548, -10.9467, -86.2321, 6.91384
0.148, -1, -12.8726, 43.1833, 12.7734, -10.854, -86.1236, 6.84454
0.152, -1, -12.8155, 43.132, 12.7932, -10.7555, -86.0082, 6.77084
0.156, -1, -12.7557, 43.0781, 12.8139, -10.6514, -85.8863, 6.69301
0.16, -1, -12.6932, 43.0219, 12.8355, -10.5422, -85.7585, 6.61137
0.164, -1, -12.6282, 42.9633, 12.8581, -10.4284, -85.6253, 6.52627
0.168, -1, -12.5607, 42.9025, 12.8815, -10.3105, -85.4872, 6.43809
0.172, -1, -12.4909, 42.8396, 12.9056, -10.189, -85.3449, 6.34721
0.176, -1, -12.4189, 42.7749, 12.9305, -10.0644, -85.1989, 6.25399
0.18, -1, -12.345, 42.7085, 12.956, -9.93711, -85.0499, 6.15879
0.184, -1, -12.2694, 42.6406, 12.9821, -9.80765, -84.8983, 6.06194
0.188, -1, -12.1925, 42.5714, 13.0086, -9.6764, -84.7446, 5.96375
0.192, -1, -12.1142, 42.5011, 13.0356, -9.54373, -84.5892, 5.86449
0.196, -1, -12.0348, 42.4297, 13.0629, -9.40995, -84.4326, 5.76439
0.2, -1, -11.9542, 42.3573, 13.0906, -9.27534, -84.2749, 5.66366
0.204, -1, -11.8724, 42.2841, 13.1185, -9.14011, -84.1166, 5.56246
0.208, -1, -11.7897, 42.21, 13.1466, -9.00443, -83.9577, 5.46092
0.212, -1, -11.7061, 42.1354, 13.1749, -8.86843, -83.7985, 5.35913
0.216, -1, -11.6218, 42.0602, 13.2033, -8.7322, -83.6389, 5.25717
0.22, -1, -11.5371, 41.9847, 13.2318, -8.5958, -83.4792, 5.15507
0.224, -1, -11.452, 41.909, 13.2603, -8.45928, -83.3194, 5.05288
0.228, -1, -11.3667, 41.8332, 13.2889, -8.32266, -83.1594, 4.95062
0.232, -1, -11.2813, 41.7572, 13.3176, -8.18597, -82.9993, 4.8483
0.236, -1, -11.1957, 41.6811, 13.3462, -8.04922, -82.8392, 4.74595
0.24, -1, -11.11, 41.605, 13.3749, -7.91243, -82.679, 4.64355
0.244, -1, -11.0243, 41.5288, 13.4035, -7.77561, -82.5188, 4.54114
0.248, -1, -10.9386, 41.4526, 13.4322, -7.63876, -82.3586, 4.4387
0.252, -1, -10.8528, 41.3764, 13.4609, -7.50189, -82.1983, 4.33625
0.256, -1, -10.767, 41.3002, 13.4896, -7.36501, -82.0381, 4.2338
0.26, -1, -10.6811, 41.2239, 13.5183, -7.22813, -81.8778, 4.13133
0.264, -1, -10.5953, 41.1477, 13.547, -7.09125, -81.7175, 4.02887
0.268, -1, -10.5094, 41.0714, 13.5757, -6.95436, -81.5572, 3.92641
0.272, -1, -10.4236, 40.9952, 13.6044, -6.81749, -81.397, 3.82396
0.276, -1, -10.3378, 40.9189, 13.6331, -6.68063, -81.2367, 3.72151
0.28, -1, -10.252, 40.8427, 13.6618, -6.54379, -81.0765, 3.61908
0.284, -1, -10.1661, 40.7665, 13.6904, -6.40697, -80.9163, 3.51666
0.288, -1, -10.0803, 40.6903, 13.7191, -6.27017, -80.7561, 3.41427
0.292, -1, -9.99456, 40.6141, 13.7478, -6.13341, -80.596, 3.31189
0.296, -1, -9.9088, 40.538, 13.7764, -5.99668, -80.4359, 3.20955
0.3, -1, -9.82306, 40.4618, 13.8051, -5.85999, -80.2758, 3.10723
0.304, -1, -9.73734, 40.3857, 13.8337, -5.72334, -80.1158, 3.00494
0.308, -1, -9.65166, 40.3096, 13.8624, -5.58674, -79.9558, 2.90269
0.312, -1, -9.566, 40.2336, 13.891, -5.45019, -79.796, 2.80048
0.316, -1, -9.48038, 40.1575, 13.9196, -5.31369, -79.6361, 2.69831
0.32, -1, -9.3948, 40.0815, 13.9482, -5.17726, -79.4764, 2.59618
0.324, -1, -9.30925, 40.0055, 13.9768, -5.04089, -79.3167, 2.4941
0.328, -1, -9.22375, 39.9296, 14.0054, -4.90458, -79.1571, 2.39207
0.332, -1, -9.13829, 39.8537, 14.0339, -4.76835, -78.9976, 2.2901
0.336, -1, -9.05287, 39.7778, 14.0625, -4.63219, -78.8382, 2.18818
0.34, -1, -8.9675, 39.702, 14.091, -4.49612, -78.6788, 2.08632
0.344, -1, -8.88219, 39.6262, 14.1195, -4.36012, -78.5196, 1.98452
0.348, -1, -8.79693, 39.5505, 14.148, -4.22421, -78.3604, 1.88279
0.352, -1, -8.71172, 39.4748, 14.1765, -4.0884, -78.2014, 1.78113
0.356, -1, -8.62657, 39.3992, 14.2049, -3.95267, -78.0425, 1.67953
0.36, -1, -8.54148, 39.3236, 14.2334, -3.81705, -77.8837, 1.57801
0.364, -1, -8.45646, 39.2481, 14.2618, -3.68152, -77.725, 1.47657
0.368, -1, -8.3715, 39.1727, 14.2902, -3.54611, -77.5664, 1.3752
0.372, -1, -8.28661, 39.0973, 14.3185, -3.4108, -77.408, 1.27392
0.376, -1, -8.20179, 39.0219, 14.3469, -3.2756, -77.2497, 1.17272
0.38, -1, -8.11704, 38.9467, 14.3752, -3.14052, -77.0915, 1.07161
0.384, -1, -8.03237, 38.8715, 14.4035, -3.00557, -76.9335, 0.970588
0.388, -1, -7.94777, 38.7963, 14.4318, -2.87073, -76.7756, 0.869659
0.392, -1, -7.86325, 38.7212, 14.46, -2.73602, -76.6179, 0.768825
0.396, -1, -7.77881, 38.6463, 14.4882, -2.60145, -76.4603, 0.668089
0.4, -1, -7.69446, 38.5713, 14.5164, -2.467, -76.3029, 0.567454
0.404, -1, -7.61019, 38.4965, 14.5446, -2.3327, -76.1456, 0.466921
0.408, -1, -7.526, 38.4217, 14.5727, -2.19854, -75.9885, 0.366494
0.412, -1, -7.44191, 38.347, 14.6008, -2.06452, -75.8316, 0.266176
0.416, -1, -7.35791, 38.2724, 14.6288, -1.93064, -75.6748, 0.165968
0.42, -1, -7.274, 38.1979, 14.6569, -1.79692, -75.5183, 0.0658724
0.424, -1, -7.19019, 38.1235, 14.6849, -1.66336, -75.3619, -0.0341072
0.428, -1, -7.10648, 38.0491, 14.7128, -1.52995, -75.2057, -0.133969
0.432, -1, -7.02287, 37.9748, 14.7408, -1.3967, -75.0496, -0.233711
0.436, -1, -6.93935, 37.9007, 14.7687, -1.26362, -74.8938, -0.33333
0.44, -1, -6.85595, 37.8266, 14.7965, -1.1307, -74.7382, -0.432824
0.444, -1, -6.77264, 37.7526, 14.8244, -0.99795, -74.5827, -0.532191
0.448, -1, -6.68945, 37.6787, 14.8522, -0.865375, -74.4275, -0.631429
0.452, -1, -6.60636, 37.6049, 14.8799, -0.732975, -74.2725, -0.730535
0.456, -1, -6.52339, 37.5312, 14.9077, -0.600755, -74.1176, -0.829507
0.46, -1, -6.44053, 37.4576, 14.9353, -0.468716, -73.963, -0.928344
0.464, -1, -6.35778, 37.3842, 14.963, -0.336861, -73.8086, -1.02704
0.468, -1, -6.27515, 37.3108, 14.9906, -0.205193, -73.6545, -1.1256
0.472, -1, -6.19264, 37.2375, 15.0181, -0.0737153, -73.5005, -1.22402
0.476, -1, -6.11024, 37.1643, 15.0457, 0.0575699, -73.3468, -1.32229
0.48, -1, -6.02797, 37.0912, 15.0732, 0.18866, -73.1933, -1.42042
0.484, -1, -5.94582, 37.0183, 15.1006, 0.319552, -73.04, -1.51839
0.488, -1, -5.8638, 36.9454, 15.128, 0.450244, -72.887, -1.61622
0.492, -1, -5.7819, 36.8727, 15.1554, 0.580734, -72.7342, -1.7139
0.496, -1, -5.70012, 36.8001, 15.1827, 0.711018, -72.5817, -1.81142
0.5, -1, -5.61848, 36.7276, 15.2099, 0.841096, -72.4294, -1.90879
0.504, -1, -5.53697, 36.6552, 15.2372, 0.970964, -72.2773, -2.006
0.508, -1, -5.45558, 36.5829, 15.2644, 1.10062, -72.1255, -2.10306
0.512, -1, -5.37433, 36.5108, 15.2915, 1.23006, -71.9739, -2.19995
0.516, -1, -5.29321, 36.4387, 15.3186, 1.35929, -71.8226, -2.29668
0.52, -1, -5.21223, 36.3668, 15.3456, 1.4883, -71.6715, -2.39325
0.524, -1, -5.13138, 36.295, 15.3726, 1.6171, -71.5207, -2.48966
0.528, -1, -5.05067, 36.2233, 15.3996, 1.74567, -71.3702, -2.5859
0.532, -1, -4.97009, 36.1518, 15.4265, 1.87402, -71.2199, -2.68198
0.536, -1, -4.88966, 36.0803, 15.4534, 2.00215, -71.0698, -2.77789
0.54, -1, -4.80936, 36.009, 15.4802, 2.13005, -70.9201, -2.87363
0.544, -1, -4.7292, 35.9378, 15.507, 2.25773, -70.7706, -2.9692
0.548, -1, -4.64919, 35.8668, 15.5337, 2.38518, -70.6213, -3.0646
0.552, -1, -4.56931, 35.7959, 15.5604, 2.51241, -70.4724, -3.15984
0.556, -1, -4.48958, 35.725, 15.587, 2.6394, -70.3237, -3.2549
0.56, -1, -4.41, 35.6544, 15.6136, 2.76617, -70.1752, -3.34979
0.564, -1, -4.33056, 35.5838, 15.6401, 2.8927, -70.0271, -3.44451
0.568, -1, -4.25126, 35.5134, 15.6666, 3.01901, -69.8792, -3.53905
0.572, -1, -4.17211, 35.4431, 15.693, 3.14508, -69.7316, -3.63342
0.576, -1, -4.0931, 35.373, 15.7194, 3.27092, -69.5842, -3.72761
0.58, -1, -4.01424, 35.3029, 15.7458, 3.39652, -69.4372, -3.82163
0.584, -1, -3.93553, 35.233, 15.772, 3.52189, -69.2904, -3.91547
0.588, -1, -3.85696, 35.1633, 15.7983, 3.64702, -69.1438, -4.00914
0.592, -1, -3.77855, 35.0936, 15.8245, 3.77191, -68.9976, -4.10263
0.596, -1, -3.70028, 35.0241, 15.8506, 3.89657, -68.8516, -4.19594
0.6, -1, -3.62216, 34.9548, 15.8767, 4.02099, -68.7059, -4.28908
0.604, -1, -3.54419, 34.8855, 15.9027, 4.14517, -68.5605, -4.38203
0.608, -1, -3.46637, 34.8164, 15.9287, 4.26911, -68.4154, -4.47481
0.612, -1, -3.3887, 34.7474, 15.9547, 4.39281, -68.2706, -4.5674
0.616, -1, -3.31118, 34.6786, 15.9806, 4.51628, -68.126, -4.65982
0.62, -1, -3.23382, 34.6099, 16.0064, 4.63949, -67.9817, -4.75205
0.624, -1, -3.1566, 34.5413, 16.0322, 4.76247, -67.8377, -4.84411
0.628, -1, -3.07954, 34.4729, 16.0579, 4.88521, -67.694, -4.93598
0.632, -1, -3.00262, 34.4046, 16.0836, 5.0077, -67.5506, -5.02767
0.636, -1, -2.92586, 34.3364, 16.1092, 5.12995, -67.4074, -5.11918
0.64, -1, -2.84926, 34.2684, 16.1348, 5.25195, -67.2646, -5.2105
0.644, -1, -2.7728, 34.2005, 16.1604, 5.37371, -67.122, -5.30165
0.648, -1, -2.6965, 34.1328, 16.1858, 5.49523, -66.9797, -5.39261
0.652, -1, -2.62035, 34.0652, 16.2113, 5.6165, -66.8377, -5.48338
0.656, -1, -2.54436, 33.9977, 16.2366, 5.73753, -66.696, -5.57398
0.66, -1, -2.46852, 33.9303, 16.262, 5.85831, -66.5546, -5.66439
0.664, -1, -2.39283, 33.8631, 16.2872, 5.97884, -66.4135, -5.75461
0.668, -1, -2.3173, 33.7961, 16.3125, 6.09913, -66.2726, -5.84465
0.672, -1, -2.24192, 33.7291, 16.3376, 6.21917, -66.1321, -5.93451
0.676, -1, -2.1667, 33.6623, 16.3628, 6.33897, -65.9918, -6.02418
0.68, -1, -2.09163, 33.5957, 16.3878, 6.45851, -65.8518, -6.11367
0.684, -1, -2.01672, 33.5292, 16.4129, 6.57781, -65.7121, -6.20297
0.688, -1, -1.94196, 33.4628, 16.4378, 6.69687, -65.5727, -6.29208
0.692, -1, -1.86736, 33.3965, 16.4627, 6.81567, -65.4336, -6.38101
0.696, -1, -1.79291, 33.3304, 16.4876, 6.93423, -65.2948, -6.46976
0.7, -1, -1.71862, 33.2645, 16.5124, 7.05254, -65.1562, -6.55832
0.704, -1, -1.64448, 33.1986, 16.5372, 7.1706, -65.018, -6.64669
0.708, -1, -1.5705, 33.1329, 16.5619, 7.28841, -64.8801, -6.73488
0.712, -1, -1.49668, 33.0674, 16.5865, 7.40597, -64.7424, -6.82288
0.716, -1, -1.42301, 33.002, 16.6111, 7.52329, -64.605, -6.9107
0.72, -1, -1.34949, 32.9367, 16.6357, 7.64036, -64.468, -6.99833
0.724, -1, -1.27614, 32.8715, 16.6602, 7.75718, -64.3312, -7.08577
0.728, -1, -1.20293, 32.8065, 16.6846, 7.87375, -64.1947, -7.17303
0.732, -1, -1.12989, 32.7417, 16.709, 7.99007, -64.0585, -7.2601
0.736, -1, -1.057, 32.677, 16.7333, 8.10615, -63.9226, -7.34699
0.74, -1, -0.984259, 32.6124, 16.7576, 8.22197, -63.7869, -7.43369
0.744, -1, -0.911678, 32.5479, 16.7819, 8.33755, -63.6516, -7.52021
0.748, -1, -0.839252, 32.4836, 16.8061, 8.45288, -63.5166, -7.60653
0.752, -1, -0.766981, 32.4194, 16.8302, 8.56796, -63.3818, -7.69268
0.756, -1, -0.694864, 32.3554, 16.8543, 8.6828, -63.2474, -7.77864
0.76, -1, -0.622901, 32.2915, 16.8783, 8.79738, -63.1132, -7.86441
0.764, -1, -0.551092, 32.2277, 16.9023, 8.91172, -62.9793, -7.95
0.768, -1, -0.479437, 32.1641, 16.9262, 9.02582, -62.8457, -8.0354
0.772, -1, -0.407935, 32.1006, 16.9501, 9.13966, -62.7124, -8.12062
0.776, -1, -0.336586, 32.0373, 16.9739, 9.25326, -62.5794, -8.20566
0.78, -1, -0.26539, 31.9741, 16.9977, 9.36662, -62.4467, -8.29051
0.784, -1, -0.194346, 31.911, 17.0214, 9.47973, -62.3142, -8.37518
0.788, -1, -0.123455, 31.848, 17.0451, 9.5926, -62.182, -8.45966
0.792, -1, -0.0527154, 31.7852, 17.0687, 9.70522, -62.0502, -8.54397
0.796, -1, 0.0178725, 31.7226, 17.0923, 9.81761, -61.9186, -8.62809
0.8, -1, 0.0883091, 31.66, 17.1158, 9.92975, -61.7873, -8.71204
0.804, -1, 0.158595, 31.5976, 17.1393, 10.0417, -61.6562, -8.7958
0.808, -1, 0.22873, 31.5353, 17.1627, 10.1533, -61.5255, -8.87938
0.812, -1, 0.298716, 31.4732, 17.186, 10.2647, -61.395, -8.96279
0.816, -1, 0.368552, 31.4112, 17.2094, 10.3759, -61.2648, -9.04602
0.82, -1, 0.438239, 31.3493, 17.2326, 10.4869, -61.1349, -9.12907
0.824, -1, 0.507778, 31.2876, 17.2559, 10.5976, -61.0053, -9.21194
0.828, -1, 0.577169, 31.226, 17.279, 10.7081, -60.8759, -9.29464
0.832, -1, 0.646413, 31.1645, 17.3021, 10.8183, -60.7468, -9.37716
0.836, -1, 0.71551, 31.1031, 17.3252, 10.9283, -60.618, -9.45951
0.84, -1, 0.78446, 31.0419, 17.3482, 11.0381, -60.4895, -9.54168
0.844, -1, 0.853266, 30.9808, 17.3712, 11.1476, -60.3612, -9.62368
0.848, -1, 0.921925, 30.9199, 17.3941, 11.2569, -60.2332, -9.7055
0.852, -1, 0.990441, 30.859, 17.417, 11.366, -60.1055, -9.78716
0.856, -1, 1.05881, 30.7983, 17.4398, 11.4749, -59.9781, -9.86864
0.86, -1, 1.12704, 30.7378, 17.4626, 11.5835, -59.8509, -9.94995
0.864, -1, 1.19512, 30.6773, 17.4854, 11.6919, -59.7239, -10.0311
0.868, -1, 1.26307, 30.617, 17.508, 11.8001, -59.5973, -10.1121
0.872, -1, 1.33087, 30.5568, 17.5307, 11.908, -59.4709, -10.1929
0.876, -1, 1.39853, 30.4967, 17.5533, 12.0157, -59.3448, -10.2735
0.88, -1, 1.46604, 30.4368, 17.5758, 12.1232, -59.2189, -10.354
0.884, -1, 1.53342, 30.377, 17.5983, 12.2305, -59.0933, -10.4343
0.888, -1, 1.60066, 30.3173, 17.6208, 12.3375, -58.9679, -10.5144
0.892, -1, 1.66775, 30.2577, 17.6432, 12.4444, -58.8429, -10.5943
0.896, -1, 1.73471, 30.1982, 17.6655, 12.551, -58.718, -10.6741
0.9, -1, 1.80153, 30.1389, 17.6878, 12.6574, -58.5935, -10.7538
0.904, -1, 1.86821, 30.0797, 17.7101, 12.7635, -58.4692, -10.8332
0.908, -1, 1.93476, 30.0206, 17.7323, 12.8695, -58.3451, -10.9125
0.912, -1, 2.00117, 29.9617, 17.7545, 12.9752, -58.2213, -10.9917
0.916, -1, 2.06744, 29.9028, 17.7766, 13.0807, -58.0978, -11.0707
0.92, -1, 2.13357, 29.8441, 17.7987, 13.186, -57.9745, -11.1495
0.924, -1, 2.19957, 29.7855, 17.8207, 13.2911, -57.8514, -11.2281
0.928, -1, 2.26543, 29.727, 17.8427, 13.3959, -57.7287, -11.3066
0.932, -1, 2.33116, 29.6687, 17.8647, 13.5006, -57.6061, -11.385
0.936, -1, 2.39676, 29.6104, 17.8866, 13.605, -57.4838, -11.4631
0.94, -1, 2.46222, 29.5523, 17.9084, 13.7092, -57.3618, -11.5412
0.944, -1, 2.52755, 29.4943, 17.9303, 13.8133, -57.24, -11.619
0.948, -1, 2.59275, 29.4364, 17.952, 13.9171, -57.1185, -11.6967
0.952, -1, 2.65781, 29.3787, 17.9738, 14.0206, -56.9972, -11.7743
0.956, -1, 2.72274, 29.321, 17.9954, 14.124, -56.8761, -11.8516
0.96, -1, 2.78755, 29.2635, 18.0171, 14.2272, -56.7553, -11.9289
0.964, -1, 2.85222, 29.2061, 18.0387, 14.3302, -56.6348, -12.0059
0.968, -1, 2.91676, 29.1488, 18.0602, 14.4329, -56.5144, -12.0829
0.972, -1, 2.98117, 29.0916, 18.0817, 14.5355, -56.3944, -12.1596
0.976, -1, 3.04545, 29.0345, 18.1032, 14.6378, -56.2745, -12.2362
0.98, -1, 3.10961, 28.9775, 18.1246, 14.7399, -56.1549, -12.3127
0.984, -1, 3.17363, 28.9207, 18.146, 14.8419, -56.0356, -12.389
0.988, -1, 3.23753, 28.864, 18.1673, 14.9436, -55.9165, -12.4651
0.992, -1, 3.3013, 28.8074, 18.1886, 15.0451, -55.7976, -12.5411
0.996, -1, 3.36494, 28.7508, 18.2099, 15.1465, -55.6789, -12.617
1, -1, 3.42846, 28.6945, 18.2311, 15.2476, -55.5605, -12.6927
1.004, -1, 3.49185, 28.6382, 18.2523, 15.3485, -55.4423, -12.7682
1.008, -1, 3.55512, 28.582, 18.2734, 15.4492, -55.3244, -12.8436
1.012, -1, 3.61826, 28.5259, 18.2945, 15.5498, -55.2067, -12.9189
1.016, -1, 3.68127, 28.47, 18.3155, 15.6501, -55.0892, -12.994
1.02, -1, 3.74416, 28.4142, 18.3365, 15.7502, -54.972, -13.0689
1.024, -1, 3.80693, 28.3584, 18.3575, 15.8502, -54.855, -13.1437
1.027, -1, 3.86958, 28.3028, 18.3784, 15.9499, -54.7382, -13.2184
1.032, -1, 3.9321, 28.2473, 18.3993, 16.0494, -54.6216, -13.2929
1.036, -1, 3.9945, 28.1919, 18.4201, 16.1488, -54.5053, -13.3673
1.04, -1, 4.05678, 28.1366, 18.4409, 16.2479, -54.3892, -13.4415
1.044, -1, 4.11893, 28.0814, 18.4616, 16.3469, -54.2733, -13.5156
1.048, -1, 4.18097, 28.0263, 18.4824, 16.4457, -54.1577, -13.5895
1.052, -1, 4.24289, 27.9714, 18.503, 16.5442, -54.0422, -13.6633
1.055, -1, 4.30468, 27.9165, 18.5237, 16.6426, -53.927, -13.7369
1.06, -1, 4.36636, 27.8617, 18.5443, 16.7408, -53.8121, -13.8104
1.064, -1, 4.42792, 27.8071, 18.5648, 16.8388, -53.6973, -13.8838
1.068, -1, 4.48936, 27.7525, 18.5853, 16.9366, -53.5828, -13.957
1.072, -1, 4.55068, 27.6981, 18.6058, 17.0343, -53.4685, -14.0301
1.076, -1, 4.61188, 27.6438, 18.6262, 17.1317, -53.3544, -14.103
1.08, -1, 4.67297, 27.5895, 18.6466, 17.229, -53.2405, -14.1758
1.084, -1, 4.73394, 27.5354, 18.667, 17.326, -53.1268, -14.2485
1.088, -1, 4.7948, 27.4814, 18.6873, 17.4229, -53.0134, -14.321
1.091, -1, 4.85554, 27.4274, 18.7076, 17.5196, -52.9002, -14.3934
1.096, -1, 4.91617, 27.3736, 18.7278, 17.6161, -52.7871, -14.4656
1.1, -1, 4.97668, 27.3199, 18.7481, 17.7125, -52.6743, -14.5378
1.104, -1, 5.03708, 27.2663, 18.7682, 17.8086, -52.5618, -14.6097
1.108, -1, 5.09737, 27.2127, 18.7883, 17.9046, -52.4494, -14.6816
1.112, -1, 5.15754, 27.1593, 18.8084, 18.0004, -52.3372, -14.7533
1.116, -1, 5.2176, 27.106, 18.8285, 18.096, -52.2253, -14.8249
1.119, -1, 5.27755, 27.0528, 18.8485, 18.1915, -52.1135, -14.8963
1.124, -1, 5.33739, 26.9996, 18.8685, 18.2867, -52.0019, -14.9676
1.128, -1, 5.39712, 26.9466, 18.8884, 18.3818, -51.8906, -15.0388
1.132, -1, 5.45673, 26.8937, 18.9083, 18.4767, -51.7795, -15.1098
1.136, -1, 5.51624, 26.8408, 18.9282, 18.5715, -51.6685, -15.1807
1.14, -1, 5.57564, 26.7881, 18.948, 18.666, -51.5578, -15.2515
1.144, -1, 5.63493, 26.7355, 18.9678, 18.7604, -51.4473, -15.3222
1.147, -1, 5.69412, 26.6829, 18.9876, 18.8547, -51.337, -15.3927
1.152, -1, 5.75319, 26.6305, 19.0073, 18.9487, -51.2268, -15.4631
1.156, -1, 5.81216, 26.5781, 19.027, 19.0426, -51.1169, -15.5334
1.16, -1, 5.87103, 26.5259, 19.0467, 19.1363, -51.0072, -15.6035
1.164, -1, 5.92979, 26.4737, 19.0663, 19.2298, -50.8976, -15.6736
1.168, -1, 5.98844, 26.4216, 19.0859, 19.3232, -50.7883, -15.7435
1.172, -1, 6.04699, 26.3696, 19.1054, 19.4164, -50.6792, -15.8132
1.175, -1, 6.10543, 26.3177, 19.1249, 19.5095, -50.5702, -15.8829
1.18, -1, 6.16377, 26.266, 19.1444, 19.6024, -50.4614, -15.9524
1.184, -1, 6.22201, 26.2142, 19.1639, 19.6951, -50.3529, -16.0218
1.188, -1, 6.28015, 26.1626, 19.1833, 19.7876, -50.2445, -16.0911
1.192, -1, 6.33818, 26.1111, 19.2027, 19.88, -50.1363, -16.1603
1.196, -1, 6.39611, 26.0597, 19.222, 19.9723, -50.0283, -16.2293
1.2, -1, 6.45394, 26.0083, 19.2413, 20.0643, -49.9205, -16.2982
1.204, -1, 6.51167, 25.9571, 19.2606, 20.1562, -49.8129, -16.367
1.208, -1, 6.5693, 25.9059, 19.2798, 20.248, -49.7055, -16.4357
1.212, -1, 6.62683, 25.8548, 19.299, 20.3396, -49.5982, -16.5042
1.216, -1, 6.68426, 25.8038, 19.3182, 20.431, -49.4912, -16.5727
1.22, -1, 6.74159, 25.7529, 19.3374, 20.5223, -49.3843, -16.641
1.224, -1, 6.79882, 25.7021, 19.3565, 20.6134, -49.2776, -16.7092
1.228, -1, 6.85596, 25.6514, 19.3756, 20.7044, -49.1711, -16.7773
1.232, -1, 6.91299, 25.6008, 19.3946, 20.7952, -49.0648, -16.8453
1.236, -1, 6.96993, 25.5502, 19.4136, 20.8858, -48.9586, -16.9131
1.24, -1, 7.02678, 25.4997, 19.4326, 20.9763, -48.8526, -16.9809
1.244, -1, 7.08352, 25.4494, 19.4515, 21.0667, -48.7469, -17.0485
1.248, -1, 7.14018, 25.3991, 19.4705, 21.1569, -48.6413, -17.116
1.252, -1, 7.19673, 25.3488, 19.4893, 21.2469, -48.5358, -17.1834
1.256, -1, 7.25319, 25.2987, 19.5082, 21.3368, -48.4306, -17.2507
1.26, -1, 7.30956, 25.2487, 19.527, 21.4266, -48.3255, -17.3179
1.264, -1, 7.36583, 25.1987, 19.5458, 21.5161, -48.2206, -17.385
1.267, -1, 7.42201, 25.1488, 19.5646, 21.6056, -48.1158, -17.4519
1.272, -1, 7.4781, 25.099, 19.5833, 21.6949, -48.0113, -17.5188
1.276, -1, 7.53409, 25.0493, 19.602, 21.784, -47.9069, -17.5855
1.28, -1, 7.58999, 24.9997, 19.6207, 21.873, -47.8027, -17.6521
1.284, -1, 7.6458, 24.9501, 19.6393, 21.9619, -47.6986, -17.7186
1.288, -1, 7.70152, 24.9007, 19.6579, 22.0506, -47.5948, -17.785
1.292, -1, 7.75715, 24.8513, 19.6765, 22.1392, -47.4911, -17.8513
1.295, -1, 7.81268, 24.802, 19.695, 22.2276, -47.3875, -17.9175
1.3, -1, 7.86813, 24.7528, 19.7135, 22.3159, -47.2842, -17.9836
1.304, -1, 7.92348, 24.7036, 19.732, 22.404, -47.181, -18.0496
1.308, -1, 7.97875, 24.6545, 19.7505, 22.492, -47.0779, -18.1154
1.312, -1, 8.03393, 24.6055, 19.7689, 22.5798, -46.9751, -18.1812
1.316, -1, 8.08901, 24.5566, 19.7873, 22.6675, -46.8724, -18.2468
1.32, -1, 8.14401, 24.5078, 19.8057, 22.7551, -46.7699, -18.3124
1.324, -1, 8.19893, 24.4591, 19.824, 22.8425, -46.6675, -18.3778
1.328, -1, 8.25375, 24.4104, 19.8423, 22.9298, -46.5653, -18.4432
1.332, -1, 8.30849, 24.3618, 19.8606, 23.017, -46.4632, -18.5084
1.336, -1, 8.36314, 24.3133, 19.8788, 23.104, -46.3614, -18.5735
1.34, -1, 8.4177, 24.2648, 19.8971, 23.1909, -46.2596, -18.6386
1.344, -1, 8.47218, 24.2165, 19.9153, 23.2776, -46.1581, -18.7035
1.348, -1, 8.52657, 24.1682, 19.9334, 23.3642, -46.0567, -18.7683
1.352, -1, 8.58088, 24.1199, 19.9515, 23.4507, -45.9554, -18.833
1.356, -1, 8.6351, 24.0718, 19.9697, 23.537, -45.8543, -18.8976
1.36, -1, 8.68923, 24.0237, 19.9877, 23.6232, -45.7534, -18.9622
1.364, -1, 8.74328, 23.9757, 20.0058, 23.7092, -45.6526, -19.0266
1.368, -1, 8.79725, 23.9278, 20.0238, 23.7952, -45.552, -19.0909
1.372, -1, 8.85114, 23.88, 20.0418, 23.881, -45.4516, -19.1551
1.376, -1, 8.90494, 23.8322, 20.0598, 23.9666, -45.3513, -19.2192
1.38, -1, 8.95866, 23.7845, 20.0777, 24.0521, -45.2511, -19.2833
1.384, -1, 9.01229, 23.7369, 20.0956, 24.1375, -45.1511, -19.3472
1.388, -1, 9.06584, 23.6894, 20.1135, 24.2228, -45.0513, -19.411
1.392, -1, 9.11932, 23.6419, 20.1314, 24.3079, -44.9516, -19.4747
1.396, -1, 9.1727, 23.5945, 20.1492, 24.393, -44.8521, -19.5384
1.4, -1, 9.22601, 23.5472, 20.167, 24.4778, -44.7527, -19.6019
1.404, -1, 9.27924, 23.4999, 20.1848, 24.5626, -44.6535, -19.6653
1.408, -1, 9.33239, 23.4527, 20.2025, 24.6472, -44.5544, -19.7287
1.412, -1, 9.38546, 23.4056, 20.2202, 24.7317, -44.4554, -19.7919
1.416, -1, 9.43844, 23.3585, 20.2379, 24.8161, -44.3567, -19.8551
1.42, -1, 9.49135, 23.3116, 20.2556, 24.9003, -44.258, -19.9181
1.424, -1, 9.54418, 23.2647, 20.2732, 24.9844, -44.1595, -19.9811
1.428, -1, 9.59693, 23.2178, 20.2908, 25.0684, -44.0612, -20.044
1.432, -1, 9.6496, 23.1711, 20.3084, 25.1523, -43.963, -20.1067
1.436, -1, 9.7022, 23.1244, 20.326, 25.236, -43.865, -20.1694
1.44, -1, 9.75472, 23.0777, 20.3435, 25.3196, -43.767, -20.232
1.444, -1, 9.80716, 23.0312, 20.361, 25.4031, -43.6693, -20.2945
1.448, -1, 9.85952, 22.9847, 20.3785, 25.4865, -43.5717, -20.3569
1.452, -1, 9.91181, 22.9383, 20.396, 25.5697, -43.4742, -20.4192
1.456, -1, 9.96403, 22.8919, 20.4134, 25.6528, -43.3769, -20.4814
1.46, -1, 10.0162, 22.8456, 20.4308, 25.7358, -43.2797, -20.5436
1.464, -1, 10.0682, 22.7994, 20.4482, 25.8187, -43.1826, -20.6056
1.468, -1, 10.1202, 22.7533, 20.4656, 25.9015, -43.0857, -20.6676
1.472, -1, 10.1721, 22.7072, 20.4829, 25.9841, -42.989, -20.7294
1.476, -1, 10.224, 22.6612, 20.5002, 26.0666, -42.8923, -20.7912
1.48, -1, 10.2757, 22.6152, 20.5175, 26.149, -42.7958, -20.8529
1.484, -1, 10.3274, 22.5693, 20.5348, 26.2313, -42.6995, -20.9145
1.488, -1, 10.379, 22.5235, 20.552, 26.3135, -42.6033, -20.976
1.492, -1, 10.4306, 22.4777, 20.5692, 26.3956, -42.5072, -21.0374
1.496, -1, 10.482, 22.432, 20.5864, 26.4775, -42.4113, -21.0987
1.5, -1, 10.5334, 22.3864, 20.6035, 26.5593, -42.3154, -21.16
1.504, -1, 10.5848, 22.3408, 20.6207, 26.641, -42.2198, -21.2212
1.508, -1, 10.636, 22.2953, 20.6378, 26.7226, -42.1242, -21.2822
1.512, -1, 10.6872, 22.2499, 20.6549, 26.8041, -42.0288, -21.3432
1.516, -1, 10.7383, 22.2045, 20.6719, 26.8855, -41.9336, -21.4041
1.52, -1, 10.7893, 22.1592, 20.689, 26.9667, -41.8384, -21.4649
1.524, -1, 10.8403, 22.114, 20.706, 27.0479, -41.7434, -21.5257
1.528, -1, 10.8912, 22.0688, 20.723, 27.1289, -41.6485, -21.5863
1.532, -1, 10.942, 22.0237, 20.74, 27.2098, -41.5538, -21.6469
1.536, -1, 10.9928, 21.9786, 20.7569, 27.2906, -41.4592, -21.7074
1.54, -1, 11.0435, 21.9336, 20.7738, 27.3713, -41.3647, -21.7678
1.544, -1, 11.0941, 21.8887, 20.7908, 27.4519, -41.2703, -21.8281
1.548, -1, 11.1446, 21.8438, 20.8076, 27.5324, -41.1761, -21.8884
1.552, -1, 11.1951, 21.799, 20.8245, 27.6127, -41.082, -21.9485
1.556, -1, 11.2455, 21.7542, 20.8413, 27.693, -40.988, -22.0086
1.56, -1, 11.2959, 21.7095, 20.8581, 27.7732, -40.8941, -22.0686
1.564, -1, 11.3462, 21.6649, 20.8749, 27.8532, -40.8004, -22.1285
1.568, -1, 11.3964, 21.6203, 20.8917, 27.9331, -40.7068, -22.1884
1.572, -1, 11.4465, 21.5758, 20.9084, 28.013, -40.6133, -22.2481
1.576, -1, 11.4966, 21.5313, 20.9251, 28.0927, -40.52, -22.3078
1.58, -1, 11.5466, 21.4869, 20.9418, 28.1723, -40.4268, -22.3674
1.584, -1, 11.5965, 21.4426, 20.9585, 28.2518, -40.3336, -22.4269
1.588, -1, 11.6464, 21.3983, 20.9752, 28.3313, -40.2407, -22.4864
1.592, -1, 11.6962, 21.3541, 20.9918, 28.4106, -40.1478, -22.5457
1.596, -1, 11.746, 21.3099, 21.0084, 28.4898, -40.0551, -22.605
1.6, -1, 11.7957, 21.2658, 21.025, 28.5689, -39.9624, -22.6642
1.604, -1, 11.8453, 21.2217, 21.0416, 28.6479, -39.8699, -22.7234
1.608, -1, 11.8948, 21.1778, 21.0581, 28.7268, -39.7776, -22.7824
1.612, -1, 11.9443, 21.1338, 21.0747, 28.8055, -39.6853, -22.8414
1.616, -1, 11.9938, 21.0899, 21.0912, 28.8842, -39.5932, -22.9003
1.62, -1, 12.0431, 21.0461, 21.1076, 28.9628, -39.5011, -22.9591
1.624, -1, 12.0924, 21.0023, 21.1241, 29.0413, -39.4092, -23.0179
1.628, -1, 12.1417, 20.9586, 21.1405, 29.1197, -39.3174, -23.0765
1.632, -1, 12.1908, 20.915, 21.157, 29.198, -39.2258, -23.1352
1.636, -1, 12.2399, 20.8714, 21.1734, 29.2762, -39.1342, -23.1937
1.64, -1, 12.289, 20.8278, 21.1897, 29.3543, -39.0428, -23.2521
1.644, -1, 12.338, 20.7843, 21.2061, 29.4323, -38.9515, -23.3105
1.648, -1, 12.3869, 20.7409, 21.2224, 29.5102, -38.8603, -23.3688
1.652, -1, 12.4358, 20.6975, 21.2388, 29.588, -38.7692, -23.4271
1.656, -1, 12.4846, 20.6542, 21.2551, 29.6657, -38.6782, -23.4852
1.66, -1, 12.5333, 20.6109, 21.2713, 29.7433, -38.5873, -23.5433
1.664, -1, 12.582, 20.5677, 21.2876, 29.8208, -38.4966, -23.6013
1.668, -1, 12.6306, 20.5245, 21.3038, 29.8982, -38.4059, -23.6593
1.672, -1, 12.6792, 20.4814, 21.32, 29.9755, -38.3154, -23.7171
1.676, -1, 12.7277, 20.4384, 21.3362, 30.0527, -38.225, -23.7749
1.68, -1, 12.7761, 20.3953, 21.3524, 30.1298, -38.1347, -23.8327
1.684, -1, 12.8245, 20.3524, 21.3686, 30.2069, -38.0445, -23.8903
1.688, -1, 12.8728, 20.3095, 21.3847, 30.2838, -37.9544, -23.9479
1.692, -1, 12.9211, 20.2666, 21.4008, 30.3606, -37.8644, -24.0054
1.696, -1, 12.9693, 20.2238, 21.4169, 30.4374, -37.7746, -24.0629
1.7, -1, 13.0174, 20.1811, 21.433, 30.514, -37.6848, -24.1203
1.704, -1, 13.0655, 20.1384, 21.449, 30.5906, -37.5951, -24.1776
1.708, -1, 13.1136, 20.0958, 21.4651, 30.6671, -37.5056, -24.2348
1.712, -1, 13.1615, 20.0532, 21.4811, 30.7435, -37.4162, -24.292
1.716, -1, 13.2094, 20.0106, 21.4971, 30.8197, -37.3269, -24.3491
1.72, -1, 13.2573, 19.9681, 21.5131, 30.8959, -37.2376, -24.4061
1.724, -1, 13.3051, 19.9257, 21.529, 30.972, -37.1485, -24.4631
1.728, -1, 13.3528, 19.8833, 21.545, 31.0481, -37.0595, -24.52
1.732, -1, 13.4005, 19.841, 21.5609, 31.124, -36.9706, -24.5768
1.736, -1, 13.4482, 19.7987, 21.5768, 31.1998, -36.8818, -24.6336
1.74, -1, 13.4957, 19.7565, 21.5927, 31.2756, -36.7931, -24.6903
1.744, -1, 13.5433, 19.7143, 21.6086, 31.3512, -36.7045, -24.7469
1.748, -1, 13.5907, 19.6721, 21.6244, 31.4268, -36.6161, -24.8035
1.752, -1, 13.6381, 19.63, 21.6402, 31.5023, -36.5277, -24.86
1.756, -1, 13.6855, 19.588, 21.6561, 31.5776, -36.4394, -24.9164
1.76, -1, 13.7328, 19.546, 21.6719, 31.6529, -36.3512, -24.9728
1.764, -1, 13.78, 19.5041, 21.6876, 31.7282, -36.2632, -25.0291
1.768, -1, 13.8272, 19.4622, 21.7034, 31.8033, -36.1752, -25.0853
1.772, -1, 13.8743, 19.4203, 21.7191, 31.8783, -36.0873, -25.1415
1.776, -1, 13.9214, 19.3785, 21.7348, 31.9533, -35.9996, -25.1976
1.78, -1, 13.9684, 19.3368, 21.7505, 32.0281, -35.9119, -25.2536
1.784, -1, 14.0154, 19.2951, 21.7662, 32.1029, -35.8243, -25.3096
1.788, -1, 14.0623, 19.2534, 21.7819, 32.1776, -35.7369, -25.3655
1.792, -1, 14.1092, 19.2118, 21.7975, 32.2522, -35.6495, -25.4214
1.796, -1, 14.156, 19.1703, 21.8132, 32.3268, -35.5622, -25.4772
1.8, -1, 14.2027, 19.1288, 21.8288, 32.4012, -35.4751, -25.5329
1.804, -1, 14.2494, 19.0873, 21.8444, 32.4756, -35.388, -25.5886
1.808, -1, 14.2961, 19.0459, 21.86, 32.5498, -35.301, -25.6442
1.812, -1, 14.3427, 19.0045, 21.8755, 32.624, -35.2142, -25.6997
1.816, -1, 14.3892, 18.9632, 21.8911, 32.6981, -35.1274, -25.7552
1.82, -1, 14.4357, 18.9219, 21.9066, 32.7722, -35.0407, -25.8106
1.824, -1, 14.4822, 18.8807, 21.9221, 32.8461, -34.9541, -25.8659
1.828, -1, 14.5286, 18.8395, 21.9376, 32.92, -34.8676, -25.9212
1.832, -1, 14.5749, 18.7983, 21.9531, 32.9938, -34.7813, -25.9764
1.836, -1, 14.6212, 18.7572, 21.9685, 33.0675, -34.695, -26.0316
1.84, -1, 14.6674, 18.7162, 21.984, 33.1411, -34.6088, -26.0867
1.844, -1, 14.7136, 18.6752, 21.9994, 33.2146, -34.5227, -26.1418
1.848, -1, 14.7598, 18.6342, 22.0148, 33.2881, -34.4367, -26.1967
1.852, -1, 14.8058, 18.5933, 22.0302, 33.3614, -34.3507, -26.2517
1.856, -1, 14.8519, 18.5524, 22.0456, 33.4347, -34.2649, -26.3065
1.86, -1, 14.8979, 18.5116, 22.0609, 33.5079, -34.1792, -26.3613
1.864, -1, 14.9438, 18.4708, 22.0762, 33.5811, -34.0936, -26.4161
1.868, -1, 14.9897, 18.4301, 22.0916, 33.6541, -34.008, -26.4708
1.872, -1, 15.0355, 18.3894, 22.1069, 33.7271, -33.9226, -26.5254
1.876, -1, 15.0813, 18.3487, 22.1222, 33.8, -33.8372, -26.58
1.88, -1, 15.127, 18.3081, 22.1374, 33.8728, -33.7519, -26.6345
1.884, -1, 15.1727, 18.2676, 22.1527, 33.9456, -33.6668, -26.6889
1.888, -1, 15.2184, 18.227, 22.1679, 34.0182, -33.5817, -26.7433
1.892, -1, 15.264, 18.1866, 22.1832, 34.0908, -33.4967, -26.7976
1.896, -1, 15.3095, 18.1461, 22.1984, 34.1633, -33.4118, -26.8519
1.9, -1, 15.355, 18.1057, 22.2136, 34.2358, -33.3269, -26.9062
1.904, -1, 15.4004, 18.0654, 22.2287, 34.3081, -33.2422, -26.9603
1.908, -1, 15.4458, 18.0251, 22.2439, 34.3804, -33.1576, -27.0144
1.912, -1, 15.4912, 17.9848, 22.259, 34.4526, -33.073, -27.0685
1.916, -1, 15.5365, 17.9446, 22.2742, 34.5248, -32.9886, -27.1225
1.92, -1, 15.5818, 17.9044, 22.2893, 34.5968, -32.9042, -27.1764
1.924, -1, 15.627, 17.8643, 22.3044, 34.6688, -32.8199, -27.2303
1.928, -1, 15.6721, 17.8242, 22.3195, 34.7407, -32.7357, -27.2841
1.932, -1, 15.7173, 17.7841, 22.3345, 34.8126, -32.6516, -27.3379
1.936, -1, 15.7623, 17.7441, 22.3496, 34.8843, -32.5676, -27.3916
1.94, -1, 15.8073, 17.7041, 22.3646, 34.956, -32.4836, -27.4453
1.944, -1, 15.8523, 17.6642, 22.3796, 35.0276, -32.3997, -27.4989
1.948, -1, 15.8973, 17.6243, 22.3946, 35.0992, -32.316, -27.5524
1.952, -1, 15.9422, 17.5844, 22.4096, 35.1707, -32.2323, -27.6059
1.956, -1, 15.987, 17.5446, 22.4246, 35.2421, -32.1487, -27.6594
1.96, -1, 16.0318, 17.5048, 22.4396, 35.3134, -32.0652, -27.7128
1.964, -1, 16.0765, 17.4651, 22.4545, 35.3846, -31.9817, -27.7661
1.968, -1, 16.1212, 17.4254, 22.4694, 35.4558, -31.8984, -27.8194
1.972, -1, 16.1659, 17.3858, 22.4844, 35.5269, -31.8151, -27.8726
1.976, -1, 16.2105, 17.3461, 22.4993, 35.598, -31.7319, -27.9258
1.98, -1, 16.2551, 17.3066, 22.5141, 35.6689, -31.6488, -27.9789
1.984, -1, 16.2996, 17.267, 22.529, 35.7398, -31.5658, -28.032
1.988, -1, 16.3441, 17.2275, 22.5439, 35.8107, -31.4829, -28.085
1.992, -1, 16.3886, 17.1881, 22.5587, 35.8814, -31.4, -28.138
1.996, -1, 16.433, 17.1487, 22.5735, 35.9521, -31.3173, -28.1909
1.999, -1, 16.4773, 17.1093, 22.5883, 36.0228, -31.2346, -28.2438
2.004, -1, 16.5216, 17.0699, 22.6031, 36.0933, -31.1519, -28.2966
2.008, -1, 16.5659, 17.0306, 22.6179, 36.1638, -31.0694, -28.3493
2.012, -1, 16.6101, 16.9914, 22.6327, 36.2342, -30.987, -28.4021
2.015, -1, 16.6543, 16.9521, 22.6474, 36.3046, -30.9046, -28.4547
2.019, -1, 16.6984, 16.9129, 22.6622, 36.3748, -30.8223, -28.5073
2.024, -1, 16.7425, 16.8738, 22.6769, 36.445, -30.7401, -28.5599
2.028, -1, 16.7866, 16.8347, 22.6916, 36.5152, -30.658, -28.6124
2.031, -1, 16.8306, 16.7956, 22.7063, 36.5853, -30.5759, -28.6648
2.036, -1, 16.8746, 16.7566, 22.721, 36.6553, -30.4939, -28.7172
2.04, -1, 16.9185, 16.7176, 22.7357, 36.7252, -30.412, -28.7696
2.044, -1, 16.9624, 16.6786, 22.7503, 36.7951, -30.3302, -28.8219
2.048, -1, 17.0062, 16.6397, 22.765, 36.8649, -30.2485, -28.8742
2.051, -1, 17.05, 16.6008, 22.7796, 36.9346, -30.1668, -28.9264
2.055, -1, 17.0938, 16.5619, 22.7942, 37.0043, -30.0852, -28.9785
2.06, -1, 17.1375, 16.5231, 22.8088, 37.0739, -30.0037, -29.0306
2.064, -1, 17.1811, 16.4844, 22.8234, 37.1435, -29.9223, -29.0827
2.068, -1, 17.2244, 16.4458, 22.8379, 37.2129, -29.841, -29.1347
2.071, -1, 17.2671, 16.4077, 22.8523, 37.2823, -29.7597, -29.1866
2.076, -1, 17.3088, 16.3701, 22.8666, 37.3515, -29.6787, -29.2384
2.08, -1, 17.3495, 16.3335, 22.8807, 37.4204, -29.5981, -29.29
2.084, -1, 17.3888, 16.2979, 22.8945, 37.4888, -29.518, -29.3412
2.087, -1, 17.4267, 16.2635, 22.9079, 37.5564, -29.4389, -29.3918
2.092, -1, 17.4632, 16.2306, 22.921, 37.6229, -29.3611, -29.4417
2.096, -1, 17.4983, 16.1992, 22.9337, 37.6879, -29.2851, -29.4903
2.1, -1, 17.5321, 16.1694, 22.9459, 37.7508, -29.2115, -29.5374
2.104, -1, 17.5644, 16.1411, 22.9576, 37.8112, -29.1408, -29.5827
2.107, -1, 17.5951, 16.1145, 22.9686, 37.8686, -29.0737, -29.6257
2.111, -1, 17.624, 16.0896, 22.9791, 37.9226, -29.0106, -29.6661
2.116, -1, 17.6513, 16.0662, 22.9888, 37.9726, -28.9521, -29.7035
2.12, -1, 17.6768, 16.044, 22.9978, 38.0183, -28.8986, -29.7378
2.124, -1, 17.7009, 16.023, 23.0061, 38.0595, -28.8504, -29.7686
2.127, -1, 17.7234, 16.0029, 23.0136, 38.0959, -28.8078, -29.7958
2.132, -1, 17.7446, 15.9838, 23.0205, 38.1275, -28.7707, -29.8195
2.136, -1, 17.7642, 15.9657, 23.0267, 38.1546, -28.739, -29.8397
2.14, -1, 17.7823, 15.9489, 23.0321, 38.1772, -28.7125, -29.8566
2.143, -1, 17.7986, 15.9337, 23.0368, 38.1957, -28.6907, -29.8705
2.148, -1, 17.8131, 15.9202, 23.0409, 38.2106, -28.6732, -29.8816
2.152, -1, 17.8259, 15.9085, 23.0443, 38.2223, -28.6594, -29.8904
2.156, -1, 17.8371, 15.8987, 23.0471, 38.2313, -28.6488, -29.8971
2.16, -1, 17.8467, 15.8905, 23.0494, 38.2381, -28.6409, -29.9021
2.163, -1, 17.855, 15.8838, 23.0513, 38.243, -28.635, -29.9058
2.168, -1, 17.8619, 15.8785, 23.0527, 38.2465, -28.6308, -29.9084
2.172, -1, 17.8674, 15.8744, 23.0538, 38.249, -28.6279, -29.9103
2.176, 2, 17.8716, 15.8714, 23.0546, 38.2507, -28.6258, -29.9115
2.179, 2, 17.8747, 15.8692, 23.0552, 38.2519, -28.6245, -29.9124
2.184, 2, 17.8769, 15.8677, 23.0556, 38.2527, -28.6235, -29.913
2.188, 2, 17.8784, 15.8667, 23.0558, 38.2532, -28.6229, -29.9134
2.192, 2, 17.8794, 15.866, 23.056, 38.2536, -28.6224, -29.9137
2.196, 2, 17.8801, 15.8655, 23.0561, 38.2538, -28.6221, -29.9138
2.199, 2, 17.8806, 15.8652, 23.0562, 38.254, -28.6219, -29.914
2.204, 2, 17.8809, 15.865, 23.0563, 38.2541, -28.6218, -29.9141
2.208, 2, 17.8811, 15.8649, 23.0563, 38.2542, -28.6217, -29.9141
2.212, 2, 17.8813, 15.8648, 23.0563, 38.2543, -28.6217, -29.9141
2.216, 2, 17.8814, 15.8647, 23.0564, 38.2543, -28.6216, -29.9142
2.219, 2, 17.8814, 15.8646, 23.0564, 38.2543, -28.6216, -29.9142
2.224, 2, 17.8815, 15.8646, 23.0564, 38.2543, -28.6216, -29.9142
2.228, 2, 17.8815, 15.8646, 23.0564, 38.2543, -28.6215, -29.9142
2.232, 2, 17.8815, 15.8646, 23.0564, 38.2543, -28.6215, -29.9142
2.235, 2, 17.8815, 15.8646, 23.0564, 38.2544, -28.6215, -29.9142
2.24, 2, 17.8815, 15.8646, 23.0564, 38.2544, -28.6215, -29.9142
2.244, 2, 17.8816, 15.8646, 23.0564, 38.2544, -28.6215, -29.9142
2.248, 2, 17.8816, 15.8646, 23.0564, 38.2544, -28.6215, -29.9142
2.252, 2, 17.8816, 15.8646, 23.0564, 38.2544, -28.6215, -29.9142
2.255, 2, 17.8816, 15.8646, 23.0564, 38.2544, -28.6215, -29.9142
2.259, 2, 17.8816, 15.8646, 23.0564, 38.2544, -28.6215, -29.9142
2.264, 2, 17.8816, 15.8645, 23.0564, 38.2544, -28.6215, -29.9142
2.268, 2, 17.8816, 15.8645, 23.0564, 38.2544, -28.6215, -29.9142
2.272, 2, 17.8816, 15.8645, 23.0564, 38.2544, -28.6215, -29.9142
2.275, 2, 17.8816, 15.8645, 23.0564, 38.2544, -28.6215, -29.9142
2.28, 2, 17.8816, 15.8645, 23.0564, 38.2544, -28.6215, -29.9142
2.284, 2, 17.8816, 15.8645, 23.0564, 38.2544, -28.6215, -29.9142
2.288, 2, 17.8816, 15.8645, 23.0564, 38.2544, -28.6215, -29.9142
2.291, 2, 17.8816, 15.8645, 23.0564, 38.2544, -28.6215, -29.9142
2.296, 2, 17.8816, 15.8645, 23.0564, 38.2544, -28.6215, -29.9142
2.3, 2, 17.8816, 15.8645, 23.0564, 38.2544, -28.6215, -29.9142
2.304, 2, 17.8816, 15.8645, 23.0564, 38.2544, -28.6215, -29.9142
2.308, 2, 17.8816, 15.8645, 23.0564, 38.2544, -28.6215, -29.9142
2.311, 2, 17.8816, 15.8645, 23.0564, 38.2544, -28.6215, -29.9142
2.316, 2, 17.8816, 15.8645, 23.0564, 38.2544, -28.6215, -29.9142
2.32, 2, 17.8816, 15.8645, 23.0564, 38.2544, -28.6215, -29.9142
2.324, 2, 17.8816, 15.8645, 23.0564, 38.2544, -28.6215, -29.9142
2.328, 2, 17.8816, 15.8645, 23.0564, 38.2544, -28.6215, -29.9142
2.331, 2, 17.8816, 15.8645, 23.0564, 38.2544, -28.6215, -29.9142
2.336, 2, 17.8816, 15.8645, 23.0564, 38.2544, -28.6215, -29.9142
2.34, 2, 17.8816, 15.8645, 23.0564, 38.2544, -28.6215, -29.9142
2.344, 2, 17.8816, 15.8645, 23.0564, 38.2544, -28.6215, -29.9142
2.347, 2, 17.8816, 15.8645, 23.0564, 38.2544, -28.6215, -29.9142
2.352, 2, 17.8816, 15.8645, 23.0564, 38.2544, -28.6215, -29.9142
2.356, 2, 17.8816, 15.8645, 23.0564, 38.2544, -28.6215, -29.9142
2.36, 2, 17.8816, 15.8645, 23.0564, 38.2544, -28.6215, -29.9142
2.364, 2, 17.8816, 15.8645, 23.0564, 38.2544, -28.6215, -29.9142
2.367, 2, 17.8816, 15.8645, 23.0564, 38.2544, -28.6215, -29.9142
2.372, 2, 17.8816, 15.8645, 23.0564, 38.2544, -28.6215, -29.9142
2.376, 2, 17.8816, 15.8645, 23.0564, 38.2544, -28.6215, -29.9142
2.38, 2, 17.8816, 15.8645, 23.0564, 38.2544, -28.6215, -29.9142
2.383, 2, 17.8816, 15.8645, 23.0564, 38.2544, -28.6215, -29.9142
2.388, 2, 17.8816, 15.8645, 23.0564, 38.2544, -28.6215, -29.9142
2.392, 2, 17.8816, 15.8645, 23.0564, 38.2544, -28.6215, -29.9142
2.396, 2, 17.8816, 15.8645, 23.0564, 38.2544, -28.6215, -29.9142
2.4, 2, 17.8816, 15.8645, 23.0564, 38.2544, -28.6215, -29.9142
2.403, 2, 17.8816, 15.8645, 23.0564, 38.2544, -28.6215, -29.9142
2.408, 2, 17.8816, 15.8645, 23.0564, 38.2544, -28.6215, -29.9142
2.412, 2, 17.8816, 15.8645, 23.0564, 38.2544, -28.6215, -29.9142
2.416, 2, 17.8816, 15.8645, 23.0564, 38.2544, -28.6215, -29.9142
2.42, 2, 17.8816, 15.8645, 23.0564, 38.2544, -28.6215, -29.9142
2.423, 2, 17.8816, 15.8645, 23.0564, 38.2544, -28.6215, -29.9142
2.428, 2, 17.8816, 15.8645, 23.0564, 38.2544, -28.6215, -29.9142
2.432, 2, 17.8816, 15.8645, 23.0564, 38.2544, -28.6215, -29.9142
2.436, 2, 17.8816, 15.8645, 23.0564, 38.2544, -28.6215, -29.9142
2.439, 2, 17.8816, 15.8645, 23.0564, 38.2544, -28.6215, -29.9142
2.444, 2, 17.8816, 15.8645, 23.0564, 38.2544, -28.6215, -29.9142
2.448, 2, 17.8816, 15.8645, 23.0564, 38.2544, -28.6215, -29.9142
2.452, 2, 17.8816, 15.8645, 23.0564, 38.2544, -28.6215, -29.9142
2.456, 2, 17.8816, 15.8645, 23.0564, 38.2544, -28.6215, -29.9142
2.459, 2, 17.8816, 15.8645, 23.0564, 38.2544, -28.6215, -29.9142
2.464, 2, 17.8816, 15.8645, 23.0564, 38.2544, -28.6215, -29.9142
2.468, 2, 17.8816, 15.8645, 23.0564, 38.2544, -28.6215, -29.9142
2.472, 2, 17.8816, 15.8645, 23.0564, 38.2544, -28.6215, -29.9142
2.476, 2, 17.8816, 15.8645, 23.0564, 38.2544, -28.6215, -29.9142
2.479, 2, 17.8816, 15.8645, 23.0564, 38.2544, -28.6215, -29.9142
2.484, 2, 17.8816, 15.8645, 23.0564, 38.2544, -28.6215, -29.9142
2.488, 2, 17.8816, 15.8645, 23.0564, 38.2544, -28.6215, -29.9142
2.492, 2, 17.8816, 15.8645, 23.0564, 38.2544, -28.6215, -29.9142
2.495, 2, 17.8816, 15.8645, 23.0564, 38.2544, -28.6215, -29.9142
2.5, 2, 17.8816, 15.8645, 23.0564, 38.2544, -28.6215, -29.9142
2.504, 2, 17.8816, 15.8645, 23.0564, 38.2544, -28.6215, -29.9142
2.508, 2, 17.8816, 15.8645, 23.0564, 38.2544, -28.6215, -29.9142
2.512, 2, 17.8816, 15.8645, 23.0564, 38.2544, -28.6215, -29.9142
2.515, 2, 17.8816, 15.8645, 23.0564, 38.2544, -28.6215, -29.9142
2.52, 2, 17.8816, 15.8645, 23.0564, 38.2544, -28.6215, -29.9142
2.524, 2, 17.8816, 15.8645, 23.0564, 38.2544, -28.6215, -29.9142
2.528, 2, 17.8816, 15.8645, 23.0564, 38.2544, -28.6215, -29.9142
2.531, 2, 17.8816, 15.8645, 23.0564, 38.2544, -28.6215, -29.9142
2.536, 2, 17.8816, 15.8645, 23.0564, 38.2544, -28.6215, -29.9142
2.54, 2, 17.8816, 15.8645, 23.0564, 38.2544, -28.6215, -29.9142
2.544, 2, 17.8816, 15.8645, 23.0564, 38.2544, -28.6215, -29.9142
2.548, 2, 17.8816, 15.8645, 23.0564, 38.2544, -28.6215, -29.9142
2.551, 2, 17.8816, 15.8645, 23.0564, 38.2544, -28.6215, -29.9142
2.556, 2, 17.8816, 15.8645, 23.0564, 38.2544, -28.6215, -29.9142
2.56, 2, 17.8816, 15.8645, 23.0564, 38.2544, -28.6215, -29.9142
2.564, 2, 17.8816, 15.8645, 23.0564, 38.2544, -28.6215, -29.9142
2.568, 2, 17.8816, 15.8645, 23.0564, 38.2544, -28.6215, -29.9142
2.571, 2, 17.8816, 15.8645, 23.0564, 38.2544, -28.6215, -29.9142
2.576, 2, 17.8816, 15.8645, 23.0564, 38.2544, -28.6215, -29.9142
2.58, 2, 17.8816, 15.8645, 23.0564, 38.2544, -28.6215, -29.9142
2.584, 2, 17.8816, 15.8645, 23.0564, 38.2544, -28.6215, -29.9142
2.587, 2, 17.8816, 15.8645, 23.0564, 38.2544, -28.6215, -29.9142
2.592, 2, 17.8816, 15.8645, 23.0564, 38.2544, -28.6215, -29.9142
2.596, 2, 17.8816, 15.8645, 23.0564, 38.2544, -28.6215, -29.9142
2.6, 2, 17.8816, 15.8645, 23.0564, 38.2544, -28.6215, -29.9142
2.604, 2, 17.8816, 15.8645, 23.0564, 38.2544, -28.6215, -29.9142
2.607, 2, 17.8816, 15.8645, 23.0564, 38.2544, -28.6215, -29.9142
2.612, 2, 17.8816, 15.8645, 23.0564, 38.2544, -28.6215, -29.9142
2.616, 2, 17.8816, 15.8645, 23.0564, 38.2544, -28.6215, -29.9142
2.62, 2, 17.8816, 15.8645, 23.0564, 38.2544, -28.6215, -29.9142
2.624, 2, 17.8816, 15.8645, 23.0564, 38.2544, -28.6215, -29.9142
2.627, 2, 17.8816, 15.8645, 23.0564, 38.2544, -28.6215, -29.9142
2.632, 2, 17.8816, 15.8645, 23.0564, 38.2544, -28.6215, -29.9142
2.636, 2, 17.8816, 15.8645, 23.0564, 38.2544, -28.6215, -29.9142
2.64, 2, 17.8816, 15.8645, 23.0564, 38.2544, -28.6215, -29.9142
2.643, 2, 17.8816, 15.8645, 23.0564, 38.2544, -28.6215, -29.9142
2.648, 2, 17.8816, 15.8645, 23.0564, 38.2544, -28.6215, -29.9142
2.652, 2, 17.8816, 15.8645, 23.0564, 38.2544, -28.6215, -29.9142
2.656, 2, 17.8816, 15.8645, 23.0564, 38.2544, -28.6215, -29.9142
2.66, 2, 17.8816, 15.8645, 23.0564, 38.2544, -28.6215, -29.9142
2.663, 2, 17.8816, 15.8645, 23.0564, 38.2544, -28.6215, -29.9142
2.668, 2, 17.8816, 15.8645, 23.0564, 38.2544, -28.6215, -29.9142
2.672, 2, 17.8816, 15.8645, 23.0564, 38.2544, -28.6215, -29.9142
2.676, 2, 17.8816, 15.8645, 23.0564, 38.2544, -28.6215, -29.9142
2.679, 2, 17.8816, 15.8645, 23.0564, 38.2544, -28.6215, -29.9142
2.684, 2, 17.8816, 15.8645, 23.0564, 38.2544, -28.6215, -29.9142
2.688, 2, 17.8816, 15.8645, 23.0564, 38.2544, -28.6215, -29.9142
2.692, 2, 17.8816, 15.8645, 23.0564, 38.2544, -28.6215, -29.9142
2.696, 2, 17.8816, 15.8645, 23.0564, 38.2544, -28.6215, -29.9142
2.699, 2, 17.8816, 15.8645, 23.0564, 38.2544, -28.6215, -29.9142
2.704, 2, 17.8816, 15.8645, 23.0564, 38.2544, -28.6215, -29.9142
2.708, 2, 17.8816, 15.8645, 23.0564, 38.2544, -28.6215, -29.9142
2.712, 2, 17.8816, 15.8645, 23.0564, 38.2544, -28.6215, -29.9142
2.716, 2, 17.8816, 15.8645, 23.0564, 38.2544, -28.6215, -29.9142
2.719, 2, 17.8816, 15.8645, 23.0564, 38.2544, -28.6215, -29.9142
2.724, 2, 17.8816, 15.8645, 23.0564, 38.2544, -28.6215, -29.9142
2.728, 2, 17.8816, 15.8645, 23.0564, 38.2544, -28.6215, -29.9142
2.732, 2, 17.8816, 15.8645, 23.0564, 38.2544, -28.6215, -29.9142
2.735, 2, 17.8816, 15.8645, 23.0564, 38.2544, -28.6215, -29.9142
2.74, 2, 17.8816, 15.8645, 23.0564, 38.2544, -28.6215, -29.9142
2.744, 2, 17.8816, 15.8645, 23.0564, 38.2544, -28.6215, -29.9142
2.748, 2, 17.8816, 15.8645, 23.0564, 38.2544, -28.6215, -29.9142
2.752, 2, 17.8816, 15.8645, 23.0564, 38.2544, -28.6215, -29.9142
2.755, 2, 17.8816, 15.8645, 23.0564, 38.2544, -28.6215, -29.9142
2.76, 2, 17.8816, 15.8645, 23.0564, 38.2544, -28.6215, -29.9142
2.764, 2, 17.8816, 15.8645, 23.0564, 38.2544, -28.6215, -29.9142
2.768, 2, 17.8816, 15.8645, 23.0564, 38.2544, -28.6215, -29.9142
2.772, 2, 17.8816, 15.8645, 23.0564, 38.2544, -28.6215, -29.9142
2.775, 2, 17.8816, 15.8645, 23.0564, 38.2544, -28.6215, -29.9142
2.78, 2, 17.8816, 15.8645, 23.0564, 38.2544, -28.6215, -29.9142
2.784, 2, 17.8816, 15.8645, 23.0564, 38.2544, -28.6215, -29.9142
2.788, 2, 17.8816, 15.8645, 23.0564, 38.2544, -28.6215, -29.9142
2.791, 2, 17.8816, 15.8645, 23.0564, 38.2544, -28.6215, -29.9142
2.796, 2, 17.8816, 15.8645, 23.0564, 38.2544, -28.6215, -29.9142
2.8, 2, 17.8816, 15.8645, 23.0564, 38.2544, -28.6215, -29.9142
2.804, 2, 17.8816, 15.8645, 23.0564, 38.2544, -28.6215, -29.9142
2.808, 2, 17.8816, 15.8645, 23.0564, 38.2544, -28.6215, -29.9142
2.811, 2, 17.8816, 15.8645, 23.0564, 38.2544, -28.6215, -29.9142
2.816, 2, 17.8816, 15.8645, 23.0564, 38.2544, -28.6215, -29.9142
2.82, 2, 17.8816, 15.8645, 23.0564, 38.2544, -28.6215, -29.9142
2.824, 2, 17.8816, 15.8645, 23.0564, 38.2544, -28.6215, -29.9142
2.828, 2, 17.8816, 15.8645, 23.0564, 38.2544, -28.6215, -29.9142
2.831, 2, 17.8816, 15.8645, 23.0564, 38.2544, -28.6215, -29.9142
2.836, 2, 17.8816, 15.8645, 23.0564, 38.2544, -28.6215, -29.9142
2.84, 2, 17.8816, 15.8645, 23.0564, 38.2544, -28.6215, -29.9142
2.844, 2, 17.8816, 15.8645, 23.0564, 38.2544, -28.6215, -29.9142
2.847, 2, 17.8816, 15.8645, 23.0564, 38.2544, -28.6215, -29.9142
2.852, 2, 17.8816, 15.8645, 23.0564, 38.2544, -28.6215, -29.9142
2.856, 2, 17.8816, 15.8645, 23.0564, 38.2544, -28.6215, -29.9142
2.86, 2, 17.8816, 15.8645, 23.0564, 38.2544, -28.6215, -29.9142
2.864, 2, 17.8816, 15.8645, 23.0564, 38.2544, -28.6215, -29.9142
2.867, 2, 17.8816, 15.8645, 23.0564, 38.2544, -28.6215, -29.9142
2.872, 2, 17.8816, 15.8645, 23.0564, 38.2544, -28.6215, -29.9142
2.876, 2, 17.8816, 15.8645, 23.0564, 38.2544, -28.6215, -29.9142
2.88, 2, 17.8816, 15.8645, 23.0564, 38.2544, -28.6215, -29.9142
2.883, 2, 17.8816, 15.8645, 23.0564, 38.2544, -28.6215, -29.9142
2.888, 2, 17.8816, 15.8645, 23.0564, 38.2544, -28.6215, -29.9142
2.892, 2, 17.8816, 15.8645, 23.0564, 38.2544, -28.6215, -29.9142
2.896, 2, 17.8816, 15.8645, 23.0564, 38.2544, -28.6215, -29.9142
2.9, 2, 17.8816, 15.8645, 23.0564, 38.2544, -28.6215, -29.9142
2.903, 2, 17.8816, 15.8645, 23.0564, 38.2544, -28.6215, -29.9142
2.908, 2, 17.8816, 15.8645, 23.0564, 38.2544, -28.6215, -29.9142
2.912, 2, 17.8816, 15.8645, 23.0564, 38.2544, -28.6215, -29.9142
2.916, 2, 17.8816, 15.8645, 23.0564, 38.2544, -28.6215, -29.9142
2.92, 2, 17.8816, 15.8645, 23.0564, 38.2544, -28.6215, -29.9142
2.923, 2, 17.8816, 15.8645, 23.0564, 38.2544, -28.6215, -29.9142
2.928, 2, 17.8816, 15.8645, 23.0564, 38.2544, -28.6215, -29.9142
2.932, 2, 17.8816, 15.8645, 23.0564, 38.2544, -28.6215, -29.9142
2.936, 2, 17.8816, 15.8645, 23.0564, 38.2544, -28.6215, -29.9142
2.939, 2, 17.8816, 15.8645, 23.0564, 38.2544, -28.6215, -29.9142
2.944, 2, 17.8816, 15.8645, 23.0564, 38.2544, -28.6215, -29.9142
2.948, 2, 17.8816, 15.8645, 23.0564, 38.2544, -28.6215, -29.9142
2.952, 2, 17.8816, 15.8645, 23.0564, 38.2544, -28.6215, -29.9142
2.956, 2, 17.8816, 15.8645, 23.0564, 38.2544, -28.6215, -29.9142
2.959, 2, 17.8816, 15.8645, 23.0564, 38.2544, -28.6215, -29.9142
2.964, 2, 17.8816, 15.8645, 23.0564, 38.2544, -28.6215, -29.9142
2.968, 2, 17.8816, 15.8645, 23.0564, 38.2544, -28.6215, -29.9142
2.972, 2, 17.8816, 15.8645, 23.0564, 38.2544, -28.6215, -29.9142
2.976, 2, 17.8816, 15.8645, 23.0564, 38.2544, -28.6215, -29.9142
2.98, 2, 17.8816, 15.8645, 23.0564, 38.2544, -28.6215, -29.9142
2.984, 2, 17.8816, 15.8645, 23.0564, 38.2544, -28.6215, -29.9142
2.988, 2, 17.8816, 15.8645, 23.0564, 38.2544, -28.6215, -29.9142
2.992, 2, 17.8816, 15.8645, 23.0564, 38.2544, -28.6215, -29.9142
2.995, 2, 17.8816, 15.8645, 23.0564, 38.2544, -28.6215, -29.9142
3, 2, 17.8816, 15.8645, 23.0564, 38.2544, -28.6215, -29.9142
3.004, 2, 17.8816, 15.8645, 23.0564, 38.2544, -28.6215, -29.9142
3.008, 2, 17.8816, 15.8645, 23.0564, 38.2544, -28.6215, -29.9142
3.012, 2, 17.8816, 15.8645, 23.0564, 38.2544, -28.6215, -29.9142
3.015, 2, 17.8816, 15.8645, 23.0564, 38.2544, -28.6215, -29.9142
3.02, 2, 17.8816, 15.8645, 23.0564, 38.2544, -28.6215, -29.9142
3.024, 2, 17.8816, 15.8645, 23.0564, 38.2544, -28.6215, -29.9142
3.028, 2, 17.8816, 15.8645, 23.0564, 38.2544, -28.6215, -29.9142
3.031, 2, 17.8816, 15.8645, 23.0564, 38.2544, -28.6215, -29.9142
3.036, 2, 17.8816, 15.8645, 23.0564, 38.2544, -28.6215, -29.9142
3.04, 2, 17.8816, 15.8645, 23.0564, 38.2544, -28.6215, -29.9142
3.044, 2, 17.8816, 15.8645, 23.0564, 38.2544, -28.6215, -29.9142
3.048, 2, 17.8816, 15.8645, 23.0564, 38.2544, -28.6215, -29.9142
3.051, 2, 17.8816, 15.8645, 23.0564, 38.2544, -28.6215, -29.9142
3.056, 2, 17.8816, 15.8645, 23.0564, 38.2544, -28.6215, -29.9142
3.06, 2, 17.8816, 15.8645, 23.0564, 38.2544, -28.6215, -29.9142
3.064, 2, 17.8816, 15.8645, 23.0564, 38.2544, -28.6215, -29.9142
3.068, 2, 17.8816, 15.8645, 23.0564, 38.2544, -28.6215, -29.9142
3.071, 2, 17.8816, 15.8645, 23.0564, 38.2544, -28.6215, -29.9142
3.076, 2, 17.8816, 15.8645, 23.0564, 38.2544, -28.6215, -29.9142
3.08, 2, 17.8816, 15.8645, 23.0564, 38.2544, -28.6215, -29.9142
3.084, 2, 17.8816, 15.8645, 23.0564, 38.2544, -28.6215, -29.9142
3.087, 2, 17.8816, 15.8645, 23.0564, 38.2544, -28.6215, -29.9142
3.092, 2, 17.8816, 15.8645, 23.0564, 38.2544, -28.6215, -29.9142
3.096, 2, 17.8816, 15.8645, 23.0564, 38.2544, -28.6215, -29.9142
3.1, 2, 17.8816, 15.8645, 23.0564, 38.2544, -28.6215, -29.9142
3.104, 2, 17.8816, 15.8645, 23.0564, 38.2544, -28.6215, -29.9142
3.107, 2, 17.8816, 15.8645, 23.0564, 38.2544, -28.6215, -29.9142
3.112, 2, 17.8816, 15.8645, 23.0564, 38.2544, -28.6215, -29.9142
3.116, 2, 17.8816, 15.8645, 23.0564, 38.2544, -28.6215, -29.9142
3.12, 2, 17.8816, 15.8645, 23.0564, 38.2544, -28.6215, -29.9142
3.124, 2, 17.8816, 15.8645, 23.0564, 38.2544, -28.6215, -29.9142
3.128, 2, 17.8816, 15.8645, 23.0564, 38.2544, -28.6215, -29.9142
3.132, 2, 17.8816, 15.8645, 23.0564, 38.2544, -28.6215, -29.9142
3.136, 2, 17.8816, 15.8645, 23.0564, 38.2544, -28.6215, -29.9142
3.14, 2, 17.8816, 15.8645, 23.0564, 38.2544, -28.6215, -29.9142
3.143, 2, 17.8816, 15.8645, 23.0564, 38.2544, -28.6215, -29.9142
3.148, 2, 17.8816, 15.8645, 23.0564, 38.2544, -28.6215, -29.9142
3.152, 2, 17.8816, 15.8645, 23.0564, 38.2544, -28.6215, -29.9142
3.156, 2, 17.8816, 15.8645, 23.0564, 38.2544, -28.6215, -29.9142
3.16, 2, 17.8816, 15.8645, 23.0564, 38.2544, -28.6215, -29.9142
3.163, 2, 17.8816, 15.8645, 23.0564, 38.2544, -28.6215, -29.9142
3.168, 2, 17.8816, 15.8645, 23.0564, 38.2544, -28.6215, -29.9142
3.172, 2, 17.8816, 15.8645, 23.0564, 38.2544, -28.6215, -29.9142
3.176, 2, 17.8816, 15.8645, 23.0564, 38.2544, -28.6215, -29.9142
3.179, 2, 17.8816, 15.8645, 23.0564, 38.2544, -28.6215, -29.9142
3.184, 2, 17.8816, 15.8645, 23.0564, 38.2544, -28.6215, -29.9142
3.188, 2, 17.8816, 15.8645, 23.0564, 38.2544, -28.6215, -29.9142
3.192, 2, 17.8816, 15.8645, 23.0564, 38.2544, -28.6215, -29.9142
3.196, 2, 17.8816, 15.8645, 23.0564, 38.2544, -28.6215, -29.9142
3.199, 2, 17.8816, 15.8645, 23.0564, 38.2544, -28.6215, -29.9142
3.204, 2, 17.8816, 15.8645, 23.0564, 38.2544, -28.6215, -29.9142
3.208, 2, 17.8816, 15.8645, 23.0564, 38.2544, -28.6215, -29.9142
3.212, 2, 17.8816, 15.8645, 23.0564, 38.2544, -28.6215, -29.9142
3.216, 2, 17.8816, 15.8645, 23.0564, 38.2544, -28.6215, -29.9142
3.22, 2, 17.8816, 15.8645, 23.0564, 38.2544, -28.6215, -29.9142
3.224, 2, 17.8816, 15.8645, 23.0564, 38.2544, -28.6215, -29.9142
3.228, 2, 17.8816, 15.8645, 23.0564, 38.2544, -28.6215, -29.9142
3.232, 2, 17.8816, 15.8645, 23.0564, 38.2544, -28.6215, -29.9142
3.235, 2, 17.8816, 15.8645, 23.0564, 38.2544, -28.6215, -29.9142
3.24, 2, 17.8816, 15.8645, 23.0564, 38.2544, -28.6215, -29.9142
3.244, 2, 17.8816, 15.8645, 23.0564, 38.2544, -28.6215, -29.9142
3.248, 4, 17.8816, 15.8645, 23.0564, 38.2544, -28.6215, -29.9142
3.252, 4, 17.8816, 15.8645, 23.0564, 38.2544, -28.6215, -29.9142
3.255, 4, 17.8816, 15.8645, 23.0564, 38.2544, -28.6215, -29.9142
3.26, 4, 17.8816, 15.8645, 23.0564, 38.2544, -28.6215, -29.9142
3.264, 4, 17.8816, 15.8645, 23.0564, 38.2544, -28.6215, -29.9142
3.268, 4, 17.8816, 15.8645, 23.0564, 38.2544, -28.6215, -29.9142
3.272, 4, 17.8816, 15.8645, 23.0564, 38.2544, -28.6215, -29.9142
3.276, 4, 17.8816, 15.8645, 23.0564, 38.2544, -28.6215, -29.9142
3.28, 4, 17.8816, 15.8645, 23.0564, 38.2544, -28.6215, -29.9142
3.284, 4, 17.8816, 15.8645, 23.0564, 38.2544, -28.6215, -29.9142
3.288, 4, 17.8816, 15.8645, 23.0564, 38.2544, -28.6215, -29.9142
3.291, 4, 17.8816, 15.8645, 23.0564, 38.2544, -28.6215, -29.9142
3.296, 4, 17.8816, 15.8645, 23.0564, 38.2544, -28.6215, -29.9142
3.3, 4, 17.8816, 15.8645, 23.0564, 38.2544, -28.6215, -29.9142
3.304, 4, 17.8816, 15.8645, 23.0564, 38.2544, -28.6215, -29.9142
3.308, 4, 17.8816, 15.8645, 23.0564, 38.2544, -28.6215, -29.9142
3.312, 4, 17.8816, 15.8645, 23.0564, 38.2544, -28.6215, -29.9142
3.316, 4, 17.8816, 15.8645, 23.0564, 38.2544, -28.6215, -29.9142
3.32, 4, 17.8816, 15.8645, 23.0564, 38.2544, -28.6215, -29.9142
3.324, 4, 17.8816, 15.8645, 23.0564, 38.2544, -28.6215, -29.9142
3.328, 4, 17.8816, 15.8645, 23.0564, 38.2544, -28.6215, -29.9142
3.332, 4, 17.8816, 15.8645, 23.0564, 38.2544, -28.6215, -29.9142
3.336, 4, 17.8816, 15.8645, 23.0564, 38.2544, -28.6215, -29.9142
3.34, 4, 17.8816, 15.8645, 23.0564, 38.2544, -28.6215, -29.9142
3.344, 4, 17.8816, 15.8645, 23.0564, 38.2544, -28.6215, -29.9142
3.347, 4, 17.8816, 15.8645, 23.0564, 38.2544, -28.6215, -29.9142
3.354, 4, 17.8816, 15.8645, 23.0564, 38.2544, -28.6215, -29.9142
3.358, 4, 17.8816, 15.8645, 23.0564, 38.2544, -28.6215, -29.9142
3.362, 4, 17.8816, 15.8645, 23.0564, 38.2544, -28.6215, -29.9142
3.364, 4, 17.8816, 15.8645, 23.0564, 38.2544, -28.6215, -29.9142
3.368, 4, 17.8816, 15.8645, 23.0564, 38.2544, -28.6215, -29.9142
3.372, 4, 17.8816, 15.8645, 23.0564, 38.2544, -28.6215, -29.9142
3.376, 4, 17.8816, 15.8645, 23.0564, 38.2544, -28.6215, -29.9142
3.38, 4, 17.8816, 15.8645, 23.0564, 38.2544, -28.6215, -29.9142
3.383, 4, 17.8816, 15.8645, 23.0564, 38.2544, -28.6215, -29.9142
3.388, 4, 17.8815, 15.8645, 23.0564, 38.2544, -28.6215, -29.9142
3.392, 4, 17.8812, 15.8645, 23.0564, 38.2543, -28.6215, -29.9142
3.396, 4, 17.8806, 15.8645, 23.0565, 38.2542, -28.6216, -29.9141
3.4, 4, 17.8793, 15.8645, 23.0566, 38.2539, -28.6217, -29.9139
3.403, 4, 17.8773, 15.8644, 23.0569, 38.2532, -28.6219, -29.9133
3.408, 4, 17.8745, 15.8643, 23.0576, 38.2517, -28.6225, -29.912
3.412, 4, 17.8707, 15.864, 23.0586, 38.2489, -28.6235, -29.9095
3.416, 4, 17.8659, 15.8636, 23.0603, 38.2441, -28.6252, -29.9053
3.42, 5, 17.8601, 15.863, 23.0629, 38.2365, -28.628, -29.8986
3.424, 5, 17.8533, 15.8621, 23.0667, 38.225, -28.6321, -29.8884
3.428, 5, 17.8454, 15.8608, 23.072, 38.2087, -28.6379, -29.874
3.432, 5, 17.8363, 15.8592, 23.0792, 38.1865, -28.646, -29.8543
3.436, 5, 17.8257, 15.857, 23.0884, 38.1572, -28.6565, -29.8284
3.439, 5, 17.8136, 15.8542, 23.1001, 38.1198, -28.67, -29.7953
3.444, 5, 17.8, 15.8508, 23.1146, 38.0733, -28.6867, -29.7542
3.448, 5, 17.7848, 15.8467, 23.132, 38.017, -28.7071, -29.7043
3.452, 5, 17.7681, 15.8419, 23.1525, 37.9502, -28.7313, -29.6452
3.456, 5, 17.75, 15.8363, 23.1763, 37.8727, -28.7595, -29.5765
3.46, 5, 17.7303, 15.83, 23.2033, 37.7844, -28.7917, -29.4983
3.464, 5, 17.7091, 15.823, 23.2335, 37.6856, -28.8279, -29.4108
3.468, 5, 17.6863, 15.8152, 23.2666, 37.5769, -28.8678, -29.3145
3.472, 5, 17.6618, 15.8069, 23.3026, 37.459, -28.9113, -29.2101
3.476, 5, 17.6357, 15.7979, 23.3411, 37.3328, -28.9579, -29.0985
3.48, 5, 17.6082, 15.7885, 23.3818, 37.1995, -29.0075, -28.9806
3.484, 5, 17.5792, 15.7787, 23.4245, 37.0601, -29.0595, -28.8573
3.488, 5, 17.549, 15.7685, 23.4688, 36.9157, -29.1138, -28.7296
3.492, 5, 17.5176, 15.7581, 23.5144, 36.7672, -29.1698, -28.5984
3.495, 5, 17.4852, 15.7475, 23.561, 36.6156, -29.2273, -28.4645
3.5, 5, 17.4516, 15.7367, 23.6085, 36.4618, -29.286, -28.3287
3.504, 5, 17.4171, 15.7259, 23.6565, 36.3065, -29.3455, -28.1917
3.508, 5, 17.3816, 15.7151, 23.7049, 36.1503, -29.4059, -28.0539
3.512, 5, 17.3453, 15.7043, 23.7536, 35.9936, -29.4667, -27.9158
3.516, 5, 17.3083, 15.6935, 23.8024, 35.8367, -29.528, -27.7776
3.52, 5, 17.2708, 15.6827, 23.8512, 35.6799, -29.5897, -27.6396
3.524, 5, 17.233, 15.672, 23.9001, 35.5233, -29.6516, -27.5018
3.528, 5, 17.195, 15.6615, 23.949, 35.3671, -29.7138, -27.3644
3.531, 5, 17.1567, 15.6509, 23.9978, 35.2113, -29.7763, -27.2274
3.536, 5, 17.1183, 15.6405, 24.0466, 35.0559, -29.839, -27.0909
3.54, 5, 17.0799, 15.6302, 24.0953, 34.901, -29.9018, -26.9549
3.544, 5, 17.0413, 15.6199, 24.1439, 34.7466, -29.9649, -26.8194
3.548, 5, 17.0027, 15.6098, 24.1924, 34.5927, -30.0281, -26.6844
3.552, 5, 16.964, 15.5997, 24.2409, 34.4393, -30.0915, -26.5499
3.556, 5, 16.9253, 15.5898, 24.2892, 34.2865, -30.1552, -26.416
3.56, 5, 16.8865, 15.5799, 24.3374, 34.1342, -30.2189, -26.2826
3.564, 5, 16.8477, 15.5702, 24.3856, 33.9824, -30.2829, -26.1498
3.568, 5, 16.8089, 15.5605, 24.4336, 33.8311, -30.347, -26.0175
3.572, 5, 16.77, 15.5509, 24.4816, 33.6804, -30.4113, -25.8857
3.576, 5, 16.7311, 15.5414, 24.5294, 33.5302, -30.4758, -25.7545
3.58, 5, 16.6922, 15.5321, 24.5772, 33.3806, -30.5404, -25.6238
3.584, 5, 16.6532, 15.5228, 24.6248, 33.2314, -30.6052, -25.4936
3.587, 5, 16.6142, 15.5136, 24.6724, 33.0828, -30.6702, -25.364
3.592, 5, 16.5751, 15.5045, 24.7198, 32.9347, -30.7353, -25.2349
3.596, 5, 16.5361, 15.4955, 24.7672, 32.7872, -30.8006, -25.1063
3.6, 5, 16.4969, 15.4866, 24.8144, 32.6401, -30.8661, -24.9783
3.604, 5, 16.4578, 15.4778, 24.8616, 32.4936, -30.9317, -24.8508
3.608, 5, 16.4186, 15.4691, 24.9086, 32.3476, -30.9975, -24.7238
3.612, 5, 16.3794, 15.4605, 24.9556, 32.2021, -31.0635, -24.5973
3.616, 5, 16.3402, 15.452, 25.0025, 32.0571, -31.1296, -24.4713
3.62, 5, 16.3009, 15.4436, 25.0492, 31.9126, -31.1958, -24.3459
3.624, 5, 16.2616, 15.4352, 25.0959, 31.7686, -31.2623, -24.221
3.628, 5, 16.2222, 15.427, 25.1424, 31.6252, -31.3288, -24.0965
3.632, 5, 16.1828, 15.4189, 25.1889, 31.4822, -31.3956, -23.9726
3.636, 5, 16.1434, 15.4109, 25.2353, 31.3398, -31.4625, -23.8493
3.64, 5, 16.104, 15.403, 25.2815, 31.1978, -31.5295, -23.7264
3.644, 5, 16.0645, 15.3951, 25.3277, 31.0563, -31.5967, -23.604
3.648, 5, 16.025, 15.3874, 25.3738, 30.9154, -31.6641, -23.4821
3.652, 5, 15.9855, 15.3798, 25.4197, 30.7749, -31.7316, -23.3607
3.656, 5, 15.9459, 15.3722, 25.4656, 30.6349, -31.7992, -23.2398
3.66, 5, 15.9063, 15.3648, 25.5114, 30.4955, -31.867, -23.1195
3.664, 5, 15.8667, 15.3574, 25.557, 30.3565, -31.935, -22.9996
3.668, 5, 15.827, 15.3502, 25.6026, 30.218, -32.0031, -22.8802
3.672, 5, 15.7873, 15.343, 25.6481, 30.0799, -32.0714, -22.7613
3.676, 5, 15.7476, 15.336, 25.6934, 29.9424, -32.1398, -22.6429
3.679, 5, 15.7078, 15.329, 25.7387, 29.8053, -32.2083, -22.525
3.684, 5, 15.668, 15.3222, 25.7839, 29.6688, -32.277, -22.4075
3.688, 5, 15.6282, 15.3154, 25.8289, 29.5327, -32.3458, -22.2906
3.692, 5, 15.5883, 15.3088, 25.8739, 29.397, -32.4148, -22.1741
3.696, 5, 15.5484, 15.3022, 25.9188, 29.2619, -32.4839, -22.0581
3.7, 5, 15.5085, 15.2958, 25.9635, 29.1272, -32.5532, -21.9426
3.704, 6, 15.4686, 15.2894, 26.0082, 28.993, -32.6226, -21.8276
3.708, 6, 15.4286, 15.2831, 26.0528, 28.8593, -32.6921, -21.713
3.712, 6, 15.3886, 15.277, 26.0972, 28.726, -32.7618, -21.599
3.716, 6, 15.3485, 15.2709, 26.1416, 28.5932, -32.8317, -21.4853
3.72, 6, 15.3084, 15.2649, 26.1859, 28.4608, -32.9016, -21.3722
3.724, 6, 15.2683, 15.259, 26.23, 28.3289, -32.9717, -21.2595
3.728, 6, 15.2282, 15.2533, 26.2741, 28.1975, -33.042, -21.1473
3.732, 6, 15.188, 15.2476, 26.318, 28.0665, -33.1123, -21.0356
3.735, 6, 15.1478, 15.242, 26.3619, 27.936, -33.1828, -20.9243
3.74, 6, 15.1076, 15.2365, 26.4057, 27.8059, -33.2535, -20.8134
3.744, 6, 15.0673, 15.2312, 26.4493, 27.6763, -33.3243, -20.703
3.748, 6, 15.027, 15.2259, 26.4929, 27.5471, -33.3952, -20.5931
3.752, 6, 14.9867, 15.2207, 26.5363, 27.4184, -33.4662, -20.4837
3.756, 6, 14.9463, 15.2156, 26.5797, 27.2901, -33.5374, -20.3746
3.76, 6, 14.9059, 15.2106, 26.623, 27.1623, -33.6087, -20.2661
3.764, 6, 14.8655, 15.2058, 26.6661, 27.0348, -33.6801, -20.1579
3.768, 6, 14.825, 15.201, 26.7092, 26.9079, -33.7517, -20.0503
3.772, 6, 14.7845, 15.1963, 26.7521, 26.7814, -33.8234, -19.943
3.776, 6, 14.744, 15.1917, 26.795, 26.6553, -33.8952, -19.8362
3.78, 6, 14.7035, 15.1872, 26.8377, 26.5296, -33.9671, -19.7299
3.784, 6, 14.6629, 15.1828, 26.8804, 26.4044, -34.0392, -19.624
3.788, 6, 14.6223, 15.1785, 26.9229, 26.2796, -34.1114, -19.5185
3.792, 6, 14.5816, 15.1743, 26.9654, 26.1552, -34.1837, -19.4134
3.796, 6, 14.541, 15.1702, 27.0077, 26.0312, -34.2562, -19.3088
3.8, 6, 14.5003, 15.1662, 27.05, 25.9077, -34.3288, -19.2046
3.804, 6, 14.4595, 15.1624, 27.0921, 25.7846, -34.4014, -19.1009
3.808, 6, 14.4188, 15.1586, 27.1341, 25.6619, -34.4743, -18.9975
3.812, 6, 14.378, 15.1549, 27.1761, 25.5396, -34.5472, -18.8946
3.816, 6, 14.3372, 15.1513, 27.2179, 25.4178, -34.6203, -18.7922
3.82, 6, 14.2963, 15.1478, 27.2597, 25.2963, -34.6934, -18.6901
3.824, 6, 14.2554, 15.1444, 27.3013, 25.1753, -34.7668, -18.5884
3.828, 6, 14.2145, 15.1411, 27.3428, 25.0547, -34.8402, -18.4872
3.832, 6, 14.1736, 15.1379, 27.3843, 24.9345, -34.9137, -18.3864
3.836, 6, 14.1326, 15.1348, 27.4256, 24.8147, -34.9874, -18.286
3.84, 6, 14.0916, 15.1318, 27.4668, 24.6952, -35.0611, -18.186
3.844, 6, 14.0506, 15.1289, 27.5079, 24.5763, -35.135, -18.0864
3.848, 6, 14.0095, 15.1261, 27.549, 24.4577, -35.209, -17.9873
3.852, 6, 13.9684, 15.1234, 27.5899, 24.3395, -35.2832, -17.8885
3.856, 6, 13.9273, 15.1208, 27.6307, 24.2217, -35.3574, -17.7902
3.86, 6, 13.8861, 15.1183, 27.6714, 24.1043, -35.4317, -17.6922
3.864, 6, 13.8449, 15.1159, 27.712, 23.9872, -35.5062, -17.5947
3.868, 6, 13.8037, 15.1136, 27.7526, 23.8706, -35.5808, -17.4975
3.872, 6, 13.7625, 15.1114, 27.793, 23.7544, -35.6555, -17.4007
3.876, 6, 13.7212, 15.1093, 27.8333, 23.6385, -35.7303, -17.3044
3.88, 6, 13.6799, 15.1073, 27.8735, 23.5231, -35.8052, -17.2084
3.884, 6, 13.6386, 15.1054, 27.9136, 23.408, -35.8802, -17.1128
3.888, 6, 13.5972, 15.1036, 27.9536, 23.2933, -35.9553, -17.0176
3.892, 6, 13.5558, 15.1019, 27.9935, 23.179, -36.0305, -16.9228
3.896, 6, 13.5144, 15.1003, 28.0333, 23.0651, -36.1059, -16.8284
3.9, 6, 13.473, 15.0988, 28.073, 22.9515, -36.1813, -16.7344
3.904, 6, 13.4315, 15.0974, 28.1126, 22.8384, -36.2569, -16.6407
3.908, 6, 13.39, 15.0961, 28.1521, 22.7256, -36.3326, -16.5475
3.912, 6, 13.3485, 15.0949, 28.1914, 22.6131, -36.4083, -16.4546
3.916, 6, 13.3069, 15.0938, 28.2307, 22.5011, -36.4842, -16.3621
3.92, 6, 13.2653, 15.0928, 28.2699, 22.3894, -36.5602, -16.27
3.924, 6, 13.2237, 15.0919, 28.309, 22.2781, -36.6363, -16.1782
3.928, 6, 13.1821, 15.0911, 28.3479, 22.1671, -36.7125, -16.0868
3.932, 6, 13.1404, 15.0904, 28.3868, 22.0565, -36.7888, -15.9958
3.936, 6, 13.0987, 15.0898, 28.4256, 21.9463, -36.8652, -15.9052
3.94, 6, 13.057, 15.0893, 28.4642, 21.8364, -36.9417, -15.8149
3.944, 6, 13.0152, 15.0889, 28.5028, 21.7269, -37.0183, -15.725
3.948, 6, 12.9734, 15.0886, 28.5413, 21.6178, -37.095, -15.6354
3.952, 6, 12.9316, 15.0884, 28.5796, 21.509, -37.1718, -15.5463
3.956, 6, 12.8898, 15.0883, 28.6179, 21.4006, -37.2486, -15.4574
3.96, 6, 12.8479, 15.0883, 28.656, 21.2925, -37.3256, -15.369
3.964, 6, 12.806, 15.0884, 28.6941, 21.1847, -37.4027, -15.2809
3.968, 6, 12.7641, 15.0886, 28.732, 21.0773, -37.4799, -15.1931
3.972, 6, 12.7221, 15.0889, 28.7698, 20.9703, -37.5572, -15.1057
3.976, 6, 12.6801, 15.0893, 28.8076, 20.8636, -37.6346, -15.0187
3.98, 6, 12.6381, 15.0899, 28.8452, 20.7573, -37.7121, -14.932
3.984, 7, 12.5961, 15.0905, 28.8827, 20.6513, -37.7897, -14.8457
3.988, 7, 12.554, 15.0912, 28.9201, 20.5456, -37.8673, -14.7597
3.992, 7, 12.5119, 15.092, 28.9574, 20.4403, -37.9451, -14.6741
3.996, 7, 12.4698, 15.0929, 28.9946, 20.3353, -38.023, -14.5888
3.999, 7, 12.4276, 15.0939, 29.0317, 20.2306, -38.1009, -14.5038
4.004, 7, 12.3855, 15.095, 29.0687, 20.1263, -38.179, -14.4192
4.008, 7, 12.3433, 15.0963, 29.1056, 20.0223, -38.2571, -14.3349
4.012, 7, 12.301, 15.0976, 29.1424, 19.9187, -38.3353, -14.251
4.016, 7, 12.2588, 15.099, 29.1791, 19.8154, -38.4137, -14.1674
4.02, 7, 12.2165, 15.1005, 29.2157, 19.7124, -38.4921, -14.0842
4.024, 7, 12.1742, 15.1021, 29.2522, 19.6097, -38.5706, -14.0012
4.028, 7, 12.1319, 15.1038, 29.2886, 19.5074, -38.6492, -13.9186
4.032, 7, 12.0895, 15.1057, 29.3248, 19.4053, -38.7278, -13.8364
4.036, 7, 12.0471, 15.1076, 29.361, 19.3036, -38.8066, -13.7544
4.04, 7, 12.0047, 15.1096, 29.3971, 19.2023, -38.8855, -13.6728
4.044, 7, 11.9622, 15.1117, 29.433, 19.1012, -38.9644, -13.5916
4.048, 7, 11.9198, 15.114, 29.4689, 19.0005, -39.0434, -13.5106
4.052, 7, 11.8773, 15.1163, 29.5046, 18.9, -39.1226, -13.43
4.056, 7, 11.8348, 15.1187, 29.5402, 18.7999, -39.2018, -13.3497
4.06, 7, 11.7922, 15.1213, 29.5758, 18.7001, -39.2811, -13.2697
4.064, 7, 11.7496, 15.1239, 29.6112, 18.6007, -39.3604, -13.19
4.068, 7, 11.707, 15.1266, 29.6465, 18.5015, -39.4399, -13.1107
4.072, 7, 11.6644, 15.1295, 29.6818, 18.4026, -39.5194, -13.0316
4.076, 7, 11.6218, 15.1324, 29.7169, 18.3041, -39.5991, -12.9529
4.08, 7, 11.5791, 15.1354, 29.7519, 18.2058, -39.6788, -12.8745
4.084, 7, 11.5364, 15.1386, 29.7868, 18.1079, -39.7586, -12.7964
4.088, 7, 11.4936, 15.1418, 29.8216, 18.0102, -39.8385, -12.7186
4.092, 7, 11.4509, 15.1452, 29.8563, 17.9129, -39.9184, -12.6411
4.096, 7, 11.4081, 15.1486, 29.8909, 17.8158, -39.9985, -12.564
4.1, 7, 11.3653, 15.1521, 29.9253, 17.7191, -40.0786, -12.4871
4.104, 7, 11.3225, 15.1558, 29.9597, 17.6226, -40.1588, -12.4105
4.108, 7, 11.2796, 15.1595, 29.994, 17.5265, -40.2391, -12.3343
4.112, 7, 11.2367, 15.1634, 30.0282, 17.4306, -40.3194, -12.2583
4.116, 7, 11.1938, 15.1673, 30.0622, 17.3351, -40.3999, -12.1827
4.12, 7, 11.1509, 15.1714, 30.0962, 17.2398, -40.4804, -12.1073
4.124, 7, 11.1079, 15.1755, 30.13, 17.1448, -40.561, -12.0323
4.128, 7, 11.065, 15.1798, 30.1638, 17.0501, -40.6417, -11.9575
4.132, 7, 11.0219, 15.1841, 30.1974, 16.9557, -40.7224, -11.8831
4.136, 7, 10.9789, 15.1886, 30.2309, 16.8616, -40.8032, -11.8089
4.14, 7, 10.9359, 15.1932, 30.2643, 16.7678, -40.8842, -11.735
4.144, 7, 10.8928, 15.1978, 30.2977, 16.6742, -40.9651, -11.6614
4.148, 7, 10.8497, 15.2026, 30.3309, 16.581, -41.0462, -11.5881
4.154, 7, 10.7634, 15.2124, 30.397, 16.3953, -41.2085, -11.4424
4.156, 7, 10.7634, 15.2124, 30.397, 16.3953, -41.2085, -11.4424
4.16, 7, 10.7202, 15.2175, 30.4298, 16.3029, -41.2898, -11.37
4.164, 7, 10.677, 15.2226, 30.4626, 16.2107, -41.3712, -11.2978
4.168, 7, 10.6338, 15.2279, 30.4953, 16.1188, -41.4526, -11.2259
4.172, 7, 10.5905, 15.2333, 30.5279, 16.0272, -41.5341, -11.1544
4.176, 7, 10.5472, 15.2387, 30.5603, 15.9359, -41.6157, -11.0831
4.18, 7, 10.5039, 15.2443, 30.5927, 15.8449, -41.6973, -11.012
4.184, 7, 10.4606, 15.25, 30.6249, 15.7541, -41.779, -10.9413
4.188, 7, 10.4173, 15.2558, 30.6571, 15.6636, -41.8608, -10.8708
4.192, 7, 10.3739, 15.2616, 30.6891, 15.5733, -41.9426, -10.8006
4.196, 7, 10.3305, 15.2676, 30.7211, 15.4833, -42.0246, -10.7307
4.2, 7, 10.2871, 15.2737, 30.7529, 15.3936, -42.1066, -10.661
4.204, 7, 10.2437, 15.2799, 30.7846, 15.3042, -42.1886, -10.5916
4.208, 7, 10.2002, 15.2862, 30.8162, 15.215, -42.2708, -10.5225
4.212, 7, 10.1567, 15.2926, 30.8477, 15.1261, -42.353, -10.4537
4.216, 7, 10.1132, 15.299, 30.8791, 15.0374, -42.4352, -10.3851
4.22, 7, 10.0697, 15.3056, 30.9104, 14.949, -42.5176, -10.3168
4.224, 7, 10.0261, 15.3123, 30.9415, 14.8609, -42.6, -10.2488
4.228, 7, 9.98254, 15.3191, 30.9726, 14.773, -42.6824, -10.181
4.232, 7, 9.93894, 15.326, 31.0036, 14.6853, -42.765, -10.1135
4.236, 7, 9.89532, 15.333, 31.0344, 14.598, -42.8476, -10.0463
4.24, 7, 9.85167, 15.3401, 31.0652, 14.5108, -42.9302, -9.97927
4.244, 7, 9.808, 15.3473, 31.0958, 14.424, -43.013, -9.91254
4.248, 7, 9.76431, 15.3546, 31.1263, 14.3374, -43.0958, -9.84607
4.252, 7, 9.7206, 15.362, 31.1568, 14.251, -43.1786, -9.77986
4.256, 7, 9.67686, 15.3695, 31.1871, 14.1649, -43.2615, -9.71391
4.26, 8, 9.63311, 15.3771, 31.2173, 14.079, -43.3445, -9.6482
4.264, 8, 9.58933, 15.3848, 31.2474, 13.9934, -43.4276, -9.58276
4.268, 8, 9.54553, 15.3926, 31.2774, 13.908, -43.5107, -9.51756
4.272, 8, 9.50171, 15.4005, 31.3072, 13.8229, -43.5938, -9.45262
4.276, 8, 9.45786, 15.4085, 31.337, 13.738, -43.6771, -9.38793
4.28, 8, 9.414, 15.4166, 31.3667, 13.6533, -43.7604, -9.32348
4.284, 8, 9.37011, 15.4248, 31.3962, 13.5689, -43.8437, -9.25928
4.288, 8, 9.3262, 15.4332, 31.4257, 13.4847, -43.9271, -9.19533
4.292, 8, 9.28227, 15.4416, 31.455, 13.4008, -44.0106, -9.13163
4.296, 8, 9.23832, 15.4501, 31.4842, 13.3171, -44.0942, -9.06817
4.3, 8, 9.19435, 15.4587, 31.5133, 13.2336, -44.1777, -9.00495
4.304, 8, 9.15035, 15.4674, 31.5424, 13.1504, -44.2614, -8.94198
4.308, 8, 9.10634, 15.4762, 31.5713, 13.0674, -44.3451, -8.87924
4.312, 8, 9.0623, 15.4852, 31.6001, 12.9847, -44.4289, -8.81675
4.316, 8, 9.01825, 15.4942, 31.6287, 12.9021, -44.5127, -8.7545
4.32, 8, 8.97417, 15.5033, 31.6573, 12.8198, -44.5966, -8.69248
4.324, 8, 8.93007, 15.5125, 31.6858, 12.7378, -44.6805, -8.6307
4.328, 8, 8.88595, 15.5218, 31.7141, 12.6559, -44.7645, -8.56916
4.332, 8, 8.84181, 15.5313, 31.7424, 12.5743, -44.8486, -8.50785
4.336, 8, 8.79765, 15.5408, 31.7705, 12.4929, -44.9327, -8.44677
4.34, 8, 8.75347, 15.5504, 31.7985, 12.4118, -45.0168, -8.38593
4.344, 8, 8.70927, 15.5602, 31.8265, 12.3308, -45.101, -8.32532
4.348, 8, 8.66505, 15.57, 31.8543, 12.2501, -45.1853, -8.26494
4.352, 8, 8.62082, 15.5799, 31.882, 12.1696, -45.2696, -8.20479
4.356, 8, 8.57656, 15.59, 31.9096, 12.0894, -45.354, -8.14487
4.36, 8, 8.53228, 15.6001, 31.937, 12.0093, -45.4384, -8.08518
4.364, 8, 8.48798, 15.6103, 31.9644, 11.9295, -45.5229, -8.02571
4.368, 8, 8.44366, 15.6207, 31.9917, 11.8499, -45.6075, -7.96647
4.372, 8, 8.39932, 15.6311, 32.0188, 11.7705, -45.692, -7.90745
4.376, 8, 8.35496, 15.6416, 32.0459, 11.6913, -45.7767, -7.84866
4.38, 8, 8.31059, 15.6523, 32.0728, 11.6124, -45.8614, -7.79009
4.384, 8, 8.26619, 15.663, 32.0996, 11.5336, -45.9461, -7.73174
4.388, 8, 8.22177, 15.6738, 32.1263, 11.4551, -46.0309, -7.67361
4.392, 8, 8.17734, 15.6848, 32.1529, 11.3768, -46.1158, -7.6157
4.396, 8, 8.13289, 15.6958, 32.1794, 11.2987, -46.2007, -7.55801
4.4, 8, 8.08841, 15.707, 32.2058, 11.2208, -46.2856, -7.50054
4.404, 8, 8.04392, 15.7182, 32.2321, 11.1431, -46.3706, -7.44328
4.408, 8, 7.99941, 15.7296, 32.2582, 11.0656, -46.4556, -7.38624
4.412, 8, 7.95488, 15.741, 32.2843, 10.9883, -46.5407, -7.32942
4.416, 8, 7.91033, 15.7525, 32.3102, 10.9113, -46.6259, -7.27281
4.42, 8, 7.86577, 15.7642, 32.3361, 10.8344, -46.711, -7.21641
4.424, 8, 7.82118, 15.7759, 32.3618, 10.7578, -46.7963, -7.16022
4.428, 8, 7.77658, 15.7878, 32.3874, 10.6813, -46.8815, -7.10425
4.432, 8, 7.73196, 15.7997, 32.4129, 10.6051, -46.9669, -7.04848
4.436, 8, 7.68732, 15.8118, 32.4383, 10.529, -47.0522, -6.99293
4.44, 8, 7.64267, 15.8239, 32.4635, 10.4532, -47.1377, -6.93758
4.444, 8, 7.59799, 15.8362, 32.4887, 10.3775, -47.2231, -6.88243
4.448, 8, 7.5533, 15.8485, 32.5138, 10.3021, -47.3086, -6.8275
4.452, 8, 7.50859, 15.861, 32.5387, 10.2269, -47.3942, -6.77277
4.456, 8, 7.46387, 15.8735, 32.5635, 10.1518, -47.4798, -6.71824
4.46, 8, 7.41912, 15.8862, 32.5883, 10.0769, -47.5654, -6.66392
4.464, 8, 7.37436, 15.8989, 32.6129, 10.0023, -47.6511, -6.6098
4.468, 8, 7.32959, 15.9118, 32.6374, 9.92783, -47.7368, -6.55588
4.472, 8, 7.28479, 15.9247, 32.6617, 9.85356, -47.8226, -6.50217
4.476, 8, 7.23998, 15.9378, 32.686, 9.77949, -47.9084, -6.44865
4.48, 8, 7.19515, 15.9509, 32.7102, 9.70561, -47.9943, -6.39533
4.484, 8, 7.1503, 15.9642, 32.7342, 9.63192, -48.0802, -6.34222
4.488, 8, 7.10544, 15.9775, 32.7582, 9.55842, -48.1661, -6.28929
4.492, 8, 7.06056, 15.991, 32.782, 9.48511, -48.2521, -6.23657
4.496, 8, 7.01567, 16.0045, 32.8057, 9.41199, -48.3381, -6.18404
4.5, 8, 6.97076, 16.0182, 32.8293, 9.33905, -48.4242, -6.13171
4.504, 8, 6.92583, 16.0319, 32.8528, 9.26631, -48.5103, -6.07957
4.508, 8, 6.88088, 16.0458, 32.8762, 9.19375, -48.5964, -6.02762
4.512, 8, 6.83592, 16.0597, 32.8995, 9.12137, -48.6826, -5.97587
4.516, 8, 6.79095, 16.0738, 32.9226, 9.04918, -48.7688, -5.9243
4.52, 8, 6.74595, 16.0879, 32.9457, 8.97718, -48.855, -5.87293
4.524, 8, 6.70095, 16.1022, 32.9686, 8.90536, -48.9413, -5.82175
4.528, 8, 6.65592, 16.1165, 32.9914, 8.83372, -49.0277, -5.77076
4.532, 8, 6.61088, 16.1309, 33.0141, 8.76226, -49.114, -5.71995
4.536, 8, 6.56583, 16.1455, 33.0367, 8.69098, -49.2004, -5.66934
4.54, 9, 6.52076, 16.1601, 33.0592, 8.61988, -49.2869, -5.6189
4.544, 9, 6.47568, 16.1749, 33.0816, 8.54896, -49.3734, -5.56866
4.548, 9, 6.43058, 16.1897, 33.1038, 8.47822, -49.4599, -5.5186
4.552, 9, 6.38546, 16.2047, 33.126, 8.40766, -49.5464, -5.46872
4.556, 9, 6.34033, 16.2197, 33.148, 8.33727, -49.633, -5.41903
4.56, 9, 6.29519, 16.2348, 33.1699, 8.26706, -49.7196, -5.36952
4.564, 9, 6.25003, 16.2501, 33.1917, 8.19702, -49.8063, -5.32019
4.568, 9, 6.20486, 16.2654, 33.2134, 8.12716, -49.893, -5.27104
4.572, 9, 6.15967, 16.2808, 33.235, 8.05747, -49.9797, -5.22207
4.576, 9, 6.11447, 16.2964, 33.2565, 7.98795, -50.0665, -5.17328
4.58, 9, 6.06925, 16.312, 33.2778, 7.91861, -50.1533, -5.12467
4.584, 9, 6.02402, 16.3277, 33.2991, 7.84943, -50.2401, -5.07624
4.588, 9, 5.97877, 16.3436, 33.3202, 7.78043, -50.3269, -5.02798
4.592, 9, 5.93352, 16.3595, 33.3412, 7.7116, -50.4138, -4.9799
4.596, 9, 5.88824, 16.3755, 33.3621, 7.64293, -50.5008, -4.932
4.6, 9, 5.84296, 16.3917, 33.3829, 7.57443, -50.5877, -4.88427
4.604, 9, 5.79766, 16.4079, 33.4036, 7.5061, -50.6747, -4.83671
4.608, 9, 5.75234, 16.4242, 33.4242, 7.43794, -50.7617, -4.78933
4.612, 9, 5.70702, 16.4406, 33.4446, 7.36995, -50.8488, -4.74212
4.616, 9, 5.66167, 16.4571, 33.465, 7.30211, -50.9358, -4.69508
4.62, 9, 5.61632, 16.4738, 33.4852, 7.23445, -51.0229, -4.64821
4.624, 9, 5.57095, 16.4905, 33.5053, 7.16694, -51.1101, -4.60151
4.628, 9, 5.52557, 16.5073, 33.5253, 7.0996, -51.1972, -4.55499
4.632, 9, 5.48018, 16.5242, 33.5452, 7.03243, -51.2844, -4.50863
4.636, 9, 5.43478, 16.5412, 33.565, 6.96541, -51.3717, -4.46244
4.64, 9, 5.38936, 16.5583, 33.5846, 6.89856, -51.4589, -4.41641
4.644, 9, 5.34393, 16.5755, 33.6042, 6.83186, -51.5462, -4.37055
4.648, 9, 5.29849, 16.5928, 33.6236, 6.76533, -51.6335, -4.32486
4.652, 9, 5.25303, 16.6102, 33.6429, 6.69895, -51.7208, -4.27934
4.656, 9, 5.20757, 16.6277, 33.6621, 6.63273, -51.8082, -4.23398
4.66, 9, 5.16209, 16.6453, 33.6812, 6.56667, -51.8956, -4.18878
4.664, 9, 5.1166, 16.663, 33.7002, 6.50077, -51.983, -4.14374
4.668, 9, 5.07109, 16.6808, 33.719, 6.43502, -52.0704, -4.09887
4.672, 9, 5.02558, 16.6986, 33.7378, 6.36943, -52.1579, -4.05416
4.676, 9, 4.98005, 16.7166, 33.7564, 6.30399, -52.2454, -4.00961
4.68, 9, 4.93451, 16.7347, 33.7749, 6.23871, -52.3329, -3.96523
4.684, 9, 4.88896, 16.7529, 33.7933, 6.17358, -52.4204, -3.921
4.688, 9, 4.8434, 16.7712, 33.8116, 6.1086, -52.508, -3.87693
4.692, 9, 4.79783, 16.7895, 33.8298, 6.04378, -52.5956, -3.83301
4.696, 9, 4.75224, 16.808, 33.8479, 5.97911, -52.6832, -3.78926
4.7, 9, 4.70665, 16.8265, 33.8658, 5.91459, -52.7708, -3.74566
4.704, 9, 4.66104, 16.8452, 33.8836, 5.85022, -52.8585, -3.70222
4.708, 9, 4.61543, 16.864, 33.9013, 5.786, -52.9462, -3.65894
4.712, 9, 4.5698, 16.8828, 33.9189, 5.72192, -53.0339, -3.61581
4.716, 9, 4.52416, 16.9018, 33.9364, 5.658, -53.1216, -3.57283
4.72, 9, 4.47851, 16.9208, 33.9538, 5.59422, -53.2094, -3.53001
4.724, 9, 4.43285, 16.94, 33.9711, 5.53059, -53.2971, -3.48734
4.728, 9, 4.38718, 16.9592, 33.9882, 5.46711, -53.3849, -3.44482
4.732, 9, 4.3415, 16.9785, 34.0052, 5.40377, -53.4728, -3.40245
4.736, 9, 4.29582, 16.998, 34.0222, 5.34058, -53.5606, -3.36024
4.74, 9, 4.25012, 17.0175, 34.039, 5.27753, -53.6485, -3.31817
4.744, 9, 4.20441, 17.0372, 34.0557, 5.21462, -53.7364, -3.27625
4.748, 9, 4.15869, 17.0569, 34.0722, 5.15186, -53.8244, -3.23448
4.752, 9, 4.11296, 17.0767, 34.0887, 5.08923, -53.9124, -3.19286
4.756, 9, 4.06722, 17.0967, 34.1051, 5.02675, -54.0004, -3.15138
4.76, 9, 4.02147, 17.1167, 34.1213, 4.96441, -54.0885, -3.11005
4.764, 9, 3.97571, 17.1368, 34.1375, 4.90221, -54.1767, -3.06886
4.768, 9, 3.92994, 17.157, 34.1536, 4.84014, -54.2649, -3.02782
4.772, 9, 3.88416, 17.1774, 34.1695, 4.77821, -54.3531, -2.98692
4.776, 9, 3.83837, 17.1978, 34.1854, 4.71642, -54.4414, -2.94617
4.78, 9, 3.79257, 17.2183, 34.2011, 4.65477, -54.5298, -2.90555
4.784, 9, 3.74675, 17.2389, 34.2167, 4.59325, -54.6182, -2.86508
4.788, 9, 3.70093, 17.2597, 34.2323, 4.53186, -54.7067, -2.82474
4.792, 9, 3.6551, 17.2805, 34.2477, 4.47061, -54.7952, -2.78455
4.796, 9, 3.60926, 17.3015, 34.263, 4.40949, -54.8838, -2.7445
4.8, 9, 3.56341, 17.3226, 34.2782, 4.3485, -54.9725, -2.70458
4.804, 9, 3.51755, 17.3438, 34.2933, 4.28765, -55.0612, -2.66481
4.808, 9, 3.47169, 17.3651, 34.3082, 4.22693, -55.1499, -2.62517
4.812, 9, 3.42581, 17.3866, 34.323, 4.16634, -55.2387, -2.58567
4.816, 10, 3.37992, 17.4082, 34.3376, 4.10588, -55.3275, -2.5463
4.82, 10, 3.33403, 17.43, 34.352, 4.04555, -55.4164, -2.50708
4.824, 10, 3.28813, 17.4519, 34.3663, 3.98535, -55.5053, -2.46799
4.828, 10, 3.24222, 17.474, 34.3804, 3.92529, -55.5942, -2.42904
4.832, 10, 3.1963, 17.4963, 34.3942, 3.86535, -55.6832, -2.39023
4.836, 10, 3.15037, 17.5188, 34.4079, 3.80555, -55.7722, -2.35155
4.84, 10, 3.10443, 17.5414, 34.4213, 3.74587, -55.8612, -2.31301
4.844, 10, 3.05849, 17.5642, 34.4345, 3.68633, -55.9502, -2.2746
4.848, 10, 3.01254, 17.5873, 34.4474, 3.62691, -56.0392, -2.23633
4.852, 10, 2.96658, 17.6106, 34.4601, 3.56763, -56.1282, -2.1982
4.856, 10, 2.92062, 17.6341, 34.4724, 3.50847, -56.2173, -2.1602
4.86, 10, 2.87464, 17.6578, 34.4845, 3.44945, -56.3063, -2.12234
4.864, 10, 2.82867, 17.6818, 34.4962, 3.39056, -56.3953, -2.08461
4.868, 10, 2.78269, 17.706, 34.5077, 3.33179, -56.4843, -2.04702
4.872, 10, 2.7367, 17.7305, 34.5187, 3.27316, -56.5733, -2.00956
4.876, 10, 2.69071, 17.7553, 34.5295, 3.21465, -56.6623, -1.97224
4.88, 10, 2.64472, 17.7803, 34.5399, 3.15627, -56.7513, -1.93505
4.884, 10, 2.59872, 17.8056, 34.5499, 3.09802, -56.8402, -1.89799
4.888, 10, 2.55273, 17.8312, 34.5595, 3.03991, -56.9291, -1.86107
4.892, 10, 2.50674, 17.8571, 34.5687, 2.98192, -57.0179, -1.82428
4.896, 10, 2.46076, 17.8833, 34.5776, 2.92406, -57.1068, -1.78763
4.9, 10, 2.41478, 17.9098, 34.586, 2.86633, -57.1956, -1.75111
4.904, 10, 2.3688, 17.9366, 34.5941, 2.80873, -57.2843, -1.71472
4.908, 10, 2.32283, 17.9637, 34.6017, 2.75126, -57.373, -1.67847
4.912, 10, 2.27686, 17.9912, 34.6089, 2.69392, -57.4617, -1.64235
4.916, 10, 2.2309, 18.0189, 34.6157, 2.63672, -57.5503, -1.60637
4.92, 10, 2.18495, 18.0469, 34.6221, 2.57965, -57.6389, -1.57052
4.924, 10, 2.13901, 18.0753, 34.628, 2.52271, -57.7274, -1.5348
4.928, 10, 2.09308, 18.1039, 34.6336, 2.46591, -57.8159, -1.49922
4.932, 10, 2.04715, 18.1329, 34.6387, 2.40925, -57.9043, -1.46377
4.936, 10, 2.00124, 18.1622, 34.6434, 2.35273, -57.9927, -1.42846
4.94, 10, 1.95534, 18.1918, 34.6477, 2.29634, -58.081, -1.39329
4.944, 10, 1.90945, 18.2217, 34.6516, 2.2401, -58.1692, -1.35825
4.948, 10, 1.86357, 18.2519, 34.655, 2.184, -58.2574, -1.32335
4.952, 10, 1.81771, 18.2824, 34.6581, 2.12804, -58.3455, -1.28859
4.956, 10, 1.77187, 18.3133, 34.6607, 2.07222, -58.4336, -1.25396
4.96, 10, 1.72605, 18.3444, 34.6629, 2.01655, -58.5215, -1.21947
4.964, 10, 1.68024, 18.3758, 34.6647, 1.96103, -58.6094, -1.18512
4.968, 10, 1.63446, 18.4076, 34.666, 1.90565, -58.6972, -1.1509
4.972, 10, 1.58871, 18.4396, 34.667, 1.85041, -58.7849, -1.11682
4.976, 10, 1.54298, 18.4719, 34.6675, 1.79533, -58.8725, -1.08288
4.98, 10, 1.49727, 18.5046, 34.6676, 1.74039, -58.9601, -1.04908
4.984, 10, 1.4516, 18.5375, 34.6673, 1.6856, -59.0475, -1.01542
4.988, 10, 1.40595, 18.5707, 34.6666, 1.63096, -59.1349, -0.981887
4.992, 10, 1.36033, 18.6042, 34.6655, 1.57647, -59.2221, -0.948494
4.996, 10, 1.31474, 18.638, 34.6639, 1.52213, -59.3093, -0.915238
5, 10, 1.26919, 18.6721, 34.662, 1.46794, -59.3964, -0.882118
5.004, 10, 1.22367, 18.7065, 34.6596, 1.4139, -59.4834, -0.849134
5.008, 10, 1.17818, 18.7412, 34.6568, 1.36002, -59.5702, -0.816285
5.012, 10, 1.13273, 18.7761, 34.6536, 1.30629, -59.657, -0.783571
5.016, 10, 1.08732, 18.8114, 34.65, 1.25271, -59.7437, -0.750993
5.02, 10, 1.04195, 18.8469, 34.646, 1.19928, -59.8303, -0.71855
5.024, 10, 0.99662, 18.8827, 34.6415, 1.14601, -59.9168, -0.686241
5.028, 10, 0.95133, 18.9188, 34.6367, 1.09289, -60.0032, -0.654067
5.032, 10, 0.906083, 18.9552, 34.6314, 1.03993, -60.0895, -0.622026
5.036, 10, 0.860881, 18.9918, 34.6258, 0.987122, -60.1756, -0.59012
5.04, 10, 0.815723, 19.0287, 34.6197, 0.934472, -60.2617, -0.558348
5.044, 10, 0.770613, 19.066, 34.6132, 0.881979, -60.3477, -0.526709
5.048, 10, 0.72555, 19.1034, 34.6063, 0.829644, -60.4336, -0.495204
5.052, 10, 0.680537, 19.1412, 34.599, 0.777466, -60.5193, -0.463832
5.056, 10, 0.635574, 19.1792, 34.5913, 0.725447, -60.605, -0.432593
5.06, 10, 0.590663, 19.2176, 34.5832, 0.673588, -60.6905, -0.401486
5.064, 10, 0.545805, 19.2561, 34.5747, 0.621888, -60.776, -0.370512
5.068, 10, 0.501001, 19.295, 34.5658, 0.570348, -60.8613, -0.339671
5.072, 10, 0.456252, 19.3341, 34.5565, 0.518969, -60.9465, -0.308962
5.076, 10, 0.41156, 19.3735, 34.5468, 0.467752, -61.0317, -0.278385
5.08, 10, 0.366927, 19.4132, 34.5366, 0.416697, -61.1167, -0.24794
5.084, 10, 0.322352, 19.4531, 34.5261, 0.365804, -61.2015, -0.217626
5.088, 10, 0.277838, 19.4933, 34.5151, 0.315075, -61.2863, -0.187445
5.092, 10, 0.233385, 19.5338, 34.5038, 0.264509, -61.371, -0.157394
5.096, 10, 0.188995, 19.5745, 34.4921, 0.214108, -61.4555, -0.127475
5.1, 10, 0.144669, 19.6155, 34.4799, 0.163871, -61.54, -0.0976874
5.104, 10, 0.100408, 19.6568, 34.4674, 0.1138, -61.6243, -0.0680304
5.108, 10, 0.0562136, 19.6983, 34.4544, 0.0638952, -61.7085, -0.0385043
5.112, 10, 0.0120864, 19.7401, 34.4411, 0.0141569, -61.7926, -0.00910885
5.116, 10, -0.0319719, 19.7822, 34.4273, -0.035414, -61.8766, 0.020156
5.12, 10, -0.0759601, 19.8245, 34.4132, -0.0848171, -61.9604, 0.0492904
5.124, 10, -0.119877, 19.867, 34.3986, -0.134052, -62.0442, 0.0782945
5.128, 10, -0.163721, 19.9099, 34.3837, -0.183117, -62.1278, 0.107168
5.132, 10, -0.207492, 19.9529, 34.3683, -0.232013, -62.2113, 0.135912
5.136, 10, -0.251187, 19.9963, 34.3526, -0.280739, -62.2946, 0.164526
5.14, 10, -0.294807, 20.0399, 34.3364, -0.329294, -62.3779, 0.19301
5.144, 10, -0.338349, 20.0837, 34.3199, -0.377677, -62.461, 0.221364
5.148, 10, -0.381813, 20.1278, 34.3029, -0.425889, -62.544, 0.249589
5.152, 10, -0.425198, 20.1722, 34.2856, -0.473927, -62.6269, 0.277684
5.156, 10, -0.468502, 20.2168, 34.2678, -0.521793, -62.7096, 0.30565
5.16, 10, -0.511724, 20.2617, 34.2497, -0.569484, -62.7922, 0.333486
5.164, 10, -0.554862, 20.3068, 34.2312, -0.617001, -62.8747, 0.361193
5.168, 10, -0.597917, 20.3522, 34.2122, -0.664343, -62.9571, 0.388771
5.172, 10, -0.640886, 20.3978, 34.1929, -0.711508, -63.0393, 0.416219
5.176, 10, -0.683769, 20.4437, 34.1731, -0.758498, -63.1214, 0.443539
5.18, 10, -0.726564, 20.4898, 34.153, -0.80531, -63.2034, 0.47073
5.184, 10, -0.769269, 20.5361, 34.1325, -0.851945, -63.2852, 0.497792
5.188, 10, -0.811885, 20.5827, 34.1116, -0.898402, -63.367, 0.524725
5.192, 10, -0.854409, 20.6296, 34.0902, -0.944679, -63.4485, 0.551529
5.196, 10, -0.896841, 20.6767, 34.0685, -0.990777, -63.53, 0.578205
5.2, 10, -0.93918, 20.7241, 34.0464, -1.0367, -63.6113, 0.604752
5.204, 10, -0.981423, 20.7716, 34.0239, -1.08243, -63.6925, 0.63117
5.208, 10, -1.02357, 20.8195, 34.001, -1.12799, -63.7735, 0.65746
5.212, 10, -1.06562, 20.8676, 33.9777, -1.17336, -63.8544, 0.683621
5.216, 10, -1.10758, 20.9159, 33.954, -1.21855, -63.9352, 0.709654
5.22, 10, -1.14943, 20.9644, 33.9299, -1.26356, -64.0158, 0.735559
5.224, 10, -1.19118, 21.0133, 33.9054, -1.30838, -64.0963, 0.761335
5.228, 10, -1.23283, 21.0623, 33.8805, -1.35302, -64.1766, 0.786983
5.232, 10, -1.27438, 21.1116, 33.8552, -1.39747, -64.2568, 0.812503
5.236, 10, -1.31583, 21.1611, 33.8295, -1.44174, -64.3369, 0.837895
5.24, 10, -1.35717, 21.2108, 33.8034, -1.48582, -64.4168, 0.863159
5.244, 10, -1.39841, 21.2608, 33.7769, -1.52971, -64.4966, 0.888296
5.248, 10, -1.43954, 21.311, 33.7501, -1.57342, -64.5762, 0.913305
5.252, 10, -1.48056, 21.3615, 33.7228, -1.61694, -64.6556, 0.938188
5.256, 10, -1.52147, 21.4122, 33.6951, -1.66027, -64.7349, 0.962944
5.26, 10, -1.56227, 21.4631, 33.6671, -1.70341, -64.8141, 0.987574
5.264, 10, -1.60295, 21.5142, 33.6386, -1.74637, -64.8931, 1.01208
5.268, 10, -1.64351, 21.5656, 33.6098, -1.78914, -64.9719, 1.03646
5.272, 10, -1.68395, 21.6171, 33.5805, -1.83171, -65.0506, 1.06071
5.276, 10, -1.72427, 21.669, 33.5509, -1.8741, -65.1291, 1.08484
5.28, 10, -1.76448, 21.721, 33.5209, -1.9163, -65.2074, 1.10884
5.284, 10, -1.80457, 21.7732, 33.4905, -1.9583, -65.2855, 1.13272
5.288, 10, -1.84454, 21.8257, 33.4597, -2.00011, -65.3634, 1.15648
5.292, 10, -1.88441, 21.8784, 33.4285, -2.04173, -65.4412, 1.18011
5.296, 10, -1.92416, 21.9313, 33.3969, -2.08315, -65.5188, 1.20361
5.3, 10, -1.9638, 21.9844, 33.3649, -2.12438, -65.5962, 1.22699
5.304, 10, -2.00333, 22.0377, 33.3325, -2.16541, -65.6734, 1.25026
5.308, 10, -2.04276, 22.0912, 33.2997, -2.20625, -65.7504, 1.27339
5.312, 10, -2.08208, 22.1449, 33.2666, -2.2469, -65.8272, 1.29641
5.316, 10, -2.1213, 22.1989, 33.2331, -2.28736, -65.9038, 1.31931
5.32, 10, -2.16042, 22.253, 33.1992, -2.32763, -65.9803, 1.34209
5.324, 10, -2.19944, 22.3072, 33.1649, -2.36772, -66.0565, 1.36475
5.328, 10, -2.23835, 22.3617, 33.1303, -2.40762, -66.1326, 1.3873
5.332, 10, -2.27717, 22.4163, 33.0954, -2.44734, -66.2085, 1.40974
5.336, 11, -2.31588, 22.4711, 33.0601, -2.48689, -66.2843, 1.43208
5.34, 11, -2.35449, 22.5261, 33.0245, -2.52628, -66.3598, 1.4543
5.344, 11, -2.393, 22.5812, 32.9886, -2.56549, -66.4352, 1.47642
5.348, 11, -2.43141, 22.6364, 32.9523, -2.60455, -66.5105, 1.49844
5.352, 11, -2.46973, 22.6918, 32.9158, -2.64344, -66.5855, 1.52037
5.356, 11, -2.50796, 22.7474, 32.8791, -2.68219, -66.6604, 1.5422
5.36, 11, -2.54611, 22.803, 32.842, -2.72079, -66.7352, 1.56394
5.364, 11, -2.58417, 22.8588, 32.8047, -2.75925, -66.8098, 1.58558
5.368, 11, -2.62215, 22.9146, 32.7672, -2.79757, -66.8843, 1.60715
5.372, 11, -2.66006, 22.9706, 32.7294, -2.83575, -66.9586, 1.62863
5.376, 11, -2.69789, 23.0266, 32.6914, -2.87381, -67.0328, 1.65003
5.38, 11, -2.73566, 23.0828, 32.6532, -2.91174, -67.1068, 1.67135
5.384, 11, -2.77336, 23.139, 32.6148, -2.94955, -67.1807, 1.69259
5.388, 11, -2.811, 23.1953, 32.5762, -2.98725, -67.2545, 1.71377
5.392, 11, -2.84858, 23.2516, 32.5375, -3.02484, -67.3281, 1.73487
5.396, 11, -2.88611, 23.308, 32.4986, -3.06232, -67.4017, 1.75591
5.4, 11, -2.92357, 23.3644, 32.4595, -3.0997, -67.4751, 1.77688
5.404, 11, -2.96097, 23.4209, 32.4203, -3.13698, -67.5484, 1.7978
5.408, 11, -2.99832, 23.4774, 32.3809, -3.17417, -67.6216, 1.81865
5.412, 11, -3.03562, 23.534, 32.3415, -3.21126, -67.6946, 1.83945
5.416, 11, -3.07286, 23.5906, 32.3019, -3.24827, -67.7676, 1.86019
5.42, 11, -3.11005, 23.6472, 32.2621, -3.28519, -67.8404, 1.88087
5.424, 11, -3.14719, 23.7038, 32.2223, -3.32202, -67.9132, 1.9015
5.428, 11, -3.18429, 23.7605, 32.1824, -3.35877, -67.9858, 1.92208
5.432, 11, -3.22134, 23.8172, 32.1423, -3.39543, -68.0583, 1.94261
5.436, 11, -3.25835, 23.8739, 32.1022, -3.43201, -68.1308, 1.96308
5.44, 11, -3.29532, 23.9306, 32.0619, -3.46851, -68.2031, 1.98351
5.444, 11, -3.33225, 23.9874, 32.0215, -3.50493, -68.2753, 2.00388
5.448, 11, -3.36914, 24.0441, 31.981, -3.54126, -68.3475, 2.02421
5.452, 11, -3.406, 24.1009, 31.9404, -3.57751, -68.4195, 2.04448
5.456, 11, -3.44282, 24.1577, 31.8997, -3.61367, -68.4914, 2.0647
5.46, 11, -3.47962, 24.2146, 31.8589, -3.64975, -68.5632, 2.08487
5.464, 11, -3.51638, 24.2714, 31.8179, -3.68574, -68.635, 2.10499
5.468, 11, -3.5531, 24.3283, 31.7769, -3.72166, -68.7066, 2.12506
5.472, 11, -3.5898, 24.3852, 31.7357, -3.75748, -68.7782, 2.14508
5.476, 11, -3.62645, 24.4421, 31.6944, -3.79323, -68.8497, 2.16505
5.48, 11, -3.66308, 24.499, 31.653, -3.82889, -68.9211, 2.18497
5.484, 11, -3.69966, 24.556, 31.6115, -3.86446, -68.9924, 2.20484
5.488, 11, -3.73621, 24.613, 31.5699, -3.89995, -69.0636, 2.22466
5.492, 11, -3.77273, 24.67, 31.5281, -3.93536, -69.1347, 2.24444
5.496, 11, -3.8092, 24.727, 31.4863, -3.97068, -69.2058, 2.26416
5.5, 11, -3.84564, 24.7841, 31.4443, -4.00592, -69.2768, 2.28384
5.504, 11, -3.88205, 24.8412, 31.4022, -4.04108, -69.3477, 2.30347
5.508, 11, -3.91842, 24.8983, 31.36, -4.07616, -69.4185, 2.32305
5.512, 11, -3.95475, 24.9555, 31.3177, -4.11115, -69.4893, 2.34258
5.516, 11, -3.99104, 25.0127, 31.2752, -4.14606, -69.56, 2.36207
5.52, 11, -4.0273, 25.0699, 31.2327, -4.18089, -69.6305, 2.3815
5.524, 11, -4.06352, 25.1271, 31.19, -4.21563, -69.7011, 2.4009
5.528, 11, -4.09971, 25.1844, 31.1472, -4.2503, -69.7715, 2.42025
5.532, 11, -4.13586, 25.2417, 31.1043, -4.28488, -69.8419, 2.43955
5.536, 11, -4.17197, 25.299, 31.0613, -4.31938, -69.9121, 2.4588
5.54, 11, -4.20805, 25.3563, 31.0182, -4.3538, -69.9823, 2.47802
5.544, 11, -4.24409, 25.4137, 30.9749, -4.38814, -70.0524, 2.49718
5.548, 11, -4.28009, 25.4711, 30.9315, -4.4224, -70.1225, 2.51631
5.552, 11, -4.31606, 25.5285, 30.8881, -4.45658, -70.1924, 2.53539
5.556, 11, -4.35199, 25.586, 30.8445, -4.49067, -70.2623, 2.55442
5.56, 11, -4.38788, 25.6435, 30.8007, -4.52469, -70.3321, 2.57342
5.564, 11, -4.42373, 25.701, 30.7569, -4.55863, -70.4018, 2.59237
5.568, 11, -4.45955, 25.7585, 30.713, -4.59249, -70.4714, 2.61127
5.572, 11, -4.49534, 25.8161, 30.6689, -4.62627, -70.5409, 2.63014
5.576, 11, -4.53108, 25.8737, 30.6247, -4.65996, -70.6104, 2.64896
5.58, 11, -4.56679, 25.9313, 30.5804, -4.69358, -70.6797, 2.66774
5.584, 11, -4.60246, 25.9889, 30.536, -4.72713, -70.749, 2.68649
5.588, 11, -4.6381, 26.0466, 30.4915, -4.76059, -70.8182, 2.70519
5.592, 11, -4.6737, 26.1043, 30.4469, -4.79397, -70.8873, 2.72385
5.596, 11, -4.70926, 26.162, 30.4021, -4.82728, -70.9563, 2.74246
5.6, 11, -4.74479, 26.2197, 30.3572, -4.86051, -71.0253, 2.76104
5.604, 11, -4.78028, 26.2775, 30.3123, -4.89366, -71.0941, 2.77958
5.608, 11, -4.81573, 26.3353, 30.2672, -4.92673, -71.1629, 2.79808
5.612, 12, -4.85114, 26.3931, 30.2219, -4.95972, -71.2316, 2.81655
5.616, 12, -4.88652, 26.4509, 30.1766, -4.99264, -71.3002, 2.83497
5.62, 12, -4.92186, 26.5088, 30.1312, -5.02548, -71.3687, 2.85335
5.624, 12, -4.95717, 26.5666, 30.0856, -5.05824, -71.4371, 2.8717
5.628, 12, -4.99244, 26.6245, 30.0399, -5.09093, -71.5054, 2.89001
5.632, 12, -5.02767, 26.6825, 29.9941, -5.12354, -71.5737, 2.90828
5.636, 12, -5.06286, 26.7404, 29.9482, -5.15607, -71.6418, 2.92651
5.64, 12, -5.09802, 26.7984, 29.9022, -5.18853, -71.7099, 2.94471
5.644, 12, -5.13314, 26.8564, 29.8561, -5.22091, -71.7779, 2.96287
5.648, 12, -5.16822, 26.9144, 29.8098, -5.25321, -71.8458, 2.981
5.652, 12, -5.20327, 26.9725, 29.7634, -5.28544, -71.9136, 2.99908
5.656, 12, -5.23828, 27.0305, 29.7169, -5.3176, -71.9813, 3.01714
5.66, 12, -5.27325, 27.0886, 29.6703, -5.34967, -72.049, 3.03516
5.664, 12, -5.30818, 27.1467, 29.6236, -5.38167, -72.1165, 3.05314
5.668, 12, -5.34308, 27.2049, 29.5768, -5.4136, -72.184, 3.07109
5.672, 12, -5.37794, 27.2631, 29.5299, -5.44545, -72.2514, 3.089
5.676, 12, -5.41277, 27.3212, 29.4828, -5.47723, -72.3186, 3.10688
5.68, 12, -5.44755, 27.3794, 29.4356, -5.50893, -72.3858, 3.12472
5.684, 12, -5.48231, 27.4377, 29.3883, -5.54056, -72.4529, 3.14254
5.688, 12, -5.51702, 27.4959, 29.3409, -5.57212, -72.52, 3.16032
5.692, 12, -5.5517, 27.5542, 29.2934, -5.6036, -72.5869, 3.17806
5.696, 12, -5.58634, 27.6125, 29.2458, -5.635, -72.6537, 3.19577
5.7, 12, -5.62094, 27.6708, 29.198, -5.66634, -72.7205, 3.21345
5.704, 12, -5.6555, 27.7292, 29.1501, -5.69759, -72.7871, 3.2311
5.708, 12, -5.69003, 27.7875, 29.1021, -5.72878, -72.8537, 3.24872
5.712, 12, -5.72452, 27.8459, 29.054, -5.75989, -72.9202, 3.26631
5.716, 12, -5.75898, 27.9043, 29.0058, -5.79093, -72.9866, 3.28386
5.72, 12, -5.79339, 27.9628, 28.9575, -5.82189, -73.0529, 3.30138
5.724, 12, -5.82777, 28.0212, 28.9091, -5.85279, -73.1191, 3.31887
5.728, 12, -5.86211, 28.0797, 28.8605, -5.88361, -73.1853, 3.33634
5.732, 12, -5.89642, 28.1382, 28.8118, -5.91435, -73.2513, 3.35377
5.736, 12, -5.93069, 28.1967, 28.763, -5.94503, -73.3173, 3.37117
5.74, 12, -5.96492, 28.2552, 28.7141, -5.97563, -73.3831, 3.38854
5.744, 12, -5.99911, 28.3138, 28.6651, -6.00616, -73.4489, 3.40588
5.748, 12, -6.03327, 28.3724, 28.616, -6.03662, -73.5146, 3.4232
5.752, 12, -6.06739, 28.431, 28.5667, -6.067, -73.5802, 3.44048
5.756, 12, -6.10147, 28.4896, 28.5174, -6.09732, -73.6457, 3.45774
5.76, 12, -6.13552, 28.5483, 28.4679, -6.12756, -73.7111, 3.47497
5.764, 12, -6.16952, 28.6069, 28.4183, -6.15773, -73.7765, 3.49217
5.768, 12, -6.2035, 28.6656, 28.3686, -6.18782, -73.8417, 3.50934
5.772, 12, -6.23743, 28.7244, 28.3187, -6.21785, -73.9069, 3.52648
5.776, 12, -6.27133, 28.7831, 28.2688, -6.24781, -73.9719, 3.5436
5.78, 12, -6.30519, 28.8419, 28.2187, -6.27769, -74.0369, 3.56069
5.784, 12, -6.33901, 28.9006, 28.1686, -6.30751, -74.1018, 3.57775
5.788, 12, -6.37279, 28.9594, 28.1183, -6.33725, -74.1666, 3.59478
5.792, 12, -6.40654, 29.0183, 28.0679, -6.36692, -74.2314, 3.61179
5.796, 12, -6.44025, 29.0771, 28.0174, -6.39652, -74.296, 3.62878
5.8, 12, -6.47392, 29.136, 27.9667, -6.42605, -74.3605, 3.64574
5.804, 12, -6.50756, 29.1949, 27.916, -6.45551, -74.425, 3.66267
5.808, 12, -6.54116, 29.2538, 27.8651, -6.4849, -74.4894, 3.67958
5.812, 12, -6.57472, 29.3127, 27.8141, -6.51422, -74.5537, 3.69646
5.816, 12, -6.60824, 29.3717, 27.763, -6.54347, -74.6179, 3.71332
5.82, 12, -6.64173, 29.4307, 27.7118, -6.57265, -74.682, 3.73015
5.824, 12, -6.67518, 29.4897, 27.6605, -6.60176, -74.746, 3.74696
5.828, 12, -6.70859, 29.5487, 27.609, -6.6308, -74.8099, 3.76374
5.832, 12, -6.74197, 29.6077, 27.5575, -6.65977, -74.8738, 3.7805
5.836, 12, -6.7753, 29.6668, 27.5058, -6.68867, -74.9375, 3.79724
5.84, 12, -6.8086, 29.7259, 27.454, -6.7175, -75.0012, 3.81395
5.844, 12, -6.84187, 29.785, 27.4021, -6.74626, -75.0648, 3.83064
5.848, 12, -6.87509, 29.8441, 27.3501, -6.77496, -75.1282, 3.84731
5.852, 12, -6.90828, 29.9032, 27.298, -6.80358, -75.1916, 3.86396
5.856, 12, -6.94143, 29.9624, 27.2457, -6.83213, -75.2549, 3.88058
5.86, 12, -6.97455, 30.0216, 27.1933, -6.86062, -75.3182, 3.89718
5.864, 12, -7.00762, 30.0808, 27.1409, -6.88904, -75.3813, 3.91376
5.868, 12, -7.04066, 30.14, 27.0883, -6.91739, -75.4443, 3.93032
5.872, 12, -7.07366, 30.1993, 27.0356, -6.94567, -75.5073, 3.94686
5.876, 12, -7.10663, 30.2585, 26.9827, -6.97388, -75.5701, 3.96338
5.88, 12, -7.13956, 30.3178, 26.9298, -7.00203, -75.6329, 3.97987
5.884, 12, -7.17245, 30.3771, 26.8767, -7.0301, -75.6956, 3.99635
5.888, 13, -7.2053, 30.4365, 26.8236, -7.05811, -75.7582, 4.0128
5.892, 13, -7.23812, 30.4958, 26.7703, -7.08605, -75.8206, 4.02923
5.896, 13, -7.2709, 30.5552, 26.7169, -7.11392, -75.8831, 4.04565
5.9, 13, -7.30364, 30.6146, 26.6633, -7.14173, -75.9454, 4.06204
5.904, 13, -7.33634, 30.674, 26.6097, -7.16946, -76.0076, 4.07842
5.908, 13, -7.36901, 30.7334, 26.5559, -7.19713, -76.0697, 4.09478
5.912, 13, -7.40164, 30.7929, 26.5021, -7.22474, -76.1318, 4.11111
5.916, 13, -7.43423, 30.8523, 26.4481, -7.25227, -76.1937, 4.12743
5.92, 13, -7.46679, 30.9118, 26.394, -7.27974, -76.2556, 4.14373
5.924, 13, -7.49931, 30.9713, 26.3398, -7.30714, -76.3174, 4.16001
5.928, 13, -7.53179, 31.0308, 26.2854, -7.33447, -76.379, 4.17628
5.932, 13, -7.56423, 31.0904, 26.231, -7.36174, -76.4406, 4.19252
5.936, 13, -7.59664, 31.15, 26.1764, -7.38894, -76.5021, 4.20875
5.94, 13, -7.62901, 31.2096, 26.1218, -7.41607, -76.5635, 4.22497
