hehonglu123/ABB_Primitive_Study/execution/movelcl_30_car2/curve_exe_v300_z10.csv
timestamp, cmd_num, J1, J2, J3, J4, J5, J6
0, -1, -13.4393, 43.6787, 12.5946, -11.6275, -87.029, 7.42441
0.002, -1, -13.4393, 43.6787, 12.5946, -11.6275, -87.029, 7.42441
0.006, -1, -13.4393, 43.6787, 12.5946, -11.6275, -87.029, 7.42441
0.008, -1, -13.4393, 43.6787, 12.5946, -11.6275, -87.029, 7.42441
0.011, -1, -13.4393, 43.6787, 12.5946, -11.6275, -87.029, 7.42441
0.016, -1, -13.4393, 43.6787, 12.5946, -11.6275, -87.029, 7.42441
0.02, -1, -13.4393, 43.6787, 12.5946, -11.6275, -87.029, 7.42441
0.024, -1, -13.4393, 43.6787, 12.5946, -11.6275, -87.029, 7.42441
0.028, -1, -13.4393, 43.6787, 12.5946, -11.6275, -87.029, 7.42441
0.032, -1, -13.4393, 43.6787, 12.5946, -11.6275, -87.029, 7.42441
0.036, -1, -13.4393, 43.6787, 12.5946, -11.6275, -87.029, 7.42441
0.04, -1, -13.4392, 43.6786, 12.5946, -11.6275, -87.029, 7.42441
0.044, -1, -13.439, 43.6785, 12.5946, -11.6275, -87.029, 7.42441
0.048, -1, -13.4384, 43.678, 12.5947, -11.6275, -87.029, 7.42439
0.052, -1, -13.4372, 43.6772, 12.5949, -11.6274, -87.0289, 7.42434
0.056, -1, -13.4355, 43.6758, 12.5951, -11.6273, -87.0287, 7.42422
0.06, -1, -13.433, 43.6738, 12.5955, -11.627, -87.0284, 7.42397
0.064, -1, -13.4296, 43.671, 12.5961, -11.6264, -87.0277, 7.42349
0.068, -1, -13.4254, 43.6675, 12.5969, -11.6253, -87.0264, 7.42266
0.072, -1, -13.4203, 43.6631, 12.598, -11.6236, -87.0244, 7.42132
0.076, -1, -13.4141, 43.6579, 12.5994, -11.6209, -87.0213, 7.41928
0.08, -1, -13.4066, 43.6516, 12.6011, -11.617, -87.0167, 7.4163
0.084, -1, -13.3977, 43.6442, 12.6034, -11.6115, -87.0103, 7.41213
0.088, -1, -13.3869, 43.6352, 12.6062, -11.604, -87.0016, 7.40644
0.092, -1, -13.3743, 43.6247, 12.6097, -11.5941, -86.9899, 7.39892
0.096, -1, -13.3596, 43.6124, 12.6138, -11.5812, -86.9748, 7.38918
0.1, -1, -13.3427, 43.5982, 12.6186, -11.5648, -86.9557, 7.37685
0.104, -1, -13.3235, 43.582, 12.6243, -11.5444, -86.9319, 7.36155
0.108, -1, -13.3019, 43.5636, 12.6308, -11.5196, -86.9029, 7.3429
0.112, -1, -13.2776, 43.5427, 12.6382, -11.4899, -86.868, 7.32054
0.116, -1, -13.2505, 43.5193, 12.6467, -11.4547, -86.8269, 7.29416
0.12, -1, -13.2206, 43.4932, 12.6562, -11.4137, -86.7789, 7.26346
0.124, -1, -13.1877, 43.4644, 12.6669, -11.3667, -86.7238, 7.22818
0.128, -1, -13.1519, 43.4328, 12.6786, -11.3132, -86.6612, 7.18814
0.131, -1, -13.113, 43.3984, 12.6916, -11.2532, -86.591, 7.14319
0.136, -1, -13.071, 43.3611, 12.7056, -11.1865, -86.5129, 7.09326
0.139, -1, -13.026, 43.321, 12.7209, -11.1131, -86.4269, 7.03835
0.144, -1, -12.9779, 43.2779, 12.7373, -11.0331, -86.3333, 6.9785
0.148, -1, -12.9267, 43.232, 12.7548, -10.9467, -86.2321, 6.91384
0.152, -1, -12.8726, 43.1833, 12.7734, -10.854, -86.1236, 6.84454
0.156, -1, -12.8155, 43.132, 12.7932, -10.7555, -86.0082, 6.77084
0.16, -1, -12.7557, 43.0781, 12.8139, -10.6514, -85.8863, 6.69301
0.164, -1, -12.6932, 43.0219, 12.8355, -10.5422, -85.7585, 6.61137
0.168, -1, -12.6282, 42.9633, 12.8581, -10.4284, -85.6253, 6.52627
0.172, -1, -12.5607, 42.9025, 12.8815, -10.3105, -85.4872, 6.43809
0.176, -1, -12.4909, 42.8396, 12.9056, -10.189, -85.3449, 6.34721
0.18, -1, -12.4189, 42.7749, 12.9305, -10.0644, -85.1989, 6.25399
0.184, -1, -12.345, 42.7085, 12.956, -9.93711, -85.0499, 6.15879
0.188, -1, -12.2694, 42.6406, 12.9821, -9.80765, -84.8983, 6.06194
0.192, -1, -12.1925, 42.5714, 13.0086, -9.6764, -84.7446, 5.96375
0.196, -1, -12.1142, 42.5011, 13.0356, -9.54373, -84.5892, 5.86449
0.2, -1, -12.0348, 42.4297, 13.0629, -9.40995, -84.4326, 5.76439
0.204, -1, -11.9542, 42.3573, 13.0906, -9.27534, -84.2749, 5.66366
0.208, -1, -11.8724, 42.2841, 13.1185, -9.14011, -84.1166, 5.56246
0.212, -1, -11.7897, 42.21, 13.1466, -9.00443, -83.9577, 5.46092
0.216, -1, -11.7061, 42.1354, 13.1749, -8.86843, -83.7985, 5.35913
0.22, -1, -11.6218, 42.0602, 13.2033, -8.7322, -83.6389, 5.25717
0.224, -1, -11.5371, 41.9847, 13.2318, -8.5958, -83.4792, 5.15507
0.228, -1, -11.452, 41.909, 13.2603, -8.45928, -83.3194, 5.05288
0.232, -1, -11.3667, 41.8332, 13.2889, -8.32266, -83.1594, 4.95062
0.236, -1, -11.2813, 41.7572, 13.3176, -8.18597, -82.9993, 4.8483
0.24, -1, -11.1957, 41.6811, 13.3462, -8.04922, -82.8392, 4.74595
0.244, -1, -11.11, 41.605, 13.3749, -7.91243, -82.679, 4.64355
0.248, -1, -11.0243, 41.5288, 13.4035, -7.77561, -82.5188, 4.54114
0.252, -1, -10.9386, 41.4526, 13.4322, -7.63876, -82.3586, 4.4387
0.256, -1, -10.8528, 41.3764, 13.4609, -7.50189, -82.1983, 4.33625
0.26, -1, -10.767, 41.3002, 13.4896, -7.36501, -82.0381, 4.2338
0.264, -1, -10.6811, 41.2239, 13.5183, -7.22813, -81.8778, 4.13133
0.268, -1, -10.5953, 41.1477, 13.547, -7.09125, -81.7175, 4.02887
0.272, -1, -10.5094, 41.0714, 13.5757, -6.95436, -81.5572, 3.92641
0.276, -1, -10.4236, 40.9952, 13.6044, -6.81749, -81.397, 3.82396
0.28, -1, -10.3378, 40.9189, 13.6331, -6.68063, -81.2367, 3.72151
0.284, -1, -10.252, 40.8427, 13.6618, -6.54379, -81.0765, 3.61908
0.288, -1, -10.1661, 40.7665, 13.6904, -6.40697, -80.9163, 3.51666
0.292, -1, -10.0803, 40.6903, 13.7191, -6.27017, -80.7561, 3.41427
0.296, -1, -9.99456, 40.6141, 13.7478, -6.13341, -80.596, 3.31189
0.3, -1, -9.9088, 40.538, 13.7764, -5.99668, -80.4359, 3.20955
0.304, -1, -9.82306, 40.4618, 13.8051, -5.85999, -80.2758, 3.10723
0.308, -1, -9.73734, 40.3857, 13.8337, -5.72334, -80.1158, 3.00494
0.312, -1, -9.65166, 40.3096, 13.8624, -5.58674, -79.9558, 2.90269
0.316, -1, -9.566, 40.2336, 13.891, -5.45019, -79.796, 2.80048
0.32, -1, -9.48038, 40.1575, 13.9196, -5.31369, -79.6361, 2.69831
0.324, -1, -9.3948, 40.0815, 13.9482, -5.17726, -79.4764, 2.59618
0.328, -1, -9.30925, 40.0055, 13.9768, -5.04089, -79.3167, 2.4941
0.332, -1, -9.22375, 39.9296, 14.0054, -4.90458, -79.1571, 2.39207
0.336, -1, -9.13829, 39.8537, 14.0339, -4.76835, -78.9976, 2.2901
0.34, -1, -9.05287, 39.7778, 14.0625, -4.63219, -78.8382, 2.18818
0.344, -1, -8.9675, 39.702, 14.091, -4.49612, -78.6788, 2.08632
0.348, -1, -8.88219, 39.6262, 14.1195, -4.36012, -78.5196, 1.98452
0.352, -1, -8.79692, 39.5505, 14.148, -4.22421, -78.3604, 1.88279
0.356, -1, -8.71172, 39.4748, 14.1765, -4.0884, -78.2014, 1.78113
0.36, -1, -8.62657, 39.3992, 14.2049, -3.95267, -78.0425, 1.67953
0.364, -1, -8.54148, 39.3236, 14.2334, -3.81705, -77.8837, 1.57801
0.368, -1, -8.45646, 39.2481, 14.2618, -3.68152, -77.725, 1.47657
0.372, -1, -8.3715, 39.1727, 14.2902, -3.54611, -77.5664, 1.3752
0.376, -1, -8.28661, 39.0973, 14.3185, -3.4108, -77.408, 1.27392
0.38, -1, -8.20179, 39.0219, 14.3469, -3.2756, -77.2497, 1.17272
0.384, -1, -8.11704, 38.9467, 14.3752, -3.14052, -77.0915, 1.07161
0.388, -1, -8.03237, 38.8715, 14.4035, -3.00557, -76.9335, 0.970588
0.392, -1, -7.94777, 38.7963, 14.4318, -2.87073, -76.7756, 0.869659
0.396, -1, -7.86325, 38.7212, 14.46, -2.73602, -76.6179, 0.768825
0.4, -1, -7.77881, 38.6463, 14.4882, -2.60145, -76.4603, 0.668089
0.404, -1, -7.69446, 38.5713, 14.5164, -2.467, -76.3029, 0.567454
0.408, -1, -7.61019, 38.4965, 14.5446, -2.3327, -76.1456, 0.466921
0.412, -1, -7.526, 38.4217, 14.5727, -2.19854, -75.9885, 0.366494
0.416, -1, -7.44191, 38.347, 14.6008, -2.06452, -75.8316, 0.266176
0.42, -1, -7.35791, 38.2724, 14.6288, -1.93064, -75.6748, 0.165968
0.424, -1, -7.274, 38.1979, 14.6569, -1.79692, -75.5183, 0.0658724
0.428, -1, -7.19019, 38.1235, 14.6849, -1.66336, -75.3619, -0.0341072
0.432, -1, -7.10648, 38.0491, 14.7128, -1.52995, -75.2057, -0.133969
0.436, -1, -7.02287, 37.9748, 14.7408, -1.3967, -75.0496, -0.233711
0.44, -1, -6.93935, 37.9007, 14.7687, -1.26362, -74.8938, -0.33333
0.444, -1, -6.85595, 37.8266, 14.7965, -1.1307, -74.7382, -0.432824
0.448, -1, -6.77264, 37.7526, 14.8244, -0.99795, -74.5827, -0.532191
0.452, -1, -6.68945, 37.6787, 14.8522, -0.865375, -74.4275, -0.631429
0.456, -1, -6.60636, 37.6049, 14.8799, -0.732975, -74.2725, -0.730535
0.46, -1, -6.52339, 37.5312, 14.9077, -0.600755, -74.1176, -0.829507
0.464, -1, -6.44053, 37.4576, 14.9353, -0.468716, -73.963, -0.928344
0.468, -1, -6.35778, 37.3842, 14.963, -0.336861, -73.8086, -1.02704
0.472, -1, -6.27515, 37.3108, 14.9906, -0.205193, -73.6545, -1.1256
0.476, -1, -6.19264, 37.2375, 15.0181, -0.0737153, -73.5005, -1.22402
0.48, -1, -6.11024, 37.1643, 15.0457, 0.0575699, -73.3468, -1.32229
0.484, -1, -6.02797, 37.0912, 15.0732, 0.18866, -73.1933, -1.42042
0.488, -1, -5.94582, 37.0183, 15.1006, 0.319552, -73.04, -1.51839
0.492, -1, -5.8638, 36.9454, 15.128, 0.450244, -72.887, -1.61622
0.496, -1, -5.7819, 36.8727, 15.1554, 0.580734, -72.7342, -1.7139
0.5, -1, -5.70012, 36.8001, 15.1827, 0.711018, -72.5817, -1.81142
0.504, -1, -5.61848, 36.7276, 15.2099, 0.841096, -72.4294, -1.90879
0.508, -1, -5.53697, 36.6552, 15.2372, 0.970964, -72.2773, -2.006
0.512, -1, -5.45558, 36.5829, 15.2644, 1.10062, -72.1255, -2.10306
0.516, -1, -5.37433, 36.5108, 15.2915, 1.23006, -71.9739, -2.19995
0.52, -1, -5.29321, 36.4387, 15.3186, 1.35929, -71.8226, -2.29668
0.524, -1, -5.21223, 36.3668, 15.3456, 1.4883, -71.6715, -2.39325
0.528, -1, -5.13138, 36.295, 15.3726, 1.6171, -71.5207, -2.48966
0.532, -1, -5.05067, 36.2233, 15.3996, 1.74567, -71.3702, -2.5859
0.536, -1, -4.97009, 36.1518, 15.4265, 1.87402, -71.2199, -2.68198
0.54, -1, -4.88966, 36.0803, 15.4534, 2.00215, -71.0698, -2.77789
0.544, -1, -4.80936, 36.009, 15.4802, 2.13005, -70.9201, -2.87363
0.548, -1, -4.7292, 35.9378, 15.507, 2.25773, -70.7706, -2.9692
0.552, -1, -4.64919, 35.8668, 15.5337, 2.38518, -70.6213, -3.0646
0.556, -1, -4.56931, 35.7959, 15.5604, 2.51241, -70.4724, -3.15984
0.56, -1, -4.48958, 35.725, 15.587, 2.6394, -70.3237, -3.2549
0.564, -1, -4.41, 35.6544, 15.6136, 2.76617, -70.1752, -3.34979
0.568, -1, -4.33056, 35.5838, 15.6401, 2.8927, -70.0271, -3.44451
0.572, -1, -4.25126, 35.5134, 15.6666, 3.01901, -69.8792, -3.53905
0.576, -1, -4.17211, 35.4431, 15.693, 3.14508, -69.7316, -3.63342
0.58, -1, -4.0931, 35.373, 15.7194, 3.27092, -69.5842, -3.72761
0.584, -1, -4.01424, 35.3029, 15.7458, 3.39652, -69.4372, -3.82163
0.588, -1, -3.93553, 35.233, 15.772, 3.52189, -69.2904, -3.91547
0.592, -1, -3.85696, 35.1633, 15.7983, 3.64702, -69.1438, -4.00914
0.596, -1, -3.77855, 35.0936, 15.8245, 3.77191, -68.9976, -4.10263
0.6, -1, -3.70028, 35.0241, 15.8506, 3.89657, -68.8516, -4.19594
0.604, -1, -3.62216, 34.9548, 15.8767, 4.02099, -68.7059, -4.28908
0.608, -1, -3.54419, 34.8855, 15.9027, 4.14517, -68.5605, -4.38203
0.612, -1, -3.46637, 34.8164, 15.9287, 4.26911, -68.4154, -4.47481
0.616, -1, -3.3887, 34.7474, 15.9547, 4.39281, -68.2706, -4.5674
0.62, -1, -3.31118, 34.6786, 15.9806, 4.51628, -68.126, -4.65982
0.624, -1, -3.23382, 34.6099, 16.0064, 4.63949, -67.9817, -4.75205
0.628, -1, -3.1566, 34.5413, 16.0322, 4.76247, -67.8377, -4.84411
0.632, -1, -3.07954, 34.4729, 16.0579, 4.88521, -67.694, -4.93598
0.636, -1, -3.00262, 34.4046, 16.0836, 5.0077, -67.5506, -5.02767
0.64, -1, -2.92586, 34.3364, 16.1092, 5.12995, -67.4074, -5.11918
0.644, -1, -2.84926, 34.2684, 16.1348, 5.25195, -67.2646, -5.2105
0.648, -1, -2.7728, 34.2005, 16.1604, 5.37371, -67.122, -5.30165
0.652, -1, -2.6965, 34.1328, 16.1858, 5.49523, -66.9797, -5.39261
0.656, -1, -2.62035, 34.0652, 16.2113, 5.6165, -66.8377, -5.48338
0.66, -1, -2.54436, 33.9977, 16.2366, 5.73753, -66.696, -5.57398
0.664, -1, -2.46852, 33.9303, 16.262, 5.85831, -66.5546, -5.66439
0.668, -1, -2.39283, 33.8631, 16.2872, 5.97884, -66.4135, -5.75461
0.672, -1, -2.3173, 33.7961, 16.3125, 6.09913, -66.2726, -5.84465
0.676, -1, -2.24192, 33.7291, 16.3376, 6.21917, -66.1321, -5.93451
0.68, -1, -2.1667, 33.6623, 16.3628, 6.33897, -65.9918, -6.02418
0.684, -1, -2.09163, 33.5957, 16.3878, 6.45851, -65.8518, -6.11367
0.688, -1, -2.01672, 33.5292, 16.4129, 6.57781, -65.7121, -6.20297
0.692, -1, -1.94196, 33.4628, 16.4378, 6.69687, -65.5727, -6.29208
0.696, -1, -1.86736, 33.3965, 16.4627, 6.81567, -65.4336, -6.38101
0.7, -1, -1.79291, 33.3304, 16.4876, 6.93423, -65.2948, -6.46976
0.704, -1, -1.71862, 33.2645, 16.5124, 7.05254, -65.1562, -6.55832
0.708, -1, -1.64448, 33.1986, 16.5372, 7.1706, -65.018, -6.64669
0.712, -1, -1.5705, 33.1329, 16.5619, 7.28841, -64.8801, -6.73488
0.716, -1, -1.49668, 33.0674, 16.5865, 7.40597, -64.7424, -6.82288
0.72, -1, -1.42301, 33.002, 16.6111, 7.52329, -64.605, -6.9107
0.724, -1, -1.34949, 32.9367, 16.6357, 7.64036, -64.468, -6.99833
0.728, -1, -1.27614, 32.8715, 16.6602, 7.75718, -64.3312, -7.08577
0.732, -1, -1.20293, 32.8065, 16.6846, 7.87375, -64.1947, -7.17303
0.736, -1, -1.12989, 32.7417, 16.709, 7.99007, -64.0585, -7.2601
0.74, -1, -1.057, 32.677, 16.7333, 8.10615, -63.9226, -7.34699
0.744, -1, -0.984259, 32.6124, 16.7576, 8.22197, -63.7869, -7.43369
0.748, -1, -0.911678, 32.5479, 16.7819, 8.33755, -63.6516, -7.52021
0.752, -1, -0.839252, 32.4836, 16.8061, 8.45288, -63.5166, -7.60653
0.756, -1, -0.766981, 32.4194, 16.8302, 8.56796, -63.3818, -7.69268
0.76, -1, -0.694864, 32.3554, 16.8543, 8.6828, -63.2474, -7.77864
0.764, -1, -0.622901, 32.2915, 16.8783, 8.79738, -63.1132, -7.86441
0.768, -1, -0.551092, 32.2277, 16.9023, 8.91172, -62.9793, -7.95
0.772, -1, -0.479437, 32.1641, 16.9262, 9.02582, -62.8457, -8.0354
0.776, -1, -0.407935, 32.1006, 16.9501, 9.13966, -62.7124, -8.12062
0.78, -1, -0.336586, 32.0373, 16.9739, 9.25326, -62.5794, -8.20566
0.784, -1, -0.26539, 31.9741, 16.9977, 9.36662, -62.4467, -8.29051
0.788, -1, -0.194346, 31.911, 17.0214, 9.47973, -62.3142, -8.37518
0.792, -1, -0.123455, 31.848, 17.0451, 9.5926, -62.182, -8.45966
0.796, -1, -0.0527154, 31.7852, 17.0687, 9.70522, -62.0502, -8.54397
0.8, -1, 0.0178725, 31.7226, 17.0923, 9.81761, -61.9186, -8.62809
0.804, -1, 0.0883091, 31.66, 17.1158, 9.92975, -61.7873, -8.71204
0.808, -1, 0.158595, 31.5976, 17.1393, 10.0417, -61.6562, -8.7958
0.812, -1, 0.22873, 31.5353, 17.1627, 10.1533, -61.5255, -8.87938
0.816, -1, 0.298716, 31.4732, 17.186, 10.2647, -61.395, -8.96279
0.82, -1, 0.368552, 31.4112, 17.2094, 10.3759, -61.2648, -9.04602
0.824, -1, 0.438239, 31.3493, 17.2326, 10.4869, -61.1349, -9.12907
0.828, -1, 0.507778, 31.2876, 17.2559, 10.5976, -61.0053, -9.21194
0.832, -1, 0.577169, 31.226, 17.279, 10.7081, -60.8759, -9.29464
0.836, -1, 0.646413, 31.1645, 17.3021, 10.8183, -60.7468, -9.37716
0.84, -1, 0.71551, 31.1031, 17.3252, 10.9283, -60.618, -9.45951
0.844, -1, 0.78446, 31.0419, 17.3482, 11.0381, -60.4895, -9.54168
0.848, -1, 0.853266, 30.9808, 17.3712, 11.1476, -60.3612, -9.62368
0.852, -1, 0.921925, 30.9199, 17.3941, 11.2569, -60.2332, -9.7055
0.856, -1, 0.990441, 30.859, 17.417, 11.366, -60.1055, -9.78716
0.86, -1, 1.05881, 30.7983, 17.4398, 11.4749, -59.9781, -9.86864
0.864, -1, 1.12704, 30.7378, 17.4626, 11.5835, -59.8509, -9.94995
0.868, -1, 1.19512, 30.6773, 17.4854, 11.6919, -59.7239, -10.0311
0.872, -1, 1.26307, 30.617, 17.508, 11.8001, -59.5973, -10.1121
0.876, -1, 1.33087, 30.5568, 17.5307, 11.908, -59.4709, -10.1929
0.88, -1, 1.39853, 30.4967, 17.5533, 12.0157, -59.3448, -10.2735
0.884, -1, 1.46604, 30.4368, 17.5758, 12.1232, -59.2189, -10.354
0.888, -1, 1.53342, 30.377, 17.5983, 12.2305, -59.0933, -10.4343
0.892, -1, 1.60066, 30.3173, 17.6208, 12.3375, -58.9679, -10.5144
0.896, -1, 1.66775, 30.2577, 17.6432, 12.4444, -58.8429, -10.5943
0.9, -1, 1.73471, 30.1982, 17.6655, 12.551, -58.718, -10.6741
0.904, -1, 1.80153, 30.1389, 17.6878, 12.6574, -58.5935, -10.7538
0.908, -1, 1.86821, 30.0797, 17.7101, 12.7635, -58.4692, -10.8332
0.912, -1, 1.93476, 30.0206, 17.7323, 12.8695, -58.3451, -10.9125
0.916, -1, 2.00117, 29.9617, 17.7545, 12.9752, -58.2213, -10.9917
0.92, -1, 2.06744, 29.9028, 17.7766, 13.0807, -58.0978, -11.0707
0.924, -1, 2.13357, 29.8441, 17.7987, 13.186, -57.9745, -11.1495
0.928, -1, 2.19957, 29.7855, 17.8207, 13.2911, -57.8514, -11.2281
0.932, -1, 2.26543, 29.727, 17.8427, 13.3959, -57.7287, -11.3066
0.936, -1, 2.33116, 29.6687, 17.8647, 13.5006, -57.6061, -11.385
0.94, -1, 2.39676, 29.6104, 17.8866, 13.605, -57.4838, -11.4631
0.944, -1, 2.46222, 29.5523, 17.9084, 13.7092, -57.3618, -11.5412
0.948, -1, 2.52755, 29.4943, 17.9303, 13.8133, -57.24, -11.619
0.952, -1, 2.59275, 29.4364, 17.952, 13.9171, -57.1185, -11.6967
0.956, -1, 2.65781, 29.3787, 17.9738, 14.0206, -56.9972, -11.7743
0.96, -1, 2.72274, 29.321, 17.9954, 14.124, -56.8761, -11.8516
0.964, -1, 2.78755, 29.2635, 18.0171, 14.2272, -56.7553, -11.9289
0.968, -1, 2.85222, 29.2061, 18.0387, 14.3302, -56.6348, -12.0059
0.972, -1, 2.91676, 29.1488, 18.0602, 14.4329, -56.5144, -12.0829
0.976, -1, 2.98117, 29.0916, 18.0817, 14.5355, -56.3944, -12.1596
0.98, -1, 3.04545, 29.0345, 18.1032, 14.6378, -56.2745, -12.2362
0.984, -1, 3.10961, 28.9775, 18.1246, 14.7399, -56.1549, -12.3127
0.988, -1, 3.17363, 28.9207, 18.146, 14.8419, -56.0356, -12.389
0.992, -1, 3.23753, 28.864, 18.1673, 14.9436, -55.9165, -12.4651
0.996, -1, 3.3013, 28.8074, 18.1886, 15.0451, -55.7976, -12.5411
1, -1, 3.36494, 28.7508, 18.2099, 15.1465, -55.6789, -12.617
1.004, -1, 3.42846, 28.6945, 18.2311, 15.2476, -55.5605, -12.6927
1.008, -1, 3.49185, 28.6382, 18.2523, 15.3485, -55.4423, -12.7682
1.012, -1, 3.55512, 28.582, 18.2734, 15.4492, -55.3244, -12.8436
1.016, -1, 3.61826, 28.5259, 18.2945, 15.5498, -55.2067, -12.9189
1.02, -1, 3.68127, 28.47, 18.3155, 15.6501, -55.0892, -12.994
1.024, -1, 3.74416, 28.4142, 18.3365, 15.7502, -54.972, -13.0689
1.027, -1, 3.80693, 28.3584, 18.3575, 15.8502, -54.855, -13.1437
1.032, -1, 3.86958, 28.3028, 18.3784, 15.9499, -54.7382, -13.2184
1.036, -1, 3.9321, 28.2473, 18.3993, 16.0494, -54.6216, -13.2929
1.04, -1, 3.9945, 28.1919, 18.4201, 16.1488, -54.5053, -13.3673
1.044, -1, 4.05678, 28.1366, 18.4409, 16.2479, -54.3892, -13.4415
1.048, -1, 4.11893, 28.0814, 18.4616, 16.3469, -54.2733, -13.5156
1.052, -1, 4.18097, 28.0263, 18.4824, 16.4457, -54.1577, -13.5895
1.055, -1, 4.24289, 27.9714, 18.503, 16.5442, -54.0422, -13.6633
1.06, -1, 4.30468, 27.9165, 18.5237, 16.6426, -53.927, -13.7369
1.064, -1, 4.36636, 27.8617, 18.5443, 16.7408, -53.8121, -13.8104
1.068, -1, 4.42792, 27.8071, 18.5648, 16.8388, -53.6973, -13.8838
1.072, -1, 4.48936, 27.7525, 18.5853, 16.9366, -53.5828, -13.957
1.076, -1, 4.55068, 27.6981, 18.6058, 17.0343, -53.4685, -14.0301
1.08, -1, 4.61188, 27.6438, 18.6262, 17.1317, -53.3544, -14.103
1.084, -1, 4.67297, 27.5895, 18.6466, 17.229, -53.2405, -14.1758
1.088, -1, 4.73394, 27.5354, 18.667, 17.326, -53.1268, -14.2485
1.091, -1, 4.7948, 27.4814, 18.6873, 17.4229, -53.0134, -14.321
1.096, -1, 4.85554, 27.4274, 18.7076, 17.5196, -52.9002, -14.3934
1.1, -1, 4.91617, 27.3736, 18.7278, 17.6161, -52.7871, -14.4656
1.104, -1, 4.97668, 27.3199, 18.7481, 17.7125, -52.6743, -14.5378
1.108, -1, 5.03708, 27.2663, 18.7682, 17.8086, -52.5618, -14.6097
1.112, -1, 5.09737, 27.2127, 18.7883, 17.9046, -52.4494, -14.6816
1.116, -1, 5.15754, 27.1593, 18.8084, 18.0004, -52.3372, -14.7533
1.119, -1, 5.2176, 27.106, 18.8285, 18.096, -52.2253, -14.8249
1.124, -1, 5.27755, 27.0528, 18.8485, 18.1915, -52.1135, -14.8963
1.128, -1, 5.33739, 26.9996, 18.8685, 18.2867, -52.0019, -14.9676
1.132, -1, 5.39712, 26.9466, 18.8884, 18.3818, -51.8906, -15.0388
1.136, -1, 5.45673, 26.8937, 18.9083, 18.4767, -51.7795, -15.1098
1.14, -1, 5.51624, 26.8408, 18.9282, 18.5715, -51.6685, -15.1807
1.144, -1, 5.57564, 26.7881, 18.948, 18.666, -51.5578, -15.2515
1.147, -1, 5.63493, 26.7355, 18.9678, 18.7604, -51.4473, -15.3222
1.152, -1, 5.69412, 26.6829, 18.9876, 18.8547, -51.337, -15.3927
1.156, -1, 5.75319, 26.6305, 19.0073, 18.9487, -51.2268, -15.4631
1.16, -1, 5.81216, 26.5781, 19.027, 19.0426, -51.1169, -15.5334
1.164, -1, 5.87103, 26.5259, 19.0467, 19.1363, -51.0072, -15.6035
1.168, -1, 5.92979, 26.4737, 19.0663, 19.2298, -50.8976, -15.6736
1.172, -1, 5.98844, 26.4216, 19.0859, 19.3232, -50.7883, -15.7435
1.175, -1, 6.04699, 26.3696, 19.1054, 19.4164, -50.6792, -15.8132
1.18, -1, 6.10543, 26.3177, 19.1249, 19.5095, -50.5702, -15.8829
1.184, -1, 6.16377, 26.266, 19.1444, 19.6024, -50.4614, -15.9524
1.188, -1, 6.22201, 26.2142, 19.1639, 19.6951, -50.3529, -16.0218
1.192, -1, 6.28015, 26.1626, 19.1833, 19.7876, -50.2445, -16.0911
1.196, -1, 6.33818, 26.1111, 19.2027, 19.88, -50.1363, -16.1603
1.2, -1, 6.39611, 26.0597, 19.222, 19.9723, -50.0283, -16.2293
1.204, -1, 6.45394, 26.0083, 19.2413, 20.0643, -49.9205, -16.2982
1.208, -1, 6.51167, 25.9571, 19.2606, 20.1562, -49.8129, -16.367
1.212, -1, 6.5693, 25.9059, 19.2798, 20.248, -49.7055, -16.4357
1.216, -1, 6.62683, 25.8548, 19.299, 20.3396, -49.5982, -16.5042
1.22, -1, 6.68426, 25.8038, 19.3182, 20.431, -49.4912, -16.5727
1.224, -1, 6.74159, 25.7529, 19.3374, 20.5223, -49.3843, -16.641
1.228, -1, 6.79882, 25.7021, 19.3565, 20.6134, -49.2776, -16.7092
1.232, -1, 6.85596, 25.6514, 19.3756, 20.7044, -49.1711, -16.7773
1.236, -1, 6.91299, 25.6008, 19.3946, 20.7952, -49.0648, -16.8453
1.24, -1, 6.96993, 25.5502, 19.4136, 20.8858, -48.9586, -16.9131
1.244, -1, 7.02678, 25.4997, 19.4326, 20.9763, -48.8526, -16.9809
1.248, -1, 7.08352, 25.4494, 19.4515, 21.0667, -48.7469, -17.0485
1.252, -1, 7.14018, 25.3991, 19.4705, 21.1569, -48.6413, -17.116
1.256, -1, 7.19673, 25.3488, 19.4893, 21.2469, -48.5358, -17.1834
1.26, -1, 7.25319, 25.2987, 19.5082, 21.3368, -48.4306, -17.2507
1.264, -1, 7.30956, 25.2487, 19.527, 21.4266, -48.3255, -17.3179
1.267, -1, 7.36583, 25.1987, 19.5458, 21.5161, -48.2206, -17.385
1.272, -1, 7.42201, 25.1488, 19.5646, 21.6056, -48.1158, -17.4519
1.276, -1, 7.4781, 25.099, 19.5833, 21.6949, -48.0113, -17.5188
1.28, -1, 7.53409, 25.0493, 19.602, 21.784, -47.9069, -17.5855
1.284, -1, 7.58999, 24.9997, 19.6207, 21.873, -47.8027, -17.6521
1.288, -1, 7.6458, 24.9501, 19.6393, 21.9619, -47.6986, -17.7186
1.292, -1, 7.70152, 24.9007, 19.6579, 22.0506, -47.5948, -17.785
1.295, -1, 7.75715, 24.8513, 19.6765, 22.1392, -47.4911, -17.8513
1.3, -1, 7.81268, 24.802, 19.695, 22.2276, -47.3875, -17.9175
1.304, -1, 7.86813, 24.7528, 19.7135, 22.3159, -47.2842, -17.9836
1.308, -1, 7.92348, 24.7036, 19.732, 22.404, -47.181, -18.0496
1.312, -1, 7.97875, 24.6545, 19.7505, 22.492, -47.0779, -18.1154
1.316, -1, 8.03393, 24.6055, 19.7689, 22.5798, -46.9751, -18.1812
1.32, -1, 8.08901, 24.5566, 19.7873, 22.6675, -46.8724, -18.2468
1.324, -1, 8.14401, 24.5078, 19.8057, 22.7551, -46.7699, -18.3124
1.328, -1, 8.19893, 24.4591, 19.824, 22.8425, -46.6675, -18.3778
1.332, -1, 8.25375, 24.4104, 19.8423, 22.9298, -46.5653, -18.4432
1.336, -1, 8.30849, 24.3618, 19.8606, 23.017, -46.4632, -18.5084
1.34, -1, 8.36314, 24.3133, 19.8788, 23.104, -46.3614, -18.5735
1.344, -1, 8.4177, 24.2648, 19.8971, 23.1909, -46.2596, -18.6386
1.348, -1, 8.47218, 24.2165, 19.9153, 23.2776, -46.1581, -18.7035
1.352, -1, 8.52657, 24.1682, 19.9334, 23.3642, -46.0567, -18.7683
1.356, -1, 8.58088, 24.1199, 19.9515, 23.4507, -45.9554, -18.833
1.36, -1, 8.6351, 24.0718, 19.9697, 23.537, -45.8543, -18.8976
1.364, -1, 8.68923, 24.0237, 19.9877, 23.6232, -45.7534, -18.9622
1.368, -1, 8.74328, 23.9757, 20.0058, 23.7092, -45.6526, -19.0266
1.372, -1, 8.79725, 23.9278, 20.0238, 23.7952, -45.552, -19.0909
1.376, -1, 8.85114, 23.88, 20.0418, 23.881, -45.4516, -19.1551
1.38, -1, 8.90494, 23.8322, 20.0598, 23.9666, -45.3513, -19.2192
1.384, -1, 8.95866, 23.7845, 20.0777, 24.0521, -45.2511, -19.2833
1.388, -1, 9.01229, 23.7369, 20.0956, 24.1375, -45.1511, -19.3472
1.392, -1, 9.06584, 23.6894, 20.1135, 24.2228, -45.0513, -19.411
1.396, -1, 9.11932, 23.6419, 20.1314, 24.3079, -44.9516, -19.4747
1.4, -1, 9.1727, 23.5945, 20.1492, 24.393, -44.8521, -19.5384
1.404, -1, 9.22601, 23.5472, 20.167, 24.4778, -44.7527, -19.6019
1.408, -1, 9.27924, 23.4999, 20.1848, 24.5626, -44.6535, -19.6653
1.412, -1, 9.33239, 23.4527, 20.2025, 24.6472, -44.5544, -19.7287
1.416, -1, 9.38546, 23.4056, 20.2202, 24.7317, -44.4554, -19.7919
1.42, -1, 9.43844, 23.3585, 20.2379, 24.8161, -44.3567, -19.8551
1.424, -1, 9.49135, 23.3116, 20.2556, 24.9003, -44.258, -19.9181
1.428, -1, 9.54418, 23.2647, 20.2732, 24.9844, -44.1595, -19.9811
1.432, -1, 9.59693, 23.2178, 20.2908, 25.0684, -44.0612, -20.044
1.436, -1, 9.6496, 23.1711, 20.3084, 25.1523, -43.963, -20.1067
1.44, -1, 9.7022, 23.1244, 20.326, 25.236, -43.865, -20.1694
1.444, -1, 9.75472, 23.0777, 20.3435, 25.3196, -43.767, -20.232
1.448, -1, 9.80716, 23.0312, 20.361, 25.4031, -43.6693, -20.2945
1.452, -1, 9.85952, 22.9847, 20.3785, 25.4865, -43.5717, -20.3569
1.456, -1, 9.91181, 22.9383, 20.396, 25.5697, -43.4742, -20.4192
1.46, -1, 9.96403, 22.8919, 20.4134, 25.6528, -43.3769, -20.4814
1.464, -1, 10.0162, 22.8456, 20.4308, 25.7358, -43.2797, -20.5436
1.468, -1, 10.0682, 22.7994, 20.4482, 25.8187, -43.1826, -20.6056
1.472, -1, 10.1202, 22.7533, 20.4656, 25.9015, -43.0857, -20.6676
1.476, -1, 10.1721, 22.7072, 20.4829, 25.9841, -42.989, -20.7294
1.48, -1, 10.224, 22.6612, 20.5002, 26.0666, -42.8923, -20.7912
1.484, -1, 10.2757, 22.6152, 20.5175, 26.149, -42.7958, -20.8529
1.488, -1, 10.3274, 22.5693, 20.5348, 26.2313, -42.6995, -20.9145
1.492, -1, 10.379, 22.5235, 20.552, 26.3135, -42.6033, -20.976
1.496, -1, 10.4306, 22.4777, 20.5692, 26.3956, -42.5072, -21.0374
1.5, -1, 10.482, 22.432, 20.5864, 26.4775, -42.4113, -21.0987
1.504, -1, 10.5334, 22.3864, 20.6035, 26.5593, -42.3154, -21.16
1.508, -1, 10.5848, 22.3408, 20.6207, 26.641, -42.2198, -21.2212
1.512, -1, 10.636, 22.2953, 20.6378, 26.7226, -42.1242, -21.2822
1.516, -1, 10.6872, 22.2499, 20.6549, 26.8041, -42.0288, -21.3432
1.52, -1, 10.7383, 22.2045, 20.6719, 26.8855, -41.9336, -21.4041
1.524, -1, 10.7893, 22.1592, 20.689, 26.9667, -41.8384, -21.4649
1.528, -1, 10.8403, 22.114, 20.706, 27.0479, -41.7434, -21.5257
1.532, -1, 10.8912, 22.0688, 20.723, 27.1289, -41.6485, -21.5863
1.536, -1, 10.942, 22.0237, 20.74, 27.2098, -41.5538, -21.6469
1.54, -1, 10.9928, 21.9786, 20.7569, 27.2906, -41.4592, -21.7074
1.544, -1, 11.0435, 21.9336, 20.7738, 27.3713, -41.3647, -21.7678
1.548, -1, 11.0941, 21.8887, 20.7908, 27.4519, -41.2703, -21.8281
1.552, -1, 11.1446, 21.8438, 20.8076, 27.5324, -41.1761, -21.8884
1.556, -1, 11.1951, 21.799, 20.8245, 27.6127, -41.082, -21.9485
1.56, -1, 11.2455, 21.7542, 20.8413, 27.693, -40.988, -22.0086
1.564, -1, 11.2959, 21.7095, 20.8581, 27.7732, -40.8941, -22.0686
1.568, -1, 11.3462, 21.6649, 20.8749, 27.8532, -40.8004, -22.1285
1.572, -1, 11.3964, 21.6203, 20.8917, 27.9331, -40.7068, -22.1884
1.576, -1, 11.4465, 21.5758, 20.9084, 28.013, -40.6133, -22.2481
1.58, -1, 11.4966, 21.5313, 20.9251, 28.0927, -40.52, -22.3078
1.584, -1, 11.5466, 21.4869, 20.9418, 28.1723, -40.4268, -22.3674
1.588, -1, 11.5965, 21.4426, 20.9585, 28.2518, -40.3336, -22.4269
1.592, -1, 11.6464, 21.3983, 20.9752, 28.3313, -40.2407, -22.4864
1.596, -1, 11.6962, 21.3541, 20.9918, 28.4106, -40.1478, -22.5457
1.6, -1, 11.746, 21.3099, 21.0084, 28.4898, -40.0551, -22.605
1.604, -1, 11.7957, 21.2658, 21.025, 28.5689, -39.9624, -22.6642
1.608, -1, 11.8453, 21.2217, 21.0416, 28.6479, -39.8699, -22.7234
1.612, -1, 11.8948, 21.1778, 21.0581, 28.7268, -39.7776, -22.7824
1.616, -1, 11.9443, 21.1338, 21.0747, 28.8055, -39.6853, -22.8414
1.62, -1, 11.9938, 21.0899, 21.0912, 28.8842, -39.5932, -22.9003
1.624, -1, 12.0431, 21.0461, 21.1076, 28.9628, -39.5011, -22.9591
1.628, -1, 12.0924, 21.0023, 21.1241, 29.0413, -39.4092, -23.0179
1.632, -1, 12.1417, 20.9586, 21.1405, 29.1197, -39.3174, -23.0765
1.636, -1, 12.1908, 20.915, 21.157, 29.198, -39.2258, -23.1352
1.64, -1, 12.2399, 20.8714, 21.1734, 29.2762, -39.1342, -23.1937
1.644, -1, 12.289, 20.8278, 21.1897, 29.3543, -39.0428, -23.2521
1.648, -1, 12.338, 20.7843, 21.2061, 29.4323, -38.9515, -23.3105
1.652, -1, 12.3869, 20.7409, 21.2224, 29.5102, -38.8603, -23.3688
1.656, -1, 12.4358, 20.6975, 21.2388, 29.588, -38.7692, -23.4271
1.66, -1, 12.4846, 20.6542, 21.2551, 29.6657, -38.6782, -23.4852
1.664, -1, 12.5333, 20.6109, 21.2713, 29.7433, -38.5873, -23.5433
1.668, -1, 12.582, 20.5677, 21.2876, 29.8208, -38.4966, -23.6013
1.672, -1, 12.6306, 20.5245, 21.3038, 29.8982, -38.4059, -23.6593
1.676, -1, 12.6792, 20.4814, 21.32, 29.9755, -38.3154, -23.7171
1.68, -1, 12.7277, 20.4384, 21.3362, 30.0527, -38.225, -23.7749
1.684, -1, 12.7761, 20.3953, 21.3524, 30.1298, -38.1347, -23.8327
1.688, -1, 12.8245, 20.3524, 21.3686, 30.2069, -38.0445, -23.8903
1.692, -1, 12.8728, 20.3095, 21.3847, 30.2838, -37.9544, -23.9479
1.696, -1, 12.9211, 20.2666, 21.4008, 30.3606, -37.8644, -24.0054
1.7, -1, 12.9693, 20.2238, 21.4169, 30.4374, -37.7746, -24.0629
1.704, -1, 13.0174, 20.1811, 21.433, 30.514, -37.6848, -24.1203
1.708, -1, 13.0655, 20.1384, 21.449, 30.5906, -37.5951, -24.1776
1.712, -1, 13.1136, 20.0958, 21.4651, 30.6671, -37.5056, -24.2348
1.716, -1, 13.1615, 20.0532, 21.4811, 30.7435, -37.4162, -24.292
1.72, -1, 13.2094, 20.0106, 21.4971, 30.8197, -37.3269, -24.3491
1.724, -1, 13.2573, 19.9681, 21.5131, 30.8959, -37.2376, -24.4061
1.728, -1, 13.3051, 19.9257, 21.529, 30.972, -37.1485, -24.4631
1.732, -1, 13.3528, 19.8833, 21.545, 31.0481, -37.0595, -24.52
1.736, -1, 13.4005, 19.841, 21.5609, 31.124, -36.9706, -24.5768
1.74, -1, 13.4482, 19.7987, 21.5768, 31.1998, -36.8818, -24.6336
1.744, -1, 13.4957, 19.7565, 21.5927, 31.2756, -36.7931, -24.6903
1.748, -1, 13.5433, 19.7143, 21.6086, 31.3512, -36.7045, -24.7469
1.752, -1, 13.5907, 19.6721, 21.6244, 31.4268, -36.6161, -24.8035
1.756, -1, 13.6381, 19.63, 21.6402, 31.5023, -36.5277, -24.86
1.76, -1, 13.6855, 19.588, 21.6561, 31.5776, -36.4394, -24.9164
1.764, -1, 13.7328, 19.546, 21.6719, 31.6529, -36.3512, -24.9728
1.768, -1, 13.78, 19.5041, 21.6876, 31.7282, -36.2632, -25.0291
1.772, -1, 13.8272, 19.4622, 21.7034, 31.8033, -36.1752, -25.0853
1.776, -1, 13.8743, 19.4203, 21.7191, 31.8783, -36.0873, -25.1415
1.78, -1, 13.9214, 19.3785, 21.7348, 31.9533, -35.9996, -25.1976
1.784, -1, 13.9684, 19.3368, 21.7505, 32.0281, -35.9119, -25.2536
1.788, -1, 14.0154, 19.2951, 21.7662, 32.1029, -35.8243, -25.3096
1.792, -1, 14.0623, 19.2534, 21.7819, 32.1776, -35.7369, -25.3655
1.796, -1, 14.1092, 19.2118, 21.7975, 32.2522, -35.6495, -25.4214
1.8, -1, 14.156, 19.1703, 21.8132, 32.3268, -35.5622, -25.4772
1.804, -1, 14.2027, 19.1288, 21.8288, 32.4012, -35.4751, -25.5329
1.808, -1, 14.2494, 19.0873, 21.8444, 32.4756, -35.388, -25.5886
1.812, -1, 14.2961, 19.0459, 21.86, 32.5498, -35.301, -25.6442
1.816, -1, 14.3427, 19.0045, 21.8755, 32.624, -35.2142, -25.6997
1.82, -1, 14.3892, 18.9632, 21.8911, 32.6981, -35.1274, -25.7552
1.824, -1, 14.4357, 18.9219, 21.9066, 32.7722, -35.0407, -25.8106
1.828, -1, 14.4822, 18.8807, 21.9221, 32.8461, -34.9541, -25.8659
1.832, -1, 14.5286, 18.8395, 21.9376, 32.92, -34.8676, -25.9212
1.836, -1, 14.5749, 18.7983, 21.9531, 32.9938, -34.7813, -25.9764
1.84, -1, 14.6212, 18.7572, 21.9685, 33.0675, -34.695, -26.0316
1.844, -1, 14.6674, 18.7162, 21.984, 33.1411, -34.6088, -26.0867
1.848, -1, 14.7136, 18.6752, 21.9994, 33.2146, -34.5227, -26.1418
1.852, -1, 14.7598, 18.6342, 22.0148, 33.2881, -34.4367, -26.1967
1.856, -1, 14.8058, 18.5933, 22.0302, 33.3614, -34.3507, -26.2517
1.86, -1, 14.8519, 18.5524, 22.0456, 33.4347, -34.2649, -26.3065
1.864, -1, 14.8979, 18.5116, 22.0609, 33.5079, -34.1792, -26.3613
1.868, -1, 14.9438, 18.4708, 22.0762, 33.5811, -34.0936, -26.4161
1.872, -1, 14.9897, 18.4301, 22.0916, 33.6541, -34.008, -26.4708
1.876, -1, 15.0355, 18.3894, 22.1069, 33.7271, -33.9226, -26.5254
1.88, -1, 15.0813, 18.3487, 22.1222, 33.8, -33.8372, -26.58
1.884, -1, 15.127, 18.3081, 22.1374, 33.8728, -33.7519, -26.6345
1.888, -1, 15.1727, 18.2676, 22.1527, 33.9456, -33.6668, -26.6889
1.892, -1, 15.2184, 18.227, 22.1679, 34.0182, -33.5817, -26.7433
1.896, -1, 15.264, 18.1866, 22.1832, 34.0908, -33.4967, -26.7976
1.9, -1, 15.3095, 18.1461, 22.1984, 34.1633, -33.4118, -26.8519
1.904, -1, 15.355, 18.1057, 22.2136, 34.2358, -33.3269, -26.9062
1.908, -1, 15.4004, 18.0654, 22.2287, 34.3081, -33.2422, -26.9603
1.912, -1, 15.4458, 18.0251, 22.2439, 34.3804, -33.1576, -27.0144
1.916, -1, 15.4912, 17.9848, 22.259, 34.4526, -33.073, -27.0685
1.92, -1, 15.5365, 17.9446, 22.2742, 34.5248, -32.9886, -27.1225
1.924, -1, 15.5818, 17.9044, 22.2893, 34.5968, -32.9042, -27.1764
1.928, -1, 15.627, 17.8643, 22.3044, 34.6688, -32.8199, -27.2303
1.932, -1, 15.6721, 17.8242, 22.3195, 34.7407, -32.7357, -27.2841
1.936, -1, 15.7173, 17.7841, 22.3345, 34.8126, -32.6516, -27.3379
1.94, -1, 15.7623, 17.7441, 22.3496, 34.8843, -32.5676, -27.3916
1.944, -1, 15.8073, 17.7041, 22.3646, 34.956, -32.4836, -27.4453
1.948, -1, 15.8523, 17.6642, 22.3796, 35.0276, -32.3997, -27.4989
1.952, -1, 15.8973, 17.6243, 22.3946, 35.0992, -32.316, -27.5524
1.956, -1, 15.9422, 17.5844, 22.4096, 35.1707, -32.2323, -27.6059
1.96, -1, 15.987, 17.5446, 22.4246, 35.2421, -32.1487, -27.6594
1.964, -1, 16.0318, 17.5048, 22.4396, 35.3134, -32.0652, -27.7128
1.968, -1, 16.0765, 17.4651, 22.4545, 35.3846, -31.9817, -27.7661
1.972, -1, 16.1212, 17.4254, 22.4694, 35.4558, -31.8984, -27.8194
1.976, -1, 16.1659, 17.3858, 22.4844, 35.5269, -31.8151, -27.8726
1.98, -1, 16.2105, 17.3461, 22.4993, 35.598, -31.7319, -27.9258
1.984, -1, 16.2551, 17.3066, 22.5141, 35.6689, -31.6488, -27.9789
1.988, -1, 16.2996, 17.267, 22.529, 35.7398, -31.5658, -28.032
1.992, -1, 16.3441, 17.2275, 22.5439, 35.8107, -31.4829, -28.085
1.996, -1, 16.3886, 17.1881, 22.5587, 35.8814, -31.4, -28.138
1.999, -1, 16.433, 17.1487, 22.5735, 35.9521, -31.3173, -28.1909
2.004, -1, 16.4773, 17.1093, 22.5883, 36.0228, -31.2346, -28.2438
2.008, -1, 16.5216, 17.0699, 22.6031, 36.0933, -31.1519, -28.2966
2.012, -1, 16.5659, 17.0306, 22.6179, 36.1638, -31.0694, -28.3493
2.015, -1, 16.6101, 16.9914, 22.6327, 36.2342, -30.987, -28.4021
2.019, -1, 16.6543, 16.9521, 22.6474, 36.3046, -30.9046, -28.4547
2.024, -1, 16.6984, 16.9129, 22.6622, 36.3748, -30.8223, -28.5073
2.028, -1, 16.7425, 16.8738, 22.6769, 36.445, -30.7401, -28.5599
2.031, -1, 16.7866, 16.8347, 22.6916, 36.5152, -30.658, -28.6124
2.036, -1, 16.8306, 16.7956, 22.7063, 36.5853, -30.5759, -28.6648
2.04, -1, 16.8746, 16.7566, 22.721, 36.6553, -30.4939, -28.7172
2.044, -1, 16.9185, 16.7176, 22.7357, 36.7252, -30.412, -28.7696
2.048, -1, 16.9624, 16.6786, 22.7503, 36.7951, -30.3302, -28.8219
2.051, -1, 17.0062, 16.6397, 22.765, 36.8649, -30.2485, -28.8742
2.055, -1, 17.05, 16.6008, 22.7796, 36.9346, -30.1668, -28.9264
2.06, -1, 17.0938, 16.5619, 22.7942, 37.0043, -30.0852, -28.9785
2.064, -1, 17.1375, 16.5231, 22.8088, 37.0739, -30.0037, -29.0306
2.068, -1, 17.1811, 16.4844, 22.8234, 37.1435, -29.9223, -29.0827
2.071, -1, 17.2244, 16.4458, 22.8379, 37.2129, -29.841, -29.1347
2.076, -1, 17.2671, 16.4077, 22.8523, 37.2823, -29.7597, -29.1866
2.08, -1, 17.3088, 16.3701, 22.8666, 37.3515, -29.6787, -29.2384
2.084, -1, 17.3495, 16.3335, 22.8807, 37.4204, -29.5981, -29.29
2.087, -1, 17.3888, 16.2979, 22.8945, 37.4888, -29.518, -29.3412
2.092, -1, 17.4267, 16.2635, 22.9079, 37.5564, -29.4389, -29.3918
2.096, -1, 17.4632, 16.2306, 22.921, 37.6229, -29.3611, -29.4417
2.1, -1, 17.4983, 16.1992, 22.9337, 37.6879, -29.2851, -29.4903
2.104, -1, 17.5321, 16.1694, 22.9459, 37.7508, -29.2115, -29.5374
2.107, -1, 17.5644, 16.1411, 22.9576, 37.8112, -29.1408, -29.5827
2.111, -1, 17.5951, 16.1145, 22.9686, 37.8686, -29.0737, -29.6257
2.116, -1, 17.624, 16.0896, 22.9791, 37.9226, -29.0106, -29.6661
2.12, -1, 17.6513, 16.0662, 22.9888, 37.9726, -28.9521, -29.7035
2.124, -1, 17.6768, 16.044, 22.9978, 38.0183, -28.8986, -29.7378
2.127, -1, 17.7009, 16.023, 23.0061, 38.0595, -28.8504, -29.7686
2.132, -1, 17.7234, 16.0029, 23.0136, 38.0959, -28.8078, -29.7958
2.136, -1, 17.7446, 15.9838, 23.0205, 38.1275, -28.7707, -29.8195
2.14, -1, 17.7642, 15.9657, 23.0267, 38.1546, -28.739, -29.8397
2.143, -1, 17.7823, 15.9489, 23.0321, 38.1772, -28.7125, -29.8566
2.148, -1, 17.7986, 15.9337, 23.0368, 38.1957, -28.6907, -29.8705
2.152, -1, 17.8131, 15.9202, 23.0409, 38.2106, -28.6732, -29.8816
2.156, -1, 17.8259, 15.9085, 23.0443, 38.2223, -28.6594, -29.8904
2.16, -1, 17.8371, 15.8987, 23.0471, 38.2313, -28.6488, -29.8971
2.163, -1, 17.8467, 15.8905, 23.0494, 38.2381, -28.6409, -29.9021
2.168, -1, 17.855, 15.8838, 23.0513, 38.243, -28.635, -29.9058
2.172, -1, 17.8619, 15.8785, 23.0527, 38.2465, -28.6308, -29.9084
2.176, -1, 17.8674, 15.8744, 23.0538, 38.249, -28.6279, -29.9103
2.179, 2, 17.8716, 15.8714, 23.0546, 38.2507, -28.6258, -29.9115
2.184, 2, 17.8747, 15.8692, 23.0552, 38.2519, -28.6245, -29.9124
2.188, 2, 17.8769, 15.8677, 23.0556, 38.2527, -28.6235, -29.913
2.192, 2, 17.8784, 15.8667, 23.0558, 38.2532, -28.6229, -29.9134
2.196, 2, 17.8794, 15.866, 23.056, 38.2536, -28.6224, -29.9137
2.199, 2, 17.8801, 15.8655, 23.0561, 38.2538, -28.6221, -29.9138
2.204, 2, 17.8806, 15.8652, 23.0562, 38.254, -28.6219, -29.914
2.208, 2, 17.8809, 15.865, 23.0563, 38.2541, -28.6218, -29.9141
2.212, 2, 17.8811, 15.8649, 23.0563, 38.2542, -28.6217, -29.9141
2.216, 2, 17.8813, 15.8648, 23.0563, 38.2543, -28.6217, -29.9141
2.219, 2, 17.8814, 15.8647, 23.0564, 38.2543, -28.6216, -29.9142
2.224, 2, 17.8814, 15.8646, 23.0564, 38.2543, -28.6216, -29.9142
2.228, 2, 17.8815, 15.8646, 23.0564, 38.2543, -28.6216, -29.9142
2.232, 2, 17.8815, 15.8646, 23.0564, 38.2543, -28.6215, -29.9142
2.235, 2, 17.8815, 15.8646, 23.0564, 38.2543, -28.6215, -29.9142
2.24, 2, 17.8815, 15.8646, 23.0564, 38.2544, -28.6215, -29.9142
2.244, 2, 17.8815, 15.8646, 23.0564, 38.2544, -28.6215, -29.9142
2.248, 2, 17.8816, 15.8646, 23.0564, 38.2544, -28.6215, -29.9142
2.252, 2, 17.8816, 15.8646, 23.0564, 38.2544, -28.6215, -29.9142
2.255, 2, 17.8816, 15.8646, 23.0564, 38.2544, -28.6215, -29.9142
2.259, 2, 17.8816, 15.8646, 23.0564, 38.2544, -28.6215, -29.9142
2.264, 2, 17.8816, 15.8646, 23.0564, 38.2544, -28.6215, -29.9142
2.268, 2, 17.8816, 15.8645, 23.0564, 38.2544, -28.6215, -29.9142
2.272, 2, 17.8816, 15.8645, 23.0564, 38.2544, -28.6215, -29.9142
2.275, 2, 17.8816, 15.8645, 23.0564, 38.2544, -28.6215, -29.9142
2.28, 2, 17.8816, 15.8645, 23.0564, 38.2544, -28.6215, -29.9142
2.284, 2, 17.8816, 15.8645, 23.0564, 38.2544, -28.6215, -29.9142
2.288, 2, 17.8816, 15.8645, 23.0564, 38.2544, -28.6215, -29.9142
2.291, 2, 17.8816, 15.8645, 23.0564, 38.2544, -28.6215, -29.9142
2.296, 2, 17.8816, 15.8645, 23.0564, 38.2544, -28.6215, -29.9142
2.3, 2, 17.8816, 15.8645, 23.0564, 38.2544, -28.6215, -29.9142
2.304, 2, 17.8816, 15.8645, 23.0564, 38.2544, -28.6215, -29.9142
2.308, 2, 17.8816, 15.8645, 23.0564, 38.2544, -28.6215, -29.9142
2.311, 2, 17.8816, 15.8645, 23.0564, 38.2544, -28.6215, -29.9142
2.316, 2, 17.8816, 15.8645, 23.0564, 38.2544, -28.6215, -29.9142
2.32, 2, 17.8816, 15.8645, 23.0564, 38.2544, -28.6215, -29.9142
2.324, 2, 17.8816, 15.8645, 23.0564, 38.2544, -28.6215, -29.9142
2.328, 2, 17.8816, 15.8645, 23.0564, 38.2544, -28.6215, -29.9142
2.331, 2, 17.8816, 15.8645, 23.0564, 38.2544, -28.6215, -29.9142
2.336, 2, 17.8816, 15.8645, 23.0564, 38.2544, -28.6215, -29.9142
2.34, 2, 17.8816, 15.8645, 23.0564, 38.2544, -28.6215, -29.9142
2.344, 2, 17.8816, 15.8645, 23.0564, 38.2544, -28.6215, -29.9142
2.347, 2, 17.8816, 15.8645, 23.0564, 38.2544, -28.6215, -29.9142
2.352, 2, 17.8816, 15.8645, 23.0564, 38.2544, -28.6215, -29.9142
2.356, 2, 17.8816, 15.8645, 23.0564, 38.2544, -28.6215, -29.9142
2.36, 2, 17.8816, 15.8645, 23.0564, 38.2544, -28.6215, -29.9142
2.364, 2, 17.8816, 15.8645, 23.0564, 38.2544, -28.6215, -29.9142
2.367, 2, 17.8816, 15.8645, 23.0564, 38.2544, -28.6215, -29.9142
2.372, 2, 17.8816, 15.8645, 23.0564, 38.2544, -28.6215, -29.9142
2.376, 2, 17.8816, 15.8645, 23.0564, 38.2544, -28.6215, -29.9142
2.38, 2, 17.8816, 15.8645, 23.0564, 38.2544, -28.6215, -29.9142
2.383, 2, 17.8816, 15.8645, 23.0564, 38.2544, -28.6215, -29.9142
2.388, 2, 17.8816, 15.8645, 23.0564, 38.2544, -28.6215, -29.9142
2.392, 2, 17.8816, 15.8645, 23.0564, 38.2544, -28.6215, -29.9142
2.396, 2, 17.8816, 15.8645, 23.0564, 38.2544, -28.6215, -29.9142
2.4, 2, 17.8816, 15.8645, 23.0564, 38.2544, -28.6215, -29.9142
2.403, 2, 17.8816, 15.8645, 23.0564, 38.2544, -28.6215, -29.9142
2.408, 2, 17.8816, 15.8645, 23.0564, 38.2544, -28.6215, -29.9142
2.412, 2, 17.8816, 15.8645, 23.0564, 38.2544, -28.6215, -29.9142
2.416, 2, 17.8816, 15.8645, 23.0564, 38.2544, -28.6215, -29.9142
2.42, 2, 17.8816, 15.8645, 23.0564, 38.2544, -28.6215, -29.9142
2.423, 2, 17.8816, 15.8645, 23.0564, 38.2544, -28.6215, -29.9142
2.428, 2, 17.8816, 15.8645, 23.0564, 38.2544, -28.6215, -29.9142
2.432, 2, 17.8816, 15.8645, 23.0564, 38.2544, -28.6215, -29.9142
2.436, 2, 17.8816, 15.8645, 23.0564, 38.2544, -28.6215, -29.9142
2.439, 2, 17.8816, 15.8645, 23.0564, 38.2544, -28.6215, -29.9142
2.444, 2, 17.8816, 15.8645, 23.0564, 38.2544, -28.6215, -29.9142
2.448, 2, 17.8816, 15.8645, 23.0564, 38.2544, -28.6215, -29.9142
2.452, 2, 17.8816, 15.8645, 23.0564, 38.2544, -28.6215, -29.9142
2.456, 2, 17.8816, 15.8645, 23.0564, 38.2544, -28.6215, -29.9142
2.459, 2, 17.8816, 15.8645, 23.0564, 38.2544, -28.6215, -29.9142
2.464, 2, 17.8816, 15.8645, 23.0564, 38.2544, -28.6215, -29.9142
2.468, 2, 17.8816, 15.8645, 23.0564, 38.2544, -28.6215, -29.9142
2.472, 2, 17.8816, 15.8645, 23.0564, 38.2544, -28.6215, -29.9142
2.476, 2, 17.8816, 15.8645, 23.0564, 38.2544, -28.6215, -29.9142
2.479, 2, 17.8816, 15.8645, 23.0564, 38.2544, -28.6215, -29.9142
2.484, 2, 17.8816, 15.8645, 23.0564, 38.2544, -28.6215, -29.9142
2.488, 2, 17.8816, 15.8645, 23.0564, 38.2544, -28.6215, -29.9142
2.492, 2, 17.8816, 15.8645, 23.0564, 38.2544, -28.6215, -29.9142
2.495, 2, 17.8816, 15.8645, 23.0564, 38.2544, -28.6215, -29.9142
2.5, 2, 17.8816, 15.8645, 23.0564, 38.2544, -28.6215, -29.9142
2.504, 2, 17.8816, 15.8645, 23.0564, 38.2544, -28.6215, -29.9142
2.508, 2, 17.8816, 15.8645, 23.0564, 38.2544, -28.6215, -29.9142
2.512, 2, 17.8816, 15.8645, 23.0564, 38.2544, -28.6215, -29.9142
2.515, 2, 17.8816, 15.8645, 23.0564, 38.2544, -28.6215, -29.9142
2.52, 2, 17.8816, 15.8645, 23.0564, 38.2544, -28.6215, -29.9142
2.524, 2, 17.8816, 15.8645, 23.0564, 38.2544, -28.6215, -29.9142
2.528, 2, 17.8816, 15.8645, 23.0564, 38.2544, -28.6215, -29.9142
2.531, 2, 17.8816, 15.8645, 23.0564, 38.2544, -28.6215, -29.9142
2.536, 2, 17.8816, 15.8645, 23.0564, 38.2544, -28.6215, -29.9142
2.54, 2, 17.8816, 15.8645, 23.0564, 38.2544, -28.6215, -29.9142
2.544, 2, 17.8816, 15.8645, 23.0564, 38.2544, -28.6215, -29.9142
2.548, 2, 17.8816, 15.8645, 23.0564, 38.2544, -28.6215, -29.9142
2.551, 2, 17.8816, 15.8645, 23.0564, 38.2544, -28.6215, -29.9142
2.556, 2, 17.8816, 15.8645, 23.0564, 38.2544, -28.6215, -29.9142
2.56, 2, 17.8816, 15.8645, 23.0564, 38.2544, -28.6215, -29.9142
2.564, 2, 17.8816, 15.8645, 23.0564, 38.2544, -28.6215, -29.9142
2.568, 2, 17.8816, 15.8645, 23.0564, 38.2544, -28.6215, -29.9142
2.571, 2, 17.8816, 15.8645, 23.0564, 38.2544, -28.6215, -29.9142
2.576, 2, 17.8816, 15.8645, 23.0564, 38.2544, -28.6215, -29.9142
2.58, 2, 17.8816, 15.8645, 23.0564, 38.2544, -28.6215, -29.9142
2.584, 2, 17.8816, 15.8645, 23.0564, 38.2544, -28.6215, -29.9142
2.587, 2, 17.8816, 15.8645, 23.0564, 38.2544, -28.6215, -29.9142
2.592, 2, 17.8816, 15.8645, 23.0564, 38.2544, -28.6215, -29.9142
2.596, 2, 17.8816, 15.8645, 23.0564, 38.2544, -28.6215, -29.9142
2.6, 2, 17.8816, 15.8645, 23.0564, 38.2544, -28.6215, -29.9142
2.604, 2, 17.8816, 15.8645, 23.0564, 38.2544, -28.6215, -29.9142
2.607, 2, 17.8816, 15.8645, 23.0564, 38.2544, -28.6215, -29.9142
2.612, 2, 17.8816, 15.8645, 23.0564, 38.2544, -28.6215, -29.9142
2.616, 2, 17.8816, 15.8645, 23.0564, 38.2544, -28.6215, -29.9142
2.62, 2, 17.8816, 15.8645, 23.0564, 38.2544, -28.6215, -29.9142
2.624, 2, 17.8816, 15.8645, 23.0564, 38.2544, -28.6215, -29.9142
2.627, 2, 17.8816, 15.8645, 23.0564, 38.2544, -28.6215, -29.9142
2.632, 2, 17.8816, 15.8645, 23.0564, 38.2544, -28.6215, -29.9142
2.636, 2, 17.8816, 15.8645, 23.0564, 38.2544, -28.6215, -29.9142
2.64, 2, 17.8816, 15.8645, 23.0564, 38.2544, -28.6215, -29.9142
2.643, 2, 17.8816, 15.8645, 23.0564, 38.2544, -28.6215, -29.9142
2.648, 2, 17.8816, 15.8645, 23.0564, 38.2544, -28.6215, -29.9142
2.652, 2, 17.8816, 15.8645, 23.0564, 38.2544, -28.6215, -29.9142
2.656, 2, 17.8816, 15.8645, 23.0564, 38.2544, -28.6215, -29.9142
2.66, 2, 17.8816, 15.8645, 23.0564, 38.2544, -28.6215, -29.9142
2.663, 2, 17.8816, 15.8645, 23.0564, 38.2544, -28.6215, -29.9142
2.668, 2, 17.8816, 15.8645, 23.0564, 38.2544, -28.6215, -29.9142
2.672, 2, 17.8816, 15.8645, 23.0564, 38.2544, -28.6215, -29.9142
2.676, 2, 17.8816, 15.8645, 23.0564, 38.2544, -28.6215, -29.9142
2.679, 2, 17.8816, 15.8645, 23.0564, 38.2544, -28.6215, -29.9142
2.684, 2, 17.8816, 15.8645, 23.0564, 38.2544, -28.6215, -29.9142
2.688, 2, 17.8816, 15.8645, 23.0564, 38.2544, -28.6215, -29.9142
2.692, 2, 17.8816, 15.8645, 23.0564, 38.2544, -28.6215, -29.9142
2.696, 2, 17.8816, 15.8645, 23.0564, 38.2544, -28.6215, -29.9142
2.699, 2, 17.8816, 15.8645, 23.0564, 38.2544, -28.6215, -29.9142
2.704, 2, 17.8816, 15.8645, 23.0564, 38.2544, -28.6215, -29.9142
2.708, 2, 17.8816, 15.8645, 23.0564, 38.2544, -28.6215, -29.9142
2.712, 2, 17.8816, 15.8645, 23.0564, 38.2544, -28.6215, -29.9142
2.716, 2, 17.8816, 15.8645, 23.0564, 38.2544, -28.6215, -29.9142
2.719, 2, 17.8816, 15.8645, 23.0564, 38.2544, -28.6215, -29.9142
2.724, 2, 17.8816, 15.8645, 23.0564, 38.2544, -28.6215, -29.9142
2.728, 2, 17.8816, 15.8645, 23.0564, 38.2544, -28.6215, -29.9142
2.732, 2, 17.8816, 15.8645, 23.0564, 38.2544, -28.6215, -29.9142
2.735, 2, 17.8816, 15.8645, 23.0564, 38.2544, -28.6215, -29.9142
2.74, 2, 17.8816, 15.8645, 23.0564, 38.2544, -28.6215, -29.9142
2.744, 2, 17.8816, 15.8645, 23.0564, 38.2544, -28.6215, -29.9142
2.748, 2, 17.8816, 15.8645, 23.0564, 38.2544, -28.6215, -29.9142
2.752, 2, 17.8816, 15.8645, 23.0564, 38.2544, -28.6215, -29.9142
2.755, 2, 17.8816, 15.8645, 23.0564, 38.2544, -28.6215, -29.9142
2.76, 2, 17.8816, 15.8645, 23.0564, 38.2544, -28.6215, -29.9142
2.764, 2, 17.8816, 15.8645, 23.0564, 38.2544, -28.6215, -29.9142
2.768, 2, 17.8816, 15.8645, 23.0564, 38.2544, -28.6215, -29.9142
2.772, 2, 17.8816, 15.8645, 23.0564, 38.2544, -28.6215, -29.9142
2.775, 2, 17.8816, 15.8645, 23.0564, 38.2544, -28.6215, -29.9142
2.78, 2, 17.8816, 15.8645, 23.0564, 38.2544, -28.6215, -29.9142
2.784, 2, 17.8816, 15.8645, 23.0564, 38.2544, -28.6215, -29.9142
2.788, 2, 17.8816, 15.8645, 23.0564, 38.2544, -28.6215, -29.9142
2.791, 2, 17.8816, 15.8645, 23.0564, 38.2544, -28.6215, -29.9142
2.796, 2, 17.8816, 15.8645, 23.0564, 38.2544, -28.6215, -29.9142
2.8, 2, 17.8816, 15.8645, 23.0564, 38.2544, -28.6215, -29.9142
2.804, 2, 17.8816, 15.8645, 23.0564, 38.2544, -28.6215, -29.9142
2.808, 2, 17.8816, 15.8645, 23.0564, 38.2544, -28.6215, -29.9142
2.811, 2, 17.8816, 15.8645, 23.0564, 38.2544, -28.6215, -29.9142
2.816, 2, 17.8816, 15.8645, 23.0564, 38.2544, -28.6215, -29.9142
2.82, 2, 17.8816, 15.8645, 23.0564, 38.2544, -28.6215, -29.9142
2.824, 2, 17.8816, 15.8645, 23.0564, 38.2544, -28.6215, -29.9142
2.828, 2, 17.8816, 15.8645, 23.0564, 38.2544, -28.6215, -29.9142
2.831, 2, 17.8816, 15.8645, 23.0564, 38.2544, -28.6215, -29.9142
2.836, 2, 17.8816, 15.8645, 23.0564, 38.2544, -28.6215, -29.9142
2.84, 2, 17.8816, 15.8645, 23.0564, 38.2544, -28.6215, -29.9142
2.844, 2, 17.8816, 15.8645, 23.0564, 38.2544, -28.6215, -29.9142
2.847, 2, 17.8816, 15.8645, 23.0564, 38.2544, -28.6215, -29.9142
2.852, 2, 17.8816, 15.8645, 23.0564, 38.2544, -28.6215, -29.9142
2.856, 2, 17.8816, 15.8645, 23.0564, 38.2544, -28.6215, -29.9142
2.86, 2, 17.8816, 15.8645, 23.0564, 38.2544, -28.6215, -29.9142
2.864, 2, 17.8816, 15.8645, 23.0564, 38.2544, -28.6215, -29.9142
2.867, 2, 17.8816, 15.8645, 23.0564, 38.2544, -28.6215, -29.9142
2.872, 2, 17.8816, 15.8645, 23.0564, 38.2544, -28.6215, -29.9142
2.876, 2, 17.8816, 15.8645, 23.0564, 38.2544, -28.6215, -29.9142
2.88, 2, 17.8816, 15.8645, 23.0564, 38.2544, -28.6215, -29.9142
2.883, 2, 17.8816, 15.8645, 23.0564, 38.2544, -28.6215, -29.9142
2.888, 2, 17.8816, 15.8645, 23.0564, 38.2544, -28.6215, -29.9142
2.892, 2, 17.8816, 15.8645, 23.0564, 38.2544, -28.6215, -29.9142
2.896, 2, 17.8816, 15.8645, 23.0564, 38.2544, -28.6215, -29.9142
2.9, 2, 17.8816, 15.8645, 23.0564, 38.2544, -28.6215, -29.9142
2.903, 2, 17.8816, 15.8645, 23.0564, 38.2544, -28.6215, -29.9142
2.908, 2, 17.8816, 15.8645, 23.0564, 38.2544, -28.6215, -29.9142
2.912, 2, 17.8816, 15.8645, 23.0564, 38.2544, -28.6215, -29.9142
2.916, 2, 17.8816, 15.8645, 23.0564, 38.2544, -28.6215, -29.9142
2.92, 2, 17.8816, 15.8645, 23.0564, 38.2544, -28.6215, -29.9142
2.923, 2, 17.8816, 15.8645, 23.0564, 38.2544, -28.6215, -29.9142
2.928, 2, 17.8816, 15.8645, 23.0564, 38.2544, -28.6215, -29.9142
2.932, 2, 17.8816, 15.8645, 23.0564, 38.2544, -28.6215, -29.9142
2.936, 2, 17.8816, 15.8645, 23.0564, 38.2544, -28.6215, -29.9142
2.939, 2, 17.8816, 15.8645, 23.0564, 38.2544, -28.6215, -29.9142
2.944, 2, 17.8816, 15.8645, 23.0564, 38.2544, -28.6215, -29.9142
2.948, 2, 17.8816, 15.8645, 23.0564, 38.2544, -28.6215, -29.9142
2.952, 2, 17.8816, 15.8645, 23.0564, 38.2544, -28.6215, -29.9142
2.956, 2, 17.8816, 15.8645, 23.0564, 38.2544, -28.6215, -29.9142
2.959, 2, 17.8816, 15.8645, 23.0564, 38.2544, -28.6215, -29.9142
2.964, 2, 17.8816, 15.8645, 23.0564, 38.2544, -28.6215, -29.9142
2.968, 2, 17.8816, 15.8645, 23.0564, 38.2544, -28.6215, -29.9142
2.972, 2, 17.8816, 15.8645, 23.0564, 38.2544, -28.6215, -29.9142
2.976, 2, 17.8816, 15.8645, 23.0564, 38.2544, -28.6215, -29.9142
2.98, 2, 17.8816, 15.8645, 23.0564, 38.2544, -28.6215, -29.9142
2.984, 2, 17.8816, 15.8645, 23.0564, 38.2544, -28.6215, -29.9142
2.988, 2, 17.8816, 15.8645, 23.0564, 38.2544, -28.6215, -29.9142
2.992, 2, 17.8816, 15.8645, 23.0564, 38.2544, -28.6215, -29.9142
2.995, 2, 17.8816, 15.8645, 23.0564, 38.2544, -28.6215, -29.9142
3, 2, 17.8816, 15.8645, 23.0564, 38.2544, -28.6215, -29.9142
3.004, 2, 17.8816, 15.8645, 23.0564, 38.2544, -28.6215, -29.9142
3.008, 2, 17.8816, 15.8645, 23.0564, 38.2544, -28.6215, -29.9142
3.012, 2, 17.8816, 15.8645, 23.0564, 38.2544, -28.6215, -29.9142
3.015, 2, 17.8816, 15.8645, 23.0564, 38.2544, -28.6215, -29.9142
3.02, 2, 17.8816, 15.8645, 23.0564, 38.2544, -28.6215, -29.9142
3.024, 2, 17.8816, 15.8645, 23.0564, 38.2544, -28.6215, -29.9142
3.028, 2, 17.8816, 15.8645, 23.0564, 38.2544, -28.6215, -29.9142
3.031, 2, 17.8816, 15.8645, 23.0564, 38.2544, -28.6215, -29.9142
3.036, 2, 17.8816, 15.8645, 23.0564, 38.2544, -28.6215, -29.9142
3.04, 2, 17.8816, 15.8645, 23.0564, 38.2544, -28.6215, -29.9142
3.044, 2, 17.8816, 15.8645, 23.0564, 38.2544, -28.6215, -29.9142
3.048, 2, 17.8816, 15.8645, 23.0564, 38.2544, -28.6215, -29.9142
3.051, 2, 17.8816, 15.8645, 23.0564, 38.2544, -28.6215, -29.9142
3.056, 2, 17.8816, 15.8645, 23.0564, 38.2544, -28.6215, -29.9142
3.06, 2, 17.8816, 15.8645, 23.0564, 38.2544, -28.6215, -29.9142
3.064, 2, 17.8816, 15.8645, 23.0564, 38.2544, -28.6215, -29.9142
3.068, 2, 17.8816, 15.8645, 23.0564, 38.2544, -28.6215, -29.9142
3.071, 2, 17.8816, 15.8645, 23.0564, 38.2544, -28.6215, -29.9142
3.076, 2, 17.8816, 15.8645, 23.0564, 38.2544, -28.6215, -29.9142
3.08, 2, 17.8816, 15.8645, 23.0564, 38.2544, -28.6215, -29.9142
3.084, 2, 17.8816, 15.8645, 23.0564, 38.2544, -28.6215, -29.9142
3.087, 2, 17.8816, 15.8645, 23.0564, 38.2544, -28.6215, -29.9142
3.092, 2, 17.8816, 15.8645, 23.0564, 38.2544, -28.6215, -29.9142
3.096, 2, 17.8816, 15.8645, 23.0564, 38.2544, -28.6215, -29.9142
3.1, 2, 17.8816, 15.8645, 23.0564, 38.2544, -28.6215, -29.9142
3.104, 2, 17.8816, 15.8645, 23.0564, 38.2544, -28.6215, -29.9142
3.107, 2, 17.8816, 15.8645, 23.0564, 38.2544, -28.6215, -29.9142
3.112, 2, 17.8816, 15.8645, 23.0564, 38.2544, -28.6215, -29.9142
3.116, 2, 17.8816, 15.8645, 23.0564, 38.2544, -28.6215, -29.9142
3.12, 2, 17.8816, 15.8645, 23.0564, 38.2544, -28.6215, -29.9142
3.124, 2, 17.8816, 15.8645, 23.0564, 38.2544, -28.6215, -29.9142
3.128, 2, 17.8816, 15.8645, 23.0564, 38.2544, -28.6215, -29.9142
3.132, 2, 17.8816, 15.8645, 23.0564, 38.2544, -28.6215, -29.9142
3.136, 2, 17.8816, 15.8645, 23.0564, 38.2544, -28.6215, -29.9142
3.14, 2, 17.8816, 15.8645, 23.0564, 38.2544, -28.6215, -29.9142
3.143, 2, 17.8816, 15.8645, 23.0564, 38.2544, -28.6215, -29.9142
3.148, 2, 17.8816, 15.8645, 23.0564, 38.2544, -28.6215, -29.9142
3.152, 2, 17.8816, 15.8645, 23.0564, 38.2544, -28.6215, -29.9142
3.156, 2, 17.8816, 15.8645, 23.0564, 38.2544, -28.6215, -29.9142
3.16, 2, 17.8816, 15.8645, 23.0564, 38.2544, -28.6215, -29.9142
3.163, 2, 17.8816, 15.8645, 23.0564, 38.2544, -28.6215, -29.9142
3.168, 2, 17.8816, 15.8645, 23.0564, 38.2544, -28.6215, -29.9142
3.172, 2, 17.8816, 15.8645, 23.0564, 38.2544, -28.6215, -29.9142
3.176, 2, 17.8816, 15.8645, 23.0564, 38.2544, -28.6215, -29.9142
3.179, 2, 17.8816, 15.8645, 23.0564, 38.2544, -28.6215, -29.9142
3.184, 2, 17.8816, 15.8645, 23.0564, 38.2544, -28.6215, -29.9142
3.188, 2, 17.8816, 15.8645, 23.0564, 38.2544, -28.6215, -29.9142
3.192, 2, 17.8816, 15.8645, 23.0564, 38.2544, -28.6215, -29.9142
3.196, 2, 17.8816, 15.8645, 23.0564, 38.2544, -28.6215, -29.9142
3.199, 2, 17.8816, 15.8645, 23.0564, 38.2544, -28.6215, -29.9142
3.204, 2, 17.8816, 15.8645, 23.0564, 38.2544, -28.6215, -29.9142
3.208, 2, 17.8816, 15.8645, 23.0564, 38.2544, -28.6215, -29.9142
3.212, 2, 17.8816, 15.8645, 23.0564, 38.2544, -28.6215, -29.9142
3.216, 2, 17.8816, 15.8645, 23.0564, 38.2544, -28.6215, -29.9142
3.22, 2, 17.8816, 15.8645, 23.0564, 38.2544, -28.6215, -29.9142
3.224, 2, 17.8816, 15.8645, 23.0564, 38.2544, -28.6215, -29.9142
3.228, 2, 17.8816, 15.8645, 23.0564, 38.2544, -28.6215, -29.9142
3.232, 2, 17.8816, 15.8645, 23.0564, 38.2544, -28.6215, -29.9142
3.235, 2, 17.8816, 15.8645, 23.0564, 38.2544, -28.6215, -29.9142
3.24, 2, 17.8816, 15.8645, 23.0564, 38.2544, -28.6215, -29.9142
3.244, 2, 17.8816, 15.8645, 23.0564, 38.2544, -28.6215, -29.9142
3.248, 2, 17.8816, 15.8645, 23.0564, 38.2544, -28.6215, -29.9142
3.252, 4, 17.8816, 15.8645, 23.0564, 38.2544, -28.6215, -29.9142
3.255, 4, 17.8816, 15.8645, 23.0564, 38.2544, -28.6215, -29.9142
3.26, 4, 17.8816, 15.8645, 23.0564, 38.2544, -28.6215, -29.9142
3.264, 4, 17.8816, 15.8645, 23.0564, 38.2544, -28.6215, -29.9142
3.268, 4, 17.8816, 15.8645, 23.0564, 38.2544, -28.6215, -29.9142
3.272, 4, 17.8816, 15.8645, 23.0564, 38.2544, -28.6215, -29.9142
3.276, 4, 17.8816, 15.8645, 23.0564, 38.2544, -28.6215, -29.9142
3.28, 4, 17.8816, 15.8645, 23.0564, 38.2544, -28.6215, -29.9142
3.284, 4, 17.8816, 15.8645, 23.0564, 38.2544, -28.6215, -29.9142
3.288, 4, 17.8816, 15.8645, 23.0564, 38.2544, -28.6215, -29.9142
3.291, 4, 17.8816, 15.8645, 23.0564, 38.2544, -28.6215, -29.9142
3.296, 4, 17.8816, 15.8645, 23.0564, 38.2544, -28.6215, -29.9142
3.3, 4, 17.8816, 15.8645, 23.0564, 38.2544, -28.6215, -29.9142
3.304, 4, 17.8816, 15.8645, 23.0564, 38.2544, -28.6215, -29.9142
3.308, 4, 17.8816, 15.8645, 23.0564, 38.2544, -28.6215, -29.9142
3.312, 4, 17.8816, 15.8645, 23.0564, 38.2544, -28.6215, -29.9142
3.316, 4, 17.8816, 15.8645, 23.0564, 38.2544, -28.6215, -29.9142
3.32, 4, 17.8816, 15.8645, 23.0564, 38.2544, -28.6215, -29.9142
3.324, 4, 17.8816, 15.8645, 23.0564, 38.2544, -28.6215, -29.9142
3.328, 4, 17.8816, 15.8645, 23.0564, 38.2544, -28.6215, -29.9142
3.332, 4, 17.8816, 15.8645, 23.0564, 38.2544, -28.6215, -29.9142
3.336, 4, 17.8816, 15.8645, 23.0564, 38.2544, -28.6215, -29.9142
3.34, 4, 17.8816, 15.8645, 23.0564, 38.2544, -28.6215, -29.9142
3.344, 4, 17.8816, 15.8645, 23.0564, 38.2544, -28.6215, -29.9142
3.347, 4, 17.8816, 15.8645, 23.0564, 38.2544, -28.6215, -29.9142
3.352, 4, 17.8816, 15.8645, 23.0564, 38.2544, -28.6215, -29.9142
3.358, 4, 17.8816, 15.8645, 23.0564, 38.2544, -28.6215, -29.9142
3.362, 4, 17.8816, 15.8645, 23.0564, 38.2544, -28.6215, -29.9142
3.366, 4, 17.8816, 15.8645, 23.0564, 38.2544, -28.6215, -29.9142
3.368, 4, 17.8816, 15.8645, 23.0564, 38.2544, -28.6215, -29.9142
3.372, 4, 17.8816, 15.8645, 23.0564, 38.2544, -28.6215, -29.9142
3.376, 4, 17.8816, 15.8645, 23.0564, 38.2544, -28.6215, -29.9142
3.38, 4, 17.8816, 15.8645, 23.0564, 38.2544, -28.6215, -29.9142
3.383, 4, 17.8816, 15.8645, 23.0564, 38.2544, -28.6215, -29.9142
3.388, 4, 17.8816, 15.8645, 23.0564, 38.2544, -28.6215, -29.9142
3.392, 4, 17.8815, 15.8645, 23.0564, 38.2544, -28.6215, -29.9142
3.396, 4, 17.8812, 15.8645, 23.0564, 38.2543, -28.6215, -29.9142
3.4, 4, 17.8806, 15.8645, 23.0565, 38.2542, -28.6216, -29.9141
3.403, 4, 17.8793, 15.8645, 23.0566, 38.2539, -28.6217, -29.9139
3.408, 4, 17.8773, 15.8644, 23.0569, 38.2532, -28.6219, -29.9133
3.412, 4, 17.8745, 15.8643, 23.0576, 38.2517, -28.6225, -29.912
3.416, 4, 17.8707, 15.864, 23.0586, 38.2489, -28.6235, -29.9095
3.42, 4, 17.8659, 15.8636, 23.0603, 38.2441, -28.6252, -29.9053
3.424, 5, 17.8601, 15.863, 23.0629, 38.2365, -28.628, -29.8986
3.428, 5, 17.8533, 15.8621, 23.0667, 38.225, -28.6321, -29.8884
3.432, 5, 17.8454, 15.8608, 23.072, 38.2087, -28.6379, -29.874
3.436, 5, 17.8363, 15.8592, 23.0792, 38.1865, -28.646, -29.8543
3.439, 5, 17.8257, 15.857, 23.0884, 38.1572, -28.6565, -29.8284
3.444, 5, 17.8136, 15.8542, 23.1001, 38.1198, -28.67, -29.7953
3.448, 5, 17.8, 15.8508, 23.1146, 38.0733, -28.6867, -29.7542
3.452, 5, 17.7848, 15.8467, 23.132, 38.017, -28.7071, -29.7043
3.456, 5, 17.7681, 15.8419, 23.1525, 37.9502, -28.7313, -29.6452
3.46, 5, 17.75, 15.8363, 23.1763, 37.8727, -28.7595, -29.5765
3.464, 5, 17.7303, 15.83, 23.2033, 37.7844, -28.7917, -29.4983
3.468, 5, 17.7091, 15.823, 23.2335, 37.6856, -28.8279, -29.4108
3.472, 5, 17.6863, 15.8152, 23.2666, 37.5769, -28.8678, -29.3145
3.476, 5, 17.6618, 15.8069, 23.3026, 37.459, -28.9113, -29.2101
3.48, 5, 17.6357, 15.7979, 23.3411, 37.3328, -28.9579, -29.0985
3.484, 5, 17.6082, 15.7885, 23.3818, 37.1995, -29.0075, -28.9806
3.488, 5, 17.5792, 15.7787, 23.4245, 37.0601, -29.0595, -28.8573
3.492, 5, 17.549, 15.7685, 23.4688, 36.9157, -29.1138, -28.7296
3.495, 5, 17.5176, 15.7581, 23.5144, 36.7672, -29.1698, -28.5984
3.5, 5, 17.4852, 15.7475, 23.561, 36.6156, -29.2273, -28.4645
3.504, 5, 17.4516, 15.7367, 23.6085, 36.4618, -29.286, -28.3287
3.508, 5, 17.4171, 15.7259, 23.6565, 36.3065, -29.3455, -28.1917
3.512, 5, 17.3816, 15.7151, 23.7049, 36.1503, -29.4059, -28.0539
3.516, 5, 17.3453, 15.7042, 23.7536, 35.9936, -29.4667, -27.9158
3.52, 5, 17.3083, 15.6935, 23.8024, 35.8367, -29.528, -27.7776
3.524, 5, 17.2708, 15.6827, 23.8512, 35.6799, -29.5897, -27.6396
3.528, 5, 17.233, 15.672, 23.9001, 35.5233, -29.6516, -27.5018
3.531, 5, 17.195, 15.6614, 23.949, 35.3671, -29.7138, -27.3644
3.536, 5, 17.1567, 15.6509, 23.9979, 35.2113, -29.7763, -27.2274
3.54, 5, 17.1183, 15.6405, 24.0466, 35.0559, -29.839, -27.0909
3.544, 5, 17.0799, 15.6302, 24.0953, 34.901, -29.9018, -26.9549
3.548, 5, 17.0413, 15.6199, 24.1439, 34.7466, -29.9649, -26.8194
3.552, 5, 17.0027, 15.6098, 24.1924, 34.5927, -30.0281, -26.6844
3.556, 5, 16.964, 15.5997, 24.2409, 34.4393, -30.0915, -26.5499
3.56, 5, 16.9253, 15.5898, 24.2892, 34.2865, -30.1551, -26.416
3.564, 5, 16.8865, 15.5799, 24.3375, 34.1342, -30.2189, -26.2826
3.568, 5, 16.8477, 15.5701, 24.3856, 33.9824, -30.2829, -26.1498
3.572, 5, 16.8089, 15.5604, 24.4336, 33.8311, -30.347, -26.0175
3.576, 5, 16.77, 15.5509, 24.4816, 33.6804, -30.4113, -25.8857
3.58, 5, 16.7311, 15.5414, 24.5295, 33.5302, -30.4758, -25.7545
3.584, 5, 16.6922, 15.532, 24.5772, 33.3806, -30.5404, -25.6238
3.587, 5, 16.6532, 15.5227, 24.6249, 33.2314, -30.6052, -25.4936
3.592, 5, 16.6142, 15.5135, 24.6724, 33.0828, -30.6702, -25.364
3.596, 5, 16.5751, 15.5044, 24.7199, 32.9347, -30.7353, -25.2349
3.6, 5, 16.5361, 15.4954, 24.7672, 32.7872, -30.8006, -25.1063
3.604, 5, 16.4969, 15.4865, 24.8145, 32.6401, -30.8661, -24.9783
3.608, 5, 16.4578, 15.4777, 24.8616, 32.4936, -30.9317, -24.8508
3.612, 5, 16.4186, 15.469, 24.9087, 32.3476, -30.9975, -24.7238
3.616, 5, 16.3794, 15.4604, 24.9557, 32.2021, -31.0634, -24.5973
3.62, 5, 16.3402, 15.4519, 25.0025, 32.0571, -31.1296, -24.4713
3.624, 5, 16.3009, 15.4435, 25.0493, 31.9126, -31.1958, -24.3459
3.628, 5, 16.2616, 15.4352, 25.0959, 31.7686, -31.2622, -24.221
3.632, 5, 16.2222, 15.427, 25.1425, 31.6252, -31.3288, -24.0965
3.636, 5, 16.1829, 15.4189, 25.1889, 31.4822, -31.3956, -23.9726
3.64, 5, 16.1435, 15.4108, 25.2353, 31.3398, -31.4625, -23.8493
3.644, 5, 16.104, 15.4029, 25.2816, 31.1978, -31.5295, -23.7264
3.648, 5, 16.0645, 15.3951, 25.3277, 31.0564, -31.5967, -23.604
3.652, 5, 16.025, 15.3874, 25.3738, 30.9154, -31.6641, -23.4821
3.656, 5, 15.9855, 15.3797, 25.4197, 30.7749, -31.7316, -23.3607
3.66, 5, 15.9459, 15.3722, 25.4656, 30.635, -31.7992, -23.2399
3.664, 5, 15.9063, 15.3648, 25.5114, 30.4955, -31.867, -23.1195
3.668, 5, 15.8667, 15.3574, 25.557, 30.3565, -31.935, -22.9996
3.672, 5, 15.827, 15.3502, 25.6026, 30.218, -32.0031, -22.8802
3.676, 5, 15.7873, 15.343, 25.6481, 30.08, -32.0713, -22.7613
3.679, 5, 15.7476, 15.336, 25.6934, 29.9424, -32.1397, -22.6429
3.684, 5, 15.7078, 15.329, 25.7387, 29.8054, -32.2083, -22.525
3.688, 5, 15.668, 15.3222, 25.7838, 29.6688, -32.277, -22.4076
3.692, 5, 15.6282, 15.3154, 25.8289, 29.5327, -32.3458, -22.2906
3.696, 5, 15.5883, 15.3088, 25.8739, 29.3971, -32.4148, -22.1742
3.7, 5, 15.5485, 15.3022, 25.9187, 29.2619, -32.4839, -22.0582
3.704, 5, 15.5085, 15.2958, 25.9635, 29.1273, -32.5532, -21.9427
3.708, 6, 15.4686, 15.2894, 26.0082, 28.9931, -32.6226, -21.8276
3.712, 6, 15.4286, 15.2831, 26.0527, 28.8593, -32.6921, -21.7131
3.716, 6, 15.3886, 15.277, 26.0972, 28.726, -32.7618, -21.599
3.72, 6, 15.3485, 15.2709, 26.1416, 28.5932, -32.8316, -21.4854
3.724, 6, 15.3084, 15.2649, 26.1858, 28.4609, -32.9016, -21.3722
3.728, 6, 15.2683, 15.2591, 26.23, 28.329, -32.9717, -21.2596
3.732, 6, 15.2282, 15.2533, 26.274, 28.1975, -33.0419, -21.1473
3.735, 6, 15.188, 15.2476, 26.318, 28.0666, -33.1123, -21.0356
3.74, 6, 15.1478, 15.242, 26.3619, 27.936, -33.1828, -20.9243
3.744, 6, 15.1076, 15.2366, 26.4056, 27.806, -33.2534, -20.8135
3.748, 6, 15.0673, 15.2312, 26.4493, 27.6763, -33.3242, -20.7031
3.752, 6, 15.027, 15.2259, 26.4929, 27.5472, -33.3951, -20.5932
3.756, 6, 14.9867, 15.2207, 26.5363, 27.4184, -33.4662, -20.4837
3.76, 6, 14.9463, 15.2156, 26.5797, 27.2901, -33.5373, -20.3747
3.764, 6, 14.9059, 15.2106, 26.6229, 27.1623, -33.6086, -20.2661
3.768, 6, 14.8655, 15.2058, 26.6661, 27.0349, -33.6801, -20.158
3.772, 6, 14.825, 15.201, 26.7091, 26.9079, -33.7516, -20.0503
3.776, 6, 14.7846, 15.1963, 26.7521, 26.7814, -33.8233, -19.9431
3.78, 6, 14.744, 15.1917, 26.7949, 26.6553, -33.8951, -19.8363
3.784, 6, 14.7035, 15.1872, 26.8377, 26.5297, -33.9671, -19.7299
3.788, 6, 14.6629, 15.1828, 26.8803, 26.4044, -34.0392, -19.624
3.792, 6, 14.6223, 15.1785, 26.9229, 26.2796, -34.1114, -19.5185
3.796, 6, 14.5817, 15.1743, 26.9653, 26.1553, -34.1837, -19.4135
3.8, 6, 14.541, 15.1702, 27.0077, 26.0313, -34.2561, -19.3089
3.804, 6, 14.5003, 15.1662, 27.0499, 25.9078, -34.3287, -19.2047
3.808, 6, 14.4596, 15.1623, 27.0921, 25.7847, -34.4014, -19.101
3.812, 6, 14.4188, 15.1586, 27.1341, 25.662, -34.4742, -18.9976
3.816, 6, 14.378, 15.1549, 27.1761, 25.5397, -34.5472, -18.8947
3.82, 6, 14.3372, 15.1513, 27.2179, 25.4179, -34.6202, -18.7923
3.824, 6, 14.2963, 15.1478, 27.2596, 25.2964, -34.6934, -18.6902
3.828, 6, 14.2554, 15.1444, 27.3013, 25.1754, -34.7667, -18.5886
3.832, 6, 14.2145, 15.1411, 27.3428, 25.0548, -34.8401, -18.4873
3.836, 6, 14.1736, 15.1379, 27.3843, 24.9346, -34.9137, -18.3865
3.84, 6, 14.1326, 15.1348, 27.4256, 24.8148, -34.9873, -18.2861
3.844, 6, 14.0916, 15.1318, 27.4668, 24.6954, -35.0611, -18.1862
3.848, 6, 14.0506, 15.1289, 27.5079, 24.5764, -35.135, -18.0866
3.852, 6, 14.0095, 15.1261, 27.549, 24.4578, -35.209, -17.9874
3.856, 6, 13.9684, 15.1234, 27.5899, 24.3396, -35.2831, -17.8887
3.86, 6, 13.9273, 15.1208, 27.6307, 24.2218, -35.3573, -17.7903
3.864, 6, 13.8862, 15.1183, 27.6714, 24.1044, -35.4317, -17.6924
3.868, 6, 13.845, 15.1159, 27.712, 23.9874, -35.5062, -17.5948
3.872, 6, 13.8038, 15.1136, 27.7526, 23.8708, -35.5807, -17.4977
3.876, 6, 13.7625, 15.1114, 27.793, 23.7546, -35.6554, -17.4009
3.88, 6, 13.7213, 15.1093, 27.8333, 23.6387, -35.7302, -17.3045
3.884, 6, 13.68, 15.1072, 27.8735, 23.5233, -35.8051, -17.2086
3.888, 6, 13.6386, 15.1053, 27.9136, 23.4082, -35.8801, -17.113
3.892, 6, 13.5973, 15.1035, 27.9536, 23.2935, -35.9553, -17.0178
3.896, 6, 13.5559, 15.1018, 27.9935, 23.1792, -36.0305, -16.923
3.9, 6, 13.5145, 15.1003, 28.0333, 23.0653, -36.1058, -16.8286
3.904, 6, 13.473, 15.0988, 28.073, 22.9517, -36.1813, -16.7345
3.908, 6, 13.4316, 15.0974, 28.1126, 22.8385, -36.2568, -16.6409
3.912, 6, 13.3901, 15.0961, 28.152, 22.7257, -36.3325, -16.5476
3.916, 6, 13.3485, 15.0949, 28.1914, 22.6133, -36.4083, -16.4547
3.92, 6, 13.307, 15.0938, 28.2307, 22.5013, -36.4841, -16.3622
3.924, 6, 13.2654, 15.0928, 28.2699, 22.3896, -36.5601, -16.2701
3.928, 6, 13.2238, 15.0919, 28.3089, 22.2783, -36.6362, -16.1783
3.932, 6, 13.1821, 15.0911, 28.3479, 22.1673, -36.7124, -16.087
3.936, 6, 13.1404, 15.0904, 28.3868, 22.0567, -36.7887, -15.9959
3.94, 6, 13.0987, 15.0898, 28.4255, 21.9465, -36.8651, -15.9053
3.944, 6, 13.057, 15.0893, 28.4642, 21.8366, -36.9416, -15.815
3.948, 6, 13.0153, 15.0889, 28.5028, 21.7271, -37.0182, -15.7251
3.952, 6, 12.9735, 15.0886, 28.5412, 21.6179, -37.0948, -15.6356
3.956, 6, 12.9317, 15.0884, 28.5796, 21.5092, -37.1716, -15.5464
3.96, 6, 12.8898, 15.0883, 28.6178, 21.4007, -37.2485, -15.4576
3.964, 6, 12.8479, 15.0883, 28.656, 21.2926, -37.3255, -15.3691
3.968, 6, 12.806, 15.0884, 28.694, 21.1849, -37.4026, -15.281
3.972, 6, 12.7641, 15.0886, 28.7319, 21.0775, -37.4798, -15.1933
3.976, 6, 12.7222, 15.0889, 28.7698, 20.9705, -37.5571, -15.1059
3.98, 6, 12.6802, 15.0893, 28.8075, 20.8638, -37.6345, -15.0188
3.984, 6, 12.6382, 15.0899, 28.8451, 20.7574, -37.712, -14.9322
3.988, 7, 12.5961, 15.0905, 28.8826, 20.6514, -37.7895, -14.8458
3.992, 7, 12.5541, 15.0912, 28.9201, 20.5458, -37.8672, -14.7598
3.996, 7, 12.512, 15.092, 28.9574, 20.4404, -37.945, -14.6742
3.999, 7, 12.4699, 15.0929, 28.9946, 20.3354, -38.0228, -14.5889
4.004, 7, 12.4277, 15.0939, 29.0317, 20.2308, -38.1008, -14.5039
4.008, 7, 12.3855, 15.095, 29.0687, 20.1265, -38.1788, -14.4193
4.012, 7, 12.3433, 15.0963, 29.1056, 20.0225, -38.257, -14.3351
4.016, 7, 12.3011, 15.0976, 29.1424, 19.9188, -38.3352, -14.2511
4.02, 7, 12.2589, 15.099, 29.1791, 19.8155, -38.4135, -14.1675
4.024, 7, 12.2166, 15.1005, 29.2156, 19.7125, -38.4919, -14.0843
4.028, 7, 12.1743, 15.1021, 29.2521, 19.6099, -38.5704, -14.0014
4.032, 7, 12.1319, 15.1038, 29.2885, 19.5075, -38.649, -13.9188
4.036, 7, 12.0896, 15.1057, 29.3248, 19.4055, -38.7277, -13.8365
4.04, 7, 12.0472, 15.1076, 29.3609, 19.3038, -38.8065, -13.7546
4.044, 7, 12.0048, 15.1096, 29.397, 19.2024, -38.8853, -13.673
4.048, 7, 11.9623, 15.1117, 29.4329, 19.1014, -38.9643, -13.5917
4.052, 7, 11.9198, 15.114, 29.4688, 19.0006, -39.0433, -13.5107
4.056, 7, 11.8774, 15.1163, 29.5045, 18.9002, -39.1224, -13.4301
4.06, 7, 11.8348, 15.1187, 29.5402, 18.8001, -39.2016, -13.3498
4.064, 7, 11.7923, 15.1213, 29.5757, 18.7003, -39.2809, -13.2698
4.068, 7, 11.7497, 15.1239, 29.6111, 18.6008, -39.3603, -13.1902
4.072, 7, 11.7071, 15.1266, 29.6465, 18.5017, -39.4398, -13.1108
4.076, 7, 11.6645, 15.1295, 29.6817, 18.4028, -39.5193, -13.0318
4.08, 7, 11.6218, 15.1324, 29.7168, 18.3042, -39.5989, -12.9531
4.084, 7, 11.5791, 15.1354, 29.7518, 18.206, -39.6786, -12.8747
4.088, 7, 11.5364, 15.1386, 29.7867, 18.1081, -39.7584, -12.7966
4.092, 7, 11.4937, 15.1418, 29.8215, 18.0104, -39.8383, -12.7188
4.096, 7, 11.451, 15.1451, 29.8562, 17.9131, -39.9183, -12.6413
4.1, 7, 11.4082, 15.1486, 29.8908, 17.816, -39.9983, -12.5641
4.104, 7, 11.3654, 15.1521, 29.9253, 17.7193, -40.0784, -12.4873
4.108, 7, 11.3225, 15.1558, 29.9597, 17.6229, -40.1586, -12.4107
4.112, 7, 11.2797, 15.1595, 29.9939, 17.5267, -40.2389, -12.3345
4.116, 7, 11.2368, 15.1634, 30.0281, 17.4309, -40.3193, -12.2585
4.12, 7, 11.1939, 15.1673, 30.0622, 17.3353, -40.3997, -12.1829
4.124, 7, 11.151, 15.1714, 30.0961, 17.2401, -40.4803, -12.1075
4.128, 7, 11.108, 15.1755, 30.13, 17.1451, -40.5609, -12.0325
4.132, 7, 11.065, 15.1798, 30.1637, 17.0504, -40.6415, -11.9577
4.136, 7, 11.022, 15.1841, 30.1973, 16.956, -40.7223, -11.8833
4.14, 7, 10.979, 15.1886, 30.2309, 16.8619, -40.8031, -11.8091
4.144, 7, 10.9359, 15.1931, 30.2643, 16.7681, -40.884, -11.7352
4.148, 7, 10.8929, 15.1978, 30.2976, 16.6745, -40.965, -11.6617
4.152, 7, 10.8497, 15.2026, 30.3308, 16.5812, -41.0461, -11.5884
4.156, 7, 10.8066, 15.2074, 30.3639, 16.4883, -41.1272, -11.5153
4.16, 7, 10.7635, 15.2124, 30.3969, 16.3956, -41.2084, -11.4426
4.164, 7, 10.7203, 15.2175, 30.4298, 16.3031, -41.2897, -11.3702
4.168, 7, 10.6771, 15.2226, 30.4626, 16.211, -41.371, -11.298
4.172, 7, 10.6339, 15.2279, 30.4952, 16.1191, -41.4524, -11.2262
4.176, 7, 10.5906, 15.2333, 30.5278, 16.0275, -41.5339, -11.1546
4.18, 7, 10.5473, 15.2387, 30.5603, 15.9362, -41.6155, -11.0833
4.184, 7, 10.504, 15.2443, 30.5926, 15.8451, -41.6971, -11.0122
4.188, 7, 10.4607, 15.25, 30.6249, 15.7543, -41.7789, -10.9415
4.192, 7, 10.4174, 15.2558, 30.657, 15.6638, -41.8606, -10.871
4.196, 7, 10.374, 15.2616, 30.6891, 15.5736, -41.9425, -10.8008
4.2, 7, 10.3306, 15.2676, 30.721, 15.4836, -42.0244, -10.7309
4.204, 7, 10.2872, 15.2737, 30.7528, 15.3939, -42.1064, -10.6612
4.208, 7, 10.2438, 15.2799, 30.7845, 15.3044, -42.1885, -10.5918
4.212, 7, 10.2003, 15.2862, 30.8161, 15.2152, -42.2706, -10.5227
4.216, 7, 10.1568, 15.2925, 30.8476, 15.1263, -42.3528, -10.4539
4.22, 7, 10.1133, 15.299, 30.879, 15.0376, -42.435, -10.3853
4.224, 7, 10.0698, 15.3056, 30.9103, 14.9492, -42.5174, -10.317
4.23, 7, 9.98265, 15.3191, 30.9725, 14.7732, -42.6822, -10.1812
4.232, 7, 9.98265, 15.3191, 30.9725, 14.7732, -42.6822, -10.1812
4.236, 7, 9.93905, 15.326, 31.0035, 14.6856, -42.7648, -10.1137
4.24, 7, 9.89542, 15.333, 31.0343, 14.5982, -42.8474, -10.0464
4.244, 7, 9.85178, 15.3401, 31.0651, 14.5111, -42.93, -9.97944
4.248, 7, 9.80811, 15.3473, 31.0957, 14.4242, -43.0128, -9.91271
4.252, 7, 9.76442, 15.3546, 31.1263, 14.3376, -43.0955, -9.84624
4.256, 7, 9.72071, 15.362, 31.1567, 14.2512, -43.1784, -9.78003
4.26, 7, 9.67698, 15.3695, 31.187, 14.1651, -43.2613, -9.71407
4.264, 8, 9.63322, 15.3771, 31.2172, 14.0792, -43.3443, -9.64837
4.268, 8, 9.58945, 15.3848, 31.2473, 13.9936, -43.4273, -9.58292
4.272, 8, 9.54564, 15.3926, 31.2773, 13.9082, -43.5104, -9.51772
4.276, 8, 9.50182, 15.4005, 31.3071, 13.8231, -43.5936, -9.45278
4.28, 8, 9.45798, 15.4085, 31.3369, 13.7382, -43.6769, -9.38808
4.284, 8, 9.41412, 15.4166, 31.3666, 13.6535, -43.7601, -9.32364
4.288, 8, 9.37023, 15.4248, 31.3961, 13.5691, -43.8435, -9.25944
4.292, 8, 9.32632, 15.4331, 31.4256, 13.4849, -43.9269, -9.19549
4.296, 8, 9.28239, 15.4415, 31.4549, 13.401, -44.0104, -9.13178
4.3, 8, 9.23844, 15.4501, 31.4841, 13.3173, -44.0939, -9.06833
4.304, 8, 9.19447, 15.4587, 31.5133, 13.2338, -44.1775, -9.00511
4.308, 8, 9.15048, 15.4674, 31.5423, 13.1506, -44.2612, -8.94213
4.312, 8, 9.10646, 15.4762, 31.5712, 13.0676, -44.3449, -8.8794
4.316, 8, 9.06243, 15.4851, 31.6, 12.9849, -44.4286, -8.81691
4.32, 8, 9.01837, 15.4941, 31.6287, 12.9023, -44.5125, -8.75465
4.324, 8, 8.97429, 15.5033, 31.6572, 12.82, -44.5963, -8.69264
4.328, 8, 8.93019, 15.5125, 31.6857, 12.738, -44.6803, -8.63086
4.332, 8, 8.88608, 15.5218, 31.7141, 12.6561, -44.7643, -8.56932
4.336, 8, 8.84194, 15.5312, 31.7423, 12.5745, -44.8483, -8.50801
4.34, 8, 8.79778, 15.5408, 31.7704, 12.4932, -44.9324, -8.44694
4.344, 8, 8.7536, 15.5504, 31.7985, 12.412, -45.0166, -8.3861
4.348, 8, 8.7094, 15.5601, 31.8264, 12.3311, -45.1008, -8.32549
4.352, 8, 8.66518, 15.57, 31.8542, 12.2504, -45.1851, -8.26511
4.356, 8, 8.62094, 15.5799, 31.8819, 12.1699, -45.2694, -8.20497
4.36, 8, 8.57668, 15.5899, 31.9095, 12.0896, -45.3538, -8.14505
4.364, 8, 8.5324, 15.6001, 31.937, 12.0096, -45.4382, -8.08536
4.368, 8, 8.4881, 15.6103, 31.9643, 11.9297, -45.5227, -8.02589
4.372, 8, 8.44378, 15.6206, 31.9916, 11.8501, -45.6072, -7.96665
4.376, 8, 8.39944, 15.6311, 32.0188, 11.7707, -45.6918, -7.90764
4.38, 8, 8.35508, 15.6416, 32.0458, 11.6916, -45.7765, -7.84885
4.384, 8, 8.31071, 15.6522, 32.0727, 11.6126, -45.8612, -7.79028
4.388, 8, 8.26631, 15.663, 32.0995, 11.5339, -45.9459, -7.73194
4.392, 8, 8.2219, 15.6738, 32.1263, 11.4554, -46.0307, -7.67381
4.396, 8, 8.17746, 15.6848, 32.1529, 11.377, -46.1155, -7.6159
4.4, 8, 8.13301, 15.6958, 32.1793, 11.2989, -46.2004, -7.55822
4.404, 8, 8.08853, 15.707, 32.2057, 11.221, -46.2854, -7.50075
4.408, 8, 8.04404, 15.7182, 32.232, 11.1434, -46.3704, -7.44349
4.412, 8, 7.99953, 15.7295, 32.2582, 11.0659, -46.4554, -7.38645
4.416, 8, 7.95501, 15.741, 32.2842, 10.9886, -46.5405, -7.32963
4.42, 8, 7.91046, 15.7525, 32.3102, 10.9115, -46.6256, -7.27302
4.424, 8, 7.86589, 15.7642, 32.336, 10.8347, -46.7108, -7.21662
4.428, 8, 7.82131, 15.7759, 32.3617, 10.758, -46.796, -7.16043
4.432, 8, 7.77671, 15.7878, 32.3873, 10.6816, -46.8813, -7.10446
4.436, 8, 7.73209, 15.7997, 32.4128, 10.6053, -46.9666, -7.04869
4.44, 8, 7.68745, 15.8118, 32.4382, 10.5293, -47.052, -6.99313
4.444, 8, 7.6428, 15.8239, 32.4635, 10.4535, -47.1374, -6.93778
4.448, 8, 7.59812, 15.8362, 32.4886, 10.3778, -47.2229, -6.88264
4.452, 8, 7.55343, 15.8485, 32.5137, 10.3024, -47.3084, -6.82771
4.456, 8, 7.50873, 15.8609, 32.5386, 10.2271, -47.3939, -6.77297
4.46, 8, 7.464, 15.8735, 32.5635, 10.1521, -47.4795, -6.71845
4.464, 8, 7.41926, 15.8861, 32.5882, 10.0772, -47.5652, -6.66412
4.468, 8, 7.3745, 15.8989, 32.6128, 10.0026, -47.6508, -6.61
4.472, 8, 7.32972, 15.9117, 32.6373, 9.92809, -47.7366, -6.55608
4.476, 8, 7.28493, 15.9247, 32.6617, 9.85382, -47.8223, -6.50236
4.48, 8, 7.24011, 15.9377, 32.6859, 9.77975, -47.9081, -6.44884
4.484, 8, 7.19529, 15.9509, 32.7101, 9.70586, -47.994, -6.39552
4.488, 8, 7.15044, 15.9641, 32.7342, 9.63217, -48.0799, -6.3424
4.492, 8, 7.10558, 15.9775, 32.7581, 9.55867, -48.1658, -6.28948
4.496, 8, 7.0607, 15.9909, 32.7819, 9.48536, -48.2518, -6.23675
4.5, 8, 7.01581, 16.0045, 32.8056, 9.41224, -48.3378, -6.18422
4.504, 8, 6.9709, 16.0181, 32.8292, 9.3393, -48.4239, -6.13189
4.508, 8, 6.92597, 16.0319, 32.8527, 9.26655, -48.51, -6.07975
4.512, 8, 6.88103, 16.0457, 32.8761, 9.19399, -48.5961, -6.0278
4.516, 8, 6.83607, 16.0597, 32.8994, 9.12162, -48.6823, -5.97604
4.52, 8, 6.79109, 16.0737, 32.9225, 9.04943, -48.7685, -5.92448
4.524, 8, 6.7461, 16.0879, 32.9456, 8.97742, -48.8547, -5.87311
4.528, 8, 6.7011, 16.1021, 32.9685, 8.9056, -48.941, -5.82192
4.532, 8, 6.65607, 16.1164, 32.9913, 8.83396, -49.0274, -5.77093
4.536, 8, 6.61103, 16.1309, 33.014, 8.7625, -49.1137, -5.72012
4.54, 8, 6.56598, 16.1454, 33.0366, 8.69122, -49.2001, -5.6695
4.544, 9, 6.52091, 16.1601, 33.0591, 8.62012, -49.2866, -5.61907
4.548, 9, 6.47583, 16.1748, 33.0815, 8.5492, -49.3731, -5.56883
4.552, 9, 6.43073, 16.1897, 33.1038, 8.47846, -49.4596, -5.51876
4.556, 9, 6.38562, 16.2046, 33.1259, 8.4079, -49.5461, -5.46889
4.56, 9, 6.34049, 16.2196, 33.1479, 8.33751, -49.6327, -5.41919
4.564, 9, 6.29534, 16.2348, 33.1699, 8.26729, -49.7193, -5.36968
4.568, 9, 6.25019, 16.25, 33.1917, 8.19726, -49.806, -5.32035
4.572, 9, 6.20501, 16.2654, 33.2134, 8.12739, -49.8927, -5.2712
4.576, 9, 6.15983, 16.2808, 33.2349, 8.0577, -49.9794, -5.22223
4.58, 9, 6.11462, 16.2963, 33.2564, 7.98819, -50.0662, -5.17344
4.584, 9, 6.06941, 16.312, 33.2778, 7.91884, -50.1529, -5.12483
4.588, 9, 6.02418, 16.3277, 33.299, 7.84967, -50.2398, -5.0764
4.592, 9, 5.97893, 16.3435, 33.3202, 7.78066, -50.3266, -5.02814
4.596, 9, 5.93367, 16.3594, 33.3412, 7.71183, -50.4135, -4.98006
4.6, 9, 5.8884, 16.3755, 33.3621, 7.64317, -50.5004, -4.93216
4.604, 9, 5.84311, 16.3916, 33.3829, 7.57467, -50.5874, -4.88443
4.608, 9, 5.79781, 16.4078, 33.4035, 7.50634, -50.6744, -4.83687
4.612, 9, 5.7525, 16.4241, 33.4241, 7.43818, -50.7614, -4.78949
4.616, 9, 5.70717, 16.4406, 33.4446, 7.37018, -50.8484, -4.74228
4.62, 9, 5.66183, 16.4571, 33.4649, 7.30235, -50.9355, -4.69524
4.624, 9, 5.61648, 16.4737, 33.4851, 7.23468, -51.0226, -4.64837
4.628, 9, 5.57111, 16.4904, 33.5052, 7.16718, -51.1098, -4.60168
4.632, 9, 5.52573, 16.5072, 33.5252, 7.09984, -51.1969, -4.55515
4.636, 9, 5.48034, 16.5241, 33.5451, 7.03266, -51.2841, -4.50879
4.64, 9, 5.43494, 16.5411, 33.5649, 6.96565, -51.3713, -4.4626
4.644, 9, 5.38952, 16.5582, 33.5845, 6.8988, -51.4586, -4.41658
4.648, 9, 5.34409, 16.5754, 33.6041, 6.8321, -51.5459, -4.37072
4.652, 9, 5.29865, 16.5928, 33.6235, 6.76557, -51.6332, -4.32503
4.656, 9, 5.25319, 16.6101, 33.6428, 6.69919, -51.7205, -4.27951
4.66, 9, 5.20772, 16.6276, 33.662, 6.63298, -51.8079, -4.23415
4.664, 9, 5.16224, 16.6452, 33.6811, 6.56692, -51.8953, -4.18895
4.668, 9, 5.11675, 16.6629, 33.7001, 6.50101, -51.9827, -4.14392
4.672, 9, 5.07125, 16.6807, 33.719, 6.43527, -52.0701, -4.09905
4.676, 9, 5.02573, 16.6986, 33.7377, 6.36968, -52.1576, -4.05434
4.68, 9, 4.98021, 16.7166, 33.7563, 6.30424, -52.2451, -4.00979
4.684, 9, 4.93467, 16.7347, 33.7749, 6.23896, -52.3326, -3.9654
4.688, 9, 4.88912, 16.7528, 33.7933, 6.17383, -52.4201, -3.92117
4.692, 9, 4.84356, 16.7711, 33.8115, 6.10885, -52.5077, -3.8771
4.696, 9, 4.79799, 16.7895, 33.8297, 6.04403, -52.5953, -3.83319
4.7, 9, 4.7524, 16.8079, 33.8478, 5.97936, -52.6829, -3.78944
4.704, 9, 4.70681, 16.8265, 33.8657, 5.91484, -52.7705, -3.74584
4.708, 9, 4.6612, 16.8452, 33.8836, 5.85047, -52.8582, -3.7024
4.712, 9, 4.61559, 16.8639, 33.9013, 5.78624, -52.9459, -3.65911
4.716, 9, 4.56996, 16.8828, 33.9189, 5.72217, -53.0336, -3.61598
4.72, 9, 4.52432, 16.9017, 33.9364, 5.65825, -53.1213, -3.57301
4.724, 9, 4.47868, 16.9207, 33.9537, 5.59447, -53.209, -3.53018
4.728, 9, 4.43302, 16.9399, 33.971, 5.53084, -53.2968, -3.48751
4.732, 9, 4.38735, 16.9591, 33.9881, 5.46736, -53.3846, -3.44499
4.736, 9, 4.34167, 16.9784, 34.0052, 5.40402, -53.4724, -3.40263
4.74, 9, 4.29598, 16.9979, 34.0221, 5.34083, -53.5602, -3.36041
4.744, 9, 4.25029, 17.0174, 34.0389, 5.27778, -53.6481, -3.31835
4.748, 9, 4.20458, 17.037, 34.0556, 5.21488, -53.7359, -3.27643
4.752, 9, 4.15886, 17.0567, 34.0721, 5.15211, -53.8238, -3.23466
4.756, 9, 4.11313, 17.0765, 34.0886, 5.0895, -53.9117, -3.19305
4.76, 9, 4.0674, 17.0964, 34.1049, 5.02702, -53.9996, -3.15158
4.764, 9, 4.02165, 17.1164, 34.1211, 4.96469, -54.0876, -3.11025
4.768, 9, 3.9759, 17.1365, 34.1372, 4.90249, -54.1755, -3.06908
4.772, 9, 3.93013, 17.1567, 34.1532, 4.84044, -54.2635, -3.02805
4.776, 9, 3.88436, 17.177, 34.1691, 4.77853, -54.3515, -2.98716
4.78, 9, 3.83858, 17.1974, 34.1849, 4.71676, -54.4396, -2.94642
4.784, 9, 3.79279, 17.2179, 34.2005, 4.65512, -54.5276, -2.90582
4.788, 9, 3.74699, 17.2385, 34.2161, 4.59362, -54.6157, -2.86537
4.792, 9, 3.70118, 17.2592, 34.2315, 4.53226, -54.7038, -2.82505
4.796, 9, 3.65536, 17.28, 34.2468, 4.47104, -54.792, -2.78488
4.8, 9, 3.60953, 17.3009, 34.262, 4.40994, -54.8802, -2.74485
4.804, 9, 3.5637, 17.3219, 34.2771, 4.34899, -54.9685, -2.70496
4.808, 9, 3.51785, 17.3431, 34.2921, 4.28816, -55.0569, -2.66521
4.812, 9, 3.47199, 17.3643, 34.307, 4.22747, -55.1453, -2.62559
4.816, 9, 3.42612, 17.3857, 34.3217, 4.16691, -55.2337, -2.58611
4.82, 10, 3.38025, 17.4073, 34.3363, 4.10648, -55.3223, -2.54677
4.824, 10, 3.33436, 17.429, 34.3508, 4.04618, -55.4109, -2.50756
4.828, 10, 3.28846, 17.4508, 34.3651, 3.98601, -55.4996, -2.46849
4.832, 10, 3.24255, 17.4728, 34.3792, 3.92597, -55.5883, -2.42956
4.836, 10, 3.19663, 17.495, 34.3932, 3.86605, -55.6772, -2.39075
4.84, 10, 3.15069, 17.5174, 34.4069, 3.80626, -55.7661, -2.35208
4.844, 10, 3.10475, 17.5399, 34.4205, 3.7466, -55.855, -2.31355
4.848, 10, 3.0588, 17.5627, 34.4338, 3.68707, -55.9441, -2.27514
4.852, 10, 3.01284, 17.5857, 34.4468, 3.62766, -56.0331, -2.23687
4.856, 10, 2.96688, 17.6089, 34.4596, 3.56837, -56.1222, -2.19874
4.86, 10, 2.92091, 17.6324, 34.4721, 3.50922, -56.2114, -2.16073
4.864, 10, 2.87493, 17.6561, 34.4843, 3.45018, -56.3005, -2.12286
4.868, 10, 2.82896, 17.6801, 34.4962, 3.39127, -56.3897, -2.08512
4.872, 10, 2.78298, 17.7043, 34.5077, 3.33249, -56.479, -2.04751
4.876, 10, 2.73699, 17.7288, 34.5188, 3.27384, -56.5682, -2.01004
4.88, 10, 2.69101, 17.7536, 34.5296, 3.21531, -56.6574, -1.9727
4.884, 10, 2.64502, 17.7787, 34.54, 3.1569, -56.7467, -1.93549
4.888, 10, 2.59904, 17.8041, 34.55, 3.09862, -56.8359, -1.89841
4.892, 10, 2.55305, 17.8297, 34.5597, 3.04048, -56.9251, -1.86147
4.896, 10, 2.50707, 17.8557, 34.5689, 2.98246, -57.0143, -1.82466
4.9, 10, 2.46108, 17.882, 34.5777, 2.92457, -57.1034, -1.78799
4.904, 10, 2.4151, 17.9086, 34.5861, 2.86681, -57.1925, -1.75145
4.908, 10, 2.36912, 17.9355, 34.5941, 2.80919, -57.2816, -1.71504
4.912, 10, 2.32314, 17.9627, 34.6017, 2.75169, -57.3706, -1.67878
4.916, 10, 2.27717, 17.9902, 34.6089, 2.69434, -57.4596, -1.64264
4.92, 10, 2.2312, 18.0181, 34.6157, 2.63711, -57.5485, -1.60665
4.924, 10, 2.18523, 18.0462, 34.622, 2.58003, -57.6373, -1.57079
4.928, 10, 2.13928, 18.0747, 34.6279, 2.52308, -57.726, -1.53506
4.932, 10, 2.09333, 18.1034, 34.6335, 2.46626, -57.8147, -1.49947
4.936, 10, 2.04739, 18.1325, 34.6386, 2.40959, -57.9033, -1.46402
4.94, 10, 2.00147, 18.1618, 34.6433, 2.35306, -57.9918, -1.42871
4.944, 10, 1.95556, 18.1915, 34.6476, 2.29666, -58.0802, -1.39353
4.948, 10, 1.90966, 18.2215, 34.6514, 2.24041, -58.1686, -1.35849
4.952, 10, 1.86378, 18.2517, 34.6549, 2.1843, -58.2568, -1.32358
4.956, 10, 1.81791, 18.2823, 34.6579, 2.12833, -58.345, -1.28881
4.96, 10, 1.77206, 18.3131, 34.6606, 2.0725, -58.4331, -1.25417
4.964, 10, 1.72624, 18.3442, 34.6628, 2.01682, -58.5211, -1.21967
4.968, 10, 1.68043, 18.3757, 34.6646, 1.96128, -58.609, -1.18531
4.972, 10, 1.63465, 18.4074, 34.666, 1.90589, -58.6968, -1.15108
4.976, 10, 1.58889, 18.4394, 34.667, 1.85064, -58.7845, -1.11699
4.98, 10, 1.54315, 18.4717, 34.6676, 1.79554, -58.8722, -1.08303
4.984, 10, 1.49744, 18.5043, 34.6677, 1.74058, -58.9597, -1.04921
4.988, 10, 1.45176, 18.5372, 34.6675, 1.68577, -59.0472, -1.01552
4.992, 10, 1.40611, 18.5704, 34.6668, 1.63112, -59.1345, -0.981974
4.996, 10, 1.36049, 18.6038, 34.6658, 1.57661, -59.2218, -0.948558
5, 10, 1.3149, 18.6376, 34.6643, 1.52225, -59.309, -0.915277
5.004, 10, 1.26935, 18.6716, 34.6624, 1.46804, -59.396, -0.882132
5.008, 10, 1.22383, 18.7059, 34.6601, 1.41398, -59.483, -0.849121
5.012, 10, 1.17834, 18.7405, 34.6574, 1.36007, -59.5699, -0.816245
5.016, 10, 1.13289, 18.7754, 34.6543, 1.30632, -59.6567, -0.783505
5.02, 10, 1.08748, 18.8106, 34.6507, 1.25272, -59.7433, -0.750899
5.024, 10, 1.04211, 18.846, 34.6468, 1.19927, -59.8299, -0.718428
5.028, 10, 0.996781, 18.8818, 34.6425, 1.14598, -59.9164, -0.686091
5.032, 10, 0.951494, 18.9178, 34.6377, 1.09285, -60.0028, -0.65389
5.036, 10, 0.90625, 18.9541, 34.6325, 1.03987, -60.089, -0.621823
5.04, 10, 0.861051, 18.9907, 34.6269, 0.987042, -60.1752, -0.589891
5.044, 10, 0.815898, 19.0275, 34.621, 0.934376, -60.2613, -0.558093
5.048, 10, 0.770792, 19.0646, 34.6146, 0.881868, -60.3472, -0.52643
5.052, 10, 0.725734, 19.1021, 34.6078, 0.829519, -60.4331, -0.494901
5.056, 10, 0.680727, 19.1398, 34.6005, 0.777329, -60.5188, -0.463507
5.06, 10, 0.63577, 19.1777, 34.5929, 0.725299, -60.6045, -0.432248
5.064, 10, 0.590866, 19.216, 34.5849, 0.67343, -60.69, -0.401123
5.068, 10, 0.546016, 19.2545, 34.5764, 0.621722, -60.7754, -0.370133
5.072, 10, 0.50122, 19.2933, 34.5676, 0.570177, -60.8607, -0.339277
5.076, 10, 0.45648, 19.3324, 34.5583, 0.518795, -60.9459, -0.308555
5.08, 10, 0.411797, 19.3717, 34.5486, 0.467576, -61.031, -0.277968
5.084, 10, 0.367173, 19.4113, 34.5386, 0.416522, -61.116, -0.247515
5.088, 10, 0.322609, 19.4512, 34.5281, 0.365632, -61.2009, -0.217197
5.092, 10, 0.278106, 19.4914, 34.5172, 0.314908, -61.2856, -0.187013
5.096, 10, 0.233665, 19.5318, 34.5059, 0.26435, -61.3703, -0.156963
5.1, 10, 0.189287, 19.5725, 34.4941, 0.213959, -61.4548, -0.127047
5.104, 10, 0.144974, 19.6135, 34.482, 0.163735, -61.5392, -0.0972655
5.108, 10, 0.100726, 19.6548, 34.4695, 0.11368, -61.6235, -0.0676173
5.112, 10, 0.0565455, 19.6963, 34.4565, 0.0637923, -61.7077, -0.0381026
5.116, 10, 0.0124326, 19.7381, 34.4432, 0.014074, -61.7918, -0.00872124
5.12, 10, -0.0316109, 19.7801, 34.4294, -0.0354749, -61.8757, 0.0205271
5.124, 10, -0.0755839, 19.8224, 34.4152, -0.0848538, -61.9595, 0.0496426
5.128, 10, -0.119485, 19.865, 34.4007, -0.134062, -62.0432, 0.0786255
5.132, 10, -0.163314, 19.9078, 34.3857, -0.1831, -62.1268, 0.107476
5.136, 10, -0.207069, 19.9509, 34.3703, -0.231966, -62.2103, 0.136195
5.14, 10, -0.250748, 19.9943, 34.3545, -0.280661, -62.2936, 0.164782
5.144, 10, -0.294352, 20.0379, 34.3383, -0.329183, -62.3768, 0.193238
5.148, 10, -0.337879, 20.0818, 34.3217, -0.377533, -62.4599, 0.221562
5.152, 10, -0.381327, 20.126, 34.3047, -0.42571, -62.5429, 0.249756
5.156, 10, -0.424696, 20.1704, 34.2873, -0.473713, -62.6257, 0.277819
5.16, 10, -0.467984, 20.215, 34.2695, -0.521543, -62.7085, 0.305752
5.164, 10, -0.51119, 20.2599, 34.2513, -0.569198, -62.7911, 0.333555
5.168, 10, -0.554313, 20.3051, 34.2327, -0.616678, -62.8735, 0.361229
5.172, 10, -0.597353, 20.3505, 34.2136, -0.663984, -62.9559, 0.388773
5.176, 10, -0.640307, 20.3962, 34.1942, -0.711114, -63.0381, 0.416187
5.18, 10, -0.683176, 20.4421, 34.1744, -0.758067, -63.1202, 0.443473
5.184, 10, -0.725957, 20.4883, 34.1542, -0.804845, -63.2021, 0.47063
5.188, 10, -0.768649, 20.5347, 34.1336, -0.851445, -63.2839, 0.497659
5.192, 10, -0.811252, 20.5814, 34.1126, -0.897868, -63.3656, 0.52456
5.196, 10, -0.853765, 20.6283, 34.0912, -0.944114, -63.4472, 0.551333
5.2, 10, -0.896186, 20.6754, 34.0694, -0.990181, -63.5286, 0.577978
5.204, 10, -0.938514, 20.7228, 34.0472, -1.03607, -63.6099, 0.604496
5.208, 10, -0.980749, 20.7705, 34.0247, -1.08178, -63.6911, 0.630886
5.212, 10, -1.02289, 20.8184, 34.0017, -1.12731, -63.7721, 0.65715
5.216, 10, -1.06493, 20.8665, 33.9783, -1.17266, -63.853, 0.683287
5.22, 10, -1.10688, 20.9148, 33.9546, -1.21783, -63.9338, 0.709297
5.224, 10, -1.14873, 20.9634, 33.9304, -1.26281, -64.0144, 0.735181
5.228, 10, -1.19048, 21.0123, 33.9059, -1.30762, -64.0949, 0.760939
5.232, 10, -1.23213, 21.0614, 33.8809, -1.35225, -64.1752, 0.786571
5.236, 10, -1.27367, 21.1107, 33.8556, -1.39669, -64.2554, 0.812078
5.24, 10, -1.31512, 21.1602, 33.8299, -1.44095, -64.3355, 0.837458
5.244, 10, -1.35646, 21.21, 33.8038, -1.48502, -64.4154, 0.862714
5.248, 10, -1.3977, 21.26, 33.7773, -1.52891, -64.4952, 0.887844
5.252, 10, -1.43883, 21.3103, 33.7504, -1.57262, -64.5748, 0.91285
5.256, 10, -1.47985, 21.3608, 33.7231, -1.61614, -64.6543, 0.93773
5.26, 10, -1.52077, 21.4115, 33.6955, -1.65948, -64.7337, 0.962486
5.264, 10, -1.56157, 21.4624, 33.6674, -1.70263, -64.8129, 0.987118
5.268, 10, -1.60227, 21.5136, 33.639, -1.74559, -64.8919, 1.01163
5.272, 10, -1.64285, 21.565, 33.6101, -1.78837, -64.9709, 1.03601
5.276, 10, -1.68333, 21.6166, 33.5809, -1.83096, -65.0496, 1.06027
5.28, 10, -1.72369, 21.6684, 33.5513, -1.87336, -65.1283, 1.0844
5.284, 10, -1.76393, 21.7205, 33.5214, -1.91557, -65.2067, 1.10842
5.288, 10, -1.80406, 21.7728, 33.491, -1.95759, -65.285, 1.1323
5.292, 10, -1.84407, 21.8253, 33.4602, -1.99942, -65.3632, 1.15607
5.296, 10, -1.88397, 21.878, 33.4291, -2.04107, -65.4412, 1.17971
5.3, 10, -1.92374, 21.9309, 33.3976, -2.08252, -65.5191, 1.20323
5.304, 10, -1.96339, 21.9841, 33.3656, -2.12378, -65.5967, 1.22663
5.308, 10, -2.00292, 22.0374, 33.3333, -2.16485, -65.6743, 1.2499
5.312, 10, -2.04233, 22.091, 33.3007, -2.20573, -65.7516, 1.27306
5.316, 10, -2.08163, 22.1447, 33.2676, -2.24641, -65.8287, 1.29609
5.32, 10, -2.12081, 22.1987, 33.2342, -2.2869, -65.9057, 1.319
5.324, 10, -2.15989, 22.2529, 33.2003, -2.3272, -65.9825, 1.34179
5.328, 10, -2.19886, 22.3072, 33.1661, -2.36731, -66.059, 1.36446
5.332, 10, -2.23774, 22.3617, 33.1316, -2.40723, -66.1354, 1.38702
5.336, 10, -2.27651, 22.4165, 33.0966, -2.44696, -66.2116, 1.40945
5.34, 11, -2.3152, 22.4713, 33.0613, -2.48651, -66.2875, 1.43178
5.344, 11, -2.35379, 22.5264, 33.0257, -2.52587, -66.3633, 1.45399
5.348, 11, -2.3923, 22.5816, 32.9897, -2.56506, -66.4388, 1.47609
5.352, 11, -2.43072, 22.6369, 32.9534, -2.60407, -66.5141, 1.49809
5.356, 11, -2.46907, 22.6924, 32.9168, -2.64292, -66.5892, 1.51998
5.36, 11, -2.50734, 22.7479, 32.8799, -2.68161, -66.6642, 1.54178
5.364, 11, -2.54553, 22.8036, 32.8428, -2.72015, -66.7389, 1.56349
5.368, 11, -2.58363, 22.8594, 32.8053, -2.75854, -66.8135, 1.5851
5.372, 11, -2.62165, 22.9153, 32.7677, -2.7968, -66.8878, 1.60663
5.376, 11, -2.65959, 22.9713, 32.7298, -2.83493, -66.962, 1.62808
5.38, 11, -2.69745, 23.0274, 32.6917, -2.87294, -67.0361, 1.64946
5.384, 11, -2.73522, 23.0835, 32.6534, -2.91083, -67.1099, 1.67076
5.388, 11, -2.77291, 23.1397, 32.615, -2.94861, -67.1837, 1.69199
5.392, 11, -2.81053, 23.1959, 32.5764, -2.98629, -67.2572, 1.71316
5.396, 11, -2.84808, 23.2522, 32.5376, -3.02387, -67.3307, 1.73427
5.4, 11, -2.88557, 23.3085, 32.4987, -3.06136, -67.4039, 1.75531
5.404, 11, -2.92299, 23.3649, 32.4596, -3.09875, -67.4771, 1.7763
5.408, 11, -2.96035, 23.4213, 32.4205, -3.13605, -67.5501, 1.79723
5.412, 11, -2.99765, 23.4778, 32.3812, -3.17326, -67.623, 1.8181
5.416, 11, -3.03491, 23.5342, 32.3417, -3.21039, -67.6958, 1.83891
5.42, 11, -3.07212, 23.5907, 32.3022, -3.24742, -67.7685, 1.85968
5.424, 11, -3.10928, 23.6472, 32.2625, -3.28437, -67.8411, 1.88038
5.428, 11, -3.14641, 23.7038, 32.2228, -3.32124, -67.9136, 1.90104
5.432, 11, -3.1835, 23.7603, 32.1829, -3.35801, -67.986, 1.92164
5.436, 11, -3.22056, 23.8169, 32.1429, -3.3947, -68.0583, 1.94218
5.44, 11, -3.25758, 23.8735, 32.1027, -3.4313, -68.1305, 1.96267
5.444, 11, -3.29457, 23.9302, 32.0625, -3.46782, -68.2027, 1.98311
5.448, 11, -3.33152, 23.9868, 32.0222, -3.50425, -68.2747, 2.00349
5.452, 11, -3.36843, 24.0435, 31.9817, -3.54059, -68.3467, 2.02383
5.456, 11, -3.4053, 24.1002, 31.9411, -3.57685, -68.4186, 2.04411
5.46, 11, -3.44215, 24.157, 31.9004, -3.61302, -68.4904, 2.06433
5.464, 11, -3.47895, 24.2138, 31.8596, -3.64911, -68.5622, 2.08451
5.468, 11, -3.51572, 24.2706, 31.8186, -3.68511, -68.6339, 2.10463
5.472, 11, -3.55245, 24.3274, 31.7776, -3.72102, -68.7055, 2.12471
5.476, 11, -3.58914, 24.3842, 31.7364, -3.75685, -68.777, 2.14473
5.48, 11, -3.6258, 24.4411, 31.6951, -3.7926, -68.8485, 2.1647
5.484, 11, -3.66243, 24.4981, 31.6538, -3.82826, -68.9198, 2.18462
5.488, 11, -3.69901, 24.555, 31.6122, -3.86384, -68.9911, 2.2045
5.492, 11, -3.73556, 24.612, 31.5706, -3.89933, -69.0623, 2.22432
5.496, 11, -3.77208, 24.669, 31.5289, -3.93474, -69.1335, 2.24409
5.5, 11, -3.80856, 24.726, 31.487, -3.97007, -69.2045, 2.26382
5.504, 11, -3.845, 24.7831, 31.445, -4.00531, -69.2755, 2.28349
5.508, 11, -3.8814, 24.8402, 31.4029, -4.04047, -69.3464, 2.30312
5.512, 11, -3.91777, 24.8973, 31.3607, -4.07555, -69.4173, 2.3227
5.516, 11, -3.9541, 24.9545, 31.3184, -4.11054, -69.488, 2.34224
5.52, 11, -3.9904, 25.0117, 31.276, -4.14545, -69.5587, 2.36173
5.524, 11, -4.02666, 25.0689, 31.2334, -4.18028, -69.6293, 2.38117
5.528, 11, -4.06288, 25.1261, 31.1907, -4.21503, -69.6998, 2.40056
5.532, 11, -4.09907, 25.1834, 31.148, -4.24969, -69.7703, 2.41991
5.536, 11, -4.13522, 25.2407, 31.1051, -4.28428, -69.8406, 2.43921
5.54, 11, -4.17133, 25.298, 31.062, -4.31878, -69.9109, 2.45847
5.544, 11, -4.20741, 25.3553, 31.0189, -4.3532, -69.9811, 2.47768
5.548, 11, -4.24345, 25.4127, 30.9757, -4.38754, -70.0512, 2.49685
5.552, 11, -4.27946, 25.4701, 30.9323, -4.4218, -70.1213, 2.51597
5.556, 11, -4.31542, 25.5276, 30.8888, -4.45597, -70.1912, 2.53505
5.56, 11, -4.35135, 25.585, 30.8452, -4.49007, -70.2611, 2.55409
5.564, 11, -4.38725, 25.6425, 30.8015, -4.52409, -70.3309, 2.57308
5.568, 11, -4.4231, 25.7, 30.7577, -4.55803, -70.4007, 2.59203
5.572, 11, -4.45892, 25.7576, 30.7137, -4.59189, -70.4703, 2.61094
5.576, 11, -4.49471, 25.8151, 30.6697, -4.62566, -70.5399, 2.6298
5.58, 11, -4.53045, 25.8727, 30.6255, -4.65936, -70.6094, 2.64862
5.584, 11, -4.56616, 25.9304, 30.5812, -4.69298, -70.6787, 2.6674
5.588, 11, -4.60184, 25.988, 30.5368, -4.72652, -70.7481, 2.68614
5.592, 11, -4.63747, 26.0457, 30.4923, -4.75999, -70.8173, 2.70484
5.596, 11, -4.67307, 26.1034, 30.4476, -4.79337, -70.8864, 2.7235
5.6, 11, -4.70864, 26.1611, 30.4029, -4.82667, -70.9555, 2.74212
5.604, 11, -4.74416, 26.2188, 30.358, -4.8599, -71.0245, 2.7607
5.608, 11, -4.77965, 26.2766, 30.313, -4.89305, -71.0934, 2.77924
5.612, 11, -4.8151, 26.3344, 30.2679, -4.92612, -71.1621, 2.79774
5.616, 12, -4.85052, 26.3922, 30.2227, -4.95912, -71.2309, 2.8162
5.62, 12, -4.8859, 26.45, 30.1774, -4.99203, -71.2995, 2.83462
5.624, 12, -4.92124, 26.5079, 30.1319, -5.02487, -71.368, 2.853
5.628, 12, -4.95654, 26.5658, 30.0864, -5.05764, -71.4364, 2.87135
5.632, 12, -4.99181, 26.6237, 30.0407, -5.09032, -71.5048, 2.88966
5.636, 12, -5.02704, 26.6816, 29.9949, -5.12294, -71.5731, 2.90793
5.64, 12, -5.06224, 26.7396, 29.949, -5.15547, -71.6412, 2.92616
5.644, 12, -5.0974, 26.7976, 29.903, -5.18793, -71.7093, 2.94436
5.648, 12, -5.13252, 26.8556, 29.8569, -5.22031, -71.7773, 2.96252
5.652, 12, -5.1676, 26.9136, 29.8106, -5.25261, -71.8452, 2.98065
5.656, 12, -5.20265, 26.9716, 29.7642, -5.28485, -71.913, 2.99874
5.66, 12, -5.23766, 27.0297, 29.7177, -5.317, -71.9807, 3.01679
5.664, 12, -5.27263, 27.0878, 29.6712, -5.34908, -72.0483, 3.03481
5.668, 12, -5.30757, 27.1459, 29.6244, -5.38108, -72.1158, 3.0528
5.672, 12, -5.34246, 27.204, 29.5776, -5.41301, -72.1833, 3.07075
5.676, 12, -5.37733, 27.2622, 29.5307, -5.44487, -72.2506, 3.08866
5.68, 12, -5.41215, 27.3204, 29.4836, -5.47665, -72.3179, 3.10654
5.684, 12, -5.44694, 27.3786, 29.4364, -5.50836, -72.385, 3.12439
5.688, 12, -5.48169, 27.4368, 29.3891, -5.53999, -72.4521, 3.14221
5.692, 12, -5.5164, 27.495, 29.3417, -5.57154, -72.5191, 3.15999
5.696, 12, -5.55108, 27.5533, 29.2942, -5.60303, -72.586, 3.17773
5.7, 12, -5.58572, 27.6116, 29.2466, -5.63444, -72.6528, 3.19545
5.704, 12, -5.62032, 27.6699, 29.1988, -5.66577, -72.7195, 3.21313
5.708, 12, -5.65489, 27.7282, 29.151, -5.69703, -72.7862, 3.23078
5.712, 12, -5.68942, 27.7866, 29.103, -5.72822, -72.8527, 3.2484
5.716, 12, -5.72391, 27.8449, 29.0549, -5.75934, -72.9192, 3.26599
5.72, 12, -5.75836, 27.9033, 29.0067, -5.79038, -72.9855, 3.28355
5.724, 12, -5.79278, 27.9618, 28.9584, -5.82134, -73.0518, 3.30107
5.728, 12, -5.82716, 28.0202, 28.9099, -5.85224, -73.118, 3.31856
5.732, 12, -5.8615, 28.0787, 28.8614, -5.88306, -73.1841, 3.33603
5.736, 12, -5.89581, 28.1372, 28.8127, -5.91381, -73.2502, 3.35346
5.74, 12, -5.93008, 28.1957, 28.7639, -5.94449, -73.3161, 3.37086
5.744, 12, -5.96431, 28.2542, 28.715, -5.97509, -73.382, 3.38824
5.748, 12, -5.9985, 28.3128, 28.666, -6.00562, -73.4477, 3.40558
5.752, 12, -6.03266, 28.3714, 28.6168, -6.03608, -73.5134, 3.42289
5.756, 12, -6.06678, 28.43, 28.5676, -6.06647, -73.579, 3.44018
5.76, 12, -6.10086, 28.4886, 28.5182, -6.09678, -73.6445, 3.45744
5.764, 12, -6.13491, 28.5472, 28.4687, -6.12703, -73.71, 3.47467
5.768, 12, -6.16892, 28.6059, 28.4191, -6.1572, -73.7753, 3.49186
5.772, 12, -6.20289, 28.6646, 28.3694, -6.1873, -73.8405, 3.50904
5.776, 12, -6.23682, 28.7233, 28.3196, -6.21732, -73.9057, 3.52618
5.78, 12, -6.27072, 28.7821, 28.2697, -6.24728, -73.9708, 3.5433
5.784, 12, -6.30458, 28.8408, 28.2196, -6.27717, -74.0358, 3.56039
5.788, 12, -6.3384, 28.8996, 28.1694, -6.30698, -74.1007, 3.57745
5.792, 12, -6.37219, 28.9584, 28.1192, -6.33672, -74.1655, 3.59449
5.796, 12, -6.40594, 29.0172, 28.0688, -6.3664, -74.2302, 3.6115
5.8, 12, -6.43965, 29.0761, 28.0182, -6.396, -74.2948, 3.62848
5.804, 12, -6.47332, 29.1349, 27.9676, -6.42553, -74.3594, 3.64544
5.808, 12, -6.50696, 29.1938, 27.9169, -6.45499, -74.4239, 3.66237
5.812, 12, -6.54056, 29.2527, 27.866, -6.48438, -74.4882, 3.67928
5.816, 12, -6.57412, 29.3117, 27.815, -6.5137, -74.5525, 3.69616
5.82, 12, -6.60765, 29.3706, 27.7639, -6.54295, -74.6167, 3.71302
5.824, 12, -6.64113, 29.4296, 27.7127, -6.57213, -74.6808, 3.72985
5.828, 12, -6.67458, 29.4886, 27.6614, -6.60124, -74.7449, 3.74666
5.832, 12, -6.70799, 29.5476, 27.6099, -6.63028, -74.8088, 3.76345
5.836, 12, -6.74137, 29.6067, 27.5584, -6.65926, -74.8726, 3.78021
5.84, 12, -6.77471, 29.6657, 27.5067, -6.68816, -74.9364, 3.79694
5.844, 12, -6.80801, 29.7248, 27.4549, -6.71699, -75, 3.81366
5.848, 12, -6.84127, 29.7839, 27.403, -6.74575, -75.0636, 3.83035
5.852, 12, -6.8745, 29.843, 27.351, -6.77445, -75.1271, 3.84702
5.856, 12, -6.90769, 29.9022, 27.2989, -6.80307, -75.1905, 3.86366
5.86, 12, -6.94084, 29.9613, 27.2466, -6.83163, -75.2538, 3.88029
5.864, 12, -6.97396, 30.0205, 27.1943, -6.86012, -75.317, 3.89689
5.868, 12, -7.00703, 30.0797, 27.1418, -6.88853, -75.3802, 3.91347
5.872, 12, -7.04007, 30.139, 27.0892, -6.91688, -75.4432, 3.93003
5.876, 12, -7.07308, 30.1982, 27.0365, -6.94517, -75.5061, 3.94657
5.88, 12, -7.10604, 30.2575, 26.9837, -6.97338, -75.569, 3.96308
5.884, 12, -7.13897, 30.3168, 26.9307, -7.00153, -75.6318, 3.97958
5.888, 12, -7.17186, 30.3761, 26.8777, -7.0296, -75.6945, 3.99605
5.892, 13, -7.20472, 30.4354, 26.8245, -7.05761, -75.757, 4.01251
5.896, 13, -7.23753, 30.4947, 26.7712, -7.08555, -75.8195, 4.02894
5.9, 13, -7.27031, 30.5541, 26.7178, -7.11343, -75.882, 4.04536
5.904, 13, -7.30306, 30.6135, 26.6643, -7.14123, -75.9443, 4.06175
5.908, 13, -7.33576, 30.6729, 26.6107, -7.16897, -76.0065, 4.07813
5.912, 13, -7.36843, 30.7323, 26.5569, -7.19664, -76.0686, 4.09448
5.916, 13, -7.40106, 30.7918, 26.503, -7.22425, -76.1307, 4.11082
5.92, 13, -7.43365, 30.8513, 26.4491, -7.25178, -76.1926, 4.12714
5.924, 13, -7.46621, 30.9108, 26.395, -7.27925, -76.2545, 4.14344
5.928, 13, -7.49873, 30.9703, 26.3407, -7.30665, -76.3163, 4.15972
5.932, 13, -7.53121, 31.0298, 26.2864, -7.33399, -76.378, 4.17599
5.936, 13, -7.56365, 31.0893, 26.232, -7.36125, -76.4395, 4.19223
5.94, 13, -7.59606, 31.1489, 26.1774, -7.38845, -76.501, 4.20846
