hehonglu123/ABB_Primitive_Study/execution/movelcl_30_car2/curve_exe_v300_z1.csv
timestamp, cmd_num, J1, J2, J3, J4, J5, J6
0, -1, -13.4393, 43.6787, 12.5946, -11.6275, -87.029, 7.42441
0.002, -1, -13.4393, 43.6787, 12.5946, -11.6275, -87.029, 7.42441
0.006, -1, -13.4393, 43.6787, 12.5946, -11.6275, -87.029, 7.42441
0.008, -1, -13.4393, 43.6787, 12.5946, -11.6275, -87.029, 7.42441
0.011, -1, -13.4393, 43.6787, 12.5946, -11.6275, -87.029, 7.42441
0.016, -1, -13.4393, 43.6787, 12.5946, -11.6275, -87.029, 7.42441
0.02, -1, -13.4393, 43.6787, 12.5946, -11.6275, -87.029, 7.42441
0.024, -1, -13.4393, 43.6787, 12.5946, -11.6275, -87.029, 7.42441
0.028, -1, -13.4393, 43.6787, 12.5946, -11.6275, -87.029, 7.42441
0.032, -1, -13.4393, 43.6787, 12.5946, -11.6275, -87.029, 7.42441
0.036, -1, -13.4392, 43.6786, 12.5946, -11.6275, -87.029, 7.42441
0.04, -1, -13.439, 43.6785, 12.5946, -11.6275, -87.029, 7.42441
0.044, -1, -13.4384, 43.678, 12.5947, -11.6275, -87.029, 7.42439
0.048, -1, -13.4372, 43.6772, 12.5949, -11.6274, -87.0289, 7.42434
0.052, -1, -13.4355, 43.6758, 12.5951, -11.6273, -87.0287, 7.42422
0.056, -1, -13.433, 43.6738, 12.5955, -11.627, -87.0284, 7.42397
0.06, -1, -13.4296, 43.671, 12.5961, -11.6264, -87.0277, 7.42349
0.064, -1, -13.4254, 43.6675, 12.5969, -11.6253, -87.0264, 7.42266
0.068, -1, -13.4203, 43.6631, 12.598, -11.6236, -87.0244, 7.42132
0.072, -1, -13.4141, 43.6579, 12.5994, -11.6209, -87.0213, 7.41928
0.076, -1, -13.4066, 43.6516, 12.6011, -11.617, -87.0167, 7.4163
0.08, -1, -13.3977, 43.6442, 12.6034, -11.6115, -87.0103, 7.41213
0.084, -1, -13.3869, 43.6352, 12.6062, -11.604, -87.0016, 7.40644
0.088, -1, -13.3743, 43.6247, 12.6097, -11.5941, -86.9899, 7.39892
0.092, -1, -13.3596, 43.6124, 12.6138, -11.5812, -86.9748, 7.38918
0.096, -1, -13.3427, 43.5982, 12.6186, -11.5648, -86.9557, 7.37685
0.1, -1, -13.3235, 43.582, 12.6243, -11.5444, -86.9319, 7.36155
0.104, -1, -13.3019, 43.5636, 12.6308, -11.5196, -86.9029, 7.3429
0.108, -1, -13.2776, 43.5427, 12.6382, -11.4899, -86.868, 7.32054
0.112, -1, -13.2505, 43.5193, 12.6467, -11.4547, -86.8269, 7.29416
0.116, -1, -13.2206, 43.4932, 12.6562, -11.4137, -86.7789, 7.26346
0.12, -1, -13.1877, 43.4644, 12.6669, -11.3667, -86.7238, 7.22818
0.124, -1, -13.1519, 43.4328, 12.6786, -11.3132, -86.6612, 7.18814
0.128, -1, -13.113, 43.3984, 12.6916, -11.2532, -86.591, 7.14319
0.131, -1, -13.071, 43.3611, 12.7056, -11.1865, -86.5129, 7.09326
0.136, -1, -13.026, 43.321, 12.7209, -11.1131, -86.4269, 7.03835
0.139, -1, -12.9779, 43.2779, 12.7373, -11.0331, -86.3333, 6.9785
0.144, -1, -12.9267, 43.232, 12.7548, -10.9467, -86.2321, 6.91384
0.148, -1, -12.8726, 43.1833, 12.7734, -10.854, -86.1236, 6.84454
0.152, -1, -12.8155, 43.132, 12.7932, -10.7555, -86.0082, 6.77084
0.156, -1, -12.7557, 43.0781, 12.8139, -10.6514, -85.8863, 6.69301
0.16, -1, -12.6932, 43.0219, 12.8355, -10.5422, -85.7585, 6.61137
0.164, -1, -12.6282, 42.9633, 12.8581, -10.4284, -85.6253, 6.52627
0.168, -1, -12.5607, 42.9025, 12.8815, -10.3105, -85.4872, 6.43809
0.172, -1, -12.4909, 42.8396, 12.9056, -10.189, -85.3449, 6.34721
0.176, -1, -12.4189, 42.7749, 12.9305, -10.0644, -85.1989, 6.25399
0.18, -1, -12.345, 42.7085, 12.956, -9.93711, -85.0499, 6.15879
0.184, -1, -12.2694, 42.6406, 12.9821, -9.80765, -84.8983, 6.06194
0.188, -1, -12.1925, 42.5714, 13.0086, -9.6764, -84.7446, 5.96375
0.192, -1, -12.1142, 42.5011, 13.0356, -9.54373, -84.5892, 5.86449
0.196, -1, -12.0348, 42.4297, 13.0629, -9.40995, -84.4326, 5.76439
0.2, -1, -11.9542, 42.3573, 13.0906, -9.27534, -84.2749, 5.66366
0.204, -1, -11.8724, 42.2841, 13.1185, -9.14011, -84.1166, 5.56246
0.208, -1, -11.7897, 42.21, 13.1466, -9.00443, -83.9577, 5.46092
0.212, -1, -11.7061, 42.1354, 13.1749, -8.86843, -83.7985, 5.35913
0.216, -1, -11.6218, 42.0602, 13.2033, -8.7322, -83.6389, 5.25717
0.22, -1, -11.5371, 41.9847, 13.2318, -8.5958, -83.4792, 5.15507
0.224, -1, -11.452, 41.909, 13.2603, -8.45928, -83.3194, 5.05288
0.228, -1, -11.3667, 41.8332, 13.2889, -8.32266, -83.1594, 4.95062
0.232, -1, -11.2813, 41.7572, 13.3176, -8.18597, -82.9993, 4.8483
0.236, -1, -11.1957, 41.6811, 13.3462, -8.04922, -82.8392, 4.74595
0.24, -1, -11.11, 41.605, 13.3749, -7.91243, -82.679, 4.64355
0.244, -1, -11.0243, 41.5288, 13.4035, -7.77561, -82.5188, 4.54114
0.248, -1, -10.9386, 41.4526, 13.4322, -7.63876, -82.3586, 4.4387
0.252, -1, -10.8528, 41.3764, 13.4609, -7.50189, -82.1983, 4.33625
0.256, -1, -10.767, 41.3002, 13.4896, -7.36501, -82.0381, 4.2338
0.26, -1, -10.6811, 41.2239, 13.5183, -7.22813, -81.8778, 4.13133
0.264, -1, -10.5953, 41.1477, 13.547, -7.09125, -81.7175, 4.02887
0.268, -1, -10.5094, 41.0714, 13.5757, -6.95436, -81.5572, 3.92641
0.272, -1, -10.4236, 40.9952, 13.6044, -6.81749, -81.397, 3.82396
0.276, -1, -10.3378, 40.9189, 13.6331, -6.68063, -81.2367, 3.72151
0.28, -1, -10.252, 40.8427, 13.6618, -6.54379, -81.0765, 3.61908
0.284, -1, -10.1661, 40.7665, 13.6904, -6.40697, -80.9163, 3.51666
0.288, -1, -10.0803, 40.6903, 13.7191, -6.27017, -80.7561, 3.41427
0.292, -1, -9.99456, 40.6141, 13.7478, -6.13341, -80.596, 3.31189
0.296, -1, -9.9088, 40.538, 13.7764, -5.99668, -80.4359, 3.20955
0.3, -1, -9.82306, 40.4618, 13.8051, -5.85999, -80.2758, 3.10723
0.304, -1, -9.73734, 40.3857, 13.8337, -5.72334, -80.1158, 3.00494
0.308, -1, -9.65166, 40.3096, 13.8624, -5.58674, -79.9558, 2.90269
0.312, -1, -9.566, 40.2336, 13.891, -5.45019, -79.796, 2.80048
0.316, -1, -9.48038, 40.1575, 13.9196, -5.31369, -79.6361, 2.69831
0.32, -1, -9.3948, 40.0815, 13.9482, -5.17726, -79.4764, 2.59618
0.324, -1, -9.30925, 40.0055, 13.9768, -5.04089, -79.3167, 2.4941
0.328, -1, -9.22375, 39.9296, 14.0054, -4.90458, -79.1571, 2.39207
0.332, -1, -9.13829, 39.8537, 14.0339, -4.76835, -78.9976, 2.2901
0.336, -1, -9.05287, 39.7778, 14.0625, -4.63219, -78.8382, 2.18818
0.34, -1, -8.9675, 39.702, 14.091, -4.49612, -78.6788, 2.08632
0.344, -1, -8.88219, 39.6262, 14.1195, -4.36012, -78.5196, 1.98452
0.348, -1, -8.79692, 39.5505, 14.148, -4.22421, -78.3604, 1.88279
0.352, -1, -8.71172, 39.4748, 14.1765, -4.0884, -78.2014, 1.78113
0.356, -1, -8.62657, 39.3992, 14.2049, -3.95267, -78.0425, 1.67953
0.36, -1, -8.54148, 39.3236, 14.2334, -3.81705, -77.8837, 1.57801
0.364, -1, -8.45646, 39.2481, 14.2618, -3.68152, -77.725, 1.47657
0.368, -1, -8.3715, 39.1727, 14.2902, -3.54611, -77.5664, 1.3752
0.372, -1, -8.28661, 39.0973, 14.3185, -3.4108, -77.408, 1.27392
0.376, -1, -8.20179, 39.0219, 14.3469, -3.2756, -77.2497, 1.17272
0.38, -1, -8.11704, 38.9467, 14.3752, -3.14052, -77.0915, 1.07161
0.384, -1, -8.03237, 38.8715, 14.4035, -3.00557, -76.9335, 0.970588
0.388, -1, -7.94777, 38.7963, 14.4318, -2.87073, -76.7756, 0.869659
0.392, -1, -7.86325, 38.7212, 14.46, -2.73602, -76.6179, 0.768825
0.396, -1, -7.77881, 38.6463, 14.4882, -2.60145, -76.4603, 0.668089
0.4, -1, -7.69446, 38.5713, 14.5164, -2.467, -76.3029, 0.567454
0.404, -1, -7.61019, 38.4965, 14.5446, -2.3327, -76.1456, 0.466921
0.408, -1, -7.526, 38.4217, 14.5727, -2.19854, -75.9885, 0.366494
0.412, -1, -7.44191, 38.347, 14.6008, -2.06452, -75.8316, 0.266176
0.416, -1, -7.35791, 38.2724, 14.6288, -1.93064, -75.6748, 0.165968
0.42, -1, -7.274, 38.1979, 14.6569, -1.79692, -75.5183, 0.0658724
0.424, -1, -7.19019, 38.1235, 14.6849, -1.66336, -75.3619, -0.0341072
0.428, -1, -7.10648, 38.0491, 14.7128, -1.52995, -75.2057, -0.133969
0.432, -1, -7.02287, 37.9748, 14.7408, -1.3967, -75.0496, -0.233711
0.436, -1, -6.93935, 37.9007, 14.7687, -1.26362, -74.8938, -0.33333
0.44, -1, -6.85595, 37.8266, 14.7965, -1.1307, -74.7382, -0.432824
0.444, -1, -6.77264, 37.7526, 14.8244, -0.99795, -74.5827, -0.532191
0.448, -1, -6.68945, 37.6787, 14.8522, -0.865375, -74.4275, -0.631429
0.452, -1, -6.60636, 37.6049, 14.8799, -0.732975, -74.2725, -0.730535
0.456, -1, -6.52339, 37.5312, 14.9077, -0.600755, -74.1176, -0.829507
0.46, -1, -6.44053, 37.4576, 14.9353, -0.468716, -73.963, -0.928344
0.464, -1, -6.35778, 37.3842, 14.963, -0.336861, -73.8086, -1.02704
0.468, -1, -6.27515, 37.3108, 14.9906, -0.205193, -73.6545, -1.1256
0.472, -1, -6.19264, 37.2375, 15.0181, -0.0737153, -73.5005, -1.22402
0.476, -1, -6.11024, 37.1643, 15.0457, 0.0575699, -73.3468, -1.32229
0.48, -1, -6.02797, 37.0912, 15.0732, 0.18866, -73.1933, -1.42042
0.484, -1, -5.94582, 37.0183, 15.1006, 0.319552, -73.04, -1.51839
0.488, -1, -5.8638, 36.9454, 15.128, 0.450244, -72.887, -1.61622
0.492, -1, -5.7819, 36.8727, 15.1554, 0.580734, -72.7342, -1.7139
0.496, -1, -5.70012, 36.8001, 15.1827, 0.711018, -72.5817, -1.81142
0.5, -1, -5.61848, 36.7276, 15.2099, 0.841096, -72.4294, -1.90879
0.504, -1, -5.53697, 36.6552, 15.2372, 0.970964, -72.2773, -2.006
0.508, -1, -5.45558, 36.5829, 15.2644, 1.10062, -72.1255, -2.10306
0.512, -1, -5.37433, 36.5108, 15.2915, 1.23006, -71.9739, -2.19995
0.516, -1, -5.29321, 36.4387, 15.3186, 1.35929, -71.8226, -2.29668
0.52, -1, -5.21223, 36.3668, 15.3456, 1.4883, -71.6715, -2.39325
0.524, -1, -5.13138, 36.295, 15.3726, 1.6171, -71.5207, -2.48966
0.528, -1, -5.05067, 36.2233, 15.3996, 1.74567, -71.3702, -2.5859
0.532, -1, -4.97009, 36.1518, 15.4265, 1.87402, -71.2199, -2.68198
0.536, -1, -4.88966, 36.0803, 15.4534, 2.00215, -71.0698, -2.77789
0.54, -1, -4.80936, 36.009, 15.4802, 2.13005, -70.9201, -2.87363
0.544, -1, -4.7292, 35.9378, 15.507, 2.25773, -70.7706, -2.9692
0.548, -1, -4.64919, 35.8668, 15.5337, 2.38518, -70.6213, -3.0646
0.552, -1, -4.56931, 35.7959, 15.5604, 2.51241, -70.4724, -3.15984
0.556, -1, -4.48958, 35.725, 15.587, 2.6394, -70.3237, -3.2549
0.56, -1, -4.41, 35.6544, 15.6136, 2.76617, -70.1752, -3.34979
0.564, -1, -4.33056, 35.5838, 15.6401, 2.8927, -70.0271, -3.44451
0.568, -1, -4.25126, 35.5134, 15.6666, 3.01901, -69.8792, -3.53905
0.572, -1, -4.17211, 35.4431, 15.693, 3.14508, -69.7316, -3.63342
0.576, -1, -4.0931, 35.373, 15.7194, 3.27092, -69.5842, -3.72761
0.58, -1, -4.01424, 35.3029, 15.7458, 3.39652, -69.4372, -3.82163
0.584, -1, -3.93553, 35.233, 15.772, 3.52189, -69.2904, -3.91547
0.588, -1, -3.85696, 35.1633, 15.7983, 3.64702, -69.1438, -4.00914
0.592, -1, -3.77855, 35.0936, 15.8245, 3.77191, -68.9976, -4.10263
0.596, -1, -3.70028, 35.0241, 15.8506, 3.89657, -68.8516, -4.19594
0.6, -1, -3.62216, 34.9548, 15.8767, 4.02099, -68.7059, -4.28908
0.604, -1, -3.54419, 34.8855, 15.9027, 4.14517, -68.5605, -4.38203
0.608, -1, -3.46637, 34.8164, 15.9287, 4.26911, -68.4154, -4.47481
0.612, -1, -3.3887, 34.7474, 15.9547, 4.39281, -68.2706, -4.5674
0.616, -1, -3.31118, 34.6786, 15.9806, 4.51628, -68.126, -4.65982
0.62, -1, -3.23382, 34.6099, 16.0064, 4.63949, -67.9817, -4.75205
0.624, -1, -3.1566, 34.5413, 16.0322, 4.76247, -67.8377, -4.84411
0.628, -1, -3.07954, 34.4729, 16.0579, 4.88521, -67.694, -4.93598
0.632, -1, -3.00262, 34.4046, 16.0836, 5.0077, -67.5506, -5.02767
0.636, -1, -2.92586, 34.3364, 16.1092, 5.12995, -67.4074, -5.11918
0.64, -1, -2.84926, 34.2684, 16.1348, 5.25195, -67.2646, -5.2105
0.644, -1, -2.7728, 34.2005, 16.1604, 5.37371, -67.122, -5.30165
0.648, -1, -2.6965, 34.1328, 16.1858, 5.49523, -66.9797, -5.39261
0.652, -1, -2.62035, 34.0652, 16.2113, 5.6165, -66.8377, -5.48338
0.656, -1, -2.54436, 33.9977, 16.2366, 5.73753, -66.696, -5.57398
0.66, -1, -2.46852, 33.9303, 16.262, 5.85831, -66.5546, -5.66439
0.664, -1, -2.39283, 33.8631, 16.2872, 5.97884, -66.4135, -5.75461
0.668, -1, -2.3173, 33.7961, 16.3125, 6.09913, -66.2726, -5.84465
0.672, -1, -2.24192, 33.7291, 16.3376, 6.21917, -66.1321, -5.93451
0.676, -1, -2.1667, 33.6623, 16.3628, 6.33897, -65.9918, -6.02418
0.68, -1, -2.09163, 33.5957, 16.3878, 6.45851, -65.8518, -6.11367
0.684, -1, -2.01672, 33.5292, 16.4129, 6.57781, -65.7121, -6.20297
0.688, -1, -1.94196, 33.4628, 16.4378, 6.69687, -65.5727, -6.29208
0.692, -1, -1.86736, 33.3965, 16.4627, 6.81567, -65.4336, -6.38101
0.696, -1, -1.79291, 33.3304, 16.4876, 6.93423, -65.2948, -6.46976
0.7, -1, -1.71862, 33.2645, 16.5124, 7.05254, -65.1562, -6.55832
0.704, -1, -1.64448, 33.1986, 16.5372, 7.1706, -65.018, -6.64669
0.708, -1, -1.5705, 33.1329, 16.5619, 7.28841, -64.8801, -6.73488
0.712, -1, -1.49668, 33.0674, 16.5865, 7.40597, -64.7424, -6.82288
0.716, -1, -1.42301, 33.002, 16.6111, 7.52329, -64.605, -6.9107
0.72, -1, -1.34949, 32.9367, 16.6357, 7.64036, -64.468, -6.99833
0.724, -1, -1.27614, 32.8715, 16.6602, 7.75718, -64.3312, -7.08577
0.728, -1, -1.20293, 32.8065, 16.6846, 7.87375, -64.1947, -7.17303
0.732, -1, -1.12989, 32.7417, 16.709, 7.99007, -64.0585, -7.2601
0.736, -1, -1.057, 32.677, 16.7333, 8.10615, -63.9226, -7.34699
0.74, -1, -0.984259, 32.6124, 16.7576, 8.22197, -63.7869, -7.43369
0.744, -1, -0.911678, 32.5479, 16.7819, 8.33755, -63.6516, -7.52021
0.748, -1, -0.839252, 32.4836, 16.8061, 8.45288, -63.5166, -7.60653
0.752, -1, -0.766981, 32.4194, 16.8302, 8.56796, -63.3818, -7.69268
0.756, -1, -0.694864, 32.3554, 16.8543, 8.6828, -63.2474, -7.77864
0.76, -1, -0.622901, 32.2915, 16.8783, 8.79738, -63.1132, -7.86441
0.764, -1, -0.551092, 32.2277, 16.9023, 8.91172, -62.9793, -7.95
0.768, -1, -0.479437, 32.1641, 16.9262, 9.02582, -62.8457, -8.0354
0.772, -1, -0.407935, 32.1006, 16.9501, 9.13966, -62.7124, -8.12062
0.776, -1, -0.336586, 32.0373, 16.9739, 9.25326, -62.5794, -8.20566
0.78, -1, -0.26539, 31.9741, 16.9977, 9.36662, -62.4467, -8.29051
0.784, -1, -0.194346, 31.911, 17.0214, 9.47973, -62.3142, -8.37518
0.788, -1, -0.123455, 31.848, 17.0451, 9.5926, -62.182, -8.45966
0.792, -1, -0.0527154, 31.7852, 17.0687, 9.70522, -62.0502, -8.54397
0.796, -1, 0.0178725, 31.7226, 17.0923, 9.81761, -61.9186, -8.62809
0.8, -1, 0.0883091, 31.66, 17.1158, 9.92975, -61.7873, -8.71204
0.804, -1, 0.158595, 31.5976, 17.1393, 10.0417, -61.6562, -8.7958
0.808, -1, 0.22873, 31.5353, 17.1627, 10.1533, -61.5255, -8.87938
0.812, -1, 0.298716, 31.4732, 17.186, 10.2647, -61.395, -8.96279
0.816, -1, 0.368552, 31.4112, 17.2094, 10.3759, -61.2648, -9.04602
0.82, -1, 0.438239, 31.3493, 17.2326, 10.4869, -61.1349, -9.12907
0.824, -1, 0.507778, 31.2876, 17.2559, 10.5976, -61.0053, -9.21194
0.828, -1, 0.577169, 31.226, 17.279, 10.7081, -60.8759, -9.29464
0.832, -1, 0.646413, 31.1645, 17.3021, 10.8183, -60.7468, -9.37716
0.836, -1, 0.71551, 31.1031, 17.3252, 10.9283, -60.618, -9.45951
0.84, -1, 0.78446, 31.0419, 17.3482, 11.0381, -60.4895, -9.54168
0.844, -1, 0.853266, 30.9808, 17.3712, 11.1476, -60.3612, -9.62368
0.848, -1, 0.921925, 30.9199, 17.3941, 11.2569, -60.2332, -9.7055
0.852, -1, 0.990441, 30.859, 17.417, 11.366, -60.1055, -9.78716
0.856, -1, 1.05881, 30.7983, 17.4398, 11.4749, -59.9781, -9.86864
0.86, -1, 1.12704, 30.7378, 17.4626, 11.5835, -59.8509, -9.94995
0.864, -1, 1.19512, 30.6773, 17.4854, 11.6919, -59.7239, -10.0311
0.868, -1, 1.26307, 30.617, 17.508, 11.8001, -59.5973, -10.1121
0.872, -1, 1.33087, 30.5568, 17.5307, 11.908, -59.4709, -10.1929
0.876, -1, 1.39853, 30.4967, 17.5533, 12.0157, -59.3448, -10.2735
0.88, -1, 1.46604, 30.4368, 17.5758, 12.1232, -59.2189, -10.354
0.884, -1, 1.53342, 30.377, 17.5983, 12.2305, -59.0933, -10.4343
0.888, -1, 1.60066, 30.3173, 17.6208, 12.3375, -58.9679, -10.5144
0.892, -1, 1.66775, 30.2577, 17.6432, 12.4444, -58.8429, -10.5943
0.896, -1, 1.73471, 30.1982, 17.6655, 12.551, -58.718, -10.6741
0.9, -1, 1.80153, 30.1389, 17.6878, 12.6574, -58.5935, -10.7538
0.904, -1, 1.86821, 30.0797, 17.7101, 12.7635, -58.4692, -10.8332
0.908, -1, 1.93476, 30.0206, 17.7323, 12.8695, -58.3451, -10.9125
0.912, -1, 2.00117, 29.9617, 17.7545, 12.9752, -58.2213, -10.9917
0.916, -1, 2.06744, 29.9028, 17.7766, 13.0807, -58.0978, -11.0707
0.92, -1, 2.13357, 29.8441, 17.7987, 13.186, -57.9745, -11.1495
0.924, -1, 2.19957, 29.7855, 17.8207, 13.2911, -57.8514, -11.2281
0.928, -1, 2.26543, 29.727, 17.8427, 13.3959, -57.7287, -11.3066
0.932, -1, 2.33116, 29.6687, 17.8647, 13.5006, -57.6061, -11.385
0.936, -1, 2.39676, 29.6104, 17.8866, 13.605, -57.4838, -11.4631
0.94, -1, 2.46222, 29.5523, 17.9084, 13.7092, -57.3618, -11.5412
0.944, -1, 2.52755, 29.4943, 17.9303, 13.8133, -57.24, -11.619
0.948, -1, 2.59275, 29.4364, 17.952, 13.9171, -57.1185, -11.6967
0.952, -1, 2.65781, 29.3787, 17.9738, 14.0206, -56.9972, -11.7743
0.956, -1, 2.72274, 29.321, 17.9954, 14.124, -56.8761, -11.8516
0.96, -1, 2.78755, 29.2635, 18.0171, 14.2272, -56.7553, -11.9289
0.964, -1, 2.85222, 29.2061, 18.0387, 14.3302, -56.6348, -12.0059
0.968, -1, 2.91676, 29.1488, 18.0602, 14.4329, -56.5144, -12.0829
0.972, -1, 2.98117, 29.0916, 18.0817, 14.5355, -56.3944, -12.1596
0.976, -1, 3.04545, 29.0345, 18.1032, 14.6378, -56.2745, -12.2362
0.98, -1, 3.10961, 28.9775, 18.1246, 14.7399, -56.1549, -12.3127
0.984, -1, 3.17363, 28.9207, 18.146, 14.8419, -56.0356, -12.389
0.988, -1, 3.23753, 28.864, 18.1673, 14.9436, -55.9165, -12.4651
0.992, -1, 3.3013, 28.8074, 18.1886, 15.0451, -55.7976, -12.5411
0.996, -1, 3.36494, 28.7508, 18.2099, 15.1465, -55.6789, -12.617
1, -1, 3.42846, 28.6945, 18.2311, 15.2476, -55.5605, -12.6927
1.004, -1, 3.49185, 28.6382, 18.2523, 15.3485, -55.4423, -12.7682
1.008, -1, 3.55512, 28.582, 18.2734, 15.4492, -55.3244, -12.8436
1.012, -1, 3.61826, 28.5259, 18.2945, 15.5498, -55.2067, -12.9189
1.016, -1, 3.68127, 28.47, 18.3155, 15.6501, -55.0892, -12.994
1.02, -1, 3.74416, 28.4142, 18.3365, 15.7502, -54.972, -13.0689
1.024, -1, 3.80693, 28.3584, 18.3575, 15.8502, -54.855, -13.1437
1.027, -1, 3.86958, 28.3028, 18.3784, 15.9499, -54.7382, -13.2184
1.032, -1, 3.9321, 28.2473, 18.3993, 16.0494, -54.6216, -13.2929
1.036, -1, 3.9945, 28.1919, 18.4201, 16.1488, -54.5053, -13.3673
1.04, -1, 4.05678, 28.1366, 18.4409, 16.2479, -54.3892, -13.4415
1.044, -1, 4.11893, 28.0814, 18.4616, 16.3469, -54.2733, -13.5156
1.048, -1, 4.18097, 28.0263, 18.4824, 16.4457, -54.1577, -13.5895
1.052, -1, 4.24289, 27.9714, 18.503, 16.5442, -54.0422, -13.6633
1.055, -1, 4.30468, 27.9165, 18.5237, 16.6426, -53.927, -13.7369
1.06, -1, 4.36636, 27.8617, 18.5443, 16.7408, -53.8121, -13.8104
1.064, -1, 4.42792, 27.8071, 18.5648, 16.8388, -53.6973, -13.8838
1.068, -1, 4.48936, 27.7525, 18.5853, 16.9366, -53.5828, -13.957
1.072, -1, 4.55068, 27.6981, 18.6058, 17.0343, -53.4685, -14.0301
1.076, -1, 4.61188, 27.6438, 18.6262, 17.1317, -53.3544, -14.103
1.08, -1, 4.67297, 27.5895, 18.6466, 17.229, -53.2405, -14.1758
1.084, -1, 4.73394, 27.5354, 18.667, 17.326, -53.1268, -14.2485
1.088, -1, 4.7948, 27.4814, 18.6873, 17.4229, -53.0134, -14.321
1.091, -1, 4.85554, 27.4274, 18.7076, 17.5196, -52.9002, -14.3934
1.096, -1, 4.91617, 27.3736, 18.7278, 17.6161, -52.7871, -14.4656
1.1, -1, 4.97668, 27.3199, 18.7481, 17.7125, -52.6743, -14.5378
1.104, -1, 5.03708, 27.2663, 18.7682, 17.8086, -52.5618, -14.6097
1.108, -1, 5.09737, 27.2127, 18.7883, 17.9046, -52.4494, -14.6816
1.112, -1, 5.15754, 27.1593, 18.8084, 18.0004, -52.3372, -14.7533
1.116, -1, 5.2176, 27.106, 18.8285, 18.096, -52.2253, -14.8249
1.119, -1, 5.27755, 27.0528, 18.8485, 18.1915, -52.1135, -14.8963
1.124, -1, 5.33739, 26.9996, 18.8685, 18.2867, -52.0019, -14.9676
1.128, -1, 5.39712, 26.9466, 18.8884, 18.3818, -51.8906, -15.0388
1.132, -1, 5.45673, 26.8937, 18.9083, 18.4767, -51.7795, -15.1098
1.136, -1, 5.51624, 26.8408, 18.9282, 18.5715, -51.6685, -15.1807
1.14, -1, 5.57564, 26.7881, 18.948, 18.666, -51.5578, -15.2515
1.144, -1, 5.63493, 26.7355, 18.9678, 18.7604, -51.4473, -15.3222
1.147, -1, 5.69412, 26.6829, 18.9876, 18.8547, -51.337, -15.3927
1.152, -1, 5.75319, 26.6305, 19.0073, 18.9487, -51.2268, -15.4631
1.156, -1, 5.81216, 26.5781, 19.027, 19.0426, -51.1169, -15.5334
1.16, -1, 5.87103, 26.5259, 19.0467, 19.1363, -51.0072, -15.6035
1.164, -1, 5.92979, 26.4737, 19.0663, 19.2298, -50.8976, -15.6736
1.168, -1, 5.98844, 26.4216, 19.0859, 19.3232, -50.7883, -15.7435
1.172, -1, 6.04699, 26.3696, 19.1054, 19.4164, -50.6792, -15.8132
1.175, -1, 6.10543, 26.3177, 19.1249, 19.5095, -50.5702, -15.8829
1.18, -1, 6.16377, 26.266, 19.1444, 19.6024, -50.4614, -15.9524
1.184, -1, 6.22201, 26.2142, 19.1639, 19.6951, -50.3529, -16.0218
1.188, -1, 6.28015, 26.1626, 19.1833, 19.7876, -50.2445, -16.0911
1.192, -1, 6.33818, 26.1111, 19.2027, 19.88, -50.1363, -16.1603
1.196, -1, 6.39611, 26.0597, 19.222, 19.9723, -50.0283, -16.2293
1.2, -1, 6.45394, 26.0083, 19.2413, 20.0643, -49.9205, -16.2982
1.204, -1, 6.51167, 25.9571, 19.2606, 20.1562, -49.8129, -16.367
1.208, -1, 6.5693, 25.9059, 19.2798, 20.248, -49.7055, -16.4357
1.212, -1, 6.62683, 25.8548, 19.299, 20.3396, -49.5982, -16.5042
1.216, -1, 6.68426, 25.8038, 19.3182, 20.431, -49.4912, -16.5727
1.22, -1, 6.74159, 25.7529, 19.3374, 20.5223, -49.3843, -16.641
1.224, -1, 6.79882, 25.7021, 19.3565, 20.6134, -49.2776, -16.7092
1.228, -1, 6.85596, 25.6514, 19.3756, 20.7044, -49.1711, -16.7773
1.232, -1, 6.91299, 25.6008, 19.3946, 20.7952, -49.0648, -16.8453
1.236, -1, 6.96993, 25.5502, 19.4136, 20.8858, -48.9586, -16.9131
1.24, -1, 7.02678, 25.4997, 19.4326, 20.9763, -48.8526, -16.9809
1.244, -1, 7.08352, 25.4494, 19.4515, 21.0667, -48.7469, -17.0485
1.248, -1, 7.14018, 25.3991, 19.4705, 21.1569, -48.6413, -17.116
1.252, -1, 7.19673, 25.3488, 19.4893, 21.2469, -48.5358, -17.1834
1.256, -1, 7.25319, 25.2987, 19.5082, 21.3368, -48.4306, -17.2507
1.26, -1, 7.30956, 25.2487, 19.527, 21.4266, -48.3255, -17.3179
1.264, -1, 7.36583, 25.1987, 19.5458, 21.5161, -48.2206, -17.385
1.267, -1, 7.42201, 25.1488, 19.5646, 21.6056, -48.1158, -17.4519
1.272, -1, 7.4781, 25.099, 19.5833, 21.6949, -48.0113, -17.5188
1.276, -1, 7.53409, 25.0493, 19.602, 21.784, -47.9069, -17.5855
1.28, -1, 7.58999, 24.9997, 19.6207, 21.873, -47.8027, -17.6521
1.284, -1, 7.6458, 24.9501, 19.6393, 21.9619, -47.6986, -17.7186
1.288, -1, 7.70152, 24.9007, 19.6579, 22.0506, -47.5948, -17.785
1.292, -1, 7.75715, 24.8513, 19.6765, 22.1392, -47.4911, -17.8513
1.295, -1, 7.81268, 24.802, 19.695, 22.2276, -47.3875, -17.9175
1.3, -1, 7.86813, 24.7528, 19.7135, 22.3159, -47.2842, -17.9836
1.304, -1, 7.92348, 24.7036, 19.732, 22.404, -47.181, -18.0496
1.308, -1, 7.97875, 24.6545, 19.7505, 22.492, -47.0779, -18.1154
1.312, -1, 8.03393, 24.6055, 19.7689, 22.5798, -46.9751, -18.1812
1.316, -1, 8.08901, 24.5566, 19.7873, 22.6675, -46.8724, -18.2468
1.32, -1, 8.14401, 24.5078, 19.8057, 22.7551, -46.7699, -18.3124
1.324, -1, 8.19893, 24.4591, 19.824, 22.8425, -46.6675, -18.3778
1.328, -1, 8.25375, 24.4104, 19.8423, 22.9298, -46.5653, -18.4432
1.332, -1, 8.30849, 24.3618, 19.8606, 23.017, -46.4632, -18.5084
1.336, -1, 8.36314, 24.3133, 19.8788, 23.104, -46.3614, -18.5735
1.34, -1, 8.4177, 24.2648, 19.8971, 23.1909, -46.2596, -18.6386
1.344, -1, 8.47218, 24.2165, 19.9153, 23.2776, -46.1581, -18.7035
1.348, -1, 8.52657, 24.1682, 19.9334, 23.3642, -46.0567, -18.7683
1.352, -1, 8.58088, 24.1199, 19.9515, 23.4507, -45.9554, -18.833
1.356, -1, 8.6351, 24.0718, 19.9697, 23.537, -45.8543, -18.8976
1.36, -1, 8.68923, 24.0237, 19.9877, 23.6232, -45.7534, -18.9622
1.364, -1, 8.74328, 23.9757, 20.0058, 23.7092, -45.6526, -19.0266
1.368, -1, 8.79725, 23.9278, 20.0238, 23.7952, -45.552, -19.0909
1.372, -1, 8.85114, 23.88, 20.0418, 23.881, -45.4516, -19.1551
1.376, -1, 8.90494, 23.8322, 20.0598, 23.9666, -45.3513, -19.2192
1.38, -1, 8.95866, 23.7845, 20.0777, 24.0521, -45.2511, -19.2833
1.384, -1, 9.01229, 23.7369, 20.0956, 24.1375, -45.1511, -19.3472
1.388, -1, 9.06584, 23.6894, 20.1135, 24.2228, -45.0513, -19.411
1.392, -1, 9.11932, 23.6419, 20.1314, 24.3079, -44.9516, -19.4747
1.396, -1, 9.1727, 23.5945, 20.1492, 24.393, -44.8521, -19.5384
1.4, -1, 9.22601, 23.5472, 20.167, 24.4778, -44.7527, -19.6019
1.404, -1, 9.27924, 23.4999, 20.1848, 24.5626, -44.6535, -19.6653
1.408, -1, 9.33239, 23.4527, 20.2025, 24.6472, -44.5544, -19.7287
1.412, -1, 9.38546, 23.4056, 20.2202, 24.7317, -44.4554, -19.7919
1.416, -1, 9.43844, 23.3585, 20.2379, 24.8161, -44.3567, -19.8551
1.42, -1, 9.49135, 23.3116, 20.2556, 24.9003, -44.258, -19.9181
1.424, -1, 9.54418, 23.2647, 20.2732, 24.9844, -44.1595, -19.9811
1.428, -1, 9.59693, 23.2178, 20.2908, 25.0684, -44.0612, -20.044
1.432, -1, 9.6496, 23.1711, 20.3084, 25.1523, -43.963, -20.1067
1.436, -1, 9.7022, 23.1244, 20.326, 25.236, -43.865, -20.1694
1.44, -1, 9.75472, 23.0777, 20.3435, 25.3196, -43.767, -20.232
1.444, -1, 9.80716, 23.0312, 20.361, 25.4031, -43.6693, -20.2945
1.448, -1, 9.85952, 22.9847, 20.3785, 25.4865, -43.5717, -20.3569
1.452, -1, 9.91181, 22.9383, 20.396, 25.5697, -43.4742, -20.4192
1.456, -1, 9.96403, 22.8919, 20.4134, 25.6528, -43.3769, -20.4814
1.46, -1, 10.0162, 22.8456, 20.4308, 25.7358, -43.2797, -20.5436
1.464, -1, 10.0682, 22.7994, 20.4482, 25.8187, -43.1826, -20.6056
1.468, -1, 10.1202, 22.7533, 20.4656, 25.9015, -43.0857, -20.6676
1.472, -1, 10.1721, 22.7072, 20.4829, 25.9841, -42.989, -20.7294
1.476, -1, 10.224, 22.6612, 20.5002, 26.0666, -42.8923, -20.7912
1.48, -1, 10.2757, 22.6152, 20.5175, 26.149, -42.7958, -20.8529
1.484, -1, 10.3274, 22.5693, 20.5348, 26.2313, -42.6995, -20.9145
1.488, -1, 10.379, 22.5235, 20.552, 26.3135, -42.6033, -20.976
1.492, -1, 10.4306, 22.4777, 20.5692, 26.3956, -42.5072, -21.0374
1.496, -1, 10.482, 22.432, 20.5864, 26.4775, -42.4113, -21.0987
1.5, -1, 10.5334, 22.3864, 20.6035, 26.5593, -42.3154, -21.16
1.504, -1, 10.5848, 22.3408, 20.6207, 26.641, -42.2198, -21.2212
1.508, -1, 10.636, 22.2953, 20.6378, 26.7226, -42.1242, -21.2822
1.512, -1, 10.6872, 22.2499, 20.6549, 26.8041, -42.0288, -21.3432
1.516, -1, 10.7383, 22.2045, 20.6719, 26.8855, -41.9336, -21.4041
1.52, -1, 10.7893, 22.1592, 20.689, 26.9667, -41.8384, -21.4649
1.524, -1, 10.8403, 22.114, 20.706, 27.0479, -41.7434, -21.5257
1.528, -1, 10.8912, 22.0688, 20.723, 27.1289, -41.6485, -21.5863
1.532, -1, 10.942, 22.0237, 20.74, 27.2098, -41.5538, -21.6469
1.536, -1, 10.9928, 21.9786, 20.7569, 27.2906, -41.4592, -21.7074
1.54, -1, 11.0435, 21.9336, 20.7738, 27.3713, -41.3647, -21.7678
1.544, -1, 11.0941, 21.8887, 20.7908, 27.4519, -41.2703, -21.8281
1.548, -1, 11.1446, 21.8438, 20.8076, 27.5324, -41.1761, -21.8884
1.552, -1, 11.1951, 21.799, 20.8245, 27.6127, -41.082, -21.9485
1.556, -1, 11.2455, 21.7542, 20.8413, 27.693, -40.988, -22.0086
1.56, -1, 11.2959, 21.7095, 20.8581, 27.7732, -40.8941, -22.0686
1.564, -1, 11.3462, 21.6649, 20.8749, 27.8532, -40.8004, -22.1285
1.568, -1, 11.3964, 21.6203, 20.8917, 27.9331, -40.7068, -22.1884
1.572, -1, 11.4465, 21.5758, 20.9084, 28.013, -40.6133, -22.2481
1.576, -1, 11.4966, 21.5313, 20.9251, 28.0927, -40.52, -22.3078
1.58, -1, 11.5466, 21.4869, 20.9418, 28.1723, -40.4268, -22.3674
1.584, -1, 11.5965, 21.4426, 20.9585, 28.2518, -40.3336, -22.4269
1.588, -1, 11.6464, 21.3983, 20.9752, 28.3313, -40.2407, -22.4864
1.592, -1, 11.6962, 21.3541, 20.9918, 28.4106, -40.1478, -22.5457
1.596, -1, 11.746, 21.3099, 21.0084, 28.4898, -40.0551, -22.605
1.6, -1, 11.7957, 21.2658, 21.025, 28.5689, -39.9624, -22.6642
1.604, -1, 11.8453, 21.2217, 21.0416, 28.6479, -39.8699, -22.7234
1.608, -1, 11.8948, 21.1778, 21.0581, 28.7268, -39.7776, -22.7824
1.612, -1, 11.9443, 21.1338, 21.0747, 28.8055, -39.6853, -22.8414
1.616, -1, 11.9938, 21.0899, 21.0912, 28.8842, -39.5932, -22.9003
1.62, -1, 12.0431, 21.0461, 21.1076, 28.9628, -39.5011, -22.9591
1.624, -1, 12.0924, 21.0023, 21.1241, 29.0413, -39.4092, -23.0179
1.628, -1, 12.1417, 20.9586, 21.1405, 29.1197, -39.3174, -23.0765
1.632, -1, 12.1908, 20.915, 21.157, 29.198, -39.2258, -23.1352
1.636, -1, 12.2399, 20.8714, 21.1734, 29.2762, -39.1342, -23.1937
1.64, -1, 12.289, 20.8278, 21.1897, 29.3543, -39.0428, -23.2521
1.644, -1, 12.338, 20.7843, 21.2061, 29.4323, -38.9515, -23.3105
1.648, -1, 12.3869, 20.7409, 21.2224, 29.5102, -38.8603, -23.3688
1.652, -1, 12.4358, 20.6975, 21.2388, 29.588, -38.7692, -23.4271
1.656, -1, 12.4846, 20.6542, 21.2551, 29.6657, -38.6782, -23.4852
1.66, -1, 12.5333, 20.6109, 21.2713, 29.7433, -38.5873, -23.5433
1.664, -1, 12.582, 20.5677, 21.2876, 29.8208, -38.4966, -23.6013
1.668, -1, 12.6306, 20.5245, 21.3038, 29.8982, -38.4059, -23.6593
1.672, -1, 12.6792, 20.4814, 21.32, 29.9755, -38.3154, -23.7171
1.676, -1, 12.7277, 20.4384, 21.3362, 30.0527, -38.225, -23.7749
1.68, -1, 12.7761, 20.3953, 21.3524, 30.1298, -38.1347, -23.8327
1.684, -1, 12.8245, 20.3524, 21.3686, 30.2069, -38.0445, -23.8903
1.688, -1, 12.8728, 20.3095, 21.3847, 30.2838, -37.9544, -23.9479
1.692, -1, 12.9211, 20.2666, 21.4008, 30.3606, -37.8644, -24.0054
1.696, -1, 12.9693, 20.2238, 21.4169, 30.4374, -37.7746, -24.0629
1.7, -1, 13.0174, 20.1811, 21.433, 30.514, -37.6848, -24.1203
1.704, -1, 13.0655, 20.1384, 21.449, 30.5906, -37.5951, -24.1776
1.708, -1, 13.1136, 20.0958, 21.4651, 30.6671, -37.5056, -24.2348
1.712, -1, 13.1615, 20.0532, 21.4811, 30.7435, -37.4162, -24.292
1.716, -1, 13.2094, 20.0106, 21.4971, 30.8197, -37.3269, -24.3491
1.72, -1, 13.2573, 19.9681, 21.5131, 30.8959, -37.2376, -24.4061
1.724, -1, 13.3051, 19.9257, 21.529, 30.972, -37.1485, -24.4631
1.728, -1, 13.3528, 19.8833, 21.545, 31.0481, -37.0595, -24.52
1.732, -1, 13.4005, 19.841, 21.5609, 31.124, -36.9706, -24.5768
1.736, -1, 13.4482, 19.7987, 21.5768, 31.1998, -36.8818, -24.6336
1.74, -1, 13.4957, 19.7565, 21.5927, 31.2756, -36.7931, -24.6903
1.744, -1, 13.5433, 19.7143, 21.6086, 31.3512, -36.7045, -24.7469
1.748, -1, 13.5907, 19.6721, 21.6244, 31.4268, -36.6161, -24.8035
1.752, -1, 13.6381, 19.63, 21.6402, 31.5023, -36.5277, -24.86
1.756, -1, 13.6855, 19.588, 21.6561, 31.5776, -36.4394, -24.9164
1.76, -1, 13.7328, 19.546, 21.6719, 31.6529, -36.3512, -24.9728
1.764, -1, 13.78, 19.5041, 21.6876, 31.7282, -36.2632, -25.0291
1.768, -1, 13.8272, 19.4622, 21.7034, 31.8033, -36.1752, -25.0853
1.772, -1, 13.8743, 19.4203, 21.7191, 31.8783, -36.0873, -25.1415
1.776, -1, 13.9214, 19.3785, 21.7348, 31.9533, -35.9996, -25.1976
1.78, -1, 13.9684, 19.3368, 21.7505, 32.0281, -35.9119, -25.2536
1.784, -1, 14.0154, 19.2951, 21.7662, 32.1029, -35.8243, -25.3096
1.788, -1, 14.0623, 19.2534, 21.7819, 32.1776, -35.7369, -25.3655
1.792, -1, 14.1092, 19.2118, 21.7975, 32.2522, -35.6495, -25.4214
1.796, -1, 14.156, 19.1703, 21.8132, 32.3268, -35.5622, -25.4772
1.8, -1, 14.2027, 19.1288, 21.8288, 32.4012, -35.4751, -25.5329
1.804, -1, 14.2494, 19.0873, 21.8444, 32.4756, -35.388, -25.5886
1.808, -1, 14.2961, 19.0459, 21.86, 32.5498, -35.301, -25.6442
1.812, -1, 14.3427, 19.0045, 21.8755, 32.624, -35.2142, -25.6997
1.816, -1, 14.3892, 18.9632, 21.8911, 32.6981, -35.1274, -25.7552
1.82, -1, 14.4357, 18.9219, 21.9066, 32.7722, -35.0407, -25.8106
1.824, -1, 14.4822, 18.8807, 21.9221, 32.8461, -34.9541, -25.8659
1.828, -1, 14.5286, 18.8395, 21.9376, 32.92, -34.8676, -25.9212
1.832, -1, 14.5749, 18.7983, 21.9531, 32.9938, -34.7813, -25.9764
1.836, -1, 14.6212, 18.7572, 21.9685, 33.0675, -34.695, -26.0316
1.84, -1, 14.6674, 18.7162, 21.984, 33.1411, -34.6088, -26.0867
1.844, -1, 14.7136, 18.6752, 21.9994, 33.2146, -34.5227, -26.1418
1.848, -1, 14.7598, 18.6342, 22.0148, 33.2881, -34.4367, -26.1967
1.852, -1, 14.8058, 18.5933, 22.0302, 33.3614, -34.3507, -26.2517
1.856, -1, 14.8519, 18.5524, 22.0456, 33.4347, -34.2649, -26.3065
1.86, -1, 14.8979, 18.5116, 22.0609, 33.5079, -34.1792, -26.3613
1.864, -1, 14.9438, 18.4708, 22.0762, 33.5811, -34.0936, -26.4161
1.868, -1, 14.9897, 18.4301, 22.0916, 33.6541, -34.008, -26.4708
1.872, -1, 15.0355, 18.3894, 22.1069, 33.7271, -33.9226, -26.5254
1.876, -1, 15.0813, 18.3487, 22.1222, 33.8, -33.8372, -26.58
1.88, -1, 15.127, 18.3081, 22.1374, 33.8728, -33.7519, -26.6345
1.884, -1, 15.1727, 18.2676, 22.1527, 33.9456, -33.6668, -26.6889
1.888, -1, 15.2184, 18.227, 22.1679, 34.0182, -33.5817, -26.7433
1.892, -1, 15.264, 18.1866, 22.1832, 34.0908, -33.4967, -26.7976
1.896, -1, 15.3095, 18.1461, 22.1984, 34.1633, -33.4118, -26.8519
1.9, -1, 15.355, 18.1057, 22.2136, 34.2358, -33.3269, -26.9062
1.904, -1, 15.4004, 18.0654, 22.2287, 34.3081, -33.2422, -26.9603
1.908, -1, 15.4458, 18.0251, 22.2439, 34.3804, -33.1576, -27.0144
1.912, -1, 15.4912, 17.9848, 22.259, 34.4526, -33.073, -27.0685
1.916, -1, 15.5365, 17.9446, 22.2742, 34.5248, -32.9886, -27.1225
1.92, -1, 15.5818, 17.9044, 22.2893, 34.5968, -32.9042, -27.1764
1.924, -1, 15.627, 17.8643, 22.3044, 34.6688, -32.8199, -27.2303
1.928, -1, 15.6721, 17.8242, 22.3195, 34.7407, -32.7357, -27.2841
1.932, -1, 15.7173, 17.7841, 22.3345, 34.8126, -32.6516, -27.3379
1.936, -1, 15.7623, 17.7441, 22.3496, 34.8843, -32.5676, -27.3916
1.94, -1, 15.8073, 17.7041, 22.3646, 34.956, -32.4836, -27.4453
1.944, -1, 15.8523, 17.6642, 22.3796, 35.0276, -32.3997, -27.4989
1.948, -1, 15.8973, 17.6243, 22.3946, 35.0992, -32.316, -27.5524
1.952, -1, 15.9422, 17.5844, 22.4096, 35.1707, -32.2323, -27.6059
1.956, -1, 15.987, 17.5446, 22.4246, 35.2421, -32.1487, -27.6594
1.96, -1, 16.0318, 17.5048, 22.4396, 35.3134, -32.0652, -27.7128
1.964, -1, 16.0765, 17.4651, 22.4545, 35.3846, -31.9817, -27.7661
1.968, -1, 16.1212, 17.4254, 22.4694, 35.4558, -31.8984, -27.8194
1.972, -1, 16.1659, 17.3858, 22.4844, 35.5269, -31.8151, -27.8726
1.976, -1, 16.2105, 17.3461, 22.4993, 35.598, -31.7319, -27.9258
1.98, -1, 16.2551, 17.3066, 22.5141, 35.6689, -31.6488, -27.9789
1.984, -1, 16.2996, 17.267, 22.529, 35.7398, -31.5658, -28.032
1.988, -1, 16.3441, 17.2275, 22.5439, 35.8107, -31.4829, -28.085
1.992, -1, 16.3886, 17.1881, 22.5587, 35.8814, -31.4, -28.138
1.996, -1, 16.433, 17.1487, 22.5735, 35.9521, -31.3173, -28.1909
1.999, -1, 16.4773, 17.1093, 22.5883, 36.0228, -31.2346, -28.2438
2.004, -1, 16.5216, 17.0699, 22.6031, 36.0933, -31.1519, -28.2966
2.008, -1, 16.5659, 17.0306, 22.6179, 36.1638, -31.0694, -28.3493
2.012, -1, 16.6101, 16.9914, 22.6327, 36.2342, -30.987, -28.4021
2.015, -1, 16.6543, 16.9521, 22.6474, 36.3046, -30.9046, -28.4547
2.019, -1, 16.6984, 16.9129, 22.6622, 36.3748, -30.8223, -28.5073
2.024, -1, 16.7425, 16.8738, 22.6769, 36.445, -30.7401, -28.5599
2.028, -1, 16.7866, 16.8347, 22.6916, 36.5152, -30.658, -28.6124
2.031, -1, 16.8306, 16.7956, 22.7063, 36.5853, -30.5759, -28.6648
2.036, -1, 16.8746, 16.7566, 22.721, 36.6553, -30.4939, -28.7172
2.04, -1, 16.9185, 16.7176, 22.7357, 36.7252, -30.412, -28.7696
2.044, -1, 16.9624, 16.6786, 22.7503, 36.7951, -30.3302, -28.8219
2.048, -1, 17.0062, 16.6397, 22.765, 36.8649, -30.2485, -28.8742
2.051, -1, 17.05, 16.6008, 22.7796, 36.9346, -30.1668, -28.9264
2.055, -1, 17.0938, 16.5619, 22.7942, 37.0043, -30.0852, -28.9785
2.06, -1, 17.1375, 16.5231, 22.8088, 37.0739, -30.0037, -29.0306
2.064, -1, 17.1811, 16.4844, 22.8234, 37.1435, -29.9223, -29.0827
2.068, -1, 17.2244, 16.4458, 22.8379, 37.2129, -29.841, -29.1347
2.071, -1, 17.2671, 16.4077, 22.8523, 37.2823, -29.7597, -29.1866
2.076, -1, 17.3088, 16.3701, 22.8666, 37.3515, -29.6787, -29.2384
2.08, -1, 17.3495, 16.3335, 22.8807, 37.4204, -29.5981, -29.29
2.084, -1, 17.3888, 16.2979, 22.8945, 37.4888, -29.518, -29.3412
2.087, -1, 17.4267, 16.2635, 22.9079, 37.5564, -29.4389, -29.3918
2.092, -1, 17.4632, 16.2306, 22.921, 37.6229, -29.3611, -29.4417
2.096, -1, 17.4983, 16.1992, 22.9337, 37.6879, -29.2851, -29.4903
2.1, -1, 17.5321, 16.1694, 22.9459, 37.7508, -29.2115, -29.5374
2.104, -1, 17.5644, 16.1411, 22.9576, 37.8112, -29.1408, -29.5827
2.107, -1, 17.5951, 16.1145, 22.9686, 37.8686, -29.0737, -29.6257
2.111, -1, 17.624, 16.0896, 22.9791, 37.9226, -29.0106, -29.6661
2.116, -1, 17.6513, 16.0662, 22.9888, 37.9726, -28.9521, -29.7035
2.12, -1, 17.6768, 16.044, 22.9978, 38.0183, -28.8986, -29.7378
2.124, -1, 17.7009, 16.023, 23.0061, 38.0595, -28.8504, -29.7686
2.127, -1, 17.7234, 16.0029, 23.0137, 38.0959, -28.8078, -29.7958
2.132, -1, 17.7446, 15.9838, 23.0205, 38.1275, -28.7707, -29.8195
2.136, -1, 17.7642, 15.9657, 23.0267, 38.1546, -28.739, -29.8397
2.14, -1, 17.7823, 15.9489, 23.0321, 38.1772, -28.7125, -29.8566
2.143, -1, 17.7986, 15.9337, 23.0368, 38.1957, -28.6907, -29.8705
2.148, -1, 17.8131, 15.9202, 23.0409, 38.2106, -28.6732, -29.8816
2.152, -1, 17.8259, 15.9085, 23.0443, 38.2223, -28.6594, -29.8904
2.156, -1, 17.8371, 15.8987, 23.0471, 38.2313, -28.6488, -29.8971
2.16, -1, 17.8467, 15.8905, 23.0494, 38.2381, -28.6409, -29.9021
2.163, -1, 17.855, 15.8838, 23.0513, 38.243, -28.635, -29.9058
2.168, -1, 17.8619, 15.8785, 23.0527, 38.2465, -28.6308, -29.9084
2.172, -1, 17.8674, 15.8744, 23.0538, 38.249, -28.6279, -29.9103
2.176, 2, 17.8716, 15.8714, 23.0546, 38.2507, -28.6258, -29.9115
2.179, 2, 17.8747, 15.8692, 23.0552, 38.2519, -28.6245, -29.9124
2.184, 2, 17.8769, 15.8677, 23.0556, 38.2527, -28.6235, -29.913
2.188, 2, 17.8784, 15.8667, 23.0558, 38.2532, -28.6229, -29.9134
2.192, 2, 17.8794, 15.866, 23.056, 38.2536, -28.6224, -29.9137
2.196, 2, 17.8801, 15.8655, 23.0561, 38.2538, -28.6221, -29.9138
2.199, 2, 17.8806, 15.8652, 23.0562, 38.254, -28.6219, -29.914
2.204, 2, 17.8809, 15.865, 23.0563, 38.2541, -28.6218, -29.9141
2.208, 2, 17.8811, 15.8649, 23.0563, 38.2542, -28.6217, -29.9141
2.212, 2, 17.8813, 15.8648, 23.0563, 38.2543, -28.6217, -29.9141
2.216, 2, 17.8814, 15.8647, 23.0564, 38.2543, -28.6216, -29.9142
2.219, 2, 17.8814, 15.8646, 23.0564, 38.2543, -28.6216, -29.9142
2.224, 2, 17.8815, 15.8646, 23.0564, 38.2543, -28.6216, -29.9142
2.228, 2, 17.8815, 15.8646, 23.0564, 38.2543, -28.6215, -29.9142
2.232, 2, 17.8815, 15.8646, 23.0564, 38.2543, -28.6215, -29.9142
2.235, 2, 17.8815, 15.8646, 23.0564, 38.2544, -28.6215, -29.9142
2.24, 2, 17.8815, 15.8646, 23.0564, 38.2544, -28.6215, -29.9142
2.244, 2, 17.8816, 15.8646, 23.0564, 38.2544, -28.6215, -29.9142
2.248, 2, 17.8816, 15.8646, 23.0564, 38.2544, -28.6215, -29.9142
2.252, 2, 17.8816, 15.8646, 23.0564, 38.2544, -28.6215, -29.9142
2.255, 2, 17.8816, 15.8646, 23.0564, 38.2544, -28.6215, -29.9142
2.259, 2, 17.8816, 15.8646, 23.0564, 38.2544, -28.6215, -29.9142
2.264, 2, 17.8816, 15.8645, 23.0564, 38.2544, -28.6215, -29.9142
2.268, 2, 17.8816, 15.8645, 23.0564, 38.2544, -28.6215, -29.9142
2.272, 2, 17.8816, 15.8645, 23.0564, 38.2544, -28.6215, -29.9142
2.275, 2, 17.8816, 15.8645, 23.0564, 38.2544, -28.6215, -29.9142
2.28, 2, 17.8816, 15.8645, 23.0564, 38.2544, -28.6215, -29.9142
2.284, 2, 17.8816, 15.8645, 23.0564, 38.2544, -28.6215, -29.9142
2.288, 2, 17.8816, 15.8645, 23.0564, 38.2544, -28.6215, -29.9142
2.291, 2, 17.8816, 15.8645, 23.0564, 38.2544, -28.6215, -29.9142
2.296, 2, 17.8816, 15.8645, 23.0564, 38.2544, -28.6215, -29.9142
2.3, 2, 17.8816, 15.8645, 23.0564, 38.2544, -28.6215, -29.9142
2.304, 2, 17.8816, 15.8645, 23.0564, 38.2544, -28.6215, -29.9142
2.308, 2, 17.8816, 15.8645, 23.0564, 38.2544, -28.6215, -29.9142
2.311, 2, 17.8816, 15.8645, 23.0564, 38.2544, -28.6215, -29.9142
2.316, 2, 17.8816, 15.8645, 23.0564, 38.2544, -28.6215, -29.9142
2.32, 2, 17.8816, 15.8645, 23.0564, 38.2544, -28.6215, -29.9142
2.324, 2, 17.8816, 15.8645, 23.0564, 38.2544, -28.6215, -29.9142
2.328, 2, 17.8816, 15.8645, 23.0564, 38.2544, -28.6215, -29.9142
2.331, 2, 17.8816, 15.8645, 23.0564, 38.2544, -28.6215, -29.9142
2.336, 2, 17.8816, 15.8645, 23.0564, 38.2544, -28.6215, -29.9142
2.34, 2, 17.8816, 15.8645, 23.0564, 38.2544, -28.6215, -29.9142
2.344, 2, 17.8816, 15.8645, 23.0564, 38.2544, -28.6215, -29.9142
2.347, 2, 17.8816, 15.8645, 23.0564, 38.2544, -28.6215, -29.9142
2.352, 2, 17.8816, 15.8645, 23.0564, 38.2544, -28.6215, -29.9142
2.356, 2, 17.8816, 15.8645, 23.0564, 38.2544, -28.6215, -29.9142
2.36, 2, 17.8816, 15.8645, 23.0564, 38.2544, -28.6215, -29.9142
2.364, 2, 17.8816, 15.8645, 23.0564, 38.2544, -28.6215, -29.9142
2.367, 2, 17.8816, 15.8645, 23.0564, 38.2544, -28.6215, -29.9142
2.372, 2, 17.8816, 15.8645, 23.0564, 38.2544, -28.6215, -29.9142
2.376, 2, 17.8816, 15.8645, 23.0564, 38.2544, -28.6215, -29.9142
2.38, 2, 17.8816, 15.8645, 23.0564, 38.2544, -28.6215, -29.9142
2.383, 2, 17.8816, 15.8645, 23.0564, 38.2544, -28.6215, -29.9142
2.388, 2, 17.8816, 15.8645, 23.0564, 38.2544, -28.6215, -29.9142
2.392, 2, 17.8816, 15.8645, 23.0564, 38.2544, -28.6215, -29.9142
2.396, 2, 17.8816, 15.8645, 23.0564, 38.2544, -28.6215, -29.9142
2.4, 2, 17.8816, 15.8645, 23.0564, 38.2544, -28.6215, -29.9142
2.403, 2, 17.8816, 15.8645, 23.0564, 38.2544, -28.6215, -29.9142
2.408, 2, 17.8816, 15.8645, 23.0564, 38.2544, -28.6215, -29.9142
2.412, 2, 17.8816, 15.8645, 23.0564, 38.2544, -28.6215, -29.9142
2.416, 2, 17.8816, 15.8645, 23.0564, 38.2544, -28.6215, -29.9142
2.42, 2, 17.8816, 15.8645, 23.0564, 38.2544, -28.6215, -29.9142
2.423, 2, 17.8816, 15.8645, 23.0564, 38.2544, -28.6215, -29.9142
2.428, 2, 17.8816, 15.8645, 23.0564, 38.2544, -28.6215, -29.9142
2.432, 2, 17.8816, 15.8645, 23.0564, 38.2544, -28.6215, -29.9142
2.436, 2, 17.8816, 15.8645, 23.0564, 38.2544, -28.6215, -29.9142
2.439, 2, 17.8816, 15.8645, 23.0564, 38.2544, -28.6215, -29.9142
2.444, 2, 17.8816, 15.8645, 23.0564, 38.2544, -28.6215, -29.9142
2.448, 2, 17.8816, 15.8645, 23.0564, 38.2544, -28.6215, -29.9142
2.452, 2, 17.8816, 15.8645, 23.0564, 38.2544, -28.6215, -29.9142
2.456, 2, 17.8816, 15.8645, 23.0564, 38.2544, -28.6215, -29.9142
2.459, 2, 17.8816, 15.8645, 23.0564, 38.2544, -28.6215, -29.9142
2.464, 2, 17.8816, 15.8645, 23.0564, 38.2544, -28.6215, -29.9142
2.468, 2, 17.8816, 15.8645, 23.0564, 38.2544, -28.6215, -29.9142
2.472, 2, 17.8816, 15.8645, 23.0564, 38.2544, -28.6215, -29.9142
2.476, 2, 17.8816, 15.8645, 23.0564, 38.2544, -28.6215, -29.9142
2.479, 2, 17.8816, 15.8645, 23.0564, 38.2544, -28.6215, -29.9142
2.484, 2, 17.8816, 15.8645, 23.0564, 38.2544, -28.6215, -29.9142
2.488, 2, 17.8816, 15.8645, 23.0564, 38.2544, -28.6215, -29.9142
2.492, 2, 17.8816, 15.8645, 23.0564, 38.2544, -28.6215, -29.9142
2.495, 2, 17.8816, 15.8645, 23.0564, 38.2544, -28.6215, -29.9142
2.5, 2, 17.8816, 15.8645, 23.0564, 38.2544, -28.6215, -29.9142
2.504, 2, 17.8816, 15.8645, 23.0564, 38.2544, -28.6215, -29.9142
2.508, 2, 17.8816, 15.8645, 23.0564, 38.2544, -28.6215, -29.9142
2.512, 2, 17.8816, 15.8645, 23.0564, 38.2544, -28.6215, -29.9142
2.515, 2, 17.8816, 15.8645, 23.0564, 38.2544, -28.6215, -29.9142
2.52, 2, 17.8816, 15.8645, 23.0564, 38.2544, -28.6215, -29.9142
2.524, 2, 17.8816, 15.8645, 23.0564, 38.2544, -28.6215, -29.9142
2.528, 2, 17.8816, 15.8645, 23.0564, 38.2544, -28.6215, -29.9142
2.531, 2, 17.8816, 15.8645, 23.0564, 38.2544, -28.6215, -29.9142
2.536, 2, 17.8816, 15.8645, 23.0564, 38.2544, -28.6215, -29.9142
2.54, 2, 17.8816, 15.8645, 23.0564, 38.2544, -28.6215, -29.9142
2.544, 2, 17.8816, 15.8645, 23.0564, 38.2544, -28.6215, -29.9142
2.548, 2, 17.8816, 15.8645, 23.0564, 38.2544, -28.6215, -29.9142
2.551, 2, 17.8816, 15.8645, 23.0564, 38.2544, -28.6215, -29.9142
2.556, 2, 17.8816, 15.8645, 23.0564, 38.2544, -28.6215, -29.9142
2.56, 2, 17.8816, 15.8645, 23.0564, 38.2544, -28.6215, -29.9142
2.564, 2, 17.8816, 15.8645, 23.0564, 38.2544, -28.6215, -29.9142
2.568, 2, 17.8816, 15.8645, 23.0564, 38.2544, -28.6215, -29.9142
2.571, 2, 17.8816, 15.8645, 23.0564, 38.2544, -28.6215, -29.9142
2.576, 2, 17.8816, 15.8645, 23.0564, 38.2544, -28.6215, -29.9142
2.58, 2, 17.8816, 15.8645, 23.0564, 38.2544, -28.6215, -29.9142
2.584, 2, 17.8816, 15.8645, 23.0564, 38.2544, -28.6215, -29.9142
2.587, 2, 17.8816, 15.8645, 23.0564, 38.2544, -28.6215, -29.9142
2.592, 2, 17.8816, 15.8645, 23.0564, 38.2544, -28.6215, -29.9142
2.596, 2, 17.8816, 15.8645, 23.0564, 38.2544, -28.6215, -29.9142
2.6, 2, 17.8816, 15.8645, 23.0564, 38.2544, -28.6215, -29.9142
2.604, 2, 17.8816, 15.8645, 23.0564, 38.2544, -28.6215, -29.9142
2.607, 2, 17.8816, 15.8645, 23.0564, 38.2544, -28.6215, -29.9142
2.612, 2, 17.8816, 15.8645, 23.0564, 38.2544, -28.6215, -29.9142
2.616, 2, 17.8816, 15.8645, 23.0564, 38.2544, -28.6215, -29.9142
2.62, 2, 17.8816, 15.8645, 23.0564, 38.2544, -28.6215, -29.9142
2.624, 2, 17.8816, 15.8645, 23.0564, 38.2544, -28.6215, -29.9142
2.627, 2, 17.8816, 15.8645, 23.0564, 38.2544, -28.6215, -29.9142
2.632, 2, 17.8816, 15.8645, 23.0564, 38.2544, -28.6215, -29.9142
2.636, 2, 17.8816, 15.8645, 23.0564, 38.2544, -28.6215, -29.9142
2.64, 2, 17.8816, 15.8645, 23.0564, 38.2544, -28.6215, -29.9142
2.643, 2, 17.8816, 15.8645, 23.0564, 38.2544, -28.6215, -29.9142
2.648, 2, 17.8816, 15.8645, 23.0564, 38.2544, -28.6215, -29.9142
2.652, 2, 17.8816, 15.8645, 23.0564, 38.2544, -28.6215, -29.9142
2.656, 2, 17.8816, 15.8645, 23.0564, 38.2544, -28.6215, -29.9142
2.66, 2, 17.8816, 15.8645, 23.0564, 38.2544, -28.6215, -29.9142
2.663, 2, 17.8816, 15.8645, 23.0564, 38.2544, -28.6215, -29.9142
2.668, 2, 17.8816, 15.8645, 23.0564, 38.2544, -28.6215, -29.9142
2.672, 2, 17.8816, 15.8645, 23.0564, 38.2544, -28.6215, -29.9142
2.676, 2, 17.8816, 15.8645, 23.0564, 38.2544, -28.6215, -29.9142
2.679, 2, 17.8816, 15.8645, 23.0564, 38.2544, -28.6215, -29.9142
2.684, 2, 17.8816, 15.8645, 23.0564, 38.2544, -28.6215, -29.9142
2.688, 2, 17.8816, 15.8645, 23.0564, 38.2544, -28.6215, -29.9142
2.692, 2, 17.8816, 15.8645, 23.0564, 38.2544, -28.6215, -29.9142
2.696, 2, 17.8816, 15.8645, 23.0564, 38.2544, -28.6215, -29.9142
2.699, 2, 17.8816, 15.8645, 23.0564, 38.2544, -28.6215, -29.9142
2.704, 2, 17.8816, 15.8645, 23.0564, 38.2544, -28.6215, -29.9142
2.708, 2, 17.8816, 15.8645, 23.0564, 38.2544, -28.6215, -29.9142
2.712, 2, 17.8816, 15.8645, 23.0564, 38.2544, -28.6215, -29.9142
2.716, 2, 17.8816, 15.8645, 23.0564, 38.2544, -28.6215, -29.9142
2.719, 2, 17.8816, 15.8645, 23.0564, 38.2544, -28.6215, -29.9142
2.724, 2, 17.8816, 15.8645, 23.0564, 38.2544, -28.6215, -29.9142
2.728, 2, 17.8816, 15.8645, 23.0564, 38.2544, -28.6215, -29.9142
2.732, 2, 17.8816, 15.8645, 23.0564, 38.2544, -28.6215, -29.9142
2.735, 2, 17.8816, 15.8645, 23.0564, 38.2544, -28.6215, -29.9142
2.74, 2, 17.8816, 15.8645, 23.0564, 38.2544, -28.6215, -29.9142
2.744, 2, 17.8816, 15.8645, 23.0564, 38.2544, -28.6215, -29.9142
2.748, 2, 17.8816, 15.8645, 23.0564, 38.2544, -28.6215, -29.9142
2.752, 2, 17.8816, 15.8645, 23.0564, 38.2544, -28.6215, -29.9142
2.755, 2, 17.8816, 15.8645, 23.0564, 38.2544, -28.6215, -29.9142
2.76, 2, 17.8816, 15.8645, 23.0564, 38.2544, -28.6215, -29.9142
2.764, 2, 17.8816, 15.8645, 23.0564, 38.2544, -28.6215, -29.9142
2.768, 2, 17.8816, 15.8645, 23.0564, 38.2544, -28.6215, -29.9142
2.772, 2, 17.8816, 15.8645, 23.0564, 38.2544, -28.6215, -29.9142
2.775, 2, 17.8816, 15.8645, 23.0564, 38.2544, -28.6215, -29.9142
2.78, 2, 17.8816, 15.8645, 23.0564, 38.2544, -28.6215, -29.9142
2.784, 2, 17.8816, 15.8645, 23.0564, 38.2544, -28.6215, -29.9142
2.788, 2, 17.8816, 15.8645, 23.0564, 38.2544, -28.6215, -29.9142
2.791, 2, 17.8816, 15.8645, 23.0564, 38.2544, -28.6215, -29.9142
2.796, 2, 17.8816, 15.8645, 23.0564, 38.2544, -28.6215, -29.9142
2.8, 2, 17.8816, 15.8645, 23.0564, 38.2544, -28.6215, -29.9142
2.804, 2, 17.8816, 15.8645, 23.0564, 38.2544, -28.6215, -29.9142
2.808, 2, 17.8816, 15.8645, 23.0564, 38.2544, -28.6215, -29.9142
2.811, 2, 17.8816, 15.8645, 23.0564, 38.2544, -28.6215, -29.9142
2.816, 2, 17.8816, 15.8645, 23.0564, 38.2544, -28.6215, -29.9142
2.82, 2, 17.8816, 15.8645, 23.0564, 38.2544, -28.6215, -29.9142
2.824, 2, 17.8816, 15.8645, 23.0564, 38.2544, -28.6215, -29.9142
2.828, 2, 17.8816, 15.8645, 23.0564, 38.2544, -28.6215, -29.9142
2.831, 2, 17.8816, 15.8645, 23.0564, 38.2544, -28.6215, -29.9142
2.836, 2, 17.8816, 15.8645, 23.0564, 38.2544, -28.6215, -29.9142
2.84, 2, 17.8816, 15.8645, 23.0564, 38.2544, -28.6215, -29.9142
2.844, 2, 17.8816, 15.8645, 23.0564, 38.2544, -28.6215, -29.9142
2.847, 2, 17.8816, 15.8645, 23.0564, 38.2544, -28.6215, -29.9142
2.852, 2, 17.8816, 15.8645, 23.0564, 38.2544, -28.6215, -29.9142
2.856, 2, 17.8816, 15.8645, 23.0564, 38.2544, -28.6215, -29.9142
2.86, 2, 17.8816, 15.8645, 23.0564, 38.2544, -28.6215, -29.9142
2.864, 2, 17.8816, 15.8645, 23.0564, 38.2544, -28.6215, -29.9142
2.867, 2, 17.8816, 15.8645, 23.0564, 38.2544, -28.6215, -29.9142
2.872, 2, 17.8816, 15.8645, 23.0564, 38.2544, -28.6215, -29.9142
2.876, 2, 17.8816, 15.8645, 23.0564, 38.2544, -28.6215, -29.9142
2.88, 2, 17.8816, 15.8645, 23.0564, 38.2544, -28.6215, -29.9142
2.883, 2, 17.8816, 15.8645, 23.0564, 38.2544, -28.6215, -29.9142
2.888, 2, 17.8816, 15.8645, 23.0564, 38.2544, -28.6215, -29.9142
2.892, 2, 17.8816, 15.8645, 23.0564, 38.2544, -28.6215, -29.9142
2.896, 2, 17.8816, 15.8645, 23.0564, 38.2544, -28.6215, -29.9142
2.9, 2, 17.8816, 15.8645, 23.0564, 38.2544, -28.6215, -29.9142
2.903, 2, 17.8816, 15.8645, 23.0564, 38.2544, -28.6215, -29.9142
2.908, 2, 17.8816, 15.8645, 23.0564, 38.2544, -28.6215, -29.9142
2.912, 2, 17.8816, 15.8645, 23.0564, 38.2544, -28.6215, -29.9142
2.916, 2, 17.8816, 15.8645, 23.0564, 38.2544, -28.6215, -29.9142
2.92, 2, 17.8816, 15.8645, 23.0564, 38.2544, -28.6215, -29.9142
2.923, 2, 17.8816, 15.8645, 23.0564, 38.2544, -28.6215, -29.9142
2.928, 2, 17.8816, 15.8645, 23.0564, 38.2544, -28.6215, -29.9142
2.932, 2, 17.8816, 15.8645, 23.0564, 38.2544, -28.6215, -29.9142
2.936, 2, 17.8816, 15.8645, 23.0564, 38.2544, -28.6215, -29.9142
2.939, 2, 17.8816, 15.8645, 23.0564, 38.2544, -28.6215, -29.9142
2.944, 2, 17.8816, 15.8645, 23.0564, 38.2544, -28.6215, -29.9142
2.948, 2, 17.8816, 15.8645, 23.0564, 38.2544, -28.6215, -29.9142
2.952, 2, 17.8816, 15.8645, 23.0564, 38.2544, -28.6215, -29.9142
2.956, 2, 17.8816, 15.8645, 23.0564, 38.2544, -28.6215, -29.9142
2.959, 2, 17.8816, 15.8645, 23.0564, 38.2544, -28.6215, -29.9142
2.964, 2, 17.8816, 15.8645, 23.0564, 38.2544, -28.6215, -29.9142
2.968, 2, 17.8816, 15.8645, 23.0564, 38.2544, -28.6215, -29.9142
2.972, 2, 17.8816, 15.8645, 23.0564, 38.2544, -28.6215, -29.9142
2.976, 2, 17.8816, 15.8645, 23.0564, 38.2544, -28.6215, -29.9142
2.98, 2, 17.8816, 15.8645, 23.0564, 38.2544, -28.6215, -29.9142
2.984, 2, 17.8816, 15.8645, 23.0564, 38.2544, -28.6215, -29.9142
2.988, 2, 17.8816, 15.8645, 23.0564, 38.2544, -28.6215, -29.9142
2.992, 2, 17.8816, 15.8645, 23.0564, 38.2544, -28.6215, -29.9142
2.995, 2, 17.8816, 15.8645, 23.0564, 38.2544, -28.6215, -29.9142
3, 2, 17.8816, 15.8645, 23.0564, 38.2544, -28.6215, -29.9142
3.004, 2, 17.8816, 15.8645, 23.0564, 38.2544, -28.6215, -29.9142
3.008, 2, 17.8816, 15.8645, 23.0564, 38.2544, -28.6215, -29.9142
3.012, 2, 17.8816, 15.8645, 23.0564, 38.2544, -28.6215, -29.9142
3.015, 2, 17.8816, 15.8645, 23.0564, 38.2544, -28.6215, -29.9142
3.02, 2, 17.8816, 15.8645, 23.0564, 38.2544, -28.6215, -29.9142
3.024, 2, 17.8816, 15.8645, 23.0564, 38.2544, -28.6215, -29.9142
3.028, 2, 17.8816, 15.8645, 23.0564, 38.2544, -28.6215, -29.9142
3.031, 2, 17.8816, 15.8645, 23.0564, 38.2544, -28.6215, -29.9142
3.036, 2, 17.8816, 15.8645, 23.0564, 38.2544, -28.6215, -29.9142
3.04, 2, 17.8816, 15.8645, 23.0564, 38.2544, -28.6215, -29.9142
3.044, 2, 17.8816, 15.8645, 23.0564, 38.2544, -28.6215, -29.9142
3.048, 2, 17.8816, 15.8645, 23.0564, 38.2544, -28.6215, -29.9142
3.051, 2, 17.8816, 15.8645, 23.0564, 38.2544, -28.6215, -29.9142
3.056, 2, 17.8816, 15.8645, 23.0564, 38.2544, -28.6215, -29.9142
3.06, 2, 17.8816, 15.8645, 23.0564, 38.2544, -28.6215, -29.9142
3.064, 2, 17.8816, 15.8645, 23.0564, 38.2544, -28.6215, -29.9142
3.068, 2, 17.8816, 15.8645, 23.0564, 38.2544, -28.6215, -29.9142
3.071, 2, 17.8816, 15.8645, 23.0564, 38.2544, -28.6215, -29.9142
3.076, 2, 17.8816, 15.8645, 23.0564, 38.2544, -28.6215, -29.9142
3.08, 2, 17.8816, 15.8645, 23.0564, 38.2544, -28.6215, -29.9142
3.084, 2, 17.8816, 15.8645, 23.0564, 38.2544, -28.6215, -29.9142
3.087, 2, 17.8816, 15.8645, 23.0564, 38.2544, -28.6215, -29.9142
3.092, 2, 17.8816, 15.8645, 23.0564, 38.2544, -28.6215, -29.9142
3.096, 2, 17.8816, 15.8645, 23.0564, 38.2544, -28.6215, -29.9142
3.1, 2, 17.8816, 15.8645, 23.0564, 38.2544, -28.6215, -29.9142
3.104, 2, 17.8816, 15.8645, 23.0564, 38.2544, -28.6215, -29.9142
3.107, 2, 17.8816, 15.8645, 23.0564, 38.2544, -28.6215, -29.9142
3.112, 2, 17.8816, 15.8645, 23.0564, 38.2544, -28.6215, -29.9142
3.116, 2, 17.8816, 15.8645, 23.0564, 38.2544, -28.6215, -29.9142
3.12, 2, 17.8816, 15.8645, 23.0564, 38.2544, -28.6215, -29.9142
3.124, 2, 17.8816, 15.8645, 23.0564, 38.2544, -28.6215, -29.9142
3.128, 2, 17.8816, 15.8645, 23.0564, 38.2544, -28.6215, -29.9142
3.132, 2, 17.8816, 15.8645, 23.0564, 38.2544, -28.6215, -29.9142
3.136, 2, 17.8816, 15.8645, 23.0564, 38.2544, -28.6215, -29.9142
3.14, 2, 17.8816, 15.8645, 23.0564, 38.2544, -28.6215, -29.9142
3.143, 2, 17.8816, 15.8645, 23.0564, 38.2544, -28.6215, -29.9142
3.148, 2, 17.8816, 15.8645, 23.0564, 38.2544, -28.6215, -29.9142
3.152, 2, 17.8816, 15.8645, 23.0564, 38.2544, -28.6215, -29.9142
3.156, 2, 17.8816, 15.8645, 23.0564, 38.2544, -28.6215, -29.9142
3.16, 2, 17.8816, 15.8645, 23.0564, 38.2544, -28.6215, -29.9142
3.163, 2, 17.8816, 15.8645, 23.0564, 38.2544, -28.6215, -29.9142
3.168, 2, 17.8816, 15.8645, 23.0564, 38.2544, -28.6215, -29.9142
3.172, 2, 17.8816, 15.8645, 23.0564, 38.2544, -28.6215, -29.9142
3.176, 2, 17.8816, 15.8645, 23.0564, 38.2544, -28.6215, -29.9142
3.179, 2, 17.8816, 15.8645, 23.0564, 38.2544, -28.6215, -29.9142
3.184, 2, 17.8816, 15.8645, 23.0564, 38.2544, -28.6215, -29.9142
3.188, 2, 17.8816, 15.8645, 23.0564, 38.2544, -28.6215, -29.9142
3.192, 2, 17.8816, 15.8645, 23.0564, 38.2544, -28.6215, -29.9142
3.196, 2, 17.8816, 15.8645, 23.0564, 38.2544, -28.6215, -29.9142
3.199, 2, 17.8816, 15.8645, 23.0564, 38.2544, -28.6215, -29.9142
3.204, 2, 17.8816, 15.8645, 23.0564, 38.2544, -28.6215, -29.9142
3.208, 2, 17.8816, 15.8645, 23.0564, 38.2544, -28.6215, -29.9142
3.212, 2, 17.8816, 15.8645, 23.0564, 38.2544, -28.6215, -29.9142
3.216, 2, 17.8816, 15.8645, 23.0564, 38.2544, -28.6215, -29.9142
3.22, 2, 17.8816, 15.8645, 23.0564, 38.2544, -28.6215, -29.9142
3.224, 2, 17.8816, 15.8645, 23.0564, 38.2544, -28.6215, -29.9142
3.228, 2, 17.8816, 15.8645, 23.0564, 38.2544, -28.6215, -29.9142
3.232, 2, 17.8816, 15.8645, 23.0564, 38.2544, -28.6215, -29.9142
3.235, 2, 17.8816, 15.8645, 23.0564, 38.2544, -28.6215, -29.9142
3.24, 2, 17.8816, 15.8645, 23.0564, 38.2544, -28.6215, -29.9142
3.244, 2, 17.8816, 15.8645, 23.0564, 38.2544, -28.6215, -29.9142
3.248, 4, 17.8816, 15.8645, 23.0564, 38.2544, -28.6215, -29.9142
3.252, 4, 17.8816, 15.8645, 23.0564, 38.2544, -28.6215, -29.9142
3.255, 4, 17.8816, 15.8645, 23.0564, 38.2544, -28.6215, -29.9142
3.26, 4, 17.8816, 15.8645, 23.0564, 38.2544, -28.6215, -29.9142
3.264, 4, 17.8816, 15.8645, 23.0564, 38.2544, -28.6215, -29.9142
3.268, 4, 17.8816, 15.8645, 23.0564, 38.2544, -28.6215, -29.9142
3.272, 4, 17.8816, 15.8645, 23.0564, 38.2544, -28.6215, -29.9142
3.276, 4, 17.8816, 15.8645, 23.0564, 38.2544, -28.6215, -29.9142
3.28, 4, 17.8816, 15.8645, 23.0564, 38.2544, -28.6215, -29.9142
3.284, 4, 17.8816, 15.8645, 23.0564, 38.2544, -28.6215, -29.9142
3.288, 4, 17.8816, 15.8645, 23.0564, 38.2544, -28.6215, -29.9142
3.291, 4, 17.8816, 15.8645, 23.0564, 38.2544, -28.6215, -29.9142
3.296, 4, 17.8816, 15.8645, 23.0564, 38.2544, -28.6215, -29.9142
3.3, 4, 17.8816, 15.8645, 23.0564, 38.2544, -28.6215, -29.9142
3.304, 4, 17.8816, 15.8645, 23.0564, 38.2544, -28.6215, -29.9142
3.308, 4, 17.8816, 15.8645, 23.0564, 38.2544, -28.6215, -29.9142
3.312, 4, 17.8816, 15.8645, 23.0564, 38.2544, -28.6215, -29.9142
3.316, 4, 17.8816, 15.8645, 23.0564, 38.2544, -28.6215, -29.9142
3.32, 4, 17.8816, 15.8645, 23.0564, 38.2544, -28.6215, -29.9142
3.324, 4, 17.8816, 15.8645, 23.0564, 38.2544, -28.6215, -29.9142
3.328, 4, 17.8816, 15.8645, 23.0564, 38.2544, -28.6215, -29.9142
3.332, 4, 17.8816, 15.8645, 23.0564, 38.2544, -28.6215, -29.9142
3.336, 4, 17.8816, 15.8645, 23.0564, 38.2544, -28.6215, -29.9142
3.34, 4, 17.8816, 15.8645, 23.0564, 38.2544, -28.6215, -29.9142
3.344, 4, 17.8816, 15.8645, 23.0564, 38.2544, -28.6215, -29.9142
3.347, 4, 17.8816, 15.8645, 23.0564, 38.2544, -28.6215, -29.9142
3.354, 4, 17.8816, 15.8645, 23.0564, 38.2544, -28.6215, -29.9142
3.356, 4, 17.8816, 15.8645, 23.0564, 38.2544, -28.6215, -29.9142
3.36, 4, 17.8816, 15.8645, 23.0564, 38.2544, -28.6215, -29.9142
3.364, 4, 17.8816, 15.8645, 23.0564, 38.2544, -28.6215, -29.9142
3.368, 4, 17.8816, 15.8645, 23.0564, 38.2544, -28.6215, -29.9142
3.372, 4, 17.8816, 15.8645, 23.0564, 38.2544, -28.6215, -29.9142
3.376, 4, 17.8816, 15.8645, 23.0564, 38.2544, -28.6215, -29.9142
3.38, 4, 17.8815, 15.8645, 23.0564, 38.2544, -28.6215, -29.9142
3.383, 4, 17.8812, 15.8645, 23.0564, 38.2543, -28.6215, -29.9142
3.388, 4, 17.8806, 15.8645, 23.0565, 38.2542, -28.6216, -29.9141
3.392, 4, 17.8793, 15.8645, 23.0566, 38.2539, -28.6217, -29.9139
3.396, 4, 17.8773, 15.8644, 23.0569, 38.2532, -28.6219, -29.9133
3.4, 4, 17.8745, 15.8643, 23.0576, 38.2517, -28.6225, -29.912
3.403, 4, 17.8707, 15.864, 23.0586, 38.2489, -28.6235, -29.9095
3.408, 4, 17.8659, 15.8636, 23.0603, 38.2441, -28.6252, -29.9053
3.412, 4, 17.8601, 15.863, 23.0629, 38.2365, -28.628, -29.8986
3.416, 4, 17.8533, 15.8621, 23.0667, 38.225, -28.6321, -29.8884
3.42, 5, 17.8454, 15.8608, 23.072, 38.2087, -28.6379, -29.874
3.424, 5, 17.8363, 15.8592, 23.0792, 38.1865, -28.646, -29.8543
3.428, 5, 17.8257, 15.857, 23.0884, 38.1572, -28.6565, -29.8284
3.432, 5, 17.8136, 15.8542, 23.1001, 38.1198, -28.67, -29.7953
3.436, 5, 17.8, 15.8508, 23.1146, 38.0733, -28.6867, -29.7542
3.439, 5, 17.7848, 15.8467, 23.132, 38.017, -28.7071, -29.7043
3.444, 5, 17.7681, 15.8419, 23.1525, 37.9502, -28.7313, -29.6452
3.448, 5, 17.75, 15.8363, 23.1763, 37.8727, -28.7595, -29.5765
3.452, 5, 17.7303, 15.83, 23.2033, 37.7844, -28.7917, -29.4983
3.456, 5, 17.7091, 15.823, 23.2335, 37.6856, -28.8279, -29.4108
3.46, 5, 17.6863, 15.8152, 23.2666, 37.5769, -28.8678, -29.3145
3.464, 5, 17.6618, 15.8069, 23.3026, 37.459, -28.9113, -29.2101
3.468, 5, 17.6357, 15.7979, 23.3411, 37.3328, -28.9579, -29.0985
3.472, 5, 17.6082, 15.7885, 23.3818, 37.1995, -29.0075, -28.9806
3.476, 5, 17.5792, 15.7787, 23.4245, 37.0601, -29.0595, -28.8573
3.48, 5, 17.549, 15.7685, 23.4688, 36.9157, -29.1138, -28.7296
3.484, 5, 17.5176, 15.7581, 23.5144, 36.7672, -29.1698, -28.5984
3.488, 5, 17.4852, 15.7475, 23.561, 36.6156, -29.2273, -28.4645
3.492, 5, 17.4516, 15.7367, 23.6085, 36.4618, -29.286, -28.3287
3.495, 5, 17.4171, 15.7259, 23.6565, 36.3065, -29.3455, -28.1917
3.5, 5, 17.3816, 15.7151, 23.7049, 36.1503, -29.4059, -28.0539
3.504, 5, 17.3453, 15.7042, 23.7536, 35.9936, -29.4667, -27.9158
3.508, 5, 17.3083, 15.6934, 23.8024, 35.8367, -29.528, -27.7776
3.512, 5, 17.2708, 15.6827, 23.8513, 35.6799, -29.5897, -27.6396
3.516, 5, 17.233, 15.672, 23.9002, 35.5233, -29.6516, -27.5018
3.52, 5, 17.195, 15.6614, 23.949, 35.3671, -29.7138, -27.3644
3.524, 5, 17.1567, 15.6509, 23.9979, 35.2113, -29.7763, -27.2274
3.528, 5, 17.1183, 15.6405, 24.0466, 35.0559, -29.839, -27.0909
3.531, 5, 17.0799, 15.6301, 24.0953, 34.901, -29.9018, -26.9549
3.536, 5, 17.0413, 15.6199, 24.1439, 34.7466, -29.9649, -26.8194
3.54, 5, 17.0027, 15.6097, 24.1925, 34.5927, -30.0281, -26.6844
3.544, 5, 16.964, 15.5997, 24.2409, 34.4393, -30.0915, -26.5499
3.548, 5, 16.9253, 15.5897, 24.2893, 34.2865, -30.1551, -26.416
3.552, 5, 16.8866, 15.5798, 24.3375, 34.1342, -30.2189, -26.2826
3.556, 5, 16.8478, 15.5701, 24.3857, 33.9824, -30.2829, -26.1498
3.56, 5, 16.8089, 15.5604, 24.4337, 33.8311, -30.347, -26.0175
3.564, 5, 16.77, 15.5508, 24.4817, 33.6804, -30.4113, -25.8857
3.568, 5, 16.7311, 15.5413, 24.5295, 33.5302, -30.4758, -25.7545
3.572, 5, 16.6922, 15.5319, 24.5773, 33.3806, -30.5404, -25.6238
3.576, 5, 16.6532, 15.5227, 24.6249, 33.2314, -30.6052, -25.4936
3.58, 5, 16.6142, 15.5135, 24.6725, 33.0828, -30.6702, -25.364
3.584, 5, 16.5751, 15.5044, 24.72, 32.9347, -30.7353, -25.2349
3.587, 5, 16.5361, 15.4954, 24.7673, 32.7872, -30.8006, -25.1063
3.592, 5, 16.497, 15.4865, 24.8146, 32.6401, -30.8661, -24.9783
3.596, 5, 16.4578, 15.4777, 24.8617, 32.4936, -30.9317, -24.8508
3.6, 5, 16.4186, 15.4689, 24.9088, 32.3476, -30.9975, -24.7238
3.604, 5, 16.3794, 15.4603, 24.9558, 32.2021, -31.0634, -24.5973
3.608, 5, 16.3402, 15.4518, 25.0026, 32.0571, -31.1295, -24.4713
3.612, 5, 16.3009, 15.4434, 25.0494, 31.9126, -31.1958, -24.3459
3.616, 5, 16.2616, 15.4351, 25.096, 31.7687, -31.2622, -24.221
3.62, 5, 16.2222, 15.4269, 25.1426, 31.6252, -31.3288, -24.0966
3.624, 5, 16.1829, 15.4188, 25.1891, 31.4822, -31.3956, -23.9727
3.628, 5, 16.1435, 15.4107, 25.2354, 31.3398, -31.4624, -23.8493
3.632, 5, 16.104, 15.4028, 25.2817, 31.1978, -31.5295, -23.7264
3.636, 5, 16.0646, 15.395, 25.3278, 31.0564, -31.5967, -23.604
3.64, 5, 16.025, 15.3873, 25.3739, 30.9154, -31.6641, -23.4821
3.644, 5, 15.9855, 15.3796, 25.4199, 30.775, -31.7316, -23.3608
3.648, 5, 15.9459, 15.3721, 25.4657, 30.635, -31.7992, -23.2399
3.652, 5, 15.9063, 15.3647, 25.5115, 30.4955, -31.867, -23.1195
3.656, 5, 15.8667, 15.3573, 25.5571, 30.3565, -31.935, -22.9996
3.66, 5, 15.827, 15.3501, 25.6027, 30.218, -32.0031, -22.8802
3.664, 5, 15.7873, 15.343, 25.6481, 30.08, -32.0713, -22.7613
3.668, 5, 15.7476, 15.3359, 25.6935, 29.9425, -32.1397, -22.6429
3.672, 5, 15.7078, 15.329, 25.7388, 29.8054, -32.2083, -22.525
3.676, 5, 15.668, 15.3221, 25.7839, 29.6688, -32.277, -22.4076
3.679, 5, 15.6282, 15.3154, 25.829, 29.5327, -32.3458, -22.2906
3.684, 5, 15.5884, 15.3087, 25.8739, 29.3971, -32.4148, -22.1742
3.688, 5, 15.5485, 15.3022, 25.9188, 29.2619, -32.4839, -22.0582
3.692, 5, 15.5085, 15.2957, 25.9636, 29.1273, -32.5532, -21.9427
3.696, 6, 15.4686, 15.2894, 26.0082, 28.9931, -32.6226, -21.8276
3.7, 6, 15.4286, 15.2831, 26.0528, 28.8593, -32.6921, -21.7131
3.704, 6, 15.3886, 15.2769, 26.0972, 28.726, -32.7618, -21.599
3.708, 6, 15.3485, 15.2709, 26.1416, 28.5932, -32.8316, -21.4854
3.712, 6, 15.3085, 15.2649, 26.1858, 28.4609, -32.9016, -21.3722
3.716, 6, 15.2683, 15.259, 26.23, 28.329, -32.9717, -21.2596
3.72, 6, 15.2282, 15.2533, 26.2741, 28.1975, -33.0419, -21.1473
3.724, 6, 15.188, 15.2476, 26.318, 28.0666, -33.1123, -21.0356
3.728, 6, 15.1478, 15.242, 26.3619, 27.936, -33.1828, -20.9243
3.732, 6, 15.1076, 15.2365, 26.4056, 27.806, -33.2535, -20.8135
3.735, 6, 15.0673, 15.2312, 26.4493, 27.6764, -33.3242, -20.7031
3.74, 6, 15.027, 15.2259, 26.4929, 27.5472, -33.3951, -20.5932
3.744, 6, 14.9867, 15.2207, 26.5363, 27.4185, -33.4662, -20.4837
3.748, 6, 14.9463, 15.2156, 26.5797, 27.2902, -33.5374, -20.3747
3.752, 6, 14.9059, 15.2106, 26.623, 27.1624, -33.6087, -20.2662
3.756, 6, 14.8655, 15.2057, 26.6661, 27.035, -33.6801, -20.1581
3.76, 6, 14.825, 15.2009, 26.7092, 26.908, -33.7517, -20.0504
3.764, 6, 14.7845, 15.1962, 26.7521, 26.7815, -33.8234, -19.9432
3.768, 6, 14.744, 15.1916, 26.795, 26.6554, -33.8952, -19.8364
3.772, 6, 14.7035, 15.1872, 26.8378, 26.5298, -33.9672, -19.7301
3.776, 6, 14.6629, 15.1828, 26.8804, 26.4046, -34.0392, -19.6242
3.78, 6, 14.6223, 15.1785, 26.923, 26.2798, -34.1114, -19.5187
3.784, 6, 14.5816, 15.1743, 26.9654, 26.1554, -34.1838, -19.4137
3.788, 6, 14.541, 15.1702, 27.0078, 26.0315, -34.2562, -19.3091
3.792, 6, 14.5003, 15.1662, 27.0501, 25.908, -34.3288, -19.2049
3.796, 6, 14.4595, 15.1623, 27.0922, 25.7849, -34.4015, -19.1012
3.8, 6, 14.4188, 15.1585, 27.1343, 25.6622, -34.4743, -18.9979
3.804, 6, 14.378, 15.1548, 27.1762, 25.54, -34.5473, -18.895
3.808, 6, 14.3372, 15.1512, 27.2181, 25.4181, -34.6203, -18.7925
3.812, 6, 14.2963, 15.1476, 27.2598, 25.2967, -34.6935, -18.6905
3.816, 6, 14.2554, 15.1442, 27.3014, 25.1757, -34.7668, -18.5888
3.82, 6, 14.2145, 15.1409, 27.343, 25.0551, -34.8402, -18.4876
3.824, 6, 14.1736, 15.1377, 27.3844, 24.9349, -34.9138, -18.3868
3.828, 6, 14.1326, 15.1346, 27.4258, 24.8151, -34.9874, -18.2865
3.832, 6, 14.0916, 15.1316, 27.467, 24.6957, -35.0612, -18.1865
3.836, 6, 14.0506, 15.1287, 27.5081, 24.5767, -35.1351, -18.0869
3.84, 6, 14.0095, 15.1259, 27.5491, 24.4581, -35.2091, -17.9878
3.844, 6, 13.9684, 15.1232, 27.5901, 24.34, -35.2832, -17.889
3.848, 6, 13.9273, 15.1206, 27.6309, 24.2222, -35.3575, -17.7906
3.852, 6, 13.8861, 15.1181, 27.6716, 24.1048, -35.4318, -17.6927
3.856, 6, 13.845, 15.1157, 27.7122, 23.9878, -35.5063, -17.5951
3.86, 6, 13.8037, 15.1134, 27.7527, 23.8711, -35.5809, -17.498
3.864, 6, 13.7625, 15.1112, 27.7932, 23.7549, -35.6555, -17.4012
3.868, 6, 13.7212, 15.1091, 27.8335, 23.6391, -35.7303, -17.3049
3.872, 6, 13.6799, 15.1071, 27.8737, 23.5236, -35.8052, -17.2089
3.876, 6, 13.6386, 15.1052, 27.9138, 23.4085, -35.8803, -17.1133
3.88, 6, 13.5972, 15.1034, 27.9538, 23.2938, -35.9554, -17.0181
3.884, 6, 13.5559, 15.1017, 27.9937, 23.1795, -36.0306, -16.9233
3.888, 6, 13.5144, 15.1001, 28.0334, 23.0656, -36.106, -16.8289
3.892, 6, 13.473, 15.0986, 28.0731, 22.952, -36.1814, -16.7349
3.896, 6, 13.4315, 15.0972, 28.1127, 22.8389, -36.257, -16.6412
3.9, 6, 13.39, 15.0959, 28.1522, 22.726, -36.3326, -16.5479
3.904, 6, 13.3485, 15.0947, 28.1916, 22.6136, -36.4084, -16.455
3.908, 6, 13.3069, 15.0936, 28.2309, 22.5015, -36.4843, -16.3625
3.912, 6, 13.2654, 15.0927, 28.27, 22.3898, -36.5602, -16.2704
3.916, 6, 13.2237, 15.0918, 28.3091, 22.2785, -36.6363, -16.1786
3.92, 6, 13.1821, 15.091, 28.3481, 22.1675, -36.7125, -16.0872
3.924, 6, 13.1404, 15.0903, 28.3869, 22.0569, -36.7888, -15.9962
3.928, 6, 13.0987, 15.0897, 28.4257, 21.9467, -36.8652, -15.9055
3.932, 6, 13.057, 15.0892, 28.4643, 21.8368, -36.9417, -15.8152
3.936, 6, 13.0152, 15.0888, 28.5029, 21.7273, -37.0182, -15.7253
3.94, 6, 12.9734, 15.0885, 28.5413, 21.6181, -37.0949, -15.6357
3.944, 6, 12.9316, 15.0883, 28.5797, 21.5093, -37.1717, -15.5465
3.948, 6, 12.8898, 15.0882, 28.6179, 21.4008, -37.2486, -15.4577
3.952, 6, 12.8479, 15.0883, 28.656, 21.2927, -37.3256, -15.3692
3.956, 6, 12.806, 15.0884, 28.6941, 21.185, -37.4027, -15.2811
3.96, 6, 12.7641, 15.0886, 28.732, 21.0776, -37.4799, -15.1933
3.964, 6, 12.7221, 15.0889, 28.7698, 20.9705, -37.5572, -15.1059
3.968, 6, 12.6802, 15.0893, 28.8075, 20.8638, -37.6345, -15.0189
3.972, 6, 12.6382, 15.0898, 28.8452, 20.7575, -37.712, -14.9322
3.976, 7, 12.5961, 15.0904, 28.8827, 20.6514, -37.7896, -14.8458
3.98, 7, 12.5541, 15.0912, 28.9201, 20.5458, -37.8672, -14.7598
3.984, 7, 12.512, 15.092, 28.9574, 20.4404, -37.945, -14.6742
3.988, 7, 12.4698, 15.0929, 28.9946, 20.3354, -38.0229, -14.5889
3.992, 7, 12.4277, 15.0939, 29.0317, 20.2308, -38.1008, -14.5039
3.996, 7, 12.3855, 15.095, 29.0687, 20.1264, -38.1789, -14.4193
3.999, 7, 12.3433, 15.0962, 29.1056, 20.0225, -38.257, -14.335
4.004, 7, 12.3011, 15.0976, 29.1424, 19.9188, -38.3352, -14.2511
4.008, 7, 12.2588, 15.099, 29.1791, 19.8155, -38.4136, -14.1675
4.012, 7, 12.2165, 15.1005, 29.2157, 19.7125, -38.492, -14.0843
4.016, 7, 12.1742, 15.1021, 29.2521, 19.6098, -38.5705, -14.0013
4.02, 7, 12.1319, 15.1039, 29.2885, 19.5075, -38.6491, -13.9188
4.024, 7, 12.0895, 15.1057, 29.3248, 19.4055, -38.7278, -13.8365
4.028, 7, 12.0471, 15.1076, 29.361, 19.3038, -38.8065, -13.7546
4.032, 7, 12.0047, 15.1096, 29.397, 19.2024, -38.8854, -13.673
4.036, 7, 11.9623, 15.1117, 29.433, 19.1014, -38.9643, -13.5917
4.04, 7, 11.9198, 15.114, 29.4688, 19.0007, -39.0434, -13.5108
4.044, 7, 11.8773, 15.1163, 29.5046, 18.9003, -39.1225, -13.4302
4.048, 7, 11.8348, 15.1187, 29.5402, 18.8002, -39.2017, -13.3499
4.052, 7, 11.7922, 15.1213, 29.5758, 18.7004, -39.281, -13.2699
4.056, 7, 11.7497, 15.1239, 29.6112, 18.6009, -39.3604, -13.1903
4.06, 7, 11.7071, 15.1266, 29.6465, 18.5018, -39.4399, -13.1109
4.064, 7, 11.6644, 15.1295, 29.6817, 18.4029, -39.5194, -13.0319
4.068, 7, 11.6218, 15.1324, 29.7169, 18.3044, -39.5991, -12.9532
4.072, 7, 11.5791, 15.1354, 29.7519, 18.2062, -39.6788, -12.8748
4.076, 7, 11.5364, 15.1386, 29.7868, 18.1082, -39.7586, -12.7968
4.08, 7, 11.4937, 15.1418, 29.8216, 18.0106, -39.8385, -12.719
4.084, 7, 11.4509, 15.1452, 29.8563, 17.9133, -39.9184, -12.6415
4.088, 7, 11.4081, 15.1486, 29.8909, 17.8163, -39.9985, -12.5644
4.092, 7, 11.3653, 15.1521, 29.9253, 17.7195, -40.0786, -12.4875
4.096, 7, 11.3225, 15.1558, 29.9597, 17.6231, -40.1588, -12.411
4.1, 7, 11.2796, 15.1595, 29.994, 17.527, -40.2391, -12.3347
4.104, 7, 11.2367, 15.1634, 30.0282, 17.4311, -40.3195, -12.2588
4.108, 7, 11.1938, 15.1673, 30.0622, 17.3356, -40.3999, -12.1832
4.112, 7, 11.1509, 15.1714, 30.0962, 17.2403, -40.4804, -12.1078
4.116, 7, 11.1079, 15.1755, 30.13, 17.1453, -40.561, -12.0328
4.12, 7, 11.065, 15.1798, 30.1638, 17.0507, -40.6417, -11.958
4.124, 7, 11.0219, 15.1842, 30.1974, 16.9563, -40.7225, -11.8836
4.128, 7, 10.9789, 15.1886, 30.2309, 16.8622, -40.8033, -11.8094
4.132, 7, 10.9359, 15.1932, 30.2643, 16.7683, -40.8842, -11.7355
4.136, 7, 10.8928, 15.1978, 30.2977, 16.6748, -40.9652, -11.6619
4.14, 7, 10.8497, 15.2026, 30.3309, 16.5815, -41.0462, -11.5886
4.144, 7, 10.8065, 15.2074, 30.364, 16.4885, -41.1274, -11.5156
4.148, 7, 10.7634, 15.2124, 30.397, 16.3958, -41.2086, -11.4429
4.152, 7, 10.7202, 15.2175, 30.4298, 16.3034, -41.2899, -11.3705
4.156, 7, 10.677, 15.2226, 30.4626, 16.2112, -41.3712, -11.2983
4.16, 7, 10.6338, 15.2279, 30.4953, 16.1194, -41.4526, -11.2264
4.164, 7, 10.5905, 15.2333, 30.5279, 16.0278, -41.5341, -11.1548
4.168, 7, 10.5473, 15.2388, 30.5603, 15.9364, -41.6157, -11.0835
4.172, 7, 10.504, 15.2443, 30.5927, 15.8454, -41.6973, -11.0125
4.176, 7, 10.4606, 15.25, 30.6249, 15.7546, -41.779, -10.9417
4.18, 7, 10.4173, 15.2558, 30.6571, 15.664, -41.8608, -10.8713
4.184, 7, 10.3739, 15.2617, 30.6891, 15.5738, -41.9427, -10.801
4.188, 7, 10.3305, 15.2676, 30.721, 15.4838, -42.0246, -10.7311
4.192, 7, 10.2871, 15.2737, 30.7529, 15.3941, -42.1066, -10.6614
4.196, 7, 10.2437, 15.2799, 30.7846, 15.3046, -42.1886, -10.592
4.2, 7, 10.2002, 15.2862, 30.8162, 15.2154, -42.2707, -10.5229
4.204, 7, 10.1568, 15.2926, 30.8477, 15.1265, -42.3529, -10.4541
4.208, 7, 10.1132, 15.299, 30.8791, 15.0378, -42.4352, -10.3855
4.212, 7, 10.0697, 15.3056, 30.9103, 14.9494, -42.5175, -10.3172
4.216, 7, 10.0262, 15.3123, 30.9415, 14.8612, -42.5999, -10.2491
4.22, 7, 9.98259, 15.3191, 30.9726, 14.7733, -42.6824, -10.1813
4.224, 7, 9.93899, 15.326, 31.0035, 14.6857, -42.7649, -10.1138
4.228, 7, 9.89537, 15.333, 31.0344, 14.5983, -42.8475, -10.0465
4.232, 7, 9.85172, 15.3401, 31.0651, 14.5111, -42.9301, -9.97952
4.236, 7, 9.80806, 15.3473, 31.0958, 14.4242, -43.0129, -9.91277
4.24, 7, 9.76437, 15.3546, 31.1263, 14.3376, -43.0956, -9.84629
4.244, 7, 9.72066, 15.362, 31.1567, 14.2512, -43.1785, -9.78006
4.25, 7, 9.63317, 15.3771, 31.2172, 14.0792, -43.3444, -9.64837
4.252, 8, 9.63317, 15.3771, 31.2172, 14.0792, -43.3444, -9.64837
4.256, 8, 9.58939, 15.3848, 31.2473, 13.9936, -43.4274, -9.58291
4.26, 8, 9.5456, 15.3926, 31.2773, 13.9082, -43.5105, -9.51771
4.264, 8, 9.50177, 15.4005, 31.3072, 13.823, -43.5937, -9.45275
4.268, 8, 9.45793, 15.4085, 31.337, 13.7381, -43.6769, -9.38805
4.272, 8, 9.41406, 15.4166, 31.3666, 13.6535, -43.7602, -9.3236
4.276, 8, 9.37018, 15.4248, 31.3962, 13.569, -43.8436, -9.2594
4.28, 8, 9.32627, 15.4331, 31.4256, 13.4849, -43.927, -9.19545
4.284, 8, 9.28234, 15.4416, 31.4549, 13.4009, -44.0105, -9.13174
4.288, 8, 9.23839, 15.4501, 31.4842, 13.3172, -44.094, -9.06828
4.292, 8, 9.19441, 15.4587, 31.5133, 13.2338, -44.1776, -9.00507
4.296, 8, 9.15042, 15.4674, 31.5423, 13.1506, -44.2612, -8.9421
4.3, 8, 9.1064, 15.4762, 31.5712, 13.0676, -44.345, -8.87937
4.304, 8, 9.06237, 15.4852, 31.6, 12.9848, -44.4287, -8.81688
4.308, 8, 9.01831, 15.4942, 31.6287, 12.9023, -44.5126, -8.75463
4.312, 8, 8.97423, 15.5033, 31.6573, 12.82, -44.5964, -8.69263
4.316, 8, 8.93013, 15.5125, 31.6857, 12.738, -44.6804, -8.63086
4.32, 8, 8.88601, 15.5219, 31.7141, 12.6561, -44.7644, -8.56932
4.324, 8, 8.84187, 15.5313, 31.7423, 12.5745, -44.8484, -8.50803
4.328, 8, 8.79771, 15.5408, 31.7705, 12.4931, -44.9325, -8.44696
4.332, 8, 8.75353, 15.5504, 31.7985, 12.412, -45.0167, -8.38613
4.336, 8, 8.70933, 15.5602, 31.8264, 12.3311, -45.1009, -8.32553
4.34, 8, 8.66511, 15.57, 31.8542, 12.2504, -45.1852, -8.26516
4.344, 8, 8.62087, 15.58, 31.8819, 12.1699, -45.2695, -8.20503
4.348, 8, 8.5766, 15.59, 31.9095, 12.0896, -45.3539, -8.14511
4.352, 8, 8.53232, 15.6001, 31.937, 12.0096, -45.4384, -8.08543
4.356, 8, 8.48802, 15.6104, 31.9643, 11.9298, -45.5229, -8.02598
4.36, 8, 8.4437, 15.6207, 31.9916, 11.8502, -45.6074, -7.96675
4.364, 8, 8.39936, 15.6311, 32.0188, 11.7708, -45.692, -7.90774
4.368, 8, 8.355, 15.6417, 32.0458, 11.6917, -45.7766, -7.84896
4.372, 8, 8.31062, 15.6523, 32.0727, 11.6127, -45.8613, -7.79039
4.376, 8, 8.26622, 15.6631, 32.0995, 11.534, -45.9461, -7.73205
4.38, 8, 8.22181, 15.6739, 32.1263, 11.4554, -46.0309, -7.67393
4.384, 8, 8.17737, 15.6849, 32.1529, 11.3771, -46.1157, -7.61603
4.388, 8, 8.13292, 15.6959, 32.1793, 11.299, -46.2006, -7.55835
4.392, 8, 8.08844, 15.707, 32.2057, 11.2211, -46.2856, -7.50088
4.396, 8, 8.04395, 15.7183, 32.232, 11.1435, -46.3706, -7.44363
4.4, 8, 7.99944, 15.7296, 32.2582, 11.066, -46.4556, -7.38659
4.404, 8, 7.95491, 15.7411, 32.2842, 10.9887, -46.5407, -7.32977
4.408, 8, 7.91037, 15.7526, 32.3101, 10.9117, -46.6258, -7.27316
4.412, 8, 7.8658, 15.7643, 32.336, 10.8348, -46.711, -7.21676
4.416, 8, 7.82122, 15.776, 32.3617, 10.7581, -46.7962, -7.16058
4.42, 8, 7.77662, 15.7879, 32.3873, 10.6817, -46.8815, -7.1046
4.424, 8, 7.732, 15.7998, 32.4128, 10.6054, -46.9668, -7.04883
4.428, 8, 7.68736, 15.8119, 32.4382, 10.5294, -47.0522, -6.99328
4.432, 8, 7.6427, 15.824, 32.4635, 10.4536, -47.1376, -6.93792
4.436, 8, 7.59803, 15.8362, 32.4886, 10.3779, -47.2231, -6.88278
4.44, 8, 7.55334, 15.8486, 32.5137, 10.3025, -47.3086, -6.82784
4.444, 8, 7.50864, 15.861, 32.5386, 10.2272, -47.3941, -6.77311
4.448, 8, 7.46391, 15.8736, 32.5634, 10.1522, -47.4797, -6.71858
4.452, 8, 7.41917, 15.8862, 32.5882, 10.0773, -47.5654, -6.66425
4.456, 8, 7.37441, 15.899, 32.6128, 10.0026, -47.651, -6.61012
4.46, 8, 7.32963, 15.9118, 32.6373, 9.92817, -47.7368, -6.5562
4.464, 8, 7.28484, 15.9248, 32.6617, 9.8539, -47.8225, -6.50247
4.468, 8, 7.24003, 15.9378, 32.6859, 9.77982, -47.9083, -6.44895
4.472, 8, 7.1952, 15.951, 32.7101, 9.70593, -47.9942, -6.39562
4.476, 8, 7.15036, 15.9642, 32.7341, 9.63223, -48.0801, -6.3425
4.48, 8, 7.1055, 15.9776, 32.7581, 9.55872, -48.166, -6.28957
4.484, 8, 7.06062, 15.991, 32.7819, 9.4854, -48.252, -6.23683
4.488, 8, 7.01573, 16.0045, 32.8056, 9.41227, -48.338, -6.18429
4.492, 8, 6.97082, 16.0182, 32.8292, 9.33933, -48.424, -6.13195
4.496, 8, 6.9259, 16.0319, 32.8527, 9.26658, -48.5101, -6.0798
4.5, 8, 6.88095, 16.0458, 32.8761, 9.19401, -48.5962, -6.02784
4.504, 8, 6.836, 16.0597, 32.8994, 9.12162, -48.6824, -5.97608
4.508, 8, 6.79102, 16.0738, 32.9226, 9.04943, -48.7686, -5.9245
4.512, 8, 6.74603, 16.0879, 32.9456, 8.97741, -48.8549, -5.87312
4.516, 8, 6.70103, 16.1021, 32.9685, 8.90558, -48.9412, -5.82193
4.52, 8, 6.656, 16.1165, 32.9914, 8.83393, -49.0275, -5.77093
4.524, 8, 6.61097, 16.1309, 33.0141, 8.76246, -49.1138, -5.72011
4.528, 8, 6.56592, 16.1455, 33.0367, 8.69118, -49.2002, -5.66949
4.532, 9, 6.52085, 16.1601, 33.0591, 8.62007, -49.2867, -5.61905
4.536, 9, 6.47576, 16.1749, 33.0815, 8.54914, -49.3732, -5.5688
4.54, 9, 6.43067, 16.1897, 33.1038, 8.4784, -49.4597, -5.51873
4.544, 9, 6.38555, 16.2046, 33.1259, 8.40783, -49.5462, -5.46885
4.548, 9, 6.34042, 16.2197, 33.148, 8.33744, -49.6328, -5.41915
4.552, 9, 6.29528, 16.2348, 33.1699, 8.26722, -49.7194, -5.36963
4.556, 9, 6.25012, 16.25, 33.1917, 8.19718, -49.8061, -5.3203
4.56, 9, 6.20495, 16.2654, 33.2134, 8.12732, -49.8928, -5.27115
4.564, 9, 6.15976, 16.2808, 33.235, 8.05763, -49.9795, -5.22218
4.568, 9, 6.11456, 16.2964, 33.2564, 7.98811, -50.0663, -5.17339
4.572, 9, 6.06934, 16.312, 33.2778, 7.91877, -50.153, -5.12478
4.576, 9, 6.02411, 16.3277, 33.299, 7.84959, -50.2399, -5.07635
4.58, 9, 5.97886, 16.3436, 33.3202, 7.78059, -50.3267, -5.0281
4.584, 9, 5.9336, 16.3595, 33.3412, 7.71176, -50.4136, -4.98002
4.588, 9, 5.88833, 16.3755, 33.3621, 7.6431, -50.5006, -4.93212
4.592, 9, 5.84304, 16.3916, 33.3829, 7.5746, -50.5875, -4.88439
4.596, 9, 5.79774, 16.4079, 33.4036, 7.50628, -50.6745, -4.83684
4.6, 9, 5.75243, 16.4242, 33.4241, 7.43812, -50.7615, -4.78946
4.604, 9, 5.7071, 16.4406, 33.4446, 7.37012, -50.8486, -4.74226
4.608, 9, 5.66176, 16.4571, 33.4649, 7.3023, -50.9357, -4.69522
4.612, 9, 5.61641, 16.4738, 33.4851, 7.23463, -51.0228, -4.64836
4.616, 9, 5.57104, 16.4905, 33.5052, 7.16713, -51.1099, -4.60167
4.62, 9, 5.52566, 16.5073, 33.5252, 7.0998, -51.1971, -4.55514
4.624, 9, 5.48026, 16.5242, 33.5451, 7.03262, -51.2843, -4.50879
4.628, 9, 5.43486, 16.5412, 33.5649, 6.96561, -51.3715, -4.4626
4.632, 9, 5.38944, 16.5583, 33.5845, 6.89876, -51.4588, -4.41658
4.636, 9, 5.34401, 16.5755, 33.6041, 6.83207, -51.546, -4.37073
4.64, 9, 5.29856, 16.5928, 33.6235, 6.76554, -51.6334, -4.32505
4.644, 9, 5.25311, 16.6102, 33.6428, 6.69916, -51.7207, -4.27952
4.648, 9, 5.20764, 16.6277, 33.662, 6.63295, -51.8081, -4.23417
4.652, 9, 5.16216, 16.6453, 33.6811, 6.56689, -51.8954, -4.18897
4.656, 9, 5.11667, 16.663, 33.7001, 6.50099, -51.9829, -4.14394
4.66, 9, 5.07116, 16.6808, 33.7189, 6.43525, -52.0703, -4.09907
4.664, 9, 5.02565, 16.6987, 33.7377, 6.36966, -52.1578, -4.05437
4.668, 9, 4.98012, 16.7167, 33.7563, 6.30422, -52.2453, -4.00982
4.672, 9, 4.93458, 16.7348, 33.7748, 6.23894, -52.3328, -3.96543
4.676, 9, 4.88903, 16.7529, 33.7932, 6.17381, -52.4203, -3.92121
4.68, 9, 4.84347, 16.7712, 33.8115, 6.10884, -52.5079, -3.87714
4.684, 9, 4.79789, 16.7896, 33.8297, 6.04402, -52.5955, -3.83323
4.688, 9, 4.75231, 16.8081, 33.8477, 5.97935, -52.6831, -3.78947
4.692, 9, 4.70672, 16.8266, 33.8657, 5.91482, -52.7707, -3.74588
4.696, 9, 4.66111, 16.8453, 33.8835, 5.85045, -52.8584, -3.70244
4.7, 9, 4.6155, 16.864, 33.9012, 5.78623, -52.9461, -3.65915
4.704, 9, 4.56987, 16.8829, 33.9188, 5.72216, -53.0338, -3.61602
4.708, 9, 4.52423, 16.9018, 33.9363, 5.65823, -53.1215, -3.57304
4.712, 9, 4.47859, 16.9209, 33.9537, 5.59446, -53.2092, -3.53022
4.716, 9, 4.43293, 16.94, 33.971, 5.53083, -53.297, -3.48755
4.72, 9, 4.38726, 16.9592, 33.9881, 5.46734, -53.3848, -3.44503
4.724, 9, 4.34158, 16.9786, 34.0051, 5.404, -53.4726, -3.40266
4.728, 9, 4.29589, 16.998, 34.022, 5.34081, -53.5604, -3.36044
4.732, 9, 4.2502, 17.0175, 34.0388, 5.27776, -53.6483, -3.31837
4.736, 9, 4.20449, 17.0371, 34.0555, 5.21485, -53.7361, -3.27646
4.74, 9, 4.15877, 17.0568, 34.0721, 5.15209, -53.824, -3.23469
4.744, 9, 4.11305, 17.0766, 34.0886, 5.08947, -53.9119, -3.19307
4.748, 9, 4.06731, 17.0965, 34.1049, 5.027, -53.9998, -3.15159
4.752, 9, 4.02157, 17.1165, 34.1211, 4.96466, -54.0878, -3.11027
4.756, 9, 3.97581, 17.1366, 34.1372, 4.90246, -54.1757, -3.06909
4.76, 9, 3.93005, 17.1568, 34.1532, 4.84041, -54.2637, -3.02806
4.764, 9, 3.88428, 17.1771, 34.1691, 4.77849, -54.3517, -2.98717
4.768, 9, 3.8385, 17.1974, 34.1849, 4.71672, -54.4397, -2.94642
4.772, 9, 3.79271, 17.2179, 34.2005, 4.65508, -54.5277, -2.90582
4.776, 9, 3.74691, 17.2385, 34.216, 4.59358, -54.6157, -2.86537
4.78, 9, 3.7011, 17.2591, 34.2315, 4.53222, -54.7038, -2.82505
4.784, 9, 3.65529, 17.2799, 34.2468, 4.471, -54.7919, -2.78488
4.788, 9, 3.60946, 17.3007, 34.2619, 4.40991, -54.88, -2.74486
4.792, 9, 3.56363, 17.3217, 34.277, 4.34896, -54.9681, -2.70497
4.796, 9, 3.51779, 17.3428, 34.292, 4.28814, -55.0562, -2.66522
4.8, 9, 3.47193, 17.364, 34.3068, 4.22746, -55.1443, -2.62561
4.804, 9, 3.42606, 17.3853, 34.3215, 4.16691, -55.2325, -2.58614
4.808, 10, 3.38018, 17.4068, 34.3361, 4.10649, -55.3207, -2.54681
4.812, 10, 3.33428, 17.4285, 34.3505, 4.0462, -55.409, -2.50762
4.816, 10, 3.28837, 17.4503, 34.3648, 3.98604, -55.4974, -2.46856
4.82, 10, 3.24245, 17.4723, 34.3789, 3.92601, -55.5859, -2.42963
4.824, 10, 3.19651, 17.4945, 34.3929, 3.8661, -55.6745, -2.39083
4.828, 10, 3.15057, 17.5169, 34.4066, 3.80632, -55.7632, -2.35217
4.832, 10, 3.10462, 17.5394, 34.4202, 3.74666, -55.8521, -2.31364
4.836, 10, 3.05865, 17.5622, 34.4335, 3.68712, -55.9411, -2.27523
4.84, 10, 3.01269, 17.5852, 34.4466, 3.6277, -56.0302, -2.23696
4.844, 10, 2.96671, 17.6085, 34.4594, 3.56841, -56.1194, -2.19882
4.848, 10, 2.92073, 17.6319, 34.4719, 3.50924, -56.2087, -2.1608
4.852, 10, 2.87475, 17.6557, 34.4841, 3.45019, -56.2981, -2.12292
4.856, 10, 2.82877, 17.6797, 34.496, 3.39126, -56.3876, -2.08517
4.86, 10, 2.78279, 17.7039, 34.5075, 3.33246, -56.4771, -2.04755
4.864, 10, 2.73681, 17.7284, 34.5186, 3.27378, -56.5667, -2.01006
4.868, 10, 2.69082, 17.7533, 34.5294, 3.21523, -56.6562, -1.97271
4.872, 10, 2.64484, 17.7784, 34.5398, 3.1568, -56.7458, -1.93549
4.876, 10, 2.59885, 17.8039, 34.5498, 3.09851, -56.8353, -1.89841
4.88, 10, 2.55286, 17.8296, 34.5595, 3.04035, -56.9247, -1.86146
4.884, 10, 2.50686, 17.8557, 34.5687, 2.98231, -57.0141, -1.82465
4.888, 10, 2.46087, 17.8821, 34.5775, 2.92441, -57.1034, -1.78797
4.892, 10, 2.41487, 17.9087, 34.5858, 2.86664, -57.1926, -1.75143
4.896, 10, 2.36888, 17.9357, 34.5938, 2.80901, -57.2818, -1.71503
4.9, 10, 2.32289, 17.963, 34.6014, 2.75151, -57.3709, -1.67876
4.904, 10, 2.2769, 17.9906, 34.6086, 2.69414, -57.4599, -1.64263
4.908, 10, 2.23092, 18.0185, 34.6153, 2.63691, -57.5489, -1.60664
4.912, 10, 2.18495, 18.0467, 34.6216, 2.57982, -57.6377, -1.57078
4.916, 10, 2.13898, 18.0752, 34.6276, 2.52286, -57.7265, -1.53505
4.92, 10, 2.09303, 18.104, 34.6331, 2.46605, -57.8152, -1.49947
4.924, 10, 2.04708, 18.133, 34.6382, 2.40937, -57.9038, -1.46401
4.928, 10, 2.00115, 18.1624, 34.6429, 2.35283, -57.9923, -1.4287
4.932, 10, 1.95523, 18.1921, 34.6471, 2.29643, -58.0808, -1.39352
4.936, 10, 1.90932, 18.2221, 34.651, 2.24017, -58.1691, -1.35847
4.94, 10, 1.86343, 18.2523, 34.6545, 2.18405, -58.2574, -1.32356
4.944, 10, 1.81756, 18.2829, 34.6575, 2.12808, -58.3456, -1.28879
4.948, 10, 1.77171, 18.3137, 34.6602, 2.07224, -58.4337, -1.25415
4.952, 10, 1.72588, 18.3449, 34.6624, 2.01656, -58.5217, -1.21964
4.956, 10, 1.68007, 18.3763, 34.6642, 1.96101, -58.6096, -1.18528
4.96, 10, 1.63428, 18.408, 34.6656, 1.90561, -58.6974, -1.15104
4.964, 10, 1.58851, 18.44, 34.6666, 1.85036, -58.7852, -1.11695
4.968, 10, 1.54278, 18.4723, 34.6672, 1.79525, -58.8728, -1.08298
4.972, 10, 1.49707, 18.5049, 34.6673, 1.74029, -58.9604, -1.04915
4.976, 10, 1.45139, 18.5378, 34.6671, 1.68548, -59.0478, -1.01546
4.98, 10, 1.40573, 18.571, 34.6665, 1.63082, -59.1352, -0.981905
4.984, 10, 1.36011, 18.6044, 34.6654, 1.5763, -59.2225, -0.948482
4.988, 10, 1.31452, 18.6381, 34.6639, 1.52194, -59.3096, -0.915194
4.992, 10, 1.26897, 18.6722, 34.6621, 1.46772, -59.3967, -0.882042
4.996, 10, 1.22345, 18.7065, 34.6598, 1.41366, -59.4837, -0.849024
5, 10, 1.17796, 18.7411, 34.6571, 1.35975, -59.5705, -0.816141
5.004, 10, 1.13251, 18.7759, 34.654, 1.30599, -59.6573, -0.783393
5.008, 10, 1.0871, 18.8111, 34.6504, 1.25239, -59.744, -0.750779
5.012, 10, 1.04174, 18.8465, 34.6465, 1.19894, -59.8306, -0.718301
5.016, 10, 0.996407, 18.8823, 34.6422, 1.14564, -59.9171, -0.685957
5.02, 10, 0.951121, 18.9183, 34.6374, 1.0925, -60.0034, -0.653749
5.024, 10, 0.905879, 18.9546, 34.6323, 1.03952, -60.0897, -0.621675
5.028, 10, 0.860682, 18.9911, 34.6267, 0.986691, -60.1759, -0.589736
5.032, 10, 0.81553, 19.028, 34.6208, 0.934021, -60.2619, -0.557932
5.036, 10, 0.770427, 19.0651, 34.6144, 0.88151, -60.3479, -0.526262
5.04, 10, 0.725371, 19.1025, 34.6076, 0.829158, -60.4337, -0.494728
5.044, 10, 0.680365, 19.1402, 34.6004, 0.776966, -60.5195, -0.463328
5.048, 10, 0.635411, 19.1781, 34.5927, 0.724934, -60.6051, -0.432063
5.052, 10, 0.590509, 19.2164, 34.5847, 0.673063, -60.6907, -0.400933
5.056, 10, 0.54566, 19.2549, 34.5763, 0.621354, -60.7761, -0.369938
5.06, 10, 0.500866, 19.2937, 34.5674, 0.569808, -60.8614, -0.339078
5.064, 10, 0.456128, 19.3327, 34.5582, 0.518424, -60.9466, -0.308353
5.068, 10, 0.411448, 19.3721, 34.5485, 0.467205, -61.0317, -0.277762
5.072, 10, 0.366826, 19.4117, 34.5384, 0.41615, -61.1167, -0.247307
5.076, 10, 0.322265, 19.4516, 34.528, 0.36526, -61.2015, -0.216986
5.08, 10, 0.277765, 19.4917, 34.5171, 0.314536, -61.2863, -0.186801
5.084, 10, 0.233328, 19.5322, 34.5057, 0.263979, -61.3709, -0.15675
5.088, 10, 0.188954, 19.5729, 34.494, 0.213589, -61.4554, -0.126833
5.092, 10, 0.144645, 19.6139, 34.4819, 0.163367, -61.5398, -0.0970512
5.096, 10, 0.100401, 19.6551, 34.4694, 0.113313, -61.6241, -0.0674036
5.1, 10, 0.0562246, 19.6966, 34.4564, 0.063428, -61.7083, -0.0378901
5.104, 10, 0.012116, 19.7384, 34.443, 0.0137128, -61.7924, -0.0085104
5.108, 10, -0.0319233, 19.7805, 34.4293, -0.0358324, -61.8763, 0.0207357
5.112, 10, -0.075892, 19.8228, 34.4151, -0.085207, -61.9601, 0.0498484
5.116, 10, -0.119789, 19.8654, 34.4005, -0.134411, -62.0438, 0.0788281
5.12, 10, -0.163614, 19.9082, 34.3855, -0.183443, -62.1274, 0.107675
5.124, 10, -0.207364, 19.9513, 34.3701, -0.232303, -62.2109, 0.13639
5.128, 10, -0.25104, 19.9947, 34.3543, -0.280991, -62.2942, 0.164972
5.132, 10, -0.29464, 20.0383, 34.3381, -0.329506, -62.3774, 0.193423
5.136, 10, -0.338162, 20.0822, 34.3215, -0.377849, -62.4605, 0.221742
5.14, 10, -0.381606, 20.1264, 34.3044, -0.426017, -62.5435, 0.249931
5.144, 10, -0.42497, 20.1708, 34.287, -0.474012, -62.6263, 0.277988
5.148, 10, -0.468254, 20.2155, 34.2692, -0.521833, -62.709, 0.305915
5.152, 10, -0.511456, 20.2604, 34.2509, -0.56948, -62.7916, 0.333712
5.156, 10, -0.554575, 20.3056, 34.2323, -0.616951, -62.8741, 0.361379
5.16, 10, -0.597609, 20.351, 34.2133, -0.664248, -62.9564, 0.388917
5.164, 10, -0.640559, 20.3967, 34.1938, -0.711368, -63.0387, 0.416325
5.168, 10, -0.683422, 20.4426, 34.174, -0.758313, -63.1207, 0.443605
5.172, 10, -0.726199, 20.4888, 34.1538, -0.805081, -63.2027, 0.470756
5.176, 10, -0.768887, 20.5353, 34.1331, -0.851673, -63.2845, 0.497778
5.18, 10, -0.811485, 20.5819, 34.1121, -0.898087, -63.3662, 0.524673
5.184, 10, -0.853994, 20.6289, 34.0907, -0.944324, -63.4478, 0.55144
5.188, 10, -0.896411, 20.676, 34.0689, -0.990383, -63.5292, 0.578079
5.192, 10, -0.938735, 20.7235, 34.0467, -1.03626, -63.6105, 0.604591
5.196, 10, -0.980966, 20.7711, 34.0241, -1.08197, -63.6916, 0.630976
5.2, 10, -1.0231, 20.819, 34.0011, -1.12749, -63.7727, 0.657235
5.204, 10, -1.06514, 20.8672, 33.9777, -1.17283, -63.8536, 0.683367
5.208, 10, -1.10709, 20.9155, 33.9539, -1.21799, -63.9343, 0.709373
5.212, 10, -1.14893, 20.9642, 33.9297, -1.26298, -64.0149, 0.735253
5.216, 10, -1.19068, 21.013, 33.9052, -1.30778, -64.0954, 0.761007
5.22, 10, -1.23233, 21.0621, 33.8802, -1.3524, -64.1758, 0.786636
5.224, 10, -1.27388, 21.1114, 33.8549, -1.39684, -64.256, 0.81214
5.228, 10, -1.31532, 21.161, 33.8291, -1.44109, -64.336, 0.837519
5.232, 10, -1.35667, 21.2108, 33.803, -1.48517, -64.416, 0.862773
5.236, 10, -1.3979, 21.2608, 33.7765, -1.52906, -64.4958, 0.887902
5.24, 10, -1.43904, 21.3111, 33.7496, -1.57276, -64.5754, 0.912907
5.244, 10, -1.48006, 21.3616, 33.7223, -1.61629, -64.6549, 0.937789
5.248, 10, -1.52098, 21.4123, 33.6947, -1.65963, -64.7343, 0.962546
5.252, 10, -1.5618, 21.4632, 33.6666, -1.70278, -64.8135, 0.98718
5.256, 10, -1.6025, 21.5144, 33.6382, -1.74575, -64.8925, 1.01169
5.26, 10, -1.64309, 21.5658, 33.6093, -1.78853, -64.9715, 1.03608
5.264, 10, -1.68357, 21.6174, 33.5801, -1.83113, -65.0502, 1.06034
5.268, 10, -1.72394, 21.6693, 33.5505, -1.87354, -65.1289, 1.08448
5.272, 10, -1.7642, 21.7213, 33.5205, -1.91576, -65.2074, 1.1085
5.276, 10, -1.80434, 21.7736, 33.4902, -1.95779, -65.2857, 1.1324
5.28, 10, -1.84436, 21.8261, 33.4594, -1.99964, -65.3639, 1.15617
5.284, 10, -1.88427, 21.8789, 33.4283, -2.04129, -65.4419, 1.17982
5.288, 10, -1.92406, 21.9318, 33.3968, -2.08276, -65.5198, 1.20335
5.292, 10, -1.96373, 21.985, 33.3649, -2.12404, -65.5976, 1.22676
5.296, 10, -2.00329, 22.0384, 33.3326, -2.16513, -65.6752, 1.25004
5.3, 10, -2.04272, 22.092, 33.3, -2.20602, -65.7526, 1.27321
5.304, 10, -2.08203, 22.1458, 33.267, -2.24673, -65.8299, 1.29625
5.308, 10, -2.12121, 22.1998, 33.2335, -2.28724, -65.907, 1.31917
5.312, 10, -2.16028, 22.254, 33.1998, -2.32756, -65.984, 1.34197
5.316, 10, -2.19924, 22.3084, 33.1656, -2.36769, -66.0608, 1.36465
5.32, 10, -2.2381, 22.363, 33.131, -2.40762, -66.1374, 1.38722
5.324, 10, -2.27686, 22.4177, 33.0961, -2.44737, -66.2138, 1.40966
5.328, 11, -2.31554, 22.4726, 33.0609, -2.48692, -66.2901, 1.43198
5.332, 11, -2.35414, 22.5277, 33.0252, -2.52629, -66.3661, 1.4542
5.336, 11, -2.39266, 22.5829, 32.9893, -2.56548, -66.4419, 1.4763
5.34, 11, -2.4311, 22.6382, 32.953, -2.6045, -66.5175, 1.4983
5.344, 11, -2.46946, 22.6937, 32.9164, -2.64335, -66.5928, 1.52019
5.348, 11, -2.50774, 22.7493, 32.8795, -2.68203, -66.6678, 1.54198
5.352, 11, -2.54593, 22.805, 32.8423, -2.72057, -66.7426, 1.56369
5.356, 11, -2.58405, 22.8608, 32.8049, -2.75896, -66.8172, 1.5853
5.36, 11, -2.6221, 22.9167, 32.7672, -2.79721, -66.8915, 1.60683
5.364, 11, -2.66006, 22.9726, 32.7293, -2.83534, -66.9655, 1.62828
5.368, 11, -2.69794, 23.0287, 32.6912, -2.87335, -67.0394, 1.64966
5.372, 11, -2.73573, 23.0848, 32.6529, -2.91124, -67.113, 1.67096
5.376, 11, -2.77344, 23.141, 32.6144, -2.94903, -67.1865, 1.6922
5.38, 11, -2.81105, 23.1972, 32.5758, -2.98672, -67.2598, 1.71338
5.384, 11, -2.84859, 23.2535, 32.537, -3.02431, -67.3329, 1.73449
5.388, 11, -2.88606, 23.3098, 32.4981, -3.0618, -67.406, 1.75555
5.392, 11, -2.92346, 23.3661, 32.4591, -3.0992, -67.4789, 1.77654
5.396, 11, -2.96081, 23.4225, 32.4199, -3.13652, -67.5517, 1.79748
5.4, 11, -2.99811, 23.4789, 32.3806, -3.17374, -67.6245, 1.81836
5.404, 11, -3.03536, 23.5353, 32.3412, -3.21087, -67.6972, 1.83918
5.408, 11, -3.07257, 23.5917, 32.3016, -3.24791, -67.7697, 1.85995
5.412, 11, -3.10975, 23.6482, 32.262, -3.28486, -67.8422, 1.88066
5.416, 11, -3.14688, 23.7047, 32.2222, -3.32173, -67.9147, 1.90131
5.42, 11, -3.18397, 23.7612, 32.1823, -3.35851, -67.987, 1.92191
5.424, 11, -3.22103, 23.8178, 32.1423, -3.3952, -68.0593, 1.94246
5.428, 11, -3.25805, 23.8743, 32.1022, -3.4318, -68.1315, 1.96295
5.432, 11, -3.29504, 23.931, 32.062, -3.46832, -68.2036, 1.98339
5.436, 11, -3.33199, 23.9876, 32.0216, -3.50475, -68.2757, 2.00377
5.44, 11, -3.3689, 24.0443, 31.9811, -3.54109, -68.3476, 2.02411
5.444, 11, -3.40578, 24.101, 31.9405, -3.57735, -68.4195, 2.04438
5.448, 11, -3.44261, 24.1577, 31.8998, -3.61352, -68.4914, 2.06461
5.452, 11, -3.47942, 24.2145, 31.859, -3.6496, -68.5631, 2.08479
5.456, 11, -3.51619, 24.2713, 31.8181, -3.6856, -68.6348, 2.10491
5.46, 11, -3.55292, 24.3281, 31.777, -3.72152, -68.7064, 2.12498
5.464, 11, -3.58961, 24.385, 31.7359, -3.75735, -68.7779, 2.14501
5.468, 11, -3.62627, 24.4419, 31.6946, -3.79309, -68.8493, 2.16498
5.472, 11, -3.66289, 24.4988, 31.6532, -3.82876, -68.9207, 2.1849
5.476, 11, -3.69948, 24.5557, 31.6117, -3.86433, -68.992, 2.20477
5.48, 11, -3.73603, 24.6127, 31.57, -3.89982, -69.0632, 2.22459
5.484, 11, -3.77254, 24.6697, 31.5283, -3.93523, -69.1344, 2.24437
5.488, 11, -3.80902, 24.7268, 31.4864, -3.97056, -69.2054, 2.26409
5.492, 11, -3.84546, 24.7838, 31.4445, -4.0058, -69.2764, 2.28377
5.496, 11, -3.88186, 24.8409, 31.4024, -4.04096, -69.3473, 2.3034
5.5, 11, -3.91823, 24.8981, 31.3601, -4.07603, -69.4182, 2.32298
5.504, 11, -3.95456, 24.9552, 31.3178, -4.11103, -69.4889, 2.34251
5.508, 11, -3.99086, 25.0124, 31.2754, -4.14594, -69.5596, 2.362
5.512, 11, -4.02712, 25.0696, 31.2328, -4.18076, -69.6302, 2.38144
5.516, 11, -4.06334, 25.1269, 31.1902, -4.21551, -69.7007, 2.40083
5.52, 11, -4.09953, 25.1841, 31.1474, -4.25017, -69.7711, 2.42018
5.524, 11, -4.13568, 25.2414, 31.1045, -4.28475, -69.8415, 2.43948
5.528, 11, -4.17179, 25.2987, 31.0614, -4.31925, -69.9118, 2.45874
5.532, 11, -4.20787, 25.3561, 31.0183, -4.35367, -69.982, 2.47795
5.536, 11, -4.24391, 25.4135, 30.9751, -4.38801, -70.0521, 2.49711
5.54, 11, -4.27991, 25.4709, 30.9317, -4.42227, -70.1222, 2.51624
5.544, 11, -4.31588, 25.5283, 30.8882, -4.45644, -70.1921, 2.53531
5.548, 11, -4.35181, 25.5858, 30.8446, -4.49054, -70.262, 2.55435
5.552, 11, -4.3877, 25.6433, 30.8009, -4.52456, -70.3318, 2.57334
5.556, 11, -4.42356, 25.7008, 30.7571, -4.55849, -70.4016, 2.59229
5.56, 11, -4.45938, 25.7583, 30.7131, -4.59235, -70.4712, 2.61119
5.564, 11, -4.49516, 25.8159, 30.6691, -4.62612, -70.5408, 2.63006
5.568, 11, -4.53091, 25.8735, 30.6249, -4.65982, -70.6102, 2.64888
5.572, 11, -4.56662, 25.9311, 30.5806, -4.69344, -70.6796, 2.66766
5.576, 11, -4.6023, 25.9888, 30.5362, -4.72697, -70.749, 2.6864
5.58, 11, -4.63793, 26.0465, 30.4917, -4.76043, -70.8182, 2.70509
5.584, 11, -4.67353, 26.1042, 30.447, -4.79381, -70.8874, 2.72375
5.588, 11, -4.7091, 26.1619, 30.4023, -4.82712, -70.9565, 2.74237
5.592, 11, -4.74462, 26.2196, 30.3574, -4.86034, -71.0255, 2.76094
5.596, 11, -4.78011, 26.2774, 30.3124, -4.89349, -71.0944, 2.77948
5.6, 11, -4.81556, 26.3352, 30.2673, -4.92656, -71.1632, 2.79798
5.604, 12, -4.85098, 26.393, 30.2221, -4.95955, -71.2319, 2.81643
5.608, 12, -4.88636, 26.4509, 30.1768, -4.99246, -71.3006, 2.83485
5.612, 12, -4.9217, 26.5087, 30.1313, -5.0253, -71.3691, 2.85324
5.616, 12, -4.957, 26.5666, 30.0858, -5.05806, -71.4376, 2.87158
5.62, 12, -4.99227, 26.6245, 30.0401, -5.09074, -71.506, 2.88989
5.624, 12, -5.0275, 26.6825, 29.9943, -5.12335, -71.5743, 2.90816
5.628, 12, -5.0627, 26.7404, 29.9484, -5.15588, -71.6424, 2.92639
5.632, 12, -5.09785, 26.7984, 29.9024, -5.18834, -71.7105, 2.94459
5.636, 12, -5.13297, 26.8564, 29.8562, -5.22072, -71.7785, 2.96275
5.64, 12, -5.16806, 26.9144, 29.81, -5.25302, -71.8464, 2.98088
5.644, 12, -5.2031, 26.9725, 29.7636, -5.28526, -71.9141, 2.99897
5.648, 12, -5.23811, 27.0305, 29.7171, -5.31741, -71.9818, 3.01702
5.652, 12, -5.27308, 27.0886, 29.6705, -5.34949, -72.0494, 3.03504
5.656, 12, -5.30802, 27.1467, 29.6238, -5.3815, -72.1169, 3.05303
5.66, 12, -5.34292, 27.2049, 29.577, -5.41343, -72.1843, 3.07098
5.664, 12, -5.37778, 27.263, 29.53, -5.44528, -72.2516, 3.0889
5.668, 12, -5.4126, 27.3212, 29.483, -5.47707, -72.3189, 3.10678
5.672, 12, -5.44739, 27.3794, 29.4358, -5.50877, -72.386, 3.12463
5.676, 12, -5.48214, 27.4376, 29.3885, -5.5404, -72.453, 3.14244
5.68, 12, -5.51685, 27.4958, 29.3411, -5.57196, -72.52, 3.16023
5.684, 12, -5.55153, 27.5541, 29.2936, -5.60345, -72.5869, 3.17797
5.688, 12, -5.58617, 27.6124, 29.2459, -5.63486, -72.6537, 3.19569
5.692, 12, -5.62077, 27.6707, 29.1982, -5.66619, -72.7204, 3.21338
5.696, 12, -5.65533, 27.729, 29.1503, -5.69745, -72.787, 3.23103
5.7, 12, -5.68986, 27.7873, 29.1023, -5.72864, -72.8536, 3.24865
5.704, 12, -5.72435, 27.8457, 29.0542, -5.75975, -72.92, 3.26623
5.708, 12, -5.7588, 27.9041, 29.006, -5.7908, -72.9864, 3.28379
5.712, 12, -5.79322, 27.9625, 28.9577, -5.82176, -73.0527, 3.30132
5.716, 12, -5.8276, 28.021, 28.9093, -5.85266, -73.1189, 3.31881
5.72, 12, -5.86194, 28.0794, 28.8607, -5.88348, -73.185, 3.33627
5.724, 12, -5.89624, 28.1379, 28.812, -5.91423, -73.251, 3.35371
5.728, 12, -5.93051, 28.1964, 28.7632, -5.9449, -73.3169, 3.37111
5.732, 12, -5.96474, 28.255, 28.7143, -5.97551, -73.3828, 3.38848
5.736, 12, -5.99894, 28.3135, 28.6653, -6.00604, -73.4486, 3.40583
5.74, 12, -6.03309, 28.3721, 28.6162, -6.03649, -73.5142, 3.42314
5.744, 12, -6.06721, 28.4307, 28.5669, -6.06688, -73.5798, 3.44043
5.748, 12, -6.10129, 28.4893, 28.5175, -6.0972, -73.6453, 3.45768
5.752, 12, -6.13534, 28.548, 28.4681, -6.12744, -73.7108, 3.47491
5.756, 12, -6.16935, 28.6067, 28.4185, -6.15761, -73.7761, 3.49211
5.76, 12, -6.20332, 28.6654, 28.3688, -6.18771, -73.8413, 3.50928
5.764, 12, -6.23725, 28.7241, 28.3189, -6.21773, -73.9065, 3.52643
5.768, 12, -6.27115, 28.7828, 28.269, -6.24769, -73.9716, 3.54354
5.772, 12, -6.30501, 28.8416, 28.2189, -6.27757, -74.0366, 3.56063
5.776, 12, -6.33883, 28.9004, 28.1688, -6.30739, -74.1015, 3.5777
5.78, 12, -6.37261, 28.9592, 28.1185, -6.33713, -74.1663, 3.59473
5.784, 12, -6.40636, 29.018, 28.0681, -6.3668, -74.231, 3.61174
5.788, 12, -6.44007, 29.0768, 28.0175, -6.3964, -74.2956, 3.62872
5.792, 12, -6.47375, 29.1357, 27.9669, -6.42593, -74.3602, 3.64568
5.796, 12, -6.50738, 29.1946, 27.9162, -6.45539, -74.4247, 3.66261
5.8, 12, -6.54098, 29.2535, 27.8653, -6.48478, -74.489, 3.67952
5.804, 12, -6.57454, 29.3124, 27.8143, -6.5141, -74.5533, 3.6964
5.808, 12, -6.60807, 29.3714, 27.7632, -6.54335, -74.6175, 3.71326
5.812, 12, -6.64156, 29.4304, 27.712, -6.57253, -74.6816, 3.73009
5.816, 12, -6.67501, 29.4894, 27.6607, -6.60164, -74.7456, 3.7469
5.82, 12, -6.70842, 29.5484, 27.6092, -6.63068, -74.8096, 3.76368
5.824, 12, -6.7418, 29.6074, 27.5577, -6.65965, -74.8734, 3.78044
5.828, 12, -6.77514, 29.6665, 27.506, -6.68855, -74.9372, 3.79718
5.832, 12, -6.80844, 29.7256, 27.4542, -6.71738, -75.0008, 3.81389
5.836, 12, -6.8417, 29.7847, 27.4023, -6.74614, -75.0644, 3.83058
5.84, 12, -6.87493, 29.8438, 27.3503, -6.77483, -75.1279, 3.84725
5.844, 12, -6.90812, 29.9029, 27.2982, -6.80346, -75.1913, 3.86389
5.848, 12, -6.94127, 29.9621, 27.2459, -6.83201, -75.2546, 3.88052
5.852, 12, -6.97438, 30.0213, 27.1936, -6.8605, -75.3178, 3.89712
5.856, 12, -7.00746, 30.0805, 27.1411, -6.88891, -75.381, 3.9137
5.86, 12, -7.0405, 30.1397, 27.0885, -6.91726, -75.444, 3.93025
5.864, 12, -7.0735, 30.199, 27.0358, -6.94554, -75.507, 3.94679
5.868, 12, -7.10647, 30.2582, 26.983, -6.97376, -75.5698, 3.96331
5.872, 12, -7.1394, 30.3175, 26.93, -7.0019, -75.6326, 3.9798
5.876, 12, -7.17229, 30.3768, 26.877, -7.02998, -75.6953, 3.99627
5.88, 13, -7.20514, 30.4362, 26.8238, -7.05798, -75.7579, 4.01273
5.884, 13, -7.23796, 30.4955, 26.7705, -7.08592, -75.8204, 4.02916
5.888, 13, -7.27074, 30.5549, 26.7171, -7.1138, -75.8828, 4.04557
5.892, 13, -7.30348, 30.6143, 26.6636, -7.1416, -75.9451, 4.06197
5.896, 13, -7.33619, 30.6737, 26.6099, -7.16934, -76.0073, 4.07834
5.9, 13, -7.36885, 30.7331, 26.5562, -7.19701, -76.0694, 4.0947
5.904, 13, -7.40148, 30.7926, 26.5023, -7.22461, -76.1315, 4.11104
5.908, 13, -7.43408, 30.852, 26.4483, -7.25214, -76.1934, 4.12736
5.912, 13, -7.46663, 30.9115, 26.3942, -7.27961, -76.2553, 4.14366
5.916, 13, -7.49915, 30.971, 26.34, -7.30701, -76.3171, 4.15994
5.92, 13, -7.53163, 31.0306, 26.2857, -7.33435, -76.3788, 4.1762
5.924, 13, -7.56407, 31.0901, 26.2313, -7.36161, -76.4403, 4.19245
5.928, 13, -7.59648, 31.1497, 26.1767, -7.38881, -76.5018, 4.20868
5.932, 13, -7.62885, 31.2093, 26.122, -7.41595, -76.5632, 4.22489
5.936, 13, -7.66118, 31.2689, 26.0672, -7.44301, -76.6246, 4.24109
5.94, 13, -7.69348, 31.3285, 26.0123, -7.47001, -76.6858, 4.25727
