hehonglu123/ABB_Primitive_Study/realrobot/movelcl_30_car2/curve_exe_v50_z1.csv
timestamp, cmd_num, J1, J2, J3, J4, J5, J6
0.005168, -1, -13.4405, 43.6802, 12.5937, -11.628, -87.0289, 7.42493
0.14357, -1, -13.0815, 43.372, 12.6952, -11.2024, -86.5324, 7.12096
0.144835, -1, -13.0815, 43.372, 12.6952, -11.2024, -86.5324, 7.12096
0.147717, -1, -13.0378, 43.3325, 12.71, -11.1299, -86.4482, 7.06706
0.148956, -1, -13.0378, 43.3325, 12.71, -11.1299, -86.4482, 7.06706
0.15105, -1, -12.9911, 43.2901, 12.7261, -11.0506, -86.3559, 7.0082
0.152248, -1, -12.9911, 43.2901, 12.7261, -11.0506, -86.3559, 7.0082
0.154059, -1, -12.9911, 43.2901, 12.7261, -11.0506, -86.3559, 7.0082
0.157073, -1, -12.9413, 43.2448, 12.7434, -10.9648, -86.2561, 6.94453
0.159244, -1, -12.8886, 43.1968, 12.762, -10.8729, -86.1489, 6.87611
0.160513, -1, -12.8886, 43.1968, 12.762, -10.8729, -86.1489, 6.87611
0.16319, -1, -12.833, 43.1461, 12.7815, -10.7752, -86.0349, 6.80323
0.164429, -1, -12.833, 43.1461, 12.7815, -10.7752, -86.0349, 6.80323
0.166323, -1, -12.833, 43.0929, 12.802, -10.6718, -85.9143, 6.726
0.16779, -1, -12.7746, 43.0929, 12.802, -10.6718, -85.9143, 6.726
0.169062, -1, -12.7746, 43.0929, 12.802, -10.6718, -85.9143, 6.726
0.172243, -1, -12.7135, 43.0374, 12.8234, -10.563, -85.7876, 6.64473
0.173428, -1, -12.7135, 43.0374, 12.8234, -10.563, -85.7876, 6.64473
0.175461, -1, -12.6499, 42.9795, 12.8457, -10.4496, -85.6554, 6.55991
0.176696, -1, -12.6499, 42.9795, 12.8457, -10.4496, -85.6554, 6.55991
0.17854, -1, -12.5838, 42.9195, 12.8689, -10.3321, -85.5182, 6.47204
0.179903, -1, -12.5838, 42.9195, 12.8689, -10.3321, -85.5182, 6.47204
0.181189, -1, -12.5838, 42.9195, 12.8689, -10.3321, -85.5182, 6.47204
0.184282, -1, -12.5153, 42.8573, 12.8929, -10.211, -85.3767, 6.3815
0.185515, -1, -12.5153, 42.8573, 12.8929, -10.211, -85.3767, 6.3815
0.191941, -1, -12.3717, 42.7272, 12.943, -9.95958, -85.0829, 6.19336
0.199943, -1, -12.2208, 42.591, 12.9954, -9.69923, -84.7787, 5.99822
0.208066, -1, -12.0639, 42.4495, 13.0493, -9.433, -84.4671, 5.79848
0.215066, -1, -11.9019, 42.304, 13.1046, -9.16326, -84.1517, 5.59579
0.223964, -1, -11.7352, 42.1553, 13.1607, -8.89139, -83.834, 5.39184
0.23201, -1, -11.5655, 42.0045, 13.2173, -8.61833, -83.515, 5.18734
0.239951, -1, -11.3944, 41.8526, 13.2743, -8.34509, -83.1953, 4.98253
0.247941, -1, -11.2226, 41.7003, 13.3315, -8.07138, -82.8751, 4.77731
0.256028, -1, -11.0505, 41.5483, 13.3888, -7.79747, -82.5547, 4.57198
0.263945, -1, -10.8782, 41.3968, 13.4462, -7.52365, -82.2341, 4.36641
0.272023, -1, -10.7057, 41.2453, 13.5038, -7.24978, -81.9131, 4.16084
0.280009, -1, -10.5332, 41.0935, 13.5615, -6.97554, -81.5924, 3.95551
0.287959, -1, -10.3606, 40.9418, 13.6192, -6.70153, -81.2718, 3.75017
0.296063, -1, -10.1883, 40.7903, 13.6768, -6.42773, -80.9513, 3.5448
0.304043, -1, -10.0163, 40.6388, 13.7343, -6.15388, -80.6312, 3.33923
0.311596, -1, -9.84468, 40.487, 13.7917, -5.88025, -80.3113, 3.13404
0.320112, -1, -9.67377, 40.3348, 13.849, -5.60676, -79.9916, 2.92905
0.327595, -1, -9.50336, 40.1824, 13.9063, -5.33325, -79.672, 2.72432
0.336066, -1, -9.33365, 40.0304, 13.9636, -5.05999, -79.3524, 2.51954
0.344128, -1, -9.16451, 39.8785, 14.0207, -4.78708, -79.033, 2.31503
0.350958, -1, -9.08004, 39.8024, 14.0492, -4.65078, -78.8733, 2.21279
0.359974, -1, -8.82648, 39.5743, 14.1349, -4.24243, -78.3949, 1.90666
0.368042, -1, -8.65718, 39.4226, 14.1919, -3.97083, -78.0767, 1.70302
0.374964, -1, -8.57236, 39.3471, 14.2204, -3.8352, -77.9179, 1.60122
0.384249, -1, -8.31757, 39.1212, 14.3058, -3.42854, -77.4421, 1.29641
0.39096, -1, -8.23263, 39.046, 14.3343, -3.29332, -77.2838, 1.19491
0.400449, -1, -7.97749, 38.8206, 14.4194, -2.88837, -76.8099, 0.891489
0.406953, -1, -7.89243, 38.7456, 14.4478, -2.75356, -76.6522, 0.790554
0.41637, -1, -7.63699, 38.5214, 14.5324, -2.35022, -76.1797, 0.488313
0.424453, -1, -7.46666, 38.3724, 14.5887, -2.08199, -75.8655, 0.287435
0.432565, -1, -7.29654, 38.2235, 14.6451, -1.814, -75.5519, 0.0868692
0.44088, -1, -7.12699, 38.0745, 14.7013, -1.54669, -75.2391, -0.113473
0.448692, -1, -6.9583, 37.9258, 14.7575, -1.28031, -74.927, -0.312953
0.456603, -1, -6.79075, 37.7776, 14.8134, -1.01445, -74.6159, -0.511842
0.464547, -1, -6.70733, 37.7036, 14.8411, -0.749416, -74.3057, -0.710428
0.472482, -1, -6.54099, 37.5558, 14.8967, -0.61723, -74.1508, -0.809498
0.479987, -1, -6.3758, 37.4082, 14.9522, -0.353314, -73.8417, -1.0073
0.487938, -1, -6.21191, 37.261, 15.0075, -0.0899215, -73.5334, -1.2047
0.495946, -1, -6.04881, 37.1146, 15.0628, 0.172669, -73.226, -1.40117
0.50393, -1, -5.88647, 36.9689, 15.1179, 0.434336, -72.9196, -1.597
0.511966, -1, -5.72441, 36.8237, 15.1727, 0.695224, -72.6143, -1.79217
0.519973, -1, -5.5624, 36.6788, 15.2273, 0.955284, -72.3096, -1.98694
0.527932, -1, -5.40036, 36.5343, 15.2819, 1.21434, -72.0061, -2.18107
0.535949, -1, -5.23834, 36.3905, 15.3363, 1.47269, -71.7036, -2.37476
0.543974, -1, -5.07645, 36.2473, 15.3905, 1.73042, -71.4019, -2.56739
0.552127, -1, -4.9148, 36.1044, 15.4447, 1.98698, -71.1014, -2.75953
0.55995, -1, -4.75339, 35.9618, 15.4985, 2.24263, -70.802, -2.95097
0.567989, -1, -4.59207, 35.8195, 15.5521, 2.49741, -70.5037, -3.1419
0.575943, -1, -4.43092, 35.6778, 15.6054, 2.75098, -70.2065, -3.33225
0.583935, -1, -4.26986, 35.5368, 15.6586, 3.00353, -69.9107, -3.52162
0.724499, -1, -1.58759, 33.154, 16.5558, 7.27418, -64.91, -6.71836
0.725776, -1, -1.58759, 33.154, 16.5558, 7.27418, -64.91, -6.71836
0.728654, -1, -1.51297, 33.0883, 16.5805, 7.39159, -64.7723, -6.80656
0.729838, -1, -1.51297, 33.0883, 16.5805, 7.39159, -64.7723, -6.80656
0.73195, -1, -1.43836, 33.0228, 16.6051, 7.50889, -64.6349, -6.89446
0.733136, -1, -1.43836, 33.0228, 16.6051, 7.50889, -64.6349, -6.89446
0.735222, -1, -1.36383, 32.9573, 16.6298, 7.62606, -64.4977, -6.98209
0.737966, -1, -1.36383, 32.9573, 16.6298, 7.62606, -64.4977, -6.98209
0.740254, -1, -1.28937, 32.8919, 16.6543, 7.74293, -64.3608, -7.06955
0.74143, -1, -1.28937, 32.8919, 16.6543, 7.74293, -64.3608, -7.06955
0.743454, -1, -1.21516, 32.8266, 16.6788, 7.85945, -64.2242, -7.15693
0.744666, -1, -1.21516, 32.8266, 16.6788, 7.85945, -64.2242, -7.15693
0.745913, -1, -1.21516, 32.8266, 16.6788, 7.85945, -64.2242, -7.15693
0.748559, -1, -1.14126, 32.7616, 16.7033, 7.97575, -64.088, -7.24415
0.750058, -1, -1.14126, 32.7616, 16.7033, 7.97575, -64.088, -7.24415
0.755712, -1, -0.994311, 32.6322, 16.7521, 8.20766, -63.8164, -7.41793
0.756932, -1, -0.994311, 32.6322, 16.7521, 8.20766, -63.8164, -7.41793
0.758183, -1, -0.994311, 32.6322, 16.7521, 8.20766, -63.8164, -7.41793
0.760133, -1, -0.921332, 32.5678, 16.7764, 8.32332, -63.681, -7.50451
0.761394, -1, -0.921332, 32.5678, 16.7764, 8.32332, -63.681, -7.50451
0.76324, -1, -0.848685, 32.5035, 16.8006, 8.43881, -63.5458, -7.59098
0.764671, -1, -0.848685, 32.5035, 16.8006, 8.43881, -63.5458, -7.59098
0.769965, -1, -0.77633, 32.4392, 16.8247, 8.55404, -63.4111, -7.67737
0.776829, -1, -0.632233, 32.3112, 16.8729, 8.78372, -63.1425, -7.84937
0.783924, -1, -0.488965, 32.1838, 16.921, 9.01219, -62.8748, -8.02052
0.792008, -1, -0.346877, 32.0567, 16.9689, 9.23965, -62.6086, -8.1907
0.80075, -1, -0.205913, 31.9305, 17.0165, 9.46626, -62.3434, -8.3601
0.808013, -1, -0.0658633, 31.8048, 17.0638, 9.69186, -62.0792, -8.52896
0.81602, -1, 0.073373, 31.6796, 17.111, 9.91622, -61.8162, -8.69691
0.824809, -1, 0.212264, 31.5548, 17.1579, 10.1399, -61.5542, -8.86449
0.832098, -1, 0.351182, 31.4304, 17.2045, 10.3626, -61.2932, -9.03127
0.839632, -1, 0.490272, 31.3065, 17.2511, 10.5842, -61.0332, -9.19714
0.848807, -1, 0.629242, 31.1832, 17.2975, 10.8049, -60.7744, -9.36235
0.855923, -1, 0.767815, 31.0606, 17.3436, 11.0247, -60.5169, -9.5267
0.862975, -1, 0.836972, 30.9994, 17.3666, 11.1343, -60.3886, -9.60875
0.872927, -1, 1.04381, 30.8164, 17.4353, 11.4616, -60.0051, -9.85394
0.880035, -1, 1.18119, 30.6951, 17.4809, 11.6786, -59.751, -10.0167
0.886989, -1, 1.24979, 30.6346, 17.5035, 11.7867, -59.6244, -10.0978
0.89709, -1, 1.45516, 30.4541, 17.5714, 12.1102, -59.2465, -10.3395
0.904192, -1, 1.59135, 30.3346, 17.6164, 12.3246, -58.9957, -10.4999
0.910925, -1, 1.65912, 30.275, 17.6388, 12.4314, -58.8705, -10.5797
0.920362, -1, 1.86105, 30.0972, 17.7059, 12.7508, -58.4967, -10.8186
0.926975, -1, 1.92785, 30.0381, 17.7281, 12.8568, -58.3725, -10.898
0.93664, -1, 2.12705, 29.8615, 17.7947, 13.1732, -58.0014, -11.1352
0.944559, -1, 2.25899, 29.7443, 17.8387, 13.383, -57.755, -11.2925
0.950988, -1, 2.32462, 29.686, 17.8606, 13.4876, -57.6323, -11.3708
0.960532, -1, 2.51999, 29.5118, 17.9262, 13.8005, -57.2656, -11.6049
0.968558, -1, 2.58464, 29.4538, 17.948, 14.008, -57.0225, -11.7602
0.975906, -1, 2.71323, 29.3382, 17.9915, 14.1114, -56.9014, -11.8376
0.983961, -1, 2.84114, 29.2229, 18.0348, 14.3175, -56.66, -11.992
0.991965, -1, 2.96871, 29.108, 18.0778, 14.5227, -56.4197, -12.1459
0.999984, -1, 3.0962, 28.9936, 18.1207, 14.7274, -56.1805, -12.2992
1.00792, -1, 3.22374, 28.8798, 18.1633, 14.9309, -55.9421, -12.4517
1.01499, -1, 3.35112, 28.7665, 18.2059, 15.1337, -55.7047, -12.6036
1.02396, -1, 3.47818, 28.6537, 18.2484, 15.3359, -55.4682, -12.7548
1.03196, -1, 3.60496, 28.5414, 18.2907, 15.5375, -55.2326, -12.9053
1.03893, -1, 3.73153, 28.4293, 18.3329, 15.738, -54.9978, -13.0553
1.04791, -1, 3.85773, 28.3179, 18.3747, 15.9376, -54.7638, -13.2048
1.05591, -1, 3.98373, 28.2071, 18.4165, 16.1366, -54.5306, -13.354
1.06292, -1, 4.10933, 28.0968, 18.4581, 16.3347, -54.2981, -13.5024
1.07195, -1, 4.23456, 27.9868, 18.4994, 16.532, -54.0668, -13.65
1.07991, -1, 4.35906, 27.8773, 18.5408, 16.7285, -53.8365, -13.7971
1.08692, -1, 4.48279, 27.7681, 18.582, 16.9242, -53.6071, -13.9435
1.09591, -1, 4.60607, 27.6591, 18.6228, 17.1194, -53.3787, -14.0895
1.10391, -1, 4.72895, 27.5506, 18.6637, 17.3138, -53.151, -14.2349
1.11292, -1, 4.85102, 27.4426, 18.7042, 17.5073, -52.9244, -14.3799
1.11892, -1, 4.97233, 27.3349, 18.7447, 17.7003, -52.6985, -14.5246
1.12792, -1, 5.09308, 27.2276, 18.7852, 17.8923, -52.4736, -14.6683
1.13598, -1, 5.21286, 27.1207, 18.8253, 18.084, -52.2495, -14.8116
1.14392, -1, 5.33177, 27.0142, 18.8653, 18.2747, -52.0263, -14.9542
1.15195, -1, 5.44997, 26.9079, 18.9052, 18.4646, -51.8038, -15.0962
1.15992, -1, 5.56769, 26.8022, 18.945, 18.654, -51.5821, -15.2378
1.16791, -1, 5.68499, 26.697, 18.9846, 18.8426, -51.3609, -15.3791
1.17604, -1, 5.80194, 26.5923, 19.0241, 19.0309, -51.1409, -15.5198
1.18401, -1, 5.91872, 26.4879, 19.0634, 19.2183, -50.9214, -15.6603
1.19107, -1, 6.03524, 26.3838, 19.1026, 19.4049, -50.7026, -15.8001
1.19902, -1, 6.1517, 26.2801, 19.1416, 19.5909, -50.4848, -15.9392
1.20791, -1, 6.2681, 26.1766, 19.1804, 19.7762, -50.2677, -16.0779
1.21591, -1, 6.3845, 26.0733, 19.2191, 19.9608, -50.0513, -16.2162
1.22397, -1, 6.50079, 25.9706, 19.2577, 20.1448, -49.8358, -16.3539
1.23196, -1, 6.61682, 25.8682, 19.2962, 20.3279, -49.6209, -16.4915
1.24004, -1, 6.73254, 25.7661, 19.3345, 20.5106, -49.4069, -16.6287
1.24796, -1, 6.84778, 25.6645, 19.3726, 20.6929, -49.1937, -16.7653
1.2559, -1, 6.96261, 25.5632, 19.4107, 20.8744, -48.9813, -16.9011
1.26391, -1, 7.07695, 25.4622, 19.4488, 21.0552, -48.7699, -17.0367
1.27202, -1, 7.19078, 25.3616, 19.4866, 21.2354, -48.5592, -17.1714
1.27991, -1, 7.30416, 25.2615, 19.5243, 21.415, -48.3489, -17.3056
1.28797, -1, 7.41709, 25.1618, 19.562, 21.5943, -48.1392, -17.4397
1.29595, -1, 7.52949, 25.0625, 19.5995, 21.7726, -47.9302, -17.5732
1.30397, -1, 7.64144, 24.9634, 19.6369, 21.9504, -47.7219, -17.7064
1.31212, -1, 7.75276, 24.8646, 19.6742, 22.1278, -47.5141, -17.8393
1.31969, -1, 7.86361, 24.7661, 19.7112, 22.3046, -47.3068, -17.9715
1.32801, -1, 7.97409, 24.6678, 19.7482, 22.481, -47.1004, -18.1034
1.33608, -1, 8.08415, 24.5698, 19.7852, 22.6566, -46.8945, -18.2347
1.3441, -1, 8.19376, 24.472, 19.8217, 22.8316, -46.6894, -18.3656
1.35165, -1, 8.24838, 24.4233, 19.8399, 23.006, -46.4849, -18.4963
1.35999, -1, 8.41178, 24.2774, 19.8947, 23.1799, -46.2813, -18.6264
1.36691, -1, 8.46601, 24.229, 19.9129, 23.2667, -46.1797, -18.6914
1.37597, -1, 8.62772, 24.0839, 19.9672, 23.526, -45.876, -18.8858
1.38408, -1, 8.73501, 23.9876, 20.0034, 23.6982, -45.6745, -19.015
1.39092, -1, 8.7886, 23.9396, 20.0214, 23.784, -45.5739, -19.0793
1.40023, -1, 8.94938, 23.7962, 20.0752, 24.0411, -45.2733, -19.2715
1.40698, -1, 9.00292, 23.7485, 20.0932, 24.1266, -45.1735, -19.3354
1.41644, -1, 9.16347, 23.6063, 20.1468, 24.382, -44.8747, -19.5264
1.42443, -1, 9.2703, 23.5119, 20.1824, 24.5516, -44.676, -19.6533
1.43245, -1, 9.37691, 23.4177, 20.218, 24.7206, -44.4779, -19.78
1.44049, -1, 9.48326, 23.3238, 20.2535, 24.8892, -44.2803, -19.9062
1.44851, -1, 9.58927, 23.2299, 20.2887, 25.0574, -44.0832, -20.0323
1.45648, -1, 9.69503, 23.1364, 20.324, 25.225, -43.8867, -20.158
1.46466, -1, 9.74781, 23.0432, 20.359, 25.3921, -43.6907, -20.283
1.47263, -1, 9.90581, 22.9503, 20.3939, 25.5587, -43.4956, -20.4077
1.4799, -1, 9.95832, 22.9038, 20.4114, 25.6418, -43.3983, -20.4699
1.48789, -1, 10.063, 22.8112, 20.4462, 25.8079, -43.204, -20.594
1.49596, -1, 10.1672, 22.7189, 20.4808, 25.9735, -43.0103, -20.7179
1.50389, -1, 10.2711, 22.6269, 20.5154, 26.1385, -42.8172, -20.8414
1.51205, -1, 10.3746, 22.535, 20.55, 26.3029, -42.6245, -20.9647
1.51995, -1, 10.4777, 22.4434, 20.5844, 26.4669, -42.4325, -21.0877
1.52789, -1, 10.5805, 22.3521, 20.6187, 26.6305, -42.241, -21.2104
1.5359, -1, 10.683, 22.2611, 20.6531, 26.7937, -42.0498, -21.3324
1.54389, -1, 10.7853, 22.1704, 20.6872, 26.9563, -41.8597, -21.4543
1.55204, -1, 10.887, 22.0799, 20.7211, 27.1185, -41.6699, -21.5755
1.55994, -1, 10.9883, 21.9897, 20.7552, 27.28, -41.4806, -21.6965
1.56797, -1, 11.0892, 21.8997, 20.7891, 27.4415, -41.2916, -21.8172
1.5759, -1, 11.1899, 21.8099, 20.8228, 27.6024, -41.1032, -21.9375
1.58396, -1, 11.2904, 21.7202, 20.8565, 27.7628, -40.9152, -22.0575
1.59196, -1, 11.3906, 21.6308, 20.8901, 27.9229, -40.7278, -22.1774
1.60007, -1, 11.4903, 21.5417, 20.9235, 28.0823, -40.5408, -22.297
1.60789, -1, 11.5896, 21.4529, 20.9569, 28.2413, -40.3543, -22.4161
1.61699, -1, 11.6887, 21.3642, 20.9903, 28.4001, -40.1684, -22.5349
1.62479, -1, 11.7877, 21.276, 21.0234, 28.5585, -39.9829, -22.6532
1.63194, -1, 11.8865, 21.188, 21.0565, 28.7164, -39.7979, -22.7713
1.63989, -1, 11.9854, 21.1002, 21.0896, 28.8738, -39.6134, -22.889
1.65097, -1, 12.1336, 20.969, 21.139, 29.1092, -39.3376, -23.0653
1.65588, -1, 12.183, 20.9254, 21.1553, 29.1876, -39.2459, -23.124
1.66389, -1, 12.2815, 20.8383, 21.1881, 29.3441, -39.0627, -23.2409
1.67199, -1, 12.3797, 20.7515, 21.2209, 29.5001, -38.8804, -23.3578
1.67997, -1, 12.4777, 20.6648, 21.2535, 29.6557, -38.6982, -23.4744
1.68791, -1, 12.5755, 20.5783, 21.2859, 29.8107, -38.5164, -23.5903
1.69595, -1, 12.6732, 20.492, 21.3185, 29.9655, -38.3354, -23.7064
1.70388, -1, 12.7705, 20.4058, 21.3508, 30.1199, -38.1548, -23.8217
1.71194, -1, 12.8674, 20.3198, 21.3829, 30.274, -37.9748, -23.9366
1.71995, -1, 12.9641, 20.2339, 21.4151, 30.4276, -37.7953, -24.0517
1.7279, -1, 13.0606, 20.1483, 21.4474, 30.5807, -37.616, -24.1663
1.73592, -1, 13.1567, 20.0629, 21.4793, 30.7334, -37.4369, -24.2807
1.74395, -1, 13.2523, 19.9779, 21.5112, 30.886, -37.2583, -24.3949
1.75194, -1, 13.3477, 19.8929, 21.5433, 31.0382, -37.0801, -24.5089
1.7599, -1, 13.443, 19.8083, 21.5751, 31.19, -36.9022, -24.6227
1.76796, -1, 13.5379, 19.7239, 21.6068, 31.3414, -36.7246, -24.7359
1.77589, -1, 13.6328, 19.6396, 21.6385, 31.4924, -36.5477, -24.849
1.78389, -1, 13.7274, 19.5555, 21.6701, 31.6429, -36.3712, -24.9618
1.792, -1, 13.8218, 19.4716, 21.7016, 31.7934, -36.195, -25.0744
1.79992, -1, 13.9159, 19.3879, 21.733, 31.9435, -36.0192, -25.1868
1.80798, -1, 14.01, 19.3045, 21.7645, 32.0931, -35.8439, -25.2989
1.81604, -1, 14.1041, 19.2212, 21.7958, 32.2424, -35.669, -25.4108
1.82398, -1, 14.1979, 19.1382, 21.8268, 32.3913, -35.4945, -25.5227
1.83148, -1, 14.2913, 19.0553, 21.858, 32.5399, -35.3206, -25.6341
1.84006, -1, 14.3843, 18.9726, 21.8891, 32.6883, -35.1468, -25.7454
1.84808, -1, 14.477, 18.89, 21.9201, 32.8366, -34.9737, -25.8561
1.85555, -1, 14.5233, 18.8488, 21.9356, 32.9105, -34.801, -25.9666
1.86399, -1, 14.6616, 18.7254, 21.9821, 33.1316, -34.6287, -26.0769
1.87196, -1, 14.7535, 18.6434, 22.0128, 33.2786, -34.4568, -26.1866
1.87896, -1, 14.7995, 18.6024, 22.0281, 33.352, -34.371, -26.2416
1.88812, -1, 14.9369, 18.4799, 22.0742, 33.5718, -34.1136, -26.4057
1.8949, -1, 14.9827, 18.4391, 22.0896, 33.6449, -34.0281, -26.4605
1.90413, -1, 15.1198, 18.3172, 22.1354, 33.8636, -33.7718, -26.6242
1.91097, -1, 15.1654, 18.2767, 22.1507, 33.9363, -33.6866, -26.6789
1.92024, -1, 15.3022, 18.1554, 22.1964, 34.1538, -33.4313, -26.842
1.92694, -1, 15.3477, 18.115, 22.2116, 34.2262, -33.3462, -26.8961
1.93649, -1, 15.4845, 17.9941, 22.2571, 34.4432, -33.0921, -27.0584
1.94444, -1, 15.5755, 17.9137, 22.2873, 34.5875, -32.9232, -27.1663
1.95244, -1, 15.6663, 17.8334, 22.3176, 34.7314, -32.7549, -27.2736
1.9605, -1, 15.7568, 17.7534, 22.3477, 34.875, -32.5868, -27.3811
1.96844, -1, 15.8019, 17.7134, 22.3776, 35.0181, -32.419, -27.4882
1.9765, -1, 15.8922, 17.6335, 22.3926, 35.0896, -32.3352, -27.5953
1.98448, -1, 15.9822, 17.5537, 22.4226, 35.2324, -32.168, -27.6487
1.99187, -1, 16.072, 17.4741, 22.4526, 35.3752, -32.0011, -27.7558
1.99988, -1, 16.1614, 17.3947, 22.4823, 35.5175, -31.8346, -27.8623
2.00793, -1, 16.2506, 17.3154, 22.5121, 35.6594, -31.6682, -27.9688
2.01595, -1, 16.3395, 17.2362, 22.5419, 35.8012, -31.5023, -28.0747
2.02389, -1, 16.4282, 17.1573, 22.5715, 35.9425, -31.3369, -28.1805
2.03192, -1, 16.5167, 17.0785, 22.601, 36.0837, -31.1715, -28.2862
2.03987, -1, 16.6049, 16.9999, 22.6306, 36.2249, -31.0065, -28.3914
2.04688, -1, 16.6931, 16.9214, 22.6602, 36.3656, -30.8417, -28.4968
2.05587, -1, 16.7812, 16.8432, 22.6895, 36.5061, -30.6772, -28.6018
2.06399, -1, 16.8693, 16.7651, 22.7188, 36.6461, -30.5132, -28.7067
2.07194, -1, 16.9571, 16.6872, 22.7482, 36.7859, -30.3493, -28.8114
2.07987, -1, 17.0448, 16.6094, 22.7776, 36.9254, -30.186, -28.9162
2.08788, -1, 17.1323, 16.5317, 22.8068, 37.0649, -30.0227, -29.0205
2.09594, -1, 17.2193, 16.4544, 22.8359, 37.2039, -29.8598, -29.1245
2.10388, -1, 17.3039, 16.3785, 22.8647, 37.3426, -29.6972, -29.2284
2.11187, -1, 17.3843, 16.3058, 22.8927, 37.4799, -29.5363, -29.331
2.12099, -1, 17.4589, 16.2381, 22.9193, 37.6142, -29.3787, -29.4321
2.12796, -1, 17.5278, 16.1764, 22.9443, 37.7425, -29.2279, -29.5281
2.13688, -1, 17.5908, 16.121, 22.9672, 37.8611, -29.0886, -29.6175
2.14395, -1, 17.6468, 16.0718, 22.9877, 37.9665, -28.9647, -29.6964
2.15187, -1, 17.6962, 16.0281, 23.0053, 38.0543, -28.8606, -29.7634
2.15987, -1, 17.7401, 15.9884, 23.02, 38.1241, -28.7782, -29.8161
2.16794, -1, 17.7789, 15.9531, 23.032, 38.1747, -28.7175, -29.8548
2.17587, -1, 17.8115, 15.9239, 23.0411, 38.2087, -28.6766, -29.8811
2.18396, -1, 17.8377, 15.902, 23.0475, 38.2305, -28.6505, -29.8976
2.19199, -1, 17.8581, 15.8867, 23.0518, 38.243, -28.6353, -29.9067
2.19987, -1, 17.872, 15.8765, 23.0544, 38.2497, -28.6273, -29.9115
2.20788, -1, 17.8798, 15.8706, 23.0559, 38.253, -28.6233, -29.9139
2.21593, 2, 17.8834, 15.8675, 23.0566, 38.2545, -28.6215, -29.9149
2.22388, 2, 17.885, 15.8659, 23.0569, 38.2552, -28.6206, -29.9154
2.23187, 2, 17.8851, 15.8649, 23.0571, 38.2556, -28.6202, -29.9157
2.23996, 2, 17.8846, 15.8644, 23.0572, 38.2558, -28.62, -29.9158
2.24787, 2, 17.8841, 15.8641, 23.0572, 38.2558, -28.62, -29.9158
2.25597, 2, 17.8837, 15.864, 23.0572, 38.2559, -28.62, -29.9158
2.26395, 2, 17.8835, 15.8639, 23.0572, 38.2559, -28.62, -29.9158
2.27187, 2, 17.8833, 15.8638, 23.0572, 38.2559, -28.62, -29.9158
2.27987, 2, 17.8833, 15.8636, 23.0572, 38.2559, -28.62, -29.9159
2.28794, 2, 17.8834, 15.8635, 23.0572, 38.2559, -28.62, -29.9159
2.29588, 2, 17.8837, 15.8633, 23.0573, 38.2559, -28.6201, -29.9158
2.30391, 2, 17.8841, 15.8632, 23.0573, 38.2559, -28.62, -29.9159
2.31202, 2, 17.8845, 15.863, 23.0573, 38.2559, -28.62, -29.9159
2.31997, 2, 17.8852, 15.8629, 23.0573, 38.2559, -28.62, -29.9158
2.32797, 2, 17.8858, 15.8628, 23.0573, 38.2559, -28.62, -29.9158
2.33604, 2, 17.8862, 15.8627, 23.0573, 38.2559, -28.62, -29.9158
2.34399, 2, 17.8866, 15.8626, 23.0573, 38.2559, -28.62, -29.9158
2.35205, 2, 17.8868, 15.8626, 23.0573, 38.2559, -28.6201, -29.9158
2.35888, 2, 17.8869, 15.8626, 23.0573, 38.2559, -28.6201, -29.9159
2.3679, 2, 17.8871, 15.8626, 23.0573, 38.256, -28.6201, -29.9158
2.3759, 2, 17.8872, 15.8626, 23.0573, 38.2559, -28.6201, -29.9158
2.38432, 2, 17.8872, 15.8626, 23.0573, 38.2559, -28.6201, -29.9158
2.39109, 2, 17.8872, 15.8626, 23.0573, 38.2559, -28.6201, -29.9158
2.40006, 2, 17.8871, 15.8626, 23.0573, 38.2559, -28.6201, -29.9158
2.40686, 2, 17.887, 15.8626, 23.0573, 38.2559, -28.6202, -29.9158
2.4165, 2, 17.8868, 15.8625, 23.0573, 38.2559, -28.6202, -29.9158
2.42425, 2, 17.8867, 15.8625, 23.0573, 38.2559, -28.6202, -29.9158
2.43092, 2, 17.8867, 15.8625, 23.0573, 38.2559, -28.6202, -29.9158
2.44082, 2, 17.8866, 15.8625, 23.0573, 38.2559, -28.6202, -29.9158
2.44841, 2, 17.8867, 15.8625, 23.0573, 38.2559, -28.6203, -29.9158
2.45649, 2, 17.8866, 15.8624, 23.0573, 38.2559, -28.6203, -29.9158
2.46473, 2, 17.8866, 15.8625, 23.0573, 38.2559, -28.6203, -29.9158
2.47243, 2, 17.8866, 15.8624, 23.0573, 38.2559, -28.6203, -29.9158
2.4807, 2, 17.8866, 15.8625, 23.0573, 38.2559, -28.6203, -29.9158
2.48873, 2, 17.8866, 15.8625, 23.0573, 38.2559, -28.6204, -29.9158
2.49586, 2, 17.8866, 15.8625, 23.0573, 38.2559, -28.6204, -29.9158
2.504, 2, 17.8866, 15.8625, 23.0573, 38.2559, -28.6204, -29.9157
2.51284, 2, 17.8866, 15.8625, 23.0573, 38.2559, -28.6204, -29.9158
2.51993, 2, 17.8866, 15.8625, 23.0573, 38.2559, -28.6205, -29.9157
2.5279, 2, 17.8865, 15.8625, 23.0573, 38.2559, -28.6204, -29.9157
2.53586, 2, 17.8865, 15.8624, 23.0573, 38.2559, -28.6205, -29.9157
2.54387, 2, 17.8865, 15.8624, 23.0573, 38.2559, -28.6205, -29.9157
2.55197, 2, 17.8865, 15.8624, 23.0573, 38.2558, -28.6205, -29.9157
2.55985, 2, 17.8864, 15.8624, 23.0573, 38.2558, -28.6205, -29.9157
2.56787, 2, 17.8864, 15.8624, 23.0573, 38.2558, -28.6205, -29.9157
2.57593, 2, 17.8864, 15.8624, 23.0573, 38.2559, -28.6205, -29.9157
2.58386, 2, 17.8864, 15.8625, 23.0573, 38.2558, -28.6205, -29.9157
2.59185, 2, 17.8864, 15.8625, 23.0573, 38.2558, -28.6205, -29.9157
2.59992, 2, 17.8864, 15.8625, 23.0573, 38.2558, -28.6206, -29.9157
2.60969, 2, 17.8863, 15.8624, 23.0573, 38.2558, -28.6206, -29.9157
2.61585, 2, 17.8863, 15.8625, 23.0573, 38.2558, -28.6206, -29.9157
2.62393, 2, 17.8863, 15.8625, 23.0573, 38.2558, -28.6206, -29.9157
2.63386, 2, 17.8863, 15.8625, 23.0573, 38.2558, -28.6206, -29.9157
2.63985, 2, 17.8863, 15.8625, 23.0573, 38.2558, -28.6206, -29.9156
2.64792, 2, 17.8863, 15.8625, 23.0573, 38.2558, -28.6207, -29.9156
2.65585, 2, 17.8863, 15.8625, 23.0573, 38.2558, -28.6207, -29.9156
2.66387, 2, 17.8862, 15.8625, 23.0573, 38.2558, -28.6207, -29.9156
2.67192, 2, 17.8862, 15.8624, 23.0573, 38.2557, -28.6207, -29.9156
2.67985, 2, 17.8862, 15.8624, 23.0573, 38.2558, -28.6207, -29.9156
2.68792, 2, 17.8862, 15.8625, 23.0573, 38.2558, -28.6208, -29.9155
2.69594, 2, 17.8862, 15.8625, 23.0573, 38.2558, -28.6208, -29.9156
2.70386, 2, 17.8861, 15.8625, 23.0573, 38.2557, -28.6208, -29.9156
2.71185, 2, 17.8861, 15.8624, 23.0573, 38.2558, -28.6208, -29.9155
2.71992, 2, 17.886, 15.8625, 23.0573, 38.2557, -28.6208, -29.9155
2.72785, 2, 17.886, 15.8625, 23.0573, 38.2558, -28.6208, -29.9155
2.73585, 2, 17.886, 15.8625, 23.0573, 38.2557, -28.6208, -29.9155
2.74395, 2, 17.886, 15.8625, 23.0573, 38.2557, -28.6208, -29.9155
2.75185, 2, 17.8859, 15.8625, 23.0573, 38.2557, -28.6208, -29.9155
2.75985, 2, 17.8859, 15.8625, 23.0573, 38.2556, -28.6208, -29.9155
2.76791, 2, 17.8858, 15.8625, 23.0573, 38.2556, -28.6208, -29.9155
2.77585, 2, 17.8858, 15.8625, 23.0573, 38.2557, -28.6208, -29.9155
2.78386, 2, 17.8858, 15.8625, 23.0573, 38.2557, -28.6209, -29.9155
2.79192, 2, 17.8857, 15.8625, 23.0573, 38.2557, -28.6209, -29.9155
2.79986, 2, 17.8857, 15.8625, 23.0573, 38.2557, -28.621, -29.9155
2.80789, 2, 17.8856, 15.8625, 23.0573, 38.2556, -28.621, -29.9155
2.816, 2, 17.8856, 15.8625, 23.0573, 38.2556, -28.621, -29.9153
2.82396, 2, 17.8856, 15.8625, 23.0573, 38.2557, -28.621, -29.9153
2.83195, 2, 17.8855, 15.8625, 23.0573, 38.2556, -28.621, -29.9153
2.84002, 2, 17.8855, 15.8625, 23.0573, 38.2556, -28.621, -29.9154
2.84796, 2, 17.8854, 15.8625, 23.0573, 38.2556, -28.621, -29.9153
2.85603, 2, 17.8853, 15.8625, 23.0573, 38.2556, -28.621, -29.9153
2.86399, 2, 17.8853, 15.8625, 23.0573, 38.2556, -28.6211, -29.9152
2.87188, 2, 17.8853, 15.8625, 23.0573, 38.2556, -28.6211, -29.9152
2.87892, 2, 17.8852, 15.8625, 23.0573, 38.2556, -28.6212, -29.9152
2.88794, 2, 17.8852, 15.8625, 23.0573, 38.2556, -28.6211, -29.9152
2.89486, 2, 17.8851, 15.8625, 23.0573, 38.2556, -28.6211, -29.9151
2.90415, 2, 17.885, 15.8625, 23.0573, 38.2555, -28.6211, -29.9151
2.91085, 2, 17.885, 15.8625, 23.0573, 38.2555, -28.6211, -29.9151
2.92019, 2, 17.8849, 15.8625, 23.0573, 38.2555, -28.6212, -29.9151
2.92691, 2, 17.8849, 15.8625, 23.0573, 38.2555, -28.6212, -29.915
2.93642, 2, 17.8848, 15.8625, 23.0573, 38.2555, -28.6212, -29.915
2.94439, 2, 17.8848, 15.8625, 23.0573, 38.2555, -28.6212, -29.915
2.95262, 2, 17.8847, 15.8625, 23.0573, 38.2555, -28.6212, -29.915
2.96043, 2, 17.8846, 15.8625, 23.0573, 38.2555, -28.6212, -29.915
2.96841, 2, 17.8846, 15.8625, 23.0573, 38.2555, -28.6212, -29.915
2.97648, 2, 17.8846, 15.8625, 23.0573, 38.2554, -28.6212, -29.9149
2.9845, 2, 17.8846, 15.8625, 23.0573, 38.2554, -28.6212, -29.915
2.99184, 2, 17.8845, 15.8625, 23.0573, 38.2554, -28.6212, -29.915
2.99984, 2, 17.8845, 15.8625, 23.0573, 38.2554, -28.6212, -29.9149
3.00789, 2, 17.8844, 15.8625, 23.0573, 38.2553, -28.6212, -29.9149
3.01584, 2, 17.8844, 15.8625, 23.0573, 38.2552, -28.6212, -29.9149
3.02393, 2, 17.8844, 15.8625, 23.0573, 38.2552, -28.6212, -29.9149
3.03189, 2, 17.8843, 15.8625, 23.0573, 38.2552, -28.6212, -29.9149
3.03983, 2, 17.8842, 15.8625, 23.0573, 38.2552, -28.6212, -29.9149
3.04784, 2, 17.8842, 15.8625, 23.0573, 38.2552, -28.6213, -29.9149
3.05589, 2, 17.8842, 15.8625, 23.0573, 38.2552, -28.6212, -29.9148
3.06385, 2, 17.8841, 15.8625, 23.0573, 38.2552, -28.6213, -29.9149
3.07184, 2, 17.8841, 15.8625, 23.0573, 38.2551, -28.6213, -29.9149
3.07998, 2, 17.8841, 15.8626, 23.0573, 38.2552, -28.6213, -29.9149
3.08783, 2, 17.8841, 15.8626, 23.0573, 38.2551, -28.6213, -29.9149
3.09584, 2, 17.8841, 15.8626, 23.0573, 38.2551, -28.6213, -29.9149
3.1054, 2, 17.8841, 15.8625, 23.0573, 38.2551, -28.6213, -29.9149
3.11184, 2, 17.884, 15.8625, 23.0573, 38.2551, -28.6213, -29.9148
3.12084, 2, 17.884, 15.8626, 23.0573, 38.2551, -28.6214, -29.9148
3.1279, 2, 17.884, 15.8626, 23.0573, 38.2551, -28.6214, -29.9148
3.13689, 2, 17.884, 15.8626, 23.0573, 38.255, -28.6213, -29.9148
3.14385, 2, 17.884, 15.8626, 23.0573, 38.255, -28.6214, -29.9148
3.1519, 2, 17.8839, 15.8626, 23.0573, 38.255, -28.6214, -29.9148
3.15983, 2, 17.8839, 15.8626, 23.0573, 38.255, -28.6214, -29.9149
3.16784, 2, 17.8839, 15.8625, 23.0573, 38.2549, -28.6214, -29.9148
3.1759, 2, 17.8839, 15.8626, 23.0573, 38.2549, -28.6214, -29.9148
3.18385, 2, 17.8839, 15.8626, 23.0573, 38.2549, -28.6214, -29.9148
3.19192, 2, 17.8839, 15.8626, 23.0573, 38.2549, -28.6214, -29.9149
3.1999, 2, 17.8839, 15.8626, 23.0573, 38.2549, -28.6214, -29.9149
3.20783, 2, 17.8839, 15.8626, 23.0573, 38.2549, -28.6214, -29.9149
3.21666, 2, 17.8839, 15.8626, 23.0573, 38.2549, -28.6214, -29.9148
3.22483, 2, 17.8839, 15.8626, 23.0573, 38.2549, -28.6214, -29.9149
3.23184, 2, 17.8839, 15.8626, 23.0573, 38.2549, -28.6215, -29.9149
3.23984, 2, 17.8839, 15.8626, 23.0573, 38.2548, -28.6214, -29.9149
3.24791, 2, 17.8838, 15.8626, 23.0573, 38.2548, -28.6214, -29.9149
3.25584, 2, 17.8838, 15.8626, 23.0573, 38.2549, -28.6214, -29.9148
3.26385, 2, 17.8838, 15.8626, 23.0573, 38.2548, -28.6215, -29.9148
3.27198, 2, 17.8838, 15.8626, 23.0573, 38.2548, -28.6215, -29.9149
3.27983, 2, 17.8838, 15.8626, 23.0573, 38.2547, -28.6214, -29.9148
3.28783, 2, 17.8837, 15.8626, 23.0573, 38.2547, -28.6215, -29.9148
3.29587, 4, 17.8837, 15.8626, 23.0573, 38.2547, -28.6215, -29.9148
3.30386, 4, 17.8837, 15.8626, 23.0573, 38.2546, -28.6214, -29.9148
3.31188, 4, 17.8837, 15.8626, 23.0573, 38.2547, -28.6214, -29.9148
3.31998, 4, 17.8837, 15.8626, 23.0573, 38.2547, -28.6214, -29.9148
3.32793, 4, 17.8837, 15.8626, 23.0573, 38.2547, -28.6215, -29.9148
3.33594, 4, 17.8837, 15.8626, 23.0573, 38.2547, -28.6215, -29.9148
3.34401, 4, 17.8837, 15.8626, 23.0573, 38.2547, -28.6215, -29.9148
3.35194, 4, 17.8837, 15.8626, 23.0573, 38.2546, -28.6215, -29.9148
3.36002, 4, 17.8837, 15.8626, 23.0573, 38.2546, -28.6215, -29.9148
3.36809, 4, 17.8837, 15.8627, 23.0573, 38.2546, -28.6215, -29.9147
3.37484, 4, 17.8837, 15.8626, 23.0573, 38.2546, -28.6215, -29.9147
3.38388, 4, 17.8837, 15.8626, 23.0573, 38.2546, -28.6215, -29.9147
3.392, 4, 17.8836, 15.8626, 23.0573, 38.2545, -28.6215, -29.9147
3.39899, 4, 17.8836, 15.8626, 23.0573, 38.2545, -28.6215, -29.9148
3.42172, 4, 17.8836, 15.8627, 23.0573, 38.2545, -28.6215, -29.9147
3.42304, 4, 17.8836, 15.8627, 23.0573, 38.2545, -28.6215, -29.9147
3.42513, 4, 17.8836, 15.8626, 23.0573, 38.2545, -28.6215, -29.9147
3.43222, 4, 17.8836, 15.8627, 23.0573, 38.2544, -28.6215, -29.9147
3.44039, 4, 17.8835, 15.8627, 23.0573, 38.2544, -28.6215, -29.9147
3.44878, 4, 17.8835, 15.8627, 23.0573, 38.2544, -28.6215, -29.9147
3.45637, 4, 17.8834, 15.8627, 23.0573, 38.2544, -28.6215, -29.9147
3.46447, 4, 17.8829, 15.8627, 23.0573, 38.2544, -28.6215, -29.9146
3.47246, 4, 17.882, 15.8626, 23.0573, 38.254, -28.6216, -29.9145
3.48042, 4, 17.8791, 15.8626, 23.0575, 38.2516, -28.6221, -29.9132
3.4885, 4, 17.8748, 15.8625, 23.0585, 38.2488, -28.6227, -29.9088
3.49583, 4, 17.8701, 15.8622, 23.0609, 38.2387, -28.6255, -29.9046
3.50383, 4, 17.8649, 15.8615, 23.0653, 38.2215, -28.6311, -29.8907
3.51193, 4, 17.8587, 15.8601, 23.0724, 38.1965, -28.6396, -29.8691
3.51982, 5, 17.8519, 15.8582, 23.0823, 38.1632, -28.6511, -29.8399
3.5279, 5, 17.845, 15.8557, 23.0947, 38.1214, -28.6653, -29.8032
3.53582, 5, 17.8377, 15.8528, 23.109, 38.0736, -28.6817, -29.7606
3.54383, 5, 17.8289, 15.8497, 23.1244, 38.0229, -28.6994, -29.715
3.55194, 5, 17.8184, 15.8463, 23.1405, 37.969, -28.7181, -29.6678
3.55982, 5, 17.8068, 15.8428, 23.157, 37.9147, -28.7375, -29.6191
3.56783, 5, 17.7947, 15.8393, 23.1733, 37.8603, -28.7574, -29.5698
3.57587, 5, 17.7822, 15.8357, 23.1899, 37.8045, -28.7776, -29.5212
3.58384, 5, 17.7695, 15.832, 23.2068, 37.7502, -28.7975, -29.4726
3.59183, 5, 17.7567, 15.8281, 23.2235, 37.695, -28.8171, -29.4235
3.59986, 5, 17.7438, 15.8243, 23.2401, 37.6398, -28.8367, -29.3743
3.60783, 5, 17.731, 15.8203, 23.2569, 37.5854, -28.8564, -29.3259
3.61492, 5, 17.7182, 15.8162, 23.2737, 37.5299, -28.8763, -29.2773
3.6239, 5, 17.7053, 15.8121, 23.2902, 37.4756, -28.8968, -29.2283
3.63298, 5, 17.6924, 15.8081, 23.307, 37.4212, -28.9175, -29.1796
3.63982, 5, 17.6794, 15.8041, 23.324, 37.3661, -28.9379, -29.1316
3.6479, 5, 17.6663, 15.8003, 23.3406, 37.3122, -28.9581, -29.0834
3.65582, 5, 17.6532, 15.7964, 23.3572, 37.2574, -28.9781, -29.0346
3.66389, 5, 17.6404, 15.7927, 23.3739, 37.203, -28.9981, -28.9863
3.67182, 5, 17.6276, 15.7888, 23.3906, 37.1493, -29.0183, -28.9385
3.67984, 5, 17.6149, 15.785, 23.4072, 37.0942, -29.039, -28.8904
3.68789, 5, 17.6023, 15.7812, 23.4241, 37.0404, -29.0598, -28.8417
3.69587, 5, 17.5895, 15.7774, 23.441, 36.986, -29.0803, -28.7936
3.70383, 5, 17.5767, 15.7736, 23.4577, 36.9314, -29.1006, -28.7459
3.71189, 5, 17.5641, 15.7699, 23.4745, 36.878, -29.1206, -28.6978
3.71983, 5, 17.5514, 15.7661, 23.4912, 36.8235, -29.1406, -28.6495
3.72782, 5, 17.5388, 15.7622, 23.5076, 36.7697, -29.1609, -28.602
3.7359, 5, 17.5261, 15.7583, 23.5242, 36.7162, -29.1814, -28.5545
3.74387, 5, 17.5133, 15.7544, 23.541, 36.6617, -29.2023, -28.5066
3.75182, 5, 17.5004, 15.7504, 23.5577, 36.6088, -29.223, -28.4586
3.75994, 5, 17.4874, 15.7464, 23.5742, 36.5553, -29.2435, -28.4114
3.76782, 5, 17.4744, 15.7426, 23.5909, 36.5013, -29.2639, -28.3645
3.77582, 5, 17.4615, 15.7388, 23.6076, 36.4487, -29.2841, -28.3171
3.78394, 5, 17.4487, 15.7351, 23.624, 36.3949, -29.3045, -28.2695
3.79182, 5, 17.436, 15.7314, 23.6407, 36.3416, -29.3252, -28.2228
3.79983, 5, 17.4231, 15.7277, 23.6575, 36.2891, -29.3463, -28.1761
3.80864, 5, 17.4103, 15.7239, 23.674, 36.2352, -29.3671, -28.1288
3.81588, 5, 17.3976, 15.7202, 23.6905, 36.1824, -29.3876, -28.0816
3.82391, 5, 17.3848, 15.7165, 23.7071, 36.1294, -29.4079, -28.0353
3.83271, 5, 17.372, 15.7128, 23.7235, 36.0756, -29.4281, -27.989
3.83993, 5, 17.3592, 15.7092, 23.74, 36.0232, -29.4485, -27.9421
3.84792, 5, 17.3463, 15.7055, 23.7567, 35.97, -29.4692, -27.8952
3.85671, 5, 17.3336, 15.7018, 23.7734, 35.9168, -29.4903, -27.849
3.86393, 5, 17.3208, 15.6981, 23.7899, 35.8647, -29.5113, -27.8027
3.87183, 5, 17.308, 15.6943, 23.8065, 35.8114, -29.532, -27.7558
3.88075, 5, 17.2952, 15.6905, 23.823, 35.7589, -29.5526, -27.7091
3.88786, 5, 17.2824, 15.6867, 23.8393, 35.707, -29.573, -27.6631
3.8959, 5, 17.2694, 15.6829, 23.8556, 35.654, -29.5936, -27.617
3.90493, 5, 17.2566, 15.6792, 23.8722, 35.602, -29.6144, -27.5704
3.91205, 5, 17.2438, 15.6756, 23.8887, 35.5497, -29.6356, -27.524
3.91881, 5, 17.2374, 15.6738, 23.8969, 35.5231, -29.6462, -27.5011
3.92824, 5, 17.2182, 15.6685, 23.9216, 35.4454, -29.6773, -27.4325
3.93494, 5, 17.2118, 15.6667, 23.9299, 35.4193, -29.6877, -27.4095
3.94433, 5, 17.1921, 15.6613, 23.9543, 35.3404, -29.7182, -27.3402
3.95239, 5, 17.1791, 15.6578, 23.9707, 35.2888, -29.7388, -27.2947
3.9604, 5, 17.1661, 15.6543, 23.9873, 35.2361, -29.7596, -27.2494
3.9684, 5, 17.1532, 15.6509, 24.0037, 35.1841, -29.7809, -27.2036
3.97641, 5, 17.1467, 15.6475, 24.02, 35.1326, -29.8022, -27.1578
3.98288, 5, 17.1339, 15.6458, 24.0281, 35.1063, -29.8127, -27.1351
3.99241, 5, 17.121, 15.6424, 24.0446, 35.054, -29.8336, -27.0902
3.99982, 5, 17.1081, 15.6389, 24.0608, 35.0029, -29.8543, -27.0448
4.00691, 5, 17.0953, 15.6353, 24.0769, 34.9505, -29.875, -26.9989
4.01585, 5, 17.0825, 15.6317, 24.0934, 34.899, -29.896, -26.9537
4.02381, 5, 17.0696, 15.6281, 24.1099, 34.8481, -29.9173, -26.9089
4.03081, 5, 17.0569, 15.6244, 24.1261, 34.796, -29.9388, -26.864
4.03981, 5, 17.0439, 15.6209, 24.1425, 34.745, -29.9599, -26.8188
4.04781, 5, 17.031, 15.6174, 24.1588, 34.694, -29.9808, -26.7736
4.05486, 5, 17.0181, 15.6139, 24.1748, 34.6421, -30.0015, -26.729
4.0638, 5, 17.0052, 15.6105, 24.1908, 34.5914, -30.0222, -26.6843
4.07179, 5, 16.9923, 15.6072, 24.2072, 34.5403, -30.0433, -26.6389
4.07985, 5, 16.9795, 15.6038, 24.2235, 34.4885, -30.0648, -26.5937
4.0878, 5, 16.9666, 15.6005, 24.2396, 34.4381, -30.0864, -26.5493
4.09585, 5, 16.9536, 15.5971, 24.2559, 34.3866, -30.1077, -26.5048
4.10387, 5, 16.9407, 15.5938, 24.2722, 34.3351, -30.1289, -26.4598
4.1118, 5, 16.9278, 15.5906, 24.2882, 34.2848, -30.1499, -26.4148
4.12082, 5, 16.9149, 15.5873, 24.3042, 34.2335, -30.1709, -26.3706
4.1268, 5, 16.9019, 15.5841, 24.3206, 34.1825, -30.1922, -26.3264
4.13588, 5, 16.8889, 15.5807, 24.3368, 34.1322, -30.214, -26.2816
4.14481, 5, 16.8757, 15.5774, 24.3528, 34.0809, -30.2357, -26.2368
4.15082, 5, 16.8627, 15.574, 24.3688, 34.0305, -30.257, -26.1928
4.1598, 5, 16.8498, 15.5705, 24.3849, 33.9806, -30.2781, -26.1489
4.16782, 5, 16.8368, 15.567, 24.4007, 33.9296, -30.2991, -26.1046
4.17581, 5, 16.8239, 15.5635, 24.4167, 33.8794, -30.3202, -26.06
4.1838, 5, 16.8109, 15.5601, 24.4329, 33.8293, -30.3417, -26.0162
4.19187, 5, 16.7979, 15.5568, 24.449, 33.7785, -30.3634, -25.9726
4.19985, 5, 16.785, 15.5535, 24.4649, 33.7288, -30.3853, -25.9288
4.2078, 5, 16.7722, 15.5503, 24.481, 33.6788, -30.4067, -25.8844
4.21588, 5, 16.7593, 15.5472, 24.497, 33.628, -30.4281, -25.8407
4.2238, 5, 16.7464, 15.544, 24.5126, 33.5784, -30.4493, -25.7974
4.2318, 5, 16.7334, 15.5409, 24.5285, 33.5281, -30.4707, -25.7541
4.23988, 5, 16.7202, 15.5378, 24.5446, 33.4776, -30.4923, -25.7103
4.2478, 5, 16.7071, 15.5347, 24.5605, 33.4284, -30.5142, -25.6667
4.25581, 5, 16.6941, 15.5317, 24.5764, 33.3782, -30.5358, -25.6237
4.26391, 5, 16.6809, 15.5287, 24.5924, 33.3281, -30.5573, -25.5805
4.2718, 5, 16.6679, 15.5257, 24.6084, 33.279, -30.5786, -25.5368
4.2798, 5, 16.655, 15.5227, 24.624, 33.2289, -30.5998, -25.4931
4.28788, 5, 16.6419, 15.5196, 24.6399, 33.1793, -30.6212, -25.4501
4.29581, 5, 16.6288, 15.5165, 24.656, 33.1306, -30.6432, -25.4072
4.30387, 5, 16.616, 15.5134, 24.6719, 33.0807, -30.6653, -25.3639
4.31197, 5, 16.603, 15.5102, 24.6875, 33.0314, -30.6872, -25.3205
4.31989, 5, 16.5901, 15.507, 24.7033, 32.9827, -30.7089, -25.2774
4.32795, 5, 16.5772, 15.5038, 24.7192, 32.9328, -30.7304, -25.2348
4.33617, 5, 16.5641, 15.5006, 24.7347, 32.8837, -30.7519, -25.1918
4.34344, 5, 16.5511, 15.4976, 24.7504, 32.8353, -30.7737, -25.1485
4.35199, 5, 16.5382, 15.4946, 24.7664, 32.7855, -30.796, -25.1056
4.36033, 5, 16.5252, 15.4916, 24.7823, 32.7366, -30.8181, -25.0632
4.36799, 5, 16.5123, 15.4887, 24.7979, 32.6881, -30.8399, -25.0209
4.3759, 5, 16.4993, 15.4859, 24.8137, 32.6382, -30.8615, -24.9781
4.38471, 5, 16.4863, 15.4829, 24.8294, 32.5896, -30.883, -24.9353
4.392, 5, 16.4733, 15.48, 24.8449, 32.5411, -30.9045, -24.8932
4.39995, 5, 16.4603, 15.4773, 24.8605, 32.4915, -30.9265, -24.8513
4.40879, 5, 16.4473, 15.4744, 24.8764, 32.4431, -30.9489, -24.809
4.41641, 5, 16.4343, 15.4715, 24.8922, 32.3947, -30.971, -24.7664
4.42408, 5, 16.4212, 15.4687, 24.9077, 32.3454, -30.9929, -24.7244
4.4309, 5, 16.4145, 15.4673, 24.9156, 32.3213, -31.0038, -24.7036
4.43879, 5, 16.4013, 15.4645, 24.9314, 32.2735, -31.0255, -24.662
4.44837, 5, 16.3817, 15.4602, 24.9548, 32.2003, -31.0582, -24.5988
4.45711, 5, 16.3686, 15.4573, 24.9703, 32.1523, -31.0805, -24.5567
4.46281, 5, 16.3621, 15.4558, 24.9782, 32.1285, -31.0917, -24.5358
4.47233, 5, 16.3425, 15.4514, 25.0019, 32.0554, -31.1249, -24.4734
4.48113, 5, 16.3359, 15.4499, 25.0174, 32.0078, -31.1467, -24.4312
4.48679, 5, 16.3228, 15.4468, 25.0251, 31.9841, -31.1575, -24.4099
4.49579, 5, 16.3098, 15.4438, 25.0408, 31.9355, -31.1791, -24.3677
4.50381, 5, 16.2968, 15.4408, 25.0563, 31.8871, -31.201, -24.3262
4.51092, 5, 16.2837, 15.4378, 25.0716, 31.8396, -31.2234, -24.2845
4.52093, 5, 16.2639, 15.4335, 25.0952, 31.7668, -31.2572, -24.2214
4.5278, 5, 16.2573, 15.4321, 25.1031, 31.7429, -31.2684, -24.2004
4.53486, 5, 16.244, 15.4293, 25.1187, 31.6957, -31.2904, -24.159
4.54379, 5, 16.2308, 15.4266, 25.1342, 31.6473, -31.3124, -24.1177
4.55197, 5, 16.2175, 15.4239, 25.1498, 31.5992, -31.3344, -24.0761
4.55881, 5, 16.2043, 15.4212, 25.1652, 31.5521, -31.3568, -24.0342
4.56779, 5, 16.1912, 15.4186, 25.1805, 31.504, -31.3794, -23.9926
4.57595, 5, 16.178, 15.4159, 25.1959, 31.4563, -31.4021, -23.9516
4.58394, 5, 16.1649, 15.4133, 25.2115, 31.4096, -31.4243, -23.9106
4.59176, 5, 16.152, 15.4107, 25.2271, 31.3618, -31.4463, -23.8691
4.59885, 5, 16.1389, 15.4081, 25.2425, 31.3142, -31.4681, -23.8276
4.60779, 5, 16.1258, 15.4056, 25.2581, 31.2677, -31.4902, -23.7868
4.61578, 5, 16.1128, 15.4031, 25.2735, 31.22, -31.5129, -23.7461
4.62386, 5, 16.0996, 15.4005, 25.2887, 31.1725, -31.5359, -23.7051
4.63284, 5, 16.0864, 15.398, 25.3041, 31.1262, -31.5585, -23.6637
4.63979, 5, 16.0734, 15.3954, 25.3198, 31.0787, -31.5809, -23.6228
4.64785, 5, 16.0603, 15.3928, 25.3353, 31.0312, -31.6032, -23.5824
4.6558, 5, 16.0471, 15.3902, 25.3505, 30.9848, -31.6253, -23.5421
4.66383, 5, 16.034, 15.3875, 25.3659, 30.9374, -31.6479, -23.5014
4.6718, 5, 16.0208, 15.3848, 25.3812, 30.8898, -31.671, -23.4604
4.67979, 5, 16.0076, 15.3821, 25.3963, 30.8436, -31.6938, -23.4199
4.68782, 5, 15.9945, 15.3794, 25.4115, 30.7966, -31.7163, -23.3798
4.69581, 5, 15.9814, 15.3768, 25.4271, 30.7493, -31.7386, -23.3394
4.70435, 5, 15.9683, 15.3742, 25.4426, 30.7031, -31.7608, -23.2984
4.71178, 5, 15.9551, 15.3716, 25.4578, 30.6563, -31.7832, -23.258
4.71979, 5, 15.9418, 15.3692, 25.4731, 30.6092, -31.8061, -23.2179
4.73042, 5, 15.9285, 15.3668, 25.496, 30.5405, -31.8407, -23.1577
4.73578, 5, 15.9154, 15.3644, 25.5035, 30.5172, -31.852, -23.1374
4.74384, 5, 15.9022, 15.362, 25.5184, 30.4702, -31.8746, -23.0968
4.75178, 5, 15.889, 15.3596, 25.5337, 30.4243, -31.897, -23.0569
4.75979, 5, 15.8759, 15.3573, 25.5492, 30.3782, -31.9195, -23.0172
4.76788, 5, 15.8627, 15.355, 25.5644, 30.3314, -31.9423, -22.9775
4.77578, 5, 15.8495, 15.3527, 25.5795, 30.2857, -31.9655, -22.9372
4.78378, 5, 15.8364, 15.3503, 25.5948, 30.24, -31.9884, -22.897
4.79185, 5, 15.8233, 15.348, 25.61, 30.1932, -32.011, -22.8575
4.79978, 5, 15.8101, 15.3457, 25.625, 30.1473, -32.0334, -22.8182
4.80785, 5, 15.7969, 15.3434, 25.6402, 30.1017, -32.0557, -22.7787
4.81589, 5, 15.7835, 15.3411, 25.6556, 30.055, -32.0783, -22.7387
4.82388, 5, 15.7702, 15.3388, 25.6708, 30.0091, -32.1014, -22.6992
4.83193, 5, 15.7569, 15.3365, 25.6857, 29.9639, -32.1246, -22.6602
4.83988, 5, 15.7436, 15.3342, 25.7008, 29.9174, -32.1474, -22.6213
4.84789, 5, 15.7304, 15.3318, 25.7158, 29.8715, -32.1701, -22.5818
4.85602, 5, 15.7172, 15.3294, 25.7307, 29.8266, -32.1927, -22.542
4.86384, 5, 15.7038, 15.327, 25.7457, 29.7806, -32.2153, -22.503
4.87183, 5, 15.6906, 15.3246, 25.761, 29.7348, -32.2383, -22.4643
4.87987, 5, 15.6775, 15.3221, 25.7763, 29.6902, -32.2615, -22.4256
4.88786, 5, 15.6643, 15.3197, 25.7913, 29.6447, -32.2845, -22.3864
4.89594, 5, 15.651, 15.3173, 25.8063, 29.5989, -32.3071, -22.3472
4.90396, 5, 15.6377, 15.3149, 25.8214, 29.5542, -32.3297, -22.3085
4.91195, 5, 15.6243, 15.3126, 25.8362, 29.5091, -32.3522, -22.2699
4.91878, 5, 15.6176, 15.3114, 25.8436, 29.4861, -32.3636, -22.2507
4.92807, 5, 15.5977, 15.3081, 25.866, 29.4187, -32.3986, -22.192
4.93487, 5, 15.5911, 15.307, 25.8736, 29.3965, -32.4103, -22.1723
4.94432, 5, 15.5712, 15.3038, 25.8961, 29.3282, -32.4451, -22.1145
4.95239, 5, 15.558, 15.3017, 25.911, 29.2834, -32.4679, -22.0763
4.96035, 5, 15.5446, 15.2996, 25.9261, 29.2388, -32.4907, -22.0376
4.9684, 5, 15.5314, 15.2975, 25.941, 29.1931, -32.5138, -21.9985
4.97634, 5, 15.5182, 15.2954, 25.9558, 29.1481, -32.5373, -21.9599
4.98434, 5, 15.5115, 15.2944, 25.9632, 29.1038, -32.5608, -21.9218
4.99249, 5, 15.4983, 15.2924, 25.9859, 29.0586, -32.584, -21.8836
4.99883, 5, 15.485, 15.2904, 25.9934, 29.0359, -32.5955, -21.8644
5.0088, 5, 15.4648, 15.2874, 26.0155, 28.9695, -32.6296, -21.8064
5.01578, 5, 15.4581, 15.2864, 26.0229, 28.9472, -32.641, -21.7871
5.02377, 5, 15.4448, 15.2844, 26.0378, 28.902, -32.6641, -21.7492
5.03182, 5, 15.4314, 15.2824, 26.0526, 28.8577, -32.6877, -21.7114
5.03982, 5, 15.4181, 15.2804, 26.0673, 28.814, -32.7113, -21.6736
5.04778, 5, 15.4048, 15.2785, 26.0821, 28.7692, -32.7345, -21.635
5.05582, 5, 15.3913, 15.2764, 26.0973, 28.7246, -32.7575, -21.5969
5.06377, 5, 15.378, 15.2744, 26.1122, 28.681, -32.7805, -21.5595
5.07176, 5, 15.3647, 15.2724, 26.1268, 28.6365, -32.8036, -21.5221
5.07984, 5, 15.3514, 15.2704, 26.1416, 28.5919, -32.8273, -21.4844
5.08778, 5, 15.338, 15.2683, 26.1564, 28.5484, -32.851, -21.4461
5.09577, 5, 15.3246, 15.2662, 26.171, 28.5044, -32.8743, -21.4082
5.10386, 5, 15.311, 15.2641, 26.1855, 28.4596, -32.8973, -21.3711
5.11177, 5, 15.2975, 15.2621, 26.2004, 28.4158, -32.9203, -21.3339
5.12077, 5, 15.284, 15.26, 26.2153, 28.3721, -32.9434, -21.2967
5.12784, 5, 15.2705, 15.2579, 26.23, 28.3274, -32.9669, -21.259
5.13577, 5, 15.2571, 15.2559, 26.2446, 28.2836, -32.9909, -21.2215
5.14376, 5, 15.2437, 15.2538, 26.2594, 28.2404, -33.0145, -21.1844
5.15183, 5, 15.2303, 15.2517, 26.2741, 28.196, -33.0378, -21.1473
5.15979, 5, 15.2169, 15.2497, 26.2886, 28.1518, -33.0611, -21.1101
5.1678, 6, 15.2037, 15.2478, 26.3033, 28.1087, -33.0843, -21.0723
5.17576, 6, 15.1903, 15.2459, 26.3181, 28.0649, -33.1078, -21.0348
5.18378, 6, 15.1769, 15.244, 26.3328, 28.0209, -33.1317, -20.9979
5.19183, 6, 15.1635, 15.2422, 26.3473, 27.978, -33.1554, -20.9611
5.19976, 6, 15.1499, 15.2404, 26.3619, 27.9349, -33.1787, -20.9241
5.20782, 6, 15.1365, 15.2387, 26.3764, 27.891, -33.2018, -20.8866
5.21583, 6, 15.1231, 15.237, 26.3908, 27.8479, -33.2249, -20.8494
5.22377, 6, 15.1097, 15.2353, 26.4053, 27.8053, -33.2484, -20.8128
5.23177, 6, 15.0963, 15.2336, 26.42, 27.7616, -33.2723, -20.7761
5.23984, 6, 15.0829, 15.2319, 26.4349, 27.7182, -33.2962, -20.7394
5.24776, 6, 15.0694, 15.2302, 26.4495, 27.6757, -33.3198, -20.7022
5.25577, 6, 15.0561, 15.2285, 26.4639, 27.6326, -33.3431, -20.6654
5.26384, 6, 15.0427, 15.2268, 26.4785, 27.5889, -33.3663, -20.629
5.27179, 6, 15.0292, 15.2251, 26.493, 27.5464, -33.3899, -20.5927
5.27977, 6, 15.0157, 15.2233, 26.5073, 27.5035, -33.4139, -20.5563
5.28783, 6, 15.0022, 15.2215, 26.5217, 27.4597, -33.438, -20.5196
5.29576, 6, 14.9886, 15.2198, 26.5364, 27.4169, -33.4617, -20.483
5.30391, 6, 14.9751, 15.2181, 26.551, 27.3746, -33.485, -20.4471
5.31177, 6, 14.9616, 15.2164, 26.5653, 27.3314, -33.5083, -20.4115
5.3198, 6, 14.9481, 15.2147, 26.5797, 27.2884, -33.5318, -20.3755
5.32817, 6, 14.9347, 15.213, 26.5943, 27.2462, -33.5558, -20.3389
5.33559, 6, 14.9212, 15.2113, 26.6087, 27.2034, -33.58, -20.3026
5.34387, 6, 14.9076, 15.2097, 26.623, 27.1603, -33.6039, -20.2667
5.35226, 6, 14.8942, 15.208, 26.6375, 27.1183, -33.6276, -20.2312
5.35941, 6, 14.8875, 15.2063, 26.6521, 27.0764, -33.651, -20.1955
5.36776, 6, 14.8673, 15.2046, 26.6665, 27.0335, -33.6746, -20.1595
5.37656, 6, 14.8538, 15.203, 26.6807, 26.9911, -33.6987, -20.1234
5.38404, 6, 14.8401, 15.2012, 26.695, 26.9493, -33.723, -20.0877
5.39181, 6, 14.8266, 15.1995, 26.7093, 26.9068, -33.747, -20.0521
5.40065, 6, 14.813, 15.1978, 26.7235, 26.8643, -33.7706, -20.0163
5.40796, 6, 14.7994, 15.196, 26.7377, 26.8228, -33.7941, -19.9801
5.4148, 6, 14.7927, 15.1951, 26.7448, 26.8019, -33.8059, -19.9619
5.42487, 6, 14.7725, 15.1925, 26.7667, 26.738, -33.8419, -19.9079
5.43251, 6, 14.759, 15.1907, 26.781, 26.6961, -33.8663, -19.8725
5.4402, 6, 14.7456, 15.189, 26.7951, 26.6544, -33.8906, -19.8371
5.4468, 6, 14.7389, 15.1882, 26.8022, 26.6332, -33.9025, -19.8192
5.45476, 6, 14.7255, 15.1867, 26.8165, 26.5906, -33.9264, -19.7831
5.46433, 6, 14.7053, 15.1844, 26.8377, 26.5283, -33.962, -19.7293
5.47308, 6, 14.6917, 15.183, 26.8518, 26.4865, -33.9861, -19.6941
5.47876, 6, 14.6849, 15.1823, 26.8589, 26.4652, -33.9983, -19.6764
5.48833, 6, 14.6712, 15.1809, 26.8733, 26.4233, -34.0346, -19.6233
5.49709, 6, 14.6577, 15.1796, 26.8876, 26.3823, -34.0466, -19.6054
5.50279, 6, 14.6442, 15.1783, 26.9016, 26.3406, -34.0702, -19.5697
5.51285, 6, 14.624, 15.1764, 26.9229, 26.2779, -34.1057, -19.5174
5.51977, 6, 14.6173, 15.1758, 26.93, 26.2576, -34.1178, -19.5
5.52676, 6, 14.6037, 15.1745, 26.9442, 26.2166, -34.1423, -19.4652
5.53575, 6, 14.5902, 15.1733, 26.9582, 26.1748, -34.1668, -19.4301
5.54382, 6, 14.5768, 15.172, 26.9725, 26.1334, -34.191, -19.3946
5.55077, 6, 14.5633, 15.1708, 26.9867, 26.0927, -34.2149, -19.3595
5.55975, 6, 14.5499, 15.1695, 27.0008, 26.0513, -34.2387, -19.3251
5.5678, 6, 14.5363, 15.1682, 27.0148, 26.0096, -34.2628, -19.2907
5.57476, 6, 14.5226, 15.1669, 27.0288, 25.969, -34.2873, -19.2559
5.58375, 6, 14.509, 15.1656, 27.0428, 25.9283, -34.3118, -19.2207
5.59181, 6, 14.4954, 15.1643, 27.0568, 25.8866, -34.336, -19.1857
5.59876, 6, 14.4818, 15.163, 27.0707, 25.8455, -34.3598, -19.1514
5.60775, 6, 14.4682, 15.1618, 27.0849, 25.8051, -34.3837, -19.1173
5.61475, 6, 14.4545, 15.1605, 27.0991, 25.7638, -34.4078, -19.0831
5.62375, 6, 14.4408, 15.1592, 27.1132, 25.7221, -34.4324, -19.0484
5.63275, 6, 14.4272, 15.158, 27.1271, 25.6816, -34.4571, -19.0137
5.63981, 6, 14.4136, 15.1568, 27.1411, 25.6412, -34.4815, -18.9796
5.64776, 6, 14.4, 15.1557, 27.1552, 25.5998, -34.5057, -18.9456
5.65575, 6, 14.3864, 15.1545, 27.169, 25.5589, -34.5298, -18.9115
5.66383, 6, 14.3726, 15.1533, 27.1828, 25.5188, -34.5541, -18.877
5.67179, 6, 14.3588, 15.1522, 27.1969, 25.478, -34.5789, -18.8422
5.67981, 6, 14.3452, 15.151, 27.211, 25.437, -34.6037, -18.8077
5.68775, 6, 14.3315, 15.1499, 27.2248, 25.397, -34.628, -18.7738
5.69577, 6, 14.3179, 15.1488, 27.2386, 25.3571, -34.6521, -18.7401
5.70391, 6, 14.3044, 15.1477, 27.2526, 25.3164, -34.6761, -18.7062
5.7118, 6, 14.2908, 15.1465, 27.2666, 25.2758, -34.7004, -18.6719
5.71976, 6, 14.2773, 15.1453, 27.2804, 25.236, -34.7253, -18.6376
5.72781, 6, 14.2638, 15.1442, 27.2943, 25.1957, -34.7502, -18.6038
5.73575, 6, 14.2502, 15.143, 27.3083, 25.1549, -34.7747, -18.5702
5.74376, 6, 14.2366, 15.1418, 27.3223, 25.115, -34.799, -18.5366
5.75181, 6, 14.2229, 15.1406, 27.336, 25.0753, -34.8231, -18.5027
5.75992, 6, 14.2092, 15.1394, 27.3497, 25.0348, -34.8477, -18.4687
5.76786, 6, 14.1956, 15.1382, 27.3635, 24.9942, -34.8726, -18.435
5.77581, 6, 14.1819, 15.137, 27.3773, 24.9545, -34.8974, -18.4017
5.78374, 6, 14.1683, 15.1358, 27.391, 24.9146, -34.9218, -18.3686
5.79186, 6, 14.1548, 15.1346, 27.4047, 24.8739, -34.9459, -18.3353
5.79975, 6, 14.1412, 15.1334, 27.4187, 24.8339, -34.9701, -18.3015
5.80775, 6, 14.1276, 15.1322, 27.4327, 24.7945, -34.9947, -18.2679
5.81662, 6, 14.1141, 15.1311, 27.4464, 24.7544, -35.0197, -18.2347
5.82379, 6, 14.1005, 15.1299, 27.4601, 24.7139, -35.0447, -18.202
5.83186, 6, 14.0869, 15.1289, 27.4739, 24.6745, -35.0693, -18.1692
5.84068, 6, 14.0732, 15.1279, 27.4876, 24.6351, -35.0937, -18.1359
5.84785, 6, 14.0595, 15.1269, 27.5012, 24.595, -35.1181, -18.1023
5.85586, 6, 14.0457, 15.1259, 27.5147, 24.5554, -35.1428, -18.0691
5.8647, 6, 14.032, 15.125, 27.5285, 24.5164, -35.168, -18.0363
5.87176, 6, 14.0182, 15.1241, 27.5423, 24.4772, -35.193, -18.0037
5.8798, 6, 14.0046, 15.1233, 27.556, 24.4372, -35.2175, -17.971
5.88866, 6, 13.9909, 15.1224, 27.5695, 24.3981, -35.2418, -17.938
5.8958, 6, 13.9771, 15.1216, 27.5832, 24.3594, -35.2661, -17.9047
5.90383, 6, 13.9635, 15.1208, 27.5969, 24.3199, -35.2909, -17.872
5.91281, 6, 13.9499, 15.1201, 27.6105, 24.2801, -35.3162, -17.8396
5.91995, 6, 13.9363, 15.1193, 27.624, 24.2414, -35.3411, -17.8071
5.92807, 6, 13.9226, 15.1186, 27.6377, 24.2026, -35.3657, -17.7743
5.93474, 6, 13.9158, 15.1182, 27.6446, 24.1829, -35.378, -17.7577
5.94415, 6, 13.895, 15.1171, 27.6649, 24.1236, -35.4148, -17.7081
5.95077, 6, 13.8881, 15.1168, 27.6716, 24.1043, -35.4272, -17.6917
5.9603, 6, 13.8675, 15.1158, 27.6918, 24.046, -35.4651, -17.6434
5.9668, 6, 13.8606, 15.1154, 27.6986, 24.026, -35.4776, -17.6273
5.97633, 6, 13.84, 15.1144, 27.7188, 23.9672, -35.5146, -17.5785
5.98433, 6, 13.8332, 15.1137, 27.7322, 23.9288, -35.539, -17.5457
5.9908, 6, 13.8194, 15.1134, 27.7389, 23.9094, -35.5512, -17.5293
6.00035, 6, 13.8056, 15.1127, 27.7526, 23.8699, -35.5886, -17.4811
6.00777, 6, 13.7919, 15.112, 27.7662, 23.8309, -35.6013, -17.465
6.0148, 6, 13.7781, 15.1114, 27.7797, 23.7926, -35.6265, -17.4331
6.02478, 6, 13.7575, 15.1104, 27.7998, 23.7341, -35.6637, -17.3844
6.03175, 6, 13.7506, 15.1101, 27.8065, 23.7145, -35.676, -17.3681
6.03875, 6, 13.7367, 15.1095, 27.82, 23.6762, -35.7007, -17.3357
6.0478, 6, 13.723, 15.1088, 27.8333, 23.6383, -35.7257, -17.304
6.05573, 6, 13.7093, 15.1082, 27.8466, 23.5997, -35.751, -17.2722
6.0638, 6, 13.6956, 15.1075, 27.86, 23.5608, -35.7761, -17.2407
6.07174, 6, 13.682, 15.1069, 27.8735, 23.5227, -35.8008, -17.2086
6.07974, 6, 13.6682, 15.1063, 27.8869, 23.4847, -35.8254, -17.1762
6.08781, 6, 13.6545, 15.1056, 27.9001, 23.4459, -35.85, -17.1442
6.09573, 6, 13.6409, 15.105, 27.9134, 23.4075, -35.8752, -17.1127
6.10374, 6, 13.6272, 15.1044, 27.9269, 23.3698, -35.9007, -17.0815
6.1118, 6, 13.6135, 15.1037, 27.9402, 23.3318, -35.926, -17.0499
6.11973, 6, 13.5997, 15.1031, 27.9534, 23.293, -35.9509, -17.018
6.12873, 6, 13.5857, 15.1025, 27.9667, 23.2545, -35.9757, -16.986
6.13473, 6, 13.5718, 15.1019, 27.9802, 23.2169, -36.0007, -16.9542
6.14384, 6, 13.5581, 15.1013, 27.9935, 23.1786, -36.0261, -16.923
6.1528, 6, 13.5442, 15.1007, 28.0066, 23.1398, -36.0517, -16.8919
6.15979, 6, 13.5305, 15.1001, 28.0197, 23.102, -36.0769, -16.8608
6.16782, 6, 13.5167, 15.0995, 28.033, 23.0645, -36.1018, -16.8292
6.17576, 6, 13.5029, 15.099, 28.0461, 23.0264, -36.1265, -16.7975
6.18373, 6, 13.4892, 15.0984, 28.0592, 22.9879, -36.1514, -16.7662
6.19173, 6, 13.4755, 15.0979, 28.0724, 22.9505, -36.1769, -16.7354
6.1998, 6, 13.4617, 15.0974, 28.0857, 22.9131, -36.2025, -16.7044
6.20779, 6, 13.4479, 15.0969, 28.0991, 22.875, -36.2277, -16.6734
6.21575, 6, 13.4339, 15.0964, 28.1123, 22.8371, -36.2526, -16.6418
6.22381, 6, 13.4199, 15.0959, 28.1253, 22.8, -36.2775, -16.6101
6.23173, 6, 13.406, 15.0954, 28.1385, 22.763, -36.3026, -16.5788
6.23973, 6, 13.3921, 15.095, 28.1517, 22.725, -36.3282, -16.5479
6.24781, 6, 13.3782, 15.0946, 28.1647, 22.6873, -36.3536, -16.5172
6.25588, 6, 13.3643, 15.0942, 28.1776, 22.6504, -36.3786, -16.4865
6.26283, 6, 13.3504, 15.0938, 28.1908, 22.6133, -36.4035, -16.4553
6.27181, 6, 13.3366, 15.0934, 28.204, 22.5753, -36.4283, -16.424
6.27976, 6, 13.3229, 15.093, 28.2171, 22.5379, -36.4536, -16.3932
6.28772, 6, 13.3091, 15.0927, 28.2301, 22.5013, -36.4793, -16.3627
6.29581, 6, 13.2954, 15.0923, 28.2431, 22.4642, -36.5049, -16.3322
6.30374, 6, 13.2815, 15.092, 28.2562, 22.4263, -36.5301, -16.3016
6.3118, 6, 13.2675, 15.0917, 28.2693, 22.3891, -36.5552, -16.2706
6.31994, 6, 13.2537, 15.0914, 28.2822, 22.3525, -36.5803, -16.2396
6.3278, 6, 13.2398, 15.0911, 28.2952, 22.3152, -36.6058, -16.2091
6.33591, 6, 13.2261, 15.0908, 28.3084, 22.2773, -36.6315, -16.1789
6.3441, 6, 13.2123, 15.0905, 28.3214, 22.2403, -36.6569, -16.1488
6.35155, 6, 13.1984, 15.0902, 28.3344, 22.2038, -36.6819, -16.1185
6.35996, 6, 13.1845, 15.09, 28.3472, 22.1668, -36.7068, -16.0879
6.36826, 6, 13.1707, 15.0897, 28.3602, 22.1293, -36.7318, -16.0572
6.37591, 6, 13.1568, 15.0895, 28.3732, 22.0926, -36.7576, -16.027
6.38376, 6, 13.1429, 15.0893, 28.386, 22.0563, -36.7835, -15.9971
6.39246, 6, 13.129, 15.0891, 28.3989, 22.0192, -36.809, -15.9673
6.4002, 6, 13.1149, 15.0889, 28.4118, 21.9821, -36.8343, -15.9376
6.40675, 6, 13.108, 15.0888, 28.4184, 21.9639, -36.8468, -15.9225
6.41664, 6, 13.0871, 15.0885, 28.4379, 21.9098, -36.8849, -15.877
6.42402, 6, 13.0732, 15.0883, 28.4507, 21.8731, -36.9109, -15.8469
6.43077, 6, 13.0663, 15.0882, 28.4571, 21.8546, -36.9239, -15.832
6.44097, 6, 13.0454, 15.088, 28.4765, 21.7999, -36.9623, -15.7875
6.44851, 6, 13.0315, 15.0878, 28.4893, 21.7639, -36.9875, -15.758
6.45635, 6, 13.0177, 15.0877, 28.502, 21.7271, -37.0127, -15.728
6.46509, 6, 13.0039, 15.0875, 28.5148, 21.6902, -37.0384, -15.6978
6.47236, 6, 12.99, 15.0874, 28.5277, 21.6543, -37.0645, -15.6678
6.48032, 6, 12.9761, 15.0873, 28.5405, 21.6185, -37.0904, -15.6383
6.48916, 6, 12.9691, 15.0873, 28.5533, 21.5818, -37.1159, -15.6089
6.4948, 6, 12.9549, 15.0872, 28.5597, 21.5633, -37.1286, -15.5942
6.50433, 6, 12.9409, 15.0871, 28.5723, 21.5269, -37.1667, -15.5494
6.51178, 6, 12.9269, 15.087, 28.5852, 21.4912, -37.1796, -15.5343
6.51929, 6, 12.913, 15.087, 28.598, 21.455, -37.2056, -15.504
6.52777, 6, 12.8992, 15.0869, 28.6108, 21.4181, -37.2314, -15.474
6.53573, 6, 12.8852, 15.0868, 28.6234, 21.382, -37.2569, -15.4445
6.54351, 6, 12.8713, 15.0868, 28.6362, 21.3463, -37.2821, -15.4152
6.55177, 6, 12.8575, 15.0868, 28.649, 21.3103, -37.3073, -15.3858
6.55971, 6, 12.8436, 15.0867, 28.6617, 21.2736, -37.333, -15.3561
6.56755, 6, 12.8298, 15.0867, 28.6743, 21.2375, -37.3592, -15.3261
6.57475, 6, 12.8159, 15.0867, 28.6869, 21.2021, -37.3851, -15.2963
6.58375, 6, 12.8019, 15.0867, 28.6996, 21.1662, -37.4107, -15.2669
6.59152, 6, 12.7879, 15.0867, 28.7121, 21.1299, -37.4361, -15.2378
6.59971, 6, 12.774, 15.0867, 28.7247, 21.0943, -37.4616, -15.2087
6.60771, 6, 12.7602, 15.0867, 28.7372, 21.0592, -37.4876, -15.1793
6.61558, 6, 12.7464, 15.0867, 28.75, 21.0237, -37.5136, -15.1496
6.62371, 6, 12.7324, 15.0867, 28.7628, 20.9875, -37.5393, -15.1201
6.63271, 6, 12.7184, 15.0867, 28.7755, 20.952, -37.5647, -15.0912
6.63951, 6, 12.7046, 15.0867, 28.7879, 20.9171, -37.59, -15.0622
6.64772, 6, 12.6907, 15.0867, 28.8005, 20.8818, -37.6157, -15.0336
6.65572, 6, 12.6767, 15.0867, 28.813, 20.8457, -37.642, -15.0046
6.66379, 6, 12.6628, 15.0867, 28.8256, 20.8102, -37.6682, -14.9754
6.67174, 6, 12.6487, 15.0867, 28.838, 20.7753, -37.694, -14.9461
6.67974, 6, 12.6347, 15.0868, 28.8504, 20.7401, -37.7196, -14.9172
6.68774, 6, 12.6207, 15.0868, 28.863, 20.7041, -37.7452, -14.8886
6.69572, 6, 12.6066, 15.0868, 28.8756, 20.6686, -37.7714, -14.8601
6.70378, 6, 12.5926, 15.0868, 28.8881, 20.6338, -37.7979, -14.8317
6.71172, 6, 12.5786, 15.0868, 28.9005, 20.5987, -37.8238, -14.8029
6.71973, 6, 12.5645, 15.0868, 28.913, 20.5627, -37.8496, -14.7738
6.72778, 6, 12.5505, 15.0868, 28.9255, 20.5271, -37.8751, -14.745
6.73572, 6, 12.5365, 15.0869, 28.938, 20.4925, -37.9009, -14.7165
6.74371, 6, 12.5225, 15.0869, 28.9504, 20.4577, -37.9273, -14.6883
6.75178, 6, 12.5084, 15.0869, 28.9628, 20.4221, -37.9536, -14.66
6.75971, 6, 12.4942, 15.0869, 28.9753, 20.3868, -37.9797, -14.6317
6.76772, 6, 12.4799, 15.087, 28.9878, 20.3521, -38.0055, -14.603
6.77579, 6, 12.4658, 15.087, 29.0002, 20.3174, -38.0313, -14.5743
6.78374, 6, 12.4517, 15.0871, 29.0125, 20.282, -38.0574, -14.546
6.79172, 6, 12.4376, 15.0871, 29.0248, 20.2468, -38.084, -14.5178
6.79978, 6, 12.4235, 15.0872, 29.0372, 20.2124, -38.1101, -14.4899
6.80782, 6, 12.4094, 15.0873, 29.0494, 20.1782, -38.1359, -14.4618
6.81588, 6, 12.3954, 15.0874, 29.0616, 20.1433, -38.1615, -14.4332
6.82374, 6, 12.3815, 15.0875, 29.074, 20.1082, -38.1873, -14.4044
6.83254, 6, 12.3674, 15.0876, 29.0865, 20.0737, -38.2137, -14.3757
6.84009, 6, 12.3534, 15.0878, 29.0989, 20.0396, -38.2402, -14.3477
6.84805, 7, 12.3392, 15.0879, 29.1112, 20.0048, -38.2663, -14.3198
6.8553, 7, 12.325, 15.0881, 29.1234, 19.9698, -38.2922, -14.2921
6.86416, 7, 12.3109, 15.0883, 29.1357, 19.9357, -38.318, -14.2643
6.87125, 7, 12.3039, 15.0884, 29.1418, 19.9187, -38.331, -14.2361
6.88054, 7, 12.2829, 15.0887, 29.1602, 19.8672, -38.3707, -14.2078
6.88853, 7, 12.2688, 15.0888, 29.1723, 19.8321, -38.3969, -14.1797
6.89574, 7, 12.2547, 15.089, 29.1845, 19.7977, -38.4227, -14.1519
6.90457, 7, 12.2407, 15.0892, 29.1967, 19.7636, -38.4483, -14.1243
6.91263, 7, 12.2267, 15.0894, 29.209, 19.7292, -38.4741, -14.0967
6.91987, 7, 12.2126, 15.0896, 29.2212, 19.6942, -38.5005, -14.0691
6.92876, 7, 12.1985, 15.0898, 29.2332, 19.6599, -38.5272, -14.0409
6.93685, 7, 12.1844, 15.09, 29.2453, 19.6261, -38.5534, -14.0127
6.94406, 7, 12.1701, 15.0902, 29.2576, 19.5922, -38.5795, -13.9852
6.95072, 7, 12.163, 15.0903, 29.2637, 19.5748, -38.5924, -13.9716
6.96102, 7, 12.1418, 15.0907, 29.2818, 19.5231, -38.6315, -13.9307
6.96824, 7, 12.1276, 15.0909, 29.2939, 19.4894, -38.6583, -13.9035
6.97637, 7, 12.1136, 15.0912, 29.3061, 19.4558, -38.6847, -13.8759
6.98276, 7, 12.1065, 15.0914, 29.3122, 19.4388, -38.6978, -13.862
6.99076, 7, 12.0922, 15.0917, 29.3244, 19.4043, -38.7237, -13.8341
7.00033, 7, 12.0782, 15.092, 29.3364, 19.3538, -38.7624, -13.7934
7.0067, 7, 12.0641, 15.0925, 29.3483, 19.3372, -38.7755, -13.7799
7.01678, 7, 12.0429, 15.0931, 29.3664, 19.2867, -38.8156, -13.7395
7.02375, 7, 12.0358, 15.0934, 29.3724, 19.2695, -38.8289, -13.7262
7.0307, 7, 12.0215, 15.0939, 29.3844, 19.2355, -38.8551, -13.6993
7.0397, 7, 12.0072, 15.0944, 29.3963, 19.2023, -38.8811, -13.6719
7.04776, 7, 11.993, 15.095, 29.4083, 19.169, -38.9071, -13.6445
7.05469, 7, 11.9788, 15.0956, 29.4205, 19.135, -38.9335, -13.6174
7.06375, 7, 11.9646, 15.0963, 29.4326, 19.101, -38.9603, -13.5906
7.07169, 7, 11.9504, 15.0969, 29.4447, 19.0678, -38.9866, -13.5639
7.0798, 7, 11.9362, 15.0977, 29.4565, 19.0348, -39.0126, -13.5373
7.0867, 7, 11.922, 15.0984, 29.4685, 19.0012, -39.0386, -13.5105
7.0957, 7, 11.9079, 15.0992, 29.4805, 18.9671, -39.0647, -13.4833
7.1037, 7, 11.8938, 15.1, 29.4924, 18.9337, -39.0914, -13.4561
7.11176, 7, 11.8796, 15.1009, 29.5042, 18.9007, -39.1181, -13.4294
7.1197, 7, 11.8653, 15.1018, 29.516, 18.8672, -39.1444, -13.403
7.12771, 7, 11.851, 15.1027, 29.528, 18.8331, -39.1705, -13.3767
7.13669, 7, 11.8368, 15.1036, 29.54, 18.7996, -39.1966, -13.3502
7.1438, 7, 11.8226, 15.1045, 29.5519, 18.7666, -39.2231, -13.3232
7.15271, 7, 11.8085, 15.1055, 29.5637, 18.7336, -39.25, -13.2958
7.15869, 7, 11.7943, 15.1065, 29.5755, 18.7, -39.2765, -13.2687
7.16771, 7, 11.78, 15.1076, 29.5875, 18.6664, -39.3026, -13.242
7.17572, 7, 11.7659, 15.1086, 29.5993, 18.6335, -39.3286, -13.2157
7.18376, 7, 11.7518, 15.1097, 29.6111, 18.6008, -39.3548, -13.1895
7.19169, 7, 11.7377, 15.1108, 29.6229, 18.5675, -39.3817, -13.1633
7.1997, 7, 11.7235, 15.1119, 29.6347, 18.534, -39.4085, -13.1368
7.20771, 7, 11.7092, 15.1131, 29.6466, 18.5013, -39.435, -13.1098
7.21576, 7, 11.6949, 15.1142, 29.6584, 18.4689, -39.4613, -13.0832
7.22372, 7, 11.6807, 15.1154, 29.67, 18.4363, -39.4875, -13.0568
7.2317, 7, 11.6664, 15.1166, 29.6817, 18.403, -39.5142, -13.0306
7.23976, 7, 11.6522, 15.1177, 29.6934, 18.37, -39.5412, -13.0047
7.24769, 7, 11.638, 15.1189, 29.7051, 18.3376, -39.5679, -12.9786
7.25569, 7, 11.6237, 15.12, 29.7168, 18.3051, -39.5941, -12.9522
7.26377, 7, 11.6095, 15.1211, 29.7284, 18.2719, -39.6202, -12.9256
7.27169, 7, 11.5953, 15.1222, 29.7401, 18.2388, -39.6466, -12.8989
7.27976, 7, 11.5811, 15.1233, 29.7519, 18.2065, -39.6735, -12.8729
7.28776, 7, 11.5668, 15.1244, 29.7636, 18.1743, -39.7005, -12.8472
7.29569, 7, 11.5524, 15.1255, 29.7753, 18.1416, -39.7271, -12.8216
7.30374, 7, 11.538, 15.1266, 29.7869, 18.1084, -39.7534, -12.7961
7.31172, 7, 11.5237, 15.1277, 29.7985, 18.0757, -39.7797, -12.7701
7.3197, 7, 11.5094, 15.1289, 29.8101, 18.0435, -39.8066, -12.7437
7.32779, 7, 11.4952, 15.1301, 29.8216, 18.0111, -39.8337, -12.7173
7.33578, 7, 11.481, 15.1313, 29.8331, 17.978, -39.8604, -12.6914
7.34386, 7, 11.4667, 15.1325, 29.8446, 17.9452, -39.8868, -12.6661
7.35192, 7, 11.4526, 15.1338, 29.8561, 17.913, -39.9131, -12.6408
7.3598, 7, 11.4384, 15.135, 29.8677, 17.881, -39.9396, -12.6153
7.3678, 7, 11.4242, 15.1363, 29.8793, 17.8484, -39.9667, -12.5898
7.37587, 7, 11.41, 15.1377, 29.8908, 17.8155, -39.9939, -12.564
7.38376, 7, 11.3956, 15.139, 29.9021, 17.7831, -40.0205, -12.5378
7.39175, 7, 11.3813, 15.1405, 29.9136, 17.7512, -40.047, -12.5121
7.39982, 7, 11.367, 15.1419, 29.9252, 17.7192, -40.0735, -12.4869
7.40775, 7, 11.3528, 15.1433, 29.9367, 17.6866, -40.1005, -12.4617
7.41601, 7, 11.3386, 15.1448, 29.9481, 17.6543, -40.1276, -12.4366
7.42269, 7, 11.3315, 15.1456, 29.9537, 17.6384, -40.141, -12.424
7.43194, 7, 11.3101, 15.1479, 29.9709, 17.5912, -40.1807, -12.3858
7.4387, 7, 11.3029, 15.1486, 29.9767, 17.5752, -40.1939, -12.373
7.4481, 7, 11.2817, 15.1509, 29.9939, 17.5266, -40.2336, -12.3344
7.45612, 7, 11.2674, 15.1523, 30.0052, 17.4948, -40.2609, -12.3093
7.46465, 7, 11.2532, 15.1538, 30.0165, 17.4635, -40.288, -12.2843
7.47226, 7, 11.2387, 15.1552, 30.0279, 17.4319, -40.3147, -12.2594
7.48029, 7, 11.2244, 15.1566, 30.0391, 17.3994, -40.3412, -12.2345
7.48838, 7, 11.2101, 15.1581, 30.0504, 17.3674, -40.3678, -12.209
7.49629, 7, 11.2029, 15.1588, 30.056, 17.3359, -40.3949, -12.1831
7.50421, 7, 11.1886, 15.1602, 30.0673, 17.3203, -40.4086, -12.1702
7.51255, 7, 11.1743, 15.1616, 30.0788, 17.2887, -40.4491, -12.1321
7.51975, 7, 11.16, 15.163, 30.0902, 17.2564, -40.4624, -12.1196
7.52768, 7, 11.1456, 15.1644, 30.1016, 17.2244, -40.4888, -12.095
7.53573, 7, 11.1314, 15.1659, 30.113, 17.193, -40.5153, -12.0704
7.54369, 7, 11.1171, 15.1673, 30.1241, 17.1618, -40.5424, -12.0457
7.55168, 7, 11.1028, 15.1688, 30.1354, 17.1298, -40.5697, -12.0207
7.55968, 7, 11.0885, 15.1703, 30.1467, 17.0974, -40.5966, -11.9953
7.56768, 7, 11.074, 15.1718, 30.1579, 17.0658, -40.6233, -11.97
7.57574, 7, 11.0596, 15.1734, 30.169, 17.0347, -40.6498, -11.9453
7.58368, 7, 11.0453, 15.1749, 30.1801, 17.0035, -40.6768, -11.9207
7.59168, 7, 11.0309, 15.1765, 30.1914, 16.9715, -40.7042, -11.8961
7.59973, 7, 11.0167, 15.178, 30.2027, 16.9397, -40.7313, -11.8716
7.60768, 7, 11.0023, 15.1796, 30.2139, 16.9085, -40.758, -11.8469
7.6157, 7, 10.988, 15.1811, 30.2251, 16.8775, -40.7845, -11.8219
7.62374, 7, 10.9738, 15.1826, 30.2362, 16.846, -40.8111, -11.7967
7.63168, 7, 10.9595, 15.1841, 30.2474, 16.8141, -40.8385, -11.7718
7.6407, 7, 10.9453, 15.1856, 30.2586, 16.7829, -40.866, -11.7475
7.64774, 7, 10.9309, 15.1871, 30.2697, 16.7522, -40.893, -11.7233
7.65569, 7, 10.9164, 15.1886, 30.2808, 16.7216, -40.9197, -11.6991
7.66368, 7, 10.9021, 15.1901, 30.2918, 16.6901, -40.9464, -11.675
7.67174, 7, 10.8878, 15.1916, 30.303, 16.6587, -40.9735, -11.6505
7.6797, 7, 10.8735, 15.1931, 30.3142, 16.6278, -41.0009, -11.6256
7.68781, 7, 10.8593, 15.1947, 30.3253, 16.5971, -41.0278, -11.6008
7.69567, 7, 10.845, 15.1963, 30.3363, 16.5662, -41.0545, -11.5765
7.70369, 7, 10.8307, 15.198, 30.3472, 16.5347, -41.081, -11.5524
7.71175, 7, 10.8164, 15.1997, 30.3582, 16.5036, -41.1079, -11.5285
7.71968, 7, 10.802, 15.2015, 30.3692, 16.4731, -41.1355, -11.5046
7.72769, 7, 10.7876, 15.2033, 30.3802, 16.4426, -41.1629, -11.4805
7.73575, 7, 10.7732, 15.2052, 30.3911, 16.4116, -41.1898, -11.4562
7.74368, 7, 10.7586, 15.207, 30.4021, 16.3802, -41.2166, -11.4316
7.7517, 7, 10.744, 15.2089, 30.4132, 16.3492, -41.2435, -11.4073
7.75975, 7, 10.7295, 15.2108, 30.4243, 16.3187, -41.271, -11.3835
7.76767, 7, 10.7151, 15.2127, 30.4353, 16.2881, -41.2985, -11.3598
7.77568, 7, 10.7007, 15.2145, 30.4463, 16.2568, -41.3255, -11.336
7.78375, 7, 10.6862, 15.2164, 30.4572, 16.2256, -41.3523, -11.3122
7.7917, 7, 10.6719, 15.2182, 30.4681, 16.1951, -41.3789, -11.2882
7.79973, 7, 10.6576, 15.2201, 30.479, 16.1649, -41.4061, -11.264
7.80781, 7, 10.6433, 15.2219, 30.4899, 16.1344, -41.4338, -11.2397
7.81567, 7, 10.629, 15.2237, 30.5007, 16.1032, -41.4612, -11.2156
7.82394, 7, 10.6144, 15.2256, 30.5114, 16.0724, -41.4882, -11.1919
7.83186, 7, 10.5999, 15.2275, 30.5223, 16.0422, -41.5151, -11.1684
7.83975, 7, 10.5854, 15.2293, 30.5332, 16.0121, -41.5422, -11.145
7.84863, 7, 10.5709, 15.2312, 30.5441, 15.9816, -41.5698, -11.1214
7.85609, 7, 10.5564, 15.2331, 30.555, 15.9507, -41.5972, -11.0975
7.8633, 7, 10.5419, 15.235, 30.5657, 15.9205, -41.6241, -11.0732
7.87259, 7, 10.5273, 15.2369, 30.5765, 15.8906, -41.6508, -11.0487
7.88024, 7, 10.5129, 15.2388, 30.5873, 15.8608, -41.6778, -11.0249
7.88774, 7, 10.4985, 15.2408, 30.5981, 15.8303, -41.7053, -11.0012
7.89662, 7, 10.4842, 15.2427, 30.6088, 15.7996, -41.7331, -10.9777
7.90454, 7, 10.4698, 15.2446, 30.6196, 15.7696, -41.7604, -10.9545
7.91174, 7, 10.4553, 15.2465, 30.6303, 15.7399, -41.7874, -10.9309
7.9207, 7, 10.4408, 15.2484, 30.6411, 15.71, -41.8143, -10.9072
7.92877, 7, 10.4265, 15.2503, 30.6519, 15.6794, -41.8417, -10.8832
7.93601, 7, 10.4122, 15.2521, 30.6626, 15.649, -41.8695, -10.8595
7.94267, 7, 10.405, 15.2531, 30.6679, 15.634, -41.8832, -10.8477
7.95371, 7, 10.3835, 15.2559, 30.6839, 15.5897, -41.9238, -10.8128
7.9602, 7, 10.3691, 15.2579, 30.6945, 15.5598, -41.9507, -10.7895
7.96815, 7, 10.3548, 15.2599, 30.7051, 15.5292, -41.9779, -10.7664
7.97472, 7, 10.3476, 15.261, 30.7104, 15.514, -41.9917, -10.7547
7.98267, 7, 10.3332, 15.2631, 30.7209, 15.4841, -42.0197, -10.7313
7.99226, 7, 10.3115, 15.2663, 30.7368, 15.4398, -42.0608, -10.6956
7.99876, 7, 10.3042, 15.2674, 30.7421, 15.4248, -42.0744, -10.6838
8.00826, 7, 10.2895, 15.2696, 30.7529, 15.3944, -42.1151, -10.6488
8.01569, 7, 10.275, 15.2718, 30.7635, 15.364, -42.1289, -10.6374
8.02276, 7, 10.2605, 15.274, 30.7742, 15.3342, -42.1568, -10.6146
8.03272, 7, 10.2388, 15.2772, 30.79, 15.2901, -42.1979, -10.5806
8.03966, 7, 10.2316, 15.2783, 30.7953, 15.2752, -42.2115, -10.5692
8.0467, 7, 10.2171, 15.2805, 30.8059, 15.245, -42.2384, -10.5461
8.05571, 7, 10.2026, 15.2826, 30.8164, 15.215, -42.2657, -10.5228
8.06366, 7, 10.1882, 15.2848, 30.8269, 15.1855, -42.2935, -10.4992
8.07166, 7, 10.1739, 15.2869, 30.8373, 15.1562, -42.3213, -10.4759
8.07972, 7, 10.1595, 15.2891, 30.8477, 15.1266, -42.3487, -10.4532
8.08772, 7, 10.1449, 15.2912, 30.8582, 15.0966, -42.3759, -10.4307
8.09566, 7, 10.1303, 15.2933, 30.8687, 15.0669, -42.4031, -10.4083
8.10373, 7, 10.1157, 15.2955, 30.8792, 15.0378, -42.4309, -10.3857
8.11166, 7, 10.1012, 15.2976, 30.8897, 15.0089, -42.4588, -10.363
8.11967, 7, 10.0867, 15.2998, 30.9, 14.9797, -42.4862, -10.3399
8.12666, 7, 10.0722, 15.3019, 30.9105, 14.9498, -42.5134, -10.3168
8.13566, 7, 10.0576, 15.3041, 30.9209, 14.9204, -42.5404, -10.294
8.14467, 7, 10.0431, 15.3063, 30.9312, 14.8912, -42.5679, -10.2715
8.15066, 7, 10.0287, 15.3084, 30.9417, 14.8622, -42.5958, -10.2493
8.15967, 7, 10.0143, 15.3106, 30.952, 14.8328, -42.6235, -10.227
8.16766, 7, 9.99975, 15.3128, 30.9624, 14.803, -42.6508, -10.2048
8.17573, 7, 9.98512, 15.315, 30.9728, 14.7737, -42.6779, -10.1822
8.18369, 7, 9.97045, 15.3172, 30.9831, 14.7448, -42.7053, -10.1594
8.19172, 7, 9.95593, 15.3194, 30.9935, 14.7161, -42.7332, -10.1364
8.19967, 7, 9.94139, 15.3216, 31.0038, 14.6867, -42.7609, -10.1137
8.20766, 7, 9.92696, 15.324, 31.014, 14.657, -42.7881, -10.0911
8.21572, 7, 9.91244, 15.3263, 31.0242, 14.6277, -42.8151, -10.0689
8.22366, 7, 9.89789, 15.3288, 31.0344, 14.5988, -42.8423, -10.0469
8.23166, 7, 9.88345, 15.3312, 31.0446, 14.57, -42.8701, -10.0248
8.23974, 7, 9.86895, 15.3337, 31.0548, 14.5406, -42.8981, -10.0026
8.24766, 7, 9.85453, 15.3361, 31.0649, 14.511, -42.9257, -9.97991
8.25566, 7, 9.84006, 15.3386, 31.0752, 14.4818, -42.9531, -9.95698
8.26373, 7, 9.82547, 15.3411, 31.0856, 14.4532, -42.9804, -9.93406
8.27166, 7, 9.81085, 15.3436, 31.0959, 14.4246, -43.0081, -9.91166
8.27967, 7, 9.79633, 15.3461, 31.1061, 14.3954, -43.0362, -9.88952
8.28773, 7, 9.78175, 15.3486, 31.1163, 14.3659, -43.0639, -9.86759
8.29567, 7, 9.76729, 15.3511, 31.1264, 14.3369, -43.0912, -9.84584
8.30366, 7, 9.75272, 15.3536, 31.1366, 14.3083, -43.1184, -9.8239
8.31173, 7, 9.73813, 15.3562, 31.1467, 14.2799, -43.1459, -9.80153
8.31966, 7, 9.72367, 15.3587, 31.1567, 14.2509, -43.174, -9.77916
8.32774, 7, 9.70917, 15.3611, 31.1668, 14.2217, -43.2019, -9.75683
8.33573, 7, 9.69463, 15.3636, 31.1768, 14.1931, -43.2295, -9.73468
8.34375, 7, 9.68002, 15.366, 31.1868, 14.1649, -43.2568, -9.71291
8.35183, 7, 9.66527, 15.3684, 31.197, 14.1368, -43.2843, -9.69129
8.35982, 7, 9.6506, 15.3709, 31.2071, 14.1081, -43.3124, -9.66965
8.36776, 7, 9.63595, 15.3733, 31.2172, 14.0791, -43.3404, -9.64795
8.37585, 7, 9.62134, 15.3758, 31.2272, 14.0507, -43.3679, -9.62605
8.38387, 7, 9.60682, 15.3784, 31.2371, 14.0225, -43.3952, -9.60387
8.39166, 7, 9.59223, 15.3809, 31.2472, 13.9944, -43.4225, -9.5815
8.39975, 7, 9.57769, 15.3835, 31.2572, 13.9659, -43.4504, -9.55938
8.40776, 7, 9.56322, 15.3862, 31.2672, 13.9369, -43.4787, -9.5376
8.4158, 7, 9.54868, 15.3889, 31.2772, 13.9085, -43.5064, -9.51615
8.42386, 7, 9.53415, 15.3916, 31.2871, 13.8804, -43.534, -9.4948
8.43213, 7, 9.51948, 15.3943, 31.297, 13.8524, -43.5614, -9.47375
8.43869, 7, 9.51212, 15.3957, 31.302, 13.8382, -43.5752, -9.46322
8.4481, 7, 9.49017, 15.3997, 31.317, 13.795, -43.6173, -9.43083
8.45617, 7, 9.47557, 15.4024, 31.327, 13.7665, -43.6451, -9.40893
8.46413, 7, 9.46102, 15.4051, 31.3369, 13.7385, -43.6723, -9.38698
8.47226, 7, 9.44648, 15.4078, 31.3466, 13.7106, -43.6995, -9.36521
8.48061, 7, 9.43183, 15.4105, 31.3565, 13.6822, -43.727, -9.34388
8.48824, 7, 9.41727, 15.4132, 31.3663, 13.6532, -43.7552, -9.32273
8.49629, 7, 9.40272, 15.416, 31.3761, 13.6247, -43.7833, -9.30177
8.50429, 7, 9.39541, 15.4174, 31.381, 13.6107, -43.8109, -9.28083
8.51222, 7, 9.38084, 15.4202, 31.3908, 13.583, -43.8247, -9.27032
8.51972, 7, 9.36616, 15.4229, 31.4005, 13.5552, -43.8521, -9.24891
8.52767, 8, 9.35132, 15.4256, 31.4105, 13.5269, -43.88, -9.22723
8.53566, 8, 9.3366, 15.4282, 31.4204, 13.4984, -43.9083, -9.20559
8.5437, 8, 9.32193, 15.4308, 31.4302, 13.4703, -43.9363, -9.18425
8.55165, 8, 9.30727, 15.4334, 31.4401, 13.4426, -43.9637, -9.16307
8.55964, 8, 9.29265, 15.4361, 31.4499, 13.4148, -43.991, -9.14229
8.56764, 8, 9.27795, 15.4388, 31.4596, 13.3866, -44.0187, -9.12156
8.57567, 8, 9.26323, 15.4416, 31.4694, 13.3581, -44.047, -9.10083
8.58369, 8, 9.24863, 15.4445, 31.479, 13.3303, -44.0751, -9.07986
8.59165, 8, 9.23403, 15.4474, 31.4887, 13.3029, -44.1028, -9.05871
8.59965, 8, 9.21938, 15.4503, 31.4984, 13.2756, -44.1304, -9.03728
8.60775, 8, 9.20459, 15.4534, 31.5079, 13.2479, -44.158, -9.0158
8.61567, 8, 9.18972, 15.4565, 31.5176, 13.2196, -44.1862, -8.99459
8.62365, 8, 9.17498, 15.4595, 31.5274, 13.1919, -44.2145, -8.9737
8.63339, 8, 9.15292, 15.464, 31.5419, 13.1508, -44.2559, -8.94271
8.63965, 8, 9.14562, 15.4655, 31.5468, 13.1371, -44.2696, -8.93243
8.64864, 8, 9.13095, 15.4685, 31.5565, 13.1095, -44.2971, -8.91185
8.65572, 8, 9.11622, 15.4715, 31.5661, 13.0814, -44.3252, -8.89097
8.66365, 8, 9.10165, 15.4745, 31.5757, 13.0536, -44.3536, -8.86974
8.67165, 8, 9.0871, 15.4776, 31.5854, 13.0264, -44.3815, -8.84833
8.67971, 8, 9.07254, 15.4807, 31.5949, 12.9994, -44.4092, -8.82695
8.68766, 8, 9.05793, 15.4838, 31.6045, 12.9719, -44.4368, -8.80592
8.69579, 8, 9.04315, 15.4868, 31.6141, 12.9439, -44.4647, -8.7853
8.70364, 8, 9.02831, 15.4897, 31.6236, 12.916, -44.4931, -8.76478
8.71164, 8, 9.01365, 15.4927, 31.6333, 12.8885, -44.521, -8.74446
8.71972, 8, 8.999, 15.4956, 31.6429, 12.8614, -44.5485, -8.72419
8.72764, 8, 8.9844, 15.4986, 31.6524, 12.834, -44.576, -8.7036
8.73566, 8, 8.96976, 15.5015, 31.662, 12.8061, -44.6038, -8.68266
8.74372, 8, 8.95502, 15.5046, 31.6714, 12.7783, -44.6323, -8.66149
8.75164, 8, 8.94037, 15.5077, 31.6808, 12.751, -44.6606, -8.64055
8.75969, 8, 8.92574, 15.5108, 31.6903, 12.724, -44.6884, -8.61987
8.76771, 8, 8.9111, 15.514, 31.6996, 12.697, -44.7161, -8.59958
8.77565, 8, 8.89635, 15.5172, 31.709, 12.6695, -44.744, -8.57935
8.78365, 8, 8.88155, 15.5205, 31.7184, 12.6418, -44.7725, -8.55926
8.79172, 8, 8.86679, 15.5236, 31.7278, 12.6145, -44.8008, -8.53907
8.79966, 8, 8.85202, 15.5268, 31.7372, 12.5876, -44.8287, -8.51863
8.80766, 8, 8.83729, 15.53, 31.7467, 12.5608, -44.8562, -8.49793
8.81579, 8, 8.82259, 15.5331, 31.7562, 12.5337, -44.884, -8.47703
8.82364, 8, 8.80778, 15.5363, 31.7656, 12.5061, -44.9124, -8.45626
8.83196, 8, 8.79299, 15.5396, 31.7751, 12.4789, -44.941, -8.43585
8.8405, 8, 8.77827, 15.5428, 31.7844, 12.4523, -44.9691, -8.4157
8.84773, 8, 8.76356, 15.546, 31.7937, 12.4258, -44.9969, -8.39569
8.85605, 8, 8.74883, 15.5492, 31.8031, 12.3992, -45.0249, -8.37583
8.86459, 8, 8.73396, 15.5523, 31.8123, 12.3718, -45.0533, -8.35609
8.87181, 8, 8.71899, 15.5554, 31.8216, 12.3445, -45.082, -8.33609
8.88027, 8, 8.70413, 15.5584, 31.8308, 12.3178, -45.1101, -8.31576
8.88853, 8, 8.68927, 15.5616, 31.84, 12.2913, -45.1378, -8.29528
8.89571, 8, 8.67448, 15.5648, 31.8493, 12.2648, -45.1657, -8.27483
8.90446, 8, 8.65975, 15.568, 31.8586, 12.2378, -45.194, -8.25455
8.91263, 8, 8.645, 15.5713, 31.8679, 12.2105, -45.2229, -8.23456
8.91974, 8, 8.63033, 15.5747, 31.8771, 12.1836, -45.2512, -8.21486
8.92863, 8, 8.61563, 15.5781, 31.8864, 12.1572, -45.2792, -8.19514
8.93674, 8, 8.60092, 15.5815, 31.8956, 12.1309, -45.307, -8.17562
8.94393, 8, 8.58619, 15.585, 31.9048, 12.1043, -45.3352, -8.15596
8.95064, 8, 8.57876, 15.5867, 31.9094, 12.0907, -45.3496, -8.14601
8.95868, 8, 8.56387, 15.5901, 31.9186, 12.0635, -45.378, -8.12582
8.96822, 8, 8.54172, 15.5953, 31.9323, 12.0235, -45.4199, -8.09533
8.977, 8, 8.52699, 15.5988, 31.9415, 11.9973, -45.4476, -8.07536
8.98418, 8, 8.51233, 15.6023, 31.9506, 11.9708, -45.4756, -8.05564
8.99063, 8, 8.50499, 15.6041, 31.9552, 11.9573, -45.49, -8.0459
9.00105, 8, 8.4902, 15.6076, 31.9689, 11.9165, -45.5329, -8.01682
9.00918, 8, 8.46821, 15.6127, 31.9781, 11.8898, -45.5609, -7.9975
9.01626, 8, 8.46087, 15.6144, 31.9826, 11.8767, -45.5888, -7.97807
9.02364, 8, 8.44619, 15.6178, 31.9917, 11.8506, -45.6028, -7.9683
9.03169, 8, 8.43149, 15.6212, 32.0008, 11.8243, -45.6312, -7.94854
9.03967, 8, 8.41663, 15.6245, 32.0098, 11.7974, -45.6599, -7.92849
9.04764, 8, 8.40179, 15.628, 32.0188, 11.7707, -45.6881, -7.90839
9.05563, 8, 8.38702, 15.6315, 32.0278, 11.7442, -45.716, -7.88858
9.06264, 8, 8.37215, 15.635, 32.0367, 11.7182, -45.7438, -7.86893
9.07163, 8, 8.35735, 15.6387, 32.0457, 11.6921, -45.7721, -7.8495
9.07968, 8, 8.34252, 15.6424, 32.0547, 11.6656, -45.8008, -7.83019
9.08763, 8, 8.32763, 15.646, 32.0636, 11.6388, -45.8292, -7.81099
9.09562, 8, 8.31284, 15.6497, 32.0726, 11.6126, -45.8573, -7.79175
9.10262, 8, 8.2981, 15.6533, 32.0817, 11.5866, -45.8852, -7.77235
9.11163, 8, 8.28337, 15.6569, 32.0907, 11.561, -45.9136, -7.75246
9.11963, 8, 8.26855, 15.6605, 32.0998, 11.5351, -45.9423, -7.73247
9.1277, 8, 8.25358, 15.6642, 32.1088, 11.5087, -45.9708, -7.71254
9.13571, 8, 8.23872, 15.6679, 32.1177, 11.4822, -45.9987, -7.69291
9.14363, 8, 8.22392, 15.6715, 32.1266, 11.4562, -46.0265, -7.67355
9.15262, 8, 8.20915, 15.6751, 32.1355, 11.4304, -46.0546, -7.65449
9.15962, 8, 8.19445, 15.6786, 32.1443, 11.4047, -46.0834, -7.63547
9.16763, 8, 8.17966, 15.6821, 32.1531, 11.3785, -46.112, -7.61665
9.17569, 8, 8.16489, 15.6856, 32.1619, 11.3519, -46.1401, -7.59757
9.18363, 8, 8.15016, 15.6892, 32.1707, 11.3257, -46.1681, -7.57829
9.19164, 8, 8.13541, 15.6928, 32.1794, 11.3, -46.1962, -7.5586
9.19969, 8, 8.12065, 15.6965, 32.1883, 11.2745, -46.2248, -7.53905
9.20763, 8, 8.10571, 15.7003, 32.1971, 11.2487, -46.2534, -7.51965
9.21569, 8, 8.09076, 15.7041, 32.2059, 11.2223, -46.2814, -7.50057
9.22362, 8, 8.0759, 15.7079, 32.2148, 11.196, -46.3092, -7.48166
9.23162, 8, 8.06103, 15.7117, 32.2236, 11.17, -46.3371, -7.46294
9.2397, 8, 8.04622, 15.7155, 32.2323, 11.1444, -46.3657, -7.44435
9.24763, 8, 8.03144, 15.7193, 32.2411, 11.1187, -46.3945, -7.42572
9.25573, 8, 8.01666, 15.7232, 32.2498, 11.0926, -46.4229, -7.40682
9.26369, 8, 8.00195, 15.7271, 32.2584, 11.0662, -46.451, -7.38772
9.27162, 8, 7.98718, 15.731, 32.2671, 11.0401, -46.4791, -7.36828
9.27964, 8, 7.97244, 15.7348, 32.2759, 11.0145, -46.5077, -7.34889
9.28769, 8, 7.95767, 15.7386, 32.2845, 10.9891, -46.5365, -7.32981
9.29562, 8, 7.94274, 15.7423, 32.2931, 10.9636, -46.5648, -7.311
9.30365, 8, 7.92787, 15.7461, 32.3018, 10.9375, -46.5928, -7.29252
9.31169, 8, 7.91301, 15.7498, 32.3105, 10.9114, -46.6208, -7.27389
9.31971, 8, 7.89811, 15.7535, 32.3192, 10.8856, -46.6493, -7.25559
9.32769, 8, 7.88334, 15.7574, 32.3279, 10.8602, -46.6782, -7.23725
9.33572, 8, 7.86841, 15.7613, 32.3365, 10.8349, -46.7066, -7.21871
9.34369, 8, 7.85354, 15.7653, 32.3449, 10.8093, -46.7348, -7.19986
9.35177, 8, 7.83872, 15.7692, 32.3534, 10.7833, -46.7629, -7.18083
9.35975, 8, 7.8239, 15.7731, 32.3618, 10.7576, -46.7914, -7.16188
9.36779, 8, 7.80909, 15.7771, 32.3703, 10.7324, -46.8204, -7.14299
9.37585, 8, 7.79414, 15.7811, 32.3788, 10.7075, -46.8488, -7.12446
9.38369, 8, 7.77907, 15.785, 32.3874, 10.6825, -46.8768, -7.10609
9.39163, 8, 7.76411, 15.7891, 32.3959, 10.657, -46.9046, -7.08793
9.39992, 8, 7.74915, 15.7931, 32.4044, 10.6312, -46.9329, -7.06965
9.40765, 8, 7.73423, 15.7971, 32.4129, 10.6057, -46.9618, -7.05141
9.41579, 8, 7.71935, 15.801, 32.4215, 10.5807, -46.9906, -7.03297
9.42384, 8, 7.70441, 15.8049, 32.43, 10.5558, -47.0188, -7.01427
9.4318, 8, 7.68956, 15.8088, 32.4386, 10.5308, -47.0469, -6.99526
9.43995, 8, 7.67472, 15.8128, 32.4471, 10.5052, -47.0752, -6.97648
9.44812, 8, 7.65987, 15.8168, 32.4554, 10.4795, -47.1042, -6.95788
9.45603, 8, 7.64499, 15.8209, 32.4638, 10.4543, -47.1328, -6.9397
9.46262, 8, 7.63751, 15.823, 32.468, 10.4418, -47.1469, -6.93063
9.47222, 8, 7.61512, 15.8292, 32.4804, 10.4045, -47.1887, -6.90353
9.48012, 8, 7.60032, 15.8334, 32.4887, 10.3794, -47.2168, -6.88555
9.48824, 8, 7.58557, 15.8376, 32.4971, 10.3537, -47.2457, -6.86745
9.49665, 8, 7.57084, 15.8418, 32.5053, 10.3282, -47.2745, -6.84924
9.5042, 8, 7.56344, 15.8439, 32.5136, 10.303, -47.3029, -6.83079
9.51234, 8, 7.54851, 15.8504, 32.5219, 10.2782, -47.331, -6.81211
9.52023, 8, 7.53366, 15.8525, 32.5261, 10.2658, -47.345, -6.80272
9.52763, 8, 7.51884, 15.8568, 32.5344, 10.2408, -47.3736, -6.78412
9.53572, 8, 7.50392, 15.861, 32.5428, 10.2152, -47.4026, -6.76586
9.54361, 8, 7.489, 15.8652, 32.5512, 10.1896, -47.4313, -6.74787
9.55161, 8, 7.47392, 15.8694, 32.5595, 10.1645, -47.4595, -6.72992
9.55961, 8, 7.4589, 15.8735, 32.5677, 10.1398, -47.4875, -6.71193
9.56761, 8, 7.44387, 15.8776, 32.5759, 10.1152, -47.516, -6.694
9.57577, 8, 7.42892, 15.8818, 32.5841, 10.0903, -47.5452, -6.67596
9.58362, 8, 7.41404, 15.8862, 32.5923, 10.0649, -47.574, -6.65782
9.59163, 8, 7.39915, 15.8905, 32.6005, 10.0397, -47.6024, -6.63928
9.59969, 8, 7.3843, 15.8948, 32.6087, 10.0149, -47.6307, -6.62073
9.60761, 8, 7.3695, 15.899, 32.6168, 9.99025, -47.6592, -6.60227
9.61575, 8, 7.35466, 15.9033, 32.6249, 9.9657, -47.6884, -6.58395
9.62442, 8, 7.33976, 15.9076, 32.6331, 9.94069, -47.7173, -6.56582
9.63062, 8, 7.32475, 15.9119, 32.6413, 9.9154, -47.7457, -6.54798
9.63964, 8, 7.30965, 15.9163, 32.6495, 9.89039, -47.7738, -6.5302
9.64861, 8, 7.29462, 15.9206, 32.6577, 9.86593, -47.8023, -6.5124
9.65567, 8, 7.27965, 15.9249, 32.6659, 9.84171, -47.8314, -6.49458
9.66461, 8, 7.26475, 15.9291, 32.6739, 9.81752, -47.8604, -6.47668
9.67169, 8, 7.24985, 15.9333, 32.6818, 9.79272, -47.8889, -6.45876
9.6796, 8, 7.23485, 15.9376, 32.6899, 9.76774, -47.9173, -6.44047
9.68764, 8, 7.21996, 15.942, 32.6979, 9.74299, -47.9457, -6.42229
9.69565, 8, 7.20512, 15.9464, 32.7059, 9.7186, -47.9748, -6.40437
9.70371, 8, 7.19028, 15.9509, 32.7139, 9.69441, -48.0036, -6.38678
9.71169, 8, 7.17536, 15.9553, 32.7219, 9.67002, -48.032, -6.36936
9.7196, 8, 7.16035, 15.9597, 32.7298, 9.64519, -48.0602, -6.35185
9.72762, 8, 7.14535, 15.9641, 32.7378, 9.6203, -48.0885, -6.33447
9.73657, 8, 7.13044, 15.9686, 32.7459, 9.59582, -48.1175, -6.317
9.7436, 8, 7.11555, 15.9731, 32.754, 9.57165, -48.1466, -6.29943
9.75161, 8, 7.10067, 15.9777, 32.7621, 9.54766, -48.175, -6.2815
9.76037, 8, 7.08576, 15.9823, 32.7702, 9.52332, -48.2034, -6.26346
9.76764, 8, 7.0708, 15.9868, 32.7782, 9.4985, -48.2318, -6.2455
9.77561, 8, 7.05597, 15.9913, 32.786, 9.47365, -48.2609, -6.22756
9.78499, 8, 7.04108, 15.9958, 32.7938, 9.44909, -48.29, -6.21001
9.7916, 8, 7.02621, 16.0003, 32.8018, 9.42483, -48.3186, -6.19289
9.79968, 8, 7.01123, 16.0048, 32.8097, 9.40074, -48.3469, -6.17568
9.80764, 8, 6.99615, 16.0094, 32.8175, 9.37636, -48.3752, -6.15857
9.8156, 8, 6.98121, 16.014, 32.8254, 9.35155, -48.4043, -6.14154
9.82375, 8, 6.96621, 16.0186, 32.8332, 9.32673, -48.4335, -6.12447
9.8316, 8, 6.95129, 16.0231, 32.8409, 9.30241, -48.4622, -6.10729
9.83964, 8, 6.93638, 16.0276, 32.8487, 9.27844, -48.4907, -6.08974
9.84788, 8, 6.92132, 16.0323, 32.8565, 9.25469, -48.5192, -6.07199
9.8557, 8, 6.90633, 16.0369, 32.8644, 9.23053, -48.5482, -6.05429
9.86373, 8, 6.89138, 16.0416, 32.8723, 9.20594, -48.5773, -6.03677
9.87211, 8, 6.87638, 16.0462, 32.8803, 9.18141, -48.6059, -6.01955
9.87921, 8, 6.86888, 16.0508, 32.8881, 9.15727, -48.6343, -6.00246
9.88861, 8, 6.84622, 16.0553, 32.8957, 9.13341, -48.6627, -5.98539
9.89621, 8, 6.83111, 16.06, 32.9034, 9.1097, -48.6917, -5.9686
9.90365, 8, 6.81605, 16.0646, 32.9111, 9.0857, -48.721, -5.95169
9.9117, 8, 6.80102, 16.0694, 32.9188, 9.06129, -48.7498, -5.93462
9.9205, 8, 6.78608, 16.0741, 32.9265, 9.03693, -48.7784, -5.91741
9.92773, 8, 6.7711, 16.0788, 32.9343, 9.01311, -48.8069, -5.9001
9.93589, 8, 6.75616, 16.0835, 32.9419, 8.98954, -48.8359, -5.88252
9.94468, 8, 6.7413, 16.0882, 32.9494, 8.96615, -48.8651, -5.86497
9.95193, 8, 6.7264, 16.0929, 32.957, 8.94238, -48.8938, -5.84769
9.96006, 8, 6.71151, 16.0977, 32.9647, 8.91811, -48.9222, -5.83079
9.96659, 8, 6.70401, 16.1002, 32.9686, 8.90597, -48.9364, -5.82246
9.97611, 8, 6.68136, 16.1074, 32.9802, 8.87009, -48.9796, -5.79738
9.98417, 8, 6.66638, 16.1122, 32.988, 8.84657, -49.009, -5.78069
9.99298, 8, 6.65143, 16.117, 32.9956, 8.82318, -49.0379, -5.76404
10.0002, 8, 6.63657, 16.1218, 33.0031, 8.79955, -49.0665, -5.74737
10.0082, 8, 6.62166, 16.1266, 33.0105, 8.77533, -49.095, -5.73037
10.017, 8, 6.61415, 16.129, 33.0143, 8.76324, -49.1095, -5.72175
10.0236, 8, 6.5992, 16.1339, 33.0218, 8.73932, -49.1388, -5.70439
10.0317, 8, 6.58431, 16.1388, 33.0293, 8.71573, -49.1679, -5.68703
10.0396, 8, 6.56942, 16.1436, 33.0367, 8.69246, -49.1964, -5.66968
10.0467, 8, 6.5545, 16.1483, 33.0442, 8.66906, -49.2248, -5.65267
10.0556, 8, 6.53943, 16.1532, 33.0516, 8.64525, -49.2533, -5.63591
10.0636, 8, 6.52433, 16.158, 33.059, 8.62102, -49.2826, -5.61928
10.0716, 8, 6.50935, 16.1629, 33.0664, 8.59707, -49.3118, -5.60266
10.0797, 8, 6.49427, 16.1678, 33.0739, 8.57349, -49.3405, -5.58602
10.0876, 8, 6.47927, 16.1726, 33.0815, 8.55021, -49.3691, -5.56941
10.0956, 8, 6.46426, 16.1774, 33.0891, 8.52683, -49.3977, -5.55269
10.1036, 8, 6.4492, 16.1823, 33.0967, 8.50302, -49.4269, -5.53578
10.1116, 8, 6.43419, 16.1873, 33.1042, 8.47887, -49.456, -5.51849
10.1186, 8, 6.41919, 16.1924, 33.1116, 8.45496, -49.4847, -5.50136
10.1276, 8, 6.40426, 16.1975, 33.1189, 8.43147, -49.5131, -5.48433
10.1356, 8, 6.38929, 16.2025, 33.1261, 8.40825, -49.5416, -5.46765
10.1452, 8, 6.37407, 16.2075, 33.1335, 8.38512, -49.5708, -5.44275
10.1516, 8, 6.3589, 16.2125, 33.1409, 8.36154, -49.6, -5.4345
10.1606, 8, 6.34386, 16.2175, 33.1482, 8.33768, -49.6287, -5.41817
10.1677, 8, 6.32878, 16.2227, 33.1554, 8.31397, -49.6573, -5.40175
10.1756, 8, 6.31378, 16.2278, 33.1627, 8.29064, -49.6858, -5.38543
10.1837, 8, 6.29869, 16.2329, 33.1698, 8.26752, -49.7149, -5.36894
10.1916, 8, 6.28365, 16.238, 33.177, 8.2445, -49.744, -5.35233
10.1996, 8, 6.26863, 16.243, 33.1842, 8.22115, -49.7726, -5.3356
10.2076, 9, 6.25364, 16.2481, 33.1916, 8.19749, -49.8011, -5.31876
10.2156, 9, 6.23859, 16.2533, 33.199, 8.17385, -49.8296, -5.30203
10.2236, 9, 6.22341, 16.2586, 33.2063, 8.15078, -49.8587, -5.2856
10.2317, 9, 6.20821, 16.2638, 33.2136, 8.12787, -49.8881, -5.26955
10.2396, 9, 6.19306, 16.2689, 33.2209, 8.10516, -49.917, -5.2536
10.2476, 9, 6.17799, 16.2739, 33.228, 8.08224, -49.9456, -5.23763
10.2557, 9, 6.16296, 16.2791, 33.2351, 8.05879, -49.9742, -5.22152
10.2637, 9, 6.14796, 16.2843, 33.2423, 8.03532, -50.0035, -5.20551
10.2716, 9, 6.13283, 16.2894, 33.2495, 8.01212, -50.0328, -5.18928
10.2797, 9, 6.11785, 16.2945, 33.2566, 7.98923, -50.0616, -5.17298
10.2876, 9, 6.10283, 16.2996, 33.2637, 7.96649, -50.09, -5.15635
10.2956, 9, 6.08782, 16.3047, 33.2709, 7.94355, -50.1186, -5.13961
10.3037, 9, 6.07273, 16.3099, 33.278, 7.92015, -50.1477, -5.12299
10.3116, 9, 6.05751, 16.3151, 33.285, 7.8966, -50.1771, -5.10653
10.3199, 9, 6.04242, 16.3205, 33.292, 7.87344, -50.206, -5.09046
10.3276, 9, 6.02732, 16.3258, 33.2992, 7.85058, -50.2347, -5.0746
10.3356, 9, 6.01228, 16.3311, 33.3064, 7.82805, -50.2634, -5.05896
10.3439, 9, 5.99725, 16.3363, 33.3135, 7.80534, -50.2926, -5.04332
10.3517, 9, 5.98211, 16.3416, 33.3206, 7.78221, -50.322, -5.02752
10.3597, 9, 5.96702, 16.347, 33.3277, 7.75878, -50.3508, -5.01182
10.3682, 9, 5.95198, 16.3523, 33.3346, 7.73554, -50.3794, -4.99583
10.3757, 9, 5.93691, 16.3576, 33.3414, 7.71255, -50.408, -4.97993
10.3837, 9, 5.92181, 16.3629, 33.3483, 7.68989, -50.4371, -4.9636
10.3923, 9, 5.90652, 16.3682, 33.3553, 7.6672, -50.4666, -4.94715
10.3997, 9, 5.89125, 16.3735, 33.3623, 7.64412, -50.4956, -4.93105
10.4076, 9, 5.87603, 16.379, 33.3692, 7.62071, -50.5244, -4.91512
10.4166, 9, 5.86083, 16.3845, 33.3761, 7.59745, -50.5531, -4.89939
10.4237, 9, 5.84569, 16.3899, 33.383, 7.57459, -50.5822, -4.88392
10.4318, 9, 5.83055, 16.3953, 33.3898, 7.55208, -50.6116, -4.86822
10.4408, 9, 5.81544, 16.4006, 33.3966, 7.52972, -50.6405, -4.85278
10.4478, 9, 5.80039, 16.4061, 33.4035, 7.50708, -50.669, -4.83727
10.456, 9, 5.78536, 16.4115, 33.4105, 7.48398, -50.6975, -4.82179
10.4626, 9, 5.77784, 16.4142, 33.414, 7.47232, -50.712, -4.81393
10.472, 9, 5.75508, 16.4222, 33.4245, 7.4379, -50.7562, -4.79005
10.4786, 9, 5.74743, 16.4248, 33.428, 7.42658, -50.7708, -4.78209
10.489, 9, 5.72467, 16.4329, 33.4384, 7.39304, -50.814, -4.75782
10.4961, 9, 5.7095, 16.4384, 33.4452, 7.37062, -50.8427, -4.74187
10.5042, 9, 5.69445, 16.444, 33.4519, 7.34781, -50.8718, -4.72617
10.5134, 9, 5.67937, 16.4496, 33.4586, 7.32482, -50.9015, -4.7107
10.5196, 9, 5.67177, 16.4523, 33.462, 7.3134, -50.916, -4.7031
10.5276, 9, 5.65669, 16.4578, 33.4688, 7.29093, -50.9449, -4.68796
10.5356, 9, 5.64165, 16.4634, 33.4755, 7.26874, -50.9734, -4.67265
10.5436, 9, 5.62657, 16.4689, 33.4822, 7.24678, -51.0022, -4.6574
10.5516, 9, 5.61146, 16.4745, 33.4889, 7.22459, -51.0316, -4.64225
10.5596, 9, 5.59624, 16.4801, 33.4955, 7.20193, -51.0611, -4.62677
10.5676, 9, 5.58101, 16.4856, 33.502, 7.17908, -51.0901, -4.61117
10.5756, 9, 5.56584, 16.4911, 33.5086, 7.15644, -51.1189, -4.59518
10.5836, 9, 5.55066, 16.4966, 33.5153, 7.13422, -51.1477, -4.57917
10.5906, 9, 5.53553, 16.5023, 33.5221, 7.11223, -51.1773, -4.56335
10.5996, 9, 5.52034, 16.508, 33.5289, 7.09022, -51.2067, -4.54749
10.6076, 9, 5.50502, 16.5136, 33.5356, 7.06786, -51.2356, -4.53209
10.6156, 9, 5.48985, 16.5192, 33.5424, 7.04512, -51.2642, -4.51681
10.6236, 9, 5.47471, 16.5247, 33.5491, 7.02242, -51.293, -4.5016
10.6316, 9, 5.45957, 16.5304, 33.5556, 7.00012, -51.3226, -4.48654
10.6412, 9, 5.44437, 16.536, 33.5621, 6.96709, -51.3666, -4.46354
10.6476, 9, 5.42904, 16.5416, 33.5686, 6.95614, -51.381, -4.45599
10.6566, 9, 5.4138, 16.5471, 33.5752, 6.93398, -51.4098, -4.44063
10.6636, 9, 5.39862, 16.5527, 33.5818, 6.91137, -51.4386, -4.42492
10.6716, 9, 5.3835, 16.5584, 33.5883, 6.88864, -51.4681, -4.40928
10.6796, 9, 5.36844, 16.5642, 33.5948, 6.86616, -51.4974, -4.39337
10.6876, 9, 5.35335, 16.57, 33.6013, 6.84399, -51.5262, -4.37778
10.6956, 9, 5.33831, 16.5758, 33.6078, 6.82208, -51.5548, -4.36237
10.7037, 9, 5.32329, 16.5816, 33.6142, 6.80009, -51.5836, -4.34711
10.7116, 9, 5.30828, 16.5874, 33.6206, 6.77771, -51.6132, -4.33211
10.7196, 9, 5.2932, 16.5933, 33.6271, 6.75495, -51.6428, -4.317
10.7277, 9, 5.27793, 16.5992, 33.6336, 6.73236, -51.6718, -4.30196
10.7356, 9, 5.26275, 16.605, 33.6402, 6.71014, -51.7006, -4.28707
10.7436, 9, 5.24758, 16.6108, 33.6467, 6.68835, -51.7296, -4.27203
10.7516, 9, 5.23248, 16.6166, 33.6532, 6.66662, -51.7592, -4.25688
10.7596, 9, 5.21744, 16.6224, 33.6597, 6.64473, -51.7887, -4.24156
10.7676, 9, 5.2023, 16.6284, 33.6661, 6.6224, -51.8176, -4.22609
10.7756, 9, 5.1872, 16.6344, 33.6723, 6.59991, -51.8463, -4.21056
10.7836, 9, 5.17217, 16.6402, 33.6785, 6.57776, -51.8751, -4.19518
10.7916, 9, 5.15712, 16.6461, 33.6849, 6.5559, -51.9048, -4.17986
10.7996, 9, 5.14206, 16.652, 33.6912, 6.53415, -51.9343, -4.16488
10.8076, 9, 5.12686, 16.6579, 33.6975, 6.51246, -51.9634, -4.15016
10.8157, 9, 5.1116, 16.6637, 33.7037, 6.49036, -51.9924, -4.13555
10.8237, 9, 5.09643, 16.6695, 33.71, 6.46806, -52.0215, -4.12101
10.8316, 9, 5.08124, 16.6753, 33.7162, 6.4457, -52.0511, -4.10633
10.8397, 9, 5.0661, 16.6812, 33.7224, 6.42396, -52.0806, -4.09168
10.8484, 9, 5.05088, 16.6872, 33.7285, 6.40244, -52.1095, -4.07681
10.8557, 9, 5.03563, 16.6933, 33.7347, 6.38113, -52.1382, -4.06189
10.8638, 9, 5.02049, 16.6993, 33.741, 6.35964, -52.1671, -4.04661
10.8725, 9, 5.00534, 16.7053, 33.7473, 6.33769, -52.1967, -4.03127
10.8797, 9, 4.99024, 16.7114, 33.7537, 6.31554, -52.2262, -4.01588
10.8877, 9, 4.975, 16.7175, 33.76, 6.29362, -52.2551, -4.00085
10.8965, 9, 4.95963, 16.7236, 33.7663, 6.27204, -52.284, -3.98594
10.9036, 9, 4.94432, 16.7296, 33.7726, 6.25061, -52.313, -3.97134
10.9117, 9, 4.92907, 16.7355, 33.7788, 6.22922, -52.3426, -3.95681
10.9205, 9, 4.91384, 16.7416, 33.7848, 6.20746, -52.372, -3.94242
10.9278, 9, 4.89866, 16.7478, 33.7908, 6.18541, -52.4008, -3.92821
10.9357, 9, 4.88343, 16.7541, 33.797, 6.16336, -52.4295, -3.91369
10.9447, 9, 4.86832, 16.7602, 33.8031, 6.14173, -52.4584, -3.89929
10.9519, 9, 4.8532, 16.7662, 33.8091, 6.12037, -52.4881, -3.88462
10.9599, 9, 4.83806, 16.7724, 33.8151, 6.09919, -52.5176, -3.86992
10.9666, 9, 4.83051, 16.7755, 33.8181, 6.08851, -52.5322, -3.86248
10.9761, 9, 4.80763, 16.7846, 33.8271, 6.05601, -52.5756, -3.84002
10.9841, 9, 4.79242, 16.7906, 33.8331, 6.03393, -52.6046, -3.82504
10.9921, 9, 4.77732, 16.7966, 33.8389, 6.012, -52.6344, -3.81044
11.0002, 9, 4.76224, 16.8027, 33.8449, 5.99039, -52.6638, -3.79593
11.0082, 9, 4.74721, 16.8089, 33.8509, 5.96899, -52.6928, -3.78164
11.0162, 9, 4.73966, 16.812, 33.8539, 5.95837, -52.7216, -3.76749
11.0243, 9, 4.71689, 16.8213, 33.863, 5.92621, -52.7506, -3.75316
11.0316, 9, 4.70932, 16.8244, 33.866, 5.91529, -52.7654, -3.74605
11.0396, 9, 4.69415, 16.8306, 33.872, 5.89331, -52.7953, -3.73193
11.0476, 9, 4.67895, 16.8369, 33.8781, 5.87144, -52.8246, -3.71761
11.0556, 9, 4.66367, 16.8431, 33.8841, 5.84998, -52.8537, -3.70322
11.0636, 9, 4.64825, 16.8493, 33.8899, 5.82875, -52.8827, -3.68865
11.0716, 9, 4.63297, 16.8555, 33.8957, 5.80779, -52.9123, -3.67387
11.0796, 9, 4.61769, 16.8617, 33.9015, 5.7866, -52.942, -3.65914
11.0876, 9, 4.60245, 16.868, 33.9075, 5.76502, -52.9712, -3.64446
11.0956, 9, 4.5873, 16.8744, 33.9134, 5.74321, -53.0001, -3.62982
11.1036, 9, 4.57209, 16.8808, 33.9193, 5.7216, -53.029, -3.61546
11.1116, 9, 4.55696, 16.8871, 33.9251, 5.70037, -53.0585, -3.60135
11.1196, 9, 4.54189, 16.8934, 33.931, 5.67936, -53.0883, -3.58727
11.1276, 9, 4.52685, 16.8997, 33.9369, 5.65848, -53.1175, -3.57351
11.1356, 9, 4.51175, 16.906, 33.9426, 5.63733, -53.1465, -3.55967
11.1437, 9, 4.49643, 16.9122, 33.9483, 5.61582, -53.1754, -3.54581
11.1516, 9, 4.48111, 16.9184, 33.9539, 5.59423, -53.2049, -3.53189
11.1596, 9, 4.46586, 16.9247, 33.9597, 5.57291, -53.2345, -3.5178
11.1686, 9, 4.45057, 16.9311, 33.9656, 5.55208, -53.2636, -3.50351
11.1756, 9, 4.43534, 16.9377, 33.9714, 5.53137, -53.2924, -3.48898
11.1837, 9, 4.42004, 16.9441, 33.9772, 5.51068, -53.3212, -3.47432
11.1916, 9, 4.40474, 16.9506, 33.9831, 5.48967, -53.3507, -3.45963
11.1996, 9, 4.3896, 16.9571, 33.9889, 5.46834, -53.3804, -3.44528
11.2076, 9, 4.3744, 16.9637, 33.9946, 5.44683, -53.4097, -3.43094
11.2156, 9, 4.3592, 16.9703, 34.0002, 5.42563, -53.4387, -3.41682
11.2237, 9, 4.34393, 16.9767, 34.0057, 5.40477, -53.4678, -3.40291
11.2316, 9, 4.32854, 16.9831, 34.0112, 5.38409, -53.4972, -3.3891
11.2396, 9, 4.31335, 16.9897, 34.0169, 5.3634, -53.527, -3.37537
11.2476, 9, 4.29815, 16.9963, 34.0226, 5.34234, -53.5562, -3.36167
11.2556, 9, 4.28303, 17.0029, 34.0281, 5.32096, -53.5851, -3.34774
11.2636, 9, 4.26792, 17.0095, 34.0336, 5.2996, -53.614, -3.33368
11.2716, 9, 4.25278, 17.016, 34.0392, 5.2786, -53.6435, -3.3195
11.2796, 9, 4.2377, 17.0225, 34.0447, 5.25783, -53.6733, -3.30511
11.2876, 9, 4.2226, 17.029, 34.0502, 5.23724, -53.7026, -3.29073
11.2956, 9, 4.20745, 17.0355, 34.0556, 5.21661, -53.7316, -3.27628
11.3036, 9, 4.19224, 17.0418, 34.061, 5.19565, -53.7606, -3.26196
11.3119, 9, 4.17686, 17.0482, 34.0665, 5.17429, -53.7903, -3.24793
11.3198, 9, 4.16165, 17.0548, 34.0721, 5.15302, -53.82, -3.23408
11.3276, 9, 4.1464, 17.0615, 34.0778, 5.13208, -53.8491, -3.22041
11.3359, 9, 4.13115, 17.0681, 34.0834, 5.11133, -53.878, -3.20685
11.3437, 9, 4.11598, 17.0747, 34.089, 5.09078, -53.907, -3.1932
11.3516, 9, 4.10069, 17.0814, 34.0947, 5.07005, -53.9366, -3.17952
11.36, 9, 4.08546, 17.0881, 34.1003, 5.04895, -53.9665, -3.16594
11.3677, 9, 4.07025, 17.0948, 34.1058, 5.02758, -53.9957, -3.15224
11.3757, 9, 4.05505, 17.1014, 34.1111, 5.00643, -54.0248, -3.13841
11.3844, 9, 4.03981, 17.1079, 34.1164, 4.98558, -54.0538, -3.12446
11.3917, 9, 4.02439, 17.1146, 34.1217, 4.96505, -54.0834, -3.11037
11.3996, 9, 4.00898, 17.1215, 34.1271, 4.94469, -54.1131, -3.09634
11.4083, 9, 3.99366, 17.1283, 34.1325, 4.92411, -54.1422, -3.08242
11.4156, 9, 3.97835, 17.135, 34.1378, 4.90325, -54.171, -3.06857
11.4236, 9, 3.96313, 17.1418, 34.1431, 4.88213, -54.1999, -3.05469
11.4327, 9, 3.94786, 17.1485, 34.1484, 4.86117, -54.2294, -3.04121
11.4397, 9, 3.93266, 17.1552, 34.1537, 4.84058, -54.2592, -3.02781
11.4479, 9, 3.91754, 17.1619, 34.159, 4.82015, -54.2883, -3.01463
11.4567, 9, 3.90235, 17.1685, 34.1642, 4.79989, -54.3173, -3.00146
11.464, 9, 3.88713, 17.1752, 34.1694, 4.77948, -54.3464, -2.98815
11.472, 9, 3.87177, 17.1821, 34.1745, 4.75867, -54.3761, -2.9748
11.4789, 9, 3.86405, 17.1855, 34.1772, 4.74817, -54.391, -2.96808
11.4881, 9, 3.84111, 17.1958, 34.1851, 4.71683, -54.435, -2.94767
11.4961, 9, 3.82587, 17.2027, 34.1905, 4.69648, -54.4638, -2.93399
11.505, 9, 3.81067, 17.2097, 34.1957, 4.67631, -54.4927, -2.92002
11.5123, 9, 3.79541, 17.2166, 34.201, 4.65637, -54.5224, -2.90604
11.5201, 9, 3.78775, 17.22, 34.2036, 4.64637, -54.5373, -2.89206
11.5275, 9, 3.77254, 17.2267, 34.2089, 4.62607, -54.5668, -2.88519
11.5356, 9, 3.75733, 17.2335, 34.2142, 4.60528, -54.596, -2.87171
11.5436, 9, 3.74214, 17.2404, 34.2194, 4.58451, -54.625, -2.8583
11.5516, 9, 3.72694, 17.2474, 34.2245, 4.56391, -54.6544, -2.84515
11.5596, 9, 3.71154, 17.2543, 34.2295, 4.54365, -54.6842, -2.832
11.5675, 9, 3.69621, 17.2612, 34.2346, 4.52355, -54.7136, -2.81899
11.5775, 9, 3.68096, 17.2681, 34.2397, 4.50341, -54.7425, -2.79957
11.5836, 9, 3.66575, 17.275, 34.2449, 4.48305, -54.7713, -2.79302
11.5915, 9, 3.65054, 17.2819, 34.25, 4.46224, -54.8006, -2.77973
11.6017, 9, 3.62751, 17.292, 34.2576, 4.43118, -54.8452, -2.75955
11.6075, 9, 3.6199, 17.2954, 34.2601, 4.421, -54.8599, -2.75277
11.6156, 9, 3.60469, 17.3023, 34.2652, 4.40084, -54.889, -2.73916
11.6259, 9, 3.58944, 17.3094, 34.2702, 4.38094, -54.9326, -2.71894
11.6315, 9, 3.57427, 17.3164, 34.2751, 4.361, -54.9474, -2.71224
11.6395, 9, 3.55888, 17.3234, 34.28, 4.34081, -54.9772, -2.69865
11.6484, 9, 3.54343, 17.3305, 34.2849, 4.32023, -55.0065, -2.68547
11.6556, 9, 3.52809, 17.3377, 34.2898, 4.29949, -55.0355, -2.67249
11.6645, 9, 3.51278, 17.3447, 34.2948, 4.27896, -55.0644, -2.6596
11.6724, 9, 3.49756, 17.3516, 34.2999, 4.25868, -55.0939, -2.6467
11.6796, 9, 3.48239, 17.3586, 34.3049, 4.23869, -55.1239, -2.63385
11.6875, 9, 3.46714, 17.3657, 34.31, 4.21874, -55.1534, -2.6209
11.6963, 9, 3.45194, 17.3729, 34.315, 4.19847, -55.1825, -2.60798
11.7036, 9, 3.43673, 17.3801, 34.32, 4.17793, -55.2116, -2.59489
11.7116, 9, 3.42156, 17.3872, 34.325, 4.15722, -55.2413, -2.58159
11.7204, 9, 3.40628, 17.3943, 34.3298, 4.13682, -55.2712, -2.56825
11.7275, 9, 3.39084, 17.4015, 34.3346, 4.11671, -55.3005, -2.55466
11.7355, 9, 3.37558, 17.4085, 34.3394, 4.09687, -55.3295, -2.54115
11.7444, 9, 3.3603, 17.4154, 34.3441, 4.07714, -55.3585, -2.52779
11.7526, 9, 3.34512, 17.4225, 34.3489, 4.05722, -55.3881, -2.51469
11.7595, 9, 3.32997, 17.4298, 34.3537, 4.03695, -55.418, -2.50153
11.7683, 9, 3.31463, 17.437, 34.3584, 4.01636, -55.4474, -2.48862
11.7755, 9, 3.29939, 17.4442, 34.3631, 3.99605, -55.4766, -2.47589
11.7836, 9, 3.28416, 17.4514, 34.3678, 3.97599, -55.5058, -2.4633
11.7923, 9, 3.26887, 17.4588, 34.3725, 3.95617, -55.5356, -2.45082
11.7995, 9, 3.25357, 17.466, 34.3772, 3.9365, -55.5655, -2.43827
11.8075, 9, 3.23817, 17.4731, 34.3819, 3.91671, -55.5948, -2.42561
11.8164, 9, 3.22284, 17.4802, 34.3866, 3.89661, -55.6237, -2.41284
11.8236, 9, 3.20748, 17.4875, 34.3912, 3.87632, -55.6528, -2.40003
11.8316, 9, 3.19211, 17.4949, 34.3958, 3.8561, -55.6826, -2.38715
11.8409, 9, 3.17685, 17.5023, 34.4005, 3.83635, -55.7125, -2.37399
11.8477, 9, 3.16146, 17.5095, 34.4052, 3.81676, -55.7419, -2.36064
11.8556, 9, 3.14614, 17.5168, 34.41, 3.79736, -55.7712, -2.34721
11.8637, 9, 3.1309, 17.5241, 34.4149, 3.77794, -55.8003, -2.33396
11.8717, 9, 3.11561, 17.5313, 34.4196, 3.75811, -55.8301, -2.32108
11.8797, 9, 3.10029, 17.5383, 34.4244, 3.73792, -55.8599, -2.30842
11.8877, 9, 3.08478, 17.5455, 34.4291, 3.71769, -55.8891, -2.2962
11.8957, 10, 3.06932, 17.5529, 34.4337, 3.69775, -55.9181, -2.28458
11.9036, 10, 3.05392, 17.5604, 34.4383, 3.67804, -55.9472, -2.27339
11.9116, 10, 3.03854, 17.5677, 34.4429, 3.65848, -55.9771, -2.26282
11.9196, 10, 3.02325, 17.5752, 34.4473, 3.63881, -56.007, -2.25297
11.9276, 10, 3.0079, 17.5827, 34.4517, 3.61877, -56.0365, -2.24358
11.9357, 10, 2.99263, 17.5902, 34.4561, 3.59832, -56.0656, -2.23467
11.9438, 10, 2.97744, 17.5975, 34.4604, 3.57769, -56.0948, -2.22594
11.9518, 10, 2.96222, 17.6049, 34.4647, 3.55739, -56.1248, -2.21735
11.9599, 10, 2.94701, 17.6125, 34.469, 3.53735, -56.1545, -2.20876
11.9679, 10, 2.93167, 17.6202, 34.4732, 3.5175, -56.1838, -2.20018
11.9746, 10, 2.92396, 17.6241, 34.4753, 3.50763, -56.1982, -2.19591
11.9842, 10, 2.90103, 17.6355, 34.4815, 3.47753, -56.2419, -2.18281
