hehonglu123/ABB_Primitive_Study/realrobot/movelcl_30_car2/curve_exe_v500_z20.csv
timestamp, cmd_num, J1, J2, J3, J4, J5, J6
0.00036, -1, -13.4402, 43.6802, 12.593, -11.628, -87.0287, 7.42451
0.002218, -1, -13.4402, 43.6802, 12.593, -11.628, -87.0287, 7.42451
0.00823, -1, -13.4402, 43.6802, 12.593, -11.628, -87.0287, 7.4245
0.035555, -1, -13.4402, 43.6802, 12.593, -11.628, -87.0287, 7.42443
0.036915, -1, -13.4402, 43.6802, 12.593, -11.628, -87.0287, 7.42443
0.038181, -1, -13.4402, 43.6802, 12.593, -11.628, -87.0287, 7.42443
0.040325, -1, -13.4402, 43.6802, 12.593, -11.628, -87.0287, 7.42446
0.04771, -1, -13.44, 43.6801, 12.593, -11.628, -87.0287, 7.42446
0.056146, -1, -13.4384, 43.6792, 12.5931, -11.628, -87.0287, 7.42447
0.063518, -1, -13.4369, 43.6781, 12.5932, -11.6279, -87.0287, 7.42449
0.07216, -1, -13.4278, 43.6707, 12.5946, -11.6273, -87.0276, 7.42437
0.078975, -1, -13.423, 43.6667, 12.5955, -11.6264, -87.0262, 7.42424
0.088843, -1, -13.4012, 43.6489, 12.6004, -11.6162, -87.0139, 7.42095
0.096135, -1, -13.378, 43.6299, 12.606, -11.6002, -86.9948, 7.41072
0.10297, -1, -13.3634, 43.6178, 12.6098, -11.588, -86.9803, 7.40219
0.113067, -1, -13.3067, 43.5695, 12.626, -11.529, -86.9121, 7.36012
0.12067, -1, -13.2566, 43.5258, 12.6411, -11.4653, -86.8385, 7.31438
0.128438, -1, -13.1952, 43.4715, 12.6609, -11.3792, -86.7385, 7.2506
0.13497, -1, -13.1602, 43.4403, 12.6724, -11.3264, -86.6774, 7.2116
0.143005, -1, -13.0816, 43.3694, 12.6986, -11.2012, -86.532, 7.1195
0.152556, -1, -12.9414, 43.242, 12.7471, -10.9638, -86.2556, 6.9431
0.16139, -1, -12.833, 43.1431, 12.7852, -10.7742, -86.0346, 6.80175
0.16702, -1, -12.7745, 43.0899, 12.8058, -10.6708, -85.914, 6.72451
0.176623, -1, -12.5834, 42.9163, 12.8729, -10.331, -85.5178, 6.4707
0.185326, -1, -12.5149, 42.8541, 12.897, -10.2099, -85.3763, 6.38016
0.191026, -1, -12.3711, 42.724, 12.9473, -9.95848, -85.0826, 6.19205
0.201181, -1, -12.1422, 42.5175, 13.0266, -9.56551, -84.6232, 5.89758
0.206958, -1, -12.0631, 42.4462, 13.0538, -9.43186, -84.4668, 5.79729
0.216002, -1, -11.901, 42.3008, 13.1091, -9.16211, -84.1513, 5.59457
0.224005, -1, -11.7343, 42.1521, 13.1652, -8.89034, -83.8336, 5.39065
0.231965, -1, -11.5647, 42.0014, 13.2219, -8.61733, -83.5145, 5.18618
0.239009, -1, -11.3936, 41.8495, 13.2789, -8.34405, -83.1947, 4.98136
0.246971, -1, -11.2218, 41.6971, 13.3361, -8.07052, -82.8746, 4.77616
0.255961, -1, -11.0498, 41.5452, 13.3933, -7.79659, -82.5542, 4.57089
0.262979, -1, -10.8775, 41.3937, 13.4508, -7.5228, -82.2335, 4.3652
0.271971, -1, -10.7051, 41.2421, 13.5084, -7.24899, -81.9127, 4.15981
0.280046, -1, -10.5326, 41.0904, 13.5661, -6.97475, -81.5919, 3.95443
0.28803, -1, -10.36, 40.9387, 13.6238, -6.70088, -81.2713, 3.74908
0.295964, -1, -10.1876, 40.7873, 13.6813, -6.42708, -80.9507, 3.54359
0.303959, -1, -10.0156, 40.6359, 13.7387, -6.15328, -80.6306, 3.33804
0.31295, -1, -9.84397, 40.4843, 13.7962, -5.87961, -80.3108, 3.13292
0.320153, -1, -9.67302, 40.3321, 13.8535, -5.60614, -79.991, 2.92796
0.328024, -1, -9.50259, 40.1799, 13.9107, -5.33271, -79.6714, 2.72331
0.335983, -1, -9.33287, 40.0279, 13.968, -5.05941, -79.3518, 2.51862
0.344006, -1, -9.16379, 39.876, 14.025, -4.78659, -79.0325, 2.31418
0.352026, -1, -8.99493, 39.724, 14.0821, -4.51413, -78.7132, 2.10984
0.360027, -1, -8.82588, 39.572, 14.1392, -4.24193, -78.3942, 1.9059
0.36797, -1, -8.65659, 39.4203, 14.1961, -3.97044, -78.0762, 1.70223
0.376024, -1, -8.4869, 39.2694, 14.2529, -3.69916, -77.7587, 1.4989
0.38399, -1, -8.31706, 39.119, 14.3098, -3.42815, -77.4416, 1.29577
0.392456, -1, -8.14712, 38.9686, 14.3666, -3.15784, -77.1252, 1.093
0.399074, -1, -7.97693, 38.8183, 14.4233, -2.88796, -76.8095, 0.890828
0.407215, -1, -7.80683, 38.6685, 14.4799, -2.61854, -76.4941, 0.689033
0.415082, -1, -7.63655, 38.5193, 14.5362, -2.3499, -76.1793, 0.487682
0.423959, -1, -7.46615, 38.3703, 14.5924, -2.08172, -75.865, 0.286764
0.431961, -1, -7.29601, 38.2214, 14.6487, -1.81375, -75.5514, 0.0862528
0.440839, -1, -7.12645, 38.0725, 14.7049, -1.54651, -75.2387, -0.114067
0.447972, -1, -6.95781, 37.9239, 14.7609, -1.28009, -74.9267, -0.313425
0.456057, -1, -6.79025, 37.7757, 14.8167, -1.01417, -74.6155, -0.512333
0.46301, -1, -6.62354, 37.6279, 14.8722, -0.749161, -74.3052, -0.710848
0.471062, -1, -6.45767, 37.4803, 14.9276, -0.484992, -73.9956, -0.908923
0.479394, -1, -6.29321, 37.3329, 14.983, -0.22137, -73.687, -1.10652
0.48719, -1, -6.12967, 37.1861, 15.0382, 0.0417841, -73.379, -1.30342
0.495262, -1, -5.96701, 37.0401, 15.0933, 0.303807, -73.0721, -1.49953
0.503426, -1, -5.80493, 36.8947, 15.1481, 0.565035, -72.7663, -1.695
0.511407, -1, -5.64298, 36.7496, 15.2027, 0.825568, -72.4614, -1.89002
0.519428, -1, -5.48091, 36.6049, 15.2572, 1.08507, -72.1572, -2.08453
0.528056, -1, -5.31888, 36.4608, 15.3117, 1.34375, -71.8543, -2.27837
0.53686, -1, -5.15693, 36.3174, 15.3659, 1.6018, -71.5521, -2.47152
0.544059, -1, -4.99517, 36.1744, 15.42, 1.85902, -71.2511, -2.66389
0.551593, -1, -4.83361, 36.0317, 15.4739, 2.11508, -70.9512, -2.85573
0.560903, -1, -4.67235, 35.8893, 15.5275, 2.37031, -70.6523, -3.04692
0.567961, -1, -4.51115, 35.7473, 15.581, 2.62446, -70.3545, -3.23756
0.575032, -1, -4.43061, 35.6765, 15.6076, 2.75109, -70.206, -3.33264
0.584876, -1, -4.18918, 35.4653, 15.6872, 3.12975, -69.7627, -3.6164
0.592046, -1, -4.02946, 35.3249, 15.74, 3.38139, -69.4685, -3.80455
0.59899, -1, -3.9501, 35.2548, 15.7664, 3.50687, -69.3217, -3.89836
0.60921, -1, -3.71384, 35.0452, 15.845, 3.8816, -68.8829, -4.17879
0.615049, -1, -3.63566, 34.9757, 15.8711, 4.00603, -68.7371, -4.27198
0.624387, -1, -3.40242, 34.7682, 15.949, 4.37803, -68.3011, -4.55069
0.630959, -1, -3.32513, 34.6993, 15.9749, 4.50147, -68.1564, -4.64308
0.641089, -1, -3.09477, 34.4936, 16.0524, 4.87052, -67.7239, -4.91914
0.64858, -1, -2.9426, 34.3568, 16.104, 5.1157, -67.4373, -5.1023
0.656479, -1, -2.79106, 34.2208, 16.1553, 5.35966, -67.1518, -5.28494
0.664605, -1, -2.63993, 34.0856, 16.2062, 5.60246, -66.8674, -5.46677
0.672557, -1, -2.48885, 33.9511, 16.257, 5.84433, -66.5845, -5.64808
0.680553, -1, -2.41324, 33.8169, 16.3077, 6.0852, -66.3027, -5.82826
0.688537, -1, -2.26217, 33.75, 16.3329, 6.20518, -66.0219, -6.00779
0.695957, -1, -2.11151, 33.6165, 16.3833, 6.44441, -65.8818, -6.09723
0.703009, -1, -1.96121, 33.4834, 16.4333, 6.68275, -65.6025, -6.27558
0.712092, -1, -1.8115, 33.351, 16.483, 6.92028, -65.3246, -6.45345
0.719978, -1, -1.66207, 33.2191, 16.5324, 7.15667, -65.0476, -6.63056
0.727987, -1, -1.51278, 33.0876, 16.5817, 7.39187, -64.7718, -6.80718
0.735968, -1, -1.36364, 32.9566, 16.6309, 7.62624, -64.4972, -6.98259
0.743948, -1, -1.21504, 32.8259, 16.6799, 7.85965, -64.2238, -7.15734
0.750974, -1, -1.06748, 32.6961, 16.7287, 8.09206, -63.9515, -7.33148
0.759951, -1, -0.921115, 32.567, 16.7773, 8.32356, -63.6804, -7.50491
0.767946, -1, -0.77612, 32.4385, 16.8256, 8.55424, -63.4106, -7.67779
0.774938, -1, -0.631986, 32.3105, 16.8737, 8.78392, -63.142, -7.84989
0.782975, -1, -0.488704, 32.1831, 16.9217, 9.01237, -62.8744, -8.021
0.791945, -1, -0.346616, 32.0561, 16.9696, 9.23981, -62.6081, -8.19125
0.798932, -1, -0.205586, 31.9299, 17.0171, 9.46647, -62.3429, -8.36059
0.807948, -1, -0.065531, 31.8042, 17.0643, 9.69203, -62.0788, -8.52944
0.816927, -1, 0.0737102, 31.679, 17.1115, 9.9164, -61.8157, -8.69739
0.822937, -1, 0.212635, 31.5543, 17.1583, 10.14, -61.5537, -8.86507
0.831948, -1, 0.351563, 31.4299, 17.2049, 10.3628, -61.2927, -9.03186
0.839972, -1, 0.490643, 31.3059, 17.2515, 10.5845, -61.0327, -9.19768
0.848036, -1, 0.629549, 31.1826, 17.2978, 10.8051, -60.774, -9.36285
0.855956, -1, 0.76812, 31.06, 17.3439, 11.0249, -60.5164, -9.5272
0.863984, -1, 0.906348, 30.9376, 17.3897, 11.2439, -60.2601, -9.69119
0.871957, -1, 1.04404, 30.8159, 17.4356, 11.4618, -60.0047, -9.8543
0.879945, -1, 1.18136, 30.6945, 17.4812, 11.6787, -59.7506, -10.017
0.888049, -1, 1.31849, 30.5737, 17.5265, 11.8949, -59.4976, -10.1789
0.895942, -1, 1.45529, 30.4536, 17.5717, 12.1104, -59.246, -10.3399
0.90396, -1, 1.59148, 30.3341, 17.6168, 12.3248, -58.9952, -10.5002
0.912069, -1, 1.72681, 30.2151, 17.6616, 12.5382, -58.7452, -10.6597
0.919946, -1, 1.86121, 30.0967, 17.7063, 12.7509, -58.4963, -10.8189
0.927943, -1, 1.99464, 29.9787, 17.7507, 12.9626, -58.2482, -10.9774
0.936009, -1, 2.12725, 29.861, 17.7951, 13.1733, -58.001, -11.1354
0.943944, -1, 2.25915, 29.7439, 17.839, 13.3831, -57.7547, -11.2927
0.952011, -1, 2.3902, 29.6275, 17.8828, 13.5922, -57.5094, -11.4491
0.96001, -1, 2.52027, 29.5113, 17.9265, 13.8007, -57.2652, -11.605
0.967943, -1, 2.64929, 29.3955, 17.9701, 14.0082, -57.0222, -11.7603
0.975943, -1, 2.77752, 29.2802, 18.0134, 14.2148, -56.7803, -11.9151
0.984001, -1, 2.90512, 29.165, 18.0565, 14.4204, -56.5394, -12.0692
0.991947, -1, 3.03263, 29.0503, 18.0995, 14.6254, -56.2997, -12.223
1.00002, -1, 3.16008, 28.9363, 18.1422, 14.8294, -56.0608, -12.376
1.00808, -1, 3.28762, 28.8227, 18.1848, 15.0326, -55.8229, -12.5281
1.01552, -1, 3.4148, 28.7097, 18.2273, 15.2351, -55.586, -12.6794
1.0241, -1, 3.54171, 28.5971, 18.2697, 15.4369, -55.3499, -12.8303
1.03223, -1, 3.66841, 28.4849, 18.312, 15.6381, -55.1147, -12.9806
1.03972, -1, 3.79479, 28.3731, 18.3539, 15.8381, -54.8802, -13.1303
1.04812, -1, 3.9209, 28.2621, 18.3956, 16.0373, -54.6467, -13.2796
1.05645, -1, 4.04674, 28.1515, 18.4374, 16.2359, -54.4137, -13.4285
1.06401, -1, 4.1722, 28.0415, 18.4789, 16.4336, -54.182, -13.5764
1.07214, -1, 4.29712, 27.9318, 18.5202, 16.6305, -53.9512, -13.7238
1.07896, -1, 4.35928, 27.8771, 18.5409, 16.7286, -53.8362, -13.7973
1.087, -1, 4.483, 27.7679, 18.5821, 16.9244, -53.6067, -13.9437
1.0961, -1, 4.66779, 27.6046, 18.6434, 17.2169, -53.2644, -14.1625
1.10294, -1, 4.72912, 27.5504, 18.6637, 17.3139, -53.1507, -14.2352
1.11098, -1, 4.85118, 27.4424, 18.7043, 17.5074, -52.924, -14.3801
1.12031, -1, 5.03293, 27.281, 18.765, 17.7964, -52.5856, -14.5966
1.12692, -1, 5.0932, 27.2274, 18.7852, 17.8923, -52.4732, -14.6684
1.13499, -1, 5.21304, 27.1205, 18.8253, 18.0841, -52.2492, -14.8117
1.14443, -1, 5.3911, 26.9608, 18.8853, 18.3698, -51.9146, -15.0254
1.15325, -1, 5.50902, 26.8548, 18.9252, 18.5596, -51.6924, -15.1674
1.15893, -1, 5.56784, 26.802, 18.945, 18.6542, -51.5817, -15.2382
1.16852, -1, 5.74362, 26.6445, 19.0044, 18.937, -51.2505, -15.4498
1.17728, -1, 5.80206, 26.5399, 19.0438, 19.1249, -51.0307, -15.5905
1.18296, -1, 5.91881, 26.4878, 19.0634, 19.2184, -50.921, -15.6607
1.19246, -1, 6.03533, 26.3837, 19.1026, 19.405, -50.7023, -15.8003
1.19993, -1, 6.15176, 26.28, 19.1416, 19.591, -50.4844, -15.9395
1.20692, -1, 6.26818, 26.1765, 19.1804, 19.7764, -50.2673, -16.0784
1.21594, -1, 6.38458, 26.0732, 19.2192, 19.961, -50.051, -16.2167
1.22397, -1, 6.50089, 25.9705, 19.2578, 20.145, -49.8355, -16.3546
1.23092, -1, 6.61691, 25.8681, 19.2962, 20.3281, -49.6205, -16.4921
1.23995, -1, 6.73262, 25.766, 19.3345, 20.5108, -49.4066, -16.6293
1.24793, -1, 6.84783, 25.6644, 19.3726, 20.6931, -49.1934, -16.766
1.25493, -1, 6.9627, 25.5631, 19.4108, 20.8745, -48.9809, -16.9018
1.26394, -1, 7.07709, 25.462, 19.4488, 21.0554, -48.7696, -17.0373
1.27193, -1, 7.19092, 25.3615, 19.4866, 21.2356, -48.5588, -17.172
1.27892, -1, 7.30434, 25.2614, 19.5244, 21.4152, -48.3485, -17.3064
1.28793, -1, 7.41725, 25.1617, 19.562, 21.5944, -48.1388, -17.4403
1.29593, -1, 7.52967, 25.0623, 19.5994, 21.7728, -47.9299, -17.5738
1.30294, -1, 7.64159, 24.9633, 19.6368, 21.9507, -47.7215, -17.7069
1.31193, -1, 7.75291, 24.8645, 19.6741, 22.1279, -47.5137, -17.8399
1.32238, -1, 7.86372, 24.766, 19.7111, 22.3048, -47.3064, -18.0381
1.32692, -1, 7.97424, 24.6676, 19.7481, 22.4812, -47.0999, -18.1041
1.33593, -1, 8.08431, 24.5696, 19.785, 22.6568, -46.8941, -18.2353
1.34495, -1, 8.1939, 24.4719, 19.8215, 22.8317, -46.689, -18.3661
1.35093, -1, 8.30312, 24.3745, 19.858, 23.0062, -46.4846, -18.4967
1.35994, -1, 8.41198, 24.2772, 19.8945, 23.1802, -46.281, -18.6268
1.36797, -1, 8.52024, 24.1804, 19.9308, 23.3535, -46.078, -18.7565
1.37594, -1, 8.62786, 24.0838, 19.967, 23.5263, -45.8757, -18.8861
1.38393, -1, 8.73517, 23.9874, 20.0032, 23.6984, -45.6741, -19.0152
1.39203, -1, 8.84232, 23.8915, 20.0391, 23.8701, -45.4731, -19.1435
1.40003, -1, 8.94951, 23.796, 20.075, 24.0413, -45.273, -19.2717
1.40714, -1, 9.05664, 23.7009, 20.111, 24.2121, -45.0734, -19.3994
1.41507, -1, 9.16367, 23.6062, 20.1467, 24.3823, -44.8743, -19.5265
1.42303, -1, 9.27043, 23.5118, 20.1822, 24.5519, -44.6757, -19.6535
1.43224, -1, 9.37707, 23.4176, 20.2179, 24.7208, -44.4776, -19.7801
1.43898, -1, 9.48341, 23.3237, 20.2533, 24.8895, -44.28, -19.9063
1.44793, -1, 9.58942, 23.2299, 20.2885, 25.0576, -44.0829, -20.0323
1.45678, -1, 9.69513, 23.1363, 20.3238, 25.2252, -43.8863, -20.158
1.46401, -1, 9.80063, 23.0431, 20.3588, 25.3922, -43.6904, -20.283
1.47132, -1, 9.90591, 22.9502, 20.3936, 25.5588, -43.4953, -20.4078
1.47906, -1, 10.0108, 22.8574, 20.4286, 25.725, -43.3008, -20.5321
1.48712, -1, 10.1152, 22.7649, 20.4633, 25.891, -43.1068, -20.6561
1.49528, -1, 10.2193, 22.6728, 20.4978, 26.0563, -42.9134, -20.7797
1.50324, -1, 10.323, 22.5808, 20.5324, 26.221, -42.7205, -20.9031
1.5113, -1, 10.4263, 22.489, 20.5669, 26.3852, -42.5281, -21.0263
1.51949, -1, 10.5294, 22.3976, 20.6013, 26.549, -42.3364, -21.1491
1.5289, -1, 10.6321, 22.3065, 20.6356, 26.7124, -42.145, -21.2716
1.53602, -1, 10.7344, 22.2156, 20.6698, 26.8752, -41.9544, -21.3933
1.54354, -1, 10.8364, 22.1251, 20.7038, 27.0377, -41.7644, -21.515
1.55339, -1, 10.9379, 22.0347, 20.7378, 27.1994, -41.5749, -21.636
1.55956, -1, 10.9884, 21.9446, 20.7718, 27.3609, -41.3857, -21.7568
1.56809, -1, 11.1397, 21.8547, 20.8056, 27.5222, -41.197, -21.8774
1.57596, -1, 11.2403, 21.765, 20.8392, 27.6829, -41.0089, -21.9976
1.58396, -1, 11.3407, 21.6754, 20.8729, 27.8431, -40.8211, -22.1174
1.59229, -1, 11.4406, 21.5862, 20.9064, 28.0028, -40.6339, -22.2373
1.59891, -1, 11.4904, 21.5416, 20.9231, 28.0824, -40.5405, -22.297
1.60891, -1, 11.6392, 21.4084, 20.9732, 28.3209, -40.2608, -22.4754
1.61618, -1, 11.7382, 21.32, 21.0065, 28.4795, -40.0753, -22.5943
1.62299, -1, 11.7877, 21.2759, 21.023, 28.5587, -39.9826, -22.6533
1.63234, -1, 11.936, 21.144, 21.0727, 28.7953, -39.7053, -22.8302
1.63894, -1, 11.9855, 21.1001, 21.0893, 28.874, -39.6131, -22.8891
1.64838, -1, 12.1337, 20.9689, 21.1386, 29.1094, -39.3373, -23.0653
1.65895, -1, 12.2324, 20.8817, 21.1714, 29.2661, -39.1539, -23.1824
1.66286, -1, 12.2817, 20.8381, 21.1878, 29.3444, -39.0624, -23.2409
1.67097, -1, 12.3799, 20.7513, 21.2206, 29.5003, -38.8801, -23.3579
1.68052, -1, 12.5268, 20.6214, 21.2694, 29.7335, -38.6069, -23.5324
1.68855, -1, 12.5757, 20.5781, 21.302, 29.8884, -38.4256, -23.6484
1.69592, -1, 12.6733, 20.4918, 21.3182, 29.9657, -38.3351, -23.7063
1.70396, -1, 12.7707, 20.4056, 21.3505, 30.1202, -38.1546, -23.8217
1.71193, -1, 12.8676, 20.3196, 21.3827, 30.2742, -37.9745, -23.9366
1.71997, -1, 12.9643, 20.2337, 21.4149, 30.4279, -37.7949, -24.0517
1.72799, -1, 13.0607, 20.148, 21.4472, 30.581, -37.6156, -24.1663
1.73592, -1, 13.1569, 20.0627, 21.4791, 30.7336, -37.4366, -24.2807
1.74393, -1, 13.2526, 19.9776, 21.5111, 30.8862, -37.258, -24.3949
1.75197, -1, 13.3481, 19.8926, 21.5431, 31.0384, -37.0797, -24.5089
1.75992, -1, 13.4433, 19.808, 21.5749, 31.1902, -36.9019, -24.6227
1.76793, -1, 13.5383, 19.7235, 21.6066, 31.3417, -36.7243, -24.7359
1.77596, -1, 13.6332, 19.6392, 21.6383, 31.4927, -36.5474, -24.8491
1.78391, -1, 13.7277, 19.5552, 21.67, 31.6431, -36.3709, -24.962
1.79096, -1, 13.8221, 19.4713, 21.7015, 31.7936, -36.1946, -25.0745
1.79993, -1, 13.9162, 19.3876, 21.7329, 31.9437, -36.0189, -25.1869
1.80793, -1, 14.0103, 19.3042, 21.7644, 32.0933, -35.8436, -25.2991
1.81742, -1, 14.1043, 19.2209, 21.7957, 32.2426, -35.6686, -25.411
1.82392, -1, 14.198, 19.1379, 21.8268, 32.3914, -35.4942, -25.5229
1.83191, -1, 14.2913, 19.055, 21.8579, 32.5401, -35.3202, -25.6343
1.84099, -1, 14.3843, 18.9723, 21.8891, 32.6885, -35.1466, -25.7456
1.84794, -1, 14.477, 18.8898, 21.9201, 32.8368, -34.9734, -25.8563
1.85598, -1, 14.5695, 18.8074, 21.951, 32.9845, -34.8008, -25.9669
1.86391, -1, 14.6617, 18.7251, 21.982, 33.1319, -34.6285, -26.0772
1.87192, -1, 14.7536, 18.6431, 22.0128, 33.2788, -34.4566, -26.1869
1.87996, -1, 14.8455, 18.5613, 22.0435, 33.4255, -34.2848, -26.2968
1.88793, -1, 14.9371, 18.4797, 22.0742, 33.5719, -34.1134, -26.4061
1.89595, -1, 15.0287, 18.3982, 22.1049, 33.718, -33.9422, -26.5154
1.904, -1, 15.12, 18.317, 22.1355, 33.8637, -33.7716, -26.6247
1.91193, -1, 15.2112, 18.236, 22.166, 34.0091, -33.6011, -26.7337
1.91992, -1, 15.3024, 18.1552, 22.1965, 34.154, -33.431, -26.8424
1.92798, -1, 15.3935, 18.0745, 22.2269, 34.2988, -33.2611, -26.9506
1.93591, -1, 15.4846, 17.9939, 22.2572, 34.4434, -33.0919, -27.0587
1.94392, -1, 15.5756, 17.9135, 22.2875, 34.5877, -32.923, -27.1666
1.95196, -1, 15.6664, 17.8332, 22.3178, 34.7316, -32.7546, -27.2739
1.95992, -1, 15.7569, 17.7532, 22.3479, 34.8752, -32.5865, -27.3815
1.96793, -1, 15.8472, 17.6732, 22.3778, 35.0183, -32.4187, -27.4886
1.97596, -1, 15.9373, 17.5934, 22.4078, 35.1612, -32.2513, -27.5956
1.98391, -1, 16.0273, 17.5138, 22.4378, 35.304, -32.0841, -27.7026
1.99193, -1, 16.1169, 17.4343, 22.4677, 35.4466, -31.9175, -27.8094
1.99997, -1, 16.2061, 17.355, 22.4974, 35.5887, -31.7511, -27.9161
2.00793, -1, 16.2952, 17.2757, 22.5272, 35.7305, -31.5849, -28.0221
2.01596, -1, 16.384, 17.1967, 22.5569, 35.8721, -31.4193, -28.1282
2.02405, -1, 16.4726, 17.1178, 22.5865, 36.0133, -31.2538, -28.2338
2.03201, -1, 16.5609, 17.039, 22.616, 36.1546, -31.0887, -28.3393
2.0404, -1, 16.6492, 16.9605, 22.6456, 36.2956, -30.9238, -28.4443
2.04754, -1, 16.7373, 16.8821, 22.6751, 36.4361, -30.7592, -28.5497
2.05602, -1, 16.8253, 16.8039, 22.7044, 36.5763, -30.5949, -28.6546
2.06407, -1, 16.9133, 16.726, 22.7338, 36.7162, -30.4308, -28.7592
2.07203, -1, 17.001, 16.6481, 22.7632, 36.8559, -30.2674, -28.8642
2.07995, -1, 17.0887, 16.5704, 22.7925, 36.9954, -30.104, -28.9686
2.08698, -1, 17.1324, 16.5316, 22.8071, 37.0651, -30.0224, -29.0208
2.09611, -1, 17.2621, 16.4159, 22.8507, 37.2735, -29.778, -29.1767
2.10294, -1, 17.304, 16.3783, 22.8651, 37.3428, -29.6969, -29.2287
2.11211, -1, 17.4224, 16.2711, 22.9065, 37.5477, -29.4566, -29.3823
2.11889, -1, 17.4589, 16.238, 22.9197, 37.6143, -29.3785, -29.4324
2.12873, -1, 17.5602, 16.1478, 22.9564, 37.8035, -29.1563, -29.5742
2.13632, -1, 17.6197, 16.0955, 22.9781, 37.9159, -29.0242, -29.6587
2.14292, -1, 17.6468, 16.0717, 22.9881, 37.9667, -28.9644, -29.6966
2.15296, -1, 17.7189, 16.0078, 23.0134, 38.0916, -28.8167, -29.7918
2.16049, -1, 17.7602, 15.9701, 23.0267, 38.152, -28.745, -29.8372
2.16847, -1, 17.796, 15.9377, 23.0373, 38.1935, -28.695, -29.8695
2.17654, -1, 17.8253, 15.9121, 23.045, 38.2211, -28.6619, -29.8904
2.18472, -1, 17.8377, 15.8937, 23.0502, 38.2378, -28.6419, -29.9029
2.1909, -1, 17.858, 15.8867, 23.0521, 38.2431, -28.6354, -29.9068
2.19989, -1, 17.8718, 15.8765, 23.0548, 38.2498, -28.6273, -29.9115
2.20794, 2, 17.8797, 15.8706, 23.0562, 38.253, -28.6233, -29.9137
2.21593, 2, 17.8833, 15.8675, 23.0569, 38.2546, -28.6215, -29.9148
2.2239, 2, 17.8849, 15.8659, 23.0572, 38.2553, -28.6206, -29.9154
2.23194, 2, 17.885, 15.865, 23.0574, 38.2556, -28.6202, -29.9157
2.23993, 2, 17.8846, 15.8645, 23.0574, 38.2558, -28.62, -29.9157
2.24793, 2, 17.884, 15.8642, 23.0575, 38.2559, -28.6199, -29.9158
2.25496, 2, 17.8836, 15.8641, 23.0575, 38.2559, -28.62, -29.9158
2.26393, 2, 17.8834, 15.864, 23.0575, 38.2559, -28.62, -29.9158
2.27189, 2, 17.8833, 15.8638, 23.0575, 38.2559, -28.62, -29.9158
2.27991, 2, 17.8833, 15.8637, 23.0575, 38.2559, -28.62, -29.9158
2.28795, 2, 17.8835, 15.8636, 23.0575, 38.2559, -28.62, -29.9158
2.2959, 2, 17.8837, 15.8634, 23.0575, 38.2559, -28.62, -29.9158
2.3029, 2, 17.8841, 15.8632, 23.0575, 38.2559, -28.62, -29.9159
2.31189, 2, 17.8845, 15.8631, 23.0576, 38.2559, -28.62, -29.9158
2.31989, 2, 17.8852, 15.8629, 23.0576, 38.2559, -28.62, -29.9158
2.32797, 2, 17.8858, 15.8628, 23.0576, 38.2559, -28.62, -29.9158
2.33697, 2, 17.8862, 15.8627, 23.0575, 38.2559, -28.6201, -29.9158
2.34389, 2, 17.8866, 15.8627, 23.0575, 38.2559, -28.6201, -29.9158
2.35201, 2, 17.8869, 15.8627, 23.0575, 38.2559, -28.6201, -29.9158
2.35992, 2, 17.887, 15.8626, 23.0575, 38.2559, -28.6201, -29.9158
2.36791, 2, 17.8871, 15.8626, 23.0575, 38.2558, -28.6202, -29.9158
2.37596, 2, 17.8871, 15.8626, 23.0575, 38.2559, -28.6202, -29.9158
2.38389, 2, 17.8871, 15.8626, 23.0576, 38.2559, -28.6201, -29.9158
2.3919, 2, 17.8871, 15.8626, 23.0575, 38.2559, -28.6202, -29.9158
2.39999, 2, 17.8871, 15.8626, 23.0575, 38.2559, -28.6202, -29.9157
2.40791, 2, 17.8869, 15.8626, 23.0576, 38.2559, -28.6202, -29.9157
2.41601, 2, 17.8868, 15.8626, 23.0576, 38.2559, -28.6202, -29.9158
2.42396, 2, 17.8867, 15.8625, 23.0576, 38.2559, -28.6202, -29.9158
2.43189, 2, 17.8867, 15.8625, 23.0576, 38.2559, -28.6202, -29.9158
2.43989, 2, 17.8867, 15.8625, 23.0576, 38.2559, -28.6203, -29.9157
2.44797, 2, 17.8867, 15.8625, 23.0576, 38.2559, -28.6203, -29.9157
2.45589, 2, 17.8866, 15.8625, 23.0576, 38.2559, -28.6203, -29.9158
2.46391, 2, 17.8866, 15.8625, 23.0576, 38.2558, -28.6203, -29.9157
2.47195, 2, 17.8866, 15.8625, 23.0576, 38.2558, -28.6203, -29.9157
2.47989, 2, 17.8866, 15.8625, 23.0576, 38.2559, -28.6203, -29.9156
2.48792, 2, 17.8866, 15.8625, 23.0576, 38.2559, -28.6203, -29.9157
2.49595, 2, 17.8866, 15.8624, 23.0576, 38.2559, -28.6203, -29.9157
2.50389, 2, 17.8866, 15.8625, 23.0576, 38.2558, -28.6204, -29.9157
2.5119, 2, 17.8866, 15.8625, 23.0576, 38.2558, -28.6204, -29.9157
2.51999, 2, 17.8865, 15.8625, 23.0576, 38.2558, -28.6204, -29.9157
2.52807, 2, 17.8865, 15.8625, 23.0576, 38.2559, -28.6205, -29.9157
2.5358, 2, 17.8864, 15.8625, 23.0576, 38.2559, -28.6205, -29.9157
2.54405, 2, 17.8864, 15.8624, 23.0575, 38.2558, -28.6205, -29.9157
2.55199, 2, 17.8864, 15.8625, 23.0576, 38.2559, -28.6205, -29.9157
2.55999, 2, 17.8864, 15.8624, 23.0576, 38.2559, -28.6205, -29.9157
2.5681, 2, 17.8864, 15.8625, 23.0576, 38.2559, -28.6205, -29.9157
2.57589, 2, 17.8864, 15.8624, 23.0575, 38.2559, -28.6206, -29.9157
2.58394, 2, 17.8864, 15.8625, 23.0576, 38.2559, -28.6207, -29.9156
2.59199, 2, 17.8864, 15.8625, 23.0575, 38.2558, -28.6207, -29.9156
2.59995, 2, 17.8864, 15.8625, 23.0575, 38.2558, -28.6206, -29.9156
2.60705, 2, 17.8863, 15.8625, 23.0575, 38.2558, -28.6206, -29.9156
2.61622, 2, 17.8863, 15.8625, 23.0576, 38.2558, -28.6207, -29.9156
2.62289, 2, 17.8863, 15.8625, 23.0576, 38.2558, -28.6207, -29.9156
2.63252, 2, 17.8863, 15.8625, 23.0575, 38.2557, -28.6207, -29.9157
2.64033, 2, 17.8863, 15.8625, 23.0576, 38.2557, -28.6207, -29.9156
2.64832, 2, 17.8863, 15.8625, 23.0576, 38.2557, -28.6207, -29.9156
2.65666, 2, 17.8863, 15.8625, 23.0575, 38.2557, -28.6207, -29.9156
2.66445, 2, 17.8863, 15.8625, 23.0575, 38.2557, -28.6208, -29.9156
2.67243, 2, 17.8862, 15.8625, 23.0576, 38.2557, -28.6208, -29.9156
2.68076, 2, 17.8862, 15.8625, 23.0576, 38.2558, -28.6208, -29.9155
2.6885, 2, 17.8862, 15.8624, 23.0576, 38.2557, -28.6208, -29.9155
2.69643, 2, 17.8862, 15.8624, 23.0576, 38.2557, -28.6208, -29.9155
2.70469, 2, 17.8861, 15.8625, 23.0575, 38.2557, -28.6208, -29.9155
2.71193, 2, 17.8861, 15.8624, 23.0575, 38.2557, -28.6208, -29.9156
2.71988, 2, 17.8861, 15.8624, 23.0575, 38.2557, -28.6208, -29.9155
2.72867, 2, 17.8861, 15.8624, 23.0575, 38.2557, -28.6208, -29.9156
2.73596, 2, 17.8861, 15.8625, 23.0576, 38.2557, -28.6208, -29.9156
2.74388, 2, 17.886, 15.8625, 23.0575, 38.2557, -28.6209, -29.9156
2.7519, 2, 17.886, 15.8625, 23.0575, 38.2557, -28.6209, -29.9155
2.75993, 2, 17.8859, 15.8625, 23.0575, 38.2557, -28.6209, -29.9155
2.76789, 2, 17.8859, 15.8625, 23.0575, 38.2557, -28.6209, -29.9155
2.7759, 2, 17.8858, 15.8625, 23.0575, 38.2557, -28.6209, -29.9155
2.78393, 2, 17.8858, 15.8625, 23.0575, 38.2557, -28.6209, -29.9155
2.79188, 2, 17.8857, 15.8625, 23.0575, 38.2557, -28.6209, -29.9155
2.79989, 2, 17.8857, 15.8625, 23.0575, 38.2556, -28.6209, -29.9155
2.80796, 2, 17.8857, 15.8625, 23.0575, 38.2556, -28.621, -29.9155
2.81587, 2, 17.8856, 15.8625, 23.0575, 38.2556, -28.621, -29.9154
2.82574, 2, 17.8855, 15.8625, 23.0575, 38.2556, -28.621, -29.9154
2.83195, 2, 17.8855, 15.8625, 23.0575, 38.2556, -28.621, -29.9154
2.84159, 2, 17.8855, 15.8625, 23.0575, 38.2556, -28.621, -29.9153
2.84789, 2, 17.8855, 15.8625, 23.0575, 38.2556, -28.621, -29.9153
2.85594, 2, 17.8854, 15.8625, 23.0575, 38.2556, -28.621, -29.9153
2.8639, 2, 17.8854, 15.8625, 23.0575, 38.2555, -28.621, -29.9153
2.87187, 2, 17.8853, 15.8625, 23.0575, 38.2555, -28.6211, -29.9153
2.87994, 2, 17.8853, 15.8625, 23.0575, 38.2556, -28.6211, -29.9152
2.88789, 2, 17.8852, 15.8625, 23.0575, 38.2555, -28.6211, -29.9152
2.89586, 2, 17.8852, 15.8625, 23.0575, 38.2555, -28.6211, -29.9152
2.90397, 2, 17.8851, 15.8625, 23.0575, 38.2555, -28.6211, -29.9152
2.91187, 2, 17.885, 15.8625, 23.0575, 38.2555, -28.6212, -29.9152
2.9199, 2, 17.885, 15.8625, 23.0575, 38.2554, -28.6212, -29.9151
2.92796, 2, 17.885, 15.8625, 23.0575, 38.2554, -28.6211, -29.9151
2.93587, 2, 17.885, 15.8625, 23.0575, 38.2554, -28.6211, -29.9151
2.94387, 2, 17.8849, 15.8625, 23.0575, 38.2554, -28.6212, -29.9151
2.95194, 2, 17.8848, 15.8625, 23.0575, 38.2554, -28.6212, -29.9151
2.95987, 2, 17.8847, 15.8625, 23.0575, 38.2554, -28.6212, -29.9151
2.9679, 2, 17.8847, 15.8625, 23.0575, 38.2553, -28.6212, -29.915
2.97604, 2, 17.8846, 15.8625, 23.0575, 38.2553, -28.6212, -29.915
2.98388, 2, 17.8846, 15.8625, 23.0575, 38.2553, -28.6212, -29.9149
2.99187, 2, 17.8845, 15.8625, 23.0575, 38.2553, -28.6212, -29.915
2.99994, 2, 17.8845, 15.8625, 23.0575, 38.2552, -28.6212, -29.9149
3.00789, 2, 17.8844, 15.8625, 23.0575, 38.2552, -28.6213, -29.9149
3.01589, 2, 17.8844, 15.8625, 23.0575, 38.2552, -28.6213, -29.9149
3.02397, 2, 17.8843, 15.8625, 23.0575, 38.2552, -28.6213, -29.9149
3.03198, 2, 17.8843, 15.8625, 23.0575, 38.2552, -28.6213, -29.9149
3.03948, 2, 17.8843, 15.8625, 23.0575, 38.2552, -28.6213, -29.9149
3.04805, 2, 17.8842, 15.8625, 23.0575, 38.2552, -28.6213, -29.9148
3.05598, 2, 17.8842, 15.8625, 23.0575, 38.2552, -28.6213, -29.9149
3.06397, 2, 17.8842, 15.8625, 23.0575, 38.2552, -28.6213, -29.9148
3.07212, 2, 17.8841, 15.8625, 23.0575, 38.2552, -28.6213, -29.9149
3.07886, 2, 17.8841, 15.8625, 23.0575, 38.2552, -28.6213, -29.9148
3.08794, 2, 17.8841, 15.8625, 23.0575, 38.2552, -28.6213, -29.9148
3.09604, 2, 17.884, 15.8625, 23.0575, 38.2552, -28.6213, -29.9148
3.10287, 2, 17.884, 15.8625, 23.0575, 38.2552, -28.6213, -29.9148
3.112, 2, 17.884, 15.8625, 23.0575, 38.2552, -28.6213, -29.9149
3.12048, 2, 17.884, 15.8625, 23.0575, 38.2552, -28.6214, -29.9148
3.12812, 2, 17.884, 15.8626, 23.0575, 38.2551, -28.6213, -29.9148
3.13494, 2, 17.8839, 15.8626, 23.0575, 38.2551, -28.6213, -29.9148
3.1445, 2, 17.8839, 15.8626, 23.0575, 38.255, -28.6214, -29.9148
3.15229, 2, 17.8839, 15.8626, 23.0575, 38.255, -28.6214, -29.9148
3.1589, 2, 17.8839, 15.8626, 23.0575, 38.255, -28.6214, -29.9148
3.16885, 2, 17.8839, 15.8626, 23.0575, 38.2549, -28.6214, -29.9148
3.17642, 2, 17.8839, 15.8626, 23.0575, 38.2549, -28.6214, -29.9148
3.18444, 2, 17.8839, 15.8626, 23.0575, 38.2549, -28.6214, -29.9147
3.19262, 2, 17.8838, 15.8626, 23.0575, 38.2549, -28.6214, -29.9147
3.20042, 2, 17.8838, 15.8626, 23.0575, 38.2549, -28.6214, -29.9147
3.20787, 2, 17.8838, 15.8626, 23.0575, 38.2549, -28.6214, -29.9147
3.21767, 2, 17.8838, 15.8626, 23.0575, 38.2549, -28.6214, -29.9147
3.22381, 2, 17.8838, 15.8626, 23.0575, 38.2549, -28.6214, -29.9147
3.23186, 2, 17.8838, 15.8626, 23.0575, 38.2549, -28.6214, -29.9147
3.23994, 2, 17.8838, 15.8626, 23.0575, 38.2549, -28.6214, -29.9147
3.24685, 2, 17.8838, 15.8626, 23.0575, 38.2548, -28.6214, -29.9147
3.25588, 2, 17.8838, 15.8626, 23.0575, 38.2548, -28.6215, -29.9147
3.26391, 2, 17.8837, 15.8626, 23.0575, 38.2548, -28.6215, -29.9148
3.27181, 2, 17.8837, 15.8626, 23.0575, 38.2547, -28.6214, -29.9148
3.27986, 2, 17.8837, 15.8626, 23.0575, 38.2548, -28.6214, -29.9148
3.28792, 2, 17.8837, 15.8626, 23.0575, 38.2547, -28.6214, -29.9148
3.29584, 4, 17.8837, 15.8626, 23.0575, 38.2547, -28.6214, -29.9147
3.30773, 4, 17.8837, 15.8626, 23.0575, 38.2547, -28.6214, -29.9147
3.3119, 4, 17.8837, 15.8626, 23.0575, 38.2547, -28.6214, -29.9148
3.45507, 4, 17.8829, 15.8627, 23.0575, 38.2545, -28.6215, -29.9147
3.45638, 4, 17.8829, 15.8627, 23.0575, 38.2545, -28.6215, -29.9147
3.45758, 4, 17.8829, 15.8627, 23.0575, 38.2545, -28.6215, -29.9147
3.46073, 4, 17.8818, 15.8627, 23.0575, 38.2544, -28.6215, -29.9147
3.46246, 4, 17.8818, 15.8627, 23.0575, 38.2544, -28.6215, -29.9147
3.46396, 4, 17.8801, 15.8626, 23.0576, 38.254, -28.6216, -29.9145
3.46516, 4, 17.8801, 15.8626, 23.0576, 38.254, -28.6216, -29.9145
3.46949, 4, 17.8775, 15.8626, 23.0579, 38.2529, -28.6219, -29.914
3.47173, 4, 17.8739, 15.8625, 23.0585, 38.2505, -28.6224, -29.9127
3.47297, 4, 17.8739, 15.8625, 23.0585, 38.2505, -28.6224, -29.9127
3.4749, 4, 17.8692, 15.8623, 23.0597, 38.2459, -28.6236, -29.9098
3.47626, 4, 17.8692, 15.8623, 23.0597, 38.2459, -28.6236, -29.9098
3.47744, 4, 17.8692, 15.8623, 23.0597, 38.2459, -28.6236, -29.9098
3.47945, 4, 17.8634, 15.862, 23.0617, 38.2385, -28.6257, -29.9045
3.48081, 4, 17.8634, 15.862, 23.0617, 38.2385, -28.6257, -29.9045
3.48413, 4, 17.8561, 15.8614, 23.0649, 38.2273, -28.6292, -29.8956
3.48534, 4, 17.8561, 15.8614, 23.0649, 38.2273, -28.6292, -29.8956
3.48738, 4, 17.847, 15.8604, 23.0698, 38.2112, -28.6347, -29.882
3.48865, 4, 17.847, 15.8604, 23.0698, 38.2112, -28.6347, -29.882
3.49074, 4, 17.847, 15.8604, 23.0698, 38.2112, -28.6347, -29.882
3.49244, 5, 17.8358, 15.8588, 23.0768, 38.1887, -28.6424, -29.8628
3.49919, 5, 17.8059, 15.8539, 23.0991, 38.1164, -28.6669, -29.8009
3.50071, 5, 17.8059, 15.8539, 23.0991, 38.1164, -28.6669, -29.8009
3.50386, 5, 17.787, 15.8503, 23.1154, 38.0633, -28.6851, -29.7548
3.51193, 5, 17.7416, 15.84, 23.161, 37.9147, -28.7374, -29.6258
3.5201, 5, 17.6864, 15.8251, 23.2264, 37.7004, -28.8142, -29.4391
3.52827, 5, 17.6214, 15.8055, 23.313, 37.4161, -28.9182, -29.1911
3.53541, 5, 17.5462, 15.7817, 23.4204, 37.0646, -29.0489, -28.8829
3.54396, 5, 17.4611, 15.754, 23.5461, 36.6548, -29.2037, -28.5227
3.5522, 5, 17.3676, 15.7236, 23.6862, 36.1998, -29.3785, -28.1227
3.55946, 5, 17.2653, 15.6913, 23.8359, 35.7152, -29.5683, -27.6959
3.56796, 5, 17.154, 15.6582, 23.9915, 35.2148, -29.7678, -27.2556
3.57669, 5, 17.0344, 15.6249, 24.15, 34.7087, -29.9737, -26.811
3.58393, 5, 16.9092, 15.5919, 24.309, 34.2029, -30.1836, -26.3671
3.59293, 5, 16.7805, 15.5597, 24.4672, 33.7004, -30.3965, -25.9271
3.60065, 5, 16.65, 15.5284, 24.6249, 33.2029, -30.6117, -25.4923
3.60801, 5, 16.5183, 15.4981, 24.7823, 32.7102, -30.829, -25.0629
3.61599, 5, 16.3862, 15.4689, 24.9386, 32.2232, -31.048, -24.6391
3.62408, 5, 16.2542, 15.4407, 25.0935, 31.7419, -31.269, -24.2203
3.63083, 5, 16.1882, 15.427, 25.1705, 31.5033, -31.3802, -24.013
3.63899, 5, 16.0563, 15.4008, 25.3242, 31.03, -31.6038, -23.6029
3.64831, 5, 15.8588, 15.3635, 25.5534, 30.33, -31.9428, -22.9978
3.65633, 5, 15.7272, 15.3401, 25.7046, 29.8706, -32.1706, -22.6013
3.66437, 5, 15.5956, 15.3177, 25.8544, 29.4161, -32.4002, -22.2099
3.673, 6, 15.4641, 15.2964, 26.0036, 28.9669, -32.6313, -21.8238
3.68043, 6, 15.3324, 15.2762, 26.1518, 28.523, -32.864, -21.4433
3.68852, 6, 15.2001, 15.2569, 26.2988, 28.0843, -33.0982, -21.0681
3.69725, 6, 15.067, 15.2387, 26.4446, 27.6505, -33.3338, -20.698
3.70468, 6, 15.0001, 15.2215, 26.5894, 27.2215, -33.5707, -20.3332
3.71189, 6, 14.8656, 15.2133, 26.6614, 27.0088, -33.6898, -20.1525
3.71984, 6, 14.7303, 15.1975, 26.8046, 26.5875, -33.9292, -19.7947
3.7269, 6, 14.5943, 15.1828, 26.9467, 26.1707, -34.1697, -19.4418
3.73589, 6, 14.4574, 15.1693, 27.0875, 25.7587, -34.4116, -19.0941
3.74388, 6, 14.3201, 15.157, 27.2273, 25.3516, -34.655, -18.7507
3.75201, 6, 14.1823, 15.1459, 27.3662, 24.9488, -34.8999, -18.4122
3.75986, 6, 14.0442, 15.1356, 27.504, 24.5509, -35.1461, -18.0783
3.76783, 6, 13.9061, 15.1265, 27.6406, 24.1572, -35.3934, -17.7488
3.77483, 6, 13.7678, 15.1188, 27.7759, 23.7677, -35.6421, -17.4237
3.78383, 6, 13.6296, 15.1123, 27.9102, 23.3827, -35.8919, -17.1034
3.79183, 6, 13.4915, 15.1068, 28.0432, 23.0019, -36.1429, -16.7877
3.7999, 6, 13.3535, 15.1023, 28.1753, 22.6252, -36.395, -16.476
3.80687, 6, 13.2158, 15.0991, 28.3062, 22.2527, -36.6481, -16.1687
3.81587, 6, 13.0782, 15.097, 28.4358, 21.8845, -36.9025, -15.8658
3.82391, 6, 12.9403, 15.0959, 28.5642, 21.5201, -37.158, -15.5667
3.8334, 6, 12.8021, 15.0956, 28.6917, 21.1598, -37.4146, -15.2714
3.8404, 7, 12.6632, 15.096, 28.8179, 20.8034, -37.6724, -14.9804
3.84684, 7, 12.5235, 15.0975, 28.943, 20.4506, -37.9314, -14.6933
3.85586, 7, 12.3831, 15.1001, 29.067, 20.1016, -38.1914, -14.4098
3.86466, 7, 12.242, 15.1038, 29.1896, 19.7563, -38.4525, -14.13
3.87188, 7, 12.1002, 15.1087, 29.3111, 19.4148, -38.7147, -13.8539
3.87983, 7, 11.9579, 15.1148, 29.4315, 19.0769, -38.9778, -13.5815
3.88857, 7, 11.8151, 15.1218, 29.5507, 18.7424, -39.2417, -13.3126
3.89483, 7, 11.6719, 15.1298, 29.6688, 18.4116, -39.5064, -13.0472
3.90383, 7, 11.5284, 15.1391, 29.7856, 18.0841, -39.772, -12.7854
3.91507, 7, 11.313, 15.1556, 29.9586, 17.5992, -40.1723, -12.3998
3.91983, 7, 11.2411, 15.1616, 30.0157, 17.4392, -40.3062, -12.2728
3.92783, 7, 11.0973, 15.1745, 30.129, 17.1215, -40.5745, -12.0214
3.93594, 7, 10.9535, 15.1885, 30.2412, 16.807, -40.8436, -11.7735
3.94383, 7, 10.8096, 15.2039, 30.3523, 16.4958, -41.1136, -11.5288
3.95183, 7, 10.6657, 15.2205, 30.4621, 16.1876, -41.3844, -11.2874
3.9599, 7, 10.5219, 15.2383, 30.5706, 15.8826, -41.656, -11.0489
3.96783, 7, 10.3783, 15.2571, 30.6779, 15.5805, -41.9286, -10.8133
3.97582, 7, 10.2347, 15.2773, 30.7841, 15.2813, -42.202, -10.5809
3.9839, 7, 10.0908, 15.2987, 30.8893, 14.9853, -42.4762, -10.3517
3.99209, 7, 9.94669, 15.321, 30.9933, 14.692, -42.751, -10.1255
3.99981, 7, 9.80207, 15.3447, 31.096, 14.4016, -43.0267, -9.90183
4.00783, 8, 9.65668, 15.3694, 31.1974, 14.1142, -43.3031, -9.68126
4.01591, 8, 9.51078, 15.3952, 31.2975, 13.8293, -43.5801, -9.4634
4.02387, 8, 9.36437, 15.422, 31.3964, 13.547, -43.8576, -9.24853
4.03192, 8, 9.21725, 15.45, 31.4942, 13.2675, -44.1357, -9.03637
4.04004, 8, 9.06972, 15.4793, 31.591, 12.9906, -44.4145, -8.82664
4.04738, 8, 8.92178, 15.5096, 31.6866, 12.7161, -44.6938, -8.61963
4.05623, 8, 8.77356, 15.5411, 31.7807, 12.4444, -44.974, -8.41534
4.06346, 8, 8.62526, 15.5737, 31.8735, 12.1751, -45.2551, -8.21383
4.07198, 8, 8.47688, 15.6074, 31.965, 11.9082, -45.5368, -8.01502
4.08072, 8, 8.32838, 15.6423, 32.0554, 11.644, -45.819, -7.81864
4.08799, 8, 8.17973, 15.6783, 32.1447, 11.3822, -46.1018, -7.62448
4.09586, 8, 8.03103, 15.7155, 32.2331, 11.1226, -46.3849, -7.43305
4.10464, 8, 7.88236, 15.7537, 32.3201, 10.8654, -46.6685, -7.24401
4.11207, 8, 7.73359, 15.7931, 32.4056, 10.6104, -46.9526, -7.05733
4.11883, 8, 7.6593, 15.8132, 32.4478, 10.4837, -47.0949, -6.96503
4.12805, 8, 7.43675, 15.8752, 32.5726, 10.1067, -47.5221, -6.6911
4.13495, 8, 7.36255, 15.8964, 32.6136, 9.98227, -47.6648, -6.60089
4.14428, 8, 7.13981, 15.9618, 32.7352, 9.61199, -48.0939, -6.33332
4.15229, 8, 6.99104, 16.0069, 32.8148, 9.36776, -48.3804, -6.15787
4.16202, 8, 6.84199, 16.0531, 32.893, 9.12568, -48.6676, -5.98467
4.16703, 8, 6.76731, 16.0766, 32.9317, 9.00536, -48.8114, -5.89884
4.17782, 9, 6.54264, 16.1489, 33.0455, 8.64777, -49.2434, -5.6447
4.18482, 9, 6.39222, 16.1984, 33.1197, 8.41169, -49.532, -5.47749
4.19242, 9, 6.31683, 16.2491, 33.1928, 8.17783, -49.8208, -5.3125
4.20049, 9, 6.16574, 16.3009, 33.2648, 7.94595, -50.1098, -5.14918
4.20844, 9, 6.01434, 16.3272, 33.3003, 7.83069, -50.2544, -5.06832
4.21488, 9, 5.86261, 16.3806, 33.3703, 7.60137, -50.544, -4.90825
4.22388, 9, 5.71087, 16.435, 33.4392, 7.37409, -50.8338, -4.75011
4.23082, 9, 5.55903, 16.4903, 33.5066, 7.14881, -51.124, -4.59391
4.23988, 9, 5.407, 16.5467, 33.5729, 6.92505, -51.4147, -4.43936
4.24786, 9, 5.25488, 16.6043, 33.6379, 6.70304, -51.7056, -4.28649
4.25587, 9, 5.10268, 16.6629, 33.7016, 6.48285, -51.9968, -4.13563
4.26382, 9, 4.95043, 16.7227, 33.7639, 6.26431, -52.2883, -3.98649
4.27182, 9, 4.79837, 16.7835, 33.8249, 6.04749, -52.5802, -3.83931
4.27881, 9, 4.64639, 16.8455, 33.8847, 5.83216, -52.8725, -3.69415
4.28781, 9, 4.4946, 16.9085, 33.9432, 5.61875, -53.1651, -3.55106
4.29587, 9, 4.34296, 16.9727, 34.0006, 5.40698, -53.4577, -3.40983
4.30381, 9, 4.19148, 17.038, 34.0567, 5.19672, -53.7505, -3.27105
4.31085, 9, 4.03993, 17.1044, 34.1117, 4.98778, -54.0436, -3.13514
4.31981, 9, 3.88838, 17.1719, 34.1653, 4.78033, -54.3368, -3.00264
4.32784, 9, 3.73665, 17.2405, 34.2176, 4.57436, -54.6299, -2.87388
4.33765, 9, 3.58445, 17.3104, 34.2931, 4.26736, -55.0704, -2.68871
4.34378, 10, 3.43185, 17.3819, 34.3174, 4.16552, -55.2173, -2.62913
4.3519, 10, 3.27883, 17.4551, 34.3644, 3.96287, -55.5111, -2.51314
4.36094, 10, 3.12529, 17.5302, 34.4092, 3.76144, -55.8053, -2.40161
4.36781, 10, 2.97147, 17.6075, 34.4512, 3.56105, -56.0996, -2.2938
4.37594, 10, 2.81759, 17.6874, 34.49, 3.36154, -56.394, -2.18951
4.38381, 10, 2.66347, 17.77, 34.5254, 3.1631, -56.6885, -2.08891
4.39182, 10, 2.50917, 17.8555, 34.5571, 2.9658, -56.9828, -1.99075
4.39989, 10, 2.35517, 17.9441, 34.5846, 2.76967, -57.2768, -1.89569
4.40875, 10, 2.20125, 18.0358, 34.6079, 2.57461, -57.5706, -1.80195
4.4149, 10, 2.04744, 18.1309, 34.6269, 2.38085, -57.864, -1.71017
4.42381, 10, 1.89399, 18.2295, 34.6414, 2.18862, -58.1573, -1.61893
4.43265, 10, 1.74084, 18.3315, 34.6514, 1.99815, -58.4505, -1.52839
4.43981, 10, 1.58797, 18.437, 34.657, 1.80932, -58.7434, -1.43724
4.44782, 10, 1.4357, 18.5458, 34.6581, 1.62195, -59.036, -1.34618
4.45742, 10, 1.2841, 18.6579, 34.6548, 1.43641, -59.3284, -1.2542
4.46288, 10, 1.1332, 18.7732, 34.6469, 1.25299, -59.6202, -1.16152
4.47191, 10, 0.982885, 18.892, 34.6345, 1.07152, -59.9111, -1.06751
4.4798, 10, 0.833095, 19.0142, 34.6173, 0.891959, -60.2013, -0.973213
4.4878, 10, 0.683635, 19.1396, 34.5958, 0.714284, -60.4905, -0.87744
4.49584, 10, 0.534608, 19.268, 34.5696, 0.538722, -60.7786, -0.781294
4.50389, 10, 0.385913, 19.3993, 34.5389, 0.365514, -61.0657, -0.683914
4.51198, 10, 0.237508, 19.5337, 34.5035, 0.194556, -61.3515, -0.586087
4.52384, 10, 0.0157395, 19.7414, 34.442, -0.0579559, -61.7778, -0.437638
4.52792, 10, -0.0579382, 19.8121, 34.4192, -0.141029, -61.9194, -0.387806
4.53614, 10, -0.204886, 19.9556, 34.3701, -0.305394, -62.2014, -0.287328
4.54334, 10, -0.351032, 20.1017, 34.3167, -0.467332, -62.482, -0.186455
4.55193, 10, -0.496412, 20.2503, 34.2588, -0.626895, -62.7609, -0.0843586
4.5606, 10, -0.640738, 20.4019, 34.1964, -0.783893, -63.0383, 0.0186063
4.56792, 10, -0.784057, 20.5565, 34.1295, -0.938677, -63.3141, 0.122271
4.57592, 10, -0.926315, 20.7135, 34.0581, -1.09081, -63.5881, 0.227077
4.58442, 10, -1.06737, 20.8727, 33.9822, -1.24036, -63.86, 0.332309
4.59186, 10, -1.2071, 21.0344, 33.9019, -1.38714, -64.13, 0.438516
4.59992, 10, -1.34531, 21.1992, 33.817, -1.53131, -64.3979, 0.545078
4.60687, 10, -1.41388, 21.2827, 33.773, -1.60237, -64.531, 0.598755
4.61671, 10, -1.61769, 21.5365, 33.6344, -1.8119, -64.9269, 0.759182
4.62405, 10, -1.75149, 21.7082, 33.5367, -1.94861, -65.1879, 0.865718
4.63201, 10, -1.88361, 21.8821, 33.4347, -2.08286, -65.4467, 0.971532
4.6402, 10, -2.01444, 22.0584, 33.3283, -2.21486, -65.7031, 1.07576
4.64685, 10, -2.07939, 22.1472, 33.2734, -2.28007, -65.8304, 1.12742
4.65697, 11, -2.27255, 22.4153, 33.103, -2.47282, -66.2091, 1.27834
4.66441, 11, -2.40048, 22.5958, 32.9851, -2.59925, -66.4591, 1.3758
4.67235, 11, -2.52799, 22.7782, 32.864, -2.72445, -66.7073, 1.46991
4.68034, 11, -2.65494, 22.962, 32.7401, -2.84835, -66.9537, 1.56106
4.68874, 11, -2.78124, 23.1463, 32.6137, -2.97136, -67.1988, 1.64841
4.6964, 11, -2.84422, 23.2388, 32.485, -3.0935, -67.4425, 1.73281
4.70605, 11, -2.96987, 23.4248, 32.4199, -3.15437, -67.564, 1.81275
4.71255, 11, -3.09492, 23.6119, 32.2224, -3.33606, -67.9269, 1.89043
4.7198, 11, -3.21953, 23.7994, 32.1558, -3.39645, -68.0473, 1.92803
4.7278, 11, -3.34362, 23.987, 32.0218, -3.51687, -68.2873, 2.00034
4.73574, 11, -3.4673, 24.1755, 31.8864, -3.63686, -68.5267, 2.07119
4.74385, 11, -3.59045, 24.3651, 31.7496, -3.75621, -68.7654, 2.13991
4.75184, 11, -3.71291, 24.5546, 31.6116, -3.87499, -69.0032, 2.20706
4.75883, 11, -3.83494, 24.7435, 31.4723, -3.99266, -69.2402, 2.27411
4.76782, 11, -3.95666, 24.933, 31.3316, -4.10961, -69.4763, 2.33939
4.77579, 11, -4.07787, 25.1231, 31.1895, -4.22554, -69.7119, 2.40422
4.78382, 11, -4.1985, 25.3132, 31.0464, -4.3408, -69.9464, 2.46913
4.79079, 11, -4.31867, 25.5034, 30.9021, -4.45535, -70.1802, 2.53257
4.79979, 11, -4.43834, 25.6947, 30.7564, -4.56882, -70.4129, 2.59602
4.80805, 11, -4.55728, 25.8868, 30.6092, -4.68137, -70.6447, 2.65935
4.81579, 11, -4.67542, 26.0787, 30.4607, -4.79289, -70.8754, 2.72128
4.82376, 12, -4.79296, 26.2707, 30.3113, -4.90357, -71.1051, 2.78327
4.83264, 12, -4.91003, 26.4635, 30.1607, -5.01338, -71.3338, 2.84495
4.8388, 12, -5.02679, 26.6567, 30.0085, -5.12223, -71.5615, 2.90533
4.84779, 12, -5.14329, 26.8494, 29.8548, -5.23031, -71.7884, 2.96598
4.8566, 12, -5.25946, 27.0423, 29.7001, -5.33784, -72.0143, 3.02652
4.8628, 12, -5.37549, 27.2361, 29.5443, -5.44423, -72.2392, 3.08574
4.87181, 12, -5.49123, 27.4304, 29.3869, -5.54989, -72.463, 3.14498
4.87988, 12, -5.60676, 27.6243, 29.2281, -5.65454, -72.686, 3.20419
4.88779, 12, -5.7221, 27.8185, 29.0683, -5.7583, -72.9081, 3.26253
4.89585, 12, -5.83727, 28.0135, 28.9077, -5.8614, -73.1292, 3.32091
4.90688, 12, -6.00935, 28.3059, 28.6639, -6.01441, -73.4587, 3.40857
4.91182, 12, -6.06653, 28.4033, 28.5817, -6.0651, -73.5681, 3.43728
4.91981, 12, -6.18057, 28.5987, 28.4166, -6.16595, -73.7861, 3.49455
4.92781, 12, -6.29426, 28.795, 28.2506, -6.26595, -74.0033, 3.55237
4.93579, 12, -6.40732, 28.991, 28.0833, -6.36538, -74.2195, 3.60928
4.94384, 12, -6.51982, 29.1864, 27.9142, -6.46383, -74.4347, 3.66564
4.95189, 12, -6.63178, 29.3823, 27.7439, -6.5612, -74.6489, 3.72244
4.95979, 12, -6.74335, 29.579, 27.5731, -6.65797, -74.8621, 3.77877
4.96785, 12, -6.85455, 29.7757, 27.4008, -6.75398, -75.0743, 3.83426
4.97581, 12, -6.96532, 29.9722, 27.2266, -6.8491, -75.2856, 3.88979
4.98379, 12, -7.07551, 30.1693, 27.0511, -6.94377, -75.4957, 3.94554
4.99184, 13, -7.18536, 30.3676, 26.875, -7.03776, -75.7048, 4.00027
4.99984, 13, -7.29471, 30.5657, 26.6974, -7.13087, -75.913, 4.05476
5.00788, 13, -7.4036, 30.7638, 26.5179, -7.22332, -76.12, 4.10979
5.01579, 13, -7.51203, 30.9626, 26.3375, -7.31497, -76.326, 4.16403
5.0238, 13, -7.62, 31.1618, 26.1565, -7.40567, -76.531, 4.2177
5.03191, 13, -7.72742, 31.3603, 25.9736, -7.49581, -76.7352, 4.27178
5.04006, 13, -7.83418, 31.5588, 25.7888, -7.5852, -76.9385, 4.32557
5.04738, 13, -7.94042, 31.7582, 25.6032, -7.67366, -77.1408, 4.37881
5.05597, 13, -8.0462, 31.958, 25.4167, -7.76164, -77.3421, 4.43237
5.06441, 13, -8.1517, 32.1571, 25.2283, -7.84888, -77.5424, 4.48622
5.07191, 13, -8.25682, 32.3565, 25.0385, -7.93554, -77.7415, 4.5394
5.07997, 13, -8.36154, 32.5565, 24.8483, -8.02119, -77.9396, 4.592
5.08842, 13, -8.46586, 32.7565, 24.6564, -8.10627, -78.1367, 4.6453
5.09582, 13, -8.57005, 32.9563, 24.4625, -8.19061, -78.3325, 4.69846
5.10415, 13, -8.67401, 33.1569, 24.2679, -8.27385, -78.5274, 4.75074
5.11083, 13, -8.72584, 33.2575, 24.1703, -8.3153, -78.6242, 4.77691
5.12076, 13, -8.88101, 33.5592, 23.8749, -8.4385, -78.9135, 4.85616
5.12814, 13, -8.98415, 33.7599, 23.6761, -8.51994, -79.105, 4.90824
5.13479, 13, -9.03559, 33.8604, 23.5766, -8.56003, -79.2003, 4.93421
5.14418, 13, -9.18938, 34.1628, 23.2757, -8.68029, -79.4849, 5.01264
5.15235, 13, -9.29127, 34.3642, 23.0728, -8.75957, -79.6734, 5.06503
5.16025, 14, -9.39267, 34.5662, 22.8693, -8.83827, -79.8609, 5.11652
5.16842, 14, -9.49365, 34.7692, 22.6646, -8.91611, -80.0476, 5.16817
5.17635, 14, -9.5943, 34.9722, 22.4577, -8.99336, -80.2332, 5.22038
5.18434, 14, -9.69441, 35.1747, 22.2502, -9.06997, -80.4176, 5.27205
5.19242, 14, -9.79401, 35.3774, 22.0418, -9.14541, -80.6012, 5.32321
5.2007, 14, -9.8436, 35.4791, 21.9368, -9.22058, -80.7835, 5.37491
5.20919, 14, -9.94258, 35.6823, 21.7256, -9.25789, -80.9648, 5.4267
5.21479, 14, -10.0412, 35.8851, 21.5136, -9.33185, -81.0551, 5.45233
5.22489, 14, -10.1883, 36.1905, 21.1924, -9.44141, -81.3241, 5.52922
5.23178, 14, -10.2371, 36.2926, 21.0845, -9.4778, -81.4131, 5.55521
5.23983, 14, -10.3345, 36.4965, 20.8686, -9.55005, -81.5905, 5.60738
5.24779, 14, -10.4315, 36.7001, 20.6515, -9.62139, -81.7667, 5.65891
5.25581, 14, -10.5281, 36.9046, 20.4325, -9.69238, -81.9418, 5.71028
5.26278, 14, -10.6241, 37.1096, 20.2127, -9.76241, -82.1156, 5.76223
5.27178, 14, -10.7195, 37.3142, 19.9914, -9.8322, -82.2885, 5.81419
5.27978, 14, -10.8143, 37.519, 19.7682, -9.90074, -82.4602, 5.8657
5.28784, 14, -10.9087, 37.7249, 19.5443, -9.96906, -82.631, 5.91752
5.29478, 14, -11.0025, 37.9308, 19.319, -10.0359, -82.8006, 5.96977
5.30378, 14, -11.0959, 38.1361, 19.0919, -10.103, -82.9692, 6.02129
5.31185, 14, -11.1888, 38.3417, 18.8641, -10.1683, -83.1366, 6.07281
5.31978, 14, -11.2813, 38.5477, 18.6346, -10.2342, -83.303, 6.12488
5.32775, 15, -11.3735, 38.7534, 18.4033, -10.2984, -83.4683, 6.17715
5.33587, 15, -11.4656, 38.9593, 18.1716, -10.3628, -83.6326, 6.22877
5.3456, 15, -11.5575, 39.1663, 17.9381, -10.4261, -83.7958, 6.28055
5.35177, 15, -11.6492, 39.3736, 17.7029, -10.4889, -83.9578, 6.33313
5.35984, 15, -11.7405, 39.5804, 17.4668, -10.5513, -84.1188, 6.38524
5.36882, 15, -11.8317, 39.7876, 17.2291, -10.6123, -84.2786, 6.43704
5.37577, 15, -11.9226, 39.9956, 16.9901, -10.6738, -84.4372, 6.48951
5.3839, 15, -12.0132, 40.2032, 16.7503, -10.7334, -84.5949, 6.54221
5.39177, 15, -12.1034, 40.4108, 16.5084, -10.7934, -84.7513, 6.59436
5.39978, 15, -12.1932, 40.6192, 16.2653, -10.8519, -84.9068, 6.64694
5.40795, 15, -12.2826, 40.8282, 16.021, -10.9097, -85.0609, 6.7005
5.41579, 15, -12.3716, 41.0368, 15.7747, -10.9676, -85.214, 6.75375
5.42388, 15, -12.4601, 41.2455, 15.5277, -11.0238, -85.3658, 6.80645
5.43177, 15, -12.548, 41.455, 15.2791, -11.0804, -85.5167, 6.85986
5.43978, 15, -12.6349, 41.6635, 15.0291, -11.1355, -85.666, 6.91374
5.44785, 15, -12.7191, 41.8694, 14.7792, -11.19, -85.8146, 6.96707
5.45578, 15, -12.7998, 42.0713, 14.5296, -11.2446, -85.9612, 7.02034
5.46377, 15, -12.8764, 42.2678, 14.2835, -11.2967, -86.1053, 7.07375
5.47186, 15, -12.949, 42.4565, 14.0438, -11.3477, -86.2445, 7.12516
5.47977, 15, -13.0172, 42.6351, 13.8131, -11.3961, -86.3772, 7.17422
5.48778, 15, -13.0802, 42.8018, 13.5971, -11.44, -86.5001, 7.22057
5.49585, 15, -13.1381, 42.9549, 13.3998, -11.4798, -86.6113, 7.2631
5.50379, 15, -13.1912, 43.0932, 13.2241, -11.5151, -86.7087, 7.30047
5.51177, 15, -13.2398, 43.2156, 13.073, -11.5443, -86.7905, 7.33191
5.51985, 15, -13.2821, 43.3205, 12.9473, -11.5678, -86.8583, 7.3577
5.52779, 15, -13.3183, 43.408, 12.8461, -11.5862, -86.9111, 7.37796
5.53581, 15, -13.3488, 43.4792, 12.7676, -11.6001, -86.9512, 7.39348
5.54397, 15, -13.3736, 43.5354, 12.7089, -11.6103, -86.9807, 7.40473
5.55192, 15, -13.3934, 43.578, 12.6667, -11.6172, -87.0012, 7.41244
5.55988, 15, -13.4085, 43.6092, 12.6378, -11.6218, -87.0146, 7.41767
5.56797, 15, -13.42, 43.632, 12.6191, -11.6245, -87.0227, 7.42073
5.57589, 15, -13.4288, 43.6486, 12.6075, -11.626, -87.0271, 7.42245
5.58378, 15, -13.435, 43.6596, 12.6007, -11.6269, -87.0294, 7.42333
5.5922, 15, -13.4386, 43.6659, 12.5969, -11.6274, -87.0305, 7.42379
5.59873, 16, -13.4398, 43.6679, 12.5958, -11.6276, -87.0308, 7.42392
5.60782, 16, -13.4415, 43.6712, 12.5934, -11.6278, -87.0312, 7.42416
5.61599, 16, -13.4418, 43.6725, 12.5924, -11.628, -87.0313, 7.42426
5.62394, 16, -13.442, 43.6736, 12.5918, -11.628, -87.0314, 7.42431
5.63197, 16, -13.442, 43.6748, 12.5915, -11.628, -87.0314, 7.42432
5.64017, 16, -13.442, 43.6761, 12.5914, -11.628, -87.0314, 7.42432
5.64676, 16, -13.442, 43.6768, 12.5914, -11.6281, -87.0314, 7.42432
5.65615, 16, -13.442, 43.6785, 12.5914, -11.628, -87.0313, 7.42428
5.66278, 16, -13.442, 43.679, 12.5914, -11.628, -87.0313, 7.42429
5.67233, 16, -13.442, 43.6802, 12.5915, -11.6281, -87.0313, 7.42434
5.68031, 16, -13.442, 43.6808, 12.5915, -11.6281, -87.0313, 7.42444
5.68843, 16, -13.4419, 43.6811, 12.5917, -11.6281, -87.0312, 7.42445
5.69697, 16, -13.4419, 43.6812, 12.5919, -11.6281, -87.0311, 7.42445
5.70284, 16, -13.4419, 43.6812, 12.5919, -11.6281, -87.031, 7.42447
5.71236, 16, -13.4418, 43.681, 12.592, -11.6281, -87.0309, 7.42442
5.71982, 16, -13.4417, 43.6807, 12.592, -11.6281, -87.0309, 7.42438
