hehonglu123/ABB_Primitive_Study/realrobot/movelcl_30_car2/curve_exe_v50_z10.csv
timestamp, cmd_num, J1, J2, J3, J4, J5, J6
0.000378, -1, -13.4405, 43.6801, 12.5938, -11.6281, -87.029, 7.42516
0.002264, -1, -13.4405, 43.6801, 12.5938, -11.6281, -87.029, 7.42516
0.027264, -1, -13.4406, 43.6801, 12.5938, -11.628, -87.029, 7.4251
0.030267, -1, -13.4406, 43.6801, 12.5938, -11.628, -87.029, 7.4251
0.032318, -1, -13.4406, 43.6801, 12.5939, -11.6279, -87.029, 7.42512
0.033513, -1, -13.4406, 43.6801, 12.5939, -11.6279, -87.029, 7.42512
0.039503, -1, -13.4405, 43.6801, 12.5938, -11.628, -87.029, 7.42509
0.047726, -1, -13.4403, 43.68, 12.5938, -11.628, -87.029, 7.42505
0.056301, -1, -13.4391, 43.6793, 12.5939, -11.628, -87.029, 7.42508
0.063683, -1, -13.4355, 43.6768, 12.594, -11.628, -87.0288, 7.42509
0.072243, -1, -13.4287, 43.6715, 12.5946, -11.6275, -87.0278, 7.42503
0.079722, -1, -13.4182, 43.663, 12.5963, -11.625, -87.024, 7.42461
0.088699, -1, -13.4023, 43.6504, 12.5993, -11.6171, -87.0142, 7.42176
0.096257, -1, -13.379, 43.6318, 12.6044, -11.6012, -86.9951, 7.41176
0.103146, -1, -13.3643, 43.6197, 12.608, -11.5892, -86.9807, 7.4032
0.112927, -1, -13.3073, 43.5718, 12.6235, -11.5304, -86.9124, 7.3611
0.120277, -1, -13.257, 43.5284, 12.6384, -11.4668, -86.8388, 7.31535
0.127134, -1, -13.2277, 43.5027, 12.6476, -11.427, -86.7923, 7.28591
0.137109, -1, -13.1226, 43.4093, 12.6817, -11.2686, -86.6088, 7.16908
0.143195, -1, -13.0819, 43.3726, 12.6953, -11.2027, -86.5323, 7.12052
0.283304, -1, -10.4471, 41.0181, 13.5902, -6.8385, -81.4321, 3.85277
0.284487, -1, -10.4471, 41.0181, 13.5902, -6.8385, -81.4321, 3.85277
0.286724, -1, -10.3608, 40.9423, 13.619, -6.70157, -81.2719, 3.75
0.288058, -1, -10.3608, 40.9423, 13.619, -6.70157, -81.2719, 3.75
0.290721, -1, -10.2746, 40.8665, 13.6478, -6.5646, -81.1115, 3.6473
0.292052, -1, -10.2746, 40.8665, 13.6478, -6.5646, -81.1115, 3.6473
0.294105, -1, -10.1884, 40.7908, 13.6766, -6.42765, -80.9512, 3.54465
0.297916, -1, -10.1023, 40.7151, 13.7053, -6.29073, -80.7911, 3.44192
0.299164, -1, -10.1023, 40.7151, 13.7053, -6.29073, -80.7911, 3.44192
0.300421, -1, -10.1023, 40.7151, 13.7053, -6.29073, -80.7911, 3.44192
0.302384, -1, -10.0163, 40.6393, 13.734, -6.15379, -80.6311, 3.33905
0.30367, -1, -10.0163, 40.6393, 13.734, -6.15379, -80.6311, 3.33905
0.30631, -1, -10.0163, 40.6393, 13.7627, -6.01693, -80.4712, 3.23637
0.307571, -1, -9.93043, 40.5635, 13.7627, -6.01693, -80.4712, 3.23637
0.309585, -1, -9.93043, 40.5635, 13.7627, -6.01693, -80.3113, 3.13391
0.311918, -1, -9.8447, 40.4876, 13.7914, -5.88015, -80.3113, 3.13391
0.313734, -1, -9.7592, 40.4115, 13.8201, -5.74335, -80.1514, 3.03144
0.316419, -1, -9.7592, 40.4115, 13.8201, -5.74335, -80.1514, 3.03144
0.31852, -1, -9.67383, 40.3353, 13.8487, -5.60661, -79.9916, 2.92894
0.319763, -1, -9.67383, 40.3353, 13.8487, -5.60661, -79.9916, 2.92894
0.321632, -1, -9.58855, 40.2591, 13.8773, -5.46994, -79.8317, 2.82648
0.323022, -1, -9.58855, 40.2591, 13.8773, -5.46994, -79.8317, 2.82648
0.330617, -1, -9.41847, 40.1069, 13.9346, -5.19649, -79.5122, 2.62177
0.335146, -1, -9.33371, 40.0309, 13.9632, -5.05985, -79.3524, 2.51942
0.34314, -1, -9.16461, 39.879, 14.0204, -4.78701, -79.0331, 2.31501
0.351298, -1, -8.99571, 39.7269, 14.0775, -4.51449, -78.7138, 2.1106
0.359125, -1, -8.82665, 39.5748, 14.1346, -4.24231, -78.3948, 1.90668
0.367129, -1, -8.65731, 39.4231, 14.1916, -3.97075, -78.0767, 1.70306
0.375189, -1, -8.48754, 39.2722, 14.2486, -3.69948, -77.7593, 1.49965
0.38314, -1, -8.31765, 39.1217, 14.3055, -3.42848, -77.4421, 1.2966
0.3912, -1, -8.14765, 38.9713, 14.3624, -3.15815, -77.1258, 1.09367
0.399127, -1, -7.97743, 38.821, 14.4192, -2.8883, -76.81, 0.891547
0.40724, -1, -7.80733, 38.6711, 14.4759, -2.61885, -76.4947, 0.689778
0.415197, -1, -7.63698, 38.5219, 14.5323, -2.35013, -76.1798, 0.488428
0.423174, -1, -7.46662, 38.3728, 14.5886, -2.08195, -75.8656, 0.287539
0.431211, -1, -7.29657, 38.2239, 14.6449, -1.81403, -75.552, 0.0869498
0.439286, -1, -7.12705, 38.0749, 14.7012, -1.54675, -75.2392, -0.113413
0.447236, -1, -6.95837, 37.9262, 14.7573, -1.28031, -74.9271, -0.312868
0.455271, -1, -6.79085, 37.778, 14.8132, -1.01454, -74.616, -0.511586
0.464123, -1, -6.6241, 37.6301, 14.8688, -0.749387, -74.3057, -0.710193
0.471193, -1, -6.45827, 37.4824, 14.9243, -0.485273, -73.9961, -0.908113
0.479312, -1, -6.29377, 37.3349, 14.9797, -0.22161, -73.6874, -1.1058
0.487404, -1, -6.13026, 37.1881, 15.035, 0.041466, -73.3796, -1.30272
0.495158, -1, -5.96762, 37.0421, 15.0902, 0.303615, -73.0726, -1.49893
0.503313, -1, -5.80553, 36.8966, 15.1452, 0.564873, -72.7668, -1.6944
0.511332, -1, -5.64354, 36.7515, 15.1998, 0.825382, -72.4619, -1.88947
0.519333, -1, -5.48147, 36.6069, 15.2544, 1.08489, -72.1577, -2.08391
0.527772, -1, -5.31941, 36.4627, 15.309, 1.34359, -71.8547, -2.2778
0.536202, -1, -5.15742, 36.3192, 15.3633, 1.60165, -71.5526, -2.47108
0.543505, -1, -4.99562, 36.1762, 15.4175, 1.85882, -71.2516, -2.66343
0.551718, -1, -4.83409, 36.0335, 15.4715, 2.11483, -70.9517, -2.8553
0.560281, -1, -4.67277, 35.891, 15.5252, 2.37011, -70.6527, -3.04654
0.567642, -1, -4.51145, 35.7489, 15.5787, 2.62432, -70.3549, -3.23718
0.576318, -1, -4.35029, 35.6076, 15.6319, 2.8773, -70.0584, -3.42706
0.583731, -1, -4.18951, 35.4668, 15.685, 3.12959, -69.7632, -3.61604
0.592338, -1, -4.02978, 35.3263, 15.7379, 3.38135, -69.469, -3.80409
0.599873, -1, -3.9504, 35.1863, 15.7906, 3.63192, -69.1757, -3.99161
0.608388, -1, -3.7142, 35.0466, 15.843, 3.88136, -68.8833, -4.17837
0.615115, -1, -3.63599, 34.977, 15.8691, 4.00581, -68.7375, -4.27155
0.624502, -1, -3.40278, 34.7694, 15.9471, 4.37777, -68.3016, -4.55032
0.63112, -1, -3.32551, 34.7006, 15.973, 4.50118, -68.1569, -4.64268
0.640323, -1, -3.09528, 34.4947, 16.0506, 4.87032, -67.7244, -4.91877
0.647124, -1, -3.01911, 34.4263, 16.0765, 4.993, -67.5809, -5.01036
0.656421, -1, -2.79159, 34.2219, 16.1537, 5.35948, -67.1523, -5.28445
0.663163, -1, -2.71599, 34.1542, 16.1792, 5.48099, -67.0099, -5.37547
0.672915, -1, -2.48927, 33.9521, 16.2555, 5.8441, -66.585, -5.64767
0.680623, -1, -2.33802, 33.818, 16.3062, 6.08499, -66.3032, -5.82791
0.688622, -1, -2.18714, 33.6843, 16.3568, 6.32468, -66.0223, -6.00742
0.697693, -1, -2.03655, 33.5508, 16.407, 6.56343, -65.7425, -6.18602
0.704729, -1, -1.88652, 33.4181, 16.457, 6.80137, -65.4639, -6.36421
0.712699, -1, -1.81171, 33.2859, 16.5066, 7.0384, -65.1865, -6.54156
0.721697, -1, -1.66225, 33.1541, 16.556, 7.2741, -64.91, -6.71831
0.727118, -1, -1.51299, 33.0885, 16.5807, 7.39156, -64.7722, -6.80649
0.736111, -1, -1.36382, 32.9574, 16.63, 7.626, -64.4977, -6.98201
0.744161, -1, -1.2152, 32.8267, 16.6791, 7.85938, -64.2243, -7.15693
0.876416, -1, 1.11247, 30.7558, 17.4585, 11.5702, -59.8779, -9.9353
0.878229, -1, 1.18111, 30.6951, 17.4813, 11.6786, -59.751, -10.0166
0.879642, -1, 1.18111, 30.6951, 17.4813, 11.6786, -59.751, -10.0166
0.88088, -1, 1.18111, 30.6951, 17.4813, 11.6786, -59.751, -10.0166
0.882902, -1, 1.24973, 30.6346, 17.504, 11.7867, -59.6243, -10.0978
0.884082, -1, 1.24973, 30.6346, 17.504, 11.7867, -59.6243, -10.0978
0.88535, -1, 1.24973, 30.6346, 17.504, 11.7867, -59.6243, -10.0978
0.889162, -1, 1.31831, 30.5742, 17.5266, 11.8947, -59.4981, -10.1786
0.892186, -1, 1.38677, 30.5141, 17.5492, 12.0025, -59.3722, -10.2591
0.893374, -1, 1.38677, 30.5141, 17.5492, 12.0025, -59.3722, -10.2591
0.896147, -1, 1.45506, 30.4541, 17.5718, 12.1101, -59.2465, -10.3396
0.897322, -1, 1.45506, 30.4541, 17.5718, 12.1101, -59.2465, -10.3396
0.899329, -1, 1.52321, 30.3943, 17.5944, 12.2175, -59.121, -10.4198
0.900506, -1, 1.52321, 30.3943, 17.5944, 12.2175, -59.121, -10.4198
0.902402, -1, 1.59123, 30.3347, 17.6169, 12.3246, -58.9957, -10.4999
0.906525, -1, 1.65902, 30.2751, 17.6393, 12.4314, -58.8706, -10.5798
0.908046, -1, 1.65902, 30.2751, 17.6393, 12.4314, -58.8706, -10.5798
0.909232, -1, 1.65902, 30.2751, 17.6393, 12.4314, -58.8706, -10.5798
0.911325, -1, 1.72659, 30.2157, 17.6617, 12.538, -58.7457, -10.6595
0.912514, -1, 1.72659, 30.2157, 17.6617, 12.538, -58.7457, -10.6595
0.91531, -1, 1.79392, 30.1564, 17.6841, 12.6444, -58.6212, -10.7391
0.919944, -1, 1.86096, 30.0973, 17.7063, 12.7507, -58.4968, -10.8186
0.928272, -1, 1.99436, 29.9792, 17.7508, 12.9625, -58.2486, -10.9771
0.935215, -1, 2.12695, 29.8616, 17.7951, 13.1732, -58.0016, -11.135
0.943958, -1, 2.25886, 29.7445, 17.8391, 13.383, -57.7551, -11.2925
0.952173, -1, 2.3899, 29.628, 17.8829, 13.5921, -57.5098, -11.4489
0.959209, -1, 2.51995, 29.5119, 17.9266, 13.8004, -57.2657, -11.6048
0.967206, -1, 2.64895, 29.3961, 17.9702, 14.0079, -57.0225, -11.76
0.975161, -1, 2.77718, 29.2807, 18.0136, 14.2145, -56.7808, -11.9147
0.983116, -1, 2.90485, 29.1655, 18.0567, 14.4201, -56.5398, -12.0689
0.992583, -1, 3.03237, 29.0508, 18.0997, 14.6252, -56.3002, -12.2226
0.999143, -1, 3.15982, 28.9367, 18.1424, 14.8292, -56.0613, -12.3754
1.00802, -1, 3.28739, 28.8231, 18.185, 15.0324, -55.8235, -12.5277
1.01691, -1, 3.41459, 28.71, 18.2275, 15.2349, -55.5865, -12.679
1.0241, -1, 3.54157, 28.5975, 18.2699, 15.4367, -55.3504, -12.8298
1.03238, -1, 3.66825, 28.4853, 18.3122, 15.6378, -55.1152, -12.9802
1.03945, -1, 3.79467, 28.3735, 18.3542, 15.8379, -54.8806, -13.1298
1.04758, -1, 3.92078, 28.2624, 18.396, 16.0371, -54.6471, -13.2792
1.05637, -1, 4.04659, 28.1519, 18.4377, 16.2356, -54.4143, -13.4279
1.06362, -1, 4.17205, 28.0419, 18.4792, 16.4333, -54.1824, -13.5759
1.07166, -1, 4.29694, 27.9321, 18.5205, 16.6303, -53.9515, -13.7233
1.08054, -1, 4.42107, 27.8228, 18.5619, 16.8264, -53.7217, -13.8701
1.08767, -1, 4.54447, 27.7138, 18.6028, 17.0218, -53.4928, -14.0162
1.09588, -1, 4.66756, 27.605, 18.6437, 17.2167, -53.2648, -14.162
1.10473, -1, 4.79002, 27.4967, 18.6844, 17.4106, -53.0376, -14.3072
1.1131, -1, 4.91168, 27.3888, 18.7249, 17.6039, -52.8114, -14.4522
1.1201, -1, 5.03269, 27.2813, 18.7654, 17.7963, -52.586, -14.5963
1.12711, -1, 5.09293, 27.2277, 18.7856, 17.8922, -52.4736, -14.6681
1.1351, -1, 5.21274, 27.1208, 18.8257, 18.0839, -52.2496, -14.8114
1.14314, -1, 5.33178, 27.0142, 18.8657, 18.2746, -52.0263, -14.954
1.15321, -1, 5.50891, 26.8551, 18.9256, 18.5594, -51.6927, -15.1669
1.15922, -1, 5.56772, 26.8023, 18.9454, 18.654, -51.5821, -15.2377
1.1671, -1, 5.68504, 26.6971, 18.985, 18.8426, -51.361, -15.379
1.17732, -1, 5.86045, 26.5402, 19.0441, 19.1247, -51.0311, -15.59
1.18316, -1, 5.91877, 26.488, 19.0638, 19.2182, -50.9215, -15.6601
1.19269, -1, 6.0935, 26.3321, 19.1226, 19.4979, -50.5937, -15.8695
1.20151, -1, 6.20992, 26.2284, 19.1614, 19.6836, -50.3762, -16.0085
1.20716, -1, 6.26809, 26.1766, 19.1808, 19.7762, -50.2678, -16.0778
1.2167, -1, 6.44259, 26.022, 19.2388, 20.0529, -49.9434, -16.2851
1.22549, -1, 6.5007, 25.9707, 19.2581, 20.1448, -49.8358, -16.4228
1.23116, -1, 6.61667, 25.8682, 19.2966, 20.3278, -49.6209, -16.4915
1.24113, -1, 6.79012, 25.7153, 19.354, 20.6018, -49.3003, -16.6971
1.24709, -1, 6.84764, 25.6646, 19.373, 20.6929, -49.1938, -16.7653
1.25609, -1, 6.96244, 25.5633, 19.4111, 20.8743, -48.9814, -16.9011
1.26311, -1, 7.0768, 25.4623, 19.4492, 21.0552, -48.77, -17.0367
1.27208, -1, 7.19065, 25.3617, 19.487, 21.2353, -48.5592, -17.1714
1.2791, -1, 7.30406, 25.2616, 19.5248, 21.415, -48.3489, -17.3058
1.28709, -1, 7.41696, 25.1619, 19.5624, 21.5942, -48.1393, -17.4398
1.29608, -1, 7.52939, 25.0625, 19.5998, 21.7726, -47.9302, -17.5733
1.30309, -1, 7.64136, 24.9635, 19.6372, 21.9504, -47.7219, -17.7065
1.3111, -1, 7.7527, 24.8647, 19.6745, 22.1277, -47.5142, -17.8393
1.32008, -1, 7.86352, 24.7662, 19.7115, 22.3045, -47.3068, -17.9715
1.32717, -1, 7.97404, 24.6678, 19.7486, 22.4809, -47.1003, -18.1034
1.33509, -1, 8.08414, 24.5698, 19.7855, 22.6565, -46.8945, -18.2347
1.34409, -1, 8.19371, 24.472, 19.822, 22.8315, -46.6893, -18.3656
1.35371, -1, 8.30289, 24.3746, 19.8585, 23.093, -46.383, -18.5614
1.36019, -1, 8.41177, 24.2774, 19.895, 23.1799, -46.2813, -18.6265
1.36808, -1, 8.52003, 24.1805, 19.9313, 23.3533, -46.0783, -18.7562
1.37616, -1, 8.6277, 24.0839, 19.9675, 23.5261, -45.876, -18.8858
1.38309, -1, 8.73493, 23.9876, 20.0037, 23.6982, -45.6745, -19.015
1.39208, -1, 8.84212, 23.8916, 20.0396, 23.8698, -45.4735, -19.1433
1.3991, -1, 8.94929, 23.7961, 20.0755, 24.0411, -45.2734, -19.2716
1.4071, -1, 9.0564, 23.701, 20.1114, 24.2118, -45.0738, -19.3991
1.41608, -1, 9.16342, 23.6063, 20.1471, 24.382, -44.8747, -19.5262
1.4241, -1, 9.2702, 23.5119, 20.1826, 24.5516, -44.6761, -19.6532
1.43121, -1, 9.37682, 23.4177, 20.2183, 24.7205, -44.4779, -19.7799
1.43919, -1, 9.48314, 23.3238, 20.2537, 24.8892, -44.2804, -19.906
1.44719, -1, 9.58917, 23.23, 20.2889, 25.0574, -44.0833, -20.0322
1.45526, -1, 9.69492, 23.1364, 20.3241, 25.225, -43.8867, -20.1579
1.4632, -1, 9.80041, 23.0432, 20.3591, 25.392, -43.6908, -20.2829
1.4712, -1, 9.90564, 22.9503, 20.3939, 25.5586, -43.4957, -20.4078
1.47928, -1, 10.0105, 22.8575, 20.4288, 25.7248, -43.3012, -20.532
1.4871, -1, 10.115, 22.7651, 20.4635, 25.8907, -43.1071, -20.6559
1.49542, -1, 10.2191, 22.6729, 20.498, 26.056, -42.9137, -20.7796
1.50327, -1, 10.3228, 22.5809, 20.5325, 26.2207, -42.7209, -20.903
1.51119, -1, 10.4262, 22.4891, 20.567, 26.385, -42.5284, -21.026
1.51932, -1, 10.5291, 22.3977, 20.6013, 26.5487, -42.3367, -21.1489
1.52737, -1, 10.6318, 22.3066, 20.6356, 26.7122, -42.1453, -21.2713
1.53534, -1, 10.7342, 22.2158, 20.6698, 26.8751, -41.9548, -21.3932
1.5438, -1, 10.8362, 22.1252, 20.7037, 27.0375, -41.7648, -21.5147
1.55219, -1, 10.9376, 22.0348, 20.7377, 27.1992, -41.5752, -21.6359
1.55954, -1, 11.0387, 21.9447, 20.7717, 27.3607, -41.3861, -21.7565
1.56788, -1, 11.1394, 21.8548, 20.8055, 27.5219, -41.1974, -21.8772
1.57625, -1, 11.2401, 21.7651, 20.8391, 27.6827, -41.0092, -21.9974
1.58363, -1, 11.3403, 21.6756, 20.8728, 27.8428, -40.8215, -22.1173
1.5922, -1, 11.4403, 21.5863, 20.9063, 28.0026, -40.6344, -22.2371
1.59969, -1, 11.4901, 21.5418, 20.9396, 28.1618, -40.4476, -22.3565
1.60808, -1, 11.639, 21.4086, 20.973, 28.3207, -40.2613, -22.4753
1.61583, -1, 11.6885, 21.3643, 20.9896, 28.4001, -40.1685, -22.5348
1.6242, -1, 11.837, 21.232, 21.0393, 28.6375, -39.8904, -22.7123
1.63108, -1, 11.8864, 21.188, 21.0558, 28.7163, -39.798, -22.7713
1.64053, -1, 12.0348, 21.0565, 21.1054, 28.9523, -39.5214, -22.9479
1.64806, -1, 12.0842, 21.0127, 21.1219, 29.1091, -39.3377, -23.0652
1.65509, -1, 12.183, 20.9255, 21.1547, 29.1875, -39.246, -23.1239
1.66446, -1, 12.3306, 20.7949, 21.2038, 29.4222, -38.9715, -23.2994
1.67119, -1, 12.3797, 20.7515, 21.2202, 29.5001, -38.8804, -23.3577
1.68057, -1, 12.5266, 20.6216, 21.2689, 29.7332, -38.6073, -23.5324
1.68897, -1, 12.6244, 20.5352, 21.3014, 29.8881, -38.4259, -23.6483
1.6966, -1, 12.7218, 20.449, 21.3339, 30.0427, -38.2451, -23.7638
1.70464, -1, 12.819, 20.3629, 21.3661, 30.197, -38.0648, -23.8791
1.71273, -1, 12.9157, 20.277, 21.3982, 30.3508, -37.8851, -23.994
1.72065, -1, 12.9641, 20.2341, 21.4305, 30.5042, -37.7056, -24.1088
1.72868, -1, 13.0605, 20.1484, 21.4466, 30.6571, -37.5266, -24.2234
1.73609, -1, 13.1566, 20.0631, 21.4785, 30.7333, -37.437, -24.2805
1.74322, -1, 13.2523, 19.978, 21.5104, 30.8859, -37.2584, -24.3948
1.75211, -1, 13.3478, 19.893, 21.5424, 31.0382, -37.0802, -24.5087
1.76007, -1, 13.443, 19.8084, 21.5742, 31.1899, -36.9023, -24.6226
1.76815, -1, 13.5379, 19.7239, 21.6059, 31.3413, -36.7248, -24.7358
1.77613, -1, 13.6328, 19.6397, 21.6376, 31.4923, -36.5478, -24.8489
1.78408, -1, 13.7274, 19.5556, 21.6693, 31.6428, -36.3712, -24.9617
1.79212, -1, 13.8217, 19.4717, 21.7008, 31.7933, -36.195, -25.0741
1.80007, -1, 13.9159, 19.388, 21.7322, 31.9433, -36.0192, -25.1866
1.80807, -1, 14.01, 19.3045, 21.7637, 32.0931, -35.844, -25.2987
1.81515, -1, 14.104, 19.2213, 21.795, 32.2423, -35.669, -25.4106
1.82308, -1, 14.1978, 19.1382, 21.826, 32.3912, -35.4945, -25.5225
1.83207, -1, 14.2912, 19.0553, 21.8572, 32.5398, -35.3206, -25.6339
1.84014, -1, 14.3841, 18.9727, 21.8883, 32.6882, -35.1469, -25.7453
1.84806, -1, 14.4769, 18.8901, 21.9193, 32.8365, -34.9737, -25.8561
1.85608, -1, 14.5694, 18.8077, 21.9503, 32.9842, -34.8011, -25.9666
1.86512, -1, 14.6616, 18.7254, 21.9813, 33.1316, -34.6288, -26.0769
1.87206, -1, 14.7535, 18.6434, 22.0121, 33.2785, -34.4569, -26.1865
1.88006, -1, 14.8453, 18.5617, 22.0427, 33.4252, -34.2851, -26.2964
1.88808, -1, 14.937, 18.4801, 22.0734, 33.5717, -34.1137, -26.4057
1.89512, -1, 15.0285, 18.3986, 22.1042, 33.7178, -33.9426, -26.515
1.9031, -1, 15.1197, 18.3174, 22.1347, 33.8635, -33.7719, -26.6241
1.91108, -1, 15.2109, 18.2365, 22.1651, 34.0089, -33.6015, -26.7331
1.92006, -1, 15.3021, 18.1556, 22.1956, 34.1538, -33.4313, -26.8419
1.92814, -1, 15.3932, 18.0749, 22.2261, 34.2986, -33.2614, -26.95
1.93513, -1, 15.4843, 17.9943, 22.2563, 34.4432, -33.0922, -27.0582
1.94322, -1, 15.5753, 17.9139, 22.2866, 34.5875, -32.9234, -27.1659
1.95117, -1, 15.6661, 17.8336, 22.3169, 34.7314, -32.755, -27.2733
1.95918, -1, 15.7566, 17.7535, 22.347, 34.8749, -32.5869, -27.3809
1.96726, -1, 15.8469, 17.6735, 22.3769, 35.0181, -32.4191, -27.4882
1.97518, -1, 15.9372, 17.5937, 22.4069, 35.1609, -32.2516, -27.5952
1.98308, -1, 16.0271, 17.514, 22.437, 35.3038, -32.0845, -27.7022
1.99123, -1, 16.1168, 17.4345, 22.4668, 35.4463, -31.9178, -27.809
1.99919, -1, 16.2061, 17.3552, 22.4966, 35.5885, -31.7514, -27.9156
2.00713, -1, 16.2952, 17.276, 22.5264, 35.7303, -31.5852, -28.0216
2.01523, -1, 16.384, 17.197, 22.5562, 35.8718, -31.4197, -28.1277
2.02326, -1, 16.4726, 17.1181, 22.5858, 36.013, -31.2542, -28.2333
2.03129, -1, 16.5609, 17.0394, 22.6153, 36.1542, -31.0891, -28.3389
2.04045, -1, 16.6491, 16.9609, 22.6449, 36.2952, -30.9242, -28.4439
2.0475, -1, 16.7372, 16.8825, 22.6744, 36.4358, -30.7595, -28.5493
2.05562, -1, 16.8252, 16.8043, 22.7038, 36.576, -30.5953, -28.6543
2.06423, -1, 16.9132, 16.7264, 22.7331, 36.7159, -30.4312, -28.759
2.07157, -1, 17.0009, 16.6485, 22.7626, 36.8557, -30.2678, -28.8639
2.08017, -1, 17.0885, 16.5707, 22.7919, 36.9951, -30.1044, -28.9683
2.0877, -1, 17.1758, 16.4931, 22.821, 37.1344, -29.9413, -29.0728
2.09618, -1, 17.2619, 16.4162, 22.85, 37.2732, -29.7783, -29.1766
2.1037, -1, 17.3447, 16.3417, 22.8786, 37.4115, -29.6166, -29.2801
2.11221, -1, 17.4223, 16.2714, 22.906, 37.5474, -29.4568, -29.382
2.11911, -1, 17.4588, 16.2382, 22.9191, 37.6141, -29.3787, -29.4321
2.12809, -1, 17.5601, 16.148, 22.9559, 37.8032, -29.1565, -29.574
2.13506, -1, 17.5908, 16.1211, 22.9671, 37.8611, -29.0885, -29.6176
2.1442, -1, 17.6723, 16.0495, 22.9969, 38.0127, -28.9098, -29.7315
2.15111, -1, 17.6963, 16.0282, 23.0053, 38.0542, -28.8605, -29.7634
2.15906, -1, 17.7402, 15.9885, 23.02, 38.1241, -28.7782, -29.8162
2.1684, -1, 17.7961, 15.9378, 23.037, 38.1933, -28.6949, -29.8694
2.17512, -1, 17.8115, 15.924, 23.0412, 38.2087, -28.6766, -29.8812
2.18308, -1, 17.8377, 15.9021, 23.0476, 38.2305, -28.6505, -29.8975
2.19107, -1, 17.858, 15.8867, 23.0519, 38.2431, -28.6354, -29.9068
2.20056, -1, 17.8765, 15.873, 23.0554, 38.2516, -28.625, -29.9129
2.20708, -1, 17.8798, 15.8705, 23.056, 38.2529, -28.6234, -29.9139
2.21506, 2, 17.8834, 15.8675, 23.0567, 38.2545, -28.6215, -29.915
2.22313, 2, 17.8849, 15.8658, 23.057, 38.2553, -28.6207, -29.9155
2.2327, 2, 17.885, 15.8648, 23.0572, 38.2557, -28.6202, -29.9157
2.24006, 2, 17.8846, 15.8644, 23.0573, 38.2558, -28.6201, -29.9158
2.24894, 2, 17.884, 15.864, 23.0573, 38.2558, -28.62, -29.9159
2.2561, 2, 17.8836, 15.8639, 23.0573, 38.2558, -28.62, -29.9159
2.26405, 2, 17.8834, 15.8638, 23.0573, 38.2559, -28.62, -29.9159
2.27215, 2, 17.8833, 15.8637, 23.0573, 38.2558, -28.62, -29.9159
2.27906, 2, 17.8833, 15.8636, 23.0574, 38.2559, -28.62, -29.9159
2.28807, 2, 17.8834, 15.8635, 23.0574, 38.2559, -28.6199, -29.9159
2.29605, 2, 17.8837, 15.8633, 23.0574, 38.2559, -28.6199, -29.9159
2.30416, 2, 17.884, 15.8631, 23.0574, 38.2559, -28.62, -29.9159
2.31206, 2, 17.8844, 15.863, 23.0574, 38.2559, -28.62, -29.9159
2.32005, 2, 17.8851, 15.8628, 23.0574, 38.2559, -28.62, -29.9159
2.3281, 2, 17.8857, 15.8627, 23.0574, 38.2559, -28.6201, -29.9159
2.33605, 2, 17.8861, 15.8626, 23.0574, 38.2559, -28.62, -29.9159
2.34405, 2, 17.8865, 15.8626, 23.0574, 38.2559, -28.62, -29.9159
2.35212, 2, 17.8867, 15.8626, 23.0574, 38.2559, -28.62, -29.9159
2.36004, 2, 17.8869, 15.8626, 23.0574, 38.2559, -28.6201, -29.9159
2.36804, 2, 17.887, 15.8626, 23.0574, 38.2559, -28.6201, -29.9159
2.37611, 2, 17.887, 15.8626, 23.0574, 38.2559, -28.6202, -29.9159
2.38404, 2, 17.887, 15.8626, 23.0574, 38.2559, -28.6202, -29.9158
2.39113, 2, 17.887, 15.8625, 23.0574, 38.2559, -28.6202, -29.9158
2.39905, 2, 17.887, 15.8625, 23.0574, 38.2559, -28.6202, -29.9158
2.40708, 2, 17.8869, 15.8625, 23.0574, 38.2559, -28.6202, -29.9158
2.41605, 2, 17.8867, 15.8625, 23.0574, 38.2559, -28.6202, -29.9158
2.42411, 2, 17.8867, 15.8625, 23.0574, 38.2559, -28.6202, -29.9159
2.43215, 2, 17.8866, 15.8624, 23.0574, 38.2559, -28.6202, -29.9159
2.43922, 2, 17.8866, 15.8624, 23.0574, 38.2559, -28.6203, -29.9158
2.44716, 2, 17.8866, 15.8624, 23.0574, 38.2559, -28.6202, -29.9158
2.45515, 2, 17.8866, 15.8624, 23.0574, 38.2559, -28.6203, -29.9158
2.46323, 2, 17.8866, 15.8624, 23.0574, 38.2558, -28.6203, -29.9158
2.47116, 2, 17.8866, 15.8624, 23.0574, 38.2558, -28.6204, -29.9158
2.47916, 2, 17.8866, 15.8624, 23.0574, 38.2559, -28.6204, -29.9158
2.48725, 2, 17.8866, 15.8624, 23.0574, 38.2558, -28.6205, -29.9158
2.49509, 2, 17.8866, 15.8624, 23.0574, 38.2558, -28.6204, -29.9158
2.50316, 2, 17.8865, 15.8624, 23.0574, 38.2559, -28.6205, -29.9158
2.51145, 2, 17.8865, 15.8624, 23.0574, 38.2559, -28.6205, -29.9158
2.51919, 2, 17.8865, 15.8624, 23.0574, 38.2558, -28.6205, -29.9157
2.52723, 2, 17.8865, 15.8624, 23.0574, 38.2558, -28.6205, -29.9157
2.53577, 2, 17.8864, 15.8624, 23.0574, 38.2558, -28.6205, -29.9157
2.54411, 2, 17.8864, 15.8624, 23.0574, 38.2558, -28.6205, -29.9157
2.55139, 2, 17.8864, 15.8624, 23.0574, 38.2558, -28.6205, -29.9157
2.56008, 2, 17.8864, 15.8624, 23.0574, 38.2558, -28.6205, -29.9158
2.5682, 2, 17.8864, 15.8624, 23.0574, 38.2558, -28.6205, -29.9157
2.57556, 2, 17.8864, 15.8624, 23.0574, 38.2558, -28.6205, -29.9157
2.58417, 2, 17.8863, 15.8624, 23.0574, 38.2558, -28.6205, -29.9157
2.5916, 2, 17.8863, 15.8624, 23.0574, 38.2558, -28.6205, -29.9157
2.60015, 2, 17.8863, 15.8624, 23.0574, 38.2558, -28.6206, -29.9157
2.60827, 2, 17.8863, 15.8624, 23.0574, 38.2557, -28.6206, -29.9157
2.61505, 2, 17.8863, 15.8624, 23.0574, 38.2557, -28.6206, -29.9157
2.62409, 2, 17.8862, 15.8624, 23.0574, 38.2557, -28.6206, -29.9157
2.63199, 2, 17.8862, 15.8624, 23.0574, 38.2557, -28.6206, -29.9156
2.63904, 2, 17.8862, 15.8624, 23.0574, 38.2558, -28.6206, -29.9156
2.64816, 2, 17.8862, 15.8624, 23.0574, 38.2558, -28.6206, -29.9156
2.65505, 2, 17.8862, 15.8624, 23.0574, 38.2558, -28.6207, -29.9156
2.66304, 2, 17.8862, 15.8624, 23.0574, 38.2557, -28.6207, -29.9156
2.67237, 2, 17.8862, 15.8624, 23.0574, 38.2557, -28.6207, -29.9156
2.67906, 2, 17.8861, 15.8624, 23.0574, 38.2557, -28.6207, -29.9156
2.68708, 2, 17.8861, 15.8624, 23.0574, 38.2557, -28.6207, -29.9156
2.69654, 2, 17.8861, 15.8624, 23.0574, 38.2557, -28.6208, -29.9156
2.70514, 2, 17.8861, 15.8624, 23.0574, 38.2557, -28.6208, -29.9156
2.71104, 2, 17.8861, 15.8624, 23.0574, 38.2557, -28.6208, -29.9156
2.72062, 2, 17.886, 15.8624, 23.0574, 38.2557, -28.6208, -29.9156
2.72892, 2, 17.886, 15.8624, 23.0574, 38.2557, -28.6208, -29.9156
2.73658, 2, 17.8859, 15.8624, 23.0574, 38.2557, -28.6208, -29.9156
2.74478, 2, 17.8859, 15.8624, 23.0574, 38.2557, -28.6208, -29.9156
2.75315, 2, 17.8859, 15.8624, 23.0574, 38.2557, -28.6208, -29.9155
2.75904, 2, 17.8858, 15.8624, 23.0574, 38.2557, -28.6208, -29.9155
2.76803, 2, 17.8858, 15.8624, 23.0574, 38.2556, -28.6208, -29.9155
2.77615, 2, 17.8857, 15.8624, 23.0574, 38.2556, -28.6208, -29.9155
2.78304, 2, 17.8857, 15.8624, 23.0574, 38.2556, -28.6208, -29.9155
2.79206, 2, 17.8856, 15.8624, 23.0574, 38.2556, -28.6208, -29.9155
2.80006, 2, 17.8856, 15.8624, 23.0574, 38.2556, -28.621, -29.9154
2.80706, 2, 17.8856, 15.8624, 23.0574, 38.2557, -28.621, -29.9154
2.81603, 2, 17.8855, 15.8624, 23.0574, 38.2556, -28.6209, -29.9154
2.82406, 2, 17.8855, 15.8624, 23.0574, 38.2556, -28.621, -29.9153
2.83205, 2, 17.8854, 15.8624, 23.0574, 38.2557, -28.621, -29.9153
2.84003, 2, 17.8854, 15.8624, 23.0574, 38.2557, -28.6211, -29.9153
2.84708, 2, 17.8854, 15.8624, 23.0574, 38.2556, -28.621, -29.9153
2.85506, 2, 17.8853, 15.8624, 23.0574, 38.2556, -28.6211, -29.9152
2.86403, 2, 17.8853, 15.8624, 23.0574, 38.2556, -28.6211, -29.9152
2.8721, 2, 17.8852, 15.8624, 23.0574, 38.2556, -28.6211, -29.9152
2.87903, 2, 17.8852, 15.8624, 23.0574, 38.2556, -28.6211, -29.9152
2.88803, 2, 17.8851, 15.8624, 23.0574, 38.2555, -28.6211, -29.9151
2.89607, 2, 17.8851, 15.8624, 23.0574, 38.2556, -28.6211, -29.9151
2.90405, 2, 17.8851, 15.8625, 23.0574, 38.2555, -28.6212, -29.9151
2.91204, 2, 17.885, 15.8624, 23.0574, 38.2555, -28.6212, -29.915
2.91906, 2, 17.8849, 15.8624, 23.0574, 38.2555, -28.6212, -29.9151
2.92804, 2, 17.8849, 15.8624, 23.0574, 38.2555, -28.6212, -29.9151
2.93603, 2, 17.8848, 15.8625, 23.0574, 38.2555, -28.6212, -29.9151
2.94416, 2, 17.8847, 15.8625, 23.0574, 38.2554, -28.6212, -29.915
2.95113, 2, 17.8847, 15.8624, 23.0574, 38.2554, -28.6211, -29.915
2.95918, 2, 17.8847, 15.8624, 23.0574, 38.2554, -28.6212, -29.915
2.96718, 2, 17.8846, 15.8624, 23.0574, 38.2554, -28.6212, -29.915
2.97515, 2, 17.8846, 15.8624, 23.0574, 38.2554, -28.6212, -29.915
2.9832, 2, 17.8845, 15.8624, 23.0574, 38.2553, -28.6212, -29.915
2.99107, 2, 17.8845, 15.8624, 23.0574, 38.2553, -28.6212, -29.915
2.99907, 2, 17.8844, 15.8625, 23.0574, 38.2553, -28.6212, -29.915
3.00727, 2, 17.8844, 15.8625, 23.0574, 38.2553, -28.6212, -29.915
3.0151, 2, 17.8843, 15.8625, 23.0574, 38.2553, -28.6212, -29.9149
3.02322, 2, 17.8843, 15.8625, 23.0574, 38.2553, -28.6212, -29.9149
3.03127, 2, 17.8842, 15.8625, 23.0574, 38.2552, -28.6212, -29.915
3.03928, 2, 17.8842, 15.8625, 23.0574, 38.2552, -28.6212, -29.915
3.04743, 2, 17.8842, 15.8625, 23.0574, 38.2552, -28.6212, -29.9149
3.05543, 2, 17.8841, 15.8625, 23.0574, 38.2552, -28.6213, -29.9149
3.06362, 2, 17.8841, 15.8625, 23.0574, 38.2552, -28.6213, -29.9149
3.07216, 2, 17.884, 15.8625, 23.0574, 38.2552, -28.6213, -29.915
3.07957, 2, 17.884, 15.8625, 23.0574, 38.2552, -28.6213, -29.915
3.08819, 2, 17.884, 15.8625, 23.0574, 38.2552, -28.6213, -29.915
3.09569, 2, 17.884, 15.8625, 23.0574, 38.2552, -28.6213, -29.9149
3.1042, 2, 17.8839, 15.8625, 23.0574, 38.2551, -28.6212, -29.9149
3.11157, 2, 17.8839, 15.8625, 23.0574, 38.2551, -28.6213, -29.9149
3.12004, 2, 17.8839, 15.8625, 23.0574, 38.2551, -28.6213, -29.9149
3.12704, 2, 17.8839, 15.8625, 23.0574, 38.2551, -28.6213, -29.9149
3.13606, 2, 17.8838, 15.8625, 23.0574, 38.2551, -28.6214, -29.9149
3.14307, 2, 17.8838, 15.8625, 23.0574, 38.2551, -28.6214, -29.915
3.15222, 2, 17.8838, 15.8625, 23.0574, 38.2551, -28.6214, -29.9149
3.15904, 2, 17.8838, 15.8625, 23.0574, 38.255, -28.6213, -29.9149
3.16838, 2, 17.8838, 15.8625, 23.0574, 38.255, -28.6214, -29.9149
3.17511, 2, 17.8838, 15.8625, 23.0574, 38.255, -28.6214, -29.9149
3.18446, 2, 17.8838, 15.8625, 23.0574, 38.255, -28.6214, -29.9149
3.19109, 2, 17.8838, 15.8625, 23.0574, 38.255, -28.6214, -29.9149
3.20057, 2, 17.8838, 15.8625, 23.0574, 38.2549, -28.6214, -29.9149
3.20855, 2, 17.8838, 15.8625, 23.0574, 38.2549, -28.6214, -29.9149
3.21781, 2, 17.8837, 15.8625, 23.0574, 38.2549, -28.6214, -29.9149
3.22461, 2, 17.8837, 15.8625, 23.0574, 38.2549, -28.6214, -29.9149
3.23262, 2, 17.8837, 15.8625, 23.0574, 38.2549, -28.6214, -29.9149
3.24001, 2, 17.8837, 15.8625, 23.0574, 38.2549, -28.6214, -29.9149
3.24714, 2, 17.8837, 15.8625, 23.0574, 38.2549, -28.6215, -29.9149
3.25605, 2, 17.8837, 15.8625, 23.0574, 38.2549, -28.6215, -29.9149
3.26405, 2, 17.8837, 15.8626, 23.0574, 38.2548, -28.6215, -29.9149
3.27203, 2, 17.8837, 15.8625, 23.0574, 38.2549, -28.6215, -29.9149
3.2801, 2, 17.8837, 15.8625, 23.0574, 38.2548, -28.6215, -29.9149
3.28801, 2, 17.8836, 15.8625, 23.0574, 38.2548, -28.6215, -29.9149
3.29604, 4, 17.8837, 15.8625, 23.0574, 38.2548, -28.6215, -29.9148
3.30402, 4, 17.8836, 15.8626, 23.0574, 38.2547, -28.6214, -29.9148
3.31203, 4, 17.8836, 15.8626, 23.0574, 38.2547, -28.6214, -29.9148
3.31904, 4, 17.8836, 15.8625, 23.0574, 38.2547, -28.6214, -29.9149
3.32802, 4, 17.8836, 15.8626, 23.0574, 38.2547, -28.6215, -29.9149
3.33601, 4, 17.8836, 15.8626, 23.0574, 38.2546, -28.6215, -29.9148
3.34312, 4, 17.8836, 15.8626, 23.0574, 38.2546, -28.6215, -29.9148
3.35102, 4, 17.8836, 15.8626, 23.0574, 38.2546, -28.6215, -29.9148
3.36001, 4, 17.8836, 15.8626, 23.0574, 38.2546, -28.6215, -29.9148
3.36806, 4, 17.8835, 15.8626, 23.0574, 38.2547, -28.6215, -29.9148
3.37604, 4, 17.8835, 15.8626, 23.0574, 38.2546, -28.6215, -29.9148
3.38401, 4, 17.8835, 15.8626, 23.0574, 38.2546, -28.6215, -29.9148
3.39207, 4, 17.8835, 15.8626, 23.0574, 38.2546, -28.6215, -29.9148
3.41817, 4, 17.8835, 15.8626, 23.0574, 38.2545, -28.6215, -29.9148
3.41953, 4, 17.8835, 15.8626, 23.0574, 38.2545, -28.6215, -29.9148
3.42085, 4, 17.8835, 15.8626, 23.0574, 38.2545, -28.6215, -29.9148
3.42306, 4, 17.8835, 15.8626, 23.0574, 38.2545, -28.6215, -29.9148
3.43208, 4, 17.8835, 15.8626, 23.0574, 38.2544, -28.6215, -29.9148
3.43906, 4, 17.8834, 15.8626, 23.0574, 38.2544, -28.6215, -29.9147
3.44811, 4, 17.8834, 15.8626, 23.0574, 38.2544, -28.6215, -29.9147
3.45607, 4, 17.8834, 15.8626, 23.0574, 38.2544, -28.6215, -29.9147
3.46403, 4, 17.8828, 15.8626, 23.0574, 38.2544, -28.6215, -29.9147
3.47201, 4, 17.8807, 15.8626, 23.0575, 38.254, -28.6215, -29.9146
3.48008, 4, 17.8771, 15.8625, 23.058, 38.2516, -28.6221, -29.9132
3.48714, 4, 17.8725, 15.8624, 23.0596, 38.2446, -28.6238, -29.9088
3.49516, 4, 17.8676, 15.8619, 23.0629, 38.231, -28.628, -29.8984
3.50306, 4, 17.862, 15.8609, 23.0686, 38.21, -28.6349, -29.8805
3.51113, 5, 17.8555, 15.8592, 23.077, 38.1809, -28.645, -29.8551
3.51906, 5, 17.8486, 15.8571, 23.0882, 38.1434, -28.6579, -29.8221
3.52733, 5, 17.8416, 15.8544, 23.1017, 38.098, -28.6732, -29.7821
3.5353, 5, 17.8337, 15.8514, 23.1167, 38.0487, -28.6904, -29.7377
3.54327, 5, 17.824, 15.8481, 23.1325, 37.9964, -28.7086, -29.6913
3.55142, 5, 17.8129, 15.8447, 23.1489, 37.9417, -28.7276, -29.6433
3.55943, 5, 17.801, 15.8412, 23.1653, 37.8879, -28.7474, -29.5941
3.56755, 5, 17.7887, 15.8377, 23.1817, 37.8325, -28.7674, -29.5452
3.57617, 5, 17.776, 15.834, 23.1984, 37.7773, -28.7875, -29.4965
3.58363, 5, 17.7633, 15.8303, 23.2153, 37.723, -28.8072, -29.4477
3.59219, 5, 17.7505, 15.8265, 23.232, 37.6673, -28.8269, -29.3984
3.59963, 5, 17.7376, 15.8226, 23.2487, 37.6128, -28.8465, -29.3497
3.60812, 5, 17.7248, 15.8186, 23.2656, 37.5577, -28.8663, -29.3013
3.61555, 5, 17.7184, 15.8165, 23.2739, 37.5299, -28.8763, -29.277
3.62407, 5, 17.6991, 15.8104, 23.2988, 37.4487, -28.9072, -29.2035
3.63107, 5, 17.6926, 15.8084, 23.3072, 37.4213, -28.9175, -29.1794
3.64012, 5, 17.6731, 15.8026, 23.3326, 37.3391, -28.9479, -29.1075
3.647, 5, 17.6665, 15.8006, 23.3408, 37.3122, -28.958, -29.0833
3.65619, 5, 17.647, 15.795, 23.3658, 37.23, -28.9881, -29.0102
3.66303, 5, 17.6406, 15.7931, 23.3742, 37.2031, -28.9981, -28.9863
3.67248, 5, 17.6215, 15.7873, 23.399, 37.1218, -29.0286, -28.9143
3.68046, 5, 17.6088, 15.7835, 23.4158, 37.0671, -29.0494, -28.8659
3.68702, 5, 17.6025, 15.7816, 23.4243, 37.0404, -29.0598, -28.8416
3.69652, 5, 17.5833, 15.7759, 23.4494, 36.9585, -29.0905, -28.7697
3.70462, 5, 17.5705, 15.7722, 23.4661, 36.9047, -29.1106, -28.722
3.71255, 5, 17.5579, 15.7684, 23.483, 36.8509, -29.1306, -28.6735
3.72084, 5, 17.5452, 15.7646, 23.4996, 36.7963, -29.1507, -28.6256
3.72871, 5, 17.5327, 15.7607, 23.5159, 36.743, -29.171, -28.5783
3.7366, 5, 17.5263, 15.7588, 23.5242, 36.7162, -29.1918, -28.5307
3.74399, 5, 17.5135, 15.7548, 23.541, 36.6617, -29.2023, -28.5066
3.75207, 5, 17.5005, 15.7508, 23.5577, 36.6088, -29.2231, -28.4587
3.75902, 5, 17.4875, 15.7469, 23.5742, 36.5554, -29.2436, -28.4115
3.768, 5, 17.4745, 15.7431, 23.5909, 36.5014, -29.264, -28.3645
3.77606, 5, 17.4616, 15.7393, 23.6077, 36.4487, -29.2842, -28.3171
3.78302, 5, 17.4488, 15.7355, 23.6241, 36.3949, -29.3046, -28.2695
3.792, 5, 17.436, 15.7319, 23.6407, 36.3416, -29.3253, -28.2228
3.80006, 5, 17.4232, 15.7281, 23.6575, 36.2891, -29.3463, -28.176
3.80702, 5, 17.4104, 15.7243, 23.674, 36.2352, -29.3671, -28.1286
3.816, 5, 17.3976, 15.7206, 23.6904, 36.1824, -29.3876, -28.0815
3.82404, 5, 17.3848, 15.7169, 23.707, 36.1294, -29.4079, -28.0351
3.83102, 5, 17.372, 15.7133, 23.7234, 36.0756, -29.4281, -27.9888
3.84, 5, 17.3592, 15.7096, 23.7399, 36.0232, -29.4485, -27.9419
3.84807, 5, 17.3464, 15.706, 23.7566, 35.97, -29.4692, -27.895
3.85501, 5, 17.3336, 15.7023, 23.7733, 35.9168, -29.4903, -27.8488
3.86399, 5, 17.3209, 15.6986, 23.7898, 35.8647, -29.5113, -27.8025
3.8744, 5, 17.308, 15.6948, 23.8064, 35.8114, -29.532, -27.7323
3.87903, 5, 17.2952, 15.6909, 23.823, 35.759, -29.5526, -27.709
3.88801, 5, 17.2823, 15.6871, 23.8393, 35.707, -29.5731, -27.663
3.897, 5, 17.2694, 15.6833, 23.8556, 35.6539, -29.5937, -27.6169
3.90306, 5, 17.2565, 15.6796, 23.8722, 35.6019, -29.6146, -27.5704
3.91202, 5, 17.2438, 15.676, 23.8887, 35.5496, -29.6357, -27.5239
3.92002, 5, 17.231, 15.6724, 23.905, 35.4968, -29.6567, -27.4783
3.92801, 5, 17.2182, 15.6689, 23.9216, 35.4453, -29.6774, -27.4327
3.93605, 5, 17.2052, 15.6653, 23.9381, 35.3928, -29.6979, -27.3864
3.94399, 5, 17.192, 15.6617, 23.9543, 35.3404, -29.7183, -27.3402
3.95208, 5, 17.179, 15.6581, 23.9707, 35.2888, -29.7388, -27.2948
3.9591, 5, 17.1661, 15.6546, 23.9873, 35.236, -29.7597, -27.2494
3.9671, 5, 17.1531, 15.6512, 24.0038, 35.1841, -29.781, -27.2036
3.97589, 5, 17.1403, 15.6478, 24.0199, 35.1326, -29.8022, -27.1577
3.98405, 5, 17.1275, 15.6444, 24.0363, 35.0799, -29.8231, -27.1126
3.992, 5, 17.1146, 15.6409, 24.0527, 35.0284, -29.8439, -27.0674
3.9999, 5, 17.1017, 15.6373, 24.0687, 34.9767, -29.8646, -27.0219
4.00807, 5, 17.0889, 15.6338, 24.0851, 34.9245, -29.8854, -26.9762
4.01599, 5, 17.0761, 15.6301, 24.1016, 34.8737, -29.9065, -26.9313
4.02401, 5, 17.0633, 15.6264, 24.118, 34.8221, -29.928, -26.8866
4.03205, 5, 17.0505, 15.6229, 24.1342, 34.7704, -29.9494, -26.8414
4.03923, 5, 17.0376, 15.6193, 24.1505, 34.7197, -29.9704, -26.796
4.04819, 5, 17.0247, 15.6158, 24.1667, 34.668, -29.9911, -26.7512
4.05532, 5, 17.0118, 15.6124, 24.1827, 34.6166, -30.0118, -26.7067
4.06346, 5, 16.9988, 15.609, 24.1988, 34.5661, -30.0326, -26.6617
4.07152, 5, 16.986, 15.6057, 24.2152, 34.5143, -30.0539, -26.6163
4.07952, 5, 16.9732, 15.6023, 24.2314, 34.4633, -30.0756, -26.5715
4.08809, 5, 16.9602, 15.599, 24.2475, 34.4126, -30.097, -26.5271
4.09688, 5, 16.9473, 15.5957, 24.2639, 34.3607, -30.1182, -26.4823
4.10411, 5, 16.9344, 15.5924, 24.28, 34.31, -30.1393, -26.4372
4.11162, 5, 16.9279, 15.5891, 24.296, 34.2593, -30.1603, -26.3927
4.12096, 5, 16.9085, 15.5858, 24.3122, 34.2077, -30.1815, -26.3485
4.12805, 5, 16.8955, 15.5826, 24.3286, 34.1575, -30.203, -26.3041
4.13505, 5, 16.889, 15.5809, 24.3366, 34.1322, -30.2139, -26.2816
4.14499, 5, 16.8694, 15.5758, 24.3606, 34.0555, -30.2463, -26.2147
4.15211, 5, 16.8564, 15.5724, 24.3767, 34.0057, -30.2675, -26.1708
4.15906, 5, 16.8499, 15.5707, 24.3846, 33.9806, -30.2781, -26.1488
4.16916, 5, 16.8304, 15.5654, 24.4084, 33.9043, -30.3095, -26.0822
4.17504, 5, 16.824, 15.5637, 24.4164, 33.8794, -30.3201, -26.0599
4.18442, 5, 16.8046, 15.5586, 24.4407, 33.8038, -30.3525, -25.9943
4.191, 5, 16.7981, 15.5569, 24.4487, 33.7785, -30.3635, -25.9725
4.20108, 5, 16.7788, 15.5521, 24.4727, 33.7041, -30.3962, -25.9065
4.20699, 5, 16.7724, 15.5505, 24.4807, 33.6788, -30.4068, -25.8844
4.21657, 5, 16.7531, 15.5458, 24.5046, 33.6032, -30.4388, -25.819
4.22306, 5, 16.7466, 15.5442, 24.5124, 33.5785, -30.4494, -25.7974
4.23263, 5, 16.727, 15.5395, 24.5363, 33.5027, -30.4814, -25.7323
4.24054, 5, 16.7204, 15.538, 24.5444, 33.4776, -30.4923, -25.6884
4.24706, 5, 16.7073, 15.5349, 24.5603, 33.4284, -30.5142, -25.6668
4.25703, 5, 16.6877, 15.5303, 24.5842, 33.3529, -30.5466, -25.6023
4.26299, 5, 16.6811, 15.5289, 24.5923, 33.328, -30.5572, -25.5807
4.27198, 5, 16.6681, 15.5258, 24.6082, 33.279, -30.5785, -25.537
4.28002, 5, 16.6551, 15.5228, 24.6238, 33.2288, -30.5998, -25.4933
4.28806, 5, 16.6419, 15.5198, 24.6397, 33.1792, -30.6212, -25.4502
4.29734, 5, 16.6289, 15.5167, 24.6638, 33.1058, -30.6543, -25.3857
4.30299, 5, 16.6161, 15.5135, 24.6717, 33.0807, -30.6654, -25.364
4.31198, 5, 16.6032, 15.5104, 24.6873, 33.0313, -30.6872, -25.3205
4.32146, 5, 16.5838, 15.5056, 24.7111, 32.9579, -30.7196, -25.2562
4.32699, 5, 16.5773, 15.504, 24.719, 32.9328, -30.7303, -25.2348
4.33598, 5, 16.5642, 15.5008, 24.7345, 32.8838, -30.752, -25.1921
4.34404, 5, 16.5512, 15.4977, 24.7503, 32.8354, -30.7737, -25.1488
4.35197, 5, 16.5383, 15.4947, 24.7664, 32.7856, -30.796, -25.1058
4.36, 5, 16.5252, 15.4918, 24.7823, 32.7367, -30.8181, -25.0634
4.36948, 5, 16.5124, 15.4889, 24.7979, 32.6881, -30.8399, -25.021
4.37598, 5, 16.4994, 15.486, 24.8137, 32.6383, -30.8615, -24.9781
4.38502, 5, 16.4863, 15.4831, 24.8295, 32.5896, -30.883, -24.9352
4.39098, 5, 16.4733, 15.4802, 24.8449, 32.5411, -30.9045, -24.8931
4.39999, 5, 16.4603, 15.4774, 24.8606, 32.4916, -30.9266, -24.8511
4.40798, 5, 16.4473, 15.4745, 24.8765, 32.4431, -30.949, -24.8087
4.41598, 5, 16.4342, 15.4717, 24.8923, 32.3947, -30.9711, -24.766
4.42397, 5, 16.4211, 15.4689, 24.9078, 32.3454, -30.993, -24.7239
4.43205, 5, 16.4079, 15.466, 24.9236, 32.2974, -31.0147, -24.6823
4.43997, 5, 16.3947, 15.4632, 24.9393, 32.2493, -31.0363, -24.6406
4.44798, 5, 16.3816, 15.4603, 24.9548, 32.2003, -31.0582, -24.5985
4.45613, 5, 16.3685, 15.4574, 24.9704, 32.1523, -31.0805, -24.5563
4.46309, 5, 16.3554, 15.4545, 24.9862, 32.1043, -31.1029, -24.5147
4.47199, 5, 16.3424, 15.4515, 25.002, 32.0554, -31.1249, -24.4731
4.48005, 5, 16.3292, 15.4485, 25.0174, 32.0078, -31.1467, -24.4309
4.48797, 5, 16.3161, 15.4455, 25.033, 31.9599, -31.1683, -24.3885
4.49607, 5, 16.3031, 15.4425, 25.0486, 31.9111, -31.19, -24.3468
4.50405, 5, 16.2901, 15.4395, 25.064, 31.8634, -31.2122, -24.3054
4.5111, 5, 16.277, 15.4365, 25.0795, 31.8155, -31.2347, -24.2636
4.51912, 5, 16.2638, 15.4337, 25.0954, 31.7667, -31.2573, -24.2215
4.52781, 5, 16.2504, 15.4308, 25.1111, 31.7192, -31.2795, -24.1796
4.53598, 5, 16.2372, 15.4281, 25.1266, 31.6716, -31.3015, -24.1383
4.54404, 5, 16.224, 15.4254, 25.1421, 31.623, -31.3234, -24.097
4.55203, 5, 16.2107, 15.4227, 25.1576, 31.5756, -31.3456, -24.0551
4.56005, 5, 16.1976, 15.42, 25.173, 31.5282, -31.3681, -24.0131
4.56743, 5, 16.1845, 15.4174, 25.1882, 31.4799, -31.3908, -23.9718
4.57636, 5, 16.1713, 15.4147, 25.2038, 31.4329, -31.4132, -23.9309
4.58349, 5, 16.1583, 15.4121, 25.2195, 31.3858, -31.4353, -23.8895
4.59209, 5, 16.1453, 15.4095, 25.2349, 31.3377, -31.4572, -23.8478
4.60047, 5, 16.1322, 15.407, 25.2504, 31.291, -31.4791, -23.8067
4.60758, 5, 16.1191, 15.4045, 25.266, 31.244, -31.5015, -23.7661
4.61613, 5, 16.106, 15.4019, 25.2813, 31.1961, -31.5244, -23.7253
4.62298, 5, 16.0994, 15.4006, 25.2889, 31.1725, -31.5358, -23.7047
4.63172, 5, 16.0862, 15.3981, 25.3043, 31.1261, -31.5585, -23.6429
4.64013, 5, 16.0666, 15.3942, 25.3278, 31.0547, -31.592, -23.6024
4.64698, 5, 16.06, 15.3929, 25.3354, 31.0312, -31.6031, -23.5822
4.65498, 5, 16.0469, 15.3902, 25.3506, 30.9848, -31.6253, -23.542
4.6642, 5, 16.0273, 15.3863, 25.3737, 30.9134, -31.6594, -23.4808
4.67097, 5, 16.0206, 15.3849, 25.3814, 30.8898, -31.6709, -23.4603
4.67904, 5, 16.0075, 15.3822, 25.3965, 30.8436, -31.6938, -23.4199
4.68872, 5, 15.9878, 15.3782, 25.4194, 30.7728, -31.7274, -23.3596
4.69732, 5, 15.9747, 15.3755, 25.435, 30.7261, -31.7495, -23.3189
4.70308, 5, 15.9681, 15.3742, 25.4427, 30.703, -31.7607, -23.2984
4.71258, 5, 15.9483, 15.3705, 25.4655, 30.6326, -31.7945, -23.2378
4.72134, 5, 15.935, 15.368, 25.4809, 30.5861, -31.8176, -23.1978
4.72705, 5, 15.9284, 15.3668, 25.4886, 30.5633, -31.8292, -23.1778
4.73686, 5, 15.9086, 15.3633, 25.511, 30.4936, -31.8634, -23.117
4.74532, 5, 15.902, 15.3621, 25.5185, 30.4702, -31.8746, -23.0968
4.75104, 5, 15.8888, 15.3597, 25.5338, 30.4242, -31.897, -23.0569
4.76102, 5, 15.8692, 15.3562, 25.5569, 30.3547, -31.9308, -22.9973
4.76796, 5, 15.8625, 15.3551, 25.5645, 30.3313, -31.9423, -22.9774
4.77504, 5, 15.8493, 15.3527, 25.5796, 30.2857, -31.9655, -22.9373
4.78401, 5, 15.8362, 15.3504, 25.5949, 30.24, -31.9884, -22.8969
4.79205, 5, 15.8231, 15.3481, 25.61, 30.1932, -32.011, -22.8574
4.79997, 5, 15.8099, 15.3458, 25.625, 30.1474, -32.0334, -22.8181
4.80804, 5, 15.7967, 15.3435, 25.6402, 30.1017, -32.0557, -22.7785
4.81597, 5, 15.7833, 15.3412, 25.6555, 30.055, -32.0783, -22.7386
4.82399, 5, 15.77, 15.3389, 25.6707, 30.0091, -32.1014, -22.6992
4.83201, 5, 15.7567, 15.3366, 25.6856, 29.9638, -32.1246, -22.6601
4.83996, 5, 15.7435, 15.3343, 25.7007, 29.9174, -32.1475, -22.6212
4.84797, 5, 15.7302, 15.3319, 25.7157, 29.8715, -32.1702, -22.5817
4.85504, 5, 15.717, 15.3295, 25.7305, 29.8265, -32.1927, -22.542
4.86398, 5, 15.7037, 15.3271, 25.7455, 29.7805, -32.2153, -22.503
4.87196, 5, 15.6905, 15.3247, 25.7608, 29.7348, -32.2383, -22.4644
4.88002, 5, 15.6774, 15.3222, 25.7761, 29.6902, -32.2616, -22.4258
4.88903, 5, 15.6642, 15.3198, 25.7911, 29.6447, -32.2845, -22.3867
4.89596, 5, 15.651, 15.3174, 25.806, 29.5989, -32.3072, -22.3474
4.90404, 5, 15.6377, 15.315, 25.8211, 29.5542, -32.3297, -22.3087
4.91196, 5, 15.6242, 15.3126, 25.8359, 29.509, -32.3522, -22.2702
4.91997, 5, 15.6109, 15.3104, 25.8506, 29.4631, -32.3752, -22.2316
4.92803, 5, 15.5976, 15.3081, 25.8657, 29.4186, -32.3986, -22.1922
4.93596, 5, 15.5843, 15.306, 25.8809, 29.3739, -32.422, -22.1531
4.94404, 5, 15.5711, 15.3038, 25.8958, 29.3282, -32.4451, -22.1147
4.95196, 5, 15.5578, 15.3017, 25.9106, 29.2835, -32.4679, -22.0764
4.96005, 5, 15.5445, 15.2996, 25.9256, 29.2388, -32.4908, -22.0377
4.96803, 5, 15.5313, 15.2975, 25.9406, 29.1931, -32.5139, -21.9988
4.97597, 5, 15.5181, 15.2954, 25.9554, 29.1481, -32.5374, -21.9601
4.98396, 5, 15.5048, 15.2934, 25.9703, 29.1039, -32.5609, -21.9219
4.99204, 5, 15.4915, 15.2914, 25.9855, 29.0586, -32.5841, -21.8838
4.99997, 5, 15.4782, 15.2894, 26.0004, 29.0136, -32.6069, -21.8454
5.00781, 5, 15.4647, 15.2874, 26.0151, 28.9696, -32.6297, -21.8066
5.01634, 5, 15.4514, 15.2854, 26.0299, 28.9247, -32.6526, -21.7684
5.02308, 5, 15.438, 15.2834, 26.0448, 28.8797, -32.6759, -21.7305
5.03189, 5, 15.4246, 15.2814, 26.0595, 28.8359, -32.6996, -21.6927
5.04075, 5, 15.4114, 15.2795, 26.0742, 28.7917, -32.7229, -21.6544
5.04796, 5, 15.398, 15.2775, 26.0892, 28.7467, -32.7461, -21.616
5.0561, 5, 15.3846, 15.2755, 26.1043, 28.7028, -32.769, -21.5783
5.06332, 5, 15.3713, 15.2734, 26.119, 28.6589, -32.792, -21.5409
5.07202, 5, 15.358, 15.2714, 26.1337, 28.614, -32.8154, -21.5034
5.08044, 5, 15.3447, 15.2694, 26.1486, 28.5701, -32.8391, -21.4654
5.08748, 5, 15.3313, 15.2673, 26.1633, 28.5266, -32.8627, -21.4272
5.09607, 5, 15.3178, 15.2652, 26.1778, 28.482, -32.8858, -21.3897
5.10447, 5, 15.3042, 15.2632, 26.1925, 28.4377, -32.9089, -21.3526
5.11153, 5, 15.2975, 15.2611, 26.2075, 28.3942, -32.9318, -21.3155
5.12011, 5, 15.2773, 15.259, 26.2223, 28.35, -32.9551, -21.278
5.12696, 5, 15.2706, 15.2579, 26.2296, 28.3276, -32.9669, -21.259
5.13496, 5, 15.2572, 15.2559, 26.2442, 28.2838, -32.9908, -21.2215
5.14402, 5, 15.237, 15.2528, 26.2664, 28.2184, -33.0263, -21.1659
5.15097, 5, 15.2304, 15.2517, 26.2737, 28.1961, -33.0379, -21.1473
5.15896, 5, 15.2171, 15.2497, 26.2882, 28.1519, -33.0611, -21.1101
5.16814, 6, 15.1971, 15.2468, 26.3103, 28.087, -33.0961, -21.0536
5.17495, 6, 15.1904, 15.2459, 26.3177, 28.065, -33.1079, -21.0349
5.183, 6, 15.177, 15.244, 26.3324, 28.0209, -33.1318, -20.998
5.19242, 6, 15.1568, 15.2413, 26.3541, 27.9566, -33.1671, -20.9427
5.19895, 6, 15.15, 15.2404, 26.3614, 27.9349, -33.1787, -20.9241
5.20714, 6, 15.1366, 15.2387, 26.376, 27.8909, -33.2018, -20.8864
5.21652, 6, 15.1165, 15.2361, 26.3977, 27.8266, -33.2366, -20.8312
5.22532, 6, 15.1031, 15.2345, 26.4122, 27.7835, -33.2603, -20.7945
5.23103, 6, 15.0964, 15.2336, 26.4197, 27.7615, -33.2723, -20.7762
5.24112, 6, 15.0763, 15.2311, 26.4419, 27.6969, -33.308, -20.7209
5.24697, 6, 15.0695, 15.2303, 26.4491, 27.6757, -33.3198, -20.7022
5.25702, 6, 15.0495, 15.2277, 26.4709, 27.6105, -33.3547, -20.6473
5.26295, 6, 15.0428, 15.2268, 26.4782, 27.5888, -33.3664, -20.6291
5.27195, 6, 15.0294, 15.2251, 26.4927, 27.5462, -33.3899, -20.5928
5.27902, 6, 15.016, 15.2233, 26.507, 27.5034, -33.414, -20.5564
5.288, 6, 15.0024, 15.2216, 26.5214, 27.4596, -33.438, -20.5196
5.29495, 6, 14.9888, 15.2198, 26.536, 27.4168, -33.4617, -20.483
5.304, 6, 14.9754, 15.2181, 26.5506, 27.3745, -33.485, -20.4472
5.31094, 6, 14.9619, 15.2164, 26.565, 27.3313, -33.5082, -20.4113
5.31994, 6, 14.9484, 15.2147, 26.5794, 27.2882, -33.5317, -20.3753
5.32794, 6, 14.9349, 15.213, 26.594, 27.2461, -33.5557, -20.3387
5.33599, 6, 14.9214, 15.2113, 26.6084, 27.2033, -33.58, -20.3023
5.34295, 6, 14.9079, 15.2097, 26.6227, 27.1601, -33.6038, -20.2664
5.35195, 6, 14.8945, 15.2081, 26.6372, 27.1181, -33.6275, -20.2308
5.35903, 6, 14.8811, 15.2064, 26.6518, 27.0762, -33.651, -20.1951
5.36794, 6, 14.8676, 15.2047, 26.6662, 27.0333, -33.6746, -20.1591
5.37594, 6, 14.8541, 15.203, 26.6805, 26.991, -33.6987, -20.123
5.38401, 6, 14.8404, 15.2013, 26.6948, 26.9492, -33.723, -20.0871
5.393, 6, 14.8268, 15.1995, 26.7091, 26.9066, -33.7469, -20.0516
5.39994, 6, 14.8133, 15.1978, 26.7233, 26.8641, -33.7706, -20.0159
5.41087, 6, 14.7929, 15.1951, 26.7446, 26.8018, -33.8058, -19.9614
5.41594, 6, 14.7862, 15.1943, 26.7519, 26.7806, -33.8176, -19.9433
5.42394, 6, 14.7728, 15.1925, 26.7665, 26.7379, -33.8418, -19.9076
5.43195, 6, 14.7592, 15.1908, 26.7808, 26.696, -33.8663, -19.8723
5.43994, 6, 14.7457, 15.1891, 26.795, 26.6543, -33.8905, -19.8369
5.44801, 6, 14.7323, 15.1875, 26.8092, 26.6118, -33.9143, -19.801
5.45594, 6, 14.7188, 15.186, 26.8235, 26.5696, -33.9381, -19.7648
5.46312, 6, 14.7053, 15.1845, 26.8376, 26.5283, -33.9619, -19.7293
5.47105, 6, 14.6918, 15.1831, 26.8516, 26.4864, -33.9861, -19.694
5.47906, 6, 14.6781, 15.1817, 26.866, 26.4441, -34.0105, -19.6588
5.48794, 6, 14.6646, 15.1804, 26.8804, 26.4027, -34.0346, -19.6233
5.49602, 6, 14.651, 15.1791, 26.8945, 26.3614, -34.0584, -19.5876
5.50394, 6, 14.6375, 15.1778, 26.9086, 26.3193, -34.082, -19.5522
5.51195, 6, 14.624, 15.1765, 26.9228, 26.2777, -34.1057, -19.5172
5.52004, 6, 14.6105, 15.1753, 26.937, 26.237, -34.1299, -19.4824
5.52715, 6, 14.597, 15.174, 26.951, 26.1956, -34.1545, -19.4474
5.5352, 6, 14.5836, 15.1728, 26.9652, 26.1537, -34.1789, -19.4121
5.54316, 6, 14.5702, 15.1715, 26.9795, 26.1128, -34.2029, -19.3767
5.55127, 6, 14.5567, 15.1702, 26.9936, 26.072, -34.2267, -19.3421
5.55958, 6, 14.5432, 15.1689, 27.0076, 26.0301, -34.2506, -19.3078
5.56794, 6, 14.5295, 15.1677, 27.0216, 25.9889, -34.2749, -19.2732
5.57599, 6, 14.5158, 15.1664, 27.0356, 25.9484, -34.2995, -19.2383
5.58412, 6, 14.5022, 15.1651, 27.0496, 25.9073, -34.3239, -19.203
5.59149, 6, 14.4885, 15.1638, 27.0635, 25.8656, -34.3479, -19.1685
5.60005, 6, 14.4749, 15.1625, 27.0775, 25.8251, -34.3717, -19.1343
5.60796, 6, 14.4613, 15.1612, 27.0918, 25.7843, -34.3956, -19.1001
5.61604, 6, 14.4476, 15.16, 27.1059, 25.7426, -34.4199, -19.0658
5.62359, 6, 14.4407, 15.1593, 27.1129, 25.7015, -34.4447, -19.0309
5.63222, 6, 14.4203, 15.1576, 27.1338, 25.6612, -34.4693, -18.9964
5.63893, 6, 14.4135, 15.157, 27.1408, 25.6409, -34.4814, -18.9794
5.64799, 6, 14.3931, 15.1552, 27.1617, 25.5789, -34.5176, -18.9284
5.65642, 6, 14.3794, 15.1541, 27.1754, 25.5386, -34.5418, -18.8942
5.66293, 6, 14.3725, 15.1535, 27.1823, 25.5185, -34.5541, -18.8768
5.67225, 6, 14.352, 15.1518, 27.2034, 25.457, -34.5913, -18.8247
5.67893, 6, 14.3452, 15.1512, 27.2105, 25.4365, -34.6036, -18.8076
5.68826, 6, 14.3247, 15.1495, 27.2313, 25.3766, -34.64, -18.7568
5.69502, 6, 14.318, 15.1489, 27.2382, 25.3566, -34.652, -18.7399
5.70481, 6, 14.2976, 15.1472, 27.2592, 25.2954, -34.6881, -18.689
5.71257, 6, 14.2841, 15.1461, 27.2731, 25.2552, -34.7127, -18.6545
5.72052, 6, 14.2706, 15.1449, 27.2869, 25.2154, -34.7377, -18.6205
5.72857, 6, 14.257, 15.1438, 27.3008, 25.1747, -34.7623, -18.5869
5.73651, 6, 14.2435, 15.1426, 27.3149, 25.1342, -34.7867, -18.5534
5.74459, 6, 14.2367, 15.1414, 27.3287, 25.0946, -34.8109, -18.5196
5.75278, 6, 14.223, 15.1408, 27.3356, 25.0748, -34.823, -18.5026
5.75992, 6, 14.2092, 15.1396, 27.3493, 25.0343, -34.8475, -18.4684
5.76797, 6, 14.1955, 15.1384, 27.3631, 24.9938, -34.8725, -18.4347
5.77601, 6, 14.1819, 15.1372, 27.377, 24.9542, -34.8973, -18.4016
5.78393, 6, 14.1683, 15.136, 27.3907, 24.9143, -34.9217, -18.3684
5.79197, 6, 14.1548, 15.1348, 27.4043, 24.8736, -34.9458, -18.3351
5.8, 6, 14.1411, 15.1336, 27.4183, 24.8337, -34.97, -18.3014
5.80795, 6, 14.1275, 15.1324, 27.4323, 24.7943, -34.9946, -18.2676
5.81595, 6, 14.114, 15.1312, 27.4461, 24.7543, -35.0196, -18.2344
5.82392, 6, 14.1004, 15.1301, 27.4598, 24.7137, -35.0446, -18.2018
5.83199, 6, 14.0868, 15.1291, 27.4735, 24.6742, -35.0692, -18.1689
5.83993, 6, 14.0732, 15.128, 27.4873, 24.6349, -35.0936, -18.1356
5.84793, 6, 14.0595, 15.127, 27.5009, 24.5948, -35.118, -18.1019
5.85599, 6, 14.0457, 15.126, 27.5144, 24.555, -35.1427, -18.0687
5.86393, 6, 14.032, 15.1251, 27.5282, 24.5162, -35.1679, -18.036
5.87194, 6, 14.0183, 15.1242, 27.542, 24.477, -35.1928, -18.0034
5.88092, 6, 14.0046, 15.1234, 27.5557, 24.437, -35.2174, -17.9707
5.88793, 6, 13.9909, 15.1225, 27.5692, 24.3979, -35.2416, -17.9376
5.89592, 6, 13.9771, 15.1217, 27.5829, 24.3592, -35.266, -17.9044
5.904, 6, 13.9635, 15.1209, 27.5966, 24.3196, -35.2908, -17.8716
5.91294, 6, 13.9499, 15.1201, 27.6102, 24.2799, -35.316, -17.8392
5.91997, 6, 13.9363, 15.1194, 27.6237, 24.2411, -35.341, -17.8067
5.92794, 6, 13.9226, 15.1186, 27.6374, 24.2023, -35.3656, -17.7738
5.93593, 6, 13.9088, 15.1179, 27.6511, 24.1626, -35.3901, -17.7406
5.94399, 6, 13.895, 15.1172, 27.6647, 24.1232, -35.4147, -17.7075
5.95192, 6, 13.8812, 15.1165, 27.6781, 24.0847, -35.4397, -17.6749
5.95993, 6, 13.8674, 15.1158, 27.6916, 24.0456, -35.465, -17.6428
5.96811, 6, 13.8537, 15.1151, 27.7051, 24.0057, -35.4899, -17.6106
5.97504, 6, 13.84, 15.1144, 27.7186, 23.9668, -35.5145, -17.578
5.98414, 6, 13.8263, 15.1137, 27.7319, 23.9284, -35.5389, -17.5452
5.99276, 6, 13.8125, 15.1131, 27.7455, 23.8893, -35.5634, -17.5127
5.99992, 6, 13.7988, 15.1124, 27.7592, 23.8499, -35.5885, -17.4806
6.00794, 6, 13.785, 15.1117, 27.7727, 23.8114, -35.6139, -17.4485
6.016, 6, 13.7713, 15.1111, 27.7861, 23.7729, -35.6389, -17.4164
6.02391, 6, 13.7575, 15.1105, 27.7995, 23.7337, -35.6637, -17.3838
6.03199, 6, 13.7436, 15.1098, 27.813, 23.6948, -35.6883, -17.3512
6.03993, 6, 13.7298, 15.1092, 27.8264, 23.6568, -35.713, -17.3193
6.04793, 6, 13.7161, 15.1085, 27.8397, 23.6187, -35.7382, -17.2876
6.05607, 6, 13.7024, 15.1079, 27.853, 23.5797, -35.7635, -17.2561
6.0641, 6, 13.6888, 15.1073, 27.8665, 23.5412, -35.7884, -17.2242
6.07137, 6, 13.6751, 15.1066, 27.88, 23.5033, -35.813, -17.1919
6.07937, 6, 13.6613, 15.106, 27.8933, 23.4649, -35.8376, -17.1597
6.08821, 6, 13.6476, 15.1054, 27.9065, 23.4261, -35.8624, -17.128
6.09552, 6, 13.6339, 15.1047, 27.92, 23.3881, -35.8879, -17.0967
6.10571, 6, 13.6201, 15.1041, 27.9334, 23.3505, -35.9133, -17.0653
6.11244, 6, 13.6064, 15.1035, 27.9466, 23.312, -35.9384, -17.0337
6.11952, 6, 13.5995, 15.1032, 27.9533, 23.2733, -35.9633, -17.0016
6.12792, 6, 13.5786, 15.1023, 27.9734, 23.2354, -35.9882, -16.9697
6.13664, 6, 13.5648, 15.1017, 27.9867, 23.1976, -36.0133, -16.9383
6.14414, 6, 13.5511, 15.1011, 28, 23.1589, -36.0389, -16.9072
6.15091, 6, 13.5441, 15.1008, 28.0065, 23.1396, -36.0516, -16.8917
6.1608, 6, 13.5236, 15.0999, 28.0263, 23.083, -36.0893, -16.8447
6.16815, 6, 13.5098, 15.0994, 28.0395, 23.0454, -36.1141, -16.813
6.17491, 6, 13.5029, 15.0991, 28.0461, 23.0261, -36.1264, -16.7971
6.18503, 6, 13.4823, 15.0983, 28.0657, 22.9689, -36.164, -16.7503
6.19237, 6, 13.4685, 15.0978, 28.079, 22.9316, -36.1896, -16.7193
6.199, 6, 13.4616, 15.0975, 28.0857, 22.9129, -36.2023, -16.7039
6.2092, 6, 13.4408, 15.0968, 28.1057, 22.8557, -36.2401, -16.657
6.21501, 6, 13.4337, 15.0965, 28.1123, 22.8368, -36.2526, -16.6412
6.22447, 6, 13.4128, 15.0958, 28.132, 22.7813, -36.2898, -16.5938
6.2333, 6, 13.3989, 15.0954, 28.1452, 22.7438, -36.3152, -16.5629
6.23898, 6, 13.3919, 15.0952, 28.1517, 22.7247, -36.3281, -16.5475
6.24856, 6, 13.378, 15.0948, 28.1713, 22.6685, -36.3661, -16.5014
6.25764, 6, 13.3572, 15.0942, 28.1843, 22.6317, -36.391, -16.4704
6.26391, 6, 13.3503, 15.094, 28.1909, 22.613, -36.4034, -16.4548
6.27195, 6, 13.3365, 15.0936, 28.2041, 22.5751, -36.4283, -16.4236
6.27992, 6, 13.3228, 15.0932, 28.2172, 22.5377, -36.4536, -16.3927
6.28699, 6, 13.309, 15.0929, 28.2303, 22.501, -36.4792, -16.3622
6.29595, 6, 13.2953, 15.0925, 28.2433, 22.4639, -36.5048, -16.3317
6.30399, 6, 13.2814, 15.0922, 28.2564, 22.426, -36.53, -16.3011
6.31195, 6, 13.2674, 15.0918, 28.2695, 22.3889, -36.5552, -16.2702
6.31995, 6, 13.2536, 15.0915, 28.2825, 22.3523, -36.5802, -16.2392
6.32791, 6, 13.2398, 15.0912, 28.2955, 22.3151, -36.6057, -16.2088
6.33491, 6, 13.226, 15.091, 28.3086, 22.2772, -36.6314, -16.1787
6.34391, 6, 13.2122, 15.0907, 28.3217, 22.2402, -36.6568, -16.1486
6.3519, 6, 13.1983, 15.0904, 28.3347, 22.2036, -36.6819, -16.1184
6.35891, 6, 13.1844, 15.0902, 28.3475, 22.1666, -36.7068, -16.0879
6.36791, 6, 13.1706, 15.0899, 28.3605, 22.1291, -36.7318, -16.0571
6.37592, 6, 13.1567, 15.0897, 28.3734, 22.0924, -36.7575, -16.0268
6.38491, 6, 13.1429, 15.0894, 28.3863, 22.0561, -36.7834, -15.997
6.39191, 6, 13.1289, 15.0892, 28.3992, 22.0191, -36.8089, -15.9672
6.39991, 6, 13.1149, 15.089, 28.4121, 21.9819, -36.8341, -15.9374
6.40807, 6, 13.101, 15.0888, 28.4252, 21.9456, -36.8593, -15.9072
6.41592, 6, 13.0871, 15.0886, 28.4382, 21.9096, -36.8848, -15.8768
6.4239, 6, 13.0731, 15.0884, 28.451, 21.8729, -36.9108, -15.8468
6.43195, 6, 13.0593, 15.0883, 28.4639, 21.8359, -36.9368, -15.817
6.4399, 6, 13.0454, 15.0881, 28.4768, 21.7997, -36.9622, -15.7874
6.44792, 6, 13.0314, 15.0879, 28.4896, 21.7636, -36.9875, -15.7577
6.45592, 6, 13.0176, 15.0878, 28.5023, 21.7268, -37.0126, -15.7279
6.46389, 6, 13.0038, 15.0877, 28.5151, 21.69, -37.0383, -15.6976
6.47199, 6, 12.9899, 15.0876, 28.5279, 21.6541, -37.0644, -15.6677
6.47997, 6, 12.976, 15.0875, 28.5408, 21.6183, -37.0902, -15.6382
6.48793, 6, 12.9619, 15.0874, 28.5536, 21.5816, -37.1158, -15.6088
6.49594, 6, 12.9478, 15.0873, 28.5663, 21.5448, -37.1411, -15.5791
6.50396, 6, 12.9339, 15.0872, 28.579, 21.5089, -37.1666, -15.5491
6.51191, 6, 12.9199, 15.0871, 28.5919, 21.4729, -37.1925, -15.5188
6.51991, 6, 12.9061, 15.087, 28.6046, 21.4363, -37.2186, -15.4886
6.52798, 6, 12.8922, 15.087, 28.6173, 21.3997, -37.2442, -15.459
6.5359, 6, 12.8782, 15.0869, 28.63, 21.364, -37.2694, -15.4295
6.54391, 6, 12.8644, 15.0869, 28.6429, 21.3284, -37.2946, -15.4003
6.55197, 6, 12.8505, 15.0868, 28.6556, 21.2919, -37.3199, -15.3708
6.55991, 6, 12.8367, 15.0868, 28.6683, 21.2553, -37.3461, -15.341
6.56815, 6, 12.8228, 15.0868, 28.6808, 21.2197, -37.3722, -15.311
6.57548, 6, 12.8088, 15.0868, 28.6935, 21.1842, -37.3979, -15.2814
6.58396, 6, 12.7948, 15.0868, 28.7061, 21.1479, -37.4233, -15.2522
6.59229, 6, 12.7809, 15.0868, 28.7187, 21.1119, -37.4488, -15.223
6.59952, 6, 12.767, 15.0868, 28.7312, 21.0766, -37.4745, -15.1937
6.60807, 6, 12.7531, 15.0868, 28.7439, 21.0415, -37.5007, -15.1641
6.61646, 6, 12.7393, 15.0868, 28.7566, 21.0056, -37.5265, -15.1344
6.62396, 6, 12.7253, 15.0868, 28.7693, 20.9697, -37.552, -15.1052
6.63191, 6, 12.7114, 15.0868, 28.7819, 20.9345, -37.5774, -15.0763
6.64074, 6, 12.6976, 15.0868, 28.7944, 20.8995, -37.6028, -15.0475
6.648, 6, 12.6837, 15.0868, 28.807, 20.8638, -37.6288, -15.0188
6.65494, 6, 12.6767, 15.0868, 28.8133, 20.8457, -37.642, -15.0042
6.66485, 6, 12.6557, 15.0868, 28.832, 20.7928, -37.6811, -14.9602
6.67233, 6, 12.6416, 15.0868, 28.8443, 20.7577, -37.7068, -14.931
6.67894, 6, 12.6346, 15.0868, 28.8505, 20.7401, -37.7196, -14.9166
6.68912, 6, 12.6136, 15.0868, 28.8695, 20.6862, -37.7582, -14.874
6.69631, 6, 12.5996, 15.0868, 28.882, 20.6511, -37.7846, -14.8456
6.70298, 6, 12.5926, 15.0869, 28.8882, 20.6337, -37.7978, -14.8314
6.71326, 6, 12.5715, 15.0869, 28.9068, 20.5807, -37.8367, -14.7882
6.71899, 6, 12.5644, 15.0869, 28.9131, 20.5626, -37.8495, -14.7737
6.7287, 6, 12.5434, 15.0869, 28.9318, 20.5097, -37.8879, -14.7307
6.7373, 6, 12.5294, 15.0869, 28.9442, 20.4751, -37.9141, -14.7023
6.74297, 6, 12.5224, 15.0869, 28.9504, 20.4576, -37.9273, -14.6882
6.7526, 6, 12.5013, 15.087, 28.9691, 20.4043, -37.9667, -14.6459
6.7599, 6, 12.4941, 15.087, 28.9753, 20.3868, -37.9797, -14.6318
6.76794, 6, 12.4799, 15.0871, 28.9878, 20.3521, -38.0055, -14.6031
6.77589, 6, 12.4658, 15.0871, 29.0001, 20.3174, -38.0313, -14.5742
6.7839, 6, 12.4516, 15.0872, 29.0124, 20.282, -38.0575, -14.5459
6.79089, 6, 12.4375, 15.0873, 29.0247, 20.2467, -38.084, -14.5177
6.79989, 6, 12.4235, 15.0873, 29.037, 20.2124, -38.1101, -14.4898
6.80798, 6, 12.4094, 15.0874, 29.0492, 20.1782, -38.1359, -14.4617
6.81489, 6, 12.3954, 15.0875, 29.0615, 20.1433, -38.1615, -14.4332
6.82391, 6, 12.3814, 15.0876, 29.0738, 20.1081, -38.1874, -14.4043
6.83191, 6, 12.3674, 15.0877, 29.0862, 20.0738, -38.2137, -14.3756
6.83889, 6, 12.3533, 15.0879, 29.0986, 20.0395, -38.2402, -14.3475
6.84785, 7, 12.3392, 15.088, 29.111, 20.0048, -38.2663, -14.3196
6.8559, 7, 12.325, 15.0882, 29.1231, 19.9698, -38.2922, -14.2918
6.86289, 7, 12.3109, 15.0884, 29.1354, 19.9356, -38.318, -14.2641
6.8719, 7, 12.2968, 15.0886, 29.1476, 19.9017, -38.3441, -14.2358
6.8799, 7, 12.2828, 15.0888, 29.1598, 19.8671, -38.3707, -14.2074
6.88889, 7, 12.2688, 15.0889, 29.172, 19.8321, -38.3969, -14.1793
6.89589, 7, 12.2547, 15.0891, 29.1841, 19.7977, -38.4227, -14.1516
6.9039, 7, 12.2406, 15.0893, 29.1964, 19.7637, -38.4484, -14.124
6.91206, 7, 12.2267, 15.0895, 29.2086, 19.7293, -38.4742, -14.0964
6.91995, 7, 12.2126, 15.0897, 29.2208, 19.6943, -38.5006, -14.0687
6.9279, 7, 12.1986, 15.0899, 29.2329, 19.6599, -38.5273, -14.0405
6.93595, 7, 12.1844, 15.0901, 29.2451, 19.6261, -38.5535, -14.0125
6.94388, 7, 12.1702, 15.0904, 29.2573, 19.5922, -38.5795, -13.9849
6.95189, 7, 12.1561, 15.0906, 29.2694, 19.5574, -38.6053, -13.9576
6.95989, 7, 12.1419, 15.0908, 29.2815, 19.5231, -38.6316, -13.9305
6.96789, 7, 12.1278, 15.0911, 29.2936, 19.4895, -38.6583, -13.9033
6.97649, 7, 12.1137, 15.0913, 29.3058, 19.4558, -38.6847, -13.8757
6.98389, 7, 12.0995, 15.0916, 29.318, 19.4215, -38.7108, -13.8478
6.99193, 7, 12.0853, 15.092, 29.3301, 19.3872, -38.7366, -13.8201
7.00068, 7, 12.0712, 15.0923, 29.3421, 19.3537, -38.7624, -13.793
7.00788, 7, 12.0572, 15.0928, 29.3541, 19.3205, -38.7888, -13.7662
7.01589, 7, 12.043, 15.0932, 29.3661, 19.2866, -38.8155, -13.7393
7.02469, 7, 12.0288, 15.0937, 29.3781, 19.2523, -38.8419, -13.7126
7.0319, 7, 12.0144, 15.0942, 29.3901, 19.2187, -38.868, -13.6854
7.03991, 7, 12.0002, 15.0948, 29.402, 19.1856, -38.8939, -13.6579
7.04873, 7, 11.9859, 15.0954, 29.4142, 19.152, -38.9202, -13.6306
7.05589, 7, 11.9717, 15.096, 29.4263, 19.1178, -38.9469, -13.6037
7.0639, 7, 11.9576, 15.0966, 29.4384, 19.0843, -38.9735, -13.577
7.07268, 7, 11.9434, 15.0973, 29.4504, 19.0512, -38.9996, -13.5504
7.07994, 7, 11.9293, 15.098, 29.4623, 19.018, -39.0255, -13.5236
7.08798, 7, 11.9152, 15.0988, 29.4743, 18.984, -39.0515, -13.4968
7.09678, 7, 11.9011, 15.0996, 29.4862, 18.9502, -39.0779, -13.4694
7.104, 7, 11.8869, 15.1004, 29.4981, 18.9171, -39.1048, -13.4425
7.11209, 7, 11.8727, 15.1013, 29.5099, 18.884, -39.1313, -13.4161
7.11953, 7, 11.8584, 15.1022, 29.5218, 18.8501, -39.1575, -13.3897
7.12742, 7, 11.8512, 15.1026, 29.5278, 18.833, -39.1705, -13.3634
7.13589, 7, 11.8299, 15.1039, 29.5458, 18.7829, -39.2098, -13.3367
7.14486, 7, 11.8157, 15.1049, 29.5577, 18.7501, -39.2366, -13.3094
7.15194, 7, 11.8016, 15.1059, 29.5694, 18.7168, -39.2632, -13.2822
7.15891, 7, 11.7945, 15.1064, 29.5754, 18.6999, -39.2764, -13.2687
7.16892, 7, 11.7731, 15.1079, 29.5932, 18.6498, -39.3155, -13.2289
7.17614, 7, 11.759, 15.109, 29.605, 18.6171, -39.3415, -13.2026
7.18288, 7, 11.7519, 15.1095, 29.6109, 18.6006, -39.3547, -13.1894
7.19312, 7, 11.7307, 15.1112, 29.6286, 18.5505, -39.395, -13.15
7.19893, 7, 11.7236, 15.1117, 29.6346, 18.5337, -39.4084, -13.1367
7.20838, 7, 11.7021, 15.1135, 29.6523, 18.4849, -39.4481, -13.0963
7.21488, 7, 11.695, 15.114, 29.6582, 18.4687, -39.4612, -13.083
7.22442, 7, 11.6736, 15.1158, 29.6757, 18.4195, -39.5008, -13.0436
7.23246, 7, 11.6594, 15.1169, 29.6874, 18.3862, -39.5276, -13.0176
7.24048, 7, 11.6452, 15.1181, 29.6991, 18.3535, -39.5545, -12.9916
7.24694, 7, 11.6381, 15.1186, 29.705, 18.3373, -39.5678, -12.9785
7.25653, 7, 11.6238, 15.1198, 29.7166, 18.2883, -39.6071, -12.9389
7.26389, 7, 11.6096, 15.1209, 29.7282, 18.2717, -39.6202, -12.9256
7.27094, 7, 11.5954, 15.122, 29.7399, 18.2385, -39.6465, -12.899
7.27992, 7, 11.5812, 15.1231, 29.7517, 18.2062, -39.6734, -12.873
7.28787, 7, 11.567, 15.1242, 29.7635, 18.174, -39.7004, -12.8474
7.29589, 7, 11.5525, 15.1253, 29.7752, 18.1414, -39.727, -12.8217
7.30394, 7, 11.5381, 15.1264, 29.7867, 18.1081, -39.7534, -12.7962
7.31195, 7, 11.5238, 15.1276, 29.7983, 18.0755, -39.7797, -12.7701
7.31992, 7, 11.5095, 15.1287, 29.8099, 18.0432, -39.8065, -12.7437
7.32789, 7, 11.4953, 15.1299, 29.8215, 18.0108, -39.8337, -12.7174
7.33587, 7, 11.481, 15.1311, 29.833, 17.9777, -39.8604, -12.6915
7.34393, 7, 11.4668, 15.1323, 29.8444, 17.9449, -39.8867, -12.666
7.35186, 7, 11.4526, 15.1335, 29.856, 17.9128, -39.913, -12.6406
7.35988, 7, 11.4384, 15.1348, 29.8676, 17.8808, -39.9394, -12.6152
7.36946, 7, 11.4171, 15.1368, 29.885, 17.8317, -39.9802, -12.5768
7.37587, 7, 11.4099, 15.1375, 29.8907, 17.8152, -39.9938, -12.5638
7.38487, 7, 11.3956, 15.1389, 29.9021, 17.7829, -40.0204, -12.5378
7.39089, 7, 11.3812, 15.1403, 29.9136, 17.751, -40.0469, -12.5121
7.39987, 7, 11.3669, 15.1417, 29.9251, 17.7189, -40.0734, -12.4868
7.40787, 7, 11.3527, 15.1432, 29.9366, 17.6862, -40.1004, -12.4616
7.41593, 7, 11.3385, 15.1447, 29.9481, 17.654, -40.1275, -12.4366
7.42388, 7, 11.3242, 15.1462, 29.9595, 17.6224, -40.1542, -12.4113
7.43188, 7, 11.31, 15.1477, 29.971, 17.5909, -40.1807, -12.3858
7.43987, 7, 11.2958, 15.1492, 29.9825, 17.5587, -40.207, -12.3601
7.44787, 7, 11.2816, 15.1507, 29.994, 17.5263, -40.2335, -12.3343
7.45594, 7, 11.2675, 15.1522, 30.0053, 17.4946, -40.2607, -12.3092
7.46387, 7, 11.2532, 15.1537, 30.0166, 17.4632, -40.2878, -12.2843
7.47187, 7, 11.2388, 15.1551, 30.028, 17.4316, -40.3145, -12.2593
7.48002, 7, 11.2244, 15.1565, 30.0393, 17.3992, -40.3411, -12.2343
7.48787, 7, 11.2101, 15.158, 30.0506, 17.3671, -40.3677, -12.2089
7.49593, 7, 11.1958, 15.1594, 30.0619, 17.3356, -40.3948, -12.183
7.50394, 7, 11.1815, 15.1608, 30.0732, 17.3042, -40.4221, -12.1572
7.51183, 7, 11.1672, 15.1622, 30.0847, 17.2722, -40.4489, -12.1319
7.51987, 7, 11.1528, 15.1636, 30.0961, 17.2399, -40.4755, -12.1071
7.52795, 7, 11.1385, 15.165, 30.1075, 17.2082, -40.5019, -12.0825
7.53586, 7, 11.1243, 15.1665, 30.1187, 17.177, -40.5286, -12.0578
7.54387, 7, 11.11, 15.1679, 30.13, 17.1455, -40.5559, -12.0329
7.55196, 7, 11.0957, 15.1694, 30.1413, 17.1131, -40.5831, -12.0078
7.55987, 7, 11.0813, 15.1709, 30.1525, 17.0811, -40.6098, -11.9823
7.56794, 7, 11.0669, 15.1724, 30.1636, 17.0498, -40.6364, -11.9573
7.57598, 7, 11.0526, 15.174, 30.1747, 17.0188, -40.663, -11.9326
7.5839, 7, 11.0382, 15.1755, 30.1859, 16.9872, -40.6903, -11.908
7.59202, 7, 11.0239, 15.1771, 30.1972, 16.9552, -40.7176, -11.8835
7.6002, 7, 11.0096, 15.1787, 30.2084, 16.9237, -40.7445, -11.8589
7.60747, 7, 10.9953, 15.1802, 30.2196, 16.8927, -40.7711, -11.8341
7.61605, 7, 10.981, 15.1817, 30.2307, 16.8615, -40.7976, -11.809
7.62441, 7, 10.9667, 15.1833, 30.2418, 16.8297, -40.8246, -11.7839
7.63187, 7, 10.9524, 15.1848, 30.253, 16.798, -40.8522, -11.7593
7.64011, 7, 10.9382, 15.1862, 30.2642, 16.7671, -40.8794, -11.7351
7.64686, 7, 10.9309, 15.187, 30.2697, 16.7518, -40.8928, -11.723
7.65571, 7, 10.9165, 15.1884, 30.2808, 16.7211, -40.9328, -11.6868
7.66283, 7, 10.9021, 15.19, 30.2918, 16.6897, -40.9461, -11.6747
7.67283, 7, 10.8807, 15.1923, 30.3086, 16.6428, -40.987, -11.6378
7.68014, 7, 10.8665, 15.1938, 30.3197, 16.612, -41.0143, -11.613
7.68686, 7, 10.8594, 15.1946, 30.3252, 16.5967, -41.0277, -11.6007
7.69694, 7, 10.8379, 15.1971, 30.3416, 16.5501, -41.0677, -11.5642
7.70434, 7, 10.8236, 15.1988, 30.3526, 16.5187, -41.0943, -11.5404
7.71095, 7, 10.8165, 15.1996, 30.3581, 16.5033, -41.1078, -11.5285
7.72116, 7, 10.7949, 15.2023, 30.3745, 16.4576, -41.1491, -11.4925
7.72689, 7, 10.7877, 15.2032, 30.38, 16.4423, -41.1628, -11.4805
7.73667, 7, 10.766, 15.206, 30.3964, 16.3955, -41.2031, -11.4439
7.74521, 7, 10.7514, 15.2079, 30.4073, 16.3643, -41.2299, -11.4194
7.75087, 7, 10.7442, 15.2088, 30.4129, 16.3489, -41.2434, -11.4073
7.76043, 7, 10.7296, 15.2107, 30.424, 16.3184, -41.2709, -11.3835
7.76785, 7, 10.7152, 15.2125, 30.435, 16.2878, -41.2984, -11.3599
7.77487, 7, 10.7008, 15.2144, 30.446, 16.2565, -41.3254, -11.336
7.78385, 7, 10.6863, 15.2162, 30.4569, 16.2253, -41.3521, -11.3122
7.79192, 7, 10.672, 15.2181, 30.4678, 16.1948, -41.3788, -11.2883
7.79886, 7, 10.6576, 15.2199, 30.4787, 16.1646, -41.406, -11.264
7.80785, 7, 10.6433, 15.2218, 30.4895, 16.1341, -41.4336, -11.2397
7.81598, 7, 10.629, 15.2236, 30.5003, 16.1028, -41.461, -11.2155
7.82386, 7, 10.6145, 15.2254, 30.5111, 16.0721, -41.488, -11.1918
7.83187, 7, 10.5999, 15.2273, 30.5219, 16.0418, -41.5149, -11.1684
7.8399, 7, 10.5854, 15.2292, 30.5328, 16.0118, -41.542, -11.1449
7.84686, 7, 10.5709, 15.2311, 30.5437, 15.9812, -41.5697, -11.1212
7.85585, 7, 10.5564, 15.233, 30.5546, 15.9503, -41.5971, -11.0973
7.86391, 7, 10.542, 15.2349, 30.5653, 15.9201, -41.624, -11.0729
7.87147, 7, 10.5274, 15.2368, 30.5761, 15.8903, -41.6507, -11.0486
7.87992, 7, 10.513, 15.2387, 30.5869, 15.8604, -41.6777, -11.0246
7.88787, 7, 10.4986, 15.2407, 30.5976, 15.8299, -41.7052, -11.0009
7.89686, 7, 10.4842, 15.2426, 30.6084, 15.7993, -41.733, -10.9775
7.90392, 7, 10.4698, 15.2445, 30.6191, 15.7692, -41.7602, -10.9542
7.91186, 7, 10.4553, 15.2464, 30.6298, 15.7396, -41.7873, -10.9307
7.92028, 7, 10.4408, 15.2483, 30.6406, 15.7097, -41.8142, -10.907
7.92786, 7, 10.4265, 15.2502, 30.6514, 15.6791, -41.8416, -10.883
7.93585, 7, 10.4121, 15.252, 30.6621, 15.6487, -41.8693, -10.8591
7.94476, 7, 10.3978, 15.2539, 30.6728, 15.6189, -41.8967, -10.8357
7.95186, 7, 10.3835, 15.2558, 30.6833, 15.5893, -41.9238, -10.8125
7.95992, 7, 10.3691, 15.2577, 30.694, 15.5595, -41.9506, -10.7892
7.96866, 7, 10.3547, 15.2598, 30.7046, 15.529, -41.9778, -10.766
7.97502, 7, 10.3404, 15.2619, 30.7152, 15.4988, -42.0057, -10.7427
7.984, 7, 10.326, 15.264, 30.7257, 15.4691, -42.0334, -10.719
7.99266, 7, 10.3115, 15.2661, 30.7363, 15.4396, -42.0607, -10.6953
7.99987, 7, 10.2968, 15.2683, 30.7471, 15.4096, -42.0878, -10.6715
8.00801, 7, 10.2823, 15.2705, 30.7578, 15.3789, -42.115, -10.6484
8.01665, 7, 10.2678, 15.2727, 30.7685, 15.3489, -42.1427, -10.6255
8.02386, 7, 10.2533, 15.2749, 30.7792, 15.3193, -42.1705, -10.6028
8.03191, 7, 10.2388, 15.2771, 30.7897, 15.2899, -42.1978, -10.5802
8.04064, 7, 10.2243, 15.2792, 30.8003, 15.26, -42.2248, -10.5573
8.04785, 7, 10.2099, 15.2814, 30.8109, 15.2298, -42.2519, -10.5342
8.05592, 7, 10.1954, 15.2835, 30.8213, 15.2001, -42.2793, -10.5106
8.06459, 7, 10.181, 15.2857, 30.8318, 15.1708, -42.3074, -10.4871
8.07192, 7, 10.1667, 15.2879, 30.8422, 15.1414, -42.3349, -10.4643
8.07989, 7, 10.1522, 15.29, 30.8527, 15.1115, -42.3622, -10.4416
8.0887, 7, 10.1376, 15.2921, 30.8633, 15.0814, -42.3894, -10.4192
8.096, 7, 10.123, 15.2943, 30.8738, 15.0522, -42.4167, -10.3968
8.10395, 7, 10.1084, 15.2964, 30.8843, 15.0232, -42.4448, -10.3742
8.11196, 7, 10.0939, 15.2985, 30.8947, 14.9943, -42.4725, -10.3511
8.12002, 7, 10.0794, 15.3007, 30.9051, 14.9646, -42.4997, -10.3281
8.12796, 7, 10.0649, 15.3029, 30.9156, 14.9348, -42.5268, -10.3052
8.13666, 7, 10.0504, 15.305, 30.926, 14.9055, -42.554, -10.2825
8.14392, 7, 10.036, 15.3072, 30.9365, 14.8765, -42.5818, -10.2602
8.15196, 7, 10.0216, 15.3094, 30.9469, 14.8474, -42.6097, -10.2379
8.15889, 7, 10.0143, 15.3105, 30.9521, 14.8326, -42.6234, -10.2267
8.16684, 7, 9.99988, 15.3127, 30.9624, 14.8027, -42.6507, -10.2045
8.17603, 7, 9.97789, 15.3159, 30.9781, 14.759, -42.6915, -10.1706
8.18289, 7, 9.97058, 15.317, 30.9833, 14.7446, -42.7052, -10.1592
8.19085, 7, 9.95604, 15.3193, 30.9936, 14.7158, -42.7331, -10.1362
8.20025, 7, 9.93423, 15.3227, 31.009, 14.6717, -42.7744, -10.1021
8.20689, 7, 9.92703, 15.3239, 31.0141, 14.6568, -42.788, -10.0909
8.21638, 7, 9.90524, 15.3274, 31.0294, 14.6131, -42.8286, -10.0577
8.22443, 7, 9.8907, 15.3299, 31.0396, 14.5843, -42.8561, -10.0357
8.23238, 7, 9.87631, 15.3324, 31.0498, 14.5553, -42.8841, -10.0135
8.23884, 7, 9.86906, 15.3336, 31.0549, 14.5405, -42.8981, -10.0023
8.24925, 7, 9.85457, 15.3373, 31.0701, 14.4962, -42.9394, -9.96828
8.25491, 7, 9.84007, 15.3385, 31.0753, 14.4817, -42.953, -9.95676
8.2645, 7, 9.82547, 15.341, 31.0857, 14.4531, -42.9942, -9.9226
8.27184, 7, 9.81091, 15.3435, 31.096, 14.4246, -43.0081, -9.91142
8.2789, 7, 9.7964, 15.346, 31.1062, 14.3954, -43.0362, -9.88926
8.28789, 7, 9.78184, 15.3485, 31.1164, 14.3659, -43.0639, -9.86733
8.29585, 7, 9.76735, 15.351, 31.1265, 14.3368, -43.0912, -9.84567
8.3029, 7, 9.75279, 15.3536, 31.1367, 14.3083, -43.1184, -9.82374
8.31189, 7, 9.73823, 15.3561, 31.1468, 14.2798, -43.1459, -9.8015
8.31991, 7, 9.72374, 15.3586, 31.1568, 14.2507, -43.1739, -9.77907
8.32685, 7, 9.70921, 15.361, 31.1669, 14.2216, -43.2018, -9.7567
8.33585, 7, 9.69467, 15.3635, 31.1769, 14.193, -43.2294, -9.73462
8.34384, 7, 9.68003, 15.3659, 31.1869, 14.1649, -43.2567, -9.71283
8.35085, 7, 9.66527, 15.3684, 31.1971, 14.1368, -43.2843, -9.69123
8.35984, 7, 9.65058, 15.3708, 31.2072, 14.108, -43.3123, -9.66957
8.36783, 7, 9.63596, 15.3733, 31.2173, 14.079, -43.3404, -9.64789
8.37484, 7, 9.62135, 15.3758, 31.2273, 14.0506, -43.3678, -9.62601
8.38383, 7, 9.60681, 15.3783, 31.2373, 14.0224, -43.3951, -9.60385
8.39283, 7, 9.5922, 15.3808, 31.2473, 13.9945, -43.4225, -9.58146
8.39885, 7, 9.57767, 15.3835, 31.2573, 13.9659, -43.4504, -9.55937
8.40783, 7, 9.56319, 15.3861, 31.2673, 13.9369, -43.4787, -9.53754
8.41584, 7, 9.54868, 15.3888, 31.2773, 13.9085, -43.5065, -9.51611
8.4239, 7, 9.53415, 15.3915, 31.2872, 13.8803, -43.534, -9.49478
8.43185, 7, 9.51948, 15.3942, 31.2971, 13.8524, -43.5613, -9.47371
8.4399, 7, 9.50478, 15.3969, 31.3071, 13.8239, -43.5892, -9.45243
8.44785, 7, 9.49018, 15.3996, 31.3171, 13.7949, -43.6173, -9.43091
8.4559, 7, 9.47558, 15.4023, 31.3271, 13.7664, -43.6451, -9.40895
8.46389, 7, 9.461, 15.4049, 31.3369, 13.7384, -43.6724, -9.38699
8.47183, 7, 9.44646, 15.4076, 31.3467, 13.7106, -43.6996, -9.36522
8.47983, 7, 9.43179, 15.4104, 31.3566, 13.6821, -43.7271, -9.34388
8.48798, 7, 9.41722, 15.4131, 31.3664, 13.6531, -43.7553, -9.3228
8.49589, 7, 9.40268, 15.4159, 31.3762, 13.6247, -43.7833, -9.3018
8.50386, 7, 9.38808, 15.4187, 31.386, 13.5968, -43.8109, -9.28083
8.51085, 7, 9.37346, 15.4214, 31.3958, 13.569, -43.8384, -9.25966
8.51983, 7, 9.35867, 15.4241, 31.4056, 13.541, -43.8659, -9.23817
8.52784, 8, 9.34387, 15.4268, 31.4155, 13.5124, -43.8941, -9.21644
8.53595, 8, 9.32925, 15.4294, 31.4254, 13.4841, -43.9222, -9.19508
8.54383, 8, 9.31456, 15.432, 31.4353, 13.4563, -43.9499, -9.17379
8.55183, 8, 9.29991, 15.4347, 31.4451, 13.4287, -43.9774, -9.15284
8.5599, 8, 9.2853, 15.4374, 31.4548, 13.4008, -44.0048, -9.132
8.56784, 8, 9.27055, 15.4402, 31.4645, 13.3723, -44.0328, -9.11138
8.57593, 8, 9.25593, 15.443, 31.4743, 13.3442, -44.0611, -9.09053
8.58386, 8, 9.24135, 15.4458, 31.4839, 13.3166, -44.089, -9.06943
8.5919, 8, 9.22669, 15.4488, 31.4936, 13.2893, -44.1166, -9.04809
8.59998, 8, 9.212, 15.4518, 31.5032, 13.2619, -44.1441, -9.02657
8.60794, 8, 9.19713, 15.4548, 31.5129, 13.2338, -44.172, -9.00522
8.61593, 8, 9.18233, 15.4579, 31.5226, 13.2057, -44.2004, -8.98427
8.624, 8, 9.16758, 15.4609, 31.5323, 13.1781, -44.2284, -8.96343
8.63194, 8, 9.15286, 15.4638, 31.542, 13.1508, -44.2559, -8.94279
8.63984, 8, 9.1382, 15.4668, 31.5518, 13.1234, -44.2833, -8.92225
8.64861, 8, 9.12348, 15.4698, 31.5614, 13.0954, -44.311, -8.90158
8.65615, 8, 9.10881, 15.4728, 31.571, 13.0675, -44.3394, -8.88052
8.66288, 8, 9.10152, 15.4744, 31.5759, 13.0537, -44.3536, -8.86984
8.67279, 8, 9.07969, 15.479, 31.5902, 13.0129, -44.3954, -8.83774
8.68003, 8, 9.06513, 15.4821, 31.5998, 12.9857, -44.4229, -8.81654
8.68687, 8, 9.05781, 15.4836, 31.6046, 12.9719, -44.4368, -8.80605
8.69703, 8, 9.0357, 15.4881, 31.6189, 12.93, -44.4789, -8.77509
8.70291, 8, 9.02835, 15.4896, 31.6237, 12.9161, -44.4931, -8.76485
8.71231, 8, 9.00639, 15.494, 31.6381, 12.875, -44.5349, -8.73424
8.71891, 8, 8.99907, 15.4955, 31.6429, 12.8614, -44.5486, -8.72408
8.72687, 8, 8.9845, 15.4985, 31.6525, 12.834, -44.576, -8.70358
8.7364, 8, 8.9625, 15.503, 31.6667, 12.7921, -44.618, -8.67205
8.7444, 8, 8.94782, 15.506, 31.6761, 12.7645, -44.6465, -8.65097
8.75263, 8, 8.9405, 15.5091, 31.6856, 12.7374, -44.6745, -8.63019
8.76045, 8, 8.92587, 15.5107, 31.695, 12.7106, -44.7022, -8.60963
8.76838, 8, 8.91122, 15.5139, 31.6996, 12.697, -44.716, -8.59947
8.77582, 8, 8.89648, 15.5171, 31.709, 12.6694, -44.7439, -8.57928
8.78387, 8, 8.88162, 15.5203, 31.7184, 12.6417, -44.7725, -8.55922
8.79182, 8, 8.86682, 15.5235, 31.7278, 12.6144, -44.8008, -8.53893
8.79982, 8, 8.85205, 15.5267, 31.7372, 12.5875, -44.8286, -8.51847
8.80788, 8, 8.83726, 15.5298, 31.7466, 12.5608, -44.8562, -8.49777
8.81582, 8, 8.82251, 15.533, 31.7561, 12.5337, -44.8839, -8.47696
8.8239, 8, 8.80771, 15.5361, 31.7656, 12.5061, -44.9124, -8.45612
8.83189, 8, 8.79289, 15.5394, 31.775, 12.4789, -44.9409, -8.43577
8.83984, 8, 8.77816, 15.5426, 31.7844, 12.4522, -44.969, -8.41563
8.84784, 8, 8.76347, 15.5458, 31.7937, 12.4257, -44.9969, -8.39558
8.85586, 8, 8.74875, 15.549, 31.8031, 12.399, -45.0248, -8.37575
8.86381, 8, 8.73389, 15.5521, 31.8123, 12.3717, -45.0533, -8.35589
8.87182, 8, 8.71894, 15.5552, 31.8215, 12.3444, -45.0819, -8.33596
8.87987, 8, 8.7041, 15.5583, 31.8308, 12.3177, -45.11, -8.3157
8.88784, 8, 8.6893, 15.5614, 31.84, 12.2912, -45.1378, -8.29513
8.89682, 8, 8.67455, 15.5646, 31.8492, 12.2647, -45.1656, -8.27472
8.90388, 8, 8.65982, 15.5678, 31.8585, 12.2377, -45.194, -8.25445
8.91182, 8, 8.64506, 15.5712, 31.8678, 12.2104, -45.2228, -8.23447
8.91982, 8, 8.6304, 15.5745, 31.8771, 12.1835, -45.2511, -8.21475
8.9279, 8, 8.61572, 15.5779, 31.8864, 12.1571, -45.279, -8.19512
8.93582, 8, 8.60102, 15.5813, 31.8955, 12.1309, -45.3068, -8.17553
8.94386, 8, 8.58629, 15.5848, 31.9047, 12.1042, -45.3351, -8.15584
8.95183, 8, 8.57138, 15.5882, 31.9139, 12.0769, -45.3638, -8.13583
8.95982, 8, 8.55653, 15.5916, 31.9231, 12.05, -45.392, -8.11544
8.9679, 8, 8.54177, 15.5951, 31.9322, 12.0234, -45.4198, -8.09519
8.97581, 8, 8.52702, 15.5986, 31.9414, 11.9972, -45.4475, -8.07518
8.98383, 8, 8.51231, 15.6021, 31.9505, 11.9707, -45.4756, -8.05546
8.99196, 8, 8.49756, 15.6056, 31.9596, 11.9436, -45.5043, -8.036
8.99981, 8, 8.48278, 15.6091, 31.9688, 11.9165, -45.5327, -8.01663
9.00786, 8, 8.46814, 15.6126, 31.9779, 11.8898, -45.5608, -7.99735
9.01592, 8, 8.45348, 15.616, 31.987, 11.8636, -45.5887, -7.97804
9.02381, 8, 8.43884, 15.6194, 31.9961, 11.8374, -45.6168, -7.95834
9.03182, 8, 8.42406, 15.6228, 32.0051, 11.8109, -45.6455, -7.93843
9.03989, 8, 8.40916, 15.6262, 32.0141, 11.7839, -45.674, -7.9183
9.04782, 8, 8.39435, 15.6296, 32.0231, 11.7573, -45.702, -7.89829
9.05592, 8, 8.37952, 15.6331, 32.032, 11.7311, -45.7297, -7.87855
9.06382, 8, 8.36476, 15.6367, 32.0409, 11.7051, -45.7577, -7.85901
9.07181, 8, 8.34997, 15.6404, 32.0499, 11.6788, -45.7863, -7.8396
9.08062, 8, 8.33512, 15.6441, 32.0589, 11.6521, -45.815, -7.82041
9.08798, 8, 8.32028, 15.6477, 32.0678, 11.6254, -45.8431, -7.80122
9.09589, 8, 8.3055, 15.6513, 32.0769, 11.5993, -45.8711, -7.78192
9.10471, 8, 8.29078, 15.6549, 32.0859, 11.5736, -45.8992, -7.76222
9.11216, 8, 8.27602, 15.6585, 32.095, 11.5479, -45.9278, -7.7422
9.11944, 8, 8.26114, 15.6622, 32.104, 11.5217, -45.9565, -7.72221
9.12873, 8, 8.24617, 15.6658, 32.113, 11.4951, -45.9847, -7.70242
9.13634, 8, 8.23136, 15.6695, 32.1218, 11.469, -46.0126, -7.68295
9.14357, 8, 8.21658, 15.6731, 32.1307, 11.443, -46.0404, -7.66377
9.15274, 8, 8.20184, 15.6767, 32.1395, 11.4173, -46.0689, -7.64477
9.16069, 8, 8.18709, 15.6802, 32.1483, 11.3914, -46.0977, -7.6258
9.16786, 8, 8.17221, 15.6837, 32.1572, 11.3648, -46.126, -7.60695
9.1768, 8, 8.15747, 15.6873, 32.166, 11.3385, -46.154, -7.58782
9.18482, 8, 8.14275, 15.6909, 32.1747, 11.3126, -46.182, -7.56835
9.19205, 8, 8.12799, 15.6945, 32.1834, 11.287, -46.2104, -7.54867
9.19881, 8, 8.1206, 15.6964, 32.1879, 11.2742, -46.2247, -7.53891
9.20688, 8, 8.10567, 15.7001, 32.1967, 11.2484, -46.2533, -7.51948
9.2148, 8, 8.09067, 15.7039, 32.2055, 11.2221, -46.2813, -7.5004
9.22431, 8, 8.06839, 15.7096, 32.2188, 11.1827, -46.3231, -7.47221
9.23087, 8, 8.06098, 15.7115, 32.2232, 11.1698, -46.3371, -7.46286
9.23884, 8, 8.04624, 15.7153, 32.2318, 11.1441, -46.3656, -7.44417
9.24836, 8, 8.02407, 15.7211, 32.2449, 11.1056, -46.4087, -7.41607
9.25486, 8, 8.01668, 15.7231, 32.2492, 11.0925, -46.4228, -7.4066
9.2628, 8, 8.00196, 15.727, 32.2578, 11.0661, -46.4509, -7.3875
9.27371, 8, 7.97984, 15.7328, 32.2709, 11.0272, -46.4932, -7.3584
9.2798, 8, 7.97245, 15.7347, 32.2753, 11.0144, -46.5076, -7.34877
9.2868, 8, 7.95764, 15.7385, 32.284, 10.9891, -46.5364, -7.32965
9.2958, 8, 7.94269, 15.7422, 32.2926, 10.9636, -46.5647, -7.31094
9.30287, 8, 7.92787, 15.746, 32.3013, 10.9375, -46.5927, -7.29239
9.31185, 8, 7.91299, 15.7497, 32.3099, 10.9112, -46.6207, -7.2738
9.31979, 8, 7.89812, 15.7535, 32.3186, 10.8855, -46.6492, -7.2555
9.3268, 8, 7.8833, 15.7573, 32.3273, 10.86, -46.678, -7.23707
9.3358, 8, 7.86841, 15.7612, 32.3359, 10.8348, -46.7065, -7.21857
9.34388, 8, 7.85356, 15.7652, 32.3443, 10.8092, -46.7347, -7.19969
9.355, 8, 7.83139, 15.7711, 32.357, 10.7703, -46.7769, -7.17117
9.35982, 8, 7.82398, 15.7731, 32.3612, 10.7575, -46.7912, -7.16172
9.3678, 8, 7.80918, 15.777, 32.3697, 10.7323, -46.8202, -7.14295
9.37481, 8, 7.79426, 15.781, 32.3782, 10.7073, -46.8486, -7.12435
9.3838, 8, 7.77918, 15.785, 32.3868, 10.6824, -46.8766, -7.10606
9.39182, 8, 7.76419, 15.789, 32.3952, 10.6569, -46.9045, -7.08775
9.40082, 8, 7.74923, 15.793, 32.4037, 10.6311, -46.9328, -7.06957
9.40685, 8, 7.73433, 15.797, 32.4123, 10.6056, -46.9617, -7.0513
9.41582, 8, 7.71942, 15.8009, 32.4208, 10.5805, -46.9904, -7.03292
9.42384, 8, 7.70447, 15.8048, 32.4294, 10.5556, -47.0187, -7.01417
9.4318, 8, 7.68963, 15.8087, 32.438, 10.5306, -47.0468, -6.99524
9.43983, 8, 7.67479, 15.8126, 32.4465, 10.505, -47.0751, -6.97638
9.4478, 8, 7.65993, 15.8166, 32.4548, 10.4794, -47.104, -6.95771
9.45592, 8, 7.64503, 15.8208, 32.4632, 10.4541, -47.1326, -6.93954
9.46387, 8, 7.63005, 15.8249, 32.4716, 10.4291, -47.1607, -6.92131
9.4718, 8, 7.61518, 15.8291, 32.4798, 10.4042, -47.1886, -6.90317
9.4798, 8, 7.6004, 15.8333, 32.4882, 10.3791, -47.2167, -6.88517
9.48779, 8, 7.58566, 15.8375, 32.4965, 10.3535, -47.2455, -6.86717
9.49598, 8, 7.57093, 15.8417, 32.5048, 10.3279, -47.2744, -6.84895
9.5038, 8, 7.55605, 15.8459, 32.513, 10.3027, -47.3027, -6.83041
9.51182, 8, 7.54118, 15.8503, 32.5214, 10.278, -47.3309, -6.81179
9.51986, 8, 7.52633, 15.8546, 32.5298, 10.2531, -47.3592, -6.79297
9.5278, 8, 7.51144, 15.8588, 32.5381, 10.2278, -47.388, -6.77463
9.5358, 8, 7.49655, 15.863, 32.5465, 10.2021, -47.417, -6.75642
9.54386, 8, 7.48152, 15.8672, 32.5549, 10.1767, -47.4453, -6.73836
9.5518, 8, 7.4664, 15.8713, 32.563, 10.1518, -47.4735, -6.72035
9.5598, 8, 7.4514, 15.8755, 32.5712, 10.1272, -47.5016, -6.70253
9.56787, 8, 7.43641, 15.8796, 32.5795, 10.1025, -47.5305, -6.68461
9.5758, 8, 7.42154, 15.8839, 32.5877, 10.0773, -47.5596, -6.66656
9.58387, 8, 7.40667, 15.8882, 32.5959, 10.052, -47.5882, -6.64815
9.5919, 8, 7.39173, 15.8925, 32.6041, 10.027, -47.6165, -6.6296
9.59988, 8, 7.37692, 15.8968, 32.6123, 10.0023, -47.6449, -6.61115
9.60795, 8, 7.3621, 15.901, 32.6204, 9.97783, -47.6738, -6.59271
9.6159, 8, 7.34724, 15.9053, 32.6285, 9.95307, -47.7028, -6.57454
9.62391, 8, 7.33232, 15.9097, 32.6368, 9.92788, -47.7314, -6.55651
9.63203, 8, 7.31719, 15.914, 32.645, 9.90268, -47.7597, -6.53879
9.63986, 8, 7.30212, 15.9184, 32.6532, 9.87803, -47.7878, -6.52095
9.6478, 8, 7.2872, 15.9226, 32.6614, 9.85362, -47.8167, -6.50326
9.65589, 8, 7.27222, 15.9269, 32.6694, 9.82954, -47.8459, -6.48549
9.66391, 8, 7.25732, 15.9311, 32.6774, 9.80506, -47.8746, -6.46765
9.67226, 8, 7.24236, 15.9354, 32.6854, 9.78001, -47.903, -6.44961
9.67879, 8, 7.23488, 15.9375, 32.6894, 9.76755, -47.9172, -6.44042
9.688, 8, 7.21257, 15.9441, 32.7014, 9.73056, -47.9601, -6.41335
9.69479, 8, 7.20514, 15.9463, 32.7054, 9.71843, -47.9747, -6.40446
9.70409, 8, 7.18283, 15.953, 32.7175, 9.68206, -48.0177, -6.37811
9.71087, 8, 7.17539, 15.9552, 32.7215, 9.66982, -48.0319, -6.36939
9.7206, 8, 7.15287, 15.9618, 32.7333, 9.63255, -48.0742, -6.34317
9.7283, 8, 7.1379, 15.9663, 32.7414, 9.60777, -48.1028, -6.32568
9.73637, 8, 7.12297, 15.9708, 32.7495, 9.58347, -48.132, -6.30822
9.74449, 8, 7.10811, 15.9754, 32.7575, 9.55942, -48.1608, -6.29045
9.75235, 8, 7.09324, 15.98, 32.7656, 9.53538, -48.1892, -6.27246
9.76038, 8, 7.08575, 15.9822, 32.7737, 9.51088, -48.2175, -6.25449
9.76873, 8, 7.07085, 15.9868, 32.7776, 9.48592, -48.2463, -6.23649
9.77578, 8, 7.05603, 15.9912, 32.7855, 9.47351, -48.2609, -6.2275
9.78379, 8, 7.04116, 15.9957, 32.7933, 9.44901, -48.29, -6.20999
9.79183, 8, 7.02628, 16.0002, 32.8012, 9.42472, -48.3185, -6.19267
9.79978, 8, 7.01128, 16.0047, 32.8091, 9.40063, -48.3468, -6.1756
9.80779, 8, 6.99623, 16.0094, 32.8169, 9.37626, -48.3751, -6.15844
9.81579, 8, 6.98128, 16.014, 32.8248, 9.35142, -48.4042, -6.14142
9.8238, 8, 6.96629, 16.0186, 32.8326, 9.32671, -48.4334, -6.12433
9.83187, 8, 6.95137, 16.0231, 32.8403, 9.30237, -48.4621, -6.10699
9.83984, 8, 6.93644, 16.0277, 32.8481, 9.27835, -48.4906, -6.08935
9.8478, 8, 6.92139, 16.0323, 32.8559, 9.25456, -48.5191, -6.07162
9.8558, 8, 6.90642, 16.037, 32.8638, 9.23036, -48.5482, -6.05396
9.86384, 8, 6.89143, 16.0417, 32.8717, 9.20574, -48.5773, -6.03658
9.87179, 8, 6.8764, 16.0463, 32.8796, 9.18123, -48.6059, -6.01937
9.87981, 8, 6.86138, 16.0508, 32.8874, 9.15705, -48.6341, -6.00231
9.88784, 8, 6.84619, 16.0554, 32.895, 9.13325, -48.6626, -5.98533
9.89578, 8, 6.83107, 16.06, 32.9028, 9.10954, -48.6916, -5.96849
9.90561, 8, 6.81604, 16.0647, 32.9105, 9.08555, -48.7354, -5.94302
9.91185, 8, 6.801, 16.0694, 32.9182, 9.06118, -48.7498, -5.9345
9.91978, 8, 6.78602, 16.0741, 32.9259, 9.03687, -48.7783, -5.91748
9.92779, 8, 6.77102, 16.0788, 32.9336, 9.01305, -48.8068, -5.90012
9.93585, 8, 6.75609, 16.0835, 32.9413, 8.98949, -48.8359, -5.88241
9.94378, 8, 6.74125, 16.0881, 32.9489, 8.96611, -48.8652, -5.86483
9.95225, 8, 6.72639, 16.0929, 32.9565, 8.94234, -48.8938, -5.84761
9.95978, 8, 6.7115, 16.0977, 32.9642, 8.91805, -48.9222, -5.83072
9.96778, 8, 6.69649, 16.1026, 32.9719, 8.89389, -48.9505, -5.81405
9.97656, 8, 6.68141, 16.1073, 32.9797, 8.87013, -48.9795, -5.79732
9.98378, 8, 6.66645, 16.1121, 32.9874, 8.84655, -49.0089, -5.78067
9.99178, 8, 6.65148, 16.1169, 32.9951, 8.82315, -49.0378, -5.76402
10.0007, 8, 6.6366, 16.1217, 33.0026, 8.79945, -49.0664, -5.74723
10.0078, 8, 6.62168, 16.1265, 33.01, 8.77531, -49.095, -5.73022
10.0158, 8, 6.60667, 16.1313, 33.0175, 8.7512, -49.124, -5.71293
10.0245, 8, 6.59175, 16.1363, 33.0251, 8.72747, -49.1534, -5.69552
10.0318, 8, 6.57684, 16.1411, 33.0325, 8.70406, -49.1821, -5.67815
10.0398, 8, 6.56191, 16.1459, 33.04, 8.68078, -49.2106, -5.66104
10.049, 8, 6.54694, 16.1506, 33.0475, 8.65721, -49.239, -5.64416
10.0568, 8, 6.53182, 16.1555, 33.055, 8.63319, -49.2678, -5.62743
10.0638, 8, 6.51677, 16.1604, 33.0623, 8.60908, -49.2972, -5.61093
10.0718, 8, 6.50176, 16.1653, 33.0698, 8.58533, -49.3261, -5.59424
10.0798, 8, 6.48673, 16.1701, 33.0774, 8.56193, -49.3547, -5.57767
10.0878, 8, 6.4718, 16.1749, 33.0849, 8.53861, -49.3833, -5.56099
10.0961, 8, 6.45678, 16.1797, 33.0925, 8.51509, -49.4122, -5.54416
10.1033, 8, 6.44174, 16.1847, 33.1001, 8.49103, -49.4416, -5.52707
10.1119, 8, 6.42677, 16.1897, 33.1076, 8.46693, -49.4705, -5.50984
10.1202, 8, 6.41181, 16.1948, 33.1149, 8.44333, -49.4989, -5.49274
10.1273, 8, 6.39685, 16.1999, 33.1222, 8.41997, -49.5273, -5.47595
10.136, 8, 6.38172, 16.2049, 33.1296, 8.39681, -49.5561, -5.45926
10.1443, 8, 6.36647, 16.2099, 33.1369, 8.37353, -49.5854, -5.44265
10.1508, 8, 6.3589, 16.2124, 33.1406, 8.36164, -49.6, -5.43437
10.1598, 8, 6.33629, 16.22, 33.1516, 8.32581, -49.643, -5.40979
10.1686, 8, 6.32127, 16.2252, 33.1588, 8.30232, -49.6714, -5.39344
10.176, 8, 6.30625, 16.2303, 33.166, 8.27913, -49.7002, -5.37706
10.1839, 8, 6.29115, 16.2353, 33.1732, 8.25609, -49.7295, -5.36052
10.1927, 8, 6.27617, 16.2404, 33.1804, 8.23293, -49.7584, -5.34391
10.2001, 8, 6.26119, 16.2455, 33.1877, 8.20935, -49.7869, -5.32707
10.2067, 9, 6.2537, 16.248, 33.1914, 8.19745, -49.8011, -5.31865
10.217, 9, 6.2311, 16.2558, 33.2024, 8.16215, -49.8441, -5.29367
10.2243, 9, 6.21584, 16.2611, 33.2097, 8.13927, -49.8735, -5.27744
10.2323, 9, 6.20066, 16.2662, 33.217, 8.1165, -49.9026, -5.2614
10.2411, 9, 6.18555, 16.2713, 33.2242, 8.09377, -49.9313, -5.24549
10.2484, 9, 6.17053, 16.2764, 33.2313, 8.07051, -49.9599, -5.22947
10.2564, 9, 6.15554, 16.2816, 33.2384, 8.04697, -49.9888, -5.21344
10.2651, 9, 6.148, 16.2842, 33.242, 8.02355, -50.0182, -5.19748
10.2724, 9, 6.1329, 16.2893, 33.2492, 8.00061, -50.0473, -5.18123
10.2798, 9, 6.11793, 16.2944, 33.2563, 7.98918, -50.0616, -5.17305
10.2878, 9, 6.10294, 16.2995, 33.2634, 7.96645, -50.0901, -5.15641
10.2948, 9, 6.08794, 16.3046, 33.2706, 7.94349, -50.1186, -5.13974
10.3038, 9, 6.07292, 16.3098, 33.2777, 7.92003, -50.1477, -5.12302
10.3118, 9, 6.0577, 16.3151, 33.2847, 7.89645, -50.1771, -5.10669
10.3198, 9, 6.04262, 16.3205, 33.2918, 7.87332, -50.206, -5.09062
10.3278, 9, 6.02754, 16.3258, 33.2989, 7.85051, -50.2347, -5.07479
10.3348, 9, 6.01244, 16.3311, 33.3061, 7.82796, -50.2634, -5.0591
10.3438, 9, 5.99738, 16.3363, 33.3132, 7.80528, -50.2925, -5.04342
10.3518, 9, 5.98224, 16.3417, 33.3203, 7.78221, -50.322, -5.02777
10.3588, 9, 5.96715, 16.347, 33.3274, 7.75877, -50.3509, -5.01209
10.3678, 9, 5.95206, 16.3524, 33.3343, 7.73556, -50.3794, -4.99613
10.3758, 9, 5.93696, 16.3577, 33.3411, 7.71256, -50.4079, -4.98019
10.3828, 9, 5.92183, 16.3629, 33.348, 7.68991, -50.4371, -4.96378
10.3918, 9, 5.90654, 16.3682, 33.355, 7.66729, -50.4666, -4.94743
10.3998, 9, 5.89126, 16.3735, 33.362, 7.64421, -50.4956, -4.9313
10.4088, 9, 5.87605, 16.379, 33.3689, 7.62083, -50.5244, -4.91519
10.4148, 9, 5.86086, 16.3845, 33.3759, 7.5976, -50.5531, -4.89949
10.4238, 9, 5.84574, 16.3899, 33.3828, 7.57481, -50.5823, -4.88391
10.4318, 9, 5.83062, 16.3953, 33.3896, 7.55225, -50.6117, -4.86815
10.4398, 9, 5.81556, 16.4007, 33.3964, 7.52982, -50.6405, -4.85275
10.4478, 9, 5.80055, 16.4061, 33.4033, 7.50711, -50.669, -4.83714
10.4558, 9, 5.78552, 16.4115, 33.4103, 7.48402, -50.6975, -4.82152
10.4638, 9, 5.77044, 16.4169, 33.4173, 7.4608, -50.7266, -4.80575
10.4718, 9, 5.75523, 16.4222, 33.4242, 7.43791, -50.7561, -4.78986
10.4798, 9, 5.73995, 16.4275, 33.4313, 7.41535, -50.7852, -4.77386
10.4878, 9, 5.72477, 16.4329, 33.4382, 7.39298, -50.814, -4.75765
10.4959, 9, 5.70965, 16.4384, 33.445, 7.37052, -50.8427, -4.7417
10.5038, 9, 5.69459, 16.444, 33.4517, 7.34773, -50.8718, -4.72594
10.5118, 9, 5.6795, 16.4496, 33.4585, 7.32473, -50.9014, -4.71039
10.5198, 9, 5.66434, 16.4551, 33.4652, 7.302, -50.9304, -4.69534
10.5278, 9, 5.64928, 16.4606, 33.472, 7.27978, -50.9591, -4.68003
10.5358, 9, 5.63421, 16.4662, 33.4787, 7.25765, -50.9877, -4.66482
10.5438, 9, 5.6191, 16.4718, 33.4854, 7.23565, -51.0168, -4.64967
10.5518, 9, 5.60396, 16.4774, 33.4921, 7.21322, -51.0465, -4.63431
10.5598, 9, 5.58869, 16.4829, 33.4987, 7.19041, -51.0756, -4.61871
10.5678, 9, 5.57351, 16.4884, 33.5053, 7.16763, -51.1044, -4.60295
10.5758, 9, 5.55829, 16.4939, 33.5119, 7.14527, -51.1332, -4.58692
10.5838, 9, 5.54306, 16.4994, 33.5186, 7.12313, -51.1624, -4.57106
10.5918, 9, 5.52792, 16.5051, 33.5254, 7.10118, -51.1921, -4.5551
10.5998, 9, 5.5127, 16.5108, 33.5322, 7.07907, -51.2212, -4.53962
10.6079, 9, 5.49749, 16.5164, 33.5389, 7.05653, -51.2499, -4.52437
10.6159, 9, 5.48234, 16.522, 33.5457, 7.03367, -51.2785, -4.50908
10.6239, 9, 5.46724, 16.5276, 33.5523, 7.01116, -51.3076, -4.49406
10.6319, 9, 5.4521, 16.5332, 33.5588, 6.98893, -51.3373, -4.47889
10.6399, 9, 5.43674, 16.5388, 33.5653, 6.96699, -51.3665, -4.46365
10.6478, 9, 5.42142, 16.5444, 33.5719, 6.94499, -51.3954, -4.44831
10.6558, 9, 5.40623, 16.5499, 33.5785, 6.92257, -51.4241, -4.4328
10.6639, 9, 5.39104, 16.5555, 33.585, 6.89981, -51.4532, -4.41731
10.6719, 9, 5.37596, 16.5613, 33.5915, 6.87722, -51.4827, -4.40154
10.6799, 9, 5.36083, 16.5671, 33.5981, 6.85493, -51.5118, -4.38562
10.6881, 9, 5.34571, 16.5729, 33.6046, 6.83285, -51.5404, -4.37015
10.6948, 9, 5.33821, 16.5758, 33.6078, 6.82191, -51.5547, -4.3624
10.7041, 9, 5.3156, 16.5844, 33.6174, 6.78884, -51.5982, -4.33972
10.7108, 9, 5.30808, 16.5874, 33.6206, 6.7776, -51.6131, -4.33217
10.7203, 9, 5.28541, 16.5962, 33.6304, 6.74346, -51.6572, -4.30954
10.7283, 9, 5.27013, 16.6021, 33.6369, 6.72106, -51.686, -4.29469
10.7367, 9, 5.25497, 16.6078, 33.6434, 6.69906, -51.7149, -4.27969
10.7444, 9, 5.23984, 16.6136, 33.6499, 6.67736, -51.7443, -4.26459
10.7523, 9, 5.22486, 16.6194, 33.6564, 6.65558, -51.774, -4.24935
10.7604, 9, 5.21736, 16.6253, 33.6629, 6.63348, -51.8031, -4.23392
10.7684, 9, 5.20226, 16.6314, 33.6692, 6.61105, -51.8318, -4.21837
10.7758, 9, 5.18714, 16.6343, 33.6722, 6.59985, -51.8462, -4.21064
10.7837, 9, 5.17215, 16.6402, 33.6785, 6.57766, -51.8751, -4.19513
10.7926, 9, 5.15715, 16.6461, 33.6848, 6.55578, -51.9047, -4.17229
10.7998, 9, 5.1421, 16.652, 33.6911, 6.53413, -51.9342, -4.16487
10.8077, 9, 5.12688, 16.6579, 33.6974, 6.51238, -51.9633, -4.15005
10.8158, 9, 5.11163, 16.6637, 33.7036, 6.49031, -51.9923, -4.13552
10.8238, 9, 5.09647, 16.6695, 33.7099, 6.46792, -52.0214, -4.12097
10.8318, 9, 5.08125, 16.6753, 33.7162, 6.44561, -52.051, -4.10615
10.8398, 9, 5.06607, 16.6812, 33.7223, 6.42385, -52.0805, -4.09149
10.8478, 9, 5.05085, 16.6872, 33.7284, 6.40233, -52.1094, -4.07661
10.8558, 9, 5.03555, 16.6933, 33.7346, 6.38107, -52.1381, -4.0615
10.8638, 9, 5.02035, 16.6993, 33.741, 6.35954, -52.167, -4.04631
10.8718, 9, 5.00519, 16.7053, 33.7473, 6.33754, -52.1966, -4.03084
10.8798, 9, 4.99006, 16.7114, 33.7537, 6.31539, -52.2261, -4.01547
10.8878, 9, 4.97478, 16.7175, 33.76, 6.29345, -52.255, -4.00059
10.8958, 9, 4.95945, 16.7236, 33.7663, 6.27186, -52.2838, -3.98563
10.9038, 9, 4.94418, 16.7296, 33.7726, 6.25042, -52.3128, -3.97104
10.9128, 9, 4.92895, 16.7355, 33.7787, 6.22907, -52.3425, -3.95656
10.9198, 9, 4.91377, 16.7416, 33.7848, 6.20731, -52.3719, -3.94216
10.9278, 9, 4.8986, 16.7477, 33.7909, 6.18526, -52.4007, -3.92793
10.9358, 9, 4.8834, 16.754, 33.797, 6.16323, -52.4294, -3.91355
10.9438, 9, 4.8683, 16.7601, 33.8031, 6.1416, -52.4584, -3.89907
10.9518, 9, 4.85322, 16.7662, 33.8092, 6.12028, -52.488, -3.8845
10.9597, 9, 4.83811, 16.7723, 33.8152, 6.09912, -52.5175, -3.86976
10.9678, 9, 4.82293, 16.7785, 33.8212, 6.07775, -52.5466, -3.85483
10.9757, 9, 4.80764, 16.7845, 33.8272, 6.056, -52.5755, -3.83985
10.9838, 9, 4.79245, 16.7905, 33.8331, 6.03396, -52.6046, -3.8249
10.9918, 9, 4.7773, 16.7965, 33.839, 6.01204, -52.6343, -3.81029
10.9997, 9, 4.76222, 16.8026, 33.845, 5.99041, -52.6638, -3.79586
11.0078, 9, 4.74717, 16.8088, 33.851, 5.96902, -52.6927, -3.78147
11.016, 9, 4.73199, 16.815, 33.8571, 5.94768, -52.7215, -3.76727
11.0247, 9, 4.71683, 16.8212, 33.8632, 5.92617, -52.7506, -3.75298
11.0318, 9, 4.70173, 16.8274, 33.8692, 5.9043, -52.7804, -3.73874
11.0398, 9, 4.68655, 16.8336, 33.8753, 5.88227, -52.81, -3.72455
11.0477, 9, 4.67131, 16.8399, 33.8813, 5.86058, -52.8392, -3.71027
11.0558, 9, 4.65599, 16.8461, 33.8872, 5.83928, -52.8681, -3.69581
11.0638, 9, 4.64062, 16.8523, 33.893, 5.81822, -52.8973, -3.68114
11.0717, 9, 4.62537, 16.8584, 33.8988, 5.7972, -52.9271, -3.66634
11.0799, 9, 4.61009, 16.8647, 33.9047, 5.77578, -52.9566, -3.65169
11.0879, 9, 4.59494, 16.8711, 33.9106, 5.75407, -52.9856, -3.63699
11.0958, 9, 4.57975, 16.8775, 33.9165, 5.73228, -53.0145, -3.62234
11.104, 9, 4.56454, 16.8838, 33.9224, 5.71094, -53.0436, -3.6082
11.1113, 9, 4.54947, 16.8901, 33.9282, 5.68978, -53.0734, -3.59413
11.1193, 9, 4.53441, 16.8964, 33.9341, 5.6689, -53.1029, -3.58025
11.1282, 9, 4.51935, 16.9028, 33.9399, 5.64793, -53.132, -3.56648
11.1353, 9, 4.50416, 16.909, 33.9456, 5.62655, -53.1609, -3.55273
11.1434, 9, 4.49648, 16.9152, 33.9513, 5.60495, -53.19, -3.53881
11.1524, 9, 4.47349, 16.9215, 33.9571, 5.5834, -53.2197, -3.52482
11.1598, 9, 4.45821, 16.9278, 33.9629, 5.56233, -53.249, -3.51059
11.1678, 9, 4.44295, 16.9343, 33.9688, 5.54158, -53.2779, -3.49616
11.1767, 9, 4.42774, 16.9408, 33.9746, 5.52096, -53.3067, -3.48159
11.1838, 9, 4.41237, 16.9473, 33.9803, 5.5002, -53.3358, -3.46682
11.1919, 9, 4.39715, 16.9537, 33.9862, 5.47898, -53.3655, -3.45234
11.2009, 9, 4.38199, 16.9603, 33.9919, 5.4575, -53.3951, -3.43801
11.208, 9, 4.36682, 16.9669, 33.9976, 5.43618, -53.4242, -3.42376
11.2161, 9, 4.35162, 16.9734, 34.0032, 5.41515, -53.4532, -3.40985
11.2227, 9, 4.34397, 16.9766, 34.0059, 5.4047, -53.4677, -3.40291
11.2309, 9, 4.32864, 16.983, 34.0115, 5.384, -53.4972, -3.38916
11.2388, 9, 4.31347, 16.9896, 34.0171, 5.3633, -53.527, -3.37545
11.2491, 9, 4.29079, 16.9995, 34.0256, 5.33165, -53.5707, -3.35479
11.2548, 9, 4.28323, 17.0028, 34.0283, 5.32094, -53.5851, -3.34778
11.2644, 9, 4.26046, 17.0126, 34.0366, 5.289, -53.6286, -3.32665
11.2731, 9, 4.25287, 17.0159, 34.0394, 5.27857, -53.6584, -3.31238
11.2788, 9, 4.23774, 17.0224, 34.0449, 5.25781, -53.6732, -3.30523
11.2888, 9, 4.21503, 17.0322, 34.0532, 5.22698, -53.717, -3.28356
11.2958, 9, 4.20746, 17.0353, 34.0559, 5.21664, -53.7315, -3.27631
11.3038, 9, 4.19224, 17.0417, 34.0613, 5.19569, -53.7605, -3.26201
11.3117, 9, 4.1769, 17.0481, 34.0669, 5.17431, -53.7901, -3.24787
11.3197, 9, 4.16162, 17.0547, 34.0725, 5.15304, -53.8199, -3.23405
11.3267, 9, 4.14637, 17.0613, 34.0782, 5.13207, -53.8491, -3.22043
11.3357, 9, 4.13116, 17.068, 34.0838, 5.11136, -53.8779, -3.20676
11.3438, 9, 4.11598, 17.0746, 34.0894, 5.0908, -53.9069, -3.19319
11.3507, 9, 4.10072, 17.0813, 34.0951, 5.07009, -53.9365, -3.17959
11.3598, 9, 4.0855, 17.088, 34.1006, 5.049, -53.9664, -3.16601
11.3677, 9, 4.0703, 17.0947, 34.1061, 5.02758, -53.9957, -3.15235
11.3747, 9, 4.05511, 17.1013, 34.1115, 5.00638, -54.0247, -3.13852
11.3837, 9, 4.03984, 17.1078, 34.1168, 4.9856, -54.0538, -3.12452
11.3917, 9, 4.0244, 17.1145, 34.1221, 4.96501, -54.0835, -3.11037
11.4012, 9, 4.00899, 17.1214, 34.1275, 4.94465, -54.1131, -3.09632
11.4068, 9, 3.99367, 17.1282, 34.1329, 4.92409, -54.1422, -3.08238
11.4157, 9, 3.97837, 17.135, 34.1382, 4.90322, -54.171, -3.0684
11.4238, 9, 3.96312, 17.1417, 34.1435, 4.88208, -54.1999, -3.05466
11.4317, 9, 3.94786, 17.1485, 34.1489, 4.86115, -54.2294, -3.04111
11.4397, 9, 3.93267, 17.1552, 34.1542, 4.84049, -54.2591, -3.02777
11.4477, 9, 3.91755, 17.1618, 34.1595, 4.82012, -54.2883, -3.01467
11.4557, 9, 3.90238, 17.1684, 34.1646, 4.79986, -54.3173, -3.00152
11.4638, 9, 3.88717, 17.1751, 34.1698, 4.77937, -54.3464, -2.98817
11.4718, 9, 3.87182, 17.182, 34.175, 4.75858, -54.376, -2.97483
11.4797, 9, 3.85646, 17.189, 34.1802, 4.73757, -54.4058, -2.96136
11.4878, 9, 3.8412, 17.1958, 34.1856, 4.71675, -54.4349, -2.94778
11.4958, 9, 3.82594, 17.2027, 34.1909, 4.69643, -54.4638, -2.93399
11.5037, 9, 3.81074, 17.2096, 34.1962, 4.67625, -54.4928, -2.92002
11.5119, 9, 3.79548, 17.2165, 34.2015, 4.65628, -54.5224, -2.90601
11.5197, 9, 3.78016, 17.2233, 34.2067, 4.63616, -54.5521, -2.89203
11.5277, 9, 3.765, 17.23, 34.2121, 4.61561, -54.5813, -2.87841
11.5358, 9, 3.74981, 17.2368, 34.2173, 4.59472, -54.6103, -2.86497
11.5437, 9, 3.73462, 17.2438, 34.2224, 4.57408, -54.6395, -2.85168
11.5517, 9, 3.71934, 17.2508, 34.2274, 4.55366, -54.6692, -2.83865
11.5599, 9, 3.70394, 17.2577, 34.2325, 4.53346, -54.6989, -2.82547
11.5678, 9, 3.68869, 17.2646, 34.2376, 4.51336, -54.728, -2.81252
11.5757, 9, 3.67343, 17.2715, 34.2428, 4.49314, -54.7568, -2.79962
11.5839, 9, 3.65821, 17.2784, 34.2479, 4.47257, -54.7857, -2.78646
11.5917, 9, 3.64294, 17.2851, 34.253, 4.45173, -54.8154, -2.77318
11.5998, 9, 3.62756, 17.2919, 34.2581, 4.43107, -54.8451, -2.75968
11.6079, 9, 3.61232, 17.2988, 34.2631, 4.41073, -54.8744, -2.74619
11.6158, 9, 3.59712, 17.3058, 34.2681, 4.39074, -54.9035, -2.73257
11.6239, 9, 3.5819, 17.3128, 34.2731, 4.37084, -54.9326, -2.71906
11.6318, 9, 3.56658, 17.3199, 34.278, 4.3508, -54.9622, -2.70568
11.6398, 9, 3.55114, 17.3269, 34.2829, 4.33043, -54.9919, -2.69235
11.6479, 9, 3.53576, 17.3341, 34.2878, 4.3097, -55.021, -2.67945
11.6558, 9, 3.52045, 17.3411, 34.2928, 4.28905, -55.0498, -2.66677
11.6638, 9, 3.5052, 17.3481, 34.2979, 4.26865, -55.079, -2.65404
11.6718, 9, 3.49, 17.355, 34.3029, 4.24851, -55.1088, -2.64139
11.6799, 9, 3.47476, 17.3621, 34.3079, 4.22857, -55.1386, -2.62874
11.6879, 9, 3.45956, 17.3693, 34.313, 4.20844, -55.1678, -2.61623
11.696, 9, 3.44438, 17.3765, 34.318, 4.18798, -55.1969, -2.60375
11.7027, 9, 3.4368, 17.38, 34.3205, 4.17763, -55.2115, -2.59747
11.7122, 9, 3.41403, 17.3906, 34.3279, 4.14669, -55.2562, -2.5784
11.7187, 9, 3.40634, 17.3942, 34.3303, 4.1365, -55.2711, -2.5721
11.7282, 9, 3.38327, 17.4049, 34.3375, 4.10636, -55.3149, -2.55271
11.7347, 9, 3.37565, 17.4084, 34.3398, 4.09643, -55.3294, -2.5463
11.7443, 9, 3.35285, 17.4188, 34.3469, 4.06669, -55.3731, -2.52746
11.7525, 9, 3.3377, 17.426, 34.3518, 4.04646, -55.403, -2.51519
11.7603, 9, 3.32247, 17.4332, 34.3565, 4.02589, -55.4327, -2.50303
11.7683, 9, 3.31478, 17.4404, 34.3613, 4.00531, -55.462, -2.49112
11.7763, 9, 3.29952, 17.444, 34.3636, 3.9951, -55.4766, -2.47951
11.7843, 9, 3.28431, 17.4512, 34.3684, 3.9749, -55.5058, -2.47375
11.7917, 9, 3.26907, 17.4585, 34.3731, 3.955, -55.5355, -2.46222
11.7998, 9, 3.25379, 17.4658, 34.3778, 3.93521, -55.5654, -2.451
11.8077, 9, 3.23837, 17.4729, 34.3825, 3.91523, -55.5947, -2.43983
11.8157, 9, 3.22302, 17.48, 34.3872, 3.89494, -55.6236, -2.42858
11.8238, 9, 3.20765, 17.4872, 34.3918, 3.87444, -55.6527, -2.41737
11.8317, 9, 3.19231, 17.4947, 34.3964, 3.85413, -55.6824, -2.40609
11.8397, 9, 3.17707, 17.502, 34.4011, 3.83421, -55.7124, -2.39488
11.8478, 9, 3.16172, 17.5093, 34.4059, 3.81442, -55.7418, -2.38351
11.8557, 9, 3.14641, 17.5166, 34.4107, 3.79494, -55.771, -2.37206
11.8637, 9, 3.13118, 17.5239, 34.4154, 3.77529, -55.8001, -2.36063
11.8718, 9, 3.11591, 17.5311, 34.4202, 3.75523, -55.8299, -2.3492
11.8797, 9, 3.1006, 17.5383, 34.4249, 3.73479, -55.8598, -2.33777
11.8877, 9, 3.08511, 17.5455, 34.4295, 3.71448, -55.889, -2.32673
11.8958, 10, 3.06961, 17.5529, 34.4341, 3.69446, -55.918, -2.31587
11.9037, 10, 3.05423, 17.5604, 34.4385, 3.67468, -55.9471, -2.30517
11.9127, 10, 3.03884, 17.5678, 34.443, 3.65507, -55.977, -2.2946
11.9198, 10, 3.02354, 17.5753, 34.4474, 3.63541, -56.0069, -2.28428
11.9278, 10, 3.00818, 17.5829, 34.4517, 3.61538, -56.0362, -2.27398
11.9367, 10, 2.99286, 17.5904, 34.456, 3.59506, -56.0654, -2.26381
11.9438, 10, 2.97764, 17.5978, 34.4603, 3.5746, -56.0947, -2.2538
11.9517, 10, 2.96241, 17.6052, 34.4646, 3.55455, -56.1247, -2.24378
11.9597, 10, 2.94717, 17.6128, 34.4689, 3.5347, -56.1545, -2.23382
11.9677, 10, 2.93183, 17.6206, 34.473, 3.51502, -56.1837, -2.22356
11.9757, 10, 2.91649, 17.6282, 34.4772, 3.49538, -56.2127, -2.21329
11.9838, 10, 2.90122, 17.6359, 34.4813, 3.47536, -56.2419, -2.20305
11.9917, 10, 2.88594, 17.6436, 34.4854, 3.45497, -56.2719, -2.1927
