hehonglu123/ABB_Primitive_Study/realrobot/movelcl_30_car2/curve_exe_v50_z20.csv
timestamp, cmd_num, J1, J2, J3, J4, J5, J6
0.000358, -1, -18.7718, 34.1323, 27.9423, -19.9673, -90.5846, -2.05531
0.005303, -1, -18.7718, 34.1323, 27.9423, -19.9672, -90.5846, -2.05531
0.008131, -1, -18.7718, 34.1323, 27.9423, -19.9672, -90.5846, -2.05532
0.029216, -1, -18.7718, 34.1323, 27.9423, -19.9672, -90.5846, -2.05532
0.031877, -1, -18.7718, 34.1323, 27.9423, -19.9672, -90.5846, -2.05532
0.033611, -1, -18.7718, 34.1323, 27.9423, -19.9672, -90.5846, -2.05532
0.039313, -1, -18.7718, 34.1323, 27.9423, -19.9672, -90.5846, -2.05529
0.047681, -1, -18.7718, 34.1323, 27.9423, -19.9673, -90.5847, -2.05531
0.056215, -1, -18.7713, 34.1322, 27.9423, -19.9673, -90.5846, -2.05532
0.063168, -1, -18.769, 34.1316, 27.9424, -19.9672, -90.5846, -2.05532
0.072135, -1, -18.7636, 34.1296, 27.9425, -19.9669, -90.584, -2.05532
0.079328, -1, -18.7547, 34.1256, 27.9426, -19.9646, -90.5815, -2.05545
0.087315, -1, -18.7409, 34.1189, 27.9427, -19.9575, -90.5745, -2.05664
0.095471, -1, -18.7201, 34.1084, 27.9427, -19.9426, -90.5594, -2.06197
0.103495, -1, -18.6897, 34.093, 27.9423, -19.916, -90.532, -2.07371
0.111491, -1, -18.6488, 34.0725, 27.9408, -19.8723, -90.4862, -2.09374
0.119746, -1, -18.5958, 34.0458, 27.9375, -19.8062, -90.4175, -2.12422
0.128313, -1, -18.5293, 34.0122, 27.9318, -19.7142, -90.3208, -2.1679
0.135654, -1, -18.4487, 33.9715, 27.9231, -19.592, -90.1924, -2.2265
0.144258, -1, -18.3541, 33.9241, 27.9107, -19.4384, -90.0303, -2.29935
0.151717, -1, -18.246, 33.8699, 27.895, -19.2532, -89.8345, -2.38828
0.160254, -1, -18.124, 33.8087, 27.8763, -19.0387, -89.6079, -2.49031
0.167786, -1, -18.058, 33.7756, 27.8659, -18.7995, -89.3542, -2.60458
0.1764, -1, -17.8416, 33.6675, 27.8319, -18.5404, -89.0789, -2.72842
0.183171, -1, -17.7639, 33.6287, 27.8199, -18.405, -88.9349, -2.7931
0.192219, -1, -17.5164, 33.5048, 27.783, -17.9827, -88.4861, -2.99524
0.199203, -1, -17.4296, 33.4614, 27.7706, -17.8384, -88.3325, -3.06448
0.207138, -1, -17.2512, 33.3723, 27.7455, -17.5463, -88.0217, -3.2046
0.216456, -1, -16.9755, 33.2347, 27.7077, -17.1028, -87.5505, -3.41759
0.223133, -1, -16.8822, 33.1883, 27.6951, -16.9543, -87.3924, -3.4889
0.232463, -1, -16.5993, 33.0481, 27.6576, -16.5071, -86.9166, -3.70316
0.239279, -1, -16.5044, 33.0012, 27.645, -16.3576, -86.7575, -3.77466
0.247133, -1, -16.3144, 32.9074, 27.6198, -16.0582, -86.4386, -3.91792
0.256791, -1, -16.0295, 32.7667, 27.5822, -15.6072, -85.9589, -4.13364
0.26477, -1, -15.8399, 32.673, 27.5572, -15.3061, -85.6386, -4.27765
0.272707, -1, -15.6511, 32.5793, 27.532, -15.0047, -85.3176, -4.42224
0.280703, -1, -15.4624, 32.4855, 27.5067, -14.7025, -84.9963, -4.56695
0.288832, -1, -15.3682, 32.3914, 27.4815, -14.4003, -84.6747, -4.71158
0.296135, -1, -15.1804, 32.3443, 27.4689, -14.2491, -84.5136, -4.78402
0.304143, -1, -14.9927, 32.2498, 27.4437, -13.946, -84.1913, -4.92908
0.312182, -1, -14.8047, 32.1549, 27.4183, -13.6427, -83.869, -5.07398
0.320276, -1, -14.6161, 32.0596, 27.3927, -13.3394, -83.5463, -5.21936
0.328156, -1, -14.4263, 31.9643, 27.3671, -13.0359, -83.2232, -5.36471
0.336133, -1, -14.2354, 31.8688, 27.3415, -12.7322, -82.8998, -5.51047
0.344226, -1, -14.0437, 31.7732, 27.316, -12.4285, -82.5763, -5.65629
0.352213, -1, -13.8515, 31.6776, 27.2903, -12.1241, -82.2524, -5.80193
0.360138, -1, -13.6587, 31.5821, 27.2647, -11.8198, -81.9283, -5.94754
0.368202, -1, -13.4652, 31.4867, 27.2391, -11.5156, -81.6044, -6.09317
0.376181, -1, -13.2715, 31.3913, 27.2135, -11.2111, -81.2805, -6.23877
0.384147, -1, -13.078, 31.296, 27.1879, -10.9069, -80.9564, -6.3845
0.392142, -1, -12.8852, 31.2008, 27.1624, -10.6025, -80.6327, -6.53021
0.400194, -1, -12.6932, 31.1058, 27.1369, -10.298, -80.3093, -6.67609
0.408144, -1, -12.5017, 31.0106, 27.1115, -9.99385, -79.9859, -6.82213
0.41614, -1, -12.3112, 30.9155, 27.0859, -9.68979, -79.6625, -6.96761
0.423121, -1, -12.1214, 30.8203, 27.0603, -9.38576, -79.3389, -7.11318
0.431122, -1, -11.9324, 30.725, 27.0348, -9.08213, -79.0155, -7.25858
0.440084, -1, -11.7437, 30.6296, 27.0093, -8.77859, -78.6922, -7.4039
0.448202, -1, -11.5548, 30.5343, 26.9838, -8.47522, -78.3692, -7.54916
0.456128, -1, -11.3655, 30.4392, 26.9582, -8.17245, -78.047, -7.69438
0.463928, -1, -11.176, 30.3443, 26.9328, -7.87013, -77.7253, -7.83924
0.472189, -1, -10.9861, 30.2495, 26.9074, -7.56824, -77.4038, -7.98385
0.479185, -1, -10.7957, 30.155, 26.8821, -7.26701, -77.0832, -8.12812
0.487986, -1, -10.6052, 30.0608, 26.8568, -6.96587, -76.7631, -8.27203
0.496194, -1, -10.4143, 29.9666, 26.8315, -6.66532, -76.4432, -8.41558
0.503209, -1, -10.2235, 29.8726, 26.8063, -6.36556, -76.1239, -8.55903
0.512095, -1, -10.0334, 29.7789, 26.7812, -6.06603, -75.805, -8.70218
0.520194, -1, -9.84399, 29.6854, 26.7562, -5.76723, -75.4868, -8.84548
0.527233, -1, -9.65553, 29.592, 26.731, -5.46902, -75.1694, -8.98832
0.536005, -1, -9.46784, 29.4987, 26.7061, -5.17115, -74.8527, -9.13059
0.544205, -1, -9.28119, 29.4056, 26.6811, -4.87437, -74.5369, -9.27248
0.551128, -1, -9.09565, 29.3127, 26.6562, -4.57831, -74.2219, -9.414
0.560102, -1, -8.91086, 29.2198, 26.6313, -4.28277, -73.9074, -9.55527
0.568218, -1, -8.72682, 29.1271, 26.6064, -3.98832, -73.5939, -9.6963
0.575558, -1, -8.54332, 29.0347, 26.5817, -3.69464, -73.2813, -9.83692
0.584151, -1, -8.36001, 28.9427, 26.5571, -3.40154, -72.9696, -9.9774
0.591314, -1, -8.17694, 28.851, 26.5324, -3.10959, -72.6589, -10.1174
0.59953, -1, -7.99382, 28.7595, 26.5078, -2.81855, -72.3489, -10.2567
0.608785, -1, -7.81078, 28.6686, 26.4834, -2.52831, -72.0398, -10.3955
0.616162, -1, -7.62788, 28.5779, 26.4591, -2.23908, -71.7317, -10.534
0.623934, -1, -7.44521, 28.4875, 26.4349, -1.9506, -71.4245, -10.6717
0.633003, -1, -7.26279, 28.3974, 26.4108, -1.66292, -71.1185, -10.8092
0.640226, -1, -7.08094, 28.3076, 26.3866, -1.37646, -70.8136, -10.9463
0.647759, -1, -6.89993, 28.2182, 26.3626, -1.09103, -70.5097, -11.0829
0.65631, -1, -6.72003, 28.129, 26.3388, -0.806538, -70.2069, -11.2192
0.663647, -1, -6.63042, 28.0846, 26.3269, -0.523203, -69.9056, -11.3548
0.67214, -1, -6.36319, 27.9515, 26.2911, -0.240858, -69.6053, -11.49
0.679774, -1, -6.27483, 27.9073, 26.2792, -0.0999606, -69.4556, -11.5572
0.688167, -1, -6.01116, 27.7751, 26.2438, 0.320947, -69.0078, -11.7587
0.695182, -1, -5.92369, 27.7312, 26.232, 0.460669, -68.859, -11.8256
0.705127, -1, -5.66276, 27.5999, 26.1969, 0.878217, -68.4143, -12.0256
0.711138, -1, -5.57608, 27.5564, 26.1852, 1.01682, -68.2666, -12.092
0.720702, -1, -5.31662, 27.4264, 26.1503, 1.4309, -67.8253, -12.2906
0.727111, -1, -5.23025, 27.3832, 26.1387, 1.56848, -67.6789, -12.3565
0.735152, -1, -5.05768, 27.2971, 26.1156, 1.84296, -67.3871, -12.4877
0.744873, -1, -4.79952, 27.1689, 26.0812, 2.25181, -66.9518, -12.6833
0.752592, -1, -4.62799, 27.0839, 26.0583, 2.5232, -66.6632, -12.813
0.760671, -1, -4.45689, 26.9992, 26.0356, 2.79316, -66.3759, -12.9421
0.769064, -1, -4.28618, 26.9148, 26.0129, 3.0617, -66.0899, -13.0707
0.776667, -1, -4.11607, 26.8308, 25.9904, 3.3296, -65.8049, -13.1987
0.783107, -1, -4.03134, 26.789, 25.9792, 3.4631, -65.6628, -13.2627
0.792769, -1, -3.86275, 26.7055, 25.9567, 3.72894, -65.2385, -13.4538
0.800126, -1, -3.69557, 26.6223, 25.9345, 3.99369, -65.0976, -13.517
0.80915, -1, -3.44682, 26.4982, 25.9012, 4.3888, -64.6771, -13.706
0.815125, -1, -3.36446, 26.4569, 25.8901, 4.51973, -64.5376, -13.7685
0.823195, -1, -3.20046, 26.3748, 25.8681, 4.78102, -64.2596, -13.8934
0.83111, -1, -3.03753, 26.293, 25.8461, 5.04131, -63.9827, -14.0178
0.839182, -1, -2.87573, 26.2115, 25.8243, 5.3004, -63.7071, -14.1417
0.847174, -1, -2.71469, 26.1305, 25.8026, 5.55817, -63.4327, -14.265
0.855118, -1, -2.55428, 26.0499, 25.7811, 5.81471, -63.1597, -14.3879
0.863112, -1, -2.39409, 25.9697, 25.7596, 6.07017, -62.8879, -14.5104
0.872107, -1, -2.23411, 25.8899, 25.7382, 6.32414, -62.6175, -14.632
0.880178, -1, -2.0746, 25.8105, 25.7169, 6.57709, -62.3481, -14.7532
0.888232, -1, -1.91551, 25.7315, 25.6957, 6.82913, -62.08, -14.8735
0.895183, -1, -1.75695, 25.6529, 25.6747, 7.07985, -61.8129, -14.9935
0.903107, -1, -1.5989, 25.5746, 25.6538, 7.32935, -61.5471, -15.1127
0.911188, -1, -1.44109, 25.4967, 25.6328, 7.57777, -61.2823, -15.2315
0.919234, -1, -1.28375, 25.4191, 25.612, 7.82516, -61.0187, -15.3499
0.927105, -1, -1.12721, 25.3418, 25.5914, 8.07133, -60.7563, -15.4676
0.935121, -1, -0.971726, 25.2648, 25.5708, 8.3164, -60.4953, -15.5853
0.944114, -1, -0.81755, 25.1882, 25.5504, 8.56067, -60.2356, -15.7021
0.951105, -1, -0.664558, 25.1119, 25.5299, 8.80371, -59.9769, -15.8182
0.959183, -1, -0.512509, 25.0359, 25.5094, 9.04545, -59.7196, -15.9341
0.967176, -1, -0.361646, 24.9604, 25.4892, 9.28614, -59.4638, -16.0492
0.975119, -1, -0.211848, 24.8852, 25.4691, 9.52584, -59.2092, -16.1639
0.983243, -1, -0.0630949, 24.8103, 25.4491, 9.76423, -58.9556, -16.2783
0.991135, -1, 0.0848713, 24.7357, 25.4293, 10.0015, -58.703, -16.392
0.999219, -1, 0.23228, 24.6615, 25.4094, 10.2379, -58.4513, -16.5052
1.00719, -1, 0.379534, 24.5877, 25.3895, 10.4732, -58.2007, -16.6182
1.0153, -1, 0.526746, 24.5142, 25.3699, 10.7073, -57.9511, -16.7306
1.02321, -1, 0.673665, 24.441, 25.3502, 10.9403, -57.7026, -16.8423
1.03121, -1, 0.820316, 24.368, 25.3308, 11.1725, -57.4552, -16.9534
1.03934, -1, 0.966542, 24.2954, 25.3114, 11.4034, -57.209, -17.064
1.04711, -1, 1.11222, 24.2232, 25.292, 11.6334, -56.964, -17.1737
1.05512, -1, 1.25735, 24.1513, 25.2727, 11.8623, -56.7204, -17.2832
1.0632, -1, 1.40207, 24.0797, 25.2536, 12.0903, -56.4778, -17.3922
1.0712, -1, 1.54631, 24.0086, 25.2345, 12.3174, -56.2365, -17.5006
1.07935, -1, 1.68985, 23.9376, 25.2156, 12.5431, -55.9963, -17.6087
1.08731, -1, 1.8325, 23.8671, 25.1968, 12.7681, -55.7572, -17.7162
1.09538, -1, 1.974, 23.7969, 25.1779, 12.992, -55.5191, -17.8236
1.10338, -1, 2.11458, 23.7269, 25.1592, 13.2147, -55.2819, -17.9303
1.11153, -1, 2.25427, 23.6573, 25.1406, 13.4365, -55.0458, -18.0362
1.11961, -1, 2.3929, 23.588, 25.122, 13.6574, -54.8105, -18.142
1.12828, -1, 2.53071, 23.5189, 25.1036, 13.8776, -54.5761, -18.2471
1.13566, -1, 2.66748, 23.4501, 25.0853, 14.0966, -54.3426, -18.3519
1.14427, -1, 2.80324, 23.3816, 25.0669, 14.3145, -54.1103, -18.4562
1.15168, -1, 2.93842, 23.3135, 25.0487, 14.5317, -53.8792, -18.56
1.16027, -1, 3.07331, 23.2455, 25.0305, 14.748, -53.649, -18.6635
1.16771, -1, 3.14074, 23.2116, 25.0214, 14.8557, -53.4199, -18.7664
1.17629, -1, 3.34305, 23.1105, 24.9945, 15.1775, -53.1917, -18.8694
1.18316, -1, 3.41041, 23.077, 24.9855, 15.2843, -53.0779, -18.9206
1.19221, -1, 3.61204, 22.9768, 24.9587, 15.6039, -52.7383, -19.0735
1.19909, -1, 3.67911, 22.9436, 24.9498, 15.7099, -52.6254, -19.124
1.20823, -1, 3.87964, 22.8442, 24.9233, 16.0263, -52.2888, -19.2756
1.21511, -1, 3.94628, 22.8113, 24.9144, 16.1314, -52.1769, -19.3256
1.22434, -1, 4.14556, 22.7128, 24.888, 16.4453, -51.8427, -19.4757
1.23115, -1, 4.21177, 22.6801, 24.8793, 16.5495, -51.7317, -19.5255
1.24063, -1, 4.40953, 22.5824, 24.8532, 16.8606, -51.4001, -19.6744
1.24853, -1, 4.54036, 22.5176, 24.8359, 17.0672, -51.1802, -19.7733
1.25519, -1, 4.60557, 22.4852, 24.8273, 17.1703, -51.0705, -19.8227
1.26467, -1, 4.80011, 22.3885, 24.8014, 17.478, -50.7427, -19.9701
1.27267, -1, 4.92882, 22.3243, 24.7842, 17.6821, -50.5254, -20.0679
1.28072, -1, 5.05675, 22.2603, 24.7673, 17.8853, -50.3089, -20.1654
1.28871, -1, 5.12043, 22.1966, 24.7503, 18.0879, -50.0932, -20.2621
1.29663, -1, 5.24722, 22.1649, 24.7417, 18.189, -49.9857, -20.3589
1.30473, -1, 5.37315, 22.1016, 24.7248, 18.3901, -49.7713, -20.4547
1.31212, -1, 5.49813, 22.0385, 24.708, 18.5907, -49.5577, -20.5026
1.32009, -1, 5.62254, 21.9758, 24.6911, 18.7905, -49.3453, -20.5981
1.32815, -1, 5.74653, 21.9133, 24.6743, 18.9898, -49.1335, -20.6935
1.3361, -1, 5.87035, 21.8512, 24.6578, 19.1881, -48.9228, -20.7882
1.3441, -1, 5.99408, 21.7893, 24.6413, 19.3856, -48.713, -20.8828
1.35224, -1, 6.11776, 21.7274, 24.6247, 19.5823, -48.5038, -20.977
1.3601, -1, 6.24121, 21.6659, 24.6083, 19.7784, -48.2953, -21.0711
1.36812, -1, 6.36444, 21.6046, 24.5919, 19.9736, -48.0875, -21.1646
1.37614, -1, 6.48752, 21.5434, 24.5755, 20.168, -47.8803, -21.2581
1.38412, -1, 6.61031, 21.4824, 24.5592, 20.3616, -47.6741, -21.3506
1.39215, -1, 6.73265, 21.4218, 24.5431, 20.5548, -47.4684, -21.4433
1.40009, -1, 6.85471, 21.3613, 24.5269, 20.7473, -47.2631, -21.535
1.40812, -1, 6.97628, 21.3012, 24.5107, 20.9389, -47.0589, -21.6268
1.41616, -1, 7.09732, 21.2414, 24.4947, 21.1299, -46.8554, -21.7179
1.4241, -1, 7.21774, 21.1818, 24.4787, 21.32, -46.6527, -21.8089
1.43213, -1, 7.3376, 21.1223, 24.4628, 21.5097, -46.4507, -21.8996
1.44016, -1, 7.45683, 21.0632, 24.4471, 21.6987, -46.2497, -21.9898
1.44709, -1, 7.57548, 21.0042, 24.4315, 21.8868, -46.0493, -22.0801
1.45611, -1, 7.69372, 20.9454, 24.4157, 22.0743, -45.8499, -22.1697
1.46309, -1, 7.81149, 20.8868, 24.3999, 22.2613, -45.651, -22.2594
1.47109, -1, 7.92869, 20.8283, 24.3843, 22.4478, -45.453, -22.3485
1.4801, -1, 8.04529, 20.7699, 24.3687, 22.6336, -45.2558, -22.4374
1.4882, -1, 8.16132, 20.7117, 24.353, 22.8185, -45.0593, -22.5256
1.49515, -1, 8.27688, 20.6537, 24.3377, 23.0028, -44.8633, -22.614
1.50415, -1, 8.39208, 20.5959, 24.3224, 23.1864, -44.6678, -22.7016
1.51117, -1, 8.50692, 20.5384, 24.307, 23.3695, -44.4729, -22.7892
1.51925, -1, 8.62124, 20.4811, 24.2916, 23.5519, -44.2786, -22.8761
1.52826, -1, 8.73501, 20.4241, 24.2763, 23.7335, -44.0849, -22.9633
1.53519, -1, 8.84849, 20.3673, 24.2611, 23.9147, -43.8917, -23.0497
1.54332, -1, 8.96173, 20.3106, 24.2459, 24.0954, -43.6991, -23.1364
1.55172, -1, 9.07476, 20.2541, 24.2309, 24.2756, -43.5075, -23.2223
1.5601, -1, 9.18784, 20.1978, 24.216, 24.455, -43.3166, -23.3086
1.56816, -1, 9.30086, 20.1417, 24.201, 24.6337, -43.1262, -23.3942
1.57588, -1, 9.41369, 20.0858, 24.1859, 24.8118, -42.9365, -23.4798
1.58418, -1, 9.52613, 20.0299, 24.1709, 24.9897, -42.7473, -23.5648
1.59141, -1, 9.6381, 19.9742, 24.156, 25.1668, -42.5587, -23.6495
1.60009, -1, 9.74967, 19.9187, 24.1411, 25.3432, -42.3708, -23.7341
1.6081, -1, 9.86098, 19.8633, 24.1263, 25.5193, -42.1834, -23.8181
1.61616, -1, 9.97196, 19.8082, 24.1117, 25.6947, -41.9966, -23.9022
1.62432, -1, 10.0826, 19.7533, 24.0971, 25.87, -41.8107, -23.9854
1.63174, -1, 10.1928, 19.6986, 24.0825, 26.0445, -41.6252, -24.069
1.64025, -1, 10.3026, 19.644, 24.0677, 26.2182, -41.4402, -24.1518
1.64842, -1, 10.4119, 19.5897, 24.0532, 26.3915, -41.2556, -24.2349
1.65566, -1, 10.5208, 19.5355, 24.0386, 26.5643, -41.0717, -24.3173
1.66426, -1, 10.6292, 19.4814, 24.0241, 26.7367, -40.8882, -24.4001
1.67248, -1, 10.6833, 19.4545, 24.0097, 26.9084, -40.7055, -24.4823
1.6791, -1, 10.7913, 19.4007, 24.0026, 26.9941, -40.6142, -24.5231
1.68821, -1, 10.9524, 19.3202, 23.9812, 27.2501, -40.3412, -24.6463
1.69515, -1, 11.0059, 19.2934, 23.9741, 27.3353, -40.2505, -24.6868
1.70308, -1, 11.1126, 19.24, 23.9596, 27.5053, -40.0696, -24.7682
1.71225, -1, 11.272, 19.1603, 23.9383, 27.7594, -39.7992, -24.8896
1.71914, -1, 11.325, 19.1338, 23.9312, 27.8438, -39.7093, -24.9299
1.72708, -1, 11.4305, 19.0809, 23.917, 28.0122, -39.53, -25.0108
1.73659, -1, 11.5881, 19.002, 23.8959, 28.2638, -39.262, -25.1312
1.74515, -1, 11.693, 18.9496, 23.8821, 28.4312, -39.0838, -25.2114
1.75108, -1, 11.7453, 18.9234, 23.8751, 28.5147, -38.995, -25.2511
1.76063, -1, 11.9022, 18.8452, 23.854, 28.7642, -38.7294, -25.3711
1.76939, -1, 12.0066, 18.7932, 23.84, 28.93, -38.5527, -25.4503
1.77506, -1, 12.0587, 18.7672, 23.8331, 29.0127, -38.4647, -25.4902
1.78314, -1, 12.1629, 18.7154, 23.8192, 29.1779, -38.2892, -25.5697
1.79269, -1, 12.3188, 18.6379, 23.7985, 29.425, -38.0269, -25.688
1.80062, -1, 12.3707, 18.6121, 23.7916, 29.5071, -37.9397, -25.7667
1.8081, -1, 12.4742, 18.5607, 23.778, 29.6708, -37.7656, -25.8056
1.81517, -1, 12.5774, 18.5093, 23.7644, 29.834, -37.592, -25.884
1.82408, -1, 12.6804, 18.4582, 23.7506, 29.9969, -37.4185, -25.9618
1.83208, -1, 12.783, 18.4071, 23.7369, 30.1595, -37.2456, -26.0393
1.84014, -1, 12.8852, 18.3563, 23.7232, 30.3215, -37.0731, -26.1169
1.84808, -1, 12.9871, 18.3058, 23.7097, 30.483, -36.901, -26.1935
1.85608, -1, 13.0887, 18.2553, 23.6961, 30.644, -36.7293, -26.2709
1.86307, -1, 13.1898, 18.205, 23.6826, 30.8046, -36.5582, -26.3475
1.87108, -1, 13.2906, 18.1548, 23.6693, 30.965, -36.3876, -26.4239
1.88009, -1, 13.3911, 18.1048, 23.656, 31.1249, -36.2174, -26.5006
1.88813, -1, 13.4913, 18.0548, 23.6427, 31.2842, -36.0475, -26.5764
1.89608, -1, 13.5914, 18.0049, 23.6293, 31.4433, -35.8783, -26.653
1.90408, -1, 13.6912, 17.955, 23.616, 31.6016, -35.7094, -26.7286
1.91107, -1, 13.7908, 17.9053, 23.6027, 31.7598, -35.5411, -26.8045
1.91908, -1, 13.8901, 17.8556, 23.5895, 31.9177, -35.3733, -26.8802
1.92714, -1, 13.9894, 17.806, 23.5762, 32.075, -35.2058, -26.955
1.93509, -1, 14.0885, 17.7566, 23.563, 32.232, -35.0387, -27.0305
1.94307, -1, 14.1873, 17.7075, 23.55, 32.3885, -34.8723, -27.105
1.95208, -1, 14.2857, 17.6584, 23.5369, 32.5446, -34.7062, -27.1799
1.96015, -1, 14.3837, 17.6095, 23.5238, 32.7005, -34.5407, -27.2543
1.96708, -1, 14.4813, 17.5608, 23.5106, 32.8562, -34.3755, -27.3281
1.97618, -1, 14.5787, 17.5123, 23.4977, 33.0113, -34.2104, -27.4027
1.98316, -1, 14.6757, 17.4639, 23.4848, 33.1659, -34.0458, -27.4764
1.99114, -1, 14.7723, 17.4156, 23.4718, 33.3202, -33.8813, -27.5504
1.99911, -1, 14.8688, 17.3674, 23.4589, 33.4741, -33.7176, -27.6241
2.00714, -1, 14.9652, 17.3192, 23.4462, 33.6279, -33.554, -27.6975
2.01524, -1, 15.0614, 17.271, 23.4334, 33.781, -33.3908, -27.7716
2.02318, -1, 15.1574, 17.223, 23.4206, 33.9338, -33.2278, -27.8445
2.03118, -1, 15.2532, 17.175, 23.4077, 34.086, -33.0655, -27.9177
2.03924, -1, 15.3491, 17.1271, 23.3948, 34.2381, -32.9036, -27.9906
2.04718, -1, 15.4448, 17.0793, 23.382, 34.3898, -32.7423, -28.0628
2.0551, -1, 15.5405, 17.0316, 23.3692, 34.5414, -32.5812, -28.1357
2.06318, -1, 15.6361, 16.9843, 23.3565, 34.6923, -32.4205, -28.2075
2.07111, -1, 15.7314, 16.937, 23.3438, 34.8431, -32.2602, -28.2798
2.07913, -1, 15.8265, 16.8899, 23.3313, 34.9932, -32.1001, -28.3518
2.08727, -1, 15.9213, 16.843, 23.3188, 35.1431, -31.9406, -28.423
2.0953, -1, 16.0159, 16.7961, 23.3062, 35.2928, -31.7814, -28.4951
2.10333, -1, 16.1101, 16.7495, 23.2936, 35.4423, -31.6224, -28.5663
2.11142, -1, 16.204, 16.7029, 23.2811, 35.5912, -31.464, -28.6376
2.11947, -1, 16.2976, 16.6563, 23.2687, 35.7397, -31.3059, -28.709
2.1275, -1, 16.3909, 16.6099, 23.2563, 35.888, -31.148, -28.7796
2.13562, -1, 16.484, 16.5634, 23.2438, 36.0359, -30.9905, -28.851
2.14423, -1, 16.5768, 16.5168, 23.2314, 36.1838, -30.8332, -28.9217
2.15172, -1, 16.6694, 16.4705, 23.2191, 36.3314, -30.6762, -28.9921
2.16019, -1, 16.7618, 16.4242, 23.2067, 36.4784, -30.5198, -29.063
2.16791, -1, 16.8541, 16.3779, 23.1944, 36.6251, -30.3636, -29.1328
2.17614, -1, 16.9462, 16.3319, 23.1819, 36.7715, -30.2079, -29.2029
2.18368, -1, 16.9923, 16.3089, 23.1758, 36.8446, -30.0522, -29.2728
2.19218, -1, 17.1298, 16.2403, 23.1574, 37.0634, -29.897, -29.3421
2.1991, -1, 17.1752, 16.2177, 23.1512, 37.1362, -29.8193, -29.377
2.20813, -1, 17.3067, 16.1517, 23.1325, 37.3535, -29.5882, -29.4809
2.21532, -1, 17.3484, 16.1309, 23.1262, 37.4251, -29.5118, -29.5149
2.22306, -1, 17.4276, 16.0913, 23.1137, 37.5655, -29.3621, -29.5825
2.23236, -1, 17.5361, 16.0377, 23.0954, 37.7636, -29.1504, -29.6775
2.23907, -1, 17.5691, 16.0217, 23.0896, 37.8246, -29.0854, -29.7066
2.24847, -1, 17.6566, 15.9791, 23.0743, 37.9855, -28.913, -29.7845
2.25513, -1, 17.6824, 15.9665, 23.0701, 38.0301, -28.865, -29.8063
2.2647, -1, 17.7507, 15.9318, 23.0614, 38.1362, -28.7509, -29.8576
2.27261, -1, 17.7886, 15.9121, 23.0582, 38.1828, -28.7, -29.8804
2.28067, -1, 17.8195, 15.8963, 23.0565, 38.2142, -28.6658, -29.8957
2.28914, -1, 17.8441, 15.8843, 23.0557, 38.2337, -28.6444, -29.9049
2.29504, -1, 17.8542, 15.8796, 23.0555, 38.2401, -28.6373, -29.9078
2.30457, -1, 17.8697, 15.8724, 23.0552, 38.2483, -28.6283, -29.9117
2.31211, -1, 17.8788, 15.8682, 23.0551, 38.2523, -28.6239, -29.9135
2.32005, 2, 17.8831, 15.8662, 23.0551, 38.2542, -28.6218, -29.9144
2.32807, 2, 17.885, 15.8652, 23.0551, 38.2551, -28.6208, -29.9148
2.33613, 2, 17.8851, 15.8647, 23.0551, 38.2555, -28.6204, -29.915
2.34406, 2, 17.8845, 15.8645, 23.0551, 38.2557, -28.6201, -29.9151
2.3521, 2, 17.8837, 15.8644, 23.0551, 38.2558, -28.6201, -29.9151
2.36013, 2, 17.8831, 15.8643, 23.0551, 38.2559, -28.62, -29.9152
2.36706, 2, 17.8828, 15.8643, 23.0551, 38.2559, -28.62, -29.9152
2.37606, 2, 17.8827, 15.8642, 23.0551, 38.2559, -28.62, -29.9152
2.38411, 2, 17.8827, 15.864, 23.0551, 38.2559, -28.62, -29.9152
2.39105, 2, 17.8829, 15.8637, 23.0551, 38.2559, -28.62, -29.9152
2.40007, 2, 17.8833, 15.8634, 23.0551, 38.2559, -28.62, -29.9152
2.40812, 2, 17.8837, 15.8631, 23.0551, 38.2559, -28.62, -29.9151
2.41615, 2, 17.8843, 15.8628, 23.0551, 38.2559, -28.62, -29.9151
2.42414, 2, 17.8852, 15.8627, 23.0551, 38.2559, -28.62, -29.9151
2.43212, 2, 17.886, 15.8626, 23.0551, 38.2559, -28.6201, -29.9151
2.44007, 2, 17.8866, 15.8626, 23.0551, 38.2559, -28.6201, -29.9151
2.44806, 2, 17.8871, 15.8626, 23.0551, 38.2559, -28.6201, -29.9151
2.45612, 2, 17.8873, 15.8626, 23.0551, 38.2559, -28.62, -29.9151
2.46406, 2, 17.8874, 15.8627, 23.0551, 38.2559, -28.62, -29.9151
2.47112, 2, 17.8875, 15.8627, 23.0551, 38.2558, -28.62, -29.9151
2.47906, 2, 17.8875, 15.8627, 23.0551, 38.2559, -28.6201, -29.9152
2.48712, 2, 17.8875, 15.8626, 23.0551, 38.2559, -28.6202, -29.9152
2.49514, 2, 17.8875, 15.8626, 23.0551, 38.2559, -28.6202, -29.9152
2.50309, 2, 17.8874, 15.8626, 23.0551, 38.2558, -28.6202, -29.9152
2.51115, 2, 17.8871, 15.8625, 23.0551, 38.2558, -28.6202, -29.9152
2.51921, 2, 17.887, 15.8624, 23.0551, 38.2558, -28.6202, -29.9152
2.52716, 2, 17.8869, 15.8623, 23.0551, 38.2558, -28.6202, -29.9151
2.53518, 2, 17.8868, 15.8623, 23.055, 38.2558, -28.6202, -29.9152
2.54323, 2, 17.8868, 15.8623, 23.055, 38.2558, -28.6203, -29.9151
2.55112, 2, 17.8868, 15.8623, 23.055, 38.2559, -28.6203, -29.9151
2.55909, 2, 17.8868, 15.8623, 23.0551, 38.2559, -28.6203, -29.9151
2.56723, 2, 17.8868, 15.8624, 23.0551, 38.2559, -28.6203, -29.9151
2.57511, 2, 17.8868, 15.8624, 23.0551, 38.2559, -28.6203, -29.9152
2.58316, 2, 17.8868, 15.8624, 23.0551, 38.2559, -28.6204, -29.9152
2.59122, 2, 17.8868, 15.8624, 23.0551, 38.2559, -28.6204, -29.9151
2.5993, 2, 17.8868, 15.8624, 23.0551, 38.2559, -28.6204, -29.915
2.60748, 2, 17.8868, 15.8623, 23.0551, 38.2559, -28.6204, -29.9151
2.61607, 2, 17.8868, 15.8623, 23.0551, 38.2558, -28.6204, -29.9151
2.62414, 2, 17.8868, 15.8623, 23.0551, 38.2558, -28.6205, -29.9151
2.63152, 2, 17.8867, 15.8623, 23.0551, 38.2558, -28.6205, -29.9151
2.6396, 2, 17.8867, 15.8623, 23.0551, 38.2557, -28.6205, -29.9151
2.64822, 2, 17.8866, 15.8623, 23.0551, 38.2558, -28.6205, -29.9152
2.65584, 2, 17.8866, 15.8623, 23.0551, 38.2558, -28.6205, -29.9151
2.66416, 2, 17.8866, 15.8623, 23.0551, 38.2558, -28.6205, -29.9151
2.67168, 2, 17.8866, 15.8624, 23.0551, 38.2558, -28.6206, -29.9151
2.68008, 2, 17.8866, 15.8624, 23.0551, 38.2558, -28.6206, -29.9151
2.6876, 2, 17.8866, 15.8624, 23.0551, 38.2558, -28.6206, -29.9151
2.69615, 2, 17.8865, 15.8624, 23.0551, 38.2558, -28.6206, -29.9151
2.70304, 2, 17.8865, 15.8624, 23.0551, 38.2558, -28.6206, -29.9151
2.71212, 2, 17.8865, 15.8624, 23.0551, 38.2558, -28.6206, -29.9151
2.71905, 2, 17.8865, 15.8624, 23.0551, 38.2558, -28.6206, -29.9151
2.72831, 2, 17.8865, 15.8624, 23.0551, 38.2558, -28.6206, -29.9151
2.73513, 2, 17.8865, 15.8624, 23.0551, 38.2558, -28.6206, -29.9151
2.74455, 2, 17.8865, 15.8624, 23.0551, 38.2558, -28.6206, -29.9151
2.75262, 2, 17.8865, 15.8624, 23.0551, 38.2558, -28.6206, -29.9151
2.76058, 2, 17.8864, 15.8624, 23.0551, 38.2558, -28.6207, -29.9151
2.76869, 2, 17.8864, 15.8624, 23.0551, 38.2558, -28.6208, -29.9151
2.77667, 2, 17.8864, 15.8624, 23.0551, 38.2558, -28.6208, -29.9151
2.78462, 2, 17.8864, 15.8624, 23.0551, 38.2557, -28.6208, -29.915
2.79278, 2, 17.8864, 15.8624, 23.0551, 38.2558, -28.6208, -29.915
2.80089, 2, 17.8863, 15.8624, 23.0551, 38.2558, -28.6208, -29.915
2.80711, 2, 17.8863, 15.8624, 23.0551, 38.2558, -28.6208, -29.915
2.8161, 2, 17.8863, 15.8624, 23.0551, 38.2557, -28.6208, -29.915
2.82405, 2, 17.8862, 15.8624, 23.0551, 38.2557, -28.6208, -29.9151
2.83204, 2, 17.8862, 15.8624, 23.0551, 38.2557, -28.6208, -29.915
2.84013, 2, 17.8862, 15.8624, 23.0551, 38.2557, -28.6208, -29.9151
2.84804, 2, 17.8861, 15.8624, 23.0551, 38.2557, -28.6208, -29.915
2.85605, 2, 17.8861, 15.8624, 23.0551, 38.2557, -28.6208, -29.9151
2.86416, 2, 17.886, 15.8624, 23.0551, 38.2557, -28.6208, -29.915
2.87104, 2, 17.886, 15.8624, 23.0551, 38.2557, -28.6208, -29.9151
2.88006, 2, 17.8859, 15.8624, 23.0551, 38.2557, -28.6208, -29.915
2.88811, 2, 17.8859, 15.8624, 23.0551, 38.2557, -28.6208, -29.915
2.89604, 2, 17.8858, 15.8624, 23.0551, 38.2557, -28.6209, -29.915
2.90404, 2, 17.8858, 15.8625, 23.0551, 38.2557, -28.6209, -29.9151
2.9121, 2, 17.8857, 15.8625, 23.0551, 38.2556, -28.6209, -29.915
2.92005, 2, 17.8857, 15.8624, 23.0551, 38.2556, -28.6209, -29.915
2.92817, 2, 17.8857, 15.8624, 23.0551, 38.2556, -28.6209, -29.915
2.93611, 2, 17.8856, 15.8624, 23.0551, 38.2557, -28.6209, -29.915
2.94596, 2, 17.8855, 15.8624, 23.0551, 38.2556, -28.621, -29.9151
2.95205, 2, 17.8855, 15.8624, 23.0551, 38.2557, -28.621, -29.915
2.96012, 2, 17.8854, 15.8624, 23.0551, 38.2556, -28.621, -29.915
2.96805, 2, 17.8854, 15.8624, 23.0551, 38.2557, -28.621, -29.915
2.97512, 2, 17.8854, 15.8624, 23.0551, 38.2557, -28.6211, -29.9149
2.98411, 2, 17.8853, 15.8624, 23.0551, 38.2556, -28.621, -29.915
2.99113, 2, 17.8853, 15.8624, 23.0551, 38.2556, -28.6211, -29.915
2.99913, 2, 17.8852, 15.8625, 23.0551, 38.2555, -28.6211, -29.9149
3.00708, 2, 17.8852, 15.8625, 23.0551, 38.2555, -28.6211, -29.9149
3.01514, 2, 17.8851, 15.8625, 23.0551, 38.2555, -28.6211, -29.915
3.0232, 2, 17.8851, 15.8625, 23.0551, 38.2555, -28.6211, -29.915
3.03115, 2, 17.885, 15.8625, 23.0551, 38.2555, -28.6212, -29.915
3.03915, 2, 17.885, 15.8625, 23.0551, 38.2555, -28.6212, -29.915
3.04721, 2, 17.8849, 15.8625, 23.0551, 38.2554, -28.6212, -29.9149
3.05513, 2, 17.8848, 15.8625, 23.0551, 38.2554, -28.6212, -29.915
3.06305, 2, 17.8848, 15.8625, 23.0551, 38.2554, -28.6212, -29.915
3.07116, 2, 17.8847, 15.8625, 23.0551, 38.2554, -28.6212, -29.915
3.07908, 2, 17.8847, 15.8625, 23.0551, 38.2555, -28.6212, -29.915
3.08712, 2, 17.8846, 15.8625, 23.0551, 38.2554, -28.6212, -29.9149
3.0953, 2, 17.8845, 15.8625, 23.0551, 38.2554, -28.6212, -29.9149
3.10349, 2, 17.8845, 15.8625, 23.0551, 38.2554, -28.6212, -29.915
3.11128, 2, 17.8845, 15.8625, 23.0551, 38.2554, -28.6212, -29.915
3.11944, 2, 17.8844, 15.8625, 23.0551, 38.2554, -28.6212, -29.915
3.12785, 2, 17.8844, 15.8625, 23.0551, 38.2554, -28.6212, -29.915
3.13612, 2, 17.8843, 15.8625, 23.0551, 38.2554, -28.6212, -29.9149
3.1436, 2, 17.8843, 15.8625, 23.0551, 38.2554, -28.6212, -29.9149
3.15221, 2, 17.8842, 15.8625, 23.0551, 38.2553, -28.6212, -29.9149
3.15963, 2, 17.8842, 15.8625, 23.0551, 38.2553, -28.6212, -29.9149
3.16815, 2, 17.8841, 15.8625, 23.0551, 38.2553, -28.6213, -29.9149
3.17589, 2, 17.8841, 15.8625, 23.0551, 38.2552, -28.6213, -29.9149
3.18405, 2, 17.884, 15.8625, 23.0551, 38.2552, -28.6212, -29.9149
3.19108, 2, 17.884, 15.8625, 23.0551, 38.2552, -28.6212, -29.9149
3.20015, 2, 17.8839, 15.8625, 23.0551, 38.2552, -28.6213, -29.9149
3.20703, 2, 17.8839, 15.8625, 23.0551, 38.2552, -28.6213, -29.9149
3.21612, 2, 17.8839, 15.8626, 23.0551, 38.2551, -28.6212, -29.9149
3.22303, 2, 17.8839, 15.8626, 23.0551, 38.2551, -28.6212, -29.9149
3.23103, 2, 17.8838, 15.8626, 23.0551, 38.2551, -28.6212, -29.9149
3.24032, 2, 17.8838, 15.8626, 23.0551, 38.2551, -28.6213, -29.9149
3.24703, 2, 17.8838, 15.8626, 23.0551, 38.2551, -28.6213, -29.9149
3.25643, 2, 17.8837, 15.8626, 23.0551, 38.2551, -28.6213, -29.9149
3.26308, 2, 17.8837, 15.8626, 23.0551, 38.2551, -28.6212, -29.9149
3.27294, 2, 17.8837, 15.8626, 23.0551, 38.255, -28.6212, -29.9149
3.28057, 2, 17.8837, 15.8626, 23.0551, 38.255, -28.6213, -29.9149
3.28862, 2, 17.8836, 15.8626, 23.0551, 38.255, -28.6213, -29.9149
3.29694, 2, 17.8836, 15.8626, 23.0551, 38.255, -28.6214, -29.9149
3.30458, 2, 17.8836, 15.8626, 23.0551, 38.255, -28.6213, -29.9149
3.31203, 2, 17.8836, 15.8626, 23.0551, 38.2549, -28.6213, -29.9149
3.3211, 2, 17.8836, 15.8626, 23.0551, 38.2549, -28.6213, -29.9149
3.32709, 2, 17.8836, 15.8626, 23.0551, 38.2549, -28.6213, -29.9149
3.33603, 2, 17.8836, 15.8626, 23.0551, 38.2549, -28.6214, -29.9149
3.3441, 2, 17.8836, 15.8626, 23.0551, 38.2549, -28.6214, -29.9148
3.35204, 2, 17.8836, 15.8626, 23.0551, 38.2549, -28.6214, -29.9149
3.36004, 2, 17.8836, 15.8626, 23.0551, 38.2548, -28.6214, -29.9149
3.36809, 2, 17.8835, 15.8626, 23.0551, 38.2549, -28.6214, -29.9149
3.37504, 2, 17.8835, 15.8626, 23.0551, 38.2549, -28.6214, -29.9149
3.38403, 2, 17.8835, 15.8626, 23.0551, 38.2549, -28.6215, -29.9148
3.39208, 2, 17.8835, 15.8626, 23.0551, 38.2548, -28.6215, -29.9148
3.40003, 2, 17.8835, 15.8626, 23.0551, 38.2548, -28.6215, -29.9148
3.40802, 4, 17.8835, 15.8626, 23.0551, 38.2549, -28.6215, -29.9149
3.41503, 4, 17.8835, 15.8626, 23.0551, 38.2548, -28.6215, -29.9148
3.42403, 4, 17.8835, 15.8626, 23.0551, 38.2548, -28.6215, -29.9148
3.43213, 4, 17.8835, 15.8626, 23.0551, 38.2547, -28.6215, -29.9148
3.4401, 4, 17.8835, 15.8626, 23.0551, 38.2547, -28.6215, -29.9148
3.44909, 4, 17.8835, 15.8626, 23.0551, 38.2546, -28.6215, -29.9148
3.45603, 4, 17.8834, 15.8626, 23.0551, 38.2546, -28.6215, -29.9148
3.4641, 4, 17.8834, 15.8626, 23.0551, 38.2546, -28.6215, -29.9148
3.60468, 4, 17.8677, 15.862, 23.061, 38.2312, -28.6279, -29.8992
3.60606, 4, 17.8677, 15.862, 23.061, 38.2312, -28.6279, -29.8992
3.60808, 4, 17.8651, 15.8616, 23.0635, 38.2216, -28.631, -29.8914
3.60928, 4, 17.8651, 15.8616, 23.0635, 38.2216, -28.631, -29.8914
3.61114, 4, 17.8651, 15.8616, 23.0635, 38.2216, -28.6348, -29.8817
3.61249, 4, 17.8621, 15.8611, 23.0667, 38.2102, -28.6348, -29.8817
3.61366, 4, 17.8621, 15.8611, 23.0667, 38.2102, -28.6348, -29.8817
3.61745, 4, 17.8589, 15.8605, 23.0706, 38.1966, -28.6394, -29.8701
3.61964, 5, 17.8556, 15.8597, 23.0752, 38.1811, -28.6449, -29.8565
3.62338, 5, 17.8556, 15.8597, 23.0804, 38.1634, -28.651, -29.841
3.62491, 5, 17.8522, 15.8587, 23.0804, 38.1634, -28.651, -29.841
3.62612, 5, 17.8522, 15.8587, 23.0804, 38.1634, -28.651, -29.841
3.62812, 5, 17.8488, 15.8576, 23.0864, 38.1436, -28.6577, -29.8236
3.62932, 5, 17.8488, 15.8576, 23.0864, 38.1436, -28.6577, -29.8236
3.63391, 5, 17.8453, 15.8564, 23.0929, 38.1216, -28.6651, -29.8044
3.63594, 5, 17.8417, 15.8551, 23.0998, 38.0981, -28.6731, -29.7838
3.63715, 5, 17.8417, 15.8551, 23.0998, 38.0981, -28.6731, -29.7838
3.63835, 5, 17.8417, 15.8551, 23.0998, 38.0981, -28.6731, -29.7838
3.64104, 5, 17.838, 15.8537, 23.1072, 38.0738, -28.6815, -29.7621
3.64232, 5, 17.838, 15.8537, 23.1072, 38.0738, -28.6815, -29.7621
3.64436, 5, 17.8338, 15.8522, 23.1148, 38.0488, -28.6902, -29.7396
3.64811, 5, 17.8292, 15.8506, 23.1226, 38.0232, -28.6992, -29.7165
3.64942, 5, 17.8292, 15.8506, 23.1226, 38.0232, -28.6992, -29.7165
3.65562, 5, 17.8187, 15.8474, 23.1388, 37.9692, -28.7177, -29.6694
3.66449, 5, 17.8072, 15.844, 23.1553, 37.9149, -28.7372, -29.6207
3.67181, 5, 17.7951, 15.8405, 23.1717, 37.8605, -28.7571, -29.5715
3.68014, 5, 17.7825, 15.8369, 23.1882, 37.8047, -28.7773, -29.5227
3.68701, 5, 17.7762, 15.8351, 23.1967, 37.7774, -28.7873, -29.4984
3.69501, 5, 17.7635, 15.8315, 23.2135, 37.7229, -28.807, -29.4496
3.70406, 5, 17.7442, 15.8258, 23.2386, 37.6398, -28.8364, -29.3759
3.71102, 5, 17.7378, 15.8238, 23.247, 37.6127, -28.8463, -29.3515
3.71902, 5, 17.725, 15.8198, 23.2639, 37.5577, -28.8661, -29.3031
3.7282, 5, 17.7058, 15.8138, 23.2889, 37.4756, -28.8967, -29.2296
3.73501, 5, 17.6994, 15.8117, 23.2972, 37.4486, -28.907, -29.2051
3.7431, 5, 17.6864, 15.8077, 23.3141, 37.3935, -28.9275, -29.1569
3.75248, 5, 17.6668, 15.8019, 23.3393, 37.3121, -28.9579, -29.0847
3.75901, 5, 17.6602, 15.8, 23.3476, 37.2849, -28.9679, -29.0603
3.76709, 5, 17.6473, 15.7962, 23.3643, 37.2299, -28.988, -29.0116
3.77657, 5, 17.6281, 15.7906, 23.3894, 37.1492, -29.0183, -28.9396
3.78547, 5, 17.6154, 15.7867, 23.406, 37.0942, -29.0389, -28.8913
3.79108, 5, 17.609, 15.7848, 23.4144, 37.0671, -29.0493, -28.8669
3.80063, 5, 17.5899, 15.7791, 23.4398, 36.986, -29.0803, -28.7945
3.8095, 5, 17.5835, 15.7772, 23.4481, 36.9585, -29.1006, -28.7468
3.81508, 5, 17.5707, 15.7734, 23.4648, 36.9047, -29.1106, -28.7228
3.8251, 5, 17.5517, 15.7677, 23.49, 36.8234, -29.1406, -28.6502
3.83109, 5, 17.5454, 15.7658, 23.4983, 36.7962, -29.1507, -28.6264
3.84002, 5, 17.5327, 15.7619, 23.5147, 36.7431, -29.1711, -28.5789
3.84809, 5, 17.52, 15.758, 23.5314, 36.6889, -29.1919, -28.5313
3.856, 5, 17.5071, 15.754, 23.5482, 36.6351, -29.2128, -28.4831
3.86403, 5, 17.494, 15.75, 23.5648, 36.5823, -29.2334, -28.4355
3.87207, 5, 17.4811, 15.7461, 23.5814, 36.5282, -29.2538, -28.3885
3.88, 5, 17.4682, 15.7422, 23.5981, 36.475, -29.2741, -28.3413
3.88803, 5, 17.4553, 15.7384, 23.6148, 36.422, -29.2944, -28.2936
3.89606, 5, 17.4426, 15.7347, 23.6312, 36.3679, -29.3149, -28.2464
3.904, 5, 17.4297, 15.731, 23.648, 36.3155, -29.3358, -28.1997
3.91203, 5, 17.4169, 15.7272, 23.6646, 36.2622, -29.3568, -28.1527
3.92007, 5, 17.4042, 15.7234, 23.6811, 36.2085, -29.3775, -28.1053
3.92801, 5, 17.3913, 15.7197, 23.6976, 36.1561, -29.3979, -28.0585
3.9361, 5, 17.3785, 15.716, 23.7141, 36.1024, -29.4181, -28.0122
3.945, 5, 17.3658, 15.7123, 23.7305, 36.0493, -29.4384, -27.9657
3.95203, 5, 17.3529, 15.7086, 23.7471, 35.9968, -29.4589, -27.9186
3.96002, 5, 17.34, 15.7049, 23.7638, 35.9431, -29.4798, -27.8722
3.96807, 5, 17.3273, 15.7012, 23.7805, 35.8908, -29.5009, -27.826
3.976, 5, 17.3145, 15.6975, 23.7969, 35.8381, -29.5218, -27.7794
3.98403, 5, 17.3016, 15.6937, 23.8135, 35.7849, -29.5424, -27.7324
3.99209, 5, 17.2888, 15.6898, 23.83, 35.7331, -29.5629, -27.6861
3.99999, 5, 17.2759, 15.6859, 23.8462, 35.6804, -29.5834, -27.64
4.00803, 5, 17.263, 15.6822, 23.8626, 35.6278, -29.6041, -27.5938
4.0161, 5, 17.2502, 15.6785, 23.8792, 35.5759, -29.6251, -27.5471
4.024, 5, 17.2374, 15.6749, 23.8957, 35.523, -29.6462, -27.5011
4.03211, 5, 17.2246, 15.6713, 23.9121, 35.471, -29.667, -27.4555
4.04, 5, 17.2117, 15.6677, 23.9286, 35.4193, -29.6877, -27.4096
4.04723, 5, 17.1986, 15.664, 23.945, 35.3664, -29.708, -27.3631
4.05555, 5, 17.1855, 15.6605, 23.9612, 35.3146, -29.7285, -27.3174
4.06301, 5, 17.1726, 15.6569, 23.9776, 35.2625, -29.7491, -27.2721
4.07201, 5, 17.1596, 15.6534, 23.9942, 35.2098, -29.7702, -27.2267
4.0808, 5, 17.1467, 15.65, 24.0105, 35.1585, -29.7916, -27.1807
4.088, 5, 17.1339, 15.6466, 24.0268, 35.1062, -29.8127, -27.1352
4.09599, 5, 17.121, 15.6432, 24.0432, 35.0539, -29.8336, -27.0902
4.10516, 5, 17.1081, 15.6396, 24.0594, 35.0027, -29.8544, -27.0449
4.11397, 5, 17.0953, 15.6361, 24.0755, 34.9505, -29.875, -26.9991
4.11937, 5, 17.0825, 15.6325, 24.092, 34.899, -29.896, -26.9538
4.12897, 5, 17.0696, 15.6288, 24.1085, 34.8481, -29.9174, -26.9091
4.13604, 5, 17.0568, 15.6251, 24.1247, 34.7961, -29.9388, -26.8642
4.14357, 5, 17.0439, 15.6215, 24.1411, 34.7451, -29.96, -26.8187
4.15308, 5, 17.0309, 15.618, 24.1574, 34.694, -29.9809, -26.7737
4.1601, 5, 17.0181, 15.6145, 24.1735, 34.6421, -30.0016, -26.7291
4.16824, 5, 17.0052, 15.6111, 24.1895, 34.5915, -30.0223, -26.6844
4.17633, 5, 16.9987, 15.6077, 24.2058, 34.5403, -30.0433, -26.639
4.18363, 5, 16.9858, 15.6043, 24.2221, 34.4885, -30.0648, -26.5939
4.19218, 5, 16.9665, 15.601, 24.2382, 34.438, -30.0864, -26.5495
4.199, 5, 16.96, 15.5993, 24.2463, 34.4125, -30.0971, -26.5274
4.2081, 5, 16.9407, 15.5943, 24.2708, 34.335, -30.1289, -26.46
4.21499, 5, 16.9342, 15.5927, 24.2789, 34.3099, -30.1394, -26.4375
4.22653, 5, 16.9148, 15.5878, 24.3029, 34.2335, -30.1709, -26.3708
4.23095, 5, 16.9083, 15.5861, 24.311, 34.2077, -30.1815, -26.3487
4.24023, 5, 16.8887, 15.5812, 24.3355, 34.1322, -30.214, -26.2818
4.24706, 5, 16.8822, 15.5795, 24.3435, 34.1066, -30.2249, -26.2592
4.255, 5, 16.8692, 15.5761, 24.3594, 34.0555, -30.2464, -26.2149
4.26451, 5, 16.8496, 15.5709, 24.3836, 33.9805, -30.2782, -26.149
4.27334, 5, 16.8367, 15.5674, 24.3994, 33.9295, -30.2991, -26.1046
4.279, 5, 16.8302, 15.5657, 24.4074, 33.9042, -30.3096, -26.0822
4.28852, 5, 16.8108, 15.5605, 24.4317, 33.8293, -30.3417, -26.0161
4.29734, 5, 16.7978, 15.5572, 24.4478, 33.7785, -30.3636, -25.9726
4.30299, 5, 16.7914, 15.5555, 24.4558, 33.7535, -30.3745, -25.9508
4.3125, 5, 16.7785, 15.5523, 24.4718, 33.704, -30.3961, -25.9066
4.31998, 5, 16.7657, 15.5491, 24.4879, 33.6533, -30.4175, -25.8625
4.32699, 5, 16.7528, 15.546, 24.5038, 33.6032, -30.4388, -25.8192
4.33609, 5, 16.7398, 15.5428, 24.5196, 33.5535, -30.4599, -25.7759
4.344, 5, 16.7267, 15.5397, 24.5356, 33.5027, -30.4814, -25.7323
4.35202, 5, 16.7135, 15.5366, 24.5517, 33.4529, -30.5033, -25.6884
4.35998, 5, 16.7005, 15.5335, 24.5675, 33.4034, -30.5251, -25.6452
4.36804, 5, 16.6874, 15.5305, 24.5836, 33.3529, -30.5466, -25.6022
4.375, 5, 16.6743, 15.5275, 24.5996, 33.3036, -30.5679, -25.5588
4.38399, 5, 16.6613, 15.5245, 24.6154, 33.2541, -30.5891, -25.515
4.39204, 5, 16.6483, 15.5215, 24.6312, 33.2039, -30.6104, -25.4716
4.39903, 5, 16.6352, 15.5184, 24.6472, 33.155, -30.6322, -25.4287
4.40806, 5, 16.6223, 15.5153, 24.6633, 33.1058, -30.6543, -25.3856
4.41606, 5, 16.6094, 15.5121, 24.679, 33.0558, -30.6763, -25.3422
4.42306, 5, 16.5965, 15.5089, 24.6947, 33.0071, -30.6981, -25.2988
4.43205, 5, 16.5836, 15.5057, 24.7106, 32.9579, -30.7196, -25.2561
4.44007, 5, 16.5705, 15.5025, 24.7263, 32.9081, -30.7411, -25.2134
4.44705, 5, 16.5575, 15.4994, 24.7419, 32.8597, -30.7627, -25.1703
4.45605, 5, 16.5446, 15.4964, 24.7579, 32.8105, -30.7848, -25.1271
4.46399, 5, 16.5316, 15.4934, 24.7739, 32.7609, -30.8072, -25.0845
4.47198, 5, 16.5186, 15.4904, 24.7896, 32.7126, -30.8291, -25.0422
4.48007, 5, 16.5057, 15.4875, 24.8053, 32.6632, -30.8508, -24.9997
4.48798, 5, 16.4926, 15.4847, 24.8212, 32.6138, -30.8723, -24.9568
4.49599, 5, 16.4796, 15.4818, 24.8367, 32.5655, -30.8938, -24.9143
4.50405, 5, 16.4667, 15.479, 24.8522, 32.5163, -30.9155, -24.8725
4.51198, 5, 16.4536, 15.4761, 24.868, 32.4671, -30.9377, -24.8303
4.52, 5, 16.4406, 15.4733, 24.8839, 32.419, -30.96, -24.7877
4.52804, 5, 16.4276, 15.4704, 24.8995, 32.37, -30.982, -24.7453
4.53599, 5, 16.4143, 15.4676, 24.9151, 32.3212, -31.0038, -24.7035
4.54406, 5, 16.4011, 15.4648, 24.9309, 32.2735, -31.0255, -24.662
4.55115, 5, 16.3881, 15.4619, 24.9465, 32.2248, -31.0472, -24.62
4.55916, 5, 16.375, 15.4591, 24.962, 32.1762, -31.0693, -24.5776
4.567, 5, 16.3618, 15.4562, 24.9777, 32.1286, -31.0917, -24.5357
4.57502, 5, 16.3489, 15.4532, 24.9937, 32.0798, -31.1139, -24.4941
4.5831, 5, 16.3357, 15.4502, 25.0092, 32.0315, -31.1358, -24.4523
4.59142, 5, 16.3226, 15.4472, 25.0246, 31.9841, -31.1575, -24.4098
4.59914, 5, 16.3095, 15.4442, 25.0403, 31.9355, -31.1791, -24.3678
4.60722, 5, 16.2965, 15.4411, 25.0558, 31.8871, -31.201, -24.3262
4.6153, 5, 16.2834, 15.4381, 25.0711, 31.8396, -31.2234, -24.2844
4.62339, 5, 16.2703, 15.4352, 25.0868, 31.791, -31.2461, -24.2425
4.63139, 5, 16.257, 15.4324, 25.1027, 31.7428, -31.2684, -24.2005
4.63975, 5, 16.2437, 15.4296, 25.1183, 31.6956, -31.2904, -24.1589
4.64809, 5, 16.2305, 15.4269, 25.1338, 31.6472, -31.3124, -24.1177
4.65616, 5, 16.2172, 15.4242, 25.1493, 31.5991, -31.3344, -24.0761
4.66359, 5, 16.204, 15.4215, 25.1648, 31.552, -31.3568, -24.034
4.6721, 5, 16.1909, 15.4189, 25.18, 31.5039, -31.3795, -23.9924
4.68015, 5, 16.1778, 15.4162, 25.1954, 31.4562, -31.4021, -23.9514
4.68777, 5, 16.1712, 15.4149, 25.2032, 31.4329, -31.4132, -23.9104
4.696, 5, 16.1517, 15.411, 25.2267, 31.3618, -31.4463, -23.8688
4.70408, 5, 16.1387, 15.4084, 25.2421, 31.3143, -31.4682, -23.8274
4.71111, 5, 16.1321, 15.4071, 25.2498, 31.291, -31.4792, -23.8069
4.71904, 5, 16.1191, 15.4046, 25.2655, 31.2441, -31.5015, -23.7663
4.72818, 5, 16.0994, 15.4008, 25.2884, 31.1725, -31.5358, -23.7049
4.73499, 5, 16.0927, 15.3995, 25.296, 31.1493, -31.5472, -23.6842
4.74435, 5, 16.0731, 15.3957, 25.3194, 31.0787, -31.5808, -23.6226
4.75106, 5, 16.0666, 15.3944, 25.3272, 31.0547, -31.5919, -23.6024
4.76044, 5, 16.0469, 15.3904, 25.3501, 30.9848, -31.6252, -23.5421
4.76698, 5, 16.0404, 15.3891, 25.3577, 30.9613, -31.6364, -23.5218
4.77662, 5, 16.0206, 15.3851, 25.3808, 30.8898, -31.6708, -23.4604
4.78474, 5, 16.0075, 15.3823, 25.3959, 30.8436, -31.6937, -23.42
4.79257, 5, 15.9944, 15.3797, 25.4111, 30.7966, -31.7162, -23.3798
4.80058, 5, 15.9813, 15.377, 25.4266, 30.7493, -31.7384, -23.3395
4.80867, 5, 15.9747, 15.3744, 25.4422, 30.7031, -31.7607, -23.2985
4.81656, 5, 15.9616, 15.3731, 25.4498, 30.6799, -31.7831, -23.258
4.82397, 5, 15.9484, 15.3706, 25.465, 30.6325, -31.7945, -23.2379
4.83197, 5, 15.9351, 15.3682, 25.4804, 30.5861, -31.8176, -23.1979
4.84004, 5, 15.9219, 15.3657, 25.4956, 30.5404, -31.8406, -23.1577
4.84797, 5, 15.9087, 15.3633, 25.5105, 30.4936, -31.8633, -23.1171
4.856, 5, 15.8955, 15.361, 25.5256, 30.4471, -31.8858, -23.0768
4.86401, 5, 15.8825, 15.3586, 25.541, 30.4014, -31.9082, -23.037
4.87197, 5, 15.8694, 15.3563, 25.5564, 30.3547, -31.9308, -22.9973
4.87997, 5, 15.8562, 15.354, 25.5715, 30.3084, -31.9539, -22.9573
4.88801, 5, 15.8431, 15.3516, 25.5867, 30.2631, -31.977, -22.9169
4.89598, 5, 15.8299, 15.3493, 25.602, 30.2166, -31.9998, -22.877
4.90397, 5, 15.8168, 15.347, 25.617, 30.1701, -32.0222, -22.8376
4.91203, 5, 15.8036, 15.3447, 25.632, 30.1246, -32.0445, -22.7983
4.91997, 5, 15.7903, 15.3424, 25.6474, 30.0784, -32.0669, -22.7585
4.92797, 5, 15.7769, 15.3401, 25.6627, 30.0318, -32.0898, -22.7187
4.93605, 5, 15.7637, 15.3378, 25.6777, 29.9865, -32.113, -22.6796
4.94406, 5, 15.7504, 15.3355, 25.6927, 29.9407, -32.1361, -22.6407
4.95197, 5, 15.7371, 15.3332, 25.7078, 29.8942, -32.1588, -22.6014
4.96003, 5, 15.7239, 15.3307, 25.7227, 29.8491, -32.1815, -22.5617
4.96799, 5, 15.7106, 15.3283, 25.7376, 29.8036, -32.204, -22.5222
4.97598, 5, 15.6974, 15.326, 25.7527, 29.7574, -32.2268, -22.4835
4.98404, 5, 15.6842, 15.3235, 25.7681, 29.7125, -32.25, -22.445
4.99197, 5, 15.6711, 15.321, 25.7832, 29.6677, -32.2732, -22.4061
5.00001, 5, 15.6578, 15.3186, 25.7981, 29.6217, -32.2959, -22.3668
5.00798, 5, 15.6446, 15.3162, 25.8131, 29.5766, -32.3185, -22.3279
5.01597, 5, 15.6313, 15.3138, 25.8281, 29.5319, -32.341, -22.2893
5.02407, 5, 15.6179, 15.3115, 25.8428, 29.486, -32.3637, -22.2507
5.03196, 5, 15.6046, 15.3093, 25.8577, 29.4408, -32.3868, -22.2117
5.03997, 5, 15.5913, 15.3071, 25.8728, 29.3965, -32.4104, -22.1722
5.04807, 5, 15.5782, 15.3049, 25.8879, 29.3511, -32.4336, -22.1336
5.05509, 5, 15.565, 15.3028, 25.9027, 29.3057, -32.4566, -22.0953
5.06397, 5, 15.5518, 15.3007, 25.9177, 29.2613, -32.4794, -22.057
5.07205, 5, 15.5385, 15.2986, 25.9328, 29.216, -32.5023, -22.0181
5.07996, 5, 15.5253, 15.2965, 25.9476, 29.1704, -32.5256, -21.979
5.08796, 5, 15.5121, 15.2945, 25.9624, 29.1261, -32.5492, -21.9408
5.09606, 5, 15.4988, 15.2924, 25.9774, 29.0814, -32.5726, -21.9028
5.10396, 5, 15.4855, 15.2904, 25.9926, 29.0359, -32.5955, -21.8645
5.11212, 5, 15.4721, 15.2884, 26.0073, 28.9915, -32.6183, -21.8259
5.12005, 5, 15.4586, 15.2864, 26.022, 28.9472, -32.6411, -21.7873
5.12735, 5, 15.4452, 15.2844, 26.0369, 28.902, -32.6642, -21.7493
5.13618, 5, 15.4318, 15.2824, 26.0517, 28.8577, -32.6878, -21.7115
5.14341, 5, 15.4184, 15.2804, 26.0663, 28.814, -32.7113, -21.6736
5.15158, 5, 15.4051, 15.2785, 26.0812, 28.7693, -32.7346, -21.6351
5.16036, 5, 15.3917, 15.2765, 26.0963, 28.7247, -32.7576, -21.5969
5.16752, 5, 15.3782, 15.2745, 26.1112, 28.681, -32.7805, -21.5595
5.17562, 5, 15.3649, 15.2725, 26.1258, 28.6365, -32.8037, -21.5222
5.18464, 5, 15.3515, 15.2704, 26.1406, 28.5919, -32.8273, -21.4844
5.19286, 5, 15.3382, 15.2683, 26.1554, 28.5484, -32.851, -21.4462
5.19996, 5, 15.3247, 15.2662, 26.17, 28.5044, -32.8744, -21.4083
5.20874, 5, 15.3111, 15.2642, 26.1845, 28.4597, -32.8974, -21.371
5.21777, 5, 15.2975, 15.2621, 26.1993, 28.4159, -32.9204, -21.334
5.2241, 5, 15.2841, 15.26, 26.2143, 28.3722, -32.9435, -21.2967
5.23101, 5, 15.2773, 15.259, 26.2217, 28.3499, -32.9552, -21.2778
5.23896, 5, 15.2638, 15.2569, 26.2362, 28.3054, -32.979, -21.24
5.24823, 5, 15.2436, 15.2537, 26.2583, 28.2403, -33.0146, -21.1842
5.25498, 5, 15.2369, 15.2527, 26.2657, 28.2183, -33.0263, -21.1656
5.26301, 5, 15.2235, 15.2507, 26.2803, 28.1738, -33.0496, -21.1286
5.27249, 5, 15.2035, 15.2477, 26.3021, 28.1087, -33.0843, -21.072
5.28147, 6, 15.1901, 15.2458, 26.3171, 28.065, -33.1079, -21.0346
5.28704, 6, 15.1835, 15.2449, 26.3245, 28.0428, -33.1199, -21.0162
5.29655, 6, 15.1633, 15.2421, 26.3463, 27.9781, -33.1555, -20.9609
5.30539, 6, 15.1565, 15.2404, 26.3608, 27.935, -33.1788, -20.924
5.31108, 6, 15.143, 15.2395, 26.3682, 27.913, -33.1903, -20.9052
5.32055, 6, 15.1297, 15.2378, 26.3827, 27.8694, -33.2134, -20.8493
5.32795, 6, 15.1162, 15.2361, 26.397, 27.8268, -33.2365, -20.831
5.33502, 6, 15.1029, 15.2344, 26.4116, 27.7836, -33.2603, -20.7945
5.344, 6, 15.0895, 15.2328, 26.4264, 27.7398, -33.2843, -20.7579
5.35196, 6, 15.076, 15.2311, 26.4412, 27.697, -33.308, -20.721
5.35902, 6, 15.0626, 15.2294, 26.4557, 27.6544, -33.3315, -20.6839
5.368, 6, 15.0493, 15.2277, 26.4702, 27.6107, -33.3547, -20.6474
5.37595, 6, 15.0358, 15.2259, 26.4848, 27.5675, -33.3781, -20.6111
5.38297, 6, 15.0224, 15.2242, 26.4992, 27.525, -33.4019, -20.5749
5.39195, 6, 15.0089, 15.2224, 26.5134, 27.4815, -33.4261, -20.5383
5.39994, 6, 14.9954, 15.2207, 26.5279, 27.4381, -33.4499, -20.5015
5.40702, 6, 14.9818, 15.219, 26.5426, 27.3958, -33.4734, -20.4654
5.41496, 6, 14.9684, 15.2172, 26.5571, 27.3531, -33.4967, -20.4296
5.42394, 6, 14.9549, 15.2155, 26.5714, 27.3097, -33.52, -20.3937
5.431, 6, 14.9414, 15.2138, 26.586, 27.2672, -33.5437, -20.3574
5.43995, 6, 14.9279, 15.2122, 26.6005, 27.2249, -33.5679, -20.3208
5.44895, 6, 14.9144, 15.2105, 26.6148, 27.1816, -33.592, -20.2847
5.45495, 6, 14.9009, 15.2088, 26.6291, 27.139, -33.6157, -20.2491
5.46394, 6, 14.8875, 15.2072, 26.6436, 27.0973, -33.6392, -20.2133
5.47206, 6, 14.874, 15.2055, 26.6583, 27.0548, -33.6628, -20.1774
5.48001, 6, 14.8605, 15.2037, 26.6726, 27.0119, -33.6865, -20.1412
5.48796, 6, 14.8469, 15.2021, 26.6869, 26.9701, -33.7108, -20.1052
5.49594, 6, 14.8332, 15.2003, 26.7013, 26.9281, -33.7349, -20.0695
5.50396, 6, 14.8196, 15.1986, 26.7156, 26.8853, -33.7587, -20.034
5.51194, 6, 14.8061, 15.1968, 26.7297, 26.8434, -33.7822, -19.998
5.52007, 6, 14.7925, 15.1951, 26.744, 26.8018, -33.8058, -19.9616
5.52797, 6, 14.7791, 15.1933, 26.7585, 26.7593, -33.8296, -19.9254
5.53512, 6, 14.7656, 15.1915, 26.7731, 26.7169, -33.8541, -19.8899
5.54402, 6, 14.7521, 15.1898, 26.7873, 26.6753, -33.8784, -19.8546
5.55195, 6, 14.7387, 15.1883, 26.8015, 26.6333, -33.9025, -19.819
5.55994, 6, 14.7252, 15.1867, 26.8159, 26.5906, -33.9263, -19.783
5.56801, 6, 14.7119, 15.1852, 26.8301, 26.5489, -33.95, -19.7469
5.57594, 6, 14.6984, 15.1838, 26.844, 26.5076, -33.974, -19.7115
5.58395, 6, 14.6847, 15.1824, 26.8582, 26.4652, -33.9983, -19.6764
5.59201, 6, 14.6711, 15.181, 26.8727, 26.4232, -34.0227, -19.641
5.59998, 6, 14.6576, 15.1797, 26.8871, 26.3822, -34.0465, -19.6054
5.60796, 6, 14.6441, 15.1785, 26.9012, 26.3405, -34.0702, -19.5698
5.61609, 6, 14.6306, 15.1772, 26.9154, 26.2984, -34.0938, -19.5348
5.62395, 6, 14.6171, 15.1759, 26.9297, 26.2574, -34.1177, -19.4998
5.63201, 6, 14.6035, 15.1746, 26.9438, 26.2165, -34.1423, -19.465
5.63999, 6, 14.5901, 15.1734, 26.9578, 26.1746, -34.1668, -19.4298
5.64802, 6, 14.5766, 15.1722, 26.972, 26.1332, -34.1909, -19.3944
5.65611, 6, 14.5631, 15.1709, 26.9864, 26.0925, -34.2148, -19.3593
5.66352, 6, 14.5497, 15.1696, 27.0006, 26.0512, -34.2386, -19.3249
5.67205, 6, 14.536, 15.1683, 27.0145, 26.0095, -34.2626, -19.2906
5.68014, 6, 14.5223, 15.167, 27.0286, 25.9688, -34.2872, -19.2558
5.68752, 6, 14.5155, 15.1664, 27.0356, 25.9281, -34.3117, -19.2206
5.69597, 6, 14.4951, 15.1644, 27.0566, 25.8865, -34.3359, -19.1857
5.70423, 6, 14.4815, 15.1631, 27.0704, 25.8452, -34.3598, -19.1514
5.711, 6, 14.4748, 15.1625, 27.0775, 25.825, -34.3716, -19.1343
5.72004, 6, 14.4543, 15.1606, 27.0989, 25.7635, -34.4077, -19.0828
5.72695, 6, 14.4475, 15.16, 27.106, 25.7426, -34.42, -19.0656
5.7361, 6, 14.4271, 15.1581, 27.1269, 25.6813, -34.457, -19.0135
5.74295, 6, 14.4203, 15.1575, 27.1339, 25.6612, -34.4693, -18.9963
5.75249, 6, 14.3999, 15.1558, 27.155, 25.5995, -34.5056, -18.9453
5.76029, 6, 14.3863, 15.1546, 27.1688, 25.5585, -34.5297, -18.9113
5.76694, 6, 14.3794, 15.1541, 27.1757, 25.5384, -34.5418, -18.8941
5.77689, 6, 14.3588, 15.1523, 27.1966, 25.4775, -34.5789, -18.8419
5.78299, 6, 14.352, 15.1517, 27.2037, 25.4569, -34.5913, -18.8246
5.79255, 6, 14.3315, 15.1501, 27.2247, 25.3964, -34.628, -18.7735
5.80089, 6, 14.318, 15.1489, 27.2385, 25.3565, -34.652, -18.7397
5.80855, 6, 14.3112, 15.1478, 27.2525, 25.3158, -34.676, -18.7059
5.81655, 6, 14.2976, 15.1472, 27.2665, 25.2752, -34.7003, -18.6714
5.82394, 6, 14.284, 15.1461, 27.2734, 25.2552, -34.7127, -18.6542
5.83193, 6, 14.2706, 15.1449, 27.2871, 25.2153, -34.7377, -18.6202
5.83998, 6, 14.257, 15.1437, 27.3011, 25.1746, -34.7623, -18.5865
5.84794, 6, 14.2435, 15.1425, 27.3152, 25.1341, -34.7867, -18.553
5.85595, 6, 14.2299, 15.1413, 27.329, 25.0946, -34.811, -18.5192
5.864, 6, 14.2161, 15.1402, 27.3428, 25.0546, -34.8352, -18.4852
5.87193, 6, 14.2024, 15.139, 27.3565, 25.0139, -34.86, -18.4513
5.87993, 6, 14.1887, 15.1378, 27.3703, 24.9738, -34.8849, -18.4179
5.88798, 6, 14.1751, 15.1365, 27.3841, 24.9343, -34.9095, -18.3846
5.89596, 6, 14.1616, 15.1353, 27.3977, 24.8939, -34.9338, -18.3515
5.90398, 6, 14.148, 15.1341, 27.4115, 24.8534, -34.9579, -18.318
5.91192, 6, 14.1344, 15.133, 27.4256, 24.8139, -34.9822, -18.2843
5.91994, 6, 14.1208, 15.1318, 27.4395, 24.7743, -35.0071, -18.2508
5.92801, 6, 14.1073, 15.1307, 27.4531, 24.7338, -35.0321, -18.2179
5.93594, 6, 14.0937, 15.1296, 27.4668, 24.6938, -35.0569, -18.1851
5.94394, 6, 14.0801, 15.1285, 27.4806, 24.6546, -35.0814, -18.1521
5.95294, 6, 14.0665, 15.1275, 27.4943, 24.6148, -35.1058, -18.1185
5.95993, 6, 14.0527, 15.1265, 27.5077, 24.5747, -35.1303, -18.085
5.96897, 6, 14.039, 15.1256, 27.5214, 24.5356, -35.1553, -18.0522
5.976, 6, 14.0253, 15.1247, 27.5353, 24.4967, -35.1804, -18.0197
5.98404, 6, 14.0116, 15.1238, 27.549, 24.4569, -35.2051, -17.987
5.99181, 6, 13.9979, 15.123, 27.5626, 24.4172, -35.2295, -17.954
5.99999, 6, 13.9842, 15.1221, 27.5762, 24.3785, -35.2537, -17.9208
6.00793, 6, 13.9705, 15.1213, 27.5899, 24.3395, -35.2782, -17.8879
6.01595, 6, 13.9569, 15.1206, 27.6035, 24.2996, -35.3034, -17.8554
6.02399, 6, 13.9433, 15.1198, 27.6171, 24.2603, -35.3285, -17.823
6.03193, 6, 13.9298, 15.1191, 27.6307, 24.2217, -35.3534, -17.7904
6.04065, 6, 13.9161, 15.1183, 27.6445, 24.1824, -35.3779, -17.7574
6.04793, 6, 13.9023, 15.1176, 27.6581, 24.1426, -35.4023, -17.7241
6.05594, 6, 13.8885, 15.1169, 27.6716, 24.1037, -35.4271, -17.6913
6.06406, 6, 13.8747, 15.1162, 27.685, 24.0651, -35.4523, -17.6589
6.07192, 6, 13.861, 15.1155, 27.6985, 24.0255, -35.4775, -17.6267
6.07992, 6, 13.8473, 15.1148, 27.712, 23.986, -35.5022, -17.5944
6.08937, 6, 13.8336, 15.1141, 27.7253, 23.9474, -35.5267, -17.5617
6.09504, 6, 13.8199, 15.1134, 27.7387, 23.9089, -35.5511, -17.5289
6.10302, 6, 13.8061, 15.1128, 27.7524, 23.8694, -35.5759, -17.4966
6.11199, 6, 13.7924, 15.1121, 27.7661, 23.8304, -35.6012, -17.4646
6.12, 6, 13.7786, 15.1114, 27.7796, 23.7922, -35.6264, -17.4324
6.12799, 6, 13.7649, 15.1108, 27.7929, 23.7533, -35.6512, -17.4001
6.13601, 6, 13.7511, 15.1101, 27.8064, 23.714, -35.6759, -17.3675
6.14395, 6, 13.7372, 15.1095, 27.8198, 23.6757, -35.7005, -17.3352
6.15215, 6, 13.7234, 15.1088, 27.8331, 23.6378, -35.7255, -17.3035
6.16022, 6, 13.7097, 15.1082, 27.8463, 23.5992, -35.7508, -17.2718
6.1675, 6, 13.696, 15.1076, 27.8598, 23.5603, -35.7759, -17.2401
6.17611, 6, 13.6824, 15.1069, 27.8733, 23.5222, -35.8007, -17.208
6.18432, 6, 13.6686, 15.1063, 27.8868, 23.4842, -35.8252, -17.1757
6.19157, 6, 13.6617, 15.1056, 27.9, 23.4454, -35.8499, -17.1437
6.2001, 6, 13.6412, 15.105, 27.9133, 23.407, -35.875, -17.1122
6.20693, 6, 13.6343, 15.1047, 27.92, 23.3882, -35.8878, -17.0965
6.21602, 6, 13.6137, 15.1037, 27.9401, 23.3314, -35.9258, -17.0494
6.22292, 6, 13.6068, 15.1034, 27.9467, 23.312, -35.9383, -17.0336
6.23284, 6, 13.5859, 15.1025, 27.9667, 23.2542, -35.9756, -16.9855
6.24017, 6, 13.572, 15.1018, 27.9802, 23.2165, -36.0006, -16.9538
6.24704, 6, 13.5651, 15.1015, 27.9868, 23.1975, -36.0133, -16.9382
6.25701, 6, 13.5443, 15.1007, 28.0066, 23.1395, -36.0517, -16.8916
6.26437, 6, 13.5305, 15.1001, 28.0198, 23.1016, -36.0768, -16.8604
6.27093, 6, 13.5236, 15.0998, 28.0264, 23.0829, -36.0893, -16.8446
6.28051, 6, 13.5029, 15.099, 28.0462, 23.026, -36.1264, -16.7972
6.28852, 6, 13.4891, 15.0984, 28.0593, 22.9876, -36.1513, -16.7659
6.29647, 6, 13.4754, 15.0979, 28.0724, 22.9502, -36.1768, -16.7349
6.30456, 6, 13.4616, 15.0974, 28.0859, 22.9128, -36.2023, -16.7041
6.31269, 6, 13.4478, 15.0969, 28.0993, 22.8747, -36.2276, -16.6729
6.32044, 6, 13.4408, 15.0966, 28.1059, 22.8556, -36.2401, -16.6572
6.32866, 6, 13.4268, 15.0961, 28.1256, 22.7997, -36.2774, -16.6099
6.33591, 6, 13.4128, 15.0957, 28.1322, 22.7812, -36.2899, -16.5942
6.34391, 6, 13.3989, 15.0953, 28.1454, 22.7437, -36.3153, -16.5632
6.35206, 6, 13.385, 15.0949, 28.1585, 22.7057, -36.341, -16.5325
6.35991, 6, 13.3711, 15.0944, 28.1715, 22.6685, -36.3662, -16.5018
6.36791, 6, 13.3572, 15.094, 28.1845, 22.6316, -36.391, -16.4708
6.37597, 6, 13.3433, 15.0937, 28.1977, 22.594, -36.4158, -16.4395
6.38391, 6, 13.3295, 15.0933, 28.2109, 22.5562, -36.4408, -16.4084
6.39204, 6, 13.3157, 15.0929, 28.224, 22.5193, -36.4664, -16.3778
6.39993, 6, 13.302, 15.0926, 28.2369, 22.4826, -36.4921, -16.3473
6.40793, 6, 13.2881, 15.0922, 28.25, 22.4451, -36.5175, -16.3169
6.41596, 6, 13.2742, 15.0919, 28.2632, 22.4074, -36.5426, -16.286
6.42391, 6, 13.2603, 15.0916, 28.2762, 22.3706, -36.5676, -16.2551
6.43199, 6, 13.2466, 15.0913, 28.2891, 22.3338, -36.5929, -16.2243
6.43998, 6, 13.2328, 15.091, 28.3023, 22.2961, -36.6186, -16.194
6.44793, 6, 13.2191, 15.0907, 28.3154, 22.2585, -36.6442, -16.1639
6.45692, 6, 13.2053, 15.0904, 28.3284, 22.2219, -36.6694, -16.1337
6.46397, 6, 13.1914, 15.0902, 28.3413, 22.1852, -36.6943, -16.1033
6.47196, 6, 13.1776, 15.0899, 28.3542, 22.1478, -36.7192, -16.0725
6.48092, 6, 13.1638, 15.0897, 28.3672, 22.1106, -36.7446, -16.0419
6.48799, 6, 13.1499, 15.0894, 28.3802, 22.0742, -36.7705, -16.0118
6.4959, 6, 13.136, 15.0892, 28.393, 22.0377, -36.7962, -15.9818
6.50392, 6, 13.1221, 15.089, 28.4059, 22.0003, -36.8215, -15.9521
6.51204, 6, 13.108, 15.0888, 28.419, 21.9636, -36.8467, -15.922
6.51998, 6, 13.0941, 15.0886, 28.432, 21.9276, -36.872, -15.8916
6.52791, 6, 13.0801, 15.0884, 28.4449, 21.8913, -36.8978, -15.8612
6.53597, 6, 13.0662, 15.0883, 28.4577, 21.8544, -36.9239, -15.8313
6.54391, 6, 13.0523, 15.0881, 28.4706, 21.8177, -36.9496, -15.8017
6.55197, 6, 13.0383, 15.088, 28.4835, 21.7816, -36.9749, -15.7721
6.55997, 6, 13.0243, 15.0878, 28.4963, 21.7453, -37, -15.7423
6.56792, 6, 13.0105, 15.0877, 28.509, 21.7083, -37.0254, -15.7122
6.57591, 6, 12.9966, 15.0876, 28.5219, 21.6719, -37.0513, -15.682
6.58398, 6, 12.9827, 15.0875, 28.5348, 21.6362, -37.0773, -15.6524
6.59196, 6, 12.9686, 15.0874, 28.5477, 21.6, -37.103, -15.623
6.59992, 6, 12.9545, 15.0873, 28.5604, 21.5631, -37.1284, -15.5936
6.60797, 6, 12.9405, 15.0872, 28.5731, 21.5268, -37.1538, -15.5638
6.61591, 6, 12.9265, 15.0871, 28.5859, 21.4909, -37.1794, -15.5336
6.62392, 6, 12.9126, 15.087, 28.5988, 21.4547, -37.2055, -15.5033
6.63128, 6, 12.8987, 15.087, 28.6115, 21.4179, -37.2314, -15.4735
6.63991, 6, 12.8847, 15.0869, 28.6243, 21.3818, -37.2568, -15.4439
6.64795, 6, 12.8709, 15.0869, 28.6371, 21.3462, -37.282, -15.4146
6.65607, 6, 12.8571, 15.0868, 28.6499, 21.3102, -37.3072, -15.3854
6.66401, 6, 12.8432, 15.0868, 28.6627, 21.2735, -37.333, -15.3557
6.67212, 6, 12.8294, 15.0868, 28.6753, 21.2374, -37.3591, -15.3258
6.6795, 6, 12.8156, 15.0868, 28.6879, 21.202, -37.3851, -15.296
6.6881, 6, 12.8015, 15.0868, 28.7006, 21.1661, -37.4106, -15.2666
6.69567, 6, 12.7946, 15.0868, 28.7069, 21.1479, -37.4361, -15.2374
6.70393, 6, 12.7737, 15.0868, 28.7258, 21.0942, -37.4615, -15.2082
6.71096, 6, 12.7668, 15.0868, 28.732, 21.0766, -37.4745, -15.1936
6.72029, 6, 12.746, 15.0867, 28.7512, 21.0237, -37.5136, -15.1492
6.72691, 6, 12.739, 15.0867, 28.7576, 21.0056, -37.5265, -15.1344
6.73606, 6, 12.7182, 15.0868, 28.7766, 20.9521, -37.5648, -15.0908
6.74291, 6, 12.7112, 15.0868, 28.7829, 20.9346, -37.5774, -15.0764
6.75225, 6, 12.6905, 15.0868, 28.8017, 20.8818, -37.6158, -15.0334
6.75897, 6, 12.6835, 15.0868, 28.808, 20.8638, -37.6289, -15.019
6.76871, 6, 12.6626, 15.0868, 28.8268, 20.8103, -37.6683, -14.9751
6.77637, 6, 12.6485, 15.0868, 28.8392, 20.7753, -37.694, -14.9457
6.7844, 6, 12.6344, 15.0868, 28.8517, 20.7401, -37.7195, -14.9169
6.79091, 6, 12.6274, 15.0868, 28.858, 20.7221, -37.7323, -14.9026
6.80044, 6, 12.6064, 15.0868, 28.8769, 20.6686, -37.7714, -14.8599
6.80854, 6, 12.5924, 15.0868, 28.8894, 20.6337, -37.7979, -14.8315
6.81679, 6, 12.5854, 15.0868, 28.8956, 20.5986, -37.8239, -14.8027
6.82449, 6, 12.5714, 15.0869, 28.9081, 20.5807, -37.8496, -14.7737
6.83266, 6, 12.5574, 15.0869, 28.9206, 20.5447, -37.8751, -14.7449
6.83993, 6, 12.5434, 15.0869, 28.9331, 20.5097, -37.888, -14.7306
6.84789, 6, 12.5294, 15.0869, 28.9455, 20.4751, -37.914, -14.7023
6.85602, 6, 12.5154, 15.0869, 28.9578, 20.4399, -37.9406, -14.6742
6.8639, 6, 12.5013, 15.087, 28.9703, 20.4042, -37.9668, -14.646
6.87194, 6, 12.4871, 15.087, 28.9828, 20.3693, -37.9926, -14.6176
6.87995, 6, 12.473, 15.0871, 28.9953, 20.3347, -38.0184, -14.5887
6.88793, 6, 12.4588, 15.0871, 29.0076, 20.2997, -38.0443, -14.5601
6.89596, 6, 12.4447, 15.0872, 29.0199, 20.2642, -38.0707, -14.532
6.90389, 6, 12.4307, 15.0872, 29.0322, 20.2295, -38.0972, -14.504
6.91197, 6, 12.4166, 15.0873, 29.0445, 20.1953, -38.1231, -14.476
6.91995, 6, 12.4026, 15.0874, 29.0567, 20.1608, -38.1487, -14.4477
6.92789, 6, 12.3886, 15.0875, 29.0689, 20.1256, -38.1743, -14.419
6.93594, 6, 12.3746, 15.0877, 29.0814, 20.0909, -38.2005, -14.3902
6.94396, 6, 12.3605, 15.0878, 29.0938, 20.0567, -38.227, -14.3619
6.95198, 6, 12.3465, 15.0879, 29.1061, 20.0223, -38.2533, -14.3339
6.95991, 7, 12.3322, 15.0881, 29.1183, 19.9872, -38.2792, -14.306
6.9689, 7, 12.3181, 15.0883, 29.1305, 19.9526, -38.3051, -14.2784
6.9759, 7, 12.304, 15.0884, 29.1428, 19.9187, -38.331, -14.2504
6.9839, 7, 12.2899, 15.0886, 29.155, 19.8846, -38.3574, -14.222
6.99201, 7, 12.2759, 15.0888, 29.1672, 19.8496, -38.3839, -14.1938
6.99988, 7, 12.2619, 15.089, 29.1793, 19.8149, -38.4098, -14.1659
7.00791, 7, 12.2478, 15.0892, 29.1915, 19.7807, -38.4356, -14.1382
7.01596, 7, 12.2338, 15.0894, 29.2037, 19.7466, -38.4613, -14.1106
7.02396, 7, 12.2198, 15.0896, 29.216, 19.7119, -38.4874, -14.0831
7.03198, 7, 12.2057, 15.0898, 29.228, 19.677, -38.514, -14.0552
7.03996, 7, 12.1916, 15.09, 29.2401, 19.643, -38.5405, -14.0269
7.0479, 7, 12.1775, 15.0903, 29.2523, 19.6093, -38.5665, -13.999
7.05602, 7, 12.1633, 15.0905, 29.2644, 19.575, -38.5924, -13.9718
7.06389, 7, 12.1493, 15.0907, 29.2765, 19.5402, -38.6184, -13.9444
7.07195, 7, 12.1351, 15.0909, 29.2886, 19.5063, -38.6449, -13.9174
7.08002, 7, 12.121, 15.0912, 29.3007, 19.4727, -38.6716, -13.89
7.08789, 7, 12.1069, 15.0915, 29.3129, 19.4387, -38.6978, -13.8622
7.09589, 7, 12.0927, 15.0918, 29.3251, 19.4043, -38.7237, -13.8343
7.10509, 7, 12.0786, 15.0922, 29.3371, 19.3705, -38.7495, -13.8069
7.1129, 7, 12.0645, 15.0926, 29.349, 19.3372, -38.7755, -13.78
7.11996, 7, 12.0504, 15.093, 29.361, 19.3038, -38.8022, -13.7531
7.1279, 7, 12.0363, 15.0935, 29.373, 19.2694, -38.8287, -13.7263
7.13594, 7, 12.022, 15.0939, 29.3849, 19.2355, -38.855, -13.6994
7.14397, 7, 12.0076, 15.0944, 29.3968, 19.2022, -38.8809, -13.6719
7.15216, 7, 11.9934, 15.095, 29.4088, 19.169, -38.907, -13.6445
7.15998, 7, 11.9791, 15.0956, 29.421, 19.135, -38.9334, -13.6174
7.16805, 7, 11.9649, 15.0962, 29.4331, 19.1009, -38.9601, -13.5906
7.17626, 7, 11.9507, 15.0968, 29.4451, 19.0677, -38.9865, -13.5641
7.18349, 7, 11.9365, 15.0975, 29.457, 19.0347, -39.0125, -13.5373
7.1922, 7, 11.9224, 15.0982, 29.4689, 19.0011, -39.0384, -13.5106
7.20021, 7, 11.9154, 15.0986, 29.4749, 18.9841, -39.0515, -13.4833
7.20753, 7, 11.9012, 15.0994, 29.4868, 18.9503, -39.0913, -13.4562
7.21598, 7, 11.88, 15.1006, 29.5046, 18.9007, -39.118, -13.4295
7.2261, 7, 11.8657, 15.1014, 29.5163, 18.8672, -39.1444, -13.4032
7.2321, 7, 11.8514, 15.1023, 29.5283, 18.8331, -39.1705, -13.3768
7.23889, 7, 11.8443, 15.1028, 29.5343, 18.8162, -39.1836, -13.3636
7.24885, 7, 11.823, 15.1041, 29.5521, 18.7665, -39.2231, -13.3233
7.25622, 7, 11.8088, 15.1051, 29.5639, 18.7336, -39.25, -13.296
7.26289, 7, 11.8018, 15.1056, 29.5698, 18.7169, -39.2632, -13.2823
7.27236, 7, 11.7805, 15.1071, 29.5876, 18.6663, -39.3025, -13.2421
7.2789, 7, 11.7733, 15.1076, 29.5936, 18.6498, -39.3155, -13.2289
7.28839, 7, 11.7521, 15.1092, 29.6113, 18.6007, -39.3547, -13.1895
7.29643, 7, 11.738, 15.1103, 29.623, 18.5673, -39.3816, -13.1632
7.30452, 7, 11.7238, 15.1114, 29.6348, 18.5338, -39.4084, -13.1367
7.31251, 7, 11.7095, 15.1125, 29.6467, 18.5011, -39.4349, -13.1097
7.32049, 7, 11.7023, 15.1131, 29.6526, 18.4687, -39.4612, -13.083
7.32855, 7, 11.688, 15.1143, 29.6643, 18.436, -39.4875, -13.0567
7.33588, 7, 11.6737, 15.1154, 29.6759, 18.4194, -39.5007, -13.0436
7.34388, 7, 11.6595, 15.1166, 29.6876, 18.3861, -39.5276, -13.0175
7.352, 7, 11.6453, 15.1178, 29.6993, 18.3535, -39.5545, -12.9915
7.35995, 7, 11.631, 15.1189, 29.711, 18.3211, -39.581, -12.9652
7.3679, 7, 11.6167, 15.1201, 29.7226, 18.2883, -39.6071, -12.9388
7.37588, 7, 11.6025, 15.1212, 29.7342, 18.2549, -39.6333, -12.912
7.38387, 7, 11.5883, 15.1223, 29.746, 18.2223, -39.6599, -12.8856
7.39202, 7, 11.5741, 15.1234, 29.7578, 18.1901, -39.687, -12.8599
7.39988, 7, 11.5598, 15.1245, 29.7695, 18.1578, -39.7137, -12.8341
7.40789, 7, 11.5454, 15.1256, 29.7811, 18.1247, -39.7402, -12.8087
7.41592, 7, 11.531, 15.1268, 29.7927, 18.0916, -39.7665, -12.7828
7.42388, 7, 11.5167, 15.1279, 29.8043, 18.0593, -39.793, -12.7565
7.43193, 7, 11.5024, 15.1291, 29.8159, 18.0271, -39.8201, -12.73
7.43996, 7, 11.4881, 15.1303, 29.8274, 17.9943, -39.847, -12.7039
7.44791, 7, 11.4739, 15.1315, 29.8388, 17.9612, -39.8735, -12.6782
7.45587, 7, 11.4597, 15.1327, 29.8503, 17.9288, -39.8998, -12.653
7.46394, 7, 11.4455, 15.134, 29.862, 17.8968, -39.9262, -12.6275
7.47443, 7, 11.4242, 15.136, 29.8794, 17.8482, -39.9667, -12.5894
7.47896, 7, 11.4171, 15.1366, 29.8851, 17.8316, -39.9803, -12.5765
7.48795, 7, 11.4028, 15.138, 29.8966, 17.7989, -40.0072, -12.5504
7.49587, 7, 11.3884, 15.1394, 29.908, 17.7669, -40.0337, -12.5246
7.50387, 7, 11.3741, 15.1408, 29.9196, 17.735, -40.0602, -12.4991
7.51199, 7, 11.3599, 15.1423, 29.9311, 17.7026, -40.0868, -12.4739
7.51987, 7, 11.3457, 15.1437, 29.9426, 17.67, -40.114, -12.4488
7.52797, 7, 11.3315, 15.1452, 29.954, 17.6382, -40.141, -12.4236
7.53594, 7, 11.3172, 15.1468, 29.9654, 17.6067, -40.1675, -12.3982
7.54387, 7, 11.303, 15.1483, 29.9769, 17.5749, -40.1938, -12.3726
7.55195, 7, 11.2888, 15.1498, 29.9884, 17.5424, -40.2201, -12.3468
7.55994, 7, 11.2746, 15.1513, 29.9998, 17.5103, -40.2471, -12.3214
7.56789, 7, 11.2604, 15.1528, 30.0111, 17.4789, -40.2743, -12.2963
7.57588, 7, 11.2461, 15.1543, 30.0225, 17.4475, -40.3011, -12.2714
7.58394, 7, 11.2316, 15.1557, 30.0338, 17.4154, -40.3277, -12.2465
7.59193, 7, 11.2173, 15.1571, 30.0451, 17.383, -40.3543, -12.2213
7.59995, 7, 11.2029, 15.1585, 30.0564, 17.3513, -40.3811, -12.1956
7.60792, 7, 11.1886, 15.1599, 30.0676, 17.3199, -40.4085, -12.1697
7.61587, 7, 11.1742, 15.1613, 30.0791, 17.2883, -40.4355, -12.1442
7.62395, 7, 11.1599, 15.1627, 30.0906, 17.256, -40.4622, -12.1191
7.63193, 7, 11.1455, 15.1642, 30.102, 17.2239, -40.4886, -12.0945
7.63989, 7, 11.1312, 15.1656, 30.1132, 17.1925, -40.5151, -12.0699
7.64813, 7, 11.1169, 15.1671, 30.1244, 17.1612, -40.5422, -12.0451
7.65532, 7, 11.1026, 15.1685, 30.1357, 17.1292, -40.5695, -12.0201
7.66356, 7, 11.0882, 15.17, 30.147, 17.0969, -40.5964, -11.9947
7.67231, 7, 11.0738, 15.1716, 30.1581, 17.0653, -40.623, -11.9695
7.67944, 7, 11.0593, 15.1731, 30.1693, 17.0342, -40.6496, -11.9447
7.68801, 7, 11.045, 15.1747, 30.1804, 17.003, -40.6766, -11.9201
7.69651, 7, 11.0306, 15.1763, 30.1917, 16.971, -40.704, -11.8956
7.7041, 7, 11.0163, 15.1778, 30.2029, 16.9392, -40.7311, -11.8712
7.7115, 7, 11.0091, 15.1786, 30.2085, 16.9236, -40.7445, -11.8588
7.72065, 7, 10.9876, 15.1809, 30.2253, 16.877, -40.7843, -11.8215
7.72792, 7, 10.9733, 15.1825, 30.2363, 16.8455, -40.811, -11.7965
7.73633, 7, 10.959, 15.184, 30.2475, 16.8137, -40.8384, -11.7715
7.74289, 7, 10.9519, 15.1847, 30.2531, 16.798, -40.8521, -11.7593
7.75092, 7, 10.9376, 15.1862, 30.2642, 16.767, -40.8793, -11.7351
7.76027, 7, 10.9159, 15.1884, 30.2809, 16.7211, -40.9195, -11.6989
7.76697, 7, 10.9088, 15.1892, 30.2864, 16.7055, -40.9328, -11.6868
7.77631, 7, 10.8874, 15.1915, 30.3031, 16.6582, -40.9733, -11.6503
7.78289, 7, 10.8803, 15.1923, 30.3087, 16.6427, -40.987, -11.6379
7.79319, 7, 10.859, 15.1946, 30.3254, 16.5967, -41.0277, -11.6007
7.79889, 7, 10.8519, 15.1954, 30.3309, 16.5813, -41.0411, -11.5884
7.80853, 7, 10.8304, 15.1979, 30.3472, 16.5342, -41.0809, -11.5522
7.81727, 7, 10.8232, 15.1996, 30.3582, 16.5032, -41.1078, -11.5283
7.82287, 7, 10.809, 15.2005, 30.3637, 16.4879, -41.1216, -11.5163
7.83187, 7, 10.7946, 15.2023, 30.3747, 16.4575, -41.1491, -11.4923
7.83986, 7, 10.7803, 15.2041, 30.3857, 16.4268, -41.1763, -11.4681
7.84687, 7, 10.7657, 15.206, 30.3966, 16.3954, -41.2031, -11.4437
7.85586, 7, 10.7512, 15.2078, 30.4076, 16.3642, -41.2299, -11.4191
7.86395, 7, 10.7367, 15.2097, 30.4187, 16.3335, -41.2571, -11.3952
7.87086, 7, 10.7222, 15.2116, 30.4298, 16.3031, -41.2847, -11.3714
7.87986, 7, 10.7078, 15.2134, 30.4408, 16.2721, -41.312, -11.3476
7.88786, 7, 10.6934, 15.2152, 30.4517, 16.2407, -41.3388, -11.3239
7.89488, 7, 10.679, 15.2171, 30.4626, 16.2099, -41.3655, -11.3
7.90387, 7, 10.6647, 15.2189, 30.4735, 16.1796, -41.3923, -11.2759
7.91193, 7, 10.6505, 15.2208, 30.4843, 16.1494, -41.4198, -11.2515
7.91887, 7, 10.6362, 15.2226, 30.4952, 16.1184, -41.4473, -11.2272
7.92786, 7, 10.6218, 15.2245, 30.5059, 16.0873, -41.4745, -11.2033
7.93592, 7, 10.6073, 15.2264, 30.5167, 16.0569, -41.5014, -11.1798
7.94287, 7, 10.5928, 15.2282, 30.5276, 16.0268, -41.5284, -11.1564
7.95188, 7, 10.5783, 15.2301, 30.5385, 15.9965, -41.5558, -11.133
7.96087, 7, 10.5638, 15.232, 30.5494, 15.9657, -41.5835, -11.1093
7.96785, 7, 10.5494, 15.2339, 30.5602, 15.9351, -41.6106, -11.0852
7.97687, 7, 10.5349, 15.2358, 30.5709, 15.9051, -41.6374, -11.0608
7.98393, 7, 10.5204, 15.2378, 30.5817, 15.8754, -41.6641, -11.0366
7.99185, 7, 10.506, 15.2397, 30.5925, 15.8453, -41.6913, -11.0128
7.99989, 7, 10.4916, 15.2417, 30.6033, 15.8145, -41.7191, -10.9894
8.00794, 7, 10.4772, 15.2436, 30.614, 15.7841, -41.7466, -10.966
8.01585, 7, 10.4627, 15.2455, 30.6247, 15.7543, -41.7737, -10.9427
8.02387, 7, 10.4481, 15.2474, 30.6355, 15.7247, -41.8007, -10.919
8.03201, 7, 10.4337, 15.2493, 30.6463, 15.6944, -41.8278, -10.895
8.03986, 7, 10.4193, 15.2511, 30.657, 15.6638, -41.8555, -10.8711
8.04787, 7, 10.4049, 15.253, 30.6677, 15.6337, -41.8831, -10.8474
8.05593, 7, 10.3906, 15.2549, 30.6783, 15.6041, -41.9102, -10.8241
8.06385, 7, 10.3763, 15.2568, 30.689, 15.5745, -41.9371, -10.8008
8.07186, 7, 10.3619, 15.2588, 30.6996, 15.5442, -41.964, -10.7776
8.07993, 7, 10.3475, 15.2608, 30.7101, 15.5138, -41.9916, -10.7544
8.08786, 7, 10.3331, 15.2629, 30.7207, 15.4838, -42.0196, -10.7308
8.09588, 7, 10.3187, 15.2651, 30.7313, 15.4543, -42.047, -10.707
8.10393, 7, 10.3042, 15.2672, 30.7419, 15.4246, -42.0743, -10.6833
8.11187, 7, 10.2896, 15.2694, 30.7526, 15.3942, -42.1013, -10.6599
8.11988, 7, 10.2752, 15.2716, 30.7633, 15.3637, -42.1288, -10.637
8.1279, 7, 10.2607, 15.2738, 30.774, 15.334, -42.1567, -10.6142
8.13586, 7, 10.2463, 15.276, 30.7845, 15.3046, -42.1842, -10.5916
8.14407, 7, 10.2318, 15.2782, 30.795, 15.275, -42.2113, -10.5689
8.15189, 7, 10.2174, 15.2804, 30.8056, 15.2447, -42.2383, -10.5458
8.15992, 7, 10.2029, 15.2825, 30.8161, 15.2147, -42.2655, -10.5225
8.16886, 7, 10.1885, 15.2847, 30.8266, 15.1853, -42.2934, -10.4989
8.17596, 7, 10.1742, 15.2868, 30.837, 15.156, -42.3211, -10.4758
8.18395, 7, 10.1598, 15.289, 30.8474, 15.1265, -42.3485, -10.453
8.19275, 7, 10.1452, 15.2912, 30.858, 15.0964, -42.3757, -10.4305
8.20004, 7, 10.1306, 15.2933, 30.8684, 15.0667, -42.403, -10.4082
8.20754, 7, 10.1233, 15.2944, 30.8737, 15.0521, -42.4308, -10.3856
8.21679, 7, 10.1015, 15.2976, 30.8894, 15.0087, -42.4587, -10.3628
8.22389, 7, 10.087, 15.2997, 30.8997, 14.9795, -42.4861, -10.3396
8.23202, 7, 10.0725, 15.3019, 30.9102, 14.9496, -42.5132, -10.3167
8.23886, 7, 10.0653, 15.303, 30.9154, 14.9348, -42.5267, -10.3052
8.24691, 7, 10.0508, 15.3052, 30.9258, 14.9056, -42.554, -10.2825
8.25615, 7, 10.0292, 15.3085, 30.9414, 14.862, -42.5958, -10.249
8.26293, 7, 10.022, 15.3095, 30.9466, 14.8474, -42.6097, -10.2379
8.27092, 7, 10.0076, 15.3117, 30.9569, 14.8177, -42.6371, -10.2155
8.28039, 7, 9.98575, 15.315, 30.9726, 14.7734, -42.6779, -10.182
8.28835, 7, 9.97115, 15.3172, 30.9829, 14.7446, -42.7052, -10.1592
8.295, 7, 9.96388, 15.3183, 30.9881, 14.7303, -42.7192, -10.1476
8.30446, 7, 9.94211, 15.3216, 31.0035, 14.6866, -42.7608, -10.1134
8.31241, 7, 9.92769, 15.324, 31.0137, 14.6568, -42.788, -10.0908
8.31892, 7, 9.92048, 15.3251, 31.0188, 14.6422, -42.8016, -10.0796
8.32857, 7, 9.90595, 15.3275, 31.0342, 14.5987, -42.8423, -10.0466
8.33584, 7, 9.89143, 15.33, 31.0392, 14.5843, -42.8561, -10.0356
8.34294, 7, 9.87693, 15.3325, 31.0494, 14.5553, -42.8841, -10.0134
8.3529, 7, 9.85518, 15.3361, 31.0647, 14.5109, -42.9257, -9.97971
8.35985, 7, 9.84794, 15.3374, 31.0698, 14.4963, -42.9394, -9.96824
8.36693, 7, 9.83333, 15.3398, 31.0802, 14.4674, -42.9666, -9.94522
8.37589, 7, 9.81869, 15.3423, 31.0905, 14.4389, -42.9941, -9.92261
8.38383, 7, 9.8041, 15.3448, 31.1008, 14.4101, -43.0222, -9.90033
8.39085, 7, 9.78951, 15.3473, 31.1111, 14.3807, -43.0501, -9.87827
8.39984, 7, 9.77491, 15.3499, 31.1212, 14.3514, -43.0776, -9.85646
8.40786, 7, 9.76034, 15.3524, 31.1314, 14.3226, -43.1048, -9.83466
8.41735, 7, 9.73839, 15.3562, 31.1465, 14.2799, -43.1459, -9.80141
8.42388, 7, 9.73114, 15.3574, 31.1516, 14.2654, -43.1599, -9.79017
8.43184, 7, 9.7166, 15.3599, 31.1617, 14.2362, -43.1881, -9.76774
8.43885, 7, 9.70202, 15.3623, 31.1717, 14.2073, -43.2157, -9.74547
8.44788, 7, 9.68741, 15.3647, 31.1817, 14.179, -43.2431, -9.7235
8.45583, 7, 9.67264, 15.3672, 31.1919, 14.1509, -43.2705, -9.70187
8.46391, 7, 9.65787, 15.3696, 31.202, 14.1226, -43.2983, -9.68037
8.47368, 7, 9.64319, 15.3721, 31.2121, 14.0935, -43.3404, -9.64779
8.48374, 7, 9.62122, 15.3758, 31.2272, 14.0506, -43.3679, -9.62591
8.48793, 7, 9.61392, 15.377, 31.2321, 14.0365, -43.3815, -9.61483
8.49588, 7, 9.59931, 15.3796, 31.2422, 14.0085, -43.4087, -9.59255
8.5039, 7, 9.58468, 15.3822, 31.2522, 13.9803, -43.4363, -9.57021
8.51183, 7, 9.57021, 15.3848, 31.2622, 13.9513, -43.4645, -9.5483
8.51984, 7, 9.55568, 15.3875, 31.2723, 13.9226, -43.4926, -9.52673
8.52789, 7, 9.54114, 15.3902, 31.2822, 13.8943, -43.5202, -9.50545
8.53591, 7, 9.52655, 15.3929, 31.2921, 13.8663, -43.5477, -9.48429
8.54385, 7, 9.51183, 15.3956, 31.3021, 13.8381, -43.5752, -9.46314
8.55191, 7, 9.49719, 15.3983, 31.3121, 13.8093, -43.6033, -9.44161
8.55984, 7, 9.48264, 15.4009, 31.3221, 13.7806, -43.6313, -9.41995
8.56785, 7, 9.46806, 15.4036, 31.3321, 13.7524, -43.6588, -9.39799
8.5759, 7, 9.45353, 15.4063, 31.3419, 13.7245, -43.686, -9.37608
8.58385, 7, 9.43893, 15.409, 31.3517, 13.6964, -43.7133, -9.35451
8.59191, 7, 9.42431, 15.4117, 31.3616, 13.6676, -43.7412, -9.33328
8.59983, 7, 9.40978, 15.4145, 31.3713, 13.6388, -43.7694, -9.31217
8.60784, 7, 9.39517, 15.4172, 31.3812, 13.6107, -43.7972, -9.29129
8.61593, 7, 9.38054, 15.42, 31.391, 13.5829, -43.8247, -9.27021
8.62384, 7, 9.36585, 15.4227, 31.4007, 13.5551, -43.8521, -9.24886
8.63184, 7, 9.35103, 15.4254, 31.4107, 13.5267, -43.8799, -9.2273
8.63994, 8, 9.33636, 15.428, 31.4206, 13.4982, -43.9083, -9.20563
8.64785, 8, 9.32166, 15.4306, 31.4304, 13.4702, -43.9362, -9.18441
8.65587, 8, 9.30701, 15.4333, 31.4403, 13.4425, -43.9637, -9.16325
8.66413, 8, 9.29235, 15.4359, 31.4501, 13.4148, -43.991, -9.14245
8.67137, 8, 9.27756, 15.4386, 31.4597, 13.3865, -44.0186, -9.12176
8.67995, 8, 9.26283, 15.4415, 31.4695, 13.3581, -44.047, -9.10096
8.68841, 8, 9.24817, 15.4443, 31.4792, 13.3303, -44.075, -9.08001
8.69595, 8, 9.23353, 15.4472, 31.4889, 13.3029, -44.1028, -9.05886
8.70403, 8, 9.21889, 15.4502, 31.4985, 13.2757, -44.1304, -9.03744
8.71248, 8, 9.20404, 15.4532, 31.5081, 13.2479, -44.1579, -9.016
8.71988, 8, 9.18916, 15.4562, 31.5178, 13.2197, -44.1862, -8.99488
8.72789, 8, 9.17444, 15.4592, 31.5276, 13.1919, -44.2144, -8.97396
8.73669, 8, 9.15964, 15.4622, 31.5373, 13.1645, -44.2421, -8.95319
8.74394, 8, 9.14498, 15.4652, 31.547, 13.1372, -44.2696, -8.93258
8.75094, 8, 9.13766, 15.4667, 31.5519, 13.1234, -44.2833, -8.92231
8.76091, 8, 9.11557, 15.4712, 31.5663, 13.0814, -44.3252, -8.89112
8.76815, 8, 9.10103, 15.4742, 31.576, 13.0537, -44.3536, -8.86999
8.7749, 8, 9.09376, 15.4758, 31.5808, 13.04, -44.3676, -8.85929
8.78509, 8, 9.07189, 15.4804, 31.5951, 12.9993, -44.4092, -8.82719
8.79235, 8, 9.05729, 15.4835, 31.6047, 12.9719, -44.4367, -8.80613
8.80076, 8, 9.04246, 15.4865, 31.6143, 12.9439, -44.4648, -8.78536
8.80932, 8, 9.02775, 15.4895, 31.6238, 12.9161, -44.493, -8.76486
8.81499, 8, 9.02044, 15.4909, 31.6286, 12.9023, -44.5071, -8.75466
8.82453, 8, 8.99849, 15.4953, 31.6431, 12.8614, -44.5486, -8.72411
8.83324, 8, 8.99122, 15.4968, 31.6479, 12.8478, -44.5623, -8.71387
8.8389, 8, 8.97667, 15.4998, 31.6574, 12.8202, -44.5898, -8.69318
8.84904, 8, 8.95461, 15.5044, 31.6716, 12.7783, -44.6324, -8.66155
8.85582, 8, 8.94728, 15.5059, 31.6763, 12.7646, -44.6465, -8.65101
8.8629, 8, 8.93268, 15.509, 31.6857, 12.7374, -44.6745, -8.63013
8.87195, 8, 8.91807, 15.5121, 31.6951, 12.7106, -44.7023, -8.60961
8.87983, 8, 8.90341, 15.5153, 31.7045, 12.6834, -44.7299, -8.58931
8.88685, 8, 8.88862, 15.5186, 31.7139, 12.6557, -44.7581, -8.56921
8.89583, 8, 8.87381, 15.5218, 31.7233, 12.6281, -44.7867, -8.54913
8.90382, 8, 8.85909, 15.525, 31.7326, 12.601, -44.8147, -8.52881
8.91085, 8, 8.84428, 15.5281, 31.7421, 12.5742, -44.8424, -8.50826
8.91983, 8, 8.8296, 15.5313, 31.7516, 12.5473, -44.87, -8.48744
8.92788, 8, 8.81492, 15.5344, 31.7611, 12.5199, -44.8981, -8.46651
8.93496, 8, 8.80013, 15.5376, 31.7706, 12.4924, -44.9266, -8.44584
8.94384, 8, 8.78541, 15.5409, 31.78, 12.4655, -44.955, -8.4255
8.95191, 8, 8.77074, 15.5442, 31.7893, 12.4389, -44.983, -8.4055
8.95983, 8, 8.75607, 15.5474, 31.7986, 12.4124, -45.0108, -8.38554
8.96882, 8, 8.74135, 15.5505, 31.8079, 12.3853, -45.039, -8.36575
8.9759, 8, 8.72644, 15.5536, 31.8171, 12.3579, -45.0677, -8.34592
8.98488, 8, 8.71156, 15.5567, 31.8264, 12.331, -45.0961, -8.32582
8.99183, 8, 8.69676, 15.5598, 31.8357, 12.3044, -45.124, -8.3054
8.99989, 8, 8.68194, 15.5629, 31.8449, 12.278, -45.1517, -8.28486
9.00782, 8, 8.66723, 15.5661, 31.8541, 12.2511, -45.1797, -8.26453
9.01586, 8, 8.65247, 15.5694, 31.8635, 12.224, -45.2085, -8.2444
9.02386, 8, 8.63772, 15.5728, 31.8727, 12.1969, -45.237, -8.22453
9.03182, 8, 8.62305, 15.5761, 31.8821, 12.1702, -45.2651, -8.20497
9.03997, 8, 8.60832, 15.5795, 31.8913, 12.144, -45.293, -8.18541
9.04783, 8, 8.59358, 15.583, 31.9004, 12.1176, -45.3209, -8.1658
9.05584, 8, 8.57873, 15.5864, 31.9097, 12.0906, -45.3495, -8.14602
9.0639, 8, 8.56384, 15.5899, 31.9189, 12.0634, -45.3779, -8.1258
9.07181, 8, 8.54907, 15.5934, 31.928, 12.0367, -45.4059, -8.10535
9.07983, 8, 8.53431, 15.5968, 31.9372, 12.0103, -45.4336, -8.08517
9.0879, 8, 8.51963, 15.6004, 31.9463, 11.984, -45.4614, -8.0653
9.09583, 8, 8.50495, 15.6039, 31.9554, 11.9573, -45.4898, -8.04574
9.10383, 8, 8.49017, 15.6074, 31.9645, 11.93, -45.5186, -8.02638
9.11189, 8, 8.4755, 15.6109, 31.9737, 11.9031, -45.5468, -8.00707
9.11984, 8, 8.46091, 15.6143, 31.9828, 11.8767, -45.5747, -7.98776
9.12784, 8, 8.44629, 15.6177, 31.992, 11.8506, -45.6027, -7.9682
9.13624, 8, 8.43161, 15.621, 32.0011, 11.8242, -45.6311, -7.94839
9.14475, 8, 8.4168, 15.6244, 32.01, 11.7974, -45.6597, -7.92826
9.15183, 8, 8.40199, 15.6279, 32.019, 11.7706, -45.688, -7.90814
9.16068, 8, 8.38728, 15.6313, 32.028, 11.7441, -45.7158, -7.88829
9.1679, 8, 8.37241, 15.6349, 32.0369, 11.7181, -45.7436, -7.86869
9.17597, 8, 8.35761, 15.6385, 32.0458, 11.692, -45.7719, -7.84927
9.18471, 8, 8.34283, 15.6422, 32.0548, 11.6655, -45.8007, -7.82995
9.19193, 8, 8.32794, 15.6459, 32.0637, 11.6387, -45.829, -7.81077
9.19993, 8, 8.31316, 15.6495, 32.0728, 11.6124, -45.8571, -7.79159
9.20879, 8, 8.29842, 15.6531, 32.0819, 11.5865, -45.8851, -7.77205
9.21594, 8, 8.2837, 15.6567, 32.0909, 11.5608, -45.9134, -7.75216
9.22384, 8, 8.26892, 15.6603, 32.0999, 11.5349, -45.9422, -7.73214
9.2327, 8, 8.25398, 15.664, 32.1089, 11.5084, -45.9706, -7.71231
9.23986, 8, 8.23913, 15.6677, 32.1178, 11.482, -45.9986, -7.69268
9.24793, 8, 8.22439, 15.6713, 32.1267, 11.4559, -46.0265, -7.67335
9.25791, 8, 8.20963, 15.6749, 32.1356, 11.4301, -46.0546, -7.65427
9.26413, 8, 8.19497, 15.6784, 32.1444, 11.4044, -46.0833, -7.63526
9.27091, 8, 8.18761, 15.6801, 32.1488, 11.3913, -46.0977, -7.62581
9.2803, 8, 8.16543, 15.6855, 32.1621, 11.3516, -46.14, -7.59741
9.28682, 8, 8.15811, 15.6872, 32.1665, 11.3384, -46.1541, -7.58777
9.29634, 8, 8.13601, 15.6927, 32.1796, 11.2997, -46.1961, -7.55847
9.30443, 8, 8.12123, 15.6964, 32.1884, 11.2742, -46.2248, -7.53892
9.31236, 8, 8.1063, 15.7001, 32.1972, 11.2484, -46.2533, -7.51954
9.32038, 8, 8.09128, 15.7039, 32.2061, 11.2221, -46.2813, -7.5005
9.32847, 8, 8.07635, 15.7077, 32.215, 11.1957, -46.3091, -7.48166
9.33638, 8, 8.06891, 15.7096, 32.2194, 11.1827, -46.323, -7.4723
9.34381, 8, 8.05413, 15.7134, 32.2281, 11.1569, -46.3512, -7.45363
9.35187, 8, 8.03941, 15.7172, 32.2368, 11.1313, -46.3801, -7.43499
9.35881, 8, 8.0246, 15.7211, 32.2455, 11.1055, -46.4086, -7.41617
9.36781, 8, 8.00981, 15.725, 32.2542, 11.0792, -46.4369, -7.39703
9.37594, 8, 7.99501, 15.7289, 32.2629, 11.0529, -46.4649, -7.37783
9.3838, 8, 7.98018, 15.7328, 32.2717, 11.0271, -46.4932, -7.35836
9.39182, 8, 7.96541, 15.7366, 32.2804, 11.0016, -46.5221, -7.33911
9.39981, 8, 7.95049, 15.7403, 32.289, 10.9763, -46.5506, -7.32019
9.40782, 8, 7.93549, 15.7441, 32.2976, 10.9505, -46.5788, -7.30158
9.41585, 8, 7.92059, 15.7478, 32.3064, 10.9243, -46.6067, -7.28302
9.42381, 8, 7.90565, 15.7516, 32.315, 10.8982, -46.6349, -7.26463
9.43181, 8, 7.89078, 15.7553, 32.3237, 10.8726, -46.6636, -7.24628
9.43986, 8, 7.87594, 15.7592, 32.3324, 10.8473, -46.6923, -7.22787
9.44783, 8, 7.86097, 15.7631, 32.3408, 10.822, -46.7206, -7.20906
9.45583, 8, 7.84611, 15.7671, 32.3493, 10.7961, -46.7488, -7.19009
9.4648, 8, 7.83132, 15.7711, 32.3578, 10.7702, -46.777, -7.17104
9.47181, 8, 7.81652, 15.775, 32.3662, 10.7447, -46.8057, -7.15212
9.48089, 8, 7.80165, 15.779, 32.3747, 10.7196, -46.8345, -7.13345
9.48787, 8, 7.78658, 15.783, 32.3833, 10.6948, -46.8626, -7.11504
9.49581, 8, 7.77155, 15.787, 32.3918, 10.6696, -46.8906, -7.09681
9.50381, 8, 7.75655, 15.7911, 32.4002, 10.6439, -46.9185, -7.07851
9.51187, 8, 7.74153, 15.795, 32.4087, 10.6182, -46.9472, -7.06034
9.51981, 8, 7.72662, 15.799, 32.4173, 10.5929, -46.9762, -7.04195
9.52789, 8, 7.71166, 15.8028, 32.4258, 10.568, -47.0046, -7.02341
9.53577, 8, 7.69672, 15.8067, 32.4344, 10.5432, -47.0328, -7.00442
9.5439, 8, 7.6819, 15.8107, 32.443, 10.5178, -47.0609, -6.98545
9.55188, 8, 7.66704, 15.8146, 32.4513, 10.4922, -47.0895, -6.96672
9.55986, 8, 7.6522, 15.8187, 32.4596, 10.4667, -47.1184, -6.94844
9.56781, 8, 7.63731, 15.8229, 32.468, 10.4416, -47.1468, -6.93032
9.57587, 8, 7.62239, 15.827, 32.4763, 10.4167, -47.1748, -6.91215
9.58381, 8, 7.60761, 15.8312, 32.4846, 10.3917, -47.2027, -6.89412
9.59181, 8, 7.59286, 15.8354, 32.4929, 10.3662, -47.231, -6.87604
9.59987, 8, 7.57817, 15.8396, 32.5012, 10.3405, -47.26, -6.85786
9.60781, 8, 7.56341, 15.8438, 32.5095, 10.3152, -47.2886, -6.83947
9.61581, 8, 7.54849, 15.8481, 32.5177, 10.2903, -47.3169, -6.82096
9.6239, 8, 7.53364, 15.8524, 32.526, 10.2656, -47.345, -6.8022
9.6318, 8, 7.5188, 15.8567, 32.5344, 10.2405, -47.3735, -6.7836
9.6398, 8, 7.50395, 15.8609, 32.5428, 10.2149, -47.4025, -6.76533
9.64787, 8, 7.489, 15.8651, 32.5512, 10.1893, -47.4312, -6.74734
9.6558, 8, 7.47395, 15.8693, 32.5595, 10.1642, -47.4594, -6.72945
9.66384, 8, 7.45893, 15.8734, 32.5676, 10.1394, -47.4875, -6.71146
9.67196, 8, 7.44397, 15.8776, 32.5758, 10.1149, -47.516, -6.6936
9.67995, 8, 7.429, 15.8817, 32.5841, 10.09, -47.5451, -6.67557
9.68791, 8, 7.41415, 15.8861, 32.5922, 10.0647, -47.5739, -6.65757
9.69597, 8, 7.39924, 15.8904, 32.6005, 10.0394, -47.6024, -6.63907
9.70391, 8, 7.38436, 15.8947, 32.6087, 10.0146, -47.6306, -6.62056
9.7121, 8, 7.36954, 15.8989, 32.6168, 9.99002, -47.6593, -6.60209
9.7188, 8, 7.36211, 15.901, 32.6208, 9.97779, -47.6738, -6.59288
9.72783, 8, 7.33981, 15.9074, 32.633, 9.94044, -47.7172, -6.56564
9.73585, 8, 7.32476, 15.9118, 32.6413, 9.91516, -47.7456, -6.54781
9.74401, 8, 7.3096, 15.9162, 32.6495, 9.89019, -47.7737, -6.53013
9.75079, 8, 7.30205, 15.9183, 32.6536, 9.87794, -47.7878, -6.52122
9.76013, 8, 7.27955, 15.9247, 32.6658, 9.84159, -47.8312, -6.49472
9.7668, 8, 7.27206, 15.9269, 32.6698, 9.82953, -47.8458, -6.48577
9.77618, 8, 7.24971, 15.9332, 32.6818, 9.79253, -47.8888, -6.45881
9.7828, 8, 7.24221, 15.9354, 32.6858, 9.78003, -47.903, -6.44974
9.79234, 8, 7.21982, 15.9419, 32.6978, 9.74284, -47.9456, -6.42264
9.80033, 8, 7.205, 15.9463, 32.7058, 9.71845, -47.9746, -6.40473
9.80844, 8, 7.19013, 15.9508, 32.7139, 9.69428, -48.0035, -6.38719
9.81684, 8, 7.17523, 15.9552, 32.7219, 9.66986, -48.0319, -6.36962
9.82436, 8, 7.1677, 15.9596, 32.7298, 9.64503, -48.0601, -6.35212
9.83243, 8, 7.15263, 15.964, 32.7378, 9.62006, -48.0884, -6.33472
9.84071, 8, 7.13769, 15.9662, 32.7418, 9.60773, -48.1174, -6.31723
9.8478, 8, 7.12277, 15.9708, 32.7499, 9.58347, -48.132, -6.30847
9.85585, 8, 7.1079, 15.9754, 32.758, 9.55941, -48.1608, -6.29069
9.8638, 8, 7.09304, 15.9799, 32.7661, 9.53538, -48.1891, -6.27259
9.87179, 8, 7.0781, 15.9845, 32.7742, 9.51086, -48.2175, -6.25467
9.87992, 8, 7.06323, 15.989, 32.782, 9.4859, -48.2462, -6.23656
9.8878, 8, 7.04834, 15.9934, 32.7898, 9.46122, -48.2754, -6.21876
9.89579, 8, 7.03339, 15.9979, 32.7977, 9.43684, -48.3042, -6.20135
9.90386, 8, 7.01845, 16.0024, 32.8056, 9.41271, -48.3326, -6.18417
9.91179, 8, 7.00339, 16.007, 32.8134, 9.38855, -48.3609, -6.16702
9.91979, 8, 6.98837, 16.0116, 32.8213, 9.36393, -48.3895, -6.14996
9.92784, 8, 6.97339, 16.0162, 32.8291, 9.33901, -48.4188, -6.13291
9.9358, 8, 6.95839, 16.0208, 32.8368, 9.31449, -48.4477, -6.11575
9.94385, 8, 6.94347, 16.0253, 32.8446, 9.2904, -48.4763, -6.0984
9.95179, 8, 6.9285, 16.0299, 32.8524, 9.26649, -48.5048, -6.08069
9.95982, 8, 6.91355, 16.0345, 32.8603, 9.2426, -48.5336, -6.06283
9.96792, 8, 6.89861, 16.0392, 32.8682, 9.21818, -48.5628, -6.04525
9.97683, 8, 6.88368, 16.0439, 32.8761, 9.19353, -48.5917, -6.02795
9.9838, 8, 6.86877, 16.0484, 32.884, 9.16923, -48.6201, -6.01085
9.99279, 8, 6.85373, 16.053, 32.8917, 9.14524, -48.6484, -5.9937
9.99978, 8, 6.83859, 16.0576, 32.8994, 9.12153, -48.677, -5.97688
10.0078, 8, 6.82357, 16.0622, 32.9071, 9.09771, -48.7063, -5.95985
10.0159, 8, 6.80854, 16.0669, 32.9149, 9.07345, -48.7354, -5.94285
10.0238, 8, 6.79358, 16.0716, 32.9226, 9.04905, -48.764, -5.92593
10.0318, 8, 6.7786, 16.0764, 32.9303, 9.02493, -48.7926, -5.90868
10.0398, 8, 6.76361, 16.0811, 32.938, 9.00126, -48.8213, -5.89119
10.0479, 8, 6.74872, 16.0857, 32.9456, 8.97771, -48.8505, -5.87343
10.0558, 8, 6.73383, 16.0904, 32.9532, 8.95426, -48.8795, -5.85604
10.0638, 8, 6.71893, 16.0952, 32.9609, 8.9302, -48.908, -5.83898
10.0718, 8, 6.70394, 16.1, 32.9686, 8.90592, -48.9363, -5.82228
10.0801, 8, 6.68882, 16.1048, 32.9764, 8.88188, -48.9649, -5.80564
10.0869, 8, 6.67376, 16.1096, 32.9842, 8.85825, -48.9943, -5.7889
10.0958, 8, 6.65878, 16.1144, 32.9919, 8.83484, -49.0234, -5.7723
10.1046, 8, 6.64383, 16.1192, 32.9995, 8.81137, -49.0521, -5.7556
10.1118, 8, 6.62898, 16.124, 33.0069, 8.78742, -49.0806, -5.73871
10.1198, 8, 6.61402, 16.1288, 33.0144, 8.76318, -49.1093, -5.72153
10.1286, 8, 6.59908, 16.1337, 33.0219, 8.73926, -49.1386, -5.70416
10.1359, 8, 6.58421, 16.1386, 33.0294, 8.71569, -49.1678, -5.6869
10.1438, 8, 6.56931, 16.1434, 33.0369, 8.69243, -49.1964, -5.66959
10.1528, 8, 6.55438, 16.1482, 33.0444, 8.66907, -49.2247, -5.65258
10.1598, 8, 6.53936, 16.153, 33.0519, 8.64525, -49.2533, -5.63585
10.1678, 8, 6.52424, 16.1579, 33.0593, 8.62113, -49.2826, -5.61927
10.1768, 8, 6.50929, 16.1628, 33.0666, 8.59715, -49.3117, -5.60263
10.1839, 8, 6.49421, 16.1676, 33.0742, 8.57363, -49.3405, -5.58593
10.1919, 8, 6.47927, 16.1725, 33.0818, 8.5503, -49.369, -5.56928
10.2011, 8, 6.46432, 16.1773, 33.0894, 8.52694, -49.3977, -5.55257
10.2079, 8, 6.44925, 16.1822, 33.097, 8.50318, -49.427, -5.53565
10.216, 8, 6.43425, 16.1872, 33.1046, 8.47899, -49.4561, -5.51843
10.2253, 8, 6.41924, 16.1922, 33.112, 8.4551, -49.4848, -5.50119
10.2308, 8, 6.41175, 16.1948, 33.1156, 8.44331, -49.499, -5.49272
10.2399, 8, 6.38925, 16.2024, 33.1266, 8.40841, -49.5416, -5.46749
10.25, 8, 6.37408, 16.2074, 33.1339, 8.38527, -49.5708, -5.45094
10.2568, 8, 6.35892, 16.2124, 33.1413, 8.3617, -49.6, -5.4344
10.264, 8, 6.34378, 16.2175, 33.1486, 8.33784, -49.6286, -5.41802
10.2708, 8, 6.33623, 16.22, 33.1522, 8.32591, -49.643, -5.40992
10.2789, 8, 6.3212, 16.2252, 33.1595, 8.30239, -49.6715, -5.39355
10.2882, 8, 6.29861, 16.2328, 33.1702, 8.26761, -49.7149, -5.36904
10.297, 8, 6.28359, 16.2379, 33.1774, 8.24457, -49.7441, -5.35239
10.3044, 8, 6.26867, 16.2429, 33.1846, 8.2212, -49.7727, -5.33565
10.3123, 8, 6.25364, 16.248, 33.192, 8.19747, -49.8011, -5.3188
10.3212, 9, 6.23859, 16.2532, 33.1993, 8.17379, -49.8296, -5.30204
10.3284, 9, 6.2234, 16.2584, 33.2066, 8.15065, -49.8587, -5.28561
10.3363, 9, 6.21578, 16.2611, 33.2103, 8.13922, -49.8882, -5.26958
10.3438, 9, 6.20057, 16.2662, 33.2176, 8.11645, -49.9027, -5.26158
10.3508, 9, 6.18548, 16.2712, 33.2247, 8.09371, -49.9314, -5.24568
10.3609, 9, 6.16294, 16.2789, 33.2354, 8.05871, -49.9743, -5.22157
10.3678, 9, 6.15544, 16.2815, 33.239, 8.04693, -49.9888, -5.21359
10.3758, 9, 6.14038, 16.2867, 33.2461, 8.02356, -50.0182, -5.19758
10.3838, 9, 6.12532, 16.2919, 33.2533, 8.00054, -50.0473, -5.1812
10.3918, 9, 6.11031, 16.2969, 33.2604, 7.97774, -50.076, -5.16475
10.3998, 9, 6.09532, 16.302, 33.2676, 7.95501, -50.1044, -5.14801
10.4079, 9, 6.08029, 16.3072, 33.2747, 7.93185, -50.1331, -5.13131
10.4158, 9, 6.06507, 16.3124, 33.2817, 7.90826, -50.1625, -5.11476
10.4238, 9, 6.04988, 16.3177, 33.2887, 7.88486, -50.1917, -5.09845
10.4318, 9, 6.03481, 16.3231, 33.2958, 7.8619, -50.2205, -5.08247
10.4398, 9, 6.01966, 16.3283, 33.303, 7.83921, -50.249, -5.06682
10.4469, 9, 6.00463, 16.3336, 33.3101, 7.81664, -50.278, -5.05113
10.4558, 9, 5.98949, 16.3389, 33.3172, 7.79375, -50.3074, -5.03548
10.4638, 9, 5.97431, 16.3442, 33.3244, 7.77045, -50.3365, -5.01977
10.4738, 9, 5.9517, 16.3523, 33.3348, 7.73546, -50.3794, -4.99595
10.4798, 9, 5.94417, 16.3549, 33.3382, 7.72397, -50.3937, -4.98805
10.4878, 9, 5.92912, 16.3602, 33.3451, 7.70119, -50.4225, -4.97178
10.4968, 9, 5.91394, 16.3655, 33.352, 7.67853, -50.4519, -4.9554
10.5038, 9, 5.89862, 16.3708, 33.359, 7.65576, -50.4812, -4.93919
10.5118, 9, 5.88339, 16.3762, 33.3659, 7.63255, -50.5101, -4.92314
10.5198, 9, 5.86821, 16.3817, 33.3728, 7.60912, -50.5388, -4.90732
10.5278, 9, 5.85305, 16.3872, 33.3797, 7.58613, -50.5676, -4.89164
10.5359, 9, 5.83794, 16.3926, 33.3866, 7.56347, -50.597, -4.87595
10.5438, 9, 5.8228, 16.398, 33.3934, 7.54107, -50.6262, -4.8604
10.5518, 9, 5.80777, 16.4033, 33.4002, 7.51864, -50.6549, -4.84496
10.5598, 9, 5.79275, 16.4088, 33.4071, 7.49571, -50.6833, -4.82944
10.5678, 9, 5.7777, 16.4142, 33.4142, 7.47244, -50.712, -4.81385
10.5758, 9, 5.7626, 16.4195, 33.4211, 7.44938, -50.7415, -4.79802
10.5838, 9, 5.74731, 16.4248, 33.4281, 7.42668, -50.7708, -4.78205
10.5918, 9, 5.73213, 16.4302, 33.4351, 7.40424, -50.7997, -4.76586
10.5998, 9, 5.71703, 16.4357, 33.442, 7.3819, -50.8283, -4.74984
10.6078, 9, 5.70195, 16.4412, 33.4487, 7.35928, -50.8571, -4.734
10.6158, 9, 5.68691, 16.4468, 33.4554, 7.33633, -50.8867, -4.71831
10.6238, 9, 5.67177, 16.4523, 33.4621, 7.31335, -50.916, -4.70304
10.6318, 9, 5.65667, 16.4579, 33.4689, 7.29089, -50.9448, -4.68796
10.6398, 9, 5.64165, 16.4634, 33.4756, 7.26872, -50.9734, -4.67271
10.6478, 9, 5.62662, 16.469, 33.4823, 7.24671, -51.0022, -4.65752
10.6558, 9, 5.61153, 16.4746, 33.489, 7.22452, -51.0317, -4.6422
10.6639, 9, 5.59633, 16.4802, 33.4956, 7.20185, -51.0611, -4.62684
10.6718, 9, 5.58112, 16.4857, 33.5022, 7.17899, -51.0901, -4.61117
10.6799, 9, 5.56597, 16.4912, 33.5087, 7.15645, -51.1189, -4.59515
10.6879, 9, 5.55075, 16.4967, 33.5154, 7.13418, -51.1478, -4.57919
10.6959, 9, 5.5356, 16.5024, 33.5222, 7.1122, -51.1773, -4.56323
10.7039, 9, 5.5204, 16.5081, 33.5289, 7.09017, -51.2067, -4.54743
10.7119, 9, 5.50513, 16.5137, 33.5357, 7.06782, -51.2355, -4.53206
10.72, 9, 5.48999, 16.5193, 33.5424, 7.04507, -51.2642, -4.51674
10.7274, 9, 5.48243, 16.5221, 33.5458, 7.03369, -51.2785, -4.50913
10.7361, 9, 5.4597, 16.5305, 33.5557, 6.99999, -51.3225, -4.48651
10.7428, 9, 5.4521, 16.5334, 33.5589, 6.98891, -51.3373, -4.47881
10.7519, 9, 5.4291, 16.5417, 33.5686, 6.95598, -51.381, -4.45585
10.7601, 9, 5.41383, 16.5472, 33.5752, 6.93383, -51.4097, -4.44037
10.7668, 9, 5.40622, 16.55, 33.5785, 6.92258, -51.4241, -4.43256
10.776, 9, 5.38348, 16.5585, 33.5883, 6.88844, -51.468, -4.40914
10.7828, 9, 5.37593, 16.5614, 33.5916, 6.87717, -51.4827, -4.40115
10.7922, 9, 5.35321, 16.5702, 33.6014, 6.84377, -51.5261, -4.37763
10.7988, 9, 5.34567, 16.5731, 33.6046, 6.83283, -51.5404, -4.36992
10.8088, 9, 5.32313, 16.5817, 33.6142, 6.79992, -51.5835, -4.34697
10.8165, 9, 5.30806, 16.5876, 33.6206, 6.77756, -51.6131, -4.33199
10.8243, 9, 5.29299, 16.5935, 33.627, 6.75477, -51.6427, -4.3168
10.8326, 9, 5.28538, 16.5964, 33.6336, 6.73216, -51.6717, -4.30179
10.8403, 9, 5.27012, 16.6022, 33.6369, 6.72105, -51.6861, -4.28682
10.8484, 9, 5.25497, 16.608, 33.6434, 6.69902, -51.7149, -4.2793
10.8558, 9, 5.23986, 16.6138, 33.6499, 6.6773, -51.7442, -4.26422
10.8638, 9, 5.22481, 16.6196, 33.6564, 6.65556, -51.7739, -4.24903
10.8718, 9, 5.20979, 16.6255, 33.6629, 6.63345, -51.8031, -4.23355
10.8798, 9, 5.19467, 16.6315, 33.6691, 6.611, -51.8318, -4.21814
10.8878, 9, 5.17963, 16.6374, 33.6753, 6.58868, -51.8605, -4.20267
10.8958, 9, 5.1646, 16.6433, 33.6816, 6.56665, -51.8898, -4.18721
10.9038, 9, 5.14955, 16.6492, 33.688, 6.54485, -51.9195, -4.17213
10.9118, 9, 5.13443, 16.6551, 33.6942, 6.52318, -51.9488, -4.15718
10.9198, 9, 5.11913, 16.6609, 33.7005, 6.5013, -51.9779, -4.14252
10.9278, 9, 5.10393, 16.6667, 33.7067, 6.47903, -52.0068, -4.12803
10.9358, 9, 5.08869, 16.6725, 33.713, 6.45666, -52.0361, -4.11335
10.9438, 9, 5.07348, 16.6783, 33.7192, 6.43467, -52.0659, -4.09875
10.9518, 9, 5.05832, 16.6843, 33.7253, 6.41306, -52.095, -4.08399
10.9598, 9, 5.04305, 16.6904, 33.7314, 6.39164, -52.1238, -4.06903
10.9678, 9, 5.02784, 16.6964, 33.7377, 6.37036, -52.1525, -4.05394
10.9768, 9, 5.01273, 16.7024, 33.7441, 6.34858, -52.1818, -4.03856
10.9838, 9, 4.99763, 16.7084, 33.7504, 6.32644, -52.2115, -4.02313
10.9917, 9, 4.9825, 16.7145, 33.7567, 6.30436, -52.2406, -4.00799
11.0008, 9, 4.96723, 16.7206, 33.763, 6.28267, -52.2695, -3.99305
11.0078, 9, 4.95194, 16.7267, 33.7693, 6.26116, -52.2983, -3.97825
11.0158, 9, 4.93672, 16.7326, 33.7756, 6.23984, -52.3276, -3.96381
11.0238, 9, 4.92149, 16.7386, 33.7817, 6.2183, -52.3573, -3.94931
11.0318, 9, 4.90634, 16.7447, 33.7877, 6.1964, -52.3863, -3.93509
11.0399, 9, 4.89113, 16.7509, 33.7938, 6.1743, -52.415, -3.9207
11.0478, 9, 4.87593, 16.7571, 33.7999, 6.15241, -52.4437, -3.90629
11.0559, 9, 4.8608, 16.7632, 33.806, 6.13093, -52.473, -3.89184
11.0637, 9, 4.84565, 16.7693, 33.812, 6.1097, -52.5028, -3.87715
11.0718, 9, 4.83048, 16.7755, 33.818, 6.08849, -52.532, -3.86225
11.0799, 9, 4.81525, 16.7816, 33.8241, 6.06694, -52.561, -3.84733
11.0877, 9, 4.79998, 16.7876, 33.8301, 6.04496, -52.5899, -3.83233
11.0958, 9, 4.78482, 16.7935, 33.836, 6.02292, -52.6193, -3.81756
11.1038, 9, 4.76973, 16.7996, 33.8418, 6.00116, -52.649, -3.80307
11.1117, 9, 4.75467, 16.8057, 33.8478, 5.97966, -52.6782, -3.78864
11.1198, 9, 4.73958, 16.8119, 33.8539, 5.95832, -52.707, -3.77442
11.1278, 9, 4.7244, 16.8182, 33.86, 5.93701, -52.7358, -3.76027
11.1358, 9, 4.7093, 16.8244, 33.866, 5.91524, -52.7653, -3.74594
11.1437, 9, 4.69418, 16.8305, 33.872, 5.89324, -52.7951, -3.73182
11.152, 9, 4.679, 16.8368, 33.8781, 5.87138, -52.8245, -3.71754
11.1598, 9, 4.66376, 16.8431, 33.8841, 5.8499, -52.8535, -3.70313
11.1687, 9, 4.64839, 16.8493, 33.8899, 5.82871, -52.8825, -3.68854
11.176, 9, 4.63307, 16.8555, 33.8957, 5.80775, -52.9122, -3.67377
11.1833, 9, 4.61781, 16.8617, 33.9015, 5.78649, -52.942, -3.65893
11.1927, 9, 4.60256, 16.868, 33.9074, 5.76493, -52.9712, -3.64428
11.2002, 9, 4.58741, 16.8744, 33.9133, 5.74309, -53.0001, -3.62954
11.2074, 9, 4.57222, 16.8808, 33.9192, 5.72152, -53.029, -3.61524
11.2168, 9, 4.55707, 16.8871, 33.9251, 5.70029, -53.0585, -3.60111
11.2245, 9, 4.54198, 16.8934, 33.931, 5.67928, -53.0883, -3.58709
11.2318, 9, 4.52696, 16.8997, 33.9369, 5.65838, -53.1175, -3.57331
11.2408, 9, 4.51183, 16.906, 33.9426, 5.63729, -53.1465, -3.55962
11.2486, 9, 4.49648, 16.9122, 33.9483, 5.61584, -53.1754, -3.54569
11.2559, 9, 4.48114, 16.9184, 33.9539, 5.59425, -53.2048, -3.53174
11.2648, 9, 4.4659, 16.9247, 33.9597, 5.57289, -53.2344, -3.51768
11.2728, 9, 4.45066, 16.9311, 33.9655, 5.55196, -53.2635, -3.50333
11.2801, 9, 4.43541, 16.9376, 33.9714, 5.53117, -53.2923, -3.48888
11.2868, 9, 4.42778, 16.9409, 33.9743, 5.52087, -53.3067, -3.48161
11.297, 9, 4.40482, 16.9506, 33.983, 5.48958, -53.3506, -3.45958
11.3043, 9, 4.38962, 16.957, 33.9888, 5.46821, -53.3804, -3.44519
11.3123, 9, 4.37445, 16.9637, 33.9945, 5.44676, -53.4097, -3.43093
11.3212, 9, 4.35922, 16.9702, 34.0001, 5.4256, -53.4387, -3.41681
11.3268, 9, 4.35161, 16.9734, 34.0029, 5.41508, -53.4532, -3.40988
11.3363, 9, 4.32864, 16.9831, 34.0112, 5.38399, -53.4973, -3.38918
11.3452, 9, 4.32103, 16.9863, 34.014, 5.37365, -53.5122, -3.37539
11.3509, 9, 4.30585, 16.9928, 34.0197, 5.35283, -53.5417, -3.36856
11.3608, 9, 4.28315, 17.0028, 34.0281, 5.32089, -53.585, -3.34772
11.3678, 9, 4.2756, 17.0061, 34.0308, 5.31015, -53.5995, -3.34065
11.3748, 9, 4.26041, 17.0126, 34.0363, 5.28894, -53.6286, -3.32655
11.3838, 9, 4.24531, 17.0191, 34.0419, 5.26806, -53.6584, -3.31222
11.3918, 9, 4.23019, 17.0257, 34.0474, 5.24747, -53.6879, -3.2978
11.3987, 9, 4.21508, 17.0321, 34.0529, 5.22693, -53.7171, -3.28347
11.4077, 9, 4.19992, 17.0385, 34.0583, 5.20612, -53.746, -3.26909
11.4157, 9, 4.18461, 17.0449, 34.0637, 5.18491, -53.7753, -3.25489
11.4228, 9, 4.1693, 17.0514, 34.0693, 5.16356, -53.8051, -3.24093
11.4317, 9, 4.15409, 17.058, 34.075, 5.14241, -53.8346, -3.22726
11.4421, 9, 4.13125, 17.068, 34.0835, 5.11133, -53.878, -3.2069
11.4467, 9, 4.12368, 17.0713, 34.0863, 5.10105, -53.8924, -3.20016
11.4557, 9, 4.10842, 17.0779, 34.0919, 5.08049, -53.9216, -3.18659
11.4637, 9, 4.09314, 17.0846, 34.0975, 5.05957, -53.9515, -3.17302
11.4733, 9, 4.07794, 17.0913, 34.103, 5.03828, -53.9811, -3.15957
11.4797, 9, 4.06273, 17.098, 34.1085, 5.01693, -54.0103, -3.14586
11.4887, 9, 4.04752, 17.1045, 34.1138, 4.99589, -54.0392, -3.13204
11.4947, 9, 4.03218, 17.1111, 34.1191, 4.97517, -54.0686, -3.11816
11.5037, 9, 4.01673, 17.1179, 34.1244, 4.95473, -54.0983, -3.10423
11.5117, 9, 4.00141, 17.1248, 34.1299, 4.93429, -54.1277, -3.09042
11.5198, 9, 3.98609, 17.1315, 34.1352, 4.91353, -54.1566, -3.07679
11.5277, 9, 3.97082, 17.1383, 34.1405, 4.89247, -54.1853, -3.06309
11.5357, 9, 3.95558, 17.145, 34.1458, 4.87133, -54.2145, -3.04963
11.5438, 9, 3.94034, 17.1518, 34.1511, 4.85056, -54.2442, -3.03651
11.5517, 9, 3.92519, 17.1584, 34.1564, 4.83002, -54.2737, -3.02358
11.5598, 9, 3.91005, 17.1651, 34.1616, 4.80971, -54.3028, -3.01066
11.5678, 9, 3.89486, 17.1717, 34.1668, 4.78933, -54.3317, -2.99785
11.5757, 9, 3.87963, 17.1785, 34.172, 4.76864, -54.361, -2.98494
11.5838, 9, 3.86423, 17.1854, 34.1772, 4.74767, -54.3909, -2.97198
11.5918, 9, 3.84896, 17.1923, 34.1825, 4.72666, -54.4203, -2.95892
11.5997, 9, 3.83369, 17.1992, 34.1878, 4.70603, -54.4493, -2.9458
11.6077, 9, 3.81848, 17.2061, 34.1931, 4.68579, -54.4781, -2.93254
11.6158, 9, 3.80329, 17.213, 34.1984, 4.66569, -54.5074, -2.91909
11.6238, 9, 3.78797, 17.2198, 34.2036, 4.64569, -54.5373, -2.90566
11.6317, 9, 3.77279, 17.2266, 34.2089, 4.62524, -54.5667, -2.89231
11.6398, 9, 3.75764, 17.2333, 34.2142, 4.6044, -54.5958, -2.87931
11.6477, 9, 3.74245, 17.2401, 34.2194, 4.58355, -54.6248, -2.86657
11.6557, 9, 3.72722, 17.2471, 34.2246, 4.56291, -54.6542, -2.85396
11.6639, 9, 3.71186, 17.2541, 34.2296, 4.54256, -54.6841, -2.84165
11.6718, 9, 3.69653, 17.2609, 34.2347, 4.52243, -54.7134, -2.8292
11.6798, 9, 3.6813, 17.2678, 34.2399, 4.50221, -54.7423, -2.81704
11.6881, 9, 3.66604, 17.2747, 34.2452, 4.48171, -54.7712, -2.80493
11.6953, 9, 3.65082, 17.2815, 34.2503, 4.46084, -54.8005, -2.79273
11.7038, 9, 3.63551, 17.2881, 34.2554, 4.4399, -54.8304, -2.78042
11.7123, 9, 3.62021, 17.2949, 34.2606, 4.41939, -54.8598, -2.76799
11.7193, 9, 3.61262, 17.2983, 34.2631, 4.40924, -54.889, -2.75547
11.7278, 9, 3.58977, 17.3088, 34.2707, 4.37916, -54.9179, -2.74296
11.7366, 9, 3.57452, 17.3158, 34.2757, 4.35908, -54.9473, -2.73039
11.7438, 9, 3.55914, 17.3228, 34.2806, 4.33876, -54.9771, -2.71792
11.752, 9, 3.54367, 17.3298, 34.2856, 4.31805, -55.0064, -2.70554
11.7607, 9, 3.52839, 17.3369, 34.2906, 4.29725, -55.0354, -2.69326
11.7679, 9, 3.51308, 17.3439, 34.2957, 4.27665, -55.0643, -2.68136
11.7747, 9, 3.50548, 17.3473, 34.2983, 4.26645, -55.079, -2.67546
11.7849, 9, 3.48272, 17.3577, 34.3059, 4.23607, -55.1239, -2.65797
11.7922, 9, 3.46745, 17.3648, 34.311, 4.21597, -55.1533, -2.64639
11.7987, 9, 3.45986, 17.3683, 34.3136, 4.20581, -55.1679, -2.64064
11.8091, 9, 3.4371, 17.3791, 34.3212, 4.17477, -55.2117, -2.62321
11.8163, 9, 3.42187, 17.3862, 34.3262, 4.15396, -55.2413, -2.61171
11.8244, 9, 3.40662, 17.3933, 34.3311, 4.13347, -55.2713, -2.60013
11.8331, 9, 3.39124, 17.4004, 34.3359, 4.11327, -55.3006, -2.58842
11.8388, 9, 3.38356, 17.404, 34.3382, 4.10326, -55.3151, -2.58254
11.8486, 9, 3.36827, 17.4109, 34.343, 4.07335, -55.3586, -2.56477
11.8557, 9, 3.35307, 17.4179, 34.3478, 4.06331, -55.3733, -2.5588
11.8629, 9, 3.33792, 17.425, 34.3526, 4.04287, -55.4032, -2.54677
11.8728, 9, 3.31498, 17.4359, 34.3597, 4.0119, -55.4476, -2.52909
11.8797, 9, 3.30734, 17.4396, 34.3621, 4.00161, -55.4622, -2.52325
11.8868, 9, 3.29213, 17.4467, 34.3668, 3.98125, -55.4914, -2.51178
11.8958, 9, 3.27686, 17.454, 34.3715, 3.96118, -55.5208, -2.50041
11.9037, 9, 3.26161, 17.4614, 34.3762, 3.94127, -55.5508, -2.48924
11.9107, 9, 3.24626, 17.4686, 34.3808, 3.92129, -55.5805, -2.47829
11.9197, 9, 3.23083, 17.4757, 34.3855, 3.90108, -55.6096, -2.46723
11.9278, 9, 3.21551, 17.4829, 34.39, 3.88052, -55.6386, -2.45648
11.9347, 9, 3.20017, 17.4904, 34.3946, 3.86008, -55.6679, -2.44589
11.9437, 9, 3.18484, 17.4979, 34.3991, 3.84003, -55.698, -2.43519
11.9518, 9, 3.16956, 17.5052, 34.4038, 3.82023, -55.7276, -2.42444
11.9587, 9, 3.15421, 17.5126, 34.4085, 3.80061, -55.7569, -2.41354
11.9677, 9, 3.13897, 17.52, 34.4131, 3.78102, -55.786, -2.40264
11.9767, 9, 3.1237, 17.5273, 34.4178, 3.76101, -55.8154, -2.39172
