hehonglu123/ABB_Primitive_Study/realrobot/movelcl_30_car2/curve_exe_v500_fine.csv
timestamp, cmd_num, J1, J2, J3, J4, J5, J6
0.000425, -1, -13.44, 43.6796, 12.5938, -11.6278, -87.0288, 7.42456
0.006971, -1, -13.44, 43.6797, 12.5938, -11.6278, -87.0288, 7.42454
0.008813, -1, -13.44, 43.6797, 12.5938, -11.6278, -87.0288, 7.42454
0.032474, -1, -13.4399, 43.6797, 12.5938, -11.6279, -87.0288, 7.42452
0.033701, -1, -13.4399, 43.6797, 12.5938, -11.6279, -87.0288, 7.42452
0.036213, -1, -13.4399, 43.6797, 12.5938, -11.6278, -87.0288, 7.42454
0.039341, -1, -13.4399, 43.6797, 12.5937, -11.6278, -87.0288, 7.42453
0.047555, -1, -13.4399, 43.6796, 12.5937, -11.6278, -87.0288, 7.42456
0.055486, -1, -13.4394, 43.6793, 12.5938, -11.6278, -87.0288, 7.42454
0.063433, -1, -13.4371, 43.6776, 12.594, -11.6278, -87.0288, 7.4245
0.071932, -1, -13.4319, 43.6734, 12.5947, -11.6275, -87.0284, 7.42443
0.081201, -1, -13.4232, 43.6662, 12.5962, -11.626, -87.0264, 7.42427
0.087462, -1, -13.4102, 43.6555, 12.599, -11.6205, -87.02, 7.42277
0.095519, -1, -13.3908, 43.6398, 12.6033, -11.6086, -87.0062, 7.41613
0.103352, -1, -13.3634, 43.6174, 12.6103, -11.5871, -86.9807, 7.40099
0.111366, -1, -13.3278, 43.5875, 12.6202, -11.5521, -86.94, 7.37577
0.11972, -1, -13.2826, 43.5488, 12.6333, -11.4986, -86.8789, 7.33756
0.127408, -1, -13.2268, 43.5, 12.6507, -11.4243, -86.7924, 7.2831
0.135456, -1, -13.1595, 43.4405, 12.6726, -11.3253, -86.6779, 7.20968
0.143658, -1, -13.0808, 43.3698, 12.6988, -11.2001, -86.5325, 7.11756
0.151557, -1, -12.9903, 43.2878, 12.7299, -11.0484, -86.3561, 7.00466
0.159618, -1, -12.8877, 43.1944, 12.7658, -10.8708, -86.1491, 6.87257
0.168077, -1, -12.7735, 43.0904, 12.8059, -10.6696, -85.9145, 6.7224
0.177217, -1, -12.6488, 42.9769, 12.8497, -10.4475, -85.6555, 6.55639
0.183836, -1, -12.5141, 42.8545, 12.897, -10.2088, -85.3768, 6.37801
0.191994, -1, -12.3703, 42.7244, 12.9472, -9.95742, -85.0829, 6.18996
0.200515, -1, -12.2192, 42.588, 12.9997, -9.69708, -84.7787, 5.99487
0.20789, -1, -12.0624, 42.4465, 13.0537, -9.43087, -84.4671, 5.79529
0.216188, -1, -11.9002, 42.301, 13.109, -9.16116, -84.1516, 5.59257
0.223978, -1, -11.8173, 42.1523, 13.1651, -8.88943, -83.8339, 5.38875
0.231334, -1, -11.6489, 42.0771, 13.1934, -8.75303, -83.6745, 5.28663
0.24037, -1, -11.3927, 41.8497, 13.2788, -8.34319, -83.1951, 4.97957
0.247356, -1, -11.3068, 41.7736, 13.3074, -8.20646, -83.035, 4.87697
0.255336, -1, -11.1348, 41.6215, 13.3645, -7.93275, -82.7147, 4.67182
0.264797, -1, -10.8763, 41.3942, 13.4507, -7.522, -82.2337, 4.36366
0.271374, -1, -10.7901, 41.3184, 13.4794, -7.38516, -82.0733, 4.26107
0.27939, -1, -10.6177, 41.1668, 13.5371, -7.11109, -81.7525, 4.05569
0.288818, -1, -10.3588, 40.9392, 13.6236, -6.70004, -81.2715, 3.74777
0.295327, -1, -10.2726, 40.8635, 13.6524, -6.56319, -81.1112, 3.64513
0.304779, -1, -10.0144, 40.6362, 13.7385, -6.15256, -80.6308, 3.33708
0.311341, -1, -9.92852, 40.5604, 13.7672, -6.01569, -80.4708, 3.2345
0.319345, -1, -9.75722, 40.4085, 13.8246, -5.7422, -80.151, 3.02954
0.328965, -1, -9.50145, 40.18, 13.9105, -5.33217, -79.6716, 2.72243
0.336993, -1, -9.33172, 40.028, 13.9678, -5.05881, -79.3519, 2.51776
0.343403, -1, -9.24708, 39.952, 13.9963, -4.92233, -79.1921, 2.41543
0.35291, -1, -9.07817, 39.8, 14.0534, -4.64971, -78.7133, 2.10898
0.360325, -1, -8.90924, 39.648, 14.1105, -4.37737, -78.5537, 2.00694
0.367391, -1, -8.74011, 39.4961, 14.1674, -4.10554, -78.2351, 1.80337
0.375332, -1, -8.57065, 39.3449, 14.2244, -3.83421, -77.9174, 1.59979
0.383339, -1, -8.40091, 39.1943, 14.2813, -3.56295, -77.6001, 1.39661
0.391471, -1, -8.23106, 39.0439, 14.3382, -3.29235, -77.2833, 1.19366
0.399346, -1, -8.06095, 38.8936, 14.3949, -3.0223, -76.9673, 0.991213
0.407423, -1, -7.89082, 38.7436, 14.4517, -2.75264, -76.6517, 0.789259
0.41536, -1, -7.72064, 38.5941, 14.5081, -2.48356, -76.3366, 0.587791
0.423341, -1, -7.55026, 38.445, 14.5644, -2.21519, -76.022, 0.3866
0.431406, -1, -7.37993, 38.296, 14.6207, -1.94722, -75.708, 0.185998
0.439327, -1, -7.21009, 38.1471, 14.6769, -1.67953, -75.3948, -0.0144858
0.447333, -1, -7.04095, 37.9982, 14.7331, -1.41269, -75.0824, -0.214265
0.455436, -1, -6.87282, 37.8498, 14.7891, -1.14656, -74.7708, -0.413407
0.46334, -1, -6.70575, 37.7017, 14.8446, -0.881054, -74.4601, -0.612073
0.471331, -1, -6.53938, 37.554, 14.9001, -0.616562, -74.1502, -0.810346
0.47941, -1, -6.37421, 37.4064, 14.9555, -0.35272, -73.841, -1.00809
0.48733, -1, -6.21023, 37.2592, 15.0108, -0.0892241, -73.5327, -1.20547
0.495372, -1, -6.04714, 37.1128, 15.066, 0.173325, -73.2253, -1.40187
0.503411, -1, -5.88482, 36.9672, 15.121, 0.434982, -72.9188, -1.59771
0.511438, -1, -5.72284, 36.822, 15.1757, 0.695874, -72.6136, -1.79288
0.519333, -1, -5.56087, 36.6771, 15.2302, 0.955933, -72.3089, -1.98767
0.527411, -1, -5.3988, 36.5327, 15.2847, 1.215, -72.0053, -2.18172
0.535341, -1, -5.23686, 36.3889, 15.339, 1.47338, -71.7028, -2.37534
0.543333, -1, -5.075, 36.2458, 15.3932, 1.73114, -71.4011, -2.56806
0.551587, -1, -4.9134, 36.103, 15.4472, 1.9877, -71.1007, -2.76019
0.559473, -1, -4.75202, 35.9604, 15.501, 2.24332, -70.8013, -2.95168
0.567419, -1, -4.59074, 35.8181, 15.5545, 2.49803, -70.5029, -3.14257
0.57575, -1, -4.4296, 35.6764, 15.6078, 2.75159, -70.2058, -3.33289
0.583443, -1, -4.26857, 35.5354, 15.6608, 3.00411, -69.91, -3.52226
0.591454, -1, -4.10822, 35.3948, 15.7137, 3.25617, -69.6152, -3.71088
0.599957, -1, -3.94915, 35.2546, 15.7665, 3.50738, -69.3214, -3.89863
0.608389, -1, -3.79138, 35.1147, 15.819, 3.75746, -69.0285, -4.08589
0.61536, -1, -3.63477, 34.9754, 15.8711, 4.00653, -68.7368, -4.27219
0.624139, -1, -3.479, 34.8369, 15.9232, 4.2548, -68.4459, -4.45828
0.631387, -1, -3.3242, 34.6991, 15.975, 4.50188, -68.1562, -4.64322
0.639541, -1, -3.17037, 34.5618, 16.0267, 4.74811, -67.8675, -4.82753
0.648412, -1, -3.01769, 34.4249, 16.0783, 4.99366, -67.5802, -5.011
0.655575, -1, -2.86582, 34.2885, 16.1298, 5.2384, -67.2941, -5.19394
0.663718, -1, -2.71457, 34.1529, 16.1808, 5.48169, -67.0091, -5.37604
0.672526, -1, -2.56349, 34.0181, 16.2317, 5.7241, -66.7254, -5.55773
0.679788, -1, -2.41235, 33.8837, 16.2824, 5.96536, -66.4432, -5.73841
0.687977, -1, -2.26129, 33.7498, 16.333, 6.20566, -66.1618, -5.91822
0.696484, -1, -2.11061, 33.6162, 16.3833, 6.44481, -65.8814, -6.09736
0.703907, -1, -1.96034, 33.4832, 16.4334, 6.68315, -65.6022, -6.27566
0.712454, -1, -1.81063, 33.3508, 16.4831, 6.92077, -65.3242, -6.45363
0.719912, -1, -1.73589, 33.2847, 16.5079, 7.15716, -65.0473, -6.63066
0.72841, -1, -1.51191, 33.0872, 16.5818, 7.39235, -64.7714, -6.80698
0.735894, -1, -1.43732, 33.0217, 16.6064, 7.50961, -64.634, -6.89483
0.744423, -1, -1.21415, 32.8256, 16.6801, 7.86013, -64.2234, -7.15729
0.751323, -1, -1.14026, 32.7605, 16.7045, 7.97649, -64.0871, -7.24453
0.760449, -1, -0.920331, 32.5667, 16.7775, 8.32407, -63.6801, -7.50509
0.767326, -1, -0.847687, 32.5024, 16.8017, 8.43957, -63.5449, -7.59159
0.775323, -1, -0.703252, 32.3741, 16.8499, 8.66974, -63.2759, -7.76419
0.784672, -1, -0.488021, 32.1828, 16.922, 9.01294, -62.8739, -8.02128
0.79133, -1, -0.416826, 32.1192, 16.9459, 9.12679, -62.7406, -8.10651
0.800841, -1, -0.204902, 31.9295, 17.0174, 9.46701, -62.3424, -8.36099
0.808816, -1, -0.0648275, 31.8039, 17.0647, 9.69251, -62.0784, -8.52973
0.816827, -1, 0.0743794, 31.6786, 17.1119, 9.91682, -61.8152, -8.6978
0.824907, -1, 0.21333, 31.5539, 17.1587, 10.1406, -61.5533, -8.86538
0.831376, -1, 0.282747, 31.4916, 17.182, 10.252, -61.4227, -8.94891
0.840902, -1, 0.42176, 31.3055, 17.2519, 10.585, -61.0323, -9.1981
0.84901, -1, 0.630239, 31.1822, 17.2982, 10.8057, -60.7735, -9.36325
0.856307, -1, 0.699573, 31.1208, 17.3213, 10.9156, -60.6446, -9.4455
0.864303, -1, 0.837946, 30.9983, 17.3673, 11.135, -60.3876, -9.60976
0.872356, -1, 0.975904, 30.8763, 17.4131, 11.3535, -60.1317, -9.7733
0.879318, -1, 1.11343, 30.7547, 17.4589, 11.571, -59.8769, -9.93625
0.88738, -1, 1.25059, 30.6336, 17.5043, 11.7874, -59.6235, -10.0986
0.895376, -1, 1.38762, 30.5132, 17.5495, 12.0034, -59.3712, -10.2599
0.903384, -1, 1.52413, 30.3934, 17.5947, 12.2183, -59.12, -10.4205
0.911334, -1, 1.65993, 30.2741, 17.6396, 12.4322, -58.8696, -10.5805
0.91933, -1, 1.79483, 30.1555, 17.6843, 12.6452, -58.6203, -10.7397
0.927395, -1, 1.92868, 30.0372, 17.7289, 12.8575, -58.3716, -10.8987
0.935313, -1, 2.06166, 29.9193, 17.7733, 13.0687, -58.124, -11.0568
0.943323, -1, 2.1939, 29.8019, 17.8174, 13.279, -57.8772, -11.2145
0.951393, -1, 2.32542, 29.6851, 17.8613, 13.4884, -57.6314, -11.3714
0.959337, -1, 2.45586, 29.5689, 17.905, 13.6971, -57.3867, -11.5274
0.967316, -1, 2.58547, 29.4529, 17.9486, 13.9052, -57.143, -11.6831
0.975378, -1, 2.71411, 29.3373, 17.9922, 14.1121, -56.9006, -11.8381
0.983313, -1, 2.84204, 29.2221, 18.0354, 14.3182, -56.6592, -11.9926
0.991331, -1, 2.96954, 29.1071, 18.0784, 14.5236, -56.4189, -12.1466
0.999664, -1, 3.09698, 28.9927, 18.1213, 14.7282, -56.1796, -12.2999
1.00731, -1, 3.22446, 28.879, 18.1639, 14.9317, -55.9412, -12.4524
1.01531, -1, 3.35181, 28.7657, 18.2065, 15.1346, -55.7038, -12.6043
1.02415, -1, 3.47888, 28.6529, 18.249, 15.3367, -55.4673, -12.7553
1.03132, -1, 3.60563, 28.5406, 18.2912, 15.5382, -55.2317, -12.9059
1.03932, -1, 3.7322, 28.4286, 18.3334, 15.7388, -54.9968, -13.0559
1.04811, -1, 3.85838, 28.3171, 18.3752, 15.9384, -54.7628, -13.2053
1.05536, -1, 3.98439, 28.2063, 18.4169, 16.1373, -54.5296, -13.3545
1.06346, -1, 4.10999, 28.096, 18.4586, 16.3354, -54.2971, -13.5028
1.07218, -1, 4.23522, 27.9861, 18.4999, 16.5328, -54.0659, -13.6504
1.07943, -1, 4.35979, 27.8766, 18.5412, 16.7292, -53.8356, -13.7975
1.08742, -1, 4.48355, 27.7674, 18.5824, 16.925, -53.6062, -13.9439
1.09621, -1, 4.60687, 27.6585, 18.6233, 17.1201, -53.3778, -14.0899
1.10337, -1, 4.72973, 27.55, 18.6641, 17.3145, -53.1501, -14.2353
1.11132, -1, 4.8518, 27.442, 18.7046, 17.5081, -52.9235, -14.3804
1.12024, -1, 4.97306, 27.3344, 18.7451, 17.701, -52.6976, -14.525
1.12735, -1, 5.09381, 27.2271, 18.7855, 17.8929, -52.4727, -14.6687
1.1357, -1, 5.21363, 27.1202, 18.8256, 18.0846, -52.2486, -14.812
1.14495, -1, 5.33261, 27.0136, 18.8656, 18.2753, -52.0254, -14.9546
1.1523, -1, 5.45077, 26.9074, 18.9055, 18.4653, -51.8029, -15.0966
1.15971, -1, 5.56844, 26.8017, 18.9453, 18.6548, -51.5811, -15.2383
1.16761, -1, 5.68569, 26.6965, 18.9849, 18.8434, -51.3601, -15.3796
1.17569, -1, 5.80264, 26.5917, 19.0244, 19.0317, -51.14, -15.5204
1.18418, -1, 5.91935, 26.4873, 19.0636, 19.2191, -50.9205, -15.6608
1.19181, -1, 6.0359, 26.3833, 19.1029, 19.4056, -50.7017, -15.8004
1.19983, -1, 6.15234, 26.2795, 19.1419, 19.5917, -50.4838, -15.9396
1.20841, -1, 6.26874, 26.176, 19.1807, 19.777, -50.2668, -16.0784
1.21589, -1, 6.38511, 26.0728, 19.2194, 19.9616, -50.0504, -16.2168
1.22387, -1, 6.44329, 26.0213, 19.2387, 20.1456, -49.8348, -16.3546
1.2325, -1, 6.61742, 25.8676, 19.2965, 20.3286, -49.62, -16.4922
1.23926, -1, 6.67535, 25.8165, 19.3157, 20.4201, -49.5129, -16.5607
1.24734, -1, 6.7909, 25.7147, 19.3539, 20.6026, -49.2993, -16.6978
1.25642, -1, 6.96331, 25.5627, 19.411, 20.8751, -48.9803, -16.9019
1.2633, -1, 7.02059, 25.5121, 19.4301, 20.9656, -48.8746, -16.9697
1.27133, -1, 7.13473, 25.4113, 19.4681, 21.1462, -48.6635, -17.1048
1.28091, -1, 7.30495, 25.261, 19.5247, 21.4158, -48.3479, -17.3065
1.28729, -1, 7.36143, 25.2111, 19.5435, 21.5055, -48.243, -17.3736
1.29538, -1, 7.4741, 25.1115, 19.5811, 21.6843, -48.0337, -17.5073
1.30489, -1, 7.64208, 24.9628, 19.6372, 21.9513, -47.7209, -17.7073
1.31277, -1, 7.75339, 24.8641, 19.6745, 22.1285, -47.5132, -17.8402
1.31934, -1, 7.80884, 24.8148, 19.693, 22.2169, -47.4095, -17.9065
1.3291, -1, 7.97469, 24.6672, 19.7485, 22.4818, -47.0993, -18.1044
1.3353, -1, 8.02972, 24.6181, 19.767, 22.5698, -46.9963, -18.17
1.34491, -1, 8.19424, 24.4714, 19.822, 22.8324, -46.6883, -18.3665
1.35302, -1, 8.24887, 24.374, 19.8584, 23.0068, -46.4839, -18.4972
1.3593, -1, 8.35791, 24.3253, 19.8767, 23.0938, -46.3821, -18.5623
1.36736, -1, 8.46652, 24.2283, 19.9131, 23.2675, -46.1788, -18.6923
1.37531, -1, 8.57448, 24.1315, 19.9493, 23.4406, -45.9762, -18.8219
1.3833, -1, 8.68187, 24.035, 19.9856, 23.613, -45.7743, -18.9514
1.39138, -1, 8.78907, 23.9389, 20.0216, 23.7848, -45.573, -19.0801
1.39937, -1, 8.89627, 23.8432, 20.0574, 23.9563, -45.3724, -19.2084
1.4073, -1, 9.00348, 23.748, 20.0934, 24.1274, -45.1725, -19.3362
1.41538, -1, 9.1106, 23.6531, 20.1293, 24.2978, -44.9732, -19.4637
1.4233, -1, 9.21754, 23.5586, 20.1648, 24.4677, -44.7743, -19.5908
1.43136, -1, 9.32426, 23.4643, 20.2005, 24.637, -44.576, -19.7175
1.4393, -1, 9.43078, 23.3702, 20.236, 24.8057, -44.378, -19.8439
1.44732, -1, 9.53695, 23.2764, 20.2713, 24.9742, -44.1808, -19.97
1.45537, -1, 9.64281, 23.1827, 20.3066, 25.1421, -43.984, -20.0959
1.46331, -1, 9.74837, 23.0894, 20.3417, 25.3094, -43.7876, -20.2212
1.4713, -1, 9.85379, 22.9963, 20.3766, 25.4763, -43.5921, -20.3462
1.47936, -1, 9.95887, 22.9034, 20.4115, 25.6425, -43.3973, -20.4706
1.48731, -1, 10.0635, 22.8108, 20.4464, 25.8087, -43.2031, -20.5948
1.49537, -1, 10.1678, 22.7185, 20.4809, 25.9743, -43.0094, -20.7187
1.50336, -1, 10.2717, 22.6263, 20.5154, 26.1393, -42.8163, -20.842
1.5113, -1, 10.3752, 22.5345, 20.55, 26.3038, -42.6235, -20.9653
1.5193, -1, 10.4782, 22.4428, 20.5844, 26.4678, -42.4315, -21.0883
1.52741, -1, 10.5811, 22.3516, 20.6187, 26.6314, -42.24, -21.2108
1.53531, -1, 10.6836, 22.2606, 20.653, 26.7945, -42.0489, -21.3329
1.54349, -1, 10.7858, 22.1699, 20.687, 26.9571, -41.8587, -21.4548
1.55131, -1, 10.8875, 22.0795, 20.721, 27.1192, -41.6689, -21.5759
1.5594, -1, 10.9887, 21.9892, 20.755, 27.2808, -41.4796, -21.6969
1.5676, -1, 11.0896, 21.8992, 20.7889, 27.4422, -41.2907, -21.8176
1.57539, -1, 11.1904, 21.8094, 20.8226, 27.6032, -41.1023, -21.9379
1.58353, -1, 11.2908, 21.7198, 20.8562, 27.7636, -40.9143, -22.058
1.59175, -1, 11.391, 21.6303, 20.8899, 27.9236, -40.7269, -22.1779
1.5994, -1, 11.4907, 21.5412, 20.9233, 28.083, -40.5399, -22.2975
1.60736, -1, 11.5901, 21.4523, 20.9566, 28.242, -40.3534, -22.4168
1.61591, -1, 11.6891, 21.3637, 20.99, 28.4009, -40.1674, -22.5354
1.62428, -1, 11.7881, 21.2755, 21.0232, 28.5593, -39.9819, -22.6537
1.63135, -1, 11.887, 21.1875, 21.0562, 28.7171, -39.797, -22.7717
1.64011, -1, 11.9859, 21.0997, 21.0893, 28.8746, -39.6125, -22.8895
1.64753, -1, 12.0848, 21.0122, 21.1224, 29.0316, -39.4285, -23.0069
1.65639, -1, 12.1835, 20.9249, 21.1551, 29.1884, -39.245, -23.1243
1.66437, -1, 12.2821, 20.8378, 21.1879, 29.345, -39.0618, -23.2412
1.67169, -1, 12.3803, 20.7509, 21.2207, 29.501, -38.8794, -23.3581
1.67967, -1, 12.4783, 20.6643, 21.2532, 29.6565, -38.6973, -23.4747
1.6886, -1, 12.576, 20.5778, 21.2857, 29.8116, -38.5154, -23.5906
1.69587, -1, 12.6737, 20.4915, 21.3183, 29.9664, -38.3345, -23.7065
1.70456, -1, 12.771, 20.4053, 21.3506, 30.1208, -38.1539, -23.8219
1.71261, -1, 12.8679, 20.3194, 21.3827, 30.2748, -37.9739, -23.9369
1.71993, -1, 12.9646, 20.2335, 21.415, 30.4285, -37.7942, -24.0519
1.72853, -1, 13.0611, 20.1479, 21.4472, 30.5815, -37.615, -24.1664
1.73706, -1, 13.1093, 20.1052, 21.4632, 30.6579, -37.4359, -24.2809
1.74437, -1, 13.253, 19.9775, 21.5111, 30.8868, -37.2573, -24.3951
1.7513, -1, 13.3007, 19.935, 21.5271, 30.963, -37.1681, -24.4521
1.7593, -1, 13.3961, 19.8501, 21.5591, 31.115, -36.9902, -24.5659
1.76734, -1, 13.4912, 19.7656, 21.5908, 31.2666, -36.8124, -24.6794
1.77657, -1, 13.6335, 19.6392, 21.6384, 31.4932, -36.5468, -24.849
1.78329, -1, 13.6808, 19.5971, 21.6543, 31.5685, -36.4584, -24.9055
1.79128, -1, 13.7753, 19.5131, 21.6859, 31.7189, -36.2821, -25.0183
1.8007, -1, 13.9166, 19.3874, 21.7331, 31.9442, -36.0182, -25.1868
1.80733, -1, 13.9636, 19.3457, 21.7489, 32.0191, -35.9305, -25.2429
1.81687, -1, 14.1047, 19.2207, 21.7959, 32.2432, -35.668, -25.411
1.82493, -1, 14.1984, 19.1376, 21.827, 32.392, -35.4936, -25.5228
1.83282, -1, 14.2917, 19.0548, 21.8582, 32.5407, -35.3196, -25.6343
1.84112, -1, 14.3847, 18.9721, 21.8893, 32.6891, -35.1459, -25.7458
1.84738, -1, 14.4311, 18.9308, 21.9048, 32.7633, -35.0592, -25.8011
1.85683, -1, 14.5237, 18.8484, 21.9359, 32.9113, -34.8001, -25.9672
1.86501, -1, 14.616, 18.766, 21.9824, 33.1324, -34.6278, -26.0774
1.87234, -1, 14.708, 18.6839, 21.9978, 33.206, -34.5418, -26.1324
1.87935, -1, 14.7999, 18.602, 22.0285, 33.3528, -34.37, -26.2422
1.88729, -1, 14.8917, 18.5203, 22.0591, 33.4993, -34.1983, -26.3518
1.89528, -1, 14.9833, 18.4387, 22.0899, 33.6456, -34.0271, -26.4614
1.90344, -1, 15.0747, 18.3574, 22.1206, 33.7915, -33.8561, -26.5704
1.91228, -1, 15.166, 18.2763, 22.1511, 33.937, -33.6857, -26.6797
1.92028, -1, 15.2572, 18.1954, 22.1816, 34.0821, -33.5154, -26.7885
1.92832, -1, 15.3483, 18.1146, 22.212, 34.227, -33.3454, -26.8969
1.93627, -1, 15.4394, 18.0339, 22.2424, 34.3717, -33.1757, -27.0052
1.94432, -1, 15.5305, 17.9534, 22.2726, 34.5162, -33.0067, -27.1128
1.95232, -1, 15.6214, 17.8731, 22.3029, 34.6602, -32.8381, -27.2206
1.96029, -1, 15.712, 17.7929, 22.3332, 34.804, -32.6698, -27.3279
1.96832, -1, 15.8024, 17.7129, 22.3631, 34.9473, -32.5019, -27.4354
1.97634, -1, 15.8926, 17.633, 22.393, 35.0904, -32.3343, -27.5425
1.98432, -1, 15.9828, 17.5532, 22.4231, 35.2332, -32.167, -27.6494
1.99227, -1, 16.0726, 17.4736, 22.453, 35.3759, -32.0001, -27.7565
1.99929, -1, 16.162, 17.3943, 22.4827, 35.5182, -31.8336, -27.863
2.00728, -1, 16.2512, 17.3149, 22.5125, 35.6602, -31.6672, -27.9696
2.01535, -1, 16.3402, 17.2358, 22.5422, 35.8018, -31.5014, -28.0755
2.02328, -1, 16.4289, 17.1569, 22.5719, 35.9432, -31.3358, -28.1815
2.16111, -1, 17.7404, 15.9882, 23.0203, 38.1245, -28.7778, -29.8165
2.1623, -1, 17.7404, 15.9882, 23.0203, 38.1245, -28.7778, -29.8165
2.1644, -1, 17.7604, 15.97, 23.0266, 38.1522, -28.7447, -29.8375
2.16562, -1, 17.7604, 15.97, 23.0266, 38.1522, -28.7447, -29.8375
2.1675, -1, 17.7791, 15.953, 23.0323, 38.175, -28.7172, -29.8551
2.16884, -1, 17.7791, 15.953, 23.0323, 38.175, -28.7172, -29.8551
2.17014, -1, 17.7791, 15.953, 23.0323, 38.175, -28.7172, -29.8551
2.17334, -1, 17.7962, 15.9375, 23.0372, 38.1937, -28.6947, -29.8695
2.17457, -1, 17.7962, 15.9375, 23.0372, 38.1937, -28.6947, -29.8695
2.17679, -1, 17.8117, 15.9238, 23.0414, 38.209, -28.6764, -29.8812
2.17807, -1, 17.8117, 15.9238, 23.0414, 38.209, -28.6764, -29.8812
2.18023, -1, 17.8255, 15.912, 23.0449, 38.2212, -28.6617, -29.8906
2.18154, -1, 17.8255, 15.912, 23.0449, 38.2212, -28.6617, -29.8906
2.18271, -1, 17.8255, 15.912, 23.0449, 38.2212, -28.6617, -29.8906
2.18484, -1, 17.8378, 15.9019, 23.0477, 38.2307, -28.6504, -29.8977
2.18784, -1, 17.8378, 15.8936, 23.0501, 38.2379, -28.6418, -29.903
2.18976, -1, 17.8487, 15.8936, 23.0501, 38.2379, -28.6418, -29.903
2.19168, -1, 17.8581, 15.8866, 23.052, 38.2432, -28.6353, -29.9069
2.19313, -1, 17.8581, 15.8866, 23.052, 38.2432, -28.6353, -29.9069
2.19431, -1, 17.8581, 15.8866, 23.052, 38.2432, -28.6353, -29.9069
2.19633, -1, 17.8658, 15.8809, 23.0535, 38.2471, -28.6306, -29.9097
2.20046, -1, 17.8719, 15.8764, 23.0547, 38.2499, -28.6272, -29.9116
2.20779, -1, 17.8797, 15.8705, 23.0561, 38.2531, -28.6233, -29.9139
2.21637, 2, 17.8834, 15.8675, 23.0568, 38.2546, -28.6215, -29.9149
2.22403, 2, 17.8849, 15.8658, 23.0571, 38.2553, -28.6206, -29.9154
2.23219, 2, 17.885, 15.8649, 23.0572, 38.2557, -28.6202, -29.9156
2.23981, 2, 17.8848, 15.8646, 23.0573, 38.2558, -28.6201, -29.9157
2.24856, 2, 17.884, 15.8641, 23.0574, 38.2559, -28.62, -29.9158
2.25534, 2, 17.8838, 15.864, 23.0574, 38.2559, -28.62, -29.9158
2.26333, 2, 17.8835, 15.8639, 23.0574, 38.2559, -28.62, -29.9158
2.27131, 2, 17.8833, 15.8637, 23.0574, 38.2559, -28.62, -29.9158
2.27926, 2, 17.8833, 15.8636, 23.0574, 38.256, -28.62, -29.9158
2.28727, 2, 17.8833, 15.8635, 23.0574, 38.2559, -28.62, -29.9158
2.29712, 2, 17.8836, 15.8632, 23.0574, 38.2559, -28.62, -29.9158
2.30334, 2, 17.8838, 15.8632, 23.0574, 38.2559, -28.62, -29.9158
2.31128, 2, 17.8842, 15.863, 23.0575, 38.2559, -28.6201, -29.9159
2.32116, 2, 17.8851, 15.8628, 23.0575, 38.256, -28.6201, -29.9159
2.32726, 2, 17.8855, 15.8627, 23.0575, 38.256, -28.6201, -29.9159
2.3368, 2, 17.8862, 15.8626, 23.0575, 38.256, -28.6201, -29.9158
2.34554, 2, 17.8866, 15.8625, 23.0575, 38.2559, -28.6201, -29.9158
2.35127, 2, 17.8867, 15.8625, 23.0575, 38.2559, -28.6201, -29.9158
2.36081, 2, 17.8869, 15.8625, 23.0575, 38.2559, -28.62, -29.9158
2.36911, 2, 17.8871, 15.8625, 23.0575, 38.2559, -28.6201, -29.9157
2.37526, 2, 17.8871, 15.8625, 23.0575, 38.2559, -28.6201, -29.9157
2.38326, 2, 17.8871, 15.8625, 23.0575, 38.2559, -28.6201, -29.9158
2.39134, 2, 17.8871, 15.8625, 23.0575, 38.2559, -28.6201, -29.9158
2.39926, 2, 17.8871, 15.8625, 23.0575, 38.256, -28.6202, -29.9158
2.40732, 2, 17.887, 15.8625, 23.0575, 38.2559, -28.6202, -29.9157
2.41533, 2, 17.8868, 15.8624, 23.0575, 38.256, -28.6202, -29.9157
2.42328, 2, 17.8867, 15.8624, 23.0575, 38.2559, -28.6202, -29.9158
2.43127, 2, 17.8866, 15.8624, 23.0575, 38.2559, -28.6202, -29.9157
2.43933, 2, 17.8866, 15.8623, 23.0575, 38.2559, -28.6202, -29.9157
2.44726, 2, 17.8866, 15.8623, 23.0575, 38.2559, -28.6203, -29.9157
2.45526, 2, 17.8866, 15.8623, 23.0575, 38.2559, -28.6203, -29.9158
2.46333, 2, 17.8866, 15.8623, 23.0575, 38.2559, -28.6203, -29.9158
2.4713, 2, 17.8865, 15.8623, 23.0575, 38.2559, -28.6203, -29.9157
2.47926, 2, 17.8865, 15.8623, 23.0575, 38.2559, -28.6203, -29.9157
2.48732, 2, 17.8865, 15.8623, 23.0574, 38.2559, -28.6204, -29.9157
2.49526, 2, 17.8865, 15.8623, 23.0574, 38.2559, -28.6204, -29.9157
2.50326, 2, 17.8865, 15.8623, 23.0575, 38.2559, -28.6204, -29.9157
2.51134, 2, 17.8865, 15.8623, 23.0575, 38.2559, -28.6205, -29.9157
2.51926, 2, 17.8865, 15.8623, 23.0575, 38.2559, -28.6205, -29.9157
2.52726, 2, 17.8865, 15.8623, 23.0575, 38.2559, -28.6205, -29.9157
2.53542, 2, 17.8865, 15.8623, 23.0575, 38.2559, -28.6205, -29.9157
2.54327, 2, 17.8864, 15.8623, 23.0575, 38.2559, -28.6205, -29.9157
2.55127, 2, 17.8864, 15.8623, 23.0575, 38.2559, -28.6205, -29.9157
2.55936, 2, 17.8864, 15.8623, 23.0575, 38.2559, -28.6205, -29.9157
2.56733, 2, 17.8864, 15.8623, 23.0575, 38.2559, -28.6205, -29.9157
2.57541, 2, 17.8864, 15.8623, 23.0575, 38.2559, -28.6205, -29.9157
2.58342, 2, 17.8863, 15.8623, 23.0575, 38.2559, -28.6205, -29.9157
2.59139, 2, 17.8863, 15.8623, 23.0575, 38.2559, -28.6205, -29.9157
2.59939, 2, 17.8863, 15.8623, 23.0575, 38.2558, -28.6206, -29.9157
2.60742, 2, 17.8863, 15.8623, 23.0575, 38.2558, -28.6206, -29.9157
2.61526, 2, 17.8863, 15.8623, 23.0575, 38.2558, -28.6207, -29.9157
2.6233, 2, 17.8863, 15.8623, 23.0575, 38.2558, -28.6206, -29.9157
2.63136, 2, 17.8863, 15.8623, 23.0575, 38.2557, -28.6207, -29.9156
2.63937, 2, 17.8863, 15.8623, 23.0575, 38.2557, -28.6207, -29.9156
2.64737, 2, 17.8863, 15.8623, 23.0575, 38.2557, -28.6207, -29.9156
2.65548, 2, 17.8862, 15.8623, 23.0575, 38.2558, -28.6207, -29.9156
2.66356, 2, 17.8862, 15.8623, 23.0575, 38.2558, -28.6207, -29.9156
2.67157, 2, 17.8862, 15.8623, 23.0575, 38.2558, -28.6208, -29.9156
2.67963, 2, 17.8862, 15.8623, 23.0575, 38.2558, -28.6208, -29.9156
2.68773, 2, 17.8862, 15.8623, 23.0575, 38.2557, -28.6208, -29.9156
2.69636, 2, 17.8861, 15.8623, 23.0575, 38.2557, -28.6208, -29.9156
2.70381, 2, 17.8861, 15.8624, 23.0575, 38.2557, -28.6207, -29.9156
2.7124, 2, 17.8861, 15.8624, 23.0575, 38.2557, -28.6208, -29.9156
2.71981, 2, 17.886, 15.8623, 23.0575, 38.2557, -28.6208, -29.9155
2.72785, 2, 17.886, 15.8624, 23.0575, 38.2557, -28.6208, -29.9155
2.73641, 2, 17.886, 15.8623, 23.0575, 38.2557, -28.6208, -29.9155
2.74386, 2, 17.8859, 15.8623, 23.0574, 38.2557, -28.6209, -29.9155
2.7523, 2, 17.8859, 15.8623, 23.0574, 38.2557, -28.6209, -29.9155
2.75927, 2, 17.8859, 15.8623, 23.0574, 38.2557, -28.6209, -29.9155
2.76726, 2, 17.8858, 15.8623, 23.0574, 38.2557, -28.6209, -29.9155
2.77641, 2, 17.8857, 15.8623, 23.0574, 38.2557, -28.6209, -29.9155
2.78325, 2, 17.8857, 15.8623, 23.0574, 38.2556, -28.6209, -29.9155
2.79128, 2, 17.8857, 15.8623, 23.0574, 38.2557, -28.6209, -29.9154
2.80059, 2, 17.8856, 15.8624, 23.0575, 38.2556, -28.6209, -29.9155
2.80726, 2, 17.8856, 15.8624, 23.0575, 38.2556, -28.6208, -29.9154
2.81525, 2, 17.8855, 15.8624, 23.0575, 38.2556, -28.6209, -29.9155
2.82476, 2, 17.8855, 15.8624, 23.0575, 38.2556, -28.6209, -29.9155
2.83287, 2, 17.8854, 15.8624, 23.0575, 38.2556, -28.621, -29.9154
2.8408, 2, 17.8854, 15.8624, 23.0575, 38.2556, -28.621, -29.9155
2.84903, 2, 17.8854, 15.8624, 23.0575, 38.2556, -28.621, -29.9154
2.85525, 2, 17.8854, 15.8624, 23.0575, 38.2556, -28.621, -29.9154
2.86475, 2, 17.8853, 15.8624, 23.0575, 38.2556, -28.621, -29.9153
2.87225, 2, 17.8853, 15.8624, 23.0574, 38.2555, -28.621, -29.9153
2.88028, 2, 17.8853, 15.8624, 23.0574, 38.2555, -28.6211, -29.9153
2.88823, 2, 17.8852, 15.8624, 23.0574, 38.2555, -28.6211, -29.9153
2.89626, 2, 17.8852, 15.8624, 23.0575, 38.2555, -28.621, -29.9152
2.90427, 2, 17.8851, 15.8624, 23.0574, 38.2555, -28.621, -29.9152
2.91148, 2, 17.885, 15.8624, 23.0574, 38.2555, -28.6211, -29.9153
2.91929, 2, 17.885, 15.8624, 23.0574, 38.2555, -28.621, -29.9152
2.92727, 2, 17.885, 15.8624, 23.0574, 38.2555, -28.6211, -29.9152
2.93525, 2, 17.8849, 15.8624, 23.0574, 38.2555, -28.6211, -29.9151
2.94329, 2, 17.8848, 15.8624, 23.0574, 38.2555, -28.6211, -29.9151
2.95126, 2, 17.8848, 15.8624, 23.0574, 38.2554, -28.6212, -29.9151
2.95926, 2, 17.8847, 15.8624, 23.0574, 38.2554, -28.6212, -29.9151
2.96729, 2, 17.8847, 15.8624, 23.0574, 38.2554, -28.6212, -29.9151
2.97528, 2, 17.8846, 15.8624, 23.0574, 38.2554, -28.6212, -29.9151
2.98331, 2, 17.8846, 15.8624, 23.0574, 38.2554, -28.6212, -29.9151
2.99125, 2, 17.8846, 15.8624, 23.0574, 38.2554, -28.6212, -29.9151
2.99925, 2, 17.8845, 15.8624, 23.0574, 38.2554, -28.6212, -29.9151
3.0073, 2, 17.8844, 15.8624, 23.0575, 38.2554, -28.6212, -29.915
3.01524, 2, 17.8844, 15.8624, 23.0574, 38.2553, -28.6212, -29.915
3.02325, 2, 17.8843, 15.8624, 23.0574, 38.2553, -28.6212, -29.915
3.03132, 2, 17.8843, 15.8624, 23.0574, 38.2553, -28.6212, -29.9149
3.03924, 2, 17.8843, 15.8624, 23.0574, 38.2552, -28.6212, -29.9149
3.04725, 2, 17.8842, 15.8624, 23.0574, 38.2552, -28.6212, -29.9149
3.05531, 2, 17.8842, 15.8624, 23.0575, 38.2552, -28.6213, -29.9149
3.06328, 2, 17.8841, 15.8624, 23.0574, 38.2552, -28.6213, -29.9149
3.07135, 2, 17.8841, 15.8624, 23.0574, 38.2552, -28.6213, -29.9149
3.07945, 2, 17.8841, 15.8624, 23.0574, 38.2551, -28.6213, -29.9149
3.08734, 2, 17.884, 15.8624, 23.0574, 38.2551, -28.6213, -29.9149
3.09537, 2, 17.884, 15.8624, 23.0574, 38.2551, -28.6213, -29.9149
3.10341, 2, 17.8839, 15.8624, 23.0574, 38.2551, -28.6213, -29.9149
3.11142, 2, 17.8839, 15.8624, 23.0574, 38.2551, -28.6213, -29.9149
3.11943, 2, 17.8839, 15.8624, 23.0574, 38.255, -28.6213, -29.9149
3.12731, 2, 17.8839, 15.8624, 23.0574, 38.255, -28.6212, -29.9149
3.13527, 2, 17.8839, 15.8624, 23.0574, 38.255, -28.6213, -29.9148
3.14338, 2, 17.8838, 15.8624, 23.0574, 38.255, -28.6213, -29.9149
3.15141, 2, 17.8838, 15.8625, 23.0574, 38.2549, -28.6213, -29.9149
3.15942, 2, 17.8838, 15.8624, 23.0574, 38.255, -28.6213, -29.9149
3.16799, 2, 17.8838, 15.8624, 23.0574, 38.255, -28.6213, -29.9148
3.17624, 2, 17.8837, 15.8624, 23.0574, 38.255, -28.6213, -29.9149
3.18359, 2, 17.8837, 15.8624, 23.0574, 38.255, -28.6214, -29.9148
3.19227, 2, 17.8837, 15.8625, 23.0574, 38.255, -28.6214, -29.9149
3.1998, 2, 17.8837, 15.8625, 23.0574, 38.2549, -28.6214, -29.9149
3.20838, 2, 17.8837, 15.8625, 23.0574, 38.2549, -28.6214, -29.9149
3.21652, 2, 17.8837, 15.8625, 23.0574, 38.2548, -28.6214, -29.9149
3.22453, 2, 17.8837, 15.8625, 23.0574, 38.2548, -28.6214, -29.9149
3.23183, 2, 17.8837, 15.8625, 23.0574, 38.2548, -28.6214, -29.9149
3.24032, 2, 17.8836, 15.8625, 23.0574, 38.2548, -28.6214, -29.9148
3.24809, 2, 17.8836, 15.8625, 23.0574, 38.2548, -28.6214, -29.9148
3.25526, 2, 17.8836, 15.8625, 23.0574, 38.2548, -28.6214, -29.9148
3.26438, 2, 17.8836, 15.8625, 23.0574, 38.2547, -28.6214, -29.9149
3.27227, 2, 17.8836, 15.8625, 23.0574, 38.2547, -28.6214, -29.9148
3.27923, 2, 17.8836, 15.8625, 23.0574, 38.2547, -28.6214, -29.9149
3.28852, 2, 17.8836, 15.8625, 23.0574, 38.2547, -28.6214, -29.9149
3.29526, 2, 17.8836, 15.8625, 23.0574, 38.2547, -28.6214, -29.9149
3.30323, 4, 17.8836, 15.8625, 23.0574, 38.2546, -28.6214, -29.9149
3.31281, 4, 17.8836, 15.8625, 23.0574, 38.2546, -28.6214, -29.9148
3.32082, 4, 17.8836, 15.8625, 23.0574, 38.2546, -28.6214, -29.9148
3.32874, 4, 17.8836, 15.8625, 23.0574, 38.2546, -28.6214, -29.9148
3.33681, 4, 17.8836, 15.8625, 23.0574, 38.2546, -28.6214, -29.9148
3.34487, 4, 17.8835, 15.8626, 23.0574, 38.2546, -28.6215, -29.9148
3.35301, 4, 17.8835, 15.8626, 23.0574, 38.2546, -28.6215, -29.9149
3.35929, 4, 17.8835, 15.8626, 23.0574, 38.2546, -28.6215, -29.9149
3.36883, 4, 17.8835, 15.8626, 23.0574, 38.2546, -28.6215, -29.9148
3.37622, 4, 17.8835, 15.8626, 23.0574, 38.2546, -28.6215, -29.9148
3.38514, 4, 17.8835, 15.8626, 23.0574, 38.2545, -28.6215, -29.9147
3.39124, 4, 17.8835, 15.8626, 23.0574, 38.2545, -28.6215, -29.9148
3.39936, 4, 17.8835, 15.8626, 23.0574, 38.2545, -28.6214, -29.9148
3.41947, 4, 17.8834, 15.8626, 23.0574, 38.2545, -28.6215, -29.9148
3.42134, 4, 17.8834, 15.8626, 23.0574, 38.2545, -28.6215, -29.9148
3.42319, 4, 17.8834, 15.8626, 23.0574, 38.2545, -28.6215, -29.9148
3.43132, 4, 17.8834, 15.8626, 23.0574, 38.2544, -28.6215, -29.9148
3.43924, 4, 17.8834, 15.8626, 23.0574, 38.2544, -28.6215, -29.9148
3.44729, 4, 17.8832, 15.8626, 23.0574, 38.2544, -28.6215, -29.9148
3.45523, 4, 17.8818, 15.8626, 23.0575, 38.2542, -28.6215, -29.9147
3.46329, 4, 17.8775, 15.8625, 23.0578, 38.2528, -28.6218, -29.914
3.47124, 4, 17.8692, 15.8623, 23.0596, 38.2459, -28.6235, -29.9099
3.47925, 4, 17.856, 15.8613, 23.0649, 38.2273, -28.6292, -29.8956
3.48729, 4, 17.8357, 15.8588, 23.0768, 38.1886, -28.6424, -29.8628
3.49523, 5, 17.8058, 15.8539, 23.0991, 38.1163, -28.667, -29.8009
3.50323, 5, 17.7656, 15.8456, 23.1359, 37.9965, -28.7084, -29.6972
3.5113, 5, 17.7153, 15.8331, 23.1911, 37.8161, -28.7728, -29.5404
3.51923, 5, 17.6552, 15.8159, 23.2671, 37.5669, -28.8629, -29.3234
3.52723, 5, 17.5852, 15.7941, 23.3643, 37.2482, -28.9807, -29.0447
3.53529, 5, 17.5049, 15.7684, 23.4813, 36.8662, -29.1236, -28.7091
3.54323, 5, 17.4156, 15.7392, 23.6148, 36.432, -29.2891, -28.3271
3.55124, 5, 17.3178, 15.7078, 23.7603, 35.9603, -29.472, -27.912
3.55934, 5, 17.2109, 15.675, 23.9134, 35.4662, -29.6671, -27.4768
3.56727, 5, 17.0952, 15.6418, 24.0709, 34.9621, -29.8702, -27.0335
3.57574, 5, 16.9724, 15.6086, 24.2299, 34.4555, -30.0783, -26.5887
3.58337, 5, 16.8452, 15.576, 24.3886, 33.951, -30.2898, -26.1463
3.59134, 5, 16.7156, 15.5443, 24.5464, 33.4511, -30.5039, -25.709
3.59941, 5, 16.5844, 15.5135, 24.704, 32.9559, -30.7202, -25.2768
3.60733, 5, 16.453, 15.4837, 24.8609, 32.466, -30.9383, -24.8503
3.61528, 5, 16.3228, 15.4548, 25.0164, 31.9823, -31.158, -24.4294
3.62336, 5, 16.1949, 15.4271, 25.1701, 31.5057, -31.379, -24.0148
3.63127, 5, 16.0701, 15.4007, 25.3219, 31.0379, -31.6, -23.6092
3.63929, 5, 15.9498, 15.3754, 25.4705, 30.5822, -31.8193, -23.2147
3.64735, 5, 15.8359, 15.3516, 25.6135, 30.1453, -32.0335, -22.8361
3.65538, 5, 15.7297, 15.3295, 25.7485, 29.7341, -32.2383, -22.4807
3.66345, 5, 15.632, 15.3095, 25.8725, 29.3576, -32.4285, -22.1555
3.67187, 5, 15.544, 15.2923, 25.983, 29.0243, -32.5994, -21.8671
3.68037, 5, 15.4669, 15.2781, 26.0774, 28.7407, -32.747, -21.6212
3.68766, 5, 15.4, 15.2668, 26.1546, 28.5102, -32.868, -21.4214
3.6963, 5, 15.3425, 15.2584, 26.2147, 28.3328, -32.9628, -21.2673
3.70377, 5, 15.2937, 15.2529, 26.2589, 28.2038, -33.0319, -21.1551
3.71232, 5, 15.2547, 15.2494, 26.2896, 28.1161, -33.0796, -21.0772
3.71981, 5, 15.2246, 15.2474, 26.3098, 28.0594, -33.1107, -21.0277
3.72853, 5, 15.2019, 15.2464, 26.3222, 28.0262, -33.1294, -20.9982
3.75111, 5, 15.1863, 15.2456, 26.3348, 27.9966, -33.1462, -20.9719
3.75324, 5, 15.1726, 15.2455, 26.3359, 27.9948, -33.1472, -20.9703
3.75442, 5, 15.1726, 15.2455, 26.3359, 27.9948, -33.1472, -20.9703
3.76025, 5, 15.1706, 15.2453, 26.3374, 27.9927, -33.1484, -20.9685
3.76723, 5, 15.1704, 15.2453, 26.3379, 27.9921, -33.1488, -20.968
3.77521, 5, 15.1708, 15.2452, 26.3387, 27.9914, -33.1492, -20.9674
3.78437, 5, 15.1708, 15.2451, 26.3396, 27.9907, -33.1496, -20.9671
3.79122, 5, 15.1697, 15.2451, 26.34, 27.9903, -33.1497, -20.9669
3.79926, 5, 15.1645, 15.2452, 26.3417, 27.9876, -33.151, -20.9653
3.80862, 5, 15.1462, 15.2452, 26.3483, 27.9701, -33.1597, -20.9519
3.81522, 5, 15.1366, 15.2452, 26.3528, 27.9578, -33.1662, -20.9418
3.82339, 6, 15.1099, 15.2448, 26.3673, 27.916, -33.1879, -20.9072
3.83121, 6, 15.0718, 15.2435, 26.3923, 27.8428, -33.226, -20.8463
3.84145, 6, 14.9941, 15.2379, 26.4576, 27.6506, -33.3301, -20.6861
3.84729, 6, 14.963, 15.2348, 26.488, 27.5604, -33.3793, -20.6105
3.85686, 6, 14.8537, 15.2213, 26.6068, 27.2072, -33.5751, -20.3146
3.86573, 6, 14.8118, 15.2158, 26.6551, 27.0635, -33.6557, -20.0633
3.87128, 6, 14.7207, 15.2033, 26.7634, 26.7426, -33.8375, -19.9238
3.88025, 6, 14.6211, 15.1898, 26.8843, 26.3861, -34.0424, -19.6235
3.88722, 6, 14.5129, 15.1762, 27.0137, 26.0061, -34.2638, -19.3036
3.89529, 6, 14.3957, 15.1635, 27.1477, 25.6132, -34.4964, -18.9731
3.90425, 6, 14.2703, 15.1519, 27.2836, 25.216, -34.7355, -18.6393
3.91223, 6, 14.1388, 15.1412, 27.42, 24.819, -34.9785, -18.3063
3.92022, 6, 14.0036, 15.1315, 27.556, 24.4246, -35.224, -17.9761
3.92824, 6, 13.8663, 15.123, 27.6913, 24.0333, -35.4711, -17.6491
3.93619, 6, 13.7279, 15.1157, 27.8257, 23.646, -35.7199, -17.3262
3.94419, 6, 13.5897, 15.1094, 27.9589, 23.2629, -35.9699, -17.0079
3.95226, 6, 13.4534, 15.1037, 28.0909, 22.8843, -36.2208, -16.6942
3.9592, 6, 13.3201, 15.0988, 28.221, 22.5116, -36.4715, -16.386
3.96729, 6, 13.1905, 15.0946, 28.3483, 22.1472, -36.7202, -16.0853
3.9752, 6, 13.0662, 15.0908, 28.4717, 21.7948, -36.9646, -15.7953
3.98322, 6, 12.9494, 15.0873, 28.5894, 21.4597, -37.2004, -15.5193
3.99127, 6, 12.8416, 15.0844, 28.6992, 21.1483, -37.4224, -15.2631
3.9992, 6, 12.7434, 15.0822, 28.7983, 20.8672, -37.6249, -15.0324
4.00722, 6, 12.656, 15.0811, 28.8848, 20.6225, -37.8033, -14.8315
4.01528, 6, 12.5802, 15.0807, 28.9573, 20.4183, -37.9539, -14.6639
4.02319, 6, 12.5151, 15.0811, 29.0152, 20.2563, -38.0747, -14.5305
4.0312, 6, 12.4597, 15.0826, 29.059, 20.1347, -38.1661, -14.4291
4.03928, 6, 12.414, 15.0849, 29.0905, 20.0488, -38.2316, -14.3576
4.04722, 6, 12.3779, 15.0871, 29.1113, 19.9916, -38.2749, -14.3101
4.05536, 6, 12.3507, 15.089, 29.1245, 19.9568, -38.3018, -14.2807
4.0754, 6, 12.313, 15.0919, 29.1382, 19.924, -38.3272, -14.2528
4.07663, 6, 12.313, 15.0919, 29.1382, 19.924, -38.3272, -14.2528
4.07961, 6, 12.31, 15.0921, 29.1392, 19.922, -38.3288, -14.2511
4.08736, 6, 12.3065, 15.0923, 29.1405, 19.9196, -38.3307, -14.249
4.09567, 6, 12.3051, 15.0924, 29.1413, 19.9184, -38.3317, -14.248
4.10334, 6, 12.305, 15.0924, 29.1418, 19.9179, -38.3321, -14.2476
4.11131, 6, 12.3043, 15.0925, 29.1422, 19.9174, -38.3324, -14.2473
4.11938, 6, 12.3012, 15.0931, 29.143, 19.9164, -38.3331, -14.2467
4.12802, 7, 12.2937, 15.0944, 29.1448, 19.9125, -38.3359, -14.2441
4.13619, 7, 12.2803, 15.0966, 29.1489, 19.9016, -38.3437, -14.2357
4.14332, 7, 12.2584, 15.0997, 29.1573, 19.8783, -38.3611, -14.2169
4.15217, 7, 12.2259, 15.1038, 29.1728, 19.8342, -38.3936, -14.1824
4.15941, 7, 12.1812, 15.1085, 29.1985, 19.7619, -38.4469, -14.1257
4.16748, 7, 12.1252, 15.1129, 29.2372, 19.6523, -38.5297, -14.0389
4.17607, 7, 12.0583, 15.1164, 29.2907, 19.5007, -38.6455, -13.9185
4.18419, 7, 11.98, 15.1194, 29.3596, 19.3058, -38.7963, -13.7634
4.19162, 7, 11.8902, 15.1223, 29.4427, 19.071, -38.9798, -13.5764
4.20053, 7, 11.7904, 15.1256, 29.5376, 18.8028, -39.1916, -13.3626
4.20837, 7, 11.6817, 15.1299, 29.6414, 18.5105, -39.4252, -13.1292
4.21582, 7, 11.5635, 15.1362, 29.7506, 18.203, -39.6738, -12.884
4.22436, 7, 11.4364, 15.1451, 29.8623, 17.8881, -39.9316, -12.6333
4.23197, 7, 11.37, 15.1561, 29.9748, 17.5714, -40.1946, -12.3821
4.23983, 7, 11.2327, 15.1623, 30.0872, 17.255, -40.4606, -12.1314
4.24832, 7, 11.02, 15.1828, 30.199, 16.9406, -40.7284, -11.8832
4.25594, 7, 10.9482, 15.1903, 30.2546, 16.7844, -40.8628, -11.6377
4.26328, 7, 10.8035, 15.2064, 30.3651, 16.4741, -41.1324, -11.5161
4.27229, 7, 10.5872, 15.2325, 30.5284, 16.014, -41.5386, -11.1558
4.27925, 7, 10.5163, 15.2414, 30.5821, 15.8623, -41.6743, -11.0373
4.28725, 7, 10.3773, 15.2593, 30.6883, 15.5623, -41.9455, -10.8032
4.29651, 7, 10.1764, 15.2862, 30.8432, 15.1244, -42.3472, -10.4628
4.30319, 7, 10.1123, 15.2948, 30.8931, 14.9835, -42.4783, -10.3536
4.31124, 7, 9.99007, 15.3112, 30.9892, 14.7121, -42.7327, -10.1437
4.32069, 7, 9.8244, 15.3344, 31.1201, 14.3417, -43.0845, -9.85702
4.32718, 7, 9.77428, 15.3418, 31.1592, 14.2306, -43.1911, -9.77122
4.33525, 7, 9.68238, 15.3559, 31.2296, 14.0306, -43.3842, -9.61687
4.34483, 7, 9.56641, 15.375, 31.3137, 13.7923, -43.617, -9.43259
4.35282, 7, 9.50274, 15.3868, 31.3552, 13.6751, -43.7324, -9.34238
4.36091, 7, 9.4493, 15.3978, 31.386, 13.5899, -43.8173, -9.27576
4.36888, 7, 9.42634, 15.4074, 31.4072, 13.5305, -43.8767, -9.22936
4.37702, 7, 9.38791, 15.4115, 31.415, 13.5093, -43.8981, -9.21255
4.38327, 7, 9.35874, 15.4184, 31.426, 13.48, -43.9279, -9.18877
4.39299, 7, 9.33732, 15.4235, 31.4324, 13.4631, -43.9451, -9.1754
4.41204, 7, 9.31281, 15.4296, 31.4386, 13.4488, -43.9595, -9.16418
4.41414, 7, 9.31129, 15.43, 31.4391, 13.448, -43.9603, -9.16354
4.41543, 7, 9.31129, 15.43, 31.4391, 13.448, -43.9603, -9.16354
4.42333, 7, 9.30978, 15.4305, 31.4397, 13.447, -43.9613, -9.16283
4.43118, 7, 9.30982, 15.4308, 31.44, 13.4465, -43.9618, -9.16252
4.4392, 7, 9.31039, 15.4309, 31.4401, 13.4462, -43.962, -9.16236
4.44726, 7, 9.3099, 15.4313, 31.4403, 13.446, -43.9622, -9.16227
4.45518, 7, 9.30652, 15.4323, 31.4408, 13.4455, -43.9626, -9.16218
4.46319, 7, 9.29839, 15.4345, 31.4421, 13.4426, -43.9652, -9.16087
4.47119, 7, 9.28402, 15.4385, 31.445, 13.4342, -43.973, -9.15551
4.47915, 8, 9.26156, 15.4448, 31.451, 13.4159, -43.9903, -9.14292
4.48727, 8, 9.22812, 15.4543, 31.4625, 13.3815, -44.0231, -9.11835
4.49518, 8, 9.1824, 15.4661, 31.4818, 13.3243, -44.0794, -9.07653
4.50319, 8, 9.12519, 15.4796, 31.5113, 13.2379, -44.165, -9.01201
4.51126, 8, 9.05666, 15.4943, 31.5529, 13.1172, -44.2855, -8.9227
4.51918, 8, 8.97629, 15.5104, 31.6066, 12.9616, -44.4426, -8.80631
4.52718, 8, 8.88422, 15.5285, 31.6716, 12.7728, -44.6344, -8.66573
4.53526, 8, 8.78175, 15.549, 31.746, 12.5569, -44.8563, -8.50448
4.54319, 8, 8.66988, 15.5723, 31.8273, 12.3203, -45.1021, -8.32769
4.55119, 8, 8.54832, 15.599, 31.9129, 12.0707, -45.3642, -8.14188
4.55926, 8, 8.41735, 15.6292, 32.0006, 11.8142, -45.6361, -7.95133
4.56722, 8, 8.27866, 15.6625, 32.0885, 11.5556, -45.9137, -7.75937
4.57525, 8, 8.13461, 15.6981, 32.1763, 11.2969, -46.1943, -7.56781
4.58335, 8, 7.98738, 15.7355, 32.2633, 11.0393, -46.4765, -7.37795
4.59134, 8, 7.83841, 15.7744, 32.3491, 10.7837, -46.7597, -7.18998
4.59929, 8, 7.68875, 15.8143, 32.4339, 10.5301, -47.0436, -7.0044
4.60739, 8, 7.5403, 15.855, 32.5173, 10.2783, -47.3279, -6.82103
4.61529, 8, 7.39386, 15.8962, 32.5994, 10.0291, -47.6124, -6.63998
4.62318, 8, 7.25049, 15.9372, 32.6798, 9.78362, -47.8957, -6.46219
4.63133, 8, 7.11199, 15.9773, 32.7584, 9.54304, -48.1758, -6.28834
4.63924, 8, 6.98074, 16.0155, 32.8341, 9.31012, -48.4498, -6.12091
4.64727, 8, 6.85847, 16.0511, 32.9059, 9.08943, -48.7124, -5.96226
4.65539, 8, 6.74594, 16.0845, 32.9717, 8.88577, -48.9566, -5.81621
4.66366, 8, 6.64439, 16.1153, 33.0301, 8.70411, -49.1769, -5.68605
4.67146, 8, 6.55517, 16.1432, 33.08, 8.54823, -49.3668, -5.57453
4.67959, 8, 6.47778, 16.1681, 33.1205, 8.42085, -49.5229, -5.483
4.68796, 8, 6.41091, 16.1904, 33.1517, 8.32281, -49.6443, -5.4127
4.69627, 8, 6.35404, 16.2103, 33.1741, 8.25184, -49.7329, -5.3608
4.70373, 8, 6.30804, 16.2266, 33.1895, 8.20292, -49.7934, -5.32494
4.71235, 8, 6.27271, 16.2386, 33.1994, 8.17213, -49.8325, -5.30174
4.72017, 8, 6.24687, 16.2473, 33.2053, 8.1538, -49.8561, -5.28806
4.74042, 8, 6.22929, 16.2537, 33.2108, 8.13754, -49.8776, -5.27577
4.74167, 8, 6.21506, 16.2586, 33.2108, 8.13754, -49.8776, -5.27577
4.74469, 8, 6.21506, 16.2586, 33.2108, 8.13655, -49.8789, -5.27502
4.75197, 8, 6.21147, 16.26, 33.2115, 8.13541, -49.8804, -5.2742
4.76022, 8, 6.21028, 16.2608, 33.212, 8.13485, -49.8811, -5.27381
4.76724, 8, 6.2105, 16.2609, 33.212, 8.13466, -49.8813, -5.27372
4.77626, 8, 6.2103, 16.2615, 33.2122, 8.13432, -49.8818, -5.2736
4.78317, 8, 6.20926, 16.2621, 33.2123, 8.13417, -49.882, -5.27354
4.79246, 9, 6.19982, 16.2662, 33.2132, 8.13158, -49.8852, -5.27257
4.79916, 9, 6.19386, 16.2688, 33.214, 8.12907, -49.8884, -5.27121
4.80724, 9, 6.17618, 16.2762, 33.2167, 8.11898, -49.9007, -5.26495
4.81668, 9, 6.12996, 16.2963, 33.2267, 8.08323, -49.9441, -5.24101
4.82544, 9, 6.08394, 16.3159, 33.24, 8.03669, -50.0006, -5.20951
4.83124, 9, 6.0564, 16.3271, 33.2494, 8.00477, -50.0399, -5.18755
4.84075, 9, 5.95633, 16.364, 33.2904, 7.8679, -50.2097, -5.0924
4.84959, 9, 5.8748, 16.3916, 33.329, 7.74043, -50.3693, -5.00499
4.85524, 9, 5.82946, 16.4067, 33.3515, 7.66623, -50.4628, -4.95353
4.86485, 9, 5.67698, 16.4582, 33.4296, 7.40747, -50.7914, -4.77526
4.87337, 9, 5.62118, 16.4777, 33.4586, 7.31154, -50.9143, -4.70916
4.87925, 9, 5.50202, 16.5205, 33.519, 7.10946, -51.1749, -4.57013
4.88822, 9, 5.37313, 16.5685, 33.5815, 6.89843, -51.4492, -4.42499
4.89617, 9, 5.23559, 16.6213, 33.6444, 6.68302, -51.7317, -4.27714
4.90417, 9, 5.0915, 16.6773, 33.7067, 6.46628, -52.0187, -4.12885
4.91224, 9, 4.94302, 16.7358, 33.7682, 6.2496, -52.3081, -3.98094
4.92016, 9, 4.79207, 16.7963, 33.8286, 6.03382, -52.5989, -3.83426
4.92816, 9, 4.63972, 16.8583, 33.8879, 5.81918, -52.8906, -3.6894
4.93621, 9, 4.48721, 16.9213, 33.9462, 5.60619, -53.1829, -3.54613
4.94419, 9, 4.33681, 16.9848, 34.0033, 5.39496, -53.4752, -3.40452
4.95125, 9, 4.1898, 17.0479, 34.0591, 5.1861, -53.7667, -3.26485
4.95916, 9, 4.04676, 17.1098, 34.1133, 4.98069, -54.0554, -3.12806
4.96719, 9, 3.90931, 17.1698, 34.1653, 4.78089, -54.3383, -2.99573
4.97524, 9, 3.77977, 17.2266, 34.2147, 4.58964, -54.6117, -2.8691
4.98316, 9, 3.6597, 17.2795, 34.2605, 4.41025, -54.8698, -2.75086
4.99116, 9, 3.54975, 17.3286, 34.3021, 4.24665, -55.1066, -2.64347
4.99924, 9, 3.45082, 17.3735, 34.338, 4.10242, -55.3169, -2.5485
5.00722, 9, 3.36388, 17.4133, 34.3681, 3.97999, -55.4967, -2.46871
5.01516, 9, 3.28878, 17.4481, 34.3921, 3.88078, -55.6433, -2.40341
5.02324, 9, 3.22435, 17.4782, 34.4103, 3.80495, -55.7569, -2.3528
5.03116, 9, 3.17057, 17.5039, 34.4233, 3.74921, -55.8401, -2.31593
5.03916, 9, 3.12762, 17.5243, 34.432, 3.71153, -55.8968, -2.29077
5.04727, 9, 3.09505, 17.5394, 34.4374, 3.68774, -55.9332, -2.27478
5.05577, 9, 3.07078, 17.5505, 34.4405, 3.67362, -55.9551, -2.26531
5.08257, 9, 3.03754, 17.5657, 34.4431, 3.6596, -55.9775, -2.25614
5.08401, 9, 3.03754, 17.5657, 34.4431, 3.6596, -55.9775, -2.25614
5.08523, 9, 3.03754, 17.5657, 34.4431, 3.6596, -55.9775, -2.25614
5.08816, 9, 3.03666, 17.5661, 34.4432, 3.65919, -55.9782, -2.25592
5.09532, 9, 3.03639, 17.5664, 34.4433, 3.65867, -55.9789, -2.25567
5.10328, 9, 3.03707, 17.5666, 34.4434, 3.6584, -55.9793, -2.25554
5.11134, 9, 3.03684, 17.567, 34.4434, 3.65809, -55.9796, -2.25546
5.11966, 9, 3.03378, 17.5686, 34.4434, 3.65757, -55.9804, -2.2554
5.12719, 9, 3.02596, 17.5726, 34.4435, 3.65574, -55.9833, -2.2551
5.13526, 9, 3.01166, 17.5806, 34.4441, 3.65021, -55.9917, -2.25351
5.14396, 9, 2.98907, 17.5942, 34.4457, 3.63767, -56.0098, -2.24905
5.15217, 10, 2.95528, 17.6147, 34.4492, 3.61402, -56.0429, -2.24013
5.15934, 10, 2.90911, 17.6419, 34.4556, 3.57378, -56.099, -2.22415
5.16816, 10, 2.85117, 17.6745, 34.466, 3.51346, -56.186, -2.19902
5.17546, 10, 2.78153, 17.7126, 34.481, 3.42861, -56.3082, -2.16376
5.18351, 10, 2.6994, 17.7572, 34.5001, 3.31867, -56.4682, -2.11814
5.19233, 10, 2.60498, 17.8086, 34.5225, 3.18493, -56.664, -2.06208
5.19975, 10, 2.49997, 17.8666, 34.5471, 3.0306, -56.8913, -1.99575
5.20824, 10, 2.3851, 17.932, 34.5718, 2.86055, -57.1436, -1.92227
5.21662, 10, 2.26032, 18.006, 34.5949, 2.68004, -57.4133, -1.84285
5.22376, 10, 2.1262, 18.0891, 34.615, 2.49348, -57.6937, -1.75899
5.23233, 10, 1.98461, 18.1799, 34.6315, 2.30445, -57.9803, -1.67328
5.24057, 10, 1.91176, 18.2275, 34.6437, 2.11512, -58.2701, -1.58505
5.24794, 10, 1.76303, 18.3269, 34.6483, 1.92627, -58.5615, -1.4959
5.25573, 10, 1.6118, 18.4309, 34.6541, 1.83228, -58.7074, -1.45061
5.265, 10, 1.3826, 18.5943, 34.655, 1.55238, -59.1452, -1.3144
5.27221, 10, 1.22972, 18.7076, 34.6501, 1.3679, -59.4371, -1.22182
5.27929, 10, 1.15357, 18.7656, 34.6458, 1.27635, -59.5828, -1.17544
5.28912, 10, 0.926227, 18.9444, 34.6263, 1.00459, -60.019, -1.03424
5.29515, 10, 0.850746, 19.0056, 34.6174, 0.914906, -60.1641, -0.987004
5.3032, 10, 0.700536, 19.1303, 34.5964, 0.736954, -60.4533, -0.891344
5.31256, 10, 0.477133, 19.3227, 34.5562, 0.474173, -60.8852, -0.746557
5.31915, 10, 0.403125, 19.3882, 34.5406, 0.387688, -61.0287, -0.697617
5.32864, 10, 0.182718, 19.5893, 34.4865, 0.131333, -61.4573, -0.550435
5.33515, 10, 0.109789, 19.658, 34.4662, 0.0470259, -61.5995, -0.500816
5.34511, 10, -0.108162, 19.8688, 34.3985, -0.20287, -62.0244, -0.351285
5.35121, 10, -0.180714, 19.9406, 34.3737, -0.284964, -62.1653, -0.300935
5.36076, 10, -0.39789, 20.1599, 34.2926, -0.527463, -62.586, -0.149133
5.36895, 10, -0.542144, 20.3096, 34.233, -0.686047, -62.8644, -0.0467341
5.37614, 10, -0.614101, 20.3857, 34.2015, -0.764352, -63.003, 0.00500981
5.3842, 10, -0.757374, 20.5401, 34.1351, -0.919388, -63.2789, 0.108707
5.39216, 10, -0.899867, 20.697, 34.0644, -1.07185, -63.5532, 0.213282
5.39923, 10, -1.04149, 20.8563, 33.9891, -1.22164, -63.8255, 0.318512
5.40717, 10, -1.18184, 21.0176, 33.9094, -1.36862, -64.0957, 0.424701
5.41514, 10, -1.32016, 21.1809, 33.8254, -1.51286, -64.3637, 0.53137
5.42321, 10, -1.45579, 21.3457, 33.7375, -1.65424, -64.6291, 0.638734
5.43124, 10, -1.58744, 21.5101, 33.6464, -1.79226, -64.891, 0.746068
5.43915, 10, -1.71318, 21.6713, 33.5532, -1.92651, -65.1481, 0.853077
5.44724, 10, -1.83147, 21.8271, 33.4592, -2.05528, -65.3978, 0.958474
5.45514, 10, -1.94154, 21.9761, 33.366, -2.17694, -65.6363, 1.06067
5.46315, 10, -2.04281, 22.1159, 33.2758, -2.28931, -65.8591, 1.1576
5.47121, 10, -2.13452, 22.2445, 33.1908, -2.39041, -66.0612, 1.24632
5.47915, 10, -2.21675, 22.3608, 33.1133, -2.47834, -66.2389, 1.32546
5.48717, 10, -2.28982, 22.4641, 33.0451, -2.55167, -66.3891, 1.39288
5.49518, 10, -2.35374, 22.5536, 32.9874, -2.61118, -66.5108, 1.44802
5.50315, 10, -2.40855, 22.6289, 32.9405, -2.65613, -66.6054, 1.49141
5.5112, 10, -2.45424, 22.6901, 32.904, -2.6892, -66.6745, 1.52392
5.51918, 10, -2.49089, 22.7379, 32.8769, -2.71247, -66.7234, 1.54683
5.52717, 10, -2.51909, 22.7734, 32.8576, -2.72811, -66.7561, 1.56209
5.53545, 10, -2.5396, 22.7983, 32.8444, -2.73798, -66.7764, 1.57155
5.55713, 10, -2.5681, 22.8298, 32.8285, -2.7478, -66.7963, 1.58041
5.55928, 10, -2.57072, 22.8323, 32.8271, -2.74845, -66.7976, 1.58093
5.56047, 10, -2.57072, 22.8323, 32.8271, -2.74845, -66.7976, 1.58093
5.56717, 10, -2.5739, 22.8353, 32.8251, -2.74923, -66.799, 1.58153
5.57517, 10, -2.57537, 22.8367, 32.8239, -2.74959, -66.7997, 1.5818
5.58331, 10, -2.57575, 22.8375, 32.8229, -2.74976, -66.8, 1.58193
5.59125, 10, -2.5766, 22.839, 32.822, -2.74988, -66.8002, 1.58198
5.59958, 10, -2.57934, 22.8427, 32.8206, -2.75008, -66.8005, 1.58201
5.60734, 10, -2.58528, 22.8507, 32.818, -2.75085, -66.8019, 1.58205
5.61525, 11, -2.59541, 22.865, 32.8132, -2.7533, -66.8064, 1.58255
5.6232, 11, -2.61088, 22.8874, 32.8045, -2.75906, -66.8171, 1.58486
5.6318, 11, -2.6335, 22.9196, 32.79, -2.77013, -66.8374, 1.59022
5.64022, 11, -2.66388, 22.9629, 32.768, -2.78869, -66.872, 1.59968
5.64725, 11, -2.7028, 23.0186, 32.7361, -2.81678, -66.9264, 1.61492
5.65602, 11, -2.75093, 23.0886, 32.6926, -2.85726, -67.0036, 1.63688
5.66423, 11, -2.80848, 23.1737, 32.6361, -2.91213, -67.1079, 1.66692
5.67132, 11, -2.87537, 23.2741, 32.5659, -2.97993, -67.2395, 1.70529
5.68017, 11, -2.95086, 23.3891, 32.4822, -3.06202, -67.3983, 1.75095
5.68748, 11, -3.0344, 23.5184, 32.3862, -3.15557, -67.5808, 1.8028
5.69556, 11, -3.12596, 23.6609, 32.2792, -3.25886, -67.783, 1.86052
5.7042, 11, -3.22455, 23.8146, 32.1631, -3.36918, -67.9997, 1.92263
5.71168, 11, -3.32929, 23.9783, 32.0398, -3.48413, -68.226, 1.98631
5.72023, 11, -3.43964, 24.1519, 31.9108, -3.60156, -68.4584, 2.05196
5.72773, 11, -3.55484, 24.3339, 31.7778, -3.71978, -68.6936, 2.11829
5.73627, 11, -3.67333, 24.5208, 31.6422, -3.83814, -68.93, 2.18403
5.74383, 11, -3.73317, 24.7097, 31.5047, -3.95569, -69.1662, 2.25059
5.75232, 11, -3.91312, 24.8992, 31.3658, -4.07267, -69.4021, 2.31607
5.75916, 11, -3.97268, 24.994, 31.2958, -4.1308, -69.5197, 2.34834
5.76817, 11, -4.14864, 25.2754, 31.0849, -4.30335, -69.8709, 2.44563
5.77518, 11, -4.20573, 25.3668, 31.0147, -4.36029, -69.9869, 2.47754
5.78424, 11, -4.36931, 25.6311, 30.8069, -4.52701, -70.3286, 2.57049
5.79117, 11, -4.42087, 25.7155, 30.7393, -4.58076, -70.4392, 2.60079
5.80043, 11, -4.56511, 25.9537, 30.5457, -4.73313, -70.754, 2.68619
5.80716, 11, -4.60929, 26.0272, 30.4852, -4.77999, -70.8515, 2.71239
5.81517, 11, -4.69136, 26.1644, 30.3723, -4.86678, -71.0322, 2.76105
5.82461, 11, -4.79971, 26.3452, 30.2263, -4.97584, -71.261, 2.82351
5.83113, 11, -4.83185, 26.3983, 30.1843, -5.00648, -71.3252, 2.84103
5.83918, 11, -4.88979, 26.4927, 30.1115, -5.05874, -71.435, 2.87036
5.84872, 11, -4.96083, 26.6056, 30.0288, -5.11483, -71.5559, 2.90237
5.85672, 11, -4.99771, 26.6626, 29.9896, -5.14052, -71.6105, 2.91695
5.86477, 11, -5.01321, 26.7062, 29.9608, -5.15864, -71.6486, 2.92702
5.87286, 11, -5.04862, 26.7377, 29.9406, -5.17108, -71.674, 2.93363
5.88113, 11, -5.06511, 26.7599, 29.9272, -5.17892, -71.6902, 2.93778
5.88931, 11, -5.07779, 26.775, 29.9185, -5.18344, -71.6997, 2.94014
5.90627, 11, -5.09254, 26.7891, 29.9099, -5.18714, -71.7073, 2.94216
5.90752, 11, -5.09254, 26.7891, 29.9099, -5.18714, -71.7073, 2.94216
5.9112, 11, -5.0943, 26.7905, 29.9089, -5.18748, -71.708, 2.94236
5.91914, 11, -5.09648, 26.7919, 29.9074, -5.18796, -71.7089, 2.94266
5.92716, 11, -5.09775, 26.7926, 29.9063, -5.18826, -71.7094, 2.94282
5.93527, 11, -5.09906, 26.7933, 29.9053, -5.18844, -71.7096, 2.9429
5.94312, 11, -5.10136, 26.7954, 29.9041, -5.18861, -71.7099, 2.943
5.95113, 11, -5.10614, 26.8011, 29.902, -5.18896, -71.7106, 2.94304
5.9594, 12, -5.11419, 26.8124, 29.8981, -5.1902, -71.7132, 2.94342
5.96715, 12, -5.12609, 26.8308, 29.8907, -5.1935, -71.7201, 2.94479
5.97523, 12, -5.14345, 26.8578, 29.8779, -5.20037, -71.734, 2.94811
5.9832, 12, -5.16748, 26.8953, 29.857, -5.21261, -71.7582, 2.95446
5.99113, 12, -5.19884, 26.9448, 29.8258, -5.23195, -71.7971, 2.96511
5.99913, 12, -5.23838, 27.0082, 29.7818, -5.26014, -71.8563, 2.98122
6.00723, 12, -5.28672, 27.0867, 29.7228, -5.29937, -71.9378, 3.00374
6.01515, 12, -5.34392, 27.1813, 29.6477, -5.35122, -72.0448, 3.03278
6.02313, 12, -5.40935, 27.2913, 29.5563, -5.41364, -72.1768, 3.06795
6.0312, 12, -5.48233, 27.4164, 29.4492, -5.48793, -72.3325, 3.10928
6.03913, 12, -5.56309, 27.5558, 29.3277, -5.57112, -72.5088, 3.15623
6.04714, 12, -5.65103, 27.7079, 29.1936, -5.66167, -72.7012, 3.2077
6.0552, 12, -5.74516, 27.8713, 29.0498, -5.75718, -72.9051, 3.26164
6.06315, 12, -5.84474, 28.0446, 28.899, -5.85568, -73.1163, 3.31768
6.07126, 12, -5.94916, 28.2268, 28.7429, -5.95552, -73.3314, 3.37536
6.07918, 12, -6.05778, 28.4158, 28.5829, -6.05597, -73.548, 3.43268
6.08766, 12, -6.16877, 28.6096, 28.4203, -6.15623, -73.7649, 3.48976
6.09522, 12, -6.28034, 28.806, 28.2563, -6.25597, -73.9815, 3.54756
6.10338, 12, -6.39117, 29.0021, 28.0908, -6.35517, -74.1972, 3.60464
6.11131, 12, -6.50036, 29.1957, 27.9239, -6.4533, -74.4118, 3.66097
6.11925, 12, -6.60703, 29.3858, 27.7569, -6.55012, -74.6247, 3.71744
6.12731, 12, -6.70987, 29.5705, 27.5919, -6.6453, -74.8345, 3.77285
6.13526, 12, -6.80742, 29.747, 27.43, -6.73769, -75.0394, 3.82637
6.14316, 12, -6.89917, 29.9141, 27.2732, -6.82597, -75.2359, 3.87792
6.15116, 12, -6.98419, 30.0707, 27.125, -6.90891, -75.4201, 3.92671
6.15929, 12, -7.06143, 30.2143, 26.9889, -6.98415, -75.5885, 3.9709
6.16767, 12, -7.13121, 30.3438, 26.8668, -7.05079, -75.7369, 4.00932
6.17613, 12, -7.19372, 30.4585, 26.7612, -7.10674, -75.8633, 4.04214
6.18351, 12, -7.2487, 30.5577, 26.6731, -7.15212, -75.9663, 4.06919
6.19153, 12, -7.29605, 30.6408, 26.6024, -7.18826, -76.0471, 4.09071
6.19979, 12, -7.33539, 30.7084, 26.5477, -7.21503, -76.1073, 4.10689
6.20825, 12, -7.36732, 30.7614, 26.507, -7.23386, -76.1497, 4.11839
6.21603, 12, -7.3919, 30.8009, 26.4786, -7.24662, -76.1784, 4.12614
6.22422, 12, -7.41012, 30.8287, 26.4594, -7.25472, -76.1968, 4.13088
6.23209, 12, -7.42392, 30.8477, 26.4471, -7.25925, -76.2078, 4.13359
6.25044, 12, -7.44078, 30.8664, 26.4348, -7.26318, -76.2171, 4.13574
6.25334, 12, -7.44303, 30.8683, 26.4332, -7.26357, -76.218, 4.13591
6.25506, 12, -7.44303, 30.8683, 26.4332, -7.26357, -76.218, 4.13591
6.26311, 12, -7.4459, 30.8705, 26.4311, -7.264, -76.2191, 4.13612
6.27124, 12, -7.44752, 30.8714, 26.4297, -7.26428, -76.2197, 4.1362
6.28022, 12, -7.44888, 30.8722, 26.4283, -7.26445, -76.2202, 4.13623
6.28718, 12, -7.44974, 30.873, 26.4277, -7.26451, -76.2204, 4.13627
6.29634, 12, -7.45579, 30.8807, 26.4247, -7.26473, -76.2211, 4.13633
6.30311, 13, -7.45933, 30.8859, 26.4228, -7.26499, -76.2219, 4.13636
6.3126, 13, -7.47539, 30.9111, 26.4116, -7.26801, -76.2293, 4.13727
6.32053, 13, -7.49221, 30.9377, 26.3968, -7.27332, -76.2417, 4.14
6.32718, 13, -7.50296, 30.955, 26.3862, -7.27758, -76.2511, 4.14232
6.33516, 13, -7.52927, 30.9985, 26.3567, -7.29038, -76.2787, 4.14922
6.34471, 13, -7.5823, 31.0891, 26.2865, -7.3234, -76.3503, 4.16769
6.35349, 13, -7.62748, 31.1689, 26.2185, -7.35694, -76.4235, 4.18656
6.35918, 13, -7.65293, 31.2148, 26.1775, -7.37708, -76.4683, 4.19818
6.36883, 13, -7.74017, 31.3765, 26.0257, -7.4517, -76.6377, 4.24243
6.37747, 13, -7.77262, 31.4382, 25.9009, -7.51441, -76.7784, 4.27969
6.38317, 13, -7.84251, 31.5733, 25.8319, -7.5484, -76.8558, 4.3003
6.39217, 13, -7.91919, 31.7229, 25.6824, -7.62186, -77.023, 4.34455
6.40011, 13, -8.00208, 31.8844, 25.5203, -7.70064, -77.203, 4.39212
6.40725, 13, -8.09034, 32.0555, 25.3483, -7.78297, -77.3915, 4.44253
6.41511, 13, -8.18375, 32.2359, 25.169, -7.86713, -77.585, 4.49489
6.42311, 13, -8.28165, 32.4258, 24.985, -7.95215, -77.7806, 4.5473
6.43212, 13, -8.38278, 32.6225, 24.7981, -8.03698, -77.9769, 4.59975
6.44017, 13, -8.48536, 32.8217, 24.6081, -8.12148, -78.1728, 4.6531
6.44811, 13, -8.58798, 33.0217, 24.4163, -8.20539, -78.3681, 4.70626
6.45613, 13, -8.68968, 33.2219, 24.2242, -8.28824, -78.5622, 4.75854
6.46311, 13, -8.78941, 33.42, 24.0316, -8.3706, -78.7547, 4.81114
6.47111, 13, -8.88643, 33.6126, 23.8388, -8.45135, -78.945, 4.8636
6.47918, 13, -8.97909, 33.798, 23.6487, -8.53057, -79.1318, 4.91449
6.48717, 13, -9.06643, 33.9749, 23.4643, -8.60666, -79.3128, 4.96382
6.49512, 13, -9.14793, 34.1415, 23.2874, -8.67924, -79.4848, 5.01134
6.50317, 13, -9.22272, 34.2955, 23.1214, -8.74595, -79.6444, 5.0557
6.51111, 13, -9.29048, 34.4359, 22.971, -8.80644, -79.7879, 5.09531
6.51913, 13, -9.35165, 34.5617, 22.8385, -8.85779, -79.9129, 5.12917
6.52725, 13, -9.40628, 34.6718, 22.7254, -8.90131, -80.0171, 5.15775
6.53511, 13, -9.4541, 34.7659, 22.6328, -8.93607, -80.1006, 5.18101
6.54311, 13, -9.49493, 34.8438, 22.5602, -8.96222, -80.1648, 5.19893
6.55118, 13, -9.52856, 34.9063, 22.5052, -8.98128, -80.2112, 5.21224
6.55911, 13, -9.55545, 34.9544, 22.4656, -8.99438, -80.2433, 5.22146
6.56719, 13, -9.57609, 34.9895, 22.4384, -9.00289, -80.2643, 5.22744
6.57537, 13, -9.59138, 35.0138, 22.4204, -9.00809, -80.2775, 5.23103
6.59354, 13, -9.61103, 35.04, 22.4019, -9.01258, -80.2891, 5.23419
6.59555, 13, -9.61404, 35.0431, 22.3996, -9.01313, -80.2903, 5.23451
6.59928, 13, -9.61625, 35.0453, 22.3978, -9.01349, -80.2912, 5.23473
6.60733, 13, -9.61888, 35.0475, 22.3953, -9.01398, -80.2922, 5.23496
6.61572, 13, -9.62029, 35.0484, 22.3937, -9.01422, -80.2927, 5.23505
6.62412, 13, -9.62167, 35.0491, 22.3924, -9.01438, -80.2931, 5.23514
6.6311, 13, -9.62411, 35.0513, 22.3907, -9.01453, -80.2932, 5.23515
6.63912, 13, -9.62851, 35.0575, 22.388, -9.0147, -80.2939, 5.23521
6.64732, 13, -9.63569, 35.0687, 22.3828, -9.01546, -80.2957, 5.23531
6.65514, 14, -9.64626, 35.0863, 22.3734, -9.0176, -80.3009, 5.23609
6.66321, 14, -9.66129, 35.1125, 22.3569, -9.02207, -80.3116, 5.2387
6.67209, 14, -9.68229, 35.1498, 22.3303, -9.03039, -80.3308, 5.2438
6.68017, 14, -9.7095, 35.2002, 22.2901, -9.04397, -80.3612, 5.25245
6.6875, 14, -9.74354, 35.2651, 22.233, -9.06418, -80.4069, 5.26544
6.69626, 14, -9.78504, 35.3464, 22.1562, -9.09192, -80.4719, 5.28336
6.7035, 14, -9.83347, 35.4443, 22.0577, -9.12694, -80.5562, 5.30686
6.71163, 14, -9.88819, 35.5585, 21.937, -9.17014, -80.6615, 5.33624
6.72031, 14, -9.94891, 35.6883, 21.7946, -9.22228, -80.7862, 5.37174
6.72769, 14, -10.0161, 35.8334, 21.6327, -9.28031, -80.9277, 5.41243
6.73621, 14, -10.0892, 35.9922, 21.4545, -9.34393, -81.0825, 5.45678
6.74438, 14, -10.1674, 36.1624, 21.2627, -9.41108, -81.2465, 5.50373
6.75169, 14, -10.2084, 36.2511, 21.1628, -9.44522, -81.4168, 5.55323
6.76044, 14, -10.338, 36.5301, 20.8537, -9.5508, -81.5899, 5.60442
6.76715, 14, -10.3833, 36.6271, 20.7482, -9.58589, -81.6769, 5.63008
6.77708, 14, -10.5235, 36.9273, 20.4254, -9.69177, -81.9382, 5.70703
6.7842, 14, -10.618, 37.1313, 20.2079, -9.76153, -82.1114, 5.7591
6.79109, 14, -10.6651, 37.2332, 20.0988, -9.79655, -82.1977, 5.78522
6.80031, 14, -10.8045, 37.5378, 19.7691, -9.89931, -82.4551, 5.86291
6.8072, 14, -10.8499, 37.6387, 19.6591, -9.93357, -82.5403, 5.88864
6.81509, 14, -10.9385, 37.8371, 19.4402, -10.0003, -82.7089, 5.94053
6.82311, 14, -11.0226, 38.0276, 19.2233, -10.0657, -82.8745, 5.99148
6.83255, 14, -11.1391, 38.2954, 18.9099, -10.1588, -83.1122, 6.06422
6.83909, 14, -11.1752, 38.3795, 18.8104, -10.1883, -83.1872, 6.08742
6.84715, 14, -11.2429, 38.5379, 18.6212, -10.244, -83.3285, 6.13174
6.85666, 14, -11.3333, 38.7479, 18.3699, -10.3151, -83.5133, 6.19001
6.86472, 14, -11.3864, 38.8688, 18.2298, -10.355, -83.6151, 6.22193
6.87274, 14, -11.4109, 38.9234, 18.1122, -10.3871, -83.6979, 6.24796
6.88077, 14, -11.4553, 39.0618, 18.0178, -10.4119, -83.7633, 6.2683
6.88873, 14, -11.4934, 39.0997, 17.9792, -10.4218, -83.7896, 6.2836
6.89609, 14, -11.5254, 39.1639, 17.9167, -10.4373, -83.8305, 6.28968
6.90409, 14, -11.5512, 39.2134, 17.8714, -10.448, -83.8586, 6.2989
6.91214, 14, -11.5708, 39.2498, 17.8404, -10.4551, -83.877, 6.30489
6.91925, 14, -11.5859, 39.2752, 17.8203, -10.4595, -83.8883, 6.30859
6.94166, 14, -11.6101, 39.31, 17.7951, -10.4641, -83.8998, 6.31203
6.94312, 14, -11.6101, 39.31, 17.7951, -10.4641, -83.8998, 6.31203
6.94439, 14, -11.6101, 39.31, 17.7951, -10.4641, -83.8998, 6.31203
6.95116, 14, -11.6128, 39.3127, 17.7924, -10.4645, -83.9007, 6.31228
6.95909, 14, -11.6143, 39.3137, 17.7907, -10.4648, -83.9012, 6.31245
6.96721, 14, -11.6155, 39.3143, 17.7892, -10.465, -83.9014, 6.31247
6.97509, 14, -11.6174, 39.3164, 17.7875, -10.4651, -83.9017, 6.31252
6.98311, 14, -11.6214, 39.322, 17.7845, -10.4653, -83.9022, 6.31258
6.99205, 15, -11.6281, 39.3323, 17.779, -10.4659, -83.9038, 6.31281
7.00017, 15, -11.6377, 39.3485, 17.7689, -10.4675, -83.908, 6.3138
7.00812, 15, -11.6518, 39.3735, 17.7511, -10.471, -83.917, 6.31661
7.0161, 15, -11.6709, 39.4097, 17.7221, -10.4775, -83.9333, 6.32174
7.02415, 15, -11.6958, 39.459, 17.6783, -10.4883, -83.96, 6.33034
7.03109, 15, -11.7268, 39.5234, 17.6159, -10.5044, -83.9989, 6.34353
7.03923, 15, -11.7645, 39.6044, 17.5314, -10.5266, -84.0535, 6.36183
7.04715, 15, -11.8086, 39.7025, 17.4227, -10.5548, -84.1257, 6.38565
7.05509, 15, -11.8585, 39.8175, 17.2886, -10.5891, -84.2155, 6.41499
7.06419, 15, -11.9136, 39.9485, 17.1298, -10.6304, -84.3227, 6.4501
7.07112, 15, -11.9743, 40.0953, 16.9489, -10.6779, -84.4446, 6.49061
7.07913, 15, -12.0403, 40.2559, 16.7489, -10.7286, -84.5789, 6.53589
7.08744, 15, -12.1107, 40.4282, 16.5329, -10.7832, -84.7213, 6.58368
7.09518, 15, -12.1855, 40.6112, 16.3059, -10.8392, -84.8695, 6.63367
7.10321, 15, -12.2646, 40.8038, 16.0716, -10.8953, -85.0201, 6.68593
7.11132, 15, -12.3476, 41.0034, 15.8313, -10.9527, -85.1717, 6.73893
7.11921, 15, -12.4331, 41.2083, 15.588, -11.0088, -85.3229, 6.79156
7.12731, 15, -12.5193, 41.4163, 15.3426, -11.0649, -85.4736, 6.84463
7.1353, 15, -12.6052, 41.6245, 15.0953, -11.1204, -85.6229, 6.89852
7.1431, 15, -12.6899, 41.8313, 14.8476, -11.1745, -85.7715, 6.95193
7.15118, 15, -12.7721, 42.0356, 14.5994, -11.2292, -85.9183, 7.00522
7.15921, 15, -12.8509, 42.2351, 14.3528, -11.282, -86.0631, 7.0588
7.16732, 15, -12.9255, 42.426, 14.1112, -11.3333, -86.2043, 7.11103
7.17528, 15, -12.9954, 42.6065, 13.8772, -11.383, -86.3398, 7.16106
7.18368, 15, -13.0603, 42.776, 13.6555, -11.4285, -86.467, 7.20857
7.1915, 15, -13.1199, 42.9324, 13.4508, -11.4699, -86.5832, 7.25296
7.19948, 15, -13.1742, 43.0735, 13.2667, -11.5072, -86.6862, 7.29237
7.20768, 15, -13.2237, 43.1987, 13.107, -11.5386, -86.7736, 7.32583
7.21629, 15, -13.2679, 43.3076, 12.9733, -11.5638, -86.8459, 7.35343
7.22362, 15, -13.3062, 43.3993, 12.8653, -11.5834, -86.9027, 7.37514
7.23219, 15, -13.3388, 43.4743, 12.7815, -11.5983, -86.9455, 7.39166
7.24002, 15, -13.3655, 43.5338, 12.7191, -11.609, -86.9769, 7.40362
7.24819, 15, -13.3865, 43.579, 12.6744, -11.6165, -86.9987, 7.41198
7.25583, 15, -13.4026, 43.6118, 12.6438, -11.6214, -87.0129, 7.41747
7.26448, 15, -13.4149, 43.6357, 12.6238, -11.6243, -87.0216, 7.42078
7.27212, 15, -13.4243, 43.6528, 12.6113, -11.6259, -87.0264, 7.42263
7.2792, 15, -13.4279, 43.659, 12.607, -11.6264, -87.0278, 7.42321
7.28847, 16, -13.4352, 43.67, 12.5997, -11.6273, -87.0301, 7.42413
7.29508, 16, -13.4366, 43.6717, 12.5983, -11.6275, -87.0305, 7.42428
7.30432, 16, -13.4389, 43.674, 12.5955, -11.6279, -87.0312, 7.42439
7.31108, 16, -13.4393, 43.6743, 12.5948, -11.628, -87.0313, 7.42443
7.32042, 16, -13.4399, 43.6747, 12.593, -11.6281, -87.0316, 7.42455
7.32719, 16, -13.4401, 43.6748, 12.5925, -11.6281, -87.0316, 7.42454
7.33666, 16, -13.4405, 43.6754, 12.5916, -11.6281, -87.0316, 7.42459
7.3446, 16, -13.4408, 43.6762, 12.5913, -11.6282, -87.0317, 7.42461
7.35267, 16, -13.4411, 43.6773, 12.591, -11.6282, -87.0317, 7.42458
7.36073, 16, -13.4413, 43.6783, 12.5907, -11.6283, -87.0317, 7.42462
7.36865, 16, -13.4416, 43.6794, 12.5905, -11.6283, -87.0317, 7.42466
7.37686, 16, -13.4417, 43.6799, 12.5903, -11.6283, -87.0317, 7.42466
7.38308, 16, -13.4421, 43.681, 12.5902, -11.6283, -87.0317, 7.42464
7.39205, 16, -13.4424, 43.6817, 12.5901, -11.6283, -87.0317, 7.42463
7.40007, 16, -13.4426, 43.6822, 12.59, -11.6283, -87.0317, 7.42464
7.40812, 16, -13.4428, 43.6825, 12.5898, -11.6283, -87.0317, 7.42465
