hehonglu123/ABB_Primitive_Study/realrobot/movelcl_30_car2/curve_exe_v1500_z1.csv
timestamp, cmd_num, J1, J2, J3, J4, J5, J6
0.000366, -1, -13.4404, 43.6799, 12.5931, -11.6274, -87.0288, 7.42519
0.004584, -1, -13.4404, 43.6799, 12.5931, -11.6273, -87.0288, 7.42518
0.028713, -1, -13.4404, 43.6799, 12.5931, -11.6273, -87.0288, 7.42504
0.029949, -1, -13.4404, 43.6799, 12.5931, -11.6273, -87.0288, 7.42504
0.032028, -1, -13.4404, 43.6799, 12.5931, -11.6273, -87.0288, 7.42505
0.034804, -1, -13.4404, 43.6799, 12.5931, -11.6273, -87.0288, 7.42508
0.039884, -1, -13.4404, 43.6799, 12.5931, -11.6273, -87.0288, 7.42514
0.047832, -1, -13.4402, 43.6798, 12.5931, -11.6273, -87.0287, 7.4251
0.055827, -1, -13.4389, 43.679, 12.5931, -11.6273, -87.0287, 7.42503
0.063903, -1, -13.4351, 43.6764, 12.5934, -11.6272, -87.0286, 7.4251
0.071859, -1, -13.4281, 43.6709, 12.5944, -11.6265, -87.0276, 7.42487
0.079945, -1, -13.4174, 43.6623, 12.5963, -11.6233, -87.0237, 7.42341
0.088121, -1, -13.4014, 43.6495, 12.5996, -11.6149, -87.014, 7.41796
0.095462, -1, -13.3779, 43.6307, 12.6049, -11.5986, -86.9947, 7.40587
0.104006, -1, -13.3464, 43.6047, 12.6131, -11.5709, -86.962, 7.38528
0.112262, -1, -13.306, 43.5707, 12.6244, -11.5272, -86.9119, 7.35329
0.119631, -1, -13.2555, 43.5271, 12.6394, -11.4635, -86.8384, 7.30695
0.128008, -1, -13.1938, 43.4731, 12.6589, -11.3774, -86.7384, 7.24265
0.136459, -1, -13.1206, 43.408, 12.6828, -11.2652, -86.6085, 7.15994
0.143867, -1, -13.036, 43.3318, 12.7112, -11.1268, -86.4477, 7.05722
0.151933, -1, -12.9393, 43.2441, 12.7446, -10.9619, -86.2557, 6.93464
0.160808, -1, -12.8308, 43.1453, 12.7827, -10.7723, -86.0345, 6.79322
0.167958, -1, -12.7112, 43.0365, 12.8246, -10.5602, -85.7872, 6.63481
0.176139, -1, -12.5813, 42.9186, 12.8702, -10.3292, -85.5177, 6.46219
0.182817, -1, -12.5127, 42.8563, 12.8942, -10.2081, -85.3762, 6.37165
0.190885, -1, -12.3689, 42.7262, 12.9444, -9.95673, -85.0825, 6.18368
0.200372, -1, -12.1401, 42.5197, 13.0236, -9.56375, -84.6231, 5.88967
0.209143, -1, -11.9807, 42.3761, 13.0783, -9.2957, -84.3094, 5.68858
0.214886, -1, -11.8991, 42.3029, 13.106, -9.16051, -84.1513, 5.5871
0.224412, -1, -11.6477, 42.079, 13.1904, -8.75238, -83.6741, 5.28146
0.233204, -1, -11.4772, 41.9276, 13.2473, -8.47931, -83.3547, 5.07718
0.238949, -1, -11.3915, 41.8515, 13.2758, -8.34264, -83.1948, 4.97482
0.248486, -1, -11.2197, 41.6232, 13.3616, -7.93218, -82.7144, 4.66754
0.255832, -1, -11.0475, 41.5474, 13.3902, -7.79522, -82.5542, 4.56505
0.262939, -1, -10.8752, 41.3959, 13.4476, -7.52152, -82.2335, 4.35984
0.272866, -1, -10.6166, 41.1685, 13.534, -7.1107, -81.7523, 4.05221
0.279823, -1, -10.5303, 41.0926, 13.5629, -6.97359, -81.5919, 3.9498
0.286889, -1, -10.3577, 40.9409, 13.6207, -6.69972, -81.2713, 3.74474
0.295855, -1, -10.1853, 40.7895, 13.6782, -6.42598, -80.9508, 3.53972
0.303812, -1, -10.0134, 40.638, 13.7356, -6.15222, -80.6307, 3.33447
0.310827, -1, -9.84185, 40.4863, 13.7931, -5.87862, -80.3108, 3.12961
0.31981, -1, -9.67087, 40.3341, 13.8504, -5.60519, -79.991, 2.92489
0.32784, -1, -9.50056, 40.1817, 13.9076, -5.33192, -79.6715, 2.72049
0.334808, -1, -9.33092, 40.0297, 13.965, -5.05856, -79.3518, 2.51598
0.343818, -1, -9.16184, 39.8778, 14.0221, -4.78575, -79.0324, 2.31168
0.3518, -1, -8.993, 39.7257, 14.0792, -4.51333, -78.7132, 2.1076
0.358875, -1, -8.82404, 39.5737, 14.1363, -4.2412, -78.3943, 1.9039
0.367812, -1, -8.65477, 39.4221, 14.1933, -3.96971, -78.0763, 1.70045
0.375826, -1, -8.48511, 39.2711, 14.2502, -3.69845, -77.7588, 1.49716
0.384809, -1, -8.31531, 39.1205, 14.3071, -3.42749, -77.4417, 1.29426
0.391817, -1, -8.14544, 38.9702, 14.364, -3.15724, -77.1253, 1.09161
0.399875, -1, -7.97539, 38.82, 14.4207, -2.88743, -76.8096, 0.889554
0.407808, -1, -7.80537, 38.6701, 14.4774, -2.61797, -76.4943, 0.68792
0.415831, -1, -7.63501, 38.5209, 14.5337, -2.34933, -76.1794, 0.486789
0.423921, -1, -7.46464, 38.3719, 14.59, -2.08123, -75.8652, 0.285977
0.431858, -1, -7.29453, 38.223, 14.6463, -1.81326, -75.5514, 0.0854215
0.439812, -1, -7.12499, 38.0742, 14.7026, -1.54607, -75.2387, -0.114739
0.447875, -1, -6.9563, 37.9255, 14.7587, -1.27957, -74.9266, -0.31421
0.45582, -1, -6.78875, 37.7773, 14.8145, -1.01385, -74.6155, -0.512907
0.463806, -1, -6.6221, 37.6294, 14.87, -0.748817, -74.3053, -0.711372
0.471873, -1, -6.45629, 37.4817, 14.9254, -0.484723, -73.9957, -0.909274
0.47981, -1, -6.29177, 37.3343, 14.9808, -0.221098, -73.6871, -1.10694
0.487875, -1, -6.12834, 37.1873, 15.036, 0.0420198, -73.3792, -1.30375
0.495951, -1, -5.96568, 37.0413, 15.0912, 0.304127, -73.0722, -1.49979
0.503809, -1, -5.80362, 36.8958, 15.1461, 0.565367, -72.7665, -1.69531
0.511818, -1, -5.64164, 36.7508, 15.2006, 0.825945, -72.4615, -1.8903
0.519873, -1, -5.47963, 36.6061, 15.2552, 1.08531, -72.1574, -2.08466
0.527806, -1, -5.31765, 36.462, 15.3097, 1.34408, -71.8544, -2.27852
0.535826, -1, -5.15577, 36.3186, 15.364, 1.6021, -71.5523, -2.47168
0.543877, -1, -4.99407, 36.1756, 15.4181, 1.85932, -71.2513, -2.66399
0.551806, -1, -4.83263, 36.033, 15.472, 2.11531, -70.9514, -2.85572
0.560193, -1, -4.67146, 35.8905, 15.5257, 2.3705, -70.6525, -3.04687
0.567308, -1, -4.51025, 35.7484, 15.5791, 2.6247, -70.3547, -3.23752
0.575842, -1, -4.34914, 35.6071, 15.6323, 2.87772, -70.0582, -3.42742
0.584681, -1, -4.18844, 35.4664, 15.6853, 3.12992, -69.7629, -3.61632
0.59193, -1, -4.02873, 35.3259, 15.7381, 3.3816, -69.4687, -3.80444
0.599951, -1, -3.87027, 35.1858, 15.7908, 3.63218, -69.1753, -3.99191
0.608673, -1, -3.71312, 35.0462, 15.8431, 3.88175, -68.883, -4.17863
0.615913, -1, -3.55694, 34.9072, 15.8952, 4.13043, -68.5917, -4.36494
0.623911, -1, -3.4017, 34.7691, 15.9471, 4.37818, -68.3013, -4.55061
0.633148, -1, -3.24734, 34.6315, 15.9989, 4.6248, -68.0122, -4.73513
0.639701, -1, -3.17054, 34.5629, 16.0247, 4.74781, -67.7242, -4.91896
0.647906, -1, -2.94187, 34.3577, 16.1022, 5.11577, -67.4376, -5.10214
0.655842, -1, -2.79036, 34.2217, 16.1534, 5.35976, -67.152, -5.28463
0.664009, -1, -2.63925, 34.0865, 16.2044, 5.60253, -66.8677, -5.46651
0.670804, -1, -2.56371, 34.0192, 16.2298, 5.72361, -66.7261, -5.55728
0.680033, -1, -2.337, 33.8178, 16.3059, 6.08527, -66.3029, -5.82804
0.686869, -1, -2.26153, 33.7509, 16.3312, 6.20526, -66.1624, -5.91789
0.697061, -1, -2.03565, 33.5507, 16.4066, 6.56371, -65.7422, -6.1862
0.704282, -1, -1.88565, 33.4179, 16.4566, 6.80169, -65.4637, -6.36437
0.710799, -1, -1.81088, 33.3518, 16.4814, 6.92032, -65.3249, -6.45317
0.721148, -1, -1.58691, 33.154, 16.5555, 7.27441, -64.9098, -6.71865
0.726913, -1, -1.51228, 33.0883, 16.5802, 7.39185, -64.7721, -6.80678
0.736611, -1, -1.28871, 32.8918, 16.654, 7.74308, -64.3607, -7.06947
0.745226, -1, -1.21453, 32.8266, 16.7029, 7.97602, -64.0878, -7.24405
0.750871, -1, -1.06703, 32.6967, 16.7273, 8.09207, -63.9519, -7.33105
0.761809, -1, -0.848083, 32.5033, 16.8003, 8.43904, -63.5457, -7.59095
0.767836, -1, -0.775756, 32.4391, 16.8244, 8.5542, -63.411, -7.67734
0.774868, -1, -0.631761, 32.3111, 16.8726, 8.78383, -63.1424, -7.84937
0.783844, -1, -0.488539, 32.1837, 16.9207, 9.0124, -62.8747, -8.02054
0.791805, -1, -0.346474, 32.0567, 16.9686, 9.23982, -62.6084, -8.19068
0.798899, -1, -0.205433, 31.9305, 17.0162, 9.4665, -62.3432, -8.36005
0.807824, -1, -0.0653988, 31.8048, 17.0636, 9.69202, -62.0791, -8.5289
0.815792, -1, 0.0738144, 31.6797, 17.1108, 9.91635, -61.8161, -8.69698
0.822855, -1, 0.212707, 31.5549, 17.1577, 10.14, -61.5541, -8.86457
0.831824, -1, 0.351597, 31.4304, 17.2044, 10.3628, -61.2931, -9.03122
0.839799, -1, 0.490667, 31.3065, 17.251, 10.5844, -61.0331, -9.19711
0.846792, -1, 0.629611, 31.1831, 17.2974, 10.8051, -60.7744, -9.3623
0.855796, -1, 0.768197, 31.0604, 17.3435, 11.0248, -60.5169, -9.52659
0.863791, -1, 0.906379, 30.9381, 17.3894, 11.2438, -60.2605, -9.69062
0.870803, -1, 1.0441, 30.8163, 17.4353, 11.4617, -60.0051, -9.85374
0.879793, -1, 1.18143, 30.695, 17.4809, 11.6786, -59.7509, -10.0165
0.888792, -1, 1.31856, 30.5741, 17.5261, 11.8949, -59.4981, -10.1783
0.894859, -1, 1.4554, 30.454, 17.5714, 12.1103, -59.2463, -10.3392
0.903791, -1, 1.59156, 30.3345, 17.6165, 12.3246, -58.9956, -10.4995
0.912809, -1, 1.72689, 30.2156, 17.6613, 12.5381, -58.7457, -10.6591
0.918853, -1, 1.86134, 30.0972, 17.706, 12.7508, -58.4967, -10.8184
0.927822, -1, 1.99474, 29.9791, 17.7505, 12.9625, -58.2486, -10.9768
0.93584, -1, 2.12731, 29.8615, 17.7948, 13.1733, -58.0014, -11.1348
0.943803, -1, 2.25919, 29.7444, 17.8387, 13.3831, -57.7551, -11.2922
0.9518, -1, 2.39018, 29.6279, 17.8826, 13.5922, -57.5097, -11.4486
0.959855, -1, 2.52021, 29.5118, 17.9263, 13.8006, -57.2656, -11.6044
0.967788, -1, 2.64919, 29.396, 17.9699, 14.008, -57.0226, -11.7596
0.975792, -1, 2.77742, 29.2806, 18.0133, 14.2147, -56.7807, -11.9143
0.983864, -1, 2.90507, 29.1654, 18.0564, 14.4203, -56.5398, -12.0685
0.991789, -1, 3.03256, 29.0507, 18.0994, 14.6253, -56.3001, -12.2223
0.999822, -1, 3.16001, 28.9367, 18.1421, 14.8293, -56.0612, -12.3752
1.00787, -1, 3.28754, 28.8231, 18.1847, 15.0325, -55.8234, -12.5275
1.01579, -1, 3.41474, 28.71, 18.2273, 15.235, -55.5865, -12.6789
1.0238, -1, 3.54167, 28.5974, 18.2696, 15.4367, -55.3504, -12.8297
1.03187, -1, 3.66835, 28.4852, 18.3119, 15.6379, -55.1151, -12.9801
1.03979, -1, 3.79468, 28.3734, 18.3539, 15.8379, -54.8807, -13.1298
1.04779, -1, 3.92082, 28.2623, 18.3956, 16.0372, -54.6471, -13.2792
1.05586, -1, 4.04669, 28.1519, 18.4374, 16.2357, -54.4142, -13.428
1.0638, -1, 4.17213, 28.0418, 18.4789, 16.4334, -54.1823, -13.5759
1.07179, -1, 4.29701, 27.9321, 18.5202, 16.6304, -53.9516, -13.7233
1.08009, -1, 4.42117, 27.8228, 18.5615, 16.8264, -53.7218, -13.8701
1.08788, -1, 4.54461, 27.7137, 18.6025, 17.0218, -53.4928, -14.0163
1.0959, -1, 4.66768, 27.605, 18.6434, 17.2167, -53.2648, -14.1621
1.10426, -1, 4.79015, 27.4967, 18.6841, 17.4106, -53.0377, -14.3072
1.11135, -1, 4.91181, 27.3889, 18.7246, 17.6039, -52.8115, -14.4522
1.11996, -1, 5.03284, 27.2813, 18.7651, 17.7963, -52.586, -14.5963
1.12843, -1, 5.1531, 27.1742, 18.8054, 17.9881, -52.3615, -14.7398
1.13579, -1, 5.27245, 27.0675, 18.8453, 18.1794, -52.1379, -14.8828
1.14389, -1, 5.39102, 26.961, 18.8853, 18.3697, -51.9151, -15.0251
1.15261, -1, 5.50893, 26.855, 18.9252, 18.5594, -51.6929, -15.167
1.15989, -1, 5.62636, 26.7495, 18.9649, 18.7483, -51.4715, -15.3085
1.16804, -1, 5.74345, 26.6446, 19.0045, 18.9369, -51.2509, -15.4493
1.17479, -1, 5.80192, 26.5923, 19.0241, 19.031, -51.141, -15.5198
1.18283, -1, 5.91869, 26.4879, 19.0634, 19.2183, -50.9215, -15.6603
1.19219, -1, 6.09345, 26.332, 19.1222, 19.4979, -50.5938, -15.8696
1.19878, -1, 6.15166, 26.2802, 19.1416, 19.5909, -50.4849, -15.9392
1.20683, -1, 6.26806, 26.1767, 19.1804, 19.7762, -50.2678, -16.0779
1.21639, -1, 6.4426, 26.022, 19.2385, 20.0529, -49.9435, -16.2853
1.22511, -1, 6.55876, 25.9195, 19.277, 20.2364, -49.7283, -16.423
1.23089, -1, 6.61675, 25.8683, 19.2962, 20.3278, -49.6209, -16.4916
1.24042, -1, 6.7902, 25.7154, 19.3536, 20.6018, -49.3003, -16.6971
1.24921, -1, 6.84776, 25.6646, 19.3727, 20.7837, -49.0874, -16.8334
1.25486, -1, 6.96256, 25.5633, 19.4108, 20.8743, -48.9813, -16.9013
1.2648, -1, 7.13391, 25.4119, 19.4678, 21.1454, -48.6646, -17.1041
1.27187, -1, 7.19077, 25.3617, 19.4867, 21.2353, -48.5592, -17.1715
1.27886, -1, 7.30413, 25.2616, 19.5244, 21.415, -48.349, -17.3058
1.28782, -1, 7.41703, 25.1619, 19.562, 21.5942, -48.1393, -17.4397
1.29584, -1, 7.52941, 25.0625, 19.5995, 21.7726, -47.9303, -17.5733
1.30286, -1, 7.64134, 24.9635, 19.6368, 21.9505, -47.722, -17.7063
1.31178, -1, 7.75262, 24.8648, 19.6741, 22.1277, -47.5141, -17.8392
1.31978, -1, 7.86343, 24.7662, 19.7111, 22.3045, -47.3069, -17.9716
1.32681, -1, 7.974, 24.6678, 19.7481, 22.481, -47.1003, -18.1035
1.3358, -1, 8.08399, 24.5698, 19.785, 22.6565, -46.8946, -18.2348
1.34378, -1, 8.19359, 24.4721, 19.8216, 22.8315, -46.6894, -18.3657
1.35078, -1, 8.30278, 24.3746, 19.8581, 23.0059, -46.4849, -18.4962
1.35978, -1, 8.41161, 24.2774, 19.8946, 23.1799, -46.2814, -18.6264
1.36777, -1, 8.51988, 24.1806, 19.9309, 23.3532, -46.0785, -18.7561
1.37477, -1, 8.62754, 24.084, 19.9671, 23.526, -45.8762, -18.8857
1.38378, -1, 8.7348, 23.9876, 20.0032, 23.6982, -45.6746, -19.0149
1.39278, -1, 8.84198, 23.8917, 20.0391, 23.8698, -45.4736, -19.1432
1.3988, -1, 8.9491, 23.7962, 20.075, 24.041, -45.2734, -19.2714
1.40777, -1, 9.05623, 23.7011, 20.111, 24.2118, -45.0739, -19.3991
1.41679, -1, 9.1633, 23.6064, 20.1467, 24.3819, -44.8748, -19.5262
1.42278, -1, 9.27013, 23.5119, 20.1822, 24.5515, -44.6761, -19.6531
1.43181, -1, 9.37679, 23.4178, 20.2178, 24.7205, -44.478, -19.7797
1.43989, -1, 9.48311, 23.3239, 20.2532, 24.8892, -44.2805, -19.9059
1.44778, -1, 9.58914, 23.2301, 20.2885, 25.0574, -44.0834, -20.032
1.45579, -1, 9.69488, 23.1366, 20.3237, 25.225, -43.8869, -20.1577
1.46384, -1, 9.80038, 23.0434, 20.3587, 25.392, -43.6909, -20.2827
1.47177, -1, 9.90566, 22.9504, 20.3935, 25.5586, -43.4958, -20.4075
1.47978, -1, 10.0105, 22.8576, 20.4284, 25.7248, -43.3013, -20.5317
1.48785, -1, 10.1149, 22.7651, 20.4631, 25.8907, -43.1073, -20.6557
1.49577, -1, 10.219, 22.6729, 20.4976, 26.0559, -42.9139, -20.7793
1.50382, -1, 10.3227, 22.581, 20.5322, 26.2207, -42.721, -20.9028
1.51183, -1, 10.426, 22.4892, 20.5666, 26.3849, -42.5286, -21.0258
1.51977, -1, 10.529, 22.3978, 20.601, 26.5487, -42.3369, -21.1487
1.5278, -1, 10.6317, 22.3067, 20.6353, 26.7122, -42.1454, -21.2712
1.53593, -1, 10.734, 22.2158, 20.6695, 26.8749, -41.9549, -21.393
1.54377, -1, 10.836, 22.1253, 20.7034, 27.0374, -41.7648, -21.5146
1.55241, -1, 10.9375, 22.0349, 20.7374, 27.1992, -41.5753, -21.6357
1.55977, -1, 11.0386, 21.9448, 20.7714, 27.3606, -41.3863, -21.7565
1.56777, -1, 11.1394, 21.8549, 20.8051, 27.5218, -41.1975, -21.877
1.57654, -1, 11.2401, 21.7652, 20.8387, 27.6826, -41.0094, -21.9971
1.58389, -1, 11.3404, 21.6757, 20.8724, 27.8428, -40.8217, -22.117
1.59186, -1, 11.4404, 21.5865, 20.9058, 28.0025, -40.6344, -22.2369
1.60107, -1, 11.5399, 21.4975, 20.9392, 28.1617, -40.4477, -22.3564
1.60792, -1, 11.639, 21.4087, 20.9725, 28.3206, -40.2614, -22.4751
1.61594, -1, 11.738, 21.3203, 21.0058, 28.4793, -40.0758, -22.5939
1.62394, -1, 11.8369, 21.2321, 21.0388, 28.6374, -39.8905, -22.7121
1.63178, -1, 11.9357, 21.1442, 21.0718, 28.795, -39.7058, -22.8298
1.63985, -1, 12.0346, 21.0566, 21.1049, 28.9523, -39.5216, -22.9477
1.6478, -1, 12.1334, 20.9691, 21.1378, 29.1091, -39.3378, -23.065
1.65596, -1, 12.2321, 20.8819, 21.1705, 29.2659, -39.1544, -23.1821
1.66399, -1, 12.3304, 20.795, 21.2033, 29.4221, -38.9717, -23.2993
1.67083, -1, 12.3795, 20.7516, 21.2196, 29.5, -38.8806, -23.3575
1.67999, -1, 12.5264, 20.6216, 21.2684, 29.7331, -38.6074, -23.5323
1.68677, -1, 12.5753, 20.5784, 21.2847, 29.8106, -38.5166, -23.5901
1.69609, -1, 12.7216, 20.449, 21.3334, 30.0426, -38.2453, -23.7638
1.70281, -1, 12.7702, 20.406, 21.3495, 30.1198, -38.1551, -23.8215
1.71235, -1, 12.9155, 20.2771, 21.3978, 30.3507, -37.8852, -23.994
1.72027, -1, 13.0121, 20.1913, 21.4301, 30.5042, -37.7057, -24.1088
1.72835, -1, 13.1084, 20.1058, 21.4622, 30.657, -37.5267, -24.2233
1.7364, -1, 13.2044, 20.0206, 21.4941, 30.8096, -37.3477, -24.3375
1.74433, -1, 13.2999, 19.9356, 21.5261, 30.962, -37.1693, -24.4518
1.75253, -1, 13.3476, 19.8931, 21.5422, 31.038, -36.9914, -24.5657
1.76043, -1, 13.4429, 19.8085, 21.574, 31.1898, -36.8135, -24.6791
1.76776, -1, 13.5379, 19.724, 21.6057, 31.3412, -36.7248, -24.7356
1.77581, -1, 13.6328, 19.6398, 21.6374, 31.4922, -36.5479, -24.8488
1.78381, -1, 13.7274, 19.5557, 21.6691, 31.6427, -36.3713, -24.9616
1.79087, -1, 13.8217, 19.4718, 21.7006, 31.7932, -36.1951, -25.0741
1.79977, -1, 13.9158, 19.3881, 21.7321, 31.9433, -36.0193, -25.1865
1.8078, -1, 14.0099, 19.3046, 21.7636, 32.093, -35.8441, -25.2986
1.81477, -1, 14.1039, 19.2214, 21.7949, 32.2423, -35.6692, -25.4105
1.82375, -1, 14.1976, 19.1384, 21.826, 32.3911, -35.4947, -25.5225
1.83183, -1, 14.291, 19.0555, 21.8572, 32.5397, -35.3208, -25.6339
1.83881, -1, 14.384, 18.9728, 21.8884, 32.6881, -35.147, -25.7452
1.84776, -1, 14.4768, 18.8903, 21.9194, 32.8365, -34.9738, -25.856
1.85583, -1, 14.5692, 18.8079, 21.9504, 32.9842, -34.8013, -25.9665
1.86276, -1, 14.6613, 18.7256, 21.9814, 33.1315, -34.629, -26.0768
1.87176, -1, 14.7533, 18.6436, 22.0122, 33.2785, -34.4571, -26.1864
1.88218, -1, 14.8451, 18.5618, 22.0429, 33.4983, -34.1995, -26.3509
1.88676, -1, 14.9368, 18.4802, 22.0736, 33.5716, -34.1139, -26.4055
1.89576, -1, 15.0284, 18.3987, 22.1044, 33.7177, -33.9427, -26.5149
1.90382, -1, 15.1197, 18.3175, 22.1349, 33.8634, -33.7721, -26.624
1.9128, -1, 15.2109, 18.2365, 22.1654, 34.0088, -33.6017, -26.7331
1.91976, -1, 15.3021, 18.1556, 22.1959, 34.1536, -33.4315, -26.8418
1.92782, -1, 15.3932, 18.075, 22.2263, 34.2984, -33.2616, -26.95
1.93576, -1, 15.4843, 17.9944, 22.2566, 34.4431, -33.0923, -27.0581
1.9438, -1, 15.5753, 17.914, 22.2869, 34.5874, -32.9235, -27.1659
1.95182, -1, 15.666, 17.8337, 22.3172, 34.7312, -32.7552, -27.2733
1.95977, -1, 15.7566, 17.7536, 22.3473, 34.8748, -32.587, -27.3809
1.96775, -1, 15.8469, 17.6737, 22.3772, 35.0179, -32.4192, -27.488
1.97577, -1, 15.937, 17.5939, 22.4072, 35.1608, -32.2518, -27.5952
1.98376, -1, 16.027, 17.5142, 22.4373, 35.3037, -32.0846, -27.7021
1.99182, -1, 16.1166, 17.4347, 22.4671, 35.4462, -31.918, -27.809
1.99978, -1, 16.2059, 17.3553, 22.4968, 35.5884, -31.7516, -27.9155
2.00778, -1, 16.2949, 17.2761, 22.5266, 35.7301, -31.5853, -28.0216
2.01583, -1, 16.3837, 17.197, 22.5563, 35.8717, -31.4198, -28.1277
2.02375, -1, 16.4723, 17.1181, 22.5859, 36.0129, -31.2543, -28.2333
2.03175, -1, 16.5606, 17.0394, 22.6155, 36.1541, -31.0892, -28.3389
2.03984, -1, 16.6488, 16.9608, 22.6451, 36.2951, -30.9243, -28.4439
2.04776, -1, 16.737, 16.8825, 22.6746, 36.4356, -30.7597, -28.5493
2.05576, -1, 16.8251, 16.8043, 22.7039, 36.5759, -30.5954, -28.6542
2.06382, -1, 16.913, 16.7264, 22.7333, 36.7158, -30.4314, -28.7589
2.07176, -1, 17.0008, 16.6486, 22.7627, 36.8555, -30.268, -28.8638
2.07978, -1, 17.0884, 16.5708, 22.792, 36.995, -30.1045, -28.9682
2.08787, -1, 17.1757, 16.4932, 22.8212, 37.1343, -29.9415, -29.0727
2.09585, -1, 17.2618, 16.4164, 22.8502, 37.2731, -29.7785, -29.1764
2.1039, -1, 17.3446, 16.3419, 22.8788, 37.4114, -29.6168, -29.2799
2.11196, -1, 17.4222, 16.2715, 22.9061, 37.5473, -29.457, -29.3819
2.11986, -1, 17.4939, 16.2067, 22.932, 37.6792, -29.3025, -29.4807
2.12786, -1, 17.56, 16.1481, 22.9559, 37.8031, -29.1567, -29.5738
2.13594, -1, 17.6195, 16.0958, 22.9777, 37.9156, -29.0246, -29.6583
2.14376, -1, 17.672, 16.0496, 22.9969, 38.0126, -28.91, -29.7315
2.15178, -1, 17.7186, 16.008, 23.013, 38.0914, -28.8169, -29.7915
2.15988, -1, 17.76, 15.9703, 23.0263, 38.1518, -28.7452, -29.837
2.16788, -1, 17.7958, 15.9378, 23.037, 38.1933, -28.695, -29.8693
2.17633, -1, 17.8252, 15.9122, 23.0447, 38.2209, -28.662, -29.8904
2.18274, -1, 17.8376, 15.9021, 23.0476, 38.2304, -28.6505, -29.8976
2.19203, -1, 17.8656, 15.881, 23.0533, 38.2469, -28.6306, -29.9096
2.19879, -1, 17.8718, 15.8765, 23.0545, 38.2497, -28.6273, -29.9115
2.20853, 2, 17.8818, 15.8688, 23.0564, 38.2539, -28.6223, -29.9145
2.21624, 2, 17.8843, 15.8666, 23.0568, 38.255, -28.6211, -29.9152
2.22426, 2, 17.885, 15.8653, 23.0571, 38.2555, -28.6205, -29.9155
2.23238, 2, 17.8848, 15.8647, 23.0572, 38.2557, -28.6202, -29.9157
2.24033, 2, 17.8843, 15.8643, 23.0572, 38.2558, -28.6201, -29.9158
2.24832, 2, 17.884, 15.8641, 23.0572, 38.2559, -28.62, -29.9158
2.2564, 2, 17.8836, 15.864, 23.0573, 38.2559, -28.62, -29.9159
2.26374, 2, 17.8834, 15.8639, 23.0573, 38.2559, -28.62, -29.9159
2.27264, 2, 17.8833, 15.8638, 23.0573, 38.2559, -28.62, -29.9159
2.27983, 2, 17.8833, 15.8637, 23.0573, 38.2559, -28.62, -29.9159
2.28774, 2, 17.8834, 15.8636, 23.0573, 38.2559, -28.62, -29.9158
2.29575, 2, 17.8836, 15.8634, 23.0573, 38.2559, -28.62, -29.9159
2.3039, 2, 17.884, 15.8632, 23.0573, 38.2559, -28.62, -29.9159
2.31174, 2, 17.8844, 15.863, 23.0573, 38.2559, -28.62, -29.9159
2.31975, 2, 17.8851, 15.8629, 23.0573, 38.2559, -28.62, -29.9158
2.32779, 2, 17.8857, 15.8628, 23.0573, 38.2559, -28.62, -29.9158
2.33577, 2, 17.8862, 15.8627, 23.0573, 38.2559, -28.62, -29.9158
2.34377, 2, 17.8865, 15.8627, 23.0573, 38.2559, -28.62, -29.9158
2.35178, 2, 17.8868, 15.8626, 23.0573, 38.2559, -28.62, -29.9158
2.35973, 2, 17.887, 15.8626, 23.0573, 38.2559, -28.62, -29.9158
2.36773, 2, 17.8871, 15.8626, 23.0573, 38.2559, -28.62, -29.9158
2.37582, 2, 17.8871, 15.8626, 23.0573, 38.2559, -28.62, -29.9158
2.38374, 2, 17.8871, 15.8626, 23.0573, 38.2559, -28.62, -29.9158
2.39174, 2, 17.8871, 15.8626, 23.0573, 38.2559, -28.6201, -29.9158
2.3998, 2, 17.8871, 15.8626, 23.0573, 38.2559, -28.6201, -29.9157
2.40773, 2, 17.8869, 15.8626, 23.0573, 38.2559, -28.6201, -29.9158
2.41575, 2, 17.8868, 15.8625, 23.0573, 38.2559, -28.6202, -29.9157
2.42384, 2, 17.8867, 15.8625, 23.0573, 38.2559, -28.6202, -29.9157
2.43175, 2, 17.8866, 15.8624, 23.0573, 38.2559, -28.6202, -29.9157
2.43975, 2, 17.8866, 15.8624, 23.0573, 38.2559, -28.6203, -29.9157
2.44785, 2, 17.8866, 15.8624, 23.0573, 38.2559, -28.6202, -29.9157
2.45575, 2, 17.8866, 15.8624, 23.0574, 38.2559, -28.6202, -29.9157
2.46374, 2, 17.8866, 15.8624, 23.0573, 38.2559, -28.6202, -29.9157
2.4718, 2, 17.8866, 15.8625, 23.0573, 38.2559, -28.6203, -29.9158
2.47973, 2, 17.8866, 15.8624, 23.0574, 38.2558, -28.6203, -29.9158
2.48774, 2, 17.8866, 15.8625, 23.0573, 38.2558, -28.6203, -29.9157
2.49581, 2, 17.8866, 15.8625, 23.0573, 38.2558, -28.6203, -29.9157
2.50376, 2, 17.8866, 15.8625, 23.0573, 38.2559, -28.6203, -29.9157
2.51176, 2, 17.8866, 15.8624, 23.0573, 38.2558, -28.6204, -29.9157
2.5198, 2, 17.8865, 15.8624, 23.0573, 38.2559, -28.6204, -29.9157
2.52774, 2, 17.8865, 15.8624, 23.0573, 38.2558, -28.6204, -29.9157
2.53575, 2, 17.8864, 15.8624, 23.0574, 38.2558, -28.6205, -29.9157
2.5438, 2, 17.8864, 15.8624, 23.0574, 38.2558, -28.6205, -29.9156
2.55173, 2, 17.8864, 15.8624, 23.0573, 38.2558, -28.6205, -29.9156
2.55975, 2, 17.8863, 15.8624, 23.0573, 38.2558, -28.6205, -29.9157
2.5678, 2, 17.8863, 15.8624, 23.0573, 38.2558, -28.6205, -29.9156
2.57575, 2, 17.8863, 15.8624, 23.0573, 38.2558, -28.6206, -29.9157
2.58377, 2, 17.8863, 15.8624, 23.0573, 38.2558, -28.6205, -29.9156
2.59187, 2, 17.8863, 15.8625, 23.0573, 38.2558, -28.6206, -29.9156
2.59983, 2, 17.8863, 15.8625, 23.0574, 38.2559, -28.6206, -29.9156
2.60784, 2, 17.8863, 15.8625, 23.0573, 38.2558, -28.6206, -29.9156
2.61595, 2, 17.8863, 15.8625, 23.0573, 38.2558, -28.6206, -29.9156
2.62385, 2, 17.8863, 15.8624, 23.0573, 38.2558, -28.6206, -29.9156
2.63184, 2, 17.8863, 15.8625, 23.0573, 38.2558, -28.6206, -29.9156
2.63991, 2, 17.8863, 15.8624, 23.0573, 38.2558, -28.6206, -29.9156
2.64775, 2, 17.8862, 15.8624, 23.0573, 38.2558, -28.6206, -29.9156
2.65578, 2, 17.8862, 15.8624, 23.0574, 38.2557, -28.6207, -29.9156
2.66383, 2, 17.8862, 15.8624, 23.0573, 38.2557, -28.6207, -29.9156
2.67201, 2, 17.8862, 15.8625, 23.0573, 38.2557, -28.6207, -29.9156
2.67882, 2, 17.8862, 15.8625, 23.0573, 38.2558, -28.6207, -29.9156
2.68802, 2, 17.8861, 15.8624, 23.0573, 38.2557, -28.6208, -29.9156
2.69474, 2, 17.8861, 15.8625, 23.0573, 38.2557, -28.6208, -29.9156
2.70458, 2, 17.886, 15.8625, 23.0573, 38.2557, -28.6208, -29.9156
2.71221, 2, 17.886, 15.8624, 23.0573, 38.2557, -28.6208, -29.9155
2.71873, 2, 17.886, 15.8624, 23.0573, 38.2557, -28.6208, -29.9155
2.72855, 2, 17.886, 15.8624, 23.0573, 38.2557, -28.6208, -29.9156
2.73629, 2, 17.8859, 15.8625, 23.0573, 38.2557, -28.6208, -29.9155
2.74435, 2, 17.8859, 15.8624, 23.0573, 38.2557, -28.6208, -29.9155
2.75259, 2, 17.8859, 15.8624, 23.0573, 38.2557, -28.6208, -29.9155
2.76038, 2, 17.8858, 15.8624, 23.0573, 38.2557, -28.6208, -29.9155
2.76772, 2, 17.8858, 15.8625, 23.0573, 38.2557, -28.6208, -29.9154
2.77664, 2, 17.8857, 15.8625, 23.0573, 38.2557, -28.6208, -29.9155
2.78383, 2, 17.8857, 15.8625, 23.0573, 38.2557, -28.6208, -29.9155
2.79172, 2, 17.8857, 15.8625, 23.0573, 38.2556, -28.6208, -29.9154
2.79972, 2, 17.8856, 15.8625, 23.0573, 38.2556, -28.6208, -29.9154
2.80777, 2, 17.8856, 15.8625, 23.0573, 38.2557, -28.6209, -29.9154
2.81573, 2, 17.8855, 15.8625, 23.0573, 38.2556, -28.6209, -29.9153
2.82374, 2, 17.8855, 15.8625, 23.0573, 38.2557, -28.6209, -29.9153
2.83177, 2, 17.8855, 15.8625, 23.0573, 38.2556, -28.6209, -29.9153
2.83974, 2, 17.8854, 15.8625, 23.0573, 38.2556, -28.6209, -29.9152
2.84775, 2, 17.8854, 15.8625, 23.0573, 38.2556, -28.621, -29.9152
2.85577, 2, 17.8854, 15.8625, 23.0573, 38.2556, -28.621, -29.9152
2.86373, 2, 17.8853, 15.8625, 23.0573, 38.2556, -28.621, -29.9152
2.87172, 2, 17.8852, 15.8625, 23.0573, 38.2556, -28.621, -29.9152
2.87989, 2, 17.8852, 15.8625, 23.0573, 38.2556, -28.621, -29.9152
2.88772, 2, 17.8852, 15.8625, 23.0573, 38.2555, -28.621, -29.9152
2.89572, 2, 17.8851, 15.8625, 23.0573, 38.2556, -28.6211, -29.9152
2.90379, 2, 17.8851, 15.8625, 23.0573, 38.2555, -28.621, -29.9151
2.91277, 2, 17.885, 15.8625, 23.0573, 38.2555, -28.6211, -29.9151
2.91972, 2, 17.885, 15.8625, 23.0573, 38.2555, -28.6211, -29.9151
2.92873, 2, 17.8849, 15.8625, 23.0573, 38.2555, -28.6211, -29.915
2.93571, 2, 17.8848, 15.8625, 23.0573, 38.2554, -28.621, -29.915
2.94374, 2, 17.8848, 15.8625, 23.0573, 38.2554, -28.6211, -29.915
2.95183, 2, 17.8847, 15.8625, 23.0573, 38.2554, -28.6211, -29.9151
2.95972, 2, 17.8847, 15.8625, 23.0573, 38.2555, -28.6211, -29.9151
2.96772, 2, 17.8846, 15.8625, 23.0573, 38.2555, -28.6211, -29.915
2.97579, 2, 17.8846, 15.8625, 23.0573, 38.2554, -28.6211, -29.915
2.98373, 2, 17.8846, 15.8625, 23.0573, 38.2554, -28.6211, -29.9149
2.99172, 2, 17.8845, 15.8625, 23.0573, 38.2554, -28.6211, -29.9149
2.99978, 2, 17.8845, 15.8625, 23.0573, 38.2554, -28.6212, -29.9149
3.00774, 2, 17.8844, 15.8625, 23.0573, 38.2554, -28.6211, -29.9149
3.01575, 2, 17.8844, 15.8625, 23.0573, 38.2553, -28.6212, -29.9149
3.02379, 2, 17.8843, 15.8625, 23.0573, 38.2553, -28.6212, -29.9149
3.03171, 2, 17.8843, 15.8626, 23.0573, 38.2553, -28.6212, -29.9149
3.03972, 2, 17.8843, 15.8625, 23.0573, 38.2553, -28.6212, -29.9149
3.04778, 2, 17.8842, 15.8625, 23.0573, 38.2553, -28.6212, -29.9149
3.05572, 2, 17.8841, 15.8625, 23.0573, 38.2553, -28.6212, -29.9149
3.06373, 2, 17.8841, 15.8626, 23.0573, 38.2552, -28.6212, -29.9149
3.07179, 2, 17.8841, 15.8626, 23.0573, 38.2552, -28.6213, -29.9149
3.07972, 2, 17.884, 15.8625, 23.0573, 38.2552, -28.6213, -29.9149
3.08775, 2, 17.884, 15.8625, 23.0573, 38.2552, -28.6213, -29.9149
3.09586, 2, 17.884, 15.8625, 23.0573, 38.2551, -28.6213, -29.9149
3.10382, 2, 17.8839, 15.8625, 23.0573, 38.2551, -28.6213, -29.9149
3.11181, 2, 17.8839, 15.8626, 23.0573, 38.2551, -28.6213, -29.9149
3.11992, 2, 17.8839, 15.8625, 23.0573, 38.2551, -28.6213, -29.9149
3.12783, 2, 17.8839, 15.8626, 23.0573, 38.2551, -28.6213, -29.9149
3.13577, 2, 17.8839, 15.8626, 23.0573, 38.2551, -28.6213, -29.9149
3.14385, 2, 17.8838, 15.8626, 23.0573, 38.2551, -28.6213, -29.9149
3.15174, 2, 17.8838, 15.8625, 23.0573, 38.2551, -28.6213, -29.9149
3.15975, 2, 17.8838, 15.8626, 23.0573, 38.255, -28.6213, -29.9149
3.16787, 2, 17.8838, 15.8625, 23.0573, 38.255, -28.6214, -29.9149
3.17582, 2, 17.8838, 15.8625, 23.0573, 38.255, -28.6214, -29.9149
3.18394, 2, 17.8838, 15.8625, 23.0573, 38.2549, -28.6214, -29.9149
3.19072, 2, 17.8838, 15.8625, 23.0573, 38.2549, -28.6213, -29.9149
3.2, 2, 17.8838, 15.8626, 23.0573, 38.255, -28.6213, -29.9149
3.20676, 2, 17.8837, 15.8626, 23.0573, 38.255, -28.6214, -29.9149
3.21714, 2, 17.8837, 15.8626, 23.0573, 38.2549, -28.6214, -29.9149
3.22276, 2, 17.8837, 15.8626, 23.0573, 38.2549, -28.6214, -29.9149
3.23228, 2, 17.8837, 15.8626, 23.0573, 38.2549, -28.6214, -29.9149
3.24025, 2, 17.8837, 15.8626, 23.0573, 38.2549, -28.6214, -29.9149
3.24831, 2, 17.8837, 15.8626, 23.0573, 38.2548, -28.6214, -29.9149
3.25641, 2, 17.8837, 15.8626, 23.0573, 38.2547, -28.6214, -29.9149
3.26435, 2, 17.8837, 15.8626, 23.0573, 38.2547, -28.6214, -29.9148
3.27167, 2, 17.8837, 15.8626, 23.0573, 38.2548, -28.6214, -29.9148
3.27975, 2, 17.8837, 15.8626, 23.0573, 38.2548, -28.6214, -29.9148
3.28775, 2, 17.8837, 15.8626, 23.0573, 38.2547, -28.6214, -29.9148
3.29567, 4, 17.8837, 15.8626, 23.0573, 38.2547, -28.6214, -29.9149
3.30377, 4, 17.8836, 15.8626, 23.0573, 38.2548, -28.6215, -29.9148
3.3117, 4, 17.8836, 15.8626, 23.0573, 38.2547, -28.6215, -29.9148
3.31972, 4, 17.8836, 15.8626, 23.0573, 38.2547, -28.6214, -29.9148
3.32775, 4, 17.8836, 15.8626, 23.0573, 38.2547, -28.6214, -29.9148
3.3357, 4, 17.8836, 15.8626, 23.0573, 38.2547, -28.6214, -29.9148
3.34373, 4, 17.8836, 15.8626, 23.0573, 38.2546, -28.6214, -29.9148
3.35179, 4, 17.8836, 15.8626, 23.0573, 38.2547, -28.6214, -29.9148
3.3597, 4, 17.8835, 15.8626, 23.0573, 38.2546, -28.6214, -29.9148
3.3677, 4, 17.8835, 15.8626, 23.0573, 38.2546, -28.6214, -29.9148
3.37471, 4, 17.8835, 15.8626, 23.0573, 38.2546, -28.6214, -29.9148
3.38372, 4, 17.8835, 15.8627, 23.0573, 38.2546, -28.6214, -29.9148
3.3917, 4, 17.8835, 15.8627, 23.0573, 38.2546, -28.6214, -29.9148
3.40753, 4, 17.8835, 15.8627, 23.0573, 38.2546, -28.6215, -29.9148
3.41019, 4, 17.8835, 15.8627, 23.0573, 38.2546, -28.6215, -29.9148
3.41591, 4, 17.8834, 15.8627, 23.0573, 38.2546, -28.6215, -29.9148
3.42599, 4, 17.8834, 15.8626, 23.0573, 38.2545, -28.6215, -29.9147
3.43185, 4, 17.8834, 15.8627, 23.0573, 38.2545, -28.6215, -29.9147
3.44512, 4, 17.8834, 15.8627, 23.0573, 38.2545, -28.6215, -29.9146
3.44804, 4, 17.8834, 15.8627, 23.0573, 38.2545, -28.6215, -29.9147
3.4559, 4, 17.8834, 15.8627, 23.0573, 38.2545, -28.6215, -29.9147
3.46691, 4, 17.8834, 15.8627, 23.0573, 38.2545, -28.6215, -29.9147
3.47184, 4, 17.8832, 15.8627, 23.0573, 38.2545, -28.6215, -29.9147
3.47877, 4, 17.8817, 15.8627, 23.0574, 38.2544, -28.6215, -29.9147
3.4877, 4, 17.8774, 15.8626, 23.0577, 38.2529, -28.6219, -29.914
3.49685, 4, 17.8692, 15.8623, 23.0595, 38.246, -28.6235, -29.9097
3.50386, 4, 17.856, 15.8614, 23.0648, 38.2273, -28.6292, -29.8953
3.51172, 4, 17.8356, 15.8589, 23.0768, 38.1886, -28.6424, -29.8624
3.51981, 5, 17.8052, 15.854, 23.0992, 38.116, -28.667, -29.8002
3.5277, 5, 17.7623, 15.8457, 23.1367, 37.9949, -28.709, -29.6953
3.5357, 5, 17.705, 15.8328, 23.1941, 37.8092, -28.7753, -29.5339
3.54377, 5, 17.6313, 15.8147, 23.276, 37.544, -28.8713, -29.3029
3.5517, 5, 17.5388, 15.7909, 23.386, 37.1878, -29.0036, -28.9923
3.55973, 5, 17.4258, 15.7609, 23.5268, 36.7332, -29.1757, -28.5949
3.5715, 5, 17.2201, 15.7045, 23.7962, 35.8634, -29.5153, -27.8348
3.57587, 5, 17.1427, 15.6828, 23.9006, 35.5267, -29.6501, -27.5405
3.58334, 5, 16.976, 15.6361, 24.1294, 34.7948, -29.9498, -26.8994
3.5918, 5, 16.796, 15.5861, 24.3793, 33.9995, -30.2845, -26.2045
3.59979, 5, 16.607, 15.5345, 24.6425, 33.1658, -30.6456, -25.4786
3.60779, 5, 16.4138, 15.4831, 24.9122, 32.322, -31.0218, -24.744
3.61587, 5, 16.2189, 15.4336, 25.1778, 31.4957, -31.4025, -24.0235
3.62385, 5, 16.0205, 15.3883, 25.4316, 30.7087, -31.775, -23.3407
3.63188, 5, 15.818, 15.3486, 25.6695, 29.9776, -32.1312, -22.7067
3.63982, 6, 15.6119, 15.3146, 25.8901, 29.3053, -32.4684, -22.1247
3.64771, 6, 15.4026, 15.2861, 26.0969, 28.6803, -32.7901, -21.587
3.6558, 6, 15.1897, 15.2621, 26.2953, 28.0871, -33.1047, -21.0785
3.66465, 6, 14.9714, 15.2413, 26.4917, 27.5013, -33.4241, -20.5795
3.67185, 6, 14.7487, 15.2222, 26.6946, 26.8989, -33.7617, -20.0695
3.67983, 6, 14.5245, 15.2029, 26.9114, 26.2634, -34.1286, -19.5327
3.68882, 6, 14.3028, 15.1824, 27.1423, 25.5853, -34.5305, -18.9642
3.69604, 6, 14.0845, 15.1614, 27.3857, 24.8734, -34.9651, -18.3677
3.70269, 6, 13.9762, 15.1513, 27.5111, 24.5095, -35.1922, -18.063
3.71304, 6, 13.6539, 15.1228, 27.8906, 23.4139, -35.892, -17.1498
3.72433, 6, 13.3351, 15.1014, 28.2533, 22.3755, -36.5809, -16.2885
3.72866, 6, 13.2284, 15.0969, 28.3658, 22.0533, -36.8003, -16.022
3.73674, 6, 13.0121, 15.0926, 28.5758, 21.4531, -37.2172, -15.5258
3.74428, 7, 12.7899, 15.0939, 28.7673, 20.9092, -37.6046, -15.0776
3.75229, 7, 12.5623, 15.1, 28.9442, 20.4093, -37.9683, -14.6687
3.76032, 7, 12.4471, 15.1049, 29.0287, 19.9375, -38.3205, -14.2839
3.76911, 7, 12.2138, 15.1178, 29.1945, 19.7052, -38.6763, -13.9069
3.7747, 7, 11.9765, 15.1338, 29.3619, 19.2344, -38.8605, -13.716
3.78369, 7, 11.737, 15.1508, 29.5379, 18.7418, -39.2499, -13.3208
3.79178, 7, 11.4987, 15.1673, 29.725, 18.2171, -39.6739, -12.9028
3.79884, 7, 11.2648, 15.1833, 29.9221, 17.6614, -40.1336, -12.4621
3.80767, 7, 11.0346, 15.2006, 30.1274, 17.0837, -40.6217, -12.0061
3.81575, 7, 10.8078, 15.2198, 30.3361, 16.5, -41.1256, -11.5472
3.82269, 7, 10.585, 15.2413, 30.5402, 15.929, -41.6297, -11.0989
3.83168, 7, 10.3641, 15.2663, 30.7333, 15.386, -42.1183, -10.6751
3.83985, 7, 10.1422, 15.2967, 30.9114, 14.8851, -42.5793, -10.2853
3.84771, 8, 9.91611, 15.333, 31.0726, 14.4302, -43.0066, -9.93174
3.8557, 8, 9.68459, 15.3746, 31.2194, 14.0142, -43.4044, -9.61082
3.86373, 8, 9.44853, 15.4204, 31.3561, 13.6266, -43.7821, -9.31317
3.87168, 8, 9.20775, 15.4712, 31.4881, 13.2504, -44.1554, -9.02687
3.87874, 8, 8.96264, 15.5259, 31.621, 12.8691, -44.5411, -8.73873
3.88775, 8, 8.71546, 15.5814, 31.7594, 12.4687, -44.9537, -8.43857
3.89821, 8, 8.47018, 15.6357, 31.906, 12.0414, -45.4027, -7.95515
3.90375, 8, 8.22916, 15.6893, 32.0607, 11.5882, -45.888, -7.78555
3.91273, 8, 7.99203, 15.7448, 32.2209, 11.1172, -46.4013, -7.43896
3.91973, 8, 7.75827, 15.8029, 32.382, 10.6414, -46.9285, -7.09015
3.92769, 8, 7.5285, 15.8633, 32.5386, 10.1742, -47.4547, -6.74948
3.93569, 8, 7.30012, 15.9268, 32.6861, 9.73037, -47.9636, -6.427
3.94389, 8, 7.07023, 15.9948, 32.8209, 9.31977, -48.4428, -6.13008
3.95184, 9, 6.83574, 16.068, 32.9418, 8.94575, -48.8871, -5.86068
3.95974, 9, 6.59674, 16.1456, 33.0504, 8.60305, -49.2998, -5.61576
3.96775, 9, 6.35427, 16.2272, 33.1505, 8.28312, -49.6915, -5.38781
3.97569, 9, 6.10774, 16.3139, 33.2463, 7.97203, -50.0777, -5.16841
3.98368, 9, 5.85741, 16.4047, 33.3421, 7.65613, -50.4758, -4.94757
3.99594, 9, 5.48084, 16.5426, 33.4931, 7.14944, -51.1258, -4.59728
3.99968, 9, 5.35676, 16.588, 33.5463, 6.96871, -51.361, -4.47329
4.00775, 9, 5.11168, 16.6789, 33.6565, 6.59119, -51.8581, -4.2153
4.01572, 9, 4.87038, 16.7719, 33.7694, 6.198, -52.383, -3.94829
4.02378, 9, 4.63225, 16.8676, 33.8821, 5.79956, -52.9236, -3.67937
4.03176, 9, 4.39796, 16.9655, 33.9908, 5.40801, -53.4621, -3.41649
4.03969, 9, 4.16491, 17.0658, 34.0919, 5.03457, -53.9821, -3.16732
4.04783, 9, 3.93044, 17.17, 34.1827, 4.68818, -54.4717, -2.93881
4.05664, 10, 3.69208, 17.2797, 34.262, 4.37126, -54.9248, -2.73454
4.06368, 10, 3.44931, 17.3949, 34.3303, 4.08, -55.3452, -2.55449
4.07169, 10, 3.20354, 17.5159, 34.3895, 3.80698, -55.7431, -2.39536
4.07976, 10, 2.95573, 17.6437, 34.4415, 3.54067, -56.1338, -2.25105
4.08772, 10, 2.70636, 17.7792, 34.4872, 3.2706, -56.5327, -2.11512
4.09618, 10, 2.45423, 17.9234, 34.5274, 2.98743, -56.9541, -1.98009
4.10317, 10, 2.19826, 18.0789, 34.561, 2.68432, -57.4085, -1.83965
4.11199, 10, 1.93739, 18.2493, 34.5859, 2.36006, -57.9004, -1.68916
4.11979, 10, 1.66903, 18.4383, 34.5994, 2.01515, -58.4308, -1.52614
4.12783, 10, 1.38902, 18.6468, 34.5988, 1.6529, -58.997, -1.34989
4.13587, 10, 1.09606, 18.8752, 34.5814, 1.27757, -59.5934, -1.16013
4.14466, 10, 0.793645, 19.1245, 34.5448, 0.893457, -60.2134, -0.957791
4.15252, 10, 0.486337, 19.3909, 34.4878, 0.506717, -60.8481, -0.745074
4.15978, 10, 0.178909, 19.6708, 34.4105, 0.122798, -61.4894, -0.524164
4.16865, 10, -0.12521, 19.9627, 34.3133, -0.252155, -62.1281, -0.298761
4.17576, 10, -0.423274, 20.2631, 34.1981, -0.610962, -62.7513, -0.072491
4.18393, 10, -0.711233, 20.5682, 34.0678, -0.948297, -63.3481, 0.150919
4.19074, 10, -0.850241, 20.7207, 33.9981, -1.10774, -63.6345, 0.26007
4.19872, 10, -1.11755, 21.0215, 33.8517, -1.40535, -64.1782, 0.471838
4.20811, 10, -1.48962, 21.4582, 33.6228, -1.79797, -64.9112, 0.767215
4.21468, 10, -1.60598, 21.5988, 33.5455, -1.91447, -65.1329, 0.858697
4.22422, 10, -1.93309, 22.0071, 33.3137, -2.22471, -65.7336, 1.1106
4.23283, 11, -2.13671, 22.2706, 33.16, -2.40475, -66.0877, 1.25863
4.24022, 11, -2.33215, 22.5291, 33.0067, -2.57003, -66.4146, 1.39176
4.24828, 11, -2.52244, 22.7865, 32.8515, -2.72732, -66.7259, 1.51217
4.25628, 11, -2.70937, 23.0463, 32.6905, -2.88298, -67.0338, 1.6228
4.26519, 11, -2.80182, 23.1772, 32.6068, -2.96206, -67.3493, 1.72794
4.27222, 11, -2.98462, 23.442, 32.4315, -3.12613, -67.513, 1.77928
4.28027, 11, -3.1651, 23.7103, 32.2449, -3.29992, -67.8559, 1.88285
4.28767, 11, -3.34399, 23.9816, 32.0458, -3.48392, -68.2195, 1.98841
4.30081, 11, -3.70171, 24.5425, 31.6144, -3.87224, -68.9933, 2.20701
4.30365, 11, -3.70171, 24.5425, 31.6144, -3.87224, -68.9933, 2.20701
4.31169, 11, -3.87936, 24.8287, 31.3899, -4.06824, -69.3881, 2.3167
4.31967, 11, -4.05586, 25.116, 31.1637, -4.25959, -69.7761, 2.42363
4.32769, 11, -4.23192, 25.4003, 30.9414, -4.44192, -70.1486, 2.52566
4.3357, 11, -4.40749, 25.6811, 30.7263, -4.61239, -70.4997, 2.62143
4.34389, 12, -4.58212, 25.9582, 30.5186, -4.77054, -70.8271, 2.71006
4.35071, 12, -4.75609, 26.2313, 30.3182, -4.91711, -71.1321, 2.79252
4.35974, 12, -4.92927, 26.5028, 30.123, -5.05552, -71.4205, 2.87013
4.36767, 12, -5.10197, 26.774, 29.9281, -5.1891, -71.7003, 2.94482
4.37571, 12, -5.27409, 27.047, 29.7288, -5.32244, -71.9804, 3.02009
4.38267, 12, -5.44456, 27.3228, 29.5217, -5.45989, -72.27, 3.09671
4.39167, 12, -5.61192, 27.6001, 29.3018, -5.60442, -72.5762, 3.17781
4.40146, 12, -5.77663, 27.8791, 29.0673, -5.75666, -72.9014, 3.30831
4.40776, 12, -5.93965, 28.162, 28.8196, -5.91661, -73.2439, 3.35414
4.41669, 12, -6.10153, 28.449, 28.56, -6.08111, -73.5981, 3.44737
4.42375, 12, -6.26267, 28.7401, 28.2931, -6.24693, -73.9573, 3.54194
4.43269, 12, -6.42279, 29.0327, 28.0241, -6.41041, -74.3133, 3.63525
4.43968, 12, -6.5822, 29.3238, 27.7572, -6.56713, -74.658, 3.72584
4.4477, 12, -6.74202, 29.6115, 27.4982, -6.71534, -74.9852, 3.8118
4.4557, 12, -6.90212, 29.8942, 27.2489, -6.85303, -75.2914, 3.89217
4.46478, 13, -7.06219, 30.174, 27.0094, -6.98108, -75.5766, 3.9675
4.47173, 13, -7.22321, 30.4525, 26.7781, -7.10093, -75.8441, 4.03749
4.47966, 13, -7.38465, 30.73, 26.5497, -7.21533, -76.1003, 4.10569
4.48766, 13, -7.54669, 31.0092, 26.3198, -7.32769, -76.3529, 4.17242
4.49574, 13, -7.70824, 31.29, 26.0833, -7.44127, -76.6104, 4.24028
4.50367, 13, -7.86681, 31.5727, 25.8341, -7.56009, -76.8801, 4.31209
4.51166, 13, -8.02098, 31.8579, 25.5697, -7.68556, -77.1659, 4.38755
4.51972, 13, -8.17128, 32.1452, 25.2889, -7.81748, -77.4679, 4.46817
4.52781, 13, -8.31885, 32.4367, 24.9934, -7.95453, -77.7825, 4.55194
4.53568, 13, -8.46473, 32.7314, 24.6877, -8.09358, -78.1038, 4.63793
4.54373, 13, -8.60934, 33.0275, 24.3768, -8.23162, -78.4252, 4.72466
4.55167, 13, -8.7532, 33.3243, 24.0674, -8.3661, -78.7394, 4.80941
4.55967, 13, -8.89645, 33.618, 23.7639, -8.49388, -79.0403, 4.8915
4.56773, 13, -9.04015, 33.9079, 23.4714, -8.6134, -79.3236, 4.96859
4.57567, 13, -9.1846, 34.1931, 23.1905, -8.72446, -79.5876, 5.04176
4.58369, 14, -9.33038, 34.4755, 22.9208, -8.82776, -79.8339, 5.10962
4.59179, 14, -9.47785, 34.7574, 22.6587, -8.92513, -80.067, 5.1745
4.59972, 14, -9.62698, 35.0391, 22.3983, -9.01901, -80.2927, 5.23842
4.60776, 14, -9.77715, 35.3223, 22.1342, -9.11222, -80.5186, 5.30188
4.61618, 14, -9.92613, 35.6076, 21.8593, -9.20773, -80.7513, 5.36803
4.62324, 14, -10.0721, 35.8945, 21.5692, -9.30842, -80.9962, 5.43825
4.63177, 14, -10.2139, 36.1848, 21.2606, -9.41416, -81.255, 5.51235
4.63985, 14, -10.3525, 36.4786, 20.9343, -9.5247, -81.5263, 5.59157
4.64767, 14, -10.4887, 36.7762, 20.5934, -9.6386, -81.8062, 5.67338
4.65597, 14, -10.6223, 37.0763, 20.2439, -9.75278, -82.0892, 5.75691
4.66376, 14, -10.7533, 37.3768, 19.8919, -9.86539, -82.3696, 5.84077
4.67173, 14, -10.8828, 37.6772, 19.5442, -9.97363, -82.6413, 5.92258
4.67978, 14, -11.0117, 37.9739, 19.2051, -10.0759, -82.8999, 6.00144
4.68786, 14, -11.1402, 38.2656, 18.8791, -10.1713, -83.1419, 6.07558
4.69628, 15, -11.2693, 38.5528, 18.5668, -10.2597, -83.3671, 6.1463
4.7042, 15, -11.4008, 38.8371, 18.2668, -10.342, -83.5779, 6.21252
4.71205, 15, -11.5348, 39.1209, 17.9736, -10.4202, -83.7785, 6.27631
4.71866, 15, -11.6023, 39.2632, 17.8272, -10.4581, -83.8765, 6.30829
4.72827, 15, -11.8049, 39.6914, 17.3802, -10.5721, -84.172, 6.4046
4.73624, 15, -11.9371, 39.9785, 17.067, -10.6509, -84.3767, 6.47198
4.87768, 15, -13.3871, 43.5444, 12.6869, -11.6159, -86.9962, 7.41076
4.87891, 15, -13.3871, 43.5444, 12.6869, -11.6159, -86.9962, 7.41076
4.8801, 15, -13.3871, 43.5444, 12.6869, -11.6159, -86.9962, 7.41076
4.88217, 15, -13.397, 43.5645, 12.6676, -11.6189, -87.0051, 7.41417
4.88345, 15, -13.397, 43.5645, 12.6676, -11.6189, -87.0051, 7.41417
4.88547, 15, -13.4056, 43.5817, 12.6518, -11.6212, -87.012, 7.41686
4.88686, 15, -13.4056, 43.5817, 12.6518, -11.6212, -87.012, 7.41686
4.88991, 15, -13.413, 43.5962, 12.6391, -11.623, -87.0175, 7.41893
4.89117, 15, -13.413, 43.5962, 12.6391, -11.623, -87.0175, 7.41893
4.89337, 15, -13.413, 43.5962, 12.6391, -11.6244, -87.0216, 7.4205
4.89474, 15, -13.4193, 43.6086, 12.6289, -11.6244, -87.0216, 7.4205
4.89599, 15, -13.4193, 43.6086, 12.6289, -11.6244, -87.0216, 7.4205
4.89826, 15, -13.4247, 43.6192, 12.6208, -11.6254, -87.0247, 7.42167
4.89956, 15, -13.4247, 43.6192, 12.6208, -11.6254, -87.0247, 7.42167
4.90202, 15, -13.4292, 43.6283, 12.6144, -11.6262, -87.0269, 7.4225
4.90367, 15, -13.4292, 43.6283, 12.6144, -11.6262, -87.0269, 7.4225
4.9057, 15, -13.4329, 43.6359, 12.6094, -11.6267, -87.0285, 7.42309
4.90711, 15, -13.4329, 43.6359, 12.6094, -11.6267, -87.0285, 7.42309
4.91261, 15, -13.4359, 43.6422, 12.6055, -11.6272, -87.0296, 7.42352
4.91471, 15, -13.4382, 43.6473, 12.6025, -11.6275, -87.0303, 7.42381
4.91593, 15, -13.4382, 43.6473, 12.6025, -11.6275, -87.0303, 7.42381
4.91781, 15, -13.44, 43.6515, 12.6003, -11.6278, -87.0309, 7.424
4.91969, 15, -13.44, 43.6515, 12.6003, -11.6278, -87.0309, 7.424
4.92867, 16, -13.4421, 43.6576, 12.5974, -11.6281, -87.0315, 7.42428
4.93566, 16, -13.4428, 43.662, 12.5957, -11.6282, -87.0318, 7.42447
4.9437, 16, -13.4431, 43.6658, 12.5946, -11.6282, -87.0319, 7.42457
4.95166, 16, -13.4432, 43.6689, 12.5939, -11.6283, -87.0319, 7.42452
4.95965, 16, -13.4432, 43.6716, 12.5934, -11.6283, -87.0319, 7.42456
4.96769, 16, -13.4432, 43.6741, 12.5931, -11.6283, -87.0319, 7.42457
4.97568, 16, -13.4431, 43.676, 12.593, -11.6283, -87.0319, 7.42462
4.98365, 16, -13.4431, 43.6774, 12.5929, -11.6283, -87.0319, 7.42467
4.99169, 16, -13.4432, 43.6784, 12.5928, -11.6283, -87.0318, 7.42466
4.99967, 16, -13.4431, 43.6789, 12.5927, -11.6283, -87.0318, 7.42462
5.00765, 16, -13.4431, 43.6791, 12.5925, -11.6283, -87.0316, 7.42462
5.0157, 16, -13.443, 43.6791, 12.5924, -11.6283, -87.0316, 7.42468
5.02367, 16, -13.443, 43.679, 12.5923, -11.6283, -87.0314, 7.42466
5.0317, 16, -13.443, 43.6787, 12.5923, -11.6283, -87.0313, 7.42461
5.0397, 16, -13.4429, 43.6786, 12.5923, -11.6283, -87.0312, 7.42461
5.04767, 16, -13.443, 43.6786, 12.5922, -11.6283, -87.0311, 7.42462
