hehonglu123/ABB_Primitive_Study/realrobot/movelcl_30_car2/curve_exe_v1000_fine.csv
timestamp, cmd_num, J1, J2, J3, J4, J5, J6
0.000395, -1, -13.44, 43.6797, 12.5931, -11.6275, -87.0288, 7.42474
0.006818, -1, -13.44, 43.6796, 12.5931, -11.6275, -87.0288, 7.42475
0.008688, -1, -13.44, 43.6796, 12.5931, -11.6275, -87.0288, 7.42475
0.032129, -1, -13.44, 43.6796, 12.5931, -11.6275, -87.0288, 7.42475
0.033368, -1, -13.44, 43.6796, 12.5931, -11.6275, -87.0288, 7.42475
0.035425, -1, -13.4401, 43.6796, 12.5931, -11.6275, -87.0288, 7.42476
0.039207, -1, -13.44, 43.6796, 12.5931, -11.6275, -87.0287, 7.42475
0.047426, -1, -13.44, 43.6796, 12.5931, -11.6275, -87.0288, 7.42476
0.056065, -1, -13.4395, 43.6793, 12.5931, -11.6275, -87.0288, 7.42478
0.064174, -1, -13.4372, 43.6776, 12.5933, -11.6275, -87.0288, 7.42475
0.071678, -1, -13.432, 43.6735, 12.594, -11.6273, -87.0284, 7.42473
0.080142, -1, -13.4233, 43.6663, 12.5955, -11.6256, -87.0263, 7.42441
0.087325, -1, -13.4102, 43.6556, 12.5982, -11.6202, -87.0199, 7.42258
0.095362, -1, -13.3908, 43.64, 12.6026, -11.6083, -87.006, 7.41533
0.104075, -1, -13.3633, 43.6175, 12.6094, -11.5867, -86.9805, 7.39988
0.112183, -1, -13.3275, 43.5876, 12.6193, -11.5518, -86.9397, 7.37449
0.11932, -1, -13.2823, 43.5489, 12.6324, -11.4983, -86.8786, 7.33614
0.128148, -1, -13.2263, 43.5001, 12.6497, -11.4239, -86.7921, 7.28146
0.135371, -1, -13.159, 43.4406, 12.6715, -11.3249, -86.6776, 7.20797
0.143509, -1, -13.0801, 43.3699, 12.6977, -11.1997, -86.5322, 7.11586
0.152343, -1, -12.9895, 43.2879, 12.7287, -11.048, -86.3557, 7.00302
0.159508, -1, -12.8869, 43.1945, 12.7646, -10.8704, -86.1488, 6.87088
0.167693, -1, -12.7727, 43.0906, 12.8047, -10.6693, -85.9141, 6.72075
0.17707, -1, -12.6479, 42.9771, 12.8485, -10.4471, -85.6552, 6.55482
0.184336, -1, -12.5131, 42.8548, 12.8959, -10.2085, -85.3764, 6.37642
0.191787, -1, -12.3693, 42.7246, 12.946, -9.9571, -85.0827, 6.18837
0.200353, -1, -12.2183, 42.5883, 12.9985, -9.69674, -84.7784, 5.99329
0.20775, -1, -12.1405, 42.4468, 13.0525, -9.43048, -84.4668, 5.79375
0.216236, -1, -11.8993, 42.3012, 13.1078, -9.16086, -84.1514, 5.59124
0.223167, -1, -11.8165, 42.2272, 13.1357, -9.02519, -83.9927, 5.48943
0.231167, -1, -11.6481, 42.0773, 13.1921, -8.75276, -83.6743, 5.28535
0.240207, -1, -11.3918, 41.8499, 13.2775, -8.34289, -83.1949, 4.97845
0.247327, -1, -11.306, 41.7737, 13.3061, -8.20621, -83.0349, 4.87593
0.256389, -1, -11.048, 41.5458, 13.3919, -7.79554, -82.5543, 4.56834
0.263172, -1, -10.9619, 41.4701, 13.4207, -7.65863, -82.394, 4.46554
0.27332, -1, -10.7033, 41.2428, 13.507, -7.24801, -81.9126, 4.15748
0.279214, -1, -10.6171, 41.167, 13.5358, -7.11094, -81.7523, 4.05485
0.288652, -1, -10.3582, 40.9394, 13.6224, -6.6999, -81.2713, 3.74709
0.296594, -1, -10.186, 40.788, 13.68, -6.42622, -80.9507, 3.54192
0.303222, -1, -10.1, 40.7123, 13.7087, -6.28933, -80.7907, 3.43933
0.312798, -1, -9.84234, 40.4848, 13.7948, -5.87876, -80.3107, 3.1315
0.320771, -1, -9.67143, 40.3326, 13.8521, -5.60538, -79.991, 2.92667
0.327178, -1, -9.5862, 40.2564, 13.8808, -5.46872, -79.8312, 2.82428
0.336777, -1, -9.41614, 40.1042, 13.9667, -5.05862, -79.3518, 2.51735
0.344731, -1, -9.24678, 39.9523, 13.9953, -4.92223, -79.1921, 2.4151
0.352914, -1, -9.07788, 39.8003, 14.0809, -4.51343, -78.7132, 2.10859
0.360165, -1, -8.90896, 39.6483, 14.1094, -4.37728, -78.5536, 2.00663
0.368156, -1, -8.73981, 39.4964, 14.1665, -4.10546, -78.235, 1.80306
0.376211, -1, -8.57043, 39.3452, 14.2234, -3.83415, -77.9174, 1.59956
0.384173, -1, -8.40058, 39.1945, 14.2803, -3.56287, -77.5999, 1.39643
0.391227, -1, -8.23075, 39.044, 14.3372, -3.29227, -77.2832, 1.19347
0.399165, -1, -8.06074, 38.8938, 14.3939, -3.02228, -76.9672, 0.991029
0.407244, -1, -7.89066, 38.7437, 14.4506, -2.75262, -76.6517, 0.789142
0.41524, -1, -7.72046, 38.5942, 14.5071, -2.48351, -76.3366, 0.587737
0.423168, -1, -7.55013, 38.4452, 14.5635, -2.21525, -76.0221, 0.386612
0.431238, -1, -7.37986, 38.2962, 14.6197, -1.94713, -75.7079, 0.186019
0.439157, -1, -7.21002, 38.1473, 14.676, -1.6795, -75.3947, -0.0145132
0.447187, -1, -7.04092, 37.9985, 14.7321, -1.41272, -75.0825, -0.214299
0.455237, -1, -6.87277, 37.8501, 14.7881, -1.14651, -74.7708, -0.41346
0.463175, -1, -6.70568, 37.7021, 14.8438, -0.881034, -74.4601, -0.612112
0.471163, -1, -6.53939, 37.5543, 14.8992, -0.61659, -74.1502, -0.810265
0.47924, -1, -6.37423, 37.4068, 14.9546, -0.352678, -73.841, -1.008
0.487196, -1, -6.21023, 37.2595, 15.0099, -0.089262, -73.5327, -1.20538
0.495163, -1, -6.04712, 37.1131, 15.0651, 0.173362, -73.2253, -1.40175
0.503243, -1, -5.88485, 36.9675, 15.1201, 0.435016, -72.9189, -1.59759
0.511278, -1, -5.7228, 36.8222, 15.1748, 0.695906, -72.6136, -1.79282
0.519166, -1, -5.56079, 36.6774, 15.2294, 0.955931, -72.3089, -1.98752
0.527474, -1, -5.39877, 36.5329, 15.2839, 1.21495, -72.0054, -2.18157
0.535185, -1, -5.2368, 36.3892, 15.3382, 1.47331, -71.7028, -2.37524
0.543202, -1, -5.07495, 36.246, 15.3924, 1.73106, -71.4011, -2.56792
0.551548, -1, -4.91337, 36.1032, 15.4464, 1.98761, -71.1007, -2.76003
0.559251, -1, -4.75203, 35.9606, 15.5002, 2.24327, -70.8013, -2.95149
0.567265, -1, -4.59085, 35.8183, 15.5537, 2.49794, -70.503, -3.14242
0.575847, -1, -4.42973, 35.6767, 15.607, 2.75155, -70.2057, -3.33269
0.584223, -1, -4.26866, 35.5357, 15.6601, 3.00409, -69.91, -3.52201
0.591275, -1, -4.1084, 35.3951, 15.7129, 3.25604, -69.6153, -3.71058
0.599879, -1, -3.94932, 35.2549, 15.7658, 3.50727, -69.3214, -3.89835
0.60822, -1, -3.79152, 35.115, 15.8182, 3.75726, -69.0286, -4.08553
0.615218, -1, -3.6349, 34.9757, 15.8704, 4.00642, -68.7368, -4.27198
0.624205, -1, -3.47913, 34.8372, 15.9224, 4.25464, -68.446, -4.45819
0.631258, -1, -3.32429, 34.6993, 15.9743, 4.50179, -68.1562, -4.64323
0.639413, -1, -3.17042, 34.5621, 16.0259, 4.74801, -67.8676, -4.82741
0.648342, -1, -3.01772, 34.4251, 16.0776, 4.9935, -67.5803, -5.0109
0.655473, -1, -2.86588, 34.2887, 16.1291, 5.23818, -67.2942, -5.19373
0.663612, -1, -2.71455, 34.153, 16.1801, 5.48156, -67.0092, -5.37596
0.672587, -1, -2.56353, 34.0182, 16.231, 5.72388, -66.7256, -5.55757
0.67963, -1, -2.41236, 33.8838, 16.2818, 5.96522, -66.4433, -5.73831
0.687784, -1, -2.26132, 33.75, 16.3323, 6.20554, -66.1619, -5.9182
0.696416, -1, -2.11063, 33.6164, 16.3827, 6.4447, -65.8815, -6.09736
0.703765, -1, -1.96044, 33.4833, 16.4327, 6.68305, -65.6024, -6.27564
0.712267, -1, -1.81071, 33.3509, 16.4825, 6.92063, -65.3243, -6.45356
0.719982, -1, -1.736, 33.2849, 16.5072, 7.03893, -65.1857, -6.63057
0.72817, -1, -1.51207, 33.0875, 16.5812, 7.39217, -64.7715, -6.80704
0.735198, -1, -1.43749, 33.0219, 16.6058, 7.50941, -64.6341, -6.89489
0.744263, -1, -1.21429, 32.8257, 16.6795, 7.85999, -64.2236, -7.15729
0.751228, -1, -1.14038, 32.7607, 16.7039, 7.97626, -64.0873, -7.24448
0.7592, -1, -0.993481, 32.6313, 16.7526, 8.20815, -63.8157, -7.41825
0.768716, -1, -0.775493, 32.4383, 16.8252, 8.5546, -63.4104, -7.67782
0.775152, -1, -0.703367, 32.3742, 16.8493, 8.66961, -63.276, -7.76397
0.784559, -1, -0.488208, 32.1829, 16.9214, 9.01274, -62.8741, -8.02085
0.791146, -1, -0.417017, 32.1193, 16.9454, 9.12662, -62.7408, -8.10611
0.800712, -1, -0.205033, 31.9296, 17.0169, 9.46682, -62.3426, -8.36052
0.808743, -1, -0.0650084, 31.804, 17.0642, 9.69238, -62.0786, -8.5294
0.81688, -1, 0.0742173, 31.6788, 17.1114, 9.91676, -61.8154, -8.69743
0.824801, -1, 0.213107, 31.554, 17.1582, 10.1404, -61.5535, -8.86502
0.832736, -1, 0.352027, 31.4297, 17.2049, 10.3632, -61.2925, -9.0318
0.840767, -1, 0.421559, 31.3676, 17.2282, 10.5848, -61.0325, -9.19768
0.848859, -1, 0.560585, 31.244, 17.2747, 10.8054, -60.7738, -9.3628
0.856147, -1, 0.69932, 31.121, 17.3209, 10.9154, -60.6449, -9.44502
0.864145, -1, 0.837766, 30.9986, 17.3669, 11.1348, -60.3878, -9.60924
0.871173, -1, 0.975694, 30.8765, 17.4127, 11.3533, -60.132, -9.77283
0.87915, -1, 1.1132, 30.755, 17.4585, 11.5708, -59.8772, -9.93578
0.88731, -1, 1.25038, 30.6338, 17.5038, 11.7873, -59.6237, -10.0981
0.89515, -1, 1.38729, 30.5133, 17.5491, 12.0031, -59.3715, -10.2595
0.903211, -1, 1.5239, 30.3935, 17.5943, 12.2181, -59.1202, -10.4201
0.911156, -1, 1.65968, 30.2743, 17.6392, 12.4319, -58.8699, -10.58
0.919151, -1, 1.79463, 30.1556, 17.684, 12.645, -58.6205, -10.7394
0.927224, -1, 1.92852, 30.0374, 17.7285, 12.8573, -58.3719, -10.8983
0.93514, -1, 2.06154, 29.9195, 17.7729, 13.0685, -58.1242, -11.0565
0.943167, -1, 2.19378, 29.8022, 17.817, 13.2787, -57.8775, -11.2142
0.951219, -1, 2.32531, 29.6854, 17.8609, 13.4882, -57.6316, -11.3711
0.959145, -1, 2.45578, 29.5692, 17.9047, 13.697, -57.3868, -11.5272
0.96715, -1, 2.58536, 29.4532, 17.9483, 13.9049, -57.1432, -11.6828
0.975207, -1, 2.71397, 29.3376, 17.9918, 14.112, -56.9008, -11.8379
0.983235, -1, 2.84188, 29.2224, 18.035, 14.318, -56.6593, -11.9924
0.991153, -1, 2.96938, 29.1073, 18.0781, 14.5234, -56.4191, -12.1462
0.999515, -1, 3.09683, 28.993, 18.121, 14.728, -56.1798, -12.2996
1.00714, -1, 3.22436, 28.8792, 18.1635, 14.9315, -55.9415, -12.4521
1.01515, -1, 3.35169, 28.7659, 18.2061, 15.1343, -55.7041, -12.6039
1.02395, -1, 3.4787, 28.6531, 18.2486, 15.3364, -55.4676, -12.755
1.0322, -1, 3.60548, 28.5408, 18.2909, 15.538, -55.2319, -12.9056
1.03916, -1, 3.73198, 28.4288, 18.3331, 15.7385, -54.9972, -13.0556
1.04799, -1, 3.85818, 28.3173, 18.3749, 15.9382, -54.7631, -13.205
1.05627, -1, 3.98419, 28.2066, 18.4167, 16.1371, -54.5299, -13.3542
1.06324, -1, 4.10982, 28.0963, 18.4583, 16.3352, -54.2974, -13.5025
1.07204, -1, 4.23505, 27.9865, 18.4997, 16.5325, -54.0661, -13.6502
1.08021, -1, 4.35962, 27.8769, 18.541, 16.729, -53.8359, -13.7973
1.08725, -1, 4.4834, 27.7677, 18.5822, 16.9248, -53.6064, -13.9437
1.09603, -1, 4.60667, 27.6587, 18.6231, 17.1199, -53.378, -14.0898
1.10422, -1, 4.72949, 27.5502, 18.6639, 17.3143, -53.1503, -14.2352
1.11117, -1, 4.85157, 27.4422, 18.7045, 17.5079, -52.9237, -14.3802
1.12007, -1, 4.97287, 27.3345, 18.745, 17.7007, -52.6979, -14.5248
1.1282, -1, 5.09359, 27.2272, 18.7854, 17.8927, -52.4729, -14.6686
1.13531, -1, 5.21344, 27.1203, 18.8255, 18.0845, -52.2489, -14.8119
1.14492, -1, 5.33235, 27.0137, 18.8655, 18.2751, -52.0257, -14.9546
1.15215, -1, 5.45048, 26.9075, 18.9055, 18.4651, -51.8031, -15.0966
1.15956, -1, 5.56812, 26.8018, 18.9452, 18.6545, -51.5815, -15.2382
1.16749, -1, 5.68533, 26.6966, 18.9849, 18.8432, -51.3604, -15.3794
1.17558, -1, 5.80234, 26.5919, 19.0243, 19.0315, -51.1402, -15.5202
1.18373, -1, 5.91909, 26.4875, 19.0636, 19.2189, -50.9207, -15.6606
1.19311, -1, 6.0356, 26.3835, 19.1028, 19.4054, -50.702, -15.8003
1.19969, -1, 6.15205, 26.2797, 19.1418, 19.5914, -50.4842, -15.9395
1.20825, -1, 6.26848, 26.1761, 19.1806, 19.7768, -50.2671, -16.0783
1.21573, -1, 6.32665, 26.1244, 19.2193, 19.9614, -50.0507, -16.2166
1.22364, -1, 6.44304, 26.0215, 19.2386, 20.0534, -49.9427, -16.2856
1.23214, -1, 6.61719, 25.8678, 19.2964, 20.3284, -49.6202, -16.492
1.23913, -1, 6.67514, 25.8167, 19.3156, 20.4198, -49.5131, -16.5606
1.24713, -1, 6.7907, 25.7149, 19.3538, 20.6024, -49.2996, -16.6976
1.25639, -1, 6.96302, 25.5628, 19.4109, 20.8749, -48.9807, -16.9016
1.26314, -1, 7.02027, 25.5123, 19.43, 20.9654, -48.8749, -16.9695
1.27118, -1, 7.13439, 25.4114, 19.4679, 21.146, -48.6639, -17.1046
1.28053, -1, 7.30465, 25.2611, 19.5245, 21.4156, -48.3482, -17.3062
1.28713, -1, 7.36111, 25.2112, 19.5434, 21.5052, -48.2433, -17.3733
1.29518, -1, 7.47381, 25.1118, 19.5809, 21.6841, -48.034, -17.507
1.3047, -1, 7.64186, 24.9631, 19.637, 21.951, -47.7213, -17.707
1.31269, -1, 7.75316, 24.8643, 19.6743, 22.1282, -47.5134, -17.8399
1.31926, -1, 7.8086, 24.815, 19.6928, 22.2167, -47.4097, -17.9061
1.32878, -1, 7.9744, 24.6674, 19.7483, 22.4815, -47.0997, -18.104
1.33671, -1, 8.08448, 24.5694, 19.7852, 22.6571, -46.8938, -18.2351
1.34472, -1, 8.13934, 24.5205, 19.8035, 22.8321, -46.6887, -18.366
1.3528, -1, 8.2487, 24.4229, 19.84, 22.9194, -46.4843, -18.4967
1.36013, -1, 8.35772, 24.3256, 19.8765, 23.0935, -46.3824, -18.5618
1.36814, -1, 8.46633, 24.2286, 19.9129, 23.2673, -46.1791, -18.6919
1.37618, -1, 8.57429, 24.1318, 19.9491, 23.4403, -45.9764, -18.8216
1.38413, -1, 8.68167, 24.0353, 19.9854, 23.6128, -45.7747, -18.951
1.39129, -1, 8.7889, 23.9392, 20.0214, 23.7845, -45.5732, -19.0797
1.39913, -1, 8.89608, 23.8435, 20.0573, 23.956, -45.3728, -19.2081
1.40719, -1, 9.00325, 23.7482, 20.0932, 24.1271, -45.1729, -19.3359
1.41513, -1, 9.11037, 23.6534, 20.1291, 24.2975, -44.9736, -19.4632
1.42313, -1, 9.21737, 23.5588, 20.1646, 24.4674, -44.7747, -19.5903
1.43119, -1, 9.32408, 23.4644, 20.2002, 24.6367, -44.5764, -19.717
1.43913, -1, 9.43059, 23.3704, 20.2357, 24.8055, -44.3783, -19.8434
1.44715, -1, 9.53682, 23.2765, 20.271, 24.974, -44.1811, -19.9696
1.4552, -1, 9.64266, 23.1829, 20.3063, 25.1418, -43.9843, -20.0955
1.46313, -1, 9.74823, 23.0895, 20.3414, 25.3091, -43.7879, -20.2208
1.47113, -1, 9.85361, 22.9964, 20.3763, 25.4759, -43.5925, -20.3458
1.47919, -1, 9.95865, 22.9035, 20.4112, 25.6422, -43.3977, -20.4702
1.48724, -1, 10.0633, 22.8109, 20.446, 25.8084, -43.2034, -20.5943
1.49513, -1, 10.1676, 22.7186, 20.4806, 25.974, -43.0097, -20.7182
1.50319, -1, 10.2715, 22.6264, 20.5151, 26.139, -42.8166, -20.8417
1.51113, -1, 10.3749, 22.5346, 20.5496, 26.3034, -42.6239, -20.9649
1.51918, -1, 10.478, 22.443, 20.584, 26.4675, -42.4319, -21.088
1.52716, -1, 10.5809, 22.3517, 20.6184, 26.6311, -42.2403, -21.2105
1.53513, -1, 10.6834, 22.2608, 20.6527, 26.7942, -42.0493, -21.3326
1.54357, -1, 10.7856, 22.1701, 20.6867, 26.9569, -41.8591, -21.4545
1.55117, -1, 10.8874, 22.0797, 20.7207, 27.119, -41.6693, -21.5756
1.55928, -1, 10.9885, 21.9894, 20.7547, 27.2805, -41.48, -21.6967
1.56745, -1, 11.0895, 21.8994, 20.7886, 27.4419, -41.291, -21.8174
1.57522, -1, 11.1902, 21.8096, 20.8223, 27.6029, -41.1026, -21.9376
1.58336, -1, 11.2907, 21.72, 20.8559, 27.7634, -40.9146, -22.0576
1.59178, -1, 11.3909, 21.6306, 20.8896, 27.9233, -40.7272, -22.1775
1.60012, -1, 11.4906, 21.5415, 20.9229, 28.0827, -40.5402, -22.2972
1.60713, -1, 11.59, 21.4526, 20.9563, 28.2418, -40.3537, -22.4162
1.61592, -1, 11.689, 21.364, 20.9897, 28.4006, -40.1678, -22.535
1.62412, -1, 11.788, 21.2757, 21.0228, 28.559, -39.9823, -22.6534
1.63122, -1, 11.8869, 21.1877, 21.0558, 28.7168, -39.7974, -22.7715
1.6402, -1, 11.9858, 21.0999, 21.0889, 28.8743, -39.6128, -22.8892
1.64739, -1, 12.0846, 21.0123, 21.1219, 29.0313, -39.4288, -23.0067
1.65633, -1, 12.1833, 20.925, 21.1547, 29.1881, -39.2453, -23.1241
1.66432, -1, 12.2818, 20.8379, 21.1875, 29.3447, -39.0621, -23.2411
1.6716, -1, 12.3801, 20.7511, 21.2202, 29.5006, -38.8797, -23.358
1.67958, -1, 12.4781, 20.6644, 21.2528, 29.6562, -38.6976, -23.4747
1.68857, -1, 12.5759, 20.5779, 21.2853, 29.8112, -38.5158, -23.5905
1.69569, -1, 12.6735, 20.4916, 21.3179, 29.966, -38.3348, -23.7065
1.70443, -1, 12.7708, 20.4055, 21.3502, 30.1205, -38.1543, -23.8219
1.71253, -1, 12.8677, 20.3195, 21.3823, 30.2745, -37.9742, -23.9368
1.71975, -1, 12.9644, 20.2336, 21.4146, 30.4281, -37.7946, -24.0519
1.72835, -1, 13.0609, 20.1479, 21.4468, 30.5813, -37.6154, -24.1664
1.73511, -1, 13.109, 20.1052, 21.4628, 30.6576, -37.5259, -24.2238
1.74422, -1, 13.2528, 19.9775, 21.5107, 30.8865, -37.2577, -24.3952
1.75111, -1, 13.3005, 19.935, 21.5267, 30.9627, -37.1685, -24.4523
1.76116, -1, 13.4434, 19.8078, 21.5745, 31.1905, -36.9017, -24.6231
1.76724, -1, 13.4909, 19.7656, 21.5904, 31.2662, -36.8128, -24.6796
1.77647, -1, 13.6334, 19.6391, 21.6379, 31.493, -36.5471, -24.8493
1.78311, -1, 13.6806, 19.5971, 21.6538, 31.5682, -36.4587, -24.9057
1.79112, -1, 13.7751, 19.5131, 21.6854, 31.7186, -36.2825, -25.0184
1.80057, -1, 13.9165, 19.3875, 21.7326, 31.9439, -36.0186, -25.1869
1.80863, -1, 14.0105, 19.304, 21.7641, 32.0936, -35.8433, -25.2989
1.81678, -1, 14.1045, 19.2208, 21.7954, 32.2429, -35.6683, -25.4108
1.82478, -1, 14.1982, 19.1378, 21.8265, 32.3918, -35.4939, -25.5228
1.8329, -1, 14.2916, 19.0549, 21.8576, 32.5404, -35.3199, -25.6341
1.84077, -1, 14.3845, 18.9722, 21.8888, 32.6888, -35.1462, -25.7455
1.84867, -1, 14.4309, 18.9309, 21.9043, 32.763, -34.9731, -25.8562
1.85612, -1, 14.5235, 18.8485, 21.9353, 32.911, -34.8868, -25.9116
1.86501, -1, 14.6158, 18.725, 21.9818, 33.1321, -34.6282, -26.077
1.87111, -1, 14.7078, 18.684, 21.9973, 33.2056, -34.5423, -26.1319
1.8792, -1, 14.7997, 18.6021, 22.028, 33.3525, -34.3704, -26.2417
1.88712, -1, 14.8915, 18.5204, 22.0586, 33.499, -34.1987, -26.3512
1.89511, -1, 14.9831, 18.4388, 22.0894, 33.6453, -34.0275, -26.4607
1.90418, -1, 15.0746, 18.3575, 22.1201, 33.7912, -33.8565, -26.5698
1.91211, -1, 15.1658, 18.2764, 22.1506, 33.9367, -33.6861, -26.6791
1.92012, -1, 15.257, 18.1955, 22.181, 34.0818, -33.5158, -26.7879
1.92824, -1, 15.3481, 18.1147, 22.2116, 34.2266, -33.3457, -26.8963
1.93512, -1, 15.4393, 18.034, 22.2419, 34.3714, -33.1762, -27.0046
1.94317, -1, 15.5304, 17.9536, 22.2722, 34.5159, -33.007, -27.1126
1.95111, -1, 15.6212, 17.8733, 22.3025, 34.6599, -32.8385, -27.2203
1.95912, -1, 15.7118, 17.7931, 22.3327, 34.8037, -32.6703, -27.3277
1.96718, -1, 15.8022, 17.7131, 22.3626, 34.9471, -32.5023, -27.4352
1.97513, -1, 15.8924, 17.6332, 22.3926, 35.0901, -32.3346, -27.5423
1.98311, -1, 15.9825, 17.5535, 22.4226, 35.2329, -32.1673, -27.6492
1.99125, -1, 16.0722, 17.4739, 22.4525, 35.3757, -32.0004, -27.7564
1.99912, -1, 16.1617, 17.3945, 22.4823, 35.518, -31.8339, -27.8629
2.00711, -1, 16.2508, 17.3152, 22.512, 35.66, -31.6676, -27.9695
2.01611, -1, 16.3397, 17.236, 22.5418, 35.8016, -31.5017, -28.0753
2.02423, -1, 16.4284, 17.1571, 22.5714, 35.943, -31.3363, -28.1812
2.03111, -1, 16.5168, 17.0782, 22.6009, 36.0842, -31.1709, -28.287
2.04012, -1, 16.6051, 16.9996, 22.6305, 36.2253, -31.006, -28.392
2.0481, -1, 16.6933, 16.9211, 22.6601, 36.3662, -30.8412, -28.4975
2.05524, -1, 16.7814, 16.8429, 22.6894, 36.5065, -30.6767, -28.6024
2.06319, -1, 16.8695, 16.7649, 22.7188, 36.6466, -30.5126, -28.7074
2.0712, -1, 16.9574, 16.687, 22.7482, 36.7864, -30.3488, -28.8121
2.07927, -1, 17.045, 16.6092, 22.7776, 36.9259, -30.1855, -28.9168
2.08722, -1, 17.1326, 16.5315, 22.8068, 37.0654, -30.0221, -29.0212
2.09522, -1, 17.2196, 16.4542, 22.8358, 37.2044, -29.8592, -29.1252
2.10328, -1, 17.3042, 16.3783, 22.8647, 37.3431, -29.6967, -29.229
2.11112, -1, 17.3845, 16.3057, 22.8927, 37.4804, -29.5358, -29.3316
2.11913, -1, 17.459, 16.2379, 22.9193, 37.6147, -29.3782, -29.4326
2.1272, -1, 17.5279, 16.1762, 22.9443, 37.743, -29.2274, -29.5286
2.13528, -1, 17.5909, 16.1208, 22.9672, 37.8615, -29.0881, -29.618
2.14332, -1, 17.6468, 16.0716, 22.9877, 37.9669, -28.9642, -29.6968
2.1514, -1, 17.6964, 16.028, 23.0054, 38.0546, -28.8602, -29.7637
2.15954, -1, 17.7402, 15.9883, 23.02, 38.1244, -28.778, -29.8163
2.1681, -1, 17.7789, 15.9531, 23.032, 38.1749, -28.7173, -29.8551
2.1756, -1, 17.8115, 15.9239, 23.0412, 38.2089, -28.6765, -29.8812
2.18428, -1, 17.8377, 15.902, 23.0476, 38.2305, -28.6504, -29.8976
2.19163, -1, 17.858, 15.8867, 23.0518, 38.243, -28.6353, -29.9069
2.20021, -1, 17.8719, 15.8765, 23.0545, 38.2497, -28.6273, -29.9116
2.20767, -1, 17.8797, 15.8706, 23.056, 38.253, -28.6234, -29.9138
2.21568, 2, 17.8819, 15.8676, 23.0567, 38.2545, -28.6215, -29.9148
2.22427, 2, 17.885, 15.8659, 23.057, 38.2552, -28.6206, -29.9154
2.23203, 2, 17.885, 15.865, 23.0571, 38.2556, -28.6202, -29.9156
2.23909, 2, 17.8848, 15.8647, 23.0572, 38.2557, -28.6201, -29.9156
2.24814, 2, 17.884, 15.8642, 23.0573, 38.2558, -28.62, -29.9157
2.25515, 2, 17.8838, 15.8641, 23.0573, 38.2559, -28.62, -29.9157
2.26433, 2, 17.8834, 15.8639, 23.0573, 38.2559, -28.62, -29.9158
2.27115, 2, 17.8834, 15.8639, 23.0573, 38.2559, -28.62, -29.9158
2.2804, 2, 17.8833, 15.8637, 23.0573, 38.2559, -28.62, -29.9158
2.28709, 2, 17.8833, 15.8636, 23.0573, 38.256, -28.62, -29.9158
2.29674, 2, 17.8836, 15.8633, 23.0574, 38.2559, -28.62, -29.9158
2.30463, 2, 17.884, 15.8632, 23.0574, 38.2559, -28.62, -29.9158
2.31258, 2, 17.8844, 15.863, 23.0574, 38.2559, -28.62, -29.9158
2.32103, 2, 17.8851, 15.8629, 23.0574, 38.2559, -28.62, -29.9158
2.32868, 2, 17.8857, 15.8627, 23.0574, 38.2559, -28.62, -29.9158
2.33665, 2, 17.8862, 15.8627, 23.0574, 38.2559, -28.62, -29.9158
2.34494, 2, 17.8865, 15.8627, 23.0574, 38.2559, -28.62, -29.9158
2.35109, 2, 17.8867, 15.8626, 23.0574, 38.2559, -28.62, -29.9158
2.36011, 2, 17.8869, 15.8626, 23.0574, 38.2559, -28.6201, -29.9158
2.36907, 2, 17.887, 15.8626, 23.0574, 38.2559, -28.6201, -29.9158
2.3751, 2, 17.8871, 15.8626, 23.0574, 38.2559, -28.6201, -29.9158
2.38312, 2, 17.8871, 15.8626, 23.0574, 38.2559, -28.6201, -29.9158
2.39116, 2, 17.8871, 15.8626, 23.0574, 38.2558, -28.6201, -29.9158
2.39909, 2, 17.8871, 15.8626, 23.0574, 38.2558, -28.6201, -29.9158
2.40709, 2, 17.8869, 15.8626, 23.0574, 38.2558, -28.6202, -29.9157
2.4161, 2, 17.8867, 15.8626, 23.0574, 38.2558, -28.6202, -29.9158
2.42309, 2, 17.8867, 15.8625, 23.0574, 38.2559, -28.6202, -29.9157
2.43109, 2, 17.8866, 15.8625, 23.0574, 38.2558, -28.6202, -29.9158
2.43916, 2, 17.8865, 15.8625, 23.0574, 38.2558, -28.6202, -29.9157
2.44713, 2, 17.8865, 15.8625, 23.0574, 38.2558, -28.6202, -29.9157
2.4551, 2, 17.8866, 15.8625, 23.0574, 38.2558, -28.6202, -29.9158
2.46415, 2, 17.8865, 15.8625, 23.0574, 38.2558, -28.6203, -29.9157
2.47216, 2, 17.8865, 15.8625, 23.0574, 38.2558, -28.6203, -29.9157
2.48008, 2, 17.8865, 15.8625, 23.0574, 38.2558, -28.6203, -29.9158
2.4881, 2, 17.8865, 15.8625, 23.0574, 38.2558, -28.6203, -29.9157
2.49616, 2, 17.8865, 15.8625, 23.0574, 38.2558, -28.6204, -29.9157
2.50309, 2, 17.8865, 15.8625, 23.0574, 38.2558, -28.6203, -29.9157
2.51116, 2, 17.8865, 15.8624, 23.0574, 38.2558, -28.6204, -29.9157
2.51909, 2, 17.8865, 15.8624, 23.0574, 38.2558, -28.6205, -29.9157
2.52709, 2, 17.8865, 15.8624, 23.0574, 38.2558, -28.6205, -29.9157
2.53609, 2, 17.8864, 15.8624, 23.0574, 38.2558, -28.6205, -29.9156
2.5431, 2, 17.8864, 15.8624, 23.0574, 38.2558, -28.6205, -29.9156
2.55113, 2, 17.8863, 15.8624, 23.0574, 38.2558, -28.6205, -29.9157
2.55923, 2, 17.8863, 15.8624, 23.0574, 38.2558, -28.6205, -29.9156
2.56718, 2, 17.8863, 15.8624, 23.0574, 38.2558, -28.6205, -29.9157
2.5752, 2, 17.8863, 15.8624, 23.0574, 38.2558, -28.6205, -29.9157
2.58326, 2, 17.8863, 15.8624, 23.0574, 38.2558, -28.6205, -29.9156
2.5912, 2, 17.8863, 15.8624, 23.0574, 38.2558, -28.6205, -29.9157
2.59919, 2, 17.8863, 15.8625, 23.0574, 38.2558, -28.6206, -29.9157
2.60727, 2, 17.8863, 15.8624, 23.0574, 38.2558, -28.6206, -29.9156
2.6151, 2, 17.8863, 15.8625, 23.0574, 38.2557, -28.6207, -29.9157
2.62311, 2, 17.8863, 15.8624, 23.0574, 38.2557, -28.6206, -29.9156
2.63121, 2, 17.8863, 15.8625, 23.0574, 38.2557, -28.6207, -29.9156
2.63927, 2, 17.8862, 15.8624, 23.0574, 38.2558, -28.6206, -29.9155
2.64724, 2, 17.8862, 15.8625, 23.0574, 38.2558, -28.6207, -29.9156
2.65566, 2, 17.8862, 15.8624, 23.0574, 38.2558, -28.6207, -29.9156
2.66354, 2, 17.8862, 15.8625, 23.0574, 38.2557, -28.6207, -29.9156
2.67215, 2, 17.8862, 15.8625, 23.0574, 38.2557, -28.6207, -29.9156
2.67958, 2, 17.8861, 15.8625, 23.0574, 38.2557, -28.6207, -29.9156
2.68762, 2, 17.8861, 15.8625, 23.0574, 38.2557, -28.6208, -29.9156
2.69619, 2, 17.8861, 15.8625, 23.0574, 38.2557, -28.6208, -29.9156
2.70407, 2, 17.8861, 15.8625, 23.0574, 38.2557, -28.6208, -29.9156
2.7117, 2, 17.886, 15.8625, 23.0574, 38.2557, -28.6207, -29.9155
2.7202, 2, 17.886, 15.8625, 23.0574, 38.2557, -28.6207, -29.9155
2.72778, 2, 17.886, 15.8625, 23.0574, 38.2557, -28.6207, -29.9155
2.73621, 2, 17.886, 15.8625, 23.0574, 38.2557, -28.6208, -29.9155
2.74308, 2, 17.8859, 15.8625, 23.0574, 38.2557, -28.6208, -29.9155
2.75223, 2, 17.8859, 15.8625, 23.0574, 38.2557, -28.6209, -29.9155
2.75914, 2, 17.8859, 15.8625, 23.0574, 38.2558, -28.6209, -29.9155
2.76826, 2, 17.8858, 15.8625, 23.0574, 38.2557, -28.6209, -29.9155
2.77514, 2, 17.8858, 15.8625, 23.0574, 38.2557, -28.6209, -29.9155
2.78458, 2, 17.8857, 15.8625, 23.0574, 38.2557, -28.6209, -29.9155
2.79107, 2, 17.8857, 15.8625, 23.0574, 38.2557, -28.6209, -29.9155
2.80064, 2, 17.8856, 15.8625, 23.0574, 38.2556, -28.6209, -29.9155
2.80863, 2, 17.8856, 15.8625, 23.0574, 38.2556, -28.6209, -29.9155
2.81656, 2, 17.8856, 15.8625, 23.0574, 38.2556, -28.6209, -29.9155
2.82505, 2, 17.8855, 15.8625, 23.0574, 38.2556, -28.621, -29.9155
2.83115, 2, 17.8855, 15.8625, 23.0574, 38.2556, -28.6209, -29.9155
2.84065, 2, 17.8854, 15.8625, 23.0574, 38.2556, -28.621, -29.9155
2.84884, 2, 17.8854, 15.8625, 23.0574, 38.2556, -28.621, -29.9154
2.85678, 2, 17.8853, 15.8625, 23.0574, 38.2556, -28.621, -29.9155
2.86466, 2, 17.8853, 15.8625, 23.0574, 38.2556, -28.621, -29.9155
2.87207, 2, 17.8852, 15.8625, 23.0574, 38.2556, -28.621, -29.9154
2.88013, 2, 17.8852, 15.8625, 23.0574, 38.2556, -28.621, -29.9154
2.88807, 2, 17.8852, 15.8625, 23.0574, 38.2556, -28.621, -29.9153
2.89608, 2, 17.8851, 15.8625, 23.0574, 38.2555, -28.6211, -29.9153
2.90419, 2, 17.8851, 15.8625, 23.0574, 38.2556, -28.6211, -29.9152
2.91207, 2, 17.885, 15.8625, 23.0574, 38.2555, -28.6211, -29.9152
2.92008, 2, 17.8849, 15.8625, 23.0574, 38.2555, -28.621, -29.9152
2.92813, 2, 17.8849, 15.8625, 23.0574, 38.2555, -28.6211, -29.9152
2.93615, 2, 17.8849, 15.8625, 23.0574, 38.2555, -28.6211, -29.9151
2.94414, 2, 17.8848, 15.8625, 23.0574, 38.2554, -28.6212, -29.9151
2.95108, 2, 17.8847, 15.8625, 23.0574, 38.2555, -28.6211, -29.9151
2.95907, 2, 17.8847, 15.8625, 23.0574, 38.2554, -28.6211, -29.9151
2.96807, 2, 17.8847, 15.8625, 23.0574, 38.2554, -28.6211, -29.9151
2.9777, 2, 17.8846, 15.8625, 23.0574, 38.2554, -28.6212, -29.915
2.98413, 2, 17.8846, 15.8625, 23.0574, 38.2554, -28.6212, -29.915
2.99209, 2, 17.8845, 15.8625, 23.0574, 38.2554, -28.6212, -29.915
3.00015, 2, 17.8845, 15.8625, 23.0574, 38.2554, -28.6212, -29.915
3.00707, 2, 17.8844, 15.8625, 23.0574, 38.2554, -28.6212, -29.915
3.01608, 2, 17.8844, 15.8625, 23.0574, 38.2554, -28.6212, -29.915
3.0242, 2, 17.8843, 15.8625, 23.0574, 38.2553, -28.6212, -29.915
3.03107, 2, 17.8843, 15.8625, 23.0574, 38.2553, -28.6212, -29.915
3.04008, 2, 17.8843, 15.8625, 23.0574, 38.2553, -28.6212, -29.9149
3.04708, 2, 17.8842, 15.8625, 23.0574, 38.2552, -28.6212, -29.915
3.05514, 2, 17.8842, 15.8625, 23.0574, 38.2552, -28.6212, -29.915
3.06321, 2, 17.8841, 15.8626, 23.0574, 38.2552, -28.6212, -29.915
3.07117, 2, 17.8841, 15.8625, 23.0574, 38.2552, -28.6212, -29.915
3.07917, 2, 17.884, 15.8625, 23.0574, 38.2552, -28.6212, -29.9149
3.08724, 2, 17.884, 15.8625, 23.0574, 38.2552, -28.6213, -29.9149
3.09519, 2, 17.884, 15.8625, 23.0574, 38.2552, -28.6213, -29.9149
3.10317, 2, 17.884, 15.8625, 23.0574, 38.2552, -28.6213, -29.9149
3.11124, 2, 17.884, 15.8625, 23.0574, 38.2551, -28.6213, -29.9149
3.1191, 2, 17.8839, 15.8626, 23.0574, 38.2551, -28.6213, -29.9149
3.1271, 2, 17.8839, 15.8625, 23.0574, 38.2551, -28.6213, -29.9149
3.13518, 2, 17.8839, 15.8626, 23.0574, 38.2551, -28.6213, -29.9149
3.1432, 2, 17.8839, 15.8626, 23.0574, 38.2551, -28.6213, -29.915
3.15121, 2, 17.8839, 15.8626, 23.0574, 38.2551, -28.6213, -29.9149
3.15936, 2, 17.8839, 15.8626, 23.0574, 38.2551, -28.6213, -29.9149
3.16787, 2, 17.8839, 15.8626, 23.0574, 38.255, -28.6213, -29.9149
3.17608, 2, 17.8839, 15.8626, 23.0574, 38.255, -28.6214, -29.9149
3.18355, 2, 17.8839, 15.8626, 23.0574, 38.255, -28.6214, -29.9149
3.19223, 2, 17.8839, 15.8626, 23.0574, 38.255, -28.6214, -29.9149
3.19964, 2, 17.8838, 15.8626, 23.0574, 38.2549, -28.6214, -29.9149
3.20816, 2, 17.8838, 15.8626, 23.0574, 38.2549, -28.6214, -29.9149
3.21623, 2, 17.8838, 15.8626, 23.0574, 38.2549, -28.6214, -29.9149
3.22426, 2, 17.8838, 15.8626, 23.0574, 38.2549, -28.6214, -29.9149
3.23168, 2, 17.8838, 15.8626, 23.0574, 38.2549, -28.6214, -29.9149
3.24028, 2, 17.8838, 15.8626, 23.0574, 38.2549, -28.6214, -29.9149
3.24707, 2, 17.8838, 15.8626, 23.0574, 38.2549, -28.6214, -29.9149
3.25613, 2, 17.8837, 15.8626, 23.0573, 38.2549, -28.6214, -29.9149
3.26308, 2, 17.8837, 15.8626, 23.0574, 38.2549, -28.6214, -29.9149
3.2727, 2, 17.8837, 15.8626, 23.0574, 38.2548, -28.6214, -29.9149
3.28026, 2, 17.8837, 15.8626, 23.0573, 38.2548, -28.6214, -29.9149
3.28706, 2, 17.8837, 15.8626, 23.0573, 38.2548, -28.6214, -29.9149
3.29665, 4, 17.8837, 15.8626, 23.0574, 38.2548, -28.6214, -29.9149
3.30448, 4, 17.8837, 15.8626, 23.0574, 38.2548, -28.6215, -29.9149
3.31106, 4, 17.8837, 15.8626, 23.0574, 38.2548, -28.6215, -29.9149
3.32065, 4, 17.8837, 15.8626, 23.0574, 38.2547, -28.6215, -29.9149
3.32866, 4, 17.8836, 15.8626, 23.0574, 38.2547, -28.6215, -29.9149
3.33665, 4, 17.8836, 15.8626, 23.0574, 38.2547, -28.6215, -29.9149
3.34483, 4, 17.8836, 15.8626, 23.0574, 38.2547, -28.6215, -29.9149
3.35264, 4, 17.8836, 15.8626, 23.0574, 38.2547, -28.6215, -29.9148
3.36069, 4, 17.8836, 15.8626, 23.0574, 38.2547, -28.6215, -29.9149
3.36806, 4, 17.8836, 15.8626, 23.0574, 38.2547, -28.6215, -29.9148
3.37606, 4, 17.8836, 15.8626, 23.0574, 38.2547, -28.6215, -29.9149
3.385, 4, 17.8836, 15.8626, 23.0573, 38.2547, -28.6215, -29.9149
3.39206, 4, 17.8836, 15.8626, 23.0573, 38.2547, -28.6215, -29.9149
3.40022, 4, 17.8836, 15.8626, 23.0574, 38.2547, -28.6215, -29.9148
3.4191, 4, 17.8835, 15.8626, 23.0574, 38.2546, -28.6215, -29.9148
3.42035, 4, 17.8835, 15.8626, 23.0574, 38.2546, -28.6215, -29.9148
3.42414, 4, 17.8835, 15.8626, 23.0574, 38.2546, -28.6215, -29.9148
3.43205, 4, 17.8835, 15.8627, 23.0573, 38.2546, -28.6215, -29.9148
3.44014, 4, 17.8835, 15.8627, 23.0574, 38.2546, -28.6215, -29.9148
3.44705, 4, 17.8833, 15.8627, 23.0574, 38.2545, -28.6215, -29.9148
3.45605, 4, 17.8818, 15.8627, 23.0574, 38.2544, -28.6215, -29.9148
3.46411, 4, 17.8775, 15.8626, 23.0578, 38.2529, -28.6218, -29.9141
3.47212, 4, 17.8692, 15.8623, 23.0596, 38.246, -28.6235, -29.9099
3.47905, 4, 17.856, 15.8614, 23.0649, 38.2274, -28.6292, -29.8954
3.48715, 4, 17.8356, 15.8588, 23.0768, 38.1886, -28.6424, -29.8625
3.49506, 5, 17.8052, 15.8539, 23.0992, 38.116, -28.6671, -29.8002
3.50313, 5, 17.7624, 15.8456, 23.1367, 37.995, -28.7091, -29.6951
3.51112, 5, 17.7052, 15.8327, 23.194, 37.8092, -28.7753, -29.5337
3.52013, 5, 17.6314, 15.8145, 23.2759, 37.544, -28.8714, -29.3026
3.52706, 5, 17.5388, 15.7907, 23.386, 37.1878, -29.0037, -28.992
3.53605, 5, 17.4263, 15.7607, 23.5266, 36.7333, -29.1757, -28.5947
3.54418, 5, 17.295, 15.7245, 23.6984, 36.1781, -29.391, -28.1096
3.55106, 5, 17.1473, 15.6825, 23.8992, 35.5292, -29.649, -27.5423
3.56006, 5, 16.9859, 15.6359, 24.1257, 34.8031, -29.946, -26.9062
3.56813, 5, 16.8141, 15.5863, 24.3712, 34.0207, -30.2745, -26.2222
3.57516, 5, 16.6359, 15.5356, 24.6269, 33.2106, -30.6243, -25.5157
3.58322, 5, 16.4562, 15.4857, 24.8847, 32.403, -30.9826, -24.8116
3.59116, 5, 16.2772, 15.4384, 25.1327, 31.6278, -31.3368, -24.1351
3.59916, 5, 16.1025, 15.3955, 25.3629, 30.9099, -31.6737, -23.5099
3.60722, 5, 15.9362, 15.358, 25.5705, 30.268, -31.9827, -22.9514
3.61507, 5, 15.7836, 15.3265, 25.7511, 29.7133, -32.2559, -22.4694
3.62314, 5, 15.6483, 15.3009, 25.9036, 29.2501, -32.4885, -22.0672
3.63118, 5, 15.5327, 15.2814, 26.0275, 28.8773, -32.6792, -21.7434
3.63912, 5, 15.4367, 15.2673, 26.124, 28.5895, -32.8287, -21.4932
3.64764, 5, 15.3592, 15.2577, 26.1963, 28.3773, -32.9405, -21.3083
3.65605, 5, 15.2987, 15.2517, 26.2478, 28.2283, -33.0198, -21.1782
3.66418, 5, 15.2542, 15.2485, 26.2823, 28.1297, -33.0729, -21.0905
3.67225, 5, 15.2232, 15.2469, 26.3044, 28.0673, -33.1069, -21.0357
3.69365, 5, 15.1848, 15.2459, 26.3285, 28.0054, -33.1412, -20.9802
3.69559, 5, 15.182, 15.2458, 26.3306, 28.0013, -33.1435, -20.9764
3.69703, 5, 15.182, 15.2458, 26.3306, 28.0013, -33.1435, -20.9764
3.7042, 5, 15.1795, 15.2457, 26.3335, 27.9964, -33.1462, -20.972
3.71169, 5, 15.1788, 15.2455, 26.3352, 27.9939, -33.1476, -20.9699
3.72023, 5, 15.178, 15.2453, 26.3362, 27.9926, -33.1485, -20.9688
3.72765, 5, 15.1772, 15.245, 26.337, 27.9917, -33.1491, -20.9681
3.73605, 5, 15.1693, 15.2448, 26.3381, 27.9902, -33.15, -20.9669
3.74304, 5, 15.1644, 15.2447, 26.3391, 27.9884, -33.151, -20.9655
3.75208, 6, 15.1416, 15.2446, 26.3459, 27.9706, -33.1599, -20.9518
3.75909, 6, 15.1308, 15.2446, 26.3505, 27.9582, -33.1664, -20.9417
3.76848, 6, 15.0833, 15.2438, 26.3762, 27.8842, -33.2047, -20.8799
3.77506, 6, 15.0613, 15.2431, 26.3903, 27.8429, -33.2265, -20.8455
3.78433, 6, 14.974, 15.2386, 26.4574, 27.6472, -33.3323, -20.6828
3.79104, 6, 14.937, 15.2361, 26.4894, 27.553, -33.3838, -20.6041
3.8004, 6, 14.7991, 15.2249, 26.6207, 27.1669, -33.5982, -20.2815
3.80708, 6, 14.7435, 15.22, 26.677, 27.001, -33.6917, -20.1427
3.81505, 6, 14.6169, 15.2085, 26.8096, 26.6114, -33.9143, -19.8163
3.8249, 6, 14.392, 15.1864, 27.0564, 25.8868, -34.339, -19.2103
3.83262, 6, 14.223, 15.1693, 27.2479, 25.3231, -34.6785, -18.7391
3.84098, 6, 14.0431, 15.1512, 27.4563, 24.7141, -35.0543, -18.2299
3.84865, 6, 13.8555, 15.133, 27.6749, 24.08, -35.4544, -17.7004
3.85667, 6, 13.7604, 15.1243, 27.7853, 23.7603, -35.8647, -17.1705
3.86492, 6, 13.5703, 15.1012, 28.1077, 22.8289, -36.2693, -16.6605
3.87207, 6, 13.3826, 15.0949, 28.2091, 22.5366, -36.4649, -16.4185
3.88007, 6, 13.2021, 15.0848, 28.3978, 21.9934, -36.8351, -15.9686
3.88812, 6, 13.0319, 15.0779, 28.5646, 21.5151, -37.1675, -15.5725
3.89607, 6, 12.8773, 15.0741, 28.7078, 21.1087, -37.4552, -15.2365
3.90409, 6, 12.7426, 15.0727, 28.8259, 20.7749, -37.6954, -14.9604
3.91209, 6, 12.6294, 15.073, 28.92, 20.5106, -37.8879, -14.742
3.92005, 6, 12.5375, 15.0749, 28.992, 20.3105, -38.0358, -14.5764
3.92804, 6, 12.4651, 15.0779, 29.0445, 20.1657, -38.1438, -14.4554
3.93608, 6, 12.4104, 15.0813, 29.081, 20.066, -38.2192, -14.3719
3.94409, 6, 12.3714, 15.0845, 29.1048, 20.0011, -38.268, -14.3178
3.95125, 6, 12.3451, 15.0871, 29.1194, 19.9618, -38.298, -14.2847
3.97421, 6, 12.3124, 15.0909, 29.1363, 19.9227, -38.3279, -14.2513
3.9755, 6, 12.3124, 15.0909, 29.1363, 19.9227, -38.3279, -14.2513
3.97667, 6, 12.3124, 15.0909, 29.1363, 19.9227, -38.3279, -14.2513
3.98309, 6, 12.3109, 15.0912, 29.1379, 19.9199, -38.3301, -14.2489
3.99104, 6, 12.3099, 15.0914, 29.1389, 19.9185, -38.3312, -14.2477
4.00007, 6, 12.3079, 15.0915, 29.1396, 19.9178, -38.3319, -14.2471
4.00812, 6, 12.3029, 15.0919, 29.1404, 19.9172, -38.3325, -14.2467
4.01505, 6, 12.2938, 15.0929, 29.1419, 19.9152, -38.334, -14.2452
4.02407, 7, 12.2796, 15.0947, 29.1448, 19.9084, -38.3389, -14.24
4.03208, 7, 12.2591, 15.0975, 29.1509, 19.8921, -38.3511, -14.2273
4.0401, 7, 12.2297, 15.1013, 29.1626, 19.8595, -38.3755, -14.2014
4.04709, 7, 12.1884, 15.1061, 29.1828, 19.8023, -38.4175, -14.1565
4.05608, 7, 12.1334, 15.1117, 29.2152, 19.7115, -38.4853, -14.085
4.06408, 7, 12.0627, 15.1178, 29.263, 19.5771, -38.5873, -13.9785
4.07127, 7, 11.9742, 15.1248, 29.3291, 19.3916, -38.7299, -13.8314
4.07914, 7, 11.8661, 15.133, 29.4153, 19.1488, -38.9192, -13.6388
4.08713, 7, 11.7373, 15.1427, 29.5227, 18.8458, -39.1585, -13.3985
4.09522, 7, 11.5876, 15.1536, 29.651, 18.4835, -39.4492, -13.1111
4.10321, 7, 11.4195, 15.1655, 29.798, 18.0667, -39.7892, -12.7812
4.1111, 7, 11.2375, 15.1784, 29.9608, 17.6048, -40.1734, -12.4167
4.11916, 7, 11.0461, 15.1924, 30.1355, 17.1114, -40.5911, -12.028
4.12707, 7, 10.8488, 15.2085, 30.3162, 16.6038, -41.0289, -11.6293
4.13511, 7, 10.6501, 15.2267, 30.495, 16.1013, -41.4705, -11.235
4.14318, 7, 10.4542, 15.2462, 30.6649, 15.6213, -41.9, -10.8599
4.15149, 7, 10.266, 15.267, 30.8211, 15.1804, -42.3019, -10.5158
4.15927, 7, 10.0889, 15.289, 30.9592, 14.7905, -42.6637, -10.2117
4.16763, 7, 9.92675, 15.3115, 31.0769, 14.4575, -42.9769, -9.95205
4.17618, 7, 9.78409, 15.3332, 31.1743, 14.1831, -43.239, -9.73809
4.18345, 7, 9.66382, 15.3532, 31.2521, 13.964, -43.4506, -9.56749
4.19157, 7, 9.56589, 15.3706, 31.312, 13.7958, -43.6146, -9.43632
4.20021, 7, 9.4884, 15.3855, 31.3562, 13.6716, -43.7367, -9.33969
4.20758, 7, 9.42953, 15.3982, 31.3873, 13.5847, -43.8228, -9.27145
4.21613, 7, 9.38738, 15.4081, 31.4081, 13.5262, -43.8812, -9.2255
4.22416, 7, 9.35867, 15.4155, 31.4215, 13.4895, -43.9179, -9.19651
4.24791, 7, 9.33903, 15.427, 31.4365, 13.4511, -43.9569, -9.16568
4.24926, 7, 9.31886, 15.427, 31.4365, 13.4511, -43.9569, -9.16568
4.25052, 7, 9.31886, 15.427, 31.4365, 13.4511, -43.9569, -9.16568
4.255, 7, 9.31688, 15.4278, 31.4372, 13.4494, -43.9585, -9.16445
4.26411, 7, 9.31374, 15.4292, 31.4386, 13.4469, -43.9609, -9.16263
4.27107, 7, 9.31296, 15.4296, 31.4389, 13.4466, -43.9613, -9.16236
4.28024, 7, 9.30866, 15.4307, 31.4396, 13.446, -43.9619, -9.16194
4.28703, 7, 9.30584, 15.4314, 31.4399, 13.4458, -43.9622, -9.16189
4.29643, 7, 9.29064, 15.4348, 31.4416, 13.4426, -43.9654, -9.16007
4.3031, 8, 9.2829, 15.4367, 31.4428, 13.4394, -43.9684, -9.15792
4.31242, 8, 9.24902, 15.4454, 31.4508, 13.4159, -43.9906, -9.14202
4.31902, 8, 9.23296, 15.4497, 31.4558, 13.4012, -44.0046, -9.1316
4.32853, 8, 9.16587, 15.4677, 31.4819, 13.324, -44.08, -9.07533
4.3366, 8, 9.10322, 15.4841, 31.5119, 13.2362, -44.167, -9.00963
4.34479, 8, 9.02333, 15.5044, 31.5552, 13.1099, -44.293, -8.91639
4.35324, 8, 8.97622, 15.529, 31.6136, 12.9401, -44.4645, -8.78982
4.35909, 8, 8.86669, 15.5429, 31.6488, 12.8373, -44.5688, -8.71354
4.36871, 8, 8.73631, 15.5736, 31.7314, 12.4572, -44.9605, -8.43134
4.37602, 8, 8.58516, 15.6084, 31.8299, 12.307, -45.1175, -8.32008
4.3841, 8, 8.41461, 15.6474, 31.9428, 11.9746, -45.4685, -8.07457
4.3921, 8, 8.22887, 15.69, 32.068, 11.6058, -45.8636, -7.80265
4.40006, 8, 8.03328, 15.7357, 32.202, 11.211, -46.2932, -7.51226
4.40805, 8, 7.83164, 15.7846, 32.3399, 10.8034, -46.7434, -7.21314
4.41607, 8, 7.62794, 15.8361, 32.4762, 10.3964, -47.1995, -6.91588
4.42407, 8, 7.42596, 15.8886, 32.6065, 10.0045, -47.6454, -6.6304
4.43203, 8, 7.23135, 15.9402, 32.7268, 9.63988, -48.0664, -6.36573
4.44008, 8, 7.04845, 15.9901, 32.8338, 9.31282, -48.4498, -6.12892
4.44802, 8, 6.88067, 16.0378, 32.9259, 9.02982, -48.7858, -5.9246
4.45602, 8, 6.73186, 16.0819, 33.0022, 8.79349, -49.07, -5.75369
4.46413, 8, 6.60491, 16.1207, 33.0635, 8.60222, -49.3018, -5.61581
4.47202, 8, 6.50039, 16.1539, 33.1108, 8.45356, -49.4837, -5.50803
4.48003, 8, 6.41681, 16.1818, 33.1459, 8.34259, -49.6205, -5.428
4.48807, 8, 6.35202, 16.2048, 33.1705, 8.26378, -49.7183, -5.37042
4.49774, 8, 6.30451, 16.2228, 33.1872, 8.21012, -49.8082, -5.31676
4.5041, 8, 6.27147, 16.2359, 33.198, 8.17588, -49.8271, -5.30555
4.525, 8, 6.22826, 16.2538, 33.2089, 8.14149, -49.8716, -5.27943
4.52787, 8, 6.22423, 16.2556, 33.2097, 8.13916, -49.8747, -5.27768
4.52905, 8, 6.22423, 16.2556, 33.2097, 8.13916, -49.8747, -5.27768
4.53503, 8, 6.21937, 16.2578, 33.2106, 8.13639, -49.8784, -5.27558
4.54408, 8, 6.21698, 16.2589, 33.2112, 8.13505, -49.8802, -5.27461
4.55202, 8, 6.21521, 16.2595, 33.2117, 8.13444, -49.8812, -5.27414
4.5591, 8, 6.21204, 16.2604, 33.212, 8.13414, -49.8818, -5.27384
4.56706, 8, 6.2057, 16.2622, 33.2123, 8.13363, -49.8828, -5.27351
4.57546, 9, 6.19487, 16.2657, 33.2131, 8.13154, -49.8859, -5.2723
4.58311, 9, 6.17845, 16.2715, 33.215, 8.12496, -49.8941, -5.26818
4.59117, 9, 6.15433, 16.2812, 33.2191, 8.11047, -49.9119, -5.25874
4.5993, 9, 6.11942, 16.2961, 33.2268, 8.08311, -49.945, -5.24036
4.60713, 9, 6.07126, 16.3167, 33.2402, 8.03631, -50.0016, -5.20853
4.61509, 9, 6.00804, 16.343, 33.2612, 7.96486, -50.0897, -5.15881
4.62353, 9, 5.92721, 16.3752, 33.2915, 7.86205, -50.2174, -5.08772
4.63154, 9, 5.82648, 16.4141, 33.3328, 7.72333, -50.3912, -4.99268
4.64003, 9, 5.70496, 16.4604, 33.3854, 7.54529, -50.6162, -4.87018
4.64802, 9, 5.56258, 16.5143, 33.4498, 7.32742, -50.8948, -4.72088
4.65608, 9, 5.39986, 16.5757, 33.5251, 7.07129, -51.2258, -4.54553
4.66407, 9, 5.21874, 16.6437, 33.6096, 6.7811, -51.6053, -4.34737
4.67139, 9, 5.02433, 16.7169, 33.7012, 6.46385, -52.025, -4.13156
4.67947, 9, 4.82239, 16.7943, 33.797, 6.12879, -52.4742, -3.90444
4.82184, 9, 3.04421, 17.5628, 34.4427, 3.6594, -55.9771, -2.25575
4.82355, 9, 3.04421, 17.5628, 34.4427, 3.6594, -55.9771, -2.25575
4.82621, 9, 3.04336, 17.5634, 34.4429, 3.65901, -55.9778, -2.25549
4.83009, 9, 3.04267, 17.5638, 34.443, 3.65877, -55.9783, -2.25533
4.83309, 9, 3.04267, 17.5642, 34.4431, 3.65861, -55.9787, -2.25521
4.85374, 9, 3.03879, 17.5663, 34.4435, 3.65823, -55.9796, -2.25498
4.85494, 9, 3.03879, 17.5663, 34.4435, 3.65823, -55.9796, -2.25498
4.85686, 9, 3.03816, 17.5667, 34.4436, 3.65818, -55.9797, -2.25496
4.85819, 9, 3.03816, 17.5667, 34.4436, 3.65818, -55.9797, -2.25496
4.86097, 9, 3.03744, 17.5671, 34.4436, 3.65813, -55.9798, -2.25494
4.86244, 9, 3.03744, 17.5671, 34.4436, 3.65813, -55.9798, -2.25494
4.86363, 9, 3.03744, 17.5671, 34.4436, 3.65813, -55.9798, -2.25494
4.86576, 9, 3.03658, 17.5675, 34.4437, 3.6581, -55.9798, -2.25493
4.86705, 9, 3.03658, 17.5675, 34.4437, 3.6581, -55.9798, -2.25493
4.86913, 9, 3.03562, 17.5679, 34.4438, 3.65805, -55.9799, -2.25493
4.87042, 9, 3.03562, 17.5679, 34.4438, 3.65805, -55.9799, -2.25493
4.8717, 9, 3.03562, 17.5679, 34.4438, 3.65805, -55.9799, -2.25493
4.87739, 9, 3.0334, 17.5685, 34.444, 3.65806, -55.98, -2.25486
4.8786, 9, 3.0334, 17.5685, 34.444, 3.65806, -55.98, -2.25486
4.87987, 9, 3.0334, 17.5685, 34.444, 3.65806, -55.98, -2.25486
4.88203, 9, 3.0319, 17.5689, 34.444, 3.65808, -55.98, -2.25486
4.88335, 9, 3.0319, 17.5689, 34.444, 3.65808, -55.98, -2.25486
4.88535, 9, 3.02988, 17.5694, 34.4441, 3.65806, -55.9801, -2.25487
4.88665, 9, 3.02988, 17.5694, 34.4441, 3.65806, -55.9801, -2.25487
4.88993, 9, 3.02988, 17.5694, 34.4441, 3.65801, -55.9802, -2.25486
4.89177, 9, 3.02714, 17.5703, 34.4441, 3.65801, -55.9802, -2.25486
4.89506, 9, 3.02352, 17.5714, 34.4441, 3.65781, -55.9807, -2.25488
4.90414, 9, 3.01303, 17.5754, 34.4442, 3.65607, -55.9834, -2.25473
4.91128, 10, 2.99773, 17.5829, 34.4447, 3.65061, -55.9917, -2.25341
4.91907, 10, 2.97554, 17.5958, 34.4462, 3.63799, -56.0098, -2.24914
4.92805, 10, 2.9428, 17.6158, 34.4495, 3.61404, -56.043, -2.24025
4.936, 10, 2.89675, 17.6433, 34.4557, 3.57353, -56.0994, -2.22442
4.94406, 10, 2.83524, 17.6793, 34.4657, 3.51223, -56.1876, -2.19887
4.95206, 10, 2.75534, 17.7255, 34.48, 3.42368, -56.3152, -2.16184
4.959, 10, 2.65449, 17.7845, 34.4985, 3.30405, -56.4891, -2.1119
4.968, 10, 2.53123, 17.8583, 34.5206, 3.1504, -56.7141, -2.04698
4.97501, 10, 2.38525, 17.9482, 34.5449, 2.96156, -56.9933, -1.96489
4.98406, 10, 2.21584, 18.0559, 34.5696, 2.73814, -57.3265, -1.86682
4.99199, 10, 2.02314, 18.1829, 34.5916, 2.48248, -57.7113, -1.75136
5.001, 10, 1.80932, 18.3295, 34.6081, 2.19918, -58.1432, -1.62032
5.0081, 10, 1.57692, 18.4954, 34.6163, 1.89274, -58.6164, -1.47423
5.01608, 10, 1.32813, 18.68, 34.6137, 1.56884, -59.1227, -1.31545
5.02412, 10, 1.06623, 18.883, 34.5977, 1.23412, -59.6547, -1.14522
5.03101, 10, 0.795809, 19.1049, 34.5663, 0.893814, -60.2032, -0.965901
5.04001, 10, 0.520753, 19.3422, 34.5185, 0.553093, -60.7603, -0.779418
5.04806, 10, 0.244575, 19.5907, 34.4543, 0.216052, -61.3208, -0.587392
5.056, 10, -0.0297019, 19.8485, 34.3743, -0.11402, -61.8789, -0.392029
5.06407, 10, -0.298476, 20.1126, 34.2796, -0.432927, -62.4282, -0.195335
5.07212, 10, -0.557691, 20.3789, 34.1723, -0.737093, -62.9615, 0.000524981
5.07917, 10, -0.803621, 20.6436, 34.0547, -1.02294, -63.4715, 0.19242
5.08716, 10, -1.03493, 20.9014, 33.9302, -1.28726, -63.9515, 0.377312
5.09511, 10, -1.25183, 21.1498, 33.802, -1.52791, -64.3959, 0.552521
5.10311, 10, -1.45295, 21.3875, 33.6737, -1.74323, -64.8005, 0.715372
5.11118, 10, -1.63654, 21.6105, 33.5488, -1.93318, -65.1627, 0.864177
5.119, 10, -1.80108, 21.8151, 33.4301, -2.09833, -65.4826, 0.998467
5.12701, 10, -1.94565, 21.9998, 33.3204, -2.23984, -65.7607, 1.11757
5.136, 10, -2.07018, 22.1634, 33.2214, -2.35959, -65.9985, 1.22086
5.14307, 10, -2.1756, 22.3047, 33.1341, -2.45895, -66.1983, 1.30929
5.15109, 10, -2.26326, 22.4244, 33.0594, -2.5391, -66.3619, 1.38222
5.15925, 10, -2.33524, 22.5241, 32.9975, -2.60292, -66.4921, 1.44096
5.16726, 10, -2.39387, 22.6051, 32.9478, -2.65073, -66.5923, 1.48682
5.17563, 10, -2.44137, 22.6696, 32.9093, -2.68576, -66.6655, 1.52093
5.18413, 10, -2.47903, 22.7199, 32.8807, -2.71039, -66.7173, 1.54513
5.19141, 10, -2.50811, 22.7575, 32.8605, -2.72707, -66.7521, 1.5613
5.20016, 10, -2.52956, 22.7845, 32.8465, -2.73758, -66.7741, 1.57141
5.22427, 10, -2.56511, 22.8252, 32.8284, -2.74863, -66.7971, 1.58153
5.22555, 10, -2.56511, 22.8252, 32.8284, -2.74863, -66.7971, 1.58153
5.22751, 10, -2.56511, 22.8252, 32.8284, -2.74909, -66.7981, 1.58194
5.2321, 10, -2.57029, 22.8303, 32.8264, -2.74939, -66.7987, 1.58222
5.23962, 10, -2.572, 22.832, 32.8252, -2.74972, -66.7995, 1.58251
5.24806, 10, -2.57543, 22.8356, 32.8244, -2.74987, -66.7999, 1.58262
5.255, 10, -2.57662, 22.8366, 32.824, -2.74994, -66.8, 1.58262
5.26408, 10, -2.58259, 22.8417, 32.8222, -2.75011, -66.8004, 1.5827
5.27099, 10, -2.58571, 22.845, 32.821, -2.75033, -66.8009, 1.58274
5.28013, 11, -2.60035, 22.8636, 32.8143, -2.75337, -66.8065, 1.58335
5.28704, 11, -2.60739, 22.8734, 32.8105, -2.75579, -66.8109, 1.58409
5.295, 11, -2.62607, 22.8999, 32.799, -2.7639, -66.8259, 1.58762
5.30436, 11, -2.66845, 22.9605, 32.7685, -2.78865, -66.8722, 1.6002
5.31111, 11, -2.68703, 22.9872, 32.7536, -2.80145, -66.8969, 1.60701
5.3205, 11, -2.75833, 23.092, 32.6906, -2.85815, -67.0054, 1.63773
5.32848, 11, -2.8209, 23.1856, 32.6306, -2.91486, -67.1131, 1.66874
5.33651, 11, -2.89758, 23.3009, 32.5539, -2.98656, -67.2519, 1.70942
5.34474, 11, -2.98918, 23.4394, 32.4589, -3.07607, -67.4251, 1.75913
5.3533, 11, -3.09472, 23.6004, 32.3456, -3.18263, -67.6328, 1.81813
5.35905, 11, -3.15225, 23.6886, 32.2822, -3.24224, -67.7495, 1.85155
5.36965, 11, -3.27566, 23.8788, 32.1422, -3.44424, -68.1466, 1.96456
5.37598, 11, -3.40872, 24.0856, 31.9862, -3.51826, -68.2925, 2.00541
5.38406, 11, -3.54839, 24.3067, 31.8163, -3.67353, -68.6004, 2.09217
5.39207, 11, -3.69088, 24.537, 31.6369, -3.83513, -68.9229, 2.18208
5.40003, 11, -3.83373, 24.7711, 31.4525, -3.99849, -69.2512, 2.27354
5.40803, 11, -3.97669, 25.0073, 31.2664, -4.15914, -69.5762, 2.36305
5.41626, 11, -4.11906, 25.2406, 31.0831, -4.31302, -69.8894, 2.44955
5.42437, 11, -4.25693, 25.4641, 30.9081, -4.45698, -70.184, 2.53002
5.43105, 11, -4.38644, 25.6733, 30.7441, -4.58872, -70.4551, 2.6041
5.44004, 11, -4.50555, 25.8658, 30.5932, -4.70657, -70.6988, 2.67045
5.44798, 11, -4.61296, 26.0394, 30.4579, -4.80959, -70.9131, 2.72817
5.45599, 11, -4.70788, 26.1922, 30.3398, -4.89794, -71.0972, 2.77819
5.4641, 11, -4.78997, 26.3239, 30.2388, -4.97104, -71.2515, 2.82051
5.47198, 11, -4.85918, 26.4343, 30.1548, -5.03133, -71.3777, 2.85476
5.48, 11, -4.91613, 26.5245, 30.087, -5.07823, -71.4774, 2.88146
5.48804, 11, -4.96212, 26.597, 30.0336, -5.11375, -71.5538, 2.90164
5.49598, 11, -4.99839, 26.6541, 29.9929, -5.14002, -71.6092, 2.91646
5.50404, 11, -5.02628, 26.6973, 29.9632, -5.1586, -71.648, 2.92667
5.51304, 11, -5.04685, 26.7289, 29.9423, -5.17123, -71.6739, 2.93343
5.52013, 11, -5.06235, 26.7515, 29.9285, -5.17912, -71.6903, 2.93765
5.53908, 11, -5.08678, 26.7821, 29.9126, -5.18676, -71.7064, 2.94184
5.5404, 11, -5.08678, 26.7821, 29.9126, -5.18676, -71.7064, 2.94184
5.54501, 11, -5.08943, 26.7849, 29.9112, -5.18727, -71.7075, 2.94212
5.55205, 11, -5.09309, 26.7887, 29.9094, -5.18791, -71.7088, 2.94244
5.56, 11, -5.09546, 26.7911, 29.9081, -5.1883, -71.7095, 2.94262
5.56805, 11, -5.0977, 26.793, 29.9072, -5.18855, -71.7099, 2.94273
5.57599, 11, -5.10116, 26.7961, 29.9059, -5.18872, -71.7102, 2.94275
5.58413, 11, -5.10704, 26.8022, 29.9037, -5.18906, -71.7111, 2.94286
5.59107, 12, -5.11621, 26.8134, 29.8995, -5.19023, -71.7138, 2.94317
5.59908, 12, -5.12905, 26.8313, 29.8918, -5.19363, -71.7207, 2.94451
5.608, 12, -5.14693, 26.8576, 29.8786, -5.20061, -71.7346, 2.94785
5.61605, 12, -5.17133, 26.8945, 29.8572, -5.21281, -71.7591, 2.95415
5.62403, 12, -5.20365, 26.9443, 29.8253, -5.23222, -71.7981, 2.96475
5.63107, 12, -5.24504, 27.0096, 29.7802, -5.26069, -71.8577, 2.98096
5.63904, 12, -5.29695, 27.0933, 29.7188, -5.30078, -71.9407, 3.00397
5.64711, 12, -5.36083, 27.1981, 29.6389, -5.35447, -72.0514, 3.03417
5.65544, 12, -5.43761, 27.3262, 29.5385, -5.42085, -72.1914, 3.07166
5.66318, 12, -5.52755, 27.4779, 29.4163, -5.50272, -72.3627, 3.11723
5.67192, 12, -5.62963, 27.6516, 29.2719, -5.59848, -72.5653, 3.17142
5.67999, 12, -5.74229, 27.8457, 29.1062, -5.70773, -72.7979, 3.23337
5.68806, 12, -5.86401, 28.0581, 28.9218, -5.82883, -73.0568, 3.30167
5.69541, 12, -5.9921, 28.2843, 28.7213, -5.95896, -73.3366, 3.37641
5.70392, 12, -6.12335, 28.5197, 28.5078, -6.09522, -73.6305, 3.45387
5.71213, 12, -6.25509, 28.7611, 28.2877, -6.23368, -73.9307, 3.5331
5.71953, 12, -6.38659, 29.0046, 28.0663, -6.37055, -74.2291, 3.61205
5.72808, 12, -6.51772, 29.2447, 27.8473, -6.50199, -74.5174, 3.68766
5.73616, 12, -6.64574, 29.4765, 27.6369, -6.62523, -74.7893, 3.7597
5.74361, 12, -6.70738, 29.5874, 27.5367, -6.68324, -74.9176, 3.82549
5.75221, 12, -6.879, 29.8936, 27.2596, -6.83997, -75.2664, 3.88506
5.75901, 12, -6.93111, 29.9865, 27.1759, -6.88635, -75.3697, 3.91247
5.76804, 12, -7.07065, 30.2355, 26.9544, -7.00644, -75.6383, 3.98336
5.77503, 12, -7.11137, 30.3077, 26.8908, -7.04044, -75.7141, 4.00302
5.78456, 12, -7.21534, 30.4907, 26.7305, -7.12354, -75.9018, 4.052
5.79097, 12, -7.24409, 30.5412, 26.6869, -7.14563, -75.9518, 4.06515
5.80059, 12, -7.31496, 30.6638, 26.5832, -7.19789, -76.0687, 4.09627
5.807, 12, -7.33379, 30.696, 26.5565, -7.21083, -76.0975, 4.10398
5.81639, 12, -7.37826, 30.7708, 26.497, -7.23848, -76.1593, 4.12068
5.82302, 12, -7.3893, 30.7892, 26.4831, -7.24466, -76.1732, 4.12446
5.83284, 12, -7.41399, 30.8286, 26.4546, -7.25653, -76.2006, 4.1316
5.84977, 12, -7.43457, 30.8572, 26.4371, -7.26253, -76.2152, 4.13511
5.85107, 12, -7.43457, 30.8572, 26.4371, -7.26253, -76.2152, 4.13511
5.85494, 12, -7.43791, 30.8612, 26.4349, -7.26317, -76.2167, 4.13547
5.8646, 12, -7.44418, 30.8682, 26.4312, -7.26408, -76.2191, 4.13596
5.87276, 12, -7.44638, 30.8708, 26.4299, -7.26431, -76.2198, 4.13612
5.87998, 12, -7.44743, 30.8722, 26.4293, -7.2644, -76.22, 4.13615
5.88797, 12, -7.45049, 30.8759, 26.4279, -7.26452, -76.2204, 4.13625
5.89703, 13, -7.45595, 30.8829, 26.4254, -7.26475, -76.2221, 4.13635
5.90297, 13, -7.46445, 30.8948, 26.4207, -7.26564, -76.2236, 4.13652
5.91199, 13, -7.47669, 30.913, 26.412, -7.26807, -76.2297, 4.13751
5.9201, 13, -7.49414, 30.9391, 26.3969, -7.27341, -76.242, 4.1403
5.92798, 13, -7.51783, 30.976, 26.3727, -7.28314, -76.2637, 4.14569
5.93598, 13, -7.5486, 31.026, 26.3362, -7.29938, -76.2985, 4.15461
5.94406, 13, -7.58753, 31.0917, 26.2844, -7.32378, -76.3513, 4.16826
5.95098, 13, -7.63557, 31.1758, 26.2142, -7.35786, -76.4257, 4.18735
5.95997, 13, -7.6941, 31.281, 26.1226, -7.40172, -76.5241, 4.21304
5.96801, 13, -7.76418, 31.4092, 26.0074, -7.45702, -76.6492, 4.24589
5.97499, 13, -7.84588, 31.5617, 25.8668, -7.52522, -76.8022, 4.28669
5.98412, 13, -7.93853, 31.7377, 25.7004, -7.60472, -76.9831, 4.33488
5.99201, 13, -8.0407, 31.9345, 25.5102, -7.69579, -77.1909, 4.38976
6.00158, 13, -8.151, 32.1489, 25.2976, -7.79698, -77.4221, 4.48501
6.00797, 13, -8.26741, 32.3787, 25.0657, -7.90607, -77.6725, 4.51916
6.01602, 13, -8.38691, 32.619, 24.8202, -8.02014, -77.9361, 4.58935
6.02403, 13, -8.50692, 32.8641, 24.5655, -8.13641, -78.2059, 4.66244
6.03196, 13, -8.62654, 33.1115, 24.308, -8.25164, -78.4748, 4.73508
6.04001, 13, -8.74632, 33.3582, 24.0543, -8.36285, -78.7353, 4.80565
6.04802, 13, -8.86376, 33.5965, 23.8094, -8.4674, -78.9817, 4.87323
6.05598, 13, -8.97546, 33.8211, 23.5793, -8.56369, -79.2094, 4.93512
6.06406, 13, -9.0793, 34.0283, 23.3682, -8.65044, -79.4156, 4.99168
6.07198, 13, -9.17392, 34.2157, 23.1781, -8.72647, -79.5979, 5.04237
6.07998, 13, -9.2586, 34.382, 23.0112, -8.79276, -79.7553, 5.08607
6.08809, 13, -9.33264, 34.5264, 22.868, -8.84741, -79.8882, 5.12266
6.09599, 13, -9.39571, 34.6481, 22.7482, -8.89291, -79.9974, 5.1525
6.10401, 13, -9.448, 34.7482, 22.6512, -8.92923, -80.0841, 5.17665
6.11203, 13, -9.49084, 34.8288, 22.5747, -8.95688, -80.1515, 5.1954
6.11902, 13, -9.52525, 34.8924, 22.5161, -8.97739, -80.201, 5.20944
6.12797, 13, -9.5522, 34.9412, 22.4732, -8.9916, -80.236, 5.21934
6.13602, 13, -9.57252, 34.9769, 22.443, -9.00115, -80.2596, 5.22609
6.14404, 13, -9.58735, 35.0025, 22.4229, -9.00724, -80.2748, 5.23034
6.15208, 13, -9.59848, 35.0204, 22.4099, -9.01066, -80.2837, 5.23276
6.17129, 13, -9.61498, 35.0433, 22.3958, -9.01377, -80.2917, 5.23492
6.17285, 13, -9.61498, 35.0433, 22.3958, -9.01377, -80.2917, 5.23492
6.17597, 13, -9.61652, 35.0452, 22.3947, -9.01398, -80.2922, 5.23506
6.18396, 13, -9.61862, 35.0477, 22.3931, -9.01425, -80.2929, 5.23519
6.19205, 13, -9.61999, 35.0495, 22.392, -9.01439, -80.2932, 5.23533
6.19939, 13, -9.62188, 35.0522, 22.391, -9.01447, -80.2934, 5.23537
6.20758, 13, -9.62568, 35.0572, 22.3891, -9.01452, -80.2937, 5.2354
6.21613, 13, -9.63194, 35.0664, 22.3853, -9.01487, -80.2949, 5.23547
6.22349, 14, -9.64116, 35.0807, 22.3782, -9.01619, -80.2982, 5.23589
6.23206, 14, -9.65434, 35.1019, 22.3654, -9.01937, -80.3058, 5.23757
6.24014, 14, -9.67283, 35.1326, 22.344, -9.02554, -80.3205, 5.24142
6.24746, 14, -9.68445, 35.1525, 22.3291, -9.03029, -80.3313, 5.24437
6.25611, 14, -9.72933, 35.2333, 22.2617, -9.05318, -80.3826, 5.25883
6.26296, 14, -9.74809, 35.2683, 22.2302, -9.0643, -80.4079, 5.2659
6.27097, 14, -9.79222, 35.3529, 22.1512, -9.09243, -80.4738, 5.28401
6.28003, 14, -9.87627, 35.5201, 21.9863, -9.1498, -80.6124, 5.32282
6.28695, 14, -9.90942, 35.5876, 21.9178, -9.1738, -80.6704, 5.33909
6.29496, 14, -9.98379, 35.7404, 21.7593, -9.23, -80.8047, 5.3774
6.30423, 14, -10.1136, 36.013, 21.469, -9.33134, -81.0516, 5.44846
6.31096, 14, -10.1611, 36.1148, 21.3585, -9.36997, -81.1452, 5.47531
6.32038, 14, -10.314, 36.4474, 20.99, -9.4966, -81.4556, 5.56544
6.32849, 14, -10.4217, 36.6862, 20.7196, -9.58857, -81.6816, 5.63215
6.33655, 14, -10.5306, 36.9334, 20.4349, -9.68369, -81.9169, 5.70109
6.34451, 14, -10.6389, 37.184, 20.1435, -9.77975, -82.1552, 5.77243
6.35257, 14, -10.747, 37.4352, 19.8511, -9.87392, -82.3902, 5.843
6.36058, 14, -10.8545, 37.6835, 19.5657, -9.96371, -82.6161, 5.91119
6.36891, 14, -10.9589, 37.9214, 19.2929, -10.0475, -82.828, 5.97629
6.37649, 14, -11.0089, 38.0344, 19.1628, -10.0869, -82.9276, 6.00666
6.38455, 14, -11.1037, 38.2468, 18.9192, -10.1588, -83.1119, 6.06318
6.39294, 14, -11.1904, 38.5292, 18.6012, -10.2516, -83.3486, 6.13746
6.39995, 14, -11.2686, 38.6126, 18.5082, -10.2776, -83.4166, 6.15899
6.408, 14, -11.3375, 38.7622, 18.3426, -10.3237, -83.5355, 6.19668
6.41595, 14, -11.3967, 38.8889, 18.2041, -10.3623, -83.634, 6.22763
6.42402, 14, -11.4463, 38.9935, 18.0915, -10.3924, -83.7122, 6.25214
6.43201, 14, -11.4869, 39.0779, 18.0024, -10.4157, -83.7732, 6.27115
6.43995, 14, -11.52, 39.1447, 17.9344, -10.4328, -83.8181, 6.28538
6.44795, 14, -11.546, 39.1962, 17.8841, -10.445, -83.8498, 6.29576
6.456, 14, -11.5656, 39.2342, 17.8486, -10.4532, -83.8713, 6.30285
6.4641, 14, -11.5805, 39.2617, 17.8249, -10.4584, -83.8849, 6.30721
6.48377, 14, -11.6039, 39.2997, 17.7974, -10.4636, -83.8985, 6.31157
6.48578, 14, -11.6065, 39.3037, 17.7951, -10.464, -83.8995, 6.31186
6.48798, 14, -11.6065, 39.3037, 17.7951, -10.464, -83.8995, 6.31186
6.49595, 14, -11.6101, 39.3089, 17.792, -10.4645, -83.9006, 6.3122
6.50401, 14, -11.612, 39.3118, 17.7902, -10.4648, -83.9011, 6.31242
6.51301, 14, -11.6132, 39.3139, 17.789, -10.4649, -83.9014, 6.31255
6.51994, 14, -11.615, 39.3165, 17.7878, -10.465, -83.9016, 6.31263
6.52802, 14, -11.6185, 39.3214, 17.7859, -10.4651, -83.9018, 6.31263
6.53595, 14, -11.6244, 39.3302, 17.782, -10.4654, -83.9027, 6.31278
6.54394, 15, -11.6331, 39.3437, 17.7745, -10.4663, -83.9054, 6.31325
6.55213, 15, -11.6455, 39.3639, 17.7607, -10.4688, -83.9117, 6.31498
6.55895, 15, -11.6625, 39.3937, 17.7376, -10.4736, -83.9242, 6.31888
6.56795, 15, -11.6849, 39.4358, 17.7014, -10.4821, -83.9455, 6.32563
6.57601, 15, -11.7135, 39.4922, 17.6483, -10.4955, -83.9781, 6.33643
6.58395, 15, -11.7489, 39.5654, 17.5742, -10.5148, -84.0245, 6.35217
6.59205, 15, -11.7922, 39.6583, 17.4754, -10.5402, -84.0888, 6.37351
6.59999, 15, -11.8441, 39.7732, 17.3488, -10.5723, -84.1711, 6.40062
6.60796, 15, -11.9051, 39.9115, 17.1917, -10.6116, -84.274, 6.43441
6.61598, 15, -11.9755, 40.0738, 17.0036, -10.6598, -84.3972, 6.47539
6.62398, 15, -12.0543, 40.2587, 16.785, -10.7146, -84.5407, 6.52401
6.63194, 15, -12.1407, 40.4651, 16.536, -10.7763, -84.7029, 6.57875
6.63998, 15, -12.2334, 40.6915, 16.2602, -10.8441, -84.8817, 6.63923
6.64802, 15, -12.3302, 40.9325, 15.9614, -10.916, -85.0736, 6.70616
6.65594, 15, -12.4284, 41.1821, 15.6456, -10.9914, -85.2743, 6.776
6.66397, 15, -12.5258, 41.4362, 15.32, -11.0674, -85.4791, 6.84784
6.67199, 15, -12.6228, 41.6912, 14.9914, -11.1426, -85.6825, 6.92073
6.67995, 15, -12.7199, 41.9441, 14.6677, -11.2151, -85.8794, 6.99132
6.68799, 15, -12.815, 42.189, 14.3564, -11.283, -86.0654, 7.05951
6.69601, 15, -12.9053, 42.4189, 14.0644, -11.3453, -86.2367, 7.12264
6.70345, 15, -12.9895, 42.6304, 13.7967, -11.4013, -86.391, 7.1796
6.71195, 15, -13.0668, 42.8228, 13.5584, -11.4494, -86.5264, 7.2309
6.72008, 15, -13.1362, 42.9938, 13.3504, -11.4915, -86.6428, 7.27571
6.72753, 15, -13.1971, 43.1409, 13.1726, -11.5264, -86.74, 7.31308
6.73608, 15, -13.2494, 43.2645, 13.0248, -11.5544, -86.8193, 7.34352
6.7438, 15, -13.2927, 43.3661, 12.9058, -11.5764, -86.8823, 7.36754
6.7516, 15, -13.3114, 43.4092, 12.856, -11.5931, -86.9302, 7.3859
6.76012, 15, -13.357, 43.5115, 12.7412, -11.6055, -86.9658, 7.39962
6.76696, 15, -13.369, 43.5377, 12.7132, -11.6102, -86.9796, 7.40485
6.77598, 15, -13.397, 43.596, 12.6538, -11.6199, -87.0082, 7.41567
6.78301, 15, -13.404, 43.6099, 12.6406, -11.6219, -87.0142, 7.41801
6.79219, 15, -13.4203, 43.6411, 12.6149, -11.6256, -87.0251, 7.42217
6.79896, 15, -13.4243, 43.6486, 12.6097, -11.6262, -87.027, 7.42289
6.80834, 15, -13.4331, 43.6636, 12.6002, -11.6272, -87.0299, 7.42406
6.81672, 16, -13.4361, 43.6689, 12.5972, -11.6275, -87.0306, 7.42438
6.82435, 16, -13.4376, 43.6721, 12.5956, -11.6277, -87.031, 7.42453
6.83277, 16, -13.4385, 43.6743, 12.5945, -11.6278, -87.0312, 7.4246
6.84052, 16, -13.4391, 43.676, 12.5938, -11.6278, -87.0312, 7.42463
6.84848, 16, -13.4396, 43.6774, 12.5934, -11.6279, -87.0313, 7.42464
6.85678, 16, -13.4401, 43.6785, 12.593, -11.6279, -87.0313, 7.42467
6.86502, 16, -13.4406, 43.6795, 12.5927, -11.628, -87.0313, 7.42471
6.87249, 16, -13.4408, 43.6799, 12.5926, -11.628, -87.0313, 7.42468
6.88089, 16, -13.4415, 43.6808, 12.5922, -11.628, -87.0313, 7.42469
6.88797, 16, -13.4417, 43.681, 12.5921, -11.628, -87.0313, 7.42472
6.89593, 16, -13.442, 43.6814, 12.5917, -11.628, -87.0312, 7.4247
6.90395, 16, -13.4424, 43.6816, 12.5914, -11.628, -87.0312, 7.42468
6.91318, 16, -13.4426, 43.6817, 12.5912, -11.628, -87.0312, 7.42472
6.91896, 16, -13.4429, 43.6818, 12.5909, -11.628, -87.0312, 7.4247
6.92804, 16, -13.4431, 43.6818, 12.5907, -11.628, -87.0312, 7.42466
6.93603, 16, -13.4433, 43.6818, 12.5905, -11.628, -87.0312, 7.42472
