hehonglu123/ABB_Primitive_Study/realrobot/movelcl_30_car2/curve_exe_v300_fine.csv
timestamp, cmd_num, J1, J2, J3, J4, J5, J6
0.000374, -1, -13.4403, 43.6804, 12.5929, -11.6281, -87.0288, 7.42439
0.003537, -1, -13.4403, 43.6804, 12.5929, -11.6281, -87.0288, 7.42443
0.026087, -1, -13.4403, 43.6804, 12.5929, -11.628, -87.0288, 7.42439
0.028104, -1, -13.4403, 43.6804, 12.5929, -11.628, -87.0288, 7.4244
0.029369, -1, -13.4403, 43.6804, 12.5929, -11.628, -87.0288, 7.4244
0.033, -1, -13.4403, 43.6804, 12.5929, -11.6279, -87.0288, 7.42444
0.040188, -1, -13.4403, 43.6804, 12.5929, -11.628, -87.0288, 7.4244
0.047056, -1, -13.4403, 43.6804, 12.5929, -11.628, -87.0288, 7.42437
0.056181, -1, -13.4386, 43.6794, 12.593, -11.628, -87.0288, 7.42439
0.063037, -1, -13.4372, 43.6783, 12.5931, -11.628, -87.0288, 7.42436
0.071066, -1, -13.4319, 43.6741, 12.5938, -11.6277, -87.0284, 7.42437
0.080257, -1, -13.4173, 43.662, 12.5967, -11.6246, -87.0238, 7.42394
0.08703, -1, -13.4102, 43.6561, 12.5983, -11.6214, -87.0198, 7.42312
0.095077, -1, -13.3909, 43.6404, 12.6028, -11.6097, -87.0058, 7.41724
0.103029, -1, -13.3636, 43.6178, 12.6097, -11.5883, -86.9804, 7.40258
0.113233, -1, -13.3069, 43.5696, 12.6258, -11.5295, -86.9121, 7.36057
0.119107, -1, -13.2831, 43.5489, 12.6328, -11.5002, -86.8786, 7.33974
0.128614, -1, -13.1953, 43.4716, 12.6607, -11.3797, -86.7385, 7.25114
0.137476, -1, -13.1225, 43.4064, 12.6847, -11.2675, -86.6086, 7.16862
0.143122, -1, -13.0818, 43.3696, 12.6984, -11.2017, -86.5321, 7.12013
0.15262, -1, -12.9417, 43.2422, 12.7469, -10.9643, -86.2557, 6.94368
0.161443, -1, -12.8889, 43.1941, 12.7655, -10.8723, -86.0346, 6.80235
0.167105, -1, -12.7748, 43.0901, 12.8056, -10.6712, -85.914, 6.72512
0.177098, -1, -12.5838, 42.9166, 12.8727, -10.3315, -85.5179, 6.4711
0.183088, -1, -12.5153, 42.8544, 12.8968, -10.2104, -85.3764, 6.38054
0.192044, -1, -12.3715, 42.7243, 12.9471, -9.95897, -85.0826, 6.19237
0.200075, -1, -12.2204, 42.588, 12.9996, -9.69858, -84.7782, 5.99727
0.208024, -1, -12.0635, 42.4465, 13.0535, -9.43234, -84.4669, 5.79764
0.215063, -1, -11.9015, 42.3011, 13.1088, -9.16262, -84.1514, 5.595
0.223028, -1, -11.7347, 42.1524, 13.165, -8.89081, -83.8336, 5.391
0.232038, -1, -11.5651, 42.0016, 13.2217, -8.61789, -83.5147, 5.18655
0.239028, -1, -11.394, 41.8497, 13.2787, -8.34456, -83.1949, 4.98161
0.24806, -1, -11.2221, 41.6974, 13.3358, -8.07096, -82.8747, 4.77645
0.25607, -1, -11.05, 41.5455, 13.3931, -7.79702, -82.5543, 4.57119
0.263024, -1, -10.8777, 41.394, 13.4505, -7.52327, -82.2337, 4.3656
0.27204, -1, -10.7054, 41.2425, 13.5081, -7.2494, -81.9128, 4.1601
0.280024, -1, -10.5328, 41.0908, 13.5658, -6.97516, -81.592, 3.95476
0.289585, -1, -10.3602, 40.9391, 13.6235, -6.70121, -81.2715, 3.74933
0.295021, -1, -10.1879, 40.7877, 13.6811, -6.42744, -80.9508, 3.54398
0.304046, -1, -10.0159, 40.6363, 13.7385, -6.15362, -80.6308, 3.33847
0.313024, -1, -9.84434, 40.4846, 13.7959, -5.87998, -80.3109, 3.13323
0.320022, -1, -9.67335, 40.3325, 13.8532, -5.60642, -79.9912, 2.92819
0.328031, -1, -9.50292, 40.1802, 13.9105, -5.33308, -79.6716, 2.72351
0.336069, -1, -9.33325, 40.0282, 13.9677, -5.0598, -79.352, 2.51879
0.343097, -1, -9.16412, 39.8763, 14.0248, -4.78691, -79.0326, 2.31425
0.352093, -1, -8.9952, 39.7242, 14.0819, -4.51444, -78.7135, 2.10977
0.359033, -1, -8.82618, 39.5722, 14.1389, -4.24234, -78.3945, 1.90592
0.368029, -1, -8.65685, 39.4206, 14.1958, -3.97075, -78.0764, 1.70228
0.37613, -1, -8.48717, 39.2697, 14.2527, -3.69944, -77.7589, 1.49892
0.383124, -1, -8.31729, 39.1191, 14.3096, -3.42845, -77.4419, 1.29586
0.391191, -1, -8.14738, 38.9688, 14.3664, -3.1582, -77.1256, 1.09306
0.399142, -1, -7.97729, 38.8186, 14.4231, -2.88835, -76.8098, 0.890838
0.407145, -1, -7.80718, 38.6688, 14.4797, -2.61887, -76.4944, 0.689048
0.415202, -1, -7.63679, 38.5196, 14.536, -2.35017, -76.1795, 0.487766
0.42306, -1, -7.46645, 38.3706, 14.5923, -2.08206, -75.8653, 0.286854
0.431059, -1, -7.29633, 38.2217, 14.6485, -1.8141, -75.5516, 0.0862244
0.439129, -1, -7.1268, 38.0729, 14.7047, -1.54678, -75.2389, -0.114044
0.447141, -1, -6.95809, 37.9242, 14.7607, -1.28034, -74.9269, -0.313469
0.4552, -1, -6.79058, 37.7761, 14.8165, -1.01454, -74.6158, -0.512262
0.463282, -1, -6.62385, 37.6282, 14.872, -0.749448, -74.3055, -0.71083
0.47155, -1, -6.458, 37.4806, 14.9274, -0.485392, -73.9959, -0.908845
0.48002, -1, -6.29354, 37.3331, 14.9827, -0.221676, -73.6873, -1.10652
0.488116, -1, -6.13001, 37.1862, 15.0379, 0.0414526, -73.3794, -1.30336
0.49551, -1, -5.96734, 37.0403, 15.093, 0.303555, -73.0725, -1.49945
0.504143, -1, -5.80518, 36.8949, 15.1479, 0.564806, -72.7666, -1.69491
0.511601, -1, -5.64315, 36.7498, 15.2025, 0.82532, -72.4617, -1.88994
0.520132, -1, -5.48109, 36.6052, 15.257, 1.08473, -72.1576, -2.08438
0.527678, -1, -5.31907, 36.4611, 15.3114, 1.34344, -71.8546, -2.27825
0.536238, -1, -5.15711, 36.3177, 15.3656, 1.6015, -71.5524, -2.47142
0.543582, -1, -5.07619, 36.2461, 15.3927, 1.73026, -71.4017, -2.56768
0.552047, -1, -4.83387, 36.0321, 15.4736, 2.11472, -70.9515, -2.8556
0.559019, -1, -4.75325, 35.9609, 15.5004, 2.24243, -70.8019, -2.95126
0.568245, -1, -4.51143, 35.7476, 15.5807, 2.62417, -70.3548, -3.23752
0.575068, -1, -4.43083, 35.6769, 15.6073, 2.75081, -70.2064, -3.3326
0.584303, -1, -4.18952, 35.4656, 15.6868, 3.12939, -69.7631, -3.61629
0.591013, -1, -4.1095, 35.3954, 15.7132, 3.25536, -69.6158, -3.71046
0.600403, -1, -3.87133, 35.1851, 15.7924, 3.63171, -69.1754, -3.992
0.607029, -1, -3.7926, 35.1152, 15.8185, 3.75658, -69.0292, -4.08545
0.616592, -1, -3.55803, 34.9066, 15.8968, 4.12994, -68.5918, -4.36499
0.624669, -1, -3.40274, 34.7684, 15.9486, 4.37768, -68.3015, -4.55057
0.632586, -1, -3.24835, 34.6309, 16.0004, 4.62436, -68.0123, -4.73521
0.640617, -1, -3.09504, 34.4939, 16.052, 4.87018, -67.7243, -4.91914
0.648645, -1, -2.94286, 34.3572, 16.1036, 5.11533, -67.4377, -5.10223
0.656601, -1, -2.86702, 34.2211, 16.1549, 5.35938, -67.1521, -5.28483
0.664811, -1, -2.71568, 34.1534, 16.1804, 5.48087, -67.0097, -5.37582
0.67273, -1, -2.56463, 34.0186, 16.2313, 5.72322, -66.7262, -5.64798
0.680011, -1, -2.41346, 33.8843, 16.2821, 5.96457, -66.4438, -5.73821
0.68801, -1, -2.26238, 33.7504, 16.3326, 6.20486, -66.1625, -5.91808
0.696058, -1, -2.11175, 33.6168, 16.3829, 6.44402, -65.8822, -6.0971
0.703047, -1, -1.96146, 33.4838, 16.433, 6.68242, -65.6029, -6.27541
0.71202, -1, -1.8117, 33.3513, 16.4827, 6.91996, -65.3249, -6.45334
0.720055, -1, -1.66232, 33.2193, 16.5322, 7.1563, -65.048, -6.63042
0.727032, -1, -1.51306, 33.0878, 16.5815, 7.39148, -64.7722, -6.80699
0.736007, -1, -1.36392, 32.9568, 16.6307, 7.62586, -64.4976, -6.98246
0.744081, -1, -1.21526, 32.8262, 16.6797, 7.8593, -64.2242, -7.15721
0.75102, -1, -1.06775, 32.6963, 16.7285, 8.09168, -63.9519, -7.3314
0.760009, -1, -0.92141, 32.5673, 16.7771, 8.32316, -63.6809, -7.50488
0.768074, -1, -0.776355, 32.4387, 16.8254, 8.55395, -63.411, -7.67778
0.775533, -1, -0.632315, 32.3108, 16.8735, 8.78354, -63.1424, -7.84975
0.783011, -1, -0.48905, 32.1834, 16.9215, 9.01197, -62.8748, -8.02092
0.792069, -1, -0.346913, 32.0564, 16.9694, 9.23949, -62.6085, -8.19114
0.799801, -1, -0.205858, 31.9302, 17.0169, 9.46619, -62.3433, -8.36056
0.808094, -1, -0.0657914, 31.8045, 17.0642, 9.69175, -62.0792, -8.52936
0.817124, -1, 0.0734541, 31.6793, 17.1114, 9.9161, -61.8161, -8.69729
0.823784, -1, 0.212362, 31.5545, 17.1582, 10.1397, -61.5541, -8.86488
0.83209, -1, 0.351306, 31.4301, 17.2049, 10.3624, -61.2932, -9.03166
0.840066, -1, 0.490357, 31.3062, 17.2514, 10.5841, -61.0333, -9.19753
0.847815, -1, 0.629242, 31.1829, 17.2977, 10.8048, -60.7745, -9.36269
0.856072, -1, 0.767838, 31.0602, 17.3438, 11.0245, -60.5169, -9.52709
0.863143, -1, 0.906015, 30.9379, 17.3897, 11.2435, -60.2605, -9.69099
0.871872, -1, 1.04372, 30.8161, 17.4354, 11.4614, -60.005, -9.85413
0.880067, -1, 1.1811, 30.6948, 17.481, 11.6784, -59.751, -10.0169
0.888016, -1, 1.31827, 30.5739, 17.5262, 11.8946, -59.4981, -10.1786
0.896017, -1, 1.45506, 30.4538, 17.5714, 12.11, -59.2465, -10.3396
0.903133, -1, 1.5912, 30.3343, 17.6164, 12.3245, -58.9957, -10.4999
0.911121, -1, 1.72656, 30.2154, 17.6613, 12.5379, -58.7457, -10.6595
0.919946, -1, 1.86095, 30.097, 17.7059, 12.7505, -58.4968, -10.8187
0.928127, -1, 1.99434, 29.9789, 17.7503, 12.9623, -58.2486, -10.9771
0.935042, -1, 2.12694, 29.8613, 17.7946, 13.173, -58.0015, -11.135
0.943926, -1, 2.25881, 29.7442, 17.8386, 13.3828, -57.7551, -11.2924
0.952064, -1, 2.3898, 29.6277, 17.8824, 13.5919, -57.5098, -11.4489
0.960053, -1, 2.51987, 29.5116, 17.9261, 13.8003, -57.2656, -11.6048
0.967335, -1, 2.64893, 29.3958, 17.9696, 14.0078, -57.0226, -11.7601
0.975298, -1, 2.77722, 29.2805, 18.013, 14.2144, -56.7808, -11.9149
0.983396, -1, 2.90491, 29.1653, 18.0561, 14.42, -56.5398, -12.0691
0.992784, -1, 3.0324, 29.0506, 18.0991, 14.625, -56.3001, -12.2228
1.00008, -1, 3.15981, 28.9365, 18.1418, 14.8291, -56.0612, -12.3757
1.00835, -1, 3.2874, 28.823, 18.1844, 15.0323, -55.8234, -12.528
1.01558, -1, 3.41461, 28.7099, 18.227, 15.2347, -55.5864, -12.6794
1.02411, -1, 3.54149, 28.5974, 18.2693, 15.4366, -55.3504, -12.8302
1.03241, -1, 3.60484, 28.4852, 18.3116, 15.6377, -55.1152, -12.9805
1.0396, -1, 3.73141, 28.4292, 18.3327, 15.8377, -54.8806, -13.1302
1.0476, -1, 3.85759, 28.3178, 18.3745, 15.9374, -54.7638, -13.2796
1.05688, -1, 4.04639, 28.1519, 18.4371, 16.2355, -54.4143, -13.4283
1.06499, -1, 4.17184, 28.0418, 18.4786, 16.4332, -54.1823, -13.5763
1.07204, -1, 4.29672, 27.9321, 18.5199, 16.6302, -53.9516, -13.7237
1.079, -1, 4.3589, 27.8774, 18.5406, 16.7283, -53.8366, -13.7972
1.087, -1, 4.48267, 27.7682, 18.5818, 16.924, -53.6072, -13.9436
1.09504, -1, 4.606, 27.6592, 18.6227, 17.1192, -53.3788, -14.0896
1.10512, -1, 4.78998, 27.4967, 18.6838, 17.4105, -53.0378, -14.3075
1.11105, -1, 4.8509, 27.4427, 18.704, 17.5072, -52.9245, -14.3801
1.12051, -1, 5.03264, 27.2813, 18.7648, 17.7961, -52.586, -14.5966
1.12935, -1, 5.15301, 27.1742, 18.8051, 17.9879, -52.3615, -14.7401
1.13504, -1, 5.21282, 27.1208, 18.8251, 18.0837, -52.2496, -14.8117
1.1451, -1, 5.3909, 26.961, 18.885, 18.3694, -51.915, -15.0253
1.15338, -1, 5.50881, 26.8551, 18.9249, 18.5592, -51.6928, -15.1672
1.15907, -1, 5.56761, 26.8022, 18.9448, 18.6538, -51.5821, -15.238
1.16862, -1, 5.68491, 26.6971, 18.9844, 18.9367, -51.2509, -15.4496
1.17599, -1, 5.80188, 26.5924, 19.0239, 19.0307, -51.141, -15.5201
1.18401, -1, 5.91859, 26.4881, 19.0632, 19.2181, -50.9214, -15.6605
1.19204, -1, 6.03512, 26.384, 19.1024, 19.4046, -50.7026, -15.8002
1.19999, -1, 6.15155, 26.2802, 19.1414, 19.5906, -50.4849, -15.9395
1.20708, -1, 6.26792, 26.1767, 19.1802, 19.776, -50.2679, -16.0782
1.21604, -1, 6.3843, 26.0735, 19.2189, 19.9606, -50.0514, -16.2166
1.224, -1, 6.50061, 25.9707, 19.2575, 20.1446, -49.8358, -16.3544
1.23099, -1, 6.61664, 25.8683, 19.296, 20.3277, -49.621, -16.4919
1.23999, -1, 6.73239, 25.7662, 19.3343, 20.5104, -49.4071, -16.6291
1.24799, -1, 6.84758, 25.6646, 19.3724, 20.6927, -49.1939, -16.7657
1.255, -1, 6.96243, 25.5633, 19.4105, 20.8742, -48.9814, -16.9015
1.26399, -1, 7.07687, 25.4622, 19.4486, 21.055, -48.77, -17.0371
1.27199, -1, 7.19071, 25.3617, 19.4864, 21.2352, -48.5593, -17.1718
1.27899, -1, 7.30409, 25.2616, 19.5241, 21.4148, -48.349, -17.3061
1.28799, -1, 7.41699, 25.1619, 19.5618, 21.594, -48.1393, -17.4401
1.29603, -1, 7.52939, 25.0626, 19.5992, 21.7725, -47.9303, -17.5736
1.30299, -1, 7.64128, 24.9636, 19.6366, 21.9503, -47.7219, -17.7069
1.311, -1, 7.75258, 24.8648, 19.6739, 22.1276, -47.5142, -17.8397
1.32, -1, 7.86344, 24.7663, 19.7109, 22.3044, -47.3068, -17.972
1.32806, -1, 7.97389, 24.6679, 19.748, 22.4808, -47.1004, -18.1038
1.33599, -1, 8.08396, 24.5699, 19.7849, 22.6565, -46.8945, -18.2351
1.34399, -1, 8.19356, 24.4722, 19.8214, 22.8314, -46.6894, -18.3659
1.35199, -1, 8.30275, 24.3747, 19.8579, 23.0058, -46.485, -18.4965
1.36, -1, 8.41161, 24.2775, 19.8944, 23.1798, -46.2814, -18.6267
1.36817, -1, 8.51987, 24.1807, 19.9307, 23.3532, -46.0784, -18.7564
1.37508, -1, 8.62751, 24.084, 19.9669, 23.5259, -45.8761, -18.886
1.38399, -1, 8.73477, 23.9877, 20.0031, 23.6981, -45.6745, -19.0151
1.39205, -1, 8.84194, 23.8917, 20.039, 23.8697, -45.4736, -19.1434
1.39999, -1, 8.94913, 23.7963, 20.0749, 24.041, -45.2734, -19.2716
1.40716, -1, 9.05627, 23.7012, 20.1108, 24.2117, -45.0739, -19.3992
1.41506, -1, 9.16331, 23.6065, 20.1465, 24.3819, -44.8747, -19.5265
1.423, -1, 9.27012, 23.512, 20.1821, 24.5515, -44.6761, -19.6534
1.43127, -1, 9.37669, 23.4179, 20.2177, 24.7204, -44.478, -19.7801
1.43921, -1, 9.48301, 23.324, 20.2531, 24.8891, -44.2804, -19.9062
1.44707, -1, 9.58907, 23.2302, 20.2884, 25.0573, -44.0835, -20.0323
1.45518, -1, 9.69479, 23.1366, 20.3237, 25.2249, -43.8868, -20.158
1.46319, -1, 9.80032, 23.0434, 20.3587, 25.392, -43.6908, -20.2829
1.47131, -1, 9.90556, 22.9505, 20.3936, 25.5585, -43.4957, -20.4076
1.47932, -1, 10.0105, 22.8576, 20.4285, 25.7247, -43.3012, -20.5319
1.48762, -1, 10.1149, 22.7651, 20.4633, 25.8907, -43.1072, -20.6559
1.49602, -1, 10.219, 22.673, 20.4978, 26.0559, -42.9138, -20.7795
1.50414, -1, 10.3228, 22.581, 20.5323, 26.2206, -42.721, -20.9031
1.51155, -1, 10.4261, 22.4892, 20.5669, 26.3848, -42.5286, -21.0261
1.52009, -1, 10.5291, 22.3978, 20.6013, 26.5486, -42.3368, -21.1489
1.52815, -1, 10.6317, 22.3067, 20.6356, 26.7121, -42.1455, -21.2714
1.53575, -1, 10.6829, 22.2159, 20.6698, 26.8749, -41.9549, -21.3932
1.54399, -1, 10.8361, 22.1253, 20.7038, 27.0373, -41.7648, -21.5147
1.55212, -1, 10.9376, 22.0349, 20.7379, 27.199, -41.5753, -21.6357
1.55898, -1, 10.9881, 21.9898, 20.7549, 27.2798, -41.4807, -21.6961
1.56803, -1, 11.1394, 21.8549, 20.8057, 27.5218, -41.1974, -21.877
1.57499, -1, 11.1897, 21.8101, 20.8225, 27.6022, -41.1033, -21.937
1.58428, -1, 11.3403, 21.6757, 20.8731, 27.8427, -40.8216, -22.1171
1.59102, -1, 11.3903, 21.631, 20.8899, 27.9227, -40.728, -22.177
1.60028, -1, 11.5397, 21.4974, 20.94, 28.1616, -40.4477, -22.3565
1.60704, -1, 11.5893, 21.453, 20.9567, 28.2411, -40.3544, -22.416
1.61646, -1, 11.7379, 21.3201, 21.0067, 28.4793, -40.0758, -22.594
1.62444, -1, 11.8368, 21.232, 21.0397, 28.6373, -39.8906, -22.7121
1.63284, -1, 11.9357, 21.1441, 21.0728, 28.7949, -39.7057, -22.8299
1.6406, -1, 12.0346, 21.0565, 21.106, 28.9521, -39.5215, -22.9477
1.64914, -1, 12.1334, 20.969, 21.1388, 29.109, -39.3377, -23.065
1.65507, -1, 12.1828, 20.9255, 21.1552, 29.1874, -39.2461, -23.1237
1.66461, -1, 12.3305, 20.7949, 21.2044, 29.422, -38.9716, -23.2992
1.67261, -1, 12.3796, 20.7515, 21.2207, 29.5778, -38.7894, -23.4158
1.67997, -1, 12.4776, 20.6649, 21.2533, 29.6555, -38.6983, -23.4742
1.68806, -1, 12.5754, 20.5784, 21.2858, 29.8105, -38.5165, -23.5902
1.69603, -1, 12.673, 20.4921, 21.3183, 29.9653, -38.3355, -23.7061
1.70397, -1, 12.7703, 20.4059, 21.3507, 30.1198, -38.155, -23.8214
1.71212, -1, 12.8673, 20.3199, 21.3828, 30.2738, -37.9749, -23.9365
1.72003, -1, 12.964, 20.234, 21.4151, 30.4275, -37.7953, -24.0515
1.72705, -1, 13.0604, 20.1483, 21.4473, 30.5805, -37.616, -24.166
1.73598, -1, 13.1566, 20.063, 21.4792, 30.7332, -37.437, -24.2804
1.74406, -1, 13.2524, 19.9779, 21.5112, 30.8858, -37.2584, -24.3946
1.75206, -1, 13.3478, 19.8929, 21.5432, 31.038, -37.0802, -24.5085
1.76001, -1, 13.4431, 19.8082, 21.575, 31.1898, -36.9024, -24.6223
1.76804, -1, 13.5381, 19.7238, 21.6066, 31.3412, -36.7248, -24.7353
1.77604, -1, 13.6329, 19.6395, 21.6383, 31.4922, -36.5479, -24.8485
1.78398, -1, 13.7275, 19.5554, 21.6701, 31.6427, -36.3713, -24.9614
1.79105, -1, 13.8218, 19.4715, 21.7015, 31.7931, -36.1951, -25.0738
1.80009, -1, 13.916, 19.3879, 21.733, 31.9432, -36.0193, -25.1863
1.80902, -1, 14.01, 19.3045, 21.7645, 32.0929, -35.8441, -25.2984
1.81506, -1, 14.104, 19.2212, 21.7958, 32.2422, -35.6692, -25.4104
1.82302, -1, 14.1977, 19.1382, 21.8269, 32.3911, -35.4947, -25.5224
1.83197, -1, 14.291, 19.0553, 21.8581, 32.5397, -35.3207, -25.6338
1.83998, -1, 14.384, 18.9726, 21.8892, 32.6881, -35.147, -25.7451
1.84805, -1, 14.4767, 18.8901, 21.9202, 32.8364, -34.9738, -25.8559
1.85597, -1, 14.5692, 18.8076, 21.9512, 32.9841, -34.8012, -25.9664
1.86405, -1, 14.6614, 18.7253, 21.9822, 33.1315, -34.6289, -26.0767
1.87204, -1, 14.7533, 18.6433, 22.013, 33.2784, -34.4571, -26.1864
1.87999, -1, 14.8452, 18.5615, 22.0436, 33.4251, -34.2852, -26.2963
1.88797, -1, 14.9368, 18.4799, 22.0744, 33.5716, -34.1138, -26.4057
1.89604, -1, 15.0284, 18.3984, 22.1051, 33.7177, -33.9426, -26.515
1.90399, -1, 15.1197, 18.3172, 22.1356, 33.8634, -33.772, -26.6243
1.91116, -1, 15.2109, 18.2363, 22.1661, 34.0087, -33.6016, -26.7332
1.91915, -1, 15.3021, 18.1554, 22.1966, 34.1536, -33.4314, -26.842
1.92699, -1, 15.3932, 18.0747, 22.2271, 34.2984, -33.2615, -26.9502
1.93508, -1, 15.4844, 17.9941, 22.2573, 34.443, -33.0923, -27.0584
1.94302, -1, 15.5754, 17.9137, 22.2876, 34.5873, -32.9234, -27.1662
1.95106, -1, 15.6661, 17.8335, 22.3179, 34.7312, -32.7551, -27.2736
1.95925, -1, 15.7567, 17.7534, 22.3479, 34.8748, -32.587, -27.3811
1.96714, -1, 15.8469, 17.6735, 22.3778, 35.0179, -32.4191, -27.4882
1.97531, -1, 15.9371, 17.5936, 22.4079, 35.1608, -32.2518, -27.5953
1.98331, -1, 16.027, 17.5139, 22.4379, 35.3037, -32.0846, -27.7022
1.99137, -1, 16.1167, 17.4345, 22.4677, 35.4462, -31.918, -27.8091
1.99957, -1, 16.206, 17.3551, 22.4974, 35.5884, -31.7516, -27.9157
2.00812, -1, 16.295, 17.2758, 22.5272, 35.7302, -31.5853, -28.0218
2.0155, -1, 16.3838, 17.1968, 22.5569, 35.8717, -31.4198, -28.1279
2.02408, -1, 16.4724, 17.1179, 22.5865, 36.0129, -31.2543, -28.2335
2.03214, -1, 16.5607, 17.0392, 22.616, 36.1541, -31.0891, -28.3392
2.0405, -1, 16.649, 16.9607, 22.6456, 36.2951, -30.9242, -28.4442
2.04803, -1, 16.7371, 16.8823, 22.675, 36.4357, -30.7596, -28.5495
2.05604, -1, 16.8251, 16.8042, 22.7043, 36.5759, -30.5953, -28.6545
2.063, -1, 16.8691, 16.7652, 22.719, 36.6458, -30.5133, -28.7069
2.072, -1, 17.0009, 16.6483, 22.7631, 36.8555, -30.2679, -28.8642
2.07904, -1, 17.0447, 16.6094, 22.7778, 36.9253, -30.1862, -28.9164
2.08818, -1, 17.1757, 16.493, 22.8215, 37.1343, -29.9415, -29.0729
2.09503, -1, 17.2191, 16.4544, 22.836, 37.2037, -29.8599, -29.1247
2.10469, -1, 17.3446, 16.3416, 22.8791, 37.4114, -29.6167, -29.2801
2.1123, -1, 17.4221, 16.2712, 22.9064, 37.5474, -29.457, -29.3822
2.11907, -1, 17.4587, 16.2381, 22.9195, 37.6141, -29.3788, -29.4323
2.12886, -1, 17.56, 16.1479, 22.9562, 37.8032, -29.1567, -29.574
2.13652, -1, 17.6196, 16.0956, 22.9779, 37.9156, -29.0246, -29.6584
2.14452, -1, 17.6722, 16.0494, 22.9971, 38.0127, -28.9099, -29.7315
2.15257, -1, 17.7188, 16.0079, 23.0132, 38.0914, -28.8169, -29.7916
2.16058, -1, 17.7601, 15.9702, 23.0265, 38.1518, -28.7451, -29.8372
2.16856, -1, 17.7788, 15.9533, 23.0371, 38.1934, -28.695, -29.8695
2.17661, -1, 17.8115, 15.9241, 23.0413, 38.221, -28.6619, -29.8904
2.18399, -1, 17.8377, 15.9022, 23.0477, 38.2305, -28.6505, -29.8975
2.19195, -1, 17.858, 15.8868, 23.052, 38.2431, -28.6353, -29.9068
2.20002, -1, 17.8719, 15.8765, 23.0546, 38.2498, -28.6273, -29.9116
2.20795, -1, 17.8797, 15.8706, 23.0561, 38.2531, -28.6233, -29.9139
2.21593, 2, 17.8834, 15.8675, 23.0568, 38.2546, -28.6215, -29.9151
2.22401, 2, 17.8849, 15.8659, 23.0571, 38.2553, -28.6206, -29.9155
2.23196, 2, 17.885, 15.8649, 23.0572, 38.2556, -28.6202, -29.9158
2.23997, 2, 17.8846, 15.8644, 23.0573, 38.2558, -28.62, -29.9159
2.248, 2, 17.8841, 15.8641, 23.0573, 38.2558, -28.6199, -29.9159
2.25596, 2, 17.8837, 15.864, 23.0574, 38.2559, -28.62, -29.9159
2.26399, 2, 17.8835, 15.8639, 23.0574, 38.2559, -28.6199, -29.9159
2.27202, 2, 17.8833, 15.8638, 23.0574, 38.2559, -28.6199, -29.9159
2.27996, 2, 17.8833, 15.8637, 23.0574, 38.2559, -28.6199, -29.9159
2.28796, 2, 17.8834, 15.8635, 23.0574, 38.2559, -28.6199, -29.9159
2.29602, 2, 17.8836, 15.8633, 23.0574, 38.2559, -28.62, -29.9159
2.30593, 2, 17.8841, 15.8631, 23.0574, 38.2559, -28.62, -29.9159
2.31206, 2, 17.8844, 15.863, 23.0574, 38.2559, -28.62, -29.916
2.32096, 2, 17.885, 15.8629, 23.0574, 38.2559, -28.62, -29.916
2.32795, 2, 17.8856, 15.8628, 23.0574, 38.2559, -28.62, -29.9159
2.33595, 2, 17.886, 15.8627, 23.0574, 38.2559, -28.62, -29.9159
2.34402, 2, 17.8864, 15.8626, 23.0574, 38.2559, -28.62, -29.9159
2.35195, 2, 17.8867, 15.8626, 23.0574, 38.2559, -28.62, -29.9159
2.35997, 2, 17.8868, 15.8626, 23.0574, 38.2559, -28.62, -29.9159
2.36802, 2, 17.8869, 15.8626, 23.0574, 38.2559, -28.6201, -29.9159
2.37599, 2, 17.887, 15.8626, 23.0574, 38.2559, -28.6201, -29.9159
2.38396, 2, 17.887, 15.8626, 23.0574, 38.2559, -28.6201, -29.9159
2.39201, 2, 17.887, 15.8626, 23.0574, 38.2559, -28.6201, -29.9159
2.39996, 2, 17.887, 15.8626, 23.0574, 38.2559, -28.6202, -29.9159
2.40795, 2, 17.8868, 15.8626, 23.0574, 38.256, -28.6202, -29.9159
2.41602, 2, 17.8867, 15.8625, 23.0575, 38.2559, -28.6202, -29.9159
2.42396, 2, 17.8866, 15.8625, 23.0574, 38.2559, -28.6202, -29.9158
2.43199, 2, 17.8865, 15.8625, 23.0574, 38.2559, -28.6202, -29.9159
2.44013, 2, 17.8865, 15.8624, 23.0574, 38.2559, -28.6202, -29.9159
2.447, 2, 17.8865, 15.8625, 23.0574, 38.2559, -28.6202, -29.9158
2.45601, 2, 17.8865, 15.8625, 23.0574, 38.2559, -28.6203, -29.9158
2.46403, 2, 17.8865, 15.8624, 23.0574, 38.2559, -28.6203, -29.9159
2.472, 2, 17.8865, 15.8625, 23.0574, 38.2559, -28.6203, -29.9158
2.47934, 2, 17.8865, 15.8625, 23.0574, 38.2559, -28.6203, -29.9158
2.48761, 2, 17.8865, 15.8625, 23.0574, 38.2559, -28.6204, -29.9158
2.49597, 2, 17.8865, 15.8625, 23.0574, 38.2559, -28.6203, -29.9158
2.50401, 2, 17.8865, 15.8625, 23.0574, 38.2559, -28.6204, -29.9158
2.51212, 2, 17.8865, 15.8625, 23.0575, 38.2559, -28.6204, -29.9158
2.52006, 2, 17.8864, 15.8625, 23.0575, 38.2559, -28.6204, -29.9158
2.5276, 2, 17.8864, 15.8625, 23.0574, 38.2558, -28.6204, -29.9158
2.53612, 2, 17.8864, 15.8625, 23.0574, 38.2558, -28.6205, -29.9158
2.54353, 2, 17.8863, 15.8625, 23.0574, 38.2559, -28.6205, -29.9158
2.55196, 2, 17.8863, 15.8625, 23.0574, 38.2559, -28.6205, -29.9158
2.56004, 2, 17.8863, 15.8624, 23.0574, 38.2559, -28.6205, -29.9158
2.56696, 2, 17.8863, 15.8625, 23.0574, 38.2559, -28.6205, -29.9158
2.57601, 2, 17.8862, 15.8625, 23.0574, 38.2559, -28.6206, -29.9158
2.58317, 2, 17.8862, 15.8625, 23.0574, 38.2559, -28.6206, -29.9157
2.59209, 2, 17.8862, 15.8625, 23.0574, 38.2558, -28.6206, -29.9158
2.59906, 2, 17.8862, 15.8625, 23.0574, 38.2559, -28.6206, -29.9158
2.60864, 2, 17.8862, 15.8625, 23.0574, 38.2558, -28.6206, -29.9157
2.61627, 2, 17.8862, 15.8625, 23.0575, 38.2558, -28.6206, -29.9157
2.623, 2, 17.8862, 15.8625, 23.0574, 38.2557, -28.6206, -29.9157
2.63284, 2, 17.8862, 15.8624, 23.0574, 38.2557, -28.6207, -29.9157
2.6405, 2, 17.8862, 15.8624, 23.0574, 38.2557, -28.6206, -29.9157
2.6487, 2, 17.8861, 15.8624, 23.0574, 38.2557, -28.6207, -29.9157
2.65679, 2, 17.8861, 15.8624, 23.0574, 38.2557, -28.6207, -29.9157
2.6645, 2, 17.8861, 15.8625, 23.0574, 38.2558, -28.6207, -29.9157
2.67254, 2, 17.8861, 15.8625, 23.0574, 38.2558, -28.6207, -29.9156
2.6808, 2, 17.8861, 15.8624, 23.0574, 38.2558, -28.6208, -29.9156
2.68794, 2, 17.8861, 15.8625, 23.0574, 38.2558, -28.6208, -29.9156
2.69594, 2, 17.886, 15.8625, 23.0574, 38.2557, -28.6208, -29.9156
2.70488, 2, 17.886, 15.8625, 23.0574, 38.2557, -28.6208, -29.9156
2.71194, 2, 17.886, 15.8625, 23.0574, 38.2557, -28.6208, -29.9156
2.71995, 2, 17.886, 15.8625, 23.0574, 38.2557, -28.6208, -29.9155
2.72799, 2, 17.8859, 15.8625, 23.0574, 38.2557, -28.6208, -29.9156
2.73593, 2, 17.8859, 15.8625, 23.0574, 38.2557, -28.6208, -29.9156
2.74395, 2, 17.8859, 15.8625, 23.0574, 38.2556, -28.6208, -29.9155
2.75199, 2, 17.8858, 15.8625, 23.0574, 38.2556, -28.6208, -29.9155
2.75995, 2, 17.8858, 15.8625, 23.0574, 38.2557, -28.6208, -29.9155
2.76797, 2, 17.8857, 15.8625, 23.0574, 38.2557, -28.6209, -29.9155
2.776, 2, 17.8857, 15.8625, 23.0574, 38.2557, -28.6209, -29.9154
2.78394, 2, 17.8857, 15.8625, 23.0574, 38.2556, -28.621, -29.9154
2.79193, 2, 17.8856, 15.8625, 23.0574, 38.2556, -28.6209, -29.9154
2.80178, 2, 17.8855, 15.8625, 23.0574, 38.2557, -28.621, -29.9154
2.80798, 2, 17.8855, 15.8625, 23.0574, 38.2557, -28.621, -29.9154
2.81773, 2, 17.8855, 15.8625, 23.0574, 38.2557, -28.621, -29.9153
2.82403, 2, 17.8855, 15.8625, 23.0574, 38.2556, -28.6211, -29.9153
2.83193, 2, 17.8854, 15.8625, 23.0574, 38.2556, -28.6211, -29.9153
2.83995, 2, 17.8854, 15.8625, 23.0574, 38.2556, -28.621, -29.9153
2.848, 2, 17.8854, 15.8625, 23.0574, 38.2556, -28.6211, -29.9152
2.85593, 2, 17.8853, 15.8625, 23.0574, 38.2556, -28.6211, -29.9152
2.86394, 2, 17.8853, 15.8625, 23.0574, 38.2556, -28.6211, -29.9152
2.872, 2, 17.8853, 15.8625, 23.0574, 38.2556, -28.6212, -29.9152
2.87999, 2, 17.8852, 15.8625, 23.0574, 38.2555, -28.6212, -29.9151
2.88794, 2, 17.8852, 15.8625, 23.0574, 38.2555, -28.6211, -29.9151
2.896, 2, 17.8851, 15.8625, 23.0574, 38.2555, -28.6211, -29.9152
2.90394, 2, 17.8851, 15.8625, 23.0574, 38.2555, -28.6211, -29.9151
2.91194, 2, 17.885, 15.8625, 23.0574, 38.2555, -28.6212, -29.9152
2.92001, 2, 17.885, 15.8625, 23.0574, 38.2555, -28.6212, -29.9151
2.92793, 2, 17.8849, 15.8625, 23.0574, 38.2555, -28.6212, -29.9151
2.93597, 2, 17.8849, 15.8625, 23.0574, 38.2554, -28.6212, -29.9151
2.94402, 2, 17.8848, 15.8625, 23.0574, 38.2555, -28.6212, -29.915
2.95194, 2, 17.8848, 15.8625, 23.0574, 38.2555, -28.6212, -29.9151
2.95994, 2, 17.8847, 15.8625, 23.0574, 38.2554, -28.6212, -29.9151
2.968, 2, 17.8847, 15.8625, 23.0574, 38.2554, -28.6212, -29.915
2.97598, 2, 17.8846, 15.8625, 23.0574, 38.2554, -28.6212, -29.915
2.98394, 2, 17.8846, 15.8625, 23.0574, 38.2554, -28.6212, -29.915
2.99202, 2, 17.8845, 15.8625, 23.0574, 38.2553, -28.6213, -29.915
2.99997, 2, 17.8845, 15.8625, 23.0574, 38.2554, -28.6212, -29.9149
3.008, 2, 17.8844, 15.8625, 23.0574, 38.2554, -28.6212, -29.915
3.01609, 2, 17.8844, 15.8625, 23.0574, 38.2554, -28.6212, -29.915
3.02404, 2, 17.8843, 15.8625, 23.0574, 38.2553, -28.6212, -29.915
3.03154, 2, 17.8843, 15.8625, 23.0574, 38.2553, -28.6213, -29.915
3.04012, 2, 17.8843, 15.8625, 23.0574, 38.2553, -28.6213, -29.915
3.04757, 2, 17.8842, 15.8625, 23.0574, 38.2552, -28.6212, -29.915
3.05594, 2, 17.8842, 15.8625, 23.0574, 38.2552, -28.6212, -29.915
3.06401, 2, 17.8841, 15.8626, 23.0574, 38.2552, -28.6213, -29.915
3.07094, 2, 17.8841, 15.8625, 23.0574, 38.2552, -28.6213, -29.915
3.07998, 2, 17.884, 15.8625, 23.0574, 38.2552, -28.6213, -29.9149
3.08693, 2, 17.884, 15.8625, 23.0574, 38.2552, -28.6213, -29.9149
3.09616, 2, 17.8839, 15.8625, 23.0574, 38.2551, -28.6213, -29.915
3.10298, 2, 17.8839, 15.8626, 23.0574, 38.2551, -28.6213, -29.915
3.11229, 2, 17.8839, 15.8626, 23.0574, 38.2551, -28.6213, -29.915
3.119, 2, 17.8839, 15.8626, 23.0574, 38.2551, -28.6213, -29.915
3.12833, 2, 17.8838, 15.8626, 23.0574, 38.2551, -28.6214, -29.915
3.13495, 2, 17.8838, 15.8626, 23.0574, 38.2551, -28.6214, -29.915
3.14456, 2, 17.8838, 15.8626, 23.0574, 38.255, -28.6214, -29.915
3.15248, 2, 17.8838, 15.8626, 23.0574, 38.255, -28.6214, -29.9149
3.16054, 2, 17.8838, 15.8626, 23.0574, 38.255, -28.6214, -29.9149
3.16855, 2, 17.8837, 15.8626, 23.0574, 38.255, -28.6214, -29.9149
3.17645, 2, 17.8837, 15.8626, 23.0574, 38.255, -28.6214, -29.9149
3.18451, 2, 17.8837, 15.8626, 23.0574, 38.255, -28.6215, -29.9149
3.19192, 2, 17.8837, 15.8626, 23.0574, 38.255, -28.6214, -29.9149
3.19993, 2, 17.8837, 15.8626, 23.0574, 38.255, -28.6214, -29.9149
3.20797, 2, 17.8837, 15.8626, 23.0574, 38.2549, -28.6214, -29.9149
3.21606, 2, 17.8837, 15.8626, 23.0574, 38.255, -28.6215, -29.9149
3.22293, 2, 17.8837, 15.8626, 23.0574, 38.2549, -28.6215, -29.915
3.23192, 2, 17.8837, 15.8626, 23.0574, 38.255, -28.6215, -29.9149
3.23993, 2, 17.8837, 15.8626, 23.0574, 38.2549, -28.6215, -29.9149
3.24797, 2, 17.8837, 15.8626, 23.0574, 38.2549, -28.6215, -29.9149
3.25592, 2, 17.8836, 15.8626, 23.0574, 38.2549, -28.6215, -29.9149
3.26398, 2, 17.8836, 15.8626, 23.0574, 38.2548, -28.6214, -29.9149
3.27198, 2, 17.8836, 15.8626, 23.0574, 38.2548, -28.6214, -29.9148
3.27993, 2, 17.8836, 15.8626, 23.0574, 38.2549, -28.6214, -29.9149
3.28792, 2, 17.8836, 15.8626, 23.0574, 38.2548, -28.6214, -29.9149
3.29493, 4, 17.8836, 15.8626, 23.0574, 38.2548, -28.6214, -29.9149
3.30393, 4, 17.8835, 15.8626, 23.0574, 38.2548, -28.6214, -29.9149
3.44254, 4, 17.8833, 15.8626, 23.0574, 38.2545, -28.6215, -29.9147
3.444, 4, 17.8832, 15.8626, 23.0574, 38.2545, -28.6215, -29.9147
3.44526, 4, 17.8832, 15.8626, 23.0574, 38.2545, -28.6215, -29.9147
3.4474, 4, 17.8827, 15.8626, 23.0574, 38.2545, -28.6215, -29.9147
3.44871, 4, 17.8827, 15.8626, 23.0574, 38.2545, -28.6215, -29.9147
3.4499, 4, 17.8827, 15.8626, 23.0574, 38.2545, -28.6215, -29.9147
3.45192, 4, 17.8817, 15.8626, 23.0574, 38.2544, -28.6215, -29.9147
3.45603, 4, 17.88, 15.8626, 23.0575, 38.254, -28.6216, -29.9145
3.4573, 4, 17.88, 15.8626, 23.0575, 38.254, -28.6216, -29.9145
3.45934, 4, 17.8774, 15.8626, 23.0578, 38.2529, -28.6219, -29.914
3.46077, 4, 17.8774, 15.8626, 23.0578, 38.2529, -28.6219, -29.914
3.46197, 4, 17.8774, 15.8626, 23.0578, 38.2529, -28.6219, -29.914
3.464, 4, 17.8738, 15.8625, 23.0584, 38.2504, -28.6224, -29.9126
3.46521, 4, 17.8738, 15.8625, 23.0584, 38.2504, -28.6224, -29.9126
3.46791, 4, 17.8693, 15.8624, 23.0596, 38.2459, -28.6235, -29.9097
3.47169, 4, 17.8637, 15.862, 23.0616, 38.2386, -28.6256, -29.9044
3.47298, 4, 17.8637, 15.862, 23.0616, 38.2386, -28.6256, -29.9044
3.47416, 4, 17.8637, 15.862, 23.0616, 38.2386, -28.6256, -29.9044
3.47626, 4, 17.8571, 15.8614, 23.0647, 38.2277, -28.6291, -29.8955
3.47745, 4, 17.8571, 15.8614, 23.0647, 38.2277, -28.6291, -29.8955
3.47948, 4, 17.8494, 15.8605, 23.0693, 38.2122, -28.6344, -29.8825
3.48084, 4, 17.8494, 15.8605, 23.0693, 38.2122, -28.6344, -29.8825
3.48993, 5, 17.8298, 15.8572, 23.0844, 38.163, -28.6513, -29.8403
3.4954, 5, 17.804, 15.8516, 23.1091, 38.0811, -28.6793, -29.7694
3.50399, 5, 17.7722, 15.8434, 23.1456, 37.9607, -28.7212, -29.6644
3.512, 5, 17.7347, 15.8321, 23.1951, 37.7973, -28.7797, -29.5217
3.52004, 5, 17.6918, 15.818, 23.2573, 37.592, -28.8533, -29.342
3.52807, 5, 17.6429, 15.8013, 23.3309, 37.3499, -28.9422, -29.1294
3.53603, 5, 17.5884, 15.7829, 23.4137, 37.0786, -29.0425, -28.89
3.54407, 5, 17.5287, 15.763, 23.5032, 36.7868, -29.1518, -28.6323
3.55206, 5, 17.464, 15.7421, 23.5972, 36.4823, -29.2676, -28.3631
3.55994, 5, 17.3946, 15.7208, 23.6933, 36.171, -29.3872, -28.0885
3.56821, 5, 17.3212, 15.6993, 23.7903, 35.8577, -29.5094, -27.8118
3.57492, 5, 17.2835, 15.6886, 23.839, 35.701, -29.5712, -27.6733
3.58395, 5, 17.1683, 15.6568, 23.9849, 35.2321, -29.7576, -27.2604
3.59097, 5, 17.1295, 15.6463, 24.0335, 35.0768, -29.8204, -27.1237
3.60011, 5, 17.0123, 15.6153, 24.1791, 34.6137, -30.0095, -26.7165
3.60694, 5, 16.9732, 15.6052, 24.2275, 34.4601, -30.073, -26.5816
3.61666, 5, 16.8558, 15.5756, 24.372, 34.0028, -30.2646, -26.1804
3.62509, 5, 16.7777, 15.5563, 24.4678, 33.7004, -30.3932, -25.9158
3.63233, 5, 16.6997, 15.5376, 24.563, 33.4002, -30.5225, -25.6536
3.63897, 5, 16.6609, 15.5284, 24.6106, 33.2511, -30.5873, -25.5231
3.64908, 5, 16.5443, 15.5012, 24.7529, 32.8064, -30.7831, -25.1352
3.65651, 5, 16.4669, 15.4837, 24.8474, 32.5126, -30.914, -24.8793
3.66474, 5, 16.3895, 15.4666, 24.9417, 32.221, -31.0459, -24.6257
3.67339, 5, 16.3508, 15.4582, 25.0353, 31.9312, -31.1781, -24.374
3.67903, 5, 16.2732, 15.4413, 25.0819, 31.787, -31.2446, -24.2488
3.68861, 5, 16.1954, 15.4249, 25.1747, 31.5005, -31.3782, -23.8763
3.69595, 5, 16.1171, 15.4089, 25.2672, 31.2159, -31.5122, -23.7531
3.70394, 5, 16.0384, 15.3932, 25.3593, 30.9331, -31.6471, -23.5084
3.71199, 5, 15.9593, 15.3777, 25.4513, 30.6524, -31.7824, -23.2654
3.71989, 5, 15.8798, 15.3628, 25.543, 30.3736, -31.9185, -23.0243
3.72792, 5, 15.8002, 15.3483, 25.6342, 30.0969, -32.0551, -22.7853
3.73597, 5, 15.722, 15.3341, 25.7246, 29.8224, -32.1922, -22.5486
3.7439, 5, 15.6467, 15.32, 25.8141, 29.551, -32.329, -22.315
3.7519, 5, 15.5754, 15.3062, 25.9016, 29.2857, -32.4645, -22.0866
3.75995, 5, 15.5089, 15.2932, 25.9857, 29.0322, -32.5953, -21.868
3.7679, 5, 15.4476, 15.2812, 26.0639, 28.7968, -32.7181, -21.6651
3.77595, 5, 15.3929, 15.2706, 26.1339, 28.5868, -32.8284, -21.484
3.78396, 5, 15.3451, 15.2616, 26.1934, 28.4089, -32.9225, -21.3309
3.7919, 5, 15.3034, 15.2548, 26.2411, 28.2672, -32.9986, -21.2085
3.7999, 5, 15.2673, 15.2501, 26.2769, 28.1621, -33.055, -21.1173
3.80797, 5, 15.2373, 15.2474, 26.3021, 28.09, -33.0945, -21.0537
3.81778, 5, 15.2131, 15.2458, 26.3243, 28.0288, -33.1284, -21.0005
3.83874, 5, 15.1741, 15.2446, 26.3372, 27.9968, -33.1465, -20.9724
3.84013, 5, 15.1741, 15.2446, 26.3372, 27.9968, -33.1465, -20.9724
3.84204, 5, 15.1719, 15.2445, 26.3381, 27.9949, -33.1476, -20.9708
3.84702, 5, 15.1704, 15.2444, 26.3388, 27.9936, -33.1484, -20.9696
3.85597, 5, 15.1686, 15.2442, 26.3397, 27.992, -33.1493, -20.9684
3.8639, 5, 15.1678, 15.2441, 26.3403, 27.9913, -33.1497, -20.9678
3.8719, 5, 15.1671, 15.2441, 26.3408, 27.9909, -33.1499, -20.9675
3.88001, 5, 15.1646, 15.2441, 26.3414, 27.9904, -33.1502, -20.9673
3.8879, 5, 15.1586, 15.2441, 26.3429, 27.9877, -33.1514, -20.9656
3.89593, 5, 15.1485, 15.2441, 26.3462, 27.9789, -33.1558, -20.9592
3.90398, 5, 15.1338, 15.244, 26.3534, 27.9588, -33.1662, -20.9429
3.91186, 6, 15.1133, 15.2434, 26.3667, 27.9205, -33.1861, -20.911
3.9199, 6, 15.0858, 15.2417, 26.388, 27.857, -33.219, -20.8578
3.92798, 6, 15.0519, 15.2385, 26.4196, 27.7638, -33.2693, -20.78
3.93591, 6, 15.0119, 15.2336, 26.4624, 27.6367, -33.3381, -20.6732
3.94393, 6, 14.9657, 15.2269, 26.516, 27.4768, -33.4258, -20.5388
3.95197, 6, 14.913, 15.219, 26.5795, 27.2876, -33.53, -20.3797
3.9599, 6, 14.8544, 15.2103, 26.6509, 27.0756, -33.6485, -20.201
3.96791, 6, 14.7905, 15.2012, 26.7282, 26.847, -33.7772, -20.0079
3.97598, 6, 14.7218, 15.192, 26.8092, 26.6082, -33.9132, -19.806
3.9839, 6, 14.6485, 15.1832, 26.8922, 26.3643, -34.0534, -19.5997
3.9919, 6, 14.5715, 15.175, 26.9758, 26.1186, -34.196, -19.3922
4.00021, 6, 14.4919, 15.1671, 27.0596, 25.873, -34.3402, -19.1849
4.00735, 6, 14.4108, 15.1596, 27.1432, 25.6281, -34.4854, -18.9787
4.01543, 6, 14.329, 15.1525, 27.2265, 25.3847, -34.6314, -18.7734
4.02426, 6, 14.247, 15.1457, 27.3095, 25.1427, -34.778, -18.5699
4.03149, 6, 14.1645, 15.1391, 27.3924, 24.9022, -34.9251, -18.3679
4.04006, 6, 14.0822, 15.1329, 27.4749, 24.6632, -35.0727, -18.1678
4.04811, 6, 13.9998, 15.1271, 27.557, 24.426, -35.2208, -17.9692
4.05549, 6, 13.9585, 15.1244, 27.5979, 24.308, -35.3693, -17.772
4.06392, 6, 13.835, 15.1171, 27.7199, 23.9558, -35.5184, -17.5763
4.07215, 6, 13.7525, 15.1128, 27.8006, 23.7231, -35.6679, -17.3823
4.07891, 6, 13.7112, 15.1107, 27.8408, 23.6072, -35.7427, -17.2857
4.08797, 6, 13.5878, 15.1053, 27.9609, 23.2621, -35.9682, -16.9991
4.09612, 6, 13.5058, 15.1021, 28.0405, 23.0339, -36.1189, -16.81
4.1029, 6, 13.4649, 15.1007, 28.0802, 22.9204, -36.1944, -16.7161
4.11222, 6, 13.342, 15.097, 28.1987, 22.5823, -36.4213, -16.4362
4.11889, 6, 13.3009, 15.096, 28.2379, 22.4703, -36.4974, -16.3438
4.12832, 6, 13.177, 15.0935, 28.3551, 22.1363, -36.7254, -16.0687
4.13635, 6, 13.0944, 15.0923, 28.4325, 21.9159, -36.8783, -15.8875
4.1429, 6, 13.0534, 15.0917, 28.4711, 21.8062, -36.9548, -15.7977
4.15244, 6, 12.932, 15.0904, 28.5857, 21.4802, -37.1842, -15.5302
4.16054, 6, 12.8533, 15.0897, 28.6609, 21.2668, -37.3358, -15.3555
4.16878, 6, 12.7766, 15.089, 28.7345, 21.0584, -37.4856, -15.1846
4.17647, 6, 12.7395, 15.0886, 28.8055, 20.8579, -37.6308, -15.0204
4.18445, 6, 12.6689, 15.0877, 28.8396, 20.7616, -37.7012, -14.8655
4.19282, 6, 12.5738, 15.0862, 28.9339, 20.4954, -37.8972, -14.7235
4.19998, 6, 12.5455, 15.0858, 28.962, 20.4162, -37.9558, -14.6588
4.20792, 6, 12.4942, 15.0854, 29.0119, 20.2754, -38.0609, -14.5437
4.21694, 6, 12.4499, 15.0854, 29.0698, 20.1134, -38.1826, -14.4102
4.2229, 6, 12.4124, 15.0859, 29.0846, 20.0728, -38.2137, -14.3767
4.23192, 6, 12.3811, 15.087, 29.1075, 20.0096, -38.2614, -14.325
4.24001, 6, 12.3557, 15.0884, 29.1226, 19.9683, -38.2931, -14.2906
4.24906, 6, 12.3357, 15.0899, 29.1321, 19.9437, -38.3121, -14.27
4.2695, 6, 12.3065, 15.0921, 29.1417, 19.9205, -38.3303, -14.2502
4.27093, 6, 12.3065, 15.0921, 29.1417, 19.9205, -38.3303, -14.2502
4.27219, 6, 12.3065, 15.0921, 29.1417, 19.9205, -38.3303, -14.2502
4.27997, 6, 12.3041, 15.0922, 29.1425, 19.9191, -38.3315, -14.2489
4.2881, 6, 12.3032, 15.0923, 29.1429, 19.9184, -38.332, -14.2482
4.29588, 6, 12.3028, 15.0923, 29.1431, 19.918, -38.3323, -14.2479
4.30389, 6, 12.3015, 15.0924, 29.1433, 19.9178, -38.3325, -14.2477
4.31198, 6, 12.2974, 15.0928, 29.1439, 19.9169, -38.3331, -14.2473
4.32165, 6, 12.2892, 15.0939, 29.1456, 19.913, -38.3358, -14.2417
4.32788, 6, 12.2765, 15.0958, 29.1495, 19.9022, -38.3435, -14.2367
4.33596, 6, 12.2584, 15.098, 29.1573, 19.8803, -38.3599, -14.2189
4.34389, 7, 12.2338, 15.1005, 29.1711, 19.8407, -38.3892, -14.1877
4.35195, 7, 12.2021, 15.1029, 29.1925, 19.7799, -38.4341, -14.1397
4.36001, 7, 12.1635, 15.1048, 29.2229, 19.6933, -38.4991, -14.0713
4.3679, 7, 12.1185, 15.1061, 29.2627, 19.5803, -38.5851, -13.9811
4.37594, 7, 12.067, 15.1071, 29.3115, 19.4422, -38.6909, -13.8712
4.38388, 7, 12.0087, 15.1081, 29.3677, 19.2831, -38.814, -13.7439
4.39189, 7, 11.9446, 15.1097, 29.4298, 19.108, -38.9507, -13.6037
4.40002, 7, 11.8754, 15.1119, 29.4959, 18.9218, -39.097, -13.4547
4.40792, 7, 11.8012, 15.1152, 29.5641, 18.7295, -39.2492, -13.3006
4.41589, 7, 11.7224, 15.1195, 29.6334, 18.5346, -39.405, -13.1442
4.42395, 7, 11.64, 15.1247, 29.703, 18.3389, -39.5627, -12.9874
4.43188, 7, 11.5557, 15.1306, 29.7724, 18.1436, -39.7214, -12.8312
4.43995, 7, 11.4704, 15.1371, 29.8416, 17.9487, -39.8808, -12.6758
4.44803, 7, 11.3845, 15.1442, 29.9105, 17.7551, -40.0409, -12.5219
4.45588, 7, 11.2984, 15.1517, 29.979, 17.5625, -40.201, -12.369
4.46389, 7, 11.212, 15.1595, 30.0472, 17.3711, -40.3617, -12.2172
4.47196, 7, 11.1257, 15.1677, 30.115, 17.1805, -40.5225, -12.0663
4.47994, 7, 11.0395, 15.1761, 30.1824, 16.9911, -40.684, -11.9168
4.48788, 7, 10.9534, 15.1848, 30.2494, 16.803, -40.8456, -11.7683
4.49595, 7, 10.8672, 15.1936, 30.3159, 16.6159, -41.0077, -11.621
4.50389, 7, 10.7811, 15.203, 30.3819, 16.4299, -41.1698, -11.4752
4.51192, 7, 10.6951, 15.2131, 30.4475, 16.2449, -41.3323, -11.3306
4.52008, 7, 10.6092, 15.2236, 30.5127, 16.0611, -41.4952, -11.187
4.52797, 7, 10.5237, 15.2345, 30.5775, 15.8785, -41.6582, -11.0443
4.53598, 7, 10.4381, 15.2458, 30.6419, 15.6971, -41.8217, -10.9027
4.54406, 7, 10.3523, 15.2576, 30.7059, 15.5166, -41.9854, -10.762
4.55198, 7, 10.2661, 15.2701, 30.7695, 15.3371, -42.1496, -10.6226
4.55967, 7, 10.2229, 15.2829, 30.8327, 15.1589, -42.314, -10.4842
4.56807, 7, 10.0935, 15.296, 30.8956, 14.9817, -42.4787, -10.3469
4.5759, 7, 10.0088, 15.309, 30.958, 14.806, -42.6434, -10.2113
4.58296, 7, 9.96724, 15.3154, 30.9888, 14.7188, -42.7254, -10.144
4.592, 7, 9.84584, 15.3349, 31.0796, 14.4614, -42.9693, -9.94557
4.60014, 7, 9.76784, 15.3473, 31.1379, 14.2961, -43.1275, -9.8183
4.60693, 7, 9.73036, 15.3532, 31.1661, 14.2161, -43.2046, -9.75679
4.61629, 7, 9.62628, 15.3691, 31.2453, 13.9919, -43.4219, -9.58414
4.62289, 7, 9.59491, 15.3738, 31.2693, 13.9238, -43.4884, -9.53205
4.63252, 7, 9.5113, 15.387, 31.3322, 13.7458, -43.6629, -9.39503
4.64046, 7, 9.46457, 15.3953, 31.3653, 13.6517, -43.756, -9.32349
4.64844, 7, 9.42513, 15.403, 31.3911, 13.5795, -43.8277, -9.26738
4.65646, 7, 9.39244, 15.41, 31.4099, 13.5263, -43.8807, -9.22635
4.66457, 7, 9.36608, 15.4163, 31.4228, 13.4913, -43.9163, -9.19869
4.67314, 7, 9.34502, 15.4217, 31.4308, 13.4698, -43.9383, -9.18154
4.69457, 7, 9.32921, 15.4294, 31.4386, 13.4503, -43.9581, -9.16582
4.69584, 7, 9.3156, 15.4294, 31.4386, 13.4503, -43.9581, -9.16582
4.69862, 7, 9.31332, 15.4301, 31.4391, 13.4491, -43.9592, -9.16493
4.70389, 7, 9.31174, 15.4306, 31.4395, 13.4483, -43.9601, -9.16433
4.71192, 7, 9.3098, 15.4313, 31.4399, 13.4474, -43.961, -9.16363
4.71888, 7, 9.3092, 15.4316, 31.4401, 13.4469, -43.9614, -9.16333
4.72797, 7, 9.30852, 15.4319, 31.4403, 13.4467, -43.9617, -9.16323
4.73594, 7, 9.30606, 15.4325, 31.4405, 13.4464, -43.962, -9.16314
4.74289, 7, 9.29996, 15.434, 31.4412, 13.445, -43.9633, -9.16261
4.75187, 8, 9.28922, 15.4367, 31.443, 13.4398, -43.968, -9.15961
4.75997, 8, 9.27342, 15.4408, 31.447, 13.4274, -43.9796, -9.15135
4.76689, 8, 9.25165, 15.4463, 31.4548, 13.4039, -44.002, -9.13469
4.77586, 8, 9.2226, 15.4534, 31.4681, 13.3643, -44.0402, -9.10625
4.78402, 8, 9.1863, 15.4616, 31.4881, 13.3061, -44.0979, -9.06292
4.79187, 8, 9.14341, 15.4704, 31.5155, 13.2264, -44.1769, -9.00307
4.79993, 8, 9.09377, 15.4799, 31.5506, 13.1251, -44.2781, -8.92788
4.80792, 8, 9.03695, 15.4906, 31.5923, 13.0049, -44.3993, -8.83714
4.81586, 8, 8.97351, 15.5027, 31.6394, 12.8687, -44.537, -8.73534
4.8239, 8, 8.90446, 15.5167, 31.6904, 12.7214, -44.6871, -8.62465
4.83289, 8, 8.83007, 15.5323, 31.7436, 12.5671, -44.8457, -8.50881
4.83992, 8, 8.75059, 15.5494, 31.798, 12.4092, -45.0094, -8.39038
4.84788, 8, 8.66679, 15.568, 31.8527, 12.2499, -45.1758, -8.27087
4.85592, 8, 8.5803, 15.5878, 31.9075, 12.0903, -45.3436, -8.15166
4.86388, 8, 8.49231, 15.6083, 31.962, 11.9309, -45.5121, -8.03294
4.87188, 8, 8.40357, 15.6291, 32.0162, 11.7723, -45.6812, -7.91489
4.88003, 8, 8.31446, 15.6506, 32.0701, 11.6145, -45.8506, -7.79761
4.88788, 8, 8.22502, 15.6724, 32.1236, 11.4575, -46.0203, -7.68094
4.89586, 8, 8.13566, 15.6943, 32.1765, 11.3012, -46.1901, -7.56512
4.90395, 8, 8.04637, 15.7167, 32.2291, 11.1455, -46.3602, -7.45024
4.91193, 8, 7.95719, 15.7394, 32.2812, 10.9906, -46.5305, -7.33624
4.91992, 8, 7.86802, 15.7623, 32.3327, 10.8367, -46.7009, -7.22328
4.92799, 8, 7.77876, 15.7857, 32.3839, 10.6837, -46.8714, -7.11111
4.93589, 8, 7.68956, 15.8094, 32.4347, 10.5316, -47.0421, -6.99984
4.94388, 8, 7.60073, 15.8337, 32.4849, 10.3802, -47.2127, -6.88981
4.952, 8, 7.51236, 15.8585, 32.5347, 10.2291, -47.3837, -6.78003
4.95994, 8, 7.42408, 15.8837, 32.5842, 10.0791, -47.5547, -6.6712
4.96786, 8, 7.33575, 15.9094, 32.6333, 9.92979, -47.7262, -6.56301
4.9759, 8, 7.24714, 15.9355, 32.6819, 9.7814, -47.8978, -6.4557
4.98391, 8, 7.15809, 15.9621, 32.7302, 9.6339, -48.0695, -6.3492
4.99187, 8, 7.06862, 15.9891, 32.778, 9.4869, -48.2414, -6.24321
4.99996, 8, 6.97887, 16.0166, 32.8253, 9.34059, -48.4135, -6.13854
5.00791, 8, 6.88975, 16.0441, 32.8722, 9.19523, -48.5857, -6.03418
5.0159, 8, 6.80332, 16.0711, 32.9186, 9.05086, -48.758, -5.93116
5.02401, 8, 6.72068, 16.0968, 32.9643, 8.90891, -48.9287, -5.82974
5.03197, 8, 6.64221, 16.1208, 33.0085, 8.77102, -49.0955, -5.73159
5.04002, 8, 6.56887, 16.143, 33.0503, 8.64065, -49.2543, -5.63849
5.04802, 8, 6.50209, 16.1631, 33.0887, 8.52098, -49.4006, -5.55335
5.05599, 8, 6.44301, 16.181, 33.1222, 8.41632, -49.5293, -5.47831
5.06351, 8, 6.41645, 16.1894, 33.1499, 8.32883, -49.6369, -5.41627
5.07217, 8, 6.34714, 16.2127, 33.1713, 8.2614, -49.7215, -5.36732
5.07891, 8, 6.32745, 16.2197, 33.1797, 8.23438, -49.7549, -5.34768
5.08791, 8, 6.27894, 16.2369, 33.1974, 8.17814, -49.8246, -5.30647
5.09645, 8, 6.25488, 16.2454, 33.204, 8.15756, -49.851, -5.29099
5.11898, 8, 6.22072, 16.2579, 33.2104, 8.13845, -49.8764, -5.27672
5.12191, 8, 6.21778, 16.259, 33.2109, 8.13724, -49.878, -5.27588
5.1231, 8, 6.21778, 16.259, 33.2109, 8.13724, -49.878, -5.27588
5.12847, 8, 6.21437, 16.2602, 33.2114, 8.13579, -49.8799, -5.27489
5.13707, 8, 6.21288, 16.2609, 33.2117, 8.13513, -49.8808, -5.27442
5.14434, 8, 6.2122, 16.2612, 33.2119, 8.13478, -49.8812, -5.27418
5.15086, 8, 6.21163, 16.2614, 33.2119, 8.13467, -49.8814, -5.27412
5.16127, 8, 6.20632, 16.2632, 33.2122, 8.13408, -49.8823, -5.27388
5.16701, 8, 6.20275, 16.2644, 33.2124, 8.13327, -49.8833, -5.27354
5.17645, 9, 6.18498, 16.2711, 33.2146, 8.12522, -49.8933, -5.26897
5.18527, 9, 6.17649, 16.2744, 33.2162, 8.11941, -49.9103, -5.25993
5.19101, 9, 6.15444, 16.2831, 33.2214, 8.10059, -49.9233, -5.25274
5.19991, 9, 6.12489, 16.2945, 33.2306, 8.06884, -49.9615, -5.23122
5.20785, 9, 6.08792, 16.308, 33.2449, 8.02067, -50.0203, -5.19846
5.21494, 9, 6.04379, 16.3234, 33.2649, 7.95536, -50.101, -5.15246
5.2239, 9, 5.99278, 16.3407, 33.2905, 7.87165, -50.2052, -5.09429
5.23184, 9, 5.93459, 16.3604, 33.3211, 7.77206, -50.33, -5.02563
5.23893, 9, 5.86971, 16.3827, 33.3555, 7.65895, -50.4722, -4.9468
5.2479, 9, 5.79919, 16.4075, 33.3928, 7.5364, -50.6273, -4.86202
5.25585, 9, 5.72318, 16.4348, 33.4319, 7.40763, -50.7912, -4.77265
5.26286, 9, 5.64188, 16.4648, 33.4715, 7.27581, -50.9603, -4.68169
5.27185, 9, 5.55606, 16.4966, 33.5111, 7.14278, -51.1322, -4.58946
5.27986, 9, 5.46734, 16.5297, 33.5507, 7.00945, -51.3052, -4.49737
5.28686, 9, 5.37719, 16.5637, 33.5899, 6.87611, -51.4791, -4.40516
5.29585, 9, 5.28622, 16.5984, 33.6287, 6.74318, -51.6533, -4.3138
5.30384, 9, 5.19493, 16.6336, 33.6672, 6.61074, -51.8279, -4.22263
5.3135, 9, 5.10334, 16.669, 33.705, 6.41319, -52.0901, -4.08763
5.31986, 9, 5.01186, 16.7048, 33.7425, 6.34767, -52.1776, -4.04257
5.32886, 9, 4.92042, 16.7409, 33.7795, 6.21693, -52.3526, -3.95363
5.33592, 9, 4.82917, 16.7773, 33.816, 6.08706, -52.5278, -3.86522
5.34385, 9, 4.7381, 16.8139, 33.852, 5.95731, -52.7031, -3.77751
5.35185, 9, 4.64698, 16.8509, 33.8876, 5.82835, -52.8787, -3.6906
5.35992, 9, 4.55602, 16.8884, 33.9227, 5.70012, -53.0544, -3.60427
5.36785, 9, 4.46539, 16.9261, 33.9574, 5.57235, -53.23, -3.51896
5.37588, 9, 4.37515, 16.9645, 33.9917, 5.44548, -53.4058, -3.43348
5.38392, 9, 4.2849, 17.0034, 34.0255, 5.31894, -53.5816, -3.34925
5.39185, 9, 4.19462, 17.0426, 34.0589, 5.19317, -53.7575, -3.2649
5.39986, 9, 4.10395, 17.0824, 34.092, 5.06779, -53.9335, -3.18181
5.40793, 9, 4.01294, 17.1226, 34.1245, 4.94301, -54.1095, -3.09857
5.41584, 9, 3.92173, 17.1632, 34.1565, 4.8189, -54.2854, -3.01662
5.42385, 9, 3.83072, 17.2039, 34.1882, 4.69545, -54.4613, -2.93479
5.43191, 9, 3.74021, 17.2448, 34.2194, 4.57266, -54.6372, -2.85394
5.43986, 9, 3.65117, 17.2852, 34.25, 4.45068, -54.8125, -2.77397
5.44785, 9, 3.56555, 17.3241, 34.2802, 4.33015, -54.9867, -2.6948
5.45599, 9, 3.48477, 17.3607, 34.3098, 4.2123, -55.1577, -2.61839
5.46384, 9, 3.40975, 17.3943, 34.3377, 4.10026, -55.3214, -2.54484
5.47185, 9, 3.34115, 17.4249, 34.3633, 3.99675, -55.4731, -2.47797
5.47992, 9, 3.28016, 17.4527, 34.386, 3.90528, -55.6076, -2.4188
5.48788, 9, 3.22704, 17.4771, 34.4047, 3.82923, -55.721, -2.36839
5.49585, 9, 3.18118, 17.499, 34.4192, 3.76935, -55.8107, -2.32893
5.50391, 9, 3.14189, 17.5183, 34.4295, 3.72543, -55.8759, -2.29995
5.51188, 9, 3.10927, 17.5342, 34.4361, 3.69652, -55.9198, -2.28076
5.52004, 9, 3.0833, 17.5464, 34.4399, 3.67867, -55.9473, -2.2689
5.52822, 9, 3.06376, 17.5555, 34.4419, 3.66884, -55.963, -2.2624
5.5526, 9, 3.04019, 17.5661, 34.4435, 3.65975, -55.9775, -2.25656
5.55384, 9, 3.04019, 17.5661, 34.4435, 3.65975, -55.9775, -2.25656
5.55575, 9, 3.03921, 17.5665, 34.4436, 3.65939, -55.9781, -2.25634
5.56089, 9, 3.0386, 17.5668, 34.4436, 3.65913, -55.9785, -2.25619
5.56786, 9, 3.03821, 17.5671, 34.4437, 3.65878, -55.9791, -2.25602
5.57678, 9, 3.03765, 17.5673, 34.4437, 3.65859, -55.9795, -2.25598
5.58388, 9, 3.03524, 17.568, 34.4437, 3.65834, -55.9799, -2.25593
5.59195, 9, 3.02925, 17.5705, 34.4438, 3.65739, -55.9814, -2.2558
5.60165, 9, 3.01861, 17.5757, 34.444, 3.65396, -55.9866, -2.25506
5.60801, 9, 3.00286, 17.5844, 34.4451, 3.64548, -55.9988, -2.25232
5.6162, 9, 2.98089, 17.5972, 34.4476, 3.62918, -56.0221, -2.24637
5.62424, 10, 2.95101, 17.6145, 34.4522, 3.60149, -56.0604, -2.23571
5.63221, 10, 2.91331, 17.6353, 34.4598, 3.55962, -56.1194, -2.21895
5.63891, 10, 2.89186, 17.6466, 34.4648, 3.53341, -56.1574, -2.208
5.64872, 10, 2.81722, 17.684, 34.4847, 3.4303, -56.3061, -2.16499
5.65634, 10, 2.75822, 17.7138, 34.5012, 3.34361, -56.4324, -2.129
5.66437, 10, 2.69255, 17.7483, 34.5194, 3.24487, -56.5764, -2.08813
5.67256, 10, 2.6213, 17.7872, 34.5382, 3.13781, -56.7338, -2.0429
5.68042, 10, 2.58358, 17.8305, 34.5566, 3.02514, -56.9001, -1.99436
5.68847, 10, 2.50399, 17.8776, 34.5741, 2.90977, -57.0716, -1.94453
5.69667, 10, 2.4193, 17.9024, 34.5824, 2.8515, -57.1584, -1.89383
5.70383, 10, 2.33088, 17.9543, 34.598, 2.73458, -57.3331, -1.86808
5.71184, 10, 2.2402, 18.0084, 34.6118, 2.61779, -57.5086, -1.81559
5.71988, 10, 2.14846, 18.0644, 34.6241, 2.501, -57.6842, -1.76315
5.72784, 10, 2.05638, 18.1219, 34.635, 2.38469, -57.8601, -1.71069
5.73583, 10, 1.96406, 18.1807, 34.6443, 2.26897, -58.036, -1.65752
5.74394, 10, 1.8718, 18.2408, 34.6519, 2.15385, -58.212, -1.60388
5.75184, 10, 1.77966, 18.3021, 34.6579, 2.0394, -58.3879, -1.55069
5.75988, 10, 1.6876, 18.3645, 34.6622, 1.92552, -58.5636, -1.49683
5.76785, 10, 1.59572, 18.4279, 34.6648, 1.81245, -58.7395, -1.44213
5.77584, 10, 1.50409, 18.4925, 34.6659, 1.69979, -58.9152, -1.38765
5.78388, 10, 1.41265, 18.5581, 34.6658, 1.5876, -59.0907, -1.3333
5.79191, 10, 1.32161, 18.6249, 34.6641, 1.4762, -59.2664, -1.27799
5.79983, 10, 1.23109, 18.6929, 34.6608, 1.36538, -59.4417, -1.22221
5.80686, 10, 1.14097, 18.7621, 34.656, 1.25546, -59.617, -1.16675
5.81583, 10, 1.05091, 18.8327, 34.6494, 1.14629, -59.7919, -1.11027
5.82484, 10, 0.960983, 18.9047, 34.6412, 1.03775, -59.9665, -1.05337
5.83189, 10, 0.870946, 18.9779, 34.6311, 0.930049, -60.1408, -0.996804
5.83983, 10, 0.780724, 19.0524, 34.6193, 0.822917, -60.3146, -0.939734
5.84784, 10, 0.690514, 19.1282, 34.6059, 0.716408, -60.4883, -0.881642
5.8559, 10, 0.600433, 19.2051, 34.5911, 0.610752, -60.6613, -0.823974
5.86383, 10, 0.510226, 19.2833, 34.5744, 0.505771, -60.834, -0.766097
5.87185, 10, 0.420094, 19.3624, 34.5561, 0.401733, -61.0064, -0.70722
5.87988, 10, 0.329998, 19.4425, 34.5362, 0.298562, -61.1782, -0.648637
5.88785, 10, 0.240088, 19.5235, 34.5143, 0.196284, -61.3496, -0.589992
5.8959, 10, 0.150453, 19.6055, 34.4908, 0.0946843, -61.5207, -0.53041
5.90383, 10, 0.061161, 19.6886, 34.4658, -0.0063074, -61.6913, -0.470961
5.91186, 10, -0.0276749, 19.7727, 34.4391, -0.10647, -61.8614, -0.41172
5.9199, 10, -0.116087, 19.8577, 34.4107, -0.205935, -62.031, -0.351337
5.92784, 10, -0.204102, 19.944, 34.3805, -0.304448, -62.2001, -0.290855
5.93583, 10, -0.291713, 20.0314, 34.3488, -0.402199, -62.3688, -0.230824
5.94389, 10, -0.378942, 20.1198, 34.3156, -0.498874, -62.537, -0.169811
5.95184, 10, -0.465779, 20.2092, 34.2806, -0.594668, -62.7045, -0.108502
5.95989, 10, -0.552251, 20.2997, 34.2441, -0.689626, -62.8713, -0.047276
5.96791, 10, -0.638352, 20.3914, 34.2061, -0.783469, -63.0377, 0.0149602
5.97582, 10, -0.724106, 20.484, 34.1664, -0.876785, -63.2034, 0.0773531
5.98383, 10, -0.809482, 20.5777, 34.125, -0.969145, -63.3687, 0.139215
5.99193, 10, -0.894544, 20.6722, 34.0822, -1.06059, -63.5332, 0.202378
5.99983, 10, -0.979281, 20.7677, 34.0375, -1.15108, -63.6971, 0.265578
6.00784, 10, -1.06381, 20.864, 33.9913, -1.24052, -63.8601, 0.328529
6.01593, 10, -1.14788, 20.961, 33.9436, -1.32902, -64.0225, 0.39253
6.02391, 10, -1.23145, 21.059, 33.8942, -1.41633, -64.1841, 0.45633
6.03192, 10, -1.31452, 21.1579, 33.8431, -1.50279, -64.345, 0.520189
6.03999, 10, -1.39697, 21.2577, 33.7905, -1.5884, -64.5053, 0.585083
6.04844, 10, -1.47897, 21.3583, 33.7363, -1.67266, -64.6645, 0.649518
6.05596, 10, -1.56056, 21.4599, 33.6805, -1.75645, -64.823, 0.713893
6.06401, 10, -1.64154, 21.5622, 33.6232, -1.83907, -64.9804, 0.779672
6.07184, 10, -1.72191, 21.6652, 33.5644, -1.9209, -65.1375, 0.844809
6.07987, 10, -1.80172, 21.7691, 33.5041, -2.00154, -65.2933, 0.910233
6.08795, 10, -1.88084, 21.8738, 33.4422, -2.08136, -65.4485, 0.976619
6.09589, 10, -1.95864, 21.9789, 33.3789, -2.16004, -65.6026, 1.0427
6.10397, 10, -2.03382, 22.0826, 33.3147, -2.23723, -65.7556, 1.10926
6.11212, 10, -2.10531, 22.1834, 33.2504, -2.31302, -65.9064, 1.17597
6.11883, 10, -2.13947, 22.2322, 33.2184, -2.35002, -65.9804, 1.20853
6.12823, 10, -2.2353, 22.3703, 33.1255, -2.45542, -66.1929, 1.30322
6.13483, 10, -2.26489, 22.4131, 33.0961, -2.48794, -66.2593, 1.33324
6.14466, 10, -2.34544, 22.5301, 33.0146, -2.57514, -66.4383, 1.41409
6.15235, 10, -2.3917, 22.5972, 32.9681, -2.62352, -66.5373, 1.45932
6.16043, 10, -2.43246, 22.6556, 32.9287, -2.66203, -66.6185, 1.49667
6.16841, 10, -2.4679, 22.7054, 32.8968, -2.69175, -66.6801, 1.52578
6.17646, 10, -2.49804, 22.7463, 32.8723, -2.71315, -66.7254, 1.547
6.18446, 10, -2.52232, 22.778, 32.8545, -2.72796, -66.7564, 1.56144
6.193, 10, -2.54055, 22.801, 32.8421, -2.73753, -66.7761, 1.57066
6.20088, 10, -2.55403, 22.8175, 32.8341, -2.74307, -66.7877, 1.5758
6.2194, 10, -2.5696, 22.8345, 32.8258, -2.74797, -66.7971, 1.57987
6.22143, 10, -2.5714, 22.8363, 32.8248, -2.74846, -66.7979, 1.58027
6.22285, 10, -2.5714, 22.8363, 32.8248, -2.74846, -66.7979, 1.58027
6.23182, 10, -2.57357, 22.8383, 32.8234, -2.74904, -66.7989, 1.58066
6.23883, 10, -2.57443, 22.8392, 32.8225, -2.74934, -66.7994, 1.58086
6.24784, 10, -2.57521, 22.8399, 32.8218, -2.74949, -66.7997, 1.58097
6.25581, 10, -2.57721, 22.8417, 32.8208, -2.74961, -66.7999, 1.58103
6.26288, 10, -2.5817, 22.8466, 32.8189, -2.75004, -66.8006, 1.58107
6.27178, 11, -2.58957, 22.8568, 32.8153, -2.75152, -66.8034, 1.58128
6.27981, 11, -2.6015, 22.8739, 32.809, -2.75548, -66.8106, 1.58269
6.28683, 11, -2.61885, 22.8989, 32.7981, -2.76354, -66.8252, 1.58651
6.2959, 11, -2.64257, 22.9327, 32.7814, -2.77748, -66.8509, 1.59359
6.30383, 11, -2.6719, 22.975, 32.7575, -2.79909, -66.8921, 1.60509
6.31084, 11, -2.70651, 23.0256, 32.7252, -2.82962, -66.9515, 1.62189
6.31982, 11, -2.7462, 23.0853, 32.6841, -2.87097, -67.0299, 1.6442
6.32884, 11, -2.79118, 23.1538, 32.6342, -2.92193, -67.1275, 1.67232
6.33588, 11, -2.84109, 23.2304, 32.5761, -2.98016, -67.2407, 1.7055
6.34382, 11, -2.89537, 23.3146, 32.5114, -3.0457, -67.3672, 1.74207
6.35182, 11, -2.95419, 23.4068, 32.4414, -3.11444, -67.5022, 1.78037
6.35998, 11, -3.01795, 23.507, 32.3674, -3.18647, -67.6425, 1.82029
6.36782, 11, -3.08636, 23.6132, 32.2908, -3.25876, -67.7851, 1.86128
6.37581, 11, -3.15754, 23.7228, 32.2127, -3.33201, -67.9288, 1.90294
6.38389, 11, -3.23014, 23.8344, 32.1335, -3.40468, -68.0727, 1.94394
6.39182, 11, -3.30341, 23.947, 32.0537, -3.47788, -68.2163, 1.98446
6.39983, 11, -3.377, 24.0603, 31.9732, -3.55022, -68.36, 2.02507
6.40788, 11, -3.45064, 24.1739, 31.8921, -3.62316, -68.5034, 2.06583
6.41583, 11, -3.52426, 24.2876, 31.8104, -3.69483, -68.6469, 2.1064
6.42382, 11, -3.59767, 24.4013, 31.7283, -3.76703, -68.7899, 2.1464
6.43188, 11, -3.671, 24.5148, 31.6458, -3.83823, -68.9328, 2.18616
6.43982, 11, -3.74422, 24.6281, 31.5628, -3.90962, -69.0751, 2.22622
6.44782, 11, -3.81736, 24.7413, 31.4793, -3.97983, -69.2173, 2.26643
6.45588, 11, -3.8905, 24.8547, 31.3952, -4.05046, -69.3593, 2.306
6.46389, 11, -3.96341, 24.9682, 31.3105, -4.12028, -69.5011, 2.34487
6.47182, 11, -4.03596, 25.0819, 31.2253, -4.19022, -69.6425, 2.38376
6.47989, 11, -4.1082, 25.1959, 31.1396, -4.2593, -69.7837, 2.42279
6.48782, 11, -4.18024, 25.3102, 31.0535, -4.32879, -69.9245, 2.4621
6.49604, 11, -4.25212, 25.4247, 30.9672, -4.39738, -70.0651, 2.50044
6.50387, 11, -4.32405, 25.5398, 30.8806, -4.46623, -70.2052, 2.5385
6.51182, 11, -4.39577, 25.6552, 30.7934, -4.53418, -70.3452, 2.57641
6.51993, 11, -4.46715, 25.7706, 30.7057, -4.60219, -70.4846, 2.61468
6.52792, 11, -4.53744, 25.8856, 30.6177, -4.66969, -70.6238, 2.6528
6.53591, 11, -4.60519, 25.9984, 30.5297, -4.73672, -70.7621, 2.68997
6.54402, 11, -4.66923, 26.1071, 30.443, -4.80284, -70.8993, 2.7268
6.55193, 11, -4.72905, 26.21, 30.3587, -4.86687, -71.0332, 2.76254
6.55992, 11, -4.78507, 26.3065, 30.2783, -4.92847, -71.1611, 2.79712
6.56801, 11, -4.83695, 26.3952, 30.2036, -4.9843, -71.2797, 2.82933
6.57582, 11, -4.88392, 26.475, 30.1363, -5.03534, -71.3856, 2.8578
6.58392, 11, -4.92582, 26.5451, 30.078, -5.07806, -71.4759, 2.8817
6.59192, 11, -4.96292, 26.6061, 30.0293, -5.11228, -71.5495, 2.90097
6.5999, 11, -4.99564, 26.6581, 29.9907, -5.13831, -71.605, 2.91568
6.60796, 11, -5.02387, 26.7004, 29.9615, -5.157, -71.6447, 2.92623
6.61635, 11, -5.04672, 26.733, 29.9408, -5.16981, -71.6715, 2.93321
6.62282, 11, -5.05614, 26.7458, 29.9333, -5.17441, -71.681, 2.93568
6.64902, 11, -5.0778, 26.7899, 29.9097, -5.18688, -71.7067, 2.94229
6.65031, 11, -5.0923, 26.7899, 29.9097, -5.18688, -71.7067, 2.94229
6.65216, 11, -5.0923, 26.7899, 29.9097, -5.18688, -71.7076, 2.94247
6.65482, 11, -5.09396, 26.7915, 29.9087, -5.1873, -71.7076, 2.94247
6.66281, 11, -5.096, 26.7933, 29.9072, -5.18785, -71.7086, 2.94276
6.67235, 11, -5.09732, 26.794, 29.9058, -5.18822, -71.7093, 2.943
6.68041, 11, -5.09845, 26.7949, 29.9049, -5.18836, -71.7095, 2.94306
6.68929, 11, -5.09966, 26.7978, 29.9034, -5.18859, -71.71, 2.94317
6.69492, 11, -5.10399, 26.8009, 29.9022, -5.18888, -71.7105, 2.94321
6.70381, 12, -5.11125, 26.8113, 29.8981, -5.19029, -71.7132, 2.9435
6.71183, 12, -5.12216, 26.8285, 29.8908, -5.19362, -71.7201, 2.94483
6.71885, 12, -5.13828, 26.8536, 29.8784, -5.20041, -71.7337, 2.9482
6.72783, 12, -5.16031, 26.8877, 29.8588, -5.21221, -71.7572, 2.95437
6.73583, 12, -5.18766, 26.9307, 29.8303, -5.23042, -71.794, 2.96443
6.74281, 12, -5.21981, 26.9827, 29.792, -5.25615, -71.8484, 2.9792
6.75183, 12, -5.25642, 27.0439, 29.7427, -5.2905, -71.9201, 2.999
6.7598, 12, -5.29804, 27.1148, 29.6826, -5.33392, -72.0095, 3.02342
6.76783, 12, -5.34426, 27.1941, 29.6128, -5.38357, -72.114, 3.05135
6.77584, 12, -5.39446, 27.2809, 29.535, -5.43838, -72.2299, 3.08211
6.7838, 12, -5.4489, 27.3757, 29.4508, -5.49778, -72.3543, 3.11507
6.79184, 12, -5.50807, 27.4784, 29.3619, -5.5582, -72.4832, 3.1495
6.79986, 12, -5.57158, 27.5874, 29.2696, -5.62035, -72.6146, 3.18481
6.8078, 12, -5.63768, 27.7003, 29.1755, -5.68204, -72.7471, 3.22018
6.81583, 12, -5.70512, 27.8153, 29.0803, -5.74388, -72.8796, 3.25528
6.82537, 12, -5.77329, 27.9317, 28.9846, -5.80588, -73.0122, 3.30789
6.83182, 12, -5.84161, 28.0488, 28.8885, -5.86702, -73.1443, 3.32554
6.84081, 12, -5.90994, 28.166, 28.7918, -5.92881, -73.2764, 3.36112
6.84782, 12, -5.97817, 28.2831, 28.6945, -5.9891, -73.4078, 3.39658
6.85581, 12, -6.04625, 28.4, 28.5964, -6.05061, -73.5393, 3.43142
6.86388, 12, -6.11425, 28.5169, 28.4977, -6.111, -73.6703, 3.46584
6.87184, 12, -6.18236, 28.6338, 28.3984, -6.17148, -73.8011, 3.5002
6.87981, 12, -6.2504, 28.7505, 28.2989, -6.23188, -73.9315, 3.53476
6.88783, 12, -6.31831, 28.8674, 28.199, -6.29107, -74.0616, 3.56974
6.89583, 12, -6.38601, 28.984, 28.0986, -6.35142, -74.1913, 3.60403
6.9038, 12, -6.45351, 29.1007, 27.9976, -6.41021, -74.3207, 3.63784
6.91185, 12, -6.52086, 29.2177, 27.8958, -6.46957, -74.4497, 3.67151
6.91986, 12, -6.58791, 29.3352, 27.7936, -6.52825, -74.5783, 3.70534
6.9278, 12, -6.65488, 29.453, 27.6912, -6.58599, -74.7068, 3.73943
6.93588, 12, -6.72174, 29.571, 27.5885, -6.64467, -74.8346, 3.77345
6.94383, 12, -6.78849, 29.6892, 27.4856, -6.70153, -74.9623, 3.80659
6.95181, 12, -6.85506, 29.8076, 27.3821, -6.7595, -75.0894, 3.83984
6.95984, 12, -6.92084, 29.9258, 27.2781, -6.81669, -75.2162, 3.87296
6.96786, 12, -6.98446, 30.0425, 27.1739, -6.87314, -75.3427, 3.90633
6.9758, 12, -7.04448, 30.1553, 27.0709, -6.93022, -75.4678, 3.93962
6.98384, 12, -7.10038, 30.2623, 26.9709, -6.98462, -75.5907, 3.97175
6.99185, 12, -7.1526, 30.3624, 26.8753, -7.03771, -75.708, 4.00206
6.99981, 12, -7.20084, 30.4549, 26.786, -7.08677, -75.8176, 4.03022
7.00784, 12, -7.24438, 30.5381, 26.7053, -7.13006, -75.9159, 4.05569
7.01584, 12, -7.28323, 30.6113, 26.6351, -7.16745, -75.9998, 4.07775
7.02384, 12, -7.31766, 30.6747, 26.5764, -7.19831, -76.0687, 4.09601
7.03198, 12, -7.34841, 30.729, 26.5296, -7.22159, -76.121, 4.11016
7.03992, 12, -7.37529, 30.7734, 26.4944, -7.23799, -76.1584, 4.12032
7.0479, 12, -7.39701, 30.8077, 26.4696, -7.24919, -76.1837, 4.12717
7.05595, 12, -7.4139, 30.8326, 26.4531, -7.25595, -76.1998, 4.13131
7.06409, 12, -7.42697, 30.8502, 26.4427, -7.25982, -76.2094, 4.13364
7.08498, 12, -7.44389, 30.87, 26.4312, -7.26367, -76.218, 4.13567
7.08629, 12, -7.44389, 30.87, 26.4312, -7.26367, -76.218, 4.13567
7.089, 12, -7.4452, 30.8713, 26.4303, -7.26388, -76.2186, 4.13578
7.09583, 12, -7.44692, 30.8726, 26.4292, -7.26417, -76.2192, 4.13588
7.10395, 12, -7.44782, 30.8732, 26.4285, -7.26431, -76.2196, 4.13595
7.11196, 12, -7.44869, 30.8738, 26.4278, -7.26435, -76.2199, 4.13603
7.11998, 12, -7.45076, 30.8759, 26.4267, -7.26449, -76.2201, 4.13604
7.12683, 12, -7.45262, 30.8781, 26.4258, -7.26454, -76.2204, 4.13603
7.13614, 13, -7.46252, 30.8926, 26.4199, -7.26564, -76.2232, 4.13616
7.14284, 13, -7.46742, 30.9005, 26.4163, -7.26663, -76.2255, 4.13641
7.15234, 13, -7.48899, 30.9349, 26.3971, -7.27335, -76.2414, 4.13963
7.1603, 13, -7.51018, 30.9691, 26.3745, -7.28295, -76.2624, 4.14494
7.16831, 13, -7.53589, 31.0126, 26.3416, -7.29808, -76.2953, 4.15351
7.17641, 13, -7.56573, 31.0654, 26.2968, -7.32034, -76.3438, 4.16603
7.18437, 13, -7.59946, 31.1278, 26.2393, -7.35019, -76.4091, 4.18272
7.19316, 13, -7.61786, 31.1628, 26.1692, -7.38629, -76.4897, 4.20345
7.19882, 13, -7.65788, 31.2401, 26.1297, -7.40627, -76.5355, 4.21523
7.20779, 13, -7.7015, 31.3253, 26.043, -7.45044, -76.6358, 4.24143
7.21578, 13, -7.74885, 31.4181, 25.9477, -7.49941, -76.7455, 4.27048
7.22279, 13, -7.80054, 31.519, 25.8458, -7.54991, -76.8609, 4.30128
7.2318, 13, -7.85669, 31.6276, 25.7395, -7.60182, -76.9796, 4.33288
7.23978, 13, -7.91654, 31.7417, 25.6306, -7.65477, -77.0996, 4.36447
7.2468, 13, -7.97832, 31.8588, 25.5202, -7.70651, -77.2199, 4.39628
7.25581, 13, -8.04107, 31.9773, 25.4091, -7.75925, -77.3402, 4.42844
7.26379, 13, -8.10431, 32.0967, 25.2973, -7.81178, -77.4601, 4.46101
7.27079, 13, -8.16767, 32.2168, 25.1846, -7.86331, -77.5801, 4.49379
7.27979, 13, -8.23101, 32.3371, 25.0713, -7.91593, -77.6994, 4.52613
7.28778, 13, -8.29416, 32.4572, 24.9575, -7.96735, -77.8186, 4.55799
7.29479, 13, -8.3573, 32.577, 24.8434, -8.01846, -77.9375, 4.58956
7.30387, 13, -8.42041, 32.6968, 24.7288, -8.07025, -78.0557, 4.62132
7.3119, 13, -8.4833, 32.8164, 24.6136, -8.1206, -78.1738, 4.65348
7.31881, 13, -8.54608, 32.9357, 24.4976, -8.17097, -78.2913, 4.68585
7.32778, 13, -8.60857, 33.055, 24.381, -8.2219, -78.4087, 4.71776
7.3368, 13, -8.67081, 33.1744, 24.2641, -8.27131, -78.5257, 4.74914
7.34384, 13, -8.73273, 33.2942, 24.1468, -8.32095, -78.6416, 4.78048
7.3518, 13, -8.79436, 33.4142, 24.0292, -8.37099, -78.7577, 4.81215
7.35978, 13, -8.85598, 33.5344, 23.9111, -8.41952, -78.8731, 4.84406
7.36789, 13, -8.91734, 33.6549, 23.7924, -8.46852, -78.9882, 4.87594
7.37583, 13, -8.97857, 33.7757, 23.6733, -8.51782, -79.1031, 4.9074
7.38378, 13, -9.0399, 33.8968, 23.5537, -8.56554, -79.2173, 4.93841
7.39186, 13, -9.10093, 34.0178, 23.4337, -8.61382, -79.3315, 4.96941
7.39979, 13, -9.16094, 34.1382, 23.3137, -8.66239, -79.4451, 5.00061
7.40778, 13, -9.21811, 34.2558, 23.1943, -8.70933, -79.5581, 5.03222
7.41585, 13, -9.27155, 34.3684, 23.0767, -8.75652, -79.6698, 5.06334
7.4238, 13, -9.32129, 34.4745, 22.9629, -8.80241, -79.7782, 5.09323
7.43179, 13, -9.3676, 34.5734, 22.8551, -8.84468, -79.8811, 5.12125
7.43985, 13, -9.41001, 34.6636, 22.756, -8.88367, -79.9755, 5.14665
7.44778, 13, -9.44796, 34.744, 22.6684, -8.91857, -80.058, 5.16936
7.45579, 13, -9.48188, 34.8142, 22.5938, -8.94719, -80.1275, 5.18845
7.46385, 13, -9.51235, 34.8746, 22.5331, -8.96963, -80.1822, 5.20384
7.47182, 13, -9.53942, 34.9256, 22.486, -8.98598, -80.2226, 5.21533
7.47978, 13, -9.56255, 34.966, 22.4517, -8.99717, -80.2504, 5.22334
7.48785, 13, -9.58081, 34.9964, 22.4283, -9.00456, -80.2687, 5.22857
7.49594, 13, -9.59445, 35.0181, 22.4133, -9.00887, -80.28, 5.23168
7.51689, 13, -9.6141, 35.0449, 22.3968, -9.01326, -80.2905, 5.23443
7.51814, 13, -9.6141, 35.0449, 22.3968, -9.01326, -80.2905, 5.23443
7.52024, 13, -9.61588, 35.0469, 22.3954, -9.01355, -80.2912, 5.23461
7.52726, 13, -9.61816, 35.0491, 22.3935, -9.01393, -80.2921, 5.23479
7.53574, 13, -9.61948, 35.0499, 22.3923, -9.01411, -80.2925, 5.23488
7.54393, 13, -9.62082, 35.0505, 22.3913, -9.01422, -80.2928, 5.23496
7.55188, 13, -9.62323, 35.0526, 22.39, -9.01435, -80.2931, 5.23502
7.55989, 13, -9.62746, 35.0585, 22.3875, -9.01462, -80.2936, 5.23506
7.56817, 14, -9.63436, 35.0692, 22.3824, -9.01551, -80.2956, 5.23523
7.57532, 14, -9.63897, 35.0767, 22.3783, -9.01638, -80.2977, 5.23602
7.58407, 14, -9.65896, 35.1103, 22.3568, -9.02208, -80.3116, 5.23868
7.59079, 14, -9.66811, 35.1262, 22.3454, -9.02557, -80.3198, 5.24083
7.59981, 14, -9.70232, 35.1888, 22.2942, -9.04306, -80.3595, 5.25201
7.60796, 14, -9.72935, 35.2425, 22.2434, -9.0619, -80.4022, 5.26414
7.61597, 14, -9.76003, 35.3063, 22.1779, -9.0868, -80.4606, 5.28015
7.62482, 14, -9.79452, 35.3806, 22.0975, -9.11676, -80.5321, 5.30008
7.63223, 14, -9.83254, 35.4644, 22.0037, -9.15124, -80.6167, 5.32346
7.63877, 14, -9.85276, 35.5093, 21.9525, -9.17015, -80.6626, 5.33629
7.64901, 14, -9.91874, 35.6556, 21.7855, -9.23214, -80.8116, 5.37845
7.65638, 14, -9.96809, 35.7625, 21.6662, -9.27475, -80.9162, 5.4086
7.66436, 14, -10.0216, 35.8762, 21.5429, -9.31819, -81.0228, 5.43939
7.67309, 14, -10.0778, 35.9942, 21.4171, -9.36259, -81.1299, 5.46997
7.67885, 14, -10.1065, 36.0542, 21.3537, -9.38448, -81.1833, 5.48529
7.6884, 14, -10.1936, 36.236, 21.162, -9.44893, -81.3438, 5.53167
7.69719, 14, -10.2228, 36.297, 21.0978, -9.47077, -81.4504, 5.56305
7.70289, 14, -10.2813, 36.4191, 20.9691, -9.51476, -81.5035, 5.57892
7.71182, 14, -10.3395, 36.5416, 20.8399, -9.5575, -81.6098, 5.61073
7.71978, 14, -10.3977, 36.6642, 20.7101, -9.60004, -81.7155, 5.6422
7.72685, 14, -10.4558, 36.7869, 20.5796, -9.64341, -81.8208, 5.67335
7.73582, 14, -10.5137, 36.9096, 20.4485, -9.68583, -81.926, 5.70409
7.74378, 14, -10.5715, 37.032, 20.317, -9.72748, -82.0306, 5.73511
7.75084, 14, -10.6291, 37.1541, 20.185, -9.76976, -82.1345, 5.7665
7.75984, 14, -10.6863, 37.2759, 20.0524, -9.81203, -82.2384, 5.79811
7.76777, 14, -10.7432, 37.3979, 19.9193, -9.85311, -82.3417, 5.82951
7.77582, 14, -10.7997, 37.5202, 19.7854, -9.89419, -82.4446, 5.86045
7.78382, 14, -10.856, 37.6426, 19.6513, -9.93581, -82.5475, 5.89134
7.79177, 14, -10.9122, 37.7652, 19.5168, -9.97631, -82.6498, 5.92242
7.79982, 14, -10.9683, 37.8881, 19.3817, -10.0161, -82.7516, 5.95392
7.8078, 14, -11.0244, 38.0111, 19.2462, -10.0563, -82.8532, 5.98541
7.81576, 14, -11.0805, 38.1344, 19.1101, -10.0966, -82.9541, 6.01641
7.82384, 14, -11.1363, 38.258, 18.9737, -10.1359, -83.0548, 6.0472
7.83177, 14, -11.1911, 38.3806, 18.8371, -10.175, -83.1552, 6.07789
7.8408, 14, -11.2432, 38.5005, 18.7012, -10.2146, -83.2547, 6.10883
7.84783, 14, -11.2919, 38.6154, 18.5675, -10.2533, -83.3531, 6.13991
7.85682, 14, -11.337, 38.7236, 18.4382, -10.29, -83.4488, 6.17026
7.86378, 14, -11.3791, 38.8246, 18.3156, -10.3249, -83.5392, 6.19853
7.87187, 14, -11.4177, 38.917, 18.2027, -10.3576, -83.6223, 6.22447
7.87977, 14, -11.4527, 38.9993, 18.1024, -10.3861, -83.6953, 6.24723
7.88777, 14, -11.4838, 39.0712, 18.0173, -10.4093, -83.7563, 6.26614
7.89583, 14, -11.512, 39.1331, 17.9484, -10.4277, -83.8049, 6.28118
7.90378, 14, -11.5376, 39.1851, 17.895, -10.4411, -83.8403, 6.29255
7.91187, 14, -11.559, 39.2266, 17.8559, -10.4504, -83.8648, 6.30063
7.91983, 14, -11.5762, 39.2578, 17.8292, -10.4565, -83.8808, 6.30577
7.92792, 14, -11.5895, 39.2801, 17.8122, -10.4602, -83.8903, 6.30892
7.94958, 14, -11.5992, 39.3091, 17.7936, -10.464, -83.8993, 6.31179
7.95239, 14, -11.6099, 39.3113, 17.7922, -10.4642, -83.8999, 6.31196
7.95362, 14, -11.6099, 39.3113, 17.7922, -10.4642, -83.8999, 6.31196
7.95879, 14, -11.6121, 39.3138, 17.7902, -10.4646, -83.9006, 6.31218
7.96777, 14, -11.6133, 39.3149, 17.789, -10.4648, -83.9009, 6.31235
7.97587, 14, -11.6139, 39.3155, 17.7881, -10.4649, -83.9012, 6.31237
7.98377, 14, -11.6151, 39.3167, 17.7871, -10.465, -83.9014, 6.3124
7.99177, 14, -11.6178, 39.3205, 17.7853, -10.4652, -83.9016, 6.31245
7.99983, 15, -11.6229, 39.3283, 17.7815, -10.4655, -83.9026, 6.31259
8.00776, 15, -11.6308, 39.3409, 17.7741, -10.4665, -83.9053, 6.31297
8.01583, 15, -11.6423, 39.3604, 17.7608, -10.4689, -83.9116, 6.31476
8.0238, 15, -11.6585, 39.3893, 17.7384, -10.4737, -83.9238, 6.31864
8.03183, 15, -11.6787, 39.4284, 17.704, -10.482, -83.9446, 6.32518
8.04022, 15, -11.7023, 39.4774, 17.6552, -10.4949, -83.9761, 6.33558
8.04729, 15, -11.7288, 39.5365, 17.5902, -10.5126, -84.0192, 6.35026
8.05586, 15, -11.7583, 39.6062, 17.5082, -10.5352, -84.0759, 6.36896
8.06394, 15, -11.7914, 39.6865, 17.4099, -10.5616, -84.1438, 6.39122
8.07186, 15, -11.8275, 39.7761, 17.2975, -10.5913, -84.2219, 6.41658
8.07978, 15, -11.8664, 39.8738, 17.1737, -10.6241, -84.3073, 6.44431
8.08793, 15, -11.9089, 39.9796, 17.0418, -10.6591, -84.3974, 6.47389
8.09581, 15, -11.9556, 40.0927, 16.9044, -10.6944, -84.4896, 6.50491
8.10381, 15, -12.0057, 40.2114, 16.7634, -10.7295, -84.583, 6.5366
8.11204, 15, -12.0576, 40.3333, 16.6204, -10.765, -84.6765, 6.56804
8.11876, 15, -12.0839, 40.395, 16.5485, -10.7831, -84.7231, 6.58369
8.12798, 15, -12.1636, 40.5818, 16.3315, -10.836, -84.8631, 6.63077
8.13615, 15, -12.2167, 40.707, 16.1862, -10.8704, -84.9559, 6.66269
8.14275, 15, -12.2433, 40.7697, 16.1132, -10.8875, -85.002, 6.67885
8.15218, 15, -12.323, 40.9576, 15.8934, -10.9398, -85.1403, 6.72768
8.15879, 15, -12.3495, 41.0201, 15.8198, -10.9571, -85.1861, 6.7438
8.16829, 15, -12.429, 41.2079, 15.5985, -11.0077, -85.3229, 6.79147
8.1763, 15, -12.482, 41.3329, 15.4502, -11.0412, -85.4139, 6.82318
8.18438, 15, -12.5347, 41.4578, 15.301, -11.0753, -85.5044, 6.8551
8.19234, 15, -12.561, 41.5825, 15.1513, -11.1088, -85.5941, 6.88753
8.20029, 15, -12.6136, 41.6448, 15.0764, -11.1252, -85.6839, 6.92006
8.20846, 15, -12.6658, 41.7696, 14.9261, -11.174, -85.7729, 6.9523
8.21575, 15, -12.7177, 41.8946, 14.7752, -11.1903, -85.8175, 6.96833
8.22282, 15, -12.7697, 42.0199, 14.6236, -11.2235, -85.9058, 7.00036
8.23288, 15, -12.8477, 42.2086, 14.3953, -11.2721, -86.0382, 7.0488
8.23977, 15, -12.8735, 42.2715, 14.3192, -11.2879, -86.082, 7.06525
8.24775, 15, -12.9252, 42.3975, 14.1666, -11.3196, -86.1693, 7.09794
8.2558, 15, -12.9767, 42.5238, 14.0133, -11.3515, -86.2561, 7.1302
8.26378, 15, -13.0275, 42.6498, 13.8594, -11.3836, -86.3426, 7.16219
8.27175, 15, -13.0764, 42.7737, 13.706, -11.4147, -86.4285, 7.19408
8.27981, 15, -13.1223, 42.8932, 13.5543, -11.445, -86.5134, 7.22625
8.28776, 15, -13.1646, 43.007, 13.4059, -11.4747, -86.5969, 7.25826
8.29576, 15, -13.2038, 43.1142, 13.2633, -11.5038, -86.6769, 7.28916
8.30381, 15, -13.2402, 43.2135, 13.1299, -11.5307, -86.7515, 7.31757
8.31179, 15, -13.273, 43.3034, 13.009, -11.5545, -86.8185, 7.34314
8.31882, 15, -13.3022, 43.3826, 12.9034, -11.5747, -86.8769, 7.36516
8.32782, 15, -13.329, 43.4513, 12.8156, -11.591, -86.9239, 7.38307
8.33767, 15, -13.3648, 43.5352, 12.7175, -11.6084, -86.975, 7.40261
8.34375, 15, -13.3753, 43.5579, 12.6932, -11.6125, -86.9872, 7.40724
8.35187, 15, -13.3938, 43.5953, 12.6558, -11.6187, -87.0055, 7.41421
8.36183, 15, -13.4085, 43.6233, 12.6307, -11.6226, -87.0209, 7.42021
8.36683, 15, -13.4198, 43.6441, 12.6149, -11.6248, -87.0238, 7.42131
8.37586, 15, -13.4282, 43.6587, 12.6054, -11.6262, -87.0274, 7.42276
8.38398, 15, -13.4337, 43.6679, 12.6, -11.6269, -87.0292, 7.42349
8.39175, 16, -13.437, 43.6728, 12.5971, -11.6273, -87.0301, 7.42385
8.39983, 16, -13.4387, 43.6753, 12.5955, -11.6274, -87.0305, 7.42403
8.40775, 16, -13.4398, 43.6764, 12.5944, -11.6275, -87.0308, 7.42411
8.41575, 16, -13.4403, 43.6769, 12.5935, -11.6277, -87.031, 7.42417
8.42381, 16, -13.4406, 43.6772, 12.5927, -11.6278, -87.0311, 7.42419
8.43176, 16, -13.4407, 43.6773, 12.5922, -11.6279, -87.0312, 7.42428
8.43976, 16, -13.4409, 43.6775, 12.5918, -11.6279, -87.0312, 7.4243
8.44781, 16, -13.441, 43.6778, 12.5915, -11.6279, -87.0313, 7.42427
8.45575, 16, -13.4411, 43.6782, 12.5913, -11.6279, -87.0312, 7.42422
8.46375, 16, -13.4411, 43.6788, 12.591, -11.628, -87.0313, 7.42429
8.47181, 16, -13.4412, 43.6793, 12.5908, -11.628, -87.0313, 7.42433
8.4798, 16, -13.4412, 43.6799, 12.5907, -11.628, -87.0312, 7.42435
8.48772, 16, -13.4412, 43.6804, 12.5906, -11.628, -87.0312, 7.42444
8.49581, 16, -13.4414, 43.6808, 12.5906, -11.6281, -87.0313, 7.4244
8.50375, 16, -13.4415, 43.6811, 12.5905, -11.628, -87.0312, 7.42441
