hehonglu123/ABB_Primitive_Study/realrobot/movelcl_30_car2/curve_exe_v500_z10.csv
timestamp, cmd_num, J1, J2, J3, J4, J5, J6
0.000361, -1, -13.4397, 43.6796, 12.5937, -11.6278, -87.0288, 7.42452
0.003572, -1, -13.4397, 43.6796, 12.5937, -11.6278, -87.0288, 7.42452
0.027445, -1, -13.4397, 43.6796, 12.5937, -11.6278, -87.0288, 7.42456
0.028744, -1, -13.4397, 43.6796, 12.5937, -11.6278, -87.0288, 7.42456
0.030571, -1, -13.4397, 43.6796, 12.5937, -11.6278, -87.0288, 7.42451
0.033177, -1, -13.4398, 43.6796, 12.5937, -11.6278, -87.0288, 7.42451
0.039376, -1, -13.4398, 43.6796, 12.5937, -11.6278, -87.0288, 7.42449
0.047364, -1, -13.4396, 43.6795, 12.5937, -11.6278, -87.0288, 7.42451
0.055288, -1, -13.4384, 43.6786, 12.5938, -11.6278, -87.0288, 7.42451
0.063283, -1, -13.4347, 43.6759, 12.5943, -11.6278, -87.0287, 7.42452
0.071577, -1, -13.4278, 43.6703, 12.5953, -11.6271, -87.0277, 7.42443
0.079266, -1, -13.4172, 43.6616, 12.5975, -11.6241, -87.0239, 7.42392
0.088116, -1, -13.4012, 43.6487, 12.601, -11.6158, -87.0142, 7.42072
0.095428, -1, -13.3779, 43.6298, 12.6065, -11.5997, -86.9951, 7.41022
0.103472, -1, -13.3464, 43.6036, 12.6149, -11.572, -86.9624, 7.3905
0.112337, -1, -13.3062, 43.5695, 12.6263, -11.5285, -86.9124, 7.35929
0.119707, -1, -13.2559, 43.5258, 12.6415, -11.4647, -86.8388, 7.31353
0.128243, -1, -13.1944, 43.4716, 12.6611, -11.3786, -86.7388, 7.24969
0.136647, -1, -13.1214, 43.4064, 12.6851, -11.2664, -86.6089, 7.16723
0.143744, -1, -13.0369, 43.33, 12.7136, -11.1281, -86.4481, 7.06471
0.152346, -1, -12.9403, 43.2422, 12.7472, -10.9631, -86.256, 6.94211
0.160648, -1, -12.8319, 43.1434, 12.7853, -10.7735, -86.0349, 6.80074
0.167977, -1, -12.7123, 43.0346, 12.8273, -10.5613, -85.7875, 6.64218
0.175997, -1, -12.5825, 42.9167, 12.873, -10.3304, -85.5181, 6.46951
0.184917, -1, -12.4431, 42.7903, 12.9218, -10.0849, -85.2312, 6.28597
0.192227, -1, -12.2954, 42.657, 12.9733, -9.82861, -84.9317, 6.0939
0.199251, -1, -12.219, 42.5881, 12.9997, -9.69748, -84.7784, 5.99571
0.209067, -1, -11.9818, 42.3743, 13.0812, -9.29675, -84.3096, 5.69514
0.216648, -1, -11.8172, 42.2272, 13.137, -9.02585, -83.9928, 5.49164
0.223208, -1, -11.7333, 42.1524, 13.1651, -8.88978, -83.8337, 5.38958
0.233268, -1, -11.4783, 41.9257, 13.2503, -8.48017, -83.3548, 5.08279
0.239262, -1, -11.3926, 41.8497, 13.2789, -8.3435, -83.1948, 4.98025
0.248657, -1, -11.1348, 41.6214, 13.3646, -7.93306, -82.7145, 4.67254
0.257541, -1, -10.9625, 41.4698, 13.4219, -7.6592, -82.3939, 4.46706
0.263249, -1, -10.8763, 41.394, 13.4507, -7.52237, -82.2335, 4.36434
0.27123, -1, -10.7039, 41.2424, 13.5083, -7.24849, -81.9126, 4.15891
0.28165, -1, -10.4451, 41.0149, 13.5949, -6.83733, -81.4315, 3.85098
0.28727, -1, -10.3588, 40.9391, 13.6237, -6.70039, -81.2712, 3.74829
0.296854, -1, -10.1004, 40.7119, 13.71, -6.2897, -80.7904, 3.44024
0.3056, -1, -10.0144, 40.6362, 13.7387, -6.15282, -80.6305, 3.23488
0.311264, -1, -9.84282, 40.4845, 13.7961, -5.87917, -80.3106, 3.13236
0.321088, -1, -9.6719, 40.3323, 13.8534, -5.60561, -79.831, 2.82512
0.327274, -1, -9.50153, 40.18, 13.9107, -5.33227, -79.6712, 2.72286
0.3352, -1, -9.3318, 40.028, 13.968, -5.05892, -79.3516, 2.51812
0.343252, -1, -9.16273, 39.8761, 14.0251, -4.78611, -79.0322, 2.31358
0.351262, -1, -8.99386, 39.724, 14.0822, -4.51367, -78.713, 2.10923
0.359197, -1, -8.82484, 39.572, 14.1392, -4.24159, -78.394, 1.90541
0.36722, -1, -8.65552, 39.4203, 14.1962, -3.97, -78.0759, 1.7018
0.375283, -1, -8.48588, 39.2695, 14.2531, -3.69877, -77.7584, 1.49848
0.383348, -1, -8.31608, 39.1189, 14.31, -3.42769, -77.4412, 1.29536
0.391695, -1, -8.14615, 38.9686, 14.3668, -3.15742, -77.1249, 1.09253
0.399202, -1, -7.97597, 38.8183, 14.4235, -2.88757, -76.8091, 0.890282
0.407197, -1, -7.80585, 38.6685, 14.4801, -2.61809, -76.4938, 0.68854
0.416053, -1, -7.63553, 38.5193, 14.5365, -2.34944, -76.1789, 0.487228
0.424261, -1, -7.46514, 38.3704, 14.5928, -2.08125, -75.8646, 0.286339
0.431196, -1, -7.295, 38.2214, 14.6491, -1.81325, -75.5509, 0.0858229
0.439993, -1, -7.12542, 38.0725, 14.7052, -1.54602, -75.2382, -0.114452
0.448317, -1, -6.95678, 37.9239, 14.7613, -1.27957, -74.9262, -0.313902
0.456196, -1, -6.78916, 37.7757, 14.8171, -1.01367, -74.615, -0.512765
0.464194, -1, -6.62246, 37.6279, 14.8726, -0.748667, -74.3047, -0.711292
0.471192, -1, -6.45664, 37.4802, 14.928, -0.484569, -73.9951, -0.909259
0.479214, -1, -6.29215, 37.3327, 14.9834, -0.22085, -73.6864, -1.107
0.488054, -1, -6.12865, 37.1859, 15.0386, 0.0422132, -73.3785, -1.30379
0.496257, -1, -5.966, 37.0399, 15.0937, 0.304329, -73.0716, -1.49988
0.504203, -1, -5.80391, 36.8945, 15.1485, 0.565557, -72.7658, -1.69542
0.512117, -1, -5.64189, 36.7494, 15.2031, 0.826155, -72.4607, -1.89045
0.520261, -1, -5.47983, 36.6048, 15.2576, 1.08566, -72.1566, -2.08496
0.527296, -1, -5.31778, 36.4606, 15.312, 1.34439, -71.8536, -2.27883
0.536089, -1, -5.15589, 36.3172, 15.3662, 1.60239, -71.5515, -2.472
0.544256, -1, -4.99414, 36.1742, 15.4204, 1.85961, -71.2505, -2.66433
0.55134, -1, -4.83261, 36.0315, 15.4742, 2.11565, -70.9505, -2.85625
0.560128, -1, -4.67134, 35.8891, 15.5279, 2.3708, -70.6516, -3.04738
0.567202, -1, -4.51011, 35.747, 15.5813, 2.62497, -70.3538, -3.23807
0.575244, -1, -4.34894, 35.6057, 15.6344, 2.878, -70.0573, -3.42805
0.584129, -1, -4.18814, 35.465, 15.6874, 3.13032, -69.762, -3.61694
0.591283, -1, -4.02838, 35.3246, 15.7402, 3.38202, -69.4678, -3.80502
0.599425, -1, -3.86998, 35.1846, 15.7929, 3.63263, -69.1744, -3.99259
0.608249, -1, -3.7128, 35.0449, 15.8452, 3.88216, -68.8821, -4.1793
0.615498, -1, -3.55663, 34.906, 15.8973, 4.13083, -68.5908, -4.36558
0.623649, -1, -3.40134, 34.7678, 15.9491, 4.37857, -68.3004, -4.55122
0.632932, -1, -3.24697, 34.6303, 16.0009, 4.62526, -68.0112, -4.73575
0.640292, -1, -3.09374, 34.4932, 16.0526, 4.87108, -67.7232, -4.91961
0.647823, -1, -2.94154, 34.3565, 16.1041, 5.11638, -67.4365, -5.10277
0.657107, -1, -2.78996, 34.2204, 16.1554, 5.36033, -67.151, -5.28535
0.663752, -1, -2.63884, 34.0852, 16.2063, 5.60306, -66.8667, -5.4673
0.67233, -1, -2.48776, 33.9507, 16.2572, 5.84499, -66.5837, -5.64855
0.679839, -1, -2.41215, 33.8835, 16.3078, 6.08582, -66.3019, -5.82863
0.688201, -1, -2.18574, 33.6829, 16.3582, 6.32548, -66.021, -6.00828
0.695245, -1, -2.11046, 33.6161, 16.3834, 6.44495, -65.881, -6.09771
0.703184, -1, -1.96018, 33.483, 16.4334, 6.68336, -65.6017, -6.27605
0.711183, -1, -1.81044, 33.3506, 16.4831, 6.92093, -65.3237, -6.4539
0.721211, -1, -1.58646, 33.1528, 16.5572, 7.27504, -64.9088, -6.7193
0.727184, -1, -1.51185, 33.0872, 16.5818, 7.39251, -64.771, -6.8075
0.735244, -1, -1.36268, 32.956, 16.631, 7.6269, -64.4964, -6.983
0.74533, -1, -1.14003, 32.7603, 16.7045, 7.97663, -64.0867, -7.24506
0.751236, -1, -1.06642, 32.6955, 16.7289, 8.09271, -63.9508, -7.33203
0.759183, -1, -0.920159, 32.5665, 16.7775, 8.32417, -63.6797, -7.50543
0.767188, -1, -0.775149, 32.438, 16.8258, 8.55497, -63.4098, -7.67835
0.775242, -1, -0.63103, 32.31, 16.874, 8.78463, -63.1411, -7.85036
0.785305, -1, -0.416587, 32.119, 16.946, 9.12692, -62.7402, -8.10669
0.791188, -1, -0.345716, 32.0556, 16.9699, 9.24057, -62.6073, -8.19162
0.799274, -1, -0.204708, 31.9294, 17.0175, 9.46722, -62.342, -8.36101
0.808823, -1, -0.0646048, 31.8037, 17.0648, 9.80505, -61.9462, -8.61392
0.81618, -1, 0.0746138, 31.6785, 17.112, 9.91706, -61.8148, -8.69781
0.823286, -1, 0.213525, 31.5537, 17.1588, 10.1407, -61.5528, -8.86546
0.832231, -1, 0.352458, 31.4293, 17.2055, 10.3635, -61.2918, -9.0322
0.840196, -1, 0.491554, 31.3053, 17.252, 10.5851, -61.0319, -9.19812
0.847293, -1, 0.630489, 31.182, 17.2984, 10.8058, -60.7731, -9.36331
0.855196, -1, 0.769027, 31.0593, 17.3445, 11.0256, -60.5155, -9.52775
0.863179, -1, 0.907231, 30.937, 17.3904, 11.2446, -60.2592, -9.69175
0.87119, -1, 1.04495, 30.8152, 17.4362, 11.4625, -60.0038, -9.85485
0.879186, -1, 1.18233, 30.6939, 17.4817, 11.6794, -59.7497, -10.0176
0.887371, -1, 1.3194, 30.5731, 17.527, 11.8956, -59.4967, -10.1794
0.895183, -1, 1.45618, 30.453, 17.5722, 12.1111, -59.2451, -10.3403
0.903183, -1, 1.59235, 30.3335, 17.6173, 12.3255, -58.9943, -10.5007
0.911256, -1, 1.72771, 30.2145, 17.6621, 12.539, -58.7444, -10.6603
0.919184, -1, 1.8621, 30.0961, 17.7068, 12.7517, -58.4954, -10.8195
0.92718, -1, 1.99548, 29.9781, 17.7512, 12.9633, -58.2473, -10.978
0.935247, -1, 2.12807, 29.8604, 17.7955, 13.1742, -58.0001, -11.136
0.94318, -1, 2.25998, 29.7433, 17.8395, 13.3839, -57.7538, -11.2933
0.951193, -1, 2.39094, 29.6268, 17.8833, 13.593, -57.5085, -11.4498
0.959257, -1, 2.52099, 29.5107, 17.9269, 13.8014, -57.2643, -11.6056
0.967202, -1, 2.65003, 29.3948, 17.9705, 14.0089, -57.0212, -11.761
0.97518, -1, 2.7783, 29.2795, 18.0138, 14.2155, -56.7793, -11.9158
0.983249, -1, 2.90592, 29.1643, 18.0569, 14.4211, -56.5383, -12.0699
0.991182, -1, 3.03343, 29.0496, 18.1, 14.6262, -56.2987, -12.2236
0.999245, -1, 3.1609, 28.9356, 18.1426, 14.8302, -56.0598, -12.3765
1.00733, -1, 3.28844, 28.8221, 18.1852, 15.0334, -55.822, -12.5288
1.0153, -1, 3.41561, 28.709, 18.2278, 15.2359, -55.5851, -12.6802
1.02333, -1, 3.54253, 28.5965, 18.2701, 15.4377, -55.3489, -12.831
1.03151, -1, 3.66922, 28.4843, 18.3124, 15.6389, -55.1137, -12.9812
1.03929, -1, 3.79556, 28.3726, 18.3543, 15.8389, -54.8793, -13.1309
1.04737, -1, 3.92165, 28.2615, 18.396, 16.0382, -54.6457, -13.2803
1.05573, -1, 4.04753, 28.1509, 18.4378, 16.2367, -54.4128, -13.4291
1.06418, -1, 4.173, 28.0408, 18.4793, 16.4344, -54.1809, -13.577
1.07126, -1, 4.29789, 27.9311, 18.5206, 16.6314, -53.9501, -13.7244
1.08003, -1, 4.42204, 27.8218, 18.5619, 16.8274, -53.7203, -13.8712
1.08818, -1, 4.54548, 27.7127, 18.6029, 17.0228, -53.4914, -14.0173
1.09536, -1, 4.66863, 27.6039, 18.6437, 17.2177, -53.2634, -14.1631
1.10417, -1, 4.79105, 27.4957, 18.6844, 17.4116, -53.0362, -14.3082
1.11144, -1, 4.91274, 27.3879, 18.7249, 17.6049, -52.8101, -14.4531
1.11955, -1, 5.03378, 27.2804, 18.7654, 17.7973, -52.5845, -14.5973
1.12835, -1, 5.15411, 27.1733, 18.8057, 17.9892, -52.3601, -14.7409
1.13579, -1, 5.27347, 27.0666, 18.8456, 18.1804, -52.1365, -14.8838
1.14433, -1, 5.39195, 26.9602, 18.8856, 18.3707, -51.9136, -15.0261
1.15249, -1, 5.50989, 26.8542, 18.9255, 18.5604, -51.6914, -15.1679
1.29084, -1, 7.47434, 25.1113, 19.581, 21.6845, -48.0332, -17.5076
1.29271, -1, 7.53043, 25.0617, 19.5997, 21.7737, -47.9288, -17.5743
1.29418, -1, 7.53043, 25.0617, 19.5997, 21.7737, -47.9288, -17.5743
1.29536, -1, 7.53043, 25.0617, 19.5997, 21.7737, -47.9288, -17.5743
1.29804, -1, 7.58643, 25.0122, 19.6184, 21.8627, -47.8245, -17.6409
1.29924, -1, 7.58643, 25.0122, 19.6184, 21.8627, -47.8245, -17.6409
1.3013, -1, 7.64234, 24.9626, 19.6371, 21.9516, -47.7204, -17.7075
1.30491, -1, 7.69806, 24.9132, 19.6558, 22.0403, -47.6164, -17.774
1.30638, -1, 7.69806, 24.9132, 19.6558, 22.0403, -47.6164, -17.774
1.30761, -1, 7.69806, 24.9132, 19.6558, 22.0403, -47.6164, -17.774
1.3105, -1, 7.75361, 24.8639, 19.6744, 22.1288, -47.5127, -17.8404
1.31169, -1, 7.75361, 24.8639, 19.6744, 22.1288, -47.5127, -17.8404
1.3137, -1, 7.80906, 24.8146, 19.6929, 22.2172, -47.409, -17.9066
1.31499, -1, 7.80906, 24.8146, 19.6929, 22.2172, -47.409, -17.9066
1.31617, -1, 7.80906, 24.8146, 19.6929, 22.2172, -47.409, -17.9066
1.31902, -1, 7.86442, 24.7654, 19.7114, 22.3057, -47.3054, -17.9727
1.32168, -1, 7.86442, 24.7654, 19.7114, 22.3057, -47.3054, -17.9727
1.32297, -1, 7.91971, 24.7162, 19.7299, 22.394, -47.2021, -18.0386
1.32483, -1, 7.91971, 24.7162, 19.7299, 22.394, -47.2021, -18.0386
1.32646, -1, 7.97489, 24.667, 19.7484, 22.4821, -47.0989, -18.1045
1.32773, -1, 7.97489, 24.667, 19.7484, 22.4821, -47.0989, -18.1045
1.33005, -1, 8.02995, 24.618, 19.7669, 22.5701, -46.9959, -18.1702
1.33924, -1, 8.13977, 24.5201, 19.8037, 22.7453, -46.7905, -18.3012
1.34317, -1, 8.1945, 24.4712, 19.8219, 22.8327, -46.688, -18.3666
1.35128, -1, 8.30367, 24.3738, 19.8584, 23.0071, -46.4835, -18.4973
1.35919, -1, 8.41253, 24.2766, 19.8949, 23.181, -46.28, -18.6275
1.36721, -1, 8.52082, 24.1798, 19.9312, 23.3544, -46.0769, -18.7572
1.37521, -1, 8.62848, 24.0831, 19.9674, 23.5272, -45.8747, -18.8868
1.38317, -1, 8.73573, 23.9868, 20.0036, 23.6993, -45.6731, -19.0159
1.39127, -1, 8.84292, 23.8909, 20.0395, 23.871, -45.4721, -19.1443
1.39916, -1, 8.95016, 23.7954, 20.0754, 24.0422, -45.2719, -19.2725
1.40716, -1, 9.05733, 23.7003, 20.1114, 24.213, -45.0724, -19.4002
1.41524, -1, 9.16435, 23.6056, 20.147, 24.3831, -44.8733, -19.5272
1.42316, -1, 9.27112, 23.5112, 20.1825, 24.5527, -44.6746, -19.6541
1.43149, -1, 9.37779, 23.417, 20.2182, 24.7217, -44.4765, -19.7809
1.43917, -1, 9.48413, 23.323, 20.2536, 24.8904, -44.2789, -19.907
1.44716, -1, 9.59015, 23.2292, 20.2888, 25.0585, -44.0819, -20.0331
1.45602, -1, 9.69588, 23.1357, 20.3241, 25.2261, -43.8852, -20.1587
1.46423, -1, 9.8014, 23.0425, 20.3591, 25.3932, -43.6893, -20.2838
1.47118, -1, 9.90668, 22.9495, 20.394, 25.5597, -43.4942, -20.4085
1.47998, -1, 10.0116, 22.8568, 20.4289, 25.726, -43.2997, -20.5327
1.48822, -1, 10.116, 22.7643, 20.4636, 25.8919, -43.1057, -20.6568
1.49516, -1, 10.2201, 22.6721, 20.4981, 26.0571, -42.9123, -20.7804
1.50397, -1, 10.3238, 22.5801, 20.5327, 26.2219, -42.7194, -20.9039
1.51223, -1, 10.427, 22.4883, 20.5672, 26.386, -42.5271, -21.0269
1.5193, -1, 10.53, 22.3969, 20.6016, 26.5499, -42.3353, -21.1498
1.52809, -1, 10.6327, 22.3058, 20.6359, 26.7133, -42.1439, -21.2722
1.53623, -1, 10.7351, 22.215, 20.6701, 26.8762, -41.9533, -21.394
1.54327, -1, 10.837, 22.1244, 20.7041, 27.0386, -41.7633, -21.5156
1.55265, -1, 10.9385, 22.0341, 20.7381, 27.2004, -41.5738, -21.6367
1.5593, -1, 11.0395, 21.9439, 20.7721, 27.3619, -41.3847, -21.7574
1.56734, -1, 11.1403, 21.854, 20.8059, 27.5231, -41.1959, -21.878
1.57519, -1, 11.2409, 21.7643, 20.8395, 27.6838, -41.0078, -21.9982
1.58319, -1, 11.3412, 21.6748, 20.8732, 27.844, -40.8201, -22.1181
1.59133, -1, 11.4412, 21.5856, 20.9067, 28.0038, -40.6329, -22.2379
1.59925, -1, 11.5407, 21.4966, 20.9401, 28.163, -40.4462, -22.3574
1.60741, -1, 11.6399, 21.4078, 20.9735, 28.3218, -40.2598, -22.4762
1.61544, -1, 11.739, 21.3194, 21.0068, 28.4804, -40.0743, -22.5949
1.62345, -1, 11.8379, 21.2312, 21.0399, 28.6386, -39.8889, -22.7132
1.6316, -1, 11.9368, 21.1433, 21.073, 28.7962, -39.7042, -22.8309
1.63975, -1, 12.0356, 21.0556, 21.1061, 28.9534, -39.5199, -22.9487
1.64832, -1, 12.1344, 20.9682, 21.1389, 29.1103, -39.3362, -23.066
1.65569, -1, 12.2331, 20.881, 21.1717, 29.267, -39.1529, -23.1832
1.66431, -1, 12.3315, 20.794, 21.2045, 29.4233, -38.97, -23.3002
1.67176, -1, 12.4296, 20.7073, 21.2371, 29.5791, -38.7879, -23.417
1.68026, -1, 12.5275, 20.6207, 21.2697, 29.7344, -38.6058, -23.5334
1.68791, -1, 12.5764, 20.5343, 21.3022, 29.8893, -38.4245, -23.6492
1.69623, -1, 12.7227, 20.4481, 21.3346, 30.0439, -38.2437, -23.7649
1.70321, -1, 12.7713, 20.405, 21.3507, 30.1211, -38.1534, -23.8226
1.71223, -1, 12.9166, 20.276, 21.399, 30.352, -37.8836, -23.9951
1.71915, -1, 12.965, 20.2331, 21.4151, 30.4288, -37.7938, -24.0527
1.72831, -1, 13.1095, 20.1048, 21.4634, 30.6582, -37.5251, -24.2244
1.73516, -1, 13.1575, 20.0621, 21.4793, 30.7345, -37.4355, -24.2815
1.74444, -1, 13.301, 19.9345, 21.5273, 30.9633, -37.1677, -24.4528
1.75122, -1, 13.3487, 19.8921, 21.5433, 31.0394, -37.0787, -24.5096
1.76066, -1, 13.4914, 19.7652, 21.591, 31.2669, -36.8119, -24.68
1.76866, -1, 13.5864, 19.6808, 21.6227, 31.4182, -36.6347, -24.7934
1.77666, -1, 13.6812, 19.5967, 21.6544, 31.5689, -36.4579, -24.9062
1.7855, -1, 13.7756, 19.5126, 21.686, 31.7193, -36.2816, -25.019
1.79117, -1, 13.8228, 19.4707, 21.7017, 31.7945, -36.1935, -25.0752
1.80073, -1, 13.9639, 19.3453, 21.7489, 32.0195, -35.93, -25.2437
1.80957, -1, 14.011, 19.3036, 21.7804, 32.169, -35.755, -25.3559
1.81516, -1, 14.105, 19.2204, 21.796, 32.2435, -35.6676, -25.4117
1.82319, -1, 14.1987, 19.1373, 21.8271, 32.3924, -35.4931, -25.5236
1.83117, -1, 14.292, 19.0545, 21.8582, 32.5411, -35.3192, -25.635
1.84015, -1, 14.385, 18.9718, 21.8894, 32.6895, -35.1455, -25.7463
1.84816, -1, 14.4777, 18.8892, 21.9204, 32.8377, -34.9723, -25.857
1.85617, -1, 14.5702, 18.8068, 21.9513, 32.9855, -34.7996, -25.9675
1.86316, -1, 14.6623, 18.7246, 21.9824, 33.1328, -34.6274, -26.0777
1.87121, -1, 14.7543, 18.6426, 22.0131, 33.2798, -34.4555, -26.1876
1.87915, -1, 14.8461, 18.5607, 22.0438, 33.4264, -34.2837, -26.2975
1.88716, -1, 14.9378, 18.4792, 22.0745, 33.5728, -34.1122, -26.4067
1.89523, -1, 15.0293, 18.3977, 22.1053, 33.7189, -33.9411, -26.516
1.90316, -1, 15.1207, 18.3165, 22.1358, 33.8647, -33.7705, -26.6252
1.91116, -1, 15.2118, 18.2355, 22.1662, 34.01, -33.6, -26.7342
1.9192, -1, 15.303, 18.1547, 22.1967, 34.1549, -33.4299, -26.843
1.92718, -1, 15.3942, 18.0739, 22.2272, 34.2998, -33.2599, -26.9512
1.93515, -1, 15.4853, 17.9934, 22.2575, 34.4443, -33.0908, -27.0593
1.94319, -1, 15.5763, 17.913, 22.2877, 34.5887, -32.9218, -27.1671
1.95118, -1, 15.6671, 17.8327, 22.318, 34.7325, -32.7535, -27.2745
1.95915, -1, 15.7575, 17.7526, 22.3481, 34.8762, -32.5854, -27.382
1.96721, -1, 15.8478, 17.6727, 22.378, 35.0193, -32.4176, -27.4892
1.97519, -1, 15.938, 17.5928, 22.408, 35.1622, -32.2502, -27.5963
1.98315, -1, 16.0279, 17.5132, 22.438, 35.305, -32.0831, -27.7032
1.9912, -1, 16.1175, 17.4337, 22.4678, 35.4475, -31.9164, -27.8101
1.99917, -1, 16.2068, 17.3544, 22.4975, 35.5896, -31.7499, -27.9167
2.0072, -1, 16.2959, 17.2751, 22.5273, 35.7314, -31.5837, -28.0227
2.01519, -1, 16.3847, 17.1961, 22.5571, 35.873, -31.4181, -28.1289
2.02329, -1, 16.4733, 17.1172, 22.5866, 36.0142, -31.2527, -28.2344
2.03128, -1, 16.5616, 17.0385, 22.6161, 36.1555, -31.0875, -28.3401
2.03966, -1, 16.6498, 16.9599, 22.6457, 36.2964, -30.9227, -28.4451
2.04728, -1, 16.7379, 16.8816, 22.6752, 36.437, -30.758, -28.5505
2.05529, -1, 16.826, 16.8034, 22.7045, 36.5773, -30.5937, -28.6554
2.06331, -1, 16.914, 16.7255, 22.7338, 36.7172, -30.4297, -28.76
2.07119, -1, 17.0017, 16.6476, 22.7633, 36.8569, -30.2663, -28.865
2.07923, -1, 17.0893, 16.5698, 22.7926, 36.9964, -30.1029, -28.9693
2.08724, -1, 17.1766, 16.4923, 22.8217, 37.1356, -29.9399, -29.0738
2.09526, -1, 17.2627, 16.4154, 22.8507, 37.2745, -29.7768, -29.1775
2.1038, -1, 17.3454, 16.3409, 22.8792, 37.4127, -29.6152, -29.2811
2.11216, -1, 17.4229, 16.2706, 22.9065, 37.5486, -29.4555, -29.383
2.11944, -1, 17.4945, 16.2059, 22.9324, 37.6804, -29.3009, -29.4818
2.12797, -1, 17.5606, 16.1473, 22.9563, 37.8043, -29.1553, -29.5749
2.13618, -1, 17.6201, 16.0951, 22.9781, 37.9166, -29.0234, -29.6592
2.14375, -1, 17.6726, 16.049, 22.9972, 38.0135, -28.9089, -29.7322
2.15229, -1, 17.7191, 16.0075, 23.0133, 38.0921, -28.8161, -29.7921
2.1597, -1, 17.7604, 15.9699, 23.0266, 38.1523, -28.7445, -29.8375
2.16829, -1, 17.7963, 15.9375, 23.0372, 38.1937, -28.6947, -29.8696
2.17579, -1, 17.8256, 15.9119, 23.0449, 38.2213, -28.6617, -29.8905
2.18443, -1, 17.8487, 15.8936, 23.0501, 38.2379, -28.6418, -29.903
2.19223, -1, 17.8658, 15.8809, 23.0535, 38.247, -28.6305, -29.9096
2.19914, -1, 17.8719, 15.8764, 23.0547, 38.2498, -28.6272, -29.9116
2.20852, 2, 17.8818, 15.8687, 23.0565, 38.254, -28.6222, -29.9145
2.21516, 2, 17.8833, 15.8674, 23.0568, 38.2546, -28.6214, -29.915
2.2243, 2, 17.885, 15.8653, 23.0572, 38.2555, -28.6203, -29.9156
2.2312, 2, 17.885, 15.8649, 23.0572, 38.2556, -28.6202, -29.9157
2.23917, 2, 17.8846, 15.8644, 23.0573, 38.2558, -28.62, -29.9158
2.24876, 2, 17.8838, 15.864, 23.0574, 38.2559, -28.62, -29.9159
2.25657, 2, 17.8835, 15.8639, 23.0574, 38.2559, -28.62, -29.9159
2.26316, 2, 17.8834, 15.8638, 23.0574, 38.2559, -28.62, -29.9159
2.27275, 2, 17.8833, 15.8637, 23.0574, 38.2559, -28.6199, -29.9158
2.28074, 2, 17.8833, 15.8635, 23.0574, 38.2559, -28.6199, -29.9159
2.28868, 2, 17.8835, 15.8633, 23.0574, 38.2559, -28.6199, -29.9159
2.29699, 2, 17.8838, 15.8632, 23.0574, 38.2559, -28.6199, -29.9159
2.30477, 2, 17.8842, 15.863, 23.0574, 38.2559, -28.6199, -29.9159
2.31273, 2, 17.8844, 15.8629, 23.0574, 38.2559, -28.62, -29.9158
2.32071, 2, 17.8851, 15.8628, 23.0575, 38.2559, -28.62, -29.9158
2.32814, 2, 17.8856, 15.8627, 23.0574, 38.2559, -28.62, -29.9158
2.33618, 2, 17.8861, 15.8626, 23.0575, 38.2559, -28.62, -29.9158
2.34529, 2, 17.8865, 15.8626, 23.0575, 38.2559, -28.6201, -29.9158
2.35116, 2, 17.8867, 15.8625, 23.0575, 38.2559, -28.6201, -29.9158
2.3592, 2, 17.8869, 15.8625, 23.0575, 38.2559, -28.6201, -29.9158
2.36716, 2, 17.887, 15.8625, 23.0575, 38.2559, -28.6201, -29.9158
2.37516, 2, 17.887, 15.8625, 23.0575, 38.2559, -28.6201, -29.9158
2.38315, 2, 17.887, 15.8625, 23.0575, 38.2559, -28.6202, -29.9157
2.39116, 2, 17.887, 15.8625, 23.0575, 38.2559, -28.6202, -29.9158
2.39919, 2, 17.887, 15.8625, 23.0575, 38.2559, -28.6202, -29.9158
2.40718, 2, 17.8868, 15.8625, 23.0575, 38.2559, -28.6201, -29.9158
2.41514, 2, 17.8867, 15.8625, 23.0575, 38.2559, -28.6201, -29.9158
2.42314, 2, 17.8867, 15.8624, 23.0575, 38.2559, -28.6202, -29.9158
2.43117, 2, 17.8866, 15.8624, 23.0575, 38.2559, -28.6202, -29.9158
2.43914, 2, 17.8866, 15.8624, 23.0575, 38.2559, -28.6203, -29.9158
2.44716, 2, 17.8865, 15.8623, 23.0575, 38.2559, -28.6203, -29.9158
2.45515, 2, 17.8865, 15.8623, 23.0575, 38.2559, -28.6203, -29.9158
2.46315, 2, 17.8865, 15.8623, 23.0575, 38.2559, -28.6203, -29.9158
2.47116, 2, 17.8865, 15.8624, 23.0575, 38.2559, -28.6203, -29.9158
2.4792, 2, 17.8865, 15.8624, 23.0575, 38.2559, -28.6202, -29.9158
2.48715, 2, 17.8865, 15.8624, 23.0575, 38.2559, -28.6203, -29.9158
2.49514, 2, 17.8865, 15.8624, 23.0575, 38.2559, -28.6204, -29.9157
2.50316, 2, 17.8865, 15.8624, 23.0574, 38.2559, -28.6204, -29.9157
2.51117, 2, 17.8865, 15.8623, 23.0574, 38.2559, -28.6205, -29.9158
2.51918, 2, 17.8865, 15.8623, 23.0575, 38.2559, -28.6205, -29.9158
2.52731, 2, 17.8865, 15.8623, 23.0574, 38.2559, -28.6205, -29.9157
2.53525, 2, 17.8864, 15.8623, 23.0575, 38.2559, -28.6205, -29.9157
2.54324, 2, 17.8864, 15.8623, 23.0575, 38.2559, -28.6205, -29.9157
2.55129, 2, 17.8864, 15.8623, 23.0574, 38.2559, -28.6205, -29.9158
2.55927, 2, 17.8863, 15.8624, 23.0575, 38.2559, -28.6205, -29.9157
2.5673, 2, 17.8863, 15.8623, 23.0574, 38.2559, -28.6205, -29.9157
2.57517, 2, 17.8863, 15.8623, 23.0575, 38.2559, -28.6205, -29.9157
2.58333, 2, 17.8863, 15.8623, 23.0575, 38.2558, -28.6206, -29.9157
2.5912, 2, 17.8863, 15.8624, 23.0575, 38.2558, -28.6206, -29.9157
2.59922, 2, 17.8863, 15.8624, 23.0575, 38.2558, -28.6206, -29.9157
2.6076, 2, 17.8863, 15.8624, 23.0574, 38.2559, -28.6207, -29.9157
2.61536, 2, 17.8863, 15.8624, 23.0574, 38.2559, -28.6207, -29.9157
2.6234, 2, 17.8862, 15.8624, 23.0575, 38.2558, -28.6207, -29.9156
2.63192, 2, 17.8862, 15.8624, 23.0575, 38.2559, -28.6207, -29.9157
2.64017, 2, 17.8862, 15.8624, 23.0575, 38.2559, -28.6208, -29.9156
2.64774, 2, 17.8862, 15.8624, 23.0575, 38.2559, -28.6208, -29.9156
2.65625, 2, 17.8862, 15.8624, 23.0575, 38.2558, -28.6208, -29.9156
2.66366, 2, 17.8861, 15.8624, 23.0575, 38.2558, -28.6208, -29.9157
2.67229, 2, 17.8861, 15.8624, 23.0574, 38.2557, -28.6207, -29.9157
2.67997, 2, 17.8861, 15.8624, 23.0574, 38.2558, -28.6208, -29.9157
2.68825, 2, 17.8861, 15.8624, 23.0574, 38.2558, -28.6208, -29.9156
2.69579, 2, 17.8861, 15.8624, 23.0574, 38.2558, -28.6208, -29.9156
2.70419, 2, 17.886, 15.8624, 23.0574, 38.2558, -28.6208, -29.9156
2.71116, 2, 17.886, 15.8624, 23.0575, 38.2557, -28.6208, -29.9156
2.72019, 2, 17.886, 15.8624, 23.0575, 38.2557, -28.6208, -29.9155
2.72714, 2, 17.886, 15.8624, 23.0575, 38.2557, -28.6208, -29.9155
2.73519, 2, 17.8859, 15.8624, 23.0575, 38.2557, -28.6208, -29.9155
2.74438, 2, 17.8859, 15.8624, 23.0574, 38.2557, -28.6208, -29.9155
2.75114, 2, 17.8859, 15.8624, 23.0574, 38.2557, -28.6209, -29.9155
2.75912, 2, 17.8859, 15.8624, 23.0574, 38.2557, -28.6209, -29.9155
2.76853, 2, 17.8858, 15.8624, 23.0575, 38.2557, -28.6209, -29.9155
2.77514, 2, 17.8858, 15.8624, 23.0575, 38.2557, -28.6209, -29.9155
2.78312, 2, 17.8857, 15.8624, 23.0575, 38.2557, -28.6209, -29.9155
2.79267, 2, 17.8857, 15.8624, 23.0574, 38.2556, -28.6209, -29.9155
2.80098, 2, 17.8856, 15.8624, 23.0574, 38.2556, -28.621, -29.9155
2.80714, 2, 17.8856, 15.8624, 23.0575, 38.2557, -28.621, -29.9155
2.81671, 2, 17.8856, 15.8624, 23.0575, 38.2557, -28.621, -29.9154
2.82497, 2, 17.8855, 15.8624, 23.0575, 38.2556, -28.621, -29.9154
2.83214, 2, 17.8855, 15.8624, 23.0574, 38.2556, -28.6211, -29.9154
2.84021, 2, 17.8854, 15.8624, 23.0574, 38.2556, -28.621, -29.9154
2.84813, 2, 17.8854, 15.8624, 23.0574, 38.2556, -28.621, -29.9153
2.85512, 2, 17.8854, 15.8624, 23.0575, 38.2555, -28.6211, -29.9153
2.86319, 2, 17.8853, 15.8624, 23.0574, 38.2556, -28.6211, -29.9153
2.87114, 2, 17.8853, 15.8624, 23.0574, 38.2556, -28.6212, -29.9153
2.87914, 2, 17.8852, 15.8624, 23.0574, 38.2556, -28.6211, -29.9152
2.88716, 2, 17.8852, 15.8624, 23.0574, 38.2556, -28.6211, -29.9152
2.89512, 2, 17.8851, 15.8624, 23.0574, 38.2555, -28.6211, -29.9151
2.90316, 2, 17.8851, 15.8624, 23.0575, 38.2555, -28.6212, -29.9151
2.91115, 2, 17.885, 15.8624, 23.0575, 38.2555, -28.6211, -29.9151
2.91913, 2, 17.885, 15.8624, 23.0574, 38.2555, -28.6212, -29.9151
2.92714, 2, 17.8849, 15.8624, 23.0574, 38.2554, -28.6212, -29.9151
2.93514, 2, 17.8849, 15.8624, 23.0574, 38.2554, -28.6212, -29.915
2.94313, 2, 17.8849, 15.8624, 23.0574, 38.2554, -28.6212, -29.915
2.95114, 2, 17.8848, 15.8624, 23.0574, 38.2554, -28.6212, -29.915
2.95915, 2, 17.8847, 15.8624, 23.0574, 38.2554, -28.6212, -29.915
2.96714, 2, 17.8847, 15.8624, 23.0574, 38.2553, -28.6212, -29.915
2.97513, 2, 17.8846, 15.8624, 23.0574, 38.2553, -28.6212, -29.915
2.98316, 2, 17.8846, 15.8624, 23.0574, 38.2553, -28.6212, -29.915
2.99114, 2, 17.8845, 15.8624, 23.0574, 38.2553, -28.6212, -29.9149
2.99913, 2, 17.8845, 15.8624, 23.0575, 38.2554, -28.6212, -29.9149
3.00716, 2, 17.8844, 15.8624, 23.0574, 38.2553, -28.6212, -29.915
3.01514, 2, 17.8844, 15.8625, 23.0574, 38.2553, -28.6212, -29.9149
3.02318, 2, 17.8843, 15.8625, 23.0574, 38.2553, -28.6212, -29.9149
3.03129, 2, 17.8843, 15.8624, 23.0574, 38.2552, -28.6212, -29.9149
3.03923, 2, 17.8842, 15.8624, 23.0574, 38.2552, -28.6212, -29.9149
3.04725, 2, 17.8842, 15.8625, 23.0574, 38.2552, -28.6212, -29.9149
3.05526, 2, 17.8841, 15.8625, 23.0574, 38.2552, -28.6212, -29.9149
3.06324, 2, 17.8841, 15.8624, 23.0574, 38.2552, -28.6212, -29.915
3.07135, 2, 17.884, 15.8624, 23.0574, 38.2552, -28.6213, -29.9149
3.07916, 2, 17.884, 15.8624, 23.0574, 38.2552, -28.6213, -29.9148
3.08718, 2, 17.884, 15.8625, 23.0574, 38.2552, -28.6213, -29.9149
3.09527, 2, 17.884, 15.8625, 23.0574, 38.2551, -28.6212, -29.9149
3.10322, 2, 17.8839, 15.8625, 23.0574, 38.2551, -28.6213, -29.9149
3.11126, 2, 17.8839, 15.8625, 23.0574, 38.255, -28.6213, -29.915
3.11974, 2, 17.8839, 15.8625, 23.0574, 38.255, -28.6213, -29.9149
3.12812, 2, 17.8838, 15.8625, 23.0574, 38.2551, -28.6213, -29.9149
3.13545, 2, 17.8838, 15.8625, 23.0575, 38.2551, -28.6214, -29.9149
3.14369, 2, 17.8838, 15.8625, 23.0574, 38.2551, -28.6213, -29.9149
3.15221, 2, 17.8838, 15.8625, 23.0574, 38.255, -28.6214, -29.9149
3.15965, 2, 17.8838, 15.8625, 23.0574, 38.255, -28.6214, -29.9149
3.16822, 2, 17.8838, 15.8625, 23.0574, 38.2549, -28.6214, -29.9149
3.17568, 2, 17.8837, 15.8625, 23.0574, 38.2549, -28.6214, -29.9149
3.18425, 2, 17.8837, 15.8625, 23.0574, 38.255, -28.6213, -29.9149
3.19185, 2, 17.8837, 15.8625, 23.0574, 38.255, -28.6213, -29.9149
3.20013, 2, 17.8837, 15.8625, 23.0574, 38.2549, -28.6214, -29.9149
3.20713, 2, 17.8837, 15.8625, 23.0574, 38.2549, -28.6214, -29.9149
3.21719, 2, 17.8837, 15.8625, 23.0574, 38.2549, -28.6214, -29.9149
3.2231, 2, 17.8837, 15.8625, 23.0574, 38.2549, -28.6214, -29.9148
3.23226, 2, 17.8837, 15.8625, 23.0574, 38.2548, -28.6214, -29.9149
3.23914, 2, 17.8837, 15.8625, 23.0574, 38.2548, -28.6214, -29.9149
3.24715, 2, 17.8836, 15.8625, 23.0574, 38.2548, -28.6214, -29.9149
3.2565, 2, 17.8836, 15.8626, 23.0574, 38.2547, -28.6214, -29.9149
3.26311, 2, 17.8836, 15.8626, 23.0574, 38.2547, -28.6214, -29.9149
3.27116, 2, 17.8836, 15.8626, 23.0574, 38.2547, -28.6214, -29.9148
3.28066, 2, 17.8836, 15.8626, 23.0574, 38.2548, -28.6214, -29.9148
3.28866, 2, 17.8836, 15.8626, 23.0574, 38.2547, -28.6214, -29.9148
3.29515, 4, 17.8836, 15.8626, 23.0574, 38.2547, -28.6215, -29.9148
3.30472, 4, 17.8836, 15.8626, 23.0574, 38.2547, -28.6215, -29.9148
3.31326, 4, 17.8835, 15.8626, 23.0574, 38.2546, -28.6215, -29.9148
3.31916, 4, 17.8835, 15.8626, 23.0574, 38.2546, -28.6215, -29.9148
3.32866, 4, 17.8835, 15.8626, 23.0574, 38.2546, -28.6215, -29.9148
3.33609, 4, 17.8835, 15.8626, 23.0574, 38.2547, -28.6215, -29.9148
3.34414, 4, 17.8835, 15.8626, 23.0574, 38.2547, -28.6215, -29.9148
3.35213, 4, 17.8835, 15.8626, 23.0574, 38.2546, -28.6215, -29.9148
3.3601, 4, 17.8835, 15.8626, 23.0574, 38.2546, -28.6215, -29.9148
3.36718, 4, 17.8835, 15.8626, 23.0574, 38.2546, -28.6215, -29.9148
3.37511, 4, 17.8835, 15.8626, 23.0574, 38.2546, -28.6215, -29.9147
3.38312, 4, 17.8835, 15.8626, 23.0574, 38.2546, -28.6215, -29.9147
3.3923, 4, 17.8835, 15.8626, 23.0574, 38.2546, -28.6215, -29.9147
3.4103, 4, 17.8834, 15.8626, 23.0574, 38.2545, -28.6215, -29.9148
3.41225, 4, 17.8835, 15.8626, 23.0574, 38.2545, -28.6215, -29.9148
3.41524, 4, 17.8834, 15.8626, 23.0574, 38.2545, -28.6215, -29.9148
3.42324, 4, 17.8834, 15.8626, 23.0574, 38.2545, -28.6215, -29.9147
3.43901, 4, 17.8834, 15.8626, 23.0574, 38.2544, -28.6215, -29.9148
3.44086, 4, 17.8834, 15.8626, 23.0574, 38.2544, -28.6215, -29.9148
3.45909, 4, 17.8834, 15.8626, 23.0574, 38.2544, -28.6215, -29.9147
3.46096, 4, 17.8834, 15.8626, 23.0574, 38.2544, -28.6215, -29.9147
3.46607, 4, 17.8833, 15.8626, 23.0574, 38.2544, -28.6215, -29.9146
3.47164, 4, 17.8827, 15.8626, 23.0574, 38.2544, -28.6215, -29.9146
3.4791, 4, 17.88, 15.8626, 23.0575, 38.2539, -28.6216, -29.9145
3.48711, 4, 17.8738, 15.8625, 23.0584, 38.2503, -28.6224, -29.9125
3.49516, 4, 17.8633, 15.862, 23.0616, 38.2384, -28.6256, -29.9043
3.50309, 4, 17.8469, 15.8603, 23.0697, 38.2111, -28.6346, -29.8816
3.5121, 5, 17.8221, 15.8567, 23.0864, 38.1576, -28.653, -29.8359
3.52015, 5, 17.7869, 15.8503, 23.1154, 38.0632, -28.6851, -29.7544
3.52715, 5, 17.7415, 15.84, 23.1609, 37.9146, -28.7374, -29.6253
3.53544, 5, 17.6863, 15.8252, 23.2264, 37.7003, -28.8143, -29.4387
3.54324, 5, 17.6214, 15.8056, 23.3131, 37.416, -28.9181, -29.1907
3.55121, 5, 17.5462, 15.7818, 23.4205, 37.0647, -29.0489, -28.8825
3.55933, 5, 17.4612, 15.7542, 23.5462, 36.6548, -29.2037, -28.5222
3.56719, 5, 17.3677, 15.7237, 23.6863, 36.1999, -29.3785, -28.1221
3.57513, 5, 17.2654, 15.6914, 23.8361, 35.7151, -29.5683, -27.6953
3.58402, 5, 17.1541, 15.6583, 23.9917, 35.2148, -29.7678, -27.2551
3.59217, 5, 17.0345, 15.625, 24.1502, 34.7087, -29.9737, -26.8105
3.59915, 5, 16.9092, 15.5921, 24.3093, 34.2028, -30.1837, -26.3666
3.60999, 5, 16.7806, 15.5599, 24.4675, 33.7004, -30.3965, -25.9268
3.61568, 5, 16.65, 15.5286, 24.6252, 33.2028, -30.6118, -25.4919
3.62416, 5, 16.5183, 15.4984, 24.7826, 32.7101, -30.8291, -25.0624
3.63147, 5, 16.3862, 15.4691, 24.939, 32.2231, -31.0481, -24.6386
3.63947, 5, 16.2541, 15.4409, 25.0939, 31.7418, -31.269, -24.2199
3.64818, 5, 16.1222, 15.4141, 25.2479, 31.2659, -31.4918, -23.8069
3.65566, 5, 15.9904, 15.3884, 25.4013, 30.7952, -31.7164, -23.3996
3.66424, 5, 15.8588, 15.3637, 25.5538, 30.3298, -31.9429, -22.9975
3.67163, 5, 15.7271, 15.3403, 25.7051, 29.8703, -32.1708, -22.601
3.68023, 5, 15.5956, 15.318, 25.855, 29.4159, -32.4003, -22.2097
3.6877, 6, 15.5298, 15.2967, 26.0042, 28.9667, -32.6314, -21.8236
3.69614, 6, 15.3323, 15.2765, 26.1525, 28.5228, -32.8641, -21.4433
3.70384, 6, 15.2663, 15.2573, 26.2996, 28.0841, -33.0983, -21.068
3.71212, 6, 15.0671, 15.239, 26.4454, 27.6505, -33.3338, -20.698
3.71913, 6, 15.0001, 15.2303, 26.5179, 27.4353, -33.4521, -20.5149
3.72821, 6, 14.798, 15.2056, 26.7339, 26.7974, -33.8093, -19.9732
3.7351, 6, 14.7303, 15.1978, 26.8054, 26.5874, -33.9291, -19.7948
3.74513, 6, 14.5259, 15.1762, 27.0181, 25.9641, -34.2905, -19.2674
3.75109, 6, 14.4573, 15.1696, 27.0883, 25.7587, -34.4116, -19.0941
3.76206, 6, 14.2513, 15.1516, 27.2976, 25.1497, -34.7774, -18.5809
3.76729, 6, 14.1823, 15.1461, 27.3669, 24.9489, -34.9, -18.4123
3.77715, 6, 13.9751, 15.1311, 27.5731, 24.3536, -35.2696, -17.9131
3.78313, 6, 13.906, 15.1268, 27.6412, 24.1573, -35.3935, -17.7489
3.7932, 6, 13.6986, 15.1157, 27.8437, 23.5748, -35.7669, -17.2631
3.79908, 6, 13.6295, 15.1125, 27.9107, 23.3828, -35.8919, -17.1035
3.80872, 6, 13.4224, 15.1047, 28.1098, 22.8132, -36.2688, -16.6314
3.81512, 6, 13.3535, 15.1026, 28.1757, 22.6254, -36.3949, -16.476
3.82461, 6, 13.2158, 15.0993, 28.3066, 22.2528, -36.6482, -16.1686
3.83208, 6, 13.0783, 15.0972, 28.4361, 21.8846, -36.9024, -15.8658
3.84013, 6, 12.9404, 15.0961, 28.5645, 21.5202, -37.1579, -15.5667
3.84811, 6, 12.8023, 15.0958, 28.692, 21.1599, -37.4145, -15.2715
3.85604, 7, 12.6633, 15.0962, 28.8182, 20.8035, -37.6723, -14.9804
3.86812, 7, 12.4535, 15.0989, 29.0054, 20.2758, -38.0612, -14.5512
3.87204, 7, 12.3832, 15.1003, 29.0672, 20.1017, -38.1914, -14.4098
3.88016, 7, 12.242, 15.1041, 29.1898, 19.7566, -38.4524, -14.1301
3.88807, 7, 12.1002, 15.1089, 29.3113, 19.4149, -38.7146, -13.854
3.89607, 7, 11.9579, 15.115, 29.4316, 19.0771, -38.9775, -13.5818
3.90412, 7, 11.8151, 15.1221, 29.5508, 18.7427, -39.2414, -13.3128
3.91208, 7, 11.6719, 15.13, 29.6689, 18.4119, -39.5061, -13.0475
3.91909, 7, 11.5284, 15.1394, 29.7857, 18.0844, -39.7718, -12.7857
3.92708, 7, 11.3848, 15.1501, 29.9013, 17.7603, -40.0384, -12.5277
3.93808, 7, 11.1693, 15.1681, 30.0725, 17.2803, -40.4401, -12.1471
3.94319, 7, 11.0975, 15.1747, 30.129, 17.1218, -40.5743, -12.0218
3.95115, 7, 10.9536, 15.1887, 30.2413, 16.8073, -40.8435, -11.7738
3.95907, 7, 10.8098, 15.2041, 30.3524, 16.4961, -41.1135, -11.5291
3.96807, 7, 10.6659, 15.2207, 30.4621, 16.1879, -41.3841, -11.2878
3.97516, 7, 10.5221, 15.2385, 30.5707, 15.8828, -41.6558, -11.0493
3.98312, 7, 10.3785, 15.2573, 30.6779, 15.5809, -41.9284, -10.8137
3.99111, 7, 10.2348, 15.2776, 30.7841, 15.2816, -42.2018, -10.5813
4.00008, 7, 10.0908, 15.2989, 30.8893, 14.9855, -42.476, -10.352
4.00814, 7, 9.94676, 15.3212, 30.9934, 14.6923, -42.7508, -10.1258
4.01509, 7, 9.80217, 15.3449, 31.0961, 14.4019, -43.0264, -9.90211
4.02338, 8, 9.65685, 15.3696, 31.1974, 14.1145, -43.3027, -9.68153
4.03117, 8, 9.5109, 15.3954, 31.2975, 13.8296, -43.5797, -9.46364
4.03927, 8, 9.36445, 15.4223, 31.3964, 13.5473, -43.8572, -9.24881
4.04726, 8, 9.21734, 15.4502, 31.4942, 13.2678, -44.1354, -9.03668
4.05518, 8, 9.06983, 15.4795, 31.591, 12.9909, -44.4141, -8.82693
4.06329, 8, 8.92192, 15.5099, 31.6866, 12.7165, -44.6935, -8.62003
4.07139, 8, 8.77365, 15.5414, 31.7807, 12.4448, -44.9737, -8.41573
4.07919, 8, 8.62535, 15.5739, 31.8734, 12.1755, -45.2548, -8.21423
4.08758, 8, 8.47704, 15.6077, 31.9649, 11.9087, -45.5364, -8.01546
4.09689, 8, 8.32856, 15.6426, 32.0553, 11.6445, -45.8186, -7.81905
4.10407, 8, 8.17984, 15.6786, 32.1447, 11.3826, -46.1015, -7.62487
4.11134, 8, 8.03117, 15.7157, 32.233, 11.123, -46.3845, -7.43334
4.11928, 8, 7.88252, 15.754, 32.32, 10.8657, -46.6682, -7.24432
4.12745, 8, 7.73378, 15.7933, 32.4055, 10.6107, -46.9524, -7.05762
4.1357, 8, 7.5853, 15.8338, 32.4896, 10.358, -47.2368, -6.87359
4.14413, 8, 7.43696, 15.8754, 32.5724, 10.1071, -47.5217, -6.69137
4.15148, 8, 7.28856, 15.9181, 32.6542, 9.85869, -47.8074, -6.51157
4.15967, 8, 7.14005, 15.962, 32.735, 9.61238, -48.0934, -6.33374
4.16817, 8, 6.99124, 16.0071, 32.8145, 9.36804, -48.3801, -6.15833
4.17561, 8, 6.84213, 16.0533, 32.8928, 9.12604, -48.6671, -5.98509
4.18494, 8, 6.6927, 16.1006, 32.9697, 8.88602, -48.9549, -5.81402
4.1922, 9, 6.54283, 16.149, 33.0452, 8.64808, -49.243, -5.64504
4.1997, 9, 6.46766, 16.1736, 33.0825, 8.41198, -49.5316, -5.47773
4.20892, 9, 6.2415, 16.2492, 33.1925, 8.17822, -49.8203, -5.31268
4.2161, 9, 6.09032, 16.301, 33.2644, 7.94634, -50.1094, -5.14939
4.22311, 9, 6.01453, 16.3273, 33.2999, 7.83102, -50.254, -5.06857
4.23252, 9, 5.78695, 16.4077, 33.4045, 7.48782, -50.6884, -4.82913
4.23907, 9, 5.71113, 16.435, 33.4388, 7.37444, -50.8333, -4.75031
4.2491, 9, 5.48337, 16.5185, 33.5395, 7.03713, -51.2689, -4.51674
4.25507, 9, 5.4073, 16.5468, 33.5725, 6.92546, -51.4142, -4.43968
4.26521, 9, 5.17911, 16.6336, 33.6695, 6.59309, -51.8507, -4.21117
4.27334, 9, 5.02679, 16.6928, 33.7325, 6.37373, -52.142, -4.06122
4.27912, 9, 4.95067, 16.7228, 33.7636, 6.2647, -52.2879, -3.98689
4.28869, 9, 4.72263, 16.8145, 33.8546, 5.94001, -52.7258, -3.76679
4.29668, 9, 4.57063, 16.877, 33.9138, 5.72566, -53.0183, -3.62247
4.30472, 9, 4.41883, 16.9406, 33.9717, 5.51312, -53.3109, -3.47988
4.31324, 9, 4.26736, 17.0054, 34.0284, 5.30222, -53.6036, -3.33883
4.31913, 9, 4.19165, 17.0382, 34.0563, 5.19733, -53.7501, -3.26894
4.32893, 9, 4.04008, 17.1046, 34.1113, 4.98867, -54.1897, -3.06216
4.33607, 9, 3.88857, 17.1721, 34.1648, 4.78162, -54.3362, -2.99442
4.34411, 9, 3.73692, 17.2406, 34.217, 4.57611, -54.6294, -2.86119
4.35214, 9, 3.58475, 17.3105, 34.2677, 4.37177, -54.9229, -2.7317
4.36021, 10, 3.43221, 17.3819, 34.3168, 4.16844, -55.2165, -2.6069
4.3681, 10, 3.27919, 17.455, 34.3639, 3.96627, -55.5103, -2.48774
4.37607, 10, 3.12562, 17.5301, 34.4088, 3.765, -55.8043, -2.37447
4.38706, 10, 2.89489, 17.647, 34.471, 3.46471, -56.2457, -2.21554
4.39121, 10, 2.81794, 17.6872, 34.49, 3.36494, -56.3929, -2.16526
4.40016, 10, 2.66374, 17.7698, 34.5256, 3.16608, -56.6873, -2.06859
4.40806, 10, 2.50944, 17.8553, 34.5572, 2.96829, -56.9815, -1.975
4.41611, 10, 2.35545, 17.9439, 34.5846, 2.77166, -57.2757, -1.88459
4.42409, 10, 2.20151, 18.0357, 34.6078, 2.57617, -57.5696, -1.79487
4.4321, 10, 2.04772, 18.131, 34.6267, 2.3821, -57.8632, -1.70631
4.44012, 10, 1.89431, 18.2297, 34.6411, 2.18972, -58.1567, -1.61716
4.44805, 10, 1.74115, 18.3319, 34.6509, 1.99905, -58.4502, -1.52783
4.45767, 10, 1.58828, 18.4375, 34.6564, 1.81023, -58.7433, -1.43745
4.46417, 10, 1.436, 18.5465, 34.6575, 1.62277, -59.0361, -1.34671
4.47208, 10, 1.28439, 18.6588, 34.6541, 1.43724, -59.3287, -1.25496
4.47915, 10, 1.13346, 18.7743, 34.6462, 1.25383, -59.6206, -1.1625
4.48707, 10, 0.983157, 18.8932, 34.6337, 1.07235, -59.9116, -1.06867
4.49506, 10, 0.833365, 19.0155, 34.6166, 0.89274, -60.202, -0.974381
4.5041, 10, 0.683903, 19.141, 34.595, 0.715062, -60.4913, -0.878678
4.51209, 10, 0.534815, 19.2695, 34.5688, 0.539472, -60.7795, -0.782558
4.51912, 10, 0.386055, 19.4009, 34.538, 0.366252, -61.0666, -0.685115
4.52718, 10, 0.237621, 19.5352, 34.5026, 0.195239, -61.3525, -0.587291
4.53514, 10, 0.0895744, 19.6729, 34.4627, 0.0263063, -61.6372, -0.48836
4.54327, 10, -0.0579725, 19.8137, 34.4183, -0.140522, -61.9207, -0.389018
4.5512, 10, -0.204946, 19.9572, 34.3693, -0.304904, -62.2027, -0.288544
4.55917, 10, -0.351143, 20.1032, 34.3159, -0.46692, -62.4833, -0.187554
4.56722, 10, -0.496612, 20.2519, 34.258, -0.626554, -62.7624, -0.0853983
4.57506, 10, -0.641016, 20.4035, 34.1955, -0.783669, -63.0398, 0.017861
4.58681, 10, -0.784373, 20.5581, 34.1287, -0.938523, -63.3157, 0.121569
4.59144, 10, -0.926607, 20.7151, 34.0573, -1.09073, -63.5896, 0.226451
4.6003, 10, -1.06776, 20.8743, 33.9814, -1.24035, -63.8615, 0.331805
4.60712, 10, -1.20752, 21.036, 33.9012, -1.3872, -64.1315, 0.438192
4.61526, 10, -1.34574, 21.2007, 33.8164, -1.5314, -64.3994, 0.545237
4.62415, 10, -1.4826, 21.3682, 33.7273, -1.67287, -64.6651, 0.65299
4.63131, 10, -1.61802, 21.5378, 33.634, -1.81172, -64.9285, 0.761408
4.63938, 10, -1.75183, 21.7093, 33.5364, -1.94803, -65.1896, 0.870295
4.64824, 10, -1.8839, 21.8833, 33.4345, -2.0816, -65.4485, 0.979448
4.65554, 10, -2.01461, 22.0595, 33.3282, -2.21272, -65.705, 1.08797
4.66357, 10, -2.14411, 22.2373, 33.2175, -2.34158, -65.959, 1.19523
4.67244, 11, -2.27264, 22.4163, 33.1029, -2.46859, -66.2109, 1.29959
4.67963, 11, -2.40062, 22.5967, 32.9848, -2.59414, -66.4606, 1.40036
4.68821, 11, -2.52821, 22.779, 32.8636, -2.71876, -66.7086, 1.49636
4.6962, 11, -2.59182, 22.9629, 32.7395, -2.84269, -66.9549, 1.58692
4.70359, 11, -2.71863, 23.0549, 32.6765, -2.90446, -67.0774, 1.67233
4.71207, 11, -2.90758, 23.3324, 32.4842, -3.08897, -67.4433, 1.7528
4.7191, 11, -2.97027, 23.4256, 32.4191, -3.15033, -67.5647, 1.79101
4.72704, 11, -3.0952, 23.6127, 32.2879, -3.27273, -67.8068, 1.8656
4.73618, 11, -3.2817, 23.8939, 32.0883, -3.45533, -68.1683, 1.97203
4.74308, 11, -3.3437, 23.9878, 32.0212, -3.51595, -68.2882, 2.00633
4.75232, 11, -3.52915, 24.2711, 31.8176, -3.69651, -68.647, 2.10852
4.76139, 11, -3.65206, 24.4607, 31.6803, -3.81591, -68.8854, 2.17497
4.77008, 11, -3.77439, 24.6498, 31.5416, -3.93427, -69.1227, 2.24164
4.775, 11, -3.83543, 24.7442, 31.4718, -3.993, -69.2411, 2.2748
4.78462, 11, -4.01789, 25.0287, 31.2602, -4.16823, -69.5952, 2.372
4.79105, 11, -4.0784, 25.1238, 31.189, -4.22604, -69.7129, 2.40453
4.80059, 11, -4.25912, 25.4089, 30.9739, -4.39869, -70.0645, 2.50126
4.80865, 11, -4.37901, 25.5995, 30.8289, -4.5126, -70.2978, 2.56443
4.81669, 11, -4.49832, 25.7913, 30.6824, -4.62562, -70.5302, 2.62815
4.82459, 11, -4.55771, 25.8874, 30.6086, -4.68182, -70.7614, 2.69057
4.83271, 11, -4.67586, 26.0794, 30.4601, -4.79333, -70.9917, 2.75238
4.84001, 12, -4.79337, 26.2714, 30.3107, -4.90403, -71.1065, 2.78345
4.84804, 12, -4.91044, 26.4642, 30.1601, -5.01388, -71.3352, 2.84525
4.85615, 12, -5.02719, 26.6574, 30.0079, -5.12269, -71.5629, 2.90558
4.86402, 12, -5.14365, 26.8501, 29.8542, -5.23074, -71.7898, 2.96621
4.87206, 12, -5.25986, 27.0431, 29.6995, -5.33824, -72.0157, 3.02672
4.88008, 12, -5.37595, 27.2369, 29.5437, -5.4446, -72.2404, 3.08593
4.88804, 12, -5.49176, 27.4311, 29.3863, -5.55027, -72.4643, 3.14522
4.89603, 12, -5.60732, 27.6249, 29.2275, -5.6549, -72.6872, 3.20439
4.90304, 12, -5.72265, 27.8191, 29.0677, -5.75872, -72.9092, 3.26268
4.91415, 12, -5.89526, 28.1118, 28.8263, -5.91302, -73.2404, 3.35052
4.91912, 12, -5.95263, 28.2093, 28.745, -5.96396, -73.3501, 3.37978
4.92704, 12, -6.06704, 28.4041, 28.581, -6.06551, -73.5691, 3.43738
4.93606, 12, -6.18103, 28.5994, 28.4159, -6.16633, -73.787, 3.4946
4.94304, 12, -6.29468, 28.7956, 28.2499, -6.26632, -74.0042, 3.55237
4.95205, 12, -6.40779, 28.9916, 28.0826, -6.36569, -74.2203, 3.60942
4.96334, 12, -6.52021, 29.187, 27.9135, -6.46411, -74.5428, 3.69417
4.96703, 12, -6.63216, 29.3829, 27.7433, -6.56156, -74.6497, 3.72255
4.97603, 12, -6.74372, 29.5798, 27.5723, -6.65837, -74.863, 3.77882
4.98416, 12, -6.8549, 29.7765, 27.4, -6.75431, -75.0753, 3.83434
4.99204, 12, -6.96563, 29.9729, 27.2258, -6.8495, -75.2865, 3.88997
5.00005, 12, -7.07586, 30.1701, 27.0503, -6.94416, -75.4967, 3.9457
5.00811, 13, -7.18565, 30.3683, 26.8742, -7.03814, -75.7057, 4.00031
5.01604, 13, -7.29506, 30.5665, 26.6967, -7.13117, -75.9138, 4.05489
5.02413, 13, -7.40397, 30.7646, 26.5172, -7.22372, -76.1208, 4.10996
5.03118, 13, -7.51241, 30.9634, 26.3367, -7.31543, -76.3269, 4.16423
5.03914, 13, -7.62033, 31.1626, 26.1557, -7.40609, -76.5319, 4.21795
5.04718, 13, -7.72779, 31.3611, 25.9727, -7.49614, -76.7361, 4.27204
5.05545, 13, -7.83461, 31.5596, 25.7879, -7.58549, -76.9393, 4.32588
5.0632, 13, -7.94079, 31.759, 25.6024, -7.67395, -77.1416, 4.37908
5.07116, 13, -8.04655, 31.9586, 25.4159, -7.76198, -77.3429, 4.43268
5.07922, 13, -8.15205, 32.1578, 25.2275, -7.8492, -77.5432, 4.48665
5.08726, 13, -8.25714, 32.3572, 25.0377, -7.93592, -77.7423, 4.53972
5.09507, 13, -8.36184, 32.5572, 24.8474, -8.02154, -77.9404, 4.59247
5.10343, 13, -8.46618, 32.7571, 24.6555, -8.10666, -78.1374, 4.64569
5.1112, 13, -8.57038, 32.9569, 24.4616, -8.19093, -78.3332, 4.69883
5.11921, 13, -8.67434, 33.1576, 24.2671, -8.27421, -78.5282, 4.75112
5.12811, 13, -8.77799, 33.359, 24.0716, -8.35699, -78.7217, 4.80372
5.1354, 13, -8.88142, 33.5599, 23.8741, -8.43877, -78.9143, 4.85672
5.14343, 13, -8.98455, 33.7606, 23.6752, -8.52021, -79.1058, 4.90878
5.15248, 13, -9.08736, 33.9618, 23.4759, -8.60049, -79.2963, 4.96074
5.15953, 13, -9.18977, 34.1635, 23.2749, -8.6806, -79.4857, 5.0131
5.16814, 13, -9.29171, 34.3649, 23.072, -8.75983, -79.6742, 5.06538
5.17676, 14, -9.39308, 34.567, 22.8685, -8.83853, -79.8617, 5.11691
5.18414, 14, -9.49404, 34.77, 22.6637, -8.91642, -80.0483, 5.16846
5.19163, 14, -9.59465, 34.9729, 22.4568, -8.9937, -80.2339, 5.22066
5.20058, 14, -9.69477, 35.1753, 22.2493, -9.07028, -80.4184, 5.27233
5.2077, 14, -9.74465, 35.2766, 22.041, -9.14569, -80.6019, 5.32349
5.21605, 14, -9.89349, 35.5815, 21.8305, -9.22088, -80.7843, 5.3752
5.22302, 14, -9.94293, 35.683, 21.7248, -9.25817, -80.8751, 5.40119
5.23107, 14, -10.0415, 35.8858, 21.5128, -9.33211, -81.0559, 5.45263
5.23908, 14, -10.1397, 36.0891, 21.2992, -9.40547, -81.2354, 5.50373
5.24857, 14, -10.2862, 36.3953, 20.9757, -9.51444, -81.5027, 5.58164
5.25523, 14, -10.3348, 36.4972, 20.8677, -9.5503, -81.5912, 5.60769
5.26307, 14, -10.4318, 36.7009, 20.6506, -9.6217, -81.7674, 5.65931
5.27258, 14, -10.5766, 37.0079, 20.3218, -9.72761, -82.0297, 5.7365
5.28043, 14, -10.6724, 37.2127, 20.1014, -9.79791, -82.2029, 5.78861
5.28704, 14, -10.72, 37.3149, 19.9905, -9.83254, -82.2892, 5.81456
5.29702, 14, -10.862, 37.6226, 19.6553, -9.93547, -82.5464, 5.89178
5.30459, 14, -10.9561, 37.8287, 19.4309, -10.0027, -82.7166, 5.94392
5.31264, 14, -11.0497, 38.0342, 19.2047, -10.0698, -82.8858, 5.99586
5.3208, 14, -11.1428, 38.2395, 18.9772, -10.136, -83.0537, 6.04733
5.32858, 14, -11.1891, 38.3424, 18.8632, -10.1686, -83.2206, 6.09906
5.33662, 14, -11.2816, 38.5484, 18.6336, -10.2345, -83.3036, 6.12518
5.34399, 15, -11.3739, 38.7541, 18.4023, -10.2987, -83.469, 6.17744
5.35202, 15, -11.466, 38.96, 18.1705, -10.3631, -83.6332, 6.22899
5.36013, 15, -11.5578, 39.167, 17.9371, -10.4263, -83.7964, 6.28085
5.36804, 15, -11.6495, 39.3744, 17.7019, -10.4892, -83.9584, 6.33333
5.37603, 15, -11.7408, 39.5812, 17.4658, -10.5515, -84.1194, 6.3854
5.38407, 15, -11.8319, 39.7884, 17.2281, -10.6125, -84.2791, 6.43724
5.39202, 15, -11.9229, 39.9962, 16.9891, -10.674, -84.4378, 6.48971
5.40002, 15, -12.0135, 40.2039, 16.7493, -10.7336, -84.5955, 6.54241
5.40807, 15, -12.1037, 40.4115, 16.5074, -10.7936, -84.7518, 6.59449
5.41602, 15, -12.1934, 40.62, 16.2642, -10.8521, -84.9073, 6.64711
5.42308, 15, -12.2829, 40.829, 16.0198, -10.9099, -85.0614, 6.70066
5.43102, 15, -12.3719, 41.0375, 15.7735, -10.9678, -85.2145, 6.75386
5.44004, 15, -12.4604, 41.2462, 15.5266, -11.024, -85.3662, 6.80661
5.44809, 15, -12.5482, 41.4554, 15.2781, -11.0805, -85.5172, 6.86003
5.45602, 15, -12.6342, 41.6631, 15.0284, -11.1356, -85.6664, 6.91381
5.46402, 15, -12.7175, 41.8679, 14.779, -11.19, -85.8148, 6.96705
5.47308, 15, -12.7981, 42.0692, 14.5302, -11.2444, -85.9609, 7.02024
5.48001, 15, -12.8756, 42.2662, 14.2848, -11.2963, -86.1044, 7.07338
5.48709, 15, -12.9494, 42.456, 14.0454, -11.3471, -86.2429, 7.12455
5.49502, 15, -13.0185, 42.6358, 13.8146, -11.3955, -86.3754, 7.17361
5.50402, 15, -13.0823, 42.8038, 13.5976, -11.4395, -86.4988, 7.22005
5.51109, 15, -13.1406, 42.9581, 13.3984, -11.4798, -86.6113, 7.26326
5.52008, 15, -13.1936, 43.0969, 13.2199, -11.5159, -86.7106, 7.30125
5.52705, 15, -13.2411, 43.2192, 13.0658, -11.5459, -86.7947, 7.33354
5.53603, 15, -13.2826, 43.3241, 12.9377, -11.5701, -86.8642, 7.36
5.54408, 15, -13.3185, 43.4119, 12.8349, -11.5888, -86.918, 7.38058
5.55202, 15, -13.3495, 43.4837, 12.7562, -11.6025, -86.9583, 7.39615
5.55918, 15, -13.3751, 43.5404, 12.6986, -11.6124, -86.9869, 7.40703
5.56713, 15, -13.3956, 43.5832, 12.6585, -11.6188, -87.0059, 7.41439
5.57513, 15, -13.4114, 43.6142, 12.6319, -11.6229, -87.0177, 7.41891
5.58321, 15, -13.4231, 43.6364, 12.6152, -11.6252, -87.0245, 7.42157
5.59106, 15, -13.4313, 43.6517, 12.6053, -11.6265, -87.0281, 7.42293
5.59939, 15, -13.4366, 43.6612, 12.5995, -11.6272, -87.0299, 7.42363
5.60711, 16, -13.4396, 43.6664, 12.5964, -11.6275, -87.0307, 7.424
5.61515, 16, -13.4412, 43.6692, 12.5945, -11.6278, -87.0311, 7.42417
5.62343, 16, -13.4419, 43.6708, 12.5932, -11.6279, -87.0313, 7.42434
5.63129, 16, -13.4421, 43.6719, 12.5923, -11.628, -87.0314, 7.42435
5.63931, 16, -13.4422, 43.673, 12.5917, -11.628, -87.0314, 7.42439
5.64761, 16, -13.4422, 43.6741, 12.5915, -11.628, -87.0314, 7.42444
5.6561, 16, -13.4421, 43.6754, 12.5914, -11.628, -87.0314, 7.42456
5.66415, 16, -13.4421, 43.6768, 12.5913, -11.628, -87.0314, 7.42454
5.67191, 16, -13.4421, 43.678, 12.5913, -11.6281, -87.0314, 7.42453
5.68011, 16, -13.4421, 43.679, 12.5914, -11.6281, -87.0314, 7.42452
5.68819, 16, -13.4421, 43.6799, 12.5914, -11.6281, -87.0313, 7.42452
5.69588, 16, -13.442, 43.6805, 12.5915, -11.6281, -87.0313, 7.42447
5.70434, 16, -13.442, 43.6809, 12.5916, -11.6281, -87.0312, 7.42452
5.71101, 16, -13.442, 43.681, 12.5917, -11.6281, -87.0311, 7.42454
5.72005, 16, -13.4419, 43.681, 12.5919, -11.6281, -87.031, 7.42453
5.72706, 16, -13.4418, 43.6809, 12.5919, -11.6281, -87.031, 7.42455
