hehonglu123/ABB_Primitive_Study/realrobot/movelcl_30_car2/curve_exe_vmax_z20.csv
timestamp, cmd_num, J1, J2, J3, J4, J5, J6
0.000355, -1, -13.4415, 43.6807, 12.5924, -11.628, -87.0287, 7.42467
0.003073, -1, -13.4414, 43.6807, 12.5924, -11.628, -87.0287, 7.42466
0.008115, -1, -13.4414, 43.6807, 12.5924, -11.6279, -87.0287, 7.42466
0.030239, -1, -13.4414, 43.6807, 12.5924, -11.628, -87.0286, 7.42462
0.031571, -1, -13.4414, 43.6807, 12.5924, -11.628, -87.0286, 7.42462
0.034673, -1, -13.4414, 43.6807, 12.5924, -11.628, -87.0286, 7.42463
0.039992, -1, -13.4414, 43.6807, 12.5925, -11.628, -87.0286, 7.42464
0.047924, -1, -13.4414, 43.6807, 12.5924, -11.628, -87.0287, 7.42465
0.05748, -1, -13.4409, 43.6803, 12.5925, -11.628, -87.0287, 7.42462
0.063909, -1, -13.4386, 43.6786, 12.5927, -11.628, -87.0287, 7.42461
0.072, -1, -13.4333, 43.6743, 12.5934, -11.6277, -87.0282, 7.42456
0.079914, -1, -13.4246, 43.6671, 12.595, -11.6264, -87.0261, 7.42439
0.087924, -1, -13.4116, 43.6564, 12.5978, -11.6212, -87.0196, 7.42286
0.095958, -1, -13.3921, 43.6406, 12.6022, -11.6094, -87.0057, 7.41623
0.103911, -1, -13.3647, 43.6181, 12.6091, -11.5881, -86.9803, 7.40114
0.111986, -1, -13.3289, 43.588, 12.6191, -11.5532, -86.9394, 7.37602
0.119908, -1, -13.2837, 43.5492, 12.6322, -11.4998, -86.8784, 7.33783
0.256461, -1, -11.0497, 41.5453, 13.3923, -7.79697, -82.5546, 4.56992
0.257845, -1, -11.0497, 41.5453, 13.3923, -7.79697, -82.5546, 4.56992
0.260565, -1, -10.9636, 41.4696, 13.421, -7.66002, -82.3942, 4.46713
0.261799, -1, -10.9636, 41.4696, 13.421, -7.66002, -82.3942, 4.46713
0.263772, -1, -10.8775, 41.3938, 13.4498, -7.52316, -82.2338, 4.36446
0.265017, -1, -10.8775, 41.3938, 13.4498, -7.52316, -82.2338, 4.36446
0.26627, -1, -10.8775, 41.3938, 13.4498, -7.52316, -82.2338, 4.36446
0.270015, -1, -10.7912, 41.318, 13.4786, -7.38631, -82.0734, 4.26182
0.273495, -1, -10.705, 41.2422, 13.5074, -7.24939, -81.913, 4.15912
0.27537, -1, -10.705, 41.2422, 13.5362, -7.11232, -81.7527, 4.05649
0.276732, -1, -10.6188, 41.1664, 13.5362, -7.11232, -81.7527, 4.05649
0.278112, -1, -10.6188, 41.1664, 13.5362, -7.11232, -81.7527, 4.05649
0.280162, -1, -10.5326, 41.0905, 13.565, -6.97518, -81.5924, 3.95396
0.281443, -1, -10.5326, 41.0905, 13.565, -6.97518, -81.5924, 3.95396
0.282625, -1, -10.5326, 41.0905, 13.565, -6.97518, -81.5924, 3.95396
0.287715, -1, -10.36, 40.9388, 13.6228, -6.70127, -81.2718, 3.74861
0.289055, -1, -10.36, 40.9388, 13.6228, -6.70127, -81.2718, 3.74861
0.290329, -1, -10.36, 40.9388, 13.6228, -6.70127, -81.2718, 3.74861
0.292339, -1, -10.2738, 40.8631, 13.6516, -6.56444, -81.1115, 3.64595
0.293648, -1, -10.2738, 40.8631, 13.6516, -6.56444, -81.1115, 3.64595
0.29536, -1, -10.2738, 40.8631, 13.6516, -6.56444, -81.1115, 3.64595
0.297715, -1, -10.1876, 40.7874, 13.6803, -6.42759, -80.9513, 3.54334
0.303914, -1, -10.0157, 40.636, 13.7377, -6.15375, -80.6312, 3.33798
0.311941, -1, -9.84411, 40.4843, 13.7951, -5.88011, -80.3113, 3.13277
0.321354, -1, -9.67321, 40.3322, 13.8524, -5.60668, -79.9917, 2.92779
0.326946, -1, -9.58795, 40.256, 13.881, -5.47001, -79.8318, 2.82547
0.336122, -1, -9.3331, 40.028, 13.967, -5.05994, -79.3524, 2.51848
0.342903, -1, -9.24849, 39.952, 13.9956, -4.9235, -79.1927, 2.41618
0.352221, -1, -8.99523, 39.7241, 14.0811, -4.51471, -78.7139, 2.10967
0.35891, -1, -8.91077, 39.6481, 14.1097, -4.37858, -78.5544, 2.0077
0.368275, -1, -8.657, 39.4205, 14.1952, -3.97106, -78.077, 1.70228
0.374964, -1, -8.5722, 39.3449, 14.2236, -3.8354, -77.9181, 1.60052
0.384494, -1, -8.31752, 39.1191, 14.309, -3.42881, -77.4424, 1.29586
0.392439, -1, -8.14763, 38.9688, 14.3657, -3.15853, -77.126, 1.09313
0.400464, -1, -7.9775, 38.8186, 14.4225, -2.88878, -76.8103, 0.890977
0.408542, -1, -7.80738, 38.6688, 14.4791, -2.61926, -76.495, 0.689204
0.416482, -1, -7.72224, 38.5196, 14.5354, -2.35063, -76.1802, 0.487955
0.424517, -1, -7.55184, 38.4451, 14.5635, -2.08244, -75.8659, 0.287095
0.431903, -1, -7.38153, 38.2962, 14.6198, -1.94844, -75.709, 0.186885
0.439893, -1, -7.21165, 38.1474, 14.676, -1.68085, -75.3958, -0.0136416
0.44794, -1, -7.04252, 37.9985, 14.7321, -1.41405, -75.0835, -0.213397
0.455907, -1, -6.87439, 37.8502, 14.7881, -1.14795, -74.7719, -0.412539
0.463896, -1, -6.70731, 37.7022, 14.8437, -0.882434, -74.4613, -0.611183
0.471946, -1, -6.54097, 37.5545, 14.8991, -0.617879, -74.1513, -0.809398
0.479898, -1, -6.37578, 37.4069, 14.9545, -0.353994, -73.8421, -1.00717
0.487978, -1, -6.21188, 37.2597, 15.0098, -0.0906093, -73.534, -1.20452
0.495955, -1, -6.04886, 37.1133, 15.0649, 0.171951, -73.2266, -1.40095
0.503895, -1, -5.88654, 36.9677, 15.12, 0.433653, -72.9201, -1.59681
0.511911, -1, -5.72457, 36.8225, 15.1747, 0.694437, -72.6149, -1.79198
0.519939, -1, -5.5626, 36.6776, 15.2292, 0.954604, -72.3103, -1.98679
0.527917, -1, -5.4006, 36.5332, 15.2836, 1.21352, -72.0068, -2.18078
0.535891, -1, -5.23866, 36.3894, 15.3379, 1.47186, -71.7043, -2.37443
0.542897, -1, -5.0768, 36.2462, 15.3921, 1.72961, -71.4025, -2.56717
0.551936, -1, -4.91519, 36.1035, 15.4462, 1.98618, -71.1022, -2.75924
0.559896, -1, -4.75388, 35.961, 15.4998, 2.24171, -70.8028, -2.95071
0.567961, -1, -4.5926, 35.8188, 15.5534, 2.49645, -70.5045, -3.14159
0.575897, -1, -4.4314, 35.6771, 15.6066, 2.75, -70.2073, -3.3319
0.583893, -1, -4.27038, 35.5362, 15.6597, 3.00253, -69.9115, -3.52125
0.591943, -1, -4.11005, 35.3957, 15.7125, 3.25458, -69.6168, -3.70984
0.599897, -1, -3.95095, 35.2555, 15.7654, 3.50577, -69.323, -3.8976
0.607919, -1, -3.7932, 35.1156, 15.8179, 3.75571, -69.0303, -4.08487
0.615994, -1, -3.6366, 34.9763, 15.87, 4.00485, -68.7385, -4.27123
0.623894, -1, -3.48088, 34.8378, 15.922, 4.25312, -68.4476, -4.45728
0.631957, -1, -3.3261, 34.7, 15.9738, 4.50021, -68.1579, -4.6423
0.639893, -1, -3.17227, 34.5627, 16.0255, 4.74647, -67.8692, -4.82656
0.647972, -1, -3.01959, 34.4258, 16.0771, 4.99196, -67.5819, -5.01001
0.655966, -1, -2.86776, 34.2894, 16.1286, 5.23658, -67.2959, -5.19283
0.663892, -1, -2.71649, 34.1538, 16.1796, 5.4799, -67.0109, -5.375
0.671965, -1, -2.56543, 34.019, 16.2305, 5.72233, -66.7273, -5.55671
0.679949, -1, -2.4143, 33.8846, 16.2812, 5.96358, -66.445, -5.73738
0.6879, -1, -2.26326, 33.7508, 16.3317, 6.20387, -66.1636, -5.91724
0.695956, -1, -2.11257, 33.6172, 16.3821, 6.44301, -65.8833, -6.09636
0.703894, -1, -1.96232, 33.4842, 16.4322, 6.68136, -65.6041, -6.27474
0.711912, -1, -1.81261, 33.3518, 16.4819, 6.9189, -65.3262, -6.4526
0.719948, -1, -1.66324, 33.2199, 16.5313, 7.15524, -65.0493, -6.62955
0.727895, -1, -1.51402, 33.0884, 16.5807, 7.39044, -64.7734, -6.80605
0.735962, -1, -1.36493, 32.9574, 16.6299, 7.62481, -64.4988, -6.98146
0.743969, -1, -1.21625, 32.8267, 16.6789, 7.85824, -64.2254, -7.15615
0.751928, -1, -1.06875, 32.6968, 16.7277, 8.09067, -63.9532, -7.33029
0.76004, -1, -0.922462, 32.5678, 16.7764, 8.3221, -63.6821, -7.50365
0.767398, -1, -0.777448, 32.4393, 16.8247, 8.55286, -63.4123, -7.67665
0.775987, -1, -0.633369, 32.3113, 16.8729, 8.78245, -63.1437, -7.84871
0.784122, -1, -0.490114, 32.1839, 16.9209, 9.01091, -62.8761, -8.01976
0.791451, -1, -0.418902, 32.1203, 16.9688, 9.23843, -62.6098, -8.18999
0.800016, -1, -0.206863, 31.9307, 17.0164, 9.465, -62.3446, -8.35941
0.808022, -1, -0.06681, 31.8051, 17.0638, 9.69057, -62.0806, -8.52822
0.815917, -1, 0.0724119, 31.6799, 17.111, 9.91492, -61.8175, -8.69622
0.82294, -1, 0.141855, 31.6175, 17.1344, 10.0268, -61.6864, -8.78007
0.832034, -1, 0.350216, 31.4308, 17.2045, 10.3614, -61.2945, -9.03059
0.838896, -1, 0.41973, 31.3688, 17.2278, 10.4723, -61.1644, -9.11365
0.848439, -1, 0.62818, 31.1836, 17.2973, 10.8036, -60.7758, -9.3618
0.854909, -1, 0.697506, 31.1222, 17.3205, 10.9136, -60.6468, -9.44406
0.864319, -1, 0.904944, 30.9386, 17.3894, 11.2424, -60.2618, -9.69016
0.872425, -1, 1.04265, 30.8168, 17.4352, 11.4603, -60.0065, -9.85334
0.880384, -1, 1.18001, 30.6955, 17.4808, 11.6772, -59.7523, -10.016
0.888391, -1, 1.31708, 30.5746, 17.5261, 11.8934, -59.4995, -10.1778
0.896816, -1, 1.45381, 30.4545, 17.5713, 12.1088, -59.2478, -10.3389
0.904466, -1, 1.59005, 30.3351, 17.6163, 12.3232, -58.9971, -10.4992
0.912439, -1, 1.72541, 30.2161, 17.6612, 12.5367, -58.7471, -10.6587
0.920592, -1, 1.85984, 30.0977, 17.7058, 12.7493, -58.4981, -10.8179
0.928506, -1, 1.92662, 30.0386, 17.7281, 12.8553, -58.2501, -10.9763
0.935881, -1, 2.05962, 29.9208, 17.7725, 13.0666, -58.1264, -11.0554
0.943981, -1, 2.1918, 29.8034, 17.8166, 13.2768, -57.8796, -11.2131
0.951882, -1, 2.32333, 29.6867, 17.8605, 13.4862, -57.6337, -11.3699
0.959895, -1, 2.45386, 29.5704, 17.9042, 13.695, -57.389, -11.526
0.967928, -1, 2.58345, 29.4545, 17.9479, 13.903, -57.1453, -11.6816
0.975871, -1, 2.71202, 29.3389, 17.9914, 14.1099, -56.9029, -11.8366
0.98392, -1, 2.83992, 29.2237, 18.0346, 14.3161, -56.6615, -11.9911
0.991959, -1, 2.96745, 29.1087, 18.0776, 14.5214, -56.4212, -12.145
0.999897, -1, 3.09486, 28.9944, 18.1205, 14.726, -56.182, -12.2983
1.00792, -1, 3.22241, 28.8806, 18.1631, 14.9295, -55.9436, -12.4508
1.0149, -1, 3.34981, 28.7672, 18.2057, 15.1324, -55.7062, -12.6027
1.02393, -1, 3.4769, 28.6544, 18.2481, 15.3345, -55.4697, -12.7538
1.03194, -1, 3.60366, 28.542, 18.2904, 15.536, -55.2341, -12.9044
1.03888, -1, 3.73016, 28.43, 18.3326, 15.7366, -54.9993, -13.0543
1.04789, -1, 3.85637, 28.3186, 18.3744, 15.9362, -54.7653, -13.2036
1.05594, -1, 3.98238, 28.2078, 18.4161, 16.1351, -54.5321, -13.3529
1.06288, -1, 4.10802, 28.0976, 18.4578, 16.3332, -54.2995, -13.5013
1.07188, -1, 4.23325, 27.9877, 18.4991, 16.5305, -54.0683, -13.649
1.07995, -1, 4.3578, 27.8782, 18.5404, 16.727, -53.838, -13.7961
1.08788, -1, 4.48159, 27.769, 18.5816, 16.9228, -53.6086, -13.9425
1.09588, -1, 4.60485, 27.6601, 18.6225, 17.1179, -53.3802, -14.0885
1.10397, -1, 4.72766, 27.5516, 18.6633, 17.3123, -53.1526, -14.234
1.11187, -1, 4.84971, 27.4436, 18.7038, 17.5059, -52.926, -14.379
1.11989, -1, 4.97097, 27.3359, 18.7443, 17.6988, -52.7002, -14.5236
1.12794, -1, 5.09173, 27.2285, 18.7848, 17.8907, -52.4752, -14.6673
1.13589, -1, 5.21156, 27.1217, 18.8249, 18.0825, -52.2512, -14.8106
1.14444, -1, 5.33053, 27.0151, 18.8648, 18.2731, -52.028, -14.9532
1.15099, -1, 5.44869, 26.9088, 18.9048, 18.4631, -51.8054, -15.0954
1.15995, -1, 5.56634, 26.8031, 18.9446, 18.6525, -51.5838, -15.237
1.16866, -1, 5.6836, 26.6979, 18.9842, 18.8412, -51.3627, -15.3783
1.17588, -1, 5.8006, 26.5932, 19.0236, 19.0294, -51.1426, -15.519
1.18392, -1, 5.9174, 26.4888, 19.0629, 19.2168, -50.9231, -15.6595
1.19267, -1, 6.03394, 26.3848, 19.1021, 19.4033, -50.7043, -15.7991
1.19987, -1, 6.15043, 26.281, 19.1411, 19.5893, -50.4864, -15.9383
1.20788, -1, 6.26674, 26.1775, 19.1799, 19.7746, -50.2694, -16.077
1.21668, -1, 6.38318, 26.0743, 19.2187, 19.9593, -50.0529, -16.2153
1.22391, -1, 6.49946, 25.9716, 19.2573, 20.1433, -49.8374, -16.3532
1.23187, -1, 6.61549, 25.8692, 19.2957, 20.3264, -49.6225, -16.4906
1.24068, -1, 6.73128, 25.7672, 19.3341, 20.5091, -49.4086, -16.6278
1.24788, -1, 6.84652, 25.6656, 19.3722, 20.6914, -49.1955, -16.7645
1.25593, -1, 6.96134, 25.5642, 19.4103, 20.8728, -48.983, -16.9003
1.26491, -1, 7.07569, 25.4632, 19.4484, 21.0536, -48.7716, -17.0358
1.27198, -1, 7.1895, 25.3625, 19.4862, 21.2338, -48.5609, -17.1706
1.27997, -1, 7.30289, 25.2624, 19.5239, 21.4134, -48.3506, -17.3049
1.28876, -1, 7.41578, 25.1627, 19.5616, 21.5927, -48.1409, -17.4389
1.29598, -1, 7.5282, 25.0633, 19.599, 21.7711, -47.9319, -17.5723
1.30352, -1, 7.58422, 25.0138, 19.6177, 21.9489, -47.7236, -17.7054
1.31277, -1, 7.75146, 24.8655, 19.6737, 22.1262, -47.5158, -17.8384
1.31991, -1, 7.86224, 24.767, 19.7107, 22.303, -47.3085, -17.9706
1.32693, -1, 7.9175, 24.7178, 19.7292, 22.3913, -47.2052, -18.0366
1.33601, -1, 8.08277, 24.5707, 19.7847, 22.655, -46.8962, -18.2338
1.34287, -1, 8.13761, 24.5218, 19.803, 22.7425, -46.7936, -18.2993
1.35213, -1, 8.30154, 24.3756, 19.8577, 23.0044, -46.4866, -18.4953
1.35887, -1, 8.35603, 24.3269, 19.8759, 23.0914, -46.3847, -18.5604
1.36693, -1, 8.46469, 24.2299, 19.9123, 23.2652, -46.1815, -18.6904
1.37634, -1, 8.6264, 24.0849, 19.9667, 23.5245, -45.8778, -18.8847
1.38301, -1, 8.68007, 24.0367, 19.9848, 23.6107, -45.7769, -18.9494
1.39238, -1, 8.84091, 23.8926, 20.0388, 23.8683, -45.4752, -19.1422
1.40048, -1, 8.94808, 23.7971, 20.0746, 24.0395, -45.275, -19.2703
1.40844, -1, 9.0552, 23.702, 20.1106, 24.2103, -45.0755, -19.398
1.41642, -1, 9.16227, 23.6073, 20.1462, 24.3804, -44.8764, -19.5251
1.4246, -1, 9.26912, 23.5128, 20.1818, 24.5501, -44.6777, -19.6521
1.43235, -1, 9.32247, 23.4657, 20.1996, 24.6346, -44.5787, -19.7154
1.43991, -1, 9.42892, 23.3717, 20.2351, 24.8033, -44.3808, -19.842
1.44788, -1, 9.53509, 23.2779, 20.2704, 24.9719, -44.1835, -19.9681
1.45586, -1, 9.64093, 23.1842, 20.3057, 25.1397, -43.9867, -20.094
1.46395, -1, 9.74651, 23.0909, 20.3409, 25.307, -43.7903, -20.2193
1.47189, -1, 9.85188, 22.9978, 20.3757, 25.4739, -43.5949, -20.3443
1.47986, -1, 9.95695, 22.9049, 20.4106, 25.6402, -43.4001, -20.4687
1.48792, -1, 10.0616, 22.8123, 20.4454, 25.8063, -43.2059, -20.5928
1.49594, -1, 10.1659, 22.72, 20.48, 25.9719, -43.0122, -20.7168
1.50391, -1, 10.2698, 22.6279, 20.5145, 26.1368, -42.819, -20.8402
1.51335, -1, 10.4249, 22.4902, 20.5663, 26.3834, -42.5303, -21.025
1.51888, -1, 10.4764, 22.4444, 20.5835, 26.4654, -42.4343, -21.0865
1.52788, -1, 10.5793, 22.3531, 20.6178, 26.629, -42.2428, -21.2091
1.53592, -1, 10.6818, 22.2622, 20.6521, 26.7921, -42.0517, -21.3312
1.54392, -1, 10.784, 22.1715, 20.6861, 26.9548, -41.8615, -21.4531
1.55188, -1, 10.8858, 22.081, 20.7201, 27.1169, -41.6718, -21.5742
1.55986, -1, 10.9871, 21.9908, 20.7541, 27.2784, -41.4824, -21.6952
1.56888, -1, 11.088, 21.9008, 20.788, 27.4398, -41.2935, -21.8159
1.57592, -1, 11.1887, 21.8111, 20.8217, 27.6008, -41.1051, -21.9362
1.58391, -1, 11.2892, 21.7214, 20.8554, 27.7613, -40.9171, -22.0562
1.59186, -1, 11.3894, 21.632, 20.889, 27.9212, -40.7297, -22.1761
1.59998, -1, 11.4891, 21.5429, 20.9224, 28.0806, -40.5427, -22.2956
1.60786, -1, 11.5883, 21.4541, 20.9557, 28.2396, -40.3562, -22.4149
1.61593, -1, 11.6874, 21.3654, 20.9891, 28.3985, -40.1702, -22.5337
1.6239, -1, 11.7863, 21.2771, 21.0222, 28.5569, -39.9848, -22.652
1.63196, -1, 11.8852, 21.1891, 21.0553, 28.7147, -39.7998, -22.77
1.63994, -1, 11.9841, 21.1013, 21.0884, 28.8722, -39.6152, -22.8879
1.64786, -1, 12.0829, 21.0137, 21.1214, 29.0292, -39.4312, -23.0054
1.65586, -1, 12.1817, 20.9264, 21.1541, 29.1859, -39.2478, -23.1227
1.66399, -1, 12.2802, 20.8393, 21.1869, 29.3425, -39.0646, -23.2396
1.67192, -1, 12.3785, 20.7525, 21.2197, 29.4985, -38.8822, -23.3565
1.67985, -1, 12.4765, 20.6659, 21.2522, 29.654, -38.7001, -23.4732
1.68786, -1, 12.5743, 20.5794, 21.2847, 29.8091, -38.5183, -23.5892
1.69596, -1, 12.6719, 20.4931, 21.3173, 29.9638, -38.3373, -23.7052
1.70389, -1, 12.7692, 20.4069, 21.3496, 30.1183, -38.1567, -23.8206
1.71186, -1, 12.8662, 20.3209, 21.3817, 30.2723, -37.9767, -23.9355
1.71995, -1, 12.9629, 20.2351, 21.414, 30.426, -37.7971, -24.0506
1.72786, -1, 13.0593, 20.1494, 21.4462, 30.5791, -37.6179, -24.1652
1.736, -1, 13.1555, 20.064, 21.4782, 30.7318, -37.4388, -24.2796
1.7439, -1, 13.2512, 19.9789, 21.5101, 30.8843, -37.2602, -24.3938
1.75188, -1, 13.3466, 19.8939, 21.5421, 31.0366, -37.0819, -24.5077
1.7602, -1, 13.4419, 19.8092, 21.5739, 31.1884, -36.9041, -24.6215
1.76764, -1, 13.5369, 19.7248, 21.6057, 31.3397, -36.7265, -24.7346
1.77596, -1, 13.6318, 19.6405, 21.6374, 31.4908, -36.5497, -24.8477
1.78405, -1, 13.7263, 19.5564, 21.669, 31.6412, -36.373, -24.9606
1.79197, -1, 13.8207, 19.4725, 21.7005, 31.7916, -36.1968, -25.0731
1.79996, -1, 13.9148, 19.3888, 21.732, 31.9418, -36.021, -25.1854
1.80803, -1, 14.0088, 19.3054, 21.7635, 32.0914, -35.8458, -25.2976
1.81607, -1, 14.1028, 19.2221, 21.7948, 32.2407, -35.6708, -25.4095
1.8229, -1, 14.1497, 19.1806, 21.8104, 32.3152, -35.5835, -25.4654
1.83203, -1, 14.29, 19.0562, 21.857, 32.5382, -35.3225, -25.6328
1.83885, -1, 14.3365, 19.0149, 21.8726, 32.6125, -35.2356, -25.6886
1.84799, -1, 14.4757, 18.891, 21.9192, 32.8349, -34.9756, -25.8548
1.85614, -1, 14.5682, 18.8086, 21.9502, 32.9826, -34.803, -25.9654
1.86285, -1, 14.6143, 18.7675, 21.9657, 33.0563, -34.7167, -26.0205
1.8722, -1, 14.7523, 18.6443, 22.0119, 33.277, -34.4588, -26.1854
1.87885, -1, 14.7982, 18.6034, 22.0273, 33.3504, -34.3729, -26.2404
1.88842, -1, 14.9358, 18.481, 22.0733, 33.57, -34.1156, -26.4046
1.89637, -1, 15.0273, 18.3995, 22.104, 33.7162, -33.9445, -26.5139
1.90441, -1, 15.1186, 18.3183, 22.1346, 33.8618, -33.7738, -26.6231
1.9127, -1, 15.2099, 18.2373, 22.165, 34.0072, -33.6034, -26.7321
1.92041, -1, 15.2554, 18.1564, 22.1955, 34.1521, -33.4333, -26.8409
1.92847, -1, 15.3466, 18.116, 22.226, 34.2969, -33.2634, -26.9491
1.93645, -1, 15.4377, 18.0353, 22.2411, 34.3693, -33.1787, -27.0032
1.94384, -1, 15.5288, 17.9549, 22.2714, 34.5137, -33.0096, -27.111
1.95191, -1, 15.6196, 17.8745, 22.3017, 34.6578, -32.841, -27.2188
1.95985, -1, 15.7103, 17.7944, 22.3319, 34.8015, -32.6727, -27.3261
1.96784, -1, 15.8007, 17.7144, 22.3619, 34.9449, -32.5048, -27.4335
1.97591, -1, 15.8909, 17.6345, 22.3918, 35.0878, -32.3372, -27.5406
1.98384, -1, 15.981, 17.5548, 22.4219, 35.2307, -32.17, -27.6474
1.99184, -1, 16.0707, 17.4752, 22.4518, 35.3735, -32.003, -27.7546
1.99992, -1, 16.1601, 17.3958, 22.4816, 35.5158, -31.8364, -27.8611
2.00784, -1, 16.2493, 17.3165, 22.5113, 35.6577, -31.6702, -27.9677
2.01591, -1, 16.3382, 17.2373, 22.5412, 35.7994, -31.5042, -28.0736
2.02384, -1, 16.4269, 17.1583, 22.5708, 35.9408, -31.3388, -28.1794
2.03185, -1, 16.5153, 17.0795, 22.6004, 36.082, -31.1735, -28.2852
2.03991, -1, 16.6036, 17.0009, 22.6299, 36.2231, -31.0085, -28.3902
2.04784, -1, 16.6918, 16.9224, 22.6595, 36.364, -30.8438, -28.4957
2.05587, -1, 16.7799, 16.8442, 22.6889, 36.5044, -30.6792, -28.6006
2.06555, -1, 16.868, 16.7662, 22.7182, 36.6445, -30.4332, -28.7577
2.07185, -1, 16.9559, 16.6882, 22.7476, 36.7843, -30.3513, -28.8101
2.07985, -1, 17.0436, 16.6105, 22.777, 36.9237, -30.1881, -28.9149
2.08791, -1, 17.1312, 16.5327, 22.8062, 37.0632, -30.0247, -29.0191
2.09584, -1, 17.2181, 16.4554, 22.8353, 37.2021, -29.8618, -29.1232
2.10384, -1, 17.3028, 16.3794, 22.8642, 37.3409, -29.6992, -29.227
2.11191, -1, 17.3832, 16.3067, 22.8922, 37.4782, -29.5382, -29.3298
2.11984, -1, 17.4579, 16.2389, 22.9189, 37.6126, -29.3806, -29.4308
2.12784, -1, 17.5269, 16.1772, 22.9439, 37.741, -29.2297, -29.527
2.13591, -1, 17.59, 16.1217, 22.9668, 37.8597, -29.0902, -29.6165
2.14384, -1, 17.646, 16.0724, 22.9874, 37.9652, -28.9661, -29.6954
2.15185, -1, 17.6955, 16.0287, 23.0052, 38.0532, -28.8617, -29.7625
2.1599, -1, 17.7394, 15.9889, 23.0198, 38.1233, -28.7791, -29.8154
2.16791, -1, 17.7782, 15.9536, 23.0319, 38.1742, -28.7182, -29.8543
2.17584, -1, 17.8109, 15.9243, 23.041, 38.2084, -28.677, -29.8807
2.1839, -1, 17.8373, 15.9023, 23.0475, 38.2304, -28.6507, -29.8972
2.19182, -1, 17.8577, 15.8869, 23.0518, 38.243, -28.6355, -29.9065
2.19985, -1, 17.8717, 15.8766, 23.0545, 38.2497, -28.6274, -29.9113
2.20791, -1, 17.8796, 15.8707, 23.0559, 38.253, -28.6234, -29.9137
2.21581, 2, 17.8833, 15.8676, 23.0566, 38.2546, -28.6215, -29.9147
2.22386, 2, 17.8849, 15.866, 23.057, 38.2553, -28.6206, -29.9153
2.23191, 2, 17.8851, 15.865, 23.0571, 38.2557, -28.6203, -29.9155
2.23984, 2, 17.8846, 15.8645, 23.0572, 38.2558, -28.6201, -29.9156
2.24784, 2, 17.8841, 15.8642, 23.0572, 38.2558, -28.62, -29.9156
2.25594, 2, 17.8836, 15.8641, 23.0572, 38.2559, -28.62, -29.9156
2.26389, 2, 17.8834, 15.864, 23.0572, 38.2559, -28.62, -29.9157
2.27194, 2, 17.8833, 15.8639, 23.0573, 38.2559, -28.62, -29.9156
2.28, 2, 17.8833, 15.8638, 23.0573, 38.2559, -28.62, -29.9157
2.28794, 2, 17.8833, 15.8636, 23.0573, 38.2559, -28.62, -29.9156
2.29595, 2, 17.8836, 15.8634, 23.0573, 38.2559, -28.62, -29.9156
2.30401, 2, 17.884, 15.8633, 23.0573, 38.2559, -28.62, -29.9157
2.31186, 2, 17.8844, 15.8631, 23.0573, 38.256, -28.62, -29.9156
2.31986, 2, 17.8851, 15.863, 23.0573, 38.2559, -28.62, -29.9157
2.32798, 2, 17.8857, 15.8629, 23.0573, 38.2559, -28.62, -29.9156
2.33595, 2, 17.8862, 15.8628, 23.0573, 38.2559, -28.62, -29.9157
2.34287, 2, 17.8864, 15.8628, 23.0573, 38.2559, -28.62, -29.9157
2.35214, 2, 17.8868, 15.8627, 23.0573, 38.2559, -28.6201, -29.9156
2.35882, 2, 17.8869, 15.8627, 23.0573, 38.2559, -28.6201, -29.9156
2.36813, 2, 17.887, 15.8627, 23.0573, 38.2559, -28.6201, -29.9156
2.37483, 2, 17.8871, 15.8627, 23.0573, 38.2559, -28.6201, -29.9156
2.38425, 2, 17.8871, 15.8627, 23.0573, 38.2559, -28.6201, -29.9157
2.39257, 2, 17.8871, 15.8627, 23.0573, 38.2559, -28.6202, -29.9156
2.40048, 2, 17.887, 15.8627, 23.0573, 38.2559, -28.6201, -29.9157
2.40845, 2, 17.8868, 15.8627, 23.0573, 38.2559, -28.6202, -29.9156
2.41638, 2, 17.8867, 15.8627, 23.0573, 38.2559, -28.6201, -29.9156
2.42449, 2, 17.8866, 15.8626, 23.0573, 38.2559, -28.6202, -29.9156
2.43235, 2, 17.8866, 15.8626, 23.0573, 38.2559, -28.6202, -29.9156
2.43983, 2, 17.8866, 15.8626, 23.0573, 38.2559, -28.6203, -29.9156
2.44788, 2, 17.8866, 15.8626, 23.0573, 38.2559, -28.6202, -29.9156
2.45584, 2, 17.8866, 15.8626, 23.0573, 38.2559, -28.6203, -29.9156
2.46382, 2, 17.8865, 15.8626, 23.0573, 38.2559, -28.6203, -29.9155
2.47189, 2, 17.8865, 15.8626, 23.0573, 38.2559, -28.6203, -29.9155
2.47983, 2, 17.8866, 15.8625, 23.0573, 38.2559, -28.6203, -29.9156
2.48783, 2, 17.8865, 15.8625, 23.0573, 38.2559, -28.6204, -29.9156
2.49588, 2, 17.8865, 15.8626, 23.0573, 38.2559, -28.6204, -29.9156
2.5039, 2, 17.8865, 15.8626, 23.0573, 38.2559, -28.6204, -29.9156
2.51183, 2, 17.8865, 15.8626, 23.0573, 38.2559, -28.6204, -29.9156
2.51988, 2, 17.8865, 15.8625, 23.0573, 38.2559, -28.6205, -29.9156
2.52785, 2, 17.8865, 15.8626, 23.0573, 38.2559, -28.6204, -29.9156
2.53583, 2, 17.8864, 15.8625, 23.0573, 38.2559, -28.6205, -29.9156
2.54389, 2, 17.8864, 15.8625, 23.0573, 38.2559, -28.6205, -29.9156
2.55184, 2, 17.8864, 15.8625, 23.0573, 38.2559, -28.6205, -29.9156
2.55984, 2, 17.8864, 15.8625, 23.0573, 38.2558, -28.6205, -29.9156
2.56789, 2, 17.8863, 15.8626, 23.0573, 38.2558, -28.6206, -29.9156
2.5769, 2, 17.8863, 15.8626, 23.0573, 38.2558, -28.6206, -29.9156
2.58383, 2, 17.8863, 15.8626, 23.0573, 38.2559, -28.6206, -29.9155
2.5919, 2, 17.8863, 15.8626, 23.0573, 38.2558, -28.6206, -29.9155
2.59982, 2, 17.8863, 15.8626, 23.0573, 38.2558, -28.6206, -29.9155
2.60782, 2, 17.8863, 15.8626, 23.0573, 38.2559, -28.6206, -29.9155
2.61589, 2, 17.8863, 15.8626, 23.0573, 38.2559, -28.6207, -29.9155
2.62382, 2, 17.8863, 15.8626, 23.0573, 38.2558, -28.6207, -29.9155
2.63183, 2, 17.8863, 15.8626, 23.0573, 38.2558, -28.6207, -29.9155
2.63999, 2, 17.8863, 15.8626, 23.0573, 38.2558, -28.6208, -29.9155
2.64782, 2, 17.8862, 15.8626, 23.0573, 38.2558, -28.6208, -29.9155
2.65583, 2, 17.8862, 15.8625, 23.0573, 38.2558, -28.6208, -29.9155
2.66389, 2, 17.8862, 15.8625, 23.0573, 38.2558, -28.6207, -29.9155
2.67191, 2, 17.8862, 15.8626, 23.0573, 38.2558, -28.6207, -29.9155
2.67982, 2, 17.8862, 15.8626, 23.0573, 38.2557, -28.6207, -29.9155
2.68788, 2, 17.8862, 15.8626, 23.0573, 38.2557, -28.6207, -29.9155
2.69583, 2, 17.8861, 15.8626, 23.0573, 38.2558, -28.6208, -29.9155
2.70382, 2, 17.8861, 15.8626, 23.0573, 38.2557, -28.6208, -29.9155
2.7119, 2, 17.8861, 15.8626, 23.0573, 38.2558, -28.6208, -29.9155
2.71982, 2, 17.886, 15.8626, 23.0573, 38.2558, -28.6208, -29.9155
2.72784, 2, 17.886, 15.8626, 23.0573, 38.2558, -28.6208, -29.9155
2.7359, 2, 17.886, 15.8626, 23.0573, 38.2557, -28.6208, -29.9155
2.74382, 2, 17.8859, 15.8626, 23.0573, 38.2557, -28.6208, -29.9155
2.75183, 2, 17.8859, 15.8626, 23.0573, 38.2557, -28.6208, -29.9155
2.75992, 2, 17.8859, 15.8626, 23.0573, 38.2557, -28.6208, -29.9155
2.7679, 2, 17.8859, 15.8626, 23.0573, 38.2557, -28.6209, -29.9154
2.776, 2, 17.8858, 15.8626, 23.0573, 38.2557, -28.6209, -29.9154
2.78398, 2, 17.8858, 15.8626, 23.0573, 38.2556, -28.6208, -29.9154
2.79193, 2, 17.8857, 15.8626, 23.0573, 38.2556, -28.6209, -29.9154
2.79993, 2, 17.8857, 15.8626, 23.0573, 38.2557, -28.621, -29.9154
2.808, 2, 17.8856, 15.8626, 23.0573, 38.2557, -28.621, -29.9154
2.81583, 2, 17.8856, 15.8626, 23.0573, 38.2556, -28.621, -29.9154
2.82385, 2, 17.8855, 15.8626, 23.0573, 38.2556, -28.621, -29.9154
2.83226, 2, 17.8855, 15.8626, 23.0573, 38.2556, -28.621, -29.9154
2.83881, 2, 17.8855, 15.8626, 23.0573, 38.2556, -28.621, -29.9154
2.84792, 2, 17.8855, 15.8626, 23.0573, 38.2556, -28.6211, -29.9154
2.85617, 2, 17.8854, 15.8626, 23.0573, 38.2556, -28.6211, -29.9153
2.8628, 2, 17.8854, 15.8626, 23.0573, 38.2556, -28.6211, -29.9154
2.87214, 2, 17.8853, 15.8626, 23.0573, 38.2556, -28.6211, -29.9153
2.87881, 2, 17.8853, 15.8626, 23.0573, 38.2556, -28.6211, -29.9153
2.88825, 2, 17.8852, 15.8626, 23.0573, 38.2555, -28.6212, -29.9153
2.89636, 2, 17.8851, 15.8626, 23.0573, 38.2555, -28.6212, -29.9153
2.90463, 2, 17.8851, 15.8626, 23.0573, 38.2555, -28.6212, -29.9153
2.91237, 2, 17.885, 15.8626, 23.0573, 38.2555, -28.6211, -29.9153
2.92037, 2, 17.885, 15.8626, 23.0573, 38.2555, -28.6211, -29.9153
2.92867, 2, 17.8849, 15.8626, 23.0573, 38.2554, -28.6211, -29.9152
2.93634, 2, 17.8849, 15.8626, 23.0573, 38.2554, -28.6211, -29.9152
2.94381, 2, 17.8849, 15.8626, 23.0573, 38.2554, -28.6212, -29.9151
2.95187, 2, 17.8848, 15.8626, 23.0573, 38.2554, -28.6212, -29.9151
2.95981, 2, 17.8847, 15.8626, 23.0573, 38.2555, -28.6212, -29.9151
2.96781, 2, 17.8847, 15.8626, 23.0573, 38.2554, -28.6212, -29.9152
2.97587, 2, 17.8846, 15.8626, 23.0573, 38.2554, -28.6211, -29.9151
2.98381, 2, 17.8846, 15.8626, 23.0573, 38.2554, -28.6212, -29.9151
2.99182, 2, 17.8845, 15.8626, 23.0573, 38.2554, -28.6212, -29.915
2.99986, 2, 17.8845, 15.8626, 23.0573, 38.2554, -28.6212, -29.915
3.00788, 2, 17.8844, 15.8626, 23.0573, 38.2553, -28.6212, -29.915
3.01581, 2, 17.8844, 15.8626, 23.0573, 38.2553, -28.6212, -29.915
3.02386, 2, 17.8843, 15.8626, 23.0573, 38.2553, -28.6212, -29.915
3.03182, 2, 17.8843, 15.8626, 23.0573, 38.2552, -28.6212, -29.9149
3.0398, 2, 17.8843, 15.8626, 23.0573, 38.2552, -28.6212, -29.9149
3.04681, 2, 17.8842, 15.8626, 23.0573, 38.2552, -28.6212, -29.9149
3.05581, 2, 17.8842, 15.8626, 23.0573, 38.2552, -28.6212, -29.9149
3.06382, 2, 17.8841, 15.8626, 23.0573, 38.2552, -28.6212, -29.9149
3.0728, 2, 17.8841, 15.8626, 23.0573, 38.2552, -28.6212, -29.9149
3.07988, 2, 17.8841, 15.8626, 23.0573, 38.2552, -28.6212, -29.9149
3.08879, 2, 17.884, 15.8626, 23.0573, 38.2552, -28.6212, -29.9149
3.09588, 2, 17.884, 15.8626, 23.0573, 38.2552, -28.6212, -29.9148
3.1038, 2, 17.8839, 15.8626, 23.0573, 38.2551, -28.6212, -29.9149
3.11182, 2, 17.8839, 15.8626, 23.0573, 38.2551, -28.6212, -29.9149
3.11987, 2, 17.8839, 15.8626, 23.0573, 38.2551, -28.6213, -29.9148
3.1278, 2, 17.8839, 15.8626, 23.0573, 38.2551, -28.6212, -29.9148
3.13581, 2, 17.8839, 15.8626, 23.0573, 38.2551, -28.6213, -29.9149
3.14387, 2, 17.8839, 15.8626, 23.0573, 38.255, -28.6213, -29.9149
3.15182, 2, 17.8838, 15.8626, 23.0573, 38.255, -28.6213, -29.9148
3.1598, 2, 17.8838, 15.8626, 23.0573, 38.2549, -28.6213, -29.9148
3.16787, 2, 17.8838, 15.8626, 23.0573, 38.2549, -28.6213, -29.9149
3.17588, 2, 17.8838, 15.8626, 23.0573, 38.2549, -28.6214, -29.9148
3.1838, 2, 17.8838, 15.8626, 23.0573, 38.2549, -28.6214, -29.9147
3.19188, 2, 17.8838, 15.8626, 23.0573, 38.2549, -28.6213, -29.9147
3.1998, 2, 17.8838, 15.8626, 23.0573, 38.2549, -28.6213, -29.9147
3.20781, 2, 17.8838, 15.8627, 23.0573, 38.2549, -28.6213, -29.9147
3.2161, 2, 17.8837, 15.8627, 23.0573, 38.2549, -28.6213, -29.9147
3.2241, 2, 17.8837, 15.8627, 23.0573, 38.2548, -28.6214, -29.9147
3.23186, 2, 17.8838, 15.8627, 23.0573, 38.2548, -28.6214, -29.9147
3.23984, 2, 17.8837, 15.8627, 23.0573, 38.2548, -28.6214, -29.9147
3.24787, 2, 17.8837, 15.8627, 23.0573, 38.2547, -28.6214, -29.9147
3.25581, 2, 17.8837, 15.8627, 23.0573, 38.2548, -28.6214, -29.9147
3.26384, 2, 17.8837, 15.8627, 23.0573, 38.2547, -28.6214, -29.9147
3.27205, 2, 17.8837, 15.8627, 23.0573, 38.2547, -28.6214, -29.9147
3.27932, 2, 17.8837, 15.8627, 23.0573, 38.2547, -28.6214, -29.9147
3.2879, 2, 17.8836, 15.8627, 23.0573, 38.2547, -28.6215, -29.9147
3.29594, 4, 17.8836, 15.8627, 23.0573, 38.2547, -28.6215, -29.9147
3.30391, 4, 17.8836, 15.8627, 23.0573, 38.2546, -28.6214, -29.9146
3.31191, 4, 17.8836, 15.8627, 23.0573, 38.2547, -28.6214, -29.9147
3.31993, 4, 17.8836, 15.8627, 23.0573, 38.2547, -28.6214, -29.9147
3.32783, 4, 17.8836, 15.8627, 23.0573, 38.2547, -28.6214, -29.9147
3.33624, 4, 17.8836, 15.8627, 23.0573, 38.2546, -28.6215, -29.9146
3.34278, 4, 17.8836, 15.8627, 23.0573, 38.2546, -28.6215, -29.9146
3.35191, 4, 17.8836, 15.8627, 23.0573, 38.2546, -28.6215, -29.9146
3.36018, 4, 17.8836, 15.8627, 23.0573, 38.2546, -28.6214, -29.9146
3.3668, 4, 17.8836, 15.8627, 23.0573, 38.2546, -28.6214, -29.9146
3.37612, 4, 17.8836, 15.8627, 23.0573, 38.2546, -28.6215, -29.9145
3.38283, 4, 17.8836, 15.8627, 23.0573, 38.2546, -28.6215, -29.9146
3.39231, 4, 17.8835, 15.8627, 23.0573, 38.2546, -28.6215, -29.9146
3.40612, 4, 17.8835, 15.8627, 23.0573, 38.2545, -28.6215, -29.9146
3.41356, 4, 17.8835, 15.8627, 23.0573, 38.2545, -28.6215, -29.9146
3.41656, 4, 17.8835, 15.8627, 23.0573, 38.2545, -28.6215, -29.9146
3.42595, 4, 17.8835, 15.8627, 23.0573, 38.2545, -28.6215, -29.9146
3.43265, 4, 17.8835, 15.8627, 23.0573, 38.2545, -28.6215, -29.9146
3.44055, 4, 17.8835, 15.8627, 23.0573, 38.2545, -28.6215, -29.9146
3.44867, 4, 17.8835, 15.8627, 23.0573, 38.2544, -28.6215, -29.9146
3.45686, 4, 17.8834, 15.8627, 23.0573, 38.2545, -28.6215, -29.9146
3.469, 4, 17.8834, 15.8627, 23.0573, 38.2544, -28.6215, -29.9145
3.4739, 4, 17.8834, 15.8627, 23.0573, 38.2544, -28.6215, -29.9145
3.47894, 4, 17.8834, 15.8627, 23.0573, 38.2544, -28.6215, -29.9145
3.49895, 4, 17.8834, 15.8627, 23.0573, 38.2544, -28.6215, -29.9145
3.50153, 4, 17.8834, 15.8627, 23.0573, 38.2544, -28.6215, -29.9145
3.50398, 4, 17.8834, 15.8627, 23.0573, 38.2544, -28.6215, -29.9145
3.5177, 4, 17.8832, 15.8627, 23.0573, 38.2544, -28.6215, -29.9145
3.52226, 4, 17.8827, 15.8627, 23.0573, 38.2543, -28.6215, -29.9145
3.53189, 4, 17.88, 15.8627, 23.0574, 38.2539, -28.6216, -29.9144
3.53591, 4, 17.8773, 15.8627, 23.0577, 38.2528, -28.6218, -29.9139
3.54377, 4, 17.869, 15.8625, 23.0595, 38.2458, -28.6235, -29.91
3.55187, 4, 17.8557, 15.8615, 23.0648, 38.2273, -28.6291, -29.8958
3.55994, 4, 17.8353, 15.859, 23.0767, 38.1886, -28.6424, -29.863
3.56786, 5, 17.8049, 15.8541, 23.0992, 38.116, -28.6671, -29.801
3.57684, 5, 17.7621, 15.8458, 23.1366, 37.995, -28.709, -29.6961
3.58379, 5, 17.7049, 15.8329, 23.194, 37.8092, -28.7754, -29.5349
3.59278, 5, 17.6314, 15.8147, 23.2759, 37.5441, -28.8714, -29.3041
3.59979, 5, 17.5392, 15.7909, 23.3858, 37.1883, -29.0035, -28.9939
3.60802, 5, 17.4262, 15.7611, 23.5262, 36.7347, -29.1751, -28.5973
3.61663, 5, 17.2905, 15.7252, 23.6983, 36.1798, -29.3903, -28.1126
3.62379, 5, 17.1303, 15.6837, 23.9019, 35.525, -29.6509, -27.5406
3.63253, 5, 16.9448, 15.6374, 24.1374, 34.776, -29.9584, -26.8857
3.63979, 5, 16.7336, 15.5871, 24.4028, 33.9366, -30.3142, -26.1542
3.6478, 5, 16.4957, 15.5342, 24.6962, 33.0143, -30.719, -25.3561
3.65586, 5, 16.2301, 15.4797, 25.0164, 32.0188, -31.1731, -24.4964
3.66375, 6, 15.9369, 15.4252, 25.3609, 30.9574, -31.6787, -23.5807
3.6718, 6, 15.6167, 15.3725, 25.7274, 29.8369, -32.2357, -22.6205
3.69455, 6, 14.4936, 15.2424, 26.9382, 26.213, -34.2191, -19.543
3.69589, 6, 14.4936, 15.2424, 26.9382, 26.213, -34.2191, -19.543
3.69717, 6, 14.4936, 15.2424, 26.9382, 26.213, -34.2191, -19.543
3.70378, 6, 14.066, 15.2138, 27.371, 24.9437, -34.9867, -18.4774
3.71187, 6, 13.6144, 15.1947, 27.814, 23.6559, -35.8069, -17.4035
3.71978, 7, 13.1417, 15.1862, 28.2644, 22.3547, -36.6782, -16.3302
3.72779, 7, 12.6489, 15.1897, 28.7195, 21.0502, -37.6014, -15.2613
3.73587, 7, 12.137, 15.207, 29.1758, 19.7485, -38.5732, -14.2044
3.74386, 7, 11.607, 15.239, 29.6296, 18.4592, -39.5856, -13.1676
3.7518, 7, 11.0619, 15.2865, 30.0771, 17.1932, -40.633, -12.1596
3.75986, 8, 10.5063, 15.3499, 30.5128, 15.9561, -41.7104, -11.1871
3.76783, 8, 9.94502, 15.4295, 30.9327, 14.7576, -42.8069, -10.2531
3.77593, 8, 9.38166, 15.5246, 31.3337, 13.6046, -43.9124, -9.3657
3.78388, 8, 8.81844, 15.6345, 31.7137, 12.4998, -45.0221, -8.52601
3.79219, 8, 8.25752, 15.7585, 32.0705, 11.4488, -46.1276, -7.7387
3.79962, 9, 7.70035, 15.8958, 32.4027, 10.4553, -47.217, -7.00249
3.80789, 9, 7.15174, 16.0447, 32.71, 9.51736, -48.2858, -6.31704
3.81631, 9, 6.61881, 16.2029, 32.992, 8.63619, -49.3279, -5.68365
3.82277, 9, 6.35971, 16.2849, 33.1231, 8.21787, -49.8353, -5.3855
3.83183, 9, 5.60995, 16.5419, 33.4794, 7.05214, -51.2988, -4.56366
3.84054, 9, 5.12662, 16.7232, 33.6868, 6.34101, -52.2255, -4.07459
3.84823, 9, 4.65226, 16.914, 33.8707, 5.67915, -53.1138, -3.63045
3.85498, 10, 4.4184, 17.0132, 33.9547, 5.36375, -53.5449, -3.42389
3.86401, 10, 3.731, 17.3274, 34.1756, 4.46636, -54.7968, -2.8621
3.87077, 10, 3.50661, 17.4387, 34.2385, 4.18122, -55.2045, -2.69247
3.8808, 10, 2.84699, 17.7935, 34.3935, 3.35102, -56.4156, -2.22512
3.88817, 10, 2.41678, 18.0477, 34.4661, 2.81168, -57.2195, -1.93923
3.89477, 10, 2.20336, 18.1813, 34.4922, 2.54562, -57.6215, -1.80136
3.90434, 10, 1.56689, 18.6131, 34.5262, 1.75759, -58.8367, -1.39741
3.91238, 10, 1.14683, 18.9289, 34.5085, 1.2425, -59.6534, -1.12846
3.92046, 10, 0.731985, 19.2691, 34.4565, 0.738334, -60.4697, -0.854993
3.92929, 10, 0.320173, 19.635, 34.3691, 0.247013, -61.2832, -0.574893
3.93483, 10, 0.114616, 19.8284, 34.3117, 0.00682033, -61.6889, -0.432235
3.94464, 10, -0.295896, 20.2347, 34.1696, -0.461516, -62.895, 0.00575163
3.95181, 10, -0.706028, 20.6672, 33.9904, -0.911293, -63.2916, 0.154591
3.95978, 10, -1.11526, 21.1255, 33.7734, -1.3428, -64.0743, 0.453858
3.96783, 11, -1.52496, 21.6092, 33.5202, -1.75788, -64.8443, 0.751193
3.97578, 11, -1.93413, 22.1174, 33.2309, -2.15877, -65.6057, 1.04206
3.98378, 11, -2.34084, 22.6489, 32.907, -2.54999, -66.3619, 1.32255
3.99182, 11, -2.74507, 23.2029, 32.5491, -2.93524, -67.1175, 1.58964
3.99977, 11, -3.1488, 23.7784, 32.1589, -3.31782, -67.8761, 1.84296
4.00777, 11, -3.55452, 24.3749, 31.7379, -3.70138, -68.6427, 2.08282
4.01585, 12, -3.96188, 24.9913, 31.2873, -4.08678, -69.4216, 2.31358
4.02385, 12, -4.36969, 25.6265, 30.8076, -4.47348, -70.2123, 2.53788
4.03177, 12, -4.77516, 26.2789, 30.3004, -4.86077, -71.0109, 2.75842
4.03989, 12, -5.17803, 26.9459, 29.7664, -5.24594, -71.8145, 2.97662
4.04777, 12, -5.57972, 27.6253, 29.2075, -5.62675, -72.6207, 3.19228
4.05577, 12, -5.98135, 28.3148, 28.6259, -6.00138, -73.424, 3.40578
4.06382, 13, -6.38212, 29.0125, 28.0241, -6.36691, -74.2184, 3.61586
4.07179, 13, -6.77913, 29.7148, 27.4056, -6.72285, -74.9994, 3.82251
4.08139, 13, -7.17073, 30.4184, 26.773, -7.06739, -75.7644, 4.02453
4.08784, 13, -7.55455, 31.1188, 26.1303, -7.39902, -76.51, 4.22174
4.09577, 13, -7.92807, 31.8126, 25.4805, -7.71678, -77.2331, 4.41382
4.10378, 13, -8.28976, 32.4959, 24.8272, -8.01974, -77.9297, 4.60056
4.1118, 14, -8.63901, 33.1673, 24.1734, -8.30678, -78.5978, 4.78129
4.11977, 14, -8.9764, 33.8253, 23.5225, -8.5783, -79.236, 4.95582
4.12778, 14, -9.30152, 34.4679, 22.8775, -8.83434, -79.8447, 5.12388
4.13586, 14, -9.61271, 35.093, 22.2404, -9.07514, -80.4239, 5.28576
4.14386, 14, -9.90953, 35.6987, 21.613, -9.30131, -80.973, 5.44152
4.15177, 14, -10.1929, 36.2852, 20.9972, -9.51346, -81.4927, 5.59161
4.15984, 14, -10.4642, 36.8509, 20.394, -9.71253, -81.9843, 5.73563
4.16778, 14, -10.7243, 37.3959, 19.8045, -9.89826, -82.4483, 5.8742
4.17577, 15, -10.9719, 37.9197, 19.2298, -10.0722, -82.8864, 6.00695
4.18384, 15, -11.2047, 38.4222, 18.6704, -10.2344, -83.2989, 6.13451
4.19177, 15, -11.4231, 38.903, 18.1286, -10.3858, -83.687, 6.25639
4.19977, 15, -11.6288, 39.3623, 17.6057, -10.5269, -84.0512, 6.37303
4.20784, 15, -11.8222, 39.8, 17.1027, -10.6579, -84.3922, 6.48396
4.21577, 15, -12.0032, 40.2151, 16.6205, -10.7795, -84.7109, 6.58945
4.22376, 15, -12.1721, 40.608, 16.1601, -10.8911, -85.007, 6.6899
4.23183, 15, -12.3295, 40.9769, 15.7231, -10.9941, -85.2817, 6.78425
4.23977, 15, -12.4752, 41.3218, 15.3109, -11.0883, -85.5347, 6.87285
4.24785, 15, -12.6095, 41.6416, 14.9259, -11.1737, -85.7665, 6.95519
4.25584, 15, -12.7323, 41.936, 14.5695, -11.2513, -85.9771, 7.03111
4.26379, 15, -12.8437, 42.2051, 14.2439, -11.3202, -86.1665, 7.1005
4.27182, 15, -12.9435, 42.447, 13.9493, -11.3817, -86.3349, 7.16222
4.27993, 15, -13.0321, 42.6619, 13.6869, -11.4343, -86.4821, 7.21729
4.28788, 15, -13.1096, 42.852, 13.458, -11.4797, -86.6087, 7.26559
4.29586, 15, -13.1766, 43.0169, 13.2614, -11.5182, -86.7153, 7.30619
4.30396, 15, -13.2338, 43.1563, 13.0966, -11.5491, -86.8023, 7.33954
4.31188, 15, -13.2814, 43.2722, 12.9628, -11.5734, -86.872, 7.36587
4.31977, 15, -13.3205, 43.367, 12.8574, -11.5919, -86.9248, 7.38596
4.32792, 15, -13.3525, 43.4431, 12.7769, -11.6054, -86.9639, 7.40083
4.33583, 15, -13.3783, 43.5028, 12.718, -11.6147, -86.9914, 7.41114
4.34382, 15, -13.3984, 43.5483, 12.6767, -11.6208, -87.0095, 7.41791
4.35225, 15, -13.4136, 43.5823, 12.6489, -11.6246, -87.0206, 7.42201
4.35875, 15, -13.4197, 43.596, 12.6389, -11.6258, -87.0243, 7.42332
4.368, 15, -13.433, 43.6266, 12.6193, -11.6278, -87.0301, 7.42531
4.37611, 15, -13.4386, 43.6398, 12.612, -11.6283, -87.0316, 7.42582
4.38276, 15, -13.4404, 43.6445, 12.6094, -11.6285, -87.0321, 7.42597
4.39218, 16, -13.4436, 43.6546, 12.6041, -11.6288, -87.0327, 7.42619
4.40029, 16, -13.4445, 43.6591, 12.6017, -11.6288, -87.0328, 7.42627
4.40874, 16, -13.445, 43.6626, 12.5998, -11.6289, -87.0328, 7.42628
4.41635, 16, -13.4452, 43.6654, 12.5983, -11.6288, -87.0329, 7.42628
4.42436, 16, -13.4454, 43.6678, 12.5971, -11.6288, -87.0329, 7.42625
4.43262, 16, -13.4454, 43.6699, 12.5962, -11.6288, -87.0328, 7.42624
4.4403, 16, -13.4453, 43.6709, 12.5958, -11.6288, -87.0326, 7.42621
4.44836, 16, -13.4453, 43.6726, 12.5952, -11.6288, -87.0325, 7.42625
4.45678, 16, -13.445, 43.6748, 12.5946, -11.6288, -87.0323, 7.42621
4.46376, 16, -13.445, 43.6753, 12.5945, -11.6288, -87.0323, 7.42621
4.47182, 16, -13.4447, 43.6763, 12.5942, -11.6288, -87.0321, 7.42621
4.47976, 16, -13.4445, 43.6771, 12.5939, -11.6288, -87.0319, 7.42621
4.48873, 16, -13.4442, 43.6777, 12.5938, -11.6288, -87.0317, 7.42625
4.4958, 16, -13.4439, 43.6781, 12.5937, -11.6288, -87.0316, 7.42625
4.50376, 16, -13.4437, 43.6784, 12.5936, -11.6288, -87.0315, 7.42625
4.51176, 16, -13.4434, 43.6785, 12.5936, -11.6288, -87.0313, 7.42621
