hehonglu123/ABB_Primitive_Study/realrobot/movelcl_30_car2/curve_exe_v1000_z20.csv
timestamp, cmd_num, J1, J2, J3, J4, J5, J6
0.000369, -1, -13.4404, 43.6801, 12.5929, -11.628, -87.0287, 7.42466
0.002172, -1, -13.4404, 43.6801, 12.5929, -11.628, -87.0287, 7.42466
0.00806, -1, -13.4404, 43.6801, 12.5929, -11.628, -87.0288, 7.42462
0.029822, -1, -13.4404, 43.6801, 12.5929, -11.628, -87.0287, 7.42463
0.031862, -1, -13.4404, 43.6801, 12.5929, -11.6281, -87.0287, 7.42464
0.033068, -1, -13.4404, 43.6801, 12.5929, -11.6281, -87.0287, 7.42464
0.039453, -1, -13.4404, 43.6802, 12.5929, -11.6281, -87.0287, 7.42462
0.048021, -1, -13.4402, 43.68, 12.5929, -11.6281, -87.0287, 7.42463
0.056098, -1, -13.439, 43.6792, 12.593, -11.6281, -87.0287, 7.42464
0.06404, -1, -13.4354, 43.6763, 12.5934, -11.6279, -87.0286, 7.42461
0.071575, -1, -13.4285, 43.6705, 12.5946, -11.6272, -87.0276, 7.42454
0.080139, -1, -13.4178, 43.6616, 12.5967, -11.624, -87.0237, 7.42395
0.088319, -1, -13.4106, 43.6557, 12.5983, -11.6207, -87.0197, 7.42055
0.094987, -1, -13.3913, 43.64, 12.6028, -11.6089, -87.0057, 7.41634
0.104272, -1, -13.3471, 43.6034, 12.6144, -11.5718, -86.9619, 7.39017
0.110928, -1, -13.3282, 43.5873, 12.6198, -11.5524, -86.9393, 7.37619
0.119024, -1, -13.2831, 43.5484, 12.633, -11.4989, -86.8783, 7.33792
0.128211, -1, -13.195, 43.471, 12.6608, -11.3784, -86.7383, 7.24896
0.134935, -1, -13.16, 43.4397, 12.6723, -11.3255, -86.6773, 7.20993
0.142971, -1, -13.0813, 43.3689, 12.6985, -11.2003, -86.5319, 7.11784
0.15241, -1, -12.9409, 43.2414, 12.747, -10.9629, -86.2555, 6.94134
0.158976, -1, -12.8881, 43.1933, 12.7656, -10.871, -86.1484, 6.87297
0.166998, -1, -12.774, 43.0893, 12.8057, -10.6699, -85.9138, 6.72283
0.176564, -1, -12.5831, 42.9157, 12.8729, -10.3302, -85.5176, 6.46906
0.185293, -1, -12.4437, 42.7893, 12.9218, -10.0848, -85.2309, 6.28555
0.190994, -1, -12.3708, 42.7234, 12.9472, -9.95776, -85.0824, 6.19048
0.20057, -1, -12.142, 42.5169, 13.0265, -9.56483, -84.623, 5.89612
0.209319, -1, -12.0629, 42.4455, 13.0537, -9.4312, -84.4666, 5.79584
0.215005, -1, -11.9009, 42.3001, 13.109, -9.16144, -84.1511, 5.59316
0.224962, -1, -11.6496, 42.0761, 13.1934, -8.75327, -83.6741, 5.28719
0.231916, -1, -11.5646, 42.0006, 13.2218, -8.61675, -83.5145, 5.18498
0.239924, -1, -11.3934, 41.8486, 13.2789, -8.34349, -83.1947, 4.98022
0.247958, -1, -11.2216, 41.6963, 13.336, -8.06991, -82.8746, 4.77503
0.255934, -1, -11.0494, 41.5444, 13.3932, -7.79612, -82.5542, 4.56988
0.262915, -1, -10.8771, 41.393, 13.4507, -7.52235, -82.2335, 4.36432
0.271942, -1, -10.7046, 41.2414, 13.5083, -7.24849, -81.9125, 4.15891
0.279926, -1, -10.5321, 41.0897, 13.566, -6.97433, -81.5919, 3.95369
0.286931, -1, -10.3594, 40.938, 13.6237, -6.70041, -81.2713, 3.74825
0.295924, -1, -10.1871, 40.7866, 13.6813, -6.42668, -80.9507, 3.54297
0.303924, -1, -10.015, 40.6352, 13.7387, -6.15292, -80.6306, 3.33767
0.310919, -1, -9.84332, 40.4835, 13.7961, -5.8793, -80.3107, 3.13257
0.319927, -1, -9.67236, 40.3314, 13.8534, -5.6058, -79.991, 2.92762
0.327982, -1, -9.50197, 40.1791, 13.9106, -5.3325, -79.6714, 2.72286
0.33758, -1, -9.33228, 40.0272, 13.9679, -5.05911, -79.3518, 2.4158
0.343929, -1, -9.16321, 39.8753, 14.025, -4.78626, -79.0324, 2.31365
0.35199, -1, -8.99433, 39.7232, 14.082, -4.51381, -78.7132, 2.10934
0.360015, -1, -8.82543, 39.5712, 14.1391, -4.24172, -78.3943, 1.90556
0.368923, -1, -8.65614, 39.4196, 14.196, -3.97014, -78.0762, 1.70201
0.375982, -1, -8.48648, 39.2687, 14.2529, -3.69896, -77.7588, 1.49864
0.383942, -1, -8.31665, 39.1183, 14.3098, -3.42792, -77.4416, 1.29553
0.392332, -1, -8.14672, 38.968, 14.3665, -3.15766, -77.1253, 1.09271
0.39896, -1, -7.9766, 38.8178, 14.4233, -2.88785, -76.8095, 0.890524
0.407928, -1, -7.80648, 38.6679, 14.4799, -2.61842, -76.4942, 0.688857
0.416711, -1, -7.63616, 38.5188, 14.5362, -2.34978, -76.1793, 0.487531
0.42309, -1, -7.46577, 38.3698, 14.5924, -2.08157, -75.8651, 0.286688
0.431918, -1, -7.29557, 38.2209, 14.6487, -1.81366, -75.5514, 0.086192
0.440751, -1, -7.12603, 38.072, 14.7049, -1.54643, -75.2387, -0.114066
0.44798, -1, -6.95737, 37.9234, 14.761, -1.27996, -74.9267, -0.313424
0.455915, -1, -6.78977, 37.7752, 14.8168, -1.01412, -74.6155, -0.512421
0.464045, -1, -6.62309, 37.6274, 14.8723, -0.749121, -74.3054, -0.710882
0.470946, -1, -6.45725, 37.4798, 14.9277, -0.484945, -73.9957, -0.908828
0.479922, -1, -6.29278, 37.3323, 14.983, -0.221328, -73.687, -1.10652
0.488845, -1, -6.12931, 37.1855, 15.0382, 0.0417545, -73.3791, -1.30335
0.495915, -1, -5.96664, 37.0395, 15.0933, 0.303831, -73.0722, -1.49948
0.503989, -1, -5.80458, 36.8941, 15.1482, 0.565075, -72.7664, -1.69498
0.512731, -1, -5.64258, 36.7491, 15.2027, 0.825571, -72.4615, -1.88991
0.519919, -1, -5.48048, 36.6044, 15.2572, 1.08514, -72.1573, -2.08448
0.527987, -1, -5.31851, 36.4603, 15.3117, 1.34377, -71.8544, -2.2782
0.536748, -1, -5.15654, 36.3169, 15.3659, 1.60184, -71.5521, -2.47141
0.544091, -1, -4.99476, 36.1739, 15.42, 1.85904, -71.2511, -2.66377
0.551865, -1, -4.83327, 36.0313, 15.4739, 2.11504, -70.9513, -2.85568
0.560807, -1, -4.67206, 35.8889, 15.5275, 2.37023, -70.6524, -3.0468
0.568026, -1, -4.5108, 35.7469, 15.5809, 2.62441, -70.3546, -3.2375
0.576018, -1, -4.34958, 35.6056, 15.634, 2.87749, -70.058, -3.42738
0.584832, -1, -4.18885, 35.4649, 15.687, 3.12971, -69.7628, -3.61639
0.591918, -1, -4.02917, 35.3246, 15.7398, 3.3814, -69.4686, -3.80447
0.600212, -1, -3.87069, 35.1845, 15.7925, 3.63205, -69.1752, -3.99192
0.606911, -1, -3.79196, 35.1146, 15.8187, 3.75693, -69.0289, -4.08536
0.614925, -1, -3.63534, 34.9753, 15.8708, 4.00607, -68.7371, -4.27183
0.624178, -1, -3.40214, 34.7678, 15.9487, 4.37794, -68.3013, -4.55048
0.630904, -1, -3.32489, 34.699, 15.9745, 4.50138, -68.1566, -4.64287
0.640248, -1, -3.09452, 34.4932, 16.052, 4.87044, -67.7241, -4.91904
0.646912, -1, -3.01832, 34.4248, 16.0778, 4.99312, -67.5806, -5.01068
0.656306, -1, -2.79076, 34.2204, 16.1549, 5.35963, -67.1518, -5.28472
0.662955, -1, -2.71518, 34.1528, 16.1804, 5.4811, -67.0095, -5.37565
0.672573, -1, -2.48852, 33.9507, 16.2566, 5.84427, -66.5846, -5.64793
0.680527, -1, -2.33732, 33.8166, 16.3073, 6.08513, -66.3028, -5.82801
0.686969, -1, -2.26184, 33.7497, 16.3325, 6.2051, -66.1622, -5.91787
0.697536, -1, -2.036, 33.5496, 16.4079, 6.5636, -65.742, -6.1863
0.705526, -1, -1.96093, 33.4832, 16.4578, 6.80152, -65.4635, -6.36444
0.711901, -1, -1.81121, 33.3508, 16.4826, 6.92018, -65.3247, -6.45328
0.721349, -1, -1.6618, 33.2188, 16.532, 7.1566, -65.0477, -6.63036
0.726904, -1, -1.51259, 33.0873, 16.5813, 7.39169, -64.7719, -6.80685
0.735905, -1, -1.36348, 32.9563, 16.6305, 7.62613, -64.4973, -6.98235
0.743948, -1, -1.21479, 32.8257, 16.6795, 7.8596, -64.2239, -7.15723
0.751899, -1, -1.06725, 32.6958, 16.7283, 8.092, -63.9516, -7.33133
0.759009, -1, -0.920957, 32.5668, 16.7769, 8.32344, -63.6806, -7.50475
0.767909, -1, -0.775942, 32.4383, 16.8252, 8.55417, -63.4107, -7.67772
0.774901, -1, -0.63184, 32.3103, 16.8734, 8.78387, -63.1421, -7.84981
0.783901, -1, -0.488561, 32.1829, 16.9214, 9.01227, -62.8744, -8.02091
0.7919, -1, -0.346535, 32.0559, 16.9693, 9.23975, -62.6082, -8.19113
0.799958, -1, -0.205489, 31.9297, 17.0168, 9.46637, -62.343, -8.36055
0.809478, -1, 0.00427098, 31.7414, 17.0878, 9.80423, -61.9472, -8.61333
0.815908, -1, 0.0738039, 31.6789, 17.1113, 9.91629, -61.8159, -8.69724
0.822903, -1, 0.212703, 31.5541, 17.1581, 10.14, -61.5538, -8.86499
0.831903, -1, 0.351619, 31.4297, 17.2048, 10.3628, -61.2929, -9.03172
0.840917, -1, 0.490693, 31.3057, 17.2514, 10.5844, -61.0329, -9.19761
0.847962, -1, 0.629691, 31.1824, 17.2977, 10.8051, -60.7741, -9.36282
0.85591, -1, 0.768224, 31.0598, 17.3438, 11.0248, -60.5166, -9.52714
0.863963, -1, 0.906419, 30.9375, 17.3896, 11.2438, -60.2602, -9.69105
0.871963, -1, 1.0441, 30.8157, 17.4355, 11.4617, -60.0048, -9.85421
0.879905, -1, 1.18145, 30.6944, 17.4811, 11.6786, -59.7507, -10.017
0.887919, -1, 1.31852, 30.5736, 17.5264, 11.8949, -59.4978, -10.1788
0.895912, -1, 1.4553, 30.4534, 17.5716, 12.1103, -59.2461, -10.3398
0.903901, -1, 1.59152, 30.334, 17.6166, 12.3248, -58.9953, -10.5001
0.911962, -1, 1.72689, 30.215, 17.6614, 12.5381, -58.7453, -10.6597
0.919899, -1, 1.86129, 30.0966, 17.7061, 12.7507, -58.4965, -10.8188
0.927898, -1, 1.99469, 29.9786, 17.7505, 12.9626, -58.2483, -10.9774
0.935975, -1, 2.1273, 29.8609, 17.7948, 13.1733, -58.0012, -11.1352
0.943921, -1, 2.25914, 29.7439, 17.8388, 13.383, -57.7549, -11.2926
0.9519, -1, 2.39012, 29.6274, 17.8826, 13.5922, -57.5095, -11.449
0.959958, -1, 2.52022, 29.5112, 17.9263, 13.8006, -57.2653, -11.605
0.966907, -1, 2.64924, 29.3955, 17.9698, 14.008, -57.0223, -11.7602
0.975902, -1, 2.77751, 29.2801, 18.0132, 14.2147, -56.7804, -11.915
0.983965, -1, 2.90513, 29.1649, 18.0563, 14.4203, -56.5395, -12.0691
0.991898, -1, 3.03259, 29.0502, 18.0993, 14.6253, -56.2998, -12.2228
0.999955, -1, 3.16008, 28.9361, 18.142, 14.8293, -56.0608, -12.3757
1.00792, -1, 3.28759, 28.8226, 18.1846, 15.0325, -55.8231, -12.5279
1.01591, -1, 3.41477, 28.7095, 18.2272, 15.2349, -55.5862, -12.6793
1.02399, -1, 3.54167, 28.597, 18.2696, 15.4368, -55.35, -12.8301
1.03213, -1, 3.66838, 28.4848, 18.3118, 15.638, -55.1148, -12.9804
1.03945, -1, 3.79474, 28.373, 18.3538, 15.838, -54.8803, -13.1301
1.04804, -1, 3.92082, 28.2619, 18.3956, 16.0372, -54.6469, -13.2795
1.05625, -1, 4.04667, 28.1515, 18.4374, 16.2358, -54.4139, -13.4283
1.06351, -1, 4.17209, 28.0414, 18.4789, 16.4335, -54.1821, -13.5763
1.07208, -1, 4.29698, 27.9317, 18.5202, 16.6305, -53.9513, -13.7237
1.08042, -1, 4.42116, 27.8224, 18.5616, 16.8265, -53.7214, -13.8704
1.08765, -1, 4.5446, 27.7133, 18.6026, 17.0219, -53.4926, -14.0165
1.09597, -1, 4.66776, 27.6046, 18.6435, 17.2169, -53.2645, -14.1623
1.10469, -1, 4.79025, 27.4963, 18.6842, 17.4107, -53.0374, -14.3074
1.11196, -1, 4.91194, 27.3885, 18.7246, 17.604, -52.8112, -14.4524
1.12006, -1, 5.03299, 27.281, 18.7651, 17.7964, -52.5856, -14.5965
1.1269, -1, 5.0933, 27.2274, 18.7853, 17.8923, -52.4733, -14.6683
1.13494, -1, 5.21315, 27.1205, 18.8255, 18.084, -52.2493, -14.8116
1.14429, -1, 5.39121, 26.9608, 18.8855, 18.3698, -51.9147, -15.0252
1.15089, -1, 5.45018, 26.9077, 18.9054, 18.4646, -51.8035, -15.0961
1.15899, -1, 5.56786, 26.802, 18.9452, 18.6541, -51.5817, -15.2378
1.16846, -1, 5.74359, 26.6445, 19.0046, 18.9369, -51.2506, -15.4494
1.17721, -1, 5.8604, 26.5399, 19.0439, 19.1249, -51.0308, -15.5901
1.18296, -1, 5.91875, 26.4877, 19.0635, 19.2185, -50.9211, -15.6602
1.19251, -1, 6.09348, 26.3318, 19.1223, 19.498, -50.5934, -15.8696
1.20136, -1, 6.20993, 26.2282, 19.1612, 19.6837, -50.3759, -16.0085
1.20695, -1, 6.26811, 26.1764, 19.1806, 19.7763, -50.2675, -16.0779
1.21656, -1, 6.38449, 26.0732, 19.2193, 19.9609, -49.9432, -16.2853
1.2239, -1, 6.50079, 25.9705, 19.2579, 20.1449, -49.8355, -16.3542
1.23095, -1, 6.6168, 25.8681, 19.2964, 20.328, -49.6207, -16.4917
1.23994, -1, 6.73261, 25.7661, 19.3347, 20.5107, -49.4067, -16.6289
1.24789, -1, 6.84792, 25.6644, 19.3728, 20.693, -49.1936, -16.7655
1.25495, -1, 6.96277, 25.5631, 19.4109, 20.8745, -48.9811, -16.9014
1.26389, -1, 7.07714, 25.4621, 19.449, 21.0553, -48.7698, -17.037
1.27194, -1, 7.19098, 25.3615, 19.4867, 21.2355, -48.559, -17.1717
1.27894, -1, 7.30437, 25.2614, 19.5245, 21.4152, -48.3486, -17.306
1.28789, -1, 7.41727, 25.1617, 19.5621, 21.5943, -48.139, -17.44
1.29588, -1, 7.52966, 25.0623, 19.5995, 21.7727, -47.93, -17.5736
1.30289, -1, 7.64158, 24.9633, 19.6369, 21.9505, -47.7216, -17.7068
1.31189, -1, 7.75284, 24.8645, 19.6742, 22.1278, -47.5138, -17.8396
1.31988, -1, 7.86361, 24.766, 19.7111, 22.3046, -47.3065, -17.9719
1.32688, -1, 7.97409, 24.6676, 19.7482, 22.4811, -47.1, -18.1038
1.33588, -1, 8.08412, 24.5696, 19.7851, 22.6567, -46.8942, -18.2349
1.34488, -1, 8.19366, 24.4719, 19.8216, 22.8317, -46.6891, -18.3658
1.35088, -1, 8.30286, 24.3744, 19.8581, 23.0061, -46.4846, -18.4965
1.35988, -1, 8.41174, 24.2772, 19.8946, 23.1801, -46.281, -18.6267
1.36794, -1, 8.52002, 24.1804, 19.9309, 23.3534, -46.0781, -18.7564
1.37594, -1, 8.62768, 24.0837, 19.9671, 23.5262, -45.8758, -18.8861
1.3839, -1, 8.73498, 23.9874, 20.0033, 23.6983, -45.6742, -19.0153
1.39191, -1, 8.84215, 23.8915, 20.0392, 23.8699, -45.4732, -19.1437
1.39989, -1, 8.94933, 23.796, 20.075, 24.0412, -45.2731, -19.2719
1.40788, -1, 9.05649, 23.7009, 20.111, 24.212, -45.0735, -19.3996
1.41594, -1, 9.16352, 23.6062, 20.1467, 24.3821, -44.8744, -19.5267
1.42388, -1, 9.27037, 23.5117, 20.1822, 24.5517, -44.6758, -19.6536
1.43189, -1, 9.37706, 23.4176, 20.2179, 24.7207, -44.4777, -19.7803
1.43995, -1, 9.4834, 23.3237, 20.2532, 24.8893, -44.2801, -19.9064
1.44797, -1, 9.5894, 23.2299, 20.2885, 25.0575, -44.083, -20.0324
1.45581, -1, 9.69514, 23.1363, 20.3237, 25.2251, -43.8864, -20.1582
1.46431, -1, 9.80062, 23.0431, 20.3588, 25.3921, -43.6905, -20.2831
1.47109, -1, 9.90587, 22.9502, 20.3936, 25.5587, -43.4954, -20.4079
1.47989, -1, 10.0107, 22.8574, 20.4285, 25.725, -43.3009, -20.5322
1.48794, -1, 10.1152, 22.765, 20.4633, 25.8909, -43.107, -20.6561
1.49588, -1, 10.2193, 22.6728, 20.4978, 26.0561, -42.9135, -20.7797
1.5039, -1, 10.323, 22.5809, 20.5323, 26.2208, -42.7207, -20.9031
1.51195, -1, 10.4263, 22.4891, 20.5668, 26.3851, -42.5282, -21.0262
1.51988, -1, 10.5293, 22.3977, 20.6012, 26.5489, -42.3365, -21.149
1.52812, -1, 10.632, 22.3066, 20.6355, 26.7123, -42.1451, -21.2714
1.53527, -1, 10.7343, 22.2157, 20.6697, 26.8752, -41.9545, -21.3932
1.54352, -1, 10.8363, 22.1251, 20.7037, 27.0376, -41.7645, -21.5149
1.55338, -1, 10.9378, 22.0347, 20.7377, 27.1994, -41.575, -21.6359
1.55945, -1, 11.0388, 21.9446, 20.7717, 27.3609, -41.3859, -21.7567
1.56806, -1, 11.1396, 21.8547, 20.8055, 27.522, -41.1972, -21.8773
1.57599, -1, 11.2402, 21.765, 20.8391, 27.6828, -41.009, -21.9975
1.58398, -1, 11.3405, 21.6754, 20.8728, 27.843, -40.8213, -22.1174
1.59206, -1, 11.4405, 21.5862, 20.9063, 28.0028, -40.6342, -22.2373
1.60006, -1, 11.54, 21.4972, 20.9397, 28.1619, -40.4474, -22.3568
1.60696, -1, 11.5896, 21.4528, 20.9564, 28.2414, -40.3542, -22.4162
1.61628, -1, 11.7381, 21.32, 21.0064, 28.4795, -40.0755, -22.5942
1.62294, -1, 11.7876, 21.2759, 21.0229, 28.5586, -39.9827, -22.6533
1.63208, -1, 11.936, 21.1441, 21.0726, 28.7952, -39.7054, -22.8301
1.63887, -1, 11.9855, 21.1002, 21.0892, 28.8739, -39.6132, -22.889
1.64821, -1, 12.1337, 20.969, 21.1386, 29.1093, -39.3375, -23.0652
1.65489, -1, 12.1831, 20.9254, 21.155, 29.1877, -39.2458, -23.1239
1.66472, -1, 12.3308, 20.7948, 21.2042, 29.4223, -38.9713, -23.2994
1.67239, -1, 12.4289, 20.708, 21.2368, 29.5781, -38.7891, -23.416
1.68046, -1, 12.5267, 20.6214, 21.2694, 29.7334, -38.607, -23.5324
1.68854, -1, 12.6245, 20.535, 21.3019, 29.8883, -38.4257, -23.6482
1.69645, -1, 12.722, 20.4488, 21.3343, 30.0429, -38.2449, -23.7638
1.70448, -1, 12.8191, 20.3627, 21.3665, 30.1972, -38.0646, -23.8791
1.71274, -1, 12.8675, 20.3197, 21.3826, 30.2741, -37.9746, -23.9938
1.71987, -1, 12.9642, 20.2339, 21.4149, 30.4277, -37.7951, -24.0513
1.72793, -1, 13.0606, 20.1483, 21.4471, 30.5809, -37.6158, -24.1659
1.73589, -1, 13.1567, 20.0629, 21.4791, 30.7335, -37.4367, -24.2803
1.74387, -1, 13.2525, 19.9779, 21.511, 30.8861, -37.2581, -24.3946
1.75191, -1, 13.3479, 19.8929, 21.5431, 31.0383, -37.0799, -24.5085
1.75987, -1, 13.4431, 19.8082, 21.5749, 31.1901, -36.9021, -24.6224
1.76793, -1, 13.5381, 19.7238, 21.6065, 31.3416, -36.7244, -24.7357
1.77593, -1, 13.6329, 19.6395, 21.6382, 31.4925, -36.5476, -24.8488
1.78388, -1, 13.7275, 19.5554, 21.6699, 31.643, -36.3709, -24.9617
1.79089, -1, 13.8218, 19.4715, 21.7014, 31.7934, -36.1948, -25.0743
1.79987, -1, 13.9161, 19.3878, 21.7329, 31.9435, -36.0189, -25.1868
1.80787, -1, 14.0101, 19.3043, 21.7644, 32.0932, -35.8437, -25.2989
1.81595, -1, 14.1042, 19.2211, 21.7956, 32.2425, -35.6688, -25.4108
1.82386, -1, 14.1979, 19.1381, 21.8268, 32.3914, -35.4943, -25.5227
1.83186, -1, 14.2913, 19.0552, 21.8579, 32.54, -35.3204, -25.6341
1.8415, -1, 14.3844, 18.9725, 21.8891, 32.7626, -35.0599, -25.8007
1.84786, -1, 14.4771, 18.89, 21.9201, 32.8367, -34.9735, -25.8561
1.85696, -1, 14.5696, 18.8076, 21.9511, 32.9844, -34.8009, -25.9667
1.8639, -1, 14.6617, 18.7254, 21.9821, 33.1317, -34.6286, -26.077
1.87186, -1, 14.7537, 18.6433, 22.0129, 33.2787, -34.4567, -26.1867
1.87989, -1, 14.8455, 18.5615, 22.0435, 33.4254, -34.285, -26.2966
1.88787, -1, 14.9371, 18.4799, 22.0743, 33.5718, -34.1134, -26.406
1.8959, -1, 15.0286, 18.3984, 22.105, 33.7179, -33.9423, -26.5154
1.90392, -1, 15.1199, 18.3172, 22.1355, 33.8636, -33.7717, -26.6246
1.91188, -1, 15.2111, 18.2362, 22.166, 34.009, -33.6013, -26.7335
1.9199, -1, 15.3023, 18.1553, 22.1965, 34.1539, -33.4311, -26.8423
1.92793, -1, 15.3933, 18.0746, 22.227, 34.2987, -33.2612, -26.9504
1.93593, -1, 15.4845, 17.994, 22.2573, 34.4433, -33.092, -27.0585
1.94386, -1, 15.5755, 17.9137, 22.2876, 34.5876, -32.9231, -27.1663
1.95196, -1, 15.6662, 17.8334, 22.3179, 34.7315, -32.7548, -27.2737
1.95986, -1, 15.7568, 17.7534, 22.3479, 34.8751, -32.5866, -27.3813
1.96786, -1, 15.8471, 17.6734, 22.3778, 35.0182, -32.4188, -27.4885
1.97593, -1, 15.9373, 17.5936, 22.4078, 35.161, -32.2514, -27.5955
1.98386, -1, 16.0272, 17.5139, 22.4378, 35.3039, -32.0842, -27.7025
1.99187, -1, 16.1168, 17.4344, 22.4677, 35.4464, -31.9176, -27.8093
1.99993, -1, 16.2061, 17.355, 22.4974, 35.5886, -31.7512, -27.9158
2.00786, -1, 16.2952, 17.2758, 22.5271, 35.7304, -31.585, -28.0218
2.01586, -1, 16.384, 17.1967, 22.5568, 35.8719, -31.4194, -28.1279
2.02393, -1, 16.4725, 17.1179, 22.5864, 36.0131, -31.254, -28.2335
2.03187, -1, 16.5608, 17.0391, 22.6159, 36.1544, -31.0889, -28.3391
2.04023, -1, 16.6491, 16.9606, 22.6455, 36.2955, -30.924, -28.4441
2.04749, -1, 16.7372, 16.8823, 22.675, 36.436, -30.7593, -28.5495
2.05596, -1, 16.8252, 16.8041, 22.7043, 36.5762, -30.595, -28.6546
2.06404, -1, 16.9132, 16.7261, 22.7336, 36.7161, -30.431, -28.7593
2.07198, -1, 17.0009, 16.6483, 22.7631, 36.8558, -30.2677, -28.8641
2.08002, -1, 17.0886, 16.5705, 22.7924, 36.9953, -30.1042, -28.9685
2.08804, -1, 17.1759, 16.493, 22.8215, 37.1345, -29.9411, -29.0729
2.09587, -1, 17.262, 16.4161, 22.8505, 37.2734, -29.7782, -29.1767
2.10395, -1, 17.3448, 16.3416, 22.8791, 37.4116, -29.6164, -29.2802
2.112, -1, 17.4224, 16.2713, 22.9064, 37.5476, -29.4567, -29.3822
2.11995, -1, 17.4941, 16.2065, 22.9322, 37.6795, -29.3021, -29.4811
2.12695, -1, 17.5279, 16.1765, 22.9445, 37.7426, -29.2278, -29.5284
2.13612, -1, 17.6198, 16.0956, 22.978, 37.9158, -29.0243, -29.6586
2.14285, -1, 17.6469, 16.0718, 22.9879, 37.9666, -28.9646, -29.6965
2.15255, -1, 17.7189, 16.0078, 23.0132, 38.0916, -28.8167, -29.7917
2.1603, -1, 17.7602, 15.9701, 23.0265, 38.1519, -28.745, -29.8371
2.16694, -1, 17.7789, 15.9532, 23.0322, 38.1747, -28.7175, -29.8548
2.17675, -1, 17.8254, 15.9121, 23.0448, 38.2211, -28.662, -29.8903
2.18447, -1, 17.8486, 15.8936, 23.0501, 38.2376, -28.642, -29.9028
2.19243, -1, 17.8657, 15.881, 23.0535, 38.247, -28.6306, -29.9095
2.20045, -1, 17.8764, 15.873, 23.0555, 38.2517, -28.6249, -29.9128
2.20848, -1, 17.8819, 15.8688, 23.0565, 38.254, -28.6222, -29.9144
2.21582, 2, 17.8834, 15.8675, 23.0568, 38.2546, -28.6215, -29.9148
2.22385, 2, 17.8849, 15.8658, 23.0571, 38.2554, -28.6207, -29.9153
2.23281, 2, 17.8849, 15.8646, 23.0573, 38.2558, -28.6201, -29.9157
2.23985, 2, 17.8846, 15.8644, 23.0573, 38.2558, -28.6201, -29.9157
2.24785, 2, 17.8841, 15.8641, 23.0573, 38.2558, -28.6201, -29.9157
2.2559, 2, 17.8837, 15.864, 23.0574, 38.2559, -28.62, -29.9157
2.26385, 2, 17.8835, 15.8639, 23.0574, 38.2559, -28.62, -29.9158
2.27192, 2, 17.8834, 15.8638, 23.0574, 38.2559, -28.62, -29.9158
2.2799, 2, 17.8833, 15.8636, 23.0574, 38.2559, -28.62, -29.9158
2.28787, 2, 17.8834, 15.8635, 23.0574, 38.2559, -28.62, -29.9158
2.29585, 2, 17.8836, 15.8633, 23.0574, 38.2559, -28.62, -29.9158
2.3039, 2, 17.884, 15.8631, 23.0574, 38.2559, -28.62, -29.9158
2.31186, 2, 17.8844, 15.863, 23.0574, 38.2559, -28.62, -29.9158
2.31985, 2, 17.8851, 15.8628, 23.0574, 38.2559, -28.62, -29.9159
2.3279, 2, 17.8857, 15.8627, 23.0574, 38.2559, -28.62, -29.9158
2.33585, 2, 17.8861, 15.8626, 23.0574, 38.2559, -28.6201, -29.9158
2.34385, 2, 17.8865, 15.8626, 23.0574, 38.2559, -28.6201, -29.9158
2.35192, 2, 17.8867, 15.8625, 23.0575, 38.2559, -28.6201, -29.9158
2.36097, 2, 17.8869, 15.8625, 23.0575, 38.2559, -28.6201, -29.9157
2.36785, 2, 17.8869, 15.8625, 23.0575, 38.2559, -28.6201, -29.9157
2.37692, 2, 17.887, 15.8625, 23.0575, 38.2559, -28.6201, -29.9158
2.38385, 2, 17.887, 15.8625, 23.0575, 38.2559, -28.6201, -29.9158
2.39186, 2, 17.887, 15.8625, 23.0575, 38.2559, -28.6201, -29.9157
2.39992, 2, 17.887, 15.8625, 23.0575, 38.2559, -28.6201, -29.9158
2.40784, 2, 17.8868, 15.8625, 23.0575, 38.2559, -28.6201, -29.9158
2.41585, 2, 17.8867, 15.8625, 23.0575, 38.2558, -28.6202, -29.9158
2.42392, 2, 17.8866, 15.8624, 23.0575, 38.2559, -28.6203, -29.9157
2.43185, 2, 17.8866, 15.8624, 23.0575, 38.2559, -28.6202, -29.9157
2.43991, 2, 17.8865, 15.8624, 23.0574, 38.2559, -28.6203, -29.9157
2.44798, 2, 17.8865, 15.8624, 23.0574, 38.2558, -28.6203, -29.9157
2.45586, 2, 17.8865, 15.8624, 23.0575, 38.2559, -28.6203, -29.9156
2.46388, 2, 17.8865, 15.8624, 23.0575, 38.2559, -28.6204, -29.9156
2.47192, 2, 17.8865, 15.8624, 23.0575, 38.2559, -28.6204, -29.9156
2.47984, 2, 17.8865, 15.8624, 23.0575, 38.2559, -28.6204, -29.9157
2.48784, 2, 17.8865, 15.8624, 23.0575, 38.2559, -28.6203, -29.9157
2.49591, 2, 17.8865, 15.8624, 23.0574, 38.2559, -28.6204, -29.9157
2.50384, 2, 17.8865, 15.8624, 23.0575, 38.2558, -28.6204, -29.9157
2.51186, 2, 17.8865, 15.8624, 23.0575, 38.2558, -28.6204, -29.9157
2.51991, 2, 17.8865, 15.8624, 23.0575, 38.2559, -28.6205, -29.9157
2.52784, 2, 17.8864, 15.8624, 23.0575, 38.2559, -28.6205, -29.9157
2.53585, 2, 17.8864, 15.8624, 23.0575, 38.2559, -28.6205, -29.9157
2.54395, 2, 17.8863, 15.8623, 23.0575, 38.2559, -28.6205, -29.9157
2.55194, 2, 17.8863, 15.8624, 23.0574, 38.2559, -28.6205, -29.9157
2.55994, 2, 17.8863, 15.8623, 23.0574, 38.2558, -28.6205, -29.9157
2.56802, 2, 17.8863, 15.8624, 23.0575, 38.2559, -28.6205, -29.9157
2.57595, 2, 17.8863, 15.8624, 23.0574, 38.2558, -28.6205, -29.9156
2.58396, 2, 17.8863, 15.8624, 23.0574, 38.2559, -28.6205, -29.9156
2.59137, 2, 17.8863, 15.8624, 23.0574, 38.2559, -28.6205, -29.9156
2.59985, 2, 17.8862, 15.8624, 23.0575, 38.2558, -28.6206, -29.9156
2.60794, 2, 17.8862, 15.8624, 23.0575, 38.2558, -28.6206, -29.9156
2.61604, 2, 17.8862, 15.8624, 23.0575, 38.2558, -28.6206, -29.9156
2.62283, 2, 17.8862, 15.8624, 23.0575, 38.2558, -28.6206, -29.9156
2.63247, 2, 17.8862, 15.8624, 23.0575, 38.2558, -28.6207, -29.9156
2.64008, 2, 17.8862, 15.8624, 23.0575, 38.2557, -28.6206, -29.9156
2.64686, 2, 17.8862, 15.8624, 23.0574, 38.2558, -28.6206, -29.9156
2.65659, 2, 17.8861, 15.8624, 23.0574, 38.2557, -28.6207, -29.9156
2.66429, 2, 17.8861, 15.8624, 23.0574, 38.2557, -28.6208, -29.9156
2.67231, 2, 17.8861, 15.8624, 23.0575, 38.2557, -28.6208, -29.9156
2.68089, 2, 17.8861, 15.8624, 23.0575, 38.2557, -28.6208, -29.9156
2.68843, 2, 17.8861, 15.8624, 23.0575, 38.2557, -28.6208, -29.9155
2.69641, 2, 17.886, 15.8624, 23.0574, 38.2557, -28.6208, -29.9155
2.70467, 2, 17.886, 15.8624, 23.0574, 38.2557, -28.6208, -29.9155
2.71247, 2, 17.886, 15.8624, 23.0575, 38.2557, -28.6208, -29.9156
2.72035, 2, 17.8859, 15.8624, 23.0575, 38.2557, -28.6208, -29.9156
2.72888, 2, 17.8859, 15.8624, 23.0574, 38.2557, -28.6208, -29.9156
2.7359, 2, 17.8859, 15.8624, 23.0574, 38.2557, -28.6208, -29.9156
2.74383, 2, 17.8859, 15.8624, 23.0575, 38.2557, -28.6208, -29.9156
2.75206, 2, 17.8858, 15.8624, 23.0574, 38.2557, -28.6208, -29.9156
2.75988, 2, 17.8858, 15.8624, 23.0574, 38.2556, -28.6208, -29.9155
2.76783, 2, 17.8857, 15.8624, 23.0574, 38.2557, -28.6208, -29.9155
2.7759, 2, 17.8857, 15.8624, 23.0574, 38.2557, -28.6209, -29.9155
2.78283, 2, 17.8857, 15.8624, 23.0574, 38.2556, -28.6209, -29.9155
2.79187, 2, 17.8856, 15.8624, 23.0575, 38.2557, -28.6209, -29.9155
2.79983, 2, 17.8856, 15.8624, 23.0574, 38.2557, -28.6209, -29.9155
2.80788, 2, 17.8856, 15.8624, 23.0574, 38.2557, -28.6209, -29.9155
2.81583, 2, 17.8856, 15.8624, 23.0575, 38.2557, -28.621, -29.9155
2.82383, 2, 17.8855, 15.8624, 23.0575, 38.2557, -28.621, -29.9155
2.83191, 2, 17.8855, 15.8624, 23.0574, 38.2557, -28.621, -29.9155
2.83983, 2, 17.8854, 15.8624, 23.0574, 38.2556, -28.621, -29.9155
2.84783, 2, 17.8854, 15.8624, 23.0575, 38.2556, -28.621, -29.9155
2.85597, 2, 17.8854, 15.8624, 23.0574, 38.2556, -28.621, -29.9155
2.86487, 2, 17.8853, 15.8624, 23.0574, 38.2556, -28.621, -29.9154
2.87184, 2, 17.8853, 15.8624, 23.0574, 38.2556, -28.621, -29.9154
2.88093, 2, 17.8852, 15.8624, 23.0574, 38.2556, -28.621, -29.9153
2.88787, 2, 17.8851, 15.8624, 23.0574, 38.2556, -28.621, -29.9153
2.89583, 2, 17.8851, 15.8624, 23.0574, 38.2555, -28.621, -29.9153
2.90391, 2, 17.8851, 15.8624, 23.0574, 38.2555, -28.621, -29.9154
2.91184, 2, 17.885, 15.8624, 23.0574, 38.2555, -28.621, -29.9153
2.91983, 2, 17.885, 15.8624, 23.0574, 38.2555, -28.6211, -29.9153
2.9279, 2, 17.8849, 15.8624, 23.0574, 38.2555, -28.6211, -29.9153
2.93583, 2, 17.8848, 15.8624, 23.0574, 38.2554, -28.6211, -29.9153
2.94389, 2, 17.8848, 15.8624, 23.0574, 38.2554, -28.6211, -29.9153
2.9519, 2, 17.8847, 15.8624, 23.0574, 38.2554, -28.6212, -29.9152
2.95984, 2, 17.8847, 15.8624, 23.0574, 38.2554, -28.6212, -29.9152
2.96783, 2, 17.8846, 15.8624, 23.0574, 38.2554, -28.6212, -29.9151
2.9759, 2, 17.8846, 15.8624, 23.0574, 38.2554, -28.6212, -29.9151
2.98383, 2, 17.8845, 15.8624, 23.0574, 38.2554, -28.6212, -29.9151
2.99183, 2, 17.8845, 15.8624, 23.0575, 38.2554, -28.6212, -29.9151
2.99989, 2, 17.8844, 15.8624, 23.0575, 38.2554, -28.6212, -29.9151
3.00782, 2, 17.8844, 15.8624, 23.0575, 38.2554, -28.6212, -29.9151
3.01582, 2, 17.8843, 15.8624, 23.0574, 38.2554, -28.6212, -29.915
3.0239, 2, 17.8843, 15.8624, 23.0574, 38.2553, -28.6212, -29.915
3.03184, 2, 17.8842, 15.8625, 23.0574, 38.2553, -28.6212, -29.915
3.03983, 2, 17.8842, 15.8625, 23.0574, 38.2553, -28.6212, -29.915
3.04793, 2, 17.8841, 15.8625, 23.0574, 38.2553, -28.6212, -29.915
3.05591, 2, 17.8841, 15.8625, 23.0574, 38.2552, -28.6213, -29.915
3.06392, 2, 17.8841, 15.8625, 23.0574, 38.2552, -28.6213, -29.915
3.07201, 2, 17.884, 15.8624, 23.0574, 38.2552, -28.6213, -29.915
3.07993, 2, 17.884, 15.8625, 23.0574, 38.2552, -28.6213, -29.9149
3.08792, 2, 17.884, 15.8625, 23.0574, 38.2552, -28.6213, -29.9149
3.096, 2, 17.8839, 15.8625, 23.0574, 38.2551, -28.6213, -29.9149
3.10383, 2, 17.8839, 15.8625, 23.0574, 38.2551, -28.6213, -29.9149
3.11193, 2, 17.8839, 15.8625, 23.0574, 38.2551, -28.6213, -29.9149
3.11998, 2, 17.8839, 15.8625, 23.0574, 38.2551, -28.6213, -29.9149
3.12685, 2, 17.8839, 15.8625, 23.0574, 38.2551, -28.6214, -29.9148
3.13597, 2, 17.8839, 15.8625, 23.0574, 38.255, -28.6213, -29.9148
3.14415, 2, 17.8838, 15.8625, 23.0574, 38.255, -28.6213, -29.9148
3.15082, 2, 17.8838, 15.8625, 23.0574, 38.255, -28.6213, -29.9148
3.16015, 2, 17.8838, 15.8625, 23.0574, 38.255, -28.6214, -29.9148
3.16685, 2, 17.8838, 15.8625, 23.0574, 38.255, -28.6214, -29.9148
3.17633, 2, 17.8838, 15.8625, 23.0574, 38.2549, -28.6213, -29.9148
3.18435, 2, 17.8838, 15.8625, 23.0574, 38.2549, -28.6214, -29.9148
3.19249, 2, 17.8837, 15.8625, 23.0574, 38.2549, -28.6214, -29.9149
3.20043, 2, 17.8837, 15.8625, 23.0574, 38.2549, -28.6214, -29.9149
3.20839, 2, 17.8837, 15.8625, 23.0574, 38.2549, -28.6214, -29.9148
3.21676, 2, 17.8837, 15.8625, 23.0574, 38.2549, -28.6214, -29.9148
3.22281, 2, 17.8837, 15.8625, 23.0574, 38.2549, -28.6214, -29.9149
3.23183, 2, 17.8837, 15.8625, 23.0574, 38.2549, -28.6214, -29.9148
3.23991, 4, 17.8837, 15.8625, 23.0574, 38.2549, -28.6214, -29.9148
3.38735, 4, 17.8835, 15.8626, 23.0574, 38.2546, -28.6215, -29.9148
3.38855, 4, 17.8835, 15.8626, 23.0574, 38.2546, -28.6215, -29.9148
3.39056, 4, 17.8835, 15.8626, 23.0574, 38.2546, -28.6215, -29.9148
3.39177, 4, 17.8835, 15.8626, 23.0574, 38.2546, -28.6215, -29.9148
3.39414, 4, 17.8835, 15.8626, 23.0574, 38.2546, -28.6215, -29.9148
3.39794, 4, 17.8835, 15.8626, 23.0574, 38.2546, -28.6215, -29.9148
3.39993, 4, 17.8835, 15.8626, 23.0574, 38.2546, -28.6215, -29.9148
3.40256, 4, 17.8835, 15.8626, 23.0574, 38.2546, -28.6215, -29.9148
3.4043, 4, 17.8835, 15.8626, 23.0574, 38.2546, -28.6215, -29.9148
3.40889, 4, 17.8835, 15.8626, 23.0574, 38.2545, -28.6215, -29.9148
3.41156, 4, 17.8835, 15.8626, 23.0574, 38.2545, -28.6215, -29.9148
3.41995, 4, 17.8835, 15.8626, 23.0574, 38.2545, -28.6215, -29.9148
3.4226, 4, 17.8834, 15.8626, 23.0574, 38.2544, -28.6215, -29.9148
3.42702, 4, 17.8834, 15.8626, 23.0574, 38.2545, -28.6215, -29.9148
3.42884, 4, 17.8834, 15.8626, 23.0574, 38.2545, -28.6215, -29.9148
3.43166, 4, 17.8834, 15.8626, 23.0574, 38.2544, -28.6215, -29.9148
3.43343, 4, 17.8834, 15.8626, 23.0574, 38.2544, -28.6215, -29.9148
3.46036, 4, 17.8834, 15.8626, 23.0574, 38.2544, -28.6215, -29.9147
3.4791, 4, 17.8833, 15.8626, 23.0574, 38.2544, -28.6215, -29.9147
3.48101, 4, 17.8833, 15.8626, 23.0574, 38.2544, -28.6215, -29.9147
3.48366, 4, 17.8833, 15.8626, 23.0574, 38.2544, -28.6215, -29.9147
3.48701, 4, 17.8833, 15.8626, 23.0574, 38.2544, -28.6215, -29.9147
3.48882, 4, 17.8833, 15.8626, 23.0574, 38.2544, -28.6215, -29.9147
3.49209, 4, 17.8833, 15.8626, 23.0574, 38.2544, -28.6215, -29.9147
3.50361, 4, 17.8817, 15.8626, 23.0575, 38.2542, -28.6215, -29.9147
3.51005, 4, 17.88, 15.8626, 23.0575, 38.2539, -28.6216, -29.9145
3.51277, 4, 17.8774, 15.8626, 23.0578, 38.2528, -28.6218, -29.914
3.51511, 4, 17.8737, 15.8625, 23.0585, 38.2504, -28.6224, -29.9127
3.5171, 4, 17.8737, 15.8625, 23.0585, 38.2504, -28.6224, -29.9127
3.5208, 4, 17.869, 15.8623, 23.0596, 38.2458, -28.6235, -29.9098
3.52386, 4, 17.8631, 15.862, 23.0616, 38.2385, -28.6256, -29.9045
3.52572, 4, 17.8631, 15.862, 23.0616, 38.2385, -28.6256, -29.9045
3.5284, 4, 17.8558, 15.8614, 23.0649, 38.2273, -28.6292, -29.8956
3.53151, 4, 17.8466, 15.8604, 23.0697, 38.2111, -28.6347, -29.8819
3.53791, 4, 17.8466, 15.8604, 23.0767, 38.1885, -28.6424, -29.8626
3.54112, 5, 17.8215, 15.8569, 23.0864, 38.1575, -28.653, -29.8362
3.54234, 5, 17.8215, 15.8569, 23.0864, 38.1575, -28.653, -29.8362
3.54561, 5, 17.8049, 15.8541, 23.0991, 38.1159, -28.6671, -29.8005
3.55219, 5, 17.7621, 15.8458, 23.1365, 37.9949, -28.709, -29.6956
3.55934, 5, 17.7049, 15.833, 23.1938, 37.8091, -28.7753, -29.5343
3.56812, 5, 17.6311, 15.8149, 23.2756, 37.544, -28.8714, -29.3037
3.57692, 5, 17.5385, 15.791, 23.3857, 37.1878, -29.0037, -28.9933
3.58391, 5, 17.4254, 15.7611, 23.5264, 36.7331, -29.1758, -28.5957
3.59241, 5, 17.2918, 15.7249, 23.6987, 36.177, -29.3914, -28.11
3.60011, 5, 17.2174, 15.7046, 23.7962, 35.8621, -29.5159, -27.8345
3.60738, 5, 17.054, 15.6602, 24.0132, 35.1645, -29.7975, -27.2241
3.61584, 5, 16.7736, 15.5862, 24.3874, 33.9745, -30.2959, -26.1843
3.62467, 5, 16.566, 15.5342, 24.6605, 33.1109, -30.6717, -25.4337
3.63197, 5, 16.3448, 15.4818, 24.9474, 32.2144, -31.0746, -24.6555
3.63999, 5, 16.1118, 15.4304, 25.2414, 31.3034, -31.4995, -23.8641
3.6469, 5, 15.9909, 15.4056, 25.39, 30.8461, -31.7181, -23.4689
3.65616, 6, 15.6123, 15.3358, 25.8351, 29.4848, -32.3918, -22.2965
3.66405, 6, 15.4816, 15.3144, 26.1289, 28.5965, -32.8523, -21.5331
3.6708, 6, 15.2157, 15.2747, 26.2747, 28.1595, -33.0852, -21.1588
3.68037, 6, 14.8104, 15.2231, 26.7058, 26.8734, -33.7937, -20.0627
3.68983, 6, 14.5377, 15.1942, 26.9885, 26.0384, -34.274, -19.3552
3.69858, 6, 14.2637, 15.1697, 27.2665, 25.2228, -34.7599, -18.6672
3.70442, 6, 13.9892, 15.15, 27.5406, 24.4264, -35.2515, -17.9965
3.71242, 6, 13.7146, 15.1345, 27.8099, 23.6453, -35.7481, -17.344
3.72127, 6, 13.5772, 15.1285, 28.0748, 22.8805, -36.2491, -16.7097
3.72682, 6, 13.3026, 15.1198, 28.2059, 22.5048, -36.5012, -16.399
3.7358, 7, 13.028, 15.1155, 28.4642, 21.7665, -37.0093, -15.7899
3.74637, 7, 12.6136, 15.1163, 28.8437, 20.6888, -37.7807, -14.9061
3.75086, 7, 12.4747, 15.1186, 28.9681, 20.3363, -38.04, -14.6197
3.75984, 7, 12.1961, 15.1267, 29.2128, 19.6431, -38.5619, -14.0577
3.76711, 7, 11.9172, 15.1393, 29.4532, 18.9656, -39.0875, -13.5103
3.77708, 7, 11.4965, 15.1667, 29.8053, 17.9743, -39.8825, -12.7161
3.78279, 7, 11.3552, 15.178, 29.92, 17.6511, -40.1494, -12.4587
3.79181, 7, 11.0706, 15.2042, 30.1463, 17.014, -40.6857, -11.9538
3.79986, 7, 10.7825, 15.2347, 30.3682, 16.389, -41.2258, -11.4622
3.80684, 7, 10.4914, 15.2698, 30.5849, 15.7774, -41.7691, -10.9828
3.81816, 8, 10.0532, 15.331, 30.9023, 14.8818, -42.5905, -10.2872
3.82579, 8, 9.90725, 15.3537, 31.0057, 14.5892, -42.8655, -10.0613
3.83079, 8, 9.61569, 15.4027, 31.2084, 14.0129, -43.4176, -9.61812
3.8398, 8, 9.3245, 15.4562, 31.4067, 13.4464, -43.9721, -9.18626
3.84782, 8, 9.03266, 15.5144, 31.6007, 12.8908, -44.5298, -8.76507
3.8558, 8, 8.7394, 15.5769, 31.7894, 12.3464, -45.0901, -8.35497
3.86386, 8, 8.44501, 15.644, 31.9727, 11.8111, -45.6534, -7.95549
3.87284, 8, 8.14913, 15.7156, 32.1517, 11.2861, -46.2189, -7.56592
3.87979, 8, 7.8509, 15.7914, 32.3262, 10.7706, -46.7859, -7.18614
3.88786, 8, 7.55092, 15.8717, 32.4951, 10.2638, -47.3542, -6.81596
3.89671, 8, 7.25041, 15.9564, 32.6593, 9.76546, -47.9253, -6.45456
3.90794, 9, 6.79969, 16.0922, 32.8972, 9.03478, -48.7864, -5.92948
3.91177, 9, 6.64969, 16.1395, 32.9738, 8.7953, -49.0744, -5.75879
3.92334, 9, 6.19947, 16.2884, 33.1959, 8.08883, -49.9402, -5.25863
3.92714, 9, 6.04902, 16.3403, 33.2676, 7.85746, -50.229, -5.09603
3.93488, 9, 5.74765, 16.4472, 33.4072, 7.40014, -50.8078, -4.77673
3.94379, 9, 5.44584, 16.5586, 33.5418, 6.95019, -51.3886, -4.46499
3.95181, 9, 5.14288, 16.6745, 33.6712, 6.50702, -51.9707, -4.16093
3.95979, 9, 4.83803, 16.7951, 33.7955, 6.07091, -52.5542, -3.8652
3.96793, 9, 4.53166, 16.9203, 33.9144, 5.6414, -53.1392, -3.57898
3.97579, 9, 4.22452, 17.0506, 34.0279, 5.21777, -53.7246, -3.30317
3.98401, 10, 3.91747, 17.1869, 34.135, 4.79994, -54.3105, -3.03923
3.99187, 10, 3.61145, 17.3304, 34.2351, 4.38754, -54.897, -2.78854
4.00137, 10, 3.30585, 17.4826, 34.3266, 3.98022, -55.4846, -2.55193
4.00779, 10, 3.00037, 17.6438, 34.4076, 3.57768, -56.0731, -2.3288
4.01591, 10, 2.69529, 17.8136, 34.4764, 3.17949, -56.6619, -2.11785
4.02379, 10, 2.39057, 17.992, 34.5315, 2.7865, -57.2494, -1.91687
4.0318, 10, 2.08569, 18.1807, 34.5713, 2.39915, -57.8354, -1.72316
4.03986, 10, 1.78055, 18.3817, 34.5949, 2.01777, -58.4209, -1.53383
4.04783, 10, 1.47524, 18.5951, 34.6015, 1.64286, -59.0054, -1.34657
4.05586, 10, 1.17046, 18.8202, 34.5908, 1.27501, -59.5883, -1.15879
4.06395, 10, 0.868141, 19.0584, 34.562, 0.914756, -60.1685, -0.96912
4.0719, 10, 0.568849, 19.3094, 34.5151, 0.562688, -60.7438, -0.7769
4.07998, 10, 0.272834, 19.5718, 34.4503, 0.219195, -61.3147, -0.581629
4.0879, 10, -0.0195484, 19.8467, 34.3673, -0.115956, -61.8816, -0.383484
4.09586, 10, -0.308198, 20.1331, 34.2665, -0.441776, -62.4432, -0.182233
4.10554, 10, -0.593274, 20.4301, 34.1479, -0.757924, -62.9984, 0.0224836
4.11182, 10, -0.874644, 20.738, 34.0116, -1.06426, -63.5471, 0.229744
4.11989, 10, -1.15309, 21.0553, 33.8579, -1.36047, -64.0877, 0.438805
4.12875, 10, -1.42916, 21.3825, 33.6872, -1.64706, -64.6203, 0.647957
4.13591, 10, -1.70223, 21.7177, 33.5001, -1.92458, -65.1446, 0.855004
4.14403, 11, -1.97063, 22.0608, 33.297, -2.19322, -65.6608, 1.05804
4.15078, 11, -2.10295, 22.2349, 33.1897, -2.32471, -65.9158, 1.15729
4.16011, 11, -2.49436, 22.7681, 32.8487, -2.70961, -66.6704, 1.44196
4.1668, 11, -2.62334, 22.949, 32.7291, -2.83514, -66.9186, 1.53172
4.17484, 11, -2.8787, 23.314, 32.4814, -3.08291, -67.4101, 1.70343
4.18278, 11, -3.13054, 23.6835, 32.2252, -3.32707, -67.8965, 1.86432
4.19231, 11, -3.50155, 24.2443, 31.827, -3.68763, -68.6175, 2.08797
4.2012, 11, -3.74509, 24.6216, 31.5539, -3.92412, -69.0938, 2.22827
4.2068, 11, -3.86623, 24.8109, 31.4152, -4.04123, -69.3306, 2.2961
4.21637, 11, -4.10831, 25.1904, 30.9901, -4.38775, -70.036, 2.49374
4.22467, 12, -4.47171, 25.7625, 30.7005, -4.61463, -70.5014, 2.62154
4.23239, 12, -4.59219, 25.9541, 30.5535, -4.72669, -70.7327, 2.74689
4.23978, 12, -4.83103, 26.3382, 30.256, -4.94807, -71.1921, 2.80888
4.24779, 12, -5.06707, 26.723, 29.9527, -5.16628, -71.6479, 2.93127
4.25583, 12, -5.30115, 27.1088, 29.6439, -5.38106, -72.0997, 3.05207
4.26378, 12, -5.53348, 27.4959, 29.3302, -5.59241, -72.548, 3.17078
4.27178, 12, -5.76371, 27.8839, 29.0114, -5.80037, -72.9922, 3.28849
4.27984, 12, -5.99192, 28.2726, 28.6877, -6.0051, -73.4325, 3.40494
4.28778, 12, -6.21868, 28.6628, 28.3585, -6.20693, -73.8689, 3.51987
4.29579, 12, -6.44385, 29.0542, 28.0239, -6.40542, -74.3015, 3.63374
4.30279, 12, -6.66751, 29.4463, 27.6839, -6.60058, -74.7299, 3.74665
4.31175, 13, -6.89028, 29.8388, 27.3389, -6.79278, -75.1545, 3.85833
4.31978, 13, -7.11232, 30.233, 26.9888, -6.98195, -75.5749, 3.96895
4.32785, 13, -7.3332, 30.6282, 26.6336, -7.16817, -75.9913, 4.07856
4.33579, 13, -7.5522, 31.0244, 26.2735, -7.35137, -76.4036, 4.18735
4.34385, 13, -7.76924, 31.421, 25.9076, -7.53158, -76.8123, 4.29521
4.35078, 13, -7.98406, 31.8191, 25.5365, -7.7089, -77.217, 4.40256
4.35978, 13, -8.19666, 32.2179, 25.1601, -7.88353, -77.6175, 4.5095
4.36877, 13, -8.40693, 32.6175, 24.7793, -8.05498, -78.0136, 4.61552
4.37478, 13, -8.61506, 33.018, 24.3929, -8.22351, -78.4055, 4.72136
4.38378, 13, -8.82133, 33.4196, 24.0012, -8.38918, -78.793, 4.82648
4.39198, 14, -9.02571, 33.8218, 23.6046, -8.55197, -79.1762, 4.93121
4.39984, 14, -9.22843, 34.2245, 23.2024, -8.71215, -79.5556, 5.03582
4.40788, 14, -9.42949, 34.6288, 22.7951, -8.86956, -79.9307, 5.1395
4.41579, 14, -9.62935, 35.034, 22.3826, -9.024, -80.302, 5.24354
4.42379, 14, -9.8285, 35.4401, 21.9648, -9.17553, -80.6689, 5.3467
4.43178, 14, -10.0267, 35.8463, 21.542, -9.32426, -81.0316, 5.45017
4.43984, 14, -10.2235, 36.2537, 21.1136, -9.47039, -81.3897, 5.55358
4.44778, 14, -10.4188, 36.6615, 20.6799, -9.614, -81.7433, 5.65714
4.45578, 14, -10.6126, 37.0698, 20.2411, -9.75498, -82.0924, 5.76046
4.46385, 14, -10.8048, 37.4791, 19.7969, -9.8931, -82.4373, 5.86405
4.47179, 14, -10.9947, 37.8895, 19.3476, -10.0284, -82.7779, 5.96765
4.47977, 15, -11.1814, 38.2994, 18.8932, -10.1611, -83.1141, 6.07119
4.48785, 15, -11.3639, 38.7067, 18.4346, -10.2909, -83.4456, 6.17506
4.49579, 15, -11.5411, 39.1104, 17.974, -10.4179, -83.7718, 6.27829
4.50381, 15, -11.7126, 39.5078, 17.5134, -10.5414, -84.0909, 6.38141
4.51199, 15, -11.8787, 39.898, 17.0557, -10.6605, -84.4013, 6.48281
4.51984, 15, -12.0385, 40.2775, 16.6046, -10.7745, -84.7004, 6.58232
4.52777, 15, -12.1914, 40.6443, 16.1645, -10.8821, -84.9854, 6.67899
4.53585, 15, -12.3371, 40.9954, 15.74, -10.983, -85.2543, 6.77142
4.54378, 15, -12.4755, 41.3296, 15.3351, -11.0764, -85.505, 6.85886
4.5518, 15, -12.6056, 41.6438, 14.9534, -11.1615, -85.7361, 6.94109
4.55992, 15, -12.7263, 41.9359, 14.5981, -11.2394, -85.9471, 7.01694
4.56787, 15, -12.8368, 42.2041, 14.2725, -11.3087, -86.1375, 7.08698
4.57587, 15, -12.9363, 42.446, 13.9776, -11.3706, -86.3071, 7.1493
4.58398, 15, -13.0249, 42.6611, 13.7142, -11.424, -86.4559, 7.2049
4.59189, 15, -13.1028, 42.8516, 13.4836, -11.4698, -86.5843, 7.25394
4.59983, 15, -13.1705, 43.0173, 13.2847, -11.5093, -86.6929, 7.29548
4.60795, 15, -13.2283, 43.1577, 13.117, -11.5411, -86.7819, 7.3299
4.61604, 15, -13.2764, 43.2744, 12.98, -11.5665, -86.8541, 7.35735
4.62385, 15, -13.3158, 43.3701, 12.8708, -11.5859, -86.9096, 7.37862
4.63192, 15, -13.3479, 43.4471, 12.7865, -11.6005, -86.9514, 7.39463
4.64002, 15, -13.3736, 43.5076, 12.7239, -11.6109, -86.9816, 7.40608
4.64684, 15, -13.3843, 43.5324, 12.6996, -11.6148, -86.9931, 7.41042
4.65611, 15, -13.4087, 43.5886, 12.6486, -11.6225, -87.0159, 7.41915
4.66277, 15, -13.4148, 43.6025, 12.6374, -11.6241, -87.0204, 7.42085
4.67216, 15, -13.4287, 43.6342, 12.6157, -11.6267, -87.0281, 7.42371
4.67877, 15, -13.4322, 43.6418, 12.6112, -11.6272, -87.0293, 7.42418
4.6884, 15, -13.4392, 43.6571, 12.6031, -11.6278, -87.0312, 7.42488
4.6963, 16, -13.4415, 43.6628, 12.6003, -11.6281, -87.0317, 7.42501
4.70435, 16, -13.4426, 43.6666, 12.5982, -11.6281, -87.0319, 7.42506
4.71293, 16, -13.4433, 43.6692, 12.5967, -11.6282, -87.0319, 7.4251
4.72043, 16, -13.4435, 43.6702, 12.5955, -11.6282, -87.032, 7.42519
4.72838, 16, -13.4438, 43.6718, 12.595, -11.6283, -87.032, 7.42517
4.73675, 16, -13.444, 43.6737, 12.594, -11.6283, -87.032, 7.42525
4.74377, 16, -13.444, 43.6743, 12.5938, -11.6283, -87.032, 7.42527
4.75183, 16, -13.444, 43.6753, 12.5935, -11.6283, -87.0319, 7.42521
4.75977, 16, -13.444, 43.6763, 12.5932, -11.6283, -87.0319, 7.42524
4.76777, 16, -13.4439, 43.677, 12.593, -11.6283, -87.0318, 7.42526
4.77586, 16, -13.4437, 43.6777, 12.5929, -11.6283, -87.0317, 7.42526
4.78382, 16, -13.4436, 43.6783, 12.5928, -11.6283, -87.0316, 7.42523
4.79217, 16, -13.4435, 43.6788, 12.5928, -11.6283, -87.0315, 7.42526
4.79877, 16, -13.4435, 43.6792, 12.5928, -11.6283, -87.0314, 7.42527
4.80779, 16, -13.4434, 43.6795, 12.5928, -11.6283, -87.0313, 7.42521
4.81577, 16, -13.4433, 43.6796, 12.5928, -11.6283, -87.0311, 7.42519
