hehonglu123/ABB_Primitive_Study/realrobot/movelcl_30_car2/curve_exe_v500_z1.csv
timestamp, cmd_num, J1, J2, J3, J4, J5, J6
0.000358, -1, -13.4398, 43.6796, 12.5938, -11.6278, -87.0287, 7.42448
0.004095, -1, -13.4398, 43.6796, 12.5938, -11.6278, -87.0288, 7.42443
0.025255, -1, -13.4398, 43.6796, 12.5938, -11.6278, -87.0288, 7.4245
0.026512, -1, -13.4397, 43.6796, 12.5938, -11.6278, -87.0288, 7.4245
0.029208, -1, -13.4397, 43.6796, 12.5938, -11.6278, -87.0288, 7.42451
0.033083, -1, -13.4398, 43.6796, 12.5938, -11.6278, -87.0287, 7.42451
0.039679, -1, -13.4398, 43.6796, 12.5938, -11.6278, -87.0288, 7.42452
0.04824, -1, -13.4396, 43.6795, 12.5938, -11.6278, -87.0288, 7.42452
0.055691, -1, -13.4392, 43.6792, 12.5938, -11.6278, -87.0288, 7.42452
0.06415, -1, -13.4347, 43.6759, 12.5943, -11.6277, -87.0287, 7.42449
0.071719, -1, -13.4317, 43.6734, 12.5947, -11.6275, -87.0284, 7.42443
0.080459, -1, -13.4172, 43.6615, 12.5975, -11.624, -87.0239, 7.4238
0.087114, -1, -13.41, 43.6557, 12.599, -11.6207, -87.02, 7.42275
0.095169, -1, -13.3906, 43.6401, 12.6035, -11.6087, -87.0061, 7.41622
0.104383, -1, -13.3465, 43.6038, 12.615, -11.5718, -86.9624, 7.39001
0.111129, -1, -13.3275, 43.5878, 12.6203, -11.5523, -86.9399, 7.376
0.119226, -1, -13.2824, 43.5491, 12.6335, -11.4989, -86.8789, 7.33782
0.128837, -1, -13.1944, 43.4718, 12.6613, -11.3784, -86.7389, 7.24887
0.13744, -1, -13.1214, 43.4067, 12.6853, -11.2662, -86.6091, 7.16635
0.143164, -1, -13.0806, 43.3699, 12.6989, -11.2004, -86.5325, 7.11784
0.152744, -1, -12.9403, 43.2425, 12.7474, -10.9629, -86.2562, 6.94126
0.161527, -1, -12.8319, 43.1436, 12.7855, -10.7733, -86.0349, 6.79997
0.167188, -1, -12.7734, 43.0904, 12.806, -10.6699, -85.9144, 6.72265
0.177004, -1, -12.5825, 42.9168, 12.873, -10.3302, -85.5182, 6.4688
0.183108, -1, -12.5139, 42.8545, 12.8971, -10.209, -85.3766, 6.37824
0.192644, -1, -12.3702, 42.7244, 12.9473, -9.95766, -85.0829, 6.19021
0.200167, -1, -12.2191, 42.5882, 12.9998, -9.69723, -84.7785, 5.99498
0.208114, -1, -12.0623, 42.4467, 13.0538, -9.43108, -84.4671, 5.79538
0.215181, -1, -11.9002, 42.3012, 13.1091, -9.16133, -84.1516, 5.59272
0.223129, -1, -11.7334, 42.1525, 13.1652, -8.8896, -83.8338, 5.3889
0.231114, -1, -11.5638, 42.0018, 13.2219, -8.61664, -83.5148, 5.18453
0.239146, -1, -11.3926, 41.8499, 13.2789, -8.34336, -83.195, 4.9797
0.247174, -1, -11.2208, 41.6976, 13.3361, -8.06976, -82.8748, 4.77448
0.25514, -1, -11.0486, 41.5458, 13.3933, -7.79592, -82.5544, 4.56929
0.263143, -1, -10.8763, 41.3942, 13.4508, -7.52212, -82.2336, 4.36383
0.271113, -1, -10.7039, 41.2427, 13.5083, -7.24831, -81.9127, 4.15849
0.280119, -1, -10.5314, 41.0909, 13.566, -6.97405, -81.5919, 3.95317
0.287152, -1, -10.3587, 40.9392, 13.6237, -6.70013, -81.2713, 3.74781
0.295117, -1, -10.1864, 40.7878, 13.6813, -6.42641, -80.9508, 3.54256
0.304137, -1, -10.0144, 40.6363, 13.7387, -6.15261, -80.6306, 3.33703
0.311114, -1, -9.84281, 40.4845, 13.7961, -5.87904, -80.3108, 3.13202
0.319112, -1, -9.67182, 40.3324, 13.8534, -5.60553, -79.991, 2.92709
0.328125, -1, -9.50137, 40.18, 13.9107, -5.33214, -79.6713, 2.72239
0.336182, -1, -9.33171, 40.0281, 13.968, -5.05882, -79.3518, 2.51779
0.343118, -1, -9.16265, 39.8762, 14.0251, -4.78592, -79.0323, 2.31328
0.352157, -1, -8.99379, 39.7241, 14.0822, -4.51348, -78.713, 2.10896
0.359107, -1, -8.82479, 39.5721, 14.1392, -4.24139, -78.394, 1.90513
0.36714, -1, -8.65553, 39.4205, 14.1962, -3.96989, -78.0759, 1.70163
0.375182, -1, -8.48587, 39.2696, 14.2531, -3.69856, -77.7584, 1.49826
0.383119, -1, -8.31601, 39.1191, 14.31, -3.42754, -77.4413, 1.29519
0.391226, -1, -8.14609, 38.9687, 14.3668, -3.15727, -77.1249, 1.09241
0.399258, -1, -7.97597, 38.8185, 14.4235, -2.88743, -76.8092, 0.890193
0.407208, -1, -7.8058, 38.6687, 14.4801, -2.61797, -76.4938, 0.688444
0.415323, -1, -7.63547, 38.5194, 14.5365, -2.34931, -76.179, 0.487148
0.423216, -1, -7.46513, 38.3705, 14.5927, -2.08111, -75.8647, 0.286211
0.431219, -1, -7.29497, 38.2215, 14.649, -1.81318, -75.5511, 0.0856793
0.43935, -1, -7.1254, 38.0726, 14.7052, -1.54593, -75.2383, -0.114569
0.447124, -1, -6.95671, 37.924, 14.7613, -1.27946, -74.9262, -0.314007
0.455185, -1, -6.78912, 37.7758, 14.8171, -1.01362, -74.6151, -0.512828
0.463214, -1, -6.62244, 37.628, 14.8726, -0.748585, -74.3049, -0.711336
0.471214, -1, -6.45657, 37.4803, 14.928, -0.484392, -73.9952, -0.909305
0.479354, -1, -6.29212, 37.3329, 14.9833, -0.220792, -73.6865, -1.10698
0.487397, -1, -6.1286, 37.186, 15.0386, 0.0423653, -73.3787, -1.30382
0.495371, -1, -5.96597, 37.04, 15.0937, 0.304428, -73.0717, -1.49993
0.503572, -1, -5.80383, 36.8946, 15.1485, 0.565645, -72.7659, -1.69545
0.511502, -1, -5.64182, 36.7495, 15.2031, 0.826152, -72.4609, -1.89044
0.519555, -1, -5.47978, 36.6049, 15.2576, 1.08563, -72.1568, -2.08487
0.528202, -1, -5.31777, 36.4607, 15.312, 1.34436, -71.8538, -2.27877
0.53568, -1, -5.15582, 36.3172, 15.3662, 1.60236, -71.5516, -2.47184
0.544215, -1, -4.99409, 36.1743, 15.4204, 1.85963, -71.2505, -2.6642
0.55174, -1, -4.83259, 36.0316, 15.4742, 2.1157, -70.9507, -2.85605
0.560383, -1, -4.67133, 35.8892, 15.5278, 2.37085, -70.6518, -3.04722
0.567799, -1, -4.59066, 35.8181, 15.5813, 2.62505, -70.3539, -3.23793
0.576139, -1, -4.34889, 35.6058, 15.6344, 2.8781, -70.0574, -3.42783
0.58314, -1, -4.26842, 35.5354, 15.661, 3.00425, -69.9097, -3.52238
0.592149, -1, -4.02848, 35.3247, 15.7402, 3.38205, -69.4679, -3.80493
0.599147, -1, -3.94908, 35.2546, 15.7667, 3.50753, -69.3211, -3.8987
0.608363, -1, -3.71279, 35.045, 15.8452, 3.88223, -68.8822, -4.17917
0.615117, -1, -3.63458, 34.9754, 15.8713, 4.00666, -68.7365, -4.27235
0.624716, -1, -3.40135, 34.7679, 15.9492, 4.37863, -68.3006, -4.55112
0.632488, -1, -3.24699, 34.6303, 16.0009, 4.62531, -68.0114, -4.73567
0.639143, -1, -3.17021, 34.5618, 16.0268, 4.74828, -67.8673, -4.82767
0.648702, -1, -2.94153, 34.3566, 16.1042, 5.11636, -67.4367, -5.10261
0.656671, -1, -2.78997, 34.2205, 16.1555, 5.36031, -67.1512, -5.28519
0.664686, -1, -2.63882, 34.0853, 16.2064, 5.6031, -66.8668, -5.46702
0.672744, -1, -2.48778, 33.9508, 16.2572, 5.84496, -66.5839, -5.64834
0.6807, -1, -2.41222, 33.8166, 16.3078, 6.08577, -66.3021, -5.82847
0.6888, -1, -2.26116, 33.6829, 16.3583, 6.32553, -66.0213, -6.00804
0.697481, -1, -2.11046, 33.6162, 16.3834, 6.445, -65.8812, -6.18655
0.70312, -1, -1.96017, 33.4831, 16.4335, 6.68336, -65.6019, -6.27567
0.711166, -1, -1.81047, 33.3507, 16.4832, 6.92085, -65.324, -6.4535
0.719093, -1, -1.66106, 33.2187, 16.5326, 7.1573, -65.047, -6.63059
0.727106, -1, -1.51178, 33.0872, 16.5819, 7.39248, -64.7711, -6.80709
0.735163, -1, -1.36266, 32.9561, 16.6311, 7.62683, -64.4965, -6.98252
0.743095, -1, -1.21403, 32.8255, 16.6802, 7.86028, -64.2231, -7.15741
0.751159, -1, -1.06651, 32.6957, 16.7289, 8.09266, -63.9509, -7.33162
0.759162, -1, -0.920201, 32.5666, 16.7776, 8.32414, -63.6798, -7.50521
0.767122, -1, -0.775195, 32.4381, 16.8259, 8.55491, -63.41, -7.67816
0.775592, -1, -0.631193, 32.3101, 16.8741, 8.78455, -63.1414, -7.8502
0.783089, -1, -0.487884, 32.1827, 16.9221, 9.01302, -62.8737, -8.02135
0.791139, -1, -0.345746, 32.0557, 16.97, 9.24055, -62.6074, -8.19157
0.799892, -1, -0.204749, 31.9295, 17.0175, 9.46711, -62.3422, -8.36098
0.808164, -1, -0.0647047, 31.8038, 17.0648, 9.69266, -62.0781, -8.52986
0.816125, -1, 0.0745741, 31.6786, 17.112, 9.91709, -61.8149, -8.69791
0.824114, -1, 0.213452, 31.5538, 17.1589, 10.1407, -61.553, -8.86548
0.832164, -1, 0.352351, 31.4294, 17.2055, 10.3635, -61.292, -9.03229
0.840148, -1, 0.491429, 31.3055, 17.2521, 10.5851, -61.032, -9.19814
0.84811, -1, 0.630396, 31.1821, 17.2984, 10.8058, -60.7732, -9.36337
0.856228, -1, 0.768936, 31.0595, 17.3445, 11.0256, -60.5157, -9.52782
0.863095, -1, 0.907151, 30.9372, 17.3904, 11.2446, -60.2593, -9.6918
0.872209, -1, 1.04486, 30.8154, 17.4362, 11.4625, -60.0039, -9.85493
0.879095, -1, 1.18224, 30.694, 17.4818, 11.6794, -59.7498, -10.0177
0.887126, -1, 1.31934, 30.5732, 17.527, 11.8957, -59.4969, -10.1795
0.895973, -1, 1.45604, 30.4531, 17.5723, 12.1111, -59.2453, -10.3404
0.904164, -1, 1.59228, 30.3336, 17.6173, 12.3256, -58.9944, -10.5008
0.911183, -1, 1.72769, 30.2146, 17.6621, 12.539, -58.7445, -10.6603
0.920025, -1, 1.86203, 30.0962, 17.7067, 12.7516, -58.4956, -10.8195
0.928157, -1, 1.99543, 29.9781, 17.7512, 12.9634, -58.2474, -10.978
0.935216, -1, 2.12804, 29.8604, 17.7955, 13.1742, -58.0003, -11.136
0.943946, -1, 2.25993, 29.7434, 17.8394, 13.3839, -57.7539, -11.2933
0.952172, -1, 2.39093, 29.6269, 17.8832, 13.5931, -57.5086, -11.4499
0.959151, -1, 2.52095, 29.5107, 17.9269, 13.8014, -57.2644, -11.6057
0.967262, -1, 2.64998, 29.395, 17.9705, 14.0089, -57.0213, -11.761
0.975216, -1, 2.77828, 29.2796, 18.0139, 14.2155, -56.7795, -11.9157
0.983237, -1, 2.9059, 29.1644, 18.057, 14.4212, -56.5385, -12.0699
0.992671, -1, 3.03336, 29.0497, 18.1, 14.6262, -56.299, -12.2235
0.99954, -1, 3.16081, 28.9357, 18.1427, 14.8302, -56.06, -12.3765
1.00843, -1, 3.2883, 28.8221, 18.1852, 15.0334, -55.8222, -12.5287
1.0155, -1, 3.41552, 28.7091, 18.2278, 15.2359, -55.5852, -12.6801
1.02367, -1, 3.54246, 28.5965, 18.2701, 15.4377, -55.3491, -12.8309
1.03242, -1, 3.66909, 28.4843, 18.3124, 15.6388, -55.114, -12.9812
1.03961, -1, 3.79549, 28.3726, 18.3543, 15.8388, -54.8794, -13.1308
1.04792, -1, 3.9216, 28.2614, 18.396, 16.0381, -54.646, -13.2801
1.05663, -1, 4.04744, 28.151, 18.4378, 16.2366, -54.413, -13.429
1.06367, -1, 4.11022, 28.0959, 18.4585, 16.3356, -54.1811, -13.5769
1.0721, -1, 4.29786, 27.9312, 18.5205, 16.6313, -53.9503, -13.7244
1.07908, -1, 4.36006, 27.8765, 18.5412, 16.7294, -53.8353, -13.7979
1.08713, -1, 4.48382, 27.7673, 18.5823, 16.9251, -53.6059, -13.9442
1.09512, -1, 4.60712, 27.6584, 18.6232, 17.1203, -53.3775, -14.0902
1.10502, -1, 4.79106, 27.4957, 18.6843, 17.4116, -53.0364, -14.3082
1.11318, -1, 4.91268, 27.3879, 18.7248, 17.6048, -52.8103, -14.4531
1.11916, -1, 4.97324, 27.3341, 18.7451, 17.7012, -52.6974, -14.5253
1.12937, -1, 5.15402, 27.1734, 18.8056, 17.9891, -52.3602, -14.7408
1.13519, -1, 5.21383, 27.12, 18.8256, 18.0848, -52.2483, -14.8123
1.14313, -1, 5.33273, 27.0134, 18.8655, 18.2756, -52.0251, -14.9549
1.15108, -1, 5.45088, 26.9071, 18.9055, 18.4655, -51.8026, -15.097
1.15914, -1, 5.56857, 26.8014, 18.9453, 18.655, -51.5808, -15.2386
1.16872, -1, 5.74432, 26.6439, 19.0047, 18.9379, -51.2497, -15.4502
1.17756, -1, 5.86119, 26.5393, 19.0441, 19.1258, -51.0298, -15.5909
1.18315, -1, 5.91952, 26.4872, 19.0637, 19.2193, -50.9202, -15.661
1.19306, -1, 6.09429, 26.3312, 19.1225, 19.4989, -50.5925, -15.8704
1.1991, -1, 6.15253, 26.2793, 19.1419, 19.5918, -50.4836, -15.94
1.20913, -1, 6.32706, 26.1241, 19.2001, 19.8696, -50.1582, -16.148
1.21507, -1, 6.38524, 26.0726, 19.2194, 19.9618, -50.0501, -16.2172
1.22309, -1, 6.50154, 25.9699, 19.2581, 20.1458, -49.8345, -16.355
1.23211, -1, 6.61761, 25.8675, 19.2966, 20.3289, -49.6196, -16.4925
1.24171, -1, 6.7911, 25.7146, 19.354, 20.6028, -49.299, -16.6981
1.24811, -1, 6.84864, 25.6638, 19.373, 20.6939, -49.1925, -16.7663
1.25514, -1, 6.96345, 25.5625, 19.4111, 20.8753, -48.9801, -16.9022
1.26308, -1, 7.07789, 25.4615, 19.4492, 21.0563, -48.7687, -17.0377
1.27208, -1, 7.19173, 25.3608, 19.487, 21.2364, -48.5579, -17.1725
1.27908, -1, 7.30507, 25.2607, 19.5247, 21.416, -48.3476, -17.3069
1.28708, -1, 7.41796, 25.161, 19.5624, 21.5953, -48.1379, -17.4407
1.29608, -1, 7.53032, 25.0616, 19.5998, 21.7737, -47.9289, -17.5743
1.30307, -1, 7.64223, 24.9626, 19.6371, 21.9515, -47.7206, -17.7074
1.31107, -1, 7.75352, 24.8639, 19.6744, 22.1288, -47.5128, -17.8404
1.3201, -1, 7.86434, 24.7653, 19.7114, 22.3056, -47.3055, -17.9727
1.32814, -1, 7.97479, 24.667, 19.7484, 22.482, -47.0991, -18.1045
1.33608, -1, 8.0848, 24.5689, 19.7853, 22.6576, -46.8932, -18.2358
1.34408, -1, 8.1944, 24.4712, 19.8219, 22.8326, -46.6881, -18.3665
1.35107, -1, 8.30355, 24.3737, 19.8583, 23.007, -46.4836, -18.4972
1.35907, -1, 8.41241, 24.2766, 19.8948, 23.181, -46.28, -18.6274
1.36713, -1, 8.52071, 24.1797, 19.9311, 23.3543, -46.077, -18.757
1.37507, -1, 8.62832, 24.0831, 19.9672, 23.5271, -45.8749, -18.8867
1.38314, -1, 8.73559, 23.9867, 20.0034, 23.6993, -45.6733, -19.0159
1.39112, -1, 8.84286, 23.8908, 20.0393, 23.8709, -45.4723, -19.1442
1.39914, -1, 8.95005, 23.7953, 20.0752, 24.0421, -45.2721, -19.2724
1.40723, -1, 9.0572, 23.7003, 20.1111, 24.2129, -45.0725, -19.4
1.41524, -1, 9.16428, 23.6055, 20.1468, 24.383, -44.8734, -19.5272
1.42323, -1, 9.27109, 23.5111, 20.1823, 24.5527, -44.6747, -19.6541
1.43126, -1, 9.37777, 23.4169, 20.2179, 24.7216, -44.4766, -19.7808
1.43919, -1, 9.48408, 23.323, 20.2533, 24.8902, -44.2791, -19.9069
1.44708, -1, 9.59006, 23.2292, 20.2885, 25.0585, -44.082, -20.033
1.45517, -1, 9.69581, 23.1357, 20.3238, 25.2261, -43.8854, -20.1587
1.46314, -1, 9.8013, 23.0425, 20.3588, 25.3931, -43.6895, -20.2837
1.47119, -1, 9.90652, 22.9496, 20.3937, 25.5597, -43.4944, -20.4085
1.47926, -1, 10.0114, 22.8568, 20.4286, 25.7259, -43.2999, -20.5327
1.48726, -1, 10.1158, 22.7643, 20.4633, 25.8918, -43.1059, -20.6567
1.4954, -1, 10.2199, 22.6722, 20.4978, 26.0571, -42.9125, -20.7805
1.50338, -1, 10.3236, 22.5802, 20.5324, 26.2218, -42.7195, -20.9039
1.51147, -1, 10.4269, 22.4884, 20.5669, 26.386, -42.5272, -21.027
1.51959, -1, 10.5299, 22.3969, 20.6013, 26.5498, -42.3355, -21.1497
1.52828, -1, 10.6326, 22.3059, 20.6356, 26.7132, -42.144, -21.2722
1.53559, -1, 10.7349, 22.2151, 20.6698, 26.8761, -41.9535, -21.394
1.54428, -1, 10.8369, 22.1245, 20.7038, 27.0386, -41.7635, -21.5155
1.55168, -1, 10.9384, 22.0342, 20.7378, 27.2003, -41.574, -21.6366
1.56018, -1, 11.0394, 21.944, 20.7718, 27.3618, -41.3848, -21.7574
1.56771, -1, 11.0898, 21.8991, 20.8056, 27.523, -41.1961, -21.8779
1.57623, -1, 11.2408, 21.7644, 20.8392, 27.6836, -41.0079, -21.9982
1.58371, -1, 11.291, 21.7196, 20.8561, 27.7638, -40.9139, -22.0582
1.59214, -1, 11.4411, 21.5857, 20.9064, 28.0036, -40.6331, -22.2378
1.59907, -1, 11.4909, 21.5411, 20.9231, 28.0833, -40.5396, -22.2976
1.6082, -1, 11.6398, 21.4079, 20.9732, 28.3217, -40.2599, -22.4761
1.61507, -1, 11.6893, 21.3636, 20.9899, 28.4011, -40.1671, -22.5355
1.62433, -1, 11.8378, 21.2313, 21.0395, 28.6385, -39.889, -22.713
1.63128, -1, 11.8872, 21.1874, 21.056, 28.7174, -39.7967, -22.772
1.64055, -1, 12.0355, 21.0558, 21.1057, 28.9533, -39.5201, -22.9486
1.64926, -1, 12.1343, 20.9684, 21.1386, 29.1102, -39.3364, -23.0659
1.65512, -1, 12.1837, 20.9248, 21.1549, 29.1886, -39.2447, -23.1245
1.66469, -1, 12.3314, 20.7942, 21.2041, 29.4232, -38.9702, -23.3001
1.67264, -1, 12.4295, 20.7075, 21.2367, 29.579, -38.788, -23.4168
1.68063, -1, 12.5274, 20.6209, 21.2693, 29.7342, -38.606, -23.5331
1.68873, -1, 12.6251, 20.5344, 21.3018, 29.8892, -38.4245, -23.649
1.6967, -1, 12.6739, 20.4913, 21.318, 29.9666, -38.2438, -23.7647
1.70407, -1, 12.7712, 20.4051, 21.3503, 30.121, -38.1536, -23.8224
1.71215, -1, 12.8682, 20.3191, 21.3825, 30.275, -37.9735, -23.9373
1.72007, -1, 12.9649, 20.2333, 21.4148, 30.4286, -37.794, -24.0524
1.72807, -1, 13.0613, 20.1476, 21.447, 30.5818, -37.6148, -24.1669
1.7361, -1, 13.1575, 20.0623, 21.479, 30.7344, -37.4357, -24.2813
1.74407, -1, 13.2532, 19.9772, 21.511, 30.887, -37.2571, -24.3956
1.75212, -1, 13.3487, 19.8922, 21.543, 31.0393, -37.0789, -24.5095
1.76009, -1, 13.4439, 19.8076, 21.5748, 31.1911, -36.901, -24.6234
1.76807, -1, 13.539, 19.7232, 21.6066, 31.3425, -36.7234, -24.7364
1.77612, -1, 13.6338, 19.6389, 21.6383, 31.4935, -36.5465, -24.8495
1.78407, -1, 13.7284, 19.5548, 21.67, 31.644, -36.37, -24.9625
1.79106, -1, 13.8227, 19.4709, 21.7015, 31.7944, -36.1937, -25.0749
1.79909, -1, 13.9168, 19.3872, 21.733, 31.9445, -36.018, -25.1875
1.80807, -1, 14.0108, 19.3038, 21.7645, 32.0942, -35.8427, -25.2995
1.81506, -1, 14.1048, 19.2205, 21.7958, 32.2434, -35.6678, -25.4114
1.82308, -1, 14.1985, 19.1375, 21.827, 32.3923, -35.4933, -25.5234
1.83206, -1, 14.2919, 19.0546, 21.8581, 32.541, -35.3194, -25.6348
1.84013, -1, 14.3848, 18.9719, 21.8893, 32.6894, -35.1456, -25.7461
1.84807, -1, 14.4775, 18.8893, 21.9203, 32.8376, -34.9724, -25.8568
1.85512, -1, 14.57, 18.807, 21.9513, 32.9854, -34.7998, -25.9673
1.86307, -1, 14.6622, 18.7247, 21.9823, 33.1327, -34.6275, -26.0775
1.87106, -1, 14.7541, 18.6427, 22.0131, 33.2796, -34.4556, -26.1873
1.88008, -1, 14.8459, 18.5609, 22.0438, 33.4263, -34.2838, -26.2973
1.88707, -1, 14.9376, 18.4793, 22.0745, 33.5728, -34.1124, -26.4066
1.89606, -1, 15.0292, 18.3978, 22.1053, 33.7189, -33.9412, -26.5159
1.90416, -1, 15.1205, 18.3166, 22.1358, 33.8646, -33.7706, -26.6251
1.91116, -1, 15.2117, 18.2356, 22.1663, 34.01, -33.6002, -26.7341
1.91922, -1, 15.303, 18.1547, 22.1968, 34.1548, -33.4301, -26.8428
1.92719, -1, 15.3941, 18.074, 22.2273, 34.2997, -33.2601, -26.9511
1.93517, -1, 15.4852, 17.9934, 22.2576, 34.4443, -33.0909, -27.0591
1.94326, -1, 15.5762, 17.9131, 22.2878, 34.5886, -32.922, -27.167
1.95119, -1, 15.6669, 17.8328, 22.3182, 34.7324, -32.7537, -27.2744
1.95909, -1, 15.7575, 17.7527, 22.3482, 34.8761, -32.5855, -27.3819
1.96741, -1, 15.8478, 17.6727, 22.3781, 35.0192, -32.4177, -27.4891
1.97516, -1, 15.9379, 17.5929, 22.4082, 35.162, -32.2503, -27.5961
1.98319, -1, 16.0278, 17.5133, 22.4382, 35.3049, -32.0831, -27.7031
1.99137, -1, 16.1175, 17.4338, 22.468, 35.4474, -31.9166, -27.81
1.99933, -1, 16.2068, 17.3545, 22.4977, 35.5895, -31.7501, -27.9167
2.00735, -1, 16.2958, 17.2752, 22.5275, 35.7314, -31.5839, -28.0227
2.01581, -1, 16.3847, 17.1962, 22.5572, 35.8729, -31.4184, -28.1288
2.02417, -1, 16.4733, 17.1173, 22.5868, 36.0142, -31.2528, -28.2344
2.03154, -1, 16.5615, 17.0385, 22.6164, 36.1554, -31.0877, -28.3401
2.04054, -1, 16.6497, 16.96, 22.646, 36.2964, -30.9228, -28.4449
2.04768, -1, 16.7379, 16.8817, 22.6754, 36.4369, -30.7582, -28.5503
2.05617, -1, 16.826, 16.8035, 22.7047, 36.5772, -30.5939, -28.6554
2.06392, -1, 16.914, 16.7256, 22.7341, 36.7171, -30.4299, -28.76
2.07228, -1, 17.0017, 16.6477, 22.7635, 36.8568, -30.2665, -28.865
2.07961, -1, 17.0455, 16.6088, 22.7782, 36.9265, -30.1848, -28.9173
2.08812, -1, 17.1766, 16.4923, 22.8219, 37.1355, -29.94, -29.0738
2.0951, -1, 17.22, 16.4537, 22.8365, 37.2049, -29.8585, -29.1257
2.10412, -1, 17.3453, 16.341, 22.8795, 37.4126, -29.6153, -29.2811
2.11111, -1, 17.3848, 16.3052, 22.8933, 37.4809, -29.5351, -29.3322
2.12034, -1, 17.4944, 16.2059, 22.9326, 37.6803, -29.301, -29.4818
2.12707, -1, 17.5283, 16.1759, 22.9449, 37.7434, -29.2268, -29.5291
2.13518, -1, 17.5912, 16.1205, 22.9677, 37.8619, -29.0875, -29.6183
2.14306, -1, 17.6472, 16.0714, 22.9883, 37.9672, -28.9638, -29.6971
2.15296, -1, 17.7193, 16.0075, 23.0135, 38.092, -28.8161, -29.7921
2.16098, -1, 17.7605, 15.9699, 23.0268, 38.1522, -28.7445, -29.8376
2.16865, -1, 17.7963, 15.9375, 23.0374, 38.1937, -28.6946, -29.8696
2.17664, -1, 17.8256, 15.9119, 23.045, 38.2212, -28.6617, -29.8906
2.1849, -1, 17.8488, 15.8935, 23.0503, 38.2379, -28.6418, -29.9031
2.19105, -1, 17.8582, 15.8866, 23.0522, 38.2432, -28.6353, -29.907
2.2013, -1, 17.8765, 15.873, 23.0557, 38.2517, -28.6249, -29.9129
2.20711, -1, 17.8798, 15.8705, 23.0562, 38.253, -28.6233, -29.9139
2.21611, 2, 17.8834, 15.8674, 23.0569, 38.2545, -28.6215, -29.915
2.22404, 2, 17.8849, 15.8658, 23.0572, 38.2552, -28.6206, -29.9155
2.23206, 2, 17.885, 15.8648, 23.0574, 38.2556, -28.6202, -29.9157
2.24011, 2, 17.8845, 15.8643, 23.0574, 38.2558, -28.62, -29.9158
2.24806, 2, 17.884, 15.8641, 23.0575, 38.2559, -28.62, -29.9159
2.25607, 2, 17.8836, 15.8639, 23.0575, 38.2559, -28.62, -29.9159
2.26309, 2, 17.8834, 15.8638, 23.0575, 38.2559, -28.62, -29.9159
2.27106, 2, 17.8834, 15.8637, 23.0575, 38.2559, -28.62, -29.9159
2.28006, 2, 17.8834, 15.8636, 23.0575, 38.2559, -28.62, -29.9159
2.2881, 2, 17.8834, 15.8634, 23.0575, 38.2559, -28.62, -29.9159
2.29605, 2, 17.8837, 15.8633, 23.0576, 38.2559, -28.62, -29.9159
2.30406, 2, 17.884, 15.8631, 23.0576, 38.2559, -28.62, -29.9158
2.31209, 2, 17.8844, 15.8629, 23.0576, 38.2559, -28.62, -29.9159
2.32004, 2, 17.885, 15.8628, 23.0576, 38.2559, -28.62, -29.9159
2.32807, 2, 17.8857, 15.8627, 23.0576, 38.2559, -28.62, -29.9159
2.33704, 2, 17.8861, 15.8626, 23.0576, 38.2559, -28.62, -29.9159
2.34404, 2, 17.8865, 15.8625, 23.0576, 38.2559, -28.62, -29.9158
2.35205, 2, 17.8867, 15.8625, 23.0576, 38.2559, -28.62, -29.9158
2.3601, 2, 17.8869, 15.8625, 23.0576, 38.2559, -28.62, -29.9158
2.36707, 2, 17.887, 15.8625, 23.0576, 38.2559, -28.62, -29.9158
2.37509, 2, 17.887, 15.8625, 23.0576, 38.2559, -28.6201, -29.9158
2.38411, 2, 17.887, 15.8625, 23.0576, 38.2559, -28.62, -29.9159
2.39107, 2, 17.887, 15.8625, 23.0576, 38.2559, -28.6201, -29.9159
2.40006, 2, 17.887, 15.8625, 23.0576, 38.2559, -28.6202, -29.9159
2.40712, 2, 17.8868, 15.8624, 23.0576, 38.2559, -28.6201, -29.9158
2.41515, 2, 17.8867, 15.8624, 23.0576, 38.2559, -28.6201, -29.9158
2.42319, 2, 17.8866, 15.8624, 23.0576, 38.2559, -28.6202, -29.9159
2.43118, 2, 17.8865, 15.8623, 23.0576, 38.2559, -28.6202, -29.9158
2.43916, 2, 17.8865, 15.8623, 23.0576, 38.2559, -28.6202, -29.9158
2.44723, 2, 17.8865, 15.8623, 23.0576, 38.2559, -28.6202, -29.9158
2.45505, 2, 17.8865, 15.8623, 23.0576, 38.2559, -28.6203, -29.9158
2.46311, 2, 17.8865, 15.8623, 23.0576, 38.2559, -28.6203, -29.9158
2.47116, 2, 17.8865, 15.8623, 23.0576, 38.2559, -28.6203, -29.9157
2.47911, 2, 17.8865, 15.8623, 23.0576, 38.2559, -28.6204, -29.9158
2.48722, 2, 17.8864, 15.8623, 23.0576, 38.2559, -28.6204, -29.9158
2.49528, 2, 17.8864, 15.8623, 23.0576, 38.2559, -28.6204, -29.9158
2.5033, 2, 17.8864, 15.8623, 23.0576, 38.2559, -28.6204, -29.9158
2.5118, 2, 17.8864, 15.8623, 23.0576, 38.2559, -28.6204, -29.9158
2.52009, 2, 17.8864, 15.8623, 23.0576, 38.2559, -28.6204, -29.9158
2.52748, 2, 17.8864, 15.8623, 23.0576, 38.2559, -28.6204, -29.9157
2.53617, 2, 17.8864, 15.8623, 23.0576, 38.2559, -28.6205, -29.9157
2.54359, 2, 17.8863, 15.8623, 23.0576, 38.2559, -28.6205, -29.9157
2.5522, 2, 17.8863, 15.8623, 23.0576, 38.2559, -28.6205, -29.9158
2.55985, 2, 17.8863, 15.8623, 23.0576, 38.2558, -28.6205, -29.9157
2.56818, 2, 17.8863, 15.8623, 23.0576, 38.2557, -28.6205, -29.9157
2.57554, 2, 17.8863, 15.8623, 23.0576, 38.2558, -28.6205, -29.9157
2.58406, 2, 17.8863, 15.8623, 23.0576, 38.2558, -28.6206, -29.9157
2.59107, 2, 17.8863, 15.8623, 23.0576, 38.2558, -28.6206, -29.9157
2.60015, 2, 17.8862, 15.8623, 23.0576, 38.2558, -28.6206, -29.9157
2.60727, 2, 17.8862, 15.8623, 23.0576, 38.2558, -28.6206, -29.9156
2.6162, 2, 17.8862, 15.8623, 23.0576, 38.2558, -28.6206, -29.9157
2.62303, 2, 17.8862, 15.8623, 23.0576, 38.2558, -28.6206, -29.9156
2.63267, 2, 17.8862, 15.8623, 23.0576, 38.2558, -28.6207, -29.9157
2.64041, 2, 17.8862, 15.8623, 23.0576, 38.2558, -28.6207, -29.9156
2.64703, 2, 17.8862, 15.8623, 23.0576, 38.2558, -28.6207, -29.9156
2.6569, 2, 17.8862, 15.8623, 23.0576, 38.2557, -28.6207, -29.9157
2.66457, 2, 17.8862, 15.8623, 23.0576, 38.2557, -28.6208, -29.9156
2.67259, 2, 17.8861, 15.8623, 23.0576, 38.2557, -28.6208, -29.9156
2.68107, 2, 17.8861, 15.8623, 23.0576, 38.2557, -28.6208, -29.9156
2.68862, 2, 17.8861, 15.8623, 23.0576, 38.2558, -28.6208, -29.9157
2.69664, 2, 17.8861, 15.8623, 23.0576, 38.2557, -28.6208, -29.9156
2.70495, 2, 17.8861, 15.8623, 23.0576, 38.2557, -28.6207, -29.9156
2.71204, 2, 17.8861, 15.8623, 23.0576, 38.2557, -28.6207, -29.9156
2.72008, 2, 17.886, 15.8623, 23.0576, 38.2557, -28.6208, -29.9156
2.72891, 2, 17.886, 15.8623, 23.0576, 38.2557, -28.6208, -29.9155
2.73604, 2, 17.886, 15.8624, 23.0576, 38.2557, -28.6208, -29.9155
2.7441, 2, 17.8859, 15.8623, 23.0576, 38.2557, -28.6208, -29.9155
2.75203, 2, 17.8859, 15.8623, 23.0576, 38.2557, -28.6208, -29.9155
2.76006, 2, 17.8858, 15.8623, 23.0576, 38.2557, -28.6209, -29.9155
2.76809, 2, 17.8858, 15.8623, 23.0576, 38.2557, -28.6209, -29.9155
2.77613, 2, 17.8858, 15.8623, 23.0576, 38.2557, -28.6209, -29.9155
2.7831, 2, 17.8857, 15.8623, 23.0576, 38.2557, -28.621, -29.9155
2.79103, 2, 17.8857, 15.8623, 23.0576, 38.2557, -28.621, -29.9154
2.80003, 2, 17.8856, 15.8623, 23.0576, 38.2557, -28.621, -29.9154
2.80711, 2, 17.8856, 15.8623, 23.0576, 38.2557, -28.6209, -29.9154
2.81502, 2, 17.8856, 15.8623, 23.0576, 38.2557, -28.6209, -29.9154
2.82404, 2, 17.8855, 15.8624, 23.0576, 38.2556, -28.6209, -29.9154
2.83205, 2, 17.8855, 15.8624, 23.0576, 38.2557, -28.6209, -29.9154
2.84008, 2, 17.8854, 15.8624, 23.0576, 38.2556, -28.621, -29.9153
2.84803, 2, 17.8854, 15.8624, 23.0576, 38.2556, -28.621, -29.9153
2.85604, 2, 17.8853, 15.8624, 23.0576, 38.2556, -28.621, -29.9153
2.86407, 2, 17.8853, 15.8624, 23.0576, 38.2556, -28.621, -29.9152
2.87205, 2, 17.8853, 15.8624, 23.0576, 38.2556, -28.621, -29.9152
2.87908, 2, 17.8852, 15.8624, 23.0576, 38.2556, -28.621, -29.9151
2.88811, 2, 17.8852, 15.8624, 23.0576, 38.2556, -28.621, -29.9151
2.89504, 2, 17.8852, 15.8624, 23.0576, 38.2556, -28.621, -29.9151
2.90404, 2, 17.8851, 15.8624, 23.0576, 38.2556, -28.6211, -29.9151
2.91211, 2, 17.8851, 15.8624, 23.0576, 38.2555, -28.621, -29.9151
2.91913, 2, 17.885, 15.8624, 23.0576, 38.2555, -28.6211, -29.915
2.92718, 2, 17.885, 15.8624, 23.0576, 38.2555, -28.6211, -29.915
2.93516, 2, 17.8849, 15.8624, 23.0576, 38.2555, -28.6211, -29.915
2.94316, 2, 17.8849, 15.8624, 23.0576, 38.2554, -28.6211, -29.915
2.9512, 2, 17.8848, 15.8624, 23.0576, 38.2554, -28.6211, -29.915
2.95902, 2, 17.8848, 15.8624, 23.0576, 38.2554, -28.6212, -29.915
2.96707, 2, 17.8847, 15.8624, 23.0576, 38.2554, -28.6212, -29.915
2.97516, 2, 17.8847, 15.8624, 23.0576, 38.2554, -28.6212, -29.915
2.98336, 2, 17.8846, 15.8624, 23.0575, 38.2554, -28.6212, -29.915
2.99118, 2, 17.8846, 15.8624, 23.0575, 38.2554, -28.6212, -29.915
2.99937, 2, 17.8845, 15.8624, 23.0575, 38.2554, -28.6212, -29.9149
3.00733, 2, 17.8844, 15.8624, 23.0575, 38.2553, -28.6212, -29.9149
3.01538, 2, 17.8844, 15.8624, 23.0575, 38.2552, -28.6212, -29.9149
3.02354, 2, 17.8844, 15.8624, 23.0576, 38.2552, -28.6213, -29.9149
3.03215, 2, 17.8843, 15.8624, 23.0576, 38.2552, -28.6213, -29.9149
3.03953, 2, 17.8842, 15.8624, 23.0576, 38.2552, -28.6213, -29.9149
3.04815, 2, 17.8842, 15.8624, 23.0576, 38.2551, -28.6213, -29.9149
3.0556, 2, 17.8841, 15.8624, 23.0576, 38.2552, -28.6213, -29.9149
3.06413, 2, 17.8841, 15.8624, 23.0575, 38.2552, -28.6213, -29.9149
3.07172, 2, 17.8841, 15.8624, 23.0575, 38.2552, -28.6213, -29.9149
3.08024, 2, 17.884, 15.8624, 23.0575, 38.2551, -28.6213, -29.9149
3.08703, 2, 17.884, 15.8624, 23.0575, 38.2551, -28.6213, -29.9149
3.09608, 2, 17.8839, 15.8624, 23.0575, 38.2552, -28.6213, -29.9149
3.10305, 2, 17.8839, 15.8624, 23.0575, 38.2552, -28.6214, -29.9149
3.1121, 2, 17.8839, 15.8624, 23.0576, 38.2551, -28.6214, -29.9149
3.1191, 2, 17.8838, 15.8624, 23.0576, 38.2551, -28.6214, -29.9149
3.12859, 2, 17.8838, 15.8624, 23.0575, 38.2551, -28.6213, -29.9149
3.13502, 2, 17.8837, 15.8624, 23.0575, 38.2551, -28.6213, -29.9149
3.14448, 2, 17.8837, 15.8625, 23.0575, 38.255, -28.6213, -29.9149
3.15252, 2, 17.8837, 15.8624, 23.0575, 38.255, -28.6213, -29.9149
3.16047, 2, 17.8837, 15.8624, 23.0575, 38.255, -28.6214, -29.9149
3.16863, 2, 17.8836, 15.8624, 23.0575, 38.2549, -28.6213, -29.9149
3.1768, 2, 17.8836, 15.8624, 23.0575, 38.2549, -28.6214, -29.9149
3.18459, 2, 17.8836, 15.8624, 23.0575, 38.255, -28.6213, -29.9149
3.19266, 2, 17.8836, 15.8625, 23.0575, 38.255, -28.6214, -29.9149
3.20067, 2, 17.8836, 15.8624, 23.0575, 38.2549, -28.6214, -29.9149
3.20855, 2, 17.8836, 15.8625, 23.0575, 38.2549, -28.6214, -29.9149
3.21766, 2, 17.8835, 15.8625, 23.0575, 38.2549, -28.6214, -29.9149
3.22407, 2, 17.8835, 15.8625, 23.0575, 38.2548, -28.6214, -29.9149
3.23201, 2, 17.8835, 15.8625, 23.0575, 38.2548, -28.6214, -29.9149
3.24003, 2, 17.8835, 15.8625, 23.0575, 38.2548, -28.6214, -29.9149
3.24701, 2, 17.8835, 15.8625, 23.0575, 38.2549, -28.6214, -29.9149
3.25601, 2, 17.8835, 15.8625, 23.0575, 38.2548, -28.6214, -29.9149
3.26408, 2, 17.8834, 15.8625, 23.0575, 38.2548, -28.6214, -29.9149
3.27103, 2, 17.8834, 15.8625, 23.0575, 38.2547, -28.6214, -29.9149
3.28001, 2, 17.8834, 15.8625, 23.0575, 38.2547, -28.6214, -29.9149
3.28802, 2, 17.8834, 15.8625, 23.0575, 38.2547, -28.6214, -29.9149
3.29602, 4, 17.8834, 15.8625, 23.0575, 38.2547, -28.6214, -29.9149
3.30401, 4, 17.8834, 15.8625, 23.0575, 38.2547, -28.6215, -29.9149
3.31202, 4, 17.8834, 15.8625, 23.0575, 38.2547, -28.6215, -29.9148
3.32006, 4, 17.8834, 15.8625, 23.0575, 38.2547, -28.6215, -29.9148
3.32802, 4, 17.8833, 15.8625, 23.0575, 38.2547, -28.6214, -29.9148
3.33793, 4, 17.8834, 15.8625, 23.0575, 38.2547, -28.6214, -29.9148
3.34405, 4, 17.8833, 15.8625, 23.0575, 38.2547, -28.6214, -29.9148
3.35201, 4, 17.8834, 15.8625, 23.0575, 38.2546, -28.6214, -29.9149
3.36003, 4, 17.8833, 15.8625, 23.0575, 38.2546, -28.6214, -29.9148
3.36807, 4, 17.8833, 15.8625, 23.0575, 38.2546, -28.6215, -29.9148
3.37604, 4, 17.8833, 15.8625, 23.0575, 38.2546, -28.6215, -29.9148
3.38308, 4, 17.8833, 15.8625, 23.0575, 38.2546, -28.6215, -29.9148
3.39208, 4, 17.8833, 15.8626, 23.0575, 38.2546, -28.6215, -29.9148
3.4049, 4, 17.8833, 15.8626, 23.0575, 38.2546, -28.6215, -29.9148
3.41636, 4, 17.8832, 15.8626, 23.0575, 38.2545, -28.6215, -29.9147
3.41921, 4, 17.8832, 15.8626, 23.0575, 38.2545, -28.6215, -29.9147
3.42511, 4, 17.8832, 15.8626, 23.0575, 38.2545, -28.6215, -29.9147
3.44105, 4, 17.8832, 15.8626, 23.0575, 38.2545, -28.6215, -29.9147
3.44373, 4, 17.8832, 15.8626, 23.0575, 38.2545, -28.6215, -29.9147
3.44818, 4, 17.8832, 15.8626, 23.0575, 38.2545, -28.6215, -29.9147
3.4596, 4, 17.8832, 15.8626, 23.0575, 38.2545, -28.6215, -29.9147
3.46515, 4, 17.8832, 15.8626, 23.0575, 38.2545, -28.6215, -29.9146
3.47208, 4, 17.8825, 15.8626, 23.0575, 38.2545, -28.6215, -29.9146
3.48001, 4, 17.8799, 15.8625, 23.0576, 38.254, -28.6217, -29.9144
3.48715, 4, 17.8737, 15.8624, 23.0585, 38.2505, -28.6224, -29.9125
3.49514, 4, 17.8632, 15.8619, 23.0617, 38.2385, -28.6256, -29.9044
3.50335, 4, 17.8468, 15.8603, 23.0698, 38.2112, -28.6347, -29.8818
3.51128, 4, 17.822, 15.8567, 23.0863, 38.1577, -28.6531, -29.8362
3.52002, 5, 17.7869, 15.8503, 23.1153, 38.0633, -28.6853, -29.7548
3.52747, 5, 17.7415, 15.8401, 23.1609, 37.9147, -28.7376, -29.6257
3.53616, 5, 17.6863, 15.8252, 23.2263, 37.7004, -28.8145, -29.4393
3.54357, 5, 17.6214, 15.8057, 23.313, 37.4161, -28.9184, -29.1914
3.55217, 5, 17.5463, 15.7819, 23.4204, 37.0647, -29.0491, -28.883
3.55958, 5, 17.4613, 15.7543, 23.5461, 36.6549, -29.2038, -28.5228
3.56812, 5, 17.3678, 15.7239, 23.6862, 36.1999, -29.3786, -28.1224
3.57555, 5, 17.3178, 15.7079, 23.7601, 35.9604, -29.5683, -27.6958
3.58412, 5, 17.1542, 15.6585, 23.9915, 35.2148, -29.7679, -27.2554
3.59104, 5, 17.0953, 15.6418, 24.0706, 34.962, -29.8703, -27.0332
3.60012, 5, 16.9094, 15.5923, 24.3091, 34.2028, -30.1837, -26.3667
3.60701, 5, 16.8453, 15.576, 24.3883, 33.951, -30.2897, -26.1461
3.615, 5, 16.7157, 15.5443, 24.5462, 33.4511, -30.5039, -25.7087
3.62419, 5, 16.5185, 15.4984, 24.7824, 32.7102, -30.8291, -25.0625
3.63123, 5, 16.4524, 15.4836, 24.8608, 32.466, -30.9383, -24.8499
3.64043, 5, 16.3204, 15.4549, 25.0936, 31.7418, -31.269, -24.2198
3.64839, 5, 16.1227, 15.414, 25.2476, 31.2661, -31.4917, -23.8068
3.65645, 5, 15.9914, 15.3883, 25.4009, 30.7957, -31.7162, -23.3998
3.663, 5, 15.9258, 15.3758, 25.4772, 30.5625, -31.829, -23.1983
3.67253, 5, 15.729, 15.3403, 25.7041, 29.8723, -32.1698, -22.6025
3.68056, 5, 15.5978, 15.318, 25.8535, 29.4193, -32.3985, -22.2123
3.68863, 6, 15.4665, 15.2968, 26.0021, 28.9719, -32.6287, -21.8278
3.69656, 6, 15.4008, 15.2867, 26.1498, 28.5301, -32.8602, -21.4491
3.70457, 6, 15.2689, 15.2671, 26.2231, 28.3112, -33.0932, -21.0757
3.71273, 6, 15.1364, 15.2484, 26.3689, 27.8772, -33.3275, -20.7074
3.72, 6, 15.0031, 15.2308, 26.5136, 27.4476, -33.4453, -20.525
3.73022, 6, 14.8015, 15.2062, 26.7289, 26.8116, -33.8013, -19.9848
3.73499, 6, 14.734, 15.1983, 26.8003, 26.6019, -33.9208, -19.8067
3.74401, 6, 14.5984, 15.1835, 26.9422, 26.1858, -34.161, -19.4545
3.75202, 6, 14.462, 15.17, 27.083, 25.7741, -34.4027, -19.107
3.76004, 6, 14.325, 15.1577, 27.2227, 25.3669, -34.646, -18.7637
3.768, 6, 14.1874, 15.1465, 27.3616, 24.9642, -34.8909, -18.4251
3.77601, 6, 14.0493, 15.1361, 27.4993, 24.5662, -35.1369, -18.0911
3.78416, 6, 13.9111, 15.127, 27.6359, 24.1723, -35.3843, -17.7615
3.79121, 6, 13.7728, 15.1192, 27.7713, 23.7827, -35.6329, -17.4363
3.79998, 6, 13.6346, 15.1126, 27.9055, 23.3974, -35.8826, -17.1157
3.80699, 6, 13.4966, 15.1071, 28.0387, 23.0166, -36.1336, -16.7998
3.81599, 6, 13.3588, 15.1026, 28.1707, 22.6397, -36.3855, -16.4879
3.82401, 6, 13.2214, 15.0993, 28.3015, 22.267, -36.6386, -16.1805
3.83354, 6, 13.0841, 15.0971, 28.431, 21.8987, -36.8929, -15.8774
3.83999, 6, 12.9467, 15.0959, 28.5594, 21.5343, -37.1482, -15.5782
3.849, 6, 12.8089, 15.0956, 28.6867, 21.1744, -37.4043, -15.2833
3.85496, 7, 12.6703, 15.0961, 28.8127, 20.8185, -37.6614, -14.9926
3.864, 7, 12.5307, 15.0975, 28.9375, 20.4667, -37.9196, -14.7062
3.87203, 7, 12.3905, 15.1001, 29.0609, 20.1188, -38.1785, -14.4235
3.88196, 7, 12.2495, 15.1039, 29.1831, 19.7748, -38.4386, -14.1446
3.88707, 7, 12.1076, 15.1087, 29.3042, 19.4343, -38.6997, -13.8695
3.89608, 7, 11.9654, 15.1148, 29.4242, 19.0973, -38.9618, -13.5979
3.904, 7, 11.823, 15.1218, 29.5433, 18.7634, -39.225, -13.3295
3.91204, 7, 11.6803, 15.1297, 29.6613, 18.4329, -39.4894, -13.0643
3.92009, 7, 11.5372, 15.1389, 29.7781, 18.1055, -39.7547, -12.8026
3.9271, 7, 11.3939, 15.1495, 29.8937, 17.7814, -40.0213, -12.5445
3.93599, 7, 11.2504, 15.1612, 30.0082, 17.4606, -40.2887, -12.2899
3.94409, 7, 11.1067, 15.174, 30.1216, 17.1428, -40.5569, -12.0383
3.952, 7, 10.9629, 15.1879, 30.2339, 16.828, -40.8261, -11.7901
3.96002, 7, 10.819, 15.2033, 30.3451, 16.5166, -41.096, -11.5451
3.96706, 7, 10.6751, 15.2198, 30.4549, 16.2082, -41.3667, -11.3037
3.97512, 7, 10.5313, 15.2375, 30.5635, 15.9029, -41.6382, -11.0649
3.98308, 7, 10.3878, 15.2563, 30.6709, 15.6006, -41.9109, -10.8291
3.99115, 7, 10.2444, 15.2764, 30.7772, 15.3012, -42.1841, -10.5965
3.99948, 7, 10.101, 15.2976, 30.8824, 15.005, -42.4581, -10.3671
4.0073, 7, 9.95735, 15.3198, 30.9864, 14.7118, -42.7327, -10.1409
4.01526, 7, 9.81319, 15.3434, 31.0891, 14.4215, -43.0078, -9.9173
4.02349, 8, 9.66807, 15.368, 31.1903, 14.1346, -43.2834, -9.69696
4.0321, 8, 9.52236, 15.3936, 31.2901, 13.8504, -43.5594, -9.4796
4.04009, 8, 9.37607, 15.4203, 31.3887, 13.5689, -43.8359, -9.26524
4.04796, 8, 9.22904, 15.4482, 31.4862, 13.2903, -44.1129, -9.05371
4.05615, 8, 9.08158, 15.4774, 31.5827, 13.0143, -44.3905, -8.8446
4.06354, 8, 8.93394, 15.5076, 31.6781, 12.7405, -44.6689, -8.63793
4.07216, 8, 8.78605, 15.539, 31.7721, 12.4692, -44.9484, -8.43389
4.0795, 8, 8.7121, 15.555, 31.8186, 12.3344, -45.0886, -8.2325
4.08803, 8, 8.49018, 15.6049, 31.9563, 11.9333, -45.5105, -8.03365
4.09504, 8, 8.41615, 15.6221, 32.0017, 11.8007, -45.6515, -7.93508
4.10439, 8, 8.19345, 15.6756, 32.1363, 11.4069, -46.0752, -7.64293
4.11303, 8, 8.04482, 15.7126, 32.2247, 11.1471, -46.3583, -7.45118
4.11907, 8, 7.9705, 15.7315, 32.2684, 11.018, -46.5001, -7.35625
4.12832, 8, 7.74741, 15.79, 32.3974, 10.6345, -46.926, -7.07501
4.13498, 9, 7.6731, 15.81, 32.4396, 10.5078, -47.0681, -6.98266
4.27197, 9, 5.12118, 16.6561, 33.6935, 6.50967, -51.9613, -4.15413
4.27521, 9, 5.04504, 16.6858, 33.7249, 6.40012, -52.107, -4.07912
4.27785, 9, 4.96895, 16.7157, 33.7561, 6.291, -52.2528, -4.0047
4.27964, 9, 4.96895, 16.7157, 33.7561, 6.291, -52.2528, -4.0047
4.28441, 9, 4.89291, 16.7459, 33.7868, 6.18232, -52.3987, -3.93079
4.28773, 9, 4.81689, 16.7764, 33.8172, 6.07398, -52.5447, -3.85731
4.2905, 9, 4.74089, 16.8071, 33.8473, 5.96605, -52.6907, -3.78434
4.29355, 9, 4.74089, 16.8071, 33.8473, 5.96605, -52.6907, -3.71173
4.2961, 9, 4.66488, 16.8382, 33.8771, 5.85859, -52.8369, -3.71173
4.29962, 9, 4.58888, 16.8696, 33.9067, 5.75156, -52.9832, -3.63972
4.30153, 9, 4.51292, 16.9012, 33.9359, 5.64494, -53.1295, -3.56826
4.3032, 9, 4.51292, 16.9012, 33.9359, 5.64494, -53.1295, -3.56826
4.30438, 9, 4.51292, 16.9012, 33.9359, 5.64494, -53.1295, -3.56826
4.30637, 9, 4.43701, 16.933, 33.9648, 5.53877, -53.2757, -3.49704
4.30757, 9, 4.43701, 16.933, 33.9648, 5.53877, -53.2757, -3.49704
4.31381, 9, 4.43701, 16.933, 33.9648, 5.43305, -53.422, -3.35572
4.31741, 9, 4.28549, 16.9977, 34.0216, 5.32771, -53.5684, -3.28568
4.31885, 9, 4.20986, 17.0304, 34.0496, 5.22274, -53.7148, -3.28568
4.32011, 9, 4.20986, 17.0304, 34.0496, 5.22274, -53.7148, -3.28568
4.32218, 9, 4.13425, 17.0634, 34.0773, 5.11813, -53.8612, -3.21613
4.32428, 9, 4.13425, 17.0634, 34.0773, 5.11813, -53.8612, -3.21613
4.32631, 9, 4.0587, 17.0966, 34.1046, 5.01389, -54.0078, -3.14687
4.32753, 9, 4.0587, 17.0966, 34.1046, 5.01389, -54.0078, -3.14687
4.33017, 9, 3.98329, 17.1301, 34.1316, 4.91013, -54.1542, -3.07804
4.33504, 9, 3.90796, 17.1638, 34.1583, 4.80688, -54.3007, -3.00974
4.34404, 9, 3.75707, 17.2319, 34.2107, 4.60164, -54.5936, -2.8746
4.35199, 9, 3.60537, 17.3013, 34.2614, 4.39792, -54.8863, -2.74224
4.35995, 10, 3.45297, 17.3723, 34.3106, 4.19548, -55.1788, -2.61426
4.36804, 10, 3.3002, 17.4451, 34.3577, 3.99432, -55.471, -2.49233
4.37598, 10, 3.14688, 17.5196, 34.4027, 3.79419, -55.7636, -2.37746
4.38417, 10, 2.99309, 17.5965, 34.4451, 3.59476, -56.0564, -2.26996
4.39098, 10, 2.83917, 17.6759, 34.4842, 3.39573, -56.3496, -2.16908
4.40001, 10, 2.68539, 17.758, 34.52, 3.19711, -56.6433, -2.07472
4.40806, 10, 2.5318, 17.843, 34.5521, 2.99936, -56.9371, -1.9838
4.41598, 10, 2.37845, 17.931, 34.58, 2.80247, -57.2312, -1.89589
4.42419, 10, 2.22486, 18.0223, 34.6037, 2.60685, -57.5252, -1.80777
4.4328, 10, 2.07114, 18.1172, 34.623, 2.41251, -57.819, -1.72021
4.44103, 10, 1.91772, 18.2156, 34.638, 2.21992, -58.1129, -1.63181
4.44802, 10, 1.76452, 18.3175, 34.6484, 2.029, -58.4066, -1.54285
4.45605, 10, 1.61159, 18.4228, 34.6543, 1.8399, -58.6999, -1.45293
4.46397, 10, 1.45896, 18.5315, 34.656, 1.65233, -58.9929, -1.36243
4.47198, 10, 1.30716, 18.6434, 34.6533, 1.46648, -59.2857, -1.27104
4.48005, 10, 1.15614, 18.7585, 34.646, 1.2827, -59.5779, -1.17869
4.48802, 10, 1.00581, 18.8771, 34.6341, 1.10092, -59.8693, -1.08513
4.49599, 10, 0.855965, 18.9991, 34.6176, 0.921063, -60.16, -0.990934
4.50402, 10, 0.706451, 19.1242, 34.5967, 0.743049, -60.4495, -0.895566
4.51197, 10, 0.557316, 19.2523, 34.5711, 0.56708, -60.738, -0.799478
4.52011, 10, 0.408524, 19.3834, 34.541, 0.393498, -61.0254, -0.702259
4.52812, 10, 0.260012, 19.5174, 34.5063, 0.222039, -61.3116, -0.60453
4.53547, 10, 0.111929, 19.6546, 34.4671, 0.052762, -61.5966, -0.50568
4.54351, 10, -0.0355983, 19.7949, 34.4234, -0.114495, -61.8803, -0.406254
4.55228, 10, -0.182739, 19.938, 34.375, -0.279342, -62.1626, -0.305724
4.5595, 10, -0.329132, 20.0838, 34.3223, -0.441807, -62.4435, -0.204787
4.56811, 10, -0.474697, 20.232, 34.265, -0.601773, -62.7229, -0.102679
4.57613, 10, -0.5472, 20.3072, 34.2033, -0.759373, -63.0005, 0.000339025
4.5836, 10, -0.691351, 20.4599, 34.1371, -0.914641, -63.2766, 0.104252
4.59275, 10, -0.905501, 20.6939, 34.0665, -1.06737, -63.5508, 0.209024
4.6003, 10, -1.04684, 20.8527, 33.9914, -1.21749, -63.823, 0.314521
4.60849, 10, -1.18686, 21.0138, 33.9119, -1.36494, -64.0933, 0.420958
4.61499, 10, -1.25629, 21.0956, 33.8704, -1.43762, -64.2276, 0.474377
4.62414, 10, -1.46245, 21.3451, 33.7394, -1.65174, -64.6275, 0.636074
4.63103, 10, -1.53049, 21.4294, 33.6936, -1.72177, -64.7597, 0.69015
4.64032, 10, -1.73205, 21.6851, 33.5501, -1.92785, -65.1526, 0.854024
4.64698, 10, -1.79823, 21.7714, 33.5001, -1.99514, -65.2824, 0.908848
4.6564, 10, -1.99445, 22.0338, 33.3437, -2.19273, -65.6682, 1.07455
4.66302, 10, -2.05932, 22.1221, 33.2893, -2.25723, -65.7954, 1.12979
4.67251, 11, -2.25245, 22.3892, 33.1204, -2.4474, -66.1732, 1.29206
4.68051, 11, -2.38042, 22.5689, 33.0033, -2.57225, -66.4223, 1.39537
4.68855, 11, -2.50807, 22.7505, 32.883, -2.69624, -66.6694, 1.49293
4.69821, 11, -2.6354, 22.9337, 32.7599, -2.81981, -66.9148, 1.58392
4.70302, 11, -2.69882, 23.0255, 32.6973, -2.88156, -67.037, 1.6268
4.71247, 11, -2.82487, 23.2096, 32.5703, -3.00484, -67.2806, 1.70868
4.71999, 11, -2.94988, 23.3949, 32.4412, -3.12804, -67.5234, 1.78439
4.72802, 11, -3.07429, 23.5815, 32.3104, -3.25096, -67.7655, 1.8568
4.73598, 11, -3.19842, 23.7686, 32.178, -3.37328, -68.0068, 1.92734
4.74398, 11, -3.32243, 23.9558, 32.0443, -3.49495, -68.247, 1.99548
4.75201, 11, -3.44624, 24.1442, 31.9092, -3.61583, -68.4863, 2.06366
4.75996, 11, -3.56959, 24.3335, 31.7727, -3.7357, -68.7252, 2.13074
4.76796, 11, -3.69228, 24.5231, 31.6349, -3.85485, -68.9632, 2.19699
4.77611, 11, -3.81442, 24.7119, 31.4959, -3.97279, -69.2003, 2.26355
4.78313, 11, -3.93631, 24.9012, 31.3554, -4.08999, -69.4367, 2.32871
4.79096, 11, -4.05756, 25.0913, 31.2136, -4.20619, -69.6722, 2.39334
4.79998, 11, -4.17819, 25.2814, 31.0706, -4.32154, -69.9071, 2.45829
4.80801, 11, -4.29826, 25.4714, 30.9265, -4.43621, -70.141, 2.52185
4.81596, 11, -4.41771, 25.6623, 30.7811, -4.5498, -70.374, 2.58511
4.82396, 11, -4.53643, 25.854, 30.6343, -4.66242, -70.6059, 2.64846
4.83202, 11, -4.6543, 26.0456, 30.4862, -4.77407, -70.8367, 2.71046
4.84154, 12, -4.77166, 26.2371, 30.3373, -4.88462, -71.0662, 2.77222
4.84796, 12, -4.88867, 26.4293, 30.1874, -4.99425, -71.2945, 2.83398
4.85602, 12, -5.00534, 26.622, 30.0359, -5.10285, -71.5217, 2.89435
4.86396, 12, -5.12191, 26.8144, 29.883, -5.21064, -71.7478, 2.95452
4.87197, 12, -5.23819, 27.0068, 29.7289, -5.31783, -71.9731, 3.01507
4.88009, 12, -5.35429, 27.2, 29.5738, -5.42405, -72.1971, 3.07432
4.88802, 12, -5.46992, 27.3938, 29.4171, -5.5296, -72.4205, 3.13336
4.89596, 12, -5.58508, 27.5874, 29.2589, -5.6343, -72.6432, 3.19257
4.90404, 12, -5.70006, 27.7811, 29.0994, -5.73817, -72.8651, 3.25101
4.91196, 12, -5.81505, 27.9757, 28.9391, -5.84133, -73.0862, 3.30928
4.91998, 12, -5.9298, 28.1707, 28.7773, -5.94364, -73.3062, 3.36801
4.92803, 12, -6.04429, 28.3654, 28.6138, -6.0453, -73.5253, 3.42592
4.93597, 12, -6.15844, 28.5605, 28.4488, -6.14627, -73.7435, 3.48311
4.94452, 12, -6.27216, 28.7565, 28.2831, -6.24643, -73.9607, 3.54081
4.95114, 12, -6.38532, 28.9526, 28.1161, -6.34597, -74.1772, 3.598
4.95914, 12, -6.49789, 29.1481, 27.9474, -6.44457, -74.3926, 3.65437
4.96702, 12, -6.60989, 29.3439, 27.7772, -6.54221, -74.607, 3.71101
4.97598, 12, -6.72131, 29.5405, 27.6065, -6.63914, -74.8204, 3.76747
4.98311, 12, -6.8322, 29.7371, 27.4347, -6.73517, -75.0329, 3.82314
4.99106, 12, -6.94259, 29.9331, 27.261, -6.83042, -75.2441, 3.87864
4.99915, 12, -7.05248, 30.1296, 27.086, -6.92511, -75.4542, 3.93442
5.0072, 12, -7.1622, 30.3272, 26.9104, -7.01901, -75.6631, 3.98918
5.016, 13, -7.27155, 30.5249, 26.7337, -7.11203, -75.8708, 4.04341
5.02333, 13, -7.3805, 30.7224, 26.5551, -7.20426, -76.0773, 4.09823
5.03145, 13, -7.48906, 30.9207, 26.3754, -7.29572, -76.2826, 4.15255
5.03949, 13, -7.59714, 31.1195, 26.1952, -7.38632, -76.4871, 4.20608
5.04805, 13, -7.70473, 31.3177, 26.0134, -7.47615, -76.6907, 4.26
5.05556, 13, -7.81154, 31.5157, 25.8293, -7.56553, -76.8937, 4.31392
5.06413, 13, -7.91754, 31.7144, 25.6442, -7.65402, -77.0959, 4.36715
5.0715, 13, -8.02298, 31.9137, 25.4584, -7.74198, -77.2972, 4.4205
5.08007, 13, -8.12829, 32.1126, 25.2704, -7.82943, -77.4977, 4.47437
5.08813, 13, -8.23337, 32.3116, 25.0809, -7.91627, -77.6969, 4.52778
5.09494, 13, -8.28579, 32.4115, 24.9859, -7.95925, -77.7963, 4.55414
5.10367, 13, -8.39043, 32.6116, 24.7954, -8.04479, -77.994, 4.63345
5.11233, 13, -8.5469, 32.9114, 24.5059, -8.17165, -78.2886, 4.68685
5.11905, 13, -8.59891, 33.0115, 24.4087, -8.21365, -78.3864, 4.71321
5.12816, 13, -8.75459, 33.313, 24.1163, -8.33812, -78.6775, 4.7917
5.13496, 13, -8.80634, 33.4136, 24.0181, -8.37935, -78.7741, 4.81819
5.14423, 13, -8.96093, 33.7148, 23.7207, -8.50175, -79.0621, 4.89699
5.15095, 13, -9.01228, 33.8152, 23.6212, -8.54206, -79.1576, 4.92288
5.1608, 13, -9.16554, 34.1171, 23.3213, -8.6624, -79.4425, 5.00106
5.16842, 13, -9.26713, 34.3181, 23.119, -8.74155, -79.6308, 5.05345
5.17497, 13, -9.3178, 34.4186, 23.0177, -8.78119, -79.7246, 5.07936
5.18455, 14, -9.46937, 34.7217, 22.7124, -8.89805, -80.0044, 5.15621
5.19249, 14, -9.57015, 34.9243, 22.5066, -8.97536, -80.1895, 5.20816
5.20061, 14, -9.67048, 35.1263, 22.3, -9.0516, -80.3735, 5.25984
5.20879, 14, -9.72048, 35.2273, 22.1965, -9.0896, -80.4651, 5.31084
5.21594, 14, -9.82006, 35.4299, 21.9883, -9.16453, -80.6478, 5.33645
5.22472, 14, -9.91902, 35.6328, 21.7779, -9.23941, -80.9198, 5.41395
5.23194, 14, -10.0174, 35.8351, 21.5666, -9.31326, -81.0101, 5.43965
5.23997, 14, -10.1153, 36.0377, 21.3538, -9.38684, -81.1896, 5.49071
5.24799, 14, -10.2128, 36.2413, 21.1388, -9.45944, -81.3683, 5.5422
5.25594, 14, -10.31, 36.4452, 20.923, -9.53199, -81.5458, 5.59434
5.26396, 14, -10.4071, 36.6486, 20.7064, -9.60333, -81.7223, 5.64608
5.27195, 14, -10.5038, 36.8528, 20.4878, -9.67465, -81.8977, 5.69741
5.27996, 14, -10.6001, 37.0577, 20.2682, -9.74465, -82.0718, 5.74921
5.28801, 14, -10.6957, 37.2623, 20.0473, -9.81478, -82.2449, 5.80133
5.29594, 14, -10.7906, 37.4669, 19.8245, -9.8833, -82.4168, 5.85286
5.30395, 14, -10.8851, 37.6727, 19.6007, -9.95197, -82.5879, 5.90447
5.312, 14, -10.9789, 37.8787, 19.376, -10.0189, -82.7578, 5.95679
5.31996, 14, -11.0721, 38.084, 19.1494, -10.0861, -82.9267, 6.00852
5.32795, 14, -11.1647, 38.289, 18.922, -10.1518, -83.0943, 6.05987
5.33601, 14, -11.2569, 38.4944, 18.6934, -10.2175, -83.2608, 6.11169
5.34583, 15, -11.3949, 38.8022, 18.3473, -10.3139, -83.5082, 6.18987
5.35194, 15, -11.4409, 38.905, 18.2317, -10.3461, -83.5901, 6.21551
5.36002, 15, -11.5328, 39.1113, 17.9996, -10.4097, -83.7531, 6.26694
5.36795, 15, -11.6246, 39.3183, 17.7656, -10.472, -83.9147, 6.31906
5.37595, 15, -11.7162, 39.5249, 17.5307, -10.5348, -84.0754, 6.37115
5.38402, 15, -11.8074, 39.7315, 17.2941, -10.5955, -84.2348, 6.42273
5.392, 15, -11.8983, 39.9387, 17.0559, -10.6569, -84.3933, 6.47484
5.39995, 15, -11.9887, 40.1459, 16.8169, -10.7168, -84.551, 6.52762
5.40802, 15, -12.0785, 40.3529, 16.5759, -10.7766, -84.7076, 6.57985
5.41595, 15, -12.1682, 40.5608, 16.3332, -10.8357, -84.8633, 6.63216
5.42395, 15, -12.2575, 40.7697, 16.0895, -10.8934, -85.0176, 6.68551
5.43194, 15, -12.3466, 40.9784, 15.8437, -10.9516, -85.1711, 6.73885
5.44, 15, -12.4352, 41.1868, 15.597, -11.0081, -85.3232, 6.79164
5.448, 15, -12.5229, 41.3955, 15.3492, -11.0645, -85.4745, 6.84479
5.45596, 15, -12.6092, 41.6033, 15.0999, -11.1202, -85.6241, 6.89859
5.46394, 15, -12.6936, 41.8091, 14.8506, -11.1744, -85.7727, 6.95197
5.47201, 15, -12.776, 42.0127, 14.6014, -11.2291, -85.9194, 7.00503
5.47995, 15, -12.8553, 42.2125, 14.3541, -11.2817, -86.0638, 7.05835
5.48794, 15, -12.9305, 42.4051, 14.1119, -11.333, -86.2044, 7.11049
5.496, 15, -13.0007, 42.588, 13.8772, -11.3826, -86.3396, 7.16037
5.50398, 15, -13.0659, 42.76, 13.6546, -11.4282, -86.4668, 7.20788
5.51127, 15, -13.1255, 42.9187, 13.4488, -11.4699, -86.5835, 7.25248
5.51924, 15, -13.1794, 43.062, 13.2629, -11.5076, -86.6874, 7.29229
5.52729, 15, -13.2282, 43.1889, 13.1013, -11.5394, -86.7759, 7.32621
5.53546, 15, -13.2718, 43.2992, 12.9661, -11.565, -86.8495, 7.35429
5.54407, 15, -13.3098, 43.3923, 12.8569, -11.5849, -86.9068, 7.3763
5.55203, 15, -13.3426, 43.4685, 12.7727, -11.5998, -86.95, 7.39294
5.56011, 15, -13.3697, 43.5289, 12.7106, -11.6104, -86.9809, 7.40485
5.56753, 15, -13.3913, 43.5748, 12.6669, -11.6176, -87.002, 7.41279
5.57606, 15, -13.4081, 43.6081, 12.6374, -11.6221, -87.0153, 7.41804
5.58427, 15, -13.4205, 43.632, 12.6187, -11.6248, -87.0231, 7.4211
5.59203, 15, -13.4295, 43.6488, 12.6073, -11.6262, -87.0273, 7.42272
5.59896, 15, -13.4328, 43.6549, 12.6035, -11.6267, -87.0286, 7.42327
5.60824, 16, -13.439, 43.6656, 12.597, -11.6275, -87.0306, 7.42409
5.61494, 16, -13.4401, 43.6675, 12.5958, -11.6276, -87.0308, 7.4242
5.62408, 16, -13.4418, 43.6705, 12.5935, -11.6279, -87.0312, 7.42433
5.63096, 16, -13.4419, 43.6711, 12.5929, -11.628, -87.0313, 7.42436
5.64018, 16, -13.4421, 43.6727, 12.5918, -11.6281, -87.0314, 7.42438
5.64696, 16, -13.4421, 43.6732, 12.5916, -11.6281, -87.0314, 7.42442
5.65639, 16, -13.4422, 43.6751, 12.5913, -11.6281, -87.0314, 7.42452
5.66298, 16, -13.4422, 43.6758, 12.5913, -11.6281, -87.0314, 7.42449
5.6724, 16, -13.4422, 43.6777, 12.5913, -11.6281, -87.0314, 7.4245
5.68056, 16, -13.4421, 43.6789, 12.5914, -11.6281, -87.0314, 7.42451
5.68853, 16, -13.4421, 43.6798, 12.5914, -11.6281, -87.0314, 7.42446
5.69649, 16, -13.4421, 43.6806, 12.5914, -11.6281, -87.0313, 7.42455
5.70462, 16, -13.4421, 43.681, 12.5916, -11.6281, -87.0313, 7.42449
5.71245, 16, -13.442, 43.6811, 12.5917, -11.6282, -87.0312, 7.42447
5.71992, 16, -13.442, 43.6812, 12.5918, -11.6282, -87.0311, 7.4245
5.72854, 16, -13.4419, 43.6812, 12.5919, -11.6282, -87.031, 7.42452
