hehonglu123/ABB_Primitive_Study/realrobot/movec_30_ori/curve_exe_vmax_z10.csv
timestamp, cmd_num, J1, J2, J3, J4, J5, J6
0.000415, -1, -18.7698, 34.1304, 27.9443, -19.9674, -90.5845, -2.05549
0.003371, -1, -18.7698, 34.1304, 27.9443, -19.9674, -90.5845, -2.05549
0.007854, -1, -18.7698, 34.1305, 27.9443, -19.9674, -90.5845, -2.05549
0.02969, -1, -18.7698, 34.1304, 27.9443, -19.9673, -90.5845, -2.05546
0.031557, -1, -18.7698, 34.1304, 27.9443, -19.9673, -90.5845, -2.05546
0.034352, -1, -18.7698, 34.1304, 27.9443, -19.9673, -90.5845, -2.05546
0.038586, -1, -18.7698, 34.1304, 27.9443, -19.9673, -90.5845, -2.05546
0.047813, -1, -18.7696, 34.1304, 27.9443, -19.9673, -90.5845, -2.05546
0.055743, -1, -18.7683, 34.1302, 27.9443, -19.9673, -90.5845, -2.05544
0.06382, -1, -18.7647, 34.129, 27.9444, -19.9672, -90.5843, -2.0554
0.071977, -1, -18.7577, 34.1262, 27.9445, -19.9664, -90.583, -2.05551
0.078583, -1, -18.7528, 34.1239, 27.9447, -19.9649, -90.5814, -2.05561
0.088765, -1, -18.7298, 34.1123, 27.9449, -19.9515, -90.568, -2.05752
0.096134, -1, -18.7045, 34.0994, 27.9448, -19.9313, -90.5473, -2.06478
0.104111, -1, -18.6693, 34.0815, 27.944, -19.897, -90.5114, -2.0798
0.112882, -1, -18.6227, 34.0579, 27.9418, -19.8425, -90.4545, -2.10429
0.120251, -1, -18.5633, 34.0276, 27.9375, -19.764, -90.3726, -2.14063
0.128172, -1, -18.5284, 34.0099, 27.9305, -19.6572, -90.2602, -2.19151
0.136932, -1, -18.448, 33.9692, 27.9257, -19.5922, -90.1152, -2.25703
0.144123, -1, -18.3537, 33.9216, 27.9136, -19.4384, -90.0298, -2.29519
0.151565, -1, -18.2458, 33.8673, 27.898, -19.2533, -89.8341, -2.38393
0.159632, -1, -18.124, 33.806, 27.8795, -19.0389, -89.6075, -2.48589
0.166566, -1, -17.9888, 33.7382, 27.8584, -18.7996, -89.3538, -2.6001
0.175564, -1, -17.8415, 33.6647, 27.8355, -18.5405, -89.0784, -2.72398
0.183557, -1, -17.6837, 33.5857, 27.8114, -18.2667, -88.7873, -2.85491
0.191636, -1, -17.5163, 33.5019, 27.7868, -17.9827, -88.4856, -2.99105
0.199638, -1, -17.341, 33.4143, 27.7619, -17.6928, -88.1771, -3.13025
0.207549, -1, -17.1602, 33.324, 27.7368, -17.3989, -87.8646, -3.27166
0.215615, -1, -16.9755, 33.2318, 27.7117, -17.1028, -87.5498, -3.41401
0.223556, -1, -16.7882, 33.1388, 27.6866, -16.8055, -87.2335, -3.55682
0.231552, -1, -16.5993, 33.0452, 27.6616, -16.507, -86.9159, -3.70007
0.239712, -1, -16.4095, 32.9514, 27.6364, -16.2079, -86.5974, -3.84354
0.247595, -1, -16.2196, 32.8576, 27.6113, -15.908, -86.2782, -3.98724
0.255549, -1, -16.0296, 32.7638, 27.5862, -15.607, -85.9583, -4.13127
0.265209, -1, -15.8401, 32.6701, 27.5612, -15.1551, -85.4774, -4.34769
0.271558, -1, -15.6513, 32.5763, 27.5361, -15.0043, -85.3168, -4.42015
0.280564, -1, -15.4626, 32.4825, 27.5108, -14.7022, -84.9956, -4.56511
0.287641, -1, -15.2745, 32.3884, 27.4855, -14.3999, -84.6739, -4.70984
0.295563, -1, -15.0867, 32.2941, 27.4602, -14.0972, -84.3517, -4.85494
0.303594, -1, -14.8989, 32.1994, 27.4349, -13.7939, -84.0294, -5.00007
0.311576, -1, -14.7107, 32.1043, 27.4094, -13.4906, -83.7067, -5.14542
0.319642, -1, -14.5214, 32.009, 27.3837, -13.1872, -83.3838, -5.29088
0.327617, -1, -14.3311, 31.9137, 27.3581, -12.8836, -83.0606, -5.43647
0.335567, -1, -14.1396, 31.8182, 27.3325, -12.5798, -82.737, -5.58236
0.343565, -1, -13.9475, 31.7226, 27.3069, -12.2757, -82.4134, -5.72823
0.351615, -1, -13.755, 31.6271, 27.2812, -11.9713, -82.0893, -5.87396
0.359645, -1, -13.5618, 31.5316, 27.2556, -11.667, -81.7652, -6.01962
0.367566, -1, -13.3681, 31.4362, 27.2299, -11.3626, -81.4413, -6.16525
0.375639, -1, -13.1743, 31.3408, 27.2043, -11.0582, -81.1172, -6.31112
0.383552, -1, -12.9812, 31.2456, 27.1787, -10.754, -80.7933, -6.4569
0.392078, -1, -12.7888, 31.1505, 27.1531, -10.4494, -80.4698, -6.60273
0.398578, -1, -12.5968, 31.0555, 27.1276, -10.1451, -80.1463, -6.74875
0.407554, -1, -12.4059, 30.9603, 27.102, -9.8409, -79.8229, -6.89453
0.416389, -1, -12.2158, 30.8651, 27.0763, -9.5368, -79.4994, -7.04015
0.423557, -1, -12.0264, 30.7699, 27.0507, -9.23289, -79.1759, -7.18578
0.431671, -1, -11.8376, 30.6746, 27.0251, -8.92936, -78.8526, -7.33105
0.440406, -1, -11.6488, 30.5793, 26.9996, -8.62577, -78.5294, -7.47644
0.447556, -1, -11.4597, 30.4841, 26.974, -8.32265, -78.2066, -7.62167
0.45591, -1, -11.2702, 30.3891, 26.9484, -8.02017, -77.8847, -7.76691
0.464436, -1, -11.0804, 30.2942, 26.9229, -7.71793, -77.563, -7.91177
0.471659, -1, -10.8902, 30.1996, 26.8975, -7.41631, -77.2419, -8.05627
0.480047, -1, -10.6996, 30.1053, 26.8722, -7.1151, -76.9215, -8.20041
0.48845, -1, -10.5089, 30.0111, 26.8467, -6.81418, -76.6016, -8.34419
0.49566, -1, -10.3179, 29.917, 26.8215, -6.51405, -76.2819, -8.48775
0.504307, -1, -10.1274, 29.8232, 26.7963, -6.21448, -75.9628, -8.63097
0.51246, -1, -9.93763, 29.7296, 26.7712, -5.91524, -75.6441, -8.77402
0.51961, -1, -9.74864, 29.6362, 26.7461, -5.61678, -75.3262, -8.91713
0.52839, -1, -9.5606, 29.5429, 26.721, -5.31874, -75.0093, -9.05959
0.53652, -1, -9.37337, 29.4497, 26.6959, -5.02117, -74.693, -9.20179
0.543637, -1, -9.18721, 29.3567, 26.6709, -4.72485, -74.3776, -9.34351
0.55275, -1, -9.00202, 29.2639, 26.646, -4.42894, -74.0627, -9.48489
0.560648, -1, -8.81761, 29.1711, 26.6211, -4.13391, -73.7488, -9.62612
0.567936, -1, -8.63395, 29.0785, 26.5963, -3.83997, -73.4357, -9.76699
0.576773, -1, -8.45044, 28.9863, 26.5715, -3.54626, -73.1234, -9.90743
0.583974, -1, -8.26726, 28.8945, 26.5469, -3.25384, -72.8122, -10.0477
0.592074, -1, -8.08424, 28.8029, 26.5222, -2.9624, -72.5019, -10.1872
0.601244, -1, -7.90107, 28.7117, 26.4976, -2.67156, -72.1922, -10.3264
0.608099, -1, -7.71799, 28.6209, 26.4732, -2.38193, -71.8837, -10.465
0.616182, -1, -7.53516, 28.5304, 26.449, -2.09308, -71.576, -10.603
0.625007, -1, -7.35251, 28.4402, 26.4248, -1.80492, -71.2694, -10.7409
0.632146, -1, -7.26136, 28.3951, 26.4127, -1.51781, -70.9639, -10.8784
0.64018, -1, -7.07953, 28.3054, 26.3885, -1.23182, -70.6593, -11.0152
0.647549, -1, -6.89845, 28.216, 26.3645, -1.08919, -70.5075, -11.0836
0.655537, -1, -6.71843, 28.1268, 26.3406, -0.804744, -70.2048, -11.22
0.66359, -1, -6.53946, 28.0379, 26.3168, -0.521457, -69.9034, -11.3557
0.671543, -1, -6.36162, 27.9492, 26.2929, -0.239008, -69.6032, -11.4909
0.679598, -1, -6.1851, 27.8609, 26.2691, 0.042511, -69.3038, -11.6255
0.68657, -1, -6.00949, 27.773, 26.2455, 0.322855, -69.0055, -11.7597
0.695635, -1, -5.83489, 27.6852, 26.2221, 0.60193, -68.7083, -11.8934
0.703543, -1, -5.66113, 27.5978, 26.1986, 0.880121, -68.412, -12.0267
0.711535, -1, -5.48782, 27.5108, 26.1752, 1.15714, -68.1168, -12.1595
0.719594, -1, -5.31496, 27.4243, 26.1519, 1.43288, -67.8231, -12.2918
0.727539, -1, -5.14224, 27.338, 26.1287, 1.70786, -67.5305, -12.4235
0.735543, -1, -4.96986, 27.2522, 26.1058, 1.98165, -67.2394, -12.5545
0.743602, -1, -4.79782, 27.1668, 26.0829, 2.25389, -66.9494, -12.6846
0.751529, -1, -4.62628, 27.0818, 26.0599, 2.52526, -66.6609, -12.8143
0.759548, -1, -4.45522, 26.9971, 26.0372, 2.79526, -66.3736, -12.9435
0.767604, -1, -4.28444, 26.9127, 26.0145, 3.06387, -66.0874, -13.072
0.776595, -1, -4.11423, 26.8287, 25.992, 3.33174, -65.8025, -13.2001
0.783539, -1, -3.94501, 26.745, 25.9696, 3.59829, -65.5187, -13.328
0.791626, -1, -3.77711, 26.6617, 25.9472, 3.8636, -65.236, -13.4551
0.799668, -1, -3.61043, 26.5788, 25.925, 4.1279, -64.9546, -13.5814
0.808526, -1, -3.44485, 26.4961, 25.9028, 4.39096, -64.6746, -13.7073
0.815574, -1, -3.28027, 26.4138, 25.8806, 4.65273, -64.3959, -13.8325
0.823541, -1, -3.11678, 26.3318, 25.8586, 4.9135, -64.1184, -13.9569
0.83159, -1, -2.95459, 26.2502, 25.8367, 5.17325, -63.8422, -14.0811
0.839547, -1, -2.79317, 26.1689, 25.815, 5.43176, -63.5671, -14.2048
0.847535, -1, -2.63249, 26.0881, 25.7935, 5.68885, -63.2935, -14.3277
0.855608, -1, -2.4722, 26.0077, 25.7719, 5.94485, -63.021, -14.4504
0.863587, -1, -2.31207, 25.9278, 25.7505, 6.19956, -62.7499, -14.5725
0.871534, -1, -2.15226, 25.8482, 25.729, 6.45299, -62.48, -14.6938
0.879622, -1, -1.99289, 25.769, 25.7078, 6.70555, -62.2112, -14.8147
0.887535, -1, -1.834, 25.6902, 25.6866, 6.95704, -61.9436, -14.9348
0.895532, -1, -1.67572, 25.6118, 25.6657, 7.20718, -61.6771, -15.0542
0.9036, -1, -1.51779, 25.5337, 25.6448, 7.45601, -61.4119, -15.1734
0.911531, -1, -1.36016, 25.4559, 25.6238, 7.70402, -61.1477, -15.292
0.919545, -1, -1.20312, 25.3785, 25.6031, 7.95072, -60.8846, -15.4101
0.927602, -1, -1.04715, 25.3013, 25.5825, 8.19633, -60.623, -15.5281
0.935548, -1, -0.892296, 25.2245, 25.5619, 8.44109, -60.3625, -15.6451
1.07715, -1, 1.69211, 23.9358, 25.2168, 12.5456, -55.9935, -17.6099
1.07837, -1, 1.69211, 23.9358, 25.2168, 12.5456, -55.9935, -17.6099
1.08048, -1, 1.76358, 23.9005, 25.2074, 12.6582, -55.8738, -17.6636
1.08172, -1, 1.76358, 23.9005, 25.2074, 12.6582, -55.8738, -17.6636
1.08296, -1, 1.76358, 23.9005, 25.2074, 12.6582, -55.8738, -17.6636
1.08513, -1, 1.83477, 23.8653, 25.198, 12.7706, -55.7543, -17.7174
1.08642, -1, 1.83477, 23.8653, 25.198, 12.7706, -55.7543, -17.7174
1.09214, -1, 1.97626, 23.7951, 25.1791, 12.9946, -55.5162, -17.8247
1.09444, -1, 1.97626, 23.7951, 25.1791, 12.9946, -55.5162, -17.8247
1.09644, -1, 2.04667, 23.7601, 25.1697, 13.1061, -55.3975, -17.8782
1.0977, -1, 2.04667, 23.7601, 25.1697, 13.1061, -55.3975, -17.8782
1.09889, -1, 2.04667, 23.7601, 25.1697, 13.1061, -55.3975, -17.8782
1.10098, -1, 2.11687, 23.7251, 25.1604, 13.2173, -55.2791, -17.9315
1.10225, -1, 2.11687, 23.7251, 25.1604, 13.2173, -55.2791, -17.9315
1.10418, -1, 2.18684, 23.6903, 25.1511, 13.3283, -55.1609, -17.9846
1.10648, -1, 2.18684, 23.6903, 25.1511, 13.3283, -55.1609, -17.9846
1.10849, -1, 2.25659, 23.6555, 25.1418, 13.4391, -55.0429, -18.0375
1.10985, -1, 2.25659, 23.6555, 25.1418, 13.4391, -55.0429, -18.0375
1.11102, -1, 2.25659, 23.6555, 25.1418, 13.4391, -55.0429, -18.0375
1.1138, -1, 2.32605, 23.6208, 25.1325, 13.5496, -54.9251, -18.0905
1.11502, -1, 2.32605, 23.6208, 25.1325, 13.5496, -54.9251, -18.0905
1.11861, -1, 2.39523, 23.5862, 25.1232, 13.66, -54.8076, -18.1434
1.12271, -1, 2.46418, 23.5517, 25.114, 13.7702, -54.6903, -18.1959
1.12817, -1, 2.60151, 23.4828, 25.0957, 13.9898, -54.4563, -18.301
1.137, -1, 2.66977, 23.4484, 25.0865, 14.0992, -54.2233, -18.4052
1.1441, -1, 2.80556, 23.38, 25.0681, 14.3171, -54.1074, -18.4573
1.15213, -1, 2.94069, 23.3118, 25.0499, 14.5343, -53.8763, -18.5611
1.15953, -1, 3.0756, 23.2438, 25.0317, 14.7506, -53.6461, -18.6648
1.16753, -1, 3.21043, 23.1762, 25.0135, 14.9657, -53.417, -18.7676
1.17558, -1, 3.34528, 23.1089, 24.9956, 15.18, -53.1888, -18.8705
1.18352, -1, 3.47989, 23.0419, 24.9778, 15.3936, -52.9615, -18.9728
1.19159, -1, 3.61423, 22.9751, 24.9598, 15.6064, -52.7354, -19.0747
1.1996, -1, 3.74824, 22.9087, 24.9421, 15.8182, -52.51, -19.1757
1.20754, -1, 3.88177, 22.8425, 24.9244, 16.0289, -52.2858, -19.2768
1.21558, -1, 4.01496, 22.7767, 24.9067, 16.2389, -52.0624, -19.377
1.22352, -1, 4.14771, 22.7111, 24.8891, 16.448, -51.8398, -19.4771
1.23152, -1, 4.28007, 22.6458, 24.8717, 16.6561, -51.618, -19.5766
1.23959, -1, 4.41181, 22.5807, 24.8542, 16.8633, -51.3971, -19.6758
1.24752, -1, 4.54263, 22.5159, 24.8369, 17.0699, -51.1772, -19.7747
1.25563, -1, 4.67293, 22.4512, 24.8196, 17.2758, -50.9581, -19.8731
1.26359, -1, 4.80242, 22.3868, 24.8023, 17.4806, -50.7397, -19.9714
1.27152, -1, 4.93114, 22.3226, 24.7852, 17.6848, -50.5224, -20.0692
1.28058, -1, 5.05905, 22.2587, 24.7682, 17.888, -50.3059, -20.1668
1.28759, -1, 5.18625, 22.195, 24.7512, 18.0906, -50.0902, -20.2634
1.29554, -1, 5.31264, 22.1316, 24.7341, 18.2923, -49.8755, -20.3601
1.30352, -1, 5.43805, 22.0684, 24.7172, 18.4933, -49.6614, -20.456
1.3116, -1, 5.56269, 22.0055, 24.7004, 18.6935, -49.4484, -20.5518
1.31957, -1, 5.68685, 21.9429, 24.6835, 18.893, -49.2363, -20.6471
1.32752, -1, 5.81069, 21.8805, 24.6668, 19.0919, -49.025, -20.7423
1.33555, -1, 5.93443, 21.8185, 24.6503, 19.2896, -48.8149, -20.8368
1.34359, -1, 6.05814, 21.7566, 24.6337, 19.4868, -48.6053, -20.9315
1.35152, -1, 6.18174, 21.695, 24.6172, 19.6832, -48.3965, -21.0254
1.35953, -1, 6.30515, 21.6336, 24.6009, 19.8789, -48.1881, -21.1194
1.36762, -1, 6.42832, 21.5724, 24.5845, 20.0736, -47.9807, -21.2128
1.37558, -1, 6.55128, 21.5113, 24.568, 20.2676, -47.7741, -21.306
1.38353, -1, 6.67386, 21.4506, 24.5519, 20.461, -47.568, -21.3982
1.39158, -1, 6.79615, 21.39, 24.5357, 20.654, -47.3626, -21.4907
1.39952, -1, 6.91795, 21.3298, 24.5195, 20.8459, -47.158, -21.5821
1.40787, -1, 7.03926, 21.2698, 24.5033, 21.0371, -46.954, -21.6739
1.41554, -1, 7.15996, 21.21, 24.4873, 21.2278, -46.7509, -21.7647
1.42352, -1, 7.28005, 21.1505, 24.4713, 21.4177, -46.5486, -21.8558
1.43231, -1, 7.39956, 21.0912, 24.4555, 21.6072, -46.3471, -21.946
1.43951, -1, 7.51846, 21.0322, 24.4398, 21.7956, -46.1464, -22.0364
1.44759, -1, 7.63689, 20.9732, 24.4241, 21.9834, -45.9464, -22.1261
1.45638, -1, 7.75486, 20.9145, 24.4083, 22.1706, -45.7474, -22.2161
1.46356, -1, 7.87231, 20.856, 24.3926, 22.3573, -45.5488, -22.3054
1.47159, -1, 7.9892, 20.7976, 24.377, 22.5436, -45.3512, -22.3946
1.48049, -1, 8.10551, 20.7393, 24.3613, 22.7289, -45.1544, -22.4829
1.48765, -1, 8.22127, 20.6812, 24.3458, 22.9134, -44.9582, -22.5715
1.49563, -1, 8.33662, 20.6234, 24.3305, 23.0973, -44.7625, -22.6592
1.50441, -1, 8.45168, 20.5657, 24.3151, 23.2809, -44.5673, -22.747
1.51163, -1, 8.56629, 20.5083, 24.2997, 23.4636, -44.3726, -22.834
1.51955, -1, 8.68036, 20.4512, 24.2843, 23.6456, -44.1786, -22.9212
1.52842, -1, 8.79402, 20.3942, 24.2691, 23.827, -43.9852, -23.008
1.53559, -1, 8.90738, 20.3375, 24.2539, 24.008, -43.7922, -23.0946
1.54358, -1, 9.02047, 20.281, 24.2387, 24.1884, -43.6003, -23.181
1.55316, -1, 9.13356, 20.2245, 24.2238, 24.3682, -43.4089, -23.267
1.55968, -1, 9.24658, 20.1683, 24.2089, 24.5473, -43.2182, -23.3531
1.56806, -1, 9.35954, 20.1123, 24.1938, 24.7257, -43.0282, -23.4385
1.57586, -1, 9.47219, 20.0564, 24.1787, 24.9036, -42.8387, -23.5241
1.58386, -1, 9.58441, 20.0006, 24.1638, 25.0812, -42.6498, -23.6086
1.59204, -1, 9.69616, 19.9451, 24.1489, 25.2579, -42.4616, -23.6936
1.60005, -1, 9.80754, 19.8896, 24.134, 25.4342, -42.274, -23.7776
1.60804, -1, 9.9187, 19.8344, 24.1193, 25.6099, -42.0868, -23.8618
1.61629, -1, 10.0295, 19.7794, 24.1048, 25.7852, -41.9006, -23.9451
1.6241, -1, 10.1399, 19.7246, 24.0902, 25.9601, -41.7148, -24.0286
1.63229, -1, 10.2499, 19.67, 24.0754, 26.1343, -41.5296, -24.1119
1.64031, -1, 10.3048, 19.6427, 24.0608, 26.3078, -41.3448, -24.1946
1.64807, -1, 10.4141, 19.5884, 24.0535, 26.3944, -41.2526, -24.2363
1.65556, -1, 10.5229, 19.5342, 24.039, 26.5672, -41.0687, -24.3187
1.6635, -1, 10.6314, 19.4801, 24.0244, 26.7396, -40.8852, -24.4014
1.67151, -1, 10.7395, 19.4263, 24.0101, 26.9112, -40.7025, -24.4837
1.67958, -1, 10.8472, 19.3726, 23.9959, 27.0824, -40.52, -24.5658
1.6875, -1, 10.9545, 19.3189, 23.9816, 27.253, -40.3381, -24.6478
1.69554, -1, 11.0614, 19.2654, 23.9672, 27.4232, -40.157, -24.7288
1.70359, -1, 11.168, 19.2122, 23.9529, 27.5931, -39.9762, -24.8104
1.7115, -1, 11.2742, 19.159, 23.9386, 27.7622, -39.7961, -24.891
1.71956, -1, 11.3799, 19.106, 23.9245, 27.9308, -39.6164, -24.972
1.72901, -1, 11.5378, 19.0269, 23.9032, 28.1829, -39.3481, -25.0924
1.73551, -1, 11.5902, 19.0007, 23.8962, 28.2666, -39.2589, -25.1327
1.7435, -1, 11.6951, 18.9482, 23.8824, 28.434, -39.0808, -25.2129
1.75157, -1, 11.7998, 18.896, 23.8684, 28.6008, -38.9034, -25.2925
1.75956, -1, 11.9043, 18.844, 23.8543, 28.767, -38.7264, -25.3725
1.76751, -1, 12.0087, 18.792, 23.8403, 28.9328, -38.5497, -25.4516
1.7755, -1, 12.113, 18.7401, 23.8264, 29.0981, -38.3738, -25.5313
1.78451, -1, 12.2171, 18.6883, 23.8125, 29.2632, -38.1985, -25.6102
1.79156, -1, 12.3209, 18.6367, 23.7987, 29.4278, -38.0238, -25.6893
1.79953, -1, 12.4245, 18.5852, 23.785, 29.5918, -37.8495, -25.7679
1.80751, -1, 12.5279, 18.5338, 23.7714, 29.7553, -37.6755, -25.8458
1.8156, -1, 12.6309, 18.4826, 23.7577, 29.9184, -37.5021, -25.9244
1.82351, -1, 12.7337, 18.4314, 23.7439, 30.0811, -37.3288, -26.0016
1.8315, -1, 12.8362, 18.3805, 23.7302, 30.2434, -37.1562, -26.0795
1.83956, -1, 12.9383, 18.3299, 23.7166, 30.4051, -36.984, -26.1565
1.84751, -1, 13.04, 18.2794, 23.703, 30.5664, -36.812, -26.2333
1.85552, -1, 13.1414, 18.229, 23.6894, 30.7271, -36.6408, -26.3106
1.86357, -1, 13.2424, 18.1788, 23.676, 30.8876, -36.4697, -26.3868
1.87153, -1, 13.343, 18.1287, 23.6628, 31.0478, -36.2994, -26.4637
1.87951, -1, 13.4434, 18.0787, 23.6494, 31.2075, -36.1293, -26.5398
1.88761, -1, 13.5435, 18.0287, 23.636, 31.3666, -35.9598, -26.6161
1.89552, -1, 13.6435, 17.9788, 23.6226, 31.5253, -35.7908, -26.6924
1.90351, -1, 13.7432, 17.9291, 23.6093, 31.6835, -35.6221, -26.7679
1.91156, -1, 13.8427, 17.8793, 23.596, 31.8416, -35.4541, -26.844
1.9195, -1, 13.942, 17.8297, 23.5827, 31.9993, -35.2864, -26.919
1.92751, -1, 14.0411, 17.7802, 23.5694, 32.1564, -35.119, -26.9944
1.93558, -1, 14.1401, 17.731, 23.5564, 32.3131, -34.9524, -27.0693
1.9435, -1, 14.2387, 17.6818, 23.5433, 32.4694, -34.7862, -27.1437
1.95168, -1, 14.3368, 17.6329, 23.5302, 32.6255, -34.6204, -27.2187
1.9595, -1, 14.4346, 17.5841, 23.517, 32.7814, -34.455, -27.2925
1.96755, -1, 14.5321, 17.5355, 23.5039, 32.9367, -34.2897, -27.3669
1.97579, -1, 14.6292, 17.487, 23.491, 33.0916, -34.1249, -27.441
1.98361, -1, 14.726, 17.4387, 23.478, 33.246, -33.9603, -27.5145
1.99161, -1, 14.8226, 17.3904, 23.4651, 33.4001, -33.7962, -27.5886
1.99985, -1, 14.9189, 17.3422, 23.4522, 33.5539, -33.6326, -27.662
2.00762, -1, 15.0152, 17.294, 23.4395, 33.7073, -33.4692, -27.7358
2.01561, -1, 15.1113, 17.2459, 23.4267, 33.8603, -33.306, -27.8092
2.02416, -1, 15.2072, 17.1979, 23.4138, 34.0129, -33.1436, -27.8822
2.03153, -1, 15.3031, 17.1499, 23.4009, 34.1649, -32.9813, -27.9555
2.04024, -1, 15.3989, 17.1021, 23.3881, 34.3168, -32.8198, -28.0278
2.0476, -1, 15.4947, 17.0544, 23.3753, 34.4685, -32.6586, -28.1005
2.05561, -1, 15.5904, 17.0069, 23.3625, 34.6198, -32.4977, -28.1729
2.06444, -1, 15.6858, 16.9596, 23.3497, 34.7706, -32.3372, -28.2449
2.07191, -1, 15.781, 16.9123, 23.3372, 34.9211, -32.177, -28.3174
2.07981, -1, 15.8759, 16.8653, 23.3247, 35.0711, -32.0171, -28.3887
2.08864, -1, 15.9707, 16.8184, 23.3121, 35.2208, -31.8578, -28.4603
2.09596, -1, 16.0651, 16.7717, 23.2995, 35.3705, -31.6987, -28.5322
2.10408, -1, 16.1591, 16.7251, 23.2869, 35.5197, -31.5399, -28.6032
2.11261, -1, 16.2527, 16.6785, 23.2745, 35.6684, -31.3819, -28.6747
2.1201, -1, 16.3461, 16.6319, 23.2621, 35.8168, -31.2237, -28.7457
2.12805, -1, 16.4393, 16.5854, 23.2496, 35.9649, -31.0661, -28.8166
2.13711, -1, 16.5322, 16.5389, 23.2371, 36.1128, -30.9088, -28.888
2.14416, -1, 16.5786, 16.5157, 23.2248, 36.2606, -30.7517, -28.9582
2.15203, -1, 16.6712, 16.4693, 23.2186, 36.3343, -30.6732, -28.9935
2.15949, -1, 16.7635, 16.423, 23.2062, 36.4814, -30.5168, -29.0643
2.16753, -1, 16.8558, 16.3768, 23.1939, 36.628, -30.3605, -29.1341
2.17549, -1, 16.948, 16.3308, 23.1814, 36.7744, -30.2048, -29.2042
2.18355, -1, 17.04, 16.2849, 23.1691, 36.9205, -30.0491, -29.2742
2.19155, -1, 17.1316, 16.2392, 23.1569, 37.0664, -29.8939, -29.3436
2.19959, -1, 17.2218, 16.1941, 23.1445, 37.2117, -29.7389, -29.4134
2.20754, -1, 17.3085, 16.1507, 23.132, 37.3563, -29.585, -29.4823
2.21554, -1, 17.3904, 16.1097, 23.1194, 37.4986, -29.4332, -29.5502
2.22348, -1, 17.4668, 16.0717, 23.1069, 37.6364, -29.2863, -29.6167
2.2315, -1, 17.5375, 16.0368, 23.0948, 37.7661, -29.1477, -29.6788
2.23953, -1, 17.6013, 16.0058, 23.0836, 37.8844, -29.0214, -29.7355
2.24748, -1, 17.6576, 15.9784, 23.0738, 37.9874, -28.9109, -29.7855
2.25548, -1, 17.7075, 15.9538, 23.0662, 38.0716, -28.8205, -29.8266
2.26356, -1, 17.7514, 15.9311, 23.061, 38.1373, -28.7497, -29.8583
2.2715, -1, 17.7892, 15.9116, 23.0579, 38.1836, -28.6992, -29.8809
2.27949, -1, 17.8199, 15.8959, 23.0562, 38.2147, -28.6652, -29.896
2.28754, -1, 17.8443, 15.884, 23.0554, 38.2341, -28.644, -29.9052
2.29549, -1, 17.8628, 15.8754, 23.0551, 38.2451, -28.6319, -29.9102
2.3035, -1, 17.8749, 15.8698, 23.055, 38.2507, -28.6257, -29.9128
2.31153, 2, 17.8813, 15.8669, 23.0549, 38.2534, -28.6227, -29.9141
2.3195, 2, 17.8842, 15.8655, 23.0549, 38.2547, -28.6213, -29.9147
2.32749, 2, 17.8851, 15.8648, 23.0549, 38.2553, -28.6206, -29.915
2.33555, 2, 17.8848, 15.8645, 23.0549, 38.2556, -28.6202, -29.9152
2.34348, 2, 17.8841, 15.8644, 23.055, 38.2558, -28.6201, -29.9152
2.35149, 2, 17.8834, 15.8643, 23.055, 38.2558, -28.6201, -29.9153
2.35955, 2, 17.883, 15.8643, 23.055, 38.2559, -28.6201, -29.9153
2.36748, 2, 17.8829, 15.8642, 23.0549, 38.2559, -28.62, -29.9153
2.37553, 2, 17.8828, 15.864, 23.0549, 38.2559, -28.62, -29.9153
2.38355, 2, 17.883, 15.8638, 23.0549, 38.2559, -28.62, -29.9153
2.39149, 2, 17.8832, 15.8635, 23.0549, 38.2559, -28.62, -29.9153
2.39948, 2, 17.8837, 15.8632, 23.0549, 38.2559, -28.62, -29.9153
2.40755, 2, 17.8841, 15.8629, 23.0549, 38.2559, -28.62, -29.9153
2.41548, 2, 17.8848, 15.8627, 23.0549, 38.2559, -28.62, -29.9152
2.42348, 2, 17.8857, 15.8627, 23.0549, 38.2558, -28.62, -29.9153
2.43156, 2, 17.8864, 15.8626, 23.0549, 38.2558, -28.62, -29.9152
2.43948, 2, 17.8869, 15.8626, 23.0549, 38.2559, -28.62, -29.9152
2.44749, 2, 17.8873, 15.8626, 23.0549, 38.2559, -28.6201, -29.9152
2.4556, 2, 17.8875, 15.8626, 23.0549, 38.2559, -28.6201, -29.9153
2.46349, 2, 17.8876, 15.8626, 23.0549, 38.2559, -28.6201, -29.9153
2.47155, 2, 17.8877, 15.8626, 23.0549, 38.2559, -28.6202, -29.9153
2.47963, 2, 17.8877, 15.8626, 23.0549, 38.2559, -28.6202, -29.9153
2.4876, 2, 17.8877, 15.8626, 23.0549, 38.2559, -28.6202, -29.9152
2.49558, 2, 17.8876, 15.8626, 23.0549, 38.2559, -28.6202, -29.9153
2.50365, 2, 17.8874, 15.8625, 23.0549, 38.2558, -28.6202, -29.9152
2.5116, 2, 17.8872, 15.8624, 23.0549, 38.2558, -28.6202, -29.9153
2.51955, 2, 17.8871, 15.8623, 23.0549, 38.2558, -28.6202, -29.9153
2.52761, 2, 17.887, 15.8623, 23.0549, 38.2558, -28.6202, -29.9153
2.53557, 2, 17.8869, 15.8623, 23.0549, 38.2558, -28.6203, -29.9153
2.54355, 2, 17.8869, 15.8623, 23.0549, 38.2559, -28.6203, -29.9153
2.55159, 2, 17.8869, 15.8623, 23.0549, 38.2559, -28.6203, -29.9152
2.55963, 2, 17.8869, 15.8623, 23.0549, 38.2559, -28.6203, -29.9153
2.56793, 2, 17.887, 15.8624, 23.0549, 38.2559, -28.6203, -29.9153
2.57589, 2, 17.887, 15.8624, 23.0549, 38.2559, -28.6204, -29.9153
2.58405, 2, 17.887, 15.8624, 23.0549, 38.2559, -28.6204, -29.9153
2.59222, 2, 17.887, 15.8624, 23.0549, 38.2559, -28.6204, -29.9153
2.59998, 2, 17.887, 15.8624, 23.0549, 38.2559, -28.6204, -29.9152
2.60804, 2, 17.887, 15.8624, 23.0549, 38.2559, -28.6204, -29.9152
2.6163, 2, 17.887, 15.8623, 23.0549, 38.2558, -28.6205, -29.9152
2.6241, 2, 17.8869, 15.8623, 23.0549, 38.2558, -28.6205, -29.9152
2.63231, 2, 17.8869, 15.8623, 23.0549, 38.2558, -28.6205, -29.9152
2.6403, 2, 17.8868, 15.8623, 23.0549, 38.2559, -28.6205, -29.9152
2.64812, 2, 17.8868, 15.8623, 23.0549, 38.2559, -28.6205, -29.9152
2.65549, 2, 17.8868, 15.8623, 23.0549, 38.2559, -28.6205, -29.9152
2.6643, 2, 17.8868, 15.8624, 23.0549, 38.2559, -28.6205, -29.9152
2.67154, 2, 17.8868, 15.8624, 23.0549, 38.2558, -28.6205, -29.9152
2.67948, 2, 17.8868, 15.8624, 23.0549, 38.2558, -28.6205, -29.9152
2.68747, 2, 17.8867, 15.8624, 23.055, 38.2558, -28.6205, -29.9151
2.69552, 2, 17.8867, 15.8624, 23.0549, 38.2558, -28.6205, -29.9151
2.70348, 2, 17.8867, 15.8624, 23.0549, 38.2558, -28.6205, -29.9151
2.71152, 2, 17.8867, 15.8624, 23.0549, 38.2557, -28.6206, -29.9151
2.71952, 2, 17.8867, 15.8624, 23.055, 38.2558, -28.6206, -29.9151
2.72747, 2, 17.8867, 15.8624, 23.055, 38.2558, -28.6206, -29.9151
2.73547, 2, 17.8866, 15.8624, 23.055, 38.2557, -28.6206, -29.9152
2.74352, 2, 17.8866, 15.8624, 23.0549, 38.2558, -28.6207, -29.9151
2.75147, 2, 17.8866, 15.8624, 23.0549, 38.2557, -28.6207, -29.9152
2.75947, 2, 17.8866, 15.8624, 23.055, 38.2557, -28.6207, -29.9151
2.76753, 2, 17.8866, 15.8624, 23.055, 38.2557, -28.6207, -29.9151
2.77729, 2, 17.8866, 15.8624, 23.055, 38.2557, -28.6208, -29.9151
2.78346, 2, 17.8865, 15.8624, 23.055, 38.2557, -28.6207, -29.9152
2.79157, 2, 17.8865, 15.8624, 23.055, 38.2557, -28.6208, -29.9151
2.80052, 2, 17.8865, 15.8624, 23.055, 38.2557, -28.6208, -29.9151
2.80748, 2, 17.8865, 15.8624, 23.055, 38.2557, -28.6208, -29.9152
2.81651, 2, 17.8864, 15.8624, 23.055, 38.2557, -28.6208, -29.9151
2.82348, 2, 17.8864, 15.8624, 23.055, 38.2557, -28.6208, -29.9152
2.83148, 2, 17.8863, 15.8624, 23.0549, 38.2557, -28.6208, -29.9152
2.83953, 2, 17.8863, 15.8624, 23.055, 38.2557, -28.6208, -29.9151
2.84746, 2, 17.8862, 15.8624, 23.0549, 38.2557, -28.6208, -29.9151
2.85547, 2, 17.8862, 15.8624, 23.055, 38.2557, -28.6208, -29.9151
2.86353, 2, 17.8861, 15.8624, 23.055, 38.2556, -28.6209, -29.9151
2.8715, 2, 17.8861, 15.8624, 23.055, 38.2556, -28.6209, -29.9152
2.87951, 2, 17.8861, 15.8624, 23.055, 38.2556, -28.6209, -29.9152
2.88752, 2, 17.886, 15.8624, 23.055, 38.2556, -28.6209, -29.9151
2.89546, 2, 17.886, 15.8625, 23.055, 38.2556, -28.6209, -29.915
2.90347, 2, 17.8859, 15.8625, 23.055, 38.2556, -28.6209, -29.9151
2.91154, 2, 17.8859, 15.8625, 23.055, 38.2556, -28.6209, -29.915
2.91946, 2, 17.8858, 15.8625, 23.055, 38.2557, -28.621, -29.9151
2.92746, 2, 17.8858, 15.8625, 23.055, 38.2556, -28.6209, -29.9151
2.93554, 2, 17.8857, 15.8625, 23.055, 38.2556, -28.621, -29.9151
2.94346, 2, 17.8857, 15.8625, 23.055, 38.2556, -28.621, -29.9151
2.95147, 2, 17.8856, 15.8625, 23.055, 38.2556, -28.621, -29.9151
2.95956, 2, 17.8856, 15.8625, 23.055, 38.2556, -28.6209, -29.9151
2.96746, 2, 17.8855, 15.8625, 23.055, 38.2556, -28.621, -29.9151
2.97552, 2, 17.8855, 15.8625, 23.055, 38.2556, -28.621, -29.9151
2.98362, 2, 17.8854, 15.8625, 23.055, 38.2556, -28.6211, -29.9151
2.99164, 2, 17.8854, 15.8625, 23.055, 38.2556, -28.6211, -29.9151
2.99956, 2, 17.8854, 15.8625, 23.055, 38.2556, -28.6211, -29.9151
3.00763, 2, 17.8853, 15.8625, 23.055, 38.2555, -28.6211, -29.9151
3.01558, 2, 17.8852, 15.8625, 23.055, 38.2556, -28.6212, -29.9151
3.02354, 2, 17.8852, 15.8625, 23.055, 38.2555, -28.6212, -29.9151
3.0316, 2, 17.8851, 15.8625, 23.055, 38.2555, -28.6212, -29.915
3.03949, 2, 17.8851, 15.8625, 23.055, 38.2555, -28.6212, -29.9151
3.04753, 2, 17.885, 15.8625, 23.055, 38.2554, -28.6212, -29.9151
3.05563, 2, 17.885, 15.8625, 23.055, 38.2554, -28.6211, -29.9151
3.06358, 2, 17.8849, 15.8625, 23.055, 38.2554, -28.6212, -29.915
3.07169, 2, 17.8849, 15.8625, 23.055, 38.2554, -28.6212, -29.915
3.07986, 2, 17.8848, 15.8625, 23.055, 38.2554, -28.6212, -29.915
3.08792, 2, 17.8848, 15.8625, 23.055, 38.2553, -28.6212, -29.915
3.09652, 2, 17.8847, 15.8625, 23.055, 38.2553, -28.6212, -29.915
3.10417, 2, 17.8847, 15.8625, 23.055, 38.2553, -28.6212, -29.9151
3.112, 2, 17.8846, 15.8625, 23.055, 38.2553, -28.6212, -29.9151
3.11999, 2, 17.8846, 15.8625, 23.055, 38.2553, -28.6212, -29.915
3.12858, 2, 17.8845, 15.8625, 23.055, 38.2553, -28.6212, -29.915
3.13602, 2, 17.8845, 15.8625, 23.055, 38.2553, -28.6212, -29.915
3.14406, 2, 17.8844, 15.8625, 23.055, 38.2553, -28.6212, -29.915
3.15225, 2, 17.8844, 15.8625, 23.055, 38.2553, -28.6212, -29.915
3.15948, 2, 17.8843, 15.8625, 23.055, 38.2553, -28.6212, -29.915
3.16745, 2, 17.8843, 15.8625, 23.055, 38.2553, -28.6212, -29.915
3.17551, 2, 17.8842, 15.8625, 23.055, 38.2552, -28.6212, -29.915
3.18345, 2, 17.8842, 15.8625, 23.055, 38.2551, -28.6212, -29.915
3.19146, 2, 17.8842, 15.8625, 23.055, 38.2552, -28.6212, -29.915
3.19951, 2, 17.8841, 15.8625, 23.055, 38.2552, -28.6212, -29.915
3.20747, 2, 17.8841, 15.8625, 23.055, 38.2551, -28.6212, -29.915
3.21549, 2, 17.8841, 15.8626, 23.055, 38.2551, -28.6213, -29.915
3.2235, 2, 17.8841, 15.8626, 23.055, 38.2552, -28.6213, -29.915
3.23146, 2, 17.884, 15.8625, 23.055, 38.2551, -28.6213, -29.9149
3.23945, 2, 17.884, 15.8626, 23.055, 38.2551, -28.6213, -29.9149
3.2475, 2, 17.884, 15.8626, 23.055, 38.2551, -28.6212, -29.9149
3.25546, 2, 17.884, 15.8626, 23.055, 38.2551, -28.6212, -29.9149
3.26345, 2, 17.8839, 15.8626, 23.055, 38.2551, -28.6212, -29.9149
3.27152, 2, 17.884, 15.8626, 23.055, 38.2551, -28.6213, -29.9149
3.28102, 2, 17.8839, 15.8625, 23.055, 38.2551, -28.6213, -29.9149
3.28743, 2, 17.8839, 15.8626, 23.055, 38.2551, -28.6213, -29.9149
3.29554, 2, 17.8839, 15.8626, 23.055, 38.2551, -28.6214, -29.9149
3.3045, 2, 17.8839, 15.8626, 23.055, 38.255, -28.6214, -29.9149
3.31163, 2, 17.8839, 15.8626, 23.055, 38.2549, -28.6214, -29.9149
3.31943, 2, 17.8838, 15.8626, 23.055, 38.2549, -28.6214, -29.9149
3.32747, 2, 17.8838, 15.8626, 23.055, 38.2549, -28.6213, -29.9149
3.33552, 2, 17.8838, 15.8626, 23.055, 38.2549, -28.6214, -29.9149
3.34345, 2, 17.8838, 15.8626, 23.055, 38.2549, -28.6214, -29.9149
3.35142, 2, 17.8838, 15.8626, 23.055, 38.2549, -28.6214, -29.9148
3.35951, 2, 17.8838, 15.8626, 23.055, 38.2549, -28.6214, -29.9149
3.36745, 2, 17.8838, 15.8626, 23.055, 38.2549, -28.6214, -29.9149
3.37542, 4, 17.8838, 15.8626, 23.055, 38.2549, -28.6214, -29.9149
3.38355, 4, 17.8838, 15.8626, 23.055, 38.2549, -28.6214, -29.9148
3.39145, 4, 17.8838, 15.8626, 23.055, 38.2549, -28.6214, -29.9148
3.39949, 4, 17.8837, 15.8626, 23.055, 38.2548, -28.6214, -29.9148
3.40751, 4, 17.8837, 15.8626, 23.055, 38.2548, -28.6214, -29.9149
3.41546, 4, 17.8838, 15.8626, 23.055, 38.2548, -28.6214, -29.9148
3.42344, 4, 17.8837, 15.8626, 23.055, 38.2548, -28.6214, -29.9148
3.43152, 4, 17.8837, 15.8626, 23.055, 38.2547, -28.6214, -29.9148
3.43945, 4, 17.8837, 15.8626, 23.055, 38.2547, -28.6215, -29.9148
3.44744, 4, 17.8837, 15.8626, 23.055, 38.2547, -28.6215, -29.9148
3.45552, 4, 17.8837, 15.8626, 23.055, 38.2547, -28.6215, -29.9148
3.46352, 4, 17.8836, 15.8626, 23.055, 38.2547, -28.6215, -29.9148
3.47147, 4, 17.8836, 15.8626, 23.055, 38.2547, -28.6215, -29.9147
3.48132, 4, 17.8836, 15.8626, 23.055, 38.2547, -28.6215, -29.9147
3.50854, 4, 17.8836, 15.8627, 23.055, 38.2546, -28.6215, -29.9147
3.51105, 4, 17.8836, 15.8627, 23.055, 38.2546, -28.6215, -29.9147
3.51526, 4, 17.8835, 15.8627, 23.055, 38.2546, -28.6215, -29.9147
3.51729, 4, 17.8835, 15.8627, 23.055, 38.2546, -28.6215, -29.9147
3.52058, 4, 17.8835, 15.8627, 23.055, 38.2546, -28.6215, -29.9147
3.52804, 4, 17.8835, 15.8627, 23.055, 38.2546, -28.6215, -29.9147
3.54071, 4, 17.8822, 15.8635, 23.055, 38.2545, -28.6215, -29.9146
3.54348, 4, 17.8808, 15.8645, 23.0549, 38.2543, -28.6215, -29.9145
3.55247, 4, 17.8757, 15.8685, 23.0541, 38.2523, -28.6218, -29.9136
3.56029, 4, 17.8671, 15.8773, 23.0517, 38.2451, -28.6228, -29.9085
3.56767, 4, 17.8539, 15.8933, 23.0464, 38.2283, -28.6259, -29.8933
3.57651, 5, 17.8342, 15.9185, 23.0362, 38.1957, -28.633, -29.861
3.58455, 5, 17.806, 15.9548, 23.0193, 38.1379, -28.6459, -29.8028
3.59182, 5, 17.7684, 16.0031, 22.9938, 38.0445, -28.6669, -29.7082
3.60008, 5, 17.7198, 16.0659, 22.9571, 37.9058, -28.6984, -29.5671
3.60874, 5, 17.6583, 16.1459, 22.9076, 37.7124, -28.7437, -29.3701
3.61599, 5, 17.5821, 16.2457, 22.8435, 37.4571, -28.8048, -29.1095
3.62454, 5, 17.4896, 16.3672, 22.7637, 37.1343, -28.8836, -28.7795
3.63203, 5, 17.3794, 16.5114, 22.6671, 36.7409, -28.9829, -28.3771
3.64004, 5, 17.2497, 16.6804, 22.553, 36.275, -29.1034, -27.9017
3.64827, 5, 17.1771, 16.8756, 22.4216, 35.7368, -29.2474, -27.3531
3.65544, 5, 17.0162, 16.9829, 22.3497, 35.4413, -29.3285, -27.0519
3.66346, 5, 16.8336, 17.2165, 22.1938, 34.7979, -29.5104, -26.3966
3.67152, 5, 16.6294, 17.4754, 22.0217, 34.0845, -29.7199, -25.6752
3.67944, 5, 16.4038, 17.76, 21.8337, 33.304, -29.9591, -24.8904
3.68743, 5, 16.1572, 18.068, 21.6314, 32.4607, -30.2297, -24.0437
3.69548, 5, 15.8899, 18.3996, 21.4159, 31.5591, -30.5337, -23.144
3.70343, 5, 15.6016, 18.7527, 21.1872, 30.603, -30.8722, -22.1951
3.71245, 5, 15.2927, 19.126, 20.9482, 29.5994, -31.246, -21.2055
3.71947, 5, 14.9642, 19.5173, 20.7011, 28.5568, -31.6565, -20.1859
3.72743, 5, 14.6161, 19.9262, 20.4463, 27.4816, -32.1036, -19.1402
3.74569, 5, 13.6672, 21.0045, 19.7908, 24.6961, -33.3797, -16.4803
3.74694, 5, 13.6672, 21.0045, 19.7908, 24.6961, -33.3797, -16.4803
3.75149, 5, 13.4662, 21.2272, 19.6585, 24.1303, -33.6611, -15.9494
3.75943, 5, 13.0552, 21.6775, 19.3949, 22.9954, -34.2496, -14.8942
3.77006, 5, 12.6325, 22.3621, 19.0037, 21.3029, -35.1913, -13.3477
3.77701, 5, 12.1982, 22.5922, 18.8757, 20.7451, -35.5194, -12.3509
3.78343, 5, 11.7516, 23.0538, 18.6237, 19.6403, -36.1937, -11.8658
3.79242, 5, 11.2932, 23.5157, 18.3781, 18.5554, -36.891, -10.9216
3.7996, 5, 10.8237, 23.9764, 18.1412, 17.495, -37.6112, -10.015
3.80847, 5, 10.3445, 24.4358, 17.9122, 16.454, -38.3537, -9.14813
3.81546, 5, 9.85729, 24.8921, 17.6918, 15.4339, -39.1162, -8.32068
3.82349, 5, 9.36295, 25.3435, 17.4816, 14.436, -39.8985, -7.5342
3.83147, 5, 8.86123, 25.7896, 17.282, 13.4557, -40.7024, -6.78492
3.83943, 5, 8.35272, 26.2285, 17.0937, 12.4906, -41.5274, -6.07359
3.8475, 5, 7.83893, 26.6588, 16.918, 11.5434, -42.3715, -5.40233
3.85554, 5, 7.32325, 27.0796, 16.7545, 10.6166, -43.231, -4.76954
3.86349, 5, 6.80821, 27.4898, 16.6038, 9.70873, -44.1015, -4.17848
3.87144, 5, 6.29551, 27.8878, 16.4677, 8.82468, -44.9795, -3.63076
3.87943, 5, 5.78401, 28.2719, 16.3467, 7.96831, -45.86, -3.12705
3.88754, 5, 5.27312, 28.6417, 16.2407, 7.14164, -46.734, -2.66781
3.89544, 5, 4.76324, 28.996, 16.15, 6.34492, -47.5962, -2.25261
3.90343, 5, 4.25816, 29.3333, 16.0745, 5.58174, -48.4454, -1.87988
3.91152, 5, 3.76395, 29.6521, 16.014, 4.85157, -49.276, -1.54812
3.91943, 5, 3.2836, 29.9508, 15.9678, 4.15561, -50.0811, -1.25518
3.92743, 5, 2.81805, 30.2308, 15.9354, 3.49393, -50.8594, -0.997924
3.93551, 5, 2.36619, 30.4929, 15.9155, 2.86622, -51.6101, -0.773554
3.94343, 5, 1.926, 30.739, 15.9065, 2.27351, -52.3306, -0.577554
3.95143, 5, 1.49537, 30.9727, 15.9069, 1.71469, -53.0224, -0.402018
3.95956, 6, 1.07273, 31.1951, 15.916, 1.18915, -53.6903, -0.236423
3.96746, 6, 0.657152, 31.407, 15.9338, 0.693916, -54.3428, -0.0693699
3.97564, 6, 0.245929, 31.6117, 15.96, 0.224228, -54.9922, 0.108002
3.98351, 6, -0.16387, 31.8112, 15.9955, -0.226193, -55.6502, 0.301298
3.99153, 6, -0.574652, 32.0043, 16.0409, -0.664583, -56.3273, 0.513046
3.99987, 6, -0.987219, 32.1909, 16.0972, -1.09878, -57.0304, 0.74035
4.00753, 6, -1.40167, 32.3736, 16.1657, -1.53514, -57.7645, 0.977618
4.01554, 6, -1.81799, 32.5552, 16.2476, -1.97867, -58.5346, 1.21786
4.02392, 6, -2.23956, 32.7367, 16.3431, -2.43174, -59.3419, 1.45427
4.03144, 6, -2.67254, 32.9182, 16.4531, -2.8952, -60.1847, 1.68275
4.03944, 6, -3.12148, 33.1, 16.5782, -3.37012, -61.0615, 1.89983
4.04837, 6, -3.58895, 33.2813, 16.7194, -3.857, -61.9745, 2.10321
4.05551, 6, -4.07346, 33.4601, 16.8777, -4.35484, -62.9237, 2.29098
4.06439, 6, -4.57194, 33.6348, 17.054, -4.86443, -63.9054, 2.4603
4.07166, 6, -5.08105, 33.8046, 17.2492, -5.38501, -64.9178, 2.60935
4.07965, 6, -5.60024, 33.9679, 17.4651, -5.91558, -65.9615, 2.73589
4.08771, 6, -6.1305, 34.1229, 17.7015, -6.45512, -67.0307, 2.83827
4.09655, 6, -6.67075, 34.2686, 17.9574, -7.0024, -68.1172, 2.91451
4.10384, 6, -7.2182, 34.4045, 18.2337, -7.55625, -69.2198, 2.96497
4.11201, 6, -7.76932, 34.5296, 18.5286, -8.11309, -70.3319, 2.98948
4.11998, 6, -8.31979, 34.6429, 18.8413, -8.67249, -71.4421, 2.98689
4.12868, 6, -8.86636, 34.7439, 19.1695, -9.23136, -72.5472, 2.95453
4.13605, 6, -9.40806, 34.8318, 19.5119, -9.78635, -73.6419, 2.89652
4.144, 6, -9.67728, 34.9063, 19.8656, -10.3371, -74.7169, 2.81197
4.15205, 6, -10.2128, 34.9385, 20.0463, -10.8814, -75.7666, 2.7038
4.16004, 6, -10.7433, 34.9932, 20.4135, -11.1504, -76.2817, 2.57354
4.16744, 6, -11.2645, 35.0348, 20.7878, -11.6821, -77.2901, 2.50069
4.17647, 6, -12.0181, 35.0743, 21.3565, -12.4606, -78.7355, 2.25515
4.18347, 6, -12.2609, 35.0813, 21.5474, -12.7142, -79.1997, 2.16506
4.19142, 6, -12.7354, 35.0869, 21.9299, -13.2122, -80.1017, 1.97471
4.19942, 6, -13.1968, 35.0821, 22.3127, -13.6981, -80.9662, 1.77218
4.20746, 6, -13.6452, 35.0675, 22.6935, -14.1721, -81.7924, 1.55951
4.21543, 6, -14.0769, 35.0437, 23.0707, -14.6333, -82.5816, 1.33887
4.22345, 6, -14.4877, 35.012, 23.4438, -15.0808, -83.3333, 1.11205
4.23148, 6, -14.8769, 34.9734, 23.8114, -15.5145, -84.048, 0.881233
4.23942, 6, -15.2468, 34.9287, 24.1723, -15.9325, -84.7243, 0.648568
4.24741, 6, -15.6001, 34.8789, 24.524, -16.3345, -85.3626, 0.415304
4.25791, 6, -16.0992, 34.7972, 25.031, -16.9059, -86.2488, 0.0691951
4.26341, 6, -16.2564, 34.7686, 25.1934, -17.0875, -86.5252, -0.044238
4.27305, 6, -16.699, 34.6804, 25.6607, -17.6043, -87.2972, -0.375035
4.27948, 6, -16.8366, 34.6506, 25.8088, -17.7664, -87.5356, -0.481414
4.28904, 6, -17.0974, 34.5912, 26.0928, -18.0746, -87.9833, -0.786198
4.29546, 6, -17.3387, 34.5328, 26.3585, -18.3607, -88.3923, -0.882188
4.30446, 6, -17.5596, 34.4765, 26.6039, -18.6237, -88.7633, -1.06488
4.31143, 6, -17.759, 34.4235, 26.8291, -18.8631, -89.0962, -1.23394
4.31943, 6, -17.9367, 34.3745, 27.0327, -19.078, -89.3912, -1.38732
4.32748, 6, -18.0927, 34.3299, 27.2134, -19.2679, -89.649, -1.52448
4.33543, 6, -18.2278, 34.2905, 27.3717, -19.4321, -89.8702, -1.64435
4.34341, 6, -18.3435, 34.2562, 27.5067, -19.5703, -90.0554, -1.74636
4.35148, 6, -18.4415, 34.227, 27.6182, -19.6836, -90.2061, -1.83128
4.3594, 6, -18.5231, 34.203, 27.7079, -19.7723, -90.3249, -1.89829
4.36741, 6, -18.5896, 34.1838, 27.7772, -19.8402, -90.4146, -1.95013
4.37548, 6, -18.6424, 34.1687, 27.8284, -19.8889, -90.4799, -1.98844
4.38341, 6, -18.6829, 34.1575, 27.8651, -19.922, -90.524, -2.01521
4.39146, 6, -18.7128, 34.1497, 27.8899, -19.9435, -90.5526, -2.03279
4.39944, 6, -18.7349, 34.1443, 27.9061, -19.9562, -90.5696, -2.04351
4.40741, 6, -18.7508, 34.1406, 27.9167, -19.963, -90.579, -2.0497
4.41541, 6, -18.7614, 34.138, 27.9234, -19.9664, -90.5838, -2.05293
4.42348, 7, -18.7677, 34.1362, 27.9276, -19.968, -90.5861, -2.05459
4.43142, 7, -18.771, 34.1348, 27.9306, -19.9688, -90.5872, -2.05533
4.43941, 7, -18.7722, 34.1338, 27.9328, -19.9692, -90.5876, -2.05572
4.44748, 7, -18.7724, 34.133, 27.9346, -19.9694, -90.5879, -2.05595
4.45542, 7, -18.7725, 34.1323, 27.9362, -19.9695, -90.588, -2.05607
4.46341, 7, -18.7726, 34.1319, 27.9376, -19.9696, -90.588, -2.05618
4.47152, 7, -18.7729, 34.1317, 27.9388, -19.9696, -90.5879, -2.05619
4.47945, 7, -18.7732, 34.1317, 27.9398, -19.9696, -90.588, -2.05621
4.48751, 7, -18.7734, 34.1316, 27.9407, -19.9696, -90.5879, -2.05624
4.49556, 7, -18.7735, 34.1317, 27.9414, -19.9696, -90.5879, -2.05624
4.50353, 7, -18.7736, 34.1317, 27.9421, -19.9696, -90.5878, -2.05624
4.51152, 7, -18.7738, 34.1317, 27.9425, -19.9696, -90.5878, -2.05633
4.51958, 7, -18.774, 34.1316, 27.9429, -19.9695, -90.5877, -2.05623
4.52747, 7, -18.7746, 34.1316, 27.9431, -19.9695, -90.5875, -2.05623
4.53542, 7, -18.7749, 34.1314, 27.9434, -19.9695, -90.5873, -2.05624
4.54384, 7, -18.775, 34.1312, 27.9435, -19.9695, -90.5872, -2.05618
