hehonglu123/ABB_Primitive_Study/realrobot/movec_30_ori/curve_exe_v1500_z1.csv
timestamp, cmd_num, J1, J2, J3, J4, J5, J6
0.000355, -1, -18.7696, 34.1304, 27.9443, -19.9674, -90.5844, -2.05504
0.003307, -1, -18.7696, 34.1303, 27.9443, -19.9674, -90.5845, -2.05504
0.008477, -1, -18.7696, 34.1303, 27.9443, -19.9674, -90.5845, -2.055
0.031938, -1, -18.7696, 34.1303, 27.9443, -19.9674, -90.5844, -2.05503
0.033764, -1, -18.7696, 34.1303, 27.9443, -19.9674, -90.5845, -2.05503
0.035222, -1, -18.7696, 34.1303, 27.9443, -19.9674, -90.5845, -2.05503
0.039095, -1, -18.7696, 34.1304, 27.9443, -19.9674, -90.5844, -2.05504
0.047185, -1, -18.7696, 34.1303, 27.9443, -19.9674, -90.5845, -2.05505
0.055171, -1, -18.769, 34.1303, 27.9443, -19.9674, -90.5845, -2.05498
0.063093, -1, -18.7666, 34.1297, 27.9443, -19.9674, -90.5845, -2.05492
0.071158, -1, -18.7615, 34.1278, 27.9444, -19.967, -90.584, -2.05498
0.079923, -1, -18.7526, 34.1237, 27.9447, -19.9647, -90.5815, -2.0551
0.08816, -1, -18.7389, 34.1169, 27.9449, -19.9576, -90.5745, -2.0556
0.095097, -1, -18.7182, 34.1062, 27.945, -19.9427, -90.5594, -2.05915
0.104106, -1, -18.6881, 34.0908, 27.9446, -19.9161, -90.5319, -2.06983
0.112194, -1, -18.6474, 34.0701, 27.9431, -19.8724, -90.4862, -2.08905
0.119136, -1, -18.5946, 34.0432, 27.9399, -19.8063, -90.4175, -2.11886
0.127954, -1, -18.5282, 34.0096, 27.9344, -19.7142, -90.3208, -2.16204
0.136279, -1, -18.4478, 33.9689, 27.9257, -19.592, -90.1924, -2.2204
0.143129, -1, -18.3535, 33.9214, 27.9136, -19.4383, -90.0303, -2.29299
0.151979, -1, -18.2454, 33.8671, 27.898, -19.2531, -89.8346, -2.3817
0.160158, -1, -18.1235, 33.8059, 27.8795, -19.0387, -89.608, -2.48378
0.167199, -1, -17.9883, 33.7382, 27.8584, -18.7995, -89.3542, -2.59795
0.176028, -1, -17.8411, 33.6646, 27.8354, -18.5404, -89.0788, -2.72193
0.184158, -1, -17.6833, 33.5857, 27.8114, -18.2666, -88.7877, -2.8529
0.191276, -1, -17.5159, 33.5019, 27.7868, -17.9826, -88.486, -2.98907
0.200017, -1, -17.3407, 33.4143, 27.762, -17.6927, -88.1774, -3.12839
0.208163, -1, -17.1599, 33.3239, 27.7368, -17.3988, -87.865, -3.2697
0.215168, -1, -16.9752, 33.2317, 27.7117, -17.1026, -87.5502, -3.41209
0.224131, -1, -16.788, 33.1386, 27.6866, -16.8054, -87.2337, -3.55499
0.231264, -1, -16.5992, 33.0451, 27.6616, -16.5069, -86.9162, -3.69829
0.239634, -1, -16.4094, 32.9513, 27.6365, -16.2077, -86.5976, -3.84169
0.248237, -1, -16.2194, 32.8574, 27.6113, -15.9078, -86.2783, -3.98555
0.255409, -1, -16.0295, 32.7637, 27.5863, -15.6069, -85.9584, -4.12959
0.263748, -1, -15.84, 32.67, 27.5613, -15.3057, -85.638, -4.27381
0.273045, -1, -15.6511, 32.5763, 27.5361, -15.0042, -85.317, -4.41873
0.2802, -1, -15.4625, 32.4824, 27.5108, -14.7022, -84.9958, -4.56359
0.28807, -1, -15.2743, 32.3884, 27.4856, -14.3998, -84.674, -4.70854
0.296949, -1, -15.0866, 32.294, 27.4603, -14.0972, -84.3518, -4.85363
0.304265, -1, -14.8988, 32.1993, 27.435, -13.7938, -84.0296, -4.99874
0.311835, -1, -14.7105, 32.1043, 27.4094, -13.4905, -83.707, -5.14413
0.321421, -1, -14.5212, 32.009, 27.3838, -13.1871, -83.3839, -5.28966
0.327687, -1, -14.4262, 31.9614, 27.371, -13.0353, -83.2224, -5.3624
0.336532, -1, -14.1395, 31.8181, 27.3326, -12.5797, -82.7372, -5.58136
0.343101, -1, -14.0435, 31.7703, 27.3198, -12.4277, -82.5753, -5.65436
0.352208, -1, -13.755, 31.627, 27.2812, -11.9712, -82.0895, -5.87297
0.359087, -1, -13.6586, 31.5793, 27.2684, -11.8191, -81.9274, -5.94585
0.368306, -1, -13.3681, 31.436, 27.23, -11.3625, -81.4414, -6.1643
0.375131, -1, -13.2712, 31.3883, 27.2171, -11.2103, -81.2794, -6.23722
0.384921, -1, -12.9812, 31.2455, 27.1787, -10.7539, -80.7934, -6.4561
0.392684, -1, -12.7888, 31.1504, 27.1531, -10.4493, -80.4698, -6.60187
0.399087, -1, -12.6927, 31.1029, 27.1403, -10.297, -80.3081, -6.67491
0.408682, -1, -12.4058, 30.9602, 27.102, -9.84081, -79.8229, -6.89385
0.416638, -1, -12.2156, 30.865, 27.0763, -9.53673, -79.4995, -7.0394
0.424686, -1, -12.0263, 30.7698, 27.0507, -9.23285, -79.176, -7.18504
0.433703, -1, -11.9318, 30.6745, 27.0251, -8.92924, -78.8526, -7.33054
0.440635, -1, -11.7431, 30.6268, 27.0123, -8.77747, -78.6909, -7.47585
0.448709, -1, -11.5541, 30.5315, 26.9869, -8.47406, -78.2066, -7.62111
0.456129, -1, -11.3648, 30.4364, 26.9612, -8.17132, -78.0456, -7.69384
0.463146, -1, -11.1752, 30.3415, 26.9356, -7.86896, -77.7238, -7.83886
0.471094, -1, -10.9853, 30.2468, 26.9102, -7.567, -77.4024, -7.98344
0.479067, -1, -10.7949, 30.1523, 26.8848, -7.26575, -77.0818, -8.12792
0.48813, -1, -10.6043, 30.058, 26.8594, -6.96449, -76.7615, -8.27183
0.49608, -1, -10.4135, 29.9639, 26.8341, -6.66393, -76.4416, -8.41553
0.504077, -1, -10.2226, 29.8699, 26.8089, -6.36409, -76.1222, -8.55903
0.51109, -1, -10.0326, 29.7762, 26.7837, -6.06467, -75.8033, -8.70216
0.519111, -1, -9.84318, 29.6827, 26.7587, -5.76581, -75.4851, -8.8454
0.528077, -1, -9.65457, 29.5894, 26.7335, -5.46756, -75.1677, -8.9882
0.5351, -1, -9.46689, 29.4962, 26.7084, -5.16974, -74.851, -9.13052
0.543078, -1, -9.28017, 29.4031, 26.6834, -4.8728, -74.5351, -9.27253
0.55215, -1, -9.09455, 29.3101, 26.6584, -4.57682, -74.2201, -9.41408
0.560179, -1, -8.90965, 29.2173, 26.6335, -4.28121, -73.9056, -9.55539
0.569839, -1, -8.63378, 29.0783, 26.5962, -3.83991, -73.4356, -9.76684
0.576087, -1, -8.54204, 29.0322, 26.5838, -3.69304, -73.2793, -9.837
0.585077, -1, -8.35863, 28.9402, 26.5592, -3.39989, -72.9676, -9.97746
0.591075, -1, -8.17555, 28.8485, 26.5345, -3.10799, -72.657, -10.1174
0.600071, -1, -7.99247, 28.7571, 26.5098, -2.81678, -72.3468, -10.2568
0.608125, -1, -7.80942, 28.6662, 26.4854, -2.52654, -72.0378, -10.3956
0.615091, -1, -7.62649, 28.5755, 26.461, -2.23736, -71.7297, -10.534
0.623179, -1, -7.44382, 28.4851, 26.4369, -1.94876, -71.4224, -10.6718
0.63107, -1, -7.2614, 28.395, 26.4126, -1.66109, -71.1164, -10.8094
0.640109, -1, -7.07955, 28.3053, 26.3885, -1.37463, -70.8115, -10.9466
0.647188, -1, -6.89848, 28.2158, 26.3645, -1.08909, -70.5074, -11.0834
0.655165, -1, -6.71852, 28.1267, 26.3406, -0.80474, -70.2048, -11.2198
0.663239, -1, -6.53951, 28.0378, 26.3168, -0.521412, -69.9033, -11.3555
0.671176, -1, -6.3617, 27.9492, 26.2929, -0.239013, -69.6031, -11.4907
0.679205, -1, -6.18518, 27.8609, 26.2691, 0.0425372, -69.3037, -11.6254
0.687358, -1, -6.00949, 27.7729, 26.2455, 0.322892, -69.0055, -11.7595
0.695296, -1, -5.83479, 27.6851, 26.2221, 0.601994, -68.7082, -11.8932
0.703101, -1, -5.66096, 27.5977, 26.1987, 0.880179, -68.412, -12.0264
0.711173, -1, -5.48766, 27.5107, 26.1752, 1.15713, -68.1168, -12.1592
0.719138, -1, -5.31473, 27.4242, 26.152, 1.43292, -67.8229, -12.2916
0.727222, -1, -5.14208, 27.3379, 26.1288, 1.7079, -67.5304, -12.4231
0.735337, -1, -4.96969, 27.2521, 26.1058, 1.98168, -67.2393, -12.5542
0.743324, -1, -4.79762, 27.1667, 26.0829, 2.25401, -66.9493, -12.6843
0.751354, -1, -4.62608, 27.0817, 26.06, 2.52534, -66.6608, -12.8141
0.759495, -1, -4.45507, 26.997, 26.0373, 2.79526, -66.3735, -12.9433
0.767579, -1, -4.2844, 26.9126, 26.0145, 3.06391, -66.0873, -13.0718
0.776144, -1, -4.11417, 26.8286, 25.9921, 3.33179, -65.8023, -13.1997
0.78362, -1, -3.94494, 26.745, 25.9696, 3.59844, -65.5185, -13.3277
0.79221, -1, -3.77706, 26.6617, 25.9472, 3.86367, -65.2359, -13.4548
0.799628, -1, -3.61036, 26.5787, 25.9251, 4.12796, -64.9545, -13.5812
0.808263, -1, -3.44477, 26.496, 25.9028, 4.39097, -64.6746, -13.707
0.81576, -1, -3.36239, 26.4137, 25.8807, 4.65278, -64.3958, -13.8321
0.824205, -1, -3.11675, 26.3317, 25.8587, 4.9136, -64.1183, -13.9567
0.831076, -1, -3.03547, 26.2909, 25.8477, 5.04361, -63.98, -14.0189
0.840109, -1, -2.793, 26.1689, 25.815, 5.43187, -63.567, -14.2046
0.847093, -1, -2.71256, 26.1283, 25.8042, 5.56063, -63.43, -14.2661
0.856216, -1, -2.47204, 26.0077, 25.772, 5.94495, -63.021, -14.4503
0.863126, -1, -2.39193, 25.9676, 25.7612, 6.07248, -62.8852, -14.5115
0.872364, -1, -2.15207, 25.8481, 25.7291, 6.45315, -62.4799, -14.6936
0.879071, -1, -2.07233, 25.8084, 25.7185, 6.57948, -62.3453, -14.7543
0.888604, -1, -1.83389, 25.6901, 25.6867, 6.95713, -61.9434, -14.9347
0.896566, -1, -1.67563, 25.6117, 25.6657, 7.20723, -61.677, -15.0542
0.904588, -1, -1.51766, 25.5336, 25.6448, 7.45606, -61.4117, -15.1733
0.91269, -1, -1.36009, 25.4558, 25.6239, 7.7041, -61.1475, -15.2919
0.920626, -1, -1.20312, 25.3783, 25.6032, 7.95082, -60.8846, -15.41
0.92864, -1, -1.04716, 25.3012, 25.5826, 8.19641, -60.6228, -15.5277
0.936734, -1, -0.892287, 25.2244, 25.562, 8.44117, -60.3624, -15.6449
0.944631, -1, -0.815363, 25.1861, 25.5518, 8.5632, -60.2327, -15.7614
0.952712, -1, -0.662304, 25.1099, 25.5314, 8.80613, -59.9741, -15.8194
0.960141, -1, -0.510282, 25.0339, 25.5109, 9.0479, -59.7168, -15.9353
0.968062, -1, -0.359385, 24.9583, 25.4907, 9.28867, -59.461, -16.0504
0.976077, -1, -0.209554, 24.8831, 25.4706, 9.52836, -59.2064, -16.1652
0.984112, -1, -0.0608287, 24.8083, 25.4506, 9.76669, -58.9528, -16.2793
0.992069, -1, 0.0871537, 24.7338, 25.4308, 10.004, -58.7001, -16.393
0.999304, -1, 0.234575, 24.6596, 25.4108, 10.2405, -58.4485, -16.5063
1.00706, -1, 0.381821, 24.5858, 25.391, 10.4758, -58.1979, -16.6193
1.01508, -1, 0.528978, 24.5123, 25.3713, 10.7099, -57.9482, -16.7317
1.02392, -1, 0.675949, 24.4391, 25.3516, 10.943, -57.6997, -16.8434
1.03106, -1, 0.822657, 24.3662, 25.3322, 11.1751, -57.4522, -16.9545
1.04006, -1, 0.968924, 24.2936, 25.3128, 11.406, -57.206, -17.0652
1.04787, -1, 1.11453, 24.2213, 25.2934, 11.6359, -56.9611, -17.175
1.05606, -1, 1.25961, 24.1494, 25.2741, 11.8649, -56.7175, -17.2843
1.0641, -1, 1.40438, 24.0778, 25.2549, 12.093, -56.4748, -17.3933
1.07185, -1, 1.54862, 24.0066, 25.2358, 12.32, -56.2336, -17.5017
1.08006, -1, 1.69219, 23.9357, 25.2169, 12.5458, -55.9933, -17.6097
1.08806, -1, 1.83487, 23.8651, 25.1981, 12.7707, -55.7542, -17.7173
1.09614, -1, 1.97634, 23.7949, 25.1792, 12.9947, -55.5161, -17.8247
1.10306, -1, 2.11696, 23.725, 25.1604, 13.2174, -55.2789, -17.9315
1.11207, -1, 2.25665, 23.6554, 25.1418, 13.4392, -55.0428, -18.0374
1.12056, -1, 2.39528, 23.5861, 25.1232, 13.6601, -54.8075, -18.1433
1.12808, -1, 2.53307, 23.5171, 25.1048, 13.8802, -54.573, -18.2482
1.13515, -1, 2.66982, 23.4483, 25.0865, 14.0992, -54.3396, -18.353
1.14312, -1, 2.80559, 23.3798, 25.0682, 14.3172, -54.1073, -18.4573
1.15207, -1, 2.9408, 23.3117, 25.0499, 14.5344, -53.8761, -18.5611
1.16013, -1, 3.07572, 23.2437, 25.0317, 14.7507, -53.646, -18.6647
1.16716, -1, 3.21058, 23.176, 25.0135, 14.9658, -53.4168, -18.7675
1.17523, -1, 3.34544, 23.1087, 24.9956, 15.1801, -53.1886, -18.8704
1.1832, -1, 3.48002, 23.0417, 24.9778, 15.3937, -52.9614, -18.9727
1.1912, -1, 3.61437, 22.9749, 24.9599, 15.6066, -52.7353, -19.0746
1.20005, -1, 3.74837, 22.9085, 24.9421, 15.8183, -52.5099, -19.1757
1.20813, -1, 3.88193, 22.8424, 24.9245, 16.029, -52.2857, -19.2767
1.21509, -1, 4.01509, 22.7765, 24.9067, 16.239, -52.0623, -19.3769
1.22407, -1, 4.14792, 22.7109, 24.8892, 16.448, -51.8396, -19.4769
1.23216, -1, 4.28027, 22.6456, 24.8718, 16.6561, -51.618, -19.5765
1.2393, -1, 4.41191, 22.5805, 24.8543, 16.8634, -51.397, -19.6756
1.24736, -1, 4.54278, 22.5157, 24.8369, 17.07, -51.1771, -19.7746
1.25552, -1, 4.67305, 22.451, 24.8197, 17.2759, -50.958, -19.8729
1.2648, -1, 4.80251, 22.3866, 24.8024, 17.4808, -50.7397, -19.9711
1.27216, -1, 4.93129, 22.3225, 24.7852, 17.6848, -50.5223, -20.0691
1.2796, -1, 5.05925, 22.2585, 24.7683, 17.8881, -50.3058, -20.1666
1.28896, -1, 5.18643, 22.1948, 24.7513, 18.0907, -50.09, -20.2633
1.29624, -1, 5.31276, 22.1314, 24.7342, 18.2924, -49.8753, -20.36
1.30382, -1, 5.43816, 22.0683, 24.7174, 18.4934, -49.6613, -20.456
1.3122, -1, 5.56282, 22.0054, 24.7006, 18.6935, -49.4482, -20.5517
1.31965, -1, 5.62493, 21.9741, 24.6921, 18.7934, -49.3421, -20.647
1.32805, -1, 5.81081, 21.8805, 24.667, 19.092, -49.0249, -20.7422
1.33511, -1, 5.87272, 21.8494, 24.6588, 19.191, -48.9197, -20.7894
1.34416, -1, 6.05828, 21.7565, 24.6339, 19.4869, -48.6052, -20.9314
1.35107, -1, 6.12007, 21.7257, 24.6256, 19.5852, -48.5007, -20.9784
1.36112, -1, 6.30518, 21.6335, 24.601, 19.879, -48.188, -21.1193
1.36705, -1, 6.36679, 21.6028, 24.5928, 19.9764, -48.0843, -21.1659
1.37634, -1, 6.55139, 21.5112, 24.5681, 20.2678, -47.7741, -21.3059
1.38305, -1, 6.61274, 21.4808, 24.5601, 20.3645, -47.671, -21.352
1.39106, -1, 6.73521, 21.4202, 24.5439, 20.5576, -47.4652, -21.4447
1.40083, -1, 6.91815, 21.3296, 24.5196, 20.846, -47.1579, -21.5821
1.40866, -1, 7.03946, 21.2697, 24.5034, 21.0373, -46.9539, -21.6739
1.41659, -1, 7.16016, 21.21, 24.4874, 21.2279, -46.7508, -21.7646
1.42465, -1, 7.28019, 21.1504, 24.4714, 21.4178, -46.5485, -21.8558
1.43269, -1, 7.39969, 21.0912, 24.4556, 21.6072, -46.347, -21.9458
1.44064, -1, 7.45919, 21.0617, 24.4477, 21.7957, -46.1463, -22.0364
1.44884, -1, 7.57785, 21.0026, 24.4321, 21.8896, -46.0461, -22.0813
1.45682, -1, 7.69611, 20.9438, 24.4163, 22.0772, -45.8467, -22.216
1.46405, -1, 7.81381, 20.8852, 24.4005, 22.2642, -45.6479, -22.2608
1.47204, -1, 7.93098, 20.8267, 24.3849, 22.4507, -45.4498, -22.35
1.48011, -1, 8.04749, 20.7683, 24.3692, 22.6364, -45.2527, -22.4388
1.48804, -1, 8.16344, 20.7102, 24.3536, 22.8213, -45.0562, -22.5271
1.49605, -1, 8.27896, 20.6522, 24.3382, 23.0057, -44.8602, -22.6154
1.50405, -1, 8.3942, 20.5944, 24.3229, 23.1894, -44.6647, -22.7029
1.51111, -1, 8.50905, 20.5369, 24.3075, 23.3724, -44.4698, -22.7906
1.51913, -1, 8.62339, 20.4797, 24.2921, 23.5547, -44.2755, -22.8775
1.52706, -1, 8.73722, 20.4226, 24.2768, 23.7365, -44.0817, -22.9648
1.53605, -1, 8.85079, 20.3658, 24.2617, 23.9176, -43.8885, -23.0511
1.54412, -1, 8.96404, 20.3092, 24.2464, 24.0984, -43.696, -23.1378
1.55206, -1, 9.0771, 20.2527, 24.2314, 24.2785, -43.5044, -23.2237
1.56166, -1, 9.24677, 20.1683, 24.209, 24.5473, -43.2182, -23.3529
1.56815, -1, 9.3033, 20.1403, 24.2015, 24.6366, -43.123, -23.3956
1.57606, -1, 9.41614, 20.0843, 24.1864, 24.8148, -42.9333, -23.4812
1.58406, -1, 9.52856, 20.0285, 24.1714, 24.9926, -42.7442, -23.5661
1.59212, -1, 9.64051, 19.9728, 24.1565, 25.1697, -42.5555, -23.6509
1.59906, -1, 9.75203, 19.9172, 24.1416, 25.3462, -42.3677, -23.7354
1.60804, -1, 9.86331, 19.8618, 24.1267, 25.5222, -42.1802, -23.8194
1.61504, -1, 9.97429, 19.8067, 24.1122, 25.6977, -41.9935, -23.9034
1.62311, -1, 10.0849, 19.7518, 24.0976, 25.8729, -41.8075, -23.9866
1.63108, -1, 10.1951, 19.6972, 24.0829, 26.0474, -41.622, -24.0703
1.63905, -1, 10.3049, 19.6426, 24.0682, 26.2212, -41.437, -24.1531
1.64805, -1, 10.4142, 19.5883, 24.0536, 26.3945, -41.2525, -24.2364
1.65512, -1, 10.5231, 19.5341, 24.0391, 26.5673, -41.0686, -24.3188
1.66314, -1, 10.6315, 19.4801, 24.0246, 26.7397, -40.885, -24.4014
1.67143, -1, 10.7396, 19.4262, 24.0102, 26.9114, -40.7023, -24.4838
1.67915, -1, 10.8473, 19.3725, 23.996, 27.0825, -40.5199, -24.5657
1.68717, -1, 10.9546, 19.3189, 23.9817, 27.253, -40.338, -24.6477
1.69565, -1, 11.0615, 19.2654, 23.9673, 27.4233, -40.1568, -24.7286
1.70411, -1, 11.1681, 19.2121, 23.9529, 27.5931, -39.976, -24.8104
1.71107, -1, 11.2743, 19.159, 23.9387, 27.7623, -39.7959, -24.891
1.71985, -1, 11.38, 19.106, 23.9246, 27.931, -39.6163, -24.9719
1.7281, -1, 11.4853, 19.0532, 23.9104, 28.0991, -39.4373, -25.0522
1.73514, -1, 11.5904, 19.0007, 23.8963, 28.2667, -39.2588, -25.1325
1.74394, -1, 11.6953, 18.9483, 23.8825, 28.4341, -39.0806, -25.2127
1.75212, -1, 11.8, 18.896, 23.8685, 28.6009, -38.9032, -25.2923
1.76004, -1, 11.9045, 18.844, 23.8544, 28.7672, -38.7263, -25.3724
1.76824, -1, 12.0088, 18.792, 23.8404, 28.9329, -38.5496, -25.4515
1.77552, -1, 12.113, 18.7401, 23.8265, 29.0982, -38.3738, -25.5313
1.78436, -1, 12.2172, 18.6883, 23.8127, 29.2633, -38.1984, -25.6103
1.79156, -1, 12.321, 18.6367, 23.7988, 29.4279, -38.0237, -25.6893
1.80014, -1, 12.4246, 18.5852, 23.7851, 29.592, -37.8495, -25.768
1.80842, -1, 12.5279, 18.5337, 23.7716, 29.7555, -37.6755, -25.8459
1.81562, -1, 12.5795, 18.5081, 23.7579, 29.9186, -37.502, -25.9243
1.82411, -1, 12.7339, 18.4314, 23.7441, 30.0812, -37.3287, -26.0016
1.83103, -1, 12.7851, 18.4059, 23.7372, 30.1625, -37.2424, -26.0405
1.83904, -1, 12.8874, 18.3551, 23.7236, 30.3245, -37.0699, -26.1182
1.84808, -1, 13.0401, 18.2793, 23.7032, 30.5666, -36.8119, -26.2335
1.85505, -1, 13.0908, 18.2541, 23.6964, 30.6469, -36.7261, -26.2723
1.86303, -1, 13.192, 18.2038, 23.6829, 30.8075, -36.5552, -26.3488
1.87223, -1, 13.3431, 18.1286, 23.6629, 31.0479, -36.2993, -26.4638
1.87904, -1, 13.3933, 18.1037, 23.6563, 31.1278, -36.2142, -26.5019
1.88708, -1, 13.4935, 18.0537, 23.6429, 31.2872, -36.0444, -26.5778
1.89658, -1, 13.6435, 17.9788, 23.6228, 31.5255, -35.7907, -26.6925
1.90539, -1, 13.7431, 17.929, 23.6095, 31.6836, -35.622, -26.768
1.91108, -1, 13.7929, 17.9041, 23.6029, 31.7627, -35.5379, -26.8062
1.92062, -1, 13.942, 17.8296, 23.5829, 31.9994, -35.2863, -26.9191
1.92948, -1, 14.0411, 17.7801, 23.5696, 32.1565, -35.119, -26.9944
1.93511, -1, 14.0906, 17.7555, 23.5631, 32.235, -35.0354, -27.0321
1.94469, -1, 14.2387, 17.6817, 23.5435, 32.4695, -34.7861, -27.1438
1.95338, -1, 14.2878, 17.6572, 23.5369, 32.5475, -34.7031, -27.1813
1.95914, -1, 14.3857, 17.6084, 23.5238, 32.7035, -34.5375, -27.2556
1.96809, -1, 14.4834, 17.5597, 23.5106, 32.8592, -34.3722, -27.3296
1.97602, -1, 14.5808, 17.5111, 23.4977, 33.0143, -34.2071, -27.4042
1.98309, -1, 14.6778, 17.4627, 23.4847, 33.1689, -34.0425, -27.4777
1.99207, -1, 14.7745, 17.4144, 23.4718, 33.3232, -33.878, -27.5518
2.00004, -1, 14.8709, 17.3663, 23.4588, 33.4771, -33.7143, -27.6254
2.00711, -1, 14.9673, 17.318, 23.4461, 33.6309, -33.5507, -27.6988
2.01504, -1, 15.0634, 17.2698, 23.4333, 33.784, -33.3875, -27.7727
2.02403, -1, 15.1594, 17.2218, 23.4205, 33.9368, -33.2246, -27.8456
2.03104, -1, 15.2553, 17.1738, 23.4075, 34.0891, -33.0623, -27.9189
2.03903, -1, 15.3511, 17.1259, 23.3947, 34.241, -32.9004, -27.9918
2.0481, -1, 15.4469, 17.0781, 23.3819, 34.3928, -32.7391, -28.0641
2.05603, -1, 15.5426, 17.0305, 23.3691, 34.5443, -32.578, -28.137
2.06402, -1, 15.6381, 16.9832, 23.3563, 34.6953, -32.4173, -28.2089
2.07103, -1, 15.7334, 16.9359, 23.3436, 34.846, -32.257, -28.2812
2.07903, -1, 15.8285, 16.8888, 23.3311, 34.9962, -32.0968, -28.3531
2.08804, -1, 15.9233, 16.8419, 23.3186, 35.146, -31.9373, -28.4243
2.09702, -1, 16.0179, 16.7951, 23.306, 35.2958, -31.7782, -28.4964
2.10402, -1, 16.1121, 16.7485, 23.2934, 35.4452, -31.6192, -28.5677
2.11205, -1, 16.206, 16.7019, 23.2809, 35.5942, -31.4608, -28.6389
2.12011, -1, 16.2996, 16.6553, 23.2685, 35.7428, -31.3027, -28.7104
2.12702, -1, 16.393, 16.6088, 23.256, 35.891, -31.1448, -28.7809
2.13603, -1, 16.4861, 16.5623, 23.2435, 36.0389, -30.9873, -28.8523
2.14403, -1, 16.5788, 16.5158, 23.2311, 36.1868, -30.8301, -28.9231
2.15202, -1, 16.6714, 16.4694, 23.2188, 36.3344, -30.673, -28.9935
2.16009, -1, 16.7638, 16.4231, 23.2064, 36.4815, -30.5166, -29.0644
2.16802, -1, 16.8561, 16.3769, 23.194, 36.6281, -30.3603, -29.1342
2.1752, -1, 16.9482, 16.3309, 23.1816, 36.7745, -30.2047, -29.2043
2.18313, -1, 17.0401, 16.285, 23.1693, 36.9205, -30.049, -29.2743
2.19116, -1, 17.1317, 16.2394, 23.1571, 37.0664, -29.8938, -29.3435
2.1992, -1, 17.2219, 16.1943, 23.1447, 37.2118, -29.7387, -29.4134
2.20703, -1, 17.3086, 16.1508, 23.1322, 37.3565, -29.5849, -29.4823
2.21506, -1, 17.3905, 16.1099, 23.1196, 37.4987, -29.4331, -29.5501
2.22337, -1, 17.4668, 16.0718, 23.1072, 37.6365, -29.2862, -29.6166
2.23108, -1, 17.5375, 16.037, 23.0951, 37.7662, -29.1476, -29.6786
2.23922, -1, 17.6013, 16.006, 23.0838, 37.8844, -29.0214, -29.7354
2.24737, -1, 17.6577, 15.9785, 23.074, 37.9875, -28.9108, -29.7854
2.25529, -1, 17.7076, 15.9539, 23.0664, 38.0716, -28.8204, -29.8264
2.26343, -1, 17.7515, 15.9312, 23.0612, 38.1373, -28.7497, -29.8581
2.2718, -1, 17.7893, 15.9116, 23.058, 38.1836, -28.6992, -29.8806
2.28015, -1, 17.8199, 15.896, 23.0563, 38.2147, -28.6652, -29.8958
2.28797, -1, 17.8443, 15.884, 23.0556, 38.2341, -28.644, -29.905
2.29564, -1, 17.8628, 15.8754, 23.0552, 38.245, -28.6318, -29.9101
2.30419, -1, 17.8749, 15.8698, 23.0551, 38.2507, -28.6256, -29.9127
2.31181, 2, 17.8813, 15.8669, 23.055, 38.2534, -28.6227, -29.914
2.32013, 2, 17.8842, 15.8655, 23.055, 38.2547, -28.6212, -29.9146
2.32754, 2, 17.8849, 15.8651, 23.055, 38.2551, -28.6207, -29.9148
2.33603, 2, 17.8847, 15.8645, 23.055, 38.2557, -28.6201, -29.915
2.34309, 2, 17.8844, 15.8645, 23.055, 38.2557, -28.6201, -29.915
2.35212, 2, 17.8834, 15.8643, 23.055, 38.2559, -28.62, -29.9151
2.35904, 2, 17.8831, 15.8643, 23.055, 38.2559, -28.6199, -29.9151
2.36851, 2, 17.8829, 15.8642, 23.055, 38.2559, -28.6199, -29.9151
2.37502, 2, 17.8828, 15.8642, 23.055, 38.2559, -28.62, -29.9151
2.38426, 2, 17.8829, 15.8638, 23.055, 38.2559, -28.62, -29.9151
2.39107, 2, 17.8831, 15.8636, 23.0549, 38.2559, -28.62, -29.9151
2.40095, 2, 17.8837, 15.8631, 23.0549, 38.2559, -28.62, -29.9152
2.40855, 2, 17.8841, 15.8629, 23.0549, 38.2559, -28.62, -29.9151
2.41673, 2, 17.8849, 15.8627, 23.0549, 38.2559, -28.62, -29.9151
2.42494, 2, 17.8858, 15.8626, 23.0549, 38.2559, -28.62, -29.9151
2.43259, 2, 17.8866, 15.8626, 23.055, 38.2559, -28.62, -29.9151
2.44062, 2, 17.8869, 15.8626, 23.055, 38.2559, -28.62, -29.915
2.44896, 2, 17.8874, 15.8626, 23.0549, 38.2559, -28.62, -29.9151
2.45602, 2, 17.8875, 15.8626, 23.0549, 38.2559, -28.6201, -29.9151
2.46491, 2, 17.8877, 15.8626, 23.055, 38.2559, -28.62, -29.9151
2.47299, 2, 17.8878, 15.8626, 23.0549, 38.2559, -28.6201, -29.9151
2.48001, 2, 17.8878, 15.8626, 23.0549, 38.2559, -28.6201, -29.9151
2.48801, 2, 17.8878, 15.8626, 23.0549, 38.2559, -28.6201, -29.915
2.49607, 2, 17.8877, 15.8626, 23.0549, 38.2559, -28.6202, -29.915
2.50401, 2, 17.8876, 15.8625, 23.055, 38.2558, -28.6202, -29.9151
2.51201, 2, 17.8873, 15.8624, 23.0549, 38.2559, -28.6202, -29.9151
2.52005, 2, 17.8872, 15.8624, 23.055, 38.2559, -28.6202, -29.9151
2.52801, 2, 17.887, 15.8623, 23.055, 38.2559, -28.6202, -29.9151
2.53605, 2, 17.887, 15.8623, 23.055, 38.2559, -28.6202, -29.9151
2.54405, 2, 17.887, 15.8623, 23.055, 38.2559, -28.6203, -29.9151
2.55201, 2, 17.887, 15.8623, 23.055, 38.2558, -28.6203, -29.9151
2.56001, 2, 17.887, 15.8623, 23.055, 38.2558, -28.6203, -29.9151
2.56807, 2, 17.887, 15.8624, 23.055, 38.2559, -28.6203, -29.9151
2.57605, 2, 17.887, 15.8624, 23.0549, 38.2558, -28.6202, -29.9151
2.584, 2, 17.887, 15.8624, 23.055, 38.2558, -28.6203, -29.9151
2.59207, 2, 17.887, 15.8623, 23.055, 38.2559, -28.6203, -29.9151
2.6, 2, 17.887, 15.8623, 23.055, 38.2558, -28.6204, -29.9151
2.60801, 2, 17.887, 15.8623, 23.0549, 38.2559, -28.6204, -29.9151
2.61611, 2, 17.887, 15.8623, 23.055, 38.2558, -28.6204, -29.9151
2.62401, 2, 17.887, 15.8623, 23.055, 38.2559, -28.6204, -29.9151
2.63203, 2, 17.8869, 15.8623, 23.055, 38.2558, -28.6205, -29.915
2.64007, 2, 17.8869, 15.8623, 23.0549, 38.2559, -28.6205, -29.915
2.64801, 2, 17.8868, 15.8623, 23.0549, 38.2558, -28.6205, -29.915
2.6551, 2, 17.8868, 15.8623, 23.0549, 38.2558, -28.6205, -29.915
2.66407, 2, 17.8868, 15.8623, 23.0549, 38.2558, -28.6205, -29.915
2.672, 2, 17.8868, 15.8624, 23.055, 38.2558, -28.6205, -29.915
2.68001, 2, 17.8868, 15.8624, 23.055, 38.2558, -28.6205, -29.915
2.68807, 2, 17.8867, 15.8624, 23.055, 38.2558, -28.6205, -29.915
2.69513, 2, 17.8867, 15.8624, 23.055, 38.2558, -28.6205, -29.9151
2.70318, 2, 17.8867, 15.8624, 23.055, 38.2558, -28.6206, -29.9151
2.71103, 2, 17.8867, 15.8624, 23.055, 38.2558, -28.6206, -29.915
2.71904, 2, 17.8867, 15.8624, 23.055, 38.2558, -28.6206, -29.9151
2.7271, 2, 17.8867, 15.8624, 23.055, 38.2557, -28.6207, -29.9151
2.73507, 2, 17.8867, 15.8623, 23.055, 38.2558, -28.6206, -29.9151
2.74318, 2, 17.8867, 15.8623, 23.055, 38.2558, -28.6206, -29.9151
2.75129, 2, 17.8866, 15.8623, 23.055, 38.2558, -28.6207, -29.9151
2.75928, 2, 17.8866, 15.8624, 23.055, 38.2558, -28.6207, -29.9151
2.76743, 2, 17.8866, 15.8624, 23.055, 38.2557, -28.6207, -29.9151
2.77565, 2, 17.8866, 15.8624, 23.055, 38.2557, -28.6207, -29.9151
2.78421, 2, 17.8865, 15.8624, 23.055, 38.2557, -28.6208, -29.9151
2.79161, 2, 17.8865, 15.8624, 23.055, 38.2557, -28.6208, -29.915
2.80012, 2, 17.8865, 15.8624, 23.055, 38.2557, -28.6208, -29.915
2.80758, 2, 17.8864, 15.8624, 23.055, 38.2557, -28.6208, -29.915
2.81612, 2, 17.8864, 15.8624, 23.055, 38.2557, -28.6208, -29.915
2.82363, 2, 17.8864, 15.8624, 23.055, 38.2557, -28.6208, -29.915
2.83218, 2, 17.8863, 15.8624, 23.055, 38.2557, -28.6208, -29.915
2.839, 2, 17.8863, 15.8624, 23.055, 38.2557, -28.6208, -29.915
2.84804, 2, 17.8862, 15.8624, 23.055, 38.2557, -28.6208, -29.915
2.855, 2, 17.8862, 15.8624, 23.055, 38.2557, -28.6208, -29.915
2.86415, 2, 17.8861, 15.8624, 23.055, 38.2557, -28.6209, -29.915
2.87106, 2, 17.8861, 15.8624, 23.055, 38.2557, -28.6209, -29.915
2.88028, 2, 17.8861, 15.8624, 23.055, 38.2557, -28.6209, -29.9151
2.887, 2, 17.886, 15.8624, 23.055, 38.2557, -28.621, -29.915
2.89638, 2, 17.8859, 15.8624, 23.055, 38.2557, -28.6209, -29.915
2.90306, 2, 17.8859, 15.8624, 23.055, 38.2557, -28.6209, -29.915
2.91257, 2, 17.8858, 15.8624, 23.055, 38.2557, -28.621, -29.915
2.92051, 2, 17.8858, 15.8624, 23.055, 38.2556, -28.6209, -29.915
2.92857, 2, 17.8857, 15.8624, 23.055, 38.2556, -28.6209, -29.915
2.93663, 2, 17.8857, 15.8624, 23.055, 38.2557, -28.6209, -29.915
2.94457, 2, 17.8857, 15.8624, 23.055, 38.2556, -28.6209, -29.915
2.95268, 2, 17.8856, 15.8624, 23.055, 38.2556, -28.621, -29.915
2.96, 2, 17.8855, 15.8624, 23.055, 38.2556, -28.621, -29.915
2.96802, 2, 17.8855, 15.8624, 23.055, 38.2556, -28.621, -29.915
2.97605, 2, 17.8855, 15.8624, 23.055, 38.2556, -28.621, -29.915
2.98399, 2, 17.8854, 15.8624, 23.055, 38.2555, -28.621, -29.9149
2.99199, 2, 17.8854, 15.8624, 23.055, 38.2555, -28.6211, -29.9149
3.00005, 2, 17.8854, 15.8625, 23.055, 38.2555, -28.6211, -29.9149
3.00799, 2, 17.8853, 15.8625, 23.055, 38.2555, -28.6211, -29.9149
3.016, 2, 17.8852, 15.8625, 23.055, 38.2556, -28.6211, -29.9149
3.02404, 2, 17.8852, 15.8625, 23.055, 38.2555, -28.6211, -29.9149
3.032, 2, 17.8852, 15.8625, 23.055, 38.2555, -28.6211, -29.915
3.04001, 2, 17.8851, 15.8625, 23.055, 38.2554, -28.6212, -29.915
3.04804, 2, 17.885, 15.8625, 23.055, 38.2554, -28.6212, -29.915
3.056, 2, 17.885, 15.8625, 23.055, 38.2554, -28.6212, -29.915
3.06399, 2, 17.8849, 15.8625, 23.055, 38.2554, -28.6212, -29.9149
3.071, 2, 17.8849, 15.8625, 23.055, 38.2554, -28.6212, -29.9149
3.08002, 2, 17.8848, 15.8625, 23.055, 38.2554, -28.6212, -29.9149
3.08799, 2, 17.8848, 15.8625, 23.055, 38.2554, -28.6211, -29.9149
3.09606, 2, 17.8847, 15.8625, 23.055, 38.2554, -28.6211, -29.9149
3.10399, 2, 17.8846, 15.8625, 23.055, 38.2554, -28.6211, -29.9149
3.11199, 2, 17.8846, 15.8625, 23.055, 38.2554, -28.6211, -29.9149
3.1201, 2, 17.8846, 15.8625, 23.055, 38.2554, -28.6212, -29.9149
3.12799, 2, 17.8845, 15.8625, 23.055, 38.2554, -28.6212, -29.9149
3.13506, 2, 17.8845, 15.8625, 23.055, 38.2554, -28.6212, -29.9149
3.14405, 2, 17.8844, 15.8625, 23.055, 38.2554, -28.6213, -29.9149
3.15199, 2, 17.8844, 15.8625, 23.055, 38.2553, -28.6213, -29.9149
3.15999, 2, 17.8843, 15.8625, 23.055, 38.2553, -28.6213, -29.9149
3.16805, 2, 17.8843, 15.8625, 23.055, 38.2552, -28.6212, -29.9149
3.1751, 2, 17.8842, 15.8625, 23.055, 38.2552, -28.6212, -29.9149
3.18398, 2, 17.8842, 15.8625, 23.055, 38.2552, -28.6212, -29.9149
3.19205, 2, 17.8841, 15.8625, 23.055, 38.2552, -28.6212, -29.9149
3.19998, 2, 17.8841, 15.8626, 23.055, 38.2552, -28.6213, -29.9149
3.20802, 2, 17.8841, 15.8625, 23.055, 38.2552, -28.6213, -29.9149
3.2161, 2, 17.884, 15.8626, 23.055, 38.2552, -28.6213, -29.9149
3.22302, 2, 17.884, 15.8626, 23.055, 38.2552, -28.6213, -29.9149
3.2311, 2, 17.884, 15.8626, 23.055, 38.2551, -28.6213, -29.9149
3.23924, 2, 17.8839, 15.8625, 23.055, 38.2551, -28.6213, -29.9149
3.24747, 2, 17.8839, 15.8626, 23.055, 38.255, -28.6213, -29.9149
3.25527, 2, 17.8839, 15.8625, 23.055, 38.2551, -28.6213, -29.9149
3.26331, 2, 17.8839, 15.8626, 23.055, 38.255, -28.6213, -29.9149
3.2717, 2, 17.8838, 15.8626, 23.055, 38.255, -28.6213, -29.9149
3.28008, 2, 17.8838, 15.8625, 23.055, 38.255, -28.6214, -29.9149
3.28816, 2, 17.8838, 15.8625, 23.055, 38.255, -28.6214, -29.9149
3.29587, 2, 17.8838, 15.8626, 23.055, 38.255, -28.6214, -29.9149
3.3041, 2, 17.8838, 15.8626, 23.055, 38.255, -28.6214, -29.9149
3.3123, 2, 17.8838, 15.8626, 23.055, 38.255, -28.6214, -29.9149
3.32033, 2, 17.8837, 15.8626, 23.055, 38.2549, -28.6214, -29.9149
3.32809, 2, 17.8837, 15.8626, 23.055, 38.2549, -28.6214, -29.9149
3.33587, 2, 17.8837, 15.8626, 23.055, 38.2549, -28.6214, -29.9149
3.34408, 2, 17.8837, 15.8626, 23.055, 38.2549, -28.6214, -29.9149
3.35205, 2, 17.8837, 15.8626, 23.055, 38.2549, -28.6214, -29.9149
3.35902, 2, 17.8837, 15.8626, 23.055, 38.2549, -28.6214, -29.9149
3.36813, 2, 17.8836, 15.8626, 23.055, 38.2549, -28.6214, -29.9149
3.37499, 2, 17.8837, 15.8626, 23.055, 38.2549, -28.6214, -29.9149
3.38439, 4, 17.8836, 15.8626, 23.055, 38.2549, -28.6214, -29.9149
3.39099, 4, 17.8836, 15.8626, 23.055, 38.2548, -28.6214, -29.9149
3.40041, 4, 17.8836, 15.8626, 23.055, 38.2548, -28.6214, -29.9149
3.40847, 4, 17.8836, 15.8626, 23.055, 38.2548, -28.6214, -29.9149
3.41658, 4, 17.8836, 15.8626, 23.055, 38.2548, -28.6214, -29.9149
3.42457, 4, 17.8836, 15.8626, 23.055, 38.2547, -28.6214, -29.9149
3.43272, 4, 17.8836, 15.8626, 23.055, 38.2547, -28.6215, -29.9148
3.44057, 4, 17.8835, 15.8626, 23.055, 38.2547, -28.6215, -29.9149
3.44861, 4, 17.8835, 15.8626, 23.055, 38.2547, -28.6215, -29.9149
3.45664, 4, 17.8835, 15.8626, 23.055, 38.2547, -28.6215, -29.9149
3.46454, 4, 17.8835, 15.8626, 23.055, 38.2547, -28.6215, -29.9149
3.472, 4, 17.8835, 15.8626, 23.055, 38.2547, -28.6215, -29.9149
3.48096, 4, 17.8835, 15.8626, 23.055, 38.2547, -28.6214, -29.9148
3.50962, 4, 17.8835, 15.8627, 23.055, 38.2546, -28.6215, -29.9148
3.5115, 4, 17.8835, 15.8627, 23.055, 38.2546, -28.6215, -29.9148
3.51525, 4, 17.8834, 15.8627, 23.055, 38.2546, -28.6215, -29.9148
3.51785, 4, 17.8834, 15.8627, 23.055, 38.2546, -28.6215, -29.9148
3.51988, 4, 17.8834, 15.8627, 23.055, 38.2546, -28.6215, -29.9148
3.52814, 4, 17.8834, 15.8627, 23.055, 38.2546, -28.6215, -29.9148
3.53515, 4, 17.8829, 15.863, 23.055, 38.2546, -28.6215, -29.9147
3.54298, 4, 17.8807, 15.8645, 23.0549, 38.2543, -28.6215, -29.9146
3.55198, 4, 17.8756, 15.8686, 23.0541, 38.2523, -28.6218, -29.9135
3.55998, 4, 17.8669, 15.8774, 23.0517, 38.2451, -28.6228, -29.9085
3.56804, 4, 17.8537, 15.8934, 23.0463, 38.2283, -28.626, -29.8937
3.57597, 5, 17.8339, 15.9186, 23.0362, 38.1957, -28.633, -29.8615
3.58957, 5, 17.7883, 15.9774, 23.0077, 38.0961, -28.6553, -29.7614
3.59199, 5, 17.7682, 16.0032, 22.9936, 38.0444, -28.6669, -29.709
3.59997, 5, 17.7196, 16.066, 22.957, 37.9057, -28.6983, -29.568
3.60803, 5, 17.6581, 16.1459, 22.9075, 37.7123, -28.7436, -29.3709
3.61604, 5, 17.5819, 16.2457, 22.8434, 37.4571, -28.8047, -29.1103
3.62399, 5, 17.4894, 16.3672, 22.7635, 37.1343, -28.8835, -28.7802
3.63197, 5, 17.3792, 16.5114, 22.6669, 36.7408, -28.9828, -28.3778
3.64005, 5, 17.2496, 16.6803, 22.5528, 36.2752, -29.1032, -27.9027
3.64797, 5, 17.0992, 16.8754, 22.4215, 35.737, -29.2473, -27.3542
3.65597, 5, 16.9275, 17.0964, 22.2736, 35.1284, -29.4161, -26.7338
3.66406, 5, 16.7344, 17.3422, 22.1096, 34.4501, -29.6116, -26.0447
3.67197, 5, 16.5213, 17.6123, 21.93, 33.7029, -29.8355, -25.2915
3.67997, 5, 16.29, 17.9036, 21.736, 32.8928, -30.0893, -24.4773
3.68804, 5, 16.0425, 18.2134, 21.5304, 32.0267, -30.3736, -23.6098
3.69597, 5, 15.7799, 18.5397, 21.3142, 31.114, -30.6879, -22.7007
3.70398, 5, 15.5034, 18.8789, 21.0895, 30.1646, -31.0301, -21.7589
3.71204, 5, 15.215, 19.2291, 20.8608, 29.1926, -31.3983, -20.8021
3.71998, 5, 14.9163, 19.5888, 20.6298, 28.2113, -31.7893, -19.8407
3.72797, 5, 14.607, 19.9575, 20.3981, 27.2296, -32.1999, -18.8855
3.73604, 5, 14.2875, 20.3309, 20.1684, 26.2554, -32.6273, -17.9472
3.74398, 5, 13.9601, 20.7057, 19.9415, 25.2964, -33.0693, -17.0296
3.752, 5, 13.6273, 21.0793, 19.7187, 24.3564, -33.5246, -16.1381
3.76004, 5, 13.2912, 21.4516, 19.5017, 23.4329, -33.9922, -15.2713
3.76807, 5, 12.9536, 21.8209, 19.29, 22.5285, -34.4711, -14.4333
3.77539, 5, 12.6146, 22.1867, 19.0835, 21.6462, -34.9611, -13.6237
3.78341, 5, 12.2741, 22.5479, 18.8833, 20.7848, -35.4612, -12.8409
3.79227, 5, 11.9324, 22.9054, 18.6889, 19.9407, -35.9704, -12.089
3.79952, 5, 11.5884, 23.2579, 18.4998, 19.1161, -36.4882, -11.3639
3.80809, 5, 11.2421, 23.606, 18.3172, 18.3118, -37.0144, -10.6657
3.81555, 5, 10.8932, 23.9488, 18.1412, 17.5276, -37.5493, -9.99609
3.82409, 5, 10.5417, 24.2876, 17.9706, 16.7591, -38.0921, -9.35227
3.83163, 5, 10.3655, 24.6217, 17.8052, 16.0075, -38.6423, -8.73466
3.84009, 5, 9.83679, 24.9509, 17.6464, 15.2739, -39.1989, -8.14328
3.84698, 5, 9.66044, 25.1136, 17.5695, 14.9136, -39.4792, -7.85732
3.85601, 5, 9.13118, 25.5941, 17.3481, 13.8566, -40.3286, -7.03593
3.86296, 5, 8.95405, 25.7524, 17.2775, 13.511, -40.6145, -6.77414
3.87212, 5, 8.42019, 26.2197, 17.0757, 12.4969, -41.4799, -6.02379
3.87905, 5, 8.24122, 26.373, 17.0117, 12.1662, -41.7709, -5.7854
3.88917, 5, 7.70042, 26.8248, 16.8297, 11.1939, -42.6508, -5.1034
3.89501, 5, 7.51922, 26.9725, 16.7724, 10.8767, -42.9458, -4.88707
3.90469, 5, 6.97375, 27.4087, 16.6104, 9.94198, -43.8354, -4.2699
3.91329, 5, 6.60939, 27.6922, 16.511, 9.33367, -44.4324, -3.88477
3.91902, 5, 6.42716, 27.8319, 16.4638, 9.03416, -44.7322, -3.70002
3.9286, 5, 5.87944, 28.2422, 16.3328, 8.15061, -45.6365, -3.17552
3.93651, 5, 5.51327, 28.5077, 16.2542, 7.5748, -46.2421, -2.85021
3.94532, 5, 5.14581, 28.7678, 16.1828, 7.00858, -46.8483, -2.54388
3.95176, 5, 4.96194, 28.8953, 16.1499, 6.72844, -47.1518, -2.39745
3.95896, 5, 4.59547, 29.1436, 16.0897, 6.17508, -47.7598, -2.11834
3.96898, 5, 4.05365, 29.4994, 16.0141, 5.36506, -48.6711, -1.73372
3.97581, 5, 3.87634, 29.6133, 15.9928, 5.10046, -48.9733, -1.61474
3.98299, 5, 3.52748, 29.8331, 15.9559, 4.58197, -49.5719, -1.39114
3.99196, 5, 3.18738, 30.0424, 15.9268, 4.08065, -50.1579, -1.18642
4.00152, 5, 2.69828, 30.3369, 15.8969, 3.36655, -51.0037, -0.915146
4.00706, 5, 2.54112, 30.4296, 15.89, 3.14033, -51.2749, -0.834485
4.01601, 5, 2.23569, 30.6061, 15.8805, 2.70804, -51.7967, -0.687153
4.02396, 5, 1.94293, 30.7703, 15.8758, 2.3042, -52.2885, -0.558227
4.03194, 5, 1.66416, 30.9217, 15.8751, 1.92994, -52.7476, -0.446374
4.04, 5, 1.40104, 31.0593, 15.8779, 1.58613, -53.1725, -0.349853
4.04797, 5, 1.15657, 31.1837, 15.8837, 1.27302, -53.5615, -0.267712
4.05595, 5, 0.932373, 31.2965, 15.8913, 0.990256, -53.9151, -0.197845
4.06296, 5, 0.724679, 31.4004, 15.8994, 0.73692, -54.234, -0.136164
4.07193, 6, 0.528264, 31.4978, 15.9072, 0.51094, -54.5229, -0.0803633
4.07996, 6, 0.339039, 31.5908, 15.9149, 0.308073, -54.7884, -0.0236813
4.08895, 6, 0.154094, 31.6813, 15.9233, 0.122839, -55.0411, 0.0391469
4.09595, 6, -0.0296134, 31.771, 15.9332, -0.0527533, -55.2921, 0.110812
4.10396, 6, -0.213838, 31.8604, 15.9456, -0.226718, -55.5539, 0.196259
4.11206, 6, -0.400213, 31.9496, 15.9619, -0.407334, -55.8375, 0.297049
4.11996, 6, -0.591062, 32.04, 15.9835, -0.600653, -56.1513, 0.412816
4.12798, 6, -0.789723, 32.1338, 16.0112, -0.811423, -56.5014, 0.542636
4.13602, 6, -1.00126, 32.2335, 16.045, -1.04233, -56.8905, 0.683774
4.14397, 6, -1.22931, 32.34, 16.0858, -1.29317, -57.3199, 0.834901
4.15202, 6, -1.4758, 32.4531, 16.1341, -1.56463, -57.7902, 0.993991
4.15995, 6, -1.74068, 32.5721, 16.1901, -1.85621, -58.3015, 1.15942
4.16709, 6, -2.02212, 32.6955, 16.2551, -2.16665, -58.8537, 1.32895
4.17514, 6, -2.31903, 32.8219, 16.3294, -2.49471, -59.4448, 1.50005
4.31317, 6, -8.49162, 34.7427, 18.8681, -8.78201, -71.6868, 3.02475
4.31445, 6, -8.49162, 34.7427, 18.8681, -8.78201, -71.6868, 3.02475
4.31639, 6, -8.67832, 34.7779, 18.9767, -8.96697, -72.0548, 3.01515
4.31771, 6, -8.67832, 34.7779, 18.9767, -8.96697, -72.0548, 3.01515
4.32036, 6, -8.86463, 34.8115, 19.087, -9.15205, -72.4226, 3.00228
4.32162, 6, -8.86463, 34.8115, 19.087, -9.15205, -72.4226, 3.00228
4.32357, 6, -8.86463, 34.8435, 19.199, -9.33737, -72.7899, 2.98614
4.32607, 6, -9.05061, 34.8435, 19.199, -9.33737, -72.7899, 2.98614
4.3281, 6, -9.23627, 34.874, 19.313, -9.52291, -73.1567, 2.96684
4.32941, 6, -9.23627, 34.874, 19.313, -9.52291, -73.1567, 2.96684
4.33068, 6, -9.23627, 34.874, 19.313, -9.52291, -73.1567, 2.96684
4.33273, 6, -9.42169, 34.903, 19.4291, -9.70858, -73.5229, 2.94468
4.33393, 6, -9.42169, 34.903, 19.4291, -9.70858, -73.5229, 2.94468
4.33579, 6, -9.60694, 34.9304, 19.5472, -9.89437, -73.8883, 2.91965
4.33713, 6, -9.60694, 34.9304, 19.5472, -9.89437, -73.8883, 2.91965
4.33878, 6, -9.60694, 34.9304, 19.5472, -9.89437, -73.8883, 2.91965
4.34084, 6, -9.79216, 34.9561, 19.667, -10.0805, -74.2528, 2.89156
4.34212, 6, -9.79216, 34.9561, 19.667, -10.0805, -74.2528, 2.89156
4.34496, 6, -9.97751, 34.9803, 19.7886, -10.267, -74.6165, 2.86017
4.34619, 6, -9.97751, 34.9803, 19.7886, -10.267, -74.6165, 2.86017
4.34831, 6, -10.163, 35.0028, 19.9118, -10.4538, -74.9795, 2.82535
4.35094, 6, -10.163, 35.0028, 19.9118, -10.4538, -74.9795, 2.82535
4.35999, 6, -10.7211, 35.0606, 20.2941, -11.0164, -76.0638, 2.70388
4.36878, 6, -11.094, 35.0909, 20.5584, -11.3936, -76.7826, 2.60711
4.37612, 6, -11.4657, 35.1147, 20.8308, -11.7725, -77.4981, 2.49882
4.38299, 6, -11.651, 35.1242, 20.97, -11.9625, -77.8539, 2.43993
4.39227, 6, -12.2045, 35.1422, 21.3984, -12.5365, -78.9128, 2.2458
4.39895, 6, -12.3882, 35.1448, 21.5454, -12.7289, -79.2635, 2.17513
4.40699, 6, -12.7552, 35.1452, 21.8448, -13.1159, -79.9626, 2.02506
4.41649, 6, -13.3058, 35.1331, 22.3094, -13.7013, -81.0024, 1.77854
4.42458, 6, -13.6731, 35.1161, 22.6283, -14.0953, -81.6865, 1.59993
4.43247, 6, -14.0385, 35.0918, 22.9549, -14.4919, -82.3636, 1.41018
4.44056, 6, -14.3987, 35.0606, 23.2878, -14.8901, -83.034, 1.20973
4.44883, 6, -14.7515, 35.0228, 23.6264, -15.2891, -83.6945, 1.00001
4.45652, 6, -14.9247, 35.0015, 23.7967, -15.6862, -84.341, 0.782657
4.46468, 6, -15.2641, 34.955, 24.3098, -16.0784, -84.9679, 0.55977
4.47194, 6, -15.5932, 34.9039, 24.4798, -16.2718, -85.2725, 0.446746
4.47999, 6, -15.9111, 34.8489, 24.8158, -16.6507, -85.8617, 0.220076
4.48796, 6, -16.2172, 34.7913, 25.1424, -17.0159, -86.4207, -0.00543083
4.49593, 6, -16.5118, 34.732, 25.4571, -17.365, -86.9454, -0.226601
4.50398, 6, -16.7937, 34.6718, 25.7576, -17.6955, -87.4346, -0.441172
4.51196, 6, -17.059, 34.6118, 26.0421, -18.0057, -87.8864, -0.647142
4.51994, 6, -17.3037, 34.5529, 26.3091, -18.2945, -88.3002, -0.84276
4.52796, 6, -17.526, 34.496, 26.5565, -18.5605, -88.6762, -1.02639
4.53596, 6, -17.7268, 34.4423, 26.784, -18.803, -89.0145, -1.1966
4.54396, 6, -17.9062, 34.3926, 26.9905, -19.0214, -89.3149, -1.35159
4.55197, 6, -18.064, 34.3472, 27.1739, -19.2149, -89.5783, -1.49082
4.55996, 6, -18.2016, 34.3065, 27.3351, -19.3829, -89.8052, -1.61309
4.56793, 6, -18.3201, 34.2708, 27.4735, -19.5256, -89.9965, -1.71755
4.57597, 6, -18.4207, 34.2402, 27.5891, -19.6439, -90.1541, -1.80573
4.58398, 6, -18.5046, 34.2145, 27.6834, -19.7385, -90.2802, -1.87662
4.59197, 6, -18.5731, 34.1937, 27.7577, -19.8121, -90.378, -1.93228
4.60001, 6, -18.6282, 34.1771, 27.814, -19.8673, -90.451, -1.97459
4.60797, 6, -18.6713, 34.1641, 27.8554, -19.9061, -90.5031, -2.0054
4.61699, 6, -18.7038, 34.1546, 27.8845, -19.9325, -90.5381, -2.02659
4.62398, 6, -18.728, 34.1481, 27.9039, -19.9492, -90.5605, -2.04019
4.63094, 6, -18.7459, 34.1435, 27.9168, -19.959, -90.5736, -2.04828
4.63993, 6, -18.7584, 34.1402, 27.925, -19.9642, -90.5807, -2.05261
4.64799, 6, -18.7664, 34.1379, 27.9298, -19.9667, -90.5843, -2.05485
4.65596, 7, -18.7708, 34.1362, 27.933, -19.9679, -90.586, -2.05592
4.66395, 7, -18.7731, 34.1349, 27.9351, -19.9685, -90.5867, -2.0565
4.67197, 7, -18.774, 34.1339, 27.9367, -19.9688, -90.5871, -2.05672
4.67996, 7, -18.7741, 34.1331, 27.9381, -19.969, -90.5872, -2.0568
4.68793, 7, -18.7741, 34.1327, 27.9393, -19.9691, -90.5873, -2.05684
4.69596, 7, -18.7741, 34.1324, 27.9403, -19.9691, -90.5874, -2.05684
4.70398, 7, -18.7741, 34.1322, 27.9412, -19.9691, -90.5874, -2.05689
4.71193, 7, -18.7741, 34.1321, 27.9419, -19.9691, -90.5874, -2.05694
4.71997, 7, -18.7741, 34.1321, 27.9424, -19.9691, -90.5874, -2.05689
4.728, 7, -18.7741, 34.1321, 27.9429, -19.9691, -90.5874, -2.05693
4.73593, 7, -18.7742, 34.1321, 27.9433, -19.9691, -90.5873, -2.05694
4.74398, 7, -18.7742, 34.132, 27.9435, -19.969, -90.5873, -2.05695
4.75194, 7, -18.7742, 34.1319, 27.9437, -19.969, -90.5872, -2.0569
4.75997, 7, -18.7743, 34.1317, 27.9439, -19.969, -90.5872, -2.05688
4.76797, 7, -18.7744, 34.1314, 27.944, -19.969, -90.5871, -2.05688
