hehonglu123/ABB_Primitive_Study/realrobot/movec_30_ori/curve_exe_v1500_fine.csv
timestamp, cmd_num, J1, J2, J3, J4, J5, J6
0.000676, -1, -18.7703, 34.1304, 27.9443, -19.9673, -90.5846, -2.05505
0.005534, -1, -18.7703, 34.1304, 27.9443, -19.9674, -90.5846, -2.05505
0.007813, -1, -18.7703, 34.1304, 27.9443, -19.9674, -90.5846, -2.05505
0.031309, -1, -18.7703, 34.1304, 27.9443, -19.9674, -90.5846, -2.05507
0.032597, -1, -18.7703, 34.1304, 27.9443, -19.9674, -90.5846, -2.05507
0.034904, -1, -18.7703, 34.1304, 27.9443, -19.9674, -90.5846, -2.05511
0.039734, -1, -18.7703, 34.1304, 27.9443, -19.9674, -90.5846, -2.05513
0.047673, -1, -18.7702, 34.1304, 27.9443, -19.9674, -90.5846, -2.05503
0.055738, -1, -18.7697, 34.1304, 27.9443, -19.9674, -90.5846, -2.05505
0.063664, -1, -18.7674, 34.1297, 27.9443, -19.9673, -90.5846, -2.05507
0.071721, -1, -18.7622, 34.1278, 27.9445, -19.967, -90.5841, -2.05505
0.079749, -1, -18.7533, 34.1238, 27.9447, -19.9647, -90.5816, -2.05507
0.087668, -1, -18.7396, 34.117, 27.9449, -19.9576, -90.5746, -2.05557
0.095704, -1, -18.7188, 34.1064, 27.9449, -19.9427, -90.5594, -2.05912
0.103746, -1, -18.6887, 34.0909, 27.9446, -19.916, -90.532, -2.06978
0.111699, -1, -18.6479, 34.0703, 27.9432, -19.8723, -90.4863, -2.08897
0.119668, -1, -18.595, 34.0434, 27.94, -19.8061, -90.4175, -2.11895
0.127765, -1, -18.5286, 34.0097, 27.9344, -19.7141, -90.3208, -2.16207
0.135668, -1, -18.4482, 33.9689, 27.9257, -19.5919, -90.1925, -2.22042
0.143671, -1, -18.3538, 33.9213, 27.9136, -19.4382, -90.0303, -2.29305
0.15176, -1, -18.2458, 33.867, 27.898, -19.253, -89.8346, -2.38164
0.159694, -1, -18.1238, 33.8058, 27.8795, -19.0386, -89.608, -2.48368
0.1677, -1, -17.9886, 33.7381, 27.8584, -18.7993, -89.3543, -2.59783
0.176059, -1, -17.8414, 33.6645, 27.8354, -18.5402, -89.0789, -2.72188
0.183159, -1, -17.6835, 33.5855, 27.8114, -18.2664, -88.7878, -2.85276
0.191296, -1, -17.5162, 33.5018, 27.7868, -17.9825, -88.4861, -2.98891
0.200604, -1, -17.3409, 33.4142, 27.7619, -17.6926, -88.1776, -3.12816
0.207783, -1, -17.1601, 33.3238, 27.7368, -17.3987, -87.8653, -3.26958
0.215779, -1, -16.9755, 33.2317, 27.7117, -17.1026, -87.5504, -3.41201
0.224565, -1, -16.7882, 33.1385, 27.6866, -16.8053, -87.234, -3.55497
0.231672, -1, -16.5994, 33.045, 27.6616, -16.5068, -86.9164, -3.69827
0.23972, -1, -16.4096, 32.9512, 27.6365, -16.2076, -86.5979, -3.8417
0.248587, -1, -16.2196, 32.8573, 27.6113, -15.9077, -86.2786, -3.9855
0.255704, -1, -16.0297, 32.7636, 27.5863, -15.6068, -85.9587, -4.12962
0.263828, -1, -15.8402, 32.6698, 27.5612, -15.3056, -85.6383, -4.27389
0.27272, -1, -15.6513, 32.5761, 27.5361, -15.0042, -85.3173, -4.41869
0.279899, -1, -15.4627, 32.4823, 27.5108, -14.7021, -84.9961, -4.56358
0.288057, -1, -15.2745, 32.3882, 27.4855, -14.3997, -84.6743, -4.70831
0.294719, -1, -15.1805, 32.3411, 27.4729, -14.2485, -84.5132, -4.78092
0.302778, -1, -14.9928, 32.2466, 27.4476, -13.9456, -84.1911, -4.92616
0.312279, -1, -14.7106, 32.1041, 27.4094, -13.4906, -83.7073, -5.14414
0.320156, -1, -14.5213, 32.0089, 27.3838, -13.1871, -83.3843, -5.28965
0.328221, -1, -14.331, 31.9135, 27.3582, -12.8835, -83.0611, -5.43532
0.336251, -1, -14.1396, 31.8181, 27.3326, -12.5798, -82.7376, -5.58139
0.344267, -1, -14.0436, 31.7224, 27.307, -12.2756, -82.4139, -5.72723
0.352284, -1, -13.8514, 31.6747, 27.2813, -11.9713, -82.0899, -5.87288
0.359662, -1, -13.6586, 31.5792, 27.2684, -11.8191, -81.9278, -5.94573
0.367674, -1, -13.4652, 31.4838, 27.2428, -11.5148, -81.6038, -6.09147
0.375712, -1, -13.2714, 31.3884, 27.2172, -11.2104, -81.2797, -6.23713
0.383675, -1, -13.0779, 31.2931, 27.1916, -10.9061, -80.9556, -6.38311
0.391657, -1, -12.8851, 31.198, 27.1659, -10.6018, -80.6321, -6.52882
0.400918, -1, -12.597, 31.0554, 27.1276, -10.1452, -80.1469, -6.74773
0.407689, -1, -12.5014, 31.0078, 27.1149, -9.99308, -79.9851, -6.82074
0.415706, -1, -12.3108, 30.9126, 27.0892, -9.68902, -79.6616, -6.96643
0.423692, -1, -12.1211, 30.8175, 27.0635, -9.38497, -79.3381, -7.11211
0.431695, -1, -11.9321, 30.7221, 27.0379, -9.08124, -79.0147, -7.25761
0.438667, -1, -11.7432, 30.6268, 27.0124, -8.77763, -78.6914, -7.403
0.447676, -1, -11.5543, 30.5315, 26.9869, -8.47425, -78.3683, -7.54831
0.455654, -1, -11.365, 30.4364, 26.9612, -8.17155, -78.0462, -7.69356
0.463748, -1, -11.1754, 30.3415, 26.9357, -7.86918, -77.7244, -7.83864
0.471652, -1, -10.9855, 30.2467, 26.9102, -7.56721, -77.4029, -7.9833
0.479655, -1, -10.7951, 30.1523, 26.8849, -7.26593, -77.0823, -8.12767
0.488665, -1, -10.6046, 30.058, 26.8595, -6.96475, -76.7621, -8.27164
0.497286, -1, -10.4138, 29.9639, 26.8341, -6.66419, -76.4422, -8.41533
0.503687, -1, -10.223, 29.8699, 26.8089, -6.3644, -76.1227, -8.55876
0.511729, -1, -10.0329, 29.7763, 26.7838, -6.06494, -75.8038, -8.70206
0.519649, -1, -9.84348, 29.6828, 26.7587, -5.76614, -75.4856, -8.84518
0.527653, -1, -9.65497, 29.5894, 26.7336, -5.46788, -75.1683, -8.98802
0.535657, -1, -9.46726, 29.4962, 26.7085, -5.17005, -74.8516, -9.13037
0.543667, -1, -9.28054, 29.4031, 26.6835, -4.87311, -74.5357, -9.27241
0.551725, -1, -9.09487, 29.3102, 26.6585, -4.57711, -74.2206, -9.41406
0.559664, -1, -8.91003, 29.2173, 26.6336, -4.28158, -73.9062, -9.55534
0.567656, -1, -8.72601, 29.1246, 26.6087, -3.98716, -73.5927, -9.6965
0.575752, -1, -8.54243, 29.0322, 26.5839, -3.69336, -73.2799, -9.83708
0.583653, -1, -8.35908, 28.9402, 26.5592, -3.40024, -72.9683, -9.97755
0.591655, -1, -8.17612, 28.8485, 26.5346, -3.10831, -72.6576, -10.1175
0.599764, -1, -7.99298, 28.7571, 26.5099, -2.81715, -72.3475, -10.2568
0.607651, -1, -7.80979, 28.6661, 26.4854, -2.52693, -72.0385, -10.3957
0.615671, -1, -7.62688, 28.5755, 26.4611, -2.23784, -71.7304, -10.534
0.623723, -1, -7.44425, 28.4852, 26.4369, -1.94917, -71.4231, -10.6718
0.631681, -1, -7.26181, 28.395, 26.4127, -1.66152, -71.1171, -10.8095
0.639665, -1, -7.08002, 28.3053, 26.3886, -1.37513, -70.8121, -10.9466
0.647714, -1, -6.89896, 28.2159, 26.3645, -1.08956, -70.5081, -11.0834
0.655656, -1, -6.71902, 28.1267, 26.3406, -0.805199, -70.2054, -11.2197
0.663654, -1, -6.54004, 28.0378, 26.3168, -0.521791, -69.904, -11.3554
0.671727, -1, -6.36223, 27.9492, 26.2929, -0.239363, -69.6038, -11.4905
0.679784, -1, -6.18568, 27.8609, 26.2691, 0.0421168, -69.3044, -11.6253
0.687794, -1, -6.01001, 27.7729, 26.2456, 0.322474, -69.0061, -11.7595
0.695743, -1, -5.83536, 27.6852, 26.2221, 0.601576, -68.7089, -11.8931
0.703813, -1, -5.66151, 27.5977, 26.1987, 0.879731, -68.4127, -12.0264
0.711777, -1, -5.4882, 27.5108, 26.1752, 1.15668, -68.1176, -12.1592
0.719755, -1, -5.31528, 27.4242, 26.152, 1.43246, -67.8237, -12.2914
0.727831, -1, -5.14265, 27.338, 26.1288, 1.70741, -67.5312, -12.423
0.735657, -1, -4.97027, 27.2522, 26.1059, 1.98114, -67.24, -12.5541
0.743718, -1, -4.79819, 27.1668, 26.0829, 2.25346, -66.95, -12.6842
0.751983, -1, -4.62669, 27.0818, 26.06, 2.52479, -66.6616, -12.8139
0.759711, -1, -4.45562, 26.9971, 26.0373, 2.79474, -66.3743, -12.9431
0.767856, -1, -4.28496, 26.9128, 26.0146, 3.06334, -66.0881, -13.0717
0.775925, -1, -4.11481, 26.8288, 25.9921, 3.33126, -65.8031, -13.1997
0.783923, -1, -3.94564, 26.7451, 25.9697, 3.59785, -65.5194, -13.3275
0.792046, -1, -3.77777, 26.6618, 25.9473, 3.86318, -65.2367, -13.4547
0.798644, -1, -3.69427, 26.6203, 25.9362, 3.99544, -65.0958, -13.5179
0.808204, -1, -3.44549, 26.4961, 25.9029, 4.39048, -64.6754, -13.7068
0.816237, -1, -3.281, 26.4138, 25.8808, 4.65227, -64.3966, -13.8319
0.824206, -1, -3.11747, 26.3318, 25.8587, 4.91304, -64.119, -13.9564
0.832205, -1, -2.95516, 26.2502, 25.8368, 5.17278, -63.8429, -14.0806
0.840278, -1, -2.79371, 26.1689, 25.8151, 5.43125, -63.5678, -14.2043
0.848541, -1, -2.71327, 26.0881, 25.7935, 5.6884, -63.2942, -14.3272
0.856198, -1, -2.55284, 26.0479, 25.7828, 5.8165, -63.1578, -14.45
0.864254, -1, -2.39258, 25.9677, 25.7613, 6.07187, -62.8859, -14.5112
0.871644, -1, -2.23259, 25.888, 25.7398, 6.32601, -62.6155, -14.6328
0.879646, -1, -2.07299, 25.8086, 25.7185, 6.57891, -62.3462, -14.7539
0.887704, -1, -1.91389, 25.7297, 25.6973, 6.83093, -62.078, -14.8742
0.895635, -1, -1.75531, 25.6511, 25.6763, 7.08174, -61.8109, -14.9942
0.90364, -1, -1.59725, 25.5729, 25.6554, 7.33124, -61.5451, -15.1133
0.911676, -1, -1.43943, 25.4949, 25.6344, 7.57965, -61.2803, -15.2323
0.919634, -1, -1.2821, 25.4173, 25.6135, 7.82707, -61.0167, -15.3508
0.927712, -1, -1.12566, 25.34, 25.5929, 8.07318, -60.7544, -15.4685
0.935674, -1, -0.970163, 25.2631, 25.5723, 8.31824, -60.4934, -15.5861
0.943654, -1, -0.815986, 25.1864, 25.5518, 8.56264, -60.2336, -15.7029
0.951726, -1, -0.662941, 25.1101, 25.5314, 8.80563, -59.9749, -15.819
0.959638, -1, -0.51091, 25.0342, 25.5109, 9.04739, -59.7176, -15.9348
0.96766, -1, -0.36005, 24.9587, 25.4906, 9.28803, -59.4619, -16.0499
0.975699, -1, -0.210293, 24.8835, 25.4705, 9.52777, -59.2072, -16.1647
0.98366, -1, -0.0614787, 24.8087, 25.4505, 9.76618, -58.9535, -16.279
0.992651, -1, 0.0865063, 24.7342, 25.4307, 10.0034, -58.7009, -16.3928
0.999652, -1, 0.233889, 24.66, 25.4107, 10.2399, -58.4493, -16.5062
1.00769, -1, 0.381132, 24.5862, 25.3909, 10.4752, -58.1987, -16.6191
1.01563, -1, 0.528303, 24.5127, 25.3712, 10.7093, -57.9491, -16.7315
1.02367, -1, 0.675235, 24.4395, 25.3516, 10.9423, -57.7006, -16.8432
1.03168, -1, 0.821945, 24.3666, 25.3321, 11.1745, -57.4531, -16.9543
1.03963, -1, 0.968209, 24.294, 25.3128, 11.4054, -57.2069, -17.0649
1.04764, -1, 1.11385, 24.2218, 25.2933, 11.6353, -56.9619, -17.1747
1.05568, -1, 1.25905, 24.1499, 25.274, 11.8642, -56.7183, -17.2841
1.06366, -1, 1.40374, 24.0783, 25.2549, 12.0923, -56.4758, -17.3931
1.07165, -1, 1.54803, 24.007, 25.2357, 12.3194, -56.2345, -17.5014
1.07972, -1, 1.69166, 23.9361, 25.2168, 12.5451, -55.9942, -17.6095
1.08765, -1, 1.83427, 23.8656, 25.198, 12.77, -55.7551, -17.7171
1.09565, -1, 1.97574, 23.7954, 25.179, 12.994, -55.517, -17.8245
1.10372, -1, 2.11636, 23.7254, 25.1603, 13.2167, -55.2799, -17.9312
1.11165, -1, 2.25606, 23.6558, 25.1417, 13.4385, -55.0437, -18.0372
1.12036, -1, 2.39469, 23.5865, 25.1231, 13.6595, -54.8084, -18.1432
1.12764, -1, 2.53239, 23.5174, 25.1047, 13.8795, -54.5739, -18.2482
1.13567, -1, 2.66914, 23.4487, 25.0864, 14.0986, -54.3404, -18.353
1.14443, -1, 2.80494, 23.3802, 25.068, 14.3165, -54.1082, -18.4572
1.15165, -1, 2.94014, 23.3121, 25.0498, 14.5337, -53.877, -18.561
1.15964, -1, 3.07506, 23.244, 25.0315, 14.75, -53.6468, -18.6647
1.16841, -1, 3.20992, 23.1764, 25.0134, 14.9651, -53.4177, -18.7675
1.17565, -1, 3.34484, 23.109, 24.9954, 15.1795, -53.1895, -18.8704
1.18376, -1, 3.47945, 23.042, 24.9776, 15.3931, -52.9623, -18.9726
1.1925, -1, 3.61377, 22.9753, 24.9596, 15.6059, -52.7362, -19.0744
1.19976, -1, 3.74777, 22.9089, 24.9419, 15.8176, -52.5107, -19.1755
1.20774, -1, 3.88132, 22.8427, 24.9242, 16.0283, -52.2866, -19.2765
1.21651, -1, 4.01451, 22.7768, 24.9065, 16.2383, -52.0632, -19.3768
1.22381, -1, 4.14727, 22.7113, 24.8889, 16.4474, -51.8405, -19.4767
1.23174, -1, 4.27955, 22.646, 24.8715, 16.6555, -51.6188, -19.5763
1.24054, -1, 4.4112, 22.5809, 24.854, 16.8628, -51.3979, -19.6754
1.24784, -1, 4.5421, 22.516, 24.8367, 17.0694, -51.178, -19.7743
1.25566, -1, 4.67236, 22.4513, 24.8195, 17.2752, -50.9589, -19.8726
1.26467, -1, 4.80186, 22.387, 24.8022, 17.48, -50.7406, -19.9709
1.27181, -1, 4.93062, 22.3228, 24.785, 17.6841, -50.5233, -20.0686
1.27988, -1, 5.0586, 22.2588, 24.7681, 17.8874, -50.3067, -20.1663
1.28881, -1, 5.18579, 22.1951, 24.751, 18.09, -50.091, -20.2629
1.29593, -1, 5.31215, 22.1317, 24.734, 18.2918, -49.8762, -20.3596
1.30406, -1, 5.4376, 22.0685, 24.7171, 18.4927, -49.6622, -20.4556
1.31212, -1, 5.56226, 22.0057, 24.7003, 18.6929, -49.4492, -20.5514
1.32011, -1, 5.68638, 21.9431, 24.6834, 18.8924, -49.2371, -20.6466
1.32664, -1, 5.74833, 21.9119, 24.675, 18.992, -49.1312, -20.6943
1.33621, -1, 5.93395, 21.8187, 24.6503, 19.2891, -48.8156, -20.8363
1.34269, -1, 5.99581, 21.7877, 24.642, 19.3877, -48.7107, -20.8838
1.35226, -1, 6.18122, 21.6952, 24.6172, 19.6826, -48.3972, -21.0249
1.36021, -1, 6.24292, 21.6644, 24.609, 19.7806, -48.293, -21.1189
1.36672, -1, 6.3662, 21.6031, 24.5926, 19.9758, -48.0852, -21.1656
1.3767, -1, 6.55076, 21.5115, 24.568, 20.2671, -47.7749, -21.3055
1.38363, -1, 6.6121, 21.4811, 24.5599, 20.3638, -47.6718, -21.3516
1.39069, -1, 6.73453, 21.4205, 24.5438, 20.5569, -47.4661, -21.4442
1.39968, -1, 6.85661, 21.36, 24.5276, 20.7495, -47.2609, -21.536
1.40762, -1, 6.97821, 21.2999, 24.5114, 20.9409, -47.0567, -21.6278
1.41571, -1, 7.09924, 21.24, 24.4953, 21.132, -46.8532, -21.719
1.42362, -1, 7.2196, 21.1804, 24.4793, 21.3221, -46.6504, -21.81
1.43163, -1, 7.33939, 21.121, 24.4634, 21.5119, -46.4485, -21.9007
1.44112, -1, 7.51792, 21.0324, 24.4398, 21.7949, -46.1472, -22.0361
1.44663, -1, 7.57719, 21.0029, 24.432, 21.8889, -46.047, -22.081
1.45566, -1, 7.69544, 20.9441, 24.4162, 22.0765, -45.8475, -22.1708
1.46519, -1, 7.87182, 20.8562, 24.3926, 22.3568, -45.5496, -22.305
1.47164, -1, 7.93036, 20.827, 24.3847, 22.45, -45.4507, -22.3497
1.47962, -1, 8.04692, 20.7686, 24.3691, 22.6357, -45.2536, -22.4385
1.48913, -1, 8.16292, 20.7105, 24.3534, 22.8206, -45.0571, -22.5268
1.49564, -1, 8.27847, 20.6525, 24.338, 23.0049, -44.8611, -22.6151
1.50462, -1, 8.39367, 20.5947, 24.3227, 23.1886, -44.6656, -22.7027
1.51168, -1, 8.50852, 20.5372, 24.3073, 23.3716, -44.4706, -22.7903
1.51961, -1, 8.62287, 20.48, 24.2919, 23.554, -44.2763, -22.8772
1.52762, -1, 8.73668, 20.423, 24.2766, 23.7357, -44.0825, -22.9644
1.53562, -1, 8.85021, 20.3662, 24.2614, 23.9168, -43.8894, -23.0508
1.54362, -1, 8.96344, 20.3096, 24.2462, 24.0976, -43.6968, -23.1374
1.5517, -1, 9.0765, 20.2531, 24.2312, 24.2777, -43.5053, -23.2232
1.55962, -1, 9.1896, 20.1968, 24.2163, 24.4571, -43.3143, -23.3094
1.56762, -1, 9.30261, 20.1407, 24.2012, 24.6358, -43.1238, -23.3951
1.57569, -1, 9.41544, 20.0847, 24.1861, 24.8139, -42.9341, -23.4808
1.58365, -1, 9.5279, 20.0289, 24.1711, 24.9918, -42.745, -23.5657
1.59162, -1, 9.63984, 19.9732, 24.1562, 25.1689, -42.5564, -23.6504
1.59969, -1, 9.75136, 19.9176, 24.1413, 25.3454, -42.3685, -23.7351
1.60771, -1, 9.86269, 19.8623, 24.1265, 25.5214, -42.1811, -23.8191
1.61562, -1, 9.97368, 19.8072, 24.112, 25.697, -41.9944, -23.9031
1.62371, -1, 10.0842, 19.7522, 24.0974, 25.8722, -41.8085, -23.9862
1.63163, -1, 10.1944, 19.6976, 24.0827, 26.0467, -41.6229, -24.07
1.63963, -1, 10.3043, 19.643, 24.068, 26.2205, -41.4379, -24.1527
1.64769, -1, 10.4136, 19.5888, 24.0534, 26.3938, -41.2534, -24.236
1.65562, -1, 10.5224, 19.5346, 24.0389, 26.5665, -41.0694, -24.3185
1.66369, -1, 10.6309, 19.4805, 24.0244, 26.739, -40.8859, -24.4011
1.6719, -1, 10.739, 19.4267, 24.0101, 26.9106, -40.7032, -24.4834
1.67963, -1, 10.8467, 19.3729, 23.9959, 27.0818, -40.5207, -24.5653
1.68772, -1, 10.9541, 19.3193, 23.9816, 27.2523, -40.3389, -24.6474
1.69594, -1, 11.061, 19.2658, 23.9673, 27.4226, -40.1577, -24.7283
1.70371, -1, 11.1675, 19.2124, 23.9529, 27.5924, -39.9769, -24.8099
1.71178, -1, 11.2737, 19.1593, 23.9387, 27.7616, -39.7969, -24.8905
1.72018, -1, 11.3795, 19.1063, 23.9245, 27.9302, -39.6173, -24.9715
1.72773, -1, 11.4847, 19.0535, 23.9103, 28.0984, -39.4382, -25.0519
1.73579, -1, 11.5898, 19.001, 23.8963, 28.266, -39.2597, -25.1321
1.74415, -1, 11.6947, 18.9486, 23.8825, 28.4334, -39.0815, -25.2123
1.75169, -1, 11.7994, 18.8963, 23.8685, 28.6002, -38.9041, -25.292
1.75971, -1, 11.9039, 18.8443, 23.8544, 28.7665, -38.7271, -25.372
1.76872, -1, 12.0083, 18.7923, 23.8404, 28.9322, -38.5504, -25.4511
1.77583, -1, 12.1125, 18.7404, 23.8265, 29.0975, -38.3746, -25.531
1.78464, -1, 12.2166, 18.6886, 23.8126, 29.2625, -38.1993, -25.6097
1.79194, -1, 12.3205, 18.637, 23.7988, 29.4272, -38.0246, -25.6889
1.79999, -1, 12.4241, 18.5855, 23.7851, 29.5912, -37.8503, -25.7675
1.80883, -1, 12.5274, 18.534, 23.7715, 29.7547, -37.6764, -25.8455
1.81649, -1, 12.6305, 18.4828, 23.7578, 29.9178, -37.503, -25.924
1.82417, -1, 12.7333, 18.4317, 23.7441, 30.0805, -37.3297, -26.0013
1.83295, -1, 12.8357, 18.3807, 23.7303, 30.2427, -37.157, -26.0791
1.84023, -1, 12.9378, 18.3301, 23.7167, 30.4045, -36.9847, -26.1561
1.84821, -1, 13.0396, 18.2795, 23.7032, 30.5658, -36.8127, -26.2331
1.85707, -1, 13.0903, 18.2543, 23.6964, 30.7264, -36.6414, -26.3102
1.86437, -1, 13.1915, 18.2041, 23.6829, 30.8068, -36.556, -26.3483
1.87217, -1, 13.2923, 18.1539, 23.6696, 30.9671, -36.3852, -26.4248
1.8796, -1, 13.3928, 18.1039, 23.6563, 31.127, -36.215, -26.5016
1.88761, -1, 13.4929, 18.054, 23.6429, 31.2864, -36.0452, -26.5775
1.89565, -1, 13.5929, 18.004, 23.6295, 31.4454, -35.8759, -26.6541
1.9036, -1, 13.6928, 17.9542, 23.6162, 31.6038, -35.7071, -26.7298
1.91162, -1, 13.7924, 17.9044, 23.6029, 31.7619, -35.5388, -26.8056
1.91968, -1, 13.8918, 17.8547, 23.5896, 31.9199, -35.371, -26.8813
1.9276, -1, 13.991, 17.8051, 23.5763, 32.0773, -35.2035, -26.9561
1.93565, -1, 14.0901, 17.7557, 23.5631, 32.2342, -35.0363, -27.0316
1.9436, -1, 14.1888, 17.7065, 23.5501, 32.3907, -34.87, -27.1059
1.95162, -1, 14.2872, 17.6574, 23.5369, 32.5468, -34.7038, -27.1808
1.95968, -1, 14.3852, 17.6086, 23.5238, 32.7028, -34.5384, -27.2551
1.9676, -1, 14.4829, 17.5599, 23.5106, 32.8584, -34.3731, -27.3288
1.97562, -1, 14.5802, 17.5114, 23.4977, 33.0135, -34.208, -27.4035
1.98367, -1, 14.6772, 17.4629, 23.4847, 33.1681, -34.0434, -27.4771
1.99321, -1, 14.7739, 17.4147, 23.4718, 33.3225, -33.8789, -27.5881
1.9996, -1, 14.8703, 17.3665, 23.4588, 33.4764, -33.7152, -27.6248
2.0077, -1, 14.9667, 17.3183, 23.4461, 33.63, -33.5516, -27.6983
2.01666, -1, 15.0628, 17.2701, 23.4333, 33.7832, -33.3883, -27.7722
2.02359, -1, 15.1589, 17.222, 23.4205, 33.936, -33.2254, -27.8453
2.03167, -1, 15.2547, 17.174, 23.4075, 34.0882, -33.0632, -27.9187
2.03961, -1, 15.3505, 17.1262, 23.3947, 34.2402, -32.9013, -27.9915
2.0476, -1, 15.4463, 17.0783, 23.3818, 34.392, -32.74, -28.0638
2.05566, -1, 15.542, 17.0306, 23.369, 34.5436, -32.5789, -28.1368
2.0636, -1, 15.6376, 16.9833, 23.3563, 34.6945, -32.4182, -28.2086
2.0716, -1, 15.7328, 16.936, 23.3436, 34.8452, -32.2578, -28.2811
2.07967, -1, 15.8279, 16.8889, 23.3311, 34.9954, -32.0976, -28.3531
2.08763, -1, 15.9228, 16.8421, 23.3186, 35.1452, -31.9382, -28.4242
2.0956, -1, 16.0174, 16.7952, 23.3061, 35.295, -31.779, -28.4963
2.10366, -1, 16.1116, 16.7486, 23.2934, 35.4444, -31.62, -28.5676
2.1116, -1, 16.2055, 16.702, 23.2809, 35.5934, -31.4617, -28.6389
2.11962, -1, 16.2991, 16.6554, 23.2685, 35.742, -31.3036, -28.7102
2.12768, -1, 16.3925, 16.609, 23.256, 35.8902, -31.1457, -28.7808
2.13562, -1, 16.4856, 16.5625, 23.2435, 36.0382, -30.9881, -28.8522
2.14362, -1, 16.5784, 16.5159, 23.2311, 36.186, -30.8309, -28.9229
2.15167, -1, 16.6709, 16.4696, 23.2188, 36.3336, -30.6739, -28.9933
2.15961, -1, 16.7633, 16.4233, 23.2064, 36.4806, -30.5175, -29.0641
2.1676, -1, 16.8555, 16.377, 23.1941, 36.6273, -30.3612, -29.1339
2.17569, -1, 16.9476, 16.331, 23.1816, 36.7737, -30.2055, -29.204
2.18361, -1, 17.0395, 16.2851, 23.1693, 36.9198, -30.0498, -29.2741
2.19165, -1, 17.1311, 16.2395, 23.1571, 37.0656, -29.8946, -29.3433
2.19976, -1, 17.2213, 16.1944, 23.1447, 37.211, -29.7396, -29.4132
2.20769, -1, 17.308, 16.151, 23.1322, 37.3557, -29.5858, -29.4821
2.2157, -1, 17.3899, 16.11, 23.1196, 37.4979, -29.434, -29.5499
2.22377, -1, 17.4663, 16.0719, 23.1072, 37.6357, -29.287, -29.6164
2.2317, -1, 17.5371, 16.0371, 23.0951, 37.7655, -29.1484, -29.6784
2.23968, -1, 17.601, 16.0061, 23.0839, 37.8838, -29.0221, -29.7352
2.24767, -1, 17.6574, 15.9786, 23.0741, 37.987, -28.9115, -29.7853
2.25566, -1, 17.7073, 15.9539, 23.0664, 38.0711, -28.821, -29.8264
2.2637, -1, 17.7512, 15.9313, 23.0612, 38.1369, -28.75, -29.8581
2.27176, -1, 17.789, 15.9117, 23.058, 38.1834, -28.6994, -29.8807
2.2798, -1, 17.8197, 15.896, 23.0563, 38.2145, -28.6654, -29.8958
2.28821, -1, 17.8441, 15.8841, 23.0556, 38.2339, -28.6442, -29.905
2.29594, -1, 17.8626, 15.8754, 23.0552, 38.245, -28.632, -29.9101
2.30391, -1, 17.8748, 15.8699, 23.0551, 38.2506, -28.6257, -29.9127
2.31225, 2, 17.8812, 15.8669, 23.055, 38.2534, -28.6227, -29.9139
2.32014, 2, 17.8841, 15.8654, 23.055, 38.2547, -28.6212, -29.9145
2.32812, 2, 17.885, 15.8648, 23.055, 38.2553, -28.6206, -29.9148
2.33619, 2, 17.8847, 15.8645, 23.055, 38.2556, -28.6203, -29.915
2.34419, 2, 17.884, 15.8644, 23.055, 38.2558, -28.6201, -29.915
2.35216, 2, 17.8836, 15.8643, 23.0551, 38.2558, -28.6201, -29.9151
2.36019, 2, 17.8831, 15.8643, 23.055, 38.2559, -28.6201, -29.9151
2.36818, 2, 17.8829, 15.8642, 23.055, 38.2559, -28.62, -29.9151
2.37647, 2, 17.8828, 15.864, 23.055, 38.2559, -28.62, -29.9151
2.38359, 2, 17.8829, 15.8639, 23.055, 38.2559, -28.62, -29.9151
2.39164, 2, 17.8831, 15.8636, 23.055, 38.2559, -28.62, -29.9151
2.3996, 2, 17.8834, 15.8633, 23.055, 38.2559, -28.6201, -29.9151
2.40759, 2, 17.8839, 15.863, 23.055, 38.2558, -28.62, -29.9152
2.41569, 2, 17.8845, 15.8628, 23.055, 38.2559, -28.62, -29.9151
2.42361, 2, 17.8854, 15.8627, 23.055, 38.2559, -28.62, -29.9151
2.43158, 2, 17.8862, 15.8626, 23.055, 38.2559, -28.62, -29.9151
2.43966, 2, 17.8868, 15.8626, 23.055, 38.2559, -28.62, -29.9151
2.44759, 2, 17.8872, 15.8626, 23.055, 38.2559, -28.62, -29.9151
2.45558, 2, 17.8875, 15.8626, 23.055, 38.2559, -28.62, -29.915
2.46259, 2, 17.8876, 15.8626, 23.055, 38.2559, -28.6201, -29.9151
2.47159, 2, 17.8876, 15.8626, 23.055, 38.2559, -28.6201, -29.9151
2.47963, 2, 17.8877, 15.8626, 23.055, 38.2559, -28.6201, -29.9151
2.48765, 2, 17.8877, 15.8626, 23.055, 38.2559, -28.6201, -29.9151
2.49745, 2, 17.8876, 15.8626, 23.055, 38.2559, -28.6201, -29.9151
2.5036, 2, 17.8875, 15.8625, 23.055, 38.2559, -28.6202, -29.9151
2.51169, 2, 17.8873, 15.8624, 23.055, 38.2559, -28.6202, -29.9151
2.5196, 2, 17.8871, 15.8623, 23.055, 38.2559, -28.6203, -29.9151
2.52758, 2, 17.887, 15.8623, 23.055, 38.2559, -28.6203, -29.9151
2.53565, 2, 17.8869, 15.8623, 23.055, 38.2559, -28.6203, -29.9151
2.54358, 2, 17.8869, 15.8623, 23.055, 38.2558, -28.6203, -29.9151
2.55158, 2, 17.8869, 15.8623, 23.055, 38.2558, -28.6203, -29.915
2.55966, 2, 17.8869, 15.8623, 23.055, 38.2558, -28.6203, -29.9151
2.56758, 2, 17.8869, 15.8623, 23.055, 38.2559, -28.6203, -29.915
2.57558, 2, 17.8869, 15.8624, 23.055, 38.2559, -28.6203, -29.9151
2.58365, 2, 17.8869, 15.8624, 23.055, 38.2559, -28.6203, -29.9151
2.59162, 2, 17.8869, 15.8623, 23.055, 38.2558, -28.6204, -29.9151
2.5996, 2, 17.8869, 15.8623, 23.055, 38.2558, -28.6204, -29.915
2.60765, 2, 17.8869, 15.8623, 23.055, 38.2559, -28.6204, -29.915
2.61558, 2, 17.8869, 15.8623, 23.055, 38.2559, -28.6204, -29.915
2.62358, 2, 17.8869, 15.8623, 23.055, 38.2559, -28.6205, -29.915
2.63166, 2, 17.8869, 15.8622, 23.055, 38.2559, -28.6205, -29.915
2.6396, 2, 17.8868, 15.8623, 23.055, 38.2559, -28.6205, -29.915
2.6476, 2, 17.8868, 15.8623, 23.055, 38.2559, -28.6205, -29.915
2.65564, 2, 17.8868, 15.8623, 23.055, 38.2559, -28.6205, -29.915
2.66358, 2, 17.8868, 15.8623, 23.055, 38.2558, -28.6205, -29.915
2.67158, 2, 17.8867, 15.8623, 23.055, 38.2559, -28.6206, -29.915
2.6797, 2, 17.8867, 15.8623, 23.055, 38.2559, -28.6206, -29.915
2.6876, 2, 17.8867, 15.8623, 23.055, 38.2559, -28.6206, -29.915
2.69564, 2, 17.8867, 15.8623, 23.055, 38.2559, -28.6206, -29.915
2.70373, 2, 17.8867, 15.8623, 23.055, 38.2559, -28.6206, -29.915
2.71168, 2, 17.8867, 15.8623, 23.055, 38.2558, -28.6206, -29.915
2.7197, 2, 17.8867, 15.8623, 23.055, 38.2558, -28.6206, -29.915
2.72783, 2, 17.8867, 15.8623, 23.055, 38.2558, -28.6206, -29.915
2.73569, 2, 17.8867, 15.8623, 23.055, 38.2558, -28.6207, -29.915
2.74359, 2, 17.8866, 15.8623, 23.055, 38.2558, -28.6206, -29.915
2.75165, 2, 17.8866, 15.8623, 23.055, 38.2558, -28.6207, -29.915
2.75972, 2, 17.8866, 15.8623, 23.055, 38.2558, -28.6208, -29.915
2.76766, 2, 17.8865, 15.8623, 23.055, 38.2558, -28.6208, -29.915
2.77571, 2, 17.8865, 15.8624, 23.055, 38.2558, -28.6208, -29.915
2.78399, 2, 17.8865, 15.8624, 23.055, 38.2558, -28.6208, -29.915
2.79063, 2, 17.8865, 15.8623, 23.055, 38.2558, -28.6208, -29.915
2.79994, 2, 17.8865, 15.8624, 23.055, 38.2557, -28.6208, -29.915
2.80796, 2, 17.8864, 15.8624, 23.055, 38.2557, -28.6209, -29.915
2.81464, 2, 17.8864, 15.8624, 23.055, 38.2558, -28.6209, -29.915
2.82424, 2, 17.8864, 15.8623, 23.055, 38.2557, -28.6209, -29.915
2.83223, 2, 17.8863, 15.8623, 23.055, 38.2557, -28.6209, -29.915
2.84019, 2, 17.8863, 15.8623, 23.055, 38.2557, -28.6208, -29.9151
2.84819, 2, 17.8862, 15.8624, 23.055, 38.2557, -28.6208, -29.915
2.85618, 2, 17.8862, 15.8623, 23.055, 38.2557, -28.6209, -29.915
2.86432, 2, 17.8862, 15.8624, 23.055, 38.2557, -28.6209, -29.915
2.87214, 2, 17.8861, 15.8624, 23.055, 38.2557, -28.6209, -29.915
2.87958, 2, 17.8861, 15.8624, 23.055, 38.2557, -28.6209, -29.915
2.88767, 2, 17.886, 15.8624, 23.055, 38.2557, -28.6209, -29.915
2.89562, 2, 17.886, 15.8624, 23.055, 38.2557, -28.6209, -29.915
2.90356, 2, 17.8859, 15.8624, 23.055, 38.2557, -28.6209, -29.915
2.91157, 2, 17.8859, 15.8624, 23.055, 38.2557, -28.6209, -29.915
2.91963, 2, 17.8858, 15.8624, 23.055, 38.2557, -28.6209, -29.915
2.9276, 2, 17.8858, 15.8624, 23.055, 38.2557, -28.6209, -29.915
2.93557, 2, 17.8857, 15.8624, 23.055, 38.2557, -28.6208, -29.915
2.94361, 2, 17.8857, 15.8624, 23.055, 38.2557, -28.6209, -29.915
2.95157, 2, 17.8857, 15.8624, 23.055, 38.2556, -28.6209, -29.915
2.95959, 2, 17.8856, 15.8624, 23.055, 38.2556, -28.6209, -29.915
2.96765, 2, 17.8855, 15.8624, 23.055, 38.2556, -28.621, -29.9149
2.97556, 2, 17.8855, 15.8624, 23.055, 38.2556, -28.621, -29.915
2.98359, 2, 17.8854, 15.8624, 23.0551, 38.2556, -28.621, -29.915
2.99311, 2, 17.8854, 15.8624, 23.0551, 38.2556, -28.621, -29.915
2.99958, 2, 17.8853, 15.8624, 23.055, 38.2556, -28.6211, -29.915
3.00858, 2, 17.8853, 15.8624, 23.055, 38.2556, -28.6212, -29.915
3.01567, 2, 17.8852, 15.8624, 23.055, 38.2556, -28.6211, -29.915
3.02357, 2, 17.8852, 15.8624, 23.055, 38.2555, -28.6211, -29.915
3.03156, 2, 17.8851, 15.8624, 23.0551, 38.2555, -28.6212, -29.915
3.03965, 2, 17.885, 15.8624, 23.0551, 38.2555, -28.6212, -29.915
3.04756, 2, 17.885, 15.8624, 23.0551, 38.2555, -28.6212, -29.915
3.05557, 2, 17.8849, 15.8624, 23.0551, 38.2555, -28.6212, -29.915
3.06364, 2, 17.8849, 15.8624, 23.0551, 38.2554, -28.6212, -29.915
3.07157, 2, 17.8848, 15.8624, 23.0551, 38.2555, -28.6212, -29.915
3.21294, 2, 17.8841, 15.8625, 23.0551, 38.2552, -28.6213, -29.9149
3.2142, 2, 17.8841, 15.8625, 23.0551, 38.2552, -28.6213, -29.9149
3.21618, 2, 17.8841, 15.8625, 23.0551, 38.2552, -28.6213, -29.9149
3.21746, 2, 17.8841, 15.8625, 23.0551, 38.2552, -28.6213, -29.9149
3.21964, 2, 17.8841, 15.8625, 23.0551, 38.2552, -28.6213, -29.9149
3.22087, 2, 17.8841, 15.8625, 23.0551, 38.2552, -28.6213, -29.9149
3.22208, 2, 17.8841, 15.8625, 23.0551, 38.2552, -28.6213, -29.9149
3.22573, 2, 17.8841, 15.8625, 23.0551, 38.2552, -28.6213, -29.9149
3.228, 2, 17.884, 15.8625, 23.0551, 38.2552, -28.6212, -29.9149
3.22933, 2, 17.884, 15.8625, 23.0551, 38.2552, -28.6212, -29.9149
3.23108, 2, 17.884, 15.8625, 23.0551, 38.2552, -28.6212, -29.9149
3.23252, 2, 17.884, 15.8625, 23.0551, 38.2552, -28.6212, -29.9149
3.2337, 2, 17.884, 15.8625, 23.0551, 38.2552, -28.6212, -29.9149
3.23575, 2, 17.884, 15.8625, 23.0551, 38.2552, -28.6213, -29.9149
3.23827, 2, 17.884, 15.8625, 23.0551, 38.2552, -28.6213, -29.9149
3.24042, 2, 17.8841, 15.8625, 23.0551, 38.2551, -28.6213, -29.9149
3.24162, 2, 17.8841, 15.8625, 23.0551, 38.2551, -28.6213, -29.9149
3.24364, 2, 17.8841, 15.8625, 23.0551, 38.2551, -28.6213, -29.9149
3.24492, 2, 17.8841, 15.8625, 23.0551, 38.2551, -28.6213, -29.9149
3.2461, 2, 17.8841, 15.8625, 23.0551, 38.2551, -28.6213, -29.9149
3.24848, 2, 17.884, 15.8625, 23.055, 38.2551, -28.6213, -29.9149
3.24975, 2, 17.884, 15.8625, 23.055, 38.2551, -28.6213, -29.9149
3.25565, 2, 17.884, 15.8625, 23.055, 38.2551, -28.6213, -29.9149
3.26362, 2, 17.884, 15.8625, 23.0551, 38.2551, -28.6213, -29.9149
3.27164, 2, 17.884, 15.8625, 23.0551, 38.255, -28.6213, -29.9149
3.27974, 2, 17.884, 15.8625, 23.0551, 38.255, -28.6213, -29.9149
3.28775, 2, 17.884, 15.8625, 23.0551, 38.255, -28.6213, -29.9149
3.29606, 2, 17.8839, 15.8625, 23.0551, 38.255, -28.6214, -29.9149
3.30393, 2, 17.8839, 15.8625, 23.055, 38.255, -28.6214, -29.9149
3.31209, 2, 17.8839, 15.8625, 23.055, 38.2549, -28.6213, -29.9149
3.32073, 2, 17.8839, 15.8625, 23.055, 38.2549, -28.6213, -29.9149
3.32813, 2, 17.8839, 15.8625, 23.0551, 38.2549, -28.6214, -29.9149
3.33618, 2, 17.8839, 15.8625, 23.0551, 38.2549, -28.6214, -29.9149
3.34411, 2, 17.8839, 15.8625, 23.0551, 38.2549, -28.6214, -29.9149
3.35237, 2, 17.8839, 15.8625, 23.055, 38.2549, -28.6214, -29.9149
3.36014, 2, 17.8839, 15.8625, 23.0551, 38.2549, -28.6214, -29.9149
3.36811, 2, 17.8839, 15.8625, 23.0551, 38.2549, -28.6214, -29.9149
3.37554, 2, 17.8839, 15.8625, 23.0551, 38.2548, -28.6214, -29.9149
3.38358, 4, 17.8838, 15.8626, 23.0551, 38.2548, -28.6214, -29.9149
3.39155, 4, 17.8838, 15.8626, 23.0551, 38.2548, -28.6214, -29.9149
3.40043, 4, 17.8838, 15.8626, 23.0551, 38.2547, -28.6214, -29.9149
3.4076, 4, 17.8838, 15.8626, 23.0551, 38.2547, -28.6214, -29.9149
3.41555, 4, 17.8838, 15.8626, 23.0551, 38.2547, -28.6214, -29.9149
3.42356, 4, 17.8838, 15.8626, 23.0551, 38.2547, -28.6214, -29.9149
3.43162, 4, 17.8837, 15.8626, 23.0551, 38.2547, -28.6215, -29.9149
3.43956, 4, 17.8837, 15.8626, 23.0551, 38.2547, -28.6215, -29.9149
3.44756, 4, 17.8837, 15.8626, 23.0551, 38.2547, -28.6215, -29.9149
3.45559, 4, 17.8837, 15.8626, 23.0551, 38.2547, -28.6215, -29.9149
3.46355, 4, 17.8837, 15.8626, 23.0551, 38.2546, -28.6215, -29.9149
3.47157, 4, 17.8837, 15.8626, 23.0551, 38.2546, -28.6215, -29.9148
3.47962, 4, 17.8836, 15.8626, 23.0551, 38.2546, -28.6214, -29.9149
3.48773, 4, 17.8836, 15.8626, 23.0551, 38.2546, -28.6214, -29.9149
3.51349, 4, 17.8836, 15.8626, 23.0551, 38.2546, -28.6215, -29.9148
3.51484, 4, 17.8836, 15.8626, 23.0551, 38.2546, -28.6215, -29.9148
3.51614, 4, 17.8836, 15.8626, 23.0551, 38.2546, -28.6215, -29.9148
3.5198, 4, 17.8836, 15.8626, 23.0551, 38.2546, -28.6215, -29.9148
3.52856, 4, 17.8836, 15.8626, 23.0551, 38.2546, -28.6215, -29.9148
3.53554, 4, 17.8834, 15.8627, 23.0551, 38.2546, -28.6215, -29.9148
3.54361, 4, 17.8823, 15.8635, 23.0551, 38.2545, -28.6215, -29.9147
3.55155, 4, 17.8787, 15.866, 23.0547, 38.2536, -28.6216, -29.9143
3.55955, 4, 17.8719, 15.8721, 23.0532, 38.2495, -28.6221, -29.9118
3.56996, 4, 17.8539, 15.8933, 23.0463, 38.2282, -28.6259, -29.8936
3.57555, 5, 17.845, 15.9046, 23.0419, 38.2144, -28.6288, -29.8801
3.58361, 5, 17.8212, 15.9352, 23.0286, 38.1706, -28.6386, -29.8363
3.59155, 5, 17.7885, 15.9774, 23.0076, 38.096, -28.6552, -29.7612
3.59959, 5, 17.7456, 16.0325, 22.9767, 37.9814, -28.681, -29.6448
3.60766, 5, 17.6908, 16.1036, 22.9339, 37.8163, -28.719, -29.4767
3.61555, 5, 17.6221, 16.1932, 22.8773, 37.5928, -28.7723, -29.2487
3.62354, 5, 17.5379, 16.3037, 22.8054, 37.3044, -28.8416, -28.9541
3.63161, 5, 17.4367, 16.4364, 22.7173, 36.9465, -28.9307, -28.5883
3.63957, 5, 17.317, 16.5927, 22.612, 36.517, -29.0403, -28.1494
3.6476, 5, 17.1771, 16.7746, 22.4892, 36.015, -29.1723, -27.6375
3.65563, 5, 17.0161, 16.9828, 22.3495, 35.4413, -29.3285, -27.0528
3.66354, 5, 16.8336, 17.2163, 22.1936, 34.7978, -29.5105, -26.3975
3.67155, 5, 16.6303, 17.4743, 22.0218, 34.0848, -29.7198, -25.676
3.67963, 5, 16.4079, 17.7555, 21.8346, 33.3054, -29.9586, -24.8919
3.6876, 5, 16.1682, 18.0561, 21.6346, 32.4662, -30.2275, -24.0493
3.69558, 5, 15.9131, 18.3747, 21.4237, 31.5755, -30.5271, -23.16
3.70369, 5, 15.6432, 18.7077, 21.2027, 30.6427, -30.8557, -22.2328
3.71164, 5, 15.3605, 19.0528, 20.9756, 29.6804, -31.2112, -21.2814
3.71966, 5, 15.067, 19.4077, 20.7457, 28.7021, -31.5912, -20.3217
3.72777, 5, 14.7631, 19.7722, 20.514, 27.7202, -31.9923, -19.3616
3.73565, 5, 14.4485, 20.1437, 20.2831, 26.741, -32.4116, -18.4141
3.74361, 5, 14.1247, 20.5184, 20.0549, 25.7736, -32.8465, -17.4853
3.75185, 5, 13.7943, 20.8928, 19.8297, 24.824, -33.2955, -16.5804
3.75958, 5, 13.4595, 21.266, 19.6097, 23.8923, -33.7569, -15.7015
3.76766, 5, 13.1226, 21.6368, 19.3955, 22.978, -34.2303, -14.8484
3.77576, 5, 12.7843, 22.0045, 19.1863, 22.0846, -34.7148, -14.0254
3.78369, 5, 12.4445, 22.3679, 18.9829, 21.2131, -35.2099, -13.2286
3.79176, 5, 12.1034, 22.7274, 18.7858, 20.3603, -35.7148, -12.4613
3.80019, 5, 11.7607, 23.0824, 18.5941, 19.526, -36.2282, -11.7234
3.80792, 5, 11.4157, 23.4326, 18.4082, 18.7116, -36.7501, -11.0113
3.81465, 5, 11.2423, 23.606, 18.3177, 18.3118, -37.0145, -10.6657
3.82489, 5, 10.7177, 24.1188, 18.0556, 17.1412, -37.8198, -9.67094
3.83206, 5, 10.3655, 24.4556, 17.8874, 16.3809, -38.3665, -9.03997
3.84018, 5, 10.013, 24.787, 17.7252, 15.6384, -38.92, -8.43563
3.84913, 5, 9.66043, 25.1137, 17.5698, 14.9135, -39.4791, -7.85719
3.8561, 5, 9.30779, 25.4351, 17.4207, 14.2053, -40.044, -7.30352
3.86418, 5, 8.95392, 25.7525, 17.2778, 13.5111, -40.6144, -6.77408
3.87307, 5, 8.77633, 25.9096, 17.2088, 13.1691, -40.9017, -6.518
3.87955, 5, 8.4199, 26.2198, 17.076, 12.4968, -41.4799, -6.02366
3.88763, 5, 8.06131, 26.5252, 16.9496, 11.8388, -42.0631, -5.55254
3.89553, 5, 7.70015, 26.8248, 16.8299, 11.1939, -42.6509, -5.10333
3.90354, 5, 7.33732, 27.1191, 16.7169, 10.5625, -43.2416, -4.67607
3.91159, 5, 6.97329, 27.4088, 16.6106, 9.94201, -43.8355, -4.26989
3.91958, 5, 6.60891, 27.6922, 16.5112, 9.33374, -44.4324, -3.88479
3.9276, 5, 6.24441, 27.9702, 16.4186, 8.73722, -45.0329, -3.52047
3.93561, 5, 5.87911, 28.2421, 16.3329, 8.15068, -45.6367, -3.17572
3.94354, 5, 5.51333, 28.5075, 16.2544, 7.57503, -46.2424, -2.8505
3.95153, 5, 5.14646, 28.7672, 16.183, 7.009, -46.8485, -2.54449
3.95959, 5, 4.77994, 29.0196, 16.1192, 6.45155, -47.4552, -2.25654
3.96769, 5, 4.41691, 29.2626, 16.063, 5.90444, -48.0627, -1.98679
3.97555, 5, 4.0603, 29.496, 16.0149, 5.3685, -48.6681, -1.73544
3.98257, 5, 3.71217, 29.7188, 15.9746, 4.84545, -49.2677, -1.50302
3.99155, 5, 3.37337, 29.9303, 15.9422, 4.3399, -49.8552, -1.29034
3.99954, 5, 3.04575, 30.1309, 15.9171, 3.85477, -50.4245, -1.09694
4.00767, 5, 2.73122, 30.3207, 15.8987, 3.39414, -50.9715, -0.923645
4.01658, 5, 2.42999, 30.4986, 15.8859, 2.96148, -51.4906, -0.770153
4.02353, 5, 2.14184, 30.6639, 15.8781, 2.55926, -51.9776, -0.635943
4.03165, 5, 1.86771, 30.8164, 15.8743, 2.18879, -52.43, -0.519544
4.03954, 5, 1.60958, 30.9551, 15.8739, 1.85027, -52.8464, -0.420037
4.04759, 5, 1.37045, 31.0793, 15.8766, 1.54341, -53.2262, -0.334494
4.05559, 5, 1.15401, 31.1897, 15.8814, 1.26774, -53.569, -0.262843
4.06353, 5, 0.961102, 31.2866, 15.8878, 1.02259, -53.8756, -0.202368
4.07153, 5, 0.790889, 31.3707, 15.8948, 0.807332, -54.1457, -0.151283
4.07961, 5, 0.642903, 31.4431, 15.9018, 0.621145, -54.3794, -0.10929
4.08761, 5, 0.515509, 31.5049, 15.9082, 0.464172, -54.5778, -0.0758253
4.09553, 5, 0.406821, 31.5569, 15.9138, 0.334691, -54.7417, -0.0495868
4.10363, 5, 0.315645, 31.6002, 15.9183, 0.231606, -54.8732, -0.0295521
4.11153, 5, 0.240394, 31.6357, 15.9214, 0.15163, -54.9749, -0.0146085
4.11954, 5, 0.17886, 31.6649, 15.9233, 0.0932549, -55.05, -0.0039422
4.12765, 5, 0.129477, 31.6882, 15.9241, 0.0522765, -55.1037, 0.00322288
4.13553, 5, 0.0909056, 31.7065, 15.9244, 0.0248295, -55.1392, 0.00756929
4.14355, 5, 0.0613312, 31.7206, 15.9245, 0.00745483, -55.1615, 0.0100895
4.15175, 5, 0.0389139, 31.7309, 15.9244, -0.00265148, -55.1743, 0.011338
4.17874, 5, 0.000839711, 31.7481, 15.9241, -0.0121606, -55.1865, 0.0123354
4.1801, 5, 0.000839711, 31.7481, 15.9241, -0.0121606, -55.1865, 0.0123354
4.1814, 5, 0.000839711, 31.7481, 15.9241, -0.0121606, -55.1865, 0.0123354
4.18356, 5, -0.00100087, 31.7491, 15.9241, -0.012401, -55.1868, 0.0123377
4.19153, 5, -0.00367209, 31.7508, 15.9241, -0.0126627, -55.1872, 0.0122747
4.19956, 5, -0.00570128, 31.7521, 15.9241, -0.0128343, -55.1873, 0.012128
4.20767, 5, -0.00859181, 31.7534, 15.9241, -0.0129158, -55.1874, 0.0120458
4.21568, 5, -0.0137459, 31.7557, 15.924, -0.0129814, -55.1876, 0.0120377
4.22363, 5, -0.0222925, 31.7601, 15.9237, -0.0136735, -55.1891, 0.0121032
4.23519, 5, -0.034841, 31.7676, 15.9232, -0.0168044, -55.1942, 0.012839
4.2401, 5, -0.0530735, 31.7791, 15.9227, -0.0243825, -55.206, 0.0167219
4.24703, 6, -0.0650125, 31.7864, 15.9226, -0.0304595, -55.2157, 0.0204832
4.25555, 6, -0.115361, 31.8151, 15.9227, -0.0624757, -55.2673, 0.0417974
4.26432, 6, -0.162474, 31.8401, 15.9243, -0.099131, -55.3267, 0.066968
4.27159, 6, -0.221876, 31.8706, 15.9283, -0.153207, -55.4132, 0.102939
4.27958, 6, -0.295282, 31.9078, 15.9351, -0.225906, -55.5313, 0.151344
4.28852, 6, -0.384339, 31.9525, 15.9452, -0.319901, -55.6846, 0.214325
4.29575, 6, -0.490538, 32.0049, 15.9592, -0.436469, -55.8761, 0.291259
4.30378, 6, -0.61547, 32.0656, 15.9775, -0.575954, -56.1075, 0.382173
4.3127, 6, -0.760489, 32.1351, 16.0003, -0.738798, -56.3797, 0.487053
4.31997, 6, -0.926297, 32.2134, 16.0277, -0.924702, -56.6931, 0.604274
4.32808, 6, -1.11329, 32.3005, 16.0605, -1.13327, -57.0479, 0.732965
4.33683, 6, -1.32126, 32.3959, 16.0995, -1.36369, -57.4442, 0.87175
4.3441, 6, -1.54982, 32.4992, 16.1451, -1.6157, -57.8819, 1.01925
4.3521, 6, -1.79799, 32.6095, 16.1982, -1.8886, -58.3613, 1.17381
4.36091, 6, -2.06424, 32.7254, 16.26, -2.18135, -58.882, 1.33348
4.36814, 6, -2.34779, 32.8454, 16.3308, -2.49267, -59.4433, 1.49616
4.37615, 6, -2.49561, 32.9066, 16.3697, -2.65488, -60.0423, 1.65953
4.38353, 6, -2.80193, 33.0312, 16.4547, -2.99076, -60.3544, 1.74072
4.39153, 6, -3.12083, 33.1577, 16.5495, -3.34004, -61.0014, 1.90051
4.39956, 6, -3.45116, 33.2857, 16.654, -3.7002, -61.6759, 2.05482
4.40759, 6, -3.79188, 33.4144, 16.7676, -4.06811, -62.3728, 2.20205
4.41551, 6, -4.14254, 33.5427, 16.89, -4.44077, -63.0866, 2.3395
4.42357, 6, -4.50206, 33.6692, 17.0205, -4.81578, -63.8117, 2.46632
4.43152, 6, -4.86751, 33.7932, 17.1584, -5.19195, -64.5437, 2.58075
4.43954, 6, -5.2368, 33.9138, 17.3037, -5.5676, -65.2807, 2.68248
4.44762, 6, -5.60827, 34.0302, 17.4566, -5.94214, -66.021, 2.77114
4.45552, 6, -5.98076, 34.1419, 17.6172, -6.31551, -66.7632, 2.84657
4.46352, 6, -6.35403, 34.2486, 17.7848, -6.68754, -67.5049, 2.90804
4.47158, 6, -6.7274, 34.3498, 17.9597, -7.0591, -68.2459, 2.95697
4.47954, 6, -7.10154, 34.4457, 18.143, -7.42982, -68.9872, 2.99322
4.4876, 6, -7.47686, 34.5359, 18.3339, -7.79993, -69.729, 3.01656
4.4956, 6, -7.85281, 34.6202, 18.5315, -8.16994, -70.4698, 3.02805
4.50354, 6, -8.22833, 34.6987, 18.7369, -8.53991, -71.2075, 3.02866
4.51252, 6, -8.60186, 34.7711, 18.9511, -8.91022, -71.9436, 3.01514
4.51958, 6, -8.97363, 34.8373, 19.1726, -9.28066, -72.6791, 2.98832
4.52858, 6, -9.3443, 34.8973, 19.4017, -9.65219, -73.4125, 2.9488
4.53551, 6, -9.71433, 34.951, 19.6387, -10.0243, -74.143, 2.89751
4.54358, 6, -10.0848, 34.9982, 19.8825, -10.3977, -74.8703, 2.83339
4.55152, 6, -10.4564, 35.039, 20.1341, -10.7726, -75.5946, 2.75688
4.55951, 6, -10.8293, 35.0733, 20.3938, -11.1488, -76.3157, 2.66877
4.56764, 6, -11.202, 35.1009, 20.6608, -11.5267, -77.0335, 2.56785
4.57551, 6, -11.5732, 35.1223, 20.9363, -11.9064, -77.7479, 2.4553
4.58352, 6, -11.9428, 35.1369, 21.2186, -12.2881, -78.4561, 2.33077
4.5916, 6, -12.3109, 35.1446, 21.5093, -12.6721, -79.1595, 2.19415
4.59951, 6, -12.6783, 35.1458, 21.8077, -13.0586, -79.8594, 2.04593
4.60761, 6, -13.0455, 35.1404, 22.114, -13.4476, -80.5548, 1.88638
4.61557, 6, -13.4126, 35.1281, 22.4279, -13.8394, -81.244, 1.71524
4.62352, 6, -13.7796, 35.1084, 22.7495, -14.2343, -81.9259, 1.5329
4.63152, 6, -14.1439, 35.0816, 23.0782, -14.6316, -82.6008, 1.33942
4.63958, 6, -14.5025, 35.0479, 23.4135, -15.0304, -83.2682, 1.13549
4.6476, 6, -14.8534, 35.0077, 23.7534, -15.4293, -83.9246, 0.922731
4.65555, 6, -15.1951, 34.9618, 24.0959, -15.8258, -84.5656, 0.702867
4.6636, 6, -15.5271, 34.9109, 24.4379, -16.2164, -85.1858, 0.477939
4.67152, 6, -15.8477, 34.8561, 24.7759, -16.5984, -85.7809, 0.250535
4.67974, 6, -16.1563, 34.7984, 25.1053, -16.9674, -86.3465, 0.0237404
4.68756, 6, -16.4534, 34.7388, 25.4231, -17.3205, -86.8785, -0.199216
4.69552, 6, -16.738, 34.6783, 25.7272, -17.6555, -87.3753, -0.415902
4.70362, 6, -17.0073, 34.6179, 26.0152, -17.9699, -87.8342, -0.624091
4.71161, 6, -17.2571, 34.5584, 26.2859, -18.2629, -88.255, -0.822084
4.71974, 6, -17.4846, 34.5009, 26.5369, -18.5332, -88.6377, -1.00819
4.72766, 6, -17.6904, 34.4463, 26.7682, -18.7801, -88.9825, -1.18121
4.73562, 6, -17.8747, 34.3956, 26.9789, -19.0031, -89.2896, -1.33938
4.74368, 6, -18.0372, 34.3491, 27.1666, -19.2015, -89.5598, -1.48195
4.75158, 6, -18.1785, 34.3074, 27.332, -19.3746, -89.7936, -1.60768
4.75952, 6, -18.3001, 34.2709, 27.4747, -19.5221, -89.9914, -1.71556
4.76786, 6, -18.4033, 34.2395, 27.5939, -19.6444, -90.1544, -1.80659
4.77562, 6, -18.4896, 34.2133, 27.6906, -19.7422, -90.2844, -1.87959
4.78362, 6, -18.5603, 34.1922, 27.7663, -19.8175, -90.3844, -1.93642
4.79211, 6, -18.6173, 34.1753, 27.8228, -19.8729, -90.4581, -1.97916
4.79975, 6, -18.6623, 34.1624, 27.8634, -19.9111, -90.5094, -2.00947
4.80785, 6, -18.6963, 34.153, 27.8912, -19.9362, -90.543, -2.02978
4.81672, 6, -18.7217, 34.1466, 27.9093, -19.9516, -90.5638, -2.04249
4.82394, 6, -18.7405, 34.1423, 27.921, -19.9603, -90.5755, -2.04965
4.83199, 6, -18.7533, 34.1393, 27.9282, -19.9649, -90.5817, -2.0535
4.84062, 6, -18.7613, 34.1372, 27.9325, -19.967, -90.5847, -2.05537
4.84809, 7, -18.7657, 34.1357, 27.9352, -19.9681, -90.5862, -2.05628
4.85605, 7, -18.7682, 34.1345, 27.937, -19.9686, -90.5868, -2.05664
4.86466, 7, -18.7693, 34.1335, 27.9384, -19.9689, -90.5871, -2.05687
4.87204, 7, -18.7696, 34.1331, 27.939, -19.969, -90.5872, -2.05701
4.8801, 7, -18.7699, 34.1325, 27.9401, -19.969, -90.5873, -2.05707
4.88853, 7, -18.7703, 34.132, 27.9415, -19.9691, -90.5873, -2.05708
4.8955, 7, -18.7704, 34.1319, 27.9419, -19.9691, -90.5873, -2.05708
4.90355, 7, -18.7706, 34.1318, 27.9425, -19.9691, -90.5873, -2.05705
4.91151, 7, -18.771, 34.1318, 27.9429, -19.9691, -90.5874, -2.05709
4.9195, 7, -18.7714, 34.1318, 27.9433, -19.9691, -90.5874, -2.0571
4.9276, 7, -18.772, 34.1318, 27.9437, -19.9691, -90.5874, -2.0571
4.9355, 7, -18.7726, 34.1318, 27.944, -19.9691, -90.5874, -2.05709
4.94391, 7, -18.7733, 34.1318, 27.9443, -19.9691, -90.5874, -2.05709
4.95156, 7, -18.774, 34.1317, 27.9445, -19.9691, -90.5874, -2.05709
4.95959, 7, -18.7748, 34.1317, 27.9447, -19.9691, -90.5874, -2.05709
4.96757, 7, -18.7754, 34.1315, 27.9448, -19.9691, -90.5874, -2.05709
