hehonglu123/ABB_Primitive_Study/realrobot/movec_30_ori/curve_exe_v50_z1.csv
timestamp, cmd_num, J1, J2, J3, J4, J5, J6
0.002197, -1, -18.771, 34.1297, 27.944, -19.9679, -90.5854, -2.05584
0.140359, -1, -18.3562, 33.9199, 27.9159, -19.443, -90.0335, -2.29923
0.141533, -1, -18.3562, 33.9199, 27.9159, -19.443, -90.0335, -2.29923
0.144371, -1, -18.3041, 33.8936, 27.9086, -19.3543, -89.9398, -2.34165
0.145708, -1, -18.3041, 33.8936, 27.9086, -19.3543, -89.9398, -2.34165
0.147752, -1, -18.2485, 33.8655, 27.9006, -19.2578, -89.8378, -2.38812
0.148948, -1, -18.2485, 33.8655, 27.9006, -19.2578, -89.8378, -2.38812
0.150783, -1, -18.2485, 33.8655, 27.9006, -19.2578, -89.7282, -2.43771
0.154796, -1, -18.1895, 33.8357, 27.8918, -19.154, -89.7282, -2.49016
0.15622, -1, -18.1269, 33.8041, 27.8824, -19.0434, -89.6112, -2.49016
0.157678, -1, -18.1269, 33.8041, 27.8824, -19.0434, -89.6112, -2.49016
0.160456, -1, -18.061, 33.7709, 27.8722, -18.9266, -89.4874, -2.54588
0.161758, -1, -18.061, 33.7709, 27.8722, -18.9266, -89.4874, -2.54588
0.163818, -1, -17.9919, 33.7362, 27.8615, -18.8041, -89.3574, -2.60451
0.165008, -1, -17.9919, 33.7362, 27.8615, -18.8041, -89.3574, -2.60451
0.166874, -1, -17.9919, 33.7362, 27.8615, -18.8041, -89.222, -2.66545
0.175141, -1, -17.7673, 33.6236, 27.8267, -18.4095, -88.9381, -2.79312
0.176535, -1, -17.7673, 33.6236, 27.8267, -18.4095, -88.9381, -2.79312
0.177909, -1, -17.7673, 33.6236, 27.8267, -18.4095, -88.9381, -2.79312
0.17989, -1, -17.6872, 33.5834, 27.8147, -18.271, -88.7908, -2.8594
0.181169, -1, -17.6872, 33.5834, 27.8147, -18.271, -88.7908, -2.8594
0.184052, -1, -17.6872, 33.5421, 27.8025, -18.1299, -88.641, -2.92698
0.185324, -1, -17.6047, 33.5421, 27.8025, -18.1299, -88.641, -2.92698
0.18786, -1, -17.5199, 33.4996, 27.7902, -17.987, -88.4891, -2.99545
0.189097, -1, -17.5199, 33.4996, 27.7902, -17.987, -88.4891, -2.99545
0.191269, -1, -17.4331, 33.4562, 27.7778, -17.8426, -88.3354, -3.06471
0.199385, -1, -17.2546, 33.367, 27.7529, -17.5503, -88.0246, -3.20509
0.208364, -1, -17.0716, 33.2756, 27.7278, -17.255, -87.7108, -3.34698
0.215425, -1, -16.8853, 33.1828, 27.7027, -16.9581, -87.395, -3.4896
0.223491, -1, -16.697, 33.0894, 27.6776, -16.6601, -87.0779, -3.63255
0.232715, -1, -16.5075, 32.9957, 27.6526, -16.361, -86.7597, -3.77563
0.240885, -1, -16.3173, 32.9018, 27.6275, -16.0615, -86.4408, -3.91915
0.248038, -1, -16.1272, 32.8079, 27.6025, -15.7608, -86.121, -4.06306
0.256623, -1, -15.9374, 32.7141, 27.5774, -15.4595, -85.8009, -4.20683
0.264851, -1, -15.7481, 32.6203, 27.5523, -15.1581, -85.48, -4.35124
0.271951, -1, -15.5593, 32.5265, 27.5271, -14.8562, -85.1588, -4.4959
0.281004, -1, -15.3708, 32.4325, 27.5017, -14.5538, -84.8373, -4.64056
0.286944, -1, -15.2768, 32.3854, 27.4891, -14.4026, -84.6763, -4.71293
0.294898, -1, -15.089, 32.2911, 27.4638, -14.0997, -84.354, -4.85795
0.305051, -1, -14.8071, 32.1488, 27.4257, -13.6446, -83.8704, -5.07545
0.313449, -1, -14.6184, 32.0536, 27.4, -13.3412, -83.5476, -5.22088
0.320347, -1, -14.4285, 31.9583, 27.3743, -13.0375, -83.2244, -5.36625
0.326892, -1, -14.3332, 31.9106, 27.3615, -12.8856, -83.0627, -5.43902
0.33639, -1, -14.0457, 31.7672, 27.3231, -12.4297, -82.5773, -5.65774
0.342898, -1, -13.9496, 31.7194, 27.3102, -12.2776, -82.4154, -5.7305
0.353334, -1, -13.6606, 31.5762, 27.2716, -11.8209, -81.9293, -5.94881
0.358983, -1, -13.5639, 31.5285, 27.2587, -11.6687, -81.7672, -6.02163
0.368541, -1, -13.2731, 31.3853, 27.2201, -11.2121, -81.2811, -6.23998
0.377556, -1, -13.1763, 31.3377, 27.2073, -11.0599, -80.957, -6.38573
0.383912, -1, -12.9832, 31.2425, 27.1816, -10.7555, -80.7951, -6.45855
0.390893, -1, -12.7907, 31.1474, 27.156, -10.4509, -80.4715, -6.6043
0.399905, -1, -12.5988, 31.0524, 27.1304, -10.1465, -80.1481, -6.75031
0.407977, -1, -12.4078, 30.9573, 27.1048, -9.84235, -79.8245, -6.89602
0.415957, -1, -12.2176, 30.8621, 27.079, -9.53822, -79.5011, -7.04148
0.423918, -1, -12.0283, 30.7669, 27.0533, -9.23426, -79.1776, -7.18699
0.431912, -1, -11.8395, 30.6717, 27.0276, -8.93065, -78.8542, -7.33233
0.439962, -1, -11.6507, 30.5764, 27.0021, -8.62699, -78.5309, -7.47754
0.447903, -1, -11.4615, 30.4812, 26.9764, -8.32389, -78.2083, -7.62267
0.455908, -1, -11.2721, 30.3863, 26.9507, -8.02138, -77.8863, -7.76783
0.463956, -1, -11.0822, 30.2915, 26.9252, -7.71913, -77.5645, -7.91256
0.471969, -1, -10.892, 30.197, 26.8997, -7.41758, -77.2435, -8.05698
0.479923, -1, -10.7014, 30.1027, 26.8743, -7.11631, -76.9232, -8.20102
0.489478, -1, -10.4152, 29.9616, 26.8362, -6.66517, -76.4432, -8.41663
0.495908, -1, -10.3198, 29.9146, 26.8235, -6.51516, -76.2834, -8.48843
0.503907, -1, -10.1293, 29.8208, 26.7983, -6.21558, -75.9642, -8.63152
0.512887, -1, -9.93946, 29.7272, 26.7731, -5.91632, -75.6456, -8.7748
0.51991, -1, -9.75044, 29.6338, 26.7479, -5.61785, -75.3278, -8.91787
0.528895, -1, -9.56226, 29.5405, 26.7227, -5.3197, -75.0108, -9.06037
0.535969, -1, -9.37501, 29.4474, 26.6976, -5.02228, -74.6945, -9.20265
0.543902, -1, -9.18884, 29.3543, 26.6725, -4.72587, -74.3791, -9.34445
0.55191, -1, -9.0036, 29.2615, 26.6476, -4.43005, -74.0643, -9.48582
0.559903, -1, -8.81912, 29.1688, 26.6225, -4.13496, -73.7503, -9.6271
0.567902, -1, -8.6354, 29.0763, 26.5977, -3.84103, -73.4372, -9.76791
0.575996, -1, -8.45194, 28.9842, 26.5729, -3.54743, -73.1249, -9.90822
0.583898, -1, -8.26871, 28.8925, 26.5481, -3.25496, -72.8137, -10.0484
0.720524, -1, -5.22978, 27.3796, 26.1409, 1.56935, -67.6781, -12.3574
0.721913, -1, -5.22978, 27.3796, 26.1409, 1.56935, -67.6781, -12.3574
0.72483, -1, -5.14346, 27.3365, 26.1293, 1.70671, -67.5321, -12.4231
0.726072, -1, -5.14346, 27.3365, 26.1293, 1.70671, -67.5321, -12.4231
0.728085, -1, -5.05721, 27.2936, 26.1178, 1.84377, -67.3864, -12.4886
0.729289, -1, -5.05721, 27.2936, 26.1178, 1.84377, -67.3864, -12.4886
0.730553, -1, -5.05721, 27.2936, 26.1178, 1.84377, -67.3864, -12.4886
0.733951, -1, -4.97108, 27.2507, 26.1063, 1.98043, -67.2409, -12.5541
0.73712, -1, -4.88501, 27.208, 26.0949, 2.11672, -67.0957, -12.6192
0.738321, -1, -4.88501, 27.208, 26.0949, 2.11672, -67.0957, -12.6192
0.740462, -1, -4.79899, 27.1654, 26.0834, 2.25272, -66.9509, -12.6843
0.741879, -1, -4.79899, 27.1654, 26.0834, 2.25272, -66.9509, -12.6843
0.743763, -1, -4.71308, 27.1228, 26.0719, 2.38853, -66.8065, -12.7493
0.745259, -1, -4.71308, 27.1228, 26.0719, 2.38853, -66.8065, -12.7493
0.746451, -1, -4.71308, 27.1228, 26.0719, 2.38853, -66.8065, -12.7493
0.752802, -1, -4.54188, 27.038, 26.0491, 2.65921, -66.5187, -12.8786
0.754062, -1, -4.54188, 27.038, 26.0491, 2.65921, -66.5187, -12.8786
0.755862, -1, -4.45638, 26.9957, 26.0377, 2.79401, -66.3752, -12.9431
0.757282, -1, -4.45638, 26.9957, 26.0377, 2.79401, -66.3752, -12.9431
0.758459, -1, -4.45638, 26.9957, 26.0377, 2.79401, -66.3752, -12.9431
0.76114, -1, -4.37091, 26.9535, 26.0263, 2.92851, -66.2319, -13.0074
0.76242, -1, -4.37091, 26.9535, 26.0263, 2.92851, -66.2319, -13.0074
0.769886, -1, -4.20046, 26.8693, 26.0036, 3.19667, -65.9464, -13.1358
0.776005, -1, -4.03075, 26.7855, 25.9812, 3.46408, -65.662, -13.2637
0.782879, -1, -3.94631, 26.7437, 25.97, 3.59718, -65.5203, -13.3276
0.79093, -1, -3.77838, 26.6604, 25.9475, 3.86239, -65.2376, -13.4547
0.800153, -1, -3.52872, 26.536, 25.9142, 4.25843, -64.816, -13.6441
0.806888, -1, -3.44608, 26.4948, 25.9031, 4.38972, -64.6762, -13.7069
0.814957, -1, -3.28158, 26.4125, 25.881, 4.65147, -64.3975, -13.8321
0.824357, -1, -3.03679, 26.2897, 25.8479, 5.04233, -63.9818, -14.0188
0.830878, -1, -2.95578, 26.2489, 25.837, 5.17208, -63.8439, -14.0809
0.838927, -1, -2.79438, 26.1677, 25.8153, 5.43051, -63.5689, -14.2045
0.848528, -1, -2.55348, 26.0467, 25.7829, 5.81586, -63.1588, -14.3888
0.857259, -1, -2.39328, 25.9666, 25.7614, 6.07114, -62.8869, -14.5114
0.862953, -1, -2.31323, 25.9267, 25.7506, 6.19836, -62.7515, -14.5723
0.872627, -1, -2.07372, 25.8074, 25.7186, 6.57816, -62.3471, -14.7542
0.881305, -1, -1.9941, 25.7679, 25.708, 6.70426, -62.2128, -14.8746
0.886943, -1, -1.8352, 25.6892, 25.6868, 6.95582, -61.9451, -14.9346
0.896988, -1, -1.5979, 25.5717, 25.6554, 7.3305, -61.546, -15.1137
0.903881, -1, -1.51893, 25.5327, 25.6449, 7.45479, -61.4135, -15.1732
0.910965, -1, -1.36138, 25.4549, 25.624, 7.7028, -61.1493, -15.2918
0.919935, -1, -1.20445, 25.3775, 25.6033, 7.94951, -60.8862, -15.4098
0.927892, -1, -1.04843, 25.3004, 25.5827, 8.19505, -60.6246, -15.5275
0.935022, -1, -0.893556, 25.2236, 25.5621, 8.43982, -60.3642, -15.6448
0.943969, -1, -0.739982, 25.1472, 25.5417, 8.68349, -60.105, -15.7613
0.95189, -1, -0.587416, 25.0711, 25.5212, 8.92579, -59.847, -15.8773
0.958892, -1, -0.435908, 24.9954, 25.5008, 9.16705, -59.5904, -15.9926
0.967894, -1, -0.285548, 24.92, 25.4807, 9.4073, -59.3353, -16.1077
0.975893, -1, -0.136304, 24.845, 25.4606, 9.64636, -59.0812, -16.2222
0.98288, -1, 0.0120307, 24.7704, 25.4407, 9.88408, -58.8279, -16.3362
0.992118, -1, 0.159669, 24.6961, 25.4209, 10.121, -58.5759, -16.4498
0.99988, -1, 0.306917, 24.6221, 25.4009, 10.357, -58.3247, -16.5627
1.00789, -1, 0.454073, 24.5485, 25.3811, 10.5916, -58.0746, -16.6755
1.01669, -1, 0.601165, 24.4751, 25.3615, 10.8252, -57.8256, -16.7876
1.02288, -1, 0.747964, 24.4021, 25.3419, 11.0578, -57.5776, -16.8987
1.03188, -1, 0.89454, 24.3293, 25.3225, 11.2892, -57.3308, -17.0097
1.04072, -1, 1.04048, 24.257, 25.3031, 11.5196, -57.0852, -17.1197
1.04789, -1, 1.18588, 24.1849, 25.2837, 11.7491, -56.8409, -17.2294
1.05589, -1, 1.33085, 24.1132, 25.2645, 11.9776, -56.5978, -17.3385
1.06466, -1, 1.47534, 24.0418, 25.2453, 12.2053, -56.356, -17.4472
1.07098, -1, 1.61924, 23.9708, 25.2263, 12.4316, -56.1152, -17.5556
1.07988, -1, 1.76243, 23.9001, 25.2075, 12.6569, -55.8755, -17.6632
1.08867, -1, 1.90455, 23.8298, 25.1886, 12.8815, -55.6368, -17.7709
1.09497, -1, 2.04551, 23.7597, 25.1698, 13.1048, -55.3992, -17.8778
1.10388, -1, 2.18569, 23.69, 25.1512, 13.3271, -55.1626, -17.9842
1.11328, -1, 2.32485, 23.6206, 25.1325, 13.5483, -54.9268, -18.0902
1.11988, -1, 2.46307, 23.5514, 25.114, 13.7689, -54.692, -18.1955
1.12796, -1, 2.60036, 23.4825, 25.0957, 13.9884, -54.458, -18.3005
1.1359, -1, 2.73655, 23.4139, 25.0774, 14.207, -54.225, -18.4049
1.14388, -1, 2.87204, 23.3456, 25.0591, 14.4244, -53.9934, -18.5092
1.15195, -1, 3.00704, 23.2775, 25.0409, 14.6412, -53.7627, -18.6126
1.15989, -1, 3.14187, 23.2097, 25.0226, 14.8569, -53.5331, -18.7161
1.16789, -1, 3.27675, 23.1422, 25.0046, 15.0716, -53.3045, -18.8188
1.17595, -1, 3.41149, 23.075, 24.9868, 15.2855, -53.0767, -18.9215
1.18393, -1, 3.54603, 23.0081, 24.9689, 15.4989, -52.8501, -19.0236
1.19188, -1, 3.68024, 22.9416, 24.9511, 15.7111, -52.6242, -19.1249
1.19996, -1, 3.81405, 22.8753, 24.9335, 15.9223, -52.3994, -19.2261
1.20815, -1, 3.9474, 22.8093, 24.9158, 16.1326, -52.1756, -19.3266
1.21597, -1, 4.08045, 22.7436, 24.8981, 16.3422, -51.9527, -19.4268
1.22406, -1, 4.21297, 22.6782, 24.8807, 16.5507, -51.7304, -19.5264
1.23223, -1, 4.34496, 22.613, 24.8633, 16.7584, -51.5092, -19.6259
1.23998, -1, 4.47626, 22.5481, 24.8458, 16.9653, -51.2887, -19.7246
1.24806, -1, 4.60685, 22.4833, 24.8286, 17.1716, -51.0692, -19.8235
1.2564, -1, 4.73675, 22.4188, 24.8114, 17.377, -50.8506, -19.9215
1.26369, -1, 4.80142, 22.3866, 24.7941, 17.5815, -50.6327, -20.0198
1.27198, -1, 4.99424, 22.2905, 24.7771, 17.7851, -50.4157, -20.1173
1.28143, -1, 5.1218, 22.2266, 24.7602, 17.9879, -50.1997, -20.2145
1.28692, -1, 5.18526, 22.1948, 24.7516, 18.0892, -50.0919, -20.2627
1.29636, -1, 5.37441, 22.0998, 24.7261, 18.3915, -49.77, -20.4075
1.30291, -1, 5.43701, 22.0682, 24.7177, 18.4919, -49.6632, -20.4554
1.31091, -1, 5.56163, 22.0054, 24.7009, 18.692, -49.4502, -20.5512
1.32045, -1, 5.7477, 21.9115, 24.6756, 18.9911, -49.1322, -20.6941
1.32984, -1, 5.87144, 21.8494, 24.6591, 19.1895, -48.9215, -20.7889
1.33632, -1, 5.99516, 21.7875, 24.6426, 19.3869, -48.7116, -20.8835
1.34291, -1, 6.05702, 21.7565, 24.6343, 19.4853, -48.607, -20.9308
1.35395, -1, 6.24233, 21.6642, 24.6096, 19.7797, -48.2939, -21.0718
1.36046, -1, 6.36564, 21.6029, 24.5932, 19.9749, -48.0861, -21.1654
1.36847, -1, 6.48878, 21.5417, 24.5767, 20.1693, -47.879, -21.2588
1.37727, -1, 6.61161, 21.4808, 24.5604, 20.363, -47.6727, -21.3513
1.38299, -1, 6.67288, 21.4505, 24.5523, 20.4596, -47.5698, -21.3976
1.39187, -1, 6.7952, 21.3899, 24.5362, 20.6525, -47.3643, -21.4902
1.39987, -1, 6.91702, 21.3296, 24.5199, 20.8445, -47.1596, -21.5817
1.40787, -1, 7.03835, 21.2697, 24.5037, 21.0358, -46.9557, -21.6734
1.41586, -1, 7.15906, 21.2099, 24.4877, 21.2264, -46.7526, -21.7642
1.42394, -1, 7.27916, 21.1504, 24.4718, 21.4163, -46.5502, -21.8553
1.43086, -1, 7.39865, 21.0912, 24.4559, 21.6057, -46.3488, -21.9455
1.43992, -1, 7.51752, 21.0322, 24.4402, 21.7941, -46.148, -22.036
1.448, -1, 7.63597, 20.9732, 24.4245, 21.982, -45.948, -22.1257
1.45487, -1, 7.75395, 20.9146, 24.4087, 22.1692, -45.749, -22.2156
1.46388, -1, 7.87138, 20.856, 24.393, 22.3561, -45.5504, -22.3049
1.47191, -1, 7.98818, 20.7976, 24.3774, 22.5422, -45.3529, -22.3941
1.47886, -1, 8.10443, 20.7393, 24.3617, 22.7274, -45.1561, -22.4824
1.48787, -1, 8.22013, 20.6812, 24.3462, 22.912, -44.9599, -22.571
1.49593, -1, 8.33549, 20.6233, 24.3308, 23.096, -44.7642, -22.6587
1.5029, -1, 8.45053, 20.5657, 24.3155, 23.2795, -44.569, -22.7465
1.51187, -1, 8.56514, 20.5083, 24.3001, 23.4622, -44.3742, -22.8336
1.52085, -1, 8.67916, 20.4512, 24.2847, 23.6441, -44.1803, -22.9207
1.52685, -1, 8.79281, 20.3942, 24.2695, 23.8255, -43.9868, -23.0075
1.53586, -1, 8.90623, 20.3376, 24.2543, 24.0065, -43.7939, -23.0939
1.54402, -1, 9.01948, 20.281, 24.2391, 24.187, -43.6019, -23.1804
1.55187, -1, 9.13262, 20.2246, 24.2242, 24.3667, -43.4107, -23.2662
1.55994, -1, 9.2457, 20.1684, 24.2093, 24.5458, -43.22, -23.3525
1.56786, -1, 9.35871, 20.1124, 24.1942, 24.7242, -43.0299, -23.4379
1.57589, -1, 9.47134, 20.0565, 24.1791, 24.9022, -42.8404, -23.5234
1.58394, -1, 9.58355, 20.0007, 24.1642, 25.0797, -42.6515, -23.6078
1.59186, -1, 9.6953, 19.9452, 24.1493, 25.2564, -42.4633, -23.6928
1.59987, -1, 9.80671, 19.8897, 24.1344, 25.4328, -42.2757, -23.7768
1.60793, -1, 9.91784, 19.8345, 24.1197, 25.6084, -42.0885, -23.861
1.61587, -1, 10.0286, 19.7795, 24.1052, 25.7838, -41.9023, -23.9445
1.62388, -1, 10.139, 19.7247, 24.0906, 25.9587, -41.7164, -24.0281
1.63193, -1, 10.249, 19.6701, 24.0758, 26.1327, -41.5312, -24.1113
1.63985, -1, 10.3586, 19.6157, 24.0612, 26.3063, -41.3465, -24.1941
1.64793, -1, 10.4676, 19.5615, 24.0466, 26.4794, -41.1621, -24.2771
1.65587, -1, 10.5762, 19.5073, 24.0321, 26.652, -40.9785, -24.3594
1.66387, -1, 10.6844, 19.4534, 24.0176, 26.824, -40.7954, -24.4422
1.67193, -1, 10.7923, 19.3996, 24.0033, 26.9954, -40.6128, -24.524
1.67986, -1, 10.8998, 19.3459, 23.9891, 27.1663, -40.4307, -24.6062
1.68789, -1, 11.0069, 19.2924, 23.9748, 27.3367, -40.249, -24.6875
1.69594, -1, 11.1135, 19.239, 23.9604, 27.5067, -40.0682, -24.7689
1.7039, -1, 11.22, 19.1857, 23.9461, 27.6763, -39.8877, -24.8502
1.712, -1, 11.326, 19.1327, 23.9319, 27.8451, -39.7079, -24.9309
1.72002, -1, 11.4316, 19.0798, 23.9177, 28.0136, -39.5286, -25.0117
1.72796, -1, 11.5368, 19.0271, 23.9036, 28.1814, -39.3497, -25.0918
1.73596, -1, 11.6418, 18.9747, 23.8897, 28.3489, -39.1715, -25.1723
1.74405, -1, 11.7467, 18.9223, 23.8758, 28.516, -38.9935, -25.252
1.75199, -1, 11.8513, 18.8702, 23.8617, 28.6825, -38.8165, -25.332
1.75987, -1, 11.9558, 18.8182, 23.8477, 28.8485, -38.6396, -25.4115
1.76787, -1, 12.0601, 18.7662, 23.8337, 29.014, -38.4633, -25.4909
1.7759, -1, 12.1642, 18.7144, 23.8199, 29.1793, -38.2878, -25.5704
1.78398, -1, 12.2682, 18.6627, 23.8061, 29.3442, -38.1128, -25.649
1.79199, -1, 12.3719, 18.6111, 23.7923, 29.5085, -37.9382, -25.7282
1.79889, -1, 12.4236, 18.5854, 23.7855, 29.5904, -37.8512, -25.7673
1.80817, -1, 12.5785, 18.5083, 23.7651, 29.8355, -37.5905, -25.8845
1.81484, -1, 12.6301, 18.4828, 23.7582, 29.917, -37.5038, -25.9237
1.82427, -1, 12.7841, 18.4061, 23.7375, 30.1609, -37.2443, -26.0398
1.83084, -1, 12.8353, 18.3807, 23.7307, 30.242, -37.1579, -26.0788
1.8403, -1, 12.9882, 18.3049, 23.7103, 30.4845, -36.8996, -26.1942
1.84836, -1, 13.0897, 18.2544, 23.6968, 30.6454, -36.7279, -26.2716
1.85649, -1, 13.1908, 18.2042, 23.6832, 30.806, -36.5569, -26.3482
1.8644, -1, 13.2916, 18.154, 23.6699, 30.9664, -36.3861, -26.4246
1.87244, -1, 13.3921, 18.104, 23.6566, 31.1263, -36.2159, -26.5013
1.88059, -1, 13.4923, 18.054, 23.6433, 31.2857, -36.0461, -26.5773
1.88785, -1, 13.5424, 18.029, 23.6365, 31.3653, -35.9614, -26.6155
1.89585, -1, 13.6423, 17.9791, 23.6231, 31.5239, -35.7924, -26.6919
1.90468, -1, 13.7421, 17.9293, 23.6098, 31.6821, -35.5396, -26.8055
1.91187, -1, 13.8416, 17.8796, 23.5965, 31.8402, -35.4557, -26.8435
1.91985, -1, 13.9411, 17.8299, 23.5832, 31.9978, -35.2881, -26.9185
1.92786, -1, 14.0403, 17.7805, 23.5699, 32.155, -35.1207, -26.9938
1.93585, -1, 14.1392, 17.7312, 23.5568, 32.3117, -34.9541, -27.0687
1.9439, -1, 14.2378, 17.682, 23.5437, 32.468, -34.7878, -27.1431
1.95188, -1, 14.336, 17.6331, 23.5306, 32.624, -34.622, -27.2181
1.95985, -1, 14.4337, 17.5843, 23.5174, 32.7799, -34.4566, -27.2918
1.96792, -1, 14.5312, 17.5357, 23.5043, 32.9353, -34.2914, -27.3663
1.97586, -1, 14.6283, 17.4873, 23.4914, 33.0901, -34.1265, -27.4405
1.98385, -1, 14.7251, 17.4389, 23.4784, 33.2446, -33.962, -27.5141
1.99193, -1, 14.8216, 17.3907, 23.4654, 33.3986, -33.7979, -27.5882
1.99985, -1, 14.918, 17.3425, 23.4526, 33.5524, -33.6342, -27.6615
2.00785, -1, 15.0143, 17.2943, 23.4399, 33.7058, -33.4709, -27.7353
2.01591, -1, 15.1103, 17.2462, 23.4271, 33.8588, -33.3077, -27.8088
2.02489, -1, 15.2062, 17.1982, 23.4142, 34.0114, -33.1452, -27.8818
2.03187, -1, 15.3021, 17.1502, 23.4012, 34.1634, -32.9829, -27.9551
2.03992, -1, 15.3979, 17.1024, 23.3884, 34.3153, -32.8215, -28.0274
2.04792, -1, 15.4937, 17.0546, 23.3756, 34.467, -32.6602, -28.1002
2.05585, -1, 15.5893, 17.0071, 23.3628, 34.6183, -32.4993, -28.1726
2.06392, -1, 15.6848, 16.9598, 23.35, 34.7691, -32.3388, -28.2444
2.07186, -1, 15.78, 16.9126, 23.3375, 34.9195, -32.1786, -28.3168
2.07985, -1, 15.8749, 16.8656, 23.325, 35.0695, -32.0187, -28.3881
2.08792, -1, 15.9697, 16.8188, 23.3125, 35.2193, -31.8595, -28.4596
2.09584, -1, 16.0641, 16.772, 23.2998, 35.3689, -31.7004, -28.5315
2.10384, -1, 16.1581, 16.7255, 23.2873, 35.5181, -31.5416, -28.6024
2.11193, -1, 16.2518, 16.6788, 23.2748, 35.6669, -31.3836, -28.6738
2.11984, -1, 16.3452, 16.6323, 23.2624, 35.8153, -31.2254, -28.7448
2.12784, -1, 16.4384, 16.5858, 23.2499, 35.9634, -31.0677, -28.8156
2.13592, -1, 16.5312, 16.5393, 23.2374, 36.1113, -30.9104, -28.887
2.14384, -1, 16.6238, 16.4929, 23.2251, 36.259, -30.7533, -28.9573
2.15187, -1, 16.7163, 16.4466, 23.2127, 36.4063, -30.5966, -29.0281
2.15991, -1, 16.8087, 16.4003, 23.2004, 36.5532, -30.4402, -29.0984
2.16784, -1, 16.901, 16.3542, 23.188, 36.6996, -30.2843, -29.1682
2.17585, -1, 16.993, 16.3082, 23.1756, 36.8459, -30.1286, -29.2386
2.18391, -1, 17.0849, 16.2624, 23.1634, 36.9919, -29.9731, -29.3081
2.19188, -1, 17.1761, 16.2169, 23.151, 37.1376, -29.8178, -29.3776
2.19985, -1, 17.2647, 16.1725, 23.1386, 37.2826, -29.6634, -29.4472
2.20795, -1, 17.3493, 16.1302, 23.126, 37.4265, -29.5103, -29.5155
2.21608, -1, 17.4285, 16.0907, 23.1135, 37.5668, -29.3606, -29.583
2.2235, -1, 17.5022, 16.0541, 23.1012, 37.7011, -29.2172, -29.6475
2.23201, -1, 17.5698, 16.0211, 23.0894, 37.8257, -29.0842, -29.707
2.23994, -1, 17.6298, 15.992, 23.0789, 37.937, -28.9651, -29.7609
2.248, -1, 17.6829, 15.9661, 23.07, 38.031, -28.8641, -29.8066
2.25602, -1, 17.7298, 15.9424, 23.0636, 38.1062, -28.7834, -29.8431
2.26386, -1, 17.7708, 15.9211, 23.0595, 38.1623, -28.7225, -29.8703
2.27187, -1, 17.8051, 15.9034, 23.0571, 38.2005, -28.6808, -29.889
2.27994, -1, 17.8326, 15.8896, 23.0559, 38.2255, -28.6534, -29.901
2.28793, -1, 17.8542, 15.8793, 23.0554, 38.2404, -28.6371, -29.9079
2.29593, -1, 17.8697, 15.8722, 23.0551, 38.2484, -28.6283, -29.9117
2.30439, -1, 17.8788, 15.8681, 23.055, 38.2524, -28.6238, -29.9135
2.3108, 2, 17.8814, 15.8669, 23.055, 38.2535, -28.6226, -29.914
2.32011, 2, 17.885, 15.865, 23.0549, 38.2551, -28.6208, -29.9148
2.32685, 2, 17.8853, 15.8647, 23.0549, 38.2554, -28.6205, -29.9149
2.33631, 2, 17.8846, 15.8644, 23.0549, 38.2558, -28.6202, -29.9152
2.34435, 2, 17.8839, 15.8643, 23.055, 38.2559, -28.6201, -29.9152
2.35277, 2, 17.8833, 15.8643, 23.055, 38.2559, -28.62, -29.9152
2.36072, 2, 17.883, 15.8642, 23.055, 38.2559, -28.62, -29.9152
2.36838, 2, 17.8829, 15.8641, 23.055, 38.2559, -28.62, -29.9152
2.37676, 2, 17.883, 15.8639, 23.055, 38.2559, -28.62, -29.9152
2.38461, 2, 17.883, 15.8636, 23.055, 38.256, -28.62, -29.9152
2.39235, 2, 17.8833, 15.8634, 23.055, 38.2559, -28.62, -29.9152
2.39988, 2, 17.8837, 15.8631, 23.0549, 38.2559, -28.62, -29.9152
2.40785, 2, 17.8842, 15.8628, 23.0549, 38.2559, -28.6201, -29.9152
2.41584, 2, 17.8849, 15.8627, 23.0549, 38.256, -28.6201, -29.9153
2.42389, 2, 17.8858, 15.8626, 23.0549, 38.2559, -28.6201, -29.9152
2.43185, 2, 17.8866, 15.8625, 23.0549, 38.2559, -28.62, -29.9152
2.43983, 2, 17.8871, 15.8625, 23.055, 38.2559, -28.62, -29.9152
2.44789, 2, 17.8875, 15.8625, 23.055, 38.2559, -28.6201, -29.9152
2.45583, 2, 17.8877, 15.8625, 23.055, 38.2559, -28.6201, -29.9152
2.46383, 2, 17.8878, 15.8626, 23.0549, 38.2559, -28.6201, -29.9153
2.47192, 2, 17.8879, 15.8626, 23.0549, 38.2559, -28.6202, -29.9152
2.47983, 2, 17.8879, 15.8626, 23.0549, 38.2559, -28.6202, -29.9152
2.48783, 2, 17.8879, 15.8625, 23.0549, 38.2559, -28.6202, -29.9152
2.49588, 2, 17.8878, 15.8625, 23.0549, 38.2559, -28.6202, -29.9152
2.50383, 2, 17.8876, 15.8624, 23.0549, 38.2559, -28.6202, -29.9152
2.51185, 2, 17.8874, 15.8623, 23.0549, 38.2559, -28.6202, -29.9152
2.5199, 2, 17.8872, 15.8622, 23.0549, 38.2559, -28.6202, -29.9152
2.52888, 2, 17.8871, 15.8622, 23.0549, 38.2559, -28.6202, -29.9152
2.53583, 2, 17.8871, 15.8622, 23.0549, 38.2559, -28.6202, -29.9151
2.5439, 2, 17.8871, 15.8622, 23.0549, 38.2559, -28.6203, -29.9151
2.55192, 2, 17.8871, 15.8623, 23.0549, 38.2559, -28.6203, -29.9152
2.55983, 2, 17.8871, 15.8623, 23.0549, 38.2559, -28.6203, -29.9152
2.56789, 2, 17.8871, 15.8623, 23.055, 38.2559, -28.6203, -29.9152
2.57583, 2, 17.8871, 15.8623, 23.055, 38.2559, -28.6204, -29.9152
2.58383, 2, 17.8871, 15.8623, 23.055, 38.2559, -28.6203, -29.9152
2.59192, 2, 17.8871, 15.8623, 23.055, 38.2559, -28.6203, -29.9151
2.59983, 2, 17.8871, 15.8623, 23.0549, 38.2559, -28.6203, -29.9152
2.60783, 2, 17.887, 15.8623, 23.0549, 38.2559, -28.6203, -29.9152
2.61593, 2, 17.887, 15.8623, 23.0549, 38.2559, -28.6204, -29.9152
2.62382, 2, 17.887, 15.8622, 23.055, 38.2559, -28.6204, -29.9152
2.63184, 2, 17.887, 15.8622, 23.0549, 38.2559, -28.6204, -29.9152
2.63989, 2, 17.887, 15.8622, 23.0549, 38.2559, -28.6205, -29.9152
2.64783, 2, 17.8869, 15.8622, 23.0549, 38.2559, -28.6205, -29.9152
2.65593, 2, 17.8869, 15.8622, 23.0549, 38.2559, -28.6205, -29.9152
2.6639, 2, 17.8869, 15.8623, 23.055, 38.2559, -28.6205, -29.9152
2.67184, 2, 17.8868, 15.8623, 23.0549, 38.2559, -28.6205, -29.9152
2.67983, 2, 17.8868, 15.8623, 23.055, 38.2559, -28.6206, -29.9151
2.6879, 2, 17.8868, 15.8623, 23.0549, 38.2559, -28.6206, -29.9151
2.69584, 2, 17.8868, 15.8623, 23.0549, 38.2559, -28.6206, -29.9151
2.70383, 2, 17.8868, 15.8623, 23.0549, 38.2559, -28.6206, -29.9151
2.71195, 2, 17.8868, 15.8623, 23.0549, 38.2559, -28.6206, -29.9151
2.72, 2, 17.8868, 15.8623, 23.0549, 38.2559, -28.6206, -29.9151
2.72792, 2, 17.8868, 15.8623, 23.0549, 38.2559, -28.6206, -29.9151
2.73599, 2, 17.8868, 15.8623, 23.0549, 38.2559, -28.6207, -29.9151
2.74393, 2, 17.8867, 15.8623, 23.0549, 38.2558, -28.6207, -29.9151
2.75195, 2, 17.8867, 15.8623, 23.0549, 38.2558, -28.6207, -29.9151
2.76001, 2, 17.8867, 15.8623, 23.0549, 38.2558, -28.6207, -29.9151
2.76783, 2, 17.8867, 15.8623, 23.055, 38.2558, -28.6207, -29.9151
2.77586, 2, 17.8866, 15.8623, 23.055, 38.2558, -28.6207, -29.9151
2.78393, 2, 17.8867, 15.8623, 23.055, 38.2558, -28.6207, -29.9151
2.79188, 2, 17.8866, 15.8623, 23.055, 38.2557, -28.6207, -29.9151
2.79995, 2, 17.8866, 15.8623, 23.055, 38.2557, -28.6208, -29.9151
2.80838, 2, 17.8865, 15.8623, 23.055, 38.2558, -28.6208, -29.915
2.81481, 2, 17.8865, 15.8623, 23.055, 38.2558, -28.6208, -29.915
2.82409, 2, 17.8864, 15.8623, 23.055, 38.2558, -28.6208, -29.9151
2.83081, 2, 17.8864, 15.8623, 23.055, 38.2558, -28.6208, -29.9151
2.84025, 2, 17.8864, 15.8623, 23.0549, 38.2557, -28.6208, -29.9151
2.84843, 2, 17.8863, 15.8623, 23.0549, 38.2557, -28.6208, -29.9151
2.85676, 2, 17.8863, 15.8623, 23.0549, 38.2557, -28.6208, -29.9151
2.86437, 2, 17.8862, 15.8624, 23.0549, 38.2557, -28.6208, -29.915
2.87239, 2, 17.8862, 15.8624, 23.0549, 38.2557, -28.6209, -29.9151
2.88066, 2, 17.8861, 15.8624, 23.0549, 38.2557, -28.6209, -29.915
2.88846, 2, 17.8861, 15.8624, 23.0549, 38.2557, -28.6209, -29.915
2.89581, 2, 17.8861, 15.8624, 23.055, 38.2557, -28.6209, -29.915
2.90469, 2, 17.8859, 15.8624, 23.0549, 38.2556, -28.621, -29.9151
2.91184, 2, 17.8859, 15.8624, 23.0549, 38.2556, -28.621, -29.915
2.91981, 2, 17.8859, 15.8624, 23.0549, 38.2556, -28.621, -29.915
2.92786, 2, 17.8858, 15.8624, 23.0549, 38.2556, -28.621, -29.9151
2.93582, 2, 17.8858, 15.8624, 23.0549, 38.2556, -28.621, -29.915
2.94382, 2, 17.8857, 15.8624, 23.0549, 38.2556, -28.621, -29.915
2.95188, 2, 17.8857, 15.8624, 23.0549, 38.2556, -28.621, -29.915
2.95981, 2, 17.8856, 15.8624, 23.0549, 38.2556, -28.621, -29.915
2.96781, 2, 17.8856, 15.8624, 23.0549, 38.2556, -28.621, -29.915
2.9759, 2, 17.8855, 15.8624, 23.0549, 38.2555, -28.621, -29.915
2.98381, 2, 17.8854, 15.8624, 23.0549, 38.2555, -28.621, -29.915
2.99183, 2, 17.8854, 15.8624, 23.0549, 38.2555, -28.6211, -29.915
2.99988, 2, 17.8853, 15.8624, 23.0549, 38.2555, -28.6211, -29.915
3.00781, 2, 17.8853, 15.8624, 23.0549, 38.2555, -28.6211, -29.915
3.01581, 2, 17.8852, 15.8624, 23.0549, 38.2555, -28.6211, -29.915
3.02387, 2, 17.8852, 15.8624, 23.0549, 38.2555, -28.6211, -29.915
3.03185, 2, 17.8851, 15.8624, 23.0549, 38.2554, -28.6211, -29.915
3.04081, 2, 17.885, 15.8624, 23.0549, 38.2554, -28.6211, -29.915
3.04787, 2, 17.885, 15.8624, 23.0549, 38.2554, -28.6211, -29.915
3.05594, 2, 17.8849, 15.8624, 23.0549, 38.2554, -28.6212, -29.915
3.06381, 2, 17.8848, 15.8624, 23.0549, 38.2554, -28.6212, -29.915
3.07189, 2, 17.8848, 15.8624, 23.0549, 38.2554, -28.6212, -29.9149
3.07981, 2, 17.8848, 15.8624, 23.0549, 38.2554, -28.6212, -29.915
3.08781, 2, 17.8847, 15.8624, 23.0549, 38.2554, -28.6212, -29.9149
3.09587, 2, 17.8847, 15.8624, 23.0549, 38.2554, -28.6213, -29.9149
3.10381, 2, 17.8846, 15.8624, 23.0549, 38.2553, -28.6212, -29.9149
3.11183, 2, 17.8846, 15.8625, 23.0549, 38.2553, -28.6213, -29.9149
3.11987, 2, 17.8845, 15.8624, 23.0549, 38.2553, -28.6213, -29.915
3.12781, 2, 17.8845, 15.8625, 23.0549, 38.2554, -28.6213, -29.915
3.13581, 2, 17.8845, 15.8625, 23.0549, 38.2553, -28.6213, -29.9149
3.14388, 2, 17.8844, 15.8625, 23.0549, 38.2552, -28.6213, -29.9149
3.15182, 2, 17.8844, 15.8624, 23.0549, 38.2552, -28.6213, -29.9149
3.15982, 2, 17.8843, 15.8625, 23.0549, 38.2552, -28.6213, -29.915
3.16788, 2, 17.8843, 15.8625, 23.0549, 38.2552, -28.6213, -29.9149
3.17582, 2, 17.8843, 15.8625, 23.0549, 38.2552, -28.6213, -29.9149
3.18382, 2, 17.8843, 15.8625, 23.055, 38.2552, -28.6213, -29.915
3.19189, 2, 17.8843, 15.8625, 23.055, 38.2552, -28.6213, -29.915
3.19984, 2, 17.8842, 15.8625, 23.055, 38.2552, -28.6213, -29.9149
3.20728, 2, 17.8842, 15.8625, 23.055, 38.2552, -28.6213, -29.9149
3.2152, 2, 17.8843, 15.8625, 23.0549, 38.2551, -28.6213, -29.9149
3.22339, 2, 17.8842, 15.8625, 23.055, 38.2551, -28.6213, -29.9149
3.23192, 2, 17.8842, 15.8625, 23.055, 38.2551, -28.6213, -29.9149
3.23997, 2, 17.8842, 15.8625, 23.055, 38.2551, -28.6213, -29.9149
3.24791, 2, 17.8842, 15.8625, 23.055, 38.255, -28.6213, -29.9149
3.25592, 2, 17.8841, 15.8625, 23.055, 38.255, -28.6213, -29.9149
3.26399, 2, 17.8841, 15.8625, 23.055, 38.2551, -28.6213, -29.9149
3.27183, 2, 17.8841, 15.8625, 23.055, 38.2551, -28.6213, -29.9149
3.27989, 2, 17.8841, 15.8625, 23.055, 38.255, -28.6214, -29.9149
3.2879, 2, 17.8841, 15.8625, 23.055, 38.255, -28.6214, -29.9149
3.29598, 2, 17.884, 15.8625, 23.055, 38.255, -28.6214, -29.9149
3.30289, 2, 17.884, 15.8625, 23.055, 38.255, -28.6213, -29.9149
3.31241, 2, 17.884, 15.8625, 23.055, 38.255, -28.6214, -29.9149
3.32005, 2, 17.884, 15.8625, 23.055, 38.2549, -28.6215, -29.9149
3.32687, 2, 17.884, 15.8625, 23.055, 38.2549, -28.6215, -29.9149
3.33625, 2, 17.8839, 15.8626, 23.055, 38.2548, -28.6214, -29.9149
3.34284, 2, 17.8839, 15.8625, 23.055, 38.2549, -28.6214, -29.9149
3.35236, 2, 17.8839, 15.8625, 23.055, 38.2549, -28.6214, -29.9149
3.36041, 2, 17.8839, 15.8626, 23.055, 38.2548, -28.6214, -29.9149
3.36835, 2, 17.8839, 15.8626, 23.055, 38.2548, -28.6214, -29.9149
3.37656, 4, 17.8839, 15.8626, 23.055, 38.2548, -28.6214, -29.9149
3.38443, 4, 17.8839, 15.8626, 23.055, 38.2548, -28.6214, -29.9149
3.39278, 4, 17.8839, 15.8626, 23.055, 38.2548, -28.6215, -29.9149
3.3998, 4, 17.8839, 15.8626, 23.055, 38.2548, -28.6215, -29.9149
3.40785, 4, 17.8839, 15.8626, 23.055, 38.2547, -28.6215, -29.9149
3.4158, 4, 17.8838, 15.8626, 23.055, 38.2547, -28.6215, -29.9148
3.4238, 4, 17.8838, 15.8626, 23.055, 38.2547, -28.6215, -29.9148
3.43186, 4, 17.8838, 15.8626, 23.055, 38.2547, -28.6215, -29.9148
3.4398, 4, 17.8838, 15.8626, 23.055, 38.2547, -28.6215, -29.9149
3.4478, 4, 17.8838, 15.8626, 23.055, 38.2547, -28.6215, -29.9149
3.45585, 4, 17.8837, 15.8626, 23.055, 38.2547, -28.6215, -29.9148
3.4638, 4, 17.8837, 15.8626, 23.055, 38.2547, -28.6215, -29.9147
3.47201, 4, 17.8837, 15.8626, 23.055, 38.2547, -28.6215, -29.9147
3.48001, 4, 17.8837, 15.8626, 23.055, 38.2546, -28.6215, -29.9147
3.5037, 4, 17.8837, 15.8626, 23.055, 38.2546, -28.6215, -29.9147
3.50563, 4, 17.8837, 15.8626, 23.055, 38.2546, -28.6214, -29.9147
3.507, 4, 17.8837, 15.8626, 23.055, 38.2546, -28.6214, -29.9147
3.51182, 4, 17.8836, 15.8626, 23.055, 38.2546, -28.6214, -29.9147
3.52161, 4, 17.8836, 15.8626, 23.055, 38.2546, -28.6214, -29.9147
3.52782, 4, 17.8836, 15.8627, 23.055, 38.2545, -28.6215, -29.9147
3.53588, 4, 17.8835, 15.8628, 23.055, 38.2545, -28.6215, -29.9148
3.54485, 4, 17.8824, 15.8634, 23.055, 38.2545, -28.6215, -29.9147
3.5518, 4, 17.8797, 15.8652, 23.0548, 38.2538, -28.6215, -29.9144
3.55986, 4, 17.8759, 15.8682, 23.0542, 38.2509, -28.6219, -29.9126
3.5678, 4, 17.8716, 15.8722, 23.0529, 38.244, -28.623, -29.9075
3.57591, 4, 17.8672, 15.8772, 23.0506, 38.232, -28.6252, -29.8968
3.58386, 4, 17.862, 15.8835, 23.0469, 38.2143, -28.6289, -29.8796
3.59285, 5, 17.8565, 15.8913, 23.0418, 38.1907, -28.6339, -29.8557
3.59981, 5, 17.8511, 15.9, 23.0354, 38.1617, -28.6404, -29.8256
3.60787, 5, 17.8455, 15.9098, 23.0279, 38.1275, -28.6479, -29.7902
3.61579, 5, 17.8388, 15.9209, 23.0194, 38.0901, -28.6561, -29.7515
3.62387, 5, 17.8304, 15.9334, 23.0104, 38.052, -28.6647, -29.7115
3.63186, 5, 17.8208, 15.947, 23.0014, 38.0131, -28.6733, -29.6708
3.63979, 5, 17.8106, 15.9611, 22.992, 37.973, -28.6822, -29.6293
3.64781, 5, 17.8002, 15.9753, 22.9825, 37.9329, -28.6912, -29.5872
3.65586, 5, 17.7896, 15.9895, 22.9729, 37.8935, -28.7002, -29.5455
3.66379, 5, 17.7788, 16.0039, 22.9632, 37.8536, -28.7093, -29.5041
3.67179, 5, 17.7682, 16.0185, 22.9534, 37.8128, -28.7185, -29.4627
3.67985, 5, 17.7577, 16.0329, 22.9437, 37.773, -28.7279, -29.4209
3.68781, 5, 17.7469, 16.0471, 22.934, 37.7336, -28.7373, -29.379
3.69633, 5, 17.7362, 16.0613, 22.9242, 37.6934, -28.747, -29.3377
3.70318, 5, 17.7254, 16.0756, 22.9143, 37.653, -28.7569, -29.2966
3.71126, 5, 17.7146, 16.0899, 22.9044, 37.6135, -28.7669, -29.255
3.71921, 5, 17.7037, 16.104, 22.8946, 37.5738, -28.7769, -29.213
3.72729, 5, 17.693, 16.118, 22.8849, 37.5333, -28.7868, -29.1717
3.73588, 5, 17.6824, 16.1323, 22.875, 37.4935, -28.7965, -29.1308
3.74469, 5, 17.6717, 16.1466, 22.8652, 37.4543, -28.806, -29.0897
3.75189, 5, 17.6609, 16.1609, 22.8552, 37.4146, -28.8155, -29.048
3.7599, 5, 17.6502, 16.1751, 22.8452, 37.3744, -28.8249, -29.0063
3.76872, 5, 17.6396, 16.1893, 22.8353, 37.3349, -28.8343, -28.9653
3.7758, 5, 17.6288, 16.2038, 22.8255, 37.2957, -28.8437, -28.9243
3.78383, 5, 17.6181, 16.2183, 22.8156, 37.2556, -28.8532, -28.883
3.79281, 5, 17.6076, 16.2327, 22.8057, 37.2157, -28.8628, -28.8412
3.79986, 5, 17.5971, 16.2469, 22.7959, 37.1768, -28.8724, -28.7999
3.80803, 5, 17.5865, 16.2614, 22.7861, 37.1374, -28.8823, -28.759
3.81478, 5, 17.5812, 16.2685, 22.7812, 37.1172, -28.8873, -28.7385
3.82403, 5, 17.5653, 16.2898, 22.7665, 37.0576, -28.9025, -28.6765
3.83088, 5, 17.56, 16.2968, 22.7616, 37.038, -28.9077, -28.6557
3.84016, 5, 17.5439, 16.318, 22.7468, 36.9785, -28.9231, -28.5944
3.84683, 5, 17.5386, 16.3252, 22.7418, 36.9584, -28.9283, -28.5742
3.8564, 5, 17.5226, 16.3467, 22.727, 36.8992, -28.9434, -28.5128
3.86437, 5, 17.5118, 16.3608, 22.7171, 36.8601, -28.9533, -28.4714
3.87084, 5, 17.5064, 16.3679, 22.7121, 36.8402, -28.9582, -28.4509
3.8804, 5, 17.4903, 16.3894, 22.6973, 36.7804, -28.9729, -28.3902
3.88837, 5, 17.4849, 16.3965, 22.6924, 36.7417, -28.9826, -28.3498
3.89485, 5, 17.4741, 16.4108, 22.6826, 36.7221, -28.9874, -28.3294
3.90481, 5, 17.4581, 16.432, 22.6681, 36.6624, -29.0021, -28.268
3.91178, 5, 17.4529, 16.4391, 22.6632, 36.6428, -29.0071, -28.2478
3.91885, 5, 17.4423, 16.4534, 22.6535, 36.6041, -29.0169, -28.2077
3.92784, 5, 17.4317, 16.4677, 22.6437, 36.5652, -29.027, -28.1674
3.93578, 5, 17.4211, 16.4818, 22.6339, 36.5255, -29.0372, -28.1267
3.94285, 5, 17.4107, 16.4959, 22.624, 36.4863, -29.0476, -28.0859
3.95178, 5, 17.4001, 16.5102, 22.6143, 36.4477, -29.0581, -28.0458
3.95987, 5, 17.3895, 16.5243, 22.6045, 36.4085, -29.0685, -28.0059
3.96678, 5, 17.379, 16.5384, 22.5947, 36.3688, -29.0789, -27.9657
3.97579, 5, 17.3684, 16.5524, 22.585, 36.33, -29.089, -27.925
3.98378, 5, 17.3578, 16.5666, 22.5753, 36.2915, -29.0989, -27.8847
3.99184, 5, 17.3471, 16.5809, 22.5656, 36.252, -29.1089, -27.8447
3.99979, 5, 17.3363, 16.5951, 22.556, 36.2125, -29.1187, -27.8047
4.00778, 5, 17.3257, 16.6092, 22.5463, 36.1739, -29.1287, -27.7643
4.01585, 5, 17.3149, 16.6235, 22.5367, 36.1349, -29.1385, -27.7236
4.02379, 5, 17.3041, 16.6377, 22.527, 36.0952, -29.1484, -27.6834
4.03277, 5, 17.2934, 16.6519, 22.5172, 36.0561, -29.1584, -27.6435
4.03981, 5, 17.2828, 16.6659, 22.5075, 36.0175, -29.1685, -27.6035
4.04778, 5, 17.2721, 16.68, 22.4978, 35.9784, -29.1788, -27.563
4.05584, 5, 17.2614, 16.6943, 22.488, 35.9388, -29.1894, -27.5227
4.06378, 5, 17.2508, 16.7085, 22.4784, 35.9, -29.2001, -27.4829
4.07178, 5, 17.2401, 16.7227, 22.4688, 35.8615, -29.2108, -27.4432
4.07996, 5, 17.2294, 16.7367, 22.4592, 35.8223, -29.2215, -27.4033
4.08778, 5, 17.2187, 16.7509, 22.4497, 35.783, -29.232, -27.3628
4.09577, 5, 17.208, 16.7651, 22.4402, 35.7447, -29.2424, -27.323
4.10386, 5, 17.1972, 16.7792, 22.4306, 35.7063, -29.2527, -27.2836
4.11177, 5, 17.1864, 16.7931, 22.421, 35.6671, -29.263, -27.2441
4.11978, 5, 17.1757, 16.8072, 22.4114, 35.6282, -29.2731, -27.2042
4.12792, 5, 17.165, 16.8215, 22.4017, 35.59, -29.2833, -27.1641
4.13577, 5, 17.1541, 16.8356, 22.3922, 35.5513, -29.2936, -27.1246
4.1438, 5, 17.1434, 16.8497, 22.3825, 35.5119, -29.304, -27.0855
4.15186, 5, 17.1328, 16.8636, 22.3728, 35.4735, -29.3144, -27.046
4.15979, 5, 17.1221, 16.8778, 22.3633, 35.4353, -29.325, -27.006
4.16777, 5, 17.1114, 16.8919, 22.3537, 35.3965, -29.3358, -26.9661
4.17586, 5, 17.1008, 16.9059, 22.3441, 35.3572, -29.3467, -26.9271
4.18377, 5, 17.0902, 16.9197, 22.3347, 35.3189, -29.3577, -26.8881
4.19177, 5, 17.0794, 16.9338, 22.3253, 35.2805, -29.3685, -26.8487
4.20003, 5, 17.0687, 16.948, 22.3158, 35.2413, -29.3792, -26.8089
4.2078, 5, 17.0581, 16.9621, 22.3063, 35.2024, -29.3898, -26.7693
4.21586, 5, 17.0474, 16.9762, 22.2967, 35.1643, -29.4001, -26.7303
4.22403, 5, 17.0366, 16.9902, 22.2872, 35.1259, -29.4104, -26.6911
4.23137, 5, 17.0259, 17.0044, 22.2777, 35.0867, -29.4207, -26.6514
4.23993, 5, 17.0152, 17.0186, 22.2683, 35.048, -29.4311, -26.6115
4.24832, 5, 17.0045, 17.0326, 22.2588, 35.01, -29.4415, -26.5722
4.25588, 5, 16.9937, 17.0465, 22.2494, 34.9715, -29.452, -26.5333
4.26398, 5, 16.9831, 17.0606, 22.2399, 34.9326, -29.4627, -26.4941
4.27253, 5, 16.9724, 17.0748, 22.2305, 34.8944, -29.4736, -26.4544
4.27979, 5, 16.9616, 17.0889, 22.2212, 34.8567, -29.4847, -26.4148
4.28787, 5, 16.9509, 17.1027, 22.2118, 34.8182, -29.4959, -26.3758
4.29687, 5, 16.9402, 17.1167, 22.2024, 34.7795, -29.5071, -26.337
4.30392, 5, 16.9294, 17.1309, 22.193, 34.7416, -29.5182, -26.2978
4.31201, 5, 16.9186, 17.1449, 22.1834, 34.7038, -29.5291, -26.2581
4.31876, 5, 16.9132, 17.1519, 22.1787, 34.6846, -29.5346, -26.2383
4.32677, 5, 16.9025, 17.1657, 22.1693, 34.6458, -29.5453, -26.1995
4.33613, 5, 16.8863, 17.1868, 22.1551, 34.5889, -29.5614, -26.1414
4.34281, 5, 16.8809, 17.1938, 22.1504, 34.57, -29.5667, -26.1219
4.35233, 5, 16.8647, 17.215, 22.1364, 34.5121, -29.5828, -26.0628
4.36031, 5, 16.8539, 17.2289, 22.127, 34.4738, -29.5936, -26.0238
4.36917, 5, 16.8431, 17.243, 22.1178, 34.4361, -29.6045, -25.9854
4.37477, 5, 16.8377, 17.25, 22.1132, 34.4171, -29.6099, -25.9661
4.38433, 5, 16.8271, 17.271, 22.0993, 34.3588, -29.6268, -25.9077
4.39337, 5, 16.8164, 17.2779, 22.0947, 34.3396, -29.6381, -25.8685
4.40041, 5, 16.8056, 17.2917, 22.0854, 34.3021, -29.6495, -25.8298
4.40775, 5, 16.7949, 17.3057, 22.076, 34.2643, -29.6552, -25.8107
4.41577, 5, 16.7842, 17.3197, 22.0666, 34.2256, -29.6663, -25.7724
4.42279, 5, 16.7735, 17.3337, 22.0573, 34.1874, -29.6774, -25.7339
4.43175, 5, 16.7627, 17.3475, 22.0478, 34.1498, -29.6882, -25.695
4.43975, 5, 16.752, 17.3614, 22.0385, 34.1117, -29.6991, -25.6565
4.44776, 5, 16.7412, 17.3754, 22.0292, 34.0732, -29.7099, -25.6184
4.45575, 5, 16.7303, 17.3894, 22.0199, 34.0355, -29.7206, -25.5801
4.46388, 5, 16.7194, 17.4032, 22.0106, 33.9982, -29.7315, -25.5414
4.47178, 5, 16.7085, 17.417, 22.0015, 33.9604, -29.7424, -25.5024
4.47974, 5, 16.6977, 17.431, 21.9923, 33.922, -29.7536, -25.4639
4.48781, 5, 16.6867, 17.445, 21.9831, 33.8844, -29.7649, -25.4259
4.49576, 5, 16.6759, 17.4591, 21.9739, 33.8471, -29.7765, -25.3877
4.50376, 5, 16.6652, 17.473, 21.9646, 33.809, -29.7882, -25.3491
4.51076, 5, 16.6545, 17.4869, 21.9553, 33.7709, -29.7999, -25.3104
4.51976, 5, 16.6437, 17.501, 21.9461, 33.7337, -29.8115, -25.2722
4.52876, 5, 16.633, 17.5149, 21.9369, 33.6964, -29.8229, -25.2343
4.53582, 5, 16.6223, 17.5286, 21.9276, 33.6582, -29.8341, -25.1962
4.54481, 5, 16.6117, 17.5423, 21.9185, 33.6202, -29.8453, -25.1577
4.55176, 5, 16.601, 17.5562, 21.9092, 33.583, -29.8564, -25.1192
4.55982, 5, 16.5904, 17.5702, 21.9, 33.5454, -29.8676, -25.0812
4.56775, 5, 16.5797, 17.584, 21.891, 33.507, -29.8788, -25.0434
4.57583, 5, 16.5689, 17.5977, 21.8818, 33.4693, -29.8902, -25.0054
4.58375, 5, 16.5581, 17.6115, 21.8727, 33.4322, -29.9016, -24.9671
4.59178, 5, 16.5473, 17.6255, 21.8636, 33.3947, -29.9132, -24.9289
4.59982, 5, 16.5365, 17.6393, 21.8543, 33.3565, -29.9251, -24.8913
4.60775, 5, 16.5257, 17.653, 21.8451, 33.319, -29.937, -24.8538
4.61576, 5, 16.515, 17.6667, 21.836, 33.282, -29.9488, -24.8159
4.62382, 5, 16.5042, 17.6807, 21.8267, 33.2445, -29.9604, -24.7776
4.63182, 5, 16.4934, 17.6946, 21.8176, 33.2065, -29.9719, -24.7396
4.63976, 5, 16.4826, 17.7085, 21.8085, 33.1695, -29.9832, -24.7021
4.64782, 5, 16.4717, 17.7222, 21.7994, 33.1328, -29.9945, -24.6648
4.65574, 5, 16.461, 17.736, 21.7904, 33.0954, -30.0057, -24.6272
4.66375, 5, 16.4502, 17.75, 21.7814, 33.0576, -30.017, -24.5889
4.67189, 5, 16.4394, 17.7637, 21.7724, 33.0207, -30.0284, -24.5511
4.67974, 5, 16.4286, 17.7773, 21.7634, 32.9839, -30.04, -24.5135
4.68787, 5, 16.4178, 17.7909, 21.7544, 32.9464, -30.0516, -24.476
4.69579, 5, 16.4069, 17.8047, 21.7452, 32.9087, -30.0635, -24.4381
4.70375, 5, 16.3961, 17.8186, 21.736, 32.872, -30.0757, -24.3999
4.71272, 5, 16.3853, 17.8324, 21.7269, 32.8353, -30.0878, -24.3619
4.71979, 5, 16.3744, 17.846, 21.7178, 32.7977, -30.0999, -24.3245
4.72787, 5, 16.3635, 17.8598, 21.7087, 32.7602, -30.1117, -24.2871
4.73668, 5, 16.3528, 17.8736, 21.6997, 32.7234, -30.1235, -24.2492
4.74385, 5, 16.3419, 17.8874, 21.6906, 32.6866, -30.1352, -24.211
4.75187, 5, 16.331, 17.901, 21.6815, 32.6488, -30.1467, -24.1734
4.76065, 5, 16.3201, 17.9146, 21.6726, 32.6113, -30.1584, -24.136
4.76792, 5, 16.3094, 17.9284, 21.6637, 32.5747, -30.1701, -24.0988
4.77576, 5, 16.2984, 17.9422, 21.6547, 32.5379, -30.1819, -24.0611
4.78466, 5, 16.2875, 17.9559, 21.6459, 32.5003, -30.1938, -24.0232
4.7918, 5, 16.2766, 17.9695, 21.6369, 32.4631, -30.2058, -23.9859
4.79984, 5, 16.2656, 17.9833, 21.6278, 32.4266, -30.2182, -23.9488
4.80881, 5, 16.2546, 17.997, 21.6187, 32.3897, -30.2305, -23.912
4.81593, 5, 16.2436, 18.0107, 21.6098, 32.3522, -30.2427, -23.8745
4.82403, 5, 16.2327, 18.0242, 21.6008, 32.3155, -30.2549, -23.8369
4.83075, 5, 16.2272, 18.031, 21.5963, 32.2974, -30.2607, -23.8183
4.83897, 5, 16.2163, 18.0446, 21.5874, 32.2611, -30.2724, -23.7815
4.84821, 5, 16.2, 18.0652, 21.5739, 32.2053, -30.29, -23.7264
4.85629, 5, 16.1892, 18.0789, 21.5649, 32.1685, -30.3017, -23.689
4.86284, 5, 16.1838, 18.0857, 21.5605, 32.1504, -30.3076, -23.6702
4.87231, 5, 16.1676, 18.1061, 21.5472, 32.0955, -30.3254, -23.6146
4.88036, 5, 16.1569, 18.1199, 21.5383, 32.0582, -30.3374, -23.5781
4.88681, 5, 16.1516, 18.1267, 21.5339, 32.0399, -30.3436, -23.5599
4.89638, 5, 16.1407, 18.1403, 21.5204, 31.9857, -30.3622, -23.5047
4.9043, 5, 16.1299, 18.1538, 21.5159, 31.9674, -30.3684, -23.4861
4.91173, 5, 16.1192, 18.1675, 21.5069, 31.9302, -30.381, -23.449
4.91979, 5, 16.1083, 18.1813, 21.498, 31.8933, -30.3934, -23.4123
4.92774, 5, 16.0974, 18.195, 21.4891, 31.857, -30.4056, -23.3758
4.93476, 5, 16.0864, 18.2086, 21.4803, 31.8206, -30.4176, -23.3392
4.94376, 5, 16.0756, 18.2222, 21.4715, 31.7834, -30.4297, -23.3019
4.95174, 5, 16.0647, 18.2359, 21.4626, 31.7466, -30.4417, -23.2648
4.9588, 5, 16.0538, 18.2496, 21.4537, 31.7105, -30.4537, -23.2282
4.96779, 5, 16.043, 18.2631, 21.445, 31.6741, -30.4658, -23.1917
4.97574, 5, 16.0322, 18.2765, 21.4363, 31.6369, -30.4779, -23.1551
4.98379, 5, 16.0213, 18.2901, 21.4275, 31.6002, -30.4903, -23.118
4.99173, 5, 16.0104, 18.3037, 21.4188, 31.5643, -30.5027, -23.0811
4.99976, 5, 15.9996, 18.3174, 21.4098, 31.528, -30.5154, -23.0447
5.00781, 5, 15.9888, 18.331, 21.4008, 31.4911, -30.5281, -23.0085
5.01573, 5, 15.9779, 18.3444, 21.392, 31.4548, -30.5405, -22.9723
5.02374, 5, 15.9671, 18.3581, 21.3832, 31.4191, -30.5528, -22.9356
5.03274, 5, 15.9562, 18.3718, 21.3743, 31.3831, -30.5649, -22.8989
5.03974, 5, 15.9453, 18.3853, 21.3656, 31.3464, -30.577, -22.8626
5.04776, 5, 15.9343, 18.3987, 21.3568, 31.3102, -30.5891, -22.8266
5.05581, 5, 15.9235, 18.4122, 21.348, 31.2746, -30.6012, -22.7907
5.06373, 5, 15.9127, 18.4259, 21.3392, 31.2385, -30.6136, -22.7543
5.07174, 5, 15.9017, 18.4395, 21.3306, 31.2018, -30.626, -22.7179
5.07973, 5, 15.8908, 18.4531, 21.3219, 31.1657, -30.6387, -22.682
5.08773, 5, 15.88, 18.4664, 21.3133, 31.1301, -30.6516, -22.6465
5.09583, 5, 15.8691, 18.48, 21.3046, 31.0942, -30.6646, -22.6107
5.10374, 5, 15.8582, 18.4937, 21.2956, 31.0574, -30.6775, -22.5745
5.11173, 5, 15.8474, 18.5072, 21.2868, 31.0213, -30.6903, -22.5381
5.11982, 5, 15.8366, 18.5205, 21.2781, 30.9857, -30.7028, -22.5024
5.12773, 5, 15.8257, 18.5339, 21.2694, 30.9496, -30.7152, -22.4669
5.13579, 5, 15.8148, 18.5475, 21.2608, 30.9128, -30.7276, -22.4316
5.14382, 5, 15.8039, 18.5612, 21.2521, 30.8766, -30.74, -22.3958
5.15173, 5, 15.793, 18.5747, 21.2434, 30.8412, -30.7525, -22.3598
5.15974, 5, 15.7818, 18.5881, 21.2346, 30.8054, -30.7651, -22.3239
5.16783, 5, 15.7708, 18.6017, 21.2261, 30.7688, -30.7779, -22.2885
5.17575, 5, 15.7599, 18.6153, 21.2175, 30.7329, -30.7909, -22.2531
5.18373, 5, 15.7489, 18.6288, 21.2089, 30.6975, -30.8041, -22.2173
5.19182, 5, 15.7379, 18.6422, 21.2003, 30.6616, -30.8172, -22.1812
5.19976, 5, 15.727, 18.6555, 21.1916, 30.6252, -30.83, -22.1453
5.20781, 5, 15.7161, 18.6691, 21.1828, 30.5895, -30.8427, -22.11
5.21613, 5, 15.7051, 18.6826, 21.1741, 30.5544, -30.8553, -22.0748
5.22323, 5, 15.6942, 18.6961, 21.1655, 30.5189, -30.8678, -22.0393
5.23124, 5, 15.6834, 18.7094, 21.1568, 30.4828, -30.8802, -22.0033
5.24008, 5, 15.6724, 18.7228, 21.1483, 30.447, -30.8927, -21.9674
5.24733, 5, 15.6615, 18.7363, 21.1398, 30.4119, -30.9053, -21.9322
5.25592, 5, 15.6506, 18.7498, 21.1311, 30.3765, -30.9181, -21.8969
5.26438, 5, 15.6396, 18.7631, 21.1225, 30.3404, -30.9311, -21.8617
5.27186, 5, 15.6286, 18.7764, 21.1141, 30.3048, -30.9443, -21.826
5.27992, 5, 15.6175, 18.7898, 21.1056, 30.2699, -30.9576, -21.7902
5.28857, 5, 15.6066, 18.8033, 21.0972, 30.2346, -30.9707, -21.755
5.29579, 5, 15.5956, 18.8169, 21.0887, 30.1985, -30.9837, -21.72
5.30389, 5, 15.5845, 18.8302, 21.08, 30.1628, -30.9966, -21.685
5.31288, 5, 15.5736, 18.8436, 21.0713, 30.1277, -31.0093, -21.6496
5.32001, 5, 15.5627, 18.8571, 21.0627, 30.0923, -31.0221, -21.614
5.32673, 5, 15.5573, 18.8639, 21.0585, 30.0743, -31.0285, -21.5964
5.33682, 5, 15.5408, 18.8839, 21.0456, 30.0206, -31.0477, -21.5445
5.34424, 5, 15.5299, 18.8972, 21.0371, 29.9857, -31.0606, -21.5098
5.35215, 5, 15.519, 18.9106, 21.0286, 29.9506, -31.0738, -21.4748
5.36117, 5, 15.508, 18.9241, 21.02, 29.9147, -31.0872, -21.4392
5.36678, 5, 15.5025, 18.9309, 21.0157, 29.8968, -31.0939, -21.4215
5.37627, 5, 15.486, 18.9509, 21.0032, 29.8442, -31.1138, -21.3697
5.38511, 5, 15.475, 18.9642, 20.9948, 29.8093, -31.127, -21.3353
5.39078, 5, 15.4694, 18.9709, 20.9906, 29.7915, -31.1335, -21.3182
5.40028, 5, 15.4584, 18.9844, 20.9822, 29.7559, -31.1463, -21.266
5.40933, 5, 15.4474, 18.9978, 20.9738, 29.721, -31.1591, -21.2484
5.41579, 5, 15.4364, 19.011, 20.9652, 29.6865, -31.1719, -21.2137
5.42372, 5, 15.4253, 19.0242, 20.9566, 29.6515, -31.1847, -21.1793
5.43172, 5, 15.4144, 19.0377, 20.9482, 29.6159, -31.1978, -21.1449
5.43873, 5, 15.4034, 19.0511, 20.9398, 29.5809, -31.211, -21.1103
5.44773, 5, 15.3923, 19.0646, 20.9314, 29.5465, -31.2244, -21.0754
5.45575, 5, 15.3813, 19.0779, 20.923, 29.5116, -31.2381, -21.0404
5.46371, 5, 15.3703, 19.0911, 20.9145, 29.4761, -31.2518, -21.006
5.47188, 5, 15.3593, 19.1045, 20.906, 29.4411, -31.2654, -20.9718
5.47983, 5, 15.3482, 19.1179, 20.8976, 29.4067, -31.2786, -20.9375
5.48674, 5, 15.3372, 19.1312, 20.8894, 29.3721, -31.2919, -20.9028
5.49571, 5, 15.3261, 19.1443, 20.8811, 29.3366, -31.3051, -20.8678
5.50379, 5, 15.3148, 19.1576, 20.8727, 29.3016, -31.3182, -20.8335
5.51172, 5, 15.3036, 19.1711, 20.8644, 29.2671, -31.3314, -20.7994
5.51971, 5, 15.2925, 19.1844, 20.8559, 29.2324, -31.3447, -20.7652
5.5278, 5, 15.2813, 19.1977, 20.8473, 29.197, -31.3582, -20.7309
5.53734, 5, 15.2702, 19.2109, 20.8389, 29.1618, -31.3718, -20.6962
5.54371, 5, 15.2592, 19.2243, 20.8306, 29.1273, -31.3857, -20.6619
5.55181, 5, 15.2482, 19.2377, 20.8222, 29.0929, -31.3995, -20.6279
5.55972, 5, 15.2371, 19.2509, 20.8139, 29.0578, -31.4131, -20.5941
5.56774, 5, 15.2261, 19.264, 20.8056, 29.0227, -31.4264, -20.5601
5.57576, 5, 15.2152, 19.2773, 20.7972, 28.9883, -31.4397, -20.5258
5.58373, 5, 15.2043, 19.2907, 20.7889, 28.9539, -31.4529, -20.4914
5.59177, 5, 15.1933, 19.304, 20.7807, 28.919, -31.466, -20.4578
5.59974, 5, 15.1823, 19.3173, 20.7725, 28.8839, -31.4792, -20.4242
5.60773, 5, 15.1713, 19.3304, 20.7643, 28.8498, -31.4926, -20.3907
5.61579, 5, 15.1602, 19.3437, 20.7561, 28.8159, -31.5063, -20.3566
5.62372, 5, 15.149, 19.3571, 20.7478, 28.7814, -31.5202, -20.3222
5.63173, 5, 15.138, 19.3703, 20.7393, 28.7464, -31.5343, -20.2883
5.63983, 5, 15.1269, 19.3835, 20.7309, 28.7121, -31.5483, -20.2549
5.64771, 5, 15.1158, 19.3966, 20.7226, 28.6782, -31.5621, -20.2214
5.65572, 5, 15.1047, 19.4099, 20.7143, 28.6437, -31.5757, -20.1879
5.66377, 5, 15.0937, 19.4232, 20.7061, 28.6087, -31.5892, -20.154
5.67171, 5, 15.0826, 19.4365, 20.6979, 28.5745, -31.6027, -20.1201
5.67972, 5, 15.0715, 19.4496, 20.6895, 28.5407, -31.6162, -20.0867
5.68778, 5, 15.0605, 19.4627, 20.6811, 28.5065, -31.6297, -20.0532
5.69571, 5, 15.0495, 19.476, 20.673, 28.4716, -31.6435, -20.0197
5.70394, 5, 15.0384, 19.4892, 20.6649, 28.4371, -31.6574, -19.9858
5.71171, 5, 15.0273, 19.5023, 20.6568, 28.4032, -31.6716, -19.9517
5.71974, 5, 15.0162, 19.5153, 20.6487, 28.3692, -31.6857, -19.9178
5.72854, 5, 15.005, 19.5285, 20.6405, 28.3343, -31.6997, -19.8845
5.7358, 5, 14.9938, 19.5418, 20.6321, 28.2997, -31.7135, -19.8513
5.74382, 5, 14.9827, 19.5551, 20.6238, 28.2659, -31.7271, -19.818
5.75257, 5, 14.9716, 19.5682, 20.6156, 28.2321, -31.7407, -19.7841
5.75985, 5, 14.9605, 19.5813, 20.6074, 28.1976, -31.7541, -19.7502
5.76786, 5, 14.9494, 19.5946, 20.5993, 28.1629, -31.7677, -19.7169
5.77595, 5, 14.9384, 19.6079, 20.5912, 28.1291, -31.7814, -19.6838
5.78374, 5, 14.9273, 19.621, 20.583, 28.0954, -31.7952, -19.6506
5.79174, 5, 14.9161, 19.634, 20.5747, 28.0612, -31.8094, -19.6172
5.80109, 5, 14.9051, 19.6471, 20.5666, 28.0268, -31.8237, -19.5834
5.80781, 5, 14.8941, 19.6604, 20.5586, 27.9931, -31.838, -19.5501
5.81589, 5, 14.883, 19.6736, 20.5505, 27.9598, -31.8521, -19.5172
5.82397, 5, 14.8719, 19.6868, 20.5424, 27.9261, -31.8661, -19.4843
5.83196, 5, 14.8608, 19.6998, 20.5344, 27.8917, -31.8799, -19.4514
5.84009, 5, 14.8495, 19.7129, 20.5262, 27.8579, -31.8937, -19.4181
5.84673, 5, 14.8439, 19.7196, 20.522, 27.8413, -31.9006, -19.4014
5.85618, 5, 14.8271, 19.7393, 20.5097, 27.7912, -31.9213, -19.3518
5.86271, 5, 14.8215, 19.7459, 20.5056, 27.7742, -31.9283, -19.3356
5.87226, 5, 14.8047, 19.7653, 20.4935, 27.723, -31.9494, -19.2869
5.87878, 5, 14.7991, 19.7719, 20.4895, 27.7063, -31.9566, -19.2706
5.88831, 5, 14.7825, 19.7918, 20.4774, 27.6564, -31.9783, -19.2208
5.89631, 5, 14.7769, 19.7984, 20.4733, 27.6224, -31.9926, -19.1877
5.90277, 5, 14.7658, 19.8115, 20.4652, 27.6052, -31.9996, -19.1714
5.91296, 5, 14.7492, 19.831, 20.4532, 27.5548, -32.0204, -19.123
5.91972, 5, 14.7437, 19.8376, 20.4492, 27.5382, -32.0273, -19.1068
5.92775, 5, 14.7327, 19.8508, 20.4413, 27.5047, -32.0411, -19.0743
5.93572, 5, 14.7217, 19.8638, 20.4334, 27.4705, -32.0548, -19.0415
5.94373, 5, 14.7106, 19.8768, 20.4255, 27.4364, -32.0687, -19.0086
5.95178, 5, 14.6995, 19.8897, 20.4174, 27.4032, -32.0828, -18.9763
5.95972, 5, 14.6884, 19.9029, 20.4092, 27.3701, -32.0972, -18.9439
5.9677, 5, 14.6772, 19.916, 20.401, 27.3363, -32.1118, -18.9116
5.97586, 5, 14.6661, 19.9292, 20.393, 27.3023, -32.1264, -18.8789
5.98369, 5, 14.655, 19.9422, 20.385, 27.269, -32.1409, -18.8458
5.99169, 5, 14.6439, 19.9552, 20.3769, 27.236, -32.155, -18.8129
5.99976, 5, 14.6328, 19.9683, 20.369, 27.2024, -32.1691, -18.7807
6.0077, 5, 14.6218, 19.9814, 20.3609, 27.1684, -32.1832, -18.7487
6.01572, 5, 14.6106, 19.9945, 20.3529, 27.1353, -32.1972, -18.7167
6.02377, 5, 14.5995, 20.0073, 20.3449, 27.1026, -32.2113, -18.6843
6.03169, 5, 14.5885, 20.0203, 20.3371, 27.0698, -32.2255, -18.6516
6.04076, 5, 14.5774, 20.0335, 20.3292, 27.036, -32.2399, -18.6193
6.0467, 5, 14.5663, 20.0466, 20.3214, 27.0026, -32.2546, -18.5873
6.05571, 5, 14.5552, 20.0597, 20.3135, 26.9698, -32.2692, -18.5554
6.06369, 5, 14.5441, 20.0726, 20.3056, 26.937, -32.2837, -18.5234
6.0717, 5, 14.5328, 20.0857, 20.2975, 26.9035, -32.298, -18.4911
6.07971, 5, 14.5216, 20.0988, 20.2894, 26.87, -32.3121, -18.4587
6.08777, 5, 14.5104, 20.1119, 20.2815, 26.8373, -32.3261, -18.4268
6.0957, 5, 14.4991, 20.1248, 20.2737, 26.8047, -32.3402, -18.3952
6.10373, 5, 14.4879, 20.1376, 20.2658, 26.7716, -32.3543, -18.3636
6.11178, 5, 14.4767, 20.1507, 20.258, 26.738, -32.3687, -18.332
6.11973, 5, 14.4655, 20.1638, 20.25, 26.7048, -32.3833, -18.2997
6.12769, 5, 14.4542, 20.1768, 20.242, 26.6721, -32.3981, -18.2677
6.13577, 5, 14.443, 20.1897, 20.2341, 26.6393, -32.4131, -18.236
6.14374, 5, 14.4318, 20.2026, 20.2264, 26.6056, -32.4279, -18.2048
6.1517, 5, 14.4207, 20.2156, 20.2187, 26.5724, -32.4425, -18.1736
6.15977, 5, 14.4094, 20.2286, 20.2109, 26.5398, -32.4569, -18.142
6.1677, 5, 14.3983, 20.2416, 20.2031, 26.5073, -32.4713, -18.11
6.1757, 5, 14.3871, 20.2543, 20.1952, 26.4742, -32.4857, -18.0781
6.18376, 5, 14.3758, 20.2673, 20.1872, 26.4408, -32.5002, -18.0468
6.19171, 5, 14.3645, 20.2803, 20.1792, 26.4081, -32.5147, -18.0158
6.19971, 5, 14.3533, 20.2933, 20.1713, 26.3758, -32.5296, -17.9846
6.20777, 5, 14.3421, 20.3063, 20.1635, 26.3432, -32.5446, -17.9532
6.21583, 5, 14.3308, 20.3192, 20.1557, 26.3099, -32.5596, -17.9214
6.22371, 5, 14.3197, 20.3322, 20.148, 26.2773, -32.5745, -17.8898
6.23174, 5, 14.3086, 20.3452, 20.1402, 26.2452, -32.5891, -17.8587
6.24004, 5, 14.2974, 20.3581, 20.1322, 26.213, -32.6036, -17.8277
6.24779, 5, 14.2862, 20.371, 20.1244, 26.1801, -32.618, -17.7966
6.2558, 5, 14.2752, 20.3838, 20.1168, 26.1472, -32.6323, -17.765
6.26419, 5, 14.2641, 20.3968, 20.1092, 26.115, -32.6468, -17.7331
6.2713, 5, 14.2529, 20.4098, 20.1016, 26.083, -32.6614, -17.7015
6.27977, 5, 14.2418, 20.4228, 20.0939, 26.0504, -32.6762, -17.6705
6.28862, 5, 14.2306, 20.4357, 20.0862, 26.0174, -32.6913, -17.6397
6.29573, 5, 14.2194, 20.4485, 20.0783, 25.9851, -32.7064, -17.6089
6.30374, 5, 14.2081, 20.4616, 20.0703, 25.9531, -32.7215, -17.5776
6.31268, 5, 14.197, 20.4745, 20.0626, 25.9211, -32.7362, -17.546
6.31983, 5, 14.1859, 20.4874, 20.0548, 25.8882, -32.7509, -17.5148
6.32814, 5, 14.1747, 20.5002, 20.0471, 25.8555, -32.7655, -17.484
6.33472, 5, 14.1692, 20.5065, 20.0433, 25.8394, -32.7727, -17.4686
6.34274, 5, 14.1581, 20.5195, 20.0356, 25.8075, -32.7874, -17.4378
6.35225, 5, 14.1414, 20.5389, 20.0238, 25.7588, -32.8097, -17.3913
6.36099, 5, 14.1302, 20.5518, 20.016, 25.7258, -32.8247, -17.3601
6.36822, 5, 14.1191, 20.5645, 20.0084, 25.6935, -32.84, -17.3291
6.37663, 5, 14.1081, 20.5773, 20.0009, 25.6617, -32.8553, -17.2987
6.38508, 5, 14.0969, 20.5903, 19.9933, 25.6296, -32.8704, -17.2684
6.39225, 5, 14.0857, 20.6031, 19.9857, 25.5969, -32.8852, -17.2379
6.40035, 5, 14.0801, 20.6159, 19.9781, 25.5645, -32.8999, -17.207
6.4091, 5, 14.0688, 20.6222, 19.9743, 25.5485, -32.9071, -17.1914
6.4148, 5, 14.0575, 20.635, 19.9665, 25.5168, -32.9217, -17.1604
6.42492, 5, 14.0406, 20.6544, 19.9549, 25.4685, -32.9438, -17.1148
6.43169, 5, 14.035, 20.6609, 19.9511, 25.4521, -32.9513, -17.0998
6.43876, 5, 14.0237, 20.6737, 19.9435, 25.42, -32.9665, -17.0697
6.44773, 5, 14.0125, 20.6864, 19.9359, 25.3885, -32.9819, -17.0394
6.45571, 5, 14.0014, 20.6993, 19.9283, 25.3571, -32.9974, -17.0086
6.4627, 5, 13.9902, 20.7122, 19.9206, 25.3251, -33.0128, -16.9777
6.47167, 5, 13.979, 20.725, 19.9129, 25.2927, -33.0279, -16.9473
6.47985, 5, 13.9678, 20.7378, 19.9052, 25.2609, -33.0428, -16.9174
6.48775, 5, 13.9567, 20.7504, 19.8977, 25.2294, -33.0576, -16.8875
6.49568, 5, 13.9456, 20.7632, 19.8903, 25.1977, -33.0725, -16.8574
6.50369, 5, 13.9344, 20.7761, 19.8828, 25.1653, -33.0875, -16.827
6.51174, 5, 13.9233, 20.789, 19.8753, 25.1334, -33.1026, -16.7965
6.51967, 5, 13.912, 20.8018, 19.8678, 25.102, -33.1179, -16.7663
6.5277, 5, 13.9005, 20.8144, 19.8601, 25.0707, -33.1335, -16.7365
6.53669, 5, 13.8892, 20.8273, 19.8523, 25.0387, -33.1489, -16.7068
6.54368, 5, 13.8779, 20.8401, 19.8446, 25.0064, -33.1641, -16.6768
6.5527, 5, 13.8665, 20.8529, 19.8371, 24.9747, -33.1791, -16.6464
6.55869, 5, 13.8552, 20.8655, 19.8295, 24.9434, -33.194, -16.6159
6.56769, 5, 13.8439, 20.878, 19.8219, 24.9118, -33.2087, -16.5857
6.57569, 5, 13.8326, 20.8908, 19.8145, 24.8795, -33.2236, -16.5558
6.58371, 5, 13.8213, 20.9036, 19.8069, 24.8476, -33.2386, -16.5263
6.59173, 5, 13.81, 20.9163, 19.7993, 24.8162, -33.2539, -16.4967
6.59971, 5, 13.7988, 20.929, 19.7918, 24.7851, -33.2695, -16.4667
6.60773, 5, 13.7875, 20.9415, 19.7845, 24.7533, -33.2852, -16.4364
6.61568, 5, 13.7763, 20.9543, 19.7771, 24.7211, -33.3008, -16.4064
6.62377, 5, 13.7651, 20.967, 19.7698, 24.6895, -33.3162, -16.3768
6.63168, 5, 13.7538, 20.9797, 19.7624, 24.6584, -33.3313, -16.3474
6.63968, 5, 13.7424, 20.9923, 19.7549, 24.6271, -33.3465, -16.3179
6.64782, 5, 13.7311, 21.0048, 19.7473, 24.5953, -33.3615, -16.2882
6.65568, 5, 13.72, 21.0176, 19.7396, 24.5637, -33.3767, -16.2582
6.66367, 5, 13.7087, 21.0304, 19.7321, 24.5327, -33.392, -16.2284
6.67175, 5, 13.6975, 21.0431, 19.7247, 24.502, -33.4077, -16.1991
6.67968, 5, 13.6864, 21.0557, 19.7172, 24.4708, -33.4235, -16.1699
6.68768, 5, 13.6752, 21.0683, 19.7097, 24.4391, -33.4392, -16.1406
6.69575, 5, 13.6638, 21.0811, 19.7023, 24.4078, -33.4547, -16.1112
6.70369, 5, 13.6526, 21.0938, 19.6947, 24.3771, -33.47, -16.0815
6.71168, 5, 13.6414, 21.1064, 19.6872, 24.3464, -33.4852, -16.0516
6.71987, 5, 13.6301, 21.1188, 19.6797, 24.3149, -33.5004, -16.0221
6.7277, 5, 13.6188, 21.1315, 19.6725, 24.2833, -33.5155, -15.9931
6.73582, 5, 13.6075, 21.1442, 19.6652, 24.2522, -33.5308, -15.9641
6.7446, 5, 13.5962, 21.157, 19.6579, 24.2215, -33.5463, -15.9352
6.75178, 5, 13.5848, 21.1697, 19.6506, 24.1907, -33.5622, -15.9058
6.75985, 5, 13.5735, 21.1822, 19.6433, 24.159, -33.5781, -15.8762
6.7686, 5, 13.5623, 21.1948, 19.6358, 24.1276, -33.5939, -15.8469
6.77584, 5, 13.551, 21.2076, 19.6283, 24.0969, -33.6095, -15.818
6.78388, 5, 13.5398, 21.2203, 19.6209, 24.0661, -33.625, -15.7894
6.79262, 5, 13.5287, 21.2328, 19.6136, 24.0348, -33.6404, -15.7606
6.79971, 5, 13.5174, 21.2453, 19.6062, 24.0031, -33.6556, -15.7317
6.80778, 5, 13.5061, 21.2579, 19.5989, 23.9721, -33.6712, -15.7023
6.8167, 5, 13.4948, 21.2706, 19.5916, 23.9415, -33.6868, -15.6732
6.82389, 5, 13.4836, 21.2832, 19.5842, 23.911, -33.7027, -15.6445
6.83196, 5, 13.4722, 21.2958, 19.5768, 23.8797, -33.7187, -15.6159
6.84084, 5, 13.4609, 21.3083, 19.5694, 23.8484, -33.7347, -15.5874
6.8481, 5, 13.4495, 21.3208, 19.5622, 23.8178, -33.7504, -15.5585
6.8548, 5, 13.4438, 21.3272, 19.5587, 23.8025, -33.7582, -15.5438
6.86414, 5, 13.4265, 21.3461, 19.5479, 23.7565, -33.7813, -15.4997
6.87074, 5, 13.4207, 21.3524, 19.5443, 23.7409, -33.7889, -15.4851
6.88022, 5, 13.4036, 21.371, 19.5334, 23.6943, -33.812, -15.442
6.88823, 5, 13.3922, 21.3836, 19.526, 23.664, -33.8277, -15.4137
6.89475, 5, 13.3865, 21.3899, 19.5223, 23.649, -33.8356, -15.3995
6.90421, 5, 13.3752, 21.4026, 19.5149, 23.6188, -33.8599, -15.3564
6.91166, 5, 13.3639, 21.4152, 19.5076, 23.5878, -33.868, -15.3419
6.91868, 5, 13.3526, 21.4277, 19.5004, 23.5569, -33.8841, -15.3128
6.92878, 5, 13.3358, 21.4465, 19.4896, 23.5116, -33.9078, -15.2699
6.93567, 5, 13.3302, 21.4528, 19.4859, 23.4965, -33.9156, -15.2557
6.94268, 5, 13.319, 21.4653, 19.4787, 23.466, -33.9313, -15.2274
6.95167, 5, 13.3077, 21.4778, 19.4715, 23.435, -33.9468, -15.199
6.95969, 5, 13.2965, 21.4901, 19.4642, 23.4045, -33.9625, -15.1704
6.96668, 5, 13.2851, 21.5026, 19.457, 23.3745, -33.9784, -15.1415
6.97568, 5, 13.2737, 21.5151, 19.4499, 23.3445, -33.9944, -15.1129
6.98375, 5, 13.2623, 21.5277, 19.4428, 23.3138, -34.0107, -15.0847
6.99171, 5, 13.2511, 21.5402, 19.4358, 23.2828, -34.0267, -15.0566
6.99966, 5, 13.2397, 21.5526, 19.4287, 23.2524, -34.0426, -15.0287
7.00776, 5, 13.2283, 21.5652, 19.4216, 23.2223, -34.0583, -15.0005
7.01568, 5, 13.2171, 21.5778, 19.4142, 23.1921, -34.0739, -14.9719
7.02366, 5, 13.2057, 21.5904, 19.4069, 23.1612, -34.0894, -14.9432
7.03173, 5, 13.1942, 21.6028, 19.3996, 23.1304, -34.105, -14.9152
7.0413, 5, 13.1829, 21.6152, 19.3925, 23.1003, -34.1209, -14.8735
7.04766, 5, 13.1717, 21.6276, 19.3853, 23.0705, -34.1372, -14.8596
7.05576, 5, 13.1603, 21.6402, 19.3782, 23.0404, -34.1535, -14.8319
7.06474, 5, 13.149, 21.6527, 19.371, 23.0096, -34.1699, -14.8039
7.07166, 5, 13.1376, 21.6652, 19.3638, 22.9792, -34.186, -14.7755
7.07973, 5, 13.1262, 21.6774, 19.3565, 22.9493, -34.2019, -14.7474
7.08766, 5, 13.1148, 21.6898, 19.3494, 22.9195, -34.2177, -14.7196
7.09573, 5, 13.1034, 21.7023, 19.3423, 22.8895, -34.2335, -14.692
7.10366, 5, 13.0921, 21.7147, 19.3354, 22.8589, -34.2494, -14.6643
7.11167, 5, 13.0807, 21.727, 19.3284, 22.8289, -34.2654, -14.6368
7.11981, 5, 13.0694, 21.7392, 19.3214, 22.7994, -34.2817, -14.6089
7.12766, 5, 13.0581, 21.7516, 19.3144, 22.77, -34.2981, -14.5808
7.13567, 5, 13.0468, 21.7641, 19.3073, 22.7399, -34.3146, -14.5529
7.14372, 5, 13.0354, 21.7766, 19.3, 22.7095, -34.3307, -14.5255
7.15172, 5, 13.0241, 21.7891, 19.2928, 22.6797, -34.3466, -14.4981
7.15967, 5, 13.0128, 21.8014, 19.2858, 22.6502, -34.3625, -14.4707
7.16772, 5, 13.0014, 21.8138, 19.2788, 22.6207, -34.3782, -14.443
7.17569, 5, 12.99, 21.8264, 19.2718, 22.5906, -34.3941, -14.4148
7.18367, 5, 12.9786, 21.8388, 19.2648, 22.5603, -34.4101, -14.3865
7.19175, 5, 12.9671, 21.8511, 19.2578, 22.5307, -34.4265, -14.3589
7.19966, 5, 12.9556, 21.8634, 19.2507, 22.5015, -34.4432, -14.3317
7.20773, 5, 12.9441, 21.8758, 19.2436, 22.4721, -34.4597, -14.3044
7.21567, 5, 12.9327, 21.8883, 19.2366, 22.442, -34.476, -14.2774
7.22366, 5, 12.9213, 21.9007, 19.2297, 22.4118, -34.4923, -14.25
7.23195, 5, 12.91, 21.913, 19.2228, 22.3823, -34.5084, -14.2222
7.23972, 5, 12.8987, 21.9253, 19.2159, 22.353, -34.5244, -14.1945
7.24774, 5, 12.8874, 21.9376, 19.209, 22.3235, -34.5406, -14.1672
7.25609, 5, 12.8761, 21.9501, 19.2021, 22.2931, -34.5569, -14.14
7.26322, 5, 12.8649, 21.9625, 19.195, 22.263, -34.5735, -14.1132
7.27182, 5, 12.8537, 21.9747, 19.1878, 22.2336, -34.5903, -14.0862
7.28026, 5, 12.8424, 21.9869, 19.1808, 22.2045, -34.607, -14.0591
7.28766, 5, 12.8311, 21.9993, 19.1738, 22.1751, -34.6232, -14.0315
7.29574, 5, 12.8198, 22.0117, 19.1669, 22.145, -34.6394, -14.0041
7.30446, 5, 12.8083, 22.0241, 19.16, 22.1153, -34.6554, -13.9775
7.31181, 5, 12.7969, 22.0364, 19.153, 22.0861, -34.6714, -13.9508
7.31983, 5, 12.7856, 22.0486, 19.1462, 22.057, -34.6874, -13.9243
7.32866, 5, 12.7742, 22.0609, 19.1392, 22.0276, -34.7038, -13.8977
7.3359, 5, 12.7628, 22.0733, 19.1323, 21.9976, -34.7205, -13.8707
7.34428, 5, 12.7515, 22.0856, 19.1254, 21.9682, -34.7373, -13.8434
7.35291, 5, 12.7402, 22.0977, 19.1187, 21.9392, -34.7541, -13.8164
7.36008, 5, 12.7288, 22.1098, 19.1119, 21.9106, -34.7706, -13.7899
7.36667, 5, 12.7231, 22.1159, 19.1086, 21.8961, -34.7788, -13.7768
7.37702, 5, 12.7061, 22.1344, 19.0984, 21.8517, -34.8031, -13.7372
7.3842, 5, 12.6948, 22.1467, 19.0916, 21.8224, -34.8193, -13.711
7.39252, 5, 12.6834, 22.159, 19.0847, 21.7935, -34.8357, -13.6843
7.40112, 5, 12.672, 22.1711, 19.0777, 21.7647, -34.8522, -13.6574
7.40677, 5, 12.6663, 22.1772, 19.0741, 21.7501, -34.8606, -13.644
7.41634, 5, 12.6549, 22.1896, 19.0672, 21.7204, -34.8775, -13.6175
7.42365, 5, 12.6433, 22.2019, 19.0604, 21.691, -34.8943, -13.5912
7.43072, 5, 12.6319, 22.214, 19.0536, 21.6621, -34.9109, -13.5651
7.43969, 5, 12.6205, 22.2261, 19.0467, 21.6335, -34.9272, -13.5389
7.44766, 5, 12.609, 22.2382, 19.0399, 21.6047, -34.9434, -13.5127
7.45466, 5, 12.5975, 22.2505, 19.0331, 21.5751, -34.9595, -13.4859
7.46365, 5, 12.5861, 22.2628, 19.0262, 21.5457, -34.9757, -13.4591
7.47165, 5, 12.5746, 22.275, 19.0193, 21.5167, -34.9922, -13.433
7.47869, 5, 12.5631, 22.2872, 19.0125, 21.488, -35.0091, -13.407
7.48769, 5, 12.5517, 22.2992, 19.0059, 21.4591, -35.0261, -13.381
7.49565, 5, 12.5403, 22.3115, 18.9993, 21.4295, -35.043, -13.355
7.50266, 5, 12.5287, 22.3238, 18.9926, 21.4002, -35.0598, -13.3287
7.51168, 5, 12.5173, 22.3359, 18.9859, 21.3715, -35.0764, -13.3018
7.51965, 5, 12.5058, 22.348, 18.9792, 21.343, -35.0928, -13.275
7.52773, 5, 12.4941, 22.36, 18.9724, 21.3143, -35.1092, -13.2487
7.53564, 5, 12.4824, 22.3722, 18.9655, 21.2848, -35.1256, -13.2228
7.54466, 5, 12.4709, 22.3844, 18.9587, 21.2556, -35.1424, -13.197
7.55171, 5, 12.4593, 22.3965, 18.9519, 21.2269, -35.1595, -13.1712
7.55964, 5, 12.4478, 22.4087, 18.9453, 21.1985, -35.1765, -13.1454
7.56765, 5, 12.4363, 22.4206, 18.9386, 21.1698, -35.1934, -13.119
7.57571, 5, 12.4249, 22.4327, 18.932, 21.1407, -35.21, -13.0927
7.58366, 5, 12.4134, 22.4449, 18.9253, 21.1118, -35.2265, -13.0667
7.59164, 5, 12.402, 22.457, 18.9185, 21.0835, -35.2429, -13.0408
7.59965, 5, 12.3907, 22.4689, 18.9117, 21.0555, -35.2593, -13.0153
7.60765, 5, 12.3793, 22.4808, 18.905, 21.0271, -35.2759, -12.9897
7.61572, 5, 12.3679, 22.4928, 18.8984, 20.9981, -35.2927, -12.964
7.62364, 5, 12.3564, 22.505, 18.8919, 20.9693, -35.3099, -12.938
7.63174, 5, 12.345, 22.5171, 18.8853, 20.9412, -35.3271, -12.9117
7.63974, 5, 12.3333, 22.5293, 18.8788, 20.9131, -35.344, -12.8858
7.64764, 5, 12.3218, 22.5413, 18.8722, 20.8849, -35.3607, -12.8604
7.65569, 5, 12.3104, 22.5533, 18.8656, 20.856, -35.3773, -12.8351
7.66375, 5, 12.299, 22.5656, 18.8588, 20.8272, -35.3939, -12.8101
7.67164, 5, 12.2875, 22.5777, 18.852, 20.7988, -35.4105, -12.7849
7.67969, 5, 12.2761, 22.5897, 18.8453, 20.7708, -35.4273, -12.7592
7.68772, 5, 12.2646, 22.6016, 18.8387, 20.7427, -35.4444, -12.7332
7.69567, 5, 12.253, 22.6136, 18.8322, 20.7138, -35.4617, -12.7075
7.70364, 5, 12.2416, 22.6257, 18.8256, 20.685, -35.4788, -12.6822
7.71173, 5, 12.2302, 22.6378, 18.819, 20.6567, -35.4956, -12.6573
7.71964, 5, 12.2187, 22.6499, 18.8125, 20.6288, -35.5123, -12.6323
7.72771, 5, 12.2072, 22.6617, 18.8058, 20.6007, -35.5288, -12.6074
7.73654, 5, 12.1958, 22.6737, 18.7992, 20.5718, -35.5454, -12.5823
7.74371, 5, 12.1842, 22.6858, 18.7926, 20.543, -35.562, -12.5567
7.75179, 5, 12.1726, 22.6979, 18.7862, 20.5147, -35.579, -12.5312
7.76061, 5, 12.1611, 22.7099, 18.7798, 20.4869, -35.5962, -12.5061
7.76775, 5, 12.1496, 22.7217, 18.7734, 20.459, -35.6136, -12.4812
7.77587, 5, 12.138, 22.7336, 18.767, 20.4305, -35.6308, -12.4564
7.78458, 5, 12.1265, 22.7457, 18.7606, 20.402, -35.6478, -12.4317
7.79165, 5, 12.1151, 22.7578, 18.754, 20.3739, -35.6646, -12.4068
7.79973, 5, 12.1036, 22.7699, 18.7474, 20.3462, -35.6813, -12.3817
7.80858, 5, 12.092, 22.7818, 18.7407, 20.3183, -35.6981, -12.3562
7.81577, 5, 12.0806, 22.7937, 18.7341, 20.2899, -35.715, -12.3311
7.82389, 5, 12.0692, 22.8058, 18.7277, 20.2613, -35.7322, -12.3064
7.83269, 5, 12.0577, 22.8178, 18.7212, 20.2334, -35.7495, -12.282
7.83999, 5, 12.0462, 22.8297, 18.7147, 20.2059, -35.7669, -12.2575
7.84796, 5, 12.0346, 22.8415, 18.7082, 20.1785, -35.7839, -12.233
7.85469, 5, 12.0288, 22.8475, 18.7049, 20.1647, -35.7924, -12.2205
7.86265, 5, 12.0171, 22.8593, 18.6985, 20.1363, -35.8092, -12.1952
7.87214, 5, 11.9996, 22.8774, 18.6886, 20.0943, -35.8342, -12.1572
7.88018, 5, 11.988, 22.8894, 18.6821, 20.0667, -35.851, -12.1323
7.88673, 5, 11.9822, 22.8954, 18.6789, 20.053, -35.8595, -12.1201
7.89619, 5, 11.9649, 22.9131, 18.6695, 20.0115, -35.8855, -12.0836
7.9042, 5, 11.9591, 22.919, 18.6632, 19.9832, -35.9031, -12.0593
7.9123, 5, 11.9475, 22.9311, 18.6569, 19.9554, -35.9205, -12.0349
7.91963, 5, 11.9359, 22.9431, 18.6537, 19.9416, -35.9292, -12.0225
7.92763, 5, 11.9244, 22.955, 18.6474, 19.9144, -35.9463, -11.9976
7.93464, 5, 11.913, 22.9668, 18.6409, 19.887, -35.9633, -11.9727
7.94363, 5, 11.9014, 22.9786, 18.6344, 19.859, -35.9802, -11.9481
7.95165, 5, 11.8899, 22.9906, 18.6279, 19.8308, -35.9972, -11.9239
7.95866, 5, 11.8784, 23.0026, 18.6215, 19.803, -36.0145, -11.8997
7.96763, 5, 11.8666, 23.0145, 18.6152, 19.7755, -36.0321, -11.8757
7.97567, 5, 11.855, 23.0264, 18.6089, 19.7482, -36.0498, -11.8514
7.98265, 5, 11.8434, 23.0381, 18.6025, 19.7202, -36.0672, -11.8269
7.99168, 5, 11.8317, 23.05, 18.5962, 19.692, -36.0844, -11.8022
7.99967, 5, 11.8201, 23.0619, 18.5899, 19.6643, -36.1014, -11.7775
8.00765, 5, 11.8086, 23.0738, 18.5834, 19.637, -36.1182, -11.7534
8.01566, 5, 11.7971, 23.0856, 18.577, 19.61, -36.1352, -11.7296
8.02369, 5, 11.7855, 23.0973, 18.5707, 19.5824, -36.1523, -11.7059
8.03166, 5, 11.774, 23.1091, 18.5645, 19.5544, -36.1697, -11.6821
8.03963, 5, 11.7626, 23.121, 18.5583, 19.5267, -36.1874, -11.6582
8.0477, 5, 11.751, 23.1329, 18.5521, 19.4996, -36.205, -11.6338
8.05563, 5, 11.7395, 23.1448, 18.5459, 19.4726, -36.2224, -11.6094
8.06463, 5, 11.728, 23.1566, 18.5397, 19.4454, -36.2396, -11.5851
8.0717, 5, 11.7165, 23.1683, 18.5334, 19.4177, -36.2568, -11.5613
8.08188, 5, 11.699, 23.1861, 18.5237, 19.3765, -36.2823, -11.5261
8.08763, 5, 11.6932, 23.192, 18.5205, 19.363, -36.2909, -11.5143
8.09569, 5, 11.6817, 23.2037, 18.5141, 19.3363, -36.3082, -11.4906
8.10363, 5, 11.6701, 23.2154, 18.5079, 19.3095, -36.3258, -11.4668
8.11169, 5, 11.6584, 23.227, 18.5017, 19.2819, -36.3436, -11.4426
8.11962, 5, 11.6469, 23.2388, 18.4954, 19.2543, -36.3611, -11.4185
8.12764, 5, 11.6353, 23.2507, 18.4892, 19.2272, -36.3782, -11.395
8.13571, 5, 11.6236, 23.2625, 18.4829, 19.2004, -36.3953, -11.3717
8.14362, 5, 11.612, 23.2743, 18.4767, 19.1737, -36.4123, -11.3483
8.15163, 5, 11.6005, 23.2859, 18.4704, 19.1465, -36.4293, -11.325
8.15974, 5, 11.5888, 23.2977, 18.4642, 19.119, -36.4466, -11.3015
8.16763, 5, 11.5772, 23.3097, 18.458, 19.0918, -36.4643, -11.2779
8.17563, 5, 11.5656, 23.3214, 18.452, 19.065, -36.4822, -11.254
8.18372, 5, 11.5538, 23.3331, 18.446, 19.0384, -36.5, -11.2301
8.19162, 5, 11.5421, 23.3447, 18.4399, 19.0116, -36.5176, -11.2064
8.19966, 5, 11.5304, 23.3565, 18.4339, 18.9841, -36.5349, -11.1833
8.20777, 5, 11.5188, 23.3684, 18.4278, 18.9568, -36.5522, -11.1602
8.21562, 5, 11.5071, 23.3802, 18.4216, 18.9299, -36.5694, -11.1372
8.22383, 5, 11.4956, 23.3919, 18.4153, 18.9033, -36.5868, -11.114
8.23162, 5, 11.4841, 23.4036, 18.409, 18.8766, -36.6043, -11.0903
8.23967, 5, 11.4725, 23.4152, 18.4028, 18.8491, -36.6221, -11.0663
8.24797, 5, 11.461, 23.4271, 18.3966, 18.8217, -36.64, -11.0425
8.25572, 5, 11.4496, 23.4388, 18.3905, 18.7947, -36.6575, -11.019
8.26374, 5, 11.4381, 23.4505, 18.3843, 18.7681, -36.6748, -10.9959
8.27213, 5, 11.4265, 23.4621, 18.3782, 18.7416, -36.6919, -10.973
8.27921, 5, 11.4208, 23.4737, 18.372, 18.7147, -36.7091, -10.9501
8.28769, 5, 11.4035, 23.4854, 18.3659, 18.6874, -36.7264, -10.9269
8.29639, 5, 11.3917, 23.4972, 18.3597, 18.6605, -36.7439, -10.9035
8.30367, 5, 11.3801, 23.509, 18.3535, 18.634, -36.7618, -10.8799
8.31188, 5, 11.3685, 23.5207, 18.3474, 18.6076, -36.7799, -10.8565
8.32052, 5, 11.3569, 23.5322, 18.3415, 18.581, -36.7977, -10.8335
8.32784, 5, 11.3453, 23.5439, 18.3356, 18.5538, -36.8154, -10.8107
8.33585, 5, 11.3338, 23.5556, 18.3296, 18.5269, -36.8329, -10.7879
8.34474, 5, 11.3222, 23.5672, 18.3237, 18.5005, -36.8503, -10.7651
8.35198, 5, 11.3106, 23.5788, 18.3177, 18.4744, -36.8678, -10.7421
8.36035, 5, 11.2991, 23.5903, 18.3117, 18.4484, -36.8855, -10.7189
8.36893, 5, 11.2876, 23.6018, 18.3056, 18.4217, -36.9035, -10.6954
8.37611, 5, 11.276, 23.6136, 18.2994, 18.3948, -36.9217, -10.6721
8.38424, 5, 11.2644, 23.6252, 18.2933, 18.3682, -36.9396, -10.6493
8.39302, 5, 11.2529, 23.637, 18.2873, 18.342, -36.9574, -10.6268
8.40019, 5, 11.2412, 23.6485, 18.2814, 18.3159, -36.9749, -10.6045
8.40845, 5, 11.2295, 23.66, 18.2754, 18.2894, -36.9923, -10.5823
8.41704, 5, 11.2236, 23.6659, 18.2724, 18.2759, -37.0009, -10.571
8.42361, 5, 11.212, 23.6776, 18.2664, 18.249, -37.0184, -10.5485
8.43166, 5, 11.2003, 23.6892, 18.2605, 18.2226, -37.0361, -10.5255
8.43963, 5, 11.1887, 23.7008, 18.2545, 18.1966, -37.0542, -10.5024
8.44761, 5, 11.1771, 23.7122, 18.2484, 18.1708, -37.0724, -10.4795
8.45568, 5, 11.1655, 23.7237, 18.2424, 18.1444, -37.0904, -10.4571
8.46362, 5, 11.1538, 23.7354, 18.2364, 18.1176, -37.1082, -10.4348
8.47166, 5, 11.1422, 23.7471, 18.2306, 18.0909, -37.1259, -10.4127
8.47961, 5, 11.1307, 23.7587, 18.2248, 18.0647, -37.1435, -10.3907
8.48762, 5, 11.1191, 23.7702, 18.2189, 18.0387, -37.1611, -10.3682
8.49571, 5, 11.1076, 23.7816, 18.2131, 18.0126, -37.1789, -10.3456
8.50361, 5, 11.096, 23.7932, 18.2072, 17.9859, -37.197, -10.3229
8.51161, 5, 11.0842, 23.8048, 18.2013, 17.9591, -37.2153, -10.3003
8.51862, 5, 11.0724, 23.8163, 18.1953, 17.9329, -37.2332, -10.2782
8.52761, 5, 11.0608, 23.8278, 18.1892, 17.907, -37.2509, -10.2562
8.53565, 5, 11.0491, 23.8392, 18.1832, 17.8812, -37.2685, -10.2344
8.54262, 5, 11.0374, 23.8507, 18.1773, 17.8551, -37.2858, -10.2125
8.55161, 5, 11.0258, 23.8623, 18.1714, 17.8283, -37.3033, -10.1905
8.56063, 5, 11.0142, 23.8739, 18.1655, 17.8019, -37.321, -10.1682
8.56767, 5, 11.0025, 23.8854, 18.1596, 17.7759, -37.3391, -10.1457
8.57562, 5, 10.9909, 23.8969, 18.1538, 17.7502, -37.3574, -10.1232
8.58461, 5, 10.9794, 23.9083, 18.148, 17.7244, -37.3756, -10.101
8.59161, 5, 10.9678, 23.9198, 18.1422, 17.6981, -37.3935, -10.0791
8.59961, 5, 10.9562, 23.9314, 18.1362, 17.6717, -37.4113, -10.0574
8.60768, 5, 10.9447, 23.9428, 18.1303, 17.6459, -37.429, -10.0359
8.61562, 5, 10.933, 23.9542, 18.1245, 17.6204, -37.4466, -10.0142
8.62361, 5, 10.9213, 23.9654, 18.1189, 17.5951, -37.4644, -9.99213
8.63168, 5, 10.9097, 23.9769, 18.1132, 17.5694, -37.4825, -9.96983
8.63971, 5, 10.8982, 23.9885, 18.1075, 17.5431, -37.5009, -9.9473
8.64761, 5, 10.8865, 24, 18.1019, 17.517, -37.5191, -9.92508
8.6557, 5, 10.8749, 24.0115, 18.0961, 17.4914, -37.537, -9.90324
8.66366, 5, 10.8634, 24.0229, 18.0904, 17.4661, -37.5547, -9.88161
8.6716, 5, 10.8518, 24.0342, 18.0845, 17.4407, -37.5724, -9.86021
8.67968, 5, 10.8401, 24.0459, 18.0786, 17.4147, -37.59, -9.83893
8.68764, 5, 10.8285, 24.0574, 18.0727, 17.3885, -37.6078, -9.81737
8.69562, 5, 10.8169, 24.0688, 18.0669, 17.3627, -37.626, -9.7955
8.70374, 5, 10.8052, 24.0801, 18.0612, 17.3372, -37.6444, -9.77348
8.71161, 5, 10.7935, 24.0914, 18.0554, 17.3119, -37.6628, -9.75165
8.71963, 5, 10.7818, 24.1029, 18.0496, 17.2863, -37.681, -9.73004
8.72841, 5, 10.7699, 24.1144, 18.0439, 17.2602, -37.699, -9.70875
8.73561, 5, 10.758, 24.1258, 18.0381, 17.2342, -37.7168, -9.68766
8.74378, 5, 10.7463, 24.1372, 18.0324, 17.2085, -37.7347, -9.66651
8.75256, 5, 10.7345, 24.1485, 18.0266, 17.1833, -37.7527, -9.64518
8.7597, 5, 10.7228, 24.1598, 18.0207, 17.1579, -37.7711, -9.62373
8.76777, 5, 10.7112, 24.1713, 18.015, 17.1321, -37.7897, -9.60207
8.77657, 5, 10.6995, 24.1827, 18.0094, 17.1058, -37.8082, -9.58013
8.78372, 5, 10.6878, 24.1941, 18.0039, 17.08, -37.8264, -9.55851
8.7918, 5, 10.6761, 24.2054, 17.9983, 17.0546, -37.8443, -9.53723
8.80052, 5, 10.6646, 24.2166, 17.9928, 17.0295, -37.8621, -9.5162
8.80765, 5, 10.6529, 24.2281, 17.9872, 17.0044, -37.88, -9.49529
8.81571, 5, 10.6412, 24.2396, 17.9816, 16.9787, -37.898, -9.47474
8.82456, 5, 10.6296, 24.251, 17.976, 16.9528, -37.9163, -9.454
8.83191, 5, 10.6178, 24.2623, 17.9702, 16.9273, -37.9349, -9.43285
8.83986, 5, 10.6058, 24.2735, 17.9644, 16.9022, -37.9535, -9.4114
8.84877, 5, 10.594, 24.2849, 17.9587, 16.8771, -37.9718, -9.39
8.85608, 5, 10.5822, 24.2962, 17.9531, 16.8517, -37.9899, -9.36865
8.86398, 5, 10.5703, 24.3075, 17.9475, 16.8259, -38.0079, -9.34774
8.87066, 5, 10.5644, 24.3132, 17.9447, 16.813, -38.0169, -9.33739
8.8802, 5, 10.5468, 24.3299, 17.9364, 16.7753, -38.0441, -9.30659
8.88815, 5, 10.535, 24.3411, 17.9308, 16.7505, -38.0625, -9.28607
8.89618, 5, 10.5233, 24.3525, 17.9252, 16.7258, -38.0812, -9.26555
8.90425, 5, 10.5117, 24.3638, 17.9196, 16.7006, -38.0998, -9.24454
8.91212, 5, 10.5059, 24.3695, 17.9168, 16.6878, -38.118, -9.22344
8.9201, 5, 10.4943, 24.3808, 17.9111, 16.6623, -38.127, -9.21285
8.92662, 5, 10.4826, 24.3921, 17.9055, 16.6372, -38.1449, -9.19194
8.93691, 5, 10.4652, 24.409, 17.8973, 16.6, -38.1718, -9.16095
8.94359, 5, 10.4594, 24.4147, 17.8946, 16.5877, -38.1808, -9.15076
8.95166, 5, 10.4476, 24.4261, 17.8891, 16.5625, -38.199, -9.13046
8.95959, 5, 10.436, 24.4374, 17.8837, 16.537, -38.2177, -9.11024
8.96759, 5, 10.4244, 24.4486, 17.8783, 16.5118, -38.2364, -9.08982
8.9746, 5, 10.4127, 24.4597, 17.8728, 16.487, -38.2549, -9.06928
8.9836, 5, 10.4011, 24.4709, 17.8673, 16.4624, -38.2732, -9.04837
8.99166, 5, 10.3895, 24.4823, 17.8617, 16.4377, -38.2913, -9.02735
8.99966, 5, 10.3778, 24.4936, 17.856, 16.4126, -38.3094, -9.00644
9.00761, 5, 10.366, 24.5049, 17.8504, 16.3871, -38.3275, -8.98598
9.01572, 5, 10.3544, 24.516, 17.8448, 16.3619, -38.346, -8.96559
9.02523, 5, 10.3368, 24.5328, 17.8366, 16.3247, -38.374, -8.93549
9.03159, 5, 10.331, 24.5385, 17.8338, 16.3123, -38.3833, -8.92543
9.03967, 5, 10.3192, 24.5497, 17.8283, 16.2875, -38.4017, -8.90522
9.04761, 5, 10.3075, 24.5609, 17.8229, 16.2623, -38.4198, -8.88477
9.05659, 5, 10.2956, 24.5721, 17.8175, 16.2368, -38.4378, -8.86396
9.06366, 5, 10.2838, 24.5831, 17.812, 16.2119, -38.4557, -8.84305
9.0716, 5, 10.2721, 24.5943, 17.8066, 16.1873, -38.4739, -8.82222
9.07959, 5, 10.2603, 24.6056, 17.801, 16.1629, -38.4923, -8.80177
9.08766, 5, 10.2486, 24.6168, 17.7956, 16.1383, -38.5111, -8.78156
9.0956, 5, 10.237, 24.628, 17.7903, 16.1131, -38.5299, -8.76161
9.10366, 5, 10.2253, 24.6391, 17.7851, 16.0879, -38.5485, -8.74179
9.11159, 5, 10.2135, 24.6502, 17.7799, 16.0631, -38.5669, -8.72202
9.11959, 5, 10.2019, 24.6614, 17.7746, 16.0388, -38.5851, -8.70193
9.12765, 5, 10.1903, 24.6726, 17.7693, 16.0145, -38.6032, -8.68151
9.13558, 5, 10.1786, 24.6837, 17.7641, 15.9899, -38.6215, -8.66094
9.14371, 5, 10.1669, 24.6947, 17.7587, 15.9649, -38.6402, -8.64069
9.15165, 5, 10.1551, 24.7057, 17.7533, 15.9401, -38.6591, -8.62057
9.15958, 5, 10.1432, 24.7168, 17.7478, 15.9157, -38.6779, -8.60082
9.16765, 5, 10.1313, 24.7281, 17.7422, 15.8916, -38.6965, -8.58123
9.17565, 5, 10.1195, 24.7392, 17.7368, 15.8675, -38.7148, -8.56169
9.1836, 5, 10.1077, 24.7504, 17.7314, 15.8431, -38.7329, -8.54216
9.19164, 5, 10.0959, 24.7615, 17.7261, 15.8182, -38.751, -8.52241
9.19965, 5, 10.0841, 24.7725, 17.7207, 15.7935, -38.7692, -8.50236
9.20765, 5, 10.0724, 24.7838, 17.7154, 15.7691, -38.7878, -8.4821
9.21563, 5, 10.0606, 24.7949, 17.7101, 15.745, -38.8069, -8.46185
9.22363, 5, 10.0489, 24.806, 17.7048, 15.721, -38.8257, -8.44192
9.23159, 5, 10.0372, 24.817, 17.6994, 15.6966, -38.8443, -8.4223
9.23987, 5, 10.0255, 24.828, 17.694, 15.6718, -38.8627, -8.40289
9.24764, 5, 10.0138, 24.839, 17.6886, 15.6472, -38.881, -8.38369
9.25568, 5, 10.0021, 24.8502, 17.6833, 15.623, -38.8993, -8.36458
9.264, 5, 9.99031, 24.8614, 17.6781, 15.5991, -38.9178, -8.34537
9.27169, 5, 9.97838, 24.8725, 17.673, 15.5751, -38.9365, -8.32586
9.27975, 5, 9.96654, 24.8835, 17.6679, 15.5506, -38.9555, -8.30612
9.28817, 5, 9.95476, 24.8944, 17.6628, 15.5259, -38.9743, -8.28627
9.29516, 5, 9.94885, 24.8999, 17.6602, 15.5136, -38.9836, -8.26658
9.3036, 5, 9.93126, 24.9167, 17.6525, 15.4772, -39.0111, -8.24695
9.31245, 5, 9.91954, 24.9277, 17.6473, 15.4533, -39.0293, -8.22773
9.31967, 5, 9.90775, 24.9388, 17.642, 15.4292, -39.0476, -8.20878
9.32784, 5, 9.89595, 24.9496, 17.6367, 15.4046, -39.066, -8.18987
9.33663, 5, 9.88432, 24.9606, 17.6314, 15.3798, -39.0849, -8.17089
9.34389, 5, 9.87262, 24.9718, 17.6261, 15.3553, -39.104, -8.15173
9.352, 5, 9.86087, 24.9829, 17.6209, 15.3313, -39.1229, -8.13235
9.36084, 5, 9.84919, 24.994, 17.6158, 15.3074, -39.1415, -8.11267
9.36798, 5, 9.83746, 25.005, 17.6106, 15.2835, -39.1601, -8.0931
9.37644, 5, 9.82554, 25.0158, 17.6055, 15.2593, -39.1784, -8.07376
9.38496, 5, 9.81373, 25.0268, 17.6004, 15.2347, -39.1969, -8.0547
9.39214, 5, 9.80202, 25.0379, 17.5952, 15.2105, -39.2156, -8.03592
9.40022, 5, 9.79021, 25.0488, 17.59, 15.1866, -39.2345, -8.01721
9.40901, 5, 9.78429, 25.0597, 17.5848, 15.1629, -39.2537, -7.99864
9.41613, 5, 9.77258, 25.0652, 17.5822, 15.1391, -39.2725, -7.97997
9.42439, 5, 9.76092, 25.076, 17.577, 15.1271, -39.2817, -7.961
9.43158, 5, 9.74907, 25.0869, 17.5718, 15.1027, -39.3002, -7.95147
9.43957, 5, 9.73728, 25.098, 17.5667, 15.0784, -39.3185, -7.9321
9.44762, 5, 9.72562, 25.109, 17.5617, 15.0546, -39.3369, -7.91261
9.45559, 5, 9.71385, 25.12, 17.5568, 15.031, -39.3555, -7.89343
9.46358, 5, 9.70203, 25.131, 17.5518, 15.0077, -39.3744, -7.8744
9.47174, 5, 9.69024, 25.1418, 17.5468, 14.9841, -39.3935, -7.85562
9.47958, 5, 9.67834, 25.1528, 17.5417, 14.9599, -39.4126, -7.83701
9.48659, 5, 9.66633, 25.1639, 17.5367, 14.9358, -39.4314, -7.81851
9.49557, 5, 9.65444, 25.1748, 17.5315, 14.9119, -39.45, -7.80002
9.50363, 5, 9.64257, 25.1857, 17.5264, 14.8884, -39.4686, -7.78141
9.51163, 5, 9.63069, 25.1965, 17.5211, 14.865, -39.4871, -7.7624
9.51957, 5, 9.61887, 25.2074, 17.516, 14.8412, -39.5059, -7.74312
9.52761, 5, 9.60708, 25.2184, 17.5109, 14.817, -39.5251, -7.72384
9.53566, 5, 9.59524, 25.2294, 17.5058, 14.7928, -39.5443, -7.70475
9.54359, 5, 9.58345, 25.2403, 17.5008, 14.7691, -39.5633, -7.6859
9.55257, 5, 9.57179, 25.2512, 17.4957, 14.7458, -39.582, -7.66736
9.55963, 5, 9.56009, 25.2619, 17.4908, 14.7226, -39.6005, -7.6491
9.56757, 5, 9.54833, 25.2728, 17.4858, 14.6991, -39.6189, -7.63081
9.57558, 5, 9.53659, 25.2838, 17.4808, 14.675, -39.6375, -7.6127
9.58364, 5, 9.52479, 25.2947, 17.4758, 14.6509, -39.6563, -7.59441
9.59158, 5, 9.51282, 25.3055, 17.4707, 14.6271, -39.6755, -7.57582
9.59958, 5, 9.50097, 25.3163, 17.4657, 14.6035, -39.6948, -7.55688
9.60759, 5, 9.48918, 25.327, 17.4607, 14.5802, -39.7138, -7.53809
9.61557, 5, 9.47734, 25.3379, 17.4559, 14.5567, -39.7326, -7.51949
9.62365, 5, 9.46551, 25.3488, 17.4511, 14.5327, -39.7513, -7.50114
9.63157, 5, 9.45376, 25.3597, 17.4463, 14.5086, -39.7699, -7.48303
9.63957, 5, 9.4419, 25.3706, 17.4415, 14.4849, -39.7887, -7.46511
9.64766, 5, 9.43, 25.3813, 17.4367, 14.4615, -39.8077, -7.44729
9.65557, 5, 9.41822, 25.392, 17.4319, 14.4384, -39.827, -7.4293
9.66357, 5, 9.40642, 25.4028, 17.427, 14.4152, -39.8462, -7.41129
9.6717, 5, 9.3945, 25.4136, 17.4221, 14.3913, -39.8651, -7.39297
9.67957, 5, 9.38262, 25.4244, 17.417, 14.3673, -39.8838, -7.37454
9.68758, 5, 9.37077, 25.4351, 17.4119, 14.3437, -39.9024, -7.35598
9.69568, 5, 9.35881, 25.4457, 17.4069, 14.3203, -39.9209, -7.33761
9.70358, 5, 9.34683, 25.4564, 17.4019, 14.2972, -39.9398, -7.31953
9.71159, 5, 9.33496, 25.4673, 17.397, 14.274, -39.959, -7.30166
9.71965, 5, 9.32308, 25.4781, 17.3921, 14.2505, -39.9785, -7.2839
9.72758, 5, 9.31116, 25.4889, 17.3872, 14.2268, -39.9977, -7.26626
9.73564, 5, 9.29934, 25.4996, 17.3824, 14.2033, -40.0167, -7.24879
9.74383, 5, 9.28749, 25.5102, 17.3775, 14.1804, -40.0355, -7.23111
9.75163, 5, 9.27555, 25.521, 17.3726, 14.1576, -40.0542, -7.21338
9.75971, 5, 9.2637, 25.5319, 17.3677, 14.1348, -40.073, -7.19528
9.76848, 5, 9.25193, 25.5426, 17.3628, 14.1115, -40.0921, -7.17703
9.77567, 5, 9.24008, 25.5533, 17.3579, 14.0879, -40.1114, -7.15889
9.78389, 5, 9.22819, 25.5639, 17.353, 14.0646, -40.1307, -7.14098
9.79247, 5, 9.21634, 25.5745, 17.3482, 14.0415, -40.1498, -7.12326
9.79958, 5, 9.20428, 25.5852, 17.3435, 14.0187, -40.1687, -7.10581
9.80766, 5, 9.19216, 25.5961, 17.3389, 13.996, -40.1873, -7.08843
9.8165, 5, 9.18021, 25.6067, 17.3342, 13.9729, -40.2058, -7.07107
9.82368, 5, 9.16828, 25.6174, 17.3296, 13.9494, -40.2246, -7.05376
9.83172, 5, 9.15631, 25.6279, 17.3249, 13.926, -40.2436, -7.03629
9.84067, 5, 9.14448, 25.6385, 17.3202, 13.9029, -40.263, -7.01852
9.84794, 5, 9.13265, 25.6493, 17.3155, 13.88, -40.2825, -7.00056
9.8559, 5, 9.12073, 25.66, 17.3107, 13.8573, -40.3016, -6.98262
9.86399, 5, 9.10889, 25.6706, 17.3058, 13.8343, -40.3206, -6.96485
9.87208, 5, 9.09716, 25.6813, 17.3009, 13.8109, -40.3394, -6.94749
9.88006, 5, 9.08537, 25.6917, 17.2961, 13.7874, -40.3582, -6.93022
9.88806, 5, 9.07357, 25.7023, 17.2913, 13.7643, -40.3772, -6.91307
9.89619, 5, 9.06181, 25.7131, 17.2866, 13.7414, -40.3966, -6.89595
9.90416, 5, 9.0499, 25.7238, 17.2819, 13.7188, -40.4161, -6.87887
9.91223, 5, 9.04389, 25.7344, 17.2773, 13.6959, -40.4354, -6.86171
9.92025, 5, 9.03195, 25.745, 17.2726, 13.6726, -40.4545, -6.84431
9.92756, 5, 9.02015, 25.7502, 17.2703, 13.6608, -40.4639, -6.83556
9.93556, 5, 9.00826, 25.7607, 17.2657, 13.6373, -40.4826, -6.81781
9.94366, 5, 8.99641, 25.7714, 17.261, 13.6143, -40.5014, -6.80007
9.95156, 5, 8.98462, 25.782, 17.2563, 13.5916, -40.5203, -6.78259
9.95957, 5, 8.97277, 25.7925, 17.2515, 13.5692, -40.5396, -6.76529
9.96761, 5, 8.96081, 25.8031, 17.2468, 13.5465, -40.5591, -6.74813
9.97556, 5, 8.94899, 25.8134, 17.2421, 13.5234, -40.5784, -6.73117
9.9836, 5, 8.93719, 25.8239, 17.2374, 13.5001, -40.5976, -6.71412
9.99056, 5, 8.9253, 25.8345, 17.2329, 13.4772, -40.6166, -6.69714
9.99957, 5, 8.9134, 25.8452, 17.2283, 13.4546, -40.6354, -6.68009
10.0077, 5, 8.9015, 25.8557, 17.2239, 13.4322, -40.6544, -6.663
10.0156, 5, 8.88946, 25.8663, 17.2194, 13.4096, -40.6735, -6.64562
10.0236, 5, 8.87744, 25.8767, 17.2149, 13.3865, -40.693, -6.62806
10.0317, 5, 8.86554, 25.8872, 17.2104, 13.3633, -40.7126, -6.61052
10.0396, 5, 8.85354, 25.8978, 17.2058, 13.3404, -40.7319, -6.59321
10.0476, 5, 8.84155, 25.9084, 17.2012, 13.318, -40.751, -6.57609
10.0556, 5, 8.82964, 25.9189, 17.1965, 13.2958, -40.7698, -6.55909
10.0646, 5, 8.81771, 25.9294, 17.1918, 13.2737, -40.7886, -6.54234
10.0716, 5, 8.80565, 25.9398, 17.1871, 13.2512, -40.8075, -6.52558
10.0796, 5, 8.79373, 25.9503, 17.1825, 13.2282, -40.8269, -6.50883
10.0876, 5, 8.78184, 25.9609, 17.1779, 13.2053, -40.8466, -6.49215
10.0956, 5, 8.76988, 25.9714, 17.1733, 13.1828, -40.8661, -6.47536
10.1037, 5, 8.75792, 25.9819, 17.1688, 13.1606, -40.8854, -6.45844
10.1116, 5, 8.74599, 25.9924, 17.1643, 13.1384, -40.9045, -6.44113
10.1196, 5, 8.7339, 26.0027, 17.1598, 13.1159, -40.9235, -6.42411
10.1276, 5, 8.72175, 26.0132, 17.1553, 13.0931, -40.9424, -6.40724
10.1356, 5, 8.70975, 26.0237, 17.1508, 13.0702, -40.9616, -6.39078
10.1437, 5, 8.69771, 26.0342, 17.1463, 13.0477, -40.9811, -6.37429
10.1516, 5, 8.68565, 26.0446, 17.1418, 13.0255, -41.0007, -6.35779
10.1596, 5, 8.67372, 26.055, 17.1373, 13.0035, -41.02, -6.34149
10.1676, 5, 8.66181, 26.0653, 17.1328, 12.9814, -41.039, -6.3251
10.1756, 5, 8.6498, 26.0757, 17.1283, 12.9586, -41.058, -6.30872
10.1836, 5, 8.6379, 26.0862, 17.1239, 12.9357, -41.0769, -6.29203
10.1916, 5, 8.62608, 26.0966, 17.1196, 12.913, -41.0959, -6.27507
10.1996, 5, 8.61417, 26.1071, 17.1154, 12.8906, -41.1152, -6.25809
10.2076, 5, 8.60227, 26.1174, 17.1111, 12.8684, -41.1349, -6.24109
10.2156, 5, 8.59039, 26.1277, 17.1068, 12.8462, -41.1547, -6.2244
10.2236, 5, 8.57835, 26.1381, 17.1025, 12.8238, -41.1741, -6.20793
10.2317, 5, 8.56625, 26.1486, 17.0982, 12.8009, -41.1933, -6.19177
10.2396, 5, 8.55428, 26.1589, 17.0938, 12.7782, -41.2123, -6.17571
10.2476, 5, 8.54238, 26.1693, 17.0893, 12.7558, -41.2314, -6.15974
10.2559, 5, 8.53043, 26.1796, 17.0849, 12.7337, -41.2507, -6.14385
10.2637, 5, 8.51853, 26.1898, 17.0804, 12.7118, -41.2703, -6.12782
10.2717, 5, 8.50669, 26.2003, 17.0758, 12.6897, -41.2901, -6.11187
10.2801, 5, 8.49474, 26.2108, 17.0713, 12.6673, -41.3096, -6.0956
10.2871, 5, 8.48283, 26.2212, 17.0668, 12.6446, -41.3288, -6.07903
10.2957, 5, 8.47105, 26.2317, 17.0625, 12.6222, -41.3479, -6.06255
10.3044, 5, 8.45919, 26.242, 17.0581, 12.6001, -41.3668, -6.04602
10.3116, 5, 8.4473, 26.2522, 17.0538, 12.5783, -41.3858, -6.02976
10.3196, 5, 8.43541, 26.2626, 17.0495, 12.5565, -41.4052, -6.01372
10.3284, 5, 8.42344, 26.2731, 17.0452, 12.5344, -41.425, -5.99786
10.3357, 5, 8.41133, 26.2834, 17.0408, 12.5119, -41.4448, -5.98217
10.3441, 5, 8.39934, 26.2936, 17.0364, 12.4895, -41.4643, -5.96648
10.3526, 5, 8.38742, 26.3039, 17.0321, 12.4676, -41.4836, -5.95065
10.36, 5, 8.37533, 26.314, 17.0277, 12.4459, -41.5027, -5.93492
10.3681, 5, 8.36333, 26.3243, 17.0234, 12.4244, -41.5219, -5.91898
10.3768, 5, 8.3514, 26.3347, 17.019, 12.4027, -41.5413, -5.90286
10.3841, 5, 8.33938, 26.345, 17.0146, 12.3804, -41.5609, -5.88645
10.3924, 5, 8.32734, 26.3553, 17.0104, 12.358, -41.5808, -5.87004
10.401, 5, 8.31548, 26.3655, 17.0063, 12.3358, -41.6003, -5.85404
10.4081, 5, 8.30354, 26.3756, 17.0022, 12.3141, -41.6195, -5.83816
10.4162, 5, 8.2916, 26.3859, 16.9981, 12.2924, -41.6386, -5.82275
10.425, 5, 8.28566, 26.3912, 16.994, 12.2709, -41.6576, -5.8073
10.4315, 5, 8.27375, 26.4015, 16.9919, 12.26, -41.6671, -5.79953
10.4396, 5, 8.26167, 26.4117, 16.9878, 12.2379, -41.6865, -5.78417
10.4476, 5, 8.2496, 26.422, 16.9836, 12.2156, -41.7061, -5.76877
10.4555, 5, 8.23772, 26.4321, 16.9794, 12.1934, -41.7261, -5.75333
10.4636, 5, 8.22575, 26.4423, 16.9753, 12.1717, -41.7458, -5.73778
10.4715, 5, 8.21378, 26.4527, 16.971, 12.1502, -41.7652, -5.72189
10.4796, 5, 8.2019, 26.4631, 16.9666, 12.1287, -41.7845, -5.70581
10.4875, 5, 8.19001, 26.4733, 16.9623, 12.107, -41.8037, -5.68981
10.4955, 5, 8.17802, 26.4836, 16.9581, 12.0848, -41.8229, -5.67375
10.5036, 5, 8.16607, 26.4937, 16.9539, 12.0625, -41.8425, -5.65805
10.5116, 5, 8.15413, 26.5037, 16.9499, 12.0406, -41.8624, -5.64243
10.5195, 5, 8.14214, 26.514, 16.9458, 12.019, -41.8822, -5.62709
10.5276, 5, 8.13015, 26.5242, 16.9416, 11.9976, -41.9017, -5.61197
10.5356, 5, 8.11814, 26.5343, 16.9375, 11.976, -41.921, -5.59662
10.5436, 5, 8.10602, 26.5443, 16.9334, 11.954, -41.9401, -5.58146
10.5531, 5, 8.09391, 26.5543, 16.9292, 11.9316, -41.9593, -5.56624
10.5595, 5, 8.08189, 26.5643, 16.9251, 11.9095, -41.9787, -5.55092
10.5676, 5, 8.0699, 26.5745, 16.921, 11.8878, -41.9985, -5.53542
10.5756, 5, 8.05793, 26.5847, 16.9168, 11.8663, -42.0186, -5.51955
10.5836, 5, 8.04607, 26.5949, 16.9126, 11.845, -42.0384, -5.50363
10.5915, 5, 8.03417, 26.6051, 16.9084, 11.8235, -42.0579, -5.48802
10.5996, 5, 8.02221, 26.6152, 16.9043, 11.8016, -42.0772, -5.47265
10.6075, 5, 8.01029, 26.6251, 16.9004, 11.7795, -42.0965, -5.4574
10.6156, 5, 7.99848, 26.6354, 16.8964, 11.7577, -42.1159, -5.4423
10.6236, 5, 7.98659, 26.6457, 16.8926, 11.7362, -42.1357, -5.42723
10.6315, 5, 7.97463, 26.6558, 16.8887, 11.715, -42.1556, -5.41235
10.6396, 5, 7.9627, 26.6658, 16.8847, 11.6937, -42.1756, -5.39735
10.6475, 5, 7.95062, 26.6758, 16.8807, 11.6721, -42.195, -5.38244
10.6555, 5, 7.93846, 26.6857, 16.8768, 11.6502, -42.2143, -5.36753
10.6637, 5, 7.92647, 26.6958, 16.8728, 11.6283, -42.2335, -5.35239
10.6715, 5, 7.91443, 26.706, 16.8687, 11.6069, -42.2528, -5.33713
10.6796, 5, 7.90228, 26.7161, 16.8647, 11.5857, -42.2722, -5.32162
10.6876, 5, 7.89029, 26.7261, 16.8606, 11.5647, -42.2922, -5.30632
10.6955, 5, 7.87828, 26.7361, 16.8564, 11.5438, -42.3122, -5.29118
10.7036, 5, 7.8662, 26.7459, 16.8522, 11.5223, -42.3319, -5.27644
10.7116, 5, 7.85422, 26.756, 16.8481, 11.5005, -42.3516, -5.26188
10.7196, 5, 7.84229, 26.7661, 16.8441, 11.4788, -42.3709, -5.24751
10.7275, 5, 7.83029, 26.7761, 16.8401, 11.4575, -42.3903, -5.23294
10.7357, 5, 7.8183, 26.786, 16.8362, 11.4363, -42.4098, -5.21841
10.7436, 5, 7.80629, 26.7959, 16.8323, 11.4154, -42.4297, -5.20394
10.7516, 5, 7.79416, 26.8057, 16.8284, 11.3941, -42.4497, -5.18925
10.7604, 5, 7.7819, 26.8155, 16.8245, 11.3725, -42.4696, -5.17439
10.7676, 5, 7.76981, 26.8256, 16.8206, 11.3506, -42.4892, -5.15932
10.7757, 5, 7.7577, 26.8356, 16.8167, 11.3291, -42.5085, -5.14409
10.7845, 5, 7.74556, 26.8456, 16.8128, 11.3079, -42.5277, -5.12902
10.7916, 5, 7.73347, 26.8555, 16.8089, 11.287, -42.547, -5.11399
10.7997, 5, 7.72141, 26.8653, 16.805, 11.2662, -42.5666, -5.09918
10.8085, 5, 7.70928, 26.8752, 16.801, 11.245, -42.5866, -5.0848
10.8156, 5, 7.69723, 26.8853, 16.7971, 11.2235, -42.6067, -5.07059
10.8237, 5, 7.68526, 26.8952, 16.7932, 11.2018, -42.6264, -5.05639
10.8325, 5, 7.67325, 26.9051, 16.7894, 11.1803, -42.6459, -5.04236
10.8397, 5, 7.66123, 26.915, 16.7858, 11.1591, -42.6653, -5.02812
10.8478, 5, 7.64927, 26.9247, 16.7821, 11.1382, -42.6847, -5.01398
10.8567, 5, 7.63723, 26.9345, 16.7784, 11.1172, -42.7042, -4.99965
10.864, 5, 7.62513, 26.9444, 16.7747, 11.0958, -42.7241, -4.98522
10.8719, 5, 7.61319, 26.9544, 16.7709, 11.0741, -42.7441, -4.97057
10.88, 5, 7.60125, 26.9643, 16.7672, 11.0525, -42.7639, -4.95584
10.8881, 5, 7.58931, 26.9743, 16.7635, 11.0313, -42.7834, -4.94118
10.8961, 5, 7.57743, 26.9842, 16.7597, 11.0103, -42.8027, -4.92661
10.9041, 5, 7.56551, 26.9939, 16.756, 10.9896, -42.8219, -4.91231
10.9122, 5, 7.55344, 27.0038, 16.7521, 10.9687, -42.8413, -4.89809
10.9201, 5, 7.54739, 27.0089, 16.7502, 10.9476, -42.861, -4.88409
10.928, 5, 7.53537, 27.0188, 16.7462, 10.9368, -42.871, -4.87707
10.9363, 5, 7.52333, 27.0286, 16.7422, 10.9046, -42.9012, -4.85613
10.9435, 5, 7.5112, 27.0384, 16.7384, 10.894, -42.9111, -4.84927
10.9515, 5, 7.49912, 27.0481, 16.7346, 10.873, -42.9308, -4.83528
10.9596, 5, 7.48698, 27.0578, 16.7308, 10.8522, -42.9504, -4.82132
10.9675, 5, 7.47471, 27.0676, 16.7271, 10.8316, -42.9699, -4.80729
10.9755, 5, 7.46254, 27.0776, 16.7234, 10.8106, -42.9895, -4.79312
10.9835, 5, 7.45045, 27.0874, 16.7196, 10.7894, -43.0094, -4.77868
10.9915, 5, 7.43835, 27.0972, 16.7159, 10.7681, -43.0296, -4.76418
10.9997, 5, 7.42632, 27.107, 16.7122, 10.7471, -43.0496, -4.74974
11.0075, 5, 7.4144, 27.1166, 16.7084, 10.7266, -43.0694, -4.73557
11.0156, 5, 7.40238, 27.1265, 16.7047, 10.7062, -43.0888, -4.72164
11.0236, 5, 7.39032, 27.1364, 16.701, 10.6857, -43.1082, -4.70797
11.0315, 5, 7.3783, 27.1462, 16.6972, 10.665, -43.1276, -4.69445
11.0396, 5, 7.36635, 27.156, 16.6935, 10.6439, -43.1473, -4.68099
11.0476, 5, 7.3543, 27.1658, 16.6897, 10.6227, -43.1674, -4.6675
11.0572, 5, 7.34229, 27.1754, 16.6859, 10.6019, -43.1976, -4.64717
11.0636, 5, 7.33018, 27.1851, 16.6823, 10.5813, -43.2075, -4.64037
11.0716, 5, 7.31791, 27.195, 16.6787, 10.5609, -43.2272, -4.62668
11.0795, 5, 7.30566, 27.2048, 16.6752, 10.5405, -43.2468, -4.61263
11.0875, 5, 7.29352, 27.2146, 16.6718, 10.5197, -43.2662, -4.59855
11.0956, 5, 7.28135, 27.2243, 16.6683, 10.4986, -43.2859, -4.58428
11.1035, 5, 7.26923, 27.2338, 16.6649, 10.4774, -43.3059, -4.57017
11.1116, 5, 7.25722, 27.2434, 16.6613, 10.4567, -43.3262, -4.55611
11.1195, 5, 7.24517, 27.2531, 16.6578, 10.4361, -43.3462, -4.54216
11.1275, 5, 7.23309, 27.2629, 16.6543, 10.4156, -43.3659, -4.52869
11.1356, 5, 7.22117, 27.2725, 16.6508, 10.3952, -43.3853, -4.51509
11.1435, 5, 7.20923, 27.2822, 16.6472, 10.3744, -43.4047, -4.50179
11.1515, 5, 7.19722, 27.2917, 16.6436, 10.3533, -43.4242, -4.48847
11.1596, 5, 7.18523, 27.3012, 16.64, 10.3322, -43.4441, -4.475
11.1675, 5, 7.17325, 27.3109, 16.6363, 10.3114, -43.4643, -4.46157
11.1755, 5, 7.16112, 27.3207, 16.6325, 10.2909, -43.4846, -4.44813
11.1836, 5, 7.14906, 27.3305, 16.6289, 10.2706, -43.5045, -4.43455
11.1915, 5, 7.13705, 27.3402, 16.6253, 10.2501, -43.5243, -4.42083
11.1995, 5, 7.12502, 27.3499, 16.6217, 10.2293, -43.5439, -4.40703
11.2076, 5, 7.11296, 27.3593, 16.6183, 10.2081, -43.5634, -4.39297
11.2155, 5, 7.10098, 27.3689, 16.6148, 10.187, -43.5832, -4.37918
11.2235, 5, 7.0889, 27.3787, 16.6113, 10.1663, -43.6033, -4.3656
11.2316, 5, 7.07673, 27.3884, 16.6078, 10.1459, -43.6235, -4.35227
11.2395, 5, 7.06471, 27.398, 16.6043, 10.1257, -43.6434, -4.33907
11.2479, 5, 7.05273, 27.4076, 16.6009, 10.1055, -43.663, -4.32594
11.2556, 5, 7.04066, 27.4171, 16.5975, 10.085, -43.6824, -4.31277
11.2636, 5, 7.02859, 27.4266, 16.594, 10.0641, -43.7018, -4.29969
11.2719, 5, 7.01654, 27.4362, 16.5906, 10.0433, -43.7215, -4.28676
11.2796, 5, 7.00434, 27.4459, 16.5871, 10.0228, -43.7413, -4.27356
11.2877, 5, 6.99219, 27.4555, 16.5835, 10.0025, -43.7616, -4.26039
11.2961, 5, 6.98015, 27.4651, 16.58, 9.98243, -43.7818, -4.24708
11.3036, 5, 6.96799, 27.4747, 16.5764, 9.96217, -43.8016, -4.23375
11.3117, 5, 6.95588, 27.4841, 16.573, 9.94161, -43.8213, -4.22025
11.3203, 5, 6.94385, 27.4936, 16.5696, 9.92078, -43.8409, -4.20679
11.3276, 5, 6.9317, 27.5032, 16.5663, 9.89999, -43.8605, -4.19326
11.3356, 5, 6.91949, 27.5128, 16.5631, 9.87966, -43.8805, -4.17998
11.3445, 5, 6.90746, 27.5222, 16.5598, 9.85958, -43.9008, -4.16696
11.3518, 5, 6.89541, 27.5318, 16.5565, 9.83977, -43.9211, -4.15409
11.36, 5, 6.88325, 27.5412, 16.5532, 9.81991, -43.941, -4.1415
11.3688, 5, 6.87113, 27.5506, 16.5499, 9.79966, -43.9606, -4.12898
11.3759, 5, 6.8589, 27.5602, 16.5466, 9.77908, -43.9802, -4.11636
11.3846, 5, 6.84656, 27.5698, 16.5433, 9.75846, -43.9997, -4.10372
11.3929, 5, 6.83431, 27.5794, 16.54, 9.73822, -44.0195, -4.09103
11.4, 5, 6.82218, 27.5889, 16.5366, 9.71813, -44.0397, -4.07838
11.4085, 5, 6.80997, 27.5984, 16.5332, 9.69821, -44.06, -4.06543
11.4169, 5, 6.79781, 27.6078, 16.5298, 9.67822, -44.0802, -4.0524
11.4241, 5, 6.79178, 27.6125, 16.528, 9.65797, -44.1, -4.03913
11.4322, 5, 6.77973, 27.622, 16.5245, 9.64772, -44.1197, -4.0258
11.4395, 5, 6.76759, 27.6316, 16.521, 9.62705, -44.1295, -4.0192
11.4475, 5, 6.7556, 27.641, 16.5176, 9.60663, -44.1492, -4.00624
11.4556, 5, 6.74366, 27.6503, 16.5142, 9.58661, -44.1691, -3.99339
11.4635, 5, 6.73164, 27.6598, 16.511, 9.56678, -44.1895, -3.98072
11.4715, 5, 6.71964, 27.669, 16.5077, 9.54707, -44.2098, -3.96829
11.4796, 5, 6.70763, 27.6783, 16.5045, 9.52714, -44.2298, -3.95595
11.4875, 5, 6.69544, 27.6879, 16.5013, 9.50679, -44.2495, -3.94372
11.4956, 5, 6.68324, 27.6974, 16.498, 9.48618, -44.2691, -3.93153
11.5035, 5, 6.67119, 27.7068, 16.4948, 9.46577, -44.2887, -3.91937
11.5115, 5, 6.65914, 27.7163, 16.4916, 9.44554, -44.3085, -3.90702
11.5196, 5, 6.64704, 27.7257, 16.4884, 9.42552, -44.3287, -3.89465
11.5275, 5, 6.63504, 27.735, 16.4852, 9.40566, -44.3491, -3.88216
11.5355, 5, 6.62303, 27.7444, 16.482, 9.38575, -44.3692, -3.86965
11.5436, 5, 6.61086, 27.754, 16.4788, 9.3654, -44.3891, -3.85688
11.5515, 5, 6.59878, 27.7634, 16.4755, 9.34486, -44.4089, -3.84415
11.5605, 5, 6.58678, 27.7727, 16.4723, 9.32438, -44.4285, -3.83134
11.5677, 5, 6.57468, 27.7821, 16.469, 9.3043, -44.4484, -3.8188
11.5766, 5, 6.56255, 27.7913, 16.4657, 9.28446, -44.4684, -3.8063
11.5835, 5, 6.55046, 27.8005, 16.4625, 9.2649, -44.4888, -3.79411
11.5916, 5, 6.53824, 27.81, 16.4595, 9.24522, -44.5089, -3.78196
11.5995, 5, 6.52601, 27.8195, 16.4564, 9.22518, -44.5288, -3.76993
11.6075, 5, 6.51394, 27.8288, 16.4535, 9.20489, -44.5485, -3.75795
11.6156, 5, 6.50182, 27.8382, 16.4505, 9.18454, -44.5681, -3.74589
11.6235, 5, 6.48964, 27.8474, 16.4476, 9.16448, -44.5877, -3.73402
11.6315, 5, 6.47759, 27.8566, 16.4446, 9.14474, -44.6078, -3.722
11.6396, 5, 6.46549, 27.8659, 16.4416, 9.1252, -44.6282, -3.70995
11.6475, 5, 6.45328, 27.8754, 16.4385, 9.10566, -44.6486, -3.69777
11.6555, 5, 6.44115, 27.8848, 16.4355, 9.08587, -44.6688, -3.6854
11.6636, 5, 6.42908, 27.894, 16.4325, 9.06576, -44.6886, -3.67299
11.6715, 5, 6.41697, 27.9034, 16.4295, 9.04554, -44.7084, -3.66055
11.6795, 5, 6.40488, 27.9126, 16.4265, 9.02561, -44.7282, -3.6482
11.6876, 5, 6.39274, 27.9217, 16.4234, 9.00606, -44.7483, -3.63587
11.6955, 5, 6.38043, 27.9311, 16.4202, 8.98667, -44.7687, -3.62357
11.7035, 5, 6.36808, 27.9405, 16.417, 8.96734, -44.7891, -3.61169
11.7116, 5, 6.35588, 27.9497, 16.4138, 8.94792, -44.8093, -3.59983
11.7195, 5, 6.34363, 27.959, 16.4105, 8.928, -44.8292, -3.58811
11.7276, 5, 6.33137, 27.9683, 16.4073, 8.90791, -44.8489, -3.5766
11.7355, 5, 6.31926, 27.9773, 16.4042, 8.8879, -44.8686, -3.56516
11.7436, 5, 6.30713, 27.9864, 16.4011, 8.86828, -44.8885, -3.55366
11.7518, 5, 6.2949, 27.9957, 16.3981, 8.84881, -44.9088, -3.54203
11.7597, 5, 6.28273, 28.005, 16.3951, 8.82952, -44.9294, -3.53044
11.7676, 5, 6.27063, 28.0141, 16.3921, 8.81007, -44.9497, -3.51867
11.7764, 5, 6.25841, 28.0232, 16.3891, 8.79028, -44.9698, -3.5068
11.7839, 5, 6.24625, 28.0323, 16.3861, 8.77027, -44.9898, -3.49473
11.7916, 5, 6.23405, 28.0413, 16.3831, 8.75025, -45.0097, -3.48264
11.8004, 5, 6.2217, 28.0505, 16.3801, 8.73056, -45.0297, -3.47037
11.8081, 5, 6.20932, 28.0598, 16.3771, 8.71117, -45.0501, -3.4581
11.8155, 5, 6.19717, 28.0691, 16.3742, 8.69189, -45.0707, -3.44617
11.8245, 5, 6.18498, 28.0783, 16.3712, 8.67265, -45.0911, -3.4343
11.8324, 5, 6.17278, 28.0876, 16.3683, 8.65311, -45.1112, -3.42258
11.8396, 5, 6.1606, 28.0967, 16.3653, 8.63311, -45.131, -3.4111
11.8485, 5, 6.14845, 28.1057, 16.3623, 8.61313, -45.1508, -3.39967
11.8565, 5, 6.13621, 28.1149, 16.3592, 8.59339, -45.1707, -3.38835
11.8638, 5, 6.12412, 28.1242, 16.3562, 8.57383, -45.1909, -3.37712
11.8727, 5, 6.11199, 28.1333, 16.3533, 8.55455, -45.2115, -3.36585
11.8807, 5, 6.0998, 28.1424, 16.3504, 8.53531, -45.232, -3.3546
11.8881, 5, 6.08768, 28.1515, 16.3476, 8.5158, -45.2522, -3.34299
11.896, 5, 6.07553, 28.1605, 16.3448, 8.49595, -45.2722, -3.33145
11.9048, 5, 6.06317, 28.1694, 16.3421, 8.47586, -45.2921, -3.31977
11.9121, 5, 6.0509, 28.1785, 16.3395, 8.45599, -45.312, -3.30801
11.92, 5, 6.04482, 28.1831, 16.3368, 8.43641, -45.3321, -3.29622
11.9288, 5, 6.03267, 28.1923, 16.3354, 8.42675, -45.3526, -3.28434
11.9361, 5, 6.02037, 28.2014, 16.3327, 8.40755, -45.3731, -3.27256
11.9435, 5, 6.00819, 28.2105, 16.3299, 8.38849, -45.3832, -3.26661
11.9533, 5, 5.98986, 28.224, 16.3258, 8.35933, -45.4131, -3.24924
11.9595, 5, 5.98369, 28.2284, 16.3244, 8.34946, -45.4229, -3.24358
11.9675, 5, 5.97148, 28.2375, 16.3217, 8.32957, -45.4426, -3.23239
11.9755, 5, 5.95934, 28.2468, 16.3189, 8.30995, -45.4625, -3.22138
