hehonglu123/ABB_Primitive_Study/realrobot/movec_30_ori/curve_exe_v50_fine.csv
timestamp, cmd_num, J1, J2, J3, J4, J5, J6
0.00183, -1, -18.7709, 34.1297, 27.9442, -19.9679, -90.5854, -2.05588
0.143281, -1, -18.304, 33.8937, 27.9085, -19.3541, -89.9401, -2.34212
0.145231, -1, -18.2484, 33.8656, 27.9004, -19.2577, -89.8381, -2.3886
0.147432, -1, -18.2484, 33.8656, 27.9004, -19.2577, -89.8381, -2.3886
0.149518, -1, -18.1893, 33.8358, 27.8916, -19.1539, -89.7283, -2.43815
0.150731, -1, -18.1893, 33.8358, 27.8916, -19.1539, -89.7283, -2.43815
0.152579, -1, -18.1267, 33.8043, 27.8822, -19.0433, -89.6113, -2.49061
0.154, -1, -18.1267, 33.8043, 27.8822, -19.0433, -89.6113, -2.49061
0.157512, -1, -18.0608, 33.7712, 27.872, -18.9265, -89.4876, -2.54634
0.158844, -1, -18.0608, 33.7712, 27.872, -18.9265, -89.4876, -2.54634
0.160654, -1, -17.9917, 33.7365, 27.8612, -18.8041, -89.3576, -2.60496
0.162105, -1, -17.9917, 33.7365, 27.8612, -18.8041, -89.3576, -2.60496
0.163408, -1, -17.9917, 33.7365, 27.8612, -18.8041, -89.3576, -2.60496
0.165672, -1, -17.9196, 33.7003, 27.8499, -18.6767, -89.2223, -2.66591
0.166957, -1, -17.9196, 33.7003, 27.8499, -18.6767, -89.2223, -2.66591
0.168847, -1, -17.8447, 33.6628, 27.8383, -18.5449, -89.0823, -2.72888
0.174833, -1, -17.7672, 33.6239, 27.8264, -18.4096, -88.9383, -2.79359
0.176729, -1, -17.6871, 33.5837, 27.8144, -18.271, -88.7911, -2.85984
0.178092, -1, -17.6871, 33.5837, 27.8144, -18.271, -88.7911, -2.85984
0.179365, -1, -17.6871, 33.5837, 27.8144, -18.271, -88.7911, -2.85984
0.182073, -1, -17.6046, 33.5423, 27.8021, -18.1299, -88.6413, -2.92743
0.183262, -1, -17.6046, 33.5423, 27.8021, -18.1299, -88.6413, -2.92743
0.185319, -1, -17.5198, 33.4999, 27.7898, -17.987, -88.4893, -2.99593
0.18799, -1, -17.5198, 33.4999, 27.7898, -17.987, -88.4893, -2.99593
0.190084, -1, -17.433, 33.4565, 27.7775, -17.8426, -88.3357, -3.0652
0.191437, -1, -17.433, 33.4565, 27.7775, -17.8426, -88.3357, -3.0652
0.200083, -1, -17.2546, 33.3673, 27.7526, -17.5505, -88.0249, -3.20553
0.208026, -1, -17.0716, 33.2758, 27.7275, -17.2551, -87.7111, -3.34738
0.21603, -1, -16.8853, 33.1831, 27.7024, -16.9582, -87.3952, -3.48993
0.225159, -1, -16.6023, 33.0428, 27.6648, -16.5107, -86.9191, -3.70443
0.231034, -1, -16.5074, 32.9959, 27.6523, -16.3611, -86.7599, -3.77597
0.239081, -1, -16.3173, 32.902, 27.6272, -16.0616, -86.441, -3.91932
0.248076, -1, -16.1272, 32.8082, 27.6022, -15.761, -86.1212, -4.06323
0.256028, -1, -15.9372, 32.7144, 27.5772, -15.4597, -85.801, -4.20694
0.264019, -1, -15.748, 32.6206, 27.5521, -15.1583, -85.4802, -4.35136
0.272071, -1, -15.5592, 32.5268, 27.5268, -14.8564, -85.1589, -4.496
0.280072, -1, -15.3706, 32.4328, 27.5015, -14.5539, -84.8375, -4.64065
0.288019, -1, -15.1827, 32.3386, 27.4762, -14.2514, -84.5154, -4.78551
0.295116, -1, -14.9949, 32.2441, 27.4509, -13.9482, -84.1932, -4.93058
0.303019, -1, -14.8069, 32.1491, 27.4255, -13.6448, -83.8706, -5.07563
0.312016, -1, -14.6182, 32.0539, 27.3998, -13.3414, -83.5477, -5.221
0.320032, -1, -14.4283, 31.9586, 27.3742, -13.0376, -83.2244, -5.36637
0.32901, -1, -14.2375, 31.8631, 27.3485, -12.7339, -82.9011, -5.51198
0.33611, -1, -14.0457, 31.7676, 27.3229, -12.4299, -82.5775, -5.65773
0.344015, -1, -13.8533, 31.672, 27.2972, -12.1255, -82.2535, -5.80321
0.352021, -1, -13.6605, 31.5765, 27.2715, -11.8211, -81.9294, -5.94877
0.360094, -1, -13.467, 31.4811, 27.2458, -11.5168, -81.6054, -6.09435
0.368017, -1, -13.2731, 31.3856, 27.22, -11.2122, -81.2813, -6.23987
0.375439, -1, -13.0796, 31.2904, 27.1944, -10.9077, -80.9571, -6.38562
0.383039, -1, -12.8868, 31.1953, 27.1687, -10.6033, -80.6335, -6.53117
0.39115, -1, -12.6946, 31.1002, 27.1431, -10.2988, -80.3099, -6.677
0.399306, -1, -12.503, 31.0051, 27.1175, -9.99453, -79.9864, -6.8229
0.407109, -1, -12.3123, 30.91, 27.0918, -9.69037, -79.6629, -6.96836
0.415248, -1, -12.1226, 30.8149, 27.0661, -9.38628, -79.3394, -7.11385
0.423117, -1, -11.9336, 30.7196, 27.0404, -9.08255, -79.0159, -7.25932
0.431115, -1, -11.7447, 30.6243, 27.0148, -8.7789, -78.6926, -7.40464
0.439203, -1, -11.5557, 30.529, 26.9893, -8.47548, -78.3695, -7.54995
0.447033, -1, -11.3664, 30.434, 26.9636, -8.17273, -78.0473, -7.69516
0.455375, -1, -11.1768, 30.3391, 26.9379, -7.87033, -77.7255, -7.84014
0.463178, -1, -10.9869, 30.2444, 26.9124, -7.5683, -77.4041, -7.98472
0.471103, -1, -10.7965, 30.15, 26.887, -7.26691, -77.0833, -8.12904
0.479334, -1, -10.6059, 30.0558, 26.8616, -6.96574, -76.7632, -8.27292
0.487271, -1, -10.415, 29.9618, 26.8361, -6.66512, -76.4432, -8.41653
0.495465, -1, -10.2242, 29.8679, 26.8109, -6.36534, -76.1238, -8.56003
0.504041, -1, -10.0341, 29.7742, 26.7857, -6.06583, -75.8049, -8.70319
0.512113, -1, -9.84463, 29.6807, 26.7606, -5.76699, -75.4866, -8.84636
0.520098, -1, -9.65607, 29.5874, 26.7353, -5.46875, -75.1693, -8.9892
0.527694, -1, -9.46834, 29.4942, 26.7102, -5.17089, -74.8526, -9.1316
0.536193, -1, -9.28164, 29.4011, 26.685, -4.87398, -74.5367, -9.2737
0.543572, -1, -9.09601, 29.3082, 26.66, -4.57795, -74.2217, -9.41534
0.552124, -1, -8.91109, 29.2154, 26.635, -4.2823, -73.9072, -9.55662
0.559618, -1, -8.81891, 29.169, 26.6225, -4.13494, -73.5937, -9.6977
0.568117, -1, -8.54339, 29.0304, 26.5852, -3.69401, -73.2809, -9.83819
0.575812, -1, -8.45164, 28.9844, 26.5728, -3.54726, -73.1249, -9.97865
0.584117, -1, -8.17693, 28.8468, 26.5357, -3.10905, -72.6585, -10.1186
0.723154, -1, -5.14331, 27.3365, 26.1293, 1.70679, -67.532, -12.4232
0.725855, -1, -5.14331, 27.3365, 26.1178, 1.84384, -67.3863, -12.4888
0.727097, -1, -5.05706, 27.2935, 26.1178, 1.84384, -67.3863, -12.4888
0.728286, -1, -5.05706, 27.2935, 26.1178, 1.84384, -67.3863, -12.4888
0.730306, -1, -4.97091, 27.2507, 26.1063, 1.98052, -67.2409, -12.5543
0.731511, -1, -4.97091, 27.2507, 26.1063, 1.98052, -67.2409, -12.5543
0.734219, -1, -4.88483, 27.208, 26.0948, 2.11683, -67.0957, -12.6194
0.737367, -1, -4.79881, 27.1654, 26.0833, 2.25285, -66.9509, -12.6844
0.738835, -1, -4.79881, 27.1654, 26.0833, 2.25285, -66.9509, -12.6844
0.74002, -1, -4.79881, 27.1654, 26.0833, 2.25285, -66.9509, -12.6844
0.742083, -1, -4.71292, 27.1228, 26.0718, 2.38864, -66.8065, -12.7493
0.743275, -1, -4.71292, 27.1228, 26.0718, 2.38864, -66.8065, -12.7493
0.745305, -1, -4.71292, 27.1228, 26.0603, 2.52417, -66.6624, -12.8141
0.746868, -1, -4.62722, 27.0804, 26.0603, 2.52417, -66.6624, -12.8141
0.748123, -1, -4.62722, 27.0804, 26.0603, 2.52417, -66.6624, -12.8141
0.753541, -1, -4.45617, 26.9957, 26.0376, 2.79418, -66.3751, -12.9433
0.754942, -1, -4.45617, 26.9957, 26.0376, 2.79418, -66.3751, -12.9433
0.756252, -1, -4.45617, 26.9957, 26.0376, 2.79418, -66.3751, -12.9433
0.759003, -1, -4.37076, 26.9535, 26.0262, 2.92866, -66.2319, -13.0076
0.760207, -1, -4.37076, 26.9535, 26.0262, 2.92866, -66.2319, -13.0076
0.762256, -1, -4.28542, 26.9113, 26.0149, 3.06286, -66.0889, -13.0719
0.763494, -1, -4.28542, 26.9113, 26.0149, 3.06286, -66.0889, -13.0719
0.769518, -1, -4.11533, 26.8273, 25.9924, 3.33064, -65.804, -13.1998
0.776025, -1, -4.03065, 26.7855, 25.9812, 3.46416, -65.662, -13.2638
0.78408, -1, -3.86207, 26.702, 25.9586, 3.73002, -65.3787, -13.3914
0.791994, -1, -3.6948, 26.6189, 25.9364, 3.99474, -65.0968, -13.518
0.800033, -1, -3.52866, 26.536, 25.9141, 4.25863, -64.8159, -13.6442
0.808043, -1, -3.36366, 26.4535, 25.8919, 4.52083, -64.5367, -13.7697
0.816019, -1, -3.19962, 26.3714, 25.8699, 4.78216, -64.2586, -13.8946
0.824992, -1, -3.03668, 26.2897, 25.8479, 5.04243, -63.9816, -14.019
0.832039, -1, -2.87478, 26.2083, 25.826, 5.30158, -63.706, -14.1428
0.840015, -1, -2.71377, 26.1273, 25.8044, 5.55933, -63.4317, -14.2661
0.84803, -1, -2.55325, 26.0467, 25.7828, 5.81597, -63.1587, -14.389
0.856056, -1, -2.39298, 25.9665, 25.7614, 6.07125, -62.8869, -14.5115
0.863997, -1, -2.23304, 25.8868, 25.7399, 6.32534, -62.6164, -14.6332
0.872124, -1, -2.07351, 25.8074, 25.7185, 6.57833, -62.347, -14.7544
0.879158, -1, -1.91436, 25.7285, 25.6973, 6.83032, -62.0788, -14.8748
0.887022, -1, -1.75577, 25.6499, 25.6763, 7.08109, -61.8117, -14.9947
0.896032, -1, -1.59776, 25.5717, 25.6554, 7.33055, -61.5459, -15.1139
0.904083, -1, -1.43992, 25.4937, 25.6344, 7.57901, -61.2811, -15.2327
0.912021, -1, -1.28255, 25.4161, 25.6136, 7.82639, -61.0175, -15.3512
0.920008, -1, -1.12608, 25.3389, 25.593, 8.0725, -60.7552, -15.4688
0.928046, -1, -0.970598, 25.2619, 25.5724, 8.31764, -60.4941, -15.5865
0.936055, -1, -0.816417, 25.1852, 25.5519, 8.56201, -60.2343, -15.7033
0.943824, -1, -0.663404, 25.109, 25.5315, 8.80493, -59.9757, -15.8194
0.952072, -1, -0.511342, 25.033, 25.511, 9.04665, -59.7185, -15.9353
0.960022, -1, -0.360426, 24.9575, 25.4907, 9.28734, -59.4627, -16.0504
0.967988, -1, -0.210617, 24.8823, 25.4706, 9.52715, -59.208, -16.165
0.976058, -1, -0.0618573, 24.8076, 25.4507, 9.76557, -58.9544, -16.2793
0.984027, -1, 0.0861134, 24.733, 25.4309, 10.0028, -58.7017, -16.3931
0.993184, -1, 0.23353, 24.6589, 25.4109, 10.2392, -58.4502, -16.5064
0.999998, -1, 0.38078, 24.5851, 25.3911, 10.4745, -58.1996, -16.6193
1.00809, -1, 0.528007, 24.5116, 25.3714, 10.7087, -57.9499, -16.7316
1.01573, -1, 0.67496, 24.4384, 25.3518, 10.9417, -57.7014, -16.8434
1.02414, -1, 0.821583, 24.3655, 25.3323, 11.1738, -57.4539, -16.9544
1.03152, -1, 0.967872, 24.2929, 25.313, 11.4048, -57.2077, -17.0649
1.04009, -1, 1.11345, 24.2207, 25.2936, 11.6347, -56.9628, -17.1748
1.04816, -1, 1.25861, 24.1488, 25.2743, 11.8636, -56.7192, -17.2842
1.05568, -1, 1.40331, 24.0773, 25.2552, 12.0917, -56.4765, -17.3932
1.064, -1, 1.54755, 24.0061, 25.2361, 12.3188, -56.2353, -17.5016
1.07224, -1, 1.69111, 23.9352, 25.2172, 12.5445, -55.995, -17.6096
1.07898, -1, 1.7626, 23.8999, 25.2077, 12.6571, -55.8752, -17.6633
1.08805, -1, 1.97533, 23.7945, 25.1794, 12.9934, -55.5178, -17.8245
1.09613, -1, 2.11591, 23.7246, 25.1607, 13.2161, -55.2806, -17.9313
1.10297, -1, 2.18591, 23.6897, 25.1514, 13.3271, -55.1624, -17.9844
1.1123, -1, 2.3943, 23.5857, 25.1235, 13.6589, -54.8092, -18.1431
1.12031, -1, 2.53212, 23.5167, 25.1051, 13.8789, -54.5747, -18.2481
1.12708, -1, 2.60064, 23.4823, 25.096, 13.9885, -54.4579, -18.3006
1.13648, -1, 2.80469, 23.3795, 25.0684, 14.316, -54.1089, -18.4571
1.14302, -1, 2.87234, 23.3454, 25.0593, 14.4246, -53.9933, -18.5092
1.15248, -1, 3.07468, 23.2434, 25.0319, 14.7495, -53.6476, -18.6645
1.15896, -1, 3.14209, 23.2095, 25.0228, 14.8571, -53.5329, -18.716
1.16856, -1, 3.34438, 23.1084, 24.9959, 15.1788, -53.1904, -18.8703
1.17655, -1, 3.479, 23.0414, 24.978, 15.3925, -52.9631, -18.9726
1.18463, -1, 3.54621, 22.9747, 24.9601, 15.6053, -52.7369, -19.0745
1.19277, -1, 3.68042, 22.9083, 24.9423, 15.817, -52.5115, -19.1755
1.19998, -1, 3.81428, 22.8752, 24.9335, 15.9225, -52.3993, -19.2262
1.20805, -1, 3.94758, 22.8092, 24.9158, 16.1328, -52.1755, -19.3266
1.21503, -1, 4.08063, 22.7435, 24.8981, 16.3424, -51.9525, -19.4269
1.22398, -1, 4.21323, 22.6781, 24.8807, 16.5509, -51.7303, -19.5264
1.23202, -1, 4.34517, 22.6129, 24.8632, 16.7586, -51.5091, -19.626
1.24003, -1, 4.47643, 22.548, 24.8458, 16.9655, -51.2886, -19.7247
1.24804, -1, 4.60701, 22.4832, 24.8285, 17.1718, -51.0691, -19.8237
1.25598, -1, 4.7369, 22.4187, 24.8113, 17.3772, -50.8504, -19.9217
1.26399, -1, 4.86599, 22.3544, 24.794, 17.5816, -50.6325, -20.0201
1.27203, -1, 4.99433, 22.2904, 24.777, 17.7853, -50.4156, -20.1174
1.27998, -1, 5.12189, 22.2265, 24.7601, 17.9882, -50.1995, -20.2147
1.28953, -1, 5.31172, 22.1313, 24.7344, 18.2911, -49.877, -20.3597
1.29608, -1, 5.37454, 22.0997, 24.726, 18.3917, -49.7699, -20.4078
1.304, -1, 5.49956, 22.0366, 24.7092, 18.5922, -49.5564, -20.5036
1.31198, -1, 5.62392, 21.9739, 24.6923, 18.7921, -49.3438, -20.599
1.32005, -1, 5.74788, 21.9114, 24.6755, 18.9913, -49.1321, -20.6943
1.32903, -1, 5.87172, 21.8493, 24.659, 19.1896, -48.9213, -20.789
1.33509, -1, 5.99539, 21.7873, 24.6424, 19.387, -48.7115, -20.8837
1.34406, -1, 6.11904, 21.7256, 24.6258, 19.5838, -48.5022, -20.9779
1.35102, -1, 6.24252, 21.6641, 24.6094, 19.7799, -48.2937, -21.072
1.35998, -1, 6.36585, 21.6028, 24.593, 19.9751, -48.0859, -21.1655
1.36821, -1, 6.48895, 21.5417, 24.5765, 20.1695, -47.8788, -21.259
1.37553, -1, 6.61178, 21.4808, 24.5602, 20.3631, -47.6725, -21.3515
1.38297, -1, 6.73423, 21.4201, 24.5441, 20.5563, -47.4668, -21.4441
1.39198, -1, 6.8562, 21.3597, 24.5279, 20.7488, -47.2616, -21.5359
1.4, -1, 6.97781, 21.2996, 24.5117, 20.9404, -47.0574, -21.6277
1.40811, -1, 7.09882, 21.2397, 24.4956, 21.1314, -46.8539, -21.7188
1.41598, -1, 7.21923, 21.1801, 24.4796, 21.3215, -46.6512, -21.8098
1.42399, -1, 7.33904, 21.1207, 24.4636, 21.5112, -46.4493, -21.9004
1.43108, -1, 7.45826, 21.0616, 24.4479, 21.7002, -46.2482, -21.9907
1.43904, -1, 7.57696, 21.0026, 24.4322, 21.8883, -46.0478, -22.0809
1.44799, -1, 7.69519, 20.9438, 24.4164, 22.0759, -45.8484, -22.1707
1.45608, -1, 7.81293, 20.8852, 24.4006, 22.2629, -45.6495, -22.2604
1.46398, -1, 7.93006, 20.8267, 24.385, 22.4493, -45.4515, -22.3496
1.4721, -1, 8.04658, 20.7684, 24.3693, 22.6351, -45.2542, -22.4385
1.47999, -1, 8.16251, 20.7103, 24.3537, 22.82, -45.0578, -22.5267
1.48798, -1, 8.27801, 20.6523, 24.3383, 23.0043, -44.8617, -22.6151
1.49617, -1, 8.39322, 20.5945, 24.323, 23.188, -44.6662, -22.7026
1.50335, -1, 8.50804, 20.537, 24.3076, 23.3711, -44.4712, -22.7902
1.5114, -1, 8.62233, 20.4797, 24.2921, 23.5534, -44.277, -22.8771
1.52044, -1, 8.73613, 20.4226, 24.2769, 23.7351, -44.0832, -22.9644
1.5275, -1, 8.84964, 20.3658, 24.2617, 23.9163, -43.8901, -23.0508
1.53612, -1, 8.96293, 20.3092, 24.2464, 24.0971, -43.6976, -23.1375
1.5445, -1, 9.07607, 20.2527, 24.2314, 24.2772, -43.506, -23.2234
1.55157, -1, 9.18924, 20.1964, 24.2165, 24.4565, -43.3151, -23.3097
1.56009, -1, 9.30233, 20.1403, 24.2015, 24.6353, -43.1246, -23.3953
1.56849, -1, 9.35881, 20.1123, 24.194, 24.7244, -43.0297, -23.438
1.57497, -1, 9.47145, 20.0564, 24.1789, 24.9023, -42.8403, -23.5235
1.58401, -1, 9.63964, 19.9729, 24.1565, 25.1684, -42.5571, -23.6505
1.59286, -1, 9.75118, 19.9173, 24.1417, 25.3448, -42.3693, -23.7351
1.60009, -1, 9.86246, 19.862, 24.1268, 25.5209, -42.1818, -23.819
1.60701, -1, 9.91798, 19.8344, 24.1195, 25.6086, -42.0883, -23.8611
1.61727, -1, 10.084, 19.752, 24.0977, 25.8715, -41.8092, -23.9862
1.62302, -1, 10.1392, 19.7246, 24.0904, 25.9589, -41.7163, -24.0281
1.63241, -1, 10.304, 19.6427, 24.0683, 26.2199, -41.4386, -24.1527
1.63895, -1, 10.3588, 19.6156, 24.061, 26.3066, -41.3463, -24.1942
1.64705, -1, 10.4678, 19.5614, 24.0465, 26.4796, -41.1619, -24.2772
1.65653, -1, 10.6305, 19.4802, 24.0247, 26.7383, -40.8866, -24.4009
1.66553, -1, 10.7386, 19.4264, 24.0103, 26.91, -40.7039, -24.4833
1.67256, -1, 10.8463, 19.3727, 23.9961, 27.0811, -40.5214, -24.5652
1.68057, -1, 10.9536, 19.3191, 23.9819, 27.2517, -40.3396, -24.6472
1.68942, -1, 11.0071, 19.2923, 23.9747, 27.3368, -40.1584, -24.7282
1.69504, -1, 11.1138, 19.2389, 23.9603, 27.5069, -40.068, -24.769
1.70499, -1, 11.2732, 19.1591, 23.9389, 27.761, -39.7976, -24.8906
1.71197, -1, 11.3262, 19.1326, 23.9318, 27.8453, -39.7077, -24.931
1.71996, -1, 11.4318, 19.0797, 23.9176, 28.0138, -39.5284, -25.0118
1.72801, -1, 11.537, 19.0271, 23.9035, 28.1816, -39.3495, -25.0919
1.73595, -1, 11.642, 18.9746, 23.8896, 28.3491, -39.1713, -25.1724
1.74299, -1, 11.7468, 18.9222, 23.8756, 28.5162, -38.9933, -25.252
1.752, -1, 11.8515, 18.8701, 23.8616, 28.6827, -38.8163, -25.3321
1.75996, -1, 11.9559, 18.8181, 23.8475, 28.8487, -38.6394, -25.4116
1.76803, -1, 12.0601, 18.7661, 23.8336, 29.0142, -38.4631, -25.4911
1.77595, -1, 12.1643, 18.7143, 23.8197, 29.1794, -38.2875, -25.5706
1.78296, -1, 12.2683, 18.6626, 23.8059, 29.3443, -38.1125, -25.6492
1.792, -1, 12.372, 18.6111, 23.7921, 29.5087, -37.938, -25.7285
1.79995, -1, 12.4754, 18.5597, 23.7785, 29.6724, -37.7639, -25.8064
1.80695, -1, 12.5787, 18.5083, 23.7649, 29.8356, -37.5902, -25.8848
1.81595, -1, 12.6817, 18.4572, 23.7511, 29.9985, -37.4168, -25.9626
1.82395, -1, 12.7842, 18.4062, 23.7374, 30.161, -37.2441, -26.0401
1.83297, -1, 12.8865, 18.3554, 23.7237, 30.3231, -37.0714, -26.1178
1.83995, -1, 12.9883, 18.3049, 23.7101, 30.4846, -36.8994, -26.1944
1.84796, -1, 13.0898, 18.2544, 23.6966, 30.6455, -36.7278, -26.2718
1.85603, -1, 13.191, 18.2041, 23.683, 30.8062, -36.5567, -26.3483
1.86402, -1, 13.2918, 18.1539, 23.6697, 30.9665, -36.3859, -26.4248
1.87196, -1, 13.3923, 18.1039, 23.6564, 31.1264, -36.2158, -26.5015
1.87996, -1, 13.4925, 18.0539, 23.643, 31.2859, -36.0459, -26.5774
1.88796, -1, 13.5925, 18.0039, 23.6296, 31.4448, -35.8766, -26.654
1.89603, -1, 13.6924, 17.9542, 23.6162, 31.6032, -35.7079, -26.7296
1.90396, -1, 13.792, 17.9044, 23.6029, 31.7613, -35.5395, -26.8055
1.91195, -1, 13.8915, 17.8547, 23.5896, 31.9193, -35.3717, -26.8811
1.92002, -1, 13.9908, 17.8052, 23.5763, 32.0766, -35.2042, -26.9561
1.92796, -1, 14.0899, 17.7558, 23.5631, 32.2336, -35.037, -27.0315
1.93595, -1, 14.1887, 17.7066, 23.5501, 32.3901, -34.8707, -27.1059
1.94405, -1, 14.2871, 17.6576, 23.537, 32.5462, -34.7045, -27.1807
1.95195, -1, 14.385, 17.6088, 23.5238, 32.7022, -34.5391, -27.2551
1.95999, -1, 14.4827, 17.5601, 23.5107, 32.8579, -34.3737, -27.3289
1.96802, -1, 14.58, 17.5116, 23.4977, 33.013, -34.2086, -27.4035
1.97602, -1, 14.6769, 17.4631, 23.4847, 33.1676, -34.044, -27.4771
1.98396, -1, 14.7736, 17.4148, 23.4717, 33.3218, -33.8796, -27.5512
1.99203, -1, 14.87, 17.3666, 23.4588, 33.4757, -33.7159, -27.6249
1.99995, -1, 14.9663, 17.3184, 23.446, 33.6294, -33.5522, -27.6983
2.00795, -1, 15.0624, 17.2702, 23.4333, 33.7825, -33.3891, -27.7723
2.01606, -1, 15.1584, 17.2221, 23.4204, 33.9353, -33.2261, -27.8452
2.02403, -1, 15.2543, 17.1741, 23.4075, 34.0876, -33.0639, -27.9187
2.03212, -1, 15.3502, 17.1263, 23.3946, 34.2396, -32.902, -27.9915
2.04012, -1, 15.446, 17.0785, 23.3818, 34.3914, -32.7406, -28.0637
2.04756, -1, 15.5417, 17.0308, 23.369, 34.5429, -32.5796, -28.1366
2.05608, -1, 15.6373, 16.9835, 23.3562, 34.6939, -32.4188, -28.2084
2.0636, -1, 15.6849, 16.9362, 23.3436, 34.8445, -32.2585, -28.2807
2.07213, -1, 15.8276, 16.8891, 23.3311, 34.9948, -32.0983, -28.3527
2.07894, -1, 15.8751, 16.8656, 23.3249, 35.0698, -32.0185, -28.3882
2.088, -1, 16.0171, 16.7954, 23.306, 35.2944, -31.7797, -28.4957
2.09605, -1, 16.1113, 16.7488, 23.2934, 35.4437, -31.6207, -28.567
2.10294, -1, 16.1582, 16.7255, 23.2871, 35.5183, -31.5414, -28.6025
2.11215, -1, 16.2987, 16.6556, 23.2685, 35.7413, -31.3042, -28.7097
2.11894, -1, 16.3454, 16.6323, 23.2623, 35.8155, -31.2252, -28.745
2.1283, -1, 16.4851, 16.5626, 23.2435, 36.0375, -30.9888, -28.8515
2.13496, -1, 16.5315, 16.5393, 23.2373, 36.1115, -30.9102, -28.8871
2.14449, -1, 16.6704, 16.4697, 23.2188, 36.333, -30.6746, -28.9926
2.15246, -1, 16.7628, 16.4234, 23.2064, 36.48, -30.5182, -29.0635
2.15894, -1, 16.8089, 16.4003, 23.2002, 36.5534, -30.44, -29.0985
2.16853, -1, 16.9473, 16.3312, 23.1816, 36.7731, -30.2063, -29.2034
2.17653, -1, 17.0392, 16.2852, 23.1694, 36.9191, -30.0505, -29.2735
2.18489, -1, 17.1309, 16.2396, 23.1571, 37.065, -29.8953, -29.3427
2.1925, -1, 17.1763, 16.217, 23.1509, 37.1378, -29.7403, -29.4126
2.20075, -1, 17.3078, 16.151, 23.1322, 37.355, -29.5865, -29.4815
2.2089, -1, 17.3897, 16.1101, 23.1196, 37.4974, -29.4347, -29.5494
2.21597, -1, 17.4286, 16.0907, 23.1134, 37.567, -29.3604, -29.5831
2.22397, -1, 17.5023, 16.0541, 23.1011, 37.7013, -29.217, -29.6477
2.23297, -1, 17.5699, 16.0211, 23.0893, 37.8259, -29.084, -29.7349
2.24001, -1, 17.6299, 15.9919, 23.0787, 37.9372, -28.965, -29.761
2.24794, -1, 17.683, 15.966, 23.0699, 38.031, -28.864, -29.8067
2.25599, -1, 17.7299, 15.9423, 23.0635, 38.1062, -28.7833, -29.8432
2.26404, -1, 17.7709, 15.921, 23.0594, 38.1623, -28.7225, -29.8702
2.27194, -1, 17.8053, 15.9034, 23.057, 38.2005, -28.6808, -29.889
2.28007, -1, 17.8327, 15.8896, 23.0558, 38.2255, -28.6535, -29.901
2.28794, -1, 17.8543, 15.8794, 23.0553, 38.2403, -28.6371, -29.908
2.29599, -1, 17.8698, 15.8723, 23.0551, 38.2484, -28.6283, -29.9117
2.304, -1, 17.8789, 15.8682, 23.055, 38.2524, -28.6239, -29.9135
2.312, 2, 17.8832, 15.8661, 23.0549, 38.2543, -28.6218, -29.9143
2.32002, 2, 17.8851, 15.8651, 23.0549, 38.2551, -28.6208, -29.9148
2.32896, 2, 17.8852, 15.8647, 23.0549, 38.2556, -28.6203, -29.915
2.33594, 2, 17.8846, 15.8645, 23.0549, 38.2558, -28.6201, -29.915
2.34394, 2, 17.8838, 15.8643, 23.0549, 38.2558, -28.6201, -29.9151
2.35199, 2, 17.8833, 15.8643, 23.0549, 38.2559, -28.62, -29.9151
2.36001, 2, 17.883, 15.8643, 23.0549, 38.2559, -28.62, -29.9151
2.36794, 2, 17.8829, 15.8642, 23.0549, 38.2559, -28.62, -29.9151
2.376, 2, 17.883, 15.8639, 23.0549, 38.2559, -28.62, -29.9151
2.38295, 2, 17.8832, 15.8637, 23.0549, 38.2559, -28.62, -29.9151
2.39203, 2, 17.8836, 15.8633, 23.0549, 38.256, -28.62, -29.9151
2.40006, 2, 17.884, 15.863, 23.0549, 38.256, -28.62, -29.9151
2.40793, 2, 17.8846, 15.8628, 23.0549, 38.2559, -28.62, -29.9152
2.41594, 2, 17.8855, 15.8627, 23.0549, 38.2559, -28.62, -29.9151
2.424, 2, 17.8864, 15.8626, 23.0549, 38.2559, -28.62, -29.9151
2.43193, 2, 17.887, 15.8626, 23.0549, 38.2559, -28.6201, -29.9151
2.44002, 2, 17.8875, 15.8626, 23.0549, 38.2559, -28.6201, -29.9152
2.44799, 2, 17.8877, 15.8626, 23.0549, 38.2559, -28.6201, -29.9152
2.45593, 2, 17.8879, 15.8626, 23.0549, 38.256, -28.6201, -29.9152
2.46398, 2, 17.8879, 15.8626, 23.0549, 38.256, -28.6201, -29.9152
2.472, 2, 17.888, 15.8626, 23.0549, 38.256, -28.6202, -29.9152
2.48007, 2, 17.888, 15.8626, 23.0549, 38.256, -28.6201, -29.9152
2.48742, 2, 17.8879, 15.8626, 23.0549, 38.256, -28.6202, -29.9151
2.4952, 2, 17.8878, 15.8626, 23.0549, 38.2559, -28.6202, -29.9151
2.50323, 2, 17.8875, 15.8625, 23.0549, 38.2559, -28.6202, -29.9152
2.51139, 2, 17.8874, 15.8624, 23.0549, 38.2559, -28.6202, -29.9151
2.51943, 2, 17.8872, 15.8623, 23.0549, 38.2559, -28.6202, -29.9151
2.52802, 2, 17.8872, 15.8623, 23.0549, 38.2559, -28.6202, -29.9151
2.53604, 2, 17.8872, 15.8623, 23.0549, 38.2559, -28.6202, -29.9151
2.5441, 2, 17.8872, 15.8623, 23.0549, 38.2559, -28.6203, -29.9152
2.55204, 2, 17.8872, 15.8623, 23.0549, 38.2559, -28.6203, -29.9152
2.56012, 2, 17.8872, 15.8624, 23.0549, 38.2559, -28.6202, -29.9152
2.56811, 2, 17.8872, 15.8624, 23.0549, 38.2559, -28.6203, -29.9152
2.57544, 2, 17.8872, 15.8624, 23.0549, 38.2559, -28.6204, -29.9152
2.58417, 2, 17.8872, 15.8624, 23.0549, 38.2559, -28.6204, -29.9151
2.59093, 2, 17.8872, 15.8624, 23.0549, 38.2559, -28.6204, -29.9151
2.60004, 2, 17.8872, 15.8624, 23.0549, 38.2559, -28.6205, -29.9151
2.60697, 2, 17.8872, 15.8624, 23.0549, 38.2559, -28.6205, -29.9151
2.61624, 2, 17.8871, 15.8623, 23.0549, 38.2559, -28.6205, -29.9151
2.62293, 2, 17.8871, 15.8623, 23.0549, 38.2559, -28.6205, -29.9151
2.63258, 2, 17.8871, 15.8623, 23.0549, 38.2559, -28.6205, -29.9151
2.64072, 2, 17.887, 15.8623, 23.0549, 38.2559, -28.6205, -29.9151
2.64843, 2, 17.887, 15.8623, 23.0549, 38.2559, -28.6205, -29.9151
2.65647, 2, 17.887, 15.8623, 23.0549, 38.2559, -28.6205, -29.9151
2.66456, 2, 17.8869, 15.8624, 23.0549, 38.2559, -28.6205, -29.9151
2.67253, 2, 17.8869, 15.8624, 23.0549, 38.2559, -28.6205, -29.9151
2.68071, 2, 17.8869, 15.8624, 23.0549, 38.2558, -28.6206, -29.9151
2.68859, 2, 17.8869, 15.8624, 23.0549, 38.2559, -28.6206, -29.9151
2.69647, 2, 17.8868, 15.8624, 23.0549, 38.2559, -28.6206, -29.9151
2.70454, 2, 17.8869, 15.8624, 23.0549, 38.2559, -28.6206, -29.9151
2.71197, 2, 17.8869, 15.8624, 23.0549, 38.2559, -28.6206, -29.9151
2.72, 2, 17.8869, 15.8624, 23.0549, 38.2559, -28.6206, -29.9151
2.72792, 2, 17.8868, 15.8624, 23.0549, 38.2558, -28.6206, -29.9151
2.73596, 2, 17.8868, 15.8624, 23.0549, 38.2558, -28.6207, -29.9151
2.74392, 2, 17.8868, 15.8624, 23.0549, 38.2558, -28.6207, -29.9151
2.75192, 2, 17.8868, 15.8624, 23.0549, 38.2558, -28.6208, -29.9151
2.76005, 2, 17.8867, 15.8624, 23.0549, 38.2559, -28.6208, -29.9151
2.76804, 2, 17.8867, 15.8624, 23.0549, 38.2558, -28.6208, -29.9151
2.77592, 2, 17.8867, 15.8624, 23.0549, 38.2558, -28.6208, -29.9151
2.78397, 2, 17.8866, 15.8624, 23.0549, 38.2558, -28.6208, -29.9151
2.79192, 2, 17.8866, 15.8624, 23.0549, 38.2557, -28.6208, -29.915
2.80004, 2, 17.8866, 15.8624, 23.0549, 38.2557, -28.6208, -29.915
2.80796, 2, 17.8865, 15.8624, 23.0549, 38.2558, -28.6208, -29.915
2.81598, 2, 17.8865, 15.8624, 23.0549, 38.2557, -28.6208, -29.915
2.82392, 2, 17.8864, 15.8624, 23.0549, 38.2558, -28.6208, -29.915
2.83294, 2, 17.8864, 15.8624, 23.0549, 38.2558, -28.6208, -29.915
2.84, 2, 17.8864, 15.8624, 23.0549, 38.2557, -28.6208, -29.9151
2.8489, 2, 17.8863, 15.8624, 23.0549, 38.2557, -28.6208, -29.9151
2.85597, 2, 17.8863, 15.8624, 23.0549, 38.2557, -28.6208, -29.9151
2.86392, 2, 17.8862, 15.8624, 23.0549, 38.2557, -28.6208, -29.915
2.87192, 2, 17.8862, 15.8624, 23.0549, 38.2557, -28.6209, -29.915
2.88005, 2, 17.8861, 15.8624, 23.0549, 38.2557, -28.6209, -29.9151
2.88791, 2, 17.8861, 15.8625, 23.0549, 38.2557, -28.6209, -29.9151
2.89596, 2, 17.886, 15.8624, 23.0549, 38.2557, -28.6209, -29.9151
2.90398, 2, 17.8859, 15.8624, 23.0549, 38.2556, -28.6209, -29.9151
2.91192, 2, 17.8859, 15.8624, 23.0549, 38.2557, -28.6209, -29.915
2.92, 2, 17.8858, 15.8625, 23.0549, 38.2557, -28.6209, -29.915
2.92797, 2, 17.8858, 15.8625, 23.0549, 38.2557, -28.621, -29.915
2.93591, 2, 17.8857, 15.8624, 23.0549, 38.2557, -28.621, -29.915
2.94392, 2, 17.8857, 15.8624, 23.0549, 38.2556, -28.621, -29.915
2.95197, 2, 17.8857, 15.8624, 23.0549, 38.2556, -28.621, -29.915
2.95998, 2, 17.8856, 15.8624, 23.0549, 38.2556, -28.621, -29.915
2.96795, 2, 17.8856, 15.8624, 23.0549, 38.2556, -28.621, -29.915
2.97598, 2, 17.8855, 15.8624, 23.0549, 38.2556, -28.6211, -29.9149
2.98398, 2, 17.8854, 15.8624, 23.0549, 38.2556, -28.6211, -29.9149
2.99192, 2, 17.8854, 15.8624, 23.0549, 38.2556, -28.6211, -29.9149
3.00007, 2, 17.8853, 15.8625, 23.0549, 38.2556, -28.6211, -29.915
3.00792, 2, 17.8853, 15.8625, 23.0549, 38.2556, -28.6212, -29.915
3.01592, 2, 17.8852, 15.8625, 23.0549, 38.2555, -28.6212, -29.915
3.02403, 2, 17.8852, 15.8625, 23.0549, 38.2555, -28.6212, -29.915
3.032, 2, 17.8851, 15.8625, 23.0549, 38.2555, -28.6212, -29.915
3.04008, 2, 17.8851, 15.8625, 23.0549, 38.2555, -28.6212, -29.915
3.04809, 2, 17.885, 15.8625, 23.0549, 38.2555, -28.6212, -29.915
3.05603, 2, 17.8849, 15.8625, 23.0549, 38.2555, -28.6212, -29.915
3.06404, 2, 17.8849, 15.8625, 23.0549, 38.2554, -28.6212, -29.915
3.0721, 2, 17.8848, 15.8625, 23.0549, 38.2554, -28.6212, -29.915
3.07891, 2, 17.8848, 15.8625, 23.0549, 38.2554, -28.6212, -29.915
3.08795, 2, 17.8847, 15.8625, 23.0549, 38.2554, -28.6212, -29.915
3.09582, 2, 17.8847, 15.8625, 23.0549, 38.2554, -28.6212, -29.915
3.10397, 2, 17.8846, 15.8625, 23.0549, 38.2554, -28.6212, -29.915
3.11095, 2, 17.8846, 15.8625, 23.0549, 38.2553, -28.6212, -29.915
3.12055, 2, 17.8845, 15.8625, 23.0549, 38.2553, -28.6212, -29.915
3.12817, 2, 17.8845, 15.8625, 23.0549, 38.2553, -28.6212, -29.915
3.13496, 2, 17.8844, 15.8625, 23.0549, 38.2553, -28.6212, -29.9149
3.14475, 2, 17.8844, 15.8625, 23.0549, 38.2552, -28.6212, -29.915
3.1509, 2, 17.8843, 15.8625, 23.0549, 38.2553, -28.6212, -29.9149
3.16075, 2, 17.8843, 15.8625, 23.0549, 38.2552, -28.6213, -29.9149
3.16893, 2, 17.8842, 15.8625, 23.0549, 38.2552, -28.6213, -29.9149
3.17648, 2, 17.8842, 15.8625, 23.0549, 38.2551, -28.6213, -29.9149
3.18447, 2, 17.8842, 15.8625, 23.0549, 38.2551, -28.6213, -29.9149
3.19277, 2, 17.8841, 15.8625, 23.0549, 38.2551, -28.6213, -29.9148
3.20053, 2, 17.8841, 15.8625, 23.0549, 38.2551, -28.6213, -29.9148
3.20793, 2, 17.8841, 15.8625, 23.0549, 38.2551, -28.6213, -29.9148
3.21681, 2, 17.8841, 15.8626, 23.0549, 38.2551, -28.6213, -29.9148
3.2239, 2, 17.8841, 15.8626, 23.0549, 38.255, -28.6213, -29.9149
3.23193, 2, 17.8841, 15.8626, 23.0549, 38.255, -28.6213, -29.9149
3.24001, 2, 17.884, 15.8626, 23.0549, 38.255, -28.6213, -29.9148
3.24791, 2, 17.884, 15.8626, 23.0549, 38.255, -28.6213, -29.9149
3.25591, 2, 17.884, 15.8626, 23.0549, 38.255, -28.6213, -29.9149
3.26395, 2, 17.884, 15.8626, 23.0549, 38.2549, -28.6213, -29.9149
3.2719, 2, 17.884, 15.8626, 23.0549, 38.2549, -28.6214, -29.9149
3.27996, 2, 17.8839, 15.8626, 23.0549, 38.2549, -28.6214, -29.9149
3.28796, 2, 17.8839, 15.8625, 23.0549, 38.2549, -28.6214, -29.9149
3.29591, 2, 17.8839, 15.8626, 23.0549, 38.2549, -28.6214, -29.9149
3.30394, 2, 17.8839, 15.8626, 23.0549, 38.2549, -28.6214, -29.9149
3.31333, 2, 17.8839, 15.8626, 23.0549, 38.2549, -28.6214, -29.9149
3.32034, 2, 17.8839, 15.8626, 23.0549, 38.2549, -28.6214, -29.9149
3.32697, 2, 17.8839, 15.8626, 23.0549, 38.2549, -28.6214, -29.9149
3.33596, 2, 17.8839, 15.8626, 23.0549, 38.2549, -28.6214, -29.9149
3.34603, 2, 17.8839, 15.8626, 23.0549, 38.2548, -28.6214, -29.9149
3.35096, 2, 17.8838, 15.8626, 23.0549, 38.2547, -28.6214, -29.9149
3.36002, 2, 17.8838, 15.8626, 23.0549, 38.2547, -28.6214, -29.9149
3.36814, 2, 17.8838, 15.8626, 23.055, 38.2547, -28.6214, -29.9149
3.3759, 4, 17.8838, 15.8626, 23.055, 38.2547, -28.6214, -29.9149
3.38395, 4, 17.8838, 15.8626, 23.055, 38.2547, -28.6214, -29.9149
3.3919, 4, 17.8838, 15.8626, 23.055, 38.2547, -28.6215, -29.9149
3.39997, 4, 17.8838, 15.8626, 23.055, 38.2547, -28.6214, -29.9148
3.40796, 4, 17.8838, 15.8626, 23.055, 38.2547, -28.6214, -29.9149
3.4159, 4, 17.8837, 15.8626, 23.055, 38.2546, -28.6214, -29.9148
3.4239, 4, 17.8837, 15.8626, 23.055, 38.2547, -28.6215, -29.9149
3.43196, 4, 17.8837, 15.8626, 23.055, 38.2546, -28.6215, -29.9149
3.43995, 4, 17.8837, 15.8626, 23.055, 38.2546, -28.6215, -29.9148
3.44792, 4, 17.8837, 15.8626, 23.055, 38.2546, -28.6215, -29.9149
3.45596, 4, 17.8837, 15.8626, 23.055, 38.2547, -28.6215, -29.9148
3.4639, 4, 17.8837, 15.8626, 23.055, 38.2546, -28.6215, -29.9148
3.47209, 4, 17.8837, 15.8626, 23.055, 38.2546, -28.6215, -29.9148
3.47933, 4, 17.8836, 15.8626, 23.055, 38.2546, -28.6215, -29.9148
3.50331, 4, 17.8836, 15.8627, 23.055, 38.2545, -28.6215, -29.9148
3.50474, 4, 17.8836, 15.8627, 23.055, 38.2545, -28.6215, -29.9148
3.50592, 4, 17.8836, 15.8627, 23.055, 38.2545, -28.6215, -29.9148
3.51205, 4, 17.8836, 15.8627, 23.055, 38.2545, -28.6214, -29.9148
3.52008, 4, 17.8835, 15.8627, 23.055, 38.2545, -28.6214, -29.9148
3.52747, 4, 17.8835, 15.8627, 23.055, 38.2545, -28.6214, -29.9147
3.53624, 4, 17.883, 15.863, 23.0549, 38.2544, -28.6215, -29.9147
3.54342, 4, 17.8812, 15.8642, 23.0549, 38.2542, -28.6215, -29.9146
3.55202, 4, 17.8779, 15.8666, 23.0546, 38.2527, -28.6217, -29.9138
3.56046, 4, 17.8737, 15.8701, 23.0536, 38.248, -28.6223, -29.9107
3.56747, 4, 17.8716, 15.8722, 23.0519, 38.2387, -28.624, -29.9031
3.5759, 4, 17.8647, 15.8801, 23.0489, 38.2239, -28.6269, -29.8892
3.58472, 5, 17.8593, 15.8872, 23.0445, 38.2032, -28.6312, -29.8687
3.59194, 5, 17.8538, 15.8955, 23.0387, 38.1768, -28.637, -29.8416
3.59897, 5, 17.8512, 15.8999, 23.0353, 38.1617, -28.6404, -29.8258
3.60877, 5, 17.8424, 15.915, 23.0237, 38.109, -28.652, -29.7712
3.61604, 5, 17.8347, 15.9269, 23.0149, 38.071, -28.6604, -29.7318
3.62297, 5, 17.8303, 15.9333, 23.0104, 38.0519, -28.6647, -29.7118
3.63298, 5, 17.8156, 15.9538, 22.9967, 37.9931, -28.6778, -29.6505
3.64033, 5, 17.8053, 15.968, 22.9872, 37.9528, -28.6868, -29.6086
3.6469, 5, 17.8001, 15.9752, 22.9825, 37.9328, -28.6912, -29.5875
3.65726, 5, 17.7841, 15.9965, 22.9681, 37.8737, -28.7048, -29.5252
3.66295, 5, 17.7787, 16.0037, 22.9632, 37.8536, -28.7093, -29.5045
3.6725, 5, 17.7629, 16.0256, 22.9487, 37.7927, -28.7232, -29.4423
3.68133, 5, 17.7523, 16.0399, 22.9389, 37.7533, -28.7325, -29.4003
3.68695, 5, 17.7469, 16.047, 22.934, 37.7336, -28.7373, -29.3794
3.69675, 5, 17.7308, 16.0683, 22.9194, 37.673, -28.7519, -29.3174
3.70388, 5, 17.7254, 16.0754, 22.9144, 37.6529, -28.7569, -29.2968
3.71095, 5, 17.7146, 16.0897, 22.9045, 37.6135, -28.767, -29.2552
3.72066, 5, 17.7038, 16.1039, 22.8947, 37.5738, -28.7769, -29.2132
3.72789, 5, 17.6932, 16.1179, 22.885, 37.5333, -28.7869, -29.1719
3.73495, 5, 17.6826, 16.1321, 22.8751, 37.4935, -28.7965, -29.131
3.74396, 5, 17.6719, 16.1464, 22.8653, 37.4543, -28.806, -29.0899
3.75188, 5, 17.6611, 16.1607, 22.8553, 37.4148, -28.8155, -29.0483
3.75889, 5, 17.6503, 16.1748, 22.8453, 37.3745, -28.8249, -29.0066
3.7679, 5, 17.6396, 16.1891, 22.8355, 37.335, -28.8343, -28.9656
3.77589, 5, 17.6289, 16.2036, 22.8256, 37.2958, -28.8438, -28.9246
3.78294, 5, 17.6182, 16.2181, 22.8158, 37.2557, -28.8533, -28.8832
3.7919, 5, 17.6077, 16.2325, 22.806, 37.2159, -28.8629, -28.8412
3.79994, 5, 17.5972, 16.2468, 22.7961, 37.1769, -28.8726, -28.8
3.80689, 5, 17.5866, 16.2612, 22.7863, 37.1374, -28.8824, -28.759
3.8162, 5, 17.5759, 16.2755, 22.7766, 37.0972, -28.8924, -28.718
3.82396, 5, 17.5654, 16.2897, 22.7668, 37.0576, -28.9026, -28.6764
3.83288, 5, 17.5547, 16.3037, 22.757, 37.0185, -28.9129, -28.6351
3.83995, 5, 17.544, 16.3179, 22.7471, 36.9786, -28.9232, -28.5944
3.84889, 5, 17.5334, 16.3322, 22.7371, 36.9385, -28.9334, -28.5538
3.85488, 5, 17.5227, 16.3465, 22.7272, 36.8993, -28.9434, -28.5127
3.86469, 5, 17.512, 16.3606, 22.7173, 36.8602, -28.9533, -28.4713
3.87188, 5, 17.5011, 16.3749, 22.7074, 36.8202, -28.9631, -28.4305
3.87995, 5, 17.4904, 16.3893, 22.6976, 36.7805, -28.9729, -28.3901
3.88865, 5, 17.4796, 16.4036, 22.6878, 36.7417, -28.9826, -28.3496
3.89592, 5, 17.4689, 16.4177, 22.678, 36.7023, -28.9923, -28.3086
3.9039, 5, 17.4582, 16.4319, 22.6684, 36.6624, -29.0021, -28.2679
3.91266, 5, 17.4477, 16.4462, 22.6587, 36.6234, -29.012, -28.2276
3.92001, 5, 17.4372, 16.4605, 22.6489, 36.5848, -29.0219, -28.1874
3.92788, 5, 17.4266, 16.4747, 22.6392, 36.5455, -29.032, -28.147
3.93659, 5, 17.416, 16.4888, 22.6293, 36.5058, -29.0423, -28.1061
3.94396, 5, 17.4055, 16.503, 22.6195, 36.4671, -29.0528, -28.0657
3.95188, 5, 17.3949, 16.5172, 22.6098, 36.4282, -29.0633, -28.0259
3.96066, 5, 17.3843, 16.5313, 22.6, 36.3886, -29.0737, -27.9859
3.96795, 5, 17.3737, 16.5453, 22.5902, 36.3493, -29.084, -27.9454
3.97591, 5, 17.3632, 16.5594, 22.5805, 36.3108, -29.094, -27.9048
3.98469, 5, 17.3525, 16.5737, 22.5707, 36.2719, -29.1039, -27.8648
3.99202, 5, 17.3418, 16.588, 22.5611, 36.2321, -29.1138, -27.8248
3.99994, 5, 17.3311, 16.6022, 22.5515, 36.1932, -29.1236, -27.7846
4.00862, 5, 17.3203, 16.6163, 22.5418, 36.1546, -29.1335, -27.7439
4.01595, 5, 17.3095, 16.6306, 22.5321, 36.1151, -29.1434, -27.7034
4.02391, 5, 17.2988, 16.6448, 22.5224, 36.0754, -29.1534, -27.6635
4.03335, 5, 17.2882, 16.6589, 22.5126, 36.0367, -29.1635, -27.6235
4.03952, 5, 17.2775, 16.6729, 22.5029, 35.998, -29.1737, -27.5833
4.04805, 5, 17.2668, 16.6871, 22.4932, 35.9586, -29.1841, -27.5427
4.05599, 5, 17.2562, 16.7014, 22.4835, 35.9193, -29.1948, -27.5028
4.06399, 5, 17.2455, 16.7156, 22.4739, 35.8808, -29.2055, -27.4633
4.07206, 5, 17.2348, 16.7296, 22.4642, 35.842, -29.2162, -27.4234
4.08006, 5, 17.2241, 16.7437, 22.4547, 35.8025, -29.2268, -27.3831
4.08789, 5, 17.2134, 16.7579, 22.4452, 35.7638, -29.2373, -27.3428
4.09597, 5, 17.2027, 16.7721, 22.4356, 35.7256, -29.2476, -27.3033
4.10288, 5, 17.1973, 16.7791, 22.4308, 35.7064, -29.2527, -27.2834
4.11201, 5, 17.1811, 16.8001, 22.4165, 35.6476, -29.268, -27.2242
4.12017, 5, 17.1704, 16.8142, 22.4068, 35.6091, -29.2782, -27.184
4.12691, 5, 17.165, 16.8214, 22.402, 35.59, -29.2834, -27.164
4.13614, 5, 17.1488, 16.8426, 22.3876, 35.5316, -29.2988, -27.1049
4.14287, 5, 17.1434, 16.8496, 22.3828, 35.512, -29.304, -27.0853
4.15232, 5, 17.1274, 16.8707, 22.3683, 35.4545, -29.3197, -27.0258
4.15892, 5, 17.1221, 16.8778, 22.3635, 35.4354, -29.325, -27.0057
4.16844, 5, 17.1061, 16.8989, 22.3491, 35.3768, -29.3412, -26.9463
4.17646, 5, 17.0955, 16.9128, 22.3397, 35.338, -29.3522, -26.9074
4.18292, 5, 17.0901, 16.9197, 22.335, 35.3189, -29.3577, -26.8878
4.19247, 5, 17.0741, 16.9408, 22.3208, 35.2611, -29.3739, -26.8285
4.20145, 5, 17.0634, 16.955, 22.3113, 35.2218, -29.3845, -26.7888
4.20786, 5, 17.0581, 16.9621, 22.3065, 35.2024, -29.3897, -26.7691
4.21591, 5, 17.0474, 16.9761, 22.2969, 35.1643, -29.4, -26.73
4.22388, 5, 17.0367, 16.9901, 22.2874, 35.126, -29.4104, -26.691
4.23093, 5, 17.026, 17.0044, 22.2779, 35.0867, -29.4207, -26.6514
4.24002, 5, 17.0153, 17.0185, 22.2685, 35.048, -29.4311, -26.6115
4.24787, 5, 17.0046, 17.0325, 22.259, 35.01, -29.4415, -26.5723
4.25488, 5, 16.9938, 17.0464, 22.2496, 34.9715, -29.452, -26.5333
4.26386, 5, 16.9832, 17.0605, 22.2401, 34.9326, -29.4627, -26.4942
4.27187, 5, 16.9725, 17.0747, 22.2307, 34.8944, -29.4736, -26.4545
4.27998, 5, 16.9618, 17.0888, 22.2214, 34.8568, -29.4847, -26.4149
4.28792, 5, 16.951, 17.1027, 22.2119, 34.8182, -29.4959, -26.3759
4.29587, 5, 16.9403, 17.1166, 22.2026, 34.7795, -29.5071, -26.337
4.30545, 5, 16.9241, 17.1377, 22.1883, 34.7228, -29.5237, -26.278
4.3119, 5, 16.9187, 17.1447, 22.1835, 34.7038, -29.5291, -26.2581
4.31994, 5, 16.908, 17.1586, 22.1741, 34.6651, -29.5399, -26.2188
4.32799, 5, 16.8972, 17.1725, 22.1647, 34.6266, -29.5507, -26.1801
4.33586, 5, 16.8864, 17.1865, 22.1552, 34.5889, -29.5614, -26.1413
4.34488, 5, 16.8756, 17.2007, 22.1458, 34.5509, -29.5721, -26.1021
4.35086, 5, 16.8648, 17.2148, 22.1365, 34.5121, -29.5828, -26.0626
4.35997, 5, 16.8541, 17.2287, 22.1271, 34.4738, -29.5936, -26.0237
4.36887, 5, 16.8432, 17.2427, 22.1179, 34.4361, -29.6045, -25.9853
4.37586, 5, 16.8325, 17.2569, 22.1087, 34.3977, -29.6155, -25.9467
4.38387, 5, 16.8219, 17.2708, 22.0994, 34.3588, -29.6267, -25.9076
4.39193, 5, 16.8112, 17.2846, 22.0902, 34.3208, -29.6381, -25.8684
4.39992, 5, 16.8004, 17.2985, 22.0808, 34.2833, -29.6495, -25.8299
4.40786, 5, 16.7898, 17.3125, 22.0714, 34.245, -29.6608, -25.7916
4.41595, 5, 16.7791, 17.3266, 22.062, 34.2063, -29.6719, -25.7533
4.42386, 5, 16.7683, 17.3405, 22.0526, 34.1686, -29.6828, -25.7144
4.43186, 5, 16.7575, 17.3543, 22.0432, 34.1309, -29.6937, -25.6755
4.44, 5, 16.7468, 17.3682, 22.0339, 34.0924, -29.7045, -25.6373
4.44786, 5, 16.7359, 17.3823, 22.0246, 34.0542, -29.7152, -25.5991
4.45587, 5, 16.725, 17.3962, 22.0153, 34.0168, -29.726, -25.5607
4.46393, 5, 16.714, 17.4099, 22.0061, 33.9794, -29.7369, -25.5217
4.47186, 5, 16.7032, 17.4238, 21.9969, 33.9412, -29.748, -25.4829
4.47995, 5, 16.6923, 17.4379, 21.9877, 33.9031, -29.7592, -25.4448
4.48795, 5, 16.6814, 17.452, 21.9785, 33.8658, -29.7707, -25.4066
4.49594, 5, 16.6707, 17.4659, 21.9693, 33.8282, -29.7823, -25.3683
4.50389, 5, 16.66, 17.4798, 21.96, 33.7899, -29.7941, -25.3295
4.51192, 5, 16.6492, 17.4938, 21.9508, 33.7523, -29.8057, -25.291
4.51992, 5, 16.6384, 17.5079, 21.9416, 33.7152, -29.8172, -25.2531
4.52796, 5, 16.6278, 17.5217, 21.9323, 33.6774, -29.8285, -25.2151
4.53605, 5, 16.6172, 17.5354, 21.9231, 33.6391, -29.8397, -25.1768
4.54356, 5, 16.6064, 17.5492, 21.9139, 33.6015, -29.8509, -25.1382
4.55204, 5, 16.5958, 17.5632, 21.9046, 33.5642, -29.862, -25.1001
4.56033, 5, 16.5852, 17.5771, 21.8955, 33.5262, -29.8732, -25.0623
4.56772, 5, 16.5745, 17.5909, 21.8864, 33.488, -29.8845, -25.0246
4.57605, 5, 16.5636, 17.6045, 21.8773, 33.4507, -29.8959, -24.9864
4.58446, 5, 16.5528, 17.6184, 21.8682, 33.4135, -29.9074, -24.948
4.5919, 5, 16.542, 17.6323, 21.859, 33.3756, -29.9191, -24.9101
4.60002, 5, 16.5312, 17.6461, 21.8497, 33.3376, -29.931, -24.8726
4.60686, 5, 16.5258, 17.653, 21.8451, 33.319, -29.937, -24.8538
4.61487, 5, 16.515, 17.6667, 21.836, 33.2821, -29.9487, -24.816
4.62404, 5, 16.4989, 17.6876, 21.8222, 33.2255, -29.9662, -24.7587
4.6309, 5, 16.4935, 17.6946, 21.8176, 33.2066, -29.9719, -24.7398
4.63886, 5, 16.4826, 17.7085, 21.8086, 33.1695, -29.9832, -24.7024
4.64827, 5, 16.4665, 17.7291, 21.7949, 33.1143, -30.0001, -24.6464
4.6549, 5, 16.4611, 17.736, 21.7904, 33.0954, -30.0057, -24.6275
4.66287, 5, 16.4503, 17.7499, 21.7815, 33.0576, -30.017, -24.5892
4.67238, 5, 16.4341, 17.7705, 21.7679, 33.0024, -30.0342, -24.5325
4.6812, 5, 16.4234, 17.784, 21.7589, 32.9653, -30.0457, -24.4951
4.68686, 5, 16.4179, 17.7908, 21.7545, 32.9464, -30.0516, -24.4763
4.69642, 5, 16.407, 17.8047, 21.7407, 32.8903, -30.0696, -24.4192
4.70518, 5, 16.3962, 17.8185, 21.7361, 32.872, -30.0757, -24.3811
4.71089, 5, 16.3854, 17.8323, 21.727, 32.8353, -30.0878, -24.3622
4.72095, 5, 16.369, 17.8528, 21.7133, 32.7788, -30.1058, -24.3062
4.72786, 5, 16.3636, 17.8597, 21.7088, 32.7602, -30.1117, -24.2874
4.73485, 5, 16.3528, 17.8736, 21.6998, 32.7234, -30.1235, -24.2495
4.74385, 5, 16.3419, 17.8874, 21.6907, 32.6865, -30.1351, -24.2114
4.75185, 5, 16.331, 17.901, 21.6816, 32.6488, -30.1467, -24.1738
4.75887, 5, 16.3202, 17.9146, 21.6727, 32.6113, -30.1583, -24.1364
4.76786, 5, 16.3094, 17.9284, 21.6638, 32.5747, -30.17, -24.0992
4.7759, 5, 16.2985, 17.9421, 21.6549, 32.5378, -30.1818, -24.0614
4.78286, 5, 16.2875, 17.9559, 21.646, 32.5003, -30.1937, -24.0234
4.79184, 5, 16.2766, 17.9695, 21.637, 32.4631, -30.2058, -23.986
4.79998, 5, 16.2657, 17.9832, 21.6279, 32.4266, -30.218, -23.9489
4.80686, 5, 16.2547, 17.997, 21.6189, 32.3898, -30.2304, -23.912
4.81588, 5, 16.2436, 18.0107, 21.6099, 32.3522, -30.2427, -23.8746
4.82392, 5, 16.2327, 18.0242, 21.6009, 32.3155, -30.2547, -23.837
4.83086, 5, 16.2218, 18.0377, 21.592, 32.2793, -30.2665, -23.8
4.83991, 5, 16.2108, 18.0514, 21.5831, 32.2427, -30.2783, -23.7633
4.84885, 5, 16.2, 18.0652, 21.574, 32.2054, -30.29, -23.7264
4.85486, 5, 16.1892, 18.0789, 21.5651, 32.1686, -30.3017, -23.6891
4.86385, 5, 16.1784, 18.0924, 21.5563, 32.1323, -30.3135, -23.6516
4.87191, 5, 16.1676, 18.1061, 21.5474, 32.0956, -30.3253, -23.6147
4.87992, 5, 16.1569, 18.1199, 21.5386, 32.0583, -30.3374, -23.5781
4.88791, 5, 16.1461, 18.1336, 21.5298, 32.0218, -30.3496, -23.5416
4.89584, 5, 16.1353, 18.1471, 21.5207, 31.9857, -30.3621, -23.5046
4.90385, 5, 16.1245, 18.1606, 21.5117, 31.9489, -30.3747, -23.4673
4.91191, 5, 16.1137, 18.1744, 21.5028, 31.9117, -30.3873, -23.4305
4.91991, 5, 16.1029, 18.1881, 21.4939, 31.8751, -30.3996, -23.394
4.92786, 5, 16.0919, 18.2018, 21.485, 31.839, -30.4118, -23.3573
4.93591, 5, 16.081, 18.2153, 21.4762, 31.8021, -30.4238, -23.3203
4.94384, 5, 16.0702, 18.229, 21.4674, 31.7649, -30.4357, -23.283
4.95185, 5, 16.0592, 18.2428, 21.4585, 31.7285, -30.4477, -23.2462
4.95998, 5, 16.0484, 18.2563, 21.4497, 31.6924, -30.4597, -23.2097
4.96784, 5, 16.0376, 18.2698, 21.441, 31.6556, -30.4719, -23.1733
4.97585, 5, 16.0267, 18.2832, 21.4323, 31.6185, -30.4841, -23.1365
4.98394, 5, 16.0157, 18.2969, 21.4236, 31.5823, -30.4965, -23.0994
4.99194, 5, 16.0049, 18.3106, 21.4148, 31.5463, -30.5091, -23.0628
5.00007, 5, 15.9941, 18.3242, 21.4058, 31.5096, -30.5218, -23.0266
5.00785, 5, 15.9832, 18.3377, 21.3969, 31.4728, -30.5343, -22.9904
5.01584, 5, 15.9724, 18.3513, 21.3881, 31.437, -30.5467, -22.954
5.02411, 5, 15.9616, 18.365, 21.3792, 31.4012, -30.5589, -22.917
5.03128, 5, 15.9507, 18.3786, 21.3704, 31.3648, -30.571, -22.8805
5.03936, 5, 15.9397, 18.392, 21.3617, 31.3282, -30.5831, -22.8445
5.04872, 5, 15.9288, 18.4055, 21.3528, 31.2924, -30.5952, -22.8087
5.05595, 5, 15.918, 18.4191, 21.344, 31.2566, -30.6074, -22.7726
5.06348, 5, 15.9071, 18.4327, 21.3354, 31.2202, -30.6198, -22.736
5.07273, 5, 15.8962, 18.4464, 21.3267, 31.1836, -30.6323, -22.6999
5.08003, 5, 15.8854, 18.4598, 21.3181, 31.1478, -30.6451, -22.6642
5.08785, 5, 15.8746, 18.4733, 21.3095, 31.1122, -30.6581, -22.6286
5.09683, 5, 15.8637, 18.487, 21.3006, 31.0757, -30.671, -22.5926
5.10388, 5, 15.8528, 18.5005, 21.2918, 31.0392, -30.6839, -22.5561
5.11089, 5, 15.8474, 18.5073, 21.2874, 31.0212, -30.6902, -22.538
5.12105, 5, 15.8311, 18.5273, 21.2743, 30.9677, -30.709, -22.4847
5.12806, 5, 15.8202, 18.5408, 21.2656, 30.9311, -30.7215, -22.4494
5.13484, 5, 15.8147, 18.5477, 21.2613, 30.9127, -30.7276, -22.4317
5.14419, 5, 15.7984, 18.5681, 21.2484, 30.8589, -30.7463, -22.378
5.15091, 5, 15.7929, 18.5748, 21.244, 30.8412, -30.7526, -22.3599
5.16032, 5, 15.7763, 18.595, 21.2309, 30.7871, -30.7715, -22.3061
5.16844, 5, 15.7653, 18.6086, 21.2224, 30.7507, -30.7844, -22.2708
5.17488, 5, 15.7598, 18.6154, 21.2181, 30.7328, -30.7909, -22.2532
5.18446, 5, 15.7433, 18.6356, 21.2052, 30.6797, -30.8106, -22.1993
5.19244, 5, 15.7323, 18.6489, 21.1967, 30.6435, -30.8236, -22.1631
5.20042, 5, 15.7269, 18.6556, 21.1879, 30.6072, -30.8364, -22.1276
5.20846, 5, 15.716, 18.6691, 21.1835, 30.5719, -30.849, -22.0924
5.21585, 5, 15.705, 18.6827, 21.1747, 30.5543, -30.8553, -22.0748
5.2229, 5, 15.6942, 18.6962, 21.1661, 30.519, -30.8678, -22.0393
5.2319, 5, 15.6833, 18.7095, 21.1575, 30.4828, -30.8802, -22.0032
5.23984, 5, 15.6724, 18.7229, 21.149, 30.4471, -30.8927, -21.9673
5.24692, 5, 15.6615, 18.7365, 21.1404, 30.4119, -30.9053, -21.932
5.25584, 5, 15.6505, 18.7499, 21.1318, 30.3765, -30.918, -21.8968
5.26382, 5, 15.6396, 18.7632, 21.1232, 30.3404, -30.931, -21.8616
5.27083, 5, 15.6285, 18.7764, 21.1148, 30.3048, -30.9442, -21.8258
5.27983, 5, 15.6174, 18.7899, 21.1063, 30.2699, -30.9576, -21.7901
5.28783, 5, 15.6064, 18.8034, 21.0978, 30.2346, -30.9707, -21.7548
5.29588, 5, 15.5954, 18.817, 21.0894, 30.1985, -30.9837, -21.7199
5.30383, 5, 15.5844, 18.8304, 21.0808, 30.1628, -30.9966, -21.6849
5.31185, 5, 15.5735, 18.8438, 21.072, 30.1277, -31.0094, -21.6495
5.31992, 5, 15.5626, 18.8573, 21.0634, 30.0924, -31.0221, -21.6139
5.32782, 5, 15.5516, 18.8708, 21.0548, 30.0563, -31.0348, -21.5791
5.3374, 5, 15.5406, 18.8841, 21.0463, 30.0206, -31.0477, -21.5444
5.3439, 5, 15.5297, 18.8974, 21.0378, 29.9857, -31.0606, -21.5098
5.35184, 5, 15.5188, 18.9108, 21.0293, 29.9506, -31.0738, -21.4749
5.36083, 5, 15.5078, 18.9243, 21.0207, 29.9147, -31.0871, -21.4394
5.36783, 5, 15.4969, 18.9378, 21.0121, 29.8791, -31.1006, -21.4044
5.37583, 5, 15.4859, 18.9511, 21.0038, 29.8443, -31.1139, -21.3699
5.3839, 5, 15.4749, 18.9644, 20.9954, 29.8094, -31.127, -21.3356
5.39182, 5, 15.4638, 18.9778, 20.987, 29.7737, -31.1399, -21.301
5.39983, 5, 15.4528, 18.9913, 20.9787, 29.7383, -31.1527, -21.2661
5.40791, 5, 15.4419, 19.0046, 20.9702, 29.7038, -31.1654, -21.2311
5.41583, 5, 15.4308, 19.0178, 20.9615, 29.6692, -31.1782, -21.1966
5.42383, 5, 15.4198, 19.0311, 20.953, 29.6338, -31.1912, -21.1622
5.4319, 5, 15.4088, 19.0445, 20.9446, 29.5984, -31.2043, -21.1278
5.43983, 5, 15.3978, 19.0579, 20.9362, 29.5637, -31.2177, -21.0929
5.44783, 5, 15.3867, 19.0713, 20.9278, 29.5291, -31.2312, -21.0577
5.4559, 5, 15.3757, 19.0845, 20.9194, 29.4939, -31.2449, -21.0231
5.46383, 5, 15.3648, 19.0979, 20.9109, 29.4585, -31.2585, -20.9889
5.47182, 5, 15.3537, 19.1112, 20.9024, 29.4238, -31.272, -20.9546
5.4799, 5, 15.3426, 19.1245, 20.8941, 29.3894, -31.2853, -20.9201
5.48787, 5, 15.3316, 19.1377, 20.8858, 29.3543, -31.2986, -20.8851
5.49589, 5, 15.3204, 19.1509, 20.8775, 29.3189, -31.3117, -20.8505
5.50391, 5, 15.3092, 19.1643, 20.8692, 29.2843, -31.3248, -20.8164
5.51183, 5, 15.298, 19.1777, 20.8608, 29.2498, -31.338, -20.7821
5.51989, 5, 15.2869, 19.1911, 20.8522, 29.2148, -31.3514, -20.748
5.52794, 5, 15.2757, 19.2043, 20.8437, 29.1792, -31.3649, -20.7134
5.53586, 5, 15.2647, 19.2175, 20.8354, 29.1445, -31.3787, -20.6788
5.54399, 5, 15.2537, 19.231, 20.827, 29.1102, -31.3926, -20.6447
5.55215, 5, 15.2427, 19.2443, 20.8186, 29.0754, -31.4063, -20.6108
5.55958, 5, 15.2316, 19.2575, 20.8103, 29.0401, -31.4197, -20.577
5.568, 5, 15.2207, 19.2706, 20.8019, 29.0054, -31.433, -20.5429
5.57633, 5, 15.2097, 19.284, 20.7935, 28.9712, -31.4463, -20.5085
5.58372, 5, 15.1988, 19.2973, 20.7853, 28.9365, -31.4595, -20.4743
5.59195, 5, 15.1878, 19.3107, 20.7771, 28.9013, -31.4727, -20.4409
5.60064, 5, 15.1768, 19.3239, 20.7689, 28.8668, -31.4859, -20.4075
5.60789, 5, 15.1657, 19.3371, 20.7607, 28.8328, -31.4994, -20.3739
5.616, 5, 15.1546, 19.3505, 20.7525, 28.7988, -31.5132, -20.3396
5.6248, 5, 15.1434, 19.3638, 20.744, 28.7638, -31.5272, -20.3053
5.6324, 5, 15.1324, 19.377, 20.7355, 28.7292, -31.5413, -20.2717
5.63883, 5, 15.1269, 19.3835, 20.7314, 28.7121, -31.5482, -20.255
5.64888, 5, 15.1102, 19.4033, 20.7189, 28.661, -31.5688, -20.205
5.65639, 5, 15.0992, 19.4166, 20.7106, 28.6262, -31.5824, -20.1713
5.66428, 5, 15.0882, 19.4299, 20.7023, 28.5915, -31.5959, -20.1372
5.67315, 5, 15.077, 19.4431, 20.6941, 28.5576, -31.6093, -20.1036
5.67883, 5, 15.0715, 19.4497, 20.6899, 28.5407, -31.6161, -20.0868
5.68837, 5, 15.055, 19.4694, 20.6774, 28.4892, -31.6365, -20.0367
5.69721, 5, 15.0439, 19.4827, 20.6693, 28.4543, -31.6504, -20.003
5.70288, 5, 15.0384, 19.4893, 20.6652, 28.4372, -31.6574, -19.986
5.71233, 5, 15.0273, 19.5024, 20.6571, 28.4032, -31.6716, -19.9518
5.71985, 5, 15.0162, 19.5154, 20.649, 28.3692, -31.6857, -19.9179
5.72683, 5, 15.0051, 19.5286, 20.6408, 28.3344, -31.6997, -19.8847
5.73582, 5, 14.9938, 19.5419, 20.6324, 28.2998, -31.7134, -19.8515
5.74388, 5, 14.9828, 19.5551, 20.624, 28.2659, -31.7271, -19.8181
5.75082, 5, 14.9717, 19.5683, 20.6158, 28.2322, -31.7406, -19.7841
5.75981, 5, 14.9605, 19.5814, 20.6077, 28.1976, -31.7541, -19.7503
5.76785, 5, 14.9495, 19.5947, 20.5995, 28.1629, -31.7676, -19.717
5.77482, 5, 14.9384, 19.6079, 20.5914, 28.129, -31.7813, -19.6838
5.78382, 5, 14.9273, 19.6211, 20.5832, 28.0954, -31.7952, -19.6506
5.79184, 5, 14.9161, 19.6341, 20.5749, 28.0613, -31.8094, -19.6171
5.79883, 5, 14.9051, 19.6471, 20.5667, 28.0267, -31.8238, -19.5834
5.80782, 5, 14.894, 19.6604, 20.5587, 27.9931, -31.8381, -19.5501
5.81482, 5, 14.8829, 19.6736, 20.5507, 27.9598, -31.8522, -19.5173
5.82386, 5, 14.8718, 19.6868, 20.5426, 27.9261, -31.866, -19.4844
5.83181, 5, 14.8607, 19.6998, 20.5345, 27.8917, -31.8799, -19.4515
5.83995, 5, 14.8495, 19.713, 20.5263, 27.858, -31.8936, -19.4181
5.84682, 5, 14.8382, 19.7262, 20.518, 27.8247, -31.9074, -19.3847
5.85581, 5, 14.827, 19.7394, 20.5097, 27.7913, -31.9212, -19.3518
5.86388, 5, 14.8158, 19.7524, 20.5017, 27.757, -31.9353, -19.3194
5.87182, 5, 14.8046, 19.7653, 20.4936, 27.723, -31.9494, -19.2869
5.87985, 5, 14.7935, 19.7785, 20.4855, 27.6897, -31.9639, -19.2541
5.88784, 5, 14.7825, 19.7918, 20.4775, 27.6564, -31.9783, -19.2207
5.89583, 5, 14.7714, 19.805, 20.4693, 27.6224, -31.9926, -19.1877
5.90393, 5, 14.7603, 19.818, 20.4612, 27.5881, -32.0065, -19.1552
5.91181, 5, 14.7493, 19.831, 20.4532, 27.5547, -32.0204, -19.1229
5.92026, 5, 14.7384, 19.8442, 20.4453, 27.5215, -32.0342, -19.0906
5.92694, 5, 14.7273, 19.8573, 20.4374, 27.4876, -32.048, -19.0579
5.93582, 5, 14.7162, 19.8703, 20.4294, 27.4532, -32.0617, -19.025
5.94468, 5, 14.7052, 19.8832, 20.4215, 27.4197, -32.0757, -18.9924
5.95181, 5, 14.694, 19.8963, 20.4133, 27.3867, -32.0899, -18.9601
5.95981, 5, 14.6827, 19.9094, 20.4051, 27.3533, -32.1045, -18.9279
5.9686, 5, 14.6716, 19.9226, 20.397, 27.3192, -32.1191, -18.8955
5.97582, 5, 14.6605, 19.9357, 20.389, 27.2856, -32.1337, -18.8625
5.98381, 5, 14.6494, 19.9486, 20.3809, 27.2526, -32.148, -18.8295
5.99263, 5, 14.6382, 19.9617, 20.3729, 27.2193, -32.1621, -18.7969
5.99981, 5, 14.6272, 19.9749, 20.3649, 27.1855, -32.1762, -18.7649
6.00787, 5, 14.6161, 19.9879, 20.3568, 27.1518, -32.1902, -18.7329
6.01661, 5, 14.6049, 20.0009, 20.3488, 27.1189, -32.2041, -18.7007
6.02381, 5, 14.5939, 20.0138, 20.3409, 27.0862, -32.2183, -18.6681
6.03181, 5, 14.5829, 20.0269, 20.3331, 27.0529, -32.2326, -18.6354
6.04067, 5, 14.5718, 20.0401, 20.3252, 27.0192, -32.2472, -18.6033
6.04789, 5, 14.5607, 20.0532, 20.3173, 26.9862, -32.2619, -18.5714
6.05592, 5, 14.5496, 20.0661, 20.3094, 26.9535, -32.2765, -18.5395
6.06469, 5, 14.5385, 20.0791, 20.3014, 26.9204, -32.2909, -18.5073
6.07192, 5, 14.5272, 20.0923, 20.2933, 26.8867, -32.305, -18.4749
6.07992, 5, 14.5159, 20.1054, 20.2853, 26.8536, -32.3191, -18.4426
6.0887, 5, 14.5048, 20.1184, 20.2774, 26.8211, -32.3331, -18.4109
6.09583, 5, 14.4935, 20.1312, 20.2695, 26.7883, -32.3472, -18.3794
6.10384, 5, 14.4823, 20.1442, 20.2617, 26.7548, -32.3614, -18.3478
6.11281, 5, 14.4711, 20.1573, 20.2538, 26.7213, -32.3759, -18.3158
6.11989, 5, 14.4599, 20.1703, 20.2458, 26.6885, -32.3907, -18.2836
6.12794, 5, 14.4486, 20.1833, 20.2378, 26.6558, -32.4056, -18.2518
6.13694, 5, 14.4374, 20.1962, 20.23, 26.6225, -32.4205, -18.2204
6.14408, 5, 14.4263, 20.2092, 20.2223, 26.589, -32.4352, -18.1893
6.15084, 5, 14.4207, 20.2157, 20.2184, 26.5724, -32.4425, -18.1736
6.16026, 5, 14.4039, 20.2352, 20.2067, 26.5237, -32.4641, -18.1261
6.16835, 5, 14.3927, 20.248, 20.1989, 26.4909, -32.4785, -18.094
6.17637, 5, 14.3814, 20.2609, 20.1909, 26.4575, -32.4929, -18.0624
6.18433, 5, 14.3701, 20.2739, 20.1829, 26.4244, -32.5074, -18.0312
6.19081, 5, 14.3644, 20.2804, 20.1789, 26.4082, -32.5148, -18.0158
6.2004, 5, 14.3532, 20.3, 20.1672, 26.3596, -32.5371, -17.969
6.20838, 5, 14.342, 20.3065, 20.1632, 26.3432, -32.5521, -17.9373
6.2148, 5, 14.3308, 20.3193, 20.1554, 26.31, -32.5596, -17.9214
6.22489, 5, 14.3141, 20.3389, 20.1437, 26.2613, -32.5819, -17.8742
6.23181, 5, 14.3086, 20.3454, 20.1398, 26.2452, -32.5892, -17.8587
6.23984, 5, 14.2974, 20.3583, 20.1319, 26.2131, -32.6036, -17.8278
6.24779, 5, 14.2862, 20.3711, 20.124, 26.1801, -32.618, -17.7966
6.25582, 5, 14.2752, 20.3839, 20.1164, 26.1472, -32.6324, -17.7651
6.26286, 5, 14.2641, 20.3969, 20.1088, 26.115, -32.6468, -17.7332
6.27181, 5, 14.253, 20.41, 20.1012, 26.083, -32.6614, -17.7016
6.27985, 5, 14.2418, 20.423, 20.0935, 26.0504, -32.6762, -17.6705
6.28682, 5, 14.2307, 20.4358, 20.0858, 26.0174, -32.6913, -17.6397
6.29581, 5, 14.2194, 20.4486, 20.0778, 25.985, -32.7065, -17.6088
6.30385, 5, 14.2082, 20.4617, 20.0699, 25.9531, -32.7215, -17.5777
6.31181, 5, 14.197, 20.4746, 20.0621, 25.9209, -32.7362, -17.546
6.31979, 5, 14.1859, 20.4875, 20.0543, 25.8881, -32.7509, -17.5147
6.32682, 5, 14.1748, 20.5002, 20.0466, 25.8554, -32.7655, -17.4839
6.3358, 5, 14.1637, 20.5131, 20.0389, 25.8234, -32.78, -17.4531
6.34385, 5, 14.1526, 20.526, 20.0311, 25.7914, -32.7947, -17.4223
6.35279, 5, 14.1414, 20.539, 20.0233, 25.7588, -32.8096, -17.3911
6.35888, 5, 14.1303, 20.5519, 20.0155, 25.7257, -32.8247, -17.3598
6.36789, 5, 14.1192, 20.5646, 20.0079, 25.6935, -32.8401, -17.3289
6.37579, 5, 14.1081, 20.5775, 20.0003, 25.6617, -32.8553, -17.2984
6.38376, 5, 14.0969, 20.5904, 19.9927, 25.6296, -32.8704, -17.2681
6.39186, 5, 14.0857, 20.6033, 19.9852, 25.5969, -32.8852, -17.2376
6.39979, 5, 14.0745, 20.616, 19.9776, 25.5644, -32.8999, -17.2068
6.40781, 5, 14.0632, 20.6287, 19.9698, 25.5326, -32.9145, -17.1757
6.41586, 5, 14.0518, 20.6416, 19.962, 25.5008, -32.9291, -17.1449
6.42389, 5, 14.0406, 20.6545, 19.9543, 25.4685, -32.9438, -17.1146
6.4318, 5, 14.0294, 20.6674, 19.9467, 25.436, -32.9588, -17.0846
6.43986, 5, 14.0181, 20.6802, 19.9391, 25.4043, -32.9742, -17.0544
6.4478, 5, 14.007, 20.6929, 19.9315, 25.3729, -32.9897, -17.0239
6.4558, 5, 13.9958, 20.7058, 19.9239, 25.3412, -33.0051, -16.993
6.46386, 5, 13.9846, 20.7187, 19.9161, 25.3088, -33.0204, -16.9624
6.47178, 5, 13.9734, 20.7315, 19.9084, 25.2767, -33.0353, -16.9322
6.4798, 5, 13.9623, 20.7441, 19.9009, 25.2451, -33.0503, -16.9024
6.48787, 5, 13.9512, 20.7569, 19.8934, 25.2137, -33.0651, -16.8724
6.49583, 5, 13.94, 20.7697, 19.886, 25.1815, -33.08, -16.8422
6.50403, 5, 13.9288, 20.7826, 19.8785, 25.1492, -33.095, -16.8117
6.51186, 5, 13.9176, 20.7955, 19.871, 25.1176, -33.1101, -16.7813
6.51979, 5, 13.9063, 20.8082, 19.8634, 25.0863, -33.1256, -16.7513
6.528, 5, 13.8948, 20.8209, 19.8556, 25.0548, -33.1412, -16.7216
6.53582, 5, 13.8835, 20.8338, 19.8479, 25.0225, -33.1565, -16.6917
6.5439, 5, 13.8722, 20.8466, 19.8403, 24.9904, -33.1716, -16.6616
6.55233, 5, 13.8608, 20.8593, 19.8328, 24.9591, -33.1865, -16.6309
6.55935, 5, 13.8495, 20.8718, 19.8253, 24.9277, -33.2014, -16.6005
6.5679, 5, 13.8383, 20.8845, 19.8177, 24.8957, -33.2162, -16.5705
6.57636, 5, 13.827, 20.8972, 19.8103, 24.8635, -33.2312, -16.5409
6.58339, 5, 13.8213, 20.9036, 19.8065, 24.8319, -33.2463, -16.5114
6.59179, 5, 13.8044, 20.9227, 19.7951, 24.8006, -33.2617, -16.4816
6.60074, 5, 13.7932, 20.9353, 19.7877, 24.7693, -33.2774, -16.4514
6.60783, 5, 13.7819, 20.948, 19.7804, 24.7371, -33.2931, -16.4212
6.61585, 5, 13.7707, 20.9607, 19.7731, 24.7052, -33.3085, -16.3914
6.62486, 5, 13.7594, 20.9735, 19.7657, 24.6739, -33.3239, -16.362
6.63193, 5, 13.7481, 20.9861, 19.7583, 24.6429, -33.3389, -16.3325
6.64009, 5, 13.7367, 20.9986, 19.7508, 24.6113, -33.354, -16.303
6.64678, 5, 13.7311, 21.0049, 19.7469, 24.5954, -33.3615, -16.2881
6.65613, 5, 13.7143, 21.0241, 19.7355, 24.5483, -33.3843, -16.2432
6.66279, 5, 13.7087, 21.0304, 19.7318, 24.5328, -33.392, -16.2282
6.67313, 5, 13.6919, 21.0495, 19.7206, 24.4866, -33.4156, -16.1842
6.67883, 5, 13.6864, 21.0557, 19.7169, 24.4709, -33.4235, -16.1696
6.68835, 5, 13.6695, 21.0748, 19.7057, 24.4234, -33.447, -16.1258
6.69736, 5, 13.6582, 21.0875, 19.6982, 24.3925, -33.4625, -16.0963
6.70285, 5, 13.6526, 21.0938, 19.6944, 24.3772, -33.4701, -16.0814
6.71247, 5, 13.6357, 21.1127, 19.6831, 24.3307, -33.4929, -16.0368
6.7198, 5, 13.63, 21.1189, 19.6794, 24.3149, -33.5005, -16.0221
6.72778, 5, 13.6186, 21.1315, 19.6722, 24.2833, -33.5155, -15.9932
6.73583, 5, 13.6074, 21.1443, 19.6649, 24.2523, -33.5308, -15.9643
6.74384, 5, 13.5961, 21.157, 19.6576, 24.2216, -33.5463, -15.9352
6.75182, 5, 13.5847, 21.1697, 19.6503, 24.1907, -33.5622, -15.9058
6.75978, 5, 13.5734, 21.1822, 19.643, 24.1589, -33.5781, -15.8763
6.76778, 5, 13.5622, 21.1949, 19.6355, 24.1276, -33.5939, -15.847
6.77478, 5, 13.5509, 21.2076, 19.628, 24.0968, -33.6095, -15.8181
6.78383, 5, 13.5397, 21.2203, 19.6206, 24.0662, -33.625, -15.7894
6.79178, 5, 13.5285, 21.2329, 19.6133, 24.0349, -33.6404, -15.7607
6.79983, 5, 13.5173, 21.2453, 19.606, 24.0031, -33.6557, -15.7317
6.80778, 5, 13.5059, 21.2579, 19.5987, 23.9721, -33.6711, -15.7024
6.81579, 5, 13.4947, 21.2706, 19.5914, 23.9415, -33.6868, -15.6733
6.82278, 5, 13.4835, 21.2832, 19.5839, 23.911, -33.7027, -15.6446
6.83177, 5, 13.4721, 21.2958, 19.5765, 23.8797, -33.7188, -15.616
6.83979, 5, 13.4608, 21.3082, 19.5692, 23.8484, -33.7347, -15.5874
6.8498, 5, 13.4437, 21.3271, 19.5585, 23.8025, -33.7582, -15.5438
6.85579, 5, 13.4379, 21.3335, 19.5549, 23.7873, -33.7659, -15.5291
6.86478, 5, 13.4264, 21.3461, 19.5477, 23.7565, -33.7813, -15.4997
6.87079, 5, 13.415, 21.3586, 19.5405, 23.7252, -33.7967, -15.4708
6.87978, 5, 13.4036, 21.371, 19.5332, 23.6943, -33.812, -15.4422
6.88778, 5, 13.3921, 21.3836, 19.5258, 23.664, -33.8277, -15.4138
6.89582, 5, 13.3808, 21.3963, 19.5184, 23.6339, -33.8437, -15.3854
6.90382, 5, 13.3695, 21.4089, 19.511, 23.6033, -33.8599, -15.3566
6.91191, 5, 13.3582, 21.4214, 19.5038, 23.5722, -33.8761, -15.3276
6.91978, 5, 13.3469, 21.4339, 19.4966, 23.5417, -33.8921, -15.2987
6.92777, 5, 13.3357, 21.4464, 19.4894, 23.5115, -33.9078, -15.27
6.93586, 5, 13.3246, 21.459, 19.4821, 23.4813, -33.9235, -15.2417
6.94383, 5, 13.3133, 21.4715, 19.4749, 23.4505, -33.9391, -15.2134
6.95177, 5, 13.302, 21.4839, 19.4676, 23.4196, -33.9547, -15.185
6.95985, 5, 13.2908, 21.4962, 19.4603, 23.3894, -33.9704, -15.1561
6.96778, 5, 13.2794, 21.5088, 19.4532, 23.3595, -33.9864, -15.1273
6.97577, 5, 13.268, 21.5214, 19.4462, 23.3292, -34.0026, -15.0989
6.98391, 5, 13.2567, 21.5339, 19.4391, 23.2982, -34.0188, -15.0708
6.99177, 5, 13.2454, 21.5464, 19.4321, 23.2675, -34.0347, -15.0429
6.99978, 5, 13.234, 21.5588, 19.425, 23.2373, -34.0504, -15.0149
7.00784, 5, 13.2227, 21.5714, 19.4178, 23.2072, -34.0661, -14.9865
7.01584, 5, 13.2114, 21.584, 19.4104, 23.1767, -34.0816, -14.9579
7.02389, 5, 13.2, 21.5965, 19.4031, 23.1458, -34.0972, -14.9294
7.03193, 5, 13.1887, 21.6089, 19.3959, 23.1153, -34.1129, -14.9015
7.03981, 5, 13.1774, 21.6213, 19.3888, 23.0854, -34.129, -14.8737
7.04791, 5, 13.1661, 21.6338, 19.3816, 23.0556, -34.1453, -14.8461
7.05667, 5, 13.1547, 21.6463, 19.3745, 23.0251, -34.1617, -14.8182
7.06395, 5, 13.1433, 21.6588, 19.3673, 22.9944, -34.178, -14.7899
7.07194, 5, 13.132, 21.6712, 19.3601, 22.9642, -34.194, -14.7616
7.08075, 5, 13.1205, 21.6835, 19.3528, 22.9345, -34.2099, -14.7335
7.08788, 5, 13.109, 21.696, 19.3458, 22.9047, -34.2256, -14.7057
7.09595, 5, 13.0977, 21.7084, 19.3388, 22.8743, -34.2414, -14.6782
7.10473, 5, 13.0864, 21.7207, 19.3318, 22.8439, -34.2574, -14.6507
7.11181, 5, 13.075, 21.733, 19.3248, 22.8142, -34.2735, -14.6229
7.11987, 5, 13.0637, 21.7453, 19.3178, 22.7847, -34.2899, -14.5948
7.12878, 5, 13.0524, 21.7578, 19.3108, 22.755, -34.3064, -14.5667
7.13606, 5, 13.041, 21.7703, 19.3036, 22.7246, -34.3227, -14.5391
7.14283, 5, 13.0353, 21.7766, 19.3, 22.7095, -34.3307, -14.5253
7.15288, 5, 13.0184, 21.7952, 19.2892, 22.6648, -34.3545, -14.4843
7.16023, 5, 13.0071, 21.8076, 19.2823, 22.6355, -34.3704, -14.4568
7.16678, 5, 13.0014, 21.8138, 19.2788, 22.6207, -34.3783, -14.4429
7.17623, 5, 12.9844, 21.8327, 19.2682, 22.5754, -34.4021, -14.4007
7.18277, 5, 12.9786, 21.8389, 19.2648, 22.5604, -34.4102, -14.3866
7.19232, 5, 12.9613, 21.8573, 19.2543, 22.516, -34.4348, -14.3451
7.20033, 5, 12.9498, 21.8696, 19.2471, 22.4868, -34.4515, -14.318
7.20678, 5, 12.9441, 21.8758, 19.2436, 22.472, -34.4598, -14.3043
7.2163, 5, 12.9328, 21.8883, 19.2365, 22.4419, -34.4761, -14.2637
7.22434, 5, 12.9213, 21.9008, 19.2297, 22.4118, -34.4923, -14.25
7.23251, 5, 12.91, 21.9131, 19.2228, 22.3822, -34.5084, -14.2083
7.23976, 5, 12.8987, 21.9253, 19.2159, 22.3529, -34.5244, -14.1945
7.24782, 5, 12.8874, 21.9377, 19.209, 22.3235, -34.5406, -14.1672
7.25476, 5, 12.876, 21.9502, 19.2021, 22.2931, -34.557, -14.1401
7.26382, 5, 12.8648, 21.9625, 19.195, 22.263, -34.5736, -14.1131
7.27179, 5, 12.8535, 21.9748, 19.1879, 22.2336, -34.5903, -14.0863
7.27876, 5, 12.8422, 21.987, 19.1808, 22.2044, -34.607, -14.0591
7.28787, 5, 12.831, 21.9993, 19.1739, 22.175, -34.6233, -14.0315
7.29581, 5, 12.8197, 22.0117, 19.1669, 22.1448, -34.6395, -14.0041
7.30382, 5, 12.8083, 22.0241, 19.16, 22.1152, -34.6555, -13.9775
7.31176, 5, 12.7969, 22.0364, 19.1531, 22.086, -34.6714, -13.9508
7.31982, 5, 12.7856, 22.0486, 19.1462, 22.0569, -34.6874, -13.9242
7.32778, 5, 12.7742, 22.0609, 19.1393, 22.0275, -34.7038, -13.8976
7.33576, 5, 12.7628, 22.0734, 19.1323, 21.9976, -34.7205, -13.8705
7.34388, 5, 12.7515, 22.0856, 19.1254, 21.9681, -34.7374, -13.8433
7.35176, 5, 12.7402, 22.0977, 19.1187, 21.9392, -34.7541, -13.8163
7.36075, 5, 12.7289, 22.1098, 19.112, 21.9106, -34.7706, -13.7898
7.36783, 5, 12.7175, 22.1221, 19.1053, 21.8814, -34.7869, -13.7634
7.37576, 5, 12.7062, 22.1344, 19.0985, 21.8517, -34.8032, -13.7372
7.38388, 5, 12.6948, 22.1467, 19.0917, 21.8225, -34.8194, -13.7109
7.39176, 5, 12.6834, 22.1589, 19.0848, 21.7935, -34.8357, -13.6842
7.3998, 5, 12.672, 22.1711, 19.0777, 21.7648, -34.8522, -13.6572
7.40782, 5, 12.6606, 22.1833, 19.0708, 21.7354, -34.869, -13.6307
7.41576, 5, 12.649, 22.1957, 19.0639, 21.7056, -34.8859, -13.6042
7.42384, 5, 12.6375, 22.2079, 19.0571, 21.6765, -34.9026, -13.578
7.43182, 5, 12.6261, 22.22, 19.0502, 21.6478, -34.919, -13.5519
7.43975, 5, 12.6147, 22.2321, 19.0434, 21.6193, -34.9352, -13.5257
7.44776, 5, 12.6032, 22.2443, 19.0366, 21.5901, -34.9514, -13.4992
7.45582, 5, 12.5918, 22.2566, 19.0297, 21.5604, -34.9676, -13.4724
7.46382, 5, 12.5804, 22.2688, 19.0228, 21.5313, -34.984, -13.446
7.47177, 5, 12.5689, 22.281, 19.0159, 21.5025, -35.0007, -13.4199
7.47988, 5, 12.5574, 22.2931, 19.0092, 21.4737, -35.0177, -13.394
7.48775, 5, 12.546, 22.3053, 19.0026, 21.4445, -35.0347, -13.3681
7.49577, 5, 12.5345, 22.3176, 18.996, 21.4149, -35.0515, -13.3421
7.50388, 5, 12.5231, 22.3298, 18.9893, 21.3859, -35.0681, -13.3155
7.51175, 5, 12.5116, 22.3419, 18.9826, 21.3573, -35.0845, -13.2886
7.51998, 5, 12.5, 22.354, 18.9758, 21.3288, -35.101, -13.262
7.52775, 5, 12.4883, 22.3661, 18.969, 21.2997, -35.1174, -13.2359
7.53576, 5, 12.4767, 22.3783, 18.9621, 21.2702, -35.134, -13.2101
7.54417, 5, 12.4652, 22.3905, 18.9553, 21.2412, -35.1509, -13.1843
7.55123, 5, 12.4536, 22.4026, 18.9487, 21.2127, -35.168, -13.1585
7.55937, 5, 12.4421, 22.4147, 18.942, 21.1843, -35.185, -13.1324
7.56839, 5, 12.4307, 22.4267, 18.9353, 21.1554, -35.2017, -13.1059
7.57586, 5, 12.4192, 22.4388, 18.9286, 21.1262, -35.2182, -13.0797
7.58391, 5, 12.4077, 22.451, 18.9219, 21.0977, -35.2347, -13.0538
7.59247, 5, 12.3964, 22.4629, 18.9151, 21.0694, -35.251, -13.0281
7.59977, 5, 12.385, 22.4749, 18.9083, 21.0414, -35.2674, -13.0026
7.60779, 5, 12.3736, 22.4868, 18.9016, 21.0127, -35.2841, -12.9769
7.61675, 5, 12.3622, 22.4989, 18.8951, 20.9836, -35.3011, -12.9511
7.62389, 5, 12.3508, 22.5111, 18.8886, 20.9551, -35.3183, -12.925
7.6319, 5, 12.3392, 22.5232, 18.882, 20.927, -35.3354, -12.8988
7.64083, 5, 12.3276, 22.5353, 18.8754, 20.899, -35.3522, -12.8732
7.64807, 5, 12.3162, 22.5473, 18.8688, 20.8704, -35.369, -12.8481
7.65475, 5, 12.3105, 22.5533, 18.8655, 20.8559, -35.3773, -12.8355
7.66519, 5, 12.2932, 22.5717, 18.8553, 20.8129, -35.4021, -12.798
7.67081, 5, 12.2875, 22.5777, 18.8519, 20.7988, -35.4105, -12.7853
7.6805, 5, 12.2704, 22.5957, 18.8419, 20.7568, -35.4358, -12.7464
7.68914, 5, 12.2589, 22.6076, 18.8354, 20.7282, -35.4529, -12.7205
7.69482, 5, 12.2531, 22.6136, 18.8321, 20.7138, -35.4616, -12.7077
7.70434, 5, 12.236, 22.6318, 18.8222, 20.6707, -35.4872, -12.6699
7.71335, 5, 12.2303, 22.6379, 18.8156, 20.6427, -35.5039, -12.6449
7.72029, 5, 12.2188, 22.6499, 18.8123, 20.6288, -35.5122, -12.6199
7.72831, 5, 12.2073, 22.6618, 18.8057, 20.6006, -35.5289, -12.6074
7.73579, 5, 12.1959, 22.6737, 18.799, 20.5718, -35.5454, -12.5823
7.74291, 5, 12.1843, 22.6858, 18.7925, 20.543, -35.5621, -12.5568
7.7529, 5, 12.1669, 22.7039, 18.7829, 20.5008, -35.5876, -12.5187
7.75974, 5, 12.1612, 22.7099, 18.7797, 20.4869, -35.5962, -12.5062
7.76779, 5, 12.1497, 22.7218, 18.7732, 20.459, -35.6136, -12.4813
7.77574, 5, 12.1381, 22.7337, 18.7668, 20.4306, -35.6308, -12.4566
7.78374, 5, 12.1266, 22.7458, 18.7604, 20.402, -35.6478, -12.4319
7.79074, 5, 12.1152, 22.7579, 18.7539, 20.3739, -35.6646, -12.4069
7.79974, 5, 12.1036, 22.77, 18.7472, 20.3461, -35.6814, -12.3817
7.80774, 5, 12.092, 22.7819, 18.7405, 20.3183, -35.6982, -12.3563
7.81587, 5, 12.0806, 22.7938, 18.734, 20.2898, -35.715, -12.3311
7.8238, 5, 12.0691, 22.8059, 18.7275, 20.2613, -35.7322, -12.3064
7.83176, 5, 12.0576, 22.8179, 18.721, 20.2334, -35.7496, -12.2819
7.83874, 5, 12.0461, 22.8299, 18.7145, 20.2058, -35.7669, -12.2574
7.84774, 5, 12.0346, 22.8417, 18.708, 20.1785, -35.784, -12.2328
7.85676, 5, 12.0228, 22.8534, 18.7015, 20.1506, -35.8008, -12.2078
7.86377, 5, 12.0111, 22.8654, 18.695, 20.1223, -35.8175, -12.1823
7.87176, 5, 11.9996, 22.8774, 18.6884, 20.0944, -35.8342, -12.157
7.87978, 5, 11.988, 22.8894, 18.6819, 20.0668, -35.8511, -12.1321
7.88777, 5, 11.9763, 22.9013, 18.6756, 20.0393, -35.8681, -12.1077
7.89574, 5, 11.9648, 22.9131, 18.6693, 20.0114, -35.8855, -12.0834
7.90381, 5, 11.9532, 22.9251, 18.663, 19.9832, -35.9031, -12.0591
7.91175, 5, 11.9416, 22.9371, 18.6567, 19.9554, -35.9206, -12.0347
7.91974, 5, 11.9301, 22.9491, 18.6504, 19.928, -35.9378, -12.01
7.92781, 5, 11.9187, 22.9609, 18.644, 19.9007, -35.9548, -11.9849
7.93574, 5, 11.9072, 22.9727, 18.6375, 19.8731, -35.9718, -11.9602
7.94374, 5, 11.8956, 22.9846, 18.631, 19.8448, -35.9887, -11.936
7.95183, 5, 11.8842, 22.9966, 18.6245, 19.8168, -36.0059, -11.9118
7.95973, 5, 11.8725, 23.0086, 18.6182, 19.7893, -36.0232, -11.8876
7.96774, 5, 11.8608, 23.0205, 18.6119, 19.7619, -36.0409, -11.8634
7.97581, 5, 11.8491, 23.0323, 18.6055, 19.7343, -36.0586, -11.8391
7.9838, 5, 11.8376, 23.044, 18.5992, 19.7061, -36.0758, -11.8143
7.99175, 5, 11.826, 23.056, 18.593, 19.6781, -36.0929, -11.7896
7.99984, 5, 11.8144, 23.0679, 18.5866, 19.6507, -36.1099, -11.7653
8.00774, 5, 11.8029, 23.0797, 18.5801, 19.6235, -36.1267, -11.7414
8.0158, 5, 11.7914, 23.0914, 18.5737, 19.5963, -36.1438, -11.7177
8.02376, 5, 11.7797, 23.1031, 18.5674, 19.5684, -36.161, -11.694
8.03174, 5, 11.7683, 23.115, 18.5613, 19.5405, -36.1785, -11.6702
8.0398, 5, 11.7568, 23.1269, 18.5551, 19.5131, -36.1963, -11.646
8.04865, 5, 11.7453, 23.1388, 18.5489, 19.4861, -36.2137, -11.6215
8.05583, 5, 11.7338, 23.1506, 18.5427, 19.4591, -36.231, -11.5972
8.06389, 5, 11.7223, 23.1624, 18.5365, 19.4316, -36.2482, -11.5733
8.07268, 5, 11.7106, 23.1742, 18.5301, 19.4038, -36.2652, -11.5495
8.07984, 5, 11.699, 23.1861, 18.5236, 19.3765, -36.2822, -11.5261
8.08797, 5, 11.6874, 23.1979, 18.5172, 19.3496, -36.2994, -11.5025
8.09665, 5, 11.6759, 23.2096, 18.5109, 19.3229, -36.317, -11.4788
8.10374, 5, 11.6642, 23.2212, 18.5047, 19.2958, -36.3347, -11.4549
8.11183, 5, 11.6527, 23.2329, 18.4984, 19.2681, -36.3524, -11.4307
8.12075, 5, 11.6411, 23.2448, 18.4922, 19.2407, -36.3697, -11.4069
8.12791, 5, 11.6295, 23.2566, 18.4859, 19.2138, -36.3868, -11.3834
8.13594, 5, 11.6179, 23.2684, 18.4797, 19.1871, -36.4038, -11.3601
8.14479, 5, 11.6064, 23.2801, 18.4735, 19.1602, -36.4208, -11.3367
8.15216, 5, 11.5948, 23.2918, 18.4672, 19.1327, -36.438, -11.3131
8.15875, 5, 11.589, 23.2978, 18.4641, 19.119, -36.4467, -11.3014
8.16817, 5, 11.5716, 23.3156, 18.4549, 19.0784, -36.4733, -11.2657
8.17473, 5, 11.5658, 23.3214, 18.4519, 19.0651, -36.4822, -11.2538
8.18429, 5, 11.548, 23.339, 18.4429, 19.0251, -36.5088, -11.218
8.19226, 5, 11.5363, 23.3506, 18.4368, 18.9979, -36.5262, -11.1946
8.19875, 5, 11.5305, 23.3565, 18.4338, 18.9842, -36.5349, -11.1831
8.20829, 5, 11.513, 23.3743, 18.4246, 18.9434, -36.5608, -11.1486
8.21632, 5, 11.5072, 23.3802, 18.4215, 18.9167, -36.578, -11.1255
8.22273, 5, 11.4956, 23.392, 18.4152, 18.9034, -36.5868, -11.1138
8.23294, 5, 11.4783, 23.4094, 18.4058, 18.8629, -36.6132, -11.0782
8.23976, 5, 11.4725, 23.4153, 18.4027, 18.8491, -36.6221, -11.0662
8.24788, 5, 11.461, 23.4271, 18.3965, 18.8216, -36.64, -11.0424
8.25572, 5, 11.4496, 23.4389, 18.3904, 18.7946, -36.6575, -11.0188
8.26374, 5, 11.4381, 23.4506, 18.3842, 18.768, -36.6748, -10.9956
8.27173, 5, 11.4266, 23.4622, 18.3781, 18.7416, -36.692, -10.9727
8.27974, 5, 11.4151, 23.4737, 18.3719, 18.7148, -36.7091, -10.9498
8.28777, 5, 11.4035, 23.4855, 18.3658, 18.6875, -36.7264, -10.9266
8.29573, 5, 11.3918, 23.4973, 18.3596, 18.6605, -36.7439, -10.9033
8.30372, 5, 11.3801, 23.509, 18.3534, 18.634, -36.7618, -10.8797
8.31179, 5, 11.3685, 23.5207, 18.3473, 18.6077, -36.7799, -10.8562
8.31981, 5, 11.357, 23.5322, 18.3414, 18.5811, -36.7978, -10.8332
8.32772, 5, 11.3454, 23.5439, 18.3355, 18.554, -36.8154, -10.8104
8.33579, 5, 11.3339, 23.5557, 18.3295, 18.527, -36.8329, -10.7876
8.34373, 5, 11.3223, 23.5673, 18.3236, 18.5007, -36.8503, -10.7648
8.35172, 5, 11.3107, 23.5788, 18.3176, 18.4746, -36.8678, -10.7418
8.3598, 5, 11.2992, 23.5903, 18.3116, 18.4486, -36.8855, -10.7186
8.36773, 5, 11.2877, 23.6019, 18.3055, 18.4219, -36.9034, -10.6951
8.37572, 5, 11.2762, 23.6136, 18.2993, 18.3949, -36.9217, -10.6719
8.38379, 5, 11.2646, 23.6253, 18.2932, 18.3684, -36.9396, -10.649
8.39173, 5, 11.253, 23.637, 18.2872, 18.3421, -36.9574, -10.6266
8.39979, 5, 11.2413, 23.6486, 18.2812, 18.316, -36.9749, -10.6043
8.40775, 5, 11.2296, 23.6601, 18.2752, 18.2895, -36.9923, -10.5821
8.41574, 5, 11.218, 23.6718, 18.2692, 18.2625, -37.0097, -10.5596
8.42379, 5, 11.2063, 23.6835, 18.2633, 18.2359, -37.0272, -10.5368
8.43171, 5, 11.1946, 23.695, 18.2573, 18.2097, -37.0451, -10.5138
8.43973, 5, 11.183, 23.7065, 18.2513, 18.1838, -37.0634, -10.4907
8.44779, 5, 11.1714, 23.718, 18.2452, 18.1578, -37.0815, -10.4681
8.45573, 5, 11.1597, 23.7296, 18.2392, 18.1311, -37.0994, -10.4458
8.46373, 5, 11.1481, 23.7413, 18.2332, 18.1043, -37.1171, -10.4237
8.47179, 5, 11.1365, 23.7529, 18.2274, 18.0779, -37.1347, -10.4017
8.47971, 5, 11.1249, 23.7644, 18.2216, 18.0517, -37.1522, -10.3794
8.48779, 5, 11.1133, 23.7759, 18.2157, 18.0258, -37.1699, -10.3569
8.4958, 5, 11.1017, 23.7874, 18.2099, 17.9994, -37.188, -10.3341
8.50372, 5, 11.0901, 23.799, 18.204, 17.9725, -37.2061, -10.3116
8.5118, 5, 11.0783, 23.8106, 18.198, 17.946, -37.2243, -10.2892
8.51972, 5, 11.0666, 23.8221, 18.192, 17.9199, -37.2421, -10.2671
8.52772, 5, 11.0549, 23.8336, 18.1859, 17.8941, -37.2596, -10.2452
8.53606, 5, 11.0432, 23.845, 18.1799, 17.8682, -37.2771, -10.2233
8.54374, 5, 11.0315, 23.8565, 18.1741, 17.8416, -37.2945, -10.2015
8.55176, 5, 11.0199, 23.8682, 18.1682, 17.815, -37.3121, -10.1794
8.5602, 5, 11.0083, 23.8797, 18.1623, 17.7888, -37.3299, -10.1569
8.56727, 5, 10.9966, 23.8913, 18.1564, 17.7629, -37.3481, -10.1344
8.57586, 5, 10.985, 23.9027, 18.1506, 17.7372, -37.3665, -10.1121
8.58444, 5, 10.9735, 23.9141, 18.1448, 17.7112, -37.3845, -10.0899
8.59184, 5, 10.9619, 23.9257, 18.1389, 17.6848, -37.4024, -10.0681
8.59972, 5, 10.9503, 23.9371, 18.1329, 17.6586, -37.4202, -10.0465
8.6085, 5, 10.9388, 23.9486, 18.1271, 17.6331, -37.4378, -10.025
8.61576, 5, 10.9271, 23.9598, 18.1214, 17.6077, -37.4555, -10.0031
8.62381, 5, 10.9154, 23.9712, 18.1157, 17.5822, -37.4734, -9.98094
8.63286, 5, 10.9039, 23.9828, 18.1101, 17.5562, -37.4917, -9.95845
8.63988, 5, 10.8923, 23.9943, 18.1044, 17.5299, -37.51, -9.93594
8.64797, 5, 10.8807, 24.0058, 18.0987, 17.5041, -37.528, -9.91392
8.65694, 5, 10.8691, 24.0173, 18.093, 17.4786, -37.5459, -9.89223
8.66404, 5, 10.8576, 24.0286, 18.0872, 17.4534, -37.5635, -9.87071
8.67076, 5, 10.8518, 24.0343, 18.0842, 17.4406, -37.5723, -9.86008
8.68125, 5, 10.8342, 24.0517, 18.0753, 17.4015, -37.5988, -9.82802
8.68689, 5, 10.8284, 24.0575, 18.0724, 17.3884, -37.6077, -9.81723
8.69626, 5, 10.8109, 24.0745, 18.0637, 17.3498, -37.6352, -9.78436
8.70515, 5, 10.7993, 24.0858, 18.0579, 17.3245, -37.6537, -9.76246
8.71082, 5, 10.7934, 24.0914, 18.0551, 17.3118, -37.6629, -9.75154
8.72043, 5, 10.7758, 24.1087, 18.0464, 17.2732, -37.69, -9.71926
8.72771, 5, 10.7699, 24.1144, 18.0436, 17.2601, -37.699, -9.70861
8.73478, 5, 10.758, 24.1259, 18.0378, 17.2341, -37.7169, -9.68752
8.74378, 5, 10.7463, 24.1372, 18.0321, 17.2085, -37.7347, -9.66637
8.75173, 5, 10.7345, 24.1485, 18.0262, 17.1832, -37.7527, -9.6451
8.75877, 5, 10.7227, 24.1598, 18.0204, 17.1578, -37.7711, -9.62369
8.76775, 5, 10.711, 24.1713, 18.0147, 17.132, -37.7897, -9.6019
8.77571, 5, 10.6994, 24.1827, 18.0091, 17.1057, -37.8082, -9.58013
8.78376, 5, 10.6876, 24.1941, 18.0036, 17.0799, -37.8264, -9.55848
8.7917, 5, 10.676, 24.2054, 17.998, 17.0546, -37.8444, -9.53715
8.79971, 5, 10.6644, 24.2166, 17.9925, 17.0295, -37.8622, -9.51615
8.80674, 5, 10.6528, 24.2281, 17.9869, 17.0043, -37.88, -9.49529
8.81571, 5, 10.6412, 24.2396, 17.9813, 16.9786, -37.898, -9.47477
8.82371, 5, 10.6295, 24.251, 17.9757, 16.9527, -37.9163, -9.45392
8.83177, 5, 10.6177, 24.2623, 17.9699, 16.9273, -37.9349, -9.4329
8.8397, 5, 10.6058, 24.2735, 17.9641, 16.9021, -37.9535, -9.41141
8.84772, 5, 10.5939, 24.2849, 17.9584, 16.8771, -37.9718, -9.3899
8.85671, 5, 10.5822, 24.2963, 17.9528, 16.8517, -37.9899, -9.36864
8.86371, 5, 10.5703, 24.3076, 17.9473, 16.8259, -38.0079, -9.34767
8.87172, 5, 10.5585, 24.3188, 17.9416, 16.8003, -38.0259, -9.32696
8.87971, 5, 10.5467, 24.3299, 17.9361, 16.7753, -38.0441, -9.30646
8.88777, 5, 10.5349, 24.3411, 17.9306, 16.7505, -38.0625, -9.28601
8.89578, 5, 10.5232, 24.3524, 17.925, 16.7258, -38.0812, -9.26538
8.90372, 5, 10.5116, 24.3638, 17.9194, 16.7006, -38.0998, -9.24441
8.91173, 5, 10.4999, 24.3751, 17.9137, 16.675, -38.1179, -9.22318
8.91978, 5, 10.4883, 24.3864, 17.908, 16.6497, -38.1359, -9.20207
8.92771, 5, 10.4767, 24.3976, 17.9025, 16.6248, -38.1538, -9.18125
8.93576, 5, 10.4651, 24.4089, 17.8971, 16.6, -38.1718, -9.16071
8.9438, 5, 10.4533, 24.4204, 17.8916, 16.5752, -38.1898, -9.14039
8.9517, 5, 10.4417, 24.4316, 17.8862, 16.5498, -38.2083, -9.12019
8.9597, 5, 10.4301, 24.4429, 17.8808, 16.5244, -38.227, -9.0999
8.96778, 5, 10.4184, 24.4541, 17.8754, 16.4994, -38.2457, -9.07949
8.9757, 5, 10.4068, 24.4652, 17.8699, 16.4747, -38.264, -9.0588
8.98372, 5, 10.3953, 24.4766, 17.8643, 16.4501, -38.2822, -9.03793
8.99178, 5, 10.3836, 24.4879, 17.8586, 16.4252, -38.3003, -9.01693
8.99974, 5, 10.3718, 24.4992, 17.853, 16.3999, -38.3184, -8.99627
9.0077, 5, 10.3602, 24.5104, 17.8474, 16.3745, -38.3367, -8.97589
9.01577, 5, 10.3485, 24.5215, 17.8419, 16.3494, -38.3552, -8.95566
9.02371, 5, 10.3368, 24.5327, 17.8365, 16.3247, -38.374, -8.93562
9.03177, 5, 10.3251, 24.544, 17.8309, 16.3, -38.3925, -8.9155
9.03985, 5, 10.3133, 24.5552, 17.8255, 16.2749, -38.4108, -8.8953
9.04773, 5, 10.3015, 24.5663, 17.8201, 16.2495, -38.4288, -8.87468
9.05589, 5, 10.2896, 24.5774, 17.8147, 16.2243, -38.4468, -8.8538
9.06464, 5, 10.2779, 24.5885, 17.8092, 16.1996, -38.4648, -8.83294
9.0718, 5, 10.2662, 24.5998, 17.8037, 16.1751, -38.483, -8.81226
9.0799, 5, 10.2544, 24.6111, 17.7982, 16.1507, -38.5017, -8.792
9.0886, 5, 10.2428, 24.6223, 17.7929, 16.1258, -38.5205, -8.77196
9.09581, 5, 10.2311, 24.6335, 17.7876, 16.1005, -38.5392, -8.75206
9.10388, 5, 10.2194, 24.6445, 17.7824, 16.0756, -38.5577, -8.73227
9.1126, 5, 10.2077, 24.6556, 17.7771, 16.051, -38.576, -8.71239
9.11974, 5, 10.1961, 24.6669, 17.7719, 16.0267, -38.5942, -8.6921
9.12782, 5, 10.1845, 24.678, 17.7666, 16.0024, -38.6124, -8.67167
9.1367, 5, 10.1728, 24.6891, 17.7613, 15.9775, -38.6308, -8.6512
9.14397, 5, 10.1611, 24.7001, 17.7559, 15.9525, -38.6496, -8.6309
9.15191, 5, 10.1493, 24.7111, 17.7505, 15.9278, -38.6685, -8.61099
9.16086, 5, 10.1374, 24.7223, 17.7449, 15.9036, -38.6872, -8.5913
9.16816, 5, 10.1254, 24.7336, 17.7394, 15.8796, -38.7055, -8.5718
9.1747, 5, 10.1195, 24.7391, 17.7367, 15.8676, -38.7146, -8.56205
9.18419, 5, 10.1018, 24.7559, 17.7287, 15.8306, -38.7418, -8.53267
9.19086, 5, 10.0959, 24.7614, 17.726, 15.8181, -38.7509, -8.52276
9.20023, 5, 10.0784, 24.778, 17.718, 15.7812, -38.7784, -8.49266
9.20825, 5, 10.0665, 24.7892, 17.7127, 15.757, -38.7973, -8.47233
9.2147, 5, 10.0606, 24.7948, 17.71, 15.745, -38.8068, -8.46226
9.22436, 5, 10.0489, 24.8114, 17.702, 15.7088, -38.835, -8.43241
9.23171, 5, 10.0372, 24.8169, 17.6993, 15.6965, -38.8442, -8.42265
9.23876, 5, 10.0255, 24.8278, 17.6939, 15.6717, -38.8626, -8.40322
9.24879, 5, 10.008, 24.8445, 17.6859, 15.635, -38.8901, -8.3743
9.2557, 5, 10.0021, 24.8501, 17.6832, 15.623, -38.8992, -8.36474
9.2627, 5, 9.99028, 24.8612, 17.678, 15.599, -38.9177, -8.34557
9.2717, 5, 9.97838, 24.8723, 17.6729, 15.575, -38.9364, -8.32603
9.27974, 5, 9.96657, 24.8833, 17.6678, 15.5506, -38.9555, -8.3062
9.2868, 5, 9.95477, 24.8943, 17.6627, 15.5259, -38.9743, -8.28634
9.2957, 5, 9.943, 24.9054, 17.6576, 15.5013, -38.9929, -8.26661
9.30373, 5, 9.93124, 24.9166, 17.6524, 15.4771, -39.0112, -8.24714
9.3117, 5, 9.91952, 24.9276, 17.6472, 15.4531, -39.0294, -8.22798
9.31969, 5, 9.90772, 24.9387, 17.6419, 15.4291, -39.0476, -8.20899
9.32775, 5, 9.89598, 24.9495, 17.6366, 15.4046, -39.0662, -8.19
9.3357, 5, 9.8843, 24.9605, 17.6313, 15.3798, -39.085, -8.17099
9.34368, 5, 9.87259, 24.9717, 17.626, 15.3553, -39.104, -8.15194
9.35176, 5, 9.86086, 24.9828, 17.6208, 15.3312, -39.1229, -8.13256
9.35969, 5, 9.84919, 24.9939, 17.6157, 15.3074, -39.1416, -8.11284
9.36868, 5, 9.83746, 25.0049, 17.6105, 15.2835, -39.1601, -8.09319
9.37575, 5, 9.82558, 25.0157, 17.6054, 15.2592, -39.1785, -8.07385
9.38583, 5, 9.80795, 25.0323, 17.5977, 15.2226, -39.2063, -8.04541
9.39172, 5, 9.80208, 25.0378, 17.5951, 15.2105, -39.2156, -8.03596
9.39975, 5, 9.79027, 25.0487, 17.59, 15.1866, -39.2345, -8.01727
9.40769, 5, 9.7785, 25.0596, 17.5848, 15.1629, -39.2536, -7.99869
9.41578, 5, 9.76682, 25.0705, 17.5795, 15.1391, -39.2724, -7.97999
9.42369, 5, 9.75507, 25.0813, 17.5743, 15.1149, -39.291, -7.96106
9.4317, 5, 9.74327, 25.0924, 17.5692, 15.0904, -39.3094, -7.94192
9.43975, 5, 9.73153, 25.1034, 17.5642, 15.0664, -39.3277, -7.92244
9.44769, 5, 9.71982, 25.1144, 17.5592, 15.0428, -39.3461, -7.9031
9.4557, 5, 9.70798, 25.1254, 17.5542, 15.0194, -39.3648, -7.88405
9.46375, 5, 9.69615, 25.1362, 17.5492, 14.9961, -39.3839, -7.86513
9.47169, 5, 9.68433, 25.1472, 17.5442, 14.972, -39.4031, -7.8465
9.47969, 5, 9.67238, 25.1583, 17.5392, 14.9478, -39.422, -7.82796
9.48775, 5, 9.66041, 25.1692, 17.5341, 14.9238, -39.4408, -7.8095
9.49568, 5, 9.64855, 25.1801, 17.5289, 14.9001, -39.4593, -7.7909
9.50382, 5, 9.63666, 25.191, 17.5237, 14.8767, -39.4779, -7.77212
9.5117, 5, 9.62476, 25.2018, 17.5185, 14.8532, -39.4966, -7.753
9.51968, 5, 9.61297, 25.2127, 17.5134, 14.8291, -39.5155, -7.73371
9.52786, 5, 9.60119, 25.2237, 17.5084, 14.8048, -39.5347, -7.7146
9.53568, 5, 9.58938, 25.2347, 17.5033, 14.7809, -39.5538, -7.69561
9.54368, 5, 9.57768, 25.2456, 17.4983, 14.7573, -39.5727, -7.6769
9.55215, 5, 9.56604, 25.2563, 17.4933, 14.7341, -39.5912, -7.6585
9.55911, 5, 9.5543, 25.2671, 17.4883, 14.7108, -39.6097, -7.64014
9.56733, 5, 9.54256, 25.2781, 17.4833, 14.687, -39.6282, -7.62192
9.57616, 5, 9.5308, 25.289, 17.4783, 14.6628, -39.6469, -7.60358
9.58324, 5, 9.51892, 25.2999, 17.4732, 14.6389, -39.6659, -7.58523
9.59184, 5, 9.50697, 25.3107, 17.4682, 14.6152, -39.6852, -7.56645
9.60047, 5, 9.49512, 25.3215, 17.4632, 14.5919, -39.7043, -7.54754
9.6077, 5, 9.48329, 25.3322, 17.4583, 14.5685, -39.7232, -7.5288
9.61569, 5, 9.47146, 25.3432, 17.4535, 14.5447, -39.742, -7.51038
9.62456, 5, 9.45966, 25.3541, 17.4487, 14.5205, -39.7606, -7.49218
9.63183, 5, 9.4479, 25.365, 17.4439, 14.4967, -39.7792, -7.47412
9.63978, 5, 9.43601, 25.3758, 17.4391, 14.4732, -39.7981, -7.45622
9.6489, 5, 9.42412, 25.3864, 17.4343, 14.45, -39.8173, -7.4384
9.6559, 5, 9.41233, 25.3972, 17.4295, 14.4269, -39.8367, -7.42044
9.66403, 5, 9.4005, 25.4081, 17.4245, 14.4033, -39.8557, -7.40218
9.67068, 5, 9.39456, 25.4135, 17.422, 14.3914, -39.8651, -7.39304
9.67874, 5, 9.38268, 25.4242, 17.417, 14.3674, -39.8839, -7.37453
9.68825, 5, 9.36486, 25.4402, 17.4094, 14.332, -39.9116, -7.34672
9.69723, 5, 9.35283, 25.4508, 17.4044, 14.3088, -39.9303, -7.32844
9.70274, 5, 9.34685, 25.4562, 17.4019, 14.2972, -39.9398, -7.31945
9.71227, 5, 9.32908, 25.4725, 17.3945, 14.2624, -39.9687, -7.29269
9.72114, 5, 9.32312, 25.4779, 17.3896, 14.2387, -39.9881, -7.27494
9.72674, 5, 9.31117, 25.4887, 17.3872, 14.2268, -39.9977, -7.26619
9.73624, 5, 9.29936, 25.4994, 17.3823, 14.2034, -40.0166, -7.2487
9.74374, 5, 9.28754, 25.51, 17.3775, 14.1804, -40.0354, -7.23103
9.7517, 5, 9.2756, 25.5208, 17.3726, 14.1577, -40.0542, -7.21325
9.75974, 5, 9.26373, 25.5317, 17.3677, 14.1349, -40.073, -7.1952
9.76768, 5, 9.25196, 25.5424, 17.3628, 14.1116, -40.092, -7.17698
9.77572, 5, 9.24004, 25.5532, 17.3579, 14.088, -40.1113, -7.15887
9.78368, 5, 9.22815, 25.5638, 17.353, 14.0646, -40.1308, -7.14091
9.79167, 5, 9.21629, 25.5744, 17.3482, 14.0416, -40.1499, -7.12322
9.79972, 5, 9.20421, 25.5851, 17.3435, 14.0188, -40.1687, -7.10577
9.80767, 5, 9.19211, 25.5959, 17.3388, 13.996, -40.1873, -7.08838
9.81567, 5, 9.18018, 25.6067, 17.3341, 13.9729, -40.2058, -7.07101
9.82267, 5, 9.16828, 25.6173, 17.3295, 13.9494, -40.2246, -7.05362
9.83167, 5, 9.15631, 25.6279, 17.3248, 13.9259, -40.2436, -7.03606
9.83968, 5, 9.14445, 25.6385, 17.3201, 13.9029, -40.263, -7.01828
9.84667, 5, 9.13264, 25.6493, 17.3154, 13.88, -40.2825, -7.00032
9.85567, 5, 9.12071, 25.66, 17.3106, 13.8573, -40.3016, -6.98228
9.86467, 5, 9.10886, 25.6706, 17.3057, 13.8343, -40.3205, -6.9645
9.87067, 5, 9.09714, 25.6812, 17.3009, 13.8109, -40.3394, -6.94709
9.87967, 5, 9.08535, 25.6917, 17.2961, 13.7874, -40.3581, -6.92984
9.88768, 5, 9.07355, 25.7023, 17.2913, 13.7643, -40.3772, -6.91259
9.89573, 5, 9.06181, 25.7131, 17.2866, 13.7414, -40.3966, -6.89553
9.90368, 5, 9.04991, 25.7237, 17.2819, 13.7188, -40.4162, -6.87847
9.91174, 5, 9.0379, 25.7344, 17.2772, 13.696, -40.4355, -6.86129
9.91971, 5, 9.02606, 25.745, 17.2725, 13.6726, -40.4545, -6.8439
9.92767, 5, 9.01423, 25.7555, 17.2679, 13.649, -40.4733, -6.82628
9.93574, 5, 9.00233, 25.766, 17.2633, 13.6258, -40.492, -6.80849
9.94366, 5, 8.99053, 25.7767, 17.2586, 13.603, -40.5108, -6.7907
9.95167, 5, 8.97873, 25.7873, 17.2538, 13.5805, -40.5298, -6.77326
9.95976, 5, 8.96679, 25.7978, 17.2491, 13.5579, -40.5493, -6.75601
9.96767, 5, 8.95481, 25.8083, 17.2443, 13.535, -40.5688, -6.73895
9.97566, 5, 8.94304, 25.8187, 17.2396, 13.5118, -40.588, -6.72202
9.98374, 5, 8.9312, 25.8292, 17.2351, 13.4887, -40.6071, -6.70515
9.99167, 5, 8.91932, 25.8399, 17.2305, 13.4659, -40.626, -6.68819
9.99968, 5, 8.90745, 25.8504, 17.226, 13.4434, -40.6449, -6.67124
10.0077, 5, 8.89551, 25.861, 17.2215, 13.4209, -40.6639, -6.65398
10.0157, 5, 8.88344, 25.8715, 17.217, 13.3981, -40.6832, -6.63653
10.0237, 5, 8.87148, 25.8819, 17.2125, 13.3749, -40.7029, -6.61898
10.0318, 5, 8.85958, 25.8925, 17.208, 13.3518, -40.7224, -6.60159
10.0397, 5, 8.84752, 25.9031, 17.2034, 13.3292, -40.7415, -6.58442
10.0477, 5, 8.83559, 25.9136, 17.1987, 13.3069, -40.7604, -6.56739
10.0566, 5, 8.82371, 25.9242, 17.1941, 13.2849, -40.7792, -6.55062
10.0638, 5, 8.81169, 25.9346, 17.1894, 13.2625, -40.7981, -6.53388
10.0719, 5, 8.79968, 25.945, 17.1847, 13.2398, -40.8172, -6.51705
10.0806, 5, 8.78778, 25.9556, 17.1801, 13.2167, -40.8367, -6.50055
10.0878, 5, 8.77587, 25.9662, 17.1755, 13.1941, -40.8564, -6.48387
10.0959, 5, 8.76393, 25.9767, 17.171, 13.1717, -40.8758, -6.46706
10.1046, 5, 8.75199, 25.9872, 17.1665, 13.1495, -40.895, -6.44984
10.1117, 5, 8.73996, 25.9976, 17.162, 13.1272, -40.9141, -6.43267
10.1198, 5, 8.7278, 26.0079, 17.1576, 13.1045, -40.933, -6.41574
10.1286, 5, 8.7157, 26.0185, 17.1531, 13.0816, -40.952, -6.39902
10.1359, 5, 8.70369, 26.029, 17.1485, 13.0588, -40.9713, -6.38259
10.1438, 5, 8.69163, 26.0394, 17.1441, 13.0366, -40.9908, -6.36617
10.1527, 5, 8.6796, 26.0498, 17.1395, 13.0145, -41.0103, -6.34975
10.16, 5, 8.66771, 26.0601, 17.135, 12.9925, -41.0295, -6.33345
10.168, 5, 8.65573, 26.0705, 17.1306, 12.9701, -41.0485, -6.31698
10.1747, 5, 8.64972, 26.0757, 17.1284, 12.9587, -41.058, -6.30878
10.1842, 5, 8.63192, 26.0915, 17.1218, 12.9244, -41.0864, -6.28365
10.1922, 5, 8.62005, 26.1019, 17.1175, 12.9018, -41.1055, -6.26679
10.2002, 5, 8.60814, 26.1123, 17.1133, 12.8796, -41.125, -6.24981
10.2067, 5, 8.6022, 26.1175, 17.1111, 12.8685, -41.135, -6.24131
10.2162, 5, 8.58435, 26.1329, 17.1047, 12.8351, -41.1644, -6.21638
10.2242, 5, 8.57833, 26.1381, 17.1026, 12.8125, -41.1837, -6.20013
10.2307, 5, 8.56621, 26.1486, 17.0982, 12.801, -41.1933, -6.19211
10.2397, 5, 8.55427, 26.1589, 17.0938, 12.7782, -41.2123, -6.17611
10.2477, 5, 8.54236, 26.1693, 17.0894, 12.7559, -41.2314, -6.16001
10.2547, 5, 8.53042, 26.1797, 17.0849, 12.7338, -41.2507, -6.14409
10.2637, 5, 8.51857, 26.1899, 17.0804, 12.7119, -41.2704, -6.12805
10.2717, 5, 8.50673, 26.2003, 17.0759, 12.6898, -41.2901, -6.11212
10.2787, 5, 8.49479, 26.2109, 17.0713, 12.6673, -41.3096, -6.09593
10.2877, 5, 8.48288, 26.2213, 17.0669, 12.6446, -41.3288, -6.07935
10.2957, 5, 8.47107, 26.2317, 17.0625, 12.6222, -41.3479, -6.06279
10.3027, 5, 8.4592, 26.2421, 17.0582, 12.6001, -41.3668, -6.04634
10.3117, 5, 8.4473, 26.2523, 17.0539, 12.5783, -41.3858, -6.03001
10.3197, 5, 8.43546, 26.2627, 17.0496, 12.5565, -41.4052, -6.0141
10.3277, 5, 8.42349, 26.2732, 17.0452, 12.5343, -41.4249, -5.99817
10.3357, 5, 8.41139, 26.2835, 17.0408, 12.5119, -41.4447, -5.98233
10.3437, 5, 8.39936, 26.2937, 17.0365, 12.4895, -41.4642, -5.96667
10.3517, 5, 8.38745, 26.3039, 17.0321, 12.4675, -41.4836, -5.95092
10.3596, 5, 8.37537, 26.3141, 17.0278, 12.4458, -41.5027, -5.93513
10.3677, 5, 8.36338, 26.3244, 17.0234, 12.4243, -41.5219, -5.91918
10.3757, 5, 8.35149, 26.3348, 17.019, 12.4026, -41.5412, -5.90298
10.3846, 5, 8.33943, 26.3451, 17.0147, 12.3804, -41.5609, -5.8866
10.3918, 5, 8.32742, 26.3554, 17.0105, 12.358, -41.5808, -5.87014
10.3997, 5, 8.31551, 26.3657, 17.0063, 12.3358, -41.6003, -5.85405
10.4077, 5, 8.30355, 26.3757, 17.0023, 12.314, -41.6195, -5.83813
10.4156, 5, 8.29163, 26.3861, 16.9982, 12.2924, -41.6385, -5.82264
10.4237, 5, 8.27975, 26.3965, 16.994, 12.2708, -41.6575, -5.80716
10.4317, 5, 8.26777, 26.4067, 16.9898, 12.2489, -41.6767, -5.79161
10.4396, 5, 8.25563, 26.417, 16.9856, 12.2266, -41.6962, -5.7763
10.4477, 5, 8.24363, 26.4271, 16.9815, 12.2043, -41.7161, -5.76081
10.4557, 5, 8.23168, 26.4372, 16.9773, 12.1825, -41.736, -5.74543
10.4637, 5, 8.21971, 26.4476, 16.9731, 12.1609, -41.7555, -5.72981
10.4717, 5, 8.20777, 26.458, 16.9688, 12.1394, -41.7748, -5.71377
10.4797, 5, 8.1959, 26.4682, 16.9645, 12.1179, -41.7941, -5.69773
10.4877, 5, 8.18392, 26.4785, 16.9602, 12.0958, -41.8133, -5.6816
10.4957, 5, 8.17194, 26.4887, 16.956, 12.0736, -41.8327, -5.66568
10.5037, 5, 8.16006, 26.4987, 16.9519, 12.0515, -41.8525, -5.65011
10.5116, 5, 8.14809, 26.5089, 16.9478, 12.0298, -41.8724, -5.63467
10.5198, 5, 8.13608, 26.5192, 16.9437, 12.0082, -41.892, -5.61952
10.5277, 5, 8.12412, 26.5293, 16.9395, 11.9867, -41.9114, -5.6043
10.5356, 5, 8.11209, 26.5394, 16.9354, 11.965, -41.9305, -5.58897
10.5438, 5, 8.09987, 26.5494, 16.9313, 11.9427, -41.9496, -5.57386
10.5517, 5, 8.08777, 26.5593, 16.9271, 11.9204, -41.9689, -5.55855
10.5598, 5, 8.07583, 26.5694, 16.923, 11.8985, -41.9885, -5.54315
10.5682, 5, 8.06381, 26.5797, 16.9189, 11.877, -42.0086, -5.52748
10.5752, 5, 8.0519, 26.5899, 16.9147, 11.8556, -42.0285, -5.51158
10.5838, 5, 8.04004, 26.6001, 16.9104, 11.8342, -42.0482, -5.4959
10.5922, 5, 8.02808, 26.6102, 16.9063, 11.8125, -42.0676, -5.48044
10.5992, 5, 8.02208, 26.6152, 16.9023, 11.7905, -42.0869, -5.46515
10.6077, 5, 8.00426, 26.6303, 16.8983, 11.7685, -42.1062, -5.45002
10.6165, 5, 7.9924, 26.6407, 16.8944, 11.7469, -42.1257, -5.43487
10.6237, 5, 7.98044, 26.6508, 16.8905, 11.7255, -42.1456, -5.41992
10.6317, 5, 7.96851, 26.6608, 16.8865, 11.7043, -42.1656, -5.40502
10.6407, 5, 7.95654, 26.6709, 16.8826, 11.6829, -42.1853, -5.39003
10.6478, 5, 7.94442, 26.6808, 16.8786, 11.6612, -42.2047, -5.37515
10.6559, 5, 7.93231, 26.6908, 16.8746, 11.6392, -42.2239, -5.35994
10.6649, 5, 7.92033, 26.701, 16.8706, 11.6175, -42.2431, -5.34473
10.6719, 5, 7.90824, 26.7111, 16.8666, 11.5963, -42.2624, -5.32938
10.6786, 5, 7.90222, 26.7161, 16.8645, 11.5857, -42.2722, -5.32164
10.689, 5, 7.88429, 26.7313, 16.8583, 11.5543, -42.3021, -5.29869
10.6962, 5, 7.87226, 26.7411, 16.8541, 11.5331, -42.322, -5.28384
10.7042, 5, 7.86018, 26.751, 16.8499, 11.5114, -42.3417, -5.26918
10.7132, 5, 7.84826, 26.7612, 16.8459, 11.4897, -42.3612, -5.25462
10.7187, 5, 7.84232, 26.7662, 16.8439, 11.4789, -42.3709, -5.24741
10.7282, 5, 7.83033, 26.7811, 16.838, 11.4471, -42.4, -5.22553
10.7372, 5, 7.81835, 26.7861, 16.836, 11.426, -42.4196, -5.21116
10.7427, 5, 7.80636, 26.796, 16.8321, 11.4156, -42.4296, -5.20387
10.7517, 5, 7.79423, 26.8058, 16.8282, 11.3943, -42.4497, -5.18914
10.7597, 5, 7.78199, 26.8157, 16.8243, 11.3727, -42.4696, -5.17431
10.7677, 5, 7.7699, 26.8257, 16.8204, 11.3508, -42.4892, -5.15925
10.7756, 5, 7.7578, 26.8357, 16.8164, 11.3293, -42.5085, -5.14408
10.7836, 5, 7.74564, 26.8457, 16.8126, 11.308, -42.5277, -5.12894
10.7906, 5, 7.73353, 26.8557, 16.8087, 11.2871, -42.547, -5.11392
10.7997, 5, 7.72146, 26.8655, 16.8047, 11.2663, -42.5666, -5.09925
10.8076, 5, 7.70932, 26.8754, 16.8008, 11.2451, -42.5866, -5.0848
10.8157, 5, 7.69728, 26.8854, 16.7968, 11.2235, -42.6067, -5.07065
10.8237, 5, 7.68532, 26.8954, 16.7929, 11.2018, -42.6264, -5.05641
10.8316, 5, 7.6733, 26.9053, 16.7892, 11.1803, -42.6459, -5.04225
10.8398, 5, 7.6613, 26.9151, 16.7855, 11.1591, -42.6653, -5.02804
10.8476, 5, 7.64931, 26.9249, 16.7819, 11.1381, -42.6847, -5.01392
10.8557, 5, 7.63726, 26.9346, 16.7782, 11.1171, -42.7042, -4.99963
10.8646, 5, 7.62518, 26.9446, 16.7744, 11.0958, -42.7241, -4.98527
10.8716, 5, 7.61321, 26.9546, 16.7707, 11.0741, -42.7441, -4.97066
10.8797, 5, 7.6013, 26.9645, 16.7669, 11.0525, -42.7639, -4.95585
10.8877, 5, 7.58933, 26.9745, 16.7632, 11.0312, -42.7833, -4.94121
10.8957, 5, 7.57744, 26.9844, 16.7594, 11.0103, -42.8027, -4.92678
10.9037, 5, 7.56551, 26.9941, 16.7556, 10.9896, -42.8219, -4.91246
10.9116, 5, 7.5534, 27.004, 16.7518, 10.9688, -42.8413, -4.89837
10.9197, 5, 7.54134, 27.0141, 16.7478, 10.9476, -42.861, -4.88438
10.9277, 5, 7.52936, 27.0239, 16.7438, 10.926, -42.8811, -4.87029
10.9356, 5, 7.51724, 27.0337, 16.7399, 10.9046, -42.9012, -4.85647
10.9436, 5, 7.50512, 27.0435, 16.7361, 10.8835, -42.921, -4.84262
10.9517, 5, 7.49302, 27.0531, 16.7323, 10.8626, -42.9406, -4.82872
10.9597, 5, 7.48086, 27.0628, 16.7286, 10.8419, -42.9601, -4.81469
10.9676, 5, 7.4686, 27.0728, 16.7249, 10.8211, -42.9796, -4.80047
10.9757, 5, 7.45648, 27.0826, 16.7211, 10.7999, -42.9993, -4.78618
10.9836, 5, 7.4444, 27.0924, 16.7174, 10.7786, -43.0194, -4.7717
10.9917, 5, 7.43234, 27.1022, 16.7136, 10.7575, -43.0396, -4.75714
10.9998, 5, 7.42041, 27.1119, 16.7099, 10.7367, -43.0595, -4.74283
11.0076, 5, 7.40841, 27.1216, 16.7061, 10.7162, -43.0791, -4.72862
11.0156, 5, 7.3963, 27.1316, 16.7024, 10.6958, -43.0985, -4.7148
11.0237, 5, 7.38422, 27.1415, 16.6987, 10.6753, -43.1178, -4.70132
11.0316, 5, 7.37227, 27.1513, 16.6949, 10.6543, -43.1374, -4.68778
11.0398, 5, 7.36025, 27.1611, 16.6911, 10.633, -43.1573, -4.67417
11.0485, 5, 7.34821, 27.1707, 16.6873, 10.6121, -43.1775, -4.66065
11.0557, 5, 7.33617, 27.1804, 16.6836, 10.5914, -43.1976, -4.64706
11.0637, 5, 7.32399, 27.1902, 16.6801, 10.5709, -43.2174, -4.63337
11.0726, 5, 7.31171, 27.2001, 16.6765, 10.5505, -43.237, -4.61958
11.0798, 5, 7.29949, 27.2098, 16.6731, 10.5299, -43.2565, -4.6056
11.0878, 5, 7.28737, 27.2196, 16.6697, 10.509, -43.2761, -4.59134
11.0966, 5, 7.2752, 27.2292, 16.6662, 10.4878, -43.2959, -4.57711
11.1037, 5, 7.26318, 27.2387, 16.6627, 10.4669, -43.3161, -4.56298
11.1118, 5, 7.25119, 27.2484, 16.6592, 10.4463, -43.3363, -4.54888
11.1206, 5, 7.23912, 27.2582, 16.6557, 10.4258, -43.3561, -4.53521
11.1277, 5, 7.22709, 27.2679, 16.6521, 10.4054, -43.3757, -4.52172
11.1357, 5, 7.21515, 27.2775, 16.6486, 10.3849, -43.395, -4.50828
11.1446, 5, 7.20316, 27.2871, 16.645, 10.3638, -43.4145, -4.49504
11.1519, 5, 7.19115, 27.2966, 16.6414, 10.3427, -43.4342, -4.48171
11.1599, 5, 7.17919, 27.3062, 16.6378, 10.3218, -43.4542, -4.46831
11.1667, 5, 7.17318, 27.3111, 16.6359, 10.3114, -43.4643, -4.46151
11.1761, 5, 7.15494, 27.3258, 16.6304, 10.2807, -43.4946, -4.44122
11.184, 5, 7.1429, 27.3354, 16.6267, 10.2603, -43.5144, -4.42745
11.1907, 5, 7.13688, 27.3403, 16.6249, 10.2501, -43.5242, -4.42061
11.2003, 5, 7.11879, 27.3547, 16.6197, 10.2188, -43.5537, -4.39968
11.2082, 5, 7.10675, 27.3642, 16.6162, 10.1976, -43.5733, -4.38577
11.2162, 5, 7.09484, 27.3739, 16.6127, 10.1767, -43.5932, -4.3721
11.2243, 5, 7.08272, 27.3837, 16.6093, 10.1562, -43.6135, -4.35868
11.2323, 5, 7.07664, 27.3885, 16.6075, 10.1359, -43.6336, -4.34536
11.2417, 5, 7.06469, 27.4029, 16.6023, 10.1158, -43.6533, -4.33221
11.2477, 5, 7.05272, 27.4077, 16.6006, 10.1056, -43.663, -4.32563
11.2556, 5, 7.04064, 27.4172, 16.5972, 10.085, -43.6825, -4.3125
11.2636, 5, 7.02862, 27.4266, 16.5937, 10.0642, -43.7018, -4.29944
11.2717, 5, 7.01655, 27.4362, 16.5903, 10.0433, -43.7214, -4.28651
11.2797, 5, 7.00432, 27.4459, 16.5868, 10.0228, -43.7414, -4.2734
11.2876, 5, 6.99214, 27.4555, 16.5833, 10.0025, -43.7616, -4.2601
11.2956, 5, 6.98012, 27.4651, 16.5797, 9.98244, -43.7818, -4.24686
11.3036, 5, 6.96795, 27.4747, 16.5762, 9.9623, -43.8017, -4.23347
11.3117, 5, 6.95583, 27.4841, 16.5728, 9.9417, -43.8213, -4.22006
11.3197, 5, 6.94383, 27.4935, 16.5694, 9.92082, -43.8409, -4.20661
11.3276, 5, 6.93167, 27.5032, 16.5661, 9.90003, -43.8606, -4.19322
11.3357, 5, 6.91946, 27.5128, 16.5629, 9.87965, -43.8805, -4.17992
11.3453, 5, 6.90142, 27.5269, 16.558, 9.84969, -43.911, -4.16057
11.3516, 5, 6.89538, 27.5317, 16.5564, 9.83982, -43.921, -4.15415
11.3598, 5, 6.88325, 27.5411, 16.5531, 9.82001, -43.941, -4.14155
11.3694, 5, 6.87114, 27.5505, 16.5498, 9.79972, -43.9704, -4.12277
11.3756, 5, 6.85896, 27.5601, 16.5465, 9.77916, -43.9802, -4.11644
11.3837, 5, 6.84662, 27.5697, 16.5432, 9.75856, -43.9998, -4.10385
11.3916, 5, 6.83435, 27.5793, 16.5399, 9.73824, -44.0195, -4.09124
11.3998, 5, 6.82222, 27.5888, 16.5366, 9.71816, -44.0397, -4.07855
11.4077, 5, 6.81004, 27.5984, 16.5332, 9.69825, -44.06, -4.06556
11.4156, 5, 6.7979, 27.6077, 16.5298, 9.67832, -44.0801, -4.05256
11.4237, 5, 6.78582, 27.6171, 16.5263, 9.65804, -44.1, -4.03937
11.4316, 5, 6.77369, 27.6267, 16.5228, 9.63746, -44.1197, -4.02596
11.4397, 5, 6.76156, 27.6362, 16.5193, 9.61689, -44.1394, -4.0128
11.4477, 5, 6.74961, 27.6455, 16.5159, 9.59666, -44.1592, -3.99993
11.4556, 5, 6.73763, 27.655, 16.5126, 9.57675, -44.1793, -3.9871
11.4636, 5, 6.72561, 27.6643, 16.5094, 9.55696, -44.1997, -3.97457
11.4717, 5, 6.71362, 27.6735, 16.5062, 9.53718, -44.2199, -3.96222
11.4797, 5, 6.70155, 27.6829, 16.5029, 9.51705, -44.2397, -3.94984
11.4876, 5, 6.68935, 27.6925, 16.4997, 9.49651, -44.2594, -3.93768
11.4957, 5, 6.67722, 27.702, 16.4965, 9.47593, -44.2788, -3.92552
11.5036, 5, 6.66518, 27.7114, 16.4933, 9.45557, -44.2985, -3.91316
11.5116, 5, 6.65309, 27.7209, 16.4901, 9.43546, -44.3185, -3.90088
11.5197, 5, 6.64104, 27.7302, 16.4869, 9.41556, -44.3389, -3.88842
11.5276, 5, 6.62903, 27.7395, 16.4837, 9.39568, -44.3592, -3.87586
11.5359, 5, 6.61693, 27.7491, 16.4805, 9.37556, -44.3792, -3.86324
11.5436, 5, 6.60478, 27.7586, 16.4772, 9.35509, -44.399, -3.85046
11.5516, 5, 6.59276, 27.7679, 16.474, 9.33453, -44.4187, -3.83775
11.56, 5, 6.58069, 27.7772, 16.4707, 9.31423, -44.4384, -3.82503
11.5677, 5, 6.56859, 27.7866, 16.4675, 9.29434, -44.4583, -3.81259
11.5758, 5, 6.55651, 27.7957, 16.4643, 9.27464, -44.4787, -3.80031
11.5838, 5, 6.54438, 27.8051, 16.4611, 9.255, -44.499, -3.78805
11.5917, 5, 6.53213, 27.8146, 16.4581, 9.23521, -44.519, -3.77605
11.5998, 5, 6.51997, 27.824, 16.4551, 9.21504, -44.5387, -3.764
11.6078, 5, 6.50789, 27.8333, 16.4521, 9.19463, -44.5583, -3.752
11.6156, 5, 6.49571, 27.8426, 16.4492, 9.17445, -44.5779, -3.74005
11.6236, 5, 6.48358, 27.8518, 16.4462, 9.15458, -44.5978, -3.72804
11.6319, 5, 6.47153, 27.861, 16.4432, 9.13496, -44.618, -3.71604
11.6397, 5, 6.4594, 27.8704, 16.4402, 9.11547, -44.6385, -3.70392
11.6477, 5, 6.44719, 27.8799, 16.4371, 9.0958, -44.6588, -3.69167
11.6559, 5, 6.43514, 27.8892, 16.4342, 9.07581, -44.6788, -3.67921
11.6639, 5, 6.42308, 27.8985, 16.4312, 9.05565, -44.6986, -3.66672
11.6719, 5, 6.41097, 27.9078, 16.4281, 9.0355, -44.7183, -3.65429
11.6805, 5, 6.39889, 27.9169, 16.4251, 9.01577, -44.7382, -3.6421
11.6881, 5, 6.3867, 27.9262, 16.422, 8.99636, -44.7585, -3.62963
11.6961, 5, 6.37435, 27.9356, 16.4188, 8.97704, -44.779, -3.61757
11.7026, 5, 6.36819, 27.9402, 16.4172, 8.96742, -44.7892, -3.61167
11.7122, 5, 6.34984, 27.9542, 16.4123, 8.93797, -44.8193, -3.59392
11.7202, 5, 6.33758, 27.9634, 16.4091, 8.91796, -44.8391, -3.58231
11.7284, 5, 6.32537, 27.9726, 16.4059, 8.89781, -44.8588, -3.57088
11.7362, 5, 6.31929, 27.9771, 16.4043, 8.87804, -44.8785, -3.55943
11.7442, 5, 6.30713, 27.9862, 16.4013, 8.86824, -44.8885, -3.55361
11.7517, 5, 6.29489, 27.9955, 16.3983, 8.84878, -44.9089, -3.54197
11.7596, 5, 6.28271, 28.0048, 16.3952, 8.82943, -44.9294, -3.53039
11.7676, 5, 6.27058, 28.0138, 16.3922, 8.81001, -44.9497, -3.51865
11.7757, 5, 6.25842, 28.023, 16.3892, 8.79024, -44.9699, -3.50694
11.7836, 5, 6.24624, 28.0321, 16.3862, 8.77022, -44.9898, -3.49491
11.7916, 5, 6.23405, 28.0412, 16.3832, 8.75024, -45.0097, -3.48279
11.7996, 5, 6.22171, 28.0503, 16.3802, 8.73061, -45.0297, -3.47053
11.8076, 5, 6.20939, 28.0597, 16.3773, 8.71114, -45.05, -3.45832
11.8157, 5, 6.19718, 28.069, 16.3743, 8.69188, -45.0707, -3.44638
11.8236, 5, 6.18496, 28.0782, 16.3714, 8.67262, -45.091, -3.43452
11.8316, 5, 6.17278, 28.0874, 16.3685, 8.65308, -45.1111, -3.42277
11.8397, 5, 6.16065, 28.0965, 16.3655, 8.63315, -45.131, -3.41133
11.8476, 5, 6.14848, 28.1055, 16.3625, 8.61317, -45.1507, -3.3999
11.8556, 5, 6.13624, 28.1147, 16.3594, 8.59345, -45.1706, -3.38862
11.8637, 5, 6.1241, 28.1241, 16.3564, 8.57385, -45.1909, -3.37733
11.8716, 5, 6.11202, 28.1332, 16.3534, 8.55455, -45.2115, -3.36606
11.8807, 5, 6.09988, 28.1423, 16.3505, 8.53531, -45.232, -3.35474
11.8877, 5, 6.08775, 28.1514, 16.3477, 8.51585, -45.2523, -3.34313
11.8956, 5, 6.07557, 28.1604, 16.3449, 8.49597, -45.2723, -3.33165
11.9036, 5, 6.06325, 28.1693, 16.3423, 8.47588, -45.2922, -3.31998
11.9117, 5, 6.05097, 28.1784, 16.3396, 8.45603, -45.3121, -3.30825
11.9196, 5, 6.0388, 28.1876, 16.3369, 8.43655, -45.3323, -3.29648
11.9277, 5, 6.02655, 28.1968, 16.3342, 8.41727, -45.3527, -3.28452
11.9356, 5, 6.01428, 28.2059, 16.3315, 8.39813, -45.3732, -3.27272
11.9436, 5, 6.00209, 28.215, 16.3287, 8.37889, -45.3932, -3.26101
11.9517, 5, 5.98985, 28.2239, 16.3259, 8.35938, -45.4131, -3.24956
11.9596, 5, 5.97756, 28.2329, 16.3232, 8.33957, -45.4329, -3.23825
11.9676, 5, 5.96539, 28.2421, 16.3205, 8.31978, -45.4526, -3.22717
11.9757, 5, 5.9532, 28.2513, 16.3177, 8.30028, -45.4726, -3.21614
