hehonglu123/ABB_Primitive_Study/realrobot/movec_30_ori/curve_exe_v500_fine.csv
timestamp, cmd_num, J1, J2, J3, J4, J5, J6
0.000451, -1, -18.7718, 34.1302, 27.9459, -19.9682, -90.5851, -2.05585
0.003496, -1, -18.7718, 34.1302, 27.9459, -19.9682, -90.5851, -2.05585
0.027733, -1, -18.7718, 34.1302, 27.9459, -19.9682, -90.5851, -2.05578
0.029088, -1, -18.7718, 34.1302, 27.9459, -19.9682, -90.5851, -2.05578
0.030288, -1, -18.7718, 34.1302, 27.9459, -19.9682, -90.5851, -2.05578
0.0335, -1, -18.7718, 34.1302, 27.9459, -19.9682, -90.5851, -2.05576
0.040539, -1, -18.7718, 34.1302, 27.9459, -19.9682, -90.5851, -2.05578
0.047772, -1, -18.7717, 34.1302, 27.9459, -19.9682, -90.5851, -2.0558
0.055832, -1, -18.7705, 34.1299, 27.9459, -19.9682, -90.5851, -2.05579
0.063992, -1, -18.7668, 34.1287, 27.946, -19.968, -90.585, -2.05583
0.072019, -1, -18.7597, 34.1258, 27.9461, -19.967, -90.5837, -2.05586
0.080124, -1, -18.7486, 34.1205, 27.9461, -19.9629, -90.5795, -2.05606
0.088913, -1, -18.7317, 34.1119, 27.9462, -19.9523, -90.5691, -2.05763
0.096144, -1, -18.7062, 34.0989, 27.946, -19.9322, -90.5485, -2.0647
0.102655, -1, -18.6899, 34.0906, 27.9457, -19.9172, -90.533, -2.07115
0.113065, -1, -18.6241, 34.0574, 27.9427, -19.8435, -90.456, -2.10398
0.120267, -1, -18.5644, 34.0271, 27.9382, -19.765, -90.3742, -2.14025
0.128302, -1, -18.4908, 33.9899, 27.931, -19.6582, -90.2619, -2.19104
0.137108, -1, -18.4488, 33.9686, 27.9261, -19.5933, -90.1169, -2.25662
0.142714, -1, -18.3543, 33.9211, 27.9138, -19.4397, -90.0315, -2.29481
0.152685, -1, -18.1868, 33.837, 27.889, -19.1508, -89.7261, -2.43308
0.15965, -1, -18.1241, 33.8056, 27.8794, -19.0402, -89.6091, -2.48549
0.166735, -1, -17.9889, 33.7378, 27.8581, -18.8009, -89.3555, -2.59974
0.175712, -1, -17.8417, 33.6642, 27.835, -18.5419, -89.0801, -2.72365
0.183648, -1, -17.6839, 33.5852, 27.8108, -18.2681, -88.789, -2.85461
0.190676, -1, -17.5166, 33.5014, 27.7861, -17.9842, -88.4873, -2.99078
0.199651, -1, -17.3413, 33.4138, 27.7611, -17.6944, -88.1788, -3.12998
0.20765, -1, -17.1605, 33.3235, 27.7359, -17.4004, -87.8664, -3.27129
0.215704, -1, -16.9759, 33.2313, 27.7107, -17.1043, -87.5515, -3.41366
0.223654, -1, -16.7887, 33.1382, 27.6856, -16.807, -87.2352, -3.55644
0.231658, -1, -16.5999, 33.0447, 27.6605, -16.5085, -86.9176, -3.69963
0.238645, -1, -16.4101, 32.9509, 27.6353, -16.2095, -86.5991, -3.84298
0.247761, -1, -16.2201, 32.857, 27.6101, -15.9095, -86.2799, -3.98671
0.255645, -1, -16.0302, 32.7633, 27.585, -15.6085, -85.9599, -4.1308
0.264649, -1, -15.8406, 32.6695, 27.56, -15.3072, -85.6395, -4.275
0.271664, -1, -15.6517, 32.5758, 27.5348, -15.0058, -85.3185, -4.41975
0.280701, -1, -15.4631, 32.482, 27.5095, -14.7037, -84.9973, -4.56452
0.286658, -1, -15.2749, 32.3879, 27.4843, -14.4014, -84.6755, -4.70935
0.295648, -1, -15.0871, 32.2936, 27.4589, -14.0987, -84.3533, -4.85448
0.303683, -1, -14.8994, 32.1989, 27.4336, -13.7954, -84.0311, -4.99962
0.311747, -1, -14.7112, 32.1038, 27.4081, -13.4921, -83.7084, -5.14493
0.319662, -1, -14.522, 32.0086, 27.3825, -13.1887, -83.3855, -5.29041
0.327723, -1, -14.3317, 31.9132, 27.3568, -12.885, -83.0622, -5.43596
0.335647, -1, -14.1403, 31.8177, 27.3313, -12.5814, -82.7387, -5.58192
0.343656, -1, -13.9483, 31.7221, 27.3057, -12.2771, -82.415, -5.72778
0.35173, -1, -13.7559, 31.6266, 27.28, -11.9728, -82.0911, -5.87338
0.359645, -1, -13.5628, 31.5311, 27.2544, -11.6684, -81.7669, -6.01915
0.36765, -1, -13.3691, 31.4357, 27.2287, -11.3641, -81.443, -6.16474
0.375806, -1, -13.1755, 31.3404, 27.2031, -11.0598, -81.1189, -6.31057
0.38365, -1, -12.9824, 31.2452, 27.1775, -10.7554, -80.795, -6.4564
0.392191, -1, -12.79, 31.1501, 27.152, -10.4509, -80.4715, -6.60214
0.399643, -1, -12.598, 31.055, 27.1265, -10.1466, -80.148, -6.74818
0.407645, -1, -12.407, 30.9599, 27.101, -9.84245, -79.8245, -6.89405
0.416458, -1, -12.2168, 30.8648, 27.0753, -9.53843, -79.5011, -7.03964
0.423642, -1, -12.0275, 30.7696, 27.0497, -9.2346, -79.1776, -7.18536
0.43167, -1, -11.8386, 30.6743, 27.0242, -8.93097, -78.8542, -7.33074
0.440595, -1, -11.6498, 30.5789, 26.9987, -8.62736, -78.531, -7.47606
0.447655, -1, -11.4607, 30.4838, 26.9732, -8.32429, -78.2083, -7.62128
0.455916, -1, -11.2713, 30.3888, 26.9475, -8.0218, -77.8864, -7.76653
0.464721, -1, -11.0815, 30.294, 26.9221, -7.71967, -77.5647, -7.91125
0.471788, -1, -10.8915, 30.1994, 26.8967, -7.41809, -77.2437, -8.05574
0.480018, -1, -10.7009, 30.1051, 26.8714, -7.11682, -76.9233, -8.19979
0.488537, -1, -10.5104, 30.0109, 26.846, -6.81585, -76.6033, -8.34365
0.495761, -1, -10.3195, 29.9168, 26.8208, -6.5157, -76.2836, -8.48732
0.504237, -1, -10.129, 29.823, 26.7956, -6.21612, -75.9645, -8.63069
0.511181, -1, -10.034, 29.7762, 26.7831, -6.06646, -75.8051, -8.77387
0.519438, -1, -9.84458, 29.6827, 26.7455, -5.61852, -75.3281, -8.91706
0.52841, -1, -9.56208, 29.5427, 26.7203, -5.32043, -75.0111, -9.05962
0.536586, -1, -9.37486, 29.4496, 26.6953, -5.02302, -74.6948, -9.20186
0.543893, -1, -9.18872, 29.3566, 26.6704, -4.72659, -74.3794, -9.34363
0.55258, -1, -9.00351, 29.2638, 26.6455, -4.43079, -74.0646, -9.48503
0.560832, -1, -8.81904, 29.171, 26.6205, -4.13572, -73.7506, -9.62636
0.567957, -1, -8.63532, 29.0785, 26.5958, -3.84173, -73.4375, -9.76719
0.576872, -1, -8.45185, 28.9863, 26.5711, -3.54813, -73.1252, -9.90757
0.584026, -1, -8.26866, 28.8945, 26.5464, -3.25566, -72.8141, -10.0478
0.592466, -1, -8.08564, 28.8029, 26.5218, -2.9642, -72.5038, -10.1874
0.601047, -1, -7.90252, 28.7118, 26.4972, -2.67341, -72.1941, -10.3265
0.608177, -1, -7.71946, 28.621, 26.4729, -2.38376, -71.8856, -10.4651
0.616292, -1, -7.53672, 28.5304, 26.4486, -2.09491, -71.578, -10.6031
0.625072, -1, -7.35415, 28.4402, 26.4245, -1.80668, -71.2713, -10.7409
0.630711, -1, -7.26302, 28.3952, 26.4124, -1.663, -71.1184, -10.8097
0.640549, -1, -7.08118, 28.3054, 26.3762, -1.23372, -70.6614, -11.0151
0.64763, -1, -6.90018, 28.216, 26.3642, -1.09109, -70.5095, -11.0835
0.655661, -1, -6.7202, 28.1268, 26.3403, -0.806674, -70.2067, -11.2199
0.66368, -1, -6.54125, 28.0379, 26.3165, -0.523411, -69.9055, -11.3555
0.671644, -1, -6.36341, 27.9493, 26.2926, -0.240911, -69.6052, -11.4907
0.679627, -1, -6.18683, 27.861, 26.2689, 0.0405491, -69.3058, -11.6254
0.689891, -1, -5.92373, 27.7291, 26.2336, 0.460589, -68.8588, -11.8263
0.695629, -1, -5.83653, 27.6853, 26.2219, 0.599987, -68.7103, -11.8931
0.703634, -1, -5.66274, 27.5978, 26.1985, 0.878126, -68.4141, -12.0264
0.711708, -1, -5.48946, 27.5109, 26.1751, 1.15507, -68.119, -12.1591
0.718633, -1, -5.3166, 27.4243, 26.1518, 1.43086, -67.8251, -12.2913
0.727631, -1, -5.14396, 27.3381, 26.1287, 1.70583, -67.5326, -12.4228
0.738122, -1, -4.88553, 27.2096, 26.0943, 2.11582, -67.0964, -12.619
0.74263, -1, -4.79955, 27.1669, 26.0828, 2.25185, -66.9516, -12.684
0.751685, -1, -4.628, 27.0819, 26.0599, 2.52321, -66.663, -12.8137
0.759712, -1, -4.45694, 26.9972, 26.0372, 2.79317, -66.3757, -12.9428
0.767626, -1, -4.2862, 26.9128, 26.0145, 3.06184, -66.0895, -13.0714
0.776637, -1, -4.116, 26.8288, 25.992, 3.32965, -65.8045, -13.1994
0.783628, -1, -3.94683, 26.7451, 25.9696, 3.59629, -65.5208, -13.3273
0.791717, -1, -3.77894, 26.6619, 25.9473, 3.86158, -65.2382, -13.4544
0.799692, -1, -3.61224, 26.5789, 25.9251, 4.12587, -64.9567, -13.5807
0.807662, -1, -3.44666, 26.4962, 25.9029, 4.38893, -64.6768, -13.7065
0.815637, -1, -3.28212, 26.4139, 25.8808, 4.65064, -64.3981, -13.8317
0.823689, -1, -3.11865, 26.332, 25.8588, 4.91142, -64.1206, -13.9563
0.831646, -1, -2.95631, 26.2504, 25.8368, 5.17122, -63.8444, -14.0804
0.839629, -1, -2.79484, 26.1691, 25.8152, 5.42967, -63.5693, -14.2041
0.847693, -1, -2.63415, 26.0883, 25.7936, 5.68682, -63.2957, -14.3269
0.855627, -1, -2.47381, 26.0079, 25.7721, 5.94281, -63.0233, -14.4497
0.863628, -1, -2.31369, 25.928, 25.7507, 6.1975, -62.7521, -14.5718
0.871717, -1, -2.15395, 25.8483, 25.7293, 6.45092, -62.4822, -14.693
0.879639, -1, -1.99467, 25.7692, 25.708, 6.70352, -62.2134, -14.8139
0.887628, -1, -1.83577, 25.6904, 25.6869, 6.95505, -61.9458, -14.934
0.895688, -1, -1.67753, 25.612, 25.666, 7.20502, -61.6794, -15.0535
0.90363, -1, -1.51962, 25.5339, 25.6451, 7.45394, -61.4141, -15.1727
0.911643, -1, -1.36201, 25.4561, 25.6242, 7.70188, -61.1499, -15.2912
0.919692, -1, -1.20509, 25.3787, 25.6035, 7.94862, -60.8869, -15.4092
0.927626, -1, -1.04909, 25.3016, 25.5829, 8.19421, -60.6252, -15.527
0.93563, -1, -0.894217, 25.2248, 25.5624, 8.43898, -60.3647, -15.6442
0.943694, -1, -0.740673, 25.1483, 25.542, 8.68276, -60.1055, -15.7608
0.951644, -1, -0.588095, 25.0722, 25.5215, 8.92499, -59.8476, -15.8769
0.959771, -1, -0.436602, 24.9965, 25.5011, 9.16627, -59.591, -15.9922
0.967664, -1, -0.286202, 24.9211, 25.481, 9.40642, -59.3359, -16.1073
0.975752, -1, -0.136907, 24.8461, 25.4609, 9.64547, -59.0818, -16.2218
0.983799, -1, 0.0114556, 24.7714, 25.4411, 9.88328, -58.8286, -16.3359
0.992013, -1, 0.159115, 24.697, 25.4212, 10.1201, -58.5765, -16.4495
0.999812, -1, 0.306389, 24.623, 25.4013, 10.3561, -58.3254, -16.5624
1.00774, -1, 0.453553, 24.5494, 25.3815, 10.5908, -58.0753, -16.6752
1.01618, -1, 0.600688, 24.476, 25.3619, 10.8244, -57.8262, -16.7872
1.02324, -1, 0.674109, 24.4394, 25.3521, 10.9407, -57.7021, -16.8985
1.03168, -1, 0.89395, 24.3302, 25.323, 11.2885, -57.3314, -17.0095
1.04049, -1, 1.03987, 24.2578, 25.3036, 11.5188, -57.0857, -17.1194
1.0478, -1, 1.18526, 24.1857, 25.2842, 11.7483, -56.8415, -17.2293
1.05577, -1, 1.33008, 24.114, 25.265, 11.9767, -56.5984, -17.3384
1.06466, -1, 1.47455, 24.0426, 25.2459, 12.2044, -56.3565, -17.4471
1.072, -1, 1.61856, 23.9716, 25.2269, 12.4308, -56.1158, -17.5554
1.07998, -1, 1.76174, 23.9009, 25.2081, 12.6561, -55.876, -17.6632
1.0888, -1, 1.90387, 23.8305, 25.1892, 12.8806, -55.6375, -17.7708
1.09616, -1, 2.04491, 23.7604, 25.1704, 13.1039, -55.3998, -17.8777
1.10415, -1, 2.18506, 23.6907, 25.1518, 13.3261, -55.1632, -17.984
1.11291, -1, 2.32429, 23.6212, 25.1331, 13.5475, -54.9274, -18.0899
1.12022, -1, 2.46241, 23.552, 25.1146, 13.768, -54.6926, -18.1953
1.12826, -1, 2.59977, 23.4831, 25.0963, 13.9876, -54.4587, -18.3002
1.13701, -1, 2.66804, 23.4145, 25.078, 14.2062, -54.2257, -18.4045
1.14422, -1, 2.80387, 23.3803, 25.0688, 14.315, -54.1098, -18.5087
1.15163, -1, 2.93902, 23.3122, 25.0505, 14.5321, -53.8785, -18.5605
1.15966, -1, 3.07384, 23.2442, 25.0323, 14.7485, -53.6483, -18.6641
1.16664, -1, 3.20872, 23.1766, 25.0142, 14.9635, -53.4192, -18.7669
1.17562, -1, 3.34353, 23.1093, 24.9962, 15.1779, -53.1911, -18.87
1.18373, -1, 3.47812, 23.0423, 24.9784, 15.3915, -52.9638, -18.9723
1.19069, -1, 3.61246, 22.9755, 24.9604, 15.6043, -52.7377, -19.0741
1.19961, -1, 3.74648, 22.9091, 24.9427, 15.8161, -52.5122, -19.1751
1.20767, -1, 3.88003, 22.8429, 24.9251, 16.0268, -52.2881, -19.2762
1.21463, -1, 4.01322, 22.7771, 24.9073, 16.2367, -52.0647, -19.3764
1.22361, -1, 4.14595, 22.7115, 24.8897, 16.4458, -51.842, -19.4764
1.23061, -1, 4.27821, 22.6463, 24.8723, 16.6539, -51.6203, -19.5759
1.23962, -1, 4.40997, 22.5812, 24.8548, 16.8612, -51.3994, -19.675
1.24761, -1, 4.54088, 22.5163, 24.8375, 17.0677, -51.1795, -19.774
1.25461, -1, 4.67114, 22.4517, 24.8203, 17.2736, -50.9604, -19.8723
1.26362, -1, 4.80063, 22.3873, 24.8029, 17.4785, -50.7421, -19.9706
1.2734, -1, 4.9294, 22.3231, 24.7858, 17.7842, -50.4164, -20.1172
1.27968, -1, 5.05733, 22.2592, 24.7688, 17.8858, -50.3083, -20.166
1.28866, -1, 5.18448, 22.1955, 24.7518, 18.0884, -50.0926, -20.2626
1.29567, -1, 5.31084, 22.132, 24.7347, 18.2902, -49.8778, -20.3594
1.30367, -1, 5.43627, 22.0688, 24.7178, 18.4911, -49.6638, -20.4554
1.31166, -1, 5.56092, 22.006, 24.701, 18.6912, -49.4508, -20.5512
1.31961, -1, 5.68506, 21.9433, 24.6841, 18.8908, -49.2387, -20.6465
1.32767, -1, 5.80888, 21.881, 24.6674, 19.0896, -49.0273, -20.7417
1.33562, -1, 5.93266, 21.819, 24.6509, 19.2875, -48.8172, -20.8361
1.34368, -1, 6.05635, 21.7571, 24.6343, 19.4846, -48.6076, -20.9307
1.35162, -1, 6.17994, 21.6955, 24.6178, 19.681, -48.3988, -21.0246
1.35962, -1, 6.30328, 21.634, 24.6014, 19.8766, -48.1906, -21.1186
1.36768, -1, 6.42647, 21.5728, 24.585, 20.0714, -47.9831, -21.2119
1.37561, -1, 6.54951, 21.5118, 24.5685, 20.2655, -47.7765, -21.3051
1.38362, -1, 6.67209, 21.451, 24.5524, 20.4588, -47.5704, -21.3974
1.39169, -1, 6.79441, 21.3904, 24.5362, 20.6517, -47.3649, -21.4899
1.39969, -1, 6.91624, 21.3302, 24.52, 20.8437, -47.1602, -21.5813
1.40797, -1, 7.03758, 21.2702, 24.5038, 21.035, -46.9563, -21.6731
1.41561, -1, 7.15831, 21.2104, 24.4878, 21.2256, -46.7533, -21.7638
1.4236, -1, 7.2784, 21.151, 24.4718, 21.4154, -46.5509, -21.8549
1.43242, -1, 7.39792, 21.0917, 24.4559, 21.6049, -46.3495, -21.9449
1.43961, -1, 7.51684, 21.0327, 24.4403, 21.7934, -46.1487, -22.0354
1.44761, -1, 7.63526, 20.9737, 24.4246, 21.9812, -45.9487, -22.1251
1.45642, -1, 7.75328, 20.9151, 24.4088, 22.1684, -45.7497, -22.215
1.4637, -1, 7.87072, 20.8565, 24.3931, 22.3552, -45.5511, -22.3042
1.47169, -1, 7.98758, 20.7981, 24.3774, 22.5414, -45.3536, -22.3934
1.48057, -1, 8.10385, 20.7398, 24.3618, 22.7266, -45.1568, -22.4816
1.4877, -1, 8.21954, 20.6817, 24.3462, 22.9112, -44.9605, -22.5701
1.49572, -1, 8.33487, 20.6239, 24.3309, 23.0951, -44.7648, -22.6577
1.5045, -1, 8.44992, 20.5662, 24.3156, 23.2787, -44.5696, -22.7455
1.51175, -1, 8.56448, 20.5088, 24.3001, 23.4613, -44.3749, -22.8326
1.51961, -1, 8.67853, 20.4516, 24.2848, 23.6434, -44.1809, -22.9198
1.5285, -1, 8.79218, 20.3947, 24.2696, 23.8248, -43.9874, -23.0066
1.53564, -1, 8.90557, 20.338, 24.2544, 24.0058, -43.7945, -23.0931
1.54365, -1, 9.0188, 20.2814, 24.2391, 24.1863, -43.6025, -23.1796
1.55323, -1, 9.13187, 20.225, 24.2242, 24.366, -43.4113, -23.2655
1.55994, -1, 9.24496, 20.1688, 24.2093, 24.5451, -43.2206, -23.3517
1.56789, -1, 9.35799, 20.1128, 24.1942, 24.7235, -43.0305, -23.4372
1.57593, -1, 9.47065, 20.0569, 24.1791, 24.9014, -42.8411, -23.5227
1.58401, -1, 9.58286, 20.0011, 24.1642, 25.079, -42.6522, -23.6072
1.5906, -1, 9.63882, 19.9733, 24.1568, 25.1675, -42.558, -23.6497
1.60012, -1, 9.80605, 19.8901, 24.1345, 25.432, -42.2763, -23.7762
1.60665, -1, 9.86164, 19.8624, 24.1271, 25.5199, -42.1826, -23.8183
1.61617, -1, 10.028, 19.7799, 24.1052, 25.7831, -41.9029, -23.9438
1.62421, -1, 10.1384, 19.7251, 24.0906, 25.9579, -41.7171, -24.0273
1.63066, -1, 10.1934, 19.6978, 24.0833, 26.0451, -41.6244, -24.0692
1.64022, -1, 10.3033, 19.6432, 24.0612, 26.3056, -41.3471, -24.1934
1.64826, -1, 10.4125, 19.589, 24.0539, 26.3922, -41.2549, -24.2765
1.65649, -1, 10.5214, 19.5347, 24.0394, 26.565, -41.0711, -24.3588
1.6636, -1, 10.6298, 19.4807, 24.0249, 26.7374, -40.8875, -24.4003
1.6716, -1, 10.7379, 19.4269, 24.0105, 26.9091, -40.7047, -24.4826
1.68079, -1, 10.8993, 19.3463, 23.9892, 27.1656, -40.4313, -24.6059
1.68761, -1, 10.9529, 19.3196, 23.9821, 27.2507, -40.3404, -24.6467
1.6956, -1, 11.0597, 19.2661, 23.9677, 27.421, -40.1593, -24.7277
1.70365, -1, 11.1663, 19.2128, 23.9533, 27.5909, -39.9785, -24.8093
1.71161, -1, 11.2725, 19.1596, 23.9391, 27.7601, -39.7985, -24.8898
1.7196, -1, 11.3783, 19.1066, 23.9249, 27.9287, -39.6189, -24.9708
1.72765, -1, 11.4837, 19.0538, 23.9107, 28.0968, -39.4398, -25.0511
1.73559, -1, 11.5887, 19.0013, 23.8967, 28.2645, -39.2612, -25.1313
1.7436, -1, 11.6936, 18.9488, 23.8828, 28.4318, -39.0831, -25.2116
1.75165, -1, 11.7983, 18.8966, 23.8689, 28.5987, -38.9057, -25.2912
1.75959, -1, 11.9029, 18.8445, 23.8548, 28.7649, -38.7287, -25.3713
1.76761, -1, 12.0072, 18.7925, 23.8407, 28.9306, -38.552, -25.4505
1.77733, -1, 12.1114, 18.7407, 23.8269, 29.0959, -38.3761, -25.57
1.7836, -1, 12.2156, 18.6889, 23.813, 29.261, -38.2008, -25.6093
1.79166, -1, 12.3194, 18.6373, 23.7992, 29.4256, -38.0261, -25.6885
1.79965, -1, 12.423, 18.5858, 23.7855, 29.5896, -37.8518, -25.7673
1.80859, -1, 12.5263, 18.5344, 23.7719, 29.7531, -37.6779, -25.8452
1.81569, -1, 12.6295, 18.4832, 23.7582, 29.9162, -37.5044, -25.9237
1.82359, -1, 12.7323, 18.4321, 23.7445, 30.0789, -37.3311, -26.0009
1.8316, -1, 12.8346, 18.3811, 23.7307, 30.2412, -37.1586, -26.0788
1.83969, -1, 12.9367, 18.3305, 23.7171, 30.4029, -36.9864, -26.1558
1.8476, -1, 13.0384, 18.2799, 23.7036, 30.5642, -36.8143, -26.2326
1.8556, -1, 13.1397, 18.2295, 23.69, 30.7249, -36.643, -26.3099
1.86365, -1, 13.2407, 18.1793, 23.6766, 30.8855, -36.472, -26.386
1.87159, -1, 13.3414, 18.1292, 23.6633, 31.0457, -36.3017, -26.4628
1.87959, -1, 13.4417, 18.0793, 23.65, 31.2053, -36.1316, -26.539
1.88767, -1, 13.5418, 18.0292, 23.6366, 31.3645, -35.962, -26.6152
1.89559, -1, 13.6418, 17.9794, 23.6232, 31.5232, -35.7931, -26.6915
1.9036, -1, 13.7415, 17.9296, 23.6099, 31.6813, -35.6244, -26.767
1.91166, -1, 13.8411, 17.8799, 23.5966, 31.8395, -35.4563, -26.8431
1.91959, -1, 13.9405, 17.8303, 23.5833, 31.9971, -35.2888, -26.9181
1.92761, -1, 14.0396, 17.7809, 23.5701, 32.1543, -35.1214, -26.9935
1.93565, -1, 14.1386, 17.7316, 23.557, 32.311, -34.9547, -27.0683
1.94359, -1, 14.2372, 17.6825, 23.5439, 32.4673, -34.7884, -27.1428
1.95166, -1, 14.3353, 17.6335, 23.5308, 32.6233, -34.6227, -27.2178
1.95959, -1, 14.4331, 17.5847, 23.5176, 32.7792, -34.4573, -27.2917
1.9677, -1, 14.5306, 17.5361, 23.5046, 32.9346, -34.292, -27.366
1.97586, -1, 14.6278, 17.4876, 23.4916, 33.0895, -34.1271, -27.4403
1.98372, -1, 14.7246, 17.4393, 23.4787, 33.2439, -33.9627, -27.5139
1.99175, -1, 14.8211, 17.3911, 23.4657, 33.398, -33.7986, -27.5881
1.99995, -1, 14.9174, 17.3428, 23.4528, 33.5517, -33.6349, -27.6614
2.0077, -1, 15.0137, 17.2946, 23.4401, 33.7052, -33.4716, -27.7353
2.01569, -1, 15.1098, 17.2465, 23.4273, 33.8581, -33.3084, -27.8089
2.02423, -1, 15.2057, 17.1986, 23.4144, 34.0107, -33.146, -27.8818
2.03167, -1, 15.3016, 17.1507, 23.4015, 34.1627, -32.9837, -27.9552
2.04039, -1, 15.3974, 17.1029, 23.3887, 34.3146, -32.8222, -28.0276
2.04774, -1, 15.4932, 17.0551, 23.3759, 34.4663, -32.6609, -28.1002
2.05569, -1, 15.5889, 17.0077, 23.3631, 34.6175, -32.5001, -28.1726
2.06457, -1, 15.6844, 16.9604, 23.3503, 34.7684, -32.3395, -28.2444
2.07189, -1, 15.7796, 16.9131, 23.3377, 34.9189, -32.1793, -28.3169
2.07986, -1, 15.8746, 16.8661, 23.3253, 35.0688, -32.0194, -28.3881
2.08876, -1, 15.9693, 16.8193, 23.3127, 35.2186, -31.8601, -28.4596
2.09609, -1, 16.0637, 16.7725, 23.3001, 35.3682, -31.701, -28.5315
2.10259, -1, 16.1108, 16.7492, 23.2937, 35.4429, -31.6216, -28.567
2.11269, -1, 16.2514, 16.6793, 23.275, 35.6662, -31.3842, -28.674
2.12016, -1, 16.3449, 16.6328, 23.2626, 35.8146, -31.2261, -28.7449
2.12817, -1, 16.4381, 16.5864, 23.2501, 35.9626, -31.0685, -28.8157
2.13715, -1, 16.5309, 16.5398, 23.2376, 36.1106, -30.9111, -28.8871
2.14423, -1, 16.5773, 16.5166, 23.2253, 36.2583, -30.7539, -28.9574
2.15218, -1, 16.6699, 16.4703, 23.2191, 36.332, -30.6755, -29.0281
2.15962, -1, 16.7623, 16.4239, 23.2067, 36.4791, -30.5191, -29.0635
2.16767, -1, 16.8545, 16.3777, 23.1944, 36.6258, -30.3628, -29.1334
2.17561, -1, 16.9466, 16.3317, 23.1819, 36.7721, -30.2072, -29.2033
2.18362, -1, 17.0386, 16.2858, 23.1696, 36.9182, -30.0515, -29.2733
2.19163, -1, 17.1302, 16.2401, 23.1573, 37.0641, -29.8962, -29.3424
2.19958, -1, 17.2205, 16.1951, 23.145, 37.2095, -29.7412, -29.4123
2.20757, -1, 17.3073, 16.1516, 23.1324, 37.354, -29.5874, -29.4813
2.21563, -1, 17.3893, 16.1106, 23.1198, 37.4964, -29.4355, -29.549
2.22359, -1, 17.4657, 16.0724, 23.1074, 37.6343, -29.2885, -29.6156
2.23159, -1, 17.5366, 16.0376, 23.0952, 37.7643, -29.1497, -29.6777
2.23963, -1, 17.6005, 16.0065, 23.084, 37.8827, -29.0233, -29.7346
2.24757, -1, 17.6569, 15.979, 23.0742, 37.986, -28.9125, -29.7847
2.25558, -1, 17.707, 15.9543, 23.0665, 38.0704, -28.8217, -29.8259
2.26364, -1, 17.751, 15.9316, 23.0613, 38.1364, -28.7506, -29.8577
2.27157, -1, 17.7888, 15.912, 23.0581, 38.183, -28.6998, -29.8805
2.27957, -1, 17.8196, 15.8962, 23.0563, 38.2143, -28.6656, -29.8957
2.28866, -1, 17.8441, 15.8842, 23.0556, 38.2338, -28.6442, -29.9049
2.29557, -1, 17.8627, 15.8755, 23.0552, 38.2449, -28.632, -29.9101
2.30365, -1, 17.8749, 15.8699, 23.0551, 38.2507, -28.6257, -29.9128
2.31161, 2, 17.8814, 15.8669, 23.055, 38.2535, -28.6227, -29.9141
2.31961, 2, 17.8843, 15.8655, 23.055, 38.2548, -28.6212, -29.9147
2.32758, 2, 17.8853, 15.8648, 23.055, 38.2554, -28.6204, -29.915
2.33564, 2, 17.8849, 15.8645, 23.055, 38.2557, -28.6201, -29.9152
2.34359, 2, 17.8841, 15.8644, 23.055, 38.2558, -28.62, -29.9152
2.35157, 2, 17.8835, 15.8643, 23.055, 38.2559, -28.62, -29.9152
2.35964, 2, 17.8831, 15.8643, 23.055, 38.2559, -28.62, -29.9152
2.36757, 2, 17.8829, 15.8642, 23.055, 38.2559, -28.62, -29.9151
2.37558, 2, 17.8829, 15.864, 23.055, 38.2559, -28.62, -29.9152
2.38365, 2, 17.883, 15.8638, 23.055, 38.2559, -28.62, -29.9152
2.39157, 2, 17.8832, 15.8635, 23.055, 38.2559, -28.62, -29.9152
2.39957, 2, 17.8837, 15.8631, 23.055, 38.2559, -28.62, -29.9152
2.40763, 2, 17.8841, 15.8629, 23.055, 38.2559, -28.62, -29.9152
2.41559, 2, 17.8848, 15.8627, 23.055, 38.2559, -28.62, -29.9152
2.42359, 2, 17.8857, 15.8626, 23.055, 38.2559, -28.62, -29.9152
2.43165, 2, 17.8864, 15.8626, 23.055, 38.2559, -28.62, -29.9152
2.43957, 2, 17.887, 15.8625, 23.055, 38.2559, -28.62, -29.9152
2.44758, 2, 17.8873, 15.8626, 23.055, 38.256, -28.6201, -29.9153
2.45564, 2, 17.8875, 15.8626, 23.055, 38.256, -28.6201, -29.9152
2.46359, 2, 17.8876, 15.8626, 23.055, 38.256, -28.6201, -29.9152
2.47167, 2, 17.8876, 15.8626, 23.055, 38.2559, -28.6201, -29.9152
2.47973, 2, 17.8877, 15.8626, 23.055, 38.2559, -28.6201, -29.9152
2.4877, 2, 17.8877, 15.8626, 23.055, 38.2559, -28.6201, -29.9151
2.49568, 2, 17.8876, 15.8625, 23.055, 38.2559, -28.6202, -29.9152
2.50376, 2, 17.8874, 15.8624, 23.055, 38.2559, -28.6202, -29.9151
2.51168, 2, 17.8872, 15.8624, 23.055, 38.2559, -28.6202, -29.9151
2.51963, 2, 17.8871, 15.8623, 23.055, 38.2559, -28.6202, -29.9151
2.52778, 2, 17.8869, 15.8623, 23.055, 38.2559, -28.6202, -29.9152
2.5356, 2, 17.8869, 15.8622, 23.055, 38.2559, -28.6202, -29.9152
2.54365, 2, 17.8869, 15.8623, 23.055, 38.2558, -28.6202, -29.9152
2.55176, 2, 17.8869, 15.8623, 23.055, 38.2559, -28.6202, -29.9152
2.55968, 2, 17.8869, 15.8623, 23.055, 38.2559, -28.6202, -29.9151
2.56802, 2, 17.8869, 15.8623, 23.055, 38.2559, -28.6203, -29.9151
2.57616, 2, 17.8869, 15.8623, 23.055, 38.2559, -28.6203, -29.9151
2.58388, 2, 17.8869, 15.8623, 23.055, 38.2559, -28.6203, -29.9152
2.59232, 2, 17.8869, 15.8623, 23.055, 38.2559, -28.6204, -29.9152
2.60012, 2, 17.8869, 15.8623, 23.055, 38.2559, -28.6204, -29.9152
2.60819, 2, 17.8869, 15.8623, 23.055, 38.2559, -28.6205, -29.9152
2.61633, 2, 17.8869, 15.8623, 23.055, 38.2559, -28.6205, -29.9152
2.62434, 2, 17.8869, 15.8623, 23.055, 38.2559, -28.6205, -29.9152
2.63216, 2, 17.8868, 15.8623, 23.055, 38.2559, -28.6205, -29.9152
2.64048, 2, 17.8868, 15.8623, 23.055, 38.2559, -28.6205, -29.9151
2.64823, 2, 17.8868, 15.8623, 23.055, 38.2559, -28.6205, -29.9151
2.65615, 2, 17.8868, 15.8623, 23.055, 38.2559, -28.6205, -29.9151
2.66439, 2, 17.8868, 15.8623, 23.055, 38.2559, -28.6205, -29.9151
2.67163, 2, 17.8868, 15.8623, 23.055, 38.2559, -28.6205, -29.9151
2.67955, 2, 17.8867, 15.8623, 23.055, 38.2559, -28.6205, -29.9151
2.68756, 2, 17.8867, 15.8623, 23.055, 38.2558, -28.6205, -29.9151
2.69561, 2, 17.8867, 15.8624, 23.055, 38.2558, -28.6205, -29.9151
2.70357, 2, 17.8867, 15.8623, 23.055, 38.2558, -28.6206, -29.9151
2.71156, 2, 17.8867, 15.8623, 23.055, 38.2558, -28.6206, -29.9151
2.71961, 2, 17.8867, 15.8623, 23.055, 38.2558, -28.6206, -29.9151
2.72756, 2, 17.8867, 15.8623, 23.055, 38.2558, -28.6207, -29.9151
2.73556, 2, 17.8867, 15.8623, 23.055, 38.2558, -28.6207, -29.9151
2.74362, 2, 17.8867, 15.8623, 23.055, 38.2559, -28.6207, -29.9151
2.75156, 2, 17.8866, 15.8623, 23.055, 38.2558, -28.6207, -29.9151
2.75956, 2, 17.8866, 15.8623, 23.055, 38.2558, -28.6207, -29.9151
2.76762, 2, 17.8866, 15.8623, 23.055, 38.2558, -28.6208, -29.9151
2.77556, 2, 17.8866, 15.8623, 23.055, 38.2557, -28.6208, -29.9152
2.78544, 2, 17.8866, 15.8624, 23.055, 38.2557, -28.6208, -29.9151
2.79162, 2, 17.8866, 15.8624, 23.055, 38.2557, -28.6208, -29.9151
2.80067, 2, 17.8865, 15.8624, 23.055, 38.2558, -28.6208, -29.9151
2.80761, 2, 17.8865, 15.8624, 23.055, 38.2558, -28.6208, -29.9151
2.81656, 2, 17.8864, 15.8624, 23.055, 38.2558, -28.6208, -29.9151
2.8236, 2, 17.8864, 15.8624, 23.055, 38.2558, -28.6208, -29.9151
2.83156, 2, 17.8864, 15.8624, 23.055, 38.2557, -28.6208, -29.9151
2.83962, 2, 17.8863, 15.8623, 23.055, 38.2557, -28.6208, -29.9151
2.84756, 2, 17.8863, 15.8624, 23.055, 38.2557, -28.6208, -29.915
2.85556, 2, 17.8862, 15.8623, 23.055, 38.2557, -28.6209, -29.9151
2.86363, 2, 17.8862, 15.8623, 23.055, 38.2557, -28.6209, -29.9151
2.87155, 2, 17.8862, 15.8624, 23.055, 38.2557, -28.6209, -29.9151
2.87955, 2, 17.8861, 15.8624, 23.055, 38.2557, -28.6209, -29.9151
2.88762, 2, 17.8861, 15.8624, 23.055, 38.2557, -28.6209, -29.9151
2.89556, 2, 17.886, 15.8624, 23.055, 38.2556, -28.6209, -29.9151
2.90357, 2, 17.886, 15.8624, 23.055, 38.2556, -28.6209, -29.9151
2.91161, 2, 17.886, 15.8624, 23.055, 38.2556, -28.6209, -29.9151
2.91955, 2, 17.8859, 15.8624, 23.055, 38.2556, -28.621, -29.915
2.92756, 2, 17.8858, 15.8624, 23.055, 38.2556, -28.621, -29.915
2.93562, 2, 17.8858, 15.8624, 23.055, 38.2556, -28.621, -29.9151
2.94356, 2, 17.8857, 15.8624, 23.055, 38.2556, -28.6211, -29.915
2.95155, 2, 17.8857, 15.8624, 23.055, 38.2556, -28.6211, -29.915
2.95963, 2, 17.8857, 15.8624, 23.055, 38.2556, -28.6211, -29.915
2.96756, 2, 17.8856, 15.8624, 23.055, 38.2556, -28.6212, -29.915
2.97565, 2, 17.8855, 15.8624, 23.055, 38.2556, -28.6211, -29.915
2.98372, 2, 17.8855, 15.8624, 23.055, 38.2556, -28.6211, -29.915
2.99168, 2, 17.8855, 15.8624, 23.055, 38.2556, -28.6211, -29.915
2.99965, 2, 17.8854, 15.8625, 23.055, 38.2556, -28.6212, -29.915
3.00771, 2, 17.8854, 15.8624, 23.055, 38.2555, -28.6212, -29.915
3.01566, 2, 17.8853, 15.8625, 23.055, 38.2555, -28.6212, -29.915
3.02362, 2, 17.8853, 15.8625, 23.055, 38.2555, -28.6212, -29.9151
3.03168, 2, 17.8852, 15.8624, 23.055, 38.2555, -28.6212, -29.915
3.03958, 2, 17.8852, 15.8625, 23.055, 38.2555, -28.6212, -29.915
3.04759, 2, 17.8851, 15.8624, 23.055, 38.2555, -28.6212, -29.915
3.05576, 2, 17.885, 15.8624, 23.055, 38.2554, -28.6212, -29.915
3.06368, 2, 17.885, 15.8624, 23.055, 38.2554, -28.6212, -29.915
3.07174, 2, 17.8849, 15.8624, 23.055, 38.2554, -28.6212, -29.915
3.07995, 2, 17.8849, 15.8625, 23.055, 38.2554, -28.6212, -29.915
3.08787, 2, 17.8849, 15.8625, 23.055, 38.2554, -28.6212, -29.915
3.09595, 2, 17.8848, 15.8625, 23.055, 38.2554, -28.6212, -29.915
3.10414, 2, 17.8848, 15.8625, 23.055, 38.2553, -28.6212, -29.915
3.11209, 2, 17.8847, 15.8625, 23.055, 38.2553, -28.6212, -29.915
3.12007, 2, 17.8846, 15.8625, 23.055, 38.2553, -28.6213, -29.915
3.1282, 2, 17.8846, 15.8625, 23.055, 38.2553, -28.6212, -29.915
3.13612, 2, 17.8845, 15.8625, 23.055, 38.2554, -28.6212, -29.915
3.14418, 2, 17.8845, 15.8625, 23.055, 38.2553, -28.6212, -29.915
3.15225, 2, 17.8844, 15.8625, 23.055, 38.2553, -28.6212, -29.915
3.15958, 2, 17.8844, 15.8625, 23.055, 38.2553, -28.6212, -29.915
3.16754, 2, 17.8843, 15.8625, 23.055, 38.2553, -28.6212, -29.915
3.17562, 2, 17.8843, 15.8625, 23.055, 38.2552, -28.6212, -29.915
3.18356, 2, 17.8842, 15.8625, 23.055, 38.2552, -28.6213, -29.915
3.19154, 2, 17.8842, 15.8625, 23.055, 38.2552, -28.6212, -29.915
3.1996, 2, 17.8841, 15.8625, 23.055, 38.2552, -28.6213, -29.9149
3.20754, 2, 17.8841, 15.8625, 23.055, 38.2552, -28.6213, -29.9149
3.21554, 2, 17.8841, 15.8625, 23.055, 38.2551, -28.6213, -29.9149
3.22361, 2, 17.884, 15.8625, 23.055, 38.2551, -28.6213, -29.915
3.23155, 2, 17.884, 15.8625, 23.055, 38.2551, -28.6213, -29.915
3.23955, 2, 17.884, 15.8625, 23.055, 38.2551, -28.6213, -29.9149
3.24759, 2, 17.8839, 15.8625, 23.055, 38.2551, -28.6213, -29.9149
3.25554, 2, 17.8839, 15.8625, 23.055, 38.255, -28.6214, -29.9149
3.26355, 2, 17.8839, 15.8625, 23.055, 38.255, -28.6213, -29.9149
3.27159, 2, 17.8839, 15.8625, 23.055, 38.2549, -28.6214, -29.9149
3.28123, 2, 17.8839, 15.8625, 23.055, 38.2549, -28.6214, -29.915
3.28754, 2, 17.8838, 15.8625, 23.055, 38.2549, -28.6214, -29.9149
3.29564, 2, 17.8838, 15.8625, 23.055, 38.2549, -28.6214, -29.9149
3.30465, 2, 17.8838, 15.8625, 23.055, 38.2549, -28.6214, -29.9149
3.31177, 2, 17.8838, 15.8626, 23.055, 38.2549, -28.6215, -29.9149
3.31953, 2, 17.8837, 15.8626, 23.055, 38.2548, -28.6215, -29.9149
3.32758, 2, 17.8837, 15.8626, 23.055, 38.2548, -28.6215, -29.9149
3.3356, 2, 17.8837, 15.8626, 23.055, 38.2548, -28.6215, -29.915
3.34355, 2, 17.8837, 15.8626, 23.055, 38.2548, -28.6214, -29.9149
3.35151, 2, 17.8837, 15.8626, 23.055, 38.2548, -28.6215, -29.9149
3.35961, 2, 17.8837, 15.8626, 23.055, 38.2548, -28.6215, -29.9149
3.36754, 2, 17.8837, 15.8626, 23.055, 38.2547, -28.6215, -29.9149
3.37551, 4, 17.8837, 15.8626, 23.055, 38.2547, -28.6215, -29.9149
3.38361, 4, 17.8837, 15.8626, 23.055, 38.2547, -28.6215, -29.9149
3.39153, 4, 17.8836, 15.8626, 23.055, 38.2547, -28.6215, -29.9149
3.39954, 4, 17.8836, 15.8626, 23.055, 38.2547, -28.6215, -29.9149
3.4076, 4, 17.8836, 15.8626, 23.055, 38.2547, -28.6215, -29.9149
3.41554, 4, 17.8836, 15.8626, 23.055, 38.2547, -28.6215, -29.9149
3.42355, 4, 17.8836, 15.8626, 23.055, 38.2547, -28.6215, -29.9149
3.43161, 4, 17.8836, 15.8626, 23.055, 38.2547, -28.6215, -29.9149
3.43954, 4, 17.8835, 15.8626, 23.0551, 38.2547, -28.6215, -29.9149
3.44754, 4, 17.8835, 15.8626, 23.0551, 38.2546, -28.6215, -29.9149
3.4556, 4, 17.8835, 15.8626, 23.0551, 38.2546, -28.6214, -29.9149
3.46355, 4, 17.8835, 15.8626, 23.0551, 38.2546, -28.6215, -29.9148
3.47155, 4, 17.8835, 15.8626, 23.055, 38.2546, -28.6215, -29.9148
3.48137, 4, 17.8835, 15.8626, 23.0551, 38.2546, -28.6215, -29.9148
3.50581, 4, 17.8835, 15.8626, 23.0551, 38.2546, -28.6215, -29.9149
3.50785, 4, 17.8835, 15.8626, 23.0551, 38.2545, -28.6215, -29.9148
3.50913, 4, 17.8835, 15.8626, 23.0551, 38.2545, -28.6215, -29.9148
3.51171, 4, 17.8834, 15.8626, 23.0551, 38.2545, -28.6215, -29.9148
3.51965, 4, 17.8834, 15.8626, 23.0551, 38.2546, -28.6215, -29.9148
3.52754, 4, 17.8833, 15.8627, 23.0551, 38.2546, -28.6215, -29.9147
3.5356, 4, 17.8821, 15.8635, 23.055, 38.2545, -28.6215, -29.9147
3.5445, 4, 17.8785, 15.8661, 23.0547, 38.2536, -28.6216, -29.9143
3.55157, 4, 17.8717, 15.8722, 23.0532, 38.2495, -28.6222, -29.9118
3.5597, 4, 17.8609, 15.8844, 23.0495, 38.2382, -28.6241, -29.9027
3.56775, 4, 17.8447, 15.9048, 23.042, 38.2144, -28.6289, -29.8799
3.57575, 5, 17.821, 15.9352, 23.0288, 38.1706, -28.6386, -29.8362
3.58389, 5, 17.7896, 15.9758, 23.0082, 38.0963, -28.6552, -29.7612
3.59212, 5, 17.7507, 16.0263, 22.9788, 37.9836, -28.6806, -29.6465
3.59995, 5, 17.7046, 16.0873, 22.9393, 37.8252, -28.7168, -29.485
3.60811, 5, 17.6505, 16.1598, 22.8894, 37.6189, -28.7658, -29.2737
3.61613, 5, 17.5886, 16.2435, 22.8291, 37.3658, -28.8262, -29.014
3.62407, 5, 17.5195, 16.3371, 22.7597, 37.0713, -28.8983, -28.7111
3.6327, 5, 17.4432, 16.4401, 22.6824, 36.7433, -28.9802, -28.3736
3.64042, 5, 17.3595, 16.5533, 22.5987, 36.3913, -29.0699, -28.0115
3.64824, 5, 17.2685, 16.6762, 22.5106, 36.0236, -29.1655, -27.6338
3.6561, 5, 17.2206, 16.7405, 22.4655, 35.8361, -29.2152, -27.4413
3.66356, 5, 17.1214, 16.8728, 22.374, 35.4574, -29.3171, -27.0528
3.67157, 5, 17.0187, 17.0085, 22.2816, 35.0761, -29.4218, -26.6621
3.67954, 5, 16.9135, 17.1459, 22.1891, 34.6947, -29.5292, -26.2716
3.68753, 5, 16.8067, 17.2839, 22.0968, 34.314, -29.6386, -25.8834
3.69557, 5, 16.6992, 17.4223, 22.0046, 33.9348, -29.7497, -25.4975
3.70353, 5, 16.5913, 17.5608, 21.9128, 33.5575, -29.863, -25.1145
3.71153, 5, 16.4834, 17.6986, 21.8215, 33.1825, -29.9777, -24.7347
3.71959, 5, 16.3754, 17.8358, 21.7309, 32.8095, -30.0944, -24.3573
3.72753, 5, 16.2672, 17.9724, 21.6411, 32.4389, -30.2129, -23.9828
3.73552, 5, 16.1592, 18.1086, 21.5519, 32.0706, -30.333, -23.6118
3.74357, 5, 16.0511, 18.2446, 21.4632, 31.7045, -30.455, -23.2437
3.75152, 5, 15.943, 18.3801, 21.3751, 31.3409, -30.5784, -22.8787
3.75954, 5, 15.8347, 18.5151, 21.2876, 30.9795, -30.7037, -22.517
3.76761, 5, 15.7262, 18.6495, 21.2006, 30.6202, -30.8305, -22.1584
3.77553, 5, 15.6172, 18.7837, 21.1144, 30.2635, -30.9589, -21.8031
3.78453, 5, 15.5078, 18.9178, 21.0289, 29.9093, -31.0889, -21.4514
3.79158, 5, 15.3977, 19.0516, 20.9442, 29.5577, -31.2204, -21.103
3.79954, 5, 15.2871, 19.185, 20.8602, 29.2082, -31.3536, -20.758
3.80852, 5, 15.1763, 19.3179, 20.7769, 28.8613, -31.4883, -20.4166
3.81565, 5, 15.0653, 19.4503, 20.694, 28.5168, -31.6248, -20.0781
3.82353, 5, 14.954, 19.5823, 20.6118, 28.1749, -31.7628, -19.7428
3.83159, 5, 14.8424, 19.7141, 20.5301, 27.8354, -31.9023, -19.4111
3.83957, 5, 14.7307, 19.8453, 20.4491, 27.4982, -32.0431, -19.0829
3.84754, 5, 14.6189, 19.976, 20.3688, 27.1634, -32.1855, -18.7578
3.85558, 5, 14.507, 20.1058, 20.2893, 26.8311, -32.3291, -18.436
3.86352, 5, 14.3949, 20.2352, 20.2103, 26.5012, -32.4743, -18.1177
3.87153, 5, 14.2828, 20.3642, 20.132, 26.1739, -32.6207, -17.8026
3.8796, 5, 14.1706, 20.493, 20.0542, 25.849, -32.7687, -17.4907
3.88752, 5, 14.0585, 20.6213, 19.977, 25.5265, -32.9178, -17.1824
3.89553, 5, 13.9461, 20.7491, 19.9005, 25.2066, -33.0685, -16.8776
3.90359, 5, 13.8336, 20.8766, 19.8246, 24.889, -33.2201, -16.576
3.91158, 5, 13.7212, 21.0036, 19.7496, 24.5741, -33.3732, -16.2779
3.91954, 5, 13.6088, 21.1305, 19.6752, 24.2615, -33.5273, -15.9833
3.92758, 5, 13.4962, 21.2571, 19.6015, 23.951, -33.683, -15.6919
3.93552, 5, 13.3837, 21.3832, 19.5285, 23.643, -33.8397, -15.4036
3.94353, 5, 13.271, 21.5088, 19.4562, 23.3373, -33.9978, -15.1187
3.95159, 5, 13.1582, 21.6337, 19.3845, 23.0342, -34.1568, -14.8372
3.95953, 5, 13.0448, 21.758, 19.3133, 22.7333, -34.3173, -14.5589
3.96777, 5, 12.9311, 21.8818, 19.2427, 22.4348, -34.4789, -14.2836
3.97554, 5, 12.8172, 22.005, 19.1728, 22.1387, -34.6417, -14.0116
3.98364, 5, 12.703, 22.1276, 19.1036, 21.845, -34.8057, -13.7428
3.99186, 5, 12.5883, 22.2495, 19.0351, 21.5535, -34.9708, -13.4774
3.99966, 5, 12.4733, 22.3709, 18.9674, 21.2643, -35.1371, -13.2148
4.00762, 5, 12.3581, 22.4917, 18.9003, 20.9775, -35.3043, -12.9557
4.01579, 5, 12.2428, 22.6123, 18.8339, 20.6929, -35.4726, -12.6998
4.02363, 5, 12.1274, 22.7327, 18.7682, 20.4103, -35.642, -12.4474
4.03153, 5, 12.0118, 22.8527, 18.7032, 20.1301, -35.8123, -12.1981
4.03967, 5, 11.8963, 22.9722, 18.6389, 19.852, -35.9837, -11.9517
4.04756, 5, 11.7807, 23.0911, 18.5753, 19.5761, -36.1559, -11.7087
4.05555, 5, 11.665, 23.2096, 18.5123, 19.3026, -36.3289, -11.4689
4.06369, 5, 11.5492, 23.3275, 18.4501, 19.0312, -36.5031, -11.2322
4.0717, 5, 11.4332, 23.4451, 18.3885, 18.7616, -36.6779, -10.9983
4.07978, 5, 11.3171, 23.562, 18.3276, 18.4945, -36.8539, -10.7674
4.0879, 5, 11.2009, 23.6783, 18.2675, 18.2295, -37.0307, -10.5396
4.09591, 5, 11.0845, 23.7939, 18.208, 17.9663, -37.2084, -10.315
4.10394, 5, 10.9679, 23.9088, 18.1492, 17.7055, -37.3869, -10.0934
4.11208, 5, 10.8512, 24.0232, 18.091, 17.4467, -37.5664, -9.87446
4.12007, 5, 10.7342, 24.1374, 18.0333, 17.1895, -37.7469, -9.65871
4.12808, 5, 10.617, 24.2511, 17.9764, 16.9346, -37.9283, -9.44578
4.13613, 5, 10.5, 24.3642, 17.9202, 16.6816, -38.1104, -9.23604
4.14433, 5, 10.4415, 24.4768, 17.8646, 16.4306, -38.2935, -9.02928
4.15216, 5, 10.3246, 24.5889, 17.8098, 16.1815, -38.4771, -8.82496
4.16013, 5, 10.2076, 24.6448, 17.7827, 16.0577, -38.6617, -8.62377
4.16756, 5, 10.0905, 24.756, 17.7288, 15.8117, -38.7542, -8.52423
4.17551, 5, 9.97335, 24.867, 17.6757, 15.5674, -38.9396, -8.32712
4.18356, 5, 9.85601, 24.9775, 17.6234, 15.3248, -39.1259, -8.13321
4.1915, 5, 9.7384, 25.0874, 17.5718, 15.0843, -39.3126, -7.94201
4.19952, 5, 9.62056, 25.1967, 17.5209, 14.8457, -39.5002, -7.75351
4.20758, 5, 9.50253, 25.3054, 17.4708, 14.6085, -39.6882, -7.5677
4.21551, 5, 9.38423, 25.4134, 17.4213, 14.3732, -39.877, -7.38477
4.22356, 5, 9.26543, 25.521, 17.3724, 14.1397, -40.0666, -7.20449
4.23152, 5, 9.14632, 25.628, 17.3243, 13.9078, -40.2565, -7.02704
4.23952, 5, 9.02703, 25.7344, 17.2769, 13.6775, -40.447, -6.85237
4.24751, 5, 8.90749, 25.8403, 17.2303, 13.4488, -40.6382, -6.67996
4.25558, 5, 8.78773, 25.9455, 17.1843, 13.2217, -40.8299, -6.51027
4.26351, 5, 8.66795, 26.0499, 17.1391, 12.9963, -41.0222, -6.34297
4.27151, 5, 8.54813, 26.1537, 17.0946, 12.7722, -41.215, -6.17844
4.28116, 5, 8.42831, 26.257, 17.0292, 12.4394, -41.5051, -5.93643
4.28752, 5, 8.3082, 26.3598, 17.0079, 12.3293, -41.6019, -5.85714
4.2965, 5, 8.18795, 26.462, 16.9657, 12.1101, -41.7963, -5.7004
4.30359, 5, 8.06762, 26.5636, 16.9242, 11.8923, -41.9911, -5.54568
4.31151, 5, 7.94739, 26.6645, 16.8835, 11.676, -42.1864, -5.39341
4.31958, 5, 7.82706, 26.7649, 16.8435, 11.4613, -42.3823, -5.24373
4.32945, 5, 7.70665, 26.8646, 16.8042, 11.248, -42.5786, -5.09624
4.33565, 5, 7.58647, 26.9638, 16.7658, 11.0359, -42.7752, -4.95141
4.34358, 5, 7.46642, 27.0625, 16.728, 10.8254, -42.9722, -4.80893
4.3515, 5, 7.34635, 27.1607, 16.691, 10.6164, -43.1696, -4.66907
4.35951, 5, 7.22645, 27.2582, 16.6548, 10.4086, -43.3675, -4.53135
4.36759, 5, 7.10651, 27.3551, 16.6192, 10.202, -43.5657, -4.39582
4.3755, 5, 6.98629, 27.4513, 16.5844, 9.99672, -43.7642, -4.26248
4.3835, 5, 6.8658, 27.5468, 16.5504, 9.79281, -43.9629, -4.13181
4.39157, 5, 6.74512, 27.6414, 16.5171, 9.59029, -44.1619, -4.0031
4.39951, 5, 6.62405, 27.7356, 16.4845, 9.38874, -44.3613, -3.87689
4.4075, 5, 6.50254, 27.8291, 16.4528, 9.18868, -44.561, -3.75326
4.41558, 5, 6.38066, 27.922, 16.4217, 8.99005, -44.761, -3.63171
4.4235, 5, 6.25851, 28.0142, 16.3913, 8.79253, -44.9615, -3.51268
4.43151, 5, 6.13616, 28.1059, 16.3618, 8.59635, -45.1624, -3.3956
4.43959, 5, 6.01358, 28.1969, 16.3332, 8.40107, -45.3636, -3.28068
4.4475, 5, 5.89083, 28.2872, 16.3051, 8.20718, -45.565, -3.16798
4.4555, 5, 5.76814, 28.3768, 16.2779, 8.01446, -45.7668, -3.05727
4.46378, 5, 5.64548, 28.466, 16.2516, 7.82269, -45.9689, -2.94879
4.47151, 5, 5.5227, 28.5545, 16.226, 7.63188, -46.1711, -2.84251
4.47954, 5, 5.3998, 28.6424, 16.2012, 7.44212, -46.3735, -2.73813
4.48792, 5, 5.2768, 28.7295, 16.1771, 7.25368, -46.5759, -2.63618
4.49559, 5, 5.15356, 28.816, 16.1539, 7.06615, -46.7785, -2.5359
4.50363, 5, 5.03026, 28.9019, 16.1314, 6.87952, -46.9812, -2.43829
4.51216, 5, 4.90698, 28.9868, 16.1099, 6.69375, -47.184, -2.34213
4.5197, 5, 4.78372, 29.0711, 16.089, 6.50892, -47.3869, -2.24827
4.52761, 5, 4.66041, 29.1547, 16.0689, 6.3252, -47.5899, -2.15589
4.53623, 5, 4.53711, 29.2376, 16.0497, 6.14239, -47.7932, -2.06603
4.54352, 5, 4.414, 29.3198, 16.0312, 5.96019, -47.9966, -1.97724
4.55154, 5, 4.29109, 29.4014, 16.0135, 5.77888, -48.2, -1.89127
4.56061, 5, 4.16825, 29.4822, 15.9968, 5.59864, -48.4036, -1.80644
4.56763, 5, 4.04524, 29.5623, 15.9809, 5.41942, -48.6074, -1.72411
4.57573, 5, 3.92222, 29.6419, 15.9657, 5.24097, -48.8114, -1.64341
4.58468, 5, 3.79917, 29.7207, 15.9515, 5.06319, -49.0152, -1.56479
4.59179, 5, 3.67589, 29.7988, 15.9381, 4.88629, -49.2194, -1.48804
4.59992, 5, 3.55224, 29.8761, 15.9254, 4.71034, -49.4234, -1.41272
4.60898, 5, 3.42823, 29.9528, 15.9136, 4.53519, -49.6274, -1.34004
4.61598, 5, 3.30384, 30.0288, 15.9027, 4.36074, -49.8313, -1.26858
4.62407, 5, 3.1789, 30.1041, 15.8928, 4.18687, -50.0352, -1.19899
4.63292, 5, 3.05372, 30.1785, 15.8837, 4.01379, -50.2391, -1.13138
4.64007, 5, 2.92848, 30.2521, 15.8754, 3.84165, -50.4429, -1.06466
4.64822, 5, 2.80314, 30.325, 15.8679, 3.67013, -50.6467, -1.00063
4.65718, 5, 2.74037, 30.3971, 15.861, 3.49932, -50.8504, -0.938039
4.66349, 5, 2.6148, 30.4329, 15.8579, 3.41402, -50.9522, -0.907017
4.67158, 5, 2.4892, 30.5038, 15.8524, 3.24401, -51.1559, -0.846759
4.6795, 5, 2.36365, 30.574, 15.8478, 3.07462, -51.3595, -0.788813
4.68749, 5, 2.23787, 30.6432, 15.8441, 2.90597, -51.5631, -0.731959
4.69554, 5, 2.11196, 30.7118, 15.8413, 2.73794, -51.7667, -0.676732
4.70349, 5, 1.9861, 30.7796, 15.8394, 2.57053, -51.9703, -0.62388
4.71153, 5, 1.86047, 30.8466, 15.8383, 2.4035, -52.1737, -0.572471
4.71959, 5, 1.73471, 30.9128, 15.8379, 2.23721, -52.3769, -0.522262
4.86272, 5, 0.0494248, 31.7316, 15.9225, 0.0210332, -55.1464, 0.00146161
4.8646, 5, 0.0494248, 31.7316, 15.9225, 0.0210332, -55.1464, 0.00146161
4.86728, 5, 0.0375319, 31.7368, 15.9227, 0.0128372, -55.1568, 0.00281688
4.87041, 5, 0.0375319, 31.7368, 15.9227, 0.0128372, -55.1568, 0.00389902
4.87232, 5, 0.0272577, 31.7412, 15.9228, 0.00635912, -55.1649, 0.00389902
4.87492, 5, 0.0184088, 31.7449, 15.9229, 0.00143562, -55.1709, 0.00471957
4.8767, 5, 0.0184088, 31.7449, 15.9229, 0.00143562, -55.1709, 0.00471957
4.88056, 5, 0.0109791, 31.748, 15.923, -0.00220542, -55.1754, 0.00530822
4.88353, 5, 0.00496457, 31.7506, 15.923, -0.00490975, -55.1787, 0.00573979
4.88597, 5, 0.00496457, 31.7506, 15.923, -0.00490975, -55.1787, 0.00605401
4.907, 5, -0.00949316, 31.7568, 15.9232, -0.0107065, -55.1856, 0.00667657
4.90841, 5, -0.00949316, 31.7568, 15.9232, -0.0107065, -55.1856, 0.00667657
4.9166, 5, -0.00945931, 31.7572, 15.9233, -0.0110416, -55.186, 0.00674824
4.91951, 5, -0.0090424, 31.7573, 15.9233, -0.0111502, -55.1862, 0.00678089
4.92076, 5, -0.0090424, 31.7573, 15.9233, -0.0111502, -55.1862, 0.00678089
4.92367, 5, -0.00855161, 31.7574, 15.9234, -0.0112323, -55.1863, 0.00680301
4.9249, 5, -0.00855161, 31.7574, 15.9234, -0.0112323, -55.1863, 0.00680301
4.92694, 5, -0.00816359, 31.7575, 15.9234, -0.0112964, -55.1863, 0.00679611
4.92814, 5, -0.00816359, 31.7575, 15.9234, -0.0112964, -55.1863, 0.00679611
4.93161, 5, -0.0080767, 31.7577, 15.9234, -0.0113568, -55.1863, 0.00679144
4.93544, 5, -0.00849478, 31.758, 15.9234, -0.0113978, -55.1864, 0.00681015
4.93911, 5, -0.00962535, 31.7587, 15.9234, -0.0114595, -55.1865, 0.00682283
4.94041, 5, -0.00962535, 31.7587, 15.9234, -0.0114595, -55.1865, 0.00682283
4.94167, 5, -0.00962535, 31.7587, 15.9234, -0.0114595, -55.1865, 0.00682283
4.94428, 5, -0.0116599, 31.7599, 15.9234, -0.0115693, -55.1867, 0.00684235
4.94548, 5, -0.0116599, 31.7599, 15.9234, -0.0115693, -55.1867, 0.00684235
4.94767, 5, -0.0147376, 31.7615, 15.9234, -0.0118135, -55.1872, 0.00694309
4.94888, 5, -0.0147376, 31.7615, 15.9234, -0.0118135, -55.1872, 0.00694309
4.95285, 6, -0.0189801, 31.764, 15.9234, -0.0124463, -55.1883, 0.00719729
4.96048, 6, -0.0312961, 31.7714, 15.9233, -0.0157855, -55.1935, 0.00903698
4.96758, 6, -0.0500382, 31.7827, 15.9233, -0.0234214, -55.2054, 0.0139056
4.97559, 6, -0.0770062, 31.7984, 15.9233, -0.0378545, -55.2279, 0.0236437
4.98372, 6, -0.113016, 31.8181, 15.9239, -0.0616974, -55.2665, 0.0404946
4.99162, 6, -0.15765, 31.8413, 15.9262, -0.0980193, -55.3253, 0.0660155
4.99959, 6, -0.210983, 31.8678, 15.9309, -0.150717, -55.4095, 0.101351
5.00797, 6, -0.273148, 31.8984, 15.9384, -0.219362, -55.5212, 0.147635
5.01559, 6, -0.343888, 31.9328, 15.9487, -0.304959, -55.6605, 0.205326
5.02359, 6, -0.422534, 31.9702, 15.9622, -0.406049, -55.8262, 0.273021
5.03213, 6, -0.508954, 32.0105, 15.9785, -0.519773, -56.014, 0.348066
5.0395, 6, -0.603831, 32.0549, 15.9967, -0.643672, -56.22, 0.429748
5.04751, 6, -0.706645, 32.1036, 16.0158, -0.774119, -56.4385, 0.514132
5.05633, 6, -0.816247, 32.1561, 16.0359, -0.909153, -56.6659, 0.600886
5.06352, 6, -0.931443, 32.211, 16.0567, -1.0464, -56.8986, 0.687283
5.07163, 6, -1.05137, 32.2676, 16.0782, -1.18448, -57.1344, 0.773605
5.08053, 6, -1.17483, 32.3252, 16.1007, -1.32275, -57.3719, 0.858357
5.08772, 6, -1.30019, 32.3833, 16.1241, -1.46054, -57.6102, 0.941579
5.09587, 6, -1.42619, 32.4412, 16.1481, -1.59799, -57.8491, 1.02346
5.10468, 6, -1.55276, 32.4988, 16.173, -1.73498, -58.0889, 1.10339
5.11199, 6, -1.67964, 32.5561, 16.1987, -1.87153, -58.3291, 1.18229
5.12005, 6, -1.80626, 32.6127, 16.2252, -2.00753, -58.5699, 1.25858
5.12885, 6, -1.93272, 32.6689, 16.2526, -2.1429, -58.8112, 1.33401
5.13604, 6, -2.05884, 32.7244, 16.281, -2.27772, -59.0528, 1.40715
5.14409, 6, -2.18437, 32.7792, 16.3102, -2.41219, -59.2952, 1.47876
5.15292, 6, -2.24703, 32.8064, 16.3402, -2.54605, -59.538, 1.54906
5.16013, 6, -2.37212, 32.8601, 16.3707, -2.67967, -59.7811, 1.61686
5.16805, 6, -2.49705, 32.9133, 16.3863, -2.7463, -59.9027, 1.65036
5.17551, 6, -2.62176, 32.9659, 16.4183, -2.87913, -60.1462, 1.71652
5.18348, 6, -2.7464, 33.0179, 16.4512, -3.0113, -60.3899, 1.77993
5.19152, 6, -2.87108, 33.0694, 16.4848, -3.14296, -60.6338, 1.84199
5.19949, 6, -2.99593, 33.1205, 16.5193, -3.27423, -60.878, 1.90313
5.20868, 6, -3.18368, 33.1964, 16.5727, -3.47044, -61.2447, 1.99037
5.2155, 6, -3.24646, 33.2215, 16.5909, -3.53573, -61.3671, 2.01879
5.22347, 6, -3.37242, 33.2713, 16.6279, -3.6658, -61.612, 2.07468
5.23153, 6, -3.49895, 33.3207, 16.666, -3.79557, -61.8571, 2.12869
5.23955, 6, -3.62554, 33.3694, 16.7048, -3.92481, -62.1024, 2.18077
5.24747, 6, -3.75207, 33.4176, 16.7445, -4.05365, -62.348, 2.23209
5.25554, 6, -3.87879, 33.4653, 16.785, -4.1822, -62.594, 2.28197
5.26347, 6, -4.00557, 33.5121, 16.8262, -4.31039, -62.8401, 2.32935
5.27148, 6, -4.13231, 33.5583, 16.8683, -4.43859, -63.0864, 2.37525
5.27954, 6, -4.25913, 33.6037, 16.9112, -4.5661, -63.3331, 2.42007
5.28747, 6, -4.38595, 33.6485, 16.955, -4.69336, -63.5798, 2.46376
5.29647, 6, -4.51258, 33.6927, 16.9996, -4.82021, -63.8267, 2.50521
5.30354, 6, -4.63897, 33.7363, 17.0449, -4.94665, -64.0737, 2.54486
5.31147, 6, -4.76491, 33.7794, 17.0911, -5.07306, -64.3208, 2.58312
5.31947, 6, -4.89033, 33.822, 17.1381, -5.19897, -64.568, 2.62044
5.32754, 6, -5.01542, 33.8641, 17.1858, -5.32501, -64.8152, 2.65619
5.33548, 6, -5.14015, 33.9057, 17.2345, -5.45073, -65.0625, 2.68978
5.34358, 6, -5.26456, 33.9468, 17.2842, -5.576, -65.3098, 2.72193
5.35148, 6, -5.38882, 33.9873, 17.3347, -5.70102, -65.5573, 2.75234
5.35947, 6, -5.51305, 34.0274, 17.386, -5.82589, -65.8049, 2.78166
5.36755, 6, -5.63722, 34.0668, 17.4382, -5.95037, -66.0523, 2.80974
5.37547, 6, -5.76186, 34.1055, 17.4911, -6.07501, -66.3001, 2.83642
5.38354, 6, -5.88704, 34.1435, 17.5448, -6.19942, -66.5479, 2.86138
5.39148, 6, -6.01263, 34.1809, 17.5995, -6.32365, -66.7957, 2.8843
5.39948, 6, -6.13867, 34.2175, 17.6549, -6.44758, -67.0436, 2.90563
5.40754, 6, -6.26507, 34.2534, 17.7111, -6.57127, -67.2913, 2.92572
5.41573, 6, -6.39145, 34.2887, 17.7682, -6.69493, -67.539, 2.94424
5.42347, 6, -6.51775, 34.3233, 17.8259, -6.81837, -67.7867, 2.96159
5.43156, 6, -6.64404, 34.3572, 17.8846, -6.94188, -68.0342, 2.9776
5.44027, 6, -6.77048, 34.3906, 17.9441, -7.06553, -68.2815, 2.99242
5.44747, 6, -6.89683, 34.4235, 18.0046, -7.18878, -68.5287, 3.00603
5.45554, 6, -7.02327, 34.4556, 18.066, -7.31216, -68.7761, 3.01787
5.46428, 6, -7.14953, 34.4872, 18.1282, -7.43523, -69.0233, 3.02819
5.47158, 6, -7.27565, 34.5182, 18.1913, -7.55846, -69.2705, 3.037
5.47947, 6, -7.40146, 34.5486, 18.2552, -7.68151, -69.5177, 3.04435
5.48823, 6, -7.52681, 34.5783, 18.32, -7.80473, -69.7649, 3.05012
5.49595, 6, -7.65201, 34.6073, 18.3856, -7.92796, -70.012, 3.05437
5.50356, 6, -7.77709, 34.6358, 18.452, -8.05116, -70.2589, 3.05728
5.51234, 6, -7.90157, 34.6636, 18.5192, -8.17433, -70.5057, 3.05883
5.52, 6, -8.02559, 34.6906, 18.5873, -8.29728, -70.7521, 3.05953
5.52758, 6, -8.1494, 34.7168, 18.6563, -8.42031, -70.9984, 3.05977
5.53634, 6, -8.27296, 34.7425, 18.7261, -8.54327, -71.2444, 3.05938
5.54417, 6, -8.39648, 34.7674, 18.7969, -8.66634, -71.4903, 3.05801
5.55151, 6, -8.52017, 34.7917, 18.8685, -8.78972, -71.7361, 3.05522
5.56094, 6, -8.64421, 34.8152, 18.941, -8.9129, -71.9816, 3.05078
5.56847, 6, -8.76868, 34.838, 19.0142, -9.03618, -72.2268, 3.04432
5.57584, 6, -8.89349, 34.8602, 19.0882, -9.15929, -72.4718, 3.03588
5.58366, 6, -9.01861, 34.8818, 19.163, -9.28261, -72.7167, 3.02563
5.59255, 6, -9.14421, 34.9026, 19.2386, -9.40593, -72.9614, 3.01378
5.59984, 6, -9.26985, 34.9228, 19.3152, -9.52943, -73.2059, 3.00006
5.60791, 6, -9.39539, 34.9424, 19.3927, -9.65319, -73.4499, 2.98454
5.61677, 6, -9.52095, 34.9611, 19.4711, -9.77702, -73.6937, 2.96767
5.62438, 6, -9.64651, 34.9792, 19.5505, -9.90084, -73.9372, 2.94956
5.63205, 6, -9.77197, 34.9967, 19.6306, -10.0247, -74.1805, 2.93036
5.64086, 6, -9.89732, 35.0134, 19.7114, -10.1487, -74.4234, 2.90993
5.64809, 6, -10.0226, 35.0292, 19.7929, -10.2728, -74.666, 2.88796
5.65613, 6, -10.1479, 35.0445, 19.8753, -10.3972, -74.9084, 2.86466
5.66492, 6, -10.2105, 35.0519, 19.9168, -10.5219, -75.1505, 2.83954
5.67146, 6, -10.3353, 35.0659, 20.0006, -10.5842, -75.2713, 2.8263
5.67954, 6, -10.4601, 35.0792, 20.0853, -10.7091, -75.5127, 2.79866
5.68748, 6, -10.5848, 35.0918, 20.1709, -10.8341, -75.7536, 2.76998
5.69546, 6, -10.709, 35.1039, 20.2574, -10.9592, -75.9941, 2.74033
5.7035, 6, -10.8328, 35.1152, 20.3446, -11.0844, -76.2342, 2.7094
5.71145, 6, -10.9563, 35.1258, 20.4326, -11.21, -76.474, 2.67711
5.7195, 6, -11.0792, 35.1357, 20.5213, -11.3359, -76.7134, 2.64317
5.72746, 6, -11.2018, 35.1447, 20.611, -11.4619, -76.9525, 2.60743
5.73546, 6, -11.324, 35.153, 20.7017, -11.5881, -77.1913, 2.57111
5.74352, 6, -11.4464, 35.1609, 20.7933, -11.7142, -77.4296, 2.53366
5.75146, 6, -11.5689, 35.168, 20.8858, -11.8405, -77.6674, 2.49482
5.75945, 6, -11.6917, 35.1742, 20.9791, -11.9671, -77.9047, 2.45413
5.76753, 6, -11.8148, 35.1796, 21.0731, -12.0938, -78.1414, 2.41198
5.77545, 6, -11.9385, 35.1844, 21.1678, -12.2211, -78.3777, 2.36939
5.78646, 6, -12.1243, 35.1901, 21.3116, -12.4122, -78.7308, 2.30286
5.79152, 6, -12.1862, 35.1916, 21.36, -12.4761, -78.8481, 2.27977
5.8005, 6, -12.3104, 35.1939, 21.4575, -12.6038, -79.0826, 2.2326
5.80745, 6, -12.4346, 35.1955, 21.5561, -12.7318, -79.3164, 2.18464
5.81552, 6, -12.5588, 35.1964, 21.6554, -12.8601, -79.5499, 2.13546
5.82347, 6, -12.6828, 35.1967, 21.7554, -12.9889, -79.7828, 2.0846
5.83158, 6, -12.8066, 35.1964, 21.8561, -13.1181, -80.0154, 2.03254
5.83952, 6, -12.9303, 35.1954, 21.9577, -13.2476, -80.2475, 1.98006
5.84749, 6, -13.0539, 35.1935, 22.0603, -13.3772, -80.4789, 1.92591
5.85552, 6, -13.1773, 35.1909, 22.164, -13.507, -80.7099, 1.86993
5.86347, 6, -13.3005, 35.1875, 22.2686, -13.6372, -80.94, 1.81351
5.87146, 6, -13.4235, 35.1832, 22.374, -13.7679, -81.1695, 1.75589
5.87952, 6, -13.5462, 35.1783, 22.48, -13.899, -81.3983, 1.6963
5.88745, 6, -13.6686, 35.1725, 22.5868, -14.0305, -81.6264, 1.63622
5.89545, 6, -13.7909, 35.1659, 22.6944, -14.1624, -81.8537, 1.5749
5.90352, 6, -13.9127, 35.1585, 22.8032, -14.2945, -82.0804, 1.51165
5.91151, 6, -14.034, 35.1501, 22.913, -14.4269, -82.3062, 1.44766
5.91946, 6, -14.1548, 35.141, 23.0237, -14.5596, -82.5315, 1.38259
5.92753, 6, -14.2755, 35.1312, 23.135, -14.6928, -82.7561, 1.31555
5.93546, 6, -14.396, 35.1202, 23.247, -14.8266, -82.9801, 1.24796
5.94346, 6, -14.5163, 35.1084, 23.3599, -14.9604, -83.2032, 1.17864
5.95151, 6, -14.6369, 35.0956, 23.4738, -15.0946, -83.4257, 1.10792
5.95945, 6, -14.7579, 35.0818, 23.5888, -15.229, -83.6476, 1.03675
5.96765, 6, -14.8793, 35.0674, 23.7047, -15.3637, -83.8688, 0.963424
5.97546, 6, -15.0007, 35.0523, 23.8213, -15.4987, -84.089, 0.889716
5.98345, 6, -15.1224, 35.0363, 23.9386, -15.6344, -84.3085, 0.814798
5.99172, 6, -15.2443, 35.0193, 24.0567, -15.7704, -84.5273, 0.737945
5.99959, 6, -15.3661, 35.0015, 24.1759, -15.9066, -84.7454, 0.660981
6.00755, 6, -15.4879, 34.9832, 24.2961, -16.0432, -84.9624, 0.581848
6.01564, 6, -15.6095, 34.9639, 24.4172, -16.1802, -85.1786, 0.502127
6.02389, 6, -15.7311, 34.9437, 24.539, -16.3176, -85.3941, 0.420952
6.03157, 6, -15.8524, 34.9228, 24.6617, -16.4555, -85.6085, 0.338417
6.03962, 6, -15.9733, 34.9008, 24.7851, -16.594, -85.8222, 0.254998
6.04806, 6, -16.0943, 34.8779, 24.9095, -16.7327, -86.035, 0.169655
6.05548, 6, -16.2151, 34.8542, 25.0348, -16.8717, -86.2469, 0.0838523
6.06354, 6, -16.3357, 34.8295, 25.1609, -17.0111, -86.4578, -0.00385321
6.07253, 6, -16.456, 34.804, 25.2878, -17.151, -86.6679, -0.0923004
6.07962, 6, -16.5761, 34.7776, 25.4157, -17.2915, -86.877, -0.182419
6.08772, 6, -16.6958, 34.7503, 25.5444, -17.4325, -87.0853, -0.272994
6.09632, 6, -16.8151, 34.722, 25.6739, -17.5738, -87.2926, -0.365157
6.10377, 6, -16.934, 34.6931, 25.8042, -17.7155, -87.4991, -0.457976
6.11191, 6, -17.0525, 34.6634, 25.9355, -17.8576, -87.7048, -0.55235
6.11992, 6, -17.1703, 34.6329, 26.0678, -18.0002, -87.9094, -0.647549
6.12892, 6, -17.2877, 34.6013, 26.2009, -18.1431, -88.113, -0.744334
6.13615, 6, -17.405, 34.5689, 26.3349, -18.2868, -88.3155, -0.841893
6.14406, 6, -17.5224, 34.5357, 26.4695, -18.4305, -88.517, -0.941027
6.15204, 6, -17.6397, 34.5016, 26.605, -18.5747, -88.7174, -1.04121
6.16011, 6, -17.7558, 34.4665, 26.7414, -18.719, -88.9168, -1.1428
6.16822, 6, -17.8129, 34.4488, 26.8782, -18.8634, -89.1142, -1.24504
6.17638, 6, -17.9796, 34.3953, 27.014, -19.0068, -89.3086, -1.34705
6.18356, 6, -18.0337, 34.3775, 27.0812, -19.0777, -89.4041, -1.39779
6.19147, 6, -18.1386, 34.3425, 27.213, -19.2166, -89.5903, -1.49808
6.19968, 6, -18.2373, 34.3089, 27.3394, -19.3494, -89.7672, -1.59433
6.20749, 6, -18.3284, 34.2778, 27.4574, -19.4731, -89.9314, -1.68467
6.21544, 6, -18.4115, 34.2495, 27.5644, -19.585, -90.0793, -1.76674
6.22345, 6, -18.4859, 34.2242, 27.6582, -19.6828, -90.2077, -1.83933
6.23149, 6, -18.5507, 34.2024, 27.7371, -19.764, -90.3152, -1.8996
6.23944, 6, -18.6057, 34.1842, 27.8006, -19.8291, -90.4007, -1.9483
6.24744, 6, -18.6516, 34.1693, 27.8491, -19.8783, -90.4659, -1.9862
6.25549, 6, -18.6885, 34.1576, 27.8845, -19.9131, -90.5124, -2.01356
6.26345, 6, -18.7166, 34.1489, 27.9086, -19.9365, -90.5434, -2.03218
6.27144, 6, -18.7373, 34.1429, 27.9244, -19.951, -90.5628, -2.04363
6.28104, 6, -18.7518, 34.1388, 27.9371, -19.9621, -90.5775, -2.05232
6.28744, 6, -18.7611, 34.1362, 27.9394, -19.9639, -90.58, -2.05381
6.29543, 7, -18.7667, 34.1346, 27.9423, -19.9661, -90.583, -2.05551
6.30351, 7, -18.7696, 34.1334, 27.9437, -19.9672, -90.5844, -2.0563
6.31144, 7, -18.7701, 34.1326, 27.9444, -19.9677, -90.5852, -2.05667
6.31943, 7, -18.7698, 34.132, 27.9449, -19.968, -90.5855, -2.05688
6.3275, 7, -18.7694, 34.1316, 27.9453, -19.9682, -90.5856, -2.05703
6.3355, 7, -18.769, 34.1313, 27.9456, -19.9683, -90.5857, -2.05704
6.34344, 7, -18.7688, 34.1311, 27.9459, -19.9684, -90.5858, -2.05701
6.35153, 7, -18.7689, 34.1309, 27.9461, -19.9684, -90.5858, -2.057
6.35943, 7, -18.7693, 34.1308, 27.9462, -19.9684, -90.5859, -2.05701
6.36744, 7, -18.7698, 34.1308, 27.9464, -19.9684, -90.5859, -2.05704
6.3755, 7, -18.7703, 34.1308, 27.9466, -19.9685, -90.5859, -2.05706
6.38344, 7, -18.7709, 34.1308, 27.9468, -19.9685, -90.5859, -2.05708
6.39142, 7, -18.7719, 34.1308, 27.9469, -19.9685, -90.586, -2.05708
