hehonglu123/ABB_Primitive_Study/realrobot/movec_30_ori/curve_exe_v500_z10.csv
timestamp, cmd_num, J1, J2, J3, J4, J5, J6
0.00048, -1, -18.7717, 34.1301, 27.9462, -19.9682, -90.5851, -2.05562
0.003986, -1, -18.7717, 34.1301, 27.9462, -19.9682, -90.5851, -2.05562
0.007999, -1, -18.7717, 34.1301, 27.9462, -19.9682, -90.5851, -2.05563
0.027108, -1, -18.7718, 34.1301, 27.9462, -19.9682, -90.5851, -2.05559
0.029881, -1, -18.7718, 34.1301, 27.9462, -19.9682, -90.5851, -2.05557
0.032409, -1, -18.7718, 34.1301, 27.9462, -19.9682, -90.5851, -2.0556
0.03919, -1, -18.7718, 34.1301, 27.9462, -19.9682, -90.5851, -2.05562
0.04848, -1, -18.7716, 34.1301, 27.9462, -19.9682, -90.5851, -2.05558
0.055188, -1, -18.7712, 34.1301, 27.9462, -19.9682, -90.5851, -2.05558
0.064709, -1, -18.7667, 34.1287, 27.9462, -19.968, -90.5849, -2.05559
0.071202, -1, -18.7636, 34.1275, 27.9462, -19.9677, -90.5845, -2.05562
0.080662, -1, -18.7485, 34.1205, 27.9463, -19.9629, -90.5795, -2.0559
0.089454, -1, -18.7316, 34.112, 27.9463, -19.9523, -90.569, -2.05742
0.095241, -1, -18.7201, 34.1061, 27.9463, -19.9437, -90.5602, -2.05998
0.104759, -1, -18.6708, 34.0811, 27.9453, -19.8979, -90.5127, -2.07932
0.113593, -1, -18.624, 34.0574, 27.9429, -19.8434, -90.4559, -2.10373
0.119187, -1, -18.5959, 34.0432, 27.941, -19.8075, -90.4185, -2.12026
0.128188, -1, -18.5293, 34.0095, 27.9352, -19.7155, -90.3218, -2.16343
0.137648, -1, -18.4487, 33.9687, 27.9264, -19.5933, -90.1935, -2.22173
0.144234, -1, -18.3542, 33.9212, 27.9141, -19.4397, -90.0314, -2.29442
0.152188, -1, -18.2461, 33.8669, 27.8983, -19.2545, -89.8356, -2.38303
0.160188, -1, -18.1241, 33.8056, 27.8796, -19.0401, -89.609, -2.48514
0.167188, -1, -17.9888, 33.7378, 27.8584, -18.8009, -89.3553, -2.59935
0.175202, -1, -17.8416, 33.6642, 27.8353, -18.5418, -89.0799, -2.72333
0.183253, -1, -17.6838, 33.5853, 27.8112, -18.268, -88.7888, -2.85422
0.191198, -1, -17.5165, 33.5015, 27.7864, -17.9842, -88.4872, -2.9903
0.199204, -1, -17.3412, 33.4139, 27.7614, -17.6943, -88.1787, -3.12957
0.207305, -1, -17.1604, 33.3236, 27.7362, -17.4004, -87.8663, -3.27084
0.215199, -1, -16.9758, 33.2315, 27.7111, -17.1041, -87.5514, -3.41322
0.223189, -1, -16.7886, 33.1384, 27.6859, -16.8069, -87.235, -3.55602
0.231266, -1, -16.5998, 33.0449, 27.6609, -16.5084, -86.9174, -3.69927
0.239187, -1, -16.41, 32.9511, 27.6357, -16.2093, -86.5989, -3.84268
0.247187, -1, -16.2201, 32.8572, 27.6105, -15.9094, -86.2797, -3.98638
0.255256, -1, -16.0301, 32.7635, 27.5855, -15.6085, -85.9597, -4.13047
0.263232, -1, -15.8406, 32.6698, 27.5604, -15.3072, -85.6394, -4.27466
0.271198, -1, -15.6518, 32.576, 27.5353, -15.0057, -85.3183, -4.41958
0.279251, -1, -15.463, 32.4822, 27.5099, -14.7037, -84.9971, -4.5643
0.28719, -1, -15.2749, 32.3881, 27.4847, -14.4014, -84.6754, -4.70922
0.295191, -1, -15.0871, 32.2938, 27.4594, -14.0986, -84.3531, -4.85433
0.303259, -1, -14.8993, 32.199, 27.434, -13.7953, -84.0309, -4.99961
0.31119, -1, -14.7111, 32.1039, 27.4085, -13.492, -83.7082, -5.14485
0.3193, -1, -14.5218, 32.0087, 27.3829, -13.1887, -83.3853, -5.29035
0.327242, -1, -14.3316, 31.9133, 27.3572, -12.8849, -83.062, -5.43593
0.335283, -1, -14.1402, 31.8178, 27.3316, -12.5813, -82.7385, -5.58191
0.343349, -1, -13.9482, 31.7222, 27.3061, -12.2772, -82.4149, -5.7278
0.351295, -1, -13.7558, 31.6268, 27.2803, -11.9727, -82.0909, -5.87346
0.359295, -1, -13.5627, 31.5314, 27.2548, -11.6684, -81.7667, -6.01918
0.367392, -1, -13.369, 31.4359, 27.2291, -11.364, -81.4428, -6.16487
0.375193, -1, -13.1753, 31.3406, 27.2035, -11.0597, -81.1187, -6.31072
0.383194, -1, -12.9822, 31.2454, 27.1779, -10.7554, -80.7948, -6.45647
0.391469, -1, -12.7899, 31.1503, 27.1524, -10.4508, -80.4712, -6.60231
0.399217, -1, -12.5978, 31.0552, 27.1269, -10.1464, -80.1478, -6.74844
0.40738, -1, -12.4068, 30.9601, 27.1013, -9.84241, -79.8244, -6.89426
0.415406, -1, -12.2167, 30.8649, 27.0756, -9.53829, -79.5009, -7.03987
0.423458, -1, -12.0273, 30.7697, 27.05, -9.2345, -79.1774, -7.18548
0.432396, -1, -11.8384, 30.6744, 27.0245, -8.93088, -78.8541, -7.33079
0.43979, -1, -11.6497, 30.579, 26.999, -8.62731, -78.5309, -7.47623
0.448214, -1, -11.4606, 30.4838, 26.9735, -8.32413, -78.2081, -7.62145
0.456486, -1, -11.2711, 30.3888, 26.9479, -8.02167, -77.8863, -7.76667
0.463754, -1, -11.0814, 30.294, 26.9224, -7.71944, -77.5645, -7.91152
0.472313, -1, -10.8913, 30.1995, 26.897, -7.41786, -77.2435, -8.05594
0.480593, -1, -10.7008, 30.1051, 26.8717, -7.11676, -76.9232, -8.19998
0.488148, -1, -10.5102, 30.011, 26.8463, -6.8158, -76.6031, -8.34375
0.495962, -1, -10.3193, 29.9169, 26.8211, -6.51557, -76.2835, -8.48731
0.504817, -1, -10.1289, 29.8231, 26.7959, -6.21603, -75.9644, -8.63064
0.512207, -1, -9.93917, 29.7295, 26.7708, -5.91691, -75.6458, -8.77378
0.519224, -1, -9.84454, 29.6828, 26.7583, -5.76759, -75.4868, -8.8455
0.529039, -1, -9.56199, 29.5428, 26.7206, -5.32027, -75.0109, -9.05961
0.536651, -1, -9.37478, 29.4496, 26.6956, -5.02293, -74.6946, -9.20186
0.544336, -1, -9.18859, 29.3566, 26.6706, -4.7265, -74.3792, -9.34359
0.551197, -1, -9.09587, 29.3101, 26.6581, -4.57855, -74.2218, -9.41434
0.559268, -1, -8.91105, 29.2174, 26.6332, -4.28303, -73.9074, -9.55562
0.568609, -1, -8.63513, 29.0784, 26.596, -3.84159, -73.4374, -9.76705
0.575179, -1, -8.54339, 29.0323, 26.5836, -3.69479, -73.2811, -9.83724
0.583254, -1, -8.36, 28.9403, 26.5589, -3.40165, -72.9694, -9.97764
0.591194, -1, -8.17697, 28.8487, 26.5343, -3.10969, -72.6587, -10.1176
0.601629, -1, -7.90233, 28.7118, 26.4974, -2.67336, -72.194, -10.3265
0.607253, -1, -7.8108, 28.6663, 26.4853, -2.52838, -72.0397, -10.3958
0.616819, -1, -7.53658, 28.5304, 26.4488, -2.0948, -71.5778, -10.6031
0.625576, -1, -7.44526, 28.4853, 26.4368, -1.95063, -71.4243, -10.7409
0.63125, -1, -7.26294, 28.3952, 26.4126, -1.66305, -71.1184, -10.8096
0.64024, -1, -7.08113, 28.3055, 26.3884, -1.3765, -70.8134, -10.9466
0.648212, -1, -6.90008, 28.216, 26.3644, -1.09099, -70.5094, -11.0833
0.65524, -1, -6.72013, 28.1269, 26.3405, -0.806555, -70.2067, -11.2197
0.663225, -1, -6.54115, 28.038, 26.3167, -0.523228, -69.9053, -11.3554
0.671173, -1, -6.36329, 27.9494, 26.2929, -0.240841, -69.605, -11.4905
0.679183, -1, -6.18673, 27.8611, 26.2691, 0.0406833, -69.3057, -11.6251
0.687177, -1, -6.01107, 27.7731, 26.2455, 0.321073, -69.0073, -11.7593
0.695172, -1, -5.83641, 27.6853, 26.2221, 0.600104, -68.7102, -11.8929
0.703211, -1, -5.66258, 27.5979, 26.1987, 0.87826, -68.4139, -12.0262
0.711236, -1, -5.48924, 27.511, 26.1753, 1.15522, -68.1188, -12.1589
0.719183, -1, -5.31634, 27.4244, 26.152, 1.43098, -67.8249, -12.2911
0.727209, -1, -5.14368, 27.3382, 26.1288, 1.70593, -67.5325, -12.4226
0.735247, -1, -4.97139, 27.2524, 26.1059, 1.97966, -67.2413, -12.5537
0.743174, -1, -4.79929, 27.167, 26.083, 2.25199, -66.9513, -12.6838
0.751186, -1, -4.62778, 27.082, 26.0601, 2.52331, -66.6629, -12.8135
0.759249, -1, -4.45681, 26.9973, 26.0374, 2.7933, -66.3755, -12.9427
0.767177, -1, -4.28605, 26.9129, 26.0147, 3.06186, -66.0894, -13.0713
0.775719, -1, -4.11594, 26.8289, 25.9922, 3.32974, -65.8044, -13.1993
0.783164, -1, -3.94676, 26.7453, 25.9698, 3.59638, -65.5206, -13.3272
0.791166, -1, -3.7789, 26.662, 25.9474, 3.86159, -65.238, -13.4543
0.799976, -1, -3.61217, 26.579, 25.9253, 4.12599, -64.9566, -13.5806
0.808356, -1, -3.44658, 26.4963, 25.903, 4.38897, -64.6766, -13.7065
0.815188, -1, -3.28209, 26.414, 25.881, 4.65068, -64.398, -13.8316
0.824009, -1, -3.11857, 26.3321, 25.8589, 4.91145, -64.1204, -13.9561
0.832261, -1, -2.95623, 26.2505, 25.837, 5.17125, -63.8442, -14.0802
0.839261, -1, -2.79478, 26.1692, 25.8153, 5.42972, -63.5692, -14.204
0.848057, -1, -2.63405, 26.0884, 25.7937, 5.68692, -63.2956, -14.3268
0.856267, -1, -2.47374, 26.008, 25.7723, 5.94288, -63.0232, -14.4497
0.863277, -1, -2.31362, 25.9281, 25.7508, 6.19762, -62.7519, -14.5717
0.872214, -1, -2.15386, 25.8484, 25.7294, 6.45103, -62.482, -14.693
0.879175, -1, -1.99455, 25.7692, 25.7081, 6.70357, -62.2133, -14.814
0.887231, -1, -1.83568, 25.6905, 25.687, 6.95508, -61.9457, -14.934
0.896132, -1, -1.67746, 25.6121, 25.6661, 7.20516, -61.6792, -15.0535
0.903205, -1, -1.51954, 25.5339, 25.6452, 7.45399, -61.414, -15.1727
0.911331, -1, -1.36198, 25.4561, 25.6242, 7.702, -61.1498, -15.2913
0.9202, -1, -1.20507, 25.3787, 25.6036, 7.94879, -60.8867, -15.4092
0.927409, -1, -1.04904, 25.3016, 25.583, 8.19437, -60.625, -15.5271
0.935539, -1, -0.894142, 25.2248, 25.5624, 8.43905, -60.3646, -15.6442
0.944364, -1, -0.740588, 25.1484, 25.542, 8.68279, -60.1055, -15.7608
0.951562, -1, -0.588015, 25.0723, 25.5215, 8.92509, -59.8475, -15.8769
0.959721, -1, -0.436466, 24.9965, 25.5012, 9.16633, -59.5909, -15.9923
0.968321, -1, -0.286071, 24.9212, 25.481, 9.40651, -59.3357, -16.1074
0.975706, -1, -0.136797, 24.8462, 25.4609, 9.64557, -59.0816, -16.2219
0.98429, -1, 0.0115497, 24.7715, 25.4411, 9.88326, -58.8284, -16.3358
0.994313, -1, 0.0854069, 24.6971, 25.4212, 10.1202, -58.5764, -16.4495
1.00037, -1, 0.306408, 24.623, 25.4012, 10.3562, -58.3252, -16.5623
1.0077, -1, 0.380012, 24.5862, 25.3913, 10.4737, -58.2, -16.6189
1.01683, -1, 0.600677, 24.476, 25.3619, 10.8244, -57.8261, -16.787
1.02427, -1, 0.747459, 24.403, 25.3423, 11.057, -57.5781, -16.8983
1.03116, -1, 0.820767, 24.3666, 25.3326, 11.1729, -57.4545, -16.9538
1.04107, -1, 1.03992, 24.2578, 25.3035, 11.5189, -57.0856, -17.1193
1.04852, -1, 1.18534, 24.1858, 25.2841, 11.7484, -56.8414, -17.229
1.05516, -1, 1.25783, 24.1499, 25.2745, 11.8628, -56.7197, -17.2836
1.06526, -1, 1.47468, 24.0427, 25.2458, 12.2045, -56.3564, -17.4468
1.07115, -1, 1.54674, 24.0071, 25.2363, 12.3178, -56.2359, -17.5009
1.08059, -1, 1.76177, 23.9009, 25.208, 12.6561, -55.8759, -17.6629
1.0894, -1, 1.90392, 23.8305, 25.1891, 12.8807, -55.6373, -17.7705
1.09515, -1, 1.97455, 23.7955, 25.1796, 12.9924, -55.5184, -17.824
1.10476, -1, 2.18505, 23.6907, 25.1516, 13.3262, -55.163, -17.9839
1.11357, -1, 2.32422, 23.6212, 25.1329, 13.5475, -54.9273, -18.0898
1.12076, -1, 2.39347, 23.5866, 25.1144, 13.7682, -54.6925, -18.1952
1.12871, -1, 2.53127, 23.5175, 25.1053, 13.878, -54.5754, -18.3002
1.13758, -1, 2.66808, 23.4488, 25.0869, 14.0971, -54.3419, -18.3525
1.14316, -1, 2.8039, 23.3803, 25.0686, 14.315, -54.1096, -18.4568
1.15123, -1, 2.93909, 23.3122, 25.0503, 14.5322, -53.8785, -18.5607
1.15915, -1, 3.07395, 23.2442, 25.0321, 14.7485, -53.6483, -18.6642
1.16721, -1, 3.20875, 23.1766, 25.0139, 14.9636, -53.4191, -18.7671
1.17522, -1, 3.34361, 23.1092, 24.996, 15.178, -53.1909, -18.8701
1.18315, -1, 3.47823, 23.0423, 24.9782, 15.3915, -52.9637, -18.9723
1.19115, -1, 3.61254, 22.9755, 24.9602, 15.6044, -52.7376, -19.0741
1.19922, -1, 3.74654, 22.909, 24.9425, 15.8161, -52.5121, -19.1752
1.20719, -1, 3.88008, 22.8428, 24.9248, 16.0268, -52.2879, -19.2763
1.21517, -1, 4.01325, 22.777, 24.9071, 16.2368, -52.0646, -19.3764
1.22322, -1, 4.14601, 22.7115, 24.8895, 16.4459, -51.8419, -19.4764
1.23118, -1, 4.27832, 22.6462, 24.8721, 16.654, -51.6202, -19.5759
1.23916, -1, 4.41002, 22.5812, 24.8547, 16.8612, -51.3993, -19.675
1.24723, -1, 4.54096, 22.5164, 24.8373, 17.0678, -51.1793, -19.774
1.25515, -1, 4.67128, 22.4517, 24.8201, 17.2737, -50.9603, -19.8723
1.26315, -1, 4.80075, 22.3873, 24.8028, 17.4786, -50.742, -19.9706
1.27121, -1, 4.92955, 22.3231, 24.7857, 17.6827, -50.5246, -20.0684
1.27915, -1, 5.05753, 22.2592, 24.7687, 17.8858, -50.3081, -20.1659
1.28717, -1, 5.18466, 22.1954, 24.7517, 18.0885, -50.0924, -20.2626
1.29522, -1, 5.31098, 22.132, 24.7346, 18.2902, -49.8776, -20.3593
1.30315, -1, 5.43645, 22.0688, 24.7177, 18.4912, -49.6637, -20.4553
1.31115, -1, 5.56105, 22.0059, 24.7009, 18.6913, -49.4506, -20.551
1.31923, -1, 5.68515, 21.9433, 24.6839, 18.8909, -49.2386, -20.6462
1.3272, -1, 5.80898, 21.8809, 24.6673, 19.0897, -49.0271, -20.7415
1.33526, -1, 5.93274, 21.819, 24.6508, 19.2876, -48.817, -20.836
1.34331, -1, 6.05644, 21.7571, 24.6342, 19.4847, -48.6074, -20.9307
1.35125, -1, 6.17999, 21.6954, 24.6177, 19.6811, -48.3986, -21.0245
1.35932, -1, 6.30334, 21.634, 24.6014, 19.8767, -48.1903, -21.1185
1.36727, -1, 6.42656, 21.5728, 24.5849, 20.0716, -47.9829, -21.2118
1.37529, -1, 6.5496, 21.5117, 24.5684, 20.2656, -47.7763, -21.3051
1.38332, -1, 6.67217, 21.451, 24.5523, 20.4589, -47.5702, -21.3973
1.39116, -1, 6.79445, 21.3904, 24.5361, 20.6518, -47.3648, -21.4899
1.39922, -1, 6.91628, 21.3301, 24.5199, 20.8437, -47.1601, -21.5813
1.40756, -1, 7.03759, 21.2701, 24.5037, 21.0351, -46.9562, -21.6731
1.41524, -1, 7.15834, 21.2103, 24.4877, 21.2257, -46.7531, -21.7638
1.42337, -1, 7.27837, 21.1508, 24.4717, 21.4156, -46.5508, -21.8551
1.43146, -1, 7.39788, 21.0916, 24.4558, 21.605, -46.3493, -21.9452
1.43942, -1, 7.51683, 21.0325, 24.4402, 21.7935, -46.1486, -22.0357
1.44764, -1, 7.63527, 20.9736, 24.4245, 21.9813, -45.9486, -22.1254
1.45596, -1, 7.75331, 20.9149, 24.4087, 22.1686, -45.7496, -22.2154
1.46423, -1, 7.87077, 20.8564, 24.393, 22.3553, -45.551, -22.3046
1.47172, -1, 7.98762, 20.7979, 24.3773, 22.5415, -45.3535, -22.3939
1.48033, -1, 8.10388, 20.7397, 24.3617, 22.7268, -45.1566, -22.4821
1.48774, -1, 8.21957, 20.6816, 24.3461, 22.9114, -44.9604, -22.5706
1.49625, -1, 8.33495, 20.6237, 24.3308, 23.0953, -44.7647, -22.6583
1.5041, -1, 8.39252, 20.5948, 24.3155, 23.2788, -44.5695, -22.7461
1.51114, -1, 8.50734, 20.5373, 24.3077, 23.3702, -44.472, -22.7898
1.52023, -1, 8.67866, 20.4515, 24.2846, 23.6435, -44.1808, -22.9203
1.52717, -1, 8.73549, 20.423, 24.277, 23.7342, -44.084, -22.9638
1.5362, -1, 8.90564, 20.3378, 24.2542, 24.0059, -43.7943, -23.0936
1.54321, -1, 8.96228, 20.3095, 24.2466, 24.0962, -43.6983, -23.1369
1.55269, -1, 9.1319, 20.2249, 24.2241, 24.366, -43.4111, -23.266
1.56039, -1, 9.245, 20.1687, 24.2092, 24.5452, -43.2204, -23.3521
1.56718, -1, 9.30153, 20.1407, 24.2016, 24.6344, -43.1253, -23.3947
1.57662, -1, 9.47064, 20.0568, 24.179, 24.9015, -42.8409, -23.523
1.58458, -1, 9.58288, 20.001, 24.1641, 25.0791, -42.652, -23.6075
1.59116, -1, 9.63883, 19.9733, 24.1566, 25.1676, -42.5578, -23.6499
1.60108, -1, 9.80607, 19.89, 24.1343, 25.4322, -42.2761, -23.7764
1.60875, -1, 9.9172, 19.8348, 24.1196, 25.6078, -42.089, -23.8606
1.61675, -1, 10.028, 19.7798, 24.1051, 25.7831, -41.9029, -23.9441
1.62479, -1, 10.0833, 19.7524, 24.0905, 25.9581, -41.717, -24.0276
1.63266, -1, 10.1935, 19.6977, 24.0831, 26.0452, -41.6243, -24.0693
1.64018, -1, 10.3034, 19.6431, 24.0684, 26.219, -41.4393, -24.1521
1.64818, -1, 10.4126, 19.5889, 24.0538, 26.3924, -41.2548, -24.2352
1.65513, -1, 10.5214, 19.5347, 24.0393, 26.5651, -41.0709, -24.3176
1.66315, -1, 10.6299, 19.4806, 24.0248, 26.7375, -40.8873, -24.4003
1.67203, -1, 10.7379, 19.4268, 24.0104, 26.9091, -40.7047, -24.4826
1.68018, -1, 10.8456, 19.373, 23.9962, 27.0803, -40.5222, -24.5646
1.68815, -1, 10.9529, 19.3194, 23.982, 27.2508, -40.3404, -24.6466
1.69618, -1, 11.0598, 19.2659, 23.9676, 27.4211, -40.1591, -24.7276
1.70323, -1, 11.1663, 19.2127, 23.9532, 27.5909, -39.9784, -24.8092
1.71115, -1, 11.2725, 19.1595, 23.939, 27.7602, -39.7984, -24.8899
1.71993, -1, 11.3783, 19.1065, 23.9248, 27.9289, -39.6187, -24.9708
1.7282, -1, 11.4837, 19.0537, 23.9106, 28.0969, -39.4397, -25.0512
1.73613, -1, 11.5887, 19.0012, 23.8966, 28.2645, -39.2611, -25.1315
1.74415, -1, 11.6936, 18.9487, 23.8827, 28.4318, -39.0829, -25.2117
1.75221, -1, 11.7984, 18.8965, 23.8687, 28.5987, -38.9055, -25.2914
1.76014, -1, 11.9029, 18.8444, 23.8547, 28.765, -38.7286, -25.3714
1.76871, -1, 12.0073, 18.7924, 23.8406, 28.9307, -38.5518, -25.4505
1.77514, -1, 12.1115, 18.7406, 23.8268, 29.0959, -38.376, -25.5305
1.78321, -1, 12.2156, 18.6888, 23.8129, 29.2611, -38.2007, -25.6093
1.79113, -1, 12.3194, 18.6372, 23.7991, 29.4257, -38.026, -25.6884
1.79915, -1, 12.423, 18.5857, 23.7854, 29.5898, -37.8517, -25.767
1.80721, -1, 12.5264, 18.5343, 23.7718, 29.7532, -37.6778, -25.845
1.81514, -1, 12.6295, 18.4831, 23.7582, 29.9164, -37.5043, -25.9235
1.82319, -1, 12.7323, 18.432, 23.7444, 30.079, -37.3312, -26.0007
1.83138, -1, 12.8347, 18.381, 23.7306, 30.2414, -37.1585, -26.0786
1.83925, -1, 12.9368, 18.3304, 23.717, 30.403, -36.9862, -26.1556
1.84723, -1, 13.0385, 18.2798, 23.7035, 30.5644, -36.8143, -26.2325
1.85553, -1, 13.1398, 18.2295, 23.6899, 30.725, -36.6429, -26.3097
1.86324, -1, 13.2407, 18.1793, 23.6765, 30.8856, -36.472, -26.3859
1.87125, -1, 13.3414, 18.1292, 23.6632, 31.0458, -36.3016, -26.4627
1.87975, -1, 13.4418, 18.0792, 23.6499, 31.2054, -36.1315, -26.5388
1.88826, -1, 13.5419, 18.0292, 23.6365, 31.3646, -35.9619, -26.6151
1.89516, -1, 13.6419, 17.9793, 23.6231, 31.5233, -35.7929, -26.6914
1.904, -1, 13.7416, 17.9296, 23.6099, 31.6815, -35.6244, -26.767
1.91225, -1, 13.8411, 17.8798, 23.5966, 31.8396, -35.4563, -26.843
1.91925, -1, 13.9405, 17.8302, 23.5833, 31.9972, -35.2886, -26.918
1.92814, -1, 14.0397, 17.7808, 23.57, 32.1544, -35.1213, -26.9934
1.93536, -1, 14.1387, 17.7315, 23.5569, 32.3111, -34.9546, -27.0683
1.94346, -1, 14.2373, 17.6824, 23.5439, 32.4673, -34.7883, -27.1427
1.95237, -1, 14.3354, 17.6334, 23.5307, 32.6234, -34.6226, -27.2177
1.95956, -1, 14.4332, 17.5846, 23.5175, 32.7793, -34.4572, -27.2916
1.96821, -1, 14.5307, 17.536, 23.5045, 32.9347, -34.292, -27.3659
1.97648, -1, 14.6278, 17.4875, 23.4915, 33.0896, -34.1271, -27.4402
1.98366, -1, 14.7246, 17.4392, 23.4786, 33.244, -33.9626, -27.5138
1.99223, -1, 14.8211, 17.3909, 23.4656, 33.3981, -33.7985, -27.588
2.00041, -1, 14.8694, 17.3427, 23.4528, 33.5518, -33.6349, -27.6614
2.00774, -1, 14.9657, 17.3186, 23.4464, 33.7053, -33.4714, -27.7352
2.01612, -1, 15.1099, 17.2464, 23.4272, 33.8582, -33.3082, -27.8086
2.02313, -1, 15.1578, 17.2224, 23.4208, 33.9346, -33.2269, -27.845
2.03112, -1, 15.2537, 17.1744, 23.4079, 34.0868, -33.0646, -27.9183
2.04095, -1, 15.3975, 17.1027, 23.3886, 34.3148, -32.8221, -28.0272
2.04833, -1, 15.4933, 17.0549, 23.3758, 34.4664, -32.6608, -28.0999
2.05512, -1, 15.5412, 17.0312, 23.3694, 34.5421, -32.5804, -28.1363
2.06514, -1, 15.6845, 16.9602, 23.3503, 34.7685, -32.3394, -28.2441
2.07115, -1, 15.7321, 16.9365, 23.344, 34.8438, -32.2593, -28.2805
2.08055, -1, 15.8746, 16.8659, 23.3253, 35.0689, -32.0194, -28.388
2.08936, -1, 15.9694, 16.819, 23.3127, 35.2188, -31.86, -28.4594
2.09516, -1, 16.0167, 16.7956, 23.3064, 35.2936, -31.7805, -28.4955
2.10465, -1, 16.1578, 16.7257, 23.2875, 35.5175, -31.5422, -28.6022
2.11334, -1, 16.2515, 16.679, 23.2751, 35.6662, -31.3842, -28.6739
2.11912, -1, 16.2982, 16.6557, 23.2689, 35.7405, -31.3051, -28.7095
2.1287, -1, 16.3915, 16.6093, 23.2564, 35.9627, -31.0684, -28.8156
2.1376, -1, 16.4846, 16.5628, 23.2438, 36.0367, -30.9896, -28.8515
2.14473, -1, 16.5774, 16.5163, 23.2314, 36.1846, -30.8324, -28.9222
2.15217, -1, 16.67, 16.47, 23.2191, 36.3321, -30.6753, -28.9926
2.16016, -1, 16.7623, 16.4237, 23.2067, 36.4793, -30.5189, -29.0634
2.1682, -1, 16.8546, 16.3774, 23.1944, 36.6259, -30.3627, -29.1332
2.17618, -1, 16.9467, 16.3314, 23.1819, 36.7723, -30.207, -29.2033
2.18415, -1, 17.0387, 16.2855, 23.1696, 36.9183, -30.0513, -29.2734
2.19216, -1, 17.1303, 16.2398, 23.1574, 37.0642, -29.896, -29.3426
2.20012, -1, 17.2205, 16.1948, 23.145, 37.2095, -29.741, -29.4125
2.20812, -1, 17.3073, 16.1513, 23.1325, 37.3542, -29.5872, -29.4814
2.21522, -1, 17.3893, 16.1103, 23.1199, 37.4966, -29.4354, -29.5493
2.22311, -1, 17.4657, 16.0722, 23.1075, 37.6344, -29.2884, -29.6158
2.23212, -1, 17.5366, 16.0373, 23.0953, 37.7643, -29.1496, -29.6778
2.24018, -1, 17.6006, 16.0063, 23.0841, 37.8827, -29.0232, -29.7346
2.24811, -1, 17.657, 15.9788, 23.0743, 37.986, -28.9125, -29.7848
2.25612, -1, 17.707, 15.9541, 23.0666, 38.0705, -28.8217, -29.8259
2.26419, -1, 17.7509, 15.9315, 23.0614, 38.1364, -28.7506, -29.8577
2.27212, -1, 17.7888, 15.9118, 23.0582, 38.183, -28.6998, -29.8805
2.28017, -1, 17.8196, 15.8961, 23.0565, 38.2143, -28.6656, -29.8958
2.28814, -1, 17.844, 15.8841, 23.0557, 38.2338, -28.6443, -29.905
2.29513, -1, 17.8627, 15.8755, 23.0554, 38.2449, -28.632, -29.9102
2.30318, -1, 17.8748, 15.8699, 23.0552, 38.2506, -28.6256, -29.9129
2.31108, 2, 17.8813, 15.8669, 23.0551, 38.2535, -28.6225, -29.9141
2.31912, 2, 17.8842, 15.8655, 23.0551, 38.2548, -28.6211, -29.9146
2.32719, 2, 17.8852, 15.8648, 23.0551, 38.2554, -28.6205, -29.915
2.33517, 2, 17.8848, 15.8645, 23.0551, 38.2557, -28.6202, -29.9152
2.34325, 2, 17.8841, 15.8644, 23.0551, 38.2559, -28.6201, -29.9152
2.35127, 2, 17.8834, 15.8643, 23.0551, 38.2559, -28.6201, -29.9153
2.35922, 2, 17.8831, 15.8643, 23.0551, 38.2559, -28.62, -29.9153
2.36721, 2, 17.8829, 15.8642, 23.0551, 38.2559, -28.62, -29.9153
2.37531, 2, 17.8829, 15.864, 23.0551, 38.2559, -28.62, -29.9152
2.38324, 2, 17.883, 15.8638, 23.0551, 38.2559, -28.6199, -29.9153
2.39131, 2, 17.8833, 15.8635, 23.0551, 38.2559, -28.62, -29.9153
2.39922, 2, 17.8837, 15.8631, 23.0551, 38.2559, -28.62, -29.9153
2.40718, 2, 17.8841, 15.8629, 23.0551, 38.2559, -28.62, -29.9153
2.4152, 2, 17.8849, 15.8627, 23.0551, 38.2559, -28.6201, -29.9153
2.42361, 2, 17.8858, 15.8626, 23.0551, 38.2559, -28.62, -29.9153
2.4313, 2, 17.8865, 15.8625, 23.0551, 38.2559, -28.62, -29.9153
2.43934, 2, 17.887, 15.8626, 23.0551, 38.2559, -28.6201, -29.9152
2.44796, 2, 17.8873, 15.8626, 23.0551, 38.2559, -28.6201, -29.9153
2.45621, 2, 17.8875, 15.8626, 23.0551, 38.2559, -28.6201, -29.9153
2.46354, 2, 17.8876, 15.8626, 23.0551, 38.2559, -28.6201, -29.9153
2.47218, 2, 17.8877, 15.8626, 23.0551, 38.2559, -28.6201, -29.9153
2.47964, 2, 17.8877, 15.8626, 23.0551, 38.2559, -28.6202, -29.9152
2.48823, 2, 17.8877, 15.8626, 23.0551, 38.2559, -28.6202, -29.9153
2.49607, 2, 17.8877, 15.8625, 23.0551, 38.2559, -28.6202, -29.9153
2.50429, 2, 17.8875, 15.8624, 23.0551, 38.2559, -28.6202, -29.9152
2.51168, 2, 17.8874, 15.8624, 23.0551, 38.2559, -28.6202, -29.9152
2.52036, 2, 17.8872, 15.8623, 23.0551, 38.2559, -28.6202, -29.9152
2.5271, 2, 17.8871, 15.8623, 23.0551, 38.2559, -28.6203, -29.9152
2.53615, 2, 17.887, 15.8622, 23.0551, 38.2559, -28.6203, -29.9153
2.54403, 2, 17.887, 15.8622, 23.0551, 38.2559, -28.6203, -29.9152
2.55112, 2, 17.887, 15.8623, 23.0551, 38.2559, -28.6202, -29.9152
2.56032, 2, 17.887, 15.8623, 23.0551, 38.2559, -28.6203, -29.9152
2.56712, 2, 17.887, 15.8623, 23.0551, 38.2559, -28.6203, -29.9152
2.57515, 2, 17.887, 15.8623, 23.0551, 38.2559, -28.6204, -29.9152
2.58455, 2, 17.887, 15.8623, 23.0551, 38.2559, -28.6204, -29.9152
2.59114, 2, 17.887, 15.8623, 23.0551, 38.2559, -28.6204, -29.9152
2.59911, 2, 17.887, 15.8623, 23.0551, 38.2559, -28.6204, -29.9152
2.60865, 2, 17.887, 15.8623, 23.0551, 38.2559, -28.6205, -29.9152
2.6173, 2, 17.887, 15.8623, 23.0551, 38.2559, -28.6205, -29.9152
2.62313, 2, 17.887, 15.8623, 23.0551, 38.2559, -28.6205, -29.9152
2.63271, 2, 17.887, 15.8623, 23.0551, 38.2559, -28.6205, -29.9152
2.64102, 2, 17.8869, 15.8623, 23.0551, 38.2559, -28.6205, -29.9152
2.64713, 2, 17.8869, 15.8623, 23.0551, 38.2559, -28.6205, -29.9152
2.65512, 2, 17.8869, 15.8623, 23.0551, 38.2559, -28.6205, -29.9152
2.66516, 2, 17.8869, 15.8623, 23.0551, 38.2559, -28.6205, -29.9152
2.67113, 2, 17.8869, 15.8623, 23.0551, 38.2559, -28.6205, -29.9152
2.67915, 2, 17.8869, 15.8623, 23.0551, 38.2559, -28.6205, -29.9152
2.68713, 2, 17.8868, 15.8623, 23.0551, 38.2559, -28.6206, -29.9152
2.69514, 2, 17.8868, 15.8624, 23.0551, 38.2559, -28.6205, -29.9152
2.7031, 2, 17.8868, 15.8623, 23.0551, 38.2558, -28.6206, -29.9152
2.71112, 2, 17.8868, 15.8623, 23.0551, 38.2558, -28.6206, -29.9152
2.72015, 2, 17.8868, 15.8623, 23.0551, 38.2559, -28.6207, -29.9152
2.72812, 2, 17.8868, 15.8623, 23.0551, 38.2558, -28.6207, -29.9152
2.7361, 2, 17.8868, 15.8623, 23.0551, 38.2558, -28.6207, -29.9152
2.74316, 2, 17.8868, 15.8623, 23.0551, 38.2558, -28.6207, -29.9152
2.7511, 2, 17.8868, 15.8623, 23.0551, 38.2558, -28.6208, -29.9152
2.75914, 2, 17.8868, 15.8623, 23.0551, 38.2557, -28.6208, -29.9152
2.76712, 2, 17.8867, 15.8623, 23.0551, 38.2558, -28.6208, -29.9151
2.77511, 2, 17.8867, 15.8624, 23.0551, 38.2558, -28.6208, -29.9151
2.78314, 2, 17.8867, 15.8624, 23.0551, 38.2558, -28.6208, -29.9151
2.79113, 2, 17.8867, 15.8624, 23.0551, 38.2558, -28.6208, -29.9151
2.7991, 2, 17.8866, 15.8624, 23.0551, 38.2557, -28.6208, -29.9152
2.80714, 2, 17.8866, 15.8624, 23.0551, 38.2558, -28.6208, -29.9151
2.81515, 2, 17.8865, 15.8624, 23.0551, 38.2558, -28.6208, -29.9152
2.8231, 2, 17.8865, 15.8624, 23.0551, 38.2557, -28.6208, -29.9152
2.83114, 2, 17.8865, 15.8624, 23.0551, 38.2557, -28.6208, -29.9152
2.83927, 2, 17.8864, 15.8624, 23.0551, 38.2557, -28.6209, -29.9151
2.84723, 2, 17.8864, 15.8624, 23.0551, 38.2557, -28.6209, -29.9151
2.85525, 2, 17.8864, 15.8624, 23.0551, 38.2557, -28.6209, -29.9151
2.86323, 2, 17.8863, 15.8624, 23.0551, 38.2557, -28.6209, -29.9151
2.87125, 2, 17.8862, 15.8624, 23.0551, 38.2557, -28.6209, -29.9151
2.87927, 2, 17.8862, 15.8624, 23.0551, 38.2557, -28.6209, -29.9151
2.88725, 2, 17.8861, 15.8624, 23.0551, 38.2557, -28.6209, -29.9151
2.89516, 2, 17.8861, 15.8624, 23.0551, 38.2557, -28.621, -29.9151
2.90313, 2, 17.886, 15.8624, 23.0551, 38.2557, -28.6209, -29.9151
2.91122, 2, 17.886, 15.8624, 23.0551, 38.2557, -28.621, -29.9151
2.91928, 2, 17.8859, 15.8624, 23.0551, 38.2557, -28.621, -29.9151
2.92721, 2, 17.8859, 15.8624, 23.0551, 38.2557, -28.621, -29.9151
2.93541, 2, 17.8858, 15.8624, 23.0551, 38.2557, -28.621, -29.9151
2.94339, 2, 17.8858, 15.8624, 23.0551, 38.2556, -28.621, -29.9151
2.9514, 2, 17.8857, 15.8624, 23.0551, 38.2556, -28.621, -29.915
2.95964, 2, 17.8857, 15.8624, 23.0551, 38.2557, -28.6211, -29.9151
2.96819, 2, 17.8856, 15.8624, 23.0551, 38.2556, -28.6211, -29.9151
2.97561, 2, 17.8856, 15.8624, 23.0551, 38.2556, -28.6211, -29.9151
2.9842, 2, 17.8855, 15.8624, 23.0551, 38.2556, -28.6211, -29.9151
2.99165, 2, 17.8855, 15.8625, 23.0551, 38.2556, -28.6211, -29.9151
3.00026, 2, 17.8854, 15.8625, 23.0551, 38.2556, -28.6211, -29.915
3.00773, 2, 17.8854, 15.8625, 23.0551, 38.2556, -28.6211, -29.915
3.01626, 2, 17.8853, 15.8625, 23.0551, 38.2556, -28.6212, -29.915
3.02308, 2, 17.8852, 15.8625, 23.0551, 38.2555, -28.6211, -29.915
3.03214, 2, 17.8852, 15.8625, 23.0551, 38.2554, -28.6211, -29.9151
3.03918, 2, 17.8851, 15.8624, 23.0551, 38.2554, -28.6211, -29.9151
3.04821, 2, 17.8851, 15.8624, 23.0551, 38.2554, -28.6212, -29.9151
3.05514, 2, 17.885, 15.8624, 23.0551, 38.2554, -28.6212, -29.9151
3.06433, 2, 17.885, 15.8624, 23.0551, 38.2554, -28.6212, -29.915
3.07108, 2, 17.8849, 15.8624, 23.0551, 38.2555, -28.6212, -29.915
3.08053, 2, 17.8849, 15.8624, 23.0551, 38.2554, -28.6212, -29.915
3.08712, 2, 17.8848, 15.8625, 23.0551, 38.2554, -28.6212, -29.915
3.09664, 2, 17.8847, 15.8625, 23.0551, 38.2554, -28.6212, -29.915
3.1047, 2, 17.8847, 15.8625, 23.0551, 38.2554, -28.6212, -29.9151
3.11263, 2, 17.8846, 15.8625, 23.0551, 38.2554, -28.6212, -29.9151
3.12073, 2, 17.8846, 15.8625, 23.0551, 38.2554, -28.6212, -29.915
3.12874, 2, 17.8845, 15.8625, 23.0551, 38.2554, -28.6212, -29.915
3.13673, 2, 17.8845, 15.8625, 23.0551, 38.2554, -28.6212, -29.915
3.14464, 2, 17.8845, 15.8625, 23.0551, 38.2554, -28.6212, -29.915
3.15211, 2, 17.8844, 15.8625, 23.0551, 38.2553, -28.6212, -29.915
3.16012, 2, 17.8844, 15.8625, 23.0551, 38.2553, -28.6212, -29.915
3.16812, 2, 17.8843, 15.8625, 23.0551, 38.2552, -28.6213, -29.915
3.17611, 2, 17.8843, 15.8625, 23.0551, 38.2552, -28.6212, -29.9149
3.18412, 2, 17.8843, 15.8625, 23.0551, 38.2551, -28.6212, -29.9149
3.19212, 2, 17.8842, 15.8625, 23.0551, 38.2552, -28.6212, -29.915
3.20012, 2, 17.8842, 15.8625, 23.0551, 38.2552, -28.6212, -29.915
3.20808, 2, 17.8842, 15.8625, 23.0551, 38.2552, -28.6212, -29.915
3.21619, 2, 17.8841, 15.8625, 23.0551, 38.2552, -28.6213, -29.915
3.2241, 2, 17.8841, 15.8625, 23.0551, 38.2552, -28.6212, -29.9149
3.23208, 2, 17.8841, 15.8625, 23.0551, 38.2551, -28.6213, -29.9149
3.24013, 2, 17.8841, 15.8625, 23.0551, 38.2551, -28.6213, -29.9149
3.24811, 2, 17.8841, 15.8625, 23.0551, 38.255, -28.6213, -29.9149
3.25608, 2, 17.8841, 15.8625, 23.0551, 38.255, -28.6213, -29.915
3.26412, 2, 17.8841, 15.8625, 23.0551, 38.255, -28.6214, -29.9149
3.27211, 2, 17.884, 15.8625, 23.0551, 38.255, -28.6214, -29.9149
3.28011, 2, 17.884, 15.8625, 23.0552, 38.255, -28.6214, -29.9149
3.28711, 2, 17.884, 15.8625, 23.0552, 38.255, -28.6214, -29.9149
3.2951, 2, 17.884, 15.8626, 23.0552, 38.2549, -28.6214, -29.9149
3.30312, 2, 17.8839, 15.8626, 23.0552, 38.2549, -28.6214, -29.9149
3.3113, 2, 17.8839, 15.8626, 23.0551, 38.2549, -28.6215, -29.9149
3.32009, 2, 17.8839, 15.8626, 23.0551, 38.2549, -28.6215, -29.9149
3.32719, 2, 17.8839, 15.8626, 23.0551, 38.2549, -28.6215, -29.9149
3.33514, 2, 17.8839, 15.8626, 23.0551, 38.2549, -28.6214, -29.9149
3.34321, 2, 17.8839, 15.8626, 23.0551, 38.2548, -28.6214, -29.9149
3.35128, 2, 17.8839, 15.8626, 23.0551, 38.2548, -28.6214, -29.9149
3.35923, 2, 17.8838, 15.8626, 23.0552, 38.2548, -28.6214, -29.9149
3.36717, 2, 17.8838, 15.8626, 23.0551, 38.2548, -28.6215, -29.9149
3.37527, 2, 17.8838, 15.8626, 23.0551, 38.2548, -28.6215, -29.9149
3.38319, 2, 17.8838, 15.8626, 23.0551, 38.2547, -28.6215, -29.9149
3.39116, 2, 17.8838, 15.8626, 23.0551, 38.2547, -28.6215, -29.9149
3.39953, 2, 17.8838, 15.8626, 23.0551, 38.2547, -28.6215, -29.9149
3.40711, 4, 17.8838, 15.8626, 23.0551, 38.2547, -28.6214, -29.9148
3.41522, 4, 17.8837, 15.8626, 23.0551, 38.2547, -28.6214, -29.9149
3.42331, 4, 17.8837, 15.8626, 23.0551, 38.2547, -28.6215, -29.9148
3.43121, 4, 17.8837, 15.8626, 23.0551, 38.2547, -28.6215, -29.9147
3.43969, 4, 17.8837, 15.8626, 23.0552, 38.2547, -28.6215, -29.9148
3.44809, 4, 17.8837, 15.8626, 23.0552, 38.2547, -28.6214, -29.9148
3.4562, 4, 17.8837, 15.8626, 23.0552, 38.2546, -28.6214, -29.9147
3.46353, 4, 17.8836, 15.8626, 23.0552, 38.2546, -28.6214, -29.9147
3.47167, 4, 17.8836, 15.8626, 23.0552, 38.2547, -28.6214, -29.9147
3.48024, 4, 17.8836, 15.8626, 23.0552, 38.2546, -28.6215, -29.9147
3.48779, 4, 17.8836, 15.8626, 23.0552, 38.2546, -28.6215, -29.9147
3.4962, 4, 17.8836, 15.8626, 23.0552, 38.2546, -28.6215, -29.9147
3.50395, 4, 17.8835, 15.8627, 23.0552, 38.2546, -28.6215, -29.9147
3.51187, 4, 17.8836, 15.8626, 23.0551, 38.2546, -28.6215, -29.9147
3.53685, 4, 17.8835, 15.8627, 23.0552, 38.2545, -28.6215, -29.9147
3.53809, 4, 17.8835, 15.8627, 23.0552, 38.2545, -28.6215, -29.9147
3.54015, 4, 17.8836, 15.8627, 23.0552, 38.2545, -28.6215, -29.9146
3.5445, 4, 17.8836, 15.8627, 23.0552, 38.2544, -28.6215, -29.9146
3.55112, 4, 17.8836, 15.8627, 23.0552, 38.2544, -28.6215, -29.9146
3.55914, 4, 17.8834, 15.8628, 23.0552, 38.2544, -28.6215, -29.9146
3.5683, 4, 17.8808, 15.8645, 23.055, 38.2542, -28.6215, -29.9145
3.57508, 4, 17.8786, 15.8661, 23.0548, 38.2536, -28.6216, -29.9142
3.58555, 4, 17.8669, 15.8774, 23.0518, 38.245, -28.6229, -29.9084
3.59114, 4, 17.861, 15.8844, 23.0495, 38.2381, -28.6241, -29.9026
3.59912, 5, 17.8448, 15.9048, 23.042, 38.2143, -28.629, -29.8797
3.60863, 5, 17.8064, 15.9544, 23.0194, 38.1378, -28.6459, -29.803
3.61516, 5, 17.7898, 15.976, 23.0081, 38.0963, -28.6552, -29.761
3.62473, 5, 17.7287, 16.0556, 22.9602, 37.9104, -28.6972, -29.5716
3.6337, 5, 17.7046, 16.0875, 22.9156, 37.728, -28.7397, -29.3852
3.64147, 5, 17.6504, 16.16, 22.8893, 37.6189, -28.7946, -29.1494
3.64706, 5, 17.5884, 16.2437, 22.829, 37.3659, -28.8261, -29.0136
3.65608, 5, 17.5193, 16.3373, 22.7595, 37.0713, -28.8982, -28.7107
3.66306, 5, 17.443, 16.4403, 22.6822, 36.7433, -28.9801, -28.3733
3.67107, 5, 17.3593, 16.5535, 22.5985, 36.3913, -29.0698, -28.0113
3.68015, 5, 17.2683, 16.6764, 22.5104, 36.0236, -29.1654, -27.6336
3.68815, 5, 17.1714, 16.8061, 22.4197, 35.6474, -29.2656, -27.2472
3.69508, 5, 17.0703, 16.9403, 22.3276, 35.2669, -29.369, -26.8572
3.70407, 5, 16.9662, 17.0771, 22.2352, 34.8854, -29.4752, -26.4663
3.7142, 5, 16.8066, 17.284, 22.0966, 34.314, -29.6385, -25.883
3.71912, 5, 16.7529, 17.3532, 22.0505, 34.1242, -29.6937, -25.6898
3.72715, 5, 16.6452, 17.4917, 21.9585, 33.746, -29.806, -25.3054
3.73508, 5, 16.5374, 17.6299, 21.867, 33.3698, -29.9201, -24.9239
3.74307, 5, 16.4295, 17.7675, 21.776, 32.9958, -30.0356, -24.5453
3.75207, 5, 16.3213, 17.9044, 21.6858, 32.6239, -30.1534, -24.1694
3.76015, 5, 16.2132, 18.0407, 21.5964, 32.2545, -30.2725, -23.7968
3.76706, 5, 16.1051, 18.1769, 21.5075, 31.8872, -30.3937, -23.4273
3.77607, 5, 15.997, 18.3126, 21.4191, 31.5224, -30.5164, -23.0606
3.78507, 5, 15.8888, 18.4478, 21.3313, 31.1599, -30.6407, -22.6973
3.79115, 5, 15.7803, 18.5826, 21.244, 30.7995, -30.767, -22.3372
3.79919, 5, 15.6716, 18.7168, 21.1574, 30.4415, -30.8945, -21.9802
3.80713, 5, 15.5623, 18.8509, 21.0716, 30.0861, -31.0237, -21.6268
3.81508, 5, 15.4525, 18.9849, 20.9865, 29.7332, -31.1543, -21.2768
3.82306, 5, 15.3422, 19.1185, 20.9022, 29.3826, -31.2868, -20.9301
3.83209, 5, 15.2315, 19.2516, 20.8185, 29.0344, -31.4207, -20.5868
3.84015, 5, 15.1206, 19.3843, 20.7354, 28.6888, -31.5564, -20.2469
3.84712, 5, 15.0095, 19.5164, 20.6529, 28.3455, -31.6936, -19.91
3.85531, 5, 14.8981, 19.6484, 20.5709, 28.0049, -31.8323, -19.5764
3.86316, 5, 14.7865, 19.7799, 20.4896, 27.6665, -31.9726, -19.2465
3.87117, 5, 14.6747, 19.9109, 20.4089, 27.3305, -32.1142, -18.9198
3.87929, 5, 14.5629, 20.0411, 20.329, 26.9969, -32.2571, -18.5964
3.88717, 5, 14.4508, 20.1708, 20.2498, 26.6658, -32.4015, -18.2763
3.89508, 5, 14.3387, 20.2999, 20.1712, 26.3373, -32.5474, -17.9598
3.90321, 5, 14.2266, 20.4287, 20.0931, 26.0112, -32.6945, -17.6461
3.9111, 5, 14.1145, 20.5573, 20.0156, 25.6874, -32.8431, -17.336
3.91922, 5, 14.0022, 20.6854, 19.9388, 25.3663, -32.993, -17.0294
3.92729, 5, 13.8898, 20.813, 19.8626, 25.0475, -33.1442, -16.7263
3.93522, 5, 13.7773, 20.9402, 19.7872, 24.7312, -33.2965, -16.4264
3.94329, 5, 13.6649, 21.0672, 19.7125, 24.4175, -33.4501, -16.1301
3.95144, 5, 13.5524, 21.194, 19.6384, 24.1059, -33.605, -15.8371
3.95945, 5, 13.4398, 21.3203, 19.5651, 23.7967, -33.7611, -15.5473
3.96811, 5, 13.3273, 21.4462, 19.4925, 23.4898, -33.9186, -15.2606
3.97557, 5, 13.2146, 21.5715, 19.4205, 23.1855, -34.0771, -14.9774
3.98416, 5, 13.1015, 21.696, 19.349, 22.8835, -34.2369, -14.6976
3.99162, 5, 12.9879, 21.8201, 19.2782, 22.5839, -34.3979, -14.4207
4.00026, 5, 12.8742, 21.9436, 19.2079, 22.2865, -34.5602, -14.1472
4.00765, 5, 12.8171, 22.0665, 19.1384, 21.9916, -34.7236, -13.8766
4.01612, 5, 12.6456, 22.1887, 19.0695, 21.699, -34.8882, -13.6096
4.02366, 5, 12.5882, 22.2496, 19.0353, 21.5534, -34.9708, -13.3456
4.0321, 5, 12.4157, 22.4314, 18.934, 21.1206, -35.2206, -13.0848
4.03916, 5, 12.358, 22.4918, 18.9006, 20.9775, -35.3044, -12.9556
4.04902, 5, 12.1851, 22.6727, 18.8013, 20.5514, -35.5572, -12.5732
4.05617, 5, 12.0695, 22.7929, 18.7359, 20.2699, -35.7271, -12.3223
4.06312, 5, 12.0117, 22.8528, 18.7035, 20.1301, -35.8123, -12.198
4.07316, 5, 11.8385, 23.0319, 18.6073, 19.7137, -36.0697, -11.8298
4.07915, 5, 11.7806, 23.0913, 18.5755, 19.576, -36.1559, -11.7086
4.08855, 5, 11.607, 23.2687, 18.4814, 19.1666, -36.4158, -11.3503
4.09506, 5, 11.549, 23.3276, 18.4504, 19.0311, -36.5031, -11.2322
4.10311, 5, 11.433, 23.4452, 18.3888, 18.7617, -36.6779, -10.9983
4.11264, 5, 11.2589, 23.6204, 18.2977, 18.3617, -36.9423, -10.6532
4.12148, 5, 11.1425, 23.7363, 18.2379, 18.0976, -37.1196, -10.427
4.12712, 5, 11.0843, 23.794, 18.2082, 17.9663, -37.2084, -10.3151
4.13666, 5, 10.9094, 23.9661, 18.1202, 17.5758, -37.4767, -9.98357
4.14545, 5, 10.8511, 24.0233, 18.0911, 17.4466, -37.5664, -9.87452
4.15111, 5, 10.7341, 24.1374, 18.0335, 17.1895, -37.7469, -9.65867
4.16011, 5, 10.6169, 24.251, 17.9765, 16.9346, -37.9283, -9.4457
4.1681, 5, 10.4999, 24.3642, 17.9203, 16.6817, -38.1104, -9.2359
4.17611, 5, 10.383, 24.4769, 17.8647, 16.4306, -38.2935, -9.02903
4.18405, 5, 10.2661, 24.589, 17.8099, 16.1815, -38.4771, -8.82482
4.1921, 5, 10.1491, 24.7005, 17.7557, 15.9344, -38.6616, -8.62361
4.1991, 5, 10.032, 24.8116, 17.7022, 15.6893, -38.8469, -8.42499
4.20705, 5, 9.91469, 24.9224, 17.6495, 15.4459, -39.0327, -8.22958
4.21606, 5, 9.79724, 25.0326, 17.5975, 15.2044, -39.2192, -8.03713
4.22305, 5, 9.67943, 25.1422, 17.5463, 14.9648, -39.4064, -7.8473
4.23209, 5, 9.56148, 25.2513, 17.4957, 14.7269, -39.5941, -7.66012
4.24022, 5, 9.44332, 25.3596, 17.4459, 14.4906, -39.7826, -7.47575
4.2483, 5, 9.32477, 25.4673, 17.3966, 14.2562, -39.9717, -7.29415
4.25507, 5, 9.2058, 25.5746, 17.3481, 14.0235, -40.1614, -7.11526
4.26406, 5, 9.0866, 25.6814, 17.3003, 13.7925, -40.3518, -6.93932
4.2736, 5, 8.96724, 25.7874, 17.2533, 13.563, -40.5426, -6.76585
4.28005, 5, 8.8476, 25.8929, 17.2071, 13.3351, -40.734, -6.59472
4.28808, 5, 8.72781, 25.9978, 17.1614, 13.1089, -40.926, -6.4263
4.29616, 5, 8.60803, 26.1018, 17.1167, 12.884, -41.1185, -6.26033
4.30407, 5, 8.48826, 26.2054, 17.0725, 12.6609, -41.3116, -6.09723
4.3124, 5, 8.36836, 26.3085, 17.0292, 12.4395, -41.5051, -5.93651
4.32109, 5, 8.24814, 26.4109, 16.9867, 12.2196, -41.699, -5.77849
4.32806, 5, 8.12782, 26.5128, 16.9449, 12.001, -41.8936, -5.62283
4.33837, 5, 7.94752, 26.6645, 16.8835, 11.676, -42.1864, -5.39336
4.34316, 5, 7.88735, 26.7147, 16.8634, 11.5685, -42.2843, -5.3182
4.35111, 5, 7.76689, 26.8148, 16.8237, 11.3545, -42.4804, -5.1695
4.35931, 5, 7.64655, 26.9142, 16.785, 11.1417, -42.6768, -5.02347
4.36716, 5, 7.52645, 27.0132, 16.7469, 10.9305, -42.8736, -4.8798
4.37521, 5, 7.40639, 27.1117, 16.7095, 10.7207, -43.0709, -4.73862
4.38316, 5, 7.28635, 27.2095, 16.6729, 10.5123, -43.2685, -4.59979
4.39122, 5, 7.16643, 27.3067, 16.637, 10.3051, -43.4666, -4.46329
4.39922, 5, 7.04636, 27.4033, 16.6018, 10.0991, -43.6648, -4.32879
4.40713, 5, 6.92606, 27.4991, 16.5674, 9.89461, -43.8635, -4.19679
4.4151, 5, 6.80548, 27.5942, 16.5338, 9.69139, -44.0624, -4.06703
4.42315, 5, 6.68457, 27.6886, 16.5009, 9.4894, -44.2615, -3.93971
4.43133, 5, 6.56335, 27.7824, 16.4687, 9.28857, -44.4611, -3.81472
4.43929, 5, 6.44171, 27.8756, 16.4373, 9.08918, -44.661, -3.69209
4.44742, 5, 6.31959, 27.9682, 16.4065, 8.89114, -44.8612, -3.57205
4.45551, 5, 6.19734, 28.0601, 16.3766, 8.69428, -45.0618, -3.45385
4.46409, 5, 6.07499, 28.1514, 16.3476, 8.49844, -45.263, -3.33797
4.47159, 5, 5.95228, 28.2421, 16.3193, 8.30381, -45.4642, -3.22408
4.4802, 5, 5.82956, 28.3321, 16.2916, 8.1105, -45.6658, -3.11221
4.48758, 5, 5.70694, 28.4214, 16.2649, 7.91827, -45.8677, -3.00265
4.49615, 5, 5.58432, 28.5102, 16.2389, 7.727, -46.0698, -2.89508
4.5039, 5, 5.46147, 28.5984, 16.2138, 7.53658, -46.272, -2.78985
4.51216, 5, 5.33848, 28.6859, 16.1893, 7.34756, -46.4743, -2.68658
4.51977, 5, 5.21541, 28.7727, 16.1657, 7.15954, -46.6769, -2.5854
4.52829, 5, 5.09216, 28.8589, 16.1428, 6.97247, -46.8794, -2.48643
4.53504, 5, 5.03049, 28.9017, 16.1317, 6.87917, -46.9807, -2.43792
4.54309, 5, 4.90719, 28.9867, 16.1102, 6.69335, -47.1833, -2.34167
4.5525, 5, 4.72229, 29.1128, 16.0791, 6.41657, -47.4876, -2.20122
4.55912, 5, 4.66066, 29.1545, 16.0692, 6.32476, -47.5891, -2.15526
4.5671, 5, 4.53738, 29.2374, 16.05, 6.14191, -47.7924, -2.06522
4.5764, 5, 4.35279, 29.3604, 16.0225, 5.86885, -48.0974, -1.93327
4.58305, 5, 4.29136, 29.4011, 16.0138, 5.77837, -48.1992, -1.89053
4.59117, 5, 4.16852, 29.4819, 15.9971, 5.59822, -48.4027, -1.8056
4.60087, 5, 3.98404, 29.6019, 15.9735, 5.32963, -48.7083, -1.6828
4.60941, 5, 3.86106, 29.6811, 15.9587, 5.1517, -48.9122, -1.60288
4.61515, 5, 3.79953, 29.7204, 15.9517, 5.06289, -49.0143, -1.56394
4.62467, 5, 3.61449, 29.8373, 15.9319, 4.79802, -49.3204, -1.44926
4.63355, 5, 3.49064, 29.9143, 15.9197, 4.62249, -49.5243, -1.37541
4.63916, 5, 3.4286, 29.9525, 15.9138, 4.53504, -49.6263, -1.3394
4.64886, 5, 3.30425, 30.0285, 15.9029, 4.36066, -49.9323, -1.23285
4.65604, 5, 3.17938, 30.1037, 15.893, 4.18689, -50.0342, -1.19847
4.66309, 5, 3.05421, 30.1781, 15.8838, 4.01391, -50.2381, -1.13095
4.67211, 5, 2.92893, 30.2518, 15.8755, 3.84183, -50.442, -1.06437
4.68014, 5, 2.80361, 30.3247, 15.8679, 3.6704, -50.6457, -1.00046
4.6871, 5, 2.67806, 30.3968, 15.8611, 3.49967, -50.8496, -0.937994
4.82892, 5, 0.481684, 31.537, 15.8799, 0.607499, -54.4071, -0.103552
4.83096, 5, 0.418636, 31.5669, 15.8847, 0.527978, -54.51, -0.0827363
4.83215, 5, 0.418636, 31.5669, 15.8847, 0.527978, -54.51, -0.0827363
4.8334, 5, 0.418636, 31.5669, 15.8847, 0.527978, -54.51, -0.0827363
4.83539, 5, 0.355485, 31.5969, 15.8898, 0.448936, -54.6134, -0.0608913
4.83668, 5, 0.355485, 31.5969, 15.8898, 0.448936, -54.6134, -0.0608913
4.83964, 6, 0.292258, 31.6268, 15.8952, 0.370388, -54.7175, -0.0378784
4.84356, 6, 0.229008, 31.6568, 15.9008, 0.29226, -54.8225, -0.013254
4.84485, 6, 0.229008, 31.6568, 15.9008, 0.29226, -54.8225, -0.013254
4.84676, 6, 0.165766, 31.6867, 15.9066, 0.214671, -54.9284, 0.0132388
4.84883, 6, 0.165766, 31.6867, 15.9066, 0.214671, -54.9284, 0.0132388
4.85065, 6, 0.102533, 31.7167, 15.9127, 0.137601, -55.0352, 0.0415769
4.85208, 6, 0.102533, 31.7167, 15.9127, 0.137601, -55.0352, 0.0415769
4.85332, 6, 0.102533, 31.7167, 15.9127, 0.137601, -55.0352, 0.0415769
4.857, 6, 0.0392881, 31.7466, 15.9191, 0.0610428, -55.1431, 0.0715589
4.85909, 6, -0.0240388, 31.7765, 15.9258, -0.0150236, -55.2521, 0.103059
4.86039, 6, -0.0240388, 31.7765, 15.9258, -0.0150236, -55.2521, 0.103059
4.8616, 6, -0.0240388, 31.7765, 15.9258, -0.0150236, -55.2521, 0.103059
4.86438, 6, -0.0874677, 31.8065, 15.9328, -0.0905531, -55.3622, 0.136354
4.86645, 6, -0.0874677, 31.8065, 15.9328, -0.0905531, -55.3622, 0.136354
4.86786, 6, -0.15091, 31.8365, 15.9401, -0.165439, -55.4734, 0.171717
4.86911, 6, -0.15091, 31.8365, 15.9401, -0.165439, -55.4734, 0.171717
4.87521, 6, -0.277748, 31.8963, 15.9554, -0.313524, -55.6988, 0.248061
4.87921, 6, -0.341187, 31.9263, 15.9635, -0.386812, -55.8131, 0.288025
4.88756, 6, -0.468021, 31.9864, 15.9807, -0.531774, -56.044, 0.371464
4.89511, 6, -0.594929, 32.0465, 15.9989, -0.675215, -56.2776, 0.458223
4.90403, 6, -0.721802, 32.1065, 16.018, -0.817276, -56.5132, 0.545942
4.91177, 6, -0.848546, 32.1664, 16.038, -0.958611, -56.75, 0.634182
4.92085, 6, -0.975117, 32.2262, 16.0589, -1.09899, -56.9878, 0.720986
4.92803, 6, -1.10173, 32.2856, 16.0807, -1.23865, -57.2262, 0.80728
4.93602, 6, -1.22816, 32.3445, 16.1035, -1.37736, -57.4651, 0.891038
4.94547, 6, -1.35442, 32.403, 16.1272, -1.51546, -57.7042, 0.973964
4.95204, 6, -1.48053, 32.461, 16.1517, -1.65288, -57.9437, 1.05474
4.96023, 6, -1.60641, 32.5185, 16.177, -1.78983, -58.1838, 1.13438
4.96739, 6, -1.73182, 32.5755, 16.2032, -1.9264, -58.4244, 1.2121
4.97555, 6, -1.85683, 32.6319, 16.2302, -2.06218, -58.6654, 1.28784
4.98434, 6, -1.98166, 32.6878, 16.258, -2.1974, -58.9068, 1.36256
4.99156, 6, -2.10647, 32.7432, 16.2867, -2.33202, -59.1487, 1.43473
5.00103, 6, -2.23123, 32.798, 16.3164, -2.46612, -59.3914, 1.50589
5.00852, 6, -2.35612, 32.8521, 16.3469, -2.59973, -59.6342, 1.57497
5.01563, 6, -2.41868, 32.879, 16.3779, -2.73305, -59.8774, 1.64215
5.0241, 6, -2.60688, 32.9589, 16.41, -2.86584, -60.1209, 1.70845
5.03103, 6, -2.66976, 32.9851, 16.4263, -2.93201, -60.2427, 1.74069
5.03901, 6, -2.79569, 33.0373, 16.4596, -3.06386, -60.4864, 1.80332
5.04902, 6, -2.98523, 33.1146, 16.5109, -3.26082, -60.8524, 1.89563
5.05519, 6, -3.04855, 33.1401, 16.5285, -3.3262, -60.9746, 1.92538
5.06417, 6, -3.23863, 33.2158, 16.5826, -3.52209, -61.3413, 2.01164
5.07108, 6, -3.30198, 33.2407, 16.601, -3.58726, -61.4637, 2.03982
5.08119, 6, -3.49216, 33.315, 16.6575, -3.78196, -61.8311, 2.12206
5.08706, 6, -3.5555, 33.3394, 16.6768, -3.84675, -61.9538, 2.14844
5.09652, 6, -3.74515, 33.4119, 16.7358, -4.04016, -62.322, 2.22591
5.10531, 6, -3.87166, 33.4595, 16.7763, -4.1687, -62.5679, 2.27609
5.11106, 6, -3.9349, 33.4831, 16.7968, -4.23278, -62.6909, 2.30028
5.12117, 6, -4.12444, 33.5527, 16.8595, -4.42505, -63.0602, 2.36998
5.12701, 6, -4.18758, 33.5756, 16.8809, -4.48888, -63.1835, 2.39263
5.1351, 6, -4.31384, 33.6209, 16.9242, -4.61631, -63.43, 2.43721
5.14464, 6, -4.44011, 33.6878, 16.9907, -4.80672, -63.8002, 2.50071
5.15339, 6, -4.56603, 33.7098, 17.0133, -4.87002, -63.9236, 2.52087
5.15908, 6, -4.69144, 33.7534, 17.0589, -4.99646, -64.1706, 2.5602
5.16905, 6, -4.87898, 33.8178, 17.1292, -5.18554, -64.5412, 2.61665
5.17503, 6, -4.94134, 33.8389, 17.1529, -5.2485, -64.6648, 2.63489
5.18402, 6, -5.06584, 33.8809, 17.2011, -5.37432, -64.9119, 2.66996
5.19101, 6, -5.19017, 33.9224, 17.2502, -5.49981, -65.1592, 2.70302
5.20009, 6, -5.31456, 33.9632, 17.3002, -5.62498, -65.4066, 2.73452
5.20801, 6, -5.43908, 34.0035, 17.351, -5.74983, -65.654, 2.76448
5.21607, 6, -5.56375, 34.0433, 17.4026, -5.87455, -65.9015, 2.79346
5.22409, 6, -5.68882, 34.0822, 17.4552, -5.99904, -66.149, 2.82115
5.23202, 6, -5.81442, 34.1206, 17.5084, -6.12354, -66.3967, 2.84721
5.23903, 6, -5.94025, 34.1583, 17.5625, -6.2478, -66.6444, 2.87121
5.24803, 6, -6.06631, 34.1953, 17.6175, -6.37199, -66.8922, 2.89349
5.25602, 6, -6.19257, 34.2317, 17.6733, -6.49581, -67.14, 2.91435
5.26559, 6, -6.31897, 34.2674, 17.7585, -6.68122, -67.5115, 2.94286
5.27202, 6, -6.44525, 34.3025, 17.7873, -6.743, -67.6353, 2.95166
5.28103, 6, -6.57141, 34.3368, 17.8455, -6.86645, -67.8829, 2.96838
5.28808, 6, -6.69757, 34.3706, 17.9046, -6.9901, -68.1303, 2.98394
5.29601, 6, -6.82372, 34.4039, 17.9647, -7.11356, -68.3775, 2.99815
5.30403, 6, -6.94984, 34.4364, 18.0256, -7.23702, -68.6249, 3.01101
5.31202, 6, -7.07581, 34.4682, 18.0874, -7.3604, -68.8722, 3.02222
5.32003, 6, -7.20175, 34.4996, 18.1501, -7.48354, -69.1193, 3.03197
5.32808, 6, -7.32741, 34.5303, 18.2136, -7.60677, -69.3665, 3.04018
5.33601, 6, -7.45282, 34.5605, 18.278, -7.72987, -69.6137, 3.04684
5.34404, 6, -7.57806, 34.5898, 18.3431, -7.85329, -69.861, 3.05201
5.35209, 6, -7.70308, 34.6186, 18.4091, -7.97647, -70.108, 3.05572
5.36003, 6, -7.82763, 34.6468, 18.4758, -8.09979, -70.3549, 3.05803
5.36814, 6, -7.95177, 34.6742, 18.5435, -8.22284, -70.6017, 3.05927
5.37513, 6, -8.07572, 34.7009, 18.612, -8.3459, -70.8481, 3.05978
5.38323, 6, -8.1996, 34.7269, 18.6813, -8.46895, -71.0943, 3.05977
5.3915, 6, -8.32331, 34.7524, 18.7515, -8.59186, -71.3401, 3.05897
5.39901, 6, -8.44705, 34.7771, 18.8227, -8.71509, -71.586, 3.05703
5.40716, 6, -8.57104, 34.8011, 18.8946, -8.83833, -71.8317, 3.05356
5.41579, 6, -8.69539, 34.8243, 18.9674, -8.96154, -72.0772, 3.04826
5.42402, 6, -8.82011, 34.8469, 19.0409, -9.08476, -72.3223, 3.0408
5.43211, 6, -8.94507, 34.8689, 19.1153, -9.20789, -72.5674, 3.03174
5.44003, 6, -9.07049, 34.8902, 19.1904, -9.33117, -72.8123, 3.02079
5.44802, 6, -9.1961, 34.9108, 19.2665, -9.45447, -73.0569, 3.00819
5.45538, 6, -9.32158, 34.9308, 19.3434, -9.57808, -73.3011, 2.99374
5.46421, 6, -9.44695, 34.95, 19.4213, -9.70177, -73.5452, 2.97756
5.47158, 6, -9.57234, 34.9684, 19.5001, -9.82559, -73.7888, 2.96023
5.48015, 6, -9.69766, 34.9863, 19.5797, -9.94937, -74.0323, 2.9417
5.48827, 6, -9.82289, 35.0035, 19.6602, -10.0732, -74.2755, 2.92214
5.49563, 6, -9.94808, 35.0199, 19.7413, -10.1971, -74.5183, 2.90104
5.50426, 6, -10.0733, 35.0355, 19.8232, -10.3212, -74.7608, 2.87863
5.51236, 6, -10.1983, 35.0505, 19.906, -10.4458, -75.0032, 2.85479
5.51985, 6, -10.2608, 35.0648, 19.9897, -10.5703, -75.245, 2.8291
5.52819, 6, -10.4479, 35.0782, 20.0743, -10.6951, -75.4864, 2.80178
5.53503, 6, -10.5102, 35.0846, 20.117, -10.7577, -75.607, 2.78761
5.54305, 6, -10.6345, 35.097, 20.2029, -10.8825, -75.8478, 2.75851
5.55212, 6, -10.8205, 35.1145, 20.3334, -11.0702, -76.2081, 2.713
5.55899, 6, -10.8823, 35.1199, 20.3772, -11.1329, -76.328, 2.69716
5.56705, 6, -11.0056, 35.1303, 20.4655, -11.2585, -76.5675, 2.66437
5.57684, 6, -11.1896, 35.1443, 20.5995, -11.4474, -76.9264, 2.61166
5.58434, 6, -11.3119, 35.1526, 20.6901, -11.5734, -77.1653, 2.57527
5.59107, 6, -11.3731, 35.1567, 20.7357, -11.6365, -77.2845, 2.55675
5.60073, 6, -11.5568, 35.1677, 20.8739, -11.8259, -77.6415, 2.49915
5.60848, 6, -11.6796, 35.174, 20.9672, -11.9524, -77.8788, 2.45868
5.61682, 6, -11.8027, 35.1795, 21.0611, -12.0791, -78.1155, 2.41668
5.62479, 6, -11.9262, 35.1844, 21.1558, -12.2064, -78.3518, 2.3742
5.63258, 6, -12.0499, 35.1885, 21.2513, -12.3337, -78.5874, 2.33042
5.64066, 6, -12.1738, 35.1917, 21.3478, -12.4613, -78.8223, 2.28498
5.64872, 6, -12.2978, 35.1941, 21.4452, -12.589, -79.0568, 2.23785
5.65601, 6, -12.3599, 35.195, 21.4943, -12.6529, -79.1737, 2.21405
5.66405, 6, -12.4841, 35.1963, 21.5933, -12.7812, -79.4075, 2.16575
5.67211, 6, -12.608, 35.1969, 21.6929, -12.9097, -79.6406, 2.11594
5.68002, 6, -12.7319, 35.197, 21.7932, -13.0388, -79.8733, 2.06441
5.688, 6, -12.8557, 35.1965, 21.8943, -13.1681, -80.1056, 2.01226
5.69608, 6, -12.9792, 35.1951, 21.9964, -13.2978, -80.3373, 1.95918
5.70412, 6, -13.1027, 35.1928, 22.0995, -13.4275, -80.5686, 1.90434
5.71205, 6, -13.2261, 35.1898, 22.2036, -13.5576, -80.7992, 1.84809
5.72006, 6, -13.3492, 35.1861, 22.3086, -13.688, -81.0291, 1.79137
5.728, 6, -13.472, 35.1815, 22.4143, -13.8189, -81.2583, 1.73285
5.73606, 6, -13.5946, 35.1763, 22.5206, -13.9503, -81.4868, 1.673
5.74414, 6, -13.7169, 35.1702, 22.6277, -14.0819, -81.7146, 1.61253
5.75201, 6, -13.8391, 35.1632, 22.7359, -14.2139, -81.9418, 1.55038
5.75899, 6, -13.9607, 35.1554, 22.8451, -14.3462, -82.168, 1.48661
5.76802, 6, -14.0818, 35.1468, 22.9554, -14.4788, -82.3937, 1.42255
5.77602, 6, -14.2026, 35.1374, 23.0664, -14.6117, -82.6188, 1.35655
5.78412, 6, -14.3232, 35.1271, 23.1779, -14.7452, -82.8432, 1.28914
5.79207, 6, -14.4436, 35.1158, 23.2903, -14.879, -83.0668, 1.22119
5.8, 6, -14.5641, 35.1036, 23.4036, -15.0129, -83.2898, 1.15104
5.80808, 6, -14.6848, 35.0905, 23.518, -15.1472, -83.5121, 1.08021
5.81501, 6, -14.806, 35.0764, 23.6334, -15.2816, -83.7338, 1.0082
5.82405, 6, -14.9273, 35.0617, 23.7496, -15.4165, -83.9544, 0.934414
5.83207, 6, -15.0488, 35.0463, 23.8664, -15.5517, -84.1745, 0.860652
5.84001, 6, -15.1705, 35.0298, 23.984, -15.6875, -84.3937, 0.784647
5.84808, 6, -15.2924, 35.0125, 24.1026, -15.8236, -84.6123, 0.707823
5.85604, 6, -15.4141, 34.9946, 24.2222, -15.96, -84.8299, 0.630148
5.86406, 6, -15.5358, 34.9759, 24.3429, -16.0967, -85.0467, 0.550637
5.87212, 6, -15.6575, 34.9562, 24.4642, -16.2337, -85.2626, 0.470582
5.8791, 6, -15.779, 34.9358, 24.5864, -16.3713, -85.4777, 0.388554
5.88801, 6, -15.9001, 34.9145, 24.7093, -16.5095, -85.6919, 0.305917
5.89607, 6, -16.021, 34.8921, 24.8331, -16.648, -85.9052, 0.221693
5.903, 6, -16.1419, 34.8689, 24.9579, -16.7869, -86.1177, 0.136353
5.91174, 6, -16.2626, 34.8448, 25.0835, -16.926, -86.3293, 0.049714
5.92006, 6, -16.3831, 34.8198, 25.21, -17.0656, -86.5398, -0.0383159
5.928, 6, -16.5033, 34.794, 25.3373, -17.2057, -86.7495, -0.127159
5.93601, 6, -16.6233, 34.7672, 25.4654, -17.3463, -86.9583, -0.217363
5.94412, 6, -16.7428, 34.7395, 25.5945, -17.4874, -87.1662, -0.308465
5.95201, 6, -16.862, 34.7109, 25.7244, -17.6289, -87.3732, -0.4012
5.96011, 6, -16.9806, 34.6817, 25.855, -17.7708, -87.5794, -0.494628
5.96735, 6, -17.0988, 34.6517, 25.9867, -17.9131, -87.7846, -0.58932
5.97548, 6, -17.2164, 34.6207, 26.1194, -18.0557, -87.9889, -0.685132
5.98418, 6, -17.3337, 34.5888, 26.2528, -18.1991, -88.192, -0.78227
5.9915, 6, -17.4511, 34.5561, 26.3871, -18.3428, -88.3942, -0.88051
6.00009, 6, -17.5686, 34.5226, 26.5221, -18.4867, -88.5952, -0.979955
6.00816, 6, -17.6861, 34.488, 26.658, -18.6309, -88.7952, -1.08082
6.01559, 6, -17.803, 34.4525, 26.7949, -18.7755, -88.9942, -1.18274
6.02417, 6, -17.9174, 34.4165, 26.9322, -18.9203, -89.1914, -1.28577
6.03099, 6, -17.9731, 34.3985, 27.0007, -18.9926, -89.2892, -1.33714
6.04008, 6, -18.1331, 34.3448, 27.2032, -19.2063, -89.5761, -1.49074
6.04707, 6, -18.1836, 34.3275, 27.2688, -19.2753, -89.6681, -1.54053
6.05613, 6, -18.3247, 34.2788, 27.4541, -19.4698, -89.9266, -1.6824
6.06297, 6, -18.3678, 34.264, 27.5107, -19.5291, -90.0049, -1.72562
6.0725, 6, -18.4835, 34.2243, 27.66, -19.6849, -90.2101, -1.84085
6.079, 6, -18.5174, 34.2128, 27.7021, -19.7284, -90.2675, -1.87309
6.0884, 6, -18.6058, 34.1838, 27.8036, -19.8325, -90.405, -1.95077
6.09663, 6, -18.6533, 34.1687, 27.8517, -19.881, -90.4694, -1.98815
6.10459, 6, -18.6909, 34.1569, 27.8863, -19.9148, -90.5148, -2.01495
6.11297, 6, -18.719, 34.1484, 27.9098, -19.9373, -90.5449, -2.03306
6.11903, 6, -18.7301, 34.1452, 27.9184, -19.9453, -90.5555, -2.03938
6.12856, 6, -18.7534, 34.1386, 27.9344, -19.9597, -90.5745, -2.05064
6.13685, 7, -18.7622, 34.136, 27.9397, -19.964, -90.5803, -2.05397
6.14465, 7, -18.7675, 34.1344, 27.9425, -19.9662, -90.5831, -2.05564
6.15268, 7, -18.77, 34.1333, 27.9438, -19.9672, -90.5845, -2.05646
6.15999, 7, -18.7703, 34.1328, 27.9442, -19.9675, -90.5849, -2.05669
6.16799, 7, -18.7701, 34.1321, 27.9447, -19.9679, -90.5854, -2.05698
6.17693, 7, -18.7691, 34.1315, 27.9452, -19.9682, -90.5856, -2.05712
6.18406, 7, -18.7688, 34.1313, 27.9454, -19.9683, -90.5857, -2.05713
6.19199, 7, -18.7684, 34.1311, 27.9458, -19.9684, -90.5858, -2.05713
6.20004, 7, -18.7683, 34.1309, 27.946, -19.9684, -90.5858, -2.05716
6.20804, 7, -18.7685, 34.1308, 27.9462, -19.9685, -90.5859, -2.05718
6.21599, 7, -18.7691, 34.1308, 27.9463, -19.9684, -90.5859, -2.0572
6.2241, 7, -18.7697, 34.1307, 27.9464, -19.9685, -90.5859, -2.05724
6.23199, 7, -18.7704, 34.1307, 27.9466, -19.9684, -90.586, -2.05719
6.23998, 7, -18.7715, 34.1307, 27.9468, -19.9684, -90.586, -2.05713
6.24701, 7, -18.7726, 34.1307, 27.9469, -19.9685, -90.5861, -2.05715
6.25621, 7, -18.7736, 34.1307, 27.947, -19.9685, -90.586, -2.05711
