hehonglu123/ABB_Primitive_Study/realrobot/movec_30_ori/curve_exe_v1500_z10.csv
timestamp, cmd_num, J1, J2, J3, J4, J5, J6
0.000459, -1, -18.7696, 34.1304, 27.9443, -19.9674, -90.5846, -2.05499
0.006541, -1, -18.7696, 34.1304, 27.9443, -19.9674, -90.5846, -2.05494
0.008559, -1, -18.7696, 34.1304, 27.9443, -19.9674, -90.5846, -2.05494
0.032128, -1, -18.7696, 34.1304, 27.9443, -19.9674, -90.5845, -2.05504
0.033436, -1, -18.7696, 34.1304, 27.9443, -19.9674, -90.5845, -2.05504
0.035704, -1, -18.7696, 34.1304, 27.9443, -19.9674, -90.5845, -2.05502
0.039617, -1, -18.7696, 34.1304, 27.9443, -19.9674, -90.5845, -2.05497
0.047714, -1, -18.7695, 34.1304, 27.9443, -19.9674, -90.5846, -2.05495
0.055606, -1, -18.769, 34.1303, 27.9443, -19.9674, -90.5846, -2.05495
0.063617, -1, -18.7667, 34.1297, 27.9443, -19.9673, -90.5846, -2.05497
0.072144, -1, -18.7615, 34.1278, 27.9444, -19.9671, -90.584, -2.055
0.079106, -1, -18.7526, 34.1238, 27.9447, -19.9647, -90.5815, -2.05511
0.087706, -1, -18.7389, 34.117, 27.9449, -19.9576, -90.5745, -2.0556
0.09581, -1, -18.7181, 34.1064, 27.9449, -19.9427, -90.5593, -2.05915
0.233555, -1, -16.599, 33.0451, 27.6616, -16.5069, -86.9162, -3.69835
0.234759, -1, -16.599, 33.0451, 27.6616, -16.5069, -86.9162, -3.69835
0.237418, -1, -16.5042, 32.9982, 27.649, -16.3574, -86.757, -3.76998
0.238666, -1, -16.5042, 32.9982, 27.649, -16.3574, -86.757, -3.76998
0.240608, -1, -16.4092, 32.9513, 27.6365, -16.2077, -86.5976, -3.84177
0.241943, -1, -16.4092, 32.9513, 27.6365, -16.2077, -86.5976, -3.84177
0.243359, -1, -16.4092, 32.9513, 27.6365, -16.2077, -86.5976, -3.84177
0.246675, -1, -16.3142, 32.9044, 27.6239, -16.0579, -86.4381, -3.91356
0.250515, -1, -16.2192, 32.8574, 27.6113, -15.9078, -86.2784, -3.98555
0.25236, -1, -16.2192, 32.8106, 27.5989, -15.7575, -86.1185, -4.05769
0.253722, -1, -16.1243, 32.8106, 27.5989, -15.7575, -86.1185, -4.05769
0.254977, -1, -16.1243, 32.8106, 27.5989, -15.7575, -86.1185, -4.05769
0.256927, -1, -16.0293, 32.7637, 27.5864, -15.6069, -85.9585, -4.12973
0.258214, -1, -16.0293, 32.7637, 27.5864, -15.6069, -85.9585, -4.12973
0.259576, -1, -16.0293, 32.7637, 27.5864, -15.6069, -85.9585, -4.12973
0.266633, -1, -15.8398, 32.67, 27.5613, -15.3057, -85.6381, -4.27387
0.268482, -1, -15.8398, 32.67, 27.5613, -15.1551, -85.4776, -4.34627
0.269896, -1, -15.7454, 32.6231, 27.5487, -15.1551, -85.4776, -4.34627
0.271118, -1, -15.7454, 32.6231, 27.5487, -15.1551, -85.4776, -4.34627
0.273913, -1, -15.651, 32.5762, 27.5361, -15.0042, -85.3171, -4.41877
0.275093, -1, -15.651, 32.5762, 27.5361, -15.0042, -85.3171, -4.41877
0.277229, -1, -15.5566, 32.5294, 27.5235, -14.8531, -85.1564, -4.49113
0.27954, -1, -15.5566, 32.5294, 27.5235, -14.8531, -85.1564, -4.49113
0.287575, -1, -15.3681, 32.4354, 27.4982, -14.5509, -84.8351, -4.6359
0.295564, -1, -15.1803, 32.3412, 27.4729, -14.2485, -84.513, -4.78105
0.30363, -1, -14.9926, 32.2467, 27.4476, -13.9455, -84.1908, -4.92622
0.311578, -1, -14.8046, 32.1518, 27.4222, -13.6422, -83.8684, -5.0714
0.31958, -1, -14.6159, 32.0566, 27.3966, -13.3388, -83.5456, -5.21695
0.329166, -1, -14.3307, 31.9136, 27.3582, -12.8833, -83.0607, -5.4354
0.335571, -1, -14.2351, 31.8659, 27.3454, -12.7315, -82.899, -5.50844
0.343631, -1, -14.0434, 31.7703, 27.3198, -12.4276, -82.5755, -5.65439
0.351567, -1, -13.8511, 31.6747, 27.2941, -12.1233, -82.2515, -5.80011
0.359583, -1, -13.6583, 31.5792, 27.2684, -11.8189, -81.9274, -5.9459
0.369123, -1, -13.4648, 31.4838, 27.2428, -11.5147, -81.6035, -6.09168
0.3756, -1, -13.271, 31.3883, 27.2171, -11.2103, -81.2794, -6.23739
0.384589, -1, -13.0775, 31.2931, 27.1915, -10.906, -80.9554, -6.38325
0.391736, -1, -12.8848, 31.1979, 27.1659, -10.6015, -80.6317, -6.52907
0.400576, -1, -12.6926, 31.1029, 27.1404, -10.297, -80.3081, -6.67506
0.407602, -1, -12.5011, 31.0078, 27.1148, -9.99291, -79.9847, -6.82115
0.415566, -1, -12.3106, 30.9126, 27.0892, -9.68874, -79.6612, -6.9668
0.423565, -1, -12.1208, 30.8174, 27.0635, -9.38475, -79.3377, -7.1124
0.431675, -1, -11.9318, 30.7221, 27.0379, -9.08095, -79.0142, -7.25789
0.439604, -1, -11.743, 30.6268, 27.0123, -8.77743, -78.691, -7.40328
0.447608, -1, -11.5541, 30.5315, 26.9869, -8.47396, -78.3679, -7.54854
0.455636, -1, -11.3648, 30.4364, 26.9612, -8.17122, -78.0457, -7.69376
0.463625, -1, -11.1751, 30.3415, 26.9356, -7.86892, -77.7239, -7.83875
0.471573, -1, -10.9852, 30.2468, 26.9102, -7.56699, -77.4024, -7.98339
0.479644, -1, -10.7948, 30.1523, 26.8848, -7.26567, -77.0817, -8.12784
0.487568, -1, -10.6042, 30.0581, 26.8594, -6.9645, -76.7616, -8.27187
0.49556, -1, -10.4133, 29.964, 26.8341, -6.6639, -76.4416, -8.41553
0.503632, -1, -10.2225, 29.87, 26.8089, -6.36411, -76.1222, -8.55894
0.511572, -1, -10.0324, 29.7763, 26.7837, -6.06459, -75.8033, -8.70217
0.519578, -1, -9.84296, 29.6828, 26.7586, -5.76579, -75.4851, -8.84543
0.527633, -1, -9.65441, 29.5894, 26.7334, -5.46752, -75.1676, -8.98834
0.535567, -1, -9.46673, 29.4962, 26.7084, -5.16973, -74.851, -9.13058
0.543639, -1, -9.28007, 29.4031, 26.6834, -4.87276, -74.5351, -9.27265
0.551594, -1, -9.09439, 29.3102, 26.6584, -4.5767, -74.2201, -9.41428
0.559597, -1, -8.90954, 29.2173, 26.6335, -4.28115, -73.9056, -9.55554
0.567718, -1, -8.7255, 29.1247, 26.6086, -3.98678, -73.5921, -9.69666
0.575678, -1, -8.54191, 29.0323, 26.5838, -3.69296, -73.2793, -9.83717
0.583659, -1, -8.35853, 28.9403, 26.5591, -3.39979, -72.9676, -9.97772
0.591744, -1, -8.17552, 28.8487, 26.5345, -3.10788, -72.6569, -10.1177
0.599717, -1, -7.9924, 28.7573, 26.5098, -2.81668, -72.3468, -10.257
0.607719, -1, -7.80929, 28.6663, 26.4854, -2.52641, -72.0378, -10.3958
0.615758, -1, -7.62636, 28.5757, 26.4611, -2.23725, -71.7297, -10.5343
0.623565, -1, -7.44371, 28.4853, 26.4369, -1.94866, -71.4224, -10.6721
0.631598, -1, -7.26125, 28.3952, 26.4127, -1.66099, -71.1165, -10.8097
0.639712, -1, -7.07945, 28.3054, 26.3885, -1.37445, -70.8114, -10.9469
0.647636, -1, -6.89838, 28.2159, 26.3645, -1.08902, -70.5074, -11.0837
0.655769, -1, -6.7184, 28.1268, 26.3406, -0.804649, -70.2048, -11.2201
0.663842, -1, -6.53936, 28.0378, 26.3167, -0.521268, -69.9033, -11.3557
0.67185, -1, -6.36152, 27.9492, 26.2928, -0.238918, -69.6031, -11.4909
0.68002, -1, -6.18501, 27.8609, 26.2691, 0.0426889, -69.3037, -11.6256
0.68658, -1, -6.09708, 27.8169, 26.2573, 0.182974, -69.1544, -11.6928
0.696117, -1, -5.83467, 27.6851, 26.2221, 0.602135, -68.7082, -11.8934
0.704105, -1, -5.66082, 27.5977, 26.1987, 0.880321, -68.4119, -12.0267
0.712145, -1, -5.48747, 27.5108, 26.1752, 1.15731, -68.1167, -12.1595
0.720216, -1, -5.31457, 27.4242, 26.152, 1.43303, -67.8229, -12.2917
0.728144, -1, -5.22823, 27.338, 26.1288, 1.70801, -67.5304, -12.4233
0.736112, -1, -5.05566, 27.295, 26.1173, 1.84513, -67.2392, -12.5543
0.744265, -1, -4.88348, 27.2095, 26.0944, 2.11804, -67.094, -12.6845
0.751548, -1, -4.71165, 27.1243, 26.0714, 2.38985, -66.8049, -12.7495
0.759558, -1, -4.54041, 27.0394, 26.0486, 2.66061, -66.5169, -12.8789
0.767659, -1, -4.36946, 26.9548, 26.0259, 2.92978, -66.2302, -13.0077
0.775581, -1, -4.19903, 26.8706, 26.0033, 3.19802, -65.9447, -13.1361
0.783555, -1, -4.0293, 26.7867, 25.9809, 3.4655, -65.6602, -13.264
0.791544, -1, -3.86077, 26.7033, 25.9584, 3.73129, -65.3771, -13.3916
0.799548, -1, -3.69351, 26.6201, 25.9362, 3.99606, -65.095, -13.5182
0.807629, -1, -3.52735, 26.5372, 25.914, 4.25988, -64.8143, -13.6443
0.815555, -1, -3.36233, 26.4547, 25.8918, 4.52211, -64.5349, -13.7697
0.823565, -1, -3.1983, 26.3726, 25.8697, 4.78336, -64.2568, -13.8947
0.831742, -1, -3.0354, 26.2909, 25.8477, 5.04373, -63.9799, -14.019
0.839554, -1, -2.87353, 26.2094, 25.8259, 5.30286, -63.7043, -14.1428
0.84755, -1, -2.71249, 26.1283, 25.8043, 5.56061, -63.43, -14.2662
0.855627, -1, -2.55203, 26.0477, 25.7828, 5.81722, -63.157, -14.389
0.86357, -1, -2.39178, 25.9676, 25.7613, 6.07261, -62.8851, -14.5115
0.87258, -1, -2.23181, 25.8878, 25.7398, 6.32665, -62.6146, -14.6331
0.879652, -1, -2.07225, 25.8084, 25.7185, 6.57956, -62.3452, -14.7543
0.888619, -1, -1.91317, 25.7295, 25.6973, 6.83162, -62.0771, -14.8747
0.895544, -1, -1.75455, 25.6509, 25.6763, 7.08245, -61.8099, -14.9946
0.903635, -1, -1.5965, 25.5726, 25.6554, 7.33195, -61.5441, -15.1138
0.911556, -1, -1.43872, 25.4946, 25.6344, 7.58039, -61.2793, -15.2327
0.919548, -1, -1.28138, 25.417, 25.6135, 7.82775, -61.0158, -15.3512
0.92763, -1, -1.12488, 25.3397, 25.5929, 8.0739, -60.7534, -15.4689
0.935569, -1, -0.969378, 25.2627, 25.5723, 8.31899, -60.4924, -15.5865
0.94368, -1, -0.815213, 25.1861, 25.5518, 8.56331, -60.2326, -15.7034
0.951554, -1, -0.662186, 25.1098, 25.5314, 8.8063, -59.974, -15.8196
0.959577, -1, -0.510128, 25.0338, 25.5109, 9.04812, -59.7166, -15.9354
0.967619, -1, -0.359213, 24.9583, 25.4906, 9.28878, -59.4609, -16.0505
0.975547, -1, -0.209365, 24.8831, 25.4705, 9.52849, -59.2063, -16.1653
0.983555, -1, -0.0605789, 24.8083, 25.4506, 9.76687, -58.9526, -16.2795
0.991614, -1, 0.087354, 24.7338, 25.4308, 10.0041, -58.7, -16.3932
1.00057, -1, 0.234771, 24.6596, 25.4108, 10.2407, -58.4484, -16.5066
1.00754, -1, 0.382, 24.5858, 25.391, 10.476, -58.1977, -16.6194
1.01561, -1, 0.529162, 24.5123, 25.3713, 10.7101, -57.9481, -16.7318
1.02436, -1, 0.676131, 24.4391, 25.3516, 10.9431, -57.6996, -16.8436
1.03155, -1, 0.822806, 24.3662, 25.3322, 11.1752, -57.4521, -16.9546
1.03963, -1, 0.969028, 24.2936, 25.3128, 11.4061, -57.2059, -17.0652
1.04837, -1, 1.11465, 24.2213, 25.2933, 11.6361, -56.9609, -17.1751
1.05561, -1, 1.25982, 24.1494, 25.2741, 11.8651, -56.7174, -17.2845
1.06363, -1, 1.40453, 24.0778, 25.2549, 12.0931, -56.4748, -17.3935
1.07235, -1, 1.54884, 24.0066, 25.2358, 12.3202, -56.2336, -17.5017
1.07971, -1, 1.69241, 23.9357, 25.2169, 12.5459, -55.9932, -17.6099
1.08765, -1, 1.83508, 23.8651, 25.198, 12.7709, -55.7541, -17.7174
1.09637, -1, 1.97657, 23.7949, 25.1791, 12.9949, -55.5159, -17.8248
1.10379, -1, 2.11716, 23.725, 25.1604, 13.2175, -55.2789, -17.9316
1.1117, -1, 2.25688, 23.6554, 25.1418, 13.4393, -55.0427, -18.0375
1.12101, -1, 2.39554, 23.5861, 25.1232, 13.6603, -54.8074, -18.1435
1.12763, -1, 2.53329, 23.5171, 25.1048, 13.8805, -54.5729, -18.2485
1.1357, -1, 2.67001, 23.4483, 25.0865, 14.0994, -54.3394, -18.3531
1.1437, -1, 2.8058, 23.3799, 25.0681, 14.3174, -54.1071, -18.4574
1.15173, -1, 2.941, 23.3117, 25.0498, 14.5345, -53.876, -18.5613
1.15977, -1, 3.07587, 23.2437, 25.0316, 14.7509, -53.6458, -18.6649
1.1679, -1, 3.21067, 23.176, 25.0134, 14.9659, -53.4167, -18.7678
1.17584, -1, 3.34558, 23.1087, 24.9955, 15.1803, -53.1886, -18.8708
1.18411, -1, 3.48023, 23.0417, 24.9776, 15.3939, -52.9613, -18.973
1.19208, -1, 3.61456, 22.975, 24.9597, 15.6067, -52.7352, -19.0748
1.20005, -1, 3.74858, 22.9086, 24.942, 15.8185, -52.5097, -19.1759
1.20811, -1, 3.88217, 22.8423, 24.9243, 16.0292, -52.2855, -19.277
1.21619, -1, 4.01538, 22.7765, 24.9065, 16.2391, -52.0621, -19.3772
1.22412, -1, 4.14816, 22.711, 24.8889, 16.4482, -51.8395, -19.4772
1.23231, -1, 4.21444, 22.6783, 24.8715, 16.6564, -51.6179, -19.5767
1.24021, -1, 4.34651, 22.613, 24.854, 16.8636, -51.3968, -19.6758
1.24753, -1, 4.47777, 22.5481, 24.8453, 16.9669, -51.2868, -19.7252
1.25553, -1, 4.60831, 22.4833, 24.828, 17.1732, -51.0673, -19.8242
1.26359, -1, 4.73817, 22.4188, 24.8108, 17.3786, -50.8486, -19.9222
1.27054, -1, 4.86728, 22.3545, 24.7935, 17.583, -50.6308, -20.0205
1.28084, -1, 5.05938, 22.2586, 24.768, 17.8882, -50.3057, -20.1668
1.28754, -1, 5.12303, 22.2267, 24.7596, 17.9896, -50.1977, -20.2152
1.2956, -1, 5.2498, 22.1631, 24.7424, 18.1919, -49.9824, -20.3118
1.30353, -1, 5.37567, 22.0998, 24.7255, 18.3932, -49.7681, -20.4083
1.31154, -1, 5.50059, 22.0368, 24.7087, 18.5937, -49.5546, -20.504
1.31958, -1, 5.62497, 21.974, 24.6918, 18.7935, -49.342, -20.5996
1.32753, -1, 5.74895, 21.9116, 24.675, 18.9928, -49.1303, -20.6948
1.33557, -1, 5.87281, 21.8494, 24.6585, 19.1911, -48.9196, -20.7896
1.3436, -1, 5.9966, 21.7874, 24.6419, 19.3885, -48.7097, -20.8842
1.35153, -1, 6.12025, 21.7256, 24.6253, 19.5853, -48.5006, -20.9784
1.35954, -1, 6.24369, 21.6641, 24.6089, 19.7814, -48.292, -21.0725
1.36905, -1, 6.36704, 21.6028, 24.5924, 19.9766, -48.0842, -21.166
1.37554, -1, 6.49016, 21.5417, 24.576, 20.171, -47.8771, -21.2595
1.38457, -1, 6.61296, 21.4808, 24.5597, 20.3647, -47.6708, -21.3521
1.3916, -1, 6.73543, 21.4201, 24.5436, 20.5579, -47.465, -21.4447
1.39961, -1, 6.85749, 21.3597, 24.5274, 20.7503, -47.2599, -21.5365
1.4085, -1, 6.97903, 21.2996, 24.5111, 20.9418, -47.0556, -21.6283
1.41553, -1, 7.10002, 21.2398, 24.495, 21.1329, -46.8521, -21.7194
1.42353, -1, 7.22038, 21.1802, 24.479, 21.323, -46.6494, -21.8104
1.43162, -1, 7.3402, 21.1207, 24.4631, 21.5127, -46.4475, -21.901
1.43955, -1, 7.45937, 21.0616, 24.4474, 21.7017, -46.2464, -21.9913
1.44756, -1, 7.57801, 21.0026, 24.4317, 21.8898, -46.046, -22.0814
1.45561, -1, 7.69623, 20.9438, 24.4159, 22.0774, -45.8466, -22.1712
1.46354, -1, 7.81394, 20.8852, 24.4001, 22.2644, -45.6477, -22.2609
1.47155, -1, 7.9311, 20.8267, 24.3845, 22.4509, -45.4496, -22.3502
1.4796, -1, 8.04759, 20.7683, 24.3688, 22.6366, -45.2525, -22.4391
1.48753, -1, 8.16357, 20.7101, 24.3532, 22.8215, -45.056, -22.5273
1.49553, -1, 8.2791, 20.6521, 24.3377, 23.0058, -44.86, -22.6156
1.50362, -1, 8.39435, 20.5943, 24.3225, 23.1895, -44.6645, -22.7031
1.51154, -1, 8.50923, 20.5368, 24.3071, 23.3726, -44.4695, -22.7908
1.51953, -1, 8.62363, 20.4796, 24.2916, 23.5549, -44.2752, -22.8776
1.52761, -1, 8.73742, 20.4226, 24.2763, 23.7366, -44.0815, -22.9649
1.53553, -1, 8.85092, 20.3658, 24.2611, 23.9177, -43.8882, -23.0513
1.54359, -1, 8.96418, 20.3091, 24.2459, 24.0986, -43.6958, -23.138
1.55158, -1, 9.07728, 20.2527, 24.2309, 24.2786, -43.5042, -23.2239
1.5596, -1, 9.19041, 20.1964, 24.216, 24.4581, -43.3133, -23.3101
1.56756, -1, 9.30343, 20.1402, 24.2009, 24.6368, -43.1229, -23.3957
1.57589, -1, 9.41625, 20.0843, 24.1858, 24.815, -42.9331, -23.4814
1.58362, -1, 9.52869, 20.0284, 24.1708, 24.9928, -42.744, -23.5663
1.59164, -1, 9.64068, 19.9727, 24.1559, 25.1699, -42.5554, -23.651
1.60001, -1, 9.75218, 19.9172, 24.1411, 25.3464, -42.3675, -23.7357
1.60765, -1, 9.86345, 19.8617, 24.1263, 25.5224, -42.1801, -23.8196
1.61567, -1, 9.97444, 19.8066, 24.1117, 25.6979, -41.9934, -23.9036
1.62418, -1, 10.085, 19.7517, 24.0971, 25.8731, -41.8074, -23.9868
1.63157, -1, 10.1952, 19.6971, 24.0824, 26.0476, -41.6219, -24.0705
1.63956, -1, 10.3051, 19.6425, 24.0677, 26.2214, -41.4368, -24.1533
1.64853, -1, 10.4143, 19.5882, 24.0532, 26.3947, -41.2523, -24.2365
1.65567, -1, 10.5232, 19.5341, 24.0386, 26.5675, -41.0684, -24.3189
1.6637, -1, 10.6316, 19.48, 24.0241, 26.7399, -40.8848, -24.4016
1.67264, -1, 10.7397, 19.4262, 24.0098, 26.9116, -40.7021, -24.4839
1.67985, -1, 10.8475, 19.3725, 23.9956, 27.0827, -40.5197, -24.5659
1.68798, -1, 10.9548, 19.3189, 23.9814, 27.2533, -40.3378, -24.6479
1.69682, -1, 11.0617, 19.2654, 23.967, 27.4235, -40.1566, -24.7289
1.70405, -1, 11.1682, 19.2121, 23.9527, 27.5934, -39.9759, -24.8104
1.71219, -1, 11.2744, 19.1589, 23.9384, 27.7626, -39.7958, -24.8911
1.72098, -1, 11.3802, 19.1059, 23.9243, 27.9312, -39.6162, -24.972
1.72814, -1, 11.4855, 19.0531, 23.9101, 28.0993, -39.4371, -25.0524
1.73614, -1, 11.5906, 19.0006, 23.896, 28.2669, -39.2586, -25.1327
1.74479, -1, 11.643, 18.9744, 23.8891, 28.3507, -39.1695, -25.173
1.75151, -1, 11.7478, 18.922, 23.8752, 28.5177, -38.9917, -25.2527
1.75957, -1, 11.8525, 18.8699, 23.8612, 28.6843, -38.8145, -25.3327
1.76753, -1, 11.9569, 18.8179, 23.8471, 28.8502, -38.6376, -25.4122
1.77555, -1, 12.0611, 18.7659, 23.8332, 29.0158, -38.4613, -25.4916
1.78362, -1, 12.1653, 18.7141, 23.8193, 29.181, -38.2858, -25.5712
1.79152, -1, 12.2693, 18.6624, 23.8055, 29.3459, -38.1108, -25.6498
1.79952, -1, 12.373, 18.6108, 23.7917, 29.5102, -37.9363, -25.729
1.80757, -1, 12.4765, 18.5594, 23.7781, 29.6739, -37.7621, -25.807
1.81551, -1, 12.5797, 18.508, 23.7645, 29.8372, -37.5885, -25.8854
1.82352, -1, 12.6827, 18.4569, 23.7507, 30.0001, -37.4151, -25.9632
1.83156, -1, 12.7853, 18.4058, 23.737, 30.1627, -37.2424, -26.0407
1.83951, -1, 12.8876, 18.355, 23.7233, 30.3247, -37.0697, -26.1184
1.84756, -1, 12.9895, 18.3044, 23.7098, 30.4862, -36.8978, -26.1949
1.85558, -1, 13.091, 18.254, 23.6962, 30.6472, -36.7259, -26.2724
1.86352, -1, 13.1922, 18.2037, 23.6827, 30.8077, -36.5549, -26.3489
1.87304, -1, 13.293, 18.1535, 23.6694, 30.9682, -36.3841, -26.4254
1.87957, -1, 13.3935, 18.1036, 23.6561, 31.1281, -36.214, -26.502
1.88861, -1, 13.4937, 18.0536, 23.6428, 31.2874, -36.0441, -26.5779
1.89551, -1, 13.5938, 18.0036, 23.6293, 31.4465, -35.8748, -26.6545
1.9036, -1, 13.6936, 17.9538, 23.616, 31.6048, -35.7061, -26.7302
1.91152, -1, 13.7931, 17.9041, 23.6028, 31.7629, -35.5377, -26.8061
1.91952, -1, 13.8925, 17.8544, 23.5895, 31.9208, -35.37, -26.8816
1.92758, -1, 13.9918, 17.8048, 23.5761, 32.0782, -35.2024, -26.9566
1.93551, -1, 14.0909, 17.7554, 23.563, 32.2352, -35.0353, -27.0321
1.94359, -1, 14.1896, 17.7062, 23.55, 32.3917, -34.869, -27.1065
1.95161, -1, 14.288, 17.6572, 23.5369, 32.5478, -34.7028, -27.1813
1.95952, -1, 14.386, 17.6083, 23.5237, 32.7038, -34.5374, -27.2557
1.96751, -1, 14.4836, 17.5596, 23.5106, 32.8594, -34.372, -27.3295
1.97565, -1, 14.581, 17.5111, 23.4976, 33.0145, -34.2069, -27.4041
1.98352, -1, 14.6779, 17.4627, 23.4847, 33.1691, -34.0423, -27.4779
1.99151, -1, 14.7746, 17.4144, 23.4717, 33.3233, -33.8779, -27.5518
1.99959, -1, 14.8711, 17.3663, 23.4588, 33.4773, -33.7143, -27.6255
2.00751, -1, 14.9674, 17.3181, 23.446, 33.6309, -33.5505, -27.6989
2.01551, -1, 15.0635, 17.2699, 23.4333, 33.7842, -33.3873, -27.7728
2.02357, -1, 15.1596, 17.2219, 23.4205, 33.9369, -33.2243, -27.8457
2.03151, -1, 15.2554, 17.1739, 23.4075, 34.0892, -33.0622, -27.919
2.03953, -1, 15.3513, 17.126, 23.3947, 34.2412, -32.9003, -27.9918
2.04758, -1, 15.447, 17.0782, 23.3819, 34.393, -32.7389, -28.0641
2.05555, -1, 15.5427, 17.0305, 23.3691, 34.5445, -32.5778, -28.137
2.06351, -1, 15.6383, 16.9832, 23.3563, 34.6955, -32.4171, -28.2089
2.07164, -1, 15.7336, 16.9358, 23.3436, 34.8462, -32.2568, -28.2812
2.0796, -1, 15.8286, 16.8887, 23.3312, 34.9964, -32.0966, -28.3532
2.08761, -1, 15.9235, 16.8419, 23.3187, 35.1462, -31.9371, -28.4243
2.09567, -1, 16.0181, 16.795, 23.3061, 35.296, -31.778, -28.4965
2.10362, -1, 16.1123, 16.7484, 23.2935, 35.4454, -31.6189, -28.5678
2.11164, -1, 16.2061, 16.7019, 23.281, 35.5943, -31.4606, -28.6391
2.11974, -1, 16.2997, 16.6552, 23.2686, 35.743, -31.3025, -28.7106
2.12752, -1, 16.3931, 16.6088, 23.2561, 35.8912, -31.1446, -28.7811
2.13554, -1, 16.4861, 16.5623, 23.2436, 36.0392, -30.9871, -28.8525
2.14362, -1, 16.5789, 16.5158, 23.2312, 36.1871, -30.8298, -28.9232
2.15194, -1, 16.6715, 16.4694, 23.2189, 36.3346, -30.6728, -28.9935
2.15967, -1, 16.7638, 16.4231, 23.2065, 36.4817, -30.5164, -29.0644
2.16782, -1, 16.8561, 16.3769, 23.1942, 36.6283, -30.3602, -29.1343
2.17584, -1, 16.9482, 16.3308, 23.1817, 36.7747, -30.2046, -29.2044
2.18387, -1, 17.0402, 16.2849, 23.1694, 36.9207, -30.0489, -29.2744
2.19204, -1, 17.1318, 16.2392, 23.1572, 37.0667, -29.8936, -29.3436
2.20034, -1, 17.222, 16.1942, 23.1448, 37.212, -29.7386, -29.4134
2.20805, -1, 17.3086, 16.1508, 23.1323, 37.3566, -29.5847, -29.4823
2.21647, -1, 17.3905, 16.1098, 23.1197, 37.499, -29.433, -29.5502
2.22415, -1, 17.4668, 16.0717, 23.1073, 37.6367, -29.286, -29.6167
2.23222, -1, 17.5376, 16.0369, 23.0951, 37.7664, -29.1474, -29.6787
2.24042, -1, 17.6014, 16.0059, 23.0839, 37.8846, -29.0212, -29.7355
2.24837, -1, 17.6304, 15.9918, 23.0788, 37.9383, -28.9637, -29.7855
2.25553, -1, 17.6834, 15.9659, 23.07, 38.0319, -28.863, -29.8071
2.26443, -1, 17.7515, 15.9312, 23.0613, 38.1374, -28.7496, -29.8582
2.27153, -1, 17.7712, 15.9209, 23.0595, 38.1628, -28.7219, -29.8705
2.27956, -1, 17.8055, 15.9033, 23.0571, 38.2008, -28.6804, -29.8891
2.28857, -1, 17.8328, 15.8896, 23.0559, 38.2257, -28.6532, -29.9011
2.29554, -1, 17.8544, 15.8793, 23.0554, 38.2404, -28.637, -29.908
2.3035, -1, 17.8697, 15.8722, 23.0552, 38.2484, -28.6281, -29.9117
2.31157, -1, 17.8788, 15.8681, 23.0551, 38.2523, -28.6237, -29.9135
2.3195, 2, 17.8831, 15.866, 23.055, 38.2543, -28.6217, -29.9144
2.3275, 2, 17.885, 15.8651, 23.055, 38.2551, -28.6208, -29.9148
2.33554, 2, 17.8851, 15.8646, 23.055, 38.2556, -28.6203, -29.915
2.34349, 2, 17.8844, 15.8644, 23.0551, 38.2558, -28.6201, -29.9151
2.3515, 2, 17.8837, 15.8644, 23.0551, 38.2558, -28.6201, -29.9152
2.35961, 2, 17.8832, 15.8643, 23.0551, 38.2559, -28.62, -29.9152
2.3675, 2, 17.8829, 15.8643, 23.0551, 38.2559, -28.62, -29.9152
2.37549, 2, 17.8828, 15.8642, 23.0551, 38.2559, -28.62, -29.9152
2.38362, 2, 17.8829, 15.864, 23.055, 38.2559, -28.62, -29.9152
2.39258, 2, 17.8831, 15.8636, 23.0551, 38.2559, -28.62, -29.9152
2.39951, 2, 17.8834, 15.8633, 23.0551, 38.2559, -28.6199, -29.9152
2.40858, 2, 17.8839, 15.863, 23.055, 38.2559, -28.62, -29.9152
2.41549, 2, 17.8844, 15.8628, 23.055, 38.2559, -28.6199, -29.9152
2.42349, 2, 17.8854, 15.8627, 23.055, 38.2559, -28.62, -29.9152
2.43156, 2, 17.8862, 15.8626, 23.0551, 38.2559, -28.62, -29.9152
2.43951, 2, 17.8868, 15.8626, 23.0551, 38.2559, -28.62, -29.9152
2.44752, 2, 17.8873, 15.8626, 23.0551, 38.2559, -28.62, -29.9152
2.45559, 2, 17.8875, 15.8626, 23.0551, 38.2559, -28.62, -29.9152
2.46349, 2, 17.8877, 15.8626, 23.0551, 38.2559, -28.6201, -29.9152
2.47149, 2, 17.8877, 15.8626, 23.0551, 38.2559, -28.6201, -29.9152
2.47957, 2, 17.8877, 15.8626, 23.0551, 38.2559, -28.6201, -29.9152
2.4875, 2, 17.8878, 15.8626, 23.0551, 38.2559, -28.6201, -29.9151
2.49552, 2, 17.8877, 15.8626, 23.0551, 38.2559, -28.6202, -29.9151
2.50356, 2, 17.8876, 15.8625, 23.055, 38.2559, -28.6202, -29.9151
2.51149, 2, 17.8873, 15.8625, 23.055, 38.2559, -28.6202, -29.9151
2.5195, 2, 17.8872, 15.8624, 23.0551, 38.2559, -28.6202, -29.9151
2.52757, 2, 17.887, 15.8623, 23.0551, 38.2559, -28.6203, -29.9151
2.53549, 2, 17.887, 15.8623, 23.0551, 38.2559, -28.6202, -29.9151
2.54349, 2, 17.8869, 15.8623, 23.055, 38.2559, -28.6203, -29.9151
2.55156, 2, 17.8869, 15.8623, 23.055, 38.2559, -28.6203, -29.9151
2.55954, 2, 17.8869, 15.8623, 23.055, 38.2559, -28.6203, -29.9151
2.56751, 2, 17.887, 15.8623, 23.0551, 38.2559, -28.6203, -29.9151
2.57562, 2, 17.8869, 15.8624, 23.0551, 38.2559, -28.6203, -29.9151
2.58358, 2, 17.8869, 15.8624, 23.055, 38.2559, -28.6204, -29.9151
2.59159, 2, 17.8869, 15.8624, 23.055, 38.2559, -28.6204, -29.9152
2.59967, 2, 17.8869, 15.8624, 23.055, 38.2559, -28.6204, -29.9151
2.6076, 2, 17.887, 15.8624, 23.055, 38.2559, -28.6204, -29.9151
2.61562, 2, 17.8869, 15.8623, 23.055, 38.2559, -28.6204, -29.9151
2.62371, 2, 17.8869, 15.8623, 23.055, 38.2559, -28.6204, -29.9151
2.6315, 2, 17.8869, 15.8623, 23.055, 38.2559, -28.6204, -29.9152
2.63953, 2, 17.8868, 15.8623, 23.055, 38.2559, -28.6205, -29.9152
2.64762, 2, 17.8868, 15.8623, 23.0551, 38.2559, -28.6205, -29.9151
2.65557, 2, 17.8868, 15.8623, 23.0551, 38.2559, -28.6205, -29.9151
2.6636, 2, 17.8868, 15.8623, 23.0551, 38.2559, -28.6205, -29.9151
2.67183, 2, 17.8868, 15.8623, 23.0551, 38.2559, -28.6205, -29.9151
2.67979, 2, 17.8867, 15.8624, 23.0551, 38.2559, -28.6205, -29.9151
2.68784, 2, 17.8867, 15.8624, 23.0551, 38.2559, -28.6206, -29.9151
2.69603, 2, 17.8867, 15.8624, 23.0551, 38.2558, -28.6206, -29.9151
2.70394, 2, 17.8867, 15.8624, 23.055, 38.2559, -28.6206, -29.9151
2.712, 2, 17.8867, 15.8624, 23.0551, 38.2558, -28.6206, -29.915
2.72061, 2, 17.8867, 15.8624, 23.0551, 38.2558, -28.6206, -29.9151
2.72808, 2, 17.8867, 15.8623, 23.055, 38.2558, -28.6206, -29.9151
2.73607, 2, 17.8867, 15.8623, 23.055, 38.2558, -28.6206, -29.9151
2.74422, 2, 17.8866, 15.8623, 23.055, 38.2558, -28.6207, -29.9151
2.75148, 2, 17.8867, 15.8623, 23.0551, 38.2558, -28.6206, -29.9151
2.75949, 2, 17.8867, 15.8623, 23.0551, 38.2558, -28.6207, -29.9151
2.76754, 2, 17.8866, 15.8624, 23.0551, 38.2558, -28.6207, -29.9151
2.77548, 2, 17.8866, 15.8624, 23.0551, 38.2558, -28.6207, -29.9151
2.7835, 2, 17.8866, 15.8624, 23.0551, 38.2558, -28.6207, -29.9151
2.79156, 2, 17.8866, 15.8624, 23.0551, 38.2557, -28.6208, -29.9151
2.79949, 2, 17.8865, 15.8624, 23.0551, 38.2558, -28.6208, -29.9151
2.80749, 2, 17.8865, 15.8624, 23.0551, 38.2558, -28.6208, -29.9151
2.81693, 2, 17.8864, 15.8624, 23.0551, 38.2557, -28.6208, -29.9151
2.82348, 2, 17.8864, 15.8624, 23.0551, 38.2557, -28.6208, -29.915
2.83148, 2, 17.8864, 15.8624, 23.0551, 38.2557, -28.6208, -29.9151
2.83955, 2, 17.8863, 15.8624, 23.0551, 38.2557, -28.6208, -29.9151
2.84748, 2, 17.8863, 15.8624, 23.0551, 38.2557, -28.6208, -29.9151
2.85548, 2, 17.8863, 15.8624, 23.0551, 38.2557, -28.6208, -29.9151
2.86357, 2, 17.8862, 15.8624, 23.0551, 38.2557, -28.6209, -29.915
2.87148, 2, 17.8861, 15.8624, 23.0551, 38.2557, -28.6208, -29.915
2.88049, 2, 17.8861, 15.8624, 23.0551, 38.2556, -28.6208, -29.9151
2.88755, 2, 17.8861, 15.8624, 23.0551, 38.2557, -28.6208, -29.915
2.89657, 2, 17.886, 15.8624, 23.0551, 38.2557, -28.6209, -29.915
2.90348, 2, 17.8859, 15.8624, 23.0551, 38.2557, -28.6209, -29.9151
2.91156, 2, 17.8859, 15.8624, 23.0551, 38.2557, -28.6209, -29.9151
2.91949, 2, 17.8859, 15.8624, 23.0551, 38.2557, -28.621, -29.915
2.9275, 2, 17.8858, 15.8624, 23.0551, 38.2556, -28.621, -29.915
2.93554, 2, 17.8858, 15.8624, 23.0551, 38.2556, -28.621, -29.915
2.9435, 2, 17.8857, 15.8624, 23.0551, 38.2556, -28.621, -29.915
2.9515, 2, 17.8857, 15.8624, 23.0551, 38.2556, -28.621, -29.915
2.95958, 2, 17.8856, 15.8624, 23.0551, 38.2556, -28.6211, -29.9151
2.96748, 2, 17.8856, 15.8624, 23.0551, 38.2556, -28.6211, -29.915
2.97547, 2, 17.8855, 15.8624, 23.0551, 38.2556, -28.6211, -29.915
2.98355, 2, 17.8855, 15.8624, 23.0551, 38.2556, -28.6211, -29.915
2.99148, 2, 17.8854, 15.8625, 23.0551, 38.2556, -28.6211, -29.915
2.9995, 2, 17.8854, 15.8625, 23.0551, 38.2556, -28.621, -29.915
3.00755, 2, 17.8853, 15.8625, 23.0551, 38.2555, -28.6211, -29.915
3.01548, 2, 17.8853, 15.8625, 23.0551, 38.2555, -28.6211, -29.915
3.02348, 2, 17.8852, 15.8625, 23.0551, 38.2555, -28.6211, -29.915
3.03154, 2, 17.8852, 15.8625, 23.0551, 38.2555, -28.6211, -29.915
3.03949, 2, 17.8851, 15.8625, 23.0551, 38.2555, -28.6211, -29.915
3.04748, 2, 17.8851, 15.8624, 23.0551, 38.2555, -28.6211, -29.915
3.05557, 2, 17.885, 15.8625, 23.0551, 38.2555, -28.6211, -29.9149
3.06351, 2, 17.885, 15.8625, 23.0551, 38.2555, -28.6211, -29.9149
3.0715, 2, 17.8849, 15.8625, 23.0551, 38.2555, -28.6212, -29.9149
3.07963, 2, 17.8848, 15.8625, 23.0551, 38.2554, -28.6212, -29.9149
3.08757, 2, 17.8848, 15.8625, 23.0551, 38.2555, -28.6212, -29.9149
3.09557, 2, 17.8847, 15.8625, 23.0551, 38.2554, -28.6212, -29.9149
3.10364, 2, 17.8847, 15.8625, 23.0551, 38.2554, -28.6212, -29.915
3.11159, 2, 17.8846, 15.8625, 23.0551, 38.2554, -28.6212, -29.915
3.11963, 2, 17.8846, 15.8625, 23.0551, 38.2554, -28.6212, -29.915
3.12771, 2, 17.8845, 15.8625, 23.0551, 38.2554, -28.6212, -29.915
3.13547, 2, 17.8845, 15.8625, 23.0551, 38.2553, -28.6212, -29.915
3.14351, 2, 17.8844, 15.8625, 23.0551, 38.2553, -28.6212, -29.9149
3.15158, 2, 17.8844, 15.8625, 23.0551, 38.2553, -28.6212, -29.9149
3.15958, 2, 17.8843, 15.8625, 23.0551, 38.2553, -28.6212, -29.9149
3.16781, 2, 17.8843, 15.8625, 23.0551, 38.2553, -28.6212, -29.9149
3.17607, 2, 17.8843, 15.8625, 23.0551, 38.2553, -28.6212, -29.9149
3.18379, 2, 17.8842, 15.8625, 23.0551, 38.2552, -28.6212, -29.9149
3.1919, 2, 17.8842, 15.8625, 23.0551, 38.2552, -28.6213, -29.9149
3.2003, 2, 17.8841, 15.8625, 23.0551, 38.2552, -28.6213, -29.9149
3.20794, 2, 17.8841, 15.8625, 23.0551, 38.2552, -28.6212, -29.9149
3.21617, 2, 17.884, 15.8625, 23.0551, 38.2552, -28.6212, -29.9149
3.22445, 2, 17.884, 15.8625, 23.0551, 38.2551, -28.6213, -29.9149
3.23206, 2, 17.884, 15.8625, 23.0551, 38.2551, -28.6213, -29.9149
3.24012, 2, 17.884, 15.8625, 23.0551, 38.2551, -28.6213, -29.9149
3.24834, 2, 17.8839, 15.8625, 23.0551, 38.2551, -28.6213, -29.9149
3.25547, 2, 17.8839, 15.8625, 23.0551, 38.2551, -28.6213, -29.9149
3.26346, 2, 17.8839, 15.8625, 23.0551, 38.255, -28.6213, -29.9149
3.27235, 2, 17.8839, 15.8625, 23.0551, 38.255, -28.6213, -29.9149
3.27947, 2, 17.8839, 15.8625, 23.0551, 38.255, -28.6214, -29.9149
3.28749, 2, 17.8839, 15.8625, 23.0551, 38.255, -28.6214, -29.9149
3.29554, 2, 17.8839, 15.8625, 23.0551, 38.255, -28.6213, -29.9149
3.30345, 2, 17.8838, 15.8626, 23.0551, 38.255, -28.6213, -29.9149
3.31146, 2, 17.8838, 15.8626, 23.0551, 38.2549, -28.6213, -29.9149
3.32093, 2, 17.8838, 15.8626, 23.0551, 38.2549, -28.6214, -29.9149
3.32779, 2, 17.8838, 15.8626, 23.0551, 38.2549, -28.6214, -29.9149
3.33551, 2, 17.8838, 15.8626, 23.0551, 38.2549, -28.6214, -29.9149
3.34346, 2, 17.8837, 15.8626, 23.0551, 38.2549, -28.6214, -29.9149
3.35146, 2, 17.8837, 15.8626, 23.0551, 38.2549, -28.6214, -29.9149
3.35951, 2, 17.8837, 15.8626, 23.0551, 38.2549, -28.6214, -29.9149
3.36747, 2, 17.8837, 15.8626, 23.0551, 38.2548, -28.6213, -29.9149
3.37697, 2, 17.8837, 15.8626, 23.0551, 38.2548, -28.6214, -29.9149
3.38349, 4, 17.8837, 15.8626, 23.0551, 38.2548, -28.6214, -29.9148
3.39254, 4, 17.8837, 15.8626, 23.0551, 38.2548, -28.6214, -29.9148
3.39951, 4, 17.8837, 15.8626, 23.0551, 38.2547, -28.6214, -29.9148
3.40753, 4, 17.8837, 15.8626, 23.0551, 38.2547, -28.6214, -29.9149
3.41547, 4, 17.8837, 15.8626, 23.0551, 38.2547, -28.6214, -29.9149
3.42346, 4, 17.8837, 15.8626, 23.0551, 38.2547, -28.6215, -29.9149
3.43152, 4, 17.8836, 15.8626, 23.0551, 38.2547, -28.6215, -29.9149
3.43947, 4, 17.8836, 15.8626, 23.0551, 38.2547, -28.6215, -29.9149
3.44747, 4, 17.8836, 15.8626, 23.0551, 38.2547, -28.6215, -29.9148
3.45554, 4, 17.8836, 15.8626, 23.0551, 38.2546, -28.6215, -29.9149
3.46348, 4, 17.8836, 15.8626, 23.0551, 38.2546, -28.6215, -29.9149
3.47146, 4, 17.8836, 15.8626, 23.0551, 38.2546, -28.6215, -29.9149
3.47954, 4, 17.8836, 15.8626, 23.0551, 38.2546, -28.6215, -29.9149
3.48762, 4, 17.8836, 15.8626, 23.0551, 38.2546, -28.6215, -29.9149
3.51544, 4, 17.8835, 15.8627, 23.0551, 38.2546, -28.6215, -29.9147
3.51733, 4, 17.8835, 15.8627, 23.0551, 38.2546, -28.6215, -29.9147
3.52287, 4, 17.8835, 15.8627, 23.0551, 38.2546, -28.6215, -29.9148
3.52476, 4, 17.8835, 15.8627, 23.0551, 38.2546, -28.6215, -29.9148
3.52861, 4, 17.8835, 15.8627, 23.0551, 38.2546, -28.6215, -29.9148
3.53743, 4, 17.8833, 15.8627, 23.0551, 38.2545, -28.6215, -29.9147
3.54346, 4, 17.8821, 15.8635, 23.0551, 38.2545, -28.6215, -29.9147
3.55147, 4, 17.8786, 15.8661, 23.0547, 38.2537, -28.6216, -29.9143
3.55951, 4, 17.8718, 15.8721, 23.0532, 38.2496, -28.6221, -29.9117
3.56992, 4, 17.861, 15.8843, 23.0495, 38.2381, -28.624, -29.9028
3.57557, 5, 17.8449, 15.9047, 23.0419, 38.2143, -28.6288, -29.88
3.58356, 5, 17.821, 15.9352, 23.0286, 38.1706, -28.6385, -29.8364
3.59157, 5, 17.7883, 15.9774, 23.0076, 38.096, -28.6552, -29.7612
3.59963, 5, 17.7454, 16.0325, 22.9767, 37.9814, -28.6811, -29.6448
3.60756, 5, 17.6906, 16.1035, 22.9338, 37.8163, -28.719, -29.4768
3.61558, 5, 17.622, 16.1931, 22.8773, 37.5929, -28.7722, -29.2489
3.62366, 5, 17.5379, 16.3036, 22.8053, 37.3044, -28.8415, -28.9543
3.6315, 5, 17.4367, 16.4363, 22.7172, 36.9466, -28.9307, -28.5884
3.63948, 5, 17.317, 16.5926, 22.6119, 36.5171, -29.0403, -28.1496
3.64756, 5, 17.1771, 16.7744, 22.4891, 36.0151, -29.1723, -27.6377
3.6556, 5, 17.016, 16.9826, 22.3494, 35.4413, -29.3285, -27.0528
3.66355, 5, 16.8336, 17.2161, 22.1935, 34.7979, -29.5105, -26.3975
3.67174, 5, 16.6302, 17.4741, 22.0217, 34.0849, -29.7199, -25.6761
3.67968, 5, 16.4079, 17.7551, 21.8346, 33.3057, -29.9585, -24.8921
3.68776, 5, 16.1682, 18.0558, 21.6345, 32.4662, -30.2276, -24.049
3.69587, 5, 15.9131, 18.3744, 21.4235, 31.5758, -30.5271, -23.1597
3.7039, 5, 15.6433, 18.7074, 21.2026, 30.6429, -30.8557, -22.2326
3.71199, 5, 15.3607, 19.0525, 20.9755, 29.6806, -31.2111, -21.281
3.72064, 5, 15.0673, 19.4073, 20.7457, 28.7022, -31.5912, -20.3212
3.72803, 5, 14.7634, 19.772, 20.5139, 27.7201, -31.9923, -19.3609
3.73607, 5, 14.449, 20.1434, 20.283, 26.7414, -32.4116, -18.4139
3.74405, 5, 14.2882, 20.3305, 20.0547, 25.7738, -32.8466, -17.4848
3.75211, 5, 13.9608, 20.7055, 19.8294, 24.8237, -33.2955, -16.5798
3.75944, 5, 13.6279, 21.0794, 19.7187, 24.3561, -33.5246, -16.1376
3.7675, 5, 13.2918, 21.4516, 19.5018, 23.4332, -33.9922, -15.2711
3.77546, 5, 12.9543, 21.8208, 19.2902, 22.5288, -34.4711, -14.4329
3.78344, 5, 12.6153, 22.1865, 19.0837, 21.6461, -34.961, -13.6234
3.79146, 5, 12.2748, 22.5477, 18.8834, 20.7846, -35.4612, -12.8408
3.79948, 5, 11.933, 22.9053, 18.6891, 19.9407, -35.9705, -12.0887
3.8075, 5, 11.5891, 23.2577, 18.5001, 19.1163, -36.488, -11.3638
3.81548, 5, 11.243, 23.6056, 18.3175, 18.312, -37.0143, -10.6655
3.82345, 5, 10.8942, 23.9484, 18.1414, 17.5275, -37.5493, -9.99586
3.83149, 5, 10.5426, 24.2874, 17.9707, 16.7589, -38.0922, -9.352
3.83945, 5, 10.1901, 24.6214, 17.8052, 16.0074, -38.6424, -8.73448
3.84745, 5, 9.83751, 24.9505, 17.6464, 15.2739, -39.1989, -8.14307
3.85553, 5, 9.48487, 25.2745, 17.4942, 14.5573, -39.7609, -7.57712
3.86346, 5, 9.13179, 25.5938, 17.3482, 13.8567, -40.3284, -7.03582
3.87379, 5, 8.77701, 25.9092, 17.2086, 12.8311, -41.1902, -6.2677
3.87944, 5, 8.42048, 26.2195, 17.0757, 12.4969, -41.4799, -6.02359
3.88846, 5, 8.0618, 26.5249, 16.9494, 11.8389, -42.063, -5.5525
3.89546, 5, 7.70054, 26.8246, 16.8296, 11.194, -42.6508, -5.10328
3.90448, 5, 7.33766, 27.1189, 16.7166, 10.5625, -43.2416, -4.6761
3.91152, 5, 6.97362, 27.4085, 16.6103, 9.94203, -43.8354, -4.26981
3.92054, 5, 6.60934, 27.6919, 16.5109, 9.33374, -44.4324, -3.88464
3.92744, 5, 6.24473, 27.97, 16.4183, 8.73708, -45.0328, -3.52017
3.93619, 5, 5.87937, 28.2419, 16.3327, 8.15063, -45.6365, -3.17539
3.94347, 5, 5.5133, 28.5075, 16.2541, 7.5748, -46.242, -2.84995
3.95145, 5, 5.14523, 28.7679, 16.1826, 7.00843, -46.8485, -2.54367
3.96071, 5, 4.77474, 29.022, 16.1184, 6.45035, -47.4557, -2.2554
3.96747, 5, 4.40238, 29.2691, 16.0613, 5.90131, -48.0653, -1.98492
3.97546, 5, 4.02902, 29.51, 16.0114, 5.36039, -48.6764, -1.73201
3.98346, 5, 3.65621, 29.7443, 15.9689, 4.82687, -49.2882, -1.49632
3.99247, 5, 3.28373, 29.9717, 15.9339, 4.30089, -49.8996, -1.27757
4.00052, 5, 2.91119, 30.1934, 15.9069, 3.78182, -50.5104, -1.07455
4.00847, 5, 2.53931, 30.409, 15.8877, 3.26866, -51.1209, -0.887585
4.01559, 5, 2.16878, 30.6168, 15.8765, 2.76147, -51.7314, -0.715771
4.02344, 5, 1.80015, 30.8185, 15.8733, 2.26157, -52.341, -0.557993
4.03144, 5, 1.43218, 31.0158, 15.8778, 1.76994, -52.9495, -0.410243
4.0398, 6, 1.06352, 31.2089, 15.89, 1.28909, -53.5578, -0.26542
4.04744, 6, 0.693645, 31.3974, 15.9098, 0.821528, -54.1693, -0.115187
4.05551, 6, 0.321982, 31.5825, 15.9373, 0.368441, -54.788, 0.0478884
4.0635, 6, -0.0508365, 31.7646, 15.9726, -0.0713477, -55.4184, 0.22762
4.07148, 6, -0.424365, 31.9427, 16.0159, -0.499448, -56.0651, 0.425885
4.07954, 6, -0.798399, 32.1156, 16.0676, -0.917423, -56.7296, 0.63985
4.08758, 6, -1.17225, 32.2845, 16.1281, -1.32872, -57.4103, 0.863095
4.09554, 6, -1.54561, 32.4506, 16.1976, -1.73599, -58.1062, 1.08796
4.1036, 6, -1.91754, 32.614, 16.276, -2.14045, -58.816, 1.3076
4.1116, 6, -2.28839, 32.7744, 16.3625, -2.54204, -59.5356, 1.51713
4.11954, 6, -2.65939, 32.9321, 16.4568, -2.9402, -60.261, 1.71457
4.12764, 6, -3.03164, 33.0869, 16.5585, -3.33498, -60.9897, 1.8982
4.13569, 6, -3.40587, 33.2375, 16.6677, -3.72649, -61.722, 2.06793
4.14347, 6, -3.78153, 33.3832, 16.7845, -4.1146, -62.4578, 2.22413
4.15157, 6, -4.15881, 33.5237, 16.9089, -4.49943, -63.1956, 2.36576
4.15964, 6, -4.53798, 33.6591, 17.0409, -4.8812, -63.9346, 2.49351
4.16756, 6, -4.91754, 33.7892, 17.1801, -5.26076, -64.6745, 2.60749
4.17574, 6, -5.29608, 33.9137, 17.3263, -5.63791, -65.4154, 2.7075
4.18405, 6, -5.67284, 34.0325, 17.4803, -6.01303, -66.1578, 2.79396
4.19173, 6, -6.04866, 34.1455, 17.6419, -6.38651, -66.9011, 2.86651
4.19991, 6, -6.42434, 34.2526, 17.8103, -6.75865, -67.6433, 2.92552
4.20799, 6, -6.7999, 34.3539, 17.986, -7.13007, -68.3843, 2.97195
4.21594, 6, -7.17612, 34.4496, 18.17, -7.50085, -69.1261, 3.00542
4.22407, 6, -7.55317, 34.5393, 18.3617, -7.87098, -69.868, 3.02617
4.23302, 6, -7.93052, 34.623, 18.5603, -8.24088, -70.6084, 3.03547
4.24003, 6, -8.30703, 34.7009, 18.7668, -8.61078, -71.3457, 3.0334
4.24807, 6, -8.68169, 34.7729, 18.9819, -8.98071, -72.0817, 3.01707
4.25699, 6, -8.86839, 34.8066, 19.2043, -9.35114, -72.8169, 2.98758
4.26343, 6, -9.24103, 34.8694, 19.3183, -9.53673, -73.1836, 2.96801
4.27148, 6, -9.6127, 34.9261, 19.5527, -9.90821, -73.915, 2.92015
4.27943, 6, -9.98432, 34.9765, 19.7944, -10.2808, -74.643, 2.86014
4.28749, 6, -10.3565, 35.0203, 20.0435, -10.6549, -75.3679, 2.78704
4.29545, 6, -10.7297, 35.0577, 20.3008, -11.0303, -76.0897, 2.70273
4.30345, 6, -11.1035, 35.0884, 20.5655, -11.4076, -76.8086, 2.60549
4.31149, 6, -11.476, 35.1124, 20.8382, -11.7862, -77.5238, 2.49668
4.31944, 6, -11.8467, 35.1299, 21.1182, -12.1672, -78.2336, 2.37562
4.32742, 6, -12.2159, 35.1402, 21.4061, -12.5504, -78.9381, 2.24276
4.33543, 6, -12.5838, 35.1437, 21.7022, -12.936, -79.6389, 2.09791
4.34343, 6, -12.9512, 35.1405, 22.0059, -13.3243, -80.3357, 1.94179
4.35359, 6, -13.5015, 35.1227, 22.4761, -13.9117, -81.3698, 1.68593
4.35942, 6, -13.6846, 35.1131, 22.6364, -14.1089, -81.7106, 1.5951
4.36903, 6, -14.049, 35.074, 23.1279, -14.7036, -82.722, 1.30635
4.3755, 6, -14.4088, 35.0576, 23.2948, -14.9024, -83.0553, 1.20497
4.38343, 6, -14.7616, 35.0199, 23.6327, -15.3001, -83.7135, 0.995519
4.39242, 6, -15.1053, 34.9763, 23.973, -15.6959, -84.3572, 0.778493
4.39949, 6, -15.4395, 34.9277, 24.3141, -16.0867, -84.9816, 0.556101
4.40856, 6, -15.7635, 34.8747, 24.6524, -16.4702, -85.5827, 0.330105
4.41545, 6, -16.076, 34.8184, 24.9843, -16.8422, -86.1565, 0.103601
4.42349, 6, -16.3765, 34.7598, 25.3055, -17.2, -86.6986, -0.120527
4.43144, 6, -16.6648, 34.6997, 25.6145, -17.541, -87.2069, -0.339353
4.43943, 6, -16.9388, 34.6393, 25.9082, -17.8627, -87.6789, -0.550783
4.44749, 6, -17.1947, 34.5793, 26.1858, -18.1637, -88.1134, -0.75292
4.45543, 6, -17.4291, 34.5208, 26.4445, -18.4427, -88.5099, -0.943826
4.46344, 6, -17.6417, 34.4649, 26.6834, -18.6985, -88.8689, -1.1223
4.47154, 6, -17.833, 34.4127, 26.9022, -18.9305, -89.19, -1.28631
4.47942, 6, -18.0026, 34.3646, 27.0986, -19.1379, -89.4736, -1.43477
4.48744, 6, -18.1506, 34.3211, 27.2722, -19.3201, -89.7203, -1.5666
4.49549, 6, -18.2783, 34.2828, 27.4232, -19.4764, -89.9304, -1.68108
4.50342, 6, -18.387, 34.2497, 27.5505, -19.6072, -90.105, -1.77776
4.51144, 6, -18.4783, 34.2218, 27.6548, -19.7131, -90.2457, -1.85692
4.51948, 6, -18.5533, 34.1991, 27.7376, -19.7953, -90.3553, -1.91877
4.52741, 6, -18.6137, 34.181, 27.8006, -19.8571, -90.437, -1.96607
4.53542, 6, -18.6616, 34.1669, 27.8464, -19.9004, -90.4952, -2.0002
4.54349, 6, -18.698, 34.1564, 27.8785, -19.9293, -90.5339, -2.02362
4.55153, 6, -18.725, 34.1492, 27.8997, -19.9477, -90.5585, -2.03861
4.55942, 6, -18.7447, 34.1443, 27.9135, -19.9582, -90.5727, -2.04727
4.56749, 6, -18.7582, 34.1409, 27.9224, -19.9639, -90.5804, -2.05209
4.57546, 6, -18.7667, 34.1385, 27.9277, -19.9666, -90.5842, -2.05451
4.58346, 7, -18.7714, 34.1367, 27.9312, -19.9679, -90.5861, -2.05574
4.59158, 7, -18.7737, 34.1353, 27.9336, -19.9686, -90.5869, -2.05631
4.59952, 7, -18.7745, 34.1342, 27.9353, -19.9689, -90.5873, -2.0566
4.60752, 7, -18.7745, 34.1333, 27.9368, -19.9691, -90.5874, -2.05672
4.61559, 7, -18.7744, 34.1327, 27.9381, -19.9692, -90.5875, -2.05679
4.62353, 7, -18.7743, 34.1324, 27.9393, -19.9692, -90.5876, -2.05684
4.63156, 7, -18.7742, 34.1322, 27.9403, -19.9691, -90.5875, -2.0569
4.63963, 7, -18.7742, 34.1321, 27.9412, -19.9691, -90.5875, -2.05689
4.64744, 7, -18.7742, 34.132, 27.9418, -19.9692, -90.5875, -2.05689
4.65547, 7, -18.7742, 34.132, 27.9424, -19.9692, -90.5875, -2.0569
4.66365, 7, -18.7743, 34.132, 27.9428, -19.9691, -90.5874, -2.05683
4.67163, 7, -18.7743, 34.132, 27.9432, -19.9691, -90.5874, -2.05679
4.67967, 7, -18.7745, 34.1319, 27.9435, -19.9691, -90.5874, -2.05677
4.68774, 7, -18.7747, 34.1318, 27.9436, -19.969, -90.5872, -2.05678
4.69574, 7, -18.7748, 34.1315, 27.9438, -19.969, -90.5872, -2.0568
4.7044, 7, -18.7749, 34.1312, 27.9439, -19.969, -90.587, -2.05677
