hehonglu123/ABB_Primitive_Study/realrobot/movec_30_ori/curve_exe_vmax_z20.csv
timestamp, cmd_num, J1, J2, J3, J4, J5, J6
0.000484, -1, -18.7727, 34.1307, 27.9456, -19.9674, -90.5847, -2.05554
0.004019, -1, -18.7727, 34.1307, 27.9456, -19.9674, -90.5847, -2.05553
0.026758, -1, -18.7727, 34.1307, 27.9456, -19.9673, -90.5847, -2.05548
0.028813, -1, -18.7727, 34.1307, 27.9456, -19.9673, -90.5847, -2.0555
0.030028, -1, -18.7727, 34.1307, 27.9456, -19.9673, -90.5847, -2.0555
0.032356, -1, -18.7727, 34.1307, 27.9456, -19.9672, -90.5847, -2.05549
0.038955, -1, -18.7727, 34.1307, 27.9456, -19.9672, -90.5847, -2.05546
0.048568, -1, -18.7722, 34.1306, 27.9456, -19.9672, -90.5846, -2.05548
0.056502, -1, -18.7698, 34.1299, 27.9456, -19.9671, -90.5846, -2.05548
0.064485, -1, -18.7644, 34.1279, 27.9457, -19.9669, -90.584, -2.05549
0.072749, -1, -18.7553, 34.1239, 27.9458, -19.9646, -90.5815, -2.05561
0.080598, -1, -18.7416, 34.1171, 27.9459, -19.9574, -90.5744, -2.05609
0.088543, -1, -18.7322, 34.1123, 27.9459, -19.9512, -90.5592, -2.05969
0.095935, -1, -18.7066, 34.0993, 27.9458, -19.9309, -90.5473, -2.06407
0.103986, -1, -18.6712, 34.0814, 27.9449, -19.8966, -90.5115, -2.0789
0.111969, -1, -18.6244, 34.0577, 27.9426, -19.8421, -90.4546, -2.10318
0.119961, -1, -18.5646, 34.0275, 27.9382, -19.7636, -90.3727, -2.13938
0.128021, -1, -18.491, 33.9901, 27.931, -19.6568, -90.2604, -2.19015
0.13596, -1, -18.4033, 33.9459, 27.9206, -19.519, -90.1153, -2.25571
0.143937, -1, -18.302, 33.895, 27.9065, -19.3494, -89.9362, -2.33614
0.151994, -1, -18.1869, 33.8372, 27.8893, -19.1492, -89.7246, -2.43207
0.159939, -1, -18.0581, 33.7725, 27.8694, -18.9218, -89.4839, -2.5402
0.167958, -1, -17.9166, 33.7018, 27.8471, -18.672, -89.2187, -2.65973
0.17601, -1, -17.7639, 33.6254, 27.8235, -18.405, -88.9348, -2.78744
0.183936, -1, -17.6012, 33.5439, 27.7991, -18.1255, -88.6378, -2.92128
0.191933, -1, -17.4296, 33.4582, 27.7743, -17.8383, -88.3324, -3.05913
0.200003, -1, -17.2513, 33.3691, 27.7493, -17.5463, -88.0216, -3.1996
0.20795, -1, -17.0684, 33.2777, 27.7241, -17.251, -87.7079, -3.34156
0.215935, -1, -16.8823, 33.1851, 27.6989, -16.9543, -87.3923, -3.48426
0.225947, -1, -16.5997, 33.0449, 27.6614, -16.5071, -86.9165, -3.699
0.230954, -1, -16.5049, 32.998, 27.6488, -16.3576, -86.7573, -3.77068
0.239938, -1, -16.3149, 32.9042, 27.6237, -16.0582, -86.4385, -3.91422
0.248041, -1, -16.1249, 32.8103, 27.5986, -15.7578, -86.1189, -4.05829
0.255937, -1, -15.935, 32.7166, 27.5735, -15.4567, -85.7989, -4.20224
0.263928, -1, -15.7459, 32.6229, 27.5484, -15.1554, -85.4781, -4.34679
0.271936, -1, -15.5571, 32.5291, 27.5232, -14.8537, -85.157, -4.49158
0.279936, -1, -15.3687, 32.4352, 27.4979, -14.5515, -84.8356, -4.63647
0.288017, -1, -15.1808, 32.341, 27.4726, -14.2491, -84.5136, -4.78147
0.295969, -1, -14.9931, 32.2466, 27.4474, -13.9461, -84.1915, -4.92665
0.303972, -1, -14.8052, 32.1517, 27.422, -13.6429, -83.8691, -5.0718
0.312, -1, -14.6165, 32.0565, 27.3963, -13.3396, -83.5464, -5.21723
0.319935, -1, -14.4267, 31.9612, 27.3707, -13.036, -83.2233, -5.36275
0.328013, -1, -14.2359, 31.8658, 27.3451, -12.7324, -82.9, -5.50861
0.33593, -1, -14.0441, 31.7703, 27.3196, -12.4286, -82.5765, -5.65461
0.343942, -1, -13.852, 31.6747, 27.2939, -12.1244, -82.2527, -5.80021
0.352008, -1, -13.6593, 31.5793, 27.2682, -11.82, -81.9285, -5.94597
0.359931, -1, -13.4658, 31.4839, 27.2426, -11.5158, -81.6046, -6.09168
0.367933, -1, -13.2721, 31.3885, 27.217, -11.2115, -81.2808, -6.23733
0.376016, -1, -13.0786, 31.2932, 27.1914, -10.9071, -80.9566, -6.38321
0.383944, -1, -12.886, 31.1981, 27.1658, -10.6028, -80.6331, -6.52891
0.392, -1, -12.6938, 31.1031, 27.1402, -10.2983, -80.3096, -6.67487
0.40002, -1, -12.5024, 31.0079, 27.1147, -9.99414, -79.9862, -6.82091
0.407289, -1, -12.3119, 30.9128, 27.0891, -9.69011, -79.6628, -6.96651
0.415349, -1, -12.1221, 30.8176, 27.0634, -9.38612, -79.3393, -7.11224
0.424032, -1, -11.9331, 30.7224, 27.0378, -9.08242, -79.0159, -7.25762
0.431532, -1, -11.7443, 30.627, 27.0123, -8.77895, -78.6927, -7.40296
0.440198, -1, -11.5554, 30.5317, 26.9868, -8.47553, -78.3696, -7.54829
0.447478, -1, -11.3661, 30.4366, 26.9612, -8.1728, -78.0474, -7.69351
0.456062, -1, -11.1765, 30.3418, 26.9356, -7.87053, -77.7257, -7.83848
0.464135, -1, -10.9867, 30.247, 26.9102, -7.56848, -77.4043, -7.98314
0.471443, -1, -10.8915, 30.1997, 26.8975, -7.41781, -77.2439, -8.05543
0.480082, -1, -10.6057, 30.0583, 26.8595, -6.96625, -76.7635, -8.2715
0.487032, -1, -10.5104, 30.0112, 26.8468, -6.81586, -76.6036, -8.34334
0.495975, -1, -10.2242, 29.8703, 26.809, -6.36591, -76.1243, -8.55866
0.502976, -1, -10.1291, 29.8234, 26.7964, -6.21612, -75.9648, -8.63027
0.512181, -1, -9.8448, 29.6832, 26.7588, -5.76773, -75.4872, -8.84507
0.518949, -1, -9.75045, 29.6365, 26.7462, -5.61857, -75.3285, -8.91656
0.528322, -1, -9.46864, 29.4966, 26.7086, -5.17167, -74.8532, -9.13008
0.534959, -1, -9.3752, 29.4501, 26.6961, -5.02307, -74.6952, -9.20119
0.544357, -1, -9.09643, 29.3106, 26.6586, -4.5788, -74.2224, -9.41372
0.55094, -1, -9.00392, 29.2642, 26.6462, -4.43092, -74.065, -9.48431
0.56053, -1, -8.72764, 29.1251, 26.6088, -3.98876, -73.5944, -9.69605
0.568503, -1, -8.54413, 29.0327, 26.5841, -3.69511, -73.2817, -9.83665
0.57655, -1, -8.36075, 28.9407, 26.5594, -3.40198, -72.9701, -9.97707
0.584549, -1, -8.1777, 28.849, 26.5347, -3.11008, -72.6595, -10.117
0.592447, -1, -8.08617, 28.8033, 26.5224, -2.96448, -72.5043, -10.2563
0.60078, -1, -7.90304, 28.6667, 26.4857, -2.5288, -72.0403, -10.3951
0.607929, -1, -7.72002, 28.6213, 26.4735, -2.38415, -71.8862, -10.4643
0.61591, -1, -7.53731, 28.5308, 26.4492, -2.09527, -71.5786, -10.6023
0.623994, -1, -7.35471, 28.4406, 26.4251, -1.80711, -71.2719, -10.7401
0.631959, -1, -7.17264, 28.3507, 26.4009, -1.52007, -70.9665, -10.8776
0.640014, -1, -6.99119, 28.2612, 26.3768, -1.23407, -70.662, -11.0144
0.647969, -1, -6.81069, 28.1719, 26.3529, -0.949125, -70.3587, -11.1509
0.655918, -1, -6.63126, 28.0829, 26.3291, -0.665293, -70.0567, -11.287
0.663915, -1, -6.45277, 27.9941, 26.3052, -0.382499, -69.7559, -11.4224
0.671983, -1, -6.27566, 27.9057, 26.2814, -0.100507, -69.4562, -11.5572
0.680003, -1, -6.09963, 27.8175, 26.2577, 0.180334, -69.1573, -11.6917
0.68792, -1, -5.92448, 27.7297, 26.2342, 0.460068, -68.8596, -11.8256
0.695914, -1, -5.75037, 27.642, 26.2108, 0.738646, -68.563, -11.959
0.702956, -1, -5.57686, 27.5548, 26.1874, 1.01621, -68.2672, -12.0919
0.711961, -1, -5.40374, 27.4681, 26.164, 1.29259, -67.9727, -12.2247
0.719987, -1, -5.23102, 27.3817, 26.1408, 1.56788, -67.6796, -12.3566
0.728945, -1, -5.05851, 27.2957, 26.1178, 1.84233, -67.3877, -12.4878
0.735913, -1, -4.88631, 27.2101, 26.095, 2.11527, -67.0972, -12.6185
0.743918, -1, -4.71446, 27.125, 26.072, 2.38705, -66.808, -12.7484
0.752021, -1, -4.54327, 27.0401, 26.0492, 2.65775, -66.5201, -12.8778
0.759987, -1, -4.37239, 26.9556, 26.0265, 2.92689, -66.2334, -13.0067
0.767914, -1, -4.20185, 26.8715, 26.0039, 3.19512, -65.9479, -13.1351
0.776342, -1, -4.03217, 26.7876, 25.9815, 3.46246, -65.6635, -13.2629
0.783923, -1, -3.86369, 26.7042, 25.959, 3.72831, -65.3803, -13.3904
0.79201, -1, -3.69641, 26.621, 25.9368, 3.99303, -65.0983, -13.5171
0.800814, -1, -3.53019, 26.5381, 25.9146, 4.25682, -64.8176, -13.6432
0.807247, -1, -3.36517, 26.4556, 25.8924, 4.5191, -64.5383, -13.7687
0.815055, -1, -3.20123, 26.3735, 25.8703, 4.78034, -64.2603, -13.8935
0.823024, -1, -3.03838, 26.2917, 25.8483, 5.04062, -63.9833, -14.0178
0.831921, -1, -2.87657, 26.2103, 25.8265, 5.29976, -63.7078, -14.1417
0.840046, -1, -2.71552, 26.1292, 25.8049, 5.55751, -63.4335, -14.2649
0.848695, -1, -2.55509, 26.0487, 25.7833, 5.81411, -63.1605, -14.3877
0.855929, -1, -2.39486, 25.9685, 25.7619, 6.06944, -62.8886, -14.5102
0.86397, -1, -2.23493, 25.8888, 25.7404, 6.32348, -62.6181, -14.6318
0.872764, -1, -2.07533, 25.8094, 25.7191, 6.57634, -62.3488, -14.753
0.879999, -1, -1.91627, 25.7305, 25.6979, 6.82834, -62.0807, -14.8734
0.887978, -1, -1.75767, 25.6519, 25.6768, 7.07916, -61.8136, -14.9933
0.896727, -1, -1.59962, 25.5736, 25.656, 7.32867, -61.5478, -15.1126
0.90401, -1, -1.44188, 25.4957, 25.635, 7.57703, -61.283, -15.2314
0.911916, -1, -1.28451, 25.4181, 25.6142, 7.82451, -61.0193, -15.3499
0.920767, -1, -1.12803, 25.3408, 25.5936, 8.07064, -60.757, -15.4675
0.928207, -1, -0.972556, 25.2638, 25.5729, 8.31573, -60.4959, -15.5852
0.935418, -1, -0.818372, 25.1871, 25.5525, 8.56009, -60.2362, -15.7021
0.944493, -1, -0.665343, 25.1109, 25.5321, 8.80299, -59.9776, -15.8181
0.95222, -1, -0.513345, 25.0349, 25.5116, 9.04472, -59.7204, -15.934
0.959487, -1, -0.43775, 24.9594, 25.4913, 9.2854, -59.4646, -16.0491
0.968067, -1, -0.212633, 24.8842, 25.4712, 9.52511, -59.21, -16.1638
0.97661, -1, -0.0638353, 24.8094, 25.4512, 9.76351, -58.9564, -16.278
0.983949, -1, 0.0840873, 24.7349, 25.4314, 10.0007, -58.7037, -16.3917
0.990967, -1, 0.157821, 24.6978, 25.4215, 10.1191, -58.5778, -16.4485
1.00008, -1, 0.378676, 24.5869, 25.3916, 10.4725, -58.2015, -16.618
1.0069, -1, 0.452276, 24.5502, 25.3818, 10.5897, -58.0765, -16.6743
1.01618, -1, 0.672777, 24.4402, 25.3523, 10.9397, -57.7034, -16.842
1.02293, -1, 0.746141, 24.4038, 25.3425, 11.0559, -57.5795, -16.8975
1.0322, -1, 0.965703, 24.2947, 25.3135, 11.4028, -57.2097, -17.0636
1.03894, -1, 1.03857, 24.2586, 25.3038, 11.5178, -57.0871, -17.1184
1.04839, -1, 1.25648, 24.1506, 25.2747, 11.8616, -56.7211, -17.2828
1.0564, -1, 1.40122, 24.0789, 25.2556, 12.0897, -56.4785, -17.3918
1.06291, -1, 1.4734, 24.0433, 25.246, 12.2034, -56.3578, -17.4459
1.0731, -1, 1.68906, 23.9368, 25.2176, 12.5424, -55.9971, -17.6081
1.07897, -1, 1.76055, 23.9015, 25.2081, 12.6549, -55.8774, -17.6619
1.0896, -1, 1.97331, 23.7961, 25.1798, 12.9913, -55.5198, -17.8231
1.09645, -1, 2.04371, 23.7611, 25.1704, 13.1028, -55.4012, -17.93
1.1039, -1, 2.18387, 23.6913, 25.1518, 13.325, -55.1646, -17.983
1.11196, -1, 2.32307, 23.6219, 25.1332, 13.5463, -54.9288, -18.089
1.11892, -1, 2.46124, 23.5527, 25.1146, 13.7669, -54.694, -18.1944
1.12793, -1, 2.59852, 23.4838, 25.0963, 13.9864, -54.46, -18.2994
1.136, -1, 2.73478, 23.4152, 25.0779, 14.205, -54.2271, -18.4038
1.14392, -1, 2.87024, 23.3469, 25.0596, 14.4225, -53.9954, -18.5081
1.1519, -1, 3.00524, 23.2789, 25.0414, 14.6393, -53.7648, -18.6116
1.15991, -1, 3.14001, 23.211, 25.0232, 14.8549, -53.5351, -18.715
1.1679, -1, 3.27486, 23.1435, 25.0051, 15.0696, -53.3065, -18.8177
1.17596, -1, 3.40961, 23.0764, 24.9873, 15.2835, -53.0788, -18.9204
1.18391, -1, 3.54408, 23.0095, 24.9694, 15.4968, -52.8521, -19.0225
1.19191, -1, 3.67827, 22.9429, 24.9515, 15.7091, -52.6262, -19.1237
1.19996, -1, 3.81209, 22.8766, 24.9339, 15.9203, -52.4015, -19.225
1.2079, -1, 3.94539, 22.8106, 24.9162, 16.1306, -52.1777, -19.3254
1.2159, -1, 4.07842, 22.7449, 24.8984, 16.3402, -51.9547, -19.4257
1.22396, -1, 4.21092, 22.6795, 24.881, 16.5487, -51.7325, -19.5253
1.23452, -1, 4.34298, 22.6143, 24.8636, 16.7564, -51.5113, -19.6249
1.23991, -1, 4.47425, 22.5494, 24.8461, 16.9632, -51.2909, -19.7237
1.24797, -1, 4.6048, 22.4847, 24.8289, 17.1695, -51.0712, -19.8227
1.25593, -1, 4.73474, 22.4201, 24.8116, 17.375, -50.8526, -19.9206
1.2639, -1, 4.86388, 22.3558, 24.7943, 17.5794, -50.6348, -20.0188
1.27198, -1, 4.99222, 22.2918, 24.7773, 17.783, -50.4178, -20.1163
1.2799, -1, 5.11982, 22.2279, 24.7604, 17.9859, -50.2017, -20.2135
1.2879, -1, 5.24664, 22.1644, 24.7432, 18.1882, -49.9865, -20.31
1.29592, -1, 5.37256, 22.1011, 24.7262, 18.3894, -49.7721, -20.4066
1.30404, -1, 5.49753, 22.038, 24.7094, 18.59, -49.5586, -20.5023
1.31192, -1, 5.62188, 21.9753, 24.6925, 18.7898, -49.3461, -20.5979
1.31989, -1, 5.74586, 21.9128, 24.6757, 18.9891, -49.1343, -20.6931
1.32798, -1, 5.8697, 21.8507, 24.6592, 19.1874, -48.9236, -20.7879
1.3359, -1, 5.99335, 21.7887, 24.6426, 19.3848, -48.7138, -20.8825
1.3439, -1, 6.11697, 21.727, 24.626, 19.5816, -48.5046, -20.9767
1.35198, -1, 6.24044, 21.6654, 24.6096, 19.7777, -48.2961, -21.0708
1.3599, -1, 6.36371, 21.6041, 24.5932, 19.9729, -48.0883, -21.1644
1.36791, -1, 6.48681, 21.543, 24.5767, 20.1672, -47.8811, -21.2579
1.37598, -1, 6.60964, 21.4821, 24.5605, 20.3609, -47.6749, -21.3504
1.3839, -1, 6.73209, 21.4214, 24.5443, 20.554, -47.4692, -21.4431
1.39196, -1, 6.85415, 21.3609, 24.5281, 20.7466, -47.264, -21.5348
1.39991, -1, 6.97573, 21.3009, 24.5119, 20.9381, -47.0598, -21.6265
1.40798, -1, 7.09681, 21.241, 24.4958, 21.1291, -46.8562, -21.7177
1.4159, -1, 7.21723, 21.1813, 24.4799, 21.3192, -46.6535, -21.8088
1.42423, -1, 7.33705, 21.122, 24.4639, 21.5089, -46.4515, -21.8995
1.43151, -1, 7.45626, 21.0629, 24.4482, 21.698, -46.2506, -21.9898
1.43999, -1, 7.5749, 21.0039, 24.4325, 21.8861, -46.05, -22.0799
1.44831, -1, 7.69314, 20.9451, 24.4168, 22.0736, -45.8506, -22.1697
1.45547, -1, 7.81083, 20.8865, 24.401, 22.2605, -45.6518, -22.2593
1.46409, -1, 7.92798, 20.828, 24.3853, 22.4471, -45.4538, -22.3485
1.47257, -1, 8.04447, 20.7696, 24.3697, 22.6328, -45.2566, -22.4374
1.47992, -1, 8.16046, 20.7114, 24.354, 22.8177, -45.0601, -22.5256
1.48797, -1, 8.27597, 20.6534, 24.3386, 23.002, -44.8642, -22.614
1.49675, -1, 8.39118, 20.5956, 24.3233, 23.1857, -44.6687, -22.7015
1.50404, -1, 8.50604, 20.5381, 24.3079, 23.3687, -44.4737, -22.7892
1.51094, -1, 8.5633, 20.5095, 24.3002, 23.46, -44.3764, -22.8326
1.52086, -1, 8.73425, 20.4238, 24.2772, 23.7328, -44.0856, -22.9632
1.52816, -1, 8.84777, 20.367, 24.262, 23.9139, -43.8925, -23.0497
1.53497, -1, 8.90443, 20.3387, 24.2544, 24.0044, -43.7961, -23.093
1.54515, -1, 9.07416, 20.2539, 24.2317, 24.2748, -43.5084, -23.2222
1.55096, -1, 9.13071, 20.2258, 24.2243, 24.3646, -43.4128, -23.2653
1.56047, -1, 9.3003, 20.1415, 24.2019, 24.6329, -43.127, -23.3941
1.56926, -1, 9.41314, 20.0856, 24.1868, 24.8111, -42.9372, -23.4798
1.57499, -1, 9.46943, 20.0577, 24.1792, 24.9001, -42.8426, -23.5224
1.58449, -1, 9.63755, 19.9741, 24.1569, 25.1661, -42.5594, -23.6492
1.59333, -1, 9.69335, 19.9185, 24.142, 25.3425, -42.3716, -23.7338
1.59898, -1, 9.80476, 19.8908, 24.1346, 25.4306, -42.2778, -23.7757
1.60844, -1, 9.9159, 19.8356, 24.1199, 25.6064, -42.0907, -23.8599
1.61589, -1, 10.0267, 19.7806, 24.1053, 25.7816, -41.9045, -23.9434
1.62297, -1, 10.1372, 19.7258, 24.0907, 25.9565, -41.7187, -24.0269
1.63195, -1, 10.2472, 19.6712, 24.0759, 26.1307, -41.5334, -24.1101
1.63993, -1, 10.3568, 19.6168, 24.0613, 26.3042, -41.3487, -24.193
1.64706, -1, 10.4658, 19.5626, 24.0468, 26.4773, -41.1644, -24.276
1.65593, -1, 10.5745, 19.5084, 24.0323, 26.6498, -40.9808, -24.3582
1.66389, -1, 10.6827, 19.4545, 24.0178, 26.8219, -40.7977, -24.441
1.67169, -1, 10.7907, 19.4007, 24.0035, 26.9933, -40.615, -24.5229
1.67889, -1, 10.8982, 19.347, 23.9893, 27.1641, -40.433, -24.6053
1.68789, -1, 11.0052, 19.2935, 23.975, 27.3345, -40.2513, -24.6867
1.69573, -1, 11.1119, 19.2401, 23.9606, 27.5045, -40.0704, -24.768
1.70292, -1, 11.2183, 19.1868, 23.9463, 27.6741, -39.89, -24.8493
1.7119, -1, 11.3242, 19.1337, 23.9321, 27.843, -39.7101, -24.9299
1.71966, -1, 11.4298, 19.0808, 23.9179, 28.0115, -39.5308, -25.0107
1.72788, -1, 11.5349, 19.0282, 23.9038, 28.1793, -39.352, -25.0907
1.7369, -1, 11.6399, 18.9757, 23.8899, 28.3468, -39.1736, -25.1712
1.74289, -1, 11.7447, 18.9234, 23.8759, 28.5138, -38.9958, -25.2508
1.75188, -1, 11.8493, 18.8713, 23.8619, 28.6803, -38.8187, -25.3309
1.75991, -1, 11.9538, 18.8193, 23.8478, 28.8463, -38.6419, -25.4104
1.76845, -1, 12.0581, 18.7673, 23.8339, 29.0119, -38.4655, -25.4898
1.7759, -1, 12.1623, 18.7155, 23.82, 29.1771, -38.29, -25.5694
1.78389, -1, 12.2663, 18.6638, 23.8061, 29.3419, -38.1151, -25.648
1.79522, -1, 12.4219, 18.5865, 23.7855, 29.5882, -37.8535, -25.7663
1.79892, -1, 12.4736, 18.5608, 23.7787, 29.67, -37.7665, -25.8051
1.93723, -1, 14.1869, 17.7075, 23.5504, 32.3877, -34.8732, -27.1047
1.93841, -1, 14.1869, 17.7075, 23.5504, 32.3877, -34.8732, -27.1047
1.94043, -1, 14.2362, 17.683, 23.5439, 32.4658, -34.7901, -27.1421
1.94175, -1, 14.2362, 17.683, 23.5439, 32.4658, -34.7901, -27.1421
1.94354, -1, 14.2853, 17.6585, 23.5373, 32.5438, -34.7071, -27.1797
1.94497, -1, 14.2853, 17.6585, 23.5373, 32.5438, -34.7071, -27.1797
1.94641, -1, 14.2853, 17.6585, 23.5373, 32.5438, -34.7071, -27.1797
1.95208, -1, 14.3833, 17.6096, 23.5241, 32.6997, -34.5416, -27.254
1.95339, -1, 14.3833, 17.6096, 23.5241, 32.6997, -34.5416, -27.254
1.95526, -1, 14.3833, 17.6096, 23.5241, 32.6997, -34.5416, -27.254
1.95676, -1, 14.4321, 17.5853, 23.5175, 32.7776, -34.4589, -27.2908
1.95797, -1, 14.4321, 17.5853, 23.5175, 32.7776, -34.4589, -27.2908
1.96021, -1, 14.4809, 17.5609, 23.511, 32.8554, -34.3763, -27.3278
1.96145, -1, 14.4809, 17.5609, 23.511, 32.8554, -34.3763, -27.3278
1.96274, -1, 14.4809, 17.5609, 23.511, 32.8554, -34.3763, -27.3278
1.96751, -1, 14.5783, 17.5124, 23.498, 33.0105, -34.2112, -27.4023
1.96898, -1, 14.5783, 17.5124, 23.498, 33.0105, -34.2112, -27.4023
1.97021, -1, 14.5783, 17.5124, 23.498, 33.0105, -34.2112, -27.4023
1.9729, -1, 14.6268, 17.4882, 23.4915, 33.0879, -34.1288, -27.4392
1.97409, -1, 14.6268, 17.4882, 23.4915, 33.0879, -34.1288, -27.4392
1.9762, -1, 14.6752, 17.464, 23.4851, 33.1652, -34.0467, -27.4759
1.9774, -1, 14.6752, 17.464, 23.4851, 33.1652, -34.0467, -27.4759
1.98487, -1, 14.7718, 17.4157, 23.4721, 33.3195, -33.8821, -27.5499
1.99191, -1, 14.8683, 17.3675, 23.4591, 33.4734, -33.7185, -27.6236
1.99992, -1, 14.9646, 17.3192, 23.4464, 33.627, -33.5549, -27.6969
2.00829, -1, 15.0608, 17.2711, 23.4337, 33.7802, -33.3916, -27.7708
2.01487, -1, 15.1088, 17.247, 23.4273, 33.8567, -33.31, -27.8074
2.02412, -1, 15.2526, 17.175, 23.4079, 34.0852, -33.0664, -27.917
2.0309, -1, 15.3006, 17.1511, 23.4014, 34.1612, -32.9853, -27.9536
2.04023, -1, 15.4442, 17.0794, 23.3822, 34.389, -32.7432, -28.0622
2.04696, -1, 15.4921, 17.0555, 23.3758, 34.4648, -32.6626, -28.0987
2.05672, -1, 15.6356, 16.9843, 23.3566, 34.6914, -32.4214, -28.207
2.06443, -1, 15.7309, 16.937, 23.3439, 34.8421, -32.261, -28.2793
2.07249, -1, 15.826, 16.8899, 23.3314, 34.9924, -32.1009, -28.3514
2.08053, -1, 15.9208, 16.843, 23.3189, 35.1422, -31.9415, -28.4225
2.08846, -1, 16.0154, 16.7962, 23.3063, 35.292, -31.7823, -28.4946
2.09649, -1, 16.0626, 16.7729, 23.2937, 35.4414, -31.6233, -28.5659
2.10466, -1, 16.1566, 16.7264, 23.2874, 35.5159, -31.4649, -28.6371
2.11188, -1, 16.2503, 16.6798, 23.275, 35.6646, -31.3859, -28.673
2.11986, -1, 16.3438, 16.6332, 23.2625, 35.8131, -31.2277, -28.744
2.12792, -1, 16.4371, 16.5867, 23.2501, 35.9611, -31.0701, -28.8148
2.1359, -1, 16.53, 16.5402, 23.2376, 36.1091, -30.9127, -28.8862
2.1439, -1, 16.6226, 16.4938, 23.2252, 36.2568, -30.7556, -28.9564
2.15194, -1, 16.7151, 16.4475, 23.2129, 36.4041, -30.5989, -29.0272
2.15987, -1, 16.8074, 16.4012, 23.2005, 36.551, -30.4425, -29.0976
2.16787, -1, 16.8996, 16.355, 23.1881, 36.6974, -30.2866, -29.1673
2.17591, -1, 16.9916, 16.3091, 23.1757, 36.8437, -30.1309, -29.2377
2.18387, -1, 17.0835, 16.2633, 23.1635, 36.9896, -29.9754, -29.3072
2.19188, -1, 17.1746, 16.2178, 23.1511, 37.1353, -29.8202, -29.3767
2.20004, -1, 17.2633, 16.1734, 23.1387, 37.2804, -29.6658, -29.4464
2.20787, -1, 17.3479, 16.1311, 23.1261, 37.4242, -29.5126, -29.5146
2.21586, -1, 17.4271, 16.0915, 23.1136, 37.5646, -29.3629, -29.5822
2.22393, -1, 17.5009, 16.0549, 23.1012, 37.6991, -29.2192, -29.6467
2.23188, -1, 17.5687, 16.0218, 23.0895, 37.8239, -29.0861, -29.7063
2.23987, -1, 17.6288, 15.9926, 23.0789, 37.9354, -28.9669, -29.7602
2.24792, -1, 17.682, 15.9666, 23.0701, 38.0297, -28.8655, -29.8061
2.25787, -1, 17.7291, 15.9319, 23.0613, 38.1357, -28.7513, -29.8575
2.26391, -1, 17.7701, 15.9215, 23.0594, 38.1614, -28.7233, -29.8699
2.27194, -1, 17.8046, 15.9038, 23.057, 38.1999, -28.6814, -29.8888
2.27987, -1, 17.8321, 15.89, 23.0558, 38.2251, -28.6539, -29.9009
2.28787, -1, 17.8538, 15.8797, 23.0553, 38.2401, -28.6374, -29.9079
2.29592, -1, 17.8693, 15.8725, 23.0551, 38.2482, -28.6284, -29.9117
2.30389, -1, 17.8785, 15.8683, 23.055, 38.2523, -28.6239, -29.9136
2.31191, 2, 17.8829, 15.8662, 23.055, 38.2542, -28.6217, -29.9144
2.31995, 2, 17.8849, 15.8652, 23.055, 38.2551, -28.6208, -29.9148
2.32787, 2, 17.8851, 15.8647, 23.055, 38.2555, -28.6203, -29.9151
2.33587, 2, 17.8844, 15.8645, 23.055, 38.2557, -28.6201, -29.9151
2.34393, 2, 17.8837, 15.8644, 23.055, 38.2558, -28.6201, -29.9152
2.35188, 2, 17.8832, 15.8644, 23.055, 38.2558, -28.62, -29.9152
2.35986, 2, 17.883, 15.8643, 23.055, 38.2559, -28.62, -29.9152
2.36792, 2, 17.8829, 15.8642, 23.055, 38.2559, -28.6199, -29.9152
2.37586, 2, 17.8829, 15.864, 23.055, 38.2559, -28.6199, -29.9152
2.38386, 2, 17.883, 15.8637, 23.055, 38.2559, -28.6199, -29.9153
2.39195, 2, 17.8834, 15.8634, 23.055, 38.2559, -28.62, -29.9152
2.39987, 2, 17.8839, 15.8631, 23.0549, 38.2559, -28.62, -29.9152
2.40786, 2, 17.8844, 15.8629, 23.0549, 38.2559, -28.62, -29.9152
2.41593, 2, 17.8853, 15.8627, 23.0549, 38.2559, -28.62, -29.9152
2.42388, 2, 17.8861, 15.8627, 23.0549, 38.2559, -28.6201, -29.9152
2.43195, 2, 17.8868, 15.8627, 23.0549, 38.2559, -28.62, -29.9152
2.44001, 2, 17.8872, 15.8627, 23.055, 38.2558, -28.6201, -29.9152
2.44795, 2, 17.8874, 15.8627, 23.055, 38.2558, -28.6201, -29.9152
2.45597, 2, 17.8876, 15.8627, 23.055, 38.2559, -28.6201, -29.9152
2.46403, 2, 17.8876, 15.8627, 23.055, 38.2559, -28.6201, -29.9152
2.472, 2, 17.8877, 15.8627, 23.055, 38.2559, -28.6201, -29.9153
2.48001, 2, 17.8877, 15.8627, 23.055, 38.2559, -28.6201, -29.9153
2.48812, 2, 17.8877, 15.8626, 23.055, 38.2559, -28.6201, -29.9152
2.49488, 2, 17.8876, 15.8626, 23.0549, 38.2558, -28.6201, -29.9152
2.50391, 2, 17.8872, 15.8625, 23.0549, 38.2559, -28.6202, -29.9152
2.512, 2, 17.8871, 15.8624, 23.055, 38.2559, -28.6202, -29.9152
2.52007, 2, 17.887, 15.8624, 23.055, 38.2559, -28.6202, -29.9152
2.52692, 2, 17.8869, 15.8624, 23.055, 38.2559, -28.6202, -29.9152
2.53618, 2, 17.8869, 15.8624, 23.055, 38.2558, -28.6202, -29.9152
2.54288, 2, 17.8869, 15.8624, 23.055, 38.2558, -28.6203, -29.9152
2.55226, 2, 17.8869, 15.8624, 23.055, 38.2559, -28.6203, -29.9152
2.55885, 2, 17.8869, 15.8624, 23.055, 38.2559, -28.6203, -29.9152
2.56844, 2, 17.8869, 15.8624, 23.055, 38.2559, -28.6203, -29.9152
2.57637, 2, 17.8869, 15.8624, 23.055, 38.2559, -28.6203, -29.9152
2.58445, 2, 17.8869, 15.8624, 23.055, 38.2559, -28.6203, -29.9151
2.59248, 2, 17.8869, 15.8624, 23.055, 38.2559, -28.6204, -29.9151
2.60048, 2, 17.8869, 15.8624, 23.055, 38.2558, -28.6204, -29.9152
2.60844, 2, 17.8869, 15.8624, 23.055, 38.2558, -28.6205, -29.9151
2.61585, 2, 17.8869, 15.8623, 23.055, 38.2559, -28.6205, -29.9151
2.62385, 2, 17.8868, 15.8623, 23.0549, 38.2558, -28.6205, -29.9151
2.63191, 2, 17.8868, 15.8623, 23.055, 38.2558, -28.6205, -29.9151
2.63987, 2, 17.8867, 15.8623, 23.055, 38.2558, -28.6205, -29.9151
2.64788, 2, 17.8867, 15.8623, 23.0549, 38.2558, -28.6205, -29.9151
2.65592, 2, 17.8867, 15.8624, 23.0549, 38.2558, -28.6205, -29.9151
2.66385, 2, 17.8867, 15.8624, 23.055, 38.2558, -28.6206, -29.9152
2.67186, 2, 17.8867, 15.8624, 23.055, 38.2558, -28.6206, -29.9151
2.6799, 2, 17.8866, 15.8624, 23.055, 38.2557, -28.6205, -29.9152
2.68796, 2, 17.8866, 15.8624, 23.055, 38.2557, -28.6206, -29.9152
2.69585, 2, 17.8866, 15.8624, 23.055, 38.2558, -28.6206, -29.9152
2.70391, 2, 17.8866, 15.8624, 23.055, 38.2557, -28.6206, -29.9151
2.71188, 2, 17.8866, 15.8624, 23.055, 38.2557, -28.6206, -29.9151
2.71985, 2, 17.8866, 15.8624, 23.055, 38.2558, -28.6206, -29.9151
2.72791, 2, 17.8866, 15.8624, 23.0549, 38.2558, -28.6206, -29.9151
2.73755, 2, 17.8865, 15.8624, 23.0549, 38.2558, -28.6206, -29.9151
2.74385, 2, 17.8865, 15.8624, 23.0549, 38.2558, -28.6206, -29.9151
2.75192, 2, 17.8865, 15.8624, 23.0549, 38.2557, -28.6206, -29.9151
2.76104, 2, 17.8865, 15.8624, 23.0549, 38.2557, -28.6207, -29.9151
2.76788, 2, 17.8865, 15.8624, 23.0549, 38.2557, -28.6207, -29.9151
2.7759, 2, 17.8865, 15.8624, 23.0549, 38.2557, -28.6208, -29.9151
2.78385, 2, 17.8864, 15.8624, 23.055, 38.2557, -28.6207, -29.9151
2.79186, 2, 17.8864, 15.8624, 23.055, 38.2557, -28.6208, -29.9151
2.79992, 2, 17.8864, 15.8624, 23.055, 38.2557, -28.6208, -29.9151
2.80787, 2, 17.8863, 15.8624, 23.055, 38.2557, -28.6208, -29.9151
2.81588, 2, 17.8863, 15.8624, 23.055, 38.2557, -28.6208, -29.9151
2.82394, 2, 17.8863, 15.8624, 23.055, 38.2557, -28.6208, -29.9152
2.83186, 2, 17.8862, 15.8624, 23.0549, 38.2557, -28.6208, -29.9151
2.83986, 2, 17.8862, 15.8624, 23.0549, 38.2557, -28.6208, -29.9151
2.8479, 2, 17.8862, 15.8624, 23.055, 38.2557, -28.6209, -29.9151
2.85585, 2, 17.8861, 15.8624, 23.055, 38.2556, -28.6209, -29.9151
2.86386, 2, 17.8861, 15.8624, 23.055, 38.2557, -28.6209, -29.9151
2.87191, 2, 17.886, 15.8624, 23.055, 38.2557, -28.6209, -29.9151
2.87985, 2, 17.886, 15.8625, 23.055, 38.2557, -28.6209, -29.9151
2.88788, 2, 17.8859, 15.8625, 23.055, 38.2557, -28.6209, -29.9151
2.8959, 2, 17.8859, 15.8625, 23.055, 38.2557, -28.6209, -29.9151
2.90385, 2, 17.8859, 15.8624, 23.055, 38.2556, -28.6209, -29.9151
2.91187, 2, 17.8858, 15.8625, 23.0549, 38.2556, -28.6209, -29.9151
2.9199, 2, 17.8858, 15.8625, 23.0549, 38.2556, -28.6209, -29.9151
2.92788, 2, 17.8858, 15.8625, 23.055, 38.2556, -28.6209, -29.9151
2.93594, 2, 17.8857, 15.8625, 23.055, 38.2556, -28.621, -29.9151
2.94398, 2, 17.8856, 15.8624, 23.055, 38.2556, -28.621, -29.9151
2.95196, 2, 17.8856, 15.8624, 23.055, 38.2556, -28.6209, -29.9151
2.95946, 2, 17.8855, 15.8625, 23.055, 38.2556, -28.621, -29.9151
2.968, 2, 17.8855, 15.8625, 23.055, 38.2555, -28.621, -29.915
2.97597, 2, 17.8855, 15.8625, 23.055, 38.2555, -28.621, -29.915
2.98401, 2, 17.8854, 15.8625, 23.055, 38.2555, -28.621, -29.915
2.992, 2, 17.8853, 15.8625, 23.055, 38.2555, -28.621, -29.915
2.99974, 2, 17.8853, 15.8625, 23.055, 38.2555, -28.6211, -29.9151
3.0079, 2, 17.8852, 15.8625, 23.055, 38.2555, -28.6211, -29.9151
3.01603, 2, 17.8852, 15.8625, 23.055, 38.2555, -28.6211, -29.915
3.02285, 2, 17.8851, 15.8625, 23.055, 38.2555, -28.6211, -29.9151
3.03208, 2, 17.885, 15.8625, 23.055, 38.2555, -28.6211, -29.915
3.03886, 2, 17.885, 15.8624, 23.055, 38.2555, -28.6211, -29.915
3.04862, 2, 17.8849, 15.8625, 23.055, 38.2555, -28.6212, -29.915
3.05626, 2, 17.8849, 15.8625, 23.055, 38.2555, -28.6212, -29.915
3.06283, 2, 17.8849, 15.8625, 23.055, 38.2555, -28.6212, -29.915
3.07295, 2, 17.8848, 15.8625, 23.055, 38.2555, -28.6212, -29.915
3.08042, 2, 17.8848, 15.8625, 23.055, 38.2554, -28.6212, -29.915
3.08841, 2, 17.8847, 15.8625, 23.055, 38.2554, -28.6212, -29.915
3.09674, 2, 17.8847, 15.8625, 23.055, 38.2554, -28.6213, -29.915
3.10445, 2, 17.8847, 15.8625, 23.055, 38.2554, -28.6212, -29.915
3.11242, 2, 17.8846, 15.8625, 23.055, 38.2554, -28.6213, -29.9151
3.12087, 2, 17.8845, 15.8625, 23.055, 38.2553, -28.6213, -29.915
3.12785, 2, 17.8845, 15.8625, 23.055, 38.2553, -28.6213, -29.9151
3.13587, 2, 17.8844, 15.8625, 23.055, 38.2553, -28.6213, -29.915
3.14386, 2, 17.8844, 15.8625, 23.055, 38.2553, -28.6213, -29.915
3.15189, 2, 17.8844, 15.8625, 23.055, 38.2552, -28.6213, -29.915
3.15989, 2, 17.8843, 15.8625, 23.055, 38.2552, -28.6213, -29.915
3.16783, 2, 17.8843, 15.8625, 23.055, 38.2552, -28.6213, -29.915
3.17584, 2, 17.8842, 15.8625, 23.055, 38.2552, -28.6213, -29.915
3.18387, 2, 17.8842, 15.8625, 23.055, 38.2552, -28.6213, -29.915
3.19185, 2, 17.8842, 15.8625, 23.055, 38.2552, -28.6213, -29.915
3.19984, 2, 17.8842, 15.8625, 23.055, 38.2552, -28.6213, -29.915
3.20789, 2, 17.8841, 15.8625, 23.055, 38.2552, -28.6213, -29.915
3.21583, 2, 17.8841, 15.8626, 23.055, 38.2552, -28.6213, -29.915
3.22388, 2, 17.8841, 15.8626, 23.055, 38.2552, -28.6213, -29.915
3.23185, 2, 17.8841, 15.8626, 23.055, 38.2551, -28.6213, -29.9149
3.24177, 2, 17.8841, 15.8625, 23.055, 38.2551, -28.6213, -29.9149
3.24788, 2, 17.884, 15.8625, 23.055, 38.2551, -28.6213, -29.9149
3.25584, 2, 17.884, 15.8626, 23.055, 38.2551, -28.6213, -29.9149
3.266, 2, 17.884, 15.8625, 23.055, 38.2551, -28.6213, -29.9149
3.27085, 2, 17.884, 15.8626, 23.055, 38.2551, -28.6213, -29.9149
3.27984, 2, 17.884, 15.8625, 23.055, 38.2551, -28.6213, -29.9149
3.28783, 2, 17.884, 15.8626, 23.055, 38.2551, -28.6213, -29.9149
3.29593, 2, 17.884, 15.8626, 23.055, 38.255, -28.6213, -29.9149
3.30384, 2, 17.8839, 15.8626, 23.055, 38.255, -28.6213, -29.915
3.31309, 2, 17.8839, 15.8626, 23.055, 38.255, -28.6213, -29.915
3.31991, 2, 17.8839, 15.8626, 23.055, 38.255, -28.6213, -29.915
3.32695, 2, 17.8839, 15.8626, 23.055, 38.255, -28.6213, -29.9149
3.33582, 2, 17.8839, 15.8626, 23.055, 38.2549, -28.6213, -29.9149
3.34387, 2, 17.8839, 15.8626, 23.055, 38.2549, -28.6214, -29.9149
3.35183, 2, 17.8839, 15.8626, 23.055, 38.2549, -28.6213, -29.9149
3.35983, 2, 17.8838, 15.8626, 23.055, 38.2549, -28.6213, -29.9149
3.36788, 2, 17.8838, 15.8626, 23.055, 38.2549, -28.6213, -29.9149
3.37582, 4, 17.8838, 15.8626, 23.055, 38.2549, -28.6214, -29.9149
3.38383, 4, 17.8838, 15.8626, 23.055, 38.2549, -28.6214, -29.9149
3.39188, 4, 17.8838, 15.8626, 23.055, 38.2549, -28.6214, -29.9149
3.39985, 4, 17.8838, 15.8626, 23.055, 38.2548, -28.6214, -29.9149
3.40783, 4, 17.8837, 15.8626, 23.055, 38.2547, -28.6214, -29.9149
3.41588, 4, 17.8837, 15.8626, 23.055, 38.2547, -28.6215, -29.9149
3.42385, 4, 17.8837, 15.8626, 23.055, 38.2548, -28.6215, -29.9149
3.43187, 4, 17.8837, 15.8626, 23.055, 38.2547, -28.6215, -29.9148
3.43999, 4, 17.8837, 15.8626, 23.055, 38.2548, -28.6215, -29.9148
3.44794, 4, 17.8837, 15.8626, 23.055, 38.2547, -28.6215, -29.9148
3.45592, 4, 17.8836, 15.8626, 23.055, 38.2547, -28.6215, -29.9148
3.46397, 4, 17.8836, 15.8626, 23.055, 38.2547, -28.6215, -29.9148
3.47197, 4, 17.8837, 15.8626, 23.055, 38.2547, -28.6215, -29.9147
3.4801, 4, 17.8836, 15.8626, 23.055, 38.2547, -28.6215, -29.9147
3.50991, 4, 17.8836, 15.8626, 23.055, 38.2546, -28.6214, -29.9147
3.51251, 4, 17.8836, 15.8626, 23.055, 38.2546, -28.6214, -29.9147
3.52111, 4, 17.8835, 15.8627, 23.055, 38.2546, -28.6214, -29.9147
3.52294, 4, 17.8835, 15.8627, 23.055, 38.2546, -28.6214, -29.9147
3.52557, 4, 17.8835, 15.8627, 23.055, 38.2547, -28.6214, -29.9148
3.52877, 4, 17.8835, 15.8627, 23.055, 38.2546, -28.6214, -29.9148
3.55008, 4, 17.8786, 15.866, 23.0546, 38.2537, -28.6216, -29.9143
3.5528, 4, 17.8786, 15.866, 23.0546, 38.2537, -28.6216, -29.9136
3.55406, 4, 17.8757, 15.8684, 23.0541, 38.2524, -28.6217, -29.9136
3.56099, 4, 17.8669, 15.8772, 23.0517, 38.2451, -28.6228, -29.9086
3.56842, 5, 17.8538, 15.8932, 23.0463, 38.2283, -28.626, -29.8934
3.57633, 5, 17.834, 15.9184, 23.0361, 38.1957, -28.633, -29.8611
3.58529, 5, 17.8058, 15.9547, 23.0192, 38.1379, -28.6459, -29.8031
3.59082, 5, 17.7883, 15.9772, 23.0076, 38.0961, -28.6552, -29.7609
3.60041, 5, 17.7454, 16.0658, 22.9569, 37.9058, -28.6982, -29.5674
3.60928, 5, 17.6582, 16.1458, 22.9075, 37.7124, -28.7435, -29.3703
3.61481, 5, 17.622, 16.1931, 22.8773, 37.5929, -28.7721, -29.2484
3.62383, 5, 17.5379, 16.3036, 22.8055, 37.3044, -28.8415, -28.9536
3.63186, 5, 17.4366, 16.4363, 22.7173, 36.9466, -28.9306, -28.5877
3.63982, 5, 17.317, 16.5926, 22.612, 36.5171, -29.0402, -28.1488
3.64786, 5, 17.1771, 16.7745, 22.4892, 36.015, -29.1722, -27.637
3.6559, 5, 17.0161, 16.9827, 22.3496, 35.4413, -29.3285, -27.0522
3.66384, 5, 16.8335, 17.2163, 22.1936, 34.7979, -29.5105, -26.3967
3.67183, 5, 16.6293, 17.4753, 22.0215, 34.0846, -29.7199, -25.6751
3.67986, 5, 16.4038, 17.7598, 21.8335, 33.3043, -29.9591, -24.8903
3.68782, 5, 16.1572, 18.0678, 21.6312, 32.4609, -30.2297, -24.0437
3.7063, 5, 15.4495, 18.9367, 21.0685, 30.1068, -31.0545, -21.7046
3.70764, 5, 15.4495, 18.9367, 21.0685, 30.1068, -31.0545, -21.7046
3.712, 5, 15.2926, 19.1257, 20.9479, 29.5996, -31.2461, -21.2056
3.71987, 5, 14.9642, 19.517, 20.7008, 28.5569, -31.6566, -20.1858
3.72788, 5, 14.6161, 19.9258, 20.446, 27.482, -32.1037, -19.1403
3.73588, 5, 14.2491, 20.349, 20.1864, 26.3798, -32.5872, -18.0798
3.74485, 5, 13.865, 20.7834, 19.9231, 25.26, -33.1069, -17.0126
3.75181, 5, 13.4663, 21.2268, 19.6583, 24.1304, -33.6612, -15.9494
3.75988, 5, 13.0554, 21.677, 19.3946, 22.9955, -34.2497, -14.8941
3.76782, 5, 12.6328, 22.1325, 19.1328, 21.8644, -34.8701, -13.8575
3.77586, 5, 12.1985, 22.5916, 18.8755, 20.7454, -35.5194, -12.845
3.78388, 5, 11.7519, 23.0533, 18.6235, 19.6404, -36.1939, -11.8656
3.79182, 5, 11.2933, 23.5153, 18.3779, 18.5554, -36.8911, -10.9215
3.79981, 5, 10.8238, 23.976, 18.1409, 17.4949, -37.6114, -10.0149
3.80788, 5, 10.3446, 24.4354, 17.9119, 16.4541, -38.3538, -9.1482
3.81584, 5, 9.85723, 24.8917, 17.6916, 15.4338, -39.1163, -8.32063
3.82386, 5, 9.36241, 25.3434, 17.4814, 14.436, -39.8986, -7.53407
3.83183, 5, 8.85977, 25.7902, 17.2815, 13.4556, -40.7028, -6.78456
3.83981, 5, 8.34975, 26.2302, 17.093, 12.4895, -41.5287, -6.07283
3.84789, 5, 7.834, 26.6618, 16.9169, 11.5408, -42.3744, -5.40064
3.85582, 5, 7.31591, 27.0839, 16.753, 10.6116, -43.2364, -4.7666
3.86382, 5, 6.79801, 27.4957, 16.602, 9.70024, -44.1106, -4.17349
3.87188, 5, 6.28178, 27.8956, 16.4653, 8.81115, -44.994, -3.62361
3.87981, 5, 5.76636, 28.2819, 16.344, 7.94897, -45.881, -3.1174
3.88782, 5, 5.25105, 28.6541, 16.2377, 7.11524, -46.7627, -2.6555
3.89588, 5, 4.73643, 29.011, 16.1468, 6.31086, -47.6341, -2.23757
3.90382, 5, 4.22586, 29.3511, 16.0714, 5.53961, -48.4934, -1.86233
3.91189, 5, 3.7239, 29.6737, 16.0109, 4.80073, -49.335, -1.52822
3.91981, 5, 3.23122, 29.9788, 15.9646, 4.09539, -50.152, -1.23316
3.92781, 5, 2.74669, 30.2687, 15.932, 3.42159, -50.9457, -0.972616
3.93599, 5, 2.26827, 30.5437, 15.9124, 2.77724, -51.72, -0.741884
3.94394, 5, 1.79422, 30.8055, 15.9053, 2.16138, -52.4769, -0.533447
3.95212, 6, 1.32225, 31.0567, 15.9099, 1.56976, -53.2221, -0.337228
3.96017, 6, 0.853316, 31.2977, 15.9264, 1.00079, -53.9646, -0.141924
3.96745, 6, 0.389039, 31.5295, 15.9551, 0.451696, -54.7148, 0.0628564
3.97593, 6, -0.0711526, 31.7545, 15.9964, -0.0818925, -55.4825, 0.283033
3.98402, 6, -0.532381, 31.9729, 16.0506, -0.604329, -56.2757, 0.521086
3.99201, 6, -1.00068, 32.1857, 16.1181, -1.11807, -57.0974, 0.774574
3.99986, 6, -1.47704, 32.395, 16.2, -1.62956, -57.951, 1.03763
4.00792, 6, -1.95942, 32.602, 16.2973, -2.14321, -58.8415, 1.30259
4.01592, 6, -2.44697, 32.8066, 16.4111, -2.66115, -59.7683, 1.561
4.02393, 6, -2.94166, 33.0084, 16.5422, -3.18663, -60.7283, 1.80692
4.03279, 6, -3.44791, 33.207, 16.6915, -3.72046, -61.7224, 2.03585
4.04031, 6, -3.96736, 33.4008, 16.8599, -4.26262, -62.7506, 2.24542
4.04813, 6, -4.49847, 33.5881, 17.0474, -4.81202, -63.8067, 2.43214
4.05483, 6, -4.76697, 33.6791, 17.1481, -5.08919, -64.3431, 2.51645
4.0643, 6, -5.57911, 33.9413, 17.4793, -5.92713, -65.9838, 2.72998
4.07079, 6, -5.85218, 34.0243, 17.5995, -6.20776, -66.5391, 2.78754
4.07886, 6, -6.40313, 34.1826, 17.8528, -6.77005, -67.6546, 2.8806
4.0886, 6, -7.24323, 34.3995, 18.2675, -7.61543, -69.3366, 2.9669
4.09639, 6, -7.80885, 34.5291, 18.5656, -8.17813, -70.4597, 2.98994
4.10444, 6, -8.37209, 34.645, 18.8809, -8.74069, -71.5755, 2.98441
4.11255, 6, -8.65091, 34.6977, 19.2113, -9.30108, -72.6834, 2.94896
4.1198, 6, -9.20133, 34.7925, 19.3819, -9.57968, -73.2331, 2.92159
4.1278, 6, -9.74274, 34.8732, 19.7323, -10.1334, -74.3184, 2.84708
4.13584, 6, -10.278, 34.94, 20.0931, -10.6816, -75.3798, 2.74705
4.14381, 6, -10.8078, 34.9931, 20.462, -11.2217, -76.4156, 2.62473
4.15183, 6, -11.3282, 35.0332, 20.8376, -11.7531, -77.4219, 2.48108
4.15994, 6, -11.8343, 35.0611, 21.2166, -12.2743, -78.3918, 2.31916
4.16784, 6, -12.3233, 35.0768, 21.5986, -12.7836, -79.3262, 2.14045
4.1758, 6, -12.7971, 35.0812, 21.982, -13.2812, -80.2258, 1.94796
4.18385, 6, -13.2571, 35.0754, 22.3658, -13.7666, -81.0873, 1.74331
4.19181, 6, -13.7035, 35.0599, 22.7476, -14.2403, -81.9103, 1.52858
4.1988, 6, -14.133, 35.0351, 23.1256, -14.7011, -82.6966, 1.30613
4.2078, 6, -14.5416, 35.0027, 23.4993, -15.1481, -83.4452, 1.07769
4.21581, 6, -14.929, 34.9635, 23.867, -15.5807, -84.1557, 0.845771
4.22386, 6, -15.2973, 34.9183, 24.2274, -15.9972, -84.8278, 0.6123
4.23179, 6, -15.6489, 34.8682, 24.5779, -16.3972, -85.461, 0.378906
4.24192, 6, -16.1438, 34.7864, 25.0818, -16.9644, -86.3382, 0.0337522
4.24784, 6, -16.2993, 34.7577, 25.243, -17.1442, -86.6111, -0.0790546
4.25688, 6, -16.5959, 34.6992, 25.555, -17.4894, -87.1278, -0.299694
4.2638, 6, -16.873, 34.64, 25.8513, -17.8141, -87.6061, -0.512221
4.27184, 6, -17.1307, 34.5811, 26.131, -18.1175, -88.0455, -0.715367
4.27985, 6, -17.3681, 34.5235, 26.3919, -18.3983, -88.4461, -0.907191
4.28779, 6, -17.5845, 34.4681, 26.6323, -18.6558, -88.8088, -1.08652
4.29584, 6, -17.7792, 34.4164, 26.8524, -18.8893, -89.1332, -1.25179
4.30381, 6, -17.9522, 34.3686, 27.0507, -19.0985, -89.4197, -1.40126
4.3118, 6, -18.1041, 34.3254, 27.2262, -19.2825, -89.6694, -1.53434
4.31987, 6, -18.2358, 34.2872, 27.3796, -19.4409, -89.8828, -1.65033
4.32785, 6, -18.3489, 34.254, 27.5098, -19.5743, -90.0611, -1.74872
4.33581, 6, -18.4448, 34.2257, 27.6177, -19.6834, -90.2064, -1.83073
4.34384, 6, -18.5245, 34.2025, 27.7048, -19.7694, -90.3215, -1.8959
4.35182, 6, -18.5895, 34.1838, 27.7728, -19.8358, -90.4092, -1.94648
4.3598, 6, -18.6411, 34.1689, 27.8238, -19.8843, -90.474, -1.98459
4.36784, 6, -18.6806, 34.1577, 27.8609, -19.9181, -90.519, -2.01194
4.37581, 6, -18.7097, 34.1498, 27.8868, -19.9407, -90.5489, -2.03032
4.38378, 6, -18.7317, 34.1443, 27.9038, -19.9544, -90.5673, -2.04192
4.39184, 7, -18.7481, 34.1404, 27.9153, -19.962, -90.5778, -2.04862
4.39982, 7, -18.7594, 34.1376, 27.9225, -19.9659, -90.5832, -2.05223
4.4078, 7, -18.7664, 34.1356, 27.927, -19.9678, -90.5858, -2.05417
4.41585, 7, -18.7701, 34.1343, 27.9302, -19.9687, -90.587, -2.05516
4.42382, 7, -18.7718, 34.1333, 27.9325, -19.9692, -90.5876, -2.0556
4.43182, 7, -18.7722, 34.1326, 27.9344, -19.9694, -90.5879, -2.05594
4.43988, 7, -18.7725, 34.1321, 27.9359, -19.9696, -90.588, -2.0561
4.44793, 7, -18.7726, 34.1318, 27.9374, -19.9696, -90.588, -2.05614
4.45589, 7, -18.7729, 34.1317, 27.9386, -19.9696, -90.588, -2.05614
4.46394, 7, -18.7732, 34.1316, 27.9397, -19.9696, -90.588, -2.05616
4.47194, 7, -18.7734, 34.1316, 27.9406, -19.9696, -90.5879, -2.0562
4.47992, 7, -18.7734, 34.1316, 27.9414, -19.9696, -90.5879, -2.05617
4.48819, 7, -18.7736, 34.1316, 27.942, -19.9696, -90.5878, -2.05615
4.49479, 7, -18.7736, 34.1316, 27.9422, -19.9696, -90.5878, -2.05617
4.50384, 7, -18.7738, 34.1315, 27.9428, -19.9696, -90.5877, -2.05616
4.51245, 7, -18.7743, 34.1314, 27.9431, -19.9695, -90.5875, -2.05617
