hehonglu123/ABB_Primitive_Study/realrobot/movec_30_ori/curve_exe_v1000_z20.csv
timestamp, cmd_num, J1, J2, J3, J4, J5, J6
0.000372, -1, -18.7716, 34.1302, 27.9461, -19.9682, -90.5851, -2.05574
0.002233, -1, -18.7716, 34.1302, 27.9461, -19.9682, -90.5851, -2.05574
0.008115, -1, -18.7715, 34.1302, 27.9461, -19.9682, -90.5852, -2.05573
0.029599, -1, -18.7716, 34.1302, 27.9461, -19.9682, -90.5851, -2.05575
0.031834, -1, -18.7716, 34.1301, 27.9461, -19.9682, -90.5851, -2.05577
0.033075, -1, -18.7716, 34.1301, 27.9461, -19.9682, -90.5851, -2.05577
0.039494, -1, -18.7715, 34.1301, 27.9461, -19.9682, -90.5851, -2.05576
0.048072, -1, -18.7714, 34.1301, 27.9461, -19.9681, -90.5851, -2.05575
0.056139, -1, -18.7702, 34.1299, 27.9461, -19.9682, -90.5851, -2.05574
0.063623, -1, -18.7665, 34.1287, 27.9461, -19.968, -90.5849, -2.05571
0.072037, -1, -18.7595, 34.1258, 27.9462, -19.967, -90.5837, -2.05579
0.080232, -1, -18.7485, 34.1204, 27.9463, -19.9629, -90.5794, -2.05601
0.086967, -1, -18.7409, 34.1166, 27.9463, -19.9586, -90.5752, -2.05639
0.095025, -1, -18.72, 34.106, 27.9462, -19.9437, -90.5602, -2.06014
0.104143, -1, -18.6708, 34.081, 27.9452, -19.898, -90.5127, -2.07945
0.110968, -1, -18.6489, 34.07, 27.9443, -19.8736, -90.4871, -2.09033
0.119021, -1, -18.596, 34.0431, 27.941, -19.8075, -90.4184, -2.12034
0.128601, -1, -18.4909, 33.9899, 27.9311, -19.6583, -90.2617, -2.1908
0.13709, -1, -18.4034, 33.9457, 27.9206, -19.5206, -90.1166, -2.25642
0.144337, -1, -18.3021, 33.8948, 27.9064, -19.3511, -89.9376, -2.3369
0.150963, -1, -18.2463, 33.8668, 27.8982, -19.2546, -89.8356, -2.38335
0.161342, -1, -18.0583, 33.7724, 27.8692, -18.9234, -89.4852, -2.54106
0.167016, -1, -17.9891, 33.7377, 27.8583, -18.8009, -89.3553, -2.59966
0.176767, -1, -17.7643, 33.6253, 27.8232, -18.4066, -88.936, -2.78829
0.185492, -1, -17.6016, 33.5438, 27.7987, -18.1271, -88.639, -2.92212
0.192576, -1, -17.5168, 33.5013, 27.7738, -17.8399, -88.3335, -3.05987
0.200915, -1, -17.2516, 33.3689, 27.7488, -17.5478, -88.0227, -3.20027
0.20796, -1, -17.1607, 33.3234, 27.7361, -17.4004, -87.8661, -3.27117
0.215031, -1, -16.9761, 33.2312, 27.7109, -17.1043, -87.5513, -3.41351
0.22523, -1, -16.6946, 33.0914, 27.6733, -16.6578, -87.0763, -3.62789
0.231095, -1, -16.6, 33.0446, 27.6607, -16.5085, -86.9173, -3.69949
0.239968, -1, -16.4102, 32.9508, 27.6356, -16.2094, -86.5988, -3.84287
0.247962, -1, -16.2203, 32.8569, 27.6104, -15.9095, -86.2796, -3.98663
0.255975, -1, -16.0303, 32.7631, 27.5854, -15.6085, -85.9596, -4.13065
0.26296, -1, -15.8407, 32.6694, 27.5603, -15.3073, -85.6393, -4.27483
0.271966, -1, -15.652, 32.5757, 27.5351, -15.0058, -85.3183, -4.41952
0.279963, -1, -15.4633, 32.4819, 27.5098, -14.7037, -84.997, -4.56434
0.286972, -1, -15.2751, 32.3878, 27.4846, -14.4014, -84.6753, -4.70916
0.295969, -1, -15.0873, 32.2934, 27.4593, -14.0987, -84.353, -4.85436
0.303961, -1, -14.8996, 32.1988, 27.434, -13.7953, -84.0308, -4.99951
0.310958, -1, -14.7113, 32.1037, 27.4084, -13.4921, -83.7082, -5.14486
0.319274, -1, -14.5221, 32.0085, 27.3828, -13.1887, -83.3852, -5.29031
0.326973, -1, -14.3317, 31.9131, 27.3572, -12.8849, -83.0619, -5.43599
0.336023, -1, -14.1404, 31.8176, 27.3316, -12.5813, -82.7385, -5.58198
0.345048, -1, -13.9484, 31.722, 27.306, -12.277, -82.4147, -5.72781
0.352066, -1, -13.756, 31.6265, 27.2803, -11.9727, -82.0907, -5.87357
0.359964, -1, -13.5628, 31.531, 27.2547, -11.6684, -81.7666, -6.01939
0.367974, -1, -13.3691, 31.4356, 27.229, -11.364, -81.4426, -6.16496
0.376045, -1, -13.1755, 31.3403, 27.2034, -11.0597, -81.1187, -6.31079
0.383963, -1, -12.9824, 31.2451, 27.1778, -10.7554, -80.7947, -6.45656
0.39239, -1, -12.79, 31.15, 27.1522, -10.4508, -80.4712, -6.60232
0.398978, -1, -12.598, 31.0549, 27.1267, -10.1465, -80.1478, -6.74844
0.407967, -1, -12.407, 30.9598, 27.1012, -9.84234, -79.8243, -6.89422
0.416747, -1, -12.2168, 30.8646, 27.0755, -9.53826, -79.5008, -7.03987
0.423956, -1, -12.0274, 30.7694, 27.0499, -9.23445, -79.1773, -7.18548
0.431964, -1, -11.8386, 30.6741, 27.0243, -8.93084, -78.8539, -7.33091
0.440759, -1, -11.6498, 30.5788, 26.9989, -8.6273, -78.5308, -7.47625
0.44797, -1, -11.4608, 30.4836, 26.9733, -8.32414, -78.208, -7.62149
0.455697, -1, -11.2713, 30.3886, 26.9477, -8.02165, -77.8862, -7.76664
0.464748, -1, -11.0816, 30.2938, 26.9223, -7.71945, -77.5644, -7.9115
0.471959, -1, -10.8915, 30.1992, 26.8969, -7.41784, -77.2434, -8.05595
0.479969, -1, -10.701, 30.1049, 26.8715, -7.11667, -76.923, -8.20006
0.488757, -1, -10.5103, 30.0107, 26.8462, -6.81565, -76.603, -8.3439
0.495959, -1, -10.3194, 29.9167, 26.8209, -6.51557, -76.2833, -8.48751
0.504084, -1, -10.129, 29.8229, 26.7958, -6.21598, -75.9642, -8.63079
0.511233, -1, -9.93917, 29.7293, 26.7707, -5.9168, -75.6456, -8.774
0.519404, -1, -9.75013, 29.6358, 26.7456, -5.6184, -75.3278, -8.9171
0.528179, -1, -9.56203, 29.5425, 26.7204, -5.32026, -75.0108, -9.05969
0.535451, -1, -9.37477, 29.4494, 26.6954, -5.02274, -74.6945, -9.20194
0.543548, -1, -9.18859, 29.3563, 26.6705, -4.72637, -74.3791, -9.34363
0.55235, -1, -9.00338, 29.2635, 26.6456, -4.43054, -74.0643, -9.48506
0.55953, -1, -8.81894, 29.1708, 26.6206, -4.13556, -73.7503, -9.62623
0.567565, -1, -8.63519, 29.0782, 26.5959, -3.8415, -73.4372, -9.76709
0.576589, -1, -8.45165, 28.9861, 26.5711, -3.54793, -73.1249, -9.90746
0.584888, -1, -8.26851, 28.8943, 26.5465, -3.25543, -72.8138, -10.0477
0.591986, -1, -8.08547, 28.8027, 26.5218, -2.96396, -72.5035, -10.1874
0.600767, -1, -7.90238, 28.7115, 26.4973, -2.67323, -72.1938, -10.3265
0.609297, -1, -7.71938, 28.6208, 26.4729, -2.3836, -71.8854, -10.4651
0.615, -1, -7.62795, 28.5755, 26.4608, -2.23908, -71.7314, -10.5342
0.625061, -1, -7.35402, 28.4399, 26.4245, -1.80654, -71.271, -10.7408
0.632209, -1, -7.17198, 28.35, 26.4003, -1.51947, -70.9655, -10.8782
0.638946, -1, -7.08115, 28.3052, 26.3883, -1.37636, -70.8132, -10.9466
0.649055, -1, -6.80995, 28.1712, 26.3523, -0.948478, -70.3576, -11.1516
0.656437, -1, -6.63048, 28.0821, 26.3285, -0.664631, -70.0556, -11.2876
0.662946, -1, -6.5411, 28.0377, 26.3166, -0.523118, -69.9051, -11.3554
0.673372, -1, -6.2748, 27.9049, 26.2808, -0.0997913, -69.4551, -11.5578
0.67901, -1, -6.18667, 27.8607, 26.269, 0.040756, -69.3055, -11.6252
0.689338, -1, -5.92356, 27.7289, 26.2337, 0.460783, -68.8585, -11.8263
0.694958, -1, -5.83637, 27.685, 26.222, 0.60022, -68.71, -11.8931
0.704583, -1, -5.66256, 27.5976, 26.1986, 1.01701, -68.266, -12.0927
0.713329, -1, -5.48923, 27.5107, 26.1751, 1.15532, -68.1185, -12.1591
0.718946, -1, -5.31637, 27.4242, 26.1519, 1.43108, -67.8247, -12.2912
0.727946, -1, -5.14375, 27.338, 26.1287, 1.7061, -67.5323, -12.4229
0.734955, -1, -4.97137, 27.2522, 26.1058, 1.97985, -67.2411, -12.5539
0.744005, -1, -4.7993, 27.1668, 26.0829, 2.25213, -66.9511, -12.684
0.751945, -1, -4.62777, 27.0817, 26.06, 2.52345, -66.6626, -12.8137
0.759055, -1, -4.45671, 26.9971, 26.0373, 2.79341, -66.3753, -12.9428
0.766951, -1, -4.286, 26.9127, 26.0146, 3.06208, -66.0892, -13.0713
0.775944, -1, -4.11586, 26.8287, 25.9921, 3.3299, -65.8042, -13.1994
0.786231, -1, -3.86253, 26.7033, 25.9585, 3.72932, -65.379, -13.391
0.790954, -1, -3.77876, 26.6617, 25.9473, 3.86179, -65.2379, -13.4544
0.799945, -1, -3.61206, 26.5787, 25.9251, 4.12615, -64.9564, -13.5807
0.807941, -1, -3.44648, 26.4961, 25.9029, 4.38916, -64.6765, -13.7065
0.814943, -1, -3.282, 26.4138, 25.8808, 4.65092, -64.3977, -13.8318
0.823998, -1, -3.11846, 26.3319, 25.8588, 4.9117, -64.1202, -13.9563
0.831943, -1, -2.95611, 26.2503, 25.8369, 5.17146, -63.844, -14.0805
0.841523, -1, -2.79463, 26.169, 25.8153, 5.42996, -63.5689, -14.2041
0.847942, -1, -2.63386, 26.0882, 25.7937, 5.68712, -63.2953, -14.327
0.856943, -1, -2.47354, 26.0078, 25.7722, 5.94305, -63.0229, -14.4498
0.863171, -1, -2.31342, 25.9279, 25.7507, 6.19777, -62.7517, -14.5719
0.870958, -1, -2.15365, 25.8482, 25.7293, 6.45126, -62.4818, -14.6932
0.879946, -1, -1.99436, 25.7691, 25.7081, 6.70374, -62.213, -14.8142
0.887943, -1, -1.83552, 25.6903, 25.687, 6.95523, -61.9454, -14.9343
0.895947, -1, -1.67729, 25.6119, 25.6661, 7.20541, -61.6789, -15.0537
0.904129, -1, -1.51936, 25.5339, 25.6452, 7.45423, -61.4137, -15.1728
0.911025, -1, -1.3617, 25.456, 25.6242, 7.70226, -61.1494, -15.2915
0.920046, -1, -1.20478, 25.3786, 25.6036, 7.94899, -60.8864, -15.4095
0.928012, -1, -1.04881, 25.3015, 25.583, 8.19452, -60.6248, -15.5272
0.935939, -1, -0.89397, 25.2247, 25.5625, 8.4392, -60.3644, -15.6445
0.943996, -1, -0.740381, 25.1483, 25.5421, 8.68293, -60.1052, -15.761
0.952021, -1, -0.587799, 25.0721, 25.5216, 8.92529, -59.8472, -15.8771
0.959957, -1, -0.436298, 24.9963, 25.5012, 9.16646, -59.5907, -15.9924
0.96794, -1, -0.285988, 24.921, 25.4811, 9.40669, -59.3356, -16.1075
0.976004, -1, -0.136667, 24.846, 25.461, 9.64584, -59.0813, -16.2219
0.983995, -1, 0.0117023, 24.7713, 25.4412, 9.88355, -58.8282, -16.3358
0.991958, -1, 0.159369, 24.6969, 25.4213, 10.1205, -58.5761, -16.4494
1.00002, -1, 0.306611, 24.6229, 25.4014, 10.3564, -58.325, -16.5623
1.00793, -1, 0.453832, 24.5493, 25.3817, 10.5911, -58.0748, -16.6752
1.01605, -1, 0.600922, 24.4759, 25.362, 10.8246, -57.8258, -16.7872
1.02405, -1, 0.747721, 24.4029, 25.3425, 11.0572, -57.5778, -16.8984
1.03142, -1, 0.894254, 24.3301, 25.3231, 11.2887, -57.331, -17.0095
1.04035, -1, 1.0402, 24.2577, 25.3037, 11.5191, -57.0854, -17.1195
1.04768, -1, 1.18557, 24.1856, 25.2843, 11.7487, -56.8411, -17.2293
1.05604, -1, 1.33047, 24.1139, 25.2652, 11.9771, -56.598, -17.3384
1.06449, -1, 1.47489, 24.0426, 25.2461, 12.2047, -56.3561, -17.4471
1.07157, -1, 1.54694, 23.9715, 25.227, 12.4311, -56.1154, -17.5555
1.08001, -1, 1.76202, 23.9008, 25.2082, 12.6564, -55.8756, -17.6632
1.08869, -1, 1.9041, 23.8304, 25.1893, 12.8809, -55.6371, -17.7708
1.09608, -1, 2.04513, 23.7604, 25.1705, 13.1043, -55.3994, -17.8777
1.10298, -1, 2.11535, 23.7254, 25.1612, 13.2155, -55.2809, -17.931
1.11284, -1, 2.3245, 23.6211, 25.1333, 13.5478, -54.927, -18.0899
1.12017, -1, 2.46269, 23.5519, 25.1147, 13.7684, -54.6922, -18.1954
1.12699, -1, 2.53146, 23.5174, 25.1056, 13.8783, -54.5751, -18.2479
1.13702, -1, 2.73628, 23.4144, 25.0781, 14.2065, -54.2253, -18.4047
1.14465, -1, 2.87173, 23.3461, 25.0597, 14.4239, -53.9936, -18.509
1.15243, -1, 3.00669, 23.278, 25.0415, 14.6407, -53.763, -18.6125
1.16124, -1, 3.14151, 23.2102, 25.0233, 14.8564, -53.5333, -18.7159
1.167, -1, 3.20895, 23.1764, 25.0142, 14.9638, -53.4189, -18.7672
1.17651, -1, 3.4111, 23.0756, 24.9874, 15.2851, -53.0769, -18.9214
1.18537, -1, 3.54559, 23.0087, 24.9695, 15.4983, -52.8503, -19.0234
1.19101, -1, 3.61271, 22.9754, 24.9605, 15.6046, -52.7374, -19.0742
1.20058, -1, 3.74672, 22.8759, 24.934, 15.9219, -52.3997, -19.226
1.20792, -1, 3.8803, 22.8428, 24.9251, 16.0271, -52.2876, -19.2764
1.215, -1, 4.01343, 22.777, 24.9073, 16.2371, -52.0642, -19.3765
1.22497, -1, 4.21247, 22.6788, 24.8811, 16.5502, -51.7306, -19.5262
1.23194, -1, 4.27855, 22.6462, 24.8724, 16.6542, -51.62, -19.576
1.239, -1, 4.41021, 22.5811, 24.8549, 16.8614, -51.399, -19.6751
1.24797, -1, 4.54112, 22.5163, 24.8375, 17.0681, -51.1791, -19.7741
1.25593, -1, 4.67142, 22.4516, 24.8203, 17.274, -50.9601, -19.8725
1.26294, -1, 4.80088, 22.3872, 24.803, 17.4788, -50.7417, -19.9708
1.27204, -1, 4.92961, 22.323, 24.7859, 17.6829, -50.5244, -20.0686
1.27998, -1, 5.05757, 22.259, 24.769, 17.8861, -50.3079, -20.1661
1.28694, -1, 5.18474, 22.1953, 24.7519, 18.0887, -50.0922, -20.2627
1.29593, -1, 5.31108, 22.1319, 24.7349, 18.2905, -49.8773, -20.3595
1.30405, -1, 5.43649, 22.0688, 24.718, 18.4914, -49.6634, -20.4554
1.31093, -1, 5.56112, 22.0059, 24.7012, 18.6916, -49.4503, -20.5512
1.31992, -1, 5.68524, 21.9433, 24.6843, 18.8911, -49.2383, -20.6464
1.328, -1, 5.80908, 21.881, 24.6676, 19.09, -49.0269, -20.7415
1.33494, -1, 5.93287, 21.8189, 24.6511, 19.2878, -48.8168, -20.836
1.34399, -1, 6.05661, 21.757, 24.6345, 19.4849, -48.6072, -20.9307
1.35293, -1, 6.18021, 21.6954, 24.618, 19.6814, -48.3983, -21.0245
1.35894, -1, 6.30354, 21.634, 24.6016, 19.877, -48.1901, -21.1186
1.36794, -1, 6.42672, 21.5728, 24.5852, 20.0718, -47.9826, -21.2119
1.376, -1, 6.54973, 21.5117, 24.5687, 20.2658, -47.776, -21.305
1.38399, -1, 6.67233, 21.451, 24.5526, 20.4592, -47.5699, -21.3974
1.392, -1, 6.79462, 21.3904, 24.5364, 20.6521, -47.3644, -21.49
1.39998, -1, 6.91641, 21.3301, 24.5202, 20.8441, -47.1599, -21.5815
1.40822, -1, 7.03777, 21.2701, 24.5041, 21.0354, -46.9559, -21.6732
1.41501, -1, 7.15843, 21.2104, 24.488, 21.226, -46.7528, -21.7639
1.42398, -1, 7.27858, 21.1509, 24.4721, 21.4159, -46.5505, -21.8552
1.43275, -1, 7.39812, 21.0916, 24.4562, 21.6053, -46.349, -21.9453
1.44095, -1, 7.51702, 21.0326, 24.4406, 21.7937, -46.1483, -22.0358
1.44797, -1, 7.6355, 20.9736, 24.4249, 21.9816, -45.9483, -22.1254
1.45673, -1, 7.75349, 20.915, 24.4091, 22.1688, -45.7493, -22.2153
1.464, -1, 7.87091, 20.8564, 24.3933, 22.3556, -45.5507, -22.3046
1.47196, -1, 7.98785, 20.7979, 24.3777, 22.5418, -45.3532, -22.3938
1.48073, -1, 8.10408, 20.7397, 24.362, 22.727, -45.1564, -22.4821
1.48794, -1, 8.21981, 20.6816, 24.3465, 22.9117, -44.9601, -22.5707
1.49596, -1, 8.33516, 20.6237, 24.3312, 23.0956, -44.7644, -22.6584
1.50478, -1, 8.45021, 20.566, 24.3158, 23.2791, -44.5692, -22.7462
1.51193, -1, 8.56478, 20.5086, 24.3004, 23.4618, -44.3744, -22.8334
1.51997, -1, 8.67882, 20.4515, 24.285, 23.6438, -44.1805, -22.9204
1.52876, -1, 8.79242, 20.3945, 24.2698, 23.8252, -43.9871, -23.0073
1.53601, -1, 8.90583, 20.3379, 24.2546, 24.0061, -43.7941, -23.0937
1.54408, -1, 9.01902, 20.2813, 24.2394, 24.1866, -43.6021, -23.1801
1.55151, -1, 9.1321, 20.2249, 24.2245, 24.3663, -43.4109, -23.2661
1.55948, -1, 9.24522, 20.1687, 24.2095, 24.5454, -43.2201, -23.3522
1.56807, -1, 9.35825, 20.1126, 24.1944, 24.7238, -43.03, -23.4375
1.57555, -1, 9.41464, 20.0567, 24.1793, 24.9018, -42.8406, -23.523
1.5835, -1, 9.52709, 20.0288, 24.1718, 24.9907, -42.7461, -23.6074
1.59197, -1, 9.6949, 19.9454, 24.1495, 25.2561, -42.4635, -23.6923
1.59997, -1, 9.80635, 19.8899, 24.1346, 25.4324, -42.2759, -23.7763
1.60801, -1, 9.91746, 19.8347, 24.1199, 25.6081, -42.0887, -23.8605
1.61491, -1, 9.97292, 19.8072, 24.1126, 25.6958, -41.9955, -23.9024
1.6242, -1, 10.1387, 19.7249, 24.0908, 25.9583, -41.7167, -24.0274
1.63094, -1, 10.1937, 19.6976, 24.0834, 26.0455, -41.624, -24.0692
1.64023, -1, 10.3583, 19.6159, 24.0614, 26.306, -41.3467, -24.1935
1.64692, -1, 10.4129, 19.5888, 24.0541, 26.3926, -41.2544, -24.2351
1.65639, -1, 10.576, 19.5075, 24.0323, 26.6516, -40.9787, -24.3588
1.6644, -1, 10.6843, 19.4536, 24.0178, 26.8236, -40.7956, -24.4416
1.67255, -1, 10.7922, 19.3999, 24.0035, 26.995, -40.6131, -24.5234
1.68047, -1, 10.8996, 19.3462, 23.9893, 27.1659, -40.4309, -24.6058
1.68849, -1, 11.0068, 19.2926, 23.975, 27.3363, -40.2493, -24.6871
1.69661, -1, 11.1135, 19.2392, 23.9606, 27.5063, -40.0684, -24.7684
1.70452, -1, 11.1667, 19.2126, 23.9534, 27.5912, -39.888, -24.8495
1.71192, -1, 11.2729, 19.1594, 23.9392, 27.7604, -39.7981, -24.8897
1.71998, -1, 11.3786, 19.1064, 23.925, 27.9291, -39.6184, -24.9707
1.72792, -1, 11.484, 19.0537, 23.9108, 28.0973, -39.4393, -25.051
1.73591, -1, 11.589, 19.0011, 23.8968, 28.2648, -39.2608, -25.1313
1.74403, -1, 11.6939, 18.9487, 23.8829, 28.4322, -39.0826, -25.2115
1.75191, -1, 11.7986, 18.8965, 23.8689, 28.599, -38.9052, -25.2912
1.75993, -1, 11.9032, 18.8444, 23.8549, 28.7652, -38.7283, -25.3713
1.76792, -1, 12.0075, 18.7924, 23.8409, 28.931, -38.5515, -25.4505
1.77498, -1, 12.1117, 18.7406, 23.827, 29.0963, -38.3757, -25.5304
1.78392, -1, 12.2159, 18.6888, 23.8131, 29.2614, -38.2004, -25.6093
1.79192, -1, 12.3197, 18.6372, 23.7993, 29.426, -38.0257, -25.6884
1.79996, -1, 12.4233, 18.5857, 23.7856, 29.5901, -37.8514, -25.7671
1.80798, -1, 12.5266, 18.5343, 23.772, 29.7535, -37.6775, -25.8451
1.81592, -1, 12.6297, 18.4831, 23.7583, 29.9166, -37.5041, -25.9236
1.82291, -1, 12.7325, 18.432, 23.7445, 30.0793, -37.3308, -26.0008
1.83193, -1, 12.835, 18.381, 23.7308, 30.2416, -37.1582, -26.0788
1.83992, -1, 12.937, 18.3304, 23.7172, 30.4034, -36.9859, -26.1559
1.84804, -1, 13.0387, 18.2799, 23.7036, 30.5646, -36.8139, -26.2327
1.85697, -1, 13.1401, 18.2296, 23.69, 30.7253, -36.6426, -26.3098
1.86394, -1, 13.241, 18.1793, 23.6766, 30.8859, -36.4716, -26.3861
1.87199, -1, 13.3416, 18.1292, 23.6633, 31.0461, -36.3012, -26.4629
1.87992, -1, 13.4419, 18.0792, 23.65, 31.2057, -36.1312, -26.539
1.88791, -1, 13.542, 18.0292, 23.6366, 31.3649, -35.9617, -26.6153
1.89599, -1, 13.642, 17.9793, 23.6232, 31.5236, -35.7927, -26.6916
1.90392, -1, 13.7418, 17.9295, 23.6099, 31.6817, -35.624, -26.7671
1.91198, -1, 13.8413, 17.8798, 23.5966, 31.8399, -35.456, -26.8432
1.91991, -1, 13.9407, 17.8302, 23.5833, 31.9975, -35.2884, -26.9182
1.92793, -1, 14.0399, 17.7807, 23.57, 32.1547, -35.1209, -26.9935
1.93597, -1, 14.1389, 17.7315, 23.5569, 32.3114, -34.9543, -27.0684
1.94391, -1, 14.2375, 17.6824, 23.5438, 32.4676, -34.7881, -27.1429
1.95192, -1, 14.3357, 17.6334, 23.5307, 32.6237, -34.6222, -27.2179
1.95998, -1, 14.4335, 17.5847, 23.5175, 32.7795, -34.4568, -27.2917
1.96792, -1, 14.5309, 17.5361, 23.5044, 32.935, -34.2916, -27.366
1.97599, -1, 14.6281, 17.4876, 23.4915, 33.0898, -34.1268, -27.4403
1.98398, -1, 14.7249, 17.4392, 23.4785, 33.2442, -33.9622, -27.514
1.99191, -1, 14.8214, 17.391, 23.4655, 33.3983, -33.7982, -27.5882
1.99992, -1, 14.9177, 17.3428, 23.4527, 33.5521, -33.6345, -27.6615
2.00799, -1, 15.014, 17.2945, 23.4399, 33.7055, -33.4711, -27.7354
2.01591, -1, 15.11, 17.2464, 23.4271, 33.8585, -33.3079, -27.8089
2.15538, -1, 16.7163, 16.4468, 23.2127, 36.406, -30.5968, -29.0283
2.15737, -1, 16.7624, 16.4237, 23.2065, 36.4795, -30.5186, -29.0637
2.1587, -1, 16.7624, 16.4237, 23.2065, 36.4795, -30.5186, -29.0637
2.1609, -1, 16.8086, 16.4006, 23.2003, 36.5529, -30.4404, -29.0986
2.16211, -1, 16.8086, 16.4006, 23.2003, 36.5529, -30.4404, -29.0986
2.16328, -1, 16.8086, 16.4006, 23.2003, 36.5529, -30.4404, -29.0986
2.1654, -1, 16.8547, 16.3775, 23.1941, 36.6262, -30.3623, -29.1334
2.16865, -1, 16.9008, 16.3544, 23.1879, 36.6994, -30.2844, -29.1683
2.17001, -1, 16.9008, 16.3544, 23.1879, 36.6994, -30.2844, -29.1683
2.17119, -1, 16.9008, 16.3544, 23.1879, 36.6994, -30.2844, -29.1683
2.17322, -1, 16.9469, 16.3314, 23.1817, 36.7726, -30.2066, -29.2036
2.17443, -1, 16.9469, 16.3314, 23.1817, 36.7726, -30.2066, -29.2036
2.17632, -1, 16.9469, 16.3314, 23.1817, 36.7726, -30.2066, -29.2388
2.17771, -1, 16.9929, 16.3085, 23.1755, 36.8456, -30.1288, -29.2388
2.179, -1, 16.9929, 16.3085, 23.1755, 36.8456, -30.1288, -29.2388
2.18145, -1, 17.0388, 16.2855, 23.1694, 36.9186, -30.051, -29.2737
2.18275, -1, 17.0388, 16.2855, 23.1694, 36.9186, -30.051, -29.2737
2.18484, -1, 17.0847, 16.2627, 23.1633, 36.9916, -29.9734, -29.3082
2.18614, -1, 17.0847, 16.2627, 23.1633, 36.9916, -29.9734, -29.3082
2.18741, -1, 17.0847, 16.2627, 23.1633, 36.9916, -29.9734, -29.3082
2.18983, -1, 17.1305, 16.2399, 23.1571, 37.0645, -29.8958, -29.3428
2.19248, -1, 17.1759, 16.2172, 23.151, 37.1372, -29.8181, -29.3777
2.20061, -1, 17.2646, 16.1728, 23.1385, 37.2823, -29.6637, -29.4473
2.20879, -1, 17.3075, 16.1514, 23.1323, 37.4261, -29.5106, -29.5156
2.21647, -1, 17.3894, 16.1104, 23.1197, 37.4969, -29.4352, -29.5494
2.2245, -1, 17.4658, 16.0723, 23.1072, 37.6347, -29.2881, -29.616
2.23193, -1, 17.5367, 16.0374, 23.0951, 37.7646, -29.1494, -29.6781
2.23991, -1, 17.6006, 16.0063, 23.0839, 37.883, -29.0229, -29.7348
2.24795, -1, 17.657, 15.9789, 23.0741, 37.9862, -28.9122, -29.7849
2.2559, -1, 17.707, 15.9542, 23.0664, 38.0706, -28.8215, -29.826
2.26299, -1, 17.751, 15.9315, 23.0612, 38.1365, -28.7504, -29.8579
2.27195, -1, 17.7888, 15.9119, 23.058, 38.1831, -28.6997, -29.8807
2.27992, -1, 17.8196, 15.8961, 23.0563, 38.2143, -28.6655, -29.8959
2.2879, -1, 17.8441, 15.8841, 23.0555, 38.2338, -28.6442, -29.9051
2.29595, -1, 17.8627, 15.8755, 23.0552, 38.245, -28.632, -29.9103
2.30389, -1, 17.8749, 15.8699, 23.0551, 38.2507, -28.6257, -29.9129
2.31196, -1, 17.8814, 15.8669, 23.055, 38.2535, -28.6226, -29.9142
2.31996, 2, 17.8843, 15.8655, 23.055, 38.2548, -28.6212, -29.9147
2.32789, 2, 17.8852, 15.8648, 23.055, 38.2554, -28.6205, -29.915
2.3359, 2, 17.8849, 15.8645, 23.055, 38.2557, -28.6202, -29.9151
2.34397, 2, 17.8842, 15.8644, 23.055, 38.2558, -28.6201, -29.9152
2.35421, 2, 17.8832, 15.8643, 23.055, 38.2559, -28.6201, -29.9152
2.35896, 2, 17.8831, 15.8643, 23.055, 38.2559, -28.6201, -29.9152
2.36799, 2, 17.8829, 15.8642, 23.055, 38.2559, -28.62, -29.9153
2.3759, 2, 17.8829, 15.864, 23.0549, 38.2559, -28.62, -29.9153
2.3839, 2, 17.8829, 15.8638, 23.055, 38.256, -28.62, -29.9153
2.39196, 2, 17.8832, 15.8635, 23.055, 38.256, -28.62, -29.9153
2.39991, 2, 17.8836, 15.8631, 23.0549, 38.256, -28.62, -29.9153
2.4079, 2, 17.8841, 15.8628, 23.0549, 38.2559, -28.62, -29.9152
2.41596, 2, 17.8848, 15.8627, 23.055, 38.2559, -28.62, -29.9153
2.4239, 2, 17.8858, 15.8626, 23.055, 38.2559, -28.62, -29.9153
2.4319, 2, 17.8865, 15.8625, 23.0549, 38.2559, -28.6201, -29.9153
2.43997, 2, 17.887, 15.8625, 23.055, 38.2559, -28.6201, -29.9153
2.4479, 2, 17.8874, 15.8625, 23.055, 38.2559, -28.6201, -29.9153
2.45589, 2, 17.8876, 15.8626, 23.055, 38.2559, -28.6202, -29.9153
2.46396, 2, 17.8877, 15.8626, 23.055, 38.2559, -28.6202, -29.9153
2.47189, 2, 17.8877, 15.8626, 23.055, 38.2559, -28.6202, -29.9153
2.48, 2, 17.8878, 15.8626, 23.055, 38.2559, -28.6202, -29.9153
2.48796, 2, 17.8878, 15.8626, 23.055, 38.2559, -28.6202, -29.9153
2.4959, 2, 17.8877, 15.8625, 23.055, 38.256, -28.6202, -29.9153
2.5039, 2, 17.8875, 15.8624, 23.055, 38.256, -28.6202, -29.9153
2.51197, 2, 17.8873, 15.8623, 23.0549, 38.2559, -28.6202, -29.9153
2.51991, 2, 17.8871, 15.8623, 23.055, 38.2559, -28.6203, -29.9153
2.52789, 2, 17.887, 15.8622, 23.055, 38.2559, -28.6203, -29.9153
2.53606, 2, 17.8869, 15.8622, 23.0549, 38.2559, -28.6203, -29.9152
2.54396, 2, 17.8869, 15.8623, 23.055, 38.2559, -28.6203, -29.9153
2.55199, 2, 17.8869, 15.8623, 23.0549, 38.2559, -28.6203, -29.9153
2.56006, 2, 17.8869, 15.8623, 23.055, 38.2559, -28.6203, -29.9152
2.568, 2, 17.8869, 15.8623, 23.055, 38.2559, -28.6203, -29.9153
2.576, 2, 17.887, 15.8623, 23.055, 38.2559, -28.6203, -29.9153
2.58407, 2, 17.8869, 15.8623, 23.055, 38.2559, -28.6204, -29.9152
2.59169, 2, 17.887, 15.8623, 23.055, 38.2559, -28.6204, -29.9153
2.59994, 2, 17.887, 15.8623, 23.055, 38.2559, -28.6205, -29.9152
2.608, 2, 17.8869, 15.8623, 23.055, 38.2559, -28.6205, -29.9152
2.61625, 2, 17.887, 15.8622, 23.055, 38.2558, -28.6205, -29.9152
2.62293, 2, 17.8869, 15.8622, 23.055, 38.2559, -28.6205, -29.9152
2.63213, 2, 17.8869, 15.8622, 23.055, 38.2559, -28.6205, -29.9151
2.63888, 2, 17.8868, 15.8622, 23.055, 38.2559, -28.6205, -29.9151
2.64824, 2, 17.8868, 15.8622, 23.055, 38.2559, -28.6205, -29.9152
2.65489, 2, 17.8868, 15.8623, 23.055, 38.2559, -28.6205, -29.9152
2.66481, 2, 17.8868, 15.8623, 23.055, 38.2559, -28.6205, -29.9152
2.6724, 2, 17.8868, 15.8623, 23.055, 38.2559, -28.6205, -29.9151
2.67887, 2, 17.8868, 15.8623, 23.055, 38.2559, -28.6205, -29.9151
2.68884, 2, 17.8867, 15.8623, 23.055, 38.2558, -28.6205, -29.9152
2.69646, 2, 17.8867, 15.8623, 23.055, 38.2558, -28.6206, -29.9152
2.70453, 2, 17.8868, 15.8623, 23.055, 38.2559, -28.6205, -29.9152
2.71277, 2, 17.8868, 15.8623, 23.055, 38.2558, -28.6206, -29.9152
2.71989, 2, 17.8868, 15.8623, 23.055, 38.2558, -28.6206, -29.9151
2.72794, 2, 17.8868, 15.8623, 23.055, 38.2557, -28.6207, -29.9151
2.73678, 2, 17.8867, 15.8623, 23.055, 38.2558, -28.6207, -29.9151
2.74388, 2, 17.8867, 15.8623, 23.055, 38.2558, -28.6207, -29.9151
2.75193, 2, 17.8867, 15.8623, 23.055, 38.2558, -28.6207, -29.9152
2.75989, 2, 17.8867, 15.8623, 23.055, 38.2558, -28.6208, -29.9152
2.76788, 2, 17.8867, 15.8623, 23.055, 38.2558, -28.6208, -29.9151
2.77593, 2, 17.8866, 15.8623, 23.055, 38.2558, -28.6208, -29.9152
2.78388, 2, 17.8866, 15.8623, 23.055, 38.2558, -28.6208, -29.9152
2.79188, 2, 17.8866, 15.8623, 23.055, 38.2558, -28.6208, -29.9152
2.79994, 2, 17.8865, 15.8624, 23.055, 38.2557, -28.6208, -29.9152
2.80788, 2, 17.8865, 15.8624, 23.055, 38.2558, -28.6208, -29.9152
2.81594, 2, 17.8865, 15.8624, 23.055, 38.2557, -28.6208, -29.9151
2.82395, 2, 17.8864, 15.8624, 23.055, 38.2557, -28.6208, -29.9151
2.83188, 2, 17.8864, 15.8624, 23.055, 38.2557, -28.6208, -29.9152
2.83989, 2, 17.8864, 15.8623, 23.055, 38.2557, -28.6208, -29.9151
2.84794, 2, 17.8863, 15.8623, 23.055, 38.2557, -28.6209, -29.9151
2.85693, 2, 17.8863, 15.8623, 23.055, 38.2557, -28.6209, -29.9151
2.86388, 2, 17.8862, 15.8623, 23.055, 38.2557, -28.6208, -29.9151
2.87198, 2, 17.8862, 15.8624, 23.055, 38.2557, -28.6208, -29.9151
2.87988, 2, 17.8861, 15.8624, 23.055, 38.2557, -28.6208, -29.9151
2.88788, 2, 17.8861, 15.8624, 23.055, 38.2557, -28.6209, -29.9151
2.89595, 2, 17.886, 15.8624, 23.055, 38.2557, -28.6209, -29.9151
2.90388, 2, 17.8859, 15.8624, 23.055, 38.2557, -28.6209, -29.9151
2.91188, 2, 17.8859, 15.8624, 23.055, 38.2557, -28.621, -29.9151
2.91995, 2, 17.8859, 15.8624, 23.055, 38.2556, -28.621, -29.9151
2.92788, 2, 17.8858, 15.8624, 23.055, 38.2556, -28.621, -29.9151
2.93588, 2, 17.8858, 15.8624, 23.055, 38.2556, -28.6211, -29.9151
2.94394, 2, 17.8857, 15.8624, 23.055, 38.2556, -28.6211, -29.9151
2.95188, 2, 17.8857, 15.8624, 23.055, 38.2556, -28.6211, -29.9151
2.95989, 2, 17.8857, 15.8624, 23.055, 38.2556, -28.6211, -29.915
2.96794, 2, 17.8856, 15.8624, 23.055, 38.2556, -28.6212, -29.9151
2.97587, 2, 17.8855, 15.8624, 23.055, 38.2556, -28.6212, -29.9151
2.98395, 2, 17.8855, 15.8624, 23.055, 38.2556, -28.6212, -29.9151
2.99194, 2, 17.8854, 15.8624, 23.055, 38.2556, -28.6212, -29.9151
2.99989, 2, 17.8854, 15.8624, 23.055, 38.2556, -28.6211, -29.9151
3.00788, 2, 17.8853, 15.8624, 23.055, 38.2556, -28.6211, -29.9151
3.01594, 2, 17.8853, 15.8624, 23.055, 38.2556, -28.6212, -29.9151
3.02388, 2, 17.8852, 15.8625, 23.055, 38.2556, -28.6212, -29.9151
3.03188, 2, 17.8852, 15.8624, 23.055, 38.2555, -28.6212, -29.9151
3.04004, 2, 17.8851, 15.8624, 23.055, 38.2555, -28.6211, -29.9151
3.04795, 2, 17.885, 15.8624, 23.0549, 38.2555, -28.6212, -29.915
3.05597, 2, 17.885, 15.8624, 23.0549, 38.2555, -28.6212, -29.915
3.06403, 2, 17.8849, 15.8624, 23.055, 38.2555, -28.6212, -29.915
3.07198, 2, 17.8849, 15.8624, 23.0549, 38.2555, -28.6212, -29.9151
3.08, 2, 17.8849, 15.8624, 23.0549, 38.2554, -28.6212, -29.9151
3.08806, 2, 17.8848, 15.8624, 23.055, 38.2554, -28.6212, -29.9151
3.09487, 2, 17.8848, 15.8624, 23.055, 38.2554, -28.6212, -29.9151
3.10391, 2, 17.8847, 15.8625, 23.055, 38.2554, -28.6212, -29.915
3.11198, 2, 17.8846, 15.8625, 23.055, 38.2554, -28.6212, -29.915
3.11992, 2, 17.8846, 15.8625, 23.055, 38.2553, -28.6212, -29.9151
3.12833, 2, 17.8846, 15.8625, 23.055, 38.2554, -28.6212, -29.9151
3.13487, 2, 17.8845, 15.8625, 23.055, 38.2554, -28.6212, -29.9151
3.14409, 2, 17.8844, 15.8625, 23.055, 38.2554, -28.6212, -29.915
3.15092, 2, 17.8844, 15.8625, 23.055, 38.2553, -28.6212, -29.915
3.1603, 2, 17.8843, 15.8625, 23.055, 38.2552, -28.6212, -29.915
3.16693, 2, 17.8843, 15.8625, 23.055, 38.2552, -28.6212, -29.915
3.17676, 2, 17.8843, 15.8625, 23.055, 38.2552, -28.6212, -29.915
3.18449, 2, 17.8842, 15.8625, 23.055, 38.2552, -28.6212, -29.9149
3.19241, 2, 17.8842, 15.8625, 23.055, 38.2552, -28.6212, -29.9149
3.20056, 2, 17.8842, 15.8625, 23.055, 38.2552, -28.6212, -29.9149
3.20852, 2, 17.8841, 15.8625, 23.055, 38.2552, -28.6212, -29.9149
3.21642, 2, 17.8841, 15.8625, 23.055, 38.2552, -28.6212, -29.915
3.22387, 2, 17.8841, 15.8625, 23.055, 38.2551, -28.6213, -29.915
3.23191, 2, 17.8841, 15.8625, 23.055, 38.2551, -28.6212, -29.9149
3.23988, 2, 17.8841, 15.8625, 23.055, 38.2551, -28.6213, -29.9149
3.24786, 2, 17.8841, 15.8625, 23.055, 38.2551, -28.6213, -29.9149
3.25591, 2, 17.884, 15.8625, 23.055, 38.255, -28.6213, -29.9149
3.26386, 2, 17.884, 15.8625, 23.055, 38.255, -28.6213, -29.9149
3.27187, 2, 17.884, 15.8625, 23.055, 38.255, -28.6213, -29.9149
3.27992, 2, 17.884, 15.8625, 23.055, 38.255, -28.6213, -29.9149
3.28786, 2, 17.884, 15.8625, 23.055, 38.2549, -28.6213, -29.9149
3.29587, 2, 17.8839, 15.8625, 23.055, 38.2549, -28.6213, -29.9149
3.30391, 2, 17.8839, 15.8625, 23.055, 38.2549, -28.6213, -29.9149
3.31186, 2, 17.8839, 15.8625, 23.055, 38.2549, -28.6214, -29.9149
3.32007, 2, 17.8839, 15.8626, 23.055, 38.2549, -28.6213, -29.9149
3.3279, 2, 17.8839, 15.8626, 23.055, 38.2549, -28.6213, -29.9149
3.33486, 2, 17.8839, 15.8626, 23.055, 38.2549, -28.6213, -29.9149
3.34386, 2, 17.8839, 15.8626, 23.055, 38.2549, -28.6214, -29.9149
3.35288, 2, 17.8839, 15.8626, 23.055, 38.2548, -28.6214, -29.9149
3.35995, 2, 17.8838, 15.8626, 23.055, 38.2548, -28.6215, -29.9149
3.36888, 2, 17.8838, 15.8626, 23.055, 38.2548, -28.6214, -29.9149
3.37592, 2, 17.8838, 15.8626, 23.055, 38.2548, -28.6214, -29.9149
3.38386, 2, 17.8838, 15.8626, 23.055, 38.2548, -28.6214, -29.9149
3.39186, 2, 17.8838, 15.8626, 23.055, 38.2547, -28.6214, -29.9149
3.3999, 4, 17.8838, 15.8626, 23.055, 38.2547, -28.6214, -29.9148
3.40786, 4, 17.8837, 15.8626, 23.055, 38.2546, -28.6214, -29.9148
3.41586, 4, 17.8837, 15.8626, 23.055, 38.2546, -28.6214, -29.9148
3.42392, 4, 17.8837, 15.8626, 23.055, 38.2546, -28.6214, -29.9148
3.43186, 4, 17.8837, 15.8626, 23.055, 38.2546, -28.6215, -29.9149
3.43988, 4, 17.8837, 15.8626, 23.055, 38.2546, -28.6215, -29.9148
3.44791, 4, 17.8837, 15.8626, 23.055, 38.2546, -28.6215, -29.9148
3.45586, 4, 17.8837, 15.8626, 23.055, 38.2546, -28.6215, -29.9148
3.46393, 4, 17.8837, 15.8626, 23.055, 38.2546, -28.6215, -29.9148
3.47191, 4, 17.8837, 15.8626, 23.055, 38.2546, -28.6215, -29.9147
3.47987, 4, 17.8837, 15.8626, 23.055, 38.2546, -28.6215, -29.9147
3.48795, 4, 17.8837, 15.8626, 23.055, 38.2545, -28.6215, -29.9147
3.49591, 4, 17.8837, 15.8626, 23.055, 38.2546, -28.6215, -29.9146
3.50561, 4, 17.8836, 15.8627, 23.055, 38.2545, -28.6215, -29.9146
3.5311, 4, 17.8835, 15.8627, 23.055, 38.2545, -28.6215, -29.9146
3.53246, 4, 17.8835, 15.8627, 23.055, 38.2545, -28.6215, -29.9146
3.53373, 4, 17.8835, 15.8627, 23.055, 38.2545, -28.6215, -29.9146
3.53583, 4, 17.8835, 15.8627, 23.055, 38.2545, -28.6215, -29.9146
3.54332, 4, 17.8835, 15.8627, 23.055, 38.2545, -28.6215, -29.9146
3.5515, 4, 17.8834, 15.8628, 23.055, 38.2544, -28.6215, -29.9146
3.56003, 4, 17.8822, 15.8635, 23.055, 38.2543, -28.6215, -29.9146
3.56796, 4, 17.8786, 15.8661, 23.0547, 38.2536, -28.6217, -29.9142
3.57596, 4, 17.8718, 15.8721, 23.0532, 38.2494, -28.6222, -29.9117
3.58398, 4, 17.861, 15.8843, 23.0495, 38.2381, -28.6241, -29.9026
3.59215, 4, 17.8448, 15.9048, 23.042, 38.2143, -28.629, -29.8797
3.59885, 5, 17.8339, 15.9187, 23.0363, 38.1956, -28.6331, -29.8611
3.60805, 5, 17.7883, 15.9776, 23.0078, 38.0961, -28.6552, -29.7608
3.6159, 5, 17.7454, 16.0329, 22.977, 37.9814, -28.681, -29.6444
3.62391, 5, 17.6905, 16.1039, 22.9342, 37.8163, -28.7189, -29.4763
3.63237, 5, 17.6219, 16.1934, 22.8776, 37.5929, -28.7722, -29.2484
3.64037, 5, 17.5384, 16.3031, 22.8059, 37.3046, -28.8415, -28.9536
3.64809, 5, 17.4395, 16.4331, 22.7185, 36.9478, -28.9303, -28.5886
3.65486, 5, 17.3843, 16.5058, 22.6688, 36.7434, -28.9821, -28.3796
3.66423, 5, 17.1946, 16.7552, 22.4963, 36.0294, -29.1681, -27.6506
3.67093, 5, 17.1237, 16.8483, 22.4315, 35.7598, -29.2406, -27.3753
3.68049, 5, 16.8908, 17.1517, 22.2193, 34.8706, -29.4876, -26.4673
3.68839, 5, 16.7201, 17.3706, 22.0655, 34.2216, -29.6755, -25.8079
3.69639, 5, 16.5385, 17.6027, 21.904, 33.541, -29.8798, -25.1188
3.70447, 5, 16.3472, 17.8462, 21.7374, 32.8402, -30.0982, -24.4098
3.71246, 5, 16.2486, 17.9712, 21.653, 32.1278, -30.3286, -23.692
3.72043, 5, 16.0464, 18.2265, 21.483, 31.7701, -30.4478, -22.9743
3.7279, 5, 15.8382, 18.4873, 21.3121, 31.0554, -30.6927, -22.6167
3.73596, 5, 15.625, 18.7506, 21.1417, 30.344, -30.9454, -21.9073
3.74385, 5, 15.4084, 19.0152, 20.9735, 29.6399, -31.2052, -21.2093
3.75189, 5, 15.1898, 19.2796, 20.8075, 28.9443, -31.4719, -20.5232
3.75987, 5, 14.9702, 19.5419, 20.6433, 28.2583, -31.7449, -19.8487
3.76785, 5, 14.7493, 19.8031, 20.4809, 27.5814, -32.0241, -19.1875
3.77626, 5, 14.5269, 20.0627, 20.3214, 26.9128, -32.309, -18.5398
3.78385, 5, 14.3033, 20.3196, 20.1643, 26.2548, -32.5996, -17.9042
3.79185, 5, 14.079, 20.5746, 20.0094, 25.6065, -32.8958, -17.2825
3.80131, 5, 13.741, 20.953, 19.7816, 24.6525, -33.3498, -16.3755
3.80785, 5, 13.628, 21.0782, 19.7072, 24.3394, -33.5037, -16.0797
3.81586, 5, 13.402, 21.3283, 19.5602, 23.7188, -33.8155, -15.4975
3.8271, 5, 13.0635, 21.7007, 19.3443, 22.8074, -34.2921, -14.6496
3.83185, 5, 12.9507, 21.8239, 19.2737, 22.5083, -34.4533, -14.3735
3.83985, 5, 12.7245, 22.0693, 19.1344, 21.9165, -34.7796, -13.8306
3.84883, 5, 12.4976, 22.3127, 18.9979, 21.3347, -35.1102, -13.3004
3.85586, 5, 12.2705, 22.5536, 18.8641, 20.7619, -35.4451, -12.7832
3.86484, 5, 12.0429, 22.7933, 18.7332, 20.1972, -35.7842, -12.2794
3.87191, 5, 11.8141, 23.0314, 18.6047, 19.6421, -36.1271, -11.788
3.87985, 5, 11.5834, 23.2669, 18.479, 19.0958, -36.4737, -11.3091
3.88787, 5, 11.3512, 23.5006, 18.3561, 18.5575, -36.8242, -10.842
3.89589, 5, 11.1176, 23.7326, 18.2359, 18.0282, -37.1783, -10.3875
3.90385, 5, 10.8827, 23.962, 18.1185, 17.5073, -37.536, -9.94511
3.91191, 5, 10.6465, 24.1897, 18.0038, 16.9937, -37.8973, -9.51433
3.91985, 5, 10.4102, 24.416, 17.8917, 16.4883, -38.2619, -9.09549
3.92785, 5, 10.1748, 24.6395, 17.7822, 15.991, -38.6297, -8.68784
3.93591, 5, 9.93991, 24.8604, 17.6755, 15.5007, -39.0003, -8.29194
3.94388, 5, 9.70505, 25.0796, 17.5718, 15.0183, -39.3735, -7.90761
3.95185, 5, 9.47023, 25.2965, 17.471, 14.543, -39.7493, -7.53417
3.95992, 5, 9.23527, 25.511, 17.3732, 14.0748, -40.1278, -7.17186
3.96784, 5, 9, 25.7239, 17.2781, 13.6129, -40.5085, -6.82017
3.9759, 5, 8.76395, 25.9354, 17.1856, 13.1574, -40.8917, -6.47873
3.98384, 5, 8.52704, 26.1439, 17.0961, 12.7086, -41.277, -6.14772
3.99191, 5, 8.2887, 26.3498, 17.0096, 12.2661, -41.6643, -5.82732
3.99985, 5, 8.04838, 26.5537, 16.9263, 11.8296, -42.0537, -5.51656
4.00785, 5, 7.80577, 26.7551, 16.846, 11.3991, -42.445, -5.21562
4.01591, 5, 7.56214, 26.9534, 16.7687, 10.9744, -42.8379, -4.92451
4.02385, 5, 7.31891, 27.1495, 16.6941, 10.5553, -43.2323, -4.64305
4.03192, 5, 7.07649, 27.3439, 16.6224, 10.1412, -43.6285, -4.37085
4.03989, 5, 6.83445, 27.5356, 16.5537, 9.73254, -44.0257, -4.10806
4.04797, 5, 6.59275, 27.7241, 16.4881, 9.32905, -44.4245, -3.85432
4.056, 5, 6.3509, 27.9106, 16.4257, 8.93079, -44.8244, -3.61009
4.06394, 5, 6.10863, 28.0952, 16.3664, 8.53718, -45.2261, -3.37479
4.07195, 5, 5.86582, 28.2768, 16.3101, 8.14832, -45.6288, -3.14801
4.08002, 5, 5.62265, 28.4553, 16.2568, 7.764, -46.0326, -2.92984
4.08801, 5, 5.37845, 28.6317, 16.2067, 7.38406, -46.437, -2.72016
4.09591, 5, 5.13216, 28.806, 16.1597, 7.00836, -46.8421, -2.51912
4.10391, 5, 4.88382, 28.9771, 16.1161, 6.63625, -47.2476, -2.326
4.11191, 5, 4.63451, 29.1449, 16.0756, 6.26794, -47.6538, -2.14062
4.1199, 5, 4.38518, 29.3104, 16.0382, 5.90337, -48.0606, -1.96306
4.12804, 5, 4.13653, 29.4734, 16.0042, 5.54237, -48.4678, -1.79305
4.13483, 5, 4.0125, 29.5538, 15.9884, 5.36313, -48.6717, -1.71102
4.14499, 5, 3.64177, 29.79, 15.9459, 4.83031, -49.2836, -1.4761
4.15217, 5, 3.39489, 29.944, 15.922, 4.47931, -49.6915, -1.329
4.15882, 5, 3.2712, 30.0201, 15.9112, 4.30481, -49.8954, -1.25812
4.16889, 5, 2.8995, 30.244, 15.8841, 3.78601, -50.5068, -1.05543
4.17635, 5, 2.65164, 30.3893, 15.8703, 3.44344, -50.9142, -0.92919
4.18524, 5, 2.4032, 30.5314, 15.8599, 3.10346, -51.3215, -0.809883
4.1909, 5, 2.27835, 30.6014, 15.8559, 2.93449, -51.5252, -0.7527
4.20046, 5, 1.90079, 30.8068, 15.8493, 2.43146, -52.1356, -0.591408
4.20839, 5, 1.64687, 30.9405, 15.8489, 2.09937, -52.5426, -0.49143
4.21726, 5, 1.51953, 31.0064, 15.8499, 1.76997, -52.9501, -0.396286
4.22288, 5, 1.26482, 31.1363, 15.8548, 1.6062, -53.1543, -0.349391
4.23291, 5, 0.885484, 31.327, 15.8697, 1.12034, -53.7704, -0.209348
4.23986, 5, 0.759876, 31.3897, 15.8766, 0.96037, -53.9778, -0.1609
4.24788, 6, 0.509172, 31.5141, 15.8935, 0.643725, -54.3964, -0.0593043
4.25584, 6, 0.258125, 31.6373, 15.9143, 0.332426, -54.822, 0.0515469
4.26384, 6, 0.00690901, 31.759, 15.9391, 0.0265755, -55.256, 0.173359
4.27194, 6, -0.244091, 31.8793, 15.968, -0.27377, -55.6991, 0.307127
4.27987, 6, -0.495165, 31.9983, 16.001, -0.568307, -56.1516, 0.451471
4.28784, 6, -0.747068, 32.1161, 16.0377, -0.857456, -56.612, 0.603879
4.29588, 6, -1.00003, 32.2332, 16.0782, -1.14173, -57.079, 0.760814
4.30382, 6, -1.25438, 32.3493, 16.1225, -1.42171, -57.5513, 0.91912
4.31184, 6, -1.50985, 32.464, 16.1703, -1.69825, -58.0273, 1.0759
4.31881, 6, -1.76493, 32.5774, 16.2218, -1.9721, -58.5069, 1.22894
4.32783, 6, -2.01824, 32.689, 16.2768, -2.24319, -58.9888, 1.37665
4.33667, 6, -2.26983, 32.7988, 16.3352, -2.51202, -59.4732, 1.51821
4.34285, 6, -2.52063, 32.9064, 16.3969, -2.77892, -59.9589, 1.65351
4.35183, 6, -2.77105, 33.012, 16.4619, -3.04368, -60.4456, 1.78204
4.3599, 6, -3.02118, 33.1153, 16.5302, -3.30645, -60.9333, 1.90432
4.36887, 6, -3.27129, 33.2163, 16.602, -3.56796, -61.4221, 2.01962
4.37583, 6, -3.52155, 33.3151, 16.6772, -3.82776, -61.912, 2.12894
4.39026, 6, -4.02334, 33.5052, 16.8377, -4.34269, -62.895, 2.3285
4.39172, 6, -4.02334, 33.5052, 16.8377, -4.34269, -62.895, 2.3285
4.39983, 6, -4.27665, 33.5966, 16.923, -4.59805, -63.3879, 2.41885
4.40789, 6, -4.53155, 33.6858, 17.0114, -4.85198, -63.8811, 2.50317
4.41583, 6, -4.78616, 33.7727, 17.1031, -5.10498, -64.3747, 2.58083
4.42383, 6, -5.03916, 33.8572, 17.1981, -5.35701, -64.8689, 2.65298
4.43189, 6, -5.29048, 33.9394, 17.2966, -5.60792, -65.3634, 2.71825
4.43983, 6, -5.54068, 34.0192, 17.3986, -5.85773, -65.8583, 2.77789
4.44786, 6, -5.79036, 34.0966, 17.5042, -6.10701, -66.3535, 2.83188
4.45589, 6, -6.04011, 34.1716, 17.613, -6.35556, -66.8491, 2.87903
4.46383, 6, -6.29018, 34.2441, 17.725, -6.60332, -67.3443, 2.92018
4.47184, 6, -6.53996, 34.3141, 17.8402, -6.85086, -67.8392, 2.95576
4.47989, 6, -6.78954, 34.3816, 17.959, -7.09803, -68.3338, 2.98591
4.48783, 6, -7.04004, 34.4464, 18.0812, -7.34473, -68.8283, 3.01066
4.49581, 6, -7.29232, 34.5086, 18.207, -7.59126, -69.3229, 3.02928
4.50388, 6, -7.54561, 34.5681, 18.3361, -7.83766, -69.8173, 3.04195
4.51184, 6, -7.79867, 34.625, 18.4684, -8.08401, -70.3112, 3.04909
4.51985, 6, -8.05067, 34.6792, 18.604, -8.33027, -70.8042, 3.05189
4.52788, 6, -8.30099, 34.7306, 18.7431, -8.57663, -71.2961, 3.05034
4.53583, 6, -8.54965, 34.7795, 18.8858, -8.82316, -71.7875, 3.043
4.54392, 6, -8.79762, 34.8256, 19.0317, -9.06966, -72.2781, 3.02902
4.55196, 6, -9.04561, 34.869, 19.1807, -9.31648, -72.768, 3.00891
4.55997, 6, -9.29365, 34.9098, 19.3333, -9.56377, -73.2569, 2.9826
4.56798, 6, -9.54127, 34.9478, 19.4895, -9.81139, -73.7447, 2.95095
4.57593, 6, -9.78872, 34.9829, 19.6488, -10.0592, -74.2313, 2.91412
4.58393, 6, -10.0372, 35.0152, 19.8109, -10.3076, -74.7165, 2.87172
4.59206, 6, -10.287, 35.0446, 19.9765, -10.5567, -75.2005, 2.82327
4.59983, 6, -10.5378, 35.0712, 20.1457, -10.8064, -75.6829, 2.76939
4.60784, 6, -10.7886, 35.0948, 20.3184, -11.0568, -76.1635, 2.71067
4.61596, 6, -11.0386, 35.1156, 20.494, -11.308, -76.6429, 2.64605
4.62386, 6, -11.2871, 35.1335, 20.6734, -11.56, -77.1211, 2.57579
4.63197, 6, -11.534, 35.1482, 20.8568, -11.8125, -77.5972, 2.50107
4.64009, 6, -11.7802, 35.16, 21.0432, -12.0659, -78.0711, 2.41996
4.64681, 6, -11.9032, 35.165, 21.1375, -12.1932, -78.3074, 2.37779
4.65612, 6, -12.2718, 35.1753, 21.4261, -12.5761, -79.0123, 2.24333
4.66281, 6, -12.3944, 35.177, 21.5243, -12.7043, -79.2464, 2.1957
4.67229, 6, -12.7615, 35.1782, 21.8232, -13.0908, -79.9456, 2.04545
4.68031, 6, -13.0068, 35.1753, 22.0267, -13.3498, -80.4094, 1.9391
4.68682, 6, -13.1298, 35.1726, 22.1301, -13.4796, -80.6403, 1.88389
4.69635, 6, -13.4999, 35.1598, 22.4454, -13.8717, -81.3289, 1.7108
4.70435, 6, -13.7473, 35.1474, 22.6593, -14.1346, -81.7844, 1.58926
4.71263, 6, -13.9941, 35.1318, 22.8776, -14.399, -82.2372, 1.46269
4.72031, 6, -14.1168, 35.1228, 22.9879, -14.5317, -82.4625, 1.39752
4.72848, 6, -14.3609, 35.1021, 23.2104, -14.7983, -83.1349, 1.19426
4.73586, 6, -14.6035, 35.0782, 23.4368, -15.0661, -83.3575, 1.124
4.74381, 6, -14.8452, 35.051, 23.6672, -15.3352, -83.8008, 0.979967
4.75189, 6, -15.0862, 35.0205, 23.9005, -15.6061, -84.2408, 0.831212
4.75985, 6, -15.3266, 34.9865, 24.1376, -15.8783, -84.6779, 0.677697
4.76781, 6, -15.5668, 34.9491, 24.3783, -16.1519, -85.1114, 0.519423
4.77487, 6, -15.8069, 34.9083, 24.6217, -16.4274, -85.5416, 0.355923
4.7839, 6, -16.046, 34.8641, 24.8691, -16.7042, -85.9682, 0.187832
4.79188, 6, -16.2829, 34.8167, 25.1192, -16.9821, -86.391, 0.0149988
4.79986, 6, -16.5173, 34.7664, 25.3714, -17.2607, -86.8083, -0.161873
4.80781, 6, -16.748, 34.7134, 25.6255, -17.5386, -87.2189, -0.341425
4.81581, 6, -16.9724, 34.6586, 25.8784, -17.8136, -87.6197, -0.522454
4.82387, 6, -17.188, 34.6028, 26.1277, -18.0832, -88.0072, -0.702948
4.83187, 6, -17.3935, 34.547, 26.3698, -18.3438, -88.3768, -0.880487
4.83982, 6, -17.5881, 34.4922, 26.6008, -18.5919, -88.7243, -1.0522
4.84788, 6, -17.7698, 34.4397, 26.8185, -18.824, -89.0455, -1.21538
4.85581, 6, -17.9367, 34.3906, 27.0194, -19.0366, -89.337, -1.36648
4.86576, 6, -18.0875, 34.3248, 27.2824, -19.3142, -89.7131, -1.56664
4.87195, 6, -18.2216, 34.3051, 27.3597, -19.3947, -89.8214, -1.62536
4.88089, 6, -18.3385, 34.2692, 27.4972, -19.5371, -90.0121, -1.7295
4.88781, 6, -18.4385, 34.2383, 27.6118, -19.655, -90.1689, -1.81713
4.89593, 6, -18.5216, 34.2125, 27.7046, -19.7489, -90.294, -1.88712
4.90381, 6, -18.5893, 34.1916, 27.777, -19.8214, -90.39, -1.94166
4.91189, 6, -18.6432, 34.175, 27.831, -19.8747, -90.461, -1.98271
4.91988, 6, -18.6845, 34.1622, 27.8699, -19.9116, -90.5104, -2.01183
4.92777, 6, -18.7147, 34.1528, 27.8964, -19.9361, -90.5431, -2.03145
4.9358, 6, -18.7363, 34.1464, 27.9138, -19.9513, -90.5634, -2.04356
4.94387, 6, -18.7513, 34.1422, 27.9249, -19.9601, -90.5749, -2.05048
4.95189, 7, -18.7611, 34.1393, 27.9316, -19.9646, -90.5811, -2.05408
4.9598, 7, -18.7674, 34.1374, 27.9355, -19.9668, -90.5841, -2.05586
4.96789, 7, -18.7704, 34.136, 27.9379, -19.9679, -90.5856, -2.05669
4.97581, 7, -18.7713, 34.1348, 27.9394, -19.9684, -90.5862, -2.05715
4.98381, 7, -18.7715, 34.1339, 27.9405, -19.9687, -90.5866, -2.05737
4.99194, 7, -18.7715, 34.1332, 27.9414, -19.9688, -90.5867, -2.05744
4.99981, 7, -18.7715, 34.1326, 27.9422, -19.9689, -90.5868, -2.05747
5.00781, 7, -18.7718, 34.1323, 27.9429, -19.9689, -90.5868, -2.05753
5.01588, 7, -18.7724, 34.1321, 27.9433, -19.9689, -90.5868, -2.0575
5.02381, 7, -18.7731, 34.132, 27.9437, -19.9689, -90.5868, -2.05748
5.03188, 7, -18.7738, 34.1319, 27.944, -19.9689, -90.5868, -2.05745
5.0399, 7, -18.7745, 34.1319, 27.9443, -19.9689, -90.5868, -2.05746
5.04784, 7, -18.7754, 34.1319, 27.9446, -19.9689, -90.5869, -2.05748
5.05588, 7, -18.7765, 34.1319, 27.945, -19.9689, -90.5869, -2.05749
5.06402, 7, -18.7776, 34.1319, 27.9452, -19.9689, -90.5869, -2.05745
