hehonglu123/ABB_Primitive_Study/realrobot/movec_30_ori/curve_exe_v300_z20.csv
timestamp, cmd_num, J1, J2, J3, J4, J5, J6
0.008227, -1, -18.7709, 34.1297, 27.944, -19.9679, -90.5854, -2.05583
0.148789, -1, -18.304, 33.8937, 27.9082, -19.3542, -89.9397, -2.34146
0.150236, -1, -18.304, 33.8937, 27.9082, -19.3542, -89.9397, -2.34146
0.151427, -1, -18.304, 33.8937, 27.9082, -19.3542, -89.9397, -2.34146
0.154337, -1, -18.2484, 33.8657, 27.9001, -19.2577, -89.8377, -2.38793
0.155593, -1, -18.2484, 33.8657, 27.9001, -19.2577, -89.8377, -2.38793
0.157635, -1, -18.1893, 33.8359, 27.8913, -19.154, -89.7281, -2.43754
0.158978, -1, -18.1893, 33.8359, 27.8913, -19.154, -89.7281, -2.43754
0.162293, -1, -18.1268, 33.8043, 27.8818, -19.0433, -89.6111, -2.49
0.163538, -1, -18.1268, 33.8043, 27.8818, -19.0433, -89.6111, -2.49
0.166282, -1, -18.0609, 33.7712, 27.8716, -18.9265, -89.4872, -2.54569
0.167487, -1, -18.0609, 33.7712, 27.8716, -18.9265, -89.4872, -2.54569
0.169533, -1, -17.9918, 33.7365, 27.8608, -18.804, -89.3573, -2.6043
0.170753, -1, -17.9918, 33.7365, 27.8608, -18.804, -89.3573, -2.6043
0.172022, -1, -17.9918, 33.7365, 27.8608, -18.804, -89.3573, -2.6043
0.174061, -1, -17.9197, 33.7003, 27.8495, -18.6766, -89.2219, -2.66525
0.175942, -1, -17.9197, 33.7003, 27.8495, -18.6766, -89.2219, -2.66525
0.178746, -1, -17.8448, 33.6628, 27.8379, -18.5449, -89.082, -2.72822
0.180074, -1, -17.8448, 33.6628, 27.8379, -18.5449, -89.082, -2.72822
0.182079, -1, -17.7672, 33.6239, 27.826, -18.4096, -88.938, -2.79291
0.183348, -1, -17.7672, 33.6239, 27.826, -18.4096, -88.938, -2.79291
0.185212, -1, -17.6871, 33.5838, 27.8139, -18.271, -88.7908, -2.8592
0.186646, -1, -17.6871, 33.5838, 27.8139, -18.271, -88.7908, -2.8592
0.190117, -1, -17.6046, 33.5423, 27.8017, -18.1299, -88.6409, -2.9268
0.191445, -1, -17.6046, 33.5423, 27.8017, -18.1299, -88.6409, -2.9268
0.200177, -1, -17.433, 33.4565, 27.777, -17.8426, -88.3355, -3.06448
0.20821, -1, -17.2546, 33.3673, 27.7521, -17.5503, -88.0246, -3.20485
0.216137, -1, -17.0715, 33.2758, 27.7269, -17.2549, -87.7108, -3.34664
0.22414, -1, -16.8853, 33.1831, 27.7018, -16.9581, -87.395, -3.48921
0.232189, -1, -16.697, 33.0896, 27.6767, -16.66, -87.0779, -3.63214
0.240151, -1, -16.5074, 32.9958, 27.6517, -16.361, -86.7597, -3.77524
0.248133, -1, -16.3173, 32.9019, 27.6266, -16.0614, -86.4408, -3.91866
0.257725, -1, -16.0322, 32.7611, 27.5891, -15.6102, -85.961, -4.13436
0.264137, -1, -15.9373, 32.7142, 27.5765, -15.4595, -85.8008, -4.20638
0.272132, -1, -15.748, 32.6205, 27.5514, -15.1581, -85.48, -4.35071
0.280213, -1, -15.5592, 32.5267, 27.5262, -14.8561, -85.1587, -4.49543
0.288136, -1, -15.3706, 32.4327, 27.5008, -14.5537, -84.8372, -4.63996
0.296133, -1, -15.1827, 32.3385, 27.4756, -14.2511, -84.5151, -4.78491
0.303134, -1, -14.9949, 32.244, 27.4503, -13.948, -84.1929, -4.92995
0.311214, -1, -14.807, 32.149, 27.4249, -13.6446, -83.8704, -5.07501
0.319133, -1, -14.6182, 32.0538, 27.3992, -13.3411, -83.5475, -5.22038
0.327145, -1, -14.4283, 31.9584, 27.3735, -13.0374, -83.2243, -5.36576
0.335275, -1, -14.2374, 31.863, 27.3478, -12.7338, -82.9009, -5.51149
0.343138, -1, -14.0456, 31.7673, 27.3222, -12.4297, -82.5772, -5.65726
0.351168, -1, -13.8533, 31.6717, 27.2965, -12.1253, -82.2533, -5.80283
0.359452, -1, -13.6606, 31.5763, 27.2708, -11.8209, -81.9292, -5.94854
0.367228, -1, -13.467, 31.4809, 27.2451, -11.5165, -81.6051, -6.09416
0.375251, -1, -13.2731, 31.3854, 27.2195, -11.2121, -81.2811, -6.23981
0.383661, -1, -13.0796, 31.2903, 27.1938, -10.9077, -80.957, -6.38563
0.391313, -1, -12.8869, 31.1951, 27.1682, -10.6032, -80.6333, -6.53124
0.399319, -1, -12.6946, 31.1001, 27.1426, -10.2986, -80.3097, -6.67725
0.407743, -1, -12.5029, 31.005, 27.117, -9.9944, -79.9862, -6.82316
0.416136, -1, -12.3124, 30.9098, 27.0913, -9.69033, -79.6627, -6.9686
0.423238, -1, -12.1226, 30.8147, 27.0656, -9.38623, -79.3392, -7.11418
0.4312, -1, -11.9336, 30.7194, 27.0399, -9.08249, -79.0157, -7.25949
0.439387, -1, -11.7448, 30.624, 27.0143, -8.77884, -78.6925, -7.40485
0.447387, -1, -11.5558, 30.5288, 26.9888, -8.47543, -78.3693, -7.55011
0.45537, -1, -11.3664, 30.4337, 26.9631, -8.17262, -78.0471, -7.69523
0.464133, -1, -11.1767, 30.3389, 26.9375, -7.87027, -77.7253, -7.84018
0.471519, -1, -10.9868, 30.2442, 26.912, -7.56818, -77.4038, -7.98466
0.479624, -1, -10.7965, 30.1498, 26.8866, -7.26686, -77.0831, -8.12896
0.488218, -1, -10.6058, 30.0556, 26.8612, -6.96567, -76.7629, -8.27279
0.495694, -1, -10.415, 29.9615, 26.8358, -6.6651, -76.443, -8.41642
0.504227, -1, -10.2241, 29.8676, 26.8105, -6.36531, -76.1236, -8.55983
0.511769, -1, -10.034, 29.774, 26.7853, -6.06585, -75.8047, -8.70299
0.520333, -1, -9.8446, 29.6805, 26.7602, -5.76698, -75.4865, -8.8462
0.527725, -1, -9.75018, 29.6338, 26.7476, -5.61781, -75.1691, -8.98907
0.536177, -1, -9.46822, 29.4939, 26.7099, -5.17079, -74.8523, -9.13152
0.543126, -1, -9.37476, 29.4473, 26.6973, -5.02222, -74.6943, -9.20264
0.552163, -1, -9.09601, 29.3079, 26.6598, -4.57786, -74.2215, -9.41536
0.559204, -1, -9.00346, 29.2615, 26.6473, -4.42998, -74.0641, -9.48601
0.568346, -1, -8.72702, 29.1224, 26.6098, -3.98785, -73.5935, -9.69774
0.575167, -1, -8.63523, 29.0762, 26.5974, -3.84091, -73.437, -9.76808
0.584576, -1, -8.35997, 28.9381, 26.5603, -3.40096, -72.969, -9.9787
0.592439, -1, -8.17694, 28.8465, 26.5356, -3.10909, -72.6583, -10.1186
0.72677, -1, -5.22956, 27.3794, 26.141, 1.56944, -67.678, -12.3579
0.728084, -1, -5.22956, 27.3794, 26.141, 1.56944, -67.678, -12.3579
0.730041, -1, -5.14326, 27.3363, 26.1294, 1.70683, -67.5319, -12.4236
0.731324, -1, -5.14326, 27.3363, 26.1294, 1.70683, -67.5319, -12.4236
0.732505, -1, -5.14326, 27.3363, 26.1294, 1.70683, -67.5319, -12.4236
0.735485, -1, -5.05701, 27.2934, 26.1179, 1.84395, -67.3861, -12.4891
0.736694, -1, -5.05701, 27.2934, 26.1179, 1.84395, -67.3861, -12.4891
0.740238, -1, -4.97085, 27.2505, 26.1065, 1.98063, -67.2406, -12.5546
0.743085, -1, -4.88478, 27.2078, 26.095, 2.11689, -67.0955, -12.6198
0.744287, -1, -4.88478, 27.2078, 26.095, 2.11689, -67.0955, -12.6198
0.746415, -1, -4.79877, 27.1652, 26.0835, 2.25284, -66.9508, -12.6847
0.747646, -1, -4.79877, 27.1652, 26.0835, 2.25284, -66.9508, -12.6847
0.749502, -1, -4.79877, 27.1652, 26.0835, 2.25284, -66.9508, -12.7497
0.750872, -1, -4.71286, 27.1226, 26.072, 2.38865, -66.8063, -12.7497
0.752132, -1, -4.71286, 27.1226, 26.072, 2.38865, -66.8063, -12.7497
0.754686, -1, -4.62717, 27.0802, 26.0606, 2.5242, -66.6622, -12.8144
0.755974, -1, -4.62717, 27.0802, 26.0606, 2.5242, -66.6622, -12.8144
0.758886, -1, -4.54165, 27.0378, 26.0492, 2.65936, -66.5184, -12.8789
0.760139, -1, -4.54165, 27.0378, 26.0492, 2.65936, -66.5184, -12.8789
0.762178, -1, -4.45619, 26.9956, 26.0378, 2.79414, -66.3749, -12.9435
0.763388, -1, -4.45619, 26.9956, 26.0378, 2.79414, -66.3749, -12.9435
0.767349, -1, -4.37076, 26.9533, 26.0265, 2.92859, -66.2317, -13.0079
0.775114, -1, -4.20027, 26.8691, 26.0038, 3.1968, -65.9461, -13.1361
0.783872, -1, -4.03057, 26.7853, 25.9814, 3.46424, -65.6617, -13.2639
0.79219, -1, -3.862, 26.7019, 25.9588, 3.73005, -65.3785, -13.3914
0.800112, -1, -3.69469, 26.6188, 25.9366, 3.99486, -65.0964, -13.5181
0.807919, -1, -3.52851, 26.5359, 25.9144, 4.25861, -64.8158, -13.6443
0.816195, -1, -3.36351, 26.4534, 25.8921, 4.52094, -64.5365, -13.7696
0.823116, -1, -3.19948, 26.3713, 25.8701, 4.78216, -64.2584, -13.8946
0.832135, -1, -3.03661, 26.2895, 25.8481, 5.0425, -63.9815, -14.0188
0.839148, -1, -2.87476, 26.2081, 25.8262, 5.30165, -63.706, -14.1427
0.847133, -1, -2.71372, 26.1271, 25.8046, 5.55942, -63.4316, -14.2661
0.855952, -1, -2.5532, 26.0465, 25.783, 5.81595, -63.1585, -14.3889
0.864185, -1, -2.39298, 25.9664, 25.7615, 6.0713, -62.8866, -14.5113
0.871204, -1, -2.23303, 25.8867, 25.74, 6.3254, -62.6161, -14.6329
0.880001, -1, -2.07344, 25.8073, 25.7187, 6.57829, -62.3468, -14.7541
0.888202, -1, -1.91432, 25.7284, 25.6975, 6.83035, -62.0786, -14.8745
0.895221, -1, -1.75572, 25.6499, 25.6764, 7.08118, -61.8115, -14.9944
0.90402, -1, -1.59764, 25.5716, 25.6555, 7.33062, -61.5458, -15.1135
0.912297, -1, -1.4398, 25.4936, 25.6345, 7.57898, -61.281, -15.2324
0.919146, -1, -1.2825, 25.416, 25.6137, 7.82643, -61.0173, -15.3508
0.928182, -1, -1.12603, 25.3388, 25.5931, 8.0726, -60.755, -15.4685
0.935941, -1, -0.970534, 25.2618, 25.5724, 8.31769, -60.4939, -15.5861
0.944108, -1, -0.81635, 25.1852, 25.552, 8.56207, -60.2342, -15.703
0.952174, -1, -0.663305, 25.1089, 25.5315, 8.805, -59.9756, -15.8192
0.959984, -1, -0.511281, 25.0329, 25.511, 9.04673, -59.7183, -15.9351
0.968124, -1, -0.360353, 24.9574, 25.4908, 9.2874, -59.4624, -16.0503
0.975961, -1, -0.210574, 24.8823, 25.4707, 9.52713, -59.2079, -16.1651
0.984337, -1, -0.0617725, 24.8075, 25.4507, 9.76555, -58.9542, -16.2794
0.991642, -1, 0.0861974, 24.733, 25.4309, 10.0028, -58.7015, -16.3931
1.00169, -1, 0.233574, 24.6588, 25.411, 10.2393, -58.4499, -16.5065
1.00768, -1, 0.380795, 24.585, 25.3911, 10.4746, -58.1993, -16.6194
1.01631, -1, 0.527972, 24.5115, 25.3714, 10.7087, -57.9497, -16.7318
1.02395, -1, 0.6015, 24.4749, 25.3517, 10.9418, -57.7011, -16.8435
1.03211, -1, 0.821632, 24.3654, 25.3323, 11.1739, -57.4538, -16.9545
1.03912, -1, 0.894844, 24.3291, 25.3226, 11.2894, -57.3305, -17.01
1.04814, -1, 1.11357, 24.2207, 25.2935, 11.6348, -56.9625, -17.1749
1.05616, -1, 1.25868, 24.1488, 25.2742, 11.8637, -56.719, -17.2843
1.0631, -1, 1.3311, 24.113, 25.2646, 11.9778, -56.5975, -17.3389
1.07256, -1, 1.54766, 24.006, 25.2359, 12.3188, -56.2352, -17.5016
1.0792, -1, 1.61953, 23.9705, 25.2264, 12.4318, -56.1149, -17.5558
1.08843, -1, 1.83392, 23.8646, 25.1982, 12.7695, -55.7557, -17.7174
1.0951, -1, 1.9048, 23.8295, 25.1887, 12.8816, -55.6366, -17.7712
1.10455, -1, 2.11598, 23.7245, 25.1606, 13.2162, -55.2805, -17.9315
1.11261, -1, 2.25566, 23.655, 25.142, 13.438, -55.0443, -18.0375
1.1224, -1, 2.39433, 23.5857, 25.1233, 13.6589, -54.8091, -18.1434
1.12714, -1, 2.46332, 23.5512, 25.1141, 13.7691, -54.6918, -18.1959
1.13665, -1, 2.66887, 23.448, 25.0866, 14.0981, -54.3411, -18.3531
1.1449, -1, 2.8047, 23.3795, 25.0683, 14.3159, -54.1089, -18.4573
1.15273, -1, 2.87234, 23.3114, 25.05, 14.5331, -53.8777, -18.5613
1.16062, -1, 3.00732, 23.2773, 25.0409, 14.6414, -53.7624, -18.6131
1.16811, -1, 3.14216, 23.2095, 25.0227, 14.8571, -53.5328, -18.7164
1.17615, -1, 3.27707, 23.142, 25.0046, 15.0719, -53.3042, -18.8192
1.18414, -1, 3.41178, 23.0749, 24.9868, 15.2858, -53.0764, -18.9219
1.1921, -1, 3.54627, 23.008, 24.9689, 15.499, -52.8497, -19.024
1.20015, -1, 3.68051, 22.9415, 24.951, 15.7114, -52.6239, -19.1254
1.20813, -1, 3.81436, 22.8752, 24.9334, 15.9224, -52.3991, -19.2267
1.2161, -1, 3.94765, 22.8092, 24.9157, 16.1328, -52.1754, -19.3271
1.22416, -1, 4.08063, 22.7435, 24.898, 16.3423, -51.9524, -19.4273
1.23213, -1, 4.21314, 22.6781, 24.8805, 16.5509, -51.7301, -19.5269
1.2401, -1, 4.34515, 22.6128, 24.8631, 16.7586, -51.5088, -19.6264
1.24815, -1, 4.47646, 22.5479, 24.8457, 16.9655, -51.2884, -19.7251
1.2561, -1, 4.60704, 22.4832, 24.8284, 17.1718, -51.0689, -19.824
1.26411, -1, 4.73694, 22.4186, 24.8111, 17.3772, -50.8501, -19.922
1.27216, -1, 4.86605, 22.3543, 24.7938, 17.5816, -50.6324, -20.0202
1.28009, -1, 4.99446, 22.2903, 24.7768, 17.7853, -50.4154, -20.1176
1.28816, -1, 5.12201, 22.2265, 24.7599, 17.9881, -50.1994, -20.2149
1.29709, -1, 5.24878, 22.1629, 24.7428, 18.1905, -49.9841, -20.3114
1.30411, -1, 5.37474, 22.0996, 24.7258, 18.3917, -49.7697, -20.4079
1.3121, -1, 5.49976, 22.0366, 24.7089, 18.5923, -49.5562, -20.5037
1.31911, -1, 5.62405, 21.9739, 24.6921, 18.7921, -49.3437, -20.5992
1.3271, -1, 5.74799, 21.9114, 24.6752, 18.9914, -49.1319, -20.6944
1.3361, -1, 5.87178, 21.8493, 24.6587, 19.1897, -48.9212, -20.7892
1.3431, -1, 5.99548, 21.7873, 24.6421, 19.3871, -48.7114, -20.8838
1.35117, -1, 6.11907, 21.7256, 24.6255, 19.5839, -48.5022, -20.9781
1.35934, -1, 6.24251, 21.6641, 24.6091, 19.78, -48.2936, -21.072
1.36718, -1, 6.36579, 21.6028, 24.5927, 19.9751, -48.0858, -21.1656
1.37525, -1, 6.4889, 21.5417, 24.5762, 20.1695, -47.8787, -21.259
1.38345, -1, 6.61172, 21.4808, 24.5599, 20.3632, -47.6724, -21.3515
1.3912, -1, 6.73416, 21.4202, 24.5438, 20.5564, -47.4667, -21.4441
1.39928, -1, 6.85629, 21.3597, 24.5276, 20.7489, -47.2615, -21.536
1.40765, -1, 6.97788, 21.2997, 24.5113, 20.9404, -47.0573, -21.6277
1.41615, -1, 7.09892, 21.2398, 24.4952, 21.1314, -46.8538, -21.7189
1.42313, -1, 7.21934, 21.1802, 24.4793, 21.3216, -46.6511, -21.8099
1.43185, -1, 7.33916, 21.1208, 24.4633, 21.5113, -46.4491, -21.9005
1.4401, -1, 7.4584, 21.0617, 24.4476, 21.7003, -46.2481, -21.9908
1.44816, -1, 7.57705, 21.0027, 24.4319, 21.8884, -46.0477, -22.081
1.45609, -1, 7.69526, 20.9439, 24.4161, 22.076, -45.8482, -22.1708
1.46347, -1, 7.81294, 20.8853, 24.4003, 22.2629, -45.6493, -22.2604
1.4714, -1, 7.93014, 20.8267, 24.3847, 22.4495, -45.4513, -22.3496
1.48033, -1, 8.0466, 20.7684, 24.369, 22.6351, -45.2541, -22.4385
1.48786, -1, 8.1626, 20.7102, 24.3534, 22.82, -45.0576, -22.5269
1.49625, -1, 8.27805, 20.6522, 24.338, 23.0043, -44.8616, -22.6152
1.50437, -1, 8.39321, 20.5944, 24.3227, 23.188, -44.6661, -22.7026
1.5117, -1, 8.50803, 20.537, 24.3073, 23.3711, -44.4712, -22.7902
1.5203, -1, 8.62238, 20.4797, 24.2918, 23.5535, -44.2769, -22.8772
1.52846, -1, 8.67933, 20.4512, 24.2766, 23.7351, -44.0831, -22.9644
1.53574, -1, 8.79294, 20.3942, 24.269, 23.9163, -43.89, -23.0507
1.54426, -1, 8.96302, 20.3092, 24.2462, 24.0971, -43.6974, -23.1374
1.55109, -1, 9.01962, 20.281, 24.2386, 24.1873, -43.6016, -23.1805
1.55909, -1, 9.13277, 20.2246, 24.2237, 24.3669, -43.4103, -23.2664
1.56823, -1, 9.30245, 20.1403, 24.2012, 24.6353, -43.1245, -23.3952
1.57514, -1, 9.35892, 20.1123, 24.1937, 24.7244, -43.0296, -23.4379
1.58313, -1, 9.47152, 20.0564, 24.1786, 24.9024, -42.8401, -23.5234
1.59236, -1, 9.63969, 19.9728, 24.1563, 25.1684, -42.557, -23.6504
1.59913, -1, 9.69549, 19.9451, 24.1488, 25.2567, -42.463, -23.6929
1.60712, -1, 9.80691, 19.8896, 24.134, 25.433, -42.2753, -23.777
1.61655, -1, 9.9735, 19.8068, 24.112, 25.6964, -41.995, -23.9029
1.62551, -1, 10.0841, 19.752, 24.0975, 25.8716, -41.809, -23.9862
1.63114, -1, 10.1393, 19.7246, 24.0901, 25.9589, -41.7162, -24.028
1.64064, -1, 10.3041, 19.6427, 24.0681, 26.2199, -41.4385, -24.1524
1.64947, -1, 10.3588, 19.6156, 24.0535, 26.3932, -41.2539, -24.2356
1.65509, -1, 10.4679, 19.5614, 24.0463, 26.4796, -41.1619, -24.277
1.66408, -1, 10.5765, 19.5072, 24.0317, 26.6522, -40.9782, -24.3593
1.67213, -1, 10.6847, 19.4533, 24.0173, 26.8243, -40.7951, -24.4421
1.67909, -1, 10.7926, 19.3995, 24.003, 26.9957, -40.6125, -24.5239
1.68812, -1, 10.9001, 19.3458, 23.9888, 27.1666, -40.4304, -24.6062
1.69614, -1, 11.0072, 19.2922, 23.9745, 27.337, -40.2487, -24.6875
1.70309, -1, 11.1139, 19.2388, 23.9601, 27.507, -40.0679, -24.7689
1.71217, -1, 11.2203, 19.1856, 23.9458, 27.6765, -39.8875, -24.8501
1.72013, -1, 11.3263, 19.1325, 23.9317, 27.8454, -39.7076, -24.9308
1.72717, -1, 11.4319, 19.0796, 23.9175, 28.0139, -39.5282, -25.0116
1.73514, -1, 11.5371, 19.027, 23.9034, 28.1817, -39.3495, -25.0917
1.74309, -1, 11.6421, 18.9745, 23.8895, 28.3492, -39.1711, -25.1722
1.75111, -1, 11.7469, 18.9222, 23.8756, 28.5163, -38.9933, -25.252
1.75914, -1, 11.8515, 18.8701, 23.8616, 28.6828, -38.8162, -25.332
1.76708, -1, 11.9559, 18.818, 23.8475, 28.8487, -38.6393, -25.4115
1.77582, -1, 12.0601, 18.7661, 23.8336, 29.0143, -38.463, -25.4909
1.78414, -1, 12.1643, 18.7143, 23.8198, 29.1795, -38.2874, -25.5704
1.79208, -1, 12.2683, 18.6626, 23.8059, 29.3444, -38.1125, -25.649
1.80008, -1, 12.372, 18.611, 23.7921, 29.5088, -37.9379, -25.7282
1.80815, -1, 12.4755, 18.5596, 23.7786, 29.6724, -37.7638, -25.8062
1.81508, -1, 12.5787, 18.5082, 23.7649, 29.8357, -37.5902, -25.8845
1.82408, -1, 12.6817, 18.4571, 23.7512, 29.9987, -37.4167, -25.9624
1.83215, -1, 12.7843, 18.406, 23.7374, 30.1611, -37.2439, -26.0399
1.83908, -1, 12.8865, 18.3553, 23.7238, 30.3232, -37.0714, -26.1175
1.84808, -1, 12.9884, 18.3047, 23.7103, 30.4847, -36.8994, -26.1941
1.85619, -1, 13.0899, 18.2543, 23.6967, 30.6456, -36.7276, -26.2716
1.86312, -1, 13.191, 18.204, 23.6832, 30.8063, -36.5566, -26.3481
1.87128, -1, 13.2919, 18.1538, 23.6699, 30.9666, -36.3858, -26.4247
1.87918, -1, 13.3923, 18.1039, 23.6566, 31.1265, -36.2156, -26.5015
1.88718, -1, 13.4925, 18.0538, 23.6433, 31.2859, -36.0458, -26.5773
1.8953, -1, 13.5925, 18.0039, 23.6298, 31.4448, -35.8766, -26.6539
1.90318, -1, 13.6924, 17.9541, 23.6165, 31.6032, -35.7078, -26.7296
1.91114, -1, 13.792, 17.9043, 23.6032, 31.7614, -35.5393, -26.8055
1.91935, -1, 13.8915, 17.8546, 23.5899, 31.9193, -35.3716, -26.881
1.92711, -1, 13.9908, 17.8051, 23.5766, 32.0766, -35.2042, -26.9559
1.93523, -1, 14.0899, 17.7557, 23.5634, 32.2336, -35.037, -27.0314
1.9436, -1, 14.1888, 17.7065, 23.5504, 32.3902, -34.8706, -27.1057
1.95123, -1, 14.2872, 17.6574, 23.5373, 32.5462, -34.7045, -27.1807
1.95933, -1, 14.3851, 17.6086, 23.5241, 32.7022, -34.539, -27.2551
1.96766, -1, 14.4828, 17.5599, 23.5109, 32.8579, -34.3736, -27.3289
1.97539, -1, 14.5801, 17.5114, 23.498, 33.013, -34.2085, -27.4036
1.98358, -1, 14.6771, 17.463, 23.4851, 33.1677, -34.044, -27.4772
1.99222, -1, 14.7737, 17.4147, 23.4721, 33.3219, -33.8794, -27.5514
1.99965, -1, 14.8701, 17.3665, 23.4591, 33.4758, -33.7158, -27.6251
2.00817, -1, 14.9664, 17.3183, 23.4464, 33.6295, -33.5522, -27.6985
2.01568, -1, 15.0625, 17.2701, 23.4336, 33.7826, -33.389, -27.7725
2.02421, -1, 15.1585, 17.222, 23.4208, 33.9354, -33.2261, -27.8454
2.03178, -1, 15.2064, 17.174, 23.4078, 34.0876, -33.0638, -27.9188
2.04027, -1, 15.3502, 17.1261, 23.3949, 34.2397, -32.9019, -27.9917
2.04706, -1, 15.3981, 17.1022, 23.3885, 34.3156, -32.8213, -28.0277
2.05612, -1, 15.5417, 17.0307, 23.3693, 34.5429, -32.5795, -28.1368
2.06309, -1, 15.5895, 17.007, 23.3629, 34.6185, -32.4991, -28.1728
2.07228, -1, 15.7326, 16.9361, 23.3439, 34.8447, -32.2584, -28.281
2.07911, -1, 15.7802, 16.9125, 23.3376, 34.9199, -32.1783, -28.3172
2.08864, -1, 15.9226, 16.8421, 23.3189, 35.1447, -31.9388, -28.4241
2.09508, -1, 15.9699, 16.8187, 23.3126, 35.2196, -31.8592, -28.46
2.10439, -1, 16.1115, 16.7487, 23.2937, 35.4439, -31.6206, -28.5674
2.1111, -1, 16.1585, 16.7254, 23.2874, 35.5184, -31.5413, -28.6028
2.12059, -1, 16.299, 16.6555, 23.2688, 35.7414, -31.3041, -28.71
2.12861, -1, 16.3923, 16.609, 23.2563, 35.8896, -31.1462, -28.7806
2.13684, -1, 16.4853, 16.5624, 23.2437, 36.0376, -30.9886, -28.852
2.14466, -1, 16.578, 16.5159, 23.2313, 36.1854, -30.8315, -28.9227
2.15273, -1, 16.6243, 16.4928, 23.219, 36.333, -30.6744, -28.993
2.1608, -1, 16.7629, 16.4233, 23.2066, 36.4801, -30.518, -29.0639
2.16861, -1, 16.809, 16.4001, 23.2005, 36.5535, -30.4398, -29.0989
2.17609, -1, 16.9013, 16.354, 23.1881, 36.7, -30.2839, -29.1686
2.18414, -1, 16.9932, 16.308, 23.1757, 36.8462, -30.1282, -29.2389
2.19107, -1, 17.085, 16.2622, 23.1634, 36.9921, -29.9728, -29.3083
2.19913, -1, 17.1763, 16.2168, 23.1511, 37.1378, -29.8175, -29.3778
2.20706, -1, 17.2649, 16.1724, 23.1387, 37.2828, -29.6631, -29.4474
2.21508, -1, 17.3494, 16.1302, 23.1261, 37.4266, -29.51, -29.5156
2.22313, -1, 17.4286, 16.0906, 23.1136, 37.567, -29.3603, -29.5832
2.23106, -1, 17.5023, 16.0541, 23.1012, 37.7014, -29.2168, -29.6478
2.23907, -1, 17.5699, 16.0211, 23.0895, 37.8259, -29.0839, -29.7073
2.24712, -1, 17.6299, 15.9919, 23.0789, 37.9372, -28.965, -29.7611
2.25511, -1, 17.6831, 15.966, 23.0701, 38.0311, -28.8639, -29.8068
2.26307, -1, 17.7301, 15.9423, 23.0636, 38.1062, -28.7832, -29.8433
2.27206, -1, 17.771, 15.921, 23.0595, 38.1623, -28.7225, -29.8703
2.28014, -1, 17.8053, 15.9034, 23.0571, 38.2005, -28.6807, -29.8892
2.28806, -1, 17.8327, 15.8896, 23.0559, 38.2255, -28.6534, -29.9012
2.29514, -1, 17.8543, 15.8793, 23.0554, 38.2404, -28.6372, -29.9081
2.3031, -1, 17.8697, 15.8722, 23.0552, 38.2484, -28.6282, -29.9119
2.31128, -1, 17.8788, 15.8681, 23.055, 38.2524, -28.6238, -29.9137
2.31912, 2, 17.8832, 15.866, 23.055, 38.2543, -28.6217, -29.9146
2.32707, 2, 17.885, 15.865, 23.055, 38.2552, -28.6208, -29.9149
2.33508, 2, 17.8852, 15.8646, 23.055, 38.2556, -28.6203, -29.9151
2.34406, 2, 17.8846, 15.8644, 23.055, 38.2558, -28.6202, -29.9153
2.35213, 2, 17.8838, 15.8643, 23.055, 38.2559, -28.6201, -29.9153
2.35908, 2, 17.8833, 15.8643, 23.055, 38.2559, -28.6201, -29.9153
2.36718, 2, 17.883, 15.8642, 23.055, 38.2559, -28.6201, -29.9153
2.37515, 2, 17.8829, 15.8641, 23.055, 38.2559, -28.6201, -29.9153
2.38317, 2, 17.883, 15.8639, 23.055, 38.2559, -28.62, -29.9153
2.39123, 2, 17.8832, 15.8636, 23.055, 38.2559, -28.6201, -29.9153
2.39922, 2, 17.8835, 15.8632, 23.055, 38.2559, -28.6201, -29.9153
2.40717, 2, 17.884, 15.863, 23.055, 38.2559, -28.6201, -29.9153
2.41524, 2, 17.8846, 15.8627, 23.055, 38.2559, -28.6201, -29.9153
2.42311, 2, 17.8855, 15.8626, 23.055, 38.256, -28.6201, -29.9153
2.43109, 2, 17.8863, 15.8625, 23.055, 38.2559, -28.62, -29.9153
2.43916, 2, 17.8869, 15.8625, 23.055, 38.256, -28.6201, -29.9153
2.44716, 2, 17.8873, 15.8625, 23.055, 38.256, -28.6201, -29.9153
2.45528, 2, 17.8876, 15.8625, 23.055, 38.256, -28.6201, -29.9153
2.46332, 2, 17.8877, 15.8625, 23.055, 38.256, -28.6201, -29.9153
2.47136, 2, 17.8878, 15.8626, 23.055, 38.2559, -28.6201, -29.9153
2.47947, 2, 17.8879, 15.8625, 23.055, 38.2559, -28.6201, -29.9153
2.48753, 2, 17.8879, 15.8625, 23.055, 38.2559, -28.6202, -29.9153
2.49556, 2, 17.8879, 15.8625, 23.055, 38.2559, -28.6202, -29.9153
2.50419, 2, 17.8877, 15.8624, 23.0549, 38.2559, -28.6202, -29.9153
2.51162, 2, 17.8874, 15.8624, 23.0549, 38.2559, -28.6203, -29.9153
2.52023, 2, 17.8872, 15.8623, 23.0549, 38.2559, -28.6203, -29.9153
2.52771, 2, 17.8871, 15.8622, 23.055, 38.2559, -28.6203, -29.9153
2.53621, 2, 17.887, 15.8622, 23.0549, 38.2559, -28.6203, -29.9153
2.54305, 2, 17.887, 15.8622, 23.055, 38.2559, -28.6203, -29.9153
2.55212, 2, 17.887, 15.8622, 23.055, 38.2559, -28.6203, -29.9153
2.55907, 2, 17.887, 15.8622, 23.0549, 38.2559, -28.6203, -29.9153
2.56817, 2, 17.887, 15.8623, 23.0549, 38.2559, -28.6203, -29.9153
2.57509, 2, 17.887, 15.8623, 23.0549, 38.256, -28.6203, -29.9153
2.58425, 2, 17.887, 15.8623, 23.0549, 38.2559, -28.6204, -29.9153
2.59108, 2, 17.887, 15.8623, 23.0549, 38.2559, -28.6204, -29.9153
2.60043, 2, 17.8871, 15.8623, 23.0549, 38.2559, -28.6205, -29.9153
2.60707, 2, 17.8871, 15.8623, 23.055, 38.2559, -28.6205, -29.9153
2.61652, 2, 17.887, 15.8623, 23.055, 38.2559, -28.6204, -29.9153
2.62461, 2, 17.887, 15.8622, 23.0549, 38.2559, -28.6205, -29.9153
2.63257, 2, 17.887, 15.8622, 23.0549, 38.256, -28.6205, -29.9152
2.6408, 2, 17.8869, 15.8622, 23.0549, 38.2559, -28.6205, -29.9153
2.64866, 2, 17.8869, 15.8622, 23.0549, 38.2559, -28.6205, -29.9153
2.65666, 2, 17.8869, 15.8622, 23.0549, 38.2559, -28.6205, -29.9153
2.6646, 2, 17.8868, 15.8622, 23.055, 38.2559, -28.6206, -29.9153
2.67205, 2, 17.8868, 15.8623, 23.055, 38.2559, -28.6206, -29.9153
2.68008, 2, 17.8868, 15.8623, 23.055, 38.2559, -28.6206, -29.9153
2.68807, 2, 17.8868, 15.8623, 23.055, 38.2559, -28.6206, -29.9153
2.69608, 2, 17.8868, 15.8623, 23.055, 38.2559, -28.6206, -29.9153
2.70407, 2, 17.8868, 15.8623, 23.0549, 38.2559, -28.6206, -29.9153
2.71206, 2, 17.8868, 15.8623, 23.0549, 38.2559, -28.6207, -29.9153
2.72018, 2, 17.8868, 15.8623, 23.0549, 38.2559, -28.6207, -29.9153
2.72807, 2, 17.8867, 15.8623, 23.0549, 38.2559, -28.6207, -29.9153
2.73606, 2, 17.8867, 15.8623, 23.055, 38.2559, -28.6207, -29.9152
2.74409, 2, 17.8867, 15.8623, 23.055, 38.2559, -28.6207, -29.9152
2.75207, 2, 17.8867, 15.8623, 23.055, 38.2558, -28.6208, -29.9152
2.76009, 2, 17.8867, 15.8623, 23.055, 38.2558, -28.6208, -29.9152
2.76804, 2, 17.8866, 15.8623, 23.055, 38.2558, -28.6208, -29.9152
2.77608, 2, 17.8866, 15.8623, 23.055, 38.2558, -28.6208, -29.9152
2.78407, 2, 17.8866, 15.8623, 23.055, 38.2559, -28.6208, -29.9152
2.79205, 2, 17.8866, 15.8623, 23.055, 38.2558, -28.6208, -29.9152
2.80107, 2, 17.8865, 15.8623, 23.055, 38.2558, -28.6208, -29.9152
2.80807, 2, 17.8865, 15.8623, 23.055, 38.2558, -28.6208, -29.9152
2.81604, 2, 17.8865, 15.8623, 23.055, 38.2558, -28.6209, -29.9151
2.82418, 2, 17.8864, 15.8623, 23.055, 38.2558, -28.6208, -29.9151
2.83207, 2, 17.8864, 15.8623, 23.055, 38.2558, -28.6208, -29.9151
2.84006, 2, 17.8864, 15.8623, 23.0549, 38.2558, -28.6209, -29.9152
2.84807, 2, 17.8863, 15.8623, 23.055, 38.2558, -28.6208, -29.9151
2.85607, 2, 17.8863, 15.8623, 23.055, 38.2558, -28.6208, -29.9151
2.86408, 2, 17.8862, 15.8623, 23.055, 38.2557, -28.6208, -29.9151
2.87114, 2, 17.8862, 15.8623, 23.055, 38.2557, -28.6209, -29.9151
2.87913, 2, 17.8862, 15.8624, 23.055, 38.2557, -28.6209, -29.9152
2.88718, 2, 17.8861, 15.8624, 23.055, 38.2557, -28.6209, -29.9152
2.89519, 2, 17.8861, 15.8624, 23.055, 38.2557, -28.6209, -29.9152
2.90315, 2, 17.886, 15.8624, 23.055, 38.2557, -28.6209, -29.9152
2.9112, 2, 17.886, 15.8624, 23.055, 38.2557, -28.621, -29.9152
2.91908, 2, 17.8859, 15.8624, 23.055, 38.2557, -28.621, -29.9152
2.9271, 2, 17.8859, 15.8624, 23.055, 38.2557, -28.621, -29.9152
2.93513, 2, 17.8858, 15.8624, 23.055, 38.2557, -28.621, -29.9151
2.94312, 2, 17.8858, 15.8624, 23.0549, 38.2556, -28.6211, -29.915
2.9512, 2, 17.8857, 15.8624, 23.0549, 38.2556, -28.6211, -29.9151
2.95981, 2, 17.8857, 15.8624, 23.0549, 38.2556, -28.6211, -29.9151
2.96807, 2, 17.8856, 15.8624, 23.0549, 38.2556, -28.6211, -29.9151
2.97535, 2, 17.8856, 15.8624, 23.055, 38.2556, -28.6211, -29.9151
2.98383, 2, 17.8856, 15.8624, 23.055, 38.2556, -28.6211, -29.915
2.99211, 2, 17.8855, 15.8624, 23.0549, 38.2556, -28.6211, -29.915
2.99954, 2, 17.8855, 15.8624, 23.0549, 38.2556, -28.6212, -29.915
3.00815, 2, 17.8854, 15.8624, 23.0549, 38.2555, -28.6212, -29.915
3.01564, 2, 17.8853, 15.8624, 23.055, 38.2555, -28.6212, -29.915
3.02417, 2, 17.8853, 15.8624, 23.055, 38.2555, -28.6212, -29.915
3.03191, 2, 17.8852, 15.8624, 23.055, 38.2555, -28.6212, -29.915
3.0402, 2, 17.8852, 15.8624, 23.0549, 38.2555, -28.6212, -29.915
3.04703, 2, 17.8851, 15.8624, 23.0549, 38.2555, -28.6212, -29.915
3.05631, 2, 17.885, 15.8624, 23.0549, 38.2555, -28.6212, -29.915
3.06306, 2, 17.885, 15.8624, 23.055, 38.2554, -28.6212, -29.915
3.07211, 2, 17.8849, 15.8624, 23.055, 38.2554, -28.6212, -29.9151
3.07907, 2, 17.8849, 15.8624, 23.055, 38.2554, -28.6212, -29.9151
3.08706, 2, 17.8848, 15.8624, 23.055, 38.2554, -28.6212, -29.9151
3.09631, 2, 17.8847, 15.8624, 23.055, 38.2554, -28.6212, -29.915
3.10306, 2, 17.8847, 15.8624, 23.055, 38.2554, -28.6212, -29.915
3.11105, 2, 17.8846, 15.8624, 23.055, 38.2554, -28.6212, -29.915
3.12052, 2, 17.8846, 15.8625, 23.055, 38.2554, -28.6213, -29.915
3.12894, 2, 17.8845, 15.8625, 23.055, 38.2553, -28.6212, -29.915
3.13657, 2, 17.8845, 15.8625, 23.055, 38.2553, -28.6212, -29.915
3.14468, 2, 17.8845, 15.8625, 23.055, 38.2553, -28.6212, -29.915
3.15315, 2, 17.8844, 15.8625, 23.055, 38.2552, -28.6212, -29.915
3.15906, 2, 17.8844, 15.8625, 23.055, 38.2552, -28.6212, -29.915
3.16858, 2, 17.8843, 15.8625, 23.055, 38.2552, -28.6212, -29.915
3.17692, 2, 17.8843, 15.8625, 23.055, 38.2552, -28.6212, -29.915
3.18406, 2, 17.8843, 15.8625, 23.055, 38.2552, -28.6212, -29.915
3.19205, 2, 17.8842, 15.8625, 23.055, 38.2552, -28.6212, -29.915
3.20111, 2, 17.8842, 15.8625, 23.055, 38.2551, -28.6212, -29.915
3.20715, 2, 17.8842, 15.8625, 23.055, 38.2551, -28.6212, -29.915
3.21504, 2, 17.8841, 15.8625, 23.055, 38.2551, -28.6213, -29.915
3.22406, 2, 17.8841, 15.8625, 23.055, 38.2551, -28.6213, -29.915
3.23105, 2, 17.8841, 15.8625, 23.055, 38.2551, -28.6213, -29.915
3.24006, 2, 17.8841, 15.8625, 23.055, 38.255, -28.6213, -29.915
3.24805, 2, 17.8841, 15.8625, 23.055, 38.255, -28.6213, -29.9149
3.25506, 2, 17.8841, 15.8625, 23.055, 38.255, -28.6213, -29.9149
3.26405, 2, 17.8841, 15.8625, 23.055, 38.2549, -28.6213, -29.9149
3.27203, 2, 17.8841, 15.8625, 23.055, 38.2549, -28.6213, -29.915
3.28007, 2, 17.884, 15.8625, 23.055, 38.2549, -28.6214, -29.9149
3.28805, 2, 17.884, 15.8625, 23.055, 38.2549, -28.6214, -29.9149
3.29807, 2, 17.884, 15.8625, 23.055, 38.2548, -28.6214, -29.9149
3.30307, 2, 17.884, 15.8625, 23.055, 38.2548, -28.6214, -29.9149
3.31205, 2, 17.8839, 15.8625, 23.055, 38.2548, -28.6214, -29.9149
3.32067, 2, 17.8839, 15.8625, 23.055, 38.2548, -28.6214, -29.9149
3.32706, 2, 17.8839, 15.8625, 23.055, 38.2548, -28.6215, -29.9149
3.33519, 2, 17.8839, 15.8626, 23.055, 38.2548, -28.6215, -29.9149
3.34304, 2, 17.8839, 15.8626, 23.055, 38.2547, -28.6215, -29.9149
3.35203, 2, 17.8839, 15.8626, 23.055, 38.2547, -28.6215, -29.9149
3.36006, 2, 17.8839, 15.8626, 23.055, 38.2547, -28.6215, -29.9149
3.36809, 2, 17.8839, 15.8626, 23.055, 38.2547, -28.6214, -29.9149
3.37536, 2, 17.8839, 15.8626, 23.055, 38.2547, -28.6215, -29.9149
3.38317, 4, 17.8838, 15.8626, 23.055, 38.2547, -28.6215, -29.9149
3.39113, 4, 17.8838, 15.8626, 23.055, 38.2547, -28.6215, -29.9149
3.39917, 4, 17.8838, 15.8626, 23.055, 38.2547, -28.6215, -29.9148
3.40718, 4, 17.8838, 15.8626, 23.055, 38.2547, -28.6215, -29.9148
3.41514, 4, 17.8837, 15.8626, 23.055, 38.2547, -28.6215, -29.9148
3.42313, 4, 17.8837, 15.8626, 23.055, 38.2547, -28.6215, -29.9147
3.43118, 4, 17.8837, 15.8626, 23.055, 38.2547, -28.6215, -29.9147
3.43906, 4, 17.8837, 15.8626, 23.055, 38.2547, -28.6215, -29.9147
3.44714, 4, 17.8837, 15.8626, 23.055, 38.2547, -28.6215, -29.9147
3.4552, 4, 17.8837, 15.8626, 23.055, 38.2547, -28.6215, -29.9147
3.46325, 4, 17.8837, 15.8626, 23.055, 38.2546, -28.6215, -29.9146
3.47136, 4, 17.8837, 15.8626, 23.055, 38.2546, -28.6215, -29.9146
3.47982, 4, 17.8837, 15.8626, 23.055, 38.2546, -28.6215, -29.9147
3.48822, 4, 17.8837, 15.8626, 23.055, 38.2546, -28.6215, -29.9147
3.51131, 4, 17.8836, 15.8626, 23.055, 38.2545, -28.6215, -29.9146
3.51279, 4, 17.8836, 15.8626, 23.055, 38.2545, -28.6215, -29.9146
3.51399, 4, 17.8836, 15.8626, 23.055, 38.2545, -28.6215, -29.9146
3.52014, 4, 17.8836, 15.8627, 23.055, 38.2545, -28.6215, -29.9146
3.5276, 4, 17.8836, 15.8627, 23.055, 38.2545, -28.6215, -29.9146
3.53616, 4, 17.883, 15.863, 23.055, 38.2544, -28.6215, -29.9145
3.54367, 4, 17.8822, 15.8636, 23.055, 38.2542, -28.6215, -29.9144
3.55209, 4, 17.8757, 15.8686, 23.0541, 38.2522, -28.6218, -29.9134
3.55993, 4, 17.8673, 15.877, 23.0518, 38.245, -28.6228, -29.9084
3.56812, 4, 17.8554, 15.8912, 23.0469, 38.2286, -28.6259, -29.8937
3.57616, 5, 17.8389, 15.9122, 23.0381, 38.1981, -28.6324, -29.8633
3.58466, 5, 17.8173, 15.9406, 23.024, 38.1465, -28.644, -29.8112
3.59223, 5, 17.7912, 15.9754, 23.0039, 38.0676, -28.6616, -29.7308
3.5991, 5, 17.7766, 15.9948, 22.9915, 38.0171, -28.673, -29.6791
3.60702, 5, 17.7444, 16.0375, 22.9613, 37.8921, -28.7013, -29.5509
3.61507, 5, 17.708, 16.0863, 22.9247, 37.7369, -28.7372, -29.3916
3.62529, 5, 17.6446, 16.1728, 22.8587, 37.4562, -28.8039, -29.1028
3.63108, 5, 17.6214, 16.2052, 22.8343, 37.3526, -28.8284, -28.9959
3.64058, 5, 17.5455, 16.3118, 22.756, 37.0225, -28.9092, -28.655
3.64941, 5, 17.4894, 16.3895, 22.7008, 36.7931, -28.9661, -28.4179
3.65509, 5, 17.4598, 16.4298, 22.6727, 36.6772, -28.995, -28.2981
3.66466, 5, 17.3988, 16.5538, 22.5873, 36.3271, -29.0849, -27.9372
3.67201, 5, 17.3361, 16.5957, 22.5588, 36.2103, -29.1147, -27.8168
3.67909, 5, 17.2724, 16.6798, 22.5017, 35.9765, -29.1759, -27.5762
3.68806, 5, 17.2083, 16.764, 22.4447, 35.7434, -29.2382, -27.3363
3.69602, 5, 17.144, 16.8481, 22.3878, 35.5109, -29.3005, -27.0974
3.70308, 5, 17.0797, 16.9321, 22.331, 35.2788, -29.3644, -26.8597
3.71107, 5, 17.0155, 17.016, 22.2745, 35.0475, -29.4277, -26.6227
3.71902, 5, 16.9513, 17.0996, 22.2182, 34.8171, -29.493, -26.3867
3.72809, 5, 16.8872, 17.1829, 22.1621, 34.5873, -29.5582, -26.1516
3.73502, 5, 16.8228, 17.2661, 22.1062, 34.3582, -29.6243, -25.918
3.74401, 5, 16.7585, 17.3492, 22.0504, 34.1297, -29.6907, -25.6854
3.75101, 5, 16.6943, 17.4322, 21.9948, 33.9022, -29.7579, -25.4538
3.75902, 5, 16.63, 17.5151, 21.9395, 33.6755, -29.826, -25.2235
3.76801, 5, 16.5656, 17.598, 21.8843, 33.4493, -29.8942, -24.9943
3.77502, 5, 16.5012, 17.6808, 21.8293, 33.2243, -29.9636, -24.7664
3.78401, 5, 16.4366, 17.7635, 21.7748, 33.0001, -30.0327, -24.5396
3.79202, 5, 16.3717, 17.8463, 21.7203, 32.7767, -30.1037, -24.3135
3.80101, 5, 16.3066, 17.9288, 21.6662, 32.5539, -30.1743, -24.0887
3.80702, 5, 16.2413, 18.0111, 21.6124, 32.3322, -30.2464, -23.8649
3.816, 5, 16.1759, 18.0933, 21.5588, 32.1113, -30.3181, -23.6423
3.82407, 5, 16.1105, 18.1754, 21.5054, 31.8912, -30.3915, -23.4209
3.83202, 5, 16.045, 18.2573, 21.4522, 31.6717, -30.4647, -23.2003
3.83909, 5, 15.9795, 18.3389, 21.3992, 31.4534, -30.5389, -22.9809
3.84803, 5, 15.9138, 18.4203, 21.3464, 31.2359, -30.6132, -22.7628
3.856, 5, 15.848, 18.5016, 21.2939, 31.0191, -30.6888, -22.546
3.86404, 5, 15.7821, 18.5826, 21.2415, 30.8031, -30.7644, -22.3305
3.87206, 5, 15.7163, 18.6634, 21.1894, 30.5881, -30.841, -22.1159
3.87917, 5, 15.6505, 18.7441, 21.1376, 30.3739, -30.9178, -21.9025
3.88716, 5, 15.5847, 18.8246, 21.086, 30.1605, -30.9954, -21.6903
3.89512, 5, 15.5189, 18.9052, 21.0345, 29.948, -31.0735, -21.4796
3.90318, 5, 15.453, 18.9855, 20.9835, 29.7366, -31.1519, -21.2702
3.91112, 5, 15.3869, 19.0658, 20.9327, 29.5259, -31.2313, -21.0619
3.91912, 5, 15.3208, 19.1459, 20.8822, 29.3162, -31.311, -20.8547
3.92733, 5, 15.2545, 19.226, 20.8319, 29.1072, -31.3916, -20.6488
3.93508, 5, 15.1882, 19.3059, 20.7818, 28.8993, -31.4722, -20.4441
3.94305, 5, 15.1219, 19.3856, 20.732, 28.6923, -31.554, -20.2409
3.95121, 5, 15.0555, 19.465, 20.6823, 28.486, -31.636, -20.0385
3.95915, 5, 14.989, 19.5443, 20.633, 28.2805, -31.7188, -19.8373
3.96731, 5, 14.9223, 19.6235, 20.5838, 28.0761, -31.802, -19.6372
3.97559, 5, 14.8555, 19.7024, 20.5348, 27.8727, -31.8859, -19.4385
3.98401, 5, 14.7886, 19.7811, 20.486, 27.6699, -31.9703, -19.241
3.99203, 5, 14.7218, 19.8597, 20.4375, 27.468, -32.0548, -19.0449
4.00013, 5, 14.6549, 19.9381, 20.3892, 27.267, -32.1404, -18.8496
4.00759, 5, 14.588, 20.0163, 20.3412, 27.0669, -32.2261, -18.6555
4.01609, 5, 14.5211, 20.0944, 20.2935, 26.8677, -32.3122, -18.4627
4.02417, 5, 14.4541, 20.1722, 20.246, 26.6693, -32.399, -18.2713
4.03161, 5, 14.3868, 20.25, 20.1988, 26.4718, -32.4863, -18.0811
4.04015, 5, 14.3195, 20.3277, 20.1517, 26.2753, -32.5741, -17.8922
4.04785, 5, 14.2859, 20.3665, 20.105, 26.0797, -32.6623, -17.7042
4.05601, 5, 14.1849, 20.4827, 20.0583, 25.885, -32.7511, -17.5175
4.06306, 5, 14.1513, 20.5215, 20.0351, 25.7879, -32.7956, -17.4246
4.07243, 5, 14.0503, 20.6373, 19.966, 25.498, -32.9299, -17.1477
4.079, 5, 14.0166, 20.6758, 19.943, 25.402, -32.9751, -17.056
4.08819, 5, 13.9154, 20.7912, 19.8745, 25.1149, -33.1111, -16.7832
4.09502, 5, 13.8816, 20.8295, 19.8517, 25.0196, -33.1565, -16.6928
4.10439, 5, 13.7805, 20.9441, 19.7839, 24.7349, -33.2937, -16.4232
4.11105, 5, 13.7467, 20.9822, 19.7614, 24.6405, -33.3395, -16.3341
4.1208, 5, 13.6457, 21.0963, 19.6942, 24.3588, -33.4779, -16.0683
4.12848, 5, 13.5783, 21.1721, 19.6498, 24.1718, -33.5709, -15.8927
4.135, 5, 13.5445, 21.21, 19.6277, 24.0787, -33.6175, -15.8055
4.14461, 5, 13.4429, 21.3232, 19.5615, 23.8004, -33.7581, -15.5449
4.15256, 5, 13.3752, 21.3986, 19.5178, 23.6161, -33.8524, -15.3728
4.1606, 5, 13.3073, 21.4738, 19.4742, 23.4326, -33.9472, -15.2015
4.16907, 5, 13.2734, 21.5114, 19.4526, 23.2499, -34.0422, -15.0316
4.176, 5, 13.2054, 21.5864, 19.4095, 23.1587, -34.0898, -14.9471
4.18404, 5, 13.1373, 21.6612, 19.3665, 22.9774, -34.1857, -14.7789
4.19201, 5, 13.069, 21.7357, 19.3239, 22.7969, -34.2819, -14.6122
4.19999, 5, 13.0006, 21.8102, 19.2814, 22.6174, -34.3783, -14.4461
4.20808, 5, 12.932, 21.8845, 19.2391, 22.4387, -34.4756, -14.2813
4.216, 5, 12.8634, 21.9585, 19.1971, 22.2606, -34.5733, -14.1178
4.22399, 5, 12.7948, 22.0323, 19.1553, 22.0836, -34.671, -13.9553
4.23211, 5, 12.7262, 22.106, 19.1139, 21.9073, -34.7696, -13.7941
4.24, 5, 12.6575, 22.1794, 19.0726, 21.732, -34.8685, -13.6341
4.248, 5, 12.5888, 22.2527, 19.0316, 21.5574, -34.9675, -13.4754
4.25607, 5, 12.5201, 22.3258, 18.9909, 21.3836, -35.0672, -13.3174
4.26399, 5, 12.4513, 22.3987, 18.9504, 21.2106, -35.1673, -13.1607
4.27206, 5, 12.3825, 22.4715, 18.9102, 21.0385, -35.2675, -13.0052
4.27999, 5, 12.3137, 22.5441, 18.8703, 20.8673, -35.3683, -12.8508
4.28801, 5, 12.2449, 22.6166, 18.8305, 20.6967, -35.4695, -12.6977
4.29754, 5, 12.1761, 22.6889, 18.7911, 20.5269, -35.5709, -12.4706
4.30399, 5, 12.1071, 22.761, 18.7519, 20.3579, -35.6728, -12.3954
4.31305, 5, 12.038, 22.833, 18.7128, 20.1898, -35.7749, -12.2459
4.32005, 5, 11.9688, 22.9047, 18.6742, 20.0225, -35.8775, -12.0973
4.328, 5, 11.8996, 22.9762, 18.6356, 19.8559, -35.9805, -11.95
4.336, 5, 11.8304, 23.0476, 18.5973, 19.6899, -36.0837, -11.8039
4.34405, 5, 11.7611, 23.1187, 18.5594, 19.525, -36.1875, -11.6587
4.35199, 5, 11.6918, 23.1896, 18.5215, 19.3608, -36.2913, -11.5149
4.3599, 5, 11.6224, 23.2603, 18.484, 19.1975, -36.3953, -11.3724
4.36807, 5, 11.5528, 23.3308, 18.4468, 19.035, -36.5, -11.231
4.37602, 5, 11.4831, 23.4012, 18.4098, 18.8731, -36.6047, -11.0903
4.38401, 5, 11.4134, 23.4713, 18.3729, 18.712, -36.7097, -10.9508
4.39206, 5, 11.3435, 23.5413, 18.3365, 18.5516, -36.8154, -10.8123
4.40002, 5, 11.2737, 23.6111, 18.3002, 18.3922, -36.9213, -10.6747
4.408, 5, 11.2037, 23.6808, 18.2641, 18.2335, -37.0274, -10.5387
4.41609, 5, 11.1337, 23.7504, 18.2284, 18.0754, -37.1341, -10.4035
4.42403, 5, 11.0638, 23.8197, 18.1928, 17.9179, -37.2408, -10.2694
4.432, 5, 10.9939, 23.8889, 18.1575, 17.7612, -37.3479, -10.1366
4.44005, 5, 10.924, 23.9578, 18.1226, 17.6055, -37.4554, -10.0045
4.44799, 5, 10.8542, 24.0266, 18.0878, 17.4505, -37.563, -9.87346
4.45603, 5, 10.7843, 24.0952, 18.0531, 17.2962, -37.6712, -9.74367
4.46419, 5, 10.7144, 24.1636, 18.0188, 17.1423, -37.7798, -9.61455
4.47121, 5, 10.6445, 24.2319, 17.9847, 16.9893, -37.8885, -9.48695
4.48064, 5, 10.5746, 24.2998, 17.9508, 16.8371, -37.9977, -9.36029
4.48799, 5, 10.5045, 24.3677, 17.9172, 16.6855, -38.1071, -9.23467
4.49601, 5, 10.4344, 24.4354, 17.8838, 16.5348, -38.2169, -9.11037
4.50489, 5, 10.3643, 24.5029, 17.8506, 16.3847, -38.327, -8.9871
4.51208, 5, 10.2941, 24.5701, 17.8177, 16.235, -38.4371, -8.86454
4.51956, 5, 10.2238, 24.6372, 17.7852, 16.0863, -38.5477, -8.74303
4.52891, 5, 10.1534, 24.704, 17.7528, 15.9382, -38.6586, -8.62271
4.53609, 5, 10.083, 24.7707, 17.7206, 15.791, -38.7695, -8.50309
4.54379, 5, 10.0124, 24.8373, 17.6887, 15.6444, -38.8809, -8.38488
4.55289, 5, 9.94169, 24.9036, 17.6572, 15.4985, -38.9923, -8.26753
4.56004, 5, 9.87101, 24.9697, 17.6258, 15.353, -39.1041, -8.15142
4.56709, 5, 9.83563, 25.0027, 17.6102, 15.2805, -39.1602, -8.09372
4.57694, 5, 9.72918, 25.1015, 17.5639, 15.0644, -39.3282, -7.92234
4.58408, 5, 9.65811, 25.1671, 17.5333, 14.9212, -39.4408, -7.8093
4.59103, 5, 9.62259, 25.1999, 17.5181, 14.8498, -39.4971, -7.75296
4.60114, 5, 9.51594, 25.2978, 17.473, 14.6364, -39.6662, -7.58558
4.60716, 5, 9.48033, 25.3303, 17.4582, 14.5655, -39.7228, -7.53026
4.61636, 5, 9.37349, 25.4275, 17.4137, 14.3538, -39.8926, -7.36602
4.62299, 5, 9.33787, 25.4597, 17.399, 14.2836, -39.9495, -7.31183
4.63308, 5, 9.23098, 25.5563, 17.3554, 14.0741, -40.1203, -7.15049
4.63898, 5, 9.19537, 25.5883, 17.341, 14.0045, -40.1771, -7.09733
4.64712, 5, 9.12415, 25.6523, 17.3123, 13.8658, -40.2914, -6.99149
4.65659, 5, 9.01725, 25.7478, 17.2698, 13.6586, -40.4629, -6.83499
4.66454, 5, 8.98158, 25.7795, 17.2418, 13.5213, -40.5776, -6.73171
4.67258, 5, 8.91024, 25.8429, 17.2279, 13.4529, -40.6351, -6.62913
4.68055, 5, 8.83874, 25.9061, 17.2003, 13.3165, -40.75, -6.57816
4.68797, 5, 8.76718, 25.9691, 17.1729, 13.1807, -40.8652, -6.4771
4.69599, 5, 8.69557, 26.0319, 17.1459, 13.0454, -40.9805, -6.37682
4.70403, 5, 8.62397, 26.0944, 17.1192, 12.9106, -41.096, -6.27734
4.71201, 5, 8.55228, 26.1568, 17.0927, 12.7763, -41.2118, -6.17893
4.71998, 5, 8.48058, 26.2189, 17.0664, 12.6427, -41.3275, -6.08156
4.72803, 5, 8.40878, 26.2808, 17.0403, 12.5096, -41.4436, -5.98511
4.73601, 5, 8.33682, 26.3424, 17.0146, 12.3773, -41.5599, -5.88926
4.74397, 5, 8.26482, 26.4038, 16.9892, 12.2454, -41.6762, -5.79482
4.75204, 5, 8.19278, 26.4651, 16.9639, 12.1142, -41.793, -5.70083
4.76001, 5, 8.12068, 26.526, 16.939, 11.9834, -41.9097, -5.60793
4.76797, 5, 8.04852, 26.5867, 16.9144, 11.853, -42.0269, -5.51541
4.77604, 5, 7.97653, 26.6474, 16.89, 11.7232, -42.1442, -5.42395
4.78397, 5, 7.90436, 26.7078, 16.8659, 11.5941, -42.2615, -5.33325
4.79199, 5, 7.83223, 26.768, 16.842, 11.4656, -42.3792, -5.24374
4.8015, 5, 7.76009, 26.828, 16.8184, 11.3374, -42.4969, -5.15455
4.80797, 5, 7.68793, 26.8878, 16.7952, 11.2098, -42.6149, -5.06663
4.81703, 5, 7.61591, 26.9473, 16.7722, 11.0824, -42.7328, -4.97971
4.82409, 5, 7.54405, 27.0067, 16.7494, 10.9556, -42.8509, -4.89339
4.83198, 5, 7.47216, 27.0658, 16.7268, 10.8294, -42.9694, -4.80821
4.83997, 5, 7.40014, 27.1246, 16.7045, 10.7038, -43.0877, -4.72373
4.84797, 5, 7.32815, 27.1832, 16.6825, 10.5788, -43.2064, -4.64057
4.85598, 5, 7.25605, 27.2415, 16.6609, 10.4542, -43.3251, -4.55752
4.86404, 5, 7.18396, 27.2996, 16.6393, 10.33, -43.4439, -4.47607
4.87198, 5, 7.11174, 27.3576, 16.618, 10.2061, -43.5631, -4.39457
4.88001, 5, 7.03932, 27.4154, 16.5972, 10.0828, -43.6818, -4.31451
4.88804, 5, 6.96671, 27.4728, 16.5765, 9.95984, -43.8011, -4.23492
4.89597, 5, 6.89389, 27.5301, 16.5562, 9.83764, -43.9203, -4.1563
4.90401, 5, 6.82088, 27.5872, 16.536, 9.7158, -44.0396, -4.07873
4.91205, 5, 6.74786, 27.6439, 16.5161, 9.59451, -44.1591, -4.00154
4.91999, 5, 6.6747, 27.7005, 16.4965, 9.47352, -44.2785, -3.92594
4.92801, 5, 6.60163, 27.7568, 16.4772, 9.35277, -44.3983, -3.85054
4.93604, 5, 6.52851, 27.8129, 16.4582, 9.23276, -44.518, -3.77648
4.94397, 5, 6.45535, 27.8687, 16.4395, 9.11304, -44.6378, -3.70319
4.95199, 5, 6.38221, 27.9244, 16.4209, 8.9941, -44.7579, -3.63029
4.96004, 5, 6.3091, 27.9798, 16.4026, 8.87557, -44.878, -3.55919
4.96812, 5, 6.23603, 28.035, 16.3846, 8.75736, -44.9985, -3.48808
4.97651, 5, 6.16301, 28.09, 16.3669, 8.63974, -45.119, -3.41794
4.98331, 5, 6.09013, 28.1449, 16.3495, 8.52231, -45.2398, -3.3488
4.99176, 5, 6.01708, 28.1995, 16.3325, 8.40534, -45.3606, -3.27973
5.00018, 5, 5.94394, 28.2539, 16.3157, 8.28884, -45.4815, -3.21212
5.0075, 5, 5.87067, 28.3081, 16.299, 8.17272, -45.6026, -3.14491
5.01606, 5, 5.79741, 28.362, 16.2828, 8.0572, -45.7237, -3.07823
5.02436, 5, 5.72404, 28.4155, 16.2668, 7.94195, -45.8449, -3.01313
5.03155, 5, 5.65069, 28.4689, 16.251, 7.82718, -45.9662, -2.94796
5.04008, 5, 5.57728, 28.5219, 16.2355, 7.71257, -46.0877, -2.88383
5.04862, 5, 5.50365, 28.5748, 16.2204, 7.59834, -46.2091, -2.821
5.05597, 5, 5.42992, 28.6273, 16.2055, 7.4845, -46.3304, -2.75821
5.06303, 5, 5.39304, 28.6535, 16.1981, 7.42767, -46.3913, -2.72707
5.07281, 5, 5.28221, 28.7318, 16.1764, 7.25823, -46.5736, -2.63607
5.08001, 5, 5.20821, 28.7837, 16.1624, 7.14561, -46.6953, -2.5756
5.08704, 5, 5.17122, 28.8096, 16.1554, 7.08946, -46.7561, -2.54556
5.09702, 5, 5.06006, 28.8871, 16.1351, 6.92156, -46.9383, -2.45788
5.1042, 5, 4.98595, 28.9384, 16.1221, 6.80987, -47.0602, -2.39996
5.11102, 5, 4.94891, 28.9639, 16.1157, 6.75412, -47.1209, -2.37109
5.12108, 5, 4.83792, 29.0402, 16.0969, 6.58759, -47.3033, -2.28627
5.1271, 5, 4.80094, 29.0655, 16.0907, 6.53216, -47.3643, -2.25834
5.13687, 5, 4.69024, 29.1409, 16.0723, 6.3667, -47.5468, -2.17467
5.14529, 5, 4.61637, 29.1908, 16.0606, 6.2567, -47.669, -2.12041
5.15097, 5, 4.57946, 29.2157, 16.0548, 6.20183, -47.7299, -2.09361
5.16058, 5, 4.46902, 29.2898, 16.0379, 6.03778, -47.9131, -2.01319
5.16929, 5, 4.43222, 29.3144, 16.027, 5.92858, -48.035, -1.96049
5.17496, 5, 4.35862, 29.3634, 16.0217, 5.8742, -48.096, -1.93471
5.18522, 5, 4.24811, 29.4366, 16.0063, 5.71148, -48.2794, -1.85793
5.19103, 5, 4.21126, 29.4608, 16.0014, 5.65739, -48.3404, -1.83238
5.20103, 5, 4.10041, 29.5332, 15.9868, 5.49586, -48.5239, -1.75735
5.20705, 5, 4.06341, 29.5572, 15.9821, 5.44219, -48.585, -1.73294
5.21599, 5, 3.98926, 29.6053, 15.9729, 5.33501, -48.7074, -1.68453
5.22297, 5, 3.91499, 29.653, 15.9639, 5.2283, -48.83, -1.6361
5.23199, 5, 3.84055, 29.7005, 15.9553, 5.12163, -48.9522, -1.58875
5.23896, 5, 3.76602, 29.7477, 15.9471, 5.01514, -49.0749, -1.54265
5.24796, 5, 3.69126, 29.7945, 15.9391, 4.90913, -49.1973, -1.49683
5.2562, 5, 3.61635, 29.8411, 15.9314, 4.80339, -49.3199, -1.4511
5.26398, 5, 3.54143, 29.8873, 15.924, 4.69797, -49.4424, -1.40628
5.27096, 5, 3.46653, 29.9332, 15.9168, 4.59288, -49.5648, -1.36271
5.28076, 5, 3.39165, 29.9789, 15.9099, 4.48793, -49.6873, -1.3198
5.28795, 5, 3.31686, 30.0242, 15.9034, 4.38341, -49.8096, -1.27695
5.29496, 5, 3.24203, 30.0692, 15.8973, 4.27896, -49.9322, -1.23453
5.3049, 5, 3.16714, 30.1141, 15.8914, 4.17464, -50.0544, -1.1933
5.31196, 5, 3.09232, 30.1587, 15.8859, 4.0707, -50.1768, -1.15278
5.321, 5, 3.01756, 30.2031, 15.8808, 3.96691, -50.2991, -1.11242
5.32881, 5, 2.94286, 30.2473, 15.8759, 3.86362, -50.4212, -1.07219
5.33595, 5, 2.86816, 30.2912, 15.8713, 3.76064, -50.5438, -1.03307
5.34402, 5, 2.79339, 30.3351, 15.8669, 3.65785, -50.6657, -0.994941
5.35277, 5, 2.71841, 30.3785, 15.8627, 3.55537, -50.7881, -0.957427
5.35903, 5, 2.64347, 30.4216, 15.8589, 3.45295, -50.9102, -0.920146
5.36796, 5, 2.56845, 30.4645, 15.8553, 3.35073, -51.0323, -0.883053
5.37506, 5, 2.49348, 30.5072, 15.8521, 3.24863, -51.1547, -0.846965
5.38305, 5, 2.41844, 30.5494, 15.8492, 3.14681, -51.2766, -0.811803
5.39105, 5, 2.34342, 30.5912, 15.8466, 3.04519, -51.3989, -0.777473
5.40122, 5, 2.26817, 30.6327, 15.8445, 2.94406, -51.521, -0.743559
5.40806, 5, 2.19276, 30.6739, 15.8426, 2.84305, -51.6432, -0.709673
5.41595, 5, 2.11732, 30.7149, 15.8411, 2.74221, -51.7654, -0.676474
5.42395, 5, 2.04183, 30.7556, 15.8398, 2.64178, -51.8873, -0.644362
5.43207, 5, 1.96635, 30.796, 15.8389, 2.54127, -52.0096, -0.61298
5.43996, 5, 1.891, 30.8362, 15.8382, 2.44078, -52.1316, -0.582487
5.44796, 5, 1.81557, 30.8763, 15.8378, 2.34086, -52.2536, -0.552213
5.456, 5, 1.74, 30.916, 15.8377, 2.24111, -52.3754, -0.522041
5.46395, 5, 1.66448, 30.9556, 15.8376, 2.14155, -52.4973, -0.492609
5.47201, 5, 1.589, 30.9949, 15.8377, 2.04259, -52.6193, -0.46417
5.47995, 5, 1.51368, 31.034, 15.8379, 1.9435, -52.7412, -0.436617
5.48803, 5, 1.43861, 31.0728, 15.8384, 1.84467, -52.8633, -0.409738
5.49598, 5, 1.36359, 31.1113, 15.8392, 1.74621, -52.9851, -0.38322
5.50399, 5, 1.2886, 31.1494, 15.8404, 1.64775, -53.107, -0.356993
5.5121, 5, 1.21353, 31.1872, 15.842, 1.54928, -53.2287, -0.330906
5.51948, 5, 1.13839, 31.2247, 15.8439, 1.45127, -53.3504, -0.30551
5.52812, 5, 1.06322, 31.2618, 15.846, 1.35329, -53.4722, -0.280844
5.53552, 5, 0.987945, 31.2987, 15.8485, 1.25572, -53.5939, -0.256721
5.54405, 5, 0.912638, 31.3354, 15.8514, 1.15858, -53.7159, -0.232837
5.55216, 5, 0.837087, 31.3717, 15.8547, 1.06154, -53.8379, -0.208916
5.55895, 5, 0.799234, 31.3899, 15.8565, 1.01317, -53.8991, -0.196761
5.56798, 5, 0.685347, 31.4444, 15.8628, 0.868791, -54.0835, -0.158756
5.57609, 5, 0.609376, 31.4805, 15.8676, 0.772905, -54.2067, -0.132199
5.58297, 5, 0.571332, 31.4985, 15.8702, 0.725047, -54.2687, -0.118583
5.59207, 5, 0.45727, 31.5525, 15.8784, 0.58247, -54.4556, -0.0760574
5.59896, 5, 0.419278, 31.5706, 15.8814, 0.53517, -54.5182, -0.0613771
5.60903, 5, 0.305215, 31.6245, 15.8909, 0.394362, -54.7077, -0.0149224
5.61625, 5, 0.229208, 31.6605, 15.8977, 0.301316, -54.8349, 0.0183232
5.62292, 6, 0.19122, 31.6785, 15.9012, 0.254995, -54.8991, 0.0356902
5.63243, 6, 0.0773049, 31.7323, 15.9124, 0.116851, -55.0924, 0.0893687
5.64049, 6, 0.00151107, 31.7681, 15.9204, 0.0255008, -55.2228, 0.12646
5.64848, 6, -0.0742006, 31.804, 15.9288, -0.0654566, -55.3539, 0.16518
5.65649, 6, -0.149929, 31.8399, 15.9375, -0.156014, -55.4864, 0.205988
5.66455, 6, -0.225723, 31.8756, 15.9467, -0.245599, -55.6196, 0.248321
5.67253, 6, -0.263553, 31.8935, 15.9515, -0.334909, -55.7542, 0.291492
5.68048, 6, -0.339153, 31.9294, 15.9612, -0.379215, -55.8219, 0.313595
5.68799, 6, -0.414846, 31.9653, 15.9713, -0.467464, -55.9578, 0.359111
5.69595, 6, -0.490451, 32.0011, 15.9819, -0.55477, -56.0953, 0.406356
5.70395, 6, -0.566075, 32.0369, 15.9929, -0.641759, -56.2335, 0.454385
5.71199, 6, -0.641809, 32.0729, 16.0042, -0.728091, -56.3729, 0.503296
5.71998, 6, -0.717569, 32.1088, 16.0157, -0.813603, -56.513, 0.553415
5.72794, 6, -0.793377, 32.1446, 16.0276, -0.899027, -56.6541, 0.604799
5.73598, 6, -0.86932, 32.1804, 16.04, -0.983904, -56.7956, 0.655815
5.74399, 6, -0.945236, 32.2162, 16.0526, -1.0683, -56.938, 0.70668
5.75194, 6, -1.02124, 32.2518, 16.0654, -1.15234, -57.0805, 0.75849
5.76007, 6, -1.09713, 32.2874, 16.0786, -1.23601, -57.2235, 0.809908
5.76798, 6, -1.17291, 32.3229, 16.0924, -1.31955, -57.3665, 0.860225
5.776, 6, -1.2486, 32.3581, 16.1066, -1.40226, -57.5101, 0.91021
5.78395, 6, -1.32425, 32.3933, 16.1209, -1.48526, -57.6532, 0.96017
5.79195, 6, -1.39985, 32.4282, 16.1353, -1.56781, -57.797, 1.00918
5.8, 6, -1.47536, 32.463, 16.1503, -1.64994, -57.9405, 1.05727
5.80959, 6, -1.5508, 32.4975, 16.1655, -1.73228, -58.1566, 1.1291
5.81595, 6, -1.62601, 32.532, 16.1807, -1.81419, -58.2286, 1.15291
5.82403, 6, -1.70115, 32.5662, 16.1964, -1.89634, -58.373, 1.19964
5.833, 6, -1.77623, 32.6002, 16.2127, -1.97772, -58.5173, 1.24527
5.83995, 6, -1.85132, 32.634, 16.2291, -2.05938, -58.6619, 1.29067
5.848, 6, -1.92639, 32.6676, 16.2457, -2.14042, -58.8068, 1.33593
5.85593, 6, -2.00166, 32.7011, 16.2627, -2.22134, -58.9518, 1.38013
5.86398, 6, -2.07696, 32.7342, 16.2801, -2.30205, -59.0969, 1.42341
5.87198, 6, -2.15224, 32.7672, 16.2976, -2.38256, -59.2424, 1.46624
5.87993, 6, -2.22764, 32.8, 16.3157, -2.46304, -59.388, 1.5089
5.88814, 6, -2.30317, 32.8325, 16.334, -2.54295, -59.5338, 1.55078
5.89504, 6, -2.37883, 32.8648, 16.3524, -2.62322, -59.6797, 1.59148
5.90394, 6, -2.45476, 32.8971, 16.3712, -2.70306, -59.8258, 1.63153
5.9132, 6, -2.53079, 32.9292, 16.3903, -2.78294, -59.9717, 1.67134
5.91993, 6, -2.60677, 32.9609, 16.4096, -2.86253, -60.118, 1.71104
5.92799, 6, -2.68268, 32.9925, 16.4294, -2.94209, -60.264, 1.74964
5.93598, 6, -2.75859, 33.024, 16.4495, -3.02137, -60.4104, 1.78707
5.94394, 6, -2.83441, 33.0553, 16.4698, -3.10015, -60.5567, 1.82404
5.95215, 6, -2.91029, 33.0863, 16.4904, -3.17907, -60.7031, 1.86094
5.95996, 6, -2.98612, 33.1171, 16.5112, -3.25747, -60.8495, 1.89767
5.96793, 6, -3.06175, 33.1479, 16.5324, -3.33617, -60.9962, 1.9333
5.976, 6, -3.13722, 33.1783, 16.5539, -3.41439, -61.1427, 1.96793
5.984, 6, -3.21268, 33.2085, 16.5757, -3.49297, -61.2895, 2.00209
5.99194, 6, -3.28809, 33.2385, 16.5978, -3.57106, -61.4362, 2.03575
6.00001, 6, -3.36358, 33.2683, 16.6202, -3.64941, -61.5831, 2.06934
6.00835, 6, -3.43911, 33.298, 16.6429, -3.72708, -61.7301, 2.1023
6.01559, 6, -3.51465, 33.3274, 16.666, -3.80511, -61.8772, 2.13434
6.02409, 6, -3.59016, 33.3564, 16.6891, -3.88281, -62.0243, 2.16568
6.03235, 6, -3.66566, 33.3854, 16.7127, -3.96002, -62.1715, 2.19652
6.03956, 6, -3.74115, 33.4142, 16.7366, -4.03743, -62.3189, 2.2272
6.04816, 6, -3.8167, 33.4428, 16.7608, -4.11447, -62.4665, 2.25768
6.05649, 6, -3.85457, 33.457, 16.7731, -4.153, -62.6142, 2.28758
6.06495, 6, -3.96829, 33.4992, 16.8101, -4.26818, -62.7618, 2.31636
6.07196, 6, -4.04409, 33.5272, 16.8351, -4.3453, -62.9094, 2.34428
6.07902, 6, -4.08201, 33.5411, 16.8477, -4.38356, -62.9833, 2.35805
6.08694, 6, -4.15775, 33.5687, 16.8733, -4.46051, -63.1311, 2.38512
6.09606, 6, -4.27128, 33.6097, 16.9122, -4.57517, -63.3531, 2.42528
6.10298, 6, -4.30916, 33.6233, 16.9252, -4.61357, -63.4271, 2.43862
6.11226, 6, -4.42275, 33.6637, 16.965, -4.7279, -63.6495, 2.47757
6.11897, 6, -4.46058, 33.6771, 16.9785, -4.76606, -63.7235, 2.49012
6.12915, 6, -4.57379, 33.7169, 17.0191, -4.87972, -63.9458, 2.52649
6.13644, 6, -4.649, 33.7432, 17.0464, -4.95557, -64.0939, 2.54992
6.14445, 6, -4.72387, 33.7693, 17.0741, -5.03133, -64.2422, 2.57297
6.1534, 6, -4.79881, 33.7952, 17.1023, -5.10675, -64.3904, 2.59562
6.15894, 6, -4.83622, 33.8081, 17.1164, -5.14442, -64.4647, 2.60677
6.16852, 6, -4.94851, 33.8463, 17.1591, -5.25775, -64.687, 2.63984
6.17731, 6, -4.98592, 33.8589, 17.1735, -5.33349, -64.8354, 2.66109
6.18293, 6, -5.0608, 33.8841, 17.2026, -5.37122, -64.9095, 2.67138
6.19302, 6, -5.17325, 33.9214, 17.2467, -5.48408, -65.1321, 2.70108
6.19993, 6, -5.21078, 33.9337, 17.2616, -5.52173, -65.2063, 2.71075
6.20693, 6, -5.28607, 33.9581, 17.2915, -5.59674, -65.3547, 2.72961
6.21592, 6, -5.36157, 33.9823, 17.3219, -5.67165, -65.5031, 2.74763
6.22396, 6, -5.43724, 34.0063, 17.3525, -5.74635, -65.6516, 2.76543
6.23098, 6, -5.51295, 34.0302, 17.3832, -5.82118, -65.8001, 2.78275
6.23992, 6, -5.58861, 34.0537, 17.4144, -5.89591, -65.9486, 2.7998
6.24795, 6, -5.66426, 34.0771, 17.446, -5.97045, -66.0971, 2.8163
6.25493, 6, -5.73994, 34.1001, 17.4777, -6.04523, -66.2456, 2.83249
6.26392, 6, -5.81566, 34.123, 17.5097, -6.11978, -66.3941, 2.84799
6.27192, 6, -5.89129, 34.1458, 17.5421, -6.19463, -66.5429, 2.86269
6.27893, 6, -5.96685, 34.1682, 17.5749, -6.26898, -66.6917, 2.87668
6.28792, 6, -6.04238, 34.1905, 17.6078, -6.34381, -66.8404, 2.88996
6.29493, 6, -6.11779, 34.2125, 17.6411, -6.4181, -66.9891, 2.90263
6.30392, 6, -6.1932, 34.2342, 17.6747, -6.49259, -67.1378, 2.91488
6.31293, 6, -6.26857, 34.2559, 17.7085, -6.56658, -67.2863, 2.9267
6.31893, 6, -6.34396, 34.2773, 17.7426, -6.64098, -67.435, 2.93794
6.32792, 6, -6.41918, 34.2983, 17.7771, -6.71473, -67.5836, 2.94876
6.33597, 6, -6.49443, 34.3191, 17.8119, -6.78916, -67.7323, 2.95905
6.34399, 6, -6.56957, 34.3397, 17.8468, -6.86292, -67.8807, 2.96905
6.35192, 6, -6.64466, 34.3601, 17.8822, -6.93735, -68.0294, 2.97858
6.35993, 6, -6.71981, 34.3803, 17.9179, -7.01123, -68.1775, 2.98763
6.36792, 6, -6.795, 34.4002, 17.9539, -7.08584, -68.326, 2.99642
6.37594, 6, -6.8702, 34.4199, 17.9902, -7.15945, -68.4741, 3.00473
6.38399, 6, -6.94547, 34.4395, 18.0268, -7.23387, -68.6225, 3.01235
6.39197, 6, -7.0208, 34.4586, 18.0637, -7.3077, -68.7708, 3.01942
6.39991, 6, -7.09613, 34.4776, 18.1011, -7.38181, -68.9194, 3.0258
6.40798, 6, -7.17162, 34.4965, 18.1386, -7.4553, -69.0676, 3.03163
6.41595, 6, -7.247, 34.5151, 18.1763, -7.52951, -69.2159, 3.03699
6.4231, 6, -7.32239, 34.5335, 18.2146, -7.60317, -69.3641, 3.04182
6.43199, 6, -7.3977, 34.5517, 18.2531, -7.67695, -69.5125, 3.04603
6.43998, 6, -7.47289, 34.5696, 18.2918, -7.75079, -69.6607, 3.04971
6.44792, 6, -7.54798, 34.5871, 18.331, -7.82484, -69.8091, 3.05281
6.45601, 6, -7.62305, 34.6045, 18.3703, -7.89882, -69.9573, 3.05533
6.46392, 6, -7.69799, 34.6218, 18.4099, -7.97283, -70.1057, 3.05734
6.47193, 6, -7.77276, 34.6388, 18.4499, -8.04672, -70.2539, 3.05884
6.48002, 6, -7.84739, 34.6553, 18.4901, -8.12067, -70.402, 3.05992
6.48792, 6, -7.92197, 34.6717, 18.5306, -8.19455, -70.5501, 3.06054
6.49599, 6, -7.99652, 34.688, 18.5715, -8.26814, -70.698, 3.06089
6.50392, 6, -8.07112, 34.7038, 18.6126, -8.34193, -70.8458, 3.06103
6.51196, 6, -8.14582, 34.7193, 18.6541, -8.41558, -70.9936, 3.06106
6.52007, 6, -8.22064, 34.7349, 18.6959, -8.48945, -71.1412, 3.06111
6.52802, 6, -8.29541, 34.7502, 18.7379, -8.56298, -71.2887, 3.06097
6.53602, 6, -8.37035, 34.7652, 18.7804, -8.63694, -71.4363, 3.06067
6.54409, 6, -8.44537, 34.7799, 18.823, -8.71054, -71.5836, 3.06002
6.55204, 6, -8.52056, 34.7945, 18.866, -8.78476, -71.731, 3.05893
6.55968, 6, -8.55823, 34.8017, 18.8877, -8.8585, -71.8784, 3.05726
6.56814, 6, -8.67121, 34.8229, 18.953, -8.93262, -72.0257, 3.05488
6.57492, 6, -8.70887, 34.8297, 18.975, -8.96967, -72.0994, 3.05337
6.58401, 6, -8.82171, 34.8501, 19.0412, -9.08055, -72.3198, 3.04785
6.59092, 6, -8.85931, 34.8568, 19.0634, -9.11742, -72.3934, 3.04551
6.60004, 6, -8.97194, 34.8766, 19.1305, -9.22822, -72.6138, 3.03701
6.60696, 6, -9.00952, 34.8829, 19.153, -9.26518, -72.6873, 3.03374
6.6163, 6, -9.12208, 34.9016, 19.2209, -9.37624, -72.9076, 3.02284
6.62298, 6, -9.15957, 34.9078, 19.2438, -9.4131, -72.981, 3.01887
6.63241, 6, -9.27182, 34.9261, 19.3128, -9.52447, -73.201, 3.00594
6.6404, 6, -9.34659, 34.9378, 19.3591, -9.59848, -73.3474, 2.99618
6.64844, 6, -9.42135, 34.9491, 19.4057, -9.67305, -73.4938, 2.98588
6.6565, 6, -9.49617, 34.9603, 19.4528, -9.74707, -73.6401, 2.97507
6.66449, 6, -9.57103, 34.9713, 19.5, -9.82178, -73.7863, 2.96381
6.67248, 6, -9.60846, 34.9823, 19.5477, -9.89592, -73.9324, 2.95214
6.6806, 6, -9.72057, 34.9929, 19.5956, -9.97046, -74.0785, 2.9402
6.6879, 6, -9.75796, 34.9981, 19.6197, -10.0074, -74.1514, 2.93419
6.69591, 6, -9.8327, 35.0083, 19.6681, -10.0819, -74.2973, 2.92193
6.70396, 6, -9.90741, 35.0182, 19.7167, -10.1559, -74.4431, 2.90891
6.7119, 6, -9.98229, 35.0278, 19.7657, -10.2306, -74.5886, 2.89563
6.7199, 6, -10.0572, 35.0372, 19.8149, -10.3048, -74.7343, 2.88177
6.72798, 6, -10.1321, 35.0464, 19.8644, -10.3798, -74.8796, 2.86759
6.73594, 6, -10.207, 35.0553, 19.9142, -10.4542, -75.0251, 2.85277
6.74392, 6, -10.2818, 35.0638, 19.9644, -10.5295, -75.1701, 2.83714
6.75194, 6, -10.3565, 35.072, 20.0149, -10.6039, -75.3153, 2.82081
6.75993, 6, -10.4313, 35.0799, 20.0656, -10.6792, -75.46, 2.80382
6.76795, 6, -10.506, 35.0875, 20.1167, -10.7541, -75.6048, 2.7863
6.7759, 6, -10.5807, 35.095, 20.1681, -10.8292, -75.7492, 2.76857
6.78391, 6, -10.6551, 35.1024, 20.2197, -10.9039, -75.8937, 2.75054
6.79095, 6, -10.7293, 35.1096, 20.2717, -10.9792, -76.0377, 2.73262
6.79992, 6, -10.8033, 35.1164, 20.324, -11.0542, -76.1819, 2.71398
6.80791, 6, -10.8772, 35.123, 20.3766, -11.1293, -76.3257, 2.69479
6.81597, 6, -10.9511, 35.1294, 20.4295, -11.2046, -76.4696, 2.67533
6.82497, 6, -11.0249, 35.1355, 20.4826, -11.2801, -76.6131, 2.65521
6.8319, 6, -11.0987, 35.1412, 20.536, -11.3557, -76.7568, 2.63439
6.83998, 6, -11.1726, 35.1467, 20.5898, -11.4312, -76.9002, 2.61279
6.84791, 6, -11.2466, 35.1519, 20.644, -11.5069, -77.0437, 2.59094
6.85591, 6, -11.3206, 35.157, 20.6984, -11.5825, -77.187, 2.56891
6.86396, 6, -11.3949, 35.1619, 20.7532, -11.6583, -77.3301, 2.54666
6.87191, 6, -11.4694, 35.1664, 20.8083, -11.7336, -77.473, 2.52404
6.87998, 6, -11.5438, 35.1706, 20.8636, -11.8096, -77.6158, 2.50101
6.88789, 6, -11.6183, 35.1745, 20.9193, -11.8851, -77.7582, 2.47728
6.89595, 6, -11.6928, 35.1782, 20.9754, -11.9613, -77.9008, 2.45273
6.90401, 6, -11.7672, 35.1815, 21.0316, -12.0369, -78.0428, 2.42748
6.9119, 6, -11.8417, 35.1847, 21.0882, -12.1133, -78.1848, 2.402
6.91994, 6, -11.9162, 35.1876, 21.1451, -12.1893, -78.3264, 2.37651
6.92796, 6, -11.9906, 35.1902, 21.2022, -12.2661, -78.4682, 2.3507
6.93591, 6, -12.065, 35.1924, 21.2597, -12.3422, -78.6091, 2.3244
6.94391, 6, -12.1392, 35.1944, 21.3176, -12.419, -78.7502, 2.29757
6.95197, 6, -12.2133, 35.1961, 21.3757, -12.4955, -78.8909, 2.2699
6.95991, 6, -12.2874, 35.1975, 21.4342, -12.5722, -79.0316, 2.24147
6.9679, 6, -12.3614, 35.1986, 21.493, -12.6488, -79.172, 2.21284
6.97614, 6, -12.4354, 35.1994, 21.5521, -12.7258, -79.3122, 2.18415
6.98318, 6, -12.5093, 35.1999, 21.6115, -12.8028, -79.4524, 2.15507
6.99132, 6, -12.583, 35.2002, 21.6713, -12.8797, -79.5922, 2.12544
6.99935, 6, -12.6567, 35.2003, 21.7313, -12.9571, -79.7321, 2.0952
7.0074, 6, -12.7303, 35.2003, 21.7916, -13.0345, -79.8716, 2.06405
7.01605, 6, -12.804, 35.2002, 21.8521, -13.1122, -80.0112, 2.03273
7.02525, 6, -12.8776, 35.1998, 21.913, -13.1897, -80.1505, 2.00132
7.03164, 6, -12.9514, 35.1992, 21.9742, -13.2679, -80.2898, 1.96976
7.04006, 6, -13.0252, 35.1983, 22.0358, -13.3455, -80.4286, 1.93776
7.048, 6, -13.0991, 35.1972, 22.0978, -13.4235, -80.5675, 1.90491
7.05601, 6, -13.173, 35.1959, 22.16, -13.5013, -80.7059, 1.87116
7.06411, 6, -13.2469, 35.1943, 22.2226, -13.5793, -80.8442, 1.83729
7.07214, 6, -13.3209, 35.1924, 22.2855, -13.6575, -80.9822, 1.80358
7.07993, 6, -13.3947, 35.1902, 22.3486, -13.7358, -81.12, 1.76937
7.08803, 6, -13.4685, 35.1877, 22.4121, -13.8144, -81.2573, 1.73458
7.0949, 6, -13.5053, 35.1863, 22.4439, -13.8538, -81.326, 1.71668
7.1041, 6, -13.6155, 35.1816, 22.5399, -13.9722, -81.5314, 1.66239
7.11097, 6, -13.6522, 35.1799, 22.572, -14.0116, -81.5999, 1.64446
7.12036, 6, -13.7621, 35.1742, 22.669, -14.1303, -81.8045, 1.59013
7.12698, 6, -13.7987, 35.1721, 22.7014, -14.1698, -81.8726, 1.57165
7.13631, 6, -13.9082, 35.1653, 22.7994, -14.2889, -82.0766, 1.51485
7.14295, 6, -13.9447, 35.1628, 22.8322, -14.3283, -82.1444, 1.49559
7.15252, 6, -14.0539, 35.1548, 22.9311, -14.4477, -82.3477, 1.43801
7.16043, 6, -14.1266, 35.1491, 22.9975, -14.5272, -82.4826, 1.39919
7.16953, 6, -14.1994, 35.1432, 23.064, -14.6068, -82.6177, 1.35966
7.17655, 6, -14.2722, 35.1371, 23.1308, -14.6869, -82.7523, 1.319
7.1844, 6, -14.3086, 35.1339, 23.1643, -14.727, -82.8197, 1.27856
7.19189, 6, -14.3815, 35.1273, 23.2316, -14.8072, -82.9539, 1.25837
7.1989, 6, -14.4544, 35.1203, 23.2993, -14.8873, -83.0879, 1.21735
7.209, 6, -14.5641, 35.1093, 23.4016, -15.0081, -83.2885, 1.15434
7.21589, 6, -14.6006, 35.1055, 23.4358, -15.0482, -83.3552, 1.13295
7.22394, 6, -14.6739, 35.0974, 23.5045, -15.1288, -83.4886, 1.09033
7.23192, 6, -14.7472, 35.089, 23.5736, -15.2093, -83.6217, 1.04759
7.23992, 6, -14.8204, 35.0805, 23.643, -15.2902, -83.7547, 1.00418
7.24795, 6, -14.8936, 35.0717, 23.7125, -15.3709, -83.8871, 0.959794
7.25603, 6, -14.9668, 35.0625, 23.7824, -15.4518, -84.0194, 0.915298
7.26393, 6, -15.0398, 35.0531, 23.8525, -15.5329, -84.1514, 0.871078
7.27189, 6, -15.1128, 35.0434, 23.923, -15.6141, -84.2831, 0.826165
7.27988, 6, -15.1857, 35.0332, 23.9939, -15.696, -84.4145, 0.780195
7.28795, 6, -15.2586, 35.0227, 24.065, -15.7774, -84.5457, 0.733862
7.2959, 6, -15.3313, 35.0121, 24.1366, -15.8594, -84.6766, 0.687754
7.30388, 6, -15.404, 35.0011, 24.2084, -15.9413, -84.8073, 0.641118
7.31195, 6, -15.4765, 34.9899, 24.2806, -16.0232, -84.9375, 0.593533
7.32153, 6, -15.549, 34.9784, 24.353, -16.1053, -85.0673, 0.545778
7.32788, 6, -15.6215, 34.9664, 24.4257, -16.1875, -85.1972, 0.498117
7.33596, 6, -15.6939, 34.9542, 24.4986, -16.27, -85.3263, 0.449748
7.34498, 6, -15.7662, 34.9418, 24.5718, -16.3523, -85.4555, 0.400269
7.35188, 6, -15.8384, 34.9291, 24.6455, -16.4353, -85.584, 0.350704
7.35995, 6, -15.9107, 34.9161, 24.7194, -16.5182, -85.7123, 0.30119
7.36789, 6, -15.9829, 34.9025, 24.7938, -16.6014, -85.8405, 0.250633
7.37595, 6, -16.0551, 34.8887, 24.8685, -16.6848, -85.9681, 0.199356
7.38388, 6, -16.1275, 34.8747, 24.9435, -16.7682, -86.0958, 0.148284
7.39189, 6, -16.1997, 34.8605, 25.0186, -16.8517, -86.2227, 0.0968318
7.39992, 6, -16.272, 34.8457, 25.0939, -16.9351, -86.3496, 0.0443054
7.40788, 6, -16.3441, 34.8306, 25.1696, -17.0189, -86.4759, -0.00859596
7.41595, 6, -16.4162, 34.8154, 25.2457, -17.1027, -86.602, -0.0612957
7.42392, 6, -16.4882, 34.8, 25.3221, -17.1867, -86.7277, -0.114875
7.43189, 6, -16.5602, 34.7841, 25.3988, -17.2711, -86.853, -0.169292
7.44005, 6, -16.6321, 34.7678, 25.476, -17.3554, -86.9783, -0.223377
7.44788, 6, -16.7039, 34.7513, 25.5534, -17.4403, -87.103, -0.277675
7.4559, 6, -16.7755, 34.7346, 25.6312, -17.5249, -87.2277, -0.333122
7.46395, 6, -16.8468, 34.7174, 25.7091, -17.61, -87.3517, -0.388681
7.47192, 6, -16.918, 34.6999, 25.7873, -17.6951, -87.4756, -0.444233
7.47988, 6, -16.9892, 34.6822, 25.8658, -17.78, -87.5991, -0.500912
7.48795, 6, -17.0602, 34.6643, 25.9446, -17.8654, -87.7225, -0.557767
7.49589, 6, -17.1312, 34.6457, 26.0238, -17.9509, -87.8455, -0.614446
7.50397, 6, -17.2021, 34.627, 26.1034, -18.0363, -87.9679, -0.672027
7.51198, 6, -17.273, 34.6081, 26.1833, -18.1222, -88.0902, -0.730388
7.51996, 6, -17.344, 34.5886, 26.2636, -18.2083, -88.2118, -0.788373
7.52803, 6, -17.4151, 34.5689, 26.3441, -18.2946, -88.3333, -0.847044
7.53598, 6, -17.4863, 34.5491, 26.4248, -18.3808, -88.4544, -0.906837
7.54398, 6, -17.5575, 34.5287, 26.5057, -18.4673, -88.5749, -0.966456
7.55212, 6, -17.6289, 34.508, 26.587, -18.5537, -88.6952, -1.02653
7.55943, 6, -17.6645, 34.4977, 26.6278, -18.6401, -88.8149, -1.08773
7.56792, 6, -17.7714, 34.466, 26.7508, -18.7269, -88.9346, -1.14862
7.57597, 6, -17.8426, 34.4444, 26.8333, -18.8137, -89.0535, -1.21007
7.58292, 6, -17.8781, 34.4335, 26.8747, -18.8572, -89.1126, -1.24126
7.59204, 6, -17.9848, 34.4004, 26.999, -18.9878, -89.2901, -1.33448
7.59891, 6, -18.0203, 34.3891, 27.0406, -19.0315, -89.3488, -1.36546
7.60805, 6, -18.1267, 34.3549, 27.1656, -19.163, -89.525, -1.46026
7.61524, 6, -18.1621, 34.3433, 27.2074, -19.2068, -89.5836, -1.49192
7.62426, 6, -18.2666, 34.3082, 27.3334, -19.3385, -89.7583, -1.58699
7.63093, 6, -18.3002, 34.2965, 27.3754, -19.3824, -89.8164, -1.61926
7.6404, 6, -18.3956, 34.2619, 27.5003, -19.5126, -89.9878, -1.71397
7.64844, 6, -18.4543, 34.2398, 27.5807, -19.5966, -90.0979, -1.77559
7.65644, 6, -18.5089, 34.2192, 27.6564, -19.6756, -90.2012, -1.83433
7.66464, 6, -18.5584, 34.2007, 27.725, -19.7475, -90.2946, -1.88729
7.67252, 6, -18.602, 34.1846, 27.7846, -19.809, -90.3756, -1.93326
7.68046, 6, -18.6217, 34.1707, 27.8336, -19.8603, -90.4419, -1.97161
7.68872, 6, -18.6742, 34.1592, 27.8718, -19.8988, -90.4932, -2.00158
7.69664, 6, -18.6891, 34.1544, 27.8869, -19.9262, -90.5295, -2.02339
7.7039, 6, -18.715, 34.1466, 27.9099, -19.9362, -90.5429, -2.0314
7.71193, 7, -18.7357, 34.141, 27.9251, -19.9504, -90.562, -2.04277
7.71992, 7, -18.7513, 34.1372, 27.9342, -19.9587, -90.5733, -2.04942
7.72787, 7, -18.7619, 34.1347, 27.9394, -19.9632, -90.5793, -2.05298
7.73591, 7, -18.7683, 34.1333, 27.9421, -19.9654, -90.5823, -2.05484
7.74391, 7, -18.7714, 34.1324, 27.9436, -19.9666, -90.5838, -2.05571
7.75194, 7, -18.7727, 34.1319, 27.9443, -19.9672, -90.5845, -2.05616
7.75992, 7, -18.7731, 34.1315, 27.9447, -19.9675, -90.585, -2.0563
7.76791, 7, -18.7724, 34.1311, 27.9449, -19.9677, -90.5852, -2.05643
7.77587, 7, -18.7717, 34.1309, 27.945, -19.9678, -90.5853, -2.05655
7.78386, 7, -18.7711, 34.1307, 27.9451, -19.9678, -90.5853, -2.05656
7.792, 7, -18.7705, 34.1305, 27.9452, -19.9679, -90.5854, -2.05655
7.79987, 7, -18.7702, 34.1305, 27.9453, -19.9679, -90.5854, -2.05651
7.8079, 7, -18.77, 34.1304, 27.9454, -19.968, -90.5854, -2.05655
7.81592, 7, -18.7699, 34.1304, 27.9455, -19.968, -90.5854, -2.0566
7.82546, 7, -18.77, 34.1304, 27.9455, -19.968, -90.5854, -2.05657
7.83194, 7, -18.7702, 34.1304, 27.9455, -19.9679, -90.5854, -2.05656
