hehonglu123/ABB_Primitive_Study/realrobot/movec_30_ori/curve_exe_v500_z1.csv
timestamp, cmd_num, J1, J2, J3, J4, J5, J6
0.000358, -1, -18.7716, 34.1301, 27.9459, -19.9682, -90.585, -2.05555
0.002199, -1, -18.7716, 34.1301, 27.9459, -19.9682, -90.585, -2.05555
0.007986, -1, -18.7716, 34.1301, 27.9459, -19.9682, -90.5851, -2.05552
0.029712, -1, -18.7717, 34.1301, 27.9459, -19.9682, -90.585, -2.05546
0.031635, -1, -18.7716, 34.1301, 27.9459, -19.9682, -90.5851, -2.05546
0.034556, -1, -18.7716, 34.1301, 27.9459, -19.9682, -90.5851, -2.05546
0.039906, -1, -18.7716, 34.1301, 27.9459, -19.9682, -90.585, -2.0555
0.047745, -1, -18.7715, 34.1301, 27.9459, -19.9682, -90.585, -2.05548
0.055858, -1, -18.7703, 34.1299, 27.9459, -19.9682, -90.585, -2.05553
0.064591, -1, -18.7665, 34.1287, 27.9459, -19.968, -90.5849, -2.05554
0.071822, -1, -18.7595, 34.1259, 27.946, -19.967, -90.5836, -2.05558
0.080025, -1, -18.7484, 34.1205, 27.9461, -19.9627, -90.5793, -2.05579
0.086733, -1, -18.7408, 34.1167, 27.9461, -19.9584, -90.5751, -2.05618
0.094793, -1, -18.7199, 34.1061, 27.946, -19.9435, -90.56, -2.05987
0.104153, -1, -18.6706, 34.0811, 27.945, -19.8977, -90.5125, -2.07906
0.110733, -1, -18.6487, 34.0701, 27.944, -19.8733, -90.4869, -2.08991
0.118849, -1, -18.5957, 34.0432, 27.9407, -19.8071, -90.4182, -2.1199
0.128316, -1, -18.4906, 33.99, 27.9309, -19.658, -90.2615, -2.19036
0.137112, -1, -18.403, 33.9458, 27.9203, -19.5202, -90.1164, -2.25593
0.142786, -1, -18.354, 33.9212, 27.9137, -19.4394, -90.0311, -2.29406
0.152349, -1, -18.1866, 33.8371, 27.8889, -19.1505, -89.7258, -2.43236
0.161271, -1, -18.0579, 33.7725, 27.8689, -18.9231, -89.485, -2.54039
0.168216, -1, -17.9887, 33.7379, 27.858, -18.8007, -89.3551, -2.59897
0.17578, -1, -17.8415, 33.6643, 27.8348, -18.5416, -89.0797, -2.7229
0.183724, -1, -17.6837, 33.5854, 27.8107, -18.2678, -88.7886, -2.85391
0.190893, -1, -17.5164, 33.5016, 27.7859, -17.9839, -88.4869, -2.99004
0.200907, -1, -17.2513, 33.3691, 27.7483, -17.5475, -88.0225, -3.19975
0.207726, -1, -17.1603, 33.3237, 27.7357, -17.4001, -87.866, -3.27065
0.214777, -1, -16.9757, 33.2315, 27.7105, -17.104, -87.5512, -3.41304
0.223748, -1, -16.7885, 33.1384, 27.6853, -16.8067, -87.2347, -3.55585
0.231725, -1, -16.5997, 33.0448, 27.6603, -16.5083, -86.9173, -3.69903
0.238734, -1, -16.4099, 32.9511, 27.6351, -16.2091, -86.5987, -3.84246
0.247732, -1, -16.2199, 32.8572, 27.6099, -15.9092, -86.2795, -3.98621
0.255741, -1, -16.03, 32.7634, 27.5848, -15.6083, -85.9596, -4.13029
0.262727, -1, -15.8404, 32.6697, 27.5598, -15.3071, -85.6392, -4.27451
0.271741, -1, -15.6515, 32.5759, 27.5346, -15.0056, -85.3182, -4.41935
0.279795, -1, -15.4629, 32.4822, 27.5093, -14.7036, -84.997, -4.56423
0.28675, -1, -15.2746, 32.3881, 27.484, -14.4012, -84.6752, -4.70917
0.295727, -1, -15.0868, 32.2938, 27.4587, -14.0985, -84.353, -4.85428
0.304739, -1, -14.8992, 32.1991, 27.4334, -13.7952, -84.0308, -4.99948
0.310757, -1, -14.711, 32.104, 27.4078, -13.4919, -83.7081, -5.14479
0.319803, -1, -14.5217, 32.0087, 27.3822, -13.1885, -83.3852, -5.29032
0.32779, -1, -14.3314, 31.9133, 27.3566, -12.8848, -83.0619, -5.43591
0.335724, -1, -14.1401, 31.8178, 27.331, -12.5812, -82.7384, -5.58185
0.343736, -1, -13.9481, 31.7222, 27.3054, -12.277, -82.4147, -5.72761
0.351788, -1, -13.7556, 31.6267, 27.2797, -11.9726, -82.0908, -5.87332
0.35979, -1, -13.5625, 31.5312, 27.2541, -11.6683, -81.7666, -6.0191
0.367727, -1, -13.3688, 31.4358, 27.2285, -11.3639, -81.4427, -6.1647
0.375787, -1, -13.1751, 31.3405, 27.2029, -11.0596, -81.1186, -6.31051
0.383726, -1, -12.982, 31.2453, 27.1773, -10.7553, -80.7948, -6.45632
0.392248, -1, -12.7896, 31.1501, 27.1517, -10.4507, -80.4712, -6.60208
0.399782, -1, -12.5977, 31.0551, 27.1263, -10.1465, -80.1478, -6.74809
0.407724, -1, -12.4067, 30.96, 27.1007, -9.8423, -79.8243, -6.89399
0.416501, -1, -12.2165, 30.8648, 27.0751, -9.53827, -79.5008, -7.03957
0.423727, -1, -12.0271, 30.7696, 27.0494, -9.23447, -79.1773, -7.1852
0.431754, -1, -11.8383, 30.6743, 27.0239, -8.93073, -78.854, -7.33063
0.440559, -1, -11.6495, 30.579, 26.9985, -8.62719, -78.5307, -7.476
0.447724, -1, -11.4605, 30.4838, 26.9729, -8.32411, -78.208, -7.62125
0.455786, -1, -11.271, 30.3888, 26.9473, -8.02163, -77.8862, -7.76649
0.464585, -1, -11.0813, 30.294, 26.9218, -7.71944, -77.5645, -7.91127
0.471735, -1, -10.8912, 30.1994, 26.8964, -7.41785, -77.2435, -8.05582
0.47996, -1, -10.7007, 30.105, 26.8712, -7.11667, -76.9231, -8.19985
0.488547, -1, -10.5101, 30.0108, 26.8458, -6.81569, -76.6031, -8.34362
0.495784, -1, -10.3192, 29.9168, 26.8206, -6.5155, -76.2834, -8.4873
0.504048, -1, -10.1288, 29.823, 26.7954, -6.21597, -75.9642, -8.63063
0.512276, -1, -9.93897, 29.7294, 26.7703, -5.91679, -75.6457, -8.77374
0.519886, -1, -9.74993, 29.636, 26.7452, -5.61836, -75.3279, -8.91689
0.528225, -1, -9.56185, 29.5427, 26.7201, -5.32031, -75.0109, -9.05949
0.535339, -1, -9.46811, 29.4961, 26.7076, -5.02279, -74.6946, -9.20173
0.543728, -1, -9.18842, 29.3565, 26.6702, -4.7264, -74.3792, -9.34355
0.55243, -1, -9.00325, 29.2637, 26.6453, -4.43058, -74.0644, -9.48497
0.560917, -1, -8.81882, 29.1709, 26.6203, -4.13558, -73.7504, -9.62625
0.567753, -1, -8.63504, 29.0784, 26.5955, -3.84155, -73.4373, -9.76707
0.576626, -1, -8.45156, 28.9862, 26.5708, -3.548, -73.125, -9.90745
0.583923, -1, -8.26845, 28.8944, 26.5462, -3.25547, -72.8139, -10.0478
0.591954, -1, -8.08545, 28.8029, 26.5216, -2.96399, -72.5036, -10.1874
0.600985, -1, -7.90233, 28.7117, 26.497, -2.6732, -72.1939, -10.3266
0.608231, -1, -7.7193, 28.6209, 26.4727, -2.38358, -71.8854, -10.4652
0.616198, -1, -7.53654, 28.5304, 26.4484, -2.09469, -71.5777, -10.6031
0.622729, -1, -7.44521, 28.4852, 26.4363, -1.95051, -71.4243, -10.6721
0.630789, -1, -7.26284, 28.3951, 26.4122, -1.66284, -71.1182, -10.8097
0.640291, -1, -6.9903, 28.2606, 26.376, -1.23343, -70.6611, -11.015
0.649013, -1, -6.80982, 28.1713, 26.3521, -0.948516, -70.3578, -11.1516
0.656486, -1, -6.63036, 28.0823, 26.3282, -0.664703, -70.0557, -11.2877
0.664448, -1, -6.45188, 27.9936, 26.3044, -0.381853, -69.7549, -11.4231
0.67172, -1, -6.36314, 27.9493, 26.2924, -0.240739, -69.6049, -11.4905
0.678779, -1, -6.18661, 27.861, 26.2688, 0.0407418, -69.3056, -11.6252
0.689465, -1, -5.92353, 27.7291, 26.2334, 0.46077, -68.8586, -11.8261
0.695736, -1, -5.83633, 27.6853, 26.2217, 0.600186, -68.7102, -11.8929
0.703714, -1, -5.66254, 27.5978, 26.1984, 0.878323, -68.4139, -12.0262
0.711756, -1, -5.4892, 27.5109, 26.1749, 1.1554, -68.1188, -12.159
0.718714, -1, -5.31636, 27.4243, 26.1517, 1.43104, -67.8249, -12.2913
0.727724, -1, -5.14372, 27.3381, 26.1285, 1.70608, -67.5324, -12.4227
0.735824, -1, -4.97131, 27.2522, 26.1056, 1.97985, -67.2412, -12.5537
0.742715, -1, -4.79926, 27.1669, 26.0827, 2.2521, -66.9512, -12.6838
0.751708, -1, -4.62773, 27.0819, 26.0598, 2.52341, -66.6628, -12.8135
0.759785, -1, -4.45667, 26.9972, 26.0371, 2.79338, -66.3755, -12.9427
0.76678, -1, -4.28597, 26.9128, 26.0144, 3.06198, -66.0893, -13.0713
0.775705, -1, -4.11581, 26.8288, 25.9919, 3.32979, -65.8044, -13.1994
0.783707, -1, -3.94662, 26.7451, 25.9695, 3.5965, -65.5206, -13.3273
0.791779, -1, -3.77869, 26.6618, 25.9472, 3.86176, -65.2379, -13.4544
0.80071, -1, -3.61201, 26.5788, 25.925, 4.12605, -64.9565, -13.5808
0.807705, -1, -3.44649, 26.4962, 25.9028, 4.38903, -64.6766, -13.7066
0.816723, -1, -3.28192, 26.4138, 25.8807, 4.65078, -64.3978, -13.8318
0.823775, -1, -3.11835, 26.3319, 25.8587, 4.91159, -64.1203, -13.9562
0.831723, -1, -2.95603, 26.2503, 25.8368, 5.17142, -63.8441, -14.0805
0.839705, -1, -2.79462, 26.169, 25.8151, 5.42983, -63.5691, -14.2041
0.847772, -1, -2.63392, 26.0882, 25.7936, 5.68698, -63.2955, -14.327
0.855703, -1, -2.47362, 26.0078, 25.7721, 5.94299, -63.023, -14.4498
0.863707, -1, -2.31347, 25.9278, 25.7506, 6.19767, -62.7518, -14.5719
0.871799, -1, -2.15373, 25.8482, 25.7292, 6.45117, -62.4819, -14.6931
0.879706, -1, -1.99445, 25.7691, 25.708, 6.70365, -62.2132, -14.814
0.887717, -1, -1.8356, 25.6903, 25.6869, 6.95517, -61.9455, -14.9341
0.895785, -1, -1.67737, 25.6119, 25.6659, 7.20528, -61.6791, -15.0535
0.903705, -1, -1.51946, 25.5339, 25.6451, 7.45415, -61.4138, -15.1727
0.911705, -1, -1.36187, 25.4561, 25.6241, 7.70211, -61.1495, -15.2913
0.91977, -1, -1.20488, 25.3787, 25.6035, 7.94885, -60.8865, -15.4094
0.927719, -1, -1.04887, 25.3015, 25.5829, 8.19441, -60.6249, -15.5271
0.935728, -1, -0.89398, 25.2247, 25.5623, 8.43916, -60.3645, -15.6443
0.943769, -1, -0.740439, 25.1482, 25.5419, 8.68281, -60.1053, -15.7608
0.951703, -1, -0.587883, 25.0721, 25.5214, 8.92521, -59.8473, -15.8769
0.959833, -1, -0.436352, 24.9963, 25.501, 9.16646, -59.5908, -15.9923
0.967711, -1, -0.286018, 24.9209, 25.4809, 9.40659, -59.3357, -16.1074
0.975702, -1, -0.136748, 24.8459, 25.4609, 9.64572, -59.0815, -16.2219
0.983776, -1, 0.0116452, 24.7713, 25.441, 9.88344, -58.8283, -16.3359
0.991842, -1, 0.159283, 24.6969, 25.4212, 10.1203, -58.5762, -16.4496
0.999845, -1, 0.306562, 24.6229, 25.4012, 10.3563, -58.3251, -16.5625
1.00781, -1, 0.453741, 24.5493, 25.3815, 10.5909, -58.075, -16.6753
1.01607, -1, 0.600888, 24.4759, 25.3618, 10.8245, -57.8259, -16.7873
1.02387, -1, 0.747696, 24.4029, 25.3422, 11.0571, -57.578, -16.8985
1.03181, -1, 0.894199, 24.3301, 25.3229, 11.2886, -57.3312, -17.0096
1.04021, -1, 1.04009, 24.2577, 25.3035, 11.519, -57.0856, -17.1195
1.04724, -1, 1.11286, 24.2216, 25.2938, 11.6339, -56.9632, -17.1745
1.05573, -1, 1.33037, 24.1139, 25.265, 11.9769, -56.5982, -17.3383
1.06453, -1, 1.47484, 24.0425, 25.2458, 12.2046, -56.3563, -17.447
1.07199, -1, 1.61878, 23.9714, 25.2268, 12.431, -56.1156, -17.5554
1.07981, -1, 1.76195, 23.9007, 25.208, 12.6562, -55.8758, -17.663
1.08863, -1, 1.90403, 23.8304, 25.1891, 12.8808, -55.6372, -17.7706
1.09601, -1, 2.04503, 23.7603, 25.1703, 13.1041, -55.3996, -17.8776
1.10403, -1, 2.18522, 23.6905, 25.1517, 13.3264, -55.1629, -17.984
1.11074, -1, 2.25499, 23.6558, 25.1423, 13.4371, -55.0449, -18.0368
1.11871, -1, 2.39363, 23.5865, 25.1237, 13.658, -54.8096, -18.1427
1.12824, -1, 2.59995, 23.483, 25.0962, 13.9878, -54.4584, -18.3003
1.13708, -1, 2.73626, 23.4144, 25.0778, 14.2064, -54.2255, -18.4047
1.14427, -1, 2.8717, 23.3461, 25.0595, 14.4238, -53.9938, -18.5089
1.15229, -1, 3.00665, 23.278, 25.0413, 14.6406, -53.7631, -18.6125
1.16109, -1, 3.07404, 23.2441, 25.0231, 14.8563, -53.5335, -18.7159
1.16824, -1, 3.20888, 23.1765, 25.014, 14.9637, -53.3048, -18.8185
1.17627, -1, 3.34371, 23.1091, 24.9961, 15.178, -53.1908, -18.87
1.18369, -1, 3.47827, 23.0422, 24.9782, 15.3917, -52.9636, -18.9723
1.19084, -1, 3.61263, 22.9754, 24.9603, 15.6045, -52.7375, -19.0742
1.2008, -1, 3.81347, 22.8759, 24.9338, 15.9217, -52.3998, -19.2258
1.2077, -1, 3.88018, 22.8429, 24.9249, 16.027, -52.2878, -19.2763
1.21474, -1, 4.01337, 22.777, 24.9072, 16.2369, -52.0644, -19.3765
1.22371, -1, 4.14615, 22.7114, 24.8896, 16.446, -51.8418, -19.4765
1.2317, -1, 4.27838, 22.6461, 24.8722, 16.6541, -51.6202, -19.576
1.23872, -1, 4.4101, 22.581, 24.8547, 16.8613, -51.3992, -19.6749
1.24776, -1, 4.54104, 22.5162, 24.8374, 17.0679, -51.1793, -19.7739
1.25569, -1, 4.67132, 22.4515, 24.8201, 17.2738, -50.9602, -19.8723
1.26277, -1, 4.80088, 22.3871, 24.8028, 17.4787, -50.7418, -19.9705
1.27176, -1, 4.92964, 22.3229, 24.7857, 17.6828, -50.5245, -20.0683
1.27969, -1, 5.05757, 22.259, 24.7687, 17.8859, -50.308, -20.1658
1.28777, -1, 5.18474, 22.1953, 24.7517, 18.0886, -50.0923, -20.2624
1.29574, -1, 5.31109, 22.1319, 24.7346, 18.2903, -49.8775, -20.3592
1.3037, -1, 5.43651, 22.0687, 24.7177, 18.4913, -49.6635, -20.4552
1.31269, -1, 5.56113, 22.0058, 24.7009, 18.6915, -49.4505, -20.551
1.31969, -1, 5.68522, 21.9432, 24.6839, 18.891, -49.2384, -20.6462
1.32769, -1, 5.80908, 21.8809, 24.6673, 19.0899, -49.027, -20.7414
1.33576, -1, 5.93284, 21.8189, 24.6508, 19.2877, -48.8169, -20.836
1.3437, -1, 6.0565, 21.757, 24.6342, 19.4847, -48.6074, -20.9306
1.35169, -1, 6.18006, 21.6954, 24.6177, 19.6811, -48.3985, -21.0244
1.35972, -1, 6.30343, 21.634, 24.6013, 19.8768, -48.1903, -21.1185
1.36768, -1, 6.42665, 21.5728, 24.5848, 20.0716, -47.9829, -21.2118
1.37575, -1, 6.54966, 21.5117, 24.5684, 20.2656, -47.7761, -21.305
1.3837, -1, 6.67224, 21.451, 24.5522, 20.4589, -47.5701, -21.3972
1.39169, -1, 6.79457, 21.3904, 24.536, 20.6519, -47.3647, -21.4899
1.39978, -1, 6.91637, 21.3301, 24.5198, 20.8439, -47.1601, -21.5813
1.40792, -1, 7.03773, 21.2701, 24.5036, 21.0351, -46.9561, -21.6731
1.41569, -1, 7.15843, 21.2104, 24.4876, 21.2257, -46.753, -21.7639
1.42375, -1, 7.27858, 21.1509, 24.4716, 21.4157, -46.5508, -21.8551
1.43247, -1, 7.39814, 21.0916, 24.4558, 21.6051, -46.3492, -21.9451
1.43972, -1, 7.51704, 21.0326, 24.4401, 21.7935, -46.1485, -22.0357
1.44775, -1, 7.63545, 20.9737, 24.4244, 21.9815, -45.9485, -22.1254
1.45648, -1, 7.75345, 20.915, 24.4086, 22.1687, -45.7494, -22.2153
1.46374, -1, 7.87085, 20.8564, 24.3929, 22.3554, -45.5509, -22.3045
1.47176, -1, 7.9877, 20.798, 24.3773, 22.5416, -45.3533, -22.3937
1.48042, -1, 8.10391, 20.7397, 24.3616, 22.7269, -45.1565, -22.482
1.48776, -1, 8.21964, 20.6817, 24.346, 22.9115, -44.9602, -22.5706
1.49573, -1, 8.33496, 20.6238, 24.3307, 23.0954, -44.7646, -22.6583
1.50451, -1, 8.45001, 20.5661, 24.3154, 23.2789, -44.5694, -22.746
1.51187, -1, 8.56461, 20.5087, 24.2999, 23.4616, -44.3746, -22.8332
1.51979, -1, 8.67869, 20.4515, 24.2845, 23.6436, -44.1807, -22.9203
1.5285, -1, 8.79233, 20.3946, 24.2693, 23.825, -43.9873, -23.0071
1.53587, -1, 8.90572, 20.3379, 24.2541, 24.006, -43.7943, -23.0936
1.54375, -1, 9.01894, 20.2814, 24.239, 24.1864, -43.6024, -23.1801
1.55311, -1, 9.13207, 20.225, 24.224, 24.3662, -43.411, -23.266
1.55868, -1, 9.18863, 20.1969, 24.2166, 24.4558, -43.3156, -23.3092
1.56773, -1, 9.35815, 20.1128, 24.194, 24.7236, -43.0302, -23.4376
1.57608, -1, 9.47082, 20.0569, 24.1789, 24.9016, -42.8408, -23.5231
1.58388, -1, 9.58303, 20.0011, 24.164, 25.0791, -42.6519, -23.6076
1.59186, -1, 9.69479, 19.9455, 24.1491, 25.2559, -42.4636, -23.6926
1.60005, -1, 9.80619, 19.89, 24.1342, 25.4322, -42.2761, -23.7765
1.60804, -1, 9.91734, 19.8348, 24.1195, 25.6079, -42.0889, -23.8607
1.61468, -1, 9.9728, 19.8073, 24.1122, 25.6956, -41.9957, -23.9025
1.62516, -1, 10.1385, 19.725, 24.0904, 25.9582, -41.7168, -24.0275
1.63072, -1, 10.1936, 19.6977, 24.083, 26.0454, -41.6242, -24.0693
1.64019, -1, 10.3581, 19.6159, 24.061, 26.3058, -41.3468, -24.1937
1.64962, -1, 10.4671, 19.5617, 24.0464, 26.4789, -41.1626, -24.2768
1.65625, -1, 10.5758, 19.5076, 24.0319, 26.6515, -40.979, -24.3591
1.66424, -1, 10.6299, 19.4805, 24.0174, 26.8235, -40.7958, -24.4419
1.67255, -1, 10.738, 19.4267, 24.0032, 26.9949, -40.6132, -24.5237
1.67968, -1, 10.8457, 19.373, 23.9961, 27.0804, -40.522, -24.5648
1.68768, -1, 10.953, 19.3194, 23.9818, 27.2509, -40.3402, -24.6469
1.69574, -1, 11.0599, 19.2659, 23.9674, 27.4212, -40.159, -24.7278
1.70273, -1, 11.1664, 19.2126, 23.9531, 27.591, -39.9783, -24.8096
1.71168, -1, 11.2726, 19.1594, 23.9389, 27.7603, -39.7982, -24.8902
1.71974, -1, 11.3784, 19.1064, 23.9246, 27.9289, -39.6185, -24.9711
1.72767, -1, 11.4837, 19.0537, 23.9105, 28.097, -39.4395, -25.0515
1.73573, -1, 11.5888, 19.0012, 23.8965, 28.2646, -39.261, -25.1318
1.74368, -1, 11.6937, 18.9487, 23.8826, 28.432, -39.0828, -25.212
1.75167, -1, 11.7984, 18.8965, 23.8686, 28.5988, -38.9054, -25.2917
1.75868, -1, 11.903, 18.8444, 23.8545, 28.765, -38.7285, -25.3717
1.76778, -1, 12.0073, 18.7924, 23.8405, 28.9308, -38.5518, -25.4508
1.77571, -1, 12.1115, 18.7406, 23.8266, 29.0961, -38.376, -25.5306
1.78375, -1, 12.2157, 18.6888, 23.8128, 29.2612, -38.2007, -25.6094
1.79167, -1, 12.3195, 18.6372, 23.7989, 29.4258, -38.0259, -25.6885
1.8012, -1, 12.4231, 18.5857, 23.7853, 29.5898, -37.8517, -25.7671
1.80774, -1, 12.5265, 18.5343, 23.7717, 29.7534, -37.6776, -25.8451
1.81672, -1, 12.6296, 18.4831, 23.758, 29.9164, -37.5042, -25.9235
1.82367, -1, 12.7324, 18.432, 23.7442, 30.0792, -37.3309, -26.0008
1.83175, -1, 12.8348, 18.381, 23.7305, 30.2415, -37.1583, -26.0786
1.83967, -1, 12.9368, 18.3304, 23.7169, 30.4032, -36.9862, -26.1557
1.84767, -1, 13.0385, 18.2798, 23.7033, 30.5644, -36.8142, -26.2325
1.85576, -1, 13.1398, 18.2295, 23.6898, 30.7251, -36.6429, -26.3098
1.86367, -1, 13.2408, 18.1793, 23.6763, 30.8858, -36.4718, -26.3859
1.87167, -1, 13.3415, 18.1292, 23.6631, 31.0459, -36.3014, -26.4627
1.87975, -1, 13.4418, 18.0792, 23.6498, 31.2055, -36.1314, -26.5388
1.88767, -1, 13.5419, 18.0292, 23.6364, 31.3648, -35.9618, -26.6151
1.89569, -1, 13.6419, 17.9793, 23.623, 31.5235, -35.7929, -26.6914
1.90376, -1, 13.7416, 17.9296, 23.6097, 31.6816, -35.6242, -26.7669
1.91167, -1, 13.8412, 17.8799, 23.5964, 31.8396, -35.4562, -26.8429
1.91967, -1, 13.9406, 17.8303, 23.5831, 31.9972, -35.2886, -26.9179
1.92775, -1, 14.0398, 17.7808, 23.5698, 32.1544, -35.1212, -26.9933
1.93569, -1, 14.1387, 17.7315, 23.5568, 32.3111, -34.9545, -27.0682
1.94369, -1, 14.2374, 17.6824, 23.5437, 32.4674, -34.7882, -27.1427
1.95174, -1, 14.3355, 17.6334, 23.5306, 32.6235, -34.6224, -27.2176
1.95967, -1, 14.4332, 17.5846, 23.5174, 32.7794, -34.457, -27.2915
1.96774, -1, 14.5307, 17.536, 23.5043, 32.9348, -34.2918, -27.3659
1.97576, -1, 14.6279, 17.4876, 23.4914, 33.0897, -34.1269, -27.4402
1.98367, -1, 14.7247, 17.4392, 23.4784, 33.244, -33.9624, -27.5138
1.99168, -1, 14.8211, 17.3911, 23.4654, 33.3981, -33.7984, -27.588
1.99978, -1, 14.9175, 17.3428, 23.4526, 33.552, -33.6347, -27.6613
2.00775, -1, 15.0137, 17.2946, 23.4399, 33.7054, -33.4713, -27.7352
2.01578, -1, 15.1098, 17.2465, 23.4271, 33.8584, -33.3081, -27.8086
2.02409, -1, 15.2058, 17.1985, 23.4142, 34.0109, -33.1457, -27.8815
2.03178, -1, 15.3017, 17.1506, 23.4013, 34.1629, -32.9834, -27.9549
2.04015, -1, 15.3975, 17.1028, 23.3885, 34.3149, -32.8219, -28.0272
2.0472, -1, 15.4454, 17.0789, 23.3821, 34.3908, -32.7412, -28.0999
2.05569, -1, 15.589, 17.0075, 23.3629, 34.6178, -32.4998, -28.1723
2.06435, -1, 15.6845, 16.9602, 23.3501, 34.7686, -32.3393, -28.2441
2.07179, -1, 15.7797, 16.9129, 23.3376, 34.9191, -32.179, -28.3165
2.07976, -1, 15.8747, 16.8659, 23.3251, 35.0691, -32.0191, -28.3878
2.22898, -1, 17.5367, 16.0373, 23.0952, 37.7644, -29.1495, -29.6779
2.23042, -1, 17.5367, 16.0373, 23.0952, 37.7644, -29.1495, -29.6779
2.23164, -1, 17.5367, 16.0373, 23.0952, 37.7644, -29.1495, -29.6779
2.23393, -1, 17.5696, 16.0213, 23.0895, 37.8253, -29.0845, -29.707
2.23516, -1, 17.5696, 16.0213, 23.0895, 37.8253, -29.0845, -29.707
2.23707, -1, 17.6006, 16.0063, 23.084, 37.8829, -29.0231, -29.7347
2.23845, -1, 17.6006, 16.0063, 23.084, 37.8829, -29.0231, -29.7347
2.24127, -1, 17.6297, 15.9921, 23.0789, 37.9367, -28.9655, -29.7608
2.24272, -1, 17.6297, 15.9921, 23.0789, 37.9367, -28.9655, -29.7608
2.24392, -1, 17.6297, 15.9921, 23.0789, 37.9367, -28.9655, -29.7608
2.24597, -1, 17.657, 15.9788, 23.0742, 37.9861, -28.9123, -29.7849
2.24717, -1, 17.657, 15.9788, 23.0742, 37.9861, -28.9123, -29.7849
2.24903, -1, 17.6827, 15.9662, 23.0701, 38.0307, -28.8644, -29.8066
2.2504, -1, 17.6827, 15.9662, 23.0701, 38.0307, -28.8644, -29.8066
2.25167, -1, 17.6827, 15.9662, 23.0701, 38.0307, -28.8644, -29.8066
2.25428, -1, 17.707, 15.9541, 23.0665, 38.0706, -28.8216, -29.8261
2.25557, -1, 17.707, 15.9541, 23.0665, 38.0706, -28.8216, -29.8261
2.25781, -1, 17.7297, 15.9425, 23.0636, 38.1059, -28.7836, -29.8432
2.25906, -1, 17.7297, 15.9425, 23.0636, 38.1059, -28.7836, -29.8432
2.26023, -1, 17.7297, 15.9425, 23.0636, 38.1059, -28.7836, -29.8432
2.26248, -1, 17.751, 15.9315, 23.0613, 38.1365, -28.7505, -29.8578
2.26375, -1, 17.751, 15.9315, 23.0613, 38.1365, -28.7505, -29.8578
2.26765, -1, 17.7707, 15.9212, 23.0595, 38.1621, -28.7227, -29.8702
2.27164, -1, 17.7888, 15.9118, 23.0581, 38.1831, -28.6997, -29.8805
2.27977, -1, 17.8197, 15.8961, 23.0564, 38.2144, -28.6655, -29.8958
2.28771, -1, 17.8441, 15.8841, 23.0556, 38.2339, -28.6442, -29.905
2.29565, -1, 17.8627, 15.8755, 23.0553, 38.245, -28.632, -29.9101
2.30371, -1, 17.8749, 15.8699, 23.0551, 38.2507, -28.6257, -29.9127
2.31265, 2, 17.8813, 15.8669, 23.0551, 38.2535, -28.6227, -29.914
2.31965, 2, 17.8842, 15.8655, 23.055, 38.2548, -28.6213, -29.9146
2.32766, 2, 17.8852, 15.8648, 23.055, 38.2554, -28.6206, -29.9149
2.33572, 2, 17.8849, 15.8645, 23.055, 38.2557, -28.6203, -29.9151
2.34366, 2, 17.8841, 15.8644, 23.055, 38.2558, -28.6201, -29.9151
2.35166, 2, 17.8834, 15.8643, 23.0551, 38.2558, -28.6201, -29.9152
2.35972, 2, 17.883, 15.8643, 23.0551, 38.2559, -28.62, -29.9152
2.36765, 2, 17.8829, 15.8642, 23.0551, 38.2559, -28.62, -29.9152
2.37566, 2, 17.8829, 15.864, 23.0551, 38.2559, -28.62, -29.9152
2.38378, 2, 17.883, 15.8638, 23.055, 38.2559, -28.62, -29.9152
2.39166, 2, 17.8833, 15.8635, 23.0551, 38.2559, -28.62, -29.9152
2.39965, 2, 17.8837, 15.8631, 23.055, 38.2559, -28.6201, -29.9152
2.40783, 2, 17.8841, 15.8628, 23.055, 38.2559, -28.6201, -29.9152
2.41565, 2, 17.8848, 15.8627, 23.055, 38.2559, -28.6201, -29.9152
2.42365, 2, 17.8858, 15.8626, 23.055, 38.2559, -28.62, -29.9152
2.43173, 2, 17.8865, 15.8626, 23.055, 38.2559, -28.62, -29.9152
2.43965, 2, 17.887, 15.8626, 23.0551, 38.2559, -28.6201, -29.9153
2.44768, 2, 17.8874, 15.8626, 23.055, 38.2559, -28.6201, -29.9153
2.45571, 2, 17.8876, 15.8626, 23.055, 38.2559, -28.6201, -29.9152
2.46365, 2, 17.8877, 15.8626, 23.055, 38.2559, -28.6202, -29.9152
2.47174, 2, 17.8877, 15.8626, 23.055, 38.2559, -28.6202, -29.9153
2.47972, 2, 17.8877, 15.8626, 23.055, 38.2559, -28.6202, -29.9152
2.48765, 2, 17.8877, 15.8626, 23.055, 38.2559, -28.6202, -29.9152
2.49568, 2, 17.8877, 15.8625, 23.055, 38.2559, -28.6202, -29.9152
2.50376, 2, 17.8876, 15.8625, 23.055, 38.2559, -28.6202, -29.9152
2.51174, 2, 17.8873, 15.8624, 23.055, 38.2559, -28.6202, -29.9152
2.51975, 2, 17.8872, 15.8623, 23.055, 38.2559, -28.6202, -29.9152
2.52782, 2, 17.8871, 15.8622, 23.055, 38.2559, -28.6202, -29.9152
2.53576, 2, 17.887, 15.8622, 23.055, 38.2559, -28.6203, -29.9151
2.54382, 2, 17.887, 15.8622, 23.055, 38.2559, -28.6203, -29.9152
2.55172, 2, 17.887, 15.8623, 23.055, 38.2559, -28.6203, -29.9152
2.55966, 2, 17.887, 15.8623, 23.055, 38.2559, -28.6204, -29.9151
2.56775, 2, 17.887, 15.8623, 23.0551, 38.2559, -28.6204, -29.9151
2.5757, 2, 17.887, 15.8623, 23.0551, 38.2559, -28.6204, -29.9151
2.58371, 2, 17.887, 15.8623, 23.055, 38.2559, -28.6204, -29.9151
2.59246, 2, 17.887, 15.8623, 23.0551, 38.2559, -28.6205, -29.9151
2.59987, 2, 17.887, 15.8623, 23.055, 38.2559, -28.6205, -29.9151
2.60789, 2, 17.887, 15.8623, 23.055, 38.2559, -28.6205, -29.9151
2.61649, 2, 17.887, 15.8623, 23.055, 38.2559, -28.6205, -29.9151
2.62402, 2, 17.887, 15.8623, 23.055, 38.2559, -28.6205, -29.9151
2.6307, 2, 17.887, 15.8623, 23.055, 38.2559, -28.6205, -29.9151
2.64078, 2, 17.8869, 15.8623, 23.055, 38.2559, -28.6205, -29.9151
2.64817, 2, 17.8869, 15.8623, 23.055, 38.2559, -28.6205, -29.9151
2.65624, 2, 17.8868, 15.8623, 23.055, 38.2559, -28.6205, -29.9151
2.66475, 2, 17.8868, 15.8623, 23.0551, 38.2559, -28.6205, -29.9151
2.67223, 2, 17.8868, 15.8623, 23.055, 38.2558, -28.6205, -29.9151
2.6805, 2, 17.8868, 15.8624, 23.0551, 38.2558, -28.6206, -29.9151
2.68869, 2, 17.8868, 15.8624, 23.055, 38.2558, -28.6206, -29.9151
2.69564, 2, 17.8868, 15.8624, 23.055, 38.2558, -28.6206, -29.9151
2.7037, 2, 17.8868, 15.8624, 23.055, 38.2559, -28.6206, -29.9151
2.71187, 2, 17.8868, 15.8624, 23.055, 38.2559, -28.6206, -29.9151
2.71967, 2, 17.8868, 15.8623, 23.055, 38.2559, -28.6206, -29.9151
2.72772, 2, 17.8868, 15.8623, 23.055, 38.2559, -28.6207, -29.9152
2.73564, 2, 17.8868, 15.8623, 23.055, 38.2558, -28.6207, -29.9151
2.74366, 2, 17.8867, 15.8623, 23.055, 38.2558, -28.6207, -29.9151
2.75169, 2, 17.8867, 15.8623, 23.055, 38.2558, -28.6208, -29.9152
2.75964, 2, 17.8867, 15.8623, 23.055, 38.2558, -28.6208, -29.9151
2.76764, 2, 17.8867, 15.8623, 23.055, 38.2558, -28.6208, -29.9151
2.77571, 2, 17.8867, 15.8624, 23.055, 38.2558, -28.6208, -29.9151
2.78366, 2, 17.8866, 15.8624, 23.0551, 38.2557, -28.6208, -29.9151
2.79179, 2, 17.8866, 15.8624, 23.055, 38.2557, -28.6208, -29.9151
2.79967, 2, 17.8866, 15.8624, 23.0551, 38.2558, -28.6208, -29.915
2.80954, 2, 17.8865, 15.8624, 23.055, 38.2558, -28.6208, -29.9151
2.81566, 2, 17.8865, 15.8624, 23.055, 38.2557, -28.6208, -29.9151
2.82367, 2, 17.8865, 15.8624, 23.055, 38.2557, -28.6208, -29.9151
2.83165, 2, 17.8864, 15.8623, 23.055, 38.2557, -28.6208, -29.9151
2.84063, 2, 17.8864, 15.8623, 23.055, 38.2557, -28.6208, -29.9151
2.84767, 2, 17.8863, 15.8623, 23.055, 38.2557, -28.6208, -29.9151
2.85571, 2, 17.8863, 15.8624, 23.055, 38.2557, -28.6208, -29.915
2.86367, 2, 17.8862, 15.8624, 23.055, 38.2557, -28.6208, -29.9151
2.87168, 2, 17.8862, 15.8624, 23.055, 38.2557, -28.6208, -29.915
2.87962, 2, 17.8861, 15.8624, 23.055, 38.2557, -28.6209, -29.9151
2.88766, 2, 17.8861, 15.8624, 23.055, 38.2557, -28.6209, -29.915
2.89568, 2, 17.8861, 15.8624, 23.0551, 38.2557, -28.6209, -29.915
2.90364, 2, 17.886, 15.8624, 23.0551, 38.2557, -28.6209, -29.9151
2.91169, 2, 17.8859, 15.8624, 23.0551, 38.2557, -28.6209, -29.915
2.91968, 2, 17.8859, 15.8624, 23.0551, 38.2556, -28.6209, -29.915
2.92764, 2, 17.8859, 15.8624, 23.0551, 38.2556, -28.6209, -29.9151
2.93566, 2, 17.8858, 15.8624, 23.055, 38.2556, -28.6209, -29.915
2.94368, 2, 17.8857, 15.8624, 23.055, 38.2556, -28.6209, -29.915
2.95166, 2, 17.8857, 15.8624, 23.055, 38.2557, -28.6209, -29.915
2.95966, 2, 17.8857, 15.8624, 23.055, 38.2557, -28.621, -29.915
2.96768, 2, 17.8856, 15.8624, 23.0551, 38.2557, -28.621, -29.915
2.97569, 2, 17.8856, 15.8624, 23.0551, 38.2556, -28.621, -29.915
2.98367, 2, 17.8855, 15.8624, 23.0551, 38.2557, -28.621, -29.915
2.99169, 2, 17.8855, 15.8624, 23.0551, 38.2556, -28.6211, -29.915
2.99967, 2, 17.8854, 15.8624, 23.0551, 38.2555, -28.6211, -29.915
3.00772, 2, 17.8854, 15.8624, 23.0551, 38.2555, -28.6211, -29.915
3.01576, 2, 17.8853, 15.8624, 23.0551, 38.2555, -28.6211, -29.915
3.02373, 2, 17.8852, 15.8624, 23.0551, 38.2555, -28.6211, -29.915
3.03178, 2, 17.8852, 15.8625, 23.0551, 38.2555, -28.6212, -29.915
3.03978, 2, 17.8851, 15.8624, 23.0551, 38.2555, -28.6212, -29.915
3.04774, 2, 17.8851, 15.8624, 23.0551, 38.2554, -28.6212, -29.915
3.05577, 2, 17.885, 15.8624, 23.0551, 38.2554, -28.6212, -29.9151
3.06369, 2, 17.885, 15.8625, 23.0551, 38.2554, -28.6212, -29.915
3.07168, 2, 17.8849, 15.8625, 23.0551, 38.2554, -28.6212, -29.915
3.07976, 2, 17.8849, 15.8625, 23.0551, 38.2553, -28.6212, -29.915
3.08775, 2, 17.8848, 15.8625, 23.0551, 38.2553, -28.6212, -29.915
3.09577, 2, 17.8848, 15.8625, 23.0551, 38.2553, -28.6212, -29.915
3.10395, 2, 17.8847, 15.8625, 23.0551, 38.2553, -28.6212, -29.915
3.11194, 2, 17.8846, 15.8625, 23.0551, 38.2553, -28.6212, -29.915
3.12, 2, 17.8846, 15.8625, 23.0551, 38.2553, -28.6212, -29.915
3.12672, 2, 17.8846, 15.8625, 23.0551, 38.2553, -28.6212, -29.915
3.13612, 2, 17.8845, 15.8625, 23.0551, 38.2553, -28.6212, -29.9149
3.14419, 2, 17.8844, 15.8625, 23.0551, 38.2552, -28.6212, -29.9149
3.15224, 2, 17.8844, 15.8625, 23.0551, 38.2552, -28.6213, -29.915
3.16021, 2, 17.8843, 15.8625, 23.0551, 38.2552, -28.6213, -29.9149
3.16819, 2, 17.8843, 15.8625, 23.0551, 38.2552, -28.6212, -29.9149
3.17628, 2, 17.8843, 15.8625, 23.0551, 38.2552, -28.6212, -29.9149
3.18417, 2, 17.8842, 15.8625, 23.0551, 38.2552, -28.6212, -29.9149
3.19169, 2, 17.8842, 15.8625, 23.0551, 38.2552, -28.6212, -29.9149
3.19965, 2, 17.8841, 15.8625, 23.0551, 38.2552, -28.6212, -29.915
3.20765, 2, 17.8841, 15.8625, 23.0551, 38.2552, -28.6212, -29.915
3.21562, 2, 17.8841, 15.8625, 23.0551, 38.2551, -28.6212, -29.915
3.22365, 2, 17.884, 15.8626, 23.0551, 38.2551, -28.6212, -29.9149
3.23166, 2, 17.884, 15.8625, 23.0551, 38.2551, -28.6213, -29.9149
3.23962, 2, 17.884, 15.8625, 23.0551, 38.2551, -28.6213, -29.9149
3.24767, 2, 17.884, 15.8625, 23.0551, 38.2551, -28.6213, -29.9149
3.25567, 2, 17.8839, 15.8625, 23.0551, 38.255, -28.6213, -29.9149
3.26362, 2, 17.884, 15.8625, 23.0551, 38.255, -28.6213, -29.9149
3.27166, 2, 17.8839, 15.8625, 23.0551, 38.255, -28.6213, -29.9149
3.27965, 2, 17.8839, 15.8625, 23.0551, 38.2549, -28.6213, -29.9149
3.28764, 2, 17.8839, 15.8625, 23.0551, 38.2549, -28.6214, -29.9149
3.29565, 2, 17.8839, 15.8625, 23.0551, 38.2549, -28.6213, -29.9149
3.30365, 2, 17.8838, 15.8626, 23.0551, 38.2549, -28.6214, -29.9149
3.31264, 2, 17.8839, 15.8626, 23.0551, 38.2549, -28.6214, -29.9149
3.32269, 2, 17.8838, 15.8626, 23.0551, 38.2549, -28.6214, -29.9149
3.32757, 2, 17.8838, 15.8626, 23.0551, 38.2549, -28.6214, -29.9149
3.33562, 2, 17.8838, 15.8626, 23.0551, 38.2549, -28.6214, -29.9149
3.34369, 2, 17.8838, 15.8626, 23.0551, 38.2549, -28.6214, -29.9149
3.35163, 2, 17.8838, 15.8626, 23.0551, 38.2548, -28.6214, -29.9149
3.35962, 2, 17.8838, 15.8626, 23.0551, 38.2548, -28.6214, -29.9149
3.36769, 2, 17.8837, 15.8626, 23.0551, 38.2548, -28.6214, -29.9149
3.37558, 2, 17.8837, 15.8626, 23.0551, 38.2548, -28.6214, -29.9148
3.38362, 2, 17.8837, 15.8626, 23.0551, 38.2548, -28.6214, -29.9148
3.3917, 2, 17.8837, 15.8626, 23.0551, 38.2547, -28.6215, -29.9148
3.39958, 4, 17.8837, 15.8626, 23.0551, 38.2547, -28.6215, -29.9148
3.40761, 4, 17.8837, 15.8626, 23.0551, 38.2547, -28.6215, -29.9149
3.41571, 4, 17.8837, 15.8626, 23.0551, 38.2546, -28.6215, -29.9149
3.42362, 4, 17.8837, 15.8626, 23.0551, 38.2546, -28.6214, -29.9149
3.43163, 4, 17.8837, 15.8626, 23.0551, 38.2547, -28.6215, -29.9148
3.43968, 4, 17.8836, 15.8626, 23.0551, 38.2547, -28.6215, -29.9148
3.44762, 4, 17.8836, 15.8626, 23.0551, 38.2546, -28.6215, -29.9149
3.45564, 4, 17.8836, 15.8626, 23.0551, 38.2546, -28.6214, -29.9148
3.46369, 4, 17.8836, 15.8626, 23.0551, 38.2546, -28.6214, -29.9148
3.47163, 4, 17.8836, 15.8626, 23.0551, 38.2546, -28.6214, -29.9148
3.47967, 4, 17.8835, 15.8626, 23.0551, 38.2546, -28.6214, -29.9147
3.48769, 4, 17.8836, 15.8626, 23.0551, 38.2546, -28.6215, -29.9148
3.49562, 4, 17.8835, 15.8626, 23.0551, 38.2546, -28.6215, -29.9147
3.50381, 4, 17.8835, 15.8626, 23.0551, 38.2546, -28.6215, -29.9147
3.52968, 4, 17.8835, 15.8627, 23.0551, 38.2546, -28.6215, -29.9147
3.53168, 4, 17.8835, 15.8627, 23.0551, 38.2546, -28.6215, -29.9147
3.53296, 4, 17.8835, 15.8627, 23.0551, 38.2546, -28.6215, -29.9147
3.53581, 4, 17.8835, 15.8627, 23.0551, 38.2546, -28.6215, -29.9147
3.54412, 4, 17.8834, 15.8627, 23.0551, 38.2546, -28.6215, -29.9147
3.55172, 4, 17.8829, 15.863, 23.0551, 38.2545, -28.6215, -29.9146
3.55981, 4, 17.8807, 15.8645, 23.055, 38.2543, -28.6215, -29.9146
3.56765, 4, 17.8756, 15.8685, 23.0542, 38.2522, -28.6217, -29.9135
3.57565, 4, 17.867, 15.8773, 23.0518, 38.245, -28.6228, -29.9084
3.58463, 4, 17.8537, 15.8934, 23.0464, 38.2282, -28.6259, -29.8934
3.59172, 4, 17.834, 15.9186, 23.0362, 38.1956, -28.633, -29.8612
3.59985, 5, 17.8063, 15.9543, 23.0195, 38.1379, -28.6459, -29.8032
3.60891, 5, 17.7712, 15.9998, 22.9947, 38.0453, -28.6666, -29.7094
3.6159, 5, 17.7287, 16.0555, 22.9603, 37.9104, -28.6972, -29.5719
3.62412, 5, 17.6787, 16.1223, 22.9156, 37.7281, -28.7397, -29.3855
3.6329, 5, 17.6205, 16.2005, 22.8604, 37.498, -28.7947, -29.1497
3.64009, 5, 17.5549, 16.2893, 22.7954, 37.2233, -28.8606, -28.8675
3.64661, 5, 17.5194, 16.3372, 22.7596, 37.0713, -28.8982, -28.7112
3.65721, 5, 17.4022, 16.4956, 22.6411, 36.5698, -29.0241, -28.1952
3.66266, 5, 17.3595, 16.5535, 22.5987, 36.3913, -29.0699, -28.0117
3.67229, 5, 17.2206, 16.7406, 22.4654, 35.8361, -29.2151, -27.4413
3.68105, 5, 17.1715, 16.8061, 22.4198, 35.6473, -29.2657, -27.0527
3.68761, 5, 17.0704, 16.9403, 22.3277, 35.2669, -29.3691, -26.8575
3.69566, 5, 16.9664, 17.0771, 22.2353, 34.8853, -29.4753, -26.4666
3.70259, 5, 16.8602, 17.2149, 22.1428, 34.5042, -29.5837, -26.0772
3.71164, 5, 16.7529, 17.3531, 22.0505, 34.1241, -29.6937, -25.6902
3.71965, 5, 16.6453, 17.4917, 21.9585, 33.7459, -29.8061, -25.3057
3.72663, 5, 16.5375, 17.6299, 21.867, 33.3697, -29.9201, -24.9241
3.73566, 5, 16.4295, 17.7675, 21.7761, 32.9958, -30.0356, -24.5455
3.74366, 5, 16.3214, 17.9043, 21.6859, 32.6239, -30.1533, -24.1695
3.75162, 5, 16.2133, 18.0407, 21.5964, 32.2546, -30.2725, -23.7968
3.7586, 5, 16.1052, 18.1768, 21.5075, 31.8872, -30.3937, -23.4273
3.76761, 5, 15.997, 18.3125, 21.4192, 31.5225, -30.5164, -23.0607
3.7756, 5, 15.8888, 18.4478, 21.3313, 31.1599, -30.6407, -22.6973
3.7826, 5, 15.7804, 18.5825, 21.244, 30.7995, -30.7669, -22.3373
3.7916, 5, 15.6716, 18.7168, 21.1574, 30.4416, -30.8944, -21.9804
3.79962, 5, 15.5624, 18.8508, 21.0716, 30.086, -31.0238, -21.6269
3.80918, 5, 15.4525, 18.9849, 20.9865, 29.7332, -31.1544, -21.1032
3.8156, 5, 15.3421, 19.1185, 20.9022, 29.3826, -31.2868, -20.9302
3.82462, 5, 15.2315, 19.2516, 20.8186, 29.0344, -31.4207, -20.5869
3.83167, 5, 15.1205, 19.3843, 20.7355, 28.6888, -31.5564, -20.247
3.83968, 5, 15.0095, 19.5164, 20.653, 28.3455, -31.6936, -19.9102
3.84761, 5, 14.8981, 19.6484, 20.5711, 28.0048, -31.8323, -19.5766
3.85572, 5, 14.7864, 19.7799, 20.4898, 27.6665, -31.9725, -19.2466
3.86366, 5, 14.6747, 19.9108, 20.4092, 27.3305, -32.1141, -18.92
3.8716, 5, 14.5629, 20.0411, 20.3293, 26.9969, -32.2571, -18.5964
3.87968, 5, 14.4508, 20.1707, 20.2501, 26.6658, -32.4015, -18.2764
3.8876, 5, 14.3387, 20.2998, 20.1714, 26.3373, -32.5473, -17.9599
3.89562, 5, 14.2266, 20.4286, 20.0934, 26.0112, -32.6945, -17.6463
3.90372, 5, 14.1145, 20.5573, 20.0159, 25.6874, -32.843, -17.3361
3.9116, 5, 14.0022, 20.6854, 19.9391, 25.3663, -32.993, -17.0295
3.91964, 5, 13.8898, 20.813, 19.8629, 25.0475, -33.1441, -16.7265
3.92767, 5, 13.7773, 20.9402, 19.7874, 24.7312, -33.2965, -16.4265
3.93561, 5, 13.6648, 21.0672, 19.7127, 24.4176, -33.4501, -16.1301
3.94366, 5, 13.5523, 21.194, 19.6387, 24.1059, -33.6049, -15.8371
3.95167, 5, 13.4397, 21.3204, 19.5654, 23.7967, -33.7612, -15.5473
3.9596, 5, 13.3272, 21.4462, 19.4927, 23.4899, -33.9186, -15.2606
3.96767, 5, 13.2145, 21.5714, 19.4207, 23.1854, -34.0772, -14.9773
3.97561, 5, 13.1014, 21.696, 19.3492, 22.8835, -34.2369, -14.6975
3.98366, 5, 12.9879, 21.82, 19.2783, 22.5839, -34.3979, -14.4206
3.99167, 5, 12.8741, 21.9435, 19.2081, 22.2865, -34.5602, -14.1469
3.99966, 5, 12.76, 22.0664, 19.1385, 21.9917, -34.7236, -13.8765
4.00763, 5, 12.6456, 22.1886, 19.0696, 21.6991, -34.8882, -13.6096
4.01575, 5, 12.5308, 22.3103, 19.0015, 21.4086, -35.0538, -13.3455
4.02376, 5, 12.4157, 22.4313, 18.9341, 21.1206, -35.2206, -13.0848
4.03172, 5, 12.3004, 22.5521, 18.8673, 20.8349, -35.3883, -12.8272
4.04021, 5, 12.1851, 22.6726, 18.8013, 20.5514, -35.5571, -12.5731
4.04771, 5, 12.0695, 22.7928, 18.7359, 20.2699, -35.727, -12.3223
4.0557, 5, 11.954, 22.9125, 18.6712, 19.9908, -35.8979, -12.0745
4.06435, 5, 11.8384, 23.0318, 18.6072, 19.7137, -36.0697, -11.8299
4.07172, 5, 11.7229, 23.1504, 18.5439, 19.4391, -36.2424, -11.5885
4.07963, 5, 11.607, 23.2686, 18.4813, 19.1666, -36.4159, -11.3504
4.08854, 5, 11.491, 23.3864, 18.4194, 18.8961, -36.5904, -11.115
4.09572, 5, 11.375, 23.5036, 18.3581, 18.6278, -36.7658, -10.8826
4.10382, 5, 11.2588, 23.6202, 18.2976, 18.3618, -36.9422, -10.6532
4.11276, 5, 11.1425, 23.7361, 18.2378, 18.0977, -37.1195, -10.427
4.11989, 5, 11.026, 23.8514, 18.1786, 17.8355, -37.2975, -10.204
4.12805, 5, 10.9094, 23.966, 18.1201, 17.5758, -37.4766, -9.98368
4.13466, 5, 10.8511, 24.0232, 18.0911, 17.4467, -37.5664, -9.87462
4.14414, 5, 10.6755, 24.1942, 18.0048, 17.0618, -37.8375, -9.55188
4.15215, 5, 10.5584, 24.3076, 17.9482, 16.8079, -38.0192, -9.34056
4.16098, 5, 10.4415, 24.4205, 17.8923, 16.5559, -38.2018, -9.13238
4.16818, 5, 10.3247, 24.5329, 17.8371, 16.3058, -38.3852, -8.92675
4.17624, 5, 10.2077, 24.6447, 17.7826, 16.0576, -38.5693, -8.72382
4.18499, 5, 10.1491, 24.7004, 17.7288, 15.8117, -38.7542, -8.52411
4.19219, 5, 10.032, 24.8115, 17.7021, 15.6894, -38.8468, -8.32696
4.19959, 5, 9.91472, 24.9222, 17.6494, 15.4458, -39.0326, -8.22959
4.20761, 5, 9.79728, 25.0324, 17.5975, 15.2045, -39.2192, -8.03721
4.21458, 5, 9.67948, 25.1421, 17.5462, 14.9648, -39.4064, -7.84733
4.22365, 5, 9.56153, 25.2511, 17.4957, 14.7269, -39.5941, -7.66019
4.23164, 5, 9.44336, 25.3594, 17.4459, 14.4906, -39.7826, -7.47582
4.23858, 5, 9.32483, 25.4671, 17.3966, 14.2562, -39.9718, -7.29415
4.2476, 5, 9.20588, 25.5744, 17.3481, 14.0235, -40.1615, -7.11531
4.25562, 5, 9.08667, 25.6812, 17.3004, 13.7925, -40.3518, -6.93937
4.26369, 5, 8.96725, 25.7873, 17.2534, 13.5629, -40.5426, -6.76575
4.27159, 5, 8.84761, 25.8929, 17.2071, 13.3351, -40.734, -6.59475
4.27973, 5, 8.72781, 25.9977, 17.1615, 13.1089, -40.9261, -6.42644
4.28983, 5, 8.54817, 26.1537, 17.0946, 12.7722, -41.215, -6.17863
4.29562, 5, 8.48824, 26.2054, 17.0725, 12.6608, -41.3116, -6.09735
4.30367, 5, 8.3683, 26.3084, 17.0291, 12.4394, -41.5051, -5.93667
4.31166, 5, 8.2481, 26.411, 16.9867, 12.2195, -41.699, -5.77861
4.32062, 5, 8.12781, 26.5128, 16.9448, 12.001, -41.8936, -5.623
4.328, 5, 8.00757, 26.6141, 16.9037, 11.784, -42.0887, -5.4694
4.33558, 5, 7.88725, 26.7148, 16.8633, 11.5685, -42.2844, -5.31848
4.34365, 5, 7.76686, 26.8148, 16.8236, 11.3546, -42.4804, -5.16981
4.35234, 5, 7.64653, 26.9141, 16.7849, 11.1418, -42.6769, -5.02367
4.35971, 5, 7.52643, 27.0131, 16.7468, 10.9305, -42.8737, -4.88002
4.3676, 5, 7.40638, 27.1116, 16.7094, 10.7207, -43.0709, -4.73881
4.38224, 5, 7.16647, 27.3067, 16.6369, 10.3051, -43.4666, -4.46345
4.38378, 5, 7.16647, 27.3067, 16.6369, 10.3051, -43.4666, -4.46345
4.39158, 5, 7.0464, 27.4033, 16.6017, 10.0991, -43.6649, -4.32894
4.39958, 5, 6.92606, 27.4992, 16.5674, 9.89465, -43.8635, -4.1969
4.40772, 5, 6.80547, 27.5942, 16.5337, 9.69136, -44.0624, -4.06705
4.41558, 5, 6.68462, 27.6886, 16.5008, 9.48945, -44.2615, -3.93976
4.42366, 5, 6.56338, 27.7825, 16.4686, 9.28855, -44.4611, -3.81469
4.43165, 5, 6.44159, 27.8757, 16.4372, 9.08914, -44.6609, -3.69203
4.43958, 5, 6.31961, 27.9682, 16.4065, 8.89115, -44.8612, -3.57194
4.44759, 5, 6.19738, 28.0601, 16.3765, 8.69431, -45.0618, -3.45379
4.45565, 5, 6.07501, 28.1514, 16.3475, 8.49847, -45.2629, -3.33785
4.46364, 5, 5.9523, 28.2421, 16.3192, 8.30387, -45.4642, -3.22401
4.47158, 5, 5.82952, 28.332, 16.2915, 8.1105, -45.6659, -3.11217
4.47965, 5, 5.7069, 28.4213, 16.2648, 7.91827, -45.8677, -3.00265
4.4876, 5, 5.58428, 28.5102, 16.2388, 7.72697, -46.0699, -2.895
4.49563, 5, 5.46137, 28.5984, 16.2137, 7.53659, -46.272, -2.7898
4.50367, 5, 5.33842, 28.6859, 16.1892, 7.34754, -46.4744, -2.68648
4.51162, 5, 5.21535, 28.7727, 16.1656, 7.15952, -46.6769, -2.58525
4.51971, 5, 5.09213, 28.8589, 16.1427, 6.97248, -46.8794, -2.4863
4.52773, 5, 4.96881, 28.9443, 16.1207, 6.78614, -47.0821, -2.38939
4.53568, 5, 4.84551, 29.029, 16.0996, 6.60085, -47.2848, -2.29429
4.54411, 5, 4.72233, 29.1129, 16.0791, 6.41659, -47.4877, -2.20101
4.55137, 5, 4.59901, 29.1961, 16.0595, 6.23324, -47.6909, -2.10991
4.55976, 5, 4.47574, 29.2786, 16.0407, 6.05068, -47.8942, -2.02047
4.56821, 5, 4.35281, 29.3605, 16.0226, 5.86887, -48.0975, -1.93306
4.57627, 5, 4.22997, 29.4416, 16.0054, 5.68816, -48.301, -1.84774
4.58367, 5, 4.10699, 29.5221, 15.9892, 5.50834, -48.5047, -1.76403
4.59244, 5, 3.98397, 29.6019, 15.9736, 5.3296, -48.7084, -1.68273
4.60063, 5, 3.86103, 29.6811, 15.9589, 5.15156, -48.9124, -1.60282
4.60778, 5, 3.7379, 29.7595, 15.9451, 4.97427, -49.1165, -1.52547
4.61666, 5, 3.61442, 29.8372, 15.9321, 4.79795, -49.3204, -1.44932
4.62496, 5, 3.49067, 29.9142, 15.9198, 4.62237, -49.5245, -1.37539
4.63204, 5, 3.36652, 29.9906, 15.9084, 4.44772, -49.7284, -1.30354
4.63863, 5, 3.30429, 30.0285, 15.9031, 4.3606, -49.8304, -1.26793
4.64813, 5, 3.11681, 30.141, 15.8885, 4.10022, -50.1362, -1.16464
4.65614, 5, 2.99156, 30.2151, 15.8798, 3.92769, -50.34, -1.09742
4.66497, 5, 2.8663, 30.2884, 15.8719, 3.75596, -50.5439, -1.03209
4.67339, 5, 2.74092, 30.3609, 15.8647, 3.58491, -50.7477, -0.969134
4.68022, 5, 2.61529, 30.4326, 15.8582, 3.41431, -50.9515, -0.906978
4.68898, 5, 2.55245, 30.4682, 15.8553, 3.32923, -51.0534, -0.846829
4.69559, 5, 2.42683, 30.5387, 15.8503, 3.15971, -51.2569, -0.817709
4.70368, 5, 2.3012, 30.6085, 15.8461, 2.99077, -51.4606, -0.760503
4.71157, 5, 2.17529, 30.6774, 15.8429, 2.82245, -51.6643, -0.704284
4.71959, 5, 2.04933, 30.7456, 15.8405, 2.65482, -51.8679, -0.650413
4.72763, 5, 1.92363, 30.813, 15.839, 2.4875, -52.0714, -0.598371
4.73561, 5, 1.79792, 30.8796, 15.8383, 2.32087, -52.2749, -0.547628
4.7437, 5, 1.67211, 30.9455, 15.8381, 2.15499, -52.478, -0.498248
4.75157, 5, 1.54637, 31.0107, 15.8385, 1.98974, -52.6813, -0.451472
4.75963, 5, 1.42098, 31.0751, 15.8399, 1.82504, -52.8845, -0.40614
4.76757, 5, 1.29575, 31.1389, 15.8421, 1.66072, -53.0876, -0.36185
4.77558, 5, 1.17069, 31.2018, 15.8452, 1.49691, -53.2904, -0.318923
4.78369, 5, 1.04571, 31.2639, 15.8492, 1.33375, -53.4931, -0.278234
4.79156, 5, 0.920946, 31.3252, 15.8542, 1.1712, -53.6956, -0.239471
4.79964, 5, 0.796977, 31.3853, 15.8603, 1.00909, -53.8979, -0.201961
4.80769, 5, 0.674779, 31.4442, 15.8676, 0.847648, -54.0997, -0.165548
4.81557, 5, 0.554497, 31.5021, 15.876, 0.687406, -54.3007, -0.130063
4.82457, 5, 0.434644, 31.5598, 15.8853, 0.52947, -54.5004, -0.0947481
4.83163, 6, 0.31315, 31.6178, 15.8952, 0.375271, -54.6992, -0.0571209
4.83957, 6, 0.189598, 31.6761, 15.9056, 0.225175, -54.8983, -0.0139721
4.84757, 6, 0.0648317, 31.7344, 15.9167, 0.0791693, -55.0994, 0.0376267
4.85564, 6, -0.0607783, 31.7931, 15.9288, -0.0635729, -55.3044, 0.0976526
4.86366, 6, -0.186994, 31.8517, 15.942, -0.203714, -55.5148, 0.166719
4.87157, 6, -0.312542, 31.9099, 15.9563, -0.34265, -55.7316, 0.245364
4.87958, 6, -0.436017, 31.9676, 15.9724, -0.481473, -55.955, 0.32934
4.88757, 6, -0.557607, 32.0254, 15.9904, -0.620798, -56.1839, 0.417712
4.89564, 6, -0.678869, 32.0836, 16.0094, -0.760815, -56.4168, 0.506744
4.90362, 6, -0.801206, 32.1424, 16.0292, -0.901037, -56.6524, 0.596137
4.91163, 6, -0.925148, 32.2017, 16.05, -1.04132, -56.8895, 0.683842
4.91964, 6, -1.05028, 32.261, 16.0715, -1.18086, -57.1274, 0.770823
4.92758, 6, -1.17593, 32.32, 16.094, -1.31984, -57.3661, 0.855788
4.93557, 6, -1.30177, 32.3786, 16.1174, -1.45804, -57.6051, 0.93901
4.94369, 6, -1.42754, 32.4368, 16.1415, -1.59568, -57.8444, 1.02092
4.95157, 6, -1.55325, 32.4945, 16.1665, -1.73277, -58.0843, 1.10083
4.95958, 6, -1.67877, 32.5518, 16.1924, -1.86955, -58.3246, 1.17964
4.96763, 6, -1.80391, 32.6086, 16.2191, -2.00565, -58.5655, 1.25593
4.97557, 6, -1.92898, 32.6648, 16.2466, -2.141, -58.8068, 1.3313
4.98362, 6, -2.05416, 32.7205, 16.275, -2.27583, -59.0485, 1.4045
4.99163, 6, -2.17933, 32.7755, 16.3043, -2.41013, -59.2908, 1.47602
4.99957, 6, -2.30452, 32.8299, 16.3344, -2.54394, -59.5336, 1.54628
5.00764, 6, -2.42981, 32.8837, 16.3652, -2.67743, -59.7766, 1.61411
5.01563, 6, -2.55534, 32.9371, 16.3968, -2.81045, -60.02, 1.68087
5.02371, 6, -2.68111, 32.9897, 16.4293, -2.94292, -60.2635, 1.74579
5.03174, 6, -2.80713, 33.0417, 16.4626, -3.07474, -60.5074, 1.80826
5.03967, 6, -2.93344, 33.0932, 16.4967, -3.20611, -60.7513, 1.8701
5.04767, 6, -3.0601, 33.1443, 16.5317, -3.33699, -60.9956, 1.93014
5.05575, 6, -3.18671, 33.1948, 16.5675, -3.46764, -61.24, 1.98778
5.06372, 6, -3.31322, 33.2448, 16.6042, -3.59809, -61.4846, 2.0444
5.07158, 6, -3.43975, 33.2944, 16.6418, -3.72795, -61.7296, 2.09964
5.07982, 6, -3.5663, 33.3435, 16.6801, -3.85749, -61.9748, 2.15272
5.0876, 6, -3.69266, 33.3919, 16.7192, -3.9865, -62.2202, 2.20454
5.09574, 6, -3.81904, 33.4398, 16.7593, -4.11523, -62.4659, 2.2554
5.10382, 6, -3.94552, 33.4871, 16.8002, -4.2435, -62.7119, 2.30418
5.11189, 6, -4.07189, 33.5337, 16.8419, -4.37173, -62.9579, 2.35087
5.11992, 6, -4.19815, 33.5796, 16.8844, -4.49962, -63.2044, 2.39638
5.1279, 6, -4.32435, 33.6249, 16.9277, -4.62702, -63.4509, 2.44091
5.13599, 6, -4.45051, 33.6696, 16.9719, -4.7541, -63.6977, 2.48365
5.14261, 6, -4.51352, 33.6917, 16.9943, -4.81747, -63.8211, 2.50414
5.1506, 6, -4.63921, 33.7355, 17.0396, -4.94396, -64.068, 2.54398
5.16014, 6, -4.82696, 33.8001, 17.1093, -5.13314, -64.4386, 2.60126
5.16894, 6, -4.95178, 33.8426, 17.1567, -5.2591, -64.6856, 2.63804
5.17618, 6, -5.0763, 33.8845, 17.205, -5.38495, -64.9328, 2.67285
5.18414, 6, -5.13849, 33.9053, 17.2295, -5.51043, -65.18, 2.70579
5.19285, 6, -5.26285, 33.9464, 17.2791, -5.57307, -65.3037, 2.7217
5.1996, 6, -5.38741, 33.9869, 17.3296, -5.69799, -65.5511, 2.7522
5.20756, 6, -5.51211, 34.0268, 17.3809, -5.82277, -65.7985, 2.78152
5.21555, 6, -5.63706, 34.0662, 17.4331, -5.94725, -66.046, 2.80966
5.22361, 6, -5.7625, 34.1048, 17.4861, -6.07173, -66.2936, 2.83636
5.23157, 6, -5.88816, 34.1428, 17.5399, -6.19616, -66.5413, 2.86122
5.23956, 6, -6.01402, 34.1801, 17.5946, -6.32037, -66.7891, 2.88414
5.24767, 6, -6.14018, 34.2167, 17.6501, -6.44434, -67.0369, 2.90546
5.25556, 6, -6.26654, 34.2527, 17.7064, -6.56805, -67.2846, 2.92536
5.26358, 6, -6.39284, 34.288, 17.7635, -6.69167, -67.5322, 2.94387
5.27162, 6, -6.51902, 34.3226, 17.8215, -6.81518, -67.78, 2.961
5.27956, 6, -6.64505, 34.3565, 17.8802, -6.93882, -68.0275, 2.97694
5.28756, 6, -6.77117, 34.39, 17.9399, -7.06246, -68.2747, 2.99169
5.2956, 6, -6.89726, 34.4228, 18.0004, -7.18588, -68.522, 3.00518
5.30357, 6, -7.02325, 34.4548, 18.0619, -7.30933, -68.7694, 3.017
5.31157, 6, -7.14925, 34.4864, 18.1242, -7.43253, -69.0166, 3.02735
5.32054, 6, -7.27511, 34.5174, 18.1874, -7.55583, -69.2638, 3.03626
5.32756, 6, -7.40065, 34.5477, 18.2514, -7.67898, -69.511, 3.04356
5.33561, 6, -7.52598, 34.5774, 18.3163, -7.80227, -69.7583, 3.0494
5.34355, 6, -7.65114, 34.6064, 18.3819, -7.92561, -70.0054, 3.05373
5.35158, 6, -7.77595, 34.6349, 18.4484, -8.04884, -70.2524, 3.05664
5.35962, 6, -7.90028, 34.6627, 18.5156, -8.17204, -70.4993, 3.05828
5.36755, 6, -8.02432, 34.6897, 18.5837, -8.29504, -70.7457, 3.05904
5.37556, 6, -8.14831, 34.716, 18.6527, -8.41812, -70.9921, 3.05929
5.38361, 6, -8.27212, 34.7417, 18.7226, -8.54102, -71.2381, 3.05892
5.39156, 6, -8.39577, 34.7667, 18.7934, -8.66405, -71.4841, 3.0576
5.39956, 6, -8.51957, 34.791, 18.865, -8.78738, -71.7298, 3.05503
5.40762, 6, -8.6438, 34.8146, 18.9374, -8.91055, -71.9754, 3.0509
5.41562, 6, -8.76833, 34.8374, 19.0107, -9.03379, -72.2207, 3.04475
5.42356, 6, -8.89317, 34.8597, 19.0847, -9.15685, -72.4658, 3.03644
5.43166, 6, -9.01839, 34.8813, 19.1595, -9.28003, -72.7108, 3.0264
5.43955, 6, -9.14395, 34.9022, 19.2351, -9.40322, -72.9554, 3.0146
5.44756, 6, -9.26945, 34.9224, 19.3117, -9.52665, -73.2, 3.00101
5.45562, 6, -9.3948, 34.942, 19.3892, -9.65035, -73.444, 2.98554
5.46355, 6, -9.52022, 34.9608, 19.4676, -9.77411, -73.6879, 2.96865
5.47209, 6, -9.64559, 34.9789, 19.5469, -9.89786, -73.9314, 2.95061
5.47962, 6, -9.77081, 34.9964, 19.6269, -10.0216, -74.1748, 2.93137
5.48755, 6, -9.89603, 35.0131, 19.7077, -10.1455, -74.4178, 2.91093
5.49642, 6, -10.0213, 35.029, 19.7893, -10.2695, -74.6604, 2.88901
5.50355, 6, -10.1463, 35.0444, 19.8717, -10.3938, -74.9028, 2.86579
5.51158, 6, -10.2712, 35.059, 19.955, -10.5184, -75.1448, 2.84076
5.51968, 6, -10.3959, 35.0727, 20.0391, -10.643, -75.3864, 2.814
5.52764, 6, -10.5206, 35.0857, 20.1243, -10.7679, -75.6276, 2.78586
5.53566, 6, -10.6449, 35.0981, 20.2103, -10.8928, -75.8683, 2.75672
5.54552, 6, -10.7691, 35.1099, 20.2971, -11.0179, -76.1086, 2.7265
5.55165, 6, -10.8927, 35.1208, 20.3847, -11.1431, -76.3485, 2.69492
5.55972, 6, -11.016, 35.1311, 20.473, -11.2689, -76.588, 2.66187
5.56816, 6, -11.1387, 35.1406, 20.5621, -11.3948, -76.8273, 2.62684
5.57557, 6, -11.261, 35.1493, 20.6523, -11.5208, -77.0663, 2.59066
5.58377, 6, -11.3833, 35.1574, 20.7434, -11.6469, -77.3048, 2.5538
5.59255, 6, -11.5058, 35.1649, 20.8354, -11.7731, -77.5428, 2.51576
5.59969, 6, -11.6285, 35.1716, 20.9283, -11.8995, -77.7803, 2.47602
5.60776, 6, -11.7513, 35.1773, 21.022, -12.0261, -78.0172, 2.43439
5.61685, 6, -11.8747, 35.1824, 21.1163, -12.1532, -78.2537, 2.39208
5.62385, 6, -11.9984, 35.1868, 21.2115, -12.2806, -78.4896, 2.34887
5.63195, 6, -12.1222, 35.1904, 21.3075, -12.4081, -78.7247, 2.30427
5.64098, 6, -12.2461, 35.1931, 21.4045, -12.5358, -78.9593, 2.2577
5.64801, 6, -12.3703, 35.1951, 21.5026, -12.6637, -79.1933, 2.21008
5.6561, 6, -12.4944, 35.1963, 21.6017, -12.792, -79.4269, 2.16168
5.66497, 6, -12.6184, 35.1969, 21.7014, -12.9206, -79.66, 2.11173
5.67211, 6, -12.7423, 35.1969, 21.8018, -13.0497, -79.8927, 2.06006
5.68032, 6, -12.866, 35.1963, 21.9029, -13.1791, -80.125, 2.00779
5.68917, 6, -12.9278, 35.1957, 21.9539, -13.244, -80.3567, 1.95459
5.69553, 6, -13.0514, 35.1938, 22.0565, -13.3737, -80.4724, 1.92724
5.70359, 6, -13.1748, 35.1911, 22.1603, -13.5037, -80.7033, 1.87134
5.71155, 6, -13.298, 35.1877, 22.2649, -13.634, -80.9335, 1.81498
5.71956, 6, -13.4211, 35.1835, 22.3704, -13.7647, -81.163, 1.75731
5.72759, 6, -13.5437, 35.1785, 22.4764, -13.8959, -81.3918, 1.69776
5.73554, 6, -13.6661, 35.1728, 22.5832, -14.0274, -81.6199, 1.63767
5.74361, 6, -13.7884, 35.1662, 22.6909, -14.1593, -81.8474, 1.57636
5.7516, 6, -13.9103, 35.1587, 22.7997, -14.2914, -82.0741, 1.5131
5.75953, 6, -14.0315, 35.1504, 22.9096, -14.4239, -82.3, 1.44915
5.76764, 6, -14.1524, 35.1413, 23.0203, -14.5566, -82.5253, 1.38416
5.77554, 6, -14.2731, 35.1315, 23.1317, -14.6899, -82.75, 1.31695
5.78353, 6, -14.3937, 35.1205, 23.2437, -14.8236, -82.9739, 1.24945
5.79159, 6, -14.5141, 35.1087, 23.3566, -14.9574, -83.1972, 1.18031
5.79953, 6, -14.6346, 35.096, 23.4706, -15.0916, -83.4197, 1.10962
5.80756, 6, -14.7556, 35.0823, 23.5856, -15.2259, -83.6417, 1.03842
5.81705, 6, -14.8769, 35.0678, 23.7015, -15.3606, -83.8628, 0.965156
5.82353, 6, -14.9983, 35.0527, 23.8181, -15.4956, -84.0832, 0.891395
5.83253, 6, -15.12, 35.0368, 23.9354, -15.6311, -84.3027, 0.816523
5.8396, 6, -15.2418, 35.0198, 24.0535, -15.7672, -84.5217, 0.73964
5.84755, 6, -15.3636, 35.0021, 24.1727, -15.9034, -84.7397, 0.662654
5.85554, 6, -15.4853, 34.9838, 24.2929, -16.04, -84.9568, 0.583642
5.8636, 6, -15.607, 34.9645, 24.4139, -16.1769, -85.1731, 0.503851
5.87154, 6, -15.7285, 34.9444, 24.5357, -16.3142, -85.3885, 0.422832
5.87954, 6, -15.8498, 34.9235, 24.6584, -16.4521, -85.603, 0.34019
5.88762, 6, -15.9708, 34.9016, 24.7818, -16.5905, -85.8167, 0.256916
5.89553, 6, -16.0917, 34.8787, 24.9061, -16.7292, -86.0295, 0.171728
5.90355, 6, -16.2126, 34.855, 25.0314, -16.8682, -86.2416, 0.085992
5.9116, 6, -16.3331, 34.8304, 25.1575, -17.0077, -86.4525, -0.00176303
5.91964, 6, -16.4534, 34.8049, 25.2844, -17.1475, -86.6625, -0.09009
5.92753, 6, -16.5735, 34.7785, 25.4122, -17.2879, -86.8718, -0.179996
5.93563, 6, -16.6933, 34.7512, 25.541, -17.4288, -87.0801, -0.27051
5.94364, 6, -16.8127, 34.723, 25.6705, -17.5701, -87.2874, -0.362695
5.95153, 6, -16.9315, 34.6941, 25.8008, -17.7119, -87.4939, -0.455753
5.95959, 6, -17.0499, 34.6644, 25.932, -17.854, -87.6995, -0.550006
5.96753, 6, -17.1677, 34.6338, 26.0643, -17.9965, -87.9041, -0.645054
5.97553, 6, -17.2851, 34.6023, 26.1974, -18.1396, -88.1079, -0.741955
5.98362, 6, -17.4025, 34.5699, 26.3314, -18.2832, -88.3104, -0.83947
5.99153, 6, -17.5199, 34.5368, 26.466, -18.4269, -88.5119, -0.938568
5.99953, 6, -17.6372, 34.5026, 26.6015, -18.5711, -88.7123, -1.03869
6.0076, 6, -17.7538, 34.4675, 26.738, -18.7155, -88.9117, -1.1402
6.01557, 6, -17.8685, 34.4318, 26.875, -18.86, -89.1094, -1.24265
6.02362, 6, -17.9802, 34.3958, 27.0115, -19.004, -89.3047, -1.34505
6.03168, 6, -18.0882, 34.36, 27.1463, -19.1463, -89.496, -1.44723
6.03963, 6, -18.1905, 34.3252, 27.2775, -19.2844, -89.6803, -1.54695
6.04763, 6, -18.2858, 34.2924, 27.402, -19.4152, -89.8543, -1.64234
6.0557, 6, -18.3734, 34.2623, 27.5168, -19.5354, -90.0134, -1.73011
6.06365, 6, -18.4524, 34.2353, 27.6189, -19.6421, -90.1539, -1.80903
6.07154, 6, -18.5218, 34.2116, 27.706, -19.7326, -90.2731, -1.87604
6.07962, 6, -18.582, 34.1917, 27.7772, -19.8054, -90.3695, -1.93029
6.08763, 6, -18.633, 34.1752, 27.8322, -19.8617, -90.4434, -1.97294
6.09559, 6, -18.675, 34.1619, 27.8727, -19.9018, -90.4973, -2.00437
6.10381, 6, -18.7073, 34.152, 27.9008, -19.929, -90.5336, -2.02611
6.11171, 6, -18.7312, 34.145, 27.9194, -19.9464, -90.5569, -2.03996
6.11973, 6, -18.748, 34.1403, 27.931, -19.9569, -90.5707, -2.04825
6.12799, 6, -18.759, 34.1372, 27.9377, -19.9626, -90.5783, -2.05261
6.1359, 7, -18.7657, 34.1352, 27.9414, -19.9654, -90.5821, -2.05488
6.14396, 7, -18.7694, 34.1339, 27.9433, -19.9668, -90.584, -2.05598
6.15242, 7, -18.7704, 34.133, 27.9442, -19.9676, -90.5849, -2.05653
6.16003, 7, -18.7702, 34.1323, 27.9447, -19.9679, -90.5854, -2.05681
6.16806, 7, -18.7696, 34.1318, 27.9451, -19.9682, -90.5856, -2.05691
6.17634, 7, -18.769, 34.1314, 27.9454, -19.9683, -90.5857, -2.05698
6.18412, 7, -18.7688, 34.1313, 27.9457, -19.9684, -90.5858, -2.05699
6.19213, 7, -18.7686, 34.1311, 27.9459, -19.9684, -90.5859, -2.05697
6.20042, 7, -18.7689, 34.1309, 27.9461, -19.9684, -90.5859, -2.05698
6.20752, 7, -18.7691, 34.1309, 27.9462, -19.9684, -90.5859, -2.05697
6.21552, 7, -18.7697, 34.1309, 27.9464, -19.9685, -90.5859, -2.05702
6.22359, 7, -18.7702, 34.1309, 27.9465, -19.9685, -90.5859, -2.05698
6.23254, 7, -18.7711, 34.1309, 27.9467, -19.9685, -90.5859, -2.05695
