hehonglu123/ABB_Primitive_Study/realrobot/movec_30_ori/curve_exe_v300_z1.csv
timestamp, cmd_num, J1, J2, J3, J4, J5, J6
0.00036, -1, -18.771, 34.1302, 27.9453, -19.968, -90.5854, -2.05595
0.002179, -1, -18.771, 34.1302, 27.9453, -19.968, -90.5854, -2.05595
0.008212, -1, -18.771, 34.1302, 27.9453, -19.968, -90.5853, -2.05594
0.035616, -1, -18.771, 34.1302, 27.9453, -19.968, -90.5854, -2.05594
0.036967, -1, -18.771, 34.1302, 27.9453, -19.968, -90.5854, -2.05594
0.038222, -1, -18.771, 34.1302, 27.9453, -19.968, -90.5854, -2.05594
0.040384, -1, -18.771, 34.1302, 27.9453, -19.968, -90.5854, -2.05592
0.04766, -1, -18.7708, 34.1302, 27.9453, -19.968, -90.5854, -2.05596
0.05618, -1, -18.7696, 34.1299, 27.9454, -19.968, -90.5853, -2.05596
0.063738, -1, -18.7682, 34.1295, 27.9454, -19.968, -90.5853, -2.05593
0.072006, -1, -18.759, 34.1258, 27.9454, -19.9671, -90.5841, -2.05591
0.080226, -1, -18.7481, 34.1205, 27.9455, -19.9635, -90.5801, -2.05614
0.08699, -1, -18.7406, 34.1167, 27.9455, -19.9593, -90.5761, -2.05663
0.095052, -1, -18.7198, 34.106, 27.9455, -19.9447, -90.5612, -2.0607
0.104223, -1, -18.6707, 34.0809, 27.9448, -19.8992, -90.514, -2.08048
0.110995, -1, -18.6489, 34.0699, 27.9439, -19.8749, -90.4885, -2.0914
0.120354, -1, -18.5646, 34.0269, 27.9385, -19.7665, -90.3754, -2.14126
0.127001, -1, -18.5297, 34.0092, 27.9354, -19.717, -90.3232, -2.1647
0.137324, -1, -18.4038, 33.9454, 27.9212, -19.522, -90.1181, -2.25771
0.143042, -1, -18.3549, 33.9208, 27.9147, -19.4412, -90.0327, -2.29595
0.152629, -1, -18.1878, 33.8366, 27.8902, -19.1522, -89.7273, -2.43425
0.161584, -1, -18.0591, 33.772, 27.8704, -18.9248, -89.4866, -2.54234
0.167058, -1, -17.99, 33.7374, 27.8595, -18.8024, -89.3567, -2.60089
0.176697, -1, -17.7652, 33.625, 27.8246, -18.4079, -88.9372, -2.78959
0.185543, -1, -17.6026, 33.5435, 27.8002, -18.1284, -88.6403, -2.92338
0.191104, -1, -17.5178, 33.5011, 27.7878, -17.9854, -88.4883, -2.99189
0.201037, -1, -17.2527, 33.3685, 27.7503, -17.5489, -88.024, -3.20157
0.206991, -1, -17.1617, 33.3231, 27.7377, -17.4015, -87.8674, -3.27251
0.216002, -1, -16.977, 33.2309, 27.7125, -17.1053, -87.5526, -3.41479
0.224042, -1, -16.7897, 33.1378, 27.6874, -16.8079, -87.236, -3.55761
0.231987, -1, -16.6008, 33.0442, 27.6624, -16.5094, -86.9184, -3.70079
0.239031, -1, -16.411, 32.9504, 27.6372, -16.2101, -86.5998, -3.84415
0.246996, -1, -16.2209, 32.8565, 27.6121, -15.9102, -86.2804, -3.98783
0.256005, -1, -16.031, 32.7628, 27.587, -15.6092, -85.9605, -4.13184
0.264043, -1, -15.8414, 32.669, 27.5619, -15.3079, -85.6401, -4.27592
0.271991, -1, -15.6525, 32.5753, 27.5368, -15.0064, -85.319, -4.42064
0.280045, -1, -15.4638, 32.4815, 27.5114, -14.7042, -84.9977, -4.56551
0.288049, -1, -15.2755, 32.3874, 27.4861, -14.4017, -84.676, -4.71035
0.295994, -1, -15.0878, 32.2931, 27.4608, -14.099, -84.3537, -4.85539
0.303987, -1, -14.9, 32.1984, 27.4355, -13.7956, -84.0313, -5.00052
0.313657, -1, -14.7118, 32.1033, 27.4099, -13.4923, -83.7087, -5.21854
0.320113, -1, -14.5225, 32.0081, 27.3843, -13.1888, -83.3856, -5.29131
0.32899, -1, -14.3322, 31.9127, 27.3586, -12.8851, -83.0624, -5.43684
0.334995, -1, -14.1409, 31.8172, 27.3331, -12.5814, -82.7388, -5.5827
0.344025, -1, -13.9489, 31.7216, 27.3074, -12.2772, -82.4151, -5.72847
0.352062, -1, -13.7564, 31.6261, 27.2817, -11.9728, -82.0911, -5.87417
0.360075, -1, -13.5633, 31.5306, 27.2561, -11.6685, -81.767, -6.01994
0.367795, -1, -13.3695, 31.4352, 27.2304, -11.364, -81.4429, -6.16554
0.376054, -1, -13.1758, 31.3399, 27.2048, -11.0597, -81.1189, -6.31135
0.383029, -1, -12.9827, 31.2447, 27.1792, -10.7554, -80.795, -6.45716
0.392446, -1, -12.7903, 31.1496, 27.1536, -10.4508, -80.4714, -6.60289
0.399078, -1, -12.5983, 31.0546, 27.1281, -10.1464, -80.1479, -6.74888
0.407193, -1, -12.4072, 30.9594, 27.1025, -9.84227, -79.8243, -6.89462
0.415083, -1, -12.217, 30.8643, 27.0768, -9.53819, -79.5009, -7.04024
0.423985, -1, -12.0277, 30.7691, 27.0511, -9.23436, -79.1775, -7.18587
0.431997, -1, -11.8388, 30.6738, 27.0255, -8.93067, -78.8541, -7.33131
0.440965, -1, -11.6499, 30.5784, 27.0001, -8.62708, -78.5309, -7.4766
0.447996, -1, -11.4608, 30.4833, 26.9745, -8.32393, -78.2081, -7.62184
0.455761, -1, -11.2714, 30.3883, 26.9488, -8.02138, -77.8862, -7.76715
0.464827, -1, -11.0816, 30.2935, 26.9233, -7.71924, -77.5645, -7.9119
0.471985, -1, -10.8915, 30.1989, 26.8979, -7.41759, -77.2434, -8.05637
0.480057, -1, -10.7009, 30.1045, 26.8726, -7.11637, -76.923, -8.20046
0.488829, -1, -10.5104, 30.0104, 26.8472, -6.81543, -76.603, -8.34427
0.495986, -1, -10.3194, 29.9164, 26.8219, -6.51518, -76.2832, -8.48792
0.504214, -1, -10.1289, 29.8225, 26.7968, -6.21566, -75.9642, -8.63115
0.511408, -1, -9.93915, 29.7289, 26.7716, -5.91638, -75.6455, -8.77436
0.648944, -1, -6.89982, 28.2155, 26.3649, -1.09035, -70.5089, -11.1522
0.650213, -1, -6.80969, 28.1709, 26.3529, -0.948013, -70.3574, -11.1522
0.651393, -1, -6.80969, 28.1709, 26.3529, -0.948013, -70.3574, -11.1522
0.653417, -1, -6.71983, 28.1264, 26.341, -0.805992, -70.2063, -11.2203
0.654743, -1, -6.71983, 28.1264, 26.341, -0.805992, -70.2063, -11.2203
0.656582, -1, -6.63019, 28.0819, 26.329, -0.664179, -70.0554, -11.2882
0.658148, -1, -6.63019, 28.0819, 26.329, -0.664179, -70.0554, -11.2882
0.661015, -1, -6.54078, 28.0374, 26.3171, -0.522574, -69.9048, -11.3559
0.662283, -1, -6.54078, 28.0374, 26.3171, -0.522574, -69.9048, -11.3559
0.663474, -1, -6.54078, 28.0374, 26.3171, -0.522574, -69.9048, -11.3559
0.665497, -1, -6.45164, 27.9931, 26.3052, -0.381256, -69.7545, -11.4236
0.666768, -1, -6.45164, 27.9931, 26.3052, -0.381256, -69.7545, -11.4236
0.668593, -1, -6.36289, 27.9488, 26.2932, -0.24019, -69.6046, -11.491
0.670048, -1, -6.36289, 27.9488, 26.2932, -0.24019, -69.6046, -11.491
0.671251, -1, -6.36289, 27.9488, 26.2932, -0.24019, -69.6046, -11.491
0.674297, -1, -6.27451, 27.9047, 26.2814, -0.099321, -69.4549, -11.5583
0.675548, -1, -6.27451, 27.9047, 26.2814, -0.099321, -69.4549, -11.5583
0.677628, -1, -6.18634, 27.8606, 26.2695, 0.0412614, -69.3053, -11.6256
0.678898, -1, -6.18634, 27.8606, 26.2695, 0.0412614, -69.3053, -11.6256
0.681783, -1, -6.09838, 27.8165, 26.2577, 0.181573, -69.1559, -11.6928
0.683031, -1, -6.09838, 27.8165, 26.2577, 0.181573, -69.1559, -11.6928
0.689612, -1, -5.92318, 27.7286, 26.2341, 0.461315, -68.8582, -11.8267
0.696594, -1, -5.83598, 27.6848, 26.2224, 0.600717, -68.7097, -11.8935
0.703975, -1, -5.66214, 27.5974, 26.199, 0.878918, -68.4134, -12.0268
0.710971, -1, -5.48885, 27.5104, 26.1756, 1.15588, -68.1184, -12.1596
0.720043, -1, -5.31598, 27.4239, 26.1523, 1.43165, -67.8244, -12.2918
0.727971, -1, -5.14331, 27.3376, 26.1291, 1.70665, -67.532, -12.4233
0.734991, -1, -4.97093, 27.2519, 26.1062, 1.98039, -67.2408, -12.5543
0.743971, -1, -4.79888, 27.1665, 26.0833, 2.25263, -66.951, -12.6843
0.75197, -1, -4.62732, 27.0815, 26.0603, 2.52399, -66.6623, -12.814
0.760122, -1, -4.45633, 26.9968, 26.0376, 2.79393, -66.3751, -12.9432
0.766975, -1, -4.28556, 26.9124, 26.0149, 3.06262, -66.0888, -13.0719
0.776007, -1, -4.11542, 26.8285, 25.9924, 3.33046, -65.8039, -13.1997
0.786337, -1, -3.8621, 26.7031, 25.9587, 3.72993, -65.3786, -13.3913
0.790983, -1, -3.77831, 26.6615, 25.9475, 3.86239, -65.2375, -13.4548
0.800035, -1, -3.61164, 26.5785, 25.9254, 4.12669, -64.9561, -13.5811
0.807973, -1, -3.44609, 26.4959, 25.9032, 4.38979, -64.6761, -13.7069
0.817599, -1, -3.28151, 26.4136, 25.8811, 4.65152, -64.2584, -13.8944
0.824001, -1, -3.11796, 26.3316, 25.8591, 4.91233, -64.1198, -13.9566
0.832972, -1, -2.95563, 26.25, 25.8371, 5.17206, -63.8437, -14.0808
0.838976, -1, -2.79416, 26.1687, 25.8155, 5.43051, -63.5687, -14.2044
0.846972, -1, -2.63342, 26.0879, 25.7939, 5.68767, -63.295, -14.3273
0.855983, -1, -2.47311, 26.0075, 25.7724, 5.94357, -63.0226, -14.4501
0.864072, -1, -2.313, 25.9276, 25.751, 6.19832, -62.7513, -14.5723
0.871965, -1, -2.15325, 25.848, 25.7296, 6.4518, -62.4815, -14.6935
0.880133, -1, -1.99399, 25.7688, 25.7084, 6.70425, -62.2127, -14.8144
0.88702, -1, -1.83507, 25.6901, 25.6872, 6.95584, -61.945, -14.9345
0.895979, -1, -1.67679, 25.6116, 25.6663, 7.20592, -61.6786, -15.0539
0.904037, -1, -1.51889, 25.5336, 25.6454, 7.45474, -61.4134, -15.1731
0.911978, -1, -1.36133, 25.4558, 25.6244, 7.70275, -61.1491, -15.2917
0.920022, -1, -1.20439, 25.3783, 25.6038, 7.94947, -60.8861, -15.4098
0.928036, -1, -1.04843, 25.3012, 25.5832, 8.19506, -60.6244, -15.5275
0.935967, -1, -0.893531, 25.2244, 25.5626, 8.43982, -60.3639, -15.6447
0.943961, -1, -0.739958, 25.1479, 25.5422, 8.68354, -60.1048, -15.7612
0.952048, -1, -0.587383, 25.0718, 25.5217, 8.92581, -59.8468, -15.8772
0.960025, -1, -0.435826, 24.996, 25.5014, 9.1671, -59.5902, -15.9927
0.967967, -1, -0.28543, 24.9207, 25.4813, 9.40728, -59.3351, -16.1078
0.976034, -1, -0.136158, 24.8457, 25.4612, 9.6464, -59.081, -16.2222
0.98397, -1, 0.0122219, 24.771, 25.4413, 9.88414, -58.8278, -16.3363
0.99205, -1, 0.159869, 24.6967, 25.4215, 10.121, -58.5758, -16.45
1.0001, -1, 0.30712, 24.6227, 25.4015, 10.357, -58.3246, -16.5629
1.00797, -1, 0.454334, 24.549, 25.3818, 10.5917, -58.0744, -16.6757
1.0162, -1, 0.601399, 24.4757, 25.3621, 10.8252, -57.8254, -16.7877
1.02348, -1, 0.748182, 24.4026, 25.3425, 11.0578, -57.5774, -16.8989
1.0319, -1, 0.894721, 24.3298, 25.3232, 11.2894, -57.3305, -17.0099
1.04044, -1, 1.04066, 24.2574, 25.3038, 11.5198, -57.085, -17.1198
1.04755, -1, 1.18596, 24.1854, 25.2844, 11.7492, -56.8407, -17.2297
1.05608, -1, 1.33083, 24.1136, 25.2652, 11.9777, -56.5975, -17.3387
1.0646, -1, 1.47527, 24.0422, 25.246, 12.2053, -56.3557, -17.4474
1.07198, -1, 1.61922, 23.9712, 25.227, 12.4316, -56.1149, -17.5556
1.07985, -1, 1.69092, 23.9358, 25.2176, 12.5444, -55.9949, -17.6095
1.08879, -1, 1.90455, 23.8301, 25.1893, 12.8815, -55.6366, -17.771
1.09603, -1, 2.04558, 23.7601, 25.1705, 13.1048, -55.399, -17.8779
1.103, -1, 2.11576, 23.7251, 25.1612, 13.216, -55.2806, -17.9313
1.11295, -1, 2.32494, 23.6209, 25.1332, 13.5483, -54.9265, -18.0903
1.12027, -1, 2.46319, 23.5517, 25.1147, 13.7689, -54.6917, -18.1957
1.12701, -1, 2.53198, 23.5172, 25.1055, 13.8789, -54.5746, -18.2482
1.13726, -1, 2.73686, 23.4142, 25.078, 14.2071, -54.2248, -18.4049
1.14303, -1, 2.8047, 23.38, 25.0688, 14.3159, -54.1088, -18.4571
1.15257, -1, 3.00727, 23.2778, 25.0415, 14.6413, -53.7625, -18.6128
1.16141, -1, 3.1421, 23.2099, 25.0232, 14.857, -53.5328, -18.7162
1.16705, -1, 3.20954, 23.1761, 25.0142, 14.9644, -53.4184, -18.7676
1.17676, -1, 3.41164, 23.0753, 24.9873, 15.2857, -53.0765, -18.9217
1.18544, -1, 3.47889, 23.0084, 24.9694, 15.4989, -52.8498, -19.0239
1.19104, -1, 3.61319, 22.9751, 24.9605, 15.6053, -52.7369, -19.0747
1.20072, -1, 3.74726, 22.9087, 24.9427, 15.817, -52.3992, -19.2265
1.20796, -1, 3.88082, 22.8425, 24.925, 16.0276, -52.2872, -19.2768
1.21503, -1, 4.01394, 22.7767, 24.9073, 16.2377, -52.0638, -19.377
1.22401, -1, 4.14669, 22.7112, 24.8898, 16.4467, -51.8412, -19.477
1.23197, -1, 4.27892, 22.6459, 24.8723, 16.6548, -51.6195, -19.5766
1.23904, -1, 4.41064, 22.5808, 24.8549, 16.8621, -51.3985, -19.6756
1.248, -1, 4.54156, 22.516, 24.8375, 17.0687, -51.1786, -19.7745
1.25595, -1, 4.67185, 22.4513, 24.8203, 17.2746, -50.9595, -19.8729
1.26301, -1, 4.80135, 22.3869, 24.803, 17.4794, -50.7411, -19.9711
1.27195, -1, 4.93006, 22.3228, 24.7858, 17.6835, -50.5238, -20.0689
1.27996, -1, 5.05808, 22.2588, 24.7688, 17.8867, -50.3073, -20.1665
1.28697, -1, 5.18531, 22.1951, 24.7518, 18.0894, -50.0916, -20.2631
1.29595, -1, 5.31173, 22.1317, 24.7347, 18.2911, -49.8768, -20.3598
1.30395, -1, 5.4371, 22.0685, 24.7179, 18.492, -49.6629, -20.4557
1.31095, -1, 5.56176, 22.0056, 24.701, 18.6922, -49.4498, -20.5516
1.31995, -1, 5.68584, 21.943, 24.6841, 18.8917, -49.2378, -20.6469
1.32897, -1, 5.80965, 21.8807, 24.6674, 19.0906, -49.0263, -20.742
1.33497, -1, 5.93337, 21.8187, 24.6509, 19.2885, -48.8162, -20.8365
1.34395, -1, 6.05706, 21.7568, 24.6343, 19.4855, -48.6067, -20.9311
1.35198, -1, 6.1806, 21.6952, 24.6178, 19.682, -48.3978, -21.025
1.36002, -1, 6.304, 21.6337, 24.6014, 19.8776, -48.1896, -21.1191
1.368, -1, 6.42719, 21.5726, 24.5849, 20.0724, -47.9821, -21.2123
1.37595, -1, 6.5502, 21.5115, 24.5685, 20.2664, -47.7755, -21.3056
1.38397, -1, 6.67282, 21.4508, 24.5523, 20.4598, -47.5694, -21.3979
1.39201, -1, 6.79513, 21.3902, 24.5362, 20.6527, -47.364, -21.4904
1.39995, -1, 6.91686, 21.3299, 24.5199, 20.8446, -47.1594, -21.5819
1.40826, -1, 7.03825, 21.27, 24.5037, 21.036, -46.9554, -21.6735
1.41508, -1, 7.15901, 21.2102, 24.4877, 21.2265, -46.7523, -21.7642
1.42396, -1, 7.27916, 21.1507, 24.4717, 21.4164, -46.55, -21.8554
1.43279, -1, 7.39863, 21.0914, 24.4558, 21.6058, -46.3486, -21.9454
1.43995, -1, 7.51757, 21.0324, 24.4402, 21.7943, -46.1479, -22.0358
1.44795, -1, 7.63605, 20.9734, 24.4244, 21.9821, -45.9478, -22.1254
1.45678, -1, 7.75403, 20.9148, 24.4086, 22.1694, -45.7488, -22.2154
1.46396, -1, 7.87146, 20.8562, 24.3929, 22.3562, -45.5502, -22.3047
1.47195, -1, 7.98835, 20.7977, 24.3772, 22.5423, -45.3527, -22.394
1.48074, -1, 8.1046, 20.7395, 24.3616, 22.7276, -45.1558, -22.4823
1.48795, -1, 8.22027, 20.6814, 24.346, 22.9122, -44.9596, -22.5708
1.49599, -1, 8.33558, 20.6235, 24.3307, 23.0961, -44.7638, -22.6584
1.50476, -1, 8.45062, 20.5659, 24.3153, 23.2796, -44.5686, -22.7462
1.51195, -1, 8.56523, 20.5085, 24.2999, 23.4623, -44.3739, -22.8333
1.52, -1, 8.67922, 20.4514, 24.2845, 23.6443, -44.18, -22.9204
1.52884, -1, 8.79288, 20.3944, 24.2693, 23.8257, -43.9865, -23.0073
1.53608, -1, 8.9063, 20.3378, 24.2541, 24.0068, -43.7935, -23.0938
1.5435, -1, 9.01952, 20.2812, 24.2389, 24.1872, -43.6016, -23.1802
1.55344, -1, 9.13257, 20.2248, 24.2239, 24.3669, -43.4104, -23.2662
1.55959, -1, 9.24569, 20.1686, 24.209, 24.546, -43.2197, -23.3523
1.56813, -1, 9.35871, 20.1126, 24.1939, 24.7244, -43.0296, -23.4377
1.57551, -1, 9.41511, 20.0846, 24.1864, 24.8134, -42.9348, -23.4806
1.58407, -1, 9.58363, 20.0009, 24.1639, 25.08, -42.6513, -23.6078
1.59094, -1, 9.63955, 19.9731, 24.1564, 25.1684, -42.557, -23.6502
1.60005, -1, 9.80675, 19.8899, 24.1341, 25.433, -42.2754, -23.7768
1.60808, -1, 9.91791, 19.8347, 24.1194, 25.6087, -42.0882, -23.861
1.61495, -1, 9.97338, 19.8071, 24.1122, 25.6964, -41.995, -23.9028
1.62428, -1, 10.1391, 19.7249, 24.0903, 25.9589, -41.7161, -24.0279
1.631, -1, 10.1942, 19.6975, 24.0829, 26.0461, -41.6234, -24.0697
1.64037, -1, 10.3587, 19.6158, 24.0609, 26.3066, -41.3462, -24.194
1.64698, -1, 10.4133, 19.5887, 24.0537, 26.3932, -41.2539, -24.2356
1.65703, -1, 10.5764, 19.5074, 24.0319, 26.6523, -40.9782, -24.3593
1.66298, -1, 10.6305, 19.4804, 24.0246, 26.7385, -40.8865, -24.4008
1.67254, -1, 10.7925, 19.3997, 24.0031, 26.9957, -40.6125, -24.5239
1.68056, -1, 10.8999, 19.3461, 23.9889, 27.1666, -40.4304, -24.6063
1.68855, -1, 10.9535, 19.3193, 23.9818, 27.3369, -40.2487, -24.6875
1.69658, -1, 11.0604, 19.2658, 23.9674, 27.422, -40.0679, -24.7689
1.70398, -1, 11.1669, 19.2126, 23.953, 27.5918, -39.9776, -24.8097
1.71194, -1, 11.2732, 19.1594, 23.9388, 27.761, -39.7975, -24.8904
1.71997, -1, 11.379, 19.1064, 23.9246, 27.9297, -39.6179, -24.9713
1.72798, -1, 11.4843, 19.0536, 23.9104, 28.0978, -39.4388, -25.0517
1.73595, -1, 11.5894, 19.0011, 23.8964, 28.2654, -39.2603, -25.132
1.74395, -1, 11.6943, 18.9486, 23.8825, 28.4328, -39.0821, -25.2123
1.75201, -1, 11.7991, 18.8964, 23.8685, 28.5997, -38.9048, -25.2919
1.75994, -1, 11.9036, 18.8443, 23.8545, 28.7659, -38.7277, -25.3719
1.76798, -1, 12.008, 18.7923, 23.8405, 28.9316, -38.551, -25.451
1.77495, -1, 12.1122, 18.7404, 23.8266, 29.0969, -38.3753, -25.5309
1.78398, -1, 12.2163, 18.6886, 23.8127, 29.262, -38.1999, -25.6098
1.79199, -1, 12.3202, 18.637, 23.7989, 29.4266, -38.0252, -25.6889
1.79995, -1, 12.4237, 18.5855, 23.7852, 29.5906, -37.8509, -25.7676
1.80794, -1, 12.527, 18.5341, 23.7716, 29.7541, -37.677, -25.8454
1.81598, -1, 12.6301, 18.4829, 23.7579, 29.9172, -37.5035, -25.9238
1.82551, -1, 12.733, 18.4318, 23.7442, 30.0799, -37.3301, -26.0401
1.83198, -1, 12.8354, 18.3809, 23.7304, 30.2422, -37.1576, -26.0791
1.84093, -1, 12.9374, 18.3302, 23.7169, 30.4039, -36.9853, -26.1561
1.84806, -1, 13.0391, 18.2797, 23.7033, 30.5652, -36.8134, -26.233
1.85594, -1, 13.1404, 18.2293, 23.6897, 30.7259, -36.6421, -26.3103
1.864, -1, 13.2414, 18.1791, 23.6763, 30.8865, -36.4711, -26.3864
1.87195, -1, 13.342, 18.129, 23.663, 31.0466, -36.3008, -26.4634
1.87994, -1, 13.4424, 18.079, 23.6497, 31.2063, -36.1307, -26.5395
1.888, -1, 13.5425, 18.029, 23.6363, 31.3655, -35.9611, -26.6157
1.89593, -1, 13.6425, 17.9791, 23.6229, 31.5241, -35.7921, -26.6921
1.90394, -1, 13.7422, 17.9293, 23.6096, 31.6823, -35.6235, -26.7675
1.91201, -1, 13.8418, 17.8796, 23.5963, 31.8404, -35.4555, -26.8436
1.91993, -1, 13.9412, 17.83, 23.583, 31.998, -35.2879, -26.9185
1.92795, -1, 14.0404, 17.7805, 23.5698, 32.1552, -35.1205, -26.9938
1.93603, -1, 14.1394, 17.7313, 23.5567, 32.3119, -34.9537, -27.0688
1.94393, -1, 14.238, 17.6821, 23.5437, 32.4682, -34.7874, -27.1433
1.952, -1, 14.3362, 17.6332, 23.5306, 32.6243, -34.6216, -27.2182
1.96, -1, 14.4339, 17.5844, 23.5174, 32.7801, -34.4562, -27.292
1.96795, -1, 14.5314, 17.5358, 23.5043, 32.9356, -34.291, -27.3664
1.97595, -1, 14.6286, 17.4873, 23.4914, 33.0904, -34.1261, -27.4407
1.98403, -1, 14.7253, 17.4389, 23.4785, 33.2448, -33.9616, -27.5143
1.99194, -1, 14.8219, 17.3907, 23.4655, 33.3989, -33.7976, -27.5885
2.0001, -1, 14.9182, 17.3425, 23.4526, 33.5527, -33.634, -27.6618
2.00795, -1, 15.0144, 17.2943, 23.4399, 33.7061, -33.4705, -27.7357
2.01594, -1, 15.1104, 17.2462, 23.4271, 33.859, -33.3074, -27.8092
2.02423, -1, 15.2063, 17.1981, 23.4142, 34.0116, -33.1449, -27.8821
2.03144, -1, 15.3022, 17.1502, 23.4013, 34.1637, -32.9827, -27.9555
2.04032, -1, 15.398, 17.1023, 23.3885, 34.3156, -32.8212, -28.0278
2.0477, -1, 15.4939, 17.0546, 23.3757, 34.4672, -32.6599, -28.1005
2.05604, -1, 15.5895, 17.0071, 23.3629, 34.6185, -32.4991, -28.1729
2.06451, -1, 15.685, 16.9599, 23.3501, 34.7693, -32.3385, -28.2447
2.07155, -1, 15.7326, 16.9362, 23.3438, 34.8447, -32.2584, -28.3172
2.07993, -1, 15.8752, 16.8657, 23.3251, 35.0698, -32.0185, -28.3884
2.08875, -1, 15.9699, 16.8188, 23.3126, 35.2196, -31.8591, -28.4601
2.09611, -1, 16.0644, 16.7721, 23.3, 35.3692, -31.7001, -28.5319
2.10298, -1, 16.1115, 16.7488, 23.2936, 35.4438, -31.6206, -28.5673
2.11272, -1, 16.2522, 16.6789, 23.2749, 35.6671, -31.3832, -28.6744
2.12016, -1, 16.3456, 16.6323, 23.2625, 35.8155, -31.225, -28.7452
2.12698, -1, 16.3922, 16.6091, 23.2563, 35.8896, -31.1462, -28.7804
2.1373, -1, 16.5316, 16.5393, 23.2375, 36.1116, -30.91, -28.8874
2.14297, -1, 16.578, 16.516, 23.2313, 36.1855, -30.8315, -28.9225
2.15252, -1, 16.7167, 16.4465, 23.2128, 36.4066, -30.5962, -29.0284
2.16055, -1, 16.809, 16.4002, 23.2004, 36.5535, -30.4399, -29.0988
2.16859, -1, 16.9012, 16.3541, 23.1881, 36.7, -30.284, -29.1685
2.17655, -1, 16.9932, 16.3081, 23.1757, 36.8461, -30.1283, -29.2389
2.18453, -1, 17.085, 16.2623, 23.1634, 36.9921, -29.9729, -29.3082
2.19278, -1, 17.1308, 16.2395, 23.1573, 37.1378, -29.8176, -29.3778
2.20051, -1, 17.2209, 16.1944, 23.1449, 37.2104, -29.6631, -29.4473
2.20792, -1, 17.3077, 16.151, 23.1324, 37.3551, -29.5864, -29.4815
2.21594, -1, 17.3897, 16.11, 23.1198, 37.4974, -29.4345, -29.5494
2.22406, -1, 17.4661, 16.0719, 23.1074, 37.6352, -29.2875, -29.616
2.23195, -1, 17.537, 16.0371, 23.0953, 37.765, -29.1489, -29.6781
2.23992, -1, 17.6009, 16.006, 23.0841, 37.8834, -29.0224, -29.7349
2.24797, -1, 17.6572, 15.9786, 23.0742, 37.9866, -28.9119, -29.785
2.25592, -1, 17.7072, 15.9539, 23.0665, 38.071, -28.8212, -29.8262
2.26394, -1, 17.7512, 15.9313, 23.0613, 38.1368, -28.7502, -29.858
2.27197, -1, 17.789, 15.9117, 23.0581, 38.1833, -28.6995, -29.8806
2.27992, -1, 17.8198, 15.896, 23.0564, 38.2145, -28.6654, -29.8958
2.28792, -1, 17.8442, 15.8841, 23.0556, 38.234, -28.6441, -29.905
2.29598, -1, 17.8628, 15.8754, 23.0553, 38.2451, -28.6319, -29.9103
2.30393, -1, 17.8749, 15.8698, 23.0552, 38.2507, -28.6257, -29.913
2.31189, 2, 17.8814, 15.8668, 23.0551, 38.2534, -28.6226, -29.9141
2.32001, 2, 17.8843, 15.8654, 23.0551, 38.2548, -28.6211, -29.9148
2.32791, 2, 17.8852, 15.8647, 23.055, 38.2554, -28.6205, -29.9152
2.33598, 2, 17.8849, 15.8644, 23.0551, 38.2556, -28.6202, -29.9153
2.34492, 2, 17.8842, 15.8643, 23.0551, 38.2558, -28.6201, -29.9154
2.35197, 2, 17.8835, 15.8643, 23.0551, 38.2559, -28.62, -29.9154
2.35992, 2, 17.8831, 15.8642, 23.0551, 38.2559, -28.62, -29.9153
2.36798, 2, 17.8829, 15.8641, 23.0551, 38.2559, -28.62, -29.9153
2.37592, 2, 17.8829, 15.864, 23.0551, 38.2559, -28.62, -29.9153
2.38393, 2, 17.883, 15.8637, 23.0551, 38.2559, -28.62, -29.9153
2.39198, 2, 17.8833, 15.8634, 23.0551, 38.2559, -28.62, -29.9154
2.39992, 2, 17.8837, 15.8631, 23.055, 38.2559, -28.6201, -29.9153
2.40792, 2, 17.8841, 15.8628, 23.055, 38.2559, -28.62, -29.9153
2.41599, 2, 17.8849, 15.8626, 23.055, 38.2559, -28.62, -29.9153
2.42393, 2, 17.8857, 15.8626, 23.055, 38.2559, -28.62, -29.9153
2.43191, 2, 17.8864, 15.8625, 23.055, 38.2559, -28.62, -29.9153
2.43998, 2, 17.887, 15.8625, 23.055, 38.2559, -28.62, -29.9154
2.44792, 2, 17.8873, 15.8625, 23.055, 38.2559, -28.6201, -29.9154
2.45591, 2, 17.8875, 15.8625, 23.055, 38.2559, -28.6201, -29.9153
2.464, 2, 17.8876, 15.8626, 23.055, 38.2559, -28.6201, -29.9154
2.47192, 2, 17.8877, 15.8626, 23.0551, 38.2559, -28.6201, -29.9154
2.47992, 2, 17.8877, 15.8626, 23.0551, 38.2559, -28.6202, -29.9153
2.48802, 2, 17.8877, 15.8625, 23.0551, 38.2559, -28.6202, -29.9153
2.49592, 2, 17.8877, 15.8625, 23.0551, 38.2559, -28.6202, -29.9153
2.50399, 2, 17.8875, 15.8624, 23.0551, 38.2559, -28.6202, -29.9152
2.51199, 2, 17.8873, 15.8623, 23.055, 38.2559, -28.6202, -29.9152
2.51994, 2, 17.8871, 15.8623, 23.055, 38.2559, -28.6202, -29.9152
2.52795, 2, 17.887, 15.8622, 23.0551, 38.2559, -28.6203, -29.9153
2.53607, 2, 17.887, 15.8622, 23.0551, 38.2559, -28.6203, -29.9153
2.54382, 2, 17.887, 15.8623, 23.0551, 38.2559, -28.6203, -29.9153
2.55202, 2, 17.887, 15.8623, 23.0551, 38.2558, -28.6203, -29.9153
2.56008, 2, 17.887, 15.8623, 23.0551, 38.2558, -28.6204, -29.9153
2.56802, 2, 17.887, 15.8623, 23.0551, 38.2558, -28.6204, -29.9153
2.57592, 2, 17.887, 15.8623, 23.055, 38.2559, -28.6204, -29.9154
2.58406, 2, 17.887, 15.8623, 23.055, 38.2559, -28.6204, -29.9153
2.59195, 2, 17.887, 15.8623, 23.0551, 38.2559, -28.6204, -29.9153
2.59896, 2, 17.887, 15.8623, 23.055, 38.2559, -28.6205, -29.9154
2.60809, 2, 17.887, 15.8623, 23.055, 38.2559, -28.6205, -29.9153
2.61491, 2, 17.887, 15.8623, 23.055, 38.2559, -28.6205, -29.9153
2.62412, 2, 17.8869, 15.8623, 23.0551, 38.2559, -28.6205, -29.9153
2.63091, 2, 17.8869, 15.8623, 23.0551, 38.2559, -28.6205, -29.9153
2.64051, 2, 17.8868, 15.8623, 23.0551, 38.2558, -28.6205, -29.9153
2.6483, 2, 17.8868, 15.8623, 23.0551, 38.2559, -28.6205, -29.9153
2.65491, 2, 17.8868, 15.8623, 23.0551, 38.2558, -28.6205, -29.9153
2.66484, 2, 17.8868, 15.8623, 23.0551, 38.2558, -28.6206, -29.9152
2.67253, 2, 17.8868, 15.8623, 23.0551, 38.2559, -28.6206, -29.9152
2.6805, 2, 17.8868, 15.8623, 23.0551, 38.2558, -28.6206, -29.9152
2.68878, 2, 17.8868, 15.8623, 23.0551, 38.2558, -28.6206, -29.9153
2.69651, 2, 17.8868, 15.8623, 23.055, 38.2558, -28.6206, -29.9153
2.70452, 2, 17.8867, 15.8624, 23.055, 38.2558, -28.6206, -29.9152
2.71277, 2, 17.8867, 15.8623, 23.0551, 38.2558, -28.6206, -29.9152
2.7199, 2, 17.8867, 15.8623, 23.0551, 38.2559, -28.6206, -29.9152
2.72795, 2, 17.8867, 15.8623, 23.0551, 38.2558, -28.6206, -29.9152
2.73591, 2, 17.8867, 15.8623, 23.0551, 38.2558, -28.6207, -29.9152
2.74392, 2, 17.8867, 15.8623, 23.0551, 38.2558, -28.6207, -29.9152
2.75195, 2, 17.8867, 15.8623, 23.0551, 38.2558, -28.6208, -29.9152
2.75996, 2, 17.8867, 15.8623, 23.0551, 38.2558, -28.6208, -29.9152
2.7679, 2, 17.8866, 15.8623, 23.0551, 38.2558, -28.6208, -29.9152
2.77595, 2, 17.8866, 15.8624, 23.0551, 38.2558, -28.6208, -29.9152
2.78391, 2, 17.8866, 15.8624, 23.0551, 38.2558, -28.6208, -29.9152
2.7919, 2, 17.8866, 15.8624, 23.0551, 38.2558, -28.6208, -29.9152
2.79891, 2, 17.8865, 15.8624, 23.0551, 38.2558, -28.6208, -29.9152
2.8079, 2, 17.8865, 15.8624, 23.0551, 38.2558, -28.6208, -29.9152
2.8159, 2, 17.8865, 15.8624, 23.0551, 38.2558, -28.6208, -29.9152
2.82402, 2, 17.8864, 15.8624, 23.0551, 38.2558, -28.6209, -29.9152
2.8319, 2, 17.8864, 15.8624, 23.0551, 38.2558, -28.6209, -29.9152
2.83996, 2, 17.8864, 15.8624, 23.0551, 38.2557, -28.6209, -29.9152
2.84797, 2, 17.8863, 15.8624, 23.0551, 38.2557, -28.6209, -29.9152
2.8559, 2, 17.8863, 15.8624, 23.0551, 38.2557, -28.6209, -29.9152
2.86392, 2, 17.8862, 15.8624, 23.0551, 38.2556, -28.6209, -29.9152
2.87197, 2, 17.8862, 15.8624, 23.0551, 38.2556, -28.6209, -29.9152
2.8799, 2, 17.8861, 15.8624, 23.0551, 38.2556, -28.6209, -29.9151
2.88789, 2, 17.8861, 15.8624, 23.0551, 38.2556, -28.6209, -29.9152
2.89596, 2, 17.8861, 15.8624, 23.0551, 38.2556, -28.6209, -29.9152
2.90391, 2, 17.886, 15.8624, 23.0551, 38.2556, -28.6209, -29.9152
2.9119, 2, 17.886, 15.8624, 23.0551, 38.2556, -28.6209, -29.9151
2.91997, 2, 17.8859, 15.8624, 23.0551, 38.2556, -28.621, -29.9151
2.92792, 2, 17.8859, 15.8624, 23.0551, 38.2556, -28.621, -29.9151
2.9359, 2, 17.8858, 15.8624, 23.0551, 38.2556, -28.621, -29.9151
2.94398, 2, 17.8858, 15.8624, 23.0551, 38.2556, -28.621, -29.9151
2.95189, 2, 17.8857, 15.8624, 23.0551, 38.2556, -28.6211, -29.9151
2.9599, 2, 17.8857, 15.8624, 23.0551, 38.2556, -28.6211, -29.9151
2.96797, 2, 17.8856, 15.8624, 23.0551, 38.2556, -28.6211, -29.9151
2.9759, 2, 17.8856, 15.8624, 23.0551, 38.2556, -28.6211, -29.915
2.98391, 2, 17.8855, 15.8624, 23.0551, 38.2555, -28.6211, -29.9151
2.992, 2, 17.8855, 15.8624, 23.0551, 38.2555, -28.6211, -29.9152
2.99991, 2, 17.8854, 15.8625, 23.0551, 38.2555, -28.6211, -29.9151
3.00796, 2, 17.8854, 15.8625, 23.0551, 38.2555, -28.6212, -29.9151
3.01597, 2, 17.8853, 15.8624, 23.0551, 38.2555, -28.6212, -29.9151
3.02395, 2, 17.8853, 15.8625, 23.0551, 38.2554, -28.6212, -29.9151
3.03194, 2, 17.8852, 15.8624, 23.0551, 38.2555, -28.6212, -29.9151
3.04005, 2, 17.8851, 15.8624, 23.0551, 38.2555, -28.6212, -29.9151
3.04799, 2, 17.8851, 15.8624, 23.0551, 38.2554, -28.6212, -29.9151
3.056, 2, 17.885, 15.8624, 23.0551, 38.2554, -28.6212, -29.9151
3.06414, 2, 17.885, 15.8624, 23.0551, 38.2554, -28.6212, -29.9151
3.07152, 2, 17.8849, 15.8625, 23.0551, 38.2554, -28.6212, -29.9151
3.07991, 2, 17.8849, 15.8625, 23.0551, 38.2554, -28.6211, -29.915
3.08797, 2, 17.8848, 15.8625, 23.0551, 38.2554, -28.6212, -29.9151
3.09593, 2, 17.8847, 15.8625, 23.0551, 38.2553, -28.6212, -29.9151
3.10294, 2, 17.8847, 15.8625, 23.0551, 38.2553, -28.6212, -29.9151
3.11231, 2, 17.8846, 15.8625, 23.0551, 38.2553, -28.6212, -29.9151
3.1189, 2, 17.8846, 15.8625, 23.0551, 38.2553, -28.6212, -29.9151
3.12817, 2, 17.8846, 15.8625, 23.0551, 38.2553, -28.6212, -29.915
3.13489, 2, 17.8845, 15.8625, 23.0551, 38.2553, -28.6212, -29.915
3.14424, 2, 17.8845, 15.8625, 23.0551, 38.2553, -28.6212, -29.915
3.15094, 2, 17.8844, 15.8625, 23.0551, 38.2553, -28.6212, -29.915
3.16078, 2, 17.8843, 15.8625, 23.0551, 38.2552, -28.6212, -29.9149
3.16841, 2, 17.8843, 15.8625, 23.0551, 38.2552, -28.6212, -29.915
3.17654, 2, 17.8843, 15.8625, 23.0551, 38.2552, -28.6213, -29.915
3.18454, 2, 17.8842, 15.8625, 23.0551, 38.2552, -28.6212, -29.915
3.19247, 2, 17.8842, 15.8625, 23.0551, 38.2552, -28.6213, -29.915
3.20055, 2, 17.8841, 15.8625, 23.0551, 38.2551, -28.6213, -29.915
3.20872, 2, 17.8841, 15.8625, 23.0551, 38.2552, -28.6213, -29.915
3.21588, 2, 17.8841, 15.8625, 23.0551, 38.2552, -28.6213, -29.915
3.2239, 2, 17.8841, 15.8625, 23.0551, 38.2551, -28.6213, -29.915
3.23193, 2, 17.884, 15.8626, 23.0551, 38.2552, -28.6213, -29.9149
3.23988, 2, 17.884, 15.8625, 23.0551, 38.2552, -28.6212, -29.9149
3.24789, 2, 17.884, 15.8625, 23.0551, 38.2551, -28.6212, -29.9149
3.25592, 2, 17.884, 15.8625, 23.0551, 38.2551, -28.6213, -29.9149
3.2639, 2, 17.884, 15.8625, 23.0551, 38.2551, -28.6214, -29.9149
3.27189, 2, 17.8839, 15.8625, 23.0551, 38.255, -28.6214, -29.9149
3.27994, 2, 17.8839, 15.8625, 23.0551, 38.255, -28.6214, -29.9149
3.28788, 2, 17.8839, 15.8626, 23.0551, 38.255, -28.6214, -29.9149
3.29589, 2, 17.8839, 15.8626, 23.0551, 38.2549, -28.6214, -29.9149
3.30397, 2, 17.8839, 15.8626, 23.0551, 38.2549, -28.6214, -29.9149
3.31202, 2, 17.8839, 15.8626, 23.0551, 38.2549, -28.6214, -29.9149
3.31987, 2, 17.8839, 15.8626, 23.0551, 38.2549, -28.6214, -29.9149
3.32792, 2, 17.8839, 15.8626, 23.0551, 38.2549, -28.6213, -29.9149
3.33692, 2, 17.8838, 15.8626, 23.0551, 38.2549, -28.6213, -29.9149
3.34396, 2, 17.8838, 15.8626, 23.0551, 38.2549, -28.6213, -29.9148
3.35285, 2, 17.8838, 15.8626, 23.0551, 38.2548, -28.6214, -29.9149
3.35994, 2, 17.8838, 15.8626, 23.0551, 38.2548, -28.6213, -29.9149
3.3679, 2, 17.8838, 15.8626, 23.0551, 38.2548, -28.6214, -29.9149
3.37585, 4, 17.8838, 15.8626, 23.0551, 38.2548, -28.6214, -29.9148
3.38396, 4, 17.8837, 15.8626, 23.0551, 38.2548, -28.6214, -29.9148
3.39188, 4, 17.8837, 15.8626, 23.0551, 38.2548, -28.6214, -29.9148
3.39989, 4, 17.8837, 15.8626, 23.0551, 38.2547, -28.6214, -29.9148
3.40795, 4, 17.8837, 15.8626, 23.0551, 38.2547, -28.6214, -29.9148
3.41588, 4, 17.8837, 15.8626, 23.0551, 38.2547, -28.6214, -29.9147
3.4239, 4, 17.8837, 15.8626, 23.0551, 38.2547, -28.6214, -29.9147
3.43195, 4, 17.8837, 15.8626, 23.0551, 38.2546, -28.6214, -29.9147
3.43988, 4, 17.8836, 15.8627, 23.0551, 38.2547, -28.6214, -29.9147
3.44788, 4, 17.8836, 15.8626, 23.0551, 38.2546, -28.6214, -29.9146
3.45594, 4, 17.8836, 15.8626, 23.0551, 38.2546, -28.6214, -29.9147
3.4639, 4, 17.8836, 15.8626, 23.0551, 38.2546, -28.6214, -29.9146
3.47188, 4, 17.8836, 15.8626, 23.0551, 38.2546, -28.6214, -29.9147
3.48159, 4, 17.8836, 15.8626, 23.0551, 38.2546, -28.6214, -29.9146
3.5052, 4, 17.8835, 15.8627, 23.0551, 38.2546, -28.6215, -29.9146
3.50711, 4, 17.8835, 15.8627, 23.0551, 38.2546, -28.6215, -29.9145
3.50854, 4, 17.8835, 15.8627, 23.0551, 38.2546, -28.6215, -29.9145
3.51126, 4, 17.8835, 15.8627, 23.0551, 38.2546, -28.6215, -29.9145
3.52005, 4, 17.8835, 15.8627, 23.0551, 38.2546, -28.6215, -29.9146
3.52791, 4, 17.8833, 15.8628, 23.0551, 38.2545, -28.6215, -29.9146
3.53595, 4, 17.8821, 15.8636, 23.0551, 38.2544, -28.6215, -29.9145
3.5443, 4, 17.8786, 15.8662, 23.0547, 38.2536, -28.6216, -29.9142
3.55142, 4, 17.8718, 15.8721, 23.0533, 38.2495, -28.6222, -29.9118
3.56087, 4, 17.8617, 15.8833, 23.0498, 38.2383, -28.624, -29.9028
3.56838, 4, 17.8478, 15.9008, 23.043, 38.2154, -28.6286, -29.8809
3.57562, 5, 17.8287, 15.9255, 23.0316, 38.1754, -28.6374, -29.8406
3.584, 5, 17.8047, 15.9574, 23.0146, 38.1105, -28.6519, -29.775
3.5919, 5, 17.7765, 15.9949, 22.9913, 38.0171, -28.673, -29.6795
3.59997, 5, 17.7444, 16.0376, 22.9611, 37.892, -28.7013, -29.5512
3.60687, 5, 17.7268, 16.0611, 22.9436, 37.818, -28.7182, -29.4752
3.61596, 5, 17.6668, 16.1422, 22.8818, 37.5552, -28.7805, -29.2047
3.6229, 5, 17.6446, 16.1728, 22.8585, 37.4561, -28.8039, -29.1026
3.63213, 5, 17.5719, 16.2749, 22.7826, 37.135, -28.8812, -28.7708
3.6389, 5, 17.5455, 16.3119, 22.7557, 37.0224, -28.9092, -28.6546
3.64834, 5, 17.4599, 16.4298, 22.6724, 36.6771, -28.995, -28.2978
3.65489, 5, 17.4296, 16.4707, 22.6441, 36.5606, -29.0247, -28.1777
3.6644, 5, 17.336, 16.5956, 22.5585, 36.2102, -29.1147, -27.8167
3.6725, 5, 17.2723, 16.6797, 22.5014, 35.9764, -29.1759, -27.5761
3.68103, 5, 17.2082, 16.7639, 22.4444, 35.7433, -29.2382, -27.3363
3.68844, 5, 17.1439, 16.8481, 22.3875, 35.5108, -29.3005, -27.0974
3.69652, 5, 17.0797, 16.9321, 22.3308, 35.2787, -29.3644, -26.8597
3.70451, 5, 17.0476, 16.9741, 22.3025, 35.163, -29.396, -26.6226
3.71185, 5, 16.9834, 17.0578, 22.2462, 34.9322, -29.4602, -26.5045
3.71993, 5, 16.9193, 17.1414, 22.19, 34.7021, -29.5256, -26.2691
3.72787, 5, 16.855, 17.2247, 22.1341, 34.4726, -29.591, -26.0347
3.73587, 5, 16.7907, 17.3077, 22.0783, 34.2438, -29.6577, -25.8016
3.74387, 5, 16.7264, 17.3908, 22.0225, 34.0159, -29.724, -25.5696
3.75187, 5, 16.6621, 17.4737, 21.9671, 33.7887, -29.7921, -25.3386
3.75993, 5, 16.5978, 17.5566, 21.9118, 33.5622, -29.8599, -25.1089
3.76791, 5, 16.5333, 17.6394, 21.8568, 33.3367, -29.929, -24.8804
3.77589, 5, 16.4688, 17.7222, 21.8021, 33.1121, -29.9979, -24.6532
3.78391, 5, 16.404, 17.805, 21.7476, 32.8883, -30.0682, -24.4266
3.79187, 5, 16.339, 17.8876, 21.6934, 32.6652, -30.1388, -24.2013
3.79988, 5, 16.2738, 17.97, 21.6394, 32.443, -30.2104, -23.9768
3.80793, 5, 16.2085, 18.0523, 21.5857, 32.2218, -30.2822, -23.7535
3.81589, 5, 16.1431, 18.1344, 21.5322, 32.0012, -30.3548, -23.5316
3.82387, 5, 16.0777, 18.2164, 21.4789, 31.7813, -30.4281, -23.3103
3.83202, 5, 16.0122, 18.2981, 21.4258, 31.5625, -30.5018, -23.0904
3.83987, 5, 15.9466, 18.3796, 21.3728, 31.3446, -30.576, -22.8715
3.84887, 5, 15.8808, 18.461, 21.3202, 31.1274, -30.651, -22.6541
3.85595, 5, 15.815, 18.5422, 21.2677, 30.911, -30.7265, -22.438
3.86387, 5, 15.7491, 18.6232, 21.2154, 30.6955, -30.8028, -22.2229
3.87187, 5, 15.6834, 18.7039, 21.1634, 30.4809, -30.8792, -22.0088
3.87994, 5, 15.6175, 18.7845, 21.1117, 30.2671, -30.9567, -21.796
3.88787, 5, 15.5517, 18.8651, 21.0601, 30.0541, -31.0343, -21.5847
3.89594, 5, 15.4859, 18.9455, 21.0089, 29.8421, -31.1128, -21.3746
3.90386, 5, 15.4198, 19.0258, 20.9579, 29.6312, -31.1915, -21.1656
3.91188, 5, 15.3537, 19.106, 20.9072, 29.4211, -31.2712, -20.9579
3.91993, 5, 15.2875, 19.1861, 20.8568, 29.2116, -31.3512, -20.7515
3.92786, 5, 15.2213, 19.2661, 20.8065, 29.0032, -31.4318, -20.5461
3.93586, 5, 15.155, 19.3459, 20.7566, 28.7957, -31.5131, -20.3423
3.94394, 5, 15.0887, 19.4254, 20.7068, 28.5891, -31.5949, -20.1397
3.95187, 5, 15.0222, 19.5048, 20.6572, 28.3832, -31.6775, -19.9378
3.95987, 5, 14.9556, 19.5841, 20.608, 28.1782, -31.7601, -19.7373
3.96794, 5, 14.8889, 19.6631, 20.5588, 27.9743, -31.844, -19.5379
3.97586, 5, 14.8221, 19.742, 20.5099, 27.7712, -31.9279, -19.3398
3.98386, 5, 14.7553, 19.8206, 20.4613, 27.5689, -32.0126, -19.143
3.99195, 5, 14.6884, 19.8991, 20.4128, 27.3674, -32.0975, -18.9474
3.9999, 5, 14.6215, 19.9774, 20.3647, 27.1668, -32.1831, -18.7526
4.00787, 5, 14.5547, 20.0556, 20.3168, 26.9672, -32.2691, -18.5592
4.01605, 5, 14.4876, 20.1335, 20.2691, 26.7684, -32.3554, -18.3671
4.02387, 5, 14.4205, 20.2114, 20.2218, 26.5703, -32.4427, -18.1763
4.03191, 5, 14.3532, 20.2891, 20.1746, 26.3734, -32.5302, -17.9868
4.04015, 5, 14.2859, 20.3667, 20.1277, 26.1774, -32.6181, -17.7983
4.04746, 5, 14.2185, 20.4442, 20.081, 25.9823, -32.7068, -17.6108
4.05596, 5, 14.1512, 20.5217, 20.0345, 25.7879, -32.7957, -17.4247
4.06436, 5, 14.084, 20.5989, 19.9884, 25.5945, -32.8851, -17.2397
4.07143, 5, 14.0503, 20.676, 19.9423, 25.402, -32.9752, -17.0561
4.07993, 5, 13.9491, 20.753, 19.8966, 25.2104, -33.0657, -16.8738
4.0886, 5, 13.8816, 20.8297, 19.851, 25.0196, -33.1565, -16.6927
4.09589, 5, 13.8142, 20.9061, 19.8057, 24.8296, -33.2477, -16.5127
4.10391, 5, 13.7468, 20.9823, 19.7607, 24.6406, -33.3396, -16.3339
4.11276, 5, 13.6794, 21.0584, 19.7158, 24.4525, -33.4318, -16.1564
4.11998, 5, 13.612, 21.1344, 19.6713, 24.2652, -33.5243, -15.9802
4.12697, 5, 13.5783, 21.1722, 19.6491, 24.1718, -33.571, -15.8927
4.13698, 5, 13.4768, 21.2856, 19.5828, 23.893, -33.7112, -15.6316
4.14417, 5, 13.4091, 21.361, 19.5389, 23.7082, -33.805, -15.4587
4.15085, 5, 13.3752, 21.3986, 19.5171, 23.6161, -33.8524, -15.3729
4.16114, 5, 13.2734, 21.5115, 19.452, 23.3412, -33.9947, -15.1165
4.16697, 5, 13.2394, 21.549, 19.4304, 23.2499, -34.0423, -15.0318
4.17671, 5, 13.1374, 21.6613, 19.3659, 22.9774, -34.1857, -14.7792
4.18529, 5, 13.0691, 21.7359, 19.3233, 22.797, -34.2819, -14.6124
4.19092, 5, 13.0349, 21.7731, 19.3021, 22.7071, -34.33, -14.5293
4.20052, 5, 12.9321, 21.8845, 19.2387, 22.4387, -34.4756, -14.2816
4.20932, 5, 12.8978, 21.9216, 19.2177, 22.3496, -34.5244, -14.1178
4.21493, 5, 12.8292, 21.9955, 19.1758, 22.1719, -34.6221, -14.0363
4.22499, 5, 12.7262, 22.1059, 19.1135, 21.9074, -34.7696, -13.7939
4.23089, 5, 12.692, 22.1426, 19.0929, 21.8196, -34.819, -13.7138
4.23985, 5, 12.6233, 22.216, 19.0517, 21.6447, -34.9178, -13.5544
4.24791, 5, 12.5545, 22.2893, 19.0109, 21.4704, -35.0174, -13.3962
4.25586, 5, 12.4857, 22.3623, 18.9704, 21.2969, -35.1172, -13.2388
4.26286, 5, 12.4169, 22.4351, 18.9301, 21.1245, -35.2173, -13.0827
4.27185, 5, 12.3481, 22.5078, 18.8901, 20.9528, -35.3179, -12.9277
4.27986, 5, 12.2792, 22.5804, 18.8502, 20.782, -35.4188, -12.7738
4.2869, 5, 12.2105, 22.6528, 18.8107, 20.6117, -35.5201, -12.6216
4.29585, 5, 12.1415, 22.725, 18.7715, 20.4423, -35.6219, -12.4704
4.30385, 5, 12.0725, 22.797, 18.7323, 20.2738, -35.7238, -12.3204
4.31084, 5, 12.0035, 22.8688, 18.6935, 20.1061, -35.826, -12.1714
4.31985, 5, 11.9342, 22.9405, 18.6549, 19.9391, -35.929, -12.0234
4.32786, 5, 11.865, 23.0119, 18.6165, 19.7729, -36.0321, -11.8767
4.33685, 5, 11.7957, 23.0831, 18.5784, 19.6073, -36.1355, -11.731
4.34385, 5, 11.7265, 23.1541, 18.5405, 19.4428, -36.2393, -11.5866
4.35286, 5, 11.6571, 23.2248, 18.5028, 19.2791, -36.3432, -11.4433
4.35984, 5, 11.5876, 23.2955, 18.4655, 19.1162, -36.4476, -11.3013
4.36786, 5, 11.5179, 23.3659, 18.4284, 18.954, -36.5524, -11.1603
4.37669, 5, 11.4482, 23.4362, 18.3914, 18.7924, -36.6571, -11.0201
4.38384, 5, 11.3784, 23.5063, 18.3548, 18.6317, -36.7625, -10.8811
4.39185, 5, 11.3085, 23.5762, 18.3185, 18.4719, -36.8684, -10.743
4.40063, 5, 11.2386, 23.6459, 18.2823, 18.3128, -36.9742, -10.6063
4.40696, 5, 11.1686, 23.7155, 18.2465, 18.1544, -37.0808, -10.4706
4.41585, 5, 11.0986, 23.785, 18.2109, 17.9965, -37.1876, -10.3359
4.42463, 5, 11.0287, 23.8543, 18.1755, 17.8394, -37.2942, -10.2027
4.43184, 5, 10.9588, 23.9233, 18.1404, 17.6833, -37.4017, -10.0704
4.43984, 5, 10.8889, 23.9921, 18.1056, 17.5279, -37.5092, -9.93881
4.44861, 5, 10.8191, 24.0609, 18.0709, 17.3733, -37.617, -9.80843
4.45584, 5, 10.7492, 24.1294, 18.0364, 17.2192, -37.7254, -9.67915
4.46385, 5, 10.6793, 24.1977, 18.0022, 17.0658, -37.834, -9.55078
4.47308, 5, 10.6094, 24.2658, 17.9682, 16.913, -37.9431, -9.42371
4.47985, 5, 10.5395, 24.3337, 17.9344, 16.7612, -38.0525, -9.2977
4.48791, 5, 10.4694, 24.4015, 17.901, 16.61, -38.1619, -9.17287
4.49585, 5, 10.3993, 24.469, 17.8677, 16.4596, -38.2719, -9.04903
4.50389, 5, 10.3291, 24.5364, 17.8346, 16.3097, -38.382, -8.92612
4.51191, 5, 10.2588, 24.6036, 17.8019, 16.1605, -38.4923, -8.80401
4.52001, 5, 10.1885, 24.6705, 17.7695, 16.0121, -38.6031, -8.6829
4.52785, 5, 10.1181, 24.7373, 17.7371, 15.8645, -38.714, -8.5631
4.53595, 5, 10.0475, 24.804, 17.7051, 15.7176, -38.8252, -8.44402
4.54408, 5, 9.97689, 24.8703, 17.6734, 15.5714, -38.9367, -8.32625
4.55194, 5, 9.90617, 24.9366, 17.6419, 15.4257, -39.0481, -8.20948
4.56002, 5, 9.83545, 25.0026, 17.6106, 15.2806, -39.1602, -8.09375
4.56825, 5, 9.76457, 25.0684, 17.5797, 15.1364, -39.2721, -7.97937
4.57546, 5, 9.69359, 25.1342, 17.549, 14.9928, -39.3845, -7.86567
4.58404, 5, 9.62255, 25.1998, 17.5185, 14.8498, -39.4972, -7.75289
4.59248, 5, 9.55149, 25.2651, 17.4883, 14.7075, -39.6097, -7.64117
4.59891, 5, 9.51592, 25.2977, 17.4734, 14.6364, -39.6662, -7.58556
4.60794, 5, 9.4092, 25.395, 17.4289, 14.4242, -39.836, -7.42049
4.61809, 5, 9.33802, 25.4596, 17.3993, 14.2837, -39.9495, -7.3117
4.62491, 5, 9.2668, 25.524, 17.3702, 14.1438, -40.0635, -7.20395
4.63205, 5, 9.19557, 25.5882, 17.3413, 14.0045, -40.1771, -7.09716
4.63888, 5, 9.15995, 25.6202, 17.327, 13.9352, -40.2342, -7.04409
4.6469, 5, 9.08867, 25.684, 17.2984, 13.7967, -40.3486, -6.93906
4.65621, 5, 8.98166, 25.7794, 17.256, 13.5899, -40.5202, -6.7829
4.66505, 5, 8.9103, 25.8427, 17.2282, 13.4529, -40.6351, -6.68011
4.67247, 5, 8.83878, 25.906, 17.2006, 13.3165, -40.7499, -6.57787
4.68037, 5, 8.76721, 25.969, 17.1732, 13.1806, -40.8652, -6.47675
4.68919, 5, 8.69558, 26.0318, 17.1462, 13.0454, -40.9805, -6.37637
4.69644, 5, 8.62399, 26.0944, 17.1195, 12.9106, -41.0959, -6.27688
4.7044, 5, 8.58814, 26.1256, 17.1063, 12.7763, -41.2118, -6.17854
4.71316, 5, 8.51638, 26.1878, 17.0798, 12.7094, -41.2697, -6.12982
4.72045, 5, 8.44465, 26.2498, 17.0537, 12.5761, -41.3855, -6.03264
4.72784, 5, 8.37275, 26.3116, 17.0278, 12.4434, -41.5018, -5.93664
4.73585, 5, 8.30081, 26.3731, 17.0023, 12.3113, -41.618, -5.8414
4.74388, 5, 8.22875, 26.4344, 16.9769, 12.1798, -41.7346, -5.74744
4.75183, 5, 8.15667, 26.4954, 16.9518, 12.0488, -41.8514, -5.65378
4.75983, 5, 8.08454, 26.5562, 16.927, 11.9181, -41.9683, -5.56139
4.76788, 5, 8.01251, 26.617, 16.9025, 11.7881, -42.0856, -5.4692
4.77583, 5, 7.94046, 26.6776, 16.8783, 11.6587, -42.2028, -5.37835
4.78385, 5, 7.86829, 26.7379, 16.8541, 11.5299, -42.3204, -5.2881
4.79084, 5, 7.79616, 26.798, 16.8304, 11.4014, -42.4381, -5.19897
4.79984, 5, 7.72402, 26.8579, 16.807, 11.2736, -42.5559, -5.11031
4.80783, 5, 7.65193, 26.9176, 16.7839, 11.1461, -42.674, -5.02319
4.81483, 5, 7.57994, 26.977, 16.761, 11.019, -42.7918, -4.93639
4.82383, 5, 7.50806, 27.0362, 16.7382, 10.8925, -42.9101, -4.85098
4.83185, 5, 7.43614, 27.0952, 16.7158, 10.7666, -43.0285, -4.76592
4.84284, 5, 7.32813, 27.1831, 16.6826, 10.5788, -43.2064, -4.64085
4.84784, 5, 7.29212, 27.2123, 16.6718, 10.5164, -43.2657, -4.59916
4.85596, 5, 7.22005, 27.2705, 16.6502, 10.392, -43.3844, -4.51713
4.86488, 5, 7.14786, 27.3285, 16.6287, 10.2679, -43.5035, -4.43572
4.87184, 5, 7.07556, 27.3865, 16.6076, 10.1444, -43.6225, -4.35483
4.87991, 5, 7.00306, 27.444, 16.5868, 10.0213, -43.7414, -4.27514
4.88783, 5, 6.93033, 27.5014, 16.5663, 9.89862, -43.8608, -4.1958
4.89582, 5, 6.8574, 27.5586, 16.546, 9.77665, -43.9798, -4.11804
4.90383, 5, 6.78436, 27.6155, 16.5259, 9.65503, -44.0993, -4.04031
4.91185, 5, 6.71127, 27.6721, 16.5062, 9.53402, -44.2188, -3.964
4.91989, 5, 6.6381, 27.7286, 16.4867, 9.41308, -44.3384, -3.88855
4.92784, 5, 6.56503, 27.7848, 16.4675, 9.29272, -44.4582, -3.81348
4.93583, 5, 6.49189, 27.8407, 16.4486, 9.17292, -44.5778, -3.74008
4.94389, 5, 6.41877, 27.8964, 16.43, 9.0535, -44.6979, -3.66673
4.95183, 5, 6.34569, 27.952, 16.4115, 8.93482, -44.8179, -3.59472
4.95983, 5, 6.27265, 28.0073, 16.3934, 8.81638, -44.9381, -3.52372
4.9679, 5, 6.19956, 28.0624, 16.3755, 8.69854, -45.0587, -3.45283
4.97583, 5, 6.12662, 28.1174, 16.3579, 8.581, -45.1793, -3.38345
4.98383, 5, 6.05361, 28.1722, 16.3407, 8.46361, -45.3002, -3.31408
4.99189, 5, 5.98052, 28.2267, 16.3238, 8.34689, -45.4209, -3.24564
4.99984, 5, 5.90739, 28.281, 16.307, 8.23051, -45.5419, -3.17843
5.00787, 5, 5.83412, 28.335, 16.2906, 8.11473, -45.6629, -3.11123
5.01589, 5, 5.76085, 28.3887, 16.2745, 7.99933, -45.784, -3.04534
5.02389, 5, 5.68751, 28.4421, 16.2586, 7.88425, -45.9054, -2.98024
5.03191, 5, 5.61411, 28.4954, 16.2429, 7.76954, -46.0265, -2.91526
5.03988, 5, 5.54059, 28.5483, 16.2276, 7.655, -46.148, -2.85193
5.04792, 5, 5.46698, 28.601, 16.2126, 7.54098, -46.2693, -2.78909
5.05616, 5, 5.39324, 28.6534, 16.1978, 7.42723, -46.3908, -2.72653
5.06467, 5, 5.31942, 28.7057, 16.1832, 7.31407, -46.5123, -2.66556
5.07193, 5, 5.24549, 28.7577, 16.1691, 7.20124, -46.6337, -2.60499
5.08001, 5, 5.17151, 28.8095, 16.1551, 7.08884, -46.7554, -2.54469
5.08783, 5, 5.09738, 28.8612, 16.1415, 6.97684, -46.8767, -2.48593
5.09604, 5, 5.02328, 28.9126, 16.1282, 6.86496, -46.9984, -2.42796
5.10283, 5, 4.98626, 28.9382, 16.1217, 6.80911, -47.0593, -2.39897
5.11186, 5, 4.87526, 29.0147, 16.1028, 6.64224, -47.2414, -2.31301
5.11999, 5, 4.80132, 29.0653, 16.0904, 6.53133, -47.3632, -2.25708
5.12805, 5, 4.72749, 29.1156, 16.0781, 6.42082, -47.4847, -2.20092
5.13482, 5, 4.6906, 29.1407, 16.0721, 6.36579, -47.5457, -2.17314
5.14454, 5, 4.57989, 29.2155, 16.0546, 6.20084, -47.7285, -2.09194
5.15216, 5, 4.50625, 29.265, 16.0432, 6.09146, -47.8506, -2.03828
5.15887, 5, 4.46943, 29.2896, 16.0376, 6.03676, -47.9117, -2.01148
5.16841, 5, 4.35905, 29.3632, 16.0214, 5.87306, -48.0946, -1.93288
5.17673, 5, 4.28538, 29.412, 16.0111, 5.76447, -48.2167, -1.88169
5.18438, 5, 4.21169, 29.4605, 16.0011, 5.65623, -48.3387, -1.83051
5.19337, 5, 4.13786, 29.5088, 15.9913, 5.5485, -48.461, -1.7801
5.20137, 5, 4.06391, 29.557, 15.9818, 5.44103, -48.5832, -1.73105
5.20693, 5, 4.02688, 29.581, 15.9772, 5.3874, -48.6444, -1.70677
5.21727, 5, 3.95269, 29.6289, 15.9681, 5.28054, -48.7668, -1.63408
5.22291, 5, 3.8784, 29.6764, 15.9593, 5.17381, -48.8891, -1.61023
5.23395, 5, 3.76669, 29.7473, 15.9468, 5.01407, -49.073, -1.54057
5.23987, 5, 3.7294, 29.7707, 15.9428, 4.96108, -49.1343, -1.51761
5.24782, 5, 3.65465, 29.8174, 15.9349, 4.85516, -49.2566, -1.47172
5.25493, 5, 3.57977, 29.8637, 15.9274, 4.74957, -49.3792, -1.42631
5.26385, 5, 3.50491, 29.9097, 15.9201, 4.64439, -49.5015, -1.38222
5.27083, 5, 3.43006, 29.9555, 15.913, 4.53949, -49.624, -1.33902
5.27986, 5, 3.35518, 30.001, 15.9063, 4.43475, -49.7463, -1.29623
5.28788, 5, 3.28037, 30.0461, 15.9, 4.33036, -49.8687, -1.25345
5.29587, 5, 3.20551, 30.0911, 15.894, 4.22609, -49.9912, -1.21172
5.30539, 5, 3.09318, 30.1581, 15.8857, 4.0701, -50.1746, -1.15082
5.31181, 5, 3.05576, 30.1803, 15.8831, 4.0182, -50.2358, -1.13067
5.31881, 5, 2.98106, 30.2247, 15.878, 3.91474, -50.3578, -1.09031
5.3278, 5, 2.90629, 30.2687, 15.8733, 3.81173, -50.4803, -1.05065
5.33582, 5, 2.8316, 30.3125, 15.8687, 3.70887, -50.6025, -1.01207
5.34481, 5, 2.75676, 30.3562, 15.8645, 3.60634, -50.7246, -0.974428
5.35357, 5, 2.68184, 30.3995, 15.8604, 3.45286, -50.908, -0.9186
5.35987, 5, 2.60684, 30.4425, 15.8567, 3.4018, -50.969, -0.900107
5.36784, 5, 2.53189, 30.4853, 15.8533, 3.29968, -51.0914, -0.863511
5.37583, 5, 2.45692, 30.5277, 15.8502, 3.19792, -51.2136, -0.828141
5.38381, 5, 2.38193, 30.5697, 15.8475, 3.09619, -51.3358, -0.793429
5.39182, 5, 2.30692, 30.6114, 15.8451, 2.99484, -51.4581, -0.759533
5.39982, 5, 2.23158, 30.6527, 15.8431, 2.89404, -51.58, -0.725631
5.40791, 5, 2.15614, 30.6938, 15.8414, 2.79313, -51.7023, -0.692227
5.41581, 5, 2.08064, 30.7347, 15.84, 2.69259, -51.8244, -0.659536
5.42381, 5, 2.00511, 30.7752, 15.8388, 2.59218, -51.9467, -0.628034
5.43189, 5, 1.92967, 30.8156, 15.838, 2.49175, -52.0688, -0.597264
5.43981, 5, 1.85427, 30.8558, 15.8375, 2.39167, -52.1908, -0.567011
5.44781, 5, 1.77874, 30.8957, 15.8373, 2.29185, -52.3129, -0.536774
5.45587, 5, 1.70315, 30.9353, 15.8372, 2.19227, -52.4347, -0.507006
5.46381, 5, 1.62753, 30.9748, 15.8372, 2.09313, -52.5568, -0.478183
5.47182, 5, 1.55215, 31.0141, 15.8374, 1.99413, -52.6786, -0.450232
5.47988, 5, 1.47694, 31.053, 15.8378, 1.89519, -52.8007, -0.423164
5.48787, 5, 1.40199, 31.0917, 15.8386, 1.79669, -52.9227, -0.396504
5.49587, 5, 1.32701, 31.13, 15.8397, 1.69814, -53.0445, -0.37016
5.50381, 5, 1.25192, 31.1679, 15.8412, 1.59963, -53.1665, -0.344035
5.51182, 5, 1.17681, 31.2055, 15.843, 1.50156, -53.288, -0.318229
5.51988, 5, 1.10174, 31.2428, 15.845, 1.40344, -53.4098, -0.293249
5.52729, 5, 1.02649, 31.2796, 15.8474, 1.30557, -53.5313, -0.269355
5.53619, 5, 0.951227, 31.3163, 15.8501, 1.20824, -53.6528, -0.245947
5.54405, 5, 0.875788, 31.3525, 15.8532, 1.11084, -53.7744, -0.223402
5.55139, 5, 0.800002, 31.3885, 15.8567, 1.01363, -53.8957, -0.201399
5.55996, 5, 0.72406, 31.4243, 15.8608, 0.916798, -54.0173, -0.179467
5.56819, 5, 0.648031, 31.4599, 15.8652, 0.819788, -54.1382, -0.157923
5.57542, 5, 0.571921, 31.4951, 15.8701, 0.722856, -54.2594, -0.136676
5.58398, 5, 0.495807, 31.5301, 15.8753, 0.62632, -54.3805, -0.116103
5.59242, 5, 0.419798, 31.565, 15.8808, 0.529698, -54.5012, -0.0961406
5.59982, 5, 0.343932, 31.6001, 15.8868, 0.433502, -54.6223, -0.0767486
5.6079, 5, 0.268313, 31.6353, 15.8932, 0.337985, -54.7432, -0.0570089
5.61688, 5, 0.192765, 31.6708, 15.9, 0.243046, -54.8658, -0.0351078
5.62388, 6, 0.11704, 31.7064, 15.9071, 0.149249, -54.99, -0.00887426
5.63204, 6, 0.0412125, 31.7419, 15.9148, 0.056975, -55.1168, 0.0231783
5.63883, 6, 0.00332496, 31.7598, 15.9188, 0.0112106, -55.1815, 0.0415387
5.64692, 6, -0.0724734, 31.7957, 15.9273, -0.0789253, -55.3128, 0.0824946
5.65621, 6, -0.186377, 31.8495, 15.9407, -0.211772, -55.5158, 0.153922
5.66291, 6, -0.224305, 31.8674, 15.9454, -0.255377, -55.5846, 0.18027
5.67085, 6, -0.29998, 31.9035, 15.9552, -0.342266, -55.7238, 0.235262
5.6804, 6, -0.413077, 31.9585, 15.9706, -0.471368, -55.9347, 0.318967
5.68919, 6, -0.488267, 31.9953, 15.9815, -0.556751, -56.0764, 0.375456
5.69486, 6, -0.525901, 32.0136, 15.9871, -0.599552, -56.1473, 0.403792
5.70441, 6, -0.639131, 32.0688, 16.0042, -0.727221, -56.3606, 0.486802
5.71324, 6, -0.676952, 32.0871, 16.01, -0.769558, -56.5031, 0.541587
5.71886, 6, -0.752627, 32.1236, 16.0219, -0.854293, -56.5744, 0.569021
5.72884, 6, -0.866408, 32.1781, 16.0404, -0.981, -56.7885, 0.649532
5.7358, 6, -0.904338, 32.1962, 16.0467, -1.02325, -56.8601, 0.675736
5.74286, 6, -0.98018, 32.2322, 16.0595, -1.10707, -57.0031, 0.728085
5.75185, 6, -1.05615, 32.268, 16.0725, -1.19098, -57.1463, 0.780628
5.7598, 6, -1.13201, 32.3036, 16.086, -1.27443, -57.2896, 0.831803
5.76686, 6, -1.20776, 32.3391, 16.1001, -1.35749, -57.433, 0.882041
5.7758, 6, -1.28347, 32.3742, 16.1144, -1.44042, -57.5766, 0.931996
5.7838, 6, -1.3591, 32.4092, 16.1287, -1.52299, -57.7199, 0.981681
5.79094, 6, -1.43461, 32.444, 16.1433, -1.60558, -57.8638, 1.03016
5.7998, 6, -1.51016, 32.4786, 16.1584, -1.68758, -58.0075, 1.07809
5.8078, 6, -1.5855, 32.5131, 16.1736, -1.7699, -58.1517, 1.12604
5.8148, 6, -1.66068, 32.5474, 16.189, -1.85181, -58.2959, 1.17353
5.82379, 6, -1.73579, 32.5816, 16.2049, -1.93359, -58.4403, 1.21964
5.83181, 6, -1.81091, 32.6154, 16.2213, -2.01525, -58.5847, 1.26514
5.84135, 6, -1.886, 32.6492, 16.2377, -2.09648, -58.7295, 1.31051
5.84779, 6, -1.96123, 32.6828, 16.2545, -2.17764, -58.8744, 1.35552
5.85682, 6, -2.03651, 32.7161, 16.2717, -2.25821, -59.0196, 1.3992
5.86279, 6, -2.11181, 32.7492, 16.2891, -2.339, -59.1648, 1.4422
5.87181, 6, -2.18714, 32.7822, 16.3069, -2.41942, -59.3103, 1.4849
5.87982, 6, -2.2626, 32.8148, 16.325, -2.49968, -59.4561, 1.52739
5.88783, 6, -2.33826, 32.8472, 16.3434, -2.57977, -59.6021, 1.56875
5.89579, 6, -2.41409, 32.8794, 16.3618, -2.65981, -59.748, 1.6092
5.90384, 6, -2.49009, 32.9117, 16.3808, -2.73985, -59.894, 1.64918
5.91184, 6, -2.56612, 32.9436, 16.3999, -2.81934, -60.0401, 1.68902
5.9198, 6, -2.64207, 32.9752, 16.4194, -2.89921, -60.1863, 1.7284
5.92787, 6, -2.71798, 33.0067, 16.4393, -2.97841, -60.3325, 1.76644
5.93579, 6, -2.79386, 33.0381, 16.4595, -3.0576, -60.4788, 1.8037
5.94379, 6, -2.86969, 33.0693, 16.4798, -3.13625, -60.6251, 1.84057
5.95188, 6, -2.94556, 33.1002, 16.5006, -3.21507, -60.7715, 1.87751
5.95979, 6, -3.02128, 33.131, 16.5215, -3.29355, -60.9179, 1.9139
5.96779, 6, -3.09694, 33.1617, 16.5429, -3.37208, -61.0647, 1.94908
5.97634, 6, -3.17236, 33.1921, 16.5644, -3.45047, -61.2111, 1.98353
5.98379, 6, -3.24773, 33.2221, 16.5863, -3.52869, -61.358, 2.01749
5.9918, 6, -3.32312, 33.2521, 16.6086, -3.60717, -61.5047, 2.05101
6.0006, 6, -3.39866, 33.2819, 16.6311, -3.68495, -61.6518, 2.08445
6.00779, 6, -3.47422, 33.3115, 16.654, -3.76306, -61.7987, 2.11707
6.0158, 6, -3.54979, 33.3407, 16.677, -3.84077, -61.9459, 2.1488
6.02458, 6, -3.62527, 33.3697, 16.7003, -3.91845, -62.0929, 2.17992
6.03186, 6, -3.70076, 33.3986, 16.724, -3.99556, -62.2403, 2.21066
6.03989, 6, -3.77623, 33.4273, 16.7479, -4.07299, -62.3877, 2.24131
6.04873, 6, -3.8519, 33.4558, 16.7724, -4.14993, -62.5354, 2.27163
6.05589, 6, -3.92772, 33.484, 16.7969, -4.22684, -62.683, 2.30112
6.06396, 6, -4.00351, 33.5121, 16.8218, -4.30376, -62.8305, 2.32949
6.07271, 6, -4.07924, 33.5399, 16.8469, -4.38059, -62.9782, 2.3571
6.07993, 6, -4.15501, 33.5676, 16.8724, -4.45745, -63.126, 2.38433
6.08804, 6, -4.23065, 33.595, 16.8982, -4.53396, -63.2739, 2.41114
6.0967, 6, -4.30635, 33.6222, 16.9242, -4.61056, -63.422, 2.43793
6.10386, 6, -4.38206, 33.6493, 16.9506, -4.68673, -63.5702, 2.46416
6.11214, 6, -4.45778, 33.6761, 16.9774, -4.76308, -63.7182, 2.48956
6.11878, 6, -4.49557, 33.6895, 16.9909, -4.80094, -63.7922, 2.50193
6.12684, 6, -4.57098, 33.7159, 17.018, -4.87667, -63.9404, 2.52607
6.13612, 6, -4.68359, 33.7553, 17.0591, -4.99033, -64.1627, 2.56105
6.14283, 6, -4.72102, 33.7684, 17.073, -5.02831, -64.2368, 2.5725
6.15079, 6, -4.79596, 33.7942, 17.1011, -5.10383, -64.3849, 2.59515
6.16033, 6, -4.90829, 33.8326, 17.1435, -5.2173, -64.6074, 2.62842
6.16838, 6, -4.98318, 33.8579, 17.1722, -5.29257, -64.7556, 2.65022
6.17637, 6, -5.05807, 33.8831, 17.2013, -5.36834, -64.9039, 2.67106
6.18437, 6, -5.13303, 33.908, 17.2306, -5.44336, -65.0523, 2.69118
6.19238, 6, -5.208, 33.9327, 17.2602, -5.51885, -65.2007, 2.71066
6.20041, 6, -5.28327, 33.9572, 17.2901, -5.59379, -65.349, 2.72944
6.2086, 6, -5.35875, 33.9814, 17.3204, -5.66884, -65.4974, 2.74751
6.21645, 6, -5.39655, 33.9934, 17.351, -5.74347, -65.6459, 2.76543
6.22378, 6, -5.4722, 34.0174, 17.3663, -5.78103, -65.7201, 2.77414
6.23179, 6, -5.54788, 34.0412, 17.3972, -5.85555, -65.8685, 2.7914
6.23983, 6, -5.62356, 34.0647, 17.4286, -5.93041, -66.017, 2.80831
6.24678, 6, -5.69918, 34.0879, 17.4602, -6.00483, -66.1655, 2.82469
6.25578, 6, -5.77487, 34.1109, 17.492, -6.07976, -66.3141, 2.8406
6.26384, 6, -5.85051, 34.1337, 17.5241, -6.15417, -66.4627, 2.85568
6.27078, 6, -5.92609, 34.1563, 17.5567, -6.22901, -66.6115, 2.87002
6.27978, 6, -6.00166, 34.1787, 17.5895, -6.30337, -66.7602, 2.88356
6.28785, 6, -6.07714, 34.2008, 17.6225, -6.37819, -66.9089, 2.8966
6.29583, 6, -6.15258, 34.2227, 17.656, -6.4524, -67.0576, 2.909
6.30383, 6, -6.22802, 34.2444, 17.6897, -6.52682, -67.2062, 2.9212
6.31178, 6, -6.30339, 34.2659, 17.7236, -6.60088, -67.3548, 2.93263
6.31978, 6, -6.37873, 34.2871, 17.758, -6.67504, -67.5034, 2.94356
6.32678, 6, -6.45392, 34.3081, 17.7926, -6.74901, -67.652, 2.95412
6.33578, 6, -6.52915, 34.3288, 17.8274, -6.82315, -67.8005, 2.96417
6.34379, 6, -6.60429, 34.3493, 17.8626, -6.8973, -67.9492, 2.9739
6.35184, 6, -6.67942, 34.3696, 17.8982, -6.97152, -68.0976, 2.98317
6.36083, 6, -6.75456, 34.3897, 17.934, -7.0459, -68.2459, 2.99205
6.36691, 6, -6.82974, 34.4095, 17.9702, -7.12004, -68.3941, 3.00054
6.37584, 6, -6.90494, 34.4292, 18.0067, -7.19413, -68.5424, 3.00842
6.38379, 6, -6.98031, 34.4486, 18.0434, -7.26826, -68.6908, 3.01576
6.39177, 6, -7.05568, 34.4676, 18.0805, -7.34241, -68.8393, 3.02249
6.39985, 6, -7.13108, 34.4866, 18.118, -7.41609, -68.9876, 3.02859
6.40784, 6, -7.20653, 34.5054, 18.1557, -7.49012, -69.1359, 3.03425
6.41588, 6, -7.28187, 34.5238, 18.1937, -7.56401, -69.2842, 3.03939
6.42378, 6, -7.35722, 34.5421, 18.2321, -7.63791, -69.4325, 3.04393
6.43178, 6, -7.43254, 34.5602, 18.2707, -7.71152, -69.5809, 3.04782
6.43984, 6, -7.50774, 34.5779, 18.3097, -7.78578, -69.7293, 3.05121
6.44783, 6, -7.58281, 34.5953, 18.349, -7.85952, -69.8775, 3.05396
6.45578, 6, -7.65781, 34.6127, 18.3884, -7.9339, -70.0259, 3.05626
6.46385, 6, -7.73269, 34.6299, 18.4283, -8.00757, -70.1742, 3.05806
6.47188, 6, -7.80741, 34.6466, 18.4684, -8.08175, -70.3225, 3.05938
6.47978, 6, -7.88203, 34.663, 18.5087, -8.15544, -70.4706, 3.06024
6.4879, 6, -7.95663, 34.6794, 18.5494, -8.22942, -70.6187, 3.06077
6.49577, 6, -8.03123, 34.6954, 18.5905, -8.30283, -70.7664, 3.06099
6.50379, 6, -8.10591, 34.7111, 18.6318, -8.37688, -70.9143, 3.06102
6.51184, 6, -8.18068, 34.7266, 18.6735, -8.45026, -71.062, 3.06111
6.51977, 6, -8.25553, 34.7421, 18.7154, -8.52425, -71.2097, 3.06103
6.52797, 6, -8.33034, 34.7573, 18.7576, -8.59764, -71.3571, 3.06087
6.53583, 6, -8.4053, 34.7721, 18.8002, -8.67172, -71.5047, 3.06043
6.54382, 6, -8.48043, 34.7867, 18.843, -8.74535, -71.6519, 3.05953
6.55209, 6, -8.55572, 34.8012, 18.8862, -8.81966, -71.7995, 3.05809
6.55987, 6, -8.63103, 34.8155, 18.9297, -8.89322, -71.9468, 3.05614
6.56792, 6, -8.70632, 34.8293, 18.9735, -8.96751, -72.0941, 3.05338
6.57625, 6, -8.78154, 34.8429, 19.0176, -9.04125, -72.2411, 3.04982
6.58337, 6, -8.81915, 34.8564, 19.0619, -9.11528, -72.3882, 3.04531
6.59183, 6, -8.93185, 34.8697, 19.1067, -9.18881, -72.5351, 3.03989
6.60049, 6, -9.00694, 34.8826, 19.1516, -9.2629, -72.6822, 3.03351
6.60785, 6, -9.08201, 34.8951, 19.1968, -9.33677, -72.829, 3.02649
6.6158, 6, -9.15699, 34.9075, 19.2424, -9.41066, -72.9759, 3.0187
6.62466, 6, -9.23184, 34.9198, 19.2883, -9.48469, -73.1227, 3.01022
6.63192, 6, -9.3066, 34.9317, 19.3344, -9.55888, -73.2693, 3.00103
6.63996, 6, -9.38136, 34.9432, 19.3809, -9.63322, -73.4156, 2.99104
6.6468, 6, -9.41874, 34.9489, 19.4043, -9.67043, -73.4888, 2.98582
6.65484, 6, -9.49355, 34.9601, 19.4513, -9.74439, -73.6351, 2.97497
6.66421, 6, -9.6058, 34.9766, 19.5223, -9.85608, -73.8544, 2.95809
6.67077, 6, -9.64321, 34.9821, 19.5461, -9.89315, -73.9274, 2.95226
6.67885, 6, -9.71793, 34.9927, 19.594, -9.96765, -74.0734, 2.94027
6.68836, 6, -9.83, 35.0081, 19.6665, -10.079, -74.2923, 2.92204
6.69714, 6, -9.9047, 35.018, 19.715, -10.153, -74.4382, 2.90918
6.70284, 6, -9.94214, 35.0229, 19.7394, -10.1902, -74.5109, 2.90256
6.71238, 6, -10.0546, 35.0371, 19.8132, -10.3018, -74.7294, 2.88209
6.72121, 6, -10.092, 35.0417, 19.8378, -10.3392, -74.802, 2.87501
6.72684, 6, -10.1669, 35.0508, 19.8875, -10.414, -74.9475, 2.86044
6.73681, 6, -10.2792, 35.0637, 19.9626, -10.5264, -75.1651, 2.83738
6.74377, 6, -10.3166, 35.0678, 19.9877, -10.5636, -75.2378, 2.82933
6.75083, 6, -10.3913, 35.0759, 20.0383, -10.6383, -75.3827, 2.81262
6.75981, 6, -10.4661, 35.0837, 20.0892, -10.7134, -75.5275, 2.79547
6.76776, 6, -10.5408, 35.0912, 20.1404, -10.7884, -75.6721, 2.77787
6.77478, 6, -10.6153, 35.0987, 20.1919, -10.8632, -75.8165, 2.76005
6.78377, 6, -10.6896, 35.106, 20.2438, -10.9382, -75.9608, 2.74203
6.79181, 6, -10.7637, 35.113, 20.2959, -11.0133, -76.1049, 2.72372
6.79878, 6, -10.8375, 35.1197, 20.3483, -11.0884, -76.2488, 2.70496
6.80776, 6, -10.9115, 35.1262, 20.401, -11.1634, -76.3927, 2.68571
6.81581, 6, -10.9853, 35.1325, 20.4541, -11.239, -76.5365, 2.66597
6.82375, 6, -11.0591, 35.1384, 20.5073, -11.3143, -76.68, 2.64573
6.83176, 6, -11.1329, 35.1439, 20.5609, -11.3901, -76.8236, 2.62442
6.83985, 6, -11.2068, 35.1493, 20.6149, -11.4654, -76.967, 2.60265
6.84678, 6, -11.2808, 35.1544, 20.6692, -11.5413, -77.1104, 2.58082
6.85576, 6, -11.3549, 35.1594, 20.7238, -11.6167, -77.2536, 2.55859
6.86477, 6, -11.4292, 35.1642, 20.7787, -11.6925, -77.3966, 2.53624
6.87183, 6, -11.5037, 35.1686, 20.8339, -11.7679, -77.5395, 2.5135
6.87978, 6, -11.5782, 35.1726, 20.8894, -11.8438, -77.682, 2.49021
6.88782, 6, -11.6526, 35.1764, 20.9452, -11.9195, -77.8244, 2.46609
6.89576, 6, -11.7271, 35.1798, 21.0014, -11.9954, -77.9667, 2.44113
6.9038, 6, -11.8015, 35.1831, 21.0578, -12.0714, -78.1086, 2.41569
6.91176, 6, -11.8761, 35.1861, 21.1145, -12.1477, -78.2505, 2.39024
6.91981, 6, -11.9505, 35.1889, 21.1715, -12.2242, -78.3921, 2.36473
6.92782, 6, -12.0249, 35.1913, 21.2288, -12.3006, -78.5335, 2.33869
6.93577, 6, -12.0992, 35.1934, 21.2864, -12.3772, -78.6744, 2.31225
6.94377, 6, -12.1735, 35.1953, 21.3443, -12.4538, -78.8154, 2.2851
6.95182, 6, -12.2475, 35.1968, 21.4026, -12.5305, -78.9558, 2.25706
6.95976, 6, -12.3216, 35.198, 21.4613, -12.607, -79.0966, 2.22846
6.96776, 6, -12.3956, 35.1989, 21.5202, -12.684, -79.2367, 2.1997
6.97584, 6, -12.4695, 35.1996, 21.5795, -12.7609, -79.3769, 2.17076
6.98376, 6, -12.5434, 35.2, 21.6391, -12.8381, -79.5168, 2.14145
6.99219, 6, -12.6171, 35.2001, 21.699, -12.9151, -79.6567, 2.11155
6.9988, 6, -12.6906, 35.2002, 21.7591, -12.9927, -79.7963, 2.08095
7.00775, 6, -12.7642, 35.2002, 21.8196, -13.0702, -79.9359, 2.04954
7.01656, 6, -12.8379, 35.1999, 21.8802, -13.1479, -80.0752, 2.01831
7.02376, 6, -12.9116, 35.1995, 21.9413, -13.2258, -80.2146, 1.98688
7.03177, 6, -12.9854, 35.1987, 22.0027, -13.3037, -80.3535, 1.95517
7.04063, 6, -13.0593, 35.1977, 22.0645, -13.3817, -80.4925, 1.9228
7.0478, 6, -13.1332, 35.1965, 22.1267, -13.4595, -80.6311, 1.88939
7.05584, 6, -13.2071, 35.195, 22.1891, -13.5377, -80.7695, 1.85544
7.06464, 6, -13.281, 35.1933, 22.2519, -13.6156, -80.9077, 1.8217
7.07192, 6, -13.3549, 35.1913, 22.3149, -13.6941, -81.0456, 1.78777
7.07986, 6, -13.4287, 35.1889, 22.3782, -13.7723, -81.1831, 1.75326
7.08869, 6, -13.5025, 35.1862, 22.4418, -13.8512, -81.3205, 1.71784
7.09576, 6, -13.576, 35.1832, 22.5057, -13.9299, -81.4576, 1.68172
7.10402, 6, -13.6494, 35.1798, 22.5699, -14.009, -81.5944, 1.6457
7.11274, 6, -13.7227, 35.1761, 22.6344, -14.0879, -81.7311, 1.60955
7.11987, 6, -13.7959, 35.172, 22.6992, -14.1673, -81.8673, 1.57285
7.12811, 6, -13.869, 35.1676, 22.7644, -14.2467, -82.0035, 1.5352
7.13475, 6, -13.9055, 35.1652, 22.7971, -14.2864, -82.0713, 1.51612
7.14395, 6, -14.0147, 35.1575, 22.8958, -14.4054, -82.2747, 1.45849
7.15079, 6, -14.0511, 35.1547, 22.9288, -14.4451, -82.3423, 1.43929
7.16006, 6, -14.1602, 35.1461, 23.0284, -14.5645, -82.545, 1.38079
7.16826, 6, -14.233, 35.1401, 23.0951, -14.6442, -82.6797, 1.34072
7.17658, 6, -14.3059, 35.1339, 23.162, -14.7244, -82.8144, 1.30008
7.18425, 6, -14.3788, 35.1272, 23.2292, -14.8047, -82.9488, 1.25965
7.19232, 6, -14.4517, 35.1203, 23.2969, -14.8848, -83.0828, 1.21874
7.20038, 6, -14.5248, 35.1131, 23.3649, -14.9653, -83.2166, 1.17696
7.20836, 6, -14.598, 35.1055, 23.4333, -15.0456, -83.3501, 1.13431
7.21637, 6, -14.6347, 35.0975, 23.5021, -15.1263, -83.4835, 1.09177
7.22458, 6, -14.708, 35.0933, 23.5365, -15.1664, -83.55, 1.0705
7.23175, 6, -14.7813, 35.0848, 23.6057, -15.2471, -83.6831, 1.0275
7.23979, 6, -14.8545, 35.0762, 23.6752, -15.3277, -83.8159, 0.983608
7.24776, 6, -14.9277, 35.0672, 23.7448, -15.4088, -83.9483, 0.93906
7.25578, 6, -15.0008, 35.0579, 23.8148, -15.4895, -84.0806, 0.894785
7.26379, 6, -15.0737, 35.0484, 23.8852, -15.5709, -84.2124, 0.850374
7.27175, 6, -15.1467, 35.0385, 23.9559, -15.6522, -84.344, 0.805172
7.27983, 6, -15.2196, 35.0281, 24.0269, -15.734, -84.4753, 0.758723
7.28779, 6, -15.2924, 35.0175, 24.0982, -15.8157, -84.6065, 0.712614
7.29585, 6, -15.365, 35.0068, 24.1699, -15.8976, -84.7371, 0.666408
7.30375, 6, -15.4376, 34.9957, 24.242, -15.9796, -84.8677, 0.61928
7.31179, 6, -15.5101, 34.9844, 24.3143, -16.0613, -84.9977, 0.571389
7.31975, 6, -15.5825, 34.9727, 24.3868, -16.1436, -85.1276, 0.523853
7.32774, 6, -15.655, 34.9606, 24.4596, -16.2258, -85.257, 0.475869
7.33476, 6, -15.7273, 34.9483, 24.5326, -16.3082, -85.3862, 0.426898
7.34375, 6, -15.7996, 34.9358, 24.606, -16.3909, -85.5152, 0.377258
7.35174, 6, -15.8719, 34.923, 24.6798, -16.4738, -85.6435, 0.327892
7.35982, 6, -15.9442, 34.9098, 24.754, -16.557, -85.772, 0.278092
7.36876, 6, -16.0164, 34.8961, 24.8284, -16.64, -85.8997, 0.227087
7.3758, 6, -16.0887, 34.8822, 24.9032, -16.7236, -86.0275, 0.175816
7.38381, 6, -16.161, 34.8681, 24.9783, -16.8069, -86.1547, 0.124713
7.39174, 6, -16.2332, 34.8536, 25.0535, -16.8903, -86.2817, 0.072805
7.39976, 6, -16.3054, 34.8387, 25.129, -16.9741, -86.4083, 0.0198485
7.4078, 6, -16.3776, 34.8235, 25.2048, -17.0576, -86.5344, -0.0328607
7.41575, 6, -16.4497, 34.8082, 25.2811, -17.1417, -86.6604, -0.0860181
7.42378, 6, -16.5216, 34.7926, 25.3576, -17.2257, -86.7858, -0.140083
7.4318, 6, -16.5936, 34.7764, 25.4346, -17.3101, -86.9113, -0.194439
7.43974, 6, -16.6655, 34.7601, 25.5119, -17.3947, -87.0362, -0.248537
7.44774, 6, -16.7371, 34.7435, 25.5895, -17.4794, -87.1609, -0.303378
7.45581, 6, -16.8086, 34.7266, 25.6673, -17.5644, -87.2852, -0.359116
7.46374, 6, -16.8798, 34.7092, 25.7453, -17.6494, -87.4091, -0.414532
7.47174, 6, -16.9509, 34.6916, 25.8237, -17.7346, -87.533, -0.470436
7.47981, 6, -17.022, 34.6739, 25.9023, -17.8197, -87.6563, -0.527355
7.48773, 6, -17.093, 34.6556, 25.9813, -17.9051, -87.7795, -0.583956
7.49575, 6, -17.1639, 34.637, 26.0607, -17.9906, -87.9022, -0.640925
7.50381, 6, -17.2349, 34.6182, 26.1405, -18.0761, -88.0247, -0.699142
7.51174, 6, -17.3058, 34.599, 26.2206, -18.1622, -88.1466, -0.757349
7.51974, 6, -17.3769, 34.5794, 26.301, -18.2484, -88.268, -0.815525
7.52781, 6, -17.448, 34.5596, 26.3815, -18.3344, -88.3895, -0.874953
7.53575, 6, -17.5193, 34.5396, 26.4623, -18.421, -88.5101, -0.934701
7.54383, 6, -17.5906, 34.519, 26.5434, -18.5073, -88.6308, -0.994283
7.55185, 6, -17.6619, 34.4983, 26.6249, -18.5939, -88.7507, -1.05497
7.55983, 6, -17.7331, 34.4773, 26.7067, -18.6805, -88.8704, -1.11617
7.5679, 6, -17.8045, 34.4558, 26.789, -18.7672, -88.9898, -1.17698
7.5759, 6, -17.8756, 34.4341, 26.8716, -18.8541, -89.1082, -1.23904
7.58385, 6, -17.9467, 34.4122, 26.9545, -18.941, -89.2267, -1.30138
7.59194, 6, -18.0178, 34.3898, 27.0375, -19.0283, -89.3445, -1.36335
7.59975, 6, -18.0888, 34.3671, 27.1207, -19.1159, -89.462, -1.4263
7.60775, 6, -18.1595, 34.344, 27.2042, -19.2035, -89.5793, -1.48969
7.61603, 6, -18.2291, 34.3207, 27.2881, -19.2914, -89.6957, -1.5528
7.6238, 6, -18.2962, 34.2974, 27.3721, -19.3791, -89.8119, -1.61683
7.63214, 6, -18.3604, 34.2743, 27.4554, -19.466, -89.9264, -1.68019
7.63874, 6, -18.3912, 34.263, 27.4964, -19.5087, -89.9826, -1.71122
7.64796, 6, -18.4782, 34.2305, 27.6145, -19.6319, -90.1442, -1.80204
7.65482, 6, -18.5051, 34.2205, 27.6513, -19.6703, -90.1945, -1.83063
7.66415, 6, -18.5774, 34.1936, 27.7505, -19.7737, -90.3295, -1.90707
7.67076, 6, -18.5987, 34.1857, 27.7791, -19.8032, -90.3683, -1.92918
7.68055, 6, -18.655, 34.1657, 27.8492, -19.876, -90.463, -1.9838
7.68834, 6, -18.6864, 34.1553, 27.8829, -19.9097, -90.5078, -2.01044
7.69635, 6, -18.7122, 34.1474, 27.9069, -19.9333, -90.5391, -2.02922
7.70466, 6, -18.733, 34.1416, 27.923, -19.9485, -90.5596, -2.04138
7.7124, 7, -18.7489, 34.1376, 27.933, -19.9577, -90.5718, -2.0487
7.72026, 7, -18.7551, 34.1361, 27.9363, -19.9606, -90.5785, -2.05265
7.72859, 7, -18.7672, 34.1334, 27.9418, -19.9651, -90.5819, -2.05459
7.73649, 7, -18.7693, 34.1329, 27.9427, -19.9664, -90.5836, -2.0555
7.74371, 7, -18.7717, 34.1322, 27.9439, -19.9668, -90.5841, -2.0558
7.75173, 7, -18.7727, 34.1317, 27.9445, -19.9673, -90.5847, -2.05624
7.75981, 7, -18.7726, 34.1313, 27.9448, -19.9675, -90.585, -2.05638
7.76772, 7, -18.7719, 34.131, 27.9449, -19.9677, -90.5852, -2.05648
7.77581, 7, -18.7713, 34.1308, 27.945, -19.9678, -90.5853, -2.05651
7.78377, 7, -18.7708, 34.1306, 27.9451, -19.9679, -90.5853, -2.05649
7.79172, 7, -18.7704, 34.1305, 27.9453, -19.9679, -90.5854, -2.05651
7.79974, 7, -18.7702, 34.1304, 27.9454, -19.9679, -90.5854, -2.05653
7.80777, 7, -18.7701, 34.1304, 27.9455, -19.9679, -90.5854, -2.05652
7.8158, 7, -18.7701, 34.1304, 27.9455, -19.968, -90.5855, -2.05648
7.82372, 7, -18.7702, 34.1303, 27.9455, -19.968, -90.5854, -2.05652
7.83075, 7, -18.7705, 34.1303, 27.9456, -19.968, -90.5854, -2.05657
