hehonglu123/ABB_Primitive_Study/realrobot/movec_30_ori/curve_exe_v300_fine.csv
timestamp, cmd_num, J1, J2, J3, J4, J5, J6
0.000358, -1, -18.7706, 34.1302, 27.9456, -19.968, -90.5853, -2.05592
0.00469, -1, -18.7706, 34.1302, 27.9456, -19.968, -90.5853, -2.05595
0.028119, -1, -18.7706, 34.1302, 27.9457, -19.968, -90.5854, -2.056
0.029362, -1, -18.7706, 34.1302, 27.9457, -19.968, -90.5854, -2.056
0.030596, -1, -18.7706, 34.1302, 27.9457, -19.968, -90.5854, -2.056
0.033853, -1, -18.7706, 34.1302, 27.9457, -19.968, -90.5853, -2.05596
0.040193, -1, -18.7706, 34.1302, 27.9457, -19.968, -90.5853, -2.05592
0.047673, -1, -18.7705, 34.1302, 27.9457, -19.968, -90.5853, -2.05596
0.056093, -1, -18.7692, 34.1299, 27.9457, -19.968, -90.5853, -2.05601
0.063089, -1, -18.7677, 34.1294, 27.9457, -19.968, -90.5852, -2.05603
0.072229, -1, -18.7586, 34.1258, 27.9457, -19.9672, -90.5842, -2.05607
0.079103, -1, -18.7537, 34.1235, 27.9458, -19.966, -90.5828, -2.05611
0.089023, -1, -18.7308, 34.1119, 27.9458, -19.9532, -90.57, -2.05813
0.096241, -1, -18.7055, 34.0989, 27.9457, -19.9333, -90.5495, -2.06563
0.103053, -1, -18.6892, 34.0906, 27.9454, -19.9183, -90.5341, -2.07221
0.113209, -1, -18.6237, 34.0573, 27.9426, -19.8448, -90.4573, -2.10524
0.119099, -1, -18.5957, 34.043, 27.9407, -19.8089, -90.42, -2.1218
0.128597, -1, -18.4909, 33.9898, 27.9312, -19.6597, -90.2633, -2.19236
0.137424, -1, -18.4035, 33.9456, 27.9207, -19.522, -90.1182, -2.25799
0.143099, -1, -18.3546, 33.9209, 27.9141, -19.4411, -90.0329, -2.29619
0.152663, -1, -18.1875, 33.8368, 27.8895, -19.1522, -89.7274, -2.43449
0.161492, -1, -18.0589, 33.7722, 27.8696, -18.9248, -89.4866, -2.54253
0.167121, -1, -17.9897, 33.7375, 27.8587, -18.8024, -89.3567, -2.6011
0.176767, -1, -17.8425, 33.6251, 27.8236, -18.4079, -88.9374, -2.78971
0.184055, -1, -17.6848, 33.5849, 27.8115, -18.2694, -88.7902, -2.85593
0.191087, -1, -17.5175, 33.5011, 27.7868, -17.9854, -88.4884, -2.99209
0.20011, -1, -17.3422, 33.4135, 27.7619, -17.6955, -88.1799, -3.13136
0.208057, -1, -17.1613, 33.3232, 27.7367, -17.4015, -87.8674, -3.2727
0.215115, -1, -16.9766, 33.231, 27.7115, -17.1053, -87.5525, -3.41495
0.223054, -1, -16.7893, 33.1379, 27.6864, -16.8079, -87.236, -3.55775
0.232129, -1, -16.6005, 33.0443, 27.6613, -16.5093, -86.9184, -3.70098
0.240109, -1, -16.4106, 32.9505, 27.6362, -16.2101, -86.5998, -3.84429
0.248063, -1, -16.2206, 32.8566, 27.6111, -15.9101, -86.2804, -3.98794
0.256067, -1, -16.0306, 32.7628, 27.586, -15.6091, -85.9605, -4.13202
0.264105, -1, -15.841, 32.6691, 27.561, -15.3078, -85.64, -4.27616
0.272056, -1, -15.6521, 32.5754, 27.5358, -15.0062, -85.3189, -4.42097
0.280055, -1, -15.4635, 32.4815, 27.5105, -14.7041, -84.9977, -4.5658
0.287048, -1, -15.2752, 32.3875, 27.4852, -14.4017, -84.6759, -4.71057
0.295225, -1, -15.0874, 32.2932, 27.4599, -14.0989, -84.3536, -4.85574
0.303124, -1, -14.8997, 32.1984, 27.4346, -13.7956, -84.0313, -5.00077
0.311071, -1, -14.7115, 32.1033, 27.4091, -13.4922, -83.7086, -5.14609
0.319495, -1, -14.5222, 32.0081, 27.3834, -13.1887, -83.3855, -5.2915
0.327049, -1, -14.3319, 31.9127, 27.3578, -12.8851, -83.0623, -5.43702
0.335047, -1, -14.1405, 31.8172, 27.3322, -12.5812, -82.7387, -5.58298
0.344101, -1, -13.9484, 31.7216, 27.3066, -12.2771, -82.415, -5.72875
0.352118, -1, -13.756, 31.6261, 27.2809, -11.9726, -82.091, -5.87443
0.359057, -1, -13.5628, 31.5307, 27.2553, -11.6683, -81.7668, -6.02012
0.368073, -1, -13.3691, 31.4352, 27.2296, -11.3639, -81.4428, -6.16577
0.376117, -1, -13.1753, 31.3399, 27.2041, -11.0595, -81.1187, -6.31154
0.384159, -1, -12.9822, 31.2447, 27.1784, -10.7551, -80.7948, -6.45738
0.392533, -1, -12.7897, 31.1496, 27.1529, -10.4505, -80.4712, -6.60315
0.399168, -1, -12.5977, 31.0545, 27.1273, -10.1461, -80.1477, -6.7492
0.407247, -1, -12.4067, 30.9594, 27.1018, -9.84203, -79.8242, -6.89496
0.415163, -1, -12.2165, 30.8642, 27.0761, -9.53787, -79.5007, -7.04051
0.424058, -1, -12.0272, 30.769, 27.0505, -9.23405, -79.1772, -7.1861
0.431749, -1, -11.8383, 30.6737, 27.0249, -8.93036, -78.8538, -7.33149
0.440918, -1, -11.6495, 30.5784, 26.9995, -8.62681, -78.5306, -7.47687
0.448192, -1, -11.4605, 30.4832, 26.9739, -8.32364, -78.2079, -7.62213
0.455944, -1, -11.271, 30.3882, 26.9482, -8.02115, -77.8859, -7.76735
0.464945, -1, -11.0813, 30.2934, 26.9228, -7.71894, -77.5642, -7.91221
0.472054, -1, -10.8912, 30.1988, 26.8973, -7.41734, -77.2432, -8.05668
0.480112, -1, -10.7006, 30.1045, 26.872, -7.11609, -76.9228, -8.20074
0.487385, -1, -10.5099, 30.0103, 26.8466, -6.81512, -76.6028, -8.34443
0.495448, -1, -10.319, 29.9162, 26.8214, -6.51492, -76.283, -8.48811
0.504284, -1, -10.1286, 29.8224, 26.7962, -6.21538, -75.9639, -8.63139
0.512701, -1, -9.93876, 29.7288, 26.7711, -5.91613, -75.6452, -8.77456
0.520149, -1, -9.74968, 29.6354, 26.746, -5.61765, -75.3274, -8.91774
0.528412, -1, -9.56153, 29.5421, 26.7208, -5.31947, -75.0104, -9.0603
0.535638, -1, -9.37429, 29.4489, 26.6958, -5.02204, -74.6941, -9.20265
0.543648, -1, -9.1881, 29.3559, 26.6708, -4.72563, -74.3786, -9.34437
0.552683, -1, -9.00288, 29.2631, 26.646, -4.42978, -74.0638, -9.48564
0.561056, -1, -8.81838, 29.1703, 26.621, -4.13474, -73.7498, -9.62698
0.568144, -1, -8.63465, 29.0778, 26.5962, -3.84079, -73.4368, -9.76785
0.57507, -1, -8.54291, 29.0317, 26.5838, -3.69392, -73.2805, -9.83798
0.583046, -1, -8.35958, 28.9397, 26.5591, -3.40074, -72.9686, -9.97837
0.591087, -1, -8.17643, 28.848, 26.5345, -3.10877, -72.658, -10.1184
0.601135, -1, -7.90181, 28.7111, 26.4976, -2.67237, -72.1933, -10.3272
0.607076, -1, -7.81027, 28.6657, 26.4854, -2.52739, -72.0389, -10.3964
0.615046, -1, -7.62732, 28.575, 26.4611, -2.23821, -71.7309, -10.5348
0.625229, -1, -7.35336, 28.4395, 26.4248, -1.80561, -71.2703, -10.7416
0.631146, -1, -7.26226, 28.3945, 26.4127, -1.66195, -71.1175, -10.8102
0.64063, -1, -6.98978, 28.2601, 26.3765, -1.2325, -70.6604, -11.0158
0.649292, -1, -6.80923, 28.1708, 26.3525, -0.947531, -70.357, -11.1524
0.655095, -1, -6.71935, 28.1262, 26.3406, -0.805487, -70.2057, -11.2204
0.664656, -1, -6.45118, 27.993, 26.3049, -0.380856, -69.7541, -11.4238
0.673534, -1, -6.3624, 27.9487, 26.2929, -0.098841, -69.4544, -11.5585
0.679095, -1, -6.18584, 27.8604, 26.2692, 0.0417396, -69.3048, -11.6259
0.689671, -1, -5.92274, 27.7286, 26.2338, 0.461782, -68.8577, -11.827
0.696035, -1, -5.83552, 27.6847, 26.2221, 0.601219, -68.7092, -11.8937
0.704041, -1, -5.66172, 27.5973, 26.1987, 0.879362, -68.413, -12.027
0.712103, -1, -5.48838, 27.5103, 26.1753, 1.1564, -68.1178, -12.1598
0.719033, -1, -5.31548, 27.4238, 26.152, 1.43214, -67.8239, -12.292
0.728038, -1, -5.14286, 27.3375, 26.1288, 1.70714, -67.5314, -12.4235
0.738075, -1, -4.88436, 27.209, 26.0945, 2.11717, -67.0951, -12.6197
0.743064, -1, -4.79835, 27.1664, 26.083, 2.2532, -66.9503, -12.6847
0.752036, -1, -4.62682, 27.0813, 26.0601, 2.52446, -66.6618, -12.8144
0.760101, -1, -4.45577, 26.9966, 26.0374, 2.79446, -66.3745, -12.9436
0.767029, -1, -4.28502, 26.9122, 26.0147, 3.06309, -66.0883, -13.0721
0.776037, -1, -4.11486, 26.8282, 25.9922, 3.33097, -65.8033, -13.2
0.7864, -1, -3.86159, 26.7029, 25.9586, 3.73037, -65.3781, -13.3915
0.791094, -1, -3.77781, 26.6613, 25.9474, 3.86285, -65.2369, -13.455
0.800117, -1, -3.61109, 26.5783, 25.9252, 4.12722, -64.9555, -13.5813
0.808036, -1, -3.44549, 26.4956, 25.903, 4.39024, -64.6755, -13.7071
0.817025, -1, -3.281, 26.4134, 25.8809, 4.65197, -64.3968, -13.8322
0.824097, -1, -3.11748, 26.3314, 25.859, 4.91278, -64.1193, -13.9567
0.832139, -1, -2.95511, 26.2498, 25.837, 5.17257, -63.843, -14.081
0.840055, -1, -2.79365, 26.1685, 25.8153, 5.43107, -63.568, -14.2046
0.847031, -1, -2.63295, 26.0877, 25.7938, 5.68826, -63.2944, -14.3275
0.855043, -1, -2.47266, 26.0074, 25.7723, 5.94419, -63.0219, -14.4503
0.86404, -1, -2.31252, 25.9274, 25.7508, 6.19889, -62.7507, -14.5723
0.872092, -1, -2.15276, 25.8478, 25.7294, 6.45238, -62.4808, -14.6936
0.880055, -1, -1.99344, 25.7686, 25.7082, 6.70481, -62.2121, -14.8145
0.887184, -1, -1.83454, 25.6898, 25.6871, 6.95635, -61.9444, -14.9346
0.895129, -1, -1.67625, 25.6114, 25.6661, 7.20644, -61.678, -15.054
0.903178, -1, -1.51827, 25.5333, 25.6452, 7.45535, -61.4127, -15.1732
0.911233, -1, -1.36071, 25.4555, 25.6243, 7.70327, -61.1486, -15.2917
0.919134, -1, -1.20377, 25.3781, 25.6036, 7.95009, -60.8855, -15.4098
0.927136, -1, -1.04777, 25.3009, 25.583, 8.19563, -60.6238, -15.5275
0.935237, -1, -0.892898, 25.2241, 25.5625, 8.44037, -60.3634, -15.6447
0.943114, -1, -0.739354, 25.1477, 25.5421, 8.68413, -60.1042, -15.7612
0.951064, -1, -0.586824, 25.0716, 25.5216, 8.92644, -59.8462, -15.8774
0.959198, -1, -0.435256, 24.9958, 25.5012, 9.16775, -59.5895, -15.9928
0.967185, -1, -0.284875, 24.9205, 25.4811, 9.40792, -59.3345, -16.1079
0.975234, -1, -0.135606, 24.8455, 25.461, 9.64697, -59.0803, -16.2224
0.983429, -1, 0.0127654, 24.7708, 25.4412, 9.88476, -58.8272, -16.3363
0.992156, -1, 0.160426, 24.6965, 25.4213, 10.1216, -58.5751, -16.4501
0.999425, -1, 0.307734, 24.6225, 25.4013, 10.3576, -58.324, -16.5629
1.00808, -1, 0.454882, 24.5488, 25.3816, 10.5923, -58.0738, -16.6759
1.01645, -1, 0.601929, 24.4754, 25.3619, 10.8258, -57.8248, -16.7879
1.02359, -1, 0.748745, 24.4024, 25.3423, 11.0584, -57.5768, -16.8992
1.03213, -1, 0.89529, 24.3296, 25.323, 11.2899, -57.3299, -17.0102
1.04041, -1, 1.0412, 24.2572, 25.3035, 11.5203, -57.0844, -17.1201
1.04772, -1, 1.11394, 24.2212, 25.2841, 11.7498, -56.84, -17.2299
1.05616, -1, 1.3315, 24.1134, 25.265, 11.9783, -56.5969, -17.3389
1.06444, -1, 1.40377, 24.0777, 25.2554, 12.0923, -56.4758, -17.3935
1.07104, -1, 1.54795, 24.0065, 25.2363, 12.3193, -56.2346, -17.5019
1.08007, -1, 1.76313, 23.9003, 25.2079, 12.6576, -55.8746, -17.6637
1.08706, -1, 1.83431, 23.8651, 25.1985, 12.7699, -55.7552, -17.7175
1.09502, -1, 1.97581, 23.7949, 25.1796, 12.9939, -55.517, -17.825
1.10423, -1, 2.18643, 23.6901, 25.1516, 13.3276, -55.1616, -17.985
1.11103, -1, 2.25617, 23.6554, 25.1423, 13.4384, -55.0436, -18.0379
1.11908, -1, 2.39481, 23.586, 25.1237, 13.6593, -54.8084, -18.1437
1.12847, -1, 2.60111, 23.4826, 25.0961, 13.9891, -54.4571, -18.3012
1.13508, -1, 2.66936, 23.4482, 25.087, 14.0985, -54.3404, -18.3535
1.14315, -1, 2.80522, 23.3798, 25.0686, 14.3165, -54.1082, -18.4577
1.15268, -1, 3.00783, 23.2776, 25.0412, 14.642, -53.7618, -18.6133
1.16141, -1, 3.14259, 23.2098, 25.023, 14.8576, -53.5322, -18.7167
1.1671, -1, 3.21006, 23.176, 25.0139, 14.9651, -53.4177, -18.768
1.17668, -1, 3.34493, 23.0751, 24.9871, 15.2862, -53.0758, -18.9222
1.18546, -1, 3.47945, 23.0417, 24.9781, 15.393, -52.9623, -19.0243
1.19109, -1, 3.61378, 22.9749, 24.9602, 15.6059, -52.7361, -19.0751
1.20105, -1, 3.81465, 22.8755, 24.9337, 15.923, -52.3985, -19.2268
1.20702, -1, 3.88135, 22.8424, 24.9248, 16.0283, -52.2865, -19.2772
1.21603, -1, 4.01449, 22.7766, 24.907, 16.2383, -52.0631, -19.3773
1.22406, -1, 4.14726, 22.711, 24.8895, 16.4473, -51.8405, -19.4773
1.23203, -1, 4.27957, 22.6458, 24.8721, 16.6554, -51.6188, -19.5768
1.23903, -1, 4.41126, 22.5807, 24.8546, 16.8627, -51.3978, -19.6759
1.24706, -1, 4.54216, 22.5159, 24.8373, 17.0693, -51.178, -19.7748
1.25609, -1, 4.67251, 22.4512, 24.8201, 17.2752, -50.9589, -19.8731
1.26321, -1, 4.80199, 22.3868, 24.8028, 17.48, -50.7406, -19.9714
1.27101, -1, 4.93075, 22.3226, 24.7856, 17.6842, -50.5231, -20.0691
1.28002, -1, 5.05874, 22.2587, 24.7687, 17.8873, -50.3067, -20.1667
1.28702, -1, 5.18587, 22.195, 24.7517, 18.09, -50.0909, -20.2634
1.29602, -1, 5.31222, 22.1315, 24.7346, 18.2918, -49.8761, -20.3602
1.30402, -1, 5.43766, 22.0684, 24.7177, 18.4927, -49.6622, -20.456
1.31302, -1, 5.56228, 22.0055, 24.7009, 18.6929, -49.4492, -20.5519
1.32006, -1, 5.68635, 21.9428, 24.684, 18.8924, -49.2371, -20.6471
1.32803, -1, 5.81015, 21.8805, 24.6673, 19.0913, -49.0257, -20.7425
1.33609, -1, 5.93389, 21.8185, 24.6509, 19.2892, -48.8156, -20.8369
1.34403, -1, 6.05759, 21.7566, 24.6343, 19.4862, -48.606, -20.9316
1.35108, -1, 6.18115, 21.695, 24.6178, 19.6827, -48.3971, -21.0255
1.35975, -1, 6.30455, 21.6335, 24.6014, 19.8783, -48.1889, -21.1195
1.49261, -1, 8.27849, 20.6522, 24.3385, 23.005, -44.8609, -22.615
1.49391, -1, 8.27849, 20.6522, 24.3385, 23.005, -44.8609, -22.615
1.4959, -1, 8.33612, 20.6233, 24.3309, 23.0969, -44.7631, -22.6587
1.49712, -1, 8.33612, 20.6233, 24.3309, 23.0969, -44.7631, -22.6587
1.49829, -1, 8.33612, 20.6233, 24.3309, 23.0969, -44.7631, -22.6587
1.50106, -1, 8.39369, 20.5944, 24.3232, 23.1887, -44.6654, -22.7025
1.50226, -1, 8.39369, 20.5944, 24.3232, 23.1887, -44.6654, -22.7025
1.50754, -1, 8.50855, 20.5369, 24.3078, 23.3718, -44.4704, -22.7902
1.509, -1, 8.50855, 20.5369, 24.3078, 23.3718, -44.4704, -22.7902
1.51021, -1, 8.50855, 20.5369, 24.3078, 23.3718, -44.4704, -22.7902
1.51222, -1, 8.56579, 20.5082, 24.3001, 23.463, -44.3731, -22.8337
1.51349, -1, 8.56579, 20.5082, 24.3001, 23.463, -44.3731, -22.8337
1.51534, -1, 8.56579, 20.5082, 24.3001, 23.463, -44.3731, -22.8771
1.51672, -1, 8.62289, 20.4796, 24.2924, 23.5541, -44.2762, -22.8771
1.51796, -1, 8.62289, 20.4796, 24.2924, 23.5541, -44.2762, -22.8771
1.5205, -1, 8.67984, 20.4511, 24.2847, 23.6451, -44.1793, -22.9209
1.52179, -1, 8.67984, 20.4511, 24.2847, 23.6451, -44.1793, -22.9209
1.52443, -1, 8.73669, 20.4226, 24.2771, 23.7358, -44.0824, -22.9644
1.52569, -1, 8.73669, 20.4226, 24.2771, 23.7358, -44.0824, -22.9644
1.52858, -1, 8.79349, 20.3941, 24.2695, 23.8264, -43.9858, -23.0077
1.5301, -1, 8.79349, 20.3941, 24.2695, 23.8264, -43.9858, -23.0077
1.53617, -1, 8.90689, 20.3374, 24.2543, 24.0075, -43.7928, -23.0942
1.54508, -1, 9.02004, 20.2808, 24.2391, 24.1879, -43.6009, -23.1806
1.55343, -1, 9.13315, 20.2245, 24.2242, 24.3676, -43.4096, -23.2666
1.55965, -1, 9.18972, 20.1964, 24.2168, 24.5467, -43.2189, -23.3528
1.56803, -1, 9.35927, 20.1123, 24.1942, 24.7251, -43.0288, -23.4381
1.57506, -1, 9.41566, 20.0843, 24.1866, 24.8141, -42.934, -23.481
1.58417, -1, 9.58415, 20.0006, 24.1642, 25.0806, -42.6505, -23.6081
1.591, -1, 9.64008, 19.9728, 24.1568, 25.169, -42.5562, -23.6506
1.60029, -1, 9.80731, 19.8895, 24.1345, 25.4336, -42.2747, -23.777
1.607, -1, 9.86292, 19.8619, 24.1271, 25.5215, -42.181, -23.8191
1.6163, -1, 10.0293, 19.7793, 24.1053, 25.7847, -41.9013, -23.9446
1.623, -1, 10.0845, 19.7519, 24.098, 25.8723, -41.8083, -23.9863
1.63241, -1, 10.2496, 19.6699, 24.0759, 26.1337, -41.5302, -24.1114
1.63911, -1, 10.3045, 19.6426, 24.0685, 26.2205, -41.4377, -24.1528
1.64867, -1, 10.4683, 19.5613, 24.0467, 26.4803, -41.1611, -24.2773
1.65655, -1, 10.5769, 19.5071, 24.0322, 26.6529, -40.9774, -24.3596
1.66456, -1, 10.6851, 19.4532, 24.0177, 26.8249, -40.7944, -24.4424
1.67287, -1, 10.7931, 19.3994, 24.0034, 26.9964, -40.6117, -24.5242
1.68059, -1, 10.8469, 19.3726, 23.9963, 27.0819, -40.4296, -24.6065
1.68857, -1, 10.9542, 19.319, 23.9821, 27.2524, -40.3387, -24.6474
1.69607, -1, 11.0611, 19.2655, 23.9677, 27.4226, -40.1576, -24.7284
1.703, -1, 11.1676, 19.2122, 23.9534, 27.5925, -39.9768, -24.81
1.71201, -1, 11.2738, 19.159, 23.9391, 27.7617, -39.7968, -24.8907
1.72006, -1, 11.3795, 19.106, 23.925, 27.9304, -39.6171, -24.9717
1.72801, -1, 11.4849, 19.0532, 23.9108, 28.0985, -39.4381, -25.052
1.73602, -1, 11.5899, 19.0007, 23.8967, 28.2661, -39.2596, -25.1323
1.74409, -1, 11.6948, 18.9483, 23.8828, 28.4335, -39.0814, -25.2126
1.752, -1, 11.7996, 18.896, 23.8688, 28.6003, -38.904, -25.2923
1.76003, -1, 11.9041, 18.844, 23.8548, 28.7665, -38.7271, -25.3724
1.76801, -1, 12.0084, 18.7919, 23.8407, 28.9323, -38.5503, -25.4515
1.77506, -1, 12.1126, 18.7401, 23.8268, 29.0976, -38.3745, -25.5313
1.78408, -1, 12.2168, 18.6883, 23.813, 29.2627, -38.1992, -25.6102
1.792, -1, 12.3207, 18.6367, 23.7991, 29.4273, -38.0245, -25.6893
1.80001, -1, 12.4243, 18.5852, 23.7854, 29.5914, -37.8502, -25.768
1.80953, -1, 12.5276, 18.5338, 23.7718, 29.7548, -37.6762, -25.8459
1.81601, -1, 12.6308, 18.4826, 23.7582, 29.9179, -37.5027, -25.9244
1.82499, -1, 12.7336, 18.4315, 23.7444, 30.0806, -37.3295, -26.0017
1.83207, -1, 12.836, 18.3806, 23.7307, 30.2429, -37.1569, -26.0796
1.84, -1, 12.938, 18.33, 23.7171, 30.4046, -36.9846, -26.1566
1.84805, -1, 13.0397, 18.2794, 23.7035, 30.566, -36.8127, -26.2335
1.855, -1, 13.1409, 18.2291, 23.6899, 30.7266, -36.6414, -26.3108
1.86303, -1, 13.2419, 18.1789, 23.6765, 30.8872, -36.4703, -26.3869
1.872, -1, 13.3425, 18.1288, 23.6632, 31.0474, -36.3, -26.4638
1.88007, -1, 13.4429, 18.0788, 23.6499, 31.207, -36.1299, -26.5399
1.888, -1, 13.5429, 18.0288, 23.6365, 31.3662, -35.9604, -26.6162
1.89601, -1, 13.643, 17.9789, 23.6231, 31.5249, -35.7914, -26.6925
1.90408, -1, 13.7427, 17.9291, 23.6098, 31.683, -35.6227, -26.768
1.91206, -1, 13.8423, 17.8794, 23.5965, 31.8411, -35.4547, -26.844
1.91919, -1, 13.9416, 17.8298, 23.5832, 31.9987, -35.287, -26.919
1.92751, -1, 14.0409, 17.7803, 23.5699, 32.1559, -35.1196, -26.9943
1.935, -1, 14.1399, 17.731, 23.5569, 32.3126, -34.953, -27.0692
1.944, -1, 14.2385, 17.6819, 23.5438, 32.4689, -34.7867, -27.1437
1.95207, -1, 14.3366, 17.6329, 23.5307, 32.625, -34.6209, -27.2186
1.96, -1, 14.4344, 17.5841, 23.5175, 32.7808, -34.4556, -27.2924
1.96714, -1, 14.5319, 17.5355, 23.5044, 32.9362, -34.2902, -27.3668
1.97604, -1, 14.629, 17.4871, 23.4915, 33.0911, -34.1254, -27.441
1.984, -1, 14.7257, 17.4387, 23.4786, 33.2455, -33.9609, -27.5146
1.992, -1, 14.8222, 17.3905, 23.4656, 33.3996, -33.7969, -27.5888
2.00008, -1, 14.9186, 17.3423, 23.4527, 33.5534, -33.6331, -27.6621
2.00803, -1, 15.0148, 17.294, 23.44, 33.7068, -33.4698, -27.736
2.01607, -1, 15.1109, 17.2459, 23.4272, 33.8598, -33.3066, -27.8094
2.02436, -1, 15.2069, 17.1979, 23.4143, 34.0123, -33.1441, -27.8824
2.03152, -1, 15.3027, 17.15, 23.4014, 34.1644, -32.9819, -27.9557
2.04038, -1, 15.3985, 17.1022, 23.3886, 34.3163, -32.8204, -28.028
2.04755, -1, 15.4464, 17.0544, 23.3758, 34.4681, -32.6591, -28.1008
2.05613, -1, 15.59, 17.0069, 23.363, 34.6193, -32.4983, -28.1731
2.06445, -1, 15.6378, 16.9833, 23.3566, 34.6947, -32.3377, -28.245
2.071, -1, 15.7331, 16.936, 23.3439, 34.8454, -32.2576, -28.2812
2.08009, -1, 15.8757, 16.8654, 23.3252, 35.0705, -32.0177, -28.3886
2.08707, -1, 15.9231, 16.842, 23.3189, 35.1455, -31.938, -28.4242
2.09498, -1, 16.0177, 16.7952, 23.3063, 35.2952, -31.7788, -28.4962
2.10418, -1, 16.1589, 16.7253, 23.2874, 35.5191, -31.5405, -28.6029
2.11115, -1, 16.2058, 16.702, 23.2812, 35.5936, -31.4615, -28.6387
2.11898, -1, 16.2993, 16.6554, 23.2688, 35.7421, -31.3034, -28.7101
2.12834, -1, 16.4391, 16.5857, 23.25, 35.9644, -31.0667, -28.8163
2.13503, -1, 16.4856, 16.5624, 23.2438, 36.0383, -30.9879, -28.8521
2.14456, -1, 16.6246, 16.4927, 23.2252, 36.2601, -30.7522, -28.9579
2.15253, -1, 16.7171, 16.4464, 23.2129, 36.4074, -30.5954, -29.0286
2.16055, -1, 16.8094, 16.4001, 23.2005, 36.5542, -30.4391, -29.099
2.16861, -1, 16.9016, 16.354, 23.1881, 36.7007, -30.2831, -29.1688
2.17661, -1, 16.9936, 16.308, 23.1757, 36.8469, -30.1275, -29.2391
2.1846, -1, 17.0396, 16.2851, 23.1696, 36.9928, -29.9721, -29.3086
2.19269, -1, 17.1312, 16.2394, 23.1511, 37.1385, -29.8168, -29.3782
2.19999, -1, 17.2214, 16.1943, 23.1449, 37.2111, -29.7394, -29.4131
2.20801, -1, 17.3082, 16.1509, 23.1324, 37.3558, -29.5856, -29.482
2.21604, -1, 17.3901, 16.1099, 23.1198, 37.4981, -29.4338, -29.5498
2.22398, -1, 17.4666, 16.0719, 23.1074, 37.6359, -29.2868, -29.6163
2.232, -1, 17.5374, 16.037, 23.0953, 37.7657, -29.1482, -29.6784
2.24006, -1, 17.6012, 16.006, 23.0841, 37.884, -29.0218, -29.7353
2.24805, -1, 17.6575, 15.9786, 23.0743, 37.9871, -28.9113, -29.7853
2.25599, -1, 17.7075, 15.9539, 23.0666, 38.0714, -28.8208, -29.8264
2.26403, -1, 17.7514, 15.9313, 23.0614, 38.1371, -28.7499, -29.8582
2.272, -1, 17.7892, 15.9117, 23.0582, 38.1835, -28.6993, -29.8808
2.27998, -1, 17.8199, 15.8961, 23.0565, 38.2146, -28.6652, -29.896
2.28804, -1, 17.8443, 15.8841, 23.0557, 38.2341, -28.644, -29.9052
2.29599, -1, 17.8629, 15.8754, 23.0554, 38.2451, -28.6319, -29.9103
2.30399, -1, 17.875, 15.8699, 23.0552, 38.2507, -28.6257, -29.9129
2.31207, -1, 17.8814, 15.8669, 23.0552, 38.2534, -28.6226, -29.9142
2.32103, 2, 17.8843, 15.8655, 23.0551, 38.2547, -28.6212, -29.9149
2.32799, 2, 17.8852, 15.8648, 23.0551, 38.2554, -28.6206, -29.9151
2.33605, 2, 17.8849, 15.8645, 23.0551, 38.2557, -28.6203, -29.9153
2.34398, 2, 17.8842, 15.8643, 23.0551, 38.2557, -28.6201, -29.9153
2.352, 2, 17.8835, 15.8643, 23.0551, 38.2558, -28.62, -29.9153
2.36008, 2, 17.8831, 15.8642, 23.0551, 38.2559, -28.62, -29.9153
2.36798, 2, 17.8829, 15.8642, 23.0551, 38.2559, -28.62, -29.9154
2.37505, 2, 17.8829, 15.864, 23.0551, 38.2559, -28.62, -29.9154
2.38405, 2, 17.883, 15.8638, 23.0551, 38.2559, -28.62, -29.9154
2.39199, 2, 17.8833, 15.8635, 23.0551, 38.2559, -28.62, -29.9154
2.39998, 2, 17.8837, 15.8631, 23.0551, 38.2559, -28.62, -29.9154
2.40804, 2, 17.8841, 15.8629, 23.0551, 38.2559, -28.62, -29.9154
2.41604, 2, 17.8849, 15.8627, 23.0551, 38.2559, -28.62, -29.9154
2.42318, 2, 17.8858, 15.8626, 23.0551, 38.2559, -28.62, -29.9154
2.43109, 2, 17.8865, 15.8626, 23.0551, 38.2559, -28.6201, -29.9153
2.43899, 2, 17.887, 15.8626, 23.0551, 38.2559, -28.62, -29.9153
2.44799, 2, 17.8874, 15.8626, 23.0551, 38.2559, -28.6201, -29.9153
2.45606, 2, 17.8876, 15.8626, 23.0551, 38.2559, -28.6201, -29.9153
2.46398, 2, 17.8877, 15.8626, 23.0551, 38.2559, -28.6201, -29.9153
2.472, 2, 17.8877, 15.8626, 23.0551, 38.2559, -28.6201, -29.9153
2.48004, 2, 17.8878, 15.8626, 23.0551, 38.2559, -28.6201, -29.9153
2.48798, 2, 17.8878, 15.8626, 23.0551, 38.2559, -28.6202, -29.9153
2.49599, 2, 17.8877, 15.8625, 23.0551, 38.2559, -28.6202, -29.9152
2.50406, 2, 17.8876, 15.8625, 23.0551, 38.2559, -28.6202, -29.9153
2.51203, 2, 17.8873, 15.8624, 23.0551, 38.2559, -28.6202, -29.9153
2.52008, 2, 17.8872, 15.8623, 23.0551, 38.2559, -28.6202, -29.9154
2.52752, 2, 17.887, 15.8623, 23.0551, 38.2559, -28.6203, -29.9153
2.53607, 2, 17.887, 15.8622, 23.0551, 38.2559, -28.6203, -29.9153
2.54409, 2, 17.887, 15.8623, 23.0551, 38.2559, -28.6203, -29.9154
2.55214, 2, 17.887, 15.8623, 23.0551, 38.2559, -28.6203, -29.9154
2.55971, 2, 17.887, 15.8623, 23.0551, 38.2559, -28.6204, -29.9154
2.56808, 2, 17.887, 15.8623, 23.0551, 38.2559, -28.6204, -29.9153
2.57497, 2, 17.887, 15.8623, 23.0551, 38.2559, -28.6204, -29.9153
2.58408, 2, 17.887, 15.8624, 23.0551, 38.2559, -28.6204, -29.9152
2.59209, 2, 17.887, 15.8624, 23.0551, 38.2559, -28.6204, -29.9153
2.59901, 2, 17.887, 15.8624, 23.0551, 38.2559, -28.6204, -29.9153
2.60816, 2, 17.887, 15.8623, 23.0551, 38.2558, -28.6205, -29.9152
2.61499, 2, 17.887, 15.8623, 23.0551, 38.2558, -28.6205, -29.9152
2.62434, 2, 17.8869, 15.8623, 23.0551, 38.2558, -28.6204, -29.9153
2.631, 2, 17.8869, 15.8623, 23.0551, 38.2559, -28.6205, -29.9153
2.64096, 2, 17.8869, 15.8623, 23.0551, 38.2558, -28.6205, -29.9153
2.64852, 2, 17.8869, 15.8623, 23.0551, 38.2559, -28.6206, -29.9153
2.65649, 2, 17.8868, 15.8623, 23.0551, 38.2558, -28.6205, -29.9153
2.66487, 2, 17.8868, 15.8623, 23.0551, 38.2559, -28.6206, -29.9152
2.67256, 2, 17.8868, 15.8624, 23.0551, 38.2559, -28.6206, -29.9152
2.68053, 2, 17.8868, 15.8624, 23.0551, 38.2559, -28.6206, -29.9152
2.68927, 2, 17.8868, 15.8624, 23.0551, 38.2559, -28.6206, -29.9152
2.695, 2, 17.8868, 15.8624, 23.0551, 38.2559, -28.6206, -29.9152
2.70504, 2, 17.8867, 15.8624, 23.0551, 38.2558, -28.6206, -29.9152
2.711, 2, 17.8867, 15.8623, 23.0551, 38.2558, -28.6206, -29.9152
2.71999, 2, 17.8867, 15.8623, 23.0551, 38.2558, -28.6207, -29.9152
2.728, 2, 17.8867, 15.8623, 23.0551, 38.2557, -28.6207, -29.9152
2.73597, 2, 17.8867, 15.8623, 23.0551, 38.2557, -28.6207, -29.9152
2.743, 2, 17.8867, 15.8623, 23.0551, 38.2558, -28.6207, -29.9152
2.75207, 2, 17.8867, 15.8623, 23.0551, 38.2557, -28.6208, -29.9152
2.75997, 2, 17.8867, 15.8623, 23.0551, 38.2558, -28.6208, -29.9152
2.76799, 2, 17.8866, 15.8624, 23.0551, 38.2558, -28.6208, -29.9152
2.77599, 2, 17.8866, 15.8624, 23.0551, 38.2557, -28.6208, -29.9152
2.78397, 2, 17.8866, 15.8624, 23.0551, 38.2557, -28.6208, -29.9152
2.79101, 2, 17.8866, 15.8624, 23.0551, 38.2558, -28.6208, -29.9152
2.8, 2, 17.8865, 15.8624, 23.0551, 38.2558, -28.6209, -29.9152
2.80796, 2, 17.8865, 15.8624, 23.0551, 38.2558, -28.6209, -29.9152
2.816, 2, 17.8865, 15.8624, 23.0551, 38.2558, -28.6209, -29.9152
2.82498, 2, 17.8865, 15.8624, 23.0551, 38.2558, -28.6208, -29.9152
2.83198, 2, 17.8864, 15.8624, 23.0551, 38.2557, -28.6208, -29.9152
2.83999, 2, 17.8863, 15.8624, 23.0551, 38.2557, -28.6209, -29.9152
2.84803, 2, 17.8863, 15.8624, 23.0551, 38.2557, -28.6208, -29.9152
2.85598, 2, 17.8863, 15.8624, 23.0551, 38.2557, -28.6209, -29.9152
2.86402, 2, 17.8862, 15.8624, 23.0551, 38.2557, -28.6209, -29.9152
2.8721, 2, 17.8861, 15.8624, 23.0551, 38.2557, -28.6209, -29.9151
2.879, 2, 17.8861, 15.8624, 23.0551, 38.2557, -28.6209, -29.9151
2.888, 2, 17.886, 15.8624, 23.0551, 38.2557, -28.621, -29.9151
2.896, 2, 17.886, 15.8624, 23.0551, 38.2557, -28.6209, -29.9151
2.90397, 2, 17.886, 15.8624, 23.0551, 38.2556, -28.6209, -29.9151
2.912, 2, 17.8859, 15.8624, 23.0551, 38.2556, -28.6209, -29.9151
2.92007, 2, 17.8859, 15.8624, 23.0551, 38.2556, -28.621, -29.9152
2.92796, 2, 17.8858, 15.8624, 23.0551, 38.2556, -28.621, -29.9151
2.936, 2, 17.8858, 15.8624, 23.0551, 38.2556, -28.621, -29.9151
2.94401, 2, 17.8857, 15.8624, 23.0551, 38.2556, -28.621, -29.9151
2.95198, 2, 17.8857, 15.8624, 23.0551, 38.2556, -28.621, -29.9151
2.95999, 2, 17.8857, 15.8624, 23.0551, 38.2556, -28.621, -29.9152
2.968, 2, 17.8856, 15.8624, 23.0551, 38.2556, -28.6211, -29.9151
2.97596, 2, 17.8856, 15.8624, 23.0551, 38.2555, -28.6211, -29.9151
2.984, 2, 17.8855, 15.8624, 23.0551, 38.2555, -28.6211, -29.9151
2.99202, 2, 17.8855, 15.8624, 23.0551, 38.2555, -28.6211, -29.9151
3.00005, 2, 17.8854, 15.8624, 23.0551, 38.2555, -28.6211, -29.9151
3.00801, 2, 17.8854, 15.8625, 23.0551, 38.2555, -28.6211, -29.9151
3.01604, 2, 17.8853, 15.8625, 23.0551, 38.2555, -28.6211, -29.9151
3.02404, 2, 17.8853, 15.8625, 23.0551, 38.2555, -28.6212, -29.915
3.0316, 2, 17.8852, 15.8625, 23.0551, 38.2554, -28.6212, -29.9151
3.0401, 2, 17.8851, 15.8624, 23.0551, 38.2554, -28.6212, -29.915
3.04753, 2, 17.8851, 15.8624, 23.0551, 38.2554, -28.6212, -29.9151
3.05611, 2, 17.885, 15.8625, 23.0551, 38.2554, -28.6212, -29.915
3.0635, 2, 17.885, 15.8625, 23.0551, 38.2554, -28.6212, -29.915
3.07198, 2, 17.8849, 15.8625, 23.0551, 38.2554, -28.6212, -29.9151
3.07898, 2, 17.8849, 15.8625, 23.0551, 38.2554, -28.6212, -29.9151
3.0881, 2, 17.8848, 15.8625, 23.0551, 38.2554, -28.6212, -29.9151
3.09501, 2, 17.8848, 15.8625, 23.0551, 38.2554, -28.6212, -29.915
3.10416, 2, 17.8847, 15.8625, 23.0551, 38.2554, -28.6212, -29.915
3.11096, 2, 17.8847, 15.8625, 23.0551, 38.2554, -28.6212, -29.915
3.1202, 2, 17.8846, 15.8625, 23.0551, 38.2554, -28.6212, -29.915
3.12701, 2, 17.8846, 15.8625, 23.0551, 38.2553, -28.6212, -29.915
3.13634, 2, 17.8845, 15.8625, 23.0551, 38.2552, -28.6213, -29.915
3.14297, 2, 17.8845, 15.8625, 23.0551, 38.2553, -28.6213, -29.915
3.1526, 2, 17.8844, 15.8625, 23.0551, 38.2553, -28.6213, -29.915
3.16049, 2, 17.8843, 15.8625, 23.0551, 38.2552, -28.6213, -29.915
3.1685, 2, 17.8843, 15.8625, 23.0551, 38.2552, -28.6213, -29.915
3.17666, 2, 17.8843, 15.8625, 23.0551, 38.2552, -28.6213, -29.915
3.18448, 2, 17.8842, 15.8625, 23.0551, 38.2552, -28.6213, -29.915
3.19249, 2, 17.8842, 15.8625, 23.0551, 38.2552, -28.6213, -29.915
3.20058, 2, 17.8841, 15.8625, 23.0551, 38.2552, -28.6213, -29.915
3.20796, 2, 17.8841, 15.8625, 23.0551, 38.2552, -28.6213, -29.915
3.21595, 2, 17.8841, 15.8625, 23.0551, 38.2551, -28.6213, -29.9149
3.224, 2, 17.8841, 15.8625, 23.0551, 38.2551, -28.6213, -29.9149
3.23195, 2, 17.8841, 15.8625, 23.0551, 38.2551, -28.6213, -29.915
3.23995, 2, 17.8841, 15.8626, 23.0551, 38.2551, -28.6213, -29.9149
3.24802, 2, 17.884, 15.8625, 23.0551, 38.2551, -28.6213, -29.9149
3.25602, 2, 17.884, 15.8625, 23.0551, 38.2551, -28.6213, -29.9149
3.26395, 2, 17.884, 15.8625, 23.0551, 38.255, -28.6213, -29.9149
3.27201, 2, 17.884, 15.8625, 23.0551, 38.255, -28.6213, -29.9149
3.27995, 2, 17.884, 15.8625, 23.0551, 38.255, -28.6213, -29.9149
3.28796, 2, 17.8839, 15.8625, 23.0551, 38.255, -28.6213, -29.9149
3.296, 2, 17.8839, 15.8626, 23.0551, 38.255, -28.6213, -29.9149
3.30395, 2, 17.8839, 15.8626, 23.0551, 38.255, -28.6213, -29.9149
3.31204, 2, 17.8839, 15.8626, 23.0551, 38.255, -28.6213, -29.9149
3.32048, 2, 17.8839, 15.8626, 23.0551, 38.2549, -28.6213, -29.9149
3.32791, 2, 17.8839, 15.8626, 23.0551, 38.2549, -28.6213, -29.9149
3.33595, 2, 17.8838, 15.8626, 23.0551, 38.2549, -28.6213, -29.9149
3.34401, 2, 17.8838, 15.8626, 23.0551, 38.2549, -28.6213, -29.9149
3.35195, 2, 17.8838, 15.8626, 23.0551, 38.2548, -28.6213, -29.9149
3.35995, 2, 17.8838, 15.8626, 23.0551, 38.2548, -28.6214, -29.9148
3.36806, 2, 17.8838, 15.8626, 23.0551, 38.2548, -28.6214, -29.9148
3.37591, 2, 17.8838, 15.8626, 23.0551, 38.2548, -28.6214, -29.9148
3.38395, 2, 17.8837, 15.8626, 23.0551, 38.2548, -28.6214, -29.9148
3.39201, 2, 17.8837, 15.8626, 23.0551, 38.2548, -28.6214, -29.9148
3.39991, 4, 17.8837, 15.8626, 23.0551, 38.2548, -28.6214, -29.9148
3.40796, 4, 17.8837, 15.8626, 23.0551, 38.2547, -28.6215, -29.9148
3.41602, 4, 17.8837, 15.8626, 23.0551, 38.2547, -28.6215, -29.9147
3.42401, 4, 17.8837, 15.8626, 23.0551, 38.2547, -28.6215, -29.9147
3.43195, 4, 17.8837, 15.8626, 23.0551, 38.2547, -28.6215, -29.9147
3.44001, 4, 17.8837, 15.8626, 23.0551, 38.2547, -28.6215, -29.9147
3.44796, 4, 17.8836, 15.8626, 23.0551, 38.2547, -28.6215, -29.9146
3.45596, 4, 17.8836, 15.8626, 23.0551, 38.2546, -28.6215, -29.9146
3.46401, 4, 17.8836, 15.8626, 23.0551, 38.2546, -28.6215, -29.9146
3.47195, 4, 17.8836, 15.8626, 23.0551, 38.2546, -28.6215, -29.9145
3.47995, 4, 17.8836, 15.8626, 23.0551, 38.2546, -28.6215, -29.9145
3.48803, 4, 17.8836, 15.8626, 23.0551, 38.2546, -28.6215, -29.9146
3.49595, 4, 17.8836, 15.8626, 23.0551, 38.2546, -28.6215, -29.9146
3.50586, 4, 17.8836, 15.8626, 23.0551, 38.2546, -28.6215, -29.9146
3.52933, 4, 17.8835, 15.8627, 23.0551, 38.2546, -28.6215, -29.9145
3.53057, 4, 17.8835, 15.8627, 23.0551, 38.2546, -28.6215, -29.9145
3.53259, 4, 17.8835, 15.8627, 23.0551, 38.2546, -28.6215, -29.9145
3.53559, 4, 17.8835, 15.8627, 23.0551, 38.2546, -28.6215, -29.9145
3.54437, 4, 17.8834, 15.8627, 23.0551, 38.2546, -28.6215, -29.9145
3.55152, 4, 17.8833, 15.8628, 23.0551, 38.2545, -28.6215, -29.9145
3.56006, 4, 17.8821, 15.8635, 23.0551, 38.2544, -28.6215, -29.9145
3.56865, 4, 17.8786, 15.866, 23.0548, 38.2536, -28.6216, -29.9142
3.57595, 4, 17.8718, 15.8719, 23.0533, 38.2495, -28.6222, -29.9117
3.58294, 4, 17.8672, 15.8768, 23.0519, 38.245, -28.6229, -29.9084
3.59281, 4, 17.8478, 15.9006, 23.0431, 38.2155, -28.6287, -29.8807
3.60005, 5, 17.8287, 15.9253, 23.0317, 38.1755, -28.6375, -29.8404
3.60694, 5, 17.8173, 15.9405, 23.0239, 38.1465, -28.644, -29.8112
3.61616, 5, 17.7765, 15.9948, 22.9914, 38.0171, -28.6729, -29.6792
3.62294, 5, 17.7609, 16.0155, 22.9771, 37.9585, -28.6862, -29.6192
3.6323, 5, 17.7079, 16.0863, 22.9245, 37.7368, -28.7371, -29.3916
3.639, 5, 17.6878, 16.1134, 22.9039, 37.6489, -28.758, -29.3013
3.64848, 5, 17.6212, 16.2053, 22.8341, 37.3525, -28.8283, -28.9958
3.65685, 5, 17.5717, 16.2749, 22.7826, 37.135, -28.8811, -28.7711
3.66456, 5, 17.5178, 16.3501, 22.7283, 36.9082, -28.9375, -28.537
3.67256, 5, 17.4597, 16.4297, 22.6724, 36.6771, -28.995, -28.2982
3.68071, 5, 17.3986, 16.512, 22.6155, 36.4439, -29.0549, -28.0577
3.68847, 5, 17.3674, 16.5537, 22.587, 36.3271, -29.1147, -27.8168
3.6967, 5, 17.3041, 16.6376, 22.5298, 36.0933, -29.1759, -27.5762
3.70293, 5, 17.2402, 16.7218, 22.4728, 35.8598, -29.2072, -27.4562
3.71194, 5, 17.176, 16.806, 22.4158, 35.6271, -29.2691, -27.2168
3.72, 5, 17.1117, 16.8901, 22.359, 35.3948, -29.3324, -26.9785
3.72793, 5, 17.0475, 16.9741, 22.3024, 35.163, -29.396, -26.7412
3.73594, 5, 16.9833, 17.0579, 22.246, 34.9322, -29.4602, -26.5046
3.74395, 5, 16.9192, 17.1414, 22.1898, 34.7021, -29.5256, -26.269
3.75194, 5, 16.8549, 17.2247, 22.1339, 34.4726, -29.591, -26.0346
3.76005, 5, 16.7905, 17.3078, 22.0781, 34.2437, -29.6577, -25.8016
3.76797, 5, 16.7262, 17.3909, 22.0224, 34.0159, -29.7239, -25.5695
3.77595, 5, 16.6619, 17.4738, 21.9669, 33.7888, -29.792, -25.3385
3.78398, 5, 16.5976, 17.5567, 21.9117, 33.5622, -29.8598, -25.1089
3.79193, 5, 16.5331, 17.6395, 21.8567, 33.3367, -29.929, -24.8803
3.79994, 5, 16.4687, 17.7223, 21.802, 33.1121, -29.9978, -24.6531
3.808, 5, 16.4039, 17.805, 21.7475, 32.8883, -30.0681, -24.4265
3.81595, 5, 16.3389, 17.8876, 21.6933, 32.6651, -30.1388, -24.201
3.82394, 5, 16.2737, 17.97, 21.6394, 32.443, -30.2103, -23.9767
3.83293, 5, 16.2084, 18.0523, 21.5857, 32.2217, -30.2821, -23.7535
3.83994, 5, 16.1431, 18.1345, 21.5322, 32.0012, -30.3548, -23.5315
3.84796, 5, 16.0776, 18.2165, 21.479, 31.7813, -30.428, -23.3103
3.85603, 5, 16.0121, 18.2983, 21.4259, 31.5625, -30.5017, -23.0903
3.86393, 5, 15.9465, 18.3798, 21.373, 31.3446, -30.5759, -22.8714
3.87195, 5, 15.8807, 18.4612, 21.3204, 31.1274, -30.6509, -22.6539
3.87998, 5, 15.8149, 18.5424, 21.2679, 30.9111, -30.7265, -22.4379
3.88794, 5, 15.749, 18.6233, 21.2157, 30.6955, -30.8028, -22.2228
3.896, 5, 15.6832, 18.7041, 21.1637, 30.4809, -30.8792, -22.0088
3.90393, 5, 15.6174, 18.7847, 21.1121, 30.2671, -30.9567, -21.7961
3.91195, 5, 15.5515, 18.8653, 21.0606, 30.0541, -31.0343, -21.5845
3.92, 5, 15.4858, 18.9457, 21.0094, 29.8422, -31.1128, -21.3746
3.92799, 5, 15.4198, 19.026, 20.9584, 29.6312, -31.1915, -21.1657
3.93598, 5, 15.3536, 19.1061, 20.9077, 29.421, -31.2712, -20.9578
3.944, 5, 15.2874, 19.1862, 20.8573, 29.2116, -31.3512, -20.7514
3.95194, 5, 15.2212, 19.2662, 20.807, 29.0031, -31.4318, -20.546
3.95993, 5, 15.1549, 19.346, 20.7571, 28.7957, -31.5131, -20.3422
3.96801, 5, 15.0886, 19.4256, 20.7073, 28.5891, -31.5948, -20.1396
3.97593, 5, 15.0222, 19.5049, 20.6577, 28.3832, -31.6774, -19.9378
3.98394, 5, 14.9556, 19.5842, 20.6084, 28.1782, -31.7601, -19.7374
3.99202, 5, 14.8888, 19.6633, 20.5593, 27.9743, -31.844, -19.5379
3.99993, 5, 14.822, 19.7421, 20.5103, 27.7712, -31.9279, -19.3398
4.00793, 5, 14.7552, 19.8207, 20.4617, 27.5689, -32.0125, -19.143
4.01615, 5, 14.6884, 19.8992, 20.4132, 27.3674, -32.0976, -18.9474
4.02337, 5, 14.6215, 19.9775, 20.365, 27.1669, -32.1832, -18.7527
4.03148, 5, 14.5546, 20.0557, 20.3171, 26.9672, -32.2691, -18.5594
4.04035, 5, 14.4875, 20.1337, 20.2695, 26.7684, -32.3554, -18.367
4.04754, 5, 14.4204, 20.2115, 20.2221, 26.5704, -32.4426, -18.1762
4.05605, 5, 14.3531, 20.2892, 20.1748, 26.3735, -32.5302, -17.9867
4.06449, 5, 14.2858, 20.3668, 20.128, 26.1774, -32.618, -17.7983
4.07143, 5, 14.2522, 20.4056, 20.1046, 26.0797, -32.6623, -17.7044
4.07994, 5, 14.1512, 20.5217, 20.0347, 25.7879, -32.7957, -17.4248
4.08874, 5, 14.0839, 20.5989, 19.9885, 25.5944, -32.8851, -17.2398
4.09601, 5, 14.0164, 20.676, 19.9425, 25.402, -32.9752, -17.0562
4.10296, 5, 13.9827, 20.7145, 19.9195, 25.3061, -33.0204, -16.9648
4.11294, 5, 13.8816, 20.8297, 19.8511, 25.0196, -33.1565, -16.6928
4.12014, 5, 13.8141, 20.9062, 19.8057, 24.8296, -33.2477, -16.5127
4.127, 5, 13.7804, 20.9443, 19.7832, 24.7349, -33.2936, -16.4232
4.13712, 5, 13.6793, 21.0584, 19.7158, 24.4525, -33.4318, -16.1565
4.14297, 5, 13.6457, 21.0964, 19.6935, 24.3588, -33.4779, -16.0682
4.15245, 5, 13.5444, 21.2101, 19.6269, 24.0786, -33.6175, -15.8054
4.16133, 5, 13.4768, 21.2856, 19.5828, 23.8929, -33.7112, -15.6316
4.16707, 5, 13.4429, 21.3233, 19.5608, 23.8004, -33.7581, -15.5449
4.17651, 5, 13.3413, 21.4364, 19.4952, 23.5243, -33.8998, -15.2871
4.18539, 5, 13.3074, 21.5115, 19.4519, 23.3412, -33.9947, -15.1166
4.19098, 5, 13.2394, 21.549, 19.4304, 23.2498, -34.0422, -15.0318
4.20115, 5, 13.1374, 21.6613, 19.3658, 22.9774, -34.1857, -14.7792
4.207, 5, 13.1033, 21.6986, 19.3445, 22.887, -34.2337, -14.6956
4.21697, 5, 13.0006, 21.8103, 19.2808, 22.6174, -34.3783, -14.4464
4.22293, 5, 12.9664, 21.8474, 19.2596, 22.528, -34.4269, -14.3638
4.23194, 5, 12.8978, 21.9216, 19.2175, 22.3496, -34.5244, -14.1997
4.23894, 5, 12.8292, 21.9955, 19.1756, 22.1719, -34.622, -14.0365
4.24793, 5, 12.7605, 22.0691, 19.1341, 21.9954, -34.7203, -13.8746
4.25593, 5, 12.6919, 22.1426, 19.0927, 21.8196, -34.819, -13.714
4.26292, 5, 12.6233, 22.216, 19.0515, 21.6447, -34.9179, -13.5546
4.27195, 5, 12.5545, 22.2892, 19.0107, 21.4704, -35.0174, -13.3962
4.27992, 5, 12.4857, 22.3623, 18.9702, 21.2969, -35.1172, -13.2389
4.28697, 5, 12.4169, 22.4351, 18.9299, 21.1246, -35.2173, -13.0827
4.29591, 5, 12.3481, 22.5078, 18.8899, 20.9529, -35.318, -12.9276
4.30392, 5, 12.2792, 22.5804, 18.85, 20.782, -35.4189, -12.7739
4.31198, 5, 12.2105, 22.6528, 18.8104, 20.6118, -35.5201, -12.6216
4.31991, 5, 12.1415, 22.7249, 18.7711, 20.4423, -35.6219, -12.4704
4.32892, 5, 12.0725, 22.7969, 18.7319, 20.2737, -35.7239, -12.3204
4.33494, 5, 12.0034, 22.8687, 18.693, 20.106, -35.826, -12.1714
4.34391, 5, 11.9342, 22.9404, 18.6545, 19.9391, -35.929, -12.0235
4.35191, 5, 11.865, 23.0118, 18.616, 19.7728, -36.0321, -11.8767
4.35998, 5, 11.7957, 23.083, 18.5779, 19.6073, -36.1355, -11.7311
4.36797, 5, 11.7265, 23.154, 18.54, 19.4428, -36.2394, -11.5865
4.37632, 5, 11.6571, 23.2247, 18.5023, 19.279, -36.3433, -11.4433
4.38391, 5, 11.5876, 23.2953, 18.465, 19.1161, -36.4476, -11.3012
4.39191, 5, 11.5179, 23.3658, 18.4278, 18.954, -36.5524, -11.1602
4.40069, 5, 11.4482, 23.436, 18.3909, 18.7924, -36.6572, -11.02
4.40705, 5, 11.3784, 23.5061, 18.3542, 18.6317, -36.7625, -10.881
4.41591, 5, 11.3085, 23.576, 18.3179, 18.4718, -36.8684, -10.7429
4.4247, 5, 11.2386, 23.6457, 18.2817, 18.3127, -36.9742, -10.6063
4.432, 5, 11.1686, 23.7154, 18.2458, 18.1543, -37.0808, -10.4705
4.43911, 5, 11.0986, 23.7848, 18.2102, 17.9965, -37.1875, -10.3359
4.44753, 5, 11.0287, 23.8541, 18.1748, 17.8394, -37.2942, -10.2026
4.45492, 5, 10.9588, 23.9231, 18.1397, 17.6833, -37.4017, -10.0703
4.46392, 5, 10.889, 23.992, 18.1049, 17.5279, -37.5092, -9.93872
4.47265, 5, 10.8192, 24.0607, 18.0702, 17.3732, -37.617, -9.80832
4.47991, 5, 10.7493, 24.1293, 18.0357, 17.2191, -37.7255, -9.67898
4.48797, 5, 10.6793, 24.1976, 18.0016, 17.0657, -37.834, -9.55062
4.49718, 5, 10.6095, 24.2657, 17.9675, 16.9131, -37.943, -9.42351
4.50337, 5, 10.5395, 24.3336, 17.9338, 16.7612, -38.0525, -9.29759
4.51123, 5, 10.4694, 24.4014, 17.9003, 16.61, -38.1619, -9.17273
4.52009, 5, 10.3993, 24.469, 17.867, 16.4596, -38.2719, -9.04895
4.52799, 5, 10.3292, 24.5364, 17.834, 16.3097, -38.382, -8.92608
4.53606, 5, 10.2589, 24.6036, 17.8013, 16.1605, -38.4924, -8.80394
4.54426, 5, 10.1886, 24.6706, 17.7689, 16.0121, -38.6032, -8.683
4.55153, 5, 10.1181, 24.7373, 17.7365, 15.8645, -38.714, -8.56311
4.5601, 5, 10.0476, 24.8039, 17.7045, 15.7176, -38.8252, -8.44401
4.56842, 5, 9.97692, 24.8703, 17.6729, 15.5714, -38.9366, -8.32624
4.57572, 5, 9.94155, 24.9035, 17.6571, 15.4985, -39.0481, -8.20952
4.584, 5, 9.83546, 25.0027, 17.6101, 15.2806, -39.1601, -8.09377
4.59342, 5, 9.76447, 25.0685, 17.5792, 15.1364, -39.2721, -7.97937
4.59895, 5, 9.729, 25.1014, 17.5639, 15.0645, -39.3282, -7.9223
4.6081, 5, 9.62248, 25.1999, 17.518, 14.8498, -39.4971, -7.75295
4.61491, 5, 9.58695, 25.2326, 17.5029, 14.7785, -39.5534, -7.69689
4.62297, 5, 9.51586, 25.2978, 17.4729, 14.6364, -39.6663, -7.58558
4.63226, 5, 9.40912, 25.3952, 17.4284, 14.4242, -39.836, -7.42059
4.6389, 5, 9.37357, 25.4275, 17.4136, 14.3538, -39.8926, -7.36592
4.64841, 5, 9.26668, 25.5242, 17.3697, 14.1438, -40.0635, -7.20398
4.6549, 5, 9.23104, 25.5563, 17.3552, 14.074, -40.1203, -7.15039
4.66527, 5, 9.12414, 25.6523, 17.3122, 13.8659, -40.2914, -6.99138
4.67094, 5, 9.08849, 25.6841, 17.2979, 13.7967, -40.3487, -6.93909
4.68069, 5, 8.98154, 25.7795, 17.2556, 13.59, -40.5202, -6.78282
4.68924, 5, 8.9459, 25.8112, 17.2277, 13.4528, -40.6351, -6.68011
4.6949, 5, 8.87444, 25.8745, 17.2139, 13.3845, -40.6926, -6.62869
4.70497, 5, 8.76711, 25.9691, 17.1727, 13.1807, -40.8652, -6.47667
4.71098, 5, 8.73131, 26.0005, 17.1591, 13.113, -40.9229, -6.42631
4.72116, 5, 8.62392, 26.0945, 17.119, 12.9106, -41.0958, -6.2769
4.72701, 5, 8.5881, 26.1257, 17.1057, 12.8433, -41.1538, -6.22744
4.73591, 5, 8.51636, 26.1879, 17.0793, 12.7094, -41.2696, -6.12984
4.74395, 5, 8.44463, 26.2499, 17.0531, 12.5761, -41.3854, -6.03253
4.75191, 5, 8.37275, 26.3116, 17.0272, 12.4434, -41.5018, -5.93659
4.75989, 5, 8.30083, 26.3731, 17.0017, 12.3113, -41.618, -5.84132
4.76795, 5, 8.22876, 26.4344, 16.9763, 12.1797, -41.7346, -5.74735
4.77593, 5, 8.15669, 26.4954, 16.9511, 12.0488, -41.8514, -5.65379
4.78389, 5, 8.08452, 26.5563, 16.9264, 11.9181, -41.9683, -5.56128
4.79095, 5, 8.01248, 26.617, 16.9018, 11.788, -42.0856, -5.46912
4.79989, 5, 7.94039, 26.6776, 16.8776, 11.6586, -42.2028, -5.37829
4.80696, 5, 7.86823, 26.7379, 16.8535, 11.5298, -42.3204, -5.28804
4.8149, 5, 7.79611, 26.798, 16.8298, 11.4014, -42.4381, -5.19891
4.82388, 5, 7.72393, 26.8579, 16.8064, 11.2735, -42.5559, -5.11018
4.83204, 5, 7.65183, 26.9176, 16.7833, 11.1461, -42.6739, -5.02311
4.84094, 5, 7.57988, 26.9771, 16.7605, 11.019, -42.7918, -4.93633
4.84792, 5, 7.50803, 27.0362, 16.7377, 10.8925, -42.9101, -4.85087
4.85597, 5, 7.43608, 27.0952, 16.7153, 10.7666, -43.0285, -4.76579
4.86389, 5, 7.36413, 27.1539, 16.6931, 10.6413, -43.147, -4.6823
4.87191, 5, 7.29206, 27.2123, 16.6713, 10.5165, -43.2658, -4.59901
4.87999, 5, 7.22002, 27.2705, 16.6497, 10.3921, -43.3843, -4.51693
4.88703, 5, 7.14781, 27.3285, 16.6283, 10.2679, -43.5034, -4.43551
4.89602, 5, 7.07551, 27.3864, 16.6072, 10.1444, -43.6225, -4.35455
4.90389, 5, 7.00303, 27.444, 16.5864, 10.0213, -43.7414, -4.27505
4.91192, 5, 6.93032, 27.5014, 16.5659, 9.89864, -43.8608, -4.19561
4.91996, 5, 6.85741, 27.5586, 16.5457, 9.77668, -43.9798, -4.11794
4.92788, 5, 6.78435, 27.6155, 16.5256, 9.65507, -44.0993, -4.04022
4.93589, 5, 6.71128, 27.6721, 16.5059, 9.53404, -44.2188, -3.96385
4.94403, 5, 6.63812, 27.7286, 16.4865, 9.41303, -44.3384, -3.88834
4.95191, 5, 6.56505, 27.7848, 16.4673, 9.2927, -44.4582, -3.81333
4.95989, 5, 6.49194, 27.8408, 16.4484, 9.17281, -44.5779, -3.74006
4.96797, 5, 6.41878, 27.8965, 16.4298, 9.05345, -44.6979, -3.6666
4.97588, 5, 6.34564, 27.952, 16.4113, 8.93478, -44.8178, -3.59482
4.98389, 5, 6.27257, 28.0073, 16.3932, 8.81636, -44.9381, -3.52385
4.99198, 5, 6.19949, 28.0625, 16.3754, 8.69857, -45.0587, -3.45292
4.99989, 5, 6.12655, 28.1175, 16.3578, 8.58106, -45.1793, -3.38362
5.00793, 5, 6.05358, 28.1722, 16.3406, 8.46366, -45.3002, -3.31429
5.01594, 5, 5.98046, 28.2267, 16.3237, 8.34697, -45.4209, -3.2459
5.02393, 5, 5.90728, 28.281, 16.3069, 8.23056, -45.5419, -3.17873
5.03206, 5, 5.83406, 28.335, 16.2905, 8.11487, -45.663, -3.11153
5.03999, 5, 5.76075, 28.3887, 16.2744, 7.99942, -45.7842, -3.04569
5.04799, 5, 5.68738, 28.4421, 16.2585, 7.88439, -45.9055, -2.98059
5.05607, 5, 5.61402, 28.4954, 16.2428, 7.76967, -46.0268, -2.91561
5.06406, 5, 5.54049, 28.5483, 16.2276, 7.65516, -46.1483, -2.85223
5.0716, 5, 5.46687, 28.601, 16.2127, 7.54118, -46.2695, -2.78952
5.08006, 5, 5.39314, 28.6535, 16.1978, 7.42737, -46.3911, -2.72693
5.08792, 5, 5.31932, 28.7058, 16.1832, 7.31429, -46.5126, -2.66599
5.09593, 5, 5.24537, 28.7578, 16.1691, 7.20153, -46.6341, -2.60551
5.10402, 5, 5.17137, 28.8096, 16.1552, 7.08914, -46.7558, -2.54516
5.11089, 5, 5.13432, 28.8355, 16.1483, 7.03314, -46.8165, -2.51555
5.1201, 5, 5.02315, 28.9128, 16.1283, 6.8653, -46.9989, -2.42849
5.12703, 5, 4.9861, 28.9384, 16.1218, 6.80944, -47.0598, -2.39947
5.13622, 5, 4.87504, 29.0149, 16.1029, 6.64263, -47.2419, -2.31364
5.14289, 5, 4.83806, 29.0403, 16.0967, 6.58715, -47.3029, -2.28569
5.15236, 5, 4.72727, 29.1159, 16.0782, 6.42122, -47.4852, -2.20168
5.15888, 5, 4.69037, 29.1409, 16.0721, 6.3662, -47.5462, -2.17395
5.16846, 5, 4.57962, 29.2157, 16.0547, 6.20134, -47.7292, -2.09283
5.17642, 5, 4.506, 29.2652, 16.0433, 6.09197, -47.8513, -2.03914
5.18448, 5, 4.43239, 29.3144, 16.0323, 5.9826, -47.9733, -1.98571
5.1925, 5, 4.39561, 29.3389, 16.0215, 5.87357, -48.0953, -1.93377
5.2004, 5, 4.32192, 29.3878, 16.0163, 5.81929, -48.1564, -1.90818
5.20849, 5, 4.24828, 29.4365, 16.0062, 5.71085, -48.2785, -1.85695
5.21588, 5, 4.17457, 29.4849, 15.9963, 5.60281, -48.4006, -1.80595
5.22388, 5, 4.10067, 29.5332, 15.9867, 5.49523, -48.523, -1.75637
5.23201, 5, 4.02664, 29.5813, 15.9774, 5.38789, -48.6452, -1.70762
5.23987, 5, 3.95248, 29.6292, 15.9683, 5.28101, -48.7677, -1.65912
5.24787, 5, 3.87817, 29.6768, 15.9595, 5.17423, -48.89, -1.61112
5.25594, 5, 3.80369, 29.7241, 15.9511, 5.06767, -49.0126, -1.56453
5.26388, 5, 3.72915, 29.7711, 15.943, 4.96149, -49.1351, -1.51855
5.27189, 5, 3.65435, 29.8178, 15.9351, 4.85549, -49.2576, -1.47271
5.27997, 5, 3.57945, 29.8642, 15.9276, 4.74988, -49.3801, -1.4273
5.28787, 5, 3.50458, 29.9101, 15.9204, 4.6447, -49.5024, -1.38318
5.29594, 5, 3.42971, 29.956, 15.9133, 4.53968, -49.625, -1.3399
5.30394, 5, 3.35485, 30.0014, 15.9066, 4.43495, -49.7473, -1.29698
5.31189, 5, 3.27999, 30.0465, 15.9003, 4.33049, -49.8697, -1.25416
5.31987, 5, 3.20511, 30.0915, 15.8944, 4.22616, -49.9921, -1.21233
5.32795, 5, 3.13022, 30.1362, 15.8887, 4.12205, -50.1143, -1.17144
5.33762, 5, 3.05538, 30.1807, 15.8834, 4.01817, -50.2977, -1.11082
5.34387, 5, 2.98066, 30.225, 15.8784, 3.91456, -50.3587, -1.09063
5.35196, 5, 2.90592, 30.269, 15.8736, 3.81158, -50.4812, -1.05089
5.35987, 5, 2.83123, 30.3129, 15.8691, 3.70864, -50.6034, -1.01228
5.36787, 5, 2.75639, 30.3566, 15.8648, 3.60606, -50.7254, -0.974554
5.37594, 5, 2.68147, 30.3998, 15.8608, 3.50372, -50.8479, -0.937227
5.38398, 5, 2.6065, 30.4428, 15.8571, 3.40143, -50.9697, -0.900091
5.39195, 5, 2.53156, 30.4856, 15.8537, 3.2992, -51.0922, -0.863317
5.39994, 5, 2.4566, 30.528, 15.8506, 3.19741, -51.2143, -0.827876
5.40788, 5, 2.38158, 30.57, 15.8479, 3.09569, -51.3365, -0.793157
5.41595, 5, 2.30654, 30.6117, 15.8455, 2.99428, -51.4587, -0.759177
5.42387, 5, 2.23119, 30.653, 15.8435, 2.89339, -51.5807, -0.725317
5.43187, 5, 2.15576, 30.694, 15.8418, 2.79253, -51.703, -0.691844
5.43995, 5, 2.08024, 30.7348, 15.8404, 2.69196, -51.825, -0.659163
5.44793, 5, 2.00472, 30.7754, 15.8393, 2.5916, -51.9472, -0.627591
5.45588, 5, 1.92928, 30.8157, 15.8385, 2.49114, -52.0694, -0.596796
5.46394, 5, 1.85389, 30.8559, 15.838, 2.39111, -52.1913, -0.566558
5.47187, 5, 1.77837, 30.8958, 15.8377, 2.29131, -52.3134, -0.536308
5.47988, 5, 1.70282, 30.9354, 15.8377, 2.19169, -52.4352, -0.506555
5.48796, 5, 1.62725, 30.9748, 15.8377, 2.0926, -52.5573, -0.477773
5.49587, 5, 1.55183, 31.0141, 15.8378, 1.99358, -52.6791, -0.449931
5.50392, 5, 1.47665, 31.0531, 15.8382, 1.89461, -52.8011, -0.422791
5.51192, 5, 1.40167, 31.0917, 15.8389, 1.79617, -52.9232, -0.396255
5.51988, 5, 1.32669, 31.1299, 15.8399, 1.69762, -53.0449, -0.369955
5.52798, 5, 1.25166, 31.1679, 15.8414, 1.59915, -53.1668, -0.343669
5.53598, 5, 1.17659, 31.2054, 15.8431, 1.50108, -53.2884, -0.318061
5.54397, 5, 1.10146, 31.2427, 15.8452, 1.40297, -53.4102, -0.293281
5.55245, 5, 1.02621, 31.2796, 15.8475, 1.30516, -53.5318, -0.26937
5.56, 5, 0.95099, 31.3162, 15.8502, 1.2078, -53.6534, -0.24606
5.56805, 5, 0.875503, 31.3524, 15.8533, 1.11047, -53.7748, -0.223509
5.57604, 5, 0.799794, 31.3884, 15.8567, 1.01329, -53.8961, -0.201503
5.58389, 5, 0.72412, 31.4241, 15.8608, 0.916439, -54.0177, -0.179625
5.59205, 5, 0.649173, 31.4594, 15.8653, 0.819529, -54.1387, -0.158051
5.59894, 5, 0.612186, 31.4768, 15.8677, 0.771193, -54.199, -0.147406
5.60799, 5, 0.503698, 31.5278, 15.8756, 0.626955, -54.3797, -0.116313
5.61491, 5, 0.468745, 31.5442, 15.8785, 0.579264, -54.4391, -0.106422
5.62414, 5, 0.369673, 31.5901, 15.8883, 0.439878, -54.6143, -0.0783402
5.63093, 5, 0.339084, 31.604, 15.8918, 0.395332, -54.6706, -0.0696181
5.64078, 5, 0.255087, 31.6419, 15.9022, 0.270704, -54.8276, -0.0456629
5.64833, 5, 0.20581, 31.6642, 15.9084, 0.198863, -54.9189, -0.0322636
5.65487, 5, 0.183423, 31.6742, 15.9112, 0.16663, -54.9597, -0.0262965
5.66481, 5, 0.124177, 31.7006, 15.9177, 0.0886257, -55.0587, -0.0119598
5.67246, 5, 0.0903419, 31.7159, 15.9201, 0.0522932, -55.1061, -0.00518769
5.68045, 5, 0.0611862, 31.7289, 15.9213, 0.0268326, -55.1389, -0.000525475
5.68869, 5, 0.0377772, 31.7389, 15.9219, 0.0102783, -55.1601, 0.00238522
5.69674, 5, 0.0193826, 31.7462, 15.9221, 0.000303346, -55.1725, 0.00412875
5.70519, 5, 0.00586579, 31.7513, 15.9223, -0.00516729, -55.1793, 0.00514934
5.72907, 5, -0.00908641, 31.7569, 15.9227, -0.0101737, -55.1852, 0.00610768
5.73041, 5, -0.00908641, 31.7569, 15.9227, -0.0101737, -55.1852, 0.00610768
5.73167, 5, -0.00908641, 31.7569, 15.9227, -0.0101737, -55.1852, 0.00610768
5.73714, 5, -0.00994528, 31.7573, 15.9229, -0.0105205, -55.1856, 0.00617879
5.74288, 5, -0.0100847, 31.7574, 15.923, -0.0106274, -55.1858, 0.00619825
5.75185, 5, -0.0102053, 31.7576, 15.9232, -0.0107232, -55.1859, 0.00618365
5.75886, 5, -0.0113032, 31.7581, 15.9233, -0.0107754, -55.186, 0.006232
5.76787, 5, -0.0148084, 31.7598, 15.9233, -0.0110069, -55.1863, 0.006287
5.77585, 5, -0.0217393, 31.7637, 15.9233, -0.0121082, -55.1879, 0.00666723
5.78395, 5, -0.0325621, 31.7705, 15.9233, -0.0155564, -55.1931, 0.00851464
5.7935, 6, -0.0587278, 31.7868, 15.9233, -0.0289885, -55.2138, 0.0173746
5.79986, 6, -0.0705421, 31.7939, 15.9235, -0.0367063, -55.2259, 0.02261
5.80794, 6, -0.0987859, 31.8098, 15.9244, -0.0585013, -55.261, 0.0379246
5.81586, 6, -0.132249, 31.8274, 15.927, -0.0901068, -55.3124, 0.0604928
5.82394, 6, -0.170147, 31.8463, 15.9316, -0.133767, -55.3823, 0.0903091
5.83192, 6, -0.21316, 31.8665, 15.9381, -0.188966, -55.471, 0.127405
5.84158, 6, -0.261479, 31.889, 15.9465, -0.252939, -55.5759, 0.195371
5.84789, 6, -0.314385, 31.914, 15.9564, -0.326061, -55.6945, 0.220752
5.85587, 6, -0.371918, 31.9418, 15.967, -0.404055, -55.8231, 0.27363
5.86392, 6, -0.434523, 31.9726, 15.9781, -0.485945, -55.9582, 0.328122
5.87185, 6, -0.502137, 32.0058, 15.9892, -0.569352, -56.0971, 0.384036
5.87985, 6, -0.573859, 32.0406, 16.0003, -0.653691, -56.2378, 0.439957
5.88806, 6, -0.647755, 32.0761, 16.0116, -0.738267, -56.3795, 0.494975
5.89585, 6, -0.722722, 32.112, 16.0231, -0.822472, -56.5215, 0.549778
5.90392, 6, -0.798256, 32.1478, 16.035, -0.907042, -56.6641, 0.6046
5.91193, 6, -0.874166, 32.1838, 16.0473, -0.991376, -56.8068, 0.6578
5.91985, 6, -0.950018, 32.2197, 16.0597, -1.07539, -56.9498, 0.710159
5.92785, 6, -1.02599, 32.2555, 16.0723, -1.15933, -57.0928, 0.762886
5.93593, 6, -1.10193, 32.2912, 16.0856, -1.24283, -57.236, 0.814696
5.94386, 6, -1.17786, 32.3269, 16.0994, -1.32624, -57.3792, 0.865207
5.95195, 6, -1.25373, 32.3623, 16.1135, -1.40899, -57.5228, 0.915289
5.95992, 6, -1.32961, 32.3975, 16.1277, -1.49186, -57.666, 0.96533
5.96806, 6, -1.40515, 32.4325, 16.1422, -1.57442, -57.8097, 1.01429
5.97496, 6, -1.48069, 32.4672, 16.157, -1.65657, -57.9533, 1.06239
5.98393, 6, -1.55608, 32.5017, 16.1719, -1.73895, -58.0974, 1.11038
5.99185, 6, -1.63118, 32.536, 16.187, -1.82094, -58.2415, 1.15811
5.99985, 6, -1.70602, 32.5701, 16.2027, -1.90314, -58.386, 1.20478
6.00793, 6, -1.78083, 32.6038, 16.2189, -1.98463, -58.5304, 1.25034
6.01585, 6, -1.85558, 32.6374, 16.2351, -2.06628, -58.675, 1.29561
6.02387, 6, -1.93029, 32.6709, 16.2517, -2.1474, -58.8199, 1.34083
6.03198, 6, -2.00509, 32.7041, 16.2687, -2.22829, -58.9649, 1.38495
6.03996, 6, -2.0799, 32.7372, 16.2858, -2.30904, -59.1101, 1.42812
6.04801, 6, -2.15486, 32.7702, 16.3033, -2.38955, -59.2556, 1.47092
6.05597, 6, -2.23015, 32.803, 16.3214, -2.47003, -59.4011, 1.51354
6.06396, 6, -2.30571, 32.8355, 16.3396, -2.54995, -59.5471, 1.55542
6.07209, 6, -2.38146, 32.8679, 16.358, -2.63018, -59.693, 1.59604
6.07993, 6, -2.45754, 32.9002, 16.3767, -2.71008, -59.839, 1.63619
6.08785, 6, -2.53373, 32.9323, 16.3957, -2.7899, -59.985, 1.67595
6.09596, 6, -2.6099, 32.964, 16.415, -2.86967, -60.1312, 1.71567
6.10404, 6, -2.68609, 32.9956, 16.4348, -2.94916, -60.2773, 1.75409
6.1109, 6, -2.72422, 33.0113, 16.4448, -2.9887, -60.3505, 1.77282
6.12012, 6, -2.83835, 33.0582, 16.4751, -3.10709, -60.5699, 1.82837
6.12696, 6, -2.87636, 33.0737, 16.4854, -3.14657, -60.6431, 1.84677
6.1362, 6, -2.99035, 33.1198, 16.5165, -3.26444, -60.8627, 1.90188
6.14287, 6, -3.0283, 33.1352, 16.527, -3.30387, -60.9361, 1.91984
6.15227, 6, -3.14182, 33.1808, 16.5592, -3.42146, -61.156, 1.97193
6.15886, 6, -3.17957, 33.1959, 16.5699, -3.46083, -61.2293, 1.98907
6.16839, 6, -3.29271, 33.2409, 16.603, -3.57818, -61.4495, 2.03959
6.17641, 6, -3.36818, 33.2707, 16.6254, -3.65641, -61.5965, 2.07315
6.18443, 6, -3.4437, 33.3004, 16.6481, -3.73421, -61.7435, 2.10605
6.19245, 6, -3.51917, 33.3298, 16.6711, -3.81218, -61.8906, 2.13795
6.20043, 6, -3.55683, 33.3444, 16.6826, -3.88994, -62.0377, 2.16928
6.20845, 6, -3.63215, 33.3734, 16.7059, -3.92864, -62.185, 2.20004
6.21584, 6, -3.70748, 33.4024, 16.7296, -4.00574, -62.2587, 2.21525
6.22384, 6, -3.78286, 33.4311, 16.7537, -4.08316, -62.4062, 2.24581
6.23188, 6, -3.85856, 33.4595, 16.7782, -4.16013, -62.5538, 2.27612
6.23993, 6, -3.9344, 33.4877, 16.8027, -4.23686, -62.7015, 2.30525
6.24783, 6, -4.01022, 33.5157, 16.8275, -4.31386, -62.8491, 2.33337
6.25589, 6, -4.08611, 33.5435, 16.8527, -4.39065, -62.9969, 2.36095
6.26385, 6, -4.16192, 33.571, 16.8783, -4.46764, -63.1448, 2.38794
6.27188, 6, -4.23767, 33.5983, 16.9041, -4.544, -63.2927, 2.4146
6.27985, 6, -4.31352, 33.6255, 16.9301, -4.62067, -63.4407, 2.44138
6.28788, 6, -4.38938, 33.6525, 16.9565, -4.69676, -63.5889, 2.46742
6.29589, 6, -4.46523, 33.6793, 16.9833, -4.77303, -63.737, 2.49266
6.30389, 6, -4.5409, 33.7059, 17.0103, -4.84863, -63.8853, 2.51703
6.31185, 6, -4.61637, 33.7322, 17.0375, -4.92478, -64.0334, 2.5407
6.3199, 6, -4.69148, 33.7584, 17.065, -5.00033, -64.1818, 2.56391
6.32783, 6, -4.76649, 33.7844, 17.093, -5.07622, -64.3299, 2.58659
6.33685, 6, -4.84141, 33.8102, 17.1212, -5.15148, -64.4784, 2.609
6.34392, 6, -4.91638, 33.8357, 17.1496, -5.22721, -64.6266, 2.63105
6.35183, 6, -4.99131, 33.861, 17.1783, -5.30254, -64.775, 2.6526
6.35985, 6, -5.06618, 33.8862, 17.2074, -5.37826, -64.9232, 2.6734
6.3679, 6, -5.14109, 33.911, 17.2368, -5.45331, -65.0716, 2.6933
6.37484, 6, -5.21606, 33.9357, 17.2664, -5.52881, -65.2201, 2.71266
6.38385, 6, -5.29129, 33.9601, 17.2963, -5.60383, -65.3685, 2.73153
6.3919, 6, -5.36675, 33.9843, 17.3266, -5.67866, -65.5169, 2.74953
6.39983, 6, -5.44245, 34.0083, 17.3571, -5.75345, -65.6654, 2.76725
6.40802, 6, -5.51818, 34.0321, 17.3879, -5.82818, -65.8139, 2.78459
6.41503, 6, -5.59389, 34.0557, 17.4191, -5.90298, -65.9624, 2.80159
6.42384, 6, -5.66952, 34.079, 17.4506, -5.97745, -66.1109, 2.81824
6.43199, 6, -5.74525, 34.102, 17.4823, -6.05229, -66.2595, 2.83434
6.43983, 6, -5.82105, 34.125, 17.5143, -6.12682, -66.408, 2.84975
6.44783, 6, -5.89678, 34.1477, 17.5467, -6.20167, -66.5568, 2.86445
6.45597, 6, -5.97246, 34.1701, 17.5794, -6.27596, -66.7055, 2.8784
6.46383, 6, -6.04807, 34.1924, 17.6124, -6.35094, -66.8543, 2.89155
6.47191, 6, -6.1236, 34.2144, 17.6456, -6.42511, -67.003, 2.90414
6.48063, 6, -6.19911, 34.2361, 17.6792, -6.49966, -67.1516, 2.91637
6.48783, 6, -6.27452, 34.2578, 17.7129, -6.57357, -67.3002, 2.92818
6.49584, 6, -6.34996, 34.2791, 17.7471, -6.64801, -67.449, 2.93931
6.50462, 6, -6.42525, 34.3002, 17.7816, -6.72171, -67.5975, 2.9501
6.51185, 6, -6.50055, 34.321, 17.8163, -6.79614, -67.7462, 2.96039
6.52003, 6, -6.57574, 34.3416, 17.8513, -6.86989, -67.8947, 2.97025
6.52865, 6, -6.65088, 34.362, 17.8867, -6.94431, -68.0433, 2.9798
6.53589, 6, -6.72597, 34.3822, 17.9223, -7.01824, -68.1914, 2.98889
6.54421, 6, -6.80115, 34.4021, 17.9583, -7.09282, -68.3399, 2.99756
6.55137, 6, -6.87637, 34.4219, 17.9946, -7.1664, -68.488, 3.00581
6.55963, 6, -6.95168, 34.4414, 18.0312, -7.24084, -68.6365, 3.01335
6.56834, 6, -7.02702, 34.4605, 18.0681, -7.31467, -68.7848, 3.02027
6.57539, 6, -7.06468, 34.4701, 18.0867, -7.38873, -68.9333, 3.02671
6.58384, 6, -7.17782, 34.4985, 18.143, -7.46229, -69.0815, 3.03254
6.59256, 6, -7.25314, 34.5171, 18.1807, -7.53642, -69.2298, 3.03789
6.60077, 6, -7.32848, 34.5354, 18.2189, -7.61007, -69.3781, 3.04264
6.60812, 6, -7.40383, 34.5536, 18.2574, -7.68381, -69.5264, 3.04677
6.61483, 6, -7.44147, 34.5626, 18.2768, -7.72059, -69.6005, 3.04862
6.62283, 6, -7.51664, 34.5803, 18.3158, -7.79478, -69.7489, 3.05184
6.63088, 6, -7.59175, 34.5977, 18.355, -7.86848, -69.8971, 3.0546
6.64102, 6, -7.7042, 34.6237, 18.4143, -7.97959, -70.1196, 3.05772
6.64818, 6, -7.77901, 34.6406, 18.4543, -8.05352, -70.2677, 3.0592
6.65484, 6, -7.81634, 34.6489, 18.4744, -8.09057, -70.3418, 3.05975
6.66524, 6, -7.92831, 34.6735, 18.535, -8.20125, -70.564, 3.06074
6.6709, 6, -7.96561, 34.6817, 18.5554, -8.23815, -70.6379, 3.06093
6.68046, 6, -8.07755, 34.7055, 18.617, -8.34859, -70.8596, 3.0612
6.68918, 6, -8.15227, 34.721, 18.6586, -8.42219, -71.0073, 3.06121
6.6949, 6, -8.18967, 34.7288, 18.6795, -8.45905, -71.0811, 3.0612
6.70471, 6, -8.30184, 34.7519, 18.7424, -8.56957, -71.3025, 3.06107
6.71183, 6, -8.33928, 34.7594, 18.7636, -8.60644, -71.3762, 3.06098
6.71889, 6, -8.41429, 34.7742, 18.8062, -8.68048, -71.5238, 3.06039
6.729, 6, -8.52706, 34.7961, 18.8706, -8.79143, -71.7448, 3.05873
6.7349, 6, -8.56473, 34.8033, 18.8923, -8.8284, -71.8186, 3.05793
6.74382, 6, -8.64004, 34.8175, 18.9358, -8.90211, -71.9658, 3.0558
6.75083, 6, -8.71534, 34.8312, 18.9796, -8.97632, -72.1131, 3.0529
6.75982, 6, -8.7905, 34.8448, 19.0237, -9.05012, -72.2599, 3.04918
6.76695, 6, -8.8657, 34.8583, 19.0681, -9.12404, -72.4071, 3.04441
6.77582, 6, -8.94077, 34.8715, 19.1128, -9.19779, -72.554, 3.03887
6.78381, 6, -9.01592, 34.8843, 19.1578, -9.27184, -72.701, 3.03231
6.79083, 6, -9.09098, 34.8968, 19.203, -9.34582, -72.8478, 3.02519
6.79982, 6, -9.16599, 34.9092, 19.2486, -9.4197, -72.9947, 3.01735
6.80782, 6, -9.24086, 34.9214, 19.2945, -9.49395, -73.1413, 3.00874
6.81483, 6, -9.31564, 34.9332, 19.3407, -9.56808, -73.2878, 2.99946
6.82382, 6, -9.3904, 34.9447, 19.3871, -9.64258, -73.4342, 2.9893
6.83182, 6, -9.46521, 34.9559, 19.4341, -9.71669, -73.5806, 2.97865
6.84082, 6, -9.54011, 34.967, 19.4812, -9.79131, -73.7267, 2.9676
6.84784, 6, -9.615, 34.978, 19.5287, -9.86553, -73.8729, 2.95615
6.85684, 6, -9.68976, 34.9888, 19.5765, -9.93999, -74.019, 2.9444
6.86286, 6, -9.7645, 34.9992, 19.6246, -10.0141, -74.165, 2.93235
6.87189, 6, -9.83922, 35.0093, 19.673, -10.0887, -74.3108, 2.91994
6.87982, 6, -9.91396, 35.0192, 19.7216, -10.1628, -74.4566, 2.90699
6.88782, 6, -9.98888, 35.0287, 19.7706, -10.2375, -74.6021, 2.89367
6.89582, 6, -10.0639, 35.0381, 19.8198, -10.3116, -74.7477, 2.87987
6.90388, 6, -10.1388, 35.0473, 19.8693, -10.3867, -74.893, 2.86556
6.91186, 6, -10.2137, 35.0561, 19.9192, -10.4611, -75.0386, 2.85065
6.91983, 6, -10.2885, 35.0645, 19.9694, -10.5364, -75.1835, 2.83497
6.92789, 6, -10.3632, 35.0728, 20.0198, -10.6109, -75.3287, 2.81862
6.93581, 6, -10.438, 35.0806, 20.0706, -10.6862, -75.4733, 2.80156
6.94381, 6, -10.5127, 35.0881, 20.1218, -10.7611, -75.6181, 2.78398
6.95188, 6, -10.5874, 35.0957, 20.1731, -10.8362, -75.7624, 2.76627
6.95984, 6, -10.6618, 35.103, 20.2248, -10.9109, -75.9069, 2.74831
6.96782, 6, -10.736, 35.1101, 20.2769, -10.9863, -76.051, 2.73033
6.97588, 6, -10.8099, 35.1169, 20.3293, -11.0612, -76.1951, 2.71173
6.98381, 6, -10.8838, 35.1235, 20.3819, -11.1364, -76.3389, 2.69264
6.99181, 6, -10.9577, 35.1299, 20.4348, -11.2117, -76.4827, 2.67322
6.99988, 6, -11.0316, 35.1359, 20.488, -11.2872, -76.6263, 2.65302
7.00782, 6, -11.1054, 35.1416, 20.5414, -11.3629, -76.7699, 2.63218
7.01584, 6, -11.1793, 35.147, 20.5953, -11.4383, -76.9134, 2.6104
7.02386, 6, -11.2533, 35.1522, 20.6495, -11.5142, -77.0569, 2.58857
7.03185, 6, -11.3274, 35.1572, 20.704, -11.5896, -77.2001, 2.56666
7.04004, 6, -11.4016, 35.1621, 20.7588, -11.6655, -77.3433, 2.54443
7.04798, 6, -11.4761, 35.1666, 20.8139, -11.7409, -77.4862, 2.52177
7.05593, 6, -11.5505, 35.1707, 20.8693, -11.8169, -77.629, 2.49871
7.06399, 6, -11.625, 35.1746, 20.925, -11.8924, -77.7714, 2.4748
7.07193, 6, -11.6995, 35.1782, 20.9811, -11.9685, -77.9138, 2.45036
7.07993, 6, -11.7739, 35.1815, 21.0374, -12.0441, -78.0559, 2.425
7.08806, 6, -11.8484, 35.1847, 21.094, -12.1206, -78.1979, 2.39957
7.09584, 6, -11.923, 35.1875, 21.1508, -12.1967, -78.3395, 2.37405
7.10385, 6, -11.9975, 35.1901, 21.2079, -12.2734, -78.4813, 2.34819
7.11194, 6, -12.0718, 35.1923, 21.2654, -12.3497, -78.6222, 2.32186
7.1199, 6, -12.1461, 35.1943, 21.3233, -12.4265, -78.7633, 2.29508
7.12812, 6, -12.2202, 35.196, 21.3814, -12.503, -78.904, 2.26731
7.13481, 6, -12.2573, 35.1967, 21.4107, -12.5414, -78.9743, 2.2531
7.14413, 6, -12.3683, 35.1984, 21.4988, -12.6563, -79.185, 2.21008
7.15082, 6, -12.4053, 35.1988, 21.5283, -12.6948, -79.2551, 2.19573
7.16024, 6, -12.5162, 35.1997, 21.6173, -12.8103, -79.4654, 2.15215
7.16682, 6, -12.5531, 35.1999, 21.6471, -12.8487, -79.5353, 2.13735
7.17635, 6, -12.6637, 35.2001, 21.737, -12.9646, -79.745, 2.09214
7.18439, 6, -12.7372, 35.2, 21.7973, -13.0419, -79.8846, 2.06093
7.19244, 6, -12.8108, 35.1999, 21.8579, -13.1197, -80.0242, 2.02963
7.20039, 6, -12.8476, 35.1996, 21.9187, -13.1971, -80.1636, 1.99847
7.20842, 6, -12.9214, 35.1993, 21.9493, -13.2363, -80.3028, 1.96688
7.21639, 6, -12.9952, 35.1985, 22.0108, -13.314, -80.3722, 1.9509
7.2238, 6, -13.069, 35.1975, 22.0726, -13.3919, -80.5111, 1.9184
7.23181, 6, -13.1429, 35.1963, 22.1348, -13.4696, -80.6497, 1.88491
7.23983, 6, -13.2168, 35.1948, 22.1972, -13.5478, -80.7881, 1.85107
7.2478, 6, -13.2907, 35.1931, 22.26, -13.6256, -80.9262, 1.81743
7.25586, 6, -13.3645, 35.191, 22.3231, -13.7041, -81.0641, 1.78331
7.26381, 6, -13.4383, 35.1886, 22.3864, -13.7824, -81.2015, 1.74887
7.2718, 6, -13.512, 35.1859, 22.45, -13.8612, -81.3389, 1.71335
7.27989, 6, -13.5856, 35.1829, 22.5139, -13.94, -81.4759, 1.67725
7.2878, 6, -13.6589, 35.1795, 22.5782, -14.0189, -81.6127, 1.64119
7.29586, 6, -13.7322, 35.1757, 22.6428, -14.098, -81.7493, 1.60504
7.30387, 6, -13.8054, 35.1715, 22.7077, -14.1772, -81.8855, 1.5682
7.31179, 6, -13.8785, 35.167, 22.7729, -14.2566, -82.0217, 1.53044
7.31981, 6, -13.9513, 35.1622, 22.8385, -14.3356, -82.1571, 1.49198
7.32682, 6, -14.0242, 35.1569, 22.9044, -14.4153, -82.2928, 1.45358
7.33581, 6, -14.0969, 35.1513, 22.9707, -14.4947, -82.4278, 1.41503
7.3448, 6, -14.1697, 35.1454, 23.0371, -14.5744, -82.5629, 1.37578
7.35346, 6, -14.2425, 35.1394, 23.1038, -14.6542, -82.6976, 1.33561
7.35982, 6, -14.3154, 35.1331, 23.1708, -14.7343, -82.8323, 1.295
7.36786, 6, -14.3883, 35.1265, 23.2381, -14.8147, -82.9665, 1.25455
7.37587, 6, -14.4612, 35.1195, 23.3058, -14.8947, -83.1005, 1.21349
7.3838, 6, -14.5343, 35.1122, 23.3739, -14.9753, -83.2343, 1.17169
7.39186, 6, -14.6074, 35.1046, 23.4424, -15.0556, -83.3678, 1.12907
7.3998, 6, -14.6808, 35.0965, 23.5111, -15.1362, -83.5011, 1.08657
7.4078, 6, -14.7541, 35.0881, 23.5802, -15.2167, -83.6342, 1.04381
7.41586, 6, -14.8273, 35.0795, 23.6495, -15.2976, -83.7671, 1.00027
7.4238, 6, -14.9005, 35.0707, 23.719, -15.3783, -83.8995, 0.955868
7.43182, 6, -14.9736, 35.0615, 23.7889, -15.4592, -84.0319, 0.911405
7.43986, 6, -15.0466, 35.0521, 23.8591, -15.5404, -84.1637, 0.867215
7.44779, 6, -15.1195, 35.0423, 23.9296, -15.6216, -84.2955, 0.822253
7.4558, 6, -15.1924, 35.0321, 24.0005, -15.7036, -84.4267, 0.776117
7.46389, 6, -15.2653, 35.0216, 24.0716, -15.785, -84.558, 0.729767
7.47181, 6, -15.338, 35.0109, 24.1432, -15.867, -84.6888, 0.683721
7.47981, 6, -15.4105, 34.9999, 24.2151, -15.9489, -84.8194, 0.637003
7.48785, 6, -15.4831, 34.9887, 24.2873, -16.0308, -84.9497, 0.589354
7.4958, 6, -15.5556, 34.9772, 24.3597, -16.1129, -85.0795, 0.54159
7.50382, 6, -15.628, 34.9652, 24.4324, -16.1951, -85.2092, 0.49382
7.51186, 6, -15.7004, 34.9529, 24.5053, -16.2777, -85.3383, 0.445417
7.51979, 6, -15.7728, 34.9405, 24.5786, -16.3601, -85.4676, 0.395955
7.52827, 6, -15.8451, 34.9278, 24.6522, -16.443, -85.5959, 0.346438
7.5352, 6, -15.9174, 34.9148, 24.7262, -16.526, -85.7243, 0.296764
7.54333, 6, -15.9896, 34.9012, 24.8006, -16.6091, -85.8523, 0.246172
7.55222, 6, -16.0619, 34.8874, 24.8752, -16.6926, -85.98, 0.194898
7.55932, 6, -16.1342, 34.8734, 24.9502, -16.776, -86.1076, 0.14382
7.56791, 6, -16.2064, 34.8591, 25.0253, -16.8596, -86.2345, 0.0921928
7.57598, 6, -16.2787, 34.8443, 25.1007, -16.9429, -86.3614, 0.0394575
7.58386, 6, -16.3508, 34.8292, 25.1764, -17.0267, -86.4876, -0.0134151
7.5918, 6, -16.4229, 34.8139, 25.2525, -17.1106, -86.6137, -0.0662336
7.59989, 6, -16.4949, 34.7984, 25.3289, -17.1945, -86.7393, -0.119896
7.60786, 6, -16.5669, 34.7825, 25.4057, -17.279, -86.8647, -0.174367
7.61485, 6, -16.6028, 34.7743, 25.4443, -17.3211, -86.9274, -0.201482
7.62427, 6, -16.7105, 34.7497, 25.5604, -17.4481, -87.1146, -0.282831
7.6308, 6, -16.7462, 34.7414, 25.5993, -17.4903, -87.1769, -0.310572
7.64004, 6, -16.8532, 34.7157, 25.7161, -17.6179, -87.3632, -0.394083
7.64679, 6, -16.8888, 34.707, 25.7552, -17.6604, -87.4252, -0.42177
7.65621, 6, -16.9955, 34.6806, 25.8729, -17.788, -87.6106, -0.506441
7.66286, 6, -17.031, 34.6716, 25.9123, -17.8308, -87.6723, -0.534942
7.67274, 6, -17.1376, 34.644, 26.031, -17.9589, -87.8568, -0.619882
7.68036, 6, -17.2085, 34.6253, 26.1107, -18.0444, -87.9794, -0.677604
7.68835, 6, -17.2794, 34.6063, 26.1906, -18.1303, -88.1016, -0.735975
7.69644, 6, -17.3505, 34.5868, 26.2709, -18.2163, -88.2232, -0.794026
7.7044, 6, -17.386, 34.5769, 26.3514, -18.3027, -88.3446, -0.852842
7.71243, 6, -17.4572, 34.5571, 26.3918, -18.3888, -88.4656, -0.912565
7.72068, 6, -17.5285, 34.537, 26.4726, -18.4753, -88.5862, -0.972086
7.7278, 6, -17.5998, 34.5164, 26.5537, -18.5185, -88.6464, -1.00196
7.73581, 6, -17.6711, 34.4956, 26.6353, -18.605, -88.7663, -1.06281
7.74383, 6, -17.7424, 34.4746, 26.7172, -18.6916, -88.886, -1.12388
7.75178, 6, -17.8136, 34.4531, 26.7995, -18.7783, -89.0053, -1.18484
7.75978, 6, -17.8848, 34.4314, 26.8822, -18.8653, -89.1237, -1.24694
7.76784, 6, -17.9559, 34.4094, 26.9651, -18.9522, -89.2421, -1.3092
7.77578, 6, -18.027, 34.3869, 27.0481, -19.0396, -89.3598, -1.37113
7.78378, 6, -18.0978, 34.3642, 27.1315, -19.1272, -89.4772, -1.43431
7.79183, 6, -18.1686, 34.3411, 27.2151, -19.2149, -89.5945, -1.49773
7.79983, 6, -18.2388, 34.3177, 27.2991, -19.3028, -89.711, -1.56095
7.80779, 6, -18.3069, 34.2942, 27.3833, -19.3906, -89.8273, -1.62531
7.81584, 6, -18.3715, 34.271, 27.467, -19.4779, -89.9421, -1.68881
7.82378, 6, -18.4318, 34.2485, 27.5489, -19.5634, -90.0545, -1.75111
7.83178, 6, -18.488, 34.2271, 27.6273, -19.6452, -90.1615, -1.81187
7.83985, 6, -18.5396, 34.2076, 27.6994, -19.7209, -90.2597, -1.86781
7.84782, 6, -18.5857, 34.1905, 27.7632, -19.7869, -90.3468, -1.91682
7.85578, 6, -18.6259, 34.1757, 27.8168, -19.8429, -90.4192, -1.95861
7.86386, 6, -18.6617, 34.1633, 27.8594, -19.8865, -90.4767, -1.99193
7.87178, 6, -18.6925, 34.1533, 27.8909, -19.9179, -90.5185, -2.01678
7.87984, 6, -18.718, 34.1457, 27.9128, -19.939, -90.5467, -2.03371
7.88785, 6, -18.7383, 34.1402, 27.9269, -19.9521, -90.5644, -2.04428
7.89578, 6, -18.7533, 34.1367, 27.9353, -19.9597, -90.5746, -2.05027
7.90379, 6, -18.7633, 34.1345, 27.9399, -19.9636, -90.58, -2.05346
7.91184, 7, -18.7691, 34.1331, 27.9424, -19.9657, -90.5827, -2.05508
7.91978, 7, -18.7718, 34.1324, 27.9437, -19.9667, -90.584, -2.05586
7.92779, 7, -18.7729, 34.1318, 27.9444, -19.9672, -90.5847, -2.05623
7.93584, 7, -18.7729, 34.1314, 27.9447, -19.9675, -90.585, -2.05642
7.94377, 7, -18.7722, 34.1311, 27.9449, -19.9677, -90.5852, -2.0565
7.95178, 7, -18.7715, 34.1308, 27.945, -19.9678, -90.5853, -2.05653
7.95985, 7, -18.7709, 34.1306, 27.9451, -19.9679, -90.5854, -2.05654
7.96782, 7, -18.7703, 34.1305, 27.9452, -19.968, -90.5854, -2.05654
7.97577, 7, -18.7699, 34.1304, 27.9453, -19.968, -90.5854, -2.05654
7.98384, 7, -18.7697, 34.1304, 27.9454, -19.968, -90.5854, -2.05655
7.99178, 7, -18.7697, 34.1304, 27.9455, -19.968, -90.5855, -2.05658
7.99978, 7, -18.7699, 34.1304, 27.9455, -19.968, -90.5855, -2.05656
8.00785, 7, -18.7702, 34.1304, 27.9455, -19.968, -90.5855, -2.05652
