hehonglu123/ABB_Primitive_Study/realrobot/movec_30_ori/curve_exe_v1000_fine.csv
timestamp, cmd_num, J1, J2, J3, J4, J5, J6
0.000368, -1, -18.7721, 34.1307, 27.9458, -19.9674, -90.5847, -2.05531
0.003304, -1, -18.7721, 34.1307, 27.9457, -19.9674, -90.5847, -2.05534
0.008173, -1, -18.7721, 34.1307, 27.9457, -19.9674, -90.5847, -2.05533
0.03168, -1, -18.7721, 34.1307, 27.9458, -19.9673, -90.5847, -2.05531
0.0335, -1, -18.7721, 34.1307, 27.9458, -19.9672, -90.5847, -2.05529
0.03493, -1, -18.7721, 34.1307, 27.9458, -19.9672, -90.5847, -2.05529
0.038842, -1, -18.7721, 34.1307, 27.9458, -19.9672, -90.5847, -2.05528
0.047848, -1, -18.772, 34.1307, 27.9458, -19.9672, -90.5847, -2.0553
0.056915, -1, -18.7715, 34.1306, 27.9458, -19.9672, -90.5847, -2.05532
0.063907, -1, -18.7692, 34.1299, 27.9458, -19.9672, -90.5846, -2.05534
0.071853, -1, -18.7638, 34.1279, 27.9458, -19.967, -90.584, -2.05535
0.079853, -1, -18.7547, 34.1238, 27.9459, -19.9646, -90.5815, -2.05544
0.087907, -1, -18.7409, 34.117, 27.946, -19.9575, -90.5745, -2.05589
0.095846, -1, -18.7199, 34.1063, 27.946, -19.9426, -90.5593, -2.05928
0.103853, -1, -18.6895, 34.0908, 27.9455, -19.9159, -90.5319, -2.06984
0.111911, -1, -18.6485, 34.0701, 27.944, -19.8722, -90.4861, -2.08907
0.119904, -1, -18.5954, 34.0432, 27.9407, -19.806, -90.4174, -2.11894
0.12785, -1, -18.5287, 34.0094, 27.9349, -19.714, -90.3207, -2.1621
0.135906, -1, -18.448, 33.9686, 27.9261, -19.5919, -90.1923, -2.22044
0.143845, -1, -18.3533, 33.9209, 27.9138, -19.4382, -90.0302, -2.29309
0.151863, -1, -18.2451, 33.8666, 27.898, -19.253, -89.8345, -2.38187
0.159909, -1, -18.1231, 33.8054, 27.8795, -19.0387, -89.6079, -2.48389
0.167838, -1, -17.9878, 33.7376, 27.8583, -18.7995, -89.3541, -2.59814
0.175886, -1, -17.8406, 33.664, 27.8352, -18.5404, -89.0789, -2.72209
0.183908, -1, -17.6829, 33.585, 27.8111, -18.2666, -88.7878, -2.85301
0.191856, -1, -17.5156, 33.5013, 27.7864, -17.9827, -88.4861, -2.98909
0.199856, -1, -17.3402, 33.4137, 27.7614, -17.6928, -88.1776, -3.12839
0.207907, -1, -17.1594, 33.3234, 27.7363, -17.399, -87.8652, -3.26975
0.215846, -1, -16.9747, 33.2313, 27.7111, -17.1028, -87.5504, -3.41207
0.223956, -1, -16.7876, 33.1382, 27.686, -16.8056, -87.2341, -3.55492
0.231854, -1, -16.5988, 33.0446, 27.6609, -16.5071, -86.9166, -3.69816
0.239839, -1, -16.409, 32.9508, 27.6358, -16.208, -86.598, -3.84174
0.248672, -1, -16.219, 32.8569, 27.6106, -15.9082, -86.2788, -3.98546
0.255924, -1, -16.0291, 32.7632, 27.5856, -15.6073, -85.9589, -4.12956
0.263938, -1, -15.8395, 32.6694, 27.5605, -15.3062, -85.6386, -4.27366
0.272741, -1, -15.6506, 32.5757, 27.5354, -15.0047, -85.3176, -4.41861
0.279951, -1, -15.462, 32.4819, 27.5101, -14.7026, -84.9965, -4.56346
0.288006, -1, -15.2738, 32.3879, 27.4848, -14.4003, -84.6748, -4.70829
0.296698, -1, -15.086, 32.2935, 27.4595, -14.0977, -84.3526, -4.85348
0.303846, -1, -14.8982, 32.1989, 27.4342, -13.7944, -84.0303, -4.99854
0.311881, -1, -14.7099, 32.1038, 27.4087, -13.4912, -83.7078, -5.14389
0.321176, -1, -14.5207, 32.0086, 27.3831, -13.1878, -83.3848, -5.28947
0.326918, -1, -14.4257, 31.961, 27.3703, -13.0359, -83.2232, -5.36229
0.336084, -1, -14.1392, 31.8178, 27.3319, -12.5804, -82.7382, -5.58109
0.342848, -1, -14.0432, 31.77, 27.3191, -12.4285, -82.5764, -5.65412
0.352101, -1, -13.7548, 31.6267, 27.2806, -11.972, -82.0905, -5.87269
0.358835, -1, -13.6584, 31.579, 27.2678, -11.8199, -81.9284, -5.94555
0.368225, -1, -13.3681, 31.4358, 27.2293, -11.3634, -81.4425, -6.16414
0.374876, -1, -13.2712, 31.3881, 27.2165, -11.2112, -81.2805, -6.23698
0.384449, -1, -12.9814, 31.2453, 27.1781, -10.7547, -80.7945, -6.45581
0.392383, -1, -12.789, 31.1502, 27.1525, -10.4503, -80.4711, -6.60161
0.398831, -1, -12.6929, 31.1027, 27.1398, -10.2981, -80.3094, -6.67462
0.408441, -1, -12.4062, 30.9601, 27.1015, -9.8419, -79.8241, -6.89347
0.416415, -1, -12.311, 30.9125, 27.0887, -9.68991, -79.5007, -7.03916
0.424429, -1, -12.1212, 30.8174, 27.063, -9.38591, -79.1773, -7.18477
0.431832, -1, -11.9323, 30.7222, 27.0375, -9.08225, -79.0157, -7.2575
0.438891, -1, -11.7435, 30.6268, 27.0119, -8.77867, -78.6923, -7.40288
0.447987, -1, -11.5546, 30.5316, 26.9864, -8.47531, -78.3693, -7.54819
0.455895, -1, -11.3653, 30.4365, 26.9608, -8.17261, -78.0471, -7.6934
0.462904, -1, -11.1757, 30.3416, 26.9353, -7.87021, -77.7253, -7.83843
0.471881, -1, -10.9858, 30.2469, 26.9098, -7.56835, -77.404, -7.98303
0.479887, -1, -10.7955, 30.1524, 26.8845, -7.26716, -77.0833, -8.12737
0.486831, -1, -10.6049, 30.0582, 26.8591, -6.96593, -76.7631, -8.27136
0.49582, -1, -10.4142, 29.964, 26.8338, -6.66537, -76.4433, -8.41498
0.503829, -1, -10.2234, 29.8701, 26.8086, -6.36564, -76.1239, -8.55855
0.510825, -1, -10.0334, 29.7764, 26.7835, -6.06612, -75.805, -8.7018
0.519827, -1, -9.844, 29.6829, 26.7584, -5.76732, -75.4868, -8.84497
0.527839, -1, -9.6555, 29.5895, 26.7333, -5.46915, -75.1695, -8.98775
0.534824, -1, -9.46786, 29.4964, 26.7082, -5.17138, -74.8529, -9.13008
0.543828, -1, -9.28122, 29.4033, 26.6832, -4.87448, -74.537, -9.27204
0.552831, -1, -9.09556, 29.3104, 26.6583, -4.57837, -74.2219, -9.41367
0.558827, -1, -8.91065, 29.2176, 26.6334, -4.28286, -73.9074, -9.55498
0.567835, -1, -8.72669, 29.125, 26.6085, -3.98849, -73.5941, -9.69609
0.575835, -1, -8.54319, 29.0327, 26.5838, -3.69472, -73.2813, -9.83663
0.583893, -1, -8.3598, 28.9406, 26.5591, -3.4016, -72.9696, -9.97707
0.591832, -1, -8.17675, 28.849, 26.5345, -3.10966, -72.659, -10.1171
0.599828, -1, -7.99371, 28.7576, 26.5098, -2.8186, -72.349, -10.2563
0.607835, -1, -7.81066, 28.6666, 26.4854, -2.52833, -72.0399, -10.3951
0.615826, -1, -7.6278, 28.5759, 26.4611, -2.2392, -71.7318, -10.5335
0.62395, -1, -7.44517, 28.4855, 26.4369, -1.95066, -71.4246, -10.6714
0.631828, -1, -7.26285, 28.3954, 26.4127, -1.66305, -71.1186, -10.8089
0.639813, -1, -7.08108, 28.3057, 26.3886, -1.37656, -70.8136, -10.9461
0.647905, -1, -6.90004, 28.2163, 26.3646, -1.09109, -70.5096, -11.0828
0.655825, -1, -6.7201, 28.1272, 26.3407, -0.806678, -70.2069, -11.2191
0.663823, -1, -6.54111, 28.0383, 26.3169, -0.523325, -69.9056, -11.3548
0.67189, -1, -6.36324, 27.9497, 26.293, -0.240931, -69.6054, -11.49
0.679863, -1, -6.18676, 27.8614, 26.2692, 0.040503, -69.3061, -11.6246
0.68786, -1, -6.01111, 27.7734, 26.2457, 0.320787, -69.0078, -11.7588
0.695888, -1, -5.83647, 27.6857, 26.2223, 0.599978, -68.7106, -11.8925
0.70383, -1, -5.66268, 27.5983, 26.1989, 0.878097, -68.4144, -12.0257
0.711826, -1, -5.4894, 27.5113, 26.1754, 1.15506, -68.1193, -12.1584
0.719894, -1, -5.3165, 27.4248, 26.1522, 1.4308, -67.8254, -12.2907
0.727836, -1, -5.14388, 27.3385, 26.129, 1.70572, -67.5329, -12.4222
0.735828, -1, -4.97155, 27.2527, 26.1061, 1.97943, -67.2418, -12.5532
0.74392, -1, -4.79951, 27.1673, 26.0832, 2.25178, -66.9518, -12.6833
0.751864, -1, -4.628, 27.0823, 26.0603, 2.52308, -66.6633, -12.813
0.759909, -1, -4.45697, 26.9977, 26.0376, 2.79308, -66.3761, -12.9422
0.767978, -1, -4.28622, 26.9133, 26.0149, 3.06169, -66.0899, -13.0708
0.775925, -1, -4.11605, 26.8293, 25.9924, 3.3295, -65.8049, -13.1989
0.784057, -1, -3.94701, 26.7457, 25.9699, 3.5961, -65.5212, -13.3267
0.791995, -1, -3.77914, 26.6624, 25.9476, 3.86139, -65.2385, -13.4538
0.799829, -1, -3.61242, 26.5794, 25.9254, 4.12569, -64.9571, -13.5801
0.807903, -1, -3.44681, 26.4967, 25.9032, 4.38873, -64.6773, -13.7059
0.81611, -1, -3.28234, 26.4144, 25.8811, 4.65047, -64.3985, -13.8311
0.822864, -1, -3.20046, 26.3734, 25.8701, 4.78095, -64.2596, -13.8935
0.832008, -1, -2.95653, 26.2508, 25.8371, 5.17094, -63.8448, -14.0798
0.84005, -1, -2.79508, 26.1696, 25.8154, 5.42937, -63.5698, -14.2034
0.846863, -1, -2.71467, 26.1291, 25.8046, 5.55808, -63.4328, -14.2649
0.856201, -1, -2.4741, 26.0084, 25.7723, 5.94251, -63.0236, -14.4492
0.862821, -1, -2.394, 25.9683, 25.7616, 6.07006, -62.8879, -14.5103
0.872228, -1, -2.15418, 25.8488, 25.7295, 6.45065, -62.4826, -14.6925
0.878832, -1, -2.07448, 25.8092, 25.7188, 6.577, -62.3481, -14.7531
0.888436, -1, -1.83608, 25.6909, 25.6871, 6.95463, -61.9463, -14.9334
0.896416, -1, -1.6778, 25.6125, 25.6661, 7.20474, -61.6798, -15.0529
0.904474, -1, -1.5199, 25.5343, 25.6452, 7.4536, -61.4146, -15.1721
0.912691, -1, -1.44109, 25.4565, 25.6243, 7.7016, -61.1503, -15.2907
0.920406, -1, -1.28378, 25.4178, 25.6139, 7.82511, -60.8873, -15.4087
0.928427, -1, -1.12733, 25.3405, 25.5933, 8.07116, -60.7563, -15.5265
0.935817, -1, -0.971839, 25.2636, 25.5727, 8.31628, -60.4952, -15.5852
0.943812, -1, -0.817644, 25.1869, 25.5522, 8.56067, -60.2355, -15.7021
0.951861, -1, -0.664642, 25.1106, 25.5318, 8.80363, -59.9769, -15.8183
0.95989, -1, -0.512586, 25.0347, 25.5113, 9.04537, -59.7197, -15.9342
0.967812, -1, -0.36164, 24.9592, 25.491, 9.28612, -59.4638, -16.0493
0.97586, -1, -0.21183, 24.884, 25.4709, 9.52575, -59.2092, -16.164
0.983812, -1, -0.063049, 24.8092, 25.451, 9.76413, -58.9556, -16.2783
0.991811, -1, 0.0848629, 24.7346, 25.4311, 10.0013, -58.7029, -16.392
0.99915, -1, 0.232258, 24.6604, 25.4112, 10.2378, -58.4513, -16.5053
1.00681, -1, 0.37947, 24.5867, 25.3913, 10.4732, -58.2008, -16.6181
1.01584, -1, 0.526593, 24.5132, 25.3717, 10.7073, -57.9511, -16.7305
1.02381, -1, 0.673548, 24.44, 25.352, 10.9403, -57.7026, -16.8423
1.03184, -1, 0.820186, 24.3671, 25.3326, 11.1724, -57.4552, -16.9534
1.03982, -1, 0.966457, 24.2945, 25.3132, 11.4033, -57.209, -17.064
1.04761, -1, 1.11208, 24.2222, 25.2938, 11.6332, -56.964, -17.1739
1.05583, -1, 1.25723, 24.1504, 25.2745, 11.8622, -56.7204, -17.2832
1.06491, -1, 1.40192, 24.0788, 25.2554, 12.0903, -56.4778, -17.3923
1.07161, -1, 1.54618, 24.0076, 25.2362, 12.3173, -56.2366, -17.5006
1.07984, -1, 1.68975, 23.9367, 25.2173, 12.543, -55.9963, -17.6087
1.08784, -1, 1.8324, 23.8662, 25.1985, 12.768, -55.7572, -17.7163
1.09582, -1, 1.97393, 23.796, 25.1797, 12.992, -55.5191, -17.8236
1.10382, -1, 2.11452, 23.726, 25.1609, 13.2147, -55.282, -17.9304
1.11185, -1, 2.25424, 23.6565, 25.1423, 13.4365, -55.0458, -18.0364
1.12019, -1, 2.39291, 23.5872, 25.1237, 13.6574, -54.8105, -18.1422
1.1269, -1, 2.5307, 23.5181, 25.1054, 13.8775, -54.5761, -18.2472
1.13586, -1, 2.6675, 23.4494, 25.087, 14.0965, -54.3426, -18.3518
1.14467, -1, 2.80334, 23.3809, 25.0687, 14.3145, -54.1103, -18.4559
1.15097, -1, 2.93851, 23.3128, 25.0504, 14.5316, -53.8792, -18.5598
1.15988, -1, 3.07336, 23.2448, 25.0322, 14.7479, -53.649, -18.6635
1.1686, -1, 3.20821, 23.1771, 25.014, 14.963, -53.4199, -18.7663
1.17582, -1, 3.34302, 23.1098, 24.9961, 15.1773, -53.1918, -18.8692
1.18391, -1, 3.4776, 23.0427, 24.9783, 15.391, -52.9645, -18.9714
1.19267, -1, 3.61191, 22.976, 24.9604, 15.6038, -52.7384, -19.0732
1.19981, -1, 3.74592, 22.9096, 24.9426, 15.8155, -52.5129, -19.1743
1.20787, -1, 3.87948, 22.8434, 24.925, 16.0262, -52.2887, -19.2753
1.21662, -1, 4.01256, 22.7776, 24.9072, 16.2362, -52.0654, -19.3756
1.2238, -1, 4.14535, 22.712, 24.8896, 16.4453, -51.8427, -19.4756
1.23187, -1, 4.27768, 22.6468, 24.8722, 16.6534, -51.621, -19.5752
1.24055, -1, 4.40936, 22.5817, 24.8548, 16.8606, -51.4, -19.6743
1.2479, -1, 4.54026, 22.5169, 24.8374, 17.0672, -51.1801, -19.7733
1.25587, -1, 4.67058, 22.4522, 24.8202, 17.2731, -50.9611, -19.8716
1.2647, -1, 4.80008, 22.3878, 24.8029, 17.4779, -50.7428, -19.9699
1.27196, -1, 4.92883, 22.3236, 24.7857, 17.682, -50.5254, -20.0678
1.27991, -1, 5.05679, 22.2596, 24.7688, 17.8852, -50.3089, -20.1653
1.28874, -1, 5.18399, 22.196, 24.7518, 18.0879, -50.0932, -20.2619
1.29599, -1, 5.31041, 22.1325, 24.7347, 18.2896, -49.8784, -20.3587
1.30381, -1, 5.43586, 22.0694, 24.7178, 18.4905, -49.6645, -20.4546
1.31184, -1, 5.56049, 22.0065, 24.701, 18.6907, -49.4514, -20.5504
1.3199, -1, 5.68462, 21.9439, 24.6841, 18.8902, -49.2394, -20.6456
1.32786, -1, 5.80845, 21.8815, 24.6674, 19.0891, -49.028, -20.7408
1.33678, -1, 5.93221, 21.8195, 24.6509, 19.287, -48.8178, -20.8353
1.34406, -1, 6.05593, 21.7576, 24.6344, 19.484, -48.6083, -20.93
1.35081, -1, 6.11772, 21.7267, 24.6261, 19.5823, -48.5038, -20.9769
1.36108, -1, 6.30279, 21.6345, 24.6015, 19.8761, -48.1912, -21.118
1.36818, -1, 6.42597, 21.5733, 24.585, 20.0709, -47.9838, -21.2113
1.37479, -1, 6.48752, 21.5427, 24.5767, 20.168, -47.8803, -21.2581
1.38433, -1, 6.67154, 21.4515, 24.5524, 20.4582, -47.571, -21.3969
1.39085, -1, 6.73274, 21.4212, 24.5443, 20.5548, -47.4683, -21.4433
1.40052, -1, 6.91566, 21.3306, 24.52, 20.8432, -47.161, -21.5809
1.40842, -1, 7.03698, 21.2706, 24.5039, 21.0344, -46.9571, -21.6727
1.41641, -1, 7.1577, 21.2109, 24.4878, 21.225, -46.7539, -21.7635
1.42433, -1, 7.21785, 21.1811, 24.4798, 21.32, -46.6526, -21.8546
1.43181, -1, 7.3377, 21.1217, 24.4639, 21.5096, -46.4508, -21.8997
1.43984, -1, 7.45691, 21.0626, 24.4481, 21.6986, -46.2497, -21.9899
1.4478, -1, 7.57556, 21.0036, 24.4325, 21.8868, -46.0493, -22.0801
1.4558, -1, 7.6938, 20.9447, 24.4167, 22.0743, -45.8498, -22.1698
1.46384, -1, 7.81153, 20.8861, 24.4009, 22.2613, -45.651, -22.2595
1.47181, -1, 7.92869, 20.8276, 24.3852, 22.4478, -45.4529, -22.3487
1.4798, -1, 8.04526, 20.7692, 24.3696, 22.6336, -45.2558, -22.4375
1.48787, -1, 8.16125, 20.7111, 24.3539, 22.8184, -45.0593, -22.5257
1.49579, -1, 8.27674, 20.6531, 24.3385, 23.0028, -44.8633, -22.6142
1.5038, -1, 8.39192, 20.5953, 24.3232, 23.1865, -44.6678, -22.7017
1.5133, -1, 8.564, 20.5091, 24.3001, 23.4608, -44.3756, -22.8327
1.51879, -1, 8.62112, 20.4805, 24.2924, 23.5519, -44.2786, -22.8762
1.52788, -1, 8.73493, 20.4235, 24.2771, 23.7335, -44.0848, -22.9635
1.53738, -1, 8.90506, 20.3383, 24.2543, 24.0051, -43.7952, -23.0933
1.54379, -1, 8.96167, 20.31, 24.2467, 24.0955, -43.6991, -23.1367
1.55179, -1, 9.07481, 20.2535, 24.2316, 24.2756, -43.5075, -23.2226
1.55979, -1, 9.18789, 20.1973, 24.2167, 24.455, -43.3166, -23.3089
1.56879, -1, 9.30092, 20.1411, 24.2017, 24.6338, -43.1261, -23.3944
1.57587, -1, 9.41378, 20.0852, 24.1866, 24.8118, -42.9364, -23.48
1.58379, -1, 9.52626, 20.0293, 24.1716, 24.9897, -42.7473, -23.565
1.59185, -1, 9.63824, 19.9737, 24.1567, 25.1668, -42.5587, -23.6496
1.59986, -1, 9.74979, 19.9181, 24.1419, 25.3433, -42.3708, -23.7343
1.60779, -1, 9.86113, 19.8627, 24.127, 25.5193, -42.1833, -23.8181
1.61579, -1, 9.9721, 19.8077, 24.1125, 25.6947, -41.9967, -23.9022
1.62387, -1, 10.0827, 19.7528, 24.0979, 25.87, -41.8107, -23.9854
1.63179, -1, 10.1929, 19.6981, 24.0832, 26.0445, -41.6252, -24.0691
1.63979, -1, 10.3028, 19.6435, 24.0685, 26.2183, -41.4402, -24.1518
1.64786, -1, 10.412, 19.5892, 24.0539, 26.3915, -41.2556, -24.2349
1.65579, -1, 10.5208, 19.5351, 24.0394, 26.5643, -41.0717, -24.3173
1.66387, -1, 10.6292, 19.481, 24.0249, 26.7368, -40.8882, -24.4001
1.6718, -1, 10.7373, 19.4272, 24.0105, 26.9084, -40.7055, -24.4824
1.67979, -1, 10.8451, 19.3734, 23.9963, 27.0796, -40.5231, -24.5644
1.68792, -1, 10.9523, 19.3198, 23.982, 27.2501, -40.3412, -24.6464
1.69585, -1, 11.0592, 19.2663, 23.9677, 27.4204, -40.16, -24.7274
1.70379, -1, 11.1657, 19.2131, 23.9533, 27.5902, -39.9794, -24.809
1.71186, -1, 11.2719, 19.1599, 23.9391, 27.7594, -39.7992, -24.8896
1.7198, -1, 11.3777, 19.1069, 23.9249, 27.9281, -39.6196, -24.9706
1.72779, -1, 11.483, 19.0541, 23.9107, 28.0961, -39.4405, -25.0509
1.73586, -1, 11.5881, 19.0016, 23.8967, 28.2638, -39.2619, -25.1313
1.74381, -1, 11.693, 18.9492, 23.8828, 28.4312, -39.0838, -25.2114
1.75181, -1, 11.7977, 18.897, 23.8688, 28.5979, -38.9065, -25.2911
1.75993, -1, 11.9023, 18.8449, 23.8547, 28.7642, -38.7294, -25.3711
1.76804, -1, 12.0067, 18.7929, 23.8407, 28.93, -38.5528, -25.4502
1.77534, -1, 12.1109, 18.741, 23.8268, 29.0953, -38.3769, -25.5301
1.78443, -1, 12.215, 18.6893, 23.8129, 29.2603, -38.2016, -25.6089
1.7919, -1, 12.3188, 18.6377, 23.7991, 29.425, -38.0269, -25.688
1.79996, -1, 12.4225, 18.5862, 23.7854, 29.5891, -37.8526, -25.7667
1.80844, -1, 12.5258, 18.5348, 23.7718, 29.7524, -37.6787, -25.8446
1.81582, -1, 12.6289, 18.4836, 23.7581, 29.9156, -37.5052, -25.923
1.82389, -1, 12.7317, 18.4325, 23.7443, 30.0783, -37.3319, -26.0003
1.83286, -1, 12.8341, 18.3815, 23.7306, 30.2406, -37.1593, -26.0783
1.8399, -1, 12.9362, 18.3309, 23.717, 30.4023, -36.9871, -26.1553
1.84806, -1, 13.0378, 18.2803, 23.7034, 30.5636, -36.8151, -26.2321
1.85478, -1, 13.0886, 18.2552, 23.6966, 30.644, -36.7293, -26.2709
1.86283, -1, 13.1897, 18.2049, 23.6831, 30.8046, -36.5583, -26.3475
1.87225, -1, 13.3408, 18.1297, 23.6631, 31.045, -36.3025, -26.4624
1.87879, -1, 13.391, 18.1047, 23.6565, 31.1249, -36.2174, -26.5006
1.88829, -1, 13.5413, 18.0297, 23.6364, 31.3638, -35.9629, -26.6147
1.89637, -1, 13.6414, 17.9798, 23.623, 31.5225, -35.7939, -26.6911
1.90527, -1, 13.741, 17.93, 23.6097, 31.6806, -35.6252, -26.7666
1.91085, -1, 13.7908, 17.9052, 23.603, 31.7597, -35.5411, -26.8047
1.92043, -1, 13.9399, 17.8307, 23.5831, 31.9964, -35.2895, -26.9177
1.92939, -1, 13.9895, 17.806, 23.5764, 32.075, -35.2059, -26.993
1.93578, -1, 14.0886, 17.7566, 23.5633, 32.232, -35.0387, -27.0307
1.94384, -1, 14.1874, 17.7074, 23.5502, 32.3885, -34.8724, -27.1051
1.95177, -1, 14.2858, 17.6583, 23.5371, 32.5446, -34.7062, -27.18
1.95886, -1, 14.3837, 17.6095, 23.524, 32.7005, -34.5408, -27.2544
1.96783, -1, 14.4814, 17.5608, 23.5108, 32.8562, -34.3755, -27.3282
1.97578, -1, 14.5787, 17.5123, 23.4979, 33.0113, -34.2103, -27.4029
1.98384, -1, 14.6757, 17.4638, 23.4849, 33.1659, -34.0457, -27.4765
1.99177, -1, 14.7724, 17.4155, 23.472, 33.3202, -33.8813, -27.5506
1.99977, -1, 14.8688, 17.3673, 23.459, 33.4741, -33.7176, -27.6243
2.00678, -1, 14.9651, 17.319, 23.4463, 33.6278, -33.5539, -27.6976
2.01578, -1, 15.0613, 17.2709, 23.4335, 33.781, -33.3907, -27.7714
2.02378, -1, 15.1573, 17.2228, 23.4207, 33.9337, -33.2278, -27.8444
2.0319, -1, 15.2532, 17.1748, 23.4077, 34.086, -33.0656, -27.9177
2.03977, -1, 15.349, 17.127, 23.3949, 34.238, -32.9036, -27.9906
2.04684, -1, 15.4448, 17.0792, 23.3821, 34.3898, -32.7423, -28.0628
2.05584, -1, 15.5405, 17.0315, 23.3693, 34.5413, -32.5813, -28.1357
2.06483, -1, 15.6361, 16.9842, 23.3565, 34.6923, -32.4204, -28.2075
2.07084, -1, 15.7314, 16.9369, 23.3438, 34.843, -32.2602, -28.2798
2.07983, -1, 15.8265, 16.8897, 23.3314, 34.9932, -32.1001, -28.3517
2.08781, -1, 15.9213, 16.8428, 23.3189, 35.143, -31.9406, -28.4228
2.09578, -1, 16.016, 16.796, 23.3063, 35.2927, -31.7814, -28.4949
2.10385, -1, 16.1102, 16.7493, 23.2937, 35.4422, -31.6224, -28.5662
2.11177, -1, 16.204, 16.7028, 23.2812, 35.5911, -31.464, -28.6373
2.11977, -1, 16.2976, 16.6561, 23.2687, 35.7397, -31.306, -28.7088
2.12784, -1, 16.3909, 16.6097, 23.2563, 35.8879, -31.148, -28.7794
2.13577, -1, 16.484, 16.5631, 23.2437, 36.0359, -30.9905, -28.8508
2.14378, -1, 16.5767, 16.5166, 23.2313, 36.1838, -30.8333, -28.9215
2.15183, -1, 16.6693, 16.4703, 23.2191, 36.3313, -30.6763, -28.9919
2.15978, -1, 16.7617, 16.424, 23.2067, 36.4784, -30.5199, -29.0628
2.16777, -1, 16.854, 16.3777, 23.1943, 36.625, -30.3636, -29.1326
2.17584, -1, 16.9461, 16.3317, 23.1819, 36.7714, -30.2079, -29.2028
2.18378, -1, 17.0381, 16.2858, 23.1696, 36.9174, -30.0523, -29.2728
2.19178, -1, 17.1298, 16.2402, 23.1573, 37.0634, -29.897, -29.342
2.1999, -1, 17.22, 16.1951, 23.1449, 37.2087, -29.742, -29.4118
2.20777, -1, 17.3068, 16.1516, 23.1324, 37.3534, -29.5882, -29.4808
2.21577, -1, 17.3888, 16.1106, 23.1198, 37.4958, -29.4363, -29.5486
2.22385, -1, 17.4653, 16.0725, 23.1074, 37.6337, -29.2892, -29.6152
2.23177, -1, 17.5362, 16.0376, 23.0953, 37.7636, -29.1504, -29.6773
2.23978, -1, 17.6002, 16.0065, 23.0841, 37.8821, -29.0239, -29.7342
2.24784, -1, 17.6566, 15.979, 23.0742, 37.9855, -28.9131, -29.7845
2.25584, -1, 17.7067, 15.9543, 23.0665, 38.07, -28.8222, -29.8257
2.26387, -1, 17.7507, 15.9317, 23.0613, 38.1361, -28.751, -29.8576
2.27193, -1, 17.7885, 15.912, 23.0581, 38.1828, -28.7001, -29.8803
2.27986, -1, 17.8194, 15.8963, 23.0564, 38.2142, -28.6657, -29.8957
2.28788, -1, 17.8439, 15.8843, 23.0556, 38.2338, -28.6443, -29.9049
2.29594, -1, 17.8626, 15.8756, 23.0553, 38.2449, -28.632, -29.9101
2.30384, -1, 17.8748, 15.87, 23.0551, 38.2507, -28.6257, -29.9128
2.3121, -1, 17.8813, 15.867, 23.0551, 38.2535, -28.6227, -29.914
2.31986, 2, 17.8842, 15.8656, 23.055, 38.2548, -28.6212, -29.9147
2.32781, 2, 17.8852, 15.8649, 23.055, 38.2554, -28.6205, -29.9149
2.33618, 2, 17.8848, 15.8646, 23.055, 38.2557, -28.6202, -29.9151
2.34276, 2, 17.8845, 15.8645, 23.0551, 38.2558, -28.6201, -29.9151
2.35197, 2, 17.8835, 15.8644, 23.0551, 38.2559, -28.62, -29.9153
2.35883, 2, 17.8832, 15.8644, 23.0551, 38.2559, -28.62, -29.9153
2.36822, 2, 17.8829, 15.8643, 23.055, 38.256, -28.62, -29.9152
2.37476, 2, 17.8829, 15.8642, 23.055, 38.2559, -28.62, -29.9152
2.38454, 2, 17.883, 15.8639, 23.0551, 38.2559, -28.62, -29.9152
2.39234, 2, 17.8832, 15.8635, 23.055, 38.2559, -28.62, -29.9152
2.40035, 2, 17.8837, 15.8632, 23.055, 38.2559, -28.62, -29.9152
2.40856, 2, 17.8841, 15.8629, 23.055, 38.2559, -28.62, -29.9152
2.41642, 2, 17.8849, 15.8628, 23.055, 38.2559, -28.62, -29.9152
2.42438, 2, 17.8854, 15.8627, 23.055, 38.2559, -28.62, -29.9152
2.43262, 2, 17.8865, 15.8627, 23.055, 38.256, -28.6201, -29.9152
2.43981, 2, 17.8868, 15.8627, 23.055, 38.256, -28.6201, -29.9152
2.44776, 2, 17.8872, 15.8627, 23.055, 38.256, -28.6201, -29.9153
2.45576, 2, 17.8875, 15.8627, 23.055, 38.2559, -28.6201, -29.9152
2.46382, 2, 17.8876, 15.8627, 23.055, 38.256, -28.62, -29.9152
2.47176, 2, 17.8877, 15.8627, 23.055, 38.2559, -28.6201, -29.9152
2.47976, 2, 17.8877, 15.8627, 23.055, 38.256, -28.6201, -29.9152
2.48781, 2, 17.8877, 15.8627, 23.055, 38.256, -28.6202, -29.9152
2.49576, 2, 17.8877, 15.8626, 23.055, 38.256, -28.6201, -29.9152
2.50377, 2, 17.8875, 15.8626, 23.055, 38.2559, -28.6201, -29.9152
2.51181, 2, 17.8873, 15.8625, 23.055, 38.256, -28.6201, -29.9152
2.51975, 2, 17.8872, 15.8624, 23.055, 38.2559, -28.6202, -29.9152
2.52776, 2, 17.887, 15.8624, 23.055, 38.2559, -28.6202, -29.9152
2.53588, 2, 17.887, 15.8624, 23.055, 38.2559, -28.6202, -29.9152
2.54377, 2, 17.887, 15.8624, 23.055, 38.2559, -28.6202, -29.9151
2.55175, 2, 17.887, 15.8624, 23.055, 38.256, -28.6203, -29.9152
2.55982, 2, 17.887, 15.8624, 23.055, 38.2559, -28.6203, -29.9152
2.56964, 2, 17.8869, 15.8624, 23.055, 38.256, -28.6204, -29.9151
2.57575, 2, 17.887, 15.8624, 23.055, 38.256, -28.6204, -29.9151
2.58383, 2, 17.887, 15.8624, 23.055, 38.256, -28.6204, -29.9151
2.59179, 2, 17.887, 15.8624, 23.055, 38.2559, -28.6204, -29.9151
2.59975, 2, 17.887, 15.8624, 23.055, 38.2559, -28.6204, -29.9151
2.60782, 2, 17.887, 15.8624, 23.055, 38.2559, -28.6204, -29.9151
2.61575, 2, 17.887, 15.8624, 23.055, 38.2559, -28.6204, -29.9151
2.62377, 2, 17.887, 15.8624, 23.055, 38.2559, -28.6205, -29.9151
2.63182, 2, 17.8869, 15.8623, 23.055, 38.2559, -28.6205, -29.9151
2.63975, 2, 17.8868, 15.8624, 23.055, 38.2559, -28.6205, -29.9151
2.64775, 2, 17.8868, 15.8624, 23.055, 38.2559, -28.6205, -29.9151
2.65582, 2, 17.8868, 15.8624, 23.055, 38.2559, -28.6205, -29.9151
2.66375, 2, 17.8868, 15.8624, 23.055, 38.2559, -28.6206, -29.9151
2.67176, 2, 17.8867, 15.8624, 23.055, 38.2559, -28.6206, -29.9151
2.67981, 2, 17.8867, 15.8624, 23.055, 38.2559, -28.6206, -29.9151
2.68778, 2, 17.8867, 15.8624, 23.055, 38.2559, -28.6206, -29.9151
2.69575, 2, 17.8867, 15.8624, 23.055, 38.2559, -28.6206, -29.9151
2.70389, 2, 17.8867, 15.8624, 23.0551, 38.2559, -28.6206, -29.9151
2.71175, 2, 17.8867, 15.8624, 23.055, 38.2559, -28.6206, -29.9151
2.71975, 2, 17.8867, 15.8624, 23.055, 38.2559, -28.6207, -29.9151
2.72783, 2, 17.8867, 15.8624, 23.055, 38.2559, -28.6207, -29.9151
2.73576, 2, 17.8867, 15.8624, 23.055, 38.2559, -28.6207, -29.9151
2.74377, 2, 17.8866, 15.8624, 23.055, 38.2559, -28.6207, -29.9151
2.75183, 2, 17.8866, 15.8624, 23.055, 38.2558, -28.6207, -29.9151
2.75983, 2, 17.8866, 15.8624, 23.055, 38.2558, -28.6207, -29.915
2.76784, 2, 17.8866, 15.8624, 23.055, 38.2558, -28.6207, -29.915
2.7759, 2, 17.8866, 15.8624, 23.055, 38.2558, -28.6208, -29.915
2.78386, 2, 17.8865, 15.8624, 23.055, 38.2558, -28.6208, -29.915
2.79186, 2, 17.8865, 15.8624, 23.055, 38.2558, -28.6208, -29.9151
2.79993, 2, 17.8865, 15.8624, 23.055, 38.2557, -28.6208, -29.915
2.80775, 2, 17.8865, 15.8624, 23.055, 38.2557, -28.6208, -29.915
2.81576, 2, 17.8864, 15.8624, 23.0551, 38.2557, -28.6208, -29.915
2.82386, 2, 17.8864, 15.8624, 23.0551, 38.2557, -28.6208, -29.915
2.96678, 2, 17.8856, 15.8624, 23.0551, 38.2556, -28.6211, -29.9151
2.96868, 2, 17.8856, 15.8624, 23.0551, 38.2556, -28.6211, -29.915
2.97009, 2, 17.8856, 15.8624, 23.0551, 38.2556, -28.6211, -29.915
2.97135, 2, 17.8856, 15.8624, 23.0551, 38.2556, -28.6211, -29.915
2.97328, 2, 17.8855, 15.8624, 23.0551, 38.2556, -28.6211, -29.915
2.9746, 2, 17.8855, 15.8624, 23.0551, 38.2556, -28.6211, -29.915
2.97577, 2, 17.8855, 15.8624, 23.0551, 38.2556, -28.6211, -29.915
2.97988, 2, 17.8855, 15.8625, 23.0551, 38.2556, -28.6212, -29.915
2.98217, 2, 17.8855, 15.8625, 23.0551, 38.2556, -28.6212, -29.915
2.98345, 2, 17.8855, 15.8625, 23.0551, 38.2556, -28.6212, -29.915
2.9856, 2, 17.8855, 15.8625, 23.0551, 38.2556, -28.6212, -29.915
2.98682, 2, 17.8855, 15.8625, 23.0551, 38.2556, -28.6212, -29.915
2.98881, 2, 17.8855, 15.8625, 23.0551, 38.2556, -28.6212, -29.915
2.99021, 2, 17.8855, 15.8625, 23.0551, 38.2556, -28.6212, -29.915
2.99152, 2, 17.8855, 15.8625, 23.0551, 38.2556, -28.6212, -29.915
2.99808, 2, 17.8854, 15.8625, 23.0551, 38.2556, -28.6212, -29.915
2.99929, 2, 17.8854, 15.8625, 23.0551, 38.2556, -28.6212, -29.915
3.00116, 2, 17.8854, 15.8625, 23.055, 38.2556, -28.6212, -29.915
3.00255, 2, 17.8854, 15.8625, 23.055, 38.2556, -28.6212, -29.915
3.00379, 2, 17.8854, 15.8625, 23.055, 38.2556, -28.6212, -29.915
3.00613, 2, 17.8854, 15.8625, 23.0551, 38.2556, -28.6212, -29.915
3.0074, 2, 17.8854, 15.8625, 23.0551, 38.2556, -28.6212, -29.915
3.01069, 2, 17.8854, 15.8625, 23.0551, 38.2555, -28.6212, -29.915
3.01577, 2, 17.8853, 15.8625, 23.0551, 38.2555, -28.6212, -29.915
3.02374, 2, 17.8853, 15.8625, 23.0551, 38.2555, -28.6212, -29.915
3.03174, 2, 17.8852, 15.8625, 23.0551, 38.2555, -28.6212, -29.915
3.03988, 2, 17.8852, 15.8625, 23.0551, 38.2555, -28.6212, -29.9149
3.04774, 2, 17.8851, 15.8625, 23.0551, 38.2554, -28.6212, -29.915
3.05575, 2, 17.8851, 15.8625, 23.0551, 38.2554, -28.6212, -29.915
3.06475, 2, 17.885, 15.8625, 23.0551, 38.2554, -28.6212, -29.915
3.07173, 2, 17.8849, 15.8625, 23.0551, 38.2554, -28.6212, -29.915
3.07975, 2, 17.8849, 15.8625, 23.0551, 38.2554, -28.6212, -29.915
3.08781, 2, 17.8848, 15.8625, 23.0551, 38.2554, -28.6212, -29.915
3.09577, 2, 17.8848, 15.8625, 23.0551, 38.2554, -28.6212, -29.915
3.10374, 2, 17.8847, 15.8625, 23.0551, 38.2554, -28.6212, -29.915
3.1118, 2, 17.8847, 15.8625, 23.0551, 38.2554, -28.6212, -29.915
3.11975, 2, 17.8846, 15.8625, 23.0551, 38.2553, -28.6212, -29.915
3.12774, 2, 17.8846, 15.8625, 23.0551, 38.2553, -28.6212, -29.915
3.1358, 2, 17.8845, 15.8625, 23.0551, 38.2553, -28.6212, -29.915
3.14374, 2, 17.8845, 15.8625, 23.0551, 38.2552, -28.6212, -29.915
3.15174, 2, 17.8844, 15.8625, 23.0551, 38.2552, -28.6212, -29.9149
3.15981, 2, 17.8844, 15.8625, 23.0551, 38.2552, -28.6212, -29.9149
3.16774, 2, 17.8843, 15.8625, 23.0551, 38.2552, -28.6212, -29.9149
3.17574, 2, 17.8843, 15.8625, 23.0551, 38.2552, -28.6212, -29.9149
3.1838, 2, 17.8843, 15.8626, 23.0551, 38.2552, -28.6212, -29.915
3.19174, 2, 17.8842, 15.8626, 23.0551, 38.2552, -28.6213, -29.915
3.19975, 2, 17.8842, 15.8626, 23.0551, 38.2551, -28.6213, -29.915
3.20792, 2, 17.8841, 15.8626, 23.0551, 38.2551, -28.6213, -29.9149
3.21573, 2, 17.8841, 15.8625, 23.0551, 38.2551, -28.6213, -29.9149
3.22374, 2, 17.884, 15.8626, 23.0551, 38.2551, -28.6214, -29.9149
3.2318, 2, 17.884, 15.8626, 23.0551, 38.2551, -28.6213, -29.9149
3.23985, 2, 17.884, 15.8626, 23.0551, 38.255, -28.6213, -29.9149
3.24775, 2, 17.8839, 15.8625, 23.0551, 38.2551, -28.6214, -29.9149
3.25582, 2, 17.8839, 15.8626, 23.0551, 38.2551, -28.6213, -29.9149
3.26382, 2, 17.8839, 15.8626, 23.0551, 38.255, -28.6213, -29.9149
3.27183, 2, 17.8839, 15.8626, 23.0551, 38.255, -28.6213, -29.9149
3.2799, 2, 17.8838, 15.8626, 23.0551, 38.255, -28.6214, -29.9149
3.28784, 2, 17.8838, 15.8626, 23.0551, 38.2549, -28.6213, -29.915
3.29584, 2, 17.8838, 15.8626, 23.0551, 38.2549, -28.6213, -29.9149
3.30391, 2, 17.8838, 15.8626, 23.0551, 38.2549, -28.6214, -29.9149
3.31174, 2, 17.8838, 15.8626, 23.0551, 38.2549, -28.6214, -29.9149
3.32001, 2, 17.8837, 15.8626, 23.0551, 38.2549, -28.6214, -29.9149
3.32786, 2, 17.8837, 15.8626, 23.0551, 38.255, -28.6214, -29.9149
3.33579, 2, 17.8837, 15.8626, 23.0551, 38.2548, -28.6214, -29.9149
3.34386, 2, 17.8837, 15.8626, 23.0551, 38.2548, -28.6214, -29.9149
3.35203, 2, 17.8837, 15.8626, 23.0551, 38.2548, -28.6214, -29.9149
3.35874, 2, 17.8837, 15.8626, 23.0551, 38.2547, -28.6214, -29.9149
3.36816, 2, 17.8837, 15.8626, 23.0551, 38.2547, -28.6214, -29.9149
3.37475, 2, 17.8837, 15.8626, 23.0551, 38.2547, -28.6214, -29.9149
3.38416, 2, 17.8836, 15.8626, 23.0551, 38.2547, -28.6214, -29.9149
3.3922, 2, 17.8836, 15.8626, 23.0551, 38.2547, -28.6214, -29.9148
3.39874, 2, 17.8836, 15.8626, 23.0551, 38.2547, -28.6214, -29.9148
3.40826, 4, 17.8836, 15.8626, 23.0551, 38.2547, -28.6214, -29.9149
3.41628, 4, 17.8836, 15.8626, 23.0551, 38.2547, -28.6215, -29.9148
3.42444, 4, 17.8836, 15.8626, 23.0551, 38.2547, -28.6215, -29.9148
3.43235, 4, 17.8836, 15.8626, 23.0551, 38.2547, -28.6215, -29.9148
3.43974, 4, 17.8836, 15.8626, 23.0551, 38.2547, -28.6215, -29.9148
3.44777, 4, 17.8836, 15.8626, 23.0551, 38.2547, -28.6215, -29.9147
3.45572, 4, 17.8835, 15.8626, 23.0551, 38.2546, -28.6215, -29.9147
3.46451, 4, 17.8835, 15.8626, 23.0551, 38.2546, -28.6215, -29.9147
3.47177, 4, 17.8835, 15.8626, 23.0551, 38.2546, -28.6215, -29.9148
3.47974, 4, 17.8835, 15.8626, 23.0551, 38.2545, -28.6215, -29.9148
3.48772, 4, 17.8834, 15.8626, 23.0551, 38.2546, -28.6215, -29.9147
3.4958, 4, 17.8834, 15.8626, 23.0551, 38.2545, -28.6215, -29.9147
3.50387, 4, 17.8834, 15.8626, 23.0551, 38.2545, -28.6215, -29.9147
3.51101, 4, 17.8834, 15.8626, 23.0551, 38.2545, -28.6215, -29.9147
3.5349, 4, 17.8834, 15.8627, 23.0551, 38.2544, -28.6215, -29.9148
3.53613, 4, 17.8834, 15.8627, 23.0551, 38.2544, -28.6215, -29.9148
3.53821, 4, 17.8834, 15.8627, 23.0551, 38.2544, -28.6215, -29.9148
3.54268, 4, 17.8834, 15.8627, 23.0551, 38.2544, -28.6215, -29.9147
3.55172, 4, 17.8833, 15.8627, 23.0551, 38.2544, -28.6215, -29.9147
3.55974, 4, 17.8828, 15.863, 23.0551, 38.2544, -28.6215, -29.9146
3.56779, 4, 17.8806, 15.8644, 23.055, 38.2541, -28.6215, -29.9145
3.57677, 4, 17.8756, 15.8683, 23.0542, 38.2522, -28.6218, -29.9135
3.5846, 4, 17.8669, 15.8771, 23.0517, 38.245, -28.6228, -29.9085
3.59172, 4, 17.8537, 15.8931, 23.0463, 38.2281, -28.626, -29.8934
3.59977, 5, 17.8339, 15.9183, 23.0362, 38.1956, -28.633, -29.861
3.60851, 5, 17.8058, 15.9547, 23.0193, 38.1377, -28.6459, -29.8029
3.61474, 5, 17.7682, 16.0031, 22.9937, 38.0444, -28.6668, -29.7084
3.62372, 5, 17.7196, 16.0659, 22.957, 37.9057, -28.6982, -29.5673
3.6325, 5, 17.6581, 16.1458, 22.9075, 37.7123, -28.7435, -29.3701
3.63971, 5, 17.5821, 16.2453, 22.8435, 37.4572, -28.8047, -29.1096
3.64772, 5, 17.491, 16.3652, 22.7641, 37.1348, -28.8834, -28.7799
3.65651, 5, 17.3844, 16.5054, 22.6687, 36.7433, -28.9821, -28.3794
3.66371, 5, 17.2619, 16.6666, 22.5574, 36.2836, -29.1008, -27.91
3.67172, 5, 17.1238, 16.848, 22.4314, 35.7597, -29.2406, -27.3752
3.67979, 5, 16.9718, 17.0469, 22.2926, 35.1792, -29.4004, -26.7824
3.68776, 5, 16.8071, 17.2593, 22.1434, 34.5508, -29.5796, -26.142
3.69573, 5, 16.6308, 17.4849, 21.9855, 33.8843, -29.7758, -25.4665
3.70452, 5, 16.4441, 17.7233, 21.8211, 33.1925, -29.9874, -24.7662
3.71179, 5, 16.2487, 17.9712, 21.653, 32.4847, -30.2121, -24.0512
3.71972, 5, 16.0464, 18.2266, 21.4829, 31.7699, -30.4478, -23.3328
3.72893, 5, 15.8382, 18.4873, 21.3121, 31.0553, -30.6927, -22.6166
3.73575, 5, 15.625, 18.7506, 21.1418, 30.3439, -30.9454, -21.9072
3.74377, 5, 15.4084, 19.0152, 20.9735, 29.6398, -31.2052, -21.2094
3.75172, 5, 15.1899, 19.2795, 20.8075, 28.9442, -31.4719, -20.5232
3.75991, 5, 14.9702, 19.5419, 20.6432, 28.2581, -31.7449, -19.8487
3.76782, 5, 14.7493, 19.803, 20.4809, 27.5814, -32.0241, -19.1877
3.77582, 5, 14.5269, 20.0626, 20.3214, 26.9128, -32.3091, -18.5398
3.78414, 5, 14.3033, 20.3194, 20.1643, 26.2547, -32.5997, -17.9044
3.79132, 5, 14.079, 20.5745, 20.0093, 25.6065, -32.8958, -17.2826
3.79982, 5, 13.8538, 20.8274, 19.8568, 24.968, -33.1972, -16.6745
3.80842, 5, 13.6281, 21.078, 19.7071, 24.3392, -33.5037, -16.0797
3.81583, 5, 13.4021, 21.328, 19.5602, 23.7189, -33.8154, -15.4976
3.82374, 5, 13.1764, 21.577, 19.4156, 23.1086, -34.132, -14.9287
3.83256, 5, 12.9507, 21.8238, 19.2736, 22.5082, -34.4533, -14.3735
3.8398, 5, 12.7246, 22.0692, 19.1343, 21.9166, -34.7796, -13.8306
3.84783, 5, 12.4977, 22.3127, 18.9978, 21.3346, -35.1102, -13.3004
3.85673, 5, 12.2705, 22.5537, 18.8641, 20.7619, -35.4451, -12.7834
3.8641, 5, 12.043, 22.7934, 18.7331, 20.1973, -35.7841, -12.2795
3.87213, 5, 11.8143, 23.0315, 18.6047, 19.642, -36.1271, -11.7882
3.881, 5, 11.5836, 23.267, 18.479, 19.0956, -36.4737, -11.3094
3.88821, 5, 11.3513, 23.5009, 18.3561, 18.5575, -36.8242, -10.8422
3.89471, 5, 11.2346, 23.6172, 18.2956, 18.2917, -37.0008, -10.6133
3.90513, 5, 10.8828, 23.9621, 18.1185, 17.5072, -37.5361, -9.94517
3.91077, 5, 10.7647, 24.0761, 18.0608, 17.2496, -37.7163, -9.72829
3.92032, 5, 10.4103, 24.4161, 17.8917, 16.4884, -38.2619, -9.09562
3.92914, 5, 10.2924, 24.6397, 17.7822, 15.9909, -38.6297, -8.68796
3.93483, 5, 10.0573, 24.7504, 17.7285, 15.745, -38.8146, -8.48853
3.94432, 5, 9.82248, 24.9704, 17.6233, 15.2586, -39.1866, -7.90766
3.95171, 5, 9.58763, 25.1885, 17.521, 14.7798, -39.5611, -7.71953
3.95972, 5, 9.3527, 25.4042, 17.4217, 14.308, -39.9383, -7.35171
3.96776, 5, 9.11757, 25.6178, 17.3253, 13.8431, -40.3178, -6.99488
3.97572, 5, 8.88191, 25.8301, 17.2315, 13.3843, -40.6997, -6.64832
3.98371, 5, 8.64537, 26.0402, 17.1405, 12.9323, -41.0841, -6.31208
3.99176, 5, 8.40795, 26.2472, 17.0525, 12.4867, -41.4703, -5.98636
3.99972, 5, 8.16879, 26.452, 16.9676, 12.047, -41.8588, -5.67091
4.00772, 5, 7.92729, 26.6549, 16.8858, 11.6136, -42.2491, -5.36497
4.01583, 5, 7.68386, 26.8548, 16.807, 11.1861, -42.6413, -5.06892
4.02371, 5, 7.44031, 27.0517, 16.7311, 10.7642, -43.0349, -4.78273
4.03171, 5, 7.19749, 27.247, 16.6579, 10.3476, -43.4304, -4.50592
4.03977, 5, 6.95533, 27.4402, 16.5877, 9.93622, -43.8271, -4.23846
4.04777, 5, 6.71362, 27.6302, 16.5205, 9.53018, -44.2249, -3.98013
4.05573, 5, 6.472, 27.8176, 16.4566, 9.1293, -44.6243, -3.73109
4.06524, 5, 6.23003, 28.0032, 16.3956, 8.73338, -45.025, -3.49134
4.07171, 5, 5.98742, 28.1864, 16.3378, 8.34202, -45.4273, -3.2601
4.08072, 5, 5.7444, 28.3662, 16.283, 7.95551, -45.8304, -3.03759
4.08777, 5, 5.50092, 28.5436, 16.2313, 7.5733, -46.2345, -2.82364
4.09572, 5, 5.25595, 28.7189, 16.1827, 7.19547, -46.6392, -2.61819
4.10375, 5, 5.00867, 28.8916, 16.1375, 6.82146, -47.0443, -2.42111
4.11177, 5, 4.7598, 29.061, 16.0954, 6.45113, -47.45, -2.23161
4.11971, 5, 4.51038, 29.2275, 16.0564, 6.08467, -47.8564, -2.05009
4.12771, 5, 4.26136, 29.3918, 16.0207, 5.72183, -48.2633, -1.87607
4.13572, 5, 4.01308, 29.5533, 15.9883, 5.36251, -48.6708, -1.70987
4.14369, 5, 3.76572, 29.7116, 15.9591, 5.00646, -49.0787, -1.5514
4.15178, 5, 3.51889, 29.8668, 15.9334, 4.65387, -49.4865, -1.40034
4.15971, 5, 3.27189, 30.0195, 15.9111, 4.30427, -49.8942, -1.25675
4.16771, 5, 3.0256, 30.169, 15.8923, 3.95784, -50.3016, -1.12001
4.17579, 5, 2.78176, 30.3146, 15.8772, 3.61457, -50.7087, -0.990537
4.18371, 5, 2.54089, 30.4557, 15.8658, 3.27481, -51.1144, -0.86818
4.1917, 5, 2.30317, 30.5917, 15.8578, 2.93987, -51.5175, -0.753405
4.19977, 5, 2.06936, 30.7219, 15.8535, 2.61147, -51.9154, -0.64628
4.20771, 5, 1.8418, 30.8454, 15.8526, 2.29212, -52.3051, -0.547391
4.21578, 5, 1.62249, 30.9616, 15.8547, 1.98495, -52.6824, -0.457378
4.22377, 5, 1.41318, 31.0701, 15.8593, 1.69322, -53.0424, -0.375953
4.23171, 5, 1.21575, 31.1706, 15.8658, 1.42088, -53.3803, -0.303512
4.23971, 5, 1.03246, 31.2622, 15.8737, 1.17068, -53.6921, -0.241051
4.24778, 5, 0.864432, 31.3449, 15.882, 0.945275, -53.9745, -0.187053
4.25573, 5, 0.712173, 31.4187, 15.8905, 0.746249, -54.2245, -0.140935
4.26373, 5, 0.576176, 31.4836, 15.8981, 0.574533, -54.4406, -0.103136
4.27187, 5, 0.457251, 31.5398, 15.9047, 0.430091, -54.6234, -0.0726769
4.27981, 5, 0.355745, 31.5875, 15.9103, 0.311223, -54.7738, -0.0488924
4.28781, 5, 0.271298, 31.6269, 15.9147, 0.216758, -54.8943, -0.0305764
4.29588, 5, 0.202182, 31.6592, 15.918, 0.143242, -54.9875, -0.0167324
4.30382, 5, 0.146319, 31.685, 15.92, 0.089424, -55.0566, -0.00695671
4.31181, 5, 0.102319, 31.7054, 15.9212, 0.0511732, -55.1065, -0.000201343
4.31988, 5, 0.0688273, 31.7209, 15.9218, 0.0251616, -55.1401, 0.0042143
4.32789, 5, 0.0442708, 31.7323, 15.922, 0.00828006, -55.1615, 0.00665263
4.33608, 5, 0.0258476, 31.7403, 15.9221, -0.00178523, -55.1741, 0.00807991
4.359, 5, 0.000331399, 31.7509, 15.9222, -0.0108008, -55.1852, 0.009244
4.36172, 5, -0.00199346, 31.7519, 15.9222, -0.0113355, -55.1858, 0.00925912
4.363, 5, -0.00199346, 31.7519, 15.9222, -0.0113355, -55.1858, 0.00925912
4.36801, 5, -0.00507261, 31.7533, 15.9223, -0.0119288, -55.1866, 0.00934227
4.3747, 5, -0.00601529, 31.7538, 15.9223, -0.0120741, -55.1868, 0.00936944
4.3841, 5, -0.00835994, 31.7553, 15.9225, -0.0123225, -55.1871, 0.00940934
4.39069, 5, -0.00971461, 31.756, 15.9225, -0.0123578, -55.1871, 0.00941487
4.40102, 5, -0.0180135, 31.7603, 15.9225, -0.0127075, -55.1879, 0.00947757
4.40825, 6, -0.0282417, 31.7663, 15.9223, -0.0144599, -55.1908, 0.00984478
4.41626, 6, -0.0437359, 31.7759, 15.9222, -0.0196451, -55.1988, 0.0126054
4.42428, 6, -0.0662288, 31.7895, 15.9221, -0.0301076, -55.2154, 0.0193967
4.43231, 6, -0.0807955, 31.8076, 15.9221, -0.0489368, -55.2453, 0.0320082
4.44036, 6, -0.117584, 31.83, 15.9231, -0.07868, -55.294, 0.0528379
4.4477, 6, -0.164986, 31.8431, 15.9243, -0.0988895, -55.3265, 0.0668807
4.45657, 6, -0.259369, 31.8909, 15.9314, -0.187129, -55.468, 0.125761
4.46369, 6, -0.297986, 31.9103, 15.9352, -0.225752, -55.5312, 0.151787
4.47171, 6, -0.387076, 31.9546, 15.9455, -0.319736, -55.6845, 0.214943
4.48102, 6, -0.55262, 32.0355, 15.9683, -0.503116, -55.9866, 0.335558
4.48677, 6, -0.616585, 32.0663, 15.9782, -0.575778, -56.1073, 0.383077
4.4957, 6, -0.757449, 32.1336, 16.0014, -0.738251, -56.3788, 0.487729
4.50369, 6, -0.915119, 32.208, 16.0293, -0.922587, -56.6893, 0.604139
4.51069, 6, -1.08888, 32.2887, 16.0624, -1.12712, -57.0369, 0.73079
4.5197, 6, -1.27739, 32.3743, 16.1009, -1.34887, -57.4178, 0.865
4.5277, 6, -1.47849, 32.4637, 16.1444, -1.58518, -57.8276, 1.00452
4.53575, 6, -1.69077, 32.5571, 16.1927, -1.83285, -58.2613, 1.14689
4.54369, 6, -1.91257, 32.6543, 16.2456, -2.08818, -58.7136, 1.28925
4.55176, 6, -2.14214, 32.7545, 16.3022, -2.34811, -59.1794, 1.42947
4.55976, 6, -2.37826, 32.8565, 16.3623, -2.61078, -59.655, 1.56599
4.56769, 6, -2.61999, 32.9591, 16.4256, -2.87399, -60.1362, 1.69762
4.57732, 6, -2.86591, 33.0613, 16.4923, -3.13646, -60.6205, 1.88383
4.58452, 6, -3.11472, 33.1622, 16.562, -3.39824, -61.1075, 1.94275
4.59176, 6, -3.36528, 33.2613, 16.6352, -3.65879, -61.596, 2.05599
4.59969, 6, -3.61652, 33.3583, 16.7117, -3.9177, -62.086, 2.16298
4.60774, 6, -3.86778, 33.4529, 16.7915, -4.17546, -62.5774, 2.26405
4.61576, 6, -4.11949, 33.5452, 16.8747, -4.43177, -63.0696, 2.35811
4.6237, 6, -4.37229, 33.635, 16.9612, -4.68664, -63.5626, 2.44671
4.63169, 6, -4.62542, 33.7226, 17.0508, -4.94045, -64.0561, 2.52854
4.63977, 6, -4.87771, 33.808, 17.1437, -5.19309, -64.55, 2.60448
4.64769, 6, -5.1285, 33.8911, 17.2399, -5.44486, -65.0442, 2.67441
4.65569, 6, -5.3779, 33.9719, 17.3396, -5.69552, -65.5392, 2.73754
4.66376, 6, -5.62609, 34.0504, 17.4428, -5.94526, -66.0342, 2.79533
4.67169, 6, -5.87355, 34.1266, 17.5496, -6.19449, -66.5298, 2.84708
4.67969, 6, -6.12102, 34.2005, 17.6596, -6.44286, -67.0254, 2.89204
4.68778, 6, -6.36881, 34.272, 17.7727, -6.69064, -67.5206, 2.9313
4.69569, 6, -6.61671, 34.3409, 17.8891, -6.93817, -68.0155, 2.96503
4.7037, 6, -6.86523, 34.4073, 18.009, -7.18527, -68.5101, 2.99346
4.71175, 6, -7.11521, 34.471, 18.1324, -7.43197, -69.0049, 3.01612
4.71975, 6, -7.36702, 34.5321, 18.2593, -7.67847, -69.4994, 3.03284
4.72769, 6, -7.6195, 34.5905, 18.3895, -7.92504, -69.9938, 3.04368
4.73576, 6, -7.87154, 34.6463, 18.5229, -8.17142, -70.4876, 3.04912
4.7437, 6, -8.12247, 34.6992, 18.6596, -8.4177, -70.9802, 3.05057
4.75174, 6, -8.37186, 34.7494, 18.7998, -8.66413, -71.472, 3.0472
4.75972, 6, -8.62014, 34.7971, 18.9436, -8.91078, -71.9633, 3.03736
4.76772, 6, -8.86805, 34.842, 19.0905, -9.15739, -72.4538, 3.0212
4.77587, 6, -9.11602, 34.8843, 19.2408, -9.40442, -72.9432, 2.99882
4.7838, 6, -9.36377, 34.924, 19.3948, -9.65201, -73.432, 2.97042
4.79178, 6, -9.61115, 34.9607, 19.5523, -9.89967, -73.9194, 2.93699
4.79986, 6, -9.85888, 34.9947, 19.7125, -10.1479, -74.4054, 2.89824
4.8078, 6, -10.1081, 35.0259, 19.8759, -10.3966, -74.8903, 2.8538
4.81628, 6, -10.3586, 35.0543, 20.0429, -10.6459, -75.3737, 2.80323
4.82329, 6, -10.4842, 35.0674, 20.1278, -10.7709, -75.8556, 2.7478
4.83189, 6, -10.8608, 35.1023, 20.3874, -11.1468, -76.3359, 2.6871
4.84045, 6, -11.1108, 35.1221, 20.5644, -11.3984, -76.8149, 2.6203
4.84781, 6, -11.3591, 35.1389, 20.7452, -11.6506, -77.2924, 2.54879
4.85586, 6, -11.6058, 35.1524, 20.9297, -11.9035, -77.7678, 2.47186
4.86464, 6, -11.8523, 35.1632, 21.1171, -12.1576, -78.2411, 2.38894
4.87199, 6, -12.0986, 35.1713, 21.3078, -12.4125, -78.7121, 2.30176
4.88024, 6, -12.3443, 35.176, 21.5028, -12.6684, -79.1809, 2.20831
4.88905, 6, -12.5893, 35.1778, 21.701, -12.9256, -79.648, 2.11032
4.89467, 6, -12.7118, 35.1777, 21.8011, -13.0547, -79.8807, 2.05916
4.90426, 6, -13.08, 35.1727, 22.107, -13.4433, -80.5759, 1.89874
4.91304, 6, -13.3266, 35.1654, 22.316, -13.704, -81.0361, 1.78535
4.91868, 6, -13.4502, 35.1606, 22.4214, -13.8349, -81.2651, 1.72687
4.92852, 6, -13.8215, 35.1414, 22.743, -14.2297, -81.948, 1.5437
4.93628, 6, -13.945, 35.1335, 22.8524, -14.4945, -82.3999, 1.41541
4.9444, 6, -14.1908, 35.1046, 23.1846, -14.7609, -82.8491, 1.28194
4.95253, 6, -14.4346, 35.0932, 23.2969, -15.0286, -83.2955, 1.14347
4.95968, 6, -14.677, 35.0681, 23.5249, -15.1629, -83.5177, 1.07241
4.96774, 6, -14.9187, 35.0398, 23.7563, -15.4327, -83.9599, 0.926657
4.97568, 6, -15.1597, 35.008, 23.9906, -15.704, -84.3988, 0.776193
4.98369, 6, -15.4004, 34.9728, 24.2293, -15.9767, -84.8346, 0.6209
4.99172, 6, -15.6411, 34.9341, 24.4708, -16.2509, -85.267, 0.460808
4.99967, 6, -15.8813, 34.8921, 24.7155, -16.527, -85.6961, 0.295622
5.00768, 6, -16.1203, 34.8466, 24.9641, -16.8043, -86.1214, 0.125793
5.0157, 6, -16.357, 34.798, 25.215, -17.0827, -86.5427, -0.0487825
5.0237, 6, -16.5908, 34.7465, 25.4685, -17.3618, -86.9582, -0.226878
5.03173, 6, -16.82, 34.6927, 25.7227, -17.6394, -87.3665, -0.407604
5.03968, 6, -17.0419, 34.6373, 25.975, -17.9134, -87.7637, -0.588995
5.04767, 6, -17.2546, 34.5812, 26.2227, -18.1808, -88.146, -0.76912
5.0558, 6, -17.457, 34.5256, 26.4614, -18.4378, -88.5087, -0.945233
5.06369, 6, -17.6477, 34.4714, 26.688, -18.6808, -88.8477, -1.11445
5.07167, 6, -17.825, 34.42, 26.9003, -18.9064, -89.1589, -1.27371
5.08071, 6, -17.9871, 34.3724, 27.0939, -19.1115, -89.4387, -1.42025
5.08767, 6, -18.1326, 34.3289, 27.2669, -19.2941, -89.6859, -1.5522
5.0967, 6, -18.2609, 34.29, 27.4188, -19.4523, -89.8986, -1.66751
5.10375, 6, -18.3719, 34.256, 27.5478, -19.5858, -90.0769, -1.76556
5.11171, 6, -18.4659, 34.227, 27.654, -19.695, -90.2219, -1.84675
5.11967, 6, -18.5434, 34.2031, 27.7388, -19.7803, -90.3359, -1.91071
5.12774, 6, -18.606, 34.184, 27.8036, -19.8455, -90.4217, -1.95991
5.13567, 6, -18.6555, 34.1689, 27.8511, -19.8917, -90.4839, -1.99599
5.14369, 6, -18.6928, 34.1576, 27.8844, -19.9233, -90.5259, -2.02098
5.1517, 6, -18.7198, 34.1495, 27.9066, -19.9435, -90.553, -2.03727
5.15967, 6, -18.739, 34.1441, 27.9209, -19.9557, -90.5691, -2.04701
5.16767, 6, -18.7521, 34.1406, 27.9297, -19.9624, -90.5781, -2.05231
5.17571, 7, -18.7606, 34.1382, 27.9348, -19.9658, -90.5826, -2.05505
5.18369, 7, -18.7658, 34.1366, 27.9379, -19.9674, -90.5848, -2.05635
5.19167, 7, -18.7681, 34.1353, 27.9397, -19.9682, -90.5859, -2.05698
5.19974, 7, -18.7688, 34.1343, 27.9409, -19.9686, -90.5864, -2.05731
5.20767, 7, -18.7691, 34.1335, 27.9418, -19.9688, -90.5866, -2.05747
5.21567, 7, -18.7693, 34.1328, 27.9425, -19.9688, -90.5868, -2.0575
5.22381, 7, -18.7696, 34.1324, 27.9432, -19.9689, -90.5868, -2.0575
5.23167, 7, -18.7701, 34.1321, 27.9437, -19.9689, -90.5868, -2.0575
5.23967, 7, -18.7709, 34.1319, 27.944, -19.9689, -90.5868, -2.05757
5.24773, 7, -18.7717, 34.1319, 27.9443, -19.9689, -90.5869, -2.05753
5.25567, 7, -18.7725, 34.1318, 27.9446, -19.9689, -90.5869, -2.05744
5.26369, 7, -18.7735, 34.1318, 27.9449, -19.9689, -90.5868, -2.05747
5.27178, 7, -18.7745, 34.1318, 27.9452, -19.9689, -90.5868, -2.05746
5.27979, 7, -18.7757, 34.1318, 27.9455, -19.9689, -90.5868, -2.05744
5.28777, 7, -18.7768, 34.1318, 27.9457, -19.9689, -90.5868, -2.05746
