hehonglu123/ABB_Primitive_Study/realrobot/movec_30_ori/curve_exe_v1500_z20.csv
timestamp, cmd_num, J1, J2, J3, J4, J5, J6
0.000355, -1, -18.7722, 34.1308, 27.9457, -19.9675, -90.5847, -2.05517
0.002959, -1, -18.7722, 34.1307, 27.9457, -19.9675, -90.5847, -2.05515
0.008254, -1, -18.7722, 34.1307, 27.9457, -19.9675, -90.5847, -2.05514
0.029363, -1, -18.7722, 34.1307, 27.9458, -19.9674, -90.5847, -2.05523
0.032148, -1, -18.7722, 34.1307, 27.9458, -19.9674, -90.5847, -2.0552
0.034905, -1, -18.7722, 34.1307, 27.9458, -19.9674, -90.5847, -2.05517
0.039979, -1, -18.7722, 34.1307, 27.9457, -19.9674, -90.5847, -2.05518
0.047966, -1, -18.7722, 34.1307, 27.9458, -19.9674, -90.5847, -2.05522
0.055946, -1, -18.7717, 34.1306, 27.9458, -19.9674, -90.5847, -2.0552
0.063884, -1, -18.7693, 34.1299, 27.9458, -19.9674, -90.5847, -2.05523
0.071964, -1, -18.7639, 34.1279, 27.9459, -19.967, -90.5841, -2.05529
0.079895, -1, -18.7548, 34.1238, 27.9459, -19.9646, -90.5815, -2.05538
0.087902, -1, -18.7411, 34.1169, 27.946, -19.9574, -90.5745, -2.05584
0.095963, -1, -18.72, 34.1062, 27.946, -19.9425, -90.5593, -2.05924
0.103988, -1, -18.6896, 34.0907, 27.9455, -19.9159, -90.5318, -2.06984
0.112016, -1, -18.6487, 34.07, 27.944, -19.8722, -90.486, -2.089
0.120034, -1, -18.5955, 34.043, 27.9406, -19.806, -90.4174, -2.11894
0.128011, -1, -18.5289, 34.0093, 27.9349, -19.7141, -90.3207, -2.162
0.135994, -1, -18.4482, 33.9685, 27.9261, -19.5919, -90.1923, -2.22043
0.144051, -1, -18.3536, 33.9209, 27.9137, -19.4382, -90.0303, -2.29316
0.151907, -1, -18.2454, 33.8666, 27.8979, -19.253, -89.8345, -2.38181
0.159921, -1, -18.1234, 33.8053, 27.8793, -19.0386, -89.6079, -2.48387
0.16688, -1, -18.0574, 33.7722, 27.869, -18.9219, -89.4841, -2.53948
0.175975, -1, -17.841, 33.664, 27.835, -18.5403, -89.0788, -2.72209
0.182904, -1, -17.7633, 33.6252, 27.8231, -18.405, -88.9349, -2.78684
0.19216, -1, -17.5159, 33.5013, 27.7862, -17.9827, -88.4861, -2.9892
0.198944, -1, -17.4291, 33.4579, 27.7737, -17.8383, -88.3325, -3.05852
0.208207, -1, -17.1598, 33.3233, 27.736, -17.3989, -87.8653, -3.2698
0.214872, -1, -17.0679, 33.2774, 27.7234, -17.251, -87.7082, -3.34085
0.224367, -1, -16.7879, 33.1381, 27.6857, -16.8056, -87.2341, -3.55501
0.232648, -1, -16.599, 33.0445, 27.6607, -16.5072, -86.9166, -3.69827
0.240513, -1, -16.4092, 32.9507, 27.6355, -16.208, -86.598, -3.84159
0.248434, -1, -16.2192, 32.8568, 27.6104, -15.9082, -86.2789, -3.98543
0.256487, -1, -16.0293, 32.7631, 27.5853, -15.6073, -85.9589, -4.12948
0.264526, -1, -15.8397, 32.6694, 27.5602, -15.3061, -85.6387, -4.27368
0.272667, -1, -15.7453, 32.6225, 27.5477, -15.1555, -85.4782, -4.41855
0.280649, -1, -15.5565, 32.5288, 27.5225, -14.8537, -85.1571, -4.49093
0.28792, -1, -15.368, 32.4349, 27.4972, -14.5515, -84.8357, -4.63575
0.295872, -1, -15.1801, 32.3407, 27.4719, -14.2491, -84.5136, -4.78085
0.303883, -1, -14.9923, 32.2463, 27.4466, -13.9461, -84.1916, -4.92602
0.311919, -1, -14.8044, 32.1514, 27.4212, -13.6428, -83.8691, -5.0711
0.319888, -1, -14.6157, 32.0562, 27.3955, -13.3395, -83.5464, -5.2167
0.327922, -1, -14.426, 31.9609, 27.37, -13.036, -83.2233, -5.36217
0.335874, -1, -14.2352, 31.8655, 27.3444, -12.7324, -82.8999, -5.50806
0.343883, -1, -14.0435, 31.7699, 27.3188, -12.4285, -82.5764, -5.65406
0.351911, -1, -13.8513, 31.6744, 27.2931, -12.1242, -82.2526, -5.79975
0.359903, -1, -13.6586, 31.5789, 27.2674, -11.8199, -81.9285, -5.94556
0.367883, -1, -13.4651, 31.4835, 27.2418, -11.5156, -81.6045, -6.09133
0.375929, -1, -13.2713, 31.3881, 27.2162, -11.2112, -81.2805, -6.237
0.383875, -1, -13.078, 31.2929, 27.1906, -10.907, -80.9566, -6.38289
0.392326, -1, -12.8853, 31.1978, 27.1651, -10.6026, -80.6328, -6.52868
0.399877, -1, -12.693, 31.1027, 27.1395, -10.2981, -80.3093, -6.67469
0.408863, -1, -12.5015, 31.0076, 27.114, -9.99395, -79.9859, -6.82071
0.41666, -1, -12.3111, 30.9125, 27.0884, -9.68993, -79.6625, -6.96638
0.422853, -1, -12.1213, 30.8174, 27.0627, -9.38597, -79.339, -7.11196
0.431869, -1, -11.9324, 30.7221, 27.0372, -9.08228, -79.0157, -7.25754
0.44068, -1, -11.7436, 30.6268, 27.0117, -8.77873, -78.6925, -7.40289
0.446922, -1, -11.5547, 30.5315, 26.9862, -8.47534, -78.3694, -7.54806
0.45593, -1, -11.3654, 30.4364, 26.9606, -8.17257, -78.0472, -7.69328
0.464677, -1, -11.1758, 30.3415, 26.935, -7.87031, -77.7254, -7.83827
0.47095, -1, -10.9859, 30.2468, 26.9096, -7.56837, -77.404, -7.98286
0.479964, -1, -10.7956, 30.1523, 26.8843, -7.26714, -77.0834, -8.12719
0.488672, -1, -10.6051, 30.0581, 26.8589, -6.966, -76.7632, -8.27128
0.495866, -1, -10.4143, 29.964, 26.8336, -6.66538, -76.4433, -8.41491
0.503929, -1, -10.2236, 29.87, 26.8084, -6.36564, -76.124, -8.55844
0.512662, -1, -10.0336, 29.7764, 26.7833, -6.06623, -75.8051, -8.7016
0.519877, -1, -9.84422, 29.6829, 26.7582, -5.76741, -75.4869, -8.84478
0.527929, -1, -9.65574, 29.5895, 26.7331, -5.46922, -75.1695, -8.98767
0.536659, -1, -9.46806, 29.4964, 26.7081, -5.17138, -74.8528, -9.1299
0.54387, -1, -9.28139, 29.4033, 26.6831, -4.87447, -74.537, -9.27192
0.551928, -1, -9.09578, 29.3104, 26.6581, -4.57847, -74.222, -9.41358
0.560735, -1, -8.91096, 29.2176, 26.6332, -4.28291, -73.9075, -9.55484
0.567923, -1, -8.72695, 29.1249, 26.6083, -3.98854, -73.5941, -9.69593
0.57593, -1, -8.54339, 29.0326, 26.5836, -3.69477, -73.2814, -9.83647
0.584579, -1, -8.36004, 28.9406, 26.5589, -3.4017, -72.9697, -9.97699
0.591931, -1, -8.17699, 28.8489, 26.5343, -3.10974, -72.659, -10.117
0.59997, -1, -7.9939, 28.7575, 26.5097, -2.81864, -72.349, -10.2562
0.60922, -1, -7.81085, 28.6666, 26.4852, -2.52837, -72.0399, -10.3951
0.615443, -1, -7.62793, 28.5759, 26.4609, -2.2393, -71.7319, -10.5335
0.623958, -1, -7.44534, 28.4855, 26.4367, -1.9507, -71.4246, -10.6713
0.631974, -1, -7.26301, 28.3955, 26.4126, -1.66313, -71.1187, -10.809
0.640101, -1, -7.08121, 28.3057, 26.3884, -1.37657, -70.8136, -10.9461
0.647926, -1, -6.90024, 28.2163, 26.3644, -1.09115, -70.5097, -11.0828
0.655874, -1, -6.72029, 28.1272, 26.3405, -0.806719, -70.207, -11.2191
0.663958, -1, -6.54128, 28.0383, 26.3167, -0.52344, -69.9057, -11.3548
0.670851, -1, -6.45213, 27.9939, 26.3048, -0.38219, -69.7554, -11.4226
0.680017, -1, -6.18683, 27.8614, 26.2691, 0.040474, -69.3061, -11.6247
0.688045, -1, -6.01121, 27.7735, 26.2455, 0.320814, -69.0078, -11.7588
0.69486, -1, -5.92376, 27.7295, 26.2338, 0.460468, -68.8591, -11.8256
0.704126, -1, -5.66282, 27.5983, 26.1987, 0.878054, -68.4144, -12.0257
0.712231, -1, -5.48955, 27.5113, 26.1752, 1.155, -68.1193, -12.1585
0.718853, -1, -5.40307, 27.468, 26.1636, 1.29297, -67.9722, -12.2248
0.72835, -1, -5.14401, 27.3385, 26.1288, 1.70571, -67.533, -12.4223
0.734856, -1, -5.0578, 27.2955, 26.1173, 1.84278, -67.3873, -12.4879
0.744413, -1, -4.79968, 27.1673, 26.083, 2.25169, -66.9518, -12.6835
0.752405, -1, -4.62814, 27.0823, 26.0601, 2.52305, -66.6633, -12.8132
0.758841, -1, -4.54263, 27.0399, 26.0487, 2.65819, -66.5196, -12.8778
0.768475, -1, -4.37175, 26.9554, 26.0147, 3.06158, -66.0899, -13.071
0.776424, -1, -4.20127, 26.8712, 26.0034, 3.19561, -65.9473, -13.1989
0.784494, -1, -4.03152, 26.7874, 25.9811, 3.46302, -65.6629, -13.3269
0.791859, -1, -3.86298, 26.704, 25.9586, 3.72882, -65.3798, -13.3905
0.799858, -1, -3.69573, 26.6209, 25.9364, 3.99359, -65.0978, -13.5171
0.807905, -1, -3.52958, 26.538, 25.9142, 4.25733, -64.817, -13.6432
0.815872, -1, -3.36457, 26.4555, 25.892, 4.51963, -64.5378, -13.7687
0.823854, -1, -3.20057, 26.3734, 25.87, 4.78086, -64.2597, -13.8936
0.8319, -1, -3.03766, 26.2916, 25.848, 5.04119, -63.9828, -14.0179
0.839858, -1, -2.87581, 26.2101, 25.8262, 5.30033, -63.7072, -14.1417
0.847849, -1, -2.71475, 26.129, 25.8046, 5.55806, -63.4328, -14.2652
0.85734, -1, -2.47419, 26.0083, 25.7723, 5.94248, -63.0237, -14.4494
0.862852, -1, -2.39411, 25.9683, 25.7616, 6.07003, -62.888, -14.5104
0.871872, -1, -2.23421, 25.8885, 25.7401, 6.32403, -62.6175, -14.6321
0.879912, -1, -2.07472, 25.8092, 25.7188, 6.57694, -62.3482, -14.7532
0.887858, -1, -1.91563, 25.7303, 25.6976, 6.82899, -62.08, -14.8735
0.895915, -1, -1.75704, 25.6517, 25.6766, 7.07978, -61.8129, -14.9935
0.904838, -1, -1.59894, 25.5734, 25.6557, 7.32929, -61.5471, -15.1127
0.911873, -1, -1.44122, 25.4955, 25.6348, 7.57766, -61.2824, -15.2316
0.920883, -1, -1.28392, 25.4178, 25.6139, 7.82509, -61.0187, -15.35
0.928022, -1, -1.12743, 25.3406, 25.5933, 8.07116, -60.7564, -15.4677
0.936899, -1, -0.971931, 25.2636, 25.5727, 8.31624, -60.4954, -15.5854
0.943851, -1, -0.817742, 25.187, 25.5523, 8.56056, -60.2356, -15.7022
0.951911, -1, -0.664709, 25.1107, 25.5319, 8.80349, -59.977, -15.8185
0.959854, -1, -0.512652, 25.0347, 25.5113, 9.0453, -59.7197, -15.9343
0.967916, -1, -0.361689, 24.9592, 25.4911, 9.28597, -59.4639, -16.0495
0.975846, -1, -0.211899, 24.884, 25.471, 9.52568, -59.2093, -16.1642
0.983891, -1, -0.0631367, 24.8092, 25.451, 9.76409, -58.9557, -16.2784
0.991915, -1, 0.0848147, 24.7346, 25.4312, 10.0014, -58.703, -16.3922
0.999918, -1, 0.232208, 24.6605, 25.4113, 10.2378, -58.4514, -16.5054
1.00788, -1, 0.37935, 24.5867, 25.3914, 10.4731, -58.2009, -16.6184
1.01585, -1, 0.526515, 24.5131, 25.3718, 10.7072, -57.9512, -16.7307
1.02392, -1, 0.673442, 24.4399, 25.3521, 10.9402, -57.7028, -16.8424
1.03185, -1, 0.820107, 24.3671, 25.3326, 11.1723, -57.4553, -16.9534
1.03984, -1, 0.966351, 24.2945, 25.3133, 11.4032, -57.2091, -17.0641
1.04792, -1, 1.11196, 24.2223, 25.2939, 11.6332, -56.9641, -17.1739
1.05585, -1, 1.2571, 24.1504, 25.2746, 11.8622, -56.7205, -17.2832
1.06391, -1, 1.40182, 24.0788, 25.2555, 12.0903, -56.4779, -17.3923
1.07192, -1, 1.54603, 24.0076, 25.2364, 12.3172, -56.2368, -17.5006
1.07985, -1, 1.68964, 23.9367, 25.2174, 12.543, -55.9963, -17.6086
1.08786, -1, 1.83235, 23.8662, 25.1986, 12.7679, -55.7573, -17.7161
1.09593, -1, 1.97385, 23.7959, 25.1797, 12.9919, -55.5191, -17.8235
1.1039, -1, 2.11444, 23.726, 25.161, 13.2146, -55.282, -17.9303
1.11194, -1, 2.25419, 23.6564, 25.1424, 13.4364, -55.0458, -18.0363
1.11997, -1, 2.39287, 23.587, 25.1238, 13.6573, -54.8106, -18.1421
1.12796, -1, 2.53061, 23.518, 25.1054, 13.8774, -54.5762, -18.2471
1.13601, -1, 2.66741, 23.4493, 25.087, 14.0964, -54.3427, -18.3519
1.14396, -1, 2.80328, 23.3808, 25.0687, 14.3144, -54.1104, -18.4562
1.15191, -1, 2.93848, 23.3126, 25.0505, 14.5316, -53.8793, -18.56
1.28891, -1, 5.1839, 22.1958, 24.7518, 18.0878, -50.0933, -20.2622
1.29024, -1, 5.1839, 22.1958, 24.7518, 18.0878, -50.0933, -20.2622
1.29141, -1, 5.1839, 22.1958, 24.7518, 18.0878, -50.0933, -20.2622
1.29344, -1, 5.24716, 22.1641, 24.7432, 18.1888, -49.9857, -20.3105
1.29479, -1, 5.24716, 22.1641, 24.7432, 18.1888, -49.9857, -20.3105
1.29675, -1, 5.24716, 22.1641, 24.7432, 18.1888, -49.9857, -20.3105
1.29835, -1, 5.31025, 22.1324, 24.7347, 18.2895, -49.8785, -20.3589
1.3039, -1, 5.37311, 22.1008, 24.7262, 18.39, -49.7714, -20.4069
1.30594, -1, 5.43572, 22.0693, 24.7178, 18.4905, -49.6646, -20.4548
1.3072, -1, 5.43572, 22.0693, 24.7178, 18.4905, -49.6646, -20.4548
1.30989, -1, 5.49812, 22.0378, 24.7094, 18.5907, -49.5579, -20.5027
1.31112, -1, 5.49812, 22.0378, 24.7094, 18.5907, -49.5579, -20.5027
1.31301, -1, 5.56034, 22.0064, 24.701, 18.6906, -49.4515, -20.5505
1.31436, -1, 5.56034, 22.0064, 24.701, 18.6906, -49.4515, -20.5505
1.31567, -1, 5.56034, 22.0064, 24.701, 18.6906, -49.4515, -20.5505
1.31784, -1, 5.62243, 21.9751, 24.6925, 18.7904, -49.3454, -20.5982
1.31911, -1, 5.62243, 21.9751, 24.6925, 18.7904, -49.3454, -20.5982
1.32095, -1, 5.68443, 21.9438, 24.6841, 18.8901, -49.2395, -20.6457
1.32236, -1, 5.68443, 21.9438, 24.6841, 18.8901, -49.2395, -20.6457
1.32365, -1, 5.68443, 21.9438, 24.6841, 18.8901, -49.2395, -20.6457
1.32567, -1, 5.74637, 21.9126, 24.6757, 18.9897, -49.1336, -20.6934
1.32787, -1, 5.74637, 21.9126, 24.6757, 18.9897, -49.1336, -20.6934
1.33584, -1, 5.87019, 21.8504, 24.6592, 19.188, -48.9229, -20.7881
1.34385, -1, 5.99388, 21.7885, 24.6426, 19.3854, -48.7131, -20.8828
1.35188, -1, 6.11751, 21.7267, 24.626, 19.5823, -48.5039, -20.9769
1.35984, -1, 6.24097, 21.6651, 24.6096, 19.7783, -48.2953, -21.0711
1.36788, -1, 6.36429, 21.6038, 24.5932, 19.9736, -48.0875, -21.1647
1.37589, -1, 6.48741, 21.5427, 24.5767, 20.168, -47.8804, -21.2581
1.38386, -1, 6.6102, 21.4818, 24.5604, 20.3616, -47.6742, -21.3506
1.3919, -1, 6.73265, 21.4211, 24.5443, 20.5548, -47.4684, -21.4432
1.39989, -1, 6.85475, 21.3607, 24.5281, 20.7472, -47.2632, -21.5351
1.408, -1, 6.97633, 21.3006, 24.5118, 20.9388, -47.0591, -21.6268
1.41583, -1, 7.09735, 21.2407, 24.4958, 21.1298, -46.8555, -21.718
1.42482, -1, 7.21774, 21.1811, 24.4798, 21.3199, -46.6528, -21.809
1.43274, -1, 7.33756, 21.1217, 24.4638, 21.5097, -46.4509, -21.8997
1.43983, -1, 7.45679, 21.0626, 24.4481, 21.6986, -46.2499, -21.9899
1.44784, -1, 7.57546, 21.0036, 24.4324, 21.8867, -46.0494, -22.08
1.45664, -1, 7.69369, 20.9448, 24.4167, 22.0743, -45.85, -22.1697
1.46294, -1, 7.81143, 20.8863, 24.4009, 22.2612, -45.6511, -22.2594
1.47183, -1, 7.92862, 20.8278, 24.3852, 22.4477, -45.453, -22.3486
1.48061, -1, 8.0452, 20.7694, 24.3696, 22.6334, -45.2558, -22.4375
1.48691, -1, 8.1612, 20.7112, 24.3539, 22.8183, -45.0594, -22.5257
1.49585, -1, 8.27667, 20.6533, 24.3385, 23.0027, -44.8633, -22.6141
1.5047, -1, 8.39189, 20.5955, 24.3232, 23.1864, -44.6679, -22.7016
1.51183, -1, 8.50673, 20.5379, 24.3078, 23.3694, -44.4729, -22.7892
1.51983, -1, 8.62108, 20.4807, 24.2924, 23.5518, -44.2786, -22.8761
1.52865, -1, 8.73487, 20.4236, 24.2771, 23.7335, -44.0849, -22.9634
1.53583, -1, 8.84832, 20.3668, 24.2619, 23.9146, -43.8917, -23.0498
1.54384, -1, 8.96159, 20.3102, 24.2467, 24.0954, -43.6992, -23.1365
1.55321, -1, 9.0747, 20.2537, 24.2316, 24.2755, -43.5076, -23.2224
1.55986, -1, 9.18779, 20.1974, 24.2168, 24.4549, -43.3167, -23.3087
1.56796, -1, 9.30085, 20.1413, 24.2017, 24.6336, -43.1262, -23.3943
1.57584, -1, 9.41369, 20.0854, 24.1866, 24.8117, -42.9365, -23.48
1.58385, -1, 9.52615, 20.0295, 24.1716, 24.9896, -42.7474, -23.5648
1.5919, -1, 9.63815, 19.9738, 24.1567, 25.1667, -42.5587, -23.6495
1.59996, -1, 9.74971, 19.9183, 24.1419, 25.3432, -42.3709, -23.7341
1.60788, -1, 9.86101, 19.8629, 24.127, 25.5191, -42.1835, -23.8181
1.61597, -1, 9.97199, 19.8078, 24.1124, 25.6946, -41.9968, -23.9022
1.62428, -1, 10.0826, 19.7529, 24.0979, 25.8698, -41.8108, -23.9854
1.63145, -1, 10.1928, 19.6983, 24.0832, 26.0443, -41.6253, -24.069
1.64, -1, 10.3026, 19.6437, 24.0684, 26.2181, -41.4403, -24.1517
1.64832, -1, 10.4119, 19.5894, 24.0539, 26.3915, -41.2558, -24.2349
1.656, -1, 10.5207, 19.5352, 24.0393, 26.5643, -41.0718, -24.3174
1.66389, -1, 10.6291, 19.4812, 24.0248, 26.7367, -40.8883, -24.4001
1.67261, -1, 10.7372, 19.4273, 24.0104, 26.9083, -40.7055, -24.4824
1.68082, -1, 10.845, 19.3736, 23.9962, 27.0795, -40.5231, -24.5643
1.68793, -1, 10.9523, 19.32, 23.9819, 27.25, -40.3413, -24.6464
1.69487, -1, 11.0058, 19.2932, 23.9748, 27.3352, -40.2506, -24.6869
1.70282, -1, 11.1125, 19.2398, 23.9603, 27.5052, -40.0697, -24.7681
1.71209, -1, 11.272, 19.16, 23.939, 27.7593, -39.7992, -24.8895
1.71886, -1, 11.3249, 19.1335, 23.9318, 27.8437, -39.7094, -24.93
1.72681, -1, 11.4304, 19.0806, 23.9177, 28.0121, -39.5301, -25.0109
1.73634, -1, 11.5881, 19.0017, 23.8966, 28.2637, -39.2621, -25.1311
1.74506, -1, 11.693, 18.9493, 23.8827, 28.4311, -39.084, -25.2114
1.75082, -1, 11.7454, 18.9231, 23.8757, 28.5146, -38.9951, -25.2512
1.76037, -1, 11.9023, 18.845, 23.8546, 28.7641, -38.7295, -25.371
1.76915, -1, 11.9545, 18.793, 23.8406, 28.9299, -38.5528, -25.4502
1.77634, -1, 12.0588, 18.767, 23.8337, 29.0126, -38.4648, -25.53
1.78382, -1, 12.1629, 18.7152, 23.8198, 29.1778, -38.2893, -25.5696
1.79082, -1, 12.2669, 18.6635, 23.8059, 29.3427, -38.1143, -25.6483
1.80092, -1, 12.4223, 18.5862, 23.7853, 29.5889, -37.8527, -25.7667
1.80781, -1, 12.474, 18.5605, 23.7786, 29.6708, -37.7657, -25.8055
1.81482, -1, 12.5772, 18.5091, 23.7649, 29.834, -37.5921, -25.8839
1.82382, -1, 12.6802, 18.458, 23.7512, 29.9968, -37.4186, -25.9618
1.83182, -1, 12.7828, 18.4069, 23.7374, 30.1594, -37.2457, -26.0392
1.83881, -1, 12.8851, 18.3561, 23.7238, 30.3214, -37.0732, -26.117
1.84782, -1, 12.987, 18.3056, 23.7103, 30.483, -36.9012, -26.1935
1.85582, -1, 13.0886, 18.2551, 23.6967, 30.6439, -36.7294, -26.2708
1.86285, -1, 13.1897, 18.2049, 23.6832, 30.8045, -36.5584, -26.3474
1.87182, -1, 13.2906, 18.1547, 23.6699, 30.9648, -36.3876, -26.4239
1.87982, -1, 13.3911, 18.1047, 23.6566, 31.1248, -36.2174, -26.5005
1.88681, -1, 13.4913, 18.0547, 23.6432, 31.2842, -36.0477, -26.5764
1.89583, -1, 13.5913, 18.0047, 23.6298, 31.4431, -35.8783, -26.653
1.90388, -1, 13.6911, 17.9549, 23.6165, 31.6015, -35.7096, -26.7287
1.91082, -1, 13.7908, 17.9051, 23.6032, 31.7597, -35.5412, -26.8045
1.91982, -1, 13.8902, 17.8555, 23.5899, 31.9176, -35.3735, -26.8801
1.92782, -1, 13.9894, 17.8059, 23.5766, 32.0749, -35.206, -26.955
1.93681, -1, 14.0885, 17.7565, 23.5634, 32.2319, -35.0388, -27.0305
1.94381, -1, 14.1873, 17.7073, 23.5504, 32.3884, -34.8724, -27.1049
1.95182, -1, 14.2857, 17.6583, 23.5373, 32.5445, -34.7063, -27.1798
1.95985, -1, 14.3837, 17.6094, 23.5241, 32.7004, -34.5408, -27.2542
1.96781, -1, 14.4813, 17.5607, 23.511, 32.8561, -34.3755, -27.328
1.97589, -1, 14.5787, 17.5122, 23.498, 33.0113, -34.2103, -27.4026
1.98382, -1, 14.6756, 17.4638, 23.4851, 33.1658, -34.0458, -27.4763
1.99181, -1, 14.7723, 17.4155, 23.4721, 33.3202, -33.8813, -27.5504
1.99988, -1, 14.8688, 17.3673, 23.4592, 33.4741, -33.7176, -27.6241
2.00784, -1, 14.9651, 17.319, 23.4464, 33.6277, -33.554, -27.6975
2.01582, -1, 15.0612, 17.2709, 23.4337, 33.7808, -33.3908, -27.7714
2.02388, -1, 15.1572, 17.2228, 23.4208, 33.9336, -33.2279, -27.8443
2.03182, -1, 15.2531, 17.1748, 23.4079, 34.0859, -33.0656, -27.9176
2.03981, -1, 15.3489, 17.127, 23.395, 34.2379, -32.9037, -27.9905
2.04788, -1, 15.4447, 17.0792, 23.3822, 34.3897, -32.7424, -28.0628
2.05583, -1, 15.5405, 17.0316, 23.3694, 34.5412, -32.5813, -28.1356
2.06381, -1, 15.636, 16.9842, 23.3566, 34.6922, -32.4206, -28.2076
2.07195, -1, 15.7314, 16.9369, 23.3439, 34.8429, -32.2602, -28.2798
2.07981, -1, 15.8265, 16.8898, 23.3315, 34.9931, -32.1001, -28.3518
2.08782, -1, 15.9213, 16.8429, 23.319, 35.1429, -31.9406, -28.423
2.09589, -1, 16.0159, 16.7961, 23.3064, 35.2927, -31.7815, -28.495
2.10384, -1, 16.1101, 16.7495, 23.2938, 35.4421, -31.6225, -28.5662
2.11189, -1, 16.204, 16.7029, 23.2812, 35.591, -31.4641, -28.6376
2.12003, -1, 16.2976, 16.6563, 23.2688, 35.7396, -31.306, -28.7089
2.12794, -1, 16.3909, 16.6098, 23.2564, 35.8879, -31.1481, -28.7796
2.13591, -1, 16.484, 16.5633, 23.2439, 36.0358, -30.9906, -28.8509
2.14398, -1, 16.5767, 16.5168, 23.2315, 36.1837, -30.8334, -28.9217
2.15193, -1, 16.6693, 16.4704, 23.2192, 36.3312, -30.6763, -28.992
2.15982, -1, 16.7617, 16.4241, 23.2068, 36.4783, -30.5199, -29.0628
2.1681, -1, 16.8539, 16.3779, 23.1944, 36.625, -30.3636, -29.1327
2.17585, -1, 16.9461, 16.3319, 23.182, 36.7714, -30.208, -29.2027
2.18391, -1, 17.0381, 16.286, 23.1697, 36.9174, -30.0523, -29.2727
2.19209, -1, 17.1298, 16.2403, 23.1574, 37.0633, -29.8971, -29.342
2.1988, -1, 17.1752, 16.2177, 23.1512, 37.136, -29.8194, -29.3769
2.20806, -1, 17.3068, 16.1517, 23.1325, 37.3533, -29.5882, -29.4808
2.2148, -1, 17.3485, 16.1309, 23.1262, 37.4249, -29.5119, -29.5148
2.22418, -1, 17.4652, 16.0726, 23.1075, 37.6336, -29.2893, -29.6152
2.23224, -1, 17.5362, 16.0377, 23.0953, 37.7636, -29.1505, -29.6774
2.2388, -1, 17.5691, 16.0217, 23.0896, 37.8245, -29.0855, -29.7065
2.24839, -1, 17.6566, 15.9792, 23.0743, 37.9854, -28.9131, -29.7845
2.25636, -1, 17.7066, 15.9544, 23.0666, 38.07, -28.8222, -29.8257
2.26495, -1, 17.7506, 15.9318, 23.0613, 38.1361, -28.751, -29.8575
2.27239, -1, 17.7885, 15.9121, 23.0581, 38.1828, -28.7, -29.8804
2.28041, -1, 17.8049, 15.9037, 23.0564, 38.2142, -28.6658, -29.8957
2.28878, -1, 17.8439, 15.8843, 23.0556, 38.2337, -28.6444, -29.9049
2.29681, -1, 17.8626, 15.8756, 23.0553, 38.2449, -28.632, -29.9101
2.3029, -1, 17.8695, 15.8724, 23.0552, 38.2483, -28.6283, -29.9117
2.31319, -1, 17.8813, 15.867, 23.0551, 38.2535, -28.6226, -29.9141
2.31882, -1, 17.883, 15.8661, 23.055, 38.2542, -28.6218, -29.9145
2.32782, 2, 17.885, 15.8651, 23.055, 38.2551, -28.6207, -29.9149
2.33584, 2, 17.8851, 15.8647, 23.055, 38.2555, -28.6203, -29.915
2.3438, 2, 17.8845, 15.8645, 23.055, 38.2557, -28.6201, -29.915
2.35182, 2, 17.8837, 15.8644, 23.0551, 38.2559, -28.62, -29.9151
2.35984, 2, 17.8832, 15.8643, 23.055, 38.2559, -28.62, -29.9151
2.3678, 2, 17.8829, 15.8643, 23.055, 38.2559, -28.6199, -29.9151
2.37582, 2, 17.8829, 15.8642, 23.055, 38.2559, -28.6199, -29.9152
2.38384, 2, 17.8829, 15.864, 23.055, 38.2559, -28.62, -29.9152
2.39181, 2, 17.8831, 15.8636, 23.055, 38.2559, -28.62, -29.9152
2.39981, 2, 17.8834, 15.8633, 23.055, 38.2559, -28.62, -29.9152
2.40791, 2, 17.8839, 15.863, 23.055, 38.2559, -28.62, -29.9152
2.4158, 2, 17.8844, 15.8628, 23.055, 38.2559, -28.62, -29.9152
2.42485, 2, 17.8853, 15.8627, 23.055, 38.2559, -28.62, -29.9152
2.43185, 2, 17.8861, 15.8626, 23.055, 38.2559, -28.62, -29.9153
2.4398, 2, 17.8867, 15.8626, 23.055, 38.2559, -28.62, -29.9152
2.44781, 2, 17.8872, 15.8626, 23.055, 38.2559, -28.6201, -29.9153
2.45585, 2, 17.8874, 15.8626, 23.055, 38.2559, -28.6201, -29.9152
2.46383, 2, 17.8876, 15.8626, 23.055, 38.2559, -28.6202, -29.9152
2.4718, 2, 17.8876, 15.8626, 23.055, 38.2559, -28.6202, -29.9152
2.47985, 2, 17.8877, 15.8626, 23.055, 38.2559, -28.6202, -29.9152
2.4878, 2, 17.8877, 15.8626, 23.055, 38.2559, -28.6202, -29.9152
2.49582, 2, 17.8876, 15.8626, 23.055, 38.2559, -28.6202, -29.9151
2.50385, 2, 17.8876, 15.8625, 23.055, 38.2559, -28.6202, -29.9151
2.51181, 2, 17.8873, 15.8625, 23.055, 38.2559, -28.6202, -29.9152
2.51981, 2, 17.8871, 15.8624, 23.055, 38.2559, -28.6203, -29.9152
2.52785, 2, 17.887, 15.8623, 23.055, 38.2559, -28.6203, -29.9152
2.5358, 2, 17.8869, 15.8623, 23.055, 38.2559, -28.6203, -29.9151
2.54381, 2, 17.8869, 15.8623, 23.055, 38.2559, -28.6203, -29.9151
2.55186, 2, 17.8869, 15.8623, 23.055, 38.2559, -28.6203, -29.9151
2.5598, 2, 17.8869, 15.8623, 23.055, 38.2559, -28.6204, -29.9152
2.56782, 2, 17.8869, 15.8624, 23.055, 38.2559, -28.6204, -29.9151
2.57591, 2, 17.8869, 15.8624, 23.055, 38.2558, -28.6205, -29.9151
2.5838, 2, 17.8869, 15.8624, 23.055, 38.2559, -28.6205, -29.9151
2.59182, 2, 17.8869, 15.8624, 23.055, 38.2558, -28.6205, -29.9151
2.59985, 2, 17.8869, 15.8623, 23.055, 38.2559, -28.6204, -29.9151
2.60783, 2, 17.887, 15.8623, 23.055, 38.2559, -28.6205, -29.9151
2.61588, 2, 17.8869, 15.8623, 23.055, 38.2559, -28.6205, -29.9151
2.62404, 2, 17.8869, 15.8623, 23.055, 38.2559, -28.6205, -29.9151
2.63137, 2, 17.8869, 15.8623, 23.055, 38.2559, -28.6205, -29.9151
2.63992, 2, 17.8868, 15.8623, 23.055, 38.2559, -28.6205, -29.9151
2.64795, 2, 17.8868, 15.8623, 23.055, 38.2559, -28.6206, -29.9151
2.65591, 2, 17.8867, 15.8623, 23.055, 38.2559, -28.6205, -29.9151
2.66382, 2, 17.8867, 15.8623, 23.055, 38.2559, -28.6206, -29.9151
2.67189, 2, 17.8867, 15.8624, 23.055, 38.2558, -28.6206, -29.9151
2.67983, 2, 17.8867, 15.8624, 23.055, 38.2558, -28.6206, -29.9151
2.68795, 2, 17.8867, 15.8624, 23.055, 38.2559, -28.6206, -29.9151
2.69483, 2, 17.8867, 15.8624, 23.055, 38.2558, -28.6206, -29.9151
2.70397, 2, 17.8867, 15.8624, 23.055, 38.2558, -28.6207, -29.9151
2.71082, 2, 17.8867, 15.8624, 23.055, 38.2558, -28.6207, -29.9151
2.7202, 2, 17.8867, 15.8624, 23.055, 38.2559, -28.6207, -29.9152
2.72681, 2, 17.8867, 15.8624, 23.055, 38.2558, -28.6207, -29.9152
2.73622, 2, 17.8866, 15.8623, 23.055, 38.2558, -28.6207, -29.9151
2.74279, 2, 17.8866, 15.8623, 23.055, 38.2558, -28.6207, -29.9151
2.75237, 2, 17.8866, 15.8624, 23.055, 38.2559, -28.6207, -29.9151
2.76034, 2, 17.8866, 15.8624, 23.055, 38.2558, -28.6207, -29.915
2.76843, 2, 17.8865, 15.8624, 23.055, 38.2558, -28.6207, -29.915
2.77636, 2, 17.8865, 15.8624, 23.055, 38.2558, -28.6207, -29.9151
2.78433, 2, 17.8865, 15.8624, 23.055, 38.2558, -28.6208, -29.9151
2.79241, 2, 17.8865, 15.8624, 23.055, 38.2557, -28.6208, -29.915
2.79982, 2, 17.8864, 15.8624, 23.055, 38.2558, -28.6208, -29.915
2.8078, 2, 17.8864, 15.8624, 23.055, 38.2557, -28.6208, -29.915
2.81591, 2, 17.8864, 15.8624, 23.055, 38.2557, -28.6208, -29.915
2.82378, 2, 17.8864, 15.8624, 23.055, 38.2557, -28.6208, -29.915
2.83181, 2, 17.8864, 15.8624, 23.055, 38.2557, -28.6208, -29.915
2.83982, 2, 17.8863, 15.8624, 23.055, 38.2556, -28.6209, -29.915
2.84779, 2, 17.8863, 15.8624, 23.055, 38.2556, -28.6209, -29.915
2.8558, 2, 17.8863, 15.8624, 23.055, 38.2556, -28.6209, -29.915
2.86382, 2, 17.8862, 15.8624, 23.055, 38.2556, -28.6209, -29.915
2.87179, 2, 17.8861, 15.8624, 23.055, 38.2557, -28.6209, -29.915
2.87981, 2, 17.8861, 15.8624, 23.055, 38.2557, -28.6209, -29.915
2.88782, 2, 17.8861, 15.8624, 23.055, 38.2557, -28.6209, -29.915
2.89577, 2, 17.8861, 15.8624, 23.055, 38.2557, -28.6209, -29.9151
2.90379, 2, 17.886, 15.8624, 23.055, 38.2557, -28.6209, -29.9151
2.9119, 2, 17.8859, 15.8624, 23.055, 38.2557, -28.6209, -29.915
2.91978, 2, 17.8859, 15.8624, 23.055, 38.2557, -28.6209, -29.915
2.92779, 2, 17.8858, 15.8624, 23.055, 38.2556, -28.621, -29.9151
2.93583, 2, 17.8858, 15.8624, 23.055, 38.2556, -28.621, -29.915
2.94378, 2, 17.8858, 15.8624, 23.055, 38.2556, -28.621, -29.9151
2.95278, 2, 17.8857, 15.8624, 23.055, 38.2556, -28.621, -29.9151
2.95983, 2, 17.8857, 15.8624, 23.055, 38.2556, -28.621, -29.915
2.96782, 2, 17.8856, 15.8624, 23.055, 38.2556, -28.6211, -29.915
2.9758, 2, 17.8856, 15.8624, 23.055, 38.2556, -28.621, -29.915
2.98383, 2, 17.8855, 15.8624, 23.055, 38.2556, -28.621, -29.915
2.99184, 2, 17.8855, 15.8625, 23.055, 38.2555, -28.6211, -29.915
2.9998, 2, 17.8854, 15.8625, 23.055, 38.2555, -28.621, -29.915
3.00787, 2, 17.8854, 15.8625, 23.055, 38.2555, -28.6211, -29.915
3.01579, 2, 17.8853, 15.8625, 23.055, 38.2555, -28.6211, -29.9149
3.02379, 2, 17.8853, 15.8625, 23.055, 38.2555, -28.6211, -29.915
3.03184, 2, 17.8853, 15.8625, 23.0551, 38.2555, -28.6211, -29.915
3.03978, 2, 17.8852, 15.8625, 23.055, 38.2555, -28.6211, -29.915
3.04779, 2, 17.8851, 15.8625, 23.055, 38.2554, -28.6211, -29.915
3.05584, 2, 17.885, 15.8625, 23.055, 38.2554, -28.6211, -29.9149
3.06377, 2, 17.885, 15.8625, 23.055, 38.2554, -28.6211, -29.9149
3.07181, 2, 17.885, 15.8625, 23.055, 38.2554, -28.6212, -29.915
3.07991, 2, 17.8849, 15.8625, 23.055, 38.2553, -28.6212, -29.915
3.08778, 2, 17.8848, 15.8625, 23.055, 38.2554, -28.6212, -29.915
3.0958, 2, 17.8848, 15.8625, 23.055, 38.2554, -28.6212, -29.9149
3.10384, 2, 17.8847, 15.8625, 23.055, 38.2554, -28.6212, -29.9149
3.11183, 2, 17.8847, 15.8625, 23.055, 38.2553, -28.6212, -29.915
3.11987, 2, 17.8846, 15.8625, 23.055, 38.2553, -28.6212, -29.915
3.12793, 2, 17.8846, 15.8625, 23.055, 38.2553, -28.6211, -29.915
3.13591, 2, 17.8845, 15.8625, 23.055, 38.2553, -28.6212, -29.915
3.1439, 2, 17.8845, 15.8625, 23.055, 38.2553, -28.6212, -29.915
3.15195, 2, 17.8844, 15.8625, 23.055, 38.2552, -28.6212, -29.915
3.15984, 2, 17.8844, 15.8625, 23.0551, 38.2552, -28.6212, -29.915
3.16781, 2, 17.8843, 15.8625, 23.055, 38.2552, -28.6212, -29.9149
3.17587, 2, 17.8843, 15.8625, 23.055, 38.2551, -28.6212, -29.915
3.18393, 2, 17.8842, 15.8625, 23.0551, 38.2551, -28.6213, -29.9149
3.1908, 2, 17.8842, 15.8625, 23.0551, 38.2551, -28.6212, -29.9149
3.19997, 2, 17.8841, 15.8625, 23.0551, 38.2551, -28.6213, -29.9149
3.20804, 2, 17.8841, 15.8625, 23.0551, 38.2551, -28.6213, -29.9149
3.21481, 2, 17.8841, 15.8625, 23.0551, 38.2551, -28.6213, -29.9149
3.22458, 2, 17.884, 15.8625, 23.0551, 38.255, -28.6213, -29.9149
3.23233, 2, 17.884, 15.8625, 23.0551, 38.255, -28.6213, -29.9149
3.24022, 2, 17.884, 15.8625, 23.0551, 38.255, -28.6213, -29.9149
3.24677, 2, 17.884, 15.8625, 23.0551, 38.255, -28.6213, -29.9149
3.25635, 2, 17.8839, 15.8625, 23.0551, 38.255, -28.6213, -29.9149
3.26432, 2, 17.8839, 15.8625, 23.0551, 38.255, -28.6214, -29.9149
3.27266, 2, 17.8838, 15.8625, 23.055, 38.255, -28.6214, -29.9149
3.2806, 2, 17.8838, 15.8625, 23.0551, 38.2549, -28.6214, -29.9149
3.28831, 2, 17.8838, 15.8625, 23.0551, 38.2549, -28.6213, -29.9149
3.29669, 2, 17.8838, 15.8625, 23.0551, 38.2549, -28.6213, -29.9149
3.3038, 2, 17.8838, 15.8625, 23.0551, 38.2549, -28.6213, -29.9149
3.31179, 2, 17.8837, 15.8625, 23.0551, 38.2549, -28.6214, -29.9149
3.32059, 2, 17.8837, 15.8626, 23.0551, 38.2549, -28.6214, -29.9149
3.32978, 2, 17.8837, 15.8626, 23.0551, 38.2549, -28.6213, -29.9149
3.33574, 2, 17.8837, 15.8626, 23.0551, 38.2549, -28.6213, -29.9149
3.3438, 2, 17.8837, 15.8626, 23.0551, 38.2548, -28.6214, -29.9149
3.35178, 2, 17.8837, 15.8626, 23.0551, 38.2548, -28.6214, -29.9149
3.35978, 2, 17.8837, 15.8626, 23.0551, 38.2548, -28.6214, -29.9149
3.3678, 2, 17.8837, 15.8626, 23.0551, 38.2548, -28.6214, -29.9149
3.37577, 2, 17.8837, 15.8626, 23.0551, 38.2548, -28.6214, -29.9149
3.38378, 2, 17.8837, 15.8626, 23.0551, 38.2548, -28.6214, -29.9149
3.39181, 2, 17.8837, 15.8626, 23.0551, 38.2547, -28.6214, -29.9149
3.39977, 2, 17.8836, 15.8626, 23.0551, 38.2547, -28.6214, -29.9149
3.40778, 4, 17.8836, 15.8626, 23.0551, 38.2547, -28.6214, -29.9149
3.41587, 4, 17.8836, 15.8626, 23.0551, 38.2547, -28.6214, -29.9149
3.42376, 4, 17.8836, 15.8626, 23.0551, 38.2546, -28.6214, -29.9149
3.43276, 4, 17.8836, 15.8626, 23.0551, 38.2546, -28.6214, -29.9148
3.43981, 4, 17.8836, 15.8626, 23.0551, 38.2546, -28.6215, -29.9148
3.44776, 4, 17.8836, 15.8626, 23.0551, 38.2546, -28.6214, -29.9148
3.45578, 4, 17.8836, 15.8626, 23.0551, 38.2546, -28.6214, -29.9148
3.4639, 4, 17.8836, 15.8626, 23.0551, 38.2546, -28.6215, -29.9148
3.47178, 4, 17.8835, 15.8626, 23.0551, 38.2546, -28.6215, -29.9148
3.47977, 4, 17.8835, 15.8626, 23.0551, 38.2546, -28.6215, -29.9147
3.48781, 4, 17.8835, 15.8626, 23.0551, 38.2546, -28.6215, -29.9147
3.49577, 4, 17.8835, 15.8626, 23.0551, 38.2546, -28.6215, -29.9147
3.50392, 4, 17.8835, 15.8626, 23.0551, 38.2546, -28.6215, -29.9146
3.51108, 4, 17.8835, 15.8626, 23.0551, 38.2546, -28.6215, -29.9146
3.5366, 4, 17.8834, 15.8626, 23.0551, 38.2545, -28.6215, -29.9146
3.53921, 4, 17.8834, 15.8626, 23.0551, 38.2545, -28.6215, -29.9146
3.54417, 4, 17.8835, 15.8626, 23.0551, 38.2544, -28.6215, -29.9146
3.54676, 4, 17.8835, 15.8626, 23.0551, 38.2544, -28.6215, -29.9146
3.55285, 4, 17.8834, 15.8626, 23.0551, 38.2544, -28.6215, -29.9146
3.56052, 4, 17.8829, 15.8629, 23.0551, 38.2544, -28.6215, -29.9146
3.56776, 4, 17.8807, 15.8644, 23.055, 38.2542, -28.6216, -29.9145
3.57578, 4, 17.8756, 15.8683, 23.0542, 38.2522, -28.6218, -29.9134
3.58794, 4, 17.861, 15.8841, 23.0495, 38.2382, -28.6241, -29.9026
3.59177, 4, 17.8537, 15.8932, 23.0463, 38.2282, -28.626, -29.8933
3.59983, 5, 17.834, 15.9184, 23.0362, 38.1956, -28.6331, -29.8612
3.60812, 5, 17.8058, 15.9547, 23.0192, 38.1379, -28.6459, -29.8031
3.61526, 5, 17.7682, 16.0031, 22.9937, 38.0444, -28.6669, -29.7085
3.62331, 5, 17.7196, 16.0659, 22.957, 37.9058, -28.6983, -29.5675
3.63211, 5, 17.658, 16.1459, 22.9075, 37.7124, -28.7436, -29.3704
3.63934, 5, 17.5818, 16.2457, 22.8434, 37.4572, -28.8048, -29.1098
3.64787, 5, 17.4893, 16.3671, 22.7636, 37.1345, -28.8836, -28.7799
3.65593, 5, 17.3791, 16.5113, 22.6669, 36.7409, -28.9828, -28.3776
3.66431, 5, 17.2494, 16.6803, 22.5528, 36.2752, -29.1033, -27.9023
3.67177, 5, 17.0991, 16.8753, 22.4215, 35.7371, -29.2473, -27.3538
3.67986, 5, 16.9275, 17.0962, 22.2737, 35.1285, -29.4161, -26.7335
3.68882, 5, 16.7344, 17.3419, 22.1097, 34.4501, -29.6116, -26.0443
3.69582, 5, 16.5213, 17.6118, 21.9301, 33.7033, -29.8355, -25.2916
3.70397, 5, 16.29, 17.903, 21.7362, 32.8931, -30.0892, -24.477
3.71077, 5, 16.1682, 18.0556, 21.6348, 32.4664, -30.2275, -24.0489
3.71879, 5, 15.9131, 18.3743, 21.4239, 31.5758, -30.5271, -23.1594
3.72815, 5, 15.5036, 18.8784, 21.0898, 30.1647, -31.0301, -21.7584
3.73476, 5, 15.3608, 19.0524, 20.9758, 29.6807, -31.2111, -21.2809
3.74504, 5, 14.9167, 19.5883, 20.6302, 28.2113, -31.7893, -19.8403
3.75075, 5, 14.7634, 19.7718, 20.5143, 27.7203, -31.9923, -19.3609
3.76033, 5, 14.2878, 20.3305, 20.169, 26.2555, -32.6273, -17.9467
3.76917, 5, 13.9604, 20.7055, 19.9421, 25.2963, -33.0693, -17.029
3.77474, 5, 13.7946, 20.8924, 19.83, 24.8242, -33.2954, -16.5801
3.78357, 5, 13.4601, 21.2655, 19.6101, 23.8927, -33.7569, -15.7013
3.7932, 5, 13.1232, 21.6362, 19.3959, 22.9782, -34.4711, -14.4332
3.80034, 5, 12.785, 22.0039, 19.1866, 22.0848, -34.7147, -14.0251
3.80781, 5, 12.4452, 22.3671, 18.9833, 21.2133, -35.2099, -13.2283
3.8158, 5, 12.1042, 22.7266, 18.7862, 20.3604, -35.7148, -12.4611
3.82275, 5, 11.7616, 23.0815, 18.5945, 19.5261, -36.2281, -11.7231
3.83176, 5, 11.4166, 23.4318, 18.4084, 18.7115, -36.7502, -11.0109
3.8398, 5, 11.0691, 23.7773, 18.2291, 17.9172, -37.2808, -10.3273
3.84775, 5, 10.7186, 24.1181, 18.0559, 17.1412, -37.8198, -9.67075
3.85576, 5, 10.3665, 24.4548, 17.8877, 16.3809, -38.3664, -9.03995
3.8638, 5, 10.014, 24.7862, 17.7255, 15.6385, -38.9198, -8.43552
3.87175, 5, 9.66124, 25.113, 17.5701, 14.9135, -39.4791, -7.85709
3.88119, 5, 9.13181, 25.5937, 17.3487, 13.8567, -40.3285, -7.03596
3.88674, 5, 8.95458, 25.752, 17.2781, 13.5111, -40.6144, -6.77405
3.89575, 5, 8.59883, 26.0649, 17.1418, 12.8309, -41.1903, -6.2678
3.90275, 5, 8.24144, 26.3727, 17.0122, 12.1663, -41.7707, -5.7855
3.91175, 5, 7.88148, 26.6753, 16.8891, 11.5147, -42.3564, -5.32521
3.91985, 5, 7.51928, 26.9721, 16.7727, 10.8766, -42.9459, -4.88722
3.92875, 5, 7.15569, 27.2642, 16.6631, 10.251, -43.5381, -4.47045
3.93575, 5, 6.79132, 27.5509, 16.5602, 9.6362, -44.1335, -4.0748
3.94375, 5, 6.42691, 27.8315, 16.4641, 9.03432, -44.7323, -3.70036
3.95256, 5, 6.06205, 28.1067, 16.375, 8.44295, -45.3345, -3.34591
3.95875, 5, 5.69627, 28.3755, 16.2928, 7.86166, -45.9398, -3.011
3.96776, 5, 5.32924, 28.6386, 16.2177, 7.2911, -46.546, -2.69546
3.97813, 5, 4.77437, 29.0224, 16.1186, 6.4509, -47.457, -2.25675
3.98286, 5, 4.58845, 29.1467, 16.0892, 6.17533, -47.7617, -2.1194
3.99178, 5, 4.21538, 29.3907, 16.0356, 5.63051, -48.3724, -1.85773
3.99975, 5, 3.84205, 29.6285, 15.9894, 5.09315, -48.9843, -1.61347
4.00908, 5, 3.46944, 29.8593, 15.9506, 4.56323, -49.5963, -1.38627
4.01574, 5, 3.09682, 30.0838, 15.9196, 4.04051, -50.2074, -1.17512
4.02378, 5, 2.72428, 30.3029, 15.8965, 3.52433, -50.8179, -0.979812
4.03186, 5, 2.35091, 30.516, 15.8812, 3.01364, -51.4288, -0.799656
4.03975, 5, 1.97545, 30.7235, 15.8738, 2.50962, -52.0406, -0.632595
4.0478, 5, 1.59775, 30.9268, 15.874, 2.01252, -52.6541, -0.475282
4.05583, 5, 1.21858, 31.126, 15.8824, 1.52235, -53.2716, -0.321478
4.06374, 6, 0.839792, 31.3203, 15.8995, 1.04085, -53.8966, -0.164715
4.07177, 6, 0.461816, 31.5101, 15.9254, 0.569607, -54.532, 0.0022643
4.07984, 6, 0.0843324, 31.6964, 15.9599, 0.10852, -55.1819, 0.183827
4.08781, 6, -0.292993, 31.8788, 16.0032, -0.341882, -55.8483, 0.381628
4.09577, 6, -0.670709, 32.0564, 16.0548, -0.781147, -56.5307, 0.593787
4.10389, 6, -1.04885, 32.23, 16.1149, -1.21011, -57.2256, 0.815081
4.11179, 6, -1.42873, 32.4009, 16.183, -1.63038, -57.9315, 1.03929
4.11979, 6, -1.80984, 32.569, 16.2593, -2.04303, -58.6471, 1.26011
4.12787, 6, -2.1906, 32.7334, 16.3435, -2.44957, -59.3699, 1.4722
4.13589, 6, -2.5702, 32.894, 16.4357, -2.85057, -60.0972, 1.67253
4.14391, 6, -2.94779, 33.051, 16.5355, -3.24701, -60.8264, 1.85922
4.15193, 6, -3.32402, 33.2033, 16.643, -3.63965, -61.5582, 2.03189
4.1599, 6, -3.69966, 33.3504, 16.7582, -4.02871, -62.2937, 2.19086
4.1679, 6, -4.07592, 33.4922, 16.8811, -4.41445, -63.0316, 2.3356
4.1758, 6, -4.45428, 33.6287, 17.0114, -4.79688, -63.7706, 2.46654
4.18381, 6, -4.83363, 33.7599, 17.1487, -5.17696, -64.5102, 2.58337
4.19181, 6, -5.21239, 33.8857, 17.2932, -5.55461, -65.251, 2.68637
4.20018, 6, -5.58966, 34.0056, 17.4455, -5.93004, -65.9933, 2.77547
4.20679, 6, -5.7776, 34.0634, 17.5245, -6.11717, -66.3649, 2.81518
4.21598, 6, -6.34064, 34.2283, 17.7723, -6.6762, -67.479, 2.91299
4.22277, 6, -6.52815, 34.2803, 17.8584, -6.86205, -67.8499, 2.93918
4.2322, 6, -7.09097, 34.4279, 18.1284, -7.41862, -68.9618, 2.99886
4.23873, 6, -7.27922, 34.4743, 18.2225, -7.60374, -69.3329, 3.01225
4.24837, 6, -7.84514, 34.6044, 18.5153, -8.15862, -70.4448, 3.03416
4.25639, 6, -8.22236, 34.6838, 18.7199, -8.52849, -71.1826, 3.0351
4.26523, 6, -8.59791, 34.7573, 18.9334, -8.89847, -71.9187, 3.022
4.27079, 6, -8.78487, 34.7917, 19.0431, -9.08355, -72.2865, 3.01035
4.28043, 6, -9.34361, 34.8857, 19.3828, -9.64003, -73.3872, 2.95614
4.28915, 6, -9.52933, 34.914, 19.5002, -9.82581, -74.1177, 2.905
4.29486, 6, -9.90082, 34.9658, 19.7405, -10.1983, -74.4817, 2.87479
4.30379, 6, -10.2731, 35.011, 19.9877, -10.5722, -75.2074, 2.80445
4.31177, 6, -10.6465, 35.0497, 20.2432, -10.9472, -75.9299, 2.72269
4.31883, 6, -11.0205, 35.0818, 20.506, -11.3241, -76.6492, 2.62832
4.32778, 6, -11.3935, 35.1073, 20.7769, -11.7026, -77.3656, 2.52201
4.33573, 6, -11.7647, 35.1262, 21.0557, -12.083, -78.077, 2.40353
4.34279, 6, -12.1343, 35.1381, 21.3416, -12.4657, -78.7825, 2.27338
4.35178, 6, -12.5023, 35.1431, 21.6359, -12.8506, -79.4841, 2.13108
4.35974, 6, -12.87, 35.1414, 21.9377, -13.2382, -80.1819, 1.97748
4.36773, 6, -13.2378, 35.1331, 22.2478, -13.6284, -80.8747, 1.81231
4.37577, 6, -13.6056, 35.1175, 22.5652, -14.0217, -81.5604, 1.63574
4.38374, 6, -13.9716, 35.0946, 22.8904, -14.418, -82.2391, 1.44794
4.39173, 6, -14.3327, 35.0648, 23.2222, -14.8159, -82.9108, 1.24938
4.3998, 6, -14.6868, 35.0285, 23.5599, -15.2146, -83.573, 1.04121
4.40771, 6, -15.0326, 34.986, 23.9005, -15.6119, -84.2215, 0.825195
4.41571, 6, -15.369, 34.9383, 24.2424, -16.005, -84.852, 0.603355
4.42475, 6, -15.6951, 34.8861, 24.5818, -16.3907, -85.4593, 0.377551
4.43173, 6, -16.0098, 34.8304, 24.9154, -16.7656, -86.039, 0.150955
4.43973, 6, -16.313, 34.7723, 25.2386, -17.1262, -86.5877, -0.0737466
4.44779, 6, -16.6042, 34.7126, 25.5499, -17.4703, -87.1023, -0.29354
4.45572, 6, -16.8814, 34.6523, 25.8463, -17.7954, -87.581, -0.506119
4.46374, 6, -17.141, 34.5923, 26.1265, -18.1, -88.0223, -0.7097
4.47175, 6, -17.3795, 34.5336, 26.3885, -18.3829, -88.4258, -0.902505
4.47977, 6, -17.596, 34.4773, 26.6307, -18.6426, -88.7914, -1.083
4.48775, 6, -17.7912, 34.4245, 26.8532, -18.8789, -89.1194, -1.24973
4.49579, 6, -17.9649, 34.3757, 27.0538, -19.0908, -89.4097, -1.4009
4.50374, 6, -18.1172, 34.3313, 27.2315, -19.2778, -89.6634, -1.53602
4.51172, 6, -18.2489, 34.292, 27.3872, -19.4394, -89.8809, -1.65396
4.5198, 6, -18.3616, 34.2578, 27.5195, -19.5754, -90.0629, -1.75403
4.52772, 6, -18.4566, 34.2288, 27.6289, -19.6868, -90.2109, -1.83733
4.53573, 6, -18.5352, 34.2049, 27.7168, -19.7743, -90.3277, -1.90298
4.5438, 6, -18.5989, 34.1857, 27.7845, -19.8411, -90.4158, -1.95373
4.55171, 6, -18.6497, 34.1705, 27.8345, -19.8889, -90.48, -1.99119
4.55973, 6, -18.6889, 34.1591, 27.8702, -19.9216, -90.5236, -2.0175
4.56779, 6, -18.718, 34.151, 27.8943, -19.9428, -90.5519, -2.03464
4.57568, 6, -18.7395, 34.1455, 27.9101, -19.9555, -90.5689, -2.04508
4.58374, 6, -18.7547, 34.1417, 27.9204, -19.9625, -90.5784, -2.05091
4.59183, 6, -18.7646, 34.139, 27.9267, -19.9659, -90.5833, -2.05397
4.59969, 7, -18.7703, 34.137, 27.9306, -19.9676, -90.5856, -2.05557
4.60772, 7, -18.7733, 34.1355, 27.9332, -19.9685, -90.5867, -2.05628
4.61584, 7, -18.7746, 34.1343, 27.9351, -19.9688, -90.5872, -2.05664
4.6238, 7, -18.7747, 34.1334, 27.9366, -19.969, -90.5874, -2.05679
4.63182, 7, -18.7746, 34.1328, 27.938, -19.9691, -90.5875, -2.05694
4.63989, 7, -18.7745, 34.1324, 27.9392, -19.9691, -90.5875, -2.05695
4.64785, 7, -18.7744, 34.1322, 27.9403, -19.9692, -90.5875, -2.05695
4.65586, 7, -18.7744, 34.1321, 27.9411, -19.9692, -90.5876, -2.05701
4.6639, 7, -18.7744, 34.132, 27.9418, -19.9692, -90.5875, -2.05702
4.67172, 7, -18.7743, 34.132, 27.9423, -19.9692, -90.5874, -2.05696
4.67975, 7, -18.7744, 34.132, 27.9428, -19.9692, -90.5874, -2.05693
4.68794, 7, -18.7744, 34.132, 27.9432, -19.9692, -90.5873, -2.05687
4.69576, 7, -18.7744, 34.1319, 27.9435, -19.9691, -90.5873, -2.05684
4.70382, 7, -18.7746, 34.1318, 27.9437, -19.9691, -90.5872, -2.05684
4.71195, 7, -18.7747, 34.1315, 27.9438, -19.9691, -90.5872, -2.05685
4.72034, 7, -18.7748, 34.1312, 27.9439, -19.9691, -90.587, -2.05681
