hehonglu123/ABB_Primitive_Study/realrobot/movec_30_ori/curve_exe_v50_z20.csv
timestamp, cmd_num, J1, J2, J3, J4, J5, J6
0.000375, -1, -11.8233, 27.6363, 43.2535, -10.4209, -101.239, 3.92122
0.004334, -1, -11.8233, 27.6363, 43.2535, -10.4209, -101.239, 3.92121
0.008051, -1, -11.8233, 27.6363, 43.2535, -10.4209, -101.239, 3.92123
0.026679, -1, -11.8233, 27.6363, 43.2535, -10.4209, -101.239, 3.92119
0.029572, -1, -11.8233, 27.6363, 43.2535, -10.4209, -101.239, 3.92116
0.03181, -1, -11.8233, 27.6363, 43.2535, -10.4208, -101.239, 3.92112
0.040544, -1, -11.8233, 27.6363, 43.2535, -10.4209, -101.239, 3.92113
0.047776, -1, -11.8232, 27.6363, 43.2535, -10.4208, -101.239, 3.92115
0.057204, -1, -11.822, 27.6361, 43.2535, -10.4208, -101.239, 3.92113
0.063806, -1, -11.8205, 27.6349, 43.2533, -10.4207, -101.239, 3.92106
0.072733, -1, -11.8108, 27.632, 43.2525, -10.419, -101.236, 3.92048
0.079203, -1, -11.8053, 27.6297, 43.2515, -10.4166, -101.232, 3.91933
0.088319, -1, -11.7792, 27.6182, 43.2445, -10.3989, -101.206, 3.90729
0.095253, -1, -11.7662, 27.6124, 43.2399, -10.3875, -101.19, 3.89945
0.103202, -1, -11.7317, 27.5976, 43.2256, -10.352, -101.139, 3.87544
0.111211, -1, -11.686, 27.5785, 43.2029, -10.2956, -101.057, 3.83729
0.121123, -1, -11.5952, 27.5414, 43.1476, -10.1608, -100.859, 3.74446
0.128538, -1, -11.5183, 27.511, 43.0953, -10.0332, -100.67, 3.65615
0.135202, -1, -11.4747, 27.4938, 43.0645, -9.9579, -100.559, 3.60425
0.145518, -1, -11.3243, 27.4348, 42.9544, -9.68912, -100.161, 3.41785
0.151252, -1, -11.268, 27.4128, 42.9125, -9.58661, -100.009, 3.34683
0.159249, -1, -11.1462, 27.3654, 42.8222, -9.36608, -99.6818, 3.19372
0.169548, -1, -10.9422, 27.2852, 42.6742, -9.00582, -99.1456, 2.94381
0.175276, -1, -10.8692, 27.2566, 42.6223, -8.87999, -98.9584, 2.8565
0.184818, -1, -10.6399, 27.1665, 42.4616, -8.491, -98.3794, 2.58683
0.192764, -1, -10.5609, 27.1353, 42.3517, -8.22545, -97.9839, 2.40227
0.20098, -1, -10.3997, 27.0717, 42.2962, -8.09134, -97.784, 2.21523
0.207202, -1, -10.2353, 27.0068, 42.1846, -7.82126, -97.3815, 2.12102
0.216272, -1, -10.0692, 26.9411, 42.0722, -7.54944, -96.9759, 1.93179
0.224261, -1, -9.90163, 26.8749, 41.959, -7.27611, -96.5678, 1.74165
0.232207, -1, -9.73355, 26.8086, 41.845, -7.00103, -96.1578, 1.55058
0.239264, -1, -9.56509, 26.742, 41.7304, -6.7249, -95.7455, 1.35857
0.247194, -1, -9.39655, 26.6753, 41.6155, -6.44753, -95.3319, 1.16549
0.255277, -1, -9.22823, 26.6084, 41.5002, -6.16881, -94.9162, 0.971738
0.263196, -1, -9.05966, 26.5413, 41.3845, -5.88894, -94.499, 0.777216
0.271213, -1, -8.89025, 26.474, 41.2683, -5.60797, -94.0801, 0.582149
0.279266, -1, -8.71988, 26.4064, 41.1513, -5.3257, -93.6593, 0.386158
0.287194, -1, -8.54819, 26.3382, 41.0338, -5.04234, -93.2369, 0.189404
0.295211, -1, -8.37515, 26.2697, 40.9159, -4.75798, -92.8123, -0.00834417
0.30327, -1, -8.20115, 26.2007, 40.7977, -4.47248, -92.3859, -0.206668
0.311203, -1, -8.02589, 26.1312, 40.679, -4.18596, -91.9586, -0.405758
0.319275, -1, -7.84942, 26.0615, 40.5599, -3.89864, -91.5297, -0.605463
0.327267, -1, -7.67205, 25.9916, 40.44, -3.61015, -91.0997, -0.806098
0.335199, -1, -7.49398, 25.9214, 40.3198, -3.32062, -90.6682, -1.00743
0.343202, -1, -7.31528, 25.851, 40.1992, -3.03028, -90.2349, -1.20964
0.351283, -1, -7.13631, 25.7807, 40.0783, -2.7389, -89.8001, -1.41204
0.359259, -1, -6.9572, 25.7103, 39.9572, -2.44657, -89.3634, -1.61508
0.368516, -1, -6.77834, 25.6398, 39.8356, -2.15345, -88.9255, -1.8187
0.376265, -1, -6.5995, 25.5691, 39.7137, -1.8593, -88.4871, -2.02295
0.383278, -1, -6.42105, 25.4983, 39.5916, -1.56442, -88.0479, -2.22786
0.391252, -1, -6.24293, 25.4271, 39.4692, -1.26918, -87.6076, -2.43324
0.400203, -1, -6.06441, 25.3558, 39.3464, -0.973122, -87.1663, -2.63887
0.407311, -1, -5.88546, 25.2843, 39.2233, -0.676613, -86.7239, -2.84504
0.415467, -1, -5.70585, 25.2125, 39.1, -0.379849, -86.2806, -3.05155
0.424324, -1, -5.52547, 25.1405, 38.9765, -0.0820285, -85.8366, -3.25874
0.431416, -1, -5.34423, 25.0683, 38.8528, 0.215935, -85.3919, -3.46595
0.439652, -1, -5.16198, 24.9961, 38.729, 0.514105, -84.9469, -3.67323
0.447372, -1, -4.97889, 24.9239, 38.605, 0.812828, -84.5013, -3.88059
0.455212, -1, -4.79527, 24.8517, 38.4808, 1.1115, -84.0555, -4.08827
0.463831, -1, -4.61148, 24.7796, 38.3567, 1.41043, -83.6094, -4.29614
0.472198, -1, -4.42755, 24.7073, 38.2325, 1.70989, -83.1628, -4.50444
0.47923, -1, -4.24354, 24.6352, 38.1084, 2.00925, -82.7162, -4.71249
0.488208, -1, -4.05993, 24.5631, 37.9842, 2.30868, -82.2694, -4.92037
0.495437, -1, -3.87675, 24.4909, 37.86, 2.60807, -81.8222, -5.12838
0.503398, -1, -3.69426, 24.4187, 37.7357, 2.90703, -81.3759, -5.33634
0.512251, -1, -3.51264, 24.3465, 37.6116, 3.20599, -80.93, -5.54446
0.520199, -1, -3.3316, 24.2743, 37.4875, 3.50499, -80.4847, -5.75206
0.527628, -1, -3.15135, 24.2021, 37.3637, 3.8034, -80.0401, -5.95941
0.536349, -1, -2.97178, 24.1301, 37.2399, 4.10145, -79.5956, -6.16634
0.543766, -1, -2.79233, 24.0582, 37.1162, 4.39896, -79.1513, -6.37314
0.552474, -1, -2.61298, 23.9863, 36.9929, 4.69576, -78.7078, -6.57961
0.560514, -1, -2.43327, 23.9147, 36.87, 4.99225, -78.2651, -6.7859
0.56783, -1, -2.25294, 23.8433, 36.7472, 5.28826, -77.8241, -6.99153
0.576418, -1, -2.07263, 23.7721, 36.6248, 5.58318, -77.3841, -7.1967
0.583181, -1, -1.98247, 23.7366, 36.5636, 5.73033, -77.1645, -7.2991
0.5932, -1, -1.71238, 23.6303, 36.3806, 6.17053, -76.5079, -7.60559
0.599185, -1, -1.62243, 23.595, 36.3198, 6.31674, -76.2895, -7.70757
0.608254, -1, -1.35288, 23.4895, 36.1381, 6.75406, -75.6363, -8.01187
0.615254, -1, -1.26329, 23.4544, 36.0778, 6.89947, -75.4194, -8.11289
0.624484, -1, -0.996101, 23.3496, 35.8975, 7.33398, -74.7708, -8.41473
0.631182, -1, -0.907728, 23.3148, 35.8376, 7.47819, -74.5557, -8.515
0.641188, -1, -0.644616, 23.2106, 35.6586, 7.90927, -73.9126, -8.81461
0.647195, -1, -0.557469, 23.1759, 35.5992, 8.05236, -73.6991, -8.91424
0.656709, -1, -0.297866, 23.0726, 35.4216, 8.47982, -73.0614, -9.21125
0.663225, -1, -0.211993, 23.0383, 35.3627, 8.62183, -72.8498, -9.30982
0.672819, -1, 0.0436997, 22.9359, 35.1869, 9.04557, -72.2178, -9.60427
0.680741, -1, 0.212921, 22.8679, 35.0702, 9.32607, -71.799, -9.79937
0.687312, -1, 0.297338, 22.8341, 35.0121, 9.46592, -71.5903, -9.89659
0.69703, -1, 0.550455, 22.7332, 34.8387, 9.88268, -70.9678, -10.1868
0.703171, -1, 0.634747, 22.6998, 34.7812, 10.021, -70.7614, -10.2829
0.711253, -1, 0.803144, 22.6333, 34.6669, 10.2969, -70.3502, -10.4744
0.720194, -1, 0.971158, 22.5672, 34.5531, 10.5709, -69.9416, -10.6647
0.728186, -1, 1.13821, 22.5013, 34.4398, 10.8434, -69.5352, -10.8542
0.736304, -1, 1.30479, 22.4357, 34.3273, 11.1143, -69.1307, -11.0426
0.743183, -1, 1.4708, 22.3705, 34.2153, 11.3838, -68.7284, -11.2303
0.751243, -1, 1.63615, 22.3056, 34.104, 11.6517, -68.3282, -11.4165
0.759178, -1, 1.80046, 22.2412, 33.9934, 11.9181, -67.9302, -11.6016
0.767178, -1, 1.96334, 22.177, 33.8834, 12.1833, -67.5351, -11.7858
0.775235, -1, 2.12458, 22.1133, 33.7739, 12.4467, -67.1423, -11.9689
0.783174, -1, 2.28449, 22.0498, 33.6651, 12.7082, -66.7521, -12.1512
0.791184, -1, 2.44304, 21.9869, 33.557, 12.9684, -66.3644, -12.3322
0.799242, -1, 2.60012, 21.9243, 33.4496, 13.2267, -65.9786, -12.512
0.807191, -1, 2.75582, 21.8622, 33.3431, 13.4835, -65.5953, -12.6904
0.815243, -1, 2.91009, 21.8005, 33.2371, 13.7392, -65.2142, -12.8678
0.823246, -1, 3.06304, 21.739, 33.1317, 13.9927, -64.8355, -13.044
0.831177, -1, 3.21537, 21.678, 33.0268, 14.2446, -64.4594, -13.2192
0.839243, -1, 3.36749, 21.6174, 32.9227, 14.4951, -64.0856, -13.3936
0.847181, -1, 3.51907, 21.5572, 32.8194, 14.7439, -63.7143, -13.5666
0.855243, -1, 3.67026, 21.4973, 32.7168, 14.9912, -63.3453, -13.7384
0.863207, -1, 3.82084, 21.4379, 32.6149, 15.2369, -62.9788, -13.9091
0.871176, -1, 3.97045, 21.3787, 32.5134, 15.481, -62.6147, -14.0787
0.879249, -1, 4.11952, 21.3201, 32.4124, 15.7236, -62.2529, -14.2473
0.887203, -1, 4.26803, 21.2619, 32.3123, 15.9642, -61.8934, -14.4148
0.895178, -1, 4.41563, 21.2041, 32.2129, 16.2036, -61.536, -14.5814
0.903384, -1, 4.56238, 21.1466, 32.1144, 16.4415, -61.1808, -14.7466
0.911258, -1, 4.70815, 21.0897, 32.0165, 16.6775, -60.8279, -14.9108
0.919263, -1, 4.85234, 21.033, 31.9191, 16.912, -60.4777, -15.0736
0.927362, -1, 4.9949, 20.9766, 31.8221, 17.1453, -60.1298, -15.2358
0.935282, -1, 5.1364, 20.9205, 31.7257, 17.3769, -59.7841, -15.3968
0.943281, -1, 5.27674, 20.8647, 31.63, 17.6071, -59.4411, -15.557
0.951367, -1, 5.41554, 20.8092, 31.5352, 17.8356, -59.1002, -15.7161
0.959185, -1, 5.55311, 20.7541, 31.4411, 18.0631, -58.7611, -15.874
0.967203, -1, 5.68945, 20.6993, 31.3474, 18.289, -58.4242, -16.0309
0.975532, -1, 5.82462, 20.6448, 31.2541, 18.5132, -58.0891, -16.1871
0.983213, -1, 5.95915, 20.5907, 31.1612, 18.7361, -57.756, -16.3423
0.991417, -1, 6.09351, 20.5371, 31.0689, 18.9579, -57.4249, -16.4966
0.999499, -1, 6.2276, 20.4839, 30.9775, 19.1781, -57.0961, -16.6501
1.00741, -1, 6.36141, 20.431, 30.8868, 19.397, -56.7696, -16.8024
1.01547, -1, 6.49479, 20.3785, 30.7968, 19.6145, -56.4451, -16.9537
1.02394, -1, 6.62754, 20.3264, 30.7071, 19.8307, -56.1229, -17.1038
1.03229, -1, 6.75958, 20.2744, 30.6178, 20.0455, -55.8025, -17.253
1.03965, -1, 6.89095, 20.2228, 30.5288, 20.2586, -55.4841, -17.4015
1.04783, -1, 7.02182, 20.1713, 30.4405, 20.4708, -55.1674, -17.549
1.0564, -1, 7.15201, 20.1202, 30.3529, 20.682, -54.8524, -17.6956
1.06373, -1, 7.28108, 20.0693, 30.266, 20.8917, -54.5392, -17.8416
1.07237, -1, 7.40891, 20.0186, 30.1796, 21.1002, -54.2279, -17.9865
1.07972, -1, 7.4725, 19.9935, 30.1366, 21.2039, -54.073, -18.1306
1.08819, -1, 7.66186, 19.9184, 30.008, 21.5133, -53.6112, -18.2737
1.09517, -1, 7.7245, 19.8934, 29.9653, 21.6159, -53.4582, -18.3449
1.10316, -1, 7.84901, 19.844, 29.8803, 21.82, -53.1535, -18.4868
1.11232, -1, 8.03443, 19.7705, 29.7538, 22.124, -52.6999, -18.6982
1.11917, -1, 8.0958, 19.7461, 29.712, 22.2248, -52.5496, -18.7682
1.12718, -1, 8.21783, 19.6977, 29.6288, 22.4258, -52.2501, -18.908
1.13659, -1, 8.39912, 19.6254, 29.5049, 22.7247, -51.8042, -19.1156
1.14317, -1, 8.4592, 19.6015, 29.4638, 22.8237, -51.6565, -19.1844
1.15258, -1, 8.63838, 19.5299, 29.341, 23.1192, -51.2154, -19.3898
1.15924, -1, 8.6978, 19.5062, 29.3003, 23.2172, -51.0692, -19.4576
1.16719, -1, 8.81627, 19.4589, 29.2192, 23.4122, -50.778, -19.5932
1.17521, -1, 8.93437, 19.4119, 29.1385, 23.606, -50.4883, -19.728
1.18479, -1, 9.11056, 19.3417, 29.0185, 23.8947, -50.0571, -19.9288
1.19306, -1, 9.22752, 19.2953, 28.9391, 24.0862, -49.7715, -20.062
1.19923, -1, 9.2859, 19.2722, 28.8996, 24.1816, -49.6292, -20.1284
1.20883, -1, 9.40232, 19.2262, 28.8209, 24.4657, -49.2051, -20.326
1.21618, -1, 9.51819, 19.1805, 28.7426, 24.56, -49.0646, -20.3915
1.22324, -1, 9.63335, 19.1351, 28.6646, 24.7475, -48.7848, -20.5219
1.23223, -1, 9.748, 19.09, 28.587, 24.9343, -48.5065, -20.6517
1.24018, -1, 9.86205, 19.0453, 28.5097, 25.1201, -48.2292, -20.7809
1.24817, -1, 9.97547, 19.0008, 28.4329, 25.3049, -47.9534, -20.9094
1.25619, -1, 10.0882, 18.9564, 28.3566, 25.4887, -47.679, -21.0374
1.26424, -1, 10.2003, 18.9122, 28.2807, 25.6717, -47.4057, -21.1648
1.27117, -1, 10.3119, 18.8682, 28.2053, 25.854, -47.1336, -21.2916
1.27916, -1, 10.4227, 18.8243, 28.1301, 26.0352, -46.8631, -21.4173
1.28724, -1, 10.5329, 18.7806, 28.0553, 26.2154, -46.5941, -21.5426
1.29516, -1, 10.6424, 18.7371, 27.9807, 26.3947, -46.3266, -21.6671
1.42793, -1, 12.3732, 18.0499, 26.8019, 29.2343, -42.0898, -23.641
1.42937, -1, 12.3732, 18.0499, 26.8019, 29.2343, -42.0898, -23.641
1.4322, -1, 12.4239, 18.0297, 26.7675, 29.3172, -41.9664, -23.6986
1.43345, -1, 12.4239, 18.0297, 26.7675, 29.3172, -41.9664, -23.6986
1.43555, -1, 12.4745, 18.0097, 26.7332, 29.3999, -41.8432, -23.7559
1.43674, -1, 12.4745, 18.0097, 26.7332, 29.3999, -41.8432, -23.7559
1.43852, -1, 12.4745, 18.0097, 26.7332, 29.3999, -41.8432, -23.7559
1.44286, -1, 12.5753, 17.9697, 26.6648, 29.5647, -41.5976, -23.8704
1.4443, -1, 12.5753, 17.9697, 26.6648, 29.5647, -41.5976, -23.8704
1.44548, -1, 12.5753, 17.9697, 26.6648, 29.5647, -41.5976, -23.8704
1.44746, -1, 12.6257, 17.9498, 26.6307, 29.6468, -41.4752, -23.9272
1.44866, -1, 12.6257, 17.9498, 26.6307, 29.6468, -41.4752, -23.9272
1.44993, -1, 12.6257, 17.9498, 26.6307, 29.6468, -41.4752, -23.9272
1.45188, -1, 12.6759, 17.9299, 26.5967, 29.7286, -41.3529, -23.984
1.45322, -1, 12.6759, 17.9299, 26.5967, 29.7286, -41.3529, -23.984
1.45676, -1, 12.7259, 17.9101, 26.5627, 29.8103, -41.2309, -24.041
1.45797, -1, 12.7259, 17.9101, 26.5627, 29.8103, -41.2309, -24.041
1.46027, -1, 12.7759, 17.8903, 26.5288, 29.8918, -41.1092, -24.0976
1.46145, -1, 12.7759, 17.8903, 26.5288, 29.8918, -41.1092, -24.0976
1.46347, -1, 12.8257, 17.8706, 26.495, 29.9732, -40.9878, -24.1541
1.46468, -1, 12.8257, 17.8706, 26.495, 29.9732, -40.9878, -24.1541
1.47126, -1, 12.925, 17.8314, 26.4277, 30.1356, -40.7455, -24.2669
1.48013, -1, 13.0238, 17.7923, 26.3606, 30.2972, -40.5043, -24.3792
1.4872, -1, 13.1221, 17.7534, 26.2939, 30.458, -40.2641, -24.4911
1.49554, -1, 13.2198, 17.7147, 26.2275, 30.6182, -40.0249, -24.6027
1.50421, -1, 13.317, 17.6762, 26.1614, 30.7777, -39.7868, -24.7134
1.51144, -1, 13.4139, 17.6378, 26.0955, 30.9367, -39.5496, -24.824
1.5196, -1, 13.5104, 17.5995, 26.0298, 31.0951, -39.3134, -24.9341
1.5284, -1, 13.6067, 17.5615, 25.9643, 31.2526, -39.0781, -25.0437
1.53561, -1, 13.7026, 17.5235, 25.899, 31.4096, -38.8439, -25.153
1.54372, -1, 13.7981, 17.4856, 25.834, 31.5659, -38.6105, -25.2617
1.55259, -1, 13.8931, 17.4479, 25.7693, 31.7216, -38.3782, -25.3702
1.55977, -1, 13.9879, 17.4103, 25.7049, 31.8768, -38.147, -25.4783
1.56827, -1, 14.0824, 17.3728, 25.6408, 32.0314, -37.9167, -25.586
1.57664, -1, 14.1296, 17.3541, 25.6088, 32.1853, -37.6872, -25.6934
1.58368, -1, 14.2235, 17.3168, 25.545, 32.262, -37.5727, -25.7468
1.59217, -1, 14.3635, 17.2611, 25.4498, 32.4914, -37.2301, -25.9063
1.59922, -1, 14.41, 17.2427, 25.4181, 32.5676, -37.1165, -25.9592
1.6082, -1, 14.5486, 17.1875, 25.3236, 32.7957, -36.7765, -26.1172
1.61519, -1, 14.5946, 17.1692, 25.2922, 32.8714, -36.6636, -26.1696
1.62513, -1, 14.7319, 17.1145, 25.1982, 33.0974, -36.3262, -26.3267
1.63114, -1, 14.7775, 17.0963, 25.167, 33.1725, -36.2141, -26.3787
1.64042, -1, 14.9139, 17.0419, 25.0739, 33.3968, -35.8791, -26.5346
1.64714, -1, 14.9593, 17.0239, 25.0429, 33.4714, -35.7679, -26.5865
1.6552, -1, 15.0499, 16.9881, 24.9812, 33.6202, -35.546, -26.6901
1.66472, -1, 15.1852, 16.9344, 24.8892, 33.8422, -35.2149, -26.8444
1.6735, -1, 15.2752, 16.8987, 24.8281, 33.9894, -34.9951, -26.9467
1.67927, -1, 15.3201, 16.881, 24.7977, 34.0628, -34.8856, -26.9978
1.68872, -1, 15.4546, 16.8279, 24.7065, 34.2823, -34.5583, -27.1503
1.69762, -1, 15.4993, 16.7926, 24.6459, 34.4283, -34.3407, -27.2514
1.70322, -1, 15.5886, 16.7751, 24.6157, 34.501, -34.2321, -27.3017
1.71274, -1, 15.6776, 16.74, 24.5554, 34.6461, -33.9075, -27.4528
1.72015, -1, 15.7662, 16.7051, 24.4953, 34.7907, -33.7998, -27.5029
1.72722, -1, 15.8544, 16.6702, 24.4355, 34.9347, -33.5848, -27.6032
1.73514, -1, 15.9424, 16.6354, 24.3759, 35.0781, -33.3702, -27.7031
1.74314, -1, 16.03, 16.6008, 24.3165, 35.2212, -33.1566, -27.8029
1.75121, -1, 16.1171, 16.5661, 24.2574, 35.3639, -32.9437, -27.9023
1.75921, -1, 16.2038, 16.5316, 24.1984, 35.5062, -32.7316, -28.0012
1.76715, -1, 16.2902, 16.4973, 24.1396, 35.6478, -32.5202, -28.0996
1.77514, -1, 16.3763, 16.4632, 24.081, 35.789, -32.3095, -28.1977
1.78314, -1, 16.4621, 16.429, 24.0225, 35.9298, -32.0994, -28.2957
1.79121, -1, 16.5475, 16.3951, 23.9643, 36.0702, -31.8901, -28.3929
1.79921, -1, 16.6326, 16.3612, 23.9062, 36.2104, -31.6814, -28.4903
1.80714, -1, 16.7177, 16.3275, 23.8483, 36.35, -31.4734, -28.5872
1.81521, -1, 16.8025, 16.2939, 23.7906, 36.4891, -31.2661, -28.684
1.82314, -1, 16.8873, 16.2604, 23.7331, 36.6276, -31.0593, -28.7801
1.83121, -1, 16.9717, 16.227, 23.6758, 36.7657, -30.8531, -28.8767
1.83927, -1, 17.0559, 16.1936, 23.6187, 36.9035, -30.6474, -28.9722
1.84714, -1, 17.1397, 16.1605, 23.5618, 37.0409, -30.4425, -29.068
1.85514, -1, 17.2224, 16.1276, 23.505, 37.1778, -30.2383, -29.163
1.8632, -1, 17.303, 16.0957, 23.4486, 37.314, -30.0349, -29.2578
1.87114, -1, 17.3805, 16.0652, 23.3926, 37.4488, -29.8335, -29.3513
1.87921, -1, 17.4536, 16.0366, 23.3377, 37.5805, -29.6365, -29.4433
1.88721, -1, 17.5221, 16.0104, 23.2848, 37.7073, -29.4468, -29.5312
1.89517, -1, 17.5847, 15.9868, 23.2352, 37.8258, -29.2694, -29.6142
1.90315, -1, 17.6407, 15.966, 23.1904, 37.9328, -29.1089, -29.6885
1.91124, -1, 17.6905, 15.9475, 23.1519, 38.0248, -28.9707, -29.7531
1.91931, -1, 17.7343, 15.93, 23.1207, 38.0995, -28.858, -29.8058
1.92723, -1, 17.7726, 15.9138, 23.0969, 38.1566, -28.7717, -29.846
1.9353, -1, 17.8048, 15.8999, 23.0801, 38.1963, -28.7105, -29.8745
1.94325, -1, 17.8311, 15.8885, 23.069, 38.2228, -28.6704, -29.8932
1.95141, -1, 17.8525, 15.8794, 23.0625, 38.2387, -28.6461, -29.9043
1.9594, -1, 17.8682, 15.8726, 23.059, 38.2475, -28.6326, -29.9102
1.96715, -1, 17.878, 15.8686, 23.0571, 38.2519, -28.6257, -29.9132
1.97525, 2, 17.8828, 15.8665, 23.0561, 38.254, -28.6225, -29.9146
1.98324, 2, 17.8849, 15.8655, 23.0556, 38.2549, -28.621, -29.9152
1.99138, 2, 17.8855, 15.865, 23.0554, 38.2554, -28.6203, -29.9155
1.99943, 2, 17.885, 15.8648, 23.0552, 38.2557, -28.62, -29.9157
2.00739, 2, 17.8841, 15.8647, 23.0552, 38.2558, -28.6199, -29.9157
2.01576, 2, 17.8835, 15.8647, 23.0552, 38.2558, -28.6198, -29.9157
2.02417, 2, 17.8831, 15.8646, 23.0551, 38.2559, -28.6198, -29.9158
2.03155, 2, 17.883, 15.8645, 23.055, 38.2558, -28.6198, -29.9157
2.04026, 2, 17.8829, 15.8644, 23.0549, 38.2558, -28.6198, -29.9157
2.04764, 2, 17.883, 15.8641, 23.0549, 38.2558, -28.6198, -29.9157
2.05572, 2, 17.8833, 15.8638, 23.0549, 38.2559, -28.6197, -29.9158
2.06433, 2, 17.8836, 15.8635, 23.0548, 38.2558, -28.6198, -29.9157
2.07171, 2, 17.8838, 15.8632, 23.0548, 38.2558, -28.6198, -29.9157
2.08025, 2, 17.8847, 15.8631, 23.0547, 38.2558, -28.6198, -29.9157
2.08834, 2, 17.8854, 15.8631, 23.0547, 38.2558, -28.6198, -29.9157
2.09513, 2, 17.8858, 15.8631, 23.0547, 38.2558, -28.6198, -29.9157
2.10426, 2, 17.8865, 15.8631, 23.0547, 38.2558, -28.6198, -29.9157
2.11113, 2, 17.8867, 15.8631, 23.0547, 38.2559, -28.6199, -29.9157
2.12025, 2, 17.8871, 15.8631, 23.0547, 38.2558, -28.6199, -29.9157
2.12718, 2, 17.8871, 15.8631, 23.0547, 38.2559, -28.6199, -29.9157
2.13677, 2, 17.8872, 15.8631, 23.0547, 38.2558, -28.6199, -29.9157
2.14446, 2, 17.8872, 15.8631, 23.0547, 38.2558, -28.6199, -29.9157
2.15118, 2, 17.8872, 15.863, 23.0547, 38.2558, -28.6199, -29.9157
2.16072, 2, 17.8872, 15.863, 23.0547, 38.2559, -28.62, -29.9157
2.16863, 2, 17.8871, 15.8629, 23.0546, 38.2559, -28.62, -29.9157
2.17664, 2, 17.8869, 15.8628, 23.0546, 38.2559, -28.62, -29.9157
2.18313, 2, 17.8868, 15.8628, 23.0546, 38.2559, -28.62, -29.9157
2.19117, 2, 17.8867, 15.8628, 23.0546, 38.2559, -28.62, -29.9157
2.20073, 2, 17.8866, 15.8628, 23.0546, 38.2559, -28.6201, -29.9157
2.20907, 2, 17.8867, 15.8628, 23.0546, 38.2559, -28.6201, -29.9157
2.21513, 2, 17.8866, 15.8628, 23.0546, 38.2559, -28.6201, -29.9157
2.22319, 2, 17.8866, 15.8628, 23.0546, 38.2559, -28.6201, -29.9157
2.23219, 2, 17.8866, 15.8628, 23.0546, 38.2559, -28.6202, -29.9157
2.2392, 2, 17.8866, 15.8628, 23.0546, 38.2559, -28.6202, -29.9156
2.24719, 2, 17.8866, 15.8628, 23.0546, 38.2559, -28.6202, -29.9157
2.25513, 2, 17.8866, 15.8628, 23.0546, 38.2559, -28.6202, -29.9157
2.26313, 2, 17.8866, 15.8628, 23.0546, 38.2559, -28.6202, -29.9157
2.27121, 2, 17.8866, 15.8628, 23.0546, 38.2558, -28.6202, -29.9156
2.27921, 2, 17.8866, 15.8628, 23.0546, 38.2559, -28.6202, -29.9156
2.28713, 2, 17.8866, 15.8628, 23.0546, 38.2559, -28.6202, -29.9156
2.29519, 2, 17.8866, 15.8627, 23.0546, 38.2559, -28.6202, -29.9156
2.30318, 2, 17.8865, 15.8628, 23.0546, 38.2558, -28.6203, -29.9156
2.31113, 2, 17.8865, 15.8628, 23.0546, 38.2558, -28.6203, -29.9156
2.31926, 2, 17.8865, 15.8628, 23.0546, 38.2558, -28.6203, -29.9156
2.32712, 2, 17.8864, 15.8628, 23.0546, 38.2559, -28.6203, -29.9156
2.3352, 2, 17.8865, 15.8628, 23.0546, 38.2559, -28.6203, -29.9156
2.34319, 2, 17.8865, 15.8628, 23.0546, 38.2559, -28.6204, -29.9156
2.35113, 2, 17.8864, 15.8628, 23.0546, 38.2559, -28.6204, -29.9156
2.35919, 2, 17.8864, 15.8628, 23.0546, 38.2558, -28.6204, -29.9155
2.36719, 2, 17.8864, 15.8628, 23.0546, 38.2558, -28.6205, -29.9155
2.37513, 2, 17.8863, 15.8628, 23.0546, 38.2558, -28.6205, -29.9156
2.38312, 2, 17.8863, 15.8628, 23.0546, 38.2559, -28.6205, -29.9156
2.39119, 2, 17.8863, 15.8628, 23.0546, 38.2558, -28.6205, -29.9156
2.39923, 2, 17.8863, 15.8628, 23.0546, 38.2559, -28.6205, -29.9155
2.40714, 2, 17.8863, 15.8628, 23.0546, 38.2558, -28.6206, -29.9155
2.41522, 2, 17.8863, 15.8628, 23.0546, 38.2558, -28.6205, -29.9155
2.42322, 2, 17.8863, 15.8628, 23.0546, 38.2558, -28.6206, -29.9155
2.43121, 2, 17.8863, 15.8628, 23.0546, 38.2558, -28.6206, -29.9155
2.43936, 2, 17.8863, 15.8628, 23.0546, 38.2557, -28.6206, -29.9155
2.44723, 2, 17.8863, 15.8628, 23.0546, 38.2557, -28.6206, -29.9155
2.45523, 2, 17.8862, 15.8628, 23.0546, 38.2558, -28.6206, -29.9155
2.4633, 2, 17.8862, 15.8628, 23.0546, 38.2558, -28.6206, -29.9155
2.47113, 2, 17.8862, 15.8629, 23.0546, 38.2558, -28.6207, -29.9155
2.47922, 2, 17.8861, 15.8628, 23.0546, 38.2557, -28.6207, -29.9155
2.48722, 2, 17.8861, 15.8628, 23.0546, 38.2557, -28.6207, -29.9155
2.49547, 2, 17.8861, 15.8628, 23.0546, 38.2557, -28.6208, -29.9155
2.50334, 2, 17.886, 15.8628, 23.0546, 38.2557, -28.6208, -29.9155
2.51137, 2, 17.886, 15.8628, 23.0546, 38.2557, -28.6208, -29.9155
2.51977, 2, 17.886, 15.8628, 23.0546, 38.2557, -28.6208, -29.9155
2.52813, 2, 17.8859, 15.8628, 23.0546, 38.2557, -28.6208, -29.9155
2.53556, 2, 17.8859, 15.8628, 23.0546, 38.2557, -28.6208, -29.9155
2.544, 2, 17.8858, 15.8628, 23.0546, 38.2557, -28.6208, -29.9155
2.55222, 2, 17.8858, 15.8628, 23.0546, 38.2557, -28.6208, -29.9155
2.55975, 2, 17.8857, 15.8628, 23.0546, 38.2557, -28.6208, -29.9155
2.5683, 2, 17.8857, 15.8629, 23.0546, 38.2557, -28.6209, -29.9154
2.57569, 2, 17.8857, 15.8629, 23.0546, 38.2557, -28.6208, -29.9154
2.58424, 2, 17.8856, 15.8628, 23.0546, 38.2557, -28.6209, -29.9154
2.59198, 2, 17.8856, 15.8628, 23.0546, 38.2557, -28.6209, -29.9154
2.60015, 2, 17.8856, 15.8628, 23.0546, 38.2556, -28.6209, -29.9153
2.60717, 2, 17.8856, 15.8629, 23.0546, 38.2556, -28.6209, -29.9153
2.61624, 2, 17.8855, 15.8629, 23.0546, 38.2556, -28.621, -29.9153
2.62311, 2, 17.8854, 15.8629, 23.0546, 38.2556, -28.621, -29.9153
2.63229, 2, 17.8854, 15.8628, 23.0546, 38.2556, -28.621, -29.9152
2.63918, 2, 17.8853, 15.8628, 23.0546, 38.2556, -28.621, -29.9152
2.64711, 2, 17.8853, 15.8628, 23.0546, 38.2555, -28.621, -29.9152
2.65648, 2, 17.8852, 15.8629, 23.0546, 38.2555, -28.621, -29.9151
2.66311, 2, 17.8852, 15.8629, 23.0546, 38.2555, -28.621, -29.9151
2.67119, 2, 17.8851, 15.8629, 23.0546, 38.2555, -28.621, -29.9151
2.68063, 2, 17.885, 15.8629, 23.0546, 38.2555, -28.621, -29.915
2.68901, 2, 17.885, 15.8629, 23.0546, 38.2555, -28.6211, -29.915
2.69667, 2, 17.8849, 15.8629, 23.0546, 38.2555, -28.6211, -29.9151
2.7047, 2, 17.8849, 15.8629, 23.0546, 38.2555, -28.6212, -29.9151
2.71306, 2, 17.8848, 15.8629, 23.0546, 38.2554, -28.6212, -29.915
2.71918, 2, 17.8848, 15.8629, 23.0546, 38.2555, -28.6212, -29.915
2.72811, 2, 17.8847, 15.8629, 23.0546, 38.2555, -28.6212, -29.915
2.73617, 2, 17.8847, 15.8629, 23.0546, 38.2554, -28.6212, -29.915
2.74311, 2, 17.8846, 15.8629, 23.0546, 38.2554, -28.6212, -29.915
2.75117, 2, 17.8846, 15.8629, 23.0546, 38.2554, -28.6212, -29.915
2.75918, 2, 17.8845, 15.8629, 23.0546, 38.2554, -28.6212, -29.9149
2.76711, 2, 17.8845, 15.8629, 23.0546, 38.2554, -28.6212, -29.9149
2.7762, 2, 17.8844, 15.8629, 23.0546, 38.2554, -28.6212, -29.9149
2.78418, 2, 17.8844, 15.8629, 23.0547, 38.2554, -28.6213, -29.9149
2.79111, 2, 17.8843, 15.8629, 23.0546, 38.2554, -28.6212, -29.9149
2.8001, 2, 17.8843, 15.8629, 23.0546, 38.2554, -28.6212, -29.9149
2.8071, 2, 17.8842, 15.8629, 23.0546, 38.2553, -28.6213, -29.9149
2.8151, 2, 17.8842, 15.8629, 23.0546, 38.2553, -28.6213, -29.9149
2.82413, 2, 17.8842, 15.8629, 23.0547, 38.2553, -28.6213, -29.9149
2.83218, 2, 17.8841, 15.8629, 23.0547, 38.2552, -28.6214, -29.9149
2.84013, 2, 17.8841, 15.8629, 23.0547, 38.2552, -28.6214, -29.9149
2.8481, 2, 17.8841, 15.8629, 23.0547, 38.2552, -28.6214, -29.9148
2.85618, 2, 17.884, 15.8629, 23.0546, 38.2552, -28.6213, -29.9149
2.86411, 2, 17.884, 15.8629, 23.0546, 38.2552, -28.6213, -29.9148
2.87117, 2, 17.884, 15.8629, 23.0547, 38.2552, -28.6213, -29.9148
2.87923, 2, 17.884, 15.8629, 23.0546, 38.2552, -28.6213, -29.9149
2.8871, 2, 17.8839, 15.8629, 23.0546, 38.2552, -28.6214, -29.9149
2.8961, 2, 17.8839, 15.8629, 23.0546, 38.2552, -28.6213, -29.9149
2.90419, 2, 17.8839, 15.8629, 23.0546, 38.2551, -28.6213, -29.9149
2.91113, 2, 17.8839, 15.8629, 23.0546, 38.2551, -28.6214, -29.9149
2.9193, 2, 17.8839, 15.8629, 23.0546, 38.2551, -28.6213, -29.9149
2.9272, 2, 17.8839, 15.8629, 23.0546, 38.2551, -28.6213, -29.9149
2.9352, 2, 17.8839, 15.8629, 23.0547, 38.255, -28.6214, -29.9148
2.94327, 2, 17.8839, 15.8629, 23.0547, 38.2551, -28.6214, -29.9148
2.95121, 2, 17.8839, 15.8629, 23.0546, 38.2551, -28.6214, -29.9148
2.95928, 2, 17.8839, 15.8629, 23.0547, 38.255, -28.6214, -29.9147
2.96728, 2, 17.8839, 15.8629, 23.0547, 38.2549, -28.6214, -29.9148
2.97541, 2, 17.8838, 15.8629, 23.0547, 38.2549, -28.6214, -29.9149
2.98419, 2, 17.8838, 15.863, 23.0547, 38.2549, -28.6214, -29.9149
2.9921, 2, 17.8838, 15.863, 23.0547, 38.2549, -28.6214, -29.9148
2.99933, 2, 17.8838, 15.863, 23.0547, 38.2549, -28.6214, -29.9148
3.00805, 2, 17.8838, 15.863, 23.0547, 38.2549, -28.6214, -29.9149
3.0161, 2, 17.8838, 15.8629, 23.0547, 38.2548, -28.6215, -29.9149
3.02348, 2, 17.8838, 15.8629, 23.0546, 38.2549, -28.6215, -29.9148
3.03197, 2, 17.8837, 15.8629, 23.0547, 38.2549, -28.6215, -29.9148
3.04014, 2, 17.8837, 15.8629, 23.0547, 38.2549, -28.6215, -29.9148
3.04764, 2, 17.8837, 15.8629, 23.0547, 38.2549, -28.6215, -29.9148
3.0565, 2, 17.8837, 15.863, 23.0547, 38.2548, -28.6215, -29.9148
3.06363, 4, 17.8837, 15.863, 23.0547, 38.2548, -28.6215, -29.9148
3.07222, 4, 17.8837, 15.863, 23.0547, 38.2548, -28.6215, -29.9148
3.0802, 4, 17.8837, 15.863, 23.0547, 38.2548, -28.6215, -29.9147
3.08764, 4, 17.8837, 15.863, 23.0547, 38.2547, -28.6215, -29.9148
3.0961, 4, 17.8837, 15.863, 23.0547, 38.2547, -28.6215, -29.9147
3.1031, 4, 17.8837, 15.863, 23.0547, 38.2547, -28.6215, -29.9147
3.11115, 4, 17.8837, 15.863, 23.0547, 38.2547, -28.6215, -29.9147
3.12015, 4, 17.8836, 15.863, 23.0547, 38.2547, -28.6215, -29.9146
3.1271, 4, 17.8836, 15.863, 23.0547, 38.2547, -28.6215, -29.9147
3.13629, 4, 17.8836, 15.863, 23.0547, 38.2546, -28.6215, -29.9147
3.14314, 4, 17.8836, 15.863, 23.0547, 38.2546, -28.6215, -29.9146
3.15285, 4, 17.8836, 15.863, 23.0547, 38.2546, -28.6215, -29.9147
3.16073, 4, 17.8836, 15.863, 23.0547, 38.2546, -28.6215, -29.9147
3.16895, 4, 17.8836, 15.863, 23.0547, 38.2546, -28.6216, -29.9147
3.19165, 4, 17.8835, 15.863, 23.0547, 38.2545, -28.6216, -29.9147
3.19364, 4, 17.8835, 15.863, 23.0547, 38.2545, -28.6216, -29.9147
3.19492, 4, 17.8835, 15.863, 23.0547, 38.2545, -28.6216, -29.9147
3.20161, 4, 17.8835, 15.863, 23.0547, 38.2545, -28.6216, -29.9147
3.20709, 4, 17.8835, 15.863, 23.0547, 38.2545, -28.6216, -29.9147
3.21666, 4, 17.8835, 15.863, 23.0547, 38.2545, -28.6216, -29.9147
3.2255, 4, 17.8833, 15.8631, 23.0547, 38.2545, -28.6216, -29.9147
3.23112, 4, 17.8823, 15.8637, 23.0546, 38.2544, -28.6216, -29.9147
3.2401, 4, 17.8797, 15.8653, 23.0545, 38.2538, -28.6216, -29.9144
3.24814, 4, 17.8758, 15.8682, 23.0537, 38.2509, -28.622, -29.9126
3.2561, 4, 17.8716, 15.8721, 23.0522, 38.2441, -28.6231, -29.9074
3.2641, 4, 17.8672, 15.8771, 23.0497, 38.2321, -28.6253, -29.8966
3.2721, 5, 17.8621, 15.8834, 23.0459, 38.2144, -28.629, -29.8791
3.27914, 5, 17.8566, 15.8911, 23.0406, 38.1908, -28.6341, -29.8552
3.28787, 5, 17.8513, 15.8998, 23.034, 38.1618, -28.6406, -29.8249
3.29509, 5, 17.8456, 15.9095, 23.0264, 38.1277, -28.6482, -29.7894
3.30309, 5, 17.8389, 15.9205, 23.0179, 38.0901, -28.6564, -29.7506
3.31212, 5, 17.8304, 15.933, 23.0089, 38.052, -28.6649, -29.7108
3.32016, 5, 17.8208, 15.9464, 22.9997, 38.0132, -28.6737, -29.67
3.32708, 5, 17.8107, 15.9604, 22.9903, 37.973, -28.6826, -29.6284
3.33611, 5, 17.8003, 15.9746, 22.9808, 37.9329, -28.6915, -29.5863
3.34417, 5, 17.7897, 15.9887, 22.9711, 37.8935, -28.7005, -29.5445
3.35209, 5, 17.779, 16.003, 22.9613, 37.8535, -28.7096, -29.5031
3.35939, 5, 17.7685, 16.0176, 22.9517, 37.8128, -28.7187, -29.4618
3.36709, 5, 17.7579, 16.0321, 22.942, 37.7729, -28.728, -29.4199
3.37509, 5, 17.7472, 16.0463, 22.9322, 37.7335, -28.7375, -29.378
3.38433, 5, 17.7364, 16.0605, 22.9224, 37.6933, -28.7472, -29.3367
3.39208, 5, 17.7257, 16.0748, 22.9126, 37.6529, -28.757, -29.2955
3.39921, 5, 17.7149, 16.0891, 22.9027, 37.6134, -28.767, -29.2539
3.4071, 5, 17.7041, 16.1033, 22.893, 37.5737, -28.777, -29.212
3.4161, 5, 17.6933, 16.1173, 22.8833, 37.5332, -28.7869, -29.1707
3.42323, 5, 17.6827, 16.1314, 22.8734, 37.4935, -28.7965, -29.1298
3.4312, 5, 17.672, 16.1458, 22.8636, 37.4543, -28.806, -29.0888
3.44008, 5, 17.6611, 16.1601, 22.8537, 37.4147, -28.8155, -29.0471
3.44725, 5, 17.6505, 16.1742, 22.8437, 37.3744, -28.8249, -29.0055
3.45519, 5, 17.6397, 16.1885, 22.8339, 37.3349, -28.8343, -28.9647
3.46408, 5, 17.629, 16.2029, 22.8241, 37.2957, -28.8437, -28.9236
3.47128, 5, 17.6183, 16.2174, 22.8142, 37.2556, -28.8532, -28.8823
3.47917, 5, 17.6078, 16.2318, 22.8045, 37.2158, -28.8628, -28.8405
3.48711, 5, 17.5972, 16.2461, 22.7946, 37.1769, -28.8725, -28.7993
3.49522, 5, 17.5866, 16.2605, 22.7849, 37.1374, -28.8823, -28.7585
3.50319, 5, 17.576, 16.2749, 22.7752, 37.0972, -28.8923, -28.7176
3.51212, 5, 17.5655, 16.289, 22.7654, 37.0576, -28.9025, -28.6761
3.51942, 5, 17.5548, 16.3031, 22.7556, 37.0184, -28.9128, -28.6348
3.52738, 5, 17.544, 16.3173, 22.7458, 36.9786, -28.9231, -28.5941
3.53551, 5, 17.5333, 16.3317, 22.7358, 36.9385, -28.9333, -28.5536
3.54419, 5, 17.5227, 16.346, 22.726, 36.8993, -28.9434, -28.5126
3.55158, 5, 17.5119, 16.3601, 22.7162, 36.8602, -28.9533, -28.4711
3.55965, 5, 17.5011, 16.3743, 22.7063, 36.8202, -28.9631, -28.4304
3.56825, 5, 17.4903, 16.3887, 22.6965, 36.7805, -28.9728, -28.3901
3.57566, 5, 17.4796, 16.403, 22.6866, 36.7417, -28.9825, -28.3496
3.5842, 5, 17.4688, 16.4172, 22.6769, 36.7024, -28.9923, -28.3086
3.5917, 5, 17.4635, 16.4242, 22.6721, 36.6824, -28.9972, -28.2678
3.60029, 5, 17.4477, 16.4456, 22.6576, 36.6234, -29.012, -28.2276
3.60715, 5, 17.4424, 16.4528, 22.6527, 36.6041, -29.0169, -28.2074
3.61627, 5, 17.4264, 16.4742, 22.6381, 36.5455, -29.032, -28.147
3.62307, 5, 17.4212, 16.4813, 22.6332, 36.5256, -29.0371, -28.1265
3.63224, 5, 17.4054, 16.5025, 22.6186, 36.4671, -29.0528, -28.0655
3.63908, 5, 17.4001, 16.5097, 22.6137, 36.4478, -29.058, -28.0456
3.64833, 5, 17.3842, 16.5309, 22.5991, 36.3886, -29.0737, -27.9858
3.65513, 5, 17.379, 16.5379, 22.5942, 36.3688, -29.0789, -27.9656
3.66474, 5, 17.3631, 16.559, 22.5797, 36.3108, -29.094, -27.9047
3.67253, 5, 17.3523, 16.5733, 22.5699, 36.2719, -29.1039, -27.8646
3.6792, 5, 17.347, 16.5805, 22.5651, 36.252, -29.1089, -27.8447
3.68869, 5, 17.331, 16.6018, 22.5508, 36.1931, -29.1237, -27.7844
3.69663, 5, 17.3202, 16.6159, 22.5411, 36.1546, -29.1335, -27.7438
3.70313, 5, 17.3148, 16.623, 22.5363, 36.135, -29.1385, -27.7235
3.71278, 5, 17.2987, 16.6444, 22.5217, 36.0755, -29.1534, -27.6634
3.72059, 5, 17.2934, 16.6515, 22.5168, 36.056, -29.1584, -27.6434
3.72719, 5, 17.2827, 16.6655, 22.5072, 36.0175, -29.1685, -27.6034
3.73608, 5, 17.2719, 16.6796, 22.4975, 35.9784, -29.1788, -27.5629
3.74407, 5, 17.2613, 16.6939, 22.4878, 35.9388, -29.1894, -27.5227
3.75214, 5, 17.2507, 16.7082, 22.4781, 35.8999, -29.2001, -27.483
3.76007, 5, 17.2399, 16.7223, 22.4685, 35.8615, -29.2108, -27.4433
3.76807, 5, 17.2292, 16.7363, 22.4589, 35.8222, -29.2215, -27.4033
3.77612, 5, 17.2186, 16.7506, 22.4494, 35.783, -29.2321, -27.3629
3.78415, 5, 17.2079, 16.7648, 22.44, 35.7447, -29.2424, -27.3229
3.79209, 5, 17.1971, 16.7789, 22.4304, 35.7064, -29.2527, -27.2836
3.80011, 5, 17.1863, 16.7929, 22.4209, 35.6671, -29.263, -27.244
3.80806, 5, 17.1756, 16.8069, 22.4112, 35.6283, -29.2731, -27.2041
3.81607, 5, 17.1649, 16.8212, 22.4015, 35.59, -29.2833, -27.1641
3.82415, 5, 17.154, 16.8353, 22.392, 35.5513, -29.2936, -27.1246
3.83209, 5, 17.1433, 16.8494, 22.3824, 35.5119, -29.304, -27.0853
3.84007, 5, 17.1326, 16.8634, 22.3727, 35.4735, -29.3144, -27.0458
3.84816, 5, 17.1219, 16.8776, 22.3632, 35.4354, -29.325, -27.0059
3.85607, 5, 17.1112, 16.8917, 22.3536, 35.3965, -29.3357, -26.9661
3.86315, 5, 17.1006, 16.9057, 22.344, 35.3572, -29.3467, -26.927
3.87107, 5, 17.09, 16.9195, 22.3347, 35.3189, -29.3576, -26.8879
3.87907, 5, 17.0793, 16.9336, 22.3252, 35.2805, -29.3685, -26.8485
3.88807, 5, 17.0685, 16.9478, 22.3157, 35.2413, -29.3792, -26.8088
3.89507, 5, 17.0579, 16.962, 22.3063, 35.2024, -29.3897, -26.7694
3.90407, 5, 17.0472, 16.976, 22.2967, 35.1642, -29.4, -26.7303
3.91217, 5, 17.0364, 16.9901, 22.2871, 35.1259, -29.4103, -26.6912
3.91911, 5, 17.0257, 17.0043, 22.2777, 35.0867, -29.4207, -26.6516
3.92723, 5, 17.0151, 17.0185, 22.2682, 35.048, -29.431, -26.6117
3.9354, 5, 17.0043, 17.0325, 22.2588, 35.01, -29.4414, -26.5724
3.94317, 5, 16.9936, 17.0464, 22.2494, 34.9715, -29.452, -26.5334
3.95123, 5, 16.9829, 17.0605, 22.2399, 34.9325, -29.4627, -26.4941
3.95954, 5, 16.9723, 17.0747, 22.2305, 34.8944, -29.4736, -26.4544
3.96715, 5, 16.9615, 17.0888, 22.2212, 34.8567, -29.4847, -26.4149
3.97531, 5, 16.9508, 17.1027, 22.2118, 34.8182, -29.4959, -26.3759
3.98385, 5, 16.9402, 17.1167, 22.2024, 34.7795, -29.5071, -26.337
3.99208, 5, 16.9294, 17.1308, 22.193, 34.7416, -29.5183, -26.2978
3.99922, 5, 16.9185, 17.1449, 22.1834, 34.7038, -29.5292, -26.2582
4.00802, 5, 16.9078, 17.1588, 22.174, 34.665, -29.54, -26.2189
4.01609, 5, 16.8971, 17.1726, 22.1646, 34.6265, -29.5507, -26.1802
4.02415, 5, 16.8863, 17.1867, 22.1551, 34.5889, -29.5614, -26.1414
4.03215, 5, 16.8754, 17.2009, 22.1458, 34.5508, -29.572, -26.1023
4.03968, 5, 16.8647, 17.2149, 22.1364, 34.512, -29.5827, -26.0628
4.0482, 5, 16.8539, 17.2289, 22.1271, 34.4737, -29.5935, -26.0239
4.05636, 5, 16.8431, 17.2429, 22.1178, 34.436, -29.6045, -25.9855
4.06366, 5, 16.8324, 17.257, 22.1087, 34.3978, -29.6155, -25.9469
4.07225, 5, 16.8218, 17.2709, 22.0994, 34.3588, -29.6268, -25.9079
4.08041, 5, 16.8111, 17.2848, 22.0901, 34.3208, -29.6381, -25.8687
4.08771, 5, 16.8003, 17.2986, 22.0808, 34.2833, -29.6495, -25.8302
4.09625, 5, 16.7896, 17.3127, 22.0713, 34.245, -29.6608, -25.792
4.10306, 5, 16.7843, 17.3197, 22.0666, 34.2256, -29.6664, -25.7728
4.11112, 5, 16.7736, 17.3337, 22.0573, 34.1874, -29.6773, -25.7343
4.12051, 5, 16.7574, 17.3544, 22.0432, 34.1309, -29.6936, -25.676
4.12707, 5, 16.752, 17.3614, 22.0386, 34.1117, -29.699, -25.6568
4.13508, 5, 16.7413, 17.3754, 22.0293, 34.0732, -29.7098, -25.6186
4.14434, 5, 16.7249, 17.3964, 22.0153, 34.0168, -29.726, -25.561
4.15109, 5, 16.7194, 17.4033, 22.0107, 33.9982, -29.7315, -25.5415
4.15906, 5, 16.7086, 17.417, 22.0016, 33.9604, -29.7424, -25.5026
4.16886, 5, 16.6923, 17.438, 21.9877, 33.9031, -29.7592, -25.445
4.17728, 5, 16.6814, 17.4521, 21.9786, 33.8658, -29.7707, -25.4069
4.18316, 5, 16.676, 17.4591, 21.974, 33.8471, -29.7765, -25.3877
4.19263, 5, 16.66, 17.4799, 21.96, 33.79, -29.794, -25.3296
4.20143, 5, 16.6492, 17.494, 21.9508, 33.7523, -29.8056, -25.2912
4.20706, 5, 16.6438, 17.501, 21.9462, 33.7338, -29.8114, -25.2721
4.21691, 5, 16.6332, 17.5149, 21.937, 33.6965, -29.8285, -25.2151
4.22406, 5, 16.6226, 17.5286, 21.9277, 33.6583, -29.8341, -25.1961
4.23106, 5, 16.6119, 17.5423, 21.9186, 33.6203, -29.8454, -25.1576
4.24005, 5, 16.6012, 17.5563, 21.9093, 33.583, -29.8565, -25.1191
4.24806, 5, 16.5906, 17.5702, 21.9001, 33.5454, -29.8676, -25.0811
4.25506, 5, 16.5799, 17.5841, 21.8911, 33.5071, -29.8788, -25.0433
4.26307, 5, 16.5691, 17.5978, 21.8819, 33.4693, -29.8902, -25.0054
4.27205, 5, 16.5583, 17.6116, 21.8728, 33.4322, -29.9016, -24.967
4.27907, 5, 16.5476, 17.6255, 21.8637, 33.3947, -29.9133, -24.9289
4.28813, 5, 16.5368, 17.6393, 21.8545, 33.3566, -29.9251, -24.8912
4.2961, 5, 16.5259, 17.653, 21.8452, 33.319, -29.937, -24.8536
4.30306, 5, 16.5152, 17.6668, 21.836, 33.2821, -29.9488, -24.8157
4.31207, 5, 16.5045, 17.6807, 21.8268, 33.2445, -29.9605, -24.7773
4.32011, 5, 16.4937, 17.6946, 21.8176, 33.2066, -29.9719, -24.7393
4.32707, 5, 16.4828, 17.7086, 21.8086, 33.1696, -29.9833, -24.7019
4.33605, 5, 16.4721, 17.7223, 21.7994, 33.1329, -29.9945, -24.6645
4.34639, 5, 16.4613, 17.7361, 21.7904, 33.0955, -30.0057, -24.6079
4.35114, 5, 16.4504, 17.75, 21.7814, 33.0576, -30.017, -24.5888
4.35913, 5, 16.4396, 17.7637, 21.7724, 33.0207, -30.0284, -24.551
4.36705, 5, 16.4289, 17.7773, 21.7634, 32.9838, -30.04, -24.5135
4.37506, 5, 16.418, 17.7909, 21.7543, 32.9464, -30.0516, -24.4761
4.38407, 5, 16.4071, 17.8048, 21.7452, 32.9088, -30.0635, -24.4382
4.39211, 5, 16.3963, 17.8186, 21.736, 32.872, -30.0757, -24.4
4.39923, 5, 16.3855, 17.8324, 21.7269, 32.8353, -30.0878, -24.3622
4.40705, 5, 16.3746, 17.846, 21.7178, 32.7977, -30.0999, -24.3249
4.41508, 5, 16.3638, 17.8598, 21.7087, 32.7602, -30.1117, -24.2874
4.42408, 5, 16.353, 17.8737, 21.6997, 32.7235, -30.1234, -24.2497
4.43113, 5, 16.3422, 17.8874, 21.6906, 32.6865, -30.1351, -24.2117
4.43916, 5, 16.3313, 17.901, 21.6815, 32.6488, -30.1467, -24.1741
4.44795, 5, 16.3204, 17.9146, 21.6726, 32.6113, -30.1583, -24.137
4.4562, 5, 16.3096, 17.9284, 21.6637, 32.5747, -30.17, -24.0997
4.46316, 5, 16.2987, 17.9422, 21.6547, 32.5379, -30.1818, -24.062
4.47193, 5, 16.2877, 17.956, 21.6458, 32.5003, -30.1937, -24.0241
4.48011, 5, 16.2768, 17.9696, 21.6369, 32.4631, -30.2058, -23.9867
4.48708, 5, 16.2658, 17.9833, 21.6277, 32.4266, -30.2181, -23.9496
4.49597, 5, 16.2548, 17.9971, 21.6187, 32.3897, -30.2305, -23.9126
4.50412, 5, 16.2438, 18.0107, 21.6097, 32.3521, -30.2427, -23.8751
4.5112, 5, 16.2328, 18.0242, 21.6008, 32.3154, -30.2548, -23.8374
4.52031, 5, 16.2219, 18.0378, 21.5919, 32.2793, -30.2666, -23.8004
4.5273, 5, 16.2109, 18.0515, 21.583, 32.2427, -30.2783, -23.7637
4.53544, 5, 16.2, 18.0652, 21.5739, 32.2054, -30.29, -23.7268
4.54348, 5, 16.1893, 18.0789, 21.565, 32.1686, -30.3018, -23.6895
4.55153, 5, 16.1784, 18.0925, 21.5562, 32.1324, -30.3135, -23.652
4.55965, 5, 16.1676, 18.1062, 21.5473, 32.0955, -30.3254, -23.615
4.56893, 5, 16.1569, 18.1199, 21.5384, 32.0582, -30.3374, -23.5784
4.57616, 5, 16.1462, 18.1336, 21.5296, 32.0218, -30.3497, -23.5419
4.58367, 5, 16.1353, 18.1471, 21.5206, 31.9857, -30.3622, -23.5048
4.59294, 5, 16.1246, 18.1606, 21.5115, 31.9489, -30.3748, -23.4676
4.60006, 5, 16.1138, 18.1744, 21.5026, 31.9117, -30.3873, -23.4307
4.60769, 5, 16.1084, 18.1813, 21.4981, 31.8933, -30.3935, -23.3942
4.61696, 5, 16.0919, 18.2019, 21.4847, 31.8389, -30.4118, -23.3576
4.62417, 5, 16.081, 18.2154, 21.476, 31.8021, -30.4238, -23.3205
4.63109, 5, 16.0756, 18.2222, 21.4716, 31.7834, -30.4298, -23.3018
4.64122, 5, 16.0593, 18.2427, 21.4582, 31.7285, -30.4478, -23.2466
4.64709, 5, 16.0538, 18.2496, 21.4538, 31.7105, -30.4538, -23.2283
4.6564, 5, 16.0376, 18.2698, 21.4407, 31.6557, -30.4719, -23.1737
4.66304, 5, 16.0322, 18.2765, 21.4363, 31.6371, -30.478, -23.1554
4.67249, 5, 16.0158, 18.2969, 21.4232, 31.5823, -30.4965, -23.0998
4.67904, 5, 16.0104, 18.3037, 21.4188, 31.5643, -30.5027, -23.0814
4.68862, 5, 15.9942, 18.3242, 21.4053, 31.5096, -30.5217, -23.0271
4.6951, 5, 15.9888, 18.3309, 21.4009, 31.4911, -30.528, -23.0089
4.70464, 5, 15.9724, 18.3512, 21.3876, 31.4369, -30.5466, -22.9543
4.71265, 5, 15.967, 18.3649, 21.3788, 31.4012, -30.5588, -22.9174
4.7191, 5, 15.9562, 18.3717, 21.3744, 31.3831, -30.5649, -22.8991
4.72918, 5, 15.9398, 18.392, 21.3612, 31.3282, -30.583, -22.8448
4.73505, 5, 15.9343, 18.3987, 21.3568, 31.3102, -30.5891, -22.8267
4.74404, 5, 15.9234, 18.4122, 21.348, 31.2746, -30.6012, -22.7908
4.75209, 5, 15.9126, 18.4258, 21.3392, 31.2385, -30.6136, -22.7543
4.76004, 5, 15.9017, 18.4394, 21.3306, 31.2018, -30.626, -22.7179
4.76808, 5, 15.8908, 18.453, 21.3219, 31.1657, -30.6386, -22.682
4.77604, 5, 15.8801, 18.4664, 21.3133, 31.1301, -30.6515, -22.6464
4.78404, 5, 15.8692, 18.48, 21.3046, 31.0942, -30.6645, -22.6105
4.79218, 5, 15.8583, 18.4936, 21.2957, 31.0574, -30.6774, -22.5743
4.80003, 5, 15.8475, 18.5071, 21.2868, 31.0212, -30.6902, -22.5379
4.80804, 5, 15.8367, 18.5205, 21.2781, 30.9856, -30.7028, -22.5022
4.81609, 5, 15.8257, 18.5339, 21.2694, 30.9495, -30.7153, -22.4667
4.82404, 5, 15.8148, 18.5475, 21.2607, 30.9127, -30.7277, -22.4314
4.83205, 5, 15.8039, 18.5612, 21.2521, 30.8766, -30.74, -22.3956
4.8401, 5, 15.7929, 18.5747, 21.2434, 30.8411, -30.7525, -22.3594
4.84803, 5, 15.7818, 18.5881, 21.2346, 30.8053, -30.7652, -22.3236
4.85761, 5, 15.7708, 18.6016, 21.226, 30.7688, -30.7779, -22.2881
4.86303, 5, 15.7599, 18.6153, 21.2174, 30.7328, -30.7909, -22.2527
4.87103, 5, 15.7489, 18.6288, 21.2088, 30.6975, -30.8041, -22.2169
4.88004, 5, 15.7378, 18.6422, 21.2003, 30.6616, -30.8171, -22.1808
4.88803, 5, 15.7269, 18.6555, 21.1915, 30.6252, -30.8301, -22.1448
4.89604, 5, 15.716, 18.669, 21.1827, 30.5895, -30.8427, -22.1094
4.90311, 5, 15.705, 18.6825, 21.174, 30.5544, -30.8553, -22.0742
4.91104, 5, 15.694, 18.6961, 21.1653, 30.5189, -30.8678, -22.0386
4.9201, 5, 15.6832, 18.7094, 21.1567, 30.4827, -30.8802, -22.0027
4.92726, 5, 15.6723, 18.7228, 21.1481, 30.4471, -30.8927, -21.9669
4.93513, 5, 15.6613, 18.7363, 21.1396, 30.4119, -30.9053, -21.9316
4.94325, 5, 15.6505, 18.7497, 21.1309, 30.3765, -30.918, -21.8964
4.95141, 5, 15.6395, 18.763, 21.1223, 30.3404, -30.9311, -21.8612
4.95914, 5, 15.6284, 18.7762, 21.1139, 30.3048, -30.9443, -21.8254
4.96722, 5, 15.6173, 18.7897, 21.1054, 30.2698, -30.9576, -21.7897
4.97559, 5, 15.6063, 18.8032, 21.0969, 30.2345, -30.9708, -21.7545
4.98407, 5, 15.5953, 18.8168, 21.0885, 30.1985, -30.9837, -21.7196
4.99132, 5, 15.5843, 18.8301, 21.0798, 30.1628, -30.9966, -21.6848
4.99986, 5, 15.5734, 18.8435, 21.0711, 30.1277, -31.0094, -21.6494
5.00804, 5, 15.5625, 18.857, 21.0625, 30.0923, -31.0222, -21.6138
5.0161, 5, 15.5515, 18.8704, 21.0539, 30.0562, -31.0349, -21.5789
5.02419, 5, 15.5405, 18.8838, 21.0453, 30.0206, -31.0477, -21.5444
5.03142, 5, 15.5296, 18.897, 21.0368, 29.9857, -31.0607, -21.5098
5.03955, 5, 15.5187, 18.9104, 21.0283, 29.9506, -31.0738, -21.4747
5.04836, 5, 15.5077, 18.9239, 21.0197, 29.9147, -31.0871, -21.4393
5.05558, 5, 15.4967, 18.9374, 21.0112, 29.8791, -31.1006, -21.4044
5.06426, 5, 15.4858, 18.9508, 21.0028, 29.8443, -31.1139, -21.3699
5.07231, 5, 15.4748, 18.964, 20.9944, 29.8093, -31.1269, -21.3355
5.07965, 5, 15.4637, 18.9775, 20.9861, 29.7737, -31.1399, -21.3011
5.08822, 5, 15.4527, 18.9909, 20.9777, 29.7383, -31.1527, -21.2661
5.09636, 5, 15.4472, 18.9976, 20.9735, 29.721, -31.1655, -21.2311
5.10369, 5, 15.4362, 19.0109, 20.9649, 29.6865, -31.1783, -21.1965
5.11229, 5, 15.4197, 19.0308, 20.9521, 29.6338, -31.1912, -21.1621
5.11904, 5, 15.4142, 19.0376, 20.9479, 29.6159, -31.1977, -21.1449
5.12706, 5, 15.4032, 19.051, 20.9394, 29.581, -31.2109, -21.1103
5.13648, 5, 15.3866, 19.0712, 20.9269, 29.5292, -31.2313, -21.0576
5.14304, 5, 15.3811, 19.0778, 20.9227, 29.5116, -31.2381, -21.0402
5.15103, 5, 15.3702, 19.0911, 20.9142, 29.4761, -31.2518, -21.0059
5.16038, 5, 15.3537, 19.1112, 20.9015, 29.4239, -31.272, -20.9545
5.16709, 5, 15.3481, 19.1179, 20.8973, 29.4067, -31.2787, -20.9374
5.17504, 5, 15.337, 19.1312, 20.8891, 29.3721, -31.2919, -20.9025
5.18469, 5, 15.3203, 19.1509, 20.8766, 29.319, -31.3117, -20.8504
5.19337, 5, 15.3091, 19.1644, 20.8683, 29.2842, -31.3247, -20.8163
5.19903, 5, 15.3035, 19.1711, 20.8641, 29.2671, -31.3313, -20.7993
5.20863, 5, 15.2868, 19.1911, 20.8513, 29.2148, -31.3514, -20.748
5.21736, 5, 15.2813, 19.1977, 20.8428, 29.1792, -31.365, -20.7134
5.22302, 5, 15.2701, 19.211, 20.8386, 29.1617, -31.3719, -20.696
5.23346, 5, 15.2536, 19.2311, 20.8261, 29.1101, -31.3927, -20.6448
5.2391, 5, 15.2481, 19.2377, 20.8219, 29.0929, -31.3996, -20.6277
5.24907, 5, 15.2316, 19.2576, 20.8095, 29.0401, -31.4198, -20.577
5.2551, 5, 15.2261, 19.2641, 20.8053, 29.0226, -31.4265, -20.56
5.26402, 5, 15.2152, 19.2774, 20.7969, 28.9882, -31.4398, -20.5256
5.27102, 5, 15.2043, 19.2908, 20.7886, 28.9539, -31.4529, -20.4912
5.28004, 5, 15.1932, 19.3042, 20.7804, 28.9189, -31.4661, -20.4574
5.28807, 5, 15.1823, 19.3174, 20.7722, 28.8839, -31.4793, -20.424
5.29504, 5, 15.1712, 19.3306, 20.7641, 28.8498, -31.4927, -20.3905
5.30308, 5, 15.1601, 19.3439, 20.7559, 28.8159, -31.5063, -20.3564
5.31209, 5, 15.1489, 19.3572, 20.7475, 28.7814, -31.5202, -20.3221
5.31903, 5, 15.1379, 19.3705, 20.739, 28.7464, -31.5343, -20.2881
5.32801, 5, 15.1268, 19.3837, 20.7306, 28.7121, -31.5482, -20.2547
5.33608, 5, 15.1157, 19.3968, 20.7224, 28.6781, -31.562, -20.2214
5.34303, 5, 15.1046, 19.4101, 20.714, 28.6437, -31.5756, -20.1879
5.35202, 5, 15.0936, 19.4233, 20.7057, 28.6087, -31.5891, -20.1541
5.36102, 5, 15.0825, 19.4367, 20.6975, 28.5745, -31.6026, -20.1201
5.36702, 5, 15.0714, 19.4498, 20.6892, 28.5407, -31.6161, -20.0867
5.37601, 5, 15.0604, 19.4629, 20.6808, 28.5066, -31.6297, -20.0533
5.38408, 5, 15.0494, 19.4762, 20.6727, 28.4717, -31.6434, -20.0199
5.3911, 5, 15.0383, 19.4894, 20.6646, 28.4372, -31.6573, -19.9859
5.40009, 5, 15.0273, 19.5025, 20.6565, 28.4033, -31.6715, -19.9517
5.40702, 5, 15.0162, 19.5156, 20.6483, 28.3692, -31.6856, -19.9179
5.41604, 5, 15.005, 19.5288, 20.6402, 28.3344, -31.6996, -19.8846
5.42414, 5, 14.9938, 19.5421, 20.6318, 28.2998, -31.7134, -19.8513
5.43109, 5, 14.9827, 19.5553, 20.6235, 28.2659, -31.727, -19.818
5.44002, 5, 14.9717, 19.5685, 20.6153, 28.2321, -31.7406, -19.784
5.44808, 5, 14.9605, 19.5816, 20.6071, 28.1976, -31.7541, -19.7502
5.45602, 5, 14.9494, 19.5949, 20.599, 28.1629, -31.7676, -19.7169
5.46403, 5, 14.9384, 19.6082, 20.5909, 28.129, -31.7813, -19.6837
5.47113, 5, 14.9273, 19.6213, 20.5827, 28.0954, -31.7952, -19.6506
5.47902, 5, 14.9161, 19.6343, 20.5744, 28.0613, -31.8095, -19.6172
5.48837, 5, 14.905, 19.6474, 20.5663, 28.0268, -31.8238, -19.5835
5.49505, 5, 14.894, 19.6607, 20.5583, 27.9931, -31.8381, -19.5502
5.50311, 5, 14.8829, 19.6739, 20.5502, 27.9598, -31.8522, -19.5174
5.51116, 5, 14.8718, 19.687, 20.5421, 27.9262, -31.8661, -19.4845
5.51916, 5, 14.8607, 19.7001, 20.5341, 27.8918, -31.8799, -19.4516
5.52731, 5, 14.8494, 19.7132, 20.5259, 27.858, -31.8938, -19.4183
5.53534, 5, 14.8381, 19.7265, 20.5176, 27.8247, -31.9075, -19.3848
5.54334, 5, 14.8269, 19.7397, 20.5094, 27.7913, -31.9213, -19.352
5.55152, 5, 14.8158, 19.7527, 20.5013, 27.757, -31.9354, -19.3195
5.56089, 5, 14.8046, 19.7656, 20.4932, 27.723, -31.9496, -19.2869
5.56811, 5, 14.7935, 19.7788, 20.4851, 27.6897, -31.9641, -19.2541
5.57559, 5, 14.7825, 19.7921, 20.4771, 27.6563, -31.9785, -19.2209
5.58495, 5, 14.7714, 19.8053, 20.4689, 27.6223, -31.9927, -19.1877
5.59213, 5, 14.7603, 19.8183, 20.4608, 27.5881, -32.0067, -19.1552
5.59963, 5, 14.7548, 19.8247, 20.4529, 27.5547, -32.0205, -19.1229
5.60948, 5, 14.7384, 19.8444, 20.445, 27.5215, -32.0342, -19.0905
5.61604, 5, 14.7274, 19.8576, 20.4371, 27.4876, -32.048, -19.0578
5.623, 5, 14.7218, 19.8641, 20.4331, 27.4703, -32.0548, -19.0413
5.63214, 5, 14.7053, 19.8835, 20.4211, 27.4197, -32.0758, -18.9923
5.63913, 5, 14.6997, 19.89, 20.4171, 27.4032, -32.0829, -18.9762
5.64828, 5, 14.6829, 19.9098, 20.4048, 27.3532, -32.1045, -18.9278
5.65501, 5, 14.6773, 19.9163, 20.4007, 27.3363, -32.1119, -18.9116
5.66434, 5, 14.6606, 19.936, 20.3887, 27.2856, -32.1337, -18.8625
5.671, 5, 14.655, 19.9424, 20.3847, 27.2691, -32.1409, -18.8459
5.68049, 5, 14.6383, 19.962, 20.3726, 27.2193, -32.1621, -18.7969
5.68706, 5, 14.6328, 19.9686, 20.3687, 27.2024, -32.1691, -18.7809
5.69665, 5, 14.6162, 19.9882, 20.3566, 27.1517, -32.1902, -18.7329
5.70459, 5, 14.605, 20.0012, 20.3485, 27.1188, -32.2042, -18.7007
5.71257, 5, 14.594, 20.0141, 20.3407, 27.0862, -32.2184, -18.668
5.72064, 5, 14.583, 20.0272, 20.3329, 27.0529, -32.2327, -18.6354
5.72858, 5, 14.5775, 20.0338, 20.329, 27.0359, -32.2399, -18.6193
5.73506, 5, 14.5664, 20.0469, 20.3211, 27.0025, -32.2545, -18.5874
5.74405, 5, 14.5553, 20.0599, 20.3132, 26.9697, -32.2692, -18.5556
5.75202, 5, 14.5442, 20.0728, 20.3053, 26.9369, -32.2837, -18.5236
5.75913, 5, 14.533, 20.0859, 20.2972, 26.9035, -32.2979, -18.4912
5.76701, 5, 14.5218, 20.099, 20.2891, 26.8699, -32.3121, -18.4588
5.776, 5, 14.5106, 20.1121, 20.2813, 26.8372, -32.3261, -18.4269
5.783, 5, 14.4993, 20.125, 20.2734, 26.8047, -32.3401, -18.3953
5.79201, 5, 14.4881, 20.1378, 20.2655, 26.7716, -32.3543, -18.3637
5.80003, 5, 14.4769, 20.1509, 20.2577, 26.7379, -32.3686, -18.332
5.80806, 5, 14.4657, 20.1639, 20.2498, 26.7048, -32.3833, -18.2997
5.816, 5, 14.4544, 20.177, 20.2418, 26.6722, -32.3981, -18.2676
5.82401, 5, 14.4432, 20.1899, 20.2339, 26.6392, -32.4131, -18.2359
5.83358, 5, 14.4265, 20.2093, 20.2223, 26.5889, -32.4352, -18.1892
5.84, 5, 14.4209, 20.2158, 20.2184, 26.5724, -32.4425, -18.1735
5.84801, 5, 14.4096, 20.2288, 20.2106, 26.5399, -32.457, -18.1419
5.857, 5, 14.3984, 20.2417, 20.2029, 26.5074, -32.4714, -18.1099
5.86414, 5, 14.3872, 20.2545, 20.195, 26.4742, -32.4857, -18.078
5.872, 5, 14.3759, 20.2675, 20.1869, 26.4408, -32.5001, -18.0466
5.88007, 5, 14.3646, 20.2805, 20.1789, 26.4082, -32.5147, -18.0155
5.88801, 5, 14.3534, 20.2935, 20.1711, 26.3759, -32.5296, -17.9844
5.896, 5, 14.3422, 20.3065, 20.1633, 26.3432, -32.5446, -17.953
5.904, 5, 14.331, 20.3193, 20.1555, 26.31, -32.5597, -17.9212
5.91206, 5, 14.3198, 20.3324, 20.1477, 26.2774, -32.5746, -17.8897
5.91999, 5, 14.3087, 20.3454, 20.1399, 26.2453, -32.5891, -17.8586
5.92802, 5, 14.2975, 20.3583, 20.1319, 26.2131, -32.6037, -17.8277
5.93606, 5, 14.2863, 20.3711, 20.1242, 26.1801, -32.618, -17.7965
5.944, 5, 14.2752, 20.3839, 20.1166, 26.1472, -32.6324, -17.7651
5.95146, 5, 14.2641, 20.3969, 20.109, 26.115, -32.6468, -17.7332
5.9591, 5, 14.253, 20.41, 20.1013, 26.083, -32.6614, -17.7015
5.96711, 5, 14.2418, 20.4229, 20.0937, 26.0505, -32.6762, -17.6703
5.97562, 5, 14.2307, 20.4357, 20.0859, 26.0174, -32.6913, -17.6397
5.98405, 5, 14.2194, 20.4486, 20.078, 25.9851, -32.7065, -17.6088
5.99103, 5, 14.2081, 20.4616, 20.07, 25.9531, -32.7214, -17.5776
5.9998, 5, 14.197, 20.4746, 20.0622, 25.921, -32.7362, -17.5459
6.00808, 5, 14.1859, 20.4875, 20.0545, 25.8881, -32.7509, -17.5146
6.016, 5, 14.1748, 20.5002, 20.0467, 25.8555, -32.7655, -17.4838
6.02404, 5, 14.1637, 20.5131, 20.039, 25.8234, -32.7801, -17.4531
6.0321, 5, 14.1526, 20.5261, 20.0313, 25.7914, -32.7948, -17.4223
6.03932, 5, 14.1414, 20.539, 20.0235, 25.7588, -32.8096, -17.3912
6.0482, 5, 14.1302, 20.5519, 20.0157, 25.7257, -32.8247, -17.3598
6.05561, 5, 14.1192, 20.5646, 20.0081, 25.6935, -32.84, -17.3289
6.06408, 5, 14.108, 20.5774, 20.0005, 25.6617, -32.8553, -17.2984
6.07239, 5, 14.0968, 20.5904, 19.993, 25.6296, -32.8703, -17.2681
6.07958, 5, 14.0856, 20.6032, 19.9854, 25.5968, -32.8851, -17.2378
6.08811, 5, 14.0744, 20.616, 19.9778, 25.5644, -32.8998, -17.2069
6.09658, 5, 14.0631, 20.6286, 19.97, 25.5326, -32.9145, -17.1758
6.10378, 5, 14.0574, 20.635, 19.9661, 25.5167, -32.9218, -17.1451
6.11201, 5, 14.0405, 20.6544, 19.9545, 25.4685, -32.9438, -17.1149
6.11898, 5, 14.0349, 20.6609, 19.9507, 25.4521, -32.9513, -17.0999
6.12698, 5, 14.0237, 20.6738, 19.9431, 25.42, -32.9665, -17.0698
6.13607, 5, 14.0068, 20.6928, 19.9316, 25.3728, -32.9897, -17.0241
6.143, 5, 14.0013, 20.6993, 19.9279, 25.3571, -32.9974, -17.0086
6.151, 5, 13.9901, 20.7123, 19.9202, 25.3251, -33.0127, -16.9778
6.16029, 5, 13.9732, 20.7315, 19.9086, 25.2768, -33.0353, -16.9325
6.16701, 5, 13.9677, 20.7378, 19.9048, 25.2609, -33.0428, -16.9175
6.17515, 5, 13.9567, 20.7504, 19.8973, 25.2294, -33.0577, -16.8877
6.18449, 5, 13.9399, 20.7697, 19.8861, 25.1815, -33.08, -16.8424
6.19336, 5, 13.9287, 20.7826, 19.8786, 25.1492, -33.095, -16.8119
6.19907, 5, 13.9231, 20.789, 19.8749, 25.1334, -33.1026, -16.7966
6.20857, 5, 13.9061, 20.8081, 19.8636, 25.0863, -33.1256, -16.7515
6.2174, 5, 13.8947, 20.8208, 19.8558, 25.0548, -33.1412, -16.7218
6.22305, 5, 13.889, 20.8272, 19.8519, 25.0387, -33.1489, -16.7069
6.23263, 5, 13.8777, 20.8401, 19.8442, 25.0064, -33.1717, -16.6618
6.24, 5, 13.8664, 20.8528, 19.8367, 24.9747, -33.1791, -16.6465
6.24706, 5, 13.855, 20.8655, 19.8291, 24.9434, -33.194, -16.616
6.25703, 5, 13.8381, 20.8844, 19.8178, 24.8957, -33.2162, -16.5707
6.26305, 5, 13.8324, 20.8908, 19.8141, 24.8795, -33.2237, -16.5558
6.27198, 5, 13.8211, 20.9035, 19.8066, 24.8475, -33.2387, -16.5263
6.28003, 5, 13.8099, 20.9163, 19.799, 24.8162, -33.2539, -16.4966
6.28799, 5, 13.7986, 20.9289, 19.7915, 24.7851, -33.2695, -16.4665
6.29499, 5, 13.7874, 20.9415, 19.7841, 24.7533, -33.2853, -16.4363
6.30401, 5, 13.7762, 20.9543, 19.7768, 24.7211, -33.3009, -16.4062
6.31107, 5, 13.765, 20.967, 19.7694, 24.6895, -33.3162, -16.3765
6.32004, 5, 13.7536, 20.9797, 19.7621, 24.6585, -33.3314, -16.3471
6.32798, 5, 13.7423, 20.9922, 19.7546, 24.6272, -33.3465, -16.3177
6.33599, 5, 13.731, 21.0048, 19.747, 24.5954, -33.3615, -16.2879
6.34298, 5, 13.7198, 21.0176, 19.7394, 24.5638, -33.3767, -16.2579
6.35198, 5, 13.7086, 21.0303, 19.7319, 24.5328, -33.392, -16.228
6.36, 5, 13.6974, 21.0431, 19.7244, 24.5021, -33.4077, -16.1986
6.36898, 5, 13.6862, 21.0557, 19.717, 24.4709, -33.4235, -16.1694
6.37598, 5, 13.675, 21.0683, 19.7095, 24.4391, -33.4392, -16.1403
6.38398, 5, 13.6637, 21.081, 19.7021, 24.4078, -33.4547, -16.1109
6.39205, 5, 13.6524, 21.0937, 19.6946, 24.3771, -33.47, -16.0812
6.39999, 5, 13.6412, 21.1063, 19.687, 24.3464, -33.4853, -16.0514
6.40799, 5, 13.6299, 21.1188, 19.6796, 24.315, -33.5004, -16.0221
6.41599, 5, 13.6186, 21.1314, 19.6723, 24.2833, -33.5155, -15.9932
6.42398, 5, 13.6074, 21.1441, 19.6651, 24.2523, -33.5309, -15.9644
6.43213, 5, 13.596, 21.1569, 19.6578, 24.2216, -33.5463, -15.9355
6.43905, 5, 13.5846, 21.1695, 19.6506, 24.1907, -33.5622, -15.9061
6.44798, 5, 13.5733, 21.1821, 19.6432, 24.159, -33.5781, -15.8766
6.45607, 5, 13.5622, 21.1947, 19.6358, 24.1276, -33.5939, -15.8472
6.46398, 5, 13.5509, 21.2075, 19.6283, 24.0969, -33.6094, -15.8183
6.47116, 5, 13.5396, 21.2201, 19.6209, 24.0662, -33.6249, -15.7896
6.47988, 5, 13.5285, 21.2327, 19.6136, 24.0349, -33.6403, -15.7609
6.48798, 5, 13.5173, 21.2451, 19.6062, 24.0031, -33.6556, -15.732
6.49599, 5, 13.5059, 21.2577, 19.5989, 23.972, -33.6711, -15.7027
6.50405, 5, 13.4947, 21.2704, 19.5916, 23.9415, -33.6867, -15.6736
6.51108, 5, 13.4834, 21.2831, 19.5842, 23.9109, -33.7026, -15.6448
6.51915, 5, 13.4721, 21.2956, 19.5768, 23.8797, -33.7186, -15.6161
6.52804, 5, 13.4608, 21.3081, 19.5694, 23.8484, -33.7346, -15.5875
6.53599, 5, 13.4494, 21.3207, 19.5623, 23.8178, -33.7503, -15.5586
6.54405, 5, 13.4379, 21.3333, 19.5552, 23.7873, -33.7659, -15.5292
6.55216, 5, 13.4263, 21.3459, 19.5479, 23.7565, -33.7812, -15.4998
6.55952, 5, 13.4149, 21.3583, 19.5407, 23.7252, -33.7966, -15.4708
6.56813, 5, 13.4035, 21.3708, 19.5335, 23.6943, -33.812, -15.4421
6.57553, 5, 13.3921, 21.3834, 19.5261, 23.6641, -33.8277, -15.4138
6.58407, 5, 13.3808, 21.3961, 19.5186, 23.634, -33.8437, -15.3853
6.59155, 5, 13.3695, 21.4088, 19.5113, 23.6033, -33.8599, -15.3564
6.60097, 5, 13.3582, 21.4213, 19.504, 23.5722, -33.8761, -15.3273
6.60799, 5, 13.3469, 21.4337, 19.4968, 23.5417, -33.892, -15.2984
6.61606, 5, 13.3358, 21.4463, 19.4896, 23.5115, -33.9078, -15.2699
6.62298, 5, 13.3302, 21.4526, 19.486, 23.4965, -33.9157, -15.2558
6.63203, 5, 13.3133, 21.4714, 19.4752, 23.4505, -33.9392, -15.2135
6.63897, 5, 13.3077, 21.4776, 19.4715, 23.435, -33.947, -15.1993
6.64902, 5, 13.2908, 21.4961, 19.4605, 23.3894, -33.9705, -15.1562
6.65629, 5, 13.2794, 21.5087, 19.4534, 23.3595, -33.9864, -15.1274
6.66304, 5, 13.2736, 21.515, 19.4499, 23.3445, -33.9946, -15.1132
6.67316, 5, 13.2567, 21.5338, 19.4393, 23.2983, -34.0189, -15.071
6.67898, 5, 13.251, 21.5401, 19.4358, 23.2829, -34.0269, -15.057
6.68844, 5, 13.2339, 21.5587, 19.4252, 23.2373, -34.0505, -15.015
6.69649, 5, 13.2227, 21.5713, 19.4179, 23.2073, -34.0661, -14.9867
6.70298, 5, 13.217, 21.5776, 19.4143, 23.1921, -34.0739, -14.9724
6.71253, 5, 13.2, 21.5965, 19.4033, 23.1458, -34.0972, -14.9296
6.72054, 5, 13.1943, 21.6089, 19.3961, 23.1153, -34.113, -14.9016
6.72698, 5, 13.1829, 21.6151, 19.3926, 23.1003, -34.121, -14.8877
6.73596, 5, 13.1717, 21.6275, 19.3854, 23.0705, -34.1371, -14.86
6.74398, 5, 13.1603, 21.6401, 19.3782, 23.0404, -34.1535, -14.8323
6.75203, 5, 13.149, 21.6526, 19.3711, 23.0097, -34.1699, -14.8043
6.75996, 5, 13.1377, 21.6651, 19.3639, 22.9792, -34.186, -14.7759
6.76804, 5, 13.1263, 21.6774, 19.3566, 22.9493, -34.202, -14.7477
6.77497, 5, 13.1148, 21.6898, 19.3494, 22.9196, -34.2178, -14.7198
6.78397, 5, 13.1035, 21.7022, 19.3424, 22.8895, -34.2335, -14.6922
6.79197, 5, 13.0922, 21.7146, 19.3355, 22.859, -34.2494, -14.6647
6.79897, 5, 13.0808, 21.7269, 19.3285, 22.8289, -34.2654, -14.637
6.80801, 5, 13.0695, 21.7392, 19.3215, 22.7994, -34.2817, -14.6091
6.81602, 5, 13.0581, 21.7516, 19.3145, 22.77, -34.2982, -14.5809
6.82397, 5, 13.0468, 21.7641, 19.3074, 22.74, -34.3145, -14.5531
6.83196, 5, 13.0354, 21.7765, 19.3001, 22.7095, -34.3307, -14.5257
6.84002, 5, 13.0241, 21.789, 19.2929, 22.6797, -34.3466, -14.4983
6.84799, 5, 13.0128, 21.8014, 19.2859, 22.6503, -34.3624, -14.471
6.85596, 5, 13.0014, 21.8138, 19.2789, 22.6208, -34.3782, -14.4431
6.86403, 5, 12.99, 21.8264, 19.2719, 22.5907, -34.394, -14.415
6.87372, 5, 12.9786, 21.8388, 19.2649, 22.5604, -34.4101, -14.373
6.87996, 5, 12.9671, 21.8511, 19.258, 22.5307, -34.4265, -14.3592
6.88804, 5, 12.9556, 21.8634, 19.2509, 22.5014, -34.4432, -14.3318
6.89597, 5, 12.9441, 21.8757, 19.2438, 22.4721, -34.4597, -14.3045
6.90399, 5, 12.9327, 21.8882, 19.2367, 22.442, -34.4761, -14.2775
6.91198, 5, 12.9213, 21.9007, 19.2298, 22.4119, -34.4923, -14.2502
6.91997, 5, 12.91, 21.913, 19.223, 22.3823, -34.5084, -14.2223
6.92802, 5, 12.8987, 21.9252, 19.216, 22.3531, -34.5244, -14.1947
6.93603, 5, 12.8874, 21.9376, 19.2091, 22.3235, -34.5406, -14.1674
6.94398, 5, 12.8761, 21.9501, 19.2022, 22.2932, -34.557, -14.1403
6.95202, 5, 12.8649, 21.9624, 19.1951, 22.2631, -34.5735, -14.1134
6.95996, 5, 12.8537, 21.9747, 19.188, 22.2336, -34.5903, -14.0865
6.96796, 5, 12.8424, 21.9869, 19.1809, 22.2044, -34.6069, -14.0592
6.97605, 5, 12.8311, 21.9993, 19.174, 22.175, -34.6232, -14.0316
6.98397, 5, 12.8199, 22.0117, 19.167, 22.1449, -34.6394, -14.0043
6.99197, 5, 12.8085, 22.0241, 19.1601, 22.1152, -34.6554, -13.9776
7.00002, 5, 12.797, 22.0364, 19.1532, 22.086, -34.6713, -13.9508
7.00796, 5, 12.7857, 22.0486, 19.1463, 22.0569, -34.6874, -13.9243
7.01597, 5, 12.7743, 22.0609, 19.1394, 22.0275, -34.7038, -13.8976
7.02404, 5, 12.763, 22.0733, 19.1324, 21.9975, -34.7205, -13.8705
7.03196, 5, 12.7517, 22.0855, 19.1255, 21.9681, -34.7374, -13.8432
7.0401, 5, 12.7404, 22.0977, 19.1188, 21.9392, -34.7541, -13.8162
7.04732, 5, 12.729, 22.1097, 19.112, 21.9105, -34.7706, -13.7896
7.05543, 5, 12.7176, 22.1219, 19.1053, 21.8813, -34.7869, -13.7634
7.06426, 5, 12.7063, 22.1343, 19.0986, 21.8516, -34.8031, -13.737
7.07166, 5, 12.695, 22.1466, 19.0918, 21.8224, -34.8193, -13.7106
7.08007, 5, 12.6836, 22.1588, 19.0848, 21.7934, -34.8357, -13.6839
7.08843, 5, 12.6723, 22.1709, 19.0778, 21.7647, -34.8523, -13.6569
7.09557, 5, 12.6608, 22.1832, 19.0708, 21.7353, -34.8691, -13.6302
7.10414, 5, 12.6493, 22.1956, 19.064, 21.7056, -34.886, -13.6038
7.11231, 5, 12.6435, 22.2017, 19.0605, 21.6909, -34.8944, -13.5907
7.11896, 5, 12.6321, 22.2138, 19.0537, 21.6621, -34.9109, -13.5646
7.12799, 5, 12.615, 22.2319, 19.0434, 21.6191, -34.9353, -13.5253
7.13684, 5, 12.6035, 22.2441, 19.0366, 21.5899, -34.9515, -13.4988
7.14409, 5, 12.5922, 22.2564, 19.0298, 21.5603, -34.9677, -13.472
7.151, 5, 12.5865, 22.2625, 19.0263, 21.5456, -34.9758, -13.4587
7.16106, 5, 12.5692, 22.2808, 19.016, 21.5024, -35.0007, -13.4195
7.16842, 5, 12.5577, 22.2929, 19.0093, 21.4737, -35.0176, -13.3936
7.17495, 5, 12.552, 22.2989, 19.006, 21.4592, -35.0262, -13.3807
7.18528, 5, 12.5349, 22.3173, 18.9961, 21.4149, -35.0515, -13.3417
7.19101, 5, 12.5291, 22.3234, 18.9927, 21.4003, -35.0599, -13.3285
7.20054, 5, 12.5118, 22.3416, 18.9827, 21.3573, -35.0846, -13.2883
7.20943, 5, 12.5002, 22.3536, 18.976, 21.3288, -35.101, -13.2617
7.21502, 5, 12.4944, 22.3596, 18.9726, 21.3143, -35.1092, -13.2486
7.22456, 5, 12.477, 22.3779, 18.9623, 21.2701, -35.1341, -13.2099
7.23336, 5, 12.4712, 22.3841, 18.9589, 21.2556, -35.1509, -13.184
7.23901, 5, 12.4596, 22.3962, 18.9522, 21.2269, -35.1595, -13.1711
7.24899, 5, 12.4423, 22.4143, 18.9422, 21.1843, -35.1851, -13.1322
7.25495, 5, 12.4366, 22.4203, 18.9388, 21.1699, -35.1935, -13.119
7.26398, 5, 12.4251, 22.4324, 18.9321, 21.1408, -35.2101, -13.0927
7.27207, 5, 12.4136, 22.4446, 18.9255, 21.1118, -35.2266, -13.0667
7.27995, 5, 12.4022, 22.4566, 18.9188, 21.0835, -35.2429, -13.041
7.28694, 5, 12.3909, 22.4685, 18.912, 21.0555, -35.2593, -13.0154
7.29596, 5, 12.3795, 22.4804, 18.9052, 21.0272, -35.2758, -12.9899
7.30395, 5, 12.368, 22.4925, 18.8986, 20.9982, -35.2926, -12.9641
7.31096, 5, 12.3567, 22.5047, 18.8921, 20.9694, -35.3098, -12.9381
7.31995, 5, 12.3452, 22.5168, 18.8856, 20.9412, -35.327, -12.9118
7.32794, 5, 12.3336, 22.5289, 18.879, 20.9131, -35.344, -12.886
7.33502, 5, 12.3221, 22.5409, 18.8724, 20.8849, -35.3607, -12.8607
7.34395, 5, 12.3106, 22.553, 18.8658, 20.8561, -35.3774, -12.8354
7.35195, 5, 12.2991, 22.5652, 18.859, 20.8273, -35.3939, -12.8103
7.36174, 5, 12.2877, 22.5773, 18.8522, 20.7989, -35.4105, -12.7723
7.36794, 5, 12.2762, 22.5893, 18.8455, 20.7709, -35.4273, -12.7593
7.37608, 5, 12.2648, 22.6013, 18.839, 20.7427, -35.4443, -12.7333
7.38494, 5, 12.2532, 22.6133, 18.8324, 20.7139, -35.4616, -12.7077
7.39194, 5, 12.2417, 22.6254, 18.8258, 20.6851, -35.4788, -12.6823
7.39995, 5, 12.2303, 22.6376, 18.8192, 20.6568, -35.4956, -12.6573
7.40797, 5, 12.2189, 22.6496, 18.8127, 20.6288, -35.5123, -12.6324
7.41596, 5, 12.2074, 22.6614, 18.8061, 20.6007, -35.5288, -12.6074
7.42399, 5, 12.196, 22.6734, 18.7994, 20.5719, -35.5453, -12.5821
7.43195, 5, 12.1844, 22.6855, 18.7928, 20.543, -35.562, -12.5565
7.43907, 5, 12.1728, 22.6976, 18.7864, 20.5148, -35.5789, -12.531
7.44789, 5, 12.1612, 22.7095, 18.78, 20.487, -35.5962, -12.506
7.45594, 5, 12.1498, 22.7215, 18.7736, 20.4591, -35.6136, -12.4811
7.46395, 5, 12.1381, 22.7333, 18.7672, 20.4306, -35.6308, -12.4563
7.47203, 5, 12.1266, 22.7454, 18.7608, 20.402, -35.6478, -12.4316
7.47994, 5, 12.1152, 22.7575, 18.7543, 20.3739, -35.6646, -12.4067
7.48794, 5, 12.1037, 22.7696, 18.7477, 20.3461, -35.6813, -12.3816
7.49604, 5, 12.0921, 22.7816, 18.741, 20.3183, -35.698, -12.3562
7.50394, 5, 12.0806, 22.7935, 18.7344, 20.2899, -35.715, -12.331
7.51195, 5, 12.0692, 22.8055, 18.728, 20.2613, -35.7321, -12.3063
7.52002, 5, 12.0577, 22.8175, 18.7215, 20.2334, -35.7496, -12.2819
7.52794, 5, 12.0461, 22.8295, 18.7149, 20.2059, -35.7669, -12.2574
7.53594, 5, 12.0346, 22.8413, 18.7085, 20.1786, -35.784, -12.2328
7.54413, 5, 12.0228, 22.8531, 18.702, 20.1506, -35.8008, -12.2078
7.55137, 5, 12.0111, 22.865, 18.6955, 20.1223, -35.8175, -12.1822
7.55934, 5, 11.9995, 22.8771, 18.6889, 20.0943, -35.8342, -12.1568
7.56739, 5, 11.9878, 22.8891, 18.6824, 20.0668, -35.8511, -12.1319
7.57556, 5, 11.9762, 22.9011, 18.6761, 20.0393, -35.8682, -12.1075
7.5841, 5, 11.9647, 22.9129, 18.6698, 20.0114, -35.8856, -12.0832
7.59285, 5, 11.9531, 22.9248, 18.6635, 19.9832, -35.9032, -12.0589
7.60005, 5, 11.9415, 22.9369, 18.6572, 19.9553, -35.9206, -12.0344
7.60825, 5, 11.93, 22.9488, 18.6509, 19.928, -35.9378, -12.0096
7.61493, 5, 11.9243, 22.9548, 18.6477, 19.9144, -35.9464, -11.9971
7.623, 5, 11.9128, 22.9666, 18.6413, 19.887, -35.9634, -11.9721
7.63203, 5, 11.8955, 22.9843, 18.6315, 19.8449, -35.9888, -11.9356
7.63893, 5, 11.8898, 22.9903, 18.6282, 19.8308, -35.9973, -11.9235
7.64695, 5, 11.8782, 23.0024, 18.6218, 19.803, -36.0146, -11.8993
7.6562, 5, 11.8606, 23.0203, 18.6124, 19.7619, -36.041, -11.8631
7.66294, 5, 11.8548, 23.0262, 18.6092, 19.7482, -36.0498, -11.8509
7.67101, 5, 11.8432, 23.0379, 18.6029, 19.7203, -36.0672, -11.8264
7.68029, 5, 11.8258, 23.0558, 18.5934, 19.6781, -36.0929, -11.7893
7.68698, 5, 11.82, 23.0618, 18.5902, 19.6643, -36.1014, -11.777
7.69653, 5, 11.8027, 23.0796, 18.5806, 19.6235, -36.1267, -11.7412
7.70449, 5, 11.7911, 23.0913, 18.5742, 19.5963, -36.1437, -11.7174
7.7125, 5, 11.7795, 23.103, 18.5679, 19.5685, -36.1609, -11.6938
7.72057, 5, 11.768, 23.1149, 18.5618, 19.5405, -36.1785, -11.67
7.72851, 5, 11.7623, 23.1209, 18.5556, 19.5131, -36.1962, -11.6459
7.73648, 5, 11.7508, 23.1328, 18.5525, 19.4995, -36.205, -11.6215
7.74294, 5, 11.7393, 23.1447, 18.5463, 19.4726, -36.2224, -11.6093
7.75303, 5, 11.722, 23.1623, 18.5369, 19.4315, -36.2482, -11.5734
7.75905, 5, 11.7163, 23.1682, 18.5338, 19.4176, -36.2567, -11.5616
7.7691, 5, 11.6987, 23.1861, 18.5242, 19.3765, -36.2823, -11.5264
7.77495, 5, 11.6929, 23.192, 18.5209, 19.3631, -36.2909, -11.5146
7.78394, 5, 11.6814, 23.2038, 18.5146, 19.3363, -36.3082, -11.491
7.79093, 5, 11.6698, 23.2154, 18.5083, 19.3094, -36.3258, -11.4671
7.79994, 5, 11.6582, 23.2271, 18.5021, 19.282, -36.3436, -11.4431
7.80797, 5, 11.6466, 23.2389, 18.4958, 19.2544, -36.361, -11.419
7.81594, 5, 11.635, 23.2508, 18.4896, 19.2272, -36.3782, -11.3955
7.82411, 5, 11.6234, 23.2626, 18.4834, 19.2005, -36.3953, -11.3722
7.83198, 5, 11.6118, 23.2744, 18.4772, 19.1737, -36.4123, -11.3488
7.83993, 5, 11.6003, 23.286, 18.4709, 19.1465, -36.4294, -11.3254
7.84794, 5, 11.5887, 23.2979, 18.4646, 19.119, -36.4467, -11.3019
7.85493, 5, 11.5771, 23.3097, 18.4585, 19.0918, -36.4644, -11.2782
7.86393, 5, 11.5654, 23.3215, 18.4524, 19.065, -36.4822, -11.2543
7.87294, 5, 11.5537, 23.3332, 18.4464, 19.0384, -36.5001, -11.2305
7.88001, 5, 11.5419, 23.3448, 18.4404, 19.0116, -36.5176, -11.2069
7.88898, 5, 11.5302, 23.3565, 18.4343, 18.9842, -36.5349, -11.1838
7.89593, 5, 11.5186, 23.3684, 18.4282, 18.9568, -36.5522, -11.1608
7.90399, 5, 11.507, 23.3803, 18.4221, 18.93, -36.5694, -11.1376
7.91193, 5, 11.4954, 23.392, 18.4158, 18.9033, -36.5867, -11.1144
7.91999, 5, 11.4839, 23.4037, 18.4094, 18.8766, -36.6043, -11.0907
7.92794, 5, 11.4723, 23.4154, 18.4032, 18.8492, -36.6221, -11.0667
7.93594, 5, 11.4608, 23.4272, 18.3971, 18.8216, -36.64, -11.0428
7.94406, 5, 11.4494, 23.439, 18.3909, 18.7946, -36.6575, -11.0193
7.95192, 5, 11.4379, 23.4507, 18.3847, 18.7681, -36.6748, -10.9961
7.96009, 5, 11.4264, 23.4623, 18.3786, 18.7416, -36.692, -10.9731
7.968, 5, 11.4149, 23.4738, 18.3725, 18.7147, -36.7091, -10.9501
7.97593, 5, 11.4033, 23.4856, 18.3664, 18.6874, -36.7264, -10.9269
7.98393, 5, 11.3916, 23.4974, 18.3602, 18.6605, -36.7439, -10.9035
7.99199, 5, 11.3799, 23.5091, 18.354, 18.634, -36.7618, -10.8799
7.99992, 5, 11.3684, 23.5208, 18.3479, 18.6076, -36.7799, -10.8565
8.00795, 5, 11.3567, 23.5324, 18.3419, 18.581, -36.7978, -10.8334
8.016, 5, 11.3452, 23.5441, 18.336, 18.5538, -36.8154, -10.8106
8.02393, 5, 11.3336, 23.5558, 18.3301, 18.5269, -36.8328, -10.7878
8.03193, 5, 11.322, 23.5674, 18.3241, 18.5006, -36.8503, -10.7648
8.03999, 5, 11.3104, 23.579, 18.3182, 18.4744, -36.8678, -10.7418
8.04795, 5, 11.2989, 23.5905, 18.3122, 18.4484, -36.8854, -10.7185
8.05612, 5, 11.2874, 23.6021, 18.3061, 18.4218, -36.9035, -10.695
8.06338, 5, 11.2758, 23.6138, 18.2999, 18.3948, -36.9217, -10.6718
8.07148, 5, 11.2643, 23.6255, 18.2938, 18.3683, -36.9397, -10.6489
8.08034, 5, 11.2527, 23.6372, 18.2878, 18.3421, -36.9574, -10.6265
8.08772, 5, 11.241, 23.6488, 18.2818, 18.316, -36.975, -10.6042
8.09603, 5, 11.2293, 23.6603, 18.2758, 18.2895, -36.9923, -10.582
8.10448, 5, 11.2177, 23.672, 18.2698, 18.2625, -37.0097, -10.5595
8.11157, 5, 11.2119, 23.6779, 18.2669, 18.2359, -37.0273, -10.5367
8.11992, 5, 11.1944, 23.6952, 18.2579, 18.2097, -37.0452, -10.5136
8.12873, 5, 11.1828, 23.7067, 18.2519, 18.1838, -37.0634, -10.4905
8.13624, 5, 11.1712, 23.7182, 18.2458, 18.1578, -37.0815, -10.4678
8.14302, 5, 11.1654, 23.7239, 18.2428, 18.1445, -37.0905, -10.4567
8.1529, 5, 11.1479, 23.7415, 18.2339, 18.1043, -37.1171, -10.4234
8.16015, 5, 11.1364, 23.7531, 18.2281, 18.0779, -37.1347, -10.4015
8.16696, 5, 11.1307, 23.7589, 18.2252, 18.0648, -37.1435, -10.3904
8.17708, 5, 11.1132, 23.7761, 18.2164, 18.0258, -37.17, -10.3567
8.18447, 5, 11.1017, 23.7876, 18.2106, 17.9994, -37.1879, -10.334
8.19241, 5, 11.09, 23.7992, 18.2047, 17.9726, -37.2062, -10.3114
8.20125, 5, 11.0782, 23.8108, 18.1987, 17.946, -37.2243, -10.289
8.20696, 5, 11.0723, 23.8165, 18.1957, 17.9329, -37.2333, -10.278
8.21671, 5, 11.0549, 23.8337, 18.1866, 17.8942, -37.2597, -10.2452
8.22529, 5, 11.0432, 23.8451, 18.1806, 17.8683, -37.2771, -10.2233
8.23099, 5, 11.0373, 23.8509, 18.1776, 17.855, -37.2858, -10.2123
8.24055, 5, 11.0257, 23.8626, 18.1718, 17.815, -37.312, -10.1793
8.24792, 5, 11.0141, 23.8741, 18.1659, 17.8019, -37.3209, -10.1681
8.25498, 5, 11.0024, 23.8857, 18.16, 17.7758, -37.339, -10.1457
8.26396, 5, 10.9908, 23.8971, 18.1542, 17.7502, -37.3573, -10.1233
8.27192, 5, 10.9793, 23.9085, 18.1483, 17.7244, -37.3755, -10.1011
8.27905, 5, 10.9677, 23.92, 18.1425, 17.698, -37.3934, -10.0791
8.28797, 5, 10.9562, 23.9316, 18.1366, 17.6717, -37.4112, -10.0575
8.29591, 5, 10.9446, 23.943, 18.1307, 17.6459, -37.4289, -10.0359
8.30292, 5, 10.933, 23.9543, 18.1249, 17.6204, -37.4465, -10.0142
8.31193, 5, 10.9213, 23.9656, 18.1192, 17.5951, -37.4644, -9.99221
8.31992, 5, 10.9097, 23.9771, 18.1136, 17.5692, -37.4825, -9.96984
8.32691, 5, 10.8982, 23.9887, 18.1079, 17.543, -37.5008, -9.94732
8.33591, 5, 10.8866, 24.0002, 18.1022, 17.517, -37.519, -9.9251
8.34392, 5, 10.875, 24.0117, 18.0965, 17.4914, -37.5369, -9.90317
8.35092, 5, 10.8635, 24.023, 18.0907, 17.4661, -37.5547, -9.88151
8.35991, 5, 10.8519, 24.0344, 18.0849, 17.4407, -37.5722, -9.86012
8.36891, 5, 10.8402, 24.046, 18.0789, 17.4147, -37.5899, -9.83872
8.37491, 5, 10.8286, 24.0575, 18.073, 17.3885, -37.6077, -9.81717
8.38393, 5, 10.817, 24.0689, 18.0672, 17.3626, -37.6259, -9.79531
8.39292, 5, 10.8053, 24.0802, 18.0615, 17.3372, -37.6444, -9.77334
8.39891, 5, 10.7936, 24.0915, 18.0557, 17.3119, -37.6628, -9.75145
8.40793, 5, 10.7819, 24.103, 18.0499, 17.2863, -37.6809, -9.72987
8.41591, 5, 10.77, 24.1145, 18.0442, 17.2602, -37.6989, -9.70855
8.42392, 5, 10.7582, 24.1259, 18.0385, 17.2341, -37.7168, -9.68744
8.43191, 5, 10.7465, 24.1373, 18.0327, 17.2085, -37.7346, -9.66634
8.43999, 5, 10.7347, 24.1485, 18.0269, 17.1832, -37.7527, -9.64499
8.44798, 5, 10.723, 24.1598, 18.0211, 17.1579, -37.771, -9.62356
8.45591, 5, 10.7113, 24.1714, 18.0153, 17.1321, -37.7897, -9.60185
8.46399, 5, 10.6997, 24.1828, 18.0097, 17.1059, -37.8081, -9.58003
8.47191, 5, 10.6879, 24.1941, 18.0042, 17.0799, -37.8263, -9.5584
8.47991, 5, 10.6763, 24.2054, 17.9986, 17.0545, -37.8443, -9.53718
8.48798, 5, 10.6648, 24.2166, 17.9931, 17.0295, -37.8621, -9.51622
8.4959, 5, 10.6532, 24.2281, 17.9875, 17.0043, -37.88, -9.49537
8.50391, 5, 10.6415, 24.2395, 17.9819, 16.9786, -37.898, -9.47478
8.51198, 5, 10.6299, 24.2509, 17.9762, 16.9527, -37.9163, -9.45397
8.51991, 5, 10.6181, 24.2623, 17.9705, 16.9272, -37.9349, -9.43279
8.52791, 5, 10.6062, 24.2735, 17.9647, 16.9021, -37.9534, -9.4114
8.53601, 5, 10.5943, 24.2848, 17.959, 16.877, -37.9717, -9.38985
8.54392, 5, 10.5826, 24.2962, 17.9533, 16.8516, -37.9899, -9.3686
8.55199, 5, 10.5707, 24.3075, 17.9478, 16.8259, -38.008, -9.34763
8.56071, 5, 10.5589, 24.3187, 17.9422, 16.8003, -38.0259, -9.3269
8.56795, 5, 10.5472, 24.3299, 17.9366, 16.7753, -38.0441, -9.30641
8.57606, 5, 10.5354, 24.341, 17.9311, 16.7505, -38.0625, -9.28597
8.58481, 5, 10.5236, 24.3524, 17.9255, 16.7258, -38.0812, -9.26534
8.59201, 5, 10.512, 24.3638, 17.9199, 16.7007, -38.0998, -9.24436
8.60007, 5, 10.5004, 24.3751, 17.9142, 16.6751, -38.118, -9.22319
8.60882, 5, 10.4888, 24.3864, 17.9085, 16.6497, -38.136, -9.20215
8.61609, 5, 10.4772, 24.3976, 17.903, 16.6248, -38.1539, -9.18134
8.62404, 5, 10.4656, 24.4089, 17.8976, 16.6, -38.1717, -9.16076
8.63284, 5, 10.4538, 24.4204, 17.8921, 16.5752, -38.1898, -9.14048
8.63995, 5, 10.4422, 24.4316, 17.8867, 16.5498, -38.2083, -9.12022
8.64811, 5, 10.4306, 24.4429, 17.8813, 16.5244, -38.2271, -9.09995
8.6549, 5, 10.4247, 24.4485, 17.8785, 16.5118, -38.2364, -9.0897
8.66294, 5, 10.4131, 24.4596, 17.8731, 16.4869, -38.255, -9.06905
8.67224, 5, 10.3957, 24.4766, 17.8648, 16.4501, -38.2823, -9.03771
8.67901, 5, 10.3898, 24.4823, 17.8619, 16.4378, -38.2914, -9.02716
8.6869, 5, 10.3781, 24.4936, 17.8562, 16.4126, -38.3094, -9.00631
8.69634, 5, 10.3605, 24.5104, 17.8478, 16.3745, -38.3367, -8.97565
8.70441, 5, 10.3488, 24.5215, 17.8423, 16.3494, -38.3552, -8.9554
8.71091, 5, 10.343, 24.5271, 17.8396, 16.337, -38.3646, -8.94535
8.72048, 5, 10.3253, 24.544, 17.8313, 16.3, -38.3926, -8.91529
8.72847, 5, 10.3136, 24.5552, 17.8259, 16.2749, -38.4108, -8.89506
8.73655, 5, 10.3077, 24.5664, 17.8204, 16.2495, -38.4288, -8.87447
8.74442, 5, 10.2958, 24.5719, 17.8177, 16.2368, -38.4378, -8.86405
8.75189, 5, 10.284, 24.583, 17.8123, 16.2119, -38.4558, -8.84317
8.75891, 5, 10.2723, 24.5941, 17.8068, 16.1873, -38.4739, -8.8225
8.76901, 5, 10.2547, 24.6111, 17.7986, 16.1507, -38.5017, -8.79193
8.77497, 5, 10.2489, 24.6167, 17.7959, 16.1383, -38.5112, -8.78193
8.78402, 5, 10.2372, 24.6279, 17.7905, 16.1131, -38.53, -8.76197
8.79189, 5, 10.2255, 24.639, 17.7853, 16.0879, -38.5486, -8.74218
8.7999, 5, 10.2137, 24.6501, 17.7801, 16.0632, -38.5669, -8.72241
8.8079, 5, 10.2021, 24.6613, 17.7748, 16.0388, -38.5852, -8.70232
8.81591, 5, 10.1904, 24.6725, 17.7695, 16.0145, -38.6033, -8.68191
8.82394, 5, 10.1787, 24.6836, 17.7643, 15.99, -38.6217, -8.66137
8.83354, 5, 10.1612, 24.7001, 17.7562, 15.9525, -38.6497, -8.63096
8.8399, 5, 10.1553, 24.7056, 17.7535, 15.9401, -38.6592, -8.62094
8.84796, 5, 10.1434, 24.7167, 17.748, 15.9157, -38.678, -8.60117
8.8559, 5, 10.1314, 24.728, 17.7424, 15.8916, -38.6965, -8.58154
8.86393, 5, 10.1195, 24.7392, 17.7369, 15.8676, -38.7148, -8.56199
8.87289, 5, 10.1077, 24.7503, 17.7316, 15.8431, -38.7329, -8.54248
8.8789, 5, 10.0958, 24.7614, 17.7263, 15.8182, -38.751, -8.52272
8.88791, 5, 10.084, 24.7725, 17.7209, 15.7935, -38.7693, -8.50282
8.89596, 5, 10.0723, 24.7837, 17.7156, 15.7692, -38.7879, -8.48246
8.9039, 5, 10.0605, 24.7949, 17.7102, 15.7451, -38.8069, -8.46222
8.91189, 5, 10.0487, 24.806, 17.7049, 15.721, -38.8257, -8.44227
8.91996, 5, 10.037, 24.817, 17.6996, 15.6966, -38.8443, -8.42265
8.9279, 5, 10.0253, 24.8279, 17.6942, 15.6718, -38.8627, -8.40323
8.93596, 5, 10.0136, 24.839, 17.6888, 15.6472, -38.881, -8.38391
8.94387, 5, 10.0018, 24.8502, 17.6835, 15.623, -38.8993, -8.36481
8.95197, 5, 9.99007, 24.8614, 17.6783, 15.599, -38.9177, -8.34564
8.95996, 5, 9.97815, 24.8725, 17.6732, 15.575, -38.9365, -8.32605
8.96789, 5, 9.96632, 24.8835, 17.668, 15.5506, -38.9555, -8.3063
8.9759, 5, 9.95456, 24.8944, 17.6629, 15.5259, -38.9743, -8.28651
8.98396, 5, 9.94271, 24.9056, 17.6578, 15.5013, -38.9928, -8.26673
8.99191, 5, 9.93097, 24.9167, 17.6526, 15.4771, -39.0111, -8.24713
8.9999, 5, 9.91928, 24.9278, 17.6474, 15.4532, -39.0294, -8.22799
9.00795, 5, 9.90748, 24.9388, 17.6422, 15.4291, -39.0476, -8.20891
9.01589, 5, 9.89568, 24.9497, 17.6369, 15.4047, -39.0661, -8.18993
9.0239, 5, 9.88404, 24.9607, 17.6316, 15.3798, -39.0849, -8.17103
9.03197, 5, 9.87233, 24.9719, 17.6263, 15.3553, -39.104, -8.15178
9.03989, 5, 9.86058, 24.983, 17.6211, 15.3312, -39.1229, -8.13239
9.04798, 5, 9.8489, 24.9941, 17.616, 15.3074, -39.1415, -8.11272
9.05591, 5, 9.83716, 25.0051, 17.6108, 15.2835, -39.16, -8.09307
9.06392, 5, 9.82531, 25.0159, 17.6057, 15.2592, -39.1784, -8.07377
9.0723, 5, 9.81352, 25.0269, 17.6006, 15.2347, -39.1969, -8.05471
9.07944, 5, 9.80181, 25.038, 17.5955, 15.2105, -39.2155, -8.03589
9.08799, 5, 9.79001, 25.049, 17.5903, 15.1866, -39.2345, -8.01715
9.09636, 5, 9.77827, 25.0599, 17.5851, 15.1628, -39.2536, -7.99858
9.10365, 5, 9.76657, 25.0707, 17.5798, 15.1391, -39.2724, -7.97985
9.11206, 5, 9.75483, 25.0815, 17.5746, 15.1148, -39.291, -7.96091
9.12066, 5, 9.74299, 25.0926, 17.5695, 15.0904, -39.3093, -7.94184
9.12791, 5, 9.73125, 25.1036, 17.5645, 15.0664, -39.3277, -7.9224
9.13592, 5, 9.71952, 25.1146, 17.5595, 15.0427, -39.3461, -7.90298
9.14479, 5, 9.70768, 25.1256, 17.5546, 15.0193, -39.3649, -7.88391
9.1523, 5, 9.69588, 25.1364, 17.5496, 14.996, -39.3839, -7.86503
9.15893, 5, 9.68999, 25.1418, 17.5471, 14.9841, -39.3936, -7.85565
9.16895, 5, 9.67213, 25.1584, 17.5395, 14.9477, -39.422, -7.82779
9.17624, 5, 9.66018, 25.1694, 17.5344, 14.9237, -39.4407, -7.80937
9.18295, 5, 9.65427, 25.1749, 17.5318, 14.9119, -39.45, -7.80011
9.19318, 5, 9.63646, 25.1912, 17.524, 14.8766, -39.4778, -7.772
9.19894, 5, 9.63051, 25.1965, 17.5214, 14.8649, -39.4871, -7.76248
9.20845, 5, 9.61281, 25.2129, 17.5137, 14.8291, -39.5154, -7.73362
9.21733, 5, 9.60104, 25.2239, 17.5086, 14.8048, -39.5347, -7.7144
9.22295, 5, 9.59514, 25.2294, 17.5061, 14.7928, -39.5444, -7.70488
9.23248, 5, 9.57753, 25.2458, 17.4985, 14.7574, -39.5726, -7.67673
9.24129, 5, 9.57172, 25.2512, 17.496, 14.7457, -39.5913, -7.65834
9.24694, 5, 9.55999, 25.2619, 17.4911, 14.7225, -39.6005, -7.6492
9.25691, 5, 9.54233, 25.2783, 17.4836, 14.687, -39.6282, -7.62184
9.26389, 5, 9.53647, 25.2837, 17.4811, 14.6749, -39.6375, -7.61276
9.27094, 5, 9.52467, 25.2946, 17.4761, 14.6508, -39.6563, -7.59446
9.27992, 5, 9.51272, 25.3055, 17.471, 14.627, -39.6755, -7.57581
9.28795, 5, 9.50084, 25.3163, 17.4659, 14.6036, -39.6947, -7.55689
9.2949, 5, 9.48903, 25.3269, 17.461, 14.5802, -39.7138, -7.53802
9.30401, 5, 9.47719, 25.3378, 17.4561, 14.5567, -39.7326, -7.51945
9.3119, 5, 9.46536, 25.3488, 17.4513, 14.5326, -39.7513, -7.50115
9.31888, 5, 9.45357, 25.3596, 17.4465, 14.5085, -39.7698, -7.48297
9.32787, 5, 9.44173, 25.3705, 17.4417, 14.4849, -39.7886, -7.46501
9.33588, 5, 9.42981, 25.3812, 17.4369, 14.4615, -39.8077, -7.44714
9.34287, 5, 9.41799, 25.3919, 17.4321, 14.4384, -39.827, -7.42924
9.35187, 5, 9.40621, 25.4028, 17.4272, 14.4151, -39.8463, -7.41122
9.35988, 5, 9.39435, 25.4135, 17.4223, 14.3914, -39.8652, -7.39284
9.36962, 5, 9.38249, 25.4243, 17.4173, 14.3674, -39.8931, -7.36503
9.37587, 5, 9.37066, 25.435, 17.4122, 14.3437, -39.9023, -7.35571
9.38488, 5, 9.35869, 25.4456, 17.4071, 14.3204, -39.9209, -7.33732
9.39087, 5, 9.34677, 25.4563, 17.4021, 14.2973, -39.9397, -7.31923
9.39987, 5, 9.33495, 25.4672, 17.3972, 14.2742, -39.959, -7.30144
9.40788, 5, 9.32307, 25.478, 17.3923, 14.2506, -39.9785, -7.28363
9.41594, 5, 9.31116, 25.4888, 17.3875, 14.2268, -39.9978, -7.266
9.42389, 5, 9.29935, 25.4995, 17.3826, 14.2034, -40.0167, -7.24851
9.43188, 5, 9.28751, 25.5101, 17.3777, 14.1805, -40.0355, -7.23093
9.43989, 5, 9.27554, 25.5209, 17.3728, 14.1577, -40.0543, -7.21307
9.44787, 5, 9.26364, 25.5318, 17.3679, 14.135, -40.073, -7.19497
9.45602, 5, 9.25188, 25.5425, 17.363, 14.1117, -40.092, -7.1768
9.46387, 5, 9.23998, 25.5532, 17.3581, 14.0881, -40.1113, -7.15874
9.47187, 5, 9.2281, 25.5639, 17.3532, 14.0647, -40.1307, -7.1409
9.47995, 5, 9.21623, 25.5744, 17.3484, 14.0416, -40.1498, -7.12316
9.48787, 5, 9.20416, 25.5852, 17.3436, 14.0188, -40.1686, -7.10569
9.49587, 5, 9.19202, 25.596, 17.339, 13.9961, -40.1873, -7.08834
9.50395, 5, 9.18008, 25.6067, 17.3343, 13.973, -40.2058, -7.07097
9.51187, 5, 9.16816, 25.6174, 17.3296, 13.9495, -40.2245, -7.05359
9.51988, 5, 9.15618, 25.628, 17.325, 13.926, -40.2437, -7.03604
9.52794, 5, 9.14435, 25.6385, 17.3203, 13.9029, -40.2631, -7.01841
9.53587, 5, 9.13258, 25.6493, 17.3156, 13.88, -40.2825, -7.00046
9.54387, 5, 9.12067, 25.66, 17.3107, 13.8573, -40.3016, -6.98249
9.55198, 5, 9.10889, 25.6706, 17.3059, 13.8343, -40.3206, -6.96472
9.5599, 5, 9.09716, 25.6813, 17.3011, 13.8109, -40.3394, -6.9473
9.56797, 5, 9.08536, 25.6917, 17.2962, 13.7874, -40.3582, -6.93
9.57689, 5, 9.07359, 25.7023, 17.2914, 13.7643, -40.3772, -6.91283
9.58396, 5, 9.06178, 25.7131, 17.2867, 13.7414, -40.3966, -6.89582
9.59203, 5, 9.04987, 25.7238, 17.282, 13.7188, -40.4161, -6.8788
9.60079, 5, 9.0379, 25.7344, 17.2773, 13.6959, -40.4354, -6.86169
9.60798, 5, 9.02601, 25.7451, 17.2727, 13.6726, -40.4545, -6.84429
9.61611, 5, 9.01413, 25.7555, 17.2681, 13.649, -40.4732, -6.82667
9.62492, 5, 9.00221, 25.7661, 17.2634, 13.6258, -40.492, -6.80892
9.6319, 5, 8.99038, 25.7767, 17.2587, 13.603, -40.5108, -6.79114
9.63997, 5, 8.97857, 25.7873, 17.254, 13.5805, -40.5299, -6.77378
9.64889, 5, 8.96668, 25.7978, 17.2492, 13.558, -40.5493, -6.75649
9.65608, 5, 8.95476, 25.8083, 17.2445, 13.535, -40.5688, -6.73949
9.66286, 5, 8.94888, 25.8135, 17.2421, 13.5234, -40.5785, -6.7309
9.67297, 5, 8.93117, 25.8293, 17.2352, 13.4887, -40.6071, -6.70541
9.68027, 5, 8.91928, 25.8399, 17.2307, 13.4659, -40.626, -6.68851
9.68695, 5, 8.91335, 25.8452, 17.2284, 13.4546, -40.6354, -6.68001
9.69631, 5, 8.89552, 25.8611, 17.2217, 13.421, -40.6639, -6.65425
9.70287, 5, 8.88949, 25.8664, 17.2195, 13.4096, -40.6735, -6.64552
9.71239, 5, 8.87148, 25.882, 17.2127, 13.3749, -40.7028, -6.61924
9.72043, 5, 8.8596, 25.8926, 17.2082, 13.3518, -40.7223, -6.60179
9.72688, 5, 8.8536, 25.8979, 17.2059, 13.3405, -40.7319, -6.59316
9.73642, 5, 8.8416, 25.9085, 17.1989, 13.3069, -40.7604, -6.5676
9.7444, 5, 8.82968, 25.919, 17.1966, 13.2958, -40.7698, -6.55072
9.75086, 5, 8.81778, 25.9295, 17.1919, 13.2738, -40.7886, -6.54236
9.75987, 5, 8.80574, 25.9398, 17.1872, 13.2512, -40.8076, -6.52565
9.76786, 5, 8.79375, 25.9503, 17.1825, 13.2282, -40.8269, -6.50885
9.77487, 5, 8.78187, 25.9609, 17.1779, 13.2054, -40.8465, -6.49225
9.78386, 5, 8.76993, 25.9714, 17.1734, 13.1829, -40.8661, -6.4754
9.79194, 5, 8.75796, 25.9819, 17.1689, 13.1606, -40.8854, -6.45839
9.79886, 5, 8.746, 25.9924, 17.1644, 13.1385, -40.9046, -6.44113
9.80787, 5, 8.73391, 26.0027, 17.1599, 13.1159, -40.9235, -6.42408
9.81592, 5, 8.72175, 26.0132, 17.1554, 13.0931, -40.9425, -6.40723
9.82287, 5, 8.70972, 26.0237, 17.1509, 13.0702, -40.9616, -6.39076
9.83186, 5, 8.69773, 26.0342, 17.1463, 13.0477, -40.9811, -6.37432
9.83991, 5, 8.68571, 26.0446, 17.1418, 13.0255, -41.0007, -6.35801
9.84788, 5, 8.67374, 26.055, 17.1373, 13.0035, -41.02, -6.34167
9.85586, 5, 8.66186, 26.0652, 17.1328, 12.9814, -41.039, -6.32531
9.86287, 5, 8.64985, 26.0756, 17.1284, 12.9587, -41.058, -6.30887
9.87186, 5, 8.63795, 26.0862, 17.124, 12.9358, -41.0768, -6.29224
9.88086, 5, 8.62616, 26.0966, 17.1197, 12.9131, -41.0958, -6.27532
9.88793, 5, 8.61427, 26.107, 17.1154, 12.8906, -41.1151, -6.25839
9.89588, 5, 8.60237, 26.1174, 17.1112, 12.8685, -41.1349, -6.24147
9.90485, 5, 8.59048, 26.1276, 17.1069, 12.8463, -41.1547, -6.2247
9.91192, 5, 8.57849, 26.138, 17.1026, 12.8238, -41.1741, -6.20825
9.91986, 5, 8.56641, 26.1485, 17.0982, 12.8009, -41.1932, -6.19218
9.92792, 5, 8.55443, 26.1588, 17.0938, 12.7782, -41.2124, -6.17623
9.93585, 5, 8.54249, 26.1692, 17.0894, 12.7558, -41.2314, -6.16016
9.94396, 5, 8.53056, 26.1795, 17.0849, 12.7337, -41.2507, -6.14425
9.95192, 5, 8.51869, 26.1897, 17.0804, 12.7119, -41.2704, -6.12819
9.9599, 5, 8.50682, 26.2001, 17.0759, 12.6898, -41.2901, -6.11215
9.96786, 5, 8.49484, 26.2107, 17.0713, 12.6673, -41.3096, -6.09587
9.97592, 5, 8.48293, 26.2211, 17.0669, 12.6446, -41.3288, -6.07921
9.98386, 5, 8.4711, 26.2315, 17.0625, 12.6223, -41.3479, -6.06263
9.99186, 5, 8.45927, 26.2419, 17.0582, 12.6002, -41.3668, -6.04617
9.99992, 5, 8.44738, 26.2521, 17.0539, 12.5784, -41.3858, -6.02988
10.0078, 5, 8.43548, 26.2625, 17.0495, 12.5566, -41.4052, -6.01391
10.0159, 5, 8.42356, 26.273, 17.0452, 12.5344, -41.425, -5.9979
10.024, 5, 8.41145, 26.2833, 17.0408, 12.5118, -41.4447, -5.98217
10.0319, 5, 8.39946, 26.2936, 17.0364, 12.4895, -41.4642, -5.96652
10.0399, 5, 8.38758, 26.3038, 17.0321, 12.4675, -41.4836, -5.95075
10.0479, 5, 8.37549, 26.3139, 17.0277, 12.4458, -41.5027, -5.93492
10.0559, 5, 8.36349, 26.3242, 17.0233, 12.4243, -41.5219, -5.91902
10.0641, 5, 8.35156, 26.3347, 17.019, 12.4026, -41.5413, -5.90302
10.0714, 5, 8.3395, 26.3449, 17.0146, 12.3805, -41.5609, -5.88667
10.0799, 5, 8.32745, 26.3553, 17.0104, 12.358, -41.5807, -5.87023
10.0883, 5, 8.31561, 26.3655, 17.0063, 12.3359, -41.6003, -5.85406
10.0954, 5, 8.30367, 26.3756, 17.0022, 12.3141, -41.6195, -5.83821
10.104, 5, 8.29168, 26.3859, 16.9981, 12.2925, -41.6385, -5.82279
10.1124, 5, 8.27977, 26.3963, 16.994, 12.2709, -41.6576, -5.80736
10.1197, 5, 8.27379, 26.4066, 16.9898, 12.249, -41.6767, -5.79183
10.128, 5, 8.25564, 26.4168, 16.9857, 12.2267, -41.6962, -5.7764
10.1367, 5, 8.24364, 26.427, 16.9815, 12.2045, -41.7161, -5.76096
10.1439, 5, 8.23172, 26.4372, 16.9773, 12.1826, -41.7359, -5.74554
10.1519, 5, 8.21978, 26.4475, 16.9731, 12.161, -41.7555, -5.72988
10.1608, 5, 8.20782, 26.4579, 16.9688, 12.1395, -41.7748, -5.71389
10.1682, 5, 8.19596, 26.4682, 16.9644, 12.1179, -41.7941, -5.69783
10.1749, 5, 8.18998, 26.4733, 16.9623, 12.107, -41.8036, -5.68983
10.185, 5, 8.17195, 26.4886, 16.9559, 12.0736, -41.8327, -5.66597
10.1923, 5, 8.16003, 26.4987, 16.9518, 12.0515, -41.8525, -5.65031
10.1989, 5, 8.15407, 26.5037, 16.9498, 12.0406, -41.8624, -5.64254
10.2091, 5, 8.13606, 26.5191, 16.9436, 12.0082, -41.892, -5.61965
10.2149, 5, 8.13007, 26.5242, 16.9416, 11.9975, -41.9017, -5.61202
10.2244, 5, 8.11205, 26.5393, 16.9353, 11.965, -41.9305, -5.58917
10.2333, 5, 8.09986, 26.5493, 16.9312, 11.9428, -41.9496, -5.57394
10.239, 5, 8.09379, 26.5543, 16.9291, 11.9316, -41.9592, -5.56624
10.2485, 5, 8.08181, 26.5643, 16.925, 11.8986, -41.9886, -5.54325
10.2558, 5, 8.06978, 26.5745, 16.9209, 11.8878, -41.9985, -5.53543
10.2629, 5, 8.05783, 26.5847, 16.9167, 11.8663, -42.0187, -5.51965
10.2729, 5, 8.04001, 26.6, 16.9104, 11.8343, -42.0482, -5.49604
10.2799, 5, 8.03407, 26.6051, 16.9083, 11.8235, -42.058, -5.4882
10.2869, 5, 8.0221, 26.6152, 16.9042, 11.8015, -42.0773, -5.47288
10.2959, 5, 8.01022, 26.6252, 16.9002, 11.7794, -42.0966, -5.45772
10.3038, 5, 7.99837, 26.6354, 16.8963, 11.7577, -42.1159, -5.44248
10.3109, 5, 7.98643, 26.6457, 16.8924, 11.7362, -42.1357, -5.4274
10.3198, 5, 7.97448, 26.6558, 16.8885, 11.7149, -42.1557, -5.41246
10.3279, 5, 7.96252, 26.6658, 16.8845, 11.6937, -42.1756, -5.39747
10.3348, 5, 7.95048, 26.6759, 16.8805, 11.672, -42.1951, -5.3825
10.3438, 5, 7.93837, 26.6858, 16.8766, 11.6502, -42.2144, -5.36743
10.3518, 5, 7.92637, 26.6959, 16.8726, 11.6283, -42.2336, -5.35235
10.3589, 5, 7.91433, 26.7061, 16.8685, 11.6068, -42.2528, -5.33703
10.3678, 5, 7.90223, 26.7162, 16.8645, 11.5857, -42.2723, -5.3216
10.3759, 5, 7.89023, 26.7262, 16.8603, 11.5647, -42.2923, -5.30631
10.3849, 5, 7.87827, 26.7363, 16.8561, 11.5437, -42.3123, -5.29115
10.3918, 5, 7.86616, 26.7461, 16.8519, 11.5223, -42.3321, -5.27645
10.3999, 5, 7.85417, 26.7562, 16.8478, 11.5005, -42.3517, -5.26185
10.4079, 5, 7.84227, 26.7663, 16.8438, 11.4789, -42.3709, -5.2474
10.4158, 5, 7.83027, 26.7763, 16.8399, 11.4576, -42.3903, -5.23284
10.4238, 5, 7.81828, 26.7862, 16.836, 11.4364, -42.4098, -5.21818
10.4319, 5, 7.80631, 26.7961, 16.8321, 11.4154, -42.4296, -5.20369
10.4398, 5, 7.79415, 26.8059, 16.8282, 11.3942, -42.4497, -5.189
10.4479, 5, 7.78193, 26.8157, 16.8242, 11.3725, -42.4696, -5.17413
10.4558, 5, 7.76985, 26.8258, 16.8203, 11.3507, -42.4892, -5.15898
10.4639, 5, 7.75777, 26.8358, 16.8164, 11.3291, -42.5085, -5.14375
10.4719, 5, 7.74563, 26.8457, 16.8125, 11.3079, -42.5277, -5.12862
10.4798, 5, 7.73355, 26.8558, 16.8086, 11.2871, -42.5471, -5.1137
10.4878, 5, 7.72148, 26.8656, 16.8047, 11.2662, -42.5666, -5.09891
10.4959, 5, 7.70932, 26.8754, 16.8007, 11.2451, -42.5866, -5.08449
10.5038, 5, 7.69729, 26.8855, 16.7967, 11.2234, -42.6066, -5.07027
10.5119, 5, 7.68534, 26.8955, 16.7928, 11.2018, -42.6264, -5.05606
10.5199, 5, 7.67332, 26.9053, 16.7891, 11.1804, -42.6459, -5.0419
10.5279, 5, 7.66132, 26.9152, 16.7854, 11.1591, -42.6654, -5.02781
10.5358, 5, 7.64936, 26.925, 16.7818, 11.1382, -42.6847, -5.01364
10.5439, 5, 7.63732, 26.9347, 16.7781, 11.1172, -42.7043, -4.99929
10.5518, 5, 7.62522, 26.9447, 16.7744, 11.0958, -42.7241, -4.98489
10.5599, 5, 7.61334, 26.9547, 16.7706, 11.0741, -42.7441, -4.97042
10.568, 5, 7.60142, 26.9646, 16.7668, 11.0525, -42.7639, -4.95556
10.5753, 5, 7.58947, 26.9746, 16.7631, 11.0313, -42.7834, -4.94098
10.584, 5, 7.57756, 26.9844, 16.7593, 11.0103, -42.8027, -4.92645
10.5927, 5, 7.56562, 26.9941, 16.7555, 10.9895, -42.8219, -4.91214
10.5999, 5, 7.55352, 27.0041, 16.7516, 10.9687, -42.8413, -4.89805
10.608, 5, 7.54145, 27.0141, 16.7477, 10.9475, -42.861, -4.88417
10.6167, 5, 7.52942, 27.0239, 16.7437, 10.926, -42.8811, -4.87005
10.6239, 5, 7.51728, 27.0337, 16.7398, 10.9045, -42.9011, -4.85631
10.6321, 5, 7.50515, 27.0435, 16.736, 10.8835, -42.921, -4.84243
10.6389, 5, 7.49908, 27.0483, 16.7341, 10.873, -42.9308, -4.83544
10.6479, 5, 7.48079, 27.0629, 16.7285, 10.842, -42.9601, -4.81447
10.656, 5, 7.46859, 27.0728, 16.7247, 10.8211, -42.9797, -4.80011
10.6648, 5, 7.45651, 27.0827, 16.721, 10.8, -42.9994, -4.78587
10.6721, 5, 7.44444, 27.0925, 16.7172, 10.7787, -43.0195, -4.77145
10.6789, 5, 7.43838, 27.0974, 16.7153, 10.7681, -43.0296, -4.76416
10.6891, 5, 7.42036, 27.1119, 16.7097, 10.7369, -43.0595, -4.7426
10.6949, 5, 7.41439, 27.1168, 16.7078, 10.7266, -43.0694, -4.73554
10.7043, 5, 7.39638, 27.1316, 16.7022, 10.696, -43.0985, -4.71463
10.7123, 5, 7.38434, 27.1415, 16.6985, 10.6754, -43.1179, -4.70118
10.7189, 5, 7.37836, 27.1464, 16.6966, 10.6649, -43.1276, -4.69444
10.7284, 5, 7.36039, 27.1611, 16.6909, 10.6332, -43.1573, -4.67408
10.7364, 5, 7.34836, 27.1708, 16.6871, 10.6122, -43.1775, -4.66056
10.7445, 5, 7.33631, 27.1804, 16.6834, 10.5916, -43.1976, -4.64708
10.7523, 5, 7.33025, 27.1853, 16.6816, 10.5813, -43.2075, -4.64029
10.7598, 5, 7.31799, 27.1952, 16.6781, 10.5609, -43.2272, -4.62652
10.7668, 5, 7.30575, 27.205, 16.6746, 10.5405, -43.2467, -4.61264
10.7758, 5, 7.2936, 27.2147, 16.6712, 10.5197, -43.2662, -4.59846
10.7838, 5, 7.28144, 27.2245, 16.6677, 10.4985, -43.2859, -4.58418
10.7908, 5, 7.2693, 27.234, 16.6642, 10.4774, -43.3059, -4.57011
10.7999, 5, 7.25729, 27.2435, 16.6606, 10.4566, -43.3262, -4.55601
10.8079, 5, 7.24525, 27.2533, 16.6571, 10.436, -43.3462, -4.54205
10.8148, 5, 7.23315, 27.263, 16.6536, 10.4156, -43.3658, -4.52856
10.8238, 5, 7.22118, 27.2726, 16.6501, 10.3952, -43.3853, -4.51502
10.8319, 5, 7.20923, 27.2823, 16.6465, 10.3743, -43.4047, -4.50166
10.8399, 5, 7.19722, 27.2919, 16.6429, 10.3532, -43.4242, -4.48846
10.8478, 5, 7.18526, 27.3014, 16.6392, 10.3321, -43.4441, -4.47504
10.8559, 5, 7.17325, 27.311, 16.6355, 10.3114, -43.4643, -4.46159
10.8639, 5, 7.1611, 27.3208, 16.6318, 10.2909, -43.4845, -4.44817
10.8718, 5, 7.14898, 27.3305, 16.6281, 10.2705, -43.5045, -4.43447
10.8799, 5, 7.137, 27.3402, 16.6245, 10.2501, -43.5242, -4.42085
10.8889, 5, 7.12496, 27.3499, 16.621, 10.2293, -43.5438, -4.40699
10.8958, 5, 7.1129, 27.3594, 16.6176, 10.2081, -43.5634, -4.39295
10.9039, 5, 7.10094, 27.369, 16.6141, 10.187, -43.5832, -4.37928
10.9129, 5, 7.08892, 27.3787, 16.6106, 10.1663, -43.6033, -4.3657
10.9198, 5, 7.07678, 27.3884, 16.6071, 10.1459, -43.6235, -4.35229
10.9279, 5, 7.06477, 27.3979, 16.6036, 10.1257, -43.6434, -4.3391
10.9358, 5, 7.05277, 27.4076, 16.6002, 10.1055, -43.663, -4.32596
10.9439, 5, 7.04069, 27.4171, 16.5967, 10.0849, -43.6824, -4.31279
10.9518, 5, 7.02866, 27.4266, 16.5933, 10.0641, -43.7018, -4.29966
10.9599, 5, 7.01658, 27.4362, 16.5899, 10.0433, -43.7214, -4.28684
10.9679, 5, 7.00436, 27.4458, 16.5864, 10.0228, -43.7414, -4.27351
10.9758, 5, 6.99216, 27.4555, 16.5828, 10.0025, -43.7616, -4.26031
10.9838, 5, 6.98015, 27.465, 16.5793, 9.98247, -43.7817, -4.24708
10.9919, 5, 6.96802, 27.4746, 16.5758, 9.96223, -43.8016, -4.23359
10.9998, 5, 6.95591, 27.484, 16.5723, 9.94165, -43.8213, -4.22011
11.0078, 5, 6.94384, 27.4935, 16.569, 9.92074, -43.8409, -4.20688
11.0159, 5, 6.93175, 27.5032, 16.5657, 9.89998, -43.8605, -4.19339
11.0238, 5, 6.91955, 27.5127, 16.5624, 9.87966, -43.8805, -4.18016
11.0319, 5, 6.9075, 27.5221, 16.5591, 9.85965, -43.9008, -4.16725
11.0399, 5, 6.89546, 27.5317, 16.5559, 9.83982, -43.921, -4.15443
11.0478, 5, 6.88329, 27.5411, 16.5526, 9.81998, -43.9409, -4.1418
11.0559, 5, 6.87115, 27.5505, 16.5493, 9.79966, -43.9606, -4.12931
11.0638, 5, 6.85893, 27.5601, 16.546, 9.77907, -43.9801, -4.11668
11.0718, 5, 6.84659, 27.5697, 16.5427, 9.75851, -43.9996, -4.10407
11.0801, 5, 6.83434, 27.5793, 16.5394, 9.73817, -44.0194, -4.09145
11.0876, 5, 6.82219, 27.5888, 16.536, 9.71813, -44.0397, -4.07863
11.0959, 5, 6.81, 27.5984, 16.5326, 9.6982, -44.0601, -4.06579
11.1043, 5, 6.79783, 27.6077, 16.5292, 9.67823, -44.0802, -4.05269
11.1115, 5, 6.78578, 27.6171, 16.5257, 9.65794, -44.1, -4.03941
11.12, 5, 6.77364, 27.6268, 16.5222, 9.6374, -44.1197, -4.02603
11.1285, 5, 6.76151, 27.6362, 16.5188, 9.61678, -44.1393, -4.0128
11.136, 5, 6.74956, 27.6455, 16.5154, 9.59662, -44.1591, -3.99995
11.1429, 5, 6.74358, 27.6503, 16.5137, 9.58663, -44.1691, -3.99348
11.1527, 5, 6.72557, 27.6643, 16.5088, 9.55693, -44.1996, -3.97448
11.16, 5, 6.71358, 27.6736, 16.5056, 9.53714, -44.2199, -3.96211
11.1669, 5, 6.70757, 27.6783, 16.504, 9.5271, -44.2298, -3.95589
11.1769, 5, 6.6893, 27.6926, 16.4992, 9.49644, -44.2593, -3.93765
11.1843, 5, 6.67715, 27.7021, 16.4959, 9.47585, -44.2789, -3.92545
11.1908, 5, 6.67113, 27.7068, 16.4943, 9.46566, -44.2886, -3.91924
11.2011, 5, 6.65298, 27.721, 16.4895, 9.43545, -44.3184, -3.90073
11.2069, 5, 6.64694, 27.7257, 16.4879, 9.42547, -44.3286, -3.89453
11.2164, 5, 6.62894, 27.7396, 16.4831, 9.39567, -44.3591, -3.87564
11.2252, 5, 6.61684, 27.7492, 16.4799, 9.37554, -44.3792, -3.86314
11.2309, 5, 6.61076, 27.754, 16.4783, 9.36533, -44.3891, -3.85682
11.2404, 5, 6.59275, 27.768, 16.4735, 9.33451, -44.4188, -3.83772
11.2492, 5, 6.58675, 27.7726, 16.4718, 9.31428, -44.4384, -3.82498
11.2549, 5, 6.57468, 27.782, 16.4686, 9.30428, -44.4483, -3.81873
11.2648, 5, 6.55651, 27.7958, 16.4637, 9.27468, -44.4786, -3.80022
11.2718, 5, 6.55045, 27.8005, 16.4622, 9.26489, -44.4888, -3.79411
11.2798, 5, 6.53827, 27.8099, 16.4591, 9.24519, -44.5089, -3.78193
11.2879, 5, 6.52601, 27.8194, 16.456, 9.22516, -44.5288, -3.76989
11.2958, 5, 6.51391, 27.8287, 16.4531, 9.20476, -44.5485, -3.75785
11.3039, 5, 6.50182, 27.8381, 16.4502, 9.18444, -44.5681, -3.74579
11.3119, 5, 6.48963, 27.8473, 16.4472, 9.16442, -44.5878, -3.73388
11.3198, 5, 6.47758, 27.8565, 16.4442, 9.14474, -44.6078, -3.7219
11.3278, 5, 6.46551, 27.8658, 16.4412, 9.12519, -44.6282, -3.70983
11.3359, 5, 6.45328, 27.8753, 16.4382, 9.10567, -44.6486, -3.69761
11.3438, 5, 6.44116, 27.8847, 16.4352, 9.08587, -44.6688, -3.68531
11.3518, 5, 6.4291, 27.894, 16.4322, 9.06579, -44.6887, -3.67288
11.3599, 5, 6.41699, 27.9033, 16.4292, 9.04553, -44.7084, -3.66036
11.3678, 5, 6.4049, 27.9125, 16.4261, 9.02563, -44.7282, -3.64808
11.3758, 5, 6.39276, 27.9216, 16.4231, 9.00608, -44.7483, -3.63568
11.3848, 5, 6.3805, 27.931, 16.4199, 8.9867, -44.7687, -3.62336
11.3918, 5, 6.36815, 27.9404, 16.4167, 8.96746, -44.7892, -3.61142
11.4008, 5, 6.35591, 27.9496, 16.4134, 8.94796, -44.8093, -3.59962
11.4079, 5, 6.34367, 27.9589, 16.4102, 8.92799, -44.8292, -3.58794
11.4158, 5, 6.33146, 27.9682, 16.407, 8.90787, -44.8489, -3.57645
11.4238, 5, 6.31929, 27.9772, 16.4039, 8.88786, -44.8686, -3.56501
11.4319, 5, 6.30719, 27.9863, 16.4008, 8.86822, -44.8885, -3.5535
11.4398, 5, 6.29491, 27.9956, 16.3978, 8.84877, -44.9088, -3.54193
11.4479, 5, 6.28272, 28.0049, 16.3948, 8.82948, -44.9294, -3.53034
11.4558, 5, 6.27061, 28.014, 16.3919, 8.81008, -44.9497, -3.51864
11.4638, 5, 6.25841, 28.0232, 16.3889, 8.79033, -44.9698, -3.50675
11.4719, 5, 6.24622, 28.0323, 16.3858, 8.77025, -44.9898, -3.49466
11.4798, 5, 6.23404, 28.0413, 16.3828, 8.75026, -45.0097, -3.48264
11.4878, 5, 6.22171, 28.0504, 16.3799, 8.73059, -45.0297, -3.47036
11.4959, 5, 6.20935, 28.0598, 16.3769, 8.71113, -45.0501, -3.45817
11.5038, 5, 6.19712, 28.0691, 16.374, 8.69187, -45.0707, -3.44632
11.5118, 5, 6.18489, 28.0783, 16.371, 8.6726, -45.0911, -3.43442
11.5199, 5, 6.17269, 28.0876, 16.3681, 8.65307, -45.1112, -3.42271
11.5278, 5, 6.1606, 28.0967, 16.3651, 8.63315, -45.131, -3.41123
11.5358, 5, 6.14842, 28.1057, 16.3621, 8.61321, -45.1508, -3.39983
11.5439, 5, 6.13617, 28.1149, 16.3591, 8.59339, -45.1706, -3.38853
11.5518, 5, 6.12409, 28.1242, 16.356, 8.57384, -45.1908, -3.37725
11.5599, 5, 6.11203, 28.1334, 16.3531, 8.55459, -45.2115, -3.36603
11.5679, 5, 6.09987, 28.1424, 16.3502, 8.53529, -45.2321, -3.35477
11.5758, 5, 6.08774, 28.1516, 16.3474, 8.51582, -45.2523, -3.34322
11.5848, 5, 6.07557, 28.1605, 16.3447, 8.49599, -45.2723, -3.33162
11.5921, 5, 6.06324, 28.1695, 16.342, 8.47589, -45.2922, -3.3201
11.5995, 5, 6.05099, 28.1786, 16.3394, 8.45604, -45.3121, -3.30824
11.6087, 5, 6.03879, 28.1878, 16.3367, 8.43651, -45.3323, -3.29639
11.6163, 5, 6.02653, 28.1969, 16.3339, 8.41726, -45.3527, -3.28451
11.6234, 5, 6.01427, 28.206, 16.3312, 8.39814, -45.3732, -3.27265
11.6327, 5, 6.0021, 28.2152, 16.3285, 8.37886, -45.3933, -3.26088
11.6406, 5, 5.98987, 28.2241, 16.3257, 8.35935, -45.4132, -3.24949
11.6479, 5, 5.97758, 28.2331, 16.323, 8.33954, -45.4329, -3.2382
11.6567, 5, 5.96543, 28.2423, 16.3203, 8.31979, -45.4527, -3.22709
11.6647, 5, 5.95323, 28.2514, 16.3175, 8.30037, -45.4727, -3.21604
11.6719, 5, 5.94098, 28.2604, 16.3148, 8.28114, -45.4931, -3.20512
11.6809, 5, 5.92873, 28.2695, 16.312, 8.26213, -45.5138, -3.19419
11.6888, 5, 5.91639, 28.2786, 16.3091, 8.24308, -45.5341, -3.1831
11.6962, 5, 5.9039, 28.2874, 16.3063, 8.22374, -45.5542, -3.17219
11.7029, 5, 5.89768, 28.2918, 16.3048, 8.21394, -45.5642, -3.16673
11.7139, 5, 5.87921, 28.3054, 16.3005, 8.18439, -45.5941, -3.15021
11.7204, 5, 5.86687, 28.3145, 16.2976, 8.16487, -45.6141, -3.13895
11.7283, 5, 5.85459, 28.3235, 16.2948, 8.14584, -45.6346, -3.12759
11.7348, 5, 5.84847, 28.328, 16.2934, 8.13638, -45.6449, -3.12193
11.7428, 5, 5.83622, 28.337, 16.2907, 8.11751, -45.6654, -3.11059
11.7523, 5, 5.82392, 28.3459, 16.288, 8.09877, -45.6955, -3.09367
11.7589, 5, 5.81173, 28.3547, 16.2854, 8.0797, -45.7055, -3.088
11.7688, 5, 5.79346, 28.3683, 16.2814, 8.05046, -45.7351, -3.07135
11.7758, 5, 5.78734, 28.3728, 16.2801, 8.04064, -45.745, -3.0658
11.7829, 5, 5.77514, 28.3816, 16.2774, 8.02126, -45.7652, -3.05475
11.7918, 5, 5.76285, 28.3905, 16.2748, 8.00212, -45.7857, -3.04399
11.7998, 5, 5.75046, 28.3994, 16.2722, 7.98316, -45.8063, -3.03335
11.8068, 5, 5.73807, 28.4082, 16.2695, 7.96434, -45.8266, -3.02279
11.8158, 5, 5.72581, 28.417, 16.2669, 7.94534, -45.8467, -3.01238
11.8238, 5, 5.71356, 28.4259, 16.2643, 7.92594, -45.8666, -3.00198
11.8318, 5, 5.70131, 28.4349, 16.2617, 7.90627, -45.8866, -2.99155
11.8389, 5, 5.68914, 28.4439, 16.2591, 7.88673, -45.9067, -2.98087
11.8478, 5, 5.67688, 28.4528, 16.2565, 7.86759, -45.9272, -2.97033
11.8548, 5, 5.66457, 28.4617, 16.2538, 7.84867, -45.9479, -2.95962
11.8638, 5, 5.65241, 28.4705, 16.2511, 7.82995, -45.9682, -2.94877
11.8718, 5, 5.64021, 28.4792, 16.2484, 7.81121, -45.9883, -2.93791
11.8799, 5, 5.62799, 28.4883, 16.2457, 7.7922, -46.0081, -2.92687
11.8893, 5, 5.61576, 28.4973, 16.243, 7.77282, -46.0279, -2.91572
11.8958, 5, 5.60351, 28.5061, 16.2404, 7.75328, -46.0479, -2.90461
11.9038, 5, 5.59109, 28.5149, 16.2378, 7.73396, -46.0682, -2.89355
11.9118, 5, 5.57875, 28.5238, 16.2353, 7.71484, -46.0889, -2.88278
11.9198, 5, 5.56651, 28.5324, 16.2329, 7.69593, -46.1094, -2.87213
11.9278, 5, 5.55414, 28.5411, 16.2305, 7.67717, -46.1296, -2.86158
11.9358, 5, 5.54186, 28.55, 16.2281, 7.65823, -46.1497, -2.85131
11.9439, 5, 5.52959, 28.559, 16.2257, 7.63898, -46.1696, -2.84109
11.9518, 5, 5.51727, 28.5678, 16.2233, 7.61945, -46.1896, -2.83083
11.9598, 5, 5.50491, 28.5766, 16.2209, 7.60002, -46.2099, -2.82083
11.9678, 5, 5.49269, 28.5854, 16.2184, 7.58092, -46.2304, -2.81081
11.9759, 5, 5.48043, 28.594, 16.216, 7.56205, -46.2509, -2.8007
11.9838, 5, 5.46815, 28.6027, 16.2136, 7.54342, -46.2711, -2.79058
