hehonglu123/ABB_Primitive_Study/realrobot/movec_30_ori/curve_exe_v1000_z10.csv
timestamp, cmd_num, J1, J2, J3, J4, J5, J6
0.000365, -1, -18.7721, 34.1307, 27.9458, -19.9674, -90.5847, -2.05524
0.004211, -1, -18.7721, 34.1307, 27.9458, -19.9674, -90.5847, -2.05525
0.008035, -1, -18.7721, 34.1307, 27.9458, -19.9674, -90.5846, -2.05523
0.02687, -1, -18.7721, 34.1308, 27.9458, -19.9674, -90.5847, -2.05526
0.029847, -1, -18.7721, 34.1307, 27.9458, -19.9674, -90.5847, -2.05524
0.032343, -1, -18.7721, 34.1307, 27.9458, -19.9674, -90.5847, -2.05522
0.040377, -1, -18.7721, 34.1307, 27.9458, -19.9674, -90.5846, -2.05523
0.047712, -1, -18.772, 34.1307, 27.9458, -19.9675, -90.5846, -2.05526
0.056215, -1, -18.7707, 34.1304, 27.9458, -19.9675, -90.5846, -2.05522
0.063157, -1, -18.7692, 34.13, 27.9458, -19.9674, -90.5845, -2.05521
0.072254, -1, -18.7597, 34.1262, 27.9459, -19.9663, -90.583, -2.0553
0.079165, -1, -18.7547, 34.1239, 27.9459, -19.9646, -90.5814, -2.05535
0.089138, -1, -18.7315, 34.1122, 27.946, -19.9513, -90.568, -2.0569
0.095203, -1, -18.7199, 34.1063, 27.946, -19.9426, -90.5592, -2.05928
0.104543, -1, -18.6705, 34.0812, 27.945, -19.8966, -90.5116, -2.07831
0.111118, -1, -18.6485, 34.0701, 27.944, -19.8722, -90.486, -2.0891
0.119155, -1, -18.5954, 34.0432, 27.9407, -19.806, -90.4173, -2.11895
0.128684, -1, -18.4901, 33.9898, 27.9309, -19.6568, -90.2606, -2.1894
0.137573, -1, -18.4024, 33.9456, 27.9204, -19.519, -90.1155, -2.2549
0.143174, -1, -18.3534, 33.921, 27.9138, -19.4382, -90.0302, -2.29306
0.152731, -1, -18.1859, 33.837, 27.8891, -19.1493, -89.7248, -2.43135
0.161506, -1, -18.1232, 33.8055, 27.8692, -18.9219, -89.4841, -2.5395
0.167189, -1, -17.988, 33.7377, 27.8583, -18.7994, -89.3542, -2.59807
0.176658, -1, -17.8408, 33.6642, 27.8352, -18.5404, -89.0789, -2.72197
0.18411, -1, -17.683, 33.5852, 27.811, -18.2666, -88.7878, -2.85289
0.191173, -1, -17.5157, 33.5015, 27.7863, -17.9827, -88.486, -2.98904
0.199113, -1, -17.3405, 33.4139, 27.7614, -17.6928, -88.1777, -3.12825
0.207174, -1, -17.1596, 33.3235, 27.7362, -17.399, -87.8652, -3.26966
0.215123, -1, -16.9749, 33.2314, 27.711, -17.1029, -87.5504, -3.41198
0.223119, -1, -16.7877, 33.1383, 27.6859, -16.8056, -87.234, -3.55489
0.232114, -1, -16.5988, 33.0447, 27.6609, -16.5072, -86.9165, -3.69813
0.239108, -1, -16.4091, 32.9509, 27.6357, -16.2081, -86.598, -3.84162
0.247136, -1, -16.219, 32.857, 27.6106, -15.9082, -86.2787, -3.98535
0.255179, -1, -16.0291, 32.7632, 27.5855, -15.6073, -85.9589, -4.12954
0.263175, -1, -15.8395, 32.6695, 27.5605, -15.3061, -85.6385, -4.27369
0.271117, -1, -15.6506, 32.5758, 27.5353, -15.0047, -85.3176, -4.41849
0.279174, -1, -15.4619, 32.482, 27.51, -14.7026, -84.9964, -4.56341
0.287106, -1, -15.2737, 32.388, 27.4848, -14.4003, -84.6747, -4.70825
0.295116, -1, -15.0859, 32.2937, 27.4595, -14.0977, -84.3525, -4.8534
0.304099, -1, -14.8982, 32.1991, 27.4342, -13.7944, -84.0303, -4.99858
0.312176, -1, -14.7099, 32.104, 27.4086, -13.4912, -83.7077, -5.14392
0.319691, -1, -14.5207, 32.0088, 27.383, -13.1877, -83.3847, -5.28948
0.327104, -1, -14.3304, 31.9135, 27.3574, -12.8841, -83.0615, -5.43512
0.33511, -1, -14.1391, 31.818, 27.3318, -12.5805, -82.7381, -5.58104
0.344111, -1, -13.9471, 31.7224, 27.3062, -12.2764, -82.4144, -5.72685
0.352169, -1, -13.7547, 31.6269, 27.2805, -11.972, -82.0905, -5.87267
0.359179, -1, -13.5616, 31.5314, 27.2549, -11.6678, -81.7664, -6.01847
0.368013, -1, -13.3679, 31.4359, 27.2293, -11.3634, -81.4425, -6.16419
0.376169, -1, -13.1742, 31.3406, 27.2037, -11.0592, -81.1185, -6.30994
0.3832, -1, -12.9811, 31.2454, 27.178, -10.7548, -80.7945, -6.45582
0.392691, -1, -12.7887, 31.1503, 27.1525, -10.4502, -80.471, -6.60167
0.400098, -1, -12.5968, 31.0553, 27.127, -10.146, -80.1476, -6.74762
0.407285, -1, -12.4058, 30.9602, 27.1015, -9.84185, -79.8241, -6.89353
0.415214, -1, -12.2156, 30.8651, 27.0758, -9.53787, -79.5008, -7.03906
0.424144, -1, -12.0263, 30.7699, 27.0502, -9.23403, -79.1772, -7.18467
0.43191, -1, -11.8375, 30.6746, 27.0246, -8.93044, -78.8539, -7.33011
0.440885, -1, -11.6487, 30.5793, 26.9992, -8.62685, -78.5307, -7.47551
0.4481, -1, -11.4597, 30.4841, 26.9736, -8.32377, -78.2081, -7.62078
0.45613, -1, -11.2703, 30.3891, 26.948, -8.02136, -77.8862, -7.766
0.463528, -1, -11.0807, 30.2943, 26.9225, -7.71923, -77.5645, -7.91081
0.471368, -1, -10.8906, 30.1996, 26.8971, -7.4176, -77.2434, -8.05521
0.480284, -1, -10.7, 30.1053, 26.8718, -7.11643, -76.9231, -8.19934
0.48755, -1, -10.5095, 30.0111, 26.8464, -6.81551, -76.6032, -8.34307
0.495589, -1, -10.3186, 29.9171, 26.8212, -6.51531, -76.2835, -8.48684
0.504435, -1, -10.1282, 29.8232, 26.796, -6.21581, -75.9644, -8.6301
0.512655, -1, -9.93847, 29.7296, 26.771, -5.91666, -75.6458, -8.77323
0.520264, -1, -9.7495, 29.6363, 26.7458, -5.61827, -75.3281, -8.9164
0.528488, -1, -9.56148, 29.543, 26.7207, -5.32017, -75.0111, -9.05896
0.535721, -1, -9.46774, 29.4499, 26.6957, -5.02267, -74.6947, -9.20117
0.544102, -1, -9.18803, 29.3568, 26.6708, -4.72631, -74.3794, -9.34295
0.551093, -1, -9.09535, 29.3104, 26.6583, -4.57836, -74.2219, -9.41374
0.559094, -1, -8.91058, 29.2177, 26.6334, -4.28286, -73.9075, -9.55493
0.567175, -1, -8.72653, 29.125, 26.6085, -3.98836, -73.594, -9.69605
0.576966, -1, -8.45125, 28.9866, 26.5714, -3.54791, -73.1253, -9.90682
0.584287, -1, -8.26813, 28.8948, 26.5468, -3.25548, -72.8141, -10.0472
0.722547, -1, -5.23, 27.3815, 26.1405, 1.5684, -67.6789, -12.3567
0.723728, -1, -5.23, 27.3815, 26.1405, 1.5684, -67.6789, -12.3567
0.725849, -1, -5.14373, 27.3385, 26.1289, 1.70581, -67.5328, -12.4223
0.727126, -1, -5.14373, 27.3385, 26.1289, 1.70581, -67.5328, -12.4223
0.728307, -1, -5.14373, 27.3385, 26.1289, 1.70581, -67.5328, -12.4223
0.731212, -1, -5.0575, 27.2955, 26.1174, 1.8429, -67.3871, -12.4878
0.732397, -1, -5.0575, 27.2955, 26.1174, 1.8429, -67.3871, -12.4878
0.736224, -1, -4.97135, 27.2526, 26.106, 1.9796, -67.2417, -12.5533
0.739048, -1, -4.88531, 27.2099, 26.0946, 2.1159, -67.0965, -12.6185
0.740246, -1, -4.88531, 27.2099, 26.0946, 2.1159, -67.0965, -12.6185
0.742345, -1, -4.79935, 27.1673, 26.0831, 2.25187, -66.9517, -12.6835
0.743539, -1, -4.79935, 27.1673, 26.0831, 2.25187, -66.9517, -12.6835
0.745368, -1, -4.79935, 27.1673, 26.0831, 2.25187, -66.8074, -12.7485
0.74687, -1, -4.71348, 27.1247, 26.0716, 2.38769, -66.8074, -12.7485
0.748128, -1, -4.71348, 27.1247, 26.0716, 2.38769, -66.8074, -12.7485
0.750522, -1, -4.62782, 27.0822, 26.0602, 2.52325, -66.6632, -12.8132
0.751827, -1, -4.62782, 27.0822, 26.0602, 2.52325, -66.6632, -12.8132
0.754653, -1, -4.54229, 27.0399, 26.0488, 2.65839, -66.5194, -12.8778
0.755966, -1, -4.54229, 27.0399, 26.0488, 2.65839, -66.5194, -12.8778
0.757945, -1, -4.45681, 26.9976, 26.0375, 2.79316, -66.3759, -12.9424
0.75917, -1, -4.45681, 26.9976, 26.0375, 2.79316, -66.3759, -12.9424
0.760468, -1, -4.45681, 26.9976, 26.0375, 2.79316, -66.3759, -12.9424
0.770187, -1, -4.20092, 26.8712, 26.0035, 3.19577, -65.9472, -13.1351
0.775151, -1, -4.11597, 26.8293, 25.9923, 3.32956, -65.8048, -13.199
0.78309, -1, -3.94687, 26.7457, 25.9699, 3.5962, -65.521, -13.3267
0.792102, -1, -3.77899, 26.6624, 25.9475, 3.86142, -65.2385, -13.4539
0.80015, -1, -3.61227, 26.5793, 25.9253, 4.12572, -64.957, -13.5801
0.808085, -1, -3.44669, 26.4967, 25.9031, 4.38872, -64.6771, -13.706
0.816083, -1, -3.28219, 26.4144, 25.881, 4.65045, -64.3984, -13.8311
0.824152, -1, -3.11873, 26.3324, 25.859, 4.91122, -64.1209, -13.9556
0.831089, -1, -2.9564, 26.2508, 25.837, 5.171, -63.8448, -14.0798
0.840084, -1, -2.79493, 26.1695, 25.8153, 5.42948, -63.5697, -14.2033
0.848149, -1, -2.63424, 26.0887, 25.7938, 5.68662, -63.2961, -14.3263
0.855094, -1, -2.47394, 26.0083, 25.7723, 5.94263, -63.0235, -14.4491
0.86414, -1, -2.31382, 25.9284, 25.7508, 6.19736, -62.7524, -14.5712
0.87112, -1, -2.15409, 25.8488, 25.7294, 6.45076, -62.4826, -14.6924
0.879171, -1, -1.99483, 25.7697, 25.7081, 6.70326, -62.2137, -14.8133
0.887241, -1, -1.83596, 25.6909, 25.687, 6.95478, -61.9461, -14.9334
0.895186, -1, -1.67773, 25.6125, 25.6661, 7.20489, -61.6797, -15.0527
0.903258, -1, -1.51983, 25.5344, 25.6452, 7.45373, -61.4145, -15.1718
0.911258, -1, -1.36225, 25.4565, 25.6242, 7.70168, -61.1502, -15.2904
0.91914, -1, -1.20528, 25.3791, 25.6035, 7.94835, -60.8872, -15.4083
0.927092, -1, -1.0493, 25.302, 25.5829, 8.19394, -60.6255, -15.5261
0.93535, -1, -0.894399, 25.2252, 25.5624, 8.43864, -60.3651, -15.6435
0.943187, -1, -0.74087, 25.1487, 25.542, 8.6824, -60.106, -15.7601
0.951219, -1, -0.588348, 25.0726, 25.5215, 8.9247, -59.848, -15.8762
0.959376, -1, -0.436881, 24.9969, 25.5011, 9.16593, -59.5914, -15.9916
0.967274, -1, -0.28654, 24.9215, 25.481, 9.40612, -59.3364, -16.1068
0.975349, -1, -0.13725, 24.8465, 25.4609, 9.64527, -59.0822, -16.2213
0.983523, -1, 0.0110328, 24.7719, 25.4411, 9.88295, -58.829, -16.3353
0.992293, -1, 0.158691, 24.6975, 25.4212, 10.1198, -58.5769, -16.4489
0.999537, -1, 0.305932, 24.6235, 25.4013, 10.3558, -58.3259, -16.5619
1.00818, -1, 0.45313, 24.5499, 25.3815, 10.5905, -58.0757, -16.6747
1.01641, -1, 0.600205, 24.4765, 25.3619, 10.824, -57.8266, -16.7867
1.02386, -1, 0.747019, 24.4035, 25.3423, 11.0565, -57.5787, -16.898
1.03218, -1, 0.893564, 24.3307, 25.3229, 11.2881, -57.3318, -17.0092
1.04054, -1, 0.966621, 24.2945, 25.3035, 11.5185, -57.0862, -17.1191
1.04762, -1, 1.11221, 24.2222, 25.2938, 11.6334, -56.9639, -17.2289
1.05608, -1, 1.32975, 24.1145, 25.2649, 11.9764, -56.5988, -17.338
1.06317, -1, 1.40205, 24.0788, 25.2554, 12.0904, -56.4777, -17.3925
1.07108, -1, 1.54631, 24.0076, 25.2363, 12.3174, -56.2365, -17.5009
1.08014, -1, 1.76141, 23.9013, 25.208, 12.6557, -55.8765, -17.6627
1.08712, -1, 1.83262, 23.8661, 25.1985, 12.7681, -55.7571, -17.7165
1.09508, -1, 1.97411, 23.7959, 25.1796, 12.992, -55.519, -17.8239
1.10435, -1, 2.18473, 23.6912, 25.1516, 13.3258, -55.1636, -17.9838
1.11109, -1, 2.25445, 23.6564, 25.1423, 13.4366, -55.0456, -18.0366
1.11911, -1, 2.39307, 23.5871, 25.1237, 13.6574, -54.8104, -18.1424
1.12858, -1, 2.59938, 23.4837, 25.0961, 13.9872, -54.4591, -18.2999
1.13507, -1, 2.66763, 23.4493, 25.087, 14.0966, -54.3425, -18.3521
1.14323, -1, 2.80345, 23.3808, 25.0686, 14.3146, -54.1102, -18.4564
1.15284, -1, 3.00611, 23.2786, 25.0412, 14.64, -53.7639, -18.612
1.16145, -1, 3.1409, 23.2108, 25.023, 14.8557, -53.5342, -18.7154
1.16721, -1, 3.20833, 23.177, 25.0139, 14.9632, -53.4197, -18.7667
1.17664, -1, 3.34322, 23.1097, 24.996, 15.1775, -53.1916, -18.9209
1.18407, -1, 3.47775, 23.0427, 24.9781, 15.3911, -52.9644, -18.9719
1.19116, -1, 3.61208, 22.9759, 24.9602, 15.6039, -52.7382, -19.0738
1.19907, -1, 3.74613, 22.9096, 24.9425, 15.8156, -52.5129, -19.1748
1.20708, -1, 3.87967, 22.8433, 24.9248, 16.0263, -52.2886, -19.276
1.21516, -1, 4.0128, 22.7775, 24.907, 16.2363, -52.0652, -19.3761
1.22315, -1, 4.14557, 22.712, 24.8895, 16.4454, -51.8426, -19.4762
1.23107, -1, 4.27789, 22.6467, 24.8721, 16.6534, -51.621, -19.5756
1.24014, -1, 4.40952, 22.5816, 24.8546, 16.8607, -51.4, -19.6747
1.24808, -1, 4.54042, 22.5168, 24.8372, 17.0673, -51.1801, -19.7737
1.25607, -1, 4.67074, 22.4521, 24.82, 17.2732, -50.961, -19.872
1.26315, -1, 4.80023, 22.3877, 24.8027, 17.4781, -50.7426, -19.9702
1.27113, -1, 4.92894, 22.3235, 24.7856, 17.6822, -50.5253, -20.068
1.27915, -1, 5.0568, 22.2596, 24.7686, 17.8853, -50.3088, -20.1656
1.28708, -1, 5.18402, 22.1959, 24.7516, 18.088, -50.0931, -20.2622
1.29507, -1, 5.31046, 22.1324, 24.7345, 18.2897, -49.8783, -20.359
1.30408, -1, 5.43592, 22.0693, 24.7176, 18.4906, -49.6643, -20.455
1.31314, -1, 5.56056, 22.0064, 24.7008, 18.6908, -49.4513, -20.5507
1.32006, -1, 5.68464, 21.9438, 24.6839, 18.8903, -49.2393, -20.6459
1.32807, -1, 5.80849, 21.8814, 24.6672, 19.0892, -49.0279, -20.7411
1.33614, -1, 5.93226, 21.8194, 24.6507, 19.287, -48.8177, -20.8355
1.34313, -1, 6.05593, 21.7575, 24.6341, 19.4841, -48.6082, -20.9302
1.35114, -1, 6.17946, 21.6959, 24.6176, 19.6806, -48.3993, -21.0241
1.35982, -1, 6.30281, 21.6344, 24.6013, 19.8762, -48.1911, -21.1181
1.36806, -1, 6.42601, 21.5733, 24.5848, 20.071, -47.9837, -21.2114
1.37512, -1, 6.54901, 21.5122, 24.5684, 20.265, -47.777, -21.3046
1.3839, -1, 6.6716, 21.4514, 24.5522, 20.4583, -47.5709, -21.3968
1.39206, -1, 6.79393, 21.3908, 24.536, 20.6512, -47.3655, -21.4894
1.40018, -1, 6.91574, 21.3305, 24.5198, 20.8432, -47.1608, -21.5809
1.40829, -1, 7.037, 21.2706, 24.5036, 21.0345, -46.9569, -21.6727
1.41525, -1, 7.15779, 21.2108, 24.4876, 21.2251, -46.7539, -21.7635
1.42323, -1, 7.27785, 21.1513, 24.4717, 21.4149, -46.5516, -21.8546
1.43126, -1, 7.39741, 21.092, 24.4558, 21.6044, -46.3501, -21.9447
1.43928, -1, 7.51633, 21.033, 24.4401, 21.7929, -46.1493, -22.0352
1.4471, -1, 7.63479, 20.9741, 24.4244, 21.9808, -45.9494, -22.1249
1.45525, -1, 7.7528, 20.9154, 24.4086, 22.168, -45.7503, -22.2149
1.46338, -1, 7.87022, 20.8568, 24.3929, 22.3547, -45.5517, -22.304
1.47126, -1, 7.98711, 20.7984, 24.3773, 22.5409, -45.3542, -22.3933
1.47971, -1, 8.10334, 20.7401, 24.3616, 22.7262, -45.1573, -22.4816
1.48738, -1, 8.21904, 20.6821, 24.346, 22.9108, -44.9611, -22.5701
1.4955, -1, 8.33436, 20.6241, 24.3307, 23.0948, -44.7654, -22.6578
1.5037, -1, 8.44941, 20.5665, 24.3154, 23.2782, -44.5702, -22.7456
1.51156, -1, 8.56401, 20.5091, 24.2999, 23.4609, -44.3754, -22.8328
1.52017, -1, 8.67805, 20.4519, 24.2845, 23.6428, -44.1816, -22.9199
1.5288, -1, 8.79169, 20.395, 24.2694, 23.8242, -43.9881, -23.0067
1.53624, -1, 8.9051, 20.3383, 24.2542, 24.0053, -43.7951, -23.0931
1.54359, -1, 8.96174, 20.31, 24.2466, 24.1857, -43.6032, -23.1795
1.55349, -1, 9.13136, 20.2254, 24.2241, 24.3654, -43.4119, -23.2654
1.55905, -1, 9.18795, 20.1972, 24.2166, 24.4551, -43.3165, -23.3086
1.5681, -1, 9.35747, 20.1131, 24.1941, 24.7229, -43.0311, -23.4369
1.57512, -1, 9.41383, 20.0852, 24.1865, 24.8119, -42.9363, -23.4799
1.58426, -1, 9.58237, 20.0014, 24.164, 25.0785, -42.6528, -23.607
1.5911, -1, 9.63833, 19.9736, 24.1566, 25.1669, -42.5586, -23.6495
1.60054, -1, 9.80554, 19.8904, 24.1343, 25.4315, -42.2769, -23.7759
1.60712, -1, 9.86115, 19.8627, 24.1269, 25.5193, -42.1832, -23.818
1.61642, -1, 10.0275, 19.7802, 24.1051, 25.7824, -41.9035, -23.9435
1.62306, -1, 10.0828, 19.7527, 24.0978, 25.87, -41.8105, -23.9851
1.63251, -1, 10.2479, 19.6708, 24.0757, 26.1315, -41.5324, -24.1104
1.64056, -1, 10.3575, 19.6163, 24.0611, 26.305, -41.3477, -24.1931
1.64872, -1, 10.4665, 19.5621, 24.0466, 26.4781, -41.1634, -24.2762
1.65506, -1, 10.5209, 19.535, 24.0393, 26.5644, -41.0716, -24.3173
1.66465, -1, 10.6834, 19.454, 24.0175, 26.8227, -40.7967, -24.4414
1.67295, -1, 10.7913, 19.4003, 24.0033, 26.9942, -40.6141, -24.5233
1.68005, -1, 10.8451, 19.3734, 23.9962, 27.0797, -40.523, -24.5644
1.68805, -1, 10.9524, 19.3198, 23.9819, 27.2502, -40.341, -24.6465
1.69612, -1, 11.0593, 19.2663, 23.9676, 27.4204, -40.1599, -24.7276
1.70409, -1, 11.1658, 19.213, 23.9532, 27.5902, -39.9792, -24.8091
1.71211, -1, 11.2721, 19.1599, 23.939, 27.7595, -39.7991, -24.8897
1.72011, -1, 11.3779, 19.1069, 23.9248, 27.9282, -39.6195, -24.9706
1.72805, -1, 11.4832, 19.0541, 23.9107, 28.0963, -39.4404, -25.0509
1.73608, -1, 11.5883, 19.0016, 23.8966, 28.2639, -39.2619, -25.1312
1.7441, -1, 11.6932, 18.9491, 23.8828, 28.4312, -39.0837, -25.2115
1.75205, -1, 11.798, 18.8969, 23.8688, 28.598, -38.9063, -25.2912
1.76009, -1, 11.9025, 18.8449, 23.8548, 28.7643, -38.7293, -25.3712
1.76809, -1, 12.0068, 18.7929, 23.8407, 28.93, -38.5526, -25.4503
1.77606, -1, 12.111, 18.741, 23.8269, 29.0953, -38.3768, -25.5301
1.78417, -1, 12.2151, 18.6892, 23.813, 29.2604, -38.2015, -25.609
1.79205, -1, 12.3189, 18.6376, 23.7992, 29.4251, -38.0268, -25.688
1.80005, -1, 12.4225, 18.5861, 23.7855, 29.5891, -37.8525, -25.7666
1.80813, -1, 12.5259, 18.5347, 23.772, 29.7525, -37.6785, -25.8445
1.81606, -1, 12.629, 18.4835, 23.7583, 29.9157, -37.5051, -25.9229
1.82409, -1, 12.7318, 18.4324, 23.7445, 30.0783, -37.3318, -26.0002
1.83211, -1, 12.8342, 18.3815, 23.7308, 30.2406, -37.1592, -26.0781
1.84005, -1, 12.9363, 18.3309, 23.7172, 30.4024, -36.987, -26.1551
1.84712, -1, 13.038, 18.2803, 23.7037, 30.5637, -36.815, -26.232
1.85506, -1, 13.1393, 18.23, 23.6901, 30.7244, -36.6437, -26.3092
1.86305, -1, 13.2403, 18.1797, 23.6767, 30.8849, -36.4727, -26.3853
1.87205, -1, 13.3409, 18.1296, 23.6634, 31.0451, -36.3024, -26.4622
1.88018, -1, 13.4413, 18.0796, 23.6501, 31.2047, -36.1323, -26.5382
1.88714, -1, 13.5414, 18.0295, 23.6367, 31.364, -35.9627, -26.6145
1.89521, -1, 13.6414, 17.9796, 23.6233, 31.5226, -35.7937, -26.6908
1.90349, -1, 13.7411, 17.9299, 23.61, 31.6808, -35.6251, -26.7663
1.91205, -1, 13.8406, 17.8801, 23.5967, 31.8389, -35.457, -26.8425
1.92005, -1, 13.94, 17.8305, 23.5834, 31.9965, -35.2895, -26.9175
1.92812, -1, 14.0392, 17.781, 23.5701, 32.1537, -35.1221, -26.9928
1.9361, -1, 14.1382, 17.7318, 23.5571, 32.3104, -34.9554, -27.0678
1.94327, -1, 14.2368, 17.6826, 23.544, 32.4666, -34.7891, -27.1422
1.9519, -1, 14.335, 17.6337, 23.5309, 32.6227, -34.6233, -27.2172
1.96004, -1, 14.4327, 17.5849, 23.5177, 32.7786, -34.4579, -27.291
1.96809, -1, 14.5303, 17.5363, 23.5047, 32.934, -34.2927, -27.3654
1.97615, -1, 14.6274, 17.4878, 23.4917, 33.0888, -34.1279, -27.4395
1.98331, -1, 14.7242, 17.4394, 23.4788, 33.2433, -33.9633, -27.5132
1.99144, -1, 14.8207, 17.3912, 23.4658, 33.3973, -33.7992, -27.5873
2.0002, -1, 14.9171, 17.343, 23.4529, 33.5511, -33.6356, -27.6605
2.00751, -1, 15.0133, 17.2948, 23.4402, 33.7045, -33.4722, -27.7344
2.01562, -1, 15.1094, 17.2467, 23.4274, 33.8575, -33.309, -27.8078
2.0245, -1, 15.2053, 17.1987, 23.4145, 34.01, -33.1465, -27.8807
2.03161, -1, 15.3011, 17.1508, 23.4016, 34.1621, -32.9844, -27.9542
2.04052, -1, 15.3969, 17.103, 23.3888, 34.3141, -32.8228, -28.0266
2.04758, -1, 15.4448, 17.0791, 23.3824, 34.3899, -32.6615, -28.0992
2.05607, -1, 15.5884, 17.0077, 23.3632, 34.6169, -32.5008, -28.1717
2.06309, -1, 15.6361, 16.9841, 23.3568, 34.6923, -32.4204, -28.2075
2.07104, -1, 15.7315, 16.9368, 23.3441, 34.843, -32.2601, -28.2799
2.0801, -1, 15.874, 16.8663, 23.3255, 35.0682, -32.0201, -28.3874
2.08709, -1, 15.9214, 16.8428, 23.3192, 35.1431, -31.9404, -28.423
2.09515, -1, 16.0161, 16.796, 23.3066, 35.2928, -31.7813, -28.4951
2.10435, -1, 16.1573, 16.7261, 23.2877, 35.5168, -31.543, -28.6018
2.11117, -1, 16.2042, 16.7028, 23.2815, 35.5912, -31.4639, -28.6376
2.11903, -1, 16.2978, 16.6562, 23.2691, 35.7397, -31.3058, -28.7091
2.12846, -1, 16.4377, 16.5864, 23.2503, 35.962, -31.0691, -28.8152
2.13509, -1, 16.4842, 16.5631, 23.2441, 36.036, -30.9904, -28.8511
2.14464, -1, 16.6232, 16.4934, 23.2255, 36.2577, -30.7546, -28.9569
2.15259, -1, 16.7157, 16.4471, 23.2132, 36.405, -30.5979, -29.0277
2.16064, -1, 16.808, 16.4008, 23.2008, 36.5519, -30.4416, -29.0981
2.16868, -1, 16.9002, 16.3546, 23.1884, 36.6984, -30.2857, -29.1677
2.17665, -1, 16.9463, 16.3316, 23.1821, 36.8446, -30.13, -29.2381
2.18463, -1, 17.0382, 16.2857, 23.1698, 36.9176, -30.0521, -29.3075
2.19212, -1, 17.1298, 16.2401, 23.1576, 37.0635, -29.8969, -29.3422
2.20007, -1, 17.22, 16.195, 23.1452, 37.2088, -29.7418, -29.4121
2.20808, -1, 17.3069, 16.1515, 23.1327, 37.3535, -29.588, -29.481
2.21614, -1, 17.3888, 16.1105, 23.1201, 37.4958, -29.4361, -29.5488
2.22408, -1, 17.4653, 16.0724, 23.1076, 37.6338, -29.2891, -29.6154
2.23204, -1, 17.5363, 16.0375, 23.0955, 37.7637, -29.1503, -29.6776
2.24008, -1, 17.6002, 16.0064, 23.0843, 37.8822, -29.0238, -29.7344
2.24804, -1, 17.6567, 15.9789, 23.0744, 37.9856, -28.913, -29.7846
2.25603, -1, 17.7068, 15.9542, 23.0667, 38.0701, -28.8221, -29.8258
2.26302, -1, 17.7507, 15.9316, 23.0614, 38.1362, -28.7509, -29.8577
2.27103, -1, 17.7886, 15.9119, 23.0582, 38.1828, -28.7, -29.8804
2.28004, -1, 17.8195, 15.8962, 23.0565, 38.2142, -28.6657, -29.8958
2.2881, -1, 17.8439, 15.8842, 23.0557, 38.2337, -28.6443, -29.905
2.29625, -1, 17.8626, 15.8755, 23.0554, 38.2449, -28.632, -29.9102
2.30408, -1, 17.8748, 15.8699, 23.0552, 38.2506, -28.6257, -29.9129
2.31303, 2, 17.8813, 15.8669, 23.0552, 38.2534, -28.6227, -29.9141
2.32003, 2, 17.8842, 15.8655, 23.0551, 38.2547, -28.6212, -29.9147
2.32803, 2, 17.8851, 15.8648, 23.0551, 38.2554, -28.6205, -29.915
2.3361, 2, 17.8848, 15.8645, 23.0551, 38.2557, -28.6202, -29.9152
2.34407, 2, 17.8841, 15.8644, 23.0551, 38.2558, -28.62, -29.9152
2.35111, 2, 17.8834, 15.8643, 23.0552, 38.2559, -28.62, -29.9152
2.35903, 2, 17.883, 15.8643, 23.0551, 38.2559, -28.62, -29.9152
2.36803, 2, 17.8828, 15.8642, 23.0551, 38.2559, -28.62, -29.9152
2.37603, 2, 17.8829, 15.864, 23.0551, 38.2559, -28.62, -29.9152
2.3842, 2, 17.883, 15.8638, 23.0551, 38.2559, -28.62, -29.9153
2.39112, 2, 17.8832, 15.8635, 23.0551, 38.256, -28.62, -29.9153
2.39919, 2, 17.8837, 15.8632, 23.0551, 38.256, -28.62, -29.9153
2.40716, 2, 17.8841, 15.8629, 23.0551, 38.256, -28.6201, -29.9152
2.41514, 2, 17.8848, 15.8627, 23.0551, 38.256, -28.6201, -29.9152
2.42321, 2, 17.8857, 15.8626, 23.0551, 38.256, -28.62, -29.9152
2.43103, 2, 17.8864, 15.8626, 23.0551, 38.256, -28.6201, -29.9152
2.43903, 2, 17.887, 15.8626, 23.0551, 38.256, -28.6201, -29.9152
2.44743, 2, 17.8873, 15.8626, 23.0551, 38.2559, -28.6201, -29.9153
2.45507, 2, 17.8875, 15.8626, 23.0551, 38.2559, -28.6202, -29.9152
2.46314, 2, 17.8876, 15.8626, 23.0551, 38.2559, -28.6202, -29.9153
2.47177, 2, 17.8877, 15.8626, 23.0551, 38.256, -28.6202, -29.9152
2.4801, 2, 17.8877, 15.8626, 23.0551, 38.256, -28.6202, -29.9152
2.48732, 2, 17.8877, 15.8626, 23.0551, 38.256, -28.6202, -29.9153
2.49598, 2, 17.8876, 15.8625, 23.0551, 38.256, -28.6202, -29.9152
2.50417, 2, 17.8874, 15.8625, 23.0551, 38.256, -28.6202, -29.9152
2.5115, 2, 17.8872, 15.8624, 23.0551, 38.256, -28.6202, -29.9152
2.51998, 2, 17.8871, 15.8623, 23.0551, 38.2559, -28.6202, -29.9153
2.52819, 2, 17.887, 15.8623, 23.0551, 38.2559, -28.6203, -29.9152
2.5356, 2, 17.8869, 15.8623, 23.0551, 38.2559, -28.6202, -29.9152
2.54419, 2, 17.8869, 15.8623, 23.0551, 38.256, -28.6203, -29.9152
2.55155, 2, 17.8869, 15.8623, 23.0551, 38.256, -28.6203, -29.9151
2.56003, 2, 17.8869, 15.8623, 23.0551, 38.2559, -28.6204, -29.9151
2.56796, 2, 17.8869, 15.8623, 23.0551, 38.2559, -28.6204, -29.9152
2.57612, 2, 17.8869, 15.8623, 23.0551, 38.2559, -28.6204, -29.9152
2.58302, 2, 17.8869, 15.8624, 23.0551, 38.2559, -28.6205, -29.9153
2.59247, 2, 17.8869, 15.8624, 23.0551, 38.256, -28.6205, -29.9152
2.59902, 2, 17.8869, 15.8624, 23.0551, 38.2559, -28.6205, -29.9152
2.6083, 2, 17.8869, 15.8623, 23.0551, 38.2559, -28.6205, -29.9152
2.61512, 2, 17.8869, 15.8623, 23.0551, 38.256, -28.6205, -29.9152
2.62301, 2, 17.8869, 15.8623, 23.0551, 38.256, -28.6205, -29.9152
2.63245, 2, 17.8868, 15.8623, 23.0551, 38.2559, -28.6205, -29.9152
2.63906, 2, 17.8868, 15.8623, 23.0551, 38.256, -28.6205, -29.9152
2.64703, 2, 17.8868, 15.8623, 23.0551, 38.2559, -28.6205, -29.9151
2.65656, 2, 17.8868, 15.8623, 23.0551, 38.2559, -28.6205, -29.9151
2.66507, 2, 17.8868, 15.8623, 23.0551, 38.2559, -28.6205, -29.9152
2.67105, 2, 17.8868, 15.8623, 23.0551, 38.2559, -28.6205, -29.9152
2.68054, 2, 17.8868, 15.8624, 23.0551, 38.2559, -28.6206, -29.9152
2.68899, 2, 17.8868, 15.8624, 23.0551, 38.2559, -28.6206, -29.9152
2.69501, 2, 17.8868, 15.8624, 23.0551, 38.2559, -28.6206, -29.9152
2.70406, 2, 17.8868, 15.8624, 23.0551, 38.2559, -28.6206, -29.9152
2.71292, 2, 17.8867, 15.8623, 23.0551, 38.2559, -28.6207, -29.9151
2.72011, 2, 17.8867, 15.8624, 23.0551, 38.2559, -28.6206, -29.9151
2.72802, 2, 17.8867, 15.8623, 23.0551, 38.2559, -28.6206, -29.9152
2.73603, 2, 17.8867, 15.8623, 23.0551, 38.2559, -28.6207, -29.9151
2.74301, 2, 17.8867, 15.8623, 23.0551, 38.2559, -28.6207, -29.9151
2.75102, 2, 17.8866, 15.8623, 23.0551, 38.2559, -28.6208, -29.9151
2.76002, 2, 17.8866, 15.8623, 23.0551, 38.2559, -28.6208, -29.9151
2.76703, 2, 17.8866, 15.8624, 23.0551, 38.2559, -28.6208, -29.9151
2.77605, 2, 17.8866, 15.8624, 23.0551, 38.2559, -28.6208, -29.9152
2.78413, 2, 17.8866, 15.8624, 23.0551, 38.2559, -28.6208, -29.9151
2.79101, 2, 17.8866, 15.8624, 23.0551, 38.2559, -28.6208, -29.9152
2.80001, 2, 17.8865, 15.8624, 23.0551, 38.2558, -28.6208, -29.9151
2.80993, 2, 17.8865, 15.8624, 23.0551, 38.2558, -28.6208, -29.9151
2.81605, 2, 17.8865, 15.8624, 23.0551, 38.2558, -28.6208, -29.9151
2.82406, 2, 17.8864, 15.8624, 23.0551, 38.2559, -28.6208, -29.9151
2.83204, 2, 17.8864, 15.8624, 23.0551, 38.2558, -28.6208, -29.9151
2.84006, 2, 17.8864, 15.8624, 23.0551, 38.2558, -28.6209, -29.9151
2.84802, 2, 17.8863, 15.8624, 23.0551, 38.2557, -28.6209, -29.9151
2.85603, 2, 17.8863, 15.8624, 23.0551, 38.2557, -28.6209, -29.9151
2.8641, 2, 17.8862, 15.8624, 23.0551, 38.2558, -28.6208, -29.9151
2.87102, 2, 17.8862, 15.8624, 23.0551, 38.2558, -28.6208, -29.9151
2.88003, 2, 17.8861, 15.8624, 23.0551, 38.2558, -28.6209, -29.9151
2.88811, 2, 17.8861, 15.8624, 23.0551, 38.2557, -28.6209, -29.9151
2.89512, 2, 17.886, 15.8624, 23.0551, 38.2557, -28.6209, -29.9151
2.90316, 2, 17.886, 15.8624, 23.0551, 38.2557, -28.6209, -29.9151
2.91112, 2, 17.8859, 15.8624, 23.0551, 38.2557, -28.6209, -29.9151
2.91915, 2, 17.8859, 15.8624, 23.0551, 38.2557, -28.6209, -29.9151
2.92719, 2, 17.8858, 15.8624, 23.0551, 38.2557, -28.621, -29.915
2.93501, 2, 17.8858, 15.8624, 23.0551, 38.2557, -28.6209, -29.9151
2.94309, 2, 17.8857, 15.8624, 23.0551, 38.2556, -28.6209, -29.915
2.95114, 2, 17.8857, 15.8624, 23.0551, 38.2557, -28.621, -29.915
2.95908, 2, 17.8857, 15.8624, 23.0551, 38.2556, -28.6211, -29.9151
2.96719, 2, 17.8856, 15.8624, 23.0551, 38.2556, -28.6211, -29.9151
2.9752, 2, 17.8856, 15.8624, 23.0551, 38.2556, -28.6211, -29.9151
2.98332, 2, 17.8855, 15.8625, 23.0551, 38.2556, -28.6211, -29.915
2.99134, 2, 17.8854, 15.8624, 23.0551, 38.2556, -28.6211, -29.915
2.99938, 2, 17.8854, 15.8625, 23.0551, 38.2555, -28.6211, -29.915
3.00756, 2, 17.8853, 15.8625, 23.0551, 38.2556, -28.6211, -29.915
3.01609, 2, 17.8852, 15.8625, 23.0551, 38.2556, -28.6212, -29.915
3.02419, 2, 17.8852, 15.8625, 23.0551, 38.2555, -28.6212, -29.915
3.03163, 2, 17.8852, 15.8625, 23.0551, 38.2554, -28.6211, -29.915
3.04017, 2, 17.8851, 15.8625, 23.0551, 38.2554, -28.6212, -29.915
3.04763, 2, 17.8851, 15.8625, 23.0551, 38.2554, -28.6212, -29.915
3.0562, 2, 17.885, 15.8625, 23.0551, 38.2554, -28.6212, -29.915
3.06299, 2, 17.885, 15.8625, 23.0551, 38.2554, -28.6212, -29.915
3.07206, 2, 17.8849, 15.8625, 23.0551, 38.2554, -28.6212, -29.915
3.07904, 2, 17.8848, 15.8625, 23.0551, 38.2554, -28.6212, -29.915
3.08812, 2, 17.8848, 15.8625, 23.0551, 38.2554, -28.6212, -29.915
3.09501, 2, 17.8847, 15.8625, 23.0551, 38.2554, -28.6212, -29.915
3.10435, 2, 17.8847, 15.8625, 23.0551, 38.2554, -28.6212, -29.915
3.111, 2, 17.8847, 15.8625, 23.0551, 38.2554, -28.6212, -29.915
3.12032, 2, 17.8846, 15.8625, 23.0551, 38.2553, -28.6212, -29.915
3.12706, 2, 17.8846, 15.8625, 23.0551, 38.2553, -28.6212, -29.915
3.13649, 2, 17.8845, 15.8625, 23.0551, 38.2553, -28.6212, -29.915
3.14453, 2, 17.8845, 15.8625, 23.0551, 38.2552, -28.6212, -29.9149
3.15262, 2, 17.8844, 15.8625, 23.0551, 38.2552, -28.6212, -29.9149
3.16057, 2, 17.8844, 15.8625, 23.0551, 38.2552, -28.6212, -29.9149
3.16859, 2, 17.8843, 15.8625, 23.0551, 38.2551, -28.6212, -29.9149
3.17666, 2, 17.8843, 15.8625, 23.0551, 38.2551, -28.6212, -29.9149
3.18464, 2, 17.8843, 15.8625, 23.0551, 38.2551, -28.6212, -29.9149
3.19201, 2, 17.8842, 15.8625, 23.0551, 38.2551, -28.6212, -29.9149
3.20003, 2, 17.8842, 15.8625, 23.0551, 38.2551, -28.6212, -29.9149
3.20803, 2, 17.8841, 15.8625, 23.0551, 38.2551, -28.6212, -29.9149
3.216, 2, 17.8841, 15.8625, 23.0552, 38.255, -28.6213, -29.9149
3.22418, 2, 17.8841, 15.8625, 23.0551, 38.255, -28.6213, -29.9149
3.23204, 2, 17.8841, 15.8625, 23.0551, 38.255, -28.6213, -29.9149
3.24, 2, 17.8841, 15.8625, 23.0551, 38.255, -28.6213, -29.9149
3.24803, 2, 17.8841, 15.8625, 23.0551, 38.255, -28.6213, -29.9149
3.25602, 2, 17.8841, 15.8625, 23.0551, 38.255, -28.6213, -29.9149
3.26404, 2, 17.8841, 15.8625, 23.0551, 38.255, -28.6213, -29.9149
3.27204, 2, 17.884, 15.8625, 23.0552, 38.255, -28.6213, -29.9149
3.28007, 2, 17.884, 15.8625, 23.0551, 38.2549, -28.6213, -29.9149
3.28808, 2, 17.884, 15.8625, 23.0552, 38.2549, -28.6213, -29.9149
3.29605, 2, 17.884, 15.8625, 23.0551, 38.2549, -28.6213, -29.9149
3.30407, 2, 17.884, 15.8625, 23.0552, 38.2549, -28.6213, -29.9149
3.312, 2, 17.884, 15.8625, 23.0552, 38.2549, -28.6213, -29.9149
3.32034, 2, 17.8839, 15.8626, 23.0552, 38.2548, -28.6214, -29.9149
3.32803, 2, 17.8839, 15.8626, 23.0552, 38.2548, -28.6213, -29.9149
3.33599, 2, 17.8839, 15.8626, 23.0552, 38.2548, -28.6213, -29.9149
3.34406, 2, 17.8839, 15.8626, 23.0552, 38.2547, -28.6214, -29.9149
3.35216, 2, 17.8839, 15.8626, 23.0551, 38.2547, -28.6214, -29.9149
3.35901, 2, 17.8839, 15.8626, 23.0552, 38.2547, -28.6214, -29.9149
3.36802, 2, 17.8838, 15.8626, 23.0552, 38.2547, -28.6214, -29.9149
3.376, 2, 17.8838, 15.8626, 23.0552, 38.2547, -28.6214, -29.9149
3.38404, 2, 17.8838, 15.8626, 23.0552, 38.2547, -28.6214, -29.9149
3.39112, 2, 17.8838, 15.8626, 23.0552, 38.2546, -28.6214, -29.9149
3.39904, 4, 17.8838, 15.8626, 23.0552, 38.2546, -28.6214, -29.9149
3.40801, 4, 17.8838, 15.8626, 23.0552, 38.2546, -28.6214, -29.9149
3.41602, 4, 17.8838, 15.8626, 23.0552, 38.2546, -28.6214, -29.9149
3.42407, 4, 17.8837, 15.8626, 23.0552, 38.2546, -28.6214, -29.9149
3.432, 4, 17.8837, 15.8626, 23.0552, 38.2546, -28.6215, -29.9149
3.44002, 4, 17.8837, 15.8626, 23.0552, 38.2546, -28.6215, -29.9148
3.44808, 4, 17.8837, 15.8626, 23.0552, 38.2546, -28.6215, -29.9148
3.45599, 4, 17.8837, 15.8626, 23.0552, 38.2546, -28.6215, -29.9148
3.46407, 4, 17.8837, 15.8626, 23.0552, 38.2545, -28.6215, -29.9148
3.47205, 4, 17.8837, 15.8626, 23.0552, 38.2545, -28.6215, -29.9148
3.47999, 4, 17.8837, 15.8626, 23.0552, 38.2545, -28.6215, -29.9149
3.48803, 4, 17.8836, 15.8626, 23.0552, 38.2545, -28.6215, -29.9148
3.49609, 4, 17.8837, 15.8626, 23.0552, 38.2545, -28.6215, -29.9147
3.50376, 4, 17.8836, 15.8626, 23.0552, 38.2544, -28.6215, -29.9148
3.52955, 4, 17.8836, 15.8626, 23.0552, 38.2544, -28.6215, -29.9147
3.53139, 4, 17.8836, 15.8626, 23.0552, 38.2544, -28.6215, -29.9147
3.5329, 4, 17.8836, 15.8626, 23.0552, 38.2544, -28.6215, -29.9147
3.53609, 4, 17.8836, 15.8626, 23.0552, 38.2544, -28.6215, -29.9147
3.54419, 4, 17.8835, 15.8627, 23.0552, 38.2544, -28.6215, -29.9147
3.55158, 4, 17.8834, 15.8628, 23.0552, 38.2543, -28.6215, -29.9147
3.56017, 4, 17.8808, 15.8645, 23.055, 38.2541, -28.6215, -29.9145
3.56698, 4, 17.8787, 15.866, 23.0547, 38.2535, -28.6216, -29.9142
3.57498, 4, 17.8719, 15.8721, 23.0533, 38.2494, -28.6221, -29.9117
3.58416, 4, 17.8538, 15.8933, 23.0463, 38.2282, -28.626, -29.8935
3.59097, 4, 17.8449, 15.9046, 23.0419, 38.2143, -28.6289, -29.88
3.60097, 5, 17.8059, 15.9549, 23.0192, 38.1378, -28.6459, -29.8033
3.60859, 5, 17.7683, 16.0033, 22.9935, 38.0444, -28.6668, -29.7087
3.61626, 5, 17.7196, 16.0661, 22.9568, 37.9057, -28.6983, -29.5676
3.62311, 5, 17.6906, 16.1038, 22.9338, 37.8163, -28.719, -29.4766
3.63286, 5, 17.5821, 16.2456, 22.8433, 37.4572, -28.8047, -29.1098
3.63896, 5, 17.5385, 16.303, 22.8055, 37.3046, -28.8415, -28.9537
3.64702, 5, 17.4396, 16.433, 22.7181, 36.9478, -28.9303, -28.5888
3.65498, 5, 17.325, 16.5837, 22.6147, 36.5219, -29.0389, -28.1535
3.66457, 5, 17.1237, 16.8482, 22.4311, 35.7598, -29.2406, -27.3756
3.6726, 5, 16.9716, 17.0472, 22.2923, 35.1791, -29.4004, -26.7826
3.68144, 5, 16.8907, 17.1519, 22.2189, 34.8704, -29.5795, -26.1422
3.68704, 5, 16.7201, 17.3708, 22.065, 34.2218, -29.6755, -25.8082
3.69701, 5, 16.4439, 17.7235, 21.8208, 33.1924, -29.9874, -24.7663
3.70298, 5, 16.3471, 17.8464, 21.737, 32.84, -30.0982, -24.4099
3.71203, 5, 16.1482, 18.0983, 21.5676, 32.1276, -30.3287, -23.6922
3.71998, 5, 15.943, 18.3567, 21.3971, 31.4124, -30.5692, -22.9744
3.72812, 5, 15.7321, 18.6191, 21.2262, 30.6988, -30.8182, -22.2608
3.73603, 5, 15.5171, 18.883, 21.0567, 29.9907, -31.0744, -21.5569
3.74397, 5, 15.2993, 19.1478, 20.8896, 29.2909, -31.3378, -20.8648
3.75198, 5, 15.0803, 19.4111, 20.7246, 28.6001, -31.6076, -20.1846
3.76004, 5, 14.8601, 19.6728, 20.5612, 27.9187, -31.8838, -19.5162
3.76798, 5, 14.6384, 19.9335, 20.4002, 27.2459, -32.1657, -18.8623
3.77603, 5, 14.4154, 20.1917, 20.242, 26.5825, -32.4536, -18.2204
3.78297, 5, 14.1914, 20.4476, 20.0859, 25.9294, -32.747, -17.5917
3.79198, 5, 13.9666, 20.7016, 19.9322, 25.2859, -33.0458, -16.9769
3.79906, 5, 13.741, 20.9532, 19.7811, 24.6525, -33.3497, -16.3755
3.80805, 5, 13.515, 21.2035, 19.6328, 24.028, -33.6589, -15.7871
3.81753, 5, 13.2891, 21.4532, 19.4871, 23.4124, -33.9731, -15.2115
3.82399, 5, 13.0636, 21.701, 19.3438, 22.8074, -34.2921, -14.6495
3.83403, 5, 12.7244, 22.0697, 19.1338, 21.9165, -34.7796, -13.8306
3.83897, 5, 12.611, 22.1917, 19.0652, 21.6244, -34.9443, -13.564
3.84799, 5, 12.384, 22.4337, 18.9302, 21.0473, -35.2771, -13.0402
3.85599, 5, 12.1569, 22.6739, 18.7978, 20.4784, -35.6142, -12.5298
3.86398, 5, 11.9288, 22.913, 18.6682, 19.9184, -35.9552, -12.0321
3.87205, 5, 11.6991, 23.1497, 18.5411, 19.3679, -36.2998, -11.5472
3.87998, 5, 11.4676, 23.3842, 18.4168, 18.8255, -36.6484, -11.0743
3.88798, 5, 11.2347, 23.6172, 18.2952, 18.2917, -37.0009, -10.6132
3.89613, 5, 11.0003, 23.8479, 18.1764, 17.7668, -37.3568, -10.1651
3.90308, 5, 10.7647, 24.0763, 18.0604, 17.2495, -37.7163, -9.72836
3.91207, 5, 10.5283, 24.3035, 17.947, 16.74, -38.0791, -9.30359
3.92051, 5, 10.2924, 24.5285, 17.8362, 16.2388, -38.4454, -8.89031
3.92709, 5, 10.0572, 24.7506, 17.7281, 15.745, -38.8146, -8.48843
3.93599, 5, 9.82237, 24.9705, 17.6229, 15.2587, -39.1866, -8.0985
3.94479, 5, 9.58749, 25.1887, 17.5207, 14.7798, -39.5611, -7.71953
3.95202, 5, 9.35256, 25.4043, 17.4214, 14.3081, -39.9383, -7.35166
3.95998, 5, 9.11746, 25.6179, 17.3249, 13.8431, -40.3179, -6.99487
3.9692, 5, 8.88184, 25.8302, 17.2312, 13.3843, -40.6998, -6.64824
3.976, 5, 8.64539, 26.0403, 17.1402, 12.9323, -41.0841, -6.31207
3.98405, 5, 8.40794, 26.2473, 17.0522, 12.4867, -41.4704, -5.98637
3.99124, 5, 8.16868, 26.4522, 16.9673, 12.0471, -41.8589, -5.67085
4.00012, 5, 7.92718, 26.655, 16.8855, 11.6137, -42.2491, -5.36502
4.00737, 5, 7.6838, 26.8548, 16.8067, 11.1859, -42.6413, -5.06891
4.01551, 5, 7.44017, 27.0519, 16.7308, 10.7642, -43.035, -4.78267
4.02432, 5, 7.19742, 27.2471, 16.6576, 10.3477, -43.4303, -4.50586
4.03151, 5, 6.95526, 27.4403, 16.5874, 9.93608, -43.8271, -4.23828
4.0401, 5, 6.71354, 27.6304, 16.5202, 9.53018, -44.2249, -3.98001
4.04852, 5, 6.47192, 27.8177, 16.4563, 9.12919, -44.6243, -3.73089
4.05556, 5, 6.351, 27.9108, 16.4255, 8.73326, -45.0249, -3.49106
4.06414, 5, 5.98739, 28.1865, 16.3375, 8.34193, -45.4271, -3.25987
4.07266, 5, 5.74449, 28.3663, 16.2828, 7.95535, -45.8302, -3.03729
4.08001, 5, 5.50095, 28.5436, 16.2312, 7.57297, -46.2342, -2.82315
4.08701, 5, 5.3787, 28.6316, 16.2065, 7.38352, -46.4364, -2.71925
4.09692, 5, 5.0086, 28.8917, 16.1373, 6.82104, -47.0438, -2.42032
4.10429, 5, 4.75979, 29.061, 16.0953, 6.45077, -47.4493, -2.23083
4.11102, 5, 4.63513, 29.1445, 16.0754, 6.26706, -47.6524, -2.13904
4.12119, 5, 4.26147, 29.3918, 16.0207, 5.72148, -48.2624, -1.8752
4.12708, 5, 4.13723, 29.4729, 16.0041, 5.54141, -48.466, -1.79114
4.13646, 5, 3.76593, 29.7114, 15.9591, 5.00627, -49.0777, -1.5507
4.14295, 5, 3.6425, 29.7894, 15.9458, 4.82964, -49.2815, -1.47427
4.15102, 5, 3.39565, 29.9433, 15.9219, 4.47881, -49.6893, -1.32719
4.16052, 5, 3.02421, 30.1694, 15.8922, 3.95805, -50.3008, -1.11963
4.16699, 5, 2.90037, 30.2433, 15.884, 3.78599, -50.5046, -1.05403
4.17657, 5, 2.52852, 30.4601, 15.8646, 3.27344, -51.1157, -0.867593
4.18461, 5, 2.2793, 30.6007, 15.8558, 2.93505, -51.5231, -0.75211
4.19197, 5, 2.15394, 30.6698, 15.8527, 2.76687, -51.7267, -0.696752
4.19902, 5, 1.90174, 30.8058, 15.8491, 2.43231, -52.1337, -0.591312
4.20802, 5, 1.64789, 30.9389, 15.8487, 2.10025, -52.5403, -0.492276
4.21598, 5, 1.39362, 31.0691, 15.8517, 1.77043, -52.9468, -0.399644
4.22302, 5, 1.14143, 31.1967, 15.8586, 1.44315, -53.3534, -0.310857
4.23209, 5, 0.893147, 31.3219, 15.8696, 1.11961, -53.761, -0.224267
4.23994, 6, 0.647149, 31.4454, 15.8846, 0.800892, -54.1714, -0.133937
4.247, 6, 0.400251, 31.5678, 15.903, 0.488669, -54.5857, -0.0360982
4.25596, 6, 0.151242, 31.689, 15.9249, 0.1839, -55.0066, 0.0742182
4.26396, 6, -0.0984225, 31.8091, 15.9507, -0.113627, -55.4355, 0.198567
4.27095, 6, -0.348007, 31.9278, 15.9803, -0.404104, -55.8742, 0.337383
4.27996, 6, -0.59819, 32.045, 16.0138, -0.688287, -56.3226, 0.488268
4.28796, 6, -0.849245, 32.1611, 16.0511, -0.968132, -56.78, 0.646954
4.29502, 6, -1.10065, 32.2765, 16.0925, -1.24495, -57.2448, 0.808659
4.30396, 6, -1.35204, 32.3909, 16.1381, -1.51987, -57.716, 0.969341
4.31198, 6, -1.6035, 32.5042, 16.1873, -1.79343, -58.1918, 1.12645
4.32095, 6, -1.85447, 32.6163, 16.2403, -2.06537, -58.6716, 1.27847
4.32796, 6, -2.10486, 32.7269, 16.2966, -2.33504, -59.154, 1.42448
4.33597, 6, -2.35507, 32.8356, 16.3562, -2.6029, -59.6387, 1.56406
4.34403, 6, -2.60565, 32.9424, 16.419, -2.86899, -60.1247, 1.69725
4.35201, 6, -2.8562, 33.0473, 16.4851, -3.13284, -60.6116, 1.82365
4.35996, 6, -3.10655, 33.1498, 16.5546, -3.39527, -61.0997, 1.94364
4.36803, 6, -3.35663, 33.2502, 16.6275, -3.65627, -61.5887, 2.05711
4.37596, 6, -3.60665, 33.3482, 16.7039, -3.9154, -62.0791, 2.16425
4.38397, 6, -3.85712, 33.4438, 16.7836, -4.17313, -62.5705, 2.26546
4.39204, 6, -4.10922, 33.5368, 16.8666, -4.42942, -63.0626, 2.35971
4.40007, 6, -4.36355, 33.6275, 16.9529, -4.68423, -63.5556, 2.44844
4.40724, 6, -4.61888, 33.7159, 17.0425, -4.93796, -64.049, 2.53031
4.41534, 6, -4.87326, 33.802, 17.1353, -5.19045, -64.5427, 2.60644
4.42308, 6, -5.12548, 33.8857, 17.2315, -5.44224, -65.0367, 2.67636
4.43197, 6, -5.37618, 33.967, 17.3312, -5.69281, -65.5315, 2.73959
4.44004, 6, -5.62602, 34.0459, 17.4343, -5.94229, -66.0263, 2.79751
4.44797, 6, -5.87566, 34.1224, 17.5409, -6.19147, -66.5217, 2.84928
4.45596, 6, -6.12574, 34.1965, 17.6508, -6.43968, -67.0172, 2.89426
4.46403, 6, -6.37597, 34.2681, 17.764, -6.68743, -67.5123, 2.93342
4.47197, 6, -6.62561, 34.3372, 17.8804, -6.93488, -68.0071, 2.96702
4.47996, 6, -6.87522, 34.4038, 18.0004, -7.18198, -68.5014, 2.99534
4.48825, 6, -7.12602, 34.4677, 18.1239, -7.42873, -68.9962, 3.01791
4.49522, 6, -7.3786, 34.529, 18.2508, -7.67528, -69.4906, 3.03455
4.50347, 6, -7.63196, 34.5877, 18.3811, -7.92174, -69.985, 3.0453
4.51223, 6, -7.88478, 34.6437, 18.5145, -8.16806, -70.4786, 3.05067
4.51943, 6, -8.13634, 34.6969, 18.6513, -8.4144, -70.9713, 3.05203
4.52811, 6, -8.3861, 34.7475, 18.7917, -8.66077, -71.4631, 3.04861
4.53637, 6, -8.63436, 34.7954, 18.9355, -8.90724, -71.9544, 3.03882
4.54356, 6, -8.88198, 34.8406, 19.0824, -9.15375, -72.4447, 3.02268
4.55207, 6, -9.12998, 34.8831, 19.2325, -9.40067, -72.9343, 3.00034
4.56013, 6, -9.37784, 34.923, 19.3863, -9.64798, -73.423, 2.97212
4.56695, 6, -9.50161, 34.9418, 19.4645, -9.77172, -73.6668, 2.95602
4.57605, 6, -9.87297, 34.9941, 19.7037, -10.1435, -74.3966, 2.89994
4.58299, 6, -9.99727, 35.0101, 19.7849, -10.2677, -74.6391, 2.87853
4.59204, 6, -10.372, 35.054, 20.0337, -10.6412, -75.3648, 2.80507
4.599, 6, -10.4973, 35.0671, 20.1185, -10.766, -75.6058, 2.77799
4.60848, 6, -10.873, 35.1022, 20.3778, -11.1416, -76.3268, 2.68902
4.61494, 6, -10.9981, 35.1125, 20.4657, -11.2673, -76.5664, 2.65645
4.62443, 6, -11.3708, 35.1389, 20.7353, -11.6451, -77.2833, 2.55077
4.63238, 6, -11.6174, 35.1525, 20.9197, -11.8979, -77.7586, 2.47399
4.63894, 6, -11.7405, 35.1583, 21.0131, -12.0247, -77.9955, 2.43305
4.64854, 6, -12.1094, 35.1717, 21.2978, -12.4069, -78.7027, 2.30398
4.65652, 6, -12.3547, 35.1765, 21.4928, -12.6628, -79.1714, 2.2106
4.66453, 6, -12.5994, 35.1784, 21.691, -12.92, -79.6383, 2.11274
4.67281, 6, -12.8443, 35.1775, 21.8918, -13.1785, -80.1033, 2.00942
4.68058, 6, -13.0899, 35.1735, 22.0968, -13.4379, -80.5661, 1.90132
4.68874, 6, -13.3364, 35.1663, 22.3058, -13.6986, -81.0263, 1.78802
4.69595, 6, -13.4599, 35.1615, 22.4114, -13.8295, -81.2554, 1.72957
4.704, 6, -13.7072, 35.1495, 22.6248, -14.0925, -81.7113, 1.60882
4.71195, 6, -13.9542, 35.1345, 22.8425, -14.3567, -82.1646, 1.48293
4.71995, 6, -14.1996, 35.1161, 23.0634, -14.6223, -82.6151, 1.35218
4.72806, 6, -14.4432, 35.0943, 23.2869, -14.8895, -83.0632, 1.21624
4.73601, 6, -14.6854, 35.0693, 23.5148, -15.1576, -83.5082, 1.07541
4.74301, 6, -14.927, 35.041, 23.7462, -15.4274, -83.9505, 0.929762
4.752, 6, -15.1677, 35.0093, 23.9807, -15.6986, -84.3896, 0.779346
4.75994, 6, -15.4081, 34.9742, 24.2193, -15.9712, -84.8254, 0.624247
4.76801, 6, -15.6484, 34.9357, 24.4607, -16.2454, -85.2579, 0.464198
4.77494, 6, -15.8878, 34.8938, 24.7054, -16.5213, -85.6869, 0.299341
4.78395, 6, -16.1257, 34.8485, 24.9538, -16.7983, -86.1121, 0.129709
4.79196, 6, -16.3616, 34.8001, 25.2042, -17.0761, -86.5327, -0.0443517
4.79998, 6, -16.595, 34.7489, 25.4568, -17.3543, -86.9472, -0.221771
4.80802, 6, -16.824, 34.6953, 25.7104, -17.6311, -87.3544, -0.401848
4.81596, 6, -17.045, 34.6401, 25.9619, -17.9041, -87.7505, -0.582486
4.82498, 6, -17.2567, 34.5843, 26.2088, -18.1707, -88.1318, -0.762108
4.83194, 6, -17.4583, 34.5288, 26.447, -18.427, -88.4937, -0.937697
4.84206, 6, -17.7379, 34.4488, 26.7811, -18.7844, -88.991, -1.18727
4.84693, 6, -17.824, 34.4237, 26.885, -18.8944, -89.1425, -1.2652
4.85599, 6, -17.9847, 34.3762, 27.0782, -19.099, -89.4219, -1.41113
4.86397, 6, -18.1297, 34.333, 27.2505, -19.2808, -89.6682, -1.54222
4.87199, 6, -18.2581, 34.2942, 27.4018, -19.4384, -89.8802, -1.65707
4.87994, 6, -18.3694, 34.2601, 27.5306, -19.5715, -90.0581, -1.75487
4.88804, 6, -18.4636, 34.231, 27.6373, -19.6809, -90.2035, -1.83636
4.89599, 6, -18.5416, 34.2068, 27.7232, -19.7673, -90.3189, -1.9009
4.904, 6, -18.6046, 34.1873, 27.7898, -19.834, -90.4068, -1.95124
4.91196, 6, -18.6544, 34.1718, 27.8395, -19.8827, -90.4719, -1.98889
4.91999, 6, -18.692, 34.16, 27.8753, -19.9165, -90.5171, -2.01571
4.92801, 6, -18.7193, 34.1516, 27.8996, -19.939, -90.5469, -2.03355
4.93596, 6, -18.7389, 34.1457, 27.9158, -19.953, -90.5655, -2.0447
4.94398, 6, -18.7527, 34.1417, 27.9261, -19.9609, -90.576, -2.05099
4.95195, 6, -18.7619, 34.1391, 27.9322, -19.9649, -90.5816, -2.05428
4.95996, 7, -18.7677, 34.1372, 27.9359, -19.9669, -90.5844, -2.05593
4.96805, 7, -18.7705, 34.1358, 27.938, -19.9679, -90.5856, -2.05669
4.97594, 7, -18.7713, 34.1347, 27.9394, -19.9684, -90.5862, -2.05708
4.98397, 7, -18.7715, 34.1338, 27.9405, -19.9686, -90.5865, -2.05722
4.99199, 7, -18.7716, 34.1331, 27.9414, -19.9687, -90.5867, -2.05727
4.99994, 7, -18.7717, 34.1326, 27.9423, -19.9688, -90.5867, -2.05733
5.00804, 7, -18.7721, 34.1323, 27.9429, -19.9688, -90.5867, -2.05736
5.01602, 7, -18.7727, 34.1321, 27.9433, -19.9689, -90.5867, -2.05732
5.02405, 7, -18.7734, 34.132, 27.9436, -19.9689, -90.5867, -2.05738
5.03205, 7, -18.7741, 34.132, 27.9439, -19.9689, -90.5868, -2.05738
5.04008, 7, -18.7747, 34.132, 27.9442, -19.9689, -90.5868, -2.05736
5.0481, 7, -18.7755, 34.132, 27.9445, -19.9689, -90.5868, -2.05738
5.05607, 7, -18.7765, 34.132, 27.9448, -19.9689, -90.5868, -2.05738
