hehonglu123/ABB_Primitive_Study/realrobot/movec_30_ori/curve_exe_v50_z10.csv
timestamp, cmd_num, J1, J2, J3, J4, J5, J6
0.002024, -1, -18.7709, 34.1298, 27.9441, -19.9678, -90.5854, -2.0558
0.143608, -1, -18.3039, 33.8936, 27.9075, -19.3549, -89.9399, -2.34174
0.144894, -1, -18.3039, 33.8936, 27.9075, -19.3549, -89.9399, -2.34174
0.146062, -1, -18.3039, 33.8936, 27.9075, -19.3549, -89.9399, -2.34174
0.148868, -1, -18.2483, 33.8655, 27.8994, -19.2585, -89.8379, -2.38811
0.15104, -1, -18.2483, 33.8358, 27.8906, -19.1547, -89.7282, -2.43762
0.152431, -1, -18.1892, 33.8358, 27.8906, -19.1547, -89.7282, -2.43762
0.153693, -1, -18.1892, 33.8358, 27.8906, -19.1547, -89.7282, -2.43762
0.161475, -1, -18.0608, 33.771, 27.8708, -18.9273, -89.4874, -2.54582
0.163585, -1, -17.9917, 33.7363, 27.86, -18.8048, -89.3574, -2.60444
0.164799, -1, -17.9917, 33.7363, 27.86, -18.8048, -89.3574, -2.60444
0.166061, -1, -17.9917, 33.7363, 27.86, -18.8048, -89.3574, -2.60444
0.16803, -1, -17.9196, 33.7002, 27.8486, -18.6774, -89.222, -2.66534
0.169305, -1, -17.9196, 33.7002, 27.8486, -18.6774, -89.222, -2.66534
0.171077, -1, -17.8446, 33.6626, 27.837, -18.5456, -89.082, -2.7283
0.173305, -1, -17.8446, 33.6626, 27.837, -18.5456, -89.082, -2.7283
0.175926, -1, -17.767, 33.6237, 27.8251, -18.4102, -88.9381, -2.79302
0.177297, -1, -17.767, 33.6237, 27.8251, -18.4102, -88.9381, -2.79302
0.179095, -1, -17.6869, 33.5835, 27.813, -18.2717, -88.7909, -2.85929
0.180636, -1, -17.6869, 33.5835, 27.813, -18.2717, -88.7909, -2.85929
0.181849, -1, -17.6869, 33.5835, 27.813, -18.2717, -88.7909, -2.85929
0.184557, -1, -17.6044, 33.5421, 27.8007, -18.1306, -88.641, -2.92688
0.185753, -1, -17.6044, 33.5421, 27.8007, -18.1306, -88.641, -2.92688
0.189442, -1, -17.5196, 33.4997, 27.7884, -17.9876, -88.489, -2.99535
0.191284, -1, -17.4328, 33.4562, 27.776, -17.8432, -88.3354, -3.06455
0.192713, -1, -17.4328, 33.4562, 27.776, -17.8432, -88.3354, -3.06455
0.199598, -1, -17.2544, 33.367, 27.751, -17.551, -88.0245, -3.20481
0.208242, -1, -17.0714, 33.2755, 27.7259, -17.2556, -87.7108, -3.3467
0.215485, -1, -16.8851, 33.1827, 27.7007, -16.9586, -87.395, -3.4893
0.223619, -1, -16.6968, 33.0893, 27.6756, -16.6606, -87.0779, -3.63214
0.232453, -1, -16.5073, 32.9955, 27.6506, -16.3615, -86.7597, -3.77528
0.239644, -1, -16.3171, 32.9016, 27.6255, -16.062, -86.4407, -3.91862
0.248166, -1, -16.127, 32.8077, 27.6005, -15.7613, -86.121, -4.06252
0.256616, -1, -15.9371, 32.7139, 27.5754, -15.4599, -85.8008, -4.20636
0.263918, -1, -15.7479, 32.6201, 27.5504, -15.1586, -85.48, -4.35073
0.272524, -1, -15.5592, 32.5263, 27.5251, -14.8566, -85.1588, -4.49537
0.280803, -1, -15.3706, 32.4323, 27.4998, -14.5541, -84.8372, -4.64005
0.288019, -1, -15.1826, 32.338, 27.4745, -14.2516, -84.5151, -4.78494
0.296287, -1, -14.9949, 32.2435, 27.4492, -13.9484, -84.1929, -4.93003
0.304884, -1, -14.901, 32.1486, 27.4238, -13.6449, -83.8704, -5.07509
0.312031, -1, -14.7126, 32.101, 27.411, -13.3416, -83.5476, -5.22045
0.319444, -1, -14.5233, 32.0057, 27.3854, -13.1897, -83.386, -5.29314
0.327502, -1, -14.3329, 31.9103, 27.3598, -12.8859, -83.0627, -5.43861
0.33549, -1, -14.1415, 31.8148, 27.3342, -12.5821, -82.7391, -5.5844
0.343453, -1, -13.9494, 31.7192, 27.3086, -12.2779, -82.4154, -5.73006
0.351447, -1, -13.7569, 31.6237, 27.2828, -11.9734, -82.0913, -5.87567
0.359505, -1, -13.5637, 31.5282, 27.2572, -11.669, -81.7672, -6.02134
0.367445, -1, -13.3699, 31.4328, 27.2315, -11.3646, -81.4431, -6.16689
0.375439, -1, -13.1761, 31.3375, 27.2059, -11.0601, -81.119, -6.31273
0.384826, -1, -12.8867, 31.1947, 27.1674, -10.6034, -80.6332, -6.53119
0.391446, -1, -12.7905, 31.1472, 27.1547, -10.451, -80.4714, -6.60413
0.399489, -1, -12.5985, 31.0522, 27.1291, -10.1467, -80.148, -6.75011
0.40751, -1, -12.4075, 30.957, 27.1035, -9.84251, -79.8244, -6.8959
0.415448, -1, -12.2173, 30.8619, 27.0778, -9.53841, -79.501, -7.04135
0.423518, -1, -12.0281, 30.7668, 27.0522, -9.23452, -79.1775, -7.18683
0.431458, -1, -11.8393, 30.6715, 27.0266, -8.93081, -78.854, -7.33211
0.439444, -1, -11.6504, 30.5762, 27.001, -8.62719, -78.5308, -7.4774
0.448436, -1, -11.4613, 30.4811, 26.9755, -8.32408, -78.2082, -7.62247
0.455439, -1, -11.2718, 30.3861, 26.9498, -8.02155, -77.8862, -7.76768
0.46444, -1, -11.082, 30.2913, 26.9243, -7.71932, -77.5645, -7.91242
0.471507, -1, -10.8918, 30.1968, 26.8988, -7.41771, -77.2435, -8.05687
0.479437, -1, -10.7011, 30.1025, 26.8735, -7.11643, -76.923, -8.20102
0.487496, -1, -10.5105, 30.0084, 26.848, -6.8154, -76.603, -8.34471
0.495526, -1, -10.3195, 29.9144, 26.8228, -6.51531, -76.2833, -8.48831
0.503447, -1, -10.129, 29.8206, 26.7975, -6.21564, -75.9641, -8.63165
0.511509, -1, -9.93919, 29.7271, 26.7725, -5.91642, -75.6455, -8.7747
0.519471, -1, -9.75016, 29.6336, 26.7473, -5.61796, -75.3277, -8.91776
0.527459, -1, -9.56199, 29.5403, 26.7221, -5.31976, -75.0107, -9.06036
0.535515, -1, -9.37474, 29.4472, 26.697, -5.02237, -74.6943, -9.2026
0.543431, -1, -9.18863, 29.3542, 26.672, -4.72603, -74.379, -9.34442
0.551445, -1, -9.00342, 29.2614, 26.6471, -4.43016, -74.0642, -9.48574
0.559513, -1, -8.81899, 29.1687, 26.6221, -4.13505, -73.7501, -9.62704
0.567449, -1, -8.63526, 29.0761, 26.5972, -3.84104, -73.437, -9.76787
0.575442, -1, -8.4518, 28.984, 26.5725, -3.54745, -73.1247, -9.90829
0.583516, -1, -8.26859, 28.8923, 26.5478, -3.25497, -72.8135, -10.0485
0.591433, -1, -8.0855, 28.8007, 26.5231, -2.96347, -72.5032, -10.1881
0.741935, -1, -4.79889, 27.1652, 26.0834, 2.25279, -66.9508, -12.6843
0.74383, -1, -4.713, 27.1226, 26.0718, 2.38855, -66.8064, -12.7493
0.745182, -1, -4.713, 27.1226, 26.0718, 2.38855, -66.8064, -12.7493
0.74647, -1, -4.713, 27.1226, 26.0718, 2.38855, -66.8064, -12.7493
0.748542, -1, -4.6273, 27.0802, 26.0604, 2.5241, -66.6623, -12.814
0.749812, -1, -4.6273, 27.0802, 26.0604, 2.5241, -66.6623, -12.814
0.752479, -1, -4.5417, 27.0378, 26.049, 2.6593, -66.5184, -12.8787
0.756261, -1, -4.45618, 26.9955, 26.0376, 2.7941, -66.375, -12.9433
0.757568, -1, -4.45618, 26.9955, 26.0376, 2.7941, -66.375, -12.9433
0.758859, -1, -4.45618, 26.9955, 26.0376, 2.7941, -66.375, -12.9433
0.761541, -1, -4.37077, 26.9533, 26.0263, 2.92854, -66.2317, -13.0075
0.762738, -1, -4.37077, 26.9533, 26.0263, 2.92854, -66.2317, -13.0075
0.764797, -1, -4.28546, 26.9112, 26.0149, 3.06273, -66.0889, -13.0718
0.765981, -1, -4.28546, 26.9112, 26.0149, 3.06273, -66.0889, -13.0718
0.767851, -1, -4.20028, 26.8691, 26.0036, 3.19674, -65.9462, -13.1359
0.771894, -1, -4.11526, 26.8272, 25.9924, 3.33061, -65.8038, -13.1997
0.773336, -1, -4.11526, 26.8272, 25.9924, 3.33061, -65.8038, -13.1997
0.774523, -1, -4.11526, 26.8272, 25.9924, 3.33061, -65.8038, -13.1997
0.777997, -1, -4.0305, 26.7853, 25.9812, 3.46415, -65.6618, -13.2636
0.78003, -1, -3.94605, 26.7435, 25.97, 3.59726, -65.5201, -13.3276
0.781466, -1, -3.94605, 26.7435, 25.97, 3.59726, -65.5201, -13.3276
0.782644, -1, -3.94605, 26.7435, 25.97, 3.59726, -65.5201, -13.3276
0.788544, -1, -3.77815, 26.6603, 25.9475, 3.86248, -65.2374, -13.4547
0.789855, -1, -3.77815, 26.6603, 25.9475, 3.86248, -65.2374, -13.4547
0.791964, -1, -3.6947, 26.6188, 25.9364, 3.99472, -65.0966, -13.518
0.800531, -1, -3.52857, 26.5359, 25.9142, 4.25845, -64.8159, -13.644
0.808883, -1, -3.44596, 26.4535, 25.892, 4.52077, -64.5366, -13.7694
0.815975, -1, -3.28144, 26.4124, 25.881, 4.65157, -64.2585, -13.8943
0.824425, -1, -3.03664, 26.2897, 25.848, 5.04239, -63.9816, -14.0186
0.831476, -1, -2.95563, 26.2489, 25.837, 5.17215, -63.8437, -14.0806
0.839416, -1, -2.79425, 26.1677, 25.8153, 5.43059, -63.5686, -14.2043
0.847472, -1, -2.63352, 26.0868, 25.7937, 5.68775, -63.295, -14.3272
0.855423, -1, -2.4732, 26.0065, 25.7722, 5.94373, -63.0225, -14.45
0.863431, -1, -2.31309, 25.9266, 25.7507, 6.19851, -62.7513, -14.5722
0.871468, -1, -2.15327, 25.847, 25.7293, 6.45193, -62.4814, -14.6934
0.881557, -1, -1.91449, 25.7285, 25.6974, 6.83036, -62.0787, -14.8744
0.887472, -1, -1.8351, 25.6891, 25.6868, 6.95596, -61.945, -14.9345
0.895416, -1, -1.67683, 25.6107, 25.6659, 7.20604, -61.6785, -15.054
0.905731, -1, -1.43998, 25.4936, 25.6345, 7.57899, -61.2811, -15.2325
0.911512, -1, -1.36121, 25.4548, 25.624, 7.70289, -61.1491, -15.2919
0.919415, -1, -1.20421, 25.3774, 25.6033, 7.94956, -60.886, -15.4099
0.929837, -1, -0.970596, 25.2618, 25.5724, 8.3176, -60.494, -15.5864
0.935518, -1, -0.893331, 25.2235, 25.5621, 8.43989, -60.364, -15.6448
0.943426, -1, -0.739762, 25.1471, 25.5417, 8.68364, -60.1048, -15.7613
0.952424, -1, -0.587144, 25.071, 25.5212, 8.92596, -59.8468, -15.8775
0.959482, -1, -0.435737, 24.9952, 25.5008, 9.16712, -59.5903, -15.9928
0.967416, -1, -0.28546, 24.9199, 25.4806, 9.40739, -59.3351, -16.1079
0.975519, -1, -0.13622, 24.8449, 25.4606, 9.64642, -59.081, -16.2224
0.983438, -1, 0.0121173, 24.7702, 25.4407, 9.88417, -58.8278, -16.3363
0.99142, -1, 0.159749, 24.6959, 25.4208, 10.1211, -58.5757, -16.45
0.999471, -1, 0.306988, 24.6219, 25.4008, 10.357, -58.3247, -16.5628
1.00749, -1, 0.454191, 24.5483, 25.3811, 10.5917, -58.0745, -16.6756
1.01542, -1, 0.601247, 24.4749, 25.3614, 10.8252, -57.8254, -16.7876
1.02348, -1, 0.748089, 24.4019, 25.3418, 11.0579, -57.5774, -16.8989
1.03142, -1, 0.894659, 24.3291, 25.3225, 11.2894, -57.3306, -17.0099
1.03949, -1, 1.04064, 24.2567, 25.303, 11.5198, -57.085, -17.1199
1.04748, -1, 1.18604, 24.1847, 25.2837, 11.7493, -56.8407, -17.2297
1.05542, -1, 1.33098, 24.113, 25.2645, 11.9777, -56.5976, -17.3386
1.06343, -1, 1.47548, 24.0416, 25.2453, 12.2055, -56.3557, -17.4474
1.07148, -1, 1.61946, 23.9706, 25.2263, 12.4317, -56.1149, -17.5557
1.07942, -1, 1.76261, 23.8999, 25.2075, 12.657, -55.8752, -17.6633
1.08742, -1, 1.90466, 23.8295, 25.1886, 12.8816, -55.6367, -17.7711
1.09548, -1, 2.04568, 23.7595, 25.1698, 13.1048, -55.3991, -17.878
1.10345, -1, 2.18585, 23.6897, 25.1512, 13.3271, -55.1624, -17.9844
1.11143, -1, 2.32502, 23.6203, 25.1325, 13.5484, -54.9266, -18.0903
1.1195, -1, 2.46318, 23.5511, 25.114, 13.769, -54.6918, -18.1958
1.12744, -1, 2.60048, 23.4823, 25.0957, 13.9885, -54.4579, -18.3008
1.13558, -1, 2.73677, 23.4136, 25.0773, 14.2071, -54.2249, -18.4051
1.14346, -1, 2.87224, 23.3454, 25.059, 14.4246, -53.9932, -18.5093
1.15148, -1, 3.00724, 23.2773, 25.0408, 14.6414, -53.7625, -18.6129
1.15981, -1, 3.14206, 23.2094, 25.0226, 14.8571, -53.5328, -18.7162
1.16756, -1, 3.27697, 23.142, 25.0045, 15.0718, -53.3042, -18.8189
1.17553, -1, 3.41167, 23.0749, 24.9867, 15.2857, -53.0765, -18.9217
1.18395, -1, 3.54617, 23.008, 24.9688, 15.499, -52.8498, -19.0237
1.19152, -1, 3.68035, 22.9415, 24.951, 15.7113, -52.624, -19.1251
1.19953, -1, 3.81419, 22.8752, 24.9333, 15.9224, -52.3992, -19.2264
1.2082, -1, 3.94754, 22.8092, 24.9156, 16.1327, -52.1754, -19.3268
1.2157, -1, 4.0805, 22.7435, 24.8979, 16.3423, -51.9525, -19.4271
1.22346, -1, 4.21304, 22.6781, 24.8805, 16.5508, -51.7303, -19.5266
1.23238, -1, 4.3451, 22.6128, 24.863, 16.7586, -51.509, -19.6261
1.23968, -1, 4.47637, 22.5479, 24.8456, 16.9654, -51.2885, -19.7249
1.24763, -1, 4.60691, 22.4832, 24.8284, 17.1717, -51.069, -19.8239
1.25653, -1, 4.7368, 22.4186, 24.8111, 17.3771, -50.8504, -19.9217
1.26403, -1, 4.86594, 22.3544, 24.7938, 17.5816, -50.6325, -20.0202
1.2725, -1, 4.99427, 22.2903, 24.7769, 17.7852, -50.4156, -20.1176
1.28078, -1, 5.12182, 22.2265, 24.7599, 17.9881, -50.1995, -20.2148
1.28815, -1, 5.24856, 22.163, 24.7428, 18.1904, -49.9842, -20.3114
1.29601, -1, 5.37448, 22.0997, 24.7259, 18.3916, -49.7699, -20.4078
1.3048, -1, 5.49946, 22.0367, 24.7091, 18.5922, -49.5563, -20.5037
1.31221, -1, 5.56172, 21.974, 24.6922, 18.792, -49.3438, -20.5992
1.32004, -1, 5.68584, 21.9427, 24.6754, 18.9913, -49.132, -20.6944
1.3274, -1, 5.80971, 21.8804, 24.6672, 19.0906, -49.0264, -20.7419
1.33546, -1, 5.93346, 21.8184, 24.6507, 19.2884, -48.8163, -20.8363
1.34345, -1, 6.05717, 21.7565, 24.6341, 19.4855, -48.6067, -20.931
1.35143, -1, 6.1807, 21.6949, 24.6176, 19.6819, -48.3979, -21.0249
1.3594, -1, 6.30408, 21.6334, 24.6012, 19.8775, -48.1896, -21.119
1.36744, -1, 6.42731, 21.5723, 24.5848, 20.0724, -47.9823, -21.2123
1.3754, -1, 6.55038, 21.5113, 24.5684, 20.2664, -47.7756, -21.3055
1.38347, -1, 6.67297, 21.4506, 24.5523, 20.4597, -47.5695, -21.3978
1.3914, -1, 6.79526, 21.39, 24.5361, 20.6527, -47.3641, -21.4903
1.3994, -1, 6.91708, 21.3297, 24.5199, 20.8447, -47.1595, -21.5817
1.40749, -1, 7.03835, 21.2698, 24.5037, 21.036, -46.9555, -21.6734
1.4154, -1, 7.15906, 21.21, 24.4877, 21.2265, -46.7524, -21.7642
1.42338, -1, 7.27922, 21.1505, 24.4718, 21.4164, -46.5501, -21.8554
1.43149, -1, 7.39876, 21.0912, 24.4559, 21.6058, -46.3486, -21.9455
1.43939, -1, 7.51766, 21.0322, 24.4403, 21.7943, -46.1479, -22.036
1.44741, -1, 7.6361, 20.9733, 24.4246, 21.9822, -45.9478, -22.1257
1.45641, -1, 7.75407, 20.9147, 24.4088, 22.1694, -45.7488, -22.2156
1.46341, -1, 7.87155, 20.8561, 24.393, 22.3561, -45.5502, -22.3048
1.4714, -1, 7.98839, 20.7977, 24.3774, 22.5423, -45.3527, -22.3941
1.47949, -1, 8.10458, 20.7394, 24.3617, 22.7276, -45.1559, -22.4824
1.48741, -1, 8.22029, 20.6814, 24.3462, 22.9122, -44.9596, -22.5711
1.49539, -1, 8.33568, 20.6235, 24.3309, 23.0962, -44.7639, -22.6587
1.50351, -1, 8.4507, 20.5658, 24.3155, 23.2797, -44.5687, -22.7465
1.5114, -1, 8.56528, 20.5084, 24.3001, 23.4624, -44.3739, -22.8336
1.51952, -1, 8.67931, 20.4513, 24.2847, 23.6444, -44.18, -22.9207
1.52741, -1, 8.79292, 20.3943, 24.2695, 23.8257, -43.9867, -23.0075
1.5354, -1, 8.90628, 20.3376, 24.2543, 24.0068, -43.7937, -23.094
1.54349, -1, 9.0195, 20.2811, 24.2391, 24.1872, -43.6018, -23.1804
1.55183, -1, 9.13264, 20.2247, 24.2242, 24.3669, -43.4104, -23.2664
1.55939, -1, 9.24576, 20.1685, 24.2092, 24.546, -43.2197, -23.3525
1.56746, -1, 9.35879, 20.1124, 24.1942, 24.7243, -43.0297, -23.4379
1.5762, -1, 9.4715, 20.0565, 24.1791, 24.9023, -42.8402, -23.5234
1.5834, -1, 9.58374, 20.0007, 24.1641, 25.0799, -42.6513, -23.6079
1.59146, -1, 9.69544, 19.9452, 24.1493, 25.2566, -42.463, -23.6929
1.6002, -1, 9.80687, 19.8896, 24.1344, 25.4329, -42.2754, -23.7768
1.6074, -1, 9.91798, 19.8344, 24.1197, 25.6087, -42.0882, -23.861
1.61546, -1, 10.0288, 19.7794, 24.1052, 25.784, -41.902, -23.9444
1.62412, -1, 10.1392, 19.7246, 24.0906, 25.9588, -41.7162, -24.0278
1.6324, -1, 10.2491, 19.67, 24.0758, 26.133, -41.5309, -24.1112
1.63941, -1, 10.3587, 19.6156, 24.0612, 26.3065, -41.3462, -24.194
1.64855, -1, 10.4677, 19.5614, 24.0467, 26.4795, -41.1619, -24.277
1.65555, -1, 10.5763, 19.5073, 24.0322, 26.6521, -40.9783, -24.3591
1.66357, -1, 10.6845, 19.4534, 24.0177, 26.8243, -40.7951, -24.4421
1.67158, -1, 10.7924, 19.3996, 24.0034, 26.9957, -40.6125, -24.5239
1.67956, -1, 10.8999, 19.3459, 23.9892, 27.1665, -40.4305, -24.6062
1.6875, -1, 11.007, 19.2924, 23.9749, 27.3369, -40.2487, -24.6875
1.69545, -1, 11.1137, 19.239, 23.9605, 27.5069, -40.068, -24.7688
1.70365, -1, 11.2201, 19.1857, 23.9462, 27.6764, -39.8875, -24.8501
1.71142, -1, 11.3262, 19.1327, 23.932, 27.8453, -39.7077, -24.9307
1.71943, -1, 11.4318, 19.0797, 23.9178, 28.0138, -39.5284, -25.0115
1.72751, -1, 11.5371, 19.0271, 23.9037, 28.1816, -39.3495, -25.0916
1.73555, -1, 11.642, 18.9746, 23.8898, 28.3491, -39.1712, -25.1722
1.74367, -1, 11.7469, 18.9223, 23.8758, 28.5163, -38.9934, -25.2519
1.7517, -1, 11.8515, 18.8701, 23.8618, 28.6828, -38.8162, -25.332
1.75969, -1, 11.9559, 18.8181, 23.8477, 28.8487, -38.6394, -25.4115
1.76784, -1, 12.0602, 18.7662, 23.8338, 29.0142, -38.4631, -25.4909
1.77584, -1, 12.1643, 18.7144, 23.82, 29.1794, -38.2875, -25.5705
1.78399, -1, 12.2683, 18.6627, 23.8061, 29.3443, -38.1125, -25.6492
1.79202, -1, 12.372, 18.6112, 23.7923, 29.5086, -37.938, -25.7284
1.79996, -1, 12.4755, 18.5597, 23.7787, 29.6723, -37.764, -25.8063
1.8085, -1, 12.5787, 18.5084, 23.7651, 29.8356, -37.5903, -25.8848
1.81599, -1, 12.6302, 18.4828, 23.7513, 29.9985, -37.4168, -25.9626
1.82388, -1, 12.733, 18.4318, 23.7444, 30.0798, -37.3303, -26.0011
1.83239, -1, 12.8865, 18.3555, 23.7239, 30.3231, -37.0714, -26.1178
1.83947, -1, 12.9374, 18.3302, 23.7171, 30.4039, -36.9854, -26.1561
1.84739, -1, 13.0392, 18.2796, 23.7035, 30.5652, -36.8134, -26.2329
1.85655, -1, 13.191, 18.2042, 23.6832, 30.8062, -36.5566, -26.3482
1.8634, -1, 13.2415, 18.1791, 23.6765, 30.8864, -36.4711, -26.3863
1.87138, -1, 13.3421, 18.129, 23.6633, 31.0466, -36.3008, -26.4633
1.88077, -1, 13.4925, 18.054, 23.6433, 31.2859, -36.0459, -26.5774
1.88738, -1, 13.5425, 18.029, 23.6365, 31.3655, -35.9612, -26.6157
1.89681, -1, 13.6924, 17.9542, 23.6165, 31.6032, -35.7079, -26.7297
1.90339, -1, 13.7423, 17.9293, 23.6098, 31.6823, -35.6235, -26.7674
1.91139, -1, 13.8418, 17.8796, 23.5965, 31.8404, -35.4555, -26.8434
1.92095, -1, 13.9908, 17.8052, 23.5765, 32.0767, -35.2041, -26.956
1.92901, -1, 14.0899, 17.7559, 23.5634, 32.2335, -35.037, -27.0314
1.93538, -1, 14.1393, 17.7313, 23.5569, 32.3118, -34.9537, -27.0687
1.94512, -1, 14.2871, 17.6576, 23.5372, 32.5462, -34.7045, -27.1807
1.9514, -1, 14.3361, 17.6332, 23.5307, 32.6242, -34.6218, -27.2181
1.96038, -1, 14.4339, 17.5844, 23.5175, 32.78, -34.4564, -27.2919
1.96745, -1, 14.5314, 17.5358, 23.5044, 32.9354, -34.2911, -27.3663
1.97539, -1, 14.6285, 17.4874, 23.4915, 33.0903, -34.1263, -27.4404
1.98338, -1, 14.7253, 17.439, 23.4785, 33.2447, -33.9618, -27.5141
1.99146, -1, 14.8218, 17.3908, 23.4655, 33.3988, -33.7977, -27.5882
1.99939, -1, 14.9182, 17.3426, 23.4527, 33.5526, -33.6341, -27.6616
2.00747, -1, 15.0144, 17.2943, 23.44, 33.706, -33.4707, -27.7355
2.01544, -1, 15.1105, 17.2462, 23.4271, 33.859, -33.3074, -27.8089
2.02339, -1, 15.2064, 17.1982, 23.4142, 34.0116, -33.145, -27.8818
2.03145, -1, 15.3023, 17.1503, 23.4013, 34.1636, -32.9827, -27.9552
2.0394, -1, 15.3981, 17.1025, 23.3885, 34.3156, -32.8212, -28.0275
2.04745, -1, 15.4938, 17.0547, 23.3757, 34.4672, -32.66, -28.1002
2.05538, -1, 15.5895, 17.0072, 23.3629, 34.6184, -32.4991, -28.1727
2.0634, -1, 15.6849, 16.9599, 23.3501, 34.7693, -32.3386, -28.2445
2.07144, -1, 15.7801, 16.9126, 23.3376, 34.9198, -32.1783, -28.317
2.07938, -1, 15.8751, 16.8657, 23.3251, 35.0697, -32.0185, -28.3883
2.08739, -1, 15.9699, 16.8188, 23.3126, 35.2195, -31.8592, -28.4598
2.09544, -1, 16.0643, 16.7721, 23.2999, 35.3691, -31.7001, -28.5317
2.1034, -1, 16.1583, 16.7255, 23.2874, 35.5183, -31.5413, -28.6027
2.11139, -1, 16.252, 16.6789, 23.2749, 35.6671, -31.3832, -28.6743
2.11944, -1, 16.3454, 16.6323, 23.2625, 35.8155, -31.2252, -28.7451
2.12738, -1, 16.4386, 16.5858, 23.25, 35.9636, -31.0676, -28.8159
2.13589, -1, 16.5315, 16.5393, 23.2375, 36.1115, -30.9101, -28.8872
2.14339, -1, 16.6242, 16.4928, 23.2252, 36.2593, -30.753, -28.9575
2.15141, -1, 16.7166, 16.4465, 23.2128, 36.4065, -30.5963, -29.0283
2.15953, -1, 16.8089, 16.4002, 23.2004, 36.5534, -30.4399, -29.0987
2.16747, -1, 16.9012, 16.3541, 23.188, 36.6999, -30.284, -29.1684
2.17556, -1, 16.9932, 16.3081, 23.1756, 36.8461, -30.1283, -29.2388
2.18357, -1, 17.0851, 16.2623, 23.1634, 36.9921, -29.9728, -29.3082
2.19149, -1, 17.1763, 16.2168, 23.1511, 37.1378, -29.8176, -29.3778
2.19944, -1, 17.2649, 16.1724, 23.1387, 37.2828, -29.6632, -29.4474
2.20751, -1, 17.3495, 16.1301, 23.1261, 37.4266, -29.5101, -29.5158
2.21541, -1, 17.4287, 16.0906, 23.1136, 37.567, -29.3604, -29.5833
2.22342, -1, 17.5024, 16.054, 23.1012, 37.7013, -29.2169, -29.6478
2.23187, -1, 17.57, 16.0211, 23.0895, 37.8259, -29.0839, -29.7073
2.23959, -1, 17.63, 15.9919, 23.079, 37.9372, -28.965, -29.761
2.24759, -1, 17.683, 15.966, 23.0701, 38.0311, -28.8639, -29.8069
2.25609, -1, 17.73, 15.9424, 23.0637, 38.1063, -28.7832, -29.8433
2.26449, -1, 17.7709, 15.921, 23.0595, 38.1623, -28.7224, -29.8705
2.27176, -1, 17.8053, 15.9034, 23.0572, 38.2004, -28.6807, -29.8892
2.28049, -1, 17.8327, 15.8896, 23.056, 38.2255, -28.6534, -29.9011
2.28789, -1, 17.8543, 15.8794, 23.0555, 38.2403, -28.6371, -29.9082
2.29604, -1, 17.8697, 15.8723, 23.0552, 38.2483, -28.6283, -29.9119
2.30403, -1, 17.8788, 15.8681, 23.0551, 38.2524, -28.6239, -29.9137
2.31191, 2, 17.8814, 15.8669, 23.0551, 38.2543, -28.6218, -29.9146
2.32047, 2, 17.885, 15.865, 23.055, 38.2552, -28.6209, -29.915
2.32862, 2, 17.8852, 15.8646, 23.055, 38.2556, -28.6204, -29.9151
2.33537, 2, 17.8849, 15.8645, 23.055, 38.2557, -28.6203, -29.9152
2.34445, 2, 17.8838, 15.8643, 23.055, 38.2559, -28.6201, -29.9152
2.35138, 2, 17.8835, 15.8643, 23.055, 38.2559, -28.62, -29.9153
2.35937, 2, 17.8831, 15.8642, 23.055, 38.2559, -28.62, -29.9153
2.3674, 2, 17.8829, 15.8641, 23.055, 38.2559, -28.6201, -29.9153
2.37539, 2, 17.8829, 15.864, 23.055, 38.2559, -28.62, -29.9153
2.38338, 2, 17.883, 15.8637, 23.055, 38.256, -28.6201, -29.9153
2.3914, 2, 17.8833, 15.8634, 23.055, 38.256, -28.62, -29.9153
2.40097, 2, 17.8839, 15.8629, 23.055, 38.256, -28.62, -29.9153
2.40886, 2, 17.8845, 15.8627, 23.055, 38.256, -28.6201, -29.9153
2.41687, 2, 17.8854, 15.8626, 23.055, 38.256, -28.6201, -29.9153
2.42545, 2, 17.8862, 15.8625, 23.055, 38.2559, -28.6201, -29.9154
2.43137, 2, 17.8866, 15.8625, 23.055, 38.2559, -28.6201, -29.9154
2.44097, 2, 17.8871, 15.8625, 23.055, 38.256, -28.6201, -29.9153
2.44919, 2, 17.8875, 15.8625, 23.055, 38.256, -28.6201, -29.9153
2.45537, 2, 17.8876, 15.8626, 23.055, 38.256, -28.6201, -29.9153
2.46342, 2, 17.8877, 15.8626, 23.055, 38.256, -28.6201, -29.9152
2.4724, 2, 17.8878, 15.8626, 23.055, 38.256, -28.6201, -29.9152
2.47936, 2, 17.8878, 15.8626, 23.055, 38.256, -28.6202, -29.9152
2.48742, 2, 17.8878, 15.8625, 23.055, 38.256, -28.6202, -29.9153
2.49538, 2, 17.8878, 15.8625, 23.055, 38.256, -28.6202, -29.9152
2.50338, 2, 17.8876, 15.8624, 23.055, 38.2559, -28.6202, -29.9153
2.5115, 2, 17.8874, 15.8623, 23.055, 38.2559, -28.6202, -29.9153
2.51938, 2, 17.8872, 15.8622, 23.055, 38.256, -28.6202, -29.9153
2.52736, 2, 17.8871, 15.8622, 23.055, 38.2559, -28.6202, -29.9153
2.53541, 2, 17.8871, 15.8622, 23.055, 38.256, -28.6202, -29.9153
2.54339, 2, 17.887, 15.8622, 23.055, 38.2559, -28.6203, -29.9152
2.55136, 2, 17.887, 15.8622, 23.055, 38.2559, -28.6203, -29.9152
2.55941, 2, 17.8871, 15.8623, 23.055, 38.256, -28.6203, -29.9152
2.56741, 2, 17.8871, 15.8623, 23.055, 38.256, -28.6203, -29.9152
2.57538, 2, 17.8871, 15.8623, 23.055, 38.256, -28.6203, -29.9152
2.58342, 2, 17.8871, 15.8623, 23.055, 38.256, -28.6204, -29.9152
2.59139, 2, 17.8871, 15.8623, 23.055, 38.256, -28.6204, -29.9152
2.59936, 2, 17.8871, 15.8623, 23.055, 38.2559, -28.6205, -29.9152
2.6074, 2, 17.887, 15.8623, 23.055, 38.256, -28.6205, -29.9152
2.61544, 2, 17.887, 15.8622, 23.055, 38.256, -28.6205, -29.9152
2.62336, 2, 17.887, 15.8622, 23.055, 38.256, -28.6205, -29.9152
2.63141, 2, 17.887, 15.8622, 23.055, 38.256, -28.6205, -29.9152
2.63939, 2, 17.8869, 15.8622, 23.0551, 38.256, -28.6205, -29.9152
2.64737, 2, 17.8869, 15.8622, 23.055, 38.256, -28.6205, -29.9152
2.65546, 2, 17.8869, 15.8623, 23.055, 38.256, -28.6205, -29.9152
2.66349, 2, 17.8868, 15.8623, 23.055, 38.2559, -28.6205, -29.9152
2.67152, 2, 17.8868, 15.8623, 23.055, 38.2559, -28.6205, -29.9152
2.67959, 2, 17.8868, 15.8623, 23.055, 38.2559, -28.6205, -29.9152
2.68749, 2, 17.8868, 15.8623, 23.055, 38.256, -28.6205, -29.9152
2.69549, 2, 17.8868, 15.8623, 23.055, 38.2559, -28.6205, -29.9152
2.70352, 2, 17.8868, 15.8623, 23.055, 38.2559, -28.6206, -29.9152
2.71139, 2, 17.8868, 15.8623, 23.055, 38.2559, -28.6205, -29.9153
2.71939, 2, 17.8868, 15.8623, 23.055, 38.2559, -28.6206, -29.9152
2.72744, 2, 17.8867, 15.8623, 23.055, 38.2559, -28.6206, -29.9152
2.7358, 2, 17.8867, 15.8623, 23.055, 38.2559, -28.6206, -29.9152
2.74356, 2, 17.8867, 15.8623, 23.055, 38.2559, -28.6207, -29.9152
2.75157, 2, 17.8867, 15.8623, 23.055, 38.2559, -28.6207, -29.9152
2.7599, 2, 17.8867, 15.8623, 23.055, 38.2559, -28.6207, -29.9152
2.76838, 2, 17.8867, 15.8623, 23.055, 38.2559, -28.6207, -29.9152
2.7758, 2, 17.8866, 15.8623, 23.055, 38.2559, -28.6207, -29.9151
2.7844, 2, 17.8866, 15.8623, 23.055, 38.2559, -28.6208, -29.9151
2.79186, 2, 17.8866, 15.8623, 23.055, 38.2559, -28.6208, -29.9151
2.80046, 2, 17.8865, 15.8623, 23.055, 38.2559, -28.6208, -29.9151
2.80827, 2, 17.8865, 15.8623, 23.055, 38.2559, -28.6208, -29.9151
2.81593, 2, 17.8865, 15.8623, 23.055, 38.2559, -28.6208, -29.9151
2.82452, 2, 17.8864, 15.8623, 23.055, 38.2559, -28.6208, -29.9152
2.83229, 2, 17.8864, 15.8623, 23.055, 38.2559, -28.6208, -29.9152
2.83935, 2, 17.8864, 15.8623, 23.055, 38.2559, -28.6208, -29.9152
2.84839, 2, 17.8863, 15.8623, 23.055, 38.2558, -28.6208, -29.9152
2.85626, 2, 17.8863, 15.8623, 23.055, 38.2558, -28.6208, -29.9152
2.86335, 2, 17.8863, 15.8623, 23.055, 38.2558, -28.6208, -29.9152
2.8714, 2, 17.8862, 15.8623, 23.055, 38.2558, -28.6209, -29.9152
2.88096, 2, 17.8861, 15.8623, 23.055, 38.2557, -28.6209, -29.9152
2.88735, 2, 17.8861, 15.8624, 23.055, 38.2557, -28.6209, -29.9152
2.8967, 2, 17.886, 15.8624, 23.055, 38.2557, -28.6209, -29.9151
2.90336, 2, 17.886, 15.8624, 23.055, 38.2557, -28.621, -29.9151
2.91139, 2, 17.8859, 15.8624, 23.055, 38.2557, -28.6209, -29.9151
2.92092, 2, 17.8858, 15.8624, 23.055, 38.2557, -28.621, -29.9151
2.92924, 2, 17.8858, 15.8624, 23.055, 38.2557, -28.621, -29.9151
2.93541, 2, 17.8858, 15.8624, 23.055, 38.2557, -28.621, -29.9152
2.94508, 2, 17.8857, 15.8624, 23.055, 38.2557, -28.621, -29.9151
2.95135, 2, 17.8857, 15.8624, 23.055, 38.2557, -28.621, -29.9151
2.95939, 2, 17.8856, 15.8624, 23.055, 38.2556, -28.621, -29.9151
2.96838, 2, 17.8856, 15.8624, 23.055, 38.2557, -28.6211, -29.9151
2.97634, 2, 17.8855, 15.8624, 23.055, 38.2557, -28.6211, -29.9151
2.9834, 2, 17.8854, 15.8624, 23.055, 38.2556, -28.6211, -29.9151
2.99134, 2, 17.8853, 15.8624, 23.055, 38.2556, -28.6211, -29.9151
2.99936, 2, 17.8853, 15.8624, 23.055, 38.2556, -28.6211, -29.9151
3.00739, 2, 17.8853, 15.8624, 23.055, 38.2556, -28.6211, -29.9151
3.01545, 2, 17.8852, 15.8624, 23.055, 38.2556, -28.6211, -29.9151
3.02335, 2, 17.8852, 15.8624, 23.055, 38.2555, -28.6211, -29.9152
3.0314, 2, 17.8851, 15.8624, 23.055, 38.2555, -28.6212, -29.9151
3.03934, 2, 17.885, 15.8624, 23.055, 38.2555, -28.6212, -29.9151
3.04736, 2, 17.885, 15.8624, 23.055, 38.2555, -28.6212, -29.9151
3.05541, 2, 17.8849, 15.8624, 23.055, 38.2554, -28.6212, -29.9151
3.06336, 2, 17.8849, 15.8624, 23.055, 38.2555, -28.6211, -29.9151
3.07136, 2, 17.8848, 15.8624, 23.055, 38.2554, -28.6212, -29.9151
3.07939, 2, 17.8847, 15.8624, 23.055, 38.2554, -28.6212, -29.9151
3.08734, 2, 17.8847, 15.8624, 23.055, 38.2554, -28.6212, -29.915
3.09537, 2, 17.8846, 15.8624, 23.055, 38.2553, -28.6212, -29.9151
3.1034, 2, 17.8846, 15.8624, 23.055, 38.2553, -28.6212, -29.915
3.11134, 2, 17.8846, 15.8625, 23.055, 38.2553, -28.6212, -29.915
3.11936, 2, 17.8845, 15.8625, 23.055, 38.2553, -28.6212, -29.915
3.1274, 2, 17.8844, 15.8625, 23.055, 38.2553, -28.6212, -29.915
3.13542, 2, 17.8844, 15.8625, 23.055, 38.2553, -28.6212, -29.915
3.14337, 2, 17.8843, 15.8624, 23.055, 38.2552, -28.6212, -29.915
3.15143, 2, 17.8843, 15.8624, 23.055, 38.2552, -28.6212, -29.9151
3.15941, 2, 17.8843, 15.8624, 23.055, 38.2552, -28.6212, -29.9151
3.16744, 2, 17.8843, 15.8625, 23.055, 38.2552, -28.6212, -29.915
3.1755, 2, 17.8842, 15.8625, 23.055, 38.2552, -28.6212, -29.915
3.18353, 2, 17.8842, 15.8625, 23.055, 38.2552, -28.6212, -29.915
3.19147, 2, 17.8842, 15.8625, 23.055, 38.2551, -28.6213, -29.915
3.19951, 2, 17.8842, 15.8625, 23.055, 38.2551, -28.6213, -29.915
3.20734, 2, 17.8841, 15.8625, 23.055, 38.2551, -28.6213, -29.9149
3.21538, 2, 17.8841, 15.8625, 23.055, 38.2551, -28.6213, -29.9149
3.22345, 2, 17.8841, 15.8625, 23.055, 38.2551, -28.6212, -29.9149
3.23137, 2, 17.8841, 15.8625, 23.055, 38.255, -28.6213, -29.9149
3.23944, 2, 17.8841, 15.8625, 23.055, 38.255, -28.6213, -29.9149
3.24795, 2, 17.8841, 15.8625, 23.055, 38.255, -28.6213, -29.9149
3.25639, 2, 17.8841, 15.8625, 23.055, 38.255, -28.6213, -29.9149
3.26362, 2, 17.8841, 15.8625, 23.055, 38.255, -28.6213, -29.9149
3.27185, 2, 17.884, 15.8625, 23.055, 38.255, -28.6213, -29.9149
3.28044, 2, 17.884, 15.8625, 23.055, 38.2549, -28.6213, -29.9149
3.28784, 2, 17.884, 15.8625, 23.055, 38.2549, -28.6213, -29.9149
3.29645, 2, 17.884, 15.8625, 23.055, 38.2549, -28.6213, -29.9149
3.30387, 2, 17.884, 15.8625, 23.0551, 38.2549, -28.6214, -29.9149
3.3121, 2, 17.884, 15.8625, 23.055, 38.2549, -28.6213, -29.9149
3.3224, 2, 17.884, 15.8625, 23.055, 38.2548, -28.6213, -29.9149
3.32851, 2, 17.8839, 15.8625, 23.055, 38.2548, -28.6214, -29.9149
3.33586, 2, 17.8839, 15.8625, 23.055, 38.2548, -28.6214, -29.9148
3.34459, 2, 17.8839, 15.8625, 23.055, 38.2548, -28.6214, -29.9148
3.35139, 2, 17.8839, 15.8625, 23.055, 38.2547, -28.6214, -29.9148
3.35933, 2, 17.8839, 15.8625, 23.0551, 38.2547, -28.6214, -29.9148
3.3689, 2, 17.8839, 15.8625, 23.055, 38.2547, -28.6215, -29.9149
3.3753, 4, 17.8839, 15.8625, 23.055, 38.2547, -28.6215, -29.9149
3.38462, 4, 17.8839, 15.8625, 23.055, 38.2547, -28.6215, -29.9149
3.39139, 4, 17.8839, 15.8625, 23.055, 38.2547, -28.6215, -29.9148
3.39933, 4, 17.8839, 15.8626, 23.055, 38.2547, -28.6215, -29.9148
3.40878, 4, 17.8838, 15.8626, 23.055, 38.2547, -28.6215, -29.9147
3.41724, 4, 17.8838, 15.8626, 23.055, 38.2546, -28.6215, -29.9148
3.4233, 4, 17.8838, 15.8626, 23.055, 38.2546, -28.6215, -29.9148
3.43291, 4, 17.8838, 15.8626, 23.0551, 38.2546, -28.6215, -29.9148
3.44142, 4, 17.8837, 15.8626, 23.055, 38.2546, -28.6215, -29.9147
3.44732, 4, 17.8837, 15.8626, 23.055, 38.2546, -28.6215, -29.9147
3.4571, 4, 17.8837, 15.8626, 23.0551, 38.2546, -28.6215, -29.9147
3.4634, 4, 17.8837, 15.8626, 23.0551, 38.2545, -28.6215, -29.9146
3.47133, 4, 17.8837, 15.8626, 23.0551, 38.2545, -28.6215, -29.9146
3.4805, 4, 17.8837, 15.8626, 23.0551, 38.2545, -28.6215, -29.9146
3.50431, 4, 17.8837, 15.8626, 23.0551, 38.2544, -28.6215, -29.9146
3.50638, 4, 17.8837, 15.8626, 23.0551, 38.2544, -28.6215, -29.9146
3.50757, 4, 17.8837, 15.8626, 23.0551, 38.2544, -28.6215, -29.9146
3.51168, 4, 17.8837, 15.8626, 23.0551, 38.2544, -28.6215, -29.9146
3.52172, 4, 17.8837, 15.8626, 23.0551, 38.2544, -28.6215, -29.9146
3.52812, 4, 17.8837, 15.8626, 23.0551, 38.2544, -28.6215, -29.9145
3.53532, 4, 17.8835, 15.8627, 23.0551, 38.2544, -28.6215, -29.9146
3.54334, 4, 17.8824, 15.8634, 23.055, 38.2543, -28.6215, -29.9145
3.55214, 4, 17.8797, 15.8652, 23.0549, 38.2537, -28.6216, -29.9143
3.55932, 4, 17.8759, 15.8681, 23.0543, 38.2509, -28.6219, -29.9127
3.56733, 4, 17.8716, 15.8721, 23.053, 38.2439, -28.6229, -29.9076
3.57626, 4, 17.8672, 15.8771, 23.0507, 38.2319, -28.6252, -29.8968
3.5833, 5, 17.8621, 15.8834, 23.047, 38.2142, -28.6288, -29.8794
3.59134, 5, 17.8566, 15.8913, 23.0419, 38.1906, -28.6339, -29.8555
3.60012, 5, 17.8512, 15.9, 23.0355, 38.1617, -28.6404, -29.8253
3.60839, 5, 17.8456, 15.9097, 23.0279, 38.1276, -28.648, -29.7899
3.61533, 5, 17.8389, 15.9209, 23.0195, 38.0901, -28.6562, -29.7512
3.6243, 5, 17.8305, 15.9334, 23.0105, 38.052, -28.6647, -29.7114
3.63134, 5, 17.8208, 15.947, 23.0014, 38.0131, -28.6733, -29.6706
3.63933, 5, 17.8107, 15.9611, 22.9921, 37.9729, -28.6823, -29.6291
3.64809, 5, 17.8003, 15.9753, 22.9826, 37.9328, -28.6912, -29.5871
3.6564, 5, 17.7896, 15.9895, 22.973, 37.8935, -28.7002, -29.5454
3.6634, 5, 17.7789, 16.0039, 22.9632, 37.8535, -28.7093, -29.504
3.67155, 5, 17.7683, 16.0184, 22.9535, 37.8128, -28.7185, -29.4626
3.67943, 5, 17.7578, 16.0329, 22.9438, 37.7729, -28.7278, -29.4208
3.68751, 5, 17.7471, 16.0471, 22.934, 37.7336, -28.7373, -29.3788
3.69667, 5, 17.7363, 16.0612, 22.9243, 37.6933, -28.747, -29.3374
3.70344, 5, 17.7255, 16.0756, 22.9144, 37.6529, -28.7568, -29.2962
3.71151, 5, 17.7147, 16.0898, 22.9045, 37.6134, -28.7668, -29.2546
3.71934, 5, 17.7039, 16.104, 22.8947, 37.5737, -28.7768, -29.2127
3.72736, 5, 17.6932, 16.118, 22.885, 37.5332, -28.7867, -29.1713
3.73547, 5, 17.6826, 16.1322, 22.8751, 37.4934, -28.7964, -29.1304
3.74343, 5, 17.6719, 16.1465, 22.8652, 37.4543, -28.8059, -29.0894
3.75156, 5, 17.6611, 16.1608, 22.8552, 37.4146, -28.8154, -29.0477
3.75966, 5, 17.6504, 16.1749, 22.8452, 37.3743, -28.8248, -29.0061
3.76762, 5, 17.6397, 16.1892, 22.8354, 37.335, -28.8343, -28.9651
3.77572, 5, 17.6289, 16.2037, 22.8255, 37.2957, -28.8437, -28.9241
3.78385, 5, 17.6182, 16.2182, 22.8156, 37.2556, -28.8532, -28.8827
3.79328, 5, 17.6076, 16.2326, 22.8057, 37.2158, -28.8628, -28.8409
3.79983, 5, 17.5972, 16.2468, 22.7959, 37.1768, -28.8724, -28.7996
3.80842, 5, 17.5866, 16.2612, 22.7861, 37.1373, -28.8823, -28.7587
3.81588, 5, 17.5759, 16.2755, 22.7763, 37.0971, -28.8923, -28.7178
3.82411, 5, 17.5654, 16.2897, 22.7665, 37.0575, -28.9026, -28.6762
3.83196, 5, 17.5601, 16.2967, 22.7616, 37.038, -28.913, -28.635
3.83931, 5, 17.5494, 16.3108, 22.7518, 36.9986, -28.9181, -28.6146
3.84835, 5, 17.5333, 16.3323, 22.7368, 36.9384, -28.9334, -28.5538
3.85541, 5, 17.528, 16.3394, 22.7319, 36.9187, -28.9384, -28.5334
3.86332, 5, 17.5173, 16.3536, 22.722, 36.8797, -28.9484, -28.492
3.87246, 5, 17.5011, 16.3749, 22.7071, 36.8201, -28.9631, -28.4306
3.87931, 5, 17.4957, 16.3821, 22.7022, 36.8002, -28.968, -28.4103
3.88733, 5, 17.485, 16.3964, 22.6924, 36.761, -28.9778, -28.3699
3.89665, 5, 17.4689, 16.4177, 22.6777, 36.7023, -28.9924, -28.3088
3.90332, 5, 17.4636, 16.4248, 22.6729, 36.6823, -28.9973, -28.2882
3.91131, 5, 17.453, 16.439, 22.6632, 36.6427, -29.0071, -28.2477
3.92083, 5, 17.4372, 16.4604, 22.6486, 36.5848, -29.022, -28.1875
3.92733, 5, 17.4318, 16.4676, 22.6437, 36.5652, -29.027, -28.1673
3.93686, 5, 17.416, 16.4887, 22.6289, 36.5058, -29.0423, -28.1061
3.94344, 5, 17.4107, 16.4958, 22.624, 36.4863, -29.0475, -28.0857
3.95304, 5, 17.3948, 16.5172, 22.6094, 36.4282, -29.0633, -28.0257
3.95931, 5, 17.3895, 16.5242, 22.6045, 36.4085, -29.0686, -28.0058
3.96739, 5, 17.3789, 16.5383, 22.5947, 36.3688, -29.0789, -27.9656
3.97636, 5, 17.3684, 16.5523, 22.585, 36.3301, -29.0891, -27.925
3.98331, 5, 17.3577, 16.5665, 22.5752, 36.2916, -29.099, -27.8846
3.99137, 5, 17.347, 16.5808, 22.5656, 36.252, -29.109, -27.8447
3.99932, 5, 17.3363, 16.5951, 22.556, 36.2125, -29.1188, -27.8046
4.00734, 5, 17.3257, 16.6092, 22.5463, 36.1738, -29.1287, -27.7641
4.01531, 5, 17.3149, 16.6234, 22.5366, 36.1349, -29.1386, -27.7235
4.02332, 5, 17.3041, 16.6377, 22.5269, 36.0951, -29.1485, -27.6833
4.03138, 5, 17.2935, 16.6518, 22.5171, 36.056, -29.1584, -27.6435
4.03931, 5, 17.2828, 16.6659, 22.5074, 36.0174, -29.1685, -27.6035
4.0474, 5, 17.2721, 16.6799, 22.4977, 35.9784, -29.1788, -27.563
4.05531, 5, 17.2614, 16.6942, 22.488, 35.9388, -29.1894, -27.5227
4.06331, 5, 17.2508, 16.7085, 22.4783, 35.9, -29.2002, -27.4829
4.07137, 5, 17.2401, 16.7226, 22.4687, 35.8615, -29.2109, -27.4433
4.07932, 5, 17.2294, 16.7366, 22.4591, 35.8223, -29.2215, -27.4032
4.08742, 5, 17.2187, 16.7509, 22.4496, 35.783, -29.2321, -27.3629
4.09537, 5, 17.208, 16.7651, 22.4401, 35.7447, -29.2424, -27.3228
4.10332, 5, 17.1972, 16.7792, 22.4305, 35.7064, -29.2527, -27.2835
4.11131, 5, 17.1864, 16.7931, 22.4209, 35.6671, -29.2629, -27.2439
4.11938, 5, 17.1757, 16.8072, 22.4113, 35.6283, -29.2731, -27.2042
4.12733, 5, 17.1649, 16.8214, 22.4016, 35.59, -29.2833, -27.1641
4.13531, 5, 17.1541, 16.8356, 22.3921, 35.5513, -29.2936, -27.1246
4.14338, 5, 17.1433, 16.8497, 22.3824, 35.512, -29.304, -27.0854
4.15149, 5, 17.1327, 16.8636, 22.3728, 35.4735, -29.3145, -27.0459
4.15935, 5, 17.1221, 16.8778, 22.3632, 35.4354, -29.325, -27.006
4.16747, 5, 17.1113, 16.8919, 22.3536, 35.3966, -29.3357, -26.9663
4.17562, 5, 17.1007, 16.9059, 22.3441, 35.3573, -29.3466, -26.927
4.18342, 5, 17.0901, 16.9197, 22.3347, 35.3189, -29.3576, -26.888
4.19147, 5, 17.0794, 16.9338, 22.3253, 35.2806, -29.3685, -26.8486
4.19987, 5, 17.0687, 16.948, 22.3158, 35.2414, -29.3792, -26.8088
4.2083, 5, 17.0581, 16.9621, 22.3063, 35.2024, -29.3897, -26.7694
4.21554, 5, 17.0474, 16.9761, 22.2967, 35.1643, -29.4001, -26.7303
4.22406, 5, 17.0366, 16.9902, 22.2872, 35.1259, -29.4104, -26.6911
4.23232, 5, 17.0259, 17.0044, 22.2778, 35.0867, -29.4207, -26.6515
4.23946, 5, 17.0153, 17.0186, 22.2683, 35.048, -29.431, -26.6117
4.24828, 5, 17.0045, 17.0325, 22.2589, 35.01, -29.4414, -26.5725
4.25574, 5, 16.9937, 17.0465, 22.2494, 34.9714, -29.452, -26.5335
4.26382, 5, 16.9831, 17.0606, 22.2399, 34.9325, -29.4626, -26.4942
4.27239, 5, 16.9724, 17.0748, 22.2306, 34.8944, -29.4735, -26.4546
4.27976, 5, 16.9616, 17.0889, 22.2213, 34.8567, -29.4846, -26.415
4.28779, 5, 16.9509, 17.1027, 22.2118, 34.8182, -29.4959, -26.376
4.29657, 5, 16.9402, 17.1167, 22.2024, 34.7795, -29.5071, -26.3371
4.30389, 5, 16.9294, 17.1308, 22.193, 34.7417, -29.5182, -26.2979
4.31248, 5, 16.9186, 17.1448, 22.1834, 34.7039, -29.5292, -26.2581
4.32061, 5, 16.9079, 17.1588, 22.1739, 34.6651, -29.54, -26.2189
4.32796, 5, 16.8972, 17.1726, 22.1646, 34.6266, -29.5507, -26.1801
4.33648, 5, 16.8864, 17.1867, 22.1551, 34.5889, -29.5614, -26.1413
4.3433, 5, 16.8809, 17.1938, 22.1504, 34.57, -29.5667, -26.1218
4.35135, 5, 16.8701, 17.2079, 22.1411, 34.5315, -29.5774, -26.0824
4.36076, 5, 16.8539, 17.2289, 22.127, 34.4738, -29.5936, -26.0237
4.36731, 5, 16.8485, 17.2359, 22.1224, 34.455, -29.599, -26.0045
4.37531, 5, 16.8377, 17.25, 22.1132, 34.4171, -29.61, -25.9661
4.38329, 5, 16.827, 17.2641, 22.1039, 34.3783, -29.6212, -25.9272
4.39134, 5, 16.8163, 17.2779, 22.0946, 34.3397, -29.6325, -25.8881
4.3993, 5, 16.8056, 17.2917, 22.0854, 34.302, -29.6438, -25.8492
4.40889, 5, 16.7895, 17.3127, 22.0712, 34.245, -29.6608, -25.7918
4.41753, 5, 16.7788, 17.3267, 22.0618, 34.2063, -29.6719, -25.7534
4.42337, 5, 16.7735, 17.3337, 22.0572, 34.1874, -29.6774, -25.734
4.43288, 5, 16.7573, 17.3544, 22.0431, 34.1309, -29.6937, -25.6757
4.44161, 5, 16.7466, 17.3684, 22.0338, 34.0924, -29.7045, -25.6375
4.4473, 5, 16.7412, 17.3754, 22.0292, 34.0732, -29.7099, -25.6185
4.45716, 5, 16.7303, 17.3894, 22.0198, 34.0355, -29.7206, -25.5609
4.46336, 5, 16.7193, 17.4032, 22.0105, 33.9982, -29.7315, -25.5415
4.47234, 5, 16.7085, 17.417, 22.0014, 33.9604, -29.7425, -25.5025
4.48029, 5, 16.6977, 17.431, 21.9922, 33.922, -29.7536, -25.464
4.48736, 5, 16.6868, 17.445, 21.983, 33.8844, -29.765, -25.426
4.4953, 5, 16.6759, 17.4591, 21.9738, 33.8471, -29.7765, -25.3878
4.50331, 5, 16.6652, 17.4729, 21.9645, 33.809, -29.7882, -25.3491
4.51136, 5, 16.6545, 17.4869, 21.9552, 33.7709, -29.7999, -25.3104
4.51931, 5, 16.6437, 17.5009, 21.946, 33.7337, -29.8115, -25.2723
4.52736, 5, 16.6331, 17.5149, 21.9368, 33.6964, -29.8229, -25.2343
4.53528, 5, 16.6224, 17.5286, 21.9276, 33.6582, -29.8341, -25.1962
4.5433, 5, 16.6117, 17.5423, 21.9184, 33.6203, -29.8454, -25.1577
4.55136, 5, 16.601, 17.5562, 21.9091, 33.583, -29.8565, -25.1191
4.5593, 5, 16.5904, 17.5702, 21.8999, 33.5454, -29.8676, -25.0811
4.5673, 5, 16.5798, 17.5841, 21.8909, 33.5071, -29.8788, -25.0434
4.57536, 5, 16.569, 17.5977, 21.8817, 33.4692, -29.8901, -25.0054
4.5833, 5, 16.5581, 17.6115, 21.8726, 33.4322, -29.9016, -24.9671
4.59139, 5, 16.5474, 17.6255, 21.8635, 33.3947, -29.9132, -24.9288
4.59936, 5, 16.5366, 17.6393, 21.8542, 33.3565, -29.9251, -24.8912
4.60729, 5, 16.5257, 17.653, 21.845, 33.319, -29.937, -24.8536
4.6153, 5, 16.5151, 17.6668, 21.8358, 33.282, -29.9488, -24.8158
4.62335, 5, 16.5044, 17.6807, 21.8266, 33.2445, -29.9604, -24.7775
4.63129, 5, 16.4935, 17.6946, 21.8175, 33.2065, -29.9718, -24.7395
4.63959, 5, 16.4827, 17.7085, 21.8084, 33.1695, -29.9832, -24.7021
4.64729, 5, 16.472, 17.7222, 21.7993, 33.1328, -29.9945, -24.6648
4.6553, 5, 16.4611, 17.7361, 21.7902, 33.0954, -30.0057, -24.6272
4.66414, 5, 16.4503, 17.7499, 21.7813, 33.0576, -30.0171, -24.589
4.67138, 5, 16.4395, 17.7637, 21.7723, 33.0206, -30.0285, -24.5511
4.67939, 5, 16.4287, 17.7773, 21.7632, 32.9839, -30.04, -24.5136
4.68818, 5, 16.4179, 17.7909, 21.7542, 32.9464, -30.0516, -24.4761
4.6954, 5, 16.4071, 17.8047, 21.7451, 32.9087, -30.0636, -24.4382
4.70341, 5, 16.3962, 17.8186, 21.7359, 32.872, -30.0757, -24.4002
4.71218, 5, 16.3854, 17.8324, 21.7268, 32.8353, -30.0879, -24.3623
4.71931, 5, 16.3745, 17.846, 21.7177, 32.7977, -30.0999, -24.3249
4.72732, 5, 16.3637, 17.8597, 21.7086, 32.7602, -30.1117, -24.2874
4.73621, 5, 16.3529, 17.8736, 21.6996, 32.7235, -30.1235, -24.2495
4.74336, 5, 16.342, 17.8874, 21.6905, 32.6866, -30.1351, -24.2115
4.75148, 5, 16.3311, 17.901, 21.6814, 32.6488, -30.1467, -24.1739
4.76053, 5, 16.3203, 17.9146, 21.6725, 32.6113, -30.1584, -24.1366
4.76767, 5, 16.3095, 17.9284, 21.6635, 32.5747, -30.17, -24.0993
4.77565, 5, 16.2986, 17.9422, 21.6546, 32.5379, -30.1819, -24.0614
4.78371, 5, 16.2876, 17.9559, 21.6457, 32.5003, -30.1937, -24.0235
4.79171, 5, 16.2768, 17.9695, 21.6367, 32.4632, -30.2058, -23.9861
4.79987, 5, 16.2658, 17.9832, 21.6276, 32.4266, -30.2181, -23.9489
4.80917, 5, 16.2548, 17.997, 21.6186, 32.3897, -30.2304, -23.9119
4.81583, 5, 16.2438, 18.0107, 21.6096, 32.3522, -30.2427, -23.8744
4.8244, 5, 16.2328, 18.0242, 21.6006, 32.3154, -30.2547, -23.8369
4.83188, 5, 16.2274, 18.0309, 21.5961, 32.2793, -30.2665, -23.7998
4.8398, 5, 16.2164, 18.0446, 21.5873, 32.2611, -30.2724, -23.7814
4.8483, 5, 16.2001, 18.0652, 21.5737, 32.2054, -30.29, -23.7262
4.85528, 5, 16.1947, 18.0721, 21.5693, 32.1869, -30.2958, -23.7076
4.86328, 5, 16.1839, 18.0857, 21.5604, 32.1505, -30.3076, -23.6701
4.87133, 5, 16.1731, 18.0993, 21.5516, 32.1141, -30.3194, -23.6329
4.8814, 5, 16.157, 18.12, 21.5383, 32.0582, -30.3373, -23.5779
4.88733, 5, 16.1516, 18.1268, 21.5339, 32.0399, -30.3434, -23.5597
4.89682, 5, 16.1354, 18.1471, 21.5204, 31.9857, -30.3621, -23.5045
4.90329, 5, 16.13, 18.1539, 21.5158, 31.9674, -30.3683, -23.4859
4.91268, 5, 16.1138, 18.1745, 21.5024, 31.9116, -30.3872, -23.4305
4.91927, 5, 16.1084, 18.1814, 21.498, 31.8932, -30.3933, -23.4122
4.92883, 5, 16.0919, 18.2019, 21.4846, 31.8389, -30.4117, -23.3574
4.93533, 5, 16.0865, 18.2087, 21.4803, 31.8206, -30.4177, -23.339
4.94488, 5, 16.0702, 18.2291, 21.467, 31.7648, -30.4357, -23.2831
4.95291, 5, 16.0647, 18.2429, 21.4581, 31.7284, -30.4477, -23.2463
4.96101, 5, 16.0538, 18.2564, 21.4494, 31.6924, -30.4598, -23.2098
4.96828, 5, 16.043, 18.2632, 21.445, 31.6742, -30.4658, -23.1917
4.97535, 5, 16.0322, 18.2766, 21.4363, 31.6369, -30.4779, -23.1551
4.98433, 5, 16.0213, 18.2902, 21.4276, 31.6003, -30.4903, -23.1181
4.99228, 5, 16.0104, 18.3039, 21.4188, 31.5643, -30.5028, -23.0811
5.00029, 5, 15.9996, 18.3175, 21.4098, 31.528, -30.5155, -23.0448
5.00727, 5, 15.9888, 18.3311, 21.4009, 31.4911, -30.5281, -23.0085
5.01527, 5, 15.9779, 18.3445, 21.392, 31.4548, -30.5405, -22.9723
5.02335, 5, 15.9671, 18.3582, 21.3832, 31.4191, -30.5528, -22.9355
5.03128, 5, 15.9563, 18.3719, 21.3743, 31.3831, -30.565, -22.8987
5.03927, 5, 15.9454, 18.3854, 21.3656, 31.3464, -30.5771, -22.8627
5.04736, 5, 15.9344, 18.3988, 21.3568, 31.3102, -30.5892, -22.8267
5.05527, 5, 15.9235, 18.4123, 21.348, 31.2746, -30.6014, -22.7907
5.06328, 5, 15.9127, 18.426, 21.3393, 31.2386, -30.6136, -22.7543
5.07135, 5, 15.9018, 18.4396, 21.3306, 31.2019, -30.6261, -22.7179
5.07937, 5, 15.8909, 18.4532, 21.322, 31.1657, -30.6387, -22.6821
5.08728, 5, 15.8801, 18.4666, 21.3134, 31.1301, -30.6516, -22.6465
5.09544, 5, 15.8692, 18.4802, 21.3046, 31.0941, -30.6646, -22.6108
5.10327, 5, 15.8583, 18.4939, 21.2957, 31.0574, -30.6775, -22.5745
5.11127, 5, 15.8475, 18.5074, 21.2869, 31.0212, -30.6902, -22.5381
5.11935, 5, 15.8366, 18.5207, 21.2782, 30.9856, -30.7028, -22.5024
5.12729, 5, 15.8257, 18.5341, 21.2695, 30.9495, -30.7152, -22.4669
5.13532, 5, 15.8148, 18.5477, 21.2609, 30.9127, -30.7276, -22.4315
5.14334, 5, 15.804, 18.5614, 21.2523, 30.8766, -30.74, -22.3958
5.15137, 5, 15.793, 18.5749, 21.2435, 30.8412, -30.7526, -22.3596
5.15937, 5, 15.7819, 18.5883, 21.2348, 30.8053, -30.7652, -22.3238
5.16752, 5, 15.7709, 18.6019, 21.2262, 30.7688, -30.778, -22.2884
5.17536, 5, 15.76, 18.6155, 21.2176, 30.7328, -30.7909, -22.253
5.18344, 5, 15.749, 18.6291, 21.209, 30.6974, -30.8041, -22.2172
5.19162, 5, 15.7379, 18.6424, 21.2004, 30.6616, -30.8171, -22.1809
5.19938, 5, 15.7271, 18.6558, 21.1917, 30.6252, -30.83, -22.1451
5.2075, 5, 15.7162, 18.6693, 21.1829, 30.5895, -30.8427, -22.1098
5.21587, 5, 15.7052, 18.6829, 21.1742, 30.5544, -30.8553, -22.0746
5.22428, 5, 15.6943, 18.6964, 21.1655, 30.5189, -30.8678, -22.039
5.23157, 5, 15.6835, 18.7097, 21.1569, 30.4828, -30.8802, -22.003
5.24012, 5, 15.6726, 18.7231, 21.1483, 30.4471, -30.8926, -21.9671
5.24743, 5, 15.6616, 18.7366, 21.1398, 30.4119, -30.9053, -21.9318
5.25552, 5, 15.6507, 18.7501, 21.1311, 30.3764, -30.918, -21.8967
5.26444, 5, 15.6398, 18.7634, 21.1225, 30.3404, -30.9311, -21.8615
5.27162, 5, 15.6287, 18.7766, 21.1141, 30.3048, -30.9443, -21.8257
5.27993, 5, 15.6176, 18.7901, 21.1056, 30.2699, -30.9576, -21.79
5.2885, 5, 15.6066, 18.8036, 21.0972, 30.2346, -30.9707, -21.7547
5.29581, 5, 15.5956, 18.8172, 21.0887, 30.1986, -30.9837, -21.7198
5.30444, 5, 15.5846, 18.8305, 21.08, 30.1628, -30.9966, -21.6849
5.31256, 5, 15.5737, 18.8439, 21.0713, 30.1277, -31.0094, -21.6495
5.31986, 5, 15.5628, 18.8575, 21.0627, 30.0924, -31.0221, -21.614
5.3285, 5, 15.5518, 18.8709, 21.0542, 30.0563, -31.0348, -21.579
5.33661, 5, 15.5463, 18.8776, 21.0499, 30.0383, -31.0477, -21.5445
5.34398, 5, 15.5354, 18.8909, 21.0413, 30.0031, -31.0606, -21.5099
5.35244, 5, 15.5189, 18.9109, 21.0286, 29.9507, -31.0737, -21.4748
5.35927, 5, 15.5134, 18.9177, 21.0243, 29.9328, -31.0804, -21.4571
5.36731, 5, 15.5024, 18.9312, 21.0157, 29.8968, -31.0939, -21.4217
5.37526, 5, 15.4914, 18.9446, 21.0072, 29.8616, -31.1072, -21.387
5.38327, 5, 15.4805, 18.9578, 20.9989, 29.8269, -31.1204, -21.3526
5.39126, 5, 15.4694, 18.9712, 20.9905, 29.7916, -31.1334, -21.3183
5.4006, 5, 15.4528, 18.9914, 20.978, 29.7383, -31.1527, -21.2661
5.40947, 5, 15.4419, 19.0047, 20.9694, 29.7037, -31.1655, -21.2311
5.41526, 5, 15.4364, 19.0113, 20.9651, 29.6865, -31.1719, -21.2138
5.42517, 5, 15.4198, 19.0312, 20.9523, 29.6338, -31.1912, -21.162
5.43131, 5, 15.4143, 19.0379, 20.9481, 29.616, -31.1977, -21.1449
5.43927, 5, 15.4033, 19.0514, 20.9397, 29.581, -31.211, -21.1102
5.44885, 5, 15.3867, 19.0715, 20.9271, 29.5292, -31.2313, -21.0575
5.45532, 5, 15.3812, 19.0781, 20.9229, 29.5116, -31.2381, -21.0402
5.46326, 5, 15.3703, 19.0913, 20.9145, 29.4761, -31.2518, -21.0059
5.47226, 5, 15.3592, 19.1048, 20.906, 29.4411, -31.2654, -20.9716
5.47933, 5, 15.3481, 19.1181, 20.8976, 29.4068, -31.2787, -20.9374
5.48832, 5, 15.337, 19.1313, 20.8893, 29.3721, -31.292, -20.9025
5.49534, 5, 15.3259, 19.1445, 20.881, 29.3367, -31.3052, -20.8676
5.50332, 5, 15.3147, 19.1578, 20.8727, 29.3016, -31.3183, -20.8334
5.51126, 5, 15.3035, 19.1712, 20.8644, 29.2672, -31.3314, -20.7994
5.51933, 5, 15.2923, 19.1846, 20.8558, 29.2325, -31.3447, -20.7652
5.52726, 5, 15.2812, 19.1979, 20.8473, 29.197, -31.3582, -20.7308
5.53528, 5, 15.2701, 19.2111, 20.8389, 29.1617, -31.3718, -20.696
5.54333, 5, 15.259, 19.2245, 20.8306, 29.1273, -31.3857, -20.6618
5.55126, 5, 15.2481, 19.2378, 20.8222, 29.0929, -31.3995, -20.6278
5.55933, 5, 15.2371, 19.2511, 20.8139, 29.0577, -31.4131, -20.594
5.56732, 5, 15.2261, 19.2642, 20.8056, 29.0226, -31.4263, -20.5601
5.57527, 5, 15.2152, 19.2774, 20.7971, 28.9881, -31.4396, -20.5258
5.58326, 5, 15.2042, 19.2908, 20.7888, 28.9539, -31.4528, -20.4915
5.59141, 5, 15.1932, 19.3042, 20.7807, 28.9189, -31.466, -20.4577
5.59925, 5, 15.1822, 19.3175, 20.7725, 28.8839, -31.4792, -20.4242
5.60726, 5, 15.1712, 19.3306, 20.7643, 28.8498, -31.4926, -20.3906
5.61533, 5, 15.1601, 19.3439, 20.7561, 28.8159, -31.5062, -20.3566
5.62326, 5, 15.1489, 19.3573, 20.7477, 28.7814, -31.5201, -20.3222
5.63138, 5, 15.1378, 19.3705, 20.7392, 28.7464, -31.5342, -20.2884
5.63926, 5, 15.1268, 19.3836, 20.7309, 28.7121, -31.5483, -20.2549
5.64725, 5, 15.1156, 19.3967, 20.7226, 28.6782, -31.562, -20.2215
5.6561, 5, 15.1046, 19.41, 20.7143, 28.6437, -31.5756, -20.1879
5.66433, 5, 15.0935, 19.4233, 20.706, 28.6087, -31.5891, -20.1541
5.6714, 5, 15.0824, 19.4366, 20.6978, 28.5745, -31.6026, -20.1201
5.68013, 5, 15.0713, 19.4498, 20.6894, 28.5407, -31.616, -20.0866
5.68736, 5, 15.0603, 19.4629, 20.6811, 28.5066, -31.6296, -20.0532
5.69536, 5, 15.0494, 19.4762, 20.6729, 28.4717, -31.6434, -20.0197
5.70415, 5, 15.0382, 19.4894, 20.6648, 28.4372, -31.6573, -19.9858
5.71143, 5, 15.0272, 19.5025, 20.6567, 28.4032, -31.6715, -19.9516
5.71934, 5, 15.0161, 19.5155, 20.6486, 28.3692, -31.6856, -19.9177
5.72816, 5, 15.005, 19.5287, 20.6404, 28.3344, -31.6996, -19.8844
5.73529, 5, 14.9938, 19.542, 20.632, 28.2998, -31.7134, -19.8512
5.74328, 5, 14.9827, 19.5553, 20.6237, 28.266, -31.727, -19.8179
5.75231, 5, 14.9716, 19.5685, 20.6155, 28.2322, -31.7405, -19.7839
5.7594, 5, 14.9604, 19.5815, 20.6073, 28.1976, -31.7541, -19.75
5.76756, 5, 14.9494, 19.5949, 20.5992, 28.163, -31.7676, -19.7167
5.77563, 5, 14.9383, 19.6081, 20.5911, 28.1291, -31.7813, -19.6835
5.78363, 5, 14.9272, 19.6212, 20.583, 28.0954, -31.7953, -19.6504
5.79171, 5, 14.916, 19.6342, 20.5747, 28.0612, -31.8095, -19.617
5.80109, 5, 14.9049, 19.6473, 20.5665, 28.0268, -31.8238, -19.5833
5.80835, 5, 14.8939, 19.6606, 20.5585, 27.993, -31.8382, -19.55
5.81582, 5, 14.8828, 19.6738, 20.5505, 27.9598, -31.8522, -19.5172
5.82515, 5, 14.8717, 19.6869, 20.5424, 27.9261, -31.8662, -19.4844
5.83189, 5, 14.8606, 19.6999, 20.5344, 27.8918, -31.88, -19.4515
5.83986, 5, 14.855, 19.7065, 20.5262, 27.858, -31.8938, -19.4182
5.84917, 5, 14.838, 19.7264, 20.5179, 27.8248, -31.9075, -19.3848
5.85586, 5, 14.8324, 19.733, 20.5138, 27.8081, -31.9144, -19.3682
5.86331, 5, 14.8213, 19.7461, 20.5057, 27.7743, -31.9284, -19.3356
5.87338, 5, 14.8045, 19.7655, 20.4935, 27.723, -31.9496, -19.287
5.87929, 5, 14.7989, 19.7721, 20.4895, 27.7063, -31.9568, -19.2707
5.88853, 5, 14.7824, 19.792, 20.4774, 27.6564, -31.9784, -19.221
5.89525, 5, 14.7768, 19.7986, 20.4734, 27.6395, -31.9856, -19.2044
5.9033, 5, 14.7657, 19.8117, 20.4652, 27.6052, -31.9997, -19.1717
5.91268, 5, 14.7492, 19.8312, 20.4532, 27.5548, -32.0204, -19.1232
5.92073, 5, 14.7383, 19.8443, 20.4454, 27.5216, -32.0343, -19.0907
5.92735, 5, 14.7328, 19.8509, 20.4414, 27.5048, -32.0412, -19.0745
5.93524, 5, 14.7217, 19.864, 20.4335, 27.4704, -32.0549, -19.0416
5.94484, 5, 14.7052, 19.8834, 20.4216, 27.4198, -32.0758, -18.9925
5.95286, 5, 14.694, 19.8965, 20.4134, 27.3867, -32.09, -18.9602
5.96083, 5, 14.6884, 19.9031, 20.4052, 27.3533, -32.1045, -18.928
5.96889, 5, 14.6772, 19.9162, 20.4011, 27.3364, -32.1118, -18.8956
5.97679, 5, 14.6661, 19.9294, 20.3931, 27.3023, -32.1264, -18.8791
5.98424, 5, 14.655, 19.9423, 20.3851, 27.2691, -32.1409, -18.8461
5.99225, 5, 14.6439, 19.9553, 20.377, 27.236, -32.1551, -18.8132
6.0003, 5, 14.6328, 19.9685, 20.369, 27.2025, -32.1691, -18.7809
6.00825, 5, 14.6217, 19.9816, 20.361, 27.1685, -32.1832, -18.749
6.01625, 5, 14.6106, 19.9947, 20.3529, 27.1353, -32.1972, -18.7169
6.0243, 5, 14.5995, 20.0075, 20.3449, 27.1026, -32.2113, -18.6845
6.03225, 5, 14.5885, 20.0206, 20.3371, 27.0696, -32.2254, -18.6517
6.04025, 5, 14.5774, 20.0337, 20.3293, 27.036, -32.2399, -18.6193
6.04829, 5, 14.5663, 20.0469, 20.3214, 27.0026, -32.2545, -18.5874
6.05624, 5, 14.5552, 20.0599, 20.3136, 26.9697, -32.2693, -18.5556
6.0643, 5, 14.5441, 20.0728, 20.3056, 26.937, -32.2837, -18.5235
6.07381, 5, 14.5272, 20.0925, 20.2935, 26.8867, -32.305, -18.475
6.08024, 5, 14.5216, 20.099, 20.2895, 26.87, -32.3121, -18.4588
6.08825, 5, 14.5104, 20.1121, 20.2816, 26.8373, -32.3261, -18.4269
6.09631, 5, 14.4992, 20.125, 20.2737, 26.8047, -32.3401, -18.3953
6.10433, 5, 14.4879, 20.1378, 20.2658, 26.7716, -32.3543, -18.3638
6.11225, 5, 14.4767, 20.1509, 20.258, 26.7379, -32.3687, -18.332
6.11924, 5, 14.4655, 20.1639, 20.2501, 26.7048, -32.3832, -18.2998
6.1273, 5, 14.4542, 20.177, 20.242, 26.6722, -32.3982, -18.2678
6.13524, 5, 14.443, 20.1899, 20.2341, 26.6392, -32.4131, -18.2362
6.14324, 5, 14.4319, 20.2027, 20.2264, 26.6057, -32.428, -18.205
6.15131, 5, 14.4207, 20.2158, 20.2187, 26.5724, -32.4426, -18.1738
6.15925, 5, 14.4095, 20.2288, 20.2108, 26.5398, -32.457, -18.1423
6.16757, 5, 14.3983, 20.2417, 20.2031, 26.5074, -32.4713, -18.1103
6.1753, 5, 14.3871, 20.2545, 20.1952, 26.4742, -32.4857, -18.0783
6.18334, 5, 14.3757, 20.2674, 20.1871, 26.4408, -32.5002, -18.047
6.19166, 5, 14.3644, 20.2805, 20.1791, 26.4082, -32.5148, -18.0159
6.19935, 5, 14.3532, 20.2935, 20.1713, 26.3759, -32.5296, -17.9848
6.20734, 5, 14.3421, 20.3064, 20.1635, 26.3432, -32.5446, -17.9532
6.21584, 5, 14.3308, 20.3193, 20.1556, 26.31, -32.5596, -17.9215
6.22432, 5, 14.3197, 20.3323, 20.1479, 26.2773, -32.5745, -17.8899
6.23126, 5, 14.3086, 20.3453, 20.1401, 26.2453, -32.5891, -17.8589
6.24018, 5, 14.2974, 20.3582, 20.1321, 26.2131, -32.6037, -17.8279
6.24746, 5, 14.2862, 20.371, 20.1243, 26.1801, -32.618, -17.7969
6.25534, 5, 14.2752, 20.3838, 20.1167, 26.1472, -32.6324, -17.7653
6.26428, 5, 14.2641, 20.3968, 20.1091, 26.1149, -32.6468, -17.7336
6.27152, 5, 14.2529, 20.4098, 20.1015, 26.0829, -32.6614, -17.7019
6.27958, 5, 14.2418, 20.4228, 20.0938, 26.0504, -32.6763, -17.6708
6.28849, 5, 14.2306, 20.4356, 20.0861, 26.0174, -32.6914, -17.64
6.29583, 5, 14.2193, 20.4485, 20.0781, 25.985, -32.7065, -17.6091
6.30432, 5, 14.2081, 20.4615, 20.0702, 25.9531, -32.7215, -17.5778
6.31262, 5, 14.197, 20.4745, 20.0624, 25.921, -32.7363, -17.5462
6.31986, 5, 14.1858, 20.4873, 20.0546, 25.8881, -32.7509, -17.5149
6.32835, 5, 14.1747, 20.5001, 20.0469, 25.8554, -32.7655, -17.484
6.33672, 5, 14.1636, 20.5129, 20.0392, 25.8234, -32.78, -17.4533
6.34402, 5, 14.1581, 20.5194, 20.0353, 25.8074, -32.7873, -17.4226
6.35181, 5, 14.147, 20.5324, 20.0275, 25.7752, -32.8021, -17.4071
6.36102, 5, 14.1302, 20.5517, 20.0158, 25.7257, -32.8247, -17.3602
6.3684, 5, 14.1192, 20.5644, 20.0081, 25.6935, -32.84, -17.3292
6.37527, 5, 14.1136, 20.5708, 20.0044, 25.6775, -32.8477, -17.314
6.38521, 5, 14.0969, 20.5902, 19.9931, 25.6296, -32.8703, -17.2685
6.39122, 5, 14.0913, 20.5966, 19.9892, 25.6133, -32.8778, -17.2533
6.39928, 5, 14.0801, 20.6094, 19.9816, 25.5806, -32.8925, -17.2227
6.40941, 5, 14.0632, 20.6284, 19.9701, 25.5327, -32.9144, -17.1761
6.41527, 5, 14.0575, 20.6348, 19.9661, 25.5169, -32.9217, -17.1606
6.42474, 5, 14.0406, 20.6542, 19.9546, 25.4685, -32.9439, -17.115
6.43364, 5, 14.0294, 20.6672, 19.947, 25.436, -32.9588, -17.085
6.43931, 5, 14.0238, 20.6736, 19.9432, 25.42, -32.9665, -17.0699
6.44722, 5, 14.0126, 20.6863, 19.9355, 25.3885, -32.9819, -17.0397
6.45763, 5, 13.9958, 20.7056, 19.9242, 25.3412, -33.0051, -16.9934
6.46329, 5, 13.9903, 20.7121, 19.9203, 25.3251, -33.0127, -16.978
6.47287, 5, 13.979, 20.7249, 19.9126, 25.2926, -33.0354, -16.9326
6.48023, 5, 13.9679, 20.7376, 19.9049, 25.2609, -33.0428, -16.9176
6.48729, 5, 13.9568, 20.7503, 19.8974, 25.2294, -33.0577, -16.8877
6.49522, 5, 13.9457, 20.7631, 19.8899, 25.1977, -33.0726, -16.8577
6.50332, 5, 13.9345, 20.776, 19.8825, 25.1652, -33.0875, -16.8273
6.51129, 5, 13.9233, 20.7889, 19.8749, 25.1334, -33.1026, -16.7967
6.51923, 5, 13.912, 20.8016, 19.8674, 25.102, -33.1179, -16.7665
6.52722, 5, 13.9006, 20.8143, 19.8597, 25.0707, -33.1335, -16.7367
6.53523, 5, 13.8892, 20.8271, 19.852, 25.0387, -33.1489, -16.707
6.54322, 5, 13.878, 20.84, 19.8443, 25.0064, -33.1641, -16.677
6.5513, 5, 13.8666, 20.8528, 19.8368, 24.9747, -33.1791, -16.6467
6.55922, 5, 13.8553, 20.8654, 19.8292, 24.9433, -33.194, -16.6162
6.56722, 5, 13.844, 20.8779, 19.8216, 24.9118, -33.2088, -16.5859
6.5753, 5, 13.8327, 20.8907, 19.8142, 24.8795, -33.2238, -16.556
6.58327, 5, 13.8214, 20.9035, 19.8066, 24.8476, -33.2387, -16.5264
6.59122, 5, 13.8101, 20.9163, 19.799, 24.8162, -33.2539, -16.4968
6.5993, 5, 13.799, 20.9289, 19.7915, 24.7851, -33.2695, -16.4667
6.60722, 5, 13.7877, 20.9415, 19.7842, 24.7533, -33.2853, -16.4365
6.61522, 5, 13.7764, 20.9543, 19.7769, 24.7211, -33.3008, -16.4064
6.62329, 5, 13.7652, 20.967, 19.7695, 24.6895, -33.3162, -16.3768
6.63122, 5, 13.754, 20.9797, 19.7621, 24.6584, -33.3313, -16.3473
6.63922, 5, 13.7426, 20.9922, 19.7546, 24.6272, -33.3465, -16.3179
6.64732, 5, 13.7313, 21.0048, 19.747, 24.5953, -33.3616, -16.2881
6.65522, 5, 13.7201, 21.0176, 19.7393, 24.5637, -33.3767, -16.2581
6.6633, 5, 13.7089, 21.0304, 19.7318, 24.5327, -33.392, -16.2282
6.67216, 5, 13.6976, 21.0431, 19.7244, 24.502, -33.4076, -16.1988
6.6793, 5, 13.6865, 21.0557, 19.7169, 24.4708, -33.4235, -16.1695
6.68737, 5, 13.6753, 21.0683, 19.7094, 24.4391, -33.4392, -16.1403
6.69619, 5, 13.6639, 21.0811, 19.702, 24.4078, -33.4548, -16.111
6.70332, 5, 13.6526, 21.0938, 19.6945, 24.377, -33.4701, -16.0812
6.7114, 5, 13.6414, 21.1064, 19.6869, 24.3463, -33.4852, -16.0514
6.72012, 5, 13.6301, 21.1189, 19.6794, 24.3149, -33.5003, -16.022
6.72722, 5, 13.6187, 21.1315, 19.6722, 24.2833, -33.5155, -15.993
6.73556, 5, 13.6075, 21.1443, 19.6649, 24.2523, -33.5308, -15.964
6.74417, 5, 13.5962, 21.157, 19.6576, 24.2216, -33.5463, -15.9351
6.75133, 5, 13.5848, 21.1697, 19.6503, 24.1906, -33.5621, -15.9057
6.75941, 5, 13.5735, 21.1822, 19.643, 24.159, -33.5781, -15.876
6.76832, 5, 13.5624, 21.1949, 19.6355, 24.1276, -33.5939, -15.8467
6.77562, 5, 13.5511, 21.2076, 19.628, 24.0969, -33.6095, -15.8179
6.78352, 5, 13.5399, 21.2203, 19.6206, 24.0662, -33.625, -15.7891
6.79158, 5, 13.5287, 21.2328, 19.6133, 24.0349, -33.6403, -15.7605
6.79975, 5, 13.5174, 21.2452, 19.606, 24.0031, -33.6557, -15.7314
6.80837, 5, 13.5061, 21.2579, 19.5987, 23.9721, -33.6711, -15.7021
6.81574, 5, 13.4949, 21.2705, 19.5913, 23.9416, -33.6867, -15.673
6.82384, 5, 13.4836, 21.2832, 19.5839, 23.911, -33.7026, -15.6442
6.83242, 5, 13.4722, 21.2957, 19.5765, 23.8798, -33.7187, -15.6157
6.83978, 5, 13.4666, 21.302, 19.5692, 23.8484, -33.7347, -15.5871
6.84823, 5, 13.4495, 21.3208, 19.562, 23.8178, -33.7504, -15.5581
6.85521, 5, 13.4438, 21.3271, 19.5584, 23.8026, -33.7581, -15.5435
6.86515, 5, 13.4265, 21.346, 19.5476, 23.7565, -33.7812, -15.4995
6.87126, 5, 13.4208, 21.3523, 19.544, 23.7409, -33.7888, -15.485
6.88036, 5, 13.4037, 21.3709, 19.5332, 23.6943, -33.812, -15.4419
6.88722, 5, 13.398, 21.3772, 19.5295, 23.6791, -33.8198, -15.4277
6.89523, 5, 13.3866, 21.3898, 19.522, 23.649, -33.8356, -15.3994
6.9033, 5, 13.3753, 21.4025, 19.5146, 23.6188, -33.8517, -15.3708
6.91339, 5, 13.3583, 21.4214, 19.5038, 23.5722, -33.8761, -15.3274
6.91921, 5, 13.3527, 21.4276, 19.5002, 23.5569, -33.884, -15.3129
6.92868, 5, 13.3359, 21.4464, 19.4893, 23.5115, -33.9077, -15.2699
6.93675, 5, 13.3247, 21.459, 19.4821, 23.4813, -33.9235, -15.2415
6.94321, 5, 13.319, 21.4652, 19.4785, 23.4659, -33.9313, -15.2273
6.95278, 5, 13.3021, 21.4838, 19.4675, 23.4196, -33.9546, -15.1847
6.96173, 5, 13.2909, 21.4962, 19.4603, 23.3894, -33.9704, -15.1558
6.9689, 5, 13.2795, 21.5087, 19.4532, 23.3595, -33.9863, -15.1271
6.97621, 5, 13.2737, 21.515, 19.4497, 23.3444, -33.9944, -15.1129
6.98421, 5, 13.2624, 21.5276, 19.4426, 23.3138, -34.0107, -15.0848
6.99121, 5, 13.2511, 21.5401, 19.4355, 23.2828, -34.0268, -15.0568
6.9992, 5, 13.2397, 21.5525, 19.4284, 23.2524, -34.0426, -15.0289
7.00728, 5, 13.2284, 21.565, 19.4213, 23.2223, -34.0583, -15.0006
7.01521, 5, 13.2171, 21.5777, 19.414, 23.1921, -34.0739, -14.9721
7.02331, 5, 13.2057, 21.5903, 19.4067, 23.1612, -34.0894, -14.9435
7.03128, 5, 13.1942, 21.6027, 19.3995, 23.1304, -34.1051, -14.9154
7.03921, 5, 13.1829, 21.6151, 19.3923, 23.1003, -34.121, -14.8875
7.04727, 5, 13.1716, 21.6275, 19.3851, 23.0705, -34.1372, -14.8599
7.0552, 5, 13.1602, 21.6401, 19.378, 23.0404, -34.1536, -14.8321
7.06323, 5, 13.1489, 21.6526, 19.3708, 23.0097, -34.1699, -14.804
7.07136, 5, 13.1375, 21.665, 19.3637, 22.9792, -34.186, -14.7756
7.0792, 5, 13.1261, 21.6773, 19.3564, 22.9493, -34.2019, -14.7473
7.08725, 5, 13.1147, 21.6897, 19.3492, 22.9196, -34.2178, -14.7195
7.09527, 5, 13.1033, 21.7022, 19.3422, 22.8896, -34.2335, -14.6919
7.10321, 5, 13.0921, 21.7146, 19.3352, 22.859, -34.2493, -14.6643
7.11538, 5, 13.075, 21.733, 19.3247, 22.8142, -34.2735, -14.6229
7.11928, 5, 13.0694, 21.7391, 19.3212, 22.7994, -34.2816, -14.6088
7.12828, 5, 13.0581, 21.7515, 19.3142, 22.77, -34.2982, -14.5805
7.13525, 5, 13.0468, 21.764, 19.3071, 22.74, -34.3146, -14.5528
7.14324, 5, 13.0353, 21.7765, 19.2999, 22.7096, -34.3307, -14.5253
7.1512, 5, 13.0241, 21.789, 19.2927, 22.6797, -34.3466, -14.498
7.15944, 5, 13.0128, 21.8013, 19.2856, 22.6502, -34.3624, -14.4706
7.1672, 5, 13.0014, 21.8137, 19.2787, 22.6208, -34.3782, -14.4429
7.17524, 5, 12.99, 21.8263, 19.2717, 22.5906, -34.3941, -14.4148
7.18354, 5, 12.9786, 21.8387, 19.2647, 22.5604, -34.4102, -14.3867
7.1913, 5, 12.967, 21.851, 19.2577, 22.5308, -34.4265, -14.359
7.19936, 5, 12.9554, 21.8633, 19.2506, 22.5014, -34.4432, -14.3317
7.20771, 5, 12.944, 21.8756, 19.2435, 22.4721, -34.4597, -14.3045
7.21535, 5, 12.9326, 21.8881, 19.2365, 22.4419, -34.476, -14.2774
7.22321, 5, 12.9212, 21.9006, 19.2295, 22.4118, -34.4923, -14.2501
7.2319, 5, 12.9099, 21.9129, 19.2227, 22.3823, -34.5084, -14.2223
7.24027, 5, 12.8986, 21.9251, 19.2158, 22.353, -34.5244, -14.1947
7.24723, 5, 12.8873, 21.9375, 19.2089, 22.3235, -34.5406, -14.1673
7.25612, 5, 12.876, 21.9499, 19.202, 22.2932, -34.5569, -14.1402
7.26358, 5, 12.8648, 21.9623, 19.1949, 22.2631, -34.5735, -14.1133
7.27142, 5, 12.8536, 21.9745, 19.1877, 22.2336, -34.5903, -14.0863
7.2804, 5, 12.8423, 21.9867, 19.1807, 22.2044, -34.6069, -14.059
7.28756, 5, 12.8311, 21.9991, 19.1738, 22.175, -34.6232, -14.0314
7.29565, 5, 12.8199, 22.0115, 19.1668, 22.1449, -34.6394, -14.004
7.30446, 5, 12.8084, 22.0239, 19.1599, 22.1152, -34.6553, -13.9774
7.31189, 5, 12.797, 22.0362, 19.153, 22.086, -34.6713, -13.9506
7.32035, 5, 12.7857, 22.0484, 19.1461, 22.0569, -34.6874, -13.9241
7.32859, 5, 12.7743, 22.0607, 19.1392, 22.0274, -34.7038, -13.8974
7.3358, 5, 12.7629, 22.0731, 19.1322, 21.9975, -34.7205, -13.8704
7.3444, 5, 12.7516, 22.0854, 19.1253, 21.9681, -34.7374, -13.8431
7.35257, 5, 12.7459, 22.0915, 19.122, 21.9537, -34.7458, -13.8295
7.35919, 5, 12.7345, 22.1036, 19.1153, 21.9248, -34.7624, -13.8028
7.36724, 5, 12.7231, 22.1157, 19.1085, 21.8961, -34.7788, -13.7764
7.37707, 5, 12.7061, 22.1342, 19.0984, 21.8516, -34.8032, -13.737
7.3832, 5, 12.7004, 22.1404, 19.095, 21.8369, -34.8113, -13.7238
7.39236, 5, 12.6834, 22.1588, 19.0847, 21.7934, -34.8357, -13.684
7.39919, 5, 12.6777, 22.1648, 19.0812, 21.779, -34.8439, -13.6704
7.40867, 5, 12.6606, 22.1832, 19.0707, 21.7353, -34.869, -13.6304
7.41519, 5, 12.6549, 22.1894, 19.0672, 21.7204, -34.8775, -13.6171
7.42545, 5, 12.6376, 22.2078, 19.057, 21.6765, -34.9026, -13.5778
7.43121, 5, 12.6319, 22.2138, 19.0535, 21.6621, -34.9108, -13.5647
7.44079, 5, 12.6148, 22.232, 19.0433, 21.6191, -34.9352, -13.5254
7.44967, 5, 12.6033, 22.2441, 19.0365, 21.5899, -34.9514, -13.4989
7.45525, 5, 12.5976, 22.2503, 19.0331, 21.5751, -34.9595, -13.4856
7.46488, 5, 12.5805, 22.2687, 19.0227, 21.5311, -34.984, -13.4456
7.4736, 5, 12.5747, 22.2748, 19.0193, 21.5167, -35.0006, -13.4196
7.47931, 5, 12.5632, 22.2869, 19.0125, 21.488, -35.0091, -13.4066
7.48824, 5, 12.5518, 22.299, 19.0058, 21.4591, -35.0262, -13.3806
7.49621, 5, 12.5403, 22.3113, 18.9992, 21.4296, -35.0431, -13.3547
7.50324, 5, 12.5288, 22.3236, 18.9926, 21.4003, -35.0598, -13.3283
7.5112, 5, 12.5173, 22.3357, 18.9859, 21.3715, -35.0763, -13.3015
7.51919, 5, 12.5057, 22.3478, 18.9792, 21.343, -35.0928, -13.2748
7.5273, 5, 12.4941, 22.3598, 18.9724, 21.3143, -35.1092, -13.2484
7.53519, 5, 12.4824, 22.372, 18.9655, 21.2849, -35.1256, -13.2225
7.54327, 5, 12.4709, 22.3842, 18.9587, 21.2556, -35.1424, -13.1968
7.55119, 5, 12.4594, 22.3964, 18.952, 21.2269, -35.1594, -13.171
7.55919, 5, 12.4479, 22.4085, 18.9453, 21.1985, -35.1765, -13.1451
7.56728, 5, 12.4364, 22.4205, 18.9386, 21.1699, -35.1934, -13.1189
7.57527, 5, 12.425, 22.4326, 18.932, 21.1408, -35.2101, -13.0925
7.58318, 5, 12.4135, 22.4448, 18.9253, 21.1118, -35.2265, -13.0666
7.59127, 5, 12.4021, 22.4568, 18.9186, 21.0835, -35.2428, -13.0408
7.59918, 5, 12.3907, 22.4688, 18.9118, 21.0555, -35.2592, -13.0152
7.6072, 5, 12.3793, 22.4807, 18.905, 21.0272, -35.2759, -12.9897
7.61526, 5, 12.3679, 22.4927, 18.8984, 20.9982, -35.2927, -12.964
7.62319, 5, 12.3565, 22.5049, 18.8919, 20.9694, -35.3099, -12.938
7.63118, 5, 12.3449, 22.517, 18.8854, 20.9411, -35.327, -12.9117
7.63928, 5, 12.3333, 22.5291, 18.8788, 20.9132, -35.344, -12.886
7.64719, 5, 12.3218, 22.5411, 18.8723, 20.8849, -35.3607, -12.8605
7.65535, 5, 12.3104, 22.5532, 18.8656, 20.8561, -35.3773, -12.8353
7.66401, 5, 12.2989, 22.5654, 18.8589, 20.8272, -35.3938, -12.8103
7.67219, 5, 12.2875, 22.5775, 18.8521, 20.7989, -35.4105, -12.785
7.67929, 5, 12.276, 22.5895, 18.8453, 20.7709, -35.4273, -12.7592
7.68809, 5, 12.2646, 22.6014, 18.8388, 20.7427, -35.4443, -12.7331
7.69619, 5, 12.253, 22.6134, 18.8322, 20.7139, -35.4616, -12.7074
7.70337, 5, 12.2415, 22.6255, 18.8256, 20.6851, -35.4788, -12.6821
7.71208, 5, 12.2301, 22.6377, 18.819, 20.6568, -35.4956, -12.6572
7.72019, 5, 12.2187, 22.6496, 18.8125, 20.6288, -35.5123, -12.6323
7.72736, 5, 12.2072, 22.6615, 18.8058, 20.6007, -35.5289, -12.6074
7.73609, 5, 12.1957, 22.6735, 18.7992, 20.5718, -35.5454, -12.5822
7.74419, 5, 12.1842, 22.6856, 18.7926, 20.543, -35.562, -12.5566
7.75128, 5, 12.1726, 22.6977, 18.7862, 20.5147, -35.579, -12.5311
7.76012, 5, 12.161, 22.7097, 18.7798, 20.4869, -35.5962, -12.5059
7.7682, 5, 12.1496, 22.7215, 18.7734, 20.4591, -35.6136, -12.4811
7.77545, 5, 12.138, 22.7334, 18.767, 20.4306, -35.6309, -12.4565
7.78452, 5, 12.1265, 22.7455, 18.7606, 20.402, -35.6478, -12.4318
7.79162, 5, 12.1151, 22.7577, 18.7541, 20.3739, -35.6646, -12.4069
7.79958, 5, 12.1035, 22.7698, 18.7474, 20.3461, -35.6814, -12.3817
7.80764, 5, 12.0919, 22.7817, 18.7407, 20.3182, -35.6981, -12.3562
7.81579, 5, 12.0805, 22.7936, 18.7342, 20.2899, -35.715, -12.3311
7.82434, 5, 12.0691, 22.8057, 18.7277, 20.2613, -35.7322, -12.3065
7.83171, 5, 12.0575, 22.8177, 18.7212, 20.2334, -35.7495, -12.282
7.83982, 5, 12.046, 22.8297, 18.7147, 20.2059, -35.7669, -12.2575
7.84846, 5, 12.0345, 22.8415, 18.7082, 20.1786, -35.7839, -12.2329
7.85517, 5, 12.0286, 22.8474, 18.705, 20.1647, -35.7924, -12.2205
7.86381, 5, 12.0169, 22.8592, 18.6985, 20.1364, -35.8092, -12.1952
7.87228, 5, 11.9995, 22.8773, 18.6886, 20.0943, -35.8342, -12.157
7.87917, 5, 11.9937, 22.8832, 18.6854, 20.0805, -35.8426, -12.1446
7.88723, 5, 11.9821, 22.8952, 18.6789, 20.0531, -35.8596, -12.1199
7.89641, 5, 11.9647, 22.913, 18.6695, 20.0115, -35.8856, -12.0835
7.90319, 5, 11.9589, 22.919, 18.6663, 19.9973, -35.8944, -12.0714
7.91126, 5, 11.9474, 22.931, 18.6601, 19.9692, -35.9119, -12.047
7.92053, 5, 11.9301, 22.949, 18.6506, 19.928, -35.9378, -12.01
7.92722, 5, 11.9244, 22.9549, 18.6474, 19.9144, -35.9463, -11.9974
7.93678, 5, 11.9072, 22.9726, 18.6377, 19.8731, -35.9718, -11.9602
7.94471, 5, 11.8956, 22.9845, 18.6312, 19.8449, -35.9887, -11.9359
7.95272, 5, 11.8841, 22.9965, 18.6247, 19.8169, -36.0059, -11.9117
7.96081, 5, 11.8725, 23.0085, 18.6184, 19.7893, -36.0233, -11.8876
7.96874, 5, 11.8666, 23.0145, 18.6121, 19.7619, -36.0409, -11.8635
7.97672, 5, 11.8549, 23.0263, 18.6089, 19.7482, -36.0498, -11.839
7.98318, 5, 11.8433, 23.0381, 18.6026, 19.7202, -36.0672, -11.8267
7.99218, 5, 11.8317, 23.05, 18.5963, 19.692, -36.0844, -11.802
8.00018, 5, 11.8201, 23.062, 18.59, 19.6643, -36.1014, -11.7775
8.00718, 5, 11.8086, 23.0738, 18.5835, 19.6371, -36.1183, -11.7533
8.01517, 5, 11.7971, 23.0856, 18.5771, 19.61, -36.1352, -11.7296
8.02325, 5, 11.7855, 23.0973, 18.5708, 19.5824, -36.1523, -11.7058
8.03118, 5, 11.774, 23.1091, 18.5646, 19.5544, -36.1697, -11.6822
8.03924, 5, 11.7625, 23.121, 18.5584, 19.5267, -36.1874, -11.6583
8.04717, 5, 11.751, 23.133, 18.5523, 19.4995, -36.205, -11.6339
8.05517, 5, 11.7395, 23.1449, 18.546, 19.4726, -36.2224, -11.6095
8.06324, 5, 11.728, 23.1566, 18.5398, 19.4454, -36.2396, -11.5853
8.07116, 5, 11.7164, 23.1683, 18.5335, 19.4176, -36.2567, -11.5616
8.07928, 5, 11.7048, 23.1802, 18.5271, 19.3901, -36.2737, -11.5382
8.08723, 5, 11.6931, 23.1921, 18.5206, 19.363, -36.2909, -11.5147
8.09527, 5, 11.6816, 23.2038, 18.5143, 19.3363, -36.3082, -11.491
8.10319, 5, 11.67, 23.2155, 18.508, 19.3094, -36.3258, -11.4672
8.11123, 5, 11.6583, 23.2271, 18.5018, 19.2819, -36.3436, -11.4431
8.11918, 5, 11.6468, 23.2389, 18.4955, 19.2543, -36.361, -11.4191
8.12718, 5, 11.6352, 23.2508, 18.4893, 19.2272, -36.3782, -11.3955
8.13524, 5, 11.6235, 23.2626, 18.4831, 19.2004, -36.3953, -11.3721
8.14318, 5, 11.612, 23.2744, 18.4769, 19.1737, -36.4123, -11.3487
8.15121, 5, 11.6005, 23.2861, 18.4706, 19.1465, -36.4294, -11.3252
8.15924, 5, 11.5888, 23.2979, 18.4643, 19.119, -36.4467, -11.3017
8.16717, 5, 11.5772, 23.3097, 18.4581, 19.0918, -36.4644, -11.278
8.17538, 5, 11.5656, 23.3215, 18.4521, 19.065, -36.4823, -11.2541
8.18324, 5, 11.5539, 23.3331, 18.4461, 19.0385, -36.5, -11.2301
8.19126, 5, 11.5421, 23.3448, 18.44, 19.0116, -36.5176, -11.2065
8.19958, 5, 11.5305, 23.3565, 18.434, 18.9841, -36.5349, -11.1834
8.20727, 5, 11.5188, 23.3684, 18.4279, 18.9568, -36.5522, -11.1605
8.21528, 5, 11.5072, 23.3802, 18.4218, 18.9299, -36.5693, -11.1374
8.22381, 5, 11.4956, 23.392, 18.4154, 18.9033, -36.5867, -11.1141
8.23224, 5, 11.4841, 23.4036, 18.4091, 18.8766, -36.6043, -11.0905
8.23917, 5, 11.4725, 23.4153, 18.4029, 18.8492, -36.6222, -11.0664
8.24809, 5, 11.4609, 23.4271, 18.3967, 18.8216, -36.64, -11.0425
8.25624, 5, 11.4495, 23.4388, 18.3906, 18.7947, -36.6576, -11.0191
8.26327, 5, 11.438, 23.4506, 18.3844, 18.7681, -36.6748, -10.996
8.27218, 5, 11.4265, 23.4621, 18.3782, 18.7416, -36.692, -10.9728
8.27956, 5, 11.415, 23.4737, 18.3721, 18.7147, -36.7091, -10.9499
8.28757, 5, 11.4034, 23.4854, 18.366, 18.6874, -36.7264, -10.9267
8.29636, 5, 11.3916, 23.4972, 18.3598, 18.6605, -36.7439, -10.9032
8.30362, 5, 11.38, 23.509, 18.3536, 18.634, -36.7618, -10.8796
8.3117, 5, 11.3684, 23.5207, 18.3475, 18.6077, -36.7799, -10.8563
8.32052, 5, 11.3568, 23.5322, 18.3415, 18.581, -36.7977, -10.8332
8.32792, 5, 11.3452, 23.5439, 18.3357, 18.5538, -36.8154, -10.8104
8.33629, 5, 11.3337, 23.5556, 18.3297, 18.5269, -36.8328, -10.7876
8.34457, 5, 11.3221, 23.5672, 18.3237, 18.5005, -36.8502, -10.7649
8.35181, 5, 11.3163, 23.573, 18.3208, 18.4745, -36.8677, -10.7418
8.3597, 5, 11.3048, 23.5846, 18.3148, 18.4615, -36.8766, -10.7302
8.36896, 5, 11.2876, 23.6018, 18.3057, 18.4218, -36.9034, -10.6952
8.37635, 5, 11.276, 23.6136, 18.2995, 18.3948, -36.9216, -10.672
8.38321, 5, 11.2702, 23.6194, 18.2964, 18.3815, -36.9307, -10.6605
8.39314, 5, 11.2529, 23.637, 18.2874, 18.342, -36.9574, -10.6267
8.39915, 5, 11.2471, 23.6428, 18.2844, 18.329, -36.9662, -10.6155
8.40841, 5, 11.2295, 23.6601, 18.2754, 18.2894, -36.9924, -10.5822
8.41525, 5, 11.2237, 23.6659, 18.2724, 18.276, -37.001, -10.571
8.42322, 5, 11.2121, 23.6776, 18.2665, 18.249, -37.0185, -10.5484
8.43112, 5, 11.2004, 23.6892, 18.2605, 18.2227, -37.0362, -10.5254
8.44151, 5, 11.183, 23.7065, 18.2515, 18.1838, -37.0634, -10.4908
8.44721, 5, 11.1772, 23.7122, 18.2484, 18.1708, -37.0725, -10.4794
8.45673, 5, 11.1597, 23.7296, 18.2394, 18.1311, -37.0994, -10.4459
8.46554, 5, 11.148, 23.7413, 18.2335, 18.1043, -37.1172, -10.4238
8.47122, 5, 11.1423, 23.7471, 18.2306, 18.091, -37.126, -10.4128
8.4808, 5, 11.1307, 23.7587, 18.2248, 18.0517, -37.1523, -10.3795
8.48816, 5, 11.1191, 23.7702, 18.2189, 18.0387, -37.1611, -10.3683
8.49522, 5, 11.1076, 23.7816, 18.213, 18.0126, -37.1789, -10.3456
8.50317, 5, 11.0959, 23.7932, 18.2072, 17.9859, -37.197, -10.3228
8.51116, 5, 11.0843, 23.8049, 18.2013, 17.9591, -37.2153, -10.3003
8.51922, 5, 11.0725, 23.8164, 18.1953, 17.9329, -37.2333, -10.278
8.52716, 5, 11.0609, 23.8279, 18.1892, 17.907, -37.251, -10.2561
8.53516, 5, 11.0492, 23.8393, 18.1832, 17.8813, -37.2684, -10.2343
8.54317, 5, 11.0375, 23.8508, 18.1773, 17.855, -37.2858, -10.2124
8.55115, 5, 11.0259, 23.8624, 18.1714, 17.8283, -37.3032, -10.1903
8.55922, 5, 11.0144, 23.874, 18.1655, 17.8018, -37.321, -10.1681
8.56715, 5, 11.0026, 23.8856, 18.1596, 17.7758, -37.3391, -10.1456
8.57515, 5, 10.991, 23.897, 18.1538, 17.7502, -37.3573, -10.1232
8.58335, 5, 10.9795, 23.9084, 18.148, 17.7244, -37.3755, -10.101
8.59115, 5, 10.9679, 23.92, 18.1422, 17.6981, -37.3935, -10.0791
8.59915, 5, 10.9563, 23.9315, 18.1362, 17.6717, -37.4113, -10.0574
8.60723, 5, 10.9448, 23.9429, 18.1303, 17.6459, -37.429, -10.0358
8.61515, 5, 10.9331, 23.9543, 18.1245, 17.6204, -37.4466, -10.0141
8.62317, 5, 10.9214, 23.9656, 18.1188, 17.595, -37.4645, -9.99214
8.63122, 5, 10.9098, 23.9771, 18.1132, 17.5693, -37.4825, -9.96979
8.63915, 5, 10.8982, 23.9887, 18.1075, 17.543, -37.5009, -9.94734
8.64715, 5, 10.8866, 24.0002, 18.1019, 17.517, -37.519, -9.9251
8.65524, 5, 10.875, 24.0117, 18.0962, 17.4914, -37.5369, -9.90324
8.66319, 5, 10.8635, 24.023, 18.0904, 17.4661, -37.5547, -9.88167
8.67122, 5, 10.8519, 24.0344, 18.0846, 17.4407, -37.5723, -9.86029
8.67999, 5, 10.8402, 24.046, 18.0786, 17.4147, -37.5899, -9.83899
8.68824, 5, 10.8286, 24.0575, 18.0727, 17.3885, -37.6077, -9.81744
8.6953, 5, 10.817, 24.0689, 18.0669, 17.3627, -37.6259, -9.79557
8.70412, 5, 10.8053, 24.0802, 18.0612, 17.3372, -37.6444, -9.77362
8.71126, 5, 10.7936, 24.0915, 18.0554, 17.3119, -37.6628, -9.75172
8.71933, 5, 10.7819, 24.1029, 18.0497, 17.2863, -37.681, -9.73003
8.72806, 5, 10.77, 24.1144, 18.0439, 17.2602, -37.6989, -9.70873
8.73616, 5, 10.7582, 24.1259, 18.0382, 17.2342, -37.7168, -9.6876
8.74341, 5, 10.7464, 24.1372, 18.0324, 17.2085, -37.7346, -9.66652
8.75218, 5, 10.7347, 24.1484, 18.0266, 17.1832, -37.7527, -9.64527
8.75922, 5, 10.7229, 24.1598, 18.0208, 17.1579, -37.771, -9.62381
8.76732, 5, 10.7112, 24.1713, 18.0151, 17.1321, -37.7896, -9.602
8.77622, 5, 10.6996, 24.1827, 18.0095, 17.1059, -37.8081, -9.58004
8.78354, 5, 10.6878, 24.194, 18.004, 17.08, -37.8263, -9.55843
8.7915, 5, 10.6761, 24.2053, 17.9984, 17.0546, -37.8443, -9.53716
8.80031, 5, 10.6646, 24.2165, 17.9929, 17.0296, -37.8621, -9.51617
8.80767, 5, 10.6529, 24.228, 17.9873, 17.0044, -37.8799, -9.49541
8.8163, 5, 10.6412, 24.2395, 17.9817, 16.9786, -37.8979, -9.47483
8.82365, 5, 10.6296, 24.2508, 17.9761, 16.9528, -37.9162, -9.45401
8.83176, 5, 10.6178, 24.2622, 17.9703, 16.9273, -37.9349, -9.43292
8.84032, 5, 10.6059, 24.2734, 17.9645, 16.9022, -37.9534, -9.41149
8.8477, 5, 10.6, 24.279, 17.9588, 16.8771, -37.9718, -9.38997
8.85581, 5, 10.5882, 24.2904, 17.9532, 16.8517, -37.9899, -9.36869
8.8644, 5, 10.5704, 24.3074, 17.9477, 16.8259, -38.0079, -9.3477
8.87114, 5, 10.5645, 24.313, 17.9449, 16.813, -38.0169, -9.33734
8.8792, 5, 10.5528, 24.3242, 17.9393, 16.7877, -38.035, -9.31667
8.88828, 5, 10.5351, 24.3409, 17.931, 16.7504, -38.0625, -9.286
8.89513, 5, 10.5292, 24.3466, 17.9282, 16.7381, -38.0718, -9.27572
8.90319, 5, 10.5176, 24.358, 17.9226, 16.7132, -38.0905, -9.25493
8.91247, 5, 10.5002, 24.375, 17.9141, 16.6749, -38.118, -9.22327
8.91925, 5, 10.4944, 24.3807, 17.9112, 16.6623, -38.127, -9.21264
8.92863, 5, 10.4769, 24.3975, 17.9029, 16.6247, -38.1538, -9.18139
8.93515, 5, 10.4711, 24.4031, 17.9001, 16.6123, -38.1627, -9.17104
8.94463, 5, 10.4535, 24.4203, 17.892, 16.5751, -38.1898, -9.14051
8.95113, 5, 10.4477, 24.4259, 17.8893, 16.5625, -38.199, -9.13037
8.9607, 5, 10.4302, 24.4429, 17.8812, 16.5243, -38.227, -9.10002
8.96869, 5, 10.4186, 24.454, 17.8757, 16.4993, -38.2457, -9.07958
8.97516, 5, 10.4128, 24.4596, 17.873, 16.4869, -38.2549, -9.06921
8.98466, 5, 10.4012, 24.4709, 17.8675, 16.4624, -38.2732, -9.04836
8.99214, 5, 10.3896, 24.4822, 17.8618, 16.4377, -38.2913, -9.0273
9.00021, 5, 10.3778, 24.4935, 17.8561, 16.4125, -38.3094, -9.00651
9.00814, 5, 10.366, 24.5048, 17.8505, 16.3871, -38.3275, -8.98598
9.01613, 5, 10.3544, 24.5159, 17.845, 16.3619, -38.3459, -8.96569
9.02314, 5, 10.3427, 24.5271, 17.8395, 16.3369, -38.3646, -8.94553
9.03114, 5, 10.331, 24.5384, 17.834, 16.3124, -38.3833, -8.9255
9.0393, 5, 10.3192, 24.5496, 17.8285, 16.2875, -38.4017, -8.90541
9.04714, 5, 10.3075, 24.5608, 17.8231, 16.2622, -38.4198, -8.88495
9.0552, 5, 10.2956, 24.572, 17.8177, 16.2368, -38.4378, -8.8642
9.06314, 5, 10.2838, 24.583, 17.8122, 16.2119, -38.4558, -8.8432
9.07115, 5, 10.2722, 24.5942, 17.8067, 16.1873, -38.4739, -8.82245
9.0792, 5, 10.2604, 24.6055, 17.8012, 16.1629, -38.4923, -8.80193
9.08722, 5, 10.2487, 24.6168, 17.7958, 16.1382, -38.5111, -8.78186
9.0952, 5, 10.237, 24.628, 17.7905, 16.1131, -38.5299, -8.76188
9.1032, 5, 10.2253, 24.6391, 17.7852, 16.0879, -38.5485, -8.74209
9.11114, 5, 10.2135, 24.6501, 17.78, 16.0632, -38.5669, -8.72231
9.11914, 5, 10.2019, 24.6614, 17.7747, 16.0387, -38.5851, -8.70222
9.12719, 5, 10.1903, 24.6726, 17.7694, 16.0145, -38.6032, -8.68183
9.13513, 5, 10.1786, 24.6837, 17.7642, 15.9899, -38.6216, -8.6613
9.14315, 5, 10.1669, 24.6948, 17.7588, 15.9649, -38.6401, -8.64094
9.15121, 5, 10.1551, 24.7057, 17.7534, 15.94, -38.6591, -8.62088
9.15913, 5, 10.1433, 24.7168, 17.7479, 15.9157, -38.6779, -8.60116
9.16743, 5, 10.1313, 24.7281, 17.7424, 15.8915, -38.6964, -8.58157
9.17515, 5, 10.1195, 24.7392, 17.7369, 15.8675, -38.7147, -8.56204
9.18316, 5, 10.1077, 24.7504, 17.7316, 15.8431, -38.7328, -8.54245
9.19145, 5, 10.0958, 24.7615, 17.7262, 15.8182, -38.751, -8.52263
9.19922, 5, 10.0841, 24.7725, 17.7209, 15.7935, -38.7693, -8.50276
9.20729, 5, 10.0724, 24.7837, 17.7156, 15.7691, -38.7879, -8.48246
9.21563, 5, 10.0606, 24.7949, 17.7102, 15.7451, -38.8068, -8.46211
9.22324, 5, 10.0489, 24.806, 17.7049, 15.7211, -38.8257, -8.44224
9.23119, 5, 10.0372, 24.817, 17.6996, 15.6966, -38.8443, -8.42259
9.23983, 5, 10.0255, 24.828, 17.6942, 15.6718, -38.8627, -8.40319
9.24821, 5, 10.0138, 24.839, 17.6888, 15.6472, -38.881, -8.38385
9.25525, 5, 10.0021, 24.8502, 17.6835, 15.623, -38.8993, -8.36473
9.26403, 5, 9.99027, 24.8613, 17.6783, 15.5991, -38.9178, -8.34547
9.27221, 5, 9.97835, 24.8724, 17.6731, 15.5751, -38.9365, -8.32589
9.27934, 5, 9.96654, 24.8834, 17.668, 15.5506, -38.9555, -8.30609
9.2883, 5, 9.9548, 24.8944, 17.6629, 15.5258, -38.9743, -8.28612
9.29587, 5, 9.94302, 24.9055, 17.6578, 15.5013, -38.9929, -8.26643
9.30415, 5, 9.9313, 24.9167, 17.6526, 15.4771, -39.0112, -8.24687
9.3124, 5, 9.91957, 24.9277, 17.6474, 15.4532, -39.0294, -8.2276
9.31966, 5, 9.90778, 24.9388, 17.6422, 15.4292, -39.0476, -8.20856
9.32829, 5, 9.89602, 24.9496, 17.6368, 15.4047, -39.0661, -8.18964
9.33653, 5, 9.88435, 24.9606, 17.6315, 15.3798, -39.085, -8.17069
9.34386, 5, 9.87263, 24.9718, 17.6262, 15.3553, -39.104, -8.15162
9.35225, 5, 9.86088, 24.9829, 17.621, 15.3312, -39.1229, -8.13216
9.36061, 5, 9.85501, 24.9884, 17.6185, 15.3193, -39.1323, -8.1223
9.36712, 5, 9.84328, 24.9995, 17.6133, 15.2955, -39.1509, -8.10264
9.37616, 5, 9.82554, 25.0158, 17.6056, 15.2592, -39.1785, -8.07357
9.38314, 5, 9.81962, 25.0213, 17.6031, 15.2469, -39.1877, -8.06403
9.39112, 5, 9.80783, 25.0324, 17.5979, 15.2225, -39.2063, -8.04509
9.39917, 5, 9.79611, 25.0434, 17.5928, 15.1985, -39.2251, -8.02633
9.40925, 5, 9.77844, 25.0598, 17.585, 15.1629, -39.2537, -7.99842
9.41516, 5, 9.77259, 25.0652, 17.5823, 15.151, -39.2631, -7.9891
9.42454, 5, 9.75499, 25.0814, 17.5745, 15.1149, -39.291, -7.96076
9.43112, 5, 9.74908, 25.0869, 17.5719, 15.1026, -39.3002, -7.9512
9.43918, 5, 9.73728, 25.098, 17.5669, 15.0783, -39.3185, -7.93187
9.44871, 5, 9.71973, 25.1145, 17.5594, 15.0428, -39.3461, -7.90268
9.45751, 5, 9.70789, 25.1255, 17.5544, 15.0194, -39.3648, -7.88361
9.4632, 5, 9.70199, 25.1309, 17.5518, 15.0077, -39.3743, -7.87417
9.4727, 5, 9.68427, 25.1473, 17.5444, 14.9721, -39.4032, -7.84606
9.48152, 5, 9.67831, 25.1528, 17.5419, 14.9599, -39.4221, -7.82755
9.48718, 5, 9.66631, 25.1638, 17.5368, 14.9358, -39.4315, -7.8183
9.49617, 5, 9.65444, 25.1747, 17.5316, 14.9119, -39.4501, -7.79987
9.50414, 5, 9.64262, 25.1857, 17.5264, 14.8884, -39.4686, -7.78124
9.51118, 5, 9.63072, 25.1964, 17.5212, 14.865, -39.4872, -7.76225
9.51913, 5, 9.61886, 25.2073, 17.516, 14.8412, -39.506, -7.74303
9.52712, 5, 9.6071, 25.2183, 17.5109, 14.817, -39.5251, -7.72374
9.53512, 5, 9.5953, 25.2293, 17.5059, 14.7928, -39.5444, -7.70469
9.54322, 5, 9.58349, 25.2402, 17.5008, 14.7691, -39.5633, -7.68592
9.55119, 5, 9.57183, 25.251, 17.4958, 14.7457, -39.582, -7.66738
9.55913, 5, 9.56011, 25.2618, 17.4908, 14.7225, -39.6005, -7.64902
9.56711, 5, 9.54834, 25.2726, 17.4858, 14.699, -39.6189, -7.63082
9.57612, 5, 9.53661, 25.2836, 17.4808, 14.6749, -39.6375, -7.61266
9.58311, 5, 9.52478, 25.2945, 17.4758, 14.6508, -39.6563, -7.59437
9.59121, 5, 9.51283, 25.3053, 17.4707, 14.627, -39.6755, -7.57579
9.5992, 5, 9.50092, 25.3161, 17.4657, 14.6035, -39.6947, -7.55685
9.60711, 5, 9.48912, 25.3269, 17.4608, 14.5802, -39.7138, -7.53802
9.61511, 5, 9.47727, 25.3377, 17.4559, 14.5567, -39.7326, -7.51942
9.62413, 5, 9.46547, 25.3487, 17.4511, 14.5327, -39.7513, -7.50122
9.63111, 5, 9.45372, 25.3595, 17.4463, 14.5086, -39.7699, -7.48309
9.63912, 5, 9.44187, 25.3704, 17.4415, 14.4849, -39.7886, -7.46514
9.64719, 5, 9.42994, 25.3811, 17.4367, 14.4615, -39.8076, -7.44722
9.65512, 5, 9.41813, 25.3918, 17.4318, 14.4384, -39.827, -7.42941
9.66312, 5, 9.40635, 25.4027, 17.427, 14.4152, -39.8463, -7.41127
9.67128, 5, 9.39443, 25.4135, 17.422, 14.3913, -39.8652, -7.39298
9.67915, 5, 9.38257, 25.4242, 17.417, 14.3674, -39.8838, -7.37456
9.68722, 5, 9.37071, 25.435, 17.4119, 14.3437, -39.9024, -7.35593
9.69611, 5, 9.35874, 25.4456, 17.4069, 14.3203, -39.9209, -7.33753
9.70412, 5, 9.34676, 25.4563, 17.4019, 14.2972, -39.9398, -7.31937
9.71128, 5, 9.33494, 25.4671, 17.397, 14.2741, -39.9589, -7.30166
9.72003, 5, 9.32306, 25.4779, 17.3921, 14.2506, -39.9784, -7.2839
9.72812, 5, 9.31115, 25.4887, 17.3872, 14.2269, -39.9977, -7.26623
9.7354, 5, 9.29933, 25.4995, 17.3824, 14.2034, -40.0167, -7.2487
9.74399, 5, 9.28751, 25.5102, 17.3775, 14.1804, -40.0355, -7.23118
9.75212, 5, 9.27555, 25.5209, 17.3726, 14.1576, -40.0543, -7.21337
9.75931, 5, 9.26372, 25.5318, 17.3677, 14.1348, -40.0731, -7.19531
9.76807, 5, 9.25195, 25.5425, 17.3628, 14.1116, -40.0921, -7.17707
9.7753, 5, 9.24007, 25.5532, 17.3579, 14.088, -40.1114, -7.15897
9.78339, 5, 9.22817, 25.5639, 17.353, 14.0646, -40.1308, -7.14104
9.79226, 5, 9.21627, 25.5745, 17.3482, 14.0416, -40.1498, -7.12331
9.79959, 5, 9.20425, 25.5852, 17.3435, 14.0187, -40.1686, -7.10586
9.80748, 5, 9.19215, 25.596, 17.3388, 13.996, -40.1873, -7.08845
9.81553, 5, 9.1802, 25.6067, 17.3342, 13.9729, -40.2058, -7.07108
9.82372, 5, 9.16828, 25.6174, 17.3295, 13.9494, -40.2246, -7.05373
9.83228, 5, 9.15631, 25.628, 17.3249, 13.926, -40.2437, -7.03616
9.83968, 5, 9.14449, 25.6385, 17.3202, 13.9029, -40.2631, -7.01842
9.84775, 5, 9.1327, 25.6493, 17.3154, 13.88, -40.2825, -7.00034
9.85631, 5, 9.12081, 25.66, 17.3106, 13.8573, -40.3016, -6.98242
9.86366, 5, 9.11489, 25.6653, 17.3082, 13.8459, -40.3111, -6.96455
9.87214, 5, 9.0973, 25.6813, 17.3009, 13.8109, -40.3394, -6.94724
9.8791, 5, 9.09142, 25.6866, 17.2985, 13.7991, -40.3488, -6.93863
9.88913, 5, 9.07373, 25.7024, 17.2913, 13.7642, -40.3772, -6.91273
9.89516, 5, 9.06785, 25.7077, 17.289, 13.7528, -40.3868, -6.90415
9.90433, 5, 9.05005, 25.7238, 17.2819, 13.7188, -40.4161, -6.87854
9.91111, 5, 9.04405, 25.7291, 17.2796, 13.7074, -40.4258, -6.86998
9.91911, 5, 9.03208, 25.7398, 17.2749, 13.6843, -40.445, -6.85268
9.92721, 5, 9.02026, 25.7503, 17.2703, 13.6607, -40.4639, -6.83522
9.93652, 5, 9.00242, 25.7661, 17.2633, 13.6257, -40.492, -6.8087
9.9432, 5, 8.99648, 25.7714, 17.261, 13.6143, -40.5014, -6.79979
9.95264, 5, 8.97875, 25.7873, 17.2539, 13.5804, -40.5299, -6.77342
9.96066, 5, 8.96682, 25.7978, 17.2491, 13.5579, -40.5493, -6.75623
9.96712, 5, 8.96084, 25.8031, 17.2467, 13.5465, -40.5591, -6.74777
9.97667, 5, 8.94897, 25.8135, 17.2397, 13.5117, -40.5881, -6.72232
9.98466, 5, 8.93717, 25.824, 17.2374, 13.5001, -40.6071, -6.70537
9.99111, 5, 8.92532, 25.8346, 17.2329, 13.4772, -40.6166, -6.69693
10.0001, 5, 8.91344, 25.8452, 17.2283, 13.4546, -40.6354, -6.67994
10.0081, 5, 8.90155, 25.8558, 17.2238, 13.4321, -40.6544, -6.66284
10.0151, 5, 8.88951, 25.8664, 17.2194, 13.4096, -40.6735, -6.64545
10.0231, 5, 8.87745, 25.8768, 17.2149, 13.3865, -40.693, -6.6278
10.0322, 5, 8.86556, 25.8872, 17.2104, 13.3633, -40.7127, -6.61025
10.0401, 5, 8.85358, 25.8979, 17.2058, 13.3404, -40.7319, -6.59288
10.0481, 5, 8.84155, 25.9084, 17.2011, 13.3181, -40.751, -6.57578
10.0562, 5, 8.82964, 25.9189, 17.1965, 13.2959, -40.7699, -6.55881
10.0641, 5, 8.81771, 25.9294, 17.1918, 13.2738, -40.7886, -6.54208
10.0721, 5, 8.80568, 25.9398, 17.1871, 13.2512, -40.8075, -6.52532
10.0802, 5, 8.79369, 25.9503, 17.1825, 13.2283, -40.8269, -6.50867
10.0881, 5, 8.78182, 25.9609, 17.1779, 13.2054, -40.8465, -6.49202
10.0961, 5, 8.76987, 25.9714, 17.1733, 13.1829, -40.8661, -6.47519
10.1031, 5, 8.75791, 25.9819, 17.1688, 13.1606, -40.8854, -6.45827
10.1111, 5, 8.74597, 25.9924, 17.1643, 13.1384, -40.9045, -6.44093
10.1201, 5, 8.73385, 26.0027, 17.1598, 13.1159, -40.9235, -6.42385
10.1282, 5, 8.72171, 26.0131, 17.1553, 13.0931, -40.9424, -6.40697
10.1361, 5, 8.7097, 26.0237, 17.1508, 13.0702, -40.9616, -6.39049
10.1441, 5, 8.69768, 26.0341, 17.1463, 13.0477, -40.981, -6.37411
10.1522, 5, 8.68567, 26.0446, 17.1418, 13.0255, -41.0007, -6.35771
10.1592, 5, 8.6737, 26.055, 17.1372, 13.0035, -41.02, -6.34135
10.1671, 5, 8.66179, 26.0652, 17.1327, 12.9813, -41.039, -6.32494
10.1751, 5, 8.64977, 26.0757, 17.1283, 12.9587, -41.058, -6.30857
10.1841, 5, 8.63788, 26.0862, 17.1239, 12.9357, -41.0769, -6.29196
10.1922, 5, 8.62606, 26.0966, 17.1196, 12.913, -41.0959, -6.27501
10.1992, 5, 8.61418, 26.107, 17.1154, 12.8906, -41.1152, -6.25809
10.2075, 5, 8.60228, 26.1174, 17.1111, 12.8684, -41.1349, -6.24118
10.2152, 5, 8.5904, 26.1277, 17.1068, 12.8463, -41.1547, -6.22438
10.2232, 5, 8.57839, 26.138, 17.1025, 12.8237, -41.1741, -6.208
10.2317, 5, 8.5663, 26.1485, 17.0981, 12.801, -41.1933, -6.1918
10.2391, 5, 8.55435, 26.1588, 17.0937, 12.7781, -41.2124, -6.17585
10.2471, 5, 8.54244, 26.1692, 17.0893, 12.7558, -41.2315, -6.15988
10.2559, 5, 8.5305, 26.1795, 17.0848, 12.7337, -41.2507, -6.14392
10.2642, 5, 8.51864, 26.1898, 17.0803, 12.7119, -41.2703, -6.12795
10.2711, 5, 8.50675, 26.2002, 17.0758, 12.6898, -41.2901, -6.11196
10.2801, 5, 8.49476, 26.2107, 17.0713, 12.6673, -41.3096, -6.09571
10.2882, 5, 8.48282, 26.2211, 17.0668, 12.6446, -41.3288, -6.07912
10.2954, 5, 8.471, 26.2316, 17.0624, 12.6222, -41.3478, -6.06254
10.3043, 5, 8.45913, 26.242, 17.0581, 12.6001, -41.3668, -6.04617
10.3119, 5, 8.44722, 26.2522, 17.0538, 12.5782, -41.3858, -6.02991
10.3202, 5, 8.43532, 26.2626, 17.0495, 12.5565, -41.4052, -6.01393
10.3285, 5, 8.42335, 26.2731, 17.0451, 12.5343, -41.425, -5.99802
10.3357, 5, 8.41128, 26.2833, 17.0407, 12.5119, -41.4448, -5.98225
10.3442, 5, 8.39928, 26.2936, 17.0364, 12.4895, -41.4642, -5.96663
10.3525, 5, 8.38736, 26.3038, 17.0321, 12.4675, -41.4835, -5.95092
10.3599, 5, 8.38134, 26.3089, 17.0299, 12.4458, -41.5027, -5.93517
10.3683, 5, 8.3633, 26.3242, 17.0233, 12.4243, -41.5219, -5.91927
10.3751, 5, 8.35734, 26.3295, 17.0211, 12.4135, -41.5315, -5.91124
10.3831, 5, 8.34542, 26.3398, 17.0168, 12.3916, -41.551, -5.895
10.3921, 5, 8.32735, 26.3553, 17.0104, 12.358, -41.5807, -5.87035
10.3991, 5, 8.3214, 26.3604, 17.0084, 12.3469, -41.5905, -5.86229
10.4071, 5, 8.30955, 26.3706, 17.0043, 12.325, -41.6099, -5.84623
10.4151, 5, 8.2976, 26.3808, 17.0002, 12.3033, -41.629, -5.83057
10.4253, 5, 8.27974, 26.3964, 16.994, 12.2709, -41.6575, -5.80743
10.4312, 5, 8.27378, 26.4015, 16.9919, 12.26, -41.6671, -5.79964
10.4406, 5, 8.25564, 26.4169, 16.9857, 12.2267, -41.6962, -5.7766
10.4495, 5, 8.24367, 26.4271, 16.9815, 12.2044, -41.7161, -5.76123
10.4552, 5, 8.23772, 26.4321, 16.9794, 12.1934, -41.726, -5.75347
10.4647, 5, 8.21978, 26.4475, 16.9731, 12.1609, -41.7555, -5.72998
10.4735, 5, 8.20789, 26.4579, 16.9688, 12.1395, -41.7749, -5.7141
10.4792, 5, 8.20195, 26.4631, 16.9666, 12.1287, -41.7845, -5.7061
10.4887, 5, 8.19001, 26.4734, 16.9602, 12.0959, -41.8133, -5.682
10.4961, 5, 8.17798, 26.4836, 16.9581, 12.0848, -41.823, -5.67396
10.5032, 5, 8.16604, 26.4937, 16.9539, 12.0626, -41.8425, -5.65821
10.5121, 5, 8.15411, 26.5038, 16.9499, 12.0406, -41.8624, -5.64265
10.5201, 5, 8.14212, 26.5141, 16.9458, 12.019, -41.8822, -5.62733
10.5272, 5, 8.13017, 26.5243, 16.9416, 11.9975, -41.9017, -5.6122
10.5351, 5, 8.11816, 26.5343, 16.9375, 11.9759, -41.9209, -5.59691
10.5432, 5, 8.10611, 26.5444, 16.9333, 11.9539, -41.9401, -5.58179
10.5511, 5, 8.09395, 26.5543, 16.9292, 11.9316, -41.9593, -5.56657
10.5591, 5, 8.08189, 26.5643, 16.9251, 11.9094, -41.9787, -5.55123
10.5681, 5, 8.06992, 26.5745, 16.921, 11.8877, -41.9985, -5.53568
10.5751, 5, 8.0579, 26.5848, 16.9168, 11.8662, -42.0186, -5.51988
10.5831, 5, 8.046, 26.5949, 16.9126, 11.8449, -42.0383, -5.50401
10.5921, 5, 8.03411, 26.6051, 16.9084, 11.8234, -42.0579, -5.48843
10.5991, 5, 8.02218, 26.6152, 16.9043, 11.8015, -42.0773, -5.47295
10.6071, 5, 8.01028, 26.6252, 16.9003, 11.7794, -42.0966, -5.45775
10.6161, 5, 7.99848, 26.6355, 16.8964, 11.7577, -42.1159, -5.44266
10.6251, 5, 7.98657, 26.6458, 16.8925, 11.7362, -42.1357, -5.42748
10.6321, 5, 7.97459, 26.6558, 16.8886, 11.7149, -42.1557, -5.4126
10.6392, 5, 7.96262, 26.6659, 16.8847, 11.6937, -42.1755, -5.39767
10.6471, 5, 7.95061, 26.6759, 16.8807, 11.6721, -42.1951, -5.38272
10.6551, 5, 7.93845, 26.6859, 16.8767, 11.6501, -42.2144, -5.36774
10.6641, 5, 7.92645, 26.6959, 16.8727, 11.6282, -42.2336, -5.35256
10.6721, 5, 7.91444, 26.7061, 16.8687, 11.6068, -42.2528, -5.3373
10.6792, 5, 7.90232, 26.7162, 16.8646, 11.5857, -42.2723, -5.32184
10.6879, 5, 7.89034, 26.7262, 16.8605, 11.5647, -42.2922, -5.30653
10.6961, 5, 7.87838, 26.7362, 16.8563, 11.5437, -42.3122, -5.29149
10.7032, 5, 7.86628, 26.7461, 16.8521, 11.5222, -42.332, -5.27669
10.7121, 5, 7.85429, 26.7561, 16.848, 11.5004, -42.3515, -5.26214
10.7201, 5, 7.8424, 26.7663, 16.844, 11.4788, -42.371, -5.24759
10.7273, 5, 7.83038, 26.7762, 16.8401, 11.4575, -42.3903, -5.23304
10.736, 5, 7.81843, 26.7862, 16.8362, 11.4363, -42.4098, -5.21854
10.7441, 5, 7.80646, 26.7961, 16.8323, 11.4154, -42.4297, -5.204
10.7514, 5, 7.79433, 26.8058, 16.8284, 11.3942, -42.4498, -5.18928
10.76, 5, 7.78211, 26.8157, 16.8245, 11.3724, -42.4696, -5.17441
10.7681, 5, 7.77002, 26.8258, 16.8205, 11.3506, -42.4892, -5.15932
10.7752, 5, 7.75793, 26.8358, 16.8166, 11.3291, -42.5085, -5.14411
10.7841, 5, 7.74577, 26.8457, 16.8127, 11.3079, -42.5277, -5.12903
10.7921, 5, 7.73366, 26.8557, 16.8089, 11.287, -42.547, -5.11387
10.8001, 5, 7.72158, 26.8655, 16.8049, 11.2661, -42.5666, -5.09912
10.8083, 5, 7.70943, 26.8753, 16.8009, 11.245, -42.5867, -5.08474
10.8157, 5, 7.69739, 26.8854, 16.7969, 11.2234, -42.6067, -5.07048
10.8242, 5, 7.6854, 26.8954, 16.7931, 11.2017, -42.6264, -5.05639
10.8316, 5, 7.67338, 26.9052, 16.7893, 11.1803, -42.6459, -5.04219
10.8397, 5, 7.66138, 26.9151, 16.7857, 11.1591, -42.6653, -5.02799
10.8483, 5, 7.64941, 26.9249, 16.782, 11.1381, -42.6847, -5.01384
10.8556, 5, 7.64339, 26.9346, 16.7783, 11.1172, -42.7042, -4.99942
10.8637, 5, 7.63127, 26.9445, 16.7746, 11.0958, -42.7241, -4.98512
10.8724, 5, 7.61331, 26.9546, 16.7709, 11.0742, -42.7441, -4.97056
10.8791, 5, 7.60736, 26.9595, 16.769, 11.0633, -42.7541, -4.96314
10.8871, 5, 7.59542, 26.9694, 16.7652, 11.0419, -42.7737, -4.94847
10.8962, 5, 7.57753, 26.9842, 16.7596, 11.0103, -42.8027, -4.92659
10.9031, 5, 7.57156, 26.9891, 16.7577, 10.9999, -42.8123, -4.91945
10.9111, 5, 7.55952, 26.9988, 16.7539, 10.9792, -42.8316, -4.90525
10.9204, 5, 7.54142, 27.0139, 16.748, 10.9476, -42.861, -4.88434
10.9271, 5, 7.53543, 27.0188, 16.746, 10.9368, -42.871, -4.87731
10.9351, 5, 7.52337, 27.0286, 16.7421, 10.9153, -42.8912, -4.86339
10.9445, 5, 7.5052, 27.0433, 16.7363, 10.8834, -42.921, -4.84262
10.9526, 5, 7.49311, 27.0529, 16.7325, 10.8626, -42.9407, -4.82862
10.9591, 5, 7.48704, 27.0578, 16.7306, 10.8523, -42.9504, -4.82161
10.9686, 5, 7.46866, 27.0726, 16.725, 10.8212, -42.9797, -4.80035
10.9766, 5, 7.45655, 27.0825, 16.7213, 10.8001, -42.9994, -4.78606
10.9847, 5, 7.45052, 27.0923, 16.7175, 10.7787, -43.0195, -4.77163
10.9926, 5, 7.4384, 27.0972, 16.7156, 10.7681, -43.0296, -4.76438
11.0001, 5, 7.42635, 27.1069, 16.7119, 10.7472, -43.0496, -4.74995
11.0071, 5, 7.41438, 27.1166, 16.7081, 10.7266, -43.0693, -4.73573
11.0161, 5, 7.40237, 27.1264, 16.7044, 10.7062, -43.0888, -4.7217
11.0241, 5, 7.39029, 27.1364, 16.7007, 10.6858, -43.1082, -4.70795
11.0311, 5, 7.37831, 27.1462, 16.6969, 10.665, -43.1276, -4.69443
11.0391, 5, 7.36634, 27.1559, 16.6932, 10.6438, -43.1473, -4.68093
11.0471, 5, 7.35429, 27.1657, 16.6894, 10.6227, -43.1674, -4.66734
11.0551, 5, 7.34224, 27.1753, 16.6856, 10.6018, -43.1876, -4.65383
11.0641, 5, 7.33014, 27.185, 16.682, 10.5812, -43.2075, -4.64028
11.0721, 5, 7.31791, 27.1949, 16.6784, 10.5609, -43.2272, -4.62649
11.0817, 5, 7.2996, 27.2096, 16.6732, 10.5301, -43.2565, -4.60554
11.0881, 5, 7.29354, 27.2145, 16.6715, 10.5197, -43.2662, -4.5984
11.0961, 5, 7.28139, 27.2242, 16.668, 10.4986, -43.2859, -4.58406
11.1041, 5, 7.26924, 27.2338, 16.6646, 10.4774, -43.3059, -4.56996
11.1121, 5, 7.25723, 27.2433, 16.661, 10.4566, -43.3262, -4.55584
11.1201, 5, 7.24519, 27.2531, 16.6575, 10.436, -43.3462, -4.54192
11.1281, 5, 7.23314, 27.2629, 16.654, 10.4156, -43.3659, -4.52848
11.1361, 5, 7.22117, 27.2724, 16.6505, 10.3952, -43.3853, -4.51503
11.1441, 5, 7.2092, 27.2821, 16.6469, 10.3744, -43.4047, -4.50165
11.1521, 5, 7.19722, 27.2917, 16.6433, 10.3532, -43.4242, -4.4885
11.1591, 5, 7.18528, 27.3012, 16.6397, 10.3322, -43.4441, -4.47493
11.1671, 5, 7.17329, 27.3108, 16.636, 10.3113, -43.4644, -4.4615
11.1752, 5, 7.16112, 27.3206, 16.6323, 10.2909, -43.4846, -4.44807
11.1831, 5, 7.149, 27.3304, 16.6286, 10.2705, -43.5045, -4.43438
11.1911, 5, 7.137, 27.3401, 16.625, 10.2501, -43.5242, -4.42073
11.2001, 5, 7.12497, 27.3498, 16.6215, 10.2293, -43.5438, -4.40691
11.2072, 5, 7.11294, 27.3593, 16.618, 10.2081, -43.5634, -4.39285
11.2152, 5, 7.10098, 27.3689, 16.6145, 10.187, -43.5832, -4.37917
11.2235, 5, 7.08893, 27.3787, 16.6111, 10.1663, -43.6033, -4.36557
11.2312, 5, 7.07677, 27.3884, 16.6076, 10.1459, -43.6235, -4.35218
11.2392, 5, 7.06478, 27.3979, 16.6041, 10.1258, -43.6434, -4.33908
11.2478, 5, 7.05278, 27.4075, 16.6007, 10.1055, -43.663, -4.32599
11.2561, 5, 7.04073, 27.417, 16.5973, 10.085, -43.6824, -4.31274
11.2631, 5, 7.02863, 27.4265, 16.5938, 10.0641, -43.7018, -4.29967
11.2721, 5, 7.01654, 27.4361, 16.5904, 10.0433, -43.7214, -4.28674
11.2801, 5, 7.00436, 27.4458, 16.5869, 10.0228, -43.7414, -4.27364
11.2872, 5, 6.99219, 27.4554, 16.5834, 10.0026, -43.7617, -4.26039
11.2962, 5, 6.98014, 27.465, 16.5798, 9.98245, -43.7818, -4.24706
11.3034, 5, 6.96797, 27.4745, 16.5763, 9.96222, -43.8016, -4.23364
11.3115, 5, 6.95585, 27.4839, 16.5728, 9.9416, -43.8213, -4.22018
11.3203, 5, 6.9438, 27.4934, 16.5695, 9.9207, -43.8409, -4.20677
11.3277, 5, 6.93166, 27.5031, 16.5662, 9.89995, -43.8606, -4.19333
11.3362, 5, 6.91945, 27.5127, 16.5629, 9.87961, -43.8805, -4.18012
11.3444, 5, 6.9074, 27.5221, 16.5597, 9.85958, -43.9008, -4.16714
11.3517, 5, 6.89536, 27.5316, 16.5564, 9.83978, -43.921, -4.1543
11.3602, 5, 6.88321, 27.5411, 16.5531, 9.81994, -43.941, -4.14174
11.3685, 5, 6.87715, 27.5457, 16.5515, 9.80988, -43.9508, -4.12922
11.3751, 5, 6.86502, 27.5552, 16.5482, 9.78941, -43.9704, -4.12294
11.3831, 5, 6.85273, 27.5648, 16.5449, 9.76873, -43.9899, -4.1103
11.393, 5, 6.83431, 27.5792, 16.5399, 9.73817, -44.0195, -4.09133
11.4002, 5, 6.82219, 27.5887, 16.5366, 9.71814, -44.0397, -4.07864
11.4071, 5, 6.81609, 27.5935, 16.5349, 9.70817, -44.0499, -4.07226
11.4172, 5, 6.79782, 27.6076, 16.5297, 9.67829, -44.08, -4.05257
11.4231, 5, 6.79178, 27.6123, 16.528, 9.6682, -44.09, -4.04597
11.4325, 5, 6.77359, 27.6266, 16.5228, 9.63743, -44.1197, -4.02604
11.4391, 5, 6.76752, 27.6314, 16.521, 9.62712, -44.1295, -4.01939
11.4486, 5, 6.74953, 27.6454, 16.5159, 9.59662, -44.1591, -3.99995
11.4566, 5, 6.73754, 27.6548, 16.5126, 9.57669, -44.1793, -3.9871
11.4654, 5, 6.72554, 27.6642, 16.5094, 9.5569, -44.1997, -3.97462
11.4711, 5, 6.71953, 27.6687, 16.5078, 9.54706, -44.2098, -3.96842
11.4807, 5, 6.70144, 27.6828, 16.503, 9.51702, -44.2397, -3.94983
11.4895, 5, 6.69536, 27.6876, 16.5013, 9.4965, -44.2593, -3.93768
11.4951, 5, 6.68314, 27.6971, 16.4981, 9.48618, -44.2691, -3.93159
11.5051, 5, 6.66507, 27.7113, 16.4933, 9.45559, -44.2985, -3.91327
11.5112, 5, 6.65903, 27.716, 16.4917, 9.44548, -44.3084, -3.90709
11.5201, 5, 6.64696, 27.7254, 16.4885, 9.42546, -44.3286, -3.89474
11.5281, 5, 6.63495, 27.7347, 16.4853, 9.40568, -44.349, -3.88225
11.5361, 5, 6.6229, 27.7441, 16.4821, 9.38566, -44.3691, -3.86964
11.5442, 5, 6.61074, 27.7537, 16.4788, 9.36539, -44.3891, -3.85695
11.5521, 5, 6.59868, 27.7631, 16.4756, 9.34481, -44.4089, -3.8442
11.5601, 5, 6.58672, 27.7724, 16.4724, 9.32436, -44.4286, -3.83142
11.567, 5, 6.57461, 27.7818, 16.4691, 9.30434, -44.4483, -3.81878
11.5761, 5, 6.56251, 27.791, 16.4659, 9.28451, -44.4684, -3.80633
11.5841, 5, 6.55042, 27.8002, 16.4627, 9.2649, -44.4888, -3.79403
11.5921, 5, 6.53819, 27.8096, 16.4596, 9.24521, -44.509, -3.78184
11.6, 5, 6.52595, 27.8191, 16.4566, 9.22516, -44.5288, -3.76984
11.6081, 5, 6.51384, 27.8284, 16.4536, 9.20485, -44.5485, -3.75776
11.6161, 5, 6.50171, 27.8378, 16.4507, 9.18448, -44.5681, -3.74568
11.624, 5, 6.48957, 27.8471, 16.4477, 9.16447, -44.5878, -3.73373
11.6331, 5, 6.47754, 27.8562, 16.4447, 9.1447, -44.6079, -3.72184
11.6401, 5, 6.46538, 27.8655, 16.4417, 9.12515, -44.6283, -3.70968
11.647, 5, 6.45318, 27.875, 16.4387, 9.10564, -44.6487, -3.69757
11.656, 5, 6.44108, 27.8844, 16.4357, 9.08585, -44.6688, -3.68531
11.6641, 5, 6.42905, 27.8937, 16.4327, 9.06578, -44.6887, -3.6728
11.6721, 5, 6.41695, 27.903, 16.4296, 9.04552, -44.7084, -3.66034
11.6793, 5, 6.40483, 27.9122, 16.4266, 9.02563, -44.7282, -3.64805
11.6872, 5, 6.39273, 27.9213, 16.4235, 9.00608, -44.7482, -3.63573
11.6951, 5, 6.38045, 27.9307, 16.4203, 8.98668, -44.7687, -3.62341
11.7041, 5, 6.36812, 27.9401, 16.4171, 8.96742, -44.7892, -3.61149
11.7122, 5, 6.35591, 27.9494, 16.4139, 8.94792, -44.8094, -3.59966
11.7191, 5, 6.34368, 27.9587, 16.4106, 8.92805, -44.8292, -3.58798
11.7279, 5, 6.33144, 27.9679, 16.4074, 8.90792, -44.8489, -3.57641
11.7361, 5, 6.31927, 27.977, 16.4043, 8.88793, -44.8686, -3.56501
11.7432, 5, 6.30713, 27.9861, 16.4012, 8.86828, -44.8885, -3.55349
11.752, 5, 6.29489, 27.9954, 16.3982, 8.84879, -44.9088, -3.54192
11.7601, 5, 6.28277, 28.0046, 16.3952, 8.82949, -44.9294, -3.53031
11.7671, 5, 6.27061, 28.0137, 16.3922, 8.81009, -44.9497, -3.51854
11.7761, 5, 6.25842, 28.0229, 16.3892, 8.79033, -44.9698, -3.50673
11.7841, 5, 6.24626, 28.032, 16.3862, 8.77025, -44.9898, -3.49464
11.7913, 5, 6.23406, 28.041, 16.3832, 8.75019, -45.0097, -3.48243
11.8002, 5, 6.22173, 28.0501, 16.3802, 8.73053, -45.0297, -3.47022
11.8081, 5, 6.20941, 28.0595, 16.3772, 8.7111, -45.05, -3.45799
11.8155, 5, 6.19723, 28.0688, 16.3743, 8.69188, -45.0707, -3.4461
11.8235, 5, 6.18496, 28.078, 16.3713, 8.67265, -45.0911, -3.43428
11.8323, 5, 6.17277, 28.0872, 16.3684, 8.6531, -45.1111, -3.42256
11.8396, 5, 6.16067, 28.0964, 16.3654, 8.63317, -45.131, -3.41113
11.8489, 5, 6.1485, 28.1053, 16.3624, 8.61314, -45.1508, -3.39975
11.8565, 5, 6.13624, 28.1146, 16.3593, 8.59336, -45.1707, -3.38835
11.8637, 5, 6.12407, 28.1239, 16.3563, 8.57385, -45.1909, -3.37713
11.873, 5, 6.11197, 28.133, 16.3533, 8.55456, -45.2115, -3.36589
11.8808, 5, 6.09982, 28.1421, 16.3504, 8.53528, -45.232, -3.35464
11.8881, 5, 6.08767, 28.1512, 16.3476, 8.51583, -45.2522, -3.34306
11.895, 5, 6.08158, 28.1557, 16.3463, 8.50592, -45.2622, -3.33731
11.9031, 5, 6.06933, 28.1646, 16.3436, 8.4859, -45.2822, -3.3258
11.9111, 5, 6.05702, 28.1737, 16.3409, 8.46589, -45.302, -3.31395
11.9211, 5, 6.03873, 28.1875, 16.3369, 8.43648, -45.3322, -3.29627
11.9271, 5, 6.03261, 28.192, 16.3355, 8.42684, -45.3424, -3.29032
11.935, 5, 6.0203, 28.2011, 16.3328, 8.40764, -45.3629, -3.27857
11.9445, 5, 6.00207, 28.2148, 16.3287, 8.37893, -45.3932, -3.26084
11.9511, 5, 5.99597, 28.2193, 16.3273, 8.36919, -45.4032, -3.25505
11.959, 5, 5.98363, 28.2282, 16.3245, 8.34948, -45.423, -3.24372
11.9686, 5, 5.96534, 28.2419, 16.3204, 8.31978, -45.4525, -3.22696
11.9751, 5, 5.95925, 28.2465, 16.3191, 8.31002, -45.4625, -3.22143
11.983, 5, 5.94705, 28.2556, 16.3163, 8.29065, -45.4827, -3.21044
11.9926, 5, 5.93481, 28.2646, 16.3135, 8.27148, -45.5136, -3.19401
11.9991, 5, 5.92256, 28.2737, 16.3107, 8.25246, -45.5238, -3.18857
