hehonglu123/ABB_Primitive_Study/execution/movec/curve_exe_v500_z1.csv
timestamp, cmd_num, J1, J2, J3, J4, J5, J6
0, -1, 32.9446, 52.7398, -8.49419, 90.0915, -78.6833, 34.4926
0.003, -1, 32.9446, 52.7398, -8.49419, 90.0915, -78.6833, 34.4926
0.006, -1, 32.9446, 52.7398, -8.49419, 90.0915, -78.6833, 34.4926
0.008, -1, 32.9446, 52.7398, -8.49419, 90.0915, -78.6833, 34.4926
0.011, -1, 32.9446, 52.7398, -8.49419, 90.0915, -78.6833, 34.4926
0.016, -1, 32.9446, 52.7398, -8.49419, 90.0915, -78.6833, 34.4926
0.02, -1, 32.9446, 52.7398, -8.49419, 90.0915, -78.6833, 34.4926
0.024, -1, 32.9446, 52.7398, -8.49419, 90.0915, -78.6833, 34.4926
0.028, -1, 32.9446, 52.7398, -8.49419, 90.0915, -78.6833, 34.4926
0.032, -1, 32.9447, 52.7398, -8.49419, 90.0915, -78.6833, 34.4926
0.036, -1, 32.9447, 52.7397, -8.49419, 90.0915, -78.6833, 34.4926
0.04, -1, 32.9449, 52.7396, -8.49419, 90.0915, -78.6833, 34.4926
0.044, -1, 32.9453, 52.7392, -8.49421, 90.0915, -78.6833, 34.4926
0.048, -1, 32.9461, 52.7385, -8.49426, 90.0915, -78.6831, 34.4927
0.052, -1, 32.9474, 52.7371, -8.49437, 90.0917, -78.6826, 34.4928
0.056, -1, 32.9492, 52.7349, -8.4946, 90.0919, -78.6817, 34.4931
0.06, -1, 32.9516, 52.7318, -8.49501, 90.0924, -78.6798, 34.4938
0.064, -1, 32.9544, 52.7277, -8.4957, 90.0932, -78.6767, 34.4949
0.068, -1, 32.9578, 52.7227, -8.49678, 90.0946, -78.6717, 34.4966
0.072, -1, 32.9617, 52.7167, -8.4984, 90.0966, -78.6641, 34.4993
0.076, -1, 32.9661, 52.7097, -8.50073, 90.0995, -78.6532, 34.5031
0.08, -1, 32.9711, 52.7018, -8.50394, 90.1037, -78.6379, 34.5085
0.084, -1, 32.9767, 52.6929, -8.50823, 90.1092, -78.6175, 34.5157
0.088, -1, 32.983, 52.6832, -8.51381, 90.1164, -78.5907, 34.5251
0.092, -1, 32.9898, 52.6726, -8.52089, 90.1256, -78.5567, 34.537
0.096, -1, 32.9971, 52.6615, -8.52966, 90.1371, -78.5143, 34.5519
0.1, -1, 33.0046, 52.6498, -8.54028, 90.151, -78.4629, 34.57
0.104, -1, 33.0124, 52.6377, -8.55288, 90.1675, -78.4018, 34.5915
0.108, -1, 33.0205, 52.6252, -8.56751, 90.1868, -78.3306, 34.6165
0.112, -1, 33.0288, 52.6121, -8.58421, 90.2088, -78.2493, 34.645
0.116, -1, 33.0376, 52.5985, -8.60294, 90.2336, -78.158, 34.6771
0.12, -1, 33.0467, 52.5842, -8.62361, 90.2609, -78.0572, 34.7125
0.124, -1, 33.0563, 52.5693, -8.6461, 90.2906, -77.9475, 34.7511
0.128, -1, 33.0663, 52.5539, -8.67024, 90.3226, -77.8297, 34.7924
0.131, -1, 33.0765, 52.5379, -8.69587, 90.3565, -77.7047, 34.8364
0.136, -1, 33.0871, 52.5214, -8.72276, 90.392, -77.5735, 34.8825
0.139, -1, 33.0981, 52.5041, -8.75072, 90.429, -77.4372, 34.9304
0.144, -1, 33.1095, 52.4858, -8.77954, 90.4671, -77.2967, 34.9797
0.148, -1, 33.1216, 52.4664, -8.80901, 90.506, -77.1531, 35.0302
0.152, -1, 33.1344, 52.4458, -8.83897, 90.5456, -77.0071, 35.0815
0.156, -1, 33.1481, 52.4239, -8.86926, 90.5855, -76.8596, 35.1333
0.16, -1, 33.1624, 52.4009, -8.89978, 90.6258, -76.7111, 35.1855
0.164, -1, 33.1774, 52.3772, -8.93044, 90.6662, -76.562, 35.2379
0.168, -1, 33.1929, 52.3529, -8.96117, 90.7067, -76.4125, 35.2904
0.172, -1, 33.2086, 52.3282, -8.99193, 90.7472, -76.2629, 35.343
0.176, -1, 33.2246, 52.3033, -9.0227, 90.7877, -76.1133, 35.3955
0.18, -1, 33.2406, 52.2782, -9.05345, 90.8282, -75.9638, 35.4481
0.184, -1, 33.2568, 52.2531, -9.08416, 90.8687, -75.8145, 35.5005
0.188, -1, 33.273, 52.2279, -9.11484, 90.9091, -75.6653, 35.5529
0.192, -1, 33.2892, 52.2027, -9.14548, 90.9495, -75.5164, 35.6053
0.196, -1, 33.3054, 52.1775, -9.17607, 90.9897, -75.3677, 35.6575
0.2, -1, 33.3216, 52.1524, -9.2066, 91.03, -75.2192, 35.7097
0.204, -1, 33.3378, 52.1272, -9.23709, 91.0701, -75.071, 35.7617
0.208, -1, 33.354, 52.1021, -9.26752, 91.1102, -74.9231, 35.8137
0.212, -1, 33.3702, 52.077, -9.29789, 91.1502, -74.7754, 35.8656
0.216, -1, 33.3863, 52.052, -9.32821, 91.1901, -74.628, 35.9174
0.22, -1, 33.4024, 52.027, -9.35848, 91.23, -74.4809, 35.9691
0.224, -1, 33.4184, 52.0021, -9.38869, 91.2698, -74.334, 36.0207
0.228, -1, 33.4345, 51.9772, -9.41885, 91.3095, -74.1874, 36.0722
0.232, -1, 33.4505, 51.9523, -9.44895, 91.3492, -74.0411, 36.1236
0.236, -1, 33.4665, 51.9275, -9.479, 91.3887, -73.895, 36.1749
0.24, -1, 33.4825, 51.9028, -9.509, 91.4282, -73.7492, 36.2262
0.244, -1, 33.4984, 51.878, -9.53894, 91.4677, -73.6036, 36.2773
0.248, -1, 33.5143, 51.8533, -9.56883, 91.507, -73.4583, 36.3284
0.252, -1, 33.5302, 51.8287, -9.59867, 91.5463, -73.3133, 36.3793
0.256, -1, 33.546, 51.8041, -9.62845, 91.5855, -73.1685, 36.4302
0.26, -1, 33.5618, 51.7796, -9.65818, 91.6247, -73.024, 36.481
0.264, -1, 33.5776, 51.7551, -9.68785, 91.6638, -72.8797, 36.5317
0.268, -1, 33.5934, 51.7306, -9.71748, 91.7028, -72.7357, 36.5823
0.272, -1, 33.6091, 51.7062, -9.74705, 91.7417, -72.5919, 36.6328
0.276, -1, 33.6248, 51.6818, -9.77657, 91.7806, -72.4484, 36.6832
0.28, -1, 33.6405, 51.6575, -9.80604, 91.8194, -72.3051, 36.7335
0.284, -1, 33.6561, 51.6332, -9.83546, 91.8582, -72.1621, 36.7838
0.288, -1, 33.6718, 51.6089, -9.86483, 91.8969, -72.0193, 36.8339
0.292, -1, 33.6874, 51.5847, -9.89415, 91.9355, -71.8768, 36.884
0.296, -1, 33.7029, 51.5605, -9.92341, 91.974, -71.7345, 36.934
0.3, -1, 33.7185, 51.5364, -9.95263, 92.0125, -71.5925, 36.9839
0.304, -1, 33.734, 51.5123, -9.9818, 92.0509, -71.4507, 37.0337
0.308, -1, 33.7495, 51.4883, -10.0109, 92.0893, -71.3092, 37.0835
0.312, -1, 33.765, 51.4643, -10.04, 92.1275, -71.1679, 37.1331
0.316, -1, 33.7804, 51.4403, -10.069, 92.1657, -71.0268, 37.1827
0.32, -1, 33.7958, 51.4164, -10.098, 92.2039, -70.886, 37.2321
0.324, -1, 33.8112, 51.3925, -10.1269, 92.242, -70.7454, 37.2815
0.328, -1, 33.8266, 51.3687, -10.1558, 92.28, -70.605, 37.3309
0.332, -1, 33.8419, 51.3449, -10.1846, 92.318, -70.4649, 37.3801
0.336, -1, 33.8572, 51.3211, -10.2134, 92.3559, -70.325, 37.4292
0.34, -1, 33.8725, 51.2974, -10.2421, 92.3937, -70.1854, 37.4783
0.344, -1, 33.8877, 51.2737, -10.2708, 92.4315, -70.046, 37.5273
0.348, -1, 33.903, 51.2501, -10.2994, 92.4692, -69.9068, 37.5762
0.352, -1, 33.9182, 51.2265, -10.328, 92.5068, -69.7678, 37.625
0.356, -1, 33.9334, 51.2029, -10.3565, 92.5444, -69.6291, 37.6737
0.36, -1, 33.9485, 51.1794, -10.385, 92.5819, -69.4906, 37.7224
0.364, -1, 33.9636, 51.1559, -10.4134, 92.6194, -69.3523, 37.771
0.368, -1, 33.9788, 51.1325, -10.4418, 92.6568, -69.2143, 37.8195
0.372, -1, 33.9938, 51.109, -10.4702, 92.6941, -69.0764, 37.8679
0.376, -1, 34.0089, 51.0857, -10.4985, 92.7314, -68.9389, 37.9163
0.38, -1, 34.0239, 51.0623, -10.5268, 92.7686, -68.8015, 37.9645
0.384, -1, 34.0389, 51.039, -10.555, 92.8058, -68.6643, 38.0127
0.388, -1, 34.0539, 51.0158, -10.5831, 92.8429, -68.5274, 38.0608
0.392, -1, 34.0689, 50.9926, -10.6113, 92.8799, -68.3907, 38.1089
0.396, -1, 34.0838, 50.9694, -10.6393, 92.9169, -68.2542, 38.1568
0.4, -1, 34.0987, 50.9462, -10.6674, 92.9538, -68.1179, 38.2047
0.404, -1, 34.1136, 50.9231, -10.6954, 92.9907, -67.9818, 38.2525
0.408, -1, 34.1285, 50.9, -10.7233, 93.0275, -67.846, 38.3002
0.412, -1, 34.1433, 50.877, -10.7512, 93.0642, -67.7104, 38.3479
0.416, -1, 34.1582, 50.854, -10.779, 93.1009, -67.575, 38.3955
0.42, -1, 34.173, 50.831, -10.8069, 93.1375, -67.4398, 38.443
0.424, -1, 34.1877, 50.8081, -10.8346, 93.1741, -67.3048, 38.4904
0.428, -1, 34.2025, 50.7852, -10.8624, 93.2106, -67.17, 38.5377
0.432, -1, 34.2172, 50.7623, -10.89, 93.2471, -67.0354, 38.585
0.436, -1, 34.2319, 50.7395, -10.9177, 93.2835, -66.901, 38.6322
0.44, -1, 34.2466, 50.7167, -10.9453, 93.3198, -66.7669, 38.6794
0.444, -1, 34.2613, 50.694, -10.9728, 93.3561, -66.6329, 38.7264
0.448, -1, 34.2759, 50.6713, -11.0003, 93.3923, -66.4992, 38.7734
0.452, -1, 34.2905, 50.6486, -11.0278, 93.4285, -66.3656, 38.8203
0.456, -1, 34.3051, 50.6259, -11.0552, 93.4647, -66.2323, 38.8672
0.46, -1, 34.3197, 50.6033, -11.0826, 93.5007, -66.0992, 38.914
0.464, -1, 34.3342, 50.5807, -11.11, 93.5367, -65.9662, 38.9607
0.468, -1, 34.3487, 50.5582, -11.1373, 93.5727, -65.8335, 39.0073
0.472, -1, 34.3632, 50.5357, -11.1645, 93.6086, -65.701, 39.0539
0.476, -1, 34.3777, 50.5132, -11.1918, 93.6445, -65.5686, 39.1004
0.48, -1, 34.3922, 50.4907, -11.2189, 93.6803, -65.4365, 39.1468
0.484, -1, 34.4066, 50.4683, -11.2461, 93.716, -65.3045, 39.1932
0.488, -1, 34.421, 50.446, -11.2732, 93.7517, -65.1728, 39.2394
0.492, -1, 34.4354, 50.4236, -11.3002, 93.7873, -65.0412, 39.2857
0.496, -1, 34.4498, 50.4013, -11.3273, 93.8229, -64.9099, 39.3318
0.5, -1, 34.4642, 50.379, -11.3542, 93.8584, -64.7787, 39.3779
0.504, -1, 34.4785, 50.3568, -11.3812, 93.8939, -64.6477, 39.4239
0.508, -1, 34.4928, 50.3346, -11.4081, 93.9294, -64.517, 39.4699
0.512, -1, 34.5071, 50.3124, -11.4349, 93.9647, -64.3864, 39.5158
0.516, -1, 34.5214, 50.2902, -11.4618, 94.0001, -64.256, 39.5616
0.52, -1, 34.5356, 50.2681, -11.4886, 94.0353, -64.1257, 39.6073
0.524, -1, 34.5499, 50.246, -11.5153, 94.0706, -63.9957, 39.653
0.528, -1, 34.5641, 50.224, -11.542, 94.1057, -63.8659, 39.6986
0.532, -1, 34.5783, 50.202, -11.5687, 94.1409, -63.7362, 39.7442
0.536, -1, 34.5924, 50.18, -11.5953, 94.1759, -63.6068, 39.7897
0.54, -1, 34.6066, 50.158, -11.6219, 94.211, -63.4775, 39.8351
0.544, -1, 34.6207, 50.1361, -11.6485, 94.2459, -63.3484, 39.8804
0.548, -1, 34.6348, 50.1142, -11.675, 94.2809, -63.2195, 39.9257
0.552, -1, 34.6489, 50.0923, -11.7015, 94.3157, -63.0908, 39.971
0.556, -1, 34.663, 50.0705, -11.7279, 94.3506, -62.9622, 40.0161
0.56, -1, 34.677, 50.0487, -11.7543, 94.3853, -62.8339, 40.0612
0.564, -1, 34.691, 50.0269, -11.7807, 94.4201, -62.7057, 40.1063
0.568, -1, 34.705, 50.0052, -11.807, 94.4547, -62.5777, 40.1512
0.572, -1, 34.719, 49.9834, -11.8333, 94.4894, -62.4498, 40.1961
0.576, -1, 34.733, 49.9618, -11.8596, 94.524, -62.3222, 40.241
0.58, -1, 34.7469, 49.9401, -11.8858, 94.5585, -62.1947, 40.2858
0.584, -1, 34.7609, 49.9185, -11.912, 94.593, -62.0674, 40.3305
0.588, -1, 34.7748, 49.8969, -11.9381, 94.6274, -61.9403, 40.3752
0.592, -1, 34.7887, 49.8753, -11.9642, 94.6618, -61.8133, 40.4198
0.596, -1, 34.8025, 49.8538, -11.9903, 94.6961, -61.6866, 40.4643
0.6, -1, 34.8164, 49.8323, -12.0163, 94.7304, -61.56, 40.5088
0.604, -1, 34.8302, 49.8108, -12.0423, 94.7647, -61.4336, 40.5532
0.608, -1, 34.844, 49.7894, -12.0683, 94.7989, -61.3073, 40.5976
0.612, -1, 34.8578, 49.768, -12.0942, 94.8331, -61.1812, 40.6419
0.616, -1, 34.8716, 49.7466, -12.1201, 94.8672, -61.0553, 40.6861
0.62, -1, 34.8854, 49.7252, -12.146, 94.9012, -60.9296, 40.7303
0.624, -1, 34.8991, 49.7039, -12.1718, 94.9352, -60.804, 40.7744
0.628, -1, 34.9128, 49.6826, -12.1976, 94.9692, -60.6786, 40.8185
0.632, -1, 34.9265, 49.6613, -12.2234, 95.0032, -60.5534, 40.8625
0.636, -1, 34.9402, 49.6401, -12.2491, 95.037, -60.4283, 40.9064
0.64, -1, 34.9539, 49.6189, -12.2748, 95.0709, -60.3034, 40.9503
0.644, -1, 34.9675, 49.5977, -12.3005, 95.1047, -60.1787, 40.9941
0.648, -1, 34.9812, 49.5765, -12.3261, 95.1384, -60.0541, 41.0379
0.652, -1, 34.9948, 49.5554, -12.3517, 95.1721, -59.9297, 41.0816
0.656, -1, 35.0084, 49.5343, -12.3772, 95.2058, -59.8055, 41.1252
0.66, -1, 35.022, 49.5132, -12.4028, 95.2394, -59.6814, 41.1688
0.664, -1, 35.0355, 49.4922, -12.4283, 95.273, -59.5575, 41.2124
0.668, -1, 35.0491, 49.4712, -12.4537, 95.3065, -59.4337, 41.2558
0.672, -1, 35.0626, 49.4502, -12.4791, 95.34, -59.3101, 41.2993
0.676, -1, 35.0761, 49.4292, -12.5045, 95.3734, -59.1867, 41.3426
0.68, -1, 35.0896, 49.4083, -12.5299, 95.4068, -59.0634, 41.3859
0.684, -1, 35.1031, 49.3874, -12.5552, 95.4401, -58.9403, 41.4292
0.688, -1, 35.1165, 49.3665, -12.5805, 95.4735, -58.8174, 41.4724
0.692, -1, 35.1299, 49.3456, -12.6058, 95.5067, -58.6946, 41.5155
0.696, -1, 35.1434, 49.3248, -12.631, 95.5399, -58.5719, 41.5586
0.7, -1, 35.1568, 49.304, -12.6562, 95.5731, -58.4495, 41.6017
0.704, -1, 35.1701, 49.2832, -12.6813, 95.6063, -58.3271, 41.6446
0.708, -1, 35.1835, 49.2625, -12.7065, 95.6394, -58.205, 41.6876
0.712, -1, 35.1969, 49.2417, -12.7316, 95.6724, -58.083, 41.7304
0.716, -1, 35.2102, 49.221, -12.7566, 95.7054, -57.9611, 41.7732
0.72, -1, 35.2235, 49.2004, -12.7817, 95.7384, -57.8394, 41.816
0.724, -1, 35.2368, 49.1797, -12.8067, 95.7713, -57.7178, 41.8587
0.728, -1, 35.2501, 49.1591, -12.8316, 95.8042, -57.5964, 41.9014
0.732, -1, 35.2634, 49.1385, -12.8566, 95.8371, -57.4752, 41.944
0.736, -1, 35.2766, 49.1179, -12.8815, 95.8699, -57.3541, 41.9865
0.74, -1, 35.2898, 49.0974, -12.9064, 95.9026, -57.2332, 42.029
0.744, -1, 35.3031, 49.0769, -12.9312, 95.9354, -57.1124, 42.0714
0.748, -1, 35.3163, 49.0564, -12.956, 95.968, -56.9917, 42.1138
0.752, -1, 35.3294, 49.0359, -12.9808, 96.0007, -56.8712, 42.1562
0.756, -1, 35.3426, 49.0155, -13.0056, 96.0333, -56.7509, 42.1984
0.76, -1, 35.3558, 48.9951, -13.0303, 96.0659, -56.6307, 42.2407
0.764, -1, 35.3689, 48.9747, -13.055, 96.0984, -56.5107, 42.2828
0.768, -1, 35.382, 48.9543, -13.0797, 96.1309, -56.3907, 42.325
0.772, -1, 35.3951, 48.934, -13.1043, 96.1633, -56.271, 42.3671
0.776, -1, 35.4082, 48.9137, -13.1289, 96.1957, -56.1514, 42.4091
0.78, -1, 35.4213, 48.8934, -13.1535, 96.2281, -56.0319, 42.451
0.784, -1, 35.4343, 48.8731, -13.178, 96.2604, -55.9126, 42.493
0.788, -1, 35.4474, 48.8528, -13.2025, 96.2927, -55.7934, 42.5348
0.792, -1, 35.4604, 48.8326, -13.227, 96.3249, -55.6744, 42.5767
0.796, -1, 35.4734, 48.8124, -13.2515, 96.3571, -55.5555, 42.6184
0.8, -1, 35.4864, 48.7923, -13.2759, 96.3893, -55.4367, 42.6602
0.804, -1, 35.4994, 48.7721, -13.3003, 96.4214, -55.3181, 42.7018
0.808, -1, 35.5124, 48.752, -13.3247, 96.4535, -55.1997, 42.7435
0.812, -1, 35.5253, 48.7319, -13.349, 96.4856, -55.0813, 42.785
0.816, -1, 35.5382, 48.7118, -13.3733, 96.5176, -54.9631, 42.8266
0.82, -1, 35.5512, 48.6918, -13.3976, 96.5496, -54.8451, 42.868
0.824, -1, 35.5641, 48.6717, -13.4219, 96.5816, -54.7272, 42.9095
0.828, -1, 35.577, 48.6517, -13.4461, 96.6134, -54.6094, 42.9508
0.832, -1, 35.5898, 48.6318, -13.4703, 96.6453, -54.4918, 42.9922
0.836, -1, 35.6027, 48.6118, -13.4944, 96.6772, -54.3743, 43.0335
0.84, -1, 35.6155, 48.5919, -13.5186, 96.709, -54.2569, 43.0747
0.844, -1, 35.6284, 48.5719, -13.5427, 96.7407, -54.1397, 43.1159
0.848, -1, 35.6412, 48.5521, -13.5668, 96.7724, -54.0226, 43.157
0.852, -1, 35.6539, 48.5322, -13.5909, 96.8041, -53.9056, 43.1981
0.856, -1, 35.6666, 48.5125, -13.6149, 96.8358, -53.7888, 43.2392
0.86, -1, 35.6791, 48.4928, -13.6389, 96.8674, -53.6721, 43.2802
0.864, -1, 35.6914, 48.4734, -13.6628, 96.8989, -53.5556, 43.3211
0.868, -1, 35.7035, 48.4543, -13.6867, 96.9304, -53.4394, 43.3619
0.872, -1, 35.7152, 48.4354, -13.7106, 96.9618, -53.3236, 43.4026
0.876, -1, 35.7267, 48.4169, -13.7343, 96.993, -53.2083, 43.4431
0.88, -1, 35.7378, 48.3988, -13.7579, 97.0241, -53.0937, 43.4834
0.884, -1, 35.7487, 48.3811, -13.7812, 97.0549, -52.9801, 43.5233
0.888, -1, 35.7593, 48.3638, -13.8043, 97.0853, -52.8677, 43.5628
0.892, -1, 35.7696, 48.347, -13.8271, 97.1153, -52.7571, 43.6017
0.896, -1, 35.7796, 48.3308, -13.8494, 97.1448, -52.6484, 43.6399
0.9, -1, 35.7891, 48.3154, -13.8713, 97.1735, -52.5423, 43.6772
0.904, -1, 35.7981, 48.3007, -13.8924, 97.2015, -52.4393, 43.7134
0.908, -1, 35.8067, 48.2868, -13.9129, 97.2284, -52.3399, 43.7484
0.912, -1, 35.8148, 48.2737, -13.9324, 97.2542, -52.2448, 43.7818
0.916, -1, 35.8225, 48.2613, -13.951, 97.2786, -52.1546, 43.8135
0.92, -1, 35.8299, 48.2495, -13.9684, 97.3016, -52.07, 43.8433
0.924, -1, 35.8369, 48.2384, -13.9846, 97.3229, -51.9913, 43.871
0.928, -1, 35.8436, 48.2277, -13.9994, 97.3424, -51.9192, 43.8963
0.932, -1, 35.8501, 48.2175, -14.0129, 97.3601, -51.8539, 43.9192
0.936, -1, 35.8564, 48.2078, -14.0248, 97.3759, -51.7957, 43.9397
0.94, -1, 35.8623, 48.1986, -14.0354, 97.3898, -51.7445, 43.9577
0.944, -1, 35.8681, 48.1898, -14.0445, 97.4018, -51.7003, 43.9732
0.948, -1, 35.8735, 48.1815, -14.0522, 97.4119, -51.6627, 43.9864
0.952, -1, 35.8787, 48.1738, -14.0587, 97.4204, -51.6314, 43.9974
0.956, -1, 35.8837, 48.1666, -14.0639, 97.4273, -51.6059, 44.0063
0.96, -1, 35.8884, 48.16, -14.0681, 97.4328, -51.5855, 44.0135
0.964, -1, 35.8928, 48.1539, -14.0714, 97.4371, -51.5697, 44.019
0.968, -1, 35.897, 48.1485, -14.0739, 97.4403, -51.5576, 44.0232
0.972, -1, 35.9008, 48.1437, -14.0757, 97.4427, -51.5487, 44.0263
0.976, -1, 35.9042, 48.1397, -14.077, 97.4444, -51.5423, 44.0285
0.98, 2, 35.9071, 48.1364, -14.078, 97.4456, -51.5377, 44.0301
0.984, 2, 35.9094, 48.1339, -14.0786, 97.4465, -51.5346, 44.0312
0.988, 2, 35.9112, 48.132, -14.0791, 97.4471, -51.5324, 44.0319
0.992, 2, 35.9124, 48.1306, -14.0794, 97.4475, -51.5309, 44.0325
0.996, 2, 35.9133, 48.1297, -14.0796, 97.4477, -51.5299, 44.0328
1, 2, 35.9139, 48.1291, -14.0797, 97.4479, -51.5293, 44.033
1.004, 2, 35.9143, 48.1287, -14.0798, 97.448, -51.5288, 44.0332
1.008, 2, 35.9146, 48.1284, -14.0799, 97.4481, -51.5285, 44.0333
1.012, 2, 35.9147, 48.1282, -14.0799, 97.4482, -51.5283, 44.0334
1.016, 2, 35.9149, 48.128, -14.08, 97.4482, -51.5281, 44.0334
1.02, 2, 35.915, 48.128, -14.08, 97.4482, -51.528, 44.0335
1.024, 2, 35.915, 48.1279, -14.08, 97.4482, -51.528, 44.0335
1.027, 2, 35.9151, 48.1279, -14.08, 97.4483, -51.5279, 44.0335
1.032, 2, 35.9151, 48.1278, -14.08, 97.4483, -51.5279, 44.0335
1.036, 2, 35.9151, 48.1278, -14.08, 97.4483, -51.5279, 44.0335
1.04, 2, 35.9151, 48.1278, -14.08, 97.4483, -51.5279, 44.0335
1.044, 2, 35.9151, 48.1278, -14.08, 97.4483, -51.5279, 44.0335
1.048, 2, 35.9151, 48.1278, -14.08, 97.4483, -51.5279, 44.0335
1.052, 2, 35.9151, 48.1278, -14.08, 97.4483, -51.5279, 44.0335
1.055, 2, 35.9151, 48.1278, -14.08, 97.4483, -51.5278, 44.0335
1.06, 2, 35.9151, 48.1278, -14.08, 97.4483, -51.5278, 44.0335
1.064, 2, 35.9151, 48.1278, -14.08, 97.4483, -51.5278, 44.0335
1.068, 2, 35.9151, 48.1278, -14.08, 97.4483, -51.5278, 44.0335
1.072, 2, 35.9151, 48.1278, -14.08, 97.4483, -51.5278, 44.0335
1.076, 2, 35.9151, 48.1278, -14.08, 97.4483, -51.5278, 44.0335
1.08, 2, 35.9151, 48.1278, -14.08, 97.4483, -51.5278, 44.0335
1.084, 2, 35.9151, 48.1278, -14.08, 97.4483, -51.5278, 44.0335
1.088, 2, 35.9151, 48.1278, -14.08, 97.4483, -51.5278, 44.0335
1.091, 2, 35.9151, 48.1278, -14.08, 97.4483, -51.5278, 44.0335
1.096, 2, 35.9151, 48.1278, -14.08, 97.4483, -51.5278, 44.0335
1.1, 2, 35.9151, 48.1278, -14.08, 97.4483, -51.5278, 44.0335
1.104, 2, 35.9151, 48.1278, -14.08, 97.4483, -51.5278, 44.0335
1.108, 2, 35.9151, 48.1278, -14.08, 97.4483, -51.5278, 44.0335
1.112, 2, 35.9151, 48.1278, -14.08, 97.4483, -51.5278, 44.0335
1.116, 2, 35.9151, 48.1278, -14.08, 97.4483, -51.5278, 44.0335
1.119, 2, 35.9151, 48.1278, -14.08, 97.4483, -51.5278, 44.0335
1.124, 2, 35.9151, 48.1278, -14.08, 97.4483, -51.5278, 44.0335
1.128, 2, 35.9151, 48.1278, -14.08, 97.4483, -51.5278, 44.0335
1.132, 2, 35.9151, 48.1278, -14.08, 97.4483, -51.5278, 44.0335
1.136, 2, 35.9151, 48.1278, -14.08, 97.4483, -51.5278, 44.0335
1.14, 2, 35.9151, 48.1278, -14.08, 97.4483, -51.5278, 44.0335
1.144, 2, 35.9151, 48.1278, -14.08, 97.4483, -51.5278, 44.0335
1.147, 2, 35.9151, 48.1278, -14.08, 97.4483, -51.5278, 44.0335
1.152, 2, 35.9151, 48.1278, -14.08, 97.4483, -51.5278, 44.0335
1.156, 2, 35.9151, 48.1278, -14.08, 97.4483, -51.5278, 44.0335
1.16, 2, 35.9151, 48.1278, -14.08, 97.4483, -51.5278, 44.0335
1.164, 2, 35.9151, 48.1278, -14.08, 97.4483, -51.5278, 44.0335
1.168, 2, 35.9151, 48.1278, -14.08, 97.4483, -51.5278, 44.0335
1.172, 2, 35.9151, 48.1278, -14.08, 97.4483, -51.5278, 44.0335
1.175, 2, 35.9151, 48.1278, -14.08, 97.4483, -51.5278, 44.0335
1.18, 2, 35.9151, 48.1278, -14.08, 97.4483, -51.5278, 44.0335
1.184, 2, 35.9151, 48.1278, -14.08, 97.4483, -51.5278, 44.0335
1.188, 2, 35.9151, 48.1278, -14.08, 97.4483, -51.5278, 44.0335
1.192, 2, 35.9151, 48.1278, -14.08, 97.4483, -51.5278, 44.0335
1.196, 2, 35.9151, 48.1278, -14.08, 97.4483, -51.5278, 44.0335
1.2, 2, 35.9151, 48.1278, -14.08, 97.4483, -51.5278, 44.0335
1.204, 2, 35.9151, 48.1278, -14.08, 97.4483, -51.5278, 44.0335
1.208, 2, 35.9151, 48.1278, -14.08, 97.4483, -51.5278, 44.0335
1.212, 2, 35.9151, 48.1278, -14.08, 97.4483, -51.5278, 44.0335
1.216, 2, 35.9151, 48.1278, -14.08, 97.4483, -51.5278, 44.0335
1.22, 2, 35.9151, 48.1278, -14.08, 97.4483, -51.5278, 44.0335
1.224, 2, 35.9151, 48.1278, -14.08, 97.4483, -51.5278, 44.0335
1.228, 2, 35.9151, 48.1278, -14.08, 97.4483, -51.5278, 44.0335
1.232, 2, 35.9151, 48.1278, -14.08, 97.4483, -51.5278, 44.0335
1.236, 2, 35.9151, 48.1278, -14.08, 97.4483, -51.5278, 44.0335
1.24, 2, 35.9151, 48.1278, -14.08, 97.4483, -51.5278, 44.0335
1.244, 2, 35.9151, 48.1278, -14.08, 97.4483, -51.5278, 44.0335
1.248, 2, 35.9151, 48.1278, -14.08, 97.4483, -51.5278, 44.0335
1.252, 2, 35.9151, 48.1278, -14.08, 97.4483, -51.5278, 44.0335
1.256, 2, 35.9151, 48.1278, -14.08, 97.4483, -51.5278, 44.0335
1.26, 2, 35.9151, 48.1278, -14.08, 97.4483, -51.5278, 44.0335
1.264, 2, 35.9151, 48.1278, -14.08, 97.4483, -51.5278, 44.0335
1.267, 2, 35.9151, 48.1278, -14.08, 97.4483, -51.5278, 44.0335
1.272, 2, 35.9151, 48.1278, -14.08, 97.4483, -51.5278, 44.0335
1.276, 2, 35.9151, 48.1278, -14.08, 97.4483, -51.5278, 44.0335
1.28, 2, 35.9151, 48.1278, -14.08, 97.4483, -51.5278, 44.0335
1.284, 2, 35.9151, 48.1278, -14.08, 97.4483, -51.5278, 44.0335
1.288, 2, 35.9151, 48.1278, -14.08, 97.4483, -51.5278, 44.0335
1.292, 2, 35.9151, 48.1278, -14.08, 97.4483, -51.5278, 44.0335
1.295, 2, 35.9151, 48.1278, -14.08, 97.4483, -51.5278, 44.0335
1.3, 2, 35.9151, 48.1278, -14.08, 97.4483, -51.5278, 44.0335
1.304, 2, 35.9151, 48.1278, -14.08, 97.4483, -51.5278, 44.0335
1.308, 2, 35.9151, 48.1278, -14.08, 97.4483, -51.5278, 44.0335
1.312, 2, 35.9151, 48.1278, -14.08, 97.4483, -51.5278, 44.0335
1.316, 2, 35.9151, 48.1278, -14.08, 97.4483, -51.5278, 44.0335
1.32, 2, 35.9151, 48.1278, -14.08, 97.4483, -51.5278, 44.0335
1.324, 2, 35.9151, 48.1278, -14.08, 97.4483, -51.5278, 44.0335
1.328, 2, 35.9151, 48.1278, -14.08, 97.4483, -51.5278, 44.0335
1.332, 2, 35.9151, 48.1278, -14.08, 97.4483, -51.5278, 44.0335
1.336, 2, 35.9151, 48.1278, -14.08, 97.4483, -51.5278, 44.0335
1.34, 2, 35.9151, 48.1278, -14.08, 97.4483, -51.5278, 44.0335
1.344, 2, 35.9151, 48.1278, -14.08, 97.4483, -51.5278, 44.0335
1.348, 2, 35.9151, 48.1278, -14.08, 97.4483, -51.5278, 44.0335
1.352, 2, 35.9151, 48.1278, -14.08, 97.4483, -51.5278, 44.0335
1.356, 2, 35.9151, 48.1278, -14.08, 97.4483, -51.5278, 44.0335
1.36, 2, 35.9151, 48.1278, -14.08, 97.4483, -51.5278, 44.0335
1.364, 2, 35.9151, 48.1278, -14.08, 97.4483, -51.5278, 44.0335
1.368, 2, 35.9151, 48.1278, -14.08, 97.4483, -51.5278, 44.0335
1.372, 2, 35.9151, 48.1278, -14.08, 97.4483, -51.5278, 44.0335
1.376, 2, 35.9151, 48.1278, -14.08, 97.4483, -51.5278, 44.0335
1.38, 2, 35.9151, 48.1278, -14.08, 97.4483, -51.5278, 44.0335
1.384, 2, 35.9151, 48.1278, -14.08, 97.4483, -51.5278, 44.0335
1.388, 2, 35.9151, 48.1278, -14.08, 97.4483, -51.5278, 44.0335
1.392, 2, 35.9151, 48.1278, -14.08, 97.4483, -51.5278, 44.0335
1.396, 2, 35.9151, 48.1278, -14.08, 97.4483, -51.5278, 44.0335
1.4, 2, 35.9151, 48.1278, -14.08, 97.4483, -51.5278, 44.0335
1.404, 2, 35.9151, 48.1278, -14.08, 97.4483, -51.5278, 44.0335
1.408, 2, 35.9151, 48.1278, -14.08, 97.4483, -51.5278, 44.0335
1.412, 2, 35.9151, 48.1278, -14.08, 97.4483, -51.5278, 44.0335
1.416, 2, 35.9151, 48.1278, -14.08, 97.4483, -51.5278, 44.0335
1.42, 2, 35.9151, 48.1278, -14.08, 97.4483, -51.5278, 44.0335
1.424, 2, 35.9151, 48.1278, -14.08, 97.4483, -51.5278, 44.0335
1.428, 2, 35.9151, 48.1278, -14.08, 97.4483, -51.5278, 44.0335
1.432, 2, 35.9151, 48.1278, -14.08, 97.4483, -51.5278, 44.0335
1.436, 2, 35.9151, 48.1278, -14.08, 97.4483, -51.5278, 44.0335
1.44, 2, 35.9151, 48.1278, -14.08, 97.4483, -51.5278, 44.0335
1.444, 2, 35.9151, 48.1278, -14.08, 97.4483, -51.5278, 44.0335
1.448, 2, 35.9151, 48.1278, -14.08, 97.4483, -51.5278, 44.0335
1.452, 2, 35.9151, 48.1278, -14.08, 97.4483, -51.5278, 44.0335
1.456, 2, 35.9151, 48.1278, -14.08, 97.4483, -51.5278, 44.0335
1.46, 2, 35.9151, 48.1278, -14.08, 97.4483, -51.5278, 44.0335
1.464, 2, 35.9151, 48.1278, -14.08, 97.4483, -51.5278, 44.0335
1.468, 2, 35.9151, 48.1278, -14.08, 97.4483, -51.5278, 44.0335
1.472, 2, 35.9151, 48.1278, -14.08, 97.4483, -51.5278, 44.0335
1.476, 2, 35.9151, 48.1278, -14.08, 97.4483, -51.5278, 44.0335
1.48, 2, 35.9151, 48.1278, -14.08, 97.4483, -51.5278, 44.0335
1.484, 2, 35.9151, 48.1278, -14.08, 97.4483, -51.5278, 44.0335
1.488, 2, 35.9151, 48.1278, -14.08, 97.4483, -51.5278, 44.0335
1.492, 2, 35.9151, 48.1278, -14.08, 97.4483, -51.5278, 44.0335
1.496, 2, 35.9151, 48.1278, -14.08, 97.4483, -51.5278, 44.0335
1.5, 2, 35.9151, 48.1278, -14.08, 97.4483, -51.5278, 44.0335
1.504, 2, 35.9151, 48.1278, -14.08, 97.4483, -51.5278, 44.0335
1.508, 2, 35.9151, 48.1278, -14.08, 97.4483, -51.5278, 44.0335
1.512, 2, 35.9151, 48.1278, -14.08, 97.4483, -51.5278, 44.0335
1.516, 2, 35.9151, 48.1278, -14.08, 97.4483, -51.5278, 44.0335
1.52, 2, 35.9151, 48.1278, -14.08, 97.4483, -51.5278, 44.0335
1.524, 2, 35.9151, 48.1278, -14.08, 97.4483, -51.5278, 44.0335
1.528, 2, 35.9151, 48.1278, -14.08, 97.4483, -51.5278, 44.0335
1.532, 2, 35.9151, 48.1278, -14.08, 97.4483, -51.5278, 44.0335
1.536, 2, 35.9151, 48.1278, -14.08, 97.4483, -51.5278, 44.0335
1.54, 2, 35.9151, 48.1278, -14.08, 97.4483, -51.5278, 44.0335
1.544, 2, 35.9151, 48.1278, -14.08, 97.4483, -51.5278, 44.0335
1.548, 2, 35.9151, 48.1278, -14.08, 97.4483, -51.5278, 44.0335
1.552, 2, 35.9151, 48.1278, -14.08, 97.4483, -51.5278, 44.0335
1.556, 2, 35.9151, 48.1278, -14.08, 97.4483, -51.5278, 44.0335
1.56, 2, 35.9151, 48.1278, -14.08, 97.4483, -51.5278, 44.0335
1.564, 2, 35.9151, 48.1278, -14.08, 97.4483, -51.5278, 44.0335
1.568, 2, 35.9151, 48.1278, -14.08, 97.4483, -51.5278, 44.0335
1.572, 2, 35.9151, 48.1278, -14.08, 97.4483, -51.5278, 44.0335
1.576, 2, 35.9151, 48.1278, -14.08, 97.4483, -51.5278, 44.0335
1.58, 2, 35.9151, 48.1278, -14.08, 97.4483, -51.5278, 44.0335
1.584, 2, 35.9151, 48.1278, -14.08, 97.4483, -51.5278, 44.0335
1.588, 2, 35.9151, 48.1278, -14.08, 97.4483, -51.5278, 44.0335
1.592, 2, 35.9151, 48.1278, -14.08, 97.4483, -51.5278, 44.0335
1.596, 2, 35.9151, 48.1278, -14.08, 97.4483, -51.5278, 44.0335
1.6, 2, 35.9151, 48.1278, -14.08, 97.4483, -51.5278, 44.0335
1.604, 2, 35.9151, 48.1278, -14.08, 97.4483, -51.5278, 44.0335
1.608, 2, 35.9151, 48.1278, -14.08, 97.4483, -51.5278, 44.0335
1.612, 2, 35.9151, 48.1278, -14.08, 97.4483, -51.5278, 44.0335
1.616, 2, 35.9151, 48.1278, -14.08, 97.4483, -51.5278, 44.0335
1.62, 2, 35.9151, 48.1278, -14.08, 97.4483, -51.5278, 44.0335
1.624, 2, 35.9151, 48.1278, -14.08, 97.4483, -51.5278, 44.0335
1.628, 2, 35.9151, 48.1278, -14.08, 97.4483, -51.5278, 44.0335
1.632, 2, 35.9151, 48.1278, -14.08, 97.4483, -51.5278, 44.0335
1.636, 2, 35.9151, 48.1278, -14.08, 97.4483, -51.5278, 44.0335
1.64, 2, 35.9151, 48.1278, -14.08, 97.4483, -51.5278, 44.0335
1.644, 2, 35.9151, 48.1278, -14.08, 97.4483, -51.5278, 44.0335
1.648, 2, 35.9151, 48.1278, -14.08, 97.4483, -51.5278, 44.0335
1.652, 2, 35.9151, 48.1278, -14.08, 97.4483, -51.5278, 44.0335
1.656, 2, 35.9151, 48.1278, -14.08, 97.4483, -51.5278, 44.0335
1.66, 2, 35.9151, 48.1278, -14.08, 97.4483, -51.5278, 44.0335
1.664, 2, 35.9151, 48.1278, -14.08, 97.4483, -51.5278, 44.0335
1.668, 2, 35.9151, 48.1278, -14.08, 97.4483, -51.5278, 44.0335
1.672, 2, 35.9151, 48.1278, -14.08, 97.4483, -51.5278, 44.0335
1.676, 2, 35.9151, 48.1278, -14.08, 97.4483, -51.5278, 44.0335
1.68, 2, 35.9151, 48.1278, -14.08, 97.4483, -51.5278, 44.0335
1.684, 2, 35.9151, 48.1278, -14.08, 97.4483, -51.5278, 44.0335
1.688, 2, 35.9151, 48.1278, -14.08, 97.4483, -51.5278, 44.0335
1.692, 2, 35.9151, 48.1278, -14.08, 97.4483, -51.5278, 44.0335
1.696, 2, 35.9151, 48.1278, -14.08, 97.4483, -51.5278, 44.0335
1.7, 2, 35.9151, 48.1278, -14.08, 97.4483, -51.5278, 44.0335
1.704, 2, 35.9151, 48.1278, -14.08, 97.4483, -51.5278, 44.0335
1.708, 2, 35.9151, 48.1278, -14.08, 97.4483, -51.5278, 44.0335
1.712, 2, 35.9151, 48.1278, -14.08, 97.4483, -51.5278, 44.0335
1.716, 2, 35.9151, 48.1278, -14.08, 97.4483, -51.5278, 44.0335
1.72, 2, 35.9151, 48.1278, -14.08, 97.4483, -51.5278, 44.0335
1.724, 2, 35.9151, 48.1278, -14.08, 97.4483, -51.5278, 44.0335
1.728, 2, 35.9151, 48.1278, -14.08, 97.4483, -51.5278, 44.0335
1.732, 2, 35.9151, 48.1278, -14.08, 97.4483, -51.5278, 44.0335
1.736, 2, 35.9151, 48.1278, -14.08, 97.4483, -51.5278, 44.0335
1.74, 2, 35.9151, 48.1278, -14.08, 97.4483, -51.5278, 44.0335
1.744, 2, 35.9151, 48.1278, -14.08, 97.4483, -51.5278, 44.0335
1.748, 2, 35.9151, 48.1278, -14.08, 97.4483, -51.5278, 44.0335
1.752, 2, 35.9151, 48.1278, -14.08, 97.4483, -51.5278, 44.0335
1.756, 2, 35.9151, 48.1278, -14.08, 97.4483, -51.5278, 44.0335
1.76, 2, 35.9151, 48.1278, -14.08, 97.4483, -51.5278, 44.0335
1.764, 2, 35.9151, 48.1278, -14.08, 97.4483, -51.5278, 44.0335
1.768, 2, 35.9151, 48.1278, -14.08, 97.4483, -51.5278, 44.0335
1.772, 2, 35.9151, 48.1278, -14.08, 97.4483, -51.5278, 44.0335
1.776, 2, 35.9151, 48.1278, -14.08, 97.4483, -51.5278, 44.0335
1.78, 2, 35.9151, 48.1278, -14.08, 97.4483, -51.5278, 44.0335
1.784, 2, 35.9151, 48.1278, -14.08, 97.4483, -51.5278, 44.0335
1.788, 2, 35.9151, 48.1278, -14.08, 97.4483, -51.5278, 44.0335
1.792, 2, 35.9151, 48.1278, -14.08, 97.4483, -51.5278, 44.0335
1.796, 2, 35.9151, 48.1278, -14.08, 97.4483, -51.5278, 44.0335
1.8, 2, 35.9151, 48.1278, -14.08, 97.4483, -51.5278, 44.0335
1.804, 2, 35.9151, 48.1278, -14.08, 97.4483, -51.5278, 44.0335
1.808, 2, 35.9151, 48.1278, -14.08, 97.4483, -51.5278, 44.0335
1.812, 2, 35.9151, 48.1278, -14.08, 97.4483, -51.5278, 44.0335
1.816, 2, 35.9151, 48.1278, -14.08, 97.4483, -51.5278, 44.0335
1.82, 2, 35.9151, 48.1278, -14.08, 97.4483, -51.5278, 44.0335
1.824, 2, 35.9151, 48.1278, -14.08, 97.4483, -51.5278, 44.0335
1.828, 2, 35.9151, 48.1278, -14.08, 97.4483, -51.5278, 44.0335
1.832, 2, 35.9151, 48.1278, -14.08, 97.4483, -51.5278, 44.0335
1.836, 2, 35.9151, 48.1278, -14.08, 97.4483, -51.5278, 44.0335
1.84, 2, 35.9151, 48.1278, -14.08, 97.4483, -51.5278, 44.0335
1.844, 2, 35.9151, 48.1278, -14.08, 97.4483, -51.5278, 44.0335
1.848, 2, 35.9151, 48.1278, -14.08, 97.4483, -51.5278, 44.0335
1.852, 2, 35.9151, 48.1278, -14.08, 97.4483, -51.5278, 44.0335
1.856, 2, 35.9151, 48.1278, -14.08, 97.4483, -51.5278, 44.0335
1.86, 2, 35.9151, 48.1278, -14.08, 97.4483, -51.5278, 44.0335
1.864, 2, 35.9151, 48.1278, -14.08, 97.4483, -51.5278, 44.0335
1.868, 2, 35.9151, 48.1278, -14.08, 97.4483, -51.5278, 44.0335
1.872, 2, 35.9151, 48.1278, -14.08, 97.4483, -51.5278, 44.0335
1.876, 2, 35.9151, 48.1278, -14.08, 97.4483, -51.5278, 44.0335
1.88, 2, 35.9151, 48.1278, -14.08, 97.4483, -51.5278, 44.0335
1.884, 2, 35.9151, 48.1278, -14.08, 97.4483, -51.5278, 44.0335
1.888, 2, 35.9151, 48.1278, -14.08, 97.4483, -51.5278, 44.0335
1.892, 2, 35.9151, 48.1278, -14.08, 97.4483, -51.5278, 44.0335
1.896, 2, 35.9151, 48.1278, -14.08, 97.4483, -51.5278, 44.0335
1.9, 2, 35.9151, 48.1278, -14.08, 97.4483, -51.5278, 44.0335
1.904, 2, 35.9151, 48.1278, -14.08, 97.4483, -51.5278, 44.0335
1.908, 2, 35.9151, 48.1278, -14.08, 97.4483, -51.5278, 44.0335
1.912, 2, 35.9151, 48.1278, -14.08, 97.4483, -51.5278, 44.0335
1.916, 2, 35.9151, 48.1278, -14.08, 97.4483, -51.5278, 44.0335
1.92, 2, 35.9151, 48.1278, -14.08, 97.4483, -51.5278, 44.0335
1.924, 2, 35.9151, 48.1278, -14.08, 97.4483, -51.5278, 44.0335
1.928, 2, 35.9151, 48.1278, -14.08, 97.4483, -51.5278, 44.0335
1.932, 2, 35.9151, 48.1278, -14.08, 97.4483, -51.5278, 44.0335
1.936, 2, 35.9151, 48.1278, -14.08, 97.4483, -51.5278, 44.0335
1.94, 2, 35.9151, 48.1278, -14.08, 97.4483, -51.5278, 44.0335
1.944, 2, 35.9151, 48.1278, -14.08, 97.4483, -51.5278, 44.0335
1.948, 2, 35.9151, 48.1278, -14.08, 97.4483, -51.5278, 44.0335
1.952, 2, 35.9151, 48.1278, -14.08, 97.4483, -51.5278, 44.0335
1.956, 2, 35.9151, 48.1278, -14.08, 97.4483, -51.5278, 44.0335
1.96, 2, 35.9151, 48.1278, -14.08, 97.4483, -51.5278, 44.0335
1.964, 2, 35.9151, 48.1278, -14.08, 97.4483, -51.5278, 44.0335
1.968, 2, 35.9151, 48.1278, -14.08, 97.4483, -51.5278, 44.0335
1.972, 2, 35.9151, 48.1278, -14.08, 97.4483, -51.5278, 44.0335
1.976, 2, 35.9151, 48.1278, -14.08, 97.4483, -51.5278, 44.0335
1.98, 2, 35.9151, 48.1278, -14.08, 97.4483, -51.5278, 44.0335
1.984, 2, 35.9151, 48.1278, -14.08, 97.4483, -51.5278, 44.0335
1.988, 2, 35.9151, 48.1278, -14.08, 97.4483, -51.5278, 44.0335
1.992, 2, 35.9151, 48.1278, -14.08, 97.4483, -51.5278, 44.0335
1.996, 2, 35.9151, 48.1278, -14.08, 97.4483, -51.5278, 44.0335
1.999, 2, 35.9151, 48.1278, -14.08, 97.4483, -51.5278, 44.0335
2.004, 2, 35.9151, 48.1278, -14.08, 97.4483, -51.5278, 44.0335
2.008, 2, 35.9151, 48.1278, -14.08, 97.4483, -51.5278, 44.0335
2.012, 2, 35.9151, 48.1278, -14.08, 97.4483, -51.5278, 44.0335
2.015, 2, 35.9151, 48.1278, -14.08, 97.4483, -51.5278, 44.0335
2.019, 2, 35.9151, 48.1278, -14.08, 97.4483, -51.5278, 44.0335
2.024, 2, 35.9151, 48.1278, -14.08, 97.4483, -51.5278, 44.0335
2.028, 2, 35.9151, 48.1278, -14.08, 97.4483, -51.5278, 44.0335
2.031, 2, 35.9151, 48.1278, -14.08, 97.4483, -51.5278, 44.0335
2.036, 4, 35.9151, 48.1278, -14.08, 97.4483, -51.5278, 44.0335
2.04, 4, 35.9151, 48.1278, -14.08, 97.4483, -51.5278, 44.0335
2.044, 4, 35.9151, 48.1278, -14.08, 97.4483, -51.5278, 44.0335
2.048, 4, 35.9151, 48.1278, -14.08, 97.4483, -51.5278, 44.0335
2.051, 4, 35.9151, 48.1278, -14.08, 97.4483, -51.5278, 44.0335
2.055, 4, 35.9151, 48.1278, -14.08, 97.4483, -51.5278, 44.0335
2.06, 4, 35.9151, 48.1278, -14.08, 97.4483, -51.5278, 44.0335
2.064, 4, 35.9151, 48.1278, -14.08, 97.4483, -51.5278, 44.0335
2.068, 4, 35.9151, 48.1278, -14.08, 97.4483, -51.5278, 44.0335
2.071, 4, 35.9151, 48.1278, -14.08, 97.4483, -51.5278, 44.0335
2.076, 4, 35.9151, 48.1278, -14.08, 97.4483, -51.5278, 44.0335
2.08, 4, 35.9151, 48.1278, -14.08, 97.4483, -51.5278, 44.0335
2.084, 4, 35.9151, 48.1278, -14.08, 97.4483, -51.5278, 44.0335
2.087, 4, 35.9151, 48.1278, -14.08, 97.4483, -51.5278, 44.0335
2.092, 4, 35.9151, 48.1278, -14.08, 97.4483, -51.5278, 44.0335
2.096, 4, 35.9151, 48.1278, -14.08, 97.4483, -51.5278, 44.0335
2.1, 4, 35.9151, 48.1278, -14.08, 97.4483, -51.5278, 44.0335
2.104, 4, 35.9151, 48.1278, -14.08, 97.4483, -51.5278, 44.0335
2.107, 4, 35.9151, 48.1278, -14.08, 97.4483, -51.5278, 44.0335
2.111, 4, 35.9151, 48.1278, -14.08, 97.4483, -51.5278, 44.0335
2.116, 4, 35.9151, 48.1278, -14.08, 97.4483, -51.5278, 44.0335
2.12, 4, 35.9151, 48.1278, -14.08, 97.4483, -51.5278, 44.0335
2.124, 4, 35.9151, 48.1278, -14.08, 97.4483, -51.5278, 44.0335
2.127, 4, 35.9151, 48.1278, -14.08, 97.4483, -51.5278, 44.0335
2.132, 4, 35.9151, 48.1278, -14.08, 97.4483, -51.5278, 44.0335
2.136, 4, 35.9151, 48.1278, -14.08, 97.4483, -51.5278, 44.0335
2.142, 4, 35.9151, 48.1278, -14.08, 97.4483, -51.5278, 44.0335
2.144, 4, 35.9151, 48.1278, -14.08, 97.4483, -51.5278, 44.0335
2.147, 4, 35.9151, 48.1278, -14.08, 97.4483, -51.5278, 44.0335
2.152, 4, 35.9151, 48.1278, -14.08, 97.4483, -51.5278, 44.0335
2.156, 4, 35.9151, 48.1278, -14.08, 97.4483, -51.5278, 44.0335
2.16, 4, 35.9151, 48.1278, -14.08, 97.4483, -51.5278, 44.0335
2.163, 4, 35.9151, 48.1278, -14.08, 97.4483, -51.5278, 44.0335
2.168, 4, 35.9151, 48.1278, -14.08, 97.4483, -51.5278, 44.0335
2.172, 4, 35.9151, 48.1278, -14.08, 97.4483, -51.5278, 44.0335
2.176, 4, 35.9151, 48.128, -14.08, 97.4483, -51.5279, 44.0335
2.179, 4, 35.915, 48.1283, -14.0801, 97.4483, -51.5279, 44.0335
2.184, 4, 35.9147, 48.1291, -14.0801, 97.4483, -51.528, 44.0334
2.188, 4, 35.9143, 48.1303, -14.0802, 97.4483, -51.5284, 44.0332
2.192, 4, 35.9138, 48.1322, -14.0804, 97.4484, -51.5291, 44.0327
2.196, 4, 35.913, 48.1349, -14.0806, 97.4485, -51.5305, 44.0319
2.199, 4, 35.912, 48.1383, -14.0811, 97.4487, -51.5329, 44.0304
2.204, 4, 35.9108, 48.1429, -14.0818, 97.449, -51.5367, 44.028
2.208, 5, 35.9093, 48.1486, -14.0828, 97.4495, -51.5425, 44.0244
2.212, 5, 35.9077, 48.1557, -14.0842, 97.4501, -51.551, 44.0192
2.216, 5, 35.9059, 48.1645, -14.0861, 97.451, -51.5629, 44.0118
2.219, 5, 35.9038, 48.1752, -14.0886, 97.4523, -51.5792, 44.0018
2.224, 5, 35.9015, 48.1878, -14.0919, 97.4538, -51.6006, 43.9885
2.228, 5, 35.8991, 48.2024, -14.096, 97.4558, -51.6284, 43.9714
2.232, 5, 35.8967, 48.2188, -14.1012, 97.4583, -51.6634, 43.9499
2.235, 5, 35.8942, 48.2368, -14.1074, 97.4613, -51.7065, 43.9234
2.24, 5, 35.8918, 48.2566, -14.1148, 97.4648, -51.7586, 43.8914
2.244, 5, 35.8895, 48.2781, -14.1234, 97.4689, -51.8201, 43.8537
2.248, 5, 35.8872, 48.3013, -14.1333, 97.4735, -51.8915, 43.81
2.252, 5, 35.8849, 48.3264, -14.1444, 97.4786, -51.9729, 43.7604
2.255, 5, 35.8827, 48.3534, -14.1568, 97.4842, -52.0641, 43.7048
2.26, 5, 35.8804, 48.3824, -14.1703, 97.4902, -52.1648, 43.6435
2.266, 5, 35.8781, 48.4131, -14.1849, 97.4965, -52.2746, 43.5768
2.268, 5, 35.8758, 48.4456, -14.2005, 97.5031, -52.3927, 43.5053
2.272, 5, 35.8734, 48.4798, -14.217, 97.5098, -52.5184, 43.4293
2.275, 5, 35.8708, 48.5157, -14.2341, 97.5166, -52.6507, 43.3495
2.28, 5, 35.8681, 48.5534, -14.2519, 97.5234, -52.7886, 43.2666
2.284, 5, 35.8652, 48.5928, -14.2701, 97.53, -52.9312, 43.181
2.288, 5, 35.8619, 48.6338, -14.2886, 97.5365, -53.0776, 43.0935
2.291, 5, 35.8583, 48.6763, -14.3073, 97.5426, -53.2269, 43.0044
2.296, 5, 35.8544, 48.7202, -14.3262, 97.5485, -53.3784, 42.9143
2.3, 5, 35.8502, 48.7652, -14.345, 97.554, -53.5317, 42.8235
2.304, 5, 35.8458, 48.811, -14.3638, 97.5591, -53.6861, 42.7322
2.308, 5, 35.8411, 48.8574, -14.3824, 97.5638, -53.8415, 42.6407
2.311, 5, 35.8362, 48.9044, -14.4009, 97.568, -53.9975, 42.5491
2.316, 5, 35.8312, 48.9516, -14.4193, 97.5718, -54.1539, 42.4576
2.32, 5, 35.8259, 48.9991, -14.4374, 97.5752, -54.3106, 42.3662
2.324, 5, 35.8206, 49.0467, -14.4552, 97.5781, -54.4674, 42.275
2.328, 5, 35.8151, 49.0944, -14.4728, 97.5805, -54.6243, 42.1841
2.331, 5, 35.8095, 49.1421, -14.4902, 97.5824, -54.7813, 42.0934
2.336, 5, 35.8037, 49.1897, -14.5073, 97.5839, -54.9382, 42.0031
2.34, 5, 35.7979, 49.2373, -14.5241, 97.5849, -55.0951, 41.913
2.344, 5, 35.792, 49.2847, -14.5406, 97.5854, -55.2519, 41.8233
2.347, 5, 35.786, 49.3321, -14.5569, 97.5855, -55.4087, 41.7339
2.352, 5, 35.7799, 49.3793, -14.5729, 97.5852, -55.5654, 41.6448
2.356, 5, 35.7737, 49.4263, -14.5886, 97.5844, -55.722, 41.556
2.36, 5, 35.7674, 49.4732, -14.604, 97.5831, -55.8786, 41.4675
2.364, 5, 35.761, 49.52, -14.6192, 97.5814, -56.035, 41.3794
2.367, 5, 35.7545, 49.5667, -14.6341, 97.5793, -56.1914, 41.2915
2.372, 5, 35.748, 49.6131, -14.6486, 97.5767, -56.3477, 41.204
2.376, 5, 35.7413, 49.6595, -14.6629, 97.5737, -56.504, 41.1167
2.38, 5, 35.7346, 49.7057, -14.677, 97.5702, -56.6601, 41.0298
2.383, 5, 35.7278, 49.7517, -14.6907, 97.5663, -56.8162, 40.9432
2.388, 5, 35.7209, 49.7976, -14.7041, 97.562, -56.9721, 40.8568
2.392, 5, 35.7139, 49.8433, -14.7173, 97.5573, -57.128, 40.7708
2.396, 5, 35.7068, 49.8888, -14.7302, 97.5522, -57.2838, 40.685
2.4, 5, 35.6996, 49.9342, -14.7428, 97.5466, -57.4395, 40.5996
2.403, 5, 35.6924, 49.9795, -14.7551, 97.5406, -57.5951, 40.5144
2.408, 5, 35.6851, 50.0246, -14.7671, 97.5342, -57.7506, 40.4295
2.412, 5, 35.6776, 50.0695, -14.7788, 97.5275, -57.9061, 40.3448
2.416, 5, 35.6701, 50.1143, -14.7902, 97.5203, -58.0614, 40.2605
2.42, 5, 35.6625, 50.1589, -14.8014, 97.5127, -58.2167, 40.1764
2.423, 5, 35.6548, 50.2034, -14.8122, 97.5047, -58.3718, 40.0926
2.428, 5, 35.6471, 50.2477, -14.8228, 97.4963, -58.5269, 40.009
2.432, 5, 35.6392, 50.2918, -14.8331, 97.4875, -58.6819, 39.9257
2.436, 5, 35.6313, 50.3358, -14.8431, 97.4783, -58.8368, 39.8427
2.439, 5, 35.6233, 50.3796, -14.8528, 97.4688, -58.9916, 39.7599
2.444, 5, 35.6152, 50.4232, -14.8622, 97.4588, -59.1463, 39.6774
2.448, 5, 35.607, 50.4667, -14.8713, 97.4485, -59.301, 39.5951
2.452, 5, 35.5987, 50.51, -14.8801, 97.4378, -59.4555, 39.5131
2.456, 5, 35.5903, 50.5531, -14.8886, 97.4267, -59.61, 39.4314
2.459, 5, 35.5819, 50.5961, -14.8968, 97.4153, -59.7643, 39.3498
2.464, 5, 35.5734, 50.6389, -14.9048, 97.4035, -59.9186, 39.2685
2.468, 5, 35.5647, 50.6816, -14.9124, 97.3913, -60.0728, 39.1875
2.472, 5, 35.556, 50.724, -14.9198, 97.3787, -60.2268, 39.1067
2.476, 5, 35.5473, 50.7663, -14.9268, 97.3658, -60.3808, 39.0261
2.479, 5, 35.5384, 50.8085, -14.9336, 97.3525, -60.5347, 38.9457
2.484, 5, 35.5295, 50.8504, -14.94, 97.3388, -60.6886, 38.8656
2.488, 5, 35.5204, 50.8922, -14.9462, 97.3248, -60.8423, 38.7857
2.492, 5, 35.5113, 50.9339, -14.952, 97.3105, -60.9959, 38.7061
2.495, 5, 35.5021, 50.9753, -14.9576, 97.2958, -61.1494, 38.6266
2.5, 5, 35.4928, 51.0166, -14.9628, 97.2807, -61.3029, 38.5474
2.504, 5, 35.4835, 51.0577, -14.9678, 97.2653, -61.4562, 38.4683
2.508, 5, 35.474, 51.0986, -14.9724, 97.2496, -61.6094, 38.3895
2.512, 5, 35.4645, 51.1394, -14.9768, 97.2335, -61.7626, 38.3109
2.515, 5, 35.4549, 51.18, -14.9809, 97.217, -61.9157, 38.2326
2.52, 5, 35.4452, 51.2203, -14.9846, 97.2003, -62.0686, 38.1544
2.524, 5, 35.4354, 51.2606, -14.988, 97.1831, -62.2215, 38.0764
2.528, 5, 35.4255, 51.3006, -14.9912, 97.1657, -62.3743, 37.9986
2.531, 5, 35.4156, 51.3405, -14.994, 97.1479, -62.527, 37.9211
2.536, 5, 35.4055, 51.3802, -14.9966, 97.1298, -62.6795, 37.8437
2.54, 5, 35.3954, 51.4197, -14.9988, 97.1114, -62.832, 37.7665
2.544, 5, 35.3852, 51.459, -15.0007, 97.0926, -62.9844, 37.6895
2.548, 5, 35.375, 51.4982, -15.0023, 97.0735, -63.1367, 37.6127
2.551, 5, 35.3646, 51.5371, -15.0036, 97.0541, -63.2889, 37.5361
2.556, 5, 35.3542, 51.5759, -15.0046, 97.0344, -63.441, 37.4597
2.56, 5, 35.3436, 51.6145, -15.0053, 97.0144, -63.593, 37.3834
2.564, 5, 35.333, 51.6529, -15.0057, 96.994, -63.745, 37.3074
2.568, 5, 35.3224, 51.6912, -15.0057, 96.9733, -63.8968, 37.2315
2.571, 5, 35.3116, 51.7292, -15.0055, 96.9523, -64.0485, 37.1558
2.576, 5, 35.3007, 51.7671, -15.0049, 96.931, -64.2001, 37.0803
2.58, 5, 35.2898, 51.8047, -15.0041, 96.9094, -64.3516, 37.0049
2.584, 5, 35.2788, 51.8422, -15.0029, 96.8875, -64.5031, 36.9298
2.587, 5, 35.2677, 51.8795, -15.0014, 96.8653, -64.6544, 36.8547
2.592, 5, 35.2566, 51.9167, -14.9996, 96.8428, -64.8057, 36.7799
2.596, 5, 35.2453, 51.9536, -14.9974, 96.82, -64.9568, 36.7052
2.6, 5, 35.234, 51.9903, -14.995, 96.7969, -65.1079, 36.6307
2.604, 5, 35.2226, 52.0269, -14.9923, 96.7734, -65.2588, 36.5563
2.607, 5, 35.2111, 52.0632, -14.9892, 96.7497, -65.4097, 36.4821
2.612, 5, 35.1995, 52.0994, -14.9858, 96.7257, -65.5605, 36.4081
2.616, 5, 35.1879, 52.1354, -14.9821, 96.7014, -65.7112, 36.3342
2.62, 5, 35.1761, 52.1712, -14.9781, 96.6768, -65.8617, 36.2604
2.624, 5, 35.1643, 52.2068, -14.9738, 96.6519, -66.0122, 36.1869
2.627, 5, 35.1524, 52.2422, -14.9692, 96.6268, -66.1627, 36.1134
2.632, 5, 35.1404, 52.2774, -14.9643, 96.6013, -66.313, 36.0401
2.636, 5, 35.1284, 52.3124, -14.959, 96.5756, -66.4632, 35.967
2.64, 5, 35.1163, 52.3473, -14.9534, 96.5496, -66.6133, 35.894
2.643, 5, 35.1041, 52.3819, -14.9476, 96.5233, -66.7633, 35.8211
2.648, 5, 35.0918, 52.4164, -14.9414, 96.4967, -66.9133, 35.7484
2.652, 5, 35.0794, 52.4506, -14.9349, 96.4699, -67.0631, 35.6758
2.656, 5, 35.067, 52.4847, -14.9281, 96.4428, -67.2129, 35.6033
2.66, 5, 35.0545, 52.5186, -14.9209, 96.4154, -67.3626, 35.531
2.663, 5, 35.0419, 52.5522, -14.9135, 96.3877, -67.5121, 35.4588
2.668, 5, 35.0292, 52.5857, -14.9058, 96.3598, -67.6616, 35.3867
2.672, 5, 35.0164, 52.619, -14.8977, 96.3315, -67.811, 35.3148
2.676, 5, 35.0036, 52.6521, -14.8893, 96.3031, -67.9603, 35.243
2.679, 5, 34.9907, 52.685, -14.8806, 96.2743, -68.1095, 35.1713
2.684, 5, 34.9777, 52.7177, -14.8716, 96.2453, -68.2586, 35.0997
2.688, 5, 34.9647, 52.7502, -14.8623, 96.216, -68.4077, 35.0283
2.692, 5, 34.9515, 52.7825, -14.8527, 96.1865, -68.5566, 34.957
2.696, 5, 34.9383, 52.8146, -14.8428, 96.1567, -68.7054, 34.8858
2.699, 5, 34.925, 52.8465, -14.8325, 96.1267, -68.8542, 34.8147
2.704, 5, 34.9117, 52.8783, -14.822, 96.0964, -69.0029, 34.7437
2.708, 5, 34.8982, 52.9098, -14.8111, 96.0658, -69.1514, 34.6729
2.712, 5, 34.8847, 52.9411, -14.7999, 96.035, -69.2999, 34.6021
2.716, 5, 34.8711, 52.9722, -14.7884, 96.0039, -69.4483, 34.5315
2.719, 5, 34.8575, 53.0031, -14.7766, 95.9726, -69.5966, 34.4609
2.724, 5, 34.8437, 53.0339, -14.7645, 95.9411, -69.7448, 34.3905
2.728, 5, 34.8299, 53.0644, -14.7521, 95.9092, -69.8929, 34.3202
2.732, 5, 34.816, 53.0947, -14.7393, 95.8772, -70.041, 34.25
2.735, 5, 34.8021, 53.1248, -14.7263, 95.8449, -70.1889, 34.1799
2.74, 5, 34.788, 53.1547, -14.7129, 95.8123, -70.3368, 34.1098
2.744, 5, 34.7739, 53.1845, -14.6992, 95.7795, -70.4845, 34.0399
2.748, 5, 34.7597, 53.214, -14.6852, 95.7465, -70.6322, 33.9701
2.752, 5, 34.7455, 53.2433, -14.6709, 95.7132, -70.7798, 33.9004
2.755, 5, 34.7311, 53.2724, -14.6563, 95.6797, -70.9272, 33.8307
2.76, 5, 34.7167, 53.3013, -14.6413, 95.6459, -71.0746, 33.7612
2.764, 5, 34.7022, 53.33, -14.6261, 95.6119, -71.2219, 33.6917
2.768, 5, 34.6877, 53.3585, -14.6105, 95.5777, -71.3692, 33.6224
2.772, 5, 34.6732, 53.3866, -14.5946, 95.5432, -71.5163, 33.5531
2.775, 5, 34.659, 53.4143, -14.5784, 95.5085, -71.6633, 33.4839
2.78, 5, 34.6452, 53.4413, -14.5619, 95.4736, -71.81, 33.4149
2.784, 5, 34.6319, 53.4673, -14.5451, 95.4386, -71.9564, 33.3461
2.788, 5, 34.6194, 53.492, -14.528, 95.4034, -72.1022, 33.2776
2.791, 5, 34.6076, 53.5155, -14.5107, 95.3683, -72.2469, 33.2096
2.796, 5, 34.5964, 53.5377, -14.4933, 95.3334, -72.39, 33.1425
2.8, 5, 34.5855, 53.5586, -14.4758, 95.2987, -72.5308, 33.0764
2.804, 5, 34.5747, 53.5785, -14.4582, 95.2647, -72.6684, 33.012
2.808, 5, 34.5637, 53.5975, -14.4407, 95.2312, -72.802, 32.9496
2.811, 5, 34.5521, 53.6158, -14.423, 95.1986, -72.9307, 32.89
2.816, 5, 34.5397, 53.6334, -14.4052, 95.1668, -73.0536, 32.8337
2.82, 6, 34.5262, 53.6503, -14.3868, 95.1356, -73.17, 32.7814
2.824, 6, 34.5116, 53.6665, -14.3675, 95.1049, -73.2795, 32.7339
2.828, 6, 34.4958, 53.6819, -14.3469, 95.0743, -73.3817, 32.6918
2.831, 6, 34.4789, 53.6964, -14.3243, 95.0433, -73.4768, 32.6558
2.836, 6, 34.4611, 53.71, -14.2991, 95.0114, -73.5649, 32.6261
2.84, 6, 34.4429, 53.7223, -14.2707, 94.978, -73.6467, 32.6032
2.844, 6, 34.4245, 53.7332, -14.2384, 94.9424, -73.723, 32.5872
2.847, 6, 34.406, 53.7423, -14.2016, 94.9041, -73.7948, 32.578
2.852, 6, 34.3879, 53.7492, -14.16, 94.8624, -73.8632, 32.5755
2.856, 6, 34.37, 53.7537, -14.113, 94.8171, -73.9292, 32.5793
2.86, 6, 34.3524, 53.7557, -14.0605, 94.7677, -73.994, 32.589
2.864, 6, 34.335, 53.7548, -14.0025, 94.7142, -74.0586, 32.6039
2.867, 6, 34.3179, 53.7513, -13.9392, 94.6565, -74.1237, 32.6234
2.872, 6, 34.301, 53.7451, -13.8708, 94.5948, -74.1899, 32.6468
2.876, 6, 34.2842, 53.7366, -13.7977, 94.5295, -74.2577, 32.6734
2.88, 6, 34.2674, 53.7261, -13.7206, 94.461, -74.3271, 32.7026
2.883, 6, 34.2503, 53.7141, -13.6399, 94.3897, -74.3983, 32.7338
2.888, 6, 34.2327, 53.7008, -13.5563, 94.3161, -74.471, 32.7665
2.892, 6, 34.2144, 53.6869, -13.4703, 94.2407, -74.5451, 32.8003
2.896, 6, 34.1953, 53.6724, -13.3825, 94.164, -74.6202, 32.8349
2.9, 6, 34.1753, 53.6577, -13.2933, 94.0863, -74.6961, 32.8699
2.903, 6, 34.1545, 53.6429, -13.2031, 94.008, -74.7726, 32.9052
2.908, 6, 34.1329, 53.6279, -13.1121, 93.9293, -74.8495, 32.9407
2.912, 6, 34.1107, 53.6128, -13.0206, 93.8502, -74.9267, 32.9762
2.916, 6, 34.0881, 53.5977, -12.9286, 93.771, -75.0042, 33.0116
2.92, 6, 34.0653, 53.5823, -12.8364, 93.6917, -75.0817, 33.047
2.923, 6, 34.0422, 53.5669, -12.7439, 93.6123, -75.1594, 33.0824
2.928, 6, 34.019, 53.5513, -12.6512, 93.5329, -75.2373, 33.1175
2.932, 6, 33.9956, 53.5356, -12.5583, 93.4535, -75.3151, 33.1526
2.936, 6, 33.9721, 53.5198, -12.4653, 93.3741, -75.3931, 33.1875
2.939, 6, 33.9486, 53.5038, -12.3722, 93.2947, -75.4711, 33.2222
2.944, 6, 33.9249, 53.4877, -12.279, 93.2154, -75.5491, 33.2568
2.948, 6, 33.9012, 53.4715, -12.1856, 93.1361, -75.6272, 33.2912
2.952, 6, 33.8775, 53.4551, -12.0921, 93.0568, -75.7053, 33.3255
2.956, 6, 33.8536, 53.4386, -11.9986, 92.9776, -75.7835, 33.3596
2.959, 6, 33.8298, 53.4219, -11.9049, 92.8984, -75.8617, 33.3935
2.964, 6, 33.8058, 53.4051, -11.8111, 92.8193, -75.9399, 33.4272
2.968, 6, 33.7818, 53.3882, -11.7173, 92.7402, -76.0182, 33.4608
2.972, 6, 33.7578, 53.3712, -11.6233, 92.6611, -76.0965, 33.4942
2.976, 6, 33.7337, 53.354, -11.5292, 92.5821, -76.1749, 33.5274
2.98, 6, 33.7096, 53.3366, -11.4351, 92.5032, -76.2533, 33.5605
2.984, 6, 33.6854, 53.3191, -11.3408, 92.4242, -76.3317, 33.5934
2.988, 6, 33.6612, 53.3015, -11.2465, 92.3453, -76.4102, 33.6261
2.992, 6, 33.6369, 53.2838, -11.1521, 92.2665, -76.4887, 33.6586
2.995, 6, 33.6125, 53.2659, -11.0575, 92.1877, -76.5673, 33.6909
3, 6, 33.5881, 53.2478, -10.9629, 92.109, -76.6458, 33.7231
3.004, 6, 33.5637, 53.2297, -10.8682, 92.0303, -76.7244, 33.7551
3.008, 6, 33.5392, 53.2114, -10.7734, 91.9516, -76.8031, 33.7869
3.012, 6, 33.5147, 53.1929, -10.6785, 91.873, -76.8818, 33.8186
3.015, 6, 33.4901, 53.1744, -10.5836, 91.7944, -76.9605, 33.8501
3.02, 6, 33.4654, 53.1556, -10.4885, 91.7158, -77.0392, 33.8813
3.024, 6, 33.4408, 53.1368, -10.3933, 91.6373, -77.118, 33.9124
3.028, 6, 33.416, 53.1178, -10.2981, 91.5589, -77.1969, 33.9434
3.031, 6, 33.3914, 53.0986, -10.2028, 91.4804, -77.2757, 33.9741
3.036, 6, 33.3669, 53.0793, -10.1074, 91.4021, -77.3546, 34.0047
3.04, 6, 33.3428, 53.0599, -10.012, 91.3238, -77.4334, 34.035
3.044, 6, 33.3193, 53.0402, -9.91673, 91.2456, -77.5122, 34.0652
3.048, 6, 33.2964, 53.0204, -9.82164, 91.1677, -77.5909, 34.0951
3.051, 6, 33.2743, 53.0005, -9.72697, 91.0901, -77.6692, 34.1247
3.056, 6, 33.2529, 52.9805, -9.63301, 91.0131, -77.7469, 34.1539
3.06, 6, 33.2323, 52.9605, -9.54013, 90.937, -77.8238, 34.1827
3.064, 6, 33.2124, 52.9406, -9.44875, 90.8622, -77.8995, 34.2108
3.068, 6, 33.193, 52.921, -9.35938, 90.789, -77.9735, 34.2382
3.071, 6, 33.1742, 52.9019, -9.27257, 90.718, -78.0454, 34.2646
3.076, 6, 33.156, 52.8834, -9.18889, 90.6496, -78.1147, 34.29
3.08, 6, 33.1385, 52.8656, -9.10891, 90.5842, -78.1809, 34.3141
3.084, 6, 33.1217, 52.8489, -9.03316, 90.5224, -78.2436, 34.3368
3.087, 6, 33.1058, 52.8331, -8.96216, 90.4645, -78.3023, 34.358
3.092, 6, 33.0906, 52.8186, -8.89633, 90.411, -78.3567, 34.3776
3.096, 6, 33.0762, 52.8054, -8.83601, 90.362, -78.4065, 34.3954
3.1, 6, 33.0625, 52.7936, -8.78143, 90.3178, -78.4514, 34.4114
3.104, 6, 33.0495, 52.7833, -8.73268, 90.2785, -78.4915, 34.4256
3.107, 6, 33.0372, 52.7743, -8.68975, 90.244, -78.5266, 34.4381
3.112, 6, 33.0255, 52.7668, -8.65247, 90.2142, -78.557, 34.4488
3.116, 6, 33.0147, 52.7605, -8.62057, 90.1889, -78.5829, 34.4579
3.12, 6, 33.0048, 52.7554, -8.59368, 90.1676, -78.6047, 34.4655
3.124, 6, 32.9959, 52.7513, -8.57137, 90.1501, -78.6227, 34.4717
3.128, 6, 32.9879, 52.748, -8.55314, 90.1359, -78.6373, 34.4768
3.132, 6, 32.9809, 52.7455, -8.5385, 90.1245, -78.649, 34.4808
3.136, 6, 32.9747, 52.7436, -8.52695, 90.1156, -78.6581, 34.484
3.14, 6, 32.9692, 52.7423, -8.51802, 90.1088, -78.6652, 34.4864
3.143, 6, 32.9642, 52.7414, -8.51124, 90.1037, -78.6705, 34.4882
3.148, 6, 32.9599, 52.7407, -8.5062, 90.1, -78.6743, 34.4895
3.152, 7, 32.9561, 52.7404, -8.50254, 90.0974, -78.6771, 34.4905
3.156, 7, 32.953, 52.7401, -8.49993, 90.0955, -78.6791, 34.4911
3.16, 7, 32.9506, 52.74, -8.49811, 90.0942, -78.6805, 34.4916
3.163, 7, 32.9487, 52.7399, -8.49685, 90.0933, -78.6814, 34.4919
3.168, 7, 32.9474, 52.7399, -8.49599, 90.0927, -78.682, 34.4921
3.172, 7, 32.9465, 52.7398, -8.49541, 90.0923, -78.6824, 34.4923
3.176, 7, 32.9459, 52.7398, -8.49502, 90.092, -78.6827, 34.4924
3.179, 7, 32.9455, 52.7398, -8.49475, 90.0919, -78.6829, 34.4924
3.184, 7, 32.9452, 52.7398, -8.49457, 90.0917, -78.6831, 34.4925
3.188, 7, 32.945, 52.7398, -8.49445, 90.0916, -78.6832, 34.4925
3.192, 7, 32.9449, 52.7398, -8.49436, 90.0916, -78.6832, 34.4925
3.196, 7, 32.9448, 52.7398, -8.49431, 90.0916, -78.6833, 34.4925
3.199, 7, 32.9448, 52.7398, -8.49427, 90.0915, -78.6833, 34.4925
3.204, 7, 32.9447, 52.7398, -8.49424, 90.0915, -78.6833, 34.4925
3.208, 7, 32.9447, 52.7398, -8.49423, 90.0915, -78.6833, 34.4926
3.212, 7, 32.9447, 52.7398, -8.49421, 90.0915, -78.6833, 34.4926
3.216, 7, 32.9447, 52.7398, -8.49421, 90.0915, -78.6833, 34.4926
3.22, 7, 32.9447, 52.7398, -8.4942, 90.0915, -78.6833, 34.4926
3.224, 7, 32.9447, 52.7398, -8.4942, 90.0915, -78.6833, 34.4926
3.228, 7, 32.9447, 52.7398, -8.49419, 90.0915, -78.6833, 34.4926
3.232, 7, 32.9447, 52.7398, -8.49419, 90.0915, -78.6833, 34.4926
3.235, 7, 32.9446, 52.7398, -8.49419, 90.0915, -78.6833, 34.4926
3.24, 7, 32.9446, 52.7398, -8.49419, 90.0915, -78.6833, 34.4926
3.244, 7, 32.9446, 52.7398, -8.49419, 90.0915, -78.6833, 34.4926
3.248, 7, 32.9446, 52.7398, -8.49419, 90.0915, -78.6833, 34.4926
3.252, 7, 32.9446, 52.7398, -8.49419, 90.0915, -78.6833, 34.4926
3.255, 7, 32.9446, 52.7398, -8.49419, 90.0915, -78.6833, 34.4926
3.26, 7, 32.9446, 52.7398, -8.49419, 90.0915, -78.6833, 34.4926
3.264, 7, 32.9446, 52.7398, -8.49419, 90.0915, -78.6833, 34.4926
3.268, 7, 32.9446, 52.7398, -8.49419, 90.0915, -78.6833, 34.4926
