hehonglu123/ABB_Primitive_Study/execution/movec/curve_exe_v500_fine.csv
timestamp, cmd_num, J1, J2, J3, J4, J5, J6
0, -1, 32.9446, 52.7398, -8.49419, 90.0915, -78.6833, 34.4926
0.003, -1, 32.9446, 52.7398, -8.49419, 90.0915, -78.6833, 34.4926
0.004, -1, 32.9446, 52.7398, -8.49419, 90.0915, -78.6833, 34.4926
0.008, -1, 32.9446, 52.7398, -8.49419, 90.0915, -78.6833, 34.4926
0.011, -1, 32.9446, 52.7398, -8.49419, 90.0915, -78.6833, 34.4926
0.016, -1, 32.9446, 52.7398, -8.49419, 90.0915, -78.6833, 34.4926
0.02, -1, 32.9446, 52.7398, -8.49419, 90.0915, -78.6833, 34.4926
0.024, -1, 32.9446, 52.7398, -8.49419, 90.0915, -78.6833, 34.4926
0.028, -1, 32.9446, 52.7398, -8.49419, 90.0915, -78.6833, 34.4926
0.032, -1, 32.9447, 52.7398, -8.49419, 90.0915, -78.6833, 34.4926
0.036, -1, 32.9447, 52.7397, -8.49419, 90.0915, -78.6833, 34.4926
0.04, -1, 32.9449, 52.7396, -8.49419, 90.0915, -78.6833, 34.4926
0.044, -1, 32.9453, 52.7392, -8.49421, 90.0915, -78.6833, 34.4926
0.048, -1, 32.9461, 52.7385, -8.49426, 90.0915, -78.6831, 34.4927
0.052, -1, 32.9474, 52.7371, -8.49437, 90.0917, -78.6826, 34.4928
0.056, -1, 32.9492, 52.7349, -8.4946, 90.0919, -78.6817, 34.4931
0.06, -1, 32.9516, 52.7318, -8.49501, 90.0924, -78.6798, 34.4938
0.064, -1, 32.9544, 52.7277, -8.4957, 90.0932, -78.6767, 34.4949
0.068, -1, 32.9578, 52.7227, -8.49678, 90.0946, -78.6717, 34.4966
0.072, -1, 32.9617, 52.7167, -8.4984, 90.0966, -78.6641, 34.4993
0.076, -1, 32.9661, 52.7097, -8.50073, 90.0995, -78.6532, 34.5031
0.08, -1, 32.9711, 52.7018, -8.50394, 90.1037, -78.6379, 34.5085
0.084, -1, 32.9767, 52.6929, -8.50823, 90.1092, -78.6175, 34.5157
0.088, -1, 32.983, 52.6832, -8.51381, 90.1164, -78.5907, 34.5251
0.092, -1, 32.9898, 52.6726, -8.52089, 90.1256, -78.5567, 34.537
0.096, -1, 32.9971, 52.6615, -8.52966, 90.1371, -78.5143, 34.5519
0.1, -1, 33.0046, 52.6498, -8.54028, 90.151, -78.4629, 34.57
0.104, -1, 33.0124, 52.6377, -8.55288, 90.1675, -78.4018, 34.5915
0.108, -1, 33.0205, 52.6252, -8.56751, 90.1868, -78.3306, 34.6165
0.112, -1, 33.0288, 52.6121, -8.58421, 90.2088, -78.2493, 34.645
0.116, -1, 33.0376, 52.5985, -8.60294, 90.2336, -78.158, 34.6771
0.12, -1, 33.0467, 52.5842, -8.62361, 90.2609, -78.0572, 34.7125
0.124, -1, 33.0563, 52.5693, -8.6461, 90.2906, -77.9475, 34.7511
0.128, -1, 33.0663, 52.5539, -8.67024, 90.3226, -77.8297, 34.7924
0.131, -1, 33.0765, 52.5379, -8.69587, 90.3565, -77.7047, 34.8364
0.136, -1, 33.0871, 52.5214, -8.72276, 90.392, -77.5735, 34.8825
0.139, -1, 33.0981, 52.5041, -8.75072, 90.429, -77.4372, 34.9304
0.144, -1, 33.1095, 52.4858, -8.77954, 90.4671, -77.2967, 34.9797
0.148, -1, 33.1216, 52.4664, -8.80901, 90.506, -77.1531, 35.0302
0.152, -1, 33.1344, 52.4458, -8.83897, 90.5456, -77.0071, 35.0815
0.156, -1, 33.1481, 52.4239, -8.86926, 90.5855, -76.8596, 35.1333
0.16, -1, 33.1624, 52.4009, -8.89978, 90.6258, -76.7111, 35.1855
0.164, -1, 33.1774, 52.3772, -8.93044, 90.6662, -76.562, 35.2379
0.168, -1, 33.1929, 52.3529, -8.96117, 90.7067, -76.4125, 35.2904
0.172, -1, 33.2086, 52.3282, -8.99193, 90.7472, -76.2629, 35.343
0.176, -1, 33.2246, 52.3033, -9.0227, 90.7877, -76.1133, 35.3955
0.18, -1, 33.2406, 52.2782, -9.05345, 90.8282, -75.9638, 35.4481
0.184, -1, 33.2568, 52.2531, -9.08416, 90.8687, -75.8145, 35.5005
0.188, -1, 33.273, 52.2279, -9.11484, 90.9091, -75.6653, 35.5529
0.192, -1, 33.2892, 52.2027, -9.14548, 90.9495, -75.5164, 35.6053
0.196, -1, 33.3054, 52.1775, -9.17607, 90.9897, -75.3677, 35.6575
0.2, -1, 33.3216, 52.1524, -9.2066, 91.03, -75.2192, 35.7097
0.204, -1, 33.3378, 52.1272, -9.23709, 91.0701, -75.071, 35.7617
0.208, -1, 33.354, 52.1021, -9.26752, 91.1102, -74.9231, 35.8137
0.212, -1, 33.3702, 52.077, -9.29789, 91.1502, -74.7754, 35.8656
0.216, -1, 33.3863, 52.052, -9.32821, 91.1901, -74.628, 35.9174
0.22, -1, 33.4024, 52.027, -9.35848, 91.23, -74.4809, 35.9691
0.224, -1, 33.4184, 52.0021, -9.38869, 91.2698, -74.334, 36.0207
0.228, -1, 33.4345, 51.9772, -9.41885, 91.3095, -74.1874, 36.0722
0.232, -1, 33.4505, 51.9523, -9.44895, 91.3492, -74.0411, 36.1236
0.236, -1, 33.4665, 51.9275, -9.479, 91.3887, -73.895, 36.1749
0.24, -1, 33.4825, 51.9028, -9.509, 91.4282, -73.7492, 36.2262
0.244, -1, 33.4984, 51.878, -9.53894, 91.4677, -73.6036, 36.2773
0.248, -1, 33.5143, 51.8533, -9.56883, 91.507, -73.4583, 36.3284
0.252, -1, 33.5302, 51.8287, -9.59867, 91.5463, -73.3133, 36.3793
0.256, -1, 33.546, 51.8041, -9.62845, 91.5855, -73.1685, 36.4302
0.26, -1, 33.5618, 51.7796, -9.65818, 91.6247, -73.024, 36.481
0.264, -1, 33.5776, 51.7551, -9.68785, 91.6638, -72.8797, 36.5317
0.268, -1, 33.5934, 51.7306, -9.71748, 91.7028, -72.7357, 36.5823
0.272, -1, 33.6091, 51.7062, -9.74705, 91.7417, -72.5919, 36.6328
0.276, -1, 33.6248, 51.6818, -9.77657, 91.7806, -72.4484, 36.6832
0.28, -1, 33.6405, 51.6575, -9.80604, 91.8194, -72.3051, 36.7335
0.284, -1, 33.6561, 51.6332, -9.83546, 91.8582, -72.1621, 36.7838
0.288, -1, 33.6718, 51.6089, -9.86483, 91.8969, -72.0193, 36.8339
0.292, -1, 33.6874, 51.5847, -9.89415, 91.9355, -71.8768, 36.884
0.296, -1, 33.7029, 51.5605, -9.92341, 91.974, -71.7345, 36.934
0.3, -1, 33.7185, 51.5364, -9.95263, 92.0125, -71.5925, 36.9839
0.304, -1, 33.734, 51.5123, -9.9818, 92.0509, -71.4507, 37.0337
0.308, -1, 33.7495, 51.4883, -10.0109, 92.0893, -71.3092, 37.0835
0.312, -1, 33.765, 51.4643, -10.04, 92.1275, -71.1679, 37.1331
0.316, -1, 33.7804, 51.4403, -10.069, 92.1657, -71.0268, 37.1827
0.32, -1, 33.7958, 51.4164, -10.098, 92.2039, -70.886, 37.2321
0.324, -1, 33.8112, 51.3925, -10.1269, 92.242, -70.7454, 37.2815
0.328, -1, 33.8266, 51.3687, -10.1558, 92.28, -70.605, 37.3309
0.332, -1, 33.8419, 51.3449, -10.1846, 92.318, -70.4649, 37.3801
0.336, -1, 33.8572, 51.3211, -10.2134, 92.3559, -70.325, 37.4292
0.34, -1, 33.8725, 51.2974, -10.2421, 92.3937, -70.1854, 37.4783
0.344, -1, 33.8877, 51.2737, -10.2708, 92.4315, -70.046, 37.5273
0.348, -1, 33.903, 51.2501, -10.2994, 92.4692, -69.9068, 37.5762
0.352, -1, 33.9182, 51.2265, -10.328, 92.5068, -69.7678, 37.625
0.356, -1, 33.9334, 51.2029, -10.3565, 92.5444, -69.6291, 37.6737
0.36, -1, 33.9485, 51.1794, -10.385, 92.5819, -69.4906, 37.7224
0.364, -1, 33.9636, 51.1559, -10.4134, 92.6194, -69.3523, 37.771
0.368, -1, 33.9788, 51.1325, -10.4418, 92.6568, -69.2143, 37.8195
0.372, -1, 33.9938, 51.109, -10.4702, 92.6941, -69.0764, 37.8679
0.376, -1, 34.0089, 51.0857, -10.4985, 92.7314, -68.9389, 37.9163
0.38, -1, 34.0239, 51.0623, -10.5268, 92.7686, -68.8015, 37.9645
0.384, -1, 34.0389, 51.039, -10.555, 92.8058, -68.6643, 38.0127
0.388, -1, 34.0539, 51.0158, -10.5831, 92.8429, -68.5274, 38.0608
0.392, -1, 34.0689, 50.9926, -10.6113, 92.8799, -68.3907, 38.1089
0.396, -1, 34.0838, 50.9694, -10.6393, 92.9169, -68.2542, 38.1568
0.4, -1, 34.0987, 50.9462, -10.6674, 92.9538, -68.1179, 38.2047
0.404, -1, 34.1136, 50.9231, -10.6954, 92.9907, -67.9818, 38.2525
0.408, -1, 34.1285, 50.9, -10.7233, 93.0275, -67.846, 38.3002
0.412, -1, 34.1433, 50.877, -10.7512, 93.0642, -67.7104, 38.3479
0.416, -1, 34.1582, 50.854, -10.779, 93.1009, -67.575, 38.3955
0.42, -1, 34.173, 50.831, -10.8069, 93.1375, -67.4398, 38.443
0.424, -1, 34.1877, 50.8081, -10.8346, 93.1741, -67.3048, 38.4904
0.428, -1, 34.2025, 50.7852, -10.8624, 93.2106, -67.17, 38.5377
0.432, -1, 34.2172, 50.7623, -10.89, 93.2471, -67.0354, 38.585
0.436, -1, 34.2319, 50.7395, -10.9177, 93.2835, -66.901, 38.6322
0.44, -1, 34.2466, 50.7167, -10.9453, 93.3198, -66.7669, 38.6794
0.444, -1, 34.2613, 50.694, -10.9728, 93.3561, -66.6329, 38.7264
0.448, -1, 34.2759, 50.6713, -11.0003, 93.3923, -66.4992, 38.7734
0.452, -1, 34.2905, 50.6486, -11.0278, 93.4285, -66.3656, 38.8203
0.456, -1, 34.3051, 50.6259, -11.0552, 93.4647, -66.2323, 38.8672
0.46, -1, 34.3197, 50.6033, -11.0826, 93.5007, -66.0992, 38.914
0.464, -1, 34.3342, 50.5807, -11.11, 93.5367, -65.9662, 38.9607
0.468, -1, 34.3487, 50.5582, -11.1373, 93.5727, -65.8335, 39.0073
0.472, -1, 34.3632, 50.5357, -11.1645, 93.6086, -65.701, 39.0539
0.476, -1, 34.3777, 50.5132, -11.1918, 93.6445, -65.5686, 39.1004
0.48, -1, 34.3922, 50.4907, -11.2189, 93.6803, -65.4365, 39.1468
0.484, -1, 34.4066, 50.4683, -11.2461, 93.716, -65.3045, 39.1932
0.488, -1, 34.421, 50.446, -11.2732, 93.7517, -65.1728, 39.2394
0.492, -1, 34.4354, 50.4236, -11.3002, 93.7873, -65.0412, 39.2857
0.496, -1, 34.4498, 50.4013, -11.3273, 93.8229, -64.9099, 39.3318
0.5, -1, 34.4642, 50.379, -11.3542, 93.8584, -64.7787, 39.3779
0.504, -1, 34.4785, 50.3568, -11.3812, 93.8939, -64.6477, 39.4239
0.508, -1, 34.4928, 50.3346, -11.4081, 93.9294, -64.517, 39.4699
0.512, -1, 34.5071, 50.3124, -11.4349, 93.9647, -64.3864, 39.5158
0.516, -1, 34.5214, 50.2902, -11.4618, 94.0001, -64.256, 39.5616
0.52, -1, 34.5356, 50.2681, -11.4886, 94.0353, -64.1257, 39.6073
0.524, -1, 34.5499, 50.246, -11.5153, 94.0706, -63.9957, 39.653
0.528, -1, 34.5641, 50.224, -11.542, 94.1057, -63.8659, 39.6986
0.532, -1, 34.5783, 50.202, -11.5687, 94.1409, -63.7362, 39.7442
0.536, -1, 34.5924, 50.18, -11.5953, 94.1759, -63.6068, 39.7897
0.54, -1, 34.6066, 50.158, -11.6219, 94.211, -63.4775, 39.8351
0.544, -1, 34.6207, 50.1361, -11.6485, 94.2459, -63.3484, 39.8804
0.548, -1, 34.6348, 50.1142, -11.675, 94.2809, -63.2195, 39.9257
0.552, -1, 34.6489, 50.0923, -11.7015, 94.3157, -63.0908, 39.971
0.556, -1, 34.663, 50.0705, -11.7279, 94.3506, -62.9622, 40.0161
0.56, -1, 34.677, 50.0487, -11.7543, 94.3853, -62.8339, 40.0612
0.564, -1, 34.691, 50.0269, -11.7807, 94.4201, -62.7057, 40.1063
0.568, -1, 34.705, 50.0052, -11.807, 94.4547, -62.5777, 40.1512
0.572, -1, 34.719, 49.9834, -11.8333, 94.4894, -62.4498, 40.1961
0.576, -1, 34.733, 49.9618, -11.8596, 94.524, -62.3222, 40.241
0.58, -1, 34.7469, 49.9401, -11.8858, 94.5585, -62.1947, 40.2858
0.584, -1, 34.7609, 49.9185, -11.912, 94.593, -62.0674, 40.3305
0.588, -1, 34.7748, 49.8969, -11.9381, 94.6274, -61.9403, 40.3752
0.592, -1, 34.7887, 49.8753, -11.9642, 94.6618, -61.8133, 40.4198
0.596, -1, 34.8025, 49.8538, -11.9903, 94.6961, -61.6866, 40.4643
0.6, -1, 34.8164, 49.8323, -12.0163, 94.7304, -61.56, 40.5088
0.604, -1, 34.8302, 49.8108, -12.0423, 94.7647, -61.4336, 40.5532
0.608, -1, 34.844, 49.7894, -12.0683, 94.7989, -61.3073, 40.5976
0.612, -1, 34.8578, 49.768, -12.0942, 94.8331, -61.1812, 40.6419
0.616, -1, 34.8716, 49.7466, -12.1201, 94.8672, -61.0553, 40.6861
0.62, -1, 34.8854, 49.7252, -12.146, 94.9012, -60.9296, 40.7303
0.624, -1, 34.8991, 49.7039, -12.1718, 94.9352, -60.804, 40.7744
0.628, -1, 34.9128, 49.6826, -12.1976, 94.9692, -60.6786, 40.8185
0.632, -1, 34.9265, 49.6613, -12.2234, 95.0032, -60.5534, 40.8625
0.636, -1, 34.9402, 49.6401, -12.2491, 95.037, -60.4283, 40.9064
0.64, -1, 34.9539, 49.6189, -12.2748, 95.0709, -60.3034, 40.9503
0.644, -1, 34.9675, 49.5977, -12.3005, 95.1047, -60.1787, 40.9941
0.648, -1, 34.9812, 49.5765, -12.3261, 95.1384, -60.0541, 41.0379
0.652, -1, 34.9948, 49.5554, -12.3517, 95.1721, -59.9297, 41.0816
0.656, -1, 35.0084, 49.5343, -12.3772, 95.2058, -59.8055, 41.1252
0.66, -1, 35.022, 49.5132, -12.4028, 95.2394, -59.6814, 41.1688
0.664, -1, 35.0355, 49.4922, -12.4283, 95.273, -59.5575, 41.2124
0.668, -1, 35.0491, 49.4712, -12.4537, 95.3065, -59.4337, 41.2558
0.672, -1, 35.0626, 49.4502, -12.4791, 95.34, -59.3101, 41.2993
0.676, -1, 35.0761, 49.4292, -12.5045, 95.3734, -59.1867, 41.3426
0.68, -1, 35.0896, 49.4083, -12.5299, 95.4068, -59.0634, 41.3859
0.684, -1, 35.1031, 49.3874, -12.5552, 95.4401, -58.9403, 41.4292
0.688, -1, 35.1165, 49.3665, -12.5805, 95.4735, -58.8174, 41.4724
0.692, -1, 35.1299, 49.3456, -12.6058, 95.5067, -58.6946, 41.5155
0.696, -1, 35.1434, 49.3248, -12.631, 95.5399, -58.5719, 41.5586
0.7, -1, 35.1568, 49.304, -12.6562, 95.5731, -58.4495, 41.6017
0.704, -1, 35.1701, 49.2832, -12.6813, 95.6063, -58.3271, 41.6446
0.708, -1, 35.1835, 49.2625, -12.7065, 95.6394, -58.205, 41.6876
0.712, -1, 35.1969, 49.2417, -12.7316, 95.6724, -58.083, 41.7304
0.716, -1, 35.2102, 49.221, -12.7566, 95.7054, -57.9611, 41.7732
0.72, -1, 35.2235, 49.2004, -12.7817, 95.7384, -57.8394, 41.816
0.724, -1, 35.2368, 49.1797, -12.8067, 95.7713, -57.7178, 41.8587
0.728, -1, 35.2501, 49.1591, -12.8316, 95.8042, -57.5964, 41.9014
0.732, -1, 35.2634, 49.1385, -12.8566, 95.8371, -57.4752, 41.944
0.736, -1, 35.2766, 49.1179, -12.8815, 95.8699, -57.3541, 41.9865
0.74, -1, 35.2898, 49.0974, -12.9064, 95.9026, -57.2332, 42.029
0.744, -1, 35.3031, 49.0769, -12.9312, 95.9354, -57.1124, 42.0714
0.748, -1, 35.3163, 49.0564, -12.956, 95.968, -56.9917, 42.1138
0.752, -1, 35.3294, 49.0359, -12.9808, 96.0007, -56.8712, 42.1562
0.756, -1, 35.3426, 49.0155, -13.0056, 96.0333, -56.7509, 42.1984
0.76, -1, 35.3558, 48.9951, -13.0303, 96.0659, -56.6307, 42.2407
0.764, -1, 35.3689, 48.9747, -13.055, 96.0984, -56.5107, 42.2828
0.768, -1, 35.382, 48.9543, -13.0797, 96.1309, -56.3907, 42.325
0.772, -1, 35.3951, 48.934, -13.1043, 96.1633, -56.271, 42.3671
0.776, -1, 35.4082, 48.9137, -13.1289, 96.1957, -56.1514, 42.4091
0.78, -1, 35.4213, 48.8934, -13.1535, 96.2281, -56.0319, 42.451
0.784, -1, 35.4343, 48.8731, -13.178, 96.2604, -55.9126, 42.493
0.788, -1, 35.4474, 48.8528, -13.2025, 96.2927, -55.7934, 42.5348
0.792, -1, 35.4604, 48.8326, -13.227, 96.3249, -55.6744, 42.5767
0.796, -1, 35.4734, 48.8124, -13.2515, 96.3571, -55.5555, 42.6184
0.8, -1, 35.4864, 48.7923, -13.2759, 96.3893, -55.4367, 42.6602
0.804, -1, 35.4994, 48.7721, -13.3003, 96.4214, -55.3181, 42.7018
0.808, -1, 35.5124, 48.752, -13.3247, 96.4535, -55.1997, 42.7435
0.812, -1, 35.5253, 48.7319, -13.349, 96.4856, -55.0813, 42.785
0.816, -1, 35.5382, 48.7118, -13.3733, 96.5176, -54.9631, 42.8266
0.82, -1, 35.5512, 48.6918, -13.3976, 96.5496, -54.8451, 42.868
0.824, -1, 35.5641, 48.6717, -13.4219, 96.5816, -54.7272, 42.9095
0.828, -1, 35.577, 48.6517, -13.4461, 96.6134, -54.6094, 42.9508
0.832, -1, 35.5898, 48.6318, -13.4703, 96.6453, -54.4918, 42.9922
0.836, -1, 35.6027, 48.6118, -13.4944, 96.6772, -54.3743, 43.0335
0.84, -1, 35.6155, 48.5919, -13.5186, 96.709, -54.2569, 43.0747
0.844, -1, 35.6284, 48.5719, -13.5427, 96.7407, -54.1397, 43.1159
0.848, -1, 35.6412, 48.5521, -13.5668, 96.7724, -54.0226, 43.157
0.852, -1, 35.6539, 48.5322, -13.5909, 96.8041, -53.9056, 43.1981
0.856, -1, 35.6666, 48.5125, -13.6149, 96.8358, -53.7888, 43.2392
0.86, -1, 35.6791, 48.4928, -13.6389, 96.8674, -53.6721, 43.2802
0.864, -1, 35.6914, 48.4734, -13.6628, 96.8989, -53.5556, 43.3211
0.868, -1, 35.7035, 48.4543, -13.6867, 96.9304, -53.4394, 43.3619
0.872, -1, 35.7152, 48.4354, -13.7106, 96.9618, -53.3236, 43.4026
0.876, -1, 35.7267, 48.4169, -13.7343, 96.993, -53.2083, 43.4431
0.88, -1, 35.7378, 48.3988, -13.7579, 97.0241, -53.0937, 43.4834
0.884, -1, 35.7487, 48.3811, -13.7812, 97.0549, -52.9801, 43.5233
0.888, -1, 35.7593, 48.3638, -13.8043, 97.0853, -52.8677, 43.5628
0.892, -1, 35.7696, 48.347, -13.8271, 97.1153, -52.7571, 43.6017
0.896, -1, 35.7796, 48.3308, -13.8494, 97.1448, -52.6484, 43.6399
0.9, -1, 35.7891, 48.3154, -13.8713, 97.1735, -52.5423, 43.6772
0.904, -1, 35.7981, 48.3007, -13.8924, 97.2015, -52.4393, 43.7134
0.908, -1, 35.8067, 48.2868, -13.9129, 97.2284, -52.3399, 43.7484
0.912, -1, 35.8148, 48.2737, -13.9324, 97.2542, -52.2448, 43.7818
0.916, -1, 35.8225, 48.2613, -13.951, 97.2786, -52.1546, 43.8135
0.92, -1, 35.8299, 48.2495, -13.9684, 97.3016, -52.07, 43.8433
0.924, -1, 35.8369, 48.2384, -13.9846, 97.3229, -51.9913, 43.871
0.928, -1, 35.8436, 48.2277, -13.9994, 97.3424, -51.9192, 43.8963
0.932, -1, 35.8501, 48.2175, -14.0129, 97.3601, -51.8539, 43.9192
0.936, -1, 35.8564, 48.2078, -14.0248, 97.3759, -51.7957, 43.9397
0.94, -1, 35.8623, 48.1986, -14.0354, 97.3898, -51.7445, 43.9577
0.944, -1, 35.8681, 48.1898, -14.0445, 97.4018, -51.7003, 43.9732
0.948, -1, 35.8735, 48.1815, -14.0522, 97.4119, -51.6627, 43.9864
0.952, -1, 35.8787, 48.1738, -14.0587, 97.4204, -51.6314, 43.9974
0.956, -1, 35.8837, 48.1666, -14.0639, 97.4273, -51.6059, 44.0063
0.96, -1, 35.8884, 48.16, -14.0681, 97.4328, -51.5855, 44.0135
0.964, -1, 35.8928, 48.1539, -14.0714, 97.4371, -51.5697, 44.019
0.968, -1, 35.897, 48.1485, -14.0739, 97.4403, -51.5576, 44.0232
0.972, -1, 35.9008, 48.1437, -14.0757, 97.4427, -51.5487, 44.0263
0.976, -1, 35.9042, 48.1397, -14.077, 97.4444, -51.5423, 44.0285
0.98, 2, 35.9071, 48.1364, -14.078, 97.4456, -51.5377, 44.0301
0.984, 2, 35.9094, 48.1339, -14.0786, 97.4465, -51.5346, 44.0312
0.988, 2, 35.9112, 48.132, -14.0791, 97.4471, -51.5324, 44.0319
0.992, 2, 35.9124, 48.1306, -14.0794, 97.4475, -51.5309, 44.0325
0.996, 2, 35.9133, 48.1297, -14.0796, 97.4477, -51.5299, 44.0328
1, 2, 35.9139, 48.1291, -14.0797, 97.4479, -51.5293, 44.033
1.004, 2, 35.9143, 48.1287, -14.0798, 97.448, -51.5288, 44.0332
1.008, 2, 35.9146, 48.1284, -14.0799, 97.4481, -51.5285, 44.0333
1.012, 2, 35.9147, 48.1282, -14.0799, 97.4482, -51.5283, 44.0334
1.016, 2, 35.9149, 48.128, -14.08, 97.4482, -51.5281, 44.0334
1.02, 2, 35.915, 48.128, -14.08, 97.4482, -51.528, 44.0335
1.024, 2, 35.915, 48.1279, -14.08, 97.4482, -51.528, 44.0335
1.027, 2, 35.9151, 48.1279, -14.08, 97.4483, -51.5279, 44.0335
1.032, 2, 35.9151, 48.1278, -14.08, 97.4483, -51.5279, 44.0335
1.036, 2, 35.9151, 48.1278, -14.08, 97.4483, -51.5279, 44.0335
1.04, 2, 35.9151, 48.1278, -14.08, 97.4483, -51.5279, 44.0335
1.044, 2, 35.9151, 48.1278, -14.08, 97.4483, -51.5279, 44.0335
1.048, 2, 35.9151, 48.1278, -14.08, 97.4483, -51.5279, 44.0335
1.052, 2, 35.9151, 48.1278, -14.08, 97.4483, -51.5279, 44.0335
1.055, 2, 35.9151, 48.1278, -14.08, 97.4483, -51.5278, 44.0335
1.06, 2, 35.9151, 48.1278, -14.08, 97.4483, -51.5278, 44.0335
1.064, 2, 35.9151, 48.1278, -14.08, 97.4483, -51.5278, 44.0335
1.068, 2, 35.9151, 48.1278, -14.08, 97.4483, -51.5278, 44.0335
1.072, 2, 35.9151, 48.1278, -14.08, 97.4483, -51.5278, 44.0335
1.076, 2, 35.9151, 48.1278, -14.08, 97.4483, -51.5278, 44.0335
1.08, 2, 35.9151, 48.1278, -14.08, 97.4483, -51.5278, 44.0335
1.084, 2, 35.9151, 48.1278, -14.08, 97.4483, -51.5278, 44.0335
1.088, 2, 35.9151, 48.1278, -14.08, 97.4483, -51.5278, 44.0335
1.091, 2, 35.9151, 48.1278, -14.08, 97.4483, -51.5278, 44.0335
1.096, 2, 35.9151, 48.1278, -14.08, 97.4483, -51.5278, 44.0335
1.1, 2, 35.9151, 48.1278, -14.08, 97.4483, -51.5278, 44.0335
1.104, 2, 35.9151, 48.1278, -14.08, 97.4483, -51.5278, 44.0335
1.108, 2, 35.9151, 48.1278, -14.08, 97.4483, -51.5278, 44.0335
1.112, 2, 35.9151, 48.1278, -14.08, 97.4483, -51.5278, 44.0335
1.116, 2, 35.9151, 48.1278, -14.08, 97.4483, -51.5278, 44.0335
1.119, 2, 35.9151, 48.1278, -14.08, 97.4483, -51.5278, 44.0335
1.124, 2, 35.9151, 48.1278, -14.08, 97.4483, -51.5278, 44.0335
1.128, 2, 35.9151, 48.1278, -14.08, 97.4483, -51.5278, 44.0335
1.132, 2, 35.9151, 48.1278, -14.08, 97.4483, -51.5278, 44.0335
1.136, 2, 35.9151, 48.1278, -14.08, 97.4483, -51.5278, 44.0335
1.14, 2, 35.9151, 48.1278, -14.08, 97.4483, -51.5278, 44.0335
1.144, 2, 35.9151, 48.1278, -14.08, 97.4483, -51.5278, 44.0335
1.147, 2, 35.9151, 48.1278, -14.08, 97.4483, -51.5278, 44.0335
1.152, 2, 35.9151, 48.1278, -14.08, 97.4483, -51.5278, 44.0335
1.156, 2, 35.9151, 48.1278, -14.08, 97.4483, -51.5278, 44.0335
1.16, 2, 35.9151, 48.1278, -14.08, 97.4483, -51.5278, 44.0335
1.164, 2, 35.9151, 48.1278, -14.08, 97.4483, -51.5278, 44.0335
1.168, 2, 35.9151, 48.1278, -14.08, 97.4483, -51.5278, 44.0335
1.172, 2, 35.9151, 48.1278, -14.08, 97.4483, -51.5278, 44.0335
1.175, 2, 35.9151, 48.1278, -14.08, 97.4483, -51.5278, 44.0335
1.18, 2, 35.9151, 48.1278, -14.08, 97.4483, -51.5278, 44.0335
1.184, 2, 35.9151, 48.1278, -14.08, 97.4483, -51.5278, 44.0335
1.188, 2, 35.9151, 48.1278, -14.08, 97.4483, -51.5278, 44.0335
1.192, 2, 35.9151, 48.1278, -14.08, 97.4483, -51.5278, 44.0335
1.196, 2, 35.9151, 48.1278, -14.08, 97.4483, -51.5278, 44.0335
1.2, 2, 35.9151, 48.1278, -14.08, 97.4483, -51.5278, 44.0335
1.204, 2, 35.9151, 48.1278, -14.08, 97.4483, -51.5278, 44.0335
1.208, 2, 35.9151, 48.1278, -14.08, 97.4483, -51.5278, 44.0335
1.212, 2, 35.9151, 48.1278, -14.08, 97.4483, -51.5278, 44.0335
1.216, 2, 35.9151, 48.1278, -14.08, 97.4483, -51.5278, 44.0335
1.22, 2, 35.9151, 48.1278, -14.08, 97.4483, -51.5278, 44.0335
1.224, 2, 35.9151, 48.1278, -14.08, 97.4483, -51.5278, 44.0335
1.228, 2, 35.9151, 48.1278, -14.08, 97.4483, -51.5278, 44.0335
1.232, 2, 35.9151, 48.1278, -14.08, 97.4483, -51.5278, 44.0335
1.236, 2, 35.9151, 48.1278, -14.08, 97.4483, -51.5278, 44.0335
1.24, 2, 35.9151, 48.1278, -14.08, 97.4483, -51.5278, 44.0335
1.244, 2, 35.9151, 48.1278, -14.08, 97.4483, -51.5278, 44.0335
1.248, 2, 35.9151, 48.1278, -14.08, 97.4483, -51.5278, 44.0335
1.252, 2, 35.9151, 48.1278, -14.08, 97.4483, -51.5278, 44.0335
1.256, 2, 35.9151, 48.1278, -14.08, 97.4483, -51.5278, 44.0335
1.26, 2, 35.9151, 48.1278, -14.08, 97.4483, -51.5278, 44.0335
1.264, 2, 35.9151, 48.1278, -14.08, 97.4483, -51.5278, 44.0335
1.267, 2, 35.9151, 48.1278, -14.08, 97.4483, -51.5278, 44.0335
1.272, 2, 35.9151, 48.1278, -14.08, 97.4483, -51.5278, 44.0335
1.276, 2, 35.9151, 48.1278, -14.08, 97.4483, -51.5278, 44.0335
1.28, 2, 35.9151, 48.1278, -14.08, 97.4483, -51.5278, 44.0335
1.284, 2, 35.9151, 48.1278, -14.08, 97.4483, -51.5278, 44.0335
1.288, 2, 35.9151, 48.1278, -14.08, 97.4483, -51.5278, 44.0335
1.292, 2, 35.9151, 48.1278, -14.08, 97.4483, -51.5278, 44.0335
1.295, 2, 35.9151, 48.1278, -14.08, 97.4483, -51.5278, 44.0335
1.3, 2, 35.9151, 48.1278, -14.08, 97.4483, -51.5278, 44.0335
1.304, 2, 35.9151, 48.1278, -14.08, 97.4483, -51.5278, 44.0335
1.308, 2, 35.9151, 48.1278, -14.08, 97.4483, -51.5278, 44.0335
1.312, 2, 35.9151, 48.1278, -14.08, 97.4483, -51.5278, 44.0335
1.316, 2, 35.9151, 48.1278, -14.08, 97.4483, -51.5278, 44.0335
1.32, 2, 35.9151, 48.1278, -14.08, 97.4483, -51.5278, 44.0335
1.324, 2, 35.9151, 48.1278, -14.08, 97.4483, -51.5278, 44.0335
1.328, 2, 35.9151, 48.1278, -14.08, 97.4483, -51.5278, 44.0335
1.332, 2, 35.9151, 48.1278, -14.08, 97.4483, -51.5278, 44.0335
1.336, 2, 35.9151, 48.1278, -14.08, 97.4483, -51.5278, 44.0335
1.34, 2, 35.9151, 48.1278, -14.08, 97.4483, -51.5278, 44.0335
1.344, 2, 35.9151, 48.1278, -14.08, 97.4483, -51.5278, 44.0335
1.348, 2, 35.9151, 48.1278, -14.08, 97.4483, -51.5278, 44.0335
1.352, 2, 35.9151, 48.1278, -14.08, 97.4483, -51.5278, 44.0335
1.356, 2, 35.9151, 48.1278, -14.08, 97.4483, -51.5278, 44.0335
1.36, 2, 35.9151, 48.1278, -14.08, 97.4483, -51.5278, 44.0335
1.364, 2, 35.9151, 48.1278, -14.08, 97.4483, -51.5278, 44.0335
1.368, 2, 35.9151, 48.1278, -14.08, 97.4483, -51.5278, 44.0335
1.372, 2, 35.9151, 48.1278, -14.08, 97.4483, -51.5278, 44.0335
1.376, 2, 35.9151, 48.1278, -14.08, 97.4483, -51.5278, 44.0335
1.38, 2, 35.9151, 48.1278, -14.08, 97.4483, -51.5278, 44.0335
1.384, 2, 35.9151, 48.1278, -14.08, 97.4483, -51.5278, 44.0335
1.388, 2, 35.9151, 48.1278, -14.08, 97.4483, -51.5278, 44.0335
1.392, 2, 35.9151, 48.1278, -14.08, 97.4483, -51.5278, 44.0335
1.396, 2, 35.9151, 48.1278, -14.08, 97.4483, -51.5278, 44.0335
1.4, 2, 35.9151, 48.1278, -14.08, 97.4483, -51.5278, 44.0335
1.404, 2, 35.9151, 48.1278, -14.08, 97.4483, -51.5278, 44.0335
1.408, 2, 35.9151, 48.1278, -14.08, 97.4483, -51.5278, 44.0335
1.412, 2, 35.9151, 48.1278, -14.08, 97.4483, -51.5278, 44.0335
1.416, 2, 35.9151, 48.1278, -14.08, 97.4483, -51.5278, 44.0335
1.42, 2, 35.9151, 48.1278, -14.08, 97.4483, -51.5278, 44.0335
1.424, 2, 35.9151, 48.1278, -14.08, 97.4483, -51.5278, 44.0335
1.428, 2, 35.9151, 48.1278, -14.08, 97.4483, -51.5278, 44.0335
1.432, 2, 35.9151, 48.1278, -14.08, 97.4483, -51.5278, 44.0335
1.436, 2, 35.9151, 48.1278, -14.08, 97.4483, -51.5278, 44.0335
1.44, 2, 35.9151, 48.1278, -14.08, 97.4483, -51.5278, 44.0335
1.444, 2, 35.9151, 48.1278, -14.08, 97.4483, -51.5278, 44.0335
1.448, 2, 35.9151, 48.1278, -14.08, 97.4483, -51.5278, 44.0335
1.452, 2, 35.9151, 48.1278, -14.08, 97.4483, -51.5278, 44.0335
1.456, 2, 35.9151, 48.1278, -14.08, 97.4483, -51.5278, 44.0335
1.46, 2, 35.9151, 48.1278, -14.08, 97.4483, -51.5278, 44.0335
1.464, 2, 35.9151, 48.1278, -14.08, 97.4483, -51.5278, 44.0335
1.468, 2, 35.9151, 48.1278, -14.08, 97.4483, -51.5278, 44.0335
1.472, 2, 35.9151, 48.1278, -14.08, 97.4483, -51.5278, 44.0335
1.476, 2, 35.9151, 48.1278, -14.08, 97.4483, -51.5278, 44.0335
1.48, 2, 35.9151, 48.1278, -14.08, 97.4483, -51.5278, 44.0335
1.484, 2, 35.9151, 48.1278, -14.08, 97.4483, -51.5278, 44.0335
1.488, 2, 35.9151, 48.1278, -14.08, 97.4483, -51.5278, 44.0335
1.492, 2, 35.9151, 48.1278, -14.08, 97.4483, -51.5278, 44.0335
1.496, 2, 35.9151, 48.1278, -14.08, 97.4483, -51.5278, 44.0335
1.5, 2, 35.9151, 48.1278, -14.08, 97.4483, -51.5278, 44.0335
1.504, 2, 35.9151, 48.1278, -14.08, 97.4483, -51.5278, 44.0335
1.508, 2, 35.9151, 48.1278, -14.08, 97.4483, -51.5278, 44.0335
1.512, 2, 35.9151, 48.1278, -14.08, 97.4483, -51.5278, 44.0335
1.516, 2, 35.9151, 48.1278, -14.08, 97.4483, -51.5278, 44.0335
1.52, 2, 35.9151, 48.1278, -14.08, 97.4483, -51.5278, 44.0335
1.524, 2, 35.9151, 48.1278, -14.08, 97.4483, -51.5278, 44.0335
1.528, 2, 35.9151, 48.1278, -14.08, 97.4483, -51.5278, 44.0335
1.532, 2, 35.9151, 48.1278, -14.08, 97.4483, -51.5278, 44.0335
1.536, 2, 35.9151, 48.1278, -14.08, 97.4483, -51.5278, 44.0335
1.54, 2, 35.9151, 48.1278, -14.08, 97.4483, -51.5278, 44.0335
1.544, 2, 35.9151, 48.1278, -14.08, 97.4483, -51.5278, 44.0335
1.548, 2, 35.9151, 48.1278, -14.08, 97.4483, -51.5278, 44.0335
1.552, 2, 35.9151, 48.1278, -14.08, 97.4483, -51.5278, 44.0335
1.556, 2, 35.9151, 48.1278, -14.08, 97.4483, -51.5278, 44.0335
1.56, 2, 35.9151, 48.1278, -14.08, 97.4483, -51.5278, 44.0335
1.564, 2, 35.9151, 48.1278, -14.08, 97.4483, -51.5278, 44.0335
1.568, 2, 35.9151, 48.1278, -14.08, 97.4483, -51.5278, 44.0335
1.572, 2, 35.9151, 48.1278, -14.08, 97.4483, -51.5278, 44.0335
1.576, 2, 35.9151, 48.1278, -14.08, 97.4483, -51.5278, 44.0335
1.58, 2, 35.9151, 48.1278, -14.08, 97.4483, -51.5278, 44.0335
1.584, 2, 35.9151, 48.1278, -14.08, 97.4483, -51.5278, 44.0335
1.588, 2, 35.9151, 48.1278, -14.08, 97.4483, -51.5278, 44.0335
1.592, 2, 35.9151, 48.1278, -14.08, 97.4483, -51.5278, 44.0335
1.596, 2, 35.9151, 48.1278, -14.08, 97.4483, -51.5278, 44.0335
1.6, 2, 35.9151, 48.1278, -14.08, 97.4483, -51.5278, 44.0335
1.604, 2, 35.9151, 48.1278, -14.08, 97.4483, -51.5278, 44.0335
1.608, 2, 35.9151, 48.1278, -14.08, 97.4483, -51.5278, 44.0335
1.612, 2, 35.9151, 48.1278, -14.08, 97.4483, -51.5278, 44.0335
1.616, 2, 35.9151, 48.1278, -14.08, 97.4483, -51.5278, 44.0335
1.62, 2, 35.9151, 48.1278, -14.08, 97.4483, -51.5278, 44.0335
1.624, 2, 35.9151, 48.1278, -14.08, 97.4483, -51.5278, 44.0335
1.628, 2, 35.9151, 48.1278, -14.08, 97.4483, -51.5278, 44.0335
1.632, 2, 35.9151, 48.1278, -14.08, 97.4483, -51.5278, 44.0335
1.636, 2, 35.9151, 48.1278, -14.08, 97.4483, -51.5278, 44.0335
1.64, 2, 35.9151, 48.1278, -14.08, 97.4483, -51.5278, 44.0335
1.644, 2, 35.9151, 48.1278, -14.08, 97.4483, -51.5278, 44.0335
1.648, 2, 35.9151, 48.1278, -14.08, 97.4483, -51.5278, 44.0335
1.652, 2, 35.9151, 48.1278, -14.08, 97.4483, -51.5278, 44.0335
1.656, 2, 35.9151, 48.1278, -14.08, 97.4483, -51.5278, 44.0335
1.66, 2, 35.9151, 48.1278, -14.08, 97.4483, -51.5278, 44.0335
1.664, 2, 35.9151, 48.1278, -14.08, 97.4483, -51.5278, 44.0335
1.668, 2, 35.9151, 48.1278, -14.08, 97.4483, -51.5278, 44.0335
1.672, 2, 35.9151, 48.1278, -14.08, 97.4483, -51.5278, 44.0335
1.676, 2, 35.9151, 48.1278, -14.08, 97.4483, -51.5278, 44.0335
1.68, 2, 35.9151, 48.1278, -14.08, 97.4483, -51.5278, 44.0335
1.684, 2, 35.9151, 48.1278, -14.08, 97.4483, -51.5278, 44.0335
1.688, 2, 35.9151, 48.1278, -14.08, 97.4483, -51.5278, 44.0335
1.692, 2, 35.9151, 48.1278, -14.08, 97.4483, -51.5278, 44.0335
1.696, 2, 35.9151, 48.1278, -14.08, 97.4483, -51.5278, 44.0335
1.7, 2, 35.9151, 48.1278, -14.08, 97.4483, -51.5278, 44.0335
1.704, 2, 35.9151, 48.1278, -14.08, 97.4483, -51.5278, 44.0335
1.708, 2, 35.9151, 48.1278, -14.08, 97.4483, -51.5278, 44.0335
1.712, 2, 35.9151, 48.1278, -14.08, 97.4483, -51.5278, 44.0335
1.716, 2, 35.9151, 48.1278, -14.08, 97.4483, -51.5278, 44.0335
1.72, 2, 35.9151, 48.1278, -14.08, 97.4483, -51.5278, 44.0335
1.724, 2, 35.9151, 48.1278, -14.08, 97.4483, -51.5278, 44.0335
1.728, 2, 35.9151, 48.1278, -14.08, 97.4483, -51.5278, 44.0335
1.732, 2, 35.9151, 48.1278, -14.08, 97.4483, -51.5278, 44.0335
1.736, 2, 35.9151, 48.1278, -14.08, 97.4483, -51.5278, 44.0335
1.74, 2, 35.9151, 48.1278, -14.08, 97.4483, -51.5278, 44.0335
1.744, 2, 35.9151, 48.1278, -14.08, 97.4483, -51.5278, 44.0335
1.748, 2, 35.9151, 48.1278, -14.08, 97.4483, -51.5278, 44.0335
1.752, 2, 35.9151, 48.1278, -14.08, 97.4483, -51.5278, 44.0335
1.756, 2, 35.9151, 48.1278, -14.08, 97.4483, -51.5278, 44.0335
1.76, 2, 35.9151, 48.1278, -14.08, 97.4483, -51.5278, 44.0335
1.764, 2, 35.9151, 48.1278, -14.08, 97.4483, -51.5278, 44.0335
1.768, 2, 35.9151, 48.1278, -14.08, 97.4483, -51.5278, 44.0335
1.772, 2, 35.9151, 48.1278, -14.08, 97.4483, -51.5278, 44.0335
1.776, 2, 35.9151, 48.1278, -14.08, 97.4483, -51.5278, 44.0335
1.78, 2, 35.9151, 48.1278, -14.08, 97.4483, -51.5278, 44.0335
1.784, 2, 35.9151, 48.1278, -14.08, 97.4483, -51.5278, 44.0335
1.788, 2, 35.9151, 48.1278, -14.08, 97.4483, -51.5278, 44.0335
1.792, 2, 35.9151, 48.1278, -14.08, 97.4483, -51.5278, 44.0335
1.796, 2, 35.9151, 48.1278, -14.08, 97.4483, -51.5278, 44.0335
1.8, 2, 35.9151, 48.1278, -14.08, 97.4483, -51.5278, 44.0335
1.804, 2, 35.9151, 48.1278, -14.08, 97.4483, -51.5278, 44.0335
1.808, 2, 35.9151, 48.1278, -14.08, 97.4483, -51.5278, 44.0335
1.812, 2, 35.9151, 48.1278, -14.08, 97.4483, -51.5278, 44.0335
1.816, 2, 35.9151, 48.1278, -14.08, 97.4483, -51.5278, 44.0335
1.82, 2, 35.9151, 48.1278, -14.08, 97.4483, -51.5278, 44.0335
1.824, 2, 35.9151, 48.1278, -14.08, 97.4483, -51.5278, 44.0335
1.828, 2, 35.9151, 48.1278, -14.08, 97.4483, -51.5278, 44.0335
1.832, 2, 35.9151, 48.1278, -14.08, 97.4483, -51.5278, 44.0335
1.836, 2, 35.9151, 48.1278, -14.08, 97.4483, -51.5278, 44.0335
1.84, 2, 35.9151, 48.1278, -14.08, 97.4483, -51.5278, 44.0335
1.844, 2, 35.9151, 48.1278, -14.08, 97.4483, -51.5278, 44.0335
1.848, 2, 35.9151, 48.1278, -14.08, 97.4483, -51.5278, 44.0335
1.852, 2, 35.9151, 48.1278, -14.08, 97.4483, -51.5278, 44.0335
1.856, 2, 35.9151, 48.1278, -14.08, 97.4483, -51.5278, 44.0335
1.86, 2, 35.9151, 48.1278, -14.08, 97.4483, -51.5278, 44.0335
1.864, 2, 35.9151, 48.1278, -14.08, 97.4483, -51.5278, 44.0335
1.868, 2, 35.9151, 48.1278, -14.08, 97.4483, -51.5278, 44.0335
1.872, 2, 35.9151, 48.1278, -14.08, 97.4483, -51.5278, 44.0335
1.876, 2, 35.9151, 48.1278, -14.08, 97.4483, -51.5278, 44.0335
1.88, 2, 35.9151, 48.1278, -14.08, 97.4483, -51.5278, 44.0335
1.884, 2, 35.9151, 48.1278, -14.08, 97.4483, -51.5278, 44.0335
1.888, 2, 35.9151, 48.1278, -14.08, 97.4483, -51.5278, 44.0335
1.892, 2, 35.9151, 48.1278, -14.08, 97.4483, -51.5278, 44.0335
1.896, 2, 35.9151, 48.1278, -14.08, 97.4483, -51.5278, 44.0335
1.9, 2, 35.9151, 48.1278, -14.08, 97.4483, -51.5278, 44.0335
1.904, 2, 35.9151, 48.1278, -14.08, 97.4483, -51.5278, 44.0335
1.908, 2, 35.9151, 48.1278, -14.08, 97.4483, -51.5278, 44.0335
1.912, 2, 35.9151, 48.1278, -14.08, 97.4483, -51.5278, 44.0335
1.916, 2, 35.9151, 48.1278, -14.08, 97.4483, -51.5278, 44.0335
1.92, 2, 35.9151, 48.1278, -14.08, 97.4483, -51.5278, 44.0335
1.924, 2, 35.9151, 48.1278, -14.08, 97.4483, -51.5278, 44.0335
1.928, 2, 35.9151, 48.1278, -14.08, 97.4483, -51.5278, 44.0335
1.932, 2, 35.9151, 48.1278, -14.08, 97.4483, -51.5278, 44.0335
1.936, 2, 35.9151, 48.1278, -14.08, 97.4483, -51.5278, 44.0335
1.94, 2, 35.9151, 48.1278, -14.08, 97.4483, -51.5278, 44.0335
1.944, 2, 35.9151, 48.1278, -14.08, 97.4483, -51.5278, 44.0335
1.948, 2, 35.9151, 48.1278, -14.08, 97.4483, -51.5278, 44.0335
1.952, 2, 35.9151, 48.1278, -14.08, 97.4483, -51.5278, 44.0335
1.956, 2, 35.9151, 48.1278, -14.08, 97.4483, -51.5278, 44.0335
1.96, 2, 35.9151, 48.1278, -14.08, 97.4483, -51.5278, 44.0335
1.964, 2, 35.9151, 48.1278, -14.08, 97.4483, -51.5278, 44.0335
1.968, 2, 35.9151, 48.1278, -14.08, 97.4483, -51.5278, 44.0335
1.972, 2, 35.9151, 48.1278, -14.08, 97.4483, -51.5278, 44.0335
1.976, 2, 35.9151, 48.1278, -14.08, 97.4483, -51.5278, 44.0335
1.98, 2, 35.9151, 48.1278, -14.08, 97.4483, -51.5278, 44.0335
1.984, 2, 35.9151, 48.1278, -14.08, 97.4483, -51.5278, 44.0335
1.988, 2, 35.9151, 48.1278, -14.08, 97.4483, -51.5278, 44.0335
1.992, 2, 35.9151, 48.1278, -14.08, 97.4483, -51.5278, 44.0335
1.996, 2, 35.9151, 48.1278, -14.08, 97.4483, -51.5278, 44.0335
1.999, 2, 35.9151, 48.1278, -14.08, 97.4483, -51.5278, 44.0335
2.004, 2, 35.9151, 48.1278, -14.08, 97.4483, -51.5278, 44.0335
2.008, 2, 35.9151, 48.1278, -14.08, 97.4483, -51.5278, 44.0335
2.012, 2, 35.9151, 48.1278, -14.08, 97.4483, -51.5278, 44.0335
2.015, 2, 35.9151, 48.1278, -14.08, 97.4483, -51.5278, 44.0335
2.019, 2, 35.9151, 48.1278, -14.08, 97.4483, -51.5278, 44.0335
2.024, 2, 35.9151, 48.1278, -14.08, 97.4483, -51.5278, 44.0335
2.028, 2, 35.9151, 48.1278, -14.08, 97.4483, -51.5278, 44.0335
2.031, 2, 35.9151, 48.1278, -14.08, 97.4483, -51.5278, 44.0335
2.036, 4, 35.9151, 48.1278, -14.08, 97.4483, -51.5278, 44.0335
2.04, 4, 35.9151, 48.1278, -14.08, 97.4483, -51.5278, 44.0335
2.044, 4, 35.9151, 48.1278, -14.08, 97.4483, -51.5278, 44.0335
2.048, 4, 35.9151, 48.1278, -14.08, 97.4483, -51.5278, 44.0335
2.051, 4, 35.9151, 48.1278, -14.08, 97.4483, -51.5278, 44.0335
2.055, 4, 35.9151, 48.1278, -14.08, 97.4483, -51.5278, 44.0335
2.06, 4, 35.9151, 48.1278, -14.08, 97.4483, -51.5278, 44.0335
2.064, 4, 35.9151, 48.1278, -14.08, 97.4483, -51.5278, 44.0335
2.068, 4, 35.9151, 48.1278, -14.08, 97.4483, -51.5278, 44.0335
2.071, 4, 35.9151, 48.1278, -14.08, 97.4483, -51.5278, 44.0335
2.076, 4, 35.9151, 48.1278, -14.08, 97.4483, -51.5278, 44.0335
2.08, 4, 35.9151, 48.1278, -14.08, 97.4483, -51.5278, 44.0335
2.084, 4, 35.9151, 48.1278, -14.08, 97.4483, -51.5278, 44.0335
2.087, 4, 35.9151, 48.1278, -14.08, 97.4483, -51.5278, 44.0335
2.092, 4, 35.9151, 48.1278, -14.08, 97.4483, -51.5278, 44.0335
2.096, 4, 35.9151, 48.1278, -14.08, 97.4483, -51.5278, 44.0335
2.1, 4, 35.9151, 48.1278, -14.08, 97.4483, -51.5278, 44.0335
2.104, 4, 35.9151, 48.1278, -14.08, 97.4483, -51.5278, 44.0335
2.107, 4, 35.9151, 48.1278, -14.08, 97.4483, -51.5278, 44.0335
2.111, 4, 35.9151, 48.1278, -14.08, 97.4483, -51.5278, 44.0335
2.116, 4, 35.9151, 48.1278, -14.08, 97.4483, -51.5278, 44.0335
2.12, 4, 35.9151, 48.1278, -14.08, 97.4483, -51.5278, 44.0335
2.124, 4, 35.9151, 48.1278, -14.08, 97.4483, -51.5278, 44.0335
2.127, 4, 35.9151, 48.1278, -14.08, 97.4483, -51.5278, 44.0335
2.132, 4, 35.9151, 48.1278, -14.08, 97.4483, -51.5278, 44.0335
2.136, 4, 35.9151, 48.1278, -14.08, 97.4483, -51.5278, 44.0335
2.142, 4, 35.9151, 48.1278, -14.08, 97.4483, -51.5278, 44.0335
2.144, 4, 35.9151, 48.1278, -14.08, 97.4483, -51.5278, 44.0335
2.147, 4, 35.9151, 48.1278, -14.08, 97.4483, -51.5278, 44.0335
2.152, 4, 35.9151, 48.1278, -14.08, 97.4483, -51.5278, 44.0335
2.156, 4, 35.9151, 48.1278, -14.08, 97.4483, -51.5278, 44.0335
2.16, 4, 35.9151, 48.1278, -14.08, 97.4483, -51.5278, 44.0335
2.163, 4, 35.9151, 48.1278, -14.08, 97.4483, -51.5278, 44.0335
2.168, 4, 35.9151, 48.1278, -14.08, 97.4483, -51.5278, 44.0335
2.172, 4, 35.9151, 48.1278, -14.08, 97.4483, -51.5278, 44.0335
2.176, 4, 35.9151, 48.128, -14.08, 97.4483, -51.5279, 44.0335
2.179, 4, 35.915, 48.1283, -14.0801, 97.4483, -51.5279, 44.0335
2.184, 4, 35.9147, 48.1291, -14.0801, 97.4483, -51.528, 44.0334
2.188, 4, 35.9143, 48.1303, -14.0802, 97.4483, -51.5284, 44.0332
2.192, 4, 35.9138, 48.1322, -14.0804, 97.4484, -51.5291, 44.0327
2.196, 4, 35.913, 48.1349, -14.0806, 97.4485, -51.5305, 44.0319
2.199, 4, 35.912, 48.1383, -14.0811, 97.4487, -51.5329, 44.0304
2.204, 4, 35.9108, 48.1429, -14.0818, 97.449, -51.5367, 44.028
2.208, 5, 35.9093, 48.1486, -14.0828, 97.4495, -51.5425, 44.0244
2.212, 5, 35.9077, 48.1557, -14.0842, 97.4501, -51.551, 44.0192
2.216, 5, 35.9059, 48.1645, -14.0861, 97.451, -51.5629, 44.0118
2.219, 5, 35.9038, 48.1752, -14.0886, 97.4523, -51.5792, 44.0018
2.224, 5, 35.9015, 48.1878, -14.0919, 97.4538, -51.6006, 43.9885
2.228, 5, 35.8991, 48.2024, -14.096, 97.4558, -51.6284, 43.9714
2.232, 5, 35.8967, 48.2188, -14.1012, 97.4583, -51.6634, 43.9499
2.235, 5, 35.8942, 48.2368, -14.1074, 97.4613, -51.7065, 43.9234
2.24, 5, 35.8918, 48.2566, -14.1148, 97.4648, -51.7586, 43.8914
2.244, 5, 35.8895, 48.2781, -14.1234, 97.4689, -51.8201, 43.8537
2.248, 5, 35.8872, 48.3013, -14.1333, 97.4735, -51.8915, 43.81
2.252, 5, 35.8849, 48.3264, -14.1444, 97.4786, -51.9729, 43.7604
2.255, 5, 35.8827, 48.3534, -14.1568, 97.4842, -52.0641, 43.7048
2.259, 5, 35.8804, 48.3824, -14.1703, 97.4902, -52.1648, 43.6435
2.264, 5, 35.8781, 48.4131, -14.1849, 97.4965, -52.2746, 43.5768
2.268, 5, 35.8758, 48.4456, -14.2005, 97.5031, -52.3927, 43.5053
2.272, 5, 35.8734, 48.4798, -14.217, 97.5098, -52.5184, 43.4293
2.275, 5, 35.8708, 48.5157, -14.2341, 97.5166, -52.6507, 43.3495
2.28, 5, 35.8681, 48.5534, -14.2519, 97.5234, -52.7886, 43.2666
2.284, 5, 35.8652, 48.5928, -14.2701, 97.53, -52.9312, 43.181
2.288, 5, 35.8619, 48.6338, -14.2886, 97.5365, -53.0776, 43.0935
2.291, 5, 35.8583, 48.6763, -14.3073, 97.5426, -53.2269, 43.0044
2.296, 5, 35.8544, 48.7202, -14.3262, 97.5485, -53.3784, 42.9143
2.3, 5, 35.8502, 48.7652, -14.345, 97.554, -53.5317, 42.8235
2.304, 5, 35.8458, 48.811, -14.3638, 97.5591, -53.6861, 42.7322
2.308, 5, 35.8411, 48.8574, -14.3824, 97.5638, -53.8415, 42.6407
2.311, 5, 35.8362, 48.9044, -14.4009, 97.568, -53.9975, 42.5491
2.316, 5, 35.8311, 48.9516, -14.4193, 97.5718, -54.1539, 42.4576
2.32, 5, 35.8259, 48.9991, -14.4373, 97.5752, -54.3106, 42.3662
2.324, 5, 35.8205, 49.0467, -14.4552, 97.578, -54.4674, 42.275
2.328, 5, 35.815, 49.0944, -14.4728, 97.5805, -54.6243, 42.1841
2.331, 5, 35.8094, 49.1421, -14.4902, 97.5824, -54.7812, 42.0934
2.336, 5, 35.8037, 49.1897, -14.5072, 97.5839, -54.9382, 42.0031
2.34, 5, 35.7979, 49.2372, -14.524, 97.5849, -55.0951, 41.913
2.344, 5, 35.7919, 49.2847, -14.5406, 97.5854, -55.2519, 41.8233
2.347, 5, 35.7859, 49.332, -14.5568, 97.5855, -55.4087, 41.7339
2.352, 5, 35.7798, 49.3792, -14.5728, 97.5851, -55.5654, 41.6448
2.356, 5, 35.7736, 49.4263, -14.5885, 97.5843, -55.722, 41.556
2.36, 5, 35.7673, 49.4732, -14.6039, 97.5831, -55.8785, 41.4675
2.364, 5, 35.7609, 49.52, -14.619, 97.5814, -56.035, 41.3794
2.367, 5, 35.7545, 49.5666, -14.6339, 97.5792, -56.1914, 41.2915
2.372, 5, 35.7479, 49.6131, -14.6484, 97.5766, -56.3477, 41.204
2.376, 5, 35.7412, 49.6594, -14.6627, 97.5736, -56.5039, 41.1167
2.38, 5, 35.7345, 49.7056, -14.6767, 97.5701, -56.66, 41.0298
2.383, 5, 35.7277, 49.7516, -14.6904, 97.5663, -56.8161, 40.9432
2.388, 5, 35.7208, 49.7974, -14.7038, 97.562, -56.972, 40.8568
2.392, 5, 35.7138, 49.8432, -14.7169, 97.5572, -57.1279, 40.7708
2.396, 5, 35.7067, 49.8887, -14.7298, 97.5521, -57.2836, 40.685
2.4, 5, 35.6995, 49.9341, -14.7423, 97.5465, -57.4393, 40.5995
2.403, 5, 35.6922, 49.9794, -14.7546, 97.5405, -57.5949, 40.5143
2.408, 5, 35.6849, 50.0244, -14.7666, 97.5341, -57.7505, 40.4294
2.412, 5, 35.6775, 50.0694, -14.7783, 97.5273, -57.9059, 40.3448
2.416, 5, 35.6699, 50.1141, -14.7897, 97.5201, -58.0612, 40.2604
2.42, 5, 35.6623, 50.1587, -14.8008, 97.5125, -58.2165, 40.1763
2.423, 5, 35.6547, 50.2032, -14.8116, 97.5045, -58.3717, 40.0925
2.428, 5, 35.6469, 50.2475, -14.8221, 97.4961, -58.5267, 40.009
2.432, 5, 35.639, 50.2916, -14.8324, 97.4873, -58.6817, 39.9257
2.436, 5, 35.6311, 50.3355, -14.8423, 97.4782, -58.8366, 39.8426
2.439, 5, 35.623, 50.3793, -14.852, 97.4686, -58.9914, 39.7599
2.444, 5, 35.6149, 50.423, -14.8614, 97.4586, -59.1461, 39.6773
2.448, 5, 35.6067, 50.4664, -14.8705, 97.4483, -59.3008, 39.5951
2.452, 5, 35.5984, 50.5097, -14.8793, 97.4376, -59.4553, 39.513
2.456, 5, 35.5901, 50.5529, -14.8877, 97.4265, -59.6098, 39.4313
2.459, 5, 35.5816, 50.5959, -14.896, 97.415, -59.7641, 39.3497
2.464, 5, 35.5731, 50.6387, -14.9039, 97.4032, -59.9184, 39.2684
2.468, 5, 35.5645, 50.6813, -14.9115, 97.391, -60.0726, 39.1874
2.472, 5, 35.5558, 50.7238, -14.9188, 97.3784, -60.2267, 39.1066
2.476, 5, 35.547, 50.7661, -14.9258, 97.3655, -60.3807, 39.026
2.479, 5, 35.5381, 50.8082, -14.9326, 97.3522, -60.5346, 38.9456
2.484, 5, 35.5292, 50.8502, -14.939, 97.3386, -60.6884, 38.8655
2.488, 5, 35.5201, 50.892, -14.9451, 97.3246, -60.8421, 38.7856
2.492, 5, 35.511, 50.9336, -14.951, 97.3102, -60.9958, 38.7059
2.495, 5, 35.5018, 50.975, -14.9565, 97.2955, -61.1493, 38.6264
2.5, 5, 35.4925, 51.0163, -14.9618, 97.2804, -61.3028, 38.5472
2.504, 5, 35.4831, 51.0574, -14.9667, 97.265, -61.4561, 38.4682
2.508, 5, 35.4737, 51.0984, -14.9714, 97.2493, -61.6094, 38.3893
2.512, 5, 35.4642, 51.1391, -14.9757, 97.2332, -61.7626, 38.3107
2.515, 5, 35.4545, 51.1797, -14.9798, 97.2167, -61.9157, 38.2323
2.52, 5, 35.4449, 51.2201, -14.9836, 97.2, -62.0687, 38.1541
2.524, 5, 35.4351, 51.2604, -14.987, 97.1829, -62.2216, 38.0761
2.528, 5, 35.4252, 51.3004, -14.9902, 97.1654, -62.3744, 37.9984
2.531, 5, 35.4153, 51.3403, -14.993, 97.1476, -62.5271, 37.9208
2.536, 5, 35.4052, 51.38, -14.9956, 97.1295, -62.6797, 37.8434
2.54, 5, 35.3951, 51.4195, -14.9978, 97.1111, -62.8323, 37.7662
2.544, 5, 35.385, 51.4589, -14.9997, 97.0923, -62.9847, 37.6892
2.548, 5, 35.3747, 51.498, -15.0014, 97.0732, -63.137, 37.6124
2.551, 5, 35.3643, 51.537, -15.0027, 97.0538, -63.2893, 37.5357
2.556, 5, 35.3539, 51.5758, -15.0037, 97.0341, -63.4414, 37.4593
2.56, 5, 35.3434, 51.6144, -15.0045, 97.0141, -63.5935, 37.383
2.564, 5, 35.3328, 51.6529, -15.0049, 96.9937, -63.7455, 37.307
2.568, 5, 35.3221, 51.6911, -15.005, 96.973, -63.8973, 37.2311
2.571, 5, 35.3114, 51.7292, -15.0048, 96.9521, -64.0491, 37.1554
2.576, 5, 35.3005, 51.7671, -15.0043, 96.9308, -64.2008, 37.0798
2.58, 5, 35.2896, 51.8048, -15.0035, 96.9092, -64.3524, 37.0044
2.584, 5, 35.2786, 51.8423, -15.0023, 96.8873, -64.5039, 36.9293
2.587, 5, 35.2675, 51.8796, -15.0009, 96.8651, -64.6553, 36.8542
2.592, 5, 35.2564, 51.9168, -14.9992, 96.8425, -64.8065, 36.7794
2.596, 5, 35.2451, 51.9537, -14.9971, 96.8197, -64.9577, 36.7047
2.6, 5, 35.2338, 51.9905, -14.9947, 96.7966, -65.1089, 36.6301
2.604, 5, 35.2224, 52.0271, -14.9921, 96.7732, -65.2599, 36.5558
2.607, 5, 35.2109, 52.0635, -14.9891, 96.7495, -65.4108, 36.4816
2.612, 5, 35.1994, 52.0997, -14.9858, 96.7255, -65.5616, 36.4075
2.616, 5, 35.1877, 52.1357, -14.9821, 96.7012, -65.7123, 36.3336
2.62, 5, 35.176, 52.1715, -14.9782, 96.6766, -65.8629, 36.2599
2.624, 5, 35.1642, 52.2071, -14.974, 96.6517, -66.0134, 36.1863
2.627, 5, 35.1523, 52.2426, -14.9694, 96.6266, -66.1639, 36.1128
2.632, 5, 35.1404, 52.2778, -14.9645, 96.6012, -66.3142, 36.0395
2.636, 5, 35.1283, 52.3129, -14.9593, 96.5754, -66.4644, 35.9664
2.64, 5, 35.1162, 52.3477, -14.9538, 96.5494, -66.6145, 35.8934
2.643, 5, 35.104, 52.3824, -14.948, 96.5231, -66.7646, 35.8205
2.648, 5, 35.0917, 52.4169, -14.9418, 96.4966, -66.9145, 35.7478
2.652, 5, 35.0794, 52.4511, -14.9354, 96.4697, -67.0644, 35.6752
2.656, 5, 35.067, 52.4852, -14.9286, 96.4426, -67.2141, 35.6028
2.66, 5, 35.0545, 52.5191, -14.9215, 96.4152, -67.3638, 35.5305
2.663, 5, 35.0419, 52.5528, -14.9141, 96.3875, -67.5133, 35.4583
2.668, 5, 35.0292, 52.5863, -14.9064, 96.3596, -67.6628, 35.3862
2.672, 5, 35.0165, 52.6196, -14.8983, 96.3314, -67.8122, 35.3143
2.676, 5, 35.0036, 52.6527, -14.89, 96.3029, -67.9615, 35.2425
2.679, 5, 34.9907, 52.6856, -14.8813, 96.2742, -68.1107, 35.1708
2.684, 5, 34.9778, 52.7183, -14.8723, 96.2452, -68.2598, 35.0993
2.688, 5, 34.9647, 52.7508, -14.863, 96.2159, -68.4088, 35.0279
2.692, 5, 34.9516, 52.7831, -14.8534, 96.1864, -68.5577, 34.9565
2.696, 5, 34.9384, 52.8152, -14.8435, 96.1566, -68.7065, 34.8854
2.699, 5, 34.9251, 52.8471, -14.8332, 96.1266, -68.8552, 34.8143
2.704, 5, 34.9117, 52.8788, -14.8227, 96.0963, -69.0039, 34.7433
2.708, 5, 34.8983, 52.9103, -14.8118, 96.0657, -69.1524, 34.6725
2.712, 5, 34.8848, 52.9416, -14.8006, 96.0349, -69.3009, 34.6017
2.716, 5, 34.8712, 52.9727, -14.7891, 96.0038, -69.4493, 34.5311
2.719, 5, 34.8575, 53.0037, -14.7773, 95.9725, -69.5975, 34.4606
2.724, 5, 34.8438, 53.0344, -14.7652, 95.9409, -69.7457, 34.3902
2.728, 5, 34.83, 53.0649, -14.7527, 95.9091, -69.8938, 34.3199
2.732, 5, 34.8161, 53.0952, -14.74, 95.8771, -70.0418, 34.2497
2.735, 5, 34.8021, 53.1253, -14.7269, 95.8448, -70.1897, 34.1796
2.74, 5, 34.7881, 53.1552, -14.7135, 95.8122, -70.3375, 34.1095
2.744, 5, 34.774, 53.1849, -14.6998, 95.7794, -70.4853, 34.0396
2.748, 5, 34.7598, 53.2144, -14.6858, 95.7464, -70.6329, 33.9698
2.752, 5, 34.7455, 53.2437, -14.6714, 95.7131, -70.7805, 33.9001
2.755, 5, 34.7312, 53.2728, -14.6568, 95.6796, -70.9279, 33.8305
2.76, 5, 34.7168, 53.3016, -14.6418, 95.6458, -71.0753, 33.761
2.764, 5, 34.7024, 53.3302, -14.6265, 95.6118, -71.2225, 33.6915
2.768, 5, 34.688, 53.3586, -14.6109, 95.5776, -71.3697, 33.6222
2.772, 5, 34.6738, 53.3865, -14.595, 95.5432, -71.5167, 33.553
2.775, 5, 34.6598, 53.414, -14.5788, 95.5085, -71.6635, 33.4839
2.78, 5, 34.6462, 53.4407, -14.5622, 95.4737, -71.81, 33.415
2.784, 5, 34.6333, 53.4663, -14.5454, 95.4387, -71.9559, 33.3463
2.788, 5, 34.621, 53.4906, -14.5284, 95.4037, -72.1011, 33.2782
2.791, 5, 34.6095, 53.5135, -14.5112, 95.3688, -72.2449, 33.2106
2.796, 5, 34.5985, 53.5352, -14.4939, 95.3342, -72.3868, 33.144
2.8, 5, 34.5881, 53.5557, -14.4766, 95.3, -72.5259, 33.0787
2.804, 5, 34.5781, 53.5751, -14.4596, 95.2665, -72.6615, 33.0151
2.808, 5, 34.5683, 53.5938, -14.4429, 95.234, -72.7925, 32.9537
2.811, 5, 34.5589, 53.6116, -14.4267, 95.2027, -72.918, 32.8948
2.816, 5, 34.5497, 53.6287, -14.4111, 95.1729, -73.037, 32.8391
2.82, 5, 34.5409, 53.6448, -14.3964, 95.1448, -73.1486, 32.7868
2.824, 5, 34.5325, 53.6601, -14.3827, 95.1186, -73.2521, 32.7383
2.828, 5, 34.5243, 53.6746, -14.37, 95.0947, -73.3466, 32.694
2.831, 5, 34.5164, 53.6885, -14.3585, 95.073, -73.4317, 32.6542
2.836, 5, 34.5086, 53.7018, -14.3483, 95.0538, -73.5072, 32.6189
2.84, 5, 34.5009, 53.7147, -14.3394, 95.037, -73.5729, 32.5881
2.844, 5, 34.4934, 53.727, -14.3318, 95.0225, -73.6292, 32.5618
2.847, 5, 34.4862, 53.7388, -14.3254, 95.0104, -73.6766, 32.5396
2.852, 5, 34.4794, 53.7498, -14.3202, 95.0003, -73.7158, 32.5213
2.856, 5, 34.4731, 53.7601, -14.3159, 94.9921, -73.7475, 32.5065
2.86, 5, 34.4674, 53.7695, -14.3126, 94.9856, -73.7727, 32.4947
2.866, 5, 34.4572, 53.7856, -14.3081, 94.9767, -73.8072, 32.4786
2.868, 5, 34.4572, 53.7856, -14.3081, 94.9767, -73.8072, 32.4786
2.872, 5, 34.4529, 53.7922, -14.3067, 94.9738, -73.8183, 32.4735
2.876, 5, 34.449, 53.7977, -14.3057, 94.9718, -73.8264, 32.4697
2.88, 5, 34.4457, 53.8022, -14.305, 94.9703, -73.8321, 32.4671
2.883, 5, 34.443, 53.8056, -14.3045, 94.9693, -73.836, 32.4652
2.888, 5, 34.4409, 53.8082, -14.3042, 94.9686, -73.8388, 32.4639
2.892, 5, 34.4394, 53.81, -14.304, 94.9681, -73.8406, 32.4631
2.896, 5, 34.4382, 53.8112, -14.3038, 94.9677, -73.8419, 32.4625
2.9, 5, 34.4373, 53.8121, -14.3037, 94.9675, -73.8428, 32.4621
2.903, 5, 34.4362, 53.8128, -14.3035, 94.9673, -73.8434, 32.4618
2.908, 5, 34.4348, 53.8134, -14.3033, 94.9671, -73.8439, 32.4617
2.912, 5, 34.4329, 53.814, -14.3028, 94.9668, -73.8444, 32.4617
2.916, 5, 34.4304, 53.8147, -14.302, 94.9662, -73.8452, 32.4619
2.92, 5, 34.4272, 53.8155, -14.3005, 94.9651, -73.8464, 32.4623
2.923, 5, 34.4234, 53.8163, -14.2981, 94.9633, -73.8483, 32.4631
2.928, 5, 34.419, 53.8171, -14.2944, 94.9604, -73.8512, 32.4645
2.932, 6, 34.414, 53.8178, -14.2889, 94.956, -73.8555, 32.4665
2.936, 6, 34.4083, 53.8182, -14.2813, 94.9497, -73.8617, 32.4695
2.939, 6, 34.4018, 53.8184, -14.2709, 94.941, -73.8702, 32.4736
2.944, 6, 34.3945, 53.818, -14.2571, 94.9294, -73.8815, 32.479
2.948, 6, 34.3863, 53.8171, -14.2394, 94.9143, -73.8961, 32.4861
2.952, 6, 34.3774, 53.8153, -14.2172, 94.8952, -73.9146, 32.4951
2.956, 6, 34.3678, 53.8125, -14.19, 94.8717, -73.9374, 32.5061
2.959, 6, 34.3577, 53.8084, -14.1574, 94.8433, -73.9648, 32.5194
2.964, 6, 34.347, 53.803, -14.119, 94.8098, -73.9972, 32.5351
2.968, 6, 34.3359, 53.7962, -14.0747, 94.771, -74.0346, 32.5533
2.972, 6, 34.3243, 53.788, -14.0245, 94.7269, -74.0772, 32.5739
2.976, 6, 34.312, 53.7785, -13.9685, 94.6776, -74.1247, 32.5969
2.98, 6, 34.299, 53.7678, -13.907, 94.6235, -74.1769, 32.6221
2.984, 6, 34.2852, 53.7561, -13.8402, 94.5648, -74.2336, 32.6493
2.988, 6, 34.2706, 53.7434, -13.7688, 94.502, -74.2943, 32.6784
2.992, 6, 34.2554, 53.7299, -13.6931, 94.4355, -74.3586, 32.7091
2.995, 6, 34.2394, 53.7158, -13.6137, 94.366, -74.4259, 32.7412
3, 6, 34.2228, 53.7011, -13.5313, 94.2938, -74.4958, 32.7744
3.004, 6, 34.2053, 53.6861, -13.4463, 94.2196, -74.5678, 32.8084
3.008, 6, 34.1869, 53.671, -13.3593, 94.1437, -74.6414, 32.843
3.012, 6, 34.1676, 53.6557, -13.2707, 94.0667, -74.7162, 32.8781
3.015, 6, 34.1474, 53.6404, -13.1809, 93.9888, -74.792, 32.9134
3.02, 6, 34.1263, 53.6251, -13.0902, 93.9104, -74.8684, 32.9488
3.024, 6, 34.1045, 53.6098, -12.9988, 93.8315, -74.9453, 32.9843
3.028, 6, 34.0822, 53.5944, -12.907, 93.7525, -75.0225, 33.0198
3.031, 6, 34.0595, 53.579, -12.8149, 93.6732, -75.0999, 33.0551
3.036, 6, 34.0365, 53.5635, -12.7224, 93.5939, -75.1775, 33.0904
3.04, 6, 34.0134, 53.5478, -12.6298, 93.5146, -75.2552, 33.1256
3.044, 6, 33.99, 53.5321, -12.5369, 93.4352, -75.3331, 33.1606
3.048, 6, 33.9666, 53.5162, -12.4439, 93.3559, -75.411, 33.1954
3.051, 6, 33.9431, 53.5002, -12.3508, 93.2765, -75.489, 33.2301
3.056, 6, 33.9194, 53.484, -12.2575, 93.1972, -75.567, 33.2647
3.06, 6, 33.8957, 53.4677, -12.1642, 93.1179, -75.6451, 33.2991
3.064, 6, 33.872, 53.4513, -12.0707, 93.0387, -75.7232, 33.3333
3.068, 6, 33.8481, 53.4347, -11.9771, 92.9595, -75.8014, 33.3673
3.071, 6, 33.8242, 53.4181, -11.8834, 92.8803, -75.8796, 33.4012
3.076, 6, 33.8003, 53.4012, -11.7896, 92.8012, -75.9579, 33.4349
3.08, 6, 33.7763, 53.3843, -11.6957, 92.7221, -76.0362, 33.4684
3.084, 6, 33.7523, 53.3672, -11.6018, 92.6431, -76.1145, 33.5017
3.087, 6, 33.7282, 53.3499, -11.5077, 92.5641, -76.1929, 33.5349
3.092, 6, 33.704, 53.3326, -11.4135, 92.4851, -76.2713, 33.5679
3.096, 6, 33.6798, 53.315, -11.3192, 92.4062, -76.3497, 33.6008
3.1, 6, 33.6556, 53.2974, -11.2249, 92.3273, -76.4282, 33.6334
3.104, 6, 33.6313, 53.2796, -11.1304, 92.2485, -76.5067, 33.6659
3.107, 6, 33.6069, 53.2617, -11.0359, 92.1697, -76.5853, 33.6982
3.112, 6, 33.5825, 53.2436, -10.9412, 92.091, -76.6638, 33.7303
3.116, 6, 33.5581, 53.2254, -10.8465, 92.0123, -76.7425, 33.7623
3.12, 6, 33.5336, 53.2071, -10.7517, 91.9336, -76.8211, 33.794
3.124, 6, 33.509, 53.1886, -10.6567, 91.855, -76.8998, 33.8256
3.128, 6, 33.4844, 53.17, -10.5617, 91.7764, -76.9786, 33.8571
3.132, 6, 33.4598, 53.1512, -10.4667, 91.6979, -77.0573, 33.8883
3.136, 6, 33.4351, 53.1323, -10.3715, 91.6194, -77.1361, 33.9194
3.14, 6, 33.4103, 53.1133, -10.2762, 91.5409, -77.215, 33.9502
3.143, 6, 33.3856, 53.0941, -10.1809, 91.4625, -77.2938, 33.9809
3.148, 6, 33.3609, 53.0748, -10.0854, 91.3842, -77.3727, 34.0115
3.152, 6, 33.3366, 53.0553, -9.99, 91.3058, -77.4516, 34.0418
3.156, 6, 33.3128, 53.0357, -9.8946, 91.2276, -77.5305, 34.0719
3.16, 6, 33.2898, 53.0158, -9.79938, 91.1496, -77.6092, 34.1018
3.163, 6, 33.2675, 52.9958, -9.70455, 91.0719, -77.6876, 34.1314
3.168, 6, 33.2463, 52.9757, -9.6104, 90.9948, -77.7655, 34.1607
3.172, 6, 33.2258, 52.9556, -9.51731, 90.9185, -77.8426, 34.1894
3.176, 6, 33.2062, 52.9356, -9.42574, 90.8435, -77.9185, 34.2176
3.179, 6, 33.1871, 52.9159, -9.33623, 90.7702, -77.9926, 34.245
3.184, 6, 33.1686, 52.8967, -9.24935, 90.6991, -78.0646, 34.2715
3.188, 6, 33.1507, 52.8781, -9.16572, 90.6307, -78.1339, 34.2968
3.192, 6, 33.1334, 52.8604, -9.08594, 90.5655, -78.1999, 34.3208
3.196, 6, 33.1169, 52.8436, -9.01058, 90.504, -78.2623, 34.3434
3.199, 6, 33.1012, 52.828, -8.94017, 90.4466, -78.3205, 34.3644
3.204, 6, 33.0864, 52.8136, -8.87516, 90.3937, -78.3743, 34.3838
3.208, 6, 33.0722, 52.8007, -8.81588, 90.3456, -78.4232, 34.4012
3.212, 6, 33.0588, 52.7892, -8.76256, 90.3024, -78.4671, 34.4169
3.216, 6, 33.0459, 52.7792, -8.71527, 90.2643, -78.5059, 34.4307
3.22, 6, 33.0336, 52.7707, -8.67394, 90.2312, -78.5397, 34.4426
3.224, 6, 33.022, 52.7636, -8.63837, 90.2028, -78.5686, 34.4528
3.228, 6, 33.0113, 52.7578, -8.60823, 90.179, -78.5931, 34.4614
3.232, 6, 33.0015, 52.7531, -8.58309, 90.1592, -78.6134, 34.4685
3.235, 6, 32.9927, 52.7495, -8.56245, 90.143, -78.6299, 34.4742
3.24, 6, 32.9849, 52.7466, -8.54579, 90.1301, -78.6432, 34.4788
3.244, 6, 32.9781, 52.7444, -8.53258, 90.1199, -78.6537, 34.4825
3.248, 6, 32.9721, 52.7429, -8.52229, 90.1121, -78.6618, 34.4853
3.252, 6, 32.9667, 52.7417, -8.51442, 90.1061, -78.668, 34.4874
3.255, 6, 32.962, 52.741, -8.50853, 90.1017, -78.6726, 34.4889
3.26, 6, 32.9579, 52.7405, -8.50422, 90.0986, -78.6759, 34.49
3.264, 7, 32.9544, 52.7402, -8.50111, 90.0963, -78.6782, 34.4908
3.268, 7, 32.9517, 52.7401, -8.49893, 90.0948, -78.6798, 34.4914
3.272, 7, 32.9495, 52.74, -8.49741, 90.0937, -78.681, 34.4918
3.276, 7, 32.948, 52.7399, -8.49638, 90.093, -78.6817, 34.492
3.28, 7, 32.9469, 52.7399, -8.49567, 90.0925, -78.6823, 34.4922
3.284, 7, 32.9462, 52.7398, -8.49519, 90.0922, -78.6826, 34.4923
3.288, 7, 32.9457, 52.7398, -8.49487, 90.0919, -78.6828, 34.4924
3.291, 7, 32.9453, 52.7398, -8.49465, 90.0918, -78.683, 34.4924
3.296, 7, 32.9451, 52.7398, -8.4945, 90.0917, -78.6831, 34.4925
3.3, 7, 32.945, 52.7398, -8.4944, 90.0916, -78.6832, 34.4925
3.304, 7, 32.9449, 52.7398, -8.49433, 90.0916, -78.6832, 34.4925
3.308, 7, 32.9448, 52.7398, -8.49429, 90.0915, -78.6833, 34.4925
3.312, 7, 32.9447, 52.7398, -8.49426, 90.0915, -78.6833, 34.4925
3.316, 7, 32.9447, 52.7398, -8.49423, 90.0915, -78.6833, 34.4925
3.32, 7, 32.9447, 52.7398, -8.49422, 90.0915, -78.6833, 34.4926
3.324, 7, 32.9447, 52.7398, -8.49421, 90.0915, -78.6833, 34.4926
3.328, 7, 32.9447, 52.7398, -8.4942, 90.0915, -78.6833, 34.4926
3.332, 7, 32.9447, 52.7398, -8.4942, 90.0915, -78.6833, 34.4926
3.336, 7, 32.9447, 52.7398, -8.4942, 90.0915, -78.6833, 34.4926
3.34, 7, 32.9447, 52.7398, -8.49419, 90.0915, -78.6833, 34.4926
3.344, 7, 32.9447, 52.7398, -8.49419, 90.0915, -78.6833, 34.4926
3.347, 7, 32.9446, 52.7398, -8.49419, 90.0915, -78.6833, 34.4926
3.352, 7, 32.9446, 52.7398, -8.49419, 90.0915, -78.6833, 34.4926
3.356, 7, 32.9446, 52.7398, -8.49419, 90.0915, -78.6833, 34.4926
3.36, 7, 32.9446, 52.7398, -8.49419, 90.0915, -78.6833, 34.4926
3.364, 7, 32.9446, 52.7398, -8.49419, 90.0915, -78.6833, 34.4926
3.368, 7, 32.9446, 52.7398, -8.49419, 90.0915, -78.6833, 34.4926
3.372, 7, 32.9446, 52.7398, -8.49419, 90.0915, -78.6833, 34.4926
3.376, 7, 32.9446, 52.7398, -8.49419, 90.0915, -78.6833, 34.4926
3.38, 7, 32.9446, 52.7398, -8.49419, 90.0915, -78.6833, 34.4926
