hehonglu123/ABB_Primitive_Study/execution/movec/curve_exe_v200_z5.csv
timestamp, cmd_num, J1, J2, J3, J4, J5, J6
0, 1, 32.9528, 52.8019, -8.46502, 89.9168, -78.8096, 34.6812
0.002, 1, 32.9528, 52.8019, -8.46502, 89.9168, -78.8096, 34.6812
0.004, 1, 32.9528, 52.8019, -8.46502, 89.9168, -78.8096, 34.6812
0.008, 1, 32.9528, 52.8019, -8.46502, 89.9168, -78.8096, 34.6812
0.011, 1, 32.9528, 52.8019, -8.46502, 89.9168, -78.8096, 34.6812
0.016, 1, 32.9528, 52.8019, -8.46502, 89.9168, -78.8096, 34.6812
0.02, 1, 32.9528, 52.8019, -8.46502, 89.9168, -78.8096, 34.6812
0.024, 1, 32.9528, 52.8019, -8.46502, 89.9168, -78.8096, 34.6812
0.028, 1, 32.9528, 52.8019, -8.46502, 89.9168, -78.8096, 34.6812
0.032, 1, 32.9528, 52.8019, -8.46502, 89.9168, -78.8096, 34.6812
0.036, 1, 32.9528, 52.8019, -8.46502, 89.9168, -78.8096, 34.6812
0.04, 1, 32.9529, 52.8019, -8.46502, 89.9168, -78.8096, 34.6812
0.044, 1, 32.9531, 52.8018, -8.46503, 89.9168, -78.8095, 34.6812
0.048, 1, 32.9535, 52.8014, -8.46504, 89.9169, -78.8095, 34.6812
0.052, 1, 32.9543, 52.8006, -8.46509, 89.9169, -78.8093, 34.6813
0.056, 1, 32.9556, 52.7993, -8.46521, 89.917, -78.8088, 34.6815
0.06, 1, 32.9574, 52.7971, -8.46543, 89.9173, -78.8079, 34.6818
0.064, 1, 32.9597, 52.794, -8.46584, 89.9178, -78.8061, 34.6824
0.068, 1, 32.9625, 52.7899, -8.46653, 89.9186, -78.803, 34.6835
0.072, 1, 32.9659, 52.7849, -8.46761, 89.92, -78.798, 34.6852
0.076, 1, 32.9697, 52.7789, -8.46923, 89.922, -78.7905, 34.6877
0.08, 1, 32.9741, 52.7719, -8.47155, 89.925, -78.7796, 34.6915
0.084, 1, 32.9791, 52.7639, -8.47475, 89.9292, -78.7644, 34.6967
0.088, 1, 32.9847, 52.7549, -8.47904, 89.9348, -78.744, 34.7037
0.092, 1, 32.991, 52.7451, -8.48461, 89.9421, -78.7174, 34.7128
0.096, 1, 32.9978, 52.7344, -8.49169, 89.9515, -78.6834, 34.7244
0.1, 1, 33.005, 52.7231, -8.50046, 89.9631, -78.6411, 34.7389
0.104, 1, 33.0126, 52.7112, -8.51109, 89.9773, -78.5897, 34.7566
0.108, 1, 33.0204, 52.699, -8.5237, 89.9942, -78.5285, 34.7775
0.112, 1, 33.0284, 52.6863, -8.53837, 90.0139, -78.4572, 34.802
0.116, 1, 33.0368, 52.673, -8.55512, 90.0364, -78.3757, 34.8299
0.12, 1, 33.0455, 52.6592, -8.57391, 90.0617, -78.2841, 34.8613
0.124, 1, 33.0546, 52.6447, -8.59467, 90.0896, -78.183, 34.896
0.128, 1, 33.0642, 52.6296, -8.61726, 90.12, -78.0728, 34.9337
0.131, 1, 33.0741, 52.6139, -8.64153, 90.1527, -77.9545, 34.9743
0.136, 1, 33.0844, 52.5977, -8.6673, 90.1875, -77.8288, 35.0174
0.139, 1, 33.0949, 52.5809, -8.69437, 90.2239, -77.6968, 35.0627
0.144, 1, 33.1058, 52.5633, -8.72251, 90.2618, -77.5596, 35.1097
0.148, 1, 33.1172, 52.5447, -8.75152, 90.3009, -77.4182, 35.1582
0.152, 1, 33.1293, 52.525, -8.7812, 90.3408, -77.2736, 35.2077
0.156, 1, 33.1421, 52.5041, -8.81138, 90.3814, -77.1267, 35.2581
0.16, 1, 33.1556, 52.4819, -8.8419, 90.4224, -76.9782, 35.309
0.164, 1, 33.17, 52.4586, -8.87265, 90.4637, -76.8286, 35.3603
0.168, 1, 33.1849, 52.4345, -8.90354, 90.5052, -76.6784, 35.4118
0.172, 1, 33.2004, 52.4098, -8.9345, 90.5467, -76.5279, 35.4634
0.176, 1, 33.2161, 52.3847, -8.9655, 90.5883, -76.3772, 35.515
0.18, 1, 33.2321, 52.3594, -8.9965, 90.6299, -76.2265, 35.5667
0.184, 1, 33.2481, 52.334, -9.02748, 90.6715, -76.076, 35.6183
0.188, 1, 33.2643, 52.3084, -9.05844, 90.713, -75.9256, 35.6699
0.192, 1, 33.2805, 52.2828, -9.08935, 90.7545, -75.7754, 35.7214
0.196, 1, 33.2967, 52.2573, -9.12022, 90.7959, -75.6254, 35.7728
0.2, 1, 33.3129, 52.2317, -9.15103, 90.8372, -75.4757, 35.8241
0.204, 1, 33.3291, 52.2061, -9.1818, 90.8785, -75.3262, 35.8753
0.208, 1, 33.3453, 52.1806, -9.21251, 90.9197, -75.177, 35.9265
0.212, 1, 33.3614, 52.1551, -9.24316, 90.9608, -75.028, 35.9775
0.216, 1, 33.3776, 52.1296, -9.27376, 91.0018, -74.8794, 36.0285
0.22, 1, 33.3937, 52.1042, -9.3043, 91.0428, -74.731, 36.0794
0.224, 1, 33.4098, 52.0788, -9.33479, 91.0837, -74.5829, 36.1302
0.228, 1, 33.4258, 52.0535, -9.36522, 91.1245, -74.435, 36.1808
0.232, 1, 33.4419, 52.0282, -9.3956, 91.1652, -74.2874, 36.2314
0.236, 1, 33.4579, 52.003, -9.42592, 91.2059, -74.1401, 36.2819
0.24, 1, 33.4738, 51.9778, -9.45618, 91.2465, -73.9931, 36.3323
0.244, 1, 33.4898, 51.9526, -9.48639, 91.287, -73.8463, 36.3826
0.248, 1, 33.5057, 51.9275, -9.51654, 91.3275, -73.6998, 36.4329
0.252, 1, 33.5216, 51.9025, -9.54664, 91.3678, -73.5536, 36.483
0.256, 1, 33.5374, 51.8774, -9.57668, 91.4081, -73.4076, 36.533
0.26, 1, 33.5533, 51.8525, -9.60667, 91.4483, -73.2619, 36.583
0.264, 1, 33.5691, 51.8276, -9.6366, 91.4885, -73.1165, 36.6328
0.268, 1, 33.5848, 51.8027, -9.66649, 91.5286, -72.9713, 36.6826
0.272, 1, 33.6006, 51.7778, -9.69631, 91.5686, -72.8264, 36.7323
0.276, 1, 33.6163, 51.7531, -9.72609, 91.6085, -72.6817, 36.7819
0.28, 1, 33.632, 51.7283, -9.75581, 91.6484, -72.5373, 36.8314
0.284, 1, 33.6476, 51.7036, -9.78547, 91.6882, -72.3932, 36.8808
0.288, 1, 33.6633, 51.679, -9.81509, 91.7279, -72.2493, 36.9301
0.292, 1, 33.6789, 51.6544, -9.84465, 91.7675, -72.1057, 36.9794
0.296, 1, 33.6945, 51.6298, -9.87416, 91.8071, -71.9623, 37.0285
0.3, 1, 33.71, 51.6053, -9.90362, 91.8466, -71.8191, 37.0776
0.304, 1, 33.7255, 51.5808, -9.93303, 91.8861, -71.6763, 37.1265
0.308, 1, 33.741, 51.5563, -9.96238, 91.9255, -71.5336, 37.1754
0.312, 1, 33.7565, 51.5319, -9.99169, 91.9648, -71.3913, 37.2243
0.316, 1, 33.7719, 51.5076, -10.0209, 92.004, -71.2491, 37.273
0.32, 1, 33.7873, 51.4833, -10.0501, 92.0432, -71.1073, 37.3216
0.324, 1, 33.8027, 51.459, -10.0793, 92.0823, -70.9656, 37.3702
0.328, 1, 33.8181, 51.4348, -10.1084, 92.1213, -70.8242, 37.4186
0.332, 1, 33.8334, 51.4106, -10.1374, 92.1603, -70.6831, 37.467
0.336, 1, 33.8487, 51.3864, -10.1665, 92.1992, -70.5422, 37.5153
0.34, 1, 33.864, 51.3623, -10.1954, 92.238, -70.4015, 37.5636
0.344, 1, 33.8793, 51.3383, -10.2243, 92.2768, -70.261, 37.6117
0.348, 1, 33.8945, 51.3142, -10.2532, 92.3155, -70.1209, 37.6598
0.352, 1, 33.9097, 51.2903, -10.282, 92.3541, -69.9809, 37.7077
0.356, 1, 33.9249, 51.2663, -10.3107, 92.3927, -69.8412, 37.7556
0.36, 1, 33.94, 51.2424, -10.3394, 92.4312, -69.7017, 37.8034
0.364, 1, 33.9552, 51.2186, -10.3681, 92.4696, -69.5624, 37.8512
0.368, 1, 33.9703, 51.1947, -10.3967, 92.508, -69.4234, 37.8988
0.372, 1, 33.9853, 51.171, -10.4253, 92.5463, -69.2846, 37.9464
0.376, 1, 34.0004, 51.1472, -10.4538, 92.5846, -69.1461, 37.9939
0.38, 1, 34.0154, 51.1235, -10.4823, 92.6228, -69.0078, 38.0413
0.384, 1, 34.0304, 51.0998, -10.5107, 92.6609, -68.8697, 38.0887
0.388, 1, 34.0454, 51.0762, -10.5391, 92.6989, -68.7318, 38.1359
0.392, 1, 34.0604, 51.0526, -10.5674, 92.7369, -68.5941, 38.1831
0.396, 1, 34.0753, 51.0291, -10.5957, 92.7749, -68.4567, 38.2302
0.4, 1, 34.0902, 51.0056, -10.6239, 92.8127, -68.3195, 38.2773
0.404, 1, 34.1051, 50.9821, -10.6521, 92.8506, -68.1826, 38.3242
0.408, 1, 34.1199, 50.9587, -10.6803, 92.8883, -68.0458, 38.3711
0.412, 1, 34.1348, 50.9353, -10.7084, 92.926, -67.9093, 38.4179
0.416, 1, 34.1496, 50.9119, -10.7364, 92.9636, -67.773, 38.4646
0.42, 1, 34.1643, 50.8886, -10.7644, 93.0012, -67.6369, 38.5113
0.424, 1, 34.1791, 50.8653, -10.7924, 93.0387, -67.501, 38.5579
0.428, 1, 34.1938, 50.8421, -10.8203, 93.0762, -67.3653, 38.6044
0.432, 1, 34.2086, 50.8189, -10.8482, 93.1136, -67.2299, 38.6508
0.436, 1, 34.2232, 50.7957, -10.876, 93.1509, -67.0947, 38.6971
0.44, 1, 34.2379, 50.7726, -10.9038, 93.1881, -66.9597, 38.7434
0.444, 1, 34.2526, 50.7495, -10.9315, 93.2254, -66.8249, 38.7896
0.448, 1, 34.2672, 50.7264, -10.9592, 93.2625, -66.6903, 38.8358
0.452, 1, 34.2818, 50.7034, -10.9869, 93.2996, -66.5559, 38.8818
0.456, 1, 34.2964, 50.6804, -11.0145, 93.3367, -66.4217, 38.9278
0.46, 1, 34.3109, 50.6574, -11.0421, 93.3736, -66.2878, 38.9738
0.464, 1, 34.3254, 50.6345, -11.0696, 93.4106, -66.154, 39.0196
0.468, 1, 34.3399, 50.6116, -11.0971, 93.4474, -66.0204, 39.0654
0.472, 1, 34.3544, 50.5888, -11.1246, 93.4842, -65.8871, 39.1111
0.476, 1, 34.3689, 50.566, -11.152, 93.521, -65.754, 39.1567
0.48, 1, 34.3833, 50.5432, -11.1793, 93.5577, -65.621, 39.2023
0.484, 1, 34.3978, 50.5204, -11.2066, 93.5943, -65.4883, 39.2478
0.488, 1, 34.4121, 50.4977, -11.2339, 93.6309, -65.3558, 39.2933
0.492, 1, 34.4265, 50.475, -11.2612, 93.6675, -65.2234, 39.3386
0.496, 1, 34.4409, 50.4524, -11.2883, 93.7039, -65.0913, 39.3839
0.5, 1, 34.4552, 50.4298, -11.3155, 93.7404, -64.9594, 39.4291
0.504, 1, 34.4695, 50.4072, -11.3426, 93.7767, -64.8276, 39.4743
0.508, 1, 34.4838, 50.3847, -11.3697, 93.813, -64.6961, 39.5194
0.512, 1, 34.4981, 50.3622, -11.3967, 93.8493, -64.5647, 39.5644
0.516, 1, 34.5123, 50.3397, -11.4237, 93.8855, -64.4336, 39.6094
0.52, 1, 34.5265, 50.3173, -11.4507, 93.9217, -64.3026, 39.6543
0.524, 1, 34.5408, 50.2949, -11.4776, 93.9578, -64.1719, 39.6991
0.528, 1, 34.5549, 50.2725, -11.5045, 93.9938, -64.0413, 39.7439
0.532, 1, 34.5691, 50.2501, -11.5313, 94.0298, -63.9109, 39.7886
0.536, 1, 34.5832, 50.2278, -11.5581, 94.0657, -63.7807, 39.8332
0.54, 1, 34.5974, 50.2056, -11.5848, 94.1016, -63.6507, 39.8777
0.544, 1, 34.6115, 50.1833, -11.6116, 94.1375, -63.5209, 39.9222
0.548, 1, 34.6255, 50.1611, -11.6382, 94.1732, -63.3913, 39.9667
0.552, 1, 34.6396, 50.1389, -11.6649, 94.209, -63.2619, 40.0111
0.556, 1, 34.6536, 50.1168, -11.6915, 94.2447, -63.1326, 40.0554
0.56, 1, 34.6677, 50.0947, -11.718, 94.2803, -63.0036, 40.0996
0.564, 1, 34.6817, 50.0726, -11.7446, 94.3159, -62.8747, 40.1438
0.568, 1, 34.6956, 50.0505, -11.7711, 94.3514, -62.746, 40.1879
0.572, 1, 34.7096, 50.0285, -11.7975, 94.3869, -62.6175, 40.2319
0.576, 1, 34.7235, 50.0065, -11.8239, 94.4223, -62.4892, 40.2759
0.58, 1, 34.7375, 49.9846, -11.8503, 94.4577, -62.361, 40.3199
0.584, 1, 34.7514, 49.9626, -11.8766, 94.493, -62.2331, 40.3637
0.588, 1, 34.7652, 49.9407, -11.9029, 94.5283, -62.1053, 40.4075
0.592, 1, 34.7791, 49.9189, -11.9292, 94.5635, -61.9777, 40.4513
0.596, 1, 34.7929, 49.897, -11.9554, 94.5987, -61.8503, 40.495
0.6, 1, 34.8068, 49.8752, -11.9816, 94.6338, -61.723, 40.5386
0.604, 1, 34.8206, 49.8535, -12.0078, 94.6689, -61.5959, 40.5821
0.608, 1, 34.8343, 49.8317, -12.0339, 94.7039, -61.4691, 40.6256
0.612, 1, 34.8481, 49.81, -12.0599, 94.7389, -61.3423, 40.6691
0.616, 1, 34.8618, 49.7883, -12.086, 94.7738, -61.2158, 40.7125
0.62, 1, 34.8756, 49.7667, -12.112, 94.8087, -61.0894, 40.7558
0.624, 1, 34.8893, 49.7451, -12.138, 94.8435, -60.9632, 40.799
0.628, 1, 34.903, 49.7235, -12.1639, 94.8783, -60.8372, 40.8422
0.632, 1, 34.9166, 49.7019, -12.1898, 94.9131, -60.7114, 40.8854
0.636, 1, 34.9303, 49.6804, -12.2157, 94.9478, -60.5857, 40.9284
0.64, 1, 34.9439, 49.6589, -12.2415, 94.9824, -60.4602, 40.9715
0.644, 1, 34.9575, 49.6374, -12.2673, 95.017, -60.3349, 41.0144
0.648, 1, 34.9711, 49.6159, -12.2931, 95.0516, -60.2097, 41.0573
0.652, 1, 34.9847, 49.5945, -12.3188, 95.0861, -60.0847, 41.1002
0.656, 1, 34.9983, 49.5731, -12.3445, 95.1205, -59.9599, 41.143
0.66, 1, 35.0118, 49.5518, -12.3701, 95.1549, -59.8352, 41.1857
0.664, 1, 35.0253, 49.5304, -12.3958, 95.1893, -59.7107, 41.2284
0.668, 1, 35.0388, 49.5091, -12.4214, 95.2236, -59.5864, 41.271
0.672, 1, 35.0523, 49.4879, -12.4469, 95.2579, -59.4622, 41.3136
0.676, 1, 35.0658, 49.4666, -12.4724, 95.2921, -59.3382, 41.3561
0.68, 1, 35.0792, 49.4454, -12.4979, 95.3263, -59.2144, 41.3985
0.684, 1, 35.0927, 49.4242, -12.5234, 95.3605, -59.0907, 41.4409
0.688, 1, 35.1061, 49.4031, -12.5488, 95.3946, -58.9672, 41.4833
0.692, 1, 35.1195, 49.3819, -12.5742, 95.4286, -58.8439, 41.5256
0.696, 1, 35.1329, 49.3608, -12.5995, 95.4626, -58.7207, 41.5678
0.7, 1, 35.1462, 49.3397, -12.6249, 95.4966, -58.5977, 41.61
0.704, 1, 35.1596, 49.3187, -12.6501, 95.5305, -58.4748, 41.6521
0.708, 1, 35.1729, 49.2977, -12.6754, 95.5644, -58.3521, 41.6941
0.712, 1, 35.1862, 49.2767, -12.7006, 95.5982, -58.2296, 41.7361
0.716, 1, 35.1995, 49.2557, -12.7258, 95.632, -58.1072, 41.7781
0.72, 1, 35.2128, 49.2347, -12.751, 95.6657, -57.985, 41.82
0.724, 1, 35.226, 49.2138, -12.7761, 95.6994, -57.8629, 41.8618
0.728, 1, 35.2393, 49.1929, -12.8012, 95.7331, -57.741, 41.9036
0.732, 1, 35.2525, 49.1721, -12.8262, 95.7667, -57.6192, 41.9454
0.736, 1, 35.2657, 49.1512, -12.8513, 95.8003, -57.4976, 41.9871
0.74, 1, 35.2789, 49.1304, -12.8763, 95.8338, -57.3762, 42.0287
0.744, 1, 35.2921, 49.1097, -12.9012, 95.8673, -57.2549, 42.0703
0.748, 1, 35.3052, 49.0889, -12.9262, 95.9007, -57.1338, 42.1118
0.752, 1, 35.3184, 49.0682, -12.9511, 95.9341, -57.0128, 42.1533
0.756, 1, 35.3315, 49.0475, -12.9759, 95.9675, -56.8919, 42.1947
0.76, 1, 35.3446, 49.0268, -13.0008, 96.0008, -56.7712, 42.2361
0.764, 1, 35.3577, 49.0061, -13.0256, 96.0341, -56.6507, 42.2774
0.768, 1, 35.3708, 48.9855, -13.0504, 96.0673, -56.5303, 42.3187
0.772, 1, 35.3838, 48.9649, -13.0751, 96.1005, -56.4101, 42.3599
0.776, 1, 35.3969, 48.9443, -13.0998, 96.1336, -56.29, 42.401
0.78, 1, 35.4099, 48.9238, -13.1245, 96.1667, -56.1701, 42.4422
0.784, 1, 35.4229, 48.9032, -13.1492, 96.1998, -56.0503, 42.4832
0.788, 1, 35.4359, 48.8827, -13.1738, 96.2328, -55.9307, 42.5242
0.792, 1, 35.4489, 48.8623, -13.1984, 96.2658, -55.8112, 42.5652
0.796, 1, 35.4619, 48.8418, -13.2229, 96.2988, -55.6918, 42.6061
0.8, 1, 35.4748, 48.8214, -13.2475, 96.3317, -55.5726, 42.647
0.804, 1, 35.4877, 48.801, -13.272, 96.3645, -55.4535, 42.6878
0.808, 1, 35.5006, 48.7806, -13.2965, 96.3974, -55.3346, 42.7285
0.812, 1, 35.5136, 48.7603, -13.3209, 96.4302, -55.2159, 42.7693
0.816, 1, 35.5264, 48.7399, -13.3453, 96.4629, -55.0972, 42.8099
0.82, 1, 35.5393, 48.7196, -13.3697, 96.4956, -54.9787, 42.8506
0.824, 1, 35.5522, 48.6994, -13.3941, 96.5283, -54.8604, 42.8911
0.828, 1, 35.565, 48.6791, -13.4184, 96.5609, -54.7422, 42.9316
0.832, 1, 35.5778, 48.6589, -13.4427, 96.5935, -54.6241, 42.9721
0.836, 1, 35.5906, 48.6387, -13.467, 96.6261, -54.5062, 43.0125
0.84, 1, 35.6034, 48.6185, -13.4912, 96.6586, -54.3884, 43.0529
0.844, 1, 35.6162, 48.5983, -13.5154, 96.6911, -54.2707, 43.0933
0.848, 1, 35.629, 48.5782, -13.5396, 96.7235, -54.1532, 43.1335
0.852, 1, 35.6417, 48.5581, -13.5638, 96.7559, -54.0358, 43.1738
0.856, 1, 35.6545, 48.538, -13.5879, 96.7883, -53.9186, 43.214
0.86, 1, 35.6672, 48.5179, -13.612, 96.8206, -53.8015, 43.2541
0.864, 1, 35.6799, 48.4979, -13.6361, 96.8529, -53.6845, 43.2942
0.868, 1, 35.6925, 48.4779, -13.6601, 96.8852, -53.5677, 43.3343
0.872, 1, 35.7051, 48.458, -13.6841, 96.9174, -53.451, 43.3743
0.876, 1, 35.7176, 48.4381, -13.7081, 96.9496, -53.3345, 43.4142
0.88, 1, 35.73, 48.4184, -13.7321, 96.9817, -53.2181, 43.4541
0.884, 1, 35.7419, 48.3992, -13.756, 97.0137, -53.102, 43.4939
0.888, 1, 35.7533, 48.3805, -13.7798, 97.0457, -52.9863, 43.5336
0.892, 1, 35.7641, 48.3627, -13.8035, 97.0775, -52.8712, 43.5731
0.896, 1, 35.7742, 48.3457, -13.8269, 97.109, -52.757, 43.6122
0.9, 1, 35.7836, 48.3297, -13.8501, 97.1401, -52.6444, 43.6508
0.904, 1, 35.7924, 48.3145, -13.8728, 97.1706, -52.534, 43.6887
0.908, 1, 35.8007, 48.3002, -13.895, 97.2003, -52.4264, 43.7256
0.912, 1, 35.8087, 48.2866, -13.9163, 97.229, -52.3226, 43.7613
0.916, 1, 35.8164, 48.2736, -13.9367, 97.2564, -52.2234, 43.7953
0.92, 1, 35.8238, 48.2613, -13.956, 97.2823, -52.1296, 43.8275
0.924, 1, 35.8309, 48.2497, -13.9741, 97.3065, -52.042, 43.8576
0.928, 1, 35.8377, 48.2387, -13.9907, 97.3288, -51.9612, 43.8853
0.932, 1, 35.8442, 48.2281, -14.0057, 97.3491, -51.888, 43.9104
0.936, 1, 35.8507, 48.2178, -14.0192, 97.3671, -51.8226, 43.9328
0.94, 1, 35.8571, 48.2077, -14.031, 97.3829, -51.7653, 43.9524
0.944, 1, 35.8634, 48.1979, -14.0412, 97.3966, -51.716, 43.9693
0.948, 1, 35.8695, 48.1884, -14.0498, 97.4081, -51.6743, 43.9836
0.952, 1, 35.8755, 48.1793, -14.0569, 97.4175, -51.6399, 43.9954
0.956, 2, 35.8812, 48.1708, -14.0626, 97.4252, -51.612, 44.0049
0.96, 2, 35.8865, 48.1631, -14.0672, 97.4313, -51.5899, 44.0124
0.964, 2, 35.8915, 48.1562, -14.0707, 97.436, -51.5728, 44.0183
0.968, 2, 35.896, 48.1502, -14.0734, 97.4396, -51.5598, 44.0227
0.972, 2, 35.9001, 48.145, -14.0754, 97.4422, -51.5503, 44.0259
0.976, 2, 35.9037, 48.1406, -14.0768, 97.4441, -51.5433, 44.0283
0.98, 2, 35.9067, 48.1371, -14.0778, 97.4454, -51.5385, 44.0299
0.984, 2, 35.9091, 48.1343, -14.0785, 97.4463, -51.5351, 44.0311
0.988, 2, 35.911, 48.1323, -14.079, 97.4469, -51.5327, 44.0319
0.992, 2, 35.9123, 48.1308, -14.0793, 97.4474, -51.5312, 44.0324
0.996, 2, 35.9132, 48.1299, -14.0796, 97.4477, -51.5301, 44.0328
1, 2, 35.9138, 48.1292, -14.0797, 97.4479, -51.5294, 44.033
1.004, 2, 35.9142, 48.1287, -14.0798, 97.448, -51.5289, 44.0332
1.008, 2, 35.9145, 48.1284, -14.0799, 97.4481, -51.5285, 44.0333
1.012, 2, 35.9147, 48.1282, -14.0799, 97.4482, -51.5283, 44.0334
1.016, 2, 35.9149, 48.1281, -14.08, 97.4482, -51.5282, 44.0334
1.02, 2, 35.9149, 48.128, -14.08, 97.4482, -51.5281, 44.0335
1.024, 2, 35.915, 48.1279, -14.08, 97.4482, -51.528, 44.0335
1.027, 2, 35.915, 48.1279, -14.08, 97.4483, -51.5279, 44.0335
1.032, 2, 35.9151, 48.1278, -14.08, 97.4483, -51.5279, 44.0335
1.036, 2, 35.9151, 48.1278, -14.08, 97.4483, -51.5279, 44.0335
1.04, 2, 35.9151, 48.1278, -14.08, 97.4483, -51.5279, 44.0335
1.044, 2, 35.9151, 48.1278, -14.08, 97.4483, -51.5279, 44.0335
1.048, 2, 35.9151, 48.1278, -14.08, 97.4483, -51.5279, 44.0335
1.052, 2, 35.9151, 48.1278, -14.08, 97.4483, -51.5279, 44.0335
1.055, 2, 35.9151, 48.1278, -14.08, 97.4483, -51.5278, 44.0335
1.06, 2, 35.9151, 48.1278, -14.08, 97.4483, -51.5278, 44.0335
1.064, 2, 35.9151, 48.1278, -14.08, 97.4483, -51.5278, 44.0335
1.068, 2, 35.9151, 48.1278, -14.08, 97.4483, -51.5278, 44.0335
1.072, 2, 35.9151, 48.1278, -14.08, 97.4483, -51.5278, 44.0335
1.076, 2, 35.9151, 48.1278, -14.08, 97.4483, -51.5278, 44.0335
1.08, 2, 35.9151, 48.1278, -14.08, 97.4483, -51.5278, 44.0335
1.084, 2, 35.9151, 48.1278, -14.08, 97.4483, -51.5278, 44.0335
1.088, 2, 35.9151, 48.1278, -14.08, 97.4483, -51.5278, 44.0335
1.091, 2, 35.9151, 48.1278, -14.08, 97.4483, -51.5278, 44.0335
1.096, 2, 35.9151, 48.1278, -14.08, 97.4483, -51.5278, 44.0335
1.1, 2, 35.9151, 48.1278, -14.08, 97.4483, -51.5278, 44.0335
1.104, 2, 35.9151, 48.1278, -14.08, 97.4483, -51.5278, 44.0335
1.108, 2, 35.9151, 48.1278, -14.08, 97.4483, -51.5278, 44.0335
1.112, 2, 35.9151, 48.1278, -14.08, 97.4483, -51.5278, 44.0335
1.116, 2, 35.9151, 48.1278, -14.08, 97.4483, -51.5278, 44.0335
1.119, 2, 35.9151, 48.1278, -14.08, 97.4483, -51.5278, 44.0335
1.124, 2, 35.9151, 48.1278, -14.08, 97.4483, -51.5278, 44.0335
1.128, 2, 35.9151, 48.1278, -14.08, 97.4483, -51.5278, 44.0335
1.132, 2, 35.9151, 48.1278, -14.08, 97.4483, -51.5278, 44.0335
1.136, 2, 35.9151, 48.1278, -14.08, 97.4483, -51.5278, 44.0335
1.14, 2, 35.9151, 48.1278, -14.08, 97.4483, -51.5278, 44.0335
1.144, 2, 35.9151, 48.1278, -14.08, 97.4483, -51.5278, 44.0335
1.147, 2, 35.9151, 48.1278, -14.08, 97.4483, -51.5278, 44.0335
1.152, 2, 35.9151, 48.1278, -14.08, 97.4483, -51.5278, 44.0335
1.156, 2, 35.9151, 48.1278, -14.08, 97.4483, -51.5278, 44.0335
1.16, 2, 35.9151, 48.1278, -14.08, 97.4483, -51.5278, 44.0335
1.164, 2, 35.9151, 48.1278, -14.08, 97.4483, -51.5278, 44.0335
1.168, 2, 35.9151, 48.1278, -14.08, 97.4483, -51.5278, 44.0335
1.172, 2, 35.9151, 48.1278, -14.08, 97.4483, -51.5278, 44.0335
1.175, 2, 35.9151, 48.1278, -14.08, 97.4483, -51.5278, 44.0335
1.18, 2, 35.9151, 48.1278, -14.08, 97.4483, -51.5278, 44.0335
1.184, 2, 35.9151, 48.1278, -14.08, 97.4483, -51.5278, 44.0335
1.188, 2, 35.9151, 48.1278, -14.08, 97.4483, -51.5278, 44.0335
1.192, 2, 35.9151, 48.1278, -14.08, 97.4483, -51.5278, 44.0335
1.196, 2, 35.9151, 48.1278, -14.08, 97.4483, -51.5278, 44.0335
1.2, 2, 35.9151, 48.1278, -14.08, 97.4483, -51.5278, 44.0335
1.204, 2, 35.9151, 48.1278, -14.08, 97.4483, -51.5278, 44.0335
1.208, 2, 35.9151, 48.1278, -14.08, 97.4483, -51.5278, 44.0335
1.212, 2, 35.9151, 48.1278, -14.08, 97.4483, -51.5278, 44.0335
1.216, 2, 35.9151, 48.1278, -14.08, 97.4483, -51.5278, 44.0335
1.22, 2, 35.9151, 48.1278, -14.08, 97.4483, -51.5278, 44.0335
1.224, 2, 35.9151, 48.1278, -14.08, 97.4483, -51.5278, 44.0335
1.228, 2, 35.9151, 48.1278, -14.08, 97.4483, -51.5278, 44.0335
1.232, 2, 35.9151, 48.1278, -14.08, 97.4483, -51.5278, 44.0335
1.236, 2, 35.9151, 48.1278, -14.08, 97.4483, -51.5278, 44.0335
1.24, 2, 35.9151, 48.1278, -14.08, 97.4483, -51.5278, 44.0335
1.244, 2, 35.9151, 48.1278, -14.08, 97.4483, -51.5278, 44.0335
1.248, 2, 35.9151, 48.1278, -14.08, 97.4483, -51.5278, 44.0335
1.252, 2, 35.9151, 48.1278, -14.08, 97.4483, -51.5278, 44.0335
1.256, 2, 35.9151, 48.1278, -14.08, 97.4483, -51.5278, 44.0335
1.26, 2, 35.9151, 48.1278, -14.08, 97.4483, -51.5278, 44.0335
1.264, 2, 35.9151, 48.1278, -14.08, 97.4483, -51.5278, 44.0335
1.267, 2, 35.9151, 48.1278, -14.08, 97.4483, -51.5278, 44.0335
1.272, 2, 35.9151, 48.1278, -14.08, 97.4483, -51.5278, 44.0335
1.276, 2, 35.9151, 48.1278, -14.08, 97.4483, -51.5278, 44.0335
1.28, 2, 35.9151, 48.1278, -14.08, 97.4483, -51.5278, 44.0335
1.284, 2, 35.9151, 48.1278, -14.08, 97.4483, -51.5278, 44.0335
1.288, 2, 35.9151, 48.1278, -14.08, 97.4483, -51.5278, 44.0335
1.292, 2, 35.9151, 48.1278, -14.08, 97.4483, -51.5278, 44.0335
1.295, 2, 35.9151, 48.1278, -14.08, 97.4483, -51.5278, 44.0335
1.3, 2, 35.9151, 48.1278, -14.08, 97.4483, -51.5278, 44.0335
1.304, 2, 35.9151, 48.1278, -14.08, 97.4483, -51.5278, 44.0335
1.308, 2, 35.9151, 48.1278, -14.08, 97.4483, -51.5278, 44.0335
1.312, 2, 35.9151, 48.1278, -14.08, 97.4483, -51.5278, 44.0335
1.316, 2, 35.9151, 48.1278, -14.08, 97.4483, -51.5278, 44.0335
1.32, 2, 35.9151, 48.1278, -14.08, 97.4483, -51.5278, 44.0335
1.324, 2, 35.9151, 48.1278, -14.08, 97.4483, -51.5278, 44.0335
1.328, 2, 35.9151, 48.1278, -14.08, 97.4483, -51.5278, 44.0335
1.332, 2, 35.9151, 48.1278, -14.08, 97.4483, -51.5278, 44.0335
1.336, 2, 35.9151, 48.1278, -14.08, 97.4483, -51.5278, 44.0335
1.34, 2, 35.9151, 48.1278, -14.08, 97.4483, -51.5278, 44.0335
1.344, 2, 35.9151, 48.1278, -14.08, 97.4483, -51.5278, 44.0335
1.348, 2, 35.9151, 48.1278, -14.08, 97.4483, -51.5278, 44.0335
1.352, 2, 35.9151, 48.1278, -14.08, 97.4483, -51.5278, 44.0335
1.356, 2, 35.9151, 48.1278, -14.08, 97.4483, -51.5278, 44.0335
1.36, 2, 35.9151, 48.1278, -14.08, 97.4483, -51.5278, 44.0335
1.364, 2, 35.9151, 48.1278, -14.08, 97.4483, -51.5278, 44.0335
1.368, 2, 35.9151, 48.1278, -14.08, 97.4483, -51.5278, 44.0335
1.372, 2, 35.9151, 48.1278, -14.08, 97.4483, -51.5278, 44.0335
1.376, 2, 35.9151, 48.1278, -14.08, 97.4483, -51.5278, 44.0335
1.38, 2, 35.9151, 48.1278, -14.08, 97.4483, -51.5278, 44.0335
1.384, 2, 35.9151, 48.1278, -14.08, 97.4483, -51.5278, 44.0335
1.388, 2, 35.9151, 48.1278, -14.08, 97.4483, -51.5278, 44.0335
1.392, 2, 35.9151, 48.1278, -14.08, 97.4483, -51.5278, 44.0335
1.396, 2, 35.9151, 48.1278, -14.08, 97.4483, -51.5278, 44.0335
1.4, 2, 35.9151, 48.1278, -14.08, 97.4483, -51.5278, 44.0335
1.404, 2, 35.9151, 48.1278, -14.08, 97.4483, -51.5278, 44.0335
1.408, 2, 35.9151, 48.1278, -14.08, 97.4483, -51.5278, 44.0335
1.412, 2, 35.9151, 48.1278, -14.08, 97.4483, -51.5278, 44.0335
1.416, 2, 35.9151, 48.1278, -14.08, 97.4483, -51.5278, 44.0335
1.42, 2, 35.9151, 48.1278, -14.08, 97.4483, -51.5278, 44.0335
1.424, 2, 35.9151, 48.1278, -14.08, 97.4483, -51.5278, 44.0335
1.428, 2, 35.9151, 48.1278, -14.08, 97.4483, -51.5278, 44.0335
1.432, 2, 35.9151, 48.1278, -14.08, 97.4483, -51.5278, 44.0335
1.436, 2, 35.9151, 48.1278, -14.08, 97.4483, -51.5278, 44.0335
1.44, 2, 35.9151, 48.1278, -14.08, 97.4483, -51.5278, 44.0335
1.444, 2, 35.9151, 48.1278, -14.08, 97.4483, -51.5278, 44.0335
1.448, 2, 35.9151, 48.1278, -14.08, 97.4483, -51.5278, 44.0335
1.452, 2, 35.9151, 48.1278, -14.08, 97.4483, -51.5278, 44.0335
1.456, 3, 35.9151, 48.1278, -14.08, 97.4483, -51.5278, 44.0335
1.46, 3, 35.9151, 48.1278, -14.08, 97.4483, -51.5278, 44.0335
1.464, 3, 35.9151, 48.1278, -14.08, 97.4483, -51.5278, 44.0335
1.468, 3, 35.9151, 48.1278, -14.08, 97.4483, -51.5278, 44.0335
1.472, 3, 35.9151, 48.1278, -14.08, 97.4483, -51.5278, 44.0335
1.476, 3, 35.9151, 48.1278, -14.08, 97.4483, -51.5278, 44.0335
1.48, 3, 35.9151, 48.1278, -14.08, 97.4483, -51.5278, 44.0335
1.484, 3, 35.9151, 48.1278, -14.08, 97.4483, -51.5278, 44.0335
1.488, 3, 35.9151, 48.1278, -14.08, 97.4483, -51.5278, 44.0335
1.492, 3, 35.9151, 48.1278, -14.08, 97.4483, -51.5278, 44.0335
1.496, 3, 35.9151, 48.1278, -14.08, 97.4483, -51.5278, 44.0335
1.5, 3, 35.9151, 48.1278, -14.08, 97.4483, -51.5278, 44.0335
1.504, 3, 35.9151, 48.1278, -14.08, 97.4483, -51.5278, 44.0335
1.508, 3, 35.9151, 48.1278, -14.08, 97.4483, -51.5278, 44.0335
1.512, 4, 35.9151, 48.1278, -14.08, 97.4483, -51.5278, 44.0335
1.516, 4, 35.9151, 48.1278, -14.08, 97.4483, -51.5278, 44.0335
1.52, 4, 35.9151, 48.1278, -14.08, 97.4483, -51.5278, 44.0335
1.524, 4, 35.9151, 48.1278, -14.08, 97.4483, -51.5278, 44.0335
1.528, 4, 35.9151, 48.1278, -14.08, 97.4483, -51.5278, 44.0335
1.532, 4, 35.9151, 48.1278, -14.08, 97.4483, -51.5278, 44.0335
1.536, 4, 35.9151, 48.1278, -14.08, 97.4483, -51.5278, 44.0335
1.54, 4, 35.9151, 48.1278, -14.08, 97.4483, -51.5278, 44.0335
1.544, 4, 35.9151, 48.1278, -14.08, 97.4483, -51.5278, 44.0335
1.548, 4, 35.9151, 48.1278, -14.08, 97.4483, -51.5278, 44.0335
1.552, 4, 35.9151, 48.128, -14.08, 97.4483, -51.5279, 44.0335
1.556, 4, 35.915, 48.1283, -14.0801, 97.4483, -51.5279, 44.0335
1.56, 4, 35.9147, 48.1291, -14.0801, 97.4483, -51.528, 44.0334
1.564, 4, 35.9143, 48.1303, -14.0802, 97.4483, -51.5284, 44.0332
1.568, 4, 35.9138, 48.1322, -14.0804, 97.4484, -51.5291, 44.0327
1.572, 4, 35.913, 48.1348, -14.0806, 97.4485, -51.5305, 44.0319
1.576, 4, 35.9121, 48.1381, -14.0811, 97.4487, -51.5328, 44.0304
1.58, 4, 35.911, 48.1421, -14.0817, 97.449, -51.5366, 44.0281
1.584, 4, 35.9099, 48.1467, -14.0826, 97.4494, -51.5422, 44.0246
1.588, 4, 35.9087, 48.152, -14.0839, 97.4501, -51.5501, 44.0197
1.592, 4, 35.9075, 48.158, -14.0855, 97.4509, -51.5608, 44.0131
1.596, 4, 35.9064, 48.1647, -14.0876, 97.4519, -51.5748, 44.0045
1.6, 4, 35.9053, 48.1722, -14.0902, 97.4532, -51.5924, 43.9936
1.604, 4, 35.9043, 48.1805, -14.0933, 97.4548, -51.6139, 43.9803
1.608, 4, 35.9034, 48.1895, -14.097, 97.4566, -51.6396, 43.9645
1.612, 4, 35.9025, 48.1992, -14.1012, 97.4588, -51.6696, 43.9459
1.616, 4, 35.9017, 48.2095, -14.106, 97.4612, -51.704, 43.9248
1.62, 4, 35.9011, 48.2206, -14.1114, 97.4639, -51.7427, 43.901
1.624, 4, 35.9005, 48.2322, -14.1173, 97.4669, -51.7853, 43.8747
1.628, 4, 35.9, 48.2447, -14.1237, 97.47, -51.8317, 43.8463
1.632, 4, 35.8995, 48.2579, -14.1306, 97.4734, -51.8813, 43.8158
1.636, 4, 35.8989, 48.272, -14.1378, 97.4769, -51.9338, 43.7835
1.64, 4, 35.8983, 48.2869, -14.1453, 97.4805, -51.9888, 43.7499
1.644, 4, 35.8976, 48.3027, -14.1531, 97.4842, -52.0457, 43.715
1.648, 4, 35.8967, 48.3192, -14.1611, 97.488, -52.1043, 43.6792
1.652, 4, 35.8957, 48.3364, -14.1692, 97.4917, -52.1641, 43.6427
1.656, 4, 35.8945, 48.3541, -14.1775, 97.4955, -52.2249, 43.6056
1.66, 4, 35.8933, 48.3723, -14.1858, 97.4992, -52.2865, 43.5681
1.664, 4, 35.8919, 48.3909, -14.1942, 97.5029, -52.3486, 43.5303
1.668, 4, 35.8904, 48.4099, -14.2026, 97.5066, -52.4111, 43.4923
1.672, 4, 35.8888, 48.4291, -14.211, 97.5101, -52.4738, 43.4543
1.676, 4, 35.8872, 48.4486, -14.2194, 97.5136, -52.5367, 43.4162
1.68, 4, 35.8855, 48.4682, -14.2278, 97.5171, -52.5998, 43.378
1.684, 4, 35.8838, 48.4879, -14.2362, 97.5204, -52.6629, 43.3399
1.688, 4, 35.882, 48.5077, -14.2445, 97.5237, -52.726, 43.3018
1.692, 4, 35.8802, 48.5274, -14.2528, 97.5269, -52.7892, 43.2637
1.696, 4, 35.8784, 48.5472, -14.2611, 97.53, -52.8524, 43.2257
1.7, 4, 35.8765, 48.567, -14.2693, 97.5331, -52.9156, 43.1878
1.704, 4, 35.8747, 48.5868, -14.2775, 97.5361, -52.9788, 43.1498
1.708, 4, 35.8728, 48.6066, -14.2856, 97.5389, -53.042, 43.112
1.712, 4, 35.8709, 48.6264, -14.2937, 97.5417, -53.1052, 43.0742
1.716, 4, 35.869, 48.6461, -14.3017, 97.5445, -53.1684, 43.0364
1.72, 4, 35.8671, 48.6659, -14.3098, 97.5471, -53.2316, 42.9988
1.724, 4, 35.8651, 48.6856, -14.3177, 97.5497, -53.2947, 42.9612
1.728, 4, 35.8632, 48.7053, -14.3256, 97.5521, -53.3579, 42.9236
1.732, 4, 35.8612, 48.725, -14.3335, 97.5545, -53.421, 42.8861
1.736, 4, 35.8592, 48.7446, -14.3414, 97.5568, -53.4841, 42.8487
1.74, 4, 35.8572, 48.7642, -14.3492, 97.5591, -53.5472, 42.8113
1.744, 4, 35.8552, 48.7838, -14.3569, 97.5612, -53.6103, 42.7739
1.748, 4, 35.8532, 48.8034, -14.3646, 97.5633, -53.6734, 42.7367
1.752, 4, 35.8511, 48.823, -14.3723, 97.5653, -53.7365, 42.6995
1.756, 4, 35.849, 48.8425, -14.3799, 97.5672, -53.7996, 42.6623
1.76, 4, 35.847, 48.862, -14.3875, 97.5691, -53.8626, 42.6253
1.764, 4, 35.8449, 48.8815, -14.395, 97.5708, -53.9257, 42.5882
1.768, 4, 35.8428, 48.901, -14.4025, 97.5725, -53.9887, 42.5513
1.772, 4, 35.8407, 48.9205, -14.4099, 97.5741, -54.0517, 42.5143
1.776, 4, 35.8385, 48.9399, -14.4173, 97.5756, -54.1147, 42.4775
1.78, 4, 35.8364, 48.9593, -14.4247, 97.5771, -54.1777, 42.4407
1.784, 4, 35.8342, 48.9787, -14.432, 97.5784, -54.2406, 42.404
1.788, 4, 35.8321, 48.998, -14.4393, 97.5797, -54.3036, 42.3673
1.792, 4, 35.8299, 49.0174, -14.4465, 97.5809, -54.3665, 42.3306
1.796, 4, 35.8277, 49.0367, -14.4537, 97.5821, -54.4295, 42.2941
1.8, 4, 35.8255, 49.056, -14.4608, 97.5832, -54.4924, 42.2576
1.804, 4, 35.8232, 49.0752, -14.4679, 97.5841, -54.5553, 42.2211
1.808, 4, 35.821, 49.0945, -14.4749, 97.585, -54.6182, 42.1847
1.812, 4, 35.8187, 49.1137, -14.4819, 97.5859, -54.681, 42.1484
1.816, 4, 35.8165, 49.1329, -14.4889, 97.5866, -54.7439, 42.1121
1.82, 4, 35.8142, 49.1521, -14.4958, 97.5873, -54.8067, 42.0758
1.824, 4, 35.8119, 49.1712, -14.5027, 97.5879, -54.8696, 42.0396
1.828, 4, 35.8095, 49.1903, -14.5095, 97.5884, -54.9324, 42.0035
1.832, 4, 35.8072, 49.2094, -14.5163, 97.5889, -54.9952, 41.9674
1.836, 4, 35.8049, 49.2285, -14.523, 97.5893, -55.058, 41.9314
1.84, 4, 35.8025, 49.2476, -14.5297, 97.5896, -55.1208, 41.8955
1.844, 4, 35.8001, 49.2666, -14.5363, 97.5898, -55.1835, 41.8595
1.848, 4, 35.7978, 49.2856, -14.5429, 97.59, -55.2463, 41.8237
1.852, 4, 35.7954, 49.3046, -14.5495, 97.5901, -55.309, 41.7879
1.856, 4, 35.7929, 49.3235, -14.556, 97.5901, -55.3718, 41.7521
1.86, 4, 35.7905, 49.3425, -14.5624, 97.59, -55.4345, 41.7164
1.864, 4, 35.7881, 49.3614, -14.5688, 97.5899, -55.4972, 41.6808
1.868, 4, 35.7856, 49.3803, -14.5752, 97.5897, -55.5599, 41.6452
1.872, 4, 35.7831, 49.3991, -14.5815, 97.5894, -55.6225, 41.6096
1.876, 4, 35.7806, 49.418, -14.5878, 97.5891, -55.6852, 41.5741
1.88, 4, 35.7781, 49.4368, -14.5941, 97.5887, -55.7478, 41.5387
1.884, 4, 35.7756, 49.4556, -14.6003, 97.5882, -55.8105, 41.5033
1.888, 4, 35.7731, 49.4744, -14.6064, 97.5876, -55.8731, 41.4679
1.892, 4, 35.7706, 49.4931, -14.6125, 97.587, -55.9357, 41.4326
1.896, 4, 35.768, 49.5118, -14.6186, 97.5863, -55.9983, 41.3974
1.9, 4, 35.7654, 49.5305, -14.6246, 97.5855, -56.0609, 41.3622
1.904, 4, 35.7628, 49.5492, -14.6305, 97.5846, -56.1234, 41.3271
1.908, 4, 35.7602, 49.5678, -14.6365, 97.5837, -56.186, 41.292
1.912, 4, 35.7576, 49.5865, -14.6423, 97.5827, -56.2485, 41.2569
1.916, 4, 35.755, 49.6051, -14.6482, 97.5817, -56.311, 41.2219
1.92, 4, 35.7524, 49.6236, -14.6539, 97.5806, -56.3735, 41.187
1.924, 4, 35.7497, 49.6422, -14.6597, 97.5794, -56.436, 41.1521
1.928, 4, 35.747, 49.6607, -14.6654, 97.5781, -56.4985, 41.1172
1.932, 4, 35.7444, 49.6792, -14.671, 97.5768, -56.561, 41.0824
1.936, 4, 35.7417, 49.6977, -14.6766, 97.5754, -56.6234, 41.0477
1.94, 4, 35.7389, 49.7161, -14.6822, 97.5739, -56.6858, 41.013
1.944, 4, 35.7362, 49.7346, -14.6877, 97.5723, -56.7483, 40.9783
1.948, 4, 35.7335, 49.753, -14.6932, 97.5707, -56.8107, 40.9437
1.952, 4, 35.7307, 49.7713, -14.6986, 97.5691, -56.8731, 40.9091
1.956, 4, 35.728, 49.7897, -14.7039, 97.5673, -56.9355, 40.8746
1.96, 4, 35.7252, 49.808, -14.7093, 97.5655, -56.9978, 40.8402
1.964, 4, 35.7224, 49.8263, -14.7146, 97.5636, -57.0602, 40.8057
1.968, 4, 35.7196, 49.8446, -14.7198, 97.5617, -57.1225, 40.7714
1.972, 4, 35.7168, 49.8628, -14.725, 97.5597, -57.1848, 40.737
1.976, 4, 35.7139, 49.8811, -14.7301, 97.5576, -57.2472, 40.7027
1.98, 4, 35.7111, 49.8993, -14.7352, 97.5555, -57.3095, 40.6685
1.984, 4, 35.7082, 49.9174, -14.7403, 97.5532, -57.3717, 40.6343
1.988, 4, 35.7053, 49.9356, -14.7453, 97.551, -57.434, 40.6002
1.992, 4, 35.7024, 49.9537, -14.7503, 97.5486, -57.4963, 40.5661
1.996, 4, 35.6995, 49.9718, -14.7552, 97.5462, -57.5585, 40.532
1.999, 4, 35.6966, 49.9899, -14.76, 97.5437, -57.6207, 40.498
2.004, 4, 35.6937, 50.008, -14.7649, 97.5412, -57.683, 40.464
2.008, 4, 35.6907, 50.026, -14.7696, 97.5386, -57.7451, 40.4301
2.012, 4, 35.6878, 50.044, -14.7744, 97.5359, -57.8073, 40.3962
2.015, 4, 35.6848, 50.062, -14.7791, 97.5332, -57.8695, 40.3624
2.019, 4, 35.6818, 50.0799, -14.7837, 97.5304, -57.9317, 40.3286
2.024, 4, 35.6788, 50.0978, -14.7883, 97.5275, -57.9938, 40.2949
2.028, 4, 35.6758, 50.1157, -14.7928, 97.5246, -58.0559, 40.2612
2.031, 4, 35.6728, 50.1336, -14.7973, 97.5216, -58.118, 40.2275
2.036, 4, 35.6697, 50.1515, -14.8018, 97.5185, -58.1801, 40.1939
2.04, 4, 35.6667, 50.1693, -14.8062, 97.5154, -58.2422, 40.1603
2.044, 4, 35.6636, 50.1871, -14.8106, 97.5122, -58.3043, 40.1268
2.048, 4, 35.6605, 50.2048, -14.8149, 97.509, -58.3664, 40.0933
2.051, 4, 35.6574, 50.2226, -14.8192, 97.5056, -58.4284, 40.0599
2.055, 4, 35.6543, 50.2403, -14.8234, 97.5023, -58.4904, 40.0265
2.06, 4, 35.6512, 50.258, -14.8276, 97.4988, -58.5525, 39.9931
2.064, 4, 35.648, 50.2757, -14.8317, 97.4953, -58.6144, 39.9598
2.068, 4, 35.6449, 50.2933, -14.8358, 97.4918, -58.6764, 39.9265
2.071, 4, 35.6417, 50.3109, -14.8398, 97.4881, -58.7384, 39.8933
2.076, 4, 35.6385, 50.3285, -14.8438, 97.4845, -58.8004, 39.8601
2.08, 4, 35.6354, 50.3461, -14.8477, 97.4807, -58.8623, 39.8269
2.084, 4, 35.6321, 50.3636, -14.8516, 97.4769, -58.9242, 39.7938
2.087, 4, 35.6289, 50.3811, -14.8555, 97.473, -58.9861, 39.7608
2.092, 4, 35.6257, 50.3986, -14.8593, 97.4691, -59.048, 39.7277
2.096, 4, 35.6224, 50.4161, -14.8631, 97.4651, -59.1099, 39.6947
2.1, 4, 35.6192, 50.4335, -14.8668, 97.461, -59.1718, 39.6618
2.104, 4, 35.6159, 50.4509, -14.8704, 97.4569, -59.2337, 39.6289
2.107, 4, 35.6126, 50.4683, -14.874, 97.4527, -59.2955, 39.596
2.111, 4, 35.6093, 50.4856, -14.8776, 97.4485, -59.3573, 39.5632
2.116, 4, 35.606, 50.5029, -14.8811, 97.4442, -59.4191, 39.5304
2.12, 4, 35.6027, 50.5202, -14.8846, 97.4398, -59.4809, 39.4976
2.124, 4, 35.5993, 50.5375, -14.888, 97.4354, -59.5427, 39.4649
2.127, 4, 35.596, 50.5548, -14.8914, 97.4309, -59.6045, 39.4323
2.132, 4, 35.5926, 50.572, -14.8948, 97.4264, -59.6663, 39.3996
2.136, 4, 35.5892, 50.5892, -14.898, 97.4218, -59.728, 39.367
2.14, 4, 35.5858, 50.6063, -14.9013, 97.4171, -59.7897, 39.3345
2.143, 4, 35.5824, 50.6235, -14.9045, 97.4124, -59.8514, 39.302
2.148, 4, 35.579, 50.6406, -14.9076, 97.4076, -59.9131, 39.2695
2.152, 4, 35.5756, 50.6577, -14.9107, 97.4028, -59.9748, 39.237
2.156, 4, 35.5721, 50.6747, -14.9138, 97.3979, -60.0365, 39.2046
2.16, 4, 35.5687, 50.6918, -14.9168, 97.3929, -60.0981, 39.1723
2.163, 4, 35.5652, 50.7088, -14.9197, 97.3879, -60.1598, 39.14
2.168, 4, 35.5617, 50.7257, -14.9226, 97.3829, -60.2214, 39.1077
2.172, 4, 35.5582, 50.7427, -14.9255, 97.3777, -60.283, 39.0754
2.176, 4, 35.5547, 50.7596, -14.9283, 97.3725, -60.3446, 39.0432
2.179, 4, 35.5511, 50.7765, -14.9311, 97.3673, -60.4062, 39.011
2.184, 4, 35.5476, 50.7934, -14.9338, 97.362, -60.4677, 38.9789
2.188, 4, 35.544, 50.8102, -14.9365, 97.3566, -60.5293, 38.9468
2.192, 4, 35.5405, 50.827, -14.9391, 97.3512, -60.5908, 38.9147
2.196, 4, 35.5369, 50.8438, -14.9417, 97.3457, -60.6523, 38.8827
2.199, 4, 35.5333, 50.8606, -14.9442, 97.3402, -60.7138, 38.8507
2.204, 4, 35.5297, 50.8773, -14.9467, 97.3346, -60.7753, 38.8187
2.208, 4, 35.5261, 50.894, -14.9491, 97.329, -60.8368, 38.7868
2.212, 4, 35.5224, 50.9107, -14.9515, 97.3233, -60.8983, 38.7549
2.216, 4, 35.5188, 50.9274, -14.9538, 97.3175, -60.9597, 38.7231
2.219, 4, 35.5151, 50.944, -14.9561, 97.3117, -61.0211, 38.6912
2.224, 4, 35.5114, 50.9606, -14.9584, 97.3058, -61.0826, 38.6595
2.228, 4, 35.5077, 50.9771, -14.9606, 97.2999, -61.144, 38.6277
2.232, 4, 35.504, 50.9937, -14.9627, 97.2939, -61.2053, 38.596
2.235, 4, 35.5003, 51.0102, -14.9648, 97.2879, -61.2667, 38.5643
2.24, 4, 35.4966, 51.0267, -14.9669, 97.2818, -61.3281, 38.5327
2.244, 4, 35.4929, 51.0431, -14.9689, 97.2756, -61.3894, 38.5011
2.248, 4, 35.4891, 51.0596, -14.9708, 97.2694, -61.4507, 38.4695
2.252, 4, 35.4853, 51.076, -14.9727, 97.2631, -61.512, 38.4379
2.255, 4, 35.4815, 51.0923, -14.9746, 97.2568, -61.5733, 38.4064
2.259, 4, 35.4777, 51.1087, -14.9764, 97.2505, -61.6346, 38.375
2.264, 4, 35.4739, 51.125, -14.9782, 97.244, -61.6959, 38.3435
2.268, 4, 35.4701, 51.1413, -14.9799, 97.2375, -61.7571, 38.3121
2.272, 4, 35.4663, 51.1575, -14.9815, 97.231, -61.8184, 38.2808
2.275, 4, 35.4624, 51.1738, -14.9831, 97.2244, -61.8796, 38.2494
2.28, 4, 35.4586, 51.19, -14.9847, 97.2178, -61.9408, 38.2181
2.284, 4, 35.4547, 51.2061, -14.9862, 97.2111, -62.002, 38.1868
2.288, 4, 35.4508, 51.2223, -14.9877, 97.2043, -62.0632, 38.1556
2.291, 4, 35.4469, 51.2384, -14.9891, 97.1975, -62.1243, 38.1244
2.296, 4, 35.443, 51.2545, -14.9905, 97.1907, -62.1855, 38.0932
2.3, 4, 35.4391, 51.2706, -14.9918, 97.1837, -62.2466, 38.0621
2.304, 4, 35.4351, 51.2866, -14.9931, 97.1768, -62.3077, 38.031
2.308, 4, 35.4312, 51.3026, -14.9943, 97.1698, -62.3688, 37.9999
2.311, 4, 35.4272, 51.3186, -14.9955, 97.1627, -62.4299, 37.9688
2.316, 4, 35.4232, 51.3345, -14.9966, 97.1555, -62.4909, 37.9378
2.32, 4, 35.4192, 51.3504, -14.9977, 97.1484, -62.552, 37.9068
2.324, 4, 35.4152, 51.3663, -14.9987, 97.1411, -62.613, 37.8759
2.328, 4, 35.4112, 51.3822, -14.9997, 97.1339, -62.6741, 37.845
2.331, 4, 35.4072, 51.398, -15.0007, 97.1265, -62.7351, 37.8141
2.336, 4, 35.4031, 51.4138, -15.0015, 97.1191, -62.7961, 37.7832
2.34, 4, 35.399, 51.4296, -15.0024, 97.1117, -62.857, 37.7524
2.344, 4, 35.395, 51.4454, -15.0032, 97.1042, -62.918, 37.7216
2.347, 4, 35.3909, 51.4611, -15.0039, 97.0966, -62.9789, 37.6908
2.352, 4, 35.3868, 51.4768, -15.0046, 97.0891, -63.0399, 37.6601
2.356, 4, 35.3827, 51.4924, -15.0052, 97.0814, -63.1008, 37.6294
2.36, 4, 35.3785, 51.508, -15.0058, 97.0737, -63.1617, 37.5987
2.364, 4, 35.3744, 51.5237, -15.0064, 97.0659, -63.2226, 37.5681
2.367, 4, 35.3702, 51.5392, -15.0068, 97.0581, -63.2834, 37.5375
2.372, 4, 35.3661, 51.5548, -15.0073, 97.0503, -63.3443, 37.5069
2.376, 4, 35.3619, 51.5703, -15.0077, 97.0424, -63.4051, 37.4763
2.38, 4, 35.3577, 51.5858, -15.008, 97.0344, -63.4659, 37.4458
2.383, 4, 35.3535, 51.6012, -15.0083, 97.0264, -63.5267, 37.4153
2.388, 4, 35.3493, 51.6166, -15.0086, 97.0184, -63.5875, 37.3848
2.392, 4, 35.3451, 51.632, -15.0087, 97.0103, -63.6483, 37.3544
2.396, 4, 35.3408, 51.6474, -15.0089, 97.0021, -63.7091, 37.324
2.4, 4, 35.3365, 51.6627, -15.009, 96.9939, -63.7698, 37.2936
2.403, 4, 35.3323, 51.6781, -15.009, 96.9856, -63.8305, 37.2633
2.408, 4, 35.328, 51.6933, -15.009, 96.9773, -63.8913, 37.2329
2.412, 4, 35.3237, 51.7086, -15.009, 96.969, -63.9519, 37.2026
2.416, 4, 35.3194, 51.7238, -15.0089, 96.9605, -64.0126, 37.1724
2.42, 4, 35.3151, 51.739, -15.0087, 96.9521, -64.0733, 37.1421
2.423, 4, 35.3107, 51.7541, -15.0085, 96.9436, -64.1339, 37.1119
2.428, 4, 35.3064, 51.7693, -15.0082, 96.935, -64.1946, 37.0817
2.432, 4, 35.302, 51.7844, -15.0079, 96.9264, -64.2552, 37.0516
2.436, 4, 35.2976, 51.7994, -15.0076, 96.9178, -64.3158, 37.0215
2.439, 4, 35.2932, 51.8145, -15.0072, 96.909, -64.3764, 36.9914
2.444, 4, 35.2888, 51.8295, -15.0067, 96.9003, -64.437, 36.9613
2.448, 4, 35.2844, 51.8445, -15.0062, 96.8915, -64.4975, 36.9312
2.452, 5, 35.28, 51.8594, -15.0057, 96.8826, -64.5581, 36.9012
2.456, 5, 35.2756, 51.8743, -15.005, 96.8737, -64.6186, 36.8712
2.459, 5, 35.2711, 51.8892, -15.0044, 96.8648, -64.6791, 36.8413
2.464, 5, 35.2666, 51.9041, -15.0037, 96.8558, -64.7396, 36.8113
2.468, 5, 35.2621, 51.9189, -15.0029, 96.8467, -64.8001, 36.7814
2.472, 5, 35.2577, 51.9337, -15.0021, 96.8376, -64.8606, 36.7515
2.476, 5, 35.2532, 51.9485, -15.0013, 96.8285, -64.921, 36.7217
2.479, 5, 35.2486, 51.9632, -15.0004, 96.8193, -64.9815, 36.6918
2.484, 5, 35.2441, 51.9779, -14.9994, 96.8101, -65.0419, 36.662
2.488, 5, 35.2396, 51.9926, -14.9984, 96.8008, -65.1023, 36.6322
2.492, 5, 35.235, 52.0073, -14.9973, 96.7915, -65.1627, 36.6025
2.495, 5, 35.2304, 52.0219, -14.9962, 96.7821, -65.2231, 36.5727
2.5, 5, 35.2258, 52.0365, -14.9951, 96.7726, -65.2835, 36.543
2.504, 5, 35.2212, 52.051, -14.9939, 96.7632, -65.3438, 36.5134
2.508, 5, 35.2166, 52.0656, -14.9926, 96.7536, -65.4041, 36.4837
2.512, 5, 35.212, 52.0801, -14.9913, 96.7441, -65.4645, 36.4541
2.515, 5, 35.2074, 52.0945, -14.9899, 96.7345, -65.5248, 36.4245
2.52, 5, 35.2027, 52.109, -14.9885, 96.7248, -65.5851, 36.3949
2.524, 5, 35.1981, 52.1234, -14.9871, 96.7151, -65.6453, 36.3653
2.528, 5, 35.1934, 52.1377, -14.9856, 96.7053, -65.7056, 36.3358
2.531, 5, 35.1887, 52.1521, -14.984, 96.6955, -65.7658, 36.3063
2.536, 5, 35.184, 52.1664, -14.9824, 96.6857, -65.8261, 36.2768
2.54, 5, 35.1793, 52.1807, -14.9807, 96.6758, -65.8863, 36.2473
2.544, 5, 35.1746, 52.195, -14.979, 96.6658, -65.9465, 36.2179
2.548, 5, 35.1698, 52.2092, -14.9773, 96.6559, -66.0067, 36.1885
2.551, 5, 35.1651, 52.2234, -14.9755, 96.6458, -66.0669, 36.1591
2.556, 5, 35.1603, 52.2375, -14.9736, 96.6357, -66.127, 36.1297
2.56, 5, 35.1556, 52.2517, -14.9717, 96.6256, -66.1872, 36.1004
2.564, 5, 35.1508, 52.2658, -14.9697, 96.6154, -66.2473, 36.0711
2.568, 5, 35.146, 52.2798, -14.9677, 96.6052, -66.3074, 36.0418
2.571, 5, 35.1412, 52.2939, -14.9657, 96.595, -66.3675, 36.0125
2.576, 5, 35.1363, 52.3079, -14.9636, 96.5847, -66.4276, 35.9832
2.58, 5, 35.1315, 52.3219, -14.9614, 96.5743, -66.4877, 35.954
2.584, 5, 35.1267, 52.3358, -14.9592, 96.5639, -66.5477, 35.9248
2.587, 5, 35.1218, 52.3497, -14.957, 96.5535, -66.6077, 35.8956
2.592, 5, 35.1169, 52.3636, -14.9547, 96.543, -66.6678, 35.8665
2.596, 5, 35.112, 52.3775, -14.9523, 96.5325, -66.7278, 35.8373
2.6, 5, 35.1071, 52.3913, -14.9499, 96.5219, -66.7878, 35.8082
2.604, 5, 35.1022, 52.4051, -14.9474, 96.5113, -66.8478, 35.7791
2.607, 5, 35.0973, 52.4189, -14.9449, 96.5006, -66.9077, 35.7501
2.612, 5, 35.0924, 52.4326, -14.9424, 96.4899, -66.9677, 35.721
2.616, 5, 35.0874, 52.4463, -14.9398, 96.4791, -67.0276, 35.692
2.62, 5, 35.0824, 52.46, -14.9371, 96.4684, -67.0875, 35.663
2.624, 5, 35.0775, 52.4736, -14.9344, 96.4575, -67.1474, 35.634
2.627, 5, 35.0725, 52.4872, -14.9317, 96.4466, -67.2073, 35.605
2.632, 5, 35.0675, 52.5008, -14.9289, 96.4357, -67.2672, 35.5761
2.636, 5, 35.0625, 52.5144, -14.926, 96.4247, -67.3271, 35.5472
2.64, 5, 35.0574, 52.5279, -14.9231, 96.4137, -67.3869, 35.5183
2.643, 5, 35.0524, 52.5414, -14.9202, 96.4027, -67.4468, 35.4894
2.648, 5, 35.0474, 52.5548, -14.9171, 96.3916, -67.5066, 35.4606
2.652, 5, 35.0423, 52.5682, -14.9141, 96.3804, -67.5664, 35.4317
2.656, 5, 35.0372, 52.5816, -14.911, 96.3692, -67.6262, 35.4029
2.66, 5, 35.0321, 52.595, -14.9078, 96.358, -67.686, 35.3741
2.663, 5, 35.027, 52.6083, -14.9046, 96.3467, -67.7457, 35.3453
2.668, 5, 35.0219, 52.6216, -14.9014, 96.3354, -67.8055, 35.3166
2.672, 5, 35.0168, 52.6349, -14.8981, 96.3241, -67.8652, 35.2879
2.676, 5, 35.0117, 52.6481, -14.8947, 96.3127, -67.9249, 35.2591
2.679, 5, 35.0065, 52.6614, -14.8913, 96.3012, -67.9846, 35.2304
2.684, 5, 35.0013, 52.6745, -14.8879, 96.2897, -68.0443, 35.2018
2.688, 5, 34.9962, 52.6877, -14.8844, 96.2782, -68.104, 35.1731
2.692, 5, 34.991, 52.7008, -14.8808, 96.2666, -68.1636, 35.1445
2.696, 5, 34.9858, 52.7139, -14.8772, 96.255, -68.2233, 35.1159
2.699, 5, 34.9806, 52.7269, -14.8736, 96.2433, -68.2829, 35.0873
2.704, 5, 34.9754, 52.7399, -14.8699, 96.2317, -68.3425, 35.0587
2.708, 5, 34.9701, 52.7529, -14.8661, 96.2199, -68.4021, 35.0302
2.712, 5, 34.9649, 52.7659, -14.8623, 96.2081, -68.4617, 35.0016
2.716, 5, 34.9596, 52.7788, -14.8585, 96.1963, -68.5213, 34.9731
2.719, 5, 34.9544, 52.7917, -14.8546, 96.1844, -68.5808, 34.9446
2.724, 5, 34.9491, 52.8046, -14.8506, 96.1725, -68.6404, 34.9161
2.728, 5, 34.9438, 52.8174, -14.8466, 96.1606, -68.6999, 34.8877
2.732, 5, 34.9385, 52.8302, -14.8425, 96.1486, -68.7594, 34.8592
2.735, 5, 34.9331, 52.843, -14.8384, 96.1366, -68.8189, 34.8308
2.74, 5, 34.9278, 52.8557, -14.8343, 96.1245, -68.8784, 34.8024
2.744, 5, 34.9225, 52.8684, -14.8301, 96.1124, -68.9379, 34.774
2.748, 5, 34.9171, 52.8811, -14.8258, 96.1002, -68.9973, 34.7456
2.752, 5, 34.9118, 52.8937, -14.8215, 96.088, -69.0568, 34.7173
2.755, 5, 34.9064, 52.9063, -14.8172, 96.0758, -69.1162, 34.6889
2.76, 5, 34.901, 52.9189, -14.8128, 96.0635, -69.1756, 34.6606
2.764, 5, 34.8956, 52.9314, -14.8083, 96.0512, -69.235, 34.6323
2.768, 5, 34.8902, 52.944, -14.8038, 96.0389, -69.2944, 34.604
2.772, 5, 34.8847, 52.9564, -14.7993, 96.0265, -69.3537, 34.5758
2.775, 5, 34.8793, 52.9689, -14.7947, 96.014, -69.4131, 34.5475
2.78, 5, 34.8738, 52.9813, -14.79, 96.0015, -69.4724, 34.5193
2.784, 5, 34.8684, 52.9937, -14.7853, 95.989, -69.5318, 34.4911
2.788, 5, 34.8629, 53.006, -14.7806, 95.9765, -69.5911, 34.4629
2.791, 5, 34.8574, 53.0184, -14.7758, 95.9639, -69.6504, 34.4347
2.796, 5, 34.8519, 53.0306, -14.7709, 95.9512, -69.7096, 34.4066
2.8, 5, 34.8464, 53.0429, -14.766, 95.9386, -69.7689, 34.3784
2.804, 5, 34.8409, 53.0551, -14.7611, 95.9258, -69.8282, 34.3503
2.808, 5, 34.8353, 53.0673, -14.7561, 95.9131, -69.8874, 34.3222
2.811, 5, 34.8298, 53.0795, -14.751, 95.9003, -69.9466, 34.2941
2.816, 5, 34.8242, 53.0916, -14.7459, 95.8875, -70.0058, 34.266
2.82, 5, 34.8187, 53.1037, -14.7408, 95.8746, -70.065, 34.238
2.824, 5, 34.8131, 53.1158, -14.7356, 95.8617, -70.1242, 34.2099
2.828, 5, 34.8075, 53.1278, -14.7303, 95.8487, -70.1834, 34.1819
2.831, 5, 34.8019, 53.1398, -14.725, 95.8357, -70.2425, 34.1539
2.836, 5, 34.7962, 53.1518, -14.7197, 95.8227, -70.3017, 34.1259
2.84, 5, 34.7906, 53.1637, -14.7143, 95.8096, -70.3608, 34.0979
2.844, 5, 34.785, 53.1756, -14.7088, 95.7965, -70.4199, 34.0699
2.847, 5, 34.7793, 53.1875, -14.7033, 95.7833, -70.479, 34.042
2.852, 5, 34.7736, 53.1993, -14.6977, 95.7702, -70.538, 34.014
2.856, 5, 34.768, 53.2111, -14.6921, 95.7569, -70.5971, 33.9861
2.86, 5, 34.7623, 53.2229, -14.6865, 95.7437, -70.6562, 33.9582
2.864, 5, 34.7566, 53.2346, -14.6808, 95.7304, -70.7152, 33.9303
2.867, 5, 34.7509, 53.2463, -14.675, 95.717, -70.7742, 33.9025
2.872, 5, 34.7451, 53.258, -14.6692, 95.7036, -70.8332, 33.8746
2.876, 5, 34.7394, 53.2697, -14.6634, 95.6902, -70.8922, 33.8467
2.88, 5, 34.7336, 53.2813, -14.6575, 95.6768, -70.9512, 33.8189
2.883, 5, 34.7279, 53.2928, -14.6515, 95.6633, -71.0101, 33.7911
2.888, 5, 34.7221, 53.3044, -14.6455, 95.6497, -71.0691, 33.7633
2.892, 5, 34.7163, 53.3159, -14.6394, 95.6362, -71.128, 33.7355
2.896, 5, 34.7105, 53.3274, -14.6333, 95.6226, -71.1869, 33.7077
2.9, 5, 34.7047, 53.3388, -14.6272, 95.6089, -71.2458, 33.68
2.903, 5, 34.6989, 53.3502, -14.621, 95.5952, -71.3047, 33.6522
2.908, 5, 34.6931, 53.3616, -14.6147, 95.5815, -71.3636, 33.6245
2.912, 5, 34.6872, 53.373, -14.6084, 95.5677, -71.4225, 33.5968
2.916, 5, 34.6813, 53.3843, -14.602, 95.554, -71.4813, 33.5691
2.92, 5, 34.6755, 53.3955, -14.5956, 95.5401, -71.5401, 33.5414
2.923, 5, 34.6696, 53.4068, -14.5892, 95.5263, -71.5989, 33.5137
2.928, 5, 34.6637, 53.418, -14.5826, 95.5123, -71.6577, 33.4861
2.932, 5, 34.6578, 53.4292, -14.5761, 95.4984, -71.7165, 33.4584
2.936, 5, 34.6519, 53.4403, -14.5695, 95.4844, -71.7753, 33.4308
2.939, 5, 34.646, 53.4515, -14.5628, 95.4704, -71.8341, 33.4032
2.944, 5, 34.64, 53.4625, -14.5561, 95.4563, -71.8928, 33.3756
2.948, 5, 34.6341, 53.4736, -14.5493, 95.4422, -71.9515, 33.348
2.952, 5, 34.6281, 53.4846, -14.5425, 95.4281, -72.0102, 33.3204
2.956, 5, 34.6221, 53.4956, -14.5356, 95.4139, -72.0689, 33.2928
2.959, 5, 34.6161, 53.5065, -14.5287, 95.3997, -72.1276, 33.2653
2.964, 5, 34.6101, 53.5174, -14.5218, 95.3855, -72.1863, 33.2377
2.968, 5, 34.6041, 53.5283, -14.5147, 95.3712, -72.245, 33.2102
2.972, 5, 34.5981, 53.5392, -14.5077, 95.3569, -72.3036, 33.1827
2.976, 5, 34.5921, 53.55, -14.5005, 95.3426, -72.3622, 33.1552
2.98, 5, 34.586, 53.5608, -14.4934, 95.3282, -72.4208, 33.1277
2.984, 5, 34.58, 53.5715, -14.4861, 95.3138, -72.4794, 33.1002
2.988, 5, 34.5739, 53.5822, -14.4789, 95.2993, -72.538, 33.0727
2.992, 5, 34.5678, 53.5929, -14.4715, 95.2848, -72.5966, 33.0453
2.995, 5, 34.5617, 53.6035, -14.4642, 95.2703, -72.6551, 33.0178
3, 5, 34.5556, 53.6141, -14.4567, 95.2557, -72.7137, 32.9904
3.004, 5, 34.5494, 53.6246, -14.4492, 95.2411, -72.7722, 32.963
3.008, 5, 34.5431, 53.6349, -14.4416, 95.2264, -72.8307, 32.9357
3.012, 5, 34.5367, 53.6452, -14.4338, 95.2117, -72.889, 32.9084
3.015, 5, 34.5302, 53.6552, -14.4259, 95.1969, -72.9474, 32.8814
3.02, 5, 34.5236, 53.6651, -14.4178, 95.1819, -73.0055, 32.8545
3.024, 5, 34.5168, 53.6747, -14.4093, 95.1667, -73.0635, 32.828
3.028, 5, 34.5099, 53.6841, -14.4005, 95.1513, -73.1212, 32.802
3.031, 5, 34.503, 53.6932, -14.3911, 95.1357, -73.1785, 32.7766
3.036, 5, 34.496, 53.7019, -14.3812, 95.1196, -73.2354, 32.752
3.04, 5, 34.489, 53.7101, -14.3706, 95.103, -73.2916, 32.7284
3.044, 5, 34.4819, 53.718, -14.3591, 95.0859, -73.3473, 32.7059
3.048, 5, 34.4748, 53.7253, -14.3467, 95.0682, -73.4021, 32.6848
3.051, 5, 34.4676, 53.7322, -14.3332, 95.0498, -73.456, 32.6653
3.056, 5, 34.4604, 53.7384, -14.3186, 95.0307, -73.5089, 32.6475
3.06, 5, 34.4531, 53.7441, -14.3027, 95.0107, -73.5607, 32.6316
3.064, 5, 34.4457, 53.7491, -14.2854, 94.9898, -73.6113, 32.6178
3.068, 5, 34.4383, 53.7534, -14.2668, 94.9679, -73.6606, 32.6061
3.071, 5, 34.4309, 53.7571, -14.2467, 94.9451, -73.7085, 32.5967
3.076, 5, 34.4233, 53.7601, -14.225, 94.9214, -73.755, 32.5895
3.08, 5, 34.4157, 53.7624, -14.202, 94.8966, -73.8001, 32.5848
3.084, 5, 34.408, 53.7641, -14.1774, 94.8709, -73.8437, 32.5823
3.087, 5, 34.4002, 53.7652, -14.1514, 94.8443, -73.8859, 32.5821
3.092, 5, 34.3923, 53.7656, -14.124, 94.8168, -73.9268, 32.5841
3.096, 5, 34.3844, 53.7654, -14.0954, 94.7884, -73.9663, 32.5881
3.1, 5, 34.3763, 53.7646, -14.0655, 94.7593, -74.0046, 32.5941
3.104, 5, 34.3683, 53.7633, -14.0344, 94.7295, -74.0418, 32.6018
3.107, 5, 34.3601, 53.7614, -14.0024, 94.699, -74.078, 32.6111
3.112, 5, 34.352, 53.759, -13.9694, 94.668, -74.1133, 32.6218
3.116, 5, 34.3437, 53.7562, -13.9357, 94.6365, -74.1478, 32.6337
3.12, 5, 34.3354, 53.753, -13.9013, 94.6046, -74.1816, 32.6467
3.124, 5, 34.327, 53.7495, -13.8663, 94.5723, -74.215, 32.6604
3.128, 5, 34.3186, 53.7456, -13.8309, 94.5399, -74.2479, 32.6748
3.132, 5, 34.31, 53.7414, -13.795, 94.5072, -74.2805, 32.6897
3.136, 5, 34.3014, 53.737, -13.7589, 94.4743, -74.3128, 32.705
3.14, 5, 34.2926, 53.7323, -13.7226, 94.4414, -74.345, 32.7205
3.143, 5, 34.2838, 53.7275, -13.6861, 94.4084, -74.377, 32.7362
3.148, 5, 34.2748, 53.7225, -13.6494, 94.3753, -74.409, 32.752
3.152, 5, 34.2658, 53.7174, -13.6127, 94.3422, -74.441, 32.7678
3.156, 5, 34.2568, 53.7123, -13.5759, 94.3091, -74.4729, 32.7837
3.16, 5, 34.2478, 53.707, -13.539, 94.276, -74.5047, 32.7997
3.163, 5, 34.2387, 53.7018, -13.5022, 94.2429, -74.5366, 32.8156
3.168, 5, 34.2296, 53.6965, -13.4652, 94.2097, -74.5685, 32.8315
3.172, 5, 34.2204, 53.6911, -13.4283, 94.1766, -74.6003, 32.8474
3.176, 5, 34.2113, 53.6857, -13.3913, 94.1435, -74.6322, 32.8633
3.179, 5, 34.2021, 53.6803, -13.3543, 94.1104, -74.664, 32.8792
3.184, 5, 34.193, 53.6749, -13.3173, 94.0773, -74.6959, 32.895
3.188, 5, 34.1838, 53.6694, -13.2802, 94.0442, -74.7278, 32.9108
3.192, 5, 34.1746, 53.664, -13.2431, 94.0111, -74.7597, 32.9266
3.196, 5, 34.1654, 53.6585, -13.2061, 93.978, -74.7915, 32.9424
3.199, 5, 34.1562, 53.6529, -13.169, 93.945, -74.8234, 32.9581
3.204, 5, 34.147, 53.6474, -13.1318, 93.9119, -74.8553, 32.9738
3.208, 5, 34.1378, 53.6418, -13.0947, 93.8788, -74.8872, 32.9895
3.212, 5, 34.1286, 53.6362, -13.0576, 93.8458, -74.9191, 33.0052
3.216, 5, 34.1193, 53.6306, -13.0204, 93.8127, -74.951, 33.0208
3.22, 5, 34.1101, 53.625, -12.9832, 93.7797, -74.983, 33.0364
3.224, 5, 34.1008, 53.6193, -12.946, 93.7467, -75.0149, 33.052
3.228, 5, 34.0916, 53.6136, -12.9088, 93.7137, -75.0468, 33.0675
3.232, 5, 34.0823, 53.6079, -12.8715, 93.6806, -75.0788, 33.083
3.235, 5, 34.073, 53.6022, -12.8343, 93.6476, -75.1107, 33.0985
3.24, 5, 34.0637, 53.5965, -12.797, 93.6147, -75.1427, 33.114
3.244, 5, 34.0544, 53.5907, -12.7597, 93.5817, -75.1746, 33.1294
3.248, 5, 34.0451, 53.5849, -12.7224, 93.5487, -75.2066, 33.1448
3.252, 5, 34.0358, 53.5791, -12.6851, 93.5157, -75.2386, 33.1602
3.255, 5, 34.0265, 53.5732, -12.6478, 93.4828, -75.2705, 33.1756
3.26, 5, 34.0171, 53.5674, -12.6104, 93.4498, -75.3025, 33.1909
3.264, 5, 34.0078, 53.5615, -12.573, 93.4169, -75.3345, 33.2062
3.268, 5, 33.9984, 53.5556, -12.5357, 93.3839, -75.3665, 33.2215
3.272, 5, 33.9891, 53.5497, -12.4983, 93.351, -75.3985, 33.2367
3.276, 5, 33.9797, 53.5438, -12.4608, 93.3181, -75.4305, 33.2519
3.28, 5, 33.9703, 53.5378, -12.4234, 93.2852, -75.4626, 33.2671
3.284, 5, 33.9609, 53.5318, -12.386, 93.2523, -75.4946, 33.2822
3.288, 5, 33.9515, 53.5258, -12.3485, 93.2194, -75.5266, 33.2974
3.291, 5, 33.9421, 53.5198, -12.311, 93.1865, -75.5586, 33.3125
3.296, 5, 33.9327, 53.5137, -12.2735, 93.1536, -75.5907, 33.3275
3.3, 5, 33.9233, 53.5076, -12.236, 93.1207, -75.6227, 33.3426
3.304, 5, 33.9138, 53.5015, -12.1984, 93.0879, -75.6548, 33.3576
3.308, 5, 33.9044, 53.4954, -12.1609, 93.055, -75.6868, 33.3726
3.312, 5, 33.895, 53.4893, -12.1233, 93.0221, -75.7189, 33.3875
3.316, 5, 33.8855, 53.4831, -12.0857, 92.9893, -75.751, 33.4025
3.32, 5, 33.876, 53.4769, -12.0481, 92.9565, -75.7831, 33.4174
3.324, 5, 33.8666, 53.4707, -12.0105, 92.9236, -75.8151, 33.4322
3.328, 5, 33.8571, 53.4645, -11.9729, 92.8908, -75.8472, 33.4471
3.332, 5, 33.8476, 53.4583, -11.9353, 92.858, -75.8793, 33.4619
3.336, 5, 33.8381, 53.452, -11.8976, 92.8252, -75.9114, 33.4767
3.34, 5, 33.8286, 53.4457, -11.8599, 92.7924, -75.9436, 33.4914
3.344, 5, 33.819, 53.4394, -11.8222, 92.7596, -75.9757, 33.5062
3.347, 5, 33.8095, 53.433, -11.7845, 92.7269, -76.0078, 33.5209
3.352, 5, 33.8, 53.4267, -11.7468, 92.6941, -76.0399, 33.5355
3.356, 5, 33.7904, 53.4203, -11.709, 92.6613, -76.0721, 33.5502
3.36, 5, 33.7809, 53.4139, -11.6713, 92.6286, -76.1042, 33.5648
3.364, 5, 33.7713, 53.4075, -11.6335, 92.5958, -76.1363, 33.5794
3.368, 5, 33.7617, 53.401, -11.5957, 92.5631, -76.1685, 33.5939
3.372, 5, 33.7521, 53.3946, -11.5579, 92.5303, -76.2007, 33.6085
3.376, 5, 33.7426, 53.3881, -11.5201, 92.4976, -76.2328, 33.623
3.38, 5, 33.733, 53.3816, -11.4823, 92.4649, -76.265, 33.6374
3.383, 5, 33.7233, 53.375, -11.4444, 92.4322, -76.2972, 33.6519
3.388, 5, 33.7137, 53.3685, -11.4065, 92.3995, -76.3294, 33.6663
3.392, 5, 33.7041, 53.3619, -11.3687, 92.3668, -76.3615, 33.6807
3.396, 5, 33.6945, 53.3553, -11.3308, 92.3341, -76.3937, 33.695
3.4, 5, 33.6848, 53.3487, -11.2928, 92.3014, -76.4259, 33.7093
3.403, 5, 33.6752, 53.342, -11.2549, 92.2687, -76.4582, 33.7236
3.408, 5, 33.6655, 53.3354, -11.217, 92.236, -76.4904, 33.7379
3.412, 5, 33.6558, 53.3287, -11.179, 92.2034, -76.5226, 33.7521
3.416, 5, 33.6462, 53.322, -11.141, 92.1707, -76.5548, 33.7663
3.42, 5, 33.6365, 53.3152, -11.103, 92.1381, -76.5871, 33.7805
3.424, 5, 33.6268, 53.3085, -11.065, 92.1054, -76.6193, 33.7947
3.428, 5, 33.6171, 53.3017, -11.027, 92.0728, -76.6515, 33.8088
3.432, 5, 33.6074, 53.2949, -10.989, 92.0402, -76.6838, 33.8229
3.436, 5, 33.5977, 53.2881, -10.9509, 92.0076, -76.716, 33.8369
3.439, 5, 33.5879, 53.2812, -10.9128, 91.975, -76.7483, 33.851
3.444, 5, 33.5782, 53.2744, -10.8748, 91.9424, -76.7806, 33.865
3.448, 5, 33.5684, 53.2675, -10.8367, 91.9098, -76.8129, 33.879
3.452, 5, 33.5587, 53.2606, -10.7986, 91.8772, -76.8451, 33.8929
3.456, 5, 33.5489, 53.2537, -10.7604, 91.8446, -76.8774, 33.9068
3.46, 5, 33.5392, 53.2467, -10.7223, 91.812, -76.9097, 33.9207
3.464, 5, 33.5294, 53.2397, -10.6841, 91.7794, -76.942, 33.9346
3.468, 5, 33.5196, 53.2327, -10.646, 91.7469, -76.9743, 33.9484
3.472, 5, 33.5098, 53.2257, -10.6078, 91.7143, -77.0066, 33.9622
3.476, 5, 33.5, 53.2187, -10.5696, 91.6818, -77.0389, 33.9759
3.48, 5, 33.4902, 53.2116, -10.5313, 91.6492, -77.0713, 33.9897
3.484, 5, 33.4803, 53.2045, -10.4931, 91.6167, -77.1036, 34.0034
3.488, 5, 33.4705, 53.1974, -10.4549, 91.5842, -77.1359, 34.0171
3.492, 5, 33.4607, 53.1903, -10.4166, 91.5517, -77.1683, 34.0307
3.495, 5, 33.4508, 53.1831, -10.3783, 91.5191, -77.2006, 34.0443
3.5, 5, 33.441, 53.176, -10.34, 91.4866, -77.233, 34.0579
3.504, 5, 33.4311, 53.1688, -10.3017, 91.4541, -77.2653, 34.0715
3.508, 5, 33.4212, 53.1616, -10.2634, 91.4216, -77.2977, 34.085
3.512, 5, 33.4113, 53.1543, -10.2251, 91.3892, -77.3301, 34.0985
3.516, 5, 33.4014, 53.1471, -10.1867, 91.3567, -77.3624, 34.112
3.52, 5, 33.3915, 53.1398, -10.1484, 91.3242, -77.3948, 34.1254
3.524, 5, 33.3816, 53.1325, -10.11, 91.2917, -77.4272, 34.1388
3.528, 5, 33.3717, 53.1251, -10.0716, 91.2593, -77.4596, 34.1522
3.531, 5, 33.3618, 53.1178, -10.0332, 91.2268, -77.492, 34.1655
3.536, 5, 33.3519, 53.1104, -9.99477, 91.1944, -77.5244, 34.1789
3.54, 5, 33.3419, 53.103, -9.95633, 91.1619, -77.5568, 34.1922
3.544, 5, 33.332, 53.0956, -9.91788, 91.1295, -77.5892, 34.2054
3.548, 5, 33.322, 53.0882, -9.87942, 91.0971, -77.6216, 34.2186
3.552, 5, 33.312, 53.0807, -9.84094, 91.0647, -77.6541, 34.2318
3.556, 5, 33.3021, 53.0732, -9.80244, 91.0322, -77.6865, 34.245
3.56, 5, 33.2921, 53.0657, -9.76394, 90.9998, -77.7189, 34.2581
3.564, 5, 33.2821, 53.0582, -9.72542, 90.9674, -77.7514, 34.2712
3.568, 5, 33.2721, 53.0507, -9.68688, 90.935, -77.7838, 34.2843
3.572, 5, 33.2621, 53.0431, -9.64833, 90.9027, -77.8163, 34.2974
3.576, 5, 33.252, 53.0355, -9.60977, 90.8703, -77.8487, 34.3104
3.58, 5, 33.242, 53.0279, -9.57119, 90.8379, -77.8812, 34.3234
3.584, 5, 33.232, 53.0202, -9.5326, 90.8055, -77.9137, 34.3363
3.587, 5, 33.2219, 53.0126, -9.49399, 90.7732, -77.9461, 34.3492
3.592, 5, 33.2119, 53.0049, -9.45537, 90.7408, -77.9786, 34.3621
3.596, 5, 33.2018, 52.9972, -9.41674, 90.7085, -78.0111, 34.375
3.6, 5, 33.1917, 52.9895, -9.37809, 90.6761, -78.0436, 34.3878
3.604, 5, 33.1817, 52.9817, -9.33943, 90.6438, -78.0761, 34.4006
3.608, 5, 33.1716, 52.9739, -9.30075, 90.6115, -78.1086, 34.4134
3.612, 5, 33.1615, 52.9661, -9.26206, 90.5791, -78.1411, 34.4261
3.616, 5, 33.1514, 52.9583, -9.22336, 90.5468, -78.1736, 34.4389
3.62, 5, 33.1413, 52.9505, -9.18465, 90.5145, -78.2061, 34.4515
3.624, 5, 33.1312, 52.9426, -9.14592, 90.4822, -78.2387, 34.4642
3.628, 5, 33.121, 52.9347, -9.10717, 90.4499, -78.2712, 34.4768
3.632, 5, 33.111, 52.9268, -9.06842, 90.4176, -78.3037, 34.4894
3.636, 5, 33.101, 52.9189, -9.02967, 90.3853, -78.3363, 34.5019
3.64, 5, 33.0913, 52.9109, -8.99095, 90.3531, -78.3688, 34.5144
3.644, 5, 33.082, 52.9029, -8.95231, 90.3209, -78.4012, 34.5269
3.648, 5, 33.0732, 52.8948, -8.91384, 90.2888, -78.4336, 34.5393
3.652, 5, 33.0649, 52.8867, -8.87565, 90.2569, -78.4657, 34.5516
3.656, 5, 33.0571, 52.8785, -8.83791, 90.2254, -78.4975, 34.5637
3.66, 5, 33.0499, 52.8705, -8.80085, 90.1943, -78.5288, 34.5756
3.664, 5, 33.043, 52.8625, -8.76471, 90.1641, -78.5593, 34.5872
3.668, 5, 33.0365, 52.8548, -8.72978, 90.1348, -78.5888, 34.5984
3.672, 5, 33.0302, 52.8473, -8.69637, 90.1068, -78.6171, 34.6091
3.676, 5, 33.0241, 52.8403, -8.66478, 90.0803, -78.6437, 34.6192
3.679, 5, 33.0182, 52.8338, -8.63529, 90.0556, -78.6686, 34.6286
3.684, 5, 33.0125, 52.8278, -8.60815, 90.033, -78.6915, 34.6372
3.688, 5, 33.007, 52.8225, -8.58356, 90.0125, -78.7122, 34.645
3.692, 5, 33.0017, 52.8178, -8.56164, 89.9943, -78.7306, 34.6519
3.696, 5, 32.9966, 52.8139, -8.54245, 89.9784, -78.7467, 34.658
3.7, 5, 32.9916, 52.8106, -8.52599, 89.9649, -78.7604, 34.6631
