hehonglu123/ABB_Primitive_Study/execution/movec/curve_exe_v50_z1.csv
timestamp, cmd_num, J1, J2, J3, J4, J5, J6
0, -1, 32.9446, 52.7398, -8.49419, 90.0915, -78.6833, 34.4926
0.003, -1, 32.9446, 52.7398, -8.49419, 90.0915, -78.6833, 34.4926
0.006, -1, 32.9446, 52.7398, -8.49419, 90.0915, -78.6833, 34.4926
0.008, -1, 32.9446, 52.7398, -8.49419, 90.0915, -78.6833, 34.4926
0.011, -1, 32.9446, 52.7398, -8.49419, 90.0915, -78.6833, 34.4926
0.016, -1, 32.9446, 52.7398, -8.49419, 90.0915, -78.6833, 34.4926
0.02, -1, 32.9446, 52.7398, -8.49419, 90.0915, -78.6833, 34.4926
0.024, -1, 32.9446, 52.7398, -8.49419, 90.0915, -78.6833, 34.4926
0.028, -1, 32.9446, 52.7398, -8.49419, 90.0915, -78.6833, 34.4926
0.032, -1, 32.9447, 52.7398, -8.49419, 90.0915, -78.6833, 34.4926
0.036, -1, 32.9447, 52.7397, -8.49419, 90.0915, -78.6833, 34.4926
0.04, -1, 32.9449, 52.7396, -8.49419, 90.0915, -78.6833, 34.4926
0.044, -1, 32.9453, 52.7392, -8.49421, 90.0915, -78.6833, 34.4926
0.048, -1, 32.9461, 52.7385, -8.49426, 90.0915, -78.6831, 34.4927
0.052, -1, 32.9474, 52.7371, -8.49437, 90.0917, -78.6826, 34.4928
0.056, -1, 32.9492, 52.7349, -8.4946, 90.0919, -78.6817, 34.4931
0.06, -1, 32.9516, 52.7318, -8.49501, 90.0924, -78.6798, 34.4938
0.064, -1, 32.9544, 52.7277, -8.4957, 90.0932, -78.6767, 34.4949
0.068, -1, 32.9578, 52.7227, -8.49678, 90.0946, -78.6717, 34.4966
0.072, -1, 32.9617, 52.7167, -8.4984, 90.0966, -78.6641, 34.4993
0.076, -1, 32.9661, 52.7097, -8.50073, 90.0995, -78.6532, 34.5031
0.08, -1, 32.9711, 52.7018, -8.50394, 90.1037, -78.6379, 34.5085
0.084, -1, 32.9767, 52.6929, -8.50823, 90.1092, -78.6175, 34.5157
0.088, -1, 32.983, 52.6832, -8.51381, 90.1164, -78.5907, 34.5251
0.092, -1, 32.9898, 52.6726, -8.52089, 90.1256, -78.5567, 34.537
0.096, -1, 32.9971, 52.6615, -8.52966, 90.1371, -78.5143, 34.5519
0.1, -1, 33.0046, 52.6498, -8.54028, 90.151, -78.4629, 34.57
0.104, -1, 33.0124, 52.6377, -8.55288, 90.1675, -78.4018, 34.5915
0.108, -1, 33.0205, 52.6252, -8.56751, 90.1868, -78.3306, 34.6165
0.112, -1, 33.0288, 52.6121, -8.58421, 90.2088, -78.2493, 34.645
0.116, -1, 33.0376, 52.5985, -8.60294, 90.2336, -78.158, 34.6771
0.12, -1, 33.0467, 52.5842, -8.62361, 90.2609, -78.0572, 34.7125
0.124, -1, 33.0563, 52.5693, -8.6461, 90.2906, -77.9475, 34.7511
0.128, -1, 33.0663, 52.5539, -8.67024, 90.3226, -77.8297, 34.7924
0.131, -1, 33.0765, 52.5379, -8.69587, 90.3565, -77.7047, 34.8364
0.136, -1, 33.0871, 52.5214, -8.72276, 90.392, -77.5735, 34.8825
0.139, -1, 33.0981, 52.5041, -8.75072, 90.429, -77.4372, 34.9304
0.144, -1, 33.1095, 52.4858, -8.77954, 90.4671, -77.2967, 34.9797
0.148, -1, 33.1216, 52.4664, -8.80901, 90.506, -77.1531, 35.0302
0.152, -1, 33.1344, 52.4458, -8.83897, 90.5456, -77.0071, 35.0815
0.156, -1, 33.1481, 52.4239, -8.86926, 90.5855, -76.8596, 35.1333
0.16, -1, 33.1624, 52.4009, -8.89978, 90.6258, -76.7111, 35.1855
0.164, -1, 33.1774, 52.3772, -8.93044, 90.6662, -76.562, 35.2379
0.168, -1, 33.1929, 52.3529, -8.96117, 90.7067, -76.4125, 35.2904
0.172, -1, 33.2086, 52.3282, -8.99193, 90.7472, -76.2629, 35.343
0.176, -1, 33.2246, 52.3033, -9.0227, 90.7877, -76.1133, 35.3955
0.18, -1, 33.2406, 52.2782, -9.05345, 90.8282, -75.9638, 35.4481
0.184, -1, 33.2568, 52.2531, -9.08416, 90.8687, -75.8145, 35.5005
0.188, -1, 33.273, 52.2279, -9.11484, 90.9091, -75.6653, 35.5529
0.192, -1, 33.2892, 52.2027, -9.14548, 90.9495, -75.5164, 35.6053
0.196, -1, 33.3054, 52.1775, -9.17607, 90.9897, -75.3677, 35.6575
0.2, -1, 33.3216, 52.1524, -9.2066, 91.03, -75.2192, 35.7097
0.204, -1, 33.3378, 52.1272, -9.23709, 91.0701, -75.071, 35.7617
0.208, -1, 33.354, 52.1021, -9.26752, 91.1102, -74.9231, 35.8137
0.212, -1, 33.3702, 52.077, -9.29789, 91.1502, -74.7754, 35.8656
0.216, -1, 33.3863, 52.052, -9.32821, 91.1901, -74.628, 35.9174
0.22, -1, 33.4024, 52.027, -9.35848, 91.23, -74.4809, 35.9691
0.224, -1, 33.4184, 52.0021, -9.38869, 91.2698, -74.334, 36.0207
0.228, -1, 33.4345, 51.9772, -9.41885, 91.3095, -74.1874, 36.0722
0.232, -1, 33.4505, 51.9523, -9.44895, 91.3492, -74.0411, 36.1236
0.236, -1, 33.4665, 51.9275, -9.479, 91.3887, -73.895, 36.1749
0.24, -1, 33.4825, 51.9028, -9.509, 91.4282, -73.7492, 36.2262
0.244, -1, 33.4984, 51.878, -9.53894, 91.4677, -73.6036, 36.2773
0.248, -1, 33.5143, 51.8533, -9.56883, 91.507, -73.4583, 36.3284
0.252, -1, 33.5302, 51.8287, -9.59867, 91.5463, -73.3133, 36.3793
0.256, -1, 33.546, 51.8041, -9.62845, 91.5855, -73.1685, 36.4302
0.26, -1, 33.5618, 51.7796, -9.65818, 91.6247, -73.024, 36.481
0.264, -1, 33.5776, 51.7551, -9.68785, 91.6638, -72.8797, 36.5317
0.268, -1, 33.5934, 51.7306, -9.71748, 91.7028, -72.7357, 36.5823
0.272, -1, 33.6091, 51.7062, -9.74705, 91.7417, -72.5919, 36.6328
0.276, -1, 33.6248, 51.6818, -9.77657, 91.7806, -72.4484, 36.6832
0.28, -1, 33.6405, 51.6575, -9.80604, 91.8194, -72.3051, 36.7335
0.284, -1, 33.6561, 51.6332, -9.83546, 91.8582, -72.1621, 36.7838
0.288, -1, 33.6718, 51.6089, -9.86483, 91.8969, -72.0193, 36.8339
0.292, -1, 33.6874, 51.5847, -9.89415, 91.9355, -71.8768, 36.884
0.296, -1, 33.7029, 51.5605, -9.92341, 91.974, -71.7345, 36.934
0.3, -1, 33.7185, 51.5364, -9.95263, 92.0125, -71.5925, 36.9839
0.304, -1, 33.734, 51.5123, -9.9818, 92.0509, -71.4507, 37.0337
0.308, -1, 33.7495, 51.4883, -10.0109, 92.0893, -71.3092, 37.0835
0.312, -1, 33.765, 51.4643, -10.04, 92.1275, -71.1679, 37.1331
0.316, -1, 33.7804, 51.4403, -10.069, 92.1657, -71.0268, 37.1827
0.32, -1, 33.7958, 51.4164, -10.098, 92.2039, -70.886, 37.2321
0.324, -1, 33.8112, 51.3925, -10.1269, 92.242, -70.7454, 37.2815
0.328, -1, 33.8266, 51.3687, -10.1558, 92.28, -70.605, 37.3309
0.332, -1, 33.8419, 51.3449, -10.1846, 92.318, -70.4649, 37.3801
0.336, -1, 33.8572, 51.3211, -10.2134, 92.3559, -70.325, 37.4292
0.34, -1, 33.8725, 51.2974, -10.2421, 92.3937, -70.1854, 37.4783
0.344, -1, 33.8877, 51.2737, -10.2708, 92.4315, -70.046, 37.5273
0.348, -1, 33.903, 51.2501, -10.2994, 92.4692, -69.9068, 37.5762
0.352, -1, 33.9182, 51.2265, -10.328, 92.5068, -69.7678, 37.625
0.356, -1, 33.9334, 51.2029, -10.3565, 92.5444, -69.6291, 37.6737
0.36, -1, 33.9485, 51.1794, -10.385, 92.5819, -69.4906, 37.7224
0.364, -1, 33.9636, 51.1559, -10.4134, 92.6194, -69.3523, 37.771
0.368, -1, 33.9788, 51.1325, -10.4418, 92.6568, -69.2143, 37.8195
0.372, -1, 33.9938, 51.109, -10.4702, 92.6941, -69.0764, 37.8679
0.376, -1, 34.0089, 51.0857, -10.4985, 92.7314, -68.9389, 37.9163
0.38, -1, 34.0239, 51.0623, -10.5268, 92.7686, -68.8015, 37.9645
0.384, -1, 34.0389, 51.039, -10.555, 92.8058, -68.6643, 38.0127
0.388, -1, 34.0539, 51.0158, -10.5831, 92.8429, -68.5274, 38.0608
0.392, -1, 34.0689, 50.9926, -10.6113, 92.8799, -68.3907, 38.1089
0.396, -1, 34.0838, 50.9694, -10.6393, 92.9169, -68.2542, 38.1568
0.4, -1, 34.0987, 50.9462, -10.6674, 92.9538, -68.1179, 38.2047
0.404, -1, 34.1136, 50.9231, -10.6954, 92.9907, -67.9818, 38.2525
0.408, -1, 34.1285, 50.9, -10.7233, 93.0275, -67.846, 38.3002
0.412, -1, 34.1433, 50.877, -10.7512, 93.0642, -67.7104, 38.3479
0.416, -1, 34.1582, 50.854, -10.779, 93.1009, -67.575, 38.3955
0.42, -1, 34.173, 50.831, -10.8069, 93.1375, -67.4398, 38.443
0.424, -1, 34.1877, 50.8081, -10.8346, 93.1741, -67.3048, 38.4904
0.428, -1, 34.2025, 50.7852, -10.8624, 93.2106, -67.17, 38.5377
0.432, -1, 34.2172, 50.7623, -10.89, 93.2471, -67.0354, 38.585
0.436, -1, 34.2319, 50.7395, -10.9177, 93.2835, -66.901, 38.6322
0.44, -1, 34.2466, 50.7167, -10.9453, 93.3198, -66.7669, 38.6794
0.444, -1, 34.2613, 50.694, -10.9728, 93.3561, -66.6329, 38.7264
0.448, -1, 34.2759, 50.6713, -11.0003, 93.3923, -66.4992, 38.7734
0.452, -1, 34.2905, 50.6486, -11.0278, 93.4285, -66.3656, 38.8203
0.456, -1, 34.3051, 50.6259, -11.0552, 93.4647, -66.2323, 38.8672
0.46, -1, 34.3197, 50.6033, -11.0826, 93.5007, -66.0992, 38.914
0.464, -1, 34.3342, 50.5807, -11.11, 93.5367, -65.9662, 38.9607
0.468, -1, 34.3487, 50.5582, -11.1373, 93.5727, -65.8335, 39.0073
0.472, -1, 34.3632, 50.5357, -11.1645, 93.6086, -65.701, 39.0539
0.476, -1, 34.3777, 50.5132, -11.1918, 93.6445, -65.5686, 39.1004
0.48, -1, 34.3922, 50.4907, -11.2189, 93.6803, -65.4365, 39.1468
0.484, -1, 34.4066, 50.4683, -11.2461, 93.716, -65.3045, 39.1932
0.488, -1, 34.421, 50.446, -11.2732, 93.7517, -65.1728, 39.2394
0.492, -1, 34.4354, 50.4236, -11.3002, 93.7873, -65.0412, 39.2857
0.496, -1, 34.4498, 50.4013, -11.3273, 93.8229, -64.9099, 39.3318
0.5, -1, 34.4642, 50.379, -11.3542, 93.8584, -64.7787, 39.3779
0.504, -1, 34.4785, 50.3568, -11.3812, 93.8939, -64.6477, 39.4239
0.508, -1, 34.4928, 50.3346, -11.4081, 93.9294, -64.517, 39.4699
0.512, -1, 34.5071, 50.3124, -11.4349, 93.9647, -64.3864, 39.5158
0.516, -1, 34.5214, 50.2902, -11.4618, 94.0001, -64.256, 39.5616
0.52, -1, 34.5356, 50.2681, -11.4886, 94.0353, -64.1257, 39.6073
0.524, -1, 34.5499, 50.246, -11.5153, 94.0706, -63.9957, 39.653
0.528, -1, 34.5641, 50.224, -11.542, 94.1057, -63.8659, 39.6986
0.532, -1, 34.5783, 50.202, -11.5687, 94.1409, -63.7362, 39.7442
0.536, -1, 34.5924, 50.18, -11.5953, 94.1759, -63.6068, 39.7897
0.54, -1, 34.6066, 50.158, -11.6219, 94.211, -63.4775, 39.8351
0.544, -1, 34.6207, 50.1361, -11.6485, 94.2459, -63.3484, 39.8804
0.548, -1, 34.6348, 50.1142, -11.675, 94.2809, -63.2195, 39.9257
0.552, -1, 34.6489, 50.0923, -11.7015, 94.3157, -63.0908, 39.971
0.556, -1, 34.663, 50.0705, -11.7279, 94.3506, -62.9622, 40.0161
0.56, -1, 34.677, 50.0487, -11.7543, 94.3853, -62.8339, 40.0612
0.564, -1, 34.691, 50.0269, -11.7807, 94.4201, -62.7057, 40.1063
0.568, -1, 34.705, 50.0052, -11.807, 94.4547, -62.5777, 40.1512
0.572, -1, 34.719, 49.9834, -11.8333, 94.4894, -62.4498, 40.1961
0.576, -1, 34.733, 49.9618, -11.8596, 94.524, -62.3222, 40.241
0.58, -1, 34.7469, 49.9401, -11.8858, 94.5585, -62.1947, 40.2858
0.584, -1, 34.7609, 49.9185, -11.912, 94.593, -62.0674, 40.3305
0.588, -1, 34.7748, 49.8969, -11.9381, 94.6274, -61.9403, 40.3752
0.592, -1, 34.7887, 49.8753, -11.9642, 94.6618, -61.8133, 40.4198
0.596, -1, 34.8025, 49.8538, -11.9903, 94.6961, -61.6866, 40.4643
0.6, -1, 34.8164, 49.8323, -12.0163, 94.7304, -61.56, 40.5088
0.604, -1, 34.8302, 49.8108, -12.0423, 94.7647, -61.4336, 40.5532
0.608, -1, 34.844, 49.7894, -12.0683, 94.7989, -61.3073, 40.5976
0.612, -1, 34.8578, 49.768, -12.0942, 94.8331, -61.1812, 40.6419
0.616, -1, 34.8716, 49.7466, -12.1201, 94.8672, -61.0553, 40.6861
0.62, -1, 34.8854, 49.7252, -12.146, 94.9012, -60.9296, 40.7303
0.624, -1, 34.8991, 49.7039, -12.1718, 94.9352, -60.804, 40.7744
0.628, -1, 34.9128, 49.6826, -12.1976, 94.9692, -60.6786, 40.8185
0.632, -1, 34.9265, 49.6613, -12.2234, 95.0032, -60.5534, 40.8625
0.636, -1, 34.9402, 49.6401, -12.2491, 95.037, -60.4283, 40.9064
0.64, -1, 34.9539, 49.6189, -12.2748, 95.0709, -60.3034, 40.9503
0.644, -1, 34.9675, 49.5977, -12.3005, 95.1047, -60.1787, 40.9941
0.648, -1, 34.9812, 49.5765, -12.3261, 95.1384, -60.0541, 41.0379
0.652, -1, 34.9948, 49.5554, -12.3517, 95.1721, -59.9297, 41.0816
0.656, -1, 35.0084, 49.5343, -12.3772, 95.2058, -59.8055, 41.1252
0.66, -1, 35.022, 49.5132, -12.4028, 95.2394, -59.6814, 41.1688
0.664, -1, 35.0355, 49.4922, -12.4283, 95.273, -59.5575, 41.2124
0.668, -1, 35.0491, 49.4712, -12.4537, 95.3065, -59.4337, 41.2558
0.672, -1, 35.0626, 49.4502, -12.4791, 95.34, -59.3101, 41.2993
0.676, -1, 35.0761, 49.4292, -12.5045, 95.3734, -59.1867, 41.3426
0.68, -1, 35.0896, 49.4083, -12.5299, 95.4068, -59.0634, 41.3859
0.684, -1, 35.1031, 49.3874, -12.5552, 95.4401, -58.9403, 41.4292
0.688, -1, 35.1165, 49.3665, -12.5805, 95.4735, -58.8174, 41.4724
0.692, -1, 35.1299, 49.3456, -12.6058, 95.5067, -58.6946, 41.5155
0.696, -1, 35.1434, 49.3248, -12.631, 95.5399, -58.5719, 41.5586
0.7, -1, 35.1568, 49.304, -12.6562, 95.5731, -58.4495, 41.6017
0.704, -1, 35.1701, 49.2832, -12.6813, 95.6063, -58.3271, 41.6446
0.708, -1, 35.1835, 49.2625, -12.7065, 95.6394, -58.205, 41.6876
0.712, -1, 35.1969, 49.2417, -12.7316, 95.6724, -58.083, 41.7304
0.716, -1, 35.2102, 49.221, -12.7566, 95.7054, -57.9611, 41.7732
0.72, -1, 35.2235, 49.2004, -12.7817, 95.7384, -57.8394, 41.816
0.724, -1, 35.2368, 49.1797, -12.8067, 95.7713, -57.7178, 41.8587
0.728, -1, 35.2501, 49.1591, -12.8316, 95.8042, -57.5964, 41.9014
0.732, -1, 35.2634, 49.1385, -12.8566, 95.8371, -57.4752, 41.944
0.736, -1, 35.2766, 49.1179, -12.8815, 95.8699, -57.3541, 41.9865
0.74, -1, 35.2898, 49.0974, -12.9064, 95.9026, -57.2332, 42.029
0.744, -1, 35.3031, 49.0769, -12.9312, 95.9354, -57.1124, 42.0714
0.748, -1, 35.3163, 49.0564, -12.956, 95.968, -56.9917, 42.1138
0.752, -1, 35.3294, 49.0359, -12.9808, 96.0007, -56.8712, 42.1562
0.756, -1, 35.3426, 49.0155, -13.0056, 96.0333, -56.7509, 42.1984
0.76, -1, 35.3558, 48.9951, -13.0303, 96.0659, -56.6307, 42.2407
0.764, -1, 35.3689, 48.9747, -13.055, 96.0984, -56.5107, 42.2828
0.768, -1, 35.382, 48.9543, -13.0797, 96.1309, -56.3907, 42.325
0.772, -1, 35.3951, 48.934, -13.1043, 96.1633, -56.271, 42.3671
0.776, -1, 35.4082, 48.9137, -13.1289, 96.1957, -56.1514, 42.4091
0.78, -1, 35.4213, 48.8934, -13.1535, 96.2281, -56.0319, 42.451
0.784, -1, 35.4343, 48.8731, -13.178, 96.2604, -55.9126, 42.493
0.788, -1, 35.4474, 48.8528, -13.2025, 96.2927, -55.7934, 42.5348
0.792, -1, 35.4604, 48.8326, -13.227, 96.3249, -55.6744, 42.5767
0.796, -1, 35.4734, 48.8124, -13.2515, 96.3571, -55.5555, 42.6184
0.8, -1, 35.4864, 48.7923, -13.2759, 96.3893, -55.4367, 42.6602
0.804, -1, 35.4994, 48.7721, -13.3003, 96.4214, -55.3181, 42.7018
0.808, -1, 35.5124, 48.752, -13.3247, 96.4535, -55.1997, 42.7435
0.812, -1, 35.5253, 48.7319, -13.349, 96.4856, -55.0813, 42.785
0.816, -1, 35.5382, 48.7118, -13.3733, 96.5176, -54.9631, 42.8266
0.82, -1, 35.5512, 48.6918, -13.3976, 96.5496, -54.8451, 42.868
0.824, -1, 35.5641, 48.6717, -13.4219, 96.5816, -54.7272, 42.9095
0.828, -1, 35.577, 48.6517, -13.4461, 96.6134, -54.6094, 42.9508
0.832, -1, 35.5898, 48.6318, -13.4703, 96.6453, -54.4918, 42.9922
0.836, -1, 35.6027, 48.6118, -13.4944, 96.6772, -54.3743, 43.0335
0.84, -1, 35.6155, 48.5919, -13.5186, 96.709, -54.2569, 43.0747
0.844, -1, 35.6284, 48.5719, -13.5427, 96.7407, -54.1397, 43.1159
0.848, -1, 35.6412, 48.5521, -13.5668, 96.7724, -54.0226, 43.157
0.852, -1, 35.6539, 48.5322, -13.5909, 96.8041, -53.9056, 43.1981
0.856, -1, 35.6666, 48.5125, -13.6149, 96.8358, -53.7888, 43.2392
0.86, -1, 35.6791, 48.4928, -13.6389, 96.8674, -53.6721, 43.2802
0.864, -1, 35.6914, 48.4734, -13.6628, 96.8989, -53.5556, 43.3211
0.868, -1, 35.7035, 48.4543, -13.6867, 96.9304, -53.4394, 43.3619
0.872, -1, 35.7152, 48.4354, -13.7106, 96.9618, -53.3236, 43.4026
0.876, -1, 35.7267, 48.4169, -13.7343, 96.993, -53.2083, 43.4431
0.88, -1, 35.7378, 48.3988, -13.7579, 97.0241, -53.0937, 43.4834
0.884, -1, 35.7487, 48.3811, -13.7812, 97.0549, -52.9801, 43.5233
0.888, -1, 35.7593, 48.3638, -13.8043, 97.0853, -52.8677, 43.5628
0.892, -1, 35.7696, 48.347, -13.8271, 97.1153, -52.7571, 43.6017
0.896, -1, 35.7796, 48.3308, -13.8494, 97.1448, -52.6484, 43.6399
0.9, -1, 35.7891, 48.3154, -13.8713, 97.1735, -52.5423, 43.6772
0.904, -1, 35.7981, 48.3007, -13.8924, 97.2015, -52.4393, 43.7134
0.908, -1, 35.8067, 48.2868, -13.9129, 97.2284, -52.3399, 43.7484
0.912, -1, 35.8148, 48.2737, -13.9324, 97.2542, -52.2448, 43.7818
0.916, -1, 35.8225, 48.2613, -13.951, 97.2786, -52.1546, 43.8135
0.92, -1, 35.8299, 48.2495, -13.9684, 97.3016, -52.07, 43.8433
0.924, -1, 35.8369, 48.2384, -13.9846, 97.3229, -51.9913, 43.871
0.928, -1, 35.8436, 48.2277, -13.9994, 97.3424, -51.9192, 43.8963
0.932, -1, 35.8501, 48.2175, -14.0129, 97.3601, -51.8539, 43.9192
0.936, -1, 35.8564, 48.2078, -14.0248, 97.3759, -51.7957, 43.9397
0.94, -1, 35.8623, 48.1986, -14.0354, 97.3898, -51.7445, 43.9577
0.944, -1, 35.8681, 48.1898, -14.0445, 97.4018, -51.7003, 43.9732
0.948, -1, 35.8735, 48.1815, -14.0522, 97.4119, -51.6627, 43.9864
0.952, -1, 35.8787, 48.1738, -14.0587, 97.4204, -51.6314, 43.9974
0.956, -1, 35.8837, 48.1666, -14.0639, 97.4273, -51.6059, 44.0063
0.96, -1, 35.8884, 48.16, -14.0681, 97.4328, -51.5855, 44.0135
0.964, -1, 35.8928, 48.1539, -14.0714, 97.4371, -51.5697, 44.019
0.968, -1, 35.897, 48.1485, -14.0739, 97.4403, -51.5576, 44.0232
0.972, -1, 35.9008, 48.1437, -14.0757, 97.4427, -51.5487, 44.0263
0.976, -1, 35.9042, 48.1397, -14.077, 97.4444, -51.5423, 44.0285
0.98, 2, 35.9071, 48.1364, -14.078, 97.4456, -51.5377, 44.0301
0.984, 2, 35.9094, 48.1339, -14.0786, 97.4465, -51.5346, 44.0312
0.988, 2, 35.9112, 48.132, -14.0791, 97.4471, -51.5324, 44.0319
0.992, 2, 35.9124, 48.1306, -14.0794, 97.4475, -51.5309, 44.0325
0.996, 2, 35.9133, 48.1297, -14.0796, 97.4477, -51.5299, 44.0328
1, 2, 35.9139, 48.1291, -14.0797, 97.4479, -51.5293, 44.033
1.004, 2, 35.9143, 48.1287, -14.0798, 97.448, -51.5288, 44.0332
1.008, 2, 35.9146, 48.1284, -14.0799, 97.4481, -51.5285, 44.0333
1.012, 2, 35.9147, 48.1282, -14.0799, 97.4482, -51.5283, 44.0334
1.016, 2, 35.9149, 48.128, -14.08, 97.4482, -51.5281, 44.0334
1.02, 2, 35.915, 48.128, -14.08, 97.4482, -51.528, 44.0335
1.024, 2, 35.915, 48.1279, -14.08, 97.4482, -51.528, 44.0335
1.027, 2, 35.9151, 48.1279, -14.08, 97.4483, -51.5279, 44.0335
1.032, 2, 35.9151, 48.1278, -14.08, 97.4483, -51.5279, 44.0335
1.036, 2, 35.9151, 48.1278, -14.08, 97.4483, -51.5279, 44.0335
1.04, 2, 35.9151, 48.1278, -14.08, 97.4483, -51.5279, 44.0335
1.044, 2, 35.9151, 48.1278, -14.08, 97.4483, -51.5279, 44.0335
1.048, 2, 35.9151, 48.1278, -14.08, 97.4483, -51.5279, 44.0335
1.052, 2, 35.9151, 48.1278, -14.08, 97.4483, -51.5279, 44.0335
1.055, 2, 35.9151, 48.1278, -14.08, 97.4483, -51.5278, 44.0335
1.06, 2, 35.9151, 48.1278, -14.08, 97.4483, -51.5278, 44.0335
1.064, 2, 35.9151, 48.1278, -14.08, 97.4483, -51.5278, 44.0335
1.068, 2, 35.9151, 48.1278, -14.08, 97.4483, -51.5278, 44.0335
1.072, 2, 35.9151, 48.1278, -14.08, 97.4483, -51.5278, 44.0335
1.076, 2, 35.9151, 48.1278, -14.08, 97.4483, -51.5278, 44.0335
1.08, 2, 35.9151, 48.1278, -14.08, 97.4483, -51.5278, 44.0335
1.084, 2, 35.9151, 48.1278, -14.08, 97.4483, -51.5278, 44.0335
1.088, 2, 35.9151, 48.1278, -14.08, 97.4483, -51.5278, 44.0335
1.091, 2, 35.9151, 48.1278, -14.08, 97.4483, -51.5278, 44.0335
1.096, 2, 35.9151, 48.1278, -14.08, 97.4483, -51.5278, 44.0335
1.1, 2, 35.9151, 48.1278, -14.08, 97.4483, -51.5278, 44.0335
1.104, 2, 35.9151, 48.1278, -14.08, 97.4483, -51.5278, 44.0335
1.108, 2, 35.9151, 48.1278, -14.08, 97.4483, -51.5278, 44.0335
1.112, 2, 35.9151, 48.1278, -14.08, 97.4483, -51.5278, 44.0335
1.116, 2, 35.9151, 48.1278, -14.08, 97.4483, -51.5278, 44.0335
1.119, 2, 35.9151, 48.1278, -14.08, 97.4483, -51.5278, 44.0335
1.124, 2, 35.9151, 48.1278, -14.08, 97.4483, -51.5278, 44.0335
1.128, 2, 35.9151, 48.1278, -14.08, 97.4483, -51.5278, 44.0335
1.132, 2, 35.9151, 48.1278, -14.08, 97.4483, -51.5278, 44.0335
1.136, 2, 35.9151, 48.1278, -14.08, 97.4483, -51.5278, 44.0335
1.14, 2, 35.9151, 48.1278, -14.08, 97.4483, -51.5278, 44.0335
1.144, 2, 35.9151, 48.1278, -14.08, 97.4483, -51.5278, 44.0335
1.147, 2, 35.9151, 48.1278, -14.08, 97.4483, -51.5278, 44.0335
1.152, 2, 35.9151, 48.1278, -14.08, 97.4483, -51.5278, 44.0335
1.156, 2, 35.9151, 48.1278, -14.08, 97.4483, -51.5278, 44.0335
1.16, 2, 35.9151, 48.1278, -14.08, 97.4483, -51.5278, 44.0335
1.164, 2, 35.9151, 48.1278, -14.08, 97.4483, -51.5278, 44.0335
1.168, 2, 35.9151, 48.1278, -14.08, 97.4483, -51.5278, 44.0335
1.172, 2, 35.9151, 48.1278, -14.08, 97.4483, -51.5278, 44.0335
1.175, 2, 35.9151, 48.1278, -14.08, 97.4483, -51.5278, 44.0335
1.18, 2, 35.9151, 48.1278, -14.08, 97.4483, -51.5278, 44.0335
1.184, 2, 35.9151, 48.1278, -14.08, 97.4483, -51.5278, 44.0335
1.188, 2, 35.9151, 48.1278, -14.08, 97.4483, -51.5278, 44.0335
1.192, 2, 35.9151, 48.1278, -14.08, 97.4483, -51.5278, 44.0335
1.196, 2, 35.9151, 48.1278, -14.08, 97.4483, -51.5278, 44.0335
1.2, 2, 35.9151, 48.1278, -14.08, 97.4483, -51.5278, 44.0335
1.204, 2, 35.9151, 48.1278, -14.08, 97.4483, -51.5278, 44.0335
1.208, 2, 35.9151, 48.1278, -14.08, 97.4483, -51.5278, 44.0335
1.212, 2, 35.9151, 48.1278, -14.08, 97.4483, -51.5278, 44.0335
1.216, 2, 35.9151, 48.1278, -14.08, 97.4483, -51.5278, 44.0335
1.22, 2, 35.9151, 48.1278, -14.08, 97.4483, -51.5278, 44.0335
1.224, 2, 35.9151, 48.1278, -14.08, 97.4483, -51.5278, 44.0335
1.228, 2, 35.9151, 48.1278, -14.08, 97.4483, -51.5278, 44.0335
1.232, 2, 35.9151, 48.1278, -14.08, 97.4483, -51.5278, 44.0335
1.236, 2, 35.9151, 48.1278, -14.08, 97.4483, -51.5278, 44.0335
1.24, 2, 35.9151, 48.1278, -14.08, 97.4483, -51.5278, 44.0335
1.244, 2, 35.9151, 48.1278, -14.08, 97.4483, -51.5278, 44.0335
1.248, 2, 35.9151, 48.1278, -14.08, 97.4483, -51.5278, 44.0335
1.252, 2, 35.9151, 48.1278, -14.08, 97.4483, -51.5278, 44.0335
1.256, 2, 35.9151, 48.1278, -14.08, 97.4483, -51.5278, 44.0335
1.26, 2, 35.9151, 48.1278, -14.08, 97.4483, -51.5278, 44.0335
1.264, 2, 35.9151, 48.1278, -14.08, 97.4483, -51.5278, 44.0335
1.267, 2, 35.9151, 48.1278, -14.08, 97.4483, -51.5278, 44.0335
1.272, 2, 35.9151, 48.1278, -14.08, 97.4483, -51.5278, 44.0335
1.276, 2, 35.9151, 48.1278, -14.08, 97.4483, -51.5278, 44.0335
1.28, 2, 35.9151, 48.1278, -14.08, 97.4483, -51.5278, 44.0335
1.284, 2, 35.9151, 48.1278, -14.08, 97.4483, -51.5278, 44.0335
1.288, 2, 35.9151, 48.1278, -14.08, 97.4483, -51.5278, 44.0335
1.292, 2, 35.9151, 48.1278, -14.08, 97.4483, -51.5278, 44.0335
1.295, 2, 35.9151, 48.1278, -14.08, 97.4483, -51.5278, 44.0335
1.3, 2, 35.9151, 48.1278, -14.08, 97.4483, -51.5278, 44.0335
1.304, 2, 35.9151, 48.1278, -14.08, 97.4483, -51.5278, 44.0335
1.308, 2, 35.9151, 48.1278, -14.08, 97.4483, -51.5278, 44.0335
1.312, 2, 35.9151, 48.1278, -14.08, 97.4483, -51.5278, 44.0335
1.316, 2, 35.9151, 48.1278, -14.08, 97.4483, -51.5278, 44.0335
1.32, 2, 35.9151, 48.1278, -14.08, 97.4483, -51.5278, 44.0335
1.324, 2, 35.9151, 48.1278, -14.08, 97.4483, -51.5278, 44.0335
1.328, 2, 35.9151, 48.1278, -14.08, 97.4483, -51.5278, 44.0335
1.332, 2, 35.9151, 48.1278, -14.08, 97.4483, -51.5278, 44.0335
1.336, 2, 35.9151, 48.1278, -14.08, 97.4483, -51.5278, 44.0335
1.34, 2, 35.9151, 48.1278, -14.08, 97.4483, -51.5278, 44.0335
1.344, 2, 35.9151, 48.1278, -14.08, 97.4483, -51.5278, 44.0335
1.348, 2, 35.9151, 48.1278, -14.08, 97.4483, -51.5278, 44.0335
1.352, 2, 35.9151, 48.1278, -14.08, 97.4483, -51.5278, 44.0335
1.356, 2, 35.9151, 48.1278, -14.08, 97.4483, -51.5278, 44.0335
1.36, 2, 35.9151, 48.1278, -14.08, 97.4483, -51.5278, 44.0335
1.364, 2, 35.9151, 48.1278, -14.08, 97.4483, -51.5278, 44.0335
1.368, 2, 35.9151, 48.1278, -14.08, 97.4483, -51.5278, 44.0335
1.372, 2, 35.9151, 48.1278, -14.08, 97.4483, -51.5278, 44.0335
1.376, 2, 35.9151, 48.1278, -14.08, 97.4483, -51.5278, 44.0335
1.38, 2, 35.9151, 48.1278, -14.08, 97.4483, -51.5278, 44.0335
1.384, 2, 35.9151, 48.1278, -14.08, 97.4483, -51.5278, 44.0335
1.388, 2, 35.9151, 48.1278, -14.08, 97.4483, -51.5278, 44.0335
1.392, 2, 35.9151, 48.1278, -14.08, 97.4483, -51.5278, 44.0335
1.396, 2, 35.9151, 48.1278, -14.08, 97.4483, -51.5278, 44.0335
1.4, 2, 35.9151, 48.1278, -14.08, 97.4483, -51.5278, 44.0335
1.404, 2, 35.9151, 48.1278, -14.08, 97.4483, -51.5278, 44.0335
1.408, 2, 35.9151, 48.1278, -14.08, 97.4483, -51.5278, 44.0335
1.412, 2, 35.9151, 48.1278, -14.08, 97.4483, -51.5278, 44.0335
1.416, 2, 35.9151, 48.1278, -14.08, 97.4483, -51.5278, 44.0335
1.42, 2, 35.9151, 48.1278, -14.08, 97.4483, -51.5278, 44.0335
1.424, 2, 35.9151, 48.1278, -14.08, 97.4483, -51.5278, 44.0335
1.428, 2, 35.9151, 48.1278, -14.08, 97.4483, -51.5278, 44.0335
1.432, 2, 35.9151, 48.1278, -14.08, 97.4483, -51.5278, 44.0335
1.436, 2, 35.9151, 48.1278, -14.08, 97.4483, -51.5278, 44.0335
1.44, 2, 35.9151, 48.1278, -14.08, 97.4483, -51.5278, 44.0335
1.444, 2, 35.9151, 48.1278, -14.08, 97.4483, -51.5278, 44.0335
1.448, 2, 35.9151, 48.1278, -14.08, 97.4483, -51.5278, 44.0335
1.452, 2, 35.9151, 48.1278, -14.08, 97.4483, -51.5278, 44.0335
1.456, 2, 35.9151, 48.1278, -14.08, 97.4483, -51.5278, 44.0335
1.46, 2, 35.9151, 48.1278, -14.08, 97.4483, -51.5278, 44.0335
1.464, 2, 35.9151, 48.1278, -14.08, 97.4483, -51.5278, 44.0335
1.468, 2, 35.9151, 48.1278, -14.08, 97.4483, -51.5278, 44.0335
1.472, 2, 35.9151, 48.1278, -14.08, 97.4483, -51.5278, 44.0335
1.476, 2, 35.9151, 48.1278, -14.08, 97.4483, -51.5278, 44.0335
1.48, 2, 35.9151, 48.1278, -14.08, 97.4483, -51.5278, 44.0335
1.484, 2, 35.9151, 48.1278, -14.08, 97.4483, -51.5278, 44.0335
1.488, 2, 35.9151, 48.1278, -14.08, 97.4483, -51.5278, 44.0335
1.492, 2, 35.9151, 48.1278, -14.08, 97.4483, -51.5278, 44.0335
1.496, 2, 35.9151, 48.1278, -14.08, 97.4483, -51.5278, 44.0335
1.5, 2, 35.9151, 48.1278, -14.08, 97.4483, -51.5278, 44.0335
1.504, 2, 35.9151, 48.1278, -14.08, 97.4483, -51.5278, 44.0335
1.508, 2, 35.9151, 48.1278, -14.08, 97.4483, -51.5278, 44.0335
1.512, 2, 35.9151, 48.1278, -14.08, 97.4483, -51.5278, 44.0335
1.516, 2, 35.9151, 48.1278, -14.08, 97.4483, -51.5278, 44.0335
1.52, 2, 35.9151, 48.1278, -14.08, 97.4483, -51.5278, 44.0335
1.524, 2, 35.9151, 48.1278, -14.08, 97.4483, -51.5278, 44.0335
1.528, 2, 35.9151, 48.1278, -14.08, 97.4483, -51.5278, 44.0335
1.532, 2, 35.9151, 48.1278, -14.08, 97.4483, -51.5278, 44.0335
1.536, 2, 35.9151, 48.1278, -14.08, 97.4483, -51.5278, 44.0335
1.54, 2, 35.9151, 48.1278, -14.08, 97.4483, -51.5278, 44.0335
1.544, 2, 35.9151, 48.1278, -14.08, 97.4483, -51.5278, 44.0335
1.548, 2, 35.9151, 48.1278, -14.08, 97.4483, -51.5278, 44.0335
1.552, 2, 35.9151, 48.1278, -14.08, 97.4483, -51.5278, 44.0335
1.556, 2, 35.9151, 48.1278, -14.08, 97.4483, -51.5278, 44.0335
1.56, 2, 35.9151, 48.1278, -14.08, 97.4483, -51.5278, 44.0335
1.564, 2, 35.9151, 48.1278, -14.08, 97.4483, -51.5278, 44.0335
1.568, 2, 35.9151, 48.1278, -14.08, 97.4483, -51.5278, 44.0335
1.572, 2, 35.9151, 48.1278, -14.08, 97.4483, -51.5278, 44.0335
1.576, 2, 35.9151, 48.1278, -14.08, 97.4483, -51.5278, 44.0335
1.58, 2, 35.9151, 48.1278, -14.08, 97.4483, -51.5278, 44.0335
1.584, 2, 35.9151, 48.1278, -14.08, 97.4483, -51.5278, 44.0335
1.588, 2, 35.9151, 48.1278, -14.08, 97.4483, -51.5278, 44.0335
1.592, 2, 35.9151, 48.1278, -14.08, 97.4483, -51.5278, 44.0335
1.596, 2, 35.9151, 48.1278, -14.08, 97.4483, -51.5278, 44.0335
1.6, 2, 35.9151, 48.1278, -14.08, 97.4483, -51.5278, 44.0335
1.604, 2, 35.9151, 48.1278, -14.08, 97.4483, -51.5278, 44.0335
1.608, 2, 35.9151, 48.1278, -14.08, 97.4483, -51.5278, 44.0335
1.612, 2, 35.9151, 48.1278, -14.08, 97.4483, -51.5278, 44.0335
1.616, 2, 35.9151, 48.1278, -14.08, 97.4483, -51.5278, 44.0335
1.62, 2, 35.9151, 48.1278, -14.08, 97.4483, -51.5278, 44.0335
1.624, 2, 35.9151, 48.1278, -14.08, 97.4483, -51.5278, 44.0335
1.628, 2, 35.9151, 48.1278, -14.08, 97.4483, -51.5278, 44.0335
1.632, 2, 35.9151, 48.1278, -14.08, 97.4483, -51.5278, 44.0335
1.636, 2, 35.9151, 48.1278, -14.08, 97.4483, -51.5278, 44.0335
1.64, 2, 35.9151, 48.1278, -14.08, 97.4483, -51.5278, 44.0335
1.644, 2, 35.9151, 48.1278, -14.08, 97.4483, -51.5278, 44.0335
1.648, 2, 35.9151, 48.1278, -14.08, 97.4483, -51.5278, 44.0335
1.652, 2, 35.9151, 48.1278, -14.08, 97.4483, -51.5278, 44.0335
1.656, 2, 35.9151, 48.1278, -14.08, 97.4483, -51.5278, 44.0335
1.66, 2, 35.9151, 48.1278, -14.08, 97.4483, -51.5278, 44.0335
1.664, 2, 35.9151, 48.1278, -14.08, 97.4483, -51.5278, 44.0335
1.668, 2, 35.9151, 48.1278, -14.08, 97.4483, -51.5278, 44.0335
1.672, 2, 35.9151, 48.1278, -14.08, 97.4483, -51.5278, 44.0335
1.676, 2, 35.9151, 48.1278, -14.08, 97.4483, -51.5278, 44.0335
1.68, 2, 35.9151, 48.1278, -14.08, 97.4483, -51.5278, 44.0335
1.684, 2, 35.9151, 48.1278, -14.08, 97.4483, -51.5278, 44.0335
1.688, 2, 35.9151, 48.1278, -14.08, 97.4483, -51.5278, 44.0335
1.692, 2, 35.9151, 48.1278, -14.08, 97.4483, -51.5278, 44.0335
1.696, 2, 35.9151, 48.1278, -14.08, 97.4483, -51.5278, 44.0335
1.7, 2, 35.9151, 48.1278, -14.08, 97.4483, -51.5278, 44.0335
1.704, 2, 35.9151, 48.1278, -14.08, 97.4483, -51.5278, 44.0335
1.708, 2, 35.9151, 48.1278, -14.08, 97.4483, -51.5278, 44.0335
1.712, 2, 35.9151, 48.1278, -14.08, 97.4483, -51.5278, 44.0335
1.716, 2, 35.9151, 48.1278, -14.08, 97.4483, -51.5278, 44.0335
1.72, 2, 35.9151, 48.1278, -14.08, 97.4483, -51.5278, 44.0335
1.724, 2, 35.9151, 48.1278, -14.08, 97.4483, -51.5278, 44.0335
1.728, 2, 35.9151, 48.1278, -14.08, 97.4483, -51.5278, 44.0335
1.732, 2, 35.9151, 48.1278, -14.08, 97.4483, -51.5278, 44.0335
1.736, 2, 35.9151, 48.1278, -14.08, 97.4483, -51.5278, 44.0335
1.74, 2, 35.9151, 48.1278, -14.08, 97.4483, -51.5278, 44.0335
1.744, 2, 35.9151, 48.1278, -14.08, 97.4483, -51.5278, 44.0335
1.748, 2, 35.9151, 48.1278, -14.08, 97.4483, -51.5278, 44.0335
1.752, 2, 35.9151, 48.1278, -14.08, 97.4483, -51.5278, 44.0335
1.756, 2, 35.9151, 48.1278, -14.08, 97.4483, -51.5278, 44.0335
1.76, 2, 35.9151, 48.1278, -14.08, 97.4483, -51.5278, 44.0335
1.764, 2, 35.9151, 48.1278, -14.08, 97.4483, -51.5278, 44.0335
1.768, 2, 35.9151, 48.1278, -14.08, 97.4483, -51.5278, 44.0335
1.772, 2, 35.9151, 48.1278, -14.08, 97.4483, -51.5278, 44.0335
1.776, 2, 35.9151, 48.1278, -14.08, 97.4483, -51.5278, 44.0335
1.78, 2, 35.9151, 48.1278, -14.08, 97.4483, -51.5278, 44.0335
1.784, 2, 35.9151, 48.1278, -14.08, 97.4483, -51.5278, 44.0335
1.788, 2, 35.9151, 48.1278, -14.08, 97.4483, -51.5278, 44.0335
1.792, 2, 35.9151, 48.1278, -14.08, 97.4483, -51.5278, 44.0335
1.796, 2, 35.9151, 48.1278, -14.08, 97.4483, -51.5278, 44.0335
1.8, 2, 35.9151, 48.1278, -14.08, 97.4483, -51.5278, 44.0335
1.804, 2, 35.9151, 48.1278, -14.08, 97.4483, -51.5278, 44.0335
1.808, 2, 35.9151, 48.1278, -14.08, 97.4483, -51.5278, 44.0335
1.812, 2, 35.9151, 48.1278, -14.08, 97.4483, -51.5278, 44.0335
1.816, 2, 35.9151, 48.1278, -14.08, 97.4483, -51.5278, 44.0335
1.82, 2, 35.9151, 48.1278, -14.08, 97.4483, -51.5278, 44.0335
1.824, 2, 35.9151, 48.1278, -14.08, 97.4483, -51.5278, 44.0335
1.828, 2, 35.9151, 48.1278, -14.08, 97.4483, -51.5278, 44.0335
1.832, 2, 35.9151, 48.1278, -14.08, 97.4483, -51.5278, 44.0335
1.836, 2, 35.9151, 48.1278, -14.08, 97.4483, -51.5278, 44.0335
1.84, 2, 35.9151, 48.1278, -14.08, 97.4483, -51.5278, 44.0335
1.844, 2, 35.9151, 48.1278, -14.08, 97.4483, -51.5278, 44.0335
1.848, 2, 35.9151, 48.1278, -14.08, 97.4483, -51.5278, 44.0335
1.852, 2, 35.9151, 48.1278, -14.08, 97.4483, -51.5278, 44.0335
1.856, 2, 35.9151, 48.1278, -14.08, 97.4483, -51.5278, 44.0335
1.86, 2, 35.9151, 48.1278, -14.08, 97.4483, -51.5278, 44.0335
1.864, 2, 35.9151, 48.1278, -14.08, 97.4483, -51.5278, 44.0335
1.868, 2, 35.9151, 48.1278, -14.08, 97.4483, -51.5278, 44.0335
1.872, 2, 35.9151, 48.1278, -14.08, 97.4483, -51.5278, 44.0335
1.876, 2, 35.9151, 48.1278, -14.08, 97.4483, -51.5278, 44.0335
1.88, 2, 35.9151, 48.1278, -14.08, 97.4483, -51.5278, 44.0335
1.884, 2, 35.9151, 48.1278, -14.08, 97.4483, -51.5278, 44.0335
1.888, 2, 35.9151, 48.1278, -14.08, 97.4483, -51.5278, 44.0335
1.892, 2, 35.9151, 48.1278, -14.08, 97.4483, -51.5278, 44.0335
1.896, 2, 35.9151, 48.1278, -14.08, 97.4483, -51.5278, 44.0335
1.9, 2, 35.9151, 48.1278, -14.08, 97.4483, -51.5278, 44.0335
1.904, 2, 35.9151, 48.1278, -14.08, 97.4483, -51.5278, 44.0335
1.908, 2, 35.9151, 48.1278, -14.08, 97.4483, -51.5278, 44.0335
1.912, 2, 35.9151, 48.1278, -14.08, 97.4483, -51.5278, 44.0335
1.916, 2, 35.9151, 48.1278, -14.08, 97.4483, -51.5278, 44.0335
1.92, 2, 35.9151, 48.1278, -14.08, 97.4483, -51.5278, 44.0335
1.924, 2, 35.9151, 48.1278, -14.08, 97.4483, -51.5278, 44.0335
1.928, 2, 35.9151, 48.1278, -14.08, 97.4483, -51.5278, 44.0335
1.932, 2, 35.9151, 48.1278, -14.08, 97.4483, -51.5278, 44.0335
1.936, 2, 35.9151, 48.1278, -14.08, 97.4483, -51.5278, 44.0335
1.94, 2, 35.9151, 48.1278, -14.08, 97.4483, -51.5278, 44.0335
1.944, 2, 35.9151, 48.1278, -14.08, 97.4483, -51.5278, 44.0335
1.948, 2, 35.9151, 48.1278, -14.08, 97.4483, -51.5278, 44.0335
1.952, 2, 35.9151, 48.1278, -14.08, 97.4483, -51.5278, 44.0335
1.956, 2, 35.9151, 48.1278, -14.08, 97.4483, -51.5278, 44.0335
1.96, 2, 35.9151, 48.1278, -14.08, 97.4483, -51.5278, 44.0335
1.964, 2, 35.9151, 48.1278, -14.08, 97.4483, -51.5278, 44.0335
1.968, 2, 35.9151, 48.1278, -14.08, 97.4483, -51.5278, 44.0335
1.972, 2, 35.9151, 48.1278, -14.08, 97.4483, -51.5278, 44.0335
1.976, 2, 35.9151, 48.1278, -14.08, 97.4483, -51.5278, 44.0335
1.98, 2, 35.9151, 48.1278, -14.08, 97.4483, -51.5278, 44.0335
1.984, 2, 35.9151, 48.1278, -14.08, 97.4483, -51.5278, 44.0335
1.988, 2, 35.9151, 48.1278, -14.08, 97.4483, -51.5278, 44.0335
1.992, 2, 35.9151, 48.1278, -14.08, 97.4483, -51.5278, 44.0335
1.996, 2, 35.9151, 48.1278, -14.08, 97.4483, -51.5278, 44.0335
1.999, 2, 35.9151, 48.1278, -14.08, 97.4483, -51.5278, 44.0335
2.004, 2, 35.9151, 48.1278, -14.08, 97.4483, -51.5278, 44.0335
2.008, 2, 35.9151, 48.1278, -14.08, 97.4483, -51.5278, 44.0335
2.012, 2, 35.9151, 48.1278, -14.08, 97.4483, -51.5278, 44.0335
2.015, 2, 35.9151, 48.1278, -14.08, 97.4483, -51.5278, 44.0335
2.019, 2, 35.9151, 48.1278, -14.08, 97.4483, -51.5278, 44.0335
2.024, 2, 35.9151, 48.1278, -14.08, 97.4483, -51.5278, 44.0335
2.028, 2, 35.9151, 48.1278, -14.08, 97.4483, -51.5278, 44.0335
2.031, 2, 35.9151, 48.1278, -14.08, 97.4483, -51.5278, 44.0335
2.036, 4, 35.9151, 48.1278, -14.08, 97.4483, -51.5278, 44.0335
2.04, 4, 35.9151, 48.1278, -14.08, 97.4483, -51.5278, 44.0335
2.044, 4, 35.9151, 48.1278, -14.08, 97.4483, -51.5278, 44.0335
2.048, 4, 35.9151, 48.1278, -14.08, 97.4483, -51.5278, 44.0335
2.051, 4, 35.9151, 48.1278, -14.08, 97.4483, -51.5278, 44.0335
2.055, 4, 35.9151, 48.1278, -14.08, 97.4483, -51.5278, 44.0335
2.06, 4, 35.9151, 48.1278, -14.08, 97.4483, -51.5278, 44.0335
2.064, 4, 35.9151, 48.1278, -14.08, 97.4483, -51.5278, 44.0335
2.068, 4, 35.9151, 48.1278, -14.08, 97.4483, -51.5278, 44.0335
2.071, 4, 35.9151, 48.1278, -14.08, 97.4483, -51.5278, 44.0335
2.076, 4, 35.9151, 48.1278, -14.08, 97.4483, -51.5278, 44.0335
2.08, 4, 35.9151, 48.1278, -14.08, 97.4483, -51.5278, 44.0335
2.084, 4, 35.9151, 48.1278, -14.08, 97.4483, -51.5278, 44.0335
2.087, 4, 35.9151, 48.1278, -14.08, 97.4483, -51.5278, 44.0335
2.092, 4, 35.9151, 48.1278, -14.08, 97.4483, -51.5278, 44.0335
2.096, 4, 35.9151, 48.1278, -14.08, 97.4483, -51.5278, 44.0335
2.1, 4, 35.9151, 48.1278, -14.08, 97.4483, -51.5278, 44.0335
2.104, 4, 35.9151, 48.1278, -14.08, 97.4483, -51.5278, 44.0335
2.107, 4, 35.9151, 48.1278, -14.08, 97.4483, -51.5278, 44.0335
2.111, 4, 35.9151, 48.1278, -14.08, 97.4483, -51.5278, 44.0335
2.116, 4, 35.9151, 48.1278, -14.08, 97.4483, -51.5278, 44.0335
2.12, 4, 35.9151, 48.1278, -14.08, 97.4483, -51.5278, 44.0335
2.124, 4, 35.9151, 48.1278, -14.08, 97.4483, -51.5278, 44.0335
2.127, 4, 35.9151, 48.1278, -14.08, 97.4483, -51.5278, 44.0335
2.132, 4, 35.9151, 48.1278, -14.08, 97.4483, -51.5278, 44.0335
2.136, 4, 35.9151, 48.1278, -14.08, 97.4483, -51.5278, 44.0335
2.142, 4, 35.9151, 48.1278, -14.08, 97.4483, -51.5278, 44.0335
2.144, 4, 35.9151, 48.1278, -14.08, 97.4483, -51.5278, 44.0335
2.147, 4, 35.9151, 48.1278, -14.08, 97.4483, -51.5278, 44.0335
2.152, 4, 35.9151, 48.1278, -14.08, 97.4483, -51.5278, 44.0335
2.156, 4, 35.9151, 48.1278, -14.08, 97.4483, -51.5278, 44.0335
2.16, 4, 35.9151, 48.1278, -14.08, 97.4483, -51.5278, 44.0335
2.163, 4, 35.9151, 48.1278, -14.08, 97.4483, -51.5278, 44.0335
2.168, 4, 35.9151, 48.1278, -14.08, 97.4483, -51.5278, 44.0335
2.172, 4, 35.9151, 48.1278, -14.08, 97.4483, -51.5278, 44.0335
2.176, 4, 35.9151, 48.1278, -14.08, 97.4483, -51.5278, 44.0335
2.179, 4, 35.9151, 48.1278, -14.08, 97.4483, -51.5278, 44.0335
2.184, 4, 35.9151, 48.1278, -14.08, 97.4483, -51.5278, 44.0335
2.188, 4, 35.9151, 48.128, -14.08, 97.4483, -51.5279, 44.0335
2.192, 4, 35.915, 48.1283, -14.0801, 97.4483, -51.5279, 44.0335
2.196, 4, 35.9148, 48.1289, -14.0801, 97.4483, -51.528, 44.0334
2.199, 4, 35.9145, 48.1299, -14.0802, 97.4483, -51.5283, 44.0332
2.204, 4, 35.9142, 48.1311, -14.0803, 97.4484, -51.5289, 44.0329
2.208, 4, 35.9138, 48.1325, -14.0805, 97.4485, -51.5299, 44.0322
2.212, 4, 35.9134, 48.1342, -14.0807, 97.4486, -51.5316, 44.0312
2.216, 4, 35.913, 48.136, -14.0811, 97.4488, -51.534, 44.0297
2.219, 4, 35.9126, 48.1378, -14.0816, 97.449, -51.5373, 44.0277
2.224, 4, 35.9123, 48.1398, -14.0823, 97.4494, -51.5416, 44.025
2.228, 5, 35.9121, 48.142, -14.0831, 97.4498, -51.5471, 44.0216
2.232, 5, 35.9118, 48.1443, -14.084, 97.4503, -51.5538, 44.0175
2.235, 5, 35.9116, 48.1469, -14.0852, 97.4509, -51.5616, 44.0126
2.24, 5, 35.9114, 48.1496, -14.0865, 97.4516, -51.5708, 44.007
2.244, 5, 35.9113, 48.1524, -14.0879, 97.4523, -51.5811, 44.0006
2.248, 5, 35.9113, 48.1553, -14.0895, 97.4532, -51.5925, 43.9935
2.252, 5, 35.9113, 48.1583, -14.0913, 97.4541, -51.605, 43.9858
2.255, 5, 35.9113, 48.1615, -14.0931, 97.4551, -51.6183, 43.9775
2.259, 5, 35.9113, 48.1648, -14.0951, 97.4561, -51.6323, 43.9689
2.264, 5, 35.9113, 48.1685, -14.0971, 97.4572, -51.6469, 43.9599
2.268, 5, 35.9112, 48.1725, -14.0992, 97.4583, -51.6619, 43.9506
2.272, 5, 35.911, 48.1767, -14.1014, 97.4594, -51.6772, 43.9412
2.275, 5, 35.9107, 48.1813, -14.1036, 97.4605, -51.6926, 43.9316
2.28, 5, 35.9104, 48.1859, -14.1058, 97.4616, -51.7082, 43.922
2.284, 5, 35.9101, 48.1908, -14.108, 97.4628, -51.7239, 43.9123
2.288, 5, 35.9097, 48.1956, -14.1102, 97.4639, -51.7396, 43.9026
2.291, 5, 35.9094, 48.2006, -14.1124, 97.465, -51.7554, 43.8929
2.296, 5, 35.909, 48.2056, -14.1147, 97.4662, -51.7712, 43.8832
2.3, 5, 35.9086, 48.2106, -14.1169, 97.4673, -51.787, 43.8734
2.304, 5, 35.9082, 48.2156, -14.1191, 97.4684, -51.8029, 43.8636
2.308, 5, 35.9078, 48.2206, -14.1214, 97.4695, -51.8187, 43.8539
2.311, 5, 35.9074, 48.2257, -14.1236, 97.4706, -51.8345, 43.8441
2.316, 5, 35.907, 48.2307, -14.1258, 97.4717, -51.8504, 43.8344
2.32, 5, 35.9066, 48.2357, -14.128, 97.4728, -51.8663, 43.8246
2.324, 5, 35.9062, 48.2408, -14.1303, 97.4739, -51.8821, 43.8149
2.328, 5, 35.9058, 48.2458, -14.1325, 97.475, -51.898, 43.8051
2.331, 5, 35.9054, 48.2509, -14.1347, 97.4761, -51.9138, 43.7954
2.336, 5, 35.905, 48.2559, -14.1369, 97.4772, -51.9297, 43.7857
2.34, 5, 35.9045, 48.261, -14.1391, 97.4783, -51.9455, 43.7759
2.344, 5, 35.9041, 48.266, -14.1413, 97.4793, -51.9614, 43.7662
2.347, 5, 35.9037, 48.271, -14.1436, 97.4804, -51.9772, 43.7565
2.352, 5, 35.9033, 48.2761, -14.1458, 97.4814, -51.9931, 43.7467
2.356, 5, 35.9029, 48.2811, -14.148, 97.4825, -52.0089, 43.737
2.36, 5, 35.9025, 48.2861, -14.1502, 97.4835, -52.0248, 43.7273
2.364, 5, 35.9021, 48.2912, -14.1524, 97.4846, -52.0406, 43.7176
2.367, 5, 35.9016, 48.2962, -14.1546, 97.4856, -52.0565, 43.7079
2.372, 5, 35.9012, 48.3012, -14.1568, 97.4866, -52.0723, 43.6982
2.376, 5, 35.9008, 48.3063, -14.1589, 97.4877, -52.0882, 43.6885
2.38, 5, 35.9004, 48.3113, -14.1611, 97.4887, -52.104, 43.6788
2.383, 5, 35.9, 48.3163, -14.1633, 97.4897, -52.1199, 43.6691
2.388, 5, 35.8995, 48.3214, -14.1655, 97.4907, -52.1357, 43.6594
2.392, 5, 35.8991, 48.3264, -14.1677, 97.4917, -52.1516, 43.6498
2.396, 5, 35.8987, 48.3314, -14.1699, 97.4927, -52.1674, 43.6401
2.4, 5, 35.8983, 48.3364, -14.172, 97.4937, -52.1833, 43.6304
2.403, 5, 35.8978, 48.3415, -14.1742, 97.4947, -52.1991, 43.6207
2.408, 5, 35.8974, 48.3465, -14.1764, 97.4957, -52.215, 43.6111
2.412, 5, 35.897, 48.3515, -14.1785, 97.4967, -52.2308, 43.6014
2.416, 5, 35.8966, 48.3565, -14.1807, 97.4976, -52.2466, 43.5918
2.42, 5, 35.8961, 48.3615, -14.1829, 97.4986, -52.2625, 43.5821
2.423, 5, 35.8957, 48.3665, -14.185, 97.4996, -52.2783, 43.5725
2.428, 5, 35.8953, 48.3716, -14.1872, 97.5005, -52.2942, 43.5628
2.432, 5, 35.8948, 48.3766, -14.1893, 97.5015, -52.31, 43.5532
2.436, 5, 35.8944, 48.3816, -14.1915, 97.5024, -52.3258, 43.5435
2.439, 5, 35.894, 48.3866, -14.1936, 97.5034, -52.3417, 43.5339
2.444, 5, 35.8935, 48.3916, -14.1958, 97.5043, -52.3575, 43.5243
2.448, 5, 35.8931, 48.3966, -14.1979, 97.5052, -52.3734, 43.5146
2.452, 5, 35.8927, 48.4016, -14.2001, 97.5062, -52.3892, 43.505
2.456, 5, 35.8922, 48.4066, -14.2022, 97.5071, -52.405, 43.4954
2.459, 5, 35.8918, 48.4116, -14.2043, 97.508, -52.4209, 43.4858
2.464, 5, 35.8914, 48.4166, -14.2065, 97.5089, -52.4367, 43.4762
2.468, 5, 35.8909, 48.4216, -14.2086, 97.5098, -52.4525, 43.4666
2.472, 5, 35.8905, 48.4266, -14.2107, 97.5107, -52.4683, 43.457
2.476, 5, 35.89, 48.4316, -14.2128, 97.5116, -52.4842, 43.4474
2.479, 5, 35.8896, 48.4366, -14.215, 97.5125, -52.5, 43.4378
2.484, 5, 35.8892, 48.4416, -14.2171, 97.5134, -52.5158, 43.4282
2.488, 5, 35.8887, 48.4466, -14.2192, 97.5142, -52.5317, 43.4186
2.492, 5, 35.8883, 48.4516, -14.2213, 97.5151, -52.5475, 43.409
2.495, 5, 35.8878, 48.4566, -14.2234, 97.516, -52.5633, 43.3995
2.5, 5, 35.8874, 48.4616, -14.2255, 97.5169, -52.5791, 43.3899
2.504, 5, 35.8869, 48.4666, -14.2276, 97.5177, -52.595, 43.3803
2.508, 5, 35.8865, 48.4716, -14.2297, 97.5186, -52.6108, 43.3707
2.512, 5, 35.886, 48.4765, -14.2318, 97.5194, -52.6266, 43.3612
2.515, 5, 35.8856, 48.4815, -14.2339, 97.5203, -52.6424, 43.3516
2.52, 5, 35.8851, 48.4865, -14.236, 97.5211, -52.6583, 43.3421
2.524, 5, 35.8847, 48.4915, -14.2381, 97.5219, -52.6741, 43.3325
2.528, 5, 35.8842, 48.4965, -14.2402, 97.5228, -52.6899, 43.323
2.531, 5, 35.8838, 48.5014, -14.2423, 97.5236, -52.7057, 43.3134
2.536, 5, 35.8833, 48.5064, -14.2444, 97.5244, -52.7215, 43.3039
2.54, 5, 35.8829, 48.5114, -14.2465, 97.5252, -52.7374, 43.2944
2.544, 5, 35.8824, 48.5164, -14.2486, 97.526, -52.7532, 43.2848
2.548, 5, 35.8819, 48.5214, -14.2506, 97.5268, -52.769, 43.2753
2.551, 5, 35.8815, 48.5263, -14.2527, 97.5276, -52.7848, 43.2658
2.556, 5, 35.881, 48.5313, -14.2548, 97.5284, -52.8006, 43.2563
2.56, 5, 35.8806, 48.5363, -14.2569, 97.5292, -52.8164, 43.2467
2.564, 5, 35.8801, 48.5412, -14.2589, 97.53, -52.8323, 43.2372
2.568, 5, 35.8797, 48.5462, -14.261, 97.5307, -52.8481, 43.2277
2.571, 5, 35.8792, 48.5512, -14.263, 97.5315, -52.8639, 43.2182
2.576, 5, 35.8787, 48.5561, -14.2651, 97.5323, -52.8797, 43.2087
2.58, 5, 35.8783, 48.5611, -14.2672, 97.533, -52.8955, 43.1992
2.584, 5, 35.8778, 48.5661, -14.2692, 97.5338, -52.9113, 43.1897
2.587, 5, 35.8773, 48.571, -14.2713, 97.5345, -52.9271, 43.1802
2.592, 5, 35.8769, 48.576, -14.2733, 97.5353, -52.9429, 43.1708
2.596, 5, 35.8764, 48.5809, -14.2754, 97.536, -52.9587, 43.1613
2.6, 5, 35.8759, 48.5859, -14.2774, 97.5368, -52.9745, 43.1518
2.604, 5, 35.8755, 48.5908, -14.2794, 97.5375, -52.9903, 43.1423
2.607, 5, 35.875, 48.5958, -14.2815, 97.5382, -53.0061, 43.1329
2.612, 5, 35.8745, 48.6007, -14.2835, 97.5389, -53.0219, 43.1234
2.616, 5, 35.874, 48.6057, -14.2855, 97.5396, -53.0378, 43.1139
2.62, 5, 35.8736, 48.6106, -14.2876, 97.5403, -53.0536, 43.1045
2.624, 5, 35.8731, 48.6156, -14.2896, 97.541, -53.0694, 43.095
2.627, 5, 35.8726, 48.6205, -14.2916, 97.5417, -53.0852, 43.0856
2.632, 5, 35.8721, 48.6255, -14.2936, 97.5424, -53.101, 43.0761
2.636, 5, 35.8717, 48.6304, -14.2957, 97.5431, -53.1168, 43.0667
2.64, 5, 35.8712, 48.6354, -14.2977, 97.5438, -53.1326, 43.0573
2.643, 5, 35.8707, 48.6403, -14.2997, 97.5445, -53.1483, 43.0478
2.648, 5, 35.8702, 48.6452, -14.3017, 97.5452, -53.1641, 43.0384
2.652, 5, 35.8697, 48.6502, -14.3037, 97.5458, -53.1799, 43.029
2.656, 5, 35.8693, 48.6551, -14.3057, 97.5465, -53.1957, 43.0195
2.66, 5, 35.8688, 48.6601, -14.3077, 97.5472, -53.2115, 43.0101
2.663, 5, 35.8683, 48.665, -14.3097, 97.5478, -53.2273, 43.0007
2.668, 5, 35.8678, 48.6699, -14.3117, 97.5485, -53.2431, 42.9913
2.672, 5, 35.8673, 48.6749, -14.3137, 97.5491, -53.2589, 42.9819
2.676, 5, 35.8668, 48.6798, -14.3157, 97.5497, -53.2747, 42.9725
2.679, 5, 35.8664, 48.6847, -14.3177, 97.5504, -53.2905, 42.9631
2.684, 5, 35.8659, 48.6896, -14.3197, 97.551, -53.3063, 42.9537
2.688, 5, 35.8654, 48.6946, -14.3216, 97.5516, -53.3221, 42.9443
2.692, 5, 35.8649, 48.6995, -14.3236, 97.5522, -53.3379, 42.9349
2.696, 5, 35.8644, 48.7044, -14.3256, 97.5529, -53.3536, 42.9255
2.699, 5, 35.8639, 48.7093, -14.3276, 97.5535, -53.3694, 42.9161
2.704, 5, 35.8634, 48.7143, -14.3296, 97.5541, -53.3852, 42.9068
2.708, 5, 35.8629, 48.7192, -14.3315, 97.5547, -53.401, 42.8974
2.712, 5, 35.8624, 48.7241, -14.3335, 97.5553, -53.4168, 42.888
2.716, 5, 35.8619, 48.729, -14.3355, 97.5558, -53.4326, 42.8786
2.719, 5, 35.8614, 48.7339, -14.3374, 97.5564, -53.4483, 42.8693
2.724, 5, 35.8609, 48.7388, -14.3394, 97.557, -53.4641, 42.8599
2.728, 5, 35.8604, 48.7437, -14.3413, 97.5576, -53.4799, 42.8506
2.732, 5, 35.8599, 48.7487, -14.3433, 97.5581, -53.4957, 42.8412
2.735, 5, 35.8594, 48.7536, -14.3452, 97.5587, -53.5115, 42.8319
2.74, 5, 35.8589, 48.7585, -14.3472, 97.5593, -53.5272, 42.8225
2.744, 5, 35.8584, 48.7634, -14.3491, 97.5598, -53.543, 42.8132
2.748, 5, 35.8579, 48.7683, -14.3511, 97.5604, -53.5588, 42.8038
2.752, 5, 35.8574, 48.7732, -14.353, 97.5609, -53.5746, 42.7945
2.755, 5, 35.8569, 48.7781, -14.3549, 97.5614, -53.5904, 42.7852
2.76, 5, 35.8564, 48.783, -14.3569, 97.562, -53.6061, 42.7759
2.764, 5, 35.8559, 48.7879, -14.3588, 97.5625, -53.6219, 42.7665
2.768, 5, 35.8554, 48.7928, -14.3607, 97.563, -53.6377, 42.7572
2.772, 5, 35.8549, 48.7977, -14.3627, 97.5635, -53.6534, 42.7479
2.775, 5, 35.8544, 48.8026, -14.3646, 97.5641, -53.6692, 42.7386
2.78, 5, 35.8539, 48.8075, -14.3665, 97.5646, -53.685, 42.7293
2.784, 5, 35.8534, 48.8124, -14.3684, 97.5651, -53.7008, 42.72
2.788, 5, 35.8529, 48.8173, -14.3703, 97.5656, -53.7165, 42.7107
2.791, 5, 35.8524, 48.8221, -14.3723, 97.566, -53.7323, 42.7014
2.796, 5, 35.8518, 48.827, -14.3742, 97.5665, -53.7481, 42.6921
2.8, 5, 35.8513, 48.8319, -14.3761, 97.567, -53.7638, 42.6828
2.804, 5, 35.8508, 48.8368, -14.378, 97.5675, -53.7796, 42.6735
2.808, 5, 35.8503, 48.8417, -14.3799, 97.568, -53.7953, 42.6642
2.811, 5, 35.8498, 48.8466, -14.3818, 97.5684, -53.8111, 42.655
2.816, 5, 35.8493, 48.8514, -14.3837, 97.5689, -53.8269, 42.6457
2.82, 5, 35.8488, 48.8563, -14.3856, 97.5694, -53.8426, 42.6364
2.824, 5, 35.8482, 48.8612, -14.3875, 97.5698, -53.8584, 42.6272
2.828, 5, 35.8477, 48.8661, -14.3893, 97.5703, -53.8742, 42.6179
2.831, 5, 35.8472, 48.871, -14.3912, 97.5707, -53.8899, 42.6086
2.836, 5, 35.8467, 48.8758, -14.3931, 97.5711, -53.9057, 42.5994
2.84, 5, 35.8461, 48.8807, -14.395, 97.5716, -53.9214, 42.5901
2.844, 5, 35.8456, 48.8856, -14.3969, 97.572, -53.9372, 42.5809
2.847, 5, 35.8451, 48.8904, -14.3987, 97.5724, -53.953, 42.5716
2.852, 5, 35.8446, 48.8953, -14.4006, 97.5728, -53.9687, 42.5624
2.856, 5, 35.844, 48.9002, -14.4025, 97.5733, -53.9845, 42.5532
2.86, 5, 35.8435, 48.905, -14.4044, 97.5737, -54.0002, 42.5439
2.864, 5, 35.843, 48.9099, -14.4062, 97.5741, -54.016, 42.5347
2.867, 5, 35.8425, 48.9148, -14.4081, 97.5745, -54.0317, 42.5255
2.872, 5, 35.8419, 48.9196, -14.4099, 97.5749, -54.0475, 42.5162
2.876, 5, 35.8414, 48.9245, -14.4118, 97.5753, -54.0632, 42.507
2.88, 5, 35.8409, 48.9293, -14.4136, 97.5756, -54.079, 42.4978
2.883, 5, 35.8403, 48.9342, -14.4155, 97.576, -54.0947, 42.4886
2.888, 5, 35.8398, 48.9391, -14.4173, 97.5764, -54.1105, 42.4794
2.892, 5, 35.8393, 48.9439, -14.4192, 97.5768, -54.1262, 42.4702
2.896, 5, 35.8387, 48.9488, -14.421, 97.5771, -54.142, 42.461
2.9, 5, 35.8382, 48.9536, -14.4229, 97.5775, -54.1577, 42.4518
2.903, 5, 35.8377, 48.9585, -14.4247, 97.5778, -54.1735, 42.4426
2.908, 5, 35.8371, 48.9633, -14.4265, 97.5782, -54.1892, 42.4334
2.912, 5, 35.8366, 48.9682, -14.4284, 97.5785, -54.2049, 42.4242
2.916, 5, 35.836, 48.973, -14.4302, 97.5789, -54.2207, 42.415
2.92, 5, 35.8355, 48.9778, -14.432, 97.5792, -54.2364, 42.4059
2.923, 5, 35.835, 48.9827, -14.4338, 97.5795, -54.2522, 42.3967
2.928, 5, 35.8344, 48.9875, -14.4357, 97.5799, -54.2679, 42.3875
2.932, 5, 35.8339, 48.9924, -14.4375, 97.5802, -54.2836, 42.3783
2.936, 5, 35.8333, 48.9972, -14.4393, 97.5805, -54.2994, 42.3692
2.939, 5, 35.8328, 49.002, -14.4411, 97.5808, -54.3151, 42.36
2.944, 5, 35.8322, 49.0069, -14.4429, 97.5811, -54.3308, 42.3509
2.948, 5, 35.8317, 49.0117, -14.4447, 97.5814, -54.3466, 42.3417
2.952, 5, 35.8311, 49.0165, -14.4465, 97.5817, -54.3623, 42.3325
2.956, 5, 35.8306, 49.0214, -14.4483, 97.582, -54.3781, 42.3234
2.959, 5, 35.83, 49.0262, -14.4501, 97.5823, -54.3938, 42.3143
2.964, 5, 35.8295, 49.031, -14.4519, 97.5826, -54.4095, 42.3051
2.968, 5, 35.8289, 49.0359, -14.4537, 97.5829, -54.4252, 42.296
2.972, 5, 35.8284, 49.0407, -14.4555, 97.5831, -54.441, 42.2868
2.976, 5, 35.8278, 49.0455, -14.4573, 97.5834, -54.4567, 42.2777
2.98, 5, 35.8273, 49.0503, -14.459, 97.5837, -54.4724, 42.2686
2.984, 5, 35.8267, 49.0551, -14.4608, 97.5839, -54.4882, 42.2595
2.988, 5, 35.8262, 49.06, -14.4626, 97.5842, -54.5039, 42.2503
2.992, 5, 35.8256, 49.0648, -14.4644, 97.5844, -54.5196, 42.2412
2.995, 5, 35.8251, 49.0696, -14.4661, 97.5847, -54.5353, 42.2321
3, 5, 35.8245, 49.0744, -14.4679, 97.5849, -54.5511, 42.223
3.004, 5, 35.8239, 49.0792, -14.4697, 97.5851, -54.5668, 42.2139
3.008, 5, 35.8234, 49.084, -14.4714, 97.5854, -54.5825, 42.2048
3.012, 5, 35.8228, 49.0888, -14.4732, 97.5856, -54.5982, 42.1957
3.015, 5, 35.8223, 49.0937, -14.475, 97.5858, -54.614, 42.1866
3.02, 5, 35.8217, 49.0985, -14.4767, 97.586, -54.6297, 42.1775
3.024, 5, 35.8211, 49.1033, -14.4785, 97.5863, -54.6454, 42.1684
3.028, 5, 35.8206, 49.1081, -14.4802, 97.5865, -54.6611, 42.1593
3.031, 5, 35.82, 49.1129, -14.482, 97.5867, -54.6768, 42.1503
3.036, 5, 35.8194, 49.1177, -14.4837, 97.5869, -54.6925, 42.1412
3.04, 5, 35.8189, 49.1225, -14.4855, 97.587, -54.7083, 42.1321
3.044, 5, 35.8183, 49.1273, -14.4872, 97.5872, -54.724, 42.123
3.048, 5, 35.8177, 49.1321, -14.4889, 97.5874, -54.7397, 42.114
3.051, 5, 35.8172, 49.1369, -14.4907, 97.5876, -54.7554, 42.1049
3.056, 5, 35.8166, 49.1417, -14.4924, 97.5878, -54.7711, 42.0958
3.06, 5, 35.816, 49.1465, -14.4941, 97.5879, -54.7868, 42.0868
3.064, 5, 35.8154, 49.1512, -14.4958, 97.5881, -54.8025, 42.0777
3.068, 5, 35.8149, 49.156, -14.4976, 97.5883, -54.8182, 42.0687
3.071, 5, 35.8143, 49.1608, -14.4993, 97.5884, -54.834, 42.0596
3.076, 5, 35.8137, 49.1656, -14.501, 97.5886, -54.8497, 42.0506
3.08, 5, 35.8131, 49.1704, -14.5027, 97.5887, -54.8654, 42.0415
3.084, 5, 35.8126, 49.1752, -14.5044, 97.5889, -54.8811, 42.0325
3.087, 5, 35.812, 49.18, -14.5061, 97.589, -54.8968, 42.0235
3.092, 5, 35.8114, 49.1847, -14.5078, 97.5891, -54.9125, 42.0144
3.096, 5, 35.8108, 49.1895, -14.5095, 97.5892, -54.9282, 42.0054
3.1, 5, 35.8102, 49.1943, -14.5112, 97.5894, -54.9439, 41.9964
3.104, 5, 35.8097, 49.1991, -14.5129, 97.5895, -54.9596, 41.9874
3.107, 5, 35.8091, 49.2039, -14.5146, 97.5896, -54.9753, 41.9784
3.112, 5, 35.8085, 49.2086, -14.5163, 97.5897, -54.991, 41.9693
3.116, 5, 35.8079, 49.2134, -14.518, 97.5898, -55.0067, 41.9603
3.12, 5, 35.8073, 49.2182, -14.5197, 97.5899, -55.0224, 41.9513
3.124, 5, 35.8067, 49.2229, -14.5214, 97.59, -55.0381, 41.9423
3.128, 5, 35.8061, 49.2277, -14.523, 97.5901, -55.0538, 41.9333
3.132, 5, 35.8056, 49.2325, -14.5247, 97.5902, -55.0695, 41.9243
3.136, 5, 35.805, 49.2372, -14.5264, 97.5903, -55.0852, 41.9153
3.14, 5, 35.8044, 49.242, -14.5281, 97.5903, -55.1009, 41.9063
3.143, 5, 35.8038, 49.2468, -14.5297, 97.5904, -55.1166, 41.8973
3.148, 5, 35.8032, 49.2515, -14.5314, 97.5905, -55.1323, 41.8884
3.152, 5, 35.8026, 49.2563, -14.5331, 97.5905, -55.148, 41.8794
3.156, 5, 35.802, 49.261, -14.5347, 97.5906, -55.1637, 41.8704
3.16, 5, 35.8014, 49.2658, -14.5364, 97.5906, -55.1793, 41.8614
3.163, 5, 35.8008, 49.2706, -14.538, 97.5907, -55.195, 41.8525
3.168, 5, 35.8002, 49.2753, -14.5397, 97.5907, -55.2107, 41.8435
3.172, 5, 35.7996, 49.2801, -14.5413, 97.5908, -55.2264, 41.8345
3.176, 5, 35.799, 49.2848, -14.543, 97.5908, -55.2421, 41.8256
3.179, 5, 35.7984, 49.2896, -14.5446, 97.5908, -55.2578, 41.8166
3.184, 5, 35.7978, 49.2943, -14.5463, 97.5909, -55.2735, 41.8077
3.188, 5, 35.7972, 49.2991, -14.5479, 97.5909, -55.2892, 41.7987
3.192, 5, 35.7966, 49.3038, -14.5495, 97.5909, -55.3048, 41.7898
3.196, 5, 35.796, 49.3085, -14.5512, 97.5909, -55.3205, 41.7808
3.199, 5, 35.7954, 49.3133, -14.5528, 97.5909, -55.3362, 41.7719
3.204, 5, 35.7948, 49.318, -14.5544, 97.5909, -55.3519, 41.7629
3.208, 5, 35.7942, 49.3228, -14.556, 97.5909, -55.3676, 41.754
3.212, 5, 35.7936, 49.3275, -14.5577, 97.5909, -55.3832, 41.7451
3.216, 5, 35.793, 49.3322, -14.5593, 97.5909, -55.3989, 41.7361
3.22, 5, 35.7924, 49.337, -14.5609, 97.5909, -55.4146, 41.7272
3.224, 5, 35.7918, 49.3417, -14.5625, 97.5909, -55.4303, 41.7183
3.228, 5, 35.7912, 49.3464, -14.5641, 97.5908, -55.446, 41.7094
3.232, 5, 35.7906, 49.3512, -14.5657, 97.5908, -55.4616, 41.7005
3.235, 5, 35.7899, 49.3559, -14.5673, 97.5908, -55.4773, 41.6916
3.24, 5, 35.7893, 49.3606, -14.5689, 97.5907, -55.493, 41.6826
3.244, 5, 35.7887, 49.3653, -14.5705, 97.5907, -55.5087, 41.6737
3.248, 5, 35.7881, 49.3701, -14.5721, 97.5906, -55.5243, 41.6648
3.252, 5, 35.7875, 49.3748, -14.5737, 97.5906, -55.54, 41.6559
3.255, 5, 35.7869, 49.3795, -14.5753, 97.5905, -55.5557, 41.647
3.26, 5, 35.7863, 49.3842, -14.5769, 97.5905, -55.5713, 41.6382
3.264, 5, 35.7856, 49.3889, -14.5785, 97.5904, -55.587, 41.6293
3.268, 5, 35.785, 49.3937, -14.5801, 97.5903, -55.6027, 41.6204
3.272, 5, 35.7844, 49.3984, -14.5816, 97.5902, -55.6183, 41.6115
3.276, 5, 35.7838, 49.4031, -14.5832, 97.5902, -55.634, 41.6026
3.28, 5, 35.7832, 49.4078, -14.5848, 97.5901, -55.6497, 41.5937
3.284, 5, 35.7825, 49.4125, -14.5863, 97.59, -55.6653, 41.5849
3.288, 5, 35.7819, 49.4172, -14.5879, 97.5899, -55.681, 41.576
3.291, 5, 35.7813, 49.4219, -14.5895, 97.5898, -55.6967, 41.5671
3.296, 5, 35.7807, 49.4266, -14.591, 97.5897, -55.7123, 41.5583
3.3, 5, 35.78, 49.4313, -14.5926, 97.5896, -55.728, 41.5494
3.304, 5, 35.7794, 49.436, -14.5942, 97.5895, -55.7436, 41.5406
3.308, 5, 35.7788, 49.4407, -14.5957, 97.5894, -55.7593, 41.5317
3.312, 5, 35.7782, 49.4454, -14.5973, 97.5892, -55.775, 41.5228
3.316, 5, 35.7775, 49.4501, -14.5988, 97.5891, -55.7906, 41.514
3.32, 5, 35.7769, 49.4548, -14.6003, 97.589, -55.8063, 41.5052
3.324, 5, 35.7763, 49.4595, -14.6019, 97.5889, -55.8219, 41.4963
3.328, 5, 35.7756, 49.4642, -14.6034, 97.5887, -55.8376, 41.4875
3.332, 5, 35.775, 49.4689, -14.605, 97.5886, -55.8532, 41.4786
3.336, 5, 35.7744, 49.4736, -14.6065, 97.5884, -55.8689, 41.4698
3.34, 5, 35.7737, 49.4783, -14.608, 97.5883, -55.8845, 41.461
3.344, 5, 35.7731, 49.483, -14.6096, 97.5881, -55.9002, 41.4522
3.347, 5, 35.7725, 49.4877, -14.6111, 97.588, -55.9158, 41.4433
3.352, 5, 35.7718, 49.4923, -14.6126, 97.5878, -55.9315, 41.4345
3.356, 5, 35.7712, 49.497, -14.6141, 97.5876, -55.9471, 41.4257
3.36, 5, 35.7705, 49.5017, -14.6156, 97.5875, -55.9628, 41.4169
3.364, 5, 35.7699, 49.5064, -14.6171, 97.5873, -55.9784, 41.4081
3.368, 5, 35.7693, 49.5111, -14.6187, 97.5871, -55.9941, 41.3993
3.372, 5, 35.7686, 49.5157, -14.6202, 97.5869, -56.0097, 41.3905
3.376, 5, 35.768, 49.5204, -14.6217, 97.5867, -56.0254, 41.3817
3.38, 5, 35.7673, 49.5251, -14.6232, 97.5865, -56.041, 41.3729
3.383, 5, 35.7667, 49.5298, -14.6247, 97.5863, -56.0567, 41.3641
3.388, 5, 35.7661, 49.5344, -14.6262, 97.5861, -56.0723, 41.3553
3.392, 5, 35.7654, 49.5391, -14.6277, 97.5859, -56.0879, 41.3465
3.396, 5, 35.7648, 49.5438, -14.6292, 97.5857, -56.1036, 41.3377
3.4, 5, 35.7641, 49.5484, -14.6306, 97.5855, -56.1192, 41.3289
3.403, 5, 35.7635, 49.5531, -14.6321, 97.5853, -56.1349, 41.3202
3.408, 5, 35.7628, 49.5578, -14.6336, 97.585, -56.1505, 41.3114
3.412, 5, 35.7622, 49.5624, -14.6351, 97.5848, -56.1661, 41.3026
3.416, 5, 35.7615, 49.5671, -14.6366, 97.5846, -56.1818, 41.2938
3.42, 5, 35.7609, 49.5717, -14.638, 97.5843, -56.1974, 41.2851
3.424, 5, 35.7602, 49.5764, -14.6395, 97.5841, -56.213, 41.2763
3.428, 5, 35.7596, 49.5811, -14.641, 97.5838, -56.2287, 41.2675
3.432, 5, 35.7589, 49.5857, -14.6424, 97.5836, -56.2443, 41.2588
3.436, 5, 35.7582, 49.5904, -14.6439, 97.5833, -56.2599, 41.25
3.439, 5, 35.7576, 49.595, -14.6454, 97.5831, -56.2756, 41.2413
3.444, 5, 35.7569, 49.5997, -14.6468, 97.5828, -56.2912, 41.2325
3.448, 5, 35.7563, 49.6043, -14.6483, 97.5825, -56.3068, 41.2238
3.452, 5, 35.7556, 49.609, -14.6497, 97.5823, -56.3225, 41.2151
3.456, 5, 35.755, 49.6136, -14.6512, 97.582, -56.3381, 41.2063
3.46, 5, 35.7543, 49.6182, -14.6526, 97.5817, -56.3537, 41.1976
3.464, 5, 35.7536, 49.6229, -14.6541, 97.5814, -56.3693, 41.1888
3.468, 5, 35.753, 49.6275, -14.6555, 97.5811, -56.385, 41.1801
3.472, 5, 35.7523, 49.6322, -14.6569, 97.5808, -56.4006, 41.1714
3.476, 5, 35.7516, 49.6368, -14.6584, 97.5805, -56.4162, 41.1627
3.48, 5, 35.751, 49.6414, -14.6598, 97.5802, -56.4318, 41.1539
3.484, 5, 35.7503, 49.6461, -14.6612, 97.5799, -56.4474, 41.1452
3.488, 5, 35.7496, 49.6507, -14.6627, 97.5796, -56.4631, 41.1365
3.492, 5, 35.749, 49.6553, -14.6641, 97.5793, -56.4787, 41.1278
3.495, 5, 35.7483, 49.66, -14.6655, 97.5789, -56.4943, 41.1191
3.5, 5, 35.7476, 49.6646, -14.6669, 97.5786, -56.5099, 41.1104
3.504, 5, 35.747, 49.6692, -14.6683, 97.5783, -56.5255, 41.1017
3.508, 5, 35.7463, 49.6738, -14.6697, 97.5779, -56.5412, 41.093
3.512, 5, 35.7456, 49.6785, -14.6711, 97.5776, -56.5568, 41.0843
3.516, 5, 35.7449, 49.6831, -14.6726, 97.5773, -56.5724, 41.0756
3.52, 5, 35.7443, 49.6877, -14.674, 97.5769, -56.588, 41.0669
3.524, 5, 35.7436, 49.6923, -14.6754, 97.5766, -56.6036, 41.0582
3.528, 5, 35.7429, 49.6969, -14.6768, 97.5762, -56.6192, 41.0495
3.531, 5, 35.7422, 49.7016, -14.6781, 97.5759, -56.6348, 41.0409
3.536, 5, 35.7416, 49.7062, -14.6795, 97.5755, -56.6504, 41.0322
3.54, 5, 35.7409, 49.7108, -14.6809, 97.5751, -56.666, 41.0235
3.544, 5, 35.7402, 49.7154, -14.6823, 97.5747, -56.6817, 41.0148
3.548, 5, 35.7395, 49.72, -14.6837, 97.5744, -56.6973, 41.0062
3.552, 5, 35.7389, 49.7246, -14.6851, 97.574, -56.7129, 40.9975
3.556, 5, 35.7382, 49.7292, -14.6865, 97.5736, -56.7285, 40.9888
3.56, 5, 35.7375, 49.7338, -14.6878, 97.5732, -56.7441, 40.9802
3.564, 5, 35.7368, 49.7384, -14.6892, 97.5728, -56.7597, 40.9715
3.568, 5, 35.7361, 49.743, -14.6906, 97.5724, -56.7753, 40.9629
3.572, 5, 35.7354, 49.7476, -14.6919, 97.572, -56.7909, 40.9542
3.576, 5, 35.7347, 49.7522, -14.6933, 97.5716, -56.8065, 40.9456
3.58, 5, 35.7341, 49.7568, -14.6947, 97.5712, -56.8221, 40.9369
3.584, 5, 35.7334, 49.7614, -14.696, 97.5708, -56.8377, 40.9283
3.587, 5, 35.7327, 49.766, -14.6974, 97.5704, -56.8533, 40.9196
3.592, 5, 35.732, 49.7706, -14.6987, 97.5699, -56.8689, 40.911
3.596, 5, 35.7313, 49.7752, -14.7001, 97.5695, -56.8845, 40.9024
3.6, 5, 35.7306, 49.7798, -14.7014, 97.5691, -56.9001, 40.8937
3.604, 5, 35.7299, 49.7844, -14.7028, 97.5686, -56.9157, 40.8851
3.608, 5, 35.7292, 49.789, -14.7041, 97.5682, -56.9313, 40.8765
3.612, 5, 35.7285, 49.7935, -14.7054, 97.5677, -56.9469, 40.8679
3.616, 5, 35.7278, 49.7981, -14.7068, 97.5673, -56.9625, 40.8592
3.62, 5, 35.7271, 49.8027, -14.7081, 97.5668, -56.9781, 40.8506
3.624, 5, 35.7264, 49.8073, -14.7094, 97.5664, -56.9936, 40.842
3.628, 5, 35.7257, 49.8119, -14.7107, 97.5659, -57.0092, 40.8334
3.632, 5, 35.7251, 49.8164, -14.7121, 97.5655, -57.0248, 40.8248
3.636, 5, 35.7244, 49.821, -14.7134, 97.565, -57.0404, 40.8162
3.64, 5, 35.7237, 49.8256, -14.7147, 97.5645, -57.056, 40.8076
3.644, 5, 35.723, 49.8302, -14.716, 97.564, -57.0716, 40.799
3.648, 5, 35.7223, 49.8347, -14.7173, 97.5635, -57.0872, 40.7904
3.652, 5, 35.7215, 49.8393, -14.7186, 97.5631, -57.1028, 40.7818
3.656, 5, 35.7208, 49.8439, -14.7199, 97.5626, -57.1183, 40.7732
3.66, 5, 35.7201, 49.8484, -14.7213, 97.5621, -57.1339, 40.7646
3.664, 5, 35.7194, 49.853, -14.7226, 97.5616, -57.1495, 40.7561
3.668, 5, 35.7187, 49.8576, -14.7238, 97.5611, -57.1651, 40.7475
3.672, 5, 35.718, 49.8621, -14.7251, 97.5605, -57.1807, 40.7389
3.676, 5, 35.7173, 49.8667, -14.7264, 97.56, -57.1962, 40.7303
3.679, 5, 35.7166, 49.8713, -14.7277, 97.5595, -57.2118, 40.7217
3.684, 5, 35.7159, 49.8758, -14.729, 97.559, -57.2274, 40.7132
3.688, 5, 35.7152, 49.8804, -14.7303, 97.5585, -57.243, 40.7046
3.692, 5, 35.7145, 49.8849, -14.7316, 97.5579, -57.2585, 40.696
3.696, 5, 35.7138, 49.8895, -14.7328, 97.5574, -57.2741, 40.6875
3.7, 5, 35.7131, 49.894, -14.7341, 97.5569, -57.2897, 40.6789
3.704, 5, 35.7123, 49.8986, -14.7354, 97.5563, -57.3053, 40.6704
3.708, 5, 35.7116, 49.9031, -14.7367, 97.5558, -57.3208, 40.6618
3.712, 5, 35.7109, 49.9077, -14.7379, 97.5552, -57.3364, 40.6533
3.716, 5, 35.7102, 49.9122, -14.7392, 97.5547, -57.352, 40.6447
3.72, 5, 35.7095, 49.9167, -14.7404, 97.5541, -57.3676, 40.6362
3.724, 5, 35.7088, 49.9213, -14.7417, 97.5536, -57.3831, 40.6276
3.728, 5, 35.708, 49.9258, -14.743, 97.553, -57.3987, 40.6191
3.732, 5, 35.7073, 49.9304, -14.7442, 97.5524, -57.4143, 40.6106
3.735, 5, 35.7066, 49.9349, -14.7455, 97.5518, -57.4298, 40.602
3.74, 5, 35.7059, 49.9394, -14.7467, 97.5513, -57.4454, 40.5935
3.744, 5, 35.7052, 49.944, -14.7479, 97.5507, -57.461, 40.585
3.748, 5, 35.7044, 49.9485, -14.7492, 97.5501, -57.4765, 40.5765
3.752, 5, 35.7037, 49.953, -14.7504, 97.5495, -57.4921, 40.5679
3.756, 5, 35.703, 49.9576, -14.7517, 97.5489, -57.5076, 40.5594
3.76, 5, 35.7023, 49.9621, -14.7529, 97.5483, -57.5232, 40.5509
3.764, 5, 35.7015, 49.9666, -14.7541, 97.5477, -57.5388, 40.5424
3.768, 5, 35.7008, 49.9711, -14.7553, 97.5471, -57.5543, 40.5339
3.772, 5, 35.7001, 49.9757, -14.7566, 97.5465, -57.5699, 40.5254
3.776, 5, 35.6993, 49.9802, -14.7578, 97.5459, -57.5854, 40.5169
3.78, 5, 35.6986, 49.9847, -14.759, 97.5452, -57.601, 40.5084
3.784, 5, 35.6979, 49.9892, -14.7602, 97.5446, -57.6166, 40.4999
3.788, 5, 35.6971, 49.9937, -14.7614, 97.544, -57.6321, 40.4914
3.792, 5, 35.6964, 49.9982, -14.7626, 97.5434, -57.6477, 40.4829
3.796, 5, 35.6957, 50.0028, -14.7638, 97.5427, -57.6632, 40.4744
3.8, 5, 35.6949, 50.0073, -14.765, 97.5421, -57.6788, 40.4659
3.804, 5, 35.6942, 50.0118, -14.7662, 97.5414, -57.6943, 40.4574
3.808, 5, 35.6935, 50.0163, -14.7674, 97.5408, -57.7099, 40.4489
3.812, 5, 35.6927, 50.0208, -14.7686, 97.5401, -57.7254, 40.4405
3.816, 5, 35.692, 50.0253, -14.7698, 97.5395, -57.741, 40.432
3.82, 5, 35.6913, 50.0298, -14.771, 97.5388, -57.7565, 40.4235
3.824, 5, 35.6905, 50.0343, -14.7722, 97.5381, -57.7721, 40.415
3.828, 5, 35.6898, 50.0388, -14.7734, 97.5375, -57.7876, 40.4066
3.832, 5, 35.689, 50.0433, -14.7746, 97.5368, -57.8032, 40.3981
3.836, 5, 35.6883, 50.0478, -14.7757, 97.5361, -57.8187, 40.3896
3.84, 5, 35.6875, 50.0523, -14.7769, 97.5354, -57.8342, 40.3812
3.844, 5, 35.6868, 50.0568, -14.7781, 97.5348, -57.8498, 40.3727
3.848, 5, 35.6861, 50.0613, -14.7792, 97.5341, -57.8653, 40.3643
3.852, 5, 35.6853, 50.0658, -14.7804, 97.5334, -57.8809, 40.3558
3.856, 5, 35.6846, 50.0703, -14.7816, 97.5327, -57.8964, 40.3474
3.86, 5, 35.6838, 50.0747, -14.7827, 97.532, -57.9119, 40.3389
3.864, 5, 35.6831, 50.0792, -14.7839, 97.5313, -57.9275, 40.3305
3.868, 5, 35.6823, 50.0837, -14.785, 97.5305, -57.943, 40.322
3.872, 5, 35.6816, 50.0882, -14.7862, 97.5298, -57.9586, 40.3136
3.876, 5, 35.6808, 50.0927, -14.7873, 97.5291, -57.9741, 40.3052
3.88, 5, 35.6801, 50.0971, -14.7885, 97.5284, -57.9896, 40.2967
3.884, 5, 35.6793, 50.1016, -14.7896, 97.5277, -58.0052, 40.2883
3.888, 5, 35.6786, 50.1061, -14.7908, 97.5269, -58.0207, 40.2799
3.892, 5, 35.6778, 50.1106, -14.7919, 97.5262, -58.0362, 40.2715
3.896, 5, 35.6771, 50.1151, -14.793, 97.5255, -58.0518, 40.263
3.9, 5, 35.6763, 50.1195, -14.7942, 97.5247, -58.0673, 40.2546
3.904, 5, 35.6755, 50.124, -14.7953, 97.524, -58.0828, 40.2462
3.908, 5, 35.6748, 50.1285, -14.7964, 97.5232, -58.0983, 40.2378
3.912, 5, 35.674, 50.1329, -14.7975, 97.5225, -58.1139, 40.2294
3.916, 5, 35.6733, 50.1374, -14.7987, 97.5217, -58.1294, 40.221
3.92, 5, 35.6725, 50.1419, -14.7998, 97.521, -58.1449, 40.2126
3.924, 5, 35.6717, 50.1463, -14.8009, 97.5202, -58.1604, 40.2042
3.928, 5, 35.671, 50.1508, -14.802, 97.5194, -58.176, 40.1958
3.932, 5, 35.6702, 50.1552, -14.8031, 97.5186, -58.1915, 40.1874
3.936, 5, 35.6695, 50.1597, -14.8042, 97.5179, -58.207, 40.179
3.94, 5, 35.6687, 50.1642, -14.8053, 97.5171, -58.2225, 40.1706
3.944, 5, 35.6679, 50.1686, -14.8064, 97.5163, -58.2381, 40.1622
3.948, 5, 35.6672, 50.1731, -14.8075, 97.5155, -58.2536, 40.1538
3.952, 5, 35.6664, 50.1775, -14.8086, 97.5147, -58.2691, 40.1454
3.956, 5, 35.6656, 50.182, -14.8097, 97.5139, -58.2846, 40.137
3.96, 5, 35.6649, 50.1864, -14.8108, 97.5131, -58.3001, 40.1287
3.964, 5, 35.6641, 50.1908, -14.8119, 97.5123, -58.3156, 40.1203
3.968, 5, 35.6633, 50.1953, -14.8129, 97.5115, -58.3312, 40.1119
3.972, 5, 35.6625, 50.1997, -14.814, 97.5107, -58.3467, 40.1035
3.976, 5, 35.6618, 50.2042, -14.8151, 97.5099, -58.3622, 40.0952
3.98, 5, 35.661, 50.2086, -14.8162, 97.509, -58.3777, 40.0868
3.984, 5, 35.6602, 50.2131, -14.8172, 97.5082, -58.3932, 40.0784
3.988, 5, 35.6595, 50.2175, -14.8183, 97.5074, -58.4087, 40.0701
3.992, 5, 35.6587, 50.2219, -14.8194, 97.5066, -58.4242, 40.0617
3.996, 5, 35.6579, 50.2264, -14.8204, 97.5057, -58.4397, 40.0534
3.999, 5, 35.6571, 50.2308, -14.8215, 97.5049, -58.4552, 40.045
4.004, 5, 35.6563, 50.2352, -14.8225, 97.504, -58.4708, 40.0367
4.008, 5, 35.6556, 50.2396, -14.8236, 97.5032, -58.4863, 40.0283
4.012, 5, 35.6548, 50.2441, -14.8246, 97.5023, -58.5018, 40.02
4.016, 5, 35.654, 50.2485, -14.8257, 97.5015, -58.5173, 40.0116
4.02, 5, 35.6532, 50.2529, -14.8267, 97.5006, -58.5328, 40.0033
4.024, 5, 35.6524, 50.2573, -14.8278, 97.4997, -58.5483, 39.995
4.028, 5, 35.6517, 50.2618, -14.8288, 97.4989, -58.5638, 39.9866
4.032, 5, 35.6509, 50.2662, -14.8298, 97.498, -58.5793, 39.9783
4.036, 5, 35.6501, 50.2706, -14.8309, 97.4971, -58.5948, 39.97
4.04, 5, 35.6493, 50.275, -14.8319, 97.4963, -58.6103, 39.9616
4.044, 5, 35.6485, 50.2794, -14.8329, 97.4954, -58.6258, 39.9533
4.048, 5, 35.6477, 50.2838, -14.834, 97.4945, -58.6413, 39.945
4.052, 5, 35.6469, 50.2882, -14.835, 97.4936, -58.6568, 39.9367
4.056, 5, 35.6462, 50.2926, -14.836, 97.4927, -58.6723, 39.9284
4.06, 5, 35.6454, 50.2971, -14.837, 97.4918, -58.6878, 39.92
4.064, 5, 35.6446, 50.3015, -14.838, 97.4909, -58.7033, 39.9117
4.068, 5, 35.6438, 50.3059, -14.839, 97.49, -58.7188, 39.9034
4.072, 5, 35.643, 50.3103, -14.84, 97.4891, -58.7342, 39.8951
4.076, 5, 35.6422, 50.3147, -14.841, 97.4882, -58.7497, 39.8868
4.08, 5, 35.6414, 50.3191, -14.842, 97.4872, -58.7652, 39.8785
4.084, 5, 35.6406, 50.3235, -14.843, 97.4863, -58.7807, 39.8702
4.088, 5, 35.6398, 50.3279, -14.844, 97.4854, -58.7962, 39.8619
4.092, 5, 35.639, 50.3323, -14.845, 97.4845, -58.8117, 39.8536
4.096, 5, 35.6382, 50.3366, -14.846, 97.4835, -58.8272, 39.8453
4.1, 5, 35.6374, 50.341, -14.847, 97.4826, -58.8427, 39.8371
4.104, 5, 35.6366, 50.3454, -14.848, 97.4816, -58.8581, 39.8288
4.108, 5, 35.6358, 50.3498, -14.8489, 97.4807, -58.8736, 39.8205
4.112, 5, 35.635, 50.3542, -14.8499, 97.4797, -58.8891, 39.8122
4.116, 5, 35.6342, 50.3586, -14.8509, 97.4788, -58.9046, 39.8039
4.12, 5, 35.6334, 50.363, -14.8519, 97.4778, -58.9201, 39.7957
4.124, 5, 35.6326, 50.3673, -14.8528, 97.4769, -58.9356, 39.7874
4.128, 5, 35.6318, 50.3717, -14.8538, 97.4759, -58.951, 39.7791
4.132, 5, 35.631, 50.3761, -14.8548, 97.4749, -58.9665, 39.7709
4.136, 5, 35.6302, 50.3805, -14.8557, 97.474, -58.982, 39.7626
4.14, 5, 35.6294, 50.3848, -14.8567, 97.473, -58.9975, 39.7543
4.144, 5, 35.6286, 50.3892, -14.8576, 97.472, -59.0129, 39.7461
4.148, 5, 35.6278, 50.3936, -14.8586, 97.471, -59.0284, 39.7378
4.152, 5, 35.627, 50.398, -14.8595, 97.47, -59.0439, 39.7296
4.156, 5, 35.6261, 50.4023, -14.8605, 97.469, -59.0594, 39.7213
4.16, 5, 35.6253, 50.4067, -14.8614, 97.468, -59.0748, 39.7131
4.164, 5, 35.6245, 50.4111, -14.8624, 97.467, -59.0903, 39.7048
4.168, 5, 35.6237, 50.4154, -14.8633, 97.466, -59.1058, 39.6966
4.172, 5, 35.6229, 50.4198, -14.8642, 97.465, -59.1212, 39.6883
4.176, 5, 35.6221, 50.4241, -14.8652, 97.464, -59.1367, 39.6801
4.18, 5, 35.6213, 50.4285, -14.8661, 97.463, -59.1522, 39.6719
4.184, 5, 35.6204, 50.4329, -14.867, 97.462, -59.1676, 39.6636
4.188, 5, 35.6196, 50.4372, -14.8679, 97.4609, -59.1831, 39.6554
4.192, 5, 35.6188, 50.4416, -14.8688, 97.4599, -59.1986, 39.6472
4.196, 5, 35.618, 50.4459, -14.8698, 97.4589, -59.214, 39.6389
4.2, 5, 35.6172, 50.4503, -14.8707, 97.4579, -59.2295, 39.6307
4.204, 5, 35.6164, 50.4546, -14.8716, 97.4568, -59.245, 39.6225
4.208, 5, 35.6155, 50.459, -14.8725, 97.4558, -59.2604, 39.6143
4.212, 5, 35.6147, 50.4633, -14.8734, 97.4547, -59.2759, 39.6061
4.216, 5, 35.6139, 50.4676, -14.8743, 97.4537, -59.2913, 39.5978
4.22, 5, 35.6131, 50.472, -14.8752, 97.4526, -59.3068, 39.5896
4.224, 5, 35.6122, 50.4763, -14.8761, 97.4516, -59.3223, 39.5814
4.228, 5, 35.6114, 50.4807, -14.877, 97.4505, -59.3377, 39.5732
4.232, 5, 35.6106, 50.485, -14.8779, 97.4494, -59.3532, 39.565
4.236, 5, 35.6098, 50.4893, -14.8787, 97.4484, -59.3686, 39.5568
4.24, 5, 35.6089, 50.4937, -14.8796, 97.4473, -59.3841, 39.5486
4.244, 5, 35.6081, 50.498, -14.8805, 97.4462, -59.3995, 39.5404
4.248, 5, 35.6073, 50.5023, -14.8814, 97.4451, -59.415, 39.5322
4.252, 5, 35.6064, 50.5067, -14.8823, 97.4441, -59.4304, 39.524
4.256, 5, 35.6056, 50.511, -14.8831, 97.443, -59.4459, 39.5158
4.26, 5, 35.6048, 50.5153, -14.884, 97.4419, -59.4613, 39.5077
4.264, 5, 35.604, 50.5196, -14.8849, 97.4408, -59.4768, 39.4995
4.268, 5, 35.6031, 50.5239, -14.8857, 97.4397, -59.4922, 39.4913
4.272, 5, 35.6023, 50.5283, -14.8866, 97.4386, -59.5077, 39.4831
4.276, 5, 35.6014, 50.5326, -14.8874, 97.4375, -59.5231, 39.4749
4.28, 5, 35.6006, 50.5369, -14.8883, 97.4364, -59.5386, 39.4668
4.284, 5, 35.5998, 50.5412, -14.8891, 97.4352, -59.554, 39.4586
4.288, 5, 35.5989, 50.5455, -14.89, 97.4341, -59.5695, 39.4504
4.292, 5, 35.5981, 50.5498, -14.8908, 97.433, -59.5849, 39.4423
4.296, 5, 35.5973, 50.5541, -14.8917, 97.4319, -59.6003, 39.4341
4.3, 5, 35.5964, 50.5585, -14.8925, 97.4308, -59.6158, 39.4259
4.304, 5, 35.5956, 50.5628, -14.8934, 97.4296, -59.6312, 39.4178
4.308, 5, 35.5947, 50.5671, -14.8942, 97.4285, -59.6467, 39.4096
4.312, 5, 35.5939, 50.5714, -14.895, 97.4273, -59.6621, 39.4015
4.316, 5, 35.593, 50.5757, -14.8958, 97.4262, -59.6775, 39.3933
4.32, 5, 35.5922, 50.58, -14.8967, 97.4251, -59.693, 39.3852
4.324, 5, 35.5913, 50.5843, -14.8975, 97.4239, -59.7084, 39.377
4.328, 5, 35.5905, 50.5886, -14.8983, 97.4228, -59.7238, 39.3689
4.332, 5, 35.5897, 50.5929, -14.8991, 97.4216, -59.7393, 39.3607
4.336, 5, 35.5888, 50.5972, -14.8999, 97.4204, -59.7547, 39.3526
4.34, 5, 35.588, 50.6014, -14.9008, 97.4193, -59.7701, 39.3444
4.344, 5, 35.5871, 50.6057, -14.9016, 97.4181, -59.7856, 39.3363
4.348, 5, 35.5863, 50.61, -14.9024, 97.4169, -59.801, 39.3282
4.352, 5, 35.5854, 50.6143, -14.9032, 97.4157, -59.8164, 39.32
4.356, 5, 35.5845, 50.6186, -14.904, 97.4146, -59.8318, 39.3119
4.36, 5, 35.5837, 50.6229, -14.9048, 97.4134, -59.8473, 39.3038
4.364, 5, 35.5828, 50.6272, -14.9055, 97.4122, -59.8627, 39.2957
4.368, 5, 35.582, 50.6314, -14.9063, 97.411, -59.8781, 39.2875
4.372, 5, 35.5811, 50.6357, -14.9071, 97.4098, -59.8935, 39.2794
4.376, 5, 35.5803, 50.64, -14.9079, 97.4086, -59.909, 39.2713
4.38, 5, 35.5794, 50.6443, -14.9087, 97.4074, -59.9244, 39.2632
4.384, 5, 35.5786, 50.6485, -14.9095, 97.4062, -59.9398, 39.2551
4.388, 5, 35.5777, 50.6528, -14.9102, 97.405, -59.9552, 39.247
4.392, 5, 35.5768, 50.6571, -14.911, 97.4038, -59.9707, 39.2389
4.396, 5, 35.576, 50.6614, -14.9118, 97.4025, -59.9861, 39.2308
4.4, 5, 35.5751, 50.6656, -14.9125, 97.4013, -60.0015, 39.2227
4.404, 5, 35.5743, 50.6699, -14.9133, 97.4001, -60.0169, 39.2146
4.408, 5, 35.5734, 50.6741, -14.9141, 97.3989, -60.0323, 39.2065
4.412, 5, 35.5725, 50.6784, -14.9148, 97.3976, -60.0477, 39.1984
4.416, 5, 35.5717, 50.6827, -14.9156, 97.3964, -60.0632, 39.1903
4.42, 5, 35.5708, 50.6869, -14.9163, 97.3952, -60.0786, 39.1822
4.424, 5, 35.5699, 50.6912, -14.9171, 97.3939, -60.094, 39.1741
4.428, 5, 35.5691, 50.6954, -14.9178, 97.3927, -60.1094, 39.166
4.432, 5, 35.5682, 50.6997, -14.9186, 97.3914, -60.1248, 39.1579
4.436, 5, 35.5673, 50.7039, -14.9193, 97.3902, -60.1402, 39.1499
4.44, 5, 35.5665, 50.7082, -14.92, 97.3889, -60.1556, 39.1418
4.444, 5, 35.5656, 50.7124, -14.9208, 97.3876, -60.171, 39.1337
4.448, 5, 35.5647, 50.7167, -14.9215, 97.3864, -60.1864, 39.1256
4.452, 5, 35.5638, 50.7209, -14.9222, 97.3851, -60.2018, 39.1176
4.456, 5, 35.563, 50.7252, -14.9229, 97.3838, -60.2172, 39.1095
4.46, 5, 35.5621, 50.7294, -14.9237, 97.3826, -60.2326, 39.1014
4.464, 5, 35.5612, 50.7336, -14.9244, 97.3813, -60.248, 39.0934
4.468, 5, 35.5603, 50.7379, -14.9251, 97.38, -60.2635, 39.0853
4.472, 5, 35.5595, 50.7421, -14.9258, 97.3787, -60.2789, 39.0772
4.476, 5, 35.5586, 50.7464, -14.9265, 97.3774, -60.2943, 39.0692
4.48, 5, 35.5577, 50.7506, -14.9272, 97.3761, -60.3097, 39.0611
4.484, 5, 35.5568, 50.7548, -14.9279, 97.3748, -60.3251, 39.0531
4.488, 5, 35.5559, 50.759, -14.9286, 97.3735, -60.3404, 39.045
4.492, 5, 35.5551, 50.7633, -14.9293, 97.3722, -60.3558, 39.037
4.496, 5, 35.5542, 50.7675, -14.93, 97.3709, -60.3712, 39.0289
4.5, 5, 35.5533, 50.7717, -14.9307, 97.3696, -60.3866, 39.0209
4.504, 5, 35.5524, 50.7759, -14.9314, 97.3683, -60.402, 39.0128
4.508, 5, 35.5515, 50.7802, -14.9321, 97.367, -60.4174, 39.0048
4.512, 5, 35.5506, 50.7844, -14.9328, 97.3656, -60.4328, 38.9968
4.516, 5, 35.5498, 50.7886, -14.9334, 97.3643, -60.4482, 38.9887
4.52, 5, 35.5489, 50.7928, -14.9341, 97.363, -60.4636, 38.9807
4.524, 5, 35.548, 50.797, -14.9348, 97.3616, -60.479, 38.9727
4.528, 5, 35.5471, 50.8012, -14.9355, 97.3603, -60.4944, 38.9646
4.532, 5, 35.5462, 50.8054, -14.9361, 97.359, -60.5098, 38.9566
4.536, 5, 35.5453, 50.8097, -14.9368, 97.3576, -60.5251, 38.9486
4.54, 5, 35.5444, 50.8139, -14.9375, 97.3563, -60.5405, 38.9406
4.544, 5, 35.5435, 50.8181, -14.9381, 97.3549, -60.5559, 38.9325
4.548, 5, 35.5426, 50.8223, -14.9388, 97.3536, -60.5713, 38.9245
4.552, 5, 35.5418, 50.8265, -14.9394, 97.3522, -60.5867, 38.9165
4.556, 5, 35.5409, 50.8307, -14.9401, 97.3508, -60.6021, 38.9085
4.56, 5, 35.54, 50.8349, -14.9407, 97.3495, -60.6174, 38.9005
4.564, 5, 35.5391, 50.8391, -14.9414, 97.3481, -60.6328, 38.8925
4.568, 5, 35.5382, 50.8433, -14.942, 97.3467, -60.6482, 38.8845
4.572, 5, 35.5373, 50.8475, -14.9426, 97.3454, -60.6636, 38.8765
4.576, 5, 35.5364, 50.8517, -14.9433, 97.344, -60.679, 38.8685
4.58, 5, 35.5355, 50.8558, -14.9439, 97.3426, -60.6943, 38.8605
4.584, 5, 35.5346, 50.86, -14.9445, 97.3412, -60.7097, 38.8525
4.588, 5, 35.5337, 50.8642, -14.9452, 97.3398, -60.7251, 38.8445
4.592, 5, 35.5328, 50.8684, -14.9458, 97.3384, -60.7405, 38.8365
4.596, 5, 35.5319, 50.8726, -14.9464, 97.337, -60.7558, 38.8285
4.6, 5, 35.531, 50.8768, -14.947, 97.3356, -60.7712, 38.8205
4.604, 5, 35.5301, 50.8809, -14.9476, 97.3342, -60.7866, 38.8125
4.608, 5, 35.5292, 50.8851, -14.9482, 97.3328, -60.8019, 38.8046
4.612, 5, 35.5282, 50.8893, -14.9489, 97.3314, -60.8173, 38.7966
4.616, 5, 35.5273, 50.8935, -14.9495, 97.33, -60.8327, 38.7886
4.62, 5, 35.5264, 50.8976, -14.9501, 97.3285, -60.848, 38.7806
4.624, 5, 35.5255, 50.9018, -14.9507, 97.3271, -60.8634, 38.7727
4.628, 5, 35.5246, 50.906, -14.9513, 97.3257, -60.8788, 38.7647
4.632, 5, 35.5237, 50.9102, -14.9518, 97.3243, -60.8941, 38.7567
4.636, 5, 35.5228, 50.9143, -14.9524, 97.3228, -60.9095, 38.7487
4.64, 5, 35.5219, 50.9185, -14.953, 97.3214, -60.9249, 38.7408
4.644, 5, 35.521, 50.9226, -14.9536, 97.3199, -60.9402, 38.7328
4.648, 5, 35.5201, 50.9268, -14.9542, 97.3185, -60.9556, 38.7249
4.652, 5, 35.5191, 50.931, -14.9548, 97.3171, -60.9709, 38.7169
4.656, 5, 35.5182, 50.9351, -14.9553, 97.3156, -60.9863, 38.7089
4.66, 5, 35.5173, 50.9393, -14.9559, 97.3142, -61.0017, 38.701
4.664, 5, 35.5164, 50.9434, -14.9565, 97.3127, -61.017, 38.693
4.668, 5, 35.5155, 50.9476, -14.957, 97.3112, -61.0324, 38.6851
4.672, 5, 35.5146, 50.9517, -14.9576, 97.3098, -61.0477, 38.6771
4.676, 5, 35.5136, 50.9559, -14.9582, 97.3083, -61.0631, 38.6692
4.68, 5, 35.5127, 50.96, -14.9587, 97.3068, -61.0784, 38.6613
4.684, 5, 35.5118, 50.9642, -14.9593, 97.3054, -61.0938, 38.6533
4.688, 5, 35.5109, 50.9683, -14.9598, 97.3039, -61.1091, 38.6454
4.692, 5, 35.5099, 50.9725, -14.9604, 97.3024, -61.1245, 38.6374
4.696, 5, 35.509, 50.9766, -14.9609, 97.3009, -61.1398, 38.6295
4.7, 5, 35.5081, 50.9807, -14.9615, 97.2994, -61.1552, 38.6216
4.704, 5, 35.5072, 50.9849, -14.962, 97.2979, -61.1705, 38.6136
4.708, 5, 35.5062, 50.989, -14.9625, 97.2964, -61.1859, 38.6057
4.712, 5, 35.5053, 50.9931, -14.9631, 97.2949, -61.2012, 38.5978
4.716, 5, 35.5044, 50.9973, -14.9636, 97.2934, -61.2166, 38.5899
4.72, 5, 35.5035, 51.0014, -14.9641, 97.2919, -61.2319, 38.582
4.724, 5, 35.5025, 51.0055, -14.9647, 97.2904, -61.2473, 38.574
4.728, 5, 35.5016, 51.0097, -14.9652, 97.2889, -61.2626, 38.5661
4.732, 5, 35.5007, 51.0138, -14.9657, 97.2874, -61.2779, 38.5582
4.736, 5, 35.4997, 51.0179, -14.9662, 97.2858, -61.2933, 38.5503
4.74, 5, 35.4988, 51.022, -14.9667, 97.2843, -61.3086, 38.5424
4.744, 5, 35.4979, 51.0261, -14.9672, 97.2828, -61.3239, 38.5345
4.748, 5, 35.4969, 51.0303, -14.9677, 97.2812, -61.3393, 38.5266
4.752, 5, 35.496, 51.0344, -14.9682, 97.2797, -61.3546, 38.5187
4.756, 5, 35.4951, 51.0385, -14.9687, 97.2782, -61.37, 38.5108
4.76, 5, 35.4941, 51.0426, -14.9692, 97.2766, -61.3853, 38.5029
4.764, 5, 35.4932, 51.0467, -14.9697, 97.2751, -61.4006, 38.495
4.768, 5, 35.4923, 51.0508, -14.9702, 97.2735, -61.416, 38.4871
4.772, 5, 35.4913, 51.0549, -14.9707, 97.272, -61.4313, 38.4792
4.776, 5, 35.4904, 51.059, -14.9712, 97.2704, -61.4466, 38.4713
4.78, 5, 35.4894, 51.0631, -14.9717, 97.2689, -61.4619, 38.4634
4.784, 5, 35.4885, 51.0672, -14.9722, 97.2673, -61.4773, 38.4555
4.788, 5, 35.4876, 51.0713, -14.9726, 97.2657, -61.4926, 38.4476
4.792, 5, 35.4866, 51.0754, -14.9731, 97.2642, -61.5079, 38.4397
4.796, 5, 35.4857, 51.0795, -14.9736, 97.2626, -61.5233, 38.4319
4.8, 5, 35.4847, 51.0836, -14.974, 97.261, -61.5386, 38.424
4.804, 5, 35.4838, 51.0877, -14.9745, 97.2594, -61.5539, 38.4161
4.808, 5, 35.4828, 51.0918, -14.975, 97.2579, -61.5692, 38.4082
4.812, 5, 35.4819, 51.0959, -14.9754, 97.2563, -61.5846, 38.4004
4.816, 5, 35.4809, 51.1, -14.9759, 97.2547, -61.5999, 38.3925
4.82, 5, 35.48, 51.1041, -14.9763, 97.2531, -61.6152, 38.3846
4.824, 5, 35.479, 51.1082, -14.9768, 97.2515, -61.6305, 38.3768
4.828, 5, 35.4781, 51.1122, -14.9772, 97.2499, -61.6458, 38.3689
4.832, 5, 35.4771, 51.1163, -14.9777, 97.2483, -61.6611, 38.361
4.836, 5, 35.4762, 51.1204, -14.9781, 97.2467, -61.6765, 38.3532
4.84, 5, 35.4752, 51.1245, -14.9785, 97.2451, -61.6918, 38.3453
4.844, 5, 35.4743, 51.1286, -14.979, 97.2434, -61.7071, 38.3375
4.848, 5, 35.4733, 51.1326, -14.9794, 97.2418, -61.7224, 38.3296
4.852, 5, 35.4724, 51.1367, -14.9798, 97.2402, -61.7377, 38.3218
4.856, 5, 35.4714, 51.1408, -14.9803, 97.2386, -61.753, 38.3139
4.86, 5, 35.4704, 51.1448, -14.9807, 97.237, -61.7683, 38.3061
4.864, 5, 35.4695, 51.1489, -14.9811, 97.2353, -61.7837, 38.2982
4.868, 5, 35.4685, 51.153, -14.9815, 97.2337, -61.799, 38.2904
4.872, 5, 35.4676, 51.157, -14.9819, 97.232, -61.8143, 38.2825
4.876, 5, 35.4666, 51.1611, -14.9823, 97.2304, -61.8296, 38.2747
4.88, 5, 35.4656, 51.1652, -14.9827, 97.2288, -61.8449, 38.2669
4.884, 5, 35.4647, 51.1692, -14.9831, 97.2271, -61.8602, 38.259
4.888, 5, 35.4637, 51.1733, -14.9835, 97.2255, -61.8755, 38.2512
4.892, 5, 35.4628, 51.1773, -14.9839, 97.2238, -61.8908, 38.2434
4.896, 5, 35.4618, 51.1814, -14.9843, 97.2221, -61.9061, 38.2355
4.9, 5, 35.4608, 51.1854, -14.9847, 97.2205, -61.9214, 38.2277
4.904, 5, 35.4599, 51.1895, -14.9851, 97.2188, -61.9367, 38.2199
4.908, 5, 35.4589, 51.1935, -14.9855, 97.2171, -61.952, 38.2121
4.912, 5, 35.4579, 51.1976, -14.9859, 97.2155, -61.9673, 38.2043
4.916, 5, 35.457, 51.2016, -14.9863, 97.2138, -61.9826, 38.1964
4.92, 5, 35.456, 51.2057, -14.9866, 97.2121, -61.9979, 38.1886
4.924, 5, 35.455, 51.2097, -14.987, 97.2104, -62.0132, 38.1808
4.928, 5, 35.454, 51.2137, -14.9874, 97.2087, -62.0285, 38.173
4.932, 5, 35.4531, 51.2178, -14.9878, 97.2071, -62.0438, 38.1652
4.936, 5, 35.4521, 51.2218, -14.9881, 97.2054, -62.0591, 38.1574
4.94, 5, 35.4511, 51.2258, -14.9885, 97.2037, -62.0744, 38.1496
4.944, 5, 35.4501, 51.2299, -14.9888, 97.202, -62.0896, 38.1418
4.948, 5, 35.4492, 51.2339, -14.9892, 97.2003, -62.1049, 38.134
4.952, 5, 35.4482, 51.2379, -14.9895, 97.1986, -62.1202, 38.1262
4.956, 5, 35.4472, 51.242, -14.9899, 97.1969, -62.1355, 38.1184
4.96, 5, 35.4462, 51.246, -14.9902, 97.1951, -62.1508, 38.1106
4.964, 5, 35.4453, 51.25, -14.9906, 97.1934, -62.1661, 38.1028
4.968, 5, 35.4443, 51.254, -14.9909, 97.1917, -62.1814, 38.095
4.972, 5, 35.4433, 51.258, -14.9913, 97.19, -62.1967, 38.0872
4.976, 5, 35.4423, 51.2621, -14.9916, 97.1883, -62.2119, 38.0794
4.98, 5, 35.4413, 51.2661, -14.9919, 97.1865, -62.2272, 38.0716
4.984, 5, 35.4403, 51.2701, -14.9923, 97.1848, -62.2425, 38.0639
4.988, 5, 35.4394, 51.2741, -14.9926, 97.1831, -62.2578, 38.0561
4.992, 5, 35.4384, 51.2781, -14.9929, 97.1813, -62.2731, 38.0483
4.996, 5, 35.4374, 51.2821, -14.9932, 97.1796, -62.2883, 38.0405
5, 5, 35.4364, 51.2861, -14.9935, 97.1778, -62.3036, 38.0327
5.004, 5, 35.4354, 51.2901, -14.9938, 97.1761, -62.3189, 38.025
5.008, 5, 35.4344, 51.2941, -14.9942, 97.1743, -62.3342, 38.0172
5.012, 5, 35.4334, 51.2981, -14.9945, 97.1726, -62.3495, 38.0094
5.016, 5, 35.4324, 51.3021, -14.9948, 97.1708, -62.3647, 38.0017
5.02, 5, 35.4315, 51.3061, -14.9951, 97.1691, -62.38, 37.9939
5.024, 5, 35.4305, 51.3101, -14.9954, 97.1673, -62.3953, 37.9861
5.028, 5, 35.4295, 51.3141, -14.9957, 97.1655, -62.4105, 37.9784
5.032, 5, 35.4285, 51.3181, -14.9959, 97.1637, -62.4258, 37.9706
5.036, 5, 35.4275, 51.3221, -14.9962, 97.162, -62.4411, 37.9629
5.04, 5, 35.4265, 51.3261, -14.9965, 97.1602, -62.4563, 37.9551
5.044, 5, 35.4255, 51.3301, -14.9968, 97.1584, -62.4716, 37.9474
5.048, 5, 35.4245, 51.3341, -14.9971, 97.1566, -62.4869, 37.9396
5.052, 5, 35.4235, 51.338, -14.9974, 97.1548, -62.5021, 37.9319
5.056, 5, 35.4225, 51.342, -14.9976, 97.153, -62.5174, 37.9241
5.06, 5, 35.4215, 51.346, -14.9979, 97.1512, -62.5327, 37.9164
5.064, 5, 35.4205, 51.35, -14.9982, 97.1494, -62.5479, 37.9086
5.068, 5, 35.4195, 51.354, -14.9984, 97.1476, -62.5632, 37.9009
5.072, 5, 35.4185, 51.3579, -14.9987, 97.1458, -62.5785, 37.8931
5.076, 5, 35.4175, 51.3619, -14.9989, 97.144, -62.5937, 37.8854
5.08, 5, 35.4165, 51.3659, -14.9992, 97.1422, -62.609, 37.8777
5.084, 5, 35.4155, 51.3698, -14.9995, 97.1404, -62.6242, 37.8699
5.088, 5, 35.4145, 51.3738, -14.9997, 97.1386, -62.6395, 37.8622
5.092, 5, 35.4135, 51.3778, -14.9999, 97.1368, -62.6547, 37.8545
5.096, 5, 35.4125, 51.3817, -15.0002, 97.1349, -62.67, 37.8467
5.1, 5, 35.4115, 51.3857, -15.0004, 97.1331, -62.6853, 37.839
5.104, 5, 35.4105, 51.3897, -15.0007, 97.1313, -62.7005, 37.8313
5.108, 5, 35.4095, 51.3936, -15.0009, 97.1294, -62.7158, 37.8236
5.112, 5, 35.4084, 51.3976, -15.0011, 97.1276, -62.731, 37.8159
5.116, 5, 35.4074, 51.4015, -15.0014, 97.1258, -62.7463, 37.8081
5.12, 5, 35.4064, 51.4055, -15.0016, 97.1239, -62.7615, 37.8004
5.124, 5, 35.4054, 51.4094, -15.0018, 97.1221, -62.7768, 37.7927
5.128, 5, 35.4044, 51.4134, -15.002, 97.1202, -62.792, 37.785
5.132, 5, 35.4034, 51.4173, -15.0022, 97.1184, -62.8073, 37.7773
5.136, 5, 35.4024, 51.4213, -15.0024, 97.1165, -62.8225, 37.7696
5.14, 5, 35.4014, 51.4252, -15.0027, 97.1146, -62.8377, 37.7619
5.144, 5, 35.4003, 51.4292, -15.0029, 97.1128, -62.853, 37.7542
5.148, 5, 35.3993, 51.4331, -15.0031, 97.1109, -62.8682, 37.7465
5.152, 5, 35.3983, 51.437, -15.0033, 97.109, -62.8835, 37.7388
5.156, 5, 35.3973, 51.441, -15.0035, 97.1072, -62.8987, 37.7311
5.16, 5, 35.3963, 51.4449, -15.0036, 97.1053, -62.9139, 37.7234
5.164, 5, 35.3952, 51.4488, -15.0038, 97.1034, -62.9292, 37.7157
5.168, 5, 35.3942, 51.4528, -15.004, 97.1015, -62.9444, 37.708
5.172, 5, 35.3932, 51.4567, -15.0042, 97.0996, -62.9597, 37.7003
5.176, 5, 35.3922, 51.4606, -15.0044, 97.0977, -62.9749, 37.6926
5.18, 5, 35.3912, 51.4646, -15.0046, 97.0958, -62.9901, 37.6849
5.184, 5, 35.3901, 51.4685, -15.0047, 97.0939, -63.0054, 37.6772
5.188, 5, 35.3891, 51.4724, -15.0049, 97.092, -63.0206, 37.6695
5.192, 5, 35.3881, 51.4763, -15.0051, 97.0901, -63.0358, 37.6619
5.196, 5, 35.3871, 51.4802, -15.0052, 97.0882, -63.0511, 37.6542
5.2, 5, 35.386, 51.4842, -15.0054, 97.0863, -63.0663, 37.6465
5.204, 5, 35.385, 51.4881, -15.0056, 97.0844, -63.0815, 37.6388
5.208, 5, 35.384, 51.492, -15.0057, 97.0825, -63.0967, 37.6312
5.212, 5, 35.3829, 51.4959, -15.0059, 97.0806, -63.112, 37.6235
5.216, 5, 35.3819, 51.4998, -15.006, 97.0787, -63.1272, 37.6158
5.22, 5, 35.3809, 51.5037, -15.0062, 97.0767, -63.1424, 37.6082
5.224, 5, 35.3798, 51.5076, -15.0063, 97.0748, -63.1576, 37.6005
5.228, 5, 35.3788, 51.5115, -15.0065, 97.0729, -63.1729, 37.5928
5.232, 5, 35.3778, 51.5154, -15.0066, 97.0709, -63.1881, 37.5852
5.236, 5, 35.3767, 51.5193, -15.0067, 97.069, -63.2033, 37.5775
5.24, 5, 35.3757, 51.5232, -15.0069, 97.067, -63.2185, 37.5698
5.244, 5, 35.3747, 51.5271, -15.007, 97.0651, -63.2337, 37.5622
5.248, 5, 35.3736, 51.531, -15.0071, 97.0631, -63.249, 37.5545
5.252, 5, 35.3726, 51.5349, -15.0072, 97.0612, -63.2642, 37.5469
5.256, 5, 35.3716, 51.5388, -15.0074, 97.0592, -63.2794, 37.5392
5.26, 5, 35.3705, 51.5427, -15.0075, 97.0573, -63.2946, 37.5316
5.264, 5, 35.3695, 51.5466, -15.0076, 97.0553, -63.3098, 37.5239
5.268, 5, 35.3684, 51.5505, -15.0077, 97.0534, -63.325, 37.5163
5.272, 5, 35.3674, 51.5544, -15.0078, 97.0514, -63.3403, 37.5086
5.276, 5, 35.3663, 51.5582, -15.0079, 97.0494, -63.3555, 37.501
5.28, 5, 35.3653, 51.5621, -15.008, 97.0474, -63.3707, 37.4934
5.284, 5, 35.3643, 51.566, -15.0081, 97.0455, -63.3859, 37.4857
5.288, 5, 35.3632, 51.5699, -15.0082, 97.0435, -63.4011, 37.4781
5.292, 5, 35.3622, 51.5737, -15.0083, 97.0415, -63.4163, 37.4704
5.296, 5, 35.3611, 51.5776, -15.0084, 97.0395, -63.4315, 37.4628
5.3, 5, 35.3601, 51.5815, -15.0085, 97.0375, -63.4467, 37.4552
5.304, 5, 35.359, 51.5854, -15.0086, 97.0355, -63.4619, 37.4476
5.308, 5, 35.358, 51.5892, -15.0086, 97.0335, -63.4771, 37.4399
5.312, 5, 35.3569, 51.5931, -15.0087, 97.0315, -63.4923, 37.4323
5.316, 5, 35.3559, 51.597, -15.0088, 97.0295, -63.5075, 37.4247
5.32, 5, 35.3548, 51.6008, -15.0089, 97.0275, -63.5227, 37.4171
5.324, 5, 35.3538, 51.6047, -15.0089, 97.0255, -63.5379, 37.4094
5.328, 5, 35.3527, 51.6085, -15.009, 97.0235, -63.5531, 37.4018
5.332, 5, 35.3517, 51.6124, -15.009, 97.0215, -63.5683, 37.3942
5.336, 5, 35.3506, 51.6162, -15.0091, 97.0195, -63.5835, 37.3866
5.34, 5, 35.3495, 51.6201, -15.0092, 97.0174, -63.5987, 37.379
5.344, 5, 35.3485, 51.624, -15.0092, 97.0154, -63.6139, 37.3714
5.348, 5, 35.3474, 51.6278, -15.0093, 97.0134, -63.6291, 37.3638
5.352, 5, 35.3464, 51.6316, -15.0093, 97.0114, -63.6443, 37.3562
5.356, 5, 35.3453, 51.6355, -15.0093, 97.0093, -63.6595, 37.3485
5.36, 5, 35.3442, 51.6393, -15.0094, 97.0073, -63.6747, 37.3409
5.364, 5, 35.3432, 51.6432, -15.0094, 97.0052, -63.6899, 37.3333
5.368, 5, 35.3421, 51.647, -15.0095, 97.0032, -63.7051, 37.3257
5.372, 5, 35.3411, 51.6509, -15.0095, 97.0012, -63.7203, 37.3181
5.376, 5, 35.34, 51.6547, -15.0095, 96.9991, -63.7354, 37.3106
5.38, 5, 35.3389, 51.6585, -15.0095, 96.9971, -63.7506, 37.303
5.384, 5, 35.3379, 51.6624, -15.0096, 96.995, -63.7658, 37.2954
5.388, 5, 35.3368, 51.6662, -15.0096, 96.9929, -63.781, 37.2878
5.392, 5, 35.3357, 51.67, -15.0096, 96.9909, -63.7962, 37.2802
5.396, 5, 35.3347, 51.6739, -15.0096, 96.9888, -63.8114, 37.2726
5.4, 5, 35.3336, 51.6777, -15.0096, 96.9867, -63.8265, 37.265
5.404, 5, 35.3325, 51.6815, -15.0096, 96.9847, -63.8417, 37.2574
5.408, 5, 35.3315, 51.6853, -15.0096, 96.9826, -63.8569, 37.2498
5.412, 5, 35.3304, 51.6891, -15.0096, 96.9805, -63.8721, 37.2423
5.416, 5, 35.3293, 51.693, -15.0096, 96.9784, -63.8873, 37.2347
5.42, 5, 35.3282, 51.6968, -15.0096, 96.9764, -63.9024, 37.2271
5.424, 5, 35.3272, 51.7006, -15.0096, 96.9743, -63.9176, 37.2195
5.428, 5, 35.3261, 51.7044, -15.0096, 96.9722, -63.9328, 37.212
5.432, 5, 35.325, 51.7082, -15.0096, 96.9701, -63.948, 37.2044
5.436, 5, 35.3239, 51.712, -15.0095, 96.968, -63.9631, 37.1968
5.44, 5, 35.3229, 51.7158, -15.0095, 96.9659, -63.9783, 37.1893
5.444, 5, 35.3218, 51.7196, -15.0095, 96.9638, -63.9935, 37.1817
5.448, 5, 35.3207, 51.7234, -15.0095, 96.9617, -64.0086, 37.1741
5.452, 5, 35.3196, 51.7272, -15.0094, 96.9596, -64.0238, 37.1666
5.456, 5, 35.3185, 51.731, -15.0094, 96.9575, -64.039, 37.159
5.46, 5, 35.3175, 51.7348, -15.0094, 96.9553, -64.0541, 37.1514
5.464, 5, 35.3164, 51.7386, -15.0093, 96.9532, -64.0693, 37.1439
5.468, 5, 35.3153, 51.7424, -15.0093, 96.9511, -64.0845, 37.1363
5.472, 5, 35.3142, 51.7462, -15.0092, 96.949, -64.0996, 37.1288
5.476, 5, 35.3131, 51.75, -15.0092, 96.9468, -64.1148, 37.1212
5.48, 5, 35.312, 51.7538, -15.0091, 96.9447, -64.13, 37.1137
5.484, 5, 35.311, 51.7576, -15.0091, 96.9426, -64.1451, 37.1061
5.488, 5, 35.3099, 51.7614, -15.009, 96.9404, -64.1603, 37.0986
5.492, 5, 35.3088, 51.7651, -15.0089, 96.9383, -64.1754, 37.091
5.496, 5, 35.3077, 51.7689, -15.0089, 96.9362, -64.1906, 37.0835
5.5, 5, 35.3066, 51.7727, -15.0088, 96.934, -64.2057, 37.076
5.504, 5, 35.3055, 51.7765, -15.0087, 96.9319, -64.2209, 37.0684
5.508, 5, 35.3044, 51.7803, -15.0086, 96.9297, -64.2361, 37.0609
5.512, 5, 35.3033, 51.784, -15.0086, 96.9276, -64.2512, 37.0533
5.516, 5, 35.3022, 51.7878, -15.0085, 96.9254, -64.2664, 37.0458
5.52, 5, 35.3011, 51.7916, -15.0084, 96.9232, -64.2815, 37.0383
5.524, 5, 35.3001, 51.7953, -15.0083, 96.9211, -64.2967, 37.0307
5.528, 5, 35.299, 51.7991, -15.0082, 96.9189, -64.3118, 37.0232
5.532, 5, 35.2979, 51.8029, -15.0081, 96.9167, -64.327, 37.0157
5.536, 5, 35.2968, 51.8066, -15.008, 96.9145, -64.3421, 37.0082
5.54, 5, 35.2957, 51.8104, -15.0079, 96.9124, -64.3573, 37.0006
5.544, 5, 35.2946, 51.8141, -15.0078, 96.9102, -64.3724, 36.9931
5.548, 5, 35.2935, 51.8179, -15.0077, 96.908, -64.3876, 36.9856
5.552, 5, 35.2924, 51.8217, -15.0076, 96.9058, -64.4027, 36.9781
5.556, 5, 35.2913, 51.8254, -15.0075, 96.9036, -64.4178, 36.9706
5.56, 5, 35.2902, 51.8292, -15.0074, 96.9014, -64.433, 36.963
5.564, 5, 35.2891, 51.8329, -15.0072, 96.8992, -64.4481, 36.9555
5.568, 5, 35.288, 51.8367, -15.0071, 96.897, -64.4633, 36.948
5.572, 5, 35.2869, 51.8404, -15.007, 96.8948, -64.4784, 36.9405
5.576, 5, 35.2858, 51.8441, -15.0069, 96.8926, -64.4936, 36.933
5.58, 5, 35.2846, 51.8479, -15.0067, 96.8904, -64.5087, 36.9255
5.584, 5, 35.2835, 51.8516, -15.0066, 96.8882, -64.5238, 36.918
5.588, 5, 35.2824, 51.8554, -15.0065, 96.886, -64.539, 36.9105
5.592, 5, 35.2813, 51.8591, -15.0063, 96.8838, -64.5541, 36.903
5.596, 5, 35.2802, 51.8628, -15.0062, 96.8816, -64.5692, 36.8955
5.6, 5, 35.2791, 51.8666, -15.006, 96.8793, -64.5844, 36.888
5.604, 5, 35.278, 51.8703, -15.0059, 96.8771, -64.5995, 36.8805
5.608, 5, 35.2769, 51.874, -15.0057, 96.8749, -64.6146, 36.873
5.612, 5, 35.2758, 51.8777, -15.0056, 96.8727, -64.6298, 36.8655
5.616, 5, 35.2747, 51.8815, -15.0054, 96.8704, -64.6449, 36.858
5.62, 5, 35.2735, 51.8852, -15.0052, 96.8682, -64.66, 36.8505
5.624, 5, 35.2724, 51.8889, -15.0051, 96.8659, -64.6751, 36.843
5.628, 5, 35.2713, 51.8926, -15.0049, 96.8637, -64.6903, 36.8355
5.632, 5, 35.2702, 51.8963, -15.0047, 96.8614, -64.7054, 36.828
5.636, 5, 35.2691, 51.9001, -15.0045, 96.8592, -64.7205, 36.8206
5.64, 5, 35.268, 51.9038, -15.0044, 96.8569, -64.7356, 36.8131
5.644, 5, 35.2668, 51.9075, -15.0042, 96.8547, -64.7508, 36.8056
5.648, 5, 35.2657, 51.9112, -15.004, 96.8524, -64.7659, 36.7981
5.652, 5, 35.2646, 51.9149, -15.0038, 96.8502, -64.781, 36.7906
5.656, 5, 35.2635, 51.9186, -15.0036, 96.8479, -64.7961, 36.7832
5.66, 5, 35.2624, 51.9223, -15.0034, 96.8456, -64.8112, 36.7757
5.664, 5, 35.2612, 51.926, -15.0032, 96.8434, -64.8264, 36.7682
5.668, 5, 35.2601, 51.9297, -15.003, 96.8411, -64.8415, 36.7607
5.672, 5, 35.259, 51.9334, -15.0028, 96.8388, -64.8566, 36.7533
5.676, 5, 35.2579, 51.9371, -15.0026, 96.8365, -64.8717, 36.7458
5.68, 5, 35.2567, 51.9408, -15.0024, 96.8342, -64.8868, 36.7383
5.684, 5, 35.2556, 51.9445, -15.0022, 96.8319, -64.9019, 36.7309
5.688, 5, 35.2545, 51.9482, -15.002, 96.8297, -64.9171, 36.7234
5.692, 5, 35.2534, 51.9519, -15.0017, 96.8274, -64.9322, 36.716
5.696, 5, 35.2522, 51.9556, -15.0015, 96.8251, -64.9473, 36.7085
5.7, 5, 35.2511, 51.9592, -15.0013, 96.8228, -64.9624, 36.701
5.704, 5, 35.25, 51.9629, -15.0011, 96.8205, -64.9775, 36.6936
5.708, 5, 35.2488, 51.9666, -15.0008, 96.8182, -64.9926, 36.6861
5.712, 5, 35.2477, 51.9703, -15.0006, 96.8159, -65.0077, 36.6787
5.716, 5, 35.2466, 51.974, -15.0003, 96.8135, -65.0228, 36.6712
5.72, 5, 35.2454, 51.9776, -15.0001, 96.8112, -65.0379, 36.6638
5.724, 5, 35.2443, 51.9813, -14.9999, 96.8089, -65.053, 36.6563
5.728, 5, 35.2432, 51.985, -14.9996, 96.8066, -65.0681, 36.6489
5.732, 5, 35.242, 51.9887, -14.9993, 96.8043, -65.0832, 36.6414
5.736, 5, 35.2409, 51.9923, -14.9991, 96.802, -65.0983, 36.634
5.74, 5, 35.2397, 51.996, -14.9988, 96.7996, -65.1134, 36.6265
5.744, 5, 35.2386, 51.9996, -14.9986, 96.7973, -65.1285, 36.6191
5.748, 5, 35.2375, 52.0033, -14.9983, 96.795, -65.1436, 36.6117
5.752, 5, 35.2363, 52.007, -14.998, 96.7926, -65.1587, 36.6042
5.756, 5, 35.2352, 52.0106, -14.9978, 96.7903, -65.1738, 36.5968
5.76, 5, 35.234, 52.0143, -14.9975, 96.7879, -65.1889, 36.5894
5.764, 5, 35.2329, 52.0179, -14.9972, 96.7856, -65.204, 36.5819
5.768, 5, 35.2318, 52.0216, -14.9969, 96.7832, -65.2191, 36.5745
5.772, 5, 35.2306, 52.0252, -14.9967, 96.7809, -65.2342, 36.5671
5.776, 5, 35.2295, 52.0289, -14.9964, 96.7785, -65.2493, 36.5596
5.78, 5, 35.2283, 52.0325, -14.9961, 96.7762, -65.2644, 36.5522
5.784, 5, 35.2272, 52.0362, -14.9958, 96.7738, -65.2795, 36.5448
5.788, 5, 35.226, 52.0398, -14.9955, 96.7715, -65.2946, 36.5374
5.792, 5, 35.2249, 52.0435, -14.9952, 96.7691, -65.3097, 36.53
5.796, 5, 35.2237, 52.0471, -14.9949, 96.7667, -65.3247, 36.5225
5.8, 5, 35.2226, 52.0507, -14.9946, 96.7644, -65.3398, 36.5151
5.804, 5, 35.2214, 52.0544, -14.9943, 96.762, -65.3549, 36.5077
5.808, 5, 35.2203, 52.058, -14.994, 96.7596, -65.37, 36.5003
5.812, 5, 35.2191, 52.0616, -14.9936, 96.7572, -65.3851, 36.4929
5.816, 5, 35.218, 52.0653, -14.9933, 96.7548, -65.4002, 36.4855
5.82, 5, 35.2168, 52.0689, -14.993, 96.7524, -65.4152, 36.478
5.824, 5, 35.2157, 52.0725, -14.9927, 96.75, -65.4303, 36.4706
5.828, 5, 35.2145, 52.0762, -14.9924, 96.7477, -65.4454, 36.4632
5.832, 5, 35.2133, 52.0798, -14.992, 96.7453, -65.4605, 36.4558
5.836, 5, 35.2122, 52.0834, -14.9917, 96.7429, -65.4756, 36.4484
5.84, 5, 35.211, 52.087, -14.9914, 96.7405, -65.4906, 36.441
5.844, 5, 35.2099, 52.0906, -14.991, 96.7381, -65.5057, 36.4336
5.848, 5, 35.2087, 52.0942, -14.9907, 96.7356, -65.5208, 36.4262
5.852, 5, 35.2076, 52.0979, -14.9903, 96.7332, -65.5359, 36.4188
5.856, 5, 35.2064, 52.1015, -14.99, 96.7308, -65.5509, 36.4114
5.86, 5, 35.2052, 52.1051, -14.9896, 96.7284, -65.566, 36.404
5.864, 5, 35.2041, 52.1087, -14.9893, 96.726, -65.5811, 36.3966
5.868, 5, 35.2029, 52.1123, -14.9889, 96.7236, -65.5962, 36.3892
5.872, 5, 35.2017, 52.1159, -14.9885, 96.7211, -65.6112, 36.3819
5.876, 5, 35.2006, 52.1195, -14.9882, 96.7187, -65.6263, 36.3745
5.88, 5, 35.1994, 52.1231, -14.9878, 96.7163, -65.6414, 36.3671
5.884, 5, 35.1982, 52.1267, -14.9874, 96.7138, -65.6564, 36.3597
5.888, 5, 35.1971, 52.1303, -14.9871, 96.7114, -65.6715, 36.3523
5.892, 5, 35.1959, 52.1339, -14.9867, 96.709, -65.6866, 36.3449
5.896, 5, 35.1947, 52.1375, -14.9863, 96.7065, -65.7016, 36.3375
5.9, 5, 35.1936, 52.1411, -14.9859, 96.7041, -65.7167, 36.3302
5.904, 5, 35.1924, 52.1447, -14.9855, 96.7016, -65.7317, 36.3228
5.908, 5, 35.1912, 52.1482, -14.9851, 96.6992, -65.7468, 36.3154
5.912, 5, 35.19, 52.1518, -14.9848, 96.6967, -65.7619, 36.308
5.916, 5, 35.1889, 52.1554, -14.9844, 96.6943, -65.7769, 36.3007
5.92, 5, 35.1877, 52.159, -14.984, 96.6918, -65.792, 36.2933
5.924, 5, 35.1865, 52.1626, -14.9836, 96.6893, -65.807, 36.2859
5.928, 5, 35.1853, 52.1661, -14.9831, 96.6869, -65.8221, 36.2786
5.932, 5, 35.1842, 52.1697, -14.9827, 96.6844, -65.8372, 36.2712
5.936, 5, 35.183, 52.1733, -14.9823, 96.6819, -65.8522, 36.2638
5.94, 5, 35.1818, 52.1769, -14.9819, 96.6795, -65.8673, 36.2565
5.944, 5, 35.1806, 52.1804, -14.9815, 96.677, -65.8823, 36.2491
5.948, 5, 35.1795, 52.184, -14.9811, 96.6745, -65.8974, 36.2417
5.952, 5, 35.1783, 52.1876, -14.9806, 96.672, -65.9124, 36.2344
5.956, 5, 35.1771, 52.1911, -14.9802, 96.6695, -65.9275, 36.227
5.96, 5, 35.1759, 52.1947, -14.9798, 96.667, -65.9425, 36.2197
5.964, 5, 35.1747, 52.1982, -14.9794, 96.6646, -65.9576, 36.2123
5.968, 5, 35.1735, 52.2018, -14.9789, 96.662, -65.9726, 36.2049
5.972, 5, 35.1724, 52.2054, -14.9785, 96.6596, -65.9877, 36.1976
5.976, 5, 35.1712, 52.2089, -14.978, 96.6571, -66.0027, 36.1902
5.98, 5, 35.17, 52.2125, -14.9776, 96.6545, -66.0178, 36.1829
5.984, 5, 35.1688, 52.216, -14.9771, 96.6521, -66.0328, 36.1755
5.988, 5, 35.1676, 52.2196, -14.9767, 96.6495, -66.0478, 36.1682
5.992, 5, 35.1664, 52.2231, -14.9762, 96.647, -66.0629, 36.1609
5.996, 5, 35.1652, 52.2267, -14.9758, 96.6445, -66.0779, 36.1535
6, 5, 35.164, 52.2302, -14.9753, 96.642, -66.093, 36.1462
6.004, 5, 35.1629, 52.2337, -14.9748, 96.6395, -66.108, 36.1388
6.008, 5, 35.1617, 52.2373, -14.9744, 96.6369, -66.123, 36.1315
6.012, 5, 35.1605, 52.2408, -14.9739, 96.6344, -66.1381, 36.1241
6.016, 5, 35.1593, 52.2443, -14.9734, 96.6319, -66.1531, 36.1168
6.02, 5, 35.1581, 52.2479, -14.9729, 96.6294, -66.1681, 36.1095
6.024, 5, 35.1569, 52.2514, -14.9725, 96.6268, -66.1832, 36.1021
6.028, 5, 35.1557, 52.2549, -14.972, 96.6243, -66.1982, 36.0948
6.032, 5, 35.1545, 52.2585, -14.9715, 96.6217, -66.2132, 36.0875
6.036, 5, 35.1533, 52.262, -14.971, 96.6192, -66.2283, 36.0802
6.04, 5, 35.1521, 52.2655, -14.9705, 96.6167, -66.2433, 36.0728
6.044, 5, 35.1509, 52.269, -14.97, 96.6141, -66.2583, 36.0655
6.048, 5, 35.1497, 52.2726, -14.9695, 96.6116, -66.2734, 36.0582
