hehonglu123/ABB_Primitive_Study/execution/movec/curve_exe_v50_fine.csv
timestamp, cmd_num, J1, J2, J3, J4, J5, J6
0, -1, 32.9446, 52.7398, -8.49419, 90.0915, -78.6833, 34.4926
0.003, -1, 32.9446, 52.7398, -8.49419, 90.0915, -78.6833, 34.4926
0.006, -1, 32.9446, 52.7398, -8.49419, 90.0915, -78.6833, 34.4926
0.008, -1, 32.9446, 52.7398, -8.49419, 90.0915, -78.6833, 34.4926
0.011, -1, 32.9446, 52.7398, -8.49419, 90.0915, -78.6833, 34.4926
0.016, -1, 32.9446, 52.7398, -8.49419, 90.0915, -78.6833, 34.4926
0.02, -1, 32.9446, 52.7398, -8.49419, 90.0915, -78.6833, 34.4926
0.024, -1, 32.9446, 52.7398, -8.49419, 90.0915, -78.6833, 34.4926
0.028, -1, 32.9446, 52.7398, -8.49419, 90.0915, -78.6833, 34.4926
0.032, -1, 32.9447, 52.7398, -8.49419, 90.0915, -78.6833, 34.4926
0.036, -1, 32.9447, 52.7397, -8.49419, 90.0915, -78.6833, 34.4926
0.04, -1, 32.9449, 52.7396, -8.49419, 90.0915, -78.6833, 34.4926
0.044, -1, 32.9453, 52.7392, -8.49421, 90.0915, -78.6833, 34.4926
0.048, -1, 32.9461, 52.7385, -8.49426, 90.0915, -78.6831, 34.4927
0.052, -1, 32.9474, 52.7371, -8.49437, 90.0917, -78.6826, 34.4928
0.056, -1, 32.9492, 52.7349, -8.4946, 90.0919, -78.6817, 34.4931
0.06, -1, 32.9516, 52.7318, -8.49501, 90.0924, -78.6798, 34.4938
0.064, -1, 32.9544, 52.7277, -8.4957, 90.0932, -78.6767, 34.4949
0.068, -1, 32.9578, 52.7227, -8.49678, 90.0946, -78.6717, 34.4966
0.072, -1, 32.9617, 52.7167, -8.4984, 90.0966, -78.6641, 34.4993
0.076, -1, 32.9661, 52.7097, -8.50073, 90.0995, -78.6532, 34.5031
0.08, -1, 32.9711, 52.7018, -8.50394, 90.1037, -78.6379, 34.5085
0.084, -1, 32.9767, 52.6929, -8.50823, 90.1092, -78.6175, 34.5157
0.088, -1, 32.983, 52.6832, -8.51381, 90.1164, -78.5907, 34.5251
0.092, -1, 32.9898, 52.6726, -8.52089, 90.1256, -78.5567, 34.537
0.096, -1, 32.9971, 52.6615, -8.52966, 90.1371, -78.5143, 34.5519
0.1, -1, 33.0046, 52.6498, -8.54028, 90.151, -78.4629, 34.57
0.104, -1, 33.0124, 52.6377, -8.55288, 90.1675, -78.4018, 34.5915
0.108, -1, 33.0205, 52.6252, -8.56751, 90.1868, -78.3306, 34.6165
0.112, -1, 33.0288, 52.6121, -8.58421, 90.2088, -78.2493, 34.645
0.116, -1, 33.0376, 52.5985, -8.60294, 90.2336, -78.158, 34.6771
0.12, -1, 33.0467, 52.5842, -8.62361, 90.2609, -78.0572, 34.7125
0.124, -1, 33.0563, 52.5693, -8.6461, 90.2906, -77.9475, 34.7511
0.128, -1, 33.0663, 52.5539, -8.67024, 90.3226, -77.8297, 34.7924
0.131, -1, 33.0765, 52.5379, -8.69587, 90.3565, -77.7047, 34.8364
0.136, -1, 33.0871, 52.5214, -8.72276, 90.392, -77.5735, 34.8825
0.139, -1, 33.0981, 52.5041, -8.75072, 90.429, -77.4372, 34.9304
0.144, -1, 33.1095, 52.4858, -8.77954, 90.4671, -77.2967, 34.9797
0.148, -1, 33.1216, 52.4664, -8.80901, 90.506, -77.1531, 35.0302
0.152, -1, 33.1344, 52.4458, -8.83897, 90.5456, -77.0071, 35.0815
0.156, -1, 33.1481, 52.4239, -8.86926, 90.5855, -76.8596, 35.1333
0.16, -1, 33.1624, 52.4009, -8.89978, 90.6258, -76.7111, 35.1855
0.164, -1, 33.1774, 52.3772, -8.93044, 90.6662, -76.562, 35.2379
0.168, -1, 33.1929, 52.3529, -8.96117, 90.7067, -76.4125, 35.2904
0.172, -1, 33.2086, 52.3282, -8.99193, 90.7472, -76.2629, 35.343
0.176, -1, 33.2246, 52.3033, -9.0227, 90.7877, -76.1133, 35.3955
0.18, -1, 33.2406, 52.2782, -9.05345, 90.8282, -75.9638, 35.4481
0.184, -1, 33.2568, 52.2531, -9.08416, 90.8687, -75.8145, 35.5005
0.188, -1, 33.273, 52.2279, -9.11484, 90.9091, -75.6653, 35.5529
0.192, -1, 33.2892, 52.2027, -9.14548, 90.9495, -75.5164, 35.6053
0.196, -1, 33.3054, 52.1775, -9.17607, 90.9897, -75.3677, 35.6575
0.2, -1, 33.3216, 52.1524, -9.2066, 91.03, -75.2192, 35.7097
0.204, -1, 33.3378, 52.1272, -9.23709, 91.0701, -75.071, 35.7617
0.208, -1, 33.354, 52.1021, -9.26752, 91.1102, -74.9231, 35.8137
0.212, -1, 33.3702, 52.077, -9.29789, 91.1502, -74.7754, 35.8656
0.216, -1, 33.3863, 52.052, -9.32821, 91.1901, -74.628, 35.9174
0.22, -1, 33.4024, 52.027, -9.35848, 91.23, -74.4809, 35.9691
0.224, -1, 33.4184, 52.0021, -9.38869, 91.2698, -74.334, 36.0207
0.228, -1, 33.4345, 51.9772, -9.41885, 91.3095, -74.1874, 36.0722
0.232, -1, 33.4505, 51.9523, -9.44895, 91.3492, -74.0411, 36.1236
0.236, -1, 33.4665, 51.9275, -9.479, 91.3887, -73.895, 36.1749
0.24, -1, 33.4825, 51.9028, -9.509, 91.4282, -73.7492, 36.2262
0.244, -1, 33.4984, 51.878, -9.53894, 91.4677, -73.6036, 36.2773
0.248, -1, 33.5143, 51.8533, -9.56883, 91.507, -73.4583, 36.3284
0.252, -1, 33.5302, 51.8287, -9.59867, 91.5463, -73.3133, 36.3793
0.256, -1, 33.546, 51.8041, -9.62845, 91.5855, -73.1685, 36.4302
0.26, -1, 33.5618, 51.7796, -9.65818, 91.6247, -73.024, 36.481
0.264, -1, 33.5776, 51.7551, -9.68785, 91.6638, -72.8797, 36.5317
0.268, -1, 33.5934, 51.7306, -9.71748, 91.7028, -72.7357, 36.5823
0.272, -1, 33.6091, 51.7062, -9.74705, 91.7417, -72.5919, 36.6328
0.276, -1, 33.6248, 51.6818, -9.77657, 91.7806, -72.4484, 36.6832
0.28, -1, 33.6405, 51.6575, -9.80604, 91.8194, -72.3051, 36.7335
0.284, -1, 33.6561, 51.6332, -9.83546, 91.8582, -72.1621, 36.7838
0.288, -1, 33.6718, 51.6089, -9.86483, 91.8969, -72.0193, 36.8339
0.292, -1, 33.6874, 51.5847, -9.89415, 91.9355, -71.8768, 36.884
0.296, -1, 33.7029, 51.5605, -9.92341, 91.974, -71.7345, 36.934
0.3, -1, 33.7185, 51.5364, -9.95263, 92.0125, -71.5925, 36.9839
0.304, -1, 33.734, 51.5123, -9.9818, 92.0509, -71.4507, 37.0337
0.308, -1, 33.7495, 51.4883, -10.0109, 92.0893, -71.3092, 37.0835
0.312, -1, 33.765, 51.4643, -10.04, 92.1275, -71.1679, 37.1331
0.316, -1, 33.7804, 51.4403, -10.069, 92.1657, -71.0268, 37.1827
0.32, -1, 33.7958, 51.4164, -10.098, 92.2039, -70.886, 37.2321
0.324, -1, 33.8112, 51.3925, -10.1269, 92.242, -70.7454, 37.2815
0.328, -1, 33.8266, 51.3687, -10.1558, 92.28, -70.605, 37.3309
0.332, -1, 33.8419, 51.3449, -10.1846, 92.318, -70.4649, 37.3801
0.336, -1, 33.8572, 51.3211, -10.2134, 92.3559, -70.325, 37.4292
0.34, -1, 33.8725, 51.2974, -10.2421, 92.3937, -70.1854, 37.4783
0.344, -1, 33.8877, 51.2737, -10.2708, 92.4315, -70.046, 37.5273
0.348, -1, 33.903, 51.2501, -10.2994, 92.4692, -69.9068, 37.5762
0.352, -1, 33.9182, 51.2265, -10.328, 92.5068, -69.7678, 37.625
0.356, -1, 33.9334, 51.2029, -10.3565, 92.5444, -69.6291, 37.6737
0.36, -1, 33.9485, 51.1794, -10.385, 92.5819, -69.4906, 37.7224
0.364, -1, 33.9636, 51.1559, -10.4134, 92.6194, -69.3523, 37.771
0.368, -1, 33.9788, 51.1325, -10.4418, 92.6568, -69.2143, 37.8195
0.372, -1, 33.9938, 51.109, -10.4702, 92.6941, -69.0764, 37.8679
0.376, -1, 34.0089, 51.0857, -10.4985, 92.7314, -68.9389, 37.9163
0.38, -1, 34.0239, 51.0623, -10.5268, 92.7686, -68.8015, 37.9645
0.384, -1, 34.0389, 51.039, -10.555, 92.8058, -68.6643, 38.0127
0.388, -1, 34.0539, 51.0158, -10.5831, 92.8429, -68.5274, 38.0608
0.392, -1, 34.0689, 50.9926, -10.6113, 92.8799, -68.3907, 38.1089
0.396, -1, 34.0838, 50.9694, -10.6393, 92.9169, -68.2542, 38.1568
0.4, -1, 34.0987, 50.9462, -10.6674, 92.9538, -68.1179, 38.2047
0.404, -1, 34.1136, 50.9231, -10.6954, 92.9907, -67.9818, 38.2525
0.408, -1, 34.1285, 50.9, -10.7233, 93.0275, -67.846, 38.3002
0.412, -1, 34.1433, 50.877, -10.7512, 93.0642, -67.7104, 38.3479
0.416, -1, 34.1582, 50.854, -10.779, 93.1009, -67.575, 38.3955
0.42, -1, 34.173, 50.831, -10.8069, 93.1375, -67.4398, 38.443
0.424, -1, 34.1877, 50.8081, -10.8346, 93.1741, -67.3048, 38.4904
0.428, -1, 34.2025, 50.7852, -10.8624, 93.2106, -67.17, 38.5377
0.432, -1, 34.2172, 50.7623, -10.89, 93.2471, -67.0354, 38.585
0.436, -1, 34.2319, 50.7395, -10.9177, 93.2835, -66.901, 38.6322
0.44, -1, 34.2466, 50.7167, -10.9453, 93.3198, -66.7669, 38.6794
0.444, -1, 34.2613, 50.694, -10.9728, 93.3561, -66.6329, 38.7264
0.448, -1, 34.2759, 50.6713, -11.0003, 93.3923, -66.4992, 38.7734
0.452, -1, 34.2905, 50.6486, -11.0278, 93.4285, -66.3656, 38.8203
0.456, -1, 34.3051, 50.6259, -11.0552, 93.4647, -66.2323, 38.8672
0.46, -1, 34.3197, 50.6033, -11.0826, 93.5007, -66.0992, 38.914
0.464, -1, 34.3342, 50.5807, -11.11, 93.5367, -65.9662, 38.9607
0.468, -1, 34.3487, 50.5582, -11.1373, 93.5727, -65.8335, 39.0073
0.472, -1, 34.3632, 50.5357, -11.1645, 93.6086, -65.701, 39.0539
0.476, -1, 34.3777, 50.5132, -11.1918, 93.6445, -65.5686, 39.1004
0.48, -1, 34.3922, 50.4907, -11.2189, 93.6803, -65.4365, 39.1468
0.484, -1, 34.4066, 50.4683, -11.2461, 93.716, -65.3045, 39.1932
0.488, -1, 34.421, 50.446, -11.2732, 93.7517, -65.1728, 39.2394
0.492, -1, 34.4354, 50.4236, -11.3002, 93.7873, -65.0412, 39.2857
0.496, -1, 34.4498, 50.4013, -11.3273, 93.8229, -64.9099, 39.3318
0.5, -1, 34.4642, 50.379, -11.3542, 93.8584, -64.7787, 39.3779
0.504, -1, 34.4785, 50.3568, -11.3812, 93.8939, -64.6477, 39.4239
0.508, -1, 34.4928, 50.3346, -11.4081, 93.9294, -64.517, 39.4699
0.512, -1, 34.5071, 50.3124, -11.4349, 93.9647, -64.3864, 39.5158
0.516, -1, 34.5214, 50.2902, -11.4618, 94.0001, -64.256, 39.5616
0.52, -1, 34.5356, 50.2681, -11.4886, 94.0353, -64.1257, 39.6073
0.524, -1, 34.5499, 50.246, -11.5153, 94.0706, -63.9957, 39.653
0.528, -1, 34.5641, 50.224, -11.542, 94.1057, -63.8659, 39.6986
0.532, -1, 34.5783, 50.202, -11.5687, 94.1409, -63.7362, 39.7442
0.536, -1, 34.5924, 50.18, -11.5953, 94.1759, -63.6068, 39.7897
0.54, -1, 34.6066, 50.158, -11.6219, 94.211, -63.4775, 39.8351
0.544, -1, 34.6207, 50.1361, -11.6485, 94.2459, -63.3484, 39.8804
0.548, -1, 34.6348, 50.1142, -11.675, 94.2809, -63.2195, 39.9257
0.552, -1, 34.6489, 50.0923, -11.7015, 94.3157, -63.0908, 39.971
0.556, -1, 34.663, 50.0705, -11.7279, 94.3506, -62.9622, 40.0161
0.56, -1, 34.677, 50.0487, -11.7543, 94.3853, -62.8339, 40.0612
0.564, -1, 34.691, 50.0269, -11.7807, 94.4201, -62.7057, 40.1063
0.568, -1, 34.705, 50.0052, -11.807, 94.4547, -62.5777, 40.1512
0.572, -1, 34.719, 49.9834, -11.8333, 94.4894, -62.4498, 40.1961
0.576, -1, 34.733, 49.9618, -11.8596, 94.524, -62.3222, 40.241
0.58, -1, 34.7469, 49.9401, -11.8858, 94.5585, -62.1947, 40.2858
0.584, -1, 34.7609, 49.9185, -11.912, 94.593, -62.0674, 40.3305
0.588, -1, 34.7748, 49.8969, -11.9381, 94.6274, -61.9403, 40.3752
0.592, -1, 34.7887, 49.8753, -11.9642, 94.6618, -61.8133, 40.4198
0.596, -1, 34.8025, 49.8538, -11.9903, 94.6961, -61.6866, 40.4643
0.6, -1, 34.8164, 49.8323, -12.0163, 94.7304, -61.56, 40.5088
0.604, -1, 34.8302, 49.8108, -12.0423, 94.7647, -61.4336, 40.5532
0.608, -1, 34.844, 49.7894, -12.0683, 94.7989, -61.3073, 40.5976
0.612, -1, 34.8578, 49.768, -12.0942, 94.8331, -61.1812, 40.6419
0.616, -1, 34.8716, 49.7466, -12.1201, 94.8672, -61.0553, 40.6861
0.62, -1, 34.8854, 49.7252, -12.146, 94.9012, -60.9296, 40.7303
0.624, -1, 34.8991, 49.7039, -12.1718, 94.9352, -60.804, 40.7744
0.628, -1, 34.9128, 49.6826, -12.1976, 94.9692, -60.6786, 40.8185
0.632, -1, 34.9265, 49.6613, -12.2234, 95.0032, -60.5534, 40.8625
0.636, -1, 34.9402, 49.6401, -12.2491, 95.037, -60.4283, 40.9064
0.64, -1, 34.9539, 49.6189, -12.2748, 95.0709, -60.3034, 40.9503
0.644, -1, 34.9675, 49.5977, -12.3005, 95.1047, -60.1787, 40.9941
0.648, -1, 34.9812, 49.5765, -12.3261, 95.1384, -60.0541, 41.0379
0.652, -1, 34.9948, 49.5554, -12.3517, 95.1721, -59.9297, 41.0816
0.656, -1, 35.0084, 49.5343, -12.3772, 95.2058, -59.8055, 41.1252
0.66, -1, 35.022, 49.5132, -12.4028, 95.2394, -59.6814, 41.1688
0.664, -1, 35.0355, 49.4922, -12.4283, 95.273, -59.5575, 41.2124
0.668, -1, 35.0491, 49.4712, -12.4537, 95.3065, -59.4337, 41.2558
0.672, -1, 35.0626, 49.4502, -12.4791, 95.34, -59.3101, 41.2993
0.676, -1, 35.0761, 49.4292, -12.5045, 95.3734, -59.1867, 41.3426
0.68, -1, 35.0896, 49.4083, -12.5299, 95.4068, -59.0634, 41.3859
0.684, -1, 35.1031, 49.3874, -12.5552, 95.4401, -58.9403, 41.4292
0.688, -1, 35.1165, 49.3665, -12.5805, 95.4735, -58.8174, 41.4724
0.692, -1, 35.1299, 49.3456, -12.6058, 95.5067, -58.6946, 41.5155
0.696, -1, 35.1434, 49.3248, -12.631, 95.5399, -58.5719, 41.5586
0.7, -1, 35.1568, 49.304, -12.6562, 95.5731, -58.4495, 41.6017
0.704, -1, 35.1701, 49.2832, -12.6813, 95.6063, -58.3271, 41.6446
0.708, -1, 35.1835, 49.2625, -12.7065, 95.6394, -58.205, 41.6876
0.712, -1, 35.1969, 49.2417, -12.7316, 95.6724, -58.083, 41.7304
0.716, -1, 35.2102, 49.221, -12.7566, 95.7054, -57.9611, 41.7732
0.72, -1, 35.2235, 49.2004, -12.7817, 95.7384, -57.8394, 41.816
0.724, -1, 35.2368, 49.1797, -12.8067, 95.7713, -57.7178, 41.8587
0.728, -1, 35.2501, 49.1591, -12.8316, 95.8042, -57.5964, 41.9014
0.732, -1, 35.2634, 49.1385, -12.8566, 95.8371, -57.4752, 41.944
0.736, -1, 35.2766, 49.1179, -12.8815, 95.8699, -57.3541, 41.9865
0.74, -1, 35.2898, 49.0974, -12.9064, 95.9026, -57.2332, 42.029
0.744, -1, 35.3031, 49.0769, -12.9312, 95.9354, -57.1124, 42.0714
0.748, -1, 35.3163, 49.0564, -12.956, 95.968, -56.9917, 42.1138
0.752, -1, 35.3294, 49.0359, -12.9808, 96.0007, -56.8712, 42.1562
0.756, -1, 35.3426, 49.0155, -13.0056, 96.0333, -56.7509, 42.1984
0.76, -1, 35.3558, 48.9951, -13.0303, 96.0659, -56.6307, 42.2407
0.764, -1, 35.3689, 48.9747, -13.055, 96.0984, -56.5107, 42.2828
0.768, -1, 35.382, 48.9543, -13.0797, 96.1309, -56.3907, 42.325
0.772, -1, 35.3951, 48.934, -13.1043, 96.1633, -56.271, 42.3671
0.776, -1, 35.4082, 48.9137, -13.1289, 96.1957, -56.1514, 42.4091
0.78, -1, 35.4213, 48.8934, -13.1535, 96.2281, -56.0319, 42.451
0.784, -1, 35.4343, 48.8731, -13.178, 96.2604, -55.9126, 42.493
0.788, -1, 35.4474, 48.8528, -13.2025, 96.2927, -55.7934, 42.5348
0.792, -1, 35.4604, 48.8326, -13.227, 96.3249, -55.6744, 42.5767
0.796, -1, 35.4734, 48.8124, -13.2515, 96.3571, -55.5555, 42.6184
0.8, -1, 35.4864, 48.7923, -13.2759, 96.3893, -55.4367, 42.6602
0.804, -1, 35.4994, 48.7721, -13.3003, 96.4214, -55.3181, 42.7018
0.808, -1, 35.5124, 48.752, -13.3247, 96.4535, -55.1997, 42.7435
0.812, -1, 35.5253, 48.7319, -13.349, 96.4856, -55.0813, 42.785
0.816, -1, 35.5382, 48.7118, -13.3733, 96.5176, -54.9631, 42.8266
0.82, -1, 35.5512, 48.6918, -13.3976, 96.5496, -54.8451, 42.868
0.824, -1, 35.5641, 48.6717, -13.4219, 96.5816, -54.7272, 42.9095
0.828, -1, 35.577, 48.6517, -13.4461, 96.6134, -54.6094, 42.9508
0.832, -1, 35.5898, 48.6318, -13.4703, 96.6453, -54.4918, 42.9922
0.836, -1, 35.6027, 48.6118, -13.4944, 96.6772, -54.3743, 43.0335
0.84, -1, 35.6155, 48.5919, -13.5186, 96.709, -54.2569, 43.0747
0.844, -1, 35.6284, 48.5719, -13.5427, 96.7407, -54.1397, 43.1159
0.848, -1, 35.6412, 48.5521, -13.5668, 96.7724, -54.0226, 43.157
0.852, -1, 35.6539, 48.5322, -13.5909, 96.8041, -53.9056, 43.1981
0.856, -1, 35.6666, 48.5125, -13.6149, 96.8358, -53.7888, 43.2392
0.86, -1, 35.6791, 48.4928, -13.6389, 96.8674, -53.6721, 43.2802
0.864, -1, 35.6914, 48.4734, -13.6628, 96.8989, -53.5556, 43.3211
0.868, -1, 35.7035, 48.4543, -13.6867, 96.9304, -53.4394, 43.3619
0.872, -1, 35.7152, 48.4354, -13.7106, 96.9618, -53.3236, 43.4026
0.876, -1, 35.7267, 48.4169, -13.7343, 96.993, -53.2083, 43.4431
0.88, -1, 35.7378, 48.3988, -13.7579, 97.0241, -53.0937, 43.4834
0.884, -1, 35.7487, 48.3811, -13.7812, 97.0549, -52.9801, 43.5233
0.888, -1, 35.7593, 48.3638, -13.8043, 97.0853, -52.8677, 43.5628
0.892, -1, 35.7696, 48.347, -13.8271, 97.1153, -52.7571, 43.6017
0.896, -1, 35.7796, 48.3308, -13.8494, 97.1448, -52.6484, 43.6399
0.9, -1, 35.7891, 48.3154, -13.8713, 97.1735, -52.5423, 43.6772
0.904, -1, 35.7981, 48.3007, -13.8924, 97.2015, -52.4393, 43.7134
0.908, -1, 35.8067, 48.2868, -13.9129, 97.2284, -52.3399, 43.7484
0.912, -1, 35.8148, 48.2737, -13.9324, 97.2542, -52.2448, 43.7818
0.916, -1, 35.8225, 48.2613, -13.951, 97.2786, -52.1546, 43.8135
0.92, -1, 35.8299, 48.2495, -13.9684, 97.3016, -52.07, 43.8433
0.924, -1, 35.8369, 48.2384, -13.9846, 97.3229, -51.9913, 43.871
0.928, -1, 35.8436, 48.2277, -13.9994, 97.3424, -51.9192, 43.8963
0.932, -1, 35.8501, 48.2175, -14.0129, 97.3601, -51.8539, 43.9192
0.936, -1, 35.8564, 48.2078, -14.0248, 97.3759, -51.7957, 43.9397
0.94, -1, 35.8623, 48.1986, -14.0354, 97.3898, -51.7445, 43.9577
0.944, -1, 35.8681, 48.1898, -14.0445, 97.4018, -51.7003, 43.9732
0.948, -1, 35.8735, 48.1815, -14.0522, 97.4119, -51.6627, 43.9864
0.952, -1, 35.8787, 48.1738, -14.0587, 97.4204, -51.6314, 43.9974
0.956, -1, 35.8837, 48.1666, -14.0639, 97.4273, -51.6059, 44.0063
0.96, -1, 35.8884, 48.16, -14.0681, 97.4328, -51.5855, 44.0135
0.964, -1, 35.8928, 48.1539, -14.0714, 97.4371, -51.5697, 44.019
0.968, -1, 35.897, 48.1485, -14.0739, 97.4403, -51.5576, 44.0232
0.972, -1, 35.9008, 48.1437, -14.0757, 97.4427, -51.5487, 44.0263
0.976, -1, 35.9042, 48.1397, -14.077, 97.4444, -51.5423, 44.0285
0.98, 2, 35.9071, 48.1364, -14.078, 97.4456, -51.5377, 44.0301
0.984, 2, 35.9094, 48.1339, -14.0786, 97.4465, -51.5346, 44.0312
0.988, 2, 35.9112, 48.132, -14.0791, 97.4471, -51.5324, 44.0319
0.992, 2, 35.9124, 48.1306, -14.0794, 97.4475, -51.5309, 44.0325
0.996, 2, 35.9133, 48.1297, -14.0796, 97.4477, -51.5299, 44.0328
1, 2, 35.9139, 48.1291, -14.0797, 97.4479, -51.5293, 44.033
1.004, 2, 35.9143, 48.1287, -14.0798, 97.448, -51.5288, 44.0332
1.008, 2, 35.9146, 48.1284, -14.0799, 97.4481, -51.5285, 44.0333
1.012, 2, 35.9147, 48.1282, -14.0799, 97.4482, -51.5283, 44.0334
1.016, 2, 35.9149, 48.128, -14.08, 97.4482, -51.5281, 44.0334
1.02, 2, 35.915, 48.128, -14.08, 97.4482, -51.528, 44.0335
1.024, 2, 35.915, 48.1279, -14.08, 97.4482, -51.528, 44.0335
1.027, 2, 35.9151, 48.1279, -14.08, 97.4483, -51.5279, 44.0335
1.032, 2, 35.9151, 48.1278, -14.08, 97.4483, -51.5279, 44.0335
1.036, 2, 35.9151, 48.1278, -14.08, 97.4483, -51.5279, 44.0335
1.04, 2, 35.9151, 48.1278, -14.08, 97.4483, -51.5279, 44.0335
1.044, 2, 35.9151, 48.1278, -14.08, 97.4483, -51.5279, 44.0335
1.048, 2, 35.9151, 48.1278, -14.08, 97.4483, -51.5279, 44.0335
1.052, 2, 35.9151, 48.1278, -14.08, 97.4483, -51.5279, 44.0335
1.055, 2, 35.9151, 48.1278, -14.08, 97.4483, -51.5278, 44.0335
1.06, 2, 35.9151, 48.1278, -14.08, 97.4483, -51.5278, 44.0335
1.064, 2, 35.9151, 48.1278, -14.08, 97.4483, -51.5278, 44.0335
1.068, 2, 35.9151, 48.1278, -14.08, 97.4483, -51.5278, 44.0335
1.072, 2, 35.9151, 48.1278, -14.08, 97.4483, -51.5278, 44.0335
1.076, 2, 35.9151, 48.1278, -14.08, 97.4483, -51.5278, 44.0335
1.08, 2, 35.9151, 48.1278, -14.08, 97.4483, -51.5278, 44.0335
1.084, 2, 35.9151, 48.1278, -14.08, 97.4483, -51.5278, 44.0335
1.088, 2, 35.9151, 48.1278, -14.08, 97.4483, -51.5278, 44.0335
1.091, 2, 35.9151, 48.1278, -14.08, 97.4483, -51.5278, 44.0335
1.096, 2, 35.9151, 48.1278, -14.08, 97.4483, -51.5278, 44.0335
1.1, 2, 35.9151, 48.1278, -14.08, 97.4483, -51.5278, 44.0335
1.104, 2, 35.9151, 48.1278, -14.08, 97.4483, -51.5278, 44.0335
1.108, 2, 35.9151, 48.1278, -14.08, 97.4483, -51.5278, 44.0335
1.112, 2, 35.9151, 48.1278, -14.08, 97.4483, -51.5278, 44.0335
1.116, 2, 35.9151, 48.1278, -14.08, 97.4483, -51.5278, 44.0335
1.119, 2, 35.9151, 48.1278, -14.08, 97.4483, -51.5278, 44.0335
1.124, 2, 35.9151, 48.1278, -14.08, 97.4483, -51.5278, 44.0335
1.128, 2, 35.9151, 48.1278, -14.08, 97.4483, -51.5278, 44.0335
1.132, 2, 35.9151, 48.1278, -14.08, 97.4483, -51.5278, 44.0335
1.136, 2, 35.9151, 48.1278, -14.08, 97.4483, -51.5278, 44.0335
1.14, 2, 35.9151, 48.1278, -14.08, 97.4483, -51.5278, 44.0335
1.144, 2, 35.9151, 48.1278, -14.08, 97.4483, -51.5278, 44.0335
1.147, 2, 35.9151, 48.1278, -14.08, 97.4483, -51.5278, 44.0335
1.152, 2, 35.9151, 48.1278, -14.08, 97.4483, -51.5278, 44.0335
1.156, 2, 35.9151, 48.1278, -14.08, 97.4483, -51.5278, 44.0335
1.16, 2, 35.9151, 48.1278, -14.08, 97.4483, -51.5278, 44.0335
1.164, 2, 35.9151, 48.1278, -14.08, 97.4483, -51.5278, 44.0335
1.168, 2, 35.9151, 48.1278, -14.08, 97.4483, -51.5278, 44.0335
1.172, 2, 35.9151, 48.1278, -14.08, 97.4483, -51.5278, 44.0335
1.175, 2, 35.9151, 48.1278, -14.08, 97.4483, -51.5278, 44.0335
1.18, 2, 35.9151, 48.1278, -14.08, 97.4483, -51.5278, 44.0335
1.184, 2, 35.9151, 48.1278, -14.08, 97.4483, -51.5278, 44.0335
1.188, 2, 35.9151, 48.1278, -14.08, 97.4483, -51.5278, 44.0335
1.192, 2, 35.9151, 48.1278, -14.08, 97.4483, -51.5278, 44.0335
1.196, 2, 35.9151, 48.1278, -14.08, 97.4483, -51.5278, 44.0335
1.2, 2, 35.9151, 48.1278, -14.08, 97.4483, -51.5278, 44.0335
1.204, 2, 35.9151, 48.1278, -14.08, 97.4483, -51.5278, 44.0335
1.208, 2, 35.9151, 48.1278, -14.08, 97.4483, -51.5278, 44.0335
1.212, 2, 35.9151, 48.1278, -14.08, 97.4483, -51.5278, 44.0335
1.216, 2, 35.9151, 48.1278, -14.08, 97.4483, -51.5278, 44.0335
1.22, 2, 35.9151, 48.1278, -14.08, 97.4483, -51.5278, 44.0335
1.224, 2, 35.9151, 48.1278, -14.08, 97.4483, -51.5278, 44.0335
1.228, 2, 35.9151, 48.1278, -14.08, 97.4483, -51.5278, 44.0335
1.232, 2, 35.9151, 48.1278, -14.08, 97.4483, -51.5278, 44.0335
1.236, 2, 35.9151, 48.1278, -14.08, 97.4483, -51.5278, 44.0335
1.24, 2, 35.9151, 48.1278, -14.08, 97.4483, -51.5278, 44.0335
1.244, 2, 35.9151, 48.1278, -14.08, 97.4483, -51.5278, 44.0335
1.248, 2, 35.9151, 48.1278, -14.08, 97.4483, -51.5278, 44.0335
1.252, 2, 35.9151, 48.1278, -14.08, 97.4483, -51.5278, 44.0335
1.256, 2, 35.9151, 48.1278, -14.08, 97.4483, -51.5278, 44.0335
1.26, 2, 35.9151, 48.1278, -14.08, 97.4483, -51.5278, 44.0335
1.264, 2, 35.9151, 48.1278, -14.08, 97.4483, -51.5278, 44.0335
1.267, 2, 35.9151, 48.1278, -14.08, 97.4483, -51.5278, 44.0335
1.272, 2, 35.9151, 48.1278, -14.08, 97.4483, -51.5278, 44.0335
1.276, 2, 35.9151, 48.1278, -14.08, 97.4483, -51.5278, 44.0335
1.28, 2, 35.9151, 48.1278, -14.08, 97.4483, -51.5278, 44.0335
1.284, 2, 35.9151, 48.1278, -14.08, 97.4483, -51.5278, 44.0335
1.288, 2, 35.9151, 48.1278, -14.08, 97.4483, -51.5278, 44.0335
1.292, 2, 35.9151, 48.1278, -14.08, 97.4483, -51.5278, 44.0335
1.295, 2, 35.9151, 48.1278, -14.08, 97.4483, -51.5278, 44.0335
1.3, 2, 35.9151, 48.1278, -14.08, 97.4483, -51.5278, 44.0335
1.304, 2, 35.9151, 48.1278, -14.08, 97.4483, -51.5278, 44.0335
1.308, 2, 35.9151, 48.1278, -14.08, 97.4483, -51.5278, 44.0335
1.312, 2, 35.9151, 48.1278, -14.08, 97.4483, -51.5278, 44.0335
1.316, 2, 35.9151, 48.1278, -14.08, 97.4483, -51.5278, 44.0335
1.32, 2, 35.9151, 48.1278, -14.08, 97.4483, -51.5278, 44.0335
1.324, 2, 35.9151, 48.1278, -14.08, 97.4483, -51.5278, 44.0335
1.328, 2, 35.9151, 48.1278, -14.08, 97.4483, -51.5278, 44.0335
1.332, 2, 35.9151, 48.1278, -14.08, 97.4483, -51.5278, 44.0335
1.336, 2, 35.9151, 48.1278, -14.08, 97.4483, -51.5278, 44.0335
1.34, 2, 35.9151, 48.1278, -14.08, 97.4483, -51.5278, 44.0335
1.344, 2, 35.9151, 48.1278, -14.08, 97.4483, -51.5278, 44.0335
1.348, 2, 35.9151, 48.1278, -14.08, 97.4483, -51.5278, 44.0335
1.352, 2, 35.9151, 48.1278, -14.08, 97.4483, -51.5278, 44.0335
1.356, 2, 35.9151, 48.1278, -14.08, 97.4483, -51.5278, 44.0335
1.36, 2, 35.9151, 48.1278, -14.08, 97.4483, -51.5278, 44.0335
1.364, 2, 35.9151, 48.1278, -14.08, 97.4483, -51.5278, 44.0335
1.368, 2, 35.9151, 48.1278, -14.08, 97.4483, -51.5278, 44.0335
1.372, 2, 35.9151, 48.1278, -14.08, 97.4483, -51.5278, 44.0335
1.376, 2, 35.9151, 48.1278, -14.08, 97.4483, -51.5278, 44.0335
1.38, 2, 35.9151, 48.1278, -14.08, 97.4483, -51.5278, 44.0335
1.384, 2, 35.9151, 48.1278, -14.08, 97.4483, -51.5278, 44.0335
1.388, 2, 35.9151, 48.1278, -14.08, 97.4483, -51.5278, 44.0335
1.392, 2, 35.9151, 48.1278, -14.08, 97.4483, -51.5278, 44.0335
1.396, 2, 35.9151, 48.1278, -14.08, 97.4483, -51.5278, 44.0335
1.4, 2, 35.9151, 48.1278, -14.08, 97.4483, -51.5278, 44.0335
1.404, 2, 35.9151, 48.1278, -14.08, 97.4483, -51.5278, 44.0335
1.408, 2, 35.9151, 48.1278, -14.08, 97.4483, -51.5278, 44.0335
1.412, 2, 35.9151, 48.1278, -14.08, 97.4483, -51.5278, 44.0335
1.416, 2, 35.9151, 48.1278, -14.08, 97.4483, -51.5278, 44.0335
1.42, 2, 35.9151, 48.1278, -14.08, 97.4483, -51.5278, 44.0335
1.424, 2, 35.9151, 48.1278, -14.08, 97.4483, -51.5278, 44.0335
1.428, 2, 35.9151, 48.1278, -14.08, 97.4483, -51.5278, 44.0335
1.432, 2, 35.9151, 48.1278, -14.08, 97.4483, -51.5278, 44.0335
1.436, 2, 35.9151, 48.1278, -14.08, 97.4483, -51.5278, 44.0335
1.44, 2, 35.9151, 48.1278, -14.08, 97.4483, -51.5278, 44.0335
1.444, 2, 35.9151, 48.1278, -14.08, 97.4483, -51.5278, 44.0335
1.448, 2, 35.9151, 48.1278, -14.08, 97.4483, -51.5278, 44.0335
1.452, 2, 35.9151, 48.1278, -14.08, 97.4483, -51.5278, 44.0335
1.456, 2, 35.9151, 48.1278, -14.08, 97.4483, -51.5278, 44.0335
1.46, 2, 35.9151, 48.1278, -14.08, 97.4483, -51.5278, 44.0335
1.464, 2, 35.9151, 48.1278, -14.08, 97.4483, -51.5278, 44.0335
1.468, 2, 35.9151, 48.1278, -14.08, 97.4483, -51.5278, 44.0335
1.472, 2, 35.9151, 48.1278, -14.08, 97.4483, -51.5278, 44.0335
1.476, 2, 35.9151, 48.1278, -14.08, 97.4483, -51.5278, 44.0335
1.48, 2, 35.9151, 48.1278, -14.08, 97.4483, -51.5278, 44.0335
1.484, 2, 35.9151, 48.1278, -14.08, 97.4483, -51.5278, 44.0335
1.488, 2, 35.9151, 48.1278, -14.08, 97.4483, -51.5278, 44.0335
1.492, 2, 35.9151, 48.1278, -14.08, 97.4483, -51.5278, 44.0335
1.496, 2, 35.9151, 48.1278, -14.08, 97.4483, -51.5278, 44.0335
1.5, 2, 35.9151, 48.1278, -14.08, 97.4483, -51.5278, 44.0335
1.504, 2, 35.9151, 48.1278, -14.08, 97.4483, -51.5278, 44.0335
1.508, 2, 35.9151, 48.1278, -14.08, 97.4483, -51.5278, 44.0335
1.512, 2, 35.9151, 48.1278, -14.08, 97.4483, -51.5278, 44.0335
1.516, 2, 35.9151, 48.1278, -14.08, 97.4483, -51.5278, 44.0335
1.52, 2, 35.9151, 48.1278, -14.08, 97.4483, -51.5278, 44.0335
1.524, 2, 35.9151, 48.1278, -14.08, 97.4483, -51.5278, 44.0335
1.528, 2, 35.9151, 48.1278, -14.08, 97.4483, -51.5278, 44.0335
1.532, 2, 35.9151, 48.1278, -14.08, 97.4483, -51.5278, 44.0335
1.536, 2, 35.9151, 48.1278, -14.08, 97.4483, -51.5278, 44.0335
1.54, 2, 35.9151, 48.1278, -14.08, 97.4483, -51.5278, 44.0335
1.544, 2, 35.9151, 48.1278, -14.08, 97.4483, -51.5278, 44.0335
1.548, 2, 35.9151, 48.1278, -14.08, 97.4483, -51.5278, 44.0335
1.552, 2, 35.9151, 48.1278, -14.08, 97.4483, -51.5278, 44.0335
1.556, 2, 35.9151, 48.1278, -14.08, 97.4483, -51.5278, 44.0335
1.56, 2, 35.9151, 48.1278, -14.08, 97.4483, -51.5278, 44.0335
1.564, 2, 35.9151, 48.1278, -14.08, 97.4483, -51.5278, 44.0335
1.568, 2, 35.9151, 48.1278, -14.08, 97.4483, -51.5278, 44.0335
1.572, 2, 35.9151, 48.1278, -14.08, 97.4483, -51.5278, 44.0335
1.576, 2, 35.9151, 48.1278, -14.08, 97.4483, -51.5278, 44.0335
1.58, 2, 35.9151, 48.1278, -14.08, 97.4483, -51.5278, 44.0335
1.584, 2, 35.9151, 48.1278, -14.08, 97.4483, -51.5278, 44.0335
1.588, 2, 35.9151, 48.1278, -14.08, 97.4483, -51.5278, 44.0335
1.592, 2, 35.9151, 48.1278, -14.08, 97.4483, -51.5278, 44.0335
1.596, 2, 35.9151, 48.1278, -14.08, 97.4483, -51.5278, 44.0335
1.6, 2, 35.9151, 48.1278, -14.08, 97.4483, -51.5278, 44.0335
1.604, 2, 35.9151, 48.1278, -14.08, 97.4483, -51.5278, 44.0335
1.608, 2, 35.9151, 48.1278, -14.08, 97.4483, -51.5278, 44.0335
1.612, 2, 35.9151, 48.1278, -14.08, 97.4483, -51.5278, 44.0335
1.616, 2, 35.9151, 48.1278, -14.08, 97.4483, -51.5278, 44.0335
1.62, 2, 35.9151, 48.1278, -14.08, 97.4483, -51.5278, 44.0335
1.624, 2, 35.9151, 48.1278, -14.08, 97.4483, -51.5278, 44.0335
1.628, 2, 35.9151, 48.1278, -14.08, 97.4483, -51.5278, 44.0335
1.632, 2, 35.9151, 48.1278, -14.08, 97.4483, -51.5278, 44.0335
1.636, 2, 35.9151, 48.1278, -14.08, 97.4483, -51.5278, 44.0335
1.64, 2, 35.9151, 48.1278, -14.08, 97.4483, -51.5278, 44.0335
1.644, 2, 35.9151, 48.1278, -14.08, 97.4483, -51.5278, 44.0335
1.648, 2, 35.9151, 48.1278, -14.08, 97.4483, -51.5278, 44.0335
1.652, 2, 35.9151, 48.1278, -14.08, 97.4483, -51.5278, 44.0335
1.656, 2, 35.9151, 48.1278, -14.08, 97.4483, -51.5278, 44.0335
1.66, 2, 35.9151, 48.1278, -14.08, 97.4483, -51.5278, 44.0335
1.664, 2, 35.9151, 48.1278, -14.08, 97.4483, -51.5278, 44.0335
1.668, 2, 35.9151, 48.1278, -14.08, 97.4483, -51.5278, 44.0335
1.672, 2, 35.9151, 48.1278, -14.08, 97.4483, -51.5278, 44.0335
1.676, 2, 35.9151, 48.1278, -14.08, 97.4483, -51.5278, 44.0335
1.68, 2, 35.9151, 48.1278, -14.08, 97.4483, -51.5278, 44.0335
1.684, 2, 35.9151, 48.1278, -14.08, 97.4483, -51.5278, 44.0335
1.688, 2, 35.9151, 48.1278, -14.08, 97.4483, -51.5278, 44.0335
1.692, 2, 35.9151, 48.1278, -14.08, 97.4483, -51.5278, 44.0335
1.696, 2, 35.9151, 48.1278, -14.08, 97.4483, -51.5278, 44.0335
1.7, 2, 35.9151, 48.1278, -14.08, 97.4483, -51.5278, 44.0335
1.704, 2, 35.9151, 48.1278, -14.08, 97.4483, -51.5278, 44.0335
1.708, 2, 35.9151, 48.1278, -14.08, 97.4483, -51.5278, 44.0335
1.712, 2, 35.9151, 48.1278, -14.08, 97.4483, -51.5278, 44.0335
1.716, 2, 35.9151, 48.1278, -14.08, 97.4483, -51.5278, 44.0335
1.72, 2, 35.9151, 48.1278, -14.08, 97.4483, -51.5278, 44.0335
1.724, 2, 35.9151, 48.1278, -14.08, 97.4483, -51.5278, 44.0335
1.728, 2, 35.9151, 48.1278, -14.08, 97.4483, -51.5278, 44.0335
1.732, 2, 35.9151, 48.1278, -14.08, 97.4483, -51.5278, 44.0335
1.736, 2, 35.9151, 48.1278, -14.08, 97.4483, -51.5278, 44.0335
1.74, 2, 35.9151, 48.1278, -14.08, 97.4483, -51.5278, 44.0335
1.744, 2, 35.9151, 48.1278, -14.08, 97.4483, -51.5278, 44.0335
1.748, 2, 35.9151, 48.1278, -14.08, 97.4483, -51.5278, 44.0335
1.752, 2, 35.9151, 48.1278, -14.08, 97.4483, -51.5278, 44.0335
1.756, 2, 35.9151, 48.1278, -14.08, 97.4483, -51.5278, 44.0335
1.76, 2, 35.9151, 48.1278, -14.08, 97.4483, -51.5278, 44.0335
1.764, 2, 35.9151, 48.1278, -14.08, 97.4483, -51.5278, 44.0335
1.768, 2, 35.9151, 48.1278, -14.08, 97.4483, -51.5278, 44.0335
1.772, 2, 35.9151, 48.1278, -14.08, 97.4483, -51.5278, 44.0335
1.776, 2, 35.9151, 48.1278, -14.08, 97.4483, -51.5278, 44.0335
1.78, 2, 35.9151, 48.1278, -14.08, 97.4483, -51.5278, 44.0335
1.784, 2, 35.9151, 48.1278, -14.08, 97.4483, -51.5278, 44.0335
1.788, 2, 35.9151, 48.1278, -14.08, 97.4483, -51.5278, 44.0335
1.792, 2, 35.9151, 48.1278, -14.08, 97.4483, -51.5278, 44.0335
1.796, 2, 35.9151, 48.1278, -14.08, 97.4483, -51.5278, 44.0335
1.8, 2, 35.9151, 48.1278, -14.08, 97.4483, -51.5278, 44.0335
1.804, 2, 35.9151, 48.1278, -14.08, 97.4483, -51.5278, 44.0335
1.808, 2, 35.9151, 48.1278, -14.08, 97.4483, -51.5278, 44.0335
1.812, 2, 35.9151, 48.1278, -14.08, 97.4483, -51.5278, 44.0335
1.816, 2, 35.9151, 48.1278, -14.08, 97.4483, -51.5278, 44.0335
1.82, 2, 35.9151, 48.1278, -14.08, 97.4483, -51.5278, 44.0335
1.824, 2, 35.9151, 48.1278, -14.08, 97.4483, -51.5278, 44.0335
1.828, 2, 35.9151, 48.1278, -14.08, 97.4483, -51.5278, 44.0335
1.832, 2, 35.9151, 48.1278, -14.08, 97.4483, -51.5278, 44.0335
1.836, 2, 35.9151, 48.1278, -14.08, 97.4483, -51.5278, 44.0335
1.84, 2, 35.9151, 48.1278, -14.08, 97.4483, -51.5278, 44.0335
1.844, 2, 35.9151, 48.1278, -14.08, 97.4483, -51.5278, 44.0335
1.848, 2, 35.9151, 48.1278, -14.08, 97.4483, -51.5278, 44.0335
1.852, 2, 35.9151, 48.1278, -14.08, 97.4483, -51.5278, 44.0335
1.856, 2, 35.9151, 48.1278, -14.08, 97.4483, -51.5278, 44.0335
1.86, 2, 35.9151, 48.1278, -14.08, 97.4483, -51.5278, 44.0335
1.864, 2, 35.9151, 48.1278, -14.08, 97.4483, -51.5278, 44.0335
1.868, 2, 35.9151, 48.1278, -14.08, 97.4483, -51.5278, 44.0335
1.872, 2, 35.9151, 48.1278, -14.08, 97.4483, -51.5278, 44.0335
1.876, 2, 35.9151, 48.1278, -14.08, 97.4483, -51.5278, 44.0335
1.88, 2, 35.9151, 48.1278, -14.08, 97.4483, -51.5278, 44.0335
1.884, 2, 35.9151, 48.1278, -14.08, 97.4483, -51.5278, 44.0335
1.888, 2, 35.9151, 48.1278, -14.08, 97.4483, -51.5278, 44.0335
1.892, 2, 35.9151, 48.1278, -14.08, 97.4483, -51.5278, 44.0335
1.896, 2, 35.9151, 48.1278, -14.08, 97.4483, -51.5278, 44.0335
1.9, 2, 35.9151, 48.1278, -14.08, 97.4483, -51.5278, 44.0335
1.904, 2, 35.9151, 48.1278, -14.08, 97.4483, -51.5278, 44.0335
1.908, 2, 35.9151, 48.1278, -14.08, 97.4483, -51.5278, 44.0335
1.912, 2, 35.9151, 48.1278, -14.08, 97.4483, -51.5278, 44.0335
1.916, 2, 35.9151, 48.1278, -14.08, 97.4483, -51.5278, 44.0335
1.92, 2, 35.9151, 48.1278, -14.08, 97.4483, -51.5278, 44.0335
1.924, 2, 35.9151, 48.1278, -14.08, 97.4483, -51.5278, 44.0335
1.928, 2, 35.9151, 48.1278, -14.08, 97.4483, -51.5278, 44.0335
1.932, 2, 35.9151, 48.1278, -14.08, 97.4483, -51.5278, 44.0335
1.936, 2, 35.9151, 48.1278, -14.08, 97.4483, -51.5278, 44.0335
1.94, 2, 35.9151, 48.1278, -14.08, 97.4483, -51.5278, 44.0335
1.944, 2, 35.9151, 48.1278, -14.08, 97.4483, -51.5278, 44.0335
1.948, 2, 35.9151, 48.1278, -14.08, 97.4483, -51.5278, 44.0335
1.952, 2, 35.9151, 48.1278, -14.08, 97.4483, -51.5278, 44.0335
1.956, 2, 35.9151, 48.1278, -14.08, 97.4483, -51.5278, 44.0335
1.96, 2, 35.9151, 48.1278, -14.08, 97.4483, -51.5278, 44.0335
1.964, 2, 35.9151, 48.1278, -14.08, 97.4483, -51.5278, 44.0335
1.968, 2, 35.9151, 48.1278, -14.08, 97.4483, -51.5278, 44.0335
1.972, 2, 35.9151, 48.1278, -14.08, 97.4483, -51.5278, 44.0335
1.976, 2, 35.9151, 48.1278, -14.08, 97.4483, -51.5278, 44.0335
1.98, 2, 35.9151, 48.1278, -14.08, 97.4483, -51.5278, 44.0335
1.984, 2, 35.9151, 48.1278, -14.08, 97.4483, -51.5278, 44.0335
1.988, 2, 35.9151, 48.1278, -14.08, 97.4483, -51.5278, 44.0335
1.992, 2, 35.9151, 48.1278, -14.08, 97.4483, -51.5278, 44.0335
1.996, 2, 35.9151, 48.1278, -14.08, 97.4483, -51.5278, 44.0335
1.999, 2, 35.9151, 48.1278, -14.08, 97.4483, -51.5278, 44.0335
2.004, 2, 35.9151, 48.1278, -14.08, 97.4483, -51.5278, 44.0335
2.008, 2, 35.9151, 48.1278, -14.08, 97.4483, -51.5278, 44.0335
2.012, 2, 35.9151, 48.1278, -14.08, 97.4483, -51.5278, 44.0335
2.015, 2, 35.9151, 48.1278, -14.08, 97.4483, -51.5278, 44.0335
2.019, 2, 35.9151, 48.1278, -14.08, 97.4483, -51.5278, 44.0335
2.024, 2, 35.9151, 48.1278, -14.08, 97.4483, -51.5278, 44.0335
2.028, 2, 35.9151, 48.1278, -14.08, 97.4483, -51.5278, 44.0335
2.031, 2, 35.9151, 48.1278, -14.08, 97.4483, -51.5278, 44.0335
2.036, 4, 35.9151, 48.1278, -14.08, 97.4483, -51.5278, 44.0335
2.04, 4, 35.9151, 48.1278, -14.08, 97.4483, -51.5278, 44.0335
2.044, 4, 35.9151, 48.1278, -14.08, 97.4483, -51.5278, 44.0335
2.048, 4, 35.9151, 48.1278, -14.08, 97.4483, -51.5278, 44.0335
2.051, 4, 35.9151, 48.1278, -14.08, 97.4483, -51.5278, 44.0335
2.055, 4, 35.9151, 48.1278, -14.08, 97.4483, -51.5278, 44.0335
2.06, 4, 35.9151, 48.1278, -14.08, 97.4483, -51.5278, 44.0335
2.064, 4, 35.9151, 48.1278, -14.08, 97.4483, -51.5278, 44.0335
2.068, 4, 35.9151, 48.1278, -14.08, 97.4483, -51.5278, 44.0335
2.071, 4, 35.9151, 48.1278, -14.08, 97.4483, -51.5278, 44.0335
2.076, 4, 35.9151, 48.1278, -14.08, 97.4483, -51.5278, 44.0335
2.08, 4, 35.9151, 48.1278, -14.08, 97.4483, -51.5278, 44.0335
2.084, 4, 35.9151, 48.1278, -14.08, 97.4483, -51.5278, 44.0335
2.087, 4, 35.9151, 48.1278, -14.08, 97.4483, -51.5278, 44.0335
2.092, 4, 35.9151, 48.1278, -14.08, 97.4483, -51.5278, 44.0335
2.096, 4, 35.9151, 48.1278, -14.08, 97.4483, -51.5278, 44.0335
2.1, 4, 35.9151, 48.1278, -14.08, 97.4483, -51.5278, 44.0335
2.104, 4, 35.9151, 48.1278, -14.08, 97.4483, -51.5278, 44.0335
2.107, 4, 35.9151, 48.1278, -14.08, 97.4483, -51.5278, 44.0335
2.111, 4, 35.9151, 48.1278, -14.08, 97.4483, -51.5278, 44.0335
2.116, 4, 35.9151, 48.1278, -14.08, 97.4483, -51.5278, 44.0335
2.12, 4, 35.9151, 48.1278, -14.08, 97.4483, -51.5278, 44.0335
2.124, 4, 35.9151, 48.1278, -14.08, 97.4483, -51.5278, 44.0335
2.127, 4, 35.9151, 48.1278, -14.08, 97.4483, -51.5278, 44.0335
2.132, 4, 35.9151, 48.1278, -14.08, 97.4483, -51.5278, 44.0335
2.136, 4, 35.9151, 48.1278, -14.08, 97.4483, -51.5278, 44.0335
2.142, 4, 35.9151, 48.1278, -14.08, 97.4483, -51.5278, 44.0335
2.144, 4, 35.9151, 48.1278, -14.08, 97.4483, -51.5278, 44.0335
2.147, 4, 35.9151, 48.1278, -14.08, 97.4483, -51.5278, 44.0335
2.152, 4, 35.9151, 48.1278, -14.08, 97.4483, -51.5278, 44.0335
2.156, 4, 35.9151, 48.1278, -14.08, 97.4483, -51.5278, 44.0335
2.16, 4, 35.9151, 48.1278, -14.08, 97.4483, -51.5278, 44.0335
2.163, 4, 35.9151, 48.1278, -14.08, 97.4483, -51.5278, 44.0335
2.168, 4, 35.9151, 48.1278, -14.08, 97.4483, -51.5278, 44.0335
2.172, 4, 35.9151, 48.1278, -14.08, 97.4483, -51.5278, 44.0335
2.176, 4, 35.9151, 48.1278, -14.08, 97.4483, -51.5278, 44.0335
2.179, 4, 35.9151, 48.1278, -14.08, 97.4483, -51.5278, 44.0335
2.184, 4, 35.9151, 48.1278, -14.08, 97.4483, -51.5278, 44.0335
2.188, 4, 35.9151, 48.128, -14.08, 97.4483, -51.5279, 44.0335
2.192, 4, 35.915, 48.1283, -14.0801, 97.4483, -51.5279, 44.0335
2.196, 4, 35.9148, 48.1289, -14.0801, 97.4483, -51.528, 44.0334
2.199, 4, 35.9145, 48.1299, -14.0802, 97.4483, -51.5283, 44.0332
2.204, 4, 35.9142, 48.1311, -14.0803, 97.4484, -51.5289, 44.0329
2.208, 4, 35.9138, 48.1325, -14.0805, 97.4485, -51.5299, 44.0322
2.212, 4, 35.9134, 48.1342, -14.0807, 97.4486, -51.5316, 44.0312
2.216, 4, 35.913, 48.136, -14.0811, 97.4488, -51.534, 44.0297
2.219, 4, 35.9126, 48.1378, -14.0816, 97.449, -51.5373, 44.0277
2.224, 4, 35.9123, 48.1398, -14.0823, 97.4494, -51.5416, 44.025
2.228, 5, 35.9121, 48.142, -14.0831, 97.4498, -51.5471, 44.0216
2.232, 5, 35.9118, 48.1443, -14.084, 97.4503, -51.5538, 44.0175
2.235, 5, 35.9116, 48.1469, -14.0852, 97.4509, -51.5616, 44.0126
2.24, 5, 35.9114, 48.1496, -14.0865, 97.4516, -51.5708, 44.007
2.244, 5, 35.9113, 48.1524, -14.0879, 97.4523, -51.5811, 44.0006
2.248, 5, 35.9113, 48.1553, -14.0895, 97.4532, -51.5925, 43.9935
2.252, 5, 35.9113, 48.1583, -14.0913, 97.4541, -51.605, 43.9858
2.255, 5, 35.9113, 48.1615, -14.0931, 97.4551, -51.6183, 43.9775
2.259, 5, 35.9113, 48.1648, -14.0951, 97.4561, -51.6323, 43.9689
2.264, 5, 35.9113, 48.1685, -14.0971, 97.4572, -51.6469, 43.9599
2.268, 5, 35.9112, 48.1725, -14.0992, 97.4583, -51.6619, 43.9506
2.272, 5, 35.911, 48.1767, -14.1014, 97.4594, -51.6772, 43.9412
2.275, 5, 35.9107, 48.1813, -14.1036, 97.4605, -51.6926, 43.9316
2.28, 5, 35.9104, 48.1859, -14.1058, 97.4616, -51.7082, 43.922
2.284, 5, 35.9101, 48.1908, -14.108, 97.4628, -51.7239, 43.9123
2.288, 5, 35.9097, 48.1956, -14.1102, 97.4639, -51.7396, 43.9026
2.291, 5, 35.9094, 48.2006, -14.1124, 97.465, -51.7554, 43.8929
2.296, 5, 35.909, 48.2056, -14.1147, 97.4662, -51.7712, 43.8832
2.3, 5, 35.9086, 48.2106, -14.1169, 97.4673, -51.787, 43.8734
2.304, 5, 35.9082, 48.2156, -14.1191, 97.4684, -51.8029, 43.8636
2.308, 5, 35.9078, 48.2206, -14.1214, 97.4695, -51.8187, 43.8539
2.311, 5, 35.9074, 48.2257, -14.1236, 97.4706, -51.8345, 43.8441
2.316, 5, 35.907, 48.2307, -14.1258, 97.4717, -51.8504, 43.8344
2.32, 5, 35.9066, 48.2357, -14.128, 97.4728, -51.8663, 43.8246
2.324, 5, 35.9062, 48.2408, -14.1303, 97.4739, -51.8821, 43.8149
2.328, 5, 35.9058, 48.2458, -14.1325, 97.475, -51.898, 43.8051
2.331, 5, 35.9054, 48.2509, -14.1347, 97.4761, -51.9138, 43.7954
2.336, 5, 35.905, 48.2559, -14.1369, 97.4772, -51.9297, 43.7857
2.34, 5, 35.9045, 48.261, -14.1391, 97.4783, -51.9455, 43.7759
2.344, 5, 35.9041, 48.266, -14.1413, 97.4793, -51.9614, 43.7662
2.347, 5, 35.9037, 48.271, -14.1436, 97.4804, -51.9772, 43.7565
2.352, 5, 35.9033, 48.2761, -14.1458, 97.4814, -51.9931, 43.7467
2.356, 5, 35.9029, 48.2811, -14.148, 97.4825, -52.0089, 43.737
2.36, 5, 35.9025, 48.2861, -14.1502, 97.4835, -52.0248, 43.7273
2.364, 5, 35.9021, 48.2912, -14.1524, 97.4846, -52.0406, 43.7176
2.367, 5, 35.9016, 48.2962, -14.1546, 97.4856, -52.0565, 43.7079
2.372, 5, 35.9012, 48.3012, -14.1568, 97.4866, -52.0723, 43.6982
2.376, 5, 35.9008, 48.3063, -14.1589, 97.4877, -52.0882, 43.6885
2.38, 5, 35.9004, 48.3113, -14.1611, 97.4887, -52.104, 43.6788
2.383, 5, 35.9, 48.3163, -14.1633, 97.4897, -52.1199, 43.6691
2.388, 5, 35.8995, 48.3214, -14.1655, 97.4907, -52.1357, 43.6594
2.392, 5, 35.8991, 48.3264, -14.1677, 97.4917, -52.1516, 43.6498
2.396, 5, 35.8987, 48.3314, -14.1699, 97.4927, -52.1674, 43.6401
2.4, 5, 35.8983, 48.3364, -14.172, 97.4937, -52.1833, 43.6304
2.403, 5, 35.8978, 48.3415, -14.1742, 97.4947, -52.1991, 43.6207
2.408, 5, 35.8974, 48.3465, -14.1764, 97.4957, -52.215, 43.6111
2.412, 5, 35.897, 48.3515, -14.1785, 97.4967, -52.2308, 43.6014
2.416, 5, 35.8966, 48.3565, -14.1807, 97.4976, -52.2466, 43.5918
2.42, 5, 35.8961, 48.3615, -14.1829, 97.4986, -52.2625, 43.5821
2.423, 5, 35.8957, 48.3665, -14.185, 97.4996, -52.2783, 43.5725
2.428, 5, 35.8953, 48.3716, -14.1872, 97.5005, -52.2942, 43.5628
2.432, 5, 35.8948, 48.3766, -14.1893, 97.5015, -52.31, 43.5532
2.436, 5, 35.8944, 48.3816, -14.1915, 97.5024, -52.3258, 43.5435
2.439, 5, 35.894, 48.3866, -14.1936, 97.5034, -52.3417, 43.5339
2.444, 5, 35.8935, 48.3916, -14.1958, 97.5043, -52.3575, 43.5243
2.448, 5, 35.8931, 48.3966, -14.1979, 97.5052, -52.3734, 43.5146
2.452, 5, 35.8927, 48.4016, -14.2001, 97.5062, -52.3892, 43.505
2.456, 5, 35.8922, 48.4066, -14.2022, 97.5071, -52.405, 43.4954
2.459, 5, 35.8918, 48.4116, -14.2043, 97.508, -52.4209, 43.4858
2.464, 5, 35.8914, 48.4166, -14.2065, 97.5089, -52.4367, 43.4762
2.468, 5, 35.8909, 48.4216, -14.2086, 97.5098, -52.4525, 43.4666
2.472, 5, 35.8905, 48.4266, -14.2107, 97.5107, -52.4683, 43.457
2.476, 5, 35.89, 48.4316, -14.2128, 97.5116, -52.4842, 43.4474
2.479, 5, 35.8896, 48.4366, -14.215, 97.5125, -52.5, 43.4378
2.484, 5, 35.8892, 48.4416, -14.2171, 97.5134, -52.5158, 43.4282
2.488, 5, 35.8887, 48.4466, -14.2192, 97.5142, -52.5317, 43.4186
2.492, 5, 35.8883, 48.4516, -14.2213, 97.5151, -52.5475, 43.409
2.495, 5, 35.8878, 48.4566, -14.2234, 97.516, -52.5633, 43.3995
2.5, 5, 35.8874, 48.4616, -14.2255, 97.5169, -52.5791, 43.3899
2.504, 5, 35.8869, 48.4666, -14.2276, 97.5177, -52.595, 43.3803
2.508, 5, 35.8865, 48.4716, -14.2297, 97.5186, -52.6108, 43.3707
2.512, 5, 35.886, 48.4765, -14.2318, 97.5194, -52.6266, 43.3612
2.515, 5, 35.8856, 48.4815, -14.2339, 97.5203, -52.6424, 43.3516
2.52, 5, 35.8851, 48.4865, -14.236, 97.5211, -52.6583, 43.3421
2.524, 5, 35.8847, 48.4915, -14.2381, 97.5219, -52.6741, 43.3325
2.528, 5, 35.8842, 48.4965, -14.2402, 97.5228, -52.6899, 43.323
2.531, 5, 35.8838, 48.5014, -14.2423, 97.5236, -52.7057, 43.3134
2.536, 5, 35.8833, 48.5064, -14.2444, 97.5244, -52.7215, 43.3039
2.54, 5, 35.8829, 48.5114, -14.2465, 97.5252, -52.7374, 43.2944
2.544, 5, 35.8824, 48.5164, -14.2486, 97.526, -52.7532, 43.2848
2.548, 5, 35.8819, 48.5214, -14.2506, 97.5268, -52.769, 43.2753
2.551, 5, 35.8815, 48.5263, -14.2527, 97.5276, -52.7848, 43.2658
2.556, 5, 35.881, 48.5313, -14.2548, 97.5284, -52.8006, 43.2563
2.56, 5, 35.8806, 48.5363, -14.2569, 97.5292, -52.8164, 43.2467
2.564, 5, 35.8801, 48.5412, -14.2589, 97.53, -52.8323, 43.2372
2.568, 5, 35.8797, 48.5462, -14.261, 97.5307, -52.8481, 43.2277
2.571, 5, 35.8792, 48.5512, -14.263, 97.5315, -52.8639, 43.2182
2.576, 5, 35.8787, 48.5561, -14.2651, 97.5323, -52.8797, 43.2087
2.58, 5, 35.8783, 48.5611, -14.2672, 97.533, -52.8955, 43.1992
2.584, 5, 35.8778, 48.5661, -14.2692, 97.5338, -52.9113, 43.1897
2.587, 5, 35.8773, 48.571, -14.2713, 97.5345, -52.9271, 43.1802
2.592, 5, 35.8769, 48.576, -14.2733, 97.5353, -52.9429, 43.1708
2.596, 5, 35.8764, 48.5809, -14.2754, 97.536, -52.9587, 43.1613
2.6, 5, 35.8759, 48.5859, -14.2774, 97.5368, -52.9745, 43.1518
2.604, 5, 35.8755, 48.5908, -14.2794, 97.5375, -52.9903, 43.1423
2.607, 5, 35.875, 48.5958, -14.2815, 97.5382, -53.0061, 43.1329
2.612, 5, 35.8745, 48.6007, -14.2835, 97.5389, -53.0219, 43.1234
2.616, 5, 35.874, 48.6057, -14.2855, 97.5396, -53.0378, 43.1139
2.62, 5, 35.8736, 48.6106, -14.2876, 97.5403, -53.0536, 43.1045
2.624, 5, 35.8731, 48.6156, -14.2896, 97.541, -53.0694, 43.095
2.627, 5, 35.8726, 48.6205, -14.2916, 97.5417, -53.0852, 43.0856
2.632, 5, 35.8721, 48.6255, -14.2936, 97.5424, -53.101, 43.0761
2.636, 5, 35.8717, 48.6304, -14.2957, 97.5431, -53.1168, 43.0667
2.64, 5, 35.8712, 48.6354, -14.2977, 97.5438, -53.1326, 43.0573
2.643, 5, 35.8707, 48.6403, -14.2997, 97.5445, -53.1483, 43.0478
2.648, 5, 35.8702, 48.6452, -14.3017, 97.5452, -53.1641, 43.0384
2.652, 5, 35.8697, 48.6502, -14.3037, 97.5458, -53.1799, 43.029
2.656, 5, 35.8693, 48.6551, -14.3057, 97.5465, -53.1957, 43.0195
2.66, 5, 35.8688, 48.6601, -14.3077, 97.5472, -53.2115, 43.0101
2.663, 5, 35.8683, 48.665, -14.3097, 97.5478, -53.2273, 43.0007
2.668, 5, 35.8678, 48.6699, -14.3117, 97.5485, -53.2431, 42.9913
2.672, 5, 35.8673, 48.6749, -14.3137, 97.5491, -53.2589, 42.9819
2.676, 5, 35.8668, 48.6798, -14.3157, 97.5497, -53.2747, 42.9725
2.679, 5, 35.8664, 48.6847, -14.3177, 97.5504, -53.2905, 42.9631
2.684, 5, 35.8659, 48.6896, -14.3197, 97.551, -53.3063, 42.9537
2.688, 5, 35.8654, 48.6946, -14.3216, 97.5516, -53.3221, 42.9443
2.692, 5, 35.8649, 48.6995, -14.3236, 97.5522, -53.3379, 42.9349
2.696, 5, 35.8644, 48.7044, -14.3256, 97.5529, -53.3536, 42.9255
2.699, 5, 35.8639, 48.7093, -14.3276, 97.5535, -53.3694, 42.9161
2.704, 5, 35.8634, 48.7143, -14.3296, 97.5541, -53.3852, 42.9068
2.708, 5, 35.8629, 48.7192, -14.3315, 97.5547, -53.401, 42.8974
2.712, 5, 35.8624, 48.7241, -14.3335, 97.5553, -53.4168, 42.888
2.716, 5, 35.8619, 48.729, -14.3355, 97.5558, -53.4326, 42.8786
2.719, 5, 35.8614, 48.7339, -14.3374, 97.5564, -53.4483, 42.8693
2.724, 5, 35.8609, 48.7388, -14.3394, 97.557, -53.4641, 42.8599
2.728, 5, 35.8604, 48.7437, -14.3413, 97.5576, -53.4799, 42.8506
2.732, 5, 35.8599, 48.7487, -14.3433, 97.5581, -53.4957, 42.8412
2.735, 5, 35.8594, 48.7536, -14.3452, 97.5587, -53.5115, 42.8319
2.74, 5, 35.8589, 48.7585, -14.3472, 97.5593, -53.5272, 42.8225
2.744, 5, 35.8584, 48.7634, -14.3491, 97.5598, -53.543, 42.8132
2.748, 5, 35.8579, 48.7683, -14.3511, 97.5604, -53.5588, 42.8038
2.752, 5, 35.8574, 48.7732, -14.353, 97.5609, -53.5746, 42.7945
2.755, 5, 35.8569, 48.7781, -14.3549, 97.5614, -53.5904, 42.7852
2.76, 5, 35.8564, 48.783, -14.3569, 97.562, -53.6061, 42.7759
2.764, 5, 35.8559, 48.7879, -14.3588, 97.5625, -53.6219, 42.7665
2.768, 5, 35.8554, 48.7928, -14.3607, 97.563, -53.6377, 42.7572
2.772, 5, 35.8549, 48.7977, -14.3627, 97.5635, -53.6534, 42.7479
2.775, 5, 35.8544, 48.8026, -14.3646, 97.5641, -53.6692, 42.7386
2.78, 5, 35.8539, 48.8075, -14.3665, 97.5646, -53.685, 42.7293
2.784, 5, 35.8534, 48.8124, -14.3684, 97.5651, -53.7008, 42.72
2.788, 5, 35.8529, 48.8173, -14.3703, 97.5656, -53.7165, 42.7107
2.791, 5, 35.8524, 48.8221, -14.3723, 97.566, -53.7323, 42.7014
2.796, 5, 35.8518, 48.827, -14.3742, 97.5665, -53.7481, 42.6921
2.8, 5, 35.8513, 48.8319, -14.3761, 97.567, -53.7638, 42.6828
2.804, 5, 35.8508, 48.8368, -14.378, 97.5675, -53.7796, 42.6735
2.808, 5, 35.8503, 48.8417, -14.3799, 97.568, -53.7953, 42.6642
2.811, 5, 35.8498, 48.8466, -14.3818, 97.5684, -53.8111, 42.655
2.816, 5, 35.8493, 48.8514, -14.3837, 97.5689, -53.8269, 42.6457
2.82, 5, 35.8488, 48.8563, -14.3856, 97.5694, -53.8426, 42.6364
2.824, 5, 35.8482, 48.8612, -14.3875, 97.5698, -53.8584, 42.6272
2.828, 5, 35.8477, 48.8661, -14.3893, 97.5703, -53.8742, 42.6179
2.831, 5, 35.8472, 48.871, -14.3912, 97.5707, -53.8899, 42.6086
2.836, 5, 35.8467, 48.8758, -14.3931, 97.5711, -53.9057, 42.5994
2.84, 5, 35.8461, 48.8807, -14.395, 97.5716, -53.9214, 42.5901
2.844, 5, 35.8456, 48.8856, -14.3969, 97.572, -53.9372, 42.5809
2.847, 5, 35.8451, 48.8904, -14.3987, 97.5724, -53.953, 42.5716
2.852, 5, 35.8446, 48.8953, -14.4006, 97.5728, -53.9687, 42.5624
2.856, 5, 35.844, 48.9002, -14.4025, 97.5733, -53.9845, 42.5532
2.86, 5, 35.8435, 48.905, -14.4044, 97.5737, -54.0002, 42.5439
2.864, 5, 35.843, 48.9099, -14.4062, 97.5741, -54.016, 42.5347
2.867, 5, 35.8425, 48.9148, -14.4081, 97.5745, -54.0317, 42.5255
2.872, 5, 35.8419, 48.9196, -14.4099, 97.5749, -54.0475, 42.5162
2.876, 5, 35.8414, 48.9245, -14.4118, 97.5753, -54.0632, 42.507
2.88, 5, 35.8409, 48.9293, -14.4136, 97.5756, -54.079, 42.4978
2.883, 5, 35.8403, 48.9342, -14.4155, 97.576, -54.0947, 42.4886
2.888, 5, 35.8398, 48.9391, -14.4173, 97.5764, -54.1105, 42.4794
2.892, 5, 35.8393, 48.9439, -14.4192, 97.5768, -54.1262, 42.4702
2.896, 5, 35.8387, 48.9488, -14.421, 97.5771, -54.142, 42.461
2.9, 5, 35.8382, 48.9536, -14.4229, 97.5775, -54.1577, 42.4518
2.903, 5, 35.8377, 48.9585, -14.4247, 97.5778, -54.1735, 42.4426
2.908, 5, 35.8371, 48.9633, -14.4265, 97.5782, -54.1892, 42.4334
2.912, 5, 35.8366, 48.9682, -14.4284, 97.5785, -54.2049, 42.4242
2.916, 5, 35.836, 48.973, -14.4302, 97.5789, -54.2207, 42.415
2.92, 5, 35.8355, 48.9778, -14.432, 97.5792, -54.2364, 42.4059
2.923, 5, 35.835, 48.9827, -14.4338, 97.5795, -54.2522, 42.3967
2.928, 5, 35.8344, 48.9875, -14.4357, 97.5799, -54.2679, 42.3875
2.932, 5, 35.8339, 48.9924, -14.4375, 97.5802, -54.2836, 42.3783
2.936, 5, 35.8333, 48.9972, -14.4393, 97.5805, -54.2994, 42.3692
2.939, 5, 35.8328, 49.002, -14.4411, 97.5808, -54.3151, 42.36
2.944, 5, 35.8322, 49.0069, -14.4429, 97.5811, -54.3308, 42.3509
2.948, 5, 35.8317, 49.0117, -14.4447, 97.5814, -54.3466, 42.3417
2.952, 5, 35.8311, 49.0165, -14.4465, 97.5817, -54.3623, 42.3325
2.956, 5, 35.8306, 49.0214, -14.4483, 97.582, -54.3781, 42.3234
2.959, 5, 35.83, 49.0262, -14.4501, 97.5823, -54.3938, 42.3143
2.964, 5, 35.8295, 49.031, -14.4519, 97.5826, -54.4095, 42.3051
2.968, 5, 35.8289, 49.0359, -14.4537, 97.5829, -54.4252, 42.296
2.972, 5, 35.8284, 49.0407, -14.4555, 97.5831, -54.441, 42.2868
2.976, 5, 35.8278, 49.0455, -14.4573, 97.5834, -54.4567, 42.2777
2.98, 5, 35.8273, 49.0503, -14.459, 97.5837, -54.4724, 42.2686
2.984, 5, 35.8267, 49.0551, -14.4608, 97.5839, -54.4882, 42.2595
2.988, 5, 35.8262, 49.06, -14.4626, 97.5842, -54.5039, 42.2503
2.992, 5, 35.8256, 49.0648, -14.4644, 97.5844, -54.5196, 42.2412
2.995, 5, 35.8251, 49.0696, -14.4661, 97.5847, -54.5353, 42.2321
3, 5, 35.8245, 49.0744, -14.4679, 97.5849, -54.5511, 42.223
3.004, 5, 35.8239, 49.0792, -14.4697, 97.5851, -54.5668, 42.2139
3.008, 5, 35.8234, 49.084, -14.4714, 97.5854, -54.5825, 42.2048
3.012, 5, 35.8228, 49.0888, -14.4732, 97.5856, -54.5982, 42.1957
3.015, 5, 35.8223, 49.0937, -14.475, 97.5858, -54.6139, 42.1866
3.02, 5, 35.8217, 49.0985, -14.4767, 97.586, -54.6297, 42.1775
3.024, 5, 35.8211, 49.1033, -14.4785, 97.5863, -54.6454, 42.1684
3.028, 5, 35.8206, 49.1081, -14.4802, 97.5865, -54.6611, 42.1593
3.031, 5, 35.82, 49.1129, -14.482, 97.5867, -54.6768, 42.1503
3.036, 5, 35.8194, 49.1177, -14.4837, 97.5868, -54.6925, 42.1412
3.04, 5, 35.8189, 49.1225, -14.4854, 97.587, -54.7083, 42.1321
3.044, 5, 35.8183, 49.1273, -14.4872, 97.5872, -54.724, 42.123
3.048, 5, 35.8177, 49.1321, -14.4889, 97.5874, -54.7397, 42.114
3.051, 5, 35.8171, 49.1369, -14.4906, 97.5876, -54.7554, 42.1049
3.056, 5, 35.8166, 49.1417, -14.4924, 97.5878, -54.7711, 42.0958
3.06, 5, 35.816, 49.1465, -14.4941, 97.5879, -54.7868, 42.0868
3.064, 5, 35.8154, 49.1512, -14.4958, 97.5881, -54.8025, 42.0777
3.068, 5, 35.8149, 49.156, -14.4975, 97.5883, -54.8182, 42.0687
3.071, 5, 35.8143, 49.1608, -14.4993, 97.5884, -54.834, 42.0596
3.076, 5, 35.8137, 49.1656, -14.501, 97.5886, -54.8497, 42.0506
3.08, 5, 35.8131, 49.1704, -14.5027, 97.5887, -54.8654, 42.0415
3.084, 5, 35.8125, 49.1752, -14.5044, 97.5888, -54.8811, 42.0325
3.087, 5, 35.812, 49.18, -14.5061, 97.589, -54.8968, 42.0235
3.092, 5, 35.8114, 49.1847, -14.5078, 97.5891, -54.9125, 42.0144
3.096, 5, 35.8108, 49.1895, -14.5095, 97.5892, -54.9282, 42.0054
3.1, 5, 35.8102, 49.1943, -14.5112, 97.5894, -54.9439, 41.9964
3.104, 5, 35.8096, 49.1991, -14.5129, 97.5895, -54.9596, 41.9874
3.107, 5, 35.8091, 49.2038, -14.5146, 97.5896, -54.9753, 41.9784
3.112, 5, 35.8085, 49.2086, -14.5163, 97.5897, -54.991, 41.9693
3.116, 5, 35.8079, 49.2134, -14.518, 97.5898, -55.0067, 41.9603
3.12, 5, 35.8073, 49.2182, -14.5197, 97.5899, -55.0224, 41.9513
3.124, 5, 35.8067, 49.2229, -14.5213, 97.59, -55.0381, 41.9423
3.128, 5, 35.8061, 49.2277, -14.523, 97.5901, -55.0538, 41.9333
3.132, 5, 35.8055, 49.2325, -14.5247, 97.5902, -55.0695, 41.9243
3.136, 5, 35.805, 49.2372, -14.5264, 97.5902, -55.0852, 41.9153
3.14, 5, 35.8044, 49.242, -14.528, 97.5903, -55.1009, 41.9063
3.143, 5, 35.8038, 49.2467, -14.5297, 97.5904, -55.1166, 41.8973
3.148, 5, 35.8032, 49.2515, -14.5314, 97.5905, -55.1323, 41.8884
3.152, 5, 35.8026, 49.2563, -14.533, 97.5905, -55.1479, 41.8794
3.156, 5, 35.802, 49.261, -14.5347, 97.5906, -55.1636, 41.8704
3.16, 5, 35.8014, 49.2658, -14.5363, 97.5906, -55.1793, 41.8614
3.163, 5, 35.8008, 49.2705, -14.538, 97.5907, -55.195, 41.8525
3.168, 5, 35.8002, 49.2753, -14.5396, 97.5907, -55.2107, 41.8435
3.172, 5, 35.7996, 49.28, -14.5413, 97.5908, -55.2264, 41.8345
3.176, 5, 35.799, 49.2848, -14.5429, 97.5908, -55.2421, 41.8256
3.179, 5, 35.7984, 49.2895, -14.5446, 97.5908, -55.2578, 41.8166
3.184, 5, 35.7978, 49.2943, -14.5462, 97.5908, -55.2734, 41.8077
3.188, 5, 35.7972, 49.299, -14.5478, 97.5909, -55.2891, 41.7987
3.192, 5, 35.7966, 49.3038, -14.5495, 97.5909, -55.3048, 41.7898
3.196, 5, 35.796, 49.3085, -14.5511, 97.5909, -55.3205, 41.7808
3.199, 5, 35.7954, 49.3133, -14.5527, 97.5909, -55.3362, 41.7719
3.204, 5, 35.7948, 49.318, -14.5544, 97.5909, -55.3519, 41.7629
3.208, 5, 35.7942, 49.3227, -14.556, 97.5909, -55.3675, 41.754
3.212, 5, 35.7936, 49.3275, -14.5576, 97.5909, -55.3832, 41.7451
3.216, 5, 35.793, 49.3322, -14.5592, 97.5909, -55.3989, 41.7361
3.22, 5, 35.7924, 49.3369, -14.5608, 97.5909, -55.4146, 41.7272
3.224, 5, 35.7918, 49.3417, -14.5624, 97.5908, -55.4303, 41.7183
3.228, 5, 35.7911, 49.3464, -14.564, 97.5908, -55.4459, 41.7094
3.232, 5, 35.7905, 49.3511, -14.5656, 97.5908, -55.4616, 41.7005
3.235, 5, 35.7899, 49.3559, -14.5672, 97.5907, -55.4773, 41.6916
3.24, 5, 35.7893, 49.3606, -14.5688, 97.5907, -55.4929, 41.6826
3.244, 5, 35.7887, 49.3653, -14.5704, 97.5907, -55.5086, 41.6737
3.248, 5, 35.7881, 49.37, -14.572, 97.5906, -55.5243, 41.6648
3.252, 5, 35.7875, 49.3747, -14.5736, 97.5906, -55.54, 41.6559
3.255, 5, 35.7868, 49.3795, -14.5752, 97.5905, -55.5556, 41.647
3.26, 5, 35.7862, 49.3842, -14.5768, 97.5904, -55.5713, 41.6381
3.264, 5, 35.7856, 49.3889, -14.5784, 97.5904, -55.587, 41.6293
3.268, 5, 35.785, 49.3936, -14.58, 97.5903, -55.6026, 41.6204
3.272, 5, 35.7844, 49.3983, -14.5815, 97.5902, -55.6183, 41.6115
3.276, 5, 35.7838, 49.403, -14.5831, 97.5901, -55.634, 41.6026
3.28, 5, 35.7831, 49.4078, -14.5847, 97.59, -55.6496, 41.5937
3.284, 5, 35.7825, 49.4125, -14.5862, 97.59, -55.6653, 41.5849
3.288, 5, 35.7819, 49.4172, -14.5878, 97.5899, -55.681, 41.576
3.291, 5, 35.7813, 49.4219, -14.5894, 97.5898, -55.6966, 41.5671
3.296, 5, 35.7806, 49.4266, -14.5909, 97.5897, -55.7123, 41.5583
3.3, 5, 35.78, 49.4313, -14.5925, 97.5896, -55.7279, 41.5494
3.304, 5, 35.7794, 49.436, -14.594, 97.5895, -55.7436, 41.5406
3.308, 5, 35.7788, 49.4407, -14.5956, 97.5893, -55.7593, 41.5317
3.312, 5, 35.7781, 49.4454, -14.5971, 97.5892, -55.7749, 41.5228
3.316, 5, 35.7775, 49.4501, -14.5987, 97.5891, -55.7906, 41.514
3.32, 5, 35.7769, 49.4548, -14.6002, 97.589, -55.8062, 41.5052
3.324, 5, 35.7762, 49.4595, -14.6018, 97.5888, -55.8219, 41.4963
3.328, 5, 35.7756, 49.4642, -14.6033, 97.5887, -55.8375, 41.4875
3.332, 5, 35.775, 49.4689, -14.6048, 97.5885, -55.8532, 41.4786
3.336, 5, 35.7743, 49.4735, -14.6064, 97.5884, -55.8688, 41.4698
3.34, 5, 35.7737, 49.4782, -14.6079, 97.5882, -55.8845, 41.461
3.344, 5, 35.7731, 49.4829, -14.6094, 97.5881, -55.9001, 41.4522
3.347, 5, 35.7724, 49.4876, -14.6109, 97.5879, -55.9158, 41.4433
3.352, 5, 35.7718, 49.4923, -14.6125, 97.5878, -55.9314, 41.4345
3.356, 5, 35.7711, 49.497, -14.614, 97.5876, -55.9471, 41.4257
3.36, 5, 35.7705, 49.5017, -14.6155, 97.5874, -55.9627, 41.4169
3.364, 5, 35.7699, 49.5063, -14.617, 97.5872, -55.9784, 41.4081
3.368, 5, 35.7692, 49.511, -14.6185, 97.5871, -55.994, 41.3993
3.372, 5, 35.7686, 49.5157, -14.62, 97.5869, -56.0097, 41.3905
3.376, 5, 35.7679, 49.5204, -14.6215, 97.5867, -56.0253, 41.3817
3.38, 5, 35.7673, 49.525, -14.623, 97.5865, -56.041, 41.3729
3.383, 5, 35.7666, 49.5297, -14.6245, 97.5863, -56.0566, 41.3641
3.388, 5, 35.766, 49.5344, -14.626, 97.5861, -56.0722, 41.3553
3.392, 5, 35.7654, 49.539, -14.6275, 97.5859, -56.0879, 41.3465
3.396, 5, 35.7647, 49.5437, -14.629, 97.5857, -56.1035, 41.3377
3.4, 5, 35.7641, 49.5484, -14.6305, 97.5854, -56.1192, 41.3289
3.403, 5, 35.7634, 49.553, -14.632, 97.5852, -56.1348, 41.3201
3.408, 5, 35.7628, 49.5577, -14.6334, 97.585, -56.1504, 41.3114
3.412, 5, 35.7621, 49.5624, -14.6349, 97.5848, -56.1661, 41.3026
3.416, 5, 35.7615, 49.567, -14.6364, 97.5845, -56.1817, 41.2938
3.42, 5, 35.7608, 49.5717, -14.6379, 97.5843, -56.1973, 41.2851
3.424, 5, 35.7602, 49.5763, -14.6393, 97.584, -56.213, 41.2763
3.428, 5, 35.7595, 49.581, -14.6408, 97.5838, -56.2286, 41.2675
3.432, 5, 35.7588, 49.5856, -14.6422, 97.5835, -56.2442, 41.2588
3.436, 5, 35.7582, 49.5903, -14.6437, 97.5833, -56.2599, 41.25
3.439, 5, 35.7575, 49.5949, -14.6452, 97.583, -56.2755, 41.2413
3.444, 5, 35.7569, 49.5996, -14.6466, 97.5827, -56.2911, 41.2325
3.448, 5, 35.7562, 49.6042, -14.6481, 97.5825, -56.3068, 41.2238
3.452, 5, 35.7556, 49.6089, -14.6495, 97.5822, -56.3224, 41.215
3.456, 5, 35.7549, 49.6135, -14.651, 97.5819, -56.338, 41.2063
3.46, 5, 35.7542, 49.6182, -14.6524, 97.5816, -56.3536, 41.1976
3.464, 5, 35.7536, 49.6228, -14.6538, 97.5814, -56.3693, 41.1888
3.468, 5, 35.7529, 49.6274, -14.6553, 97.5811, -56.3849, 41.1801
3.472, 5, 35.7522, 49.6321, -14.6567, 97.5808, -56.4005, 41.1714
3.476, 5, 35.7516, 49.6367, -14.6581, 97.5805, -56.4161, 41.1627
3.48, 5, 35.7509, 49.6414, -14.6596, 97.5802, -56.4317, 41.1539
3.484, 5, 35.7502, 49.646, -14.661, 97.5798, -56.4474, 41.1452
3.488, 5, 35.7496, 49.6506, -14.6624, 97.5795, -56.463, 41.1365
3.492, 5, 35.7489, 49.6553, -14.6638, 97.5792, -56.4786, 41.1278
3.495, 5, 35.7482, 49.6599, -14.6653, 97.5789, -56.4942, 41.1191
3.5, 5, 35.7476, 49.6645, -14.6667, 97.5786, -56.5098, 41.1104
3.504, 5, 35.7469, 49.6691, -14.6681, 97.5782, -56.5255, 41.1017
3.508, 5, 35.7462, 49.6738, -14.6695, 97.5779, -56.5411, 41.093
3.512, 5, 35.7455, 49.6784, -14.6709, 97.5776, -56.5567, 41.0843
3.516, 5, 35.7449, 49.683, -14.6723, 97.5772, -56.5723, 41.0756
3.52, 5, 35.7442, 49.6876, -14.6737, 97.5769, -56.5879, 41.0669
3.524, 5, 35.7435, 49.6922, -14.6751, 97.5765, -56.6035, 41.0582
3.528, 5, 35.7428, 49.6969, -14.6765, 97.5761, -56.6191, 41.0495
3.531, 5, 35.7422, 49.7015, -14.6779, 97.5758, -56.6347, 41.0409
3.536, 5, 35.7415, 49.7061, -14.6793, 97.5754, -56.6503, 41.0322
3.54, 5, 35.7408, 49.7107, -14.6807, 97.5751, -56.666, 41.0235
3.544, 5, 35.7401, 49.7153, -14.682, 97.5747, -56.6816, 41.0148
3.548, 5, 35.7394, 49.7199, -14.6834, 97.5743, -56.6972, 41.0062
3.552, 5, 35.7388, 49.7245, -14.6848, 97.5739, -56.7128, 40.9975
3.556, 5, 35.7381, 49.7291, -14.6862, 97.5735, -56.7284, 40.9888
3.56, 5, 35.7374, 49.7337, -14.6875, 97.5731, -56.744, 40.9802
3.564, 5, 35.7367, 49.7383, -14.6889, 97.5727, -56.7596, 40.9715
3.568, 5, 35.736, 49.7429, -14.6903, 97.5723, -56.7752, 40.9629
3.572, 5, 35.7353, 49.7475, -14.6916, 97.5719, -56.7908, 40.9542
3.576, 5, 35.7347, 49.7521, -14.693, 97.5715, -56.8064, 40.9456
3.58, 5, 35.734, 49.7567, -14.6944, 97.5711, -56.822, 40.9369
3.584, 5, 35.7333, 49.7613, -14.6957, 97.5707, -56.8376, 40.9283
3.587, 5, 35.7326, 49.7659, -14.6971, 97.5703, -56.8532, 40.9196
3.592, 5, 35.7319, 49.7705, -14.6984, 97.5699, -56.8688, 40.911
3.596, 5, 35.7312, 49.7751, -14.6997, 97.5694, -56.8844, 40.9024
3.6, 5, 35.7305, 49.7797, -14.7011, 97.569, -56.9, 40.8937
3.604, 5, 35.7298, 49.7843, -14.7024, 97.5686, -56.9156, 40.8851
3.608, 5, 35.7291, 49.7889, -14.7038, 97.5681, -56.9312, 40.8765
3.612, 5, 35.7284, 49.7934, -14.7051, 97.5677, -56.9468, 40.8679
3.616, 5, 35.7277, 49.798, -14.7064, 97.5672, -56.9623, 40.8592
3.62, 5, 35.727, 49.8026, -14.7078, 97.5667, -56.9779, 40.8506
3.624, 5, 35.7263, 49.8072, -14.7091, 97.5663, -56.9935, 40.842
3.628, 5, 35.7256, 49.8118, -14.7104, 97.5658, -57.0091, 40.8334
3.632, 5, 35.7249, 49.8163, -14.7117, 97.5654, -57.0247, 40.8248
3.636, 5, 35.7242, 49.8209, -14.713, 97.5649, -57.0403, 40.8162
3.64, 5, 35.7235, 49.8255, -14.7144, 97.5644, -57.0559, 40.8076
3.644, 5, 35.7228, 49.8301, -14.7157, 97.5639, -57.0715, 40.799
3.648, 5, 35.7221, 49.8346, -14.717, 97.5634, -57.087, 40.7904
3.652, 5, 35.7214, 49.8392, -14.7183, 97.563, -57.1026, 40.7818
3.656, 5, 35.7207, 49.8438, -14.7196, 97.5625, -57.1182, 40.7732
3.66, 5, 35.72, 49.8483, -14.7209, 97.562, -57.1338, 40.7646
3.664, 5, 35.7193, 49.8529, -14.7222, 97.5615, -57.1494, 40.756
3.668, 5, 35.7186, 49.8574, -14.7235, 97.561, -57.165, 40.7475
3.672, 5, 35.7179, 49.862, -14.7248, 97.5604, -57.1805, 40.7389
3.676, 5, 35.7172, 49.8666, -14.7261, 97.5599, -57.1961, 40.7303
3.679, 5, 35.7165, 49.8711, -14.7273, 97.5594, -57.2117, 40.7217
3.684, 5, 35.7158, 49.8757, -14.7286, 97.5589, -57.2273, 40.7132
3.688, 5, 35.7151, 49.8802, -14.7299, 97.5584, -57.2428, 40.7046
3.692, 5, 35.7144, 49.8848, -14.7312, 97.5578, -57.2584, 40.696
3.696, 5, 35.7136, 49.8893, -14.7325, 97.5573, -57.274, 40.6875
3.7, 5, 35.7129, 49.8939, -14.7337, 97.5568, -57.2896, 40.6789
3.704, 5, 35.7122, 49.8984, -14.735, 97.5562, -57.3051, 40.6704
3.708, 5, 35.7115, 49.903, -14.7363, 97.5557, -57.3207, 40.6618
3.712, 5, 35.7108, 49.9075, -14.7375, 97.5551, -57.3363, 40.6533
3.716, 5, 35.7101, 49.9121, -14.7388, 97.5546, -57.3519, 40.6447
3.72, 5, 35.7093, 49.9166, -14.74, 97.554, -57.3674, 40.6362
3.724, 5, 35.7086, 49.9212, -14.7413, 97.5535, -57.383, 40.6276
3.728, 5, 35.7079, 49.9257, -14.7425, 97.5529, -57.3986, 40.6191
3.732, 5, 35.7072, 49.9302, -14.7438, 97.5523, -57.4141, 40.6105
3.735, 5, 35.7065, 49.9348, -14.745, 97.5517, -57.4297, 40.602
3.74, 5, 35.7057, 49.9393, -14.7463, 97.5512, -57.4453, 40.5935
3.744, 5, 35.705, 49.9438, -14.7475, 97.5506, -57.4608, 40.585
3.748, 5, 35.7043, 49.9484, -14.7487, 97.55, -57.4764, 40.5764
3.752, 5, 35.7036, 49.9529, -14.75, 97.5494, -57.4919, 40.5679
3.756, 5, 35.7028, 49.9574, -14.7512, 97.5488, -57.5075, 40.5594
3.76, 5, 35.7021, 49.9619, -14.7524, 97.5482, -57.5231, 40.5509
3.764, 5, 35.7014, 49.9665, -14.7537, 97.5476, -57.5386, 40.5424
3.768, 5, 35.7007, 49.971, -14.7549, 97.547, -57.5542, 40.5339
3.772, 5, 35.6999, 49.9755, -14.7561, 97.5464, -57.5697, 40.5254
3.776, 5, 35.6992, 49.98, -14.7573, 97.5457, -57.5853, 40.5168
3.78, 5, 35.6985, 49.9845, -14.7585, 97.5451, -57.6008, 40.5083
3.784, 5, 35.6977, 49.9891, -14.7597, 97.5445, -57.6164, 40.4998
3.788, 5, 35.697, 49.9936, -14.761, 97.5439, -57.632, 40.4913
3.792, 5, 35.6963, 49.9981, -14.7622, 97.5432, -57.6475, 40.4829
3.796, 5, 35.6955, 50.0026, -14.7634, 97.5426, -57.6631, 40.4744
3.8, 5, 35.6948, 50.0071, -14.7646, 97.542, -57.6786, 40.4659
3.804, 5, 35.6941, 50.0116, -14.7658, 97.5413, -57.6942, 40.4574
3.808, 5, 35.6933, 50.0161, -14.7669, 97.5407, -57.7097, 40.4489
3.812, 5, 35.6926, 50.0206, -14.7681, 97.54, -57.7253, 40.4404
3.816, 5, 35.6918, 50.0251, -14.7693, 97.5394, -57.7408, 40.432
3.82, 5, 35.6911, 50.0296, -14.7705, 97.5387, -57.7564, 40.4235
3.824, 5, 35.6904, 50.0341, -14.7717, 97.538, -57.7719, 40.415
3.828, 5, 35.6896, 50.0386, -14.7729, 97.5373, -57.7874, 40.4065
3.832, 5, 35.6889, 50.0431, -14.774, 97.5367, -57.803, 40.3981
3.836, 5, 35.6881, 50.0476, -14.7752, 97.536, -57.8185, 40.3896
3.84, 5, 35.6874, 50.0521, -14.7764, 97.5353, -57.8341, 40.3812
3.844, 5, 35.6866, 50.0566, -14.7776, 97.5346, -57.8496, 40.3727
3.848, 5, 35.6859, 50.0611, -14.7787, 97.5339, -57.8652, 40.3642
3.852, 5, 35.6852, 50.0656, -14.7799, 97.5332, -57.8807, 40.3558
3.856, 5, 35.6844, 50.0701, -14.781, 97.5325, -57.8962, 40.3473
3.86, 5, 35.6837, 50.0746, -14.7822, 97.5318, -57.9118, 40.3389
3.864, 5, 35.6829, 50.0791, -14.7834, 97.5311, -57.9273, 40.3304
3.868, 5, 35.6822, 50.0835, -14.7845, 97.5304, -57.9429, 40.322
3.872, 5, 35.6814, 50.088, -14.7856, 97.5297, -57.9584, 40.3136
3.876, 5, 35.6807, 50.0925, -14.7868, 97.529, -57.9739, 40.3051
3.88, 5, 35.6799, 50.097, -14.7879, 97.5283, -57.9895, 40.2967
3.884, 5, 35.6791, 50.1015, -14.7891, 97.5275, -58.005, 40.2883
3.888, 5, 35.6784, 50.1059, -14.7902, 97.5268, -58.0205, 40.2798
3.892, 5, 35.6776, 50.1104, -14.7913, 97.5261, -58.0361, 40.2714
3.896, 5, 35.6769, 50.1149, -14.7925, 97.5253, -58.0516, 40.263
3.9, 5, 35.6761, 50.1193, -14.7936, 97.5246, -58.0671, 40.2546
3.904, 5, 35.6754, 50.1238, -14.7947, 97.5238, -58.0826, 40.2462
3.908, 5, 35.6746, 50.1283, -14.7958, 97.5231, -58.0982, 40.2378
3.912, 5, 35.6738, 50.1327, -14.797, 97.5223, -58.1137, 40.2293
3.916, 5, 35.6731, 50.1372, -14.7981, 97.5216, -58.1292, 40.2209
3.92, 5, 35.6723, 50.1417, -14.7992, 97.5208, -58.1447, 40.2125
3.924, 5, 35.6716, 50.1461, -14.8003, 97.5201, -58.1603, 40.2041
3.928, 5, 35.6708, 50.1506, -14.8014, 97.5193, -58.1758, 40.1957
3.932, 5, 35.67, 50.155, -14.8025, 97.5185, -58.1913, 40.1873
3.936, 5, 35.6693, 50.1595, -14.8036, 97.5177, -58.2068, 40.1789
3.94, 5, 35.6685, 50.164, -14.8047, 97.5169, -58.2224, 40.1705
3.944, 5, 35.6677, 50.1684, -14.8058, 97.5162, -58.2379, 40.1621
3.948, 5, 35.667, 50.1729, -14.8069, 97.5154, -58.2534, 40.1538
3.952, 5, 35.6662, 50.1773, -14.808, 97.5146, -58.2689, 40.1454
3.956, 5, 35.6654, 50.1818, -14.8091, 97.5138, -58.2844, 40.137
3.96, 5, 35.6647, 50.1862, -14.8102, 97.513, -58.2999, 40.1286
3.964, 5, 35.6639, 50.1907, -14.8112, 97.5122, -58.3155, 40.1202
3.968, 5, 35.6631, 50.1951, -14.8123, 97.5114, -58.331, 40.1119
3.972, 5, 35.6624, 50.1995, -14.8134, 97.5105, -58.3465, 40.1035
3.976, 5, 35.6616, 50.204, -14.8145, 97.5097, -58.362, 40.0951
3.98, 5, 35.6608, 50.2084, -14.8155, 97.5089, -58.3775, 40.0868
3.984, 5, 35.66, 50.2128, -14.8166, 97.5081, -58.393, 40.0784
3.988, 5, 35.6593, 50.2173, -14.8177, 97.5072, -58.4085, 40.07
3.992, 5, 35.6585, 50.2217, -14.8187, 97.5064, -58.424, 40.0617
3.996, 5, 35.6577, 50.2262, -14.8198, 97.5056, -58.4396, 40.0533
3.999, 5, 35.6569, 50.2306, -14.8208, 97.5047, -58.4551, 40.045
4.004, 5, 35.6561, 50.235, -14.8219, 97.5039, -58.4706, 40.0366
4.008, 5, 35.6554, 50.2394, -14.8229, 97.503, -58.4861, 40.0283
4.012, 5, 35.6546, 50.2439, -14.824, 97.5022, -58.5016, 40.0199
4.016, 5, 35.6538, 50.2483, -14.825, 97.5013, -58.5171, 40.0116
4.02, 5, 35.653, 50.2527, -14.8261, 97.5005, -58.5326, 40.0033
4.024, 5, 35.6522, 50.2571, -14.8271, 97.4996, -58.5481, 39.9949
4.028, 5, 35.6514, 50.2615, -14.8281, 97.4987, -58.5636, 39.9866
4.032, 5, 35.6507, 50.266, -14.8292, 97.4978, -58.5791, 39.9782
4.036, 5, 35.6499, 50.2704, -14.8302, 97.497, -58.5946, 39.9699
4.04, 5, 35.6491, 50.2748, -14.8312, 97.4961, -58.6101, 39.9616
4.044, 5, 35.6483, 50.2792, -14.8322, 97.4952, -58.6256, 39.9533
4.048, 5, 35.6475, 50.2836, -14.8333, 97.4943, -58.6411, 39.9449
4.052, 5, 35.6467, 50.288, -14.8343, 97.4934, -58.6566, 39.9366
4.056, 5, 35.6459, 50.2924, -14.8353, 97.4925, -58.6721, 39.9283
4.06, 5, 35.6451, 50.2968, -14.8363, 97.4916, -58.6876, 39.92
4.064, 5, 35.6444, 50.3012, -14.8373, 97.4907, -58.7031, 39.9117
4.068, 5, 35.6436, 50.3056, -14.8383, 97.4898, -58.7185, 39.9034
4.072, 5, 35.6428, 50.31, -14.8393, 97.4889, -58.734, 39.8951
4.076, 5, 35.642, 50.3144, -14.8403, 97.488, -58.7495, 39.8868
4.08, 5, 35.6412, 50.3188, -14.8413, 97.4871, -58.765, 39.8785
4.084, 5, 35.6404, 50.3232, -14.8423, 97.4861, -58.7805, 39.8702
4.088, 5, 35.6396, 50.3276, -14.8433, 97.4852, -58.796, 39.8619
4.092, 5, 35.6388, 50.332, -14.8443, 97.4843, -58.8115, 39.8536
4.096, 5, 35.638, 50.3364, -14.8453, 97.4833, -58.827, 39.8453
4.1, 5, 35.6372, 50.3408, -14.8463, 97.4824, -58.8425, 39.837
4.104, 5, 35.6364, 50.3452, -14.8472, 97.4815, -58.8579, 39.8287
4.108, 5, 35.6356, 50.3496, -14.8482, 97.4805, -58.8734, 39.8204
4.112, 5, 35.6348, 50.354, -14.8492, 97.4796, -58.8889, 39.8122
4.116, 5, 35.634, 50.3583, -14.8502, 97.4786, -58.9044, 39.8039
4.12, 5, 35.6332, 50.3627, -14.8511, 97.4776, -58.9199, 39.7956
4.124, 5, 35.6324, 50.3671, -14.8521, 97.4767, -58.9353, 39.7873
4.128, 5, 35.6316, 50.3715, -14.853, 97.4757, -58.9508, 39.7791
4.132, 5, 35.6308, 50.3759, -14.854, 97.4747, -58.9663, 39.7708
4.136, 5, 35.63, 50.3802, -14.855, 97.4738, -58.9818, 39.7625
4.14, 5, 35.6291, 50.3846, -14.8559, 97.4728, -58.9973, 39.7543
4.144, 5, 35.6283, 50.389, -14.8569, 97.4718, -59.0127, 39.746
4.148, 5, 35.6275, 50.3934, -14.8578, 97.4708, -59.0282, 39.7378
4.152, 5, 35.6267, 50.3977, -14.8588, 97.4698, -59.0437, 39.7295
4.156, 5, 35.6259, 50.4021, -14.8597, 97.4688, -59.0592, 39.7213
4.16, 5, 35.6251, 50.4065, -14.8606, 97.4678, -59.0746, 39.713
4.164, 5, 35.6243, 50.4108, -14.8616, 97.4668, -59.0901, 39.7048
4.168, 5, 35.6235, 50.4152, -14.8625, 97.4658, -59.1056, 39.6965
4.172, 5, 35.6226, 50.4195, -14.8634, 97.4648, -59.121, 39.6883
4.176, 5, 35.6218, 50.4239, -14.8644, 97.4638, -59.1365, 39.68
4.18, 5, 35.621, 50.4283, -14.8653, 97.4628, -59.152, 39.6718
4.184, 5, 35.6202, 50.4326, -14.8662, 97.4618, -59.1674, 39.6636
4.188, 5, 35.6194, 50.437, -14.8671, 97.4607, -59.1829, 39.6553
4.192, 5, 35.6186, 50.4413, -14.868, 97.4597, -59.1984, 39.6471
4.196, 5, 35.6177, 50.4457, -14.8689, 97.4587, -59.2138, 39.6389
4.2, 5, 35.6169, 50.45, -14.8699, 97.4576, -59.2293, 39.6307
4.204, 5, 35.6161, 50.4544, -14.8708, 97.4566, -59.2448, 39.6224
4.208, 5, 35.6153, 50.4587, -14.8717, 97.4556, -59.2602, 39.6142
4.212, 5, 35.6145, 50.4631, -14.8726, 97.4545, -59.2757, 39.606
4.216, 5, 35.6136, 50.4674, -14.8735, 97.4535, -59.2911, 39.5978
4.22, 5, 35.6128, 50.4717, -14.8744, 97.4524, -59.3066, 39.5896
4.224, 5, 35.612, 50.4761, -14.8753, 97.4514, -59.3221, 39.5814
4.228, 5, 35.6112, 50.4804, -14.8761, 97.4503, -59.3375, 39.5732
4.232, 5, 35.6103, 50.4847, -14.877, 97.4492, -59.353, 39.5649
4.236, 5, 35.6095, 50.4891, -14.8779, 97.4482, -59.3684, 39.5567
4.24, 5, 35.6087, 50.4934, -14.8788, 97.4471, -59.3839, 39.5485
4.244, 5, 35.6078, 50.4977, -14.8797, 97.446, -59.3993, 39.5403
4.248, 5, 35.607, 50.5021, -14.8805, 97.4449, -59.4148, 39.5322
4.252, 5, 35.6062, 50.5064, -14.8814, 97.4438, -59.4302, 39.524
4.256, 5, 35.6053, 50.5107, -14.8823, 97.4428, -59.4457, 39.5158
4.26, 5, 35.6045, 50.515, -14.8831, 97.4417, -59.4611, 39.5076
4.264, 5, 35.6037, 50.5194, -14.884, 97.4406, -59.4766, 39.4994
4.268, 5, 35.6028, 50.5237, -14.8849, 97.4395, -59.492, 39.4912
4.272, 5, 35.602, 50.528, -14.8857, 97.4384, -59.5075, 39.483
4.276, 5, 35.6012, 50.5323, -14.8866, 97.4373, -59.5229, 39.4749
4.28, 5, 35.6003, 50.5366, -14.8874, 97.4361, -59.5384, 39.4667
4.284, 5, 35.5995, 50.541, -14.8883, 97.435, -59.5538, 39.4585
4.288, 5, 35.5987, 50.5453, -14.8891, 97.4339, -59.5692, 39.4503
4.292, 5, 35.5978, 50.5496, -14.89, 97.4328, -59.5847, 39.4422
4.296, 5, 35.597, 50.5539, -14.8908, 97.4317, -59.6001, 39.434
4.3, 5, 35.5961, 50.5582, -14.8916, 97.4305, -59.6156, 39.4258
4.304, 5, 35.5953, 50.5625, -14.8925, 97.4294, -59.631, 39.4177
4.308, 5, 35.5944, 50.5668, -14.8933, 97.4283, -59.6465, 39.4095
4.312, 5, 35.5936, 50.5711, -14.8941, 97.4271, -59.6619, 39.4014
4.316, 5, 35.5928, 50.5754, -14.895, 97.426, -59.6773, 39.3932
4.32, 5, 35.5919, 50.5797, -14.8958, 97.4248, -59.6928, 39.3851
4.324, 5, 35.5911, 50.584, -14.8966, 97.4237, -59.7082, 39.3769
4.328, 5, 35.5902, 50.5883, -14.8974, 97.4225, -59.7236, 39.3688
4.332, 5, 35.5894, 50.5926, -14.8982, 97.4214, -59.7391, 39.3606
4.336, 5, 35.5885, 50.5969, -14.899, 97.4202, -59.7545, 39.3525
4.34, 5, 35.5877, 50.6012, -14.8998, 97.419, -59.7699, 39.3444
4.344, 5, 35.5868, 50.6055, -14.9006, 97.4179, -59.7854, 39.3362
4.348, 5, 35.586, 50.6098, -14.9014, 97.4167, -59.8008, 39.3281
4.352, 5, 35.5851, 50.614, -14.9022, 97.4155, -59.8162, 39.32
4.356, 5, 35.5843, 50.6183, -14.903, 97.4143, -59.8316, 39.3118
4.36, 5, 35.5834, 50.6226, -14.9038, 97.4131, -59.8471, 39.3037
4.364, 5, 35.5826, 50.6269, -14.9046, 97.4119, -59.8625, 39.2956
4.368, 5, 35.5817, 50.6312, -14.9054, 97.4108, -59.8779, 39.2875
4.372, 5, 35.5808, 50.6354, -14.9062, 97.4096, -59.8933, 39.2793
4.376, 5, 35.58, 50.6397, -14.907, 97.4084, -59.9088, 39.2712
4.38, 5, 35.5791, 50.644, -14.9077, 97.4072, -59.9242, 39.2631
4.384, 5, 35.5783, 50.6483, -14.9085, 97.406, -59.9396, 39.255
4.388, 5, 35.5774, 50.6525, -14.9093, 97.4047, -59.955, 39.2469
4.392, 5, 35.5765, 50.6568, -14.9101, 97.4035, -59.9705, 39.2388
4.396, 5, 35.5757, 50.6611, -14.9108, 97.4023, -59.9859, 39.2307
4.4, 5, 35.5748, 50.6653, -14.9116, 97.4011, -60.0013, 39.2226
4.404, 5, 35.574, 50.6696, -14.9124, 97.3999, -60.0167, 39.2145
4.408, 5, 35.5731, 50.6739, -14.9131, 97.3986, -60.0321, 39.2064
4.412, 5, 35.5722, 50.6781, -14.9139, 97.3974, -60.0475, 39.1983
4.416, 5, 35.5714, 50.6824, -14.9146, 97.3962, -60.063, 39.1902
4.42, 5, 35.5705, 50.6866, -14.9154, 97.3949, -60.0784, 39.1821
4.424, 5, 35.5696, 50.6909, -14.9161, 97.3937, -60.0938, 39.174
4.428, 5, 35.5688, 50.6952, -14.9169, 97.3924, -60.1092, 39.1659
4.432, 5, 35.5679, 50.6994, -14.9176, 97.3912, -60.1246, 39.1578
4.436, 5, 35.567, 50.7037, -14.9183, 97.3899, -60.14, 39.1497
4.44, 5, 35.5661, 50.7079, -14.9191, 97.3887, -60.1554, 39.1417
4.444, 5, 35.5653, 50.7122, -14.9198, 97.3874, -60.1708, 39.1336
4.448, 5, 35.5644, 50.7164, -14.9205, 97.3861, -60.1862, 39.1255
4.452, 5, 35.5635, 50.7206, -14.9212, 97.3849, -60.2016, 39.1174
4.456, 5, 35.5627, 50.7249, -14.922, 97.3836, -60.2171, 39.1094
4.46, 5, 35.5618, 50.7291, -14.9227, 97.3823, -60.2325, 39.1013
4.464, 5, 35.5609, 50.7334, -14.9234, 97.381, -60.2479, 39.0932
4.468, 5, 35.56, 50.7376, -14.9241, 97.3797, -60.2633, 39.0852
4.472, 5, 35.5591, 50.7418, -14.9248, 97.3785, -60.2787, 39.0771
4.476, 5, 35.5583, 50.7461, -14.9255, 97.3772, -60.2941, 39.0691
4.48, 5, 35.5574, 50.7503, -14.9262, 97.3759, -60.3095, 39.061
4.484, 5, 35.5565, 50.7545, -14.9269, 97.3746, -60.3249, 39.0529
4.488, 5, 35.5556, 50.7588, -14.9276, 97.3733, -60.3403, 39.0449
4.492, 5, 35.5547, 50.763, -14.9283, 97.372, -60.3557, 39.0368
4.496, 5, 35.5539, 50.7672, -14.929, 97.3707, -60.3711, 39.0288
4.5, 5, 35.553, 50.7714, -14.9297, 97.3693, -60.3865, 39.0208
4.504, 5, 35.5521, 50.7757, -14.9304, 97.368, -60.4018, 39.0127
4.508, 5, 35.5512, 50.7799, -14.9311, 97.3667, -60.4172, 39.0047
4.512, 5, 35.5503, 50.7841, -14.9318, 97.3654, -60.4326, 38.9966
4.516, 5, 35.5494, 50.7883, -14.9324, 97.3641, -60.448, 38.9886
4.52, 5, 35.5485, 50.7925, -14.9331, 97.3627, -60.4634, 38.9806
4.524, 5, 35.5477, 50.7967, -14.9338, 97.3614, -60.4788, 38.9725
4.528, 5, 35.5468, 50.801, -14.9344, 97.36, -60.4942, 38.9645
4.532, 5, 35.5459, 50.8052, -14.9351, 97.3587, -60.5096, 38.9565
4.536, 5, 35.545, 50.8094, -14.9358, 97.3574, -60.525, 38.9485
4.54, 5, 35.5441, 50.8136, -14.9364, 97.356, -60.5404, 38.9404
4.544, 5, 35.5432, 50.8178, -14.9371, 97.3547, -60.5557, 38.9324
4.548, 5, 35.5423, 50.822, -14.9377, 97.3533, -60.5711, 38.9244
4.552, 5, 35.5414, 50.8262, -14.9384, 97.3519, -60.5865, 38.9164
4.556, 5, 35.5405, 50.8304, -14.939, 97.3506, -60.6019, 38.9084
4.56, 5, 35.5396, 50.8346, -14.9397, 97.3492, -60.6173, 38.9004
4.564, 5, 35.5387, 50.8388, -14.9403, 97.3478, -60.6327, 38.8924
4.568, 5, 35.5378, 50.843, -14.941, 97.3465, -60.648, 38.8843
4.572, 5, 35.5369, 50.8472, -14.9416, 97.3451, -60.6634, 38.8763
4.576, 5, 35.536, 50.8514, -14.9422, 97.3437, -60.6788, 38.8683
4.58, 5, 35.5351, 50.8556, -14.9429, 97.3423, -60.6942, 38.8603
4.584, 5, 35.5342, 50.8597, -14.9435, 97.3409, -60.7095, 38.8523
4.588, 5, 35.5333, 50.8639, -14.9441, 97.3395, -60.7249, 38.8444
4.592, 5, 35.5324, 50.8681, -14.9447, 97.3381, -60.7403, 38.8364
4.596, 5, 35.5315, 50.8723, -14.9454, 97.3367, -60.7557, 38.8284
4.6, 5, 35.5306, 50.8765, -14.946, 97.3353, -60.771, 38.8204
4.604, 5, 35.5297, 50.8807, -14.9466, 97.3339, -60.7864, 38.8124
4.608, 5, 35.5288, 50.8848, -14.9472, 97.3325, -60.8018, 38.8044
4.612, 5, 35.5279, 50.889, -14.9478, 97.3311, -60.8172, 38.7964
4.616, 5, 35.527, 50.8932, -14.9484, 97.3297, -60.8325, 38.7885
4.62, 5, 35.5261, 50.8974, -14.949, 97.3283, -60.8479, 38.7805
4.624, 5, 35.5252, 50.9015, -14.9496, 97.3269, -60.8633, 38.7725
4.628, 5, 35.5243, 50.9057, -14.9502, 97.3254, -60.8786, 38.7645
4.632, 5, 35.5234, 50.9099, -14.9508, 97.324, -60.894, 38.7566
4.636, 5, 35.5224, 50.914, -14.9514, 97.3226, -60.9094, 38.7486
4.64, 5, 35.5215, 50.9182, -14.952, 97.3211, -60.9247, 38.7406
4.644, 5, 35.5206, 50.9224, -14.9525, 97.3197, -60.9401, 38.7327
4.648, 5, 35.5197, 50.9265, -14.9531, 97.3182, -60.9554, 38.7247
4.652, 5, 35.5188, 50.9307, -14.9537, 97.3168, -60.9708, 38.7167
4.656, 5, 35.5179, 50.9348, -14.9543, 97.3153, -60.9862, 38.7088
4.66, 5, 35.517, 50.939, -14.9548, 97.3139, -61.0015, 38.7008
4.664, 5, 35.516, 50.9431, -14.9554, 97.3124, -61.0169, 38.6929
4.668, 5, 35.5151, 50.9473, -14.956, 97.311, -61.0322, 38.6849
4.672, 5, 35.5142, 50.9515, -14.9565, 97.3095, -61.0476, 38.677
4.676, 5, 35.5133, 50.9556, -14.9571, 97.308, -61.063, 38.669
4.68, 5, 35.5124, 50.9597, -14.9577, 97.3065, -61.0783, 38.6611
4.684, 5, 35.5114, 50.9639, -14.9582, 97.3051, -61.0937, 38.6532
4.688, 5, 35.5105, 50.968, -14.9588, 97.3036, -61.109, 38.6452
4.692, 5, 35.5096, 50.9722, -14.9593, 97.3021, -61.1244, 38.6373
4.696, 5, 35.5087, 50.9763, -14.9599, 97.3006, -61.1397, 38.6293
4.7, 5, 35.5078, 50.9805, -14.9604, 97.2991, -61.1551, 38.6214
4.704, 5, 35.5068, 50.9846, -14.9609, 97.2976, -61.1704, 38.6135
4.708, 5, 35.5059, 50.9887, -14.9615, 97.2961, -61.1858, 38.6055
4.712, 5, 35.505, 50.9929, -14.962, 97.2946, -61.2011, 38.5976
4.716, 5, 35.504, 50.997, -14.9625, 97.2931, -61.2165, 38.5897
4.72, 5, 35.5031, 51.0011, -14.9631, 97.2916, -61.2318, 38.5818
4.724, 5, 35.5022, 51.0053, -14.9636, 97.2901, -61.2471, 38.5739
4.728, 5, 35.5013, 51.0094, -14.9641, 97.2886, -61.2625, 38.5659
4.732, 5, 35.5003, 51.0135, -14.9646, 97.2871, -61.2778, 38.558
4.736, 5, 35.4994, 51.0176, -14.9651, 97.2856, -61.2932, 38.5501
4.74, 5, 35.4985, 51.0217, -14.9656, 97.284, -61.3085, 38.5422
4.744, 5, 35.4975, 51.0259, -14.9661, 97.2825, -61.3239, 38.5343
4.748, 5, 35.4966, 51.03, -14.9667, 97.281, -61.3392, 38.5264
4.752, 5, 35.4957, 51.0341, -14.9672, 97.2794, -61.3545, 38.5185
4.756, 5, 35.4947, 51.0382, -14.9677, 97.2779, -61.3699, 38.5106
4.76, 5, 35.4938, 51.0423, -14.9682, 97.2764, -61.3852, 38.5027
4.764, 5, 35.4928, 51.0464, -14.9686, 97.2748, -61.4005, 38.4948
4.768, 5, 35.4919, 51.0505, -14.9691, 97.2732, -61.4159, 38.4869
4.772, 5, 35.491, 51.0546, -14.9696, 97.2717, -61.4312, 38.479
4.776, 5, 35.49, 51.0588, -14.9701, 97.2701, -61.4465, 38.4711
4.78, 5, 35.4891, 51.0629, -14.9706, 97.2686, -61.4619, 38.4632
4.784, 5, 35.4881, 51.067, -14.9711, 97.267, -61.4772, 38.4553
4.788, 5, 35.4872, 51.0711, -14.9715, 97.2654, -61.4925, 38.4474
4.792, 5, 35.4863, 51.0752, -14.972, 97.2639, -61.5079, 38.4395
4.796, 5, 35.4853, 51.0793, -14.9725, 97.2623, -61.5232, 38.4317
4.8, 5, 35.4844, 51.0834, -14.973, 97.2607, -61.5385, 38.4238
4.804, 5, 35.4834, 51.0874, -14.9734, 97.2591, -61.5538, 38.4159
4.808, 5, 35.4825, 51.0915, -14.9739, 97.2576, -61.5692, 38.408
4.812, 5, 35.4815, 51.0956, -14.9743, 97.256, -61.5845, 38.4002
4.816, 5, 35.4806, 51.0997, -14.9748, 97.2544, -61.5998, 38.3923
4.82, 5, 35.4796, 51.1038, -14.9752, 97.2528, -61.6151, 38.3844
4.824, 5, 35.4787, 51.1079, -14.9757, 97.2512, -61.6305, 38.3766
4.828, 5, 35.4777, 51.112, -14.9761, 97.2496, -61.6458, 38.3687
4.832, 5, 35.4768, 51.1161, -14.9766, 97.248, -61.6611, 38.3608
4.836, 5, 35.4758, 51.1201, -14.977, 97.2464, -61.6764, 38.353
4.84, 5, 35.4749, 51.1242, -14.9775, 97.2448, -61.6917, 38.3451
4.844, 5, 35.4739, 51.1283, -14.9779, 97.2431, -61.7071, 38.3373
4.848, 5, 35.4729, 51.1324, -14.9783, 97.2415, -61.7224, 38.3294
4.852, 5, 35.472, 51.1364, -14.9787, 97.2399, -61.7377, 38.3216
4.856, 5, 35.471, 51.1405, -14.9792, 97.2383, -61.753, 38.3137
4.86, 5, 35.4701, 51.1446, -14.9796, 97.2367, -61.7683, 38.3059
4.864, 5, 35.4691, 51.1486, -14.98, 97.235, -61.7836, 38.298
4.868, 5, 35.4682, 51.1527, -14.9804, 97.2334, -61.7989, 38.2902
4.872, 5, 35.4672, 51.1568, -14.9808, 97.2318, -61.8142, 38.2823
4.876, 5, 35.4662, 51.1608, -14.9812, 97.2301, -61.8296, 38.2745
4.88, 5, 35.4653, 51.1649, -14.9817, 97.2285, -61.8449, 38.2667
4.884, 5, 35.4643, 51.1689, -14.9821, 97.2268, -61.8602, 38.2588
4.888, 5, 35.4634, 51.173, -14.9825, 97.2252, -61.8755, 38.251
4.892, 5, 35.4624, 51.1771, -14.9829, 97.2235, -61.8908, 38.2431
4.896, 5, 35.4614, 51.1811, -14.9833, 97.2218, -61.9061, 38.2353
4.9, 5, 35.4605, 51.1852, -14.9836, 97.2202, -61.9214, 38.2275
4.904, 5, 35.4595, 51.1892, -14.984, 97.2185, -61.9367, 38.2197
4.908, 5, 35.4585, 51.1933, -14.9844, 97.2169, -61.952, 38.2118
4.912, 5, 35.4576, 51.1973, -14.9848, 97.2152, -61.9673, 38.204
4.916, 5, 35.4566, 51.2014, -14.9852, 97.2135, -61.9826, 38.1962
4.92, 5, 35.4556, 51.2054, -14.9856, 97.2118, -61.9979, 38.1884
4.924, 5, 35.4546, 51.2094, -14.9859, 97.2101, -62.0132, 38.1806
4.928, 5, 35.4537, 51.2135, -14.9863, 97.2085, -62.0285, 38.1728
4.932, 5, 35.4527, 51.2175, -14.9867, 97.2068, -62.0438, 38.165
4.936, 5, 35.4517, 51.2216, -14.987, 97.2051, -62.0591, 38.1571
4.94, 5, 35.4508, 51.2256, -14.9874, 97.2034, -62.0744, 38.1493
4.944, 5, 35.4498, 51.2296, -14.9878, 97.2017, -62.0897, 38.1415
4.948, 5, 35.4488, 51.2337, -14.9881, 97.2, -62.105, 38.1337
4.952, 5, 35.4478, 51.2377, -14.9885, 97.1983, -62.1203, 38.1259
4.956, 5, 35.4468, 51.2417, -14.9888, 97.1966, -62.1355, 38.1181
4.96, 5, 35.4459, 51.2457, -14.9892, 97.1948, -62.1508, 38.1103
4.964, 5, 35.4449, 51.2498, -14.9895, 97.1931, -62.1661, 38.1025
4.968, 5, 35.4439, 51.2538, -14.9898, 97.1914, -62.1814, 38.0947
4.972, 5, 35.4429, 51.2578, -14.9902, 97.1897, -62.1967, 38.087
4.976, 5, 35.442, 51.2618, -14.9905, 97.188, -62.212, 38.0792
4.98, 5, 35.441, 51.2658, -14.9908, 97.1862, -62.2273, 38.0714
4.984, 5, 35.44, 51.2698, -14.9912, 97.1845, -62.2426, 38.0636
4.988, 5, 35.439, 51.2739, -14.9915, 97.1828, -62.2578, 38.0558
4.992, 5, 35.438, 51.2779, -14.9918, 97.181, -62.2731, 38.048
4.996, 5, 35.437, 51.2819, -14.9921, 97.1793, -62.2884, 38.0403
5, 5, 35.436, 51.2859, -14.9925, 97.1775, -62.3037, 38.0325
5.004, 5, 35.4351, 51.2899, -14.9928, 97.1758, -62.319, 38.0247
5.008, 5, 35.4341, 51.2939, -14.9931, 97.174, -62.3342, 38.0169
5.012, 5, 35.4331, 51.2979, -14.9934, 97.1723, -62.3495, 38.0092
5.016, 5, 35.4321, 51.3019, -14.9937, 97.1705, -62.3648, 38.0014
5.02, 5, 35.4311, 51.3059, -14.994, 97.1688, -62.3801, 37.9936
5.024, 5, 35.4301, 51.3099, -14.9943, 97.167, -62.3954, 37.9859
5.028, 5, 35.4291, 51.3139, -14.9946, 97.1652, -62.4106, 37.9781
5.032, 5, 35.4281, 51.3179, -14.9949, 97.1634, -62.4259, 37.9703
5.036, 5, 35.4271, 51.3219, -14.9952, 97.1617, -62.4412, 37.9626
5.04, 5, 35.4261, 51.3259, -14.9955, 97.1599, -62.4564, 37.9548
5.044, 5, 35.4251, 51.3298, -14.9957, 97.1581, -62.4717, 37.9471
5.048, 5, 35.4241, 51.3338, -14.996, 97.1563, -62.487, 37.9393
5.052, 5, 35.4231, 51.3378, -14.9963, 97.1545, -62.5023, 37.9316
5.056, 5, 35.4221, 51.3418, -14.9966, 97.1527, -62.5175, 37.9238
5.06, 5, 35.4212, 51.3458, -14.9968, 97.1509, -62.5328, 37.9161
5.064, 5, 35.4201, 51.3498, -14.9971, 97.1491, -62.5481, 37.9083
5.068, 5, 35.4191, 51.3537, -14.9974, 97.1473, -62.5633, 37.9006
5.072, 5, 35.4181, 51.3577, -14.9976, 97.1455, -62.5786, 37.8928
5.076, 5, 35.4171, 51.3617, -14.9979, 97.1437, -62.5938, 37.8851
5.08, 5, 35.4161, 51.3657, -14.9982, 97.1419, -62.6091, 37.8774
5.084, 5, 35.4151, 51.3696, -14.9984, 97.1401, -62.6244, 37.8696
5.088, 5, 35.4141, 51.3736, -14.9987, 97.1383, -62.6396, 37.8619
5.092, 5, 35.4131, 51.3776, -14.9989, 97.1365, -62.6549, 37.8542
5.096, 5, 35.4121, 51.3815, -14.9991, 97.1346, -62.6702, 37.8464
5.1, 5, 35.4111, 51.3855, -14.9994, 97.1328, -62.6854, 37.8387
5.104, 5, 35.4101, 51.3895, -14.9996, 97.131, -62.7007, 37.831
5.108, 5, 35.4091, 51.3934, -14.9999, 97.1291, -62.7159, 37.8233
5.112, 5, 35.4081, 51.3974, -15.0001, 97.1273, -62.7312, 37.8156
5.116, 5, 35.4071, 51.4013, -15.0003, 97.1255, -62.7464, 37.8078
5.12, 5, 35.4061, 51.4053, -15.0005, 97.1236, -62.7617, 37.8001
5.124, 5, 35.4051, 51.4092, -15.0008, 97.1217, -62.7769, 37.7924
5.128, 5, 35.404, 51.4132, -15.001, 97.1199, -62.7922, 37.7847
5.132, 5, 35.403, 51.4171, -15.0012, 97.1181, -62.8074, 37.777
5.136, 5, 35.402, 51.4211, -15.0014, 97.1162, -62.8227, 37.7693
5.14, 5, 35.401, 51.425, -15.0016, 97.1143, -62.8379, 37.7616
5.144, 5, 35.4, 51.429, -15.0018, 97.1125, -62.8532, 37.7539
5.148, 5, 35.399, 51.4329, -15.002, 97.1106, -62.8684, 37.7462
5.152, 5, 35.398, 51.4369, -15.0022, 97.1087, -62.8837, 37.7384
5.156, 5, 35.3969, 51.4408, -15.0024, 97.1069, -62.8989, 37.7308
5.16, 5, 35.3959, 51.4447, -15.0026, 97.105, -62.9142, 37.7231
5.164, 5, 35.3949, 51.4487, -15.0028, 97.1031, -62.9294, 37.7154
5.168, 5, 35.3939, 51.4526, -15.003, 97.1012, -62.9446, 37.7077
5.172, 5, 35.3929, 51.4565, -15.0032, 97.0993, -62.9599, 37.7
5.176, 5, 35.3918, 51.4605, -15.0034, 97.0974, -62.9751, 37.6923
5.18, 5, 35.3908, 51.4644, -15.0036, 97.0955, -62.9904, 37.6846
5.184, 5, 35.3898, 51.4683, -15.0038, 97.0936, -63.0056, 37.6769
5.188, 5, 35.3888, 51.4722, -15.0039, 97.0917, -63.0208, 37.6692
5.192, 5, 35.3877, 51.4762, -15.0041, 97.0898, -63.0361, 37.6615
5.196, 5, 35.3867, 51.4801, -15.0043, 97.0879, -63.0513, 37.6539
5.2, 5, 35.3857, 51.484, -15.0044, 97.086, -63.0665, 37.6462
5.204, 5, 35.3847, 51.4879, -15.0046, 97.0841, -63.0818, 37.6385
5.208, 5, 35.3836, 51.4918, -15.0048, 97.0822, -63.097, 37.6308
5.212, 5, 35.3826, 51.4957, -15.0049, 97.0803, -63.1122, 37.6231
5.216, 5, 35.3816, 51.4996, -15.0051, 97.0784, -63.1275, 37.6155
5.22, 5, 35.3805, 51.5036, -15.0052, 97.0764, -63.1427, 37.6078
5.224, 5, 35.3795, 51.5075, -15.0054, 97.0745, -63.1579, 37.6001
5.228, 5, 35.3785, 51.5114, -15.0055, 97.0726, -63.1732, 37.5925
5.232, 5, 35.3774, 51.5153, -15.0056, 97.0706, -63.1884, 37.5848
5.236, 5, 35.3764, 51.5192, -15.0058, 97.0687, -63.2036, 37.5771
5.24, 5, 35.3754, 51.5231, -15.0059, 97.0667, -63.2188, 37.5695
5.244, 5, 35.3743, 51.527, -15.006, 97.0648, -63.2341, 37.5618
5.248, 5, 35.3733, 51.5309, -15.0062, 97.0629, -63.2493, 37.5542
5.252, 5, 35.3723, 51.5348, -15.0063, 97.0609, -63.2645, 37.5465
5.256, 5, 35.3712, 51.5387, -15.0064, 97.0589, -63.2797, 37.5389
5.26, 5, 35.3702, 51.5426, -15.0065, 97.057, -63.2949, 37.5312
5.264, 5, 35.3691, 51.5464, -15.0067, 97.055, -63.3102, 37.5236
5.268, 5, 35.3681, 51.5503, -15.0068, 97.0531, -63.3254, 37.5159
5.272, 5, 35.3671, 51.5542, -15.0069, 97.0511, -63.3406, 37.5083
5.276, 5, 35.366, 51.5581, -15.007, 97.0491, -63.3558, 37.5006
5.28, 5, 35.365, 51.562, -15.0071, 97.0471, -63.371, 37.493
5.284, 5, 35.3639, 51.5659, -15.0072, 97.0452, -63.3862, 37.4853
5.288, 5, 35.3629, 51.5697, -15.0073, 97.0432, -63.4015, 37.4777
5.292, 5, 35.3618, 51.5736, -15.0074, 97.0412, -63.4167, 37.4701
5.296, 5, 35.3608, 51.5775, -15.0075, 97.0392, -63.4319, 37.4624
5.3, 5, 35.3597, 51.5814, -15.0076, 97.0372, -63.4471, 37.4548
5.304, 5, 35.3587, 51.5852, -15.0077, 97.0352, -63.4623, 37.4472
5.308, 5, 35.3576, 51.5891, -15.0077, 97.0332, -63.4775, 37.4395
5.312, 5, 35.3566, 51.593, -15.0078, 97.0312, -63.4927, 37.4319
5.316, 5, 35.3555, 51.5968, -15.0079, 97.0292, -63.5079, 37.4243
5.32, 5, 35.3545, 51.6007, -15.008, 97.0272, -63.5231, 37.4167
5.324, 5, 35.3534, 51.6046, -15.008, 97.0252, -63.5383, 37.4091
5.328, 5, 35.3524, 51.6084, -15.0081, 97.0232, -63.5535, 37.4014
5.332, 5, 35.3513, 51.6123, -15.0082, 97.0212, -63.5687, 37.3938
5.336, 5, 35.3503, 51.6161, -15.0082, 97.0192, -63.5839, 37.3862
5.34, 5, 35.3492, 51.62, -15.0083, 97.0172, -63.5991, 37.3786
5.344, 5, 35.3482, 51.6239, -15.0083, 97.0151, -63.6143, 37.371
5.348, 5, 35.3471, 51.6277, -15.0084, 97.0131, -63.6295, 37.3634
5.352, 5, 35.3461, 51.6316, -15.0084, 97.0111, -63.6447, 37.3558
5.356, 5, 35.345, 51.6354, -15.0085, 97.009, -63.6599, 37.3481
5.36, 5, 35.3439, 51.6392, -15.0085, 97.007, -63.6751, 37.3405
5.364, 5, 35.3429, 51.6431, -15.0086, 97.005, -63.6903, 37.3329
5.368, 5, 35.3418, 51.6469, -15.0086, 97.0029, -63.7055, 37.3253
5.372, 5, 35.3407, 51.6508, -15.0086, 97.0009, -63.7207, 37.3177
5.376, 5, 35.3397, 51.6546, -15.0087, 96.9988, -63.7359, 37.3101
5.38, 5, 35.3386, 51.6584, -15.0087, 96.9968, -63.7511, 37.3025
5.384, 5, 35.3376, 51.6623, -15.0087, 96.9947, -63.7663, 37.2949
5.388, 5, 35.3365, 51.6661, -15.0087, 96.9926, -63.7815, 37.2874
5.392, 5, 35.3354, 51.67, -15.0088, 96.9906, -63.7967, 37.2798
5.396, 5, 35.3344, 51.6738, -15.0088, 96.9885, -63.8119, 37.2722
5.4, 5, 35.3333, 51.6776, -15.0088, 96.9865, -63.827, 37.2646
5.404, 5, 35.3322, 51.6814, -15.0088, 96.9844, -63.8422, 37.257
5.408, 5, 35.3312, 51.6853, -15.0088, 96.9823, -63.8574, 37.2494
5.412, 5, 35.3301, 51.6891, -15.0088, 96.9802, -63.8726, 37.2418
5.416, 5, 35.329, 51.6929, -15.0088, 96.9781, -63.8878, 37.2343
5.42, 5, 35.3279, 51.6967, -15.0088, 96.9761, -63.903, 37.2267
5.424, 5, 35.3269, 51.7005, -15.0088, 96.974, -63.9181, 37.2191
5.428, 5, 35.3258, 51.7043, -15.0088, 96.9719, -63.9333, 37.2115
5.432, 5, 35.3247, 51.7082, -15.0088, 96.9698, -63.9485, 37.204
5.436, 5, 35.3236, 51.712, -15.0088, 96.9677, -63.9637, 37.1964
5.44, 5, 35.3226, 51.7158, -15.0087, 96.9656, -63.9789, 37.1888
5.444, 5, 35.3215, 51.7196, -15.0087, 96.9635, -63.994, 37.1812
5.448, 5, 35.3204, 51.7234, -15.0087, 96.9614, -64.0092, 37.1737
5.452, 5, 35.3193, 51.7272, -15.0087, 96.9593, -64.0244, 37.1661
5.456, 5, 35.3183, 51.731, -15.0086, 96.9572, -64.0396, 37.1586
5.46, 5, 35.3172, 51.7348, -15.0086, 96.955, -64.0547, 37.151
5.464, 5, 35.3161, 51.7386, -15.0086, 96.9529, -64.0699, 37.1434
5.468, 5, 35.315, 51.7424, -15.0085, 96.9508, -64.0851, 37.1359
5.472, 5, 35.3139, 51.7462, -15.0085, 96.9487, -64.1003, 37.1283
5.476, 5, 35.3129, 51.75, -15.0084, 96.9466, -64.1154, 37.1208
5.48, 5, 35.3118, 51.7538, -15.0084, 96.9444, -64.1306, 37.1132
5.484, 5, 35.3107, 51.7576, -15.0083, 96.9423, -64.1458, 37.1057
5.488, 5, 35.3096, 51.7613, -15.0083, 96.9402, -64.1609, 37.0981
5.492, 5, 35.3085, 51.7651, -15.0082, 96.938, -64.1761, 37.0906
5.496, 5, 35.3074, 51.7689, -15.0082, 96.9359, -64.1912, 37.083
5.5, 5, 35.3063, 51.7727, -15.0081, 96.9337, -64.2064, 37.0755
5.504, 5, 35.3052, 51.7765, -15.008, 96.9316, -64.2216, 37.0679
5.508, 5, 35.3042, 51.7803, -15.008, 96.9294, -64.2367, 37.0604
5.512, 5, 35.3031, 51.784, -15.0079, 96.9273, -64.2519, 37.0529
5.516, 5, 35.302, 51.7878, -15.0078, 96.9251, -64.2671, 37.0453
5.52, 5, 35.3009, 51.7916, -15.0077, 96.923, -64.2822, 37.0378
5.524, 5, 35.2998, 51.7953, -15.0077, 96.9208, -64.2974, 37.0303
5.528, 5, 35.2987, 51.7991, -15.0076, 96.9186, -64.3125, 37.0227
5.532, 5, 35.2976, 51.8029, -15.0075, 96.9164, -64.3277, 37.0152
5.536, 5, 35.2965, 51.8066, -15.0074, 96.9143, -64.3428, 37.0077
5.54, 5, 35.2954, 51.8104, -15.0073, 96.9121, -64.358, 37.0001
5.544, 5, 35.2943, 51.8142, -15.0072, 96.9099, -64.3731, 36.9926
5.548, 5, 35.2932, 51.8179, -15.0071, 96.9077, -64.3883, 36.9851
5.552, 5, 35.2921, 51.8217, -15.007, 96.9055, -64.4035, 36.9776
5.556, 5, 35.291, 51.8254, -15.0069, 96.9034, -64.4186, 36.9701
5.56, 5, 35.2899, 51.8292, -15.0068, 96.9012, -64.4337, 36.9625
5.564, 5, 35.2888, 51.833, -15.0067, 96.899, -64.4489, 36.955
5.568, 5, 35.2877, 51.8367, -15.0065, 96.8968, -64.464, 36.9475
5.572, 5, 35.2866, 51.8405, -15.0064, 96.8946, -64.4792, 36.94
5.576, 5, 35.2855, 51.8442, -15.0063, 96.8924, -64.4943, 36.9325
5.58, 5, 35.2844, 51.8479, -15.0062, 96.8902, -64.5095, 36.925
5.584, 5, 35.2833, 51.8517, -15.006, 96.8879, -64.5246, 36.9175
5.588, 5, 35.2822, 51.8554, -15.0059, 96.8857, -64.5398, 36.91
5.592, 5, 35.2811, 51.8592, -15.0058, 96.8835, -64.5549, 36.9025
5.596, 5, 35.28, 51.8629, -15.0056, 96.8813, -64.57, 36.895
5.6, 5, 35.2789, 51.8666, -15.0055, 96.8791, -64.5852, 36.8875
5.604, 5, 35.2778, 51.8704, -15.0053, 96.8768, -64.6003, 36.88
5.608, 5, 35.2767, 51.8741, -15.0052, 96.8746, -64.6155, 36.8725
5.612, 5, 35.2755, 51.8778, -15.005, 96.8724, -64.6306, 36.865
5.616, 5, 35.2744, 51.8816, -15.0049, 96.8702, -64.6457, 36.8575
5.62, 5, 35.2733, 51.8853, -15.0047, 96.8679, -64.6609, 36.85
5.624, 5, 35.2722, 51.889, -15.0046, 96.8657, -64.676, 36.8425
5.628, 5, 35.2711, 51.8927, -15.0044, 96.8634, -64.6911, 36.835
5.632, 5, 35.27, 51.8964, -15.0042, 96.8612, -64.7063, 36.8275
5.636, 5, 35.2689, 51.9002, -15.0041, 96.8589, -64.7214, 36.82
5.64, 5, 35.2677, 51.9039, -15.0039, 96.8567, -64.7365, 36.8126
5.644, 5, 35.2666, 51.9076, -15.0037, 96.8544, -64.7516, 36.8051
5.648, 5, 35.2655, 51.9113, -15.0035, 96.8522, -64.7668, 36.7976
5.652, 5, 35.2644, 51.915, -15.0034, 96.8499, -64.7819, 36.7901
5.656, 5, 35.2633, 51.9187, -15.0032, 96.8476, -64.797, 36.7826
5.66, 5, 35.2622, 51.9224, -15.003, 96.8454, -64.8121, 36.7752
5.664, 5, 35.261, 51.9261, -15.0028, 96.8431, -64.8273, 36.7677
5.668, 5, 35.2599, 51.9298, -15.0026, 96.8408, -64.8424, 36.7602
5.672, 5, 35.2588, 51.9335, -15.0024, 96.8385, -64.8575, 36.7527
5.676, 5, 35.2577, 51.9372, -15.0022, 96.8363, -64.8726, 36.7453
5.68, 5, 35.2565, 51.9409, -15.002, 96.834, -64.8878, 36.7378
5.684, 5, 35.2554, 51.9446, -15.0018, 96.8317, -64.9029, 36.7303
5.688, 5, 35.2543, 51.9483, -15.0016, 96.8294, -64.918, 36.7229
5.692, 5, 35.2532, 51.952, -15.0014, 96.8271, -64.9331, 36.7154
5.696, 5, 35.252, 51.9557, -15.0011, 96.8248, -64.9482, 36.708
5.7, 5, 35.2509, 51.9594, -15.0009, 96.8225, -64.9633, 36.7005
5.704, 5, 35.2498, 51.9631, -15.0007, 96.8202, -64.9785, 36.693
5.708, 5, 35.2486, 51.9668, -15.0005, 96.8179, -64.9936, 36.6856
5.712, 5, 35.2475, 51.9705, -15.0002, 96.8156, -65.0087, 36.6781
5.716, 5, 35.2464, 51.9741, -15, 96.8133, -65.0238, 36.6707
5.72, 5, 35.2453, 51.9778, -14.9998, 96.811, -65.0389, 36.6632
5.724, 5, 35.2441, 51.9815, -14.9995, 96.8087, -65.054, 36.6558
5.728, 5, 35.243, 51.9852, -14.9993, 96.8064, -65.0691, 36.6483
5.732, 5, 35.2419, 51.9888, -14.9991, 96.804, -65.0842, 36.6409
5.736, 5, 35.2407, 51.9925, -14.9988, 96.8017, -65.0993, 36.6334
5.74, 5, 35.2396, 51.9962, -14.9986, 96.7994, -65.1144, 36.626
5.744, 5, 35.2384, 51.9998, -14.9983, 96.7971, -65.1296, 36.6185
5.748, 5, 35.2373, 52.0035, -14.998, 96.7947, -65.1447, 36.6111
5.752, 5, 35.2362, 52.0072, -14.9978, 96.7924, -65.1598, 36.6037
5.756, 5, 35.235, 52.0108, -14.9975, 96.79, -65.1749, 36.5962
5.76, 5, 35.2339, 52.0145, -14.9973, 96.7877, -65.19, 36.5888
5.764, 5, 35.2327, 52.0182, -14.997, 96.7854, -65.2051, 36.5814
5.768, 5, 35.2316, 52.0218, -14.9967, 96.783, -65.2202, 36.5739
5.772, 5, 35.2305, 52.0255, -14.9964, 96.7807, -65.2353, 36.5665
5.776, 5, 35.2293, 52.0291, -14.9962, 96.7783, -65.2504, 36.5591
5.78, 5, 35.2282, 52.0328, -14.9959, 96.7759, -65.2654, 36.5517
5.784, 5, 35.227, 52.0364, -14.9956, 96.7736, -65.2805, 36.5442
5.788, 5, 35.2259, 52.0401, -14.9953, 96.7712, -65.2956, 36.5368
5.792, 5, 35.2247, 52.0437, -14.995, 96.7689, -65.3107, 36.5294
5.796, 5, 35.2236, 52.0474, -14.9947, 96.7665, -65.3258, 36.522
5.8, 5, 35.2224, 52.051, -14.9944, 96.7641, -65.3409, 36.5145
5.804, 5, 35.2213, 52.0546, -14.9941, 96.7617, -65.356, 36.5071
5.808, 5, 35.2201, 52.0583, -14.9938, 96.7594, -65.3711, 36.4997
5.812, 5, 35.219, 52.0619, -14.9935, 96.757, -65.3862, 36.4923
5.816, 5, 35.2178, 52.0655, -14.9932, 96.7546, -65.4013, 36.4849
5.82, 5, 35.2167, 52.0692, -14.9929, 96.7522, -65.4164, 36.4775
5.824, 5, 35.2155, 52.0728, -14.9926, 96.7498, -65.4314, 36.4701
5.828, 5, 35.2144, 52.0764, -14.9922, 96.7474, -65.4465, 36.4627
5.832, 5, 35.2132, 52.0801, -14.9919, 96.745, -65.4616, 36.4552
5.836, 5, 35.2121, 52.0837, -14.9916, 96.7426, -65.4767, 36.4478
5.84, 5, 35.2109, 52.0873, -14.9913, 96.7402, -65.4918, 36.4404
5.844, 5, 35.2098, 52.0909, -14.9909, 96.7378, -65.5069, 36.433
5.848, 5, 35.2086, 52.0945, -14.9906, 96.7354, -65.5219, 36.4256
5.852, 5, 35.2074, 52.0982, -14.9903, 96.733, -65.537, 36.4182
5.856, 5, 35.2063, 52.1018, -14.9899, 96.7306, -65.5521, 36.4108
5.86, 5, 35.2051, 52.1054, -14.9896, 96.7282, -65.5672, 36.4034
5.864, 5, 35.204, 52.109, -14.9892, 96.7258, -65.5822, 36.3961
5.868, 5, 35.2028, 52.1126, -14.9889, 96.7233, -65.5973, 36.3887
5.872, 5, 35.2016, 52.1162, -14.9885, 96.7209, -65.6124, 36.3813
5.876, 5, 35.2005, 52.1198, -14.9882, 96.7185, -65.6275, 36.3739
5.88, 5, 35.1993, 52.1234, -14.9878, 96.7161, -65.6425, 36.3665
5.884, 5, 35.1981, 52.127, -14.9874, 96.7136, -65.6576, 36.3591
5.888, 5, 35.197, 52.1306, -14.9871, 96.7112, -65.6727, 36.3517
5.892, 5, 35.1958, 52.1342, -14.9867, 96.7088, -65.6877, 36.3443
5.896, 5, 35.1946, 52.1378, -14.9863, 96.7063, -65.7028, 36.337
5.9, 5, 35.1935, 52.1414, -14.986, 96.7039, -65.7179, 36.3296
5.904, 5, 35.1923, 52.145, -14.9856, 96.7014, -65.7329, 36.3222
5.908, 5, 35.1911, 52.1486, -14.9852, 96.699, -65.748, 36.3148
5.912, 5, 35.19, 52.1522, -14.9848, 96.6965, -65.7631, 36.3074
5.916, 5, 35.1888, 52.1558, -14.9844, 96.6941, -65.7781, 36.3001
5.92, 5, 35.1876, 52.1593, -14.984, 96.6916, -65.7932, 36.2927
5.924, 5, 35.1864, 52.1629, -14.9836, 96.6891, -65.8083, 36.2853
5.928, 5, 35.1853, 52.1665, -14.9832, 96.6867, -65.8233, 36.278
5.932, 5, 35.1841, 52.1701, -14.9828, 96.6842, -65.8384, 36.2706
5.936, 5, 35.1829, 52.1737, -14.9824, 96.6817, -65.8534, 36.2632
5.94, 5, 35.1817, 52.1772, -14.982, 96.6793, -65.8685, 36.2559
5.944, 5, 35.1806, 52.1808, -14.9816, 96.6768, -65.8835, 36.2485
5.948, 5, 35.1794, 52.1844, -14.9812, 96.6743, -65.8986, 36.2411
5.952, 5, 35.1782, 52.1879, -14.9808, 96.6718, -65.9137, 36.2338
5.956, 5, 35.177, 52.1915, -14.9804, 96.6693, -65.9287, 36.2264
5.96, 5, 35.1758, 52.1951, -14.9799, 96.6668, -65.9438, 36.2191
5.964, 5, 35.1747, 52.1986, -14.9795, 96.6643, -65.9588, 36.2117
5.968, 5, 35.1735, 52.2022, -14.9791, 96.6619, -65.9739, 36.2044
5.972, 5, 35.1723, 52.2058, -14.9786, 96.6594, -65.9889, 36.197
5.976, 5, 35.1711, 52.2093, -14.9782, 96.6569, -66.004, 36.1897
5.98, 5, 35.1699, 52.2129, -14.9778, 96.6544, -66.019, 36.1823
5.984, 5, 35.1687, 52.2164, -14.9773, 96.6519, -66.034, 36.175
5.988, 5, 35.1676, 52.22, -14.9769, 96.6493, -66.0491, 36.1676
5.992, 5, 35.1664, 52.2235, -14.9764, 96.6468, -66.0641, 36.1603
5.996, 5, 35.1652, 52.2271, -14.976, 96.6443, -66.0792, 36.1529
6, 5, 35.164, 52.2306, -14.9755, 96.6418, -66.0942, 36.1456
6.004, 5, 35.1628, 52.2342, -14.9751, 96.6393, -66.1093, 36.1382
6.008, 5, 35.1616, 52.2377, -14.9746, 96.6368, -66.1243, 36.1309
6.012, 5, 35.1604, 52.2412, -14.9741, 96.6342, -66.1393, 36.1236
6.016, 5, 35.1592, 52.2448, -14.9737, 96.6317, -66.1544, 36.1162
6.02, 5, 35.158, 52.2483, -14.9732, 96.6292, -66.1694, 36.1089
6.024, 5, 35.1568, 52.2518, -14.9727, 96.6266, -66.1845, 36.1016
6.028, 5, 35.1557, 52.2554, -14.9722, 96.6241, -66.1995, 36.0942
6.032, 5, 35.1545, 52.2589, -14.9718, 96.6216, -66.2145, 36.0869
6.036, 5, 35.1533, 52.2624, -14.9713, 96.619, -66.2296, 36.0796
6.04, 5, 35.1521, 52.266, -14.9708, 96.6165, -66.2446, 36.0722
6.044, 5, 35.1509, 52.2695, -14.9703, 96.6139, -66.2596, 36.0649
6.048, 5, 35.1497, 52.273, -14.9698, 96.6114, -66.2747, 36.0576
