hehonglu123/ABB_Primitive_Study/execution/movec/curve_exe_v400_z5.csv
timestamp, cmd_num, J1, J2, J3, J4, J5, J6
0, 1, 32.9528, 52.8019, -8.46502, 89.9168, -78.8096, 34.6812
0.002, 1, 32.9528, 52.8019, -8.46502, 89.9168, -78.8096, 34.6812
0.004, 1, 32.9528, 52.8019, -8.46502, 89.9168, -78.8096, 34.6812
0.01, 1, 32.9528, 52.8019, -8.46502, 89.9168, -78.8096, 34.6812
0.012, 1, 32.9528, 52.8019, -8.46502, 89.9168, -78.8096, 34.6812
0.016, 1, 32.9528, 52.8019, -8.46502, 89.9168, -78.8096, 34.6812
0.02, 1, 32.9528, 52.8019, -8.46502, 89.9168, -78.8096, 34.6812
0.024, 1, 32.9528, 52.8019, -8.46502, 89.9168, -78.8096, 34.6812
0.028, 1, 32.9528, 52.8019, -8.46502, 89.9168, -78.8096, 34.6812
0.032, 1, 32.9528, 52.8019, -8.46502, 89.9168, -78.8096, 34.6812
0.036, 1, 32.9529, 52.8019, -8.46502, 89.9168, -78.8096, 34.6812
0.04, 1, 32.9531, 52.8018, -8.46503, 89.9168, -78.8095, 34.6812
0.044, 1, 32.9535, 52.8014, -8.46504, 89.9169, -78.8095, 34.6812
0.048, 1, 32.9543, 52.8006, -8.46509, 89.9169, -78.8093, 34.6813
0.052, 1, 32.9556, 52.7993, -8.46521, 89.917, -78.8088, 34.6815
0.056, 1, 32.9574, 52.7971, -8.46543, 89.9173, -78.8079, 34.6818
0.06, 1, 32.9597, 52.794, -8.46584, 89.9178, -78.8061, 34.6824
0.064, 1, 32.9625, 52.7899, -8.46653, 89.9186, -78.803, 34.6835
0.068, 1, 32.9659, 52.7849, -8.46761, 89.92, -78.798, 34.6852
0.072, 1, 32.9697, 52.7789, -8.46923, 89.922, -78.7905, 34.6877
0.076, 1, 32.9741, 52.7719, -8.47155, 89.925, -78.7796, 34.6915
0.08, 1, 32.9791, 52.7639, -8.47475, 89.9292, -78.7644, 34.6967
0.084, 1, 32.9847, 52.7549, -8.47904, 89.9348, -78.744, 34.7037
0.088, 1, 32.991, 52.7451, -8.48461, 89.9421, -78.7174, 34.7128
0.092, 1, 32.9978, 52.7344, -8.49169, 89.9515, -78.6834, 34.7244
0.096, 1, 33.005, 52.7231, -8.50046, 89.9631, -78.6411, 34.7389
0.1, 1, 33.0126, 52.7112, -8.51109, 89.9773, -78.5897, 34.7566
0.104, 1, 33.0204, 52.699, -8.5237, 89.9942, -78.5285, 34.7775
0.108, 1, 33.0284, 52.6863, -8.53837, 90.0139, -78.4572, 34.802
0.112, 1, 33.0368, 52.673, -8.55512, 90.0364, -78.3757, 34.8299
0.116, 1, 33.0455, 52.6592, -8.57391, 90.0617, -78.2841, 34.8613
0.12, 1, 33.0546, 52.6447, -8.59467, 90.0896, -78.183, 34.896
0.124, 1, 33.0642, 52.6296, -8.61726, 90.12, -78.0728, 34.9337
0.128, 1, 33.0741, 52.6139, -8.64153, 90.1527, -77.9545, 34.9743
0.131, 1, 33.0844, 52.5977, -8.6673, 90.1875, -77.8288, 35.0174
0.136, 1, 33.0949, 52.5809, -8.69437, 90.2239, -77.6968, 35.0627
0.139, 1, 33.1058, 52.5633, -8.72251, 90.2618, -77.5596, 35.1097
0.144, 1, 33.1172, 52.5447, -8.75152, 90.3009, -77.4182, 35.1582
0.148, 1, 33.1293, 52.525, -8.7812, 90.3408, -77.2736, 35.2077
0.152, 1, 33.1421, 52.5041, -8.81138, 90.3814, -77.1267, 35.2581
0.156, 1, 33.1556, 52.4819, -8.8419, 90.4224, -76.9782, 35.309
0.16, 1, 33.17, 52.4586, -8.87265, 90.4637, -76.8286, 35.3603
0.164, 1, 33.1849, 52.4345, -8.90354, 90.5052, -76.6784, 35.4118
0.168, 1, 33.2004, 52.4098, -8.9345, 90.5467, -76.5279, 35.4634
0.172, 1, 33.2161, 52.3847, -8.9655, 90.5883, -76.3772, 35.515
0.176, 1, 33.2321, 52.3594, -8.9965, 90.6299, -76.2265, 35.5667
0.18, 1, 33.2481, 52.334, -9.02748, 90.6715, -76.076, 35.6183
0.184, 1, 33.2643, 52.3084, -9.05844, 90.713, -75.9256, 35.6699
0.188, 1, 33.2805, 52.2828, -9.08935, 90.7545, -75.7754, 35.7214
0.192, 1, 33.2967, 52.2573, -9.12022, 90.7959, -75.6254, 35.7728
0.196, 1, 33.3129, 52.2317, -9.15103, 90.8372, -75.4757, 35.8241
0.2, 1, 33.3291, 52.2061, -9.1818, 90.8785, -75.3262, 35.8753
0.204, 1, 33.3453, 52.1806, -9.21251, 90.9197, -75.177, 35.9265
0.208, 1, 33.3614, 52.1551, -9.24316, 90.9608, -75.028, 35.9775
0.212, 1, 33.3776, 52.1296, -9.27376, 91.0018, -74.8794, 36.0285
0.216, 1, 33.3937, 52.1042, -9.3043, 91.0428, -74.731, 36.0794
0.22, 1, 33.4098, 52.0788, -9.33479, 91.0837, -74.5829, 36.1302
0.224, 1, 33.4258, 52.0535, -9.36522, 91.1245, -74.435, 36.1808
0.228, 1, 33.4419, 52.0282, -9.3956, 91.1652, -74.2874, 36.2314
0.232, 1, 33.4579, 52.003, -9.42592, 91.2059, -74.1401, 36.2819
0.236, 1, 33.4738, 51.9778, -9.45618, 91.2465, -73.9931, 36.3323
0.24, 1, 33.4898, 51.9526, -9.48639, 91.287, -73.8463, 36.3826
0.244, 1, 33.5057, 51.9275, -9.51654, 91.3275, -73.6998, 36.4329
0.248, 1, 33.5216, 51.9025, -9.54664, 91.3678, -73.5536, 36.483
0.252, 1, 33.5374, 51.8774, -9.57668, 91.4081, -73.4076, 36.533
0.256, 1, 33.5533, 51.8525, -9.60667, 91.4483, -73.2619, 36.583
0.26, 1, 33.5691, 51.8276, -9.6366, 91.4885, -73.1165, 36.6328
0.264, 1, 33.5848, 51.8027, -9.66649, 91.5286, -72.9713, 36.6826
0.268, 1, 33.6006, 51.7778, -9.69631, 91.5686, -72.8264, 36.7323
0.272, 1, 33.6163, 51.7531, -9.72609, 91.6085, -72.6817, 36.7819
0.276, 1, 33.632, 51.7283, -9.75581, 91.6484, -72.5373, 36.8314
0.28, 1, 33.6476, 51.7036, -9.78547, 91.6882, -72.3932, 36.8808
0.284, 1, 33.6633, 51.679, -9.81509, 91.7279, -72.2493, 36.9301
0.288, 1, 33.6789, 51.6544, -9.84465, 91.7675, -72.1057, 36.9794
0.292, 1, 33.6945, 51.6298, -9.87416, 91.8071, -71.9623, 37.0285
0.296, 1, 33.71, 51.6053, -9.90362, 91.8466, -71.8191, 37.0776
0.3, 1, 33.7255, 51.5808, -9.93303, 91.8861, -71.6763, 37.1265
0.304, 1, 33.741, 51.5563, -9.96238, 91.9255, -71.5336, 37.1754
0.308, 1, 33.7565, 51.5319, -9.99169, 91.9648, -71.3913, 37.2243
0.312, 1, 33.7719, 51.5076, -10.0209, 92.004, -71.2491, 37.273
0.316, 1, 33.7873, 51.4833, -10.0501, 92.0432, -71.1073, 37.3216
0.32, 1, 33.8027, 51.459, -10.0793, 92.0823, -70.9656, 37.3702
0.324, 1, 33.8181, 51.4348, -10.1084, 92.1213, -70.8242, 37.4186
0.328, 1, 33.8334, 51.4106, -10.1374, 92.1603, -70.6831, 37.467
0.332, 1, 33.8487, 51.3864, -10.1665, 92.1992, -70.5422, 37.5153
0.336, 1, 33.864, 51.3623, -10.1954, 92.238, -70.4015, 37.5636
0.34, 1, 33.8793, 51.3383, -10.2243, 92.2768, -70.261, 37.6117
0.344, 1, 33.8945, 51.3142, -10.2532, 92.3155, -70.1209, 37.6598
0.348, 1, 33.9097, 51.2903, -10.282, 92.3541, -69.9809, 37.7077
0.352, 1, 33.9249, 51.2663, -10.3107, 92.3927, -69.8412, 37.7556
0.356, 1, 33.94, 51.2424, -10.3394, 92.4312, -69.7017, 37.8034
0.36, 1, 33.9552, 51.2186, -10.3681, 92.4696, -69.5624, 37.8512
0.364, 1, 33.9703, 51.1947, -10.3967, 92.508, -69.4234, 37.8988
0.368, 1, 33.9853, 51.171, -10.4253, 92.5463, -69.2846, 37.9464
0.372, 1, 34.0004, 51.1472, -10.4538, 92.5846, -69.1461, 37.9939
0.376, 1, 34.0154, 51.1235, -10.4823, 92.6228, -69.0078, 38.0413
0.38, 1, 34.0304, 51.0998, -10.5107, 92.6609, -68.8697, 38.0887
0.384, 1, 34.0454, 51.0762, -10.5391, 92.6989, -68.7318, 38.1359
0.388, 1, 34.0604, 51.0526, -10.5674, 92.7369, -68.5941, 38.1831
0.392, 1, 34.0753, 51.0291, -10.5957, 92.7749, -68.4567, 38.2302
0.396, 1, 34.0902, 51.0056, -10.6239, 92.8127, -68.3195, 38.2773
0.4, 1, 34.1051, 50.9821, -10.6521, 92.8506, -68.1826, 38.3242
0.404, 1, 34.1199, 50.9587, -10.6803, 92.8883, -68.0458, 38.3711
0.408, 1, 34.1348, 50.9353, -10.7084, 92.926, -67.9093, 38.4179
0.412, 1, 34.1496, 50.9119, -10.7364, 92.9636, -67.773, 38.4646
0.416, 1, 34.1643, 50.8886, -10.7644, 93.0012, -67.6369, 38.5113
0.42, 1, 34.1791, 50.8653, -10.7924, 93.0387, -67.501, 38.5579
0.424, 1, 34.1938, 50.8421, -10.8203, 93.0762, -67.3653, 38.6044
0.428, 1, 34.2086, 50.8189, -10.8482, 93.1136, -67.2299, 38.6508
0.432, 1, 34.2232, 50.7957, -10.876, 93.1509, -67.0947, 38.6971
0.436, 1, 34.2379, 50.7726, -10.9038, 93.1881, -66.9597, 38.7434
0.44, 1, 34.2526, 50.7495, -10.9315, 93.2254, -66.8249, 38.7896
0.444, 1, 34.2672, 50.7264, -10.9592, 93.2625, -66.6903, 38.8358
0.448, 1, 34.2818, 50.7034, -10.9869, 93.2996, -66.5559, 38.8818
0.452, 1, 34.2964, 50.6804, -11.0145, 93.3367, -66.4217, 38.9278
0.456, 1, 34.3109, 50.6574, -11.0421, 93.3736, -66.2878, 38.9738
0.46, 1, 34.3254, 50.6345, -11.0696, 93.4106, -66.154, 39.0196
0.464, 1, 34.3399, 50.6116, -11.0971, 93.4474, -66.0204, 39.0654
0.468, 1, 34.3544, 50.5888, -11.1246, 93.4842, -65.8871, 39.1111
0.472, 1, 34.3689, 50.566, -11.152, 93.521, -65.754, 39.1567
0.476, 1, 34.3833, 50.5432, -11.1793, 93.5577, -65.621, 39.2023
0.48, 1, 34.3978, 50.5204, -11.2066, 93.5943, -65.4883, 39.2478
0.484, 1, 34.4121, 50.4977, -11.2339, 93.6309, -65.3558, 39.2933
0.488, 1, 34.4265, 50.475, -11.2612, 93.6675, -65.2234, 39.3386
0.492, 1, 34.4409, 50.4524, -11.2883, 93.7039, -65.0913, 39.3839
0.496, 1, 34.4552, 50.4298, -11.3155, 93.7404, -64.9594, 39.4291
0.5, 1, 34.4695, 50.4072, -11.3426, 93.7767, -64.8276, 39.4743
0.504, 1, 34.4838, 50.3847, -11.3697, 93.813, -64.6961, 39.5194
0.508, 1, 34.4981, 50.3622, -11.3967, 93.8493, -64.5647, 39.5644
0.512, 1, 34.5123, 50.3397, -11.4237, 93.8855, -64.4336, 39.6094
0.516, 1, 34.5265, 50.3173, -11.4507, 93.9217, -64.3026, 39.6543
0.52, 1, 34.5408, 50.2949, -11.4776, 93.9578, -64.1719, 39.6991
0.524, 1, 34.5549, 50.2725, -11.5045, 93.9938, -64.0413, 39.7439
0.528, 1, 34.5691, 50.2501, -11.5313, 94.0298, -63.9109, 39.7886
0.532, 1, 34.5832, 50.2278, -11.5581, 94.0657, -63.7807, 39.8332
0.536, 1, 34.5974, 50.2056, -11.5848, 94.1016, -63.6507, 39.8777
0.54, 1, 34.6115, 50.1833, -11.6116, 94.1375, -63.5209, 39.9222
0.544, 1, 34.6255, 50.1611, -11.6382, 94.1732, -63.3913, 39.9667
0.548, 1, 34.6396, 50.1389, -11.6649, 94.209, -63.2619, 40.0111
0.552, 1, 34.6536, 50.1168, -11.6915, 94.2447, -63.1326, 40.0554
0.556, 1, 34.6677, 50.0947, -11.718, 94.2803, -63.0036, 40.0996
0.56, 1, 34.6817, 50.0726, -11.7446, 94.3159, -62.8747, 40.1438
0.564, 1, 34.6956, 50.0505, -11.7711, 94.3514, -62.746, 40.1879
0.568, 1, 34.7096, 50.0285, -11.7975, 94.3869, -62.6175, 40.2319
0.572, 1, 34.7235, 50.0065, -11.8239, 94.4223, -62.4892, 40.2759
0.576, 1, 34.7375, 49.9846, -11.8503, 94.4577, -62.361, 40.3199
0.58, 1, 34.7514, 49.9626, -11.8766, 94.493, -62.2331, 40.3637
0.584, 1, 34.7652, 49.9407, -11.9029, 94.5283, -62.1053, 40.4075
0.588, 1, 34.7791, 49.9189, -11.9292, 94.5635, -61.9777, 40.4513
0.592, 1, 34.7929, 49.897, -11.9554, 94.5987, -61.8503, 40.495
0.596, 1, 34.8068, 49.8752, -11.9816, 94.6338, -61.723, 40.5386
0.6, 1, 34.8206, 49.8535, -12.0078, 94.6689, -61.5959, 40.5821
0.604, 1, 34.8343, 49.8317, -12.0339, 94.7039, -61.4691, 40.6256
0.608, 1, 34.8481, 49.81, -12.0599, 94.7389, -61.3423, 40.6691
0.612, 1, 34.8618, 49.7883, -12.086, 94.7738, -61.2158, 40.7125
0.616, 1, 34.8756, 49.7667, -12.112, 94.8087, -61.0894, 40.7558
0.62, 1, 34.8893, 49.7451, -12.138, 94.8435, -60.9632, 40.799
0.624, 1, 34.903, 49.7235, -12.1639, 94.8783, -60.8372, 40.8422
0.628, 1, 34.9166, 49.7019, -12.1898, 94.9131, -60.7114, 40.8854
0.632, 1, 34.9303, 49.6804, -12.2157, 94.9478, -60.5857, 40.9284
0.636, 1, 34.9439, 49.6589, -12.2415, 94.9824, -60.4602, 40.9715
0.64, 1, 34.9575, 49.6374, -12.2673, 95.017, -60.3349, 41.0144
0.644, 1, 34.9711, 49.6159, -12.2931, 95.0516, -60.2097, 41.0573
0.648, 1, 34.9847, 49.5945, -12.3188, 95.0861, -60.0847, 41.1002
0.652, 1, 34.9983, 49.5731, -12.3445, 95.1205, -59.9599, 41.143
0.656, 1, 35.0118, 49.5518, -12.3701, 95.1549, -59.8352, 41.1857
0.66, 1, 35.0253, 49.5304, -12.3958, 95.1893, -59.7107, 41.2284
0.664, 1, 35.0388, 49.5091, -12.4214, 95.2236, -59.5864, 41.271
0.668, 1, 35.0523, 49.4879, -12.4469, 95.2579, -59.4622, 41.3136
0.672, 1, 35.0658, 49.4666, -12.4724, 95.2921, -59.3382, 41.3561
0.676, 1, 35.0792, 49.4454, -12.4979, 95.3263, -59.2144, 41.3985
0.68, 1, 35.0927, 49.4242, -12.5234, 95.3605, -59.0907, 41.4409
0.684, 1, 35.1061, 49.4031, -12.5488, 95.3946, -58.9672, 41.4833
0.688, 1, 35.1195, 49.3819, -12.5742, 95.4286, -58.8439, 41.5256
0.692, 1, 35.1329, 49.3608, -12.5995, 95.4626, -58.7207, 41.5678
0.696, 1, 35.1462, 49.3397, -12.6249, 95.4966, -58.5977, 41.61
0.7, 1, 35.1596, 49.3187, -12.6501, 95.5305, -58.4748, 41.6521
0.704, 1, 35.1729, 49.2977, -12.6754, 95.5644, -58.3521, 41.6941
0.708, 1, 35.1862, 49.2767, -12.7006, 95.5982, -58.2296, 41.7361
0.712, 1, 35.1995, 49.2557, -12.7258, 95.632, -58.1072, 41.7781
0.716, 1, 35.2128, 49.2347, -12.751, 95.6657, -57.985, 41.82
0.72, 1, 35.226, 49.2138, -12.7761, 95.6994, -57.8629, 41.8618
0.724, 1, 35.2393, 49.1929, -12.8012, 95.7331, -57.741, 41.9036
0.728, 1, 35.2525, 49.1721, -12.8262, 95.7667, -57.6192, 41.9454
0.732, 1, 35.2657, 49.1512, -12.8513, 95.8003, -57.4976, 41.9871
0.736, 1, 35.2789, 49.1304, -12.8763, 95.8338, -57.3762, 42.0287
0.74, 1, 35.2921, 49.1097, -12.9012, 95.8673, -57.2549, 42.0703
0.744, 1, 35.3052, 49.0889, -12.9262, 95.9007, -57.1338, 42.1118
0.748, 1, 35.3184, 49.0682, -12.9511, 95.9341, -57.0128, 42.1533
0.752, 1, 35.3315, 49.0475, -12.9759, 95.9675, -56.8919, 42.1947
0.756, 1, 35.3446, 49.0268, -13.0008, 96.0008, -56.7712, 42.2361
0.76, 1, 35.3577, 49.0061, -13.0256, 96.0341, -56.6507, 42.2774
0.764, 1, 35.3708, 48.9855, -13.0504, 96.0673, -56.5303, 42.3187
0.768, 1, 35.3838, 48.9649, -13.0751, 96.1005, -56.4101, 42.3599
0.772, 1, 35.3969, 48.9443, -13.0998, 96.1336, -56.29, 42.401
0.776, 1, 35.4099, 48.9238, -13.1245, 96.1667, -56.1701, 42.4422
0.78, 1, 35.4229, 48.9032, -13.1492, 96.1998, -56.0503, 42.4832
0.784, 1, 35.4359, 48.8827, -13.1738, 96.2328, -55.9307, 42.5242
0.788, 1, 35.4489, 48.8623, -13.1984, 96.2658, -55.8112, 42.5652
0.792, 1, 35.4619, 48.8418, -13.2229, 96.2988, -55.6918, 42.6061
0.796, 1, 35.4748, 48.8214, -13.2475, 96.3317, -55.5726, 42.647
0.8, 1, 35.4877, 48.801, -13.272, 96.3645, -55.4535, 42.6878
0.804, 1, 35.5006, 48.7806, -13.2965, 96.3974, -55.3346, 42.7285
0.808, 1, 35.5136, 48.7603, -13.3209, 96.4302, -55.2159, 42.7693
0.812, 1, 35.5264, 48.7399, -13.3453, 96.4629, -55.0972, 42.8099
0.816, 1, 35.5393, 48.7196, -13.3697, 96.4956, -54.9787, 42.8506
0.82, 1, 35.5522, 48.6994, -13.3941, 96.5283, -54.8604, 42.8911
0.824, 1, 35.565, 48.6791, -13.4184, 96.5609, -54.7422, 42.9316
0.828, 1, 35.5778, 48.6589, -13.4427, 96.5935, -54.6241, 42.9721
0.832, 1, 35.5906, 48.6387, -13.467, 96.6261, -54.5062, 43.0125
0.836, 1, 35.6034, 48.6185, -13.4912, 96.6586, -54.3884, 43.0529
0.84, 1, 35.6162, 48.5983, -13.5154, 96.6911, -54.2707, 43.0933
0.844, 1, 35.629, 48.5782, -13.5396, 96.7235, -54.1532, 43.1335
0.848, 1, 35.6417, 48.5581, -13.5638, 96.7559, -54.0358, 43.1738
0.852, 1, 35.6545, 48.538, -13.5879, 96.7883, -53.9186, 43.214
0.856, 1, 35.6672, 48.5179, -13.612, 96.8206, -53.8015, 43.2541
0.86, 1, 35.6799, 48.4979, -13.6361, 96.8529, -53.6845, 43.2942
0.864, 1, 35.6925, 48.4779, -13.6601, 96.8852, -53.5677, 43.3343
0.868, 1, 35.7051, 48.458, -13.6841, 96.9174, -53.451, 43.3743
0.872, 1, 35.7176, 48.4381, -13.7081, 96.9496, -53.3345, 43.4142
0.876, 1, 35.73, 48.4184, -13.7321, 96.9817, -53.2181, 43.4541
0.88, 1, 35.7419, 48.3992, -13.756, 97.0137, -53.102, 43.4939
0.884, 1, 35.7533, 48.3805, -13.7798, 97.0457, -52.9863, 43.5336
0.888, 1, 35.7641, 48.3627, -13.8035, 97.0775, -52.8712, 43.5731
0.892, 1, 35.7742, 48.3457, -13.8269, 97.109, -52.757, 43.6122
0.896, 1, 35.7836, 48.3297, -13.8501, 97.1401, -52.6444, 43.6508
0.9, 1, 35.7924, 48.3145, -13.8728, 97.1706, -52.534, 43.6887
0.904, 1, 35.8007, 48.3002, -13.895, 97.2003, -52.4264, 43.7256
0.908, 1, 35.8087, 48.2866, -13.9163, 97.229, -52.3226, 43.7613
0.912, 1, 35.8164, 48.2736, -13.9367, 97.2564, -52.2234, 43.7953
0.916, 1, 35.8238, 48.2613, -13.956, 97.2823, -52.1296, 43.8275
0.92, 1, 35.8309, 48.2497, -13.9741, 97.3065, -52.042, 43.8576
0.924, 1, 35.8377, 48.2387, -13.9907, 97.3288, -51.9612, 43.8853
0.928, 1, 35.8442, 48.2281, -14.0057, 97.3491, -51.888, 43.9104
0.932, 1, 35.8507, 48.2178, -14.0192, 97.3671, -51.8226, 43.9328
0.936, 1, 35.8571, 48.2077, -14.031, 97.3829, -51.7653, 43.9524
0.94, 1, 35.8634, 48.1979, -14.0412, 97.3966, -51.716, 43.9693
0.944, 1, 35.8695, 48.1884, -14.0498, 97.4081, -51.6743, 43.9836
0.948, 1, 35.8755, 48.1793, -14.0569, 97.4175, -51.6399, 43.9954
0.952, 2, 35.8812, 48.1708, -14.0626, 97.4252, -51.612, 44.0049
0.956, 2, 35.8865, 48.1631, -14.0672, 97.4313, -51.5899, 44.0124
0.96, 2, 35.8915, 48.1562, -14.0707, 97.436, -51.5728, 44.0183
0.964, 2, 35.896, 48.1502, -14.0734, 97.4396, -51.5598, 44.0227
0.968, 2, 35.9001, 48.145, -14.0754, 97.4422, -51.5503, 44.0259
0.972, 2, 35.9037, 48.1406, -14.0768, 97.4441, -51.5433, 44.0283
0.976, 2, 35.9067, 48.1371, -14.0778, 97.4454, -51.5385, 44.0299
0.98, 2, 35.9091, 48.1343, -14.0785, 97.4463, -51.5351, 44.0311
0.984, 2, 35.911, 48.1323, -14.079, 97.4469, -51.5327, 44.0319
0.988, 2, 35.9123, 48.1308, -14.0793, 97.4474, -51.5312, 44.0324
0.992, 2, 35.9132, 48.1299, -14.0796, 97.4477, -51.5301, 44.0328
0.996, 2, 35.9138, 48.1292, -14.0797, 97.4479, -51.5294, 44.033
1, 2, 35.9142, 48.1287, -14.0798, 97.448, -51.5289, 44.0332
1.004, 2, 35.9145, 48.1284, -14.0799, 97.4481, -51.5285, 44.0333
1.008, 2, 35.9147, 48.1282, -14.0799, 97.4482, -51.5283, 44.0334
1.012, 2, 35.9149, 48.1281, -14.08, 97.4482, -51.5282, 44.0334
1.016, 2, 35.9149, 48.128, -14.08, 97.4482, -51.5281, 44.0335
1.02, 2, 35.915, 48.1279, -14.08, 97.4482, -51.528, 44.0335
1.024, 2, 35.915, 48.1279, -14.08, 97.4483, -51.5279, 44.0335
1.027, 2, 35.9151, 48.1278, -14.08, 97.4483, -51.5279, 44.0335
1.032, 2, 35.9151, 48.1278, -14.08, 97.4483, -51.5279, 44.0335
1.036, 2, 35.9151, 48.1278, -14.08, 97.4483, -51.5279, 44.0335
1.04, 2, 35.9151, 48.1278, -14.08, 97.4483, -51.5279, 44.0335
1.044, 2, 35.9151, 48.1278, -14.08, 97.4483, -51.5279, 44.0335
1.048, 2, 35.9151, 48.1278, -14.08, 97.4483, -51.5279, 44.0335
1.052, 2, 35.9151, 48.1278, -14.08, 97.4483, -51.5278, 44.0335
1.055, 2, 35.9151, 48.1278, -14.08, 97.4483, -51.5278, 44.0335
1.06, 2, 35.9151, 48.1278, -14.08, 97.4483, -51.5278, 44.0335
1.064, 2, 35.9151, 48.1278, -14.08, 97.4483, -51.5278, 44.0335
1.068, 2, 35.9151, 48.1278, -14.08, 97.4483, -51.5278, 44.0335
1.072, 2, 35.9151, 48.1278, -14.08, 97.4483, -51.5278, 44.0335
1.076, 2, 35.9151, 48.1278, -14.08, 97.4483, -51.5278, 44.0335
1.08, 2, 35.9151, 48.1278, -14.08, 97.4483, -51.5278, 44.0335
1.084, 2, 35.9151, 48.1278, -14.08, 97.4483, -51.5278, 44.0335
1.088, 2, 35.9151, 48.1278, -14.08, 97.4483, -51.5278, 44.0335
1.091, 2, 35.9151, 48.1278, -14.08, 97.4483, -51.5278, 44.0335
1.096, 2, 35.9151, 48.1278, -14.08, 97.4483, -51.5278, 44.0335
1.1, 2, 35.9151, 48.1278, -14.08, 97.4483, -51.5278, 44.0335
1.104, 2, 35.9151, 48.1278, -14.08, 97.4483, -51.5278, 44.0335
1.108, 2, 35.9151, 48.1278, -14.08, 97.4483, -51.5278, 44.0335
1.112, 2, 35.9151, 48.1278, -14.08, 97.4483, -51.5278, 44.0335
1.116, 2, 35.9151, 48.1278, -14.08, 97.4483, -51.5278, 44.0335
1.119, 2, 35.9151, 48.1278, -14.08, 97.4483, -51.5278, 44.0335
1.124, 2, 35.9151, 48.1278, -14.08, 97.4483, -51.5278, 44.0335
1.128, 2, 35.9151, 48.1278, -14.08, 97.4483, -51.5278, 44.0335
1.132, 2, 35.9151, 48.1278, -14.08, 97.4483, -51.5278, 44.0335
1.136, 2, 35.9151, 48.1278, -14.08, 97.4483, -51.5278, 44.0335
1.14, 2, 35.9151, 48.1278, -14.08, 97.4483, -51.5278, 44.0335
1.144, 2, 35.9151, 48.1278, -14.08, 97.4483, -51.5278, 44.0335
1.147, 2, 35.9151, 48.1278, -14.08, 97.4483, -51.5278, 44.0335
1.152, 2, 35.9151, 48.1278, -14.08, 97.4483, -51.5278, 44.0335
1.156, 2, 35.9151, 48.1278, -14.08, 97.4483, -51.5278, 44.0335
1.16, 2, 35.9151, 48.1278, -14.08, 97.4483, -51.5278, 44.0335
1.164, 2, 35.9151, 48.1278, -14.08, 97.4483, -51.5278, 44.0335
1.168, 2, 35.9151, 48.1278, -14.08, 97.4483, -51.5278, 44.0335
1.172, 2, 35.9151, 48.1278, -14.08, 97.4483, -51.5278, 44.0335
1.175, 2, 35.9151, 48.1278, -14.08, 97.4483, -51.5278, 44.0335
1.18, 2, 35.9151, 48.1278, -14.08, 97.4483, -51.5278, 44.0335
1.184, 2, 35.9151, 48.1278, -14.08, 97.4483, -51.5278, 44.0335
1.188, 2, 35.9151, 48.1278, -14.08, 97.4483, -51.5278, 44.0335
1.192, 2, 35.9151, 48.1278, -14.08, 97.4483, -51.5278, 44.0335
1.196, 2, 35.9151, 48.1278, -14.08, 97.4483, -51.5278, 44.0335
1.2, 2, 35.9151, 48.1278, -14.08, 97.4483, -51.5278, 44.0335
1.204, 2, 35.9151, 48.1278, -14.08, 97.4483, -51.5278, 44.0335
1.208, 2, 35.9151, 48.1278, -14.08, 97.4483, -51.5278, 44.0335
1.212, 2, 35.9151, 48.1278, -14.08, 97.4483, -51.5278, 44.0335
1.216, 2, 35.9151, 48.1278, -14.08, 97.4483, -51.5278, 44.0335
1.22, 2, 35.9151, 48.1278, -14.08, 97.4483, -51.5278, 44.0335
1.224, 2, 35.9151, 48.1278, -14.08, 97.4483, -51.5278, 44.0335
1.228, 2, 35.9151, 48.1278, -14.08, 97.4483, -51.5278, 44.0335
1.232, 2, 35.9151, 48.1278, -14.08, 97.4483, -51.5278, 44.0335
1.236, 2, 35.9151, 48.1278, -14.08, 97.4483, -51.5278, 44.0335
1.24, 2, 35.9151, 48.1278, -14.08, 97.4483, -51.5278, 44.0335
1.244, 2, 35.9151, 48.1278, -14.08, 97.4483, -51.5278, 44.0335
1.248, 2, 35.9151, 48.1278, -14.08, 97.4483, -51.5278, 44.0335
1.252, 2, 35.9151, 48.1278, -14.08, 97.4483, -51.5278, 44.0335
1.256, 2, 35.9151, 48.1278, -14.08, 97.4483, -51.5278, 44.0335
1.26, 2, 35.9151, 48.1278, -14.08, 97.4483, -51.5278, 44.0335
1.264, 2, 35.9151, 48.1278, -14.08, 97.4483, -51.5278, 44.0335
1.267, 2, 35.9151, 48.1278, -14.08, 97.4483, -51.5278, 44.0335
1.272, 2, 35.9151, 48.1278, -14.08, 97.4483, -51.5278, 44.0335
1.276, 2, 35.9151, 48.1278, -14.08, 97.4483, -51.5278, 44.0335
1.28, 2, 35.9151, 48.1278, -14.08, 97.4483, -51.5278, 44.0335
1.284, 2, 35.9151, 48.1278, -14.08, 97.4483, -51.5278, 44.0335
1.288, 2, 35.9151, 48.1278, -14.08, 97.4483, -51.5278, 44.0335
1.292, 2, 35.9151, 48.1278, -14.08, 97.4483, -51.5278, 44.0335
1.295, 2, 35.9151, 48.1278, -14.08, 97.4483, -51.5278, 44.0335
1.3, 2, 35.9151, 48.1278, -14.08, 97.4483, -51.5278, 44.0335
1.304, 2, 35.9151, 48.1278, -14.08, 97.4483, -51.5278, 44.0335
1.308, 2, 35.9151, 48.1278, -14.08, 97.4483, -51.5278, 44.0335
1.312, 2, 35.9151, 48.1278, -14.08, 97.4483, -51.5278, 44.0335
1.316, 2, 35.9151, 48.1278, -14.08, 97.4483, -51.5278, 44.0335
1.32, 2, 35.9151, 48.1278, -14.08, 97.4483, -51.5278, 44.0335
1.324, 2, 35.9151, 48.1278, -14.08, 97.4483, -51.5278, 44.0335
1.328, 2, 35.9151, 48.1278, -14.08, 97.4483, -51.5278, 44.0335
1.332, 2, 35.9151, 48.1278, -14.08, 97.4483, -51.5278, 44.0335
1.336, 2, 35.9151, 48.1278, -14.08, 97.4483, -51.5278, 44.0335
1.34, 2, 35.9151, 48.1278, -14.08, 97.4483, -51.5278, 44.0335
1.344, 2, 35.9151, 48.1278, -14.08, 97.4483, -51.5278, 44.0335
1.348, 2, 35.9151, 48.1278, -14.08, 97.4483, -51.5278, 44.0335
1.352, 2, 35.9151, 48.1278, -14.08, 97.4483, -51.5278, 44.0335
1.356, 2, 35.9151, 48.1278, -14.08, 97.4483, -51.5278, 44.0335
1.36, 2, 35.9151, 48.1278, -14.08, 97.4483, -51.5278, 44.0335
1.364, 2, 35.9151, 48.1278, -14.08, 97.4483, -51.5278, 44.0335
1.368, 2, 35.9151, 48.1278, -14.08, 97.4483, -51.5278, 44.0335
1.372, 2, 35.9151, 48.1278, -14.08, 97.4483, -51.5278, 44.0335
1.376, 2, 35.9151, 48.1278, -14.08, 97.4483, -51.5278, 44.0335
1.38, 2, 35.9151, 48.1278, -14.08, 97.4483, -51.5278, 44.0335
1.384, 2, 35.9151, 48.1278, -14.08, 97.4483, -51.5278, 44.0335
1.388, 2, 35.9151, 48.1278, -14.08, 97.4483, -51.5278, 44.0335
1.392, 2, 35.9151, 48.1278, -14.08, 97.4483, -51.5278, 44.0335
1.396, 2, 35.9151, 48.1278, -14.08, 97.4483, -51.5278, 44.0335
1.4, 2, 35.9151, 48.1278, -14.08, 97.4483, -51.5278, 44.0335
1.404, 2, 35.9151, 48.1278, -14.08, 97.4483, -51.5278, 44.0335
1.408, 2, 35.9151, 48.1278, -14.08, 97.4483, -51.5278, 44.0335
1.412, 2, 35.9151, 48.1278, -14.08, 97.4483, -51.5278, 44.0335
1.416, 2, 35.9151, 48.1278, -14.08, 97.4483, -51.5278, 44.0335
1.42, 2, 35.9151, 48.1278, -14.08, 97.4483, -51.5278, 44.0335
1.424, 2, 35.9151, 48.1278, -14.08, 97.4483, -51.5278, 44.0335
1.428, 2, 35.9151, 48.1278, -14.08, 97.4483, -51.5278, 44.0335
1.432, 2, 35.9151, 48.1278, -14.08, 97.4483, -51.5278, 44.0335
1.436, 2, 35.9151, 48.1278, -14.08, 97.4483, -51.5278, 44.0335
1.44, 2, 35.9151, 48.1278, -14.08, 97.4483, -51.5278, 44.0335
1.444, 2, 35.9151, 48.1278, -14.08, 97.4483, -51.5278, 44.0335
1.448, 2, 35.9151, 48.1278, -14.08, 97.4483, -51.5278, 44.0335
1.452, 3, 35.9151, 48.1278, -14.08, 97.4483, -51.5278, 44.0335
1.456, 3, 35.9151, 48.1278, -14.08, 97.4483, -51.5278, 44.0335
1.46, 3, 35.9151, 48.1278, -14.08, 97.4483, -51.5278, 44.0335
1.464, 3, 35.9151, 48.1278, -14.08, 97.4483, -51.5278, 44.0335
1.468, 3, 35.9151, 48.1278, -14.08, 97.4483, -51.5278, 44.0335
1.472, 3, 35.9151, 48.1278, -14.08, 97.4483, -51.5278, 44.0335
1.476, 3, 35.9151, 48.1278, -14.08, 97.4483, -51.5278, 44.0335
1.48, 3, 35.9151, 48.1278, -14.08, 97.4483, -51.5278, 44.0335
1.484, 3, 35.9151, 48.1278, -14.08, 97.4483, -51.5278, 44.0335
1.488, 3, 35.9151, 48.1278, -14.08, 97.4483, -51.5278, 44.0335
1.492, 3, 35.9151, 48.1278, -14.08, 97.4483, -51.5278, 44.0335
1.496, 3, 35.9151, 48.1278, -14.08, 97.4483, -51.5278, 44.0335
1.5, 3, 35.9151, 48.1278, -14.08, 97.4483, -51.5278, 44.0335
1.504, 3, 35.9151, 48.1278, -14.08, 97.4483, -51.5278, 44.0335
1.508, 4, 35.9151, 48.1278, -14.08, 97.4483, -51.5278, 44.0335
1.512, 4, 35.9151, 48.1278, -14.08, 97.4483, -51.5278, 44.0335
1.516, 4, 35.9151, 48.1278, -14.08, 97.4483, -51.5278, 44.0335
1.52, 4, 35.9151, 48.1278, -14.08, 97.4483, -51.5278, 44.0335
1.524, 4, 35.9151, 48.1278, -14.08, 97.4483, -51.5278, 44.0335
1.528, 4, 35.9151, 48.1278, -14.08, 97.4483, -51.5278, 44.0335
1.532, 4, 35.9151, 48.1278, -14.08, 97.4483, -51.5278, 44.0335
1.536, 4, 35.9151, 48.1278, -14.08, 97.4483, -51.5278, 44.0335
1.54, 4, 35.9151, 48.1278, -14.08, 97.4483, -51.5278, 44.0335
1.544, 4, 35.9151, 48.1278, -14.08, 97.4483, -51.5278, 44.0335
1.548, 4, 35.9151, 48.128, -14.08, 97.4483, -51.5279, 44.0335
1.552, 4, 35.915, 48.1283, -14.0801, 97.4483, -51.5279, 44.0335
1.556, 4, 35.9147, 48.1291, -14.0801, 97.4483, -51.528, 44.0334
1.56, 4, 35.9143, 48.1303, -14.0802, 97.4483, -51.5284, 44.0332
1.564, 4, 35.9138, 48.1322, -14.0804, 97.4484, -51.5291, 44.0327
1.568, 4, 35.913, 48.1348, -14.0806, 97.4485, -51.5305, 44.0319
1.572, 4, 35.912, 48.1383, -14.0811, 97.4487, -51.5328, 44.0304
1.576, 4, 35.9108, 48.1427, -14.0818, 97.449, -51.5367, 44.0281
1.58, 4, 35.9094, 48.1483, -14.0827, 97.4495, -51.5424, 44.0245
1.584, 4, 35.9079, 48.1551, -14.0841, 97.4501, -51.5508, 44.0193
1.588, 4, 35.9061, 48.1634, -14.086, 97.451, -51.5626, 44.012
1.592, 4, 35.9042, 48.1733, -14.0884, 97.4522, -51.5784, 44.0023
1.596, 4, 35.9022, 48.185, -14.0916, 97.4537, -51.5992, 43.9894
1.6, 4, 35.9001, 48.1982, -14.0955, 97.4556, -51.6258, 43.973
1.604, 4, 35.898, 48.213, -14.1004, 97.458, -51.6591, 43.9525
1.608, 4, 35.8959, 48.2291, -14.1062, 97.4608, -51.6997, 43.9276
1.612, 4, 35.894, 48.2465, -14.1131, 97.4642, -51.7483, 43.8977
1.616, 4, 35.8921, 48.2653, -14.121, 97.468, -51.8051, 43.8629
1.62, 4, 35.8904, 48.2854, -14.13, 97.4723, -51.8704, 43.8229
1.624, 4, 35.8887, 48.307, -14.1401, 97.477, -51.9439, 43.7779
1.628, 4, 35.887, 48.3302, -14.1512, 97.4821, -52.0255, 43.728
1.632, 4, 35.8853, 48.355, -14.1632, 97.4876, -52.1147, 43.6737
1.636, 4, 35.8836, 48.3813, -14.1761, 97.4933, -52.2109, 43.6152
1.64, 4, 35.8819, 48.4089, -14.1897, 97.4993, -52.3133, 43.5529
1.644, 4, 35.8801, 48.4379, -14.204, 97.5053, -52.4212, 43.4875
1.648, 4, 35.8782, 48.4682, -14.2188, 97.5114, -52.5336, 43.4195
1.652, 4, 35.8762, 48.4999, -14.2339, 97.5175, -52.6498, 43.3493
1.656, 4, 35.8738, 48.533, -14.2494, 97.5235, -52.7689, 43.2776
1.66, 4, 35.8713, 48.5674, -14.265, 97.5294, -52.8902, 43.2047
1.664, 4, 35.8684, 48.603, -14.2807, 97.535, -53.0131, 43.1311
1.668, 4, 35.8652, 48.6396, -14.2965, 97.5405, -53.137, 43.057
1.672, 4, 35.8618, 48.6771, -14.3122, 97.5456, -53.2617, 42.9826
1.676, 4, 35.8582, 48.7151, -14.3278, 97.5505, -53.3869, 42.9082
1.68, 4, 35.8544, 48.7534, -14.3434, 97.5551, -53.5124, 42.8337
1.684, 4, 35.8505, 48.792, -14.3588, 97.5594, -53.6381, 42.7594
1.688, 4, 35.8465, 48.8307, -14.374, 97.5634, -53.7639, 42.6852
1.692, 4, 35.8424, 48.8694, -14.3892, 97.5671, -53.8897, 42.6111
1.696, 4, 35.8383, 48.9082, -14.4041, 97.5704, -54.0156, 42.5373
1.7, 4, 35.834, 48.9469, -14.4189, 97.5735, -54.1415, 42.4636
1.704, 4, 35.8297, 48.9855, -14.4335, 97.5763, -54.2674, 42.3901
1.708, 4, 35.8254, 49.0242, -14.4479, 97.5787, -54.3932, 42.3169
1.712, 4, 35.821, 49.0627, -14.4622, 97.5809, -54.519, 42.2438
1.716, 4, 35.8165, 49.1011, -14.4763, 97.5827, -54.6447, 42.171
1.72, 4, 35.812, 49.1395, -14.4902, 97.5843, -54.7705, 42.0984
1.724, 4, 35.8074, 49.1778, -14.5039, 97.5855, -54.8961, 42.026
1.729, 5, 35.8027, 49.216, -14.5175, 97.5864, -55.0217, 41.9539
1.732, 5, 35.798, 49.2541, -14.5309, 97.5871, -55.1473, 41.8819
1.736, 5, 35.7932, 49.2921, -14.544, 97.5874, -55.2728, 41.8102
1.74, 5, 35.7884, 49.33, -14.5571, 97.5875, -55.3983, 41.7386
1.744, 5, 35.7835, 49.3678, -14.5699, 97.5872, -55.5237, 41.6673
1.748, 5, 35.7786, 49.4055, -14.5826, 97.5867, -55.649, 41.5962
1.752, 5, 35.7736, 49.4432, -14.595, 97.5859, -55.7743, 41.5253
1.756, 5, 35.7685, 49.4807, -14.6073, 97.5848, -55.8995, 41.4546
1.76, 5, 35.7634, 49.5181, -14.6195, 97.5834, -56.0247, 41.384
1.764, 5, 35.7583, 49.5555, -14.6314, 97.5818, -56.1498, 41.3137
1.768, 5, 35.753, 49.5927, -14.6431, 97.5798, -56.2749, 41.2436
1.772, 5, 35.7478, 49.6299, -14.6547, 97.5776, -56.3999, 41.1737
1.776, 5, 35.7424, 49.6669, -14.6661, 97.5751, -56.5249, 41.104
1.78, 5, 35.737, 49.7038, -14.6773, 97.5723, -56.6498, 41.0344
1.784, 5, 35.7316, 49.7407, -14.6883, 97.5692, -56.7746, 40.9651
1.788, 5, 35.7261, 49.7775, -14.6992, 97.5659, -56.8994, 40.896
1.792, 5, 35.7206, 49.8141, -14.7098, 97.5623, -57.0242, 40.827
1.796, 5, 35.7149, 49.8507, -14.7203, 97.5584, -57.1489, 40.7582
1.8, 5, 35.7093, 49.8871, -14.7306, 97.5543, -57.2735, 40.6896
1.804, 5, 35.7035, 49.9235, -14.7407, 97.5499, -57.3981, 40.6212
1.808, 5, 35.6978, 49.9597, -14.7507, 97.5452, -57.5226, 40.553
1.812, 5, 35.6919, 49.9959, -14.7604, 97.5403, -57.647, 40.485
1.816, 5, 35.6861, 50.0319, -14.77, 97.5351, -57.7714, 40.4171
1.82, 5, 35.6801, 50.0679, -14.7793, 97.5297, -57.8958, 40.3494
1.824, 5, 35.6741, 50.1037, -14.7885, 97.524, -58.0201, 40.2819
1.828, 5, 35.6681, 50.1394, -14.7975, 97.518, -58.1443, 40.2146
1.832, 5, 35.662, 50.1751, -14.8064, 97.5118, -58.2685, 40.1474
1.836, 5, 35.6558, 50.2106, -14.815, 97.5053, -58.3926, 40.0804
1.84, 5, 35.6496, 50.2461, -14.8234, 97.4986, -58.5167, 40.0136
1.844, 5, 35.6433, 50.2814, -14.8317, 97.4916, -58.6407, 39.9469
1.848, 5, 35.637, 50.3166, -14.8398, 97.4843, -58.7646, 39.8805
1.852, 5, 35.6306, 50.3517, -14.8477, 97.4769, -58.8885, 39.8141
1.856, 5, 35.6242, 50.3868, -14.8554, 97.4691, -59.0123, 39.748
1.86, 5, 35.6177, 50.4217, -14.8629, 97.4612, -59.1361, 39.682
1.864, 5, 35.6111, 50.4565, -14.8702, 97.453, -59.2598, 39.6161
1.868, 5, 35.6045, 50.4912, -14.8774, 97.4445, -59.3835, 39.5505
1.872, 5, 35.5979, 50.5258, -14.8843, 97.4358, -59.5071, 39.4849
1.876, 5, 35.5912, 50.5603, -14.8911, 97.4268, -59.6306, 39.4196
1.88, 5, 35.5844, 50.5947, -14.8977, 97.4177, -59.7541, 39.3544
1.884, 5, 35.5776, 50.6289, -14.9041, 97.4083, -59.8775, 39.2893
1.888, 5, 35.5707, 50.6631, -14.9103, 97.3986, -60.0009, 39.2244
1.892, 5, 35.5638, 50.6972, -14.9163, 97.3887, -60.1242, 39.1597
1.896, 5, 35.5568, 50.7311, -14.9221, 97.3786, -60.2475, 39.0951
1.9, 5, 35.5498, 50.7649, -14.9277, 97.3682, -60.3706, 39.0306
1.904, 5, 35.5427, 50.7987, -14.9332, 97.3576, -60.4938, 38.9663
1.908, 5, 35.5356, 50.8323, -14.9384, 97.3468, -60.6168, 38.9022
1.912, 5, 35.5284, 50.8658, -14.9435, 97.3358, -60.7399, 38.8382
1.916, 5, 35.5212, 50.8992, -14.9484, 97.3245, -60.8628, 38.7743
1.92, 5, 35.5139, 50.9325, -14.953, 97.313, -60.9857, 38.7106
1.924, 5, 35.5065, 50.9657, -14.9575, 97.3013, -61.1085, 38.647
1.928, 5, 35.4991, 50.9988, -14.9618, 97.2893, -61.2313, 38.5836
1.932, 5, 35.4917, 51.0318, -14.9659, 97.2771, -61.354, 38.5203
1.936, 5, 35.4842, 51.0646, -14.9698, 97.2647, -61.4767, 38.4571
1.94, 5, 35.4766, 51.0974, -14.9736, 97.2521, -61.5993, 38.3941
1.944, 5, 35.469, 51.13, -14.9771, 97.2393, -61.7218, 38.3312
1.948, 5, 35.4613, 51.1625, -14.9804, 97.2262, -61.8443, 38.2684
1.952, 5, 35.4536, 51.1949, -14.9836, 97.213, -61.9667, 38.2058
1.956, 5, 35.4458, 51.2272, -14.9865, 97.1995, -62.089, 38.1433
1.96, 5, 35.438, 51.2594, -14.9892, 97.1858, -62.2113, 38.0809
1.964, 5, 35.4301, 51.2914, -14.9918, 97.1719, -62.3336, 38.0187
1.968, 5, 35.4222, 51.3234, -14.9942, 97.1577, -62.4557, 37.9566
1.972, 5, 35.4142, 51.3552, -14.9963, 97.1434, -62.5778, 37.8946
1.976, 5, 35.4061, 51.387, -14.9983, 97.1288, -62.6999, 37.8327
1.98, 5, 35.3981, 51.4186, -15.0001, 97.1141, -62.8219, 37.771
1.984, 5, 35.3899, 51.45, -15.0016, 97.0991, -62.9438, 37.7094
1.988, 5, 35.3817, 51.4814, -15.003, 97.0839, -63.0657, 37.6479
1.992, 5, 35.3735, 51.5127, -15.0042, 97.0685, -63.1875, 37.5866
1.996, 5, 35.3652, 51.5438, -15.0052, 97.0529, -63.3092, 37.5253
1.999, 5, 35.3568, 51.5748, -15.006, 97.0371, -63.4309, 37.4642
2.004, 5, 35.3484, 51.6058, -15.0066, 97.0211, -63.5525, 37.4032
2.008, 5, 35.3399, 51.6365, -15.0069, 97.0049, -63.674, 37.3423
2.012, 5, 35.3314, 51.6672, -15.0071, 96.9885, -63.7955, 37.2815
2.015, 5, 35.3229, 51.6978, -15.0071, 96.9719, -63.917, 37.2209
2.019, 5, 35.3142, 51.7282, -15.0069, 96.9551, -64.0383, 37.1603
2.024, 5, 35.3056, 51.7585, -15.0065, 96.9381, -64.1596, 37.0999
2.028, 5, 35.2969, 51.7887, -15.0059, 96.9209, -64.2809, 37.0395
2.031, 5, 35.2881, 51.8188, -15.0051, 96.9035, -64.4021, 36.9793
2.036, 5, 35.2793, 51.8488, -15.0041, 96.8859, -64.5232, 36.9192
2.04, 5, 35.2704, 51.8786, -15.0029, 96.8681, -64.6443, 36.8592
2.044, 5, 35.2615, 51.9083, -15.0015, 96.8502, -64.7653, 36.7993
2.048, 5, 35.2525, 51.9379, -14.9999, 96.832, -64.8862, 36.7395
2.051, 5, 35.2435, 51.9674, -14.9981, 96.8136, -65.0071, 36.6799
2.055, 5, 35.2344, 51.9968, -14.996, 96.7951, -65.1279, 36.6203
2.06, 5, 35.2252, 52.026, -14.9938, 96.7763, -65.2487, 36.5608
2.064, 5, 35.2161, 52.0551, -14.9914, 96.7574, -65.3694, 36.5014
2.068, 5, 35.2068, 52.0841, -14.9888, 96.7383, -65.4901, 36.4422
2.071, 5, 35.1975, 52.113, -14.986, 96.7189, -65.6106, 36.383
2.076, 5, 35.1882, 52.1417, -14.983, 96.6995, -65.7312, 36.3239
2.08, 5, 35.1788, 52.1704, -14.9798, 96.6798, -65.8516, 36.2649
2.084, 5, 35.1694, 52.1989, -14.9764, 96.6599, -65.972, 36.206
2.087, 5, 35.1599, 52.2273, -14.9728, 96.6398, -66.0924, 36.1472
2.092, 5, 35.1503, 52.2555, -14.969, 96.6196, -66.2127, 36.0885
2.096, 5, 35.1408, 52.2837, -14.965, 96.5992, -66.3329, 36.0299
2.1, 5, 35.1311, 52.3117, -14.9608, 96.5786, -66.4531, 35.9714
2.104, 5, 35.1214, 52.3396, -14.9564, 96.5578, -66.5732, 35.913
2.107, 5, 35.1117, 52.3674, -14.9518, 96.5369, -66.6933, 35.8547
2.111, 5, 35.1019, 52.395, -14.947, 96.5157, -66.8133, 35.7964
2.116, 5, 35.092, 52.4226, -14.942, 96.4944, -66.9332, 35.7383
2.12, 5, 35.0821, 52.45, -14.9368, 96.4729, -67.0531, 35.6802
2.124, 5, 35.0722, 52.4773, -14.9313, 96.4513, -67.1729, 35.6222
2.127, 5, 35.0622, 52.5044, -14.9257, 96.4294, -67.2927, 35.5643
2.132, 5, 35.0522, 52.5314, -14.9199, 96.4074, -67.4124, 35.5065
2.136, 5, 35.0421, 52.5584, -14.9139, 96.3852, -67.532, 35.4488
2.14, 5, 35.0319, 52.5851, -14.9077, 96.3628, -67.6516, 35.3912
2.143, 5, 35.0218, 52.6118, -14.9013, 96.3403, -67.7711, 35.3336
2.148, 5, 35.0115, 52.6384, -14.8947, 96.3176, -67.8906, 35.2761
2.152, 5, 35.0012, 52.6648, -14.8879, 96.2947, -68.01, 35.2187
2.156, 5, 34.9909, 52.6911, -14.8809, 96.2717, -68.1293, 35.1614
2.16, 5, 34.9805, 52.7172, -14.8737, 96.2485, -68.2486, 35.1042
2.163, 5, 34.9701, 52.7433, -14.8664, 96.2251, -68.3679, 35.047
2.168, 5, 34.9596, 52.7692, -14.8588, 96.2015, -68.487, 34.9899
2.172, 5, 34.949, 52.795, -14.851, 96.1778, -68.6062, 34.9329
2.176, 5, 34.9385, 52.8206, -14.843, 96.1539, -68.7252, 34.876
2.179, 5, 34.9278, 52.8461, -14.8348, 96.1299, -68.8442, 34.8191
2.184, 5, 34.9171, 52.8716, -14.8264, 96.1057, -68.9632, 34.7624
2.188, 5, 34.9064, 52.8968, -14.8178, 96.0813, -69.082, 34.7056
2.192, 5, 34.8956, 52.922, -14.809, 96.0568, -69.2009, 34.649
2.196, 5, 34.8848, 52.947, -14.8, 96.0321, -69.3196, 34.5924
2.199, 5, 34.8739, 52.9719, -14.7908, 96.0072, -69.4383, 34.5359
2.204, 5, 34.863, 52.9967, -14.7814, 95.9822, -69.557, 34.4795
2.208, 5, 34.8521, 53.0213, -14.7718, 95.957, -69.6756, 34.4231
2.212, 5, 34.841, 53.0458, -14.762, 95.9316, -69.7941, 34.3668
2.216, 5, 34.83, 53.0702, -14.752, 95.9061, -69.9126, 34.3106
2.219, 5, 34.8189, 53.0945, -14.7418, 95.8805, -70.031, 34.2544
2.224, 5, 34.8077, 53.1186, -14.7314, 95.8547, -70.1494, 34.1983
2.228, 5, 34.7965, 53.1426, -14.7208, 95.8287, -70.2677, 34.1423
2.232, 5, 34.7852, 53.1665, -14.71, 95.8026, -70.3859, 34.0863
2.235, 5, 34.7739, 53.1902, -14.699, 95.7763, -70.5041, 34.0304
2.24, 5, 34.7626, 53.2138, -14.6878, 95.7498, -70.6222, 33.9746
2.244, 5, 34.7512, 53.2373, -14.6764, 95.7232, -70.7403, 33.9188
2.248, 5, 34.7397, 53.2606, -14.6648, 95.6965, -70.8583, 33.8631
2.252, 5, 34.7282, 53.2839, -14.653, 95.6696, -70.9763, 33.8074
2.255, 5, 34.7167, 53.307, -14.641, 95.6425, -71.0942, 33.7518
2.259, 5, 34.7051, 53.3299, -14.6287, 95.6153, -71.212, 33.6962
2.264, 5, 34.6934, 53.3527, -14.6163, 95.588, -71.3298, 33.6407
2.268, 5, 34.6818, 53.3754, -14.6037, 95.5604, -71.4475, 33.5853
2.272, 5, 34.67, 53.398, -14.5909, 95.5328, -71.5652, 33.5299
2.275, 5, 34.6582, 53.4204, -14.5779, 95.505, -71.6828, 33.4746
2.28, 5, 34.6464, 53.4427, -14.5647, 95.477, -71.8003, 33.4193
2.284, 5, 34.6345, 53.4648, -14.5512, 95.4489, -71.9178, 33.3641
2.288, 5, 34.6226, 53.4868, -14.5376, 95.4207, -72.0352, 33.3089
2.291, 5, 34.6104, 53.5085, -14.5237, 95.3923, -72.1526, 33.2538
2.296, 5, 34.5981, 53.5298, -14.5094, 95.3636, -72.2699, 33.1989
2.3, 5, 34.5854, 53.5507, -14.4947, 95.3348, -72.387, 33.1442
2.304, 5, 34.5724, 53.5709, -14.4795, 95.3056, -72.5038, 33.09
2.308, 5, 34.5591, 53.5903, -14.4634, 95.276, -72.6203, 33.0364
2.311, 5, 34.5454, 53.6087, -14.4462, 95.2456, -72.7362, 32.984
2.316, 5, 34.5315, 53.6258, -14.4276, 95.2144, -72.8513, 32.9332
2.32, 5, 34.5174, 53.6415, -14.4072, 95.182, -72.9653, 32.8846
2.324, 5, 34.5032, 53.6559, -14.3846, 95.1482, -73.0777, 32.8389
2.328, 5, 34.4889, 53.6688, -14.3595, 95.1126, -73.1881, 32.7968
2.331, 5, 34.4745, 53.6803, -14.3313, 95.075, -73.2961, 32.7589
2.336, 5, 34.4599, 53.6904, -14.2998, 95.0352, -73.4013, 32.7259
2.34, 5, 34.4451, 53.6993, -14.2646, 94.9929, -73.5033, 32.6984
2.344, 5, 34.4301, 53.7067, -14.2257, 94.9481, -73.6017, 32.6768
2.347, 5, 34.415, 53.7128, -14.1827, 94.9006, -73.6964, 32.6613
2.352, 5, 34.3998, 53.7174, -14.1358, 94.8504, -73.7873, 32.6521
2.356, 5, 34.3844, 53.7206, -14.0851, 94.7978, -73.8744, 32.649
2.36, 5, 34.369, 53.7225, -14.0306, 94.7427, -73.9578, 32.6517
2.364, 5, 34.3533, 53.7232, -13.9727, 94.6854, -74.0376, 32.6599
2.367, 5, 34.3374, 53.7226, -13.9117, 94.6262, -74.1142, 32.6731
2.372, 5, 34.3213, 53.7209, -13.848, 94.5653, -74.188, 32.6905
2.376, 5, 34.3049, 53.7179, -13.782, 94.5031, -74.2592, 32.7115
2.38, 5, 34.2882, 53.7138, -13.7141, 94.4397, -74.3285, 32.7354
2.383, 5, 34.2712, 53.7083, -13.6446, 94.3756, -74.3962, 32.7616
2.388, 5, 34.2539, 53.7017, -13.5738, 94.3108, -74.4627, 32.7894
2.392, 5, 34.2364, 53.694, -13.5021, 94.2456, -74.5283, 32.8185
2.396, 5, 34.2187, 53.6854, -13.4297, 94.18, -74.5933, 32.8484
2.4, 5, 34.2009, 53.676, -13.3567, 94.1143, -74.658, 32.8788
2.403, 5, 34.1828, 53.6661, -13.2833, 94.0484, -74.7223, 32.9096
2.408, 5, 34.1646, 53.6558, -13.2096, 93.9825, -74.7865, 32.9405
2.412, 5, 34.1464, 53.6452, -13.1357, 93.9165, -74.8505, 32.9715
2.416, 5, 34.128, 53.6343, -13.0617, 93.8505, -74.9145, 33.0026
2.42, 5, 34.1096, 53.6233, -12.9875, 93.7845, -74.9785, 33.0336
2.423, 5, 34.0911, 53.6121, -12.9132, 93.7185, -75.0424, 33.0646
2.428, 5, 34.0726, 53.6008, -12.8387, 93.6525, -75.1064, 33.0956
2.432, 5, 34.054, 53.5893, -12.7642, 93.5866, -75.1703, 33.1264
2.436, 5, 34.0354, 53.5778, -12.6897, 93.5206, -75.2343, 33.1572
2.439, 5, 34.0168, 53.5661, -12.615, 93.4547, -75.2983, 33.1878
2.444, 5, 33.9981, 53.5543, -12.5403, 93.3888, -75.3623, 33.2184
2.448, 5, 33.9794, 53.5425, -12.4655, 93.323, -75.4263, 33.2488
2.452, 5, 33.9606, 53.5306, -12.3906, 93.2572, -75.4903, 33.2791
2.456, 5, 33.9418, 53.5185, -12.3156, 93.1914, -75.5544, 33.3094
2.459, 5, 33.923, 53.5064, -12.2406, 93.1256, -75.6185, 33.3395
2.464, 5, 33.9041, 53.4942, -12.1655, 93.0599, -75.6826, 33.3695
2.468, 5, 33.8852, 53.4819, -12.0904, 92.9942, -75.7467, 33.3994
2.472, 5, 33.8663, 53.4695, -12.0152, 92.9285, -75.8109, 33.4291
2.476, 5, 33.8473, 53.4571, -11.9399, 92.8629, -75.8751, 33.4588
2.479, 5, 33.8283, 53.4445, -11.8646, 92.7973, -75.9393, 33.4884
2.484, 5, 33.8093, 53.4319, -11.7892, 92.7317, -76.0035, 33.5178
2.488, 5, 33.7902, 53.4191, -11.7137, 92.6662, -76.0678, 33.5471
2.492, 5, 33.7711, 53.4063, -11.6382, 92.6007, -76.1321, 33.5763
2.495, 5, 33.7519, 53.3934, -11.5626, 92.5352, -76.1964, 33.6054
2.5, 5, 33.7328, 53.3804, -11.487, 92.4697, -76.2607, 33.6344
2.504, 5, 33.7135, 53.3673, -11.4113, 92.4043, -76.3251, 33.6632
2.508, 5, 33.6943, 53.3541, -11.3355, 92.3389, -76.3895, 33.692
2.512, 5, 33.675, 53.3409, -11.2596, 92.2736, -76.4539, 33.7206
2.515, 5, 33.6557, 53.3275, -11.1837, 92.2082, -76.5183, 33.7491
2.52, 5, 33.6363, 53.3141, -11.1078, 92.1429, -76.5828, 33.7775
2.524, 5, 33.6169, 53.3006, -11.0318, 92.0777, -76.6473, 33.8058
2.528, 5, 33.5975, 53.2869, -10.9557, 92.0124, -76.7118, 33.8339
2.531, 5, 33.5781, 53.2732, -10.8795, 91.9472, -76.7763, 33.862
2.536, 5, 33.5586, 53.2595, -10.8033, 91.882, -76.8409, 33.8899
2.54, 5, 33.539, 53.2456, -10.7271, 91.8168, -76.9054, 33.9177
2.544, 5, 33.5195, 53.2316, -10.6507, 91.7517, -76.97, 33.9454
2.548, 5, 33.4999, 53.2176, -10.5744, 91.6866, -77.0347, 33.973
2.551, 5, 33.4803, 53.2034, -10.4979, 91.6215, -77.0993, 34.0004
2.556, 5, 33.4606, 53.1892, -10.4214, 91.5565, -77.164, 34.0277
2.56, 5, 33.4409, 53.1749, -10.3448, 91.4914, -77.2287, 34.055
2.564, 5, 33.4212, 53.1605, -10.2682, 91.4265, -77.2934, 34.0821
2.568, 5, 33.4014, 53.146, -10.1916, 91.3615, -77.3581, 34.109
2.571, 5, 33.3816, 53.1314, -10.1148, 91.2965, -77.4229, 34.1359
2.576, 5, 33.3618, 53.1167, -10.038, 91.2316, -77.4877, 34.1626
2.58, 5, 33.3419, 53.1019, -9.96117, 91.1667, -77.5525, 34.1892
2.584, 5, 33.322, 53.0871, -9.88427, 91.1019, -77.6173, 34.2157
2.587, 5, 33.3023, 53.0721, -9.80732, 91.037, -77.6822, 34.2421
2.592, 5, 33.2828, 53.0571, -9.73035, 90.9723, -77.747, 34.2683
2.596, 5, 33.2635, 53.0419, -9.65341, 90.9075, -77.8118, 34.2944
2.6, 5, 33.2448, 53.0266, -9.57655, 90.8429, -77.8766, 34.3204
2.604, 5, 33.2265, 53.0112, -9.49991, 90.7785, -77.9412, 34.3461
2.607, 5, 33.2089, 52.9957, -9.42365, 90.7144, -78.0055, 34.3717
2.612, 5, 33.1919, 52.9801, -9.34801, 90.6509, -78.0693, 34.3969
2.616, 5, 33.1756, 52.9645, -9.27328, 90.588, -78.1323, 34.4217
2.62, 5, 33.1598, 52.9491, -9.19984, 90.5263, -78.1944, 34.446
2.624, 5, 33.1445, 52.9338, -9.1281, 90.466, -78.255, 34.4697
2.627, 5, 33.1298, 52.919, -9.05852, 90.4075, -78.3138, 34.4925
2.632, 5, 33.1156, 52.9046, -8.99159, 90.3513, -78.3703, 34.5144
2.636, 5, 33.102, 52.8909, -8.92779, 90.2977, -78.4242, 34.5352
2.64, 5, 33.089, 52.8779, -8.8676, 90.2472, -78.475, 34.5548
2.643, 5, 33.0767, 52.8659, -8.81143, 90.2002, -78.5224, 34.573
2.648, 5, 33.065, 52.8548, -8.75966, 90.1569, -78.566, 34.5896
2.652, 5, 33.0538, 52.8449, -8.71257, 90.1176, -78.6057, 34.6047
2.656, 5, 33.0432, 52.8362, -8.67032, 90.0824, -78.6411, 34.6182
2.66, 5, 33.0331, 52.8287, -8.63298, 90.0515, -78.6724, 34.6301
2.663, 5, 33.0234, 52.8224, -8.60049, 90.0248, -78.6995, 34.6403
2.668, 5, 33.0143, 52.8172, -8.57267, 90.002, -78.7225, 34.6489
2.672, 5, 33.0058, 52.813, -8.54926, 89.9829, -78.7419, 34.6562
2.676, 5, 32.9981, 52.8098, -8.5299, 89.9673, -78.7578, 34.6621
