hehonglu123/ABB_Primitive_Study/execution/movec/curve_exe_v200_z1.csv
timestamp, cmd_num, J1, J2, J3, J4, J5, J6
0, 1, 32.9528, 52.8019, -8.46502, 89.9168, -78.8096, 34.6812
0.002, 1, 32.9528, 52.8019, -8.46502, 89.9168, -78.8096, 34.6812
0.004, 1, 32.9528, 52.8019, -8.46502, 89.9168, -78.8096, 34.6812
0.008, 1, 32.9528, 52.8019, -8.46502, 89.9168, -78.8096, 34.6812
0.011, 1, 32.9528, 52.8019, -8.46502, 89.9168, -78.8096, 34.6812
0.016, 1, 32.9528, 52.8019, -8.46502, 89.9168, -78.8096, 34.6812
0.02, 1, 32.9528, 52.8019, -8.46502, 89.9168, -78.8096, 34.6812
0.024, 1, 32.9528, 52.8019, -8.46502, 89.9168, -78.8096, 34.6812
0.028, 1, 32.9528, 52.8019, -8.46502, 89.9168, -78.8096, 34.6812
0.032, 1, 32.9528, 52.8019, -8.46502, 89.9168, -78.8096, 34.6812
0.036, 1, 32.9528, 52.8019, -8.46502, 89.9168, -78.8096, 34.6812
0.04, 1, 32.9529, 52.8019, -8.46502, 89.9168, -78.8096, 34.6812
0.044, 1, 32.9531, 52.8018, -8.46503, 89.9168, -78.8095, 34.6812
0.048, 1, 32.9535, 52.8014, -8.46504, 89.9169, -78.8095, 34.6812
0.052, 1, 32.9543, 52.8006, -8.46509, 89.9169, -78.8093, 34.6813
0.056, 1, 32.9556, 52.7993, -8.46521, 89.917, -78.8088, 34.6815
0.06, 1, 32.9574, 52.7971, -8.46543, 89.9173, -78.8079, 34.6818
0.064, 1, 32.9597, 52.794, -8.46584, 89.9178, -78.8061, 34.6824
0.068, 1, 32.9625, 52.7899, -8.46653, 89.9186, -78.803, 34.6835
0.072, 1, 32.9659, 52.7849, -8.46761, 89.92, -78.798, 34.6852
0.076, 1, 32.9697, 52.7789, -8.46923, 89.922, -78.7905, 34.6877
0.08, 1, 32.9741, 52.7719, -8.47155, 89.925, -78.7796, 34.6915
0.084, 1, 32.9791, 52.7639, -8.47475, 89.9292, -78.7644, 34.6967
0.088, 1, 32.9847, 52.7549, -8.47904, 89.9348, -78.744, 34.7037
0.092, 1, 32.991, 52.7451, -8.48461, 89.9421, -78.7174, 34.7128
0.096, 1, 32.9978, 52.7344, -8.49169, 89.9515, -78.6834, 34.7244
0.1, 1, 33.005, 52.7231, -8.50046, 89.9631, -78.6411, 34.7389
0.104, 1, 33.0126, 52.7112, -8.51109, 89.9773, -78.5897, 34.7566
0.108, 1, 33.0204, 52.699, -8.5237, 89.9942, -78.5285, 34.7775
0.112, 1, 33.0284, 52.6863, -8.53837, 90.0139, -78.4572, 34.802
0.116, 1, 33.0368, 52.673, -8.55512, 90.0364, -78.3757, 34.8299
0.12, 1, 33.0455, 52.6592, -8.57391, 90.0617, -78.2841, 34.8613
0.124, 1, 33.0546, 52.6447, -8.59467, 90.0896, -78.183, 34.896
0.128, 1, 33.0642, 52.6296, -8.61726, 90.12, -78.0728, 34.9337
0.131, 1, 33.0741, 52.6139, -8.64153, 90.1527, -77.9545, 34.9743
0.136, 1, 33.0844, 52.5977, -8.6673, 90.1875, -77.8288, 35.0174
0.139, 1, 33.0949, 52.5809, -8.69437, 90.2239, -77.6968, 35.0627
0.144, 1, 33.1058, 52.5633, -8.72251, 90.2618, -77.5596, 35.1097
0.148, 1, 33.1172, 52.5447, -8.75152, 90.3009, -77.4182, 35.1582
0.152, 1, 33.1293, 52.525, -8.7812, 90.3408, -77.2736, 35.2077
0.156, 1, 33.1421, 52.5041, -8.81138, 90.3814, -77.1267, 35.2581
0.16, 1, 33.1556, 52.4819, -8.8419, 90.4224, -76.9782, 35.309
0.164, 1, 33.17, 52.4586, -8.87265, 90.4637, -76.8286, 35.3603
0.168, 1, 33.1849, 52.4345, -8.90354, 90.5052, -76.6784, 35.4118
0.172, 1, 33.2004, 52.4098, -8.9345, 90.5467, -76.5279, 35.4634
0.176, 1, 33.2161, 52.3847, -8.9655, 90.5883, -76.3772, 35.515
0.18, 1, 33.2321, 52.3594, -8.9965, 90.6299, -76.2265, 35.5667
0.184, 1, 33.2481, 52.334, -9.02748, 90.6715, -76.076, 35.6183
0.188, 1, 33.2643, 52.3084, -9.05844, 90.713, -75.9256, 35.6699
0.192, 1, 33.2805, 52.2828, -9.08935, 90.7545, -75.7754, 35.7214
0.196, 1, 33.2967, 52.2573, -9.12022, 90.7959, -75.6254, 35.7728
0.2, 1, 33.3129, 52.2317, -9.15103, 90.8372, -75.4757, 35.8241
0.204, 1, 33.3291, 52.2061, -9.1818, 90.8785, -75.3262, 35.8753
0.208, 1, 33.3453, 52.1806, -9.21251, 90.9197, -75.177, 35.9265
0.212, 1, 33.3614, 52.1551, -9.24316, 90.9608, -75.028, 35.9775
0.216, 1, 33.3776, 52.1296, -9.27376, 91.0018, -74.8794, 36.0285
0.22, 1, 33.3937, 52.1042, -9.3043, 91.0428, -74.731, 36.0794
0.224, 1, 33.4098, 52.0788, -9.33479, 91.0837, -74.5829, 36.1302
0.228, 1, 33.4258, 52.0535, -9.36522, 91.1245, -74.435, 36.1808
0.232, 1, 33.4419, 52.0282, -9.3956, 91.1652, -74.2874, 36.2314
0.236, 1, 33.4579, 52.003, -9.42592, 91.2059, -74.1401, 36.2819
0.24, 1, 33.4738, 51.9778, -9.45618, 91.2465, -73.9931, 36.3323
0.244, 1, 33.4898, 51.9526, -9.48639, 91.287, -73.8463, 36.3826
0.248, 1, 33.5057, 51.9275, -9.51654, 91.3275, -73.6998, 36.4329
0.252, 1, 33.5216, 51.9025, -9.54664, 91.3678, -73.5536, 36.483
0.256, 1, 33.5374, 51.8774, -9.57668, 91.4081, -73.4076, 36.533
0.26, 1, 33.5533, 51.8525, -9.60667, 91.4483, -73.2619, 36.583
0.264, 1, 33.5691, 51.8276, -9.6366, 91.4885, -73.1165, 36.6328
0.268, 1, 33.5848, 51.8027, -9.66649, 91.5286, -72.9713, 36.6826
0.272, 1, 33.6006, 51.7778, -9.69631, 91.5686, -72.8264, 36.7323
0.276, 1, 33.6163, 51.7531, -9.72609, 91.6085, -72.6817, 36.7819
0.28, 1, 33.632, 51.7283, -9.75581, 91.6484, -72.5373, 36.8314
0.284, 1, 33.6476, 51.7036, -9.78547, 91.6882, -72.3932, 36.8808
0.288, 1, 33.6633, 51.679, -9.81509, 91.7279, -72.2493, 36.9301
0.292, 1, 33.6789, 51.6544, -9.84465, 91.7675, -72.1057, 36.9794
0.296, 1, 33.6945, 51.6298, -9.87416, 91.8071, -71.9623, 37.0285
0.3, 1, 33.71, 51.6053, -9.90362, 91.8466, -71.8191, 37.0776
0.304, 1, 33.7255, 51.5808, -9.93303, 91.8861, -71.6763, 37.1265
0.308, 1, 33.741, 51.5563, -9.96238, 91.9255, -71.5336, 37.1754
0.312, 1, 33.7565, 51.5319, -9.99169, 91.9648, -71.3913, 37.2243
0.316, 1, 33.7719, 51.5076, -10.0209, 92.004, -71.2491, 37.273
0.32, 1, 33.7873, 51.4833, -10.0501, 92.0432, -71.1073, 37.3216
0.324, 1, 33.8027, 51.459, -10.0793, 92.0823, -70.9656, 37.3702
0.328, 1, 33.8181, 51.4348, -10.1084, 92.1213, -70.8242, 37.4186
0.332, 1, 33.8334, 51.4106, -10.1374, 92.1603, -70.6831, 37.467
0.336, 1, 33.8487, 51.3864, -10.1665, 92.1992, -70.5422, 37.5153
0.34, 1, 33.864, 51.3623, -10.1954, 92.238, -70.4015, 37.5636
0.344, 1, 33.8793, 51.3383, -10.2243, 92.2768, -70.261, 37.6117
0.348, 1, 33.8945, 51.3142, -10.2532, 92.3155, -70.1209, 37.6598
0.352, 1, 33.9097, 51.2903, -10.282, 92.3541, -69.9809, 37.7077
0.356, 1, 33.9249, 51.2663, -10.3107, 92.3927, -69.8412, 37.7556
0.36, 1, 33.94, 51.2424, -10.3394, 92.4312, -69.7017, 37.8034
0.364, 1, 33.9552, 51.2186, -10.3681, 92.4696, -69.5624, 37.8512
0.368, 1, 33.9703, 51.1947, -10.3967, 92.508, -69.4234, 37.8988
0.372, 1, 33.9853, 51.171, -10.4253, 92.5463, -69.2846, 37.9464
0.376, 1, 34.0004, 51.1472, -10.4538, 92.5846, -69.1461, 37.9939
0.38, 1, 34.0154, 51.1235, -10.4823, 92.6228, -69.0078, 38.0413
0.384, 1, 34.0304, 51.0998, -10.5107, 92.6609, -68.8697, 38.0887
0.388, 1, 34.0454, 51.0762, -10.5391, 92.6989, -68.7318, 38.1359
0.392, 1, 34.0604, 51.0526, -10.5674, 92.7369, -68.5941, 38.1831
0.396, 1, 34.0753, 51.0291, -10.5957, 92.7749, -68.4567, 38.2302
0.4, 1, 34.0902, 51.0056, -10.6239, 92.8127, -68.3195, 38.2773
0.404, 1, 34.1051, 50.9821, -10.6521, 92.8506, -68.1826, 38.3242
0.408, 1, 34.1199, 50.9587, -10.6803, 92.8883, -68.0458, 38.3711
0.412, 1, 34.1348, 50.9353, -10.7084, 92.926, -67.9093, 38.4179
0.416, 1, 34.1496, 50.9119, -10.7364, 92.9636, -67.773, 38.4646
0.42, 1, 34.1643, 50.8886, -10.7644, 93.0012, -67.6369, 38.5113
0.424, 1, 34.1791, 50.8653, -10.7924, 93.0387, -67.501, 38.5579
0.428, 1, 34.1938, 50.8421, -10.8203, 93.0762, -67.3653, 38.6044
0.432, 1, 34.2086, 50.8189, -10.8482, 93.1136, -67.2299, 38.6508
0.436, 1, 34.2232, 50.7957, -10.876, 93.1509, -67.0947, 38.6971
0.44, 1, 34.2379, 50.7726, -10.9038, 93.1881, -66.9597, 38.7434
0.444, 1, 34.2526, 50.7495, -10.9315, 93.2254, -66.8249, 38.7896
0.448, 1, 34.2672, 50.7264, -10.9592, 93.2625, -66.6903, 38.8358
0.452, 1, 34.2818, 50.7034, -10.9869, 93.2996, -66.5559, 38.8818
0.456, 1, 34.2964, 50.6804, -11.0145, 93.3367, -66.4217, 38.9278
0.46, 1, 34.3109, 50.6574, -11.0421, 93.3736, -66.2878, 38.9738
0.464, 1, 34.3254, 50.6345, -11.0696, 93.4106, -66.154, 39.0196
0.468, 1, 34.3399, 50.6116, -11.0971, 93.4474, -66.0204, 39.0654
0.472, 1, 34.3544, 50.5888, -11.1246, 93.4842, -65.8871, 39.1111
0.476, 1, 34.3689, 50.566, -11.152, 93.521, -65.754, 39.1567
0.48, 1, 34.3833, 50.5432, -11.1793, 93.5577, -65.621, 39.2023
0.484, 1, 34.3978, 50.5204, -11.2066, 93.5943, -65.4883, 39.2478
0.488, 1, 34.4121, 50.4977, -11.2339, 93.6309, -65.3558, 39.2933
0.492, 1, 34.4265, 50.475, -11.2612, 93.6675, -65.2234, 39.3386
0.496, 1, 34.4409, 50.4524, -11.2883, 93.7039, -65.0913, 39.3839
0.5, 1, 34.4552, 50.4298, -11.3155, 93.7404, -64.9594, 39.4291
0.504, 1, 34.4695, 50.4072, -11.3426, 93.7767, -64.8276, 39.4743
0.508, 1, 34.4838, 50.3847, -11.3697, 93.813, -64.6961, 39.5194
0.512, 1, 34.4981, 50.3622, -11.3967, 93.8493, -64.5647, 39.5644
0.516, 1, 34.5123, 50.3397, -11.4237, 93.8855, -64.4336, 39.6094
0.52, 1, 34.5265, 50.3173, -11.4507, 93.9217, -64.3026, 39.6543
0.524, 1, 34.5408, 50.2949, -11.4776, 93.9578, -64.1719, 39.6991
0.528, 1, 34.5549, 50.2725, -11.5045, 93.9938, -64.0413, 39.7439
0.532, 1, 34.5691, 50.2501, -11.5313, 94.0298, -63.9109, 39.7886
0.536, 1, 34.5832, 50.2278, -11.5581, 94.0657, -63.7807, 39.8332
0.54, 1, 34.5974, 50.2056, -11.5848, 94.1016, -63.6507, 39.8777
0.544, 1, 34.6115, 50.1833, -11.6116, 94.1375, -63.5209, 39.9222
0.548, 1, 34.6255, 50.1611, -11.6382, 94.1732, -63.3913, 39.9667
0.552, 1, 34.6396, 50.1389, -11.6649, 94.209, -63.2619, 40.0111
0.556, 1, 34.6536, 50.1168, -11.6915, 94.2447, -63.1326, 40.0554
0.56, 1, 34.6677, 50.0947, -11.718, 94.2803, -63.0036, 40.0996
0.564, 1, 34.6817, 50.0726, -11.7446, 94.3159, -62.8747, 40.1438
0.568, 1, 34.6956, 50.0505, -11.7711, 94.3514, -62.746, 40.1879
0.572, 1, 34.7096, 50.0285, -11.7975, 94.3869, -62.6175, 40.2319
0.576, 1, 34.7235, 50.0065, -11.8239, 94.4223, -62.4892, 40.2759
0.58, 1, 34.7375, 49.9846, -11.8503, 94.4577, -62.361, 40.3199
0.584, 1, 34.7514, 49.9626, -11.8766, 94.493, -62.2331, 40.3637
0.588, 1, 34.7652, 49.9407, -11.9029, 94.5283, -62.1053, 40.4075
0.592, 1, 34.7791, 49.9189, -11.9292, 94.5635, -61.9777, 40.4513
0.596, 1, 34.7929, 49.897, -11.9554, 94.5987, -61.8503, 40.495
0.6, 1, 34.8068, 49.8752, -11.9816, 94.6338, -61.723, 40.5386
0.604, 1, 34.8206, 49.8535, -12.0078, 94.6689, -61.5959, 40.5821
0.608, 1, 34.8343, 49.8317, -12.0339, 94.7039, -61.4691, 40.6256
0.612, 1, 34.8481, 49.81, -12.0599, 94.7389, -61.3423, 40.6691
0.616, 1, 34.8618, 49.7883, -12.086, 94.7738, -61.2158, 40.7125
0.62, 1, 34.8756, 49.7667, -12.112, 94.8087, -61.0894, 40.7558
0.624, 1, 34.8893, 49.7451, -12.138, 94.8435, -60.9632, 40.799
0.628, 1, 34.903, 49.7235, -12.1639, 94.8783, -60.8372, 40.8422
0.632, 1, 34.9166, 49.7019, -12.1898, 94.9131, -60.7114, 40.8854
0.636, 1, 34.9303, 49.6804, -12.2157, 94.9478, -60.5857, 40.9284
0.64, 1, 34.9439, 49.6589, -12.2415, 94.9824, -60.4602, 40.9715
0.644, 1, 34.9575, 49.6374, -12.2673, 95.017, -60.3349, 41.0144
0.648, 1, 34.9711, 49.6159, -12.2931, 95.0516, -60.2097, 41.0573
0.652, 1, 34.9847, 49.5945, -12.3188, 95.0861, -60.0847, 41.1002
0.656, 1, 34.9983, 49.5731, -12.3445, 95.1205, -59.9599, 41.143
0.66, 1, 35.0118, 49.5518, -12.3701, 95.1549, -59.8352, 41.1857
0.664, 1, 35.0253, 49.5304, -12.3958, 95.1893, -59.7107, 41.2284
0.668, 1, 35.0388, 49.5091, -12.4214, 95.2236, -59.5864, 41.271
0.672, 1, 35.0523, 49.4879, -12.4469, 95.2579, -59.4622, 41.3136
0.676, 1, 35.0658, 49.4666, -12.4724, 95.2921, -59.3382, 41.3561
0.68, 1, 35.0792, 49.4454, -12.4979, 95.3263, -59.2144, 41.3985
0.684, 1, 35.0927, 49.4242, -12.5234, 95.3605, -59.0907, 41.4409
0.688, 1, 35.1061, 49.4031, -12.5488, 95.3946, -58.9672, 41.4833
0.692, 1, 35.1195, 49.3819, -12.5742, 95.4286, -58.8439, 41.5256
0.696, 1, 35.1329, 49.3608, -12.5995, 95.4626, -58.7207, 41.5678
0.7, 1, 35.1462, 49.3397, -12.6249, 95.4966, -58.5977, 41.61
0.704, 1, 35.1596, 49.3187, -12.6501, 95.5305, -58.4748, 41.6521
0.708, 1, 35.1729, 49.2977, -12.6754, 95.5644, -58.3521, 41.6941
0.712, 1, 35.1862, 49.2767, -12.7006, 95.5982, -58.2296, 41.7361
0.716, 1, 35.1995, 49.2557, -12.7258, 95.632, -58.1072, 41.7781
0.72, 1, 35.2128, 49.2347, -12.751, 95.6657, -57.985, 41.82
0.724, 1, 35.226, 49.2138, -12.7761, 95.6994, -57.8629, 41.8618
0.728, 1, 35.2393, 49.1929, -12.8012, 95.7331, -57.741, 41.9036
0.732, 1, 35.2525, 49.1721, -12.8262, 95.7667, -57.6192, 41.9454
0.736, 1, 35.2657, 49.1512, -12.8513, 95.8003, -57.4976, 41.9871
0.74, 1, 35.2789, 49.1304, -12.8763, 95.8338, -57.3762, 42.0287
0.744, 1, 35.2921, 49.1097, -12.9012, 95.8673, -57.2549, 42.0703
0.748, 1, 35.3052, 49.0889, -12.9262, 95.9007, -57.1338, 42.1118
0.752, 1, 35.3184, 49.0682, -12.9511, 95.9341, -57.0128, 42.1533
0.756, 1, 35.3315, 49.0475, -12.9759, 95.9675, -56.8919, 42.1947
0.76, 1, 35.3446, 49.0268, -13.0008, 96.0008, -56.7712, 42.2361
0.764, 1, 35.3577, 49.0061, -13.0256, 96.0341, -56.6507, 42.2774
0.768, 1, 35.3708, 48.9855, -13.0504, 96.0673, -56.5303, 42.3187
0.772, 1, 35.3838, 48.9649, -13.0751, 96.1005, -56.4101, 42.3599
0.776, 1, 35.3969, 48.9443, -13.0998, 96.1336, -56.29, 42.401
0.78, 1, 35.4099, 48.9238, -13.1245, 96.1667, -56.1701, 42.4422
0.784, 1, 35.4229, 48.9032, -13.1492, 96.1998, -56.0503, 42.4832
0.788, 1, 35.4359, 48.8827, -13.1738, 96.2328, -55.9307, 42.5242
0.792, 1, 35.4489, 48.8623, -13.1984, 96.2658, -55.8112, 42.5652
0.796, 1, 35.4619, 48.8418, -13.2229, 96.2988, -55.6918, 42.6061
0.8, 1, 35.4748, 48.8214, -13.2475, 96.3317, -55.5726, 42.647
0.804, 1, 35.4877, 48.801, -13.272, 96.3645, -55.4535, 42.6878
0.808, 1, 35.5006, 48.7806, -13.2965, 96.3974, -55.3346, 42.7285
0.812, 1, 35.5136, 48.7603, -13.3209, 96.4302, -55.2159, 42.7693
0.816, 1, 35.5264, 48.7399, -13.3453, 96.4629, -55.0972, 42.8099
0.82, 1, 35.5393, 48.7196, -13.3697, 96.4956, -54.9787, 42.8506
0.824, 1, 35.5522, 48.6994, -13.3941, 96.5283, -54.8604, 42.8911
0.828, 1, 35.565, 48.6791, -13.4184, 96.5609, -54.7422, 42.9316
0.832, 1, 35.5778, 48.6589, -13.4427, 96.5935, -54.6241, 42.9721
0.836, 1, 35.5906, 48.6387, -13.467, 96.6261, -54.5062, 43.0125
0.84, 1, 35.6034, 48.6185, -13.4912, 96.6586, -54.3884, 43.0529
0.844, 1, 35.6162, 48.5983, -13.5154, 96.6911, -54.2707, 43.0933
0.848, 1, 35.629, 48.5782, -13.5396, 96.7235, -54.1532, 43.1335
0.852, 1, 35.6417, 48.5581, -13.5638, 96.7559, -54.0358, 43.1738
0.856, 1, 35.6545, 48.538, -13.5879, 96.7883, -53.9186, 43.214
0.86, 1, 35.6672, 48.5179, -13.612, 96.8206, -53.8015, 43.2541
0.864, 1, 35.6799, 48.4979, -13.6361, 96.8529, -53.6845, 43.2942
0.868, 1, 35.6925, 48.4779, -13.6601, 96.8852, -53.5677, 43.3343
0.872, 1, 35.7051, 48.458, -13.6841, 96.9174, -53.451, 43.3743
0.876, 1, 35.7176, 48.4381, -13.7081, 96.9496, -53.3345, 43.4142
0.88, 1, 35.73, 48.4184, -13.7321, 96.9817, -53.2181, 43.4541
0.884, 1, 35.7419, 48.3992, -13.756, 97.0137, -53.102, 43.4939
0.888, 1, 35.7533, 48.3805, -13.7798, 97.0457, -52.9863, 43.5336
0.892, 1, 35.7641, 48.3627, -13.8035, 97.0775, -52.8712, 43.5731
0.896, 1, 35.7742, 48.3457, -13.8269, 97.109, -52.757, 43.6122
0.9, 1, 35.7836, 48.3297, -13.8501, 97.1401, -52.6444, 43.6508
0.904, 1, 35.7924, 48.3145, -13.8728, 97.1706, -52.534, 43.6887
0.908, 1, 35.8007, 48.3002, -13.895, 97.2003, -52.4264, 43.7256
0.912, 1, 35.8087, 48.2866, -13.9163, 97.229, -52.3226, 43.7613
0.916, 1, 35.8164, 48.2736, -13.9367, 97.2564, -52.2234, 43.7953
0.92, 1, 35.8238, 48.2613, -13.956, 97.2823, -52.1296, 43.8275
0.924, 1, 35.8309, 48.2497, -13.9741, 97.3065, -52.042, 43.8576
0.928, 1, 35.8377, 48.2387, -13.9907, 97.3288, -51.9612, 43.8853
0.932, 1, 35.8442, 48.2281, -14.0057, 97.3491, -51.888, 43.9104
0.936, 1, 35.8507, 48.2178, -14.0192, 97.3671, -51.8226, 43.9328
0.94, 1, 35.8571, 48.2077, -14.031, 97.3829, -51.7653, 43.9524
0.944, 1, 35.8634, 48.1979, -14.0412, 97.3966, -51.716, 43.9693
0.948, 1, 35.8695, 48.1884, -14.0498, 97.4081, -51.6743, 43.9836
0.952, 1, 35.8755, 48.1793, -14.0569, 97.4175, -51.6399, 43.9954
0.956, 2, 35.8812, 48.1708, -14.0626, 97.4252, -51.612, 44.0049
0.96, 2, 35.8865, 48.1631, -14.0672, 97.4313, -51.5899, 44.0124
0.964, 2, 35.8915, 48.1562, -14.0707, 97.436, -51.5728, 44.0183
0.968, 2, 35.896, 48.1502, -14.0734, 97.4396, -51.5598, 44.0227
0.972, 2, 35.9001, 48.145, -14.0754, 97.4422, -51.5503, 44.0259
0.976, 2, 35.9037, 48.1406, -14.0768, 97.4441, -51.5433, 44.0283
0.98, 2, 35.9067, 48.1371, -14.0778, 97.4454, -51.5385, 44.0299
0.984, 2, 35.9091, 48.1343, -14.0785, 97.4463, -51.5351, 44.0311
0.988, 2, 35.911, 48.1323, -14.079, 97.4469, -51.5327, 44.0319
0.992, 2, 35.9123, 48.1308, -14.0793, 97.4474, -51.5312, 44.0324
0.996, 2, 35.9132, 48.1299, -14.0796, 97.4477, -51.5301, 44.0328
1, 2, 35.9138, 48.1292, -14.0797, 97.4479, -51.5294, 44.033
1.004, 2, 35.9142, 48.1287, -14.0798, 97.448, -51.5289, 44.0332
1.008, 2, 35.9145, 48.1284, -14.0799, 97.4481, -51.5285, 44.0333
1.012, 2, 35.9147, 48.1282, -14.0799, 97.4482, -51.5283, 44.0334
1.016, 2, 35.9149, 48.1281, -14.08, 97.4482, -51.5282, 44.0334
1.02, 2, 35.9149, 48.128, -14.08, 97.4482, -51.5281, 44.0335
1.024, 2, 35.915, 48.1279, -14.08, 97.4482, -51.528, 44.0335
1.027, 2, 35.915, 48.1279, -14.08, 97.4483, -51.5279, 44.0335
1.032, 2, 35.9151, 48.1278, -14.08, 97.4483, -51.5279, 44.0335
1.036, 2, 35.9151, 48.1278, -14.08, 97.4483, -51.5279, 44.0335
1.04, 2, 35.9151, 48.1278, -14.08, 97.4483, -51.5279, 44.0335
1.044, 2, 35.9151, 48.1278, -14.08, 97.4483, -51.5279, 44.0335
1.048, 2, 35.9151, 48.1278, -14.08, 97.4483, -51.5279, 44.0335
1.052, 2, 35.9151, 48.1278, -14.08, 97.4483, -51.5279, 44.0335
1.055, 2, 35.9151, 48.1278, -14.08, 97.4483, -51.5278, 44.0335
1.06, 2, 35.9151, 48.1278, -14.08, 97.4483, -51.5278, 44.0335
1.064, 2, 35.9151, 48.1278, -14.08, 97.4483, -51.5278, 44.0335
1.068, 2, 35.9151, 48.1278, -14.08, 97.4483, -51.5278, 44.0335
1.072, 2, 35.9151, 48.1278, -14.08, 97.4483, -51.5278, 44.0335
1.076, 2, 35.9151, 48.1278, -14.08, 97.4483, -51.5278, 44.0335
1.08, 2, 35.9151, 48.1278, -14.08, 97.4483, -51.5278, 44.0335
1.084, 2, 35.9151, 48.1278, -14.08, 97.4483, -51.5278, 44.0335
1.088, 2, 35.9151, 48.1278, -14.08, 97.4483, -51.5278, 44.0335
1.091, 2, 35.9151, 48.1278, -14.08, 97.4483, -51.5278, 44.0335
1.096, 2, 35.9151, 48.1278, -14.08, 97.4483, -51.5278, 44.0335
1.1, 2, 35.9151, 48.1278, -14.08, 97.4483, -51.5278, 44.0335
1.104, 2, 35.9151, 48.1278, -14.08, 97.4483, -51.5278, 44.0335
1.108, 2, 35.9151, 48.1278, -14.08, 97.4483, -51.5278, 44.0335
1.112, 2, 35.9151, 48.1278, -14.08, 97.4483, -51.5278, 44.0335
1.116, 2, 35.9151, 48.1278, -14.08, 97.4483, -51.5278, 44.0335
1.119, 2, 35.9151, 48.1278, -14.08, 97.4483, -51.5278, 44.0335
1.124, 2, 35.9151, 48.1278, -14.08, 97.4483, -51.5278, 44.0335
1.128, 2, 35.9151, 48.1278, -14.08, 97.4483, -51.5278, 44.0335
1.132, 2, 35.9151, 48.1278, -14.08, 97.4483, -51.5278, 44.0335
1.136, 2, 35.9151, 48.1278, -14.08, 97.4483, -51.5278, 44.0335
1.14, 2, 35.9151, 48.1278, -14.08, 97.4483, -51.5278, 44.0335
1.144, 2, 35.9151, 48.1278, -14.08, 97.4483, -51.5278, 44.0335
1.147, 2, 35.9151, 48.1278, -14.08, 97.4483, -51.5278, 44.0335
1.152, 2, 35.9151, 48.1278, -14.08, 97.4483, -51.5278, 44.0335
1.156, 2, 35.9151, 48.1278, -14.08, 97.4483, -51.5278, 44.0335
1.16, 2, 35.9151, 48.1278, -14.08, 97.4483, -51.5278, 44.0335
1.164, 2, 35.9151, 48.1278, -14.08, 97.4483, -51.5278, 44.0335
1.168, 2, 35.9151, 48.1278, -14.08, 97.4483, -51.5278, 44.0335
1.172, 2, 35.9151, 48.1278, -14.08, 97.4483, -51.5278, 44.0335
1.175, 2, 35.9151, 48.1278, -14.08, 97.4483, -51.5278, 44.0335
1.18, 2, 35.9151, 48.1278, -14.08, 97.4483, -51.5278, 44.0335
1.184, 2, 35.9151, 48.1278, -14.08, 97.4483, -51.5278, 44.0335
1.188, 2, 35.9151, 48.1278, -14.08, 97.4483, -51.5278, 44.0335
1.192, 2, 35.9151, 48.1278, -14.08, 97.4483, -51.5278, 44.0335
1.196, 2, 35.9151, 48.1278, -14.08, 97.4483, -51.5278, 44.0335
1.2, 2, 35.9151, 48.1278, -14.08, 97.4483, -51.5278, 44.0335
1.204, 2, 35.9151, 48.1278, -14.08, 97.4483, -51.5278, 44.0335
1.208, 2, 35.9151, 48.1278, -14.08, 97.4483, -51.5278, 44.0335
1.212, 2, 35.9151, 48.1278, -14.08, 97.4483, -51.5278, 44.0335
1.216, 2, 35.9151, 48.1278, -14.08, 97.4483, -51.5278, 44.0335
1.22, 2, 35.9151, 48.1278, -14.08, 97.4483, -51.5278, 44.0335
1.224, 2, 35.9151, 48.1278, -14.08, 97.4483, -51.5278, 44.0335
1.228, 2, 35.9151, 48.1278, -14.08, 97.4483, -51.5278, 44.0335
1.232, 2, 35.9151, 48.1278, -14.08, 97.4483, -51.5278, 44.0335
1.236, 2, 35.9151, 48.1278, -14.08, 97.4483, -51.5278, 44.0335
1.24, 2, 35.9151, 48.1278, -14.08, 97.4483, -51.5278, 44.0335
1.244, 2, 35.9151, 48.1278, -14.08, 97.4483, -51.5278, 44.0335
1.248, 2, 35.9151, 48.1278, -14.08, 97.4483, -51.5278, 44.0335
1.252, 2, 35.9151, 48.1278, -14.08, 97.4483, -51.5278, 44.0335
1.256, 2, 35.9151, 48.1278, -14.08, 97.4483, -51.5278, 44.0335
1.26, 2, 35.9151, 48.1278, -14.08, 97.4483, -51.5278, 44.0335
1.264, 2, 35.9151, 48.1278, -14.08, 97.4483, -51.5278, 44.0335
1.267, 2, 35.9151, 48.1278, -14.08, 97.4483, -51.5278, 44.0335
1.272, 2, 35.9151, 48.1278, -14.08, 97.4483, -51.5278, 44.0335
1.276, 2, 35.9151, 48.1278, -14.08, 97.4483, -51.5278, 44.0335
1.28, 2, 35.9151, 48.1278, -14.08, 97.4483, -51.5278, 44.0335
1.284, 2, 35.9151, 48.1278, -14.08, 97.4483, -51.5278, 44.0335
1.288, 2, 35.9151, 48.1278, -14.08, 97.4483, -51.5278, 44.0335
1.292, 2, 35.9151, 48.1278, -14.08, 97.4483, -51.5278, 44.0335
1.295, 2, 35.9151, 48.1278, -14.08, 97.4483, -51.5278, 44.0335
1.3, 2, 35.9151, 48.1278, -14.08, 97.4483, -51.5278, 44.0335
1.304, 2, 35.9151, 48.1278, -14.08, 97.4483, -51.5278, 44.0335
1.308, 2, 35.9151, 48.1278, -14.08, 97.4483, -51.5278, 44.0335
1.312, 2, 35.9151, 48.1278, -14.08, 97.4483, -51.5278, 44.0335
1.316, 2, 35.9151, 48.1278, -14.08, 97.4483, -51.5278, 44.0335
1.32, 2, 35.9151, 48.1278, -14.08, 97.4483, -51.5278, 44.0335
1.324, 2, 35.9151, 48.1278, -14.08, 97.4483, -51.5278, 44.0335
1.328, 2, 35.9151, 48.1278, -14.08, 97.4483, -51.5278, 44.0335
1.332, 2, 35.9151, 48.1278, -14.08, 97.4483, -51.5278, 44.0335
1.336, 2, 35.9151, 48.1278, -14.08, 97.4483, -51.5278, 44.0335
1.34, 2, 35.9151, 48.1278, -14.08, 97.4483, -51.5278, 44.0335
1.344, 2, 35.9151, 48.1278, -14.08, 97.4483, -51.5278, 44.0335
1.348, 2, 35.9151, 48.1278, -14.08, 97.4483, -51.5278, 44.0335
1.352, 2, 35.9151, 48.1278, -14.08, 97.4483, -51.5278, 44.0335
1.356, 2, 35.9151, 48.1278, -14.08, 97.4483, -51.5278, 44.0335
1.36, 2, 35.9151, 48.1278, -14.08, 97.4483, -51.5278, 44.0335
1.364, 2, 35.9151, 48.1278, -14.08, 97.4483, -51.5278, 44.0335
1.368, 2, 35.9151, 48.1278, -14.08, 97.4483, -51.5278, 44.0335
1.372, 2, 35.9151, 48.1278, -14.08, 97.4483, -51.5278, 44.0335
1.376, 2, 35.9151, 48.1278, -14.08, 97.4483, -51.5278, 44.0335
1.38, 2, 35.9151, 48.1278, -14.08, 97.4483, -51.5278, 44.0335
1.384, 2, 35.9151, 48.1278, -14.08, 97.4483, -51.5278, 44.0335
1.388, 2, 35.9151, 48.1278, -14.08, 97.4483, -51.5278, 44.0335
1.392, 2, 35.9151, 48.1278, -14.08, 97.4483, -51.5278, 44.0335
1.396, 2, 35.9151, 48.1278, -14.08, 97.4483, -51.5278, 44.0335
1.4, 2, 35.9151, 48.1278, -14.08, 97.4483, -51.5278, 44.0335
1.404, 2, 35.9151, 48.1278, -14.08, 97.4483, -51.5278, 44.0335
1.408, 2, 35.9151, 48.1278, -14.08, 97.4483, -51.5278, 44.0335
1.412, 2, 35.9151, 48.1278, -14.08, 97.4483, -51.5278, 44.0335
1.416, 2, 35.9151, 48.1278, -14.08, 97.4483, -51.5278, 44.0335
1.42, 2, 35.9151, 48.1278, -14.08, 97.4483, -51.5278, 44.0335
1.424, 2, 35.9151, 48.1278, -14.08, 97.4483, -51.5278, 44.0335
1.428, 2, 35.9151, 48.1278, -14.08, 97.4483, -51.5278, 44.0335
1.432, 2, 35.9151, 48.1278, -14.08, 97.4483, -51.5278, 44.0335
1.436, 2, 35.9151, 48.1278, -14.08, 97.4483, -51.5278, 44.0335
1.44, 2, 35.9151, 48.1278, -14.08, 97.4483, -51.5278, 44.0335
1.444, 2, 35.9151, 48.1278, -14.08, 97.4483, -51.5278, 44.0335
1.448, 2, 35.9151, 48.1278, -14.08, 97.4483, -51.5278, 44.0335
1.452, 2, 35.9151, 48.1278, -14.08, 97.4483, -51.5278, 44.0335
1.456, 3, 35.9151, 48.1278, -14.08, 97.4483, -51.5278, 44.0335
1.46, 3, 35.9151, 48.1278, -14.08, 97.4483, -51.5278, 44.0335
1.464, 3, 35.9151, 48.1278, -14.08, 97.4483, -51.5278, 44.0335
1.468, 3, 35.9151, 48.1278, -14.08, 97.4483, -51.5278, 44.0335
1.472, 3, 35.9151, 48.1278, -14.08, 97.4483, -51.5278, 44.0335
1.476, 3, 35.9151, 48.1278, -14.08, 97.4483, -51.5278, 44.0335
1.48, 3, 35.9151, 48.1278, -14.08, 97.4483, -51.5278, 44.0335
1.484, 3, 35.9151, 48.1278, -14.08, 97.4483, -51.5278, 44.0335
1.488, 3, 35.9151, 48.1278, -14.08, 97.4483, -51.5278, 44.0335
1.492, 3, 35.9151, 48.1278, -14.08, 97.4483, -51.5278, 44.0335
1.496, 3, 35.9151, 48.1278, -14.08, 97.4483, -51.5278, 44.0335
1.5, 3, 35.9151, 48.1278, -14.08, 97.4483, -51.5278, 44.0335
1.504, 3, 35.9151, 48.1278, -14.08, 97.4483, -51.5278, 44.0335
1.508, 3, 35.9151, 48.1278, -14.08, 97.4483, -51.5278, 44.0335
1.512, 4, 35.9151, 48.1278, -14.08, 97.4483, -51.5278, 44.0335
1.516, 4, 35.9151, 48.1278, -14.08, 97.4483, -51.5278, 44.0335
1.52, 4, 35.9151, 48.1278, -14.08, 97.4483, -51.5278, 44.0335
1.524, 4, 35.9151, 48.1278, -14.08, 97.4483, -51.5278, 44.0335
1.528, 4, 35.9151, 48.1278, -14.08, 97.4483, -51.5278, 44.0335
1.532, 4, 35.9151, 48.1278, -14.08, 97.4483, -51.5278, 44.0335
1.536, 4, 35.9151, 48.1278, -14.08, 97.4483, -51.5278, 44.0335
1.54, 4, 35.9151, 48.1278, -14.08, 97.4483, -51.5278, 44.0335
1.544, 4, 35.9151, 48.1278, -14.08, 97.4483, -51.5278, 44.0335
1.548, 4, 35.9151, 48.1278, -14.08, 97.4483, -51.5278, 44.0335
1.552, 4, 35.9151, 48.128, -14.08, 97.4483, -51.5279, 44.0335
1.556, 4, 35.915, 48.1283, -14.0801, 97.4483, -51.5279, 44.0335
1.56, 4, 35.9147, 48.1291, -14.0801, 97.4483, -51.528, 44.0334
1.564, 4, 35.9143, 48.1303, -14.0802, 97.4483, -51.5284, 44.0332
1.568, 4, 35.9138, 48.1322, -14.0804, 97.4484, -51.5291, 44.0327
1.572, 4, 35.913, 48.1348, -14.0806, 97.4485, -51.5305, 44.0319
1.576, 4, 35.9121, 48.1381, -14.0811, 97.4487, -51.5328, 44.0304
1.58, 4, 35.911, 48.1421, -14.0817, 97.449, -51.5366, 44.0281
1.584, 4, 35.9099, 48.1467, -14.0826, 97.4494, -51.5422, 44.0246
1.588, 4, 35.9087, 48.152, -14.0839, 97.4501, -51.5501, 44.0197
1.592, 4, 35.9075, 48.158, -14.0855, 97.4509, -51.5608, 44.0131
1.596, 4, 35.9064, 48.1647, -14.0876, 97.4519, -51.5748, 44.0045
1.6, 4, 35.9053, 48.1722, -14.0902, 97.4532, -51.5924, 43.9936
1.604, 4, 35.9043, 48.1805, -14.0933, 97.4548, -51.6139, 43.9803
1.608, 4, 35.9034, 48.1895, -14.097, 97.4566, -51.6396, 43.9645
1.612, 4, 35.9025, 48.1992, -14.1012, 97.4588, -51.6696, 43.9459
1.616, 4, 35.9017, 48.2095, -14.106, 97.4612, -51.704, 43.9248
1.62, 4, 35.9011, 48.2206, -14.1114, 97.4639, -51.7427, 43.901
1.624, 4, 35.9005, 48.2322, -14.1173, 97.4669, -51.7853, 43.8747
1.628, 4, 35.9, 48.2447, -14.1237, 97.47, -51.8317, 43.8463
1.632, 4, 35.8995, 48.2579, -14.1306, 97.4734, -51.8813, 43.8158
1.636, 4, 35.8989, 48.272, -14.1378, 97.4769, -51.9338, 43.7835
1.64, 4, 35.8983, 48.2869, -14.1453, 97.4805, -51.9888, 43.7499
1.644, 4, 35.8976, 48.3027, -14.1531, 97.4842, -52.0457, 43.715
1.648, 4, 35.8967, 48.3192, -14.1611, 97.488, -52.1043, 43.6792
1.652, 4, 35.8957, 48.3364, -14.1692, 97.4917, -52.1641, 43.6427
1.656, 4, 35.8945, 48.3541, -14.1775, 97.4955, -52.2249, 43.6056
1.66, 4, 35.8933, 48.3723, -14.1858, 97.4992, -52.2865, 43.5681
1.664, 4, 35.8919, 48.3909, -14.1942, 97.5029, -52.3486, 43.5303
1.668, 4, 35.8904, 48.4099, -14.2026, 97.5066, -52.4111, 43.4923
1.672, 4, 35.8888, 48.4291, -14.211, 97.5101, -52.4738, 43.4543
1.676, 4, 35.8872, 48.4486, -14.2194, 97.5136, -52.5367, 43.4162
1.68, 4, 35.8855, 48.4682, -14.2278, 97.5171, -52.5998, 43.378
1.684, 4, 35.8838, 48.4879, -14.2362, 97.5204, -52.6629, 43.3399
1.688, 4, 35.882, 48.5077, -14.2445, 97.5237, -52.726, 43.3018
1.692, 4, 35.8802, 48.5274, -14.2528, 97.5269, -52.7892, 43.2637
1.696, 4, 35.8784, 48.5472, -14.2611, 97.53, -52.8524, 43.2257
1.7, 4, 35.8765, 48.567, -14.2693, 97.5331, -52.9156, 43.1878
1.704, 4, 35.8747, 48.5868, -14.2775, 97.5361, -52.9788, 43.1498
1.708, 4, 35.8728, 48.6066, -14.2856, 97.5389, -53.042, 43.112
1.712, 4, 35.8709, 48.6264, -14.2937, 97.5417, -53.1052, 43.0742
1.716, 4, 35.869, 48.6461, -14.3017, 97.5445, -53.1684, 43.0364
1.72, 4, 35.8671, 48.6659, -14.3098, 97.5471, -53.2316, 42.9988
1.724, 4, 35.8651, 48.6856, -14.3177, 97.5497, -53.2947, 42.9612
1.728, 4, 35.8632, 48.7053, -14.3256, 97.5521, -53.3579, 42.9236
1.732, 4, 35.8612, 48.725, -14.3335, 97.5545, -53.421, 42.8861
1.736, 4, 35.8592, 48.7446, -14.3414, 97.5568, -53.4841, 42.8487
1.74, 4, 35.8572, 48.7642, -14.3492, 97.5591, -53.5472, 42.8113
1.744, 4, 35.8552, 48.7838, -14.3569, 97.5612, -53.6103, 42.7739
1.748, 4, 35.8532, 48.8034, -14.3646, 97.5633, -53.6734, 42.7367
1.752, 4, 35.8511, 48.823, -14.3723, 97.5653, -53.7365, 42.6995
1.756, 4, 35.849, 48.8425, -14.3799, 97.5672, -53.7996, 42.6623
1.76, 4, 35.847, 48.862, -14.3875, 97.5691, -53.8626, 42.6253
1.764, 4, 35.8449, 48.8815, -14.395, 97.5708, -53.9257, 42.5882
1.768, 4, 35.8428, 48.901, -14.4025, 97.5725, -53.9887, 42.5513
1.772, 4, 35.8407, 48.9205, -14.4099, 97.5741, -54.0517, 42.5143
1.776, 4, 35.8385, 48.9399, -14.4173, 97.5756, -54.1147, 42.4775
1.78, 4, 35.8364, 48.9593, -14.4247, 97.5771, -54.1777, 42.4407
1.784, 4, 35.8342, 48.9787, -14.432, 97.5784, -54.2406, 42.404
1.788, 4, 35.8321, 48.998, -14.4393, 97.5797, -54.3036, 42.3673
1.792, 4, 35.8299, 49.0174, -14.4465, 97.5809, -54.3665, 42.3306
1.796, 4, 35.8277, 49.0367, -14.4537, 97.5821, -54.4295, 42.2941
1.8, 4, 35.8255, 49.056, -14.4608, 97.5832, -54.4924, 42.2576
1.804, 4, 35.8232, 49.0752, -14.4679, 97.5841, -54.5553, 42.2211
1.808, 4, 35.821, 49.0945, -14.4749, 97.585, -54.6182, 42.1847
1.812, 4, 35.8187, 49.1137, -14.4819, 97.5859, -54.681, 42.1484
1.816, 4, 35.8165, 49.1329, -14.4889, 97.5866, -54.7439, 42.1121
1.82, 4, 35.8142, 49.1521, -14.4958, 97.5873, -54.8067, 42.0758
1.824, 4, 35.8119, 49.1712, -14.5027, 97.5879, -54.8696, 42.0396
1.828, 4, 35.8095, 49.1903, -14.5095, 97.5884, -54.9324, 42.0035
1.832, 4, 35.8072, 49.2094, -14.5162, 97.5889, -54.9952, 41.9674
1.836, 4, 35.8049, 49.2285, -14.523, 97.5893, -55.058, 41.9314
1.84, 4, 35.8025, 49.2476, -14.5297, 97.5896, -55.1208, 41.8955
1.844, 4, 35.8001, 49.2666, -14.5363, 97.5898, -55.1835, 41.8595
1.848, 4, 35.7978, 49.2856, -14.5429, 97.59, -55.2463, 41.8237
1.852, 4, 35.7953, 49.3046, -14.5495, 97.5901, -55.309, 41.7879
1.856, 4, 35.7929, 49.3235, -14.556, 97.5901, -55.3718, 41.7521
1.86, 4, 35.7905, 49.3425, -14.5624, 97.59, -55.4345, 41.7164
1.864, 4, 35.7881, 49.3614, -14.5688, 97.5899, -55.4972, 41.6808
1.868, 4, 35.7856, 49.3803, -14.5752, 97.5897, -55.5599, 41.6452
1.872, 4, 35.7831, 49.3991, -14.5815, 97.5894, -55.6225, 41.6096
1.876, 4, 35.7806, 49.418, -14.5878, 97.5891, -55.6852, 41.5741
1.88, 4, 35.7781, 49.4368, -14.5941, 97.5887, -55.7478, 41.5387
1.884, 4, 35.7756, 49.4556, -14.6002, 97.5882, -55.8105, 41.5033
1.888, 4, 35.7731, 49.4743, -14.6064, 97.5876, -55.8731, 41.4679
1.892, 4, 35.7706, 49.4931, -14.6125, 97.587, -55.9357, 41.4326
1.896, 4, 35.768, 49.5118, -14.6185, 97.5863, -55.9983, 41.3974
1.9, 4, 35.7654, 49.5305, -14.6246, 97.5855, -56.0608, 41.3622
1.904, 4, 35.7628, 49.5492, -14.6305, 97.5846, -56.1234, 41.3271
1.908, 4, 35.7602, 49.5678, -14.6364, 97.5837, -56.186, 41.292
1.912, 4, 35.7576, 49.5864, -14.6423, 97.5827, -56.2485, 41.2569
1.916, 4, 35.755, 49.605, -14.6481, 97.5817, -56.311, 41.2219
1.92, 4, 35.7524, 49.6236, -14.6539, 97.5806, -56.3735, 41.187
1.924, 4, 35.7497, 49.6422, -14.6597, 97.5794, -56.436, 41.1521
1.928, 4, 35.747, 49.6607, -14.6654, 97.5781, -56.4985, 41.1172
1.932, 4, 35.7444, 49.6792, -14.671, 97.5768, -56.561, 41.0824
1.936, 4, 35.7417, 49.6977, -14.6766, 97.5753, -56.6234, 41.0477
1.94, 4, 35.7389, 49.7161, -14.6822, 97.5739, -56.6858, 41.013
1.944, 4, 35.7362, 49.7345, -14.6877, 97.5723, -56.7483, 40.9783
1.948, 4, 35.7335, 49.7529, -14.6931, 97.5707, -56.8107, 40.9437
1.952, 4, 35.7307, 49.7713, -14.6985, 97.5691, -56.8731, 40.9091
1.956, 4, 35.728, 49.7897, -14.7039, 97.5673, -56.9355, 40.8746
1.96, 4, 35.7252, 49.808, -14.7093, 97.5655, -56.9978, 40.8402
1.964, 4, 35.7224, 49.8263, -14.7145, 97.5636, -57.0602, 40.8057
1.968, 4, 35.7196, 49.8446, -14.7198, 97.5617, -57.1225, 40.7714
1.972, 4, 35.7167, 49.8628, -14.725, 97.5597, -57.1848, 40.737
1.976, 4, 35.7139, 49.8811, -14.7301, 97.5576, -57.2472, 40.7027
1.98, 4, 35.7111, 49.8993, -14.7352, 97.5554, -57.3094, 40.6685
1.984, 4, 35.7082, 49.9174, -14.7403, 97.5532, -57.3717, 40.6343
1.988, 4, 35.7053, 49.9356, -14.7453, 97.5509, -57.434, 40.6002
1.992, 4, 35.7024, 49.9537, -14.7502, 97.5486, -57.4963, 40.5661
1.996, 4, 35.6995, 49.9718, -14.7551, 97.5462, -57.5585, 40.532
1.999, 4, 35.6966, 49.9899, -14.76, 97.5437, -57.6207, 40.498
2.004, 4, 35.6937, 50.0079, -14.7648, 97.5412, -57.6829, 40.464
2.008, 4, 35.6907, 50.026, -14.7696, 97.5386, -57.7451, 40.4301
2.012, 4, 35.6878, 50.044, -14.7743, 97.5359, -57.8073, 40.3962
2.015, 4, 35.6848, 50.0619, -14.779, 97.5332, -57.8695, 40.3624
2.019, 4, 35.6818, 50.0799, -14.7837, 97.5304, -57.9317, 40.3286
2.024, 4, 35.6788, 50.0978, -14.7883, 97.5275, -57.9938, 40.2949
2.028, 4, 35.6758, 50.1157, -14.7928, 97.5246, -58.0559, 40.2612
2.031, 4, 35.6728, 50.1336, -14.7973, 97.5216, -58.118, 40.2275
2.036, 4, 35.6697, 50.1514, -14.8018, 97.5185, -58.1801, 40.1939
2.04, 4, 35.6667, 50.1693, -14.8062, 97.5154, -58.2422, 40.1603
2.044, 4, 35.6636, 50.1871, -14.8105, 97.5122, -58.3043, 40.1268
2.048, 4, 35.6605, 50.2048, -14.8148, 97.5089, -58.3664, 40.0933
2.051, 4, 35.6574, 50.2226, -14.8191, 97.5056, -58.4284, 40.0599
2.055, 4, 35.6543, 50.2403, -14.8233, 97.5023, -58.4904, 40.0265
2.06, 4, 35.6512, 50.258, -14.8275, 97.4988, -58.5524, 39.9931
2.064, 4, 35.648, 50.2756, -14.8316, 97.4953, -58.6144, 39.9598
2.068, 4, 35.6449, 50.2933, -14.8357, 97.4917, -58.6764, 39.9265
2.071, 4, 35.6417, 50.3109, -14.8398, 97.4881, -58.7384, 39.8933
2.076, 4, 35.6385, 50.3285, -14.8437, 97.4844, -58.8004, 39.8601
2.08, 4, 35.6353, 50.3461, -14.8477, 97.4807, -58.8623, 39.8269
2.084, 4, 35.6321, 50.3636, -14.8516, 97.4769, -58.9242, 39.7938
2.087, 4, 35.6289, 50.3811, -14.8554, 97.473, -58.9861, 39.7607
2.092, 4, 35.6257, 50.3986, -14.8592, 97.4691, -59.048, 39.7277
2.096, 4, 35.6224, 50.416, -14.863, 97.4651, -59.1099, 39.6947
2.1, 4, 35.6192, 50.4335, -14.8667, 97.461, -59.1718, 39.6618
2.104, 4, 35.6159, 50.4509, -14.8704, 97.4569, -59.2337, 39.6289
2.107, 4, 35.6126, 50.4683, -14.874, 97.4527, -59.2955, 39.596
2.111, 4, 35.6093, 50.4856, -14.8776, 97.4485, -59.3573, 39.5632
2.116, 4, 35.606, 50.5029, -14.8811, 97.4442, -59.4191, 39.5304
2.12, 4, 35.6027, 50.5202, -14.8846, 97.4398, -59.4809, 39.4976
2.124, 4, 35.5993, 50.5375, -14.888, 97.4354, -59.5427, 39.4649
2.127, 4, 35.596, 50.5547, -14.8914, 97.4309, -59.6045, 39.4323
2.132, 4, 35.5926, 50.572, -14.8947, 97.4264, -59.6662, 39.3996
2.136, 4, 35.5892, 50.5892, -14.898, 97.4218, -59.728, 39.367
2.14, 4, 35.5858, 50.6063, -14.9012, 97.4171, -59.7897, 39.3345
2.143, 4, 35.5824, 50.6235, -14.9044, 97.4124, -59.8514, 39.302
2.148, 4, 35.579, 50.6406, -14.9076, 97.4076, -59.9131, 39.2695
2.152, 4, 35.5756, 50.6577, -14.9107, 97.4028, -59.9748, 39.237
2.156, 4, 35.5721, 50.6747, -14.9137, 97.3979, -60.0365, 39.2046
2.16, 4, 35.5686, 50.6917, -14.9167, 97.3929, -60.0981, 39.1723
2.163, 4, 35.5652, 50.7088, -14.9197, 97.3879, -60.1598, 39.1399
2.168, 4, 35.5617, 50.7257, -14.9226, 97.3828, -60.2214, 39.1077
2.172, 4, 35.5582, 50.7427, -14.9254, 97.3777, -60.283, 39.0754
2.176, 4, 35.5547, 50.7596, -14.9283, 97.3725, -60.3446, 39.0432
2.179, 4, 35.5511, 50.7765, -14.931, 97.3673, -60.4062, 39.011
2.184, 4, 35.5476, 50.7934, -14.9337, 97.362, -60.4677, 38.9789
2.188, 4, 35.544, 50.8102, -14.9364, 97.3566, -60.5293, 38.9468
2.192, 4, 35.5405, 50.827, -14.939, 97.3512, -60.5908, 38.9147
2.196, 4, 35.5369, 50.8438, -14.9416, 97.3457, -60.6523, 38.8827
2.199, 4, 35.5333, 50.8606, -14.9441, 97.3402, -60.7138, 38.8507
2.204, 4, 35.5297, 50.8773, -14.9466, 97.3346, -60.7753, 38.8187
2.208, 4, 35.526, 50.894, -14.9491, 97.3289, -60.8368, 38.7868
2.212, 4, 35.5224, 50.9107, -14.9514, 97.3232, -60.8983, 38.7549
2.216, 4, 35.5188, 50.9273, -14.9538, 97.3175, -60.9597, 38.723
2.219, 4, 35.5151, 50.944, -14.9561, 97.3117, -61.0211, 38.6912
2.224, 4, 35.5114, 50.9606, -14.9583, 97.3058, -61.0826, 38.6594
2.228, 4, 35.5077, 50.9771, -14.9605, 97.2999, -61.144, 38.6277
2.232, 4, 35.504, 50.9937, -14.9627, 97.2939, -61.2053, 38.596
2.235, 4, 35.5003, 51.0102, -14.9648, 97.2878, -61.2667, 38.5643
2.24, 4, 35.4966, 51.0267, -14.9668, 97.2817, -61.3281, 38.5326
2.244, 4, 35.4928, 51.0431, -14.9688, 97.2756, -61.3894, 38.501
2.248, 4, 35.4891, 51.0595, -14.9708, 97.2694, -61.4507, 38.4695
2.252, 4, 35.4853, 51.0759, -14.9727, 97.2631, -61.5121, 38.4379
2.255, 4, 35.4815, 51.0923, -14.9745, 97.2568, -61.5733, 38.4064
2.259, 4, 35.4777, 51.1087, -14.9763, 97.2504, -61.6346, 38.3749
2.264, 4, 35.4739, 51.125, -14.9781, 97.244, -61.6959, 38.3435
2.268, 4, 35.4701, 51.1413, -14.9798, 97.2375, -61.7571, 38.3121
2.272, 4, 35.4663, 51.1575, -14.9815, 97.231, -61.8184, 38.2807
2.275, 4, 35.4624, 51.1738, -14.9831, 97.2244, -61.8796, 38.2494
2.28, 4, 35.4585, 51.19, -14.9847, 97.2178, -61.9408, 38.2181
2.284, 4, 35.4547, 51.2061, -14.9862, 97.2111, -62.002, 38.1868
2.288, 4, 35.4508, 51.2223, -14.9876, 97.2043, -62.0632, 38.1556
2.291, 4, 35.4469, 51.2384, -14.9891, 97.1975, -62.1243, 38.1244
2.296, 4, 35.443, 51.2545, -14.9904, 97.1906, -62.1855, 38.0932
2.3, 4, 35.439, 51.2706, -14.9918, 97.1837, -62.2466, 38.062
2.304, 4, 35.4351, 51.2866, -14.993, 97.1768, -62.3077, 38.0309
2.308, 4, 35.4311, 51.3026, -14.9943, 97.1697, -62.3688, 37.9999
2.311, 4, 35.4272, 51.3186, -14.9954, 97.1627, -62.4299, 37.9688
2.316, 4, 35.4232, 51.3345, -14.9966, 97.1555, -62.491, 37.9378
2.32, 4, 35.4192, 51.3504, -14.9977, 97.1483, -62.552, 37.9068
2.324, 4, 35.4152, 51.3663, -14.9987, 97.1411, -62.6131, 37.8759
2.328, 4, 35.4112, 51.3822, -14.9997, 97.1338, -62.6741, 37.8449
2.331, 4, 35.4071, 51.398, -15.0006, 97.1265, -62.7351, 37.814
2.336, 4, 35.4031, 51.4138, -15.0015, 97.1191, -62.7961, 37.7832
2.34, 4, 35.399, 51.4296, -15.0023, 97.1117, -62.8571, 37.7524
2.344, 4, 35.395, 51.4454, -15.0031, 97.1042, -62.918, 37.7216
2.347, 4, 35.3909, 51.4611, -15.0039, 97.0966, -62.979, 37.6908
2.352, 4, 35.3868, 51.4768, -15.0045, 97.089, -63.0399, 37.6601
2.356, 4, 35.3826, 51.4924, -15.0052, 97.0814, -63.1008, 37.6294
2.36, 4, 35.3785, 51.5081, -15.0058, 97.0737, -63.1617, 37.5987
2.364, 4, 35.3744, 51.5237, -15.0063, 97.0659, -63.2226, 37.568
2.367, 4, 35.3702, 51.5392, -15.0068, 97.0581, -63.2835, 37.5374
2.372, 4, 35.3661, 51.5548, -15.0073, 97.0503, -63.3444, 37.5068
2.376, 4, 35.3619, 51.5703, -15.0076, 97.0424, -63.4052, 37.4763
2.38, 4, 35.3577, 51.5858, -15.008, 97.0344, -63.466, 37.4458
2.383, 4, 35.3535, 51.6012, -15.0083, 97.0264, -63.5268, 37.4153
2.388, 4, 35.3493, 51.6167, -15.0085, 97.0183, -63.5876, 37.3848
2.392, 4, 35.345, 51.6321, -15.0087, 97.0102, -63.6484, 37.3544
2.396, 4, 35.3408, 51.6474, -15.0089, 97.0021, -63.7092, 37.3239
2.4, 4, 35.3365, 51.6628, -15.009, 96.9939, -63.7699, 37.2936
2.403, 4, 35.3323, 51.6781, -15.009, 96.9856, -63.8306, 37.2632
2.408, 4, 35.328, 51.6933, -15.009, 96.9773, -63.8913, 37.2329
2.412, 4, 35.3237, 51.7086, -15.009, 96.9689, -63.952, 37.2026
2.416, 4, 35.3194, 51.7238, -15.0089, 96.9605, -64.0127, 37.1723
2.42, 4, 35.315, 51.739, -15.0087, 96.9521, -64.0734, 37.1421
2.423, 4, 35.3107, 51.7542, -15.0085, 96.9436, -64.134, 37.1119
2.428, 4, 35.3064, 51.7693, -15.0082, 96.935, -64.1947, 37.0817
2.432, 4, 35.302, 51.7844, -15.0079, 96.9264, -64.2553, 37.0515
2.436, 4, 35.2976, 51.7995, -15.0076, 96.9177, -64.3159, 37.0214
2.439, 4, 35.2932, 51.8145, -15.0072, 96.909, -64.3765, 36.9913
2.444, 4, 35.2888, 51.8295, -15.0067, 96.9003, -64.4371, 36.9612
2.448, 4, 35.2844, 51.8445, -15.0062, 96.8915, -64.4976, 36.9312
2.452, 4, 35.28, 51.8595, -15.0057, 96.8826, -64.5582, 36.9012
2.456, 4, 35.2756, 51.8744, -15.0051, 96.8737, -64.6187, 36.8712
2.459, 4, 35.2711, 51.8893, -15.0044, 96.8648, -64.6792, 36.8412
2.464, 4, 35.2666, 51.9041, -15.0037, 96.8558, -64.7397, 36.8113
2.468, 4, 35.2621, 51.919, -15.003, 96.8467, -64.8002, 36.7814
2.472, 4, 35.2577, 51.9338, -15.0022, 96.8376, -64.8607, 36.7515
2.476, 5, 35.2532, 51.9485, -15.0013, 96.8285, -64.9211, 36.7216
2.48, 5, 35.2486, 51.9633, -15.0004, 96.8193, -64.9816, 36.6918
2.484, 5, 35.2441, 51.978, -14.9994, 96.8101, -65.042, 36.662
2.488, 5, 35.2396, 51.9927, -14.9984, 96.8008, -65.1024, 36.6322
2.492, 5, 35.235, 52.0073, -14.9974, 96.7915, -65.1628, 36.6024
2.495, 5, 35.2304, 52.0219, -14.9963, 96.7821, -65.2232, 36.5727
2.5, 5, 35.2258, 52.0365, -14.9951, 96.7726, -65.2836, 36.543
2.504, 5, 35.2213, 52.0511, -14.9939, 96.7632, -65.3439, 36.5133
2.508, 5, 35.2166, 52.0656, -14.9926, 96.7536, -65.4042, 36.4837
2.512, 5, 35.212, 52.0801, -14.9913, 96.7441, -65.4646, 36.454
2.515, 5, 35.2074, 52.0946, -14.99, 96.7344, -65.5249, 36.4244
2.52, 5, 35.2027, 52.109, -14.9886, 96.7248, -65.5852, 36.3948
2.524, 5, 35.1981, 52.1234, -14.9871, 96.7151, -65.6454, 36.3653
2.528, 5, 35.1934, 52.1378, -14.9856, 96.7053, -65.7057, 36.3357
2.531, 5, 35.1887, 52.1521, -14.984, 96.6955, -65.7659, 36.3062
2.536, 5, 35.184, 52.1664, -14.9824, 96.6857, -65.8262, 36.2768
2.54, 5, 35.1793, 52.1807, -14.9808, 96.6758, -65.8864, 36.2473
2.544, 5, 35.1746, 52.195, -14.9791, 96.6658, -65.9466, 36.2179
2.548, 5, 35.1698, 52.2092, -14.9773, 96.6558, -66.0068, 36.1884
2.551, 5, 35.1651, 52.2234, -14.9755, 96.6458, -66.0669, 36.1591
2.556, 5, 35.1603, 52.2376, -14.9736, 96.6357, -66.1271, 36.1297
2.56, 5, 35.1556, 52.2517, -14.9717, 96.6256, -66.1872, 36.1003
2.564, 5, 35.1508, 52.2658, -14.9698, 96.6154, -66.2474, 36.071
2.568, 5, 35.146, 52.2799, -14.9678, 96.6052, -66.3075, 36.0417
2.571, 5, 35.1412, 52.2939, -14.9657, 96.595, -66.3676, 36.0125
2.576, 5, 35.1363, 52.3079, -14.9636, 96.5847, -66.4277, 35.9832
2.58, 5, 35.1315, 52.3219, -14.9614, 96.5743, -66.4877, 35.954
2.584, 5, 35.1267, 52.3358, -14.9592, 96.5639, -66.5478, 35.9248
2.587, 5, 35.1218, 52.3498, -14.957, 96.5535, -66.6078, 35.8956
2.592, 5, 35.1169, 52.3637, -14.9547, 96.543, -66.6679, 35.8664
2.596, 5, 35.112, 52.3775, -14.9523, 96.5325, -66.7279, 35.8373
2.6, 5, 35.1071, 52.3913, -14.9499, 96.5219, -66.7879, 35.8082
2.604, 5, 35.1022, 52.4051, -14.9475, 96.5113, -66.8478, 35.7791
2.607, 5, 35.0973, 52.4189, -14.9449, 96.5006, -66.9078, 35.75
2.612, 5, 35.0923, 52.4326, -14.9424, 96.4899, -66.9678, 35.721
2.616, 5, 35.0874, 52.4463, -14.9398, 96.4791, -67.0277, 35.692
2.62, 5, 35.0824, 52.46, -14.9371, 96.4683, -67.0876, 35.663
2.624, 5, 35.0775, 52.4736, -14.9344, 96.4575, -67.1475, 35.634
2.627, 5, 35.0725, 52.4872, -14.9317, 96.4466, -67.2074, 35.605
2.632, 5, 35.0675, 52.5008, -14.9289, 96.4357, -67.2673, 35.5761
2.636, 5, 35.0625, 52.5144, -14.926, 96.4247, -67.3271, 35.5472
2.64, 5, 35.0574, 52.5279, -14.9231, 96.4137, -67.387, 35.5183
2.643, 5, 35.0524, 52.5414, -14.9201, 96.4026, -67.4468, 35.4894
2.648, 5, 35.0473, 52.5548, -14.9171, 96.3915, -67.5067, 35.4605
2.652, 5, 35.0423, 52.5682, -14.9141, 96.3804, -67.5665, 35.4317
2.656, 5, 35.0372, 52.5816, -14.911, 96.3692, -67.6262, 35.4029
2.66, 5, 35.0321, 52.595, -14.9078, 96.358, -67.686, 35.3741
2.663, 5, 35.027, 52.6083, -14.9046, 96.3467, -67.7458, 35.3453
2.668, 5, 35.0219, 52.6216, -14.9013, 96.3354, -67.8055, 35.3166
2.672, 5, 35.0168, 52.6349, -14.898, 96.324, -67.8653, 35.2878
2.676, 5, 35.0116, 52.6481, -14.8947, 96.3126, -67.925, 35.2591
2.679, 5, 35.0065, 52.6613, -14.8913, 96.3012, -67.9847, 35.2304
2.684, 5, 35.0013, 52.6745, -14.8878, 96.2897, -68.0444, 35.2017
2.688, 5, 34.9962, 52.6877, -14.8843, 96.2782, -68.104, 35.1731
2.692, 5, 34.991, 52.7008, -14.8808, 96.2666, -68.1637, 35.1445
2.696, 5, 34.9858, 52.7139, -14.8772, 96.255, -68.2233, 35.1158
2.699, 5, 34.9806, 52.7269, -14.8735, 96.2433, -68.283, 35.0872
2.704, 5, 34.9753, 52.7399, -14.8698, 96.2316, -68.3426, 35.0587
2.708, 5, 34.9701, 52.7529, -14.866, 96.2199, -68.4022, 35.0301
2.712, 5, 34.9649, 52.7659, -14.8622, 96.2081, -68.4618, 35.0016
2.716, 5, 34.9596, 52.7788, -14.8584, 96.1963, -68.5213, 34.9731
2.719, 5, 34.9543, 52.7917, -14.8545, 96.1844, -68.5809, 34.9446
2.724, 5, 34.949, 52.8045, -14.8505, 96.1725, -68.6404, 34.9161
2.728, 5, 34.9438, 52.8174, -14.8465, 96.1606, -68.7, 34.8876
2.732, 5, 34.9384, 52.8302, -14.8425, 96.1486, -68.7595, 34.8592
2.735, 5, 34.9331, 52.8429, -14.8384, 96.1366, -68.819, 34.8308
2.74, 5, 34.9278, 52.8557, -14.8342, 96.1245, -68.8784, 34.8023
2.744, 5, 34.9225, 52.8684, -14.83, 96.1124, -68.9379, 34.774
2.748, 5, 34.9171, 52.881, -14.8257, 96.1002, -68.9974, 34.7456
2.752, 5, 34.9117, 52.8937, -14.8214, 96.088, -69.0568, 34.7172
2.755, 5, 34.9063, 52.9063, -14.8171, 96.0758, -69.1162, 34.6889
2.76, 5, 34.901, 52.9188, -14.8127, 96.0635, -69.1756, 34.6606
2.764, 5, 34.8955, 52.9314, -14.8082, 96.0512, -69.235, 34.6323
2.768, 5, 34.8901, 52.9439, -14.8037, 96.0388, -69.2944, 34.604
2.772, 5, 34.8847, 52.9564, -14.7992, 96.0264, -69.3538, 34.5757
2.775, 5, 34.8793, 52.9688, -14.7946, 96.014, -69.4131, 34.5475
2.78, 5, 34.8738, 52.9812, -14.7899, 96.0015, -69.4725, 34.5193
2.784, 5, 34.8683, 52.9936, -14.7852, 95.989, -69.5318, 34.4911
2.788, 5, 34.8629, 53.006, -14.7804, 95.9764, -69.5911, 34.4629
2.791, 5, 34.8574, 53.0183, -14.7756, 95.9639, -69.6504, 34.4347
2.796, 5, 34.8519, 53.0306, -14.7708, 95.9512, -69.7097, 34.4065
2.8, 5, 34.8464, 53.0429, -14.7659, 95.9385, -69.769, 34.3784
2.804, 5, 34.8408, 53.0551, -14.7609, 95.9258, -69.8282, 34.3503
2.808, 5, 34.8353, 53.0673, -14.7559, 95.9131, -69.8875, 34.3221
2.811, 5, 34.8298, 53.0794, -14.7509, 95.9003, -69.9467, 34.2941
2.816, 5, 34.8242, 53.0916, -14.7458, 95.8874, -70.0059, 34.266
2.82, 5, 34.8186, 53.1036, -14.7406, 95.8745, -70.0651, 34.2379
2.824, 5, 34.813, 53.1157, -14.7354, 95.8616, -70.1242, 34.2099
2.828, 5, 34.8074, 53.1277, -14.7302, 95.8487, -70.1834, 34.1818
2.831, 5, 34.8018, 53.1397, -14.7248, 95.8357, -70.2426, 34.1538
2.836, 5, 34.7962, 53.1517, -14.7195, 95.8227, -70.3017, 34.1258
2.84, 5, 34.7906, 53.1636, -14.7141, 95.8096, -70.3608, 34.0979
2.844, 5, 34.7849, 53.1755, -14.7086, 95.7965, -70.4199, 34.0699
2.847, 5, 34.7793, 53.1874, -14.7031, 95.7833, -70.479, 34.0419
2.852, 5, 34.7736, 53.1992, -14.6976, 95.7701, -70.5381, 34.014
2.856, 5, 34.7679, 53.2111, -14.692, 95.7569, -70.5972, 33.9861
2.86, 5, 34.7622, 53.2228, -14.6863, 95.7436, -70.6562, 33.9582
2.864, 5, 34.7565, 53.2346, -14.6806, 95.7303, -70.7152, 33.9303
2.867, 5, 34.7508, 53.2463, -14.6749, 95.717, -70.7743, 33.9024
2.872, 5, 34.7451, 53.2579, -14.669, 95.7036, -70.8333, 33.8745
2.876, 5, 34.7393, 53.2696, -14.6632, 95.6902, -70.8923, 33.8467
2.88, 5, 34.7336, 53.2812, -14.6573, 95.6767, -70.9512, 33.8189
2.883, 5, 34.7278, 53.2928, -14.6513, 95.6632, -71.0102, 33.7911
2.888, 5, 34.7221, 53.3043, -14.6453, 95.6497, -71.0691, 33.7633
2.892, 5, 34.7163, 53.3158, -14.6393, 95.6361, -71.1281, 33.7355
2.896, 5, 34.7105, 53.3273, -14.6332, 95.6225, -71.187, 33.7077
2.9, 5, 34.7047, 53.3388, -14.627, 95.6089, -71.2459, 33.6799
2.903, 5, 34.6988, 53.3502, -14.6208, 95.5952, -71.3048, 33.6522
2.908, 5, 34.693, 53.3615, -14.6145, 95.5815, -71.3637, 33.6245
2.912, 5, 34.6872, 53.3729, -14.6082, 95.5677, -71.4225, 33.5967
2.916, 5, 34.6813, 53.3842, -14.6019, 95.5539, -71.4814, 33.569
2.92, 5, 34.6754, 53.3955, -14.5954, 95.5401, -71.5402, 33.5414
2.923, 5, 34.6696, 53.4067, -14.589, 95.5262, -71.599, 33.5137
2.928, 5, 34.6637, 53.418, -14.5825, 95.5123, -71.6578, 33.486
2.932, 5, 34.6578, 53.4291, -14.5759, 95.4984, -71.7166, 33.4584
2.936, 5, 34.6518, 53.4403, -14.5693, 95.4844, -71.7754, 33.4307
2.939, 5, 34.6459, 53.4514, -14.5626, 95.4704, -71.8342, 33.4031
2.944, 5, 34.64, 53.4625, -14.5559, 95.4563, -71.8929, 33.3755
2.948, 5, 34.634, 53.4735, -14.5492, 95.4422, -71.9516, 33.3479
2.952, 5, 34.6281, 53.4846, -14.5424, 95.4281, -72.0103, 33.3203
2.956, 5, 34.6221, 53.4955, -14.5355, 95.4139, -72.069, 33.2928
2.959, 5, 34.6161, 53.5065, -14.5286, 95.3997, -72.1277, 33.2652
2.964, 5, 34.6101, 53.5174, -14.5216, 95.3855, -72.1864, 33.2377
2.968, 5, 34.6041, 53.5283, -14.5146, 95.3712, -72.2451, 33.2101
2.972, 5, 34.5981, 53.5391, -14.5075, 95.3569, -72.3037, 33.1826
2.976, 5, 34.592, 53.5499, -14.5004, 95.3425, -72.3623, 33.1551
2.98, 5, 34.586, 53.5607, -14.4932, 95.3281, -72.421, 33.1276
2.984, 5, 34.5799, 53.5715, -14.486, 95.3137, -72.4796, 33.1001
2.988, 5, 34.5739, 53.5822, -14.4787, 95.2992, -72.5381, 33.0727
2.992, 5, 34.5678, 53.5929, -14.4714, 95.2848, -72.5967, 33.0452
2.995, 5, 34.5617, 53.6035, -14.4641, 95.2702, -72.6553, 33.0178
3, 5, 34.5556, 53.6141, -14.4566, 95.2557, -72.7138, 32.9903
3.004, 5, 34.5495, 53.6247, -14.4492, 95.2411, -72.7723, 32.9629
3.008, 5, 34.5434, 53.6353, -14.4416, 95.2264, -72.8309, 32.9355
3.012, 5, 34.5373, 53.6458, -14.4341, 95.2118, -72.8894, 32.9081
3.015, 5, 34.5312, 53.6562, -14.4264, 95.197, -72.9478, 32.8807
3.02, 5, 34.5251, 53.6666, -14.4187, 95.1823, -73.0063, 32.8533
3.024, 5, 34.5192, 53.6768, -14.411, 95.1675, -73.0647, 32.826
3.028, 5, 34.5132, 53.687, -14.4032, 95.1527, -73.123, 32.7987
3.031, 5, 34.507, 53.6969, -14.3953, 95.1379, -73.1812, 32.7715
3.036, 5, 34.5007, 53.7064, -14.3873, 95.1231, -73.2392, 32.7445
3.04, 5, 34.4941, 53.7154, -14.3789, 95.1081, -73.297, 32.7177
3.044, 5, 34.4871, 53.7238, -14.3701, 95.0929, -73.3542, 32.6916
3.048, 5, 34.4799, 53.7314, -14.3608, 95.0775, -73.4108, 32.6663
3.051, 5, 34.4726, 53.7385, -14.3506, 95.0616, -73.4664, 32.6423
3.056, 5, 34.4651, 53.745, -14.3394, 95.0451, -73.5208, 32.62
3.06, 5, 34.4577, 53.7509, -14.327, 95.0278, -73.5737, 32.5998
3.064, 5, 34.4502, 53.7564, -14.3131, 95.0096, -73.6249, 32.5822
3.068, 5, 34.4427, 53.7614, -14.2975, 94.9903, -73.6742, 32.5673
3.071, 5, 34.4352, 53.7657, -14.2802, 94.9698, -73.7214, 32.5555
3.076, 5, 34.4275, 53.7694, -14.2608, 94.9481, -73.7666, 32.5469
3.08, 5, 34.4198, 53.7722, -14.2394, 94.925, -73.8097, 32.5416
3.084, 5, 34.4122, 53.7743, -14.216, 94.9005, -73.8508, 32.5396
3.087, 5, 34.4045, 53.7757, -14.1906, 94.8747, -73.89, 32.5408
3.092, 5, 34.3969, 53.7764, -14.1633, 94.8476, -73.9274, 32.5449
3.096, 5, 34.3893, 53.7764, -14.1342, 94.8194, -73.9633, 32.5518
3.1, 5, 34.3817, 53.7757, -14.1036, 94.79, -73.9979, 32.561
3.104, 5, 34.3741, 53.7743, -14.0716, 94.7598, -74.0316, 32.5721
3.107, 5, 34.3663, 53.7722, -14.0385, 94.7288, -74.0645, 32.5846
3.112, 5, 34.3585, 53.7693, -14.0044, 94.6972, -74.0969, 32.5983
3.116, 5, 34.3505, 53.7657, -13.9696, 94.6652, -74.1291, 32.6128
3.12, 5, 34.3425, 53.7616, -13.9342, 94.6328, -74.161, 32.6278
3.124, 5, 34.3343, 53.7571, -13.8984, 94.6002, -74.1929, 32.6432
3.128, 5, 34.326, 53.7524, -13.8623, 94.5674, -74.2248, 32.6588
3.132, 5, 34.3175, 53.7476, -13.826, 94.5344, -74.2566, 32.6746
3.136, 5, 34.3088, 53.7426, -13.7895, 94.5014, -74.2884, 32.6906
3.14, 5, 34.3, 53.7375, -13.7529, 94.4684, -74.3202, 32.7065
3.143, 5, 34.2912, 53.7324, -13.7162, 94.4353, -74.352, 32.7226
3.148, 5, 34.2822, 53.7272, -13.6794, 94.4021, -74.3838, 32.7386
3.152, 5, 34.2732, 53.722, -13.6426, 94.369, -74.4156, 32.7546
3.156, 5, 34.2642, 53.7167, -13.6057, 94.3358, -74.4474, 32.7706
3.16, 5, 34.2551, 53.7115, -13.5688, 94.3027, -74.4793, 32.7867
3.163, 5, 34.246, 53.7062, -13.5319, 94.2696, -74.5111, 32.8026
3.168, 5, 34.2369, 53.7008, -13.495, 94.2364, -74.5429, 32.8186
3.172, 5, 34.2278, 53.6955, -13.458, 94.2033, -74.5748, 32.8346
3.176, 5, 34.2187, 53.6901, -13.4211, 94.1702, -74.6066, 32.8505
3.179, 5, 34.2095, 53.6847, -13.3841, 94.137, -74.6385, 32.8664
3.184, 5, 34.2004, 53.6793, -13.3471, 94.1039, -74.6703, 32.8823
3.188, 5, 34.1912, 53.6738, -13.31, 94.0708, -74.7022, 32.8981
3.192, 5, 34.182, 53.6684, -13.273, 94.0377, -74.734, 32.9139
3.196, 5, 34.1728, 53.6629, -13.2359, 94.0046, -74.7659, 32.9297
3.199, 5, 34.1636, 53.6574, -13.1988, 93.9716, -74.7978, 32.9455
3.204, 5, 34.1544, 53.6518, -13.1617, 93.9385, -74.8297, 32.9612
3.208, 5, 34.1452, 53.6463, -13.1246, 93.9054, -74.8616, 32.9769
3.212, 5, 34.136, 53.6407, -13.0874, 93.8724, -74.8935, 32.9926
3.216, 5, 34.1268, 53.6351, -13.0503, 93.8393, -74.9254, 33.0082
3.22, 5, 34.1175, 53.6295, -13.0131, 93.8063, -74.9573, 33.0239
3.224, 5, 34.1083, 53.6239, -12.9759, 93.7732, -74.9892, 33.0395
3.228, 5, 34.099, 53.6182, -12.9387, 93.7402, -75.0212, 33.055
3.232, 5, 34.0897, 53.6125, -12.9015, 93.7072, -75.0531, 33.0706
3.235, 5, 34.0805, 53.6068, -12.8642, 93.6742, -75.0851, 33.0861
3.24, 5, 34.0712, 53.6011, -12.827, 93.6412, -75.117, 33.1016
3.244, 5, 34.0619, 53.5953, -12.7897, 93.6082, -75.149, 33.117
3.248, 5, 34.0526, 53.5896, -12.7524, 93.5752, -75.1809, 33.1325
3.252, 5, 34.0433, 53.5838, -12.7151, 93.5422, -75.2129, 33.1479
3.255, 5, 34.034, 53.5779, -12.6778, 93.5093, -75.2449, 33.1632
3.26, 5, 34.0246, 53.5721, -12.6405, 93.4763, -75.2768, 33.1786
3.264, 5, 34.0153, 53.5662, -12.6031, 93.4434, -75.3088, 33.1939
3.268, 5, 34.0059, 53.5604, -12.5657, 93.4104, -75.3408, 33.2092
3.272, 5, 33.9966, 53.5545, -12.5283, 93.3775, -75.3728, 33.2245
3.276, 5, 33.9872, 53.5485, -12.4909, 93.3446, -75.4048, 33.2397
3.28, 5, 33.9778, 53.5426, -12.4535, 93.3116, -75.4368, 33.2549
3.284, 5, 33.9685, 53.5366, -12.4161, 93.2787, -75.4689, 33.2701
3.288, 5, 33.9591, 53.5306, -12.3786, 93.2458, -75.5009, 33.2852
3.291, 5, 33.9497, 53.5246, -12.3411, 93.2129, -75.5329, 33.3003
3.296, 5, 33.9403, 53.5186, -12.3036, 93.18, -75.565, 33.3154
3.3, 5, 33.9308, 53.5125, -12.2661, 93.1471, -75.597, 33.3305
3.304, 5, 33.9214, 53.5064, -12.2286, 93.1143, -75.6291, 33.3455
3.308, 5, 33.912, 53.5003, -12.1911, 93.0814, -75.6611, 33.3605
3.312, 5, 33.9025, 53.4942, -12.1535, 93.0485, -75.6932, 33.3755
3.316, 5, 33.8931, 53.4881, -12.1159, 93.0157, -75.7252, 33.3905
3.32, 5, 33.8836, 53.4819, -12.0784, 92.9829, -75.7573, 33.4054
3.324, 5, 33.8742, 53.4757, -12.0407, 92.95, -75.7894, 33.4203
3.328, 5, 33.8647, 53.4695, -12.0031, 92.9172, -75.8215, 33.4352
3.332, 5, 33.8552, 53.4633, -11.9655, 92.8844, -75.8536, 33.45
3.336, 5, 33.8457, 53.457, -11.9278, 92.8516, -75.8857, 33.4648
3.34, 5, 33.8362, 53.4508, -11.8902, 92.8188, -75.9178, 33.4796
3.344, 5, 33.8267, 53.4445, -11.8525, 92.786, -75.9499, 33.4943
3.347, 5, 33.8172, 53.4381, -11.8148, 92.7532, -75.982, 33.5091
3.352, 5, 33.8076, 53.4318, -11.7771, 92.7204, -76.0141, 33.5238
3.356, 5, 33.7981, 53.4254, -11.7393, 92.6876, -76.0463, 33.5384
3.36, 5, 33.7885, 53.419, -11.7016, 92.6549, -76.0784, 33.5531
3.364, 5, 33.779, 53.4126, -11.6638, 92.6221, -76.1106, 33.5677
3.368, 5, 33.7694, 53.4062, -11.6261, 92.5894, -76.1427, 33.5823
3.372, 5, 33.7598, 53.3998, -11.5883, 92.5566, -76.1749, 33.5968
3.376, 5, 33.7502, 53.3933, -11.5504, 92.5239, -76.207, 33.6113
3.38, 5, 33.7407, 53.3868, -11.5126, 92.4911, -76.2392, 33.6258
3.383, 5, 33.7311, 53.3803, -11.4748, 92.4584, -76.2714, 33.6403
3.388, 5, 33.7214, 53.3737, -11.4369, 92.4257, -76.3036, 33.6547
3.392, 5, 33.7118, 53.3672, -11.3991, 92.393, -76.3357, 33.6691
3.396, 5, 33.7022, 53.3606, -11.3612, 92.3603, -76.3679, 33.6835
3.4, 5, 33.6926, 53.354, -11.3233, 92.3276, -76.4001, 33.6978
3.403, 5, 33.6829, 53.3474, -11.2853, 92.2949, -76.4323, 33.7122
3.408, 5, 33.6733, 53.3407, -11.2474, 92.2623, -76.4645, 33.7265
3.412, 5, 33.6636, 53.334, -11.2095, 92.2296, -76.4968, 33.7407
3.416, 5, 33.6539, 53.3274, -11.1715, 92.1969, -76.529, 33.755
3.42, 5, 33.6443, 53.3206, -11.1335, 92.1643, -76.5612, 33.7692
3.424, 5, 33.6346, 53.3139, -11.0955, 92.1316, -76.5934, 33.7833
3.428, 5, 33.6249, 53.3071, -11.0575, 92.099, -76.6257, 33.7975
3.432, 5, 33.6152, 53.3004, -11.0195, 92.0664, -76.6579, 33.8116
3.436, 5, 33.6055, 53.2936, -10.9814, 92.0337, -76.6902, 33.8257
3.439, 5, 33.5957, 53.2867, -10.9434, 92.0011, -76.7224, 33.8397
3.444, 5, 33.586, 53.2799, -10.9053, 91.9685, -76.7547, 33.8538
3.448, 5, 33.5763, 53.273, -10.8672, 91.9359, -76.787, 33.8678
3.452, 5, 33.5665, 53.2661, -10.8291, 91.9033, -76.8193, 33.8817
3.456, 5, 33.5568, 53.2592, -10.791, 91.8707, -76.8515, 33.8957
3.46, 5, 33.547, 53.2523, -10.7529, 91.8381, -76.8838, 33.9096
3.464, 5, 33.5372, 53.2453, -10.7147, 91.8055, -76.9161, 33.9234
3.468, 5, 33.5274, 53.2383, -10.6766, 91.773, -76.9484, 33.9373
3.472, 5, 33.5176, 53.2313, -10.6384, 91.7404, -76.9807, 33.9511
3.476, 5, 33.5078, 53.2243, -10.6002, 91.7079, -77.013, 33.9649
3.48, 5, 33.498, 53.2173, -10.562, 91.6753, -77.0453, 33.9787
3.484, 5, 33.4882, 53.2102, -10.5238, 91.6428, -77.0777, 33.9924
3.488, 5, 33.4784, 53.2031, -10.4855, 91.6103, -77.11, 34.0061
3.492, 5, 33.4686, 53.196, -10.4473, 91.5777, -77.1423, 34.0198
3.495, 5, 33.4587, 53.1889, -10.409, 91.5452, -77.1747, 34.0334
3.5, 5, 33.4489, 53.1817, -10.3707, 91.5127, -77.207, 34.047
3.504, 5, 33.439, 53.1745, -10.3325, 91.4802, -77.2394, 34.0606
3.508, 5, 33.4291, 53.1673, -10.2941, 91.4477, -77.2717, 34.0742
3.512, 5, 33.4193, 53.1601, -10.2558, 91.4152, -77.3041, 34.0877
3.516, 5, 33.4094, 53.1529, -10.2175, 91.3827, -77.3365, 34.1012
3.52, 5, 33.3995, 53.1456, -10.1791, 91.3502, -77.3688, 34.1146
3.524, 5, 33.3896, 53.1383, -10.1408, 91.3178, -77.4012, 34.1281
3.528, 5, 33.3797, 53.131, -10.1024, 91.2853, -77.4336, 34.1415
3.531, 5, 33.3698, 53.1237, -10.064, 91.2528, -77.466, 34.1548
3.536, 5, 33.3598, 53.1163, -10.0256, 91.2204, -77.4984, 34.1682
3.54, 5, 33.3499, 53.109, -9.98715, 91.188, -77.5308, 34.1815
3.544, 5, 33.3399, 53.1016, -9.94871, 91.1555, -77.5632, 34.1948
3.548, 5, 33.33, 53.0941, -9.91026, 91.1231, -77.5956, 34.208
3.552, 5, 33.32, 53.0867, -9.87179, 91.0907, -77.6281, 34.2212
3.556, 5, 33.3101, 53.0792, -9.83331, 91.0582, -77.6605, 34.2344
3.56, 5, 33.3001, 53.0717, -9.79481, 91.0258, -77.6929, 34.2476
3.564, 5, 33.2901, 53.0642, -9.7563, 90.9934, -77.7253, 34.2607
3.568, 5, 33.2801, 53.0567, -9.71778, 90.961, -77.7578, 34.2738
3.572, 5, 33.2701, 53.0491, -9.67924, 90.9286, -77.7902, 34.2869
3.576, 5, 33.2601, 53.0416, -9.64069, 90.8962, -77.8227, 34.2999
3.58, 5, 33.2501, 53.034, -9.60212, 90.8639, -77.8552, 34.3129
3.584, 5, 33.24, 53.0263, -9.56354, 90.8315, -77.8876, 34.3259
3.587, 5, 33.23, 53.0187, -9.52494, 90.7991, -77.9201, 34.3389
3.592, 5, 33.2199, 53.011, -9.48633, 90.7668, -77.9526, 34.3518
3.596, 5, 33.2099, 53.0033, -9.44771, 90.7344, -77.9851, 34.3647
3.6, 5, 33.1998, 52.9956, -9.40907, 90.7021, -78.0175, 34.3775
3.604, 5, 33.1898, 52.9879, -9.37042, 90.6697, -78.05, 34.3903
3.608, 5, 33.1797, 52.9801, -9.33176, 90.6374, -78.0825, 34.4031
3.612, 5, 33.1696, 52.9724, -9.29308, 90.6051, -78.115, 34.4159
3.616, 5, 33.1595, 52.9646, -9.25439, 90.5727, -78.1475, 34.4286
3.62, 5, 33.1494, 52.9568, -9.21568, 90.5404, -78.1801, 34.4413
3.624, 5, 33.1393, 52.9489, -9.17696, 90.5081, -78.2126, 34.454
3.628, 5, 33.1291, 52.941, -9.13823, 90.4758, -78.2451, 34.4666
3.632, 5, 33.119, 52.9332, -9.09948, 90.4435, -78.2776, 34.4792
3.636, 5, 33.109, 52.9252, -9.06073, 90.4112, -78.3102, 34.4918
3.64, 5, 33.0991, 52.9173, -9.02199, 90.3789, -78.3427, 34.5044
3.644, 5, 33.0895, 52.9093, -8.98328, 90.3467, -78.3752, 34.5169
3.648, 5, 33.0803, 52.9013, -8.94468, 90.3145, -78.4077, 34.5293
3.652, 5, 33.0716, 52.8932, -8.90626, 90.2825, -78.44, 34.5417
3.656, 5, 33.0634, 52.885, -8.86817, 90.2507, -78.472, 34.554
3.66, 5, 33.0558, 52.8769, -8.83057, 90.2192, -78.5037, 34.5661
3.664, 5, 33.0486, 52.8689, -8.7937, 90.1884, -78.5348, 34.5779
3.668, 5, 33.0418, 52.861, -8.75781, 90.1583, -78.5651, 34.5894
3.672, 5, 33.0353, 52.8533, -8.72319, 90.1293, -78.5944, 34.6005
3.676, 5, 33.029, 52.8459, -8.69015, 90.1016, -78.6223, 34.6111
3.679, 5, 33.0229, 52.839, -8.65898, 90.0755, -78.6486, 34.6211
3.684, 5, 33.0171, 52.8326, -8.62997, 90.0512, -78.6731, 34.6303
3.688, 5, 33.0114, 52.8267, -8.60334, 90.029, -78.6956, 34.6388
3.692, 5, 33.006, 52.8216, -8.57928, 90.0089, -78.7158, 34.6464
3.696, 5, 33.0007, 52.817, -8.55791, 89.9912, -78.7337, 34.6531
3.7, 5, 32.9956, 52.8132, -8.53926, 89.9758, -78.7493, 34.6589
3.704, 5, 32.9907, 52.8101, -8.52331, 89.9627, -78.7626, 34.6639
