hehonglu123/ABB_Primitive_Study/execution/movec/curve_exe_v1500_fine.csv
timestamp, cmd_num, J1, J2, J3, J4, J5, J6
0, -1, 32.9446, 52.7398, -8.49419, 90.0915, -78.6833, 34.4926
0.003, -1, 32.9446, 52.7398, -8.49419, 90.0915, -78.6833, 34.4926
0.006, -1, 32.9446, 52.7398, -8.49419, 90.0915, -78.6833, 34.4926
0.008, -1, 32.9446, 52.7398, -8.49419, 90.0915, -78.6833, 34.4926
0.011, -1, 32.9446, 52.7398, -8.49419, 90.0915, -78.6833, 34.4926
0.016, -1, 32.9446, 52.7398, -8.49419, 90.0915, -78.6833, 34.4926
0.02, -1, 32.9446, 52.7398, -8.49419, 90.0915, -78.6833, 34.4926
0.024, -1, 32.9446, 52.7398, -8.49419, 90.0915, -78.6833, 34.4926
0.028, -1, 32.9446, 52.7398, -8.49419, 90.0915, -78.6833, 34.4926
0.032, -1, 32.9447, 52.7398, -8.49419, 90.0915, -78.6833, 34.4926
0.036, -1, 32.9447, 52.7397, -8.49419, 90.0915, -78.6833, 34.4926
0.04, -1, 32.9449, 52.7396, -8.49419, 90.0915, -78.6833, 34.4926
0.044, -1, 32.9453, 52.7392, -8.49421, 90.0915, -78.6833, 34.4926
0.048, -1, 32.9461, 52.7385, -8.49426, 90.0915, -78.6831, 34.4927
0.052, -1, 32.9474, 52.7371, -8.49437, 90.0917, -78.6826, 34.4928
0.056, -1, 32.9492, 52.7349, -8.4946, 90.0919, -78.6817, 34.4931
0.06, -1, 32.9516, 52.7318, -8.49501, 90.0924, -78.6798, 34.4938
0.064, -1, 32.9544, 52.7277, -8.4957, 90.0932, -78.6767, 34.4949
0.068, -1, 32.9578, 52.7227, -8.49678, 90.0946, -78.6717, 34.4966
0.072, -1, 32.9617, 52.7167, -8.4984, 90.0966, -78.6641, 34.4993
0.076, -1, 32.9661, 52.7097, -8.50073, 90.0995, -78.6532, 34.5031
0.08, -1, 32.9711, 52.7018, -8.50394, 90.1037, -78.6379, 34.5085
0.084, -1, 32.9767, 52.6929, -8.50823, 90.1092, -78.6175, 34.5157
0.088, -1, 32.983, 52.6832, -8.51381, 90.1164, -78.5907, 34.5251
0.092, -1, 32.9898, 52.6726, -8.52089, 90.1256, -78.5567, 34.537
0.096, -1, 32.9971, 52.6615, -8.52966, 90.1371, -78.5143, 34.5519
0.1, -1, 33.0046, 52.6498, -8.54028, 90.151, -78.4629, 34.57
0.104, -1, 33.0124, 52.6377, -8.55288, 90.1675, -78.4018, 34.5915
0.108, -1, 33.0205, 52.6252, -8.56751, 90.1868, -78.3306, 34.6165
0.112, -1, 33.0288, 52.6121, -8.58421, 90.2088, -78.2493, 34.645
0.116, -1, 33.0376, 52.5985, -8.60294, 90.2336, -78.158, 34.6771
0.12, -1, 33.0467, 52.5842, -8.62361, 90.2609, -78.0572, 34.7125
0.124, -1, 33.0563, 52.5693, -8.6461, 90.2906, -77.9475, 34.7511
0.128, -1, 33.0663, 52.5539, -8.67024, 90.3226, -77.8297, 34.7924
0.131, -1, 33.0765, 52.5379, -8.69587, 90.3565, -77.7047, 34.8364
0.136, -1, 33.0871, 52.5214, -8.72276, 90.392, -77.5735, 34.8825
0.139, -1, 33.0981, 52.5041, -8.75072, 90.429, -77.4372, 34.9304
0.144, -1, 33.1095, 52.4858, -8.77954, 90.4671, -77.2967, 34.9797
0.148, -1, 33.1216, 52.4664, -8.80901, 90.506, -77.1531, 35.0302
0.152, -1, 33.1344, 52.4458, -8.83897, 90.5456, -77.0071, 35.0815
0.156, -1, 33.1481, 52.4239, -8.86926, 90.5855, -76.8596, 35.1333
0.16, -1, 33.1624, 52.4009, -8.89978, 90.6258, -76.7111, 35.1855
0.164, -1, 33.1774, 52.3772, -8.93044, 90.6662, -76.562, 35.2379
0.168, -1, 33.1929, 52.3529, -8.96117, 90.7067, -76.4125, 35.2904
0.172, -1, 33.2086, 52.3282, -8.99193, 90.7472, -76.2629, 35.343
0.176, -1, 33.2246, 52.3033, -9.0227, 90.7877, -76.1133, 35.3955
0.18, -1, 33.2406, 52.2782, -9.05345, 90.8282, -75.9638, 35.4481
0.184, -1, 33.2568, 52.2531, -9.08416, 90.8687, -75.8145, 35.5005
0.188, -1, 33.273, 52.2279, -9.11484, 90.9091, -75.6653, 35.5529
0.192, -1, 33.2892, 52.2027, -9.14548, 90.9495, -75.5164, 35.6053
0.196, -1, 33.3054, 52.1775, -9.17607, 90.9897, -75.3677, 35.6575
0.2, -1, 33.3216, 52.1524, -9.2066, 91.03, -75.2192, 35.7097
0.204, -1, 33.3378, 52.1272, -9.23709, 91.0701, -75.071, 35.7617
0.208, -1, 33.354, 52.1021, -9.26752, 91.1102, -74.9231, 35.8137
0.212, -1, 33.3702, 52.077, -9.29789, 91.1502, -74.7754, 35.8656
0.216, -1, 33.3863, 52.052, -9.32821, 91.1901, -74.628, 35.9174
0.22, -1, 33.4024, 52.027, -9.35848, 91.23, -74.4809, 35.9691
0.224, -1, 33.4184, 52.0021, -9.38869, 91.2698, -74.334, 36.0207
0.228, -1, 33.4345, 51.9772, -9.41885, 91.3095, -74.1874, 36.0722
0.232, -1, 33.4505, 51.9523, -9.44895, 91.3492, -74.0411, 36.1236
0.236, -1, 33.4665, 51.9275, -9.479, 91.3887, -73.895, 36.1749
0.24, -1, 33.4825, 51.9028, -9.509, 91.4282, -73.7492, 36.2262
0.244, -1, 33.4984, 51.878, -9.53894, 91.4677, -73.6036, 36.2773
0.248, -1, 33.5143, 51.8533, -9.56883, 91.507, -73.4583, 36.3284
0.252, -1, 33.5302, 51.8287, -9.59867, 91.5463, -73.3133, 36.3793
0.256, -1, 33.546, 51.8041, -9.62845, 91.5855, -73.1685, 36.4302
0.26, -1, 33.5618, 51.7796, -9.65818, 91.6247, -73.024, 36.481
0.264, -1, 33.5776, 51.7551, -9.68785, 91.6638, -72.8797, 36.5317
0.268, -1, 33.5934, 51.7306, -9.71748, 91.7028, -72.7357, 36.5823
0.272, -1, 33.6091, 51.7062, -9.74705, 91.7417, -72.5919, 36.6328
0.276, -1, 33.6248, 51.6818, -9.77657, 91.7806, -72.4484, 36.6832
0.28, -1, 33.6405, 51.6575, -9.80604, 91.8194, -72.3051, 36.7335
0.284, -1, 33.6561, 51.6332, -9.83546, 91.8582, -72.1621, 36.7838
0.288, -1, 33.6718, 51.6089, -9.86483, 91.8969, -72.0193, 36.8339
0.292, -1, 33.6874, 51.5847, -9.89415, 91.9355, -71.8768, 36.884
0.296, -1, 33.7029, 51.5605, -9.92341, 91.974, -71.7345, 36.934
0.3, -1, 33.7185, 51.5364, -9.95263, 92.0125, -71.5925, 36.9839
0.304, -1, 33.734, 51.5123, -9.9818, 92.0509, -71.4507, 37.0337
0.308, -1, 33.7495, 51.4883, -10.0109, 92.0893, -71.3092, 37.0835
0.312, -1, 33.765, 51.4643, -10.04, 92.1275, -71.1679, 37.1331
0.316, -1, 33.7804, 51.4403, -10.069, 92.1657, -71.0268, 37.1827
0.32, -1, 33.7958, 51.4164, -10.098, 92.2039, -70.886, 37.2321
0.324, -1, 33.8112, 51.3925, -10.1269, 92.242, -70.7454, 37.2815
0.328, -1, 33.8266, 51.3687, -10.1558, 92.28, -70.605, 37.3309
0.332, -1, 33.8419, 51.3449, -10.1846, 92.318, -70.4649, 37.3801
0.336, -1, 33.8572, 51.3211, -10.2134, 92.3559, -70.325, 37.4292
0.34, -1, 33.8725, 51.2974, -10.2421, 92.3937, -70.1854, 37.4783
0.344, -1, 33.8877, 51.2737, -10.2708, 92.4315, -70.046, 37.5273
0.348, -1, 33.903, 51.2501, -10.2994, 92.4692, -69.9068, 37.5762
0.352, -1, 33.9182, 51.2265, -10.328, 92.5068, -69.7678, 37.625
0.356, -1, 33.9334, 51.2029, -10.3565, 92.5444, -69.6291, 37.6737
0.36, -1, 33.9485, 51.1794, -10.385, 92.5819, -69.4906, 37.7224
0.364, -1, 33.9636, 51.1559, -10.4134, 92.6194, -69.3523, 37.771
0.368, -1, 33.9788, 51.1325, -10.4418, 92.6568, -69.2143, 37.8195
0.372, -1, 33.9938, 51.109, -10.4702, 92.6941, -69.0764, 37.8679
0.376, -1, 34.0089, 51.0857, -10.4985, 92.7314, -68.9389, 37.9163
0.38, -1, 34.0239, 51.0623, -10.5268, 92.7686, -68.8015, 37.9645
0.384, -1, 34.0389, 51.039, -10.555, 92.8058, -68.6643, 38.0127
0.388, -1, 34.0539, 51.0158, -10.5831, 92.8429, -68.5274, 38.0608
0.392, -1, 34.0689, 50.9926, -10.6113, 92.8799, -68.3907, 38.1089
0.396, -1, 34.0838, 50.9694, -10.6393, 92.9169, -68.2542, 38.1568
0.4, -1, 34.0987, 50.9462, -10.6674, 92.9538, -68.1179, 38.2047
0.404, -1, 34.1136, 50.9231, -10.6954, 92.9907, -67.9818, 38.2525
0.408, -1, 34.1285, 50.9, -10.7233, 93.0275, -67.846, 38.3002
0.412, -1, 34.1433, 50.877, -10.7512, 93.0642, -67.7104, 38.3479
0.416, -1, 34.1582, 50.854, -10.779, 93.1009, -67.575, 38.3955
0.42, -1, 34.173, 50.831, -10.8069, 93.1375, -67.4398, 38.443
0.424, -1, 34.1877, 50.8081, -10.8346, 93.1741, -67.3048, 38.4904
0.428, -1, 34.2025, 50.7852, -10.8624, 93.2106, -67.17, 38.5377
0.432, -1, 34.2172, 50.7623, -10.89, 93.2471, -67.0354, 38.585
0.436, -1, 34.2319, 50.7395, -10.9177, 93.2835, -66.901, 38.6322
0.44, -1, 34.2466, 50.7167, -10.9453, 93.3198, -66.7669, 38.6794
0.444, -1, 34.2613, 50.694, -10.9728, 93.3561, -66.6329, 38.7264
0.448, -1, 34.2759, 50.6713, -11.0003, 93.3923, -66.4992, 38.7734
0.452, -1, 34.2905, 50.6486, -11.0278, 93.4285, -66.3656, 38.8203
0.456, -1, 34.3051, 50.6259, -11.0552, 93.4647, -66.2323, 38.8672
0.46, -1, 34.3197, 50.6033, -11.0826, 93.5007, -66.0992, 38.914
0.464, -1, 34.3342, 50.5807, -11.11, 93.5367, -65.9662, 38.9607
0.468, -1, 34.3487, 50.5582, -11.1373, 93.5727, -65.8335, 39.0073
0.472, -1, 34.3632, 50.5357, -11.1645, 93.6086, -65.701, 39.0539
0.476, -1, 34.3777, 50.5132, -11.1918, 93.6445, -65.5686, 39.1004
0.48, -1, 34.3922, 50.4907, -11.2189, 93.6803, -65.4365, 39.1468
0.484, -1, 34.4066, 50.4683, -11.2461, 93.716, -65.3045, 39.1932
0.488, -1, 34.421, 50.446, -11.2732, 93.7517, -65.1728, 39.2394
0.492, -1, 34.4354, 50.4236, -11.3002, 93.7873, -65.0412, 39.2857
0.496, -1, 34.4498, 50.4013, -11.3273, 93.8229, -64.9099, 39.3318
0.5, -1, 34.4642, 50.379, -11.3542, 93.8584, -64.7787, 39.3779
0.504, -1, 34.4785, 50.3568, -11.3812, 93.8939, -64.6477, 39.4239
0.508, -1, 34.4928, 50.3346, -11.4081, 93.9294, -64.517, 39.4699
0.512, -1, 34.5071, 50.3124, -11.4349, 93.9647, -64.3864, 39.5158
0.516, -1, 34.5214, 50.2902, -11.4618, 94.0001, -64.256, 39.5616
0.52, -1, 34.5356, 50.2681, -11.4886, 94.0353, -64.1257, 39.6073
0.524, -1, 34.5499, 50.246, -11.5153, 94.0706, -63.9957, 39.653
0.528, -1, 34.5641, 50.224, -11.542, 94.1057, -63.8659, 39.6986
0.532, -1, 34.5783, 50.202, -11.5687, 94.1409, -63.7362, 39.7442
0.536, -1, 34.5924, 50.18, -11.5953, 94.1759, -63.6068, 39.7897
0.54, -1, 34.6066, 50.158, -11.6219, 94.211, -63.4775, 39.8351
0.544, -1, 34.6207, 50.1361, -11.6485, 94.2459, -63.3484, 39.8804
0.548, -1, 34.6348, 50.1142, -11.675, 94.2809, -63.2195, 39.9257
0.552, -1, 34.6489, 50.0923, -11.7015, 94.3157, -63.0908, 39.971
0.556, -1, 34.663, 50.0705, -11.7279, 94.3506, -62.9622, 40.0161
0.56, -1, 34.677, 50.0487, -11.7543, 94.3853, -62.8339, 40.0612
0.564, -1, 34.691, 50.0269, -11.7807, 94.4201, -62.7057, 40.1063
0.568, -1, 34.705, 50.0052, -11.807, 94.4547, -62.5777, 40.1512
0.572, -1, 34.719, 49.9834, -11.8333, 94.4894, -62.4498, 40.1961
0.576, -1, 34.733, 49.9618, -11.8596, 94.524, -62.3222, 40.241
0.58, -1, 34.7469, 49.9401, -11.8858, 94.5585, -62.1947, 40.2858
0.584, -1, 34.7609, 49.9185, -11.912, 94.593, -62.0674, 40.3305
0.588, -1, 34.7748, 49.8969, -11.9381, 94.6274, -61.9403, 40.3752
0.592, -1, 34.7887, 49.8753, -11.9642, 94.6618, -61.8133, 40.4198
0.596, -1, 34.8025, 49.8538, -11.9903, 94.6961, -61.6866, 40.4643
0.6, -1, 34.8164, 49.8323, -12.0163, 94.7304, -61.56, 40.5088
0.604, -1, 34.8302, 49.8108, -12.0423, 94.7647, -61.4336, 40.5532
0.608, -1, 34.844, 49.7894, -12.0683, 94.7989, -61.3073, 40.5976
0.612, -1, 34.8578, 49.768, -12.0942, 94.8331, -61.1812, 40.6419
0.616, -1, 34.8716, 49.7466, -12.1201, 94.8672, -61.0553, 40.6861
0.62, -1, 34.8854, 49.7252, -12.146, 94.9012, -60.9296, 40.7303
0.624, -1, 34.8991, 49.7039, -12.1718, 94.9352, -60.804, 40.7744
0.628, -1, 34.9128, 49.6826, -12.1976, 94.9692, -60.6786, 40.8185
0.632, -1, 34.9265, 49.6613, -12.2234, 95.0032, -60.5534, 40.8625
0.636, -1, 34.9402, 49.6401, -12.2491, 95.037, -60.4283, 40.9064
0.64, -1, 34.9539, 49.6189, -12.2748, 95.0709, -60.3034, 40.9503
0.644, -1, 34.9675, 49.5977, -12.3005, 95.1047, -60.1787, 40.9941
0.648, -1, 34.9812, 49.5765, -12.3261, 95.1384, -60.0541, 41.0379
0.652, -1, 34.9948, 49.5554, -12.3517, 95.1721, -59.9297, 41.0816
0.656, -1, 35.0084, 49.5343, -12.3772, 95.2058, -59.8055, 41.1252
0.66, -1, 35.022, 49.5132, -12.4028, 95.2394, -59.6814, 41.1688
0.664, -1, 35.0355, 49.4922, -12.4283, 95.273, -59.5575, 41.2124
0.668, -1, 35.0491, 49.4712, -12.4537, 95.3065, -59.4337, 41.2558
0.672, -1, 35.0626, 49.4502, -12.4791, 95.34, -59.3101, 41.2993
0.676, -1, 35.0761, 49.4292, -12.5045, 95.3734, -59.1867, 41.3426
0.68, -1, 35.0896, 49.4083, -12.5299, 95.4068, -59.0634, 41.3859
0.684, -1, 35.1031, 49.3874, -12.5552, 95.4401, -58.9403, 41.4292
0.688, -1, 35.1165, 49.3665, -12.5805, 95.4735, -58.8174, 41.4724
0.692, -1, 35.1299, 49.3456, -12.6058, 95.5067, -58.6946, 41.5155
0.696, -1, 35.1434, 49.3248, -12.631, 95.5399, -58.5719, 41.5586
0.7, -1, 35.1568, 49.304, -12.6562, 95.5731, -58.4495, 41.6017
0.704, -1, 35.1701, 49.2832, -12.6813, 95.6063, -58.3271, 41.6446
0.708, -1, 35.1835, 49.2625, -12.7065, 95.6394, -58.205, 41.6876
0.712, -1, 35.1969, 49.2417, -12.7316, 95.6724, -58.083, 41.7304
0.716, -1, 35.2102, 49.221, -12.7566, 95.7054, -57.9611, 41.7732
0.72, -1, 35.2235, 49.2004, -12.7817, 95.7384, -57.8394, 41.816
0.724, -1, 35.2368, 49.1797, -12.8067, 95.7713, -57.7178, 41.8587
0.728, -1, 35.2501, 49.1591, -12.8316, 95.8042, -57.5964, 41.9014
0.732, -1, 35.2634, 49.1385, -12.8566, 95.8371, -57.4752, 41.944
0.736, -1, 35.2766, 49.1179, -12.8815, 95.8699, -57.3541, 41.9865
0.74, -1, 35.2898, 49.0974, -12.9064, 95.9026, -57.2332, 42.029
0.744, -1, 35.3031, 49.0769, -12.9312, 95.9354, -57.1124, 42.0714
0.748, -1, 35.3163, 49.0564, -12.956, 95.968, -56.9917, 42.1138
0.752, -1, 35.3294, 49.0359, -12.9808, 96.0007, -56.8712, 42.1562
0.756, -1, 35.3426, 49.0155, -13.0056, 96.0333, -56.7509, 42.1984
0.76, -1, 35.3558, 48.9951, -13.0303, 96.0659, -56.6307, 42.2407
0.764, -1, 35.3689, 48.9747, -13.055, 96.0984, -56.5107, 42.2828
0.768, -1, 35.382, 48.9543, -13.0797, 96.1309, -56.3907, 42.325
0.772, -1, 35.3951, 48.934, -13.1043, 96.1633, -56.271, 42.3671
0.776, -1, 35.4082, 48.9137, -13.1289, 96.1957, -56.1514, 42.4091
0.78, -1, 35.4213, 48.8934, -13.1535, 96.2281, -56.0319, 42.451
0.784, -1, 35.4343, 48.8731, -13.178, 96.2604, -55.9126, 42.493
0.788, -1, 35.4474, 48.8528, -13.2025, 96.2927, -55.7934, 42.5348
0.792, -1, 35.4604, 48.8326, -13.227, 96.3249, -55.6744, 42.5767
0.796, -1, 35.4734, 48.8124, -13.2515, 96.3571, -55.5555, 42.6184
0.8, -1, 35.4864, 48.7923, -13.2759, 96.3893, -55.4367, 42.6602
0.804, -1, 35.4994, 48.7721, -13.3003, 96.4214, -55.3181, 42.7018
0.808, -1, 35.5124, 48.752, -13.3247, 96.4535, -55.1997, 42.7435
0.812, -1, 35.5253, 48.7319, -13.349, 96.4856, -55.0813, 42.785
0.816, -1, 35.5382, 48.7118, -13.3733, 96.5176, -54.9631, 42.8266
0.82, -1, 35.5512, 48.6918, -13.3976, 96.5496, -54.8451, 42.868
0.824, -1, 35.5641, 48.6717, -13.4219, 96.5816, -54.7272, 42.9095
0.828, -1, 35.577, 48.6517, -13.4461, 96.6134, -54.6094, 42.9508
0.832, -1, 35.5898, 48.6318, -13.4703, 96.6453, -54.4918, 42.9922
0.836, -1, 35.6027, 48.6118, -13.4944, 96.6772, -54.3743, 43.0335
0.84, -1, 35.6155, 48.5919, -13.5186, 96.709, -54.2569, 43.0747
0.844, -1, 35.6284, 48.5719, -13.5427, 96.7407, -54.1397, 43.1159
0.848, -1, 35.6412, 48.5521, -13.5668, 96.7724, -54.0226, 43.157
0.852, -1, 35.6539, 48.5322, -13.5909, 96.8041, -53.9056, 43.1981
0.856, -1, 35.6666, 48.5125, -13.6149, 96.8358, -53.7888, 43.2392
0.86, -1, 35.6791, 48.4928, -13.6389, 96.8674, -53.6721, 43.2802
0.864, -1, 35.6914, 48.4734, -13.6628, 96.8989, -53.5556, 43.3211
0.868, -1, 35.7035, 48.4543, -13.6867, 96.9304, -53.4394, 43.3619
0.872, -1, 35.7152, 48.4354, -13.7106, 96.9618, -53.3236, 43.4026
0.876, -1, 35.7267, 48.4169, -13.7343, 96.993, -53.2083, 43.4431
0.88, -1, 35.7378, 48.3988, -13.7579, 97.0241, -53.0937, 43.4834
0.884, -1, 35.7487, 48.3811, -13.7812, 97.0549, -52.9801, 43.5233
0.888, -1, 35.7593, 48.3638, -13.8043, 97.0853, -52.8677, 43.5628
0.892, -1, 35.7696, 48.347, -13.8271, 97.1153, -52.7571, 43.6017
0.896, -1, 35.7796, 48.3308, -13.8494, 97.1448, -52.6484, 43.6399
0.9, -1, 35.7891, 48.3154, -13.8713, 97.1735, -52.5423, 43.6772
0.904, -1, 35.7981, 48.3007, -13.8924, 97.2015, -52.4393, 43.7134
0.908, -1, 35.8067, 48.2868, -13.9129, 97.2284, -52.3399, 43.7484
0.912, -1, 35.8148, 48.2737, -13.9324, 97.2542, -52.2448, 43.7818
0.916, -1, 35.8225, 48.2613, -13.951, 97.2786, -52.1546, 43.8135
0.92, -1, 35.8299, 48.2495, -13.9684, 97.3016, -52.07, 43.8433
0.924, -1, 35.8369, 48.2384, -13.9846, 97.3229, -51.9913, 43.871
0.928, -1, 35.8436, 48.2277, -13.9994, 97.3424, -51.9192, 43.8963
0.932, -1, 35.8501, 48.2175, -14.0129, 97.3601, -51.8539, 43.9192
0.936, -1, 35.8564, 48.2078, -14.0248, 97.3759, -51.7957, 43.9397
0.94, -1, 35.8623, 48.1986, -14.0354, 97.3898, -51.7445, 43.9577
0.944, -1, 35.8681, 48.1898, -14.0445, 97.4018, -51.7003, 43.9732
0.948, -1, 35.8735, 48.1815, -14.0522, 97.4119, -51.6627, 43.9864
0.952, -1, 35.8787, 48.1738, -14.0587, 97.4204, -51.6314, 43.9974
0.956, -1, 35.8837, 48.1666, -14.0639, 97.4273, -51.6059, 44.0063
0.96, -1, 35.8884, 48.16, -14.0681, 97.4328, -51.5855, 44.0135
0.964, -1, 35.8928, 48.1539, -14.0714, 97.4371, -51.5697, 44.019
0.968, -1, 35.897, 48.1485, -14.0739, 97.4403, -51.5576, 44.0232
0.972, -1, 35.9008, 48.1437, -14.0757, 97.4427, -51.5487, 44.0263
0.976, -1, 35.9042, 48.1397, -14.077, 97.4444, -51.5423, 44.0285
0.98, 2, 35.9071, 48.1364, -14.078, 97.4456, -51.5377, 44.0301
0.984, 2, 35.9094, 48.1339, -14.0786, 97.4465, -51.5346, 44.0312
0.988, 2, 35.9112, 48.132, -14.0791, 97.4471, -51.5324, 44.0319
0.992, 2, 35.9124, 48.1306, -14.0794, 97.4475, -51.5309, 44.0325
0.996, 2, 35.9133, 48.1297, -14.0796, 97.4477, -51.5299, 44.0328
1, 2, 35.9139, 48.1291, -14.0797, 97.4479, -51.5293, 44.033
1.004, 2, 35.9143, 48.1287, -14.0798, 97.448, -51.5288, 44.0332
1.008, 2, 35.9146, 48.1284, -14.0799, 97.4481, -51.5285, 44.0333
1.012, 2, 35.9147, 48.1282, -14.0799, 97.4482, -51.5283, 44.0334
1.016, 2, 35.9149, 48.128, -14.08, 97.4482, -51.5281, 44.0334
1.02, 2, 35.915, 48.128, -14.08, 97.4482, -51.528, 44.0335
1.024, 2, 35.915, 48.1279, -14.08, 97.4482, -51.528, 44.0335
1.027, 2, 35.9151, 48.1279, -14.08, 97.4483, -51.5279, 44.0335
1.032, 2, 35.9151, 48.1278, -14.08, 97.4483, -51.5279, 44.0335
1.036, 2, 35.9151, 48.1278, -14.08, 97.4483, -51.5279, 44.0335
1.04, 2, 35.9151, 48.1278, -14.08, 97.4483, -51.5279, 44.0335
1.044, 2, 35.9151, 48.1278, -14.08, 97.4483, -51.5279, 44.0335
1.048, 2, 35.9151, 48.1278, -14.08, 97.4483, -51.5279, 44.0335
1.052, 2, 35.9151, 48.1278, -14.08, 97.4483, -51.5279, 44.0335
1.055, 2, 35.9151, 48.1278, -14.08, 97.4483, -51.5278, 44.0335
1.06, 2, 35.9151, 48.1278, -14.08, 97.4483, -51.5278, 44.0335
1.064, 2, 35.9151, 48.1278, -14.08, 97.4483, -51.5278, 44.0335
1.068, 2, 35.9151, 48.1278, -14.08, 97.4483, -51.5278, 44.0335
1.072, 2, 35.9151, 48.1278, -14.08, 97.4483, -51.5278, 44.0335
1.076, 2, 35.9151, 48.1278, -14.08, 97.4483, -51.5278, 44.0335
1.08, 2, 35.9151, 48.1278, -14.08, 97.4483, -51.5278, 44.0335
1.084, 2, 35.9151, 48.1278, -14.08, 97.4483, -51.5278, 44.0335
1.088, 2, 35.9151, 48.1278, -14.08, 97.4483, -51.5278, 44.0335
1.091, 2, 35.9151, 48.1278, -14.08, 97.4483, -51.5278, 44.0335
1.096, 2, 35.9151, 48.1278, -14.08, 97.4483, -51.5278, 44.0335
1.1, 2, 35.9151, 48.1278, -14.08, 97.4483, -51.5278, 44.0335
1.104, 2, 35.9151, 48.1278, -14.08, 97.4483, -51.5278, 44.0335
1.108, 2, 35.9151, 48.1278, -14.08, 97.4483, -51.5278, 44.0335
1.112, 2, 35.9151, 48.1278, -14.08, 97.4483, -51.5278, 44.0335
1.116, 2, 35.9151, 48.1278, -14.08, 97.4483, -51.5278, 44.0335
1.119, 2, 35.9151, 48.1278, -14.08, 97.4483, -51.5278, 44.0335
1.124, 2, 35.9151, 48.1278, -14.08, 97.4483, -51.5278, 44.0335
1.128, 2, 35.9151, 48.1278, -14.08, 97.4483, -51.5278, 44.0335
1.132, 2, 35.9151, 48.1278, -14.08, 97.4483, -51.5278, 44.0335
1.136, 2, 35.9151, 48.1278, -14.08, 97.4483, -51.5278, 44.0335
1.14, 2, 35.9151, 48.1278, -14.08, 97.4483, -51.5278, 44.0335
1.144, 2, 35.9151, 48.1278, -14.08, 97.4483, -51.5278, 44.0335
1.147, 2, 35.9151, 48.1278, -14.08, 97.4483, -51.5278, 44.0335
1.152, 2, 35.9151, 48.1278, -14.08, 97.4483, -51.5278, 44.0335
1.156, 2, 35.9151, 48.1278, -14.08, 97.4483, -51.5278, 44.0335
1.16, 2, 35.9151, 48.1278, -14.08, 97.4483, -51.5278, 44.0335
1.164, 2, 35.9151, 48.1278, -14.08, 97.4483, -51.5278, 44.0335
1.168, 2, 35.9151, 48.1278, -14.08, 97.4483, -51.5278, 44.0335
1.172, 2, 35.9151, 48.1278, -14.08, 97.4483, -51.5278, 44.0335
1.175, 2, 35.9151, 48.1278, -14.08, 97.4483, -51.5278, 44.0335
1.18, 2, 35.9151, 48.1278, -14.08, 97.4483, -51.5278, 44.0335
1.184, 2, 35.9151, 48.1278, -14.08, 97.4483, -51.5278, 44.0335
1.188, 2, 35.9151, 48.1278, -14.08, 97.4483, -51.5278, 44.0335
1.192, 2, 35.9151, 48.1278, -14.08, 97.4483, -51.5278, 44.0335
1.196, 2, 35.9151, 48.1278, -14.08, 97.4483, -51.5278, 44.0335
1.2, 2, 35.9151, 48.1278, -14.08, 97.4483, -51.5278, 44.0335
1.204, 2, 35.9151, 48.1278, -14.08, 97.4483, -51.5278, 44.0335
1.208, 2, 35.9151, 48.1278, -14.08, 97.4483, -51.5278, 44.0335
1.212, 2, 35.9151, 48.1278, -14.08, 97.4483, -51.5278, 44.0335
1.216, 2, 35.9151, 48.1278, -14.08, 97.4483, -51.5278, 44.0335
1.22, 2, 35.9151, 48.1278, -14.08, 97.4483, -51.5278, 44.0335
1.224, 2, 35.9151, 48.1278, -14.08, 97.4483, -51.5278, 44.0335
1.228, 2, 35.9151, 48.1278, -14.08, 97.4483, -51.5278, 44.0335
1.232, 2, 35.9151, 48.1278, -14.08, 97.4483, -51.5278, 44.0335
1.236, 2, 35.9151, 48.1278, -14.08, 97.4483, -51.5278, 44.0335
1.24, 2, 35.9151, 48.1278, -14.08, 97.4483, -51.5278, 44.0335
1.244, 2, 35.9151, 48.1278, -14.08, 97.4483, -51.5278, 44.0335
1.248, 2, 35.9151, 48.1278, -14.08, 97.4483, -51.5278, 44.0335
1.252, 2, 35.9151, 48.1278, -14.08, 97.4483, -51.5278, 44.0335
1.256, 2, 35.9151, 48.1278, -14.08, 97.4483, -51.5278, 44.0335
1.26, 2, 35.9151, 48.1278, -14.08, 97.4483, -51.5278, 44.0335
1.264, 2, 35.9151, 48.1278, -14.08, 97.4483, -51.5278, 44.0335
1.267, 2, 35.9151, 48.1278, -14.08, 97.4483, -51.5278, 44.0335
1.272, 2, 35.9151, 48.1278, -14.08, 97.4483, -51.5278, 44.0335
1.276, 2, 35.9151, 48.1278, -14.08, 97.4483, -51.5278, 44.0335
1.28, 2, 35.9151, 48.1278, -14.08, 97.4483, -51.5278, 44.0335
1.284, 2, 35.9151, 48.1278, -14.08, 97.4483, -51.5278, 44.0335
1.288, 2, 35.9151, 48.1278, -14.08, 97.4483, -51.5278, 44.0335
1.292, 2, 35.9151, 48.1278, -14.08, 97.4483, -51.5278, 44.0335
1.295, 2, 35.9151, 48.1278, -14.08, 97.4483, -51.5278, 44.0335
1.3, 2, 35.9151, 48.1278, -14.08, 97.4483, -51.5278, 44.0335
1.304, 2, 35.9151, 48.1278, -14.08, 97.4483, -51.5278, 44.0335
1.308, 2, 35.9151, 48.1278, -14.08, 97.4483, -51.5278, 44.0335
1.312, 2, 35.9151, 48.1278, -14.08, 97.4483, -51.5278, 44.0335
1.316, 2, 35.9151, 48.1278, -14.08, 97.4483, -51.5278, 44.0335
1.32, 2, 35.9151, 48.1278, -14.08, 97.4483, -51.5278, 44.0335
1.324, 2, 35.9151, 48.1278, -14.08, 97.4483, -51.5278, 44.0335
1.328, 2, 35.9151, 48.1278, -14.08, 97.4483, -51.5278, 44.0335
1.332, 2, 35.9151, 48.1278, -14.08, 97.4483, -51.5278, 44.0335
1.336, 2, 35.9151, 48.1278, -14.08, 97.4483, -51.5278, 44.0335
1.34, 2, 35.9151, 48.1278, -14.08, 97.4483, -51.5278, 44.0335
1.344, 2, 35.9151, 48.1278, -14.08, 97.4483, -51.5278, 44.0335
1.348, 2, 35.9151, 48.1278, -14.08, 97.4483, -51.5278, 44.0335
1.352, 2, 35.9151, 48.1278, -14.08, 97.4483, -51.5278, 44.0335
1.356, 2, 35.9151, 48.1278, -14.08, 97.4483, -51.5278, 44.0335
1.36, 2, 35.9151, 48.1278, -14.08, 97.4483, -51.5278, 44.0335
1.364, 2, 35.9151, 48.1278, -14.08, 97.4483, -51.5278, 44.0335
1.368, 2, 35.9151, 48.1278, -14.08, 97.4483, -51.5278, 44.0335
1.372, 2, 35.9151, 48.1278, -14.08, 97.4483, -51.5278, 44.0335
1.376, 2, 35.9151, 48.1278, -14.08, 97.4483, -51.5278, 44.0335
1.38, 2, 35.9151, 48.1278, -14.08, 97.4483, -51.5278, 44.0335
1.384, 2, 35.9151, 48.1278, -14.08, 97.4483, -51.5278, 44.0335
1.388, 2, 35.9151, 48.1278, -14.08, 97.4483, -51.5278, 44.0335
1.392, 2, 35.9151, 48.1278, -14.08, 97.4483, -51.5278, 44.0335
1.396, 2, 35.9151, 48.1278, -14.08, 97.4483, -51.5278, 44.0335
1.4, 2, 35.9151, 48.1278, -14.08, 97.4483, -51.5278, 44.0335
1.404, 2, 35.9151, 48.1278, -14.08, 97.4483, -51.5278, 44.0335
1.408, 2, 35.9151, 48.1278, -14.08, 97.4483, -51.5278, 44.0335
1.412, 2, 35.9151, 48.1278, -14.08, 97.4483, -51.5278, 44.0335
1.416, 2, 35.9151, 48.1278, -14.08, 97.4483, -51.5278, 44.0335
1.42, 2, 35.9151, 48.1278, -14.08, 97.4483, -51.5278, 44.0335
1.424, 2, 35.9151, 48.1278, -14.08, 97.4483, -51.5278, 44.0335
1.428, 2, 35.9151, 48.1278, -14.08, 97.4483, -51.5278, 44.0335
1.432, 2, 35.9151, 48.1278, -14.08, 97.4483, -51.5278, 44.0335
1.436, 2, 35.9151, 48.1278, -14.08, 97.4483, -51.5278, 44.0335
1.44, 2, 35.9151, 48.1278, -14.08, 97.4483, -51.5278, 44.0335
1.444, 2, 35.9151, 48.1278, -14.08, 97.4483, -51.5278, 44.0335
1.448, 2, 35.9151, 48.1278, -14.08, 97.4483, -51.5278, 44.0335
1.452, 2, 35.9151, 48.1278, -14.08, 97.4483, -51.5278, 44.0335
1.456, 2, 35.9151, 48.1278, -14.08, 97.4483, -51.5278, 44.0335
1.46, 2, 35.9151, 48.1278, -14.08, 97.4483, -51.5278, 44.0335
1.464, 2, 35.9151, 48.1278, -14.08, 97.4483, -51.5278, 44.0335
1.468, 2, 35.9151, 48.1278, -14.08, 97.4483, -51.5278, 44.0335
1.472, 2, 35.9151, 48.1278, -14.08, 97.4483, -51.5278, 44.0335
1.476, 2, 35.9151, 48.1278, -14.08, 97.4483, -51.5278, 44.0335
1.48, 2, 35.9151, 48.1278, -14.08, 97.4483, -51.5278, 44.0335
1.484, 2, 35.9151, 48.1278, -14.08, 97.4483, -51.5278, 44.0335
1.488, 2, 35.9151, 48.1278, -14.08, 97.4483, -51.5278, 44.0335
1.492, 2, 35.9151, 48.1278, -14.08, 97.4483, -51.5278, 44.0335
1.496, 2, 35.9151, 48.1278, -14.08, 97.4483, -51.5278, 44.0335
1.5, 2, 35.9151, 48.1278, -14.08, 97.4483, -51.5278, 44.0335
1.504, 2, 35.9151, 48.1278, -14.08, 97.4483, -51.5278, 44.0335
1.508, 2, 35.9151, 48.1278, -14.08, 97.4483, -51.5278, 44.0335
1.512, 2, 35.9151, 48.1278, -14.08, 97.4483, -51.5278, 44.0335
1.516, 2, 35.9151, 48.1278, -14.08, 97.4483, -51.5278, 44.0335
1.52, 2, 35.9151, 48.1278, -14.08, 97.4483, -51.5278, 44.0335
1.524, 2, 35.9151, 48.1278, -14.08, 97.4483, -51.5278, 44.0335
1.528, 2, 35.9151, 48.1278, -14.08, 97.4483, -51.5278, 44.0335
1.532, 2, 35.9151, 48.1278, -14.08, 97.4483, -51.5278, 44.0335
1.536, 2, 35.9151, 48.1278, -14.08, 97.4483, -51.5278, 44.0335
1.54, 2, 35.9151, 48.1278, -14.08, 97.4483, -51.5278, 44.0335
1.544, 2, 35.9151, 48.1278, -14.08, 97.4483, -51.5278, 44.0335
1.548, 2, 35.9151, 48.1278, -14.08, 97.4483, -51.5278, 44.0335
1.552, 2, 35.9151, 48.1278, -14.08, 97.4483, -51.5278, 44.0335
1.556, 2, 35.9151, 48.1278, -14.08, 97.4483, -51.5278, 44.0335
1.56, 2, 35.9151, 48.1278, -14.08, 97.4483, -51.5278, 44.0335
1.564, 2, 35.9151, 48.1278, -14.08, 97.4483, -51.5278, 44.0335
1.568, 2, 35.9151, 48.1278, -14.08, 97.4483, -51.5278, 44.0335
1.572, 2, 35.9151, 48.1278, -14.08, 97.4483, -51.5278, 44.0335
1.576, 2, 35.9151, 48.1278, -14.08, 97.4483, -51.5278, 44.0335
1.58, 2, 35.9151, 48.1278, -14.08, 97.4483, -51.5278, 44.0335
1.584, 2, 35.9151, 48.1278, -14.08, 97.4483, -51.5278, 44.0335
1.588, 2, 35.9151, 48.1278, -14.08, 97.4483, -51.5278, 44.0335
1.592, 2, 35.9151, 48.1278, -14.08, 97.4483, -51.5278, 44.0335
1.596, 2, 35.9151, 48.1278, -14.08, 97.4483, -51.5278, 44.0335
1.6, 2, 35.9151, 48.1278, -14.08, 97.4483, -51.5278, 44.0335
1.604, 2, 35.9151, 48.1278, -14.08, 97.4483, -51.5278, 44.0335
1.608, 2, 35.9151, 48.1278, -14.08, 97.4483, -51.5278, 44.0335
1.612, 2, 35.9151, 48.1278, -14.08, 97.4483, -51.5278, 44.0335
1.616, 2, 35.9151, 48.1278, -14.08, 97.4483, -51.5278, 44.0335
1.62, 2, 35.9151, 48.1278, -14.08, 97.4483, -51.5278, 44.0335
1.624, 2, 35.9151, 48.1278, -14.08, 97.4483, -51.5278, 44.0335
1.628, 2, 35.9151, 48.1278, -14.08, 97.4483, -51.5278, 44.0335
1.632, 2, 35.9151, 48.1278, -14.08, 97.4483, -51.5278, 44.0335
1.636, 2, 35.9151, 48.1278, -14.08, 97.4483, -51.5278, 44.0335
1.64, 2, 35.9151, 48.1278, -14.08, 97.4483, -51.5278, 44.0335
1.644, 2, 35.9151, 48.1278, -14.08, 97.4483, -51.5278, 44.0335
1.648, 2, 35.9151, 48.1278, -14.08, 97.4483, -51.5278, 44.0335
1.652, 2, 35.9151, 48.1278, -14.08, 97.4483, -51.5278, 44.0335
1.656, 2, 35.9151, 48.1278, -14.08, 97.4483, -51.5278, 44.0335
1.66, 2, 35.9151, 48.1278, -14.08, 97.4483, -51.5278, 44.0335
1.664, 2, 35.9151, 48.1278, -14.08, 97.4483, -51.5278, 44.0335
1.668, 2, 35.9151, 48.1278, -14.08, 97.4483, -51.5278, 44.0335
1.672, 2, 35.9151, 48.1278, -14.08, 97.4483, -51.5278, 44.0335
1.676, 2, 35.9151, 48.1278, -14.08, 97.4483, -51.5278, 44.0335
1.68, 2, 35.9151, 48.1278, -14.08, 97.4483, -51.5278, 44.0335
1.684, 2, 35.9151, 48.1278, -14.08, 97.4483, -51.5278, 44.0335
1.688, 2, 35.9151, 48.1278, -14.08, 97.4483, -51.5278, 44.0335
1.692, 2, 35.9151, 48.1278, -14.08, 97.4483, -51.5278, 44.0335
1.696, 2, 35.9151, 48.1278, -14.08, 97.4483, -51.5278, 44.0335
1.7, 2, 35.9151, 48.1278, -14.08, 97.4483, -51.5278, 44.0335
1.704, 2, 35.9151, 48.1278, -14.08, 97.4483, -51.5278, 44.0335
1.708, 2, 35.9151, 48.1278, -14.08, 97.4483, -51.5278, 44.0335
1.712, 2, 35.9151, 48.1278, -14.08, 97.4483, -51.5278, 44.0335
1.716, 2, 35.9151, 48.1278, -14.08, 97.4483, -51.5278, 44.0335
1.72, 2, 35.9151, 48.1278, -14.08, 97.4483, -51.5278, 44.0335
1.724, 2, 35.9151, 48.1278, -14.08, 97.4483, -51.5278, 44.0335
1.728, 2, 35.9151, 48.1278, -14.08, 97.4483, -51.5278, 44.0335
1.732, 2, 35.9151, 48.1278, -14.08, 97.4483, -51.5278, 44.0335
1.736, 2, 35.9151, 48.1278, -14.08, 97.4483, -51.5278, 44.0335
1.74, 2, 35.9151, 48.1278, -14.08, 97.4483, -51.5278, 44.0335
1.744, 2, 35.9151, 48.1278, -14.08, 97.4483, -51.5278, 44.0335
1.748, 2, 35.9151, 48.1278, -14.08, 97.4483, -51.5278, 44.0335
1.752, 2, 35.9151, 48.1278, -14.08, 97.4483, -51.5278, 44.0335
1.756, 2, 35.9151, 48.1278, -14.08, 97.4483, -51.5278, 44.0335
1.76, 2, 35.9151, 48.1278, -14.08, 97.4483, -51.5278, 44.0335
1.764, 2, 35.9151, 48.1278, -14.08, 97.4483, -51.5278, 44.0335
1.768, 2, 35.9151, 48.1278, -14.08, 97.4483, -51.5278, 44.0335
1.772, 2, 35.9151, 48.1278, -14.08, 97.4483, -51.5278, 44.0335
1.776, 2, 35.9151, 48.1278, -14.08, 97.4483, -51.5278, 44.0335
1.78, 2, 35.9151, 48.1278, -14.08, 97.4483, -51.5278, 44.0335
1.784, 2, 35.9151, 48.1278, -14.08, 97.4483, -51.5278, 44.0335
1.788, 2, 35.9151, 48.1278, -14.08, 97.4483, -51.5278, 44.0335
1.792, 2, 35.9151, 48.1278, -14.08, 97.4483, -51.5278, 44.0335
1.796, 2, 35.9151, 48.1278, -14.08, 97.4483, -51.5278, 44.0335
1.8, 2, 35.9151, 48.1278, -14.08, 97.4483, -51.5278, 44.0335
1.804, 2, 35.9151, 48.1278, -14.08, 97.4483, -51.5278, 44.0335
1.808, 2, 35.9151, 48.1278, -14.08, 97.4483, -51.5278, 44.0335
1.812, 2, 35.9151, 48.1278, -14.08, 97.4483, -51.5278, 44.0335
1.816, 2, 35.9151, 48.1278, -14.08, 97.4483, -51.5278, 44.0335
1.82, 2, 35.9151, 48.1278, -14.08, 97.4483, -51.5278, 44.0335
1.824, 2, 35.9151, 48.1278, -14.08, 97.4483, -51.5278, 44.0335
1.828, 2, 35.9151, 48.1278, -14.08, 97.4483, -51.5278, 44.0335
1.832, 2, 35.9151, 48.1278, -14.08, 97.4483, -51.5278, 44.0335
1.836, 2, 35.9151, 48.1278, -14.08, 97.4483, -51.5278, 44.0335
1.84, 2, 35.9151, 48.1278, -14.08, 97.4483, -51.5278, 44.0335
1.844, 2, 35.9151, 48.1278, -14.08, 97.4483, -51.5278, 44.0335
1.848, 2, 35.9151, 48.1278, -14.08, 97.4483, -51.5278, 44.0335
1.852, 2, 35.9151, 48.1278, -14.08, 97.4483, -51.5278, 44.0335
1.856, 2, 35.9151, 48.1278, -14.08, 97.4483, -51.5278, 44.0335
1.86, 2, 35.9151, 48.1278, -14.08, 97.4483, -51.5278, 44.0335
1.864, 2, 35.9151, 48.1278, -14.08, 97.4483, -51.5278, 44.0335
1.868, 2, 35.9151, 48.1278, -14.08, 97.4483, -51.5278, 44.0335
1.872, 2, 35.9151, 48.1278, -14.08, 97.4483, -51.5278, 44.0335
1.876, 2, 35.9151, 48.1278, -14.08, 97.4483, -51.5278, 44.0335
1.88, 2, 35.9151, 48.1278, -14.08, 97.4483, -51.5278, 44.0335
1.884, 2, 35.9151, 48.1278, -14.08, 97.4483, -51.5278, 44.0335
1.888, 2, 35.9151, 48.1278, -14.08, 97.4483, -51.5278, 44.0335
1.892, 2, 35.9151, 48.1278, -14.08, 97.4483, -51.5278, 44.0335
1.896, 2, 35.9151, 48.1278, -14.08, 97.4483, -51.5278, 44.0335
1.9, 2, 35.9151, 48.1278, -14.08, 97.4483, -51.5278, 44.0335
1.904, 2, 35.9151, 48.1278, -14.08, 97.4483, -51.5278, 44.0335
1.908, 2, 35.9151, 48.1278, -14.08, 97.4483, -51.5278, 44.0335
1.912, 2, 35.9151, 48.1278, -14.08, 97.4483, -51.5278, 44.0335
1.916, 2, 35.9151, 48.1278, -14.08, 97.4483, -51.5278, 44.0335
1.92, 2, 35.9151, 48.1278, -14.08, 97.4483, -51.5278, 44.0335
1.924, 2, 35.9151, 48.1278, -14.08, 97.4483, -51.5278, 44.0335
1.928, 2, 35.9151, 48.1278, -14.08, 97.4483, -51.5278, 44.0335
1.932, 2, 35.9151, 48.1278, -14.08, 97.4483, -51.5278, 44.0335
1.936, 2, 35.9151, 48.1278, -14.08, 97.4483, -51.5278, 44.0335
1.94, 2, 35.9151, 48.1278, -14.08, 97.4483, -51.5278, 44.0335
1.944, 2, 35.9151, 48.1278, -14.08, 97.4483, -51.5278, 44.0335
1.948, 2, 35.9151, 48.1278, -14.08, 97.4483, -51.5278, 44.0335
1.952, 2, 35.9151, 48.1278, -14.08, 97.4483, -51.5278, 44.0335
1.956, 2, 35.9151, 48.1278, -14.08, 97.4483, -51.5278, 44.0335
1.96, 2, 35.9151, 48.1278, -14.08, 97.4483, -51.5278, 44.0335
1.964, 2, 35.9151, 48.1278, -14.08, 97.4483, -51.5278, 44.0335
1.968, 2, 35.9151, 48.1278, -14.08, 97.4483, -51.5278, 44.0335
1.972, 2, 35.9151, 48.1278, -14.08, 97.4483, -51.5278, 44.0335
1.976, 2, 35.9151, 48.1278, -14.08, 97.4483, -51.5278, 44.0335
1.98, 2, 35.9151, 48.1278, -14.08, 97.4483, -51.5278, 44.0335
1.984, 2, 35.9151, 48.1278, -14.08, 97.4483, -51.5278, 44.0335
1.988, 2, 35.9151, 48.1278, -14.08, 97.4483, -51.5278, 44.0335
1.992, 2, 35.9151, 48.1278, -14.08, 97.4483, -51.5278, 44.0335
1.996, 2, 35.9151, 48.1278, -14.08, 97.4483, -51.5278, 44.0335
1.999, 2, 35.9151, 48.1278, -14.08, 97.4483, -51.5278, 44.0335
2.004, 2, 35.9151, 48.1278, -14.08, 97.4483, -51.5278, 44.0335
2.008, 2, 35.9151, 48.1278, -14.08, 97.4483, -51.5278, 44.0335
2.012, 2, 35.9151, 48.1278, -14.08, 97.4483, -51.5278, 44.0335
2.015, 2, 35.9151, 48.1278, -14.08, 97.4483, -51.5278, 44.0335
2.019, 2, 35.9151, 48.1278, -14.08, 97.4483, -51.5278, 44.0335
2.024, 2, 35.9151, 48.1278, -14.08, 97.4483, -51.5278, 44.0335
2.028, 2, 35.9151, 48.1278, -14.08, 97.4483, -51.5278, 44.0335
2.031, 2, 35.9151, 48.1278, -14.08, 97.4483, -51.5278, 44.0335
2.036, 4, 35.9151, 48.1278, -14.08, 97.4483, -51.5278, 44.0335
2.04, 4, 35.9151, 48.1278, -14.08, 97.4483, -51.5278, 44.0335
2.044, 4, 35.9151, 48.1278, -14.08, 97.4483, -51.5278, 44.0335
2.048, 4, 35.9151, 48.1278, -14.08, 97.4483, -51.5278, 44.0335
2.051, 4, 35.9151, 48.1278, -14.08, 97.4483, -51.5278, 44.0335
2.055, 4, 35.9151, 48.1278, -14.08, 97.4483, -51.5278, 44.0335
2.06, 4, 35.9151, 48.1278, -14.08, 97.4483, -51.5278, 44.0335
2.064, 4, 35.9151, 48.1278, -14.08, 97.4483, -51.5278, 44.0335
2.068, 4, 35.9151, 48.1278, -14.08, 97.4483, -51.5278, 44.0335
2.071, 4, 35.9151, 48.1278, -14.08, 97.4483, -51.5278, 44.0335
2.076, 4, 35.9151, 48.1278, -14.08, 97.4483, -51.5278, 44.0335
2.08, 4, 35.9151, 48.1278, -14.08, 97.4483, -51.5278, 44.0335
2.084, 4, 35.9151, 48.1278, -14.08, 97.4483, -51.5278, 44.0335
2.087, 4, 35.9151, 48.1278, -14.08, 97.4483, -51.5278, 44.0335
2.092, 4, 35.9151, 48.1278, -14.08, 97.4483, -51.5278, 44.0335
2.096, 4, 35.9151, 48.1278, -14.08, 97.4483, -51.5278, 44.0335
2.1, 4, 35.9151, 48.1278, -14.08, 97.4483, -51.5278, 44.0335
2.104, 4, 35.9151, 48.1278, -14.08, 97.4483, -51.5278, 44.0335
2.107, 4, 35.9151, 48.1278, -14.08, 97.4483, -51.5278, 44.0335
2.111, 4, 35.9151, 48.1278, -14.08, 97.4483, -51.5278, 44.0335
2.116, 4, 35.9151, 48.1278, -14.08, 97.4483, -51.5278, 44.0335
2.12, 4, 35.9151, 48.1278, -14.08, 97.4483, -51.5278, 44.0335
2.124, 4, 35.9151, 48.1278, -14.08, 97.4483, -51.5278, 44.0335
2.127, 4, 35.9151, 48.1278, -14.08, 97.4483, -51.5278, 44.0335
2.132, 4, 35.9151, 48.1278, -14.08, 97.4483, -51.5278, 44.0335
2.136, 4, 35.9151, 48.1278, -14.08, 97.4483, -51.5278, 44.0335
2.142, 4, 35.9151, 48.1278, -14.08, 97.4483, -51.5278, 44.0335
2.144, 4, 35.9151, 48.1278, -14.08, 97.4483, -51.5278, 44.0335
2.147, 4, 35.9151, 48.1278, -14.08, 97.4483, -51.5278, 44.0335
2.152, 4, 35.9151, 48.1278, -14.08, 97.4483, -51.5278, 44.0335
2.156, 4, 35.9151, 48.1278, -14.08, 97.4483, -51.5278, 44.0335
2.16, 4, 35.9151, 48.1278, -14.08, 97.4483, -51.5278, 44.0335
2.163, 4, 35.9151, 48.1278, -14.08, 97.4483, -51.5278, 44.0335
2.168, 4, 35.9151, 48.1278, -14.08, 97.4483, -51.5278, 44.0335
2.172, 4, 35.9151, 48.1278, -14.08, 97.4483, -51.5278, 44.0335
2.176, 4, 35.9151, 48.128, -14.08, 97.4483, -51.5279, 44.0335
2.179, 4, 35.915, 48.1283, -14.0801, 97.4483, -51.5279, 44.0335
2.184, 4, 35.9147, 48.1291, -14.0801, 97.4483, -51.528, 44.0334
2.188, 4, 35.9143, 48.1303, -14.0802, 97.4483, -51.5284, 44.0332
2.192, 4, 35.9138, 48.1322, -14.0804, 97.4484, -51.5291, 44.0327
2.196, 4, 35.913, 48.1349, -14.0806, 97.4485, -51.5305, 44.0319
2.199, 4, 35.912, 48.1383, -14.0811, 97.4487, -51.5329, 44.0304
2.204, 4, 35.9108, 48.1429, -14.0818, 97.449, -51.5367, 44.028
2.208, 5, 35.9093, 48.1486, -14.0828, 97.4495, -51.5425, 44.0244
2.212, 5, 35.9077, 48.1557, -14.0842, 97.4501, -51.551, 44.0192
2.216, 5, 35.9058, 48.1645, -14.0861, 97.451, -51.5629, 44.0118
2.219, 5, 35.9038, 48.1753, -14.0886, 97.4523, -51.5792, 44.0018
2.224, 5, 35.9014, 48.1881, -14.0919, 97.4538, -51.6007, 43.9885
2.228, 5, 35.8989, 48.2032, -14.0961, 97.4558, -51.6285, 43.9714
2.232, 5, 35.8962, 48.2207, -14.1013, 97.4583, -51.6637, 43.9497
2.235, 5, 35.8933, 48.2407, -14.1077, 97.4614, -51.7075, 43.9228
2.24, 5, 35.8901, 48.2634, -14.1153, 97.465, -51.7608, 43.8901
2.244, 5, 35.8868, 48.2891, -14.1244, 97.4692, -51.8247, 43.851
2.248, 5, 35.8832, 48.3179, -14.135, 97.474, -51.9002, 43.8048
2.252, 5, 35.8793, 48.3501, -14.1472, 97.4794, -51.9882, 43.7512
2.255, 5, 35.8751, 48.3858, -14.161, 97.4854, -52.0893, 43.6897
2.259, 5, 35.8705, 48.4253, -14.1765, 97.492, -52.2044, 43.6199
2.264, 5, 35.8656, 48.4688, -14.1938, 97.499, -52.334, 43.5415
2.268, 5, 35.8602, 48.5162, -14.2128, 97.5064, -52.4786, 43.4544
2.272, 5, 35.8543, 48.5679, -14.2336, 97.5141, -52.6386, 43.3583
2.275, 5, 35.8478, 48.624, -14.256, 97.5219, -52.8143, 43.2532
2.28, 5, 35.8408, 48.6845, -14.2801, 97.5297, -53.006, 43.139
2.284, 5, 35.8331, 48.7496, -14.3058, 97.5373, -53.2138, 43.0157
2.288, 5, 35.8247, 48.8192, -14.3329, 97.5445, -53.438, 42.8834
2.291, 5, 35.8156, 48.8932, -14.3614, 97.5511, -53.6784, 42.7421
2.296, 5, 35.8057, 48.9717, -14.3912, 97.557, -53.9354, 42.5919
2.3, 5, 35.7951, 49.0543, -14.422, 97.5618, -54.2086, 42.4331
2.304, 5, 35.7837, 49.141, -14.4538, 97.5655, -54.4982, 42.2657
2.308, 5, 35.7715, 49.2317, -14.4864, 97.5676, -54.8039, 42.0901
2.311, 5, 35.7585, 49.326, -14.5196, 97.568, -55.1254, 41.9065
2.316, 5, 35.7448, 49.4237, -14.5532, 97.5664, -55.4623, 41.7153
2.32, 5, 35.7302, 49.5245, -14.5868, 97.5626, -55.8141, 41.5169
2.324, 5, 35.7149, 49.6281, -14.6204, 97.5565, -56.1801, 41.3117
2.328, 5, 35.6988, 49.7342, -14.6536, 97.5477, -56.5597, 41.1004
2.331, 5, 35.6819, 49.8425, -14.6862, 97.5361, -56.9517, 40.8836
2.336, 5, 35.6642, 49.9528, -14.718, 97.5217, -57.3553, 40.6618
2.34, 5, 35.6457, 50.0649, -14.7488, 97.5041, -57.7691, 40.4359
2.344, 5, 35.6262, 50.1787, -14.7783, 97.4834, -58.1921, 40.2066
2.347, 5, 35.6058, 50.2937, -14.8063, 97.4594, -58.6229, 39.9745
2.352, 5, 35.5845, 50.4097, -14.8327, 97.4322, -59.0604, 39.7404
2.356, 5, 35.5622, 50.5263, -14.8572, 97.4017, -59.5034, 39.5048
2.36, 5, 35.5389, 50.6433, -14.8797, 97.3679, -59.9507, 39.2685
2.364, 5, 35.5146, 50.7604, -14.9, 97.3308, -60.4014, 39.0319
2.367, 5, 35.4893, 50.8777, -14.9181, 97.2905, -60.8546, 38.7956
2.372, 5, 35.463, 50.995, -14.9338, 97.247, -61.3094, 38.5598
2.376, 5, 35.4358, 51.1121, -14.947, 97.2004, -61.7652, 38.3249
2.38, 5, 35.4076, 51.2288, -14.9577, 97.1507, -62.2215, 38.0912
2.383, 5, 35.3786, 51.3449, -14.9658, 97.0979, -62.6777, 37.8589
2.388, 5, 35.3489, 51.4598, -14.9713, 97.0423, -63.1335, 37.6281
2.392, 5, 35.3187, 51.5732, -14.974, 96.9837, -63.5886, 37.3988
2.396, 5, 35.288, 51.6848, -14.9741, 96.9225, -64.0426, 37.1714
2.4, 5, 35.2569, 51.7944, -14.9714, 96.8586, -64.495, 36.9458
2.403, 5, 35.2255, 51.9019, -14.9661, 96.7922, -64.9455, 36.7223
2.408, 5, 35.194, 52.007, -14.9582, 96.7235, -65.3933, 36.5011
2.412, 5, 35.1627, 52.1096, -14.9476, 96.6527, -65.8379, 36.2824
2.416, 5, 35.1316, 52.2096, -14.9346, 96.5799, -66.2785, 36.0666
2.42, 5, 35.1008, 52.3067, -14.9191, 96.5056, -66.7144, 35.8539
2.423, 5, 35.0704, 52.4009, -14.9013, 96.4298, -67.1445, 35.6448
2.428, 5, 35.0404, 52.4921, -14.8814, 96.3531, -67.5679, 35.4397
2.432, 5, 35.0105, 52.5802, -14.8596, 96.2755, -67.9835, 35.239
2.436, 5, 34.9808, 52.6653, -14.8359, 96.1976, -68.3903, 35.0431
2.439, 5, 34.951, 52.7473, -14.8107, 96.1198, -68.7872, 34.8526
2.444, 5, 34.9214, 52.8262, -14.7842, 96.0422, -69.173, 34.6678
2.448, 5, 34.8919, 52.9017, -14.7566, 95.9654, -69.5469, 34.4893
2.452, 5, 34.8629, 52.9739, -14.7282, 95.8898, -69.9078, 34.3172
2.456, 5, 34.8343, 53.0427, -14.6992, 95.8156, -70.2548, 34.1522
2.459, 5, 34.8065, 53.1078, -14.6699, 95.7432, -70.5872, 33.9944
2.464, 5, 34.7794, 53.1694, -14.6405, 95.673, -70.9041, 33.8442
2.468, 5, 34.7534, 53.2274, -14.6113, 95.6053, -71.2049, 33.7019
2.472, 5, 34.7283, 53.2819, -14.5827, 95.5405, -71.4889, 33.5677
2.476, 5, 34.7043, 53.3329, -14.5547, 95.4788, -71.7557, 33.4418
2.479, 5, 34.6813, 53.3804, -14.5278, 95.4204, -72.0047, 33.3245
2.484, 5, 34.6595, 53.4247, -14.502, 95.3657, -72.2356, 33.2157
2.488, 5, 34.6388, 53.4656, -14.4776, 95.3147, -72.4485, 33.1156
2.492, 5, 34.6193, 53.5035, -14.4547, 95.2676, -72.6432, 33.0241
2.495, 5, 34.601, 53.5383, -14.4335, 95.2245, -72.8198, 32.9411
2.5, 5, 34.5839, 53.5701, -14.4141, 95.1854, -72.9787, 32.8665
2.504, 5, 34.568, 53.5992, -14.3965, 95.1503, -73.1204, 32.8001
2.508, 5, 34.5532, 53.6257, -14.3807, 95.1192, -73.2454, 32.7415
2.512, 5, 34.5395, 53.6497, -14.3668, 95.0918, -73.3544, 32.6904
2.515, 5, 34.5268, 53.6716, -14.3547, 95.0682, -73.4484, 32.6464
2.52, 5, 34.5151, 53.6914, -14.3443, 95.0479, -73.5285, 32.6089
2.524, 5, 34.5043, 53.7093, -14.3355, 95.0308, -73.5957, 32.5775
2.528, 5, 34.4945, 53.7253, -14.3283, 95.0166, -73.6514, 32.5514
2.531, 5, 34.4858, 53.7396, -14.3223, 95.005, -73.6968, 32.5302
2.536, 5, 34.478, 53.7523, -14.3176, 94.9957, -73.7334, 32.5131
2.54, 5, 34.4711, 53.7635, -14.3138, 94.9882, -73.7622, 32.4996
2.544, 5, 34.465, 53.7733, -14.3109, 94.9825, -73.7846, 32.4892
2.55, 5, 34.4595, 53.782, -14.3087, 94.9781, -73.8017, 32.4812
2.552, 5, 34.4547, 53.7894, -14.3071, 94.9748, -73.8143, 32.4753
2.556, 5, 34.4505, 53.7956, -14.306, 94.9725, -73.8235, 32.471
2.56, 5, 34.4468, 53.8006, -14.3052, 94.9708, -73.8301, 32.468
2.564, 5, 34.4439, 53.8044, -14.3046, 94.9696, -73.8347, 32.4658
2.568, 5, 34.4416, 53.8073, -14.3043, 94.9688, -73.8379, 32.4644
2.571, 5, 34.4398, 53.8094, -14.304, 94.9682, -73.84, 32.4634
2.576, 5, 34.4386, 53.8108, -14.3039, 94.9679, -73.8415, 32.4627
2.58, 5, 34.4377, 53.8118, -14.3038, 94.9676, -73.8425, 32.4622
2.584, 5, 34.4369, 53.8125, -14.3036, 94.9674, -73.8431, 32.4619
2.587, 5, 34.436, 53.813, -14.3035, 94.9673, -73.8436, 32.4617
2.592, 5, 34.4346, 53.8136, -14.3033, 94.9671, -73.8441, 32.4616
2.596, 5, 34.4328, 53.8142, -14.3028, 94.9668, -73.8446, 32.4617
2.6, 5, 34.4303, 53.8148, -14.3019, 94.9662, -73.8453, 32.4619
2.604, 5, 34.4272, 53.8156, -14.3005, 94.9651, -73.8464, 32.4623
2.607, 5, 34.4233, 53.8164, -14.298, 94.9632, -73.8483, 32.4631
2.612, 6, 34.4187, 53.8172, -14.2943, 94.9603, -73.8513, 32.4645
2.616, 6, 34.4133, 53.8181, -14.2887, 94.9559, -73.8557, 32.4666
2.62, 6, 34.4069, 53.8187, -14.2808, 94.9494, -73.862, 32.4696
2.624, 6, 34.3994, 53.8192, -14.2697, 94.9403, -73.8709, 32.4739
2.627, 6, 34.3906, 53.8193, -14.2548, 94.928, -73.883, 32.4797
2.632, 6, 34.3803, 53.8189, -14.2351, 94.9117, -73.8988, 32.4873
2.636, 6, 34.3686, 53.8176, -14.2098, 94.8906, -73.9193, 32.4972
2.64, 6, 34.3554, 53.8153, -14.1779, 94.864, -73.9452, 32.5097
2.643, 6, 34.3407, 53.8117, -14.1384, 94.831, -73.9771, 32.5251
2.648, 6, 34.3244, 53.8065, -14.0907, 94.7909, -74.016, 32.5438
2.652, 6, 34.3063, 53.7996, -14.034, 94.7431, -74.0623, 32.5661
2.656, 6, 34.2865, 53.7908, -13.9677, 94.6869, -74.1168, 32.5922
2.66, 6, 34.2647, 53.7799, -13.8914, 94.6217, -74.1799, 32.6223
2.663, 6, 34.2411, 53.7668, -13.8048, 94.5473, -74.2521, 32.6567
2.668, 6, 34.2157, 53.7512, -13.7076, 94.4633, -74.3337, 32.6953
2.672, 6, 34.1886, 53.7332, -13.5998, 94.3696, -74.4247, 32.7382
2.676, 6, 34.1599, 53.7126, -13.4814, 94.2662, -74.5253, 32.7853
2.679, 6, 34.1298, 53.6894, -13.3523, 94.1534, -74.6351, 32.8364
2.684, 6, 34.0981, 53.6638, -13.2129, 94.0315, -74.7538, 32.8913
2.688, 6, 34.0648, 53.6359, -13.0636, 93.9012, -74.881, 32.9497
2.692, 6, 34.03, 53.6059, -12.9048, 93.7632, -75.0158, 33.0112
2.696, 6, 33.9938, 53.5739, -12.7375, 93.6184, -75.1575, 33.0753
2.699, 6, 33.9565, 53.5402, -12.5627, 93.4677, -75.3053, 33.1415
2.704, 6, 33.9184, 53.5049, -12.3815, 93.3121, -75.4581, 33.2095
2.708, 6, 33.8799, 53.4681, -12.1953, 93.1526, -75.6149, 33.2785
2.712, 6, 33.841, 53.4303, -12.0053, 92.9905, -75.7746, 33.3482
2.716, 6, 33.8015, 53.3918, -11.813, 92.8269, -75.9361, 33.418
2.719, 6, 33.7615, 53.353, -11.6196, 92.6628, -76.0983, 33.4874
2.724, 6, 33.7207, 53.3143, -11.4263, 92.4995, -76.2601, 33.5559
2.728, 6, 33.6791, 53.276, -11.2345, 92.3379, -76.4205, 33.6232
2.732, 6, 33.6371, 53.2384, -11.0451, 92.1788, -76.5786, 33.6888
2.735, 6, 33.5948, 53.2016, -10.8592, 92.0232, -76.7336, 33.7524
2.74, 6, 33.5528, 53.1658, -10.6777, 91.8717, -76.8848, 33.8138
2.744, 6, 33.5114, 53.131, -10.5013, 91.725, -77.0315, 33.8728
2.748, 6, 33.471, 53.0973, -10.3308, 91.5835, -77.1732, 33.9292
2.752, 6, 33.4316, 53.0649, -10.1669, 91.4477, -77.3093, 33.9828
2.755, 6, 33.3936, 53.0339, -10.01, 91.3182, -77.4395, 34.0336
2.76, 6, 33.357, 53.0043, -9.86055, 91.1951, -77.5632, 34.0814
2.764, 6, 33.322, 52.9764, -9.71908, 91.0789, -77.6803, 34.1263
2.768, 6, 33.2885, 52.9501, -9.58586, 90.9697, -77.7905, 34.1681
2.772, 6, 33.2568, 52.9254, -9.46113, 90.8677, -77.8935, 34.2069
2.775, 6, 33.2269, 52.9024, -9.34505, 90.773, -77.9893, 34.2427
2.78, 6, 33.1987, 52.8811, -9.23772, 90.6856, -78.0777, 34.2755
2.784, 6, 33.1724, 52.8615, -9.13914, 90.6055, -78.1589, 34.3053
2.788, 6, 33.148, 52.8437, -9.04925, 90.5326, -78.2328, 34.3324
2.791, 6, 33.1254, 52.8275, -8.96792, 90.4669, -78.2996, 34.3566
2.796, 6, 33.1046, 52.813, -8.89494, 90.408, -78.3595, 34.3783
2.8, 6, 33.0856, 52.8002, -8.83003, 90.3557, -78.4126, 34.3974
2.804, 6, 33.0681, 52.7889, -8.77285, 90.3099, -78.4593, 34.4141
2.808, 6, 33.0522, 52.7792, -8.72299, 90.27, -78.5, 34.4285
2.811, 6, 33.0377, 52.771, -8.67997, 90.2357, -78.535, 34.4409
2.816, 6, 33.0246, 52.7641, -8.64326, 90.2066, -78.5648, 34.4514
2.82, 6, 33.0129, 52.7584, -8.61232, 90.1822, -78.5898, 34.4602
2.824, 6, 33.0026, 52.7537, -8.58655, 90.1619, -78.6105, 34.4675
2.828, 6, 32.9936, 52.75, -8.56538, 90.1454, -78.6275, 34.4734
2.831, 6, 32.9858, 52.747, -8.54825, 90.1321, -78.6412, 34.4781
2.836, 6, 32.979, 52.7448, -8.53459, 90.1215, -78.6521, 34.4819
2.84, 6, 32.9729, 52.7431, -8.52389, 90.1133, -78.6606, 34.4848
2.844, 6, 32.9675, 52.7419, -8.51567, 90.1071, -78.667, 34.487
2.847, 6, 32.9628, 52.7411, -8.50948, 90.1024, -78.6718, 34.4887
2.852, 6, 32.9586, 52.7406, -8.50491, 90.0991, -78.6753, 34.4899
2.856, 7, 32.955, 52.7403, -8.50162, 90.0967, -78.6778, 34.4907
2.86, 7, 32.9521, 52.7401, -8.49928, 90.095, -78.6796, 34.4913
2.864, 7, 32.9499, 52.74, -8.49766, 90.0939, -78.6808, 34.4917
2.867, 7, 32.9482, 52.7399, -8.49654, 90.0931, -78.6816, 34.492
2.872, 7, 32.9471, 52.7399, -8.49578, 90.0926, -78.6822, 34.4922
2.876, 7, 32.9463, 52.7398, -8.49527, 90.0922, -78.6825, 34.4923
2.88, 7, 32.9458, 52.7398, -8.49492, 90.092, -78.6828, 34.4924
2.883, 7, 32.9454, 52.7398, -8.49468, 90.0918, -78.683, 34.4924
2.888, 7, 32.9452, 52.7398, -8.49452, 90.0917, -78.6831, 34.4925
2.892, 7, 32.945, 52.7398, -8.49442, 90.0916, -78.6832, 34.4925
2.896, 7, 32.9449, 52.7398, -8.49434, 90.0916, -78.6832, 34.4925
2.9, 7, 32.9448, 52.7398, -8.49429, 90.0915, -78.6833, 34.4925
2.903, 7, 32.9448, 52.7398, -8.49426, 90.0915, -78.6833, 34.4925
2.908, 7, 32.9447, 52.7398, -8.49424, 90.0915, -78.6833, 34.4925
2.912, 7, 32.9447, 52.7398, -8.49422, 90.0915, -78.6833, 34.4926
2.916, 7, 32.9447, 52.7398, -8.49421, 90.0915, -78.6833, 34.4926
2.92, 7, 32.9447, 52.7398, -8.4942, 90.0915, -78.6833, 34.4926
2.923, 7, 32.9447, 52.7398, -8.4942, 90.0915, -78.6833, 34.4926
2.928, 7, 32.9447, 52.7398, -8.4942, 90.0915, -78.6833, 34.4926
2.932, 7, 32.9447, 52.7398, -8.49419, 90.0915, -78.6833, 34.4926
2.936, 7, 32.9447, 52.7398, -8.49419, 90.0915, -78.6833, 34.4926
2.939, 7, 32.9446, 52.7398, -8.49419, 90.0915, -78.6833, 34.4926
2.944, 7, 32.9446, 52.7398, -8.49419, 90.0915, -78.6833, 34.4926
2.948, 7, 32.9446, 52.7398, -8.49419, 90.0915, -78.6833, 34.4926
2.952, 7, 32.9446, 52.7398, -8.49419, 90.0915, -78.6833, 34.4926
2.956, 7, 32.9446, 52.7398, -8.49419, 90.0915, -78.6833, 34.4926
2.959, 7, 32.9446, 52.7398, -8.49419, 90.0915, -78.6833, 34.4926
2.964, 7, 32.9446, 52.7398, -8.49419, 90.0915, -78.6833, 34.4926
2.968, 7, 32.9446, 52.7398, -8.49419, 90.0915, -78.6833, 34.4926
2.972, 7, 32.9446, 52.7398, -8.49419, 90.0915, -78.6833, 34.4926
