hehonglu123/ABB_Primitive_Study/execution/movec/curve_exe_v300_fine.csv
timestamp, cmd_num, J1, J2, J3, J4, J5, J6
0, -1, 32.9446, 52.7398, -8.49419, 90.0915, -78.6833, 34.4926
0.002, -1, 32.9446, 52.7398, -8.49419, 90.0915, -78.6833, 34.4926
0.006, -1, 32.9446, 52.7398, -8.49419, 90.0915, -78.6833, 34.4926
0.008, -1, 32.9446, 52.7398, -8.49419, 90.0915, -78.6833, 34.4926
0.011, -1, 32.9446, 52.7398, -8.49419, 90.0915, -78.6833, 34.4926
0.016, -1, 32.9446, 52.7398, -8.49419, 90.0915, -78.6833, 34.4926
0.02, -1, 32.9446, 52.7398, -8.49419, 90.0915, -78.6833, 34.4926
0.024, -1, 32.9446, 52.7398, -8.49419, 90.0915, -78.6833, 34.4926
0.028, -1, 32.9446, 52.7398, -8.49419, 90.0915, -78.6833, 34.4926
0.032, -1, 32.9447, 52.7398, -8.49419, 90.0915, -78.6833, 34.4926
0.036, -1, 32.9447, 52.7397, -8.49419, 90.0915, -78.6833, 34.4926
0.04, -1, 32.9449, 52.7396, -8.49419, 90.0915, -78.6833, 34.4926
0.044, -1, 32.9453, 52.7392, -8.49421, 90.0915, -78.6833, 34.4926
0.048, -1, 32.9461, 52.7385, -8.49426, 90.0915, -78.6831, 34.4927
0.052, -1, 32.9474, 52.7371, -8.49437, 90.0917, -78.6826, 34.4928
0.056, -1, 32.9492, 52.7349, -8.4946, 90.0919, -78.6817, 34.4931
0.06, -1, 32.9516, 52.7318, -8.49501, 90.0924, -78.6798, 34.4938
0.064, -1, 32.9544, 52.7277, -8.4957, 90.0932, -78.6767, 34.4949
0.068, -1, 32.9578, 52.7227, -8.49678, 90.0946, -78.6717, 34.4966
0.072, -1, 32.9617, 52.7167, -8.4984, 90.0966, -78.6641, 34.4993
0.076, -1, 32.9661, 52.7097, -8.50073, 90.0995, -78.6532, 34.5031
0.08, -1, 32.9711, 52.7018, -8.50394, 90.1037, -78.6379, 34.5085
0.084, -1, 32.9767, 52.6929, -8.50823, 90.1092, -78.6175, 34.5157
0.088, -1, 32.983, 52.6832, -8.51381, 90.1164, -78.5907, 34.5251
0.092, -1, 32.9898, 52.6726, -8.52089, 90.1256, -78.5567, 34.537
0.096, -1, 32.9971, 52.6615, -8.52966, 90.1371, -78.5143, 34.5519
0.1, -1, 33.0046, 52.6498, -8.54028, 90.151, -78.4629, 34.57
0.104, -1, 33.0124, 52.6377, -8.55288, 90.1675, -78.4018, 34.5915
0.108, -1, 33.0205, 52.6252, -8.56751, 90.1868, -78.3306, 34.6165
0.112, -1, 33.0288, 52.6121, -8.58421, 90.2088, -78.2493, 34.645
0.116, -1, 33.0376, 52.5985, -8.60294, 90.2336, -78.158, 34.6771
0.12, -1, 33.0467, 52.5842, -8.62361, 90.2609, -78.0572, 34.7125
0.124, -1, 33.0563, 52.5693, -8.6461, 90.2906, -77.9475, 34.7511
0.128, -1, 33.0663, 52.5539, -8.67024, 90.3226, -77.8297, 34.7924
0.131, -1, 33.0765, 52.5379, -8.69587, 90.3565, -77.7047, 34.8364
0.136, -1, 33.0871, 52.5214, -8.72276, 90.392, -77.5735, 34.8825
0.139, -1, 33.0981, 52.5041, -8.75072, 90.429, -77.4372, 34.9304
0.144, -1, 33.1095, 52.4858, -8.77954, 90.4671, -77.2967, 34.9797
0.148, -1, 33.1216, 52.4664, -8.80901, 90.506, -77.1531, 35.0302
0.152, -1, 33.1344, 52.4458, -8.83897, 90.5456, -77.0071, 35.0815
0.156, -1, 33.1481, 52.4239, -8.86926, 90.5855, -76.8596, 35.1333
0.16, -1, 33.1624, 52.4009, -8.89978, 90.6258, -76.7111, 35.1855
0.164, -1, 33.1774, 52.3772, -8.93044, 90.6662, -76.562, 35.2379
0.168, -1, 33.1929, 52.3529, -8.96117, 90.7067, -76.4125, 35.2904
0.172, -1, 33.2086, 52.3282, -8.99193, 90.7472, -76.2629, 35.343
0.176, -1, 33.2246, 52.3033, -9.0227, 90.7877, -76.1133, 35.3955
0.18, -1, 33.2406, 52.2782, -9.05345, 90.8282, -75.9638, 35.4481
0.184, -1, 33.2568, 52.2531, -9.08416, 90.8687, -75.8145, 35.5005
0.188, -1, 33.273, 52.2279, -9.11484, 90.9091, -75.6653, 35.5529
0.192, -1, 33.2892, 52.2027, -9.14548, 90.9495, -75.5164, 35.6053
0.196, -1, 33.3054, 52.1775, -9.17607, 90.9897, -75.3677, 35.6575
0.2, -1, 33.3216, 52.1524, -9.2066, 91.03, -75.2192, 35.7097
0.204, -1, 33.3378, 52.1272, -9.23709, 91.0701, -75.071, 35.7617
0.208, -1, 33.354, 52.1021, -9.26752, 91.1102, -74.9231, 35.8137
0.212, -1, 33.3702, 52.077, -9.29789, 91.1502, -74.7754, 35.8656
0.216, -1, 33.3863, 52.052, -9.32821, 91.1901, -74.628, 35.9174
0.22, -1, 33.4024, 52.027, -9.35848, 91.23, -74.4809, 35.9691
0.224, -1, 33.4184, 52.0021, -9.38869, 91.2698, -74.334, 36.0207
0.228, -1, 33.4345, 51.9772, -9.41885, 91.3095, -74.1874, 36.0722
0.232, -1, 33.4505, 51.9523, -9.44895, 91.3492, -74.0411, 36.1236
0.236, -1, 33.4665, 51.9275, -9.479, 91.3887, -73.895, 36.1749
0.24, -1, 33.4825, 51.9028, -9.509, 91.4282, -73.7492, 36.2262
0.244, -1, 33.4984, 51.878, -9.53894, 91.4677, -73.6036, 36.2773
0.248, -1, 33.5143, 51.8533, -9.56883, 91.507, -73.4583, 36.3284
0.252, -1, 33.5302, 51.8287, -9.59867, 91.5463, -73.3133, 36.3793
0.256, -1, 33.546, 51.8041, -9.62845, 91.5855, -73.1685, 36.4302
0.26, -1, 33.5618, 51.7796, -9.65818, 91.6247, -73.024, 36.481
0.264, -1, 33.5776, 51.7551, -9.68785, 91.6638, -72.8797, 36.5317
0.268, -1, 33.5934, 51.7306, -9.71748, 91.7028, -72.7357, 36.5823
0.272, -1, 33.6091, 51.7062, -9.74705, 91.7417, -72.5919, 36.6328
0.276, -1, 33.6248, 51.6818, -9.77657, 91.7806, -72.4484, 36.6832
0.28, -1, 33.6405, 51.6575, -9.80604, 91.8194, -72.3051, 36.7335
0.284, -1, 33.6561, 51.6332, -9.83546, 91.8582, -72.1621, 36.7838
0.288, -1, 33.6718, 51.6089, -9.86483, 91.8969, -72.0193, 36.8339
0.292, -1, 33.6874, 51.5847, -9.89415, 91.9355, -71.8768, 36.884
0.296, -1, 33.7029, 51.5605, -9.92341, 91.974, -71.7345, 36.934
0.3, -1, 33.7185, 51.5364, -9.95263, 92.0125, -71.5925, 36.9839
0.304, -1, 33.734, 51.5123, -9.9818, 92.0509, -71.4507, 37.0337
0.308, -1, 33.7495, 51.4883, -10.0109, 92.0893, -71.3092, 37.0835
0.312, -1, 33.765, 51.4643, -10.04, 92.1275, -71.1679, 37.1331
0.316, -1, 33.7804, 51.4403, -10.069, 92.1657, -71.0268, 37.1827
0.32, -1, 33.7958, 51.4164, -10.098, 92.2039, -70.886, 37.2321
0.324, -1, 33.8112, 51.3925, -10.1269, 92.242, -70.7454, 37.2815
0.328, -1, 33.8266, 51.3687, -10.1558, 92.28, -70.605, 37.3309
0.332, -1, 33.8419, 51.3449, -10.1846, 92.318, -70.4649, 37.3801
0.336, -1, 33.8572, 51.3211, -10.2134, 92.3559, -70.325, 37.4292
0.34, -1, 33.8725, 51.2974, -10.2421, 92.3937, -70.1854, 37.4783
0.344, -1, 33.8877, 51.2737, -10.2708, 92.4315, -70.046, 37.5273
0.348, -1, 33.903, 51.2501, -10.2994, 92.4692, -69.9068, 37.5762
0.352, -1, 33.9182, 51.2265, -10.328, 92.5068, -69.7678, 37.625
0.356, -1, 33.9334, 51.2029, -10.3565, 92.5444, -69.6291, 37.6737
0.36, -1, 33.9485, 51.1794, -10.385, 92.5819, -69.4906, 37.7224
0.364, -1, 33.9636, 51.1559, -10.4134, 92.6194, -69.3523, 37.771
0.368, -1, 33.9788, 51.1325, -10.4418, 92.6568, -69.2143, 37.8195
0.372, -1, 33.9938, 51.109, -10.4702, 92.6941, -69.0764, 37.8679
0.376, -1, 34.0089, 51.0857, -10.4985, 92.7314, -68.9389, 37.9163
0.38, -1, 34.0239, 51.0623, -10.5268, 92.7686, -68.8015, 37.9645
0.384, -1, 34.0389, 51.039, -10.555, 92.8058, -68.6643, 38.0127
0.388, -1, 34.0539, 51.0158, -10.5831, 92.8429, -68.5274, 38.0608
0.392, -1, 34.0689, 50.9926, -10.6113, 92.8799, -68.3907, 38.1089
0.396, -1, 34.0838, 50.9694, -10.6393, 92.9169, -68.2542, 38.1568
0.4, -1, 34.0987, 50.9462, -10.6674, 92.9538, -68.1179, 38.2047
0.404, -1, 34.1136, 50.9231, -10.6954, 92.9907, -67.9818, 38.2525
0.408, -1, 34.1285, 50.9, -10.7233, 93.0275, -67.846, 38.3002
0.412, -1, 34.1433, 50.877, -10.7512, 93.0642, -67.7104, 38.3479
0.416, -1, 34.1582, 50.854, -10.779, 93.1009, -67.575, 38.3955
0.42, -1, 34.173, 50.831, -10.8069, 93.1375, -67.4398, 38.443
0.424, -1, 34.1877, 50.8081, -10.8346, 93.1741, -67.3048, 38.4904
0.428, -1, 34.2025, 50.7852, -10.8624, 93.2106, -67.17, 38.5377
0.432, -1, 34.2172, 50.7623, -10.89, 93.2471, -67.0354, 38.585
0.436, -1, 34.2319, 50.7395, -10.9177, 93.2835, -66.901, 38.6322
0.44, -1, 34.2466, 50.7167, -10.9453, 93.3198, -66.7669, 38.6794
0.444, -1, 34.2613, 50.694, -10.9728, 93.3561, -66.6329, 38.7264
0.448, -1, 34.2759, 50.6713, -11.0003, 93.3923, -66.4992, 38.7734
0.452, -1, 34.2905, 50.6486, -11.0278, 93.4285, -66.3656, 38.8203
0.456, -1, 34.3051, 50.6259, -11.0552, 93.4647, -66.2323, 38.8672
0.46, -1, 34.3197, 50.6033, -11.0826, 93.5007, -66.0992, 38.914
0.464, -1, 34.3342, 50.5807, -11.11, 93.5367, -65.9662, 38.9607
0.468, -1, 34.3487, 50.5582, -11.1373, 93.5727, -65.8335, 39.0073
0.472, -1, 34.3632, 50.5357, -11.1645, 93.6086, -65.701, 39.0539
0.476, -1, 34.3777, 50.5132, -11.1918, 93.6445, -65.5686, 39.1004
0.48, -1, 34.3922, 50.4907, -11.2189, 93.6803, -65.4365, 39.1468
0.484, -1, 34.4066, 50.4683, -11.2461, 93.716, -65.3045, 39.1932
0.488, -1, 34.421, 50.446, -11.2732, 93.7517, -65.1728, 39.2394
0.492, -1, 34.4354, 50.4236, -11.3002, 93.7873, -65.0412, 39.2857
0.496, -1, 34.4498, 50.4013, -11.3273, 93.8229, -64.9099, 39.3318
0.5, -1, 34.4642, 50.379, -11.3542, 93.8584, -64.7787, 39.3779
0.504, -1, 34.4785, 50.3568, -11.3812, 93.8939, -64.6477, 39.4239
0.508, -1, 34.4928, 50.3346, -11.4081, 93.9294, -64.517, 39.4699
0.512, -1, 34.5071, 50.3124, -11.4349, 93.9647, -64.3864, 39.5158
0.516, -1, 34.5214, 50.2902, -11.4618, 94.0001, -64.256, 39.5616
0.52, -1, 34.5356, 50.2681, -11.4886, 94.0353, -64.1257, 39.6073
0.524, -1, 34.5499, 50.246, -11.5153, 94.0706, -63.9957, 39.653
0.528, -1, 34.5641, 50.224, -11.542, 94.1057, -63.8659, 39.6986
0.532, -1, 34.5783, 50.202, -11.5687, 94.1409, -63.7362, 39.7442
0.536, -1, 34.5924, 50.18, -11.5953, 94.1759, -63.6068, 39.7897
0.54, -1, 34.6066, 50.158, -11.6219, 94.211, -63.4775, 39.8351
0.544, -1, 34.6207, 50.1361, -11.6485, 94.2459, -63.3484, 39.8804
0.548, -1, 34.6348, 50.1142, -11.675, 94.2809, -63.2195, 39.9257
0.552, -1, 34.6489, 50.0923, -11.7015, 94.3157, -63.0908, 39.971
0.556, -1, 34.663, 50.0705, -11.7279, 94.3506, -62.9622, 40.0161
0.56, -1, 34.677, 50.0487, -11.7543, 94.3853, -62.8339, 40.0612
0.564, -1, 34.691, 50.0269, -11.7807, 94.4201, -62.7057, 40.1063
0.568, -1, 34.705, 50.0052, -11.807, 94.4547, -62.5777, 40.1512
0.572, -1, 34.719, 49.9834, -11.8333, 94.4894, -62.4498, 40.1961
0.576, -1, 34.733, 49.9618, -11.8596, 94.524, -62.3222, 40.241
0.58, -1, 34.7469, 49.9401, -11.8858, 94.5585, -62.1947, 40.2858
0.584, -1, 34.7609, 49.9185, -11.912, 94.593, -62.0674, 40.3305
0.588, -1, 34.7748, 49.8969, -11.9381, 94.6274, -61.9403, 40.3752
0.592, -1, 34.7887, 49.8753, -11.9642, 94.6618, -61.8133, 40.4198
0.596, -1, 34.8025, 49.8538, -11.9903, 94.6961, -61.6866, 40.4643
0.6, -1, 34.8164, 49.8323, -12.0163, 94.7304, -61.56, 40.5088
0.604, -1, 34.8302, 49.8108, -12.0423, 94.7647, -61.4336, 40.5532
0.608, -1, 34.844, 49.7894, -12.0683, 94.7989, -61.3073, 40.5976
0.612, -1, 34.8578, 49.768, -12.0942, 94.8331, -61.1812, 40.6419
0.616, -1, 34.8716, 49.7466, -12.1201, 94.8672, -61.0553, 40.6861
0.62, -1, 34.8854, 49.7252, -12.146, 94.9012, -60.9296, 40.7303
0.624, -1, 34.8991, 49.7039, -12.1718, 94.9352, -60.804, 40.7744
0.628, -1, 34.9128, 49.6826, -12.1976, 94.9692, -60.6786, 40.8185
0.632, -1, 34.9265, 49.6613, -12.2234, 95.0032, -60.5534, 40.8625
0.636, -1, 34.9402, 49.6401, -12.2491, 95.037, -60.4283, 40.9064
0.64, -1, 34.9539, 49.6189, -12.2748, 95.0709, -60.3034, 40.9503
0.644, -1, 34.9675, 49.5977, -12.3005, 95.1047, -60.1787, 40.9941
0.648, -1, 34.9812, 49.5765, -12.3261, 95.1384, -60.0541, 41.0379
0.652, -1, 34.9948, 49.5554, -12.3517, 95.1721, -59.9297, 41.0816
0.656, -1, 35.0084, 49.5343, -12.3772, 95.2058, -59.8055, 41.1252
0.66, -1, 35.022, 49.5132, -12.4028, 95.2394, -59.6814, 41.1688
0.664, -1, 35.0355, 49.4922, -12.4283, 95.273, -59.5575, 41.2124
0.668, -1, 35.0491, 49.4712, -12.4537, 95.3065, -59.4337, 41.2558
0.672, -1, 35.0626, 49.4502, -12.4791, 95.34, -59.3101, 41.2993
0.676, -1, 35.0761, 49.4292, -12.5045, 95.3734, -59.1867, 41.3426
0.68, -1, 35.0896, 49.4083, -12.5299, 95.4068, -59.0634, 41.3859
0.684, -1, 35.1031, 49.3874, -12.5552, 95.4401, -58.9403, 41.4292
0.688, -1, 35.1165, 49.3665, -12.5805, 95.4735, -58.8174, 41.4724
0.692, -1, 35.1299, 49.3456, -12.6058, 95.5067, -58.6946, 41.5155
0.696, -1, 35.1434, 49.3248, -12.631, 95.5399, -58.5719, 41.5586
0.7, -1, 35.1568, 49.304, -12.6562, 95.5731, -58.4495, 41.6017
0.704, -1, 35.1701, 49.2832, -12.6813, 95.6063, -58.3271, 41.6446
0.708, -1, 35.1835, 49.2625, -12.7065, 95.6394, -58.205, 41.6876
0.712, -1, 35.1969, 49.2417, -12.7316, 95.6724, -58.083, 41.7304
0.716, -1, 35.2102, 49.221, -12.7566, 95.7054, -57.9611, 41.7732
0.72, -1, 35.2235, 49.2004, -12.7817, 95.7384, -57.8394, 41.816
0.724, -1, 35.2368, 49.1797, -12.8067, 95.7713, -57.7178, 41.8587
0.728, -1, 35.2501, 49.1591, -12.8316, 95.8042, -57.5964, 41.9014
0.732, -1, 35.2634, 49.1385, -12.8566, 95.8371, -57.4752, 41.944
0.736, -1, 35.2766, 49.1179, -12.8815, 95.8699, -57.3541, 41.9865
0.74, -1, 35.2898, 49.0974, -12.9064, 95.9026, -57.2332, 42.029
0.744, -1, 35.3031, 49.0769, -12.9312, 95.9354, -57.1124, 42.0714
0.748, -1, 35.3163, 49.0564, -12.956, 95.968, -56.9917, 42.1138
0.752, -1, 35.3294, 49.0359, -12.9808, 96.0007, -56.8712, 42.1562
0.756, -1, 35.3426, 49.0155, -13.0056, 96.0333, -56.7509, 42.1984
0.76, -1, 35.3558, 48.9951, -13.0303, 96.0659, -56.6307, 42.2407
0.764, -1, 35.3689, 48.9747, -13.055, 96.0984, -56.5107, 42.2828
0.768, -1, 35.382, 48.9543, -13.0797, 96.1309, -56.3907, 42.325
0.772, -1, 35.3951, 48.934, -13.1043, 96.1633, -56.271, 42.3671
0.776, -1, 35.4082, 48.9137, -13.1289, 96.1957, -56.1514, 42.4091
0.78, -1, 35.4213, 48.8934, -13.1535, 96.2281, -56.0319, 42.451
0.784, -1, 35.4343, 48.8731, -13.178, 96.2604, -55.9126, 42.493
0.788, -1, 35.4474, 48.8528, -13.2025, 96.2927, -55.7934, 42.5348
0.792, -1, 35.4604, 48.8326, -13.227, 96.3249, -55.6744, 42.5767
0.796, -1, 35.4734, 48.8124, -13.2515, 96.3571, -55.5555, 42.6184
0.8, -1, 35.4864, 48.7923, -13.2759, 96.3893, -55.4367, 42.6602
0.804, -1, 35.4994, 48.7721, -13.3003, 96.4214, -55.3181, 42.7018
0.808, -1, 35.5124, 48.752, -13.3247, 96.4535, -55.1997, 42.7435
0.812, -1, 35.5253, 48.7319, -13.349, 96.4856, -55.0813, 42.785
0.816, -1, 35.5382, 48.7118, -13.3733, 96.5176, -54.9631, 42.8266
0.82, -1, 35.5512, 48.6918, -13.3976, 96.5496, -54.8451, 42.868
0.824, -1, 35.5641, 48.6717, -13.4219, 96.5816, -54.7272, 42.9095
0.828, -1, 35.577, 48.6517, -13.4461, 96.6134, -54.6094, 42.9508
0.832, -1, 35.5898, 48.6318, -13.4703, 96.6453, -54.4918, 42.9922
0.836, -1, 35.6027, 48.6118, -13.4944, 96.6772, -54.3743, 43.0335
0.84, -1, 35.6155, 48.5919, -13.5186, 96.709, -54.2569, 43.0747
0.844, -1, 35.6284, 48.5719, -13.5427, 96.7407, -54.1397, 43.1159
0.848, -1, 35.6412, 48.5521, -13.5668, 96.7724, -54.0226, 43.157
0.852, -1, 35.6539, 48.5322, -13.5909, 96.8041, -53.9056, 43.1981
0.856, -1, 35.6666, 48.5125, -13.6149, 96.8358, -53.7888, 43.2392
0.86, -1, 35.6791, 48.4928, -13.6389, 96.8674, -53.6721, 43.2802
0.864, -1, 35.6914, 48.4734, -13.6628, 96.8989, -53.5556, 43.3211
0.868, -1, 35.7035, 48.4543, -13.6867, 96.9304, -53.4394, 43.3619
0.872, -1, 35.7152, 48.4354, -13.7106, 96.9618, -53.3236, 43.4026
0.876, -1, 35.7267, 48.4169, -13.7343, 96.993, -53.2083, 43.4431
0.88, -1, 35.7378, 48.3988, -13.7579, 97.0241, -53.0937, 43.4834
0.884, -1, 35.7487, 48.3811, -13.7812, 97.0549, -52.9801, 43.5233
0.888, -1, 35.7593, 48.3638, -13.8043, 97.0853, -52.8677, 43.5628
0.892, -1, 35.7696, 48.347, -13.8271, 97.1153, -52.7571, 43.6017
0.896, -1, 35.7796, 48.3308, -13.8494, 97.1448, -52.6484, 43.6399
0.9, -1, 35.7891, 48.3154, -13.8713, 97.1735, -52.5423, 43.6772
0.904, -1, 35.7981, 48.3007, -13.8924, 97.2015, -52.4393, 43.7134
0.908, -1, 35.8067, 48.2868, -13.9129, 97.2284, -52.3399, 43.7484
0.912, -1, 35.8148, 48.2737, -13.9324, 97.2542, -52.2448, 43.7818
0.916, -1, 35.8225, 48.2613, -13.951, 97.2786, -52.1546, 43.8135
0.92, -1, 35.8299, 48.2495, -13.9684, 97.3016, -52.07, 43.8433
0.924, -1, 35.8369, 48.2384, -13.9846, 97.3229, -51.9913, 43.871
0.928, -1, 35.8436, 48.2277, -13.9994, 97.3424, -51.9192, 43.8963
0.932, -1, 35.8501, 48.2175, -14.0129, 97.3601, -51.8539, 43.9192
0.936, -1, 35.8564, 48.2078, -14.0248, 97.3759, -51.7957, 43.9397
0.94, -1, 35.8623, 48.1986, -14.0354, 97.3898, -51.7445, 43.9577
0.944, -1, 35.8681, 48.1898, -14.0445, 97.4018, -51.7003, 43.9732
0.948, -1, 35.8735, 48.1815, -14.0522, 97.4119, -51.6627, 43.9864
0.952, -1, 35.8787, 48.1738, -14.0587, 97.4204, -51.6314, 43.9974
0.956, -1, 35.8837, 48.1666, -14.0639, 97.4273, -51.6059, 44.0063
0.96, -1, 35.8884, 48.16, -14.0681, 97.4328, -51.5855, 44.0135
0.964, -1, 35.8928, 48.1539, -14.0714, 97.4371, -51.5697, 44.019
0.968, -1, 35.897, 48.1485, -14.0739, 97.4403, -51.5576, 44.0232
0.972, -1, 35.9008, 48.1437, -14.0757, 97.4427, -51.5487, 44.0263
0.976, -1, 35.9042, 48.1397, -14.077, 97.4444, -51.5423, 44.0285
0.98, 2, 35.9071, 48.1364, -14.078, 97.4456, -51.5377, 44.0301
0.984, 2, 35.9094, 48.1339, -14.0786, 97.4465, -51.5346, 44.0312
0.988, 2, 35.9112, 48.132, -14.0791, 97.4471, -51.5324, 44.0319
0.992, 2, 35.9124, 48.1306, -14.0794, 97.4475, -51.5309, 44.0325
0.996, 2, 35.9133, 48.1297, -14.0796, 97.4477, -51.5299, 44.0328
1, 2, 35.9139, 48.1291, -14.0797, 97.4479, -51.5293, 44.033
1.004, 2, 35.9143, 48.1287, -14.0798, 97.448, -51.5288, 44.0332
1.008, 2, 35.9146, 48.1284, -14.0799, 97.4481, -51.5285, 44.0333
1.012, 2, 35.9147, 48.1282, -14.0799, 97.4482, -51.5283, 44.0334
1.016, 2, 35.9149, 48.128, -14.08, 97.4482, -51.5281, 44.0334
1.02, 2, 35.915, 48.128, -14.08, 97.4482, -51.528, 44.0335
1.024, 2, 35.915, 48.1279, -14.08, 97.4482, -51.528, 44.0335
1.027, 2, 35.9151, 48.1279, -14.08, 97.4483, -51.5279, 44.0335
1.032, 2, 35.9151, 48.1278, -14.08, 97.4483, -51.5279, 44.0335
1.036, 2, 35.9151, 48.1278, -14.08, 97.4483, -51.5279, 44.0335
1.04, 2, 35.9151, 48.1278, -14.08, 97.4483, -51.5279, 44.0335
1.044, 2, 35.9151, 48.1278, -14.08, 97.4483, -51.5279, 44.0335
1.048, 2, 35.9151, 48.1278, -14.08, 97.4483, -51.5279, 44.0335
1.052, 2, 35.9151, 48.1278, -14.08, 97.4483, -51.5279, 44.0335
1.055, 2, 35.9151, 48.1278, -14.08, 97.4483, -51.5278, 44.0335
1.06, 2, 35.9151, 48.1278, -14.08, 97.4483, -51.5278, 44.0335
1.064, 2, 35.9151, 48.1278, -14.08, 97.4483, -51.5278, 44.0335
1.068, 2, 35.9151, 48.1278, -14.08, 97.4483, -51.5278, 44.0335
1.072, 2, 35.9151, 48.1278, -14.08, 97.4483, -51.5278, 44.0335
1.076, 2, 35.9151, 48.1278, -14.08, 97.4483, -51.5278, 44.0335
1.08, 2, 35.9151, 48.1278, -14.08, 97.4483, -51.5278, 44.0335
1.084, 2, 35.9151, 48.1278, -14.08, 97.4483, -51.5278, 44.0335
1.088, 2, 35.9151, 48.1278, -14.08, 97.4483, -51.5278, 44.0335
1.091, 2, 35.9151, 48.1278, -14.08, 97.4483, -51.5278, 44.0335
1.096, 2, 35.9151, 48.1278, -14.08, 97.4483, -51.5278, 44.0335
1.1, 2, 35.9151, 48.1278, -14.08, 97.4483, -51.5278, 44.0335
1.104, 2, 35.9151, 48.1278, -14.08, 97.4483, -51.5278, 44.0335
1.108, 2, 35.9151, 48.1278, -14.08, 97.4483, -51.5278, 44.0335
1.112, 2, 35.9151, 48.1278, -14.08, 97.4483, -51.5278, 44.0335
1.116, 2, 35.9151, 48.1278, -14.08, 97.4483, -51.5278, 44.0335
1.119, 2, 35.9151, 48.1278, -14.08, 97.4483, -51.5278, 44.0335
1.124, 2, 35.9151, 48.1278, -14.08, 97.4483, -51.5278, 44.0335
1.128, 2, 35.9151, 48.1278, -14.08, 97.4483, -51.5278, 44.0335
1.132, 2, 35.9151, 48.1278, -14.08, 97.4483, -51.5278, 44.0335
1.136, 2, 35.9151, 48.1278, -14.08, 97.4483, -51.5278, 44.0335
1.14, 2, 35.9151, 48.1278, -14.08, 97.4483, -51.5278, 44.0335
1.144, 2, 35.9151, 48.1278, -14.08, 97.4483, -51.5278, 44.0335
1.147, 2, 35.9151, 48.1278, -14.08, 97.4483, -51.5278, 44.0335
1.152, 2, 35.9151, 48.1278, -14.08, 97.4483, -51.5278, 44.0335
1.156, 2, 35.9151, 48.1278, -14.08, 97.4483, -51.5278, 44.0335
1.16, 2, 35.9151, 48.1278, -14.08, 97.4483, -51.5278, 44.0335
1.164, 2, 35.9151, 48.1278, -14.08, 97.4483, -51.5278, 44.0335
1.168, 2, 35.9151, 48.1278, -14.08, 97.4483, -51.5278, 44.0335
1.172, 2, 35.9151, 48.1278, -14.08, 97.4483, -51.5278, 44.0335
1.175, 2, 35.9151, 48.1278, -14.08, 97.4483, -51.5278, 44.0335
1.18, 2, 35.9151, 48.1278, -14.08, 97.4483, -51.5278, 44.0335
1.184, 2, 35.9151, 48.1278, -14.08, 97.4483, -51.5278, 44.0335
1.188, 2, 35.9151, 48.1278, -14.08, 97.4483, -51.5278, 44.0335
1.192, 2, 35.9151, 48.1278, -14.08, 97.4483, -51.5278, 44.0335
1.196, 2, 35.9151, 48.1278, -14.08, 97.4483, -51.5278, 44.0335
1.2, 2, 35.9151, 48.1278, -14.08, 97.4483, -51.5278, 44.0335
1.204, 2, 35.9151, 48.1278, -14.08, 97.4483, -51.5278, 44.0335
1.208, 2, 35.9151, 48.1278, -14.08, 97.4483, -51.5278, 44.0335
1.212, 2, 35.9151, 48.1278, -14.08, 97.4483, -51.5278, 44.0335
1.216, 2, 35.9151, 48.1278, -14.08, 97.4483, -51.5278, 44.0335
1.22, 2, 35.9151, 48.1278, -14.08, 97.4483, -51.5278, 44.0335
1.224, 2, 35.9151, 48.1278, -14.08, 97.4483, -51.5278, 44.0335
1.228, 2, 35.9151, 48.1278, -14.08, 97.4483, -51.5278, 44.0335
1.232, 2, 35.9151, 48.1278, -14.08, 97.4483, -51.5278, 44.0335
1.236, 2, 35.9151, 48.1278, -14.08, 97.4483, -51.5278, 44.0335
1.24, 2, 35.9151, 48.1278, -14.08, 97.4483, -51.5278, 44.0335
1.244, 2, 35.9151, 48.1278, -14.08, 97.4483, -51.5278, 44.0335
1.248, 2, 35.9151, 48.1278, -14.08, 97.4483, -51.5278, 44.0335
1.252, 2, 35.9151, 48.1278, -14.08, 97.4483, -51.5278, 44.0335
1.256, 2, 35.9151, 48.1278, -14.08, 97.4483, -51.5278, 44.0335
1.26, 2, 35.9151, 48.1278, -14.08, 97.4483, -51.5278, 44.0335
1.264, 2, 35.9151, 48.1278, -14.08, 97.4483, -51.5278, 44.0335
1.267, 2, 35.9151, 48.1278, -14.08, 97.4483, -51.5278, 44.0335
1.272, 2, 35.9151, 48.1278, -14.08, 97.4483, -51.5278, 44.0335
1.276, 2, 35.9151, 48.1278, -14.08, 97.4483, -51.5278, 44.0335
1.28, 2, 35.9151, 48.1278, -14.08, 97.4483, -51.5278, 44.0335
1.284, 2, 35.9151, 48.1278, -14.08, 97.4483, -51.5278, 44.0335
1.288, 2, 35.9151, 48.1278, -14.08, 97.4483, -51.5278, 44.0335
1.292, 2, 35.9151, 48.1278, -14.08, 97.4483, -51.5278, 44.0335
1.295, 2, 35.9151, 48.1278, -14.08, 97.4483, -51.5278, 44.0335
1.3, 2, 35.9151, 48.1278, -14.08, 97.4483, -51.5278, 44.0335
1.304, 2, 35.9151, 48.1278, -14.08, 97.4483, -51.5278, 44.0335
1.308, 2, 35.9151, 48.1278, -14.08, 97.4483, -51.5278, 44.0335
1.312, 2, 35.9151, 48.1278, -14.08, 97.4483, -51.5278, 44.0335
1.316, 2, 35.9151, 48.1278, -14.08, 97.4483, -51.5278, 44.0335
1.32, 2, 35.9151, 48.1278, -14.08, 97.4483, -51.5278, 44.0335
1.324, 2, 35.9151, 48.1278, -14.08, 97.4483, -51.5278, 44.0335
1.328, 2, 35.9151, 48.1278, -14.08, 97.4483, -51.5278, 44.0335
1.332, 2, 35.9151, 48.1278, -14.08, 97.4483, -51.5278, 44.0335
1.336, 2, 35.9151, 48.1278, -14.08, 97.4483, -51.5278, 44.0335
1.34, 2, 35.9151, 48.1278, -14.08, 97.4483, -51.5278, 44.0335
1.344, 2, 35.9151, 48.1278, -14.08, 97.4483, -51.5278, 44.0335
1.348, 2, 35.9151, 48.1278, -14.08, 97.4483, -51.5278, 44.0335
1.352, 2, 35.9151, 48.1278, -14.08, 97.4483, -51.5278, 44.0335
1.356, 2, 35.9151, 48.1278, -14.08, 97.4483, -51.5278, 44.0335
1.36, 2, 35.9151, 48.1278, -14.08, 97.4483, -51.5278, 44.0335
1.364, 2, 35.9151, 48.1278, -14.08, 97.4483, -51.5278, 44.0335
1.368, 2, 35.9151, 48.1278, -14.08, 97.4483, -51.5278, 44.0335
1.372, 2, 35.9151, 48.1278, -14.08, 97.4483, -51.5278, 44.0335
1.376, 2, 35.9151, 48.1278, -14.08, 97.4483, -51.5278, 44.0335
1.38, 2, 35.9151, 48.1278, -14.08, 97.4483, -51.5278, 44.0335
1.384, 2, 35.9151, 48.1278, -14.08, 97.4483, -51.5278, 44.0335
1.388, 2, 35.9151, 48.1278, -14.08, 97.4483, -51.5278, 44.0335
1.392, 2, 35.9151, 48.1278, -14.08, 97.4483, -51.5278, 44.0335
1.396, 2, 35.9151, 48.1278, -14.08, 97.4483, -51.5278, 44.0335
1.4, 2, 35.9151, 48.1278, -14.08, 97.4483, -51.5278, 44.0335
1.404, 2, 35.9151, 48.1278, -14.08, 97.4483, -51.5278, 44.0335
1.408, 2, 35.9151, 48.1278, -14.08, 97.4483, -51.5278, 44.0335
1.412, 2, 35.9151, 48.1278, -14.08, 97.4483, -51.5278, 44.0335
1.416, 2, 35.9151, 48.1278, -14.08, 97.4483, -51.5278, 44.0335
1.42, 2, 35.9151, 48.1278, -14.08, 97.4483, -51.5278, 44.0335
1.424, 2, 35.9151, 48.1278, -14.08, 97.4483, -51.5278, 44.0335
1.428, 2, 35.9151, 48.1278, -14.08, 97.4483, -51.5278, 44.0335
1.432, 2, 35.9151, 48.1278, -14.08, 97.4483, -51.5278, 44.0335
1.436, 2, 35.9151, 48.1278, -14.08, 97.4483, -51.5278, 44.0335
1.44, 2, 35.9151, 48.1278, -14.08, 97.4483, -51.5278, 44.0335
1.444, 2, 35.9151, 48.1278, -14.08, 97.4483, -51.5278, 44.0335
1.448, 2, 35.9151, 48.1278, -14.08, 97.4483, -51.5278, 44.0335
1.452, 2, 35.9151, 48.1278, -14.08, 97.4483, -51.5278, 44.0335
1.456, 2, 35.9151, 48.1278, -14.08, 97.4483, -51.5278, 44.0335
1.46, 2, 35.9151, 48.1278, -14.08, 97.4483, -51.5278, 44.0335
1.464, 2, 35.9151, 48.1278, -14.08, 97.4483, -51.5278, 44.0335
1.468, 2, 35.9151, 48.1278, -14.08, 97.4483, -51.5278, 44.0335
1.472, 2, 35.9151, 48.1278, -14.08, 97.4483, -51.5278, 44.0335
1.476, 2, 35.9151, 48.1278, -14.08, 97.4483, -51.5278, 44.0335
1.48, 2, 35.9151, 48.1278, -14.08, 97.4483, -51.5278, 44.0335
1.484, 2, 35.9151, 48.1278, -14.08, 97.4483, -51.5278, 44.0335
1.488, 2, 35.9151, 48.1278, -14.08, 97.4483, -51.5278, 44.0335
1.492, 2, 35.9151, 48.1278, -14.08, 97.4483, -51.5278, 44.0335
1.496, 2, 35.9151, 48.1278, -14.08, 97.4483, -51.5278, 44.0335
1.5, 2, 35.9151, 48.1278, -14.08, 97.4483, -51.5278, 44.0335
1.504, 2, 35.9151, 48.1278, -14.08, 97.4483, -51.5278, 44.0335
1.508, 2, 35.9151, 48.1278, -14.08, 97.4483, -51.5278, 44.0335
1.512, 2, 35.9151, 48.1278, -14.08, 97.4483, -51.5278, 44.0335
1.516, 2, 35.9151, 48.1278, -14.08, 97.4483, -51.5278, 44.0335
1.52, 2, 35.9151, 48.1278, -14.08, 97.4483, -51.5278, 44.0335
1.524, 2, 35.9151, 48.1278, -14.08, 97.4483, -51.5278, 44.0335
1.528, 2, 35.9151, 48.1278, -14.08, 97.4483, -51.5278, 44.0335
1.532, 2, 35.9151, 48.1278, -14.08, 97.4483, -51.5278, 44.0335
1.536, 2, 35.9151, 48.1278, -14.08, 97.4483, -51.5278, 44.0335
1.54, 2, 35.9151, 48.1278, -14.08, 97.4483, -51.5278, 44.0335
1.544, 2, 35.9151, 48.1278, -14.08, 97.4483, -51.5278, 44.0335
1.548, 2, 35.9151, 48.1278, -14.08, 97.4483, -51.5278, 44.0335
1.552, 2, 35.9151, 48.1278, -14.08, 97.4483, -51.5278, 44.0335
1.556, 2, 35.9151, 48.1278, -14.08, 97.4483, -51.5278, 44.0335
1.56, 2, 35.9151, 48.1278, -14.08, 97.4483, -51.5278, 44.0335
1.564, 2, 35.9151, 48.1278, -14.08, 97.4483, -51.5278, 44.0335
1.568, 2, 35.9151, 48.1278, -14.08, 97.4483, -51.5278, 44.0335
1.572, 2, 35.9151, 48.1278, -14.08, 97.4483, -51.5278, 44.0335
1.576, 2, 35.9151, 48.1278, -14.08, 97.4483, -51.5278, 44.0335
1.58, 2, 35.9151, 48.1278, -14.08, 97.4483, -51.5278, 44.0335
1.584, 2, 35.9151, 48.1278, -14.08, 97.4483, -51.5278, 44.0335
1.588, 2, 35.9151, 48.1278, -14.08, 97.4483, -51.5278, 44.0335
1.592, 2, 35.9151, 48.1278, -14.08, 97.4483, -51.5278, 44.0335
1.596, 2, 35.9151, 48.1278, -14.08, 97.4483, -51.5278, 44.0335
1.6, 2, 35.9151, 48.1278, -14.08, 97.4483, -51.5278, 44.0335
1.604, 2, 35.9151, 48.1278, -14.08, 97.4483, -51.5278, 44.0335
1.608, 2, 35.9151, 48.1278, -14.08, 97.4483, -51.5278, 44.0335
1.612, 2, 35.9151, 48.1278, -14.08, 97.4483, -51.5278, 44.0335
1.616, 2, 35.9151, 48.1278, -14.08, 97.4483, -51.5278, 44.0335
1.62, 2, 35.9151, 48.1278, -14.08, 97.4483, -51.5278, 44.0335
1.624, 2, 35.9151, 48.1278, -14.08, 97.4483, -51.5278, 44.0335
1.628, 2, 35.9151, 48.1278, -14.08, 97.4483, -51.5278, 44.0335
1.632, 2, 35.9151, 48.1278, -14.08, 97.4483, -51.5278, 44.0335
1.636, 2, 35.9151, 48.1278, -14.08, 97.4483, -51.5278, 44.0335
1.64, 2, 35.9151, 48.1278, -14.08, 97.4483, -51.5278, 44.0335
1.644, 2, 35.9151, 48.1278, -14.08, 97.4483, -51.5278, 44.0335
1.648, 2, 35.9151, 48.1278, -14.08, 97.4483, -51.5278, 44.0335
1.652, 2, 35.9151, 48.1278, -14.08, 97.4483, -51.5278, 44.0335
1.656, 2, 35.9151, 48.1278, -14.08, 97.4483, -51.5278, 44.0335
1.66, 2, 35.9151, 48.1278, -14.08, 97.4483, -51.5278, 44.0335
1.664, 2, 35.9151, 48.1278, -14.08, 97.4483, -51.5278, 44.0335
1.668, 2, 35.9151, 48.1278, -14.08, 97.4483, -51.5278, 44.0335
1.672, 2, 35.9151, 48.1278, -14.08, 97.4483, -51.5278, 44.0335
1.676, 2, 35.9151, 48.1278, -14.08, 97.4483, -51.5278, 44.0335
1.68, 2, 35.9151, 48.1278, -14.08, 97.4483, -51.5278, 44.0335
1.684, 2, 35.9151, 48.1278, -14.08, 97.4483, -51.5278, 44.0335
1.688, 2, 35.9151, 48.1278, -14.08, 97.4483, -51.5278, 44.0335
1.692, 2, 35.9151, 48.1278, -14.08, 97.4483, -51.5278, 44.0335
1.696, 2, 35.9151, 48.1278, -14.08, 97.4483, -51.5278, 44.0335
1.7, 2, 35.9151, 48.1278, -14.08, 97.4483, -51.5278, 44.0335
1.704, 2, 35.9151, 48.1278, -14.08, 97.4483, -51.5278, 44.0335
1.708, 2, 35.9151, 48.1278, -14.08, 97.4483, -51.5278, 44.0335
1.712, 2, 35.9151, 48.1278, -14.08, 97.4483, -51.5278, 44.0335
1.716, 2, 35.9151, 48.1278, -14.08, 97.4483, -51.5278, 44.0335
1.72, 2, 35.9151, 48.1278, -14.08, 97.4483, -51.5278, 44.0335
1.724, 2, 35.9151, 48.1278, -14.08, 97.4483, -51.5278, 44.0335
1.728, 2, 35.9151, 48.1278, -14.08, 97.4483, -51.5278, 44.0335
1.732, 2, 35.9151, 48.1278, -14.08, 97.4483, -51.5278, 44.0335
1.736, 2, 35.9151, 48.1278, -14.08, 97.4483, -51.5278, 44.0335
1.74, 2, 35.9151, 48.1278, -14.08, 97.4483, -51.5278, 44.0335
1.744, 2, 35.9151, 48.1278, -14.08, 97.4483, -51.5278, 44.0335
1.748, 2, 35.9151, 48.1278, -14.08, 97.4483, -51.5278, 44.0335
1.752, 2, 35.9151, 48.1278, -14.08, 97.4483, -51.5278, 44.0335
1.756, 2, 35.9151, 48.1278, -14.08, 97.4483, -51.5278, 44.0335
1.76, 2, 35.9151, 48.1278, -14.08, 97.4483, -51.5278, 44.0335
1.764, 2, 35.9151, 48.1278, -14.08, 97.4483, -51.5278, 44.0335
1.768, 2, 35.9151, 48.1278, -14.08, 97.4483, -51.5278, 44.0335
1.772, 2, 35.9151, 48.1278, -14.08, 97.4483, -51.5278, 44.0335
1.776, 2, 35.9151, 48.1278, -14.08, 97.4483, -51.5278, 44.0335
1.78, 2, 35.9151, 48.1278, -14.08, 97.4483, -51.5278, 44.0335
1.784, 2, 35.9151, 48.1278, -14.08, 97.4483, -51.5278, 44.0335
1.788, 2, 35.9151, 48.1278, -14.08, 97.4483, -51.5278, 44.0335
1.792, 2, 35.9151, 48.1278, -14.08, 97.4483, -51.5278, 44.0335
1.796, 2, 35.9151, 48.1278, -14.08, 97.4483, -51.5278, 44.0335
1.8, 2, 35.9151, 48.1278, -14.08, 97.4483, -51.5278, 44.0335
1.804, 2, 35.9151, 48.1278, -14.08, 97.4483, -51.5278, 44.0335
1.808, 2, 35.9151, 48.1278, -14.08, 97.4483, -51.5278, 44.0335
1.812, 2, 35.9151, 48.1278, -14.08, 97.4483, -51.5278, 44.0335
1.816, 2, 35.9151, 48.1278, -14.08, 97.4483, -51.5278, 44.0335
1.82, 2, 35.9151, 48.1278, -14.08, 97.4483, -51.5278, 44.0335
1.824, 2, 35.9151, 48.1278, -14.08, 97.4483, -51.5278, 44.0335
1.828, 2, 35.9151, 48.1278, -14.08, 97.4483, -51.5278, 44.0335
1.832, 2, 35.9151, 48.1278, -14.08, 97.4483, -51.5278, 44.0335
1.836, 2, 35.9151, 48.1278, -14.08, 97.4483, -51.5278, 44.0335
1.84, 2, 35.9151, 48.1278, -14.08, 97.4483, -51.5278, 44.0335
1.844, 2, 35.9151, 48.1278, -14.08, 97.4483, -51.5278, 44.0335
1.848, 2, 35.9151, 48.1278, -14.08, 97.4483, -51.5278, 44.0335
1.852, 2, 35.9151, 48.1278, -14.08, 97.4483, -51.5278, 44.0335
1.856, 2, 35.9151, 48.1278, -14.08, 97.4483, -51.5278, 44.0335
1.86, 2, 35.9151, 48.1278, -14.08, 97.4483, -51.5278, 44.0335
1.864, 2, 35.9151, 48.1278, -14.08, 97.4483, -51.5278, 44.0335
1.868, 2, 35.9151, 48.1278, -14.08, 97.4483, -51.5278, 44.0335
1.872, 2, 35.9151, 48.1278, -14.08, 97.4483, -51.5278, 44.0335
1.876, 2, 35.9151, 48.1278, -14.08, 97.4483, -51.5278, 44.0335
1.88, 2, 35.9151, 48.1278, -14.08, 97.4483, -51.5278, 44.0335
1.884, 2, 35.9151, 48.1278, -14.08, 97.4483, -51.5278, 44.0335
1.888, 2, 35.9151, 48.1278, -14.08, 97.4483, -51.5278, 44.0335
1.892, 2, 35.9151, 48.1278, -14.08, 97.4483, -51.5278, 44.0335
1.896, 2, 35.9151, 48.1278, -14.08, 97.4483, -51.5278, 44.0335
1.9, 2, 35.9151, 48.1278, -14.08, 97.4483, -51.5278, 44.0335
1.904, 2, 35.9151, 48.1278, -14.08, 97.4483, -51.5278, 44.0335
1.908, 2, 35.9151, 48.1278, -14.08, 97.4483, -51.5278, 44.0335
1.912, 2, 35.9151, 48.1278, -14.08, 97.4483, -51.5278, 44.0335
1.916, 2, 35.9151, 48.1278, -14.08, 97.4483, -51.5278, 44.0335
1.92, 2, 35.9151, 48.1278, -14.08, 97.4483, -51.5278, 44.0335
1.924, 2, 35.9151, 48.1278, -14.08, 97.4483, -51.5278, 44.0335
1.928, 2, 35.9151, 48.1278, -14.08, 97.4483, -51.5278, 44.0335
1.932, 2, 35.9151, 48.1278, -14.08, 97.4483, -51.5278, 44.0335
1.936, 2, 35.9151, 48.1278, -14.08, 97.4483, -51.5278, 44.0335
1.94, 2, 35.9151, 48.1278, -14.08, 97.4483, -51.5278, 44.0335
1.944, 2, 35.9151, 48.1278, -14.08, 97.4483, -51.5278, 44.0335
1.948, 2, 35.9151, 48.1278, -14.08, 97.4483, -51.5278, 44.0335
1.952, 2, 35.9151, 48.1278, -14.08, 97.4483, -51.5278, 44.0335
1.956, 2, 35.9151, 48.1278, -14.08, 97.4483, -51.5278, 44.0335
1.96, 2, 35.9151, 48.1278, -14.08, 97.4483, -51.5278, 44.0335
1.964, 2, 35.9151, 48.1278, -14.08, 97.4483, -51.5278, 44.0335
1.968, 2, 35.9151, 48.1278, -14.08, 97.4483, -51.5278, 44.0335
1.972, 2, 35.9151, 48.1278, -14.08, 97.4483, -51.5278, 44.0335
1.976, 2, 35.9151, 48.1278, -14.08, 97.4483, -51.5278, 44.0335
1.98, 2, 35.9151, 48.1278, -14.08, 97.4483, -51.5278, 44.0335
1.984, 2, 35.9151, 48.1278, -14.08, 97.4483, -51.5278, 44.0335
1.988, 2, 35.9151, 48.1278, -14.08, 97.4483, -51.5278, 44.0335
1.992, 2, 35.9151, 48.1278, -14.08, 97.4483, -51.5278, 44.0335
1.996, 2, 35.9151, 48.1278, -14.08, 97.4483, -51.5278, 44.0335
1.999, 2, 35.9151, 48.1278, -14.08, 97.4483, -51.5278, 44.0335
2.004, 2, 35.9151, 48.1278, -14.08, 97.4483, -51.5278, 44.0335
2.008, 2, 35.9151, 48.1278, -14.08, 97.4483, -51.5278, 44.0335
2.012, 2, 35.9151, 48.1278, -14.08, 97.4483, -51.5278, 44.0335
2.015, 2, 35.9151, 48.1278, -14.08, 97.4483, -51.5278, 44.0335
2.019, 2, 35.9151, 48.1278, -14.08, 97.4483, -51.5278, 44.0335
2.024, 2, 35.9151, 48.1278, -14.08, 97.4483, -51.5278, 44.0335
2.028, 2, 35.9151, 48.1278, -14.08, 97.4483, -51.5278, 44.0335
2.031, 2, 35.9151, 48.1278, -14.08, 97.4483, -51.5278, 44.0335
2.036, 4, 35.9151, 48.1278, -14.08, 97.4483, -51.5278, 44.0335
2.04, 4, 35.9151, 48.1278, -14.08, 97.4483, -51.5278, 44.0335
2.044, 4, 35.9151, 48.1278, -14.08, 97.4483, -51.5278, 44.0335
2.048, 4, 35.9151, 48.1278, -14.08, 97.4483, -51.5278, 44.0335
2.051, 4, 35.9151, 48.1278, -14.08, 97.4483, -51.5278, 44.0335
2.055, 4, 35.9151, 48.1278, -14.08, 97.4483, -51.5278, 44.0335
2.06, 4, 35.9151, 48.1278, -14.08, 97.4483, -51.5278, 44.0335
2.064, 4, 35.9151, 48.1278, -14.08, 97.4483, -51.5278, 44.0335
2.068, 4, 35.9151, 48.1278, -14.08, 97.4483, -51.5278, 44.0335
2.071, 4, 35.9151, 48.1278, -14.08, 97.4483, -51.5278, 44.0335
2.076, 4, 35.9151, 48.1278, -14.08, 97.4483, -51.5278, 44.0335
2.08, 4, 35.9151, 48.1278, -14.08, 97.4483, -51.5278, 44.0335
2.084, 4, 35.9151, 48.1278, -14.08, 97.4483, -51.5278, 44.0335
2.087, 4, 35.9151, 48.1278, -14.08, 97.4483, -51.5278, 44.0335
2.092, 4, 35.9151, 48.1278, -14.08, 97.4483, -51.5278, 44.0335
2.096, 4, 35.9151, 48.1278, -14.08, 97.4483, -51.5278, 44.0335
2.1, 4, 35.9151, 48.1278, -14.08, 97.4483, -51.5278, 44.0335
2.104, 4, 35.9151, 48.1278, -14.08, 97.4483, -51.5278, 44.0335
2.107, 4, 35.9151, 48.1278, -14.08, 97.4483, -51.5278, 44.0335
2.111, 4, 35.9151, 48.1278, -14.08, 97.4483, -51.5278, 44.0335
2.116, 4, 35.9151, 48.1278, -14.08, 97.4483, -51.5278, 44.0335
2.12, 4, 35.9151, 48.1278, -14.08, 97.4483, -51.5278, 44.0335
2.124, 4, 35.9151, 48.1278, -14.08, 97.4483, -51.5278, 44.0335
2.127, 4, 35.9151, 48.1278, -14.08, 97.4483, -51.5278, 44.0335
2.132, 4, 35.9151, 48.1278, -14.08, 97.4483, -51.5278, 44.0335
2.136, 4, 35.9151, 48.1278, -14.08, 97.4483, -51.5278, 44.0335
2.14, 4, 35.9151, 48.1278, -14.08, 97.4483, -51.5278, 44.0335
2.143, 4, 35.9151, 48.1278, -14.08, 97.4483, -51.5278, 44.0335
2.148, 4, 35.9151, 48.1278, -14.08, 97.4483, -51.5278, 44.0335
2.152, 4, 35.9151, 48.1278, -14.08, 97.4483, -51.5278, 44.0335
2.156, 4, 35.9151, 48.1278, -14.08, 97.4483, -51.5278, 44.0335
2.16, 4, 35.9151, 48.1278, -14.08, 97.4483, -51.5278, 44.0335
2.163, 4, 35.9151, 48.1278, -14.08, 97.4483, -51.5278, 44.0335
2.168, 4, 35.9151, 48.1278, -14.08, 97.4483, -51.5278, 44.0335
2.172, 4, 35.9151, 48.1278, -14.08, 97.4483, -51.5278, 44.0335
2.176, 4, 35.9151, 48.128, -14.08, 97.4483, -51.5279, 44.0335
2.179, 4, 35.915, 48.1283, -14.0801, 97.4483, -51.5279, 44.0335
2.184, 4, 35.9147, 48.1291, -14.0801, 97.4483, -51.528, 44.0334
2.188, 4, 35.9143, 48.1303, -14.0802, 97.4483, -51.5284, 44.0332
2.192, 4, 35.9138, 48.1322, -14.0804, 97.4484, -51.5291, 44.0327
2.196, 4, 35.913, 48.1348, -14.0806, 97.4485, -51.5305, 44.0319
2.199, 4, 35.912, 48.1382, -14.0811, 97.4487, -51.5328, 44.0304
2.204, 4, 35.9109, 48.1424, -14.0817, 97.449, -51.5366, 44.0281
2.208, 5, 35.9096, 48.1475, -14.0827, 97.4495, -51.5423, 44.0246
2.212, 5, 35.9083, 48.1536, -14.084, 97.4501, -51.5505, 44.0195
2.216, 5, 35.9068, 48.1609, -14.0858, 97.4509, -51.5618, 44.0125
2.219, 5, 35.9052, 48.1693, -14.088, 97.4521, -51.5767, 44.0033
2.224, 5, 35.9036, 48.1789, -14.0909, 97.4535, -51.596, 43.9914
2.228, 5, 35.902, 48.1898, -14.0945, 97.4552, -51.6202, 43.9765
2.232, 5, 35.9005, 48.2017, -14.0988, 97.4574, -51.6499, 43.9581
2.235, 5, 35.899, 48.2147, -14.1039, 97.4599, -51.6855, 43.9362
2.24, 5, 35.8976, 48.2287, -14.1097, 97.4628, -51.7273, 43.9105
2.244, 5, 35.8964, 48.2436, -14.1165, 97.4661, -51.7754, 43.881
2.248, 5, 35.8952, 48.2596, -14.124, 97.4697, -51.8297, 43.8476
2.252, 5, 35.8941, 48.2767, -14.1323, 97.4738, -51.8901, 43.8106
2.255, 5, 35.8929, 48.295, -14.1413, 97.4781, -51.9562, 43.7701
2.259, 5, 35.8918, 48.3146, -14.151, 97.4826, -52.0275, 43.7265
2.264, 5, 35.8907, 48.3353, -14.1613, 97.4874, -52.1035, 43.6801
2.268, 5, 35.8895, 48.3571, -14.1721, 97.4923, -52.1836, 43.6313
2.272, 5, 35.8882, 48.3799, -14.1833, 97.4973, -52.2672, 43.5804
2.275, 5, 35.8868, 48.4037, -14.1949, 97.5024, -52.3537, 43.5278
2.28, 5, 35.8853, 48.4286, -14.2067, 97.5074, -52.4425, 43.4739
2.284, 5, 35.8836, 48.4543, -14.2187, 97.5125, -52.533, 43.4191
2.288, 5, 35.8817, 48.4809, -14.2308, 97.5174, -52.6249, 43.3635
2.291, 5, 35.8796, 48.5083, -14.243, 97.5222, -52.7177, 43.3075
2.296, 5, 35.8773, 48.5364, -14.2552, 97.5269, -52.8112, 43.2513
2.3, 5, 35.8748, 48.565, -14.2674, 97.5314, -52.9051, 43.1948
2.304, 5, 35.8722, 48.5939, -14.2795, 97.5358, -52.9993, 43.1384
2.308, 5, 35.8695, 48.623, -14.2916, 97.5401, -53.0936, 43.0819
2.311, 5, 35.8667, 48.6523, -14.3036, 97.5441, -53.1881, 43.0255
2.316, 5, 35.8639, 48.6816, -14.3156, 97.548, -53.2827, 42.9691
2.32, 5, 35.861, 48.711, -14.3274, 97.5517, -53.3773, 42.9128
2.324, 5, 35.858, 48.7404, -14.3392, 97.5552, -53.4719, 42.8567
2.328, 5, 35.8551, 48.7697, -14.3509, 97.5586, -53.5665, 42.8007
2.331, 5, 35.852, 48.7991, -14.3625, 97.5617, -53.6611, 42.7448
2.336, 5, 35.849, 48.8284, -14.3739, 97.5647, -53.7556, 42.689
2.34, 5, 35.8459, 48.8576, -14.3853, 97.5676, -53.8502, 42.6333
2.344, 5, 35.8428, 48.8869, -14.3966, 97.5702, -53.9447, 42.5778
2.347, 5, 35.8396, 48.916, -14.4078, 97.5726, -54.0393, 42.5224
2.352, 5, 35.8364, 48.9452, -14.4189, 97.5749, -54.1338, 42.4671
2.356, 5, 35.8332, 48.9742, -14.4299, 97.577, -54.2282, 42.4119
2.36, 5, 35.8299, 49.0033, -14.4408, 97.579, -54.3226, 42.3569
2.364, 5, 35.8266, 49.0322, -14.4516, 97.5807, -54.417, 42.302
2.367, 5, 35.8233, 49.0612, -14.4623, 97.5823, -54.5114, 42.2472
2.372, 5, 35.8199, 49.09, -14.4728, 97.5837, -54.6057, 42.1926
2.376, 5, 35.8165, 49.1189, -14.4833, 97.585, -54.7001, 42.1381
2.38, 5, 35.8131, 49.1476, -14.4937, 97.5861, -54.7943, 42.0837
2.383, 5, 35.8097, 49.1763, -14.504, 97.587, -54.8886, 42.0294
2.388, 5, 35.8062, 49.205, -14.5142, 97.5877, -54.9828, 41.9752
2.392, 5, 35.8027, 49.2336, -14.5243, 97.5883, -55.077, 41.9212
2.396, 5, 35.7991, 49.2622, -14.5343, 97.5887, -55.1711, 41.8673
2.4, 5, 35.7955, 49.2907, -14.5441, 97.5889, -55.2653, 41.8135
2.403, 5, 35.7919, 49.3191, -14.5539, 97.589, -55.3594, 41.7598
2.408, 5, 35.7883, 49.3475, -14.5636, 97.5889, -55.4534, 41.7063
2.412, 5, 35.7846, 49.3759, -14.5732, 97.5886, -55.5475, 41.6528
2.416, 5, 35.7809, 49.4042, -14.5826, 97.5882, -55.6415, 41.5995
2.42, 5, 35.7771, 49.4324, -14.592, 97.5877, -55.7354, 41.5463
2.423, 5, 35.7733, 49.4606, -14.6013, 97.5869, -55.8294, 41.4932
2.428, 5, 35.7695, 49.4887, -14.6105, 97.586, -55.9233, 41.4402
2.432, 5, 35.7657, 49.5168, -14.6195, 97.5849, -56.0172, 41.3874
2.436, 5, 35.7618, 49.5448, -14.6285, 97.5837, -56.111, 41.3346
2.439, 5, 35.7579, 49.5727, -14.6373, 97.5823, -56.2048, 41.282
2.444, 5, 35.754, 49.6006, -14.6461, 97.5808, -56.2986, 41.2294
2.448, 5, 35.75, 49.6285, -14.6547, 97.5791, -56.3924, 41.177
2.452, 5, 35.746, 49.6563, -14.6633, 97.5773, -56.4861, 41.1247
2.456, 5, 35.742, 49.684, -14.6717, 97.5753, -56.5798, 41.0725
2.459, 5, 35.7379, 49.7117, -14.6801, 97.5731, -56.6734, 41.0204
2.464, 5, 35.7338, 49.7393, -14.6883, 97.5708, -56.7671, 40.9684
2.468, 5, 35.7297, 49.7669, -14.6965, 97.5683, -56.8607, 40.9165
2.472, 5, 35.7256, 49.7944, -14.7045, 97.5657, -56.9542, 40.8648
2.476, 5, 35.7214, 49.8219, -14.7124, 97.5629, -57.0478, 40.8131
2.479, 5, 35.7172, 49.8493, -14.7203, 97.56, -57.1413, 40.7615
2.484, 5, 35.7129, 49.8767, -14.728, 97.5569, -57.2347, 40.7101
2.488, 5, 35.7086, 49.904, -14.7356, 97.5537, -57.3282, 40.6587
2.492, 5, 35.7043, 49.9312, -14.7432, 97.5503, -57.4216, 40.6074
2.495, 5, 35.7, 49.9584, -14.7506, 97.5468, -57.515, 40.5563
2.5, 5, 35.6956, 49.9855, -14.7579, 97.5431, -57.6083, 40.5052
2.504, 5, 35.6912, 50.0126, -14.7651, 97.5393, -57.7016, 40.4543
2.508, 5, 35.6868, 50.0396, -14.7722, 97.5353, -57.7949, 40.4034
2.512, 5, 35.6823, 50.0665, -14.7792, 97.5312, -57.8882, 40.3527
2.515, 5, 35.6778, 50.0934, -14.7861, 97.527, -57.9814, 40.302
2.52, 5, 35.6733, 50.1203, -14.7929, 97.5226, -58.0746, 40.2515
2.524, 5, 35.6687, 50.147, -14.7996, 97.518, -58.1677, 40.201
2.528, 5, 35.6641, 50.1738, -14.8062, 97.5133, -58.2609, 40.1507
2.531, 5, 35.6595, 50.2004, -14.8127, 97.5085, -58.3539, 40.1004
2.536, 5, 35.6548, 50.227, -14.819, 97.5035, -58.447, 40.0502
2.54, 5, 35.6501, 50.2536, -14.8253, 97.4984, -58.54, 40.0001
2.544, 5, 35.6454, 50.2801, -14.8315, 97.4931, -58.633, 39.9502
2.548, 5, 35.6407, 50.3065, -14.8375, 97.4877, -58.726, 39.9003
2.551, 5, 35.6359, 50.3329, -14.8435, 97.4822, -58.8189, 39.8505
2.556, 5, 35.6311, 50.3592, -14.8494, 97.4765, -58.9118, 39.8008
2.56, 5, 35.6263, 50.3854, -14.8551, 97.4707, -59.0047, 39.7512
2.564, 5, 35.6214, 50.4116, -14.8608, 97.4647, -59.0975, 39.7017
2.568, 5, 35.6165, 50.4378, -14.8663, 97.4587, -59.1903, 39.6522
2.571, 5, 35.6116, 50.4639, -14.8717, 97.4524, -59.2831, 39.6029
2.576, 5, 35.6066, 50.4899, -14.8771, 97.4461, -59.3759, 39.5536
2.58, 5, 35.6016, 50.5158, -14.8823, 97.4396, -59.4686, 39.5045
2.584, 5, 35.5966, 50.5417, -14.8874, 97.4329, -59.5612, 39.4554
2.587, 5, 35.5916, 50.5676, -14.8924, 97.4261, -59.6539, 39.4064
2.592, 5, 35.5865, 50.5934, -14.8973, 97.4193, -59.7465, 39.3575
2.596, 5, 35.5814, 50.6191, -14.9021, 97.4122, -59.8391, 39.3087
2.6, 5, 35.5763, 50.6447, -14.9068, 97.405, -59.9316, 39.26
2.604, 5, 35.5711, 50.6703, -14.9114, 97.3977, -60.0241, 39.2114
2.607, 5, 35.5659, 50.6959, -14.9159, 97.3903, -60.1166, 39.1628
2.612, 5, 35.5607, 50.7214, -14.9203, 97.3827, -60.2091, 39.1143
2.616, 5, 35.5554, 50.7468, -14.9246, 97.375, -60.3015, 39.066
2.62, 5, 35.5501, 50.7721, -14.9288, 97.3672, -60.3939, 39.0177
2.624, 5, 35.5448, 50.7974, -14.9328, 97.3592, -60.4862, 38.9694
2.627, 5, 35.5394, 50.8227, -14.9368, 97.3511, -60.5785, 38.9213
2.632, 5, 35.5341, 50.8479, -14.9406, 97.3429, -60.6708, 38.8732
2.636, 5, 35.5287, 50.873, -14.9444, 97.3346, -60.7631, 38.8253
2.64, 5, 35.5232, 50.898, -14.948, 97.3261, -60.8553, 38.7774
2.643, 5, 35.5177, 50.923, -14.9515, 97.3175, -60.9475, 38.7296
2.648, 5, 35.5123, 50.9479, -14.955, 97.3088, -61.0396, 38.6818
2.652, 5, 35.5067, 50.9728, -14.9583, 97.2999, -61.1318, 38.6342
2.656, 5, 35.5012, 50.9976, -14.9615, 97.2909, -61.2239, 38.5866
2.66, 5, 35.4956, 51.0224, -14.9646, 97.2818, -61.3159, 38.5391
2.663, 5, 35.49, 51.0471, -14.9676, 97.2726, -61.4079, 38.4917
2.668, 5, 35.4843, 51.0717, -14.9705, 97.2632, -61.4999, 38.4443
2.672, 5, 35.4786, 51.0962, -14.9732, 97.2538, -61.5919, 38.3971
2.676, 5, 35.4729, 51.1207, -14.9759, 97.2442, -61.6838, 38.3499
2.679, 5, 35.4672, 51.1452, -14.9785, 97.2344, -61.7757, 38.3028
2.684, 5, 35.4614, 51.1695, -14.9809, 97.2246, -61.8675, 38.2557
2.688, 5, 35.4556, 51.1938, -14.9833, 97.2146, -61.9594, 38.2087
2.692, 5, 35.4498, 51.2181, -14.9855, 97.2045, -62.0512, 38.1619
2.696, 5, 35.444, 51.2423, -14.9877, 97.1943, -62.1429, 38.115
2.699, 5, 35.4381, 51.2664, -14.9897, 97.184, -62.2346, 38.0683
2.704, 5, 35.4322, 51.2904, -14.9916, 97.1735, -62.3263, 38.0216
2.708, 5, 35.4262, 51.3144, -14.9934, 97.1629, -62.418, 37.975
2.712, 5, 35.4203, 51.3383, -14.9951, 97.1523, -62.5096, 37.9285
2.716, 5, 35.4143, 51.3622, -14.9967, 97.1414, -62.6012, 37.882
2.719, 5, 35.4082, 51.386, -14.9982, 97.1305, -62.6928, 37.8356
2.724, 5, 35.4022, 51.4097, -14.9995, 97.1195, -62.7843, 37.7893
2.728, 5, 35.3961, 51.4334, -15.0008, 97.1083, -62.8758, 37.743
2.732, 5, 35.39, 51.457, -15.002, 97.097, -62.9672, 37.6969
2.735, 5, 35.3838, 51.4805, -15.003, 97.0856, -63.0587, 37.6508
2.74, 5, 35.3776, 51.504, -15.0039, 97.0741, -63.15, 37.6047
2.744, 5, 35.3714, 51.5274, -15.0048, 97.0625, -63.2414, 37.5587
2.748, 5, 35.3652, 51.5508, -15.0055, 97.0507, -63.3327, 37.5128
2.752, 5, 35.3589, 51.574, -15.0061, 97.0389, -63.424, 37.467
2.755, 5, 35.3526, 51.5973, -15.0066, 97.0269, -63.5153, 37.4212
2.76, 5, 35.3463, 51.6204, -15.007, 97.0148, -63.6065, 37.3755
2.764, 5, 35.34, 51.6435, -15.0072, 97.0026, -63.6977, 37.3298
2.768, 5, 35.3336, 51.6665, -15.0074, 96.9903, -63.7888, 37.2843
2.772, 5, 35.3272, 51.6895, -15.0075, 96.9779, -63.8799, 37.2387
2.775, 5, 35.3207, 51.7123, -15.0074, 96.9653, -63.971, 37.1933
2.78, 5, 35.3143, 51.7352, -15.0072, 96.9527, -64.0621, 37.1479
2.784, 5, 35.3078, 51.7579, -15.007, 96.9399, -64.1531, 37.1026
2.788, 5, 35.3012, 51.7806, -15.0066, 96.9271, -64.2441, 37.0573
2.791, 5, 35.2947, 51.8032, -15.0061, 96.9141, -64.335, 37.0121
2.796, 5, 35.2881, 51.8258, -15.0055, 96.901, -64.4259, 36.967
2.8, 5, 35.2815, 51.8483, -15.0047, 96.8878, -64.5168, 36.9219
2.804, 5, 35.2748, 51.8707, -15.0039, 96.8745, -64.6076, 36.8769
2.808, 5, 35.2682, 51.893, -15.0029, 96.861, -64.6984, 36.8319
2.811, 5, 35.2615, 51.9153, -15.0019, 96.8475, -64.7892, 36.787
2.816, 5, 35.2547, 51.9375, -15.0007, 96.8339, -64.88, 36.7422
2.82, 5, 35.248, 51.9597, -14.9994, 96.8201, -64.9706, 36.6974
2.824, 5, 35.2412, 51.9818, -14.998, 96.8063, -65.0613, 36.6527
2.828, 5, 35.2344, 52.0038, -14.9965, 96.7923, -65.152, 36.608
2.831, 5, 35.2275, 52.0257, -14.9949, 96.7782, -65.2426, 36.5634
2.836, 5, 35.2207, 52.0476, -14.9932, 96.7641, -65.3331, 36.5189
2.84, 5, 35.2138, 52.0694, -14.9913, 96.7498, -65.4236, 36.4744
2.844, 5, 35.2068, 52.0911, -14.9894, 96.7354, -65.5141, 36.4299
2.847, 5, 35.1999, 52.1128, -14.9873, 96.7209, -65.6046, 36.3856
2.852, 5, 35.1929, 52.1344, -14.9851, 96.7063, -65.695, 36.3412
2.856, 5, 35.1858, 52.1559, -14.9828, 96.6916, -65.7854, 36.297
2.86, 5, 35.1788, 52.1774, -14.9804, 96.6768, -65.8758, 36.2528
2.864, 5, 35.1717, 52.1988, -14.9779, 96.6619, -65.9661, 36.2086
2.867, 5, 35.1646, 52.2201, -14.9753, 96.6469, -66.0564, 36.1645
2.872, 5, 35.1575, 52.2414, -14.9725, 96.6318, -66.1466, 36.1204
2.876, 5, 35.1503, 52.2626, -14.9696, 96.6166, -66.2368, 36.0765
2.88, 5, 35.1431, 52.2837, -14.9666, 96.6012, -66.327, 36.0325
2.883, 5, 35.1359, 52.3047, -14.9636, 96.5858, -66.4171, 35.9886
2.888, 5, 35.1287, 52.3257, -14.9603, 96.5703, -66.5072, 35.9448
2.892, 5, 35.1214, 52.3466, -14.957, 96.5547, -66.5973, 35.901
2.896, 5, 35.1141, 52.3675, -14.9536, 96.5389, -66.6874, 35.8573
2.9, 5, 35.1067, 52.3882, -14.95, 96.5231, -66.7774, 35.8136
2.903, 5, 35.0994, 52.4089, -14.9464, 96.5072, -66.8673, 35.77
2.908, 5, 35.092, 52.4296, -14.9426, 96.4911, -66.9573, 35.7264
2.912, 5, 35.0846, 52.4501, -14.9387, 96.475, -67.0471, 35.6828
2.916, 5, 35.0771, 52.4706, -14.9347, 96.4588, -67.137, 35.6393
2.92, 5, 35.0697, 52.491, -14.9306, 96.4425, -67.2268, 35.5959
2.923, 5, 35.0621, 52.5114, -14.9263, 96.426, -67.3167, 35.5525
2.928, 5, 35.0546, 52.5316, -14.922, 96.4095, -67.4064, 35.5092
2.932, 5, 35.0471, 52.5518, -14.9175, 96.3929, -67.4961, 35.4659
2.936, 5, 35.0395, 52.572, -14.9129, 96.3762, -67.5858, 35.4226
2.939, 5, 35.0319, 52.592, -14.9083, 96.3594, -67.6755, 35.3794
2.944, 5, 35.0242, 52.612, -14.9035, 96.3425, -67.7651, 35.3363
2.948, 5, 35.0165, 52.632, -14.8985, 96.3255, -67.8547, 35.2932
2.952, 5, 35.0088, 52.6518, -14.8935, 96.3084, -67.9443, 35.2501
2.956, 5, 35.0011, 52.6716, -14.8884, 96.2912, -68.0338, 35.2071
2.959, 5, 34.9934, 52.6913, -14.8831, 96.2739, -68.1233, 35.1641
2.964, 5, 34.9856, 52.711, -14.8778, 96.2565, -68.2128, 35.1212
2.968, 5, 34.9778, 52.7305, -14.8723, 96.239, -68.3022, 35.0783
2.972, 5, 34.9699, 52.75, -14.8667, 96.2214, -68.3916, 35.0355
2.976, 5, 34.962, 52.7694, -14.861, 96.2037, -68.481, 34.9927
2.98, 5, 34.9542, 52.7888, -14.8551, 96.186, -68.5703, 34.9499
2.984, 5, 34.9462, 52.8081, -14.8492, 96.1681, -68.6596, 34.9072
2.988, 5, 34.9383, 52.8273, -14.8432, 96.1502, -68.7489, 34.8645
2.992, 5, 34.9303, 52.8464, -14.837, 96.1321, -68.8381, 34.8219
2.995, 5, 34.9223, 52.8655, -14.8307, 96.114, -68.9273, 34.7793
3, 5, 34.9143, 52.8845, -14.8243, 96.0957, -69.0165, 34.7367
3.004, 5, 34.9062, 52.9034, -14.8178, 96.0774, -69.1056, 34.6942
3.008, 5, 34.8981, 52.9223, -14.8112, 96.059, -69.1947, 34.6518
3.012, 5, 34.89, 52.9411, -14.8045, 96.0405, -69.2838, 34.6093
3.015, 5, 34.8819, 52.9598, -14.7977, 96.0219, -69.3728, 34.567
3.02, 5, 34.8737, 52.9784, -14.7907, 96.0032, -69.4618, 34.5246
3.024, 5, 34.8655, 52.997, -14.7836, 95.9844, -69.5508, 34.4823
3.028, 5, 34.8573, 53.0155, -14.7765, 95.9656, -69.6397, 34.44
3.031, 5, 34.849, 53.0339, -14.7692, 95.9466, -69.7286, 34.3978
3.036, 5, 34.8407, 53.0522, -14.7618, 95.9276, -69.8175, 34.3556
3.04, 5, 34.8324, 53.0705, -14.7543, 95.9084, -69.9063, 34.3134
3.044, 5, 34.8241, 53.0887, -14.7466, 95.8892, -69.9951, 34.2713
3.048, 5, 34.8157, 53.1069, -14.7389, 95.8699, -70.0839, 34.2292
3.051, 5, 34.8074, 53.1249, -14.731, 95.8505, -70.1727, 34.1872
3.056, 5, 34.7989, 53.1429, -14.723, 95.831, -70.2614, 34.1452
3.06, 5, 34.7905, 53.1608, -14.715, 95.8114, -70.35, 34.1032
3.064, 5, 34.782, 53.1787, -14.7068, 95.7918, -70.4387, 34.0612
3.068, 5, 34.7735, 53.1964, -14.6984, 95.772, -70.5273, 34.0193
3.071, 5, 34.765, 53.2141, -14.69, 95.7522, -70.6159, 33.9774
3.076, 5, 34.7565, 53.2317, -14.6815, 95.7322, -70.7044, 33.9356
3.08, 5, 34.7479, 53.2493, -14.6728, 95.7122, -70.7929, 33.8938
3.084, 5, 34.7393, 53.2668, -14.6641, 95.6921, -70.8814, 33.852
3.087, 5, 34.7307, 53.2841, -14.6552, 95.6719, -70.9698, 33.8103
3.092, 5, 34.722, 53.3015, -14.6462, 95.6517, -71.0583, 33.7686
3.096, 5, 34.7133, 53.3187, -14.6371, 95.6313, -71.1466, 33.7269
3.1, 5, 34.7046, 53.3359, -14.6278, 95.6109, -71.235, 33.6853
3.104, 5, 34.6959, 53.353, -14.6185, 95.5903, -71.3233, 33.6437
3.107, 5, 34.6871, 53.37, -14.6091, 95.5697, -71.4116, 33.6021
3.112, 5, 34.6783, 53.387, -14.5995, 95.549, -71.4998, 33.5605
3.116, 5, 34.6695, 53.4039, -14.5898, 95.5283, -71.5881, 33.519
3.12, 5, 34.6607, 53.4207, -14.58, 95.5074, -71.6762, 33.4775
3.124, 5, 34.6518, 53.4374, -14.5701, 95.4864, -71.7644, 33.4361
3.128, 5, 34.6429, 53.454, -14.5601, 95.4654, -71.8525, 33.3946
3.132, 5, 34.634, 53.4706, -14.5499, 95.4443, -71.9406, 33.3532
3.136, 5, 34.625, 53.4871, -14.5397, 95.4231, -72.0287, 33.3119
3.14, 5, 34.6161, 53.5036, -14.5293, 95.4018, -72.1167, 33.2705
3.143, 5, 34.6071, 53.5199, -14.5189, 95.3804, -72.2047, 33.2292
3.148, 5, 34.5981, 53.5362, -14.5083, 95.359, -72.2926, 33.1879
3.152, 5, 34.5891, 53.5524, -14.4976, 95.3375, -72.3806, 33.1467
3.156, 5, 34.5802, 53.5684, -14.4867, 95.3159, -72.4684, 33.1055
3.16, 5, 34.5715, 53.5842, -14.4758, 95.2942, -72.5562, 33.0643
3.163, 5, 34.5631, 53.5996, -14.4648, 95.2725, -72.6439, 33.0232
3.168, 5, 34.555, 53.6146, -14.4536, 95.2507, -72.7314, 32.9822
3.172, 5, 34.5474, 53.629, -14.4424, 95.229, -72.8184, 32.9414
3.176, 5, 34.5403, 53.6425, -14.4312, 95.2073, -72.9048, 32.9009
3.179, 5, 34.5336, 53.6551, -14.4199, 95.1858, -72.9901, 32.861
3.184, 5, 34.5273, 53.6668, -14.4087, 95.1646, -73.0741, 32.8216
3.188, 5, 34.5214, 53.6775, -14.3977, 95.1439, -73.156, 32.7833
3.192, 5, 34.5159, 53.6874, -14.387, 95.1237, -73.2354, 32.7461
3.196, 5, 34.5106, 53.6967, -14.3766, 95.1043, -73.3114, 32.7105
3.199, 5, 34.5054, 53.7055, -14.3667, 95.0859, -73.3835, 32.6768
3.204, 5, 34.5005, 53.714, -14.3574, 95.0686, -73.4509, 32.6452
3.208, 5, 34.4956, 53.7222, -14.3488, 95.0526, -73.5131, 32.6161
3.212, 5, 34.4908, 53.7303, -14.3409, 95.0381, -73.5696, 32.5897
3.216, 5, 34.486, 53.7383, -14.3339, 95.0251, -73.6202, 32.5661
3.22, 5, 34.4813, 53.7461, -14.3277, 95.0136, -73.6645, 32.5453
3.224, 5, 34.4767, 53.7537, -14.3224, 95.0038, -73.7027, 32.5275
3.228, 5, 34.4721, 53.7612, -14.318, 94.9955, -73.7349, 32.5124
3.232, 5, 34.4676, 53.7687, -14.3143, 94.9886, -73.7614, 32.5
3.237, 5, 34.4633, 53.7759, -14.3114, 94.983, -73.7828, 32.49
3.24, 5, 34.459, 53.7828, -14.3092, 94.9787, -73.7996, 32.4822
3.244, 5, 34.4549, 53.7892, -14.3075, 94.9754, -73.8125, 32.4762
3.248, 5, 34.4511, 53.7949, -14.3062, 94.9729, -73.822, 32.4717
3.252, 5, 34.4476, 53.7997, -14.3054, 94.9711, -73.8289, 32.4685
3.255, 5, 34.4446, 53.8037, -14.3048, 94.9698, -73.8339, 32.4662
3.26, 5, 34.4422, 53.8067, -14.3044, 94.9689, -73.8373, 32.4646
3.264, 5, 34.4403, 53.8089, -14.3041, 94.9683, -73.8396, 32.4636
3.268, 5, 34.4389, 53.8105, -14.3039, 94.9679, -73.8412, 32.4628
3.272, 5, 34.4377, 53.8116, -14.3038, 94.9676, -73.8423, 32.4623
3.276, 5, 34.4365, 53.8125, -14.3036, 94.9674, -73.8431, 32.462
3.28, 5, 34.435, 53.8132, -14.3033, 94.9672, -73.8437, 32.4618
3.284, 5, 34.433, 53.8139, -14.3028, 94.9668, -73.8443, 32.4618
3.288, 5, 34.4305, 53.8146, -14.302, 94.9662, -73.8451, 32.4619
3.291, 5, 34.4273, 53.8154, -14.3005, 94.9651, -73.8463, 32.4624
3.296, 5, 34.4236, 53.8162, -14.2981, 94.9633, -73.8482, 32.4632
3.3, 5, 34.4195, 53.8169, -14.2945, 94.9604, -73.8511, 32.4645
3.304, 5, 34.415, 53.8174, -14.2893, 94.9561, -73.8553, 32.4665
3.308, 6, 34.4103, 53.8175, -14.282, 94.9501, -73.8613, 32.4693
3.312, 6, 34.4052, 53.8172, -14.2724, 94.9419, -73.8692, 32.4731
3.316, 6, 34.3999, 53.8163, -14.2601, 94.9313, -73.8795, 32.4781
3.32, 6, 34.3942, 53.8148, -14.2446, 94.9179, -73.8924, 32.4844
3.324, 6, 34.3881, 53.8126, -14.2258, 94.9016, -73.9082, 32.4921
3.328, 6, 34.3818, 53.8096, -14.2035, 94.8821, -73.927, 32.5013
3.332, 6, 34.3751, 53.8058, -14.1776, 94.8593, -73.949, 32.512
3.336, 6, 34.3683, 53.8011, -14.148, 94.8332, -73.9741, 32.5243
3.34, 6, 34.3612, 53.7955, -14.1148, 94.8039, -74.0023, 32.5381
3.344, 6, 34.3538, 53.7892, -14.0782, 94.7715, -74.0335, 32.5533
3.347, 6, 34.3461, 53.7822, -14.0384, 94.7363, -74.0673, 32.5697
3.352, 6, 34.338, 53.7747, -13.9958, 94.6987, -74.1036, 32.5874
3.356, 6, 34.3293, 53.7668, -13.9507, 94.6588, -74.142, 32.606
3.36, 6, 34.3201, 53.7586, -13.9035, 94.6172, -74.1821, 32.6254
3.364, 6, 34.3103, 53.7502, -13.8545, 94.574, -74.2238, 32.6455
3.368, 6, 34.3, 53.7416, -13.8039, 94.5296, -74.2666, 32.6662
3.372, 6, 34.2892, 53.733, -13.7523, 94.4843, -74.3105, 32.6872
3.376, 6, 34.278, 53.7243, -13.6996, 94.4381, -74.3551, 32.7086
3.38, 6, 34.2663, 53.7156, -13.6463, 94.3915, -74.4002, 32.7302
3.383, 6, 34.2542, 53.7069, -13.5924, 94.3444, -74.4458, 32.7519
3.388, 6, 34.2417, 53.6981, -13.5381, 94.2971, -74.4917, 32.7737
3.392, 6, 34.2289, 53.6894, -13.4834, 94.2495, -74.5378, 32.7955
3.396, 6, 34.2157, 53.6806, -13.4286, 94.2019, -74.584, 32.8174
3.4, 6, 34.2023, 53.6719, -13.3736, 94.1541, -74.6304, 32.8392
3.403, 6, 34.1887, 53.6631, -13.3185, 94.1063, -74.6768, 32.861
3.408, 6, 34.175, 53.6542, -13.2633, 94.0585, -74.7234, 32.8827
3.412, 6, 34.1612, 53.6454, -13.208, 94.0107, -74.7699, 32.9045
3.416, 6, 34.1474, 53.6364, -13.1526, 93.9629, -74.8165, 32.9261
3.42, 6, 34.1335, 53.6275, -13.0972, 93.915, -74.8631, 32.9478
3.424, 6, 34.1196, 53.6185, -13.0417, 93.8672, -74.9097, 32.9693
3.428, 6, 34.1056, 53.6094, -12.9862, 93.8194, -74.9564, 32.9908
3.432, 6, 34.0917, 53.6003, -12.9307, 93.7716, -75.0031, 33.0123
3.436, 6, 34.0776, 53.5912, -12.8751, 93.7238, -75.0498, 33.0337
3.439, 6, 34.0636, 53.582, -12.8195, 93.676, -75.0965, 33.055
3.444, 6, 34.0495, 53.5727, -12.7638, 93.6283, -75.1432, 33.0763
3.448, 6, 34.0355, 53.5634, -12.7081, 93.5805, -75.1899, 33.0975
3.452, 6, 34.0214, 53.5541, -12.6524, 93.5328, -75.2367, 33.1186
3.456, 6, 34.0073, 53.5447, -12.5966, 93.4851, -75.2834, 33.1397
3.46, 6, 33.9931, 53.5352, -12.5408, 93.4374, -75.3302, 33.1607
3.464, 6, 33.979, 53.5257, -12.4849, 93.3897, -75.377, 33.1817
3.468, 6, 33.9648, 53.5162, -12.429, 93.3421, -75.4238, 33.2026
3.472, 6, 33.9506, 53.5066, -12.3731, 93.2944, -75.4706, 33.2234
3.476, 6, 33.9364, 53.497, -12.3171, 93.2468, -75.5175, 33.2442
3.48, 6, 33.9222, 53.4873, -12.2611, 93.1992, -75.5643, 33.2649
3.484, 6, 33.9079, 53.4775, -12.2051, 93.1516, -75.6112, 33.2856
3.488, 6, 33.8937, 53.4677, -12.149, 93.104, -75.6581, 33.3062
3.492, 6, 33.8794, 53.4579, -12.0929, 93.0565, -75.7049, 33.3267
3.495, 6, 33.8651, 53.448, -12.0368, 93.0089, -75.7518, 33.3472
3.5, 6, 33.8508, 53.4381, -11.9806, 92.9614, -75.7988, 33.3676
3.504, 6, 33.8364, 53.4281, -11.9244, 92.9139, -75.8457, 33.388
3.508, 6, 33.8221, 53.418, -11.8682, 92.8664, -75.8926, 33.4083
3.512, 6, 33.8077, 53.4079, -11.8119, 92.8189, -75.9396, 33.4285
3.516, 6, 33.7933, 53.3978, -11.7556, 92.7715, -75.9866, 33.4486
3.52, 6, 33.7789, 53.3876, -11.6992, 92.724, -76.0336, 33.4687
3.524, 6, 33.7645, 53.3774, -11.6429, 92.6766, -76.0805, 33.4888
3.528, 6, 33.75, 53.3671, -11.5864, 92.6292, -76.1276, 33.5088
3.531, 6, 33.7355, 53.3567, -11.53, 92.5818, -76.1746, 33.5287
3.536, 6, 33.7211, 53.3463, -11.4735, 92.5344, -76.2216, 33.5485
3.54, 6, 33.7066, 53.3359, -11.417, 92.487, -76.2687, 33.5683
3.544, 6, 33.692, 53.3254, -11.3604, 92.4397, -76.3157, 33.588
3.548, 6, 33.6775, 53.3149, -11.3038, 92.3924, -76.3628, 33.6077
3.552, 6, 33.6629, 53.3043, -11.2472, 92.345, -76.4099, 33.6273
3.556, 6, 33.6484, 53.2936, -11.1906, 92.2977, -76.457, 33.6468
3.56, 6, 33.6338, 53.283, -11.1339, 92.2504, -76.5041, 33.6663
3.564, 6, 33.6192, 53.2722, -11.0772, 92.2032, -76.5512, 33.6857
3.568, 6, 33.6045, 53.2614, -11.0204, 92.1559, -76.5984, 33.705
3.572, 6, 33.5899, 53.2506, -10.9636, 92.1087, -76.6455, 33.7243
3.576, 6, 33.5752, 53.2397, -10.9068, 92.0614, -76.6927, 33.7435
3.58, 6, 33.5605, 53.2288, -10.85, 92.0142, -76.7399, 33.7627
3.584, 6, 33.5458, 53.2178, -10.7931, 91.967, -76.7871, 33.7818
3.587, 6, 33.5311, 53.2068, -10.7362, 91.9198, -76.8343, 33.8008
3.592, 6, 33.5164, 53.1957, -10.6792, 91.8727, -76.8815, 33.8198
3.596, 6, 33.5016, 53.1845, -10.6222, 91.8255, -76.9287, 33.8387
3.6, 6, 33.4869, 53.1734, -10.5652, 91.7784, -76.976, 33.8575
3.604, 6, 33.4721, 53.1621, -10.5082, 91.7312, -77.0232, 33.8763
3.608, 6, 33.4573, 53.1508, -10.4511, 91.6841, -77.0705, 33.895
3.612, 6, 33.4424, 53.1395, -10.394, 91.637, -77.1178, 33.9136
3.616, 6, 33.4276, 53.1281, -10.3369, 91.59, -77.1651, 33.9322
3.62, 6, 33.4127, 53.1167, -10.2797, 91.5429, -77.2124, 33.9507
3.624, 6, 33.3979, 53.1052, -10.2225, 91.4958, -77.2597, 33.9691
3.628, 6, 33.383, 53.0937, -10.1652, 91.4488, -77.307, 33.9875
3.632, 6, 33.368, 53.0821, -10.108, 91.4018, -77.3543, 34.0058
3.636, 6, 33.3531, 53.0705, -10.0507, 91.3548, -77.4017, 34.0241
3.64, 6, 33.3382, 53.0588, -9.99336, 91.3078, -77.4491, 34.0423
3.644, 6, 33.3232, 53.0471, -9.936, 91.2608, -77.4964, 34.0604
3.648, 6, 33.3082, 53.0353, -9.87861, 91.2138, -77.5438, 34.0785
3.652, 6, 33.2932, 53.0235, -9.82119, 91.1669, -77.5912, 34.0965
3.656, 6, 33.2782, 53.0116, -9.76375, 91.1199, -77.6386, 34.1144
3.66, 6, 33.2632, 52.9997, -9.70627, 91.073, -77.6861, 34.1323
3.664, 6, 33.2482, 52.9877, -9.64877, 91.0261, -77.7335, 34.1501
3.668, 6, 33.2333, 52.9757, -9.59125, 90.9792, -77.7809, 34.1678
3.672, 6, 33.2187, 52.9636, -9.53374, 90.9323, -77.8284, 34.1854
3.676, 6, 33.2042, 52.9514, -9.47626, 90.8855, -77.8758, 34.203
3.679, 6, 33.1901, 52.9392, -9.41887, 90.8388, -77.9231, 34.2205
3.684, 6, 33.1762, 52.927, -9.36162, 90.7922, -77.9703, 34.2379
3.688, 6, 33.1627, 52.9147, -9.30462, 90.7458, -78.0173, 34.2551
3.692, 6, 33.1493, 52.9025, -9.24798, 90.6997, -78.064, 34.2722
3.696, 6, 33.1363, 52.8902, -9.19184, 90.6541, -78.1104, 34.2891
3.7, 6, 33.1234, 52.8781, -9.13637, 90.609, -78.1562, 34.3057
3.704, 6, 33.111, 52.8661, -9.08176, 90.5646, -78.2012, 34.322
3.708, 6, 33.0989, 52.8542, -9.02826, 90.521, -78.2454, 34.3379
3.712, 6, 33.0873, 52.8425, -8.97613, 90.4786, -78.2885, 34.3534
3.716, 6, 33.0762, 52.8312, -8.92565, 90.4376, -78.3302, 34.3683
3.72, 6, 33.0657, 52.8203, -8.87713, 90.3981, -78.3703, 34.3826
3.724, 6, 33.0556, 52.8098, -8.8309, 90.3605, -78.4085, 34.3962
3.728, 6, 33.0461, 52.7999, -8.78726, 90.325, -78.4446, 34.409
3.732, 6, 33.037, 52.7907, -8.74649, 90.2919, -78.4783, 34.421
3.735, 6, 33.0284, 52.7823, -8.70886, 90.2614, -78.5093, 34.4319
3.74, 6, 33.0202, 52.7746, -8.67455, 90.2336, -78.5376, 34.4419
3.744, 6, 33.0124, 52.7678, -8.64369, 90.2087, -78.563, 34.4508
3.748, 6, 33.005, 52.7619, -8.61633, 90.1867, -78.5854, 34.4587
3.752, 6, 32.9981, 52.7568, -8.59247, 90.1676, -78.605, 34.4655
3.756, 6, 32.9916, 52.7526, -8.57199, 90.1513, -78.6217, 34.4713
3.76, 6, 32.9855, 52.7491, -8.55474, 90.1376, -78.6357, 34.4762
3.764, 6, 32.9799, 52.7464, -8.54048, 90.1264, -78.6472, 34.4802
3.768, 6, 32.9746, 52.7443, -8.52894, 90.1174, -78.6564, 34.4834
3.772, 6, 32.9697, 52.7428, -8.5198, 90.1103, -78.6637, 34.4859
3.776, 6, 32.9651, 52.7417, -8.51273, 90.1049, -78.6693, 34.4878
3.78, 6, 32.9608, 52.741, -8.50738, 90.1009, -78.6734, 34.4892
3.784, 6, 32.9571, 52.7405, -8.50343, 90.098, -78.6764, 34.4902
3.788, 7, 32.9539, 52.7402, -8.50058, 90.096, -78.6786, 34.491
3.792, 7, 32.9513, 52.7401, -8.49856, 90.0945, -78.6801, 34.4915
3.796, 7, 32.9493, 52.74, -8.49717, 90.0935, -78.6812, 34.4918
3.8, 7, 32.9478, 52.7399, -8.49621, 90.0929, -78.6819, 34.4921
3.804, 7, 32.9468, 52.7399, -8.49556, 90.0924, -78.6823, 34.4922
3.808, 7, 32.9461, 52.7398, -8.49512, 90.0921, -78.6827, 34.4923
3.812, 7, 32.9456, 52.7398, -8.49482, 90.0919, -78.6829, 34.4924
3.816, 7, 32.9453, 52.7398, -8.49461, 90.0918, -78.683, 34.4925
3.82, 7, 32.9451, 52.7398, -8.49448, 90.0917, -78.6831, 34.4925
3.824, 7, 32.945, 52.7398, -8.49438, 90.0916, -78.6832, 34.4925
3.828, 7, 32.9449, 52.7398, -8.49432, 90.0916, -78.6832, 34.4925
3.832, 7, 32.9448, 52.7398, -8.49428, 90.0915, -78.6833, 34.4925
3.836, 7, 32.9447, 52.7398, -8.49425, 90.0915, -78.6833, 34.4925
3.84, 7, 32.9447, 52.7398, -8.49423, 90.0915, -78.6833, 34.4926
3.844, 7, 32.9447, 52.7398, -8.49422, 90.0915, -78.6833, 34.4926
3.848, 7, 32.9447, 52.7398, -8.49421, 90.0915, -78.6833, 34.4926
3.852, 7, 32.9447, 52.7398, -8.4942, 90.0915, -78.6833, 34.4926
3.856, 7, 32.9447, 52.7398, -8.4942, 90.0915, -78.6833, 34.4926
3.86, 7, 32.9447, 52.7398, -8.49419, 90.0915, -78.6833, 34.4926
3.864, 7, 32.9447, 52.7398, -8.49419, 90.0915, -78.6833, 34.4926
3.868, 7, 32.9447, 52.7398, -8.49419, 90.0915, -78.6833, 34.4926
3.872, 7, 32.9446, 52.7398, -8.49419, 90.0915, -78.6833, 34.4926
3.876, 7, 32.9446, 52.7398, -8.49419, 90.0915, -78.6833, 34.4926
3.88, 7, 32.9446, 52.7398, -8.49419, 90.0915, -78.6833, 34.4926
3.884, 7, 32.9446, 52.7398, -8.49419, 90.0915, -78.6833, 34.4926
3.888, 7, 32.9446, 52.7398, -8.49419, 90.0915, -78.6833, 34.4926
3.892, 7, 32.9446, 52.7398, -8.49419, 90.0915, -78.6833, 34.4926
3.896, 7, 32.9446, 52.7398, -8.49419, 90.0915, -78.6833, 34.4926
3.9, 7, 32.9446, 52.7398, -8.49419, 90.0915, -78.6833, 34.4926
3.904, 7, 32.9446, 52.7398, -8.49419, 90.0915, -78.6833, 34.4926
