hehonglu123/ABB_Primitive_Study/execution/movec/curve_exe_v100_z10.csv
timestamp, cmd_num, J1, J2, J3, J4, J5, J6
0, 1, 32.9528, 52.8019, -8.46502, 89.9168, -78.8096, 34.6812
0.002, 1, 32.9528, 52.8019, -8.46502, 89.9168, -78.8096, 34.6812
0.004, 1, 32.9528, 52.8019, -8.46502, 89.9168, -78.8096, 34.6812
0.008, 1, 32.9528, 52.8019, -8.46502, 89.9168, -78.8096, 34.6812
0.011, 1, 32.9528, 52.8019, -8.46502, 89.9168, -78.8096, 34.6812
0.016, 1, 32.9528, 52.8019, -8.46502, 89.9168, -78.8096, 34.6812
0.02, 1, 32.9528, 52.8019, -8.46502, 89.9168, -78.8096, 34.6812
0.024, 1, 32.9528, 52.8019, -8.46502, 89.9168, -78.8096, 34.6812
0.028, 1, 32.9528, 52.8019, -8.46502, 89.9168, -78.8096, 34.6812
0.032, 1, 32.9528, 52.8019, -8.46502, 89.9168, -78.8096, 34.6812
0.036, 1, 32.9528, 52.8019, -8.46502, 89.9168, -78.8096, 34.6812
0.04, 1, 32.9529, 52.8019, -8.46502, 89.9168, -78.8096, 34.6812
0.044, 1, 32.9531, 52.8018, -8.46503, 89.9168, -78.8095, 34.6812
0.048, 1, 32.9535, 52.8014, -8.46504, 89.9169, -78.8095, 34.6812
0.052, 1, 32.9543, 52.8006, -8.46509, 89.9169, -78.8093, 34.6813
0.056, 1, 32.9556, 52.7993, -8.46521, 89.917, -78.8088, 34.6815
0.06, 1, 32.9574, 52.7971, -8.46543, 89.9173, -78.8079, 34.6818
0.064, 1, 32.9597, 52.794, -8.46584, 89.9178, -78.8061, 34.6824
0.068, 1, 32.9625, 52.7899, -8.46653, 89.9186, -78.803, 34.6835
0.072, 1, 32.9659, 52.7849, -8.46761, 89.92, -78.798, 34.6852
0.076, 1, 32.9697, 52.7789, -8.46923, 89.922, -78.7905, 34.6877
0.08, 1, 32.9741, 52.7719, -8.47155, 89.925, -78.7796, 34.6915
0.084, 1, 32.9791, 52.7639, -8.47475, 89.9292, -78.7644, 34.6967
0.088, 1, 32.9847, 52.7549, -8.47904, 89.9348, -78.744, 34.7037
0.092, 1, 32.991, 52.7451, -8.48461, 89.9421, -78.7174, 34.7128
0.096, 1, 32.9978, 52.7344, -8.49169, 89.9515, -78.6834, 34.7244
0.1, 1, 33.005, 52.7231, -8.50046, 89.9631, -78.6411, 34.7389
0.104, 1, 33.0126, 52.7112, -8.51109, 89.9773, -78.5897, 34.7566
0.108, 1, 33.0204, 52.699, -8.5237, 89.9942, -78.5285, 34.7775
0.112, 1, 33.0284, 52.6863, -8.53837, 90.0139, -78.4572, 34.802
0.116, 1, 33.0368, 52.673, -8.55512, 90.0364, -78.3757, 34.8299
0.12, 1, 33.0455, 52.6592, -8.57391, 90.0617, -78.2841, 34.8613
0.124, 1, 33.0546, 52.6447, -8.59467, 90.0896, -78.183, 34.896
0.128, 1, 33.0642, 52.6296, -8.61726, 90.12, -78.0728, 34.9337
0.131, 1, 33.0741, 52.6139, -8.64153, 90.1527, -77.9545, 34.9743
0.136, 1, 33.0844, 52.5977, -8.6673, 90.1875, -77.8288, 35.0174
0.139, 1, 33.0949, 52.5809, -8.69437, 90.2239, -77.6968, 35.0627
0.144, 1, 33.1058, 52.5633, -8.72251, 90.2618, -77.5596, 35.1097
0.148, 1, 33.1172, 52.5447, -8.75152, 90.3009, -77.4182, 35.1582
0.152, 1, 33.1293, 52.525, -8.7812, 90.3408, -77.2736, 35.2077
0.156, 1, 33.1421, 52.5041, -8.81138, 90.3814, -77.1267, 35.2581
0.16, 1, 33.1556, 52.4819, -8.8419, 90.4224, -76.9782, 35.309
0.164, 1, 33.17, 52.4586, -8.87265, 90.4637, -76.8286, 35.3603
0.168, 1, 33.1849, 52.4345, -8.90354, 90.5052, -76.6784, 35.4118
0.172, 1, 33.2004, 52.4098, -8.9345, 90.5467, -76.5279, 35.4634
0.176, 1, 33.2161, 52.3847, -8.9655, 90.5883, -76.3772, 35.515
0.18, 1, 33.2321, 52.3594, -8.9965, 90.6299, -76.2265, 35.5667
0.184, 1, 33.2481, 52.334, -9.02748, 90.6715, -76.076, 35.6183
0.188, 1, 33.2643, 52.3084, -9.05844, 90.713, -75.9256, 35.6699
0.192, 1, 33.2805, 52.2828, -9.08935, 90.7545, -75.7754, 35.7214
0.196, 1, 33.2967, 52.2573, -9.12022, 90.7959, -75.6254, 35.7728
0.2, 1, 33.3129, 52.2317, -9.15103, 90.8372, -75.4757, 35.8241
0.204, 1, 33.3291, 52.2061, -9.1818, 90.8785, -75.3262, 35.8753
0.208, 1, 33.3453, 52.1806, -9.21251, 90.9197, -75.177, 35.9265
0.212, 1, 33.3614, 52.1551, -9.24316, 90.9608, -75.028, 35.9775
0.216, 1, 33.3776, 52.1296, -9.27376, 91.0018, -74.8794, 36.0285
0.22, 1, 33.3937, 52.1042, -9.3043, 91.0428, -74.731, 36.0794
0.224, 1, 33.4098, 52.0788, -9.33479, 91.0837, -74.5829, 36.1302
0.228, 1, 33.4258, 52.0535, -9.36522, 91.1245, -74.435, 36.1808
0.232, 1, 33.4419, 52.0282, -9.3956, 91.1652, -74.2874, 36.2314
0.236, 1, 33.4579, 52.003, -9.42592, 91.2059, -74.1401, 36.2819
0.24, 1, 33.4738, 51.9778, -9.45618, 91.2465, -73.9931, 36.3323
0.244, 1, 33.4898, 51.9526, -9.48639, 91.287, -73.8463, 36.3826
0.248, 1, 33.5057, 51.9275, -9.51654, 91.3275, -73.6998, 36.4329
0.252, 1, 33.5216, 51.9025, -9.54664, 91.3678, -73.5536, 36.483
0.256, 1, 33.5374, 51.8774, -9.57668, 91.4081, -73.4076, 36.533
0.26, 1, 33.5533, 51.8525, -9.60667, 91.4483, -73.2619, 36.583
0.264, 1, 33.5691, 51.8276, -9.6366, 91.4885, -73.1165, 36.6328
0.268, 1, 33.5848, 51.8027, -9.66649, 91.5286, -72.9713, 36.6826
0.272, 1, 33.6006, 51.7778, -9.69631, 91.5686, -72.8264, 36.7323
0.276, 1, 33.6163, 51.7531, -9.72609, 91.6085, -72.6817, 36.7819
0.28, 1, 33.632, 51.7283, -9.75581, 91.6484, -72.5373, 36.8314
0.284, 1, 33.6476, 51.7036, -9.78547, 91.6882, -72.3932, 36.8808
0.288, 1, 33.6633, 51.679, -9.81509, 91.7279, -72.2493, 36.9301
0.292, 1, 33.6789, 51.6544, -9.84465, 91.7675, -72.1057, 36.9794
0.296, 1, 33.6945, 51.6298, -9.87416, 91.8071, -71.9623, 37.0285
0.3, 1, 33.71, 51.6053, -9.90362, 91.8466, -71.8191, 37.0776
0.304, 1, 33.7255, 51.5808, -9.93303, 91.8861, -71.6763, 37.1265
0.308, 1, 33.741, 51.5563, -9.96238, 91.9255, -71.5336, 37.1754
0.312, 1, 33.7565, 51.5319, -9.99169, 91.9648, -71.3913, 37.2243
0.316, 1, 33.7719, 51.5076, -10.0209, 92.004, -71.2491, 37.273
0.32, 1, 33.7873, 51.4833, -10.0501, 92.0432, -71.1073, 37.3216
0.324, 1, 33.8027, 51.459, -10.0793, 92.0823, -70.9656, 37.3702
0.328, 1, 33.8181, 51.4348, -10.1084, 92.1213, -70.8242, 37.4186
0.332, 1, 33.8334, 51.4106, -10.1374, 92.1603, -70.6831, 37.467
0.336, 1, 33.8487, 51.3864, -10.1665, 92.1992, -70.5422, 37.5153
0.34, 1, 33.864, 51.3623, -10.1954, 92.238, -70.4015, 37.5636
0.344, 1, 33.8793, 51.3383, -10.2243, 92.2768, -70.261, 37.6117
0.348, 1, 33.8945, 51.3142, -10.2532, 92.3155, -70.1209, 37.6598
0.352, 1, 33.9097, 51.2903, -10.282, 92.3541, -69.9809, 37.7077
0.356, 1, 33.9249, 51.2663, -10.3107, 92.3927, -69.8412, 37.7556
0.36, 1, 33.94, 51.2424, -10.3394, 92.4312, -69.7017, 37.8034
0.364, 1, 33.9552, 51.2186, -10.3681, 92.4696, -69.5624, 37.8512
0.368, 1, 33.9703, 51.1947, -10.3967, 92.508, -69.4234, 37.8988
0.372, 1, 33.9853, 51.171, -10.4253, 92.5463, -69.2846, 37.9464
0.376, 1, 34.0004, 51.1472, -10.4538, 92.5846, -69.1461, 37.9939
0.38, 1, 34.0154, 51.1235, -10.4823, 92.6228, -69.0078, 38.0413
0.384, 1, 34.0304, 51.0998, -10.5107, 92.6609, -68.8697, 38.0887
0.388, 1, 34.0454, 51.0762, -10.5391, 92.6989, -68.7318, 38.1359
0.392, 1, 34.0604, 51.0526, -10.5674, 92.7369, -68.5941, 38.1831
0.396, 1, 34.0753, 51.0291, -10.5957, 92.7749, -68.4567, 38.2302
0.4, 1, 34.0902, 51.0056, -10.6239, 92.8127, -68.3195, 38.2773
0.404, 1, 34.1051, 50.9821, -10.6521, 92.8506, -68.1826, 38.3242
0.408, 1, 34.1199, 50.9587, -10.6803, 92.8883, -68.0458, 38.3711
0.412, 1, 34.1348, 50.9353, -10.7084, 92.926, -67.9093, 38.4179
0.416, 1, 34.1496, 50.9119, -10.7364, 92.9636, -67.773, 38.4646
0.42, 1, 34.1643, 50.8886, -10.7644, 93.0012, -67.6369, 38.5113
0.424, 1, 34.1791, 50.8653, -10.7924, 93.0387, -67.501, 38.5579
0.428, 1, 34.1938, 50.8421, -10.8203, 93.0762, -67.3653, 38.6044
0.432, 1, 34.2086, 50.8189, -10.8482, 93.1136, -67.2299, 38.6508
0.436, 1, 34.2232, 50.7957, -10.876, 93.1509, -67.0947, 38.6971
0.44, 1, 34.2379, 50.7726, -10.9038, 93.1881, -66.9597, 38.7434
0.444, 1, 34.2526, 50.7495, -10.9315, 93.2254, -66.8249, 38.7896
0.448, 1, 34.2672, 50.7264, -10.9592, 93.2625, -66.6903, 38.8358
0.452, 1, 34.2818, 50.7034, -10.9869, 93.2996, -66.5559, 38.8818
0.456, 1, 34.2964, 50.6804, -11.0145, 93.3367, -66.4217, 38.9278
0.46, 1, 34.3109, 50.6574, -11.0421, 93.3736, -66.2878, 38.9738
0.464, 1, 34.3254, 50.6345, -11.0696, 93.4106, -66.154, 39.0196
0.468, 1, 34.3399, 50.6116, -11.0971, 93.4474, -66.0204, 39.0654
0.472, 1, 34.3544, 50.5888, -11.1246, 93.4842, -65.8871, 39.1111
0.476, 1, 34.3689, 50.566, -11.152, 93.521, -65.754, 39.1567
0.48, 1, 34.3833, 50.5432, -11.1793, 93.5577, -65.621, 39.2023
0.484, 1, 34.3978, 50.5204, -11.2066, 93.5943, -65.4883, 39.2478
0.488, 1, 34.4121, 50.4977, -11.2339, 93.6309, -65.3558, 39.2933
0.492, 1, 34.4265, 50.475, -11.2612, 93.6675, -65.2234, 39.3386
0.496, 1, 34.4409, 50.4524, -11.2883, 93.7039, -65.0913, 39.3839
0.5, 1, 34.4552, 50.4298, -11.3155, 93.7404, -64.9594, 39.4291
0.504, 1, 34.4695, 50.4072, -11.3426, 93.7767, -64.8276, 39.4743
0.508, 1, 34.4838, 50.3847, -11.3697, 93.813, -64.6961, 39.5194
0.512, 1, 34.4981, 50.3622, -11.3967, 93.8493, -64.5647, 39.5644
0.516, 1, 34.5123, 50.3397, -11.4237, 93.8855, -64.4336, 39.6094
0.52, 1, 34.5265, 50.3173, -11.4507, 93.9217, -64.3026, 39.6543
0.524, 1, 34.5408, 50.2949, -11.4776, 93.9578, -64.1719, 39.6991
0.528, 1, 34.5549, 50.2725, -11.5045, 93.9938, -64.0413, 39.7439
0.532, 1, 34.5691, 50.2501, -11.5313, 94.0298, -63.9109, 39.7886
0.536, 1, 34.5832, 50.2278, -11.5581, 94.0657, -63.7807, 39.8332
0.54, 1, 34.5974, 50.2056, -11.5848, 94.1016, -63.6507, 39.8777
0.544, 1, 34.6115, 50.1833, -11.6116, 94.1375, -63.5209, 39.9222
0.548, 1, 34.6255, 50.1611, -11.6382, 94.1732, -63.3913, 39.9667
0.552, 1, 34.6396, 50.1389, -11.6649, 94.209, -63.2619, 40.0111
0.556, 1, 34.6536, 50.1168, -11.6915, 94.2447, -63.1326, 40.0554
0.56, 1, 34.6677, 50.0947, -11.718, 94.2803, -63.0036, 40.0996
0.564, 1, 34.6817, 50.0726, -11.7446, 94.3159, -62.8747, 40.1438
0.568, 1, 34.6956, 50.0505, -11.7711, 94.3514, -62.746, 40.1879
0.572, 1, 34.7096, 50.0285, -11.7975, 94.3869, -62.6175, 40.2319
0.576, 1, 34.7235, 50.0065, -11.8239, 94.4223, -62.4892, 40.2759
0.58, 1, 34.7375, 49.9846, -11.8503, 94.4577, -62.361, 40.3199
0.584, 1, 34.7514, 49.9626, -11.8766, 94.493, -62.2331, 40.3637
0.588, 1, 34.7652, 49.9407, -11.9029, 94.5283, -62.1053, 40.4075
0.592, 1, 34.7791, 49.9189, -11.9292, 94.5635, -61.9777, 40.4513
0.596, 1, 34.7929, 49.897, -11.9554, 94.5987, -61.8503, 40.495
0.6, 1, 34.8068, 49.8752, -11.9816, 94.6338, -61.723, 40.5386
0.604, 1, 34.8206, 49.8535, -12.0078, 94.6689, -61.5959, 40.5821
0.608, 1, 34.8343, 49.8317, -12.0339, 94.7039, -61.4691, 40.6256
0.612, 1, 34.8481, 49.81, -12.0599, 94.7389, -61.3423, 40.6691
0.616, 1, 34.8618, 49.7883, -12.086, 94.7738, -61.2158, 40.7125
0.62, 1, 34.8756, 49.7667, -12.112, 94.8087, -61.0894, 40.7558
0.624, 1, 34.8893, 49.7451, -12.138, 94.8435, -60.9632, 40.799
0.628, 1, 34.903, 49.7235, -12.1639, 94.8783, -60.8372, 40.8422
0.632, 1, 34.9166, 49.7019, -12.1898, 94.9131, -60.7114, 40.8854
0.636, 1, 34.9303, 49.6804, -12.2157, 94.9478, -60.5857, 40.9284
0.64, 1, 34.9439, 49.6589, -12.2415, 94.9824, -60.4602, 40.9715
0.644, 1, 34.9575, 49.6374, -12.2673, 95.017, -60.3349, 41.0144
0.648, 1, 34.9711, 49.6159, -12.2931, 95.0516, -60.2097, 41.0573
0.652, 1, 34.9847, 49.5945, -12.3188, 95.0861, -60.0847, 41.1002
0.656, 1, 34.9983, 49.5731, -12.3445, 95.1205, -59.9599, 41.143
0.66, 1, 35.0118, 49.5518, -12.3701, 95.1549, -59.8352, 41.1857
0.664, 1, 35.0253, 49.5304, -12.3958, 95.1893, -59.7107, 41.2284
0.668, 1, 35.0388, 49.5091, -12.4214, 95.2236, -59.5864, 41.271
0.672, 1, 35.0523, 49.4879, -12.4469, 95.2579, -59.4622, 41.3136
0.676, 1, 35.0658, 49.4666, -12.4724, 95.2921, -59.3382, 41.3561
0.68, 1, 35.0792, 49.4454, -12.4979, 95.3263, -59.2144, 41.3985
0.684, 1, 35.0927, 49.4242, -12.5234, 95.3605, -59.0907, 41.4409
0.688, 1, 35.1061, 49.4031, -12.5488, 95.3946, -58.9672, 41.4833
0.692, 1, 35.1195, 49.3819, -12.5742, 95.4286, -58.8439, 41.5256
0.696, 1, 35.1329, 49.3608, -12.5995, 95.4626, -58.7207, 41.5678
0.7, 1, 35.1462, 49.3397, -12.6249, 95.4966, -58.5977, 41.61
0.704, 1, 35.1596, 49.3187, -12.6501, 95.5305, -58.4748, 41.6521
0.708, 1, 35.1729, 49.2977, -12.6754, 95.5644, -58.3521, 41.6941
0.712, 1, 35.1862, 49.2767, -12.7006, 95.5982, -58.2296, 41.7361
0.716, 1, 35.1995, 49.2557, -12.7258, 95.632, -58.1072, 41.7781
0.72, 1, 35.2128, 49.2347, -12.751, 95.6657, -57.985, 41.82
0.724, 1, 35.226, 49.2138, -12.7761, 95.6994, -57.8629, 41.8618
0.728, 1, 35.2393, 49.1929, -12.8012, 95.7331, -57.741, 41.9036
0.732, 1, 35.2525, 49.1721, -12.8262, 95.7667, -57.6192, 41.9454
0.736, 1, 35.2657, 49.1512, -12.8513, 95.8003, -57.4976, 41.9871
0.74, 1, 35.2789, 49.1304, -12.8763, 95.8338, -57.3762, 42.0287
0.744, 1, 35.2921, 49.1097, -12.9012, 95.8673, -57.2549, 42.0703
0.748, 1, 35.3052, 49.0889, -12.9262, 95.9007, -57.1338, 42.1118
0.752, 1, 35.3184, 49.0682, -12.9511, 95.9341, -57.0128, 42.1533
0.756, 1, 35.3315, 49.0475, -12.9759, 95.9675, -56.8919, 42.1947
0.76, 1, 35.3446, 49.0268, -13.0008, 96.0008, -56.7712, 42.2361
0.764, 1, 35.3577, 49.0061, -13.0256, 96.0341, -56.6507, 42.2774
0.768, 1, 35.3708, 48.9855, -13.0504, 96.0673, -56.5303, 42.3187
0.772, 1, 35.3838, 48.9649, -13.0751, 96.1005, -56.4101, 42.3599
0.776, 1, 35.3969, 48.9443, -13.0998, 96.1336, -56.29, 42.401
0.78, 1, 35.4099, 48.9238, -13.1245, 96.1667, -56.1701, 42.4422
0.784, 1, 35.4229, 48.9032, -13.1492, 96.1998, -56.0503, 42.4832
0.788, 1, 35.4359, 48.8827, -13.1738, 96.2328, -55.9307, 42.5242
0.792, 1, 35.4489, 48.8623, -13.1984, 96.2658, -55.8112, 42.5652
0.796, 1, 35.4619, 48.8418, -13.2229, 96.2988, -55.6918, 42.6061
0.8, 1, 35.4748, 48.8214, -13.2475, 96.3317, -55.5726, 42.647
0.804, 1, 35.4877, 48.801, -13.272, 96.3645, -55.4535, 42.6878
0.808, 1, 35.5006, 48.7806, -13.2965, 96.3974, -55.3346, 42.7285
0.812, 1, 35.5136, 48.7603, -13.3209, 96.4302, -55.2159, 42.7693
0.816, 1, 35.5264, 48.7399, -13.3453, 96.4629, -55.0972, 42.8099
0.82, 1, 35.5393, 48.7196, -13.3697, 96.4956, -54.9787, 42.8506
0.824, 1, 35.5522, 48.6994, -13.3941, 96.5283, -54.8604, 42.8911
0.828, 1, 35.565, 48.6791, -13.4184, 96.5609, -54.7422, 42.9316
0.832, 1, 35.5778, 48.6589, -13.4427, 96.5935, -54.6241, 42.9721
0.836, 1, 35.5906, 48.6387, -13.467, 96.6261, -54.5062, 43.0125
0.84, 1, 35.6034, 48.6185, -13.4912, 96.6586, -54.3884, 43.0529
0.844, 1, 35.6162, 48.5983, -13.5154, 96.6911, -54.2707, 43.0933
0.848, 1, 35.629, 48.5782, -13.5396, 96.7235, -54.1532, 43.1335
0.852, 1, 35.6417, 48.5581, -13.5638, 96.7559, -54.0358, 43.1738
0.856, 1, 35.6545, 48.538, -13.5879, 96.7883, -53.9186, 43.214
0.86, 1, 35.6672, 48.5179, -13.612, 96.8206, -53.8015, 43.2541
0.864, 1, 35.6799, 48.4979, -13.6361, 96.8529, -53.6845, 43.2942
0.868, 1, 35.6925, 48.4779, -13.6601, 96.8852, -53.5677, 43.3343
0.872, 1, 35.7051, 48.458, -13.6841, 96.9174, -53.451, 43.3743
0.876, 1, 35.7176, 48.4381, -13.7081, 96.9496, -53.3345, 43.4142
0.88, 1, 35.73, 48.4184, -13.7321, 96.9817, -53.2181, 43.4541
0.884, 1, 35.7419, 48.3992, -13.756, 97.0137, -53.102, 43.4939
0.888, 1, 35.7533, 48.3805, -13.7798, 97.0457, -52.9863, 43.5336
0.892, 1, 35.7641, 48.3627, -13.8035, 97.0775, -52.8712, 43.5731
0.896, 1, 35.7742, 48.3457, -13.8269, 97.109, -52.757, 43.6122
0.9, 1, 35.7836, 48.3297, -13.8501, 97.1401, -52.6444, 43.6508
0.904, 1, 35.7924, 48.3145, -13.8728, 97.1706, -52.534, 43.6887
0.908, 1, 35.8007, 48.3002, -13.895, 97.2003, -52.4264, 43.7256
0.912, 1, 35.8087, 48.2866, -13.9163, 97.229, -52.3226, 43.7613
0.916, 1, 35.8164, 48.2736, -13.9367, 97.2564, -52.2234, 43.7953
0.92, 1, 35.8238, 48.2613, -13.956, 97.2823, -52.1296, 43.8275
0.924, 1, 35.8309, 48.2497, -13.9741, 97.3065, -52.042, 43.8576
0.928, 1, 35.8377, 48.2387, -13.9907, 97.3288, -51.9612, 43.8853
0.932, 1, 35.8442, 48.2281, -14.0057, 97.3491, -51.888, 43.9104
0.936, 1, 35.8507, 48.2178, -14.0192, 97.3671, -51.8226, 43.9328
0.94, 1, 35.8571, 48.2077, -14.031, 97.3829, -51.7653, 43.9524
0.944, 1, 35.8634, 48.1979, -14.0412, 97.3966, -51.716, 43.9693
0.948, 1, 35.8695, 48.1884, -14.0498, 97.4081, -51.6743, 43.9836
0.952, 1, 35.8755, 48.1793, -14.0569, 97.4175, -51.6399, 43.9954
0.956, 2, 35.8812, 48.1708, -14.0626, 97.4252, -51.612, 44.0049
0.96, 2, 35.8865, 48.1631, -14.0672, 97.4313, -51.5899, 44.0124
0.964, 2, 35.8915, 48.1562, -14.0707, 97.436, -51.5728, 44.0183
0.968, 2, 35.896, 48.1502, -14.0734, 97.4396, -51.5598, 44.0227
0.972, 2, 35.9001, 48.145, -14.0754, 97.4422, -51.5503, 44.0259
0.976, 2, 35.9037, 48.1406, -14.0768, 97.4441, -51.5433, 44.0283
0.98, 2, 35.9067, 48.1371, -14.0778, 97.4454, -51.5385, 44.0299
0.984, 2, 35.9091, 48.1343, -14.0785, 97.4463, -51.5351, 44.0311
0.988, 2, 35.911, 48.1323, -14.079, 97.4469, -51.5327, 44.0319
0.992, 2, 35.9123, 48.1308, -14.0793, 97.4474, -51.5312, 44.0324
0.996, 2, 35.9132, 48.1299, -14.0796, 97.4477, -51.5301, 44.0328
1, 2, 35.9138, 48.1292, -14.0797, 97.4479, -51.5294, 44.033
1.004, 2, 35.9142, 48.1287, -14.0798, 97.448, -51.5289, 44.0332
1.008, 2, 35.9145, 48.1284, -14.0799, 97.4481, -51.5285, 44.0333
1.012, 2, 35.9147, 48.1282, -14.0799, 97.4482, -51.5283, 44.0334
1.016, 2, 35.9149, 48.1281, -14.08, 97.4482, -51.5282, 44.0334
1.02, 2, 35.9149, 48.128, -14.08, 97.4482, -51.5281, 44.0335
1.024, 2, 35.915, 48.1279, -14.08, 97.4482, -51.528, 44.0335
1.027, 2, 35.915, 48.1279, -14.08, 97.4483, -51.5279, 44.0335
1.032, 2, 35.9151, 48.1278, -14.08, 97.4483, -51.5279, 44.0335
1.036, 2, 35.9151, 48.1278, -14.08, 97.4483, -51.5279, 44.0335
1.04, 2, 35.9151, 48.1278, -14.08, 97.4483, -51.5279, 44.0335
1.044, 2, 35.9151, 48.1278, -14.08, 97.4483, -51.5279, 44.0335
1.048, 2, 35.9151, 48.1278, -14.08, 97.4483, -51.5279, 44.0335
1.052, 2, 35.9151, 48.1278, -14.08, 97.4483, -51.5279, 44.0335
1.055, 2, 35.9151, 48.1278, -14.08, 97.4483, -51.5278, 44.0335
1.06, 2, 35.9151, 48.1278, -14.08, 97.4483, -51.5278, 44.0335
1.064, 2, 35.9151, 48.1278, -14.08, 97.4483, -51.5278, 44.0335
1.068, 2, 35.9151, 48.1278, -14.08, 97.4483, -51.5278, 44.0335
1.072, 2, 35.9151, 48.1278, -14.08, 97.4483, -51.5278, 44.0335
1.076, 2, 35.9151, 48.1278, -14.08, 97.4483, -51.5278, 44.0335
1.08, 2, 35.9151, 48.1278, -14.08, 97.4483, -51.5278, 44.0335
1.084, 2, 35.9151, 48.1278, -14.08, 97.4483, -51.5278, 44.0335
1.088, 2, 35.9151, 48.1278, -14.08, 97.4483, -51.5278, 44.0335
1.091, 2, 35.9151, 48.1278, -14.08, 97.4483, -51.5278, 44.0335
1.096, 2, 35.9151, 48.1278, -14.08, 97.4483, -51.5278, 44.0335
1.1, 2, 35.9151, 48.1278, -14.08, 97.4483, -51.5278, 44.0335
1.104, 2, 35.9151, 48.1278, -14.08, 97.4483, -51.5278, 44.0335
1.108, 2, 35.9151, 48.1278, -14.08, 97.4483, -51.5278, 44.0335
1.112, 2, 35.9151, 48.1278, -14.08, 97.4483, -51.5278, 44.0335
1.116, 2, 35.9151, 48.1278, -14.08, 97.4483, -51.5278, 44.0335
1.119, 2, 35.9151, 48.1278, -14.08, 97.4483, -51.5278, 44.0335
1.124, 2, 35.9151, 48.1278, -14.08, 97.4483, -51.5278, 44.0335
1.128, 2, 35.9151, 48.1278, -14.08, 97.4483, -51.5278, 44.0335
1.132, 2, 35.9151, 48.1278, -14.08, 97.4483, -51.5278, 44.0335
1.136, 2, 35.9151, 48.1278, -14.08, 97.4483, -51.5278, 44.0335
1.14, 2, 35.9151, 48.1278, -14.08, 97.4483, -51.5278, 44.0335
1.144, 2, 35.9151, 48.1278, -14.08, 97.4483, -51.5278, 44.0335
1.147, 2, 35.9151, 48.1278, -14.08, 97.4483, -51.5278, 44.0335
1.152, 2, 35.9151, 48.1278, -14.08, 97.4483, -51.5278, 44.0335
1.156, 2, 35.9151, 48.1278, -14.08, 97.4483, -51.5278, 44.0335
1.16, 2, 35.9151, 48.1278, -14.08, 97.4483, -51.5278, 44.0335
1.164, 2, 35.9151, 48.1278, -14.08, 97.4483, -51.5278, 44.0335
1.168, 2, 35.9151, 48.1278, -14.08, 97.4483, -51.5278, 44.0335
1.172, 2, 35.9151, 48.1278, -14.08, 97.4483, -51.5278, 44.0335
1.175, 2, 35.9151, 48.1278, -14.08, 97.4483, -51.5278, 44.0335
1.18, 2, 35.9151, 48.1278, -14.08, 97.4483, -51.5278, 44.0335
1.184, 2, 35.9151, 48.1278, -14.08, 97.4483, -51.5278, 44.0335
1.188, 2, 35.9151, 48.1278, -14.08, 97.4483, -51.5278, 44.0335
1.192, 2, 35.9151, 48.1278, -14.08, 97.4483, -51.5278, 44.0335
1.196, 2, 35.9151, 48.1278, -14.08, 97.4483, -51.5278, 44.0335
1.2, 2, 35.9151, 48.1278, -14.08, 97.4483, -51.5278, 44.0335
1.204, 2, 35.9151, 48.1278, -14.08, 97.4483, -51.5278, 44.0335
1.208, 2, 35.9151, 48.1278, -14.08, 97.4483, -51.5278, 44.0335
1.212, 2, 35.9151, 48.1278, -14.08, 97.4483, -51.5278, 44.0335
1.216, 2, 35.9151, 48.1278, -14.08, 97.4483, -51.5278, 44.0335
1.22, 2, 35.9151, 48.1278, -14.08, 97.4483, -51.5278, 44.0335
1.224, 2, 35.9151, 48.1278, -14.08, 97.4483, -51.5278, 44.0335
1.228, 2, 35.9151, 48.1278, -14.08, 97.4483, -51.5278, 44.0335
1.232, 2, 35.9151, 48.1278, -14.08, 97.4483, -51.5278, 44.0335
1.236, 2, 35.9151, 48.1278, -14.08, 97.4483, -51.5278, 44.0335
1.24, 2, 35.9151, 48.1278, -14.08, 97.4483, -51.5278, 44.0335
1.244, 2, 35.9151, 48.1278, -14.08, 97.4483, -51.5278, 44.0335
1.248, 2, 35.9151, 48.1278, -14.08, 97.4483, -51.5278, 44.0335
1.252, 2, 35.9151, 48.1278, -14.08, 97.4483, -51.5278, 44.0335
1.256, 2, 35.9151, 48.1278, -14.08, 97.4483, -51.5278, 44.0335
1.26, 2, 35.9151, 48.1278, -14.08, 97.4483, -51.5278, 44.0335
1.264, 2, 35.9151, 48.1278, -14.08, 97.4483, -51.5278, 44.0335
1.267, 2, 35.9151, 48.1278, -14.08, 97.4483, -51.5278, 44.0335
1.272, 2, 35.9151, 48.1278, -14.08, 97.4483, -51.5278, 44.0335
1.276, 2, 35.9151, 48.1278, -14.08, 97.4483, -51.5278, 44.0335
1.28, 2, 35.9151, 48.1278, -14.08, 97.4483, -51.5278, 44.0335
1.284, 2, 35.9151, 48.1278, -14.08, 97.4483, -51.5278, 44.0335
1.288, 2, 35.9151, 48.1278, -14.08, 97.4483, -51.5278, 44.0335
1.292, 2, 35.9151, 48.1278, -14.08, 97.4483, -51.5278, 44.0335
1.295, 2, 35.9151, 48.1278, -14.08, 97.4483, -51.5278, 44.0335
1.3, 2, 35.9151, 48.1278, -14.08, 97.4483, -51.5278, 44.0335
1.304, 2, 35.9151, 48.1278, -14.08, 97.4483, -51.5278, 44.0335
1.308, 2, 35.9151, 48.1278, -14.08, 97.4483, -51.5278, 44.0335
1.312, 2, 35.9151, 48.1278, -14.08, 97.4483, -51.5278, 44.0335
1.316, 2, 35.9151, 48.1278, -14.08, 97.4483, -51.5278, 44.0335
1.32, 2, 35.9151, 48.1278, -14.08, 97.4483, -51.5278, 44.0335
1.324, 2, 35.9151, 48.1278, -14.08, 97.4483, -51.5278, 44.0335
1.328, 2, 35.9151, 48.1278, -14.08, 97.4483, -51.5278, 44.0335
1.332, 2, 35.9151, 48.1278, -14.08, 97.4483, -51.5278, 44.0335
1.336, 2, 35.9151, 48.1278, -14.08, 97.4483, -51.5278, 44.0335
1.34, 2, 35.9151, 48.1278, -14.08, 97.4483, -51.5278, 44.0335
1.344, 2, 35.9151, 48.1278, -14.08, 97.4483, -51.5278, 44.0335
1.348, 2, 35.9151, 48.1278, -14.08, 97.4483, -51.5278, 44.0335
1.352, 2, 35.9151, 48.1278, -14.08, 97.4483, -51.5278, 44.0335
1.356, 2, 35.9151, 48.1278, -14.08, 97.4483, -51.5278, 44.0335
1.36, 2, 35.9151, 48.1278, -14.08, 97.4483, -51.5278, 44.0335
1.364, 2, 35.9151, 48.1278, -14.08, 97.4483, -51.5278, 44.0335
1.368, 2, 35.9151, 48.1278, -14.08, 97.4483, -51.5278, 44.0335
1.372, 2, 35.9151, 48.1278, -14.08, 97.4483, -51.5278, 44.0335
1.376, 2, 35.9151, 48.1278, -14.08, 97.4483, -51.5278, 44.0335
1.38, 2, 35.9151, 48.1278, -14.08, 97.4483, -51.5278, 44.0335
1.384, 2, 35.9151, 48.1278, -14.08, 97.4483, -51.5278, 44.0335
1.388, 2, 35.9151, 48.1278, -14.08, 97.4483, -51.5278, 44.0335
1.392, 2, 35.9151, 48.1278, -14.08, 97.4483, -51.5278, 44.0335
1.396, 2, 35.9151, 48.1278, -14.08, 97.4483, -51.5278, 44.0335
1.4, 2, 35.9151, 48.1278, -14.08, 97.4483, -51.5278, 44.0335
1.404, 2, 35.9151, 48.1278, -14.08, 97.4483, -51.5278, 44.0335
1.408, 2, 35.9151, 48.1278, -14.08, 97.4483, -51.5278, 44.0335
1.412, 2, 35.9151, 48.1278, -14.08, 97.4483, -51.5278, 44.0335
1.416, 2, 35.9151, 48.1278, -14.08, 97.4483, -51.5278, 44.0335
1.42, 2, 35.9151, 48.1278, -14.08, 97.4483, -51.5278, 44.0335
1.424, 2, 35.9151, 48.1278, -14.08, 97.4483, -51.5278, 44.0335
1.428, 2, 35.9151, 48.1278, -14.08, 97.4483, -51.5278, 44.0335
1.432, 2, 35.9151, 48.1278, -14.08, 97.4483, -51.5278, 44.0335
1.436, 2, 35.9151, 48.1278, -14.08, 97.4483, -51.5278, 44.0335
1.44, 2, 35.9151, 48.1278, -14.08, 97.4483, -51.5278, 44.0335
1.444, 2, 35.9151, 48.1278, -14.08, 97.4483, -51.5278, 44.0335
1.448, 2, 35.9151, 48.1278, -14.08, 97.4483, -51.5278, 44.0335
1.452, 2, 35.9151, 48.1278, -14.08, 97.4483, -51.5278, 44.0335
1.456, 3, 35.9151, 48.1278, -14.08, 97.4483, -51.5278, 44.0335
1.46, 3, 35.9151, 48.1278, -14.08, 97.4483, -51.5278, 44.0335
1.464, 3, 35.9151, 48.1278, -14.08, 97.4483, -51.5278, 44.0335
1.468, 3, 35.9151, 48.1278, -14.08, 97.4483, -51.5278, 44.0335
1.472, 3, 35.9151, 48.1278, -14.08, 97.4483, -51.5278, 44.0335
1.476, 3, 35.9151, 48.1278, -14.08, 97.4483, -51.5278, 44.0335
1.48, 3, 35.9151, 48.1278, -14.08, 97.4483, -51.5278, 44.0335
1.484, 3, 35.9151, 48.1278, -14.08, 97.4483, -51.5278, 44.0335
1.488, 3, 35.9151, 48.1278, -14.08, 97.4483, -51.5278, 44.0335
1.492, 3, 35.9151, 48.1278, -14.08, 97.4483, -51.5278, 44.0335
1.496, 3, 35.9151, 48.1278, -14.08, 97.4483, -51.5278, 44.0335
1.5, 3, 35.9151, 48.1278, -14.08, 97.4483, -51.5278, 44.0335
1.504, 3, 35.9151, 48.1278, -14.08, 97.4483, -51.5278, 44.0335
1.508, 3, 35.9151, 48.1278, -14.08, 97.4483, -51.5278, 44.0335
1.512, 4, 35.9151, 48.1278, -14.08, 97.4483, -51.5278, 44.0335
1.516, 4, 35.9151, 48.1278, -14.08, 97.4483, -51.5278, 44.0335
1.52, 4, 35.9151, 48.1278, -14.08, 97.4483, -51.5278, 44.0335
1.524, 4, 35.9151, 48.1278, -14.08, 97.4483, -51.5278, 44.0335
1.528, 4, 35.9151, 48.1278, -14.08, 97.4483, -51.5278, 44.0335
1.532, 4, 35.9151, 48.1278, -14.08, 97.4483, -51.5278, 44.0335
1.536, 4, 35.9151, 48.1278, -14.08, 97.4483, -51.5278, 44.0335
1.54, 4, 35.9151, 48.1278, -14.08, 97.4483, -51.5278, 44.0335
1.544, 4, 35.9151, 48.1278, -14.08, 97.4483, -51.5278, 44.0335
1.548, 4, 35.9151, 48.1278, -14.08, 97.4483, -51.5278, 44.0335
1.552, 4, 35.9151, 48.1278, -14.08, 97.4483, -51.5278, 44.0335
1.556, 4, 35.9151, 48.128, -14.08, 97.4483, -51.5279, 44.0335
1.56, 4, 35.915, 48.1283, -14.0801, 97.4483, -51.5279, 44.0335
1.564, 4, 35.9147, 48.1291, -14.0801, 97.4483, -51.528, 44.0334
1.568, 4, 35.9143, 48.1303, -14.0802, 97.4483, -51.5284, 44.0332
1.572, 4, 35.9138, 48.1321, -14.0803, 97.4484, -51.5291, 44.0327
1.576, 4, 35.9131, 48.1343, -14.0806, 97.4485, -51.5304, 44.0319
1.58, 4, 35.9124, 48.137, -14.081, 97.4487, -51.5326, 44.0305
1.584, 4, 35.9116, 48.1401, -14.0816, 97.449, -51.5361, 44.0284
1.588, 4, 35.9108, 48.1435, -14.0824, 97.4493, -51.541, 44.0254
1.592, 4, 35.9101, 48.1471, -14.0834, 97.4499, -51.5478, 44.0212
1.596, 4, 35.9095, 48.151, -14.0847, 97.4505, -51.5566, 44.0157
1.6, 4, 35.909, 48.1552, -14.0863, 97.4513, -51.5676, 44.0089
1.604, 4, 35.9085, 48.1599, -14.0882, 97.4523, -51.581, 44.0006
1.608, 4, 35.908, 48.165, -14.0905, 97.4535, -51.5968, 43.9909
1.612, 4, 35.9077, 48.1704, -14.093, 97.4548, -51.615, 43.9796
1.616, 4, 35.9075, 48.1761, -14.0959, 97.4563, -51.6356, 43.9669
1.62, 4, 35.9074, 48.1821, -14.0991, 97.458, -51.6583, 43.9528
1.624, 4, 35.9073, 48.1883, -14.1025, 97.4598, -51.6831, 43.9376
1.628, 4, 35.9073, 48.1948, -14.1062, 97.4617, -51.7096, 43.9212
1.632, 4, 35.9073, 48.2017, -14.1101, 97.4637, -51.7375, 43.904
1.636, 4, 35.9072, 48.2091, -14.1141, 97.4657, -51.7665, 43.8861
1.64, 4, 35.9069, 48.2171, -14.1183, 97.4678, -51.7964, 43.8677
1.644, 4, 35.9065, 48.2257, -14.1225, 97.4699, -51.8268, 43.849
1.648, 4, 35.906, 48.2347, -14.1268, 97.4721, -51.8577, 43.83
1.652, 4, 35.9054, 48.244, -14.1312, 97.4742, -51.8888, 43.8109
1.656, 4, 35.9047, 48.2536, -14.1355, 97.4764, -51.9201, 43.7917
1.66, 4, 35.904, 48.2633, -14.1399, 97.4785, -51.9515, 43.7724
1.664, 4, 35.9032, 48.2732, -14.1443, 97.4806, -51.9831, 43.753
1.668, 4, 35.9024, 48.2831, -14.1487, 97.4827, -52.0146, 43.7337
1.672, 4, 35.9016, 48.2931, -14.1531, 97.4848, -52.0463, 43.7143
1.676, 4, 35.9008, 48.303, -14.1574, 97.4868, -52.0779, 43.6949
1.68, 4, 35.9, 48.313, -14.1618, 97.4889, -52.1096, 43.6756
1.684, 4, 35.8992, 48.3231, -14.1662, 97.4909, -52.1412, 43.6562
1.688, 4, 35.8983, 48.3331, -14.1705, 97.4929, -52.1729, 43.6369
1.692, 4, 35.8975, 48.3431, -14.1749, 97.4949, -52.2046, 43.6175
1.696, 4, 35.8966, 48.3532, -14.1792, 97.4968, -52.2362, 43.5982
1.7, 4, 35.8958, 48.3632, -14.1835, 97.4988, -52.2679, 43.5789
1.704, 4, 35.8949, 48.3732, -14.1878, 97.5007, -52.2996, 43.5596
1.708, 4, 35.894, 48.3832, -14.1921, 97.5026, -52.3313, 43.5404
1.712, 4, 35.8932, 48.3932, -14.1964, 97.5044, -52.3629, 43.5211
1.716, 4, 35.8923, 48.4032, -14.2007, 97.5063, -52.3946, 43.5019
1.72, 4, 35.8914, 48.4133, -14.205, 97.5081, -52.4263, 43.4826
1.724, 4, 35.8905, 48.4233, -14.2092, 97.5099, -52.4579, 43.4634
1.728, 4, 35.8897, 48.4333, -14.2135, 97.5117, -52.4896, 43.4442
1.732, 4, 35.8888, 48.4432, -14.2177, 97.5135, -52.5213, 43.425
1.736, 4, 35.8879, 48.4532, -14.2219, 97.5152, -52.5529, 43.4059
1.74, 4, 35.887, 48.4632, -14.2262, 97.517, -52.5846, 43.3867
1.744, 4, 35.8861, 48.4732, -14.2304, 97.5187, -52.6162, 43.3676
1.748, 4, 35.8852, 48.4832, -14.2346, 97.5204, -52.6479, 43.3485
1.752, 4, 35.8843, 48.4931, -14.2388, 97.522, -52.6795, 43.3294
1.756, 4, 35.8834, 48.5031, -14.2429, 97.5237, -52.7111, 43.3103
1.76, 4, 35.8825, 48.513, -14.2471, 97.5253, -52.7428, 43.2912
1.764, 4, 35.8816, 48.523, -14.2513, 97.5269, -52.7744, 43.2722
1.768, 4, 35.8806, 48.5329, -14.2554, 97.5285, -52.806, 43.2531
1.772, 4, 35.8797, 48.5429, -14.2595, 97.53, -52.8377, 43.2341
1.776, 4, 35.8788, 48.5528, -14.2637, 97.5316, -52.8693, 43.2151
1.78, 4, 35.8779, 48.5627, -14.2678, 97.5331, -52.9009, 43.1961
1.784, 4, 35.8769, 48.5726, -14.2719, 97.5346, -52.9325, 43.1771
1.788, 4, 35.876, 48.5825, -14.276, 97.5361, -52.9641, 43.1582
1.792, 4, 35.8751, 48.5925, -14.28, 97.5376, -52.9958, 43.1392
1.796, 4, 35.8741, 48.6024, -14.2841, 97.539, -53.0274, 43.1203
1.8, 4, 35.8732, 48.6123, -14.2882, 97.5404, -53.059, 43.1014
1.804, 4, 35.8722, 48.6222, -14.2922, 97.5418, -53.0906, 43.0825
1.808, 4, 35.8713, 48.632, -14.2963, 97.5432, -53.1222, 43.0636
1.812, 4, 35.8703, 48.6419, -14.3003, 97.5445, -53.1538, 43.0447
1.816, 4, 35.8694, 48.6518, -14.3043, 97.5459, -53.1853, 43.0258
1.82, 4, 35.8684, 48.6617, -14.3083, 97.5472, -53.2169, 43.007
1.824, 4, 35.8674, 48.6715, -14.3123, 97.5485, -53.2485, 42.9882
1.828, 4, 35.8664, 48.6814, -14.3163, 97.5498, -53.2801, 42.9694
1.832, 4, 35.8655, 48.6912, -14.3202, 97.551, -53.3117, 42.9506
1.836, 4, 35.8645, 48.7011, -14.3242, 97.5523, -53.3433, 42.9318
1.84, 4, 35.8635, 48.7109, -14.3282, 97.5535, -53.3748, 42.913
1.844, 4, 35.8625, 48.7208, -14.3321, 97.5547, -53.4064, 42.8943
1.848, 4, 35.8615, 48.7306, -14.336, 97.5559, -53.438, 42.8756
1.852, 4, 35.8605, 48.7404, -14.3399, 97.557, -53.4695, 42.8568
1.856, 4, 35.8595, 48.7503, -14.3439, 97.5582, -53.5011, 42.8381
1.86, 4, 35.8585, 48.7601, -14.3478, 97.5593, -53.5326, 42.8194
1.864, 4, 35.8575, 48.7699, -14.3516, 97.5604, -53.5642, 42.8008
1.868, 4, 35.8565, 48.7797, -14.3555, 97.5615, -53.5958, 42.7821
1.872, 4, 35.8555, 48.7895, -14.3594, 97.5625, -53.6273, 42.7635
1.876, 4, 35.8545, 48.7993, -14.3632, 97.5635, -53.6588, 42.7448
1.88, 4, 35.8535, 48.8091, -14.3671, 97.5646, -53.6904, 42.7262
1.884, 4, 35.8525, 48.8188, -14.3709, 97.5656, -53.7219, 42.7076
1.888, 4, 35.8514, 48.8286, -14.3747, 97.5665, -53.7535, 42.689
1.892, 4, 35.8504, 48.8384, -14.3785, 97.5675, -53.785, 42.6705
1.896, 4, 35.8494, 48.8482, -14.3823, 97.5684, -53.8165, 42.6519
1.9, 4, 35.8483, 48.8579, -14.3861, 97.5693, -53.848, 42.6334
1.904, 4, 35.8473, 48.8677, -14.3899, 97.5702, -53.8796, 42.6148
1.908, 4, 35.8463, 48.8774, -14.3937, 97.5711, -53.9111, 42.5963
1.912, 4, 35.8452, 48.8872, -14.3974, 97.572, -53.9426, 42.5778
1.916, 4, 35.8442, 48.8969, -14.4012, 97.5728, -53.9741, 42.5593
1.92, 4, 35.8431, 48.9066, -14.4049, 97.5736, -54.0056, 42.5409
1.924, 4, 35.8421, 48.9163, -14.4086, 97.5744, -54.0371, 42.5224
1.928, 4, 35.841, 48.9261, -14.4123, 97.5752, -54.0686, 42.504
1.932, 4, 35.8399, 48.9358, -14.416, 97.576, -54.1001, 42.4856
1.936, 4, 35.8389, 48.9455, -14.4197, 97.5767, -54.1316, 42.4671
1.94, 4, 35.8378, 48.9552, -14.4234, 97.5774, -54.1631, 42.4487
1.944, 4, 35.8367, 48.9649, -14.4271, 97.5781, -54.1946, 42.4304
1.948, 4, 35.8356, 48.9746, -14.4307, 97.5788, -54.2261, 42.412
1.952, 4, 35.8345, 48.9843, -14.4344, 97.5795, -54.2575, 42.3936
1.956, 4, 35.8335, 48.9939, -14.438, 97.5801, -54.289, 42.3753
1.96, 4, 35.8324, 49.0036, -14.4416, 97.5808, -54.3205, 42.357
1.964, 4, 35.8313, 49.0133, -14.4452, 97.5814, -54.352, 42.3387
1.968, 4, 35.8302, 49.0229, -14.4488, 97.582, -54.3834, 42.3204
1.972, 4, 35.8291, 49.0326, -14.4524, 97.5825, -54.4149, 42.3021
1.976, 4, 35.828, 49.0422, -14.456, 97.5831, -54.4464, 42.2838
1.98, 4, 35.8269, 49.0519, -14.4596, 97.5836, -54.4778, 42.2656
1.984, 4, 35.8258, 49.0615, -14.4631, 97.5841, -54.5093, 42.2473
1.988, 4, 35.8246, 49.0712, -14.4667, 97.5846, -54.5407, 42.2291
1.992, 4, 35.8235, 49.0808, -14.4702, 97.5851, -54.5722, 42.2109
1.996, 4, 35.8224, 49.0904, -14.4737, 97.5855, -54.6036, 42.1927
1.999, 4, 35.8213, 49.1, -14.4772, 97.5859, -54.6351, 42.1745
2.004, 4, 35.8201, 49.1096, -14.4807, 97.5864, -54.6665, 42.1563
2.008, 4, 35.819, 49.1192, -14.4842, 97.5868, -54.6979, 42.1382
2.012, 4, 35.8179, 49.1288, -14.4877, 97.5871, -54.7294, 42.12
2.015, 4, 35.8167, 49.1384, -14.4911, 97.5875, -54.7608, 42.1019
2.019, 4, 35.8156, 49.148, -14.4946, 97.5878, -54.7922, 42.0838
2.024, 4, 35.8144, 49.1576, -14.498, 97.5882, -54.8236, 42.0657
2.028, 4, 35.8133, 49.1672, -14.5015, 97.5884, -54.855, 42.0476
2.031, 4, 35.8121, 49.1767, -14.5049, 97.5887, -54.8865, 42.0295
2.036, 4, 35.811, 49.1863, -14.5083, 97.589, -54.9179, 42.0115
2.04, 4, 35.8098, 49.1958, -14.5117, 97.5892, -54.9493, 41.9934
2.044, 4, 35.8086, 49.2054, -14.5151, 97.5895, -54.9807, 41.9754
2.048, 4, 35.8075, 49.2149, -14.5185, 97.5897, -55.0121, 41.9573
2.051, 4, 35.8063, 49.2245, -14.5218, 97.5899, -55.0435, 41.9393
2.055, 4, 35.8051, 49.234, -14.5252, 97.59, -55.0749, 41.9213
2.06, 4, 35.804, 49.2435, -14.5285, 97.5902, -55.1063, 41.9034
2.064, 4, 35.8028, 49.2531, -14.5319, 97.5903, -55.1376, 41.8854
2.068, 4, 35.8016, 49.2626, -14.5352, 97.5904, -55.169, 41.8674
2.071, 4, 35.8004, 49.2721, -14.5385, 97.5905, -55.2004, 41.8495
2.076, 4, 35.7992, 49.2816, -14.5418, 97.5906, -55.2318, 41.8316
2.08, 4, 35.798, 49.2911, -14.5451, 97.5907, -55.2632, 41.8136
2.084, 4, 35.7968, 49.3006, -14.5484, 97.5907, -55.2945, 41.7957
2.087, 4, 35.7956, 49.3101, -14.5516, 97.5907, -55.3259, 41.7779
2.092, 4, 35.7944, 49.3195, -14.5549, 97.5908, -55.3573, 41.76
2.096, 4, 35.7932, 49.329, -14.5581, 97.5907, -55.3886, 41.7421
2.1, 4, 35.792, 49.3385, -14.5613, 97.5907, -55.42, 41.7243
2.104, 4, 35.7907, 49.3479, -14.5646, 97.5907, -55.4513, 41.7064
2.107, 4, 35.7895, 49.3574, -14.5678, 97.5906, -55.4827, 41.6886
2.111, 4, 35.7883, 49.3669, -14.571, 97.5905, -55.514, 41.6708
2.116, 4, 35.7871, 49.3763, -14.5742, 97.5904, -55.5454, 41.653
2.12, 4, 35.7858, 49.3857, -14.5773, 97.5903, -55.5767, 41.6352
2.124, 4, 35.7846, 49.3952, -14.5805, 97.5901, -55.608, 41.6174
2.127, 4, 35.7833, 49.4046, -14.5837, 97.59, -55.6394, 41.5997
2.132, 4, 35.7821, 49.414, -14.5868, 97.5898, -55.6707, 41.5819
2.136, 4, 35.7809, 49.4234, -14.5899, 97.5896, -55.702, 41.5642
2.14, 4, 35.7796, 49.4328, -14.593, 97.5894, -55.7333, 41.5465
2.143, 4, 35.7784, 49.4422, -14.5961, 97.5892, -55.7647, 41.5288
2.148, 4, 35.7771, 49.4516, -14.5992, 97.5889, -55.796, 41.5111
2.152, 4, 35.7758, 49.461, -14.6023, 97.5887, -55.8273, 41.4934
2.156, 4, 35.7746, 49.4704, -14.6054, 97.5884, -55.8586, 41.4757
2.16, 4, 35.7733, 49.4798, -14.6085, 97.5881, -55.8899, 41.4581
2.163, 4, 35.772, 49.4892, -14.6115, 97.5878, -55.9212, 41.4404
2.168, 4, 35.7708, 49.4985, -14.6146, 97.5874, -55.9525, 41.4228
2.172, 4, 35.7695, 49.5079, -14.6176, 97.5871, -55.9838, 41.4052
2.176, 4, 35.7682, 49.5172, -14.6206, 97.5867, -56.0151, 41.3875
2.179, 4, 35.7669, 49.5266, -14.6236, 97.5863, -56.0464, 41.37
2.184, 4, 35.7656, 49.5359, -14.6266, 97.5859, -56.0777, 41.3524
2.188, 4, 35.7643, 49.5453, -14.6296, 97.5855, -56.1089, 41.3348
2.192, 4, 35.763, 49.5546, -14.6326, 97.585, -56.1402, 41.3172
2.196, 4, 35.7617, 49.5639, -14.6355, 97.5846, -56.1715, 41.2997
2.199, 4, 35.7604, 49.5732, -14.6385, 97.5841, -56.2028, 41.2822
2.204, 4, 35.7591, 49.5825, -14.6414, 97.5836, -56.234, 41.2646
2.208, 4, 35.7578, 49.5919, -14.6443, 97.5831, -56.2653, 41.2471
2.212, 4, 35.7565, 49.6012, -14.6472, 97.5826, -56.2966, 41.2296
2.216, 4, 35.7552, 49.6104, -14.6501, 97.582, -56.3278, 41.2122
2.219, 4, 35.7539, 49.6197, -14.653, 97.5814, -56.3591, 41.1947
2.224, 4, 35.7525, 49.629, -14.6559, 97.5809, -56.3903, 41.1772
2.228, 4, 35.7512, 49.6383, -14.6588, 97.5803, -56.4216, 41.1598
2.232, 4, 35.7499, 49.6476, -14.6616, 97.5797, -56.4528, 41.1423
2.235, 4, 35.7485, 49.6568, -14.6645, 97.579, -56.484, 41.1249
2.24, 4, 35.7472, 49.6661, -14.6673, 97.5784, -56.5153, 41.1075
2.244, 4, 35.7459, 49.6753, -14.6701, 97.5777, -56.5465, 41.0901
2.248, 4, 35.7445, 49.6846, -14.673, 97.577, -56.5777, 41.0727
2.252, 4, 35.7432, 49.6938, -14.6758, 97.5763, -56.609, 41.0553
2.255, 4, 35.7418, 49.703, -14.6786, 97.5756, -56.6402, 41.038
2.259, 4, 35.7405, 49.7123, -14.6813, 97.5749, -56.6714, 41.0206
2.264, 4, 35.7391, 49.7215, -14.6841, 97.5741, -56.7026, 41.0033
2.268, 4, 35.7377, 49.7307, -14.6869, 97.5733, -56.7338, 40.986
2.272, 4, 35.7364, 49.7399, -14.6896, 97.5725, -56.765, 40.9686
2.275, 4, 35.735, 49.7491, -14.6923, 97.5717, -56.7962, 40.9513
2.28, 4, 35.7336, 49.7583, -14.6951, 97.5709, -56.8275, 40.9341
2.284, 4, 35.7322, 49.7675, -14.6978, 97.5701, -56.8587, 40.9168
2.288, 4, 35.7309, 49.7767, -14.7005, 97.5692, -56.8898, 40.8995
2.291, 4, 35.7295, 49.7859, -14.7031, 97.5683, -56.921, 40.8822
2.296, 4, 35.7281, 49.795, -14.7058, 97.5675, -56.9522, 40.865
2.3, 4, 35.7267, 49.8042, -14.7085, 97.5665, -56.9834, 40.8478
2.304, 4, 35.7253, 49.8133, -14.7111, 97.5656, -57.0146, 40.8306
2.308, 4, 35.7239, 49.8225, -14.7138, 97.5647, -57.0458, 40.8133
2.311, 4, 35.7225, 49.8316, -14.7164, 97.5637, -57.0769, 40.7961
2.316, 4, 35.7211, 49.8408, -14.719, 97.5627, -57.1081, 40.779
2.32, 4, 35.7197, 49.8499, -14.7216, 97.5618, -57.1393, 40.7618
2.324, 4, 35.7183, 49.859, -14.7242, 97.5608, -57.1704, 40.7446
2.328, 4, 35.7169, 49.8682, -14.7268, 97.5597, -57.2016, 40.7275
2.331, 4, 35.7155, 49.8773, -14.7294, 97.5587, -57.2327, 40.7103
2.336, 4, 35.714, 49.8864, -14.732, 97.5576, -57.2639, 40.6932
2.34, 4, 35.7126, 49.8955, -14.7345, 97.5566, -57.2951, 40.6761
2.344, 4, 35.7112, 49.9046, -14.737, 97.5555, -57.3262, 40.659
2.347, 4, 35.7097, 49.9137, -14.7396, 97.5544, -57.3573, 40.6419
2.352, 4, 35.7083, 49.9227, -14.7421, 97.5532, -57.3885, 40.6248
2.356, 4, 35.7069, 49.9318, -14.7446, 97.5521, -57.4196, 40.6077
2.36, 4, 35.7054, 49.9409, -14.7471, 97.5509, -57.4507, 40.5907
2.364, 4, 35.704, 49.95, -14.7496, 97.5498, -57.4819, 40.5736
2.367, 4, 35.7025, 49.959, -14.752, 97.5486, -57.513, 40.5566
2.372, 4, 35.7011, 49.9681, -14.7545, 97.5474, -57.5441, 40.5396
2.376, 4, 35.6996, 49.9771, -14.7569, 97.5461, -57.5752, 40.5225
2.38, 4, 35.6982, 49.9861, -14.7594, 97.5449, -57.6063, 40.5055
2.383, 4, 35.6967, 49.9952, -14.7618, 97.5436, -57.6375, 40.4885
2.388, 4, 35.6952, 50.0042, -14.7642, 97.5424, -57.6686, 40.4716
2.392, 4, 35.6938, 50.0132, -14.7666, 97.5411, -57.6997, 40.4546
2.396, 4, 35.6923, 50.0222, -14.769, 97.5398, -57.7308, 40.4376
2.4, 4, 35.6908, 50.0312, -14.7714, 97.5385, -57.7619, 40.4207
2.403, 4, 35.6893, 50.0402, -14.7737, 97.5371, -57.793, 40.4037
2.408, 4, 35.6879, 50.0492, -14.7761, 97.5358, -57.824, 40.3868
2.412, 4, 35.6864, 50.0582, -14.7784, 97.5344, -57.8551, 40.3699
2.416, 4, 35.6849, 50.0672, -14.7808, 97.533, -57.8862, 40.353
2.42, 4, 35.6834, 50.0762, -14.7831, 97.5316, -57.9173, 40.3361
2.423, 4, 35.6819, 50.0852, -14.7854, 97.5302, -57.9484, 40.3192
2.428, 4, 35.6804, 50.0941, -14.7877, 97.5288, -57.9794, 40.3024
2.432, 4, 35.6789, 50.1031, -14.79, 97.5273, -58.0105, 40.2855
2.436, 4, 35.6774, 50.112, -14.7923, 97.5258, -58.0416, 40.2687
2.439, 4, 35.6759, 50.121, -14.7945, 97.5244, -58.0726, 40.2518
2.444, 4, 35.6743, 50.1299, -14.7968, 97.5229, -58.1037, 40.235
2.448, 4, 35.6728, 50.1388, -14.799, 97.5213, -58.1347, 40.2182
2.452, 4, 35.6713, 50.1478, -14.8012, 97.5198, -58.1658, 40.2014
2.456, 4, 35.6698, 50.1567, -14.8035, 97.5183, -58.1968, 40.1846
2.459, 4, 35.6683, 50.1656, -14.8057, 97.5167, -58.2279, 40.1678
2.464, 4, 35.6667, 50.1745, -14.8079, 97.5151, -58.2589, 40.151
2.468, 4, 35.6652, 50.1834, -14.81, 97.5135, -58.29, 40.1342
2.472, 4, 35.6636, 50.1923, -14.8122, 97.5119, -58.321, 40.1175
2.476, 4, 35.6621, 50.2012, -14.8144, 97.5103, -58.352, 40.1007
2.479, 4, 35.6606, 50.21, -14.8165, 97.5087, -58.383, 40.084
2.484, 4, 35.659, 50.2189, -14.8186, 97.507, -58.4141, 40.0673
2.488, 4, 35.6575, 50.2278, -14.8208, 97.5053, -58.4451, 40.0506
2.492, 4, 35.6559, 50.2366, -14.8229, 97.5036, -58.4761, 40.0339
2.495, 4, 35.6543, 50.2455, -14.825, 97.5019, -58.5071, 40.0172
2.5, 4, 35.6528, 50.2543, -14.8271, 97.5002, -58.5381, 40.0005
2.504, 4, 35.6512, 50.2632, -14.8291, 97.4985, -58.5691, 39.9839
2.508, 4, 35.6496, 50.272, -14.8312, 97.4967, -58.6001, 39.9672
2.512, 4, 35.6481, 50.2808, -14.8333, 97.495, -58.6311, 39.9505
2.515, 4, 35.6465, 50.2897, -14.8353, 97.4932, -58.6621, 39.9339
2.52, 4, 35.6449, 50.2985, -14.8373, 97.4914, -58.6931, 39.9173
2.524, 4, 35.6433, 50.3073, -14.8394, 97.4896, -58.7241, 39.9007
2.528, 4, 35.6417, 50.3161, -14.8414, 97.4877, -58.7551, 39.8841
2.531, 4, 35.6402, 50.3249, -14.8434, 97.4859, -58.786, 39.8675
2.536, 4, 35.6386, 50.3337, -14.8453, 97.484, -58.817, 39.8509
2.54, 4, 35.637, 50.3424, -14.8473, 97.4821, -58.848, 39.8343
2.544, 4, 35.6354, 50.3512, -14.8493, 97.4803, -58.8789, 39.8177
2.548, 4, 35.6338, 50.36, -14.8512, 97.4784, -58.9099, 39.8012
2.551, 4, 35.6322, 50.3687, -14.8532, 97.4764, -58.9409, 39.7846
2.556, 4, 35.6305, 50.3775, -14.8551, 97.4745, -58.9718, 39.7681
2.56, 4, 35.6289, 50.3863, -14.857, 97.4725, -59.0028, 39.7516
2.564, 4, 35.6273, 50.395, -14.8589, 97.4706, -59.0337, 39.7351
2.568, 4, 35.6257, 50.4037, -14.8608, 97.4686, -59.0647, 39.7186
2.571, 4, 35.6241, 50.4125, -14.8627, 97.4666, -59.0956, 39.7021
2.576, 4, 35.6224, 50.4212, -14.8645, 97.4646, -59.1266, 39.6856
2.58, 4, 35.6208, 50.4299, -14.8664, 97.4625, -59.1575, 39.6691
2.584, 4, 35.6192, 50.4386, -14.8682, 97.4605, -59.1884, 39.6527
2.587, 4, 35.6175, 50.4473, -14.8701, 97.4584, -59.2194, 39.6362
2.592, 4, 35.6159, 50.456, -14.8719, 97.4564, -59.2503, 39.6198
2.596, 4, 35.6143, 50.4647, -14.8737, 97.4543, -59.2812, 39.6033
2.6, 4, 35.6126, 50.4734, -14.8755, 97.4522, -59.3121, 39.5869
2.604, 4, 35.611, 50.4821, -14.8773, 97.45, -59.343, 39.5705
2.607, 4, 35.6093, 50.4907, -14.879, 97.4479, -59.3739, 39.5541
2.612, 4, 35.6077, 50.4994, -14.8808, 97.4457, -59.4048, 39.5377
2.616, 4, 35.606, 50.508, -14.8826, 97.4436, -59.4357, 39.5213
2.62, 4, 35.6043, 50.5167, -14.8843, 97.4414, -59.4666, 39.5049
2.624, 4, 35.6027, 50.5253, -14.886, 97.4392, -59.4975, 39.4886
2.627, 4, 35.601, 50.534, -14.8877, 97.437, -59.5284, 39.4722
2.632, 4, 35.5993, 50.5426, -14.8894, 97.4348, -59.5593, 39.4559
2.636, 4, 35.5976, 50.5512, -14.8911, 97.4325, -59.5902, 39.4395
2.64, 4, 35.596, 50.5598, -14.8928, 97.4303, -59.6211, 39.4232
2.643, 4, 35.5943, 50.5685, -14.8945, 97.428, -59.652, 39.4069
2.648, 4, 35.5926, 50.5771, -14.8961, 97.4257, -59.6828, 39.3906
2.652, 4, 35.5909, 50.5857, -14.8978, 97.4234, -59.7137, 39.3743
2.656, 4, 35.5892, 50.5942, -14.8994, 97.4211, -59.7446, 39.358
2.66, 4, 35.5875, 50.6028, -14.901, 97.4188, -59.7754, 39.3417
2.663, 4, 35.5858, 50.6114, -14.9026, 97.4164, -59.8063, 39.3255
2.668, 4, 35.5841, 50.62, -14.9042, 97.4141, -59.8371, 39.3092
2.672, 4, 35.5824, 50.6285, -14.9058, 97.4117, -59.868, 39.293
2.676, 4, 35.5807, 50.6371, -14.9074, 97.4093, -59.8988, 39.2767
2.679, 4, 35.579, 50.6456, -14.909, 97.4069, -59.9297, 39.2605
2.684, 4, 35.5772, 50.6542, -14.9105, 97.4045, -59.9605, 39.2443
2.688, 4, 35.5755, 50.6627, -14.912, 97.402, -59.9914, 39.2281
2.692, 4, 35.5738, 50.6712, -14.9136, 97.3996, -60.0222, 39.2119
2.696, 4, 35.5721, 50.6798, -14.9151, 97.3971, -60.053, 39.1957
2.699, 4, 35.5703, 50.6883, -14.9166, 97.3946, -60.0839, 39.1795
2.704, 4, 35.5686, 50.6968, -14.9181, 97.3921, -60.1147, 39.1633
2.708, 4, 35.5669, 50.7053, -14.9196, 97.3896, -60.1455, 39.1472
2.712, 4, 35.5651, 50.7138, -14.921, 97.3871, -60.1763, 39.131
2.716, 4, 35.5634, 50.7223, -14.9225, 97.3846, -60.2071, 39.1149
2.719, 4, 35.5616, 50.7308, -14.9239, 97.382, -60.2379, 39.0987
2.724, 4, 35.5599, 50.7392, -14.9253, 97.3795, -60.2687, 39.0826
2.728, 4, 35.5581, 50.7477, -14.9268, 97.3769, -60.2995, 39.0665
2.732, 4, 35.5564, 50.7562, -14.9282, 97.3743, -60.3303, 39.0504
2.735, 4, 35.5546, 50.7646, -14.9296, 97.3717, -60.3611, 39.0343
2.74, 4, 35.5528, 50.7731, -14.931, 97.3691, -60.3919, 39.0182
2.744, 4, 35.5511, 50.7815, -14.9323, 97.3664, -60.4227, 39.0021
2.748, 4, 35.5493, 50.7899, -14.9337, 97.3638, -60.4535, 38.9861
2.752, 4, 35.5475, 50.7984, -14.935, 97.3611, -60.4842, 38.97
2.755, 4, 35.5457, 50.8068, -14.9364, 97.3584, -60.515, 38.954
2.76, 4, 35.544, 50.8152, -14.9377, 97.3557, -60.5458, 38.9379
2.764, 4, 35.5422, 50.8236, -14.939, 97.353, -60.5766, 38.9219
2.768, 4, 35.5404, 50.832, -14.9403, 97.3503, -60.6073, 38.9059
2.772, 4, 35.5386, 50.8404, -14.9416, 97.3475, -60.6381, 38.8898
2.775, 4, 35.5368, 50.8488, -14.9429, 97.3448, -60.6688, 38.8738
2.78, 4, 35.535, 50.8572, -14.9441, 97.342, -60.6996, 38.8578
2.784, 4, 35.5332, 50.8655, -14.9454, 97.3392, -60.7303, 38.8419
2.788, 4, 35.5314, 50.8739, -14.9466, 97.3364, -60.7611, 38.8259
2.791, 4, 35.5296, 50.8823, -14.9479, 97.3336, -60.7918, 38.8099
2.796, 4, 35.5278, 50.8906, -14.9491, 97.3308, -60.8226, 38.7939
2.8, 4, 35.526, 50.899, -14.9503, 97.328, -60.8533, 38.778
2.804, 4, 35.5241, 50.9073, -14.9515, 97.3251, -60.884, 38.762
2.808, 4, 35.5223, 50.9156, -14.9526, 97.3223, -60.9147, 38.7461
2.811, 4, 35.5205, 50.924, -14.9538, 97.3194, -60.9455, 38.7302
2.816, 4, 35.5187, 50.9323, -14.955, 97.3165, -60.9762, 38.7143
2.82, 4, 35.5168, 50.9406, -14.9561, 97.3136, -61.0069, 38.6984
2.824, 4, 35.515, 50.9489, -14.9572, 97.3106, -61.0376, 38.6825
2.828, 4, 35.5132, 50.9572, -14.9584, 97.3077, -61.0683, 38.6666
2.831, 4, 35.5113, 50.9655, -14.9595, 97.3047, -61.099, 38.6507
2.836, 4, 35.5095, 50.9738, -14.9606, 97.3018, -61.1297, 38.6348
2.84, 4, 35.5076, 50.982, -14.9617, 97.2988, -61.1604, 38.619
2.844, 4, 35.5058, 50.9903, -14.9627, 97.2958, -61.1911, 38.6031
2.847, 4, 35.5039, 50.9986, -14.9638, 97.2928, -61.2218, 38.5873
2.852, 4, 35.5021, 51.0068, -14.9648, 97.2898, -61.2525, 38.5714
2.856, 4, 35.5002, 51.0151, -14.9659, 97.2868, -61.2832, 38.5556
2.86, 4, 35.4983, 51.0233, -14.9669, 97.2837, -61.3138, 38.5398
2.864, 4, 35.4965, 51.0316, -14.9679, 97.2806, -61.3445, 38.524
2.867, 4, 35.4946, 51.0398, -14.9689, 97.2776, -61.3752, 38.5082
2.872, 4, 35.4927, 51.048, -14.9699, 97.2745, -61.4058, 38.4924
2.876, 4, 35.4908, 51.0562, -14.9709, 97.2714, -61.4365, 38.4766
2.88, 4, 35.4889, 51.0644, -14.9718, 97.2682, -61.4672, 38.4608
2.883, 4, 35.4871, 51.0726, -14.9728, 97.2651, -61.4978, 38.445
2.888, 4, 35.4852, 51.0808, -14.9737, 97.262, -61.5285, 38.4293
2.892, 4, 35.4833, 51.089, -14.9747, 97.2588, -61.5591, 38.4135
2.896, 4, 35.4814, 51.0972, -14.9756, 97.2556, -61.5898, 38.3978
2.9, 4, 35.4795, 51.1054, -14.9765, 97.2524, -61.6204, 38.382
2.903, 4, 35.4776, 51.1135, -14.9774, 97.2492, -61.651, 38.3663
2.908, 4, 35.4757, 51.1217, -14.9783, 97.246, -61.6817, 38.3506
2.912, 4, 35.4738, 51.1298, -14.9791, 97.2428, -61.7123, 38.3349
2.916, 4, 35.4719, 51.138, -14.98, 97.2396, -61.7429, 38.3192
2.92, 4, 35.4699, 51.1461, -14.9808, 97.2363, -61.7735, 38.3035
2.923, 4, 35.468, 51.1542, -14.9817, 97.233, -61.8042, 38.2878
2.928, 4, 35.4661, 51.1624, -14.9825, 97.2298, -61.8348, 38.2721
2.932, 4, 35.4642, 51.1705, -14.9833, 97.2265, -61.8654, 38.2565
2.936, 4, 35.4623, 51.1786, -14.9841, 97.2232, -61.896, 38.2408
2.939, 4, 35.4603, 51.1867, -14.9849, 97.2198, -61.9266, 38.2251
2.944, 4, 35.4584, 51.1948, -14.9856, 97.2165, -61.9572, 38.2095
2.948, 4, 35.4564, 51.2029, -14.9864, 97.2131, -61.9878, 38.1939
2.952, 4, 35.4545, 51.211, -14.9871, 97.2098, -62.0184, 38.1782
2.956, 4, 35.4526, 51.219, -14.9879, 97.2064, -62.049, 38.1626
2.959, 4, 35.4506, 51.2271, -14.9886, 97.203, -62.0795, 38.147
2.964, 4, 35.4487, 51.2352, -14.9893, 97.1996, -62.1101, 38.1314
2.968, 4, 35.4467, 51.2432, -14.99, 97.1962, -62.1407, 38.1158
2.972, 4, 35.4448, 51.2513, -14.9907, 97.1928, -62.1713, 38.1002
2.976, 4, 35.4428, 51.2593, -14.9914, 97.1893, -62.2018, 38.0847
2.98, 4, 35.4408, 51.2673, -14.992, 97.1859, -62.2324, 38.0691
2.984, 4, 35.4389, 51.2753, -14.9927, 97.1824, -62.263, 38.0535
2.988, 4, 35.4369, 51.2834, -14.9933, 97.1789, -62.2935, 38.038
2.992, 4, 35.4349, 51.2914, -14.9939, 97.1754, -62.3241, 38.0224
2.995, 4, 35.4329, 51.2994, -14.9945, 97.1719, -62.3546, 38.0069
3, 4, 35.431, 51.3074, -14.9951, 97.1684, -62.3852, 37.9914
3.004, 4, 35.429, 51.3154, -14.9957, 97.1648, -62.4157, 37.9758
3.008, 4, 35.427, 51.3233, -14.9963, 97.1613, -62.4462, 37.9603
3.012, 4, 35.425, 51.3313, -14.9969, 97.1577, -62.4768, 37.9448
3.015, 4, 35.423, 51.3393, -14.9974, 97.1541, -62.5073, 37.9293
3.02, 4, 35.421, 51.3472, -14.998, 97.1506, -62.5378, 37.9138
3.024, 4, 35.419, 51.3552, -14.9985, 97.1469, -62.5683, 37.8983
3.028, 4, 35.417, 51.3631, -14.999, 97.1433, -62.5989, 37.8829
3.031, 4, 35.415, 51.3711, -14.9995, 97.1397, -62.6294, 37.8674
3.036, 4, 35.413, 51.379, -15, 97.1361, -62.6599, 37.8519
3.04, 4, 35.411, 51.3869, -15.0005, 97.1324, -62.6904, 37.8365
3.044, 4, 35.4089, 51.3948, -15.0009, 97.1287, -62.7209, 37.821
3.048, 4, 35.4069, 51.4028, -15.0014, 97.125, -62.7514, 37.8056
3.051, 4, 35.4049, 51.4107, -15.0018, 97.1213, -62.7819, 37.7902
3.056, 4, 35.4029, 51.4185, -15.0023, 97.1176, -62.8124, 37.7748
3.06, 4, 35.4008, 51.4264, -15.0027, 97.1139, -62.8429, 37.7593
3.064, 4, 35.3988, 51.4343, -15.0031, 97.1102, -62.8733, 37.7439
3.068, 4, 35.3968, 51.4422, -15.0035, 97.1064, -62.9038, 37.7285
3.071, 4, 35.3947, 51.4501, -15.0039, 97.1027, -62.9343, 37.7132
3.076, 4, 35.3927, 51.4579, -15.0042, 97.0989, -62.9648, 37.6978
3.08, 4, 35.3906, 51.4658, -15.0046, 97.0951, -62.9952, 37.6824
3.084, 4, 35.3886, 51.4736, -15.0049, 97.0913, -63.0257, 37.667
3.087, 4, 35.3865, 51.4814, -15.0052, 97.0875, -63.0562, 37.6517
3.092, 4, 35.3845, 51.4893, -15.0056, 97.0837, -63.0866, 37.6363
3.096, 4, 35.3824, 51.4971, -15.0059, 97.0798, -63.1171, 37.621
3.1, 4, 35.3803, 51.5049, -15.0062, 97.076, -63.1475, 37.6056
3.104, 4, 35.3783, 51.5127, -15.0064, 97.0721, -63.178, 37.5903
3.107, 4, 35.3762, 51.5205, -15.0067, 97.0682, -63.2084, 37.575
3.112, 4, 35.3741, 51.5283, -15.007, 97.0644, -63.2388, 37.5597
3.116, 4, 35.3721, 51.5361, -15.0072, 97.0604, -63.2693, 37.5444
3.12, 4, 35.37, 51.5439, -15.0074, 97.0565, -63.2997, 37.5291
3.124, 4, 35.3679, 51.5516, -15.0077, 97.0526, -63.3301, 37.5138
3.128, 4, 35.3658, 51.5594, -15.0079, 97.0487, -63.3605, 37.4985
3.132, 4, 35.3637, 51.5672, -15.0081, 97.0447, -63.391, 37.4832
3.136, 4, 35.3616, 51.5749, -15.0083, 97.0407, -63.4214, 37.468
3.14, 4, 35.3595, 51.5827, -15.0084, 97.0368, -63.4518, 37.4527
3.143, 4, 35.3574, 51.5904, -15.0086, 97.0328, -63.4822, 37.4375
3.148, 4, 35.3553, 51.5981, -15.0087, 97.0288, -63.5126, 37.4222
3.152, 4, 35.3532, 51.6058, -15.0089, 97.0247, -63.543, 37.407
3.156, 4, 35.3511, 51.6136, -15.009, 97.0207, -63.5734, 37.3917
3.16, 4, 35.349, 51.6213, -15.0091, 97.0167, -63.6038, 37.3765
3.163, 4, 35.3469, 51.629, -15.0092, 97.0126, -63.6341, 37.3613
3.168, 4, 35.3447, 51.6366, -15.0093, 97.0086, -63.6645, 37.3461
3.172, 4, 35.3426, 51.6443, -15.0093, 97.0045, -63.6949, 37.3309
3.176, 4, 35.3405, 51.652, -15.0094, 97.0004, -63.7253, 37.3157
3.179, 4, 35.3384, 51.6597, -15.0094, 96.9963, -63.7557, 37.3005
3.184, 4, 35.3362, 51.6673, -15.0095, 96.9921, -63.786, 37.2853
3.188, 4, 35.3341, 51.675, -15.0095, 96.988, -63.8164, 37.2701
3.192, 4, 35.332, 51.6826, -15.0095, 96.9839, -63.8467, 37.255
3.196, 4, 35.3298, 51.6903, -15.0095, 96.9797, -63.8771, 37.2398
3.199, 4, 35.3277, 51.6979, -15.0095, 96.9755, -63.9075, 37.2247
3.204, 4, 35.3255, 51.7055, -15.0094, 96.9714, -63.9378, 37.2095
3.208, 4, 35.3234, 51.7131, -15.0094, 96.9672, -63.9681, 37.1944
3.212, 4, 35.3212, 51.7207, -15.0093, 96.963, -63.9985, 37.1792
3.216, 4, 35.3191, 51.7283, -15.0093, 96.9587, -64.0288, 37.1641
3.22, 4, 35.3169, 51.7359, -15.0092, 96.9545, -64.0592, 37.149
3.224, 4, 35.3147, 51.7435, -15.0091, 96.9503, -64.0895, 37.1339
3.228, 4, 35.3126, 51.7511, -15.009, 96.946, -64.1198, 37.1188
3.232, 4, 35.3104, 51.7587, -15.0089, 96.9418, -64.1501, 37.1037
3.235, 4, 35.3082, 51.7662, -15.0088, 96.9375, -64.1804, 37.0886
3.24, 4, 35.306, 51.7738, -15.0086, 96.9332, -64.2108, 37.0735
3.244, 4, 35.3038, 51.7813, -15.0085, 96.9289, -64.2411, 37.0584
3.248, 4, 35.3017, 51.7889, -15.0083, 96.9246, -64.2714, 37.0434
3.252, 4, 35.2995, 51.7964, -15.0081, 96.9202, -64.3017, 37.0283
3.255, 4, 35.2973, 51.804, -15.0079, 96.9159, -64.332, 37.0132
3.26, 4, 35.2951, 51.8115, -15.0077, 96.9115, -64.3623, 36.9982
3.264, 4, 35.2929, 51.819, -15.0075, 96.9072, -64.3926, 36.9831
3.268, 4, 35.2907, 51.8265, -15.0073, 96.9028, -64.4228, 36.9681
3.272, 4, 35.2885, 51.834, -15.007, 96.8984, -64.4531, 36.9531
3.276, 4, 35.2863, 51.8415, -15.0068, 96.894, -64.4834, 36.9381
3.28, 4, 35.2841, 51.849, -15.0065, 96.8896, -64.5137, 36.923
3.284, 4, 35.2818, 51.8564, -15.0062, 96.8851, -64.544, 36.908
3.288, 4, 35.2796, 51.8639, -15.0059, 96.8807, -64.5742, 36.893
3.291, 4, 35.2774, 51.8714, -15.0056, 96.8763, -64.6045, 36.878
3.296, 4, 35.2752, 51.8788, -15.0053, 96.8718, -64.6348, 36.863
3.3, 4, 35.273, 51.8863, -15.005, 96.8673, -64.665, 36.8481
3.304, 4, 35.2707, 51.8937, -15.0046, 96.8628, -64.6953, 36.8331
3.308, 4, 35.2685, 51.9011, -15.0043, 96.8583, -64.7255, 36.8181
3.312, 4, 35.2663, 51.9085, -15.0039, 96.8538, -64.7558, 36.8032
3.316, 4, 35.264, 51.916, -15.0035, 96.8493, -64.786, 36.7882
3.32, 4, 35.2618, 51.9234, -15.0031, 96.8448, -64.8162, 36.7733
3.324, 4, 35.2595, 51.9308, -15.0027, 96.8402, -64.8465, 36.7583
3.328, 4, 35.2573, 51.9382, -15.0023, 96.8356, -64.8767, 36.7434
3.332, 4, 35.255, 51.9455, -15.0019, 96.8311, -64.9069, 36.7284
3.336, 4, 35.2528, 51.9529, -15.0015, 96.8265, -64.9372, 36.7135
3.34, 4, 35.2505, 51.9603, -15.001, 96.8219, -64.9674, 36.6986
3.344, 4, 35.2482, 51.9677, -15.0005, 96.8173, -64.9976, 36.6837
3.347, 4, 35.246, 51.975, -15.0001, 96.8127, -65.0278, 36.6688
3.352, 4, 35.2437, 51.9824, -14.9996, 96.808, -65.058, 36.6539
3.356, 4, 35.2414, 51.9897, -14.9991, 96.8034, -65.0882, 36.639
3.36, 4, 35.2392, 51.997, -14.9985, 96.7987, -65.1184, 36.6241
3.364, 4, 35.2369, 52.0044, -14.998, 96.7941, -65.1486, 36.6092
3.368, 4, 35.2346, 52.0117, -14.9975, 96.7894, -65.1788, 36.5944
3.372, 4, 35.2323, 52.019, -14.9969, 96.7847, -65.209, 36.5795
3.376, 4, 35.23, 52.0263, -14.9963, 96.78, -65.2392, 36.5646
3.38, 4, 35.2277, 52.0336, -14.9958, 96.7753, -65.2694, 36.5498
3.383, 4, 35.2254, 52.0409, -14.9952, 96.7706, -65.2996, 36.5349
3.388, 4, 35.2231, 52.0481, -14.9946, 96.7658, -65.3297, 36.5201
3.392, 4, 35.2208, 52.0554, -14.994, 96.7611, -65.3599, 36.5053
3.396, 4, 35.2185, 52.0627, -14.9933, 96.7563, -65.3901, 36.4904
3.4, 4, 35.2162, 52.0699, -14.9927, 96.7515, -65.4202, 36.4756
3.403, 4, 35.2139, 52.0772, -14.992, 96.7467, -65.4504, 36.4608
3.408, 4, 35.2116, 52.0844, -14.9914, 96.742, -65.4805, 36.446
3.412, 4, 35.2093, 52.0917, -14.9907, 96.7371, -65.5107, 36.4312
3.416, 4, 35.2069, 52.0989, -14.99, 96.7323, -65.5409, 36.4164
3.42, 4, 35.2046, 52.1061, -14.9893, 96.7275, -65.571, 36.4016
3.424, 4, 35.2023, 52.1133, -14.9886, 96.7226, -65.6011, 36.3868
3.428, 4, 35.2, 52.1205, -14.9878, 96.7178, -65.6313, 36.372
3.432, 4, 35.1976, 52.1277, -14.9871, 96.7129, -65.6614, 36.3573
3.436, 4, 35.1953, 52.1349, -14.9864, 96.708, -65.6915, 36.3425
3.439, 4, 35.193, 52.1421, -14.9856, 96.7031, -65.7217, 36.3277
3.444, 4, 35.1906, 52.1493, -14.9848, 96.6982, -65.7518, 36.313
3.448, 4, 35.1883, 52.1564, -14.984, 96.6933, -65.7819, 36.2982
3.452, 4, 35.1859, 52.1636, -14.9832, 96.6884, -65.812, 36.2835
3.456, 4, 35.1836, 52.1707, -14.9824, 96.6835, -65.8421, 36.2688
3.46, 4, 35.1812, 52.1779, -14.9816, 96.6785, -65.8723, 36.254
3.464, 4, 35.1788, 52.185, -14.9807, 96.6736, -65.9024, 36.2393
3.468, 4, 35.1765, 52.1921, -14.9799, 96.6686, -65.9325, 36.2246
3.472, 4, 35.1741, 52.1993, -14.979, 96.6636, -65.9626, 36.2099
3.476, 4, 35.1717, 52.2064, -14.9781, 96.6586, -65.9926, 36.1952
3.48, 4, 35.1694, 52.2135, -14.9772, 96.6536, -66.0227, 36.1805
3.484, 4, 35.167, 52.2206, -14.9763, 96.6486, -66.0528, 36.1658
3.488, 4, 35.1646, 52.2277, -14.9754, 96.6436, -66.0829, 36.1511
3.492, 4, 35.1622, 52.2347, -14.9745, 96.6385, -66.113, 36.1364
3.495, 4, 35.1599, 52.2418, -14.9736, 96.6335, -66.1431, 36.1217
3.5, 4, 35.1575, 52.2489, -14.9726, 96.6284, -66.1731, 36.1071
3.504, 4, 35.1551, 52.2559, -14.9716, 96.6233, -66.2032, 36.0924
3.508, 4, 35.1527, 52.263, -14.9707, 96.6182, -66.2333, 36.0777
3.512, 4, 35.1503, 52.27, -14.9697, 96.6131, -66.2633, 36.0631
3.516, 4, 35.1479, 52.2771, -14.9687, 96.608, -66.2934, 36.0484
3.52, 4, 35.1455, 52.2841, -14.9677, 96.6029, -66.3234, 36.0338
3.524, 4, 35.1431, 52.2911, -14.9666, 96.5978, -66.3535, 36.0192
3.528, 4, 35.1407, 52.2981, -14.9656, 96.5926, -66.3835, 36.0045
3.531, 4, 35.1383, 52.3051, -14.9645, 96.5875, -66.4136, 35.9899
3.536, 4, 35.1358, 52.3121, -14.9635, 96.5823, -66.4436, 35.9753
3.54, 4, 35.1334, 52.3191, -14.9624, 96.5771, -66.4737, 35.9607
3.544, 4, 35.131, 52.3261, -14.9613, 96.572, -66.5037, 35.9461
3.548, 4, 35.1286, 52.3331, -14.9602, 96.5668, -66.5337, 35.9315
3.552, 4, 35.1261, 52.3401, -14.9591, 96.5616, -66.5637, 35.9169
3.556, 4, 35.1237, 52.347, -14.958, 96.5563, -66.5938, 35.9023
3.56, 4, 35.1213, 52.354, -14.9568, 96.5511, -66.6238, 35.8877
3.564, 4, 35.1188, 52.3609, -14.9557, 96.5459, -66.6538, 35.8731
3.568, 4, 35.1164, 52.3679, -14.9545, 96.5406, -66.6838, 35.8586
3.572, 4, 35.114, 52.3748, -14.9533, 96.5353, -66.7138, 35.844
3.576, 4, 35.1115, 52.3817, -14.9521, 96.5301, -66.7438, 35.8294
3.58, 4, 35.1091, 52.3886, -14.9509, 96.5248, -66.7738, 35.8149
3.584, 4, 35.1066, 52.3955, -14.9497, 96.5195, -66.8038, 35.8003
3.587, 4, 35.1041, 52.4024, -14.9485, 96.5142, -66.8338, 35.7858
3.592, 4, 35.1017, 52.4093, -14.9473, 96.5088, -66.8638, 35.7712
3.596, 4, 35.0992, 52.4162, -14.946, 96.5035, -66.8938, 35.7567
3.6, 4, 35.0968, 52.4231, -14.9447, 96.4982, -66.9237, 35.7422
3.604, 4, 35.0943, 52.43, -14.9435, 96.4928, -66.9537, 35.7276
3.608, 4, 35.0918, 52.4368, -14.9422, 96.4874, -66.9837, 35.7131
3.612, 4, 35.0893, 52.4437, -14.9409, 96.4821, -67.0136, 35.6986
3.616, 4, 35.0869, 52.4505, -14.9396, 96.4767, -67.0436, 35.6841
3.62, 4, 35.0844, 52.4573, -14.9382, 96.4713, -67.0736, 35.6696
3.624, 4, 35.0819, 52.4642, -14.9369, 96.4659, -67.1035, 35.6551
3.628, 4, 35.0794, 52.471, -14.9355, 96.4605, -67.1335, 35.6406
3.632, 4, 35.0769, 52.4778, -14.9342, 96.455, -67.1634, 35.6261
3.636, 4, 35.0744, 52.4846, -14.9328, 96.4496, -67.1934, 35.6117
3.64, 4, 35.0719, 52.4914, -14.9314, 96.4441, -67.2233, 35.5972
3.644, 4, 35.0694, 52.4982, -14.93, 96.4387, -67.2533, 35.5827
3.648, 4, 35.0669, 52.505, -14.9286, 96.4332, -67.2832, 35.5682
3.652, 4, 35.0644, 52.5118, -14.9272, 96.4277, -67.3131, 35.5538
3.656, 4, 35.0619, 52.5185, -14.9257, 96.4222, -67.3431, 35.5393
3.66, 4, 35.0594, 52.5253, -14.9243, 96.4167, -67.373, 35.5249
3.664, 4, 35.0569, 52.532, -14.9228, 96.4112, -67.4029, 35.5104
3.668, 4, 35.0544, 52.5388, -14.9213, 96.4056, -67.4328, 35.496
3.672, 4, 35.0518, 52.5455, -14.9199, 96.4001, -67.4627, 35.4816
3.676, 4, 35.0493, 52.5523, -14.9184, 96.3946, -67.4927, 35.4672
3.679, 4, 35.0468, 52.559, -14.9168, 96.389, -67.5226, 35.4527
3.684, 4, 35.0443, 52.5657, -14.9153, 96.3834, -67.5525, 35.4383
3.688, 4, 35.0417, 52.5724, -14.9138, 96.3778, -67.5824, 35.4239
3.692, 4, 35.0392, 52.5791, -14.9122, 96.3722, -67.6123, 35.4095
3.696, 4, 35.0366, 52.5858, -14.9107, 96.3666, -67.6421, 35.3951
3.7, 4, 35.0341, 52.5925, -14.9091, 96.361, -67.672, 35.3807
3.704, 4, 35.0316, 52.5991, -14.9075, 96.3554, -67.7019, 35.3663
3.708, 4, 35.029, 52.6058, -14.9059, 96.3498, -67.7318, 35.3519
3.712, 4, 35.0265, 52.6125, -14.9043, 96.3441, -67.7617, 35.3375
3.716, 4, 35.0239, 52.6191, -14.9027, 96.3384, -67.7915, 35.3232
3.72, 4, 35.0213, 52.6258, -14.901, 96.3328, -67.8214, 35.3088
3.724, 4, 35.0188, 52.6324, -14.8994, 96.3271, -67.8513, 35.2944
3.728, 4, 35.0162, 52.639, -14.8977, 96.3214, -67.8811, 35.2801
3.732, 4, 35.0136, 52.6456, -14.896, 96.3157, -67.911, 35.2657
3.735, 4, 35.0111, 52.6523, -14.8944, 96.31, -67.9409, 35.2514
3.74, 4, 35.0085, 52.6589, -14.8927, 96.3043, -67.9707, 35.237
3.744, 4, 35.0059, 52.6655, -14.8909, 96.2985, -68.0006, 35.2227
3.748, 4, 35.0033, 52.672, -14.8892, 96.2928, -68.0304, 35.2083
3.752, 4, 35.0008, 52.6786, -14.8875, 96.287, -68.0602, 35.194
3.756, 4, 34.9982, 52.6852, -14.8857, 96.2813, -68.0901, 35.1797
3.76, 4, 34.9956, 52.6918, -14.884, 96.2755, -68.1199, 35.1654
3.764, 4, 34.993, 52.6983, -14.8822, 96.2697, -68.1497, 35.151
3.768, 4, 34.9904, 52.7049, -14.8804, 96.2639, -68.1796, 35.1367
3.772, 4, 34.9878, 52.7114, -14.8786, 96.2581, -68.2094, 35.1224
3.776, 4, 34.9852, 52.7179, -14.8768, 96.2523, -68.2392, 35.1081
3.78, 4, 34.9826, 52.7245, -14.875, 96.2465, -68.269, 35.0938
3.784, 4, 34.98, 52.731, -14.8731, 96.2406, -68.2988, 35.0795
3.788, 4, 34.9774, 52.7375, -14.8713, 96.2348, -68.3286, 35.0653
3.792, 4, 34.9748, 52.744, -14.8694, 96.2289, -68.3584, 35.051
3.796, 5, 34.9721, 52.7505, -14.8675, 96.223, -68.3882, 35.0367
3.8, 5, 34.9695, 52.757, -14.8657, 96.2172, -68.418, 35.0224
3.804, 5, 34.9669, 52.7635, -14.8638, 96.2113, -68.4478, 35.0082
3.808, 5, 34.9643, 52.7699, -14.8618, 96.2054, -68.4776, 34.9939
3.812, 5, 34.9616, 52.7764, -14.8599, 96.1995, -68.5074, 34.9796
3.816, 5, 34.959, 52.7828, -14.858, 96.1935, -68.5372, 34.9654
3.82, 5, 34.9564, 52.7893, -14.856, 96.1876, -68.567, 34.9511
3.824, 5, 34.9537, 52.7957, -14.8541, 96.1817, -68.5967, 34.9369
3.828, 5, 34.9511, 52.8022, -14.8521, 96.1757, -68.6265, 34.9226
3.832, 5, 34.9484, 52.8086, -14.8501, 96.1697, -68.6563, 34.9084
3.836, 5, 34.9458, 52.815, -14.8481, 96.1638, -68.6861, 34.8942
3.84, 5, 34.9431, 52.8214, -14.8461, 96.1578, -68.7158, 34.88
3.844, 5, 34.9405, 52.8278, -14.8441, 96.1518, -68.7456, 34.8657
3.848, 5, 34.9378, 52.8342, -14.842, 96.1458, -68.7753, 34.8515
3.852, 5, 34.9352, 52.8406, -14.84, 96.1398, -68.8051, 34.8373
3.856, 5, 34.9325, 52.847, -14.8379, 96.1338, -68.8348, 34.8231
3.86, 5, 34.9298, 52.8533, -14.8359, 96.1277, -68.8646, 34.8089
3.864, 5, 34.9272, 52.8597, -14.8338, 96.1217, -68.8943, 34.7947
3.868, 5, 34.9245, 52.866, -14.8317, 96.1156, -68.924, 34.7805
3.872, 5, 34.9218, 52.8724, -14.8296, 96.1095, -68.9538, 34.7663
3.876, 5, 34.9192, 52.8787, -14.8274, 96.1035, -68.9835, 34.7521
3.88, 5, 34.9165, 52.8851, -14.8253, 96.0974, -69.0132, 34.738
3.884, 5, 34.9138, 52.8914, -14.8231, 96.0913, -69.0429, 34.7238
3.888, 5, 34.9111, 52.8977, -14.821, 96.0852, -69.0726, 34.7096
3.892, 5, 34.9084, 52.904, -14.8188, 96.079, -69.1024, 34.6954
3.896, 5, 34.9057, 52.9103, -14.8166, 96.0729, -69.1321, 34.6813
3.9, 5, 34.903, 52.9166, -14.8144, 96.0668, -69.1618, 34.6671
3.904, 5, 34.9003, 52.9229, -14.8122, 96.0606, -69.1915, 34.653
3.908, 5, 34.8976, 52.9291, -14.81, 96.0545, -69.2212, 34.6388
3.912, 5, 34.8949, 52.9354, -14.8077, 96.0483, -69.2509, 34.6247
3.916, 5, 34.8922, 52.9417, -14.8055, 96.0421, -69.2806, 34.6105
3.92, 5, 34.8895, 52.9479, -14.8032, 96.0359, -69.3102, 34.5964
3.924, 5, 34.8868, 52.9541, -14.801, 96.0297, -69.3399, 34.5823
3.928, 5, 34.8841, 52.9604, -14.7987, 96.0235, -69.3696, 34.5681
3.932, 5, 34.8813, 52.9666, -14.7964, 96.0173, -69.3993, 34.554
3.936, 5, 34.8786, 52.9728, -14.7941, 96.0111, -69.429, 34.5399
3.94, 5, 34.8759, 52.979, -14.7917, 96.0049, -69.4586, 34.5258
3.944, 5, 34.8732, 52.9852, -14.7894, 95.9986, -69.4883, 34.5117
3.948, 5, 34.8704, 52.9914, -14.7871, 95.9923, -69.518, 34.4976
3.952, 5, 34.8677, 52.9976, -14.7847, 95.9861, -69.5476, 34.4835
3.956, 5, 34.865, 53.0038, -14.7823, 95.9798, -69.5773, 34.4694
3.96, 5, 34.8622, 53.01, -14.7799, 95.9735, -69.6069, 34.4553
3.964, 5, 34.8595, 53.0161, -14.7775, 95.9672, -69.6366, 34.4412
3.968, 5, 34.8567, 53.0223, -14.7751, 95.9609, -69.6662, 34.4271
3.972, 5, 34.854, 53.0284, -14.7727, 95.9546, -69.6958, 34.413
3.976, 5, 34.8512, 53.0346, -14.7703, 95.9482, -69.7255, 34.399
3.98, 5, 34.8485, 53.0407, -14.7678, 95.9419, -69.7551, 34.3849
3.984, 5, 34.8457, 53.0468, -14.7653, 95.9356, -69.7847, 34.3708
3.988, 5, 34.8429, 53.0529, -14.7629, 95.9292, -69.8144, 34.3568
3.992, 5, 34.8402, 53.059, -14.7604, 95.9228, -69.844, 34.3427
3.996, 5, 34.8374, 53.0651, -14.7579, 95.9165, -69.8736, 34.3287
3.999, 5, 34.8346, 53.0712, -14.7554, 95.9101, -69.9032, 34.3146
4.004, 5, 34.8319, 53.0773, -14.7528, 95.9037, -69.9328, 34.3006
4.008, 5, 34.8291, 53.0834, -14.7503, 95.8973, -69.9624, 34.2865
4.012, 5, 34.8263, 53.0894, -14.7477, 95.8908, -69.992, 34.2725
4.016, 5, 34.8235, 53.0955, -14.7452, 95.8844, -70.0216, 34.2584
4.02, 5, 34.8207, 53.1015, -14.7426, 95.878, -70.0512, 34.2444
4.024, 5, 34.8179, 53.1076, -14.74, 95.8715, -70.0808, 34.2304
4.028, 5, 34.8152, 53.1136, -14.7374, 95.8651, -70.1104, 34.2164
4.032, 5, 34.8124, 53.1196, -14.7348, 95.8586, -70.14, 34.2024
4.036, 5, 34.8096, 53.1256, -14.7322, 95.8521, -70.1696, 34.1883
4.04, 5, 34.8068, 53.1316, -14.7295, 95.8456, -70.1992, 34.1743
4.044, 5, 34.804, 53.1376, -14.7269, 95.8391, -70.2287, 34.1603
4.048, 5, 34.8012, 53.1436, -14.7242, 95.8326, -70.2583, 34.1463
4.052, 5, 34.7983, 53.1496, -14.7216, 95.8261, -70.2879, 34.1323
4.056, 5, 34.7955, 53.1556, -14.7189, 95.8196, -70.3174, 34.1183
4.06, 5, 34.7927, 53.1616, -14.7162, 95.813, -70.347, 34.1043
4.064, 5, 34.7899, 53.1675, -14.7134, 95.8065, -70.3766, 34.0904
4.068, 5, 34.7871, 53.1735, -14.7107, 95.7999, -70.4061, 34.0764
4.072, 5, 34.7842, 53.1794, -14.708, 95.7934, -70.4357, 34.0624
4.076, 5, 34.7814, 53.1854, -14.7052, 95.7868, -70.4652, 34.0484
4.08, 5, 34.7786, 53.1913, -14.7025, 95.7802, -70.4947, 34.0344
4.084, 5, 34.7757, 53.1972, -14.6997, 95.7736, -70.5243, 34.0205
4.088, 5, 34.7729, 53.2031, -14.6969, 95.767, -70.5538, 34.0065
4.092, 5, 34.7701, 53.209, -14.6941, 95.7604, -70.5833, 33.9926
4.096, 5, 34.7672, 53.2149, -14.6913, 95.7538, -70.6129, 33.9786
4.1, 5, 34.7644, 53.2208, -14.6885, 95.7472, -70.6424, 33.9647
4.104, 5, 34.7615, 53.2267, -14.6856, 95.7405, -70.6719, 33.9507
4.108, 5, 34.7587, 53.2325, -14.6828, 95.7339, -70.7014, 33.9368
4.112, 5, 34.7558, 53.2384, -14.6799, 95.7272, -70.7309, 33.9228
4.116, 5, 34.753, 53.2443, -14.677, 95.7205, -70.7604, 33.9089
4.12, 5, 34.7501, 53.2501, -14.6741, 95.7138, -70.7899, 33.895
4.124, 5, 34.7472, 53.2559, -14.6712, 95.7071, -70.8195, 33.881
4.128, 5, 34.7444, 53.2618, -14.6683, 95.7005, -70.849, 33.8671
4.132, 5, 34.7415, 53.2676, -14.6654, 95.6937, -70.8784, 33.8532
4.136, 5, 34.7386, 53.2734, -14.6624, 95.687, -70.9079, 33.8393
4.14, 5, 34.7358, 53.2792, -14.6595, 95.6803, -70.9374, 33.8254
4.144, 5, 34.7329, 53.285, -14.6565, 95.6736, -70.9669, 33.8114
4.148, 5, 34.73, 53.2908, -14.6535, 95.6668, -70.9964, 33.7975
4.152, 5, 34.7271, 53.2966, -14.6505, 95.66, -71.0259, 33.7836
4.156, 5, 34.7242, 53.3023, -14.6475, 95.6533, -71.0553, 33.7697
4.16, 5, 34.7213, 53.3081, -14.6445, 95.6465, -71.0848, 33.7558
4.164, 5, 34.7184, 53.3139, -14.6415, 95.6397, -71.1143, 33.7419
4.168, 5, 34.7155, 53.3196, -14.6385, 95.6329, -71.1437, 33.7281
4.172, 5, 34.7126, 53.3253, -14.6354, 95.6261, -71.1732, 33.7142
4.176, 5, 34.7097, 53.3311, -14.6323, 95.6193, -71.2026, 33.7003
4.18, 5, 34.7068, 53.3368, -14.6292, 95.6125, -71.2321, 33.6864
4.184, 5, 34.7039, 53.3425, -14.6262, 95.6057, -71.2615, 33.6725
4.188, 5, 34.701, 53.3482, -14.6231, 95.5988, -71.291, 33.6587
4.192, 5, 34.6981, 53.3539, -14.6199, 95.592, -71.3204, 33.6448
4.196, 5, 34.6952, 53.3596, -14.6168, 95.5851, -71.3498, 33.6309
4.2, 5, 34.6923, 53.3653, -14.6137, 95.5782, -71.3793, 33.6171
4.204, 5, 34.6893, 53.371, -14.6105, 95.5714, -71.4087, 33.6032
4.208, 5, 34.6864, 53.3766, -14.6073, 95.5645, -71.4381, 33.5894
4.212, 5, 34.6835, 53.3823, -14.6042, 95.5576, -71.4676, 33.5755
4.216, 5, 34.6806, 53.3879, -14.601, 95.5507, -71.497, 33.5617
4.22, 5, 34.6776, 53.3936, -14.5977, 95.5437, -71.5264, 33.5478
4.224, 5, 34.6747, 53.3992, -14.5945, 95.5368, -71.5558, 33.534
4.228, 5, 34.6717, 53.4048, -14.5913, 95.5299, -71.5852, 33.5202
4.232, 5, 34.6688, 53.4104, -14.5881, 95.5229, -71.6146, 33.5063
4.236, 5, 34.6658, 53.416, -14.5848, 95.516, -71.644, 33.4925
4.24, 5, 34.6629, 53.4216, -14.5815, 95.509, -71.6734, 33.4787
4.244, 5, 34.6599, 53.4272, -14.5782, 95.502, -71.7028, 33.4648
4.248, 5, 34.657, 53.4328, -14.5749, 95.495, -71.7322, 33.451
4.252, 5, 34.654, 53.4384, -14.5716, 95.4881, -71.7616, 33.4372
4.256, 5, 34.6511, 53.4439, -14.5683, 95.4811, -71.7909, 33.4234
4.26, 5, 34.6481, 53.4495, -14.565, 95.474, -71.8203, 33.4096
4.264, 5, 34.6451, 53.455, -14.5616, 95.467, -71.8497, 33.3958
4.268, 5, 34.6422, 53.4606, -14.5583, 95.46, -71.8791, 33.382
4.272, 5, 34.6392, 53.4661, -14.5549, 95.453, -71.9084, 33.3682
4.276, 5, 34.6362, 53.4716, -14.5515, 95.4459, -71.9378, 33.3544
4.28, 5, 34.6332, 53.4771, -14.5481, 95.4389, -71.9671, 33.3406
4.284, 5, 34.6303, 53.4827, -14.5447, 95.4318, -71.9965, 33.3268
4.288, 5, 34.6273, 53.4882, -14.5413, 95.4247, -72.0259, 33.313
4.292, 5, 34.6243, 53.4936, -14.5378, 95.4176, -72.0552, 33.2992
4.296, 5, 34.6213, 53.4991, -14.5344, 95.4105, -72.0845, 33.2855
4.3, 5, 34.6183, 53.5046, -14.5309, 95.4034, -72.1139, 33.2717
4.304, 5, 34.6153, 53.5101, -14.5275, 95.3963, -72.1432, 33.2579
4.308, 5, 34.6123, 53.5155, -14.524, 95.3892, -72.1726, 33.2441
4.312, 5, 34.6093, 53.521, -14.5205, 95.3821, -72.2019, 33.2304
4.316, 5, 34.6063, 53.5264, -14.517, 95.3749, -72.2312, 33.2166
4.32, 5, 34.6033, 53.5318, -14.5134, 95.3678, -72.2605, 33.2028
4.324, 5, 34.6003, 53.5373, -14.5099, 95.3606, -72.2898, 33.1891
4.328, 5, 34.5973, 53.5427, -14.5064, 95.3535, -72.3192, 33.1753
4.332, 5, 34.5942, 53.5481, -14.5028, 95.3463, -72.3485, 33.1616
4.336, 5, 34.5912, 53.5535, -14.4992, 95.3391, -72.3778, 33.1478
4.34, 5, 34.5882, 53.5589, -14.4956, 95.3319, -72.4071, 33.1341
4.344, 5, 34.5852, 53.5642, -14.492, 95.3247, -72.4364, 33.1203
4.348, 5, 34.5821, 53.5696, -14.4884, 95.3175, -72.4657, 33.1066
4.352, 5, 34.5791, 53.575, -14.4848, 95.3103, -72.495, 33.0929
4.356, 5, 34.576, 53.5803, -14.4811, 95.303, -72.5243, 33.0791
4.36, 5, 34.573, 53.5856, -14.4775, 95.2958, -72.5535, 33.0654
4.364, 5, 34.5699, 53.5909, -14.4738, 95.2885, -72.5828, 33.0517
4.368, 5, 34.5668, 53.5962, -14.4701, 95.2813, -72.6121, 33.038
4.372, 5, 34.5638, 53.6015, -14.4663, 95.274, -72.6413, 33.0244
4.376, 5, 34.5607, 53.6067, -14.4625, 95.2667, -72.6705, 33.0108
4.38, 5, 34.5575, 53.6119, -14.4587, 95.2593, -72.6997, 32.9972
4.384, 5, 34.5544, 53.6171, -14.4548, 95.2519, -72.7288, 32.9837
4.388, 5, 34.5513, 53.6222, -14.4509, 95.2445, -72.7579, 32.9703
4.392, 5, 34.5481, 53.6272, -14.4468, 95.237, -72.7869, 32.957
4.396, 5, 34.545, 53.6323, -14.4427, 95.2295, -72.8158, 32.9438
4.4, 5, 34.5418, 53.6372, -14.4385, 95.2219, -72.8447, 32.9307
4.404, 5, 34.5386, 53.6421, -14.4342, 95.2142, -72.8735, 32.9178
4.408, 5, 34.5354, 53.647, -14.4297, 95.2065, -72.9022, 32.905
4.412, 5, 34.5322, 53.6517, -14.4251, 95.1987, -72.9307, 32.8925
4.416, 5, 34.5289, 53.6564, -14.4204, 95.1908, -72.9591, 32.8801
4.42, 5, 34.5257, 53.661, -14.4155, 95.1827, -72.9874, 32.868
4.424, 5, 34.5224, 53.6655, -14.4105, 95.1746, -73.0156, 32.8561
4.428, 5, 34.5192, 53.67, -14.4052, 95.1664, -73.0436, 32.8444
4.432, 5, 34.5159, 53.6743, -14.3998, 95.158, -73.0714, 32.8331
4.436, 5, 34.5126, 53.6785, -14.3942, 95.1495, -73.0991, 32.822
4.44, 5, 34.5092, 53.6826, -14.3884, 95.1409, -73.1265, 32.8112
4.444, 5, 34.5059, 53.6866, -14.3823, 95.1321, -73.1538, 32.8007
4.448, 5, 34.5026, 53.6905, -14.3761, 95.1232, -73.1809, 32.7906
4.452, 5, 34.4992, 53.6943, -14.3696, 95.1141, -73.2078, 32.7808
4.456, 5, 34.4958, 53.698, -14.3629, 95.1049, -73.2345, 32.7713
4.46, 5, 34.4924, 53.7015, -14.3559, 95.0956, -73.261, 32.7621
4.464, 5, 34.489, 53.705, -14.3488, 95.0861, -73.2872, 32.7534
4.468, 5, 34.4856, 53.7083, -14.3414, 95.0764, -73.3133, 32.7449
4.472, 5, 34.4822, 53.7115, -14.3337, 95.0666, -73.3391, 32.7368
4.476, 5, 34.4787, 53.7145, -14.3258, 95.0566, -73.3647, 32.7291
4.48, 5, 34.4753, 53.7175, -14.3178, 95.0465, -73.3901, 32.7217
4.484, 5, 34.4718, 53.7203, -14.3094, 95.0363, -73.4154, 32.7146
4.488, 5, 34.4682, 53.723, -14.3009, 95.0259, -73.4404, 32.7079
4.492, 5, 34.4647, 53.7256, -14.2921, 95.0153, -73.4651, 32.7015
4.496, 5, 34.4611, 53.7281, -14.2831, 95.0047, -73.4897, 32.6954
4.5, 5, 34.4575, 53.7305, -14.2739, 94.9938, -73.5141, 32.6897
4.504, 5, 34.4539, 53.7327, -14.2645, 94.9829, -73.5383, 32.6843
4.508, 5, 34.4503, 53.7348, -14.2549, 94.9718, -73.5623, 32.6791
4.512, 5, 34.4466, 53.7369, -14.2451, 94.9606, -73.5861, 32.6744
4.516, 5, 34.4429, 53.7388, -14.235, 94.9492, -73.6098, 32.6699
4.52, 5, 34.4392, 53.7406, -14.2248, 94.9377, -73.6332, 32.6657
4.524, 5, 34.4355, 53.7423, -14.2143, 94.9261, -73.6564, 32.6619
4.528, 5, 34.4317, 53.7439, -14.2036, 94.9144, -73.6795, 32.6583
4.532, 5, 34.4279, 53.7453, -14.1928, 94.9025, -73.7023, 32.6551
4.536, 5, 34.4241, 53.7467, -14.1817, 94.8904, -73.725, 32.6521
4.54, 5, 34.4203, 53.7479, -14.1704, 94.8783, -73.7475, 32.6495
4.544, 5, 34.4165, 53.7491, -14.1589, 94.866, -73.7697, 32.6472
4.548, 5, 34.4126, 53.7501, -14.1472, 94.8536, -73.7918, 32.6452
4.552, 5, 34.4087, 53.751, -14.1353, 94.8411, -73.8137, 32.6435
4.556, 5, 34.4048, 53.7518, -14.1232, 94.8284, -73.8354, 32.6421
4.56, 5, 34.4009, 53.7525, -14.1109, 94.8156, -73.857, 32.6411
4.564, 5, 34.3969, 53.7531, -14.0984, 94.8027, -73.8783, 32.6403
4.568, 5, 34.3929, 53.7536, -14.0856, 94.7896, -73.8994, 32.6398
4.572, 5, 34.3889, 53.7539, -14.0727, 94.7764, -73.9204, 32.6397
4.576, 5, 34.3849, 53.7542, -14.0596, 94.7631, -73.9411, 32.6399
4.58, 5, 34.3808, 53.7543, -14.0462, 94.7496, -73.9617, 32.6404
4.584, 5, 34.3768, 53.7544, -14.0326, 94.736, -73.982, 32.6413
4.588, 5, 34.3727, 53.7543, -14.0188, 94.7223, -74.0022, 32.6424
4.592, 5, 34.3685, 53.754, -14.0048, 94.7084, -74.0221, 32.6439
4.596, 5, 34.3644, 53.7537, -13.9905, 94.6944, -74.0419, 32.6457
4.6, 5, 34.3602, 53.7533, -13.9761, 94.6802, -74.0614, 32.6479
4.604, 5, 34.3561, 53.7527, -13.9614, 94.6659, -74.0807, 32.6504
4.608, 5, 34.3519, 53.752, -13.9465, 94.6515, -74.0999, 32.6533
4.612, 5, 34.3477, 53.7512, -13.9313, 94.6369, -74.1188, 32.6565
4.616, 5, 34.3434, 53.7503, -13.9159, 94.6221, -74.1375, 32.66
4.62, 5, 34.3392, 53.7492, -13.9003, 94.6073, -74.1559, 32.6639
4.624, 5, 34.3349, 53.7481, -13.8845, 94.5923, -74.1742, 32.6681
4.628, 5, 34.3307, 53.7468, -13.8685, 94.5771, -74.1923, 32.6726
4.632, 5, 34.3264, 53.7454, -13.8523, 94.5618, -74.2102, 32.6775
4.636, 5, 34.3221, 53.744, -13.8358, 94.5464, -74.2279, 32.6827
4.64, 5, 34.3178, 53.7424, -13.8192, 94.5309, -74.2454, 32.6881
4.644, 5, 34.3135, 53.7407, -13.8023, 94.5153, -74.2627, 32.6938
4.648, 5, 34.3092, 53.7389, -13.7853, 94.4995, -74.2799, 32.6998
4.652, 5, 34.3048, 53.7371, -13.7682, 94.4837, -74.2969, 32.7061
4.656, 5, 34.3004, 53.7351, -13.7508, 94.4678, -74.3137, 32.7126
4.66, 5, 34.296, 53.7331, -13.7333, 94.4517, -74.3305, 32.7192
4.664, 5, 34.2916, 53.731, -13.7157, 94.4356, -74.3471, 32.7261
4.668, 5, 34.2872, 53.7288, -13.698, 94.4194, -74.3636, 32.7332
4.672, 5, 34.2828, 53.7265, -13.6801, 94.4032, -74.38, 32.7404
4.676, 5, 34.2784, 53.7242, -13.6621, 94.3869, -74.3963, 32.7478
4.68, 5, 34.2739, 53.7219, -13.6441, 94.3705, -74.4125, 32.7553
4.684, 5, 34.2694, 53.7195, -13.6259, 94.3541, -74.4286, 32.7629
4.688, 5, 34.265, 53.717, -13.6077, 94.3376, -74.4448, 32.7706
4.692, 5, 34.2605, 53.7145, -13.5895, 94.3212, -74.4608, 32.7784
4.696, 5, 34.256, 53.712, -13.5711, 94.3047, -74.4768, 32.7862
4.7, 5, 34.2515, 53.7094, -13.5528, 94.2881, -74.4928, 32.7941
4.704, 5, 34.247, 53.7068, -13.5344, 94.2716, -74.5088, 32.802
4.708, 5, 34.2425, 53.7042, -13.516, 94.2551, -74.5247, 32.8099
4.712, 5, 34.2379, 53.7016, -13.4975, 94.2385, -74.5407, 32.8179
4.716, 5, 34.2334, 53.699, -13.4791, 94.2219, -74.5566, 32.8258
4.72, 5, 34.2288, 53.6963, -13.4606, 94.2054, -74.5725, 32.8338
4.724, 5, 34.2243, 53.6936, -13.4421, 94.1888, -74.5885, 32.8417
4.728, 5, 34.2197, 53.6909, -13.4237, 94.1723, -74.6044, 32.8497
4.732, 5, 34.2151, 53.6883, -13.4052, 94.1557, -74.6203, 32.8576
4.736, 5, 34.2105, 53.6856, -13.3867, 94.1391, -74.6363, 32.8656
4.74, 5, 34.206, 53.6828, -13.3682, 94.1226, -74.6522, 32.8735
4.744, 5, 34.2014, 53.6801, -13.3497, 94.106, -74.6681, 32.8814
4.748, 5, 34.1968, 53.6774, -13.3311, 94.0895, -74.6841, 32.8894
4.752, 5, 34.1922, 53.6747, -13.3126, 94.0729, -74.7, 32.8973
4.756, 5, 34.1876, 53.672, -13.2941, 94.0564, -74.7159, 32.9052
4.76, 5, 34.183, 53.6692, -13.2756, 94.0398, -74.7319, 32.9131
4.764, 5, 34.1785, 53.6665, -13.257, 94.0233, -74.7478, 32.921
4.768, 5, 34.1739, 53.6637, -13.2385, 94.0067, -74.7637, 32.9289
4.772, 5, 34.1693, 53.661, -13.22, 93.9902, -74.7797, 32.9368
4.776, 5, 34.1647, 53.6582, -13.2014, 93.9737, -74.7956, 32.9447
4.78, 5, 34.1601, 53.6555, -13.1829, 93.9571, -74.8116, 32.9525
4.784, 5, 34.1555, 53.6527, -13.1643, 93.9406, -74.8275, 32.9604
4.788, 5, 34.1508, 53.6499, -13.1458, 93.924, -74.8435, 32.9683
4.792, 5, 34.1462, 53.6472, -13.1272, 93.9075, -74.8594, 32.9761
4.796, 5, 34.1416, 53.6444, -13.1086, 93.891, -74.8754, 32.984
4.8, 5, 34.137, 53.6416, -13.0901, 93.8745, -74.8913, 32.9918
4.804, 5, 34.1324, 53.6388, -13.0715, 93.8579, -74.9073, 32.9996
4.808, 5, 34.1278, 53.636, -13.0529, 93.8414, -74.9232, 33.0074
4.812, 5, 34.1232, 53.6332, -13.0343, 93.8249, -74.9392, 33.0153
4.816, 5, 34.1185, 53.6304, -13.0157, 93.8084, -74.9551, 33.0231
4.82, 5, 34.1139, 53.6276, -12.9971, 93.7919, -74.9711, 33.0309
4.824, 5, 34.1093, 53.6247, -12.9785, 93.7753, -74.9871, 33.0387
4.828, 5, 34.1047, 53.6219, -12.9599, 93.7588, -75.003, 33.0465
4.832, 5, 34.1, 53.6191, -12.9413, 93.7423, -75.019, 33.0542
4.836, 5, 34.0954, 53.6162, -12.9227, 93.7258, -75.0349, 33.062
4.84, 5, 34.0908, 53.6134, -12.9041, 93.7093, -75.0509, 33.0698
4.844, 5, 34.0861, 53.6105, -12.8855, 93.6928, -75.0669, 33.0775
4.848, 5, 34.0815, 53.6077, -12.8669, 93.6763, -75.0829, 33.0853
4.852, 5, 34.0769, 53.6048, -12.8482, 93.6598, -75.0988, 33.0931
4.856, 5, 34.0722, 53.602, -12.8296, 93.6433, -75.1148, 33.1008
4.86, 5, 34.0676, 53.5991, -12.811, 93.6268, -75.1308, 33.1085
4.864, 5, 34.0629, 53.5962, -12.7923, 93.6103, -75.1468, 33.1163
4.868, 5, 34.0583, 53.5933, -12.7737, 93.5938, -75.1627, 33.124
4.872, 5, 34.0536, 53.5904, -12.7551, 93.5773, -75.1787, 33.1317
4.876, 5, 34.049, 53.5875, -12.7364, 93.5608, -75.1947, 33.1394
4.88, 5, 34.0443, 53.5846, -12.7177, 93.5443, -75.2107, 33.1471
4.884, 5, 34.0396, 53.5817, -12.6991, 93.5279, -75.2267, 33.1548
4.888, 5, 34.035, 53.5788, -12.6804, 93.5114, -75.2427, 33.1625
4.892, 5, 34.0303, 53.5759, -12.6618, 93.4949, -75.2587, 33.1701
4.896, 5, 34.0257, 53.573, -12.6431, 93.4784, -75.2746, 33.1778
4.9, 5, 34.021, 53.5701, -12.6244, 93.4619, -75.2906, 33.1855
4.904, 5, 34.0163, 53.5671, -12.6057, 93.4455, -75.3066, 33.1931
4.908, 5, 34.0116, 53.5642, -12.587, 93.429, -75.3226, 33.2008
4.912, 5, 34.007, 53.5613, -12.5683, 93.4125, -75.3386, 33.2084
4.916, 5, 34.0023, 53.5583, -12.5497, 93.396, -75.3546, 33.2161
4.92, 5, 33.9976, 53.5554, -12.531, 93.3796, -75.3706, 33.2237
4.924, 5, 33.9929, 53.5524, -12.5123, 93.3631, -75.3866, 33.2313
4.928, 5, 33.9882, 53.5494, -12.4936, 93.3466, -75.4026, 33.2389
4.932, 5, 33.9836, 53.5465, -12.4748, 93.3302, -75.4186, 33.2465
4.936, 5, 33.9789, 53.5435, -12.4561, 93.3137, -75.4346, 33.2541
4.94, 5, 33.9742, 53.5405, -12.4374, 93.2973, -75.4506, 33.2617
4.944, 5, 33.9695, 53.5375, -12.4187, 93.2808, -75.4667, 33.2693
4.948, 5, 33.9648, 53.5345, -12.4, 93.2644, -75.4827, 33.2769
4.952, 5, 33.9601, 53.5315, -12.3812, 93.2479, -75.4987, 33.2845
4.956, 5, 33.9554, 53.5285, -12.3625, 93.2315, -75.5147, 33.292
4.96, 5, 33.9507, 53.5255, -12.3438, 93.215, -75.5307, 33.2996
4.964, 5, 33.946, 53.5225, -12.325, 93.1986, -75.5467, 33.3071
4.968, 5, 33.9413, 53.5195, -12.3063, 93.1821, -75.5628, 33.3147
4.972, 5, 33.9366, 53.5165, -12.2875, 93.1657, -75.5788, 33.3222
4.976, 5, 33.9319, 53.5134, -12.2688, 93.1493, -75.5948, 33.3298
4.98, 5, 33.9272, 53.5104, -12.25, 93.1328, -75.6108, 33.3373
4.984, 5, 33.9224, 53.5074, -12.2312, 93.1164, -75.6268, 33.3448
4.988, 5, 33.9177, 53.5043, -12.2125, 93.0999, -75.6429, 33.3523
4.992, 5, 33.913, 53.5013, -12.1937, 93.0835, -75.6589, 33.3598
4.996, 5, 33.9083, 53.4982, -12.1749, 93.0671, -75.6749, 33.3673
5, 5, 33.9036, 53.4951, -12.1562, 93.0507, -75.691, 33.3748
5.004, 5, 33.8988, 53.4921, -12.1374, 93.0342, -75.707, 33.3823
5.008, 5, 33.8941, 53.489, -12.1186, 93.0178, -75.723, 33.3897
5.012, 5, 33.8894, 53.4859, -12.0998, 93.0014, -75.7391, 33.3972
5.016, 5, 33.8847, 53.4828, -12.081, 92.985, -75.7551, 33.4047
5.02, 5, 33.8799, 53.4797, -12.0622, 92.9686, -75.7711, 33.4121
5.024, 5, 33.8752, 53.4766, -12.0434, 92.9521, -75.7872, 33.4196
5.028, 5, 33.8704, 53.4735, -12.0246, 92.9357, -75.8032, 33.427
5.032, 5, 33.8657, 53.4704, -12.0058, 92.9193, -75.8193, 33.4344
5.036, 5, 33.861, 53.4673, -11.987, 92.9029, -75.8353, 33.4418
5.04, 5, 33.8562, 53.4642, -11.9681, 92.8865, -75.8514, 33.4493
5.044, 5, 33.8515, 53.4611, -11.9493, 92.8701, -75.8674, 33.4567
5.048, 5, 33.8467, 53.458, -11.9305, 92.8537, -75.8835, 33.4641
5.052, 5, 33.842, 53.4548, -11.9117, 92.8373, -75.8995, 33.4715
5.056, 5, 33.8372, 53.4517, -11.8928, 92.8209, -75.9156, 33.4789
5.06, 5, 33.8325, 53.4485, -11.874, 92.8045, -75.9316, 33.4862
5.064, 5, 33.8277, 53.4454, -11.8551, 92.7881, -75.9477, 33.4936
5.068, 5, 33.8229, 53.4422, -11.8363, 92.7717, -75.9637, 33.501
5.072, 5, 33.8182, 53.4391, -11.8174, 92.7553, -75.9798, 33.5083
5.076, 5, 33.8134, 53.4359, -11.7986, 92.7389, -75.9959, 33.5157
5.08, 5, 33.8086, 53.4327, -11.7797, 92.7225, -76.0119, 33.523
5.084, 5, 33.8039, 53.4296, -11.7609, 92.7061, -76.028, 33.5304
5.088, 5, 33.7991, 53.4264, -11.742, 92.6897, -76.0441, 33.5377
5.092, 5, 33.7943, 53.4232, -11.7231, 92.6734, -76.0601, 33.545
5.096, 5, 33.7896, 53.42, -11.7043, 92.657, -76.0762, 33.5523
5.1, 5, 33.7848, 53.4168, -11.6854, 92.6406, -76.0923, 33.5597
5.104, 5, 33.78, 53.4136, -11.6665, 92.6242, -76.1083, 33.567
5.108, 5, 33.7752, 53.4104, -11.6476, 92.6078, -76.1244, 33.5742
5.112, 5, 33.7704, 53.4072, -11.6287, 92.5915, -76.1405, 33.5815
5.116, 5, 33.7656, 53.4039, -11.6098, 92.5751, -76.1566, 33.5888
5.12, 5, 33.7609, 53.4007, -11.5909, 92.5587, -76.1727, 33.5961
5.124, 5, 33.7561, 53.3975, -11.572, 92.5424, -76.1887, 33.6034
5.128, 5, 33.7513, 53.3942, -11.5531, 92.526, -76.2048, 33.6106
5.132, 5, 33.7465, 53.391, -11.5342, 92.5096, -76.2209, 33.6179
5.136, 5, 33.7417, 53.3877, -11.5153, 92.4933, -76.237, 33.6251
5.14, 5, 33.7369, 53.3845, -11.4964, 92.4769, -76.2531, 33.6323
5.144, 5, 33.7321, 53.3812, -11.4775, 92.4605, -76.2691, 33.6396
5.148, 5, 33.7273, 53.378, -11.4585, 92.4442, -76.2852, 33.6468
5.152, 5, 33.7225, 53.3747, -11.4396, 92.4278, -76.3013, 33.654
5.156, 5, 33.7177, 53.3714, -11.4207, 92.4115, -76.3174, 33.6612
5.16, 5, 33.7129, 53.3681, -11.4017, 92.3951, -76.3335, 33.6684
5.164, 5, 33.708, 53.3648, -11.3828, 92.3788, -76.3496, 33.6756
5.168, 5, 33.7032, 53.3615, -11.3638, 92.3624, -76.3657, 33.6828
5.172, 5, 33.6984, 53.3582, -11.3449, 92.3461, -76.3818, 33.69
5.176, 5, 33.6936, 53.3549, -11.3259, 92.3297, -76.3979, 33.6971
5.18, 5, 33.6888, 53.3516, -11.307, 92.3134, -76.414, 33.7043
5.184, 5, 33.6839, 53.3483, -11.288, 92.297, -76.4301, 33.7115
5.188, 5, 33.6791, 53.345, -11.2691, 92.2807, -76.4462, 33.7186
5.192, 5, 33.6743, 53.3417, -11.2501, 92.2644, -76.4623, 33.7258
5.196, 5, 33.6695, 53.3383, -11.2311, 92.248, -76.4784, 33.7329
5.2, 5, 33.6646, 53.335, -11.2121, 92.2317, -76.4945, 33.74
5.204, 5, 33.6598, 53.3317, -11.1932, 92.2154, -76.5107, 33.7471
5.208, 5, 33.655, 53.3283, -11.1742, 92.199, -76.5268, 33.7543
5.212, 5, 33.6501, 53.325, -11.1552, 92.1827, -76.5429, 33.7614
5.216, 5, 33.6453, 53.3216, -11.1362, 92.1664, -76.559, 33.7685
5.22, 5, 33.6404, 53.3182, -11.1172, 92.1501, -76.5751, 33.7756
5.224, 5, 33.6356, 53.3149, -11.0982, 92.1337, -76.5912, 33.7826
5.228, 5, 33.6307, 53.3115, -11.0792, 92.1174, -76.6073, 33.7897
5.232, 5, 33.6259, 53.3081, -11.0602, 92.1011, -76.6235, 33.7968
5.236, 5, 33.621, 53.3047, -11.0412, 92.0848, -76.6396, 33.8038
5.24, 5, 33.6162, 53.3013, -11.0222, 92.0685, -76.6557, 33.8109
5.244, 5, 33.6113, 53.2979, -11.0031, 92.0522, -76.6718, 33.818
5.248, 5, 33.6065, 53.2945, -10.9841, 92.0358, -76.688, 33.825
5.252, 5, 33.6016, 53.2911, -10.9651, 92.0195, -76.7041, 33.832
5.256, 5, 33.5968, 53.2877, -10.9461, 92.0032, -76.7202, 33.839
5.26, 5, 33.5919, 53.2843, -10.927, 91.9869, -76.7364, 33.8461
5.264, 5, 33.587, 53.2809, -10.908, 91.9706, -76.7525, 33.8531
5.268, 5, 33.5822, 53.2774, -10.889, 91.9543, -76.7686, 33.8601
5.272, 5, 33.5773, 53.274, -10.8699, 91.938, -76.7848, 33.8671
5.276, 5, 33.5724, 53.2706, -10.8509, 91.9217, -76.8009, 33.8741
5.28, 5, 33.5675, 53.2671, -10.8318, 91.9054, -76.817, 33.881
5.284, 5, 33.5627, 53.2637, -10.8128, 91.8891, -76.8332, 33.888
5.288, 5, 33.5578, 53.2602, -10.7937, 91.8728, -76.8493, 33.895
5.292, 5, 33.5529, 53.2567, -10.7746, 91.8565, -76.8655, 33.9019
5.296, 5, 33.548, 53.2533, -10.7556, 91.8402, -76.8816, 33.9089
5.3, 5, 33.5431, 53.2498, -10.7365, 91.824, -76.8977, 33.9158
5.304, 5, 33.5382, 53.2463, -10.7174, 91.8077, -76.9139, 33.9228
5.308, 5, 33.5334, 53.2428, -10.6983, 91.7914, -76.93, 33.9297
5.312, 5, 33.5285, 53.2393, -10.6793, 91.7751, -76.9462, 33.9366
5.316, 5, 33.5236, 53.2358, -10.6602, 91.7588, -76.9623, 33.9435
5.32, 5, 33.5187, 53.2323, -10.6411, 91.7425, -76.9785, 33.9505
5.324, 5, 33.5138, 53.2288, -10.622, 91.7263, -76.9947, 33.9574
5.328, 5, 33.5089, 53.2253, -10.6029, 91.71, -77.0108, 33.9642
5.332, 5, 33.504, 53.2218, -10.5838, 91.6937, -77.027, 33.9711
5.336, 5, 33.4991, 53.2183, -10.5647, 91.6774, -77.0431, 33.978
5.34, 5, 33.4942, 53.2147, -10.5456, 91.6612, -77.0593, 33.9849
5.344, 5, 33.4892, 53.2112, -10.5265, 91.6449, -77.0755, 33.9917
5.348, 5, 33.4843, 53.2077, -10.5074, 91.6286, -77.0916, 33.9986
5.352, 5, 33.4794, 53.2041, -10.4882, 91.6124, -77.1078, 34.0054
5.356, 5, 33.4745, 53.2006, -10.4691, 91.5961, -77.1239, 34.0123
5.36, 5, 33.4696, 53.197, -10.45, 91.5798, -77.1401, 34.0191
5.364, 5, 33.4647, 53.1934, -10.4309, 91.5636, -77.1563, 34.0259
5.368, 5, 33.4597, 53.1899, -10.4117, 91.5473, -77.1725, 34.0328
5.372, 5, 33.4548, 53.1863, -10.3926, 91.5311, -77.1886, 34.0396
5.376, 5, 33.4499, 53.1827, -10.3734, 91.5148, -77.2048, 34.0464
5.38, 5, 33.445, 53.1791, -10.3543, 91.4985, -77.221, 34.0532
5.384, 5, 33.44, 53.1755, -10.3351, 91.4823, -77.2372, 34.06
5.388, 5, 33.4351, 53.1719, -10.316, 91.466, -77.2533, 34.0667
5.392, 5, 33.4302, 53.1683, -10.2968, 91.4498, -77.2695, 34.0735
5.396, 5, 33.4252, 53.1647, -10.2777, 91.4335, -77.2857, 34.0803
5.4, 5, 33.4203, 53.1611, -10.2585, 91.4173, -77.3019, 34.087
5.404, 5, 33.4153, 53.1575, -10.2394, 91.4011, -77.3181, 34.0938
5.408, 5, 33.4104, 53.1539, -10.2202, 91.3848, -77.3342, 34.1005
5.412, 5, 33.4055, 53.1503, -10.201, 91.3686, -77.3504, 34.1073
5.416, 5, 33.4005, 53.1466, -10.1818, 91.3523, -77.3666, 34.114
5.42, 5, 33.3956, 53.143, -10.1626, 91.3361, -77.3828, 34.1207
5.424, 5, 33.3906, 53.1393, -10.1435, 91.3199, -77.399, 34.1274
5.428, 5, 33.3857, 53.1357, -10.1243, 91.3036, -77.4152, 34.1341
5.432, 5, 33.3807, 53.132, -10.1051, 91.2874, -77.4314, 34.1408
5.436, 5, 33.3757, 53.1284, -10.0859, 91.2712, -77.4476, 34.1475
5.44, 5, 33.3708, 53.1247, -10.0667, 91.2549, -77.4638, 34.1542
5.444, 5, 33.3658, 53.121, -10.0475, 91.2387, -77.48, 34.1609
5.448, 5, 33.3608, 53.1173, -10.0283, 91.2225, -77.4962, 34.1676
5.452, 5, 33.3559, 53.1137, -10.0091, 91.2063, -77.5124, 34.1742
5.456, 5, 33.3509, 53.11, -9.98986, 91.19, -77.5286, 34.1809
5.46, 5, 33.3459, 53.1063, -9.97064, 91.1738, -77.5448, 34.1875
5.464, 5, 33.341, 53.1026, -9.95142, 91.1576, -77.561, 34.1942
5.468, 5, 33.336, 53.0989, -9.93219, 91.1414, -77.5772, 34.2008
5.472, 5, 33.331, 53.0952, -9.91297, 91.1252, -77.5934, 34.2074
5.476, 5, 33.326, 53.0914, -9.89373, 91.109, -77.6096, 34.214
5.48, 5, 33.321, 53.0877, -9.8745, 91.0928, -77.6258, 34.2206
5.484, 5, 33.3161, 53.084, -9.85526, 91.0765, -77.642, 34.2272
5.488, 5, 33.3111, 53.0803, -9.83602, 91.0603, -77.6582, 34.2338
5.492, 5, 33.3061, 53.0765, -9.81677, 91.0441, -77.6745, 34.2404
5.496, 5, 33.3011, 53.0728, -9.79752, 91.0279, -77.6907, 34.247
5.5, 5, 33.2961, 53.069, -9.77827, 91.0117, -77.7069, 34.2536
5.504, 5, 33.2911, 53.0653, -9.75901, 90.9955, -77.7231, 34.2601
5.508, 5, 33.2861, 53.0615, -9.73975, 90.9793, -77.7393, 34.2667
5.512, 5, 33.2811, 53.0577, -9.72049, 90.9631, -77.7556, 34.2732
5.516, 5, 33.2761, 53.054, -9.70122, 90.9469, -77.7718, 34.2798
5.52, 5, 33.2711, 53.0502, -9.68195, 90.9307, -77.788, 34.2863
5.524, 5, 33.2661, 53.0464, -9.66267, 90.9145, -77.8042, 34.2928
5.528, 5, 33.2611, 53.0426, -9.6434, 90.8983, -77.8205, 34.2993
5.532, 5, 33.2561, 53.0388, -9.62411, 90.8821, -77.8367, 34.3058
5.536, 5, 33.2511, 53.035, -9.60483, 90.866, -77.8529, 34.3123
5.54, 5, 33.2461, 53.0312, -9.58554, 90.8498, -77.8692, 34.3188
5.544, 5, 33.241, 53.0274, -9.56625, 90.8336, -77.8854, 34.3253
5.548, 5, 33.236, 53.0236, -9.54695, 90.8174, -77.9016, 34.3318
5.552, 5, 33.231, 53.0197, -9.52765, 90.8012, -77.9179, 34.3383
5.556, 5, 33.226, 53.0159, -9.50835, 90.785, -77.9341, 34.3447
5.56, 5, 33.221, 53.0121, -9.48904, 90.7689, -77.9503, 34.3512
5.564, 5, 33.2159, 53.0082, -9.46973, 90.7527, -77.9666, 34.3576
5.568, 5, 33.2109, 53.0044, -9.45042, 90.7365, -77.9828, 34.3641
5.572, 5, 33.2059, 53.0005, -9.4311, 90.7203, -77.9991, 34.3705
5.576, 5, 33.2008, 52.9967, -9.41178, 90.7042, -78.0153, 34.3769
5.58, 5, 33.1958, 52.9928, -9.39246, 90.688, -78.0316, 34.3834
5.584, 5, 33.1908, 52.989, -9.37313, 90.6718, -78.0478, 34.3898
5.588, 5, 33.1857, 52.9851, -9.3538, 90.6556, -78.0641, 34.3962
5.592, 5, 33.1807, 52.9812, -9.33447, 90.6395, -78.0803, 34.4026
5.596, 5, 33.1756, 52.9773, -9.31513, 90.6233, -78.0966, 34.4089
5.6, 5, 33.1706, 52.9734, -9.29579, 90.6072, -78.1128, 34.4153
5.604, 5, 33.1656, 52.9695, -9.27644, 90.591, -78.1291, 34.4217
5.608, 5, 33.1605, 52.9656, -9.2571, 90.5748, -78.1453, 34.4281
5.612, 5, 33.1554, 52.9617, -9.23774, 90.5587, -78.1616, 34.4344
5.616, 5, 33.1504, 52.9578, -9.21839, 90.5425, -78.1778, 34.4408
5.62, 5, 33.1453, 52.9539, -9.19903, 90.5264, -78.1941, 34.4471
5.624, 5, 33.1403, 52.95, -9.17967, 90.5102, -78.2104, 34.4534
5.628, 5, 33.1352, 52.946, -9.1603, 90.494, -78.2266, 34.4598
5.632, 5, 33.1302, 52.9421, -9.14094, 90.4779, -78.2429, 34.4661
5.636, 5, 33.1251, 52.9382, -9.12156, 90.4617, -78.2592, 34.4724
5.64, 5, 33.12, 52.9342, -9.10219, 90.4456, -78.2754, 34.4787
5.644, 5, 33.115, 52.9303, -9.08281, 90.4295, -78.2917, 34.485
5.648, 5, 33.1099, 52.9263, -9.06343, 90.4133, -78.308, 34.4913
5.652, 5, 33.1048, 52.9223, -9.04404, 90.3972, -78.3242, 34.4976
5.656, 5, 33.0997, 52.9184, -9.02465, 90.381, -78.3405, 34.5038
5.66, 5, 33.0947, 52.9144, -9.00526, 90.3649, -78.3568, 34.5101
5.664, 5, 33.0896, 52.9104, -8.98587, 90.3487, -78.373, 34.5163
5.668, 5, 33.0845, 52.9064, -8.96647, 90.3326, -78.3893, 34.5226
5.672, 5, 33.0794, 52.9025, -8.94707, 90.3165, -78.4056, 34.5288
5.676, 5, 33.0743, 52.8985, -8.92766, 90.3003, -78.4219, 34.5351
5.68, 5, 33.0692, 52.8945, -8.90825, 90.2842, -78.4382, 34.5413
5.684, 5, 33.0642, 52.8904, -8.88884, 90.2681, -78.4544, 34.5475
5.688, 5, 33.0591, 52.8864, -8.86942, 90.2519, -78.4707, 34.5537
5.692, 5, 33.054, 52.8824, -8.85001, 90.2358, -78.487, 34.5599
5.696, 5, 33.0489, 52.8784, -8.83058, 90.2197, -78.5033, 34.5661
5.7, 5, 33.0438, 52.8744, -8.81116, 90.2035, -78.5196, 34.5723
5.704, 5, 33.0387, 52.8703, -8.79173, 90.1874, -78.5359, 34.5785
5.708, 5, 33.0336, 52.8663, -8.7723, 90.1713, -78.5522, 34.5847
5.712, 5, 33.0285, 52.8622, -8.75287, 90.1552, -78.5684, 34.5908
5.716, 5, 33.0236, 52.8582, -8.73345, 90.1391, -78.5847, 34.597
5.72, 5, 33.0188, 52.8541, -8.71405, 90.123, -78.601, 34.6031
5.724, 5, 33.0143, 52.85, -8.69472, 90.1069, -78.6172, 34.6092
5.728, 5, 33.0102, 52.8459, -8.67549, 90.0909, -78.6334, 34.6153
5.732, 5, 33.0064, 52.8418, -8.65646, 90.075, -78.6494, 34.6214
5.736, 5, 33.003, 52.8376, -8.63772, 90.0594, -78.6652, 34.6273
5.74, 5, 32.9999, 52.8336, -8.61939, 90.0441, -78.6807, 34.6331
5.744, 5, 32.9969, 52.8296, -8.60162, 90.0292, -78.6957, 34.6388
5.748, 5, 32.9941, 52.8257, -8.58458, 90.0149, -78.7101, 34.6442
5.752, 5, 32.9913, 52.8221, -8.56841, 90.0014, -78.7237, 34.6493
5.756, 5, 32.9885, 52.8187, -8.55327, 89.9888, -78.7365, 34.6541
5.76, 5, 32.9858, 52.8156, -8.53929, 89.9771, -78.7483, 34.6585
5.764, 5, 32.9832, 52.8128, -8.52659, 89.9665, -78.759, 34.6625
5.768, 5, 32.9805, 52.8104, -8.51524, 89.9571, -78.7685, 34.666
