hehonglu123/ABB_Primitive_Study/execution/movec/curve_exe_v50_z5.csv
timestamp, cmd_num, J1, J2, J3, J4, J5, J6
0, 1, 32.9528, 52.8019, -8.46502, 89.9168, -78.8096, 34.6812
0.002, 1, 32.9528, 52.8019, -8.46502, 89.9168, -78.8096, 34.6812
0.004, 1, 32.9528, 52.8019, -8.46502, 89.9168, -78.8096, 34.6812
0.008, 1, 32.9528, 52.8019, -8.46502, 89.9168, -78.8096, 34.6812
0.011, 1, 32.9528, 52.8019, -8.46502, 89.9168, -78.8096, 34.6812
0.016, 1, 32.9528, 52.8019, -8.46502, 89.9168, -78.8096, 34.6812
0.02, 1, 32.9528, 52.8019, -8.46502, 89.9168, -78.8096, 34.6812
0.024, 1, 32.9528, 52.8019, -8.46502, 89.9168, -78.8096, 34.6812
0.028, 1, 32.9528, 52.8019, -8.46502, 89.9168, -78.8096, 34.6812
0.032, 1, 32.9528, 52.8019, -8.46502, 89.9168, -78.8096, 34.6812
0.036, 1, 32.9528, 52.8019, -8.46502, 89.9168, -78.8096, 34.6812
0.04, 1, 32.9529, 52.8019, -8.46502, 89.9168, -78.8096, 34.6812
0.044, 1, 32.9531, 52.8018, -8.46503, 89.9168, -78.8095, 34.6812
0.048, 1, 32.9535, 52.8014, -8.46504, 89.9169, -78.8095, 34.6812
0.052, 1, 32.9543, 52.8006, -8.46509, 89.9169, -78.8093, 34.6813
0.056, 1, 32.9556, 52.7993, -8.46521, 89.917, -78.8088, 34.6815
0.06, 1, 32.9574, 52.7971, -8.46543, 89.9173, -78.8079, 34.6818
0.064, 1, 32.9597, 52.794, -8.46584, 89.9178, -78.8061, 34.6824
0.068, 1, 32.9625, 52.7899, -8.46653, 89.9186, -78.803, 34.6835
0.072, 1, 32.9659, 52.7849, -8.46761, 89.92, -78.798, 34.6852
0.076, 1, 32.9697, 52.7789, -8.46923, 89.922, -78.7905, 34.6877
0.08, 1, 32.9741, 52.7719, -8.47155, 89.925, -78.7796, 34.6915
0.084, 1, 32.9791, 52.7639, -8.47475, 89.9292, -78.7644, 34.6967
0.088, 1, 32.9847, 52.7549, -8.47904, 89.9348, -78.744, 34.7037
0.092, 1, 32.991, 52.7451, -8.48461, 89.9421, -78.7174, 34.7128
0.096, 1, 32.9978, 52.7344, -8.49169, 89.9515, -78.6834, 34.7244
0.1, 1, 33.005, 52.7231, -8.50046, 89.9631, -78.6411, 34.7389
0.104, 1, 33.0126, 52.7112, -8.51109, 89.9773, -78.5897, 34.7566
0.108, 1, 33.0204, 52.699, -8.5237, 89.9942, -78.5285, 34.7775
0.112, 1, 33.0284, 52.6863, -8.53837, 90.0139, -78.4572, 34.802
0.116, 1, 33.0368, 52.673, -8.55512, 90.0364, -78.3757, 34.8299
0.12, 1, 33.0455, 52.6592, -8.57391, 90.0617, -78.2841, 34.8613
0.124, 1, 33.0546, 52.6447, -8.59467, 90.0896, -78.183, 34.896
0.128, 1, 33.0642, 52.6296, -8.61726, 90.12, -78.0728, 34.9337
0.131, 1, 33.0741, 52.6139, -8.64153, 90.1527, -77.9545, 34.9743
0.136, 1, 33.0844, 52.5977, -8.6673, 90.1875, -77.8288, 35.0174
0.139, 1, 33.0949, 52.5809, -8.69437, 90.2239, -77.6968, 35.0627
0.144, 1, 33.1058, 52.5633, -8.72251, 90.2618, -77.5596, 35.1097
0.148, 1, 33.1172, 52.5447, -8.75152, 90.3009, -77.4182, 35.1582
0.152, 1, 33.1293, 52.525, -8.7812, 90.3408, -77.2736, 35.2077
0.156, 1, 33.1421, 52.5041, -8.81138, 90.3814, -77.1267, 35.2581
0.16, 1, 33.1556, 52.4819, -8.8419, 90.4224, -76.9782, 35.309
0.164, 1, 33.17, 52.4586, -8.87265, 90.4637, -76.8286, 35.3603
0.168, 1, 33.1849, 52.4345, -8.90354, 90.5052, -76.6784, 35.4118
0.172, 1, 33.2004, 52.4098, -8.9345, 90.5467, -76.5279, 35.4634
0.176, 1, 33.2161, 52.3847, -8.9655, 90.5883, -76.3772, 35.515
0.18, 1, 33.2321, 52.3594, -8.9965, 90.6299, -76.2265, 35.5667
0.184, 1, 33.2481, 52.334, -9.02748, 90.6715, -76.076, 35.6183
0.188, 1, 33.2643, 52.3084, -9.05844, 90.713, -75.9256, 35.6699
0.192, 1, 33.2805, 52.2828, -9.08935, 90.7545, -75.7754, 35.7214
0.196, 1, 33.2967, 52.2573, -9.12022, 90.7959, -75.6254, 35.7728
0.2, 1, 33.3129, 52.2317, -9.15103, 90.8372, -75.4757, 35.8241
0.204, 1, 33.3291, 52.2061, -9.1818, 90.8785, -75.3262, 35.8753
0.208, 1, 33.3453, 52.1806, -9.21251, 90.9197, -75.177, 35.9265
0.212, 1, 33.3614, 52.1551, -9.24316, 90.9608, -75.028, 35.9775
0.216, 1, 33.3776, 52.1296, -9.27376, 91.0018, -74.8794, 36.0285
0.22, 1, 33.3937, 52.1042, -9.3043, 91.0428, -74.731, 36.0794
0.224, 1, 33.4098, 52.0788, -9.33479, 91.0837, -74.5829, 36.1302
0.228, 1, 33.4258, 52.0535, -9.36522, 91.1245, -74.435, 36.1808
0.232, 1, 33.4419, 52.0282, -9.3956, 91.1652, -74.2874, 36.2314
0.236, 1, 33.4579, 52.003, -9.42592, 91.2059, -74.1401, 36.2819
0.24, 1, 33.4738, 51.9778, -9.45618, 91.2465, -73.9931, 36.3323
0.244, 1, 33.4898, 51.9526, -9.48639, 91.287, -73.8463, 36.3826
0.248, 1, 33.5057, 51.9275, -9.51654, 91.3275, -73.6998, 36.4329
0.252, 1, 33.5216, 51.9025, -9.54664, 91.3678, -73.5536, 36.483
0.256, 1, 33.5374, 51.8774, -9.57668, 91.4081, -73.4076, 36.533
0.26, 1, 33.5533, 51.8525, -9.60667, 91.4483, -73.2619, 36.583
0.264, 1, 33.5691, 51.8276, -9.6366, 91.4885, -73.1165, 36.6328
0.268, 1, 33.5848, 51.8027, -9.66649, 91.5286, -72.9713, 36.6826
0.272, 1, 33.6006, 51.7778, -9.69631, 91.5686, -72.8264, 36.7323
0.276, 1, 33.6163, 51.7531, -9.72609, 91.6085, -72.6817, 36.7819
0.28, 1, 33.632, 51.7283, -9.75581, 91.6484, -72.5373, 36.8314
0.284, 1, 33.6476, 51.7036, -9.78547, 91.6882, -72.3932, 36.8808
0.288, 1, 33.6633, 51.679, -9.81509, 91.7279, -72.2493, 36.9301
0.292, 1, 33.6789, 51.6544, -9.84465, 91.7675, -72.1057, 36.9794
0.296, 1, 33.6945, 51.6298, -9.87416, 91.8071, -71.9623, 37.0285
0.3, 1, 33.71, 51.6053, -9.90362, 91.8466, -71.8191, 37.0776
0.304, 1, 33.7255, 51.5808, -9.93303, 91.8861, -71.6763, 37.1265
0.308, 1, 33.741, 51.5563, -9.96238, 91.9255, -71.5336, 37.1754
0.312, 1, 33.7565, 51.5319, -9.99169, 91.9648, -71.3913, 37.2243
0.316, 1, 33.7719, 51.5076, -10.0209, 92.004, -71.2491, 37.273
0.32, 1, 33.7873, 51.4833, -10.0501, 92.0432, -71.1073, 37.3216
0.324, 1, 33.8027, 51.459, -10.0793, 92.0823, -70.9656, 37.3702
0.328, 1, 33.8181, 51.4348, -10.1084, 92.1213, -70.8242, 37.4186
0.332, 1, 33.8334, 51.4106, -10.1374, 92.1603, -70.6831, 37.467
0.336, 1, 33.8487, 51.3864, -10.1665, 92.1992, -70.5422, 37.5153
0.34, 1, 33.864, 51.3623, -10.1954, 92.238, -70.4015, 37.5636
0.344, 1, 33.8793, 51.3383, -10.2243, 92.2768, -70.261, 37.6117
0.348, 1, 33.8945, 51.3142, -10.2532, 92.3155, -70.1209, 37.6598
0.352, 1, 33.9097, 51.2903, -10.282, 92.3541, -69.9809, 37.7077
0.356, 1, 33.9249, 51.2663, -10.3107, 92.3927, -69.8412, 37.7556
0.36, 1, 33.94, 51.2424, -10.3394, 92.4312, -69.7017, 37.8034
0.364, 1, 33.9552, 51.2186, -10.3681, 92.4696, -69.5624, 37.8512
0.368, 1, 33.9703, 51.1947, -10.3967, 92.508, -69.4234, 37.8988
0.372, 1, 33.9853, 51.171, -10.4253, 92.5463, -69.2846, 37.9464
0.376, 1, 34.0004, 51.1472, -10.4538, 92.5846, -69.1461, 37.9939
0.38, 1, 34.0154, 51.1235, -10.4823, 92.6228, -69.0078, 38.0413
0.384, 1, 34.0304, 51.0998, -10.5107, 92.6609, -68.8697, 38.0887
0.388, 1, 34.0454, 51.0762, -10.5391, 92.6989, -68.7318, 38.1359
0.392, 1, 34.0604, 51.0526, -10.5674, 92.7369, -68.5941, 38.1831
0.396, 1, 34.0753, 51.0291, -10.5957, 92.7749, -68.4567, 38.2302
0.4, 1, 34.0902, 51.0056, -10.6239, 92.8127, -68.3195, 38.2773
0.404, 1, 34.1051, 50.9821, -10.6521, 92.8506, -68.1826, 38.3242
0.408, 1, 34.1199, 50.9587, -10.6803, 92.8883, -68.0458, 38.3711
0.412, 1, 34.1348, 50.9353, -10.7084, 92.926, -67.9093, 38.4179
0.416, 1, 34.1496, 50.9119, -10.7364, 92.9636, -67.773, 38.4646
0.42, 1, 34.1643, 50.8886, -10.7644, 93.0012, -67.6369, 38.5113
0.424, 1, 34.1791, 50.8653, -10.7924, 93.0387, -67.501, 38.5579
0.428, 1, 34.1938, 50.8421, -10.8203, 93.0762, -67.3653, 38.6044
0.432, 1, 34.2086, 50.8189, -10.8482, 93.1136, -67.2299, 38.6508
0.436, 1, 34.2232, 50.7957, -10.876, 93.1509, -67.0947, 38.6971
0.44, 1, 34.2379, 50.7726, -10.9038, 93.1881, -66.9597, 38.7434
0.444, 1, 34.2526, 50.7495, -10.9315, 93.2254, -66.8249, 38.7896
0.448, 1, 34.2672, 50.7264, -10.9592, 93.2625, -66.6903, 38.8358
0.452, 1, 34.2818, 50.7034, -10.9869, 93.2996, -66.5559, 38.8818
0.456, 1, 34.2964, 50.6804, -11.0145, 93.3367, -66.4217, 38.9278
0.46, 1, 34.3109, 50.6574, -11.0421, 93.3736, -66.2878, 38.9738
0.464, 1, 34.3254, 50.6345, -11.0696, 93.4106, -66.154, 39.0196
0.468, 1, 34.3399, 50.6116, -11.0971, 93.4474, -66.0204, 39.0654
0.472, 1, 34.3544, 50.5888, -11.1246, 93.4842, -65.8871, 39.1111
0.476, 1, 34.3689, 50.566, -11.152, 93.521, -65.754, 39.1567
0.48, 1, 34.3833, 50.5432, -11.1793, 93.5577, -65.621, 39.2023
0.484, 1, 34.3978, 50.5204, -11.2066, 93.5943, -65.4883, 39.2478
0.488, 1, 34.4121, 50.4977, -11.2339, 93.6309, -65.3558, 39.2933
0.492, 1, 34.4265, 50.475, -11.2612, 93.6675, -65.2234, 39.3386
0.496, 1, 34.4409, 50.4524, -11.2883, 93.7039, -65.0913, 39.3839
0.5, 1, 34.4552, 50.4298, -11.3155, 93.7404, -64.9594, 39.4291
0.504, 1, 34.4695, 50.4072, -11.3426, 93.7767, -64.8276, 39.4743
0.508, 1, 34.4838, 50.3847, -11.3697, 93.813, -64.6961, 39.5194
0.512, 1, 34.4981, 50.3622, -11.3967, 93.8493, -64.5647, 39.5644
0.516, 1, 34.5123, 50.3397, -11.4237, 93.8855, -64.4336, 39.6094
0.52, 1, 34.5265, 50.3173, -11.4507, 93.9217, -64.3026, 39.6543
0.524, 1, 34.5408, 50.2949, -11.4776, 93.9578, -64.1719, 39.6991
0.528, 1, 34.5549, 50.2725, -11.5045, 93.9938, -64.0413, 39.7439
0.532, 1, 34.5691, 50.2501, -11.5313, 94.0298, -63.9109, 39.7886
0.536, 1, 34.5832, 50.2278, -11.5581, 94.0657, -63.7807, 39.8332
0.54, 1, 34.5974, 50.2056, -11.5848, 94.1016, -63.6507, 39.8777
0.544, 1, 34.6115, 50.1833, -11.6116, 94.1375, -63.5209, 39.9222
0.548, 1, 34.6255, 50.1611, -11.6382, 94.1732, -63.3913, 39.9667
0.552, 1, 34.6396, 50.1389, -11.6649, 94.209, -63.2619, 40.0111
0.556, 1, 34.6536, 50.1168, -11.6915, 94.2447, -63.1326, 40.0554
0.56, 1, 34.6677, 50.0947, -11.718, 94.2803, -63.0036, 40.0996
0.564, 1, 34.6817, 50.0726, -11.7446, 94.3159, -62.8747, 40.1438
0.568, 1, 34.6956, 50.0505, -11.7711, 94.3514, -62.746, 40.1879
0.572, 1, 34.7096, 50.0285, -11.7975, 94.3869, -62.6175, 40.2319
0.576, 1, 34.7235, 50.0065, -11.8239, 94.4223, -62.4892, 40.2759
0.58, 1, 34.7375, 49.9846, -11.8503, 94.4577, -62.361, 40.3199
0.584, 1, 34.7514, 49.9626, -11.8766, 94.493, -62.2331, 40.3637
0.588, 1, 34.7652, 49.9407, -11.9029, 94.5283, -62.1053, 40.4075
0.592, 1, 34.7791, 49.9189, -11.9292, 94.5635, -61.9777, 40.4513
0.596, 1, 34.7929, 49.897, -11.9554, 94.5987, -61.8503, 40.495
0.6, 1, 34.8068, 49.8752, -11.9816, 94.6338, -61.723, 40.5386
0.604, 1, 34.8206, 49.8535, -12.0078, 94.6689, -61.5959, 40.5821
0.608, 1, 34.8343, 49.8317, -12.0339, 94.7039, -61.4691, 40.6256
0.612, 1, 34.8481, 49.81, -12.0599, 94.7389, -61.3423, 40.6691
0.616, 1, 34.8618, 49.7883, -12.086, 94.7738, -61.2158, 40.7125
0.62, 1, 34.8756, 49.7667, -12.112, 94.8087, -61.0894, 40.7558
0.624, 1, 34.8893, 49.7451, -12.138, 94.8435, -60.9632, 40.799
0.628, 1, 34.903, 49.7235, -12.1639, 94.8783, -60.8372, 40.8422
0.632, 1, 34.9166, 49.7019, -12.1898, 94.9131, -60.7114, 40.8854
0.636, 1, 34.9303, 49.6804, -12.2157, 94.9478, -60.5857, 40.9284
0.64, 1, 34.9439, 49.6589, -12.2415, 94.9824, -60.4602, 40.9715
0.644, 1, 34.9575, 49.6374, -12.2673, 95.017, -60.3349, 41.0144
0.648, 1, 34.9711, 49.6159, -12.2931, 95.0516, -60.2097, 41.0573
0.652, 1, 34.9847, 49.5945, -12.3188, 95.0861, -60.0847, 41.1002
0.656, 1, 34.9983, 49.5731, -12.3445, 95.1205, -59.9599, 41.143
0.66, 1, 35.0118, 49.5518, -12.3701, 95.1549, -59.8352, 41.1857
0.664, 1, 35.0253, 49.5304, -12.3958, 95.1893, -59.7107, 41.2284
0.668, 1, 35.0388, 49.5091, -12.4214, 95.2236, -59.5864, 41.271
0.672, 1, 35.0523, 49.4879, -12.4469, 95.2579, -59.4622, 41.3136
0.676, 1, 35.0658, 49.4666, -12.4724, 95.2921, -59.3382, 41.3561
0.68, 1, 35.0792, 49.4454, -12.4979, 95.3263, -59.2144, 41.3985
0.684, 1, 35.0927, 49.4242, -12.5234, 95.3605, -59.0907, 41.4409
0.688, 1, 35.1061, 49.4031, -12.5488, 95.3946, -58.9672, 41.4833
0.692, 1, 35.1195, 49.3819, -12.5742, 95.4286, -58.8439, 41.5256
0.696, 1, 35.1329, 49.3608, -12.5995, 95.4626, -58.7207, 41.5678
0.7, 1, 35.1462, 49.3397, -12.6249, 95.4966, -58.5977, 41.61
0.704, 1, 35.1596, 49.3187, -12.6501, 95.5305, -58.4748, 41.6521
0.708, 1, 35.1729, 49.2977, -12.6754, 95.5644, -58.3521, 41.6941
0.712, 1, 35.1862, 49.2767, -12.7006, 95.5982, -58.2296, 41.7361
0.716, 1, 35.1995, 49.2557, -12.7258, 95.632, -58.1072, 41.7781
0.72, 1, 35.2128, 49.2347, -12.751, 95.6657, -57.985, 41.82
0.724, 1, 35.226, 49.2138, -12.7761, 95.6994, -57.8629, 41.8618
0.728, 1, 35.2393, 49.1929, -12.8012, 95.7331, -57.741, 41.9036
0.732, 1, 35.2525, 49.1721, -12.8262, 95.7667, -57.6192, 41.9454
0.736, 1, 35.2657, 49.1512, -12.8513, 95.8003, -57.4976, 41.9871
0.74, 1, 35.2789, 49.1304, -12.8763, 95.8338, -57.3762, 42.0287
0.744, 1, 35.2921, 49.1097, -12.9012, 95.8673, -57.2549, 42.0703
0.748, 1, 35.3052, 49.0889, -12.9262, 95.9007, -57.1338, 42.1118
0.752, 1, 35.3184, 49.0682, -12.9511, 95.9341, -57.0128, 42.1533
0.756, 1, 35.3315, 49.0475, -12.9759, 95.9675, -56.8919, 42.1947
0.76, 1, 35.3446, 49.0268, -13.0008, 96.0008, -56.7712, 42.2361
0.764, 1, 35.3577, 49.0061, -13.0256, 96.0341, -56.6507, 42.2774
0.768, 1, 35.3708, 48.9855, -13.0504, 96.0673, -56.5303, 42.3187
0.772, 1, 35.3838, 48.9649, -13.0751, 96.1005, -56.4101, 42.3599
0.776, 1, 35.3969, 48.9443, -13.0998, 96.1336, -56.29, 42.401
0.78, 1, 35.4099, 48.9238, -13.1245, 96.1667, -56.1701, 42.4422
0.784, 1, 35.4229, 48.9032, -13.1492, 96.1998, -56.0503, 42.4832
0.788, 1, 35.4359, 48.8827, -13.1738, 96.2328, -55.9307, 42.5242
0.792, 1, 35.4489, 48.8623, -13.1984, 96.2658, -55.8112, 42.5652
0.796, 1, 35.4619, 48.8418, -13.2229, 96.2988, -55.6918, 42.6061
0.8, 1, 35.4748, 48.8214, -13.2475, 96.3317, -55.5726, 42.647
0.804, 1, 35.4877, 48.801, -13.272, 96.3645, -55.4535, 42.6878
0.808, 1, 35.5006, 48.7806, -13.2965, 96.3974, -55.3346, 42.7285
0.812, 1, 35.5136, 48.7603, -13.3209, 96.4302, -55.2159, 42.7693
0.816, 1, 35.5264, 48.7399, -13.3453, 96.4629, -55.0972, 42.8099
0.82, 1, 35.5393, 48.7196, -13.3697, 96.4956, -54.9787, 42.8506
0.824, 1, 35.5522, 48.6994, -13.3941, 96.5283, -54.8604, 42.8911
0.828, 1, 35.565, 48.6791, -13.4184, 96.5609, -54.7422, 42.9316
0.832, 1, 35.5778, 48.6589, -13.4427, 96.5935, -54.6241, 42.9721
0.836, 1, 35.5906, 48.6387, -13.467, 96.6261, -54.5062, 43.0125
0.84, 1, 35.6034, 48.6185, -13.4912, 96.6586, -54.3884, 43.0529
0.844, 1, 35.6162, 48.5983, -13.5154, 96.6911, -54.2707, 43.0933
0.848, 1, 35.629, 48.5782, -13.5396, 96.7235, -54.1532, 43.1335
0.852, 1, 35.6417, 48.5581, -13.5638, 96.7559, -54.0358, 43.1738
0.856, 1, 35.6545, 48.538, -13.5879, 96.7883, -53.9186, 43.214
0.86, 1, 35.6672, 48.5179, -13.612, 96.8206, -53.8015, 43.2541
0.864, 1, 35.6799, 48.4979, -13.6361, 96.8529, -53.6845, 43.2942
0.868, 1, 35.6925, 48.4779, -13.6601, 96.8852, -53.5677, 43.3343
0.872, 1, 35.7051, 48.458, -13.6841, 96.9174, -53.451, 43.3743
0.876, 1, 35.7176, 48.4381, -13.7081, 96.9496, -53.3345, 43.4142
0.88, 1, 35.73, 48.4184, -13.7321, 96.9817, -53.2181, 43.4541
0.884, 1, 35.7419, 48.3992, -13.756, 97.0137, -53.102, 43.4939
0.888, 1, 35.7533, 48.3805, -13.7798, 97.0457, -52.9863, 43.5336
0.892, 1, 35.7641, 48.3627, -13.8035, 97.0775, -52.8712, 43.5731
0.896, 1, 35.7742, 48.3457, -13.8269, 97.109, -52.757, 43.6122
0.9, 1, 35.7836, 48.3297, -13.8501, 97.1401, -52.6444, 43.6508
0.904, 1, 35.7924, 48.3145, -13.8728, 97.1706, -52.534, 43.6887
0.908, 1, 35.8007, 48.3002, -13.895, 97.2003, -52.4264, 43.7256
0.912, 1, 35.8087, 48.2866, -13.9163, 97.229, -52.3226, 43.7613
0.916, 1, 35.8164, 48.2736, -13.9367, 97.2564, -52.2234, 43.7953
0.92, 1, 35.8238, 48.2613, -13.956, 97.2823, -52.1296, 43.8275
0.924, 1, 35.8309, 48.2497, -13.9741, 97.3065, -52.042, 43.8576
0.928, 1, 35.8377, 48.2387, -13.9907, 97.3288, -51.9612, 43.8853
0.932, 1, 35.8442, 48.2281, -14.0057, 97.3491, -51.888, 43.9104
0.936, 1, 35.8507, 48.2178, -14.0192, 97.3671, -51.8226, 43.9328
0.94, 1, 35.8571, 48.2077, -14.031, 97.3829, -51.7653, 43.9524
0.944, 1, 35.8634, 48.1979, -14.0412, 97.3966, -51.716, 43.9693
0.948, 1, 35.8695, 48.1884, -14.0498, 97.4081, -51.6743, 43.9836
0.952, 1, 35.8755, 48.1793, -14.0569, 97.4175, -51.6399, 43.9954
0.956, 2, 35.8812, 48.1708, -14.0626, 97.4252, -51.612, 44.0049
0.96, 2, 35.8865, 48.1631, -14.0672, 97.4313, -51.5899, 44.0124
0.964, 2, 35.8915, 48.1562, -14.0707, 97.436, -51.5728, 44.0183
0.968, 2, 35.896, 48.1502, -14.0734, 97.4396, -51.5598, 44.0227
0.972, 2, 35.9001, 48.145, -14.0754, 97.4422, -51.5503, 44.0259
0.976, 2, 35.9037, 48.1406, -14.0768, 97.4441, -51.5433, 44.0283
0.98, 2, 35.9067, 48.1371, -14.0778, 97.4454, -51.5385, 44.0299
0.984, 2, 35.9091, 48.1343, -14.0785, 97.4463, -51.5351, 44.0311
0.988, 2, 35.911, 48.1323, -14.079, 97.4469, -51.5327, 44.0319
0.992, 2, 35.9123, 48.1308, -14.0793, 97.4474, -51.5312, 44.0324
0.996, 2, 35.9132, 48.1299, -14.0796, 97.4477, -51.5301, 44.0328
1, 2, 35.9138, 48.1292, -14.0797, 97.4479, -51.5294, 44.033
1.004, 2, 35.9142, 48.1287, -14.0798, 97.448, -51.5289, 44.0332
1.008, 2, 35.9145, 48.1284, -14.0799, 97.4481, -51.5285, 44.0333
1.012, 2, 35.9147, 48.1282, -14.0799, 97.4482, -51.5283, 44.0334
1.016, 2, 35.9149, 48.1281, -14.08, 97.4482, -51.5282, 44.0334
1.02, 2, 35.9149, 48.128, -14.08, 97.4482, -51.5281, 44.0335
1.024, 2, 35.915, 48.1279, -14.08, 97.4482, -51.528, 44.0335
1.027, 2, 35.915, 48.1279, -14.08, 97.4483, -51.5279, 44.0335
1.032, 2, 35.9151, 48.1278, -14.08, 97.4483, -51.5279, 44.0335
1.036, 2, 35.9151, 48.1278, -14.08, 97.4483, -51.5279, 44.0335
1.04, 2, 35.9151, 48.1278, -14.08, 97.4483, -51.5279, 44.0335
1.044, 2, 35.9151, 48.1278, -14.08, 97.4483, -51.5279, 44.0335
1.048, 2, 35.9151, 48.1278, -14.08, 97.4483, -51.5279, 44.0335
1.052, 2, 35.9151, 48.1278, -14.08, 97.4483, -51.5279, 44.0335
1.055, 2, 35.9151, 48.1278, -14.08, 97.4483, -51.5278, 44.0335
1.06, 2, 35.9151, 48.1278, -14.08, 97.4483, -51.5278, 44.0335
1.064, 2, 35.9151, 48.1278, -14.08, 97.4483, -51.5278, 44.0335
1.068, 2, 35.9151, 48.1278, -14.08, 97.4483, -51.5278, 44.0335
1.072, 2, 35.9151, 48.1278, -14.08, 97.4483, -51.5278, 44.0335
1.076, 2, 35.9151, 48.1278, -14.08, 97.4483, -51.5278, 44.0335
1.08, 2, 35.9151, 48.1278, -14.08, 97.4483, -51.5278, 44.0335
1.084, 2, 35.9151, 48.1278, -14.08, 97.4483, -51.5278, 44.0335
1.088, 2, 35.9151, 48.1278, -14.08, 97.4483, -51.5278, 44.0335
1.091, 2, 35.9151, 48.1278, -14.08, 97.4483, -51.5278, 44.0335
1.096, 2, 35.9151, 48.1278, -14.08, 97.4483, -51.5278, 44.0335
1.1, 2, 35.9151, 48.1278, -14.08, 97.4483, -51.5278, 44.0335
1.104, 2, 35.9151, 48.1278, -14.08, 97.4483, -51.5278, 44.0335
1.108, 2, 35.9151, 48.1278, -14.08, 97.4483, -51.5278, 44.0335
1.112, 2, 35.9151, 48.1278, -14.08, 97.4483, -51.5278, 44.0335
1.116, 2, 35.9151, 48.1278, -14.08, 97.4483, -51.5278, 44.0335
1.119, 2, 35.9151, 48.1278, -14.08, 97.4483, -51.5278, 44.0335
1.124, 2, 35.9151, 48.1278, -14.08, 97.4483, -51.5278, 44.0335
1.128, 2, 35.9151, 48.1278, -14.08, 97.4483, -51.5278, 44.0335
1.132, 2, 35.9151, 48.1278, -14.08, 97.4483, -51.5278, 44.0335
1.136, 2, 35.9151, 48.1278, -14.08, 97.4483, -51.5278, 44.0335
1.14, 2, 35.9151, 48.1278, -14.08, 97.4483, -51.5278, 44.0335
1.144, 2, 35.9151, 48.1278, -14.08, 97.4483, -51.5278, 44.0335
1.147, 2, 35.9151, 48.1278, -14.08, 97.4483, -51.5278, 44.0335
1.152, 2, 35.9151, 48.1278, -14.08, 97.4483, -51.5278, 44.0335
1.156, 2, 35.9151, 48.1278, -14.08, 97.4483, -51.5278, 44.0335
1.16, 2, 35.9151, 48.1278, -14.08, 97.4483, -51.5278, 44.0335
1.164, 2, 35.9151, 48.1278, -14.08, 97.4483, -51.5278, 44.0335
1.168, 2, 35.9151, 48.1278, -14.08, 97.4483, -51.5278, 44.0335
1.172, 2, 35.9151, 48.1278, -14.08, 97.4483, -51.5278, 44.0335
1.175, 2, 35.9151, 48.1278, -14.08, 97.4483, -51.5278, 44.0335
1.18, 2, 35.9151, 48.1278, -14.08, 97.4483, -51.5278, 44.0335
1.184, 2, 35.9151, 48.1278, -14.08, 97.4483, -51.5278, 44.0335
1.188, 2, 35.9151, 48.1278, -14.08, 97.4483, -51.5278, 44.0335
1.192, 2, 35.9151, 48.1278, -14.08, 97.4483, -51.5278, 44.0335
1.196, 2, 35.9151, 48.1278, -14.08, 97.4483, -51.5278, 44.0335
1.2, 2, 35.9151, 48.1278, -14.08, 97.4483, -51.5278, 44.0335
1.204, 2, 35.9151, 48.1278, -14.08, 97.4483, -51.5278, 44.0335
1.208, 2, 35.9151, 48.1278, -14.08, 97.4483, -51.5278, 44.0335
1.212, 2, 35.9151, 48.1278, -14.08, 97.4483, -51.5278, 44.0335
1.216, 2, 35.9151, 48.1278, -14.08, 97.4483, -51.5278, 44.0335
1.22, 2, 35.9151, 48.1278, -14.08, 97.4483, -51.5278, 44.0335
1.224, 2, 35.9151, 48.1278, -14.08, 97.4483, -51.5278, 44.0335
1.228, 2, 35.9151, 48.1278, -14.08, 97.4483, -51.5278, 44.0335
1.232, 2, 35.9151, 48.1278, -14.08, 97.4483, -51.5278, 44.0335
1.236, 2, 35.9151, 48.1278, -14.08, 97.4483, -51.5278, 44.0335
1.24, 2, 35.9151, 48.1278, -14.08, 97.4483, -51.5278, 44.0335
1.244, 2, 35.9151, 48.1278, -14.08, 97.4483, -51.5278, 44.0335
1.248, 2, 35.9151, 48.1278, -14.08, 97.4483, -51.5278, 44.0335
1.252, 2, 35.9151, 48.1278, -14.08, 97.4483, -51.5278, 44.0335
1.256, 2, 35.9151, 48.1278, -14.08, 97.4483, -51.5278, 44.0335
1.26, 2, 35.9151, 48.1278, -14.08, 97.4483, -51.5278, 44.0335
1.264, 2, 35.9151, 48.1278, -14.08, 97.4483, -51.5278, 44.0335
1.267, 2, 35.9151, 48.1278, -14.08, 97.4483, -51.5278, 44.0335
1.272, 2, 35.9151, 48.1278, -14.08, 97.4483, -51.5278, 44.0335
1.276, 2, 35.9151, 48.1278, -14.08, 97.4483, -51.5278, 44.0335
1.28, 2, 35.9151, 48.1278, -14.08, 97.4483, -51.5278, 44.0335
1.284, 2, 35.9151, 48.1278, -14.08, 97.4483, -51.5278, 44.0335
1.288, 2, 35.9151, 48.1278, -14.08, 97.4483, -51.5278, 44.0335
1.292, 2, 35.9151, 48.1278, -14.08, 97.4483, -51.5278, 44.0335
1.295, 2, 35.9151, 48.1278, -14.08, 97.4483, -51.5278, 44.0335
1.3, 2, 35.9151, 48.1278, -14.08, 97.4483, -51.5278, 44.0335
1.304, 2, 35.9151, 48.1278, -14.08, 97.4483, -51.5278, 44.0335
1.308, 2, 35.9151, 48.1278, -14.08, 97.4483, -51.5278, 44.0335
1.312, 2, 35.9151, 48.1278, -14.08, 97.4483, -51.5278, 44.0335
1.316, 2, 35.9151, 48.1278, -14.08, 97.4483, -51.5278, 44.0335
1.32, 2, 35.9151, 48.1278, -14.08, 97.4483, -51.5278, 44.0335
1.324, 2, 35.9151, 48.1278, -14.08, 97.4483, -51.5278, 44.0335
1.328, 2, 35.9151, 48.1278, -14.08, 97.4483, -51.5278, 44.0335
1.332, 2, 35.9151, 48.1278, -14.08, 97.4483, -51.5278, 44.0335
1.336, 2, 35.9151, 48.1278, -14.08, 97.4483, -51.5278, 44.0335
1.34, 2, 35.9151, 48.1278, -14.08, 97.4483, -51.5278, 44.0335
1.344, 2, 35.9151, 48.1278, -14.08, 97.4483, -51.5278, 44.0335
1.348, 2, 35.9151, 48.1278, -14.08, 97.4483, -51.5278, 44.0335
1.352, 2, 35.9151, 48.1278, -14.08, 97.4483, -51.5278, 44.0335
1.356, 2, 35.9151, 48.1278, -14.08, 97.4483, -51.5278, 44.0335
1.36, 2, 35.9151, 48.1278, -14.08, 97.4483, -51.5278, 44.0335
1.364, 2, 35.9151, 48.1278, -14.08, 97.4483, -51.5278, 44.0335
1.368, 2, 35.9151, 48.1278, -14.08, 97.4483, -51.5278, 44.0335
1.372, 2, 35.9151, 48.1278, -14.08, 97.4483, -51.5278, 44.0335
1.376, 2, 35.9151, 48.1278, -14.08, 97.4483, -51.5278, 44.0335
1.38, 2, 35.9151, 48.1278, -14.08, 97.4483, -51.5278, 44.0335
1.384, 2, 35.9151, 48.1278, -14.08, 97.4483, -51.5278, 44.0335
1.388, 2, 35.9151, 48.1278, -14.08, 97.4483, -51.5278, 44.0335
1.392, 2, 35.9151, 48.1278, -14.08, 97.4483, -51.5278, 44.0335
1.396, 2, 35.9151, 48.1278, -14.08, 97.4483, -51.5278, 44.0335
1.4, 2, 35.9151, 48.1278, -14.08, 97.4483, -51.5278, 44.0335
1.404, 2, 35.9151, 48.1278, -14.08, 97.4483, -51.5278, 44.0335
1.408, 2, 35.9151, 48.1278, -14.08, 97.4483, -51.5278, 44.0335
1.412, 2, 35.9151, 48.1278, -14.08, 97.4483, -51.5278, 44.0335
1.416, 2, 35.9151, 48.1278, -14.08, 97.4483, -51.5278, 44.0335
1.42, 2, 35.9151, 48.1278, -14.08, 97.4483, -51.5278, 44.0335
1.424, 2, 35.9151, 48.1278, -14.08, 97.4483, -51.5278, 44.0335
1.428, 2, 35.9151, 48.1278, -14.08, 97.4483, -51.5278, 44.0335
1.432, 2, 35.9151, 48.1278, -14.08, 97.4483, -51.5278, 44.0335
1.436, 2, 35.9151, 48.1278, -14.08, 97.4483, -51.5278, 44.0335
1.44, 2, 35.9151, 48.1278, -14.08, 97.4483, -51.5278, 44.0335
1.444, 2, 35.9151, 48.1278, -14.08, 97.4483, -51.5278, 44.0335
1.448, 2, 35.9151, 48.1278, -14.08, 97.4483, -51.5278, 44.0335
1.452, 2, 35.9151, 48.1278, -14.08, 97.4483, -51.5278, 44.0335
1.456, 3, 35.9151, 48.1278, -14.08, 97.4483, -51.5278, 44.0335
1.46, 3, 35.9151, 48.1278, -14.08, 97.4483, -51.5278, 44.0335
1.464, 3, 35.9151, 48.1278, -14.08, 97.4483, -51.5278, 44.0335
1.468, 3, 35.9151, 48.1278, -14.08, 97.4483, -51.5278, 44.0335
1.472, 3, 35.9151, 48.1278, -14.08, 97.4483, -51.5278, 44.0335
1.476, 3, 35.9151, 48.1278, -14.08, 97.4483, -51.5278, 44.0335
1.48, 3, 35.9151, 48.1278, -14.08, 97.4483, -51.5278, 44.0335
1.484, 3, 35.9151, 48.1278, -14.08, 97.4483, -51.5278, 44.0335
1.488, 3, 35.9151, 48.1278, -14.08, 97.4483, -51.5278, 44.0335
1.492, 3, 35.9151, 48.1278, -14.08, 97.4483, -51.5278, 44.0335
1.496, 3, 35.9151, 48.1278, -14.08, 97.4483, -51.5278, 44.0335
1.5, 3, 35.9151, 48.1278, -14.08, 97.4483, -51.5278, 44.0335
1.504, 3, 35.9151, 48.1278, -14.08, 97.4483, -51.5278, 44.0335
1.508, 3, 35.9151, 48.1278, -14.08, 97.4483, -51.5278, 44.0335
1.512, 4, 35.9151, 48.1278, -14.08, 97.4483, -51.5278, 44.0335
1.516, 4, 35.9151, 48.1278, -14.08, 97.4483, -51.5278, 44.0335
1.52, 4, 35.9151, 48.1278, -14.08, 97.4483, -51.5278, 44.0335
1.524, 4, 35.9151, 48.1278, -14.08, 97.4483, -51.5278, 44.0335
1.528, 4, 35.9151, 48.1278, -14.08, 97.4483, -51.5278, 44.0335
1.532, 4, 35.9151, 48.1278, -14.08, 97.4483, -51.5278, 44.0335
1.536, 4, 35.9151, 48.1278, -14.08, 97.4483, -51.5278, 44.0335
1.54, 4, 35.9151, 48.1278, -14.08, 97.4483, -51.5278, 44.0335
1.544, 4, 35.9151, 48.1278, -14.08, 97.4483, -51.5278, 44.0335
1.548, 4, 35.9151, 48.1278, -14.08, 97.4483, -51.5278, 44.0335
1.552, 4, 35.9151, 48.1278, -14.08, 97.4483, -51.5278, 44.0335
1.556, 4, 35.9151, 48.1278, -14.08, 97.4483, -51.5278, 44.0335
1.56, 4, 35.9151, 48.1278, -14.08, 97.4483, -51.5278, 44.0335
1.564, 4, 35.9151, 48.128, -14.08, 97.4483, -51.5279, 44.0335
1.568, 4, 35.915, 48.1283, -14.0801, 97.4483, -51.5279, 44.0335
1.572, 4, 35.9148, 48.1289, -14.0801, 97.4483, -51.528, 44.0334
1.576, 4, 35.9145, 48.1299, -14.0802, 97.4483, -51.5283, 44.0332
1.58, 4, 35.9142, 48.1311, -14.0803, 97.4484, -51.5289, 44.0329
1.584, 4, 35.9138, 48.1325, -14.0805, 97.4485, -51.5299, 44.0322
1.588, 4, 35.9134, 48.1342, -14.0807, 97.4486, -51.5316, 44.0312
1.592, 4, 35.913, 48.136, -14.0811, 97.4488, -51.534, 44.0297
1.596, 4, 35.9126, 48.1378, -14.0816, 97.449, -51.5373, 44.0277
1.6, 4, 35.9123, 48.1398, -14.0823, 97.4494, -51.5416, 44.025
1.604, 4, 35.9121, 48.142, -14.0831, 97.4498, -51.5471, 44.0216
1.608, 4, 35.9118, 48.1443, -14.084, 97.4503, -51.5538, 44.0175
1.612, 4, 35.9116, 48.1469, -14.0852, 97.4509, -51.5616, 44.0126
1.616, 4, 35.9114, 48.1496, -14.0865, 97.4516, -51.5708, 44.007
1.62, 4, 35.9113, 48.1524, -14.0879, 97.4523, -51.5811, 44.0006
1.624, 4, 35.9113, 48.1553, -14.0895, 97.4532, -51.5925, 43.9935
1.628, 4, 35.9113, 48.1583, -14.0913, 97.4541, -51.605, 43.9858
1.632, 4, 35.9113, 48.1615, -14.0931, 97.4551, -51.6183, 43.9775
1.636, 4, 35.9113, 48.1648, -14.0951, 97.4561, -51.6323, 43.9689
1.64, 4, 35.9113, 48.1685, -14.0971, 97.4572, -51.6469, 43.9599
1.644, 4, 35.9112, 48.1725, -14.0992, 97.4583, -51.6619, 43.9506
1.648, 4, 35.911, 48.1767, -14.1014, 97.4594, -51.6772, 43.9412
1.652, 4, 35.9107, 48.1813, -14.1036, 97.4605, -51.6926, 43.9316
1.656, 4, 35.9104, 48.1859, -14.1058, 97.4616, -51.7082, 43.922
1.66, 4, 35.9101, 48.1908, -14.108, 97.4628, -51.7239, 43.9123
1.664, 4, 35.9097, 48.1956, -14.1102, 97.4639, -51.7396, 43.9026
1.668, 4, 35.9094, 48.2006, -14.1124, 97.465, -51.7554, 43.8929
1.672, 4, 35.909, 48.2056, -14.1147, 97.4662, -51.7712, 43.8832
1.676, 4, 35.9086, 48.2106, -14.1169, 97.4673, -51.787, 43.8734
1.68, 4, 35.9082, 48.2156, -14.1191, 97.4684, -51.8029, 43.8636
1.684, 4, 35.9078, 48.2206, -14.1214, 97.4695, -51.8187, 43.8539
1.688, 4, 35.9074, 48.2257, -14.1236, 97.4706, -51.8345, 43.8441
1.692, 4, 35.907, 48.2307, -14.1258, 97.4717, -51.8504, 43.8344
1.696, 4, 35.9066, 48.2357, -14.128, 97.4728, -51.8663, 43.8246
1.7, 4, 35.9062, 48.2408, -14.1303, 97.4739, -51.8821, 43.8149
1.704, 4, 35.9058, 48.2458, -14.1325, 97.475, -51.898, 43.8051
1.708, 4, 35.9054, 48.2509, -14.1347, 97.4761, -51.9138, 43.7954
1.712, 4, 35.905, 48.2559, -14.1369, 97.4772, -51.9297, 43.7857
1.716, 4, 35.9045, 48.261, -14.1391, 97.4783, -51.9455, 43.7759
1.72, 4, 35.9041, 48.266, -14.1413, 97.4793, -51.9614, 43.7662
1.724, 4, 35.9037, 48.271, -14.1436, 97.4804, -51.9772, 43.7565
1.728, 4, 35.9033, 48.2761, -14.1458, 97.4814, -51.9931, 43.7467
1.732, 4, 35.9029, 48.2811, -14.148, 97.4825, -52.0089, 43.737
1.736, 4, 35.9025, 48.2861, -14.1502, 97.4835, -52.0248, 43.7273
1.74, 4, 35.9021, 48.2912, -14.1524, 97.4846, -52.0406, 43.7176
1.744, 4, 35.9016, 48.2962, -14.1546, 97.4856, -52.0565, 43.7079
1.748, 4, 35.9012, 48.3012, -14.1568, 97.4866, -52.0723, 43.6982
1.752, 4, 35.9008, 48.3063, -14.1589, 97.4877, -52.0882, 43.6885
1.756, 4, 35.9004, 48.3113, -14.1611, 97.4887, -52.104, 43.6788
1.76, 4, 35.9, 48.3163, -14.1633, 97.4897, -52.1199, 43.6691
1.764, 4, 35.8995, 48.3214, -14.1655, 97.4907, -52.1357, 43.6594
1.768, 4, 35.8991, 48.3264, -14.1677, 97.4917, -52.1516, 43.6498
1.772, 4, 35.8987, 48.3314, -14.1699, 97.4927, -52.1674, 43.6401
1.776, 4, 35.8983, 48.3364, -14.172, 97.4937, -52.1833, 43.6304
1.78, 4, 35.8978, 48.3415, -14.1742, 97.4947, -52.1991, 43.6207
1.784, 4, 35.8974, 48.3465, -14.1764, 97.4957, -52.215, 43.6111
1.788, 4, 35.897, 48.3515, -14.1785, 97.4967, -52.2308, 43.6014
1.792, 4, 35.8966, 48.3565, -14.1807, 97.4976, -52.2466, 43.5918
1.796, 4, 35.8961, 48.3615, -14.1829, 97.4986, -52.2625, 43.5821
1.8, 4, 35.8957, 48.3665, -14.185, 97.4996, -52.2783, 43.5725
1.804, 4, 35.8953, 48.3716, -14.1872, 97.5005, -52.2942, 43.5628
1.808, 4, 35.8948, 48.3766, -14.1893, 97.5015, -52.31, 43.5532
1.812, 4, 35.8944, 48.3816, -14.1915, 97.5024, -52.3258, 43.5435
1.816, 4, 35.894, 48.3866, -14.1936, 97.5034, -52.3417, 43.5339
1.82, 4, 35.8935, 48.3916, -14.1958, 97.5043, -52.3575, 43.5243
1.824, 4, 35.8931, 48.3966, -14.1979, 97.5052, -52.3734, 43.5146
1.828, 4, 35.8927, 48.4016, -14.2001, 97.5062, -52.3892, 43.505
1.832, 4, 35.8922, 48.4066, -14.2022, 97.5071, -52.405, 43.4954
1.836, 4, 35.8918, 48.4116, -14.2043, 97.508, -52.4209, 43.4858
1.84, 4, 35.8914, 48.4166, -14.2065, 97.5089, -52.4367, 43.4762
1.844, 4, 35.8909, 48.4216, -14.2086, 97.5098, -52.4525, 43.4666
1.848, 4, 35.8905, 48.4266, -14.2107, 97.5107, -52.4683, 43.457
1.852, 4, 35.89, 48.4316, -14.2128, 97.5116, -52.4842, 43.4474
1.856, 4, 35.8896, 48.4366, -14.215, 97.5125, -52.5, 43.4378
1.86, 4, 35.8892, 48.4416, -14.2171, 97.5134, -52.5158, 43.4282
1.864, 4, 35.8887, 48.4466, -14.2192, 97.5142, -52.5317, 43.4186
1.868, 4, 35.8883, 48.4516, -14.2213, 97.5151, -52.5475, 43.409
1.872, 4, 35.8878, 48.4566, -14.2234, 97.516, -52.5633, 43.3995
1.876, 4, 35.8874, 48.4616, -14.2255, 97.5169, -52.5791, 43.3899
1.88, 4, 35.8869, 48.4666, -14.2276, 97.5177, -52.595, 43.3803
1.884, 4, 35.8865, 48.4716, -14.2297, 97.5186, -52.6108, 43.3707
1.888, 4, 35.886, 48.4765, -14.2318, 97.5194, -52.6266, 43.3612
1.892, 4, 35.8856, 48.4815, -14.2339, 97.5203, -52.6424, 43.3516
1.896, 4, 35.8851, 48.4865, -14.236, 97.5211, -52.6583, 43.3421
1.9, 4, 35.8847, 48.4915, -14.2381, 97.5219, -52.6741, 43.3325
1.904, 4, 35.8842, 48.4965, -14.2402, 97.5228, -52.6899, 43.323
1.908, 4, 35.8838, 48.5014, -14.2423, 97.5236, -52.7057, 43.3134
1.912, 4, 35.8833, 48.5064, -14.2444, 97.5244, -52.7215, 43.3039
1.916, 4, 35.8829, 48.5114, -14.2465, 97.5252, -52.7374, 43.2944
1.92, 4, 35.8824, 48.5164, -14.2486, 97.526, -52.7532, 43.2848
1.924, 4, 35.8819, 48.5214, -14.2506, 97.5268, -52.769, 43.2753
1.928, 4, 35.8815, 48.5263, -14.2527, 97.5276, -52.7848, 43.2658
1.932, 4, 35.881, 48.5313, -14.2548, 97.5284, -52.8006, 43.2563
1.936, 4, 35.8806, 48.5363, -14.2569, 97.5292, -52.8164, 43.2467
1.94, 4, 35.8801, 48.5412, -14.2589, 97.53, -52.8323, 43.2372
1.944, 4, 35.8797, 48.5462, -14.261, 97.5307, -52.8481, 43.2277
1.948, 4, 35.8792, 48.5512, -14.263, 97.5315, -52.8639, 43.2182
1.952, 4, 35.8787, 48.5561, -14.2651, 97.5323, -52.8797, 43.2087
1.956, 4, 35.8783, 48.5611, -14.2672, 97.533, -52.8955, 43.1992
1.96, 4, 35.8778, 48.5661, -14.2692, 97.5338, -52.9113, 43.1897
1.964, 4, 35.8773, 48.571, -14.2713, 97.5345, -52.9271, 43.1802
1.968, 4, 35.8769, 48.576, -14.2733, 97.5353, -52.9429, 43.1708
1.972, 4, 35.8764, 48.5809, -14.2754, 97.536, -52.9587, 43.1613
1.976, 4, 35.8759, 48.5859, -14.2774, 97.5368, -52.9745, 43.1518
1.98, 4, 35.8755, 48.5908, -14.2794, 97.5375, -52.9903, 43.1423
1.984, 4, 35.875, 48.5958, -14.2815, 97.5382, -53.0061, 43.1329
1.988, 4, 35.8745, 48.6007, -14.2835, 97.5389, -53.0219, 43.1234
1.992, 4, 35.874, 48.6057, -14.2855, 97.5396, -53.0378, 43.1139
1.996, 4, 35.8736, 48.6106, -14.2876, 97.5403, -53.0536, 43.1045
1.999, 4, 35.8731, 48.6156, -14.2896, 97.541, -53.0694, 43.095
2.004, 4, 35.8726, 48.6205, -14.2916, 97.5417, -53.0852, 43.0856
2.008, 4, 35.8721, 48.6255, -14.2936, 97.5424, -53.101, 43.0761
2.012, 4, 35.8717, 48.6304, -14.2957, 97.5431, -53.1168, 43.0667
2.015, 4, 35.8712, 48.6354, -14.2977, 97.5438, -53.1326, 43.0573
2.019, 4, 35.8707, 48.6403, -14.2997, 97.5445, -53.1483, 43.0478
2.024, 4, 35.8702, 48.6452, -14.3017, 97.5452, -53.1641, 43.0384
2.028, 4, 35.8697, 48.6502, -14.3037, 97.5458, -53.1799, 43.029
2.031, 4, 35.8693, 48.6551, -14.3057, 97.5465, -53.1957, 43.0195
2.036, 4, 35.8688, 48.6601, -14.3077, 97.5472, -53.2115, 43.0101
2.04, 4, 35.8683, 48.665, -14.3097, 97.5478, -53.2273, 43.0007
2.044, 4, 35.8678, 48.6699, -14.3117, 97.5485, -53.2431, 42.9913
2.048, 4, 35.8673, 48.6749, -14.3137, 97.5491, -53.2589, 42.9819
2.051, 4, 35.8668, 48.6798, -14.3157, 97.5497, -53.2747, 42.9725
2.055, 4, 35.8664, 48.6847, -14.3177, 97.5504, -53.2905, 42.9631
2.06, 4, 35.8659, 48.6896, -14.3197, 97.551, -53.3063, 42.9537
2.064, 4, 35.8654, 48.6946, -14.3216, 97.5516, -53.3221, 42.9443
2.068, 4, 35.8649, 48.6995, -14.3236, 97.5522, -53.3379, 42.9349
2.071, 4, 35.8644, 48.7044, -14.3256, 97.5529, -53.3536, 42.9255
2.076, 4, 35.8639, 48.7093, -14.3276, 97.5535, -53.3694, 42.9161
2.08, 4, 35.8634, 48.7143, -14.3296, 97.5541, -53.3852, 42.9068
2.084, 4, 35.8629, 48.7192, -14.3315, 97.5547, -53.401, 42.8974
2.087, 4, 35.8624, 48.7241, -14.3335, 97.5553, -53.4168, 42.888
2.092, 4, 35.8619, 48.729, -14.3355, 97.5558, -53.4326, 42.8786
2.096, 4, 35.8614, 48.7339, -14.3374, 97.5564, -53.4483, 42.8693
2.1, 4, 35.8609, 48.7388, -14.3394, 97.557, -53.4641, 42.8599
2.104, 4, 35.8604, 48.7437, -14.3413, 97.5576, -53.4799, 42.8506
2.107, 4, 35.8599, 48.7487, -14.3433, 97.5581, -53.4957, 42.8412
2.111, 4, 35.8594, 48.7536, -14.3452, 97.5587, -53.5115, 42.8319
2.116, 4, 35.8589, 48.7585, -14.3472, 97.5593, -53.5272, 42.8225
2.12, 4, 35.8584, 48.7634, -14.3491, 97.5598, -53.543, 42.8132
2.124, 4, 35.8579, 48.7683, -14.3511, 97.5604, -53.5588, 42.8038
2.127, 4, 35.8574, 48.7732, -14.353, 97.5609, -53.5746, 42.7945
2.132, 4, 35.8569, 48.7781, -14.3549, 97.5614, -53.5904, 42.7852
2.136, 4, 35.8564, 48.783, -14.3569, 97.562, -53.6061, 42.7759
2.14, 4, 35.8559, 48.7879, -14.3588, 97.5625, -53.6219, 42.7665
2.143, 4, 35.8554, 48.7928, -14.3607, 97.563, -53.6377, 42.7572
2.148, 4, 35.8549, 48.7977, -14.3627, 97.5635, -53.6534, 42.7479
2.152, 4, 35.8544, 48.8026, -14.3646, 97.5641, -53.6692, 42.7386
2.156, 4, 35.8539, 48.8075, -14.3665, 97.5646, -53.685, 42.7293
2.16, 4, 35.8534, 48.8124, -14.3684, 97.5651, -53.7008, 42.72
2.163, 4, 35.8529, 48.8173, -14.3703, 97.5656, -53.7165, 42.7107
2.168, 4, 35.8524, 48.8221, -14.3723, 97.566, -53.7323, 42.7014
2.172, 4, 35.8518, 48.827, -14.3742, 97.5665, -53.7481, 42.6921
2.176, 4, 35.8513, 48.8319, -14.3761, 97.567, -53.7638, 42.6828
2.179, 4, 35.8508, 48.8368, -14.378, 97.5675, -53.7796, 42.6735
2.184, 4, 35.8503, 48.8417, -14.3799, 97.568, -53.7953, 42.6642
2.188, 4, 35.8498, 48.8466, -14.3818, 97.5684, -53.8111, 42.655
2.192, 4, 35.8493, 48.8514, -14.3837, 97.5689, -53.8269, 42.6457
2.196, 4, 35.8488, 48.8563, -14.3856, 97.5694, -53.8426, 42.6364
2.199, 4, 35.8482, 48.8612, -14.3875, 97.5698, -53.8584, 42.6272
2.204, 4, 35.8477, 48.8661, -14.3893, 97.5703, -53.8742, 42.6179
2.208, 4, 35.8472, 48.871, -14.3912, 97.5707, -53.8899, 42.6086
2.212, 4, 35.8467, 48.8758, -14.3931, 97.5711, -53.9057, 42.5994
2.216, 4, 35.8461, 48.8807, -14.395, 97.5716, -53.9214, 42.5901
2.219, 4, 35.8456, 48.8856, -14.3969, 97.572, -53.9372, 42.5809
2.224, 4, 35.8451, 48.8904, -14.3987, 97.5724, -53.953, 42.5716
2.228, 4, 35.8446, 48.8953, -14.4006, 97.5728, -53.9687, 42.5624
2.232, 4, 35.844, 48.9002, -14.4025, 97.5733, -53.9845, 42.5532
2.235, 4, 35.8435, 48.905, -14.4044, 97.5737, -54.0002, 42.5439
2.24, 4, 35.843, 48.9099, -14.4062, 97.5741, -54.016, 42.5347
2.244, 4, 35.8425, 48.9148, -14.4081, 97.5745, -54.0317, 42.5255
2.248, 4, 35.8419, 48.9196, -14.4099, 97.5749, -54.0475, 42.5162
2.252, 4, 35.8414, 48.9245, -14.4118, 97.5753, -54.0632, 42.507
2.255, 4, 35.8409, 48.9293, -14.4136, 97.5756, -54.079, 42.4978
2.259, 4, 35.8403, 48.9342, -14.4155, 97.576, -54.0947, 42.4886
2.264, 4, 35.8398, 48.9391, -14.4173, 97.5764, -54.1105, 42.4794
2.268, 4, 35.8393, 48.9439, -14.4192, 97.5768, -54.1262, 42.4702
2.272, 4, 35.8387, 48.9488, -14.421, 97.5771, -54.142, 42.461
2.275, 4, 35.8382, 48.9536, -14.4229, 97.5775, -54.1577, 42.4518
2.28, 4, 35.8377, 48.9585, -14.4247, 97.5778, -54.1735, 42.4426
2.284, 4, 35.8371, 48.9633, -14.4265, 97.5782, -54.1892, 42.4334
2.288, 4, 35.8366, 48.9682, -14.4284, 97.5785, -54.2049, 42.4242
2.291, 4, 35.836, 48.973, -14.4302, 97.5789, -54.2207, 42.415
2.296, 4, 35.8355, 48.9778, -14.432, 97.5792, -54.2364, 42.4059
2.3, 4, 35.835, 48.9827, -14.4338, 97.5795, -54.2522, 42.3967
2.304, 4, 35.8344, 48.9875, -14.4357, 97.5799, -54.2679, 42.3875
2.308, 4, 35.8339, 48.9924, -14.4375, 97.5802, -54.2836, 42.3783
2.311, 4, 35.8333, 48.9972, -14.4393, 97.5805, -54.2994, 42.3692
2.316, 4, 35.8328, 49.002, -14.4411, 97.5808, -54.3151, 42.36
2.32, 4, 35.8322, 49.0069, -14.4429, 97.5811, -54.3308, 42.3509
2.324, 4, 35.8317, 49.0117, -14.4447, 97.5814, -54.3466, 42.3417
2.328, 4, 35.8311, 49.0165, -14.4465, 97.5817, -54.3623, 42.3325
2.331, 4, 35.8306, 49.0214, -14.4483, 97.582, -54.3781, 42.3234
2.336, 4, 35.83, 49.0262, -14.4501, 97.5823, -54.3938, 42.3143
2.34, 4, 35.8295, 49.031, -14.4519, 97.5826, -54.4095, 42.3051
2.344, 4, 35.8289, 49.0359, -14.4537, 97.5829, -54.4252, 42.296
2.347, 4, 35.8284, 49.0407, -14.4555, 97.5831, -54.441, 42.2868
2.352, 4, 35.8278, 49.0455, -14.4573, 97.5834, -54.4567, 42.2777
2.356, 4, 35.8273, 49.0503, -14.459, 97.5837, -54.4724, 42.2686
2.36, 4, 35.8267, 49.0551, -14.4608, 97.5839, -54.4882, 42.2595
2.364, 4, 35.8262, 49.06, -14.4626, 97.5842, -54.5039, 42.2503
2.367, 4, 35.8256, 49.0648, -14.4644, 97.5844, -54.5196, 42.2412
2.372, 4, 35.8251, 49.0696, -14.4662, 97.5847, -54.5353, 42.2321
2.376, 4, 35.8245, 49.0744, -14.4679, 97.5849, -54.5511, 42.223
2.38, 4, 35.8239, 49.0792, -14.4697, 97.5851, -54.5668, 42.2139
2.383, 4, 35.8234, 49.084, -14.4714, 97.5854, -54.5825, 42.2048
2.388, 4, 35.8228, 49.0888, -14.4732, 97.5856, -54.5982, 42.1957
2.392, 4, 35.8223, 49.0937, -14.475, 97.5858, -54.614, 42.1866
2.396, 4, 35.8217, 49.0985, -14.4767, 97.586, -54.6297, 42.1775
2.4, 4, 35.8211, 49.1033, -14.4785, 97.5863, -54.6454, 42.1684
2.403, 4, 35.8206, 49.1081, -14.4802, 97.5865, -54.6611, 42.1593
2.408, 4, 35.82, 49.1129, -14.482, 97.5867, -54.6768, 42.1503
2.412, 4, 35.8194, 49.1177, -14.4837, 97.5869, -54.6925, 42.1412
2.416, 4, 35.8189, 49.1225, -14.4855, 97.587, -54.7083, 42.1321
2.42, 4, 35.8183, 49.1273, -14.4872, 97.5872, -54.724, 42.123
2.423, 4, 35.8177, 49.1321, -14.4889, 97.5874, -54.7397, 42.114
2.428, 4, 35.8172, 49.1369, -14.4907, 97.5876, -54.7554, 42.1049
2.432, 4, 35.8166, 49.1417, -14.4924, 97.5878, -54.7711, 42.0958
2.436, 4, 35.816, 49.1465, -14.4941, 97.5879, -54.7868, 42.0868
2.439, 4, 35.8154, 49.1512, -14.4958, 97.5881, -54.8025, 42.0777
2.444, 4, 35.8149, 49.156, -14.4976, 97.5883, -54.8182, 42.0687
2.448, 4, 35.8143, 49.1608, -14.4993, 97.5884, -54.834, 42.0596
2.452, 4, 35.8137, 49.1656, -14.501, 97.5886, -54.8497, 42.0506
2.456, 4, 35.8131, 49.1704, -14.5027, 97.5887, -54.8654, 42.0415
2.459, 4, 35.8126, 49.1752, -14.5044, 97.5889, -54.8811, 42.0325
2.464, 4, 35.812, 49.18, -14.5061, 97.589, -54.8968, 42.0235
2.468, 4, 35.8114, 49.1847, -14.5078, 97.5891, -54.9125, 42.0144
2.472, 4, 35.8108, 49.1895, -14.5095, 97.5892, -54.9282, 42.0054
2.476, 4, 35.8102, 49.1943, -14.5112, 97.5894, -54.9439, 41.9964
2.479, 4, 35.8097, 49.1991, -14.5129, 97.5895, -54.9596, 41.9874
2.484, 4, 35.8091, 49.2039, -14.5146, 97.5896, -54.9753, 41.9784
2.488, 4, 35.8085, 49.2086, -14.5163, 97.5897, -54.991, 41.9693
2.492, 4, 35.8079, 49.2134, -14.518, 97.5898, -55.0067, 41.9603
2.495, 4, 35.8073, 49.2182, -14.5197, 97.5899, -55.0224, 41.9513
2.5, 4, 35.8067, 49.2229, -14.5214, 97.59, -55.0381, 41.9423
2.504, 4, 35.8061, 49.2277, -14.523, 97.5901, -55.0538, 41.9333
2.508, 4, 35.8056, 49.2325, -14.5247, 97.5902, -55.0695, 41.9243
2.512, 4, 35.805, 49.2372, -14.5264, 97.5903, -55.0852, 41.9153
2.515, 4, 35.8044, 49.242, -14.5281, 97.5903, -55.1009, 41.9063
2.52, 4, 35.8038, 49.2468, -14.5297, 97.5904, -55.1166, 41.8973
2.524, 4, 35.8032, 49.2515, -14.5314, 97.5905, -55.1323, 41.8884
2.528, 4, 35.8026, 49.2563, -14.5331, 97.5905, -55.148, 41.8794
2.531, 4, 35.802, 49.261, -14.5347, 97.5906, -55.1637, 41.8704
2.536, 4, 35.8014, 49.2658, -14.5364, 97.5906, -55.1793, 41.8614
2.54, 4, 35.8008, 49.2706, -14.538, 97.5907, -55.195, 41.8525
2.544, 4, 35.8002, 49.2753, -14.5397, 97.5907, -55.2107, 41.8435
2.548, 4, 35.7996, 49.2801, -14.5413, 97.5908, -55.2264, 41.8345
2.551, 4, 35.799, 49.2848, -14.543, 97.5908, -55.2421, 41.8256
2.556, 4, 35.7984, 49.2896, -14.5446, 97.5908, -55.2578, 41.8166
2.56, 4, 35.7978, 49.2943, -14.5463, 97.5909, -55.2735, 41.8077
2.564, 4, 35.7972, 49.2991, -14.5479, 97.5909, -55.2892, 41.7987
2.568, 4, 35.7966, 49.3038, -14.5495, 97.5909, -55.3048, 41.7898
2.571, 4, 35.796, 49.3085, -14.5512, 97.5909, -55.3205, 41.7808
2.576, 4, 35.7954, 49.3133, -14.5528, 97.5909, -55.3362, 41.7719
2.58, 4, 35.7948, 49.318, -14.5544, 97.5909, -55.3519, 41.7629
2.584, 4, 35.7942, 49.3228, -14.556, 97.5909, -55.3676, 41.754
2.587, 4, 35.7936, 49.3275, -14.5577, 97.5909, -55.3832, 41.7451
2.592, 4, 35.793, 49.3322, -14.5593, 97.5909, -55.3989, 41.7361
2.596, 4, 35.7924, 49.337, -14.5609, 97.5909, -55.4146, 41.7272
2.6, 4, 35.7918, 49.3417, -14.5625, 97.5909, -55.4303, 41.7183
2.604, 4, 35.7912, 49.3464, -14.5641, 97.5908, -55.446, 41.7094
2.607, 4, 35.7906, 49.3512, -14.5657, 97.5908, -55.4616, 41.7005
2.612, 4, 35.7899, 49.3559, -14.5673, 97.5908, -55.4773, 41.6916
2.616, 4, 35.7893, 49.3606, -14.5689, 97.5907, -55.493, 41.6826
2.62, 4, 35.7887, 49.3653, -14.5705, 97.5907, -55.5087, 41.6737
2.624, 4, 35.7881, 49.3701, -14.5721, 97.5906, -55.5243, 41.6648
2.627, 4, 35.7875, 49.3748, -14.5737, 97.5906, -55.54, 41.6559
2.632, 4, 35.7869, 49.3795, -14.5753, 97.5905, -55.5557, 41.647
2.636, 4, 35.7863, 49.3842, -14.5769, 97.5905, -55.5713, 41.6382
2.64, 4, 35.7856, 49.3889, -14.5785, 97.5904, -55.587, 41.6293
2.643, 4, 35.785, 49.3937, -14.5801, 97.5903, -55.6027, 41.6204
2.648, 4, 35.7844, 49.3984, -14.5816, 97.5902, -55.6183, 41.6115
2.652, 4, 35.7838, 49.4031, -14.5832, 97.5902, -55.634, 41.6026
2.656, 4, 35.7832, 49.4078, -14.5848, 97.5901, -55.6497, 41.5937
2.66, 4, 35.7825, 49.4125, -14.5864, 97.59, -55.6653, 41.5849
2.663, 4, 35.7819, 49.4172, -14.5879, 97.5899, -55.681, 41.576
2.668, 4, 35.7813, 49.4219, -14.5895, 97.5898, -55.6967, 41.5671
2.672, 4, 35.7807, 49.4266, -14.591, 97.5897, -55.7123, 41.5583
2.676, 4, 35.78, 49.4313, -14.5926, 97.5896, -55.728, 41.5494
2.679, 4, 35.7794, 49.436, -14.5942, 97.5895, -55.7436, 41.5406
2.684, 4, 35.7788, 49.4407, -14.5957, 97.5894, -55.7593, 41.5317
2.688, 4, 35.7782, 49.4454, -14.5973, 97.5892, -55.775, 41.5228
2.692, 4, 35.7775, 49.4501, -14.5988, 97.5891, -55.7906, 41.514
2.696, 4, 35.7769, 49.4548, -14.6004, 97.589, -55.8063, 41.5052
2.699, 4, 35.7763, 49.4595, -14.6019, 97.5889, -55.8219, 41.4963
2.704, 4, 35.7756, 49.4642, -14.6034, 97.5887, -55.8376, 41.4875
2.708, 4, 35.775, 49.4689, -14.605, 97.5886, -55.8532, 41.4786
2.712, 4, 35.7744, 49.4736, -14.6065, 97.5884, -55.8689, 41.4698
2.716, 4, 35.7737, 49.4783, -14.608, 97.5883, -55.8845, 41.461
2.719, 4, 35.7731, 49.483, -14.6096, 97.5881, -55.9002, 41.4522
2.724, 4, 35.7725, 49.4877, -14.6111, 97.588, -55.9158, 41.4433
2.728, 4, 35.7718, 49.4923, -14.6126, 97.5878, -55.9315, 41.4345
2.732, 4, 35.7712, 49.497, -14.6141, 97.5876, -55.9471, 41.4257
2.735, 4, 35.7706, 49.5017, -14.6156, 97.5875, -55.9628, 41.4169
2.74, 4, 35.7699, 49.5064, -14.6172, 97.5873, -55.9784, 41.4081
2.744, 4, 35.7693, 49.5111, -14.6187, 97.5871, -55.9941, 41.3993
2.748, 4, 35.7686, 49.5157, -14.6202, 97.5869, -56.0097, 41.3905
2.752, 4, 35.768, 49.5204, -14.6217, 97.5867, -56.0254, 41.3817
2.755, 4, 35.7673, 49.5251, -14.6232, 97.5865, -56.041, 41.3729
2.76, 4, 35.7667, 49.5298, -14.6247, 97.5863, -56.0567, 41.3641
2.764, 4, 35.7661, 49.5344, -14.6262, 97.5861, -56.0723, 41.3553
2.768, 4, 35.7654, 49.5391, -14.6277, 97.5859, -56.0879, 41.3465
2.772, 4, 35.7648, 49.5438, -14.6292, 97.5857, -56.1036, 41.3377
2.775, 4, 35.7641, 49.5484, -14.6307, 97.5855, -56.1192, 41.3289
2.78, 4, 35.7635, 49.5531, -14.6321, 97.5853, -56.1349, 41.3202
2.784, 4, 35.7628, 49.5578, -14.6336, 97.585, -56.1505, 41.3114
2.788, 4, 35.7622, 49.5624, -14.6351, 97.5848, -56.1661, 41.3026
2.791, 4, 35.7615, 49.5671, -14.6366, 97.5846, -56.1818, 41.2938
2.796, 4, 35.7609, 49.5717, -14.6381, 97.5843, -56.1974, 41.2851
2.8, 4, 35.7602, 49.5764, -14.6395, 97.5841, -56.213, 41.2763
2.804, 4, 35.7596, 49.5811, -14.641, 97.5838, -56.2287, 41.2675
2.808, 4, 35.7589, 49.5857, -14.6425, 97.5836, -56.2443, 41.2588
2.811, 4, 35.7582, 49.5904, -14.6439, 97.5833, -56.2599, 41.25
2.816, 4, 35.7576, 49.595, -14.6454, 97.5831, -56.2756, 41.2413
2.82, 4, 35.7569, 49.5997, -14.6468, 97.5828, -56.2912, 41.2325
2.824, 4, 35.7563, 49.6043, -14.6483, 97.5825, -56.3068, 41.2238
2.828, 4, 35.7556, 49.609, -14.6497, 97.5823, -56.3225, 41.2151
2.831, 4, 35.755, 49.6136, -14.6512, 97.582, -56.3381, 41.2063
2.836, 4, 35.7543, 49.6182, -14.6526, 97.5817, -56.3537, 41.1976
2.84, 4, 35.7536, 49.6229, -14.6541, 97.5814, -56.3693, 41.1888
2.844, 4, 35.753, 49.6275, -14.6555, 97.5811, -56.385, 41.1801
2.847, 4, 35.7523, 49.6322, -14.657, 97.5808, -56.4006, 41.1714
2.852, 4, 35.7516, 49.6368, -14.6584, 97.5805, -56.4162, 41.1627
2.856, 4, 35.751, 49.6414, -14.6598, 97.5802, -56.4318, 41.1539
2.86, 4, 35.7503, 49.6461, -14.6612, 97.5799, -56.4475, 41.1452
2.864, 4, 35.7496, 49.6507, -14.6627, 97.5796, -56.4631, 41.1365
2.867, 4, 35.749, 49.6553, -14.6641, 97.5793, -56.4787, 41.1278
2.872, 4, 35.7483, 49.66, -14.6655, 97.579, -56.4943, 41.1191
2.876, 4, 35.7476, 49.6646, -14.6669, 97.5786, -56.5099, 41.1104
2.88, 4, 35.747, 49.6692, -14.6683, 97.5783, -56.5255, 41.1017
2.883, 4, 35.7463, 49.6738, -14.6698, 97.578, -56.5412, 41.093
2.888, 4, 35.7456, 49.6785, -14.6712, 97.5776, -56.5568, 41.0843
2.892, 4, 35.745, 49.6831, -14.6726, 97.5773, -56.5724, 41.0756
2.896, 4, 35.7443, 49.6877, -14.674, 97.5769, -56.588, 41.0669
2.9, 4, 35.7436, 49.6923, -14.6754, 97.5766, -56.6036, 41.0582
2.903, 4, 35.7429, 49.6969, -14.6768, 97.5762, -56.6192, 41.0495
2.908, 4, 35.7423, 49.7016, -14.6782, 97.5759, -56.6348, 41.0409
2.912, 4, 35.7416, 49.7062, -14.6796, 97.5755, -56.6504, 41.0322
2.916, 4, 35.7409, 49.7108, -14.6809, 97.5751, -56.6661, 41.0235
2.92, 4, 35.7402, 49.7154, -14.6823, 97.5748, -56.6817, 41.0148
2.923, 4, 35.7395, 49.72, -14.6837, 97.5744, -56.6973, 41.0062
2.928, 4, 35.7389, 49.7246, -14.6851, 97.574, -56.7129, 40.9975
2.932, 4, 35.7382, 49.7292, -14.6865, 97.5736, -56.7285, 40.9888
2.936, 4, 35.7375, 49.7338, -14.6878, 97.5732, -56.7441, 40.9802
2.939, 4, 35.7368, 49.7384, -14.6892, 97.5728, -56.7597, 40.9715
2.944, 4, 35.7361, 49.743, -14.6906, 97.5724, -56.7753, 40.9629
2.948, 4, 35.7354, 49.7476, -14.692, 97.572, -56.7909, 40.9542
2.952, 4, 35.7348, 49.7522, -14.6933, 97.5716, -56.8065, 40.9456
2.956, 4, 35.7341, 49.7568, -14.6947, 97.5712, -56.8221, 40.9369
2.959, 4, 35.7334, 49.7614, -14.696, 97.5708, -56.8377, 40.9283
2.964, 4, 35.7327, 49.766, -14.6974, 97.5704, -56.8533, 40.9196
2.968, 4, 35.732, 49.7706, -14.6987, 97.5699, -56.8689, 40.911
2.972, 4, 35.7313, 49.7752, -14.7001, 97.5695, -56.8845, 40.9024
2.976, 4, 35.7306, 49.7798, -14.7014, 97.5691, -56.9001, 40.8937
2.98, 4, 35.7299, 49.7844, -14.7028, 97.5686, -56.9157, 40.8851
2.984, 4, 35.7292, 49.789, -14.7041, 97.5682, -56.9313, 40.8765
2.988, 4, 35.7285, 49.7936, -14.7055, 97.5677, -56.9469, 40.8679
2.992, 4, 35.7278, 49.7981, -14.7068, 97.5673, -56.9625, 40.8593
2.995, 4, 35.7272, 49.8027, -14.7081, 97.5668, -56.9781, 40.8506
3, 4, 35.7265, 49.8073, -14.7094, 97.5664, -56.9936, 40.842
3.004, 4, 35.7258, 49.8119, -14.7108, 97.5659, -57.0092, 40.8334
3.008, 4, 35.7251, 49.8165, -14.7121, 97.5655, -57.0248, 40.8248
3.012, 4, 35.7244, 49.821, -14.7134, 97.565, -57.0404, 40.8162
3.015, 4, 35.7237, 49.8256, -14.7147, 97.5645, -57.056, 40.8076
3.02, 4, 35.723, 49.8302, -14.716, 97.564, -57.0716, 40.799
3.024, 4, 35.7223, 49.8347, -14.7174, 97.5635, -57.0872, 40.7904
3.028, 4, 35.7216, 49.8393, -14.7187, 97.5631, -57.1028, 40.7818
3.031, 4, 35.7209, 49.8439, -14.72, 97.5626, -57.1183, 40.7732
3.036, 4, 35.7201, 49.8484, -14.7213, 97.5621, -57.1339, 40.7646
3.04, 4, 35.7194, 49.853, -14.7226, 97.5616, -57.1495, 40.7561
3.044, 4, 35.7187, 49.8576, -14.7239, 97.5611, -57.1651, 40.7475
3.048, 4, 35.718, 49.8621, -14.7252, 97.5606, -57.1807, 40.7389
3.051, 4, 35.7173, 49.8667, -14.7265, 97.56, -57.1962, 40.7303
3.056, 4, 35.7166, 49.8713, -14.7278, 97.5595, -57.2118, 40.7217
3.06, 4, 35.7159, 49.8758, -14.729, 97.559, -57.2274, 40.7132
3.064, 4, 35.7152, 49.8804, -14.7303, 97.5585, -57.243, 40.7046
3.068, 4, 35.7145, 49.8849, -14.7316, 97.558, -57.2586, 40.696
3.071, 4, 35.7138, 49.8895, -14.7329, 97.5574, -57.2741, 40.6875
3.076, 4, 35.7131, 49.894, -14.7342, 97.5569, -57.2897, 40.6789
3.08, 4, 35.7123, 49.8986, -14.7354, 97.5563, -57.3053, 40.6704
3.084, 4, 35.7116, 49.9031, -14.7367, 97.5558, -57.3209, 40.6618
3.087, 4, 35.7109, 49.9077, -14.738, 97.5552, -57.3364, 40.6533
3.092, 4, 35.7102, 49.9122, -14.7392, 97.5547, -57.352, 40.6447
3.096, 4, 35.7095, 49.9168, -14.7405, 97.5541, -57.3676, 40.6362
3.1, 4, 35.7088, 49.9213, -14.7417, 97.5536, -57.3831, 40.6276
3.104, 4, 35.708, 49.9258, -14.743, 97.553, -57.3987, 40.6191
3.107, 4, 35.7073, 49.9304, -14.7442, 97.5524, -57.4143, 40.6106
3.112, 4, 35.7066, 49.9349, -14.7455, 97.5518, -57.4298, 40.602
3.116, 4, 35.7059, 49.9394, -14.7467, 97.5513, -57.4454, 40.5935
3.12, 4, 35.7052, 49.944, -14.748, 97.5507, -57.461, 40.585
3.124, 4, 35.7044, 49.9485, -14.7492, 97.5501, -57.4765, 40.5765
3.128, 4, 35.7037, 49.953, -14.7505, 97.5495, -57.4921, 40.5679
3.132, 4, 35.703, 49.9576, -14.7517, 97.5489, -57.5077, 40.5594
3.136, 4, 35.7023, 49.9621, -14.7529, 97.5483, -57.5232, 40.5509
3.14, 4, 35.7015, 49.9666, -14.7542, 97.5477, -57.5388, 40.5424
3.143, 4, 35.7008, 49.9711, -14.7554, 97.5471, -57.5543, 40.5339
3.148, 4, 35.7001, 49.9757, -14.7566, 97.5465, -57.5699, 40.5254
3.152, 4, 35.6993, 49.9802, -14.7578, 97.5459, -57.5855, 40.5169
3.156, 4, 35.6986, 49.9847, -14.759, 97.5452, -57.601, 40.5084
3.16, 4, 35.6979, 49.9892, -14.7603, 97.5446, -57.6166, 40.4999
3.163, 4, 35.6972, 49.9937, -14.7615, 97.544, -57.6321, 40.4914
3.168, 4, 35.6964, 49.9982, -14.7627, 97.5434, -57.6477, 40.4829
3.172, 4, 35.6957, 50.0028, -14.7639, 97.5427, -57.6632, 40.4744
3.176, 4, 35.695, 50.0073, -14.7651, 97.5421, -57.6788, 40.4659
3.179, 4, 35.6942, 50.0118, -14.7663, 97.5414, -57.6943, 40.4574
3.184, 4, 35.6935, 50.0163, -14.7675, 97.5408, -57.7099, 40.4489
3.188, 4, 35.6927, 50.0208, -14.7687, 97.5401, -57.7254, 40.4405
3.192, 4, 35.692, 50.0253, -14.7699, 97.5395, -57.741, 40.432
3.196, 4, 35.6913, 50.0298, -14.771, 97.5388, -57.7565, 40.4235
3.199, 4, 35.6905, 50.0343, -14.7722, 97.5382, -57.7721, 40.415
3.204, 4, 35.6898, 50.0388, -14.7734, 97.5375, -57.7876, 40.4066
3.208, 4, 35.689, 50.0433, -14.7746, 97.5368, -57.8032, 40.3981
3.212, 4, 35.6883, 50.0478, -14.7758, 97.5361, -57.8187, 40.3896
3.216, 4, 35.6876, 50.0523, -14.7769, 97.5354, -57.8343, 40.3812
3.22, 4, 35.6868, 50.0568, -14.7781, 97.5348, -57.8498, 40.3727
3.224, 4, 35.6861, 50.0613, -14.7793, 97.5341, -57.8653, 40.3643
3.228, 4, 35.6853, 50.0658, -14.7805, 97.5334, -57.8809, 40.3558
3.232, 4, 35.6846, 50.0703, -14.7816, 97.5327, -57.8964, 40.3474
3.235, 4, 35.6838, 50.0747, -14.7828, 97.532, -57.912, 40.3389
3.24, 4, 35.6831, 50.0792, -14.7839, 97.5313, -57.9275, 40.3305
3.244, 4, 35.6823, 50.0837, -14.7851, 97.5306, -57.943, 40.322
3.248, 4, 35.6816, 50.0882, -14.7862, 97.5298, -57.9586, 40.3136
3.252, 4, 35.6808, 50.0927, -14.7874, 97.5291, -57.9741, 40.3052
3.255, 4, 35.6801, 50.0972, -14.7885, 97.5284, -57.9896, 40.2967
3.26, 4, 35.6793, 50.1016, -14.7897, 97.5277, -58.0052, 40.2883
3.264, 4, 35.6786, 50.1061, -14.7908, 97.527, -58.0207, 40.2799
3.268, 4, 35.6778, 50.1106, -14.7919, 97.5262, -58.0362, 40.2715
3.272, 4, 35.6771, 50.1151, -14.7931, 97.5255, -58.0518, 40.263
3.276, 4, 35.6763, 50.1195, -14.7942, 97.5247, -58.0673, 40.2546
3.28, 4, 35.6756, 50.124, -14.7953, 97.524, -58.0828, 40.2462
3.284, 4, 35.6748, 50.1285, -14.7965, 97.5232, -58.0984, 40.2378
3.288, 4, 35.674, 50.1329, -14.7976, 97.5225, -58.1139, 40.2294
3.291, 4, 35.6733, 50.1374, -14.7987, 97.5217, -58.1294, 40.221
3.296, 4, 35.6725, 50.1419, -14.7998, 97.521, -58.1449, 40.2126
3.3, 4, 35.6718, 50.1463, -14.8009, 97.5202, -58.1605, 40.2042
3.304, 4, 35.671, 50.1508, -14.802, 97.5194, -58.176, 40.1958
3.308, 4, 35.6702, 50.1552, -14.8031, 97.5187, -58.1915, 40.1874
3.312, 4, 35.6695, 50.1597, -14.8043, 97.5179, -58.207, 40.179
3.316, 4, 35.6687, 50.1642, -14.8054, 97.5171, -58.2225, 40.1706
3.32, 4, 35.6679, 50.1686, -14.8065, 97.5163, -58.2381, 40.1622
3.324, 4, 35.6672, 50.1731, -14.8075, 97.5155, -58.2536, 40.1538
3.328, 4, 35.6664, 50.1775, -14.8086, 97.5147, -58.2691, 40.1454
3.332, 4, 35.6656, 50.182, -14.8097, 97.5139, -58.2846, 40.137
3.336, 4, 35.6649, 50.1864, -14.8108, 97.5131, -58.3001, 40.1287
3.34, 4, 35.6641, 50.1909, -14.8119, 97.5123, -58.3157, 40.1203
3.344, 4, 35.6633, 50.1953, -14.813, 97.5115, -58.3312, 40.1119
3.347, 4, 35.6626, 50.1997, -14.8141, 97.5107, -58.3467, 40.1035
3.352, 4, 35.6618, 50.2042, -14.8151, 97.5099, -58.3622, 40.0952
3.356, 4, 35.661, 50.2086, -14.8162, 97.5091, -58.3777, 40.0868
3.36, 4, 35.6602, 50.2131, -14.8173, 97.5082, -58.3932, 40.0784
3.364, 4, 35.6595, 50.2175, -14.8183, 97.5074, -58.4087, 40.0701
3.368, 4, 35.6587, 50.2219, -14.8194, 97.5066, -58.4242, 40.0617
3.372, 4, 35.6579, 50.2264, -14.8205, 97.5057, -58.4398, 40.0534
3.376, 4, 35.6571, 50.2308, -14.8215, 97.5049, -58.4553, 40.045
3.38, 4, 35.6564, 50.2352, -14.8226, 97.5041, -58.4708, 40.0367
3.383, 4, 35.6556, 50.2397, -14.8236, 97.5032, -58.4863, 40.0283
3.388, 4, 35.6548, 50.2441, -14.8247, 97.5023, -58.5018, 40.02
3.392, 4, 35.654, 50.2485, -14.8257, 97.5015, -58.5173, 40.0116
3.396, 4, 35.6532, 50.2529, -14.8268, 97.5006, -58.5328, 40.0033
3.4, 4, 35.6525, 50.2573, -14.8278, 97.4998, -58.5483, 39.995
3.403, 4, 35.6517, 50.2618, -14.8289, 97.4989, -58.5638, 39.9866
3.408, 4, 35.6509, 50.2662, -14.8299, 97.498, -58.5793, 39.9783
3.412, 4, 35.6501, 50.2706, -14.8309, 97.4971, -58.5948, 39.97
3.416, 4, 35.6493, 50.275, -14.832, 97.4963, -58.6103, 39.9616
3.42, 4, 35.6485, 50.2794, -14.833, 97.4954, -58.6258, 39.9533
3.424, 4, 35.6478, 50.2838, -14.834, 97.4945, -58.6413, 39.945
3.428, 4, 35.647, 50.2882, -14.835, 97.4936, -58.6568, 39.9367
3.432, 4, 35.6462, 50.2927, -14.836, 97.4927, -58.6723, 39.9284
3.436, 4, 35.6454, 50.2971, -14.8371, 97.4918, -58.6878, 39.9201
3.439, 4, 35.6446, 50.3015, -14.8381, 97.4909, -58.7033, 39.9117
3.444, 4, 35.6438, 50.3059, -14.8391, 97.49, -58.7188, 39.9034
3.448, 4, 35.643, 50.3103, -14.8401, 97.4891, -58.7343, 39.8951
3.452, 4, 35.6422, 50.3147, -14.8411, 97.4882, -58.7497, 39.8868
3.456, 4, 35.6414, 50.3191, -14.8421, 97.4873, -58.7652, 39.8785
3.46, 4, 35.6406, 50.3235, -14.8431, 97.4863, -58.7807, 39.8702
3.464, 4, 35.6398, 50.3279, -14.8441, 97.4854, -58.7962, 39.8619
3.468, 4, 35.639, 50.3323, -14.8451, 97.4845, -58.8117, 39.8536
3.472, 4, 35.6382, 50.3367, -14.8461, 97.4835, -58.8272, 39.8454
3.476, 4, 35.6374, 50.341, -14.847, 97.4826, -58.8427, 39.8371
3.48, 4, 35.6366, 50.3454, -14.848, 97.4817, -58.8582, 39.8288
3.484, 4, 35.6358, 50.3498, -14.849, 97.4807, -58.8736, 39.8205
3.488, 4, 35.635, 50.3542, -14.85, 97.4798, -58.8891, 39.8122
3.492, 4, 35.6342, 50.3586, -14.851, 97.4788, -58.9046, 39.8039
3.495, 4, 35.6334, 50.363, -14.8519, 97.4778, -58.9201, 39.7957
3.5, 4, 35.6326, 50.3674, -14.8529, 97.4769, -58.9356, 39.7874
3.504, 4, 35.6318, 50.3717, -14.8539, 97.4759, -58.951, 39.7791
3.508, 4, 35.631, 50.3761, -14.8548, 97.4749, -58.9665, 39.7709
3.512, 4, 35.6302, 50.3805, -14.8558, 97.474, -58.982, 39.7626
3.516, 4, 35.6294, 50.3849, -14.8567, 97.473, -58.9975, 39.7543
3.52, 4, 35.6286, 50.3892, -14.8577, 97.472, -59.013, 39.7461
3.524, 4, 35.6278, 50.3936, -14.8586, 97.471, -59.0284, 39.7378
3.528, 4, 35.627, 50.398, -14.8596, 97.47, -59.0439, 39.7296
3.531, 4, 35.6262, 50.4023, -14.8605, 97.469, -59.0594, 39.7213
3.536, 4, 35.6254, 50.4067, -14.8615, 97.468, -59.0748, 39.7131
3.54, 4, 35.6245, 50.4111, -14.8624, 97.467, -59.0903, 39.7048
3.544, 4, 35.6237, 50.4154, -14.8633, 97.466, -59.1058, 39.6966
3.548, 4, 35.6229, 50.4198, -14.8643, 97.465, -59.1213, 39.6883
3.552, 4, 35.6221, 50.4242, -14.8652, 97.464, -59.1367, 39.6801
3.556, 4, 35.6213, 50.4285, -14.8661, 97.463, -59.1522, 39.6719
3.56, 4, 35.6205, 50.4329, -14.8671, 97.462, -59.1677, 39.6636
3.564, 4, 35.6197, 50.4372, -14.868, 97.461, -59.1831, 39.6554
3.568, 4, 35.6188, 50.4416, -14.8689, 97.4599, -59.1986, 39.6472
3.572, 4, 35.618, 50.4459, -14.8698, 97.4589, -59.214, 39.6389
3.576, 4, 35.6172, 50.4503, -14.8707, 97.4579, -59.2295, 39.6307
3.58, 4, 35.6164, 50.4546, -14.8716, 97.4568, -59.245, 39.6225
3.584, 4, 35.6156, 50.459, -14.8725, 97.4558, -59.2604, 39.6143
3.587, 4, 35.6147, 50.4633, -14.8734, 97.4548, -59.2759, 39.6061
3.592, 4, 35.6139, 50.4677, -14.8743, 97.4537, -59.2914, 39.5979
3.596, 4, 35.6131, 50.472, -14.8752, 97.4526, -59.3068, 39.5896
3.6, 4, 35.6123, 50.4763, -14.8761, 97.4516, -59.3223, 39.5814
3.604, 4, 35.6114, 50.4807, -14.877, 97.4505, -59.3377, 39.5732
3.608, 4, 35.6106, 50.485, -14.8779, 97.4495, -59.3532, 39.565
3.612, 4, 35.6098, 50.4893, -14.8788, 97.4484, -59.3686, 39.5568
3.616, 4, 35.609, 50.4937, -14.8797, 97.4473, -59.3841, 39.5486
3.62, 4, 35.6081, 50.498, -14.8806, 97.4462, -59.3995, 39.5404
3.624, 4, 35.6073, 50.5023, -14.8814, 97.4452, -59.415, 39.5322
3.628, 4, 35.6065, 50.5067, -14.8823, 97.4441, -59.4304, 39.524
3.632, 4, 35.6056, 50.511, -14.8832, 97.443, -59.4459, 39.5159
3.636, 4, 35.6048, 50.5153, -14.8841, 97.4419, -59.4613, 39.5077
3.64, 4, 35.604, 50.5196, -14.8849, 97.4408, -59.4768, 39.4995
3.644, 4, 35.6031, 50.524, -14.8858, 97.4397, -59.4922, 39.4913
3.648, 4, 35.6023, 50.5283, -14.8866, 97.4386, -59.5077, 39.4831
3.652, 4, 35.6015, 50.5326, -14.8875, 97.4375, -59.5231, 39.4749
3.656, 4, 35.6006, 50.5369, -14.8884, 97.4364, -59.5386, 39.4668
3.66, 4, 35.5998, 50.5412, -14.8892, 97.4353, -59.554, 39.4586
3.664, 4, 35.599, 50.5455, -14.8901, 97.4341, -59.5695, 39.4504
3.668, 4, 35.5981, 50.5499, -14.8909, 97.433, -59.5849, 39.4423
3.672, 4, 35.5973, 50.5542, -14.8917, 97.4319, -59.6003, 39.4341
3.676, 4, 35.5964, 50.5585, -14.8926, 97.4308, -59.6158, 39.4259
3.679, 4, 35.5956, 50.5628, -14.8934, 97.4296, -59.6312, 39.4178
3.684, 4, 35.5947, 50.5671, -14.8943, 97.4285, -59.6467, 39.4096
3.688, 4, 35.5939, 50.5714, -14.8951, 97.4274, -59.6621, 39.4015
3.692, 4, 35.5931, 50.5757, -14.8959, 97.4262, -59.6775, 39.3933
3.696, 4, 35.5922, 50.58, -14.8967, 97.4251, -59.693, 39.3852
3.7, 4, 35.5914, 50.5843, -14.8976, 97.4239, -59.7084, 39.377
3.704, 4, 35.5905, 50.5886, -14.8984, 97.4228, -59.7238, 39.3689
3.708, 4, 35.5897, 50.5929, -14.8992, 97.4216, -59.7393, 39.3607
3.712, 4, 35.5888, 50.5972, -14.9, 97.4204, -59.7547, 39.3526
3.716, 4, 35.588, 50.6015, -14.9008, 97.4193, -59.7701, 39.3445
3.72, 4, 35.5871, 50.6058, -14.9016, 97.4181, -59.7856, 39.3363
3.724, 4, 35.5863, 50.61, -14.9024, 97.4169, -59.801, 39.3282
3.728, 4, 35.5854, 50.6143, -14.9032, 97.4158, -59.8164, 39.3201
3.732, 4, 35.5846, 50.6186, -14.904, 97.4146, -59.8319, 39.3119
3.735, 4, 35.5837, 50.6229, -14.9048, 97.4134, -59.8473, 39.3038
3.74, 4, 35.5829, 50.6272, -14.9056, 97.4122, -59.8627, 39.2957
3.744, 4, 35.582, 50.6315, -14.9064, 97.411, -59.8781, 39.2876
3.748, 4, 35.5812, 50.6357, -14.9072, 97.4098, -59.8936, 39.2794
3.752, 4, 35.5803, 50.64, -14.908, 97.4086, -59.909, 39.2713
3.756, 4, 35.5794, 50.6443, -14.9087, 97.4074, -59.9244, 39.2632
3.76, 4, 35.5786, 50.6486, -14.9095, 97.4062, -59.9398, 39.2551
3.764, 4, 35.5777, 50.6528, -14.9103, 97.405, -59.9552, 39.247
3.768, 4, 35.5769, 50.6571, -14.9111, 97.4038, -59.9707, 39.2389
3.772, 4, 35.576, 50.6614, -14.9118, 97.4026, -59.9861, 39.2308
3.776, 4, 35.5751, 50.6656, -14.9126, 97.4013, -60.0015, 39.2227
3.78, 4, 35.5743, 50.6699, -14.9134, 97.4001, -60.0169, 39.2146
3.784, 4, 35.5734, 50.6742, -14.9141, 97.3989, -60.0323, 39.2065
3.788, 4, 35.5726, 50.6784, -14.9149, 97.3977, -60.0477, 39.1984
3.792, 4, 35.5717, 50.6827, -14.9156, 97.3964, -60.0632, 39.1903
3.796, 4, 35.5708, 50.6869, -14.9164, 97.3952, -60.0786, 39.1822
3.8, 4, 35.57, 50.6912, -14.9171, 97.3939, -60.094, 39.1741
3.804, 4, 35.5691, 50.6954, -14.9179, 97.3927, -60.1094, 39.166
3.808, 4, 35.5682, 50.6997, -14.9186, 97.3914, -60.1248, 39.1579
3.812, 4, 35.5673, 50.7039, -14.9194, 97.3902, -60.1402, 39.1499
3.816, 4, 35.5665, 50.7082, -14.9201, 97.3889, -60.1556, 39.1418
3.82, 4, 35.5656, 50.7124, -14.9208, 97.3877, -60.171, 39.1337
3.824, 4, 35.5647, 50.7167, -14.9216, 97.3864, -60.1864, 39.1256
3.828, 4, 35.5639, 50.7209, -14.9223, 97.3851, -60.2018, 39.1176
3.832, 4, 35.563, 50.7252, -14.923, 97.3839, -60.2172, 39.1095
3.836, 4, 35.5621, 50.7294, -14.9237, 97.3826, -60.2327, 39.1014
3.84, 4, 35.5612, 50.7337, -14.9244, 97.3813, -60.2481, 39.0934
3.844, 4, 35.5604, 50.7379, -14.9252, 97.38, -60.2635, 39.0853
3.848, 4, 35.5595, 50.7421, -14.9259, 97.3787, -60.2789, 39.0772
3.852, 4, 35.5586, 50.7464, -14.9266, 97.3774, -60.2943, 39.0692
3.856, 4, 35.5577, 50.7506, -14.9273, 97.3761, -60.3097, 39.0611
3.86, 4, 35.5569, 50.7548, -14.928, 97.3748, -60.3251, 39.0531
3.864, 4, 35.556, 50.7591, -14.9287, 97.3735, -60.3404, 39.045
3.868, 4, 35.5551, 50.7633, -14.9294, 97.3722, -60.3558, 39.037
3.872, 4, 35.5542, 50.7675, -14.9301, 97.3709, -60.3712, 39.0289
3.876, 4, 35.5533, 50.7717, -14.9308, 97.3696, -60.3866, 39.0209
3.88, 4, 35.5524, 50.776, -14.9315, 97.3683, -60.402, 39.0128
3.884, 4, 35.5516, 50.7802, -14.9321, 97.367, -60.4174, 39.0048
3.888, 4, 35.5507, 50.7844, -14.9328, 97.3657, -60.4328, 38.9968
3.892, 4, 35.5498, 50.7886, -14.9335, 97.3643, -60.4482, 38.9887
3.896, 4, 35.5489, 50.7928, -14.9342, 97.363, -60.4636, 38.9807
3.9, 4, 35.548, 50.797, -14.9349, 97.3617, -60.479, 38.9727
3.904, 4, 35.5471, 50.8013, -14.9355, 97.3603, -60.4944, 38.9647
3.908, 4, 35.5462, 50.8055, -14.9362, 97.359, -60.5098, 38.9566
3.912, 4, 35.5453, 50.8097, -14.9369, 97.3576, -60.5251, 38.9486
3.916, 4, 35.5444, 50.8139, -14.9375, 97.3563, -60.5405, 38.9406
3.92, 4, 35.5436, 50.8181, -14.9382, 97.3549, -60.5559, 38.9326
3.924, 4, 35.5427, 50.8223, -14.9388, 97.3536, -60.5713, 38.9245
3.928, 4, 35.5418, 50.8265, -14.9395, 97.3522, -60.5867, 38.9165
3.932, 4, 35.5409, 50.8307, -14.9401, 97.3509, -60.6021, 38.9085
3.936, 4, 35.54, 50.8349, -14.9408, 97.3495, -60.6174, 38.9005
3.94, 4, 35.5391, 50.8391, -14.9414, 97.3481, -60.6328, 38.8925
3.944, 4, 35.5382, 50.8433, -14.9421, 97.3467, -60.6482, 38.8845
3.948, 4, 35.5373, 50.8475, -14.9427, 97.3454, -60.6636, 38.8765
3.952, 4, 35.5364, 50.8517, -14.9433, 97.344, -60.679, 38.8685
3.956, 4, 35.5355, 50.8559, -14.944, 97.3426, -60.6943, 38.8605
3.96, 4, 35.5346, 50.86, -14.9446, 97.3412, -60.7097, 38.8525
3.964, 4, 35.5337, 50.8642, -14.9452, 97.3398, -60.7251, 38.8445
3.968, 4, 35.5328, 50.8684, -14.9458, 97.3384, -60.7405, 38.8365
3.972, 4, 35.5319, 50.8726, -14.9465, 97.337, -60.7558, 38.8285
3.976, 4, 35.531, 50.8768, -14.9471, 97.3356, -60.7712, 38.8205
3.98, 4, 35.5301, 50.881, -14.9477, 97.3342, -60.7866, 38.8126
3.984, 4, 35.5292, 50.8851, -14.9483, 97.3328, -60.8019, 38.8046
3.988, 4, 35.5283, 50.8893, -14.9489, 97.3314, -60.8173, 38.7966
3.992, 4, 35.5274, 50.8935, -14.9495, 97.33, -60.8327, 38.7886
3.996, 4, 35.5265, 50.8977, -14.9501, 97.3286, -60.848, 38.7806
3.999, 4, 35.5255, 50.9018, -14.9507, 97.3271, -60.8634, 38.7727
4.004, 4, 35.5246, 50.906, -14.9513, 97.3257, -60.8788, 38.7647
4.008, 4, 35.5237, 50.9102, -14.9519, 97.3243, -60.8941, 38.7567
4.012, 4, 35.5228, 50.9143, -14.9525, 97.3229, -60.9095, 38.7488
4.016, 4, 35.5219, 50.9185, -14.9531, 97.3214, -60.9249, 38.7408
4.02, 4, 35.521, 50.9227, -14.9537, 97.32, -60.9402, 38.7328
4.024, 4, 35.5201, 50.9268, -14.9543, 97.3185, -60.9556, 38.7249
4.028, 4, 35.5192, 50.931, -14.9548, 97.3171, -60.9709, 38.7169
4.032, 4, 35.5182, 50.9351, -14.9554, 97.3156, -60.9863, 38.709
4.036, 4, 35.5173, 50.9393, -14.956, 97.3142, -61.0017, 38.701
4.04, 4, 35.5164, 50.9434, -14.9565, 97.3127, -61.017, 38.6931
4.044, 4, 35.5155, 50.9476, -14.9571, 97.3112, -61.0324, 38.6851
4.048, 4, 35.5146, 50.9517, -14.9577, 97.3098, -61.0477, 38.6772
4.052, 4, 35.5137, 50.9559, -14.9582, 97.3083, -61.0631, 38.6692
4.056, 4, 35.5127, 50.96, -14.9588, 97.3068, -61.0784, 38.6613
4.06, 4, 35.5118, 50.9642, -14.9593, 97.3054, -61.0938, 38.6533
4.064, 4, 35.5109, 50.9683, -14.9599, 97.3039, -61.1091, 38.6454
4.068, 4, 35.51, 50.9725, -14.9604, 97.3024, -61.1245, 38.6375
4.072, 4, 35.509, 50.9766, -14.961, 97.3009, -61.1398, 38.6295
4.076, 4, 35.5081, 50.9807, -14.9615, 97.2994, -61.1552, 38.6216
4.08, 4, 35.5072, 50.9849, -14.9621, 97.2979, -61.1705, 38.6137
4.084, 4, 35.5063, 50.989, -14.9626, 97.2964, -61.1859, 38.6057
4.088, 4, 35.5053, 50.9931, -14.9631, 97.2949, -61.2012, 38.5978
4.092, 4, 35.5044, 50.9973, -14.9637, 97.2934, -61.2166, 38.5899
4.096, 4, 35.5035, 51.0014, -14.9642, 97.2919, -61.2319, 38.582
4.1, 4, 35.5026, 51.0055, -14.9647, 97.2904, -61.2472, 38.5741
4.104, 4, 35.5016, 51.0097, -14.9652, 97.2889, -61.2626, 38.5661
4.108, 4, 35.5007, 51.0138, -14.9658, 97.2874, -61.2779, 38.5582
4.112, 4, 35.4998, 51.0179, -14.9663, 97.2859, -61.2933, 38.5503
4.116, 4, 35.4988, 51.022, -14.9668, 97.2843, -61.3086, 38.5424
4.12, 4, 35.4979, 51.0261, -14.9673, 97.2828, -61.3239, 38.5345
4.124, 4, 35.497, 51.0303, -14.9678, 97.2813, -61.3393, 38.5266
4.128, 4, 35.496, 51.0344, -14.9683, 97.2797, -61.3546, 38.5187
4.132, 4, 35.4951, 51.0385, -14.9688, 97.2782, -61.3699, 38.5108
4.136, 4, 35.4942, 51.0426, -14.9693, 97.2767, -61.3853, 38.5029
4.14, 4, 35.4932, 51.0467, -14.9698, 97.2751, -61.4006, 38.495
4.144, 4, 35.4923, 51.0508, -14.9703, 97.2736, -61.4159, 38.4871
4.148, 4, 35.4913, 51.0549, -14.9708, 97.272, -61.4313, 38.4792
4.152, 4, 35.4904, 51.059, -14.9713, 97.2704, -61.4466, 38.4713
4.156, 4, 35.4895, 51.0631, -14.9717, 97.2689, -61.4619, 38.4634
4.16, 4, 35.4885, 51.0672, -14.9722, 97.2673, -61.4773, 38.4555
4.164, 4, 35.4876, 51.0713, -14.9727, 97.2658, -61.4926, 38.4476
4.168, 4, 35.4866, 51.0754, -14.9732, 97.2642, -61.5079, 38.4398
4.172, 4, 35.4857, 51.0795, -14.9736, 97.2626, -61.5232, 38.4319
4.176, 4, 35.4847, 51.0836, -14.9741, 97.261, -61.5386, 38.424
4.18, 4, 35.4838, 51.0877, -14.9746, 97.2595, -61.5539, 38.4161
4.184, 4, 35.4828, 51.0918, -14.975, 97.2579, -61.5692, 38.4083
4.188, 4, 35.4819, 51.0959, -14.9755, 97.2563, -61.5845, 38.4004
4.192, 4, 35.481, 51.1, -14.9759, 97.2547, -61.5999, 38.3925
4.196, 4, 35.48, 51.1041, -14.9764, 97.2531, -61.6152, 38.3847
4.2, 4, 35.4791, 51.1082, -14.9768, 97.2515, -61.6305, 38.3768
4.204, 4, 35.4781, 51.1122, -14.9773, 97.2499, -61.6458, 38.3689
4.208, 4, 35.4771, 51.1163, -14.9777, 97.2483, -61.6611, 38.3611
4.212, 4, 35.4762, 51.1204, -14.9782, 97.2467, -61.6764, 38.3532
4.216, 4, 35.4752, 51.1245, -14.9786, 97.2451, -61.6918, 38.3453
4.22, 4, 35.4743, 51.1286, -14.979, 97.2435, -61.7071, 38.3375
4.224, 4, 35.4733, 51.1326, -14.9795, 97.2419, -61.7224, 38.3296
4.228, 4, 35.4724, 51.1367, -14.9799, 97.2402, -61.7377, 38.3218
4.232, 4, 35.4714, 51.1408, -14.9803, 97.2386, -61.753, 38.3139
4.236, 4, 35.4705, 51.1448, -14.9807, 97.237, -61.7683, 38.3061
4.24, 4, 35.4695, 51.1489, -14.9812, 97.2353, -61.7836, 38.2982
4.244, 4, 35.4685, 51.153, -14.9816, 97.2337, -61.7989, 38.2904
4.248, 4, 35.4676, 51.157, -14.982, 97.2321, -61.8142, 38.2826
4.252, 4, 35.4666, 51.1611, -14.9824, 97.2304, -61.8296, 38.2747
4.256, 4, 35.4657, 51.1652, -14.9828, 97.2288, -61.8449, 38.2669
4.26, 4, 35.4647, 51.1692, -14.9832, 97.2271, -61.8602, 38.2591
4.264, 4, 35.4637, 51.1733, -14.9836, 97.2255, -61.8755, 38.2512
4.268, 4, 35.4628, 51.1773, -14.984, 97.2238, -61.8908, 38.2434
4.272, 4, 35.4618, 51.1814, -14.9844, 97.2222, -61.9061, 38.2356
4.276, 4, 35.4608, 51.1854, -14.9848, 97.2205, -61.9214, 38.2277
4.28, 4, 35.4599, 51.1895, -14.9852, 97.2188, -61.9367, 38.2199
4.284, 4, 35.4589, 51.1935, -14.9856, 97.2172, -61.952, 38.2121
4.288, 4, 35.4579, 51.1976, -14.9859, 97.2155, -61.9673, 38.2043
4.292, 4, 35.457, 51.2016, -14.9863, 97.2138, -61.9826, 38.1965
4.296, 4, 35.456, 51.2057, -14.9867, 97.2121, -61.9979, 38.1886
4.3, 4, 35.455, 51.2097, -14.9871, 97.2105, -62.0132, 38.1808
4.304, 4, 35.4541, 51.2137, -14.9874, 97.2088, -62.0285, 38.173
4.308, 4, 35.4531, 51.2178, -14.9878, 97.2071, -62.0438, 38.1652
4.312, 4, 35.4521, 51.2218, -14.9882, 97.2054, -62.059, 38.1574
4.316, 4, 35.4511, 51.2258, -14.9885, 97.2037, -62.0743, 38.1496
4.32, 4, 35.4502, 51.2299, -14.9889, 97.202, -62.0896, 38.1418
4.324, 4, 35.4492, 51.2339, -14.9892, 97.2003, -62.1049, 38.134
4.328, 4, 35.4482, 51.2379, -14.9896, 97.1986, -62.1202, 38.1262
4.332, 4, 35.4472, 51.242, -14.9899, 97.1969, -62.1355, 38.1184
4.336, 4, 35.4463, 51.246, -14.9903, 97.1952, -62.1508, 38.1106
4.34, 4, 35.4453, 51.25, -14.9906, 97.1934, -62.1661, 38.1028
4.344, 4, 35.4443, 51.254, -14.991, 97.1917, -62.1813, 38.095
4.348, 4, 35.4433, 51.258, -14.9913, 97.19, -62.1966, 38.0872
4.352, 4, 35.4423, 51.2621, -14.9916, 97.1883, -62.2119, 38.0795
4.356, 4, 35.4414, 51.2661, -14.992, 97.1866, -62.2272, 38.0717
4.36, 4, 35.4404, 51.2701, -14.9923, 97.1848, -62.2425, 38.0639
4.364, 4, 35.4394, 51.2741, -14.9926, 97.1831, -62.2578, 38.0561
4.368, 4, 35.4384, 51.2781, -14.9929, 97.1814, -62.273, 38.0483
4.372, 4, 35.4374, 51.2821, -14.9933, 97.1796, -62.2883, 38.0406
4.376, 4, 35.4364, 51.2861, -14.9936, 97.1779, -62.3036, 38.0328
4.38, 4, 35.4354, 51.2901, -14.9939, 97.1761, -62.3189, 38.025
4.384, 4, 35.4345, 51.2941, -14.9942, 97.1744, -62.3341, 38.0172
4.388, 4, 35.4335, 51.2981, -14.9945, 97.1726, -62.3494, 38.0095
4.392, 4, 35.4325, 51.3021, -14.9948, 97.1708, -62.3647, 38.0017
4.396, 4, 35.4315, 51.3061, -14.9951, 97.1691, -62.38, 37.9939
4.4, 4, 35.4305, 51.3101, -14.9954, 97.1673, -62.3952, 37.9862
4.404, 4, 35.4295, 51.3141, -14.9957, 97.1655, -62.4105, 37.9784
4.408, 4, 35.4285, 51.3181, -14.996, 97.1638, -62.4258, 37.9706
4.412, 4, 35.4275, 51.3221, -14.9963, 97.162, -62.441, 37.9629
4.416, 4, 35.4265, 51.3261, -14.9966, 97.1602, -62.4563, 37.9551
4.42, 4, 35.4255, 51.3301, -14.9969, 97.1584, -62.4716, 37.9474
4.424, 4, 35.4245, 51.3341, -14.9971, 97.1566, -62.4868, 37.9396
4.428, 4, 35.4235, 51.338, -14.9974, 97.1548, -62.5021, 37.9319
4.432, 4, 35.4225, 51.342, -14.9977, 97.1531, -62.5174, 37.9241
4.436, 4, 35.4215, 51.346, -14.9979, 97.1513, -62.5326, 37.9164
4.44, 4, 35.4205, 51.35, -14.9982, 97.1495, -62.5479, 37.9086
4.444, 4, 35.4195, 51.354, -14.9985, 97.1477, -62.5632, 37.9009
4.448, 4, 35.4185, 51.3579, -14.9987, 97.1459, -62.5784, 37.8932
4.452, 4, 35.4175, 51.3619, -14.999, 97.1441, -62.5937, 37.8854
4.456, 4, 35.4165, 51.3659, -14.9992, 97.1422, -62.6089, 37.8777
4.46, 4, 35.4155, 51.3698, -14.9995, 97.1404, -62.6242, 37.87
4.464, 4, 35.4145, 51.3738, -14.9997, 97.1386, -62.6394, 37.8622
4.468, 4, 35.4135, 51.3778, -15, 97.1368, -62.6547, 37.8545
4.472, 4, 35.4125, 51.3817, -15.0002, 97.1349, -62.67, 37.8468
4.476, 4, 35.4115, 51.3857, -15.0005, 97.1331, -62.6852, 37.8391
4.48, 4, 35.4105, 51.3897, -15.0007, 97.1313, -62.7005, 37.8313
4.484, 4, 35.4095, 51.3936, -15.0009, 97.1294, -62.7157, 37.8236
4.488, 4, 35.4085, 51.3976, -15.0012, 97.1276, -62.731, 37.8159
4.492, 4, 35.4075, 51.4015, -15.0014, 97.1258, -62.7462, 37.8082
4.496, 4, 35.4064, 51.4055, -15.0016, 97.1239, -62.7615, 37.8005
4.5, 4, 35.4054, 51.4094, -15.0018, 97.1221, -62.7767, 37.7927
4.504, 4, 35.4044, 51.4134, -15.0021, 97.1202, -62.792, 37.785
4.508, 4, 35.4034, 51.4173, -15.0023, 97.1184, -62.8072, 37.7773
4.512, 4, 35.4024, 51.4213, -15.0025, 97.1165, -62.8224, 37.7696
4.516, 4, 35.4014, 51.4252, -15.0027, 97.1146, -62.8377, 37.7619
4.52, 4, 35.4004, 51.4292, -15.0029, 97.1128, -62.8529, 37.7542
4.524, 4, 35.3993, 51.4331, -15.0031, 97.1109, -62.8682, 37.7465
4.528, 4, 35.3983, 51.437, -15.0033, 97.109, -62.8834, 37.7388
4.532, 4, 35.3973, 51.441, -15.0035, 97.1072, -62.8987, 37.7311
4.536, 4, 35.3963, 51.4449, -15.0037, 97.1053, -62.9139, 37.7234
4.54, 4, 35.3953, 51.4488, -15.0039, 97.1034, -62.9291, 37.7157
4.544, 4, 35.3942, 51.4528, -15.0041, 97.1015, -62.9444, 37.708
4.548, 4, 35.3932, 51.4567, -15.0042, 97.0996, -62.9596, 37.7003
4.552, 4, 35.3922, 51.4606, -15.0044, 97.0978, -62.9748, 37.6926
4.556, 4, 35.3912, 51.4646, -15.0046, 97.0959, -62.9901, 37.685
4.56, 4, 35.3902, 51.4685, -15.0048, 97.094, -63.0053, 37.6773
4.564, 4, 35.3891, 51.4724, -15.005, 97.0921, -63.0205, 37.6696
4.568, 4, 35.3881, 51.4763, -15.0051, 97.0902, -63.0358, 37.6619
4.572, 4, 35.3871, 51.4802, -15.0053, 97.0882, -63.051, 37.6542
4.576, 4, 35.386, 51.4842, -15.0054, 97.0863, -63.0662, 37.6465
4.58, 4, 35.385, 51.4881, -15.0056, 97.0844, -63.0815, 37.6389
4.584, 4, 35.384, 51.492, -15.0058, 97.0825, -63.0967, 37.6312
4.588, 4, 35.383, 51.4959, -15.0059, 97.0806, -63.1119, 37.6235
4.592, 4, 35.3819, 51.4998, -15.0061, 97.0787, -63.1271, 37.6159
4.596, 4, 35.3809, 51.5037, -15.0062, 97.0767, -63.1424, 37.6082
4.6, 4, 35.3799, 51.5076, -15.0064, 97.0748, -63.1576, 37.6005
4.604, 4, 35.3788, 51.5115, -15.0065, 97.0729, -63.1728, 37.5929
4.608, 4, 35.3778, 51.5154, -15.0066, 97.0709, -63.188, 37.5852
4.612, 4, 35.3768, 51.5193, -15.0068, 97.069, -63.2033, 37.5775
4.616, 4, 35.3757, 51.5232, -15.0069, 97.0671, -63.2185, 37.5699
4.62, 4, 35.3747, 51.5271, -15.007, 97.0651, -63.2337, 37.5622
4.624, 4, 35.3736, 51.531, -15.0072, 97.0632, -63.2489, 37.5546
4.628, 4, 35.3726, 51.5349, -15.0073, 97.0612, -63.2641, 37.5469
4.632, 4, 35.3716, 51.5388, -15.0074, 97.0593, -63.2793, 37.5393
4.636, 4, 35.3705, 51.5427, -15.0075, 97.0573, -63.2946, 37.5316
4.64, 4, 35.3695, 51.5466, -15.0076, 97.0553, -63.3098, 37.524
4.644, 4, 35.3684, 51.5505, -15.0077, 97.0534, -63.325, 37.5163
4.648, 4, 35.3674, 51.5543, -15.0078, 97.0514, -63.3402, 37.5087
4.652, 4, 35.3664, 51.5582, -15.0079, 97.0494, -63.3554, 37.501
4.656, 4, 35.3653, 51.5621, -15.008, 97.0475, -63.3706, 37.4934
4.66, 4, 35.3643, 51.566, -15.0081, 97.0455, -63.3858, 37.4858
4.664, 4, 35.3632, 51.5699, -15.0082, 97.0435, -63.401, 37.4781
4.668, 4, 35.3622, 51.5737, -15.0083, 97.0415, -63.4162, 37.4705
4.672, 4, 35.3611, 51.5776, -15.0084, 97.0395, -63.4314, 37.4629
4.676, 4, 35.3601, 51.5815, -15.0085, 97.0375, -63.4466, 37.4552
4.68, 4, 35.359, 51.5854, -15.0086, 97.0355, -63.4618, 37.4476
4.684, 4, 35.358, 51.5892, -15.0087, 97.0336, -63.4771, 37.44
4.688, 4, 35.3569, 51.5931, -15.0087, 97.0315, -63.4923, 37.4323
4.692, 4, 35.3559, 51.5969, -15.0088, 97.0296, -63.5075, 37.4247
4.696, 4, 35.3548, 51.6008, -15.0089, 97.0275, -63.5227, 37.4171
4.7, 4, 35.3538, 51.6047, -15.0089, 97.0255, -63.5379, 37.4095
4.704, 4, 35.3527, 51.6085, -15.009, 97.0235, -63.5531, 37.4019
4.708, 4, 35.3517, 51.6124, -15.0091, 97.0215, -63.5682, 37.3942
4.712, 4, 35.3506, 51.6162, -15.0091, 97.0195, -63.5834, 37.3866
4.716, 4, 35.3496, 51.6201, -15.0092, 97.0175, -63.5986, 37.379
4.72, 4, 35.3485, 51.6239, -15.0092, 97.0154, -63.6138, 37.3714
4.724, 4, 35.3474, 51.6278, -15.0093, 97.0134, -63.629, 37.3638
4.728, 4, 35.3464, 51.6316, -15.0093, 97.0114, -63.6442, 37.3562
4.732, 4, 35.3453, 51.6355, -15.0094, 97.0093, -63.6594, 37.3486
4.736, 4, 35.3443, 51.6393, -15.0094, 97.0073, -63.6746, 37.341
4.74, 4, 35.3432, 51.6432, -15.0094, 97.0053, -63.6898, 37.3334
4.744, 4, 35.3421, 51.647, -15.0095, 97.0032, -63.705, 37.3258
4.748, 4, 35.3411, 51.6508, -15.0095, 97.0012, -63.7202, 37.3182
4.752, 4, 35.34, 51.6547, -15.0095, 96.9991, -63.7354, 37.3106
4.756, 4, 35.3389, 51.6585, -15.0095, 96.9971, -63.7505, 37.303
4.76, 4, 35.3379, 51.6623, -15.0096, 96.995, -63.7657, 37.2954
4.764, 4, 35.3368, 51.6662, -15.0096, 96.993, -63.7809, 37.2878
4.768, 4, 35.3357, 51.67, -15.0096, 96.9909, -63.7961, 37.2802
4.772, 4, 35.3347, 51.6738, -15.0096, 96.9888, -63.8113, 37.2726
4.776, 4, 35.3336, 51.6777, -15.0096, 96.9868, -63.8265, 37.2651
4.78, 4, 35.3325, 51.6815, -15.0096, 96.9847, -63.8416, 37.2575
4.784, 4, 35.3315, 51.6853, -15.0096, 96.9826, -63.8568, 37.2499
4.788, 4, 35.3304, 51.6891, -15.0096, 96.9805, -63.872, 37.2423
4.792, 4, 35.3293, 51.6929, -15.0096, 96.9785, -63.8872, 37.2347
4.796, 4, 35.3282, 51.6968, -15.0096, 96.9764, -63.9023, 37.2272
4.8, 4, 35.3272, 51.7006, -15.0096, 96.9743, -63.9175, 37.2196
4.804, 4, 35.3261, 51.7044, -15.0096, 96.9722, -63.9327, 37.212
4.808, 4, 35.325, 51.7082, -15.0096, 96.9701, -63.9479, 37.2044
4.812, 4, 35.3239, 51.712, -15.0095, 96.968, -63.963, 37.1969
4.816, 4, 35.3229, 51.7158, -15.0095, 96.9659, -63.9782, 37.1893
4.82, 4, 35.3218, 51.7196, -15.0095, 96.9638, -63.9934, 37.1817
4.824, 4, 35.3207, 51.7234, -15.0095, 96.9617, -64.0085, 37.1742
4.828, 4, 35.3196, 51.7272, -15.0094, 96.9596, -64.0237, 37.1666
4.832, 4, 35.3186, 51.731, -15.0094, 96.9575, -64.0389, 37.159
4.836, 4, 35.3175, 51.7348, -15.0094, 96.9553, -64.054, 37.1515
4.84, 4, 35.3164, 51.7386, -15.0093, 96.9532, -64.0692, 37.1439
4.844, 4, 35.3153, 51.7424, -15.0093, 96.9511, -64.0844, 37.1364
4.848, 4, 35.3142, 51.7462, -15.0092, 96.949, -64.0995, 37.1288
4.852, 4, 35.3131, 51.75, -15.0092, 96.9468, -64.1147, 37.1213
4.856, 4, 35.312, 51.7538, -15.0091, 96.9447, -64.1299, 37.1137
4.86, 4, 35.311, 51.7575, -15.009, 96.9426, -64.145, 37.1062
4.864, 4, 35.3099, 51.7613, -15.009, 96.9405, -64.1602, 37.0986
4.868, 4, 35.3088, 51.7651, -15.0089, 96.9383, -64.1753, 37.0911
4.872, 4, 35.3077, 51.7689, -15.0089, 96.9362, -64.1905, 37.0835
4.876, 4, 35.3066, 51.7727, -15.0088, 96.934, -64.2057, 37.076
4.88, 4, 35.3055, 51.7764, -15.0087, 96.9319, -64.2208, 37.0685
4.884, 4, 35.3044, 51.7802, -15.0086, 96.9297, -64.236, 37.0609
4.888, 4, 35.3033, 51.784, -15.0086, 96.9276, -64.2511, 37.0534
4.892, 4, 35.3022, 51.7878, -15.0085, 96.9254, -64.2663, 37.0459
4.896, 4, 35.3012, 51.7915, -15.0084, 96.9232, -64.2814, 37.0383
4.9, 4, 35.3001, 51.7953, -15.0083, 96.9211, -64.2966, 37.0308
4.904, 4, 35.299, 51.7991, -15.0082, 96.9189, -64.3117, 37.0233
4.908, 4, 35.2979, 51.8028, -15.0081, 96.9167, -64.3269, 37.0157
4.912, 4, 35.2968, 51.8066, -15.008, 96.9146, -64.342, 37.0082
4.916, 4, 35.2957, 51.8104, -15.0079, 96.9124, -64.3572, 37.0007
4.92, 4, 35.2946, 51.8141, -15.0078, 96.9102, -64.3723, 36.9932
4.924, 4, 35.2935, 51.8179, -15.0077, 96.908, -64.3875, 36.9856
4.928, 4, 35.2924, 51.8216, -15.0076, 96.9058, -64.4026, 36.9781
4.932, 4, 35.2913, 51.8254, -15.0075, 96.9036, -64.4177, 36.9706
4.936, 4, 35.2902, 51.8291, -15.0073, 96.9014, -64.4329, 36.9631
4.94, 4, 35.2891, 51.8329, -15.0072, 96.8992, -64.448, 36.9556
4.944, 4, 35.288, 51.8366, -15.0071, 96.897, -64.4632, 36.9481
4.948, 4, 35.2869, 51.8404, -15.007, 96.8948, -64.4783, 36.9406
4.952, 4, 35.2858, 51.8441, -15.0068, 96.8926, -64.4934, 36.933
4.956, 4, 35.2846, 51.8478, -15.0067, 96.8904, -64.5086, 36.9255
4.96, 4, 35.2835, 51.8516, -15.0066, 96.8882, -64.5237, 36.918
4.964, 4, 35.2824, 51.8553, -15.0064, 96.886, -64.5389, 36.9105
4.968, 4, 35.2813, 51.8591, -15.0063, 96.8838, -64.554, 36.903
4.972, 4, 35.2802, 51.8628, -15.0061, 96.8816, -64.5691, 36.8955
4.976, 4, 35.2791, 51.8665, -15.006, 96.8793, -64.5843, 36.888
4.98, 4, 35.278, 51.8703, -15.0058, 96.8771, -64.5994, 36.8805
4.984, 4, 35.2769, 51.874, -15.0057, 96.8749, -64.6145, 36.873
4.988, 4, 35.2758, 51.8777, -15.0055, 96.8727, -64.6297, 36.8655
4.992, 4, 35.2747, 51.8814, -15.0054, 96.8704, -64.6448, 36.858
4.996, 4, 35.2735, 51.8852, -15.0052, 96.8682, -64.6599, 36.8506
5, 4, 35.2724, 51.8889, -15.005, 96.866, -64.675, 36.8431
5.004, 4, 35.2713, 51.8926, -15.0049, 96.8637, -64.6902, 36.8356
5.008, 4, 35.2702, 51.8963, -15.0047, 96.8615, -64.7053, 36.8281
5.012, 4, 35.2691, 51.9, -15.0045, 96.8592, -64.7204, 36.8206
5.016, 4, 35.268, 51.9037, -15.0043, 96.8569, -64.7355, 36.8131
5.02, 4, 35.2668, 51.9074, -15.0041, 96.8547, -64.7507, 36.8056
5.024, 4, 35.2657, 51.9112, -15.004, 96.8524, -64.7658, 36.7982
5.028, 4, 35.2646, 51.9149, -15.0038, 96.8502, -64.7809, 36.7907
5.032, 4, 35.2635, 51.9186, -15.0036, 96.8479, -64.796, 36.7832
5.036, 4, 35.2624, 51.9223, -15.0034, 96.8456, -64.8111, 36.7757
5.04, 4, 35.2612, 51.926, -15.0032, 96.8434, -64.8263, 36.7683
5.044, 4, 35.2601, 51.9297, -15.003, 96.8411, -64.8414, 36.7608
5.048, 4, 35.259, 51.9334, -15.0028, 96.8388, -64.8565, 36.7533
5.052, 4, 35.2579, 51.9371, -15.0026, 96.8365, -64.8716, 36.7459
5.056, 4, 35.2567, 51.9408, -15.0023, 96.8343, -64.8867, 36.7384
5.06, 4, 35.2556, 51.9445, -15.0021, 96.832, -64.9018, 36.7309
5.064, 4, 35.2545, 51.9481, -15.0019, 96.8297, -64.917, 36.7235
5.068, 4, 35.2534, 51.9518, -15.0017, 96.8274, -64.9321, 36.716
5.072, 4, 35.2522, 51.9555, -15.0015, 96.8251, -64.9472, 36.7085
5.076, 4, 35.2511, 51.9592, -15.0012, 96.8228, -64.9623, 36.7011
5.08, 4, 35.25, 51.9629, -15.001, 96.8205, -64.9774, 36.6936
5.084, 4, 35.2488, 51.9666, -15.0008, 96.8182, -64.9925, 36.6862
5.088, 4, 35.2477, 51.9702, -15.0005, 96.8159, -65.0076, 36.6787
5.092, 4, 35.2466, 51.9739, -15.0003, 96.8136, -65.0227, 36.6713
5.096, 4, 35.2454, 51.9776, -15.0001, 96.8112, -65.0378, 36.6638
5.1, 4, 35.2443, 51.9813, -14.9998, 96.8089, -65.0529, 36.6564
5.104, 4, 35.2432, 51.9849, -14.9996, 96.8066, -65.068, 36.6489
5.108, 4, 35.242, 51.9886, -14.9993, 96.8043, -65.0831, 36.6415
5.112, 4, 35.2409, 51.9923, -14.9991, 96.802, -65.0982, 36.634
5.116, 4, 35.2397, 51.9959, -14.9988, 96.7996, -65.1133, 36.6266
5.12, 4, 35.2386, 51.9996, -14.9985, 96.7973, -65.1284, 36.6192
5.124, 4, 35.2375, 52.0033, -14.9983, 96.795, -65.1435, 36.6117
5.128, 4, 35.2363, 52.0069, -14.998, 96.7926, -65.1586, 36.6043
5.132, 4, 35.2352, 52.0106, -14.9977, 96.7903, -65.1737, 36.5968
5.136, 4, 35.234, 52.0142, -14.9975, 96.7879, -65.1888, 36.5894
5.14, 4, 35.2329, 52.0179, -14.9972, 96.7856, -65.2039, 36.582
5.144, 4, 35.2318, 52.0215, -14.9969, 96.7833, -65.219, 36.5745
5.148, 4, 35.2306, 52.0252, -14.9966, 96.7809, -65.2341, 36.5671
5.152, 4, 35.2295, 52.0289, -14.9963, 96.7785, -65.2492, 36.5597
5.156, 4, 35.2283, 52.0325, -14.996, 96.7762, -65.2643, 36.5523
5.16, 4, 35.2272, 52.0361, -14.9957, 96.7738, -65.2794, 36.5448
5.164, 4, 35.226, 52.0398, -14.9954, 96.7715, -65.2945, 36.5374
5.168, 4, 35.2249, 52.0434, -14.9951, 96.7691, -65.3096, 36.53
5.172, 4, 35.2237, 52.0471, -14.9948, 96.7667, -65.3246, 36.5226
5.176, 4, 35.2226, 52.0507, -14.9945, 96.7644, -65.3397, 36.5152
5.18, 4, 35.2214, 52.0543, -14.9942, 96.762, -65.3548, 36.5077
5.184, 4, 35.2203, 52.058, -14.9939, 96.7596, -65.3699, 36.5003
5.188, 4, 35.2191, 52.0616, -14.9936, 96.7572, -65.385, 36.4929
5.192, 4, 35.218, 52.0652, -14.9933, 96.7548, -65.4001, 36.4855
5.196, 4, 35.2168, 52.0689, -14.993, 96.7524, -65.4152, 36.4781
5.2, 4, 35.2157, 52.0725, -14.9926, 96.7501, -65.4302, 36.4707
5.204, 4, 35.2145, 52.0761, -14.9923, 96.7477, -65.4453, 36.4633
5.208, 4, 35.2133, 52.0797, -14.992, 96.7453, -65.4604, 36.4559
5.212, 4, 35.2122, 52.0834, -14.9916, 96.7429, -65.4755, 36.4485
5.216, 4, 35.211, 52.087, -14.9913, 96.7405, -65.4905, 36.4411
5.22, 4, 35.2099, 52.0906, -14.991, 96.7381, -65.5056, 36.4337
5.224, 4, 35.2087, 52.0942, -14.9906, 96.7357, -65.5207, 36.4263
5.228, 4, 35.2076, 52.0978, -14.9903, 96.7332, -65.5358, 36.4189
5.232, 4, 35.2064, 52.1014, -14.9899, 96.7308, -65.5508, 36.4115
5.236, 4, 35.2052, 52.105, -14.9896, 96.7284, -65.5659, 36.4041
5.24, 4, 35.2041, 52.1086, -14.9892, 96.726, -65.581, 36.3967
5.244, 4, 35.2029, 52.1123, -14.9889, 96.7236, -65.5961, 36.3893
5.248, 4, 35.2017, 52.1159, -14.9885, 96.7211, -65.6111, 36.3819
5.252, 4, 35.2006, 52.1195, -14.9881, 96.7187, -65.6262, 36.3745
5.256, 4, 35.1994, 52.1231, -14.9878, 96.7163, -65.6413, 36.3671
5.26, 4, 35.1982, 52.1267, -14.9874, 96.7138, -65.6563, 36.3597
5.264, 4, 35.1971, 52.1302, -14.987, 96.7114, -65.6714, 36.3523
5.268, 4, 35.1959, 52.1338, -14.9866, 96.709, -65.6865, 36.345
5.272, 4, 35.1947, 52.1374, -14.9863, 96.7065, -65.7015, 36.3376
5.276, 4, 35.1936, 52.141, -14.9859, 96.7041, -65.7166, 36.3302
5.28, 4, 35.1924, 52.1446, -14.9855, 96.7016, -65.7317, 36.3228
5.284, 4, 35.1912, 52.1482, -14.9851, 96.6992, -65.7467, 36.3155
5.288, 4, 35.19, 52.1518, -14.9847, 96.6967, -65.7618, 36.3081
5.292, 4, 35.1889, 52.1554, -14.9843, 96.6943, -65.7768, 36.3007
5.296, 4, 35.1877, 52.1589, -14.9839, 96.6918, -65.7919, 36.2933
5.3, 4, 35.1865, 52.1625, -14.9835, 96.6893, -65.807, 36.286
5.304, 4, 35.1853, 52.1661, -14.9831, 96.6869, -65.822, 36.2786
5.308, 4, 35.1842, 52.1697, -14.9827, 96.6844, -65.8371, 36.2712
5.312, 4, 35.183, 52.1732, -14.9823, 96.6819, -65.8521, 36.2639
5.316, 4, 35.1818, 52.1768, -14.9819, 96.6795, -65.8672, 36.2565
5.32, 4, 35.1806, 52.1804, -14.9815, 96.677, -65.8822, 36.2491
5.324, 4, 35.1795, 52.184, -14.981, 96.6745, -65.8973, 36.2418
5.328, 4, 35.1783, 52.1875, -14.9806, 96.672, -65.9123, 36.2344
5.332, 4, 35.1771, 52.1911, -14.9802, 96.6695, -65.9274, 36.227
5.336, 4, 35.1759, 52.1946, -14.9797, 96.6671, -65.9424, 36.2197
5.34, 4, 35.1747, 52.1982, -14.9793, 96.6646, -65.9575, 36.2123
5.344, 4, 35.1735, 52.2018, -14.9789, 96.6621, -65.9725, 36.205
5.348, 4, 35.1724, 52.2053, -14.9784, 96.6596, -65.9876, 36.1976
5.352, 4, 35.1712, 52.2089, -14.978, 96.6571, -66.0026, 36.1903
5.356, 4, 35.17, 52.2124, -14.9775, 96.6546, -66.0177, 36.1829
5.36, 4, 35.1688, 52.216, -14.9771, 96.6521, -66.0327, 36.1756
5.364, 4, 35.1676, 52.2195, -14.9766, 96.6495, -66.0478, 36.1682
5.368, 4, 35.1664, 52.2231, -14.9762, 96.647, -66.0628, 36.1609
5.372, 4, 35.1652, 52.2266, -14.9757, 96.6445, -66.0778, 36.1535
5.376, 4, 35.164, 52.2302, -14.9753, 96.642, -66.0929, 36.1462
5.38, 4, 35.1629, 52.2337, -14.9748, 96.6395, -66.1079, 36.1389
5.384, 4, 35.1617, 52.2372, -14.9743, 96.637, -66.1229, 36.1315
5.388, 4, 35.1605, 52.2408, -14.9739, 96.6344, -66.138, 36.1242
5.392, 4, 35.1593, 52.2443, -14.9734, 96.6319, -66.153, 36.1169
5.396, 4, 35.1581, 52.2478, -14.9729, 96.6294, -66.1681, 36.1095
5.4, 4, 35.1569, 52.2514, -14.9724, 96.6268, -66.1831, 36.1022
5.404, 4, 35.1557, 52.2549, -14.972, 96.6243, -66.1981, 36.0948
5.408, 4, 35.1545, 52.2584, -14.9715, 96.6218, -66.2132, 36.0875
5.412, 4, 35.1533, 52.262, -14.971, 96.6192, -66.2282, 36.0802
5.416, 4, 35.1521, 52.2655, -14.9705, 96.6167, -66.2432, 36.0729
5.42, 4, 35.1509, 52.269, -14.97, 96.6141, -66.2583, 36.0655
5.424, 4, 35.1497, 52.2725, -14.9695, 96.6116, -66.2733, 36.0582
5.428, 4, 35.1485, 52.276, -14.969, 96.609, -66.2883, 36.0509
5.432, 4, 35.1473, 52.2796, -14.9685, 96.6065, -66.3033, 36.0436
5.436, 4, 35.1461, 52.2831, -14.968, 96.6039, -66.3184, 36.0362
5.44, 4, 35.1449, 52.2866, -14.9675, 96.6013, -66.3334, 36.0289
5.444, 4, 35.1437, 52.2901, -14.9669, 96.5988, -66.3484, 36.0216
5.448, 4, 35.1425, 52.2936, -14.9664, 96.5962, -66.3634, 36.0143
5.452, 4, 35.1413, 52.2971, -14.9659, 96.5936, -66.3785, 36.007
5.456, 4, 35.1401, 52.3006, -14.9654, 96.591, -66.3935, 35.9997
5.46, 4, 35.1389, 52.3041, -14.9649, 96.5885, -66.4085, 35.9924
5.464, 4, 35.1377, 52.3076, -14.9643, 96.5859, -66.4235, 35.985
5.468, 4, 35.1365, 52.3111, -14.9638, 96.5833, -66.4385, 35.9777
5.472, 4, 35.1352, 52.3146, -14.9633, 96.5807, -66.4536, 35.9704
5.476, 4, 35.134, 52.3181, -14.9627, 96.5781, -66.4686, 35.9631
5.48, 4, 35.1328, 52.3216, -14.9622, 96.5755, -66.4836, 35.9558
5.484, 4, 35.1316, 52.3251, -14.9616, 96.573, -66.4986, 35.9485
5.488, 4, 35.1304, 52.3286, -14.9611, 96.5704, -66.5136, 35.9412
5.492, 4, 35.1292, 52.3321, -14.9605, 96.5678, -66.5286, 35.9339
5.496, 4, 35.128, 52.3355, -14.96, 96.5651, -66.5436, 35.9266
5.5, 4, 35.1268, 52.339, -14.9594, 96.5625, -66.5587, 35.9193
5.504, 4, 35.1255, 52.3425, -14.9588, 96.5599, -66.5737, 35.912
5.508, 4, 35.1243, 52.346, -14.9583, 96.5573, -66.5887, 35.9047
5.512, 4, 35.1231, 52.3495, -14.9577, 96.5547, -66.6037, 35.8974
5.516, 4, 35.1219, 52.3529, -14.9571, 96.5521, -66.6187, 35.8901
5.52, 4, 35.1207, 52.3564, -14.9566, 96.5495, -66.6337, 35.8829
5.524, 4, 35.1195, 52.3599, -14.956, 96.5469, -66.6487, 35.8756
5.528, 4, 35.1182, 52.3634, -14.9554, 96.5442, -66.6637, 35.8683
5.532, 4, 35.117, 52.3668, -14.9548, 96.5416, -66.6787, 35.861
5.536, 4, 35.1158, 52.3703, -14.9542, 96.539, -66.6937, 35.8537
5.54, 4, 35.1146, 52.3738, -14.9537, 96.5363, -66.7087, 35.8464
5.544, 4, 35.1133, 52.3772, -14.9531, 96.5337, -66.7237, 35.8391
5.548, 4, 35.1121, 52.3807, -14.9525, 96.5311, -66.7387, 35.8319
5.552, 4, 35.1109, 52.3841, -14.9519, 96.5284, -66.7537, 35.8246
5.556, 4, 35.1097, 52.3876, -14.9513, 96.5258, -66.7687, 35.8173
5.56, 4, 35.1084, 52.3911, -14.9507, 96.5231, -66.7837, 35.81
5.564, 4, 35.1072, 52.3945, -14.9501, 96.5205, -66.7987, 35.8027
5.568, 4, 35.106, 52.3979, -14.9494, 96.5178, -66.8137, 35.7955
5.572, 4, 35.1048, 52.4014, -14.9488, 96.5152, -66.8287, 35.7882
5.576, 4, 35.1035, 52.4049, -14.9482, 96.5125, -66.8437, 35.7809
5.58, 4, 35.1023, 52.4083, -14.9476, 96.5098, -66.8587, 35.7737
5.584, 4, 35.1011, 52.4117, -14.947, 96.5072, -66.8737, 35.7664
5.588, 4, 35.0998, 52.4152, -14.9463, 96.5045, -66.8887, 35.7591
5.592, 4, 35.0986, 52.4186, -14.9457, 96.5018, -66.9037, 35.7519
5.596, 4, 35.0974, 52.4221, -14.9451, 96.4992, -66.9187, 35.7446
5.6, 4, 35.0961, 52.4255, -14.9444, 96.4965, -66.9336, 35.7373
5.604, 4, 35.0949, 52.4289, -14.9438, 96.4938, -66.9486, 35.7301
5.608, 4, 35.0937, 52.4324, -14.9432, 96.4911, -66.9636, 35.7228
5.612, 4, 35.0924, 52.4358, -14.9425, 96.4885, -66.9786, 35.7156
5.616, 4, 35.0912, 52.4392, -14.9419, 96.4858, -66.9936, 35.7083
5.62, 4, 35.09, 52.4426, -14.9412, 96.4831, -67.0086, 35.701
5.624, 4, 35.0887, 52.4461, -14.9406, 96.4804, -67.0236, 35.6938
5.628, 4, 35.0875, 52.4495, -14.9399, 96.4777, -67.0385, 35.6865
5.632, 4, 35.0862, 52.4529, -14.9392, 96.475, -67.0535, 35.6793
5.636, 4, 35.085, 52.4563, -14.9386, 96.4723, -67.0685, 35.672
5.64, 4, 35.0838, 52.4597, -14.9379, 96.4696, -67.0835, 35.6648
5.644, 4, 35.0825, 52.4632, -14.9372, 96.4669, -67.0985, 35.6575
5.648, 4, 35.0813, 52.4666, -14.9366, 96.4642, -67.1134, 35.6503
5.652, 4, 35.08, 52.47, -14.9359, 96.4615, -67.1284, 35.643
5.656, 4, 35.0788, 52.4734, -14.9352, 96.4588, -67.1434, 35.6358
5.66, 4, 35.0775, 52.4768, -14.9345, 96.456, -67.1584, 35.6286
5.664, 4, 35.0763, 52.4802, -14.9338, 96.4533, -67.1733, 35.6213
5.668, 4, 35.075, 52.4836, -14.9331, 96.4506, -67.1883, 35.6141
5.672, 4, 35.0738, 52.487, -14.9325, 96.4479, -67.2033, 35.6068
5.676, 4, 35.0725, 52.4904, -14.9318, 96.4452, -67.2183, 35.5996
5.68, 4, 35.0713, 52.4938, -14.9311, 96.4424, -67.2332, 35.5924
5.684, 4, 35.07, 52.4972, -14.9304, 96.4397, -67.2482, 35.5851
5.688, 4, 35.0688, 52.5006, -14.9297, 96.437, -67.2632, 35.5779
5.692, 4, 35.0675, 52.504, -14.9289, 96.4342, -67.2781, 35.5707
5.696, 4, 35.0663, 52.5074, -14.9282, 96.4315, -67.2931, 35.5634
5.7, 4, 35.065, 52.5107, -14.9275, 96.4287, -67.3081, 35.5562
5.704, 4, 35.0638, 52.5141, -14.9268, 96.426, -67.323, 35.549
5.708, 4, 35.0625, 52.5175, -14.9261, 96.4232, -67.338, 35.5418
5.712, 4, 35.0613, 52.5209, -14.9254, 96.4205, -67.353, 35.5345
5.716, 4, 35.06, 52.5243, -14.9246, 96.4177, -67.3679, 35.5273
5.72, 4, 35.0588, 52.5276, -14.9239, 96.415, -67.3829, 35.5201
5.724, 4, 35.0575, 52.531, -14.9232, 96.4122, -67.3978, 35.5129
5.728, 4, 35.0562, 52.5344, -14.9224, 96.4095, -67.4128, 35.5056
5.732, 4, 35.055, 52.5378, -14.9217, 96.4067, -67.4277, 35.4984
5.736, 4, 35.0537, 52.5411, -14.921, 96.4039, -67.4427, 35.4912
5.74, 4, 35.0525, 52.5445, -14.9202, 96.4011, -67.4577, 35.484
5.744, 4, 35.0512, 52.5479, -14.9195, 96.3984, -67.4726, 35.4768
5.748, 4, 35.0499, 52.5512, -14.9187, 96.3956, -67.4876, 35.4696
5.752, 4, 35.0487, 52.5546, -14.918, 96.3928, -67.5025, 35.4623
5.756, 4, 35.0474, 52.558, -14.9172, 96.39, -67.5175, 35.4551
5.76, 4, 35.0461, 52.5613, -14.9164, 96.3873, -67.5324, 35.4479
5.764, 4, 35.0449, 52.5647, -14.9157, 96.3845, -67.5474, 35.4407
5.768, 4, 35.0436, 52.568, -14.9149, 96.3817, -67.5623, 35.4335
5.772, 4, 35.0423, 52.5714, -14.9141, 96.3789, -67.5773, 35.4263
5.776, 4, 35.0411, 52.5747, -14.9134, 96.3761, -67.5922, 35.4191
5.78, 4, 35.0398, 52.5781, -14.9126, 96.3733, -67.6072, 35.4119
5.784, 4, 35.0385, 52.5814, -14.9118, 96.3705, -67.6221, 35.4047
5.788, 4, 35.0373, 52.5848, -14.911, 96.3677, -67.6371, 35.3975
5.792, 4, 35.036, 52.5881, -14.9102, 96.3649, -67.652, 35.3903
5.796, 4, 35.0347, 52.5914, -14.9094, 96.3621, -67.667, 35.3831
5.8, 4, 35.0334, 52.5948, -14.9087, 96.3593, -67.6819, 35.3759
5.804, 4, 35.0322, 52.5981, -14.9079, 96.3564, -67.6968, 35.3687
5.808, 4, 35.0309, 52.6015, -14.9071, 96.3536, -67.7118, 35.3615
5.812, 4, 35.0296, 52.6048, -14.9063, 96.3508, -67.7267, 35.3543
5.816, 4, 35.0283, 52.6081, -14.9055, 96.348, -67.7417, 35.3471
5.82, 4, 35.0271, 52.6115, -14.9046, 96.3452, -67.7566, 35.3399
5.824, 4, 35.0258, 52.6148, -14.9038, 96.3423, -67.7715, 35.3328
5.828, 4, 35.0245, 52.6181, -14.903, 96.3395, -67.7865, 35.3256
5.832, 4, 35.0232, 52.6214, -14.9022, 96.3367, -67.8014, 35.3184
5.836, 4, 35.022, 52.6247, -14.9014, 96.3338, -67.8164, 35.3112
5.84, 4, 35.0207, 52.6281, -14.9006, 96.331, -67.8313, 35.304
5.844, 4, 35.0194, 52.6314, -14.8997, 96.3282, -67.8462, 35.2968
5.848, 4, 35.0181, 52.6347, -14.8989, 96.3253, -67.8611, 35.2896
5.852, 4, 35.0168, 52.638, -14.8981, 96.3225, -67.8761, 35.2825
5.856, 4, 35.0155, 52.6413, -14.8972, 96.3196, -67.891, 35.2753
5.86, 4, 35.0143, 52.6446, -14.8964, 96.3168, -67.9059, 35.2681
5.864, 4, 35.013, 52.6479, -14.8956, 96.3139, -67.9209, 35.2609
5.868, 4, 35.0117, 52.6512, -14.8947, 96.3111, -67.9358, 35.2538
5.872, 4, 35.0104, 52.6545, -14.8939, 96.3082, -67.9507, 35.2466
5.876, 4, 35.0091, 52.6578, -14.893, 96.3054, -67.9656, 35.2394
5.88, 4, 35.0078, 52.6611, -14.8922, 96.3025, -67.9806, 35.2322
5.884, 4, 35.0065, 52.6644, -14.8913, 96.2996, -67.9955, 35.2251
5.888, 4, 35.0052, 52.6677, -14.8904, 96.2967, -68.0104, 35.2179
5.892, 4, 35.004, 52.671, -14.8896, 96.2939, -68.0253, 35.2107
5.896, 4, 35.0027, 52.6743, -14.8887, 96.291, -68.0403, 35.2036
5.9, 4, 35.0014, 52.6776, -14.8878, 96.2881, -68.0552, 35.1964
5.904, 4, 35.0001, 52.6809, -14.887, 96.2852, -68.0701, 35.1892
5.908, 4, 34.9988, 52.6842, -14.8861, 96.2824, -68.085, 35.1821
5.912, 4, 34.9975, 52.6875, -14.8852, 96.2795, -68.0999, 35.1749
5.916, 4, 34.9962, 52.6908, -14.8843, 96.2766, -68.1148, 35.1678
5.92, 4, 34.9949, 52.694, -14.8834, 96.2737, -68.1298, 35.1606
5.924, 4, 34.9936, 52.6973, -14.8826, 96.2708, -68.1447, 35.1534
5.928, 4, 34.9923, 52.7006, -14.8817, 96.2679, -68.1596, 35.1463
5.932, 4, 34.991, 52.7039, -14.8808, 96.265, -68.1745, 35.1391
5.936, 4, 34.9897, 52.7071, -14.8799, 96.2621, -68.1894, 35.132
5.94, 4, 34.9884, 52.7104, -14.879, 96.2592, -68.2043, 35.1248
5.944, 4, 34.9871, 52.7137, -14.8781, 96.2563, -68.2192, 35.1177
5.948, 4, 34.9858, 52.7169, -14.8772, 96.2534, -68.2341, 35.1105
5.952, 4, 34.9845, 52.7202, -14.8762, 96.2505, -68.249, 35.1034
5.956, 4, 34.9832, 52.7235, -14.8753, 96.2476, -68.264, 35.0962
5.96, 4, 34.9819, 52.7267, -14.8744, 96.2446, -68.2789, 35.0891
5.964, 4, 34.9806, 52.73, -14.8735, 96.2417, -68.2938, 35.0819
5.968, 4, 34.9793, 52.7332, -14.8726, 96.2388, -68.3087, 35.0748
5.972, 4, 34.978, 52.7365, -14.8716, 96.2359, -68.3236, 35.0676
5.976, 4, 34.9767, 52.7397, -14.8707, 96.2329, -68.3385, 35.0605
5.98, 4, 34.9754, 52.743, -14.8698, 96.23, -68.3534, 35.0534
5.984, 4, 34.9741, 52.7462, -14.8688, 96.2271, -68.3683, 35.0462
5.988, 4, 34.9728, 52.7495, -14.8679, 96.2241, -68.3832, 35.0391
5.992, 4, 34.9714, 52.7527, -14.867, 96.2212, -68.3981, 35.0319
5.996, 4, 34.9701, 52.756, -14.866, 96.2183, -68.413, 35.0248
6, 4, 34.9688, 52.7592, -14.8651, 96.2153, -68.4279, 35.0177
6.004, 4, 34.9675, 52.7625, -14.8641, 96.2124, -68.4428, 35.0105
6.008, 4, 34.9662, 52.7657, -14.8632, 96.2094, -68.4577, 35.0034
6.012, 4, 34.9649, 52.7689, -14.8622, 96.2065, -68.4726, 34.9963
6.016, 4, 34.9636, 52.7722, -14.8613, 96.2035, -68.4875, 34.9891
6.02, 4, 34.9623, 52.7754, -14.8603, 96.2006, -68.5023, 34.982
6.024, 4, 34.9609, 52.7786, -14.8593, 96.1976, -68.5172, 34.9749
6.028, 4, 34.9596, 52.7818, -14.8584, 96.1946, -68.5321, 34.9678
6.032, 4, 34.9583, 52.7851, -14.8574, 96.1917, -68.547, 34.9606
6.036, 4, 34.957, 52.7883, -14.8564, 96.1887, -68.5619, 34.9535
6.04, 4, 34.9557, 52.7915, -14.8554, 96.1857, -68.5768, 34.9464
6.044, 4, 34.9543, 52.7947, -14.8544, 96.1828, -68.5917, 34.9393
6.048, 4, 34.953, 52.798, -14.8535, 96.1798, -68.6066, 34.9321
6.052, 4, 34.9517, 52.8012, -14.8525, 96.1768, -68.6215, 34.925
6.056, 4, 34.9504, 52.8044, -14.8515, 96.1738, -68.6363, 34.9179
6.06, 4, 34.9491, 52.8076, -14.8505, 96.1709, -68.6512, 34.9108
6.064, 4, 34.9477, 52.8108, -14.8495, 96.1679, -68.6661, 34.9037
6.068, 4, 34.9464, 52.814, -14.8485, 96.1649, -68.681, 34.8966
6.072, 4, 34.9451, 52.8172, -14.8475, 96.1619, -68.6959, 34.8894
6.076, 4, 34.9438, 52.8204, -14.8465, 96.1589, -68.7107, 34.8823
6.08, 4, 34.9424, 52.8236, -14.8455, 96.1559, -68.7256, 34.8752
6.084, 4, 34.9411, 52.8268, -14.8444, 96.1529, -68.7405, 34.8681
6.088, 4, 34.9398, 52.83, -14.8434, 96.1499, -68.7554, 34.861
6.092, 4, 34.9385, 52.8332, -14.8424, 96.1469, -68.7703, 34.8539
6.096, 4, 34.9371, 52.8364, -14.8414, 96.1439, -68.7851, 34.8468
6.1, 4, 34.9358, 52.8396, -14.8404, 96.1409, -68.8, 34.8397
6.104, 4, 34.9345, 52.8428, -14.8393, 96.1379, -68.8149, 34.8326
6.108, 4, 34.9331, 52.846, -14.8383, 96.1349, -68.8298, 34.8255
6.112, 4, 34.9318, 52.8492, -14.8373, 96.1318, -68.8446, 34.8184
6.116, 4, 34.9305, 52.8523, -14.8362, 96.1288, -68.8595, 34.8113
6.12, 4, 34.9291, 52.8555, -14.8352, 96.1258, -68.8744, 34.8042
6.124, 4, 34.9278, 52.8587, -14.8341, 96.1228, -68.8892, 34.7971
6.128, 4, 34.9265, 52.8619, -14.8331, 96.1198, -68.9041, 34.79
6.132, 4, 34.9251, 52.8651, -14.832, 96.1167, -68.919, 34.7829
6.136, 4, 34.9238, 52.8682, -14.831, 96.1137, -68.9338, 34.7758
6.14, 4, 34.9225, 52.8714, -14.8299, 96.1107, -68.9487, 34.7687
6.144, 4, 34.9211, 52.8746, -14.8289, 96.1076, -68.9636, 34.7616
6.148, 4, 34.9198, 52.8777, -14.8278, 96.1046, -68.9784, 34.7545
6.152, 4, 34.9184, 52.8809, -14.8267, 96.1015, -68.9933, 34.7474
6.156, 4, 34.9171, 52.8841, -14.8257, 96.0985, -69.0082, 34.7403
6.16, 4, 34.9158, 52.8872, -14.8246, 96.0955, -69.023, 34.7332
6.164, 4, 34.9144, 52.8904, -14.8235, 96.0924, -69.0379, 34.7262
6.168, 4, 34.9131, 52.8936, -14.8224, 96.0894, -69.0527, 34.7191
6.172, 4, 34.9117, 52.8967, -14.8214, 96.0863, -69.0676, 34.712
6.176, 4, 34.9104, 52.8999, -14.8203, 96.0832, -69.0824, 34.7049
6.18, 4, 34.909, 52.903, -14.8192, 96.0802, -69.0973, 34.6978
6.184, 4, 34.9077, 52.9062, -14.8181, 96.0771, -69.1122, 34.6907
6.188, 4, 34.9063, 52.9093, -14.817, 96.0741, -69.127, 34.6837
6.192, 4, 34.905, 52.9125, -14.8159, 96.071, -69.1419, 34.6766
6.196, 4, 34.9036, 52.9156, -14.8148, 96.0679, -69.1567, 34.6695
6.2, 4, 34.9023, 52.9187, -14.8137, 96.0648, -69.1716, 34.6624
6.204, 4, 34.9009, 52.9219, -14.8126, 96.0618, -69.1864, 34.6553
6.208, 4, 34.8996, 52.925, -14.8115, 96.0587, -69.2013, 34.6483
6.212, 4, 34.8982, 52.9282, -14.8104, 96.0556, -69.2161, 34.6412
6.216, 4, 34.8969, 52.9313, -14.8093, 96.0525, -69.231, 34.6341
6.22, 4, 34.8955, 52.9344, -14.8081, 96.0495, -69.2458, 34.627
6.224, 4, 34.8942, 52.9376, -14.807, 96.0464, -69.2607, 34.62
6.228, 4, 34.8928, 52.9407, -14.8059, 96.0433, -69.2755, 34.6129
6.232, 4, 34.8915, 52.9438, -14.8048, 96.0402, -69.2904, 34.6058
6.236, 4, 34.8901, 52.9469, -14.8036, 96.0371, -69.3052, 34.5988
