hehonglu123/ABB_Primitive_Study/execution/movec/curve_exe_v400_fine.csv
timestamp, cmd_num, J1, J2, J3, J4, J5, J6
0, 1, 32.9528, 52.8019, -8.46502, 89.9168, -78.8096, 34.6812
0.002, 1, 32.9528, 52.8019, -8.46502, 89.9168, -78.8096, 34.6812
0.004, 1, 32.9528, 52.8019, -8.46502, 89.9168, -78.8096, 34.6812
0.008, 1, 32.9528, 52.8019, -8.46502, 89.9168, -78.8096, 34.6812
0.011, 1, 32.9528, 52.8019, -8.46502, 89.9168, -78.8096, 34.6812
0.016, 1, 32.9528, 52.8019, -8.46502, 89.9168, -78.8096, 34.6812
0.02, 1, 32.9528, 52.8019, -8.46502, 89.9168, -78.8096, 34.6812
0.024, 1, 32.9528, 52.8019, -8.46502, 89.9168, -78.8096, 34.6812
0.028, 1, 32.9528, 52.8019, -8.46502, 89.9168, -78.8096, 34.6812
0.032, 1, 32.9528, 52.8019, -8.46502, 89.9168, -78.8096, 34.6812
0.036, 1, 32.9528, 52.8019, -8.46502, 89.9168, -78.8096, 34.6812
0.04, 1, 32.9529, 52.8019, -8.46502, 89.9168, -78.8096, 34.6812
0.044, 1, 32.9531, 52.8018, -8.46503, 89.9168, -78.8095, 34.6812
0.048, 1, 32.9535, 52.8014, -8.46504, 89.9169, -78.8095, 34.6812
0.052, 1, 32.9543, 52.8006, -8.46509, 89.9169, -78.8093, 34.6813
0.056, 1, 32.9556, 52.7993, -8.46521, 89.917, -78.8088, 34.6815
0.06, 1, 32.9574, 52.7971, -8.46543, 89.9173, -78.8079, 34.6818
0.064, 1, 32.9597, 52.794, -8.46584, 89.9178, -78.8061, 34.6824
0.068, 1, 32.9625, 52.7899, -8.46653, 89.9186, -78.803, 34.6835
0.072, 1, 32.9659, 52.7849, -8.46761, 89.92, -78.798, 34.6852
0.076, 1, 32.9697, 52.7789, -8.46923, 89.922, -78.7905, 34.6877
0.08, 1, 32.9741, 52.7719, -8.47155, 89.925, -78.7796, 34.6915
0.084, 1, 32.9791, 52.7639, -8.47475, 89.9292, -78.7644, 34.6967
0.088, 1, 32.9847, 52.7549, -8.47904, 89.9348, -78.744, 34.7037
0.092, 1, 32.991, 52.7451, -8.48461, 89.9421, -78.7174, 34.7128
0.096, 1, 32.9978, 52.7344, -8.49169, 89.9515, -78.6834, 34.7244
0.1, 1, 33.005, 52.7231, -8.50046, 89.9631, -78.6411, 34.7389
0.104, 1, 33.0126, 52.7112, -8.51109, 89.9773, -78.5897, 34.7566
0.108, 1, 33.0204, 52.699, -8.5237, 89.9942, -78.5285, 34.7775
0.112, 1, 33.0284, 52.6863, -8.53837, 90.0139, -78.4572, 34.802
0.116, 1, 33.0368, 52.673, -8.55512, 90.0364, -78.3757, 34.8299
0.12, 1, 33.0455, 52.6592, -8.57391, 90.0617, -78.2841, 34.8613
0.124, 1, 33.0546, 52.6447, -8.59467, 90.0896, -78.183, 34.896
0.128, 1, 33.0642, 52.6296, -8.61726, 90.12, -78.0728, 34.9337
0.131, 1, 33.0741, 52.6139, -8.64153, 90.1527, -77.9545, 34.9743
0.136, 1, 33.0844, 52.5977, -8.6673, 90.1875, -77.8288, 35.0174
0.139, 1, 33.0949, 52.5809, -8.69437, 90.2239, -77.6968, 35.0627
0.144, 1, 33.1058, 52.5633, -8.72251, 90.2618, -77.5596, 35.1097
0.148, 1, 33.1172, 52.5447, -8.75152, 90.3009, -77.4182, 35.1582
0.152, 1, 33.1293, 52.525, -8.7812, 90.3408, -77.2736, 35.2077
0.156, 1, 33.1421, 52.5041, -8.81138, 90.3814, -77.1267, 35.2581
0.16, 1, 33.1556, 52.4819, -8.8419, 90.4224, -76.9782, 35.309
0.164, 1, 33.17, 52.4586, -8.87265, 90.4637, -76.8286, 35.3603
0.168, 1, 33.1849, 52.4345, -8.90354, 90.5052, -76.6784, 35.4118
0.172, 1, 33.2004, 52.4098, -8.9345, 90.5467, -76.5279, 35.4634
0.176, 1, 33.2161, 52.3847, -8.9655, 90.5883, -76.3772, 35.515
0.18, 1, 33.2321, 52.3594, -8.9965, 90.6299, -76.2265, 35.5667
0.184, 1, 33.2481, 52.334, -9.02748, 90.6715, -76.076, 35.6183
0.188, 1, 33.2643, 52.3084, -9.05844, 90.713, -75.9256, 35.6699
0.192, 1, 33.2805, 52.2828, -9.08935, 90.7545, -75.7754, 35.7214
0.196, 1, 33.2967, 52.2573, -9.12022, 90.7959, -75.6254, 35.7728
0.2, 1, 33.3129, 52.2317, -9.15103, 90.8372, -75.4757, 35.8241
0.204, 1, 33.3291, 52.2061, -9.1818, 90.8785, -75.3262, 35.8753
0.208, 1, 33.3453, 52.1806, -9.21251, 90.9197, -75.177, 35.9265
0.212, 1, 33.3614, 52.1551, -9.24316, 90.9608, -75.028, 35.9775
0.216, 1, 33.3776, 52.1296, -9.27376, 91.0018, -74.8794, 36.0285
0.22, 1, 33.3937, 52.1042, -9.3043, 91.0428, -74.731, 36.0794
0.224, 1, 33.4098, 52.0788, -9.33479, 91.0837, -74.5829, 36.1302
0.228, 1, 33.4258, 52.0535, -9.36522, 91.1245, -74.435, 36.1808
0.232, 1, 33.4419, 52.0282, -9.3956, 91.1652, -74.2874, 36.2314
0.236, 1, 33.4579, 52.003, -9.42592, 91.2059, -74.1401, 36.2819
0.24, 1, 33.4738, 51.9778, -9.45618, 91.2465, -73.9931, 36.3323
0.244, 1, 33.4898, 51.9526, -9.48639, 91.287, -73.8463, 36.3826
0.248, 1, 33.5057, 51.9275, -9.51654, 91.3275, -73.6998, 36.4329
0.252, 1, 33.5216, 51.9025, -9.54664, 91.3678, -73.5536, 36.483
0.256, 1, 33.5374, 51.8774, -9.57668, 91.4081, -73.4076, 36.533
0.26, 1, 33.5533, 51.8525, -9.60667, 91.4483, -73.2619, 36.583
0.264, 1, 33.5691, 51.8276, -9.6366, 91.4885, -73.1165, 36.6328
0.268, 1, 33.5848, 51.8027, -9.66649, 91.5286, -72.9713, 36.6826
0.272, 1, 33.6006, 51.7778, -9.69631, 91.5686, -72.8264, 36.7323
0.276, 1, 33.6163, 51.7531, -9.72609, 91.6085, -72.6817, 36.7819
0.28, 1, 33.632, 51.7283, -9.75581, 91.6484, -72.5373, 36.8314
0.284, 1, 33.6476, 51.7036, -9.78547, 91.6882, -72.3932, 36.8808
0.288, 1, 33.6633, 51.679, -9.81509, 91.7279, -72.2493, 36.9301
0.292, 1, 33.6789, 51.6544, -9.84465, 91.7675, -72.1057, 36.9794
0.296, 1, 33.6945, 51.6298, -9.87416, 91.8071, -71.9623, 37.0285
0.3, 1, 33.71, 51.6053, -9.90362, 91.8466, -71.8191, 37.0776
0.304, 1, 33.7255, 51.5808, -9.93303, 91.8861, -71.6763, 37.1265
0.308, 1, 33.741, 51.5563, -9.96238, 91.9255, -71.5336, 37.1754
0.312, 1, 33.7565, 51.5319, -9.99169, 91.9648, -71.3913, 37.2243
0.316, 1, 33.7719, 51.5076, -10.0209, 92.004, -71.2491, 37.273
0.32, 1, 33.7873, 51.4833, -10.0501, 92.0432, -71.1073, 37.3216
0.324, 1, 33.8027, 51.459, -10.0793, 92.0823, -70.9656, 37.3702
0.328, 1, 33.8181, 51.4348, -10.1084, 92.1213, -70.8242, 37.4186
0.332, 1, 33.8334, 51.4106, -10.1374, 92.1603, -70.6831, 37.467
0.336, 1, 33.8487, 51.3864, -10.1665, 92.1992, -70.5422, 37.5153
0.34, 1, 33.864, 51.3623, -10.1954, 92.238, -70.4015, 37.5636
0.344, 1, 33.8793, 51.3383, -10.2243, 92.2768, -70.261, 37.6117
0.348, 1, 33.8945, 51.3142, -10.2532, 92.3155, -70.1209, 37.6598
0.352, 1, 33.9097, 51.2903, -10.282, 92.3541, -69.9809, 37.7077
0.356, 1, 33.9249, 51.2663, -10.3107, 92.3927, -69.8412, 37.7556
0.36, 1, 33.94, 51.2424, -10.3394, 92.4312, -69.7017, 37.8034
0.364, 1, 33.9552, 51.2186, -10.3681, 92.4696, -69.5624, 37.8512
0.368, 1, 33.9703, 51.1947, -10.3967, 92.508, -69.4234, 37.8988
0.372, 1, 33.9853, 51.171, -10.4253, 92.5463, -69.2846, 37.9464
0.376, 1, 34.0004, 51.1472, -10.4538, 92.5846, -69.1461, 37.9939
0.38, 1, 34.0154, 51.1235, -10.4823, 92.6228, -69.0078, 38.0413
0.384, 1, 34.0304, 51.0998, -10.5107, 92.6609, -68.8697, 38.0887
0.388, 1, 34.0454, 51.0762, -10.5391, 92.6989, -68.7318, 38.1359
0.392, 1, 34.0604, 51.0526, -10.5674, 92.7369, -68.5941, 38.1831
0.396, 1, 34.0753, 51.0291, -10.5957, 92.7749, -68.4567, 38.2302
0.4, 1, 34.0902, 51.0056, -10.6239, 92.8127, -68.3195, 38.2773
0.404, 1, 34.1051, 50.9821, -10.6521, 92.8506, -68.1826, 38.3242
0.408, 1, 34.1199, 50.9587, -10.6803, 92.8883, -68.0458, 38.3711
0.412, 1, 34.1348, 50.9353, -10.7084, 92.926, -67.9093, 38.4179
0.416, 1, 34.1496, 50.9119, -10.7364, 92.9636, -67.773, 38.4646
0.42, 1, 34.1643, 50.8886, -10.7644, 93.0012, -67.6369, 38.5113
0.424, 1, 34.1791, 50.8653, -10.7924, 93.0387, -67.501, 38.5579
0.428, 1, 34.1938, 50.8421, -10.8203, 93.0762, -67.3653, 38.6044
0.432, 1, 34.2086, 50.8189, -10.8482, 93.1136, -67.2299, 38.6508
0.436, 1, 34.2232, 50.7957, -10.876, 93.1509, -67.0947, 38.6971
0.44, 1, 34.2379, 50.7726, -10.9038, 93.1881, -66.9597, 38.7434
0.444, 1, 34.2526, 50.7495, -10.9315, 93.2254, -66.8249, 38.7896
0.448, 1, 34.2672, 50.7264, -10.9592, 93.2625, -66.6903, 38.8358
0.452, 1, 34.2818, 50.7034, -10.9869, 93.2996, -66.5559, 38.8818
0.456, 1, 34.2964, 50.6804, -11.0145, 93.3367, -66.4217, 38.9278
0.46, 1, 34.3109, 50.6574, -11.0421, 93.3736, -66.2878, 38.9738
0.464, 1, 34.3254, 50.6345, -11.0696, 93.4106, -66.154, 39.0196
0.468, 1, 34.3399, 50.6116, -11.0971, 93.4474, -66.0204, 39.0654
0.472, 1, 34.3544, 50.5888, -11.1246, 93.4842, -65.8871, 39.1111
0.476, 1, 34.3689, 50.566, -11.152, 93.521, -65.754, 39.1567
0.48, 1, 34.3833, 50.5432, -11.1793, 93.5577, -65.621, 39.2023
0.484, 1, 34.3978, 50.5204, -11.2066, 93.5943, -65.4883, 39.2478
0.488, 1, 34.4121, 50.4977, -11.2339, 93.6309, -65.3558, 39.2933
0.492, 1, 34.4265, 50.475, -11.2612, 93.6675, -65.2234, 39.3386
0.496, 1, 34.4409, 50.4524, -11.2883, 93.7039, -65.0913, 39.3839
0.5, 1, 34.4552, 50.4298, -11.3155, 93.7404, -64.9594, 39.4291
0.504, 1, 34.4695, 50.4072, -11.3426, 93.7767, -64.8276, 39.4743
0.508, 1, 34.4838, 50.3847, -11.3697, 93.813, -64.6961, 39.5194
0.512, 1, 34.4981, 50.3622, -11.3967, 93.8493, -64.5647, 39.5644
0.516, 1, 34.5123, 50.3397, -11.4237, 93.8855, -64.4336, 39.6094
0.52, 1, 34.5265, 50.3173, -11.4507, 93.9217, -64.3026, 39.6543
0.524, 1, 34.5408, 50.2949, -11.4776, 93.9578, -64.1719, 39.6991
0.528, 1, 34.5549, 50.2725, -11.5045, 93.9938, -64.0413, 39.7439
0.532, 1, 34.5691, 50.2501, -11.5313, 94.0298, -63.9109, 39.7886
0.536, 1, 34.5832, 50.2278, -11.5581, 94.0657, -63.7807, 39.8332
0.54, 1, 34.5974, 50.2056, -11.5848, 94.1016, -63.6507, 39.8777
0.544, 1, 34.6115, 50.1833, -11.6116, 94.1375, -63.5209, 39.9222
0.548, 1, 34.6255, 50.1611, -11.6382, 94.1732, -63.3913, 39.9667
0.552, 1, 34.6396, 50.1389, -11.6649, 94.209, -63.2619, 40.0111
0.556, 1, 34.6536, 50.1168, -11.6915, 94.2447, -63.1326, 40.0554
0.56, 1, 34.6677, 50.0947, -11.718, 94.2803, -63.0036, 40.0996
0.564, 1, 34.6817, 50.0726, -11.7446, 94.3159, -62.8747, 40.1438
0.568, 1, 34.6956, 50.0505, -11.7711, 94.3514, -62.746, 40.1879
0.572, 1, 34.7096, 50.0285, -11.7975, 94.3869, -62.6175, 40.2319
0.576, 1, 34.7235, 50.0065, -11.8239, 94.4223, -62.4892, 40.2759
0.58, 1, 34.7375, 49.9846, -11.8503, 94.4577, -62.361, 40.3199
0.584, 1, 34.7514, 49.9626, -11.8766, 94.493, -62.2331, 40.3637
0.588, 1, 34.7652, 49.9407, -11.9029, 94.5283, -62.1053, 40.4075
0.592, 1, 34.7791, 49.9189, -11.9292, 94.5635, -61.9777, 40.4513
0.596, 1, 34.7929, 49.897, -11.9554, 94.5987, -61.8503, 40.495
0.6, 1, 34.8068, 49.8752, -11.9816, 94.6338, -61.723, 40.5386
0.604, 1, 34.8206, 49.8535, -12.0078, 94.6689, -61.5959, 40.5821
0.608, 1, 34.8343, 49.8317, -12.0339, 94.7039, -61.4691, 40.6256
0.612, 1, 34.8481, 49.81, -12.0599, 94.7389, -61.3423, 40.6691
0.616, 1, 34.8618, 49.7883, -12.086, 94.7738, -61.2158, 40.7125
0.62, 1, 34.8756, 49.7667, -12.112, 94.8087, -61.0894, 40.7558
0.624, 1, 34.8893, 49.7451, -12.138, 94.8435, -60.9632, 40.799
0.628, 1, 34.903, 49.7235, -12.1639, 94.8783, -60.8372, 40.8422
0.632, 1, 34.9166, 49.7019, -12.1898, 94.9131, -60.7114, 40.8854
0.636, 1, 34.9303, 49.6804, -12.2157, 94.9478, -60.5857, 40.9284
0.64, 1, 34.9439, 49.6589, -12.2415, 94.9824, -60.4602, 40.9715
0.644, 1, 34.9575, 49.6374, -12.2673, 95.017, -60.3349, 41.0144
0.648, 1, 34.9711, 49.6159, -12.2931, 95.0516, -60.2097, 41.0573
0.652, 1, 34.9847, 49.5945, -12.3188, 95.0861, -60.0847, 41.1002
0.656, 1, 34.9983, 49.5731, -12.3445, 95.1205, -59.9599, 41.143
0.66, 1, 35.0118, 49.5518, -12.3701, 95.1549, -59.8352, 41.1857
0.664, 1, 35.0253, 49.5304, -12.3958, 95.1893, -59.7107, 41.2284
0.668, 1, 35.0388, 49.5091, -12.4214, 95.2236, -59.5864, 41.271
0.672, 1, 35.0523, 49.4879, -12.4469, 95.2579, -59.4622, 41.3136
0.676, 1, 35.0658, 49.4666, -12.4724, 95.2921, -59.3382, 41.3561
0.68, 1, 35.0792, 49.4454, -12.4979, 95.3263, -59.2144, 41.3985
0.684, 1, 35.0927, 49.4242, -12.5234, 95.3605, -59.0907, 41.4409
0.688, 1, 35.1061, 49.4031, -12.5488, 95.3946, -58.9672, 41.4833
0.692, 1, 35.1195, 49.3819, -12.5742, 95.4286, -58.8439, 41.5256
0.696, 1, 35.1329, 49.3608, -12.5995, 95.4626, -58.7207, 41.5678
0.7, 1, 35.1462, 49.3397, -12.6249, 95.4966, -58.5977, 41.61
0.704, 1, 35.1596, 49.3187, -12.6501, 95.5305, -58.4748, 41.6521
0.708, 1, 35.1729, 49.2977, -12.6754, 95.5644, -58.3521, 41.6941
0.712, 1, 35.1862, 49.2767, -12.7006, 95.5982, -58.2296, 41.7361
0.716, 1, 35.1995, 49.2557, -12.7258, 95.632, -58.1072, 41.7781
0.72, 1, 35.2128, 49.2347, -12.751, 95.6657, -57.985, 41.82
0.724, 1, 35.226, 49.2138, -12.7761, 95.6994, -57.8629, 41.8618
0.728, 1, 35.2393, 49.1929, -12.8012, 95.7331, -57.741, 41.9036
0.732, 1, 35.2525, 49.1721, -12.8262, 95.7667, -57.6192, 41.9454
0.736, 1, 35.2657, 49.1512, -12.8513, 95.8003, -57.4976, 41.9871
0.74, 1, 35.2789, 49.1304, -12.8763, 95.8338, -57.3762, 42.0287
0.744, 1, 35.2921, 49.1097, -12.9012, 95.8673, -57.2549, 42.0703
0.748, 1, 35.3052, 49.0889, -12.9262, 95.9007, -57.1338, 42.1118
0.752, 1, 35.3184, 49.0682, -12.9511, 95.9341, -57.0128, 42.1533
0.756, 1, 35.3315, 49.0475, -12.9759, 95.9675, -56.8919, 42.1947
0.76, 1, 35.3446, 49.0268, -13.0008, 96.0008, -56.7712, 42.2361
0.764, 1, 35.3577, 49.0061, -13.0256, 96.0341, -56.6507, 42.2774
0.768, 1, 35.3708, 48.9855, -13.0504, 96.0673, -56.5303, 42.3187
0.772, 1, 35.3838, 48.9649, -13.0751, 96.1005, -56.4101, 42.3599
0.776, 1, 35.3969, 48.9443, -13.0998, 96.1336, -56.29, 42.401
0.78, 1, 35.4099, 48.9238, -13.1245, 96.1667, -56.1701, 42.4422
0.784, 1, 35.4229, 48.9032, -13.1492, 96.1998, -56.0503, 42.4832
0.788, 1, 35.4359, 48.8827, -13.1738, 96.2328, -55.9307, 42.5242
0.792, 1, 35.4489, 48.8623, -13.1984, 96.2658, -55.8112, 42.5652
0.796, 1, 35.4619, 48.8418, -13.2229, 96.2988, -55.6918, 42.6061
0.8, 1, 35.4748, 48.8214, -13.2475, 96.3317, -55.5726, 42.647
0.804, 1, 35.4877, 48.801, -13.272, 96.3645, -55.4535, 42.6878
0.808, 1, 35.5006, 48.7806, -13.2965, 96.3974, -55.3346, 42.7285
0.812, 1, 35.5136, 48.7603, -13.3209, 96.4302, -55.2159, 42.7693
0.816, 1, 35.5264, 48.7399, -13.3453, 96.4629, -55.0972, 42.8099
0.82, 1, 35.5393, 48.7196, -13.3697, 96.4956, -54.9787, 42.8506
0.824, 1, 35.5522, 48.6994, -13.3941, 96.5283, -54.8604, 42.8911
0.828, 1, 35.565, 48.6791, -13.4184, 96.5609, -54.7422, 42.9316
0.832, 1, 35.5778, 48.6589, -13.4427, 96.5935, -54.6241, 42.9721
0.836, 1, 35.5906, 48.6387, -13.467, 96.6261, -54.5062, 43.0125
0.84, 1, 35.6034, 48.6185, -13.4912, 96.6586, -54.3884, 43.0529
0.844, 1, 35.6162, 48.5983, -13.5154, 96.6911, -54.2707, 43.0933
0.848, 1, 35.629, 48.5782, -13.5396, 96.7235, -54.1532, 43.1335
0.852, 1, 35.6417, 48.5581, -13.5638, 96.7559, -54.0358, 43.1738
0.856, 1, 35.6545, 48.538, -13.5879, 96.7883, -53.9186, 43.214
0.86, 1, 35.6672, 48.5179, -13.612, 96.8206, -53.8015, 43.2541
0.864, 1, 35.6799, 48.4979, -13.6361, 96.8529, -53.6845, 43.2942
0.868, 1, 35.6925, 48.4779, -13.6601, 96.8852, -53.5677, 43.3343
0.872, 1, 35.7051, 48.458, -13.6841, 96.9174, -53.451, 43.3743
0.876, 1, 35.7176, 48.4381, -13.7081, 96.9496, -53.3345, 43.4142
0.88, 1, 35.73, 48.4184, -13.7321, 96.9817, -53.2181, 43.4541
0.884, 1, 35.7419, 48.3992, -13.756, 97.0137, -53.102, 43.4939
0.888, 1, 35.7533, 48.3805, -13.7798, 97.0457, -52.9863, 43.5336
0.892, 1, 35.7641, 48.3627, -13.8035, 97.0775, -52.8712, 43.5731
0.896, 1, 35.7742, 48.3457, -13.8269, 97.109, -52.757, 43.6122
0.9, 1, 35.7836, 48.3297, -13.8501, 97.1401, -52.6444, 43.6508
0.904, 1, 35.7924, 48.3145, -13.8728, 97.1706, -52.534, 43.6887
0.908, 1, 35.8007, 48.3002, -13.895, 97.2003, -52.4264, 43.7256
0.912, 1, 35.8087, 48.2866, -13.9163, 97.229, -52.3226, 43.7613
0.916, 1, 35.8164, 48.2736, -13.9367, 97.2564, -52.2234, 43.7953
0.92, 1, 35.8238, 48.2613, -13.956, 97.2823, -52.1296, 43.8275
0.924, 1, 35.8309, 48.2497, -13.9741, 97.3065, -52.042, 43.8576
0.928, 1, 35.8377, 48.2387, -13.9907, 97.3288, -51.9612, 43.8853
0.932, 1, 35.8442, 48.2281, -14.0057, 97.3491, -51.888, 43.9104
0.936, 1, 35.8507, 48.2178, -14.0192, 97.3671, -51.8226, 43.9328
0.94, 1, 35.8571, 48.2077, -14.031, 97.3829, -51.7653, 43.9524
0.944, 1, 35.8634, 48.1979, -14.0412, 97.3966, -51.716, 43.9693
0.948, 1, 35.8695, 48.1884, -14.0498, 97.4081, -51.6743, 43.9836
0.952, 1, 35.8755, 48.1793, -14.0569, 97.4175, -51.6399, 43.9954
0.956, 2, 35.8812, 48.1708, -14.0626, 97.4252, -51.612, 44.0049
0.96, 2, 35.8865, 48.1631, -14.0672, 97.4313, -51.5899, 44.0124
0.964, 2, 35.8915, 48.1562, -14.0707, 97.436, -51.5728, 44.0183
0.968, 2, 35.896, 48.1502, -14.0734, 97.4396, -51.5598, 44.0227
0.972, 2, 35.9001, 48.145, -14.0754, 97.4422, -51.5503, 44.0259
0.976, 2, 35.9037, 48.1406, -14.0768, 97.4441, -51.5433, 44.0283
0.98, 2, 35.9067, 48.1371, -14.0778, 97.4454, -51.5385, 44.0299
0.984, 2, 35.9091, 48.1343, -14.0785, 97.4463, -51.5351, 44.0311
0.988, 2, 35.911, 48.1323, -14.079, 97.4469, -51.5327, 44.0319
0.992, 2, 35.9123, 48.1308, -14.0793, 97.4474, -51.5312, 44.0324
0.996, 2, 35.9132, 48.1299, -14.0796, 97.4477, -51.5301, 44.0328
1, 2, 35.9138, 48.1292, -14.0797, 97.4479, -51.5294, 44.033
1.004, 2, 35.9142, 48.1287, -14.0798, 97.448, -51.5289, 44.0332
1.008, 2, 35.9145, 48.1284, -14.0799, 97.4481, -51.5285, 44.0333
1.012, 2, 35.9147, 48.1282, -14.0799, 97.4482, -51.5283, 44.0334
1.016, 2, 35.9149, 48.1281, -14.08, 97.4482, -51.5282, 44.0334
1.02, 2, 35.9149, 48.128, -14.08, 97.4482, -51.5281, 44.0335
1.024, 2, 35.915, 48.1279, -14.08, 97.4482, -51.528, 44.0335
1.027, 2, 35.915, 48.1279, -14.08, 97.4483, -51.5279, 44.0335
1.032, 2, 35.9151, 48.1278, -14.08, 97.4483, -51.5279, 44.0335
1.036, 2, 35.9151, 48.1278, -14.08, 97.4483, -51.5279, 44.0335
1.04, 2, 35.9151, 48.1278, -14.08, 97.4483, -51.5279, 44.0335
1.044, 2, 35.9151, 48.1278, -14.08, 97.4483, -51.5279, 44.0335
1.048, 2, 35.9151, 48.1278, -14.08, 97.4483, -51.5279, 44.0335
1.052, 2, 35.9151, 48.1278, -14.08, 97.4483, -51.5279, 44.0335
1.055, 2, 35.9151, 48.1278, -14.08, 97.4483, -51.5278, 44.0335
1.06, 2, 35.9151, 48.1278, -14.08, 97.4483, -51.5278, 44.0335
1.064, 2, 35.9151, 48.1278, -14.08, 97.4483, -51.5278, 44.0335
1.068, 2, 35.9151, 48.1278, -14.08, 97.4483, -51.5278, 44.0335
1.072, 2, 35.9151, 48.1278, -14.08, 97.4483, -51.5278, 44.0335
1.076, 2, 35.9151, 48.1278, -14.08, 97.4483, -51.5278, 44.0335
1.08, 2, 35.9151, 48.1278, -14.08, 97.4483, -51.5278, 44.0335
1.084, 2, 35.9151, 48.1278, -14.08, 97.4483, -51.5278, 44.0335
1.088, 2, 35.9151, 48.1278, -14.08, 97.4483, -51.5278, 44.0335
1.091, 2, 35.9151, 48.1278, -14.08, 97.4483, -51.5278, 44.0335
1.096, 2, 35.9151, 48.1278, -14.08, 97.4483, -51.5278, 44.0335
1.1, 2, 35.9151, 48.1278, -14.08, 97.4483, -51.5278, 44.0335
1.104, 2, 35.9151, 48.1278, -14.08, 97.4483, -51.5278, 44.0335
1.108, 2, 35.9151, 48.1278, -14.08, 97.4483, -51.5278, 44.0335
1.112, 2, 35.9151, 48.1278, -14.08, 97.4483, -51.5278, 44.0335
1.116, 2, 35.9151, 48.1278, -14.08, 97.4483, -51.5278, 44.0335
1.119, 2, 35.9151, 48.1278, -14.08, 97.4483, -51.5278, 44.0335
1.124, 2, 35.9151, 48.1278, -14.08, 97.4483, -51.5278, 44.0335
1.128, 2, 35.9151, 48.1278, -14.08, 97.4483, -51.5278, 44.0335
1.132, 2, 35.9151, 48.1278, -14.08, 97.4483, -51.5278, 44.0335
1.136, 2, 35.9151, 48.1278, -14.08, 97.4483, -51.5278, 44.0335
1.14, 2, 35.9151, 48.1278, -14.08, 97.4483, -51.5278, 44.0335
1.144, 2, 35.9151, 48.1278, -14.08, 97.4483, -51.5278, 44.0335
1.147, 2, 35.9151, 48.1278, -14.08, 97.4483, -51.5278, 44.0335
1.152, 2, 35.9151, 48.1278, -14.08, 97.4483, -51.5278, 44.0335
1.156, 2, 35.9151, 48.1278, -14.08, 97.4483, -51.5278, 44.0335
1.16, 2, 35.9151, 48.1278, -14.08, 97.4483, -51.5278, 44.0335
1.164, 2, 35.9151, 48.1278, -14.08, 97.4483, -51.5278, 44.0335
1.168, 2, 35.9151, 48.1278, -14.08, 97.4483, -51.5278, 44.0335
1.172, 2, 35.9151, 48.1278, -14.08, 97.4483, -51.5278, 44.0335
1.175, 2, 35.9151, 48.1278, -14.08, 97.4483, -51.5278, 44.0335
1.18, 2, 35.9151, 48.1278, -14.08, 97.4483, -51.5278, 44.0335
1.184, 2, 35.9151, 48.1278, -14.08, 97.4483, -51.5278, 44.0335
1.188, 2, 35.9151, 48.1278, -14.08, 97.4483, -51.5278, 44.0335
1.192, 2, 35.9151, 48.1278, -14.08, 97.4483, -51.5278, 44.0335
1.196, 2, 35.9151, 48.1278, -14.08, 97.4483, -51.5278, 44.0335
1.2, 2, 35.9151, 48.1278, -14.08, 97.4483, -51.5278, 44.0335
1.204, 2, 35.9151, 48.1278, -14.08, 97.4483, -51.5278, 44.0335
1.208, 2, 35.9151, 48.1278, -14.08, 97.4483, -51.5278, 44.0335
1.212, 2, 35.9151, 48.1278, -14.08, 97.4483, -51.5278, 44.0335
1.216, 2, 35.9151, 48.1278, -14.08, 97.4483, -51.5278, 44.0335
1.22, 2, 35.9151, 48.1278, -14.08, 97.4483, -51.5278, 44.0335
1.224, 2, 35.9151, 48.1278, -14.08, 97.4483, -51.5278, 44.0335
1.228, 2, 35.9151, 48.1278, -14.08, 97.4483, -51.5278, 44.0335
1.232, 2, 35.9151, 48.1278, -14.08, 97.4483, -51.5278, 44.0335
1.236, 2, 35.9151, 48.1278, -14.08, 97.4483, -51.5278, 44.0335
1.24, 2, 35.9151, 48.1278, -14.08, 97.4483, -51.5278, 44.0335
1.244, 2, 35.9151, 48.1278, -14.08, 97.4483, -51.5278, 44.0335
1.248, 2, 35.9151, 48.1278, -14.08, 97.4483, -51.5278, 44.0335
1.252, 2, 35.9151, 48.1278, -14.08, 97.4483, -51.5278, 44.0335
1.256, 2, 35.9151, 48.1278, -14.08, 97.4483, -51.5278, 44.0335
1.26, 2, 35.9151, 48.1278, -14.08, 97.4483, -51.5278, 44.0335
1.264, 2, 35.9151, 48.1278, -14.08, 97.4483, -51.5278, 44.0335
1.267, 2, 35.9151, 48.1278, -14.08, 97.4483, -51.5278, 44.0335
1.272, 2, 35.9151, 48.1278, -14.08, 97.4483, -51.5278, 44.0335
1.276, 2, 35.9151, 48.1278, -14.08, 97.4483, -51.5278, 44.0335
1.28, 2, 35.9151, 48.1278, -14.08, 97.4483, -51.5278, 44.0335
1.284, 2, 35.9151, 48.1278, -14.08, 97.4483, -51.5278, 44.0335
1.288, 2, 35.9151, 48.1278, -14.08, 97.4483, -51.5278, 44.0335
1.292, 2, 35.9151, 48.1278, -14.08, 97.4483, -51.5278, 44.0335
1.295, 2, 35.9151, 48.1278, -14.08, 97.4483, -51.5278, 44.0335
1.3, 2, 35.9151, 48.1278, -14.08, 97.4483, -51.5278, 44.0335
1.304, 2, 35.9151, 48.1278, -14.08, 97.4483, -51.5278, 44.0335
1.308, 2, 35.9151, 48.1278, -14.08, 97.4483, -51.5278, 44.0335
1.312, 2, 35.9151, 48.1278, -14.08, 97.4483, -51.5278, 44.0335
1.316, 2, 35.9151, 48.1278, -14.08, 97.4483, -51.5278, 44.0335
1.32, 2, 35.9151, 48.1278, -14.08, 97.4483, -51.5278, 44.0335
1.324, 2, 35.9151, 48.1278, -14.08, 97.4483, -51.5278, 44.0335
1.328, 2, 35.9151, 48.1278, -14.08, 97.4483, -51.5278, 44.0335
1.332, 2, 35.9151, 48.1278, -14.08, 97.4483, -51.5278, 44.0335
1.336, 2, 35.9151, 48.1278, -14.08, 97.4483, -51.5278, 44.0335
1.34, 2, 35.9151, 48.1278, -14.08, 97.4483, -51.5278, 44.0335
1.344, 2, 35.9151, 48.1278, -14.08, 97.4483, -51.5278, 44.0335
1.348, 2, 35.9151, 48.1278, -14.08, 97.4483, -51.5278, 44.0335
1.352, 2, 35.9151, 48.1278, -14.08, 97.4483, -51.5278, 44.0335
1.356, 2, 35.9151, 48.1278, -14.08, 97.4483, -51.5278, 44.0335
1.36, 2, 35.9151, 48.1278, -14.08, 97.4483, -51.5278, 44.0335
1.364, 2, 35.9151, 48.1278, -14.08, 97.4483, -51.5278, 44.0335
1.368, 2, 35.9151, 48.1278, -14.08, 97.4483, -51.5278, 44.0335
1.372, 2, 35.9151, 48.1278, -14.08, 97.4483, -51.5278, 44.0335
1.376, 2, 35.9151, 48.1278, -14.08, 97.4483, -51.5278, 44.0335
1.38, 2, 35.9151, 48.1278, -14.08, 97.4483, -51.5278, 44.0335
1.384, 2, 35.9151, 48.1278, -14.08, 97.4483, -51.5278, 44.0335
1.388, 2, 35.9151, 48.1278, -14.08, 97.4483, -51.5278, 44.0335
1.392, 2, 35.9151, 48.1278, -14.08, 97.4483, -51.5278, 44.0335
1.396, 2, 35.9151, 48.1278, -14.08, 97.4483, -51.5278, 44.0335
1.4, 2, 35.9151, 48.1278, -14.08, 97.4483, -51.5278, 44.0335
1.404, 2, 35.9151, 48.1278, -14.08, 97.4483, -51.5278, 44.0335
1.408, 2, 35.9151, 48.1278, -14.08, 97.4483, -51.5278, 44.0335
1.412, 2, 35.9151, 48.1278, -14.08, 97.4483, -51.5278, 44.0335
1.416, 2, 35.9151, 48.1278, -14.08, 97.4483, -51.5278, 44.0335
1.42, 2, 35.9151, 48.1278, -14.08, 97.4483, -51.5278, 44.0335
1.424, 2, 35.9151, 48.1278, -14.08, 97.4483, -51.5278, 44.0335
1.428, 2, 35.9151, 48.1278, -14.08, 97.4483, -51.5278, 44.0335
1.432, 2, 35.9151, 48.1278, -14.08, 97.4483, -51.5278, 44.0335
1.436, 2, 35.9151, 48.1278, -14.08, 97.4483, -51.5278, 44.0335
1.44, 2, 35.9151, 48.1278, -14.08, 97.4483, -51.5278, 44.0335
1.444, 2, 35.9151, 48.1278, -14.08, 97.4483, -51.5278, 44.0335
1.448, 2, 35.9151, 48.1278, -14.08, 97.4483, -51.5278, 44.0335
1.452, 2, 35.9151, 48.1278, -14.08, 97.4483, -51.5278, 44.0335
1.456, 3, 35.9151, 48.1278, -14.08, 97.4483, -51.5278, 44.0335
1.46, 3, 35.9151, 48.1278, -14.08, 97.4483, -51.5278, 44.0335
1.464, 3, 35.9151, 48.1278, -14.08, 97.4483, -51.5278, 44.0335
1.468, 3, 35.9151, 48.1278, -14.08, 97.4483, -51.5278, 44.0335
1.472, 3, 35.9151, 48.1278, -14.08, 97.4483, -51.5278, 44.0335
1.476, 3, 35.9151, 48.1278, -14.08, 97.4483, -51.5278, 44.0335
1.48, 3, 35.9151, 48.1278, -14.08, 97.4483, -51.5278, 44.0335
1.484, 3, 35.9151, 48.1278, -14.08, 97.4483, -51.5278, 44.0335
1.488, 3, 35.9151, 48.1278, -14.08, 97.4483, -51.5278, 44.0335
1.492, 3, 35.9151, 48.1278, -14.08, 97.4483, -51.5278, 44.0335
1.496, 3, 35.9151, 48.1278, -14.08, 97.4483, -51.5278, 44.0335
1.5, 3, 35.9151, 48.1278, -14.08, 97.4483, -51.5278, 44.0335
1.504, 3, 35.9151, 48.1278, -14.08, 97.4483, -51.5278, 44.0335
1.508, 3, 35.9151, 48.1278, -14.08, 97.4483, -51.5278, 44.0335
1.512, 4, 35.9151, 48.1278, -14.08, 97.4483, -51.5278, 44.0335
1.516, 4, 35.9151, 48.1278, -14.08, 97.4483, -51.5278, 44.0335
1.52, 4, 35.9151, 48.1278, -14.08, 97.4483, -51.5278, 44.0335
1.524, 4, 35.9151, 48.1278, -14.08, 97.4483, -51.5278, 44.0335
1.528, 4, 35.9151, 48.1278, -14.08, 97.4483, -51.5278, 44.0335
1.532, 4, 35.9151, 48.1278, -14.08, 97.4483, -51.5278, 44.0335
1.536, 4, 35.9151, 48.1278, -14.08, 97.4483, -51.5278, 44.0335
1.54, 4, 35.9151, 48.1278, -14.08, 97.4483, -51.5278, 44.0335
1.544, 4, 35.9151, 48.1278, -14.08, 97.4483, -51.5278, 44.0335
1.548, 4, 35.9151, 48.1278, -14.08, 97.4483, -51.5278, 44.0335
1.552, 4, 35.9151, 48.128, -14.08, 97.4483, -51.5279, 44.0335
1.556, 4, 35.915, 48.1283, -14.0801, 97.4483, -51.5279, 44.0335
1.56, 4, 35.9147, 48.1291, -14.0801, 97.4483, -51.528, 44.0334
1.564, 4, 35.9143, 48.1303, -14.0802, 97.4483, -51.5284, 44.0332
1.568, 4, 35.9138, 48.1322, -14.0804, 97.4484, -51.5291, 44.0327
1.572, 4, 35.913, 48.1348, -14.0806, 97.4485, -51.5305, 44.0319
1.576, 4, 35.912, 48.1383, -14.0811, 97.4487, -51.5328, 44.0304
1.58, 4, 35.9108, 48.1427, -14.0818, 97.449, -51.5367, 44.0281
1.584, 4, 35.9094, 48.1483, -14.0827, 97.4495, -51.5424, 44.0245
1.588, 4, 35.9079, 48.1551, -14.0841, 97.4501, -51.5508, 44.0193
1.592, 4, 35.9061, 48.1634, -14.086, 97.451, -51.5626, 44.012
1.596, 4, 35.9042, 48.1733, -14.0884, 97.4522, -51.5784, 44.0023
1.6, 4, 35.9022, 48.185, -14.0916, 97.4537, -51.5992, 43.9894
1.604, 4, 35.9001, 48.1982, -14.0955, 97.4556, -51.6258, 43.973
1.608, 4, 35.898, 48.213, -14.1004, 97.458, -51.6591, 43.9525
1.612, 4, 35.8959, 48.2291, -14.1062, 97.4608, -51.6997, 43.9276
1.616, 4, 35.894, 48.2465, -14.1131, 97.4642, -51.7483, 43.8977
1.62, 4, 35.8921, 48.2653, -14.121, 97.468, -51.8051, 43.8629
1.624, 4, 35.8904, 48.2854, -14.13, 97.4723, -51.8704, 43.8229
1.628, 4, 35.8887, 48.307, -14.1401, 97.477, -51.9439, 43.7779
1.632, 4, 35.887, 48.3302, -14.1512, 97.4821, -52.0255, 43.728
1.636, 4, 35.8853, 48.355, -14.1632, 97.4876, -52.1147, 43.6737
1.64, 4, 35.8836, 48.3813, -14.1761, 97.4933, -52.2109, 43.6152
1.644, 4, 35.8819, 48.4089, -14.1897, 97.4993, -52.3133, 43.5529
1.648, 4, 35.8801, 48.4379, -14.204, 97.5053, -52.4212, 43.4875
1.652, 4, 35.8782, 48.4682, -14.2188, 97.5114, -52.5336, 43.4195
1.656, 4, 35.8762, 48.4999, -14.2339, 97.5175, -52.6498, 43.3493
1.66, 4, 35.8738, 48.533, -14.2494, 97.5235, -52.7689, 43.2776
1.664, 4, 35.8713, 48.5674, -14.265, 97.5294, -52.8902, 43.2047
1.668, 4, 35.8684, 48.603, -14.2807, 97.535, -53.0131, 43.1311
1.672, 4, 35.8652, 48.6396, -14.2965, 97.5405, -53.137, 43.057
1.676, 4, 35.8618, 48.6771, -14.3122, 97.5456, -53.2617, 42.9826
1.68, 4, 35.8582, 48.7151, -14.3278, 97.5505, -53.3869, 42.9082
1.684, 4, 35.8544, 48.7534, -14.3434, 97.5551, -53.5124, 42.8337
1.688, 4, 35.8505, 48.792, -14.3588, 97.5594, -53.6381, 42.7594
1.692, 4, 35.8465, 48.8307, -14.374, 97.5634, -53.7639, 42.6852
1.696, 4, 35.8424, 48.8694, -14.3892, 97.5671, -53.8897, 42.6111
1.7, 4, 35.8383, 48.9082, -14.4041, 97.5704, -54.0156, 42.5373
1.704, 4, 35.834, 48.9469, -14.4189, 97.5735, -54.1415, 42.4636
1.708, 4, 35.8297, 48.9855, -14.4335, 97.5763, -54.2674, 42.3901
1.712, 4, 35.8254, 49.0241, -14.4479, 97.5787, -54.3932, 42.3169
1.716, 4, 35.8209, 49.0627, -14.4622, 97.5809, -54.519, 42.2438
1.72, 4, 35.8165, 49.1011, -14.4763, 97.5827, -54.6447, 42.171
1.724, 4, 35.8119, 49.1395, -14.4902, 97.5843, -54.7704, 42.0984
1.728, 4, 35.8073, 49.1778, -14.5039, 97.5855, -54.8961, 42.026
1.732, 4, 35.8027, 49.216, -14.5174, 97.5864, -55.0217, 41.9539
1.736, 4, 35.7979, 49.254, -14.5308, 97.5871, -55.1473, 41.8819
1.74, 4, 35.7932, 49.2921, -14.544, 97.5874, -55.2728, 41.8102
1.744, 4, 35.7883, 49.33, -14.557, 97.5875, -55.3982, 41.7386
1.748, 4, 35.7835, 49.3678, -14.5698, 97.5872, -55.5236, 41.6673
1.752, 4, 35.7785, 49.4055, -14.5824, 97.5867, -55.649, 41.5962
1.756, 4, 35.7735, 49.4431, -14.5949, 97.5859, -55.7742, 41.5253
1.76, 4, 35.7685, 49.4806, -14.6072, 97.5848, -55.8995, 41.4545
1.764, 4, 35.7634, 49.5181, -14.6193, 97.5834, -56.0246, 41.384
1.768, 4, 35.7582, 49.5554, -14.6312, 97.5817, -56.1498, 41.3137
1.772, 4, 35.753, 49.5926, -14.6429, 97.5798, -56.2748, 41.2436
1.776, 4, 35.7477, 49.6298, -14.6545, 97.5775, -56.3998, 41.1737
1.78, 4, 35.7423, 49.6668, -14.6658, 97.575, -56.5248, 41.104
1.784, 4, 35.7369, 49.7038, -14.677, 97.5722, -56.6497, 41.0344
1.788, 4, 35.7315, 49.7406, -14.688, 97.5692, -56.7745, 40.9651
1.792, 4, 35.726, 49.7773, -14.6988, 97.5658, -56.8993, 40.896
1.796, 4, 35.7204, 49.814, -14.7095, 97.5622, -57.0241, 40.827
1.8, 4, 35.7148, 49.8505, -14.7199, 97.5583, -57.1487, 40.7582
1.804, 4, 35.7091, 49.887, -14.7302, 97.5542, -57.2734, 40.6896
1.808, 4, 35.7034, 49.9233, -14.7403, 97.5498, -57.3979, 40.6212
1.812, 4, 35.6976, 49.9596, -14.7502, 97.5451, -57.5224, 40.553
1.816, 4, 35.6918, 49.9957, -14.7599, 97.5402, -57.6469, 40.485
1.82, 4, 35.6859, 50.0317, -14.7694, 97.535, -57.7713, 40.4171
1.824, 4, 35.6799, 50.0677, -14.7788, 97.5295, -57.8956, 40.3494
1.828, 4, 35.6739, 50.1035, -14.7879, 97.5238, -58.0199, 40.2819
1.832, 4, 35.6679, 50.1393, -14.7969, 97.5178, -58.1441, 40.2145
1.836, 4, 35.6618, 50.1749, -14.8057, 97.5116, -58.2683, 40.1474
1.84, 4, 35.6556, 50.2104, -14.8143, 97.5051, -58.3924, 40.0804
1.844, 4, 35.6494, 50.2458, -14.8227, 97.4984, -58.5165, 40.0135
1.848, 4, 35.6431, 50.2812, -14.831, 97.4914, -58.6405, 39.9469
1.852, 4, 35.6367, 50.3164, -14.839, 97.4842, -58.7644, 39.8804
1.856, 4, 35.6304, 50.3515, -14.8469, 97.4767, -58.8883, 39.8141
1.86, 4, 35.6239, 50.3865, -14.8546, 97.4689, -59.0121, 39.7479
1.864, 4, 35.6174, 50.4214, -14.8621, 97.461, -59.1359, 39.6819
1.868, 4, 35.6109, 50.4562, -14.8694, 97.4527, -59.2596, 39.6161
1.872, 4, 35.6043, 50.4909, -14.8765, 97.4443, -59.3833, 39.5504
1.876, 4, 35.5976, 50.5255, -14.8834, 97.4356, -59.5069, 39.4849
1.88, 4, 35.5909, 50.56, -14.8902, 97.4266, -59.6304, 39.4195
1.884, 4, 35.5841, 50.5944, -14.8967, 97.4174, -59.7539, 39.3543
1.888, 4, 35.5773, 50.6287, -14.9031, 97.408, -59.8773, 39.2892
1.892, 4, 35.5704, 50.6628, -14.9093, 97.3983, -60.0007, 39.2243
1.896, 4, 35.5635, 50.6969, -14.9153, 97.3885, -60.124, 39.1596
1.9, 4, 35.5565, 50.7308, -14.9211, 97.3783, -60.2473, 39.095
1.904, 4, 35.5495, 50.7647, -14.9267, 97.368, -60.3705, 39.0305
1.908, 4, 35.5424, 50.7984, -14.9321, 97.3574, -60.4936, 38.9662
1.912, 4, 35.5353, 50.832, -14.9374, 97.3465, -60.6167, 38.902
1.916, 4, 35.5281, 50.8655, -14.9424, 97.3355, -60.7397, 38.838
1.92, 4, 35.5208, 50.899, -14.9473, 97.3242, -60.8627, 38.7741
1.924, 4, 35.5135, 50.9323, -14.9519, 97.3127, -60.9856, 38.7104
1.928, 4, 35.5062, 50.9654, -14.9564, 97.301, -61.1084, 38.6468
1.932, 4, 35.4988, 50.9985, -14.9607, 97.289, -61.2312, 38.5834
1.936, 4, 35.4913, 51.0315, -14.9648, 97.2768, -61.354, 38.5201
1.94, 4, 35.4838, 51.0643, -14.9687, 97.2645, -61.4766, 38.4569
1.944, 4, 35.4762, 51.0971, -14.9724, 97.2518, -61.5993, 38.3938
1.948, 4, 35.4686, 51.1297, -14.976, 97.239, -61.7218, 38.3309
1.952, 4, 35.461, 51.1623, -14.9793, 97.2259, -61.8443, 38.2682
1.956, 4, 35.4532, 51.1947, -14.9824, 97.2127, -61.9667, 38.2055
1.96, 4, 35.4455, 51.227, -14.9854, 97.1992, -62.0891, 38.143
1.964, 4, 35.4376, 51.2591, -14.9881, 97.1855, -62.2114, 38.0806
1.968, 4, 35.4298, 51.2912, -14.9907, 97.1715, -62.3337, 38.0184
1.972, 4, 35.4218, 51.3232, -14.9931, 97.1574, -62.4559, 37.9563
1.976, 4, 35.4139, 51.355, -14.9952, 97.1431, -62.578, 37.8943
1.98, 4, 35.4058, 51.3868, -14.9972, 97.1285, -62.7001, 37.8324
1.984, 4, 35.3977, 51.4184, -14.999, 97.1138, -62.8221, 37.7707
1.988, 4, 35.3896, 51.4499, -15.0006, 97.0988, -62.9441, 37.709
1.992, 4, 35.3814, 51.4813, -15.002, 97.0836, -63.066, 37.6475
1.996, 4, 35.3732, 51.5125, -15.0032, 97.0682, -63.1878, 37.5862
1.999, 4, 35.3649, 51.5437, -15.0042, 97.0526, -63.3096, 37.5249
2.004, 4, 35.3565, 51.5747, -15.0051, 97.0368, -63.4313, 37.4638
2.008, 4, 35.3481, 51.6057, -15.0057, 97.0208, -63.553, 37.4027
2.012, 4, 35.3397, 51.6365, -15.0061, 97.0046, -63.6746, 37.3418
2.015, 4, 35.3312, 51.6672, -15.0063, 96.9882, -63.7961, 37.2811
2.019, 4, 35.3226, 51.6978, -15.0064, 96.9716, -63.9176, 37.2204
2.024, 4, 35.314, 51.7282, -15.0062, 96.9548, -64.039, 37.1598
2.028, 4, 35.3053, 51.7586, -15.0058, 96.9378, -64.1604, 37.0994
2.031, 4, 35.2966, 51.7888, -15.0053, 96.9206, -64.2817, 37.039
2.036, 4, 35.2879, 51.8189, -15.0045, 96.9032, -64.4029, 36.9788
2.04, 4, 35.2791, 51.8489, -15.0036, 96.8857, -64.5241, 36.9187
2.044, 4, 35.2702, 51.8787, -15.0024, 96.8679, -64.6452, 36.8587
2.048, 4, 35.2613, 51.9085, -15.0011, 96.8499, -64.7663, 36.7988
2.051, 4, 35.2523, 51.9381, -14.9995, 96.8317, -64.8872, 36.739
2.055, 4, 35.2433, 51.9676, -14.9978, 96.8134, -65.0082, 36.6793
2.06, 4, 35.2342, 51.997, -14.9958, 96.7948, -65.129, 36.6197
2.064, 4, 35.2251, 52.0263, -14.9937, 96.7761, -65.2498, 36.5602
2.068, 4, 35.2159, 52.0554, -14.9913, 96.7571, -65.3706, 36.5008
2.071, 4, 35.2067, 52.0844, -14.9888, 96.738, -65.4912, 36.4415
2.076, 4, 35.1974, 52.1133, -14.986, 96.7187, -65.6119, 36.3824
2.08, 4, 35.1881, 52.1421, -14.9831, 96.6992, -65.7324, 36.3233
2.084, 4, 35.1787, 52.1707, -14.9799, 96.6796, -65.8529, 36.2643
2.087, 4, 35.1693, 52.1993, -14.9766, 96.6597, -65.9733, 36.2054
2.092, 4, 35.1598, 52.2277, -14.973, 96.6396, -66.0937, 36.1466
2.096, 4, 35.1502, 52.256, -14.9692, 96.6194, -66.214, 36.0879
2.1, 4, 35.1407, 52.2841, -14.9653, 96.599, -66.3343, 36.0293
2.104, 4, 35.131, 52.3122, -14.9611, 96.5784, -66.4544, 35.9708
2.107, 4, 35.1213, 52.3401, -14.9567, 96.5576, -66.5745, 35.9124
2.111, 4, 35.1116, 52.3679, -14.9522, 96.5367, -66.6946, 35.8541
2.116, 4, 35.1018, 52.3955, -14.9474, 96.5155, -66.8146, 35.7958
2.12, 4, 35.092, 52.4231, -14.9424, 96.4942, -66.9345, 35.7377
2.124, 4, 35.0821, 52.4505, -14.9372, 96.4728, -67.0544, 35.6796
2.127, 4, 35.0722, 52.4778, -14.9319, 96.4511, -67.1742, 35.6217
2.132, 4, 35.0622, 52.505, -14.9263, 96.4292, -67.294, 35.5638
2.136, 4, 35.0522, 52.532, -14.9205, 96.4072, -67.4137, 35.506
2.14, 4, 35.0421, 52.5589, -14.9145, 96.385, -67.5333, 35.4483
2.143, 4, 35.0319, 52.5857, -14.9083, 96.3627, -67.6529, 35.3906
2.148, 4, 35.0218, 52.6124, -14.9019, 96.3402, -67.7724, 35.3331
2.152, 4, 35.0115, 52.6389, -14.8953, 96.3175, -67.8918, 35.2756
2.156, 4, 35.0012, 52.6653, -14.8886, 96.2946, -68.0112, 35.2182
2.16, 4, 34.9909, 52.6916, -14.8816, 96.2715, -68.1305, 35.1609
2.163, 4, 34.9805, 52.7178, -14.8744, 96.2483, -68.2498, 35.1037
2.168, 4, 34.9701, 52.7438, -14.867, 96.2249, -68.369, 35.0465
2.172, 4, 34.9596, 52.7697, -14.8594, 96.2014, -68.4882, 34.9895
2.176, 4, 34.9491, 52.7955, -14.8516, 96.1777, -68.6073, 34.9325
2.179, 4, 34.9385, 52.8211, -14.8436, 96.1538, -68.7263, 34.8755
2.184, 4, 34.9279, 52.8467, -14.8354, 96.1298, -68.8453, 34.8187
2.188, 4, 34.9172, 52.8721, -14.827, 96.1055, -68.9642, 34.7619
2.192, 4, 34.9065, 52.8973, -14.8184, 96.0812, -69.0831, 34.7052
2.196, 4, 34.8957, 52.9225, -14.8096, 96.0566, -69.2019, 34.6486
2.199, 4, 34.8849, 52.9475, -14.8006, 96.0319, -69.3207, 34.592
2.204, 4, 34.874, 52.9724, -14.7913, 96.0071, -69.4394, 34.5355
2.208, 4, 34.8631, 52.9972, -14.7819, 95.982, -69.558, 34.4791
2.212, 4, 34.8521, 53.0218, -14.7723, 95.9568, -69.6766, 34.4227
2.216, 4, 34.8411, 53.0463, -14.7625, 95.9315, -69.7951, 34.3665
2.219, 4, 34.83, 53.0707, -14.7525, 95.906, -69.9135, 34.3102
2.224, 4, 34.8189, 53.0949, -14.7423, 95.8803, -70.0319, 34.2541
2.228, 4, 34.8077, 53.119, -14.7319, 95.8545, -70.1503, 34.198
2.232, 4, 34.7965, 53.143, -14.7213, 95.8286, -70.2685, 34.142
2.235, 4, 34.7852, 53.1669, -14.7104, 95.8024, -70.3868, 34.086
2.24, 4, 34.7739, 53.1906, -14.6994, 95.7761, -70.5049, 34.0301
2.244, 4, 34.7626, 53.2142, -14.6882, 95.7497, -70.623, 33.9742
2.248, 4, 34.7512, 53.2377, -14.6768, 95.7231, -70.7411, 33.9185
2.252, 4, 34.7397, 53.261, -14.6651, 95.6964, -70.8591, 33.8627
2.255, 4, 34.7282, 53.2842, -14.6533, 95.6695, -70.977, 33.8071
2.259, 4, 34.7167, 53.3073, -14.6413, 95.6424, -71.0949, 33.7515
2.264, 4, 34.7051, 53.3302, -14.629, 95.6152, -71.2127, 33.6959
2.268, 4, 34.6934, 53.353, -14.6166, 95.5878, -71.3305, 33.6404
2.272, 4, 34.6818, 53.3757, -14.604, 95.5603, -71.4482, 33.585
2.275, 4, 34.67, 53.3982, -14.5911, 95.5327, -71.5658, 33.5296
2.28, 4, 34.6582, 53.4206, -14.5781, 95.5049, -71.6834, 33.4743
2.284, 4, 34.6465, 53.4429, -14.5648, 95.4769, -71.8009, 33.419
2.288, 4, 34.6348, 53.4649, -14.5514, 95.4488, -71.9184, 33.3638
2.291, 4, 34.6233, 53.4866, -14.5377, 95.4206, -72.0357, 33.3087
2.296, 4, 34.6122, 53.5078, -14.5238, 95.3922, -72.1529, 33.2537
2.3, 4, 34.6016, 53.5282, -14.5098, 95.3638, -72.2698, 33.1988
2.304, 4, 34.5915, 53.5478, -14.4956, 95.3353, -72.3862, 33.1442
2.308, 4, 34.5819, 53.5664, -14.4813, 95.3069, -72.5017, 33.09
2.311, 4, 34.5728, 53.584, -14.467, 95.2786, -72.6159, 33.0364
2.316, 4, 34.5641, 53.6006, -14.4526, 95.2507, -72.7284, 32.9837
2.32, 4, 34.5557, 53.6163, -14.4384, 95.2233, -72.8385, 32.9321
2.324, 4, 34.5477, 53.6312, -14.4245, 95.1965, -72.9454, 32.882
2.328, 4, 34.5399, 53.6453, -14.4109, 95.1705, -73.0485, 32.8337
2.331, 4, 34.5325, 53.6587, -14.3978, 95.1457, -73.1469, 32.7875
2.336, 4, 34.5254, 53.6714, -14.3853, 95.1221, -73.2399, 32.744
2.34, 4, 34.5185, 53.6835, -14.3736, 95.1, -73.3268, 32.7033
2.344, 4, 34.5119, 53.6951, -14.3627, 95.0796, -73.4068, 32.6659
2.347, 4, 34.5055, 53.7063, -14.3527, 95.0611, -73.4795, 32.6319
2.352, 4, 34.4991, 53.7171, -14.3438, 95.0444, -73.5444, 32.6015
2.356, 4, 34.4928, 53.7276, -14.336, 95.0297, -73.6016, 32.5747
2.36, 4, 34.4867, 53.7376, -14.3292, 95.017, -73.651, 32.5516
2.364, 4, 34.4808, 53.7473, -14.3235, 95.0062, -73.693, 32.532
2.367, 4, 34.4752, 53.7565, -14.3187, 94.9972, -73.728, 32.5156
2.372, 4, 34.4699, 53.7652, -14.3149, 94.9898, -73.7565, 32.5023
2.376, 5, 34.4649, 53.7734, -14.3118, 94.9839, -73.7794, 32.4916
2.38, 5, 34.4602, 53.781, -14.3094, 94.9793, -73.7972, 32.4833
2.383, 5, 34.4557, 53.7879, -14.3077, 94.9758, -73.8107, 32.477
2.388, 5, 34.4517, 53.794, -14.3064, 94.9732, -73.8208, 32.4723
2.392, 5, 34.4481, 53.7991, -14.3055, 94.9713, -73.8281, 32.4689
2.396, 5, 34.445, 53.8032, -14.3048, 94.97, -73.8333, 32.4665
2.4, 5, 34.4424, 53.8064, -14.3044, 94.969, -73.8369, 32.4648
2.403, 5, 34.4405, 53.8087, -14.3041, 94.9684, -73.8393, 32.4637
2.408, 5, 34.4391, 53.8103, -14.3039, 94.968, -73.841, 32.4629
2.412, 5, 34.438, 53.8115, -14.3038, 94.9677, -73.8422, 32.4624
2.416, 5, 34.4371, 53.8123, -14.3037, 94.9675, -73.8429, 32.462
2.42, 5, 34.4361, 53.8129, -14.3035, 94.9673, -73.8435, 32.4618
2.423, 5, 34.4348, 53.8135, -14.3033, 94.9671, -73.844, 32.4617
2.428, 5, 34.4329, 53.8142, -14.3028, 94.9668, -73.8445, 32.4617
2.432, 5, 34.4304, 53.8149, -14.3019, 94.9661, -73.8452, 32.4619
2.436, 5, 34.4273, 53.8157, -14.3005, 94.965, -73.8464, 32.4624
2.439, 5, 34.4236, 53.8166, -14.2981, 94.9632, -73.8483, 32.4633
2.444, 5, 34.4194, 53.8174, -14.2944, 94.9602, -73.8513, 32.4647
2.448, 5, 34.4147, 53.8182, -14.2891, 94.9557, -73.8556, 32.4669
2.452, 5, 34.4096, 53.8186, -14.2817, 94.9494, -73.8618, 32.47
2.456, 5, 34.4039, 53.8188, -14.2716, 94.9407, -73.8701, 32.4743
2.459, 5, 34.3976, 53.8184, -14.2586, 94.9293, -73.8811, 32.4799
2.464, 5, 34.3907, 53.8175, -14.242, 94.9146, -73.8952, 32.4872
2.468, 5, 34.3833, 53.8159, -14.2215, 94.8963, -73.9127, 32.4962
2.472, 5, 34.3754, 53.8133, -14.1967, 94.8741, -73.9339, 32.5071
2.476, 5, 34.367, 53.8097, -14.1674, 94.8476, -73.9592, 32.5202
2.479, 5, 34.3584, 53.8051, -14.1333, 94.8168, -73.9886, 32.5353
2.484, 5, 34.3493, 53.7993, -14.0945, 94.7815, -74.0223, 32.5527
2.488, 5, 34.3399, 53.7925, -14.051, 94.742, -74.06, 32.5721
2.492, 5, 34.33, 53.7848, -14.0029, 94.6982, -74.1017, 32.5935
2.495, 5, 34.3194, 53.7762, -13.9507, 94.6507, -74.1471, 32.6168
2.5, 5, 34.3083, 53.7669, -13.8946, 94.5996, -74.1958, 32.6417
2.504, 5, 34.2965, 53.757, -13.835, 94.5455, -74.2476, 32.6681
2.508, 5, 34.2841, 53.7467, -13.7724, 94.4887, -74.3019, 32.6958
2.512, 5, 34.2712, 53.736, -13.7072, 94.4296, -74.3584, 32.7245
2.515, 5, 34.2577, 53.725, -13.6398, 94.3687, -74.4168, 32.754
2.52, 5, 34.2436, 53.7138, -13.5707, 94.3063, -74.4766, 32.7841
2.524, 5, 34.2288, 53.7026, -13.5003, 94.2428, -74.5375, 32.8148
2.528, 5, 34.2133, 53.6914, -13.4287, 94.1784, -74.5993, 32.8457
2.531, 5, 34.1971, 53.6802, -13.3564, 94.1135, -74.6617, 32.8768
2.536, 5, 34.1803, 53.669, -13.2835, 94.0482, -74.7245, 32.9081
2.54, 5, 34.163, 53.6578, -13.2101, 93.9827, -74.7877, 32.9393
2.544, 5, 34.1454, 53.6466, -13.1364, 93.9169, -74.851, 32.9706
2.548, 5, 34.1274, 53.6353, -13.0625, 93.8511, -74.9146, 33.0018
2.551, 5, 34.1093, 53.624, -12.9884, 93.7852, -74.9782, 33.033
2.556, 5, 34.091, 53.6126, -12.9141, 93.7193, -75.0419, 33.064
2.56, 5, 34.0726, 53.6012, -12.8398, 93.6534, -75.1057, 33.095
2.564, 5, 34.0541, 53.5896, -12.7653, 93.5875, -75.1696, 33.1259
2.568, 5, 34.0356, 53.578, -12.6907, 93.5216, -75.2335, 33.1566
2.571, 5, 34.017, 53.5663, -12.6161, 93.4557, -75.2974, 33.1873
2.576, 5, 33.9983, 53.5546, -12.5414, 93.3898, -75.3614, 33.2179
2.58, 5, 33.9796, 53.5427, -12.4666, 93.324, -75.4254, 33.2483
2.584, 5, 33.9609, 53.5308, -12.3917, 93.2581, -75.4894, 33.2787
2.587, 5, 33.9421, 53.5187, -12.3168, 93.1924, -75.5535, 33.3089
2.592, 5, 33.9232, 53.5066, -12.2417, 93.1266, -75.6175, 33.339
2.596, 5, 33.9044, 53.4944, -12.1667, 93.0609, -75.6817, 33.369
2.6, 5, 33.8855, 53.4821, -12.0915, 92.9952, -75.7458, 33.3989
2.604, 5, 33.8666, 53.4697, -12.0163, 92.9295, -75.81, 33.4287
2.607, 5, 33.8476, 53.4572, -11.941, 92.8639, -75.8741, 33.4583
2.612, 5, 33.8286, 53.4447, -11.8657, 92.7983, -75.9384, 33.4879
2.616, 5, 33.8095, 53.432, -11.7903, 92.7327, -76.0026, 33.5173
2.62, 5, 33.7905, 53.4193, -11.7148, 92.6672, -76.0669, 33.5466
2.624, 5, 33.7713, 53.4064, -11.6393, 92.6017, -76.1312, 33.5758
2.627, 5, 33.7522, 53.3935, -11.5637, 92.5362, -76.1955, 33.6049
2.632, 5, 33.733, 53.3805, -11.4881, 92.4707, -76.2598, 33.6339
2.636, 5, 33.7138, 53.3674, -11.4123, 92.4053, -76.3242, 33.6627
2.64, 5, 33.6945, 53.3543, -11.3366, 92.3399, -76.3886, 33.6915
2.643, 5, 33.6753, 53.341, -11.2607, 92.2746, -76.453, 33.7201
2.648, 5, 33.6559, 53.3276, -11.1848, 92.2092, -76.5174, 33.7486
2.652, 5, 33.6366, 53.3142, -11.1089, 92.1439, -76.5819, 33.777
2.656, 5, 33.6172, 53.3007, -11.0328, 92.0787, -76.6464, 33.8052
2.66, 5, 33.5978, 53.287, -10.9567, 92.0134, -76.7109, 33.8334
2.663, 5, 33.5783, 53.2733, -10.8806, 91.9482, -76.7754, 33.8614
2.668, 5, 33.5588, 53.2595, -10.8044, 91.883, -76.84, 33.8893
2.672, 5, 33.5393, 53.2457, -10.7281, 91.8178, -76.9045, 33.9171
2.676, 5, 33.5197, 53.2317, -10.6518, 91.7527, -76.9691, 33.9448
2.679, 5, 33.5001, 53.2176, -10.5754, 91.6876, -77.0338, 33.9724
2.684, 5, 33.4805, 53.2035, -10.4989, 91.6225, -77.0984, 33.9998
2.688, 5, 33.4608, 53.1893, -10.4224, 91.5575, -77.1631, 34.0271
2.692, 5, 33.4411, 53.1749, -10.3459, 91.4924, -77.2278, 34.0544
2.696, 5, 33.4214, 53.1605, -10.2692, 91.4274, -77.2925, 34.0814
2.699, 5, 33.4016, 53.146, -10.1926, 91.3625, -77.3573, 34.1084
2.704, 5, 33.3819, 53.1314, -10.1158, 91.2975, -77.422, 34.1353
2.708, 5, 33.3621, 53.1168, -10.039, 91.2326, -77.4868, 34.162
2.712, 5, 33.3424, 53.102, -9.9622, 91.1677, -77.5516, 34.1886
2.716, 5, 33.3228, 53.0871, -9.88534, 91.1029, -77.6164, 34.2151
2.719, 5, 33.3033, 53.0722, -9.80846, 91.0381, -77.6812, 34.2414
2.724, 5, 33.284, 53.0571, -9.73159, 90.9734, -77.746, 34.2677
2.728, 5, 33.2649, 53.042, -9.65479, 90.9088, -77.8107, 34.2937
2.732, 5, 33.2462, 53.0267, -9.57812, 90.8443, -77.8753, 34.3196
2.735, 5, 33.2279, 53.0114, -9.50171, 90.7801, -77.9397, 34.3453
2.74, 5, 33.2101, 52.9959, -9.42572, 90.7162, -78.0037, 34.3708
2.744, 5, 33.193, 52.9804, -9.35039, 90.6529, -78.0673, 34.3959
2.748, 5, 33.1766, 52.965, -9.276, 90.5904, -78.1301, 34.4206
2.752, 5, 33.1608, 52.9496, -9.20291, 90.5289, -78.1918, 34.4448
2.755, 5, 33.1455, 52.9344, -9.13154, 90.4689, -78.2521, 34.4684
2.76, 5, 33.1308, 52.9197, -9.06231, 90.4108, -78.3105, 34.4911
2.764, 5, 33.1165, 52.9054, -8.99571, 90.3548, -78.3668, 34.513
2.768, 5, 33.1028, 52.8918, -8.93219, 90.3015, -78.4204, 34.5337
2.772, 5, 33.0897, 52.879, -8.8722, 90.2512, -78.4711, 34.5532
2.775, 5, 33.0773, 52.867, -8.81615, 90.2043, -78.5183, 34.5713
2.78, 5, 33.0656, 52.8559, -8.76441, 90.161, -78.562, 34.588
2.784, 5, 33.0545, 52.846, -8.71724, 90.1216, -78.6017, 34.6032
2.788, 5, 33.0439, 52.8372, -8.67482, 90.0863, -78.6373, 34.6167
2.791, 5, 33.0338, 52.8296, -8.63724, 90.0551, -78.6688, 34.6286
2.796, 5, 33.0242, 52.8232, -8.60443, 90.0281, -78.6961, 34.639
2.8, 5, 33.0151, 52.8179, -8.57625, 90.005, -78.7195, 34.6478
2.804, 5, 33.0066, 52.8137, -8.55244, 89.9856, -78.7392, 34.6552
2.808, 5, 32.9988, 52.8103, -8.53266, 89.9696, -78.7555, 34.6612
