hehonglu123/ABB_Primitive_Study/execution/movec/curve_exe_v50_fine.csv
timestamp, cmd_num, J1, J2, J3, J4, J5, J6
0, 1, 32.9528, 52.8019, -8.46502, 89.9168, -78.8096, 34.6812
0.002, 1, 32.9528, 52.8019, -8.46502, 89.9168, -78.8096, 34.6812
0.004, 1, 32.9528, 52.8019, -8.46502, 89.9168, -78.8096, 34.6812
0.008, 1, 32.9528, 52.8019, -8.46502, 89.9168, -78.8096, 34.6812
0.011, 1, 32.9528, 52.8019, -8.46502, 89.9168, -78.8096, 34.6812
0.016, 1, 32.9528, 52.8019, -8.46502, 89.9168, -78.8096, 34.6812
0.02, 1, 32.9528, 52.8019, -8.46502, 89.9168, -78.8096, 34.6812
0.024, 1, 32.9528, 52.8019, -8.46502, 89.9168, -78.8096, 34.6812
0.028, 1, 32.9528, 52.8019, -8.46502, 89.9168, -78.8096, 34.6812
0.032, 1, 32.9528, 52.8019, -8.46502, 89.9168, -78.8096, 34.6812
0.036, 1, 32.9528, 52.8019, -8.46502, 89.9168, -78.8096, 34.6812
0.04, 1, 32.9529, 52.8019, -8.46502, 89.9168, -78.8096, 34.6812
0.044, 1, 32.9531, 52.8018, -8.46503, 89.9168, -78.8095, 34.6812
0.048, 1, 32.9535, 52.8014, -8.46504, 89.9169, -78.8095, 34.6812
0.052, 1, 32.9543, 52.8006, -8.46509, 89.9169, -78.8093, 34.6813
0.056, 1, 32.9556, 52.7993, -8.46521, 89.917, -78.8088, 34.6815
0.06, 1, 32.9574, 52.7971, -8.46543, 89.9173, -78.8079, 34.6818
0.064, 1, 32.9597, 52.794, -8.46584, 89.9178, -78.8061, 34.6824
0.068, 1, 32.9625, 52.7899, -8.46653, 89.9186, -78.803, 34.6835
0.072, 1, 32.9659, 52.7849, -8.46761, 89.92, -78.798, 34.6852
0.076, 1, 32.9697, 52.7789, -8.46923, 89.922, -78.7905, 34.6877
0.08, 1, 32.9741, 52.7719, -8.47155, 89.925, -78.7796, 34.6915
0.084, 1, 32.9791, 52.7639, -8.47475, 89.9292, -78.7644, 34.6967
0.088, 1, 32.9847, 52.7549, -8.47904, 89.9348, -78.744, 34.7037
0.092, 1, 32.991, 52.7451, -8.48461, 89.9421, -78.7174, 34.7128
0.096, 1, 32.9978, 52.7344, -8.49169, 89.9515, -78.6834, 34.7244
0.1, 1, 33.005, 52.7231, -8.50046, 89.9631, -78.6411, 34.7389
0.104, 1, 33.0126, 52.7112, -8.51109, 89.9773, -78.5897, 34.7566
0.108, 1, 33.0204, 52.699, -8.5237, 89.9942, -78.5285, 34.7775
0.112, 1, 33.0284, 52.6863, -8.53837, 90.0139, -78.4572, 34.802
0.116, 1, 33.0368, 52.673, -8.55512, 90.0364, -78.3757, 34.8299
0.12, 1, 33.0455, 52.6592, -8.57391, 90.0617, -78.2841, 34.8613
0.124, 1, 33.0546, 52.6447, -8.59467, 90.0896, -78.183, 34.896
0.128, 1, 33.0642, 52.6296, -8.61726, 90.12, -78.0728, 34.9337
0.131, 1, 33.0741, 52.6139, -8.64153, 90.1527, -77.9545, 34.9743
0.136, 1, 33.0844, 52.5977, -8.6673, 90.1875, -77.8288, 35.0174
0.139, 1, 33.0949, 52.5809, -8.69437, 90.2239, -77.6968, 35.0627
0.144, 1, 33.1058, 52.5633, -8.72251, 90.2618, -77.5596, 35.1097
0.148, 1, 33.1172, 52.5447, -8.75152, 90.3009, -77.4182, 35.1582
0.152, 1, 33.1293, 52.525, -8.7812, 90.3408, -77.2736, 35.2077
0.156, 1, 33.1421, 52.5041, -8.81138, 90.3814, -77.1267, 35.2581
0.16, 1, 33.1556, 52.4819, -8.8419, 90.4224, -76.9782, 35.309
0.164, 1, 33.17, 52.4586, -8.87265, 90.4637, -76.8286, 35.3603
0.168, 1, 33.1849, 52.4345, -8.90354, 90.5052, -76.6784, 35.4118
0.172, 1, 33.2004, 52.4098, -8.9345, 90.5467, -76.5279, 35.4634
0.176, 1, 33.2161, 52.3847, -8.9655, 90.5883, -76.3772, 35.515
0.18, 1, 33.2321, 52.3594, -8.9965, 90.6299, -76.2265, 35.5667
0.184, 1, 33.2481, 52.334, -9.02748, 90.6715, -76.076, 35.6183
0.188, 1, 33.2643, 52.3084, -9.05844, 90.713, -75.9256, 35.6699
0.192, 1, 33.2805, 52.2828, -9.08935, 90.7545, -75.7754, 35.7214
0.196, 1, 33.2967, 52.2573, -9.12022, 90.7959, -75.6254, 35.7728
0.2, 1, 33.3129, 52.2317, -9.15103, 90.8372, -75.4757, 35.8241
0.204, 1, 33.3291, 52.2061, -9.1818, 90.8785, -75.3262, 35.8753
0.208, 1, 33.3453, 52.1806, -9.21251, 90.9197, -75.177, 35.9265
0.212, 1, 33.3614, 52.1551, -9.24316, 90.9608, -75.028, 35.9775
0.216, 1, 33.3776, 52.1296, -9.27376, 91.0018, -74.8794, 36.0285
0.22, 1, 33.3937, 52.1042, -9.3043, 91.0428, -74.731, 36.0794
0.224, 1, 33.4098, 52.0788, -9.33479, 91.0837, -74.5829, 36.1302
0.228, 1, 33.4258, 52.0535, -9.36522, 91.1245, -74.435, 36.1808
0.232, 1, 33.4419, 52.0282, -9.3956, 91.1652, -74.2874, 36.2314
0.236, 1, 33.4579, 52.003, -9.42592, 91.2059, -74.1401, 36.2819
0.24, 1, 33.4738, 51.9778, -9.45618, 91.2465, -73.9931, 36.3323
0.244, 1, 33.4898, 51.9526, -9.48639, 91.287, -73.8463, 36.3826
0.248, 1, 33.5057, 51.9275, -9.51654, 91.3275, -73.6998, 36.4329
0.252, 1, 33.5216, 51.9025, -9.54664, 91.3678, -73.5536, 36.483
0.256, 1, 33.5374, 51.8774, -9.57668, 91.4081, -73.4076, 36.533
0.26, 1, 33.5533, 51.8525, -9.60667, 91.4483, -73.2619, 36.583
0.264, 1, 33.5691, 51.8276, -9.6366, 91.4885, -73.1165, 36.6328
0.268, 1, 33.5848, 51.8027, -9.66649, 91.5286, -72.9713, 36.6826
0.272, 1, 33.6006, 51.7778, -9.69631, 91.5686, -72.8264, 36.7323
0.276, 1, 33.6163, 51.7531, -9.72609, 91.6085, -72.6817, 36.7819
0.28, 1, 33.632, 51.7283, -9.75581, 91.6484, -72.5373, 36.8314
0.284, 1, 33.6476, 51.7036, -9.78547, 91.6882, -72.3932, 36.8808
0.288, 1, 33.6633, 51.679, -9.81509, 91.7279, -72.2493, 36.9301
0.292, 1, 33.6789, 51.6544, -9.84465, 91.7675, -72.1057, 36.9794
0.296, 1, 33.6945, 51.6298, -9.87416, 91.8071, -71.9623, 37.0285
0.3, 1, 33.71, 51.6053, -9.90362, 91.8466, -71.8191, 37.0776
0.304, 1, 33.7255, 51.5808, -9.93303, 91.8861, -71.6763, 37.1265
0.308, 1, 33.741, 51.5563, -9.96238, 91.9255, -71.5336, 37.1754
0.312, 1, 33.7565, 51.5319, -9.99169, 91.9648, -71.3913, 37.2243
0.316, 1, 33.7719, 51.5076, -10.0209, 92.004, -71.2491, 37.273
0.32, 1, 33.7873, 51.4833, -10.0501, 92.0432, -71.1073, 37.3216
0.324, 1, 33.8027, 51.459, -10.0793, 92.0823, -70.9656, 37.3702
0.328, 1, 33.8181, 51.4348, -10.1084, 92.1213, -70.8242, 37.4186
0.332, 1, 33.8334, 51.4106, -10.1374, 92.1603, -70.6831, 37.467
0.336, 1, 33.8487, 51.3864, -10.1665, 92.1992, -70.5422, 37.5153
0.34, 1, 33.864, 51.3623, -10.1954, 92.238, -70.4015, 37.5636
0.344, 1, 33.8793, 51.3383, -10.2243, 92.2768, -70.261, 37.6117
0.348, 1, 33.8945, 51.3142, -10.2532, 92.3155, -70.1209, 37.6598
0.352, 1, 33.9097, 51.2903, -10.282, 92.3541, -69.9809, 37.7077
0.356, 1, 33.9249, 51.2663, -10.3107, 92.3927, -69.8412, 37.7556
0.36, 1, 33.94, 51.2424, -10.3394, 92.4312, -69.7017, 37.8034
0.364, 1, 33.9552, 51.2186, -10.3681, 92.4696, -69.5624, 37.8512
0.368, 1, 33.9703, 51.1947, -10.3967, 92.508, -69.4234, 37.8988
0.372, 1, 33.9853, 51.171, -10.4253, 92.5463, -69.2846, 37.9464
0.376, 1, 34.0004, 51.1472, -10.4538, 92.5846, -69.1461, 37.9939
0.38, 1, 34.0154, 51.1235, -10.4823, 92.6228, -69.0078, 38.0413
0.384, 1, 34.0304, 51.0998, -10.5107, 92.6609, -68.8697, 38.0887
0.388, 1, 34.0454, 51.0762, -10.5391, 92.6989, -68.7318, 38.1359
0.392, 1, 34.0604, 51.0526, -10.5674, 92.7369, -68.5941, 38.1831
0.396, 1, 34.0753, 51.0291, -10.5957, 92.7749, -68.4567, 38.2302
0.4, 1, 34.0902, 51.0056, -10.6239, 92.8127, -68.3195, 38.2773
0.404, 1, 34.1051, 50.9821, -10.6521, 92.8506, -68.1826, 38.3242
0.408, 1, 34.1199, 50.9587, -10.6803, 92.8883, -68.0458, 38.3711
0.412, 1, 34.1348, 50.9353, -10.7084, 92.926, -67.9093, 38.4179
0.416, 1, 34.1496, 50.9119, -10.7364, 92.9636, -67.773, 38.4646
0.42, 1, 34.1643, 50.8886, -10.7644, 93.0012, -67.6369, 38.5113
0.424, 1, 34.1791, 50.8653, -10.7924, 93.0387, -67.501, 38.5579
0.428, 1, 34.1938, 50.8421, -10.8203, 93.0762, -67.3653, 38.6044
0.432, 1, 34.2086, 50.8189, -10.8482, 93.1136, -67.2299, 38.6508
0.436, 1, 34.2232, 50.7957, -10.876, 93.1509, -67.0947, 38.6971
0.44, 1, 34.2379, 50.7726, -10.9038, 93.1881, -66.9597, 38.7434
0.444, 1, 34.2526, 50.7495, -10.9315, 93.2254, -66.8249, 38.7896
0.448, 1, 34.2672, 50.7264, -10.9592, 93.2625, -66.6903, 38.8358
0.452, 1, 34.2818, 50.7034, -10.9869, 93.2996, -66.5559, 38.8818
0.456, 1, 34.2964, 50.6804, -11.0145, 93.3367, -66.4217, 38.9278
0.46, 1, 34.3109, 50.6574, -11.0421, 93.3736, -66.2878, 38.9738
0.464, 1, 34.3254, 50.6345, -11.0696, 93.4106, -66.154, 39.0196
0.468, 1, 34.3399, 50.6116, -11.0971, 93.4474, -66.0204, 39.0654
0.472, 1, 34.3544, 50.5888, -11.1246, 93.4842, -65.8871, 39.1111
0.476, 1, 34.3689, 50.566, -11.152, 93.521, -65.754, 39.1567
0.48, 1, 34.3833, 50.5432, -11.1793, 93.5577, -65.621, 39.2023
0.484, 1, 34.3978, 50.5204, -11.2066, 93.5943, -65.4883, 39.2478
0.488, 1, 34.4121, 50.4977, -11.2339, 93.6309, -65.3558, 39.2933
0.492, 1, 34.4265, 50.475, -11.2612, 93.6675, -65.2234, 39.3386
0.496, 1, 34.4409, 50.4524, -11.2883, 93.7039, -65.0913, 39.3839
0.5, 1, 34.4552, 50.4298, -11.3155, 93.7404, -64.9594, 39.4291
0.504, 1, 34.4695, 50.4072, -11.3426, 93.7767, -64.8276, 39.4743
0.508, 1, 34.4838, 50.3847, -11.3697, 93.813, -64.6961, 39.5194
0.512, 1, 34.4981, 50.3622, -11.3967, 93.8493, -64.5647, 39.5644
0.516, 1, 34.5123, 50.3397, -11.4237, 93.8855, -64.4336, 39.6094
0.52, 1, 34.5265, 50.3173, -11.4507, 93.9217, -64.3026, 39.6543
0.524, 1, 34.5408, 50.2949, -11.4776, 93.9578, -64.1719, 39.6991
0.528, 1, 34.5549, 50.2725, -11.5045, 93.9938, -64.0413, 39.7439
0.532, 1, 34.5691, 50.2501, -11.5313, 94.0298, -63.9109, 39.7886
0.536, 1, 34.5832, 50.2278, -11.5581, 94.0657, -63.7807, 39.8332
0.54, 1, 34.5974, 50.2056, -11.5848, 94.1016, -63.6507, 39.8777
0.544, 1, 34.6115, 50.1833, -11.6116, 94.1375, -63.5209, 39.9222
0.548, 1, 34.6255, 50.1611, -11.6382, 94.1732, -63.3913, 39.9667
0.552, 1, 34.6396, 50.1389, -11.6649, 94.209, -63.2619, 40.0111
0.556, 1, 34.6536, 50.1168, -11.6915, 94.2447, -63.1326, 40.0554
0.56, 1, 34.6677, 50.0947, -11.718, 94.2803, -63.0036, 40.0996
0.564, 1, 34.6817, 50.0726, -11.7446, 94.3159, -62.8747, 40.1438
0.568, 1, 34.6956, 50.0505, -11.7711, 94.3514, -62.746, 40.1879
0.572, 1, 34.7096, 50.0285, -11.7975, 94.3869, -62.6175, 40.2319
0.576, 1, 34.7235, 50.0065, -11.8239, 94.4223, -62.4892, 40.2759
0.58, 1, 34.7375, 49.9846, -11.8503, 94.4577, -62.361, 40.3199
0.584, 1, 34.7514, 49.9626, -11.8766, 94.493, -62.2331, 40.3637
0.588, 1, 34.7652, 49.9407, -11.9029, 94.5283, -62.1053, 40.4075
0.592, 1, 34.7791, 49.9189, -11.9292, 94.5635, -61.9777, 40.4513
0.596, 1, 34.7929, 49.897, -11.9554, 94.5987, -61.8503, 40.495
0.6, 1, 34.8068, 49.8752, -11.9816, 94.6338, -61.723, 40.5386
0.604, 1, 34.8206, 49.8535, -12.0078, 94.6689, -61.5959, 40.5821
0.608, 1, 34.8343, 49.8317, -12.0339, 94.7039, -61.4691, 40.6256
0.612, 1, 34.8481, 49.81, -12.0599, 94.7389, -61.3423, 40.6691
0.616, 1, 34.8618, 49.7883, -12.086, 94.7738, -61.2158, 40.7125
0.62, 1, 34.8756, 49.7667, -12.112, 94.8087, -61.0894, 40.7558
0.624, 1, 34.8893, 49.7451, -12.138, 94.8435, -60.9632, 40.799
0.628, 1, 34.903, 49.7235, -12.1639, 94.8783, -60.8372, 40.8422
0.632, 1, 34.9166, 49.7019, -12.1898, 94.9131, -60.7114, 40.8854
0.636, 1, 34.9303, 49.6804, -12.2157, 94.9478, -60.5857, 40.9284
0.64, 1, 34.9439, 49.6589, -12.2415, 94.9824, -60.4602, 40.9715
0.644, 1, 34.9575, 49.6374, -12.2673, 95.017, -60.3349, 41.0144
0.648, 1, 34.9711, 49.6159, -12.2931, 95.0516, -60.2097, 41.0573
0.652, 1, 34.9847, 49.5945, -12.3188, 95.0861, -60.0847, 41.1002
0.656, 1, 34.9983, 49.5731, -12.3445, 95.1205, -59.9599, 41.143
0.66, 1, 35.0118, 49.5518, -12.3701, 95.1549, -59.8352, 41.1857
0.664, 1, 35.0253, 49.5304, -12.3958, 95.1893, -59.7107, 41.2284
0.668, 1, 35.0388, 49.5091, -12.4214, 95.2236, -59.5864, 41.271
0.672, 1, 35.0523, 49.4879, -12.4469, 95.2579, -59.4622, 41.3136
0.676, 1, 35.0658, 49.4666, -12.4724, 95.2921, -59.3382, 41.3561
0.68, 1, 35.0792, 49.4454, -12.4979, 95.3263, -59.2144, 41.3985
0.684, 1, 35.0927, 49.4242, -12.5234, 95.3605, -59.0907, 41.4409
0.688, 1, 35.1061, 49.4031, -12.5488, 95.3946, -58.9672, 41.4833
0.692, 1, 35.1195, 49.3819, -12.5742, 95.4286, -58.8439, 41.5256
0.696, 1, 35.1329, 49.3608, -12.5995, 95.4626, -58.7207, 41.5678
0.7, 1, 35.1462, 49.3397, -12.6249, 95.4966, -58.5977, 41.61
0.704, 1, 35.1596, 49.3187, -12.6501, 95.5305, -58.4748, 41.6521
0.708, 1, 35.1729, 49.2977, -12.6754, 95.5644, -58.3521, 41.6941
0.712, 1, 35.1862, 49.2767, -12.7006, 95.5982, -58.2296, 41.7361
0.716, 1, 35.1995, 49.2557, -12.7258, 95.632, -58.1072, 41.7781
0.72, 1, 35.2128, 49.2347, -12.751, 95.6657, -57.985, 41.82
0.724, 1, 35.226, 49.2138, -12.7761, 95.6994, -57.8629, 41.8618
0.728, 1, 35.2393, 49.1929, -12.8012, 95.7331, -57.741, 41.9036
0.732, 1, 35.2525, 49.1721, -12.8262, 95.7667, -57.6192, 41.9454
0.736, 1, 35.2657, 49.1512, -12.8513, 95.8003, -57.4976, 41.9871
0.74, 1, 35.2789, 49.1304, -12.8763, 95.8338, -57.3762, 42.0287
0.744, 1, 35.2921, 49.1097, -12.9012, 95.8673, -57.2549, 42.0703
0.748, 1, 35.3052, 49.0889, -12.9262, 95.9007, -57.1338, 42.1118
0.752, 1, 35.3184, 49.0682, -12.9511, 95.9341, -57.0128, 42.1533
0.756, 1, 35.3315, 49.0475, -12.9759, 95.9675, -56.8919, 42.1947
0.76, 1, 35.3446, 49.0268, -13.0008, 96.0008, -56.7712, 42.2361
0.764, 1, 35.3577, 49.0061, -13.0256, 96.0341, -56.6507, 42.2774
0.768, 1, 35.3708, 48.9855, -13.0504, 96.0673, -56.5303, 42.3187
0.772, 1, 35.3838, 48.9649, -13.0751, 96.1005, -56.4101, 42.3599
0.776, 1, 35.3969, 48.9443, -13.0998, 96.1336, -56.29, 42.401
0.78, 1, 35.4099, 48.9238, -13.1245, 96.1667, -56.1701, 42.4422
0.784, 1, 35.4229, 48.9032, -13.1492, 96.1998, -56.0503, 42.4832
0.788, 1, 35.4359, 48.8827, -13.1738, 96.2328, -55.9307, 42.5242
0.792, 1, 35.4489, 48.8623, -13.1984, 96.2658, -55.8112, 42.5652
0.796, 1, 35.4619, 48.8418, -13.2229, 96.2988, -55.6918, 42.6061
0.8, 1, 35.4748, 48.8214, -13.2475, 96.3317, -55.5726, 42.647
0.804, 1, 35.4877, 48.801, -13.272, 96.3645, -55.4535, 42.6878
0.808, 1, 35.5006, 48.7806, -13.2965, 96.3974, -55.3346, 42.7285
0.812, 1, 35.5136, 48.7603, -13.3209, 96.4302, -55.2159, 42.7693
0.816, 1, 35.5264, 48.7399, -13.3453, 96.4629, -55.0972, 42.8099
0.82, 1, 35.5393, 48.7196, -13.3697, 96.4956, -54.9787, 42.8506
0.824, 1, 35.5522, 48.6994, -13.3941, 96.5283, -54.8604, 42.8911
0.828, 1, 35.565, 48.6791, -13.4184, 96.5609, -54.7422, 42.9316
0.832, 1, 35.5778, 48.6589, -13.4427, 96.5935, -54.6241, 42.9721
0.836, 1, 35.5906, 48.6387, -13.467, 96.6261, -54.5062, 43.0125
0.84, 1, 35.6034, 48.6185, -13.4912, 96.6586, -54.3884, 43.0529
0.844, 1, 35.6162, 48.5983, -13.5154, 96.6911, -54.2707, 43.0933
0.848, 1, 35.629, 48.5782, -13.5396, 96.7235, -54.1532, 43.1335
0.852, 1, 35.6417, 48.5581, -13.5638, 96.7559, -54.0358, 43.1738
0.856, 1, 35.6545, 48.538, -13.5879, 96.7883, -53.9186, 43.214
0.86, 1, 35.6672, 48.5179, -13.612, 96.8206, -53.8015, 43.2541
0.864, 1, 35.6799, 48.4979, -13.6361, 96.8529, -53.6845, 43.2942
0.868, 1, 35.6925, 48.4779, -13.6601, 96.8852, -53.5677, 43.3343
0.872, 1, 35.7051, 48.458, -13.6841, 96.9174, -53.451, 43.3743
0.876, 1, 35.7176, 48.4381, -13.7081, 96.9496, -53.3345, 43.4142
0.88, 1, 35.73, 48.4184, -13.7321, 96.9817, -53.2181, 43.4541
0.884, 1, 35.7419, 48.3992, -13.756, 97.0137, -53.102, 43.4939
0.888, 1, 35.7533, 48.3805, -13.7798, 97.0457, -52.9863, 43.5336
0.892, 1, 35.7641, 48.3627, -13.8035, 97.0775, -52.8712, 43.5731
0.896, 1, 35.7742, 48.3457, -13.8269, 97.109, -52.757, 43.6122
0.9, 1, 35.7836, 48.3297, -13.8501, 97.1401, -52.6444, 43.6508
0.904, 1, 35.7924, 48.3145, -13.8728, 97.1706, -52.534, 43.6887
0.908, 1, 35.8007, 48.3002, -13.895, 97.2003, -52.4264, 43.7256
0.912, 1, 35.8087, 48.2866, -13.9163, 97.229, -52.3226, 43.7613
0.916, 1, 35.8164, 48.2736, -13.9367, 97.2564, -52.2234, 43.7953
0.92, 1, 35.8238, 48.2613, -13.956, 97.2823, -52.1296, 43.8275
0.924, 1, 35.8309, 48.2497, -13.9741, 97.3065, -52.042, 43.8576
0.928, 1, 35.8377, 48.2387, -13.9907, 97.3288, -51.9612, 43.8853
0.932, 1, 35.8442, 48.2281, -14.0057, 97.3491, -51.888, 43.9104
0.936, 1, 35.8507, 48.2178, -14.0192, 97.3671, -51.8226, 43.9328
0.94, 1, 35.8571, 48.2077, -14.031, 97.3829, -51.7653, 43.9524
0.944, 1, 35.8634, 48.1979, -14.0412, 97.3966, -51.716, 43.9693
0.948, 1, 35.8695, 48.1884, -14.0498, 97.4081, -51.6743, 43.9836
0.952, 1, 35.8755, 48.1793, -14.0569, 97.4175, -51.6399, 43.9954
0.956, 2, 35.8812, 48.1708, -14.0626, 97.4252, -51.612, 44.0049
0.96, 2, 35.8865, 48.1631, -14.0672, 97.4313, -51.5899, 44.0124
0.964, 2, 35.8915, 48.1562, -14.0707, 97.436, -51.5728, 44.0183
0.968, 2, 35.896, 48.1502, -14.0734, 97.4396, -51.5598, 44.0227
0.972, 2, 35.9001, 48.145, -14.0754, 97.4422, -51.5503, 44.0259
0.976, 2, 35.9037, 48.1406, -14.0768, 97.4441, -51.5433, 44.0283
0.98, 2, 35.9067, 48.1371, -14.0778, 97.4454, -51.5385, 44.0299
0.984, 2, 35.9091, 48.1343, -14.0785, 97.4463, -51.5351, 44.0311
0.988, 2, 35.911, 48.1323, -14.079, 97.4469, -51.5327, 44.0319
0.992, 2, 35.9123, 48.1308, -14.0793, 97.4474, -51.5312, 44.0324
0.996, 2, 35.9132, 48.1299, -14.0796, 97.4477, -51.5301, 44.0328
1, 2, 35.9138, 48.1292, -14.0797, 97.4479, -51.5294, 44.033
1.004, 2, 35.9142, 48.1287, -14.0798, 97.448, -51.5289, 44.0332
1.008, 2, 35.9145, 48.1284, -14.0799, 97.4481, -51.5285, 44.0333
1.012, 2, 35.9147, 48.1282, -14.0799, 97.4482, -51.5283, 44.0334
1.016, 2, 35.9149, 48.1281, -14.08, 97.4482, -51.5282, 44.0334
1.02, 2, 35.9149, 48.128, -14.08, 97.4482, -51.5281, 44.0335
1.024, 2, 35.915, 48.1279, -14.08, 97.4482, -51.528, 44.0335
1.027, 2, 35.915, 48.1279, -14.08, 97.4483, -51.5279, 44.0335
1.032, 2, 35.9151, 48.1278, -14.08, 97.4483, -51.5279, 44.0335
1.036, 2, 35.9151, 48.1278, -14.08, 97.4483, -51.5279, 44.0335
1.04, 2, 35.9151, 48.1278, -14.08, 97.4483, -51.5279, 44.0335
1.044, 2, 35.9151, 48.1278, -14.08, 97.4483, -51.5279, 44.0335
1.048, 2, 35.9151, 48.1278, -14.08, 97.4483, -51.5279, 44.0335
1.052, 2, 35.9151, 48.1278, -14.08, 97.4483, -51.5279, 44.0335
1.055, 2, 35.9151, 48.1278, -14.08, 97.4483, -51.5278, 44.0335
1.06, 2, 35.9151, 48.1278, -14.08, 97.4483, -51.5278, 44.0335
1.064, 2, 35.9151, 48.1278, -14.08, 97.4483, -51.5278, 44.0335
1.068, 2, 35.9151, 48.1278, -14.08, 97.4483, -51.5278, 44.0335
1.072, 2, 35.9151, 48.1278, -14.08, 97.4483, -51.5278, 44.0335
1.076, 2, 35.9151, 48.1278, -14.08, 97.4483, -51.5278, 44.0335
1.08, 2, 35.9151, 48.1278, -14.08, 97.4483, -51.5278, 44.0335
1.084, 2, 35.9151, 48.1278, -14.08, 97.4483, -51.5278, 44.0335
1.088, 2, 35.9151, 48.1278, -14.08, 97.4483, -51.5278, 44.0335
1.091, 2, 35.9151, 48.1278, -14.08, 97.4483, -51.5278, 44.0335
1.096, 2, 35.9151, 48.1278, -14.08, 97.4483, -51.5278, 44.0335
1.1, 2, 35.9151, 48.1278, -14.08, 97.4483, -51.5278, 44.0335
1.104, 2, 35.9151, 48.1278, -14.08, 97.4483, -51.5278, 44.0335
1.108, 2, 35.9151, 48.1278, -14.08, 97.4483, -51.5278, 44.0335
1.112, 2, 35.9151, 48.1278, -14.08, 97.4483, -51.5278, 44.0335
1.116, 2, 35.9151, 48.1278, -14.08, 97.4483, -51.5278, 44.0335
1.119, 2, 35.9151, 48.1278, -14.08, 97.4483, -51.5278, 44.0335
1.124, 2, 35.9151, 48.1278, -14.08, 97.4483, -51.5278, 44.0335
1.128, 2, 35.9151, 48.1278, -14.08, 97.4483, -51.5278, 44.0335
1.132, 2, 35.9151, 48.1278, -14.08, 97.4483, -51.5278, 44.0335
1.136, 2, 35.9151, 48.1278, -14.08, 97.4483, -51.5278, 44.0335
1.14, 2, 35.9151, 48.1278, -14.08, 97.4483, -51.5278, 44.0335
1.144, 2, 35.9151, 48.1278, -14.08, 97.4483, -51.5278, 44.0335
1.147, 2, 35.9151, 48.1278, -14.08, 97.4483, -51.5278, 44.0335
1.152, 2, 35.9151, 48.1278, -14.08, 97.4483, -51.5278, 44.0335
1.156, 2, 35.9151, 48.1278, -14.08, 97.4483, -51.5278, 44.0335
1.16, 2, 35.9151, 48.1278, -14.08, 97.4483, -51.5278, 44.0335
1.164, 2, 35.9151, 48.1278, -14.08, 97.4483, -51.5278, 44.0335
1.168, 2, 35.9151, 48.1278, -14.08, 97.4483, -51.5278, 44.0335
1.172, 2, 35.9151, 48.1278, -14.08, 97.4483, -51.5278, 44.0335
1.175, 2, 35.9151, 48.1278, -14.08, 97.4483, -51.5278, 44.0335
1.18, 2, 35.9151, 48.1278, -14.08, 97.4483, -51.5278, 44.0335
1.184, 2, 35.9151, 48.1278, -14.08, 97.4483, -51.5278, 44.0335
1.188, 2, 35.9151, 48.1278, -14.08, 97.4483, -51.5278, 44.0335
1.192, 2, 35.9151, 48.1278, -14.08, 97.4483, -51.5278, 44.0335
1.196, 2, 35.9151, 48.1278, -14.08, 97.4483, -51.5278, 44.0335
1.2, 2, 35.9151, 48.1278, -14.08, 97.4483, -51.5278, 44.0335
1.204, 2, 35.9151, 48.1278, -14.08, 97.4483, -51.5278, 44.0335
1.208, 2, 35.9151, 48.1278, -14.08, 97.4483, -51.5278, 44.0335
1.212, 2, 35.9151, 48.1278, -14.08, 97.4483, -51.5278, 44.0335
1.216, 2, 35.9151, 48.1278, -14.08, 97.4483, -51.5278, 44.0335
1.22, 2, 35.9151, 48.1278, -14.08, 97.4483, -51.5278, 44.0335
1.224, 2, 35.9151, 48.1278, -14.08, 97.4483, -51.5278, 44.0335
1.228, 2, 35.9151, 48.1278, -14.08, 97.4483, -51.5278, 44.0335
1.232, 2, 35.9151, 48.1278, -14.08, 97.4483, -51.5278, 44.0335
1.236, 2, 35.9151, 48.1278, -14.08, 97.4483, -51.5278, 44.0335
1.24, 2, 35.9151, 48.1278, -14.08, 97.4483, -51.5278, 44.0335
1.244, 2, 35.9151, 48.1278, -14.08, 97.4483, -51.5278, 44.0335
1.248, 2, 35.9151, 48.1278, -14.08, 97.4483, -51.5278, 44.0335
1.252, 2, 35.9151, 48.1278, -14.08, 97.4483, -51.5278, 44.0335
1.256, 2, 35.9151, 48.1278, -14.08, 97.4483, -51.5278, 44.0335
1.26, 2, 35.9151, 48.1278, -14.08, 97.4483, -51.5278, 44.0335
1.264, 2, 35.9151, 48.1278, -14.08, 97.4483, -51.5278, 44.0335
1.267, 2, 35.9151, 48.1278, -14.08, 97.4483, -51.5278, 44.0335
1.272, 2, 35.9151, 48.1278, -14.08, 97.4483, -51.5278, 44.0335
1.276, 2, 35.9151, 48.1278, -14.08, 97.4483, -51.5278, 44.0335
1.28, 2, 35.9151, 48.1278, -14.08, 97.4483, -51.5278, 44.0335
1.284, 2, 35.9151, 48.1278, -14.08, 97.4483, -51.5278, 44.0335
1.288, 2, 35.9151, 48.1278, -14.08, 97.4483, -51.5278, 44.0335
1.292, 2, 35.9151, 48.1278, -14.08, 97.4483, -51.5278, 44.0335
1.295, 2, 35.9151, 48.1278, -14.08, 97.4483, -51.5278, 44.0335
1.3, 2, 35.9151, 48.1278, -14.08, 97.4483, -51.5278, 44.0335
1.304, 2, 35.9151, 48.1278, -14.08, 97.4483, -51.5278, 44.0335
1.308, 2, 35.9151, 48.1278, -14.08, 97.4483, -51.5278, 44.0335
1.312, 2, 35.9151, 48.1278, -14.08, 97.4483, -51.5278, 44.0335
1.316, 2, 35.9151, 48.1278, -14.08, 97.4483, -51.5278, 44.0335
1.32, 2, 35.9151, 48.1278, -14.08, 97.4483, -51.5278, 44.0335
1.324, 2, 35.9151, 48.1278, -14.08, 97.4483, -51.5278, 44.0335
1.328, 2, 35.9151, 48.1278, -14.08, 97.4483, -51.5278, 44.0335
1.332, 2, 35.9151, 48.1278, -14.08, 97.4483, -51.5278, 44.0335
1.336, 2, 35.9151, 48.1278, -14.08, 97.4483, -51.5278, 44.0335
1.34, 2, 35.9151, 48.1278, -14.08, 97.4483, -51.5278, 44.0335
1.344, 2, 35.9151, 48.1278, -14.08, 97.4483, -51.5278, 44.0335
1.348, 2, 35.9151, 48.1278, -14.08, 97.4483, -51.5278, 44.0335
1.352, 2, 35.9151, 48.1278, -14.08, 97.4483, -51.5278, 44.0335
1.356, 2, 35.9151, 48.1278, -14.08, 97.4483, -51.5278, 44.0335
1.36, 2, 35.9151, 48.1278, -14.08, 97.4483, -51.5278, 44.0335
1.364, 2, 35.9151, 48.1278, -14.08, 97.4483, -51.5278, 44.0335
1.368, 2, 35.9151, 48.1278, -14.08, 97.4483, -51.5278, 44.0335
1.372, 2, 35.9151, 48.1278, -14.08, 97.4483, -51.5278, 44.0335
1.376, 2, 35.9151, 48.1278, -14.08, 97.4483, -51.5278, 44.0335
1.38, 2, 35.9151, 48.1278, -14.08, 97.4483, -51.5278, 44.0335
1.384, 2, 35.9151, 48.1278, -14.08, 97.4483, -51.5278, 44.0335
1.388, 2, 35.9151, 48.1278, -14.08, 97.4483, -51.5278, 44.0335
1.392, 2, 35.9151, 48.1278, -14.08, 97.4483, -51.5278, 44.0335
1.396, 2, 35.9151, 48.1278, -14.08, 97.4483, -51.5278, 44.0335
1.4, 2, 35.9151, 48.1278, -14.08, 97.4483, -51.5278, 44.0335
1.404, 2, 35.9151, 48.1278, -14.08, 97.4483, -51.5278, 44.0335
1.408, 2, 35.9151, 48.1278, -14.08, 97.4483, -51.5278, 44.0335
1.412, 2, 35.9151, 48.1278, -14.08, 97.4483, -51.5278, 44.0335
1.416, 2, 35.9151, 48.1278, -14.08, 97.4483, -51.5278, 44.0335
1.42, 2, 35.9151, 48.1278, -14.08, 97.4483, -51.5278, 44.0335
1.424, 2, 35.9151, 48.1278, -14.08, 97.4483, -51.5278, 44.0335
1.428, 2, 35.9151, 48.1278, -14.08, 97.4483, -51.5278, 44.0335
1.432, 2, 35.9151, 48.1278, -14.08, 97.4483, -51.5278, 44.0335
1.436, 2, 35.9151, 48.1278, -14.08, 97.4483, -51.5278, 44.0335
1.44, 2, 35.9151, 48.1278, -14.08, 97.4483, -51.5278, 44.0335
1.444, 2, 35.9151, 48.1278, -14.08, 97.4483, -51.5278, 44.0335
1.448, 2, 35.9151, 48.1278, -14.08, 97.4483, -51.5278, 44.0335
1.452, 2, 35.9151, 48.1278, -14.08, 97.4483, -51.5278, 44.0335
1.456, 3, 35.9151, 48.1278, -14.08, 97.4483, -51.5278, 44.0335
1.46, 3, 35.9151, 48.1278, -14.08, 97.4483, -51.5278, 44.0335
1.464, 3, 35.9151, 48.1278, -14.08, 97.4483, -51.5278, 44.0335
1.468, 3, 35.9151, 48.1278, -14.08, 97.4483, -51.5278, 44.0335
1.472, 3, 35.9151, 48.1278, -14.08, 97.4483, -51.5278, 44.0335
1.476, 3, 35.9151, 48.1278, -14.08, 97.4483, -51.5278, 44.0335
1.48, 3, 35.9151, 48.1278, -14.08, 97.4483, -51.5278, 44.0335
1.484, 3, 35.9151, 48.1278, -14.08, 97.4483, -51.5278, 44.0335
1.488, 3, 35.9151, 48.1278, -14.08, 97.4483, -51.5278, 44.0335
1.492, 3, 35.9151, 48.1278, -14.08, 97.4483, -51.5278, 44.0335
1.496, 3, 35.9151, 48.1278, -14.08, 97.4483, -51.5278, 44.0335
1.5, 3, 35.9151, 48.1278, -14.08, 97.4483, -51.5278, 44.0335
1.504, 3, 35.9151, 48.1278, -14.08, 97.4483, -51.5278, 44.0335
1.508, 3, 35.9151, 48.1278, -14.08, 97.4483, -51.5278, 44.0335
1.512, 4, 35.9151, 48.1278, -14.08, 97.4483, -51.5278, 44.0335
1.516, 4, 35.9151, 48.1278, -14.08, 97.4483, -51.5278, 44.0335
1.52, 4, 35.9151, 48.1278, -14.08, 97.4483, -51.5278, 44.0335
1.524, 4, 35.9151, 48.1278, -14.08, 97.4483, -51.5278, 44.0335
1.528, 4, 35.9151, 48.1278, -14.08, 97.4483, -51.5278, 44.0335
1.532, 4, 35.9151, 48.1278, -14.08, 97.4483, -51.5278, 44.0335
1.536, 4, 35.9151, 48.1278, -14.08, 97.4483, -51.5278, 44.0335
1.54, 4, 35.9151, 48.1278, -14.08, 97.4483, -51.5278, 44.0335
1.544, 4, 35.9151, 48.1278, -14.08, 97.4483, -51.5278, 44.0335
1.548, 4, 35.9151, 48.1278, -14.08, 97.4483, -51.5278, 44.0335
1.552, 4, 35.9151, 48.1278, -14.08, 97.4483, -51.5278, 44.0335
1.556, 4, 35.9151, 48.1278, -14.08, 97.4483, -51.5278, 44.0335
1.56, 4, 35.9151, 48.1278, -14.08, 97.4483, -51.5278, 44.0335
1.564, 4, 35.9151, 48.128, -14.08, 97.4483, -51.5279, 44.0335
1.568, 4, 35.915, 48.1283, -14.0801, 97.4483, -51.5279, 44.0335
1.572, 4, 35.9148, 48.1289, -14.0801, 97.4483, -51.528, 44.0334
1.576, 4, 35.9145, 48.1299, -14.0802, 97.4483, -51.5283, 44.0332
1.58, 4, 35.9142, 48.1311, -14.0803, 97.4484, -51.5289, 44.0329
1.584, 4, 35.9138, 48.1325, -14.0805, 97.4485, -51.5299, 44.0322
1.588, 4, 35.9134, 48.1342, -14.0807, 97.4486, -51.5316, 44.0312
1.592, 4, 35.913, 48.136, -14.0811, 97.4488, -51.534, 44.0297
1.596, 4, 35.9126, 48.1378, -14.0816, 97.449, -51.5373, 44.0277
1.6, 4, 35.9123, 48.1398, -14.0823, 97.4494, -51.5416, 44.025
1.604, 4, 35.9121, 48.142, -14.0831, 97.4498, -51.5471, 44.0216
1.608, 4, 35.9118, 48.1443, -14.084, 97.4503, -51.5538, 44.0175
1.612, 4, 35.9116, 48.1469, -14.0852, 97.4509, -51.5616, 44.0126
1.616, 4, 35.9114, 48.1496, -14.0865, 97.4516, -51.5708, 44.007
1.62, 4, 35.9113, 48.1524, -14.0879, 97.4523, -51.5811, 44.0006
1.624, 4, 35.9113, 48.1553, -14.0895, 97.4532, -51.5925, 43.9935
1.628, 4, 35.9113, 48.1583, -14.0913, 97.4541, -51.605, 43.9858
1.632, 4, 35.9113, 48.1615, -14.0931, 97.4551, -51.6183, 43.9775
1.636, 4, 35.9113, 48.1648, -14.0951, 97.4561, -51.6323, 43.9689
1.64, 4, 35.9113, 48.1685, -14.0971, 97.4572, -51.6469, 43.9599
1.644, 4, 35.9112, 48.1725, -14.0992, 97.4583, -51.6619, 43.9506
1.648, 4, 35.911, 48.1767, -14.1014, 97.4594, -51.6772, 43.9412
1.652, 4, 35.9107, 48.1813, -14.1036, 97.4605, -51.6926, 43.9316
1.656, 4, 35.9104, 48.1859, -14.1058, 97.4616, -51.7082, 43.922
1.66, 4, 35.9101, 48.1908, -14.108, 97.4628, -51.7239, 43.9123
1.664, 4, 35.9097, 48.1956, -14.1102, 97.4639, -51.7396, 43.9026
1.668, 4, 35.9094, 48.2006, -14.1124, 97.465, -51.7554, 43.8929
1.672, 4, 35.909, 48.2056, -14.1147, 97.4662, -51.7712, 43.8832
1.676, 4, 35.9086, 48.2106, -14.1169, 97.4673, -51.787, 43.8734
1.68, 4, 35.9082, 48.2156, -14.1191, 97.4684, -51.8029, 43.8636
1.684, 4, 35.9078, 48.2206, -14.1214, 97.4695, -51.8187, 43.8539
1.688, 4, 35.9074, 48.2257, -14.1236, 97.4706, -51.8345, 43.8441
1.692, 4, 35.907, 48.2307, -14.1258, 97.4717, -51.8504, 43.8344
1.696, 4, 35.9066, 48.2357, -14.128, 97.4728, -51.8663, 43.8246
1.7, 4, 35.9062, 48.2408, -14.1303, 97.4739, -51.8821, 43.8149
1.704, 4, 35.9058, 48.2458, -14.1325, 97.475, -51.898, 43.8051
1.708, 4, 35.9054, 48.2509, -14.1347, 97.4761, -51.9138, 43.7954
1.712, 4, 35.905, 48.2559, -14.1369, 97.4772, -51.9297, 43.7857
1.716, 4, 35.9045, 48.261, -14.1391, 97.4783, -51.9455, 43.7759
1.72, 4, 35.9041, 48.266, -14.1413, 97.4793, -51.9614, 43.7662
1.724, 4, 35.9037, 48.271, -14.1436, 97.4804, -51.9772, 43.7565
1.728, 4, 35.9033, 48.2761, -14.1458, 97.4814, -51.9931, 43.7467
1.732, 4, 35.9029, 48.2811, -14.148, 97.4825, -52.0089, 43.737
1.736, 4, 35.9025, 48.2861, -14.1502, 97.4835, -52.0248, 43.7273
1.74, 4, 35.9021, 48.2912, -14.1524, 97.4846, -52.0406, 43.7176
1.744, 4, 35.9016, 48.2962, -14.1546, 97.4856, -52.0565, 43.7079
1.748, 4, 35.9012, 48.3012, -14.1568, 97.4866, -52.0723, 43.6982
1.752, 4, 35.9008, 48.3063, -14.1589, 97.4877, -52.0882, 43.6885
1.756, 4, 35.9004, 48.3113, -14.1611, 97.4887, -52.104, 43.6788
1.76, 4, 35.9, 48.3163, -14.1633, 97.4897, -52.1199, 43.6691
1.764, 4, 35.8995, 48.3214, -14.1655, 97.4907, -52.1357, 43.6594
1.768, 4, 35.8991, 48.3264, -14.1677, 97.4917, -52.1516, 43.6498
1.772, 4, 35.8987, 48.3314, -14.1699, 97.4927, -52.1674, 43.6401
1.776, 4, 35.8983, 48.3364, -14.172, 97.4937, -52.1833, 43.6304
1.78, 4, 35.8978, 48.3415, -14.1742, 97.4947, -52.1991, 43.6207
1.784, 4, 35.8974, 48.3465, -14.1764, 97.4957, -52.215, 43.6111
1.788, 4, 35.897, 48.3515, -14.1785, 97.4967, -52.2308, 43.6014
1.792, 4, 35.8966, 48.3565, -14.1807, 97.4976, -52.2466, 43.5918
1.796, 4, 35.8961, 48.3615, -14.1829, 97.4986, -52.2625, 43.5821
1.8, 4, 35.8957, 48.3665, -14.185, 97.4996, -52.2783, 43.5725
1.804, 4, 35.8953, 48.3716, -14.1872, 97.5005, -52.2942, 43.5628
1.808, 4, 35.8948, 48.3766, -14.1893, 97.5015, -52.31, 43.5532
1.812, 4, 35.8944, 48.3816, -14.1915, 97.5024, -52.3258, 43.5435
1.816, 4, 35.894, 48.3866, -14.1936, 97.5034, -52.3417, 43.5339
1.82, 4, 35.8935, 48.3916, -14.1958, 97.5043, -52.3575, 43.5243
1.824, 4, 35.8931, 48.3966, -14.1979, 97.5052, -52.3734, 43.5146
1.828, 4, 35.8927, 48.4016, -14.2001, 97.5062, -52.3892, 43.505
1.832, 4, 35.8922, 48.4066, -14.2022, 97.5071, -52.405, 43.4954
1.836, 4, 35.8918, 48.4116, -14.2043, 97.508, -52.4209, 43.4858
1.84, 4, 35.8914, 48.4166, -14.2065, 97.5089, -52.4367, 43.4762
1.844, 4, 35.8909, 48.4216, -14.2086, 97.5098, -52.4525, 43.4666
1.848, 4, 35.8905, 48.4266, -14.2107, 97.5107, -52.4683, 43.457
1.852, 4, 35.89, 48.4316, -14.2128, 97.5116, -52.4842, 43.4474
1.856, 4, 35.8896, 48.4366, -14.215, 97.5125, -52.5, 43.4378
1.86, 4, 35.8892, 48.4416, -14.2171, 97.5134, -52.5158, 43.4282
1.864, 4, 35.8887, 48.4466, -14.2192, 97.5142, -52.5317, 43.4186
1.868, 4, 35.8883, 48.4516, -14.2213, 97.5151, -52.5475, 43.409
1.872, 4, 35.8878, 48.4566, -14.2234, 97.516, -52.5633, 43.3995
1.876, 4, 35.8874, 48.4616, -14.2255, 97.5169, -52.5791, 43.3899
1.88, 4, 35.8869, 48.4666, -14.2276, 97.5177, -52.595, 43.3803
1.884, 4, 35.8865, 48.4716, -14.2297, 97.5186, -52.6108, 43.3707
1.888, 4, 35.886, 48.4765, -14.2318, 97.5194, -52.6266, 43.3612
1.892, 4, 35.8856, 48.4815, -14.2339, 97.5203, -52.6424, 43.3516
1.896, 4, 35.8851, 48.4865, -14.236, 97.5211, -52.6583, 43.3421
1.9, 4, 35.8847, 48.4915, -14.2381, 97.5219, -52.6741, 43.3325
1.904, 4, 35.8842, 48.4965, -14.2402, 97.5228, -52.6899, 43.323
1.908, 4, 35.8838, 48.5014, -14.2423, 97.5236, -52.7057, 43.3134
1.912, 4, 35.8833, 48.5064, -14.2444, 97.5244, -52.7215, 43.3039
1.916, 4, 35.8829, 48.5114, -14.2465, 97.5252, -52.7374, 43.2944
1.92, 4, 35.8824, 48.5164, -14.2486, 97.526, -52.7532, 43.2848
1.924, 4, 35.8819, 48.5214, -14.2506, 97.5268, -52.769, 43.2753
1.928, 4, 35.8815, 48.5263, -14.2527, 97.5276, -52.7848, 43.2658
1.932, 4, 35.881, 48.5313, -14.2548, 97.5284, -52.8006, 43.2563
1.936, 4, 35.8806, 48.5363, -14.2569, 97.5292, -52.8164, 43.2467
1.94, 4, 35.8801, 48.5412, -14.2589, 97.53, -52.8323, 43.2372
1.944, 4, 35.8797, 48.5462, -14.261, 97.5307, -52.8481, 43.2277
1.948, 4, 35.8792, 48.5512, -14.263, 97.5315, -52.8639, 43.2182
1.952, 4, 35.8787, 48.5561, -14.2651, 97.5323, -52.8797, 43.2087
1.956, 4, 35.8783, 48.5611, -14.2672, 97.533, -52.8955, 43.1992
1.96, 4, 35.8778, 48.5661, -14.2692, 97.5338, -52.9113, 43.1897
1.964, 4, 35.8773, 48.571, -14.2713, 97.5345, -52.9271, 43.1802
1.968, 4, 35.8769, 48.576, -14.2733, 97.5353, -52.9429, 43.1708
1.972, 4, 35.8764, 48.5809, -14.2754, 97.536, -52.9587, 43.1613
1.976, 4, 35.8759, 48.5859, -14.2774, 97.5368, -52.9745, 43.1518
1.98, 4, 35.8755, 48.5908, -14.2794, 97.5375, -52.9903, 43.1423
1.984, 4, 35.875, 48.5958, -14.2815, 97.5382, -53.0061, 43.1329
1.988, 4, 35.8745, 48.6007, -14.2835, 97.5389, -53.0219, 43.1234
1.992, 4, 35.874, 48.6057, -14.2855, 97.5396, -53.0378, 43.1139
1.996, 4, 35.8736, 48.6106, -14.2876, 97.5403, -53.0536, 43.1045
1.999, 4, 35.8731, 48.6156, -14.2896, 97.541, -53.0694, 43.095
2.004, 4, 35.8726, 48.6205, -14.2916, 97.5417, -53.0852, 43.0856
2.008, 4, 35.8721, 48.6255, -14.2936, 97.5424, -53.101, 43.0761
2.012, 4, 35.8717, 48.6304, -14.2957, 97.5431, -53.1168, 43.0667
2.015, 4, 35.8712, 48.6354, -14.2977, 97.5438, -53.1326, 43.0573
2.019, 4, 35.8707, 48.6403, -14.2997, 97.5445, -53.1483, 43.0478
2.024, 4, 35.8702, 48.6452, -14.3017, 97.5452, -53.1641, 43.0384
2.028, 4, 35.8697, 48.6502, -14.3037, 97.5458, -53.1799, 43.029
2.031, 4, 35.8693, 48.6551, -14.3057, 97.5465, -53.1957, 43.0195
2.036, 4, 35.8688, 48.6601, -14.3077, 97.5472, -53.2115, 43.0101
2.04, 4, 35.8683, 48.665, -14.3097, 97.5478, -53.2273, 43.0007
2.044, 4, 35.8678, 48.6699, -14.3117, 97.5485, -53.2431, 42.9913
2.048, 4, 35.8673, 48.6749, -14.3137, 97.5491, -53.2589, 42.9819
2.051, 4, 35.8668, 48.6798, -14.3157, 97.5497, -53.2747, 42.9725
2.055, 4, 35.8664, 48.6847, -14.3177, 97.5504, -53.2905, 42.9631
2.06, 4, 35.8659, 48.6896, -14.3197, 97.551, -53.3063, 42.9537
2.064, 4, 35.8654, 48.6946, -14.3216, 97.5516, -53.3221, 42.9443
2.068, 4, 35.8649, 48.6995, -14.3236, 97.5522, -53.3379, 42.9349
2.071, 4, 35.8644, 48.7044, -14.3256, 97.5529, -53.3536, 42.9255
2.076, 4, 35.8639, 48.7093, -14.3276, 97.5535, -53.3694, 42.9161
2.08, 4, 35.8634, 48.7143, -14.3296, 97.5541, -53.3852, 42.9068
2.084, 4, 35.8629, 48.7192, -14.3315, 97.5547, -53.401, 42.8974
2.087, 4, 35.8624, 48.7241, -14.3335, 97.5553, -53.4168, 42.888
2.092, 4, 35.8619, 48.729, -14.3355, 97.5558, -53.4326, 42.8786
2.096, 4, 35.8614, 48.7339, -14.3374, 97.5564, -53.4483, 42.8693
2.1, 4, 35.8609, 48.7388, -14.3394, 97.557, -53.4641, 42.8599
2.104, 4, 35.8604, 48.7437, -14.3413, 97.5576, -53.4799, 42.8506
2.107, 4, 35.8599, 48.7487, -14.3433, 97.5581, -53.4957, 42.8412
2.111, 4, 35.8594, 48.7536, -14.3452, 97.5587, -53.5115, 42.8319
2.116, 4, 35.8589, 48.7585, -14.3472, 97.5593, -53.5272, 42.8225
2.12, 4, 35.8584, 48.7634, -14.3491, 97.5598, -53.543, 42.8132
2.124, 4, 35.8579, 48.7683, -14.3511, 97.5604, -53.5588, 42.8038
2.127, 4, 35.8574, 48.7732, -14.353, 97.5609, -53.5746, 42.7945
2.132, 4, 35.8569, 48.7781, -14.3549, 97.5614, -53.5904, 42.7852
2.136, 4, 35.8564, 48.783, -14.3569, 97.562, -53.6061, 42.7759
2.14, 4, 35.8559, 48.7879, -14.3588, 97.5625, -53.6219, 42.7665
2.143, 4, 35.8554, 48.7928, -14.3607, 97.563, -53.6377, 42.7572
2.148, 4, 35.8549, 48.7977, -14.3627, 97.5635, -53.6534, 42.7479
2.152, 4, 35.8544, 48.8026, -14.3646, 97.5641, -53.6692, 42.7386
2.156, 4, 35.8539, 48.8075, -14.3665, 97.5646, -53.685, 42.7293
2.16, 4, 35.8534, 48.8124, -14.3684, 97.5651, -53.7008, 42.72
2.163, 4, 35.8529, 48.8173, -14.3703, 97.5656, -53.7165, 42.7107
2.168, 4, 35.8524, 48.8221, -14.3723, 97.566, -53.7323, 42.7014
2.172, 4, 35.8518, 48.827, -14.3742, 97.5665, -53.7481, 42.6921
2.176, 4, 35.8513, 48.8319, -14.3761, 97.567, -53.7638, 42.6828
2.179, 4, 35.8508, 48.8368, -14.378, 97.5675, -53.7796, 42.6735
2.184, 4, 35.8503, 48.8417, -14.3799, 97.568, -53.7953, 42.6642
2.188, 4, 35.8498, 48.8466, -14.3818, 97.5684, -53.8111, 42.655
2.192, 4, 35.8493, 48.8514, -14.3837, 97.5689, -53.8269, 42.6457
2.196, 4, 35.8488, 48.8563, -14.3856, 97.5694, -53.8426, 42.6364
2.199, 4, 35.8482, 48.8612, -14.3875, 97.5698, -53.8584, 42.6272
2.204, 4, 35.8477, 48.8661, -14.3893, 97.5703, -53.8742, 42.6179
2.208, 4, 35.8472, 48.871, -14.3912, 97.5707, -53.8899, 42.6086
2.212, 4, 35.8467, 48.8758, -14.3931, 97.5711, -53.9057, 42.5994
2.216, 4, 35.8461, 48.8807, -14.395, 97.5716, -53.9214, 42.5901
2.219, 4, 35.8456, 48.8856, -14.3969, 97.572, -53.9372, 42.5809
2.224, 4, 35.8451, 48.8904, -14.3987, 97.5724, -53.953, 42.5716
2.228, 4, 35.8446, 48.8953, -14.4006, 97.5728, -53.9687, 42.5624
2.232, 4, 35.844, 48.9002, -14.4025, 97.5733, -53.9845, 42.5532
2.235, 4, 35.8435, 48.905, -14.4044, 97.5737, -54.0002, 42.5439
2.24, 4, 35.843, 48.9099, -14.4062, 97.5741, -54.016, 42.5347
2.244, 4, 35.8425, 48.9148, -14.4081, 97.5745, -54.0317, 42.5255
2.248, 4, 35.8419, 48.9196, -14.4099, 97.5749, -54.0475, 42.5162
2.252, 4, 35.8414, 48.9245, -14.4118, 97.5753, -54.0632, 42.507
2.255, 4, 35.8409, 48.9293, -14.4136, 97.5756, -54.079, 42.4978
2.259, 4, 35.8403, 48.9342, -14.4155, 97.576, -54.0947, 42.4886
2.264, 4, 35.8398, 48.9391, -14.4173, 97.5764, -54.1105, 42.4794
2.268, 4, 35.8393, 48.9439, -14.4192, 97.5768, -54.1262, 42.4702
2.272, 4, 35.8387, 48.9488, -14.421, 97.5771, -54.142, 42.461
2.275, 4, 35.8382, 48.9536, -14.4229, 97.5775, -54.1577, 42.4518
2.28, 4, 35.8377, 48.9585, -14.4247, 97.5778, -54.1735, 42.4426
2.284, 4, 35.8371, 48.9633, -14.4265, 97.5782, -54.1892, 42.4334
2.288, 4, 35.8366, 48.9682, -14.4284, 97.5785, -54.2049, 42.4242
2.291, 4, 35.836, 48.973, -14.4302, 97.5789, -54.2207, 42.415
2.296, 4, 35.8355, 48.9778, -14.432, 97.5792, -54.2364, 42.4059
2.3, 4, 35.835, 48.9827, -14.4338, 97.5795, -54.2522, 42.3967
2.304, 4, 35.8344, 48.9875, -14.4357, 97.5799, -54.2679, 42.3875
2.308, 4, 35.8339, 48.9924, -14.4375, 97.5802, -54.2836, 42.3783
2.311, 4, 35.8333, 48.9972, -14.4393, 97.5805, -54.2994, 42.3692
2.316, 4, 35.8328, 49.002, -14.4411, 97.5808, -54.3151, 42.36
2.32, 4, 35.8322, 49.0069, -14.4429, 97.5811, -54.3308, 42.3509
2.324, 4, 35.8317, 49.0117, -14.4447, 97.5814, -54.3466, 42.3417
2.328, 4, 35.8311, 49.0165, -14.4465, 97.5817, -54.3623, 42.3325
2.331, 4, 35.8306, 49.0214, -14.4483, 97.582, -54.3781, 42.3234
2.336, 4, 35.83, 49.0262, -14.4501, 97.5823, -54.3938, 42.3143
2.34, 4, 35.8295, 49.031, -14.4519, 97.5826, -54.4095, 42.3051
2.344, 4, 35.8289, 49.0359, -14.4537, 97.5829, -54.4252, 42.296
2.347, 4, 35.8284, 49.0407, -14.4555, 97.5831, -54.441, 42.2868
2.352, 4, 35.8278, 49.0455, -14.4573, 97.5834, -54.4567, 42.2777
2.356, 4, 35.8273, 49.0503, -14.459, 97.5837, -54.4724, 42.2686
2.36, 4, 35.8267, 49.0551, -14.4608, 97.5839, -54.4882, 42.2595
2.364, 4, 35.8262, 49.06, -14.4626, 97.5842, -54.5039, 42.2503
2.367, 4, 35.8256, 49.0648, -14.4644, 97.5844, -54.5196, 42.2412
2.372, 4, 35.8251, 49.0696, -14.4661, 97.5847, -54.5353, 42.2321
2.376, 4, 35.8245, 49.0744, -14.4679, 97.5849, -54.5511, 42.223
2.38, 4, 35.8239, 49.0792, -14.4697, 97.5851, -54.5668, 42.2139
2.383, 4, 35.8234, 49.084, -14.4714, 97.5854, -54.5825, 42.2048
2.388, 4, 35.8228, 49.0888, -14.4732, 97.5856, -54.5982, 42.1957
2.392, 4, 35.8223, 49.0937, -14.475, 97.5858, -54.6139, 42.1866
2.396, 4, 35.8217, 49.0985, -14.4767, 97.586, -54.6297, 42.1775
2.4, 4, 35.8211, 49.1033, -14.4785, 97.5863, -54.6454, 42.1684
2.403, 4, 35.8206, 49.1081, -14.4802, 97.5865, -54.6611, 42.1593
2.408, 4, 35.82, 49.1129, -14.482, 97.5867, -54.6768, 42.1503
2.412, 4, 35.8194, 49.1177, -14.4837, 97.5868, -54.6925, 42.1412
2.416, 4, 35.8189, 49.1225, -14.4854, 97.587, -54.7083, 42.1321
2.42, 4, 35.8183, 49.1273, -14.4872, 97.5872, -54.724, 42.123
2.423, 4, 35.8177, 49.1321, -14.4889, 97.5874, -54.7397, 42.114
2.428, 4, 35.8171, 49.1369, -14.4906, 97.5876, -54.7554, 42.1049
2.432, 4, 35.8166, 49.1417, -14.4924, 97.5878, -54.7711, 42.0958
2.436, 4, 35.816, 49.1465, -14.4941, 97.5879, -54.7868, 42.0868
2.439, 4, 35.8154, 49.1512, -14.4958, 97.5881, -54.8025, 42.0777
2.444, 4, 35.8149, 49.156, -14.4975, 97.5883, -54.8182, 42.0687
2.448, 4, 35.8143, 49.1608, -14.4993, 97.5884, -54.834, 42.0596
2.452, 4, 35.8137, 49.1656, -14.501, 97.5886, -54.8497, 42.0506
2.456, 4, 35.8131, 49.1704, -14.5027, 97.5887, -54.8654, 42.0415
2.459, 4, 35.8125, 49.1752, -14.5044, 97.5888, -54.8811, 42.0325
2.464, 4, 35.812, 49.18, -14.5061, 97.589, -54.8968, 42.0235
2.468, 4, 35.8114, 49.1847, -14.5078, 97.5891, -54.9125, 42.0144
2.472, 4, 35.8108, 49.1895, -14.5095, 97.5892, -54.9282, 42.0054
2.476, 4, 35.8102, 49.1943, -14.5112, 97.5894, -54.9439, 41.9964
2.479, 4, 35.8096, 49.1991, -14.5129, 97.5895, -54.9596, 41.9874
2.484, 4, 35.8091, 49.2038, -14.5146, 97.5896, -54.9753, 41.9784
2.488, 4, 35.8085, 49.2086, -14.5163, 97.5897, -54.991, 41.9693
2.492, 4, 35.8079, 49.2134, -14.518, 97.5898, -55.0067, 41.9603
2.495, 4, 35.8073, 49.2182, -14.5197, 97.5899, -55.0224, 41.9513
2.5, 4, 35.8067, 49.2229, -14.5213, 97.59, -55.0381, 41.9423
2.504, 4, 35.8061, 49.2277, -14.523, 97.5901, -55.0538, 41.9333
2.508, 4, 35.8055, 49.2325, -14.5247, 97.5902, -55.0695, 41.9243
2.512, 4, 35.805, 49.2372, -14.5264, 97.5902, -55.0852, 41.9153
2.515, 4, 35.8044, 49.242, -14.528, 97.5903, -55.1009, 41.9063
2.52, 4, 35.8038, 49.2467, -14.5297, 97.5904, -55.1166, 41.8973
2.524, 4, 35.8032, 49.2515, -14.5314, 97.5905, -55.1323, 41.8884
2.528, 4, 35.8026, 49.2563, -14.533, 97.5905, -55.1479, 41.8794
2.531, 4, 35.802, 49.261, -14.5347, 97.5906, -55.1636, 41.8704
2.536, 4, 35.8014, 49.2658, -14.5363, 97.5906, -55.1793, 41.8614
2.54, 4, 35.8008, 49.2705, -14.538, 97.5907, -55.195, 41.8525
2.544, 4, 35.8002, 49.2753, -14.5396, 97.5907, -55.2107, 41.8435
2.548, 4, 35.7996, 49.28, -14.5413, 97.5908, -55.2264, 41.8345
2.551, 4, 35.799, 49.2848, -14.5429, 97.5908, -55.2421, 41.8256
2.556, 4, 35.7984, 49.2895, -14.5446, 97.5908, -55.2578, 41.8166
2.56, 4, 35.7978, 49.2943, -14.5462, 97.5908, -55.2734, 41.8077
2.564, 4, 35.7972, 49.299, -14.5478, 97.5909, -55.2891, 41.7987
2.568, 4, 35.7966, 49.3038, -14.5495, 97.5909, -55.3048, 41.7898
2.571, 4, 35.796, 49.3085, -14.5511, 97.5909, -55.3205, 41.7808
2.576, 4, 35.7954, 49.3133, -14.5527, 97.5909, -55.3362, 41.7719
2.58, 4, 35.7948, 49.318, -14.5544, 97.5909, -55.3519, 41.7629
2.584, 4, 35.7942, 49.3227, -14.556, 97.5909, -55.3675, 41.754
2.587, 4, 35.7936, 49.3275, -14.5576, 97.5909, -55.3832, 41.7451
2.592, 4, 35.793, 49.3322, -14.5592, 97.5909, -55.3989, 41.7361
2.596, 4, 35.7924, 49.3369, -14.5608, 97.5909, -55.4146, 41.7272
2.6, 4, 35.7918, 49.3417, -14.5624, 97.5908, -55.4303, 41.7183
2.604, 4, 35.7911, 49.3464, -14.564, 97.5908, -55.4459, 41.7094
2.607, 4, 35.7905, 49.3511, -14.5656, 97.5908, -55.4616, 41.7005
2.612, 4, 35.7899, 49.3559, -14.5672, 97.5907, -55.4773, 41.6916
2.616, 4, 35.7893, 49.3606, -14.5688, 97.5907, -55.4929, 41.6826
2.62, 4, 35.7887, 49.3653, -14.5704, 97.5907, -55.5086, 41.6737
2.624, 4, 35.7881, 49.37, -14.572, 97.5906, -55.5243, 41.6648
2.627, 4, 35.7875, 49.3747, -14.5736, 97.5906, -55.54, 41.6559
2.632, 4, 35.7868, 49.3795, -14.5752, 97.5905, -55.5556, 41.647
2.636, 4, 35.7862, 49.3842, -14.5768, 97.5904, -55.5713, 41.6381
2.64, 4, 35.7856, 49.3889, -14.5784, 97.5904, -55.587, 41.6293
2.643, 4, 35.785, 49.3936, -14.58, 97.5903, -55.6026, 41.6204
2.648, 4, 35.7844, 49.3983, -14.5815, 97.5902, -55.6183, 41.6115
2.652, 4, 35.7838, 49.403, -14.5831, 97.5901, -55.634, 41.6026
2.656, 4, 35.7831, 49.4078, -14.5847, 97.59, -55.6496, 41.5937
2.66, 4, 35.7825, 49.4125, -14.5862, 97.59, -55.6653, 41.5849
2.663, 4, 35.7819, 49.4172, -14.5878, 97.5899, -55.681, 41.576
2.668, 4, 35.7813, 49.4219, -14.5894, 97.5898, -55.6966, 41.5671
2.672, 4, 35.7806, 49.4266, -14.5909, 97.5897, -55.7123, 41.5583
2.676, 4, 35.78, 49.4313, -14.5925, 97.5896, -55.7279, 41.5494
2.679, 4, 35.7794, 49.436, -14.594, 97.5895, -55.7436, 41.5406
2.684, 4, 35.7788, 49.4407, -14.5956, 97.5893, -55.7593, 41.5317
2.688, 4, 35.7781, 49.4454, -14.5971, 97.5892, -55.7749, 41.5228
2.692, 4, 35.7775, 49.4501, -14.5987, 97.5891, -55.7906, 41.514
2.696, 4, 35.7769, 49.4548, -14.6002, 97.589, -55.8062, 41.5052
2.699, 4, 35.7762, 49.4595, -14.6018, 97.5888, -55.8219, 41.4963
2.704, 4, 35.7756, 49.4642, -14.6033, 97.5887, -55.8375, 41.4875
2.708, 4, 35.775, 49.4689, -14.6048, 97.5885, -55.8532, 41.4786
2.712, 4, 35.7743, 49.4735, -14.6064, 97.5884, -55.8688, 41.4698
2.716, 4, 35.7737, 49.4782, -14.6079, 97.5882, -55.8845, 41.461
2.719, 4, 35.7731, 49.4829, -14.6094, 97.5881, -55.9001, 41.4522
2.724, 4, 35.7724, 49.4876, -14.6109, 97.5879, -55.9158, 41.4433
2.728, 4, 35.7718, 49.4923, -14.6125, 97.5878, -55.9314, 41.4345
2.732, 4, 35.7711, 49.497, -14.614, 97.5876, -55.9471, 41.4257
2.735, 4, 35.7705, 49.5017, -14.6155, 97.5874, -55.9627, 41.4169
2.74, 4, 35.7699, 49.5063, -14.617, 97.5872, -55.9784, 41.4081
2.744, 4, 35.7692, 49.511, -14.6185, 97.5871, -55.994, 41.3993
2.748, 4, 35.7686, 49.5157, -14.62, 97.5869, -56.0097, 41.3905
2.752, 4, 35.7679, 49.5204, -14.6215, 97.5867, -56.0253, 41.3817
2.755, 4, 35.7673, 49.525, -14.623, 97.5865, -56.041, 41.3729
2.76, 4, 35.7666, 49.5297, -14.6245, 97.5863, -56.0566, 41.3641
2.764, 4, 35.766, 49.5344, -14.626, 97.5861, -56.0722, 41.3553
2.768, 4, 35.7654, 49.539, -14.6275, 97.5859, -56.0879, 41.3465
2.772, 4, 35.7647, 49.5437, -14.629, 97.5857, -56.1035, 41.3377
2.775, 4, 35.7641, 49.5484, -14.6305, 97.5854, -56.1192, 41.3289
2.78, 4, 35.7634, 49.553, -14.632, 97.5852, -56.1348, 41.3201
2.784, 4, 35.7628, 49.5577, -14.6334, 97.585, -56.1504, 41.3114
2.788, 4, 35.7621, 49.5624, -14.6349, 97.5848, -56.1661, 41.3026
2.791, 4, 35.7615, 49.567, -14.6364, 97.5845, -56.1817, 41.2938
2.796, 4, 35.7608, 49.5717, -14.6379, 97.5843, -56.1973, 41.2851
2.8, 4, 35.7602, 49.5763, -14.6393, 97.584, -56.213, 41.2763
2.804, 4, 35.7595, 49.581, -14.6408, 97.5838, -56.2286, 41.2675
2.808, 4, 35.7588, 49.5856, -14.6422, 97.5835, -56.2442, 41.2588
2.811, 4, 35.7582, 49.5903, -14.6437, 97.5833, -56.2599, 41.25
2.816, 4, 35.7575, 49.5949, -14.6452, 97.583, -56.2755, 41.2413
2.82, 4, 35.7569, 49.5996, -14.6466, 97.5827, -56.2911, 41.2325
2.824, 4, 35.7562, 49.6042, -14.6481, 97.5825, -56.3068, 41.2238
2.828, 4, 35.7556, 49.6089, -14.6495, 97.5822, -56.3224, 41.215
2.831, 4, 35.7549, 49.6135, -14.651, 97.5819, -56.338, 41.2063
2.836, 4, 35.7542, 49.6182, -14.6524, 97.5816, -56.3536, 41.1976
2.84, 4, 35.7536, 49.6228, -14.6538, 97.5814, -56.3693, 41.1888
2.844, 4, 35.7529, 49.6274, -14.6553, 97.5811, -56.3849, 41.1801
2.847, 4, 35.7522, 49.6321, -14.6567, 97.5808, -56.4005, 41.1714
2.852, 4, 35.7516, 49.6367, -14.6581, 97.5805, -56.4161, 41.1627
2.856, 4, 35.7509, 49.6414, -14.6596, 97.5802, -56.4317, 41.1539
2.86, 4, 35.7502, 49.646, -14.661, 97.5798, -56.4474, 41.1452
2.864, 4, 35.7496, 49.6506, -14.6624, 97.5795, -56.463, 41.1365
2.867, 4, 35.7489, 49.6553, -14.6638, 97.5792, -56.4786, 41.1278
2.872, 4, 35.7482, 49.6599, -14.6653, 97.5789, -56.4942, 41.1191
2.876, 4, 35.7476, 49.6645, -14.6667, 97.5786, -56.5098, 41.1104
2.88, 4, 35.7469, 49.6691, -14.6681, 97.5782, -56.5255, 41.1017
2.883, 4, 35.7462, 49.6738, -14.6695, 97.5779, -56.5411, 41.093
2.888, 4, 35.7455, 49.6784, -14.6709, 97.5776, -56.5567, 41.0843
2.892, 4, 35.7449, 49.683, -14.6723, 97.5772, -56.5723, 41.0756
2.896, 4, 35.7442, 49.6876, -14.6737, 97.5769, -56.5879, 41.0669
2.9, 4, 35.7435, 49.6922, -14.6751, 97.5765, -56.6035, 41.0582
2.903, 4, 35.7428, 49.6969, -14.6765, 97.5761, -56.6191, 41.0495
2.908, 4, 35.7422, 49.7015, -14.6779, 97.5758, -56.6347, 41.0409
2.912, 4, 35.7415, 49.7061, -14.6793, 97.5754, -56.6503, 41.0322
2.916, 4, 35.7408, 49.7107, -14.6807, 97.5751, -56.666, 41.0235
2.92, 4, 35.7401, 49.7153, -14.682, 97.5747, -56.6816, 41.0148
2.923, 4, 35.7394, 49.7199, -14.6834, 97.5743, -56.6972, 41.0062
2.928, 4, 35.7388, 49.7245, -14.6848, 97.5739, -56.7128, 40.9975
2.932, 4, 35.7381, 49.7291, -14.6862, 97.5735, -56.7284, 40.9888
2.936, 4, 35.7374, 49.7337, -14.6875, 97.5731, -56.744, 40.9802
2.939, 4, 35.7367, 49.7383, -14.6889, 97.5727, -56.7596, 40.9715
2.944, 4, 35.736, 49.7429, -14.6903, 97.5723, -56.7752, 40.9629
2.948, 4, 35.7353, 49.7475, -14.6916, 97.5719, -56.7908, 40.9542
2.952, 4, 35.7347, 49.7521, -14.693, 97.5715, -56.8064, 40.9456
2.956, 4, 35.734, 49.7567, -14.6944, 97.5711, -56.822, 40.9369
2.959, 4, 35.7333, 49.7613, -14.6957, 97.5707, -56.8376, 40.9283
2.964, 4, 35.7326, 49.7659, -14.6971, 97.5703, -56.8532, 40.9196
2.968, 4, 35.7319, 49.7705, -14.6984, 97.5699, -56.8688, 40.911
2.972, 4, 35.7312, 49.7751, -14.6997, 97.5694, -56.8844, 40.9024
2.976, 4, 35.7305, 49.7797, -14.7011, 97.569, -56.9, 40.8937
2.98, 4, 35.7298, 49.7843, -14.7024, 97.5686, -56.9156, 40.8851
2.984, 4, 35.7291, 49.7889, -14.7038, 97.5681, -56.9312, 40.8765
2.988, 4, 35.7284, 49.7934, -14.7051, 97.5677, -56.9468, 40.8679
2.992, 4, 35.7277, 49.798, -14.7064, 97.5672, -56.9623, 40.8592
2.995, 4, 35.727, 49.8026, -14.7078, 97.5667, -56.9779, 40.8506
3, 4, 35.7263, 49.8072, -14.7091, 97.5663, -56.9935, 40.842
3.004, 4, 35.7256, 49.8118, -14.7104, 97.5658, -57.0091, 40.8334
3.008, 4, 35.7249, 49.8163, -14.7117, 97.5654, -57.0247, 40.8248
3.012, 4, 35.7242, 49.8209, -14.713, 97.5649, -57.0403, 40.8162
3.015, 4, 35.7235, 49.8255, -14.7144, 97.5644, -57.0559, 40.8076
3.02, 4, 35.7228, 49.8301, -14.7157, 97.5639, -57.0715, 40.799
3.024, 4, 35.7221, 49.8346, -14.717, 97.5634, -57.087, 40.7904
3.028, 4, 35.7214, 49.8392, -14.7183, 97.563, -57.1026, 40.7818
3.031, 4, 35.7207, 49.8438, -14.7196, 97.5625, -57.1182, 40.7732
3.036, 4, 35.72, 49.8483, -14.7209, 97.562, -57.1338, 40.7646
3.04, 4, 35.7193, 49.8529, -14.7222, 97.5615, -57.1494, 40.756
3.044, 4, 35.7186, 49.8574, -14.7235, 97.561, -57.165, 40.7475
3.048, 4, 35.7179, 49.862, -14.7248, 97.5604, -57.1805, 40.7389
3.051, 4, 35.7172, 49.8666, -14.7261, 97.5599, -57.1961, 40.7303
3.056, 4, 35.7165, 49.8711, -14.7273, 97.5594, -57.2117, 40.7217
3.06, 4, 35.7158, 49.8757, -14.7286, 97.5589, -57.2273, 40.7132
3.064, 4, 35.7151, 49.8802, -14.7299, 97.5584, -57.2428, 40.7046
3.068, 4, 35.7144, 49.8848, -14.7312, 97.5578, -57.2584, 40.696
3.071, 4, 35.7136, 49.8893, -14.7325, 97.5573, -57.274, 40.6875
3.076, 4, 35.7129, 49.8939, -14.7337, 97.5568, -57.2896, 40.6789
3.08, 4, 35.7122, 49.8984, -14.735, 97.5562, -57.3051, 40.6704
3.084, 4, 35.7115, 49.903, -14.7363, 97.5557, -57.3207, 40.6618
3.087, 4, 35.7108, 49.9075, -14.7375, 97.5551, -57.3363, 40.6533
3.092, 4, 35.7101, 49.9121, -14.7388, 97.5546, -57.3519, 40.6447
3.096, 4, 35.7093, 49.9166, -14.74, 97.554, -57.3674, 40.6362
3.1, 4, 35.7086, 49.9212, -14.7413, 97.5535, -57.383, 40.6276
3.104, 4, 35.7079, 49.9257, -14.7425, 97.5529, -57.3986, 40.6191
3.107, 4, 35.7072, 49.9302, -14.7438, 97.5523, -57.4141, 40.6105
3.112, 4, 35.7065, 49.9348, -14.745, 97.5517, -57.4297, 40.602
3.116, 4, 35.7057, 49.9393, -14.7463, 97.5512, -57.4453, 40.5935
3.12, 4, 35.705, 49.9438, -14.7475, 97.5506, -57.4608, 40.585
3.124, 4, 35.7043, 49.9484, -14.7487, 97.55, -57.4764, 40.5764
3.128, 4, 35.7036, 49.9529, -14.75, 97.5494, -57.4919, 40.5679
3.132, 4, 35.7028, 49.9574, -14.7512, 97.5488, -57.5075, 40.5594
3.136, 4, 35.7021, 49.9619, -14.7524, 97.5482, -57.5231, 40.5509
3.14, 4, 35.7014, 49.9665, -14.7537, 97.5476, -57.5386, 40.5424
3.143, 4, 35.7007, 49.971, -14.7549, 97.547, -57.5542, 40.5339
3.148, 4, 35.6999, 49.9755, -14.7561, 97.5464, -57.5697, 40.5254
3.152, 4, 35.6992, 49.98, -14.7573, 97.5457, -57.5853, 40.5168
3.156, 4, 35.6985, 49.9845, -14.7585, 97.5451, -57.6008, 40.5083
3.16, 4, 35.6977, 49.9891, -14.7597, 97.5445, -57.6164, 40.4998
3.163, 4, 35.697, 49.9936, -14.761, 97.5439, -57.632, 40.4913
3.168, 4, 35.6963, 49.9981, -14.7622, 97.5432, -57.6475, 40.4829
3.172, 4, 35.6955, 50.0026, -14.7634, 97.5426, -57.6631, 40.4744
3.176, 4, 35.6948, 50.0071, -14.7646, 97.542, -57.6786, 40.4659
3.179, 4, 35.6941, 50.0116, -14.7658, 97.5413, -57.6942, 40.4574
3.184, 4, 35.6933, 50.0161, -14.7669, 97.5407, -57.7097, 40.4489
3.188, 4, 35.6926, 50.0206, -14.7681, 97.54, -57.7253, 40.4404
3.192, 4, 35.6918, 50.0251, -14.7693, 97.5394, -57.7408, 40.432
3.196, 4, 35.6911, 50.0296, -14.7705, 97.5387, -57.7564, 40.4235
3.199, 4, 35.6904, 50.0341, -14.7717, 97.538, -57.7719, 40.415
3.204, 4, 35.6896, 50.0386, -14.7729, 97.5373, -57.7874, 40.4065
3.208, 4, 35.6889, 50.0431, -14.774, 97.5367, -57.803, 40.3981
3.212, 4, 35.6881, 50.0476, -14.7752, 97.536, -57.8185, 40.3896
3.216, 4, 35.6874, 50.0521, -14.7764, 97.5353, -57.8341, 40.3812
3.22, 4, 35.6866, 50.0566, -14.7776, 97.5346, -57.8496, 40.3727
3.224, 4, 35.6859, 50.0611, -14.7787, 97.5339, -57.8652, 40.3642
3.228, 4, 35.6852, 50.0656, -14.7799, 97.5332, -57.8807, 40.3558
3.232, 4, 35.6844, 50.0701, -14.781, 97.5325, -57.8962, 40.3473
3.235, 4, 35.6837, 50.0746, -14.7822, 97.5318, -57.9118, 40.3389
3.24, 4, 35.6829, 50.0791, -14.7834, 97.5311, -57.9273, 40.3304
3.244, 4, 35.6822, 50.0835, -14.7845, 97.5304, -57.9429, 40.322
3.248, 4, 35.6814, 50.088, -14.7856, 97.5297, -57.9584, 40.3136
3.252, 4, 35.6807, 50.0925, -14.7868, 97.529, -57.9739, 40.3051
3.255, 4, 35.6799, 50.097, -14.7879, 97.5283, -57.9895, 40.2967
3.26, 4, 35.6791, 50.1015, -14.7891, 97.5275, -58.005, 40.2883
3.264, 4, 35.6784, 50.1059, -14.7902, 97.5268, -58.0205, 40.2798
3.268, 4, 35.6776, 50.1104, -14.7913, 97.5261, -58.0361, 40.2714
3.272, 4, 35.6769, 50.1149, -14.7925, 97.5253, -58.0516, 40.263
3.276, 4, 35.6761, 50.1193, -14.7936, 97.5246, -58.0671, 40.2546
3.28, 4, 35.6754, 50.1238, -14.7947, 97.5238, -58.0826, 40.2462
3.284, 4, 35.6746, 50.1283, -14.7958, 97.5231, -58.0982, 40.2378
3.288, 4, 35.6738, 50.1327, -14.797, 97.5223, -58.1137, 40.2293
3.291, 4, 35.6731, 50.1372, -14.7981, 97.5216, -58.1292, 40.2209
3.296, 4, 35.6723, 50.1417, -14.7992, 97.5208, -58.1447, 40.2125
3.3, 4, 35.6716, 50.1461, -14.8003, 97.5201, -58.1603, 40.2041
3.304, 4, 35.6708, 50.1506, -14.8014, 97.5193, -58.1758, 40.1957
3.308, 4, 35.67, 50.155, -14.8025, 97.5185, -58.1913, 40.1873
3.312, 4, 35.6693, 50.1595, -14.8036, 97.5177, -58.2068, 40.1789
3.316, 4, 35.6685, 50.164, -14.8047, 97.5169, -58.2224, 40.1705
3.32, 4, 35.6677, 50.1684, -14.8058, 97.5162, -58.2379, 40.1621
3.324, 4, 35.667, 50.1729, -14.8069, 97.5154, -58.2534, 40.1538
3.328, 4, 35.6662, 50.1773, -14.808, 97.5146, -58.2689, 40.1454
3.332, 4, 35.6654, 50.1818, -14.8091, 97.5138, -58.2844, 40.137
3.336, 4, 35.6647, 50.1862, -14.8102, 97.513, -58.2999, 40.1286
3.34, 4, 35.6639, 50.1907, -14.8112, 97.5122, -58.3155, 40.1202
3.344, 4, 35.6631, 50.1951, -14.8123, 97.5114, -58.331, 40.1119
3.347, 4, 35.6624, 50.1995, -14.8134, 97.5105, -58.3465, 40.1035
3.352, 4, 35.6616, 50.204, -14.8145, 97.5097, -58.362, 40.0951
3.356, 4, 35.6608, 50.2084, -14.8155, 97.5089, -58.3775, 40.0868
3.36, 4, 35.66, 50.2128, -14.8166, 97.5081, -58.393, 40.0784
3.364, 4, 35.6593, 50.2173, -14.8177, 97.5072, -58.4085, 40.07
3.368, 4, 35.6585, 50.2217, -14.8187, 97.5064, -58.424, 40.0617
3.372, 4, 35.6577, 50.2262, -14.8198, 97.5056, -58.4396, 40.0533
3.376, 4, 35.6569, 50.2306, -14.8208, 97.5047, -58.4551, 40.045
3.38, 4, 35.6561, 50.235, -14.8219, 97.5039, -58.4706, 40.0366
3.383, 4, 35.6554, 50.2394, -14.8229, 97.503, -58.4861, 40.0283
3.388, 4, 35.6546, 50.2439, -14.824, 97.5022, -58.5016, 40.0199
3.392, 4, 35.6538, 50.2483, -14.825, 97.5013, -58.5171, 40.0116
3.396, 4, 35.653, 50.2527, -14.8261, 97.5005, -58.5326, 40.0033
3.4, 4, 35.6522, 50.2571, -14.8271, 97.4996, -58.5481, 39.9949
3.403, 4, 35.6514, 50.2615, -14.8281, 97.4987, -58.5636, 39.9866
3.408, 4, 35.6507, 50.266, -14.8292, 97.4978, -58.5791, 39.9782
3.412, 4, 35.6499, 50.2704, -14.8302, 97.497, -58.5946, 39.9699
3.416, 4, 35.6491, 50.2748, -14.8312, 97.4961, -58.6101, 39.9616
3.42, 4, 35.6483, 50.2792, -14.8322, 97.4952, -58.6256, 39.9533
3.424, 4, 35.6475, 50.2836, -14.8333, 97.4943, -58.6411, 39.9449
3.428, 4, 35.6467, 50.288, -14.8343, 97.4934, -58.6566, 39.9366
3.432, 4, 35.6459, 50.2924, -14.8353, 97.4925, -58.6721, 39.9283
3.436, 4, 35.6451, 50.2968, -14.8363, 97.4916, -58.6876, 39.92
3.439, 4, 35.6444, 50.3012, -14.8373, 97.4907, -58.7031, 39.9117
3.444, 4, 35.6436, 50.3056, -14.8383, 97.4898, -58.7185, 39.9034
3.448, 4, 35.6428, 50.31, -14.8393, 97.4889, -58.734, 39.8951
3.452, 4, 35.642, 50.3144, -14.8403, 97.488, -58.7495, 39.8868
3.456, 4, 35.6412, 50.3188, -14.8413, 97.4871, -58.765, 39.8785
3.46, 4, 35.6404, 50.3232, -14.8423, 97.4861, -58.7805, 39.8702
3.464, 4, 35.6396, 50.3276, -14.8433, 97.4852, -58.796, 39.8619
3.468, 4, 35.6388, 50.332, -14.8443, 97.4843, -58.8115, 39.8536
3.472, 4, 35.638, 50.3364, -14.8453, 97.4833, -58.827, 39.8453
3.476, 4, 35.6372, 50.3408, -14.8463, 97.4824, -58.8425, 39.837
3.48, 4, 35.6364, 50.3452, -14.8472, 97.4815, -58.8579, 39.8287
3.484, 4, 35.6356, 50.3496, -14.8482, 97.4805, -58.8734, 39.8204
3.488, 4, 35.6348, 50.354, -14.8492, 97.4796, -58.8889, 39.8122
3.492, 4, 35.634, 50.3583, -14.8502, 97.4786, -58.9044, 39.8039
3.495, 4, 35.6332, 50.3627, -14.8511, 97.4776, -58.9199, 39.7956
3.5, 4, 35.6324, 50.3671, -14.8521, 97.4767, -58.9353, 39.7873
3.504, 4, 35.6316, 50.3715, -14.853, 97.4757, -58.9508, 39.7791
3.508, 4, 35.6308, 50.3759, -14.854, 97.4747, -58.9663, 39.7708
3.512, 4, 35.63, 50.3802, -14.855, 97.4738, -58.9818, 39.7625
3.516, 4, 35.6291, 50.3846, -14.8559, 97.4728, -58.9973, 39.7543
3.52, 4, 35.6283, 50.389, -14.8569, 97.4718, -59.0127, 39.746
3.524, 4, 35.6275, 50.3934, -14.8578, 97.4708, -59.0282, 39.7378
3.528, 4, 35.6267, 50.3977, -14.8588, 97.4698, -59.0437, 39.7295
3.531, 4, 35.6259, 50.4021, -14.8597, 97.4688, -59.0592, 39.7213
3.536, 4, 35.6251, 50.4065, -14.8606, 97.4678, -59.0746, 39.713
3.54, 4, 35.6243, 50.4108, -14.8616, 97.4668, -59.0901, 39.7048
3.544, 4, 35.6235, 50.4152, -14.8625, 97.4658, -59.1056, 39.6965
3.548, 4, 35.6226, 50.4195, -14.8634, 97.4648, -59.121, 39.6883
3.552, 4, 35.6218, 50.4239, -14.8644, 97.4638, -59.1365, 39.68
3.556, 4, 35.621, 50.4283, -14.8653, 97.4628, -59.152, 39.6718
3.56, 4, 35.6202, 50.4326, -14.8662, 97.4618, -59.1674, 39.6636
3.564, 4, 35.6194, 50.437, -14.8671, 97.4607, -59.1829, 39.6553
3.568, 4, 35.6186, 50.4413, -14.868, 97.4597, -59.1984, 39.6471
3.572, 4, 35.6177, 50.4457, -14.8689, 97.4587, -59.2138, 39.6389
3.576, 4, 35.6169, 50.45, -14.8699, 97.4576, -59.2293, 39.6307
3.58, 4, 35.6161, 50.4544, -14.8708, 97.4566, -59.2448, 39.6224
3.584, 4, 35.6153, 50.4587, -14.8717, 97.4556, -59.2602, 39.6142
3.587, 4, 35.6145, 50.4631, -14.8726, 97.4545, -59.2757, 39.606
3.592, 4, 35.6136, 50.4674, -14.8735, 97.4535, -59.2911, 39.5978
3.596, 4, 35.6128, 50.4717, -14.8744, 97.4524, -59.3066, 39.5896
3.6, 4, 35.612, 50.4761, -14.8753, 97.4514, -59.3221, 39.5814
3.604, 4, 35.6112, 50.4804, -14.8761, 97.4503, -59.3375, 39.5732
3.608, 4, 35.6103, 50.4847, -14.877, 97.4492, -59.353, 39.5649
3.612, 4, 35.6095, 50.4891, -14.8779, 97.4482, -59.3684, 39.5567
3.616, 4, 35.6087, 50.4934, -14.8788, 97.4471, -59.3839, 39.5485
3.62, 4, 35.6078, 50.4977, -14.8797, 97.446, -59.3993, 39.5403
3.624, 4, 35.607, 50.5021, -14.8805, 97.4449, -59.4148, 39.5322
3.628, 4, 35.6062, 50.5064, -14.8814, 97.4438, -59.4302, 39.524
3.632, 4, 35.6053, 50.5107, -14.8823, 97.4428, -59.4457, 39.5158
3.636, 4, 35.6045, 50.515, -14.8831, 97.4417, -59.4611, 39.5076
3.64, 4, 35.6037, 50.5194, -14.884, 97.4406, -59.4766, 39.4994
3.644, 4, 35.6028, 50.5237, -14.8849, 97.4395, -59.492, 39.4912
3.648, 4, 35.602, 50.528, -14.8857, 97.4384, -59.5075, 39.483
3.652, 4, 35.6012, 50.5323, -14.8866, 97.4373, -59.5229, 39.4749
3.656, 4, 35.6003, 50.5366, -14.8874, 97.4361, -59.5384, 39.4667
3.66, 4, 35.5995, 50.541, -14.8883, 97.435, -59.5538, 39.4585
3.664, 4, 35.5987, 50.5453, -14.8891, 97.4339, -59.5692, 39.4503
3.668, 4, 35.5978, 50.5496, -14.89, 97.4328, -59.5847, 39.4422
3.672, 4, 35.597, 50.5539, -14.8908, 97.4317, -59.6001, 39.434
3.676, 4, 35.5961, 50.5582, -14.8916, 97.4305, -59.6156, 39.4258
3.679, 4, 35.5953, 50.5625, -14.8925, 97.4294, -59.631, 39.4177
3.684, 4, 35.5944, 50.5668, -14.8933, 97.4283, -59.6465, 39.4095
3.688, 4, 35.5936, 50.5711, -14.8941, 97.4271, -59.6619, 39.4014
3.692, 4, 35.5928, 50.5754, -14.895, 97.426, -59.6773, 39.3932
3.696, 4, 35.5919, 50.5797, -14.8958, 97.4248, -59.6928, 39.3851
3.7, 4, 35.5911, 50.584, -14.8966, 97.4237, -59.7082, 39.3769
3.704, 4, 35.5902, 50.5883, -14.8974, 97.4225, -59.7236, 39.3688
3.708, 4, 35.5894, 50.5926, -14.8982, 97.4214, -59.7391, 39.3606
3.712, 4, 35.5885, 50.5969, -14.899, 97.4202, -59.7545, 39.3525
3.716, 4, 35.5877, 50.6012, -14.8998, 97.419, -59.7699, 39.3444
3.72, 4, 35.5868, 50.6055, -14.9006, 97.4179, -59.7854, 39.3362
3.724, 4, 35.586, 50.6098, -14.9014, 97.4167, -59.8008, 39.3281
3.728, 4, 35.5851, 50.614, -14.9022, 97.4155, -59.8162, 39.32
3.732, 4, 35.5843, 50.6183, -14.903, 97.4143, -59.8316, 39.3118
3.735, 4, 35.5834, 50.6226, -14.9038, 97.4131, -59.8471, 39.3037
3.74, 4, 35.5826, 50.6269, -14.9046, 97.4119, -59.8625, 39.2956
3.744, 4, 35.5817, 50.6312, -14.9054, 97.4108, -59.8779, 39.2875
3.748, 4, 35.5808, 50.6354, -14.9062, 97.4096, -59.8933, 39.2793
3.752, 4, 35.58, 50.6397, -14.907, 97.4084, -59.9088, 39.2712
3.756, 4, 35.5791, 50.644, -14.9077, 97.4072, -59.9242, 39.2631
3.76, 4, 35.5783, 50.6483, -14.9085, 97.406, -59.9396, 39.255
3.764, 4, 35.5774, 50.6525, -14.9093, 97.4047, -59.955, 39.2469
3.768, 4, 35.5765, 50.6568, -14.9101, 97.4035, -59.9705, 39.2388
3.772, 4, 35.5757, 50.6611, -14.9108, 97.4023, -59.9859, 39.2307
3.776, 4, 35.5748, 50.6653, -14.9116, 97.4011, -60.0013, 39.2226
3.78, 4, 35.574, 50.6696, -14.9124, 97.3999, -60.0167, 39.2145
3.784, 4, 35.5731, 50.6739, -14.9131, 97.3986, -60.0321, 39.2064
3.788, 4, 35.5722, 50.6781, -14.9139, 97.3974, -60.0475, 39.1983
3.792, 4, 35.5714, 50.6824, -14.9146, 97.3962, -60.063, 39.1902
3.796, 4, 35.5705, 50.6866, -14.9154, 97.3949, -60.0784, 39.1821
3.8, 4, 35.5696, 50.6909, -14.9161, 97.3937, -60.0938, 39.174
3.804, 4, 35.5688, 50.6952, -14.9169, 97.3924, -60.1092, 39.1659
3.808, 4, 35.5679, 50.6994, -14.9176, 97.3912, -60.1246, 39.1578
3.812, 4, 35.567, 50.7037, -14.9183, 97.3899, -60.14, 39.1497
3.816, 4, 35.5661, 50.7079, -14.9191, 97.3887, -60.1554, 39.1417
3.82, 4, 35.5653, 50.7122, -14.9198, 97.3874, -60.1708, 39.1336
3.824, 4, 35.5644, 50.7164, -14.9205, 97.3861, -60.1862, 39.1255
3.828, 4, 35.5635, 50.7206, -14.9212, 97.3849, -60.2016, 39.1174
3.832, 4, 35.5627, 50.7249, -14.922, 97.3836, -60.2171, 39.1094
3.836, 4, 35.5618, 50.7291, -14.9227, 97.3823, -60.2325, 39.1013
3.84, 4, 35.5609, 50.7334, -14.9234, 97.381, -60.2479, 39.0932
3.844, 4, 35.56, 50.7376, -14.9241, 97.3797, -60.2633, 39.0852
3.848, 4, 35.5591, 50.7418, -14.9248, 97.3785, -60.2787, 39.0771
3.852, 4, 35.5583, 50.7461, -14.9255, 97.3772, -60.2941, 39.0691
3.856, 4, 35.5574, 50.7503, -14.9262, 97.3759, -60.3095, 39.061
3.86, 4, 35.5565, 50.7545, -14.9269, 97.3746, -60.3249, 39.0529
3.864, 4, 35.5556, 50.7588, -14.9276, 97.3733, -60.3403, 39.0449
3.868, 4, 35.5547, 50.763, -14.9283, 97.372, -60.3557, 39.0368
3.872, 4, 35.5539, 50.7672, -14.929, 97.3707, -60.3711, 39.0288
3.876, 4, 35.553, 50.7714, -14.9297, 97.3693, -60.3865, 39.0208
3.88, 4, 35.5521, 50.7757, -14.9304, 97.368, -60.4018, 39.0127
3.884, 4, 35.5512, 50.7799, -14.9311, 97.3667, -60.4172, 39.0047
3.888, 4, 35.5503, 50.7841, -14.9318, 97.3654, -60.4326, 38.9966
3.892, 4, 35.5494, 50.7883, -14.9324, 97.3641, -60.448, 38.9886
3.896, 4, 35.5485, 50.7925, -14.9331, 97.3627, -60.4634, 38.9806
3.9, 4, 35.5477, 50.7967, -14.9338, 97.3614, -60.4788, 38.9725
3.904, 4, 35.5468, 50.801, -14.9344, 97.36, -60.4942, 38.9645
3.908, 4, 35.5459, 50.8052, -14.9351, 97.3587, -60.5096, 38.9565
3.912, 4, 35.545, 50.8094, -14.9358, 97.3574, -60.525, 38.9485
3.916, 4, 35.5441, 50.8136, -14.9364, 97.356, -60.5404, 38.9404
3.92, 4, 35.5432, 50.8178, -14.9371, 97.3547, -60.5557, 38.9324
3.924, 4, 35.5423, 50.822, -14.9377, 97.3533, -60.5711, 38.9244
3.928, 4, 35.5414, 50.8262, -14.9384, 97.3519, -60.5865, 38.9164
3.932, 4, 35.5405, 50.8304, -14.939, 97.3506, -60.6019, 38.9084
3.936, 4, 35.5396, 50.8346, -14.9397, 97.3492, -60.6173, 38.9004
3.94, 4, 35.5387, 50.8388, -14.9403, 97.3478, -60.6327, 38.8924
3.944, 4, 35.5378, 50.843, -14.941, 97.3465, -60.648, 38.8843
3.948, 4, 35.5369, 50.8472, -14.9416, 97.3451, -60.6634, 38.8763
3.952, 4, 35.536, 50.8514, -14.9422, 97.3437, -60.6788, 38.8683
3.956, 4, 35.5351, 50.8556, -14.9429, 97.3423, -60.6942, 38.8603
3.96, 4, 35.5342, 50.8597, -14.9435, 97.3409, -60.7095, 38.8523
3.964, 4, 35.5333, 50.8639, -14.9441, 97.3395, -60.7249, 38.8444
3.968, 4, 35.5324, 50.8681, -14.9447, 97.3381, -60.7403, 38.8364
3.972, 4, 35.5315, 50.8723, -14.9454, 97.3367, -60.7557, 38.8284
3.976, 4, 35.5306, 50.8765, -14.946, 97.3353, -60.771, 38.8204
3.98, 4, 35.5297, 50.8807, -14.9466, 97.3339, -60.7864, 38.8124
3.984, 4, 35.5288, 50.8848, -14.9472, 97.3325, -60.8018, 38.8044
3.988, 4, 35.5279, 50.889, -14.9478, 97.3311, -60.8172, 38.7964
3.992, 4, 35.527, 50.8932, -14.9484, 97.3297, -60.8325, 38.7885
3.996, 4, 35.5261, 50.8974, -14.949, 97.3283, -60.8479, 38.7805
3.999, 4, 35.5252, 50.9015, -14.9496, 97.3269, -60.8633, 38.7725
4.004, 4, 35.5243, 50.9057, -14.9502, 97.3254, -60.8786, 38.7645
4.008, 4, 35.5234, 50.9099, -14.9508, 97.324, -60.894, 38.7566
4.012, 4, 35.5224, 50.914, -14.9514, 97.3226, -60.9094, 38.7486
4.016, 4, 35.5215, 50.9182, -14.952, 97.3211, -60.9247, 38.7406
4.02, 4, 35.5206, 50.9224, -14.9525, 97.3197, -60.9401, 38.7327
4.024, 4, 35.5197, 50.9265, -14.9531, 97.3182, -60.9554, 38.7247
4.028, 4, 35.5188, 50.9307, -14.9537, 97.3168, -60.9708, 38.7167
4.032, 4, 35.5179, 50.9348, -14.9543, 97.3153, -60.9862, 38.7088
4.036, 4, 35.517, 50.939, -14.9548, 97.3139, -61.0015, 38.7008
4.04, 4, 35.516, 50.9431, -14.9554, 97.3124, -61.0169, 38.6929
4.044, 4, 35.5151, 50.9473, -14.956, 97.311, -61.0322, 38.6849
4.048, 4, 35.5142, 50.9515, -14.9565, 97.3095, -61.0476, 38.677
4.052, 4, 35.5133, 50.9556, -14.9571, 97.308, -61.063, 38.669
4.056, 4, 35.5124, 50.9597, -14.9577, 97.3065, -61.0783, 38.6611
4.06, 4, 35.5114, 50.9639, -14.9582, 97.3051, -61.0937, 38.6532
4.064, 4, 35.5105, 50.968, -14.9588, 97.3036, -61.109, 38.6452
4.068, 4, 35.5096, 50.9722, -14.9593, 97.3021, -61.1244, 38.6373
4.072, 4, 35.5087, 50.9763, -14.9599, 97.3006, -61.1397, 38.6293
4.076, 4, 35.5078, 50.9805, -14.9604, 97.2991, -61.1551, 38.6214
4.08, 4, 35.5068, 50.9846, -14.9609, 97.2976, -61.1704, 38.6135
4.084, 4, 35.5059, 50.9887, -14.9615, 97.2961, -61.1858, 38.6055
4.088, 4, 35.505, 50.9929, -14.962, 97.2946, -61.2011, 38.5976
4.092, 4, 35.504, 50.997, -14.9625, 97.2931, -61.2165, 38.5897
4.096, 4, 35.5031, 51.0011, -14.9631, 97.2916, -61.2318, 38.5818
4.1, 4, 35.5022, 51.0053, -14.9636, 97.2901, -61.2471, 38.5739
4.104, 4, 35.5013, 51.0094, -14.9641, 97.2886, -61.2625, 38.5659
4.108, 4, 35.5003, 51.0135, -14.9646, 97.2871, -61.2778, 38.558
4.112, 4, 35.4994, 51.0176, -14.9651, 97.2856, -61.2932, 38.5501
4.116, 4, 35.4985, 51.0217, -14.9656, 97.284, -61.3085, 38.5422
4.12, 4, 35.4975, 51.0259, -14.9661, 97.2825, -61.3239, 38.5343
4.124, 4, 35.4966, 51.03, -14.9667, 97.281, -61.3392, 38.5264
4.128, 4, 35.4957, 51.0341, -14.9672, 97.2794, -61.3545, 38.5185
4.132, 4, 35.4947, 51.0382, -14.9677, 97.2779, -61.3699, 38.5106
4.136, 4, 35.4938, 51.0423, -14.9682, 97.2764, -61.3852, 38.5027
4.14, 4, 35.4928, 51.0464, -14.9686, 97.2748, -61.4005, 38.4948
4.144, 4, 35.4919, 51.0505, -14.9691, 97.2732, -61.4159, 38.4869
4.148, 4, 35.491, 51.0546, -14.9696, 97.2717, -61.4312, 38.479
4.152, 4, 35.49, 51.0588, -14.9701, 97.2701, -61.4465, 38.4711
4.156, 4, 35.4891, 51.0629, -14.9706, 97.2686, -61.4619, 38.4632
4.16, 4, 35.4881, 51.067, -14.9711, 97.267, -61.4772, 38.4553
4.164, 4, 35.4872, 51.0711, -14.9715, 97.2654, -61.4925, 38.4474
4.168, 4, 35.4863, 51.0752, -14.972, 97.2639, -61.5079, 38.4395
4.172, 4, 35.4853, 51.0793, -14.9725, 97.2623, -61.5232, 38.4317
4.176, 4, 35.4844, 51.0834, -14.973, 97.2607, -61.5385, 38.4238
4.18, 4, 35.4834, 51.0874, -14.9734, 97.2591, -61.5538, 38.4159
4.184, 4, 35.4825, 51.0915, -14.9739, 97.2576, -61.5692, 38.408
4.188, 4, 35.4815, 51.0956, -14.9743, 97.256, -61.5845, 38.4002
4.192, 4, 35.4806, 51.0997, -14.9748, 97.2544, -61.5998, 38.3923
4.196, 4, 35.4796, 51.1038, -14.9752, 97.2528, -61.6151, 38.3844
4.2, 4, 35.4787, 51.1079, -14.9757, 97.2512, -61.6305, 38.3766
4.204, 4, 35.4777, 51.112, -14.9761, 97.2496, -61.6458, 38.3687
4.208, 4, 35.4768, 51.1161, -14.9766, 97.248, -61.6611, 38.3608
4.212, 4, 35.4758, 51.1201, -14.977, 97.2464, -61.6764, 38.353
4.216, 4, 35.4749, 51.1242, -14.9775, 97.2448, -61.6917, 38.3451
4.22, 4, 35.4739, 51.1283, -14.9779, 97.2431, -61.7071, 38.3373
4.224, 4, 35.4729, 51.1324, -14.9783, 97.2415, -61.7224, 38.3294
4.228, 4, 35.472, 51.1364, -14.9787, 97.2399, -61.7377, 38.3216
4.232, 4, 35.471, 51.1405, -14.9792, 97.2383, -61.753, 38.3137
4.236, 4, 35.4701, 51.1446, -14.9796, 97.2367, -61.7683, 38.3059
4.24, 4, 35.4691, 51.1486, -14.98, 97.235, -61.7836, 38.298
4.244, 4, 35.4682, 51.1527, -14.9804, 97.2334, -61.7989, 38.2902
4.248, 4, 35.4672, 51.1568, -14.9808, 97.2318, -61.8142, 38.2823
4.252, 4, 35.4662, 51.1608, -14.9812, 97.2301, -61.8296, 38.2745
4.256, 4, 35.4653, 51.1649, -14.9817, 97.2285, -61.8449, 38.2667
4.26, 4, 35.4643, 51.1689, -14.9821, 97.2268, -61.8602, 38.2588
4.264, 4, 35.4634, 51.173, -14.9825, 97.2252, -61.8755, 38.251
4.268, 4, 35.4624, 51.1771, -14.9829, 97.2235, -61.8908, 38.2431
4.272, 4, 35.4614, 51.1811, -14.9833, 97.2218, -61.9061, 38.2353
4.276, 4, 35.4605, 51.1852, -14.9836, 97.2202, -61.9214, 38.2275
4.28, 4, 35.4595, 51.1892, -14.984, 97.2185, -61.9367, 38.2197
4.284, 4, 35.4585, 51.1933, -14.9844, 97.2169, -61.952, 38.2118
4.288, 4, 35.4576, 51.1973, -14.9848, 97.2152, -61.9673, 38.204
4.292, 4, 35.4566, 51.2014, -14.9852, 97.2135, -61.9826, 38.1962
4.296, 4, 35.4556, 51.2054, -14.9856, 97.2118, -61.9979, 38.1884
4.3, 4, 35.4546, 51.2094, -14.9859, 97.2101, -62.0132, 38.1806
4.304, 4, 35.4537, 51.2135, -14.9863, 97.2085, -62.0285, 38.1728
4.308, 4, 35.4527, 51.2175, -14.9867, 97.2068, -62.0438, 38.165
4.312, 4, 35.4517, 51.2216, -14.987, 97.2051, -62.0591, 38.1571
4.316, 4, 35.4508, 51.2256, -14.9874, 97.2034, -62.0744, 38.1493
4.32, 4, 35.4498, 51.2296, -14.9878, 97.2017, -62.0897, 38.1415
4.324, 4, 35.4488, 51.2337, -14.9881, 97.2, -62.105, 38.1337
4.328, 4, 35.4478, 51.2377, -14.9885, 97.1983, -62.1203, 38.1259
4.332, 4, 35.4468, 51.2417, -14.9888, 97.1966, -62.1355, 38.1181
4.336, 4, 35.4459, 51.2457, -14.9892, 97.1948, -62.1508, 38.1103
4.34, 4, 35.4449, 51.2498, -14.9895, 97.1931, -62.1661, 38.1025
4.344, 4, 35.4439, 51.2538, -14.9898, 97.1914, -62.1814, 38.0947
4.348, 4, 35.4429, 51.2578, -14.9902, 97.1897, -62.1967, 38.087
4.352, 4, 35.442, 51.2618, -14.9905, 97.188, -62.212, 38.0792
4.356, 4, 35.441, 51.2658, -14.9908, 97.1862, -62.2273, 38.0714
4.36, 4, 35.44, 51.2698, -14.9912, 97.1845, -62.2426, 38.0636
4.364, 4, 35.439, 51.2739, -14.9915, 97.1828, -62.2578, 38.0558
4.368, 4, 35.438, 51.2779, -14.9918, 97.181, -62.2731, 38.048
4.372, 4, 35.437, 51.2819, -14.9921, 97.1793, -62.2884, 38.0403
4.376, 4, 35.436, 51.2859, -14.9925, 97.1775, -62.3037, 38.0325
4.38, 4, 35.4351, 51.2899, -14.9928, 97.1758, -62.319, 38.0247
4.384, 4, 35.4341, 51.2939, -14.9931, 97.174, -62.3342, 38.0169
4.388, 4, 35.4331, 51.2979, -14.9934, 97.1723, -62.3495, 38.0092
4.392, 4, 35.4321, 51.3019, -14.9937, 97.1705, -62.3648, 38.0014
4.396, 4, 35.4311, 51.3059, -14.994, 97.1688, -62.3801, 37.9936
4.4, 4, 35.4301, 51.3099, -14.9943, 97.167, -62.3954, 37.9859
4.404, 4, 35.4291, 51.3139, -14.9946, 97.1652, -62.4106, 37.9781
4.408, 4, 35.4281, 51.3179, -14.9949, 97.1634, -62.4259, 37.9703
4.412, 4, 35.4271, 51.3219, -14.9952, 97.1617, -62.4412, 37.9626
4.416, 4, 35.4261, 51.3259, -14.9955, 97.1599, -62.4564, 37.9548
4.42, 4, 35.4251, 51.3298, -14.9957, 97.1581, -62.4717, 37.9471
4.424, 4, 35.4241, 51.3338, -14.996, 97.1563, -62.487, 37.9393
4.428, 4, 35.4231, 51.3378, -14.9963, 97.1545, -62.5023, 37.9316
4.432, 4, 35.4221, 51.3418, -14.9966, 97.1527, -62.5175, 37.9238
4.436, 4, 35.4212, 51.3458, -14.9968, 97.1509, -62.5328, 37.9161
4.44, 4, 35.4201, 51.3498, -14.9971, 97.1491, -62.5481, 37.9083
4.444, 4, 35.4191, 51.3537, -14.9974, 97.1473, -62.5633, 37.9006
4.448, 4, 35.4181, 51.3577, -14.9976, 97.1455, -62.5786, 37.8928
4.452, 4, 35.4171, 51.3617, -14.9979, 97.1437, -62.5938, 37.8851
4.456, 4, 35.4161, 51.3657, -14.9982, 97.1419, -62.6091, 37.8774
4.46, 4, 35.4151, 51.3696, -14.9984, 97.1401, -62.6244, 37.8696
4.464, 4, 35.4141, 51.3736, -14.9987, 97.1383, -62.6396, 37.8619
4.468, 4, 35.4131, 51.3776, -14.9989, 97.1365, -62.6549, 37.8542
4.472, 4, 35.4121, 51.3815, -14.9991, 97.1346, -62.6702, 37.8464
4.476, 4, 35.4111, 51.3855, -14.9994, 97.1328, -62.6854, 37.8387
4.48, 4, 35.4101, 51.3895, -14.9996, 97.131, -62.7007, 37.831
4.484, 4, 35.4091, 51.3934, -14.9999, 97.1291, -62.7159, 37.8233
4.488, 4, 35.4081, 51.3974, -15.0001, 97.1273, -62.7312, 37.8156
4.492, 4, 35.4071, 51.4013, -15.0003, 97.1255, -62.7464, 37.8078
4.496, 4, 35.4061, 51.4053, -15.0005, 97.1236, -62.7617, 37.8001
4.5, 4, 35.4051, 51.4092, -15.0008, 97.1217, -62.7769, 37.7924
4.504, 4, 35.404, 51.4132, -15.001, 97.1199, -62.7922, 37.7847
4.508, 4, 35.403, 51.4171, -15.0012, 97.1181, -62.8074, 37.777
4.512, 4, 35.402, 51.4211, -15.0014, 97.1162, -62.8227, 37.7693
4.516, 4, 35.401, 51.425, -15.0016, 97.1143, -62.8379, 37.7616
4.52, 4, 35.4, 51.429, -15.0018, 97.1125, -62.8532, 37.7539
4.524, 4, 35.399, 51.4329, -15.002, 97.1106, -62.8684, 37.7462
4.528, 4, 35.398, 51.4369, -15.0022, 97.1087, -62.8837, 37.7384
4.532, 4, 35.3969, 51.4408, -15.0024, 97.1069, -62.8989, 37.7308
4.536, 4, 35.3959, 51.4447, -15.0026, 97.105, -62.9142, 37.7231
4.54, 4, 35.3949, 51.4487, -15.0028, 97.1031, -62.9294, 37.7154
4.544, 4, 35.3939, 51.4526, -15.003, 97.1012, -62.9446, 37.7077
4.548, 4, 35.3929, 51.4565, -15.0032, 97.0993, -62.9599, 37.7
4.552, 4, 35.3918, 51.4605, -15.0034, 97.0974, -62.9751, 37.6923
4.556, 4, 35.3908, 51.4644, -15.0036, 97.0955, -62.9904, 37.6846
4.56, 4, 35.3898, 51.4683, -15.0038, 97.0936, -63.0056, 37.6769
4.564, 4, 35.3888, 51.4722, -15.0039, 97.0917, -63.0208, 37.6692
4.568, 4, 35.3877, 51.4762, -15.0041, 97.0898, -63.0361, 37.6615
4.572, 4, 35.3867, 51.4801, -15.0043, 97.0879, -63.0513, 37.6539
4.576, 4, 35.3857, 51.484, -15.0044, 97.086, -63.0665, 37.6462
4.58, 4, 35.3847, 51.4879, -15.0046, 97.0841, -63.0818, 37.6385
4.584, 4, 35.3836, 51.4918, -15.0048, 97.0822, -63.097, 37.6308
4.588, 4, 35.3826, 51.4957, -15.0049, 97.0803, -63.1122, 37.6231
4.592, 4, 35.3816, 51.4996, -15.0051, 97.0784, -63.1275, 37.6155
4.596, 4, 35.3805, 51.5036, -15.0052, 97.0764, -63.1427, 37.6078
4.6, 4, 35.3795, 51.5075, -15.0054, 97.0745, -63.1579, 37.6001
4.604, 4, 35.3785, 51.5114, -15.0055, 97.0726, -63.1732, 37.5925
4.608, 4, 35.3774, 51.5153, -15.0056, 97.0706, -63.1884, 37.5848
4.612, 4, 35.3764, 51.5192, -15.0058, 97.0687, -63.2036, 37.5771
4.616, 4, 35.3754, 51.5231, -15.0059, 97.0667, -63.2188, 37.5695
4.62, 4, 35.3743, 51.527, -15.006, 97.0648, -63.2341, 37.5618
4.624, 4, 35.3733, 51.5309, -15.0062, 97.0629, -63.2493, 37.5542
4.628, 4, 35.3723, 51.5348, -15.0063, 97.0609, -63.2645, 37.5465
4.632, 4, 35.3712, 51.5387, -15.0064, 97.0589, -63.2797, 37.5389
4.636, 4, 35.3702, 51.5426, -15.0065, 97.057, -63.2949, 37.5312
4.64, 4, 35.3691, 51.5464, -15.0067, 97.055, -63.3102, 37.5236
4.644, 4, 35.3681, 51.5503, -15.0068, 97.0531, -63.3254, 37.5159
4.648, 4, 35.3671, 51.5542, -15.0069, 97.0511, -63.3406, 37.5083
4.652, 4, 35.366, 51.5581, -15.007, 97.0491, -63.3558, 37.5006
4.656, 4, 35.365, 51.562, -15.0071, 97.0471, -63.371, 37.493
4.66, 4, 35.3639, 51.5659, -15.0072, 97.0452, -63.3862, 37.4853
4.664, 4, 35.3629, 51.5697, -15.0073, 97.0432, -63.4015, 37.4777
4.668, 4, 35.3618, 51.5736, -15.0074, 97.0412, -63.4167, 37.4701
4.672, 4, 35.3608, 51.5775, -15.0075, 97.0392, -63.4319, 37.4624
4.676, 4, 35.3597, 51.5814, -15.0076, 97.0372, -63.4471, 37.4548
4.68, 4, 35.3587, 51.5852, -15.0077, 97.0352, -63.4623, 37.4472
4.684, 4, 35.3576, 51.5891, -15.0077, 97.0332, -63.4775, 37.4395
4.688, 4, 35.3566, 51.593, -15.0078, 97.0312, -63.4927, 37.4319
4.692, 4, 35.3555, 51.5968, -15.0079, 97.0292, -63.5079, 37.4243
4.696, 4, 35.3545, 51.6007, -15.008, 97.0272, -63.5231, 37.4167
4.7, 4, 35.3534, 51.6046, -15.008, 97.0252, -63.5383, 37.4091
4.704, 4, 35.3524, 51.6084, -15.0081, 97.0232, -63.5535, 37.4014
4.708, 4, 35.3513, 51.6123, -15.0082, 97.0212, -63.5687, 37.3938
4.712, 4, 35.3503, 51.6161, -15.0082, 97.0192, -63.5839, 37.3862
4.716, 4, 35.3492, 51.62, -15.0083, 97.0172, -63.5991, 37.3786
4.72, 4, 35.3482, 51.6239, -15.0083, 97.0151, -63.6143, 37.371
4.724, 4, 35.3471, 51.6277, -15.0084, 97.0131, -63.6295, 37.3634
4.728, 4, 35.3461, 51.6316, -15.0084, 97.0111, -63.6447, 37.3558
4.732, 4, 35.345, 51.6354, -15.0085, 97.009, -63.6599, 37.3481
4.736, 4, 35.3439, 51.6392, -15.0085, 97.007, -63.6751, 37.3405
4.74, 4, 35.3429, 51.6431, -15.0086, 97.005, -63.6903, 37.3329
4.744, 4, 35.3418, 51.6469, -15.0086, 97.0029, -63.7055, 37.3253
4.748, 4, 35.3407, 51.6508, -15.0086, 97.0009, -63.7207, 37.3177
4.752, 4, 35.3397, 51.6546, -15.0087, 96.9988, -63.7359, 37.3101
4.756, 4, 35.3386, 51.6584, -15.0087, 96.9968, -63.7511, 37.3025
4.76, 4, 35.3376, 51.6623, -15.0087, 96.9947, -63.7663, 37.2949
4.764, 4, 35.3365, 51.6661, -15.0087, 96.9926, -63.7815, 37.2874
4.768, 4, 35.3354, 51.67, -15.0088, 96.9906, -63.7967, 37.2798
4.772, 4, 35.3344, 51.6738, -15.0088, 96.9885, -63.8119, 37.2722
4.776, 4, 35.3333, 51.6776, -15.0088, 96.9865, -63.827, 37.2646
4.78, 4, 35.3322, 51.6814, -15.0088, 96.9844, -63.8422, 37.257
4.784, 4, 35.3312, 51.6853, -15.0088, 96.9823, -63.8574, 37.2494
4.788, 4, 35.3301, 51.6891, -15.0088, 96.9802, -63.8726, 37.2418
4.792, 4, 35.329, 51.6929, -15.0088, 96.9781, -63.8878, 37.2343
4.796, 4, 35.3279, 51.6967, -15.0088, 96.9761, -63.903, 37.2267
4.8, 4, 35.3269, 51.7005, -15.0088, 96.974, -63.9181, 37.2191
4.804, 4, 35.3258, 51.7043, -15.0088, 96.9719, -63.9333, 37.2115
4.808, 4, 35.3247, 51.7082, -15.0088, 96.9698, -63.9485, 37.204
4.812, 4, 35.3236, 51.712, -15.0088, 96.9677, -63.9637, 37.1964
4.816, 4, 35.3226, 51.7158, -15.0087, 96.9656, -63.9789, 37.1888
4.82, 4, 35.3215, 51.7196, -15.0087, 96.9635, -63.994, 37.1812
4.824, 4, 35.3204, 51.7234, -15.0087, 96.9614, -64.0092, 37.1737
4.828, 4, 35.3193, 51.7272, -15.0087, 96.9593, -64.0244, 37.1661
4.832, 4, 35.3183, 51.731, -15.0086, 96.9572, -64.0396, 37.1586
4.836, 4, 35.3172, 51.7348, -15.0086, 96.955, -64.0547, 37.151
4.84, 4, 35.3161, 51.7386, -15.0086, 96.9529, -64.0699, 37.1434
4.844, 4, 35.315, 51.7424, -15.0085, 96.9508, -64.0851, 37.1359
4.848, 4, 35.3139, 51.7462, -15.0085, 96.9487, -64.1003, 37.1283
4.852, 4, 35.3129, 51.75, -15.0084, 96.9466, -64.1154, 37.1208
4.856, 4, 35.3118, 51.7538, -15.0084, 96.9444, -64.1306, 37.1132
4.86, 4, 35.3107, 51.7576, -15.0083, 96.9423, -64.1458, 37.1057
4.864, 4, 35.3096, 51.7613, -15.0083, 96.9402, -64.1609, 37.0981
4.868, 4, 35.3085, 51.7651, -15.0082, 96.938, -64.1761, 37.0906
4.872, 4, 35.3074, 51.7689, -15.0082, 96.9359, -64.1912, 37.083
4.876, 4, 35.3063, 51.7727, -15.0081, 96.9337, -64.2064, 37.0755
4.88, 4, 35.3052, 51.7765, -15.008, 96.9316, -64.2216, 37.0679
4.884, 4, 35.3042, 51.7803, -15.008, 96.9294, -64.2367, 37.0604
4.888, 4, 35.3031, 51.784, -15.0079, 96.9273, -64.2519, 37.0529
4.892, 4, 35.302, 51.7878, -15.0078, 96.9251, -64.2671, 37.0453
4.896, 4, 35.3009, 51.7916, -15.0077, 96.923, -64.2822, 37.0378
4.9, 4, 35.2998, 51.7953, -15.0077, 96.9208, -64.2974, 37.0303
4.904, 4, 35.2987, 51.7991, -15.0076, 96.9186, -64.3125, 37.0227
4.908, 4, 35.2976, 51.8029, -15.0075, 96.9164, -64.3277, 37.0152
4.912, 4, 35.2965, 51.8066, -15.0074, 96.9143, -64.3428, 37.0077
4.916, 4, 35.2954, 51.8104, -15.0073, 96.9121, -64.358, 37.0001
4.92, 4, 35.2943, 51.8142, -15.0072, 96.9099, -64.3731, 36.9926
4.924, 4, 35.2932, 51.8179, -15.0071, 96.9077, -64.3883, 36.9851
4.928, 4, 35.2921, 51.8217, -15.007, 96.9055, -64.4035, 36.9776
4.932, 4, 35.291, 51.8254, -15.0069, 96.9034, -64.4186, 36.9701
4.936, 4, 35.2899, 51.8292, -15.0068, 96.9012, -64.4337, 36.9625
4.94, 4, 35.2888, 51.833, -15.0067, 96.899, -64.4489, 36.955
4.944, 4, 35.2877, 51.8367, -15.0065, 96.8968, -64.464, 36.9475
4.948, 4, 35.2866, 51.8405, -15.0064, 96.8946, -64.4792, 36.94
4.952, 4, 35.2855, 51.8442, -15.0063, 96.8924, -64.4943, 36.9325
4.956, 4, 35.2844, 51.8479, -15.0062, 96.8902, -64.5095, 36.925
4.96, 4, 35.2833, 51.8517, -15.006, 96.8879, -64.5246, 36.9175
4.964, 4, 35.2822, 51.8554, -15.0059, 96.8857, -64.5398, 36.91
4.968, 4, 35.2811, 51.8592, -15.0058, 96.8835, -64.5549, 36.9025
4.972, 4, 35.28, 51.8629, -15.0056, 96.8813, -64.57, 36.895
4.976, 4, 35.2789, 51.8666, -15.0055, 96.8791, -64.5852, 36.8875
4.98, 4, 35.2778, 51.8704, -15.0053, 96.8768, -64.6003, 36.88
4.984, 4, 35.2767, 51.8741, -15.0052, 96.8746, -64.6155, 36.8725
4.988, 4, 35.2755, 51.8778, -15.005, 96.8724, -64.6306, 36.865
4.992, 4, 35.2744, 51.8816, -15.0049, 96.8702, -64.6457, 36.8575
4.996, 4, 35.2733, 51.8853, -15.0047, 96.8679, -64.6609, 36.85
5, 4, 35.2722, 51.889, -15.0046, 96.8657, -64.676, 36.8425
5.004, 4, 35.2711, 51.8927, -15.0044, 96.8634, -64.6911, 36.835
5.008, 4, 35.27, 51.8964, -15.0042, 96.8612, -64.7063, 36.8275
5.012, 4, 35.2689, 51.9002, -15.0041, 96.8589, -64.7214, 36.82
5.016, 4, 35.2677, 51.9039, -15.0039, 96.8567, -64.7365, 36.8126
5.02, 4, 35.2666, 51.9076, -15.0037, 96.8544, -64.7516, 36.8051
5.024, 4, 35.2655, 51.9113, -15.0035, 96.8522, -64.7668, 36.7976
5.028, 4, 35.2644, 51.915, -15.0034, 96.8499, -64.7819, 36.7901
5.032, 4, 35.2633, 51.9187, -15.0032, 96.8476, -64.797, 36.7826
5.036, 4, 35.2622, 51.9224, -15.003, 96.8454, -64.8121, 36.7752
5.04, 4, 35.261, 51.9261, -15.0028, 96.8431, -64.8273, 36.7677
5.044, 4, 35.2599, 51.9298, -15.0026, 96.8408, -64.8424, 36.7602
5.048, 4, 35.2588, 51.9335, -15.0024, 96.8385, -64.8575, 36.7527
5.052, 4, 35.2577, 51.9372, -15.0022, 96.8363, -64.8726, 36.7453
5.056, 4, 35.2565, 51.9409, -15.002, 96.834, -64.8878, 36.7378
5.06, 4, 35.2554, 51.9446, -15.0018, 96.8317, -64.9029, 36.7303
5.064, 4, 35.2543, 51.9483, -15.0016, 96.8294, -64.918, 36.7229
5.068, 4, 35.2532, 51.952, -15.0014, 96.8271, -64.9331, 36.7154
5.072, 4, 35.252, 51.9557, -15.0011, 96.8248, -64.9482, 36.708
5.076, 4, 35.2509, 51.9594, -15.0009, 96.8225, -64.9633, 36.7005
5.08, 4, 35.2498, 51.9631, -15.0007, 96.8202, -64.9785, 36.693
5.084, 4, 35.2486, 51.9668, -15.0005, 96.8179, -64.9936, 36.6856
5.088, 4, 35.2475, 51.9705, -15.0002, 96.8156, -65.0087, 36.6781
5.092, 4, 35.2464, 51.9741, -15, 96.8133, -65.0238, 36.6707
5.096, 4, 35.2453, 51.9778, -14.9998, 96.811, -65.0389, 36.6632
5.1, 4, 35.2441, 51.9815, -14.9995, 96.8087, -65.054, 36.6558
5.104, 4, 35.243, 51.9852, -14.9993, 96.8064, -65.0691, 36.6483
5.108, 4, 35.2419, 51.9888, -14.9991, 96.804, -65.0842, 36.6409
5.112, 4, 35.2407, 51.9925, -14.9988, 96.8017, -65.0993, 36.6334
5.116, 4, 35.2396, 51.9962, -14.9986, 96.7994, -65.1144, 36.626
5.12, 4, 35.2384, 51.9998, -14.9983, 96.7971, -65.1296, 36.6185
5.124, 4, 35.2373, 52.0035, -14.998, 96.7947, -65.1447, 36.6111
5.128, 4, 35.2362, 52.0072, -14.9978, 96.7924, -65.1598, 36.6037
5.132, 4, 35.235, 52.0108, -14.9975, 96.79, -65.1749, 36.5962
5.136, 4, 35.2339, 52.0145, -14.9973, 96.7877, -65.19, 36.5888
5.14, 4, 35.2327, 52.0182, -14.997, 96.7854, -65.2051, 36.5814
5.144, 4, 35.2316, 52.0218, -14.9967, 96.783, -65.2202, 36.5739
5.148, 4, 35.2305, 52.0255, -14.9964, 96.7807, -65.2353, 36.5665
5.152, 4, 35.2293, 52.0291, -14.9962, 96.7783, -65.2504, 36.5591
5.156, 4, 35.2282, 52.0328, -14.9959, 96.7759, -65.2654, 36.5517
5.16, 4, 35.227, 52.0364, -14.9956, 96.7736, -65.2805, 36.5442
5.164, 4, 35.2259, 52.0401, -14.9953, 96.7712, -65.2956, 36.5368
5.168, 4, 35.2247, 52.0437, -14.995, 96.7689, -65.3107, 36.5294
5.172, 4, 35.2236, 52.0474, -14.9947, 96.7665, -65.3258, 36.522
5.176, 4, 35.2224, 52.051, -14.9944, 96.7641, -65.3409, 36.5145
5.18, 4, 35.2213, 52.0546, -14.9941, 96.7617, -65.356, 36.5071
5.184, 4, 35.2201, 52.0583, -14.9938, 96.7594, -65.3711, 36.4997
5.188, 4, 35.219, 52.0619, -14.9935, 96.757, -65.3862, 36.4923
5.192, 4, 35.2178, 52.0655, -14.9932, 96.7546, -65.4013, 36.4849
5.196, 4, 35.2167, 52.0692, -14.9929, 96.7522, -65.4164, 36.4775
5.2, 4, 35.2155, 52.0728, -14.9926, 96.7498, -65.4314, 36.4701
5.204, 4, 35.2144, 52.0764, -14.9922, 96.7474, -65.4465, 36.4627
5.208, 4, 35.2132, 52.0801, -14.9919, 96.745, -65.4616, 36.4552
5.212, 4, 35.2121, 52.0837, -14.9916, 96.7426, -65.4767, 36.4478
5.216, 4, 35.2109, 52.0873, -14.9913, 96.7402, -65.4918, 36.4404
5.22, 4, 35.2098, 52.0909, -14.9909, 96.7378, -65.5069, 36.433
5.224, 4, 35.2086, 52.0945, -14.9906, 96.7354, -65.5219, 36.4256
5.228, 4, 35.2074, 52.0982, -14.9903, 96.733, -65.537, 36.4182
5.232, 4, 35.2063, 52.1018, -14.9899, 96.7306, -65.5521, 36.4108
5.236, 4, 35.2051, 52.1054, -14.9896, 96.7282, -65.5672, 36.4034
5.24, 4, 35.204, 52.109, -14.9892, 96.7258, -65.5822, 36.3961
5.244, 4, 35.2028, 52.1126, -14.9889, 96.7233, -65.5973, 36.3887
5.248, 4, 35.2016, 52.1162, -14.9885, 96.7209, -65.6124, 36.3813
5.252, 4, 35.2005, 52.1198, -14.9882, 96.7185, -65.6275, 36.3739
5.256, 4, 35.1993, 52.1234, -14.9878, 96.7161, -65.6425, 36.3665
5.26, 4, 35.1981, 52.127, -14.9874, 96.7136, -65.6576, 36.3591
5.264, 4, 35.197, 52.1306, -14.9871, 96.7112, -65.6727, 36.3517
5.268, 4, 35.1958, 52.1342, -14.9867, 96.7088, -65.6877, 36.3443
5.272, 4, 35.1946, 52.1378, -14.9863, 96.7063, -65.7028, 36.337
5.276, 4, 35.1935, 52.1414, -14.986, 96.7039, -65.7179, 36.3296
5.28, 4, 35.1923, 52.145, -14.9856, 96.7014, -65.7329, 36.3222
5.284, 4, 35.1911, 52.1486, -14.9852, 96.699, -65.748, 36.3148
5.288, 4, 35.19, 52.1522, -14.9848, 96.6965, -65.7631, 36.3074
5.292, 4, 35.1888, 52.1558, -14.9844, 96.6941, -65.7781, 36.3001
5.296, 4, 35.1876, 52.1593, -14.984, 96.6916, -65.7932, 36.2927
5.3, 4, 35.1864, 52.1629, -14.9836, 96.6891, -65.8083, 36.2853
5.304, 4, 35.1853, 52.1665, -14.9832, 96.6867, -65.8233, 36.278
5.308, 4, 35.1841, 52.1701, -14.9828, 96.6842, -65.8384, 36.2706
5.312, 4, 35.1829, 52.1737, -14.9824, 96.6817, -65.8534, 36.2632
5.316, 4, 35.1817, 52.1772, -14.982, 96.6793, -65.8685, 36.2559
5.32, 4, 35.1806, 52.1808, -14.9816, 96.6768, -65.8835, 36.2485
5.324, 4, 35.1794, 52.1844, -14.9812, 96.6743, -65.8986, 36.2411
5.328, 4, 35.1782, 52.1879, -14.9808, 96.6718, -65.9137, 36.2338
5.332, 4, 35.177, 52.1915, -14.9804, 96.6693, -65.9287, 36.2264
5.336, 4, 35.1758, 52.1951, -14.9799, 96.6668, -65.9438, 36.2191
5.34, 4, 35.1747, 52.1986, -14.9795, 96.6643, -65.9588, 36.2117
5.344, 4, 35.1735, 52.2022, -14.9791, 96.6619, -65.9739, 36.2044
5.348, 4, 35.1723, 52.2058, -14.9786, 96.6594, -65.9889, 36.197
5.352, 4, 35.1711, 52.2093, -14.9782, 96.6569, -66.004, 36.1897
5.356, 4, 35.1699, 52.2129, -14.9778, 96.6544, -66.019, 36.1823
5.36, 4, 35.1687, 52.2164, -14.9773, 96.6519, -66.034, 36.175
5.364, 4, 35.1676, 52.22, -14.9769, 96.6493, -66.0491, 36.1676
5.368, 4, 35.1664, 52.2235, -14.9764, 96.6468, -66.0641, 36.1603
5.372, 4, 35.1652, 52.2271, -14.976, 96.6443, -66.0792, 36.1529
5.376, 4, 35.164, 52.2306, -14.9755, 96.6418, -66.0942, 36.1456
5.38, 4, 35.1628, 52.2342, -14.9751, 96.6393, -66.1093, 36.1382
5.384, 4, 35.1616, 52.2377, -14.9746, 96.6368, -66.1243, 36.1309
5.388, 4, 35.1604, 52.2412, -14.9741, 96.6342, -66.1393, 36.1236
5.392, 4, 35.1592, 52.2448, -14.9737, 96.6317, -66.1544, 36.1162
5.396, 4, 35.158, 52.2483, -14.9732, 96.6292, -66.1694, 36.1089
5.4, 4, 35.1568, 52.2518, -14.9727, 96.6266, -66.1845, 36.1016
5.404, 4, 35.1557, 52.2554, -14.9722, 96.6241, -66.1995, 36.0942
5.408, 4, 35.1545, 52.2589, -14.9718, 96.6216, -66.2145, 36.0869
5.412, 4, 35.1533, 52.2624, -14.9713, 96.619, -66.2296, 36.0796
5.416, 4, 35.1521, 52.266, -14.9708, 96.6165, -66.2446, 36.0722
5.42, 4, 35.1509, 52.2695, -14.9703, 96.6139, -66.2596, 36.0649
5.424, 4, 35.1497, 52.273, -14.9698, 96.6114, -66.2747, 36.0576
5.428, 4, 35.1485, 52.2765, -14.9693, 96.6088, -66.2897, 36.0503
5.432, 4, 35.1473, 52.28, -14.9688, 96.6063, -66.3047, 36.0429
5.436, 4, 35.1461, 52.2836, -14.9683, 96.6037, -66.3197, 36.0356
5.44, 4, 35.1449, 52.2871, -14.9678, 96.6011, -66.3348, 36.0283
5.444, 4, 35.1437, 52.2906, -14.9673, 96.5986, -66.3498, 36.021
5.448, 4, 35.1425, 52.2941, -14.9668, 96.596, -66.3648, 36.0137
5.452, 4, 35.1413, 52.2976, -14.9663, 96.5934, -66.3798, 36.0064
5.456, 4, 35.1401, 52.3011, -14.9657, 96.5909, -66.3949, 35.999
5.46, 4, 35.1389, 52.3046, -14.9652, 96.5883, -66.4099, 35.9917
5.464, 4, 35.1376, 52.3081, -14.9647, 96.5857, -66.4249, 35.9844
5.468, 4, 35.1364, 52.3116, -14.9642, 96.5831, -66.4399, 35.9771
5.472, 4, 35.1352, 52.3151, -14.9636, 96.5805, -66.4549, 35.9698
5.476, 4, 35.134, 52.3186, -14.9631, 96.5779, -66.47, 35.9625
5.48, 4, 35.1328, 52.3221, -14.9626, 96.5754, -66.485, 35.9552
5.484, 4, 35.1316, 52.3256, -14.962, 96.5728, -66.5, 35.9479
5.488, 4, 35.1304, 52.3291, -14.9615, 96.5702, -66.515, 35.9406
5.492, 4, 35.1292, 52.3326, -14.9609, 96.5676, -66.53, 35.9333
5.496, 4, 35.128, 52.3361, -14.9604, 96.565, -66.545, 35.926
5.5, 4, 35.1268, 52.3396, -14.9598, 96.5624, -66.56, 35.9187
5.504, 4, 35.1255, 52.343, -14.9593, 96.5597, -66.5751, 35.9114
5.508, 4, 35.1243, 52.3465, -14.9587, 96.5571, -66.5901, 35.9041
5.512, 4, 35.1231, 52.35, -14.9581, 96.5545, -66.6051, 35.8968
5.516, 4, 35.1219, 52.3535, -14.9576, 96.5519, -66.6201, 35.8895
5.52, 4, 35.1207, 52.3569, -14.957, 96.5493, -66.6351, 35.8822
5.524, 4, 35.1195, 52.3604, -14.9564, 96.5467, -66.6501, 35.875
5.528, 4, 35.1182, 52.3639, -14.9559, 96.544, -66.6651, 35.8677
5.532, 4, 35.117, 52.3674, -14.9553, 96.5414, -66.6801, 35.8604
5.536, 4, 35.1158, 52.3708, -14.9547, 96.5388, -66.6951, 35.8531
5.54, 4, 35.1146, 52.3743, -14.9541, 96.5362, -66.7101, 35.8458
5.544, 4, 35.1133, 52.3778, -14.9535, 96.5335, -66.7251, 35.8385
5.548, 4, 35.1121, 52.3812, -14.9529, 96.5309, -66.7401, 35.8313
5.552, 4, 35.1109, 52.3847, -14.9523, 96.5282, -66.7551, 35.824
5.556, 4, 35.1097, 52.3881, -14.9517, 96.5256, -66.7701, 35.8167
5.56, 4, 35.1085, 52.3916, -14.9511, 96.523, -66.7851, 35.8094
5.564, 4, 35.1072, 52.395, -14.9505, 96.5203, -66.8001, 35.8022
5.568, 4, 35.106, 52.3985, -14.9499, 96.5176, -66.8151, 35.7949
5.572, 4, 35.1048, 52.4019, -14.9493, 96.515, -66.8301, 35.7876
5.576, 4, 35.1035, 52.4054, -14.9487, 96.5123, -66.8451, 35.7803
5.58, 4, 35.1023, 52.4088, -14.9481, 96.5097, -66.8601, 35.7731
5.584, 4, 35.1011, 52.4123, -14.9475, 96.507, -66.8751, 35.7658
5.588, 4, 35.0999, 52.4157, -14.9468, 96.5043, -66.89, 35.7585
5.592, 4, 35.0986, 52.4192, -14.9462, 96.5017, -66.905, 35.7513
5.596, 4, 35.0974, 52.4226, -14.9456, 96.499, -66.92, 35.744
5.6, 4, 35.0962, 52.426, -14.9449, 96.4963, -66.935, 35.7367
5.604, 4, 35.0949, 52.4295, -14.9443, 96.4937, -66.95, 35.7295
5.608, 4, 35.0937, 52.4329, -14.9437, 96.491, -66.965, 35.7222
5.612, 4, 35.0925, 52.4363, -14.943, 96.4883, -66.98, 35.715
5.616, 4, 35.0912, 52.4398, -14.9424, 96.4856, -66.9949, 35.7077
5.62, 4, 35.09, 52.4432, -14.9417, 96.4829, -67.0099, 35.7005
5.624, 4, 35.0887, 52.4466, -14.9411, 96.4802, -67.0249, 35.6932
5.628, 4, 35.0875, 52.45, -14.9404, 96.4775, -67.0399, 35.686
5.632, 4, 35.0863, 52.4535, -14.9398, 96.4748, -67.0549, 35.6787
5.636, 4, 35.085, 52.4569, -14.9391, 96.4721, -67.0698, 35.6715
5.64, 4, 35.0838, 52.4603, -14.9384, 96.4694, -67.0848, 35.6642
5.644, 4, 35.0825, 52.4637, -14.9378, 96.4667, -67.0998, 35.657
5.648, 4, 35.0813, 52.4671, -14.9371, 96.464, -67.1148, 35.6497
5.652, 4, 35.0801, 52.4705, -14.9364, 96.4613, -67.1298, 35.6425
5.656, 4, 35.0788, 52.4739, -14.9357, 96.4586, -67.1447, 35.6352
5.66, 4, 35.0776, 52.4774, -14.9351, 96.4559, -67.1597, 35.628
5.664, 4, 35.0763, 52.4808, -14.9344, 96.4532, -67.1747, 35.6207
5.668, 4, 35.0751, 52.4842, -14.9337, 96.4504, -67.1896, 35.6135
5.672, 4, 35.0738, 52.4876, -14.933, 96.4477, -67.2046, 35.6063
5.676, 4, 35.0726, 52.491, -14.9323, 96.445, -67.2196, 35.599
5.68, 4, 35.0713, 52.4944, -14.9316, 96.4423, -67.2346, 35.5918
5.684, 4, 35.0701, 52.4978, -14.9309, 96.4395, -67.2495, 35.5846
5.688, 4, 35.0688, 52.5011, -14.9302, 96.4368, -67.2645, 35.5773
5.692, 4, 35.0676, 52.5045, -14.9295, 96.4341, -67.2795, 35.5701
5.696, 4, 35.0663, 52.5079, -14.9288, 96.4313, -67.2944, 35.5629
5.7, 4, 35.0651, 52.5113, -14.9281, 96.4286, -67.3094, 35.5556
5.704, 4, 35.0638, 52.5147, -14.9274, 96.4258, -67.3243, 35.5484
5.708, 4, 35.0626, 52.5181, -14.9267, 96.4231, -67.3393, 35.5412
5.712, 4, 35.0613, 52.5215, -14.9259, 96.4203, -67.3543, 35.534
5.716, 4, 35.06, 52.5248, -14.9252, 96.4176, -67.3692, 35.5267
5.72, 4, 35.0588, 52.5282, -14.9245, 96.4148, -67.3842, 35.5195
5.724, 4, 35.0575, 52.5316, -14.9237, 96.4121, -67.3991, 35.5123
5.728, 4, 35.0563, 52.535, -14.923, 96.4093, -67.4141, 35.5051
5.732, 4, 35.055, 52.5383, -14.9223, 96.4065, -67.4291, 35.4979
5.736, 4, 35.0538, 52.5417, -14.9215, 96.4038, -67.444, 35.4907
5.74, 4, 35.0525, 52.5451, -14.9208, 96.401, -67.459, 35.4834
5.744, 4, 35.0512, 52.5484, -14.92, 96.3982, -67.4739, 35.4762
5.748, 4, 35.05, 52.5518, -14.9193, 96.3954, -67.4889, 35.469
5.752, 4, 35.0487, 52.5552, -14.9185, 96.3927, -67.5038, 35.4618
5.756, 4, 35.0474, 52.5585, -14.9178, 96.3899, -67.5188, 35.4546
5.76, 4, 35.0462, 52.5619, -14.917, 96.3871, -67.5337, 35.4474
5.764, 4, 35.0449, 52.5652, -14.9163, 96.3843, -67.5487, 35.4402
5.768, 4, 35.0436, 52.5686, -14.9155, 96.3815, -67.5636, 35.433
5.772, 4, 35.0424, 52.5719, -14.9147, 96.3787, -67.5786, 35.4258
5.776, 4, 35.0411, 52.5753, -14.914, 96.3759, -67.5935, 35.4186
5.78, 4, 35.0398, 52.5787, -14.9132, 96.3731, -67.6085, 35.4114
5.784, 4, 35.0386, 52.582, -14.9124, 96.3703, -67.6234, 35.4042
5.788, 4, 35.0373, 52.5853, -14.9116, 96.3675, -67.6384, 35.397
5.792, 4, 35.036, 52.5887, -14.9108, 96.3647, -67.6533, 35.3898
5.796, 4, 35.0348, 52.592, -14.9101, 96.3619, -67.6682, 35.3826
5.8, 4, 35.0335, 52.5954, -14.9093, 96.3591, -67.6832, 35.3754
5.804, 4, 35.0322, 52.5987, -14.9085, 96.3563, -67.6981, 35.3682
5.808, 4, 35.0309, 52.602, -14.9077, 96.3535, -67.7131, 35.361
5.812, 4, 35.0297, 52.6054, -14.9069, 96.3507, -67.728, 35.3538
5.816, 4, 35.0284, 52.6087, -14.9061, 96.3478, -67.7429, 35.3466
5.82, 4, 35.0271, 52.612, -14.9053, 96.345, -67.7579, 35.3394
5.824, 4, 35.0258, 52.6154, -14.9044, 96.3422, -67.7728, 35.3322
5.828, 4, 35.0246, 52.6187, -14.9036, 96.3394, -67.7877, 35.325
5.832, 4, 35.0233, 52.622, -14.9028, 96.3365, -67.8027, 35.3179
5.836, 4, 35.022, 52.6253, -14.902, 96.3337, -67.8176, 35.3107
5.84, 4, 35.0207, 52.6286, -14.9012, 96.3308, -67.8325, 35.3035
5.844, 4, 35.0194, 52.632, -14.9004, 96.328, -67.8475, 35.2963
5.848, 4, 35.0182, 52.6353, -14.8995, 96.3252, -67.8624, 35.2891
5.852, 4, 35.0169, 52.6386, -14.8987, 96.3223, -67.8773, 35.2819
5.856, 4, 35.0156, 52.6419, -14.8979, 96.3195, -67.8923, 35.2748
5.86, 4, 35.0143, 52.6452, -14.897, 96.3166, -67.9072, 35.2676
5.864, 4, 35.013, 52.6485, -14.8962, 96.3138, -67.9221, 35.2604
5.868, 4, 35.0117, 52.6518, -14.8953, 96.3109, -67.937, 35.2532
5.872, 4, 35.0105, 52.6551, -14.8945, 96.3081, -67.952, 35.2461
5.876, 4, 35.0092, 52.6584, -14.8936, 96.3052, -67.9669, 35.2389
5.88, 4, 35.0079, 52.6617, -14.8928, 96.3023, -67.9818, 35.2317
5.884, 4, 35.0066, 52.665, -14.8919, 96.2995, -67.9967, 35.2246
5.888, 4, 35.0053, 52.6683, -14.8911, 96.2966, -68.0116, 35.2174
5.892, 4, 35.004, 52.6716, -14.8902, 96.2937, -68.0266, 35.2102
5.896, 4, 35.0027, 52.6749, -14.8893, 96.2908, -68.0415, 35.2031
5.9, 4, 35.0014, 52.6782, -14.8885, 96.288, -68.0564, 35.1959
5.904, 4, 35.0001, 52.6815, -14.8876, 96.2851, -68.0713, 35.1887
5.908, 4, 34.9988, 52.6848, -14.8867, 96.2822, -68.0862, 35.1816
5.912, 4, 34.9975, 52.688, -14.8858, 96.2793, -68.1012, 35.1744
5.916, 4, 34.9963, 52.6913, -14.885, 96.2764, -68.1161, 35.1673
5.92, 4, 34.995, 52.6946, -14.8841, 96.2735, -68.131, 35.1601
5.924, 4, 34.9937, 52.6979, -14.8832, 96.2706, -68.1459, 35.1529
5.928, 4, 34.9924, 52.7012, -14.8823, 96.2678, -68.1608, 35.1458
5.932, 4, 34.9911, 52.7044, -14.8814, 96.2648, -68.1757, 35.1386
5.936, 4, 34.9898, 52.7077, -14.8805, 96.2619, -68.1906, 35.1315
5.94, 4, 34.9885, 52.711, -14.8796, 96.259, -68.2055, 35.1243
5.944, 4, 34.9872, 52.7142, -14.8787, 96.2561, -68.2204, 35.1172
5.948, 4, 34.9859, 52.7175, -14.8778, 96.2532, -68.2353, 35.11
5.952, 4, 34.9846, 52.7208, -14.8769, 96.2503, -68.2503, 35.1029
5.956, 4, 34.9833, 52.724, -14.876, 96.2474, -68.2652, 35.0957
5.96, 4, 34.982, 52.7273, -14.875, 96.2445, -68.2801, 35.0886
5.964, 4, 34.9807, 52.7306, -14.8741, 96.2416, -68.295, 35.0814
5.968, 4, 34.9793, 52.7338, -14.8732, 96.2386, -68.3099, 35.0743
5.972, 4, 34.978, 52.7371, -14.8723, 96.2357, -68.3248, 35.0672
5.976, 4, 34.9767, 52.7403, -14.8714, 96.2328, -68.3397, 35.06
5.98, 4, 34.9754, 52.7436, -14.8704, 96.2299, -68.3546, 35.0529
5.984, 4, 34.9741, 52.7468, -14.8695, 96.2269, -68.3695, 35.0457
5.988, 4, 34.9728, 52.7501, -14.8685, 96.224, -68.3844, 35.0386
5.992, 4, 34.9715, 52.7533, -14.8676, 96.2211, -68.3993, 35.0315
5.996, 4, 34.9702, 52.7565, -14.8667, 96.2181, -68.4142, 35.0243
6, 4, 34.9689, 52.7598, -14.8657, 96.2152, -68.429, 35.0172
6.004, 4, 34.9676, 52.763, -14.8648, 96.2122, -68.4439, 35.0101
6.008, 4, 34.9663, 52.7663, -14.8638, 96.2093, -68.4588, 35.0029
6.012, 4, 34.9649, 52.7695, -14.8628, 96.2063, -68.4737, 34.9958
6.016, 4, 34.9636, 52.7727, -14.8619, 96.2034, -68.4886, 34.9887
6.02, 4, 34.9623, 52.776, -14.8609, 96.2004, -68.5035, 34.9815
6.024, 4, 34.961, 52.7792, -14.86, 96.1975, -68.5184, 34.9744
6.028, 4, 34.9597, 52.7824, -14.859, 96.1945, -68.5333, 34.9673
6.032, 4, 34.9584, 52.7856, -14.858, 96.1915, -68.5482, 34.9602
6.036, 4, 34.957, 52.7889, -14.857, 96.1886, -68.5631, 34.953
6.04, 4, 34.9557, 52.7921, -14.8561, 96.1856, -68.5779, 34.9459
6.044, 4, 34.9544, 52.7953, -14.8551, 96.1826, -68.5928, 34.9388
6.048, 4, 34.9531, 52.7985, -14.8541, 96.1796, -68.6077, 34.9317
6.052, 4, 34.9518, 52.8017, -14.8531, 96.1767, -68.6226, 34.9246
6.056, 4, 34.9504, 52.8049, -14.8521, 96.1737, -68.6375, 34.9174
6.06, 4, 34.9491, 52.8082, -14.8511, 96.1707, -68.6524, 34.9103
6.064, 4, 34.9478, 52.8114, -14.8501, 96.1677, -68.6672, 34.9032
6.068, 4, 34.9465, 52.8146, -14.8491, 96.1647, -68.6821, 34.8961
6.072, 4, 34.9451, 52.8178, -14.8481, 96.1618, -68.697, 34.889
6.076, 4, 34.9438, 52.821, -14.8471, 96.1588, -68.7119, 34.8819
6.08, 4, 34.9425, 52.8242, -14.8461, 96.1558, -68.7268, 34.8748
6.084, 4, 34.9412, 52.8274, -14.8451, 96.1528, -68.7416, 34.8677
6.088, 4, 34.9398, 52.8306, -14.8441, 96.1498, -68.7565, 34.8605
6.092, 4, 34.9385, 52.8338, -14.843, 96.1468, -68.7714, 34.8534
6.096, 4, 34.9372, 52.837, -14.842, 96.1437, -68.7862, 34.8463
6.1, 4, 34.9359, 52.8401, -14.841, 96.1407, -68.8011, 34.8392
6.104, 4, 34.9345, 52.8433, -14.84, 96.1377, -68.816, 34.8321
6.108, 4, 34.9332, 52.8465, -14.8389, 96.1347, -68.8309, 34.825
6.112, 4, 34.9319, 52.8497, -14.8379, 96.1317, -68.8457, 34.8179
6.116, 4, 34.9305, 52.8529, -14.8369, 96.1287, -68.8606, 34.8108
6.12, 4, 34.9292, 52.8561, -14.8358, 96.1257, -68.8755, 34.8037
6.124, 4, 34.9279, 52.8592, -14.8348, 96.1226, -68.8903, 34.7966
6.128, 4, 34.9265, 52.8624, -14.8337, 96.1196, -68.9052, 34.7895
6.132, 4, 34.9252, 52.8656, -14.8327, 96.1166, -68.9201, 34.7824
6.136, 4, 34.9239, 52.8688, -14.8316, 96.1136, -68.9349, 34.7753
6.14, 4, 34.9225, 52.8719, -14.8306, 96.1105, -68.9498, 34.7683
6.144, 4, 34.9212, 52.8751, -14.8295, 96.1075, -68.9647, 34.7612
6.148, 4, 34.9198, 52.8783, -14.8284, 96.1044, -68.9795, 34.7541
6.152, 4, 34.9185, 52.8814, -14.8274, 96.1014, -68.9944, 34.747
6.156, 4, 34.9172, 52.8846, -14.8263, 96.0984, -69.0092, 34.7399
6.16, 4, 34.9158, 52.8878, -14.8252, 96.0953, -69.0241, 34.7328
6.164, 4, 34.9145, 52.8909, -14.8241, 96.0923, -69.0389, 34.7257
6.168, 4, 34.9131, 52.8941, -14.8231, 96.0892, -69.0538, 34.7186
6.172, 4, 34.9118, 52.8972, -14.822, 96.0862, -69.0687, 34.7115
6.176, 4, 34.9104, 52.9004, -14.8209, 96.0831, -69.0835, 34.7045
6.18, 4, 34.9091, 52.9035, -14.8198, 96.08, -69.0984, 34.6974
6.184, 4, 34.9077, 52.9067, -14.8187, 96.077, -69.1132, 34.6903
6.188, 4, 34.9064, 52.9098, -14.8176, 96.0739, -69.1281, 34.6832
6.192, 4, 34.9051, 52.913, -14.8165, 96.0708, -69.1429, 34.6761
6.196, 4, 34.9037, 52.9161, -14.8154, 96.0678, -69.1578, 34.6691
6.2, 4, 34.9024, 52.9193, -14.8143, 96.0647, -69.1726, 34.662
6.204, 4, 34.901, 52.9224, -14.8132, 96.0616, -69.1875, 34.6549
6.208, 4, 34.8997, 52.9255, -14.8121, 96.0586, -69.2023, 34.6478
6.212, 4, 34.8983, 52.9287, -14.811, 96.0555, -69.2172, 34.6408
6.216, 4, 34.8969, 52.9318, -14.8099, 96.0524, -69.232, 34.6337
6.22, 4, 34.8956, 52.9349, -14.8087, 96.0493, -69.2469, 34.6266
6.224, 4, 34.8942, 52.9381, -14.8076, 96.0462, -69.2617, 34.6196
6.228, 4, 34.8929, 52.9412, -14.8065, 96.0431, -69.2765, 34.6125
6.232, 4, 34.8915, 52.9443, -14.8053, 96.04, -69.2914, 34.6054
6.236, 4, 34.8902, 52.9474, -14.8042, 96.0369, -69.3062, 34.5984
6.24, 4, 34.8888, 52.9506, -14.8031, 96.0339, -69.3211, 34.5913
