hehonglu123/ABB_Primitive_Study/execution/movec/curve_exe_v100_z5.csv
timestamp, cmd_num, J1, J2, J3, J4, J5, J6
0, 1, 32.9528, 52.8019, -8.46502, 89.9168, -78.8096, 34.6812
0.002, 1, 32.9528, 52.8019, -8.46502, 89.9168, -78.8096, 34.6812
0.004, 1, 32.9528, 52.8019, -8.46502, 89.9168, -78.8096, 34.6812
0.008, 1, 32.9528, 52.8019, -8.46502, 89.9168, -78.8096, 34.6812
0.011, 1, 32.9528, 52.8019, -8.46502, 89.9168, -78.8096, 34.6812
0.016, 1, 32.9528, 52.8019, -8.46502, 89.9168, -78.8096, 34.6812
0.02, 1, 32.9528, 52.8019, -8.46502, 89.9168, -78.8096, 34.6812
0.024, 1, 32.9528, 52.8019, -8.46502, 89.9168, -78.8096, 34.6812
0.028, 1, 32.9528, 52.8019, -8.46502, 89.9168, -78.8096, 34.6812
0.032, 1, 32.9528, 52.8019, -8.46502, 89.9168, -78.8096, 34.6812
0.036, 1, 32.9528, 52.8019, -8.46502, 89.9168, -78.8096, 34.6812
0.04, 1, 32.9529, 52.8019, -8.46502, 89.9168, -78.8096, 34.6812
0.044, 1, 32.9531, 52.8018, -8.46503, 89.9168, -78.8095, 34.6812
0.048, 1, 32.9535, 52.8014, -8.46504, 89.9169, -78.8095, 34.6812
0.052, 1, 32.9543, 52.8006, -8.46509, 89.9169, -78.8093, 34.6813
0.056, 1, 32.9556, 52.7993, -8.46521, 89.917, -78.8088, 34.6815
0.06, 1, 32.9574, 52.7971, -8.46543, 89.9173, -78.8079, 34.6818
0.064, 1, 32.9597, 52.794, -8.46584, 89.9178, -78.8061, 34.6824
0.068, 1, 32.9625, 52.7899, -8.46653, 89.9186, -78.803, 34.6835
0.072, 1, 32.9659, 52.7849, -8.46761, 89.92, -78.798, 34.6852
0.076, 1, 32.9697, 52.7789, -8.46923, 89.922, -78.7905, 34.6877
0.08, 1, 32.9741, 52.7719, -8.47155, 89.925, -78.7796, 34.6915
0.084, 1, 32.9791, 52.7639, -8.47475, 89.9292, -78.7644, 34.6967
0.088, 1, 32.9847, 52.7549, -8.47904, 89.9348, -78.744, 34.7037
0.092, 1, 32.991, 52.7451, -8.48461, 89.9421, -78.7174, 34.7128
0.096, 1, 32.9978, 52.7344, -8.49169, 89.9515, -78.6834, 34.7244
0.1, 1, 33.005, 52.7231, -8.50046, 89.9631, -78.6411, 34.7389
0.104, 1, 33.0126, 52.7112, -8.51109, 89.9773, -78.5897, 34.7566
0.108, 1, 33.0204, 52.699, -8.5237, 89.9942, -78.5285, 34.7775
0.112, 1, 33.0284, 52.6863, -8.53837, 90.0139, -78.4572, 34.802
0.116, 1, 33.0368, 52.673, -8.55512, 90.0364, -78.3757, 34.8299
0.12, 1, 33.0455, 52.6592, -8.57391, 90.0617, -78.2841, 34.8613
0.124, 1, 33.0546, 52.6447, -8.59467, 90.0896, -78.183, 34.896
0.128, 1, 33.0642, 52.6296, -8.61726, 90.12, -78.0728, 34.9337
0.131, 1, 33.0741, 52.6139, -8.64153, 90.1527, -77.9545, 34.9743
0.136, 1, 33.0844, 52.5977, -8.6673, 90.1875, -77.8288, 35.0174
0.139, 1, 33.0949, 52.5809, -8.69437, 90.2239, -77.6968, 35.0627
0.144, 1, 33.1058, 52.5633, -8.72251, 90.2618, -77.5596, 35.1097
0.148, 1, 33.1172, 52.5447, -8.75152, 90.3009, -77.4182, 35.1582
0.152, 1, 33.1293, 52.525, -8.7812, 90.3408, -77.2736, 35.2077
0.156, 1, 33.1421, 52.5041, -8.81138, 90.3814, -77.1267, 35.2581
0.16, 1, 33.1556, 52.4819, -8.8419, 90.4224, -76.9782, 35.309
0.164, 1, 33.17, 52.4586, -8.87265, 90.4637, -76.8286, 35.3603
0.168, 1, 33.1849, 52.4345, -8.90354, 90.5052, -76.6784, 35.4118
0.172, 1, 33.2004, 52.4098, -8.9345, 90.5467, -76.5279, 35.4634
0.176, 1, 33.2161, 52.3847, -8.9655, 90.5883, -76.3772, 35.515
0.18, 1, 33.2321, 52.3594, -8.9965, 90.6299, -76.2265, 35.5667
0.184, 1, 33.2481, 52.334, -9.02748, 90.6715, -76.076, 35.6183
0.188, 1, 33.2643, 52.3084, -9.05844, 90.713, -75.9256, 35.6699
0.192, 1, 33.2805, 52.2828, -9.08935, 90.7545, -75.7754, 35.7214
0.196, 1, 33.2967, 52.2573, -9.12022, 90.7959, -75.6254, 35.7728
0.2, 1, 33.3129, 52.2317, -9.15103, 90.8372, -75.4757, 35.8241
0.204, 1, 33.3291, 52.2061, -9.1818, 90.8785, -75.3262, 35.8753
0.208, 1, 33.3453, 52.1806, -9.21251, 90.9197, -75.177, 35.9265
0.212, 1, 33.3614, 52.1551, -9.24316, 90.9608, -75.028, 35.9775
0.216, 1, 33.3776, 52.1296, -9.27376, 91.0018, -74.8794, 36.0285
0.22, 1, 33.3937, 52.1042, -9.3043, 91.0428, -74.731, 36.0794
0.224, 1, 33.4098, 52.0788, -9.33479, 91.0837, -74.5829, 36.1302
0.228, 1, 33.4258, 52.0535, -9.36522, 91.1245, -74.435, 36.1808
0.232, 1, 33.4419, 52.0282, -9.3956, 91.1652, -74.2874, 36.2314
0.236, 1, 33.4579, 52.003, -9.42592, 91.2059, -74.1401, 36.2819
0.24, 1, 33.4738, 51.9778, -9.45618, 91.2465, -73.9931, 36.3323
0.244, 1, 33.4898, 51.9526, -9.48639, 91.287, -73.8463, 36.3826
0.248, 1, 33.5057, 51.9275, -9.51654, 91.3275, -73.6998, 36.4329
0.252, 1, 33.5216, 51.9025, -9.54664, 91.3678, -73.5536, 36.483
0.256, 1, 33.5374, 51.8774, -9.57668, 91.4081, -73.4076, 36.533
0.26, 1, 33.5533, 51.8525, -9.60667, 91.4483, -73.2619, 36.583
0.264, 1, 33.5691, 51.8276, -9.6366, 91.4885, -73.1165, 36.6328
0.268, 1, 33.5848, 51.8027, -9.66649, 91.5286, -72.9713, 36.6826
0.272, 1, 33.6006, 51.7778, -9.69631, 91.5686, -72.8264, 36.7323
0.276, 1, 33.6163, 51.7531, -9.72609, 91.6085, -72.6817, 36.7819
0.28, 1, 33.632, 51.7283, -9.75581, 91.6484, -72.5373, 36.8314
0.284, 1, 33.6476, 51.7036, -9.78547, 91.6882, -72.3932, 36.8808
0.288, 1, 33.6633, 51.679, -9.81509, 91.7279, -72.2493, 36.9301
0.292, 1, 33.6789, 51.6544, -9.84465, 91.7675, -72.1057, 36.9794
0.296, 1, 33.6945, 51.6298, -9.87416, 91.8071, -71.9623, 37.0285
0.3, 1, 33.71, 51.6053, -9.90362, 91.8466, -71.8191, 37.0776
0.304, 1, 33.7255, 51.5808, -9.93303, 91.8861, -71.6763, 37.1265
0.308, 1, 33.741, 51.5563, -9.96238, 91.9255, -71.5336, 37.1754
0.312, 1, 33.7565, 51.5319, -9.99169, 91.9648, -71.3913, 37.2243
0.316, 1, 33.7719, 51.5076, -10.0209, 92.004, -71.2491, 37.273
0.32, 1, 33.7873, 51.4833, -10.0501, 92.0432, -71.1073, 37.3216
0.324, 1, 33.8027, 51.459, -10.0793, 92.0823, -70.9656, 37.3702
0.328, 1, 33.8181, 51.4348, -10.1084, 92.1213, -70.8242, 37.4186
0.332, 1, 33.8334, 51.4106, -10.1374, 92.1603, -70.6831, 37.467
0.336, 1, 33.8487, 51.3864, -10.1665, 92.1992, -70.5422, 37.5153
0.34, 1, 33.864, 51.3623, -10.1954, 92.238, -70.4015, 37.5636
0.344, 1, 33.8793, 51.3383, -10.2243, 92.2768, -70.261, 37.6117
0.348, 1, 33.8945, 51.3142, -10.2532, 92.3155, -70.1209, 37.6598
0.352, 1, 33.9097, 51.2903, -10.282, 92.3541, -69.9809, 37.7077
0.356, 1, 33.9249, 51.2663, -10.3107, 92.3927, -69.8412, 37.7556
0.36, 1, 33.94, 51.2424, -10.3394, 92.4312, -69.7017, 37.8034
0.364, 1, 33.9552, 51.2186, -10.3681, 92.4696, -69.5624, 37.8512
0.368, 1, 33.9703, 51.1947, -10.3967, 92.508, -69.4234, 37.8988
0.372, 1, 33.9853, 51.171, -10.4253, 92.5463, -69.2846, 37.9464
0.376, 1, 34.0004, 51.1472, -10.4538, 92.5846, -69.1461, 37.9939
0.38, 1, 34.0154, 51.1235, -10.4823, 92.6228, -69.0078, 38.0413
0.384, 1, 34.0304, 51.0998, -10.5107, 92.6609, -68.8697, 38.0887
0.388, 1, 34.0454, 51.0762, -10.5391, 92.6989, -68.7318, 38.1359
0.392, 1, 34.0604, 51.0526, -10.5674, 92.7369, -68.5941, 38.1831
0.396, 1, 34.0753, 51.0291, -10.5957, 92.7749, -68.4567, 38.2302
0.4, 1, 34.0902, 51.0056, -10.6239, 92.8127, -68.3195, 38.2773
0.404, 1, 34.1051, 50.9821, -10.6521, 92.8506, -68.1826, 38.3242
0.408, 1, 34.1199, 50.9587, -10.6803, 92.8883, -68.0458, 38.3711
0.412, 1, 34.1348, 50.9353, -10.7084, 92.926, -67.9093, 38.4179
0.416, 1, 34.1496, 50.9119, -10.7364, 92.9636, -67.773, 38.4646
0.42, 1, 34.1643, 50.8886, -10.7644, 93.0012, -67.6369, 38.5113
0.424, 1, 34.1791, 50.8653, -10.7924, 93.0387, -67.501, 38.5579
0.428, 1, 34.1938, 50.8421, -10.8203, 93.0762, -67.3653, 38.6044
0.432, 1, 34.2086, 50.8189, -10.8482, 93.1136, -67.2299, 38.6508
0.436, 1, 34.2232, 50.7957, -10.876, 93.1509, -67.0947, 38.6971
0.44, 1, 34.2379, 50.7726, -10.9038, 93.1881, -66.9597, 38.7434
0.444, 1, 34.2526, 50.7495, -10.9315, 93.2254, -66.8249, 38.7896
0.448, 1, 34.2672, 50.7264, -10.9592, 93.2625, -66.6903, 38.8358
0.452, 1, 34.2818, 50.7034, -10.9869, 93.2996, -66.5559, 38.8818
0.456, 1, 34.2964, 50.6804, -11.0145, 93.3367, -66.4217, 38.9278
0.46, 1, 34.3109, 50.6574, -11.0421, 93.3736, -66.2878, 38.9738
0.464, 1, 34.3254, 50.6345, -11.0696, 93.4106, -66.154, 39.0196
0.468, 1, 34.3399, 50.6116, -11.0971, 93.4474, -66.0204, 39.0654
0.472, 1, 34.3544, 50.5888, -11.1246, 93.4842, -65.8871, 39.1111
0.476, 1, 34.3689, 50.566, -11.152, 93.521, -65.754, 39.1567
0.48, 1, 34.3833, 50.5432, -11.1793, 93.5577, -65.621, 39.2023
0.484, 1, 34.3978, 50.5204, -11.2066, 93.5943, -65.4883, 39.2478
0.488, 1, 34.4121, 50.4977, -11.2339, 93.6309, -65.3558, 39.2933
0.492, 1, 34.4265, 50.475, -11.2612, 93.6675, -65.2234, 39.3386
0.496, 1, 34.4409, 50.4524, -11.2883, 93.7039, -65.0913, 39.3839
0.5, 1, 34.4552, 50.4298, -11.3155, 93.7404, -64.9594, 39.4291
0.504, 1, 34.4695, 50.4072, -11.3426, 93.7767, -64.8276, 39.4743
0.508, 1, 34.4838, 50.3847, -11.3697, 93.813, -64.6961, 39.5194
0.512, 1, 34.4981, 50.3622, -11.3967, 93.8493, -64.5647, 39.5644
0.516, 1, 34.5123, 50.3397, -11.4237, 93.8855, -64.4336, 39.6094
0.52, 1, 34.5265, 50.3173, -11.4507, 93.9217, -64.3026, 39.6543
0.524, 1, 34.5408, 50.2949, -11.4776, 93.9578, -64.1719, 39.6991
0.528, 1, 34.5549, 50.2725, -11.5045, 93.9938, -64.0413, 39.7439
0.532, 1, 34.5691, 50.2501, -11.5313, 94.0298, -63.9109, 39.7886
0.536, 1, 34.5832, 50.2278, -11.5581, 94.0657, -63.7807, 39.8332
0.54, 1, 34.5974, 50.2056, -11.5848, 94.1016, -63.6507, 39.8777
0.544, 1, 34.6115, 50.1833, -11.6116, 94.1375, -63.5209, 39.9222
0.548, 1, 34.6255, 50.1611, -11.6382, 94.1732, -63.3913, 39.9667
0.552, 1, 34.6396, 50.1389, -11.6649, 94.209, -63.2619, 40.0111
0.556, 1, 34.6536, 50.1168, -11.6915, 94.2447, -63.1326, 40.0554
0.56, 1, 34.6677, 50.0947, -11.718, 94.2803, -63.0036, 40.0996
0.564, 1, 34.6817, 50.0726, -11.7446, 94.3159, -62.8747, 40.1438
0.568, 1, 34.6956, 50.0505, -11.7711, 94.3514, -62.746, 40.1879
0.572, 1, 34.7096, 50.0285, -11.7975, 94.3869, -62.6175, 40.2319
0.576, 1, 34.7235, 50.0065, -11.8239, 94.4223, -62.4892, 40.2759
0.58, 1, 34.7375, 49.9846, -11.8503, 94.4577, -62.361, 40.3199
0.584, 1, 34.7514, 49.9626, -11.8766, 94.493, -62.2331, 40.3637
0.588, 1, 34.7652, 49.9407, -11.9029, 94.5283, -62.1053, 40.4075
0.592, 1, 34.7791, 49.9189, -11.9292, 94.5635, -61.9777, 40.4513
0.596, 1, 34.7929, 49.897, -11.9554, 94.5987, -61.8503, 40.495
0.6, 1, 34.8068, 49.8752, -11.9816, 94.6338, -61.723, 40.5386
0.604, 1, 34.8206, 49.8535, -12.0078, 94.6689, -61.5959, 40.5821
0.608, 1, 34.8343, 49.8317, -12.0339, 94.7039, -61.4691, 40.6256
0.612, 1, 34.8481, 49.81, -12.0599, 94.7389, -61.3423, 40.6691
0.616, 1, 34.8618, 49.7883, -12.086, 94.7738, -61.2158, 40.7125
0.62, 1, 34.8756, 49.7667, -12.112, 94.8087, -61.0894, 40.7558
0.624, 1, 34.8893, 49.7451, -12.138, 94.8435, -60.9632, 40.799
0.628, 1, 34.903, 49.7235, -12.1639, 94.8783, -60.8372, 40.8422
0.632, 1, 34.9166, 49.7019, -12.1898, 94.9131, -60.7114, 40.8854
0.636, 1, 34.9303, 49.6804, -12.2157, 94.9478, -60.5857, 40.9284
0.64, 1, 34.9439, 49.6589, -12.2415, 94.9824, -60.4602, 40.9715
0.644, 1, 34.9575, 49.6374, -12.2673, 95.017, -60.3349, 41.0144
0.648, 1, 34.9711, 49.6159, -12.2931, 95.0516, -60.2097, 41.0573
0.652, 1, 34.9847, 49.5945, -12.3188, 95.0861, -60.0847, 41.1002
0.656, 1, 34.9983, 49.5731, -12.3445, 95.1205, -59.9599, 41.143
0.66, 1, 35.0118, 49.5518, -12.3701, 95.1549, -59.8352, 41.1857
0.664, 1, 35.0253, 49.5304, -12.3958, 95.1893, -59.7107, 41.2284
0.668, 1, 35.0388, 49.5091, -12.4214, 95.2236, -59.5864, 41.271
0.672, 1, 35.0523, 49.4879, -12.4469, 95.2579, -59.4622, 41.3136
0.676, 1, 35.0658, 49.4666, -12.4724, 95.2921, -59.3382, 41.3561
0.68, 1, 35.0792, 49.4454, -12.4979, 95.3263, -59.2144, 41.3985
0.684, 1, 35.0927, 49.4242, -12.5234, 95.3605, -59.0907, 41.4409
0.688, 1, 35.1061, 49.4031, -12.5488, 95.3946, -58.9672, 41.4833
0.692, 1, 35.1195, 49.3819, -12.5742, 95.4286, -58.8439, 41.5256
0.696, 1, 35.1329, 49.3608, -12.5995, 95.4626, -58.7207, 41.5678
0.7, 1, 35.1462, 49.3397, -12.6249, 95.4966, -58.5977, 41.61
0.704, 1, 35.1596, 49.3187, -12.6501, 95.5305, -58.4748, 41.6521
0.708, 1, 35.1729, 49.2977, -12.6754, 95.5644, -58.3521, 41.6941
0.712, 1, 35.1862, 49.2767, -12.7006, 95.5982, -58.2296, 41.7361
0.716, 1, 35.1995, 49.2557, -12.7258, 95.632, -58.1072, 41.7781
0.72, 1, 35.2128, 49.2347, -12.751, 95.6657, -57.985, 41.82
0.724, 1, 35.226, 49.2138, -12.7761, 95.6994, -57.8629, 41.8618
0.728, 1, 35.2393, 49.1929, -12.8012, 95.7331, -57.741, 41.9036
0.732, 1, 35.2525, 49.1721, -12.8262, 95.7667, -57.6192, 41.9454
0.736, 1, 35.2657, 49.1512, -12.8513, 95.8003, -57.4976, 41.9871
0.74, 1, 35.2789, 49.1304, -12.8763, 95.8338, -57.3762, 42.0287
0.744, 1, 35.2921, 49.1097, -12.9012, 95.8673, -57.2549, 42.0703
0.748, 1, 35.3052, 49.0889, -12.9262, 95.9007, -57.1338, 42.1118
0.752, 1, 35.3184, 49.0682, -12.9511, 95.9341, -57.0128, 42.1533
0.756, 1, 35.3315, 49.0475, -12.9759, 95.9675, -56.8919, 42.1947
0.76, 1, 35.3446, 49.0268, -13.0008, 96.0008, -56.7712, 42.2361
0.764, 1, 35.3577, 49.0061, -13.0256, 96.0341, -56.6507, 42.2774
0.768, 1, 35.3708, 48.9855, -13.0504, 96.0673, -56.5303, 42.3187
0.772, 1, 35.3838, 48.9649, -13.0751, 96.1005, -56.4101, 42.3599
0.776, 1, 35.3969, 48.9443, -13.0998, 96.1336, -56.29, 42.401
0.78, 1, 35.4099, 48.9238, -13.1245, 96.1667, -56.1701, 42.4422
0.784, 1, 35.4229, 48.9032, -13.1492, 96.1998, -56.0503, 42.4832
0.788, 1, 35.4359, 48.8827, -13.1738, 96.2328, -55.9307, 42.5242
0.792, 1, 35.4489, 48.8623, -13.1984, 96.2658, -55.8112, 42.5652
0.796, 1, 35.4619, 48.8418, -13.2229, 96.2988, -55.6918, 42.6061
0.8, 1, 35.4748, 48.8214, -13.2475, 96.3317, -55.5726, 42.647
0.804, 1, 35.4877, 48.801, -13.272, 96.3645, -55.4535, 42.6878
0.808, 1, 35.5006, 48.7806, -13.2965, 96.3974, -55.3346, 42.7285
0.812, 1, 35.5136, 48.7603, -13.3209, 96.4302, -55.2159, 42.7693
0.816, 1, 35.5264, 48.7399, -13.3453, 96.4629, -55.0972, 42.8099
0.82, 1, 35.5393, 48.7196, -13.3697, 96.4956, -54.9787, 42.8506
0.824, 1, 35.5522, 48.6994, -13.3941, 96.5283, -54.8604, 42.8911
0.828, 1, 35.565, 48.6791, -13.4184, 96.5609, -54.7422, 42.9316
0.832, 1, 35.5778, 48.6589, -13.4427, 96.5935, -54.6241, 42.9721
0.836, 1, 35.5906, 48.6387, -13.467, 96.6261, -54.5062, 43.0125
0.84, 1, 35.6034, 48.6185, -13.4912, 96.6586, -54.3884, 43.0529
0.844, 1, 35.6162, 48.5983, -13.5154, 96.6911, -54.2707, 43.0933
0.848, 1, 35.629, 48.5782, -13.5396, 96.7235, -54.1532, 43.1335
0.852, 1, 35.6417, 48.5581, -13.5638, 96.7559, -54.0358, 43.1738
0.856, 1, 35.6545, 48.538, -13.5879, 96.7883, -53.9186, 43.214
0.86, 1, 35.6672, 48.5179, -13.612, 96.8206, -53.8015, 43.2541
0.864, 1, 35.6799, 48.4979, -13.6361, 96.8529, -53.6845, 43.2942
0.868, 1, 35.6925, 48.4779, -13.6601, 96.8852, -53.5677, 43.3343
0.872, 1, 35.7051, 48.458, -13.6841, 96.9174, -53.451, 43.3743
0.876, 1, 35.7176, 48.4381, -13.7081, 96.9496, -53.3345, 43.4142
0.88, 1, 35.73, 48.4184, -13.7321, 96.9817, -53.2181, 43.4541
0.884, 1, 35.7419, 48.3992, -13.756, 97.0137, -53.102, 43.4939
0.888, 1, 35.7533, 48.3805, -13.7798, 97.0457, -52.9863, 43.5336
0.892, 1, 35.7641, 48.3627, -13.8035, 97.0775, -52.8712, 43.5731
0.896, 1, 35.7742, 48.3457, -13.8269, 97.109, -52.757, 43.6122
0.9, 1, 35.7836, 48.3297, -13.8501, 97.1401, -52.6444, 43.6508
0.904, 1, 35.7924, 48.3145, -13.8728, 97.1706, -52.534, 43.6887
0.908, 1, 35.8007, 48.3002, -13.895, 97.2003, -52.4264, 43.7256
0.912, 1, 35.8087, 48.2866, -13.9163, 97.229, -52.3226, 43.7613
0.916, 1, 35.8164, 48.2736, -13.9367, 97.2564, -52.2234, 43.7953
0.92, 1, 35.8238, 48.2613, -13.956, 97.2823, -52.1296, 43.8275
0.924, 1, 35.8309, 48.2497, -13.9741, 97.3065, -52.042, 43.8576
0.928, 1, 35.8377, 48.2387, -13.9907, 97.3288, -51.9612, 43.8853
0.932, 1, 35.8442, 48.2281, -14.0057, 97.3491, -51.888, 43.9104
0.936, 1, 35.8507, 48.2178, -14.0192, 97.3671, -51.8226, 43.9328
0.94, 1, 35.8571, 48.2077, -14.031, 97.3829, -51.7653, 43.9524
0.944, 1, 35.8634, 48.1979, -14.0412, 97.3966, -51.716, 43.9693
0.948, 1, 35.8695, 48.1884, -14.0498, 97.4081, -51.6743, 43.9836
0.952, 1, 35.8755, 48.1793, -14.0569, 97.4175, -51.6399, 43.9954
0.956, 2, 35.8812, 48.1708, -14.0626, 97.4252, -51.612, 44.0049
0.96, 2, 35.8865, 48.1631, -14.0672, 97.4313, -51.5899, 44.0124
0.964, 2, 35.8915, 48.1562, -14.0707, 97.436, -51.5728, 44.0183
0.968, 2, 35.896, 48.1502, -14.0734, 97.4396, -51.5598, 44.0227
0.972, 2, 35.9001, 48.145, -14.0754, 97.4422, -51.5503, 44.0259
0.976, 2, 35.9037, 48.1406, -14.0768, 97.4441, -51.5433, 44.0283
0.98, 2, 35.9067, 48.1371, -14.0778, 97.4454, -51.5385, 44.0299
0.984, 2, 35.9091, 48.1343, -14.0785, 97.4463, -51.5351, 44.0311
0.988, 2, 35.911, 48.1323, -14.079, 97.4469, -51.5327, 44.0319
0.992, 2, 35.9123, 48.1308, -14.0793, 97.4474, -51.5312, 44.0324
0.996, 2, 35.9132, 48.1299, -14.0796, 97.4477, -51.5301, 44.0328
1, 2, 35.9138, 48.1292, -14.0797, 97.4479, -51.5294, 44.033
1.004, 2, 35.9142, 48.1287, -14.0798, 97.448, -51.5289, 44.0332
1.008, 2, 35.9145, 48.1284, -14.0799, 97.4481, -51.5285, 44.0333
1.012, 2, 35.9147, 48.1282, -14.0799, 97.4482, -51.5283, 44.0334
1.016, 2, 35.9149, 48.1281, -14.08, 97.4482, -51.5282, 44.0334
1.02, 2, 35.9149, 48.128, -14.08, 97.4482, -51.5281, 44.0335
1.024, 2, 35.915, 48.1279, -14.08, 97.4482, -51.528, 44.0335
1.027, 2, 35.915, 48.1279, -14.08, 97.4483, -51.5279, 44.0335
1.032, 2, 35.9151, 48.1278, -14.08, 97.4483, -51.5279, 44.0335
1.036, 2, 35.9151, 48.1278, -14.08, 97.4483, -51.5279, 44.0335
1.04, 2, 35.9151, 48.1278, -14.08, 97.4483, -51.5279, 44.0335
1.044, 2, 35.9151, 48.1278, -14.08, 97.4483, -51.5279, 44.0335
1.048, 2, 35.9151, 48.1278, -14.08, 97.4483, -51.5279, 44.0335
1.052, 2, 35.9151, 48.1278, -14.08, 97.4483, -51.5279, 44.0335
1.055, 2, 35.9151, 48.1278, -14.08, 97.4483, -51.5278, 44.0335
1.06, 2, 35.9151, 48.1278, -14.08, 97.4483, -51.5278, 44.0335
1.064, 2, 35.9151, 48.1278, -14.08, 97.4483, -51.5278, 44.0335
1.068, 2, 35.9151, 48.1278, -14.08, 97.4483, -51.5278, 44.0335
1.072, 2, 35.9151, 48.1278, -14.08, 97.4483, -51.5278, 44.0335
1.076, 2, 35.9151, 48.1278, -14.08, 97.4483, -51.5278, 44.0335
1.08, 2, 35.9151, 48.1278, -14.08, 97.4483, -51.5278, 44.0335
1.084, 2, 35.9151, 48.1278, -14.08, 97.4483, -51.5278, 44.0335
1.088, 2, 35.9151, 48.1278, -14.08, 97.4483, -51.5278, 44.0335
1.091, 2, 35.9151, 48.1278, -14.08, 97.4483, -51.5278, 44.0335
1.096, 2, 35.9151, 48.1278, -14.08, 97.4483, -51.5278, 44.0335
1.1, 2, 35.9151, 48.1278, -14.08, 97.4483, -51.5278, 44.0335
1.104, 2, 35.9151, 48.1278, -14.08, 97.4483, -51.5278, 44.0335
1.108, 2, 35.9151, 48.1278, -14.08, 97.4483, -51.5278, 44.0335
1.112, 2, 35.9151, 48.1278, -14.08, 97.4483, -51.5278, 44.0335
1.116, 2, 35.9151, 48.1278, -14.08, 97.4483, -51.5278, 44.0335
1.119, 2, 35.9151, 48.1278, -14.08, 97.4483, -51.5278, 44.0335
1.124, 2, 35.9151, 48.1278, -14.08, 97.4483, -51.5278, 44.0335
1.128, 2, 35.9151, 48.1278, -14.08, 97.4483, -51.5278, 44.0335
1.132, 2, 35.9151, 48.1278, -14.08, 97.4483, -51.5278, 44.0335
1.136, 2, 35.9151, 48.1278, -14.08, 97.4483, -51.5278, 44.0335
1.14, 2, 35.9151, 48.1278, -14.08, 97.4483, -51.5278, 44.0335
1.144, 2, 35.9151, 48.1278, -14.08, 97.4483, -51.5278, 44.0335
1.147, 2, 35.9151, 48.1278, -14.08, 97.4483, -51.5278, 44.0335
1.152, 2, 35.9151, 48.1278, -14.08, 97.4483, -51.5278, 44.0335
1.156, 2, 35.9151, 48.1278, -14.08, 97.4483, -51.5278, 44.0335
1.16, 2, 35.9151, 48.1278, -14.08, 97.4483, -51.5278, 44.0335
1.164, 2, 35.9151, 48.1278, -14.08, 97.4483, -51.5278, 44.0335
1.168, 2, 35.9151, 48.1278, -14.08, 97.4483, -51.5278, 44.0335
1.172, 2, 35.9151, 48.1278, -14.08, 97.4483, -51.5278, 44.0335
1.175, 2, 35.9151, 48.1278, -14.08, 97.4483, -51.5278, 44.0335
1.18, 2, 35.9151, 48.1278, -14.08, 97.4483, -51.5278, 44.0335
1.184, 2, 35.9151, 48.1278, -14.08, 97.4483, -51.5278, 44.0335
1.188, 2, 35.9151, 48.1278, -14.08, 97.4483, -51.5278, 44.0335
1.192, 2, 35.9151, 48.1278, -14.08, 97.4483, -51.5278, 44.0335
1.196, 2, 35.9151, 48.1278, -14.08, 97.4483, -51.5278, 44.0335
1.2, 2, 35.9151, 48.1278, -14.08, 97.4483, -51.5278, 44.0335
1.204, 2, 35.9151, 48.1278, -14.08, 97.4483, -51.5278, 44.0335
1.208, 2, 35.9151, 48.1278, -14.08, 97.4483, -51.5278, 44.0335
1.212, 2, 35.9151, 48.1278, -14.08, 97.4483, -51.5278, 44.0335
1.216, 2, 35.9151, 48.1278, -14.08, 97.4483, -51.5278, 44.0335
1.22, 2, 35.9151, 48.1278, -14.08, 97.4483, -51.5278, 44.0335
1.224, 2, 35.9151, 48.1278, -14.08, 97.4483, -51.5278, 44.0335
1.228, 2, 35.9151, 48.1278, -14.08, 97.4483, -51.5278, 44.0335
1.232, 2, 35.9151, 48.1278, -14.08, 97.4483, -51.5278, 44.0335
1.236, 2, 35.9151, 48.1278, -14.08, 97.4483, -51.5278, 44.0335
1.24, 2, 35.9151, 48.1278, -14.08, 97.4483, -51.5278, 44.0335
1.244, 2, 35.9151, 48.1278, -14.08, 97.4483, -51.5278, 44.0335
1.248, 2, 35.9151, 48.1278, -14.08, 97.4483, -51.5278, 44.0335
1.252, 2, 35.9151, 48.1278, -14.08, 97.4483, -51.5278, 44.0335
1.256, 2, 35.9151, 48.1278, -14.08, 97.4483, -51.5278, 44.0335
1.26, 2, 35.9151, 48.1278, -14.08, 97.4483, -51.5278, 44.0335
1.264, 2, 35.9151, 48.1278, -14.08, 97.4483, -51.5278, 44.0335
1.267, 2, 35.9151, 48.1278, -14.08, 97.4483, -51.5278, 44.0335
1.272, 2, 35.9151, 48.1278, -14.08, 97.4483, -51.5278, 44.0335
1.276, 2, 35.9151, 48.1278, -14.08, 97.4483, -51.5278, 44.0335
1.28, 2, 35.9151, 48.1278, -14.08, 97.4483, -51.5278, 44.0335
1.284, 2, 35.9151, 48.1278, -14.08, 97.4483, -51.5278, 44.0335
1.288, 2, 35.9151, 48.1278, -14.08, 97.4483, -51.5278, 44.0335
1.292, 2, 35.9151, 48.1278, -14.08, 97.4483, -51.5278, 44.0335
1.295, 2, 35.9151, 48.1278, -14.08, 97.4483, -51.5278, 44.0335
1.3, 2, 35.9151, 48.1278, -14.08, 97.4483, -51.5278, 44.0335
1.304, 2, 35.9151, 48.1278, -14.08, 97.4483, -51.5278, 44.0335
1.308, 2, 35.9151, 48.1278, -14.08, 97.4483, -51.5278, 44.0335
1.312, 2, 35.9151, 48.1278, -14.08, 97.4483, -51.5278, 44.0335
1.316, 2, 35.9151, 48.1278, -14.08, 97.4483, -51.5278, 44.0335
1.32, 2, 35.9151, 48.1278, -14.08, 97.4483, -51.5278, 44.0335
1.324, 2, 35.9151, 48.1278, -14.08, 97.4483, -51.5278, 44.0335
1.328, 2, 35.9151, 48.1278, -14.08, 97.4483, -51.5278, 44.0335
1.332, 2, 35.9151, 48.1278, -14.08, 97.4483, -51.5278, 44.0335
1.336, 2, 35.9151, 48.1278, -14.08, 97.4483, -51.5278, 44.0335
1.34, 2, 35.9151, 48.1278, -14.08, 97.4483, -51.5278, 44.0335
1.344, 2, 35.9151, 48.1278, -14.08, 97.4483, -51.5278, 44.0335
1.348, 2, 35.9151, 48.1278, -14.08, 97.4483, -51.5278, 44.0335
1.352, 2, 35.9151, 48.1278, -14.08, 97.4483, -51.5278, 44.0335
1.356, 2, 35.9151, 48.1278, -14.08, 97.4483, -51.5278, 44.0335
1.36, 2, 35.9151, 48.1278, -14.08, 97.4483, -51.5278, 44.0335
1.364, 2, 35.9151, 48.1278, -14.08, 97.4483, -51.5278, 44.0335
1.368, 2, 35.9151, 48.1278, -14.08, 97.4483, -51.5278, 44.0335
1.372, 2, 35.9151, 48.1278, -14.08, 97.4483, -51.5278, 44.0335
1.376, 2, 35.9151, 48.1278, -14.08, 97.4483, -51.5278, 44.0335
1.38, 2, 35.9151, 48.1278, -14.08, 97.4483, -51.5278, 44.0335
1.384, 2, 35.9151, 48.1278, -14.08, 97.4483, -51.5278, 44.0335
1.388, 2, 35.9151, 48.1278, -14.08, 97.4483, -51.5278, 44.0335
1.392, 2, 35.9151, 48.1278, -14.08, 97.4483, -51.5278, 44.0335
1.396, 2, 35.9151, 48.1278, -14.08, 97.4483, -51.5278, 44.0335
1.4, 2, 35.9151, 48.1278, -14.08, 97.4483, -51.5278, 44.0335
1.404, 2, 35.9151, 48.1278, -14.08, 97.4483, -51.5278, 44.0335
1.408, 2, 35.9151, 48.1278, -14.08, 97.4483, -51.5278, 44.0335
1.412, 2, 35.9151, 48.1278, -14.08, 97.4483, -51.5278, 44.0335
1.416, 2, 35.9151, 48.1278, -14.08, 97.4483, -51.5278, 44.0335
1.42, 2, 35.9151, 48.1278, -14.08, 97.4483, -51.5278, 44.0335
1.424, 2, 35.9151, 48.1278, -14.08, 97.4483, -51.5278, 44.0335
1.428, 2, 35.9151, 48.1278, -14.08, 97.4483, -51.5278, 44.0335
1.432, 2, 35.9151, 48.1278, -14.08, 97.4483, -51.5278, 44.0335
1.436, 2, 35.9151, 48.1278, -14.08, 97.4483, -51.5278, 44.0335
1.44, 2, 35.9151, 48.1278, -14.08, 97.4483, -51.5278, 44.0335
1.444, 2, 35.9151, 48.1278, -14.08, 97.4483, -51.5278, 44.0335
1.448, 2, 35.9151, 48.1278, -14.08, 97.4483, -51.5278, 44.0335
1.452, 2, 35.9151, 48.1278, -14.08, 97.4483, -51.5278, 44.0335
1.456, 3, 35.9151, 48.1278, -14.08, 97.4483, -51.5278, 44.0335
1.46, 3, 35.9151, 48.1278, -14.08, 97.4483, -51.5278, 44.0335
1.464, 3, 35.9151, 48.1278, -14.08, 97.4483, -51.5278, 44.0335
1.468, 3, 35.9151, 48.1278, -14.08, 97.4483, -51.5278, 44.0335
1.472, 3, 35.9151, 48.1278, -14.08, 97.4483, -51.5278, 44.0335
1.476, 3, 35.9151, 48.1278, -14.08, 97.4483, -51.5278, 44.0335
1.48, 3, 35.9151, 48.1278, -14.08, 97.4483, -51.5278, 44.0335
1.484, 3, 35.9151, 48.1278, -14.08, 97.4483, -51.5278, 44.0335
1.488, 3, 35.9151, 48.1278, -14.08, 97.4483, -51.5278, 44.0335
1.492, 3, 35.9151, 48.1278, -14.08, 97.4483, -51.5278, 44.0335
1.496, 3, 35.9151, 48.1278, -14.08, 97.4483, -51.5278, 44.0335
1.5, 3, 35.9151, 48.1278, -14.08, 97.4483, -51.5278, 44.0335
1.504, 3, 35.9151, 48.1278, -14.08, 97.4483, -51.5278, 44.0335
1.508, 3, 35.9151, 48.1278, -14.08, 97.4483, -51.5278, 44.0335
1.512, 4, 35.9151, 48.1278, -14.08, 97.4483, -51.5278, 44.0335
1.516, 4, 35.9151, 48.1278, -14.08, 97.4483, -51.5278, 44.0335
1.52, 4, 35.9151, 48.1278, -14.08, 97.4483, -51.5278, 44.0335
1.524, 4, 35.9151, 48.1278, -14.08, 97.4483, -51.5278, 44.0335
1.528, 4, 35.9151, 48.1278, -14.08, 97.4483, -51.5278, 44.0335
1.532, 4, 35.9151, 48.1278, -14.08, 97.4483, -51.5278, 44.0335
1.536, 4, 35.9151, 48.1278, -14.08, 97.4483, -51.5278, 44.0335
1.54, 4, 35.9151, 48.1278, -14.08, 97.4483, -51.5278, 44.0335
1.544, 4, 35.9151, 48.1278, -14.08, 97.4483, -51.5278, 44.0335
1.548, 4, 35.9151, 48.1278, -14.08, 97.4483, -51.5278, 44.0335
1.552, 4, 35.9151, 48.1278, -14.08, 97.4483, -51.5278, 44.0335
1.556, 4, 35.9151, 48.128, -14.08, 97.4483, -51.5279, 44.0335
1.56, 4, 35.915, 48.1283, -14.0801, 97.4483, -51.5279, 44.0335
1.564, 4, 35.9147, 48.1291, -14.0801, 97.4483, -51.528, 44.0334
1.568, 4, 35.9143, 48.1303, -14.0802, 97.4483, -51.5284, 44.0332
1.572, 4, 35.9138, 48.1321, -14.0803, 97.4484, -51.5291, 44.0327
1.576, 4, 35.9131, 48.1343, -14.0806, 97.4485, -51.5304, 44.0319
1.58, 4, 35.9124, 48.137, -14.081, 97.4487, -51.5326, 44.0305
1.584, 4, 35.9116, 48.1401, -14.0816, 97.449, -51.5361, 44.0284
1.588, 4, 35.9108, 48.1435, -14.0824, 97.4493, -51.541, 44.0254
1.592, 4, 35.9101, 48.1471, -14.0834, 97.4499, -51.5478, 44.0212
1.596, 4, 35.9095, 48.151, -14.0847, 97.4505, -51.5566, 44.0157
1.6, 4, 35.909, 48.1552, -14.0863, 97.4513, -51.5676, 44.0089
1.604, 4, 35.9085, 48.1599, -14.0882, 97.4523, -51.581, 44.0006
1.608, 4, 35.908, 48.165, -14.0905, 97.4535, -51.5968, 43.9909
1.612, 4, 35.9077, 48.1704, -14.093, 97.4548, -51.615, 43.9796
1.616, 4, 35.9075, 48.1761, -14.0959, 97.4563, -51.6356, 43.9669
1.62, 4, 35.9074, 48.1821, -14.0991, 97.458, -51.6583, 43.9528
1.624, 4, 35.9073, 48.1883, -14.1025, 97.4598, -51.6831, 43.9376
1.628, 4, 35.9073, 48.1948, -14.1062, 97.4617, -51.7096, 43.9212
1.632, 4, 35.9073, 48.2017, -14.1101, 97.4637, -51.7375, 43.904
1.636, 4, 35.9072, 48.2091, -14.1141, 97.4657, -51.7665, 43.8861
1.64, 4, 35.9069, 48.2171, -14.1183, 97.4678, -51.7964, 43.8677
1.644, 4, 35.9065, 48.2257, -14.1225, 97.4699, -51.8268, 43.849
1.648, 4, 35.906, 48.2347, -14.1268, 97.4721, -51.8577, 43.83
1.652, 4, 35.9054, 48.244, -14.1312, 97.4742, -51.8888, 43.8109
1.656, 4, 35.9047, 48.2536, -14.1355, 97.4764, -51.9201, 43.7917
1.66, 4, 35.904, 48.2633, -14.1399, 97.4785, -51.9515, 43.7724
1.664, 4, 35.9032, 48.2732, -14.1443, 97.4806, -51.9831, 43.753
1.668, 4, 35.9024, 48.2831, -14.1487, 97.4827, -52.0146, 43.7337
1.672, 4, 35.9016, 48.2931, -14.1531, 97.4848, -52.0463, 43.7143
1.676, 4, 35.9008, 48.303, -14.1574, 97.4868, -52.0779, 43.6949
1.68, 4, 35.9, 48.313, -14.1618, 97.4889, -52.1096, 43.6756
1.684, 4, 35.8992, 48.3231, -14.1662, 97.4909, -52.1412, 43.6562
1.688, 4, 35.8983, 48.3331, -14.1705, 97.4929, -52.1729, 43.6369
1.692, 4, 35.8975, 48.3431, -14.1749, 97.4949, -52.2046, 43.6175
1.696, 4, 35.8966, 48.3532, -14.1792, 97.4968, -52.2362, 43.5982
1.7, 4, 35.8958, 48.3632, -14.1835, 97.4988, -52.2679, 43.5789
1.704, 4, 35.8949, 48.3732, -14.1878, 97.5007, -52.2996, 43.5596
1.708, 4, 35.894, 48.3832, -14.1921, 97.5026, -52.3313, 43.5404
1.712, 4, 35.8932, 48.3932, -14.1964, 97.5044, -52.3629, 43.5211
1.716, 4, 35.8923, 48.4032, -14.2007, 97.5063, -52.3946, 43.5019
1.72, 4, 35.8914, 48.4133, -14.205, 97.5081, -52.4263, 43.4826
1.724, 4, 35.8905, 48.4233, -14.2092, 97.5099, -52.4579, 43.4634
1.728, 4, 35.8897, 48.4333, -14.2135, 97.5117, -52.4896, 43.4442
1.732, 4, 35.8888, 48.4432, -14.2177, 97.5135, -52.5213, 43.425
1.736, 4, 35.8879, 48.4532, -14.2219, 97.5152, -52.5529, 43.4059
1.74, 4, 35.887, 48.4632, -14.2262, 97.517, -52.5846, 43.3867
1.744, 4, 35.8861, 48.4732, -14.2304, 97.5187, -52.6162, 43.3676
1.748, 4, 35.8852, 48.4832, -14.2346, 97.5204, -52.6479, 43.3485
1.752, 4, 35.8843, 48.4931, -14.2388, 97.522, -52.6795, 43.3294
1.756, 4, 35.8834, 48.5031, -14.2429, 97.5237, -52.7111, 43.3103
1.76, 4, 35.8825, 48.513, -14.2471, 97.5253, -52.7428, 43.2912
1.764, 4, 35.8816, 48.523, -14.2513, 97.5269, -52.7744, 43.2722
1.768, 4, 35.8806, 48.5329, -14.2554, 97.5285, -52.806, 43.2531
1.772, 4, 35.8797, 48.5429, -14.2595, 97.53, -52.8377, 43.2341
1.776, 4, 35.8788, 48.5528, -14.2637, 97.5316, -52.8693, 43.2151
1.78, 4, 35.8779, 48.5627, -14.2678, 97.5331, -52.9009, 43.1961
1.784, 4, 35.8769, 48.5726, -14.2719, 97.5346, -52.9325, 43.1771
1.788, 4, 35.876, 48.5825, -14.276, 97.5361, -52.9641, 43.1582
1.792, 4, 35.8751, 48.5925, -14.28, 97.5376, -52.9958, 43.1392
1.796, 4, 35.8741, 48.6024, -14.2841, 97.539, -53.0274, 43.1203
1.8, 4, 35.8732, 48.6123, -14.2882, 97.5404, -53.059, 43.1014
1.804, 4, 35.8722, 48.6222, -14.2922, 97.5418, -53.0906, 43.0825
1.808, 4, 35.8713, 48.632, -14.2963, 97.5432, -53.1222, 43.0636
1.812, 4, 35.8703, 48.6419, -14.3003, 97.5445, -53.1538, 43.0447
1.816, 4, 35.8694, 48.6518, -14.3043, 97.5459, -53.1853, 43.0258
1.82, 4, 35.8684, 48.6617, -14.3083, 97.5472, -53.2169, 43.007
1.824, 4, 35.8674, 48.6715, -14.3123, 97.5485, -53.2485, 42.9882
1.828, 4, 35.8664, 48.6814, -14.3163, 97.5498, -53.2801, 42.9694
1.832, 4, 35.8655, 48.6912, -14.3202, 97.551, -53.3117, 42.9506
1.836, 4, 35.8645, 48.7011, -14.3242, 97.5523, -53.3433, 42.9318
1.84, 4, 35.8635, 48.7109, -14.3282, 97.5535, -53.3748, 42.913
1.844, 4, 35.8625, 48.7208, -14.3321, 97.5547, -53.4064, 42.8943
1.848, 4, 35.8615, 48.7306, -14.336, 97.5559, -53.438, 42.8756
1.852, 4, 35.8605, 48.7404, -14.3399, 97.557, -53.4695, 42.8568
1.856, 4, 35.8595, 48.7503, -14.3439, 97.5582, -53.5011, 42.8381
1.86, 4, 35.8585, 48.7601, -14.3478, 97.5593, -53.5326, 42.8194
1.864, 4, 35.8575, 48.7699, -14.3516, 97.5604, -53.5642, 42.8008
1.868, 4, 35.8565, 48.7797, -14.3555, 97.5615, -53.5958, 42.7821
1.872, 4, 35.8555, 48.7895, -14.3594, 97.5625, -53.6273, 42.7635
1.876, 4, 35.8545, 48.7993, -14.3632, 97.5635, -53.6588, 42.7448
1.88, 4, 35.8535, 48.8091, -14.3671, 97.5646, -53.6904, 42.7262
1.884, 4, 35.8525, 48.8188, -14.3709, 97.5656, -53.7219, 42.7076
1.888, 4, 35.8514, 48.8286, -14.3747, 97.5665, -53.7535, 42.689
1.892, 4, 35.8504, 48.8384, -14.3785, 97.5675, -53.785, 42.6705
1.896, 4, 35.8494, 48.8482, -14.3823, 97.5684, -53.8165, 42.6519
1.9, 4, 35.8483, 48.8579, -14.3861, 97.5693, -53.848, 42.6334
1.904, 4, 35.8473, 48.8677, -14.3899, 97.5702, -53.8796, 42.6148
1.908, 4, 35.8463, 48.8774, -14.3937, 97.5711, -53.9111, 42.5963
1.912, 4, 35.8452, 48.8872, -14.3974, 97.572, -53.9426, 42.5778
1.916, 4, 35.8442, 48.8969, -14.4012, 97.5728, -53.9741, 42.5593
1.92, 4, 35.8431, 48.9066, -14.4049, 97.5736, -54.0056, 42.5409
1.924, 4, 35.8421, 48.9163, -14.4086, 97.5744, -54.0371, 42.5224
1.928, 4, 35.841, 48.9261, -14.4123, 97.5752, -54.0686, 42.504
1.932, 4, 35.8399, 48.9358, -14.416, 97.576, -54.1001, 42.4856
1.936, 4, 35.8389, 48.9455, -14.4197, 97.5767, -54.1316, 42.4671
1.94, 4, 35.8378, 48.9552, -14.4234, 97.5774, -54.1631, 42.4487
1.944, 4, 35.8367, 48.9649, -14.4271, 97.5781, -54.1946, 42.4304
1.948, 4, 35.8356, 48.9746, -14.4307, 97.5788, -54.2261, 42.412
1.952, 4, 35.8345, 48.9843, -14.4344, 97.5795, -54.2575, 42.3936
1.956, 4, 35.8335, 48.9939, -14.438, 97.5801, -54.289, 42.3753
1.96, 4, 35.8324, 49.0036, -14.4416, 97.5808, -54.3205, 42.357
1.964, 4, 35.8313, 49.0133, -14.4452, 97.5814, -54.352, 42.3387
1.968, 4, 35.8302, 49.0229, -14.4488, 97.582, -54.3834, 42.3204
1.972, 4, 35.8291, 49.0326, -14.4524, 97.5825, -54.4149, 42.3021
1.976, 4, 35.828, 49.0422, -14.456, 97.5831, -54.4464, 42.2838
1.98, 4, 35.8269, 49.0519, -14.4596, 97.5836, -54.4778, 42.2656
1.984, 4, 35.8258, 49.0615, -14.4631, 97.5841, -54.5093, 42.2473
1.988, 4, 35.8246, 49.0712, -14.4667, 97.5846, -54.5407, 42.2291
1.992, 4, 35.8235, 49.0808, -14.4702, 97.5851, -54.5722, 42.2109
1.996, 4, 35.8224, 49.0904, -14.4737, 97.5855, -54.6036, 42.1927
1.999, 4, 35.8213, 49.1, -14.4772, 97.5859, -54.6351, 42.1745
2.004, 4, 35.8201, 49.1096, -14.4807, 97.5864, -54.6665, 42.1563
2.008, 4, 35.819, 49.1192, -14.4842, 97.5868, -54.6979, 42.1382
2.012, 4, 35.8179, 49.1288, -14.4877, 97.5871, -54.7294, 42.12
2.015, 4, 35.8167, 49.1384, -14.4911, 97.5875, -54.7608, 42.1019
2.019, 4, 35.8156, 49.148, -14.4946, 97.5878, -54.7922, 42.0838
2.024, 4, 35.8144, 49.1576, -14.498, 97.5882, -54.8236, 42.0657
2.028, 4, 35.8133, 49.1672, -14.5015, 97.5884, -54.855, 42.0476
2.031, 4, 35.8121, 49.1767, -14.5049, 97.5887, -54.8865, 42.0295
2.036, 4, 35.811, 49.1863, -14.5083, 97.589, -54.9179, 42.0115
2.04, 4, 35.8098, 49.1958, -14.5117, 97.5892, -54.9493, 41.9934
2.044, 4, 35.8086, 49.2054, -14.5151, 97.5895, -54.9807, 41.9754
2.048, 4, 35.8075, 49.2149, -14.5185, 97.5897, -55.0121, 41.9573
2.051, 4, 35.8063, 49.2245, -14.5218, 97.5899, -55.0435, 41.9393
2.055, 4, 35.8051, 49.234, -14.5252, 97.59, -55.0749, 41.9213
2.06, 4, 35.804, 49.2435, -14.5285, 97.5902, -55.1063, 41.9034
2.064, 4, 35.8028, 49.2531, -14.5319, 97.5903, -55.1376, 41.8854
2.068, 4, 35.8016, 49.2626, -14.5352, 97.5904, -55.169, 41.8674
2.071, 4, 35.8004, 49.2721, -14.5385, 97.5905, -55.2004, 41.8495
2.076, 4, 35.7992, 49.2816, -14.5418, 97.5906, -55.2318, 41.8316
2.08, 4, 35.798, 49.2911, -14.5451, 97.5907, -55.2632, 41.8136
2.084, 4, 35.7968, 49.3006, -14.5484, 97.5907, -55.2945, 41.7957
2.087, 4, 35.7956, 49.3101, -14.5516, 97.5907, -55.3259, 41.7779
2.092, 4, 35.7944, 49.3195, -14.5549, 97.5908, -55.3573, 41.76
2.096, 4, 35.7932, 49.329, -14.5581, 97.5907, -55.3886, 41.7421
2.1, 4, 35.792, 49.3385, -14.5613, 97.5907, -55.42, 41.7243
2.104, 4, 35.7907, 49.3479, -14.5646, 97.5907, -55.4513, 41.7064
2.107, 4, 35.7895, 49.3574, -14.5678, 97.5906, -55.4827, 41.6886
2.111, 4, 35.7883, 49.3669, -14.571, 97.5905, -55.514, 41.6708
2.116, 4, 35.7871, 49.3763, -14.5742, 97.5904, -55.5454, 41.653
2.12, 4, 35.7858, 49.3857, -14.5773, 97.5903, -55.5767, 41.6352
2.124, 4, 35.7846, 49.3952, -14.5805, 97.5901, -55.608, 41.6174
2.127, 4, 35.7833, 49.4046, -14.5836, 97.59, -55.6394, 41.5997
2.132, 4, 35.7821, 49.414, -14.5868, 97.5898, -55.6707, 41.5819
2.136, 4, 35.7809, 49.4234, -14.5899, 97.5896, -55.702, 41.5642
2.14, 4, 35.7796, 49.4328, -14.593, 97.5894, -55.7333, 41.5465
2.143, 4, 35.7784, 49.4422, -14.5961, 97.5892, -55.7647, 41.5288
2.148, 4, 35.7771, 49.4516, -14.5992, 97.5889, -55.796, 41.5111
2.152, 4, 35.7758, 49.461, -14.6023, 97.5887, -55.8273, 41.4934
2.156, 4, 35.7746, 49.4704, -14.6054, 97.5884, -55.8586, 41.4757
2.16, 4, 35.7733, 49.4798, -14.6085, 97.5881, -55.8899, 41.4581
2.163, 4, 35.772, 49.4892, -14.6115, 97.5878, -55.9212, 41.4404
2.168, 4, 35.7708, 49.4985, -14.6145, 97.5874, -55.9525, 41.4228
2.172, 4, 35.7695, 49.5079, -14.6176, 97.5871, -55.9838, 41.4052
2.176, 4, 35.7682, 49.5172, -14.6206, 97.5867, -56.0151, 41.3875
2.179, 4, 35.7669, 49.5266, -14.6236, 97.5863, -56.0464, 41.37
2.184, 4, 35.7656, 49.5359, -14.6266, 97.5859, -56.0777, 41.3524
2.188, 4, 35.7643, 49.5453, -14.6296, 97.5855, -56.1089, 41.3348
2.192, 4, 35.763, 49.5546, -14.6325, 97.585, -56.1402, 41.3172
2.196, 4, 35.7617, 49.5639, -14.6355, 97.5846, -56.1715, 41.2997
2.199, 4, 35.7604, 49.5732, -14.6384, 97.5841, -56.2028, 41.2822
2.204, 4, 35.7591, 49.5825, -14.6414, 97.5836, -56.234, 41.2646
2.208, 4, 35.7578, 49.5919, -14.6443, 97.5831, -56.2653, 41.2471
2.212, 4, 35.7565, 49.6012, -14.6472, 97.5826, -56.2966, 41.2296
2.216, 4, 35.7552, 49.6104, -14.6501, 97.582, -56.3278, 41.2122
2.219, 4, 35.7538, 49.6197, -14.653, 97.5814, -56.3591, 41.1947
2.224, 4, 35.7525, 49.629, -14.6559, 97.5809, -56.3903, 41.1772
2.228, 4, 35.7512, 49.6383, -14.6588, 97.5803, -56.4216, 41.1598
2.232, 4, 35.7499, 49.6476, -14.6616, 97.5797, -56.4528, 41.1423
2.235, 4, 35.7485, 49.6568, -14.6645, 97.579, -56.484, 41.1249
2.24, 4, 35.7472, 49.6661, -14.6673, 97.5784, -56.5153, 41.1075
2.244, 4, 35.7458, 49.6753, -14.6701, 97.5777, -56.5465, 41.0901
2.248, 4, 35.7445, 49.6846, -14.6729, 97.577, -56.5777, 41.0727
2.252, 4, 35.7432, 49.6938, -14.6757, 97.5763, -56.609, 41.0553
2.255, 4, 35.7418, 49.703, -14.6785, 97.5756, -56.6402, 41.038
2.259, 4, 35.7404, 49.7123, -14.6813, 97.5748, -56.6714, 41.0206
2.264, 4, 35.7391, 49.7215, -14.6841, 97.5741, -56.7026, 41.0033
2.268, 4, 35.7377, 49.7307, -14.6868, 97.5733, -56.7338, 40.986
2.272, 4, 35.7364, 49.7399, -14.6896, 97.5725, -56.765, 40.9686
2.275, 4, 35.735, 49.7491, -14.6923, 97.5717, -56.7962, 40.9513
2.28, 4, 35.7336, 49.7583, -14.695, 97.5709, -56.8274, 40.9341
2.284, 4, 35.7322, 49.7675, -14.6977, 97.5701, -56.8586, 40.9168
2.288, 4, 35.7309, 49.7767, -14.7004, 97.5692, -56.8898, 40.8995
2.291, 4, 35.7295, 49.7858, -14.7031, 97.5683, -56.921, 40.8822
2.296, 4, 35.7281, 49.795, -14.7058, 97.5674, -56.9522, 40.865
2.3, 4, 35.7267, 49.8042, -14.7085, 97.5665, -56.9834, 40.8478
2.304, 4, 35.7253, 49.8133, -14.7111, 97.5656, -57.0146, 40.8305
2.308, 4, 35.7239, 49.8225, -14.7138, 97.5647, -57.0458, 40.8133
2.311, 4, 35.7225, 49.8316, -14.7164, 97.5637, -57.0769, 40.7961
2.316, 4, 35.7211, 49.8408, -14.719, 97.5627, -57.1081, 40.779
2.32, 4, 35.7197, 49.8499, -14.7216, 97.5618, -57.1393, 40.7618
2.324, 4, 35.7183, 49.859, -14.7242, 97.5607, -57.1704, 40.7446
2.328, 4, 35.7169, 49.8682, -14.7268, 97.5597, -57.2016, 40.7275
2.331, 4, 35.7154, 49.8773, -14.7294, 97.5587, -57.2327, 40.7103
2.336, 4, 35.714, 49.8864, -14.7319, 97.5576, -57.2639, 40.6932
2.34, 4, 35.7126, 49.8955, -14.7345, 97.5565, -57.295, 40.6761
2.344, 4, 35.7112, 49.9046, -14.737, 97.5555, -57.3262, 40.659
2.347, 4, 35.7097, 49.9137, -14.7395, 97.5543, -57.3573, 40.6419
2.352, 4, 35.7083, 49.9227, -14.7421, 97.5532, -57.3885, 40.6248
2.356, 4, 35.7069, 49.9318, -14.7446, 97.5521, -57.4196, 40.6077
2.36, 4, 35.7054, 49.9409, -14.7471, 97.5509, -57.4507, 40.5907
2.364, 4, 35.704, 49.9499, -14.7495, 97.5498, -57.4819, 40.5736
2.367, 4, 35.7025, 49.959, -14.752, 97.5486, -57.513, 40.5566
2.372, 4, 35.7011, 49.9681, -14.7545, 97.5473, -57.5441, 40.5396
2.376, 4, 35.6996, 49.9771, -14.7569, 97.5461, -57.5752, 40.5225
2.38, 4, 35.6982, 49.9861, -14.7593, 97.5449, -57.6063, 40.5055
2.383, 4, 35.6967, 49.9952, -14.7618, 97.5436, -57.6374, 40.4885
2.388, 4, 35.6952, 50.0042, -14.7642, 97.5424, -57.6686, 40.4716
2.392, 4, 35.6938, 50.0132, -14.7666, 97.5411, -57.6997, 40.4546
2.396, 4, 35.6923, 50.0222, -14.769, 97.5398, -57.7308, 40.4376
2.4, 4, 35.6908, 50.0312, -14.7713, 97.5384, -57.7618, 40.4207
2.403, 4, 35.6893, 50.0402, -14.7737, 97.5371, -57.7929, 40.4037
2.408, 4, 35.6878, 50.0492, -14.7761, 97.5358, -57.824, 40.3868
2.412, 4, 35.6864, 50.0582, -14.7784, 97.5344, -57.8551, 40.3699
2.416, 4, 35.6849, 50.0672, -14.7807, 97.533, -57.8862, 40.353
2.42, 4, 35.6834, 50.0762, -14.7831, 97.5316, -57.9173, 40.3361
2.423, 4, 35.6819, 50.0851, -14.7854, 97.5302, -57.9484, 40.3192
2.428, 4, 35.6804, 50.0941, -14.7877, 97.5287, -57.9794, 40.3024
2.432, 4, 35.6789, 50.1031, -14.7899, 97.5273, -58.0105, 40.2855
2.436, 4, 35.6774, 50.112, -14.7922, 97.5258, -58.0416, 40.2686
2.439, 4, 35.6758, 50.121, -14.7945, 97.5243, -58.0726, 40.2518
2.444, 4, 35.6743, 50.1299, -14.7967, 97.5228, -58.1037, 40.235
2.448, 4, 35.6728, 50.1388, -14.799, 97.5213, -58.1347, 40.2182
2.452, 4, 35.6713, 50.1477, -14.8012, 97.5198, -58.1658, 40.2014
2.456, 4, 35.6698, 50.1567, -14.8034, 97.5183, -58.1968, 40.1846
2.459, 4, 35.6682, 50.1656, -14.8056, 97.5167, -58.2279, 40.1678
2.464, 4, 35.6667, 50.1745, -14.8078, 97.5151, -58.2589, 40.151
2.468, 4, 35.6652, 50.1834, -14.81, 97.5135, -58.2899, 40.1342
2.472, 4, 35.6636, 50.1923, -14.8122, 97.5119, -58.321, 40.1175
2.476, 4, 35.6621, 50.2012, -14.8143, 97.5103, -58.352, 40.1007
2.479, 4, 35.6605, 50.21, -14.8165, 97.5086, -58.383, 40.084
2.484, 4, 35.659, 50.2189, -14.8186, 97.507, -58.414, 40.0673
2.488, 4, 35.6574, 50.2278, -14.8207, 97.5053, -58.4451, 40.0506
2.492, 4, 35.6559, 50.2366, -14.8228, 97.5036, -58.4761, 40.0339
2.495, 4, 35.6543, 50.2455, -14.8249, 97.5019, -58.5071, 40.0172
2.5, 4, 35.6528, 50.2543, -14.827, 97.5002, -58.5381, 40.0005
2.504, 4, 35.6512, 50.2632, -14.8291, 97.4985, -58.5691, 39.9838
2.508, 4, 35.6496, 50.272, -14.8312, 97.4967, -58.6001, 39.9672
2.512, 4, 35.6481, 50.2808, -14.8332, 97.4949, -58.6311, 39.9505
2.515, 4, 35.6465, 50.2896, -14.8353, 97.4932, -58.6621, 39.9339
2.52, 4, 35.6449, 50.2985, -14.8373, 97.4914, -58.6931, 39.9173
2.524, 4, 35.6433, 50.3073, -14.8393, 97.4895, -58.7241, 39.9007
2.528, 4, 35.6417, 50.3161, -14.8413, 97.4877, -58.755, 39.8841
2.531, 4, 35.6401, 50.3249, -14.8433, 97.4859, -58.786, 39.8675
2.536, 4, 35.6385, 50.3337, -14.8453, 97.484, -58.817, 39.8509
2.54, 4, 35.6369, 50.3424, -14.8473, 97.4821, -58.848, 39.8343
2.544, 4, 35.6353, 50.3512, -14.8492, 97.4802, -58.8789, 39.8177
2.548, 4, 35.6337, 50.36, -14.8512, 97.4783, -58.9099, 39.8012
2.551, 4, 35.6321, 50.3687, -14.8531, 97.4764, -58.9409, 39.7846
2.556, 4, 35.6305, 50.3775, -14.855, 97.4745, -58.9718, 39.7681
2.56, 4, 35.6289, 50.3862, -14.8569, 97.4725, -59.0028, 39.7516
2.564, 4, 35.6273, 50.395, -14.8588, 97.4705, -59.0337, 39.7351
2.568, 4, 35.6257, 50.4037, -14.8607, 97.4686, -59.0647, 39.7186
2.571, 4, 35.6241, 50.4125, -14.8626, 97.4666, -59.0956, 39.7021
2.576, 4, 35.6224, 50.4212, -14.8645, 97.4646, -59.1265, 39.6856
2.58, 4, 35.6208, 50.4299, -14.8663, 97.4625, -59.1575, 39.6691
2.584, 4, 35.6192, 50.4386, -14.8682, 97.4605, -59.1884, 39.6527
2.587, 4, 35.6175, 50.4473, -14.87, 97.4584, -59.2193, 39.6362
2.592, 4, 35.6159, 50.456, -14.8718, 97.4563, -59.2503, 39.6198
2.596, 4, 35.6142, 50.4647, -14.8736, 97.4543, -59.2812, 39.6033
2.6, 4, 35.6126, 50.4734, -14.8754, 97.4521, -59.3121, 39.5869
2.604, 4, 35.6109, 50.482, -14.8772, 97.45, -59.343, 39.5705
2.607, 4, 35.6093, 50.4907, -14.879, 97.4479, -59.3739, 39.5541
2.612, 4, 35.6076, 50.4994, -14.8808, 97.4457, -59.4048, 39.5377
2.616, 4, 35.606, 50.508, -14.8825, 97.4436, -59.4357, 39.5213
2.62, 4, 35.6043, 50.5167, -14.8842, 97.4414, -59.4666, 39.5049
2.624, 4, 35.6026, 50.5253, -14.886, 97.4392, -59.4975, 39.4886
2.627, 4, 35.601, 50.534, -14.8877, 97.437, -59.5284, 39.4722
2.632, 4, 35.5993, 50.5426, -14.8894, 97.4348, -59.5593, 39.4559
2.636, 4, 35.5976, 50.5512, -14.8911, 97.4325, -59.5902, 39.4395
2.64, 4, 35.5959, 50.5598, -14.8928, 97.4303, -59.6211, 39.4232
2.643, 4, 35.5942, 50.5684, -14.8944, 97.428, -59.652, 39.4069
2.648, 4, 35.5926, 50.577, -14.8961, 97.4257, -59.6828, 39.3906
2.652, 4, 35.5909, 50.5856, -14.8977, 97.4234, -59.7137, 39.3743
2.656, 4, 35.5892, 50.5942, -14.8994, 97.4211, -59.7446, 39.358
2.66, 4, 35.5875, 50.6028, -14.901, 97.4187, -59.7754, 39.3417
2.663, 4, 35.5858, 50.6114, -14.9026, 97.4164, -59.8063, 39.3255
2.668, 4, 35.5841, 50.62, -14.9042, 97.414, -59.8371, 39.3092
2.672, 4, 35.5824, 50.6285, -14.9058, 97.4117, -59.868, 39.293
2.676, 4, 35.5807, 50.6371, -14.9073, 97.4093, -59.8988, 39.2767
2.679, 4, 35.5789, 50.6456, -14.9089, 97.4069, -59.9297, 39.2605
2.684, 4, 35.5772, 50.6542, -14.9104, 97.4044, -59.9605, 39.2443
2.688, 4, 35.5755, 50.6627, -14.912, 97.402, -59.9914, 39.2281
2.692, 4, 35.5738, 50.6712, -14.9135, 97.3996, -60.0222, 39.2119
2.696, 4, 35.572, 50.6798, -14.915, 97.3971, -60.053, 39.1957
2.699, 4, 35.5703, 50.6883, -14.9165, 97.3946, -60.0839, 39.1795
2.704, 4, 35.5686, 50.6968, -14.918, 97.3921, -60.1147, 39.1633
2.708, 4, 35.5668, 50.7053, -14.9195, 97.3896, -60.1455, 39.1472
2.712, 4, 35.5651, 50.7138, -14.921, 97.3871, -60.1763, 39.131
2.716, 4, 35.5634, 50.7223, -14.9224, 97.3846, -60.2071, 39.1149
2.719, 4, 35.5616, 50.7308, -14.9239, 97.382, -60.2379, 39.0987
2.724, 4, 35.5598, 50.7392, -14.9253, 97.3794, -60.2687, 39.0826
2.728, 4, 35.5581, 50.7477, -14.9267, 97.3769, -60.2995, 39.0665
2.732, 4, 35.5563, 50.7562, -14.9281, 97.3743, -60.3303, 39.0504
2.735, 4, 35.5546, 50.7646, -14.9295, 97.3717, -60.3611, 39.0343
2.74, 4, 35.5528, 50.7731, -14.9309, 97.369, -60.3919, 39.0182
2.744, 4, 35.551, 50.7815, -14.9323, 97.3664, -60.4227, 39.0021
2.748, 4, 35.5493, 50.7899, -14.9336, 97.3637, -60.4535, 38.986
2.752, 4, 35.5475, 50.7984, -14.935, 97.3611, -60.4843, 38.97
2.755, 4, 35.5457, 50.8068, -14.9363, 97.3584, -60.515, 38.9539
2.76, 4, 35.5439, 50.8152, -14.9376, 97.3557, -60.5458, 38.9379
2.764, 4, 35.5421, 50.8236, -14.9389, 97.353, -60.5766, 38.9219
2.768, 4, 35.5404, 50.832, -14.9402, 97.3503, -60.6073, 38.9058
2.772, 4, 35.5386, 50.8404, -14.9415, 97.3475, -60.6381, 38.8898
2.775, 4, 35.5368, 50.8488, -14.9428, 97.3448, -60.6688, 38.8738
2.78, 4, 35.535, 50.8572, -14.9441, 97.342, -60.6996, 38.8578
2.784, 4, 35.5332, 50.8655, -14.9453, 97.3392, -60.7303, 38.8418
2.788, 4, 35.5314, 50.8739, -14.9466, 97.3364, -60.7611, 38.8259
2.791, 4, 35.5296, 50.8823, -14.9478, 97.3336, -60.7918, 38.8099
2.796, 4, 35.5277, 50.8906, -14.949, 97.3308, -60.8226, 38.7939
2.8, 4, 35.5259, 50.899, -14.9502, 97.328, -60.8533, 38.778
2.804, 4, 35.5241, 50.9073, -14.9514, 97.3251, -60.884, 38.762
2.808, 4, 35.5223, 50.9156, -14.9526, 97.3222, -60.9148, 38.7461
2.811, 4, 35.5205, 50.924, -14.9538, 97.3194, -60.9455, 38.7302
2.816, 4, 35.5186, 50.9323, -14.9549, 97.3165, -60.9762, 38.7143
2.82, 4, 35.5168, 50.9406, -14.9561, 97.3135, -61.0069, 38.6983
2.824, 4, 35.515, 50.9489, -14.9572, 97.3106, -61.0376, 38.6824
2.828, 4, 35.5131, 50.9572, -14.9583, 97.3077, -61.0683, 38.6666
2.831, 4, 35.5113, 50.9655, -14.9594, 97.3047, -61.099, 38.6507
2.836, 4, 35.5094, 50.9738, -14.9605, 97.3018, -61.1297, 38.6348
2.84, 4, 35.5076, 50.982, -14.9616, 97.2988, -61.1604, 38.6189
2.844, 4, 35.5057, 50.9903, -14.9627, 97.2958, -61.1911, 38.6031
2.847, 4, 35.5039, 50.9986, -14.9637, 97.2928, -61.2218, 38.5872
2.852, 4, 35.502, 51.0068, -14.9648, 97.2898, -61.2525, 38.5714
2.856, 4, 35.5002, 51.0151, -14.9658, 97.2867, -61.2832, 38.5556
2.86, 4, 35.4983, 51.0233, -14.9668, 97.2837, -61.3139, 38.5397
2.864, 4, 35.4964, 51.0316, -14.9679, 97.2806, -61.3445, 38.5239
2.867, 4, 35.4946, 51.0398, -14.9689, 97.2775, -61.3752, 38.5081
2.872, 4, 35.4927, 51.048, -14.9698, 97.2745, -61.4059, 38.4923
2.876, 4, 35.4908, 51.0562, -14.9708, 97.2713, -61.4365, 38.4766
2.88, 4, 35.4889, 51.0644, -14.9718, 97.2682, -61.4672, 38.4608
2.883, 4, 35.487, 51.0726, -14.9727, 97.2651, -61.4978, 38.445
2.888, 4, 35.4852, 51.0808, -14.9737, 97.262, -61.5285, 38.4292
2.892, 4, 35.4833, 51.089, -14.9746, 97.2588, -61.5591, 38.4135
2.896, 4, 35.4814, 51.0972, -14.9755, 97.2556, -61.5898, 38.3977
2.9, 4, 35.4795, 51.1054, -14.9764, 97.2524, -61.6204, 38.382
2.903, 4, 35.4776, 51.1135, -14.9773, 97.2492, -61.6511, 38.3663
2.908, 4, 35.4757, 51.1217, -14.9782, 97.246, -61.6817, 38.3506
2.912, 4, 35.4738, 51.1298, -14.9791, 97.2428, -61.7123, 38.3349
2.916, 4, 35.4718, 51.138, -14.9799, 97.2395, -61.7429, 38.3192
2.92, 4, 35.4699, 51.1461, -14.9808, 97.2363, -61.7736, 38.3035
2.923, 4, 35.468, 51.1542, -14.9816, 97.233, -61.8042, 38.2878
2.928, 4, 35.4661, 51.1624, -14.9824, 97.2297, -61.8348, 38.2721
2.932, 4, 35.4642, 51.1705, -14.9832, 97.2264, -61.8654, 38.2564
2.936, 4, 35.4622, 51.1786, -14.984, 97.2231, -61.896, 38.2408
2.939, 4, 35.4603, 51.1867, -14.9848, 97.2198, -61.9266, 38.2251
2.944, 4, 35.4584, 51.1948, -14.9856, 97.2165, -61.9572, 38.2095
2.948, 4, 35.4564, 51.2029, -14.9863, 97.2131, -61.9878, 38.1938
2.952, 4, 35.4545, 51.211, -14.9871, 97.2098, -62.0184, 38.1782
2.956, 4, 35.4525, 51.219, -14.9878, 97.2064, -62.049, 38.1626
2.959, 4, 35.4506, 51.2271, -14.9885, 97.203, -62.0796, 38.147
2.964, 4, 35.4486, 51.2352, -14.9893, 97.1996, -62.1101, 38.1314
2.968, 4, 35.4467, 51.2432, -14.99, 97.1962, -62.1407, 38.1158
2.972, 4, 35.4447, 51.2513, -14.9906, 97.1927, -62.1713, 38.1002
2.976, 4, 35.4428, 51.2593, -14.9913, 97.1893, -62.2019, 38.0846
2.98, 4, 35.4408, 51.2673, -14.992, 97.1858, -62.2324, 38.0691
2.984, 4, 35.4388, 51.2753, -14.9926, 97.1824, -62.263, 38.0535
2.988, 4, 35.4369, 51.2834, -14.9933, 97.1789, -62.2935, 38.0379
2.992, 4, 35.4349, 51.2914, -14.9939, 97.1754, -62.3241, 38.0224
2.995, 4, 35.4329, 51.2994, -14.9945, 97.1719, -62.3547, 38.0069
3, 4, 35.4309, 51.3074, -14.9951, 97.1683, -62.3852, 37.9913
3.004, 4, 35.4289, 51.3154, -14.9957, 97.1648, -62.4157, 37.9758
3.008, 4, 35.427, 51.3233, -14.9963, 97.1613, -62.4463, 37.9603
3.012, 4, 35.425, 51.3313, -14.9968, 97.1577, -62.4768, 37.9448
3.015, 4, 35.423, 51.3393, -14.9974, 97.1541, -62.5073, 37.9293
3.02, 4, 35.421, 51.3472, -14.9979, 97.1505, -62.5379, 37.9138
3.024, 4, 35.419, 51.3552, -14.9984, 97.1469, -62.5684, 37.8983
3.028, 4, 35.417, 51.3631, -14.999, 97.1433, -62.5989, 37.8828
3.031, 4, 35.415, 51.3711, -14.9995, 97.1397, -62.6294, 37.8674
3.036, 4, 35.413, 51.379, -15, 97.136, -62.6599, 37.8519
3.04, 4, 35.4109, 51.3869, -15.0004, 97.1324, -62.6904, 37.8365
3.044, 4, 35.4089, 51.3948, -15.0009, 97.1287, -62.7209, 37.821
3.048, 4, 35.4069, 51.4028, -15.0014, 97.125, -62.7514, 37.8056
3.051, 4, 35.4049, 51.4107, -15.0018, 97.1213, -62.7819, 37.7901
3.056, 4, 35.4028, 51.4186, -15.0022, 97.1176, -62.8124, 37.7747
3.06, 4, 35.4008, 51.4264, -15.0026, 97.1139, -62.8429, 37.7593
3.064, 4, 35.3988, 51.4343, -15.0031, 97.1102, -62.8734, 37.7439
3.068, 4, 35.3967, 51.4422, -15.0034, 97.1064, -62.9039, 37.7285
3.071, 4, 35.3947, 51.4501, -15.0038, 97.1027, -62.9344, 37.7131
3.076, 4, 35.3927, 51.4579, -15.0042, 97.0989, -62.9648, 37.6977
3.08, 4, 35.3906, 51.4658, -15.0045, 97.0951, -62.9953, 37.6824
3.084, 4, 35.3886, 51.4736, -15.0049, 97.0913, -63.0258, 37.667
3.087, 4, 35.3865, 51.4815, -15.0052, 97.0875, -63.0562, 37.6516
3.092, 4, 35.3845, 51.4893, -15.0055, 97.0836, -63.0867, 37.6363
3.096, 4, 35.3824, 51.4971, -15.0058, 97.0798, -63.1171, 37.6209
3.1, 4, 35.3803, 51.5049, -15.0061, 97.076, -63.1476, 37.6056
3.104, 4, 35.3783, 51.5127, -15.0064, 97.0721, -63.178, 37.5903
3.107, 4, 35.3762, 51.5205, -15.0067, 97.0682, -63.2085, 37.575
3.112, 4, 35.3741, 51.5283, -15.007, 97.0643, -63.2389, 37.5596
3.116, 4, 35.372, 51.5361, -15.0072, 97.0604, -63.2693, 37.5443
3.12, 4, 35.37, 51.5439, -15.0074, 97.0565, -63.2998, 37.529
3.124, 4, 35.3679, 51.5517, -15.0077, 97.0526, -63.3302, 37.5138
3.128, 4, 35.3658, 51.5594, -15.0079, 97.0486, -63.3606, 37.4985
3.132, 4, 35.3637, 51.5672, -15.0081, 97.0447, -63.391, 37.4832
3.136, 4, 35.3616, 51.5749, -15.0082, 97.0407, -63.4214, 37.4679
3.14, 4, 35.3595, 51.5827, -15.0084, 97.0367, -63.4519, 37.4527
3.143, 4, 35.3574, 51.5904, -15.0086, 97.0327, -63.4823, 37.4374
3.148, 4, 35.3553, 51.5981, -15.0087, 97.0287, -63.5127, 37.4222
3.152, 4, 35.3532, 51.6059, -15.0088, 97.0247, -63.5431, 37.4069
3.156, 4, 35.3511, 51.6136, -15.009, 97.0207, -63.5735, 37.3917
3.16, 4, 35.349, 51.6213, -15.0091, 97.0167, -63.6038, 37.3765
3.163, 4, 35.3469, 51.629, -15.0092, 97.0126, -63.6342, 37.3612
3.168, 4, 35.3447, 51.6367, -15.0093, 97.0085, -63.6646, 37.346
3.172, 4, 35.3426, 51.6443, -15.0093, 97.0045, -63.695, 37.3308
3.176, 4, 35.3405, 51.652, -15.0094, 97.0004, -63.7254, 37.3156
3.179, 4, 35.3384, 51.6597, -15.0094, 96.9963, -63.7557, 37.3004
3.184, 4, 35.3362, 51.6674, -15.0095, 96.9921, -63.7861, 37.2853
3.188, 4, 35.3341, 51.675, -15.0095, 96.988, -63.8165, 37.2701
3.192, 4, 35.332, 51.6827, -15.0095, 96.9839, -63.8468, 37.2549
3.196, 4, 35.3298, 51.6903, -15.0095, 96.9797, -63.8772, 37.2398
3.199, 4, 35.3277, 51.6979, -15.0095, 96.9755, -63.9075, 37.2246
3.204, 4, 35.3255, 51.7055, -15.0095, 96.9714, -63.9379, 37.2095
3.208, 4, 35.3234, 51.7132, -15.0094, 96.9672, -63.9682, 37.1943
3.212, 4, 35.3212, 51.7208, -15.0094, 96.963, -63.9986, 37.1792
3.216, 4, 35.3191, 51.7284, -15.0093, 96.9587, -64.0289, 37.1641
3.22, 4, 35.3169, 51.736, -15.0092, 96.9545, -64.0592, 37.1489
3.224, 4, 35.3147, 51.7436, -15.0091, 96.9503, -64.0896, 37.1338
3.228, 4, 35.3126, 51.7511, -15.009, 96.946, -64.1199, 37.1187
3.232, 4, 35.3104, 51.7587, -15.0089, 96.9417, -64.1502, 37.1036
3.235, 4, 35.3082, 51.7663, -15.0088, 96.9375, -64.1805, 37.0885
3.24, 4, 35.306, 51.7738, -15.0086, 96.9332, -64.2109, 37.0735
3.244, 4, 35.3038, 51.7814, -15.0085, 96.9289, -64.2412, 37.0584
3.248, 4, 35.3017, 51.7889, -15.0083, 96.9246, -64.2715, 37.0433
3.252, 4, 35.2995, 51.7965, -15.0081, 96.9202, -64.3018, 37.0283
3.255, 4, 35.2973, 51.804, -15.0079, 96.9159, -64.3321, 37.0132
3.26, 4, 35.2951, 51.8115, -15.0077, 96.9115, -64.3624, 36.9981
3.264, 4, 35.2929, 51.819, -15.0075, 96.9072, -64.3927, 36.9831
3.268, 4, 35.2907, 51.8265, -15.0073, 96.9028, -64.4229, 36.9681
3.272, 4, 35.2885, 51.834, -15.0071, 96.8984, -64.4532, 36.953
3.276, 4, 35.2863, 51.8415, -15.0068, 96.894, -64.4835, 36.938
3.28, 4, 35.2841, 51.849, -15.0065, 96.8896, -64.5138, 36.923
3.284, 4, 35.2818, 51.8565, -15.0063, 96.8851, -64.5441, 36.908
3.288, 4, 35.2796, 51.8639, -15.006, 96.8807, -64.5743, 36.893
3.291, 4, 35.2774, 51.8714, -15.0057, 96.8763, -64.6046, 36.878
3.296, 4, 35.2752, 51.8788, -15.0053, 96.8718, -64.6348, 36.863
3.3, 4, 35.273, 51.8863, -15.005, 96.8673, -64.6651, 36.848
3.304, 4, 35.2707, 51.8937, -15.0047, 96.8628, -64.6954, 36.833
3.308, 4, 35.2685, 51.9012, -15.0043, 96.8583, -64.7256, 36.8181
3.312, 4, 35.2663, 51.9086, -15.004, 96.8538, -64.7559, 36.8031
3.316, 4, 35.264, 51.916, -15.0036, 96.8493, -64.7861, 36.7882
3.32, 4, 35.2618, 51.9234, -15.0032, 96.8447, -64.8163, 36.7732
3.324, 4, 35.2595, 51.9308, -15.0028, 96.8402, -64.8466, 36.7583
3.328, 4, 35.2573, 51.9382, -15.0024, 96.8356, -64.8768, 36.7433
3.332, 4, 35.255, 51.9456, -15.0019, 96.8311, -64.907, 36.7284
3.336, 4, 35.2528, 51.953, -15.0015, 96.8265, -64.9373, 36.7135
3.34, 4, 35.2505, 51.9603, -15.001, 96.8219, -64.9675, 36.6986
3.344, 4, 35.2482, 51.9677, -15.0006, 96.8173, -64.9977, 36.6837
3.347, 4, 35.246, 51.975, -15.0001, 96.8127, -65.0279, 36.6688
3.352, 4, 35.2437, 51.9824, -14.9996, 96.808, -65.0581, 36.6539
3.356, 4, 35.2414, 51.9897, -14.9991, 96.8034, -65.0883, 36.639
3.36, 4, 35.2392, 51.9971, -14.9986, 96.7987, -65.1185, 36.6241
3.364, 4, 35.2369, 52.0044, -14.9981, 96.7941, -65.1487, 36.6092
3.368, 4, 35.2346, 52.0117, -14.9975, 96.7894, -65.1789, 36.5943
3.372, 4, 35.2323, 52.019, -14.997, 96.7847, -65.2091, 36.5795
3.376, 4, 35.23, 52.0263, -14.9964, 96.78, -65.2393, 36.5646
3.38, 4, 35.2277, 52.0336, -14.9958, 96.7753, -65.2695, 36.5498
3.383, 4, 35.2254, 52.0409, -14.9952, 96.7705, -65.2996, 36.5349
3.388, 4, 35.2231, 52.0482, -14.9946, 96.7658, -65.3298, 36.5201
3.392, 4, 35.2208, 52.0554, -14.994, 96.761, -65.36, 36.5052
3.396, 4, 35.2185, 52.0627, -14.9934, 96.7563, -65.3902, 36.4904
3.4, 4, 35.2162, 52.07, -14.9927, 96.7515, -65.4203, 36.4756
3.403, 4, 35.2139, 52.0772, -14.9921, 96.7467, -65.4505, 36.4608
3.408, 4, 35.2116, 52.0845, -14.9914, 96.7419, -65.4806, 36.446
3.412, 4, 35.2093, 52.0917, -14.9907, 96.7371, -65.5108, 36.4312
3.416, 4, 35.207, 52.0989, -14.99, 96.7323, -65.5409, 36.4164
3.42, 4, 35.2046, 52.1061, -14.9893, 96.7275, -65.5711, 36.4016
3.424, 4, 35.2023, 52.1133, -14.9886, 96.7226, -65.6012, 36.3868
3.428, 4, 35.2, 52.1205, -14.9879, 96.7178, -65.6314, 36.372
3.432, 4, 35.1976, 52.1277, -14.9871, 96.7129, -65.6615, 36.3572
3.436, 4, 35.1953, 52.1349, -14.9864, 96.708, -65.6916, 36.3425
3.439, 4, 35.193, 52.1421, -14.9856, 96.7031, -65.7218, 36.3277
3.444, 4, 35.1906, 52.1493, -14.9848, 96.6982, -65.7519, 36.313
3.448, 4, 35.1883, 52.1565, -14.9841, 96.6933, -65.782, 36.2982
3.452, 4, 35.1859, 52.1636, -14.9832, 96.6884, -65.8121, 36.2835
3.456, 4, 35.1836, 52.1708, -14.9824, 96.6835, -65.8422, 36.2687
3.46, 4, 35.1812, 52.1779, -14.9816, 96.6785, -65.8723, 36.254
3.464, 4, 35.1788, 52.185, -14.9808, 96.6736, -65.9024, 36.2393
3.468, 4, 35.1765, 52.1922, -14.9799, 96.6686, -65.9325, 36.2246
3.472, 4, 35.1741, 52.1993, -14.979, 96.6636, -65.9626, 36.2099
3.476, 4, 35.1717, 52.2064, -14.9782, 96.6586, -65.9927, 36.1951
3.48, 4, 35.1694, 52.2135, -14.9773, 96.6536, -66.0228, 36.1804
3.484, 4, 35.167, 52.2206, -14.9764, 96.6486, -66.0529, 36.1658
3.488, 4, 35.1646, 52.2277, -14.9755, 96.6435, -66.083, 36.1511
3.492, 4, 35.1622, 52.2348, -14.9745, 96.6385, -66.1131, 36.1364
3.495, 4, 35.1599, 52.2419, -14.9736, 96.6335, -66.1431, 36.1217
3.5, 4, 35.1575, 52.2489, -14.9726, 96.6284, -66.1732, 36.107
3.504, 4, 35.1551, 52.256, -14.9717, 96.6233, -66.2033, 36.0924
3.508, 4, 35.1527, 52.263, -14.9707, 96.6182, -66.2333, 36.0777
3.512, 4, 35.1503, 52.2701, -14.9697, 96.6131, -66.2634, 36.0631
3.516, 4, 35.1479, 52.2771, -14.9687, 96.608, -66.2935, 36.0484
3.52, 4, 35.1455, 52.2841, -14.9677, 96.6029, -66.3235, 36.0338
3.524, 4, 35.1431, 52.2912, -14.9666, 96.5978, -66.3536, 36.0191
3.528, 4, 35.1407, 52.2982, -14.9656, 96.5926, -66.3836, 36.0045
3.531, 4, 35.1383, 52.3052, -14.9645, 96.5875, -66.4137, 35.9899
3.536, 4, 35.1358, 52.3122, -14.9635, 96.5823, -66.4437, 35.9753
3.54, 4, 35.1334, 52.3192, -14.9624, 96.5771, -66.4737, 35.9607
3.544, 4, 35.131, 52.3261, -14.9613, 96.572, -66.5038, 35.946
3.548, 4, 35.1286, 52.3331, -14.9602, 96.5668, -66.5338, 35.9314
3.552, 4, 35.1261, 52.3401, -14.9591, 96.5615, -66.5638, 35.9168
3.556, 4, 35.1237, 52.347, -14.958, 96.5563, -66.5938, 35.9023
3.56, 4, 35.1213, 52.354, -14.9568, 96.5511, -66.6238, 35.8877
3.564, 4, 35.1188, 52.3609, -14.9557, 96.5459, -66.6539, 35.8731
3.568, 4, 35.1164, 52.3679, -14.9545, 96.5406, -66.6839, 35.8585
3.572, 4, 35.1139, 52.3748, -14.9533, 96.5353, -66.7139, 35.844
3.576, 4, 35.1115, 52.3817, -14.9521, 96.5301, -66.7439, 35.8294
3.58, 4, 35.1091, 52.3886, -14.9509, 96.5248, -66.7739, 35.8148
3.584, 4, 35.1066, 52.3955, -14.9497, 96.5195, -66.8039, 35.8003
3.587, 4, 35.1041, 52.4024, -14.9485, 96.5142, -66.8338, 35.7857
3.592, 4, 35.1017, 52.4093, -14.9473, 96.5088, -66.8638, 35.7712
3.596, 4, 35.0992, 52.4162, -14.946, 96.5035, -66.8938, 35.7567
3.6, 4, 35.0968, 52.4231, -14.9447, 96.4982, -66.9238, 35.7421
3.604, 4, 35.0943, 52.43, -14.9435, 96.4928, -66.9538, 35.7276
3.608, 4, 35.0918, 52.4368, -14.9422, 96.4874, -66.9837, 35.7131
3.612, 4, 35.0893, 52.4437, -14.9409, 96.4821, -67.0137, 35.6986
3.616, 4, 35.0869, 52.4505, -14.9395, 96.4767, -67.0437, 35.6841
3.62, 4, 35.0844, 52.4574, -14.9382, 96.4713, -67.0736, 35.6696
3.624, 4, 35.0819, 52.4642, -14.9369, 96.4659, -67.1036, 35.6551
3.628, 4, 35.0794, 52.471, -14.9355, 96.4604, -67.1336, 35.6406
3.632, 4, 35.0769, 52.4778, -14.9342, 96.455, -67.1635, 35.6261
3.636, 4, 35.0744, 52.4846, -14.9328, 96.4496, -67.1934, 35.6116
3.64, 4, 35.0719, 52.4914, -14.9314, 96.4441, -67.2234, 35.5971
3.644, 4, 35.0694, 52.4982, -14.93, 96.4387, -67.2533, 35.5827
3.648, 4, 35.0669, 52.505, -14.9286, 96.4332, -67.2833, 35.5682
3.652, 4, 35.0644, 52.5118, -14.9271, 96.4277, -67.3132, 35.5538
3.656, 4, 35.0619, 52.5185, -14.9257, 96.4222, -67.3431, 35.5393
3.66, 4, 35.0594, 52.5253, -14.9243, 96.4167, -67.373, 35.5249
3.664, 4, 35.0569, 52.532, -14.9228, 96.4112, -67.403, 35.5104
3.668, 4, 35.0544, 52.5388, -14.9213, 96.4056, -67.4329, 35.496
3.672, 4, 35.0518, 52.5455, -14.9198, 96.4001, -67.4628, 35.4815
3.676, 4, 35.0493, 52.5522, -14.9183, 96.3945, -67.4927, 35.4671
3.679, 4, 35.0468, 52.559, -14.9168, 96.389, -67.5226, 35.4527
3.684, 4, 35.0442, 52.5657, -14.9153, 96.3834, -67.5525, 35.4383
3.688, 4, 35.0417, 52.5724, -14.9137, 96.3778, -67.5824, 35.4239
3.692, 4, 35.0392, 52.5791, -14.9122, 96.3722, -67.6123, 35.4095
3.696, 4, 35.0366, 52.5858, -14.9106, 96.3666, -67.6422, 35.3951
3.7, 4, 35.0341, 52.5925, -14.909, 96.361, -67.6721, 35.3807
3.704, 4, 35.0315, 52.5991, -14.9075, 96.3554, -67.702, 35.3663
3.708, 4, 35.029, 52.6058, -14.9059, 96.3497, -67.7319, 35.3519
3.712, 4, 35.0264, 52.6124, -14.9042, 96.3441, -67.7617, 35.3375
3.716, 4, 35.0239, 52.6191, -14.9026, 96.3384, -67.7916, 35.3231
3.72, 4, 35.0213, 52.6257, -14.901, 96.3328, -67.8215, 35.3088
3.724, 4, 35.0188, 52.6324, -14.8993, 96.3271, -67.8513, 35.2944
3.728, 4, 35.0162, 52.639, -14.8977, 96.3214, -67.8812, 35.28
3.732, 4, 35.0136, 52.6456, -14.896, 96.3157, -67.9111, 35.2657
3.735, 4, 35.0111, 52.6522, -14.8943, 96.31, -67.9409, 35.2513
3.74, 4, 35.0085, 52.6588, -14.8926, 96.3043, -67.9708, 35.237
3.744, 4, 35.0059, 52.6654, -14.8909, 96.2985, -68.0006, 35.2226
3.748, 4, 35.0033, 52.672, -14.8892, 96.2928, -68.0305, 35.2083
3.752, 4, 35.0007, 52.6786, -14.8874, 96.287, -68.0603, 35.194
3.756, 4, 34.9981, 52.6852, -14.8857, 96.2813, -68.0901, 35.1796
3.76, 4, 34.9956, 52.6917, -14.8839, 96.2755, -68.12, 35.1653
3.764, 4, 34.993, 52.6983, -14.8821, 96.2697, -68.1498, 35.151
3.768, 4, 34.9904, 52.7048, -14.8803, 96.2639, -68.1796, 35.1367
3.772, 4, 34.9878, 52.7114, -14.8785, 96.2581, -68.2094, 35.1224
3.776, 4, 34.9852, 52.7179, -14.8767, 96.2523, -68.2393, 35.1081
3.78, 4, 34.9826, 52.7244, -14.8749, 96.2464, -68.2691, 35.0938
3.784, 4, 34.98, 52.731, -14.8731, 96.2406, -68.2989, 35.0795
3.788, 4, 34.9773, 52.7375, -14.8712, 96.2348, -68.3287, 35.0652
3.792, 4, 34.9747, 52.744, -14.8693, 96.2289, -68.3585, 35.0509
3.796, 4, 34.9721, 52.7505, -14.8675, 96.223, -68.3883, 35.0367
3.8, 4, 34.9695, 52.7569, -14.8656, 96.2171, -68.4181, 35.0224
3.804, 4, 34.9669, 52.7634, -14.8637, 96.2113, -68.4479, 35.0081
3.808, 4, 34.9642, 52.7699, -14.8618, 96.2054, -68.4777, 34.9939
3.812, 4, 34.9616, 52.7764, -14.8598, 96.1994, -68.5075, 34.9796
3.816, 4, 34.959, 52.7828, -14.8579, 96.1935, -68.5372, 34.9653
3.82, 4, 34.9563, 52.7893, -14.8559, 96.1876, -68.567, 34.9511
3.824, 4, 34.9537, 52.7957, -14.854, 96.1816, -68.5968, 34.9368
3.828, 4, 34.9511, 52.8021, -14.852, 96.1757, -68.6266, 34.9226
3.832, 4, 34.9484, 52.8086, -14.85, 96.1697, -68.6563, 34.9084
3.836, 4, 34.9458, 52.815, -14.848, 96.1637, -68.6861, 34.8941
3.84, 4, 34.9431, 52.8214, -14.846, 96.1578, -68.7159, 34.8799
3.844, 4, 34.9405, 52.8278, -14.844, 96.1518, -68.7456, 34.8657
3.848, 4, 34.9378, 52.8342, -14.8419, 96.1458, -68.7754, 34.8515
3.852, 4, 34.9351, 52.8405, -14.8399, 96.1397, -68.8051, 34.8373
3.856, 4, 34.9325, 52.8469, -14.8378, 96.1337, -68.8349, 34.8231
3.86, 4, 34.9298, 52.8533, -14.8357, 96.1277, -68.8646, 34.8089
3.864, 4, 34.9272, 52.8597, -14.8337, 96.1216, -68.8943, 34.7947
3.868, 5, 34.9245, 52.866, -14.8316, 96.1156, -68.9241, 34.7805
3.872, 5, 34.9218, 52.8723, -14.8294, 96.1095, -68.9538, 34.7663
3.876, 5, 34.9191, 52.8787, -14.8273, 96.1034, -68.9835, 34.7521
3.88, 5, 34.9164, 52.885, -14.8252, 96.0974, -69.0133, 34.7379
3.884, 5, 34.9138, 52.8913, -14.823, 96.0913, -69.043, 34.7237
3.888, 5, 34.9111, 52.8976, -14.8209, 96.0851, -69.0727, 34.7096
3.892, 5, 34.9084, 52.9039, -14.8187, 96.079, -69.1024, 34.6954
3.896, 5, 34.9057, 52.9102, -14.8165, 96.0729, -69.1321, 34.6812
3.9, 5, 34.903, 52.9165, -14.8143, 96.0668, -69.1618, 34.6671
3.904, 5, 34.9003, 52.9228, -14.8121, 96.0606, -69.1915, 34.6529
3.908, 5, 34.8976, 52.9291, -14.8099, 96.0545, -69.2212, 34.6388
3.912, 5, 34.8949, 52.9353, -14.8076, 96.0483, -69.2509, 34.6246
3.916, 5, 34.8922, 52.9416, -14.8054, 96.0421, -69.2806, 34.6105
3.92, 5, 34.8895, 52.9479, -14.8031, 96.0359, -69.3103, 34.5964
3.924, 5, 34.8867, 52.9541, -14.8008, 96.0297, -69.34, 34.5822
3.928, 5, 34.884, 52.9603, -14.7985, 96.0235, -69.3697, 34.5681
3.932, 5, 34.8813, 52.9666, -14.7962, 96.0173, -69.3993, 34.554
3.936, 5, 34.8786, 52.9728, -14.7939, 96.0111, -69.429, 34.5399
3.94, 5, 34.8759, 52.979, -14.7916, 96.0048, -69.4587, 34.5258
3.944, 5, 34.8731, 52.9852, -14.7893, 95.9986, -69.4883, 34.5117
3.948, 5, 34.8704, 52.9914, -14.7869, 95.9923, -69.518, 34.4975
3.952, 5, 34.8677, 52.9976, -14.7846, 95.986, -69.5477, 34.4834
3.956, 5, 34.8649, 53.0037, -14.7822, 95.9798, -69.5773, 34.4693
3.96, 5, 34.8622, 53.0099, -14.7798, 95.9735, -69.607, 34.4553
3.964, 5, 34.8594, 53.0161, -14.7774, 95.9672, -69.6366, 34.4412
3.968, 5, 34.8567, 53.0222, -14.775, 95.9609, -69.6663, 34.4271
3.972, 5, 34.8539, 53.0284, -14.7725, 95.9545, -69.6959, 34.413
3.976, 5, 34.8512, 53.0345, -14.7701, 95.9482, -69.7255, 34.3989
3.98, 5, 34.8484, 53.0406, -14.7677, 95.9419, -69.7552, 34.3849
3.984, 5, 34.8457, 53.0467, -14.7652, 95.9355, -69.7848, 34.3708
3.988, 5, 34.8429, 53.0529, -14.7627, 95.9292, -69.8144, 34.3567
3.992, 5, 34.8401, 53.059, -14.7602, 95.9228, -69.844, 34.3427
3.996, 5, 34.8374, 53.0651, -14.7577, 95.9164, -69.8737, 34.3286
3.999, 5, 34.8346, 53.0711, -14.7552, 95.91, -69.9033, 34.3146
4.004, 5, 34.8318, 53.0772, -14.7527, 95.9036, -69.9329, 34.3005
4.008, 5, 34.8291, 53.0833, -14.7501, 95.8972, -69.9625, 34.2865
4.012, 5, 34.8263, 53.0894, -14.7476, 95.8908, -69.9921, 34.2724
4.016, 5, 34.8235, 53.0954, -14.745, 95.8844, -70.0217, 34.2584
4.02, 5, 34.8207, 53.1015, -14.7425, 95.8779, -70.0513, 34.2444
4.024, 5, 34.8179, 53.1075, -14.7399, 95.8715, -70.0809, 34.2303
4.028, 5, 34.8151, 53.1135, -14.7373, 95.865, -70.1105, 34.2163
4.032, 5, 34.8123, 53.1196, -14.7347, 95.8586, -70.1401, 34.2023
4.036, 5, 34.8095, 53.1256, -14.732, 95.8521, -70.1696, 34.1883
4.04, 5, 34.8067, 53.1316, -14.7294, 95.8456, -70.1992, 34.1743
4.044, 5, 34.8039, 53.1376, -14.7267, 95.8391, -70.2288, 34.1603
4.048, 5, 34.8011, 53.1436, -14.7241, 95.8326, -70.2584, 34.1463
4.052, 5, 34.7983, 53.1496, -14.7214, 95.8261, -70.2879, 34.1323
4.056, 5, 34.7955, 53.1555, -14.7187, 95.8196, -70.3175, 34.1183
4.06, 5, 34.7927, 53.1615, -14.716, 95.813, -70.3471, 34.1043
4.064, 5, 34.7899, 53.1675, -14.7133, 95.8065, -70.3766, 34.0903
4.068, 5, 34.787, 53.1734, -14.7106, 95.7999, -70.4062, 34.0763
4.072, 5, 34.7842, 53.1794, -14.7078, 95.7934, -70.4357, 34.0624
4.076, 5, 34.7814, 53.1853, -14.7051, 95.7868, -70.4653, 34.0484
4.08, 5, 34.7785, 53.1912, -14.7023, 95.7802, -70.4948, 34.0344
4.084, 5, 34.7757, 53.1971, -14.6995, 95.7736, -70.5243, 34.0204
4.088, 5, 34.7729, 53.2031, -14.6967, 95.767, -70.5539, 34.0065
4.092, 5, 34.77, 53.209, -14.6939, 95.7604, -70.5834, 33.9925
4.096, 5, 34.7672, 53.2148, -14.6911, 95.7538, -70.6129, 33.9786
4.1, 5, 34.7643, 53.2207, -14.6883, 95.7471, -70.6425, 33.9646
4.104, 5, 34.7615, 53.2266, -14.6855, 95.7405, -70.672, 33.9507
4.108, 5, 34.7586, 53.2325, -14.6826, 95.7338, -70.7015, 33.9367
4.112, 5, 34.7558, 53.2383, -14.6797, 95.7272, -70.731, 33.9228
4.116, 5, 34.7529, 53.2442, -14.6769, 95.7205, -70.7605, 33.9088
4.12, 5, 34.7501, 53.25, -14.674, 95.7138, -70.79, 33.8949
4.124, 5, 34.7472, 53.2559, -14.6711, 95.7071, -70.8195, 33.881
4.128, 5, 34.7443, 53.2617, -14.6681, 95.7004, -70.849, 33.8671
4.132, 5, 34.7415, 53.2675, -14.6652, 95.6937, -70.8785, 33.8531
4.136, 5, 34.7386, 53.2733, -14.6623, 95.687, -70.908, 33.8392
4.14, 5, 34.7357, 53.2791, -14.6593, 95.6803, -70.9375, 33.8253
4.144, 5, 34.7328, 53.2849, -14.6564, 95.6735, -70.967, 33.8114
4.148, 5, 34.73, 53.2907, -14.6534, 95.6668, -70.9965, 33.7975
4.152, 5, 34.7271, 53.2965, -14.6504, 95.66, -71.0259, 33.7836
4.156, 5, 34.7242, 53.3023, -14.6474, 95.6533, -71.0554, 33.7697
4.16, 5, 34.7213, 53.308, -14.6444, 95.6465, -71.0849, 33.7558
4.164, 5, 34.7184, 53.3138, -14.6413, 95.6397, -71.1143, 33.7419
4.168, 5, 34.7155, 53.3195, -14.6383, 95.6329, -71.1438, 33.728
4.172, 5, 34.7126, 53.3253, -14.6352, 95.6261, -71.1733, 33.7141
4.176, 5, 34.7097, 53.331, -14.6322, 95.6193, -71.2027, 33.7002
4.18, 5, 34.7068, 53.3367, -14.6291, 95.6124, -71.2322, 33.6864
4.184, 5, 34.7039, 53.3425, -14.626, 95.6056, -71.2616, 33.6725
4.188, 5, 34.701, 53.3482, -14.6229, 95.5988, -71.2911, 33.6586
4.192, 5, 34.6981, 53.3539, -14.6198, 95.5919, -71.3205, 33.6447
4.196, 5, 34.6951, 53.3596, -14.6167, 95.5851, -71.3499, 33.6309
4.2, 5, 34.6922, 53.3652, -14.6135, 95.5782, -71.3794, 33.617
4.204, 5, 34.6893, 53.3709, -14.6104, 95.5713, -71.4088, 33.6032
4.208, 5, 34.6864, 53.3766, -14.6072, 95.5644, -71.4382, 33.5893
4.212, 5, 34.6834, 53.3822, -14.604, 95.5575, -71.4676, 33.5755
4.216, 5, 34.6805, 53.3879, -14.6008, 95.5506, -71.4971, 33.5616
4.22, 5, 34.6776, 53.3935, -14.5976, 95.5437, -71.5265, 33.5478
4.224, 5, 34.6746, 53.3991, -14.5944, 95.5368, -71.5559, 33.5339
4.228, 5, 34.6717, 53.4048, -14.5912, 95.5298, -71.5853, 33.5201
4.232, 5, 34.6688, 53.4104, -14.5879, 95.5229, -71.6147, 33.5063
4.236, 5, 34.6658, 53.416, -14.5847, 95.5159, -71.6441, 33.4924
4.24, 5, 34.6629, 53.4216, -14.5814, 95.509, -71.6735, 33.4786
4.244, 5, 34.6599, 53.4272, -14.5781, 95.502, -71.7029, 33.4648
4.248, 5, 34.657, 53.4328, -14.5748, 95.495, -71.7323, 33.451
4.252, 5, 34.654, 53.4383, -14.5715, 95.488, -71.7617, 33.4371
4.256, 5, 34.651, 53.4439, -14.5682, 95.481, -71.791, 33.4233
4.26, 5, 34.6481, 53.4495, -14.5648, 95.474, -71.8204, 33.4095
4.264, 5, 34.6451, 53.455, -14.5615, 95.467, -71.8498, 33.3957
4.268, 5, 34.6421, 53.4606, -14.5581, 95.46, -71.8792, 33.3819
4.272, 5, 34.6392, 53.4661, -14.5548, 95.4529, -71.9085, 33.3681
4.276, 5, 34.6362, 53.4716, -14.5514, 95.4459, -71.9379, 33.3543
4.28, 5, 34.6332, 53.4771, -14.548, 95.4388, -71.9673, 33.3405
4.284, 5, 34.6302, 53.4826, -14.5446, 95.4318, -71.9966, 33.3267
4.288, 5, 34.6272, 53.4881, -14.5412, 95.4247, -72.026, 33.313
4.292, 5, 34.6242, 53.4936, -14.5377, 95.4176, -72.0553, 33.2992
4.296, 5, 34.6213, 53.4991, -14.5343, 95.4105, -72.0847, 33.2854
4.3, 5, 34.6183, 53.5046, -14.5308, 95.4034, -72.114, 33.2716
4.304, 5, 34.6153, 53.51, -14.5274, 95.3963, -72.1433, 33.2578
4.308, 5, 34.6123, 53.5155, -14.5239, 95.3892, -72.1727, 33.2441
4.312, 5, 34.6093, 53.521, -14.5204, 95.382, -72.202, 33.2303
4.316, 5, 34.6063, 53.5264, -14.5169, 95.3749, -72.2313, 33.2165
4.32, 5, 34.6033, 53.5318, -14.5133, 95.3678, -72.2607, 33.2028
4.324, 5, 34.6002, 53.5372, -14.5098, 95.3606, -72.29, 33.189
4.328, 5, 34.5972, 53.5427, -14.5063, 95.3534, -72.3193, 33.1753
4.332, 5, 34.5942, 53.5481, -14.5027, 95.3463, -72.3486, 33.1615
4.336, 5, 34.5912, 53.5535, -14.4991, 95.3391, -72.3779, 33.1478
4.34, 5, 34.5882, 53.5589, -14.4955, 95.3319, -72.4072, 33.134
4.344, 5, 34.5851, 53.5642, -14.4919, 95.3247, -72.4365, 33.1203
4.348, 5, 34.5821, 53.5696, -14.4883, 95.3175, -72.4658, 33.1065
4.352, 5, 34.5791, 53.575, -14.4847, 95.3102, -72.4951, 33.0928
4.356, 5, 34.576, 53.5803, -14.4811, 95.303, -72.5244, 33.0791
4.36, 5, 34.573, 53.5857, -14.4774, 95.2958, -72.5537, 33.0653
4.364, 5, 34.57, 53.591, -14.4737, 95.2885, -72.583, 33.0516
4.368, 5, 34.5669, 53.5964, -14.4701, 95.2813, -72.6123, 33.0379
4.372, 5, 34.5639, 53.6017, -14.4664, 95.274, -72.6415, 33.0242
4.376, 5, 34.5608, 53.607, -14.4627, 95.2667, -72.6708, 33.0104
4.38, 5, 34.5578, 53.6123, -14.459, 95.2594, -72.7001, 32.9967
4.384, 5, 34.5547, 53.6176, -14.4552, 95.2522, -72.7294, 32.983
4.388, 5, 34.5517, 53.6229, -14.4515, 95.2448, -72.7586, 32.9693
4.392, 5, 34.5486, 53.6282, -14.4477, 95.2375, -72.7879, 32.9556
4.396, 5, 34.5455, 53.6334, -14.444, 95.2302, -72.8171, 32.9419
4.4, 5, 34.5425, 53.6387, -14.4402, 95.2229, -72.8464, 32.9282
4.404, 5, 34.5394, 53.644, -14.4364, 95.2155, -72.8756, 32.9145
4.408, 5, 34.5363, 53.6492, -14.4326, 95.2082, -72.9049, 32.9008
4.412, 5, 34.5333, 53.6544, -14.4288, 95.2008, -72.9341, 32.8871
4.416, 5, 34.5302, 53.6597, -14.425, 95.1935, -72.9633, 32.8734
4.42, 5, 34.5271, 53.6649, -14.4211, 95.1861, -72.9926, 32.8597
4.424, 5, 34.524, 53.6701, -14.4173, 95.1787, -73.0218, 32.846
4.428, 5, 34.5209, 53.6752, -14.4134, 95.1713, -73.051, 32.8324
4.432, 5, 34.5177, 53.6803, -14.4094, 95.1639, -73.0802, 32.8187
4.436, 5, 34.5146, 53.6854, -14.4055, 95.1565, -73.1094, 32.8051
4.44, 5, 34.5114, 53.6905, -14.4015, 95.149, -73.1385, 32.7916
4.444, 5, 34.5082, 53.6955, -14.3974, 95.1415, -73.1676, 32.7781
4.448, 5, 34.505, 53.7004, -14.3933, 95.134, -73.1966, 32.7647
4.452, 5, 34.5017, 53.7053, -14.389, 95.1264, -73.2256, 32.7515
4.456, 5, 34.4984, 53.7101, -14.3847, 95.1187, -73.2544, 32.7384
4.46, 5, 34.495, 53.7148, -14.3801, 95.1109, -73.2832, 32.7255
4.464, 5, 34.4917, 53.7194, -14.3755, 95.103, -73.3117, 32.7128
4.468, 5, 34.4883, 53.7239, -14.3706, 95.095, -73.3401, 32.7005
4.472, 5, 34.4848, 53.7283, -14.3654, 95.0869, -73.3683, 32.6885
4.476, 5, 34.4814, 53.7326, -14.36, 95.0785, -73.3963, 32.6768
4.48, 5, 34.478, 53.7367, -14.3544, 95.07, -73.424, 32.6656
4.484, 5, 34.4745, 53.7406, -14.3484, 95.0613, -73.4515, 32.6548
4.488, 5, 34.471, 53.7444, -14.3421, 95.0523, -73.4786, 32.6446
4.492, 5, 34.4675, 53.748, -14.3354, 95.0432, -73.5054, 32.6349
4.496, 5, 34.4641, 53.7515, -14.3284, 95.0338, -73.5319, 32.6257
4.5, 5, 34.4606, 53.7547, -14.3209, 95.0241, -73.5581, 32.6171
4.504, 5, 34.457, 53.7578, -14.3131, 95.0142, -73.5839, 32.6091
4.508, 5, 34.4535, 53.7607, -14.3049, 95.004, -73.6093, 32.6017
4.512, 5, 34.45, 53.7633, -14.2963, 94.9936, -73.6344, 32.5949
4.516, 5, 34.4464, 53.7658, -14.2873, 94.9829, -73.6591, 32.5887
4.52, 5, 34.4427, 53.7681, -14.2779, 94.9719, -73.6834, 32.5832
4.524, 5, 34.4391, 53.7701, -14.2681, 94.9607, -73.7074, 32.5782
4.528, 5, 34.4354, 53.772, -14.2579, 94.9492, -73.7309, 32.5739
4.532, 5, 34.4316, 53.7736, -14.2473, 94.9375, -73.7541, 32.5702
4.536, 5, 34.4278, 53.775, -14.2363, 94.9255, -73.777, 32.5671
4.54, 5, 34.4239, 53.7762, -14.2249, 94.9133, -73.7994, 32.5646
4.544, 5, 34.4201, 53.7772, -14.2132, 94.9008, -73.8215, 32.5627
4.548, 5, 34.4161, 53.778, -14.201, 94.888, -73.8432, 32.5614
4.552, 5, 34.4122, 53.7786, -14.1884, 94.875, -73.8645, 32.5607
4.556, 5, 34.4082, 53.7789, -14.1754, 94.8617, -73.8854, 32.5607
4.56, 5, 34.4042, 53.7791, -14.162, 94.8482, -73.906, 32.5613
4.564, 5, 34.4001, 53.779, -14.1482, 94.8344, -73.9262, 32.5625
4.568, 5, 34.3961, 53.7788, -14.134, 94.8204, -73.946, 32.5643
4.572, 5, 34.392, 53.7783, -14.1194, 94.8061, -73.9654, 32.5667
4.576, 5, 34.3879, 53.7777, -14.1045, 94.7916, -73.9844, 32.5698
4.58, 5, 34.3837, 53.7768, -14.0891, 94.7768, -74.0031, 32.5734
4.584, 5, 34.3796, 53.7758, -14.0734, 94.7618, -74.0215, 32.5775
4.588, 5, 34.3755, 53.7747, -14.0574, 94.7466, -74.0395, 32.5822
4.592, 5, 34.3713, 53.7733, -14.041, 94.7312, -74.0572, 32.5874
4.596, 5, 34.3671, 53.7719, -14.0244, 94.7156, -74.0746, 32.5931
4.6, 5, 34.3629, 53.7703, -14.0075, 94.6998, -74.0918, 32.5992
4.604, 5, 34.3587, 53.7685, -13.9903, 94.6839, -74.1087, 32.6056
4.608, 5, 34.3544, 53.7666, -13.9729, 94.6679, -74.1254, 32.6124
4.612, 5, 34.3502, 53.7647, -13.9553, 94.6517, -74.1419, 32.6194
4.616, 5, 34.3458, 53.7626, -13.9376, 94.6354, -74.1583, 32.6267
4.62, 5, 34.3415, 53.7604, -13.9197, 94.6191, -74.1746, 32.6342
4.624, 5, 34.3372, 53.7582, -13.9016, 94.6027, -74.1907, 32.6419
4.628, 5, 34.3328, 53.7559, -13.8835, 94.5862, -74.2068, 32.6496
4.632, 5, 34.3284, 53.7535, -13.8653, 94.5697, -74.2229, 32.6575
4.636, 5, 34.3239, 53.7511, -13.8471, 94.5532, -74.2388, 32.6654
4.64, 5, 34.3195, 53.7486, -13.8288, 94.5366, -74.2548, 32.6734
4.644, 5, 34.315, 53.7461, -13.8105, 94.52, -74.2707, 32.6814
4.648, 5, 34.3105, 53.7436, -13.7921, 94.5034, -74.2867, 32.6895
4.652, 5, 34.306, 53.741, -13.7737, 94.4869, -74.3026, 32.6975
4.656, 5, 34.3015, 53.7385, -13.7553, 94.4703, -74.3185, 32.7056
4.66, 5, 34.297, 53.7359, -13.7369, 94.4537, -74.3344, 32.7137
4.664, 5, 34.2924, 53.7333, -13.7185, 94.4371, -74.3503, 32.7217
4.668, 5, 34.2879, 53.7307, -13.7001, 94.4205, -74.3662, 32.7298
4.672, 5, 34.2834, 53.7281, -13.6817, 94.4039, -74.3821, 32.7378
4.676, 5, 34.2788, 53.7255, -13.6632, 94.3873, -74.398, 32.7459
4.68, 5, 34.2743, 53.7228, -13.6448, 94.3707, -74.4139, 32.7539
4.684, 5, 34.2697, 53.7202, -13.6263, 94.3541, -74.4298, 32.7619
4.688, 5, 34.2652, 53.7176, -13.6079, 94.3375, -74.4457, 32.77
4.692, 5, 34.2606, 53.7149, -13.5894, 94.321, -74.4616, 32.778
4.696, 5, 34.2561, 53.7123, -13.571, 94.3044, -74.4775, 32.786
4.7, 5, 34.2515, 53.7096, -13.5525, 94.2878, -74.4934, 32.794
4.704, 5, 34.247, 53.707, -13.5341, 94.2712, -74.5094, 32.802
4.708, 5, 34.2424, 53.7043, -13.5156, 94.2546, -74.5253, 32.81
4.712, 5, 34.2379, 53.7016, -13.4971, 94.2381, -74.5412, 32.818
4.716, 5, 34.2333, 53.6989, -13.4786, 94.2215, -74.5571, 32.826
4.72, 5, 34.2287, 53.6963, -13.4601, 94.2049, -74.573, 32.834
4.724, 5, 34.2241, 53.6936, -13.4417, 94.1884, -74.5889, 32.8419
4.728, 5, 34.2196, 53.6909, -13.4232, 94.1718, -74.6049, 32.8499
4.732, 5, 34.215, 53.6882, -13.4047, 94.1552, -74.6208, 32.8578
4.736, 5, 34.2104, 53.6855, -13.3862, 94.1387, -74.6367, 32.8658
4.74, 5, 34.2058, 53.6828, -13.3677, 94.1221, -74.6526, 32.8737
4.744, 5, 34.2013, 53.6801, -13.3491, 94.1056, -74.6686, 32.8817
4.748, 5, 34.1967, 53.6773, -13.3306, 94.089, -74.6845, 32.8896
4.752, 5, 34.1921, 53.6746, -13.3121, 94.0725, -74.7004, 32.8975
4.756, 5, 34.1875, 53.6719, -13.2936, 94.0559, -74.7164, 32.9054
4.76, 5, 34.1829, 53.6692, -13.2751, 94.0394, -74.7323, 32.9133
4.764, 5, 34.1783, 53.6664, -13.2565, 94.0228, -74.7482, 32.9212
4.768, 5, 34.1737, 53.6637, -13.238, 94.0063, -74.7642, 32.9291
4.772, 5, 34.1691, 53.6609, -13.2194, 93.9897, -74.7801, 32.937
4.776, 5, 34.1645, 53.6582, -13.2009, 93.9732, -74.7961, 32.9449
4.78, 5, 34.1599, 53.6554, -13.1823, 93.9567, -74.812, 32.9528
4.784, 5, 34.1553, 53.6526, -13.1638, 93.9401, -74.8279, 32.9606
4.788, 5, 34.1507, 53.6499, -13.1452, 93.9236, -74.8439, 32.9685
4.792, 5, 34.1461, 53.6471, -13.1267, 93.9071, -74.8598, 32.9763
4.796, 5, 34.1415, 53.6443, -13.1081, 93.8905, -74.8758, 32.9842
4.8, 5, 34.1369, 53.6415, -13.0895, 93.874, -74.8918, 32.992
4.804, 5, 34.1323, 53.6387, -13.071, 93.8575, -74.9077, 32.9998
4.808, 5, 34.1277, 53.6359, -13.0524, 93.841, -74.9237, 33.0077
4.812, 5, 34.123, 53.6331, -13.0338, 93.8244, -74.9396, 33.0155
4.816, 5, 34.1184, 53.6303, -13.0152, 93.8079, -74.9556, 33.0233
4.82, 5, 34.1138, 53.6275, -12.9966, 93.7914, -74.9715, 33.0311
4.824, 5, 34.1092, 53.6247, -12.978, 93.7749, -74.9875, 33.0389
4.828, 5, 34.1045, 53.6218, -12.9594, 93.7584, -75.0035, 33.0467
4.832, 5, 34.0999, 53.619, -12.9408, 93.7419, -75.0194, 33.0545
4.836, 5, 34.0953, 53.6161, -12.9222, 93.7253, -75.0354, 33.0622
4.84, 5, 34.0906, 53.6133, -12.9036, 93.7088, -75.0514, 33.07
4.844, 5, 34.086, 53.6105, -12.885, 93.6923, -75.0673, 33.0778
4.848, 5, 34.0814, 53.6076, -12.8664, 93.6758, -75.0833, 33.0855
4.852, 5, 34.0767, 53.6047, -12.8477, 93.6593, -75.0993, 33.0933
4.856, 5, 34.0721, 53.6019, -12.8291, 93.6428, -75.1152, 33.101
4.86, 5, 34.0674, 53.599, -12.8105, 93.6263, -75.1312, 33.1087
4.864, 5, 34.0628, 53.5961, -12.7918, 93.6098, -75.1472, 33.1165
4.868, 5, 34.0581, 53.5932, -12.7732, 93.5933, -75.1632, 33.1242
4.872, 5, 34.0535, 53.5904, -12.7545, 93.5769, -75.1792, 33.1319
4.876, 5, 34.0488, 53.5875, -12.7359, 93.5604, -75.1951, 33.1396
4.88, 5, 34.0442, 53.5846, -12.7172, 93.5439, -75.2111, 33.1473
4.884, 5, 34.0395, 53.5817, -12.6986, 93.5274, -75.2271, 33.155
4.888, 5, 34.0349, 53.5787, -12.6799, 93.5109, -75.2431, 33.1627
4.892, 5, 34.0302, 53.5758, -12.6612, 93.4944, -75.2591, 33.1704
4.896, 5, 34.0255, 53.5729, -12.6426, 93.478, -75.2751, 33.178
4.9, 5, 34.0209, 53.57, -12.6239, 93.4615, -75.2911, 33.1857
4.904, 5, 34.0162, 53.5671, -12.6052, 93.445, -75.3071, 33.1933
4.908, 5, 34.0115, 53.5641, -12.5865, 93.4285, -75.3231, 33.201
4.912, 5, 34.0068, 53.5612, -12.5678, 93.4121, -75.3391, 33.2086
4.916, 5, 34.0022, 53.5582, -12.5491, 93.3956, -75.355, 33.2163
4.92, 5, 33.9975, 53.5553, -12.5304, 93.3791, -75.371, 33.2239
4.924, 5, 33.9928, 53.5523, -12.5117, 93.3627, -75.3871, 33.2315
4.928, 5, 33.9881, 53.5493, -12.493, 93.3462, -75.4031, 33.2391
4.932, 5, 33.9834, 53.5464, -12.4743, 93.3297, -75.4191, 33.2467
4.936, 5, 33.9787, 53.5434, -12.4556, 93.3133, -75.4351, 33.2543
4.94, 5, 33.9741, 53.5404, -12.4369, 93.2968, -75.4511, 33.2619
4.944, 5, 33.9694, 53.5374, -12.4182, 93.2804, -75.4671, 33.2695
4.948, 5, 33.9647, 53.5344, -12.3994, 93.2639, -75.4831, 33.2771
4.952, 5, 33.96, 53.5314, -12.3807, 93.2475, -75.4991, 33.2847
4.956, 5, 33.9553, 53.5284, -12.362, 93.231, -75.5151, 33.2922
4.96, 5, 33.9506, 53.5254, -12.3432, 93.2146, -75.5311, 33.2998
4.964, 5, 33.9459, 53.5224, -12.3245, 93.1981, -75.5472, 33.3073
4.968, 5, 33.9412, 53.5194, -12.3058, 93.1817, -75.5632, 33.3149
4.972, 5, 33.9365, 53.5164, -12.287, 93.1652, -75.5792, 33.3224
4.976, 5, 33.9317, 53.5133, -12.2683, 93.1488, -75.5952, 33.33
4.98, 5, 33.927, 53.5103, -12.2495, 93.1324, -75.6112, 33.3375
4.984, 5, 33.9223, 53.5073, -12.2307, 93.1159, -75.6273, 33.345
4.988, 5, 33.9176, 53.5042, -12.212, 93.0995, -75.6433, 33.3525
4.992, 5, 33.9129, 53.5012, -12.1932, 93.0831, -75.6593, 33.36
4.996, 5, 33.9082, 53.4981, -12.1744, 93.0666, -75.6754, 33.3675
5, 5, 33.9034, 53.495, -12.1556, 93.0502, -75.6914, 33.375
5.004, 5, 33.8987, 53.492, -12.1369, 93.0338, -75.7074, 33.3825
5.008, 5, 33.894, 53.4889, -12.1181, 93.0174, -75.7235, 33.3899
5.012, 5, 33.8893, 53.4858, -12.0993, 93.0009, -75.7395, 33.3974
5.016, 5, 33.8845, 53.4827, -12.0805, 92.9845, -75.7555, 33.4049
5.02, 5, 33.8798, 53.4797, -12.0617, 92.9681, -75.7716, 33.4123
5.024, 5, 33.8751, 53.4766, -12.0429, 92.9517, -75.7876, 33.4198
5.028, 5, 33.8703, 53.4735, -12.0241, 92.9353, -75.8036, 33.4272
5.032, 5, 33.8656, 53.4703, -12.0053, 92.9189, -75.8197, 33.4346
5.036, 5, 33.8608, 53.4672, -11.9865, 92.9024, -75.8357, 33.442
5.04, 5, 33.8561, 53.4641, -11.9676, 92.886, -75.8518, 33.4495
5.044, 5, 33.8513, 53.461, -11.9488, 92.8696, -75.8678, 33.4569
5.048, 5, 33.8466, 53.4579, -11.93, 92.8532, -75.8839, 33.4643
5.052, 5, 33.8418, 53.4547, -11.9112, 92.8368, -75.8999, 33.4717
5.056, 5, 33.8371, 53.4516, -11.8923, 92.8204, -75.916, 33.4791
5.06, 5, 33.8323, 53.4484, -11.8735, 92.804, -75.932, 33.4864
5.064, 5, 33.8276, 53.4453, -11.8546, 92.7876, -75.9481, 33.4938
5.068, 5, 33.8228, 53.4421, -11.8358, 92.7712, -75.9642, 33.5012
5.072, 5, 33.8181, 53.439, -11.8169, 92.7549, -75.9802, 33.5085
5.076, 5, 33.8133, 53.4358, -11.7981, 92.7385, -75.9963, 33.5159
5.08, 5, 33.8085, 53.4326, -11.7792, 92.7221, -76.0123, 33.5232
5.084, 5, 33.8038, 53.4295, -11.7604, 92.7057, -76.0284, 33.5306
5.088, 5, 33.799, 53.4263, -11.7415, 92.6893, -76.0445, 33.5379
5.092, 5, 33.7942, 53.4231, -11.7226, 92.6729, -76.0605, 33.5452
5.096, 5, 33.7894, 53.4199, -11.7038, 92.6565, -76.0766, 33.5525
5.1, 5, 33.7847, 53.4167, -11.6849, 92.6402, -76.0927, 33.5598
5.104, 5, 33.7799, 53.4135, -11.666, 92.6238, -76.1087, 33.5671
5.108, 5, 33.7751, 53.4103, -11.6471, 92.6074, -76.1248, 33.5744
5.112, 5, 33.7703, 53.4071, -11.6282, 92.591, -76.1409, 33.5817
5.116, 5, 33.7655, 53.4038, -11.6093, 92.5747, -76.157, 33.589
5.12, 5, 33.7607, 53.4006, -11.5904, 92.5583, -76.1731, 33.5963
5.124, 5, 33.7559, 53.3974, -11.5715, 92.5419, -76.1891, 33.6035
5.128, 5, 33.7512, 53.3941, -11.5526, 92.5256, -76.2052, 33.6108
5.132, 5, 33.7464, 53.3909, -11.5337, 92.5092, -76.2213, 33.618
5.136, 5, 33.7416, 53.3876, -11.5148, 92.4928, -76.2374, 33.6253
5.14, 5, 33.7368, 53.3844, -11.4959, 92.4765, -76.2535, 33.6325
5.144, 5, 33.732, 53.3811, -11.477, 92.4601, -76.2696, 33.6398
5.148, 5, 33.7272, 53.3779, -11.458, 92.4438, -76.2856, 33.647
5.152, 5, 33.7223, 53.3746, -11.4391, 92.4274, -76.3017, 33.6542
5.156, 5, 33.7175, 53.3713, -11.4202, 92.411, -76.3178, 33.6614
5.16, 5, 33.7127, 53.368, -11.4012, 92.3947, -76.3339, 33.6686
5.164, 5, 33.7079, 53.3647, -11.3823, 92.3783, -76.35, 33.6758
5.168, 5, 33.7031, 53.3615, -11.3633, 92.362, -76.3661, 33.683
5.172, 5, 33.6983, 53.3582, -11.3444, 92.3457, -76.3822, 33.6902
5.176, 5, 33.6935, 53.3549, -11.3254, 92.3293, -76.3983, 33.6973
5.18, 5, 33.6886, 53.3515, -11.3065, 92.313, -76.4144, 33.7045
5.184, 5, 33.6838, 53.3482, -11.2875, 92.2966, -76.4305, 33.7117
5.188, 5, 33.679, 53.3449, -11.2686, 92.2803, -76.4466, 33.7188
5.192, 5, 33.6742, 53.3416, -11.2496, 92.264, -76.4627, 33.7259
5.196, 5, 33.6693, 53.3383, -11.2306, 92.2476, -76.4788, 33.7331
5.2, 5, 33.6645, 53.3349, -11.2117, 92.2313, -76.4949, 33.7402
5.204, 5, 33.6597, 53.3316, -11.1927, 92.215, -76.511, 33.7473
5.208, 5, 33.6548, 53.3282, -11.1737, 92.1986, -76.5272, 33.7544
5.212, 5, 33.65, 53.3249, -11.1547, 92.1823, -76.5433, 33.7615
5.216, 5, 33.6452, 53.3215, -11.1357, 92.166, -76.5594, 33.7686
5.22, 5, 33.6403, 53.3181, -11.1167, 92.1496, -76.5755, 33.7757
5.224, 5, 33.6355, 53.3148, -11.0977, 92.1333, -76.5916, 33.7828
5.228, 5, 33.6306, 53.3114, -11.0787, 92.117, -76.6077, 33.7899
5.232, 5, 33.6258, 53.308, -11.0597, 92.1007, -76.6239, 33.797
5.236, 5, 33.6209, 53.3046, -11.0407, 92.0844, -76.64, 33.804
5.24, 5, 33.6161, 53.3012, -11.0217, 92.0681, -76.6561, 33.8111
5.244, 5, 33.6112, 53.2978, -11.0027, 92.0517, -76.6722, 33.8181
5.248, 5, 33.6064, 53.2944, -10.9836, 92.0354, -76.6884, 33.8252
5.252, 5, 33.6015, 53.291, -10.9646, 92.0191, -76.7045, 33.8322
5.256, 5, 33.5966, 53.2876, -10.9456, 92.0028, -76.7206, 33.8392
5.26, 5, 33.5918, 53.2842, -10.9266, 91.9865, -76.7367, 33.8462
5.264, 5, 33.5869, 53.2808, -10.9075, 91.9702, -76.7529, 33.8533
5.268, 5, 33.582, 53.2773, -10.8885, 91.9539, -76.769, 33.8603
5.272, 5, 33.5772, 53.2739, -10.8694, 91.9376, -76.7852, 33.8673
5.276, 5, 33.5723, 53.2705, -10.8504, 91.9213, -76.8013, 33.8742
5.28, 5, 33.5674, 53.267, -10.8313, 91.905, -76.8174, 33.8812
5.284, 5, 33.5625, 53.2636, -10.8123, 91.8887, -76.8336, 33.8882
5.288, 5, 33.5577, 53.2601, -10.7932, 91.8724, -76.8497, 33.8952
5.292, 5, 33.5528, 53.2566, -10.7742, 91.8561, -76.8659, 33.9021
5.296, 5, 33.5479, 53.2532, -10.7551, 91.8398, -76.882, 33.9091
5.3, 5, 33.543, 53.2497, -10.736, 91.8235, -76.8981, 33.916
5.304, 5, 33.5381, 53.2462, -10.7169, 91.8073, -76.9143, 33.923
5.308, 5, 33.5332, 53.2427, -10.6979, 91.791, -76.9304, 33.9299
5.312, 5, 33.5283, 53.2392, -10.6788, 91.7747, -76.9466, 33.9368
5.316, 5, 33.5234, 53.2357, -10.6597, 91.7584, -76.9627, 33.9437
5.32, 5, 33.5185, 53.2322, -10.6406, 91.7421, -76.9789, 33.9506
5.324, 5, 33.5136, 53.2287, -10.6215, 91.7259, -76.995, 33.9575
5.328, 5, 33.5087, 53.2252, -10.6024, 91.7096, -77.0112, 33.9644
5.332, 5, 33.5038, 53.2217, -10.5833, 91.6933, -77.0274, 33.9713
5.336, 5, 33.4989, 53.2182, -10.5642, 91.677, -77.0435, 33.9782
5.34, 5, 33.494, 53.2146, -10.5451, 91.6608, -77.0597, 33.9851
5.344, 5, 33.4891, 53.2111, -10.526, 91.6445, -77.0759, 33.9919
5.348, 5, 33.4842, 53.2076, -10.5069, 91.6282, -77.092, 33.9988
5.352, 5, 33.4793, 53.204, -10.4878, 91.612, -77.1082, 34.0056
5.356, 5, 33.4744, 53.2005, -10.4686, 91.5957, -77.1243, 34.0125
5.36, 5, 33.4695, 53.1969, -10.4495, 91.5794, -77.1405, 34.0193
5.364, 5, 33.4645, 53.1934, -10.4304, 91.5632, -77.1567, 34.0261
5.368, 5, 33.4596, 53.1898, -10.4112, 91.5469, -77.1729, 34.0329
5.372, 5, 33.4547, 53.1862, -10.3921, 91.5307, -77.189, 34.0397
5.376, 5, 33.4498, 53.1826, -10.373, 91.5144, -77.2052, 34.0465
5.38, 5, 33.4448, 53.179, -10.3538, 91.4981, -77.2214, 34.0533
5.384, 5, 33.4399, 53.1755, -10.3347, 91.4819, -77.2376, 34.0601
5.388, 5, 33.435, 53.1719, -10.3155, 91.4656, -77.2537, 34.0669
5.392, 5, 33.43, 53.1683, -10.2964, 91.4494, -77.2699, 34.0737
5.396, 5, 33.4251, 53.1647, -10.2772, 91.4331, -77.2861, 34.0805
5.4, 5, 33.4202, 53.161, -10.258, 91.4169, -77.3023, 34.0872
5.404, 5, 33.4152, 53.1574, -10.2389, 91.4007, -77.3185, 34.094
5.408, 5, 33.4103, 53.1538, -10.2197, 91.3844, -77.3346, 34.1007
5.412, 5, 33.4053, 53.1502, -10.2005, 91.3682, -77.3508, 34.1074
5.416, 5, 33.4004, 53.1465, -10.1814, 91.3519, -77.367, 34.1142
5.42, 5, 33.3954, 53.1429, -10.1622, 91.3357, -77.3832, 34.1209
5.424, 5, 33.3905, 53.1392, -10.143, 91.3195, -77.3994, 34.1276
5.428, 5, 33.3855, 53.1356, -10.1238, 91.3032, -77.4156, 34.1343
5.432, 5, 33.3806, 53.1319, -10.1046, 91.287, -77.4318, 34.141
5.436, 5, 33.3756, 53.1283, -10.0854, 91.2708, -77.448, 34.1477
5.44, 5, 33.3707, 53.1246, -10.0662, 91.2545, -77.4642, 34.1544
5.444, 5, 33.3657, 53.1209, -10.047, 91.2383, -77.4804, 34.1611
5.448, 5, 33.3607, 53.1173, -10.0278, 91.2221, -77.4966, 34.1677
5.452, 5, 33.3558, 53.1136, -10.0086, 91.2059, -77.5128, 34.1744
5.456, 5, 33.3508, 53.1099, -9.98938, 91.1896, -77.529, 34.181
5.46, 5, 33.3458, 53.1062, -9.97016, 91.1734, -77.5452, 34.1877
5.464, 5, 33.3408, 53.1025, -9.95094, 91.1572, -77.5614, 34.1943
5.468, 5, 33.3359, 53.0988, -9.93172, 91.141, -77.5776, 34.201
5.472, 5, 33.3309, 53.0951, -9.91249, 91.1248, -77.5938, 34.2076
5.476, 5, 33.3259, 53.0913, -9.89326, 91.1086, -77.61, 34.2142
5.48, 5, 33.3209, 53.0876, -9.87402, 91.0924, -77.6262, 34.2208
5.484, 5, 33.3159, 53.0839, -9.85478, 91.0761, -77.6424, 34.2274
5.488, 5, 33.311, 53.0802, -9.83554, 91.0599, -77.6587, 34.234
5.492, 5, 33.306, 53.0764, -9.81629, 91.0437, -77.6749, 34.2406
5.496, 5, 33.301, 53.0727, -9.79704, 91.0275, -77.6911, 34.2472
5.5, 5, 33.296, 53.0689, -9.77779, 91.0113, -77.7073, 34.2537
5.504, 5, 33.291, 53.0652, -9.75854, 90.9951, -77.7235, 34.2603
5.508, 5, 33.286, 53.0614, -9.73927, 90.9789, -77.7397, 34.2668
5.512, 5, 33.281, 53.0576, -9.72001, 90.9627, -77.756, 34.2734
5.516, 5, 33.276, 53.0539, -9.70074, 90.9465, -77.7722, 34.2799
5.52, 5, 33.271, 53.0501, -9.68147, 90.9303, -77.7884, 34.2865
5.524, 5, 33.266, 53.0463, -9.6622, 90.9141, -77.8046, 34.293
5.528, 5, 33.261, 53.0425, -9.64292, 90.8979, -77.8209, 34.2995
5.532, 5, 33.256, 53.0387, -9.62364, 90.8818, -77.8371, 34.306
5.536, 5, 33.251, 53.0349, -9.60436, 90.8656, -77.8533, 34.3125
5.54, 5, 33.2459, 53.0311, -9.58507, 90.8494, -77.8696, 34.319
5.544, 5, 33.2409, 53.0273, -9.56578, 90.8332, -77.8858, 34.3255
5.548, 5, 33.2359, 53.0235, -9.54648, 90.817, -77.902, 34.332
5.552, 5, 33.2309, 53.0197, -9.52718, 90.8008, -77.9183, 34.3385
5.556, 5, 33.2259, 53.0158, -9.50788, 90.7846, -77.9345, 34.3449
5.56, 5, 33.2208, 53.012, -9.48858, 90.7685, -77.9507, 34.3514
5.564, 5, 33.2158, 53.0082, -9.46927, 90.7523, -77.967, 34.3578
5.568, 5, 33.2108, 53.0043, -9.44995, 90.7361, -77.9832, 34.3643
5.572, 5, 33.2058, 53.0005, -9.43064, 90.7199, -77.9995, 34.3707
5.576, 5, 33.2007, 52.9966, -9.41132, 90.7038, -78.0157, 34.3771
5.58, 5, 33.1957, 52.9927, -9.39199, 90.6876, -78.032, 34.3835
5.584, 5, 33.1907, 52.9889, -9.37267, 90.6714, -78.0482, 34.3899
5.588, 5, 33.1856, 52.985, -9.35334, 90.6552, -78.0645, 34.3963
5.592, 5, 33.1806, 52.9811, -9.334, 90.6391, -78.0807, 34.4027
5.596, 5, 33.1755, 52.9772, -9.31467, 90.6229, -78.097, 34.4091
5.6, 5, 33.1705, 52.9733, -9.29533, 90.6068, -78.1132, 34.4155
5.604, 5, 33.1654, 52.9695, -9.27598, 90.5906, -78.1295, 34.4219
5.608, 5, 33.1604, 52.9655, -9.25664, 90.5744, -78.1457, 34.4282
5.612, 5, 33.1553, 52.9616, -9.23728, 90.5583, -78.162, 34.4346
5.616, 5, 33.1503, 52.9577, -9.21793, 90.5421, -78.1782, 34.4409
5.62, 5, 33.1452, 52.9538, -9.19857, 90.526, -78.1945, 34.4473
5.624, 5, 33.1402, 52.9499, -9.17921, 90.5098, -78.2107, 34.4536
5.628, 5, 33.1351, 52.946, -9.15985, 90.4936, -78.227, 34.4599
5.632, 5, 33.13, 52.942, -9.14048, 90.4775, -78.2433, 34.4663
5.636, 5, 33.125, 52.9381, -9.12111, 90.4613, -78.2595, 34.4726
5.64, 5, 33.1199, 52.9341, -9.10173, 90.4452, -78.2758, 34.4789
5.644, 5, 33.1148, 52.9302, -9.08235, 90.4291, -78.2921, 34.4852
5.648, 5, 33.1098, 52.9262, -9.06297, 90.4129, -78.3083, 34.4915
5.652, 5, 33.1047, 52.9223, -9.04359, 90.3968, -78.3246, 34.4977
5.656, 5, 33.0996, 52.9183, -9.0242, 90.3806, -78.3409, 34.504
5.66, 5, 33.0945, 52.9143, -9.00481, 90.3645, -78.3572, 34.5103
5.664, 5, 33.0895, 52.9103, -8.98541, 90.3483, -78.3734, 34.5165
5.668, 5, 33.0844, 52.9064, -8.96601, 90.3322, -78.3897, 34.5228
5.672, 5, 33.0793, 52.9024, -8.94661, 90.3161, -78.406, 34.529
5.676, 5, 33.0742, 52.8984, -8.9272, 90.2999, -78.4223, 34.5352
5.68, 5, 33.0691, 52.8944, -8.90779, 90.2838, -78.4385, 34.5415
5.684, 5, 33.064, 52.8904, -8.88838, 90.2677, -78.4548, 34.5477
5.688, 5, 33.0589, 52.8864, -8.86897, 90.2515, -78.4711, 34.5539
5.692, 5, 33.0539, 52.8823, -8.84955, 90.2354, -78.4874, 34.5601
5.696, 5, 33.0488, 52.8783, -8.83013, 90.2193, -78.5037, 34.5663
5.7, 5, 33.0437, 52.8743, -8.8107, 90.2032, -78.52, 34.5725
5.704, 5, 33.0386, 52.8703, -8.79127, 90.187, -78.5362, 34.5787
5.708, 5, 33.0335, 52.8662, -8.77184, 90.1709, -78.5525, 34.5848
5.712, 5, 33.0284, 52.8622, -8.75241, 90.1548, -78.5688, 34.591
5.716, 5, 33.0235, 52.8581, -8.73299, 90.1387, -78.5851, 34.5971
5.72, 5, 33.0187, 52.854, -8.7136, 90.1226, -78.6014, 34.6033
5.724, 5, 33.0143, 52.8499, -8.69427, 90.1065, -78.6176, 34.6094
5.728, 5, 33.0102, 52.8458, -8.67505, 90.0905, -78.6338, 34.6155
5.732, 5, 33.0064, 52.8417, -8.65603, 90.0747, -78.6498, 34.6215
5.736, 5, 33.003, 52.8375, -8.6373, 90.0591, -78.6656, 34.6274
5.74, 5, 32.9998, 52.8335, -8.61899, 90.0437, -78.681, 34.6333
5.744, 5, 32.9969, 52.8295, -8.60126, 90.0289, -78.696, 34.6389
5.748, 5, 32.994, 52.8257, -8.58424, 90.0147, -78.7104, 34.6443
5.752, 5, 32.9912, 52.822, -8.5681, 90.0012, -78.724, 34.6494
5.756, 5, 32.9885, 52.8187, -8.55299, 89.9885, -78.7367, 34.6542
5.76, 5, 32.9858, 52.8156, -8.53906, 89.9769, -78.7485, 34.6586
5.764, 5, 32.9831, 52.8128, -8.52639, 89.9663, -78.7591, 34.6626
5.768, 5, 32.9805, 52.8103, -8.51507, 89.9569, -78.7687, 34.6661
