hehonglu123/ABB_Primitive_Study/execution/movec/curve_exe_v300_z10.csv
timestamp, cmd_num, J1, J2, J3, J4, J5, J6
0, -1, 32.9446, 52.7398, -8.49419, 90.0915, -78.6833, 34.4926
0.002, -1, 32.9446, 52.7398, -8.49419, 90.0915, -78.6833, 34.4926
0.006, -1, 32.9446, 52.7398, -8.49419, 90.0915, -78.6833, 34.4926
0.008, -1, 32.9446, 52.7398, -8.49419, 90.0915, -78.6833, 34.4926
0.011, -1, 32.9446, 52.7398, -8.49419, 90.0915, -78.6833, 34.4926
0.016, -1, 32.9446, 52.7398, -8.49419, 90.0915, -78.6833, 34.4926
0.02, -1, 32.9446, 52.7398, -8.49419, 90.0915, -78.6833, 34.4926
0.024, -1, 32.9446, 52.7398, -8.49419, 90.0915, -78.6833, 34.4926
0.028, -1, 32.9446, 52.7398, -8.49419, 90.0915, -78.6833, 34.4926
0.032, -1, 32.9447, 52.7398, -8.49419, 90.0915, -78.6833, 34.4926
0.036, -1, 32.9447, 52.7397, -8.49419, 90.0915, -78.6833, 34.4926
0.04, -1, 32.9449, 52.7396, -8.49419, 90.0915, -78.6833, 34.4926
0.044, -1, 32.9453, 52.7392, -8.49421, 90.0915, -78.6833, 34.4926
0.048, -1, 32.9461, 52.7385, -8.49426, 90.0915, -78.6831, 34.4927
0.052, -1, 32.9474, 52.7371, -8.49437, 90.0917, -78.6826, 34.4928
0.056, -1, 32.9492, 52.7349, -8.4946, 90.0919, -78.6817, 34.4931
0.06, -1, 32.9516, 52.7318, -8.49501, 90.0924, -78.6798, 34.4938
0.064, -1, 32.9544, 52.7277, -8.4957, 90.0932, -78.6767, 34.4949
0.068, -1, 32.9578, 52.7227, -8.49678, 90.0946, -78.6717, 34.4966
0.072, -1, 32.9617, 52.7167, -8.4984, 90.0966, -78.6641, 34.4993
0.076, -1, 32.9661, 52.7097, -8.50073, 90.0995, -78.6532, 34.5031
0.08, -1, 32.9711, 52.7018, -8.50394, 90.1037, -78.6379, 34.5085
0.084, -1, 32.9767, 52.6929, -8.50823, 90.1092, -78.6175, 34.5157
0.088, -1, 32.983, 52.6832, -8.51381, 90.1164, -78.5907, 34.5251
0.092, -1, 32.9898, 52.6726, -8.52089, 90.1256, -78.5567, 34.537
0.096, -1, 32.9971, 52.6615, -8.52966, 90.1371, -78.5143, 34.5519
0.1, -1, 33.0046, 52.6498, -8.54028, 90.151, -78.4629, 34.57
0.104, -1, 33.0124, 52.6377, -8.55288, 90.1675, -78.4018, 34.5915
0.108, -1, 33.0205, 52.6252, -8.56751, 90.1868, -78.3306, 34.6165
0.112, -1, 33.0288, 52.6121, -8.58421, 90.2088, -78.2493, 34.645
0.116, -1, 33.0376, 52.5985, -8.60294, 90.2336, -78.158, 34.6771
0.12, -1, 33.0467, 52.5842, -8.62361, 90.2609, -78.0572, 34.7125
0.124, -1, 33.0563, 52.5693, -8.6461, 90.2906, -77.9475, 34.7511
0.128, -1, 33.0663, 52.5539, -8.67024, 90.3226, -77.8297, 34.7924
0.131, -1, 33.0765, 52.5379, -8.69587, 90.3565, -77.7047, 34.8364
0.136, -1, 33.0871, 52.5214, -8.72276, 90.392, -77.5735, 34.8825
0.139, -1, 33.0981, 52.5041, -8.75072, 90.429, -77.4372, 34.9304
0.144, -1, 33.1095, 52.4858, -8.77954, 90.4671, -77.2967, 34.9797
0.148, -1, 33.1216, 52.4664, -8.80901, 90.506, -77.1531, 35.0302
0.152, -1, 33.1344, 52.4458, -8.83897, 90.5456, -77.0071, 35.0815
0.156, -1, 33.1481, 52.4239, -8.86926, 90.5855, -76.8596, 35.1333
0.16, -1, 33.1624, 52.4009, -8.89978, 90.6258, -76.7111, 35.1855
0.164, -1, 33.1774, 52.3772, -8.93044, 90.6662, -76.562, 35.2379
0.168, -1, 33.1929, 52.3529, -8.96117, 90.7067, -76.4125, 35.2904
0.172, -1, 33.2086, 52.3282, -8.99193, 90.7472, -76.2629, 35.343
0.176, -1, 33.2246, 52.3033, -9.0227, 90.7877, -76.1133, 35.3955
0.18, -1, 33.2406, 52.2782, -9.05345, 90.8282, -75.9638, 35.4481
0.184, -1, 33.2568, 52.2531, -9.08416, 90.8687, -75.8145, 35.5005
0.188, -1, 33.273, 52.2279, -9.11484, 90.9091, -75.6653, 35.5529
0.192, -1, 33.2892, 52.2027, -9.14548, 90.9495, -75.5164, 35.6053
0.196, -1, 33.3054, 52.1775, -9.17607, 90.9897, -75.3677, 35.6575
0.2, -1, 33.3216, 52.1524, -9.2066, 91.03, -75.2192, 35.7097
0.204, -1, 33.3378, 52.1272, -9.23709, 91.0701, -75.071, 35.7617
0.208, -1, 33.354, 52.1021, -9.26752, 91.1102, -74.9231, 35.8137
0.212, -1, 33.3702, 52.077, -9.29789, 91.1502, -74.7754, 35.8656
0.216, -1, 33.3863, 52.052, -9.32821, 91.1901, -74.628, 35.9174
0.22, -1, 33.4024, 52.027, -9.35848, 91.23, -74.4809, 35.9691
0.224, -1, 33.4184, 52.0021, -9.38869, 91.2698, -74.334, 36.0207
0.228, -1, 33.4345, 51.9772, -9.41885, 91.3095, -74.1874, 36.0722
0.232, -1, 33.4505, 51.9523, -9.44895, 91.3492, -74.0411, 36.1236
0.236, -1, 33.4665, 51.9275, -9.479, 91.3887, -73.895, 36.1749
0.24, -1, 33.4825, 51.9028, -9.509, 91.4282, -73.7492, 36.2262
0.244, -1, 33.4984, 51.878, -9.53894, 91.4677, -73.6036, 36.2773
0.248, -1, 33.5143, 51.8533, -9.56883, 91.507, -73.4583, 36.3284
0.252, -1, 33.5302, 51.8287, -9.59867, 91.5463, -73.3133, 36.3793
0.256, -1, 33.546, 51.8041, -9.62845, 91.5855, -73.1685, 36.4302
0.26, -1, 33.5618, 51.7796, -9.65818, 91.6247, -73.024, 36.481
0.264, -1, 33.5776, 51.7551, -9.68785, 91.6638, -72.8797, 36.5317
0.268, -1, 33.5934, 51.7306, -9.71748, 91.7028, -72.7357, 36.5823
0.272, -1, 33.6091, 51.7062, -9.74705, 91.7417, -72.5919, 36.6328
0.276, -1, 33.6248, 51.6818, -9.77657, 91.7806, -72.4484, 36.6832
0.28, -1, 33.6405, 51.6575, -9.80604, 91.8194, -72.3051, 36.7335
0.284, -1, 33.6561, 51.6332, -9.83546, 91.8582, -72.1621, 36.7838
0.288, -1, 33.6718, 51.6089, -9.86483, 91.8969, -72.0193, 36.8339
0.292, -1, 33.6874, 51.5847, -9.89415, 91.9355, -71.8768, 36.884
0.296, -1, 33.7029, 51.5605, -9.92341, 91.974, -71.7345, 36.934
0.3, -1, 33.7185, 51.5364, -9.95263, 92.0125, -71.5925, 36.9839
0.304, -1, 33.734, 51.5123, -9.9818, 92.0509, -71.4507, 37.0337
0.308, -1, 33.7495, 51.4883, -10.0109, 92.0893, -71.3092, 37.0835
0.312, -1, 33.765, 51.4643, -10.04, 92.1275, -71.1679, 37.1331
0.316, -1, 33.7804, 51.4403, -10.069, 92.1657, -71.0268, 37.1827
0.32, -1, 33.7958, 51.4164, -10.098, 92.2039, -70.886, 37.2321
0.324, -1, 33.8112, 51.3925, -10.1269, 92.242, -70.7454, 37.2815
0.328, -1, 33.8266, 51.3687, -10.1558, 92.28, -70.605, 37.3309
0.332, -1, 33.8419, 51.3449, -10.1846, 92.318, -70.4649, 37.3801
0.336, -1, 33.8572, 51.3211, -10.2134, 92.3559, -70.325, 37.4292
0.34, -1, 33.8725, 51.2974, -10.2421, 92.3937, -70.1854, 37.4783
0.344, -1, 33.8877, 51.2737, -10.2708, 92.4315, -70.046, 37.5273
0.348, -1, 33.903, 51.2501, -10.2994, 92.4692, -69.9068, 37.5762
0.352, -1, 33.9182, 51.2265, -10.328, 92.5068, -69.7678, 37.625
0.356, -1, 33.9334, 51.2029, -10.3565, 92.5444, -69.6291, 37.6737
0.36, -1, 33.9485, 51.1794, -10.385, 92.5819, -69.4906, 37.7224
0.364, -1, 33.9636, 51.1559, -10.4134, 92.6194, -69.3523, 37.771
0.368, -1, 33.9788, 51.1325, -10.4418, 92.6568, -69.2143, 37.8195
0.372, -1, 33.9938, 51.109, -10.4702, 92.6941, -69.0764, 37.8679
0.376, -1, 34.0089, 51.0857, -10.4985, 92.7314, -68.9389, 37.9163
0.38, -1, 34.0239, 51.0623, -10.5268, 92.7686, -68.8015, 37.9645
0.384, -1, 34.0389, 51.039, -10.555, 92.8058, -68.6643, 38.0127
0.388, -1, 34.0539, 51.0158, -10.5831, 92.8429, -68.5274, 38.0608
0.392, -1, 34.0689, 50.9926, -10.6113, 92.8799, -68.3907, 38.1089
0.396, -1, 34.0838, 50.9694, -10.6393, 92.9169, -68.2542, 38.1568
0.4, -1, 34.0987, 50.9462, -10.6674, 92.9538, -68.1179, 38.2047
0.404, -1, 34.1136, 50.9231, -10.6954, 92.9907, -67.9818, 38.2525
0.408, -1, 34.1285, 50.9, -10.7233, 93.0275, -67.846, 38.3002
0.412, -1, 34.1433, 50.877, -10.7512, 93.0642, -67.7104, 38.3479
0.416, -1, 34.1582, 50.854, -10.779, 93.1009, -67.575, 38.3955
0.42, -1, 34.173, 50.831, -10.8069, 93.1375, -67.4398, 38.443
0.424, -1, 34.1877, 50.8081, -10.8346, 93.1741, -67.3048, 38.4904
0.428, -1, 34.2025, 50.7852, -10.8624, 93.2106, -67.17, 38.5377
0.432, -1, 34.2172, 50.7623, -10.89, 93.2471, -67.0354, 38.585
0.436, -1, 34.2319, 50.7395, -10.9177, 93.2835, -66.901, 38.6322
0.44, -1, 34.2466, 50.7167, -10.9453, 93.3198, -66.7669, 38.6794
0.444, -1, 34.2613, 50.694, -10.9728, 93.3561, -66.6329, 38.7264
0.448, -1, 34.2759, 50.6713, -11.0003, 93.3923, -66.4992, 38.7734
0.452, -1, 34.2905, 50.6486, -11.0278, 93.4285, -66.3656, 38.8203
0.456, -1, 34.3051, 50.6259, -11.0552, 93.4647, -66.2323, 38.8672
0.46, -1, 34.3197, 50.6033, -11.0826, 93.5007, -66.0992, 38.914
0.464, -1, 34.3342, 50.5807, -11.11, 93.5367, -65.9662, 38.9607
0.468, -1, 34.3487, 50.5582, -11.1373, 93.5727, -65.8335, 39.0073
0.472, -1, 34.3632, 50.5357, -11.1645, 93.6086, -65.701, 39.0539
0.476, -1, 34.3777, 50.5132, -11.1918, 93.6445, -65.5686, 39.1004
0.48, -1, 34.3922, 50.4907, -11.2189, 93.6803, -65.4365, 39.1468
0.484, -1, 34.4066, 50.4683, -11.2461, 93.716, -65.3045, 39.1932
0.488, -1, 34.421, 50.446, -11.2732, 93.7517, -65.1728, 39.2394
0.492, -1, 34.4354, 50.4236, -11.3002, 93.7873, -65.0412, 39.2857
0.496, -1, 34.4498, 50.4013, -11.3273, 93.8229, -64.9099, 39.3318
0.5, -1, 34.4642, 50.379, -11.3542, 93.8584, -64.7787, 39.3779
0.504, -1, 34.4785, 50.3568, -11.3812, 93.8939, -64.6477, 39.4239
0.508, -1, 34.4928, 50.3346, -11.4081, 93.9294, -64.517, 39.4699
0.512, -1, 34.5071, 50.3124, -11.4349, 93.9647, -64.3864, 39.5158
0.516, -1, 34.5214, 50.2902, -11.4618, 94.0001, -64.256, 39.5616
0.52, -1, 34.5356, 50.2681, -11.4886, 94.0353, -64.1257, 39.6073
0.524, -1, 34.5499, 50.246, -11.5153, 94.0706, -63.9957, 39.653
0.528, -1, 34.5641, 50.224, -11.542, 94.1057, -63.8659, 39.6986
0.532, -1, 34.5783, 50.202, -11.5687, 94.1409, -63.7362, 39.7442
0.536, -1, 34.5924, 50.18, -11.5953, 94.1759, -63.6068, 39.7897
0.54, -1, 34.6066, 50.158, -11.6219, 94.211, -63.4775, 39.8351
0.544, -1, 34.6207, 50.1361, -11.6485, 94.2459, -63.3484, 39.8804
0.548, -1, 34.6348, 50.1142, -11.675, 94.2809, -63.2195, 39.9257
0.552, -1, 34.6489, 50.0923, -11.7015, 94.3157, -63.0908, 39.971
0.556, -1, 34.663, 50.0705, -11.7279, 94.3506, -62.9622, 40.0161
0.56, -1, 34.677, 50.0487, -11.7543, 94.3853, -62.8339, 40.0612
0.564, -1, 34.691, 50.0269, -11.7807, 94.4201, -62.7057, 40.1063
0.568, -1, 34.705, 50.0052, -11.807, 94.4547, -62.5777, 40.1512
0.572, -1, 34.719, 49.9834, -11.8333, 94.4894, -62.4498, 40.1961
0.576, -1, 34.733, 49.9618, -11.8596, 94.524, -62.3222, 40.241
0.58, -1, 34.7469, 49.9401, -11.8858, 94.5585, -62.1947, 40.2858
0.584, -1, 34.7609, 49.9185, -11.912, 94.593, -62.0674, 40.3305
0.588, -1, 34.7748, 49.8969, -11.9381, 94.6274, -61.9403, 40.3752
0.592, -1, 34.7887, 49.8753, -11.9642, 94.6618, -61.8133, 40.4198
0.596, -1, 34.8025, 49.8538, -11.9903, 94.6961, -61.6866, 40.4643
0.6, -1, 34.8164, 49.8323, -12.0163, 94.7304, -61.56, 40.5088
0.604, -1, 34.8302, 49.8108, -12.0423, 94.7647, -61.4336, 40.5532
0.608, -1, 34.844, 49.7894, -12.0683, 94.7989, -61.3073, 40.5976
0.612, -1, 34.8578, 49.768, -12.0942, 94.8331, -61.1812, 40.6419
0.616, -1, 34.8716, 49.7466, -12.1201, 94.8672, -61.0553, 40.6861
0.62, -1, 34.8854, 49.7252, -12.146, 94.9012, -60.9296, 40.7303
0.624, -1, 34.8991, 49.7039, -12.1718, 94.9352, -60.804, 40.7744
0.628, -1, 34.9128, 49.6826, -12.1976, 94.9692, -60.6786, 40.8185
0.632, -1, 34.9265, 49.6613, -12.2234, 95.0032, -60.5534, 40.8625
0.636, -1, 34.9402, 49.6401, -12.2491, 95.037, -60.4283, 40.9064
0.64, -1, 34.9539, 49.6189, -12.2748, 95.0709, -60.3034, 40.9503
0.644, -1, 34.9675, 49.5977, -12.3005, 95.1047, -60.1787, 40.9941
0.648, -1, 34.9812, 49.5765, -12.3261, 95.1384, -60.0541, 41.0379
0.652, -1, 34.9948, 49.5554, -12.3517, 95.1721, -59.9297, 41.0816
0.656, -1, 35.0084, 49.5343, -12.3772, 95.2058, -59.8055, 41.1252
0.66, -1, 35.022, 49.5132, -12.4028, 95.2394, -59.6814, 41.1688
0.664, -1, 35.0355, 49.4922, -12.4283, 95.273, -59.5575, 41.2124
0.668, -1, 35.0491, 49.4712, -12.4537, 95.3065, -59.4337, 41.2558
0.672, -1, 35.0626, 49.4502, -12.4791, 95.34, -59.3101, 41.2993
0.676, -1, 35.0761, 49.4292, -12.5045, 95.3734, -59.1867, 41.3426
0.68, -1, 35.0896, 49.4083, -12.5299, 95.4068, -59.0634, 41.3859
0.684, -1, 35.1031, 49.3874, -12.5552, 95.4401, -58.9403, 41.4292
0.688, -1, 35.1165, 49.3665, -12.5805, 95.4735, -58.8174, 41.4724
0.692, -1, 35.1299, 49.3456, -12.6058, 95.5067, -58.6946, 41.5155
0.696, -1, 35.1434, 49.3248, -12.631, 95.5399, -58.5719, 41.5586
0.7, -1, 35.1568, 49.304, -12.6562, 95.5731, -58.4495, 41.6017
0.704, -1, 35.1701, 49.2832, -12.6813, 95.6063, -58.3271, 41.6446
0.708, -1, 35.1835, 49.2625, -12.7065, 95.6394, -58.205, 41.6876
0.712, -1, 35.1969, 49.2417, -12.7316, 95.6724, -58.083, 41.7304
0.716, -1, 35.2102, 49.221, -12.7566, 95.7054, -57.9611, 41.7732
0.72, -1, 35.2235, 49.2004, -12.7817, 95.7384, -57.8394, 41.816
0.724, -1, 35.2368, 49.1797, -12.8067, 95.7713, -57.7178, 41.8587
0.728, -1, 35.2501, 49.1591, -12.8316, 95.8042, -57.5964, 41.9014
0.732, -1, 35.2634, 49.1385, -12.8566, 95.8371, -57.4752, 41.944
0.736, -1, 35.2766, 49.1179, -12.8815, 95.8699, -57.3541, 41.9865
0.74, -1, 35.2898, 49.0974, -12.9064, 95.9026, -57.2332, 42.029
0.744, -1, 35.3031, 49.0769, -12.9312, 95.9354, -57.1124, 42.0714
0.748, -1, 35.3163, 49.0564, -12.956, 95.968, -56.9917, 42.1138
0.752, -1, 35.3294, 49.0359, -12.9808, 96.0007, -56.8712, 42.1562
0.756, -1, 35.3426, 49.0155, -13.0056, 96.0333, -56.7509, 42.1984
0.76, -1, 35.3558, 48.9951, -13.0303, 96.0659, -56.6307, 42.2407
0.764, -1, 35.3689, 48.9747, -13.055, 96.0984, -56.5107, 42.2828
0.768, -1, 35.382, 48.9543, -13.0797, 96.1309, -56.3907, 42.325
0.772, -1, 35.3951, 48.934, -13.1043, 96.1633, -56.271, 42.3671
0.776, -1, 35.4082, 48.9137, -13.1289, 96.1957, -56.1514, 42.4091
0.78, -1, 35.4213, 48.8934, -13.1535, 96.2281, -56.0319, 42.451
0.784, -1, 35.4343, 48.8731, -13.178, 96.2604, -55.9126, 42.493
0.788, -1, 35.4474, 48.8528, -13.2025, 96.2927, -55.7934, 42.5348
0.792, -1, 35.4604, 48.8326, -13.227, 96.3249, -55.6744, 42.5767
0.796, -1, 35.4734, 48.8124, -13.2515, 96.3571, -55.5555, 42.6184
0.8, -1, 35.4864, 48.7923, -13.2759, 96.3893, -55.4367, 42.6602
0.804, -1, 35.4994, 48.7721, -13.3003, 96.4214, -55.3181, 42.7018
0.808, -1, 35.5124, 48.752, -13.3247, 96.4535, -55.1997, 42.7435
0.812, -1, 35.5253, 48.7319, -13.349, 96.4856, -55.0813, 42.785
0.816, -1, 35.5382, 48.7118, -13.3733, 96.5176, -54.9631, 42.8266
0.82, -1, 35.5512, 48.6918, -13.3976, 96.5496, -54.8451, 42.868
0.824, -1, 35.5641, 48.6717, -13.4219, 96.5816, -54.7272, 42.9095
0.828, -1, 35.577, 48.6517, -13.4461, 96.6134, -54.6094, 42.9508
0.832, -1, 35.5898, 48.6318, -13.4703, 96.6453, -54.4918, 42.9922
0.836, -1, 35.6027, 48.6118, -13.4944, 96.6772, -54.3743, 43.0335
0.84, -1, 35.6155, 48.5919, -13.5186, 96.709, -54.2569, 43.0747
0.844, -1, 35.6284, 48.5719, -13.5427, 96.7407, -54.1397, 43.1159
0.848, -1, 35.6412, 48.5521, -13.5668, 96.7724, -54.0226, 43.157
0.852, -1, 35.6539, 48.5322, -13.5909, 96.8041, -53.9056, 43.1981
0.856, -1, 35.6666, 48.5125, -13.6149, 96.8358, -53.7888, 43.2392
0.86, -1, 35.6791, 48.4928, -13.6389, 96.8674, -53.6721, 43.2802
0.864, -1, 35.6914, 48.4734, -13.6628, 96.8989, -53.5556, 43.3211
0.868, -1, 35.7035, 48.4543, -13.6867, 96.9304, -53.4394, 43.3619
0.872, -1, 35.7152, 48.4354, -13.7106, 96.9618, -53.3236, 43.4026
0.876, -1, 35.7267, 48.4169, -13.7343, 96.993, -53.2083, 43.4431
0.88, -1, 35.7378, 48.3988, -13.7579, 97.0241, -53.0937, 43.4834
0.884, -1, 35.7487, 48.3811, -13.7812, 97.0549, -52.9801, 43.5233
0.888, -1, 35.7593, 48.3638, -13.8043, 97.0853, -52.8677, 43.5628
0.892, -1, 35.7696, 48.347, -13.8271, 97.1153, -52.7571, 43.6017
0.896, -1, 35.7796, 48.3308, -13.8494, 97.1448, -52.6484, 43.6399
0.9, -1, 35.7891, 48.3154, -13.8713, 97.1735, -52.5423, 43.6772
0.904, -1, 35.7981, 48.3007, -13.8924, 97.2015, -52.4393, 43.7134
0.908, -1, 35.8067, 48.2868, -13.9129, 97.2284, -52.3399, 43.7484
0.912, -1, 35.8148, 48.2737, -13.9324, 97.2542, -52.2448, 43.7818
0.916, -1, 35.8225, 48.2613, -13.951, 97.2786, -52.1546, 43.8135
0.92, -1, 35.8299, 48.2495, -13.9684, 97.3016, -52.07, 43.8433
0.924, -1, 35.8369, 48.2384, -13.9846, 97.3229, -51.9913, 43.871
0.928, -1, 35.8436, 48.2277, -13.9994, 97.3424, -51.9192, 43.8963
0.932, -1, 35.8501, 48.2175, -14.0129, 97.3601, -51.8539, 43.9192
0.936, -1, 35.8564, 48.2078, -14.0248, 97.3759, -51.7957, 43.9397
0.94, -1, 35.8623, 48.1986, -14.0354, 97.3898, -51.7445, 43.9577
0.944, -1, 35.8681, 48.1898, -14.0445, 97.4018, -51.7003, 43.9732
0.948, -1, 35.8735, 48.1815, -14.0522, 97.4119, -51.6627, 43.9864
0.952, -1, 35.8787, 48.1738, -14.0587, 97.4204, -51.6314, 43.9974
0.956, -1, 35.8837, 48.1666, -14.0639, 97.4273, -51.6059, 44.0063
0.96, -1, 35.8884, 48.16, -14.0681, 97.4328, -51.5855, 44.0135
0.964, -1, 35.8928, 48.1539, -14.0714, 97.4371, -51.5697, 44.019
0.968, -1, 35.897, 48.1485, -14.0739, 97.4403, -51.5576, 44.0232
0.972, -1, 35.9008, 48.1437, -14.0757, 97.4427, -51.5487, 44.0263
0.976, -1, 35.9042, 48.1397, -14.077, 97.4444, -51.5423, 44.0285
0.98, 2, 35.9071, 48.1364, -14.078, 97.4456, -51.5377, 44.0301
0.984, 2, 35.9094, 48.1339, -14.0786, 97.4465, -51.5346, 44.0312
0.988, 2, 35.9112, 48.132, -14.0791, 97.4471, -51.5324, 44.0319
0.992, 2, 35.9124, 48.1306, -14.0794, 97.4475, -51.5309, 44.0325
0.996, 2, 35.9133, 48.1297, -14.0796, 97.4477, -51.5299, 44.0328
1, 2, 35.9139, 48.1291, -14.0797, 97.4479, -51.5293, 44.033
1.004, 2, 35.9143, 48.1287, -14.0798, 97.448, -51.5288, 44.0332
1.008, 2, 35.9146, 48.1284, -14.0799, 97.4481, -51.5285, 44.0333
1.012, 2, 35.9147, 48.1282, -14.0799, 97.4482, -51.5283, 44.0334
1.016, 2, 35.9149, 48.128, -14.08, 97.4482, -51.5281, 44.0334
1.02, 2, 35.915, 48.128, -14.08, 97.4482, -51.528, 44.0335
1.024, 2, 35.915, 48.1279, -14.08, 97.4482, -51.528, 44.0335
1.027, 2, 35.9151, 48.1279, -14.08, 97.4483, -51.5279, 44.0335
1.032, 2, 35.9151, 48.1278, -14.08, 97.4483, -51.5279, 44.0335
1.036, 2, 35.9151, 48.1278, -14.08, 97.4483, -51.5279, 44.0335
1.04, 2, 35.9151, 48.1278, -14.08, 97.4483, -51.5279, 44.0335
1.044, 2, 35.9151, 48.1278, -14.08, 97.4483, -51.5279, 44.0335
1.048, 2, 35.9151, 48.1278, -14.08, 97.4483, -51.5279, 44.0335
1.052, 2, 35.9151, 48.1278, -14.08, 97.4483, -51.5279, 44.0335
1.055, 2, 35.9151, 48.1278, -14.08, 97.4483, -51.5278, 44.0335
1.06, 2, 35.9151, 48.1278, -14.08, 97.4483, -51.5278, 44.0335
1.064, 2, 35.9151, 48.1278, -14.08, 97.4483, -51.5278, 44.0335
1.068, 2, 35.9151, 48.1278, -14.08, 97.4483, -51.5278, 44.0335
1.072, 2, 35.9151, 48.1278, -14.08, 97.4483, -51.5278, 44.0335
1.076, 2, 35.9151, 48.1278, -14.08, 97.4483, -51.5278, 44.0335
1.08, 2, 35.9151, 48.1278, -14.08, 97.4483, -51.5278, 44.0335
1.084, 2, 35.9151, 48.1278, -14.08, 97.4483, -51.5278, 44.0335
1.088, 2, 35.9151, 48.1278, -14.08, 97.4483, -51.5278, 44.0335
1.091, 2, 35.9151, 48.1278, -14.08, 97.4483, -51.5278, 44.0335
1.096, 2, 35.9151, 48.1278, -14.08, 97.4483, -51.5278, 44.0335
1.1, 2, 35.9151, 48.1278, -14.08, 97.4483, -51.5278, 44.0335
1.104, 2, 35.9151, 48.1278, -14.08, 97.4483, -51.5278, 44.0335
1.108, 2, 35.9151, 48.1278, -14.08, 97.4483, -51.5278, 44.0335
1.112, 2, 35.9151, 48.1278, -14.08, 97.4483, -51.5278, 44.0335
1.116, 2, 35.9151, 48.1278, -14.08, 97.4483, -51.5278, 44.0335
1.119, 2, 35.9151, 48.1278, -14.08, 97.4483, -51.5278, 44.0335
1.124, 2, 35.9151, 48.1278, -14.08, 97.4483, -51.5278, 44.0335
1.128, 2, 35.9151, 48.1278, -14.08, 97.4483, -51.5278, 44.0335
1.132, 2, 35.9151, 48.1278, -14.08, 97.4483, -51.5278, 44.0335
1.136, 2, 35.9151, 48.1278, -14.08, 97.4483, -51.5278, 44.0335
1.14, 2, 35.9151, 48.1278, -14.08, 97.4483, -51.5278, 44.0335
1.144, 2, 35.9151, 48.1278, -14.08, 97.4483, -51.5278, 44.0335
1.147, 2, 35.9151, 48.1278, -14.08, 97.4483, -51.5278, 44.0335
1.152, 2, 35.9151, 48.1278, -14.08, 97.4483, -51.5278, 44.0335
1.156, 2, 35.9151, 48.1278, -14.08, 97.4483, -51.5278, 44.0335
1.16, 2, 35.9151, 48.1278, -14.08, 97.4483, -51.5278, 44.0335
1.164, 2, 35.9151, 48.1278, -14.08, 97.4483, -51.5278, 44.0335
1.168, 2, 35.9151, 48.1278, -14.08, 97.4483, -51.5278, 44.0335
1.172, 2, 35.9151, 48.1278, -14.08, 97.4483, -51.5278, 44.0335
1.175, 2, 35.9151, 48.1278, -14.08, 97.4483, -51.5278, 44.0335
1.18, 2, 35.9151, 48.1278, -14.08, 97.4483, -51.5278, 44.0335
1.184, 2, 35.9151, 48.1278, -14.08, 97.4483, -51.5278, 44.0335
1.188, 2, 35.9151, 48.1278, -14.08, 97.4483, -51.5278, 44.0335
1.192, 2, 35.9151, 48.1278, -14.08, 97.4483, -51.5278, 44.0335
1.196, 2, 35.9151, 48.1278, -14.08, 97.4483, -51.5278, 44.0335
1.2, 2, 35.9151, 48.1278, -14.08, 97.4483, -51.5278, 44.0335
1.204, 2, 35.9151, 48.1278, -14.08, 97.4483, -51.5278, 44.0335
1.208, 2, 35.9151, 48.1278, -14.08, 97.4483, -51.5278, 44.0335
1.212, 2, 35.9151, 48.1278, -14.08, 97.4483, -51.5278, 44.0335
1.216, 2, 35.9151, 48.1278, -14.08, 97.4483, -51.5278, 44.0335
1.22, 2, 35.9151, 48.1278, -14.08, 97.4483, -51.5278, 44.0335
1.224, 2, 35.9151, 48.1278, -14.08, 97.4483, -51.5278, 44.0335
1.228, 2, 35.9151, 48.1278, -14.08, 97.4483, -51.5278, 44.0335
1.232, 2, 35.9151, 48.1278, -14.08, 97.4483, -51.5278, 44.0335
1.236, 2, 35.9151, 48.1278, -14.08, 97.4483, -51.5278, 44.0335
1.24, 2, 35.9151, 48.1278, -14.08, 97.4483, -51.5278, 44.0335
1.244, 2, 35.9151, 48.1278, -14.08, 97.4483, -51.5278, 44.0335
1.248, 2, 35.9151, 48.1278, -14.08, 97.4483, -51.5278, 44.0335
1.252, 2, 35.9151, 48.1278, -14.08, 97.4483, -51.5278, 44.0335
1.256, 2, 35.9151, 48.1278, -14.08, 97.4483, -51.5278, 44.0335
1.26, 2, 35.9151, 48.1278, -14.08, 97.4483, -51.5278, 44.0335
1.264, 2, 35.9151, 48.1278, -14.08, 97.4483, -51.5278, 44.0335
1.267, 2, 35.9151, 48.1278, -14.08, 97.4483, -51.5278, 44.0335
1.272, 2, 35.9151, 48.1278, -14.08, 97.4483, -51.5278, 44.0335
1.276, 2, 35.9151, 48.1278, -14.08, 97.4483, -51.5278, 44.0335
1.28, 2, 35.9151, 48.1278, -14.08, 97.4483, -51.5278, 44.0335
1.284, 2, 35.9151, 48.1278, -14.08, 97.4483, -51.5278, 44.0335
1.288, 2, 35.9151, 48.1278, -14.08, 97.4483, -51.5278, 44.0335
1.292, 2, 35.9151, 48.1278, -14.08, 97.4483, -51.5278, 44.0335
1.295, 2, 35.9151, 48.1278, -14.08, 97.4483, -51.5278, 44.0335
1.3, 2, 35.9151, 48.1278, -14.08, 97.4483, -51.5278, 44.0335
1.304, 2, 35.9151, 48.1278, -14.08, 97.4483, -51.5278, 44.0335
1.308, 2, 35.9151, 48.1278, -14.08, 97.4483, -51.5278, 44.0335
1.312, 2, 35.9151, 48.1278, -14.08, 97.4483, -51.5278, 44.0335
1.316, 2, 35.9151, 48.1278, -14.08, 97.4483, -51.5278, 44.0335
1.32, 2, 35.9151, 48.1278, -14.08, 97.4483, -51.5278, 44.0335
1.324, 2, 35.9151, 48.1278, -14.08, 97.4483, -51.5278, 44.0335
1.328, 2, 35.9151, 48.1278, -14.08, 97.4483, -51.5278, 44.0335
1.332, 2, 35.9151, 48.1278, -14.08, 97.4483, -51.5278, 44.0335
1.336, 2, 35.9151, 48.1278, -14.08, 97.4483, -51.5278, 44.0335
1.34, 2, 35.9151, 48.1278, -14.08, 97.4483, -51.5278, 44.0335
1.344, 2, 35.9151, 48.1278, -14.08, 97.4483, -51.5278, 44.0335
1.348, 2, 35.9151, 48.1278, -14.08, 97.4483, -51.5278, 44.0335
1.352, 2, 35.9151, 48.1278, -14.08, 97.4483, -51.5278, 44.0335
1.356, 2, 35.9151, 48.1278, -14.08, 97.4483, -51.5278, 44.0335
1.36, 2, 35.9151, 48.1278, -14.08, 97.4483, -51.5278, 44.0335
1.364, 2, 35.9151, 48.1278, -14.08, 97.4483, -51.5278, 44.0335
1.368, 2, 35.9151, 48.1278, -14.08, 97.4483, -51.5278, 44.0335
1.372, 2, 35.9151, 48.1278, -14.08, 97.4483, -51.5278, 44.0335
1.376, 2, 35.9151, 48.1278, -14.08, 97.4483, -51.5278, 44.0335
1.38, 2, 35.9151, 48.1278, -14.08, 97.4483, -51.5278, 44.0335
1.384, 2, 35.9151, 48.1278, -14.08, 97.4483, -51.5278, 44.0335
1.388, 2, 35.9151, 48.1278, -14.08, 97.4483, -51.5278, 44.0335
1.392, 2, 35.9151, 48.1278, -14.08, 97.4483, -51.5278, 44.0335
1.396, 2, 35.9151, 48.1278, -14.08, 97.4483, -51.5278, 44.0335
1.4, 2, 35.9151, 48.1278, -14.08, 97.4483, -51.5278, 44.0335
1.404, 2, 35.9151, 48.1278, -14.08, 97.4483, -51.5278, 44.0335
1.408, 2, 35.9151, 48.1278, -14.08, 97.4483, -51.5278, 44.0335
1.412, 2, 35.9151, 48.1278, -14.08, 97.4483, -51.5278, 44.0335
1.416, 2, 35.9151, 48.1278, -14.08, 97.4483, -51.5278, 44.0335
1.42, 2, 35.9151, 48.1278, -14.08, 97.4483, -51.5278, 44.0335
1.424, 2, 35.9151, 48.1278, -14.08, 97.4483, -51.5278, 44.0335
1.428, 2, 35.9151, 48.1278, -14.08, 97.4483, -51.5278, 44.0335
1.432, 2, 35.9151, 48.1278, -14.08, 97.4483, -51.5278, 44.0335
1.436, 2, 35.9151, 48.1278, -14.08, 97.4483, -51.5278, 44.0335
1.44, 2, 35.9151, 48.1278, -14.08, 97.4483, -51.5278, 44.0335
1.444, 2, 35.9151, 48.1278, -14.08, 97.4483, -51.5278, 44.0335
1.448, 2, 35.9151, 48.1278, -14.08, 97.4483, -51.5278, 44.0335
1.452, 2, 35.9151, 48.1278, -14.08, 97.4483, -51.5278, 44.0335
1.456, 2, 35.9151, 48.1278, -14.08, 97.4483, -51.5278, 44.0335
1.46, 2, 35.9151, 48.1278, -14.08, 97.4483, -51.5278, 44.0335
1.464, 2, 35.9151, 48.1278, -14.08, 97.4483, -51.5278, 44.0335
1.468, 2, 35.9151, 48.1278, -14.08, 97.4483, -51.5278, 44.0335
1.472, 2, 35.9151, 48.1278, -14.08, 97.4483, -51.5278, 44.0335
1.476, 2, 35.9151, 48.1278, -14.08, 97.4483, -51.5278, 44.0335
1.48, 2, 35.9151, 48.1278, -14.08, 97.4483, -51.5278, 44.0335
1.484, 2, 35.9151, 48.1278, -14.08, 97.4483, -51.5278, 44.0335
1.488, 2, 35.9151, 48.1278, -14.08, 97.4483, -51.5278, 44.0335
1.492, 2, 35.9151, 48.1278, -14.08, 97.4483, -51.5278, 44.0335
1.496, 2, 35.9151, 48.1278, -14.08, 97.4483, -51.5278, 44.0335
1.5, 2, 35.9151, 48.1278, -14.08, 97.4483, -51.5278, 44.0335
1.504, 2, 35.9151, 48.1278, -14.08, 97.4483, -51.5278, 44.0335
1.508, 2, 35.9151, 48.1278, -14.08, 97.4483, -51.5278, 44.0335
1.512, 2, 35.9151, 48.1278, -14.08, 97.4483, -51.5278, 44.0335
1.516, 2, 35.9151, 48.1278, -14.08, 97.4483, -51.5278, 44.0335
1.52, 2, 35.9151, 48.1278, -14.08, 97.4483, -51.5278, 44.0335
1.524, 2, 35.9151, 48.1278, -14.08, 97.4483, -51.5278, 44.0335
1.528, 2, 35.9151, 48.1278, -14.08, 97.4483, -51.5278, 44.0335
1.532, 2, 35.9151, 48.1278, -14.08, 97.4483, -51.5278, 44.0335
1.536, 2, 35.9151, 48.1278, -14.08, 97.4483, -51.5278, 44.0335
1.54, 2, 35.9151, 48.1278, -14.08, 97.4483, -51.5278, 44.0335
1.544, 2, 35.9151, 48.1278, -14.08, 97.4483, -51.5278, 44.0335
1.548, 2, 35.9151, 48.1278, -14.08, 97.4483, -51.5278, 44.0335
1.552, 2, 35.9151, 48.1278, -14.08, 97.4483, -51.5278, 44.0335
1.556, 2, 35.9151, 48.1278, -14.08, 97.4483, -51.5278, 44.0335
1.56, 2, 35.9151, 48.1278, -14.08, 97.4483, -51.5278, 44.0335
1.564, 2, 35.9151, 48.1278, -14.08, 97.4483, -51.5278, 44.0335
1.568, 2, 35.9151, 48.1278, -14.08, 97.4483, -51.5278, 44.0335
1.572, 2, 35.9151, 48.1278, -14.08, 97.4483, -51.5278, 44.0335
1.576, 2, 35.9151, 48.1278, -14.08, 97.4483, -51.5278, 44.0335
1.58, 2, 35.9151, 48.1278, -14.08, 97.4483, -51.5278, 44.0335
1.584, 2, 35.9151, 48.1278, -14.08, 97.4483, -51.5278, 44.0335
1.588, 2, 35.9151, 48.1278, -14.08, 97.4483, -51.5278, 44.0335
1.592, 2, 35.9151, 48.1278, -14.08, 97.4483, -51.5278, 44.0335
1.596, 2, 35.9151, 48.1278, -14.08, 97.4483, -51.5278, 44.0335
1.6, 2, 35.9151, 48.1278, -14.08, 97.4483, -51.5278, 44.0335
1.604, 2, 35.9151, 48.1278, -14.08, 97.4483, -51.5278, 44.0335
1.608, 2, 35.9151, 48.1278, -14.08, 97.4483, -51.5278, 44.0335
1.612, 2, 35.9151, 48.1278, -14.08, 97.4483, -51.5278, 44.0335
1.616, 2, 35.9151, 48.1278, -14.08, 97.4483, -51.5278, 44.0335
1.62, 2, 35.9151, 48.1278, -14.08, 97.4483, -51.5278, 44.0335
1.624, 2, 35.9151, 48.1278, -14.08, 97.4483, -51.5278, 44.0335
1.628, 2, 35.9151, 48.1278, -14.08, 97.4483, -51.5278, 44.0335
1.632, 2, 35.9151, 48.1278, -14.08, 97.4483, -51.5278, 44.0335
1.636, 2, 35.9151, 48.1278, -14.08, 97.4483, -51.5278, 44.0335
1.64, 2, 35.9151, 48.1278, -14.08, 97.4483, -51.5278, 44.0335
1.644, 2, 35.9151, 48.1278, -14.08, 97.4483, -51.5278, 44.0335
1.648, 2, 35.9151, 48.1278, -14.08, 97.4483, -51.5278, 44.0335
1.652, 2, 35.9151, 48.1278, -14.08, 97.4483, -51.5278, 44.0335
1.656, 2, 35.9151, 48.1278, -14.08, 97.4483, -51.5278, 44.0335
1.66, 2, 35.9151, 48.1278, -14.08, 97.4483, -51.5278, 44.0335
1.664, 2, 35.9151, 48.1278, -14.08, 97.4483, -51.5278, 44.0335
1.668, 2, 35.9151, 48.1278, -14.08, 97.4483, -51.5278, 44.0335
1.672, 2, 35.9151, 48.1278, -14.08, 97.4483, -51.5278, 44.0335
1.676, 2, 35.9151, 48.1278, -14.08, 97.4483, -51.5278, 44.0335
1.68, 2, 35.9151, 48.1278, -14.08, 97.4483, -51.5278, 44.0335
1.684, 2, 35.9151, 48.1278, -14.08, 97.4483, -51.5278, 44.0335
1.688, 2, 35.9151, 48.1278, -14.08, 97.4483, -51.5278, 44.0335
1.692, 2, 35.9151, 48.1278, -14.08, 97.4483, -51.5278, 44.0335
1.696, 2, 35.9151, 48.1278, -14.08, 97.4483, -51.5278, 44.0335
1.7, 2, 35.9151, 48.1278, -14.08, 97.4483, -51.5278, 44.0335
1.704, 2, 35.9151, 48.1278, -14.08, 97.4483, -51.5278, 44.0335
1.708, 2, 35.9151, 48.1278, -14.08, 97.4483, -51.5278, 44.0335
1.712, 2, 35.9151, 48.1278, -14.08, 97.4483, -51.5278, 44.0335
1.716, 2, 35.9151, 48.1278, -14.08, 97.4483, -51.5278, 44.0335
1.72, 2, 35.9151, 48.1278, -14.08, 97.4483, -51.5278, 44.0335
1.724, 2, 35.9151, 48.1278, -14.08, 97.4483, -51.5278, 44.0335
1.728, 2, 35.9151, 48.1278, -14.08, 97.4483, -51.5278, 44.0335
1.732, 2, 35.9151, 48.1278, -14.08, 97.4483, -51.5278, 44.0335
1.736, 2, 35.9151, 48.1278, -14.08, 97.4483, -51.5278, 44.0335
1.74, 2, 35.9151, 48.1278, -14.08, 97.4483, -51.5278, 44.0335
1.744, 2, 35.9151, 48.1278, -14.08, 97.4483, -51.5278, 44.0335
1.748, 2, 35.9151, 48.1278, -14.08, 97.4483, -51.5278, 44.0335
1.752, 2, 35.9151, 48.1278, -14.08, 97.4483, -51.5278, 44.0335
1.756, 2, 35.9151, 48.1278, -14.08, 97.4483, -51.5278, 44.0335
1.76, 2, 35.9151, 48.1278, -14.08, 97.4483, -51.5278, 44.0335
1.764, 2, 35.9151, 48.1278, -14.08, 97.4483, -51.5278, 44.0335
1.768, 2, 35.9151, 48.1278, -14.08, 97.4483, -51.5278, 44.0335
1.772, 2, 35.9151, 48.1278, -14.08, 97.4483, -51.5278, 44.0335
1.776, 2, 35.9151, 48.1278, -14.08, 97.4483, -51.5278, 44.0335
1.78, 2, 35.9151, 48.1278, -14.08, 97.4483, -51.5278, 44.0335
1.784, 2, 35.9151, 48.1278, -14.08, 97.4483, -51.5278, 44.0335
1.788, 2, 35.9151, 48.1278, -14.08, 97.4483, -51.5278, 44.0335
1.792, 2, 35.9151, 48.1278, -14.08, 97.4483, -51.5278, 44.0335
1.796, 2, 35.9151, 48.1278, -14.08, 97.4483, -51.5278, 44.0335
1.8, 2, 35.9151, 48.1278, -14.08, 97.4483, -51.5278, 44.0335
1.804, 2, 35.9151, 48.1278, -14.08, 97.4483, -51.5278, 44.0335
1.808, 2, 35.9151, 48.1278, -14.08, 97.4483, -51.5278, 44.0335
1.812, 2, 35.9151, 48.1278, -14.08, 97.4483, -51.5278, 44.0335
1.816, 2, 35.9151, 48.1278, -14.08, 97.4483, -51.5278, 44.0335
1.82, 2, 35.9151, 48.1278, -14.08, 97.4483, -51.5278, 44.0335
1.824, 2, 35.9151, 48.1278, -14.08, 97.4483, -51.5278, 44.0335
1.828, 2, 35.9151, 48.1278, -14.08, 97.4483, -51.5278, 44.0335
1.832, 2, 35.9151, 48.1278, -14.08, 97.4483, -51.5278, 44.0335
1.836, 2, 35.9151, 48.1278, -14.08, 97.4483, -51.5278, 44.0335
1.84, 2, 35.9151, 48.1278, -14.08, 97.4483, -51.5278, 44.0335
1.844, 2, 35.9151, 48.1278, -14.08, 97.4483, -51.5278, 44.0335
1.848, 2, 35.9151, 48.1278, -14.08, 97.4483, -51.5278, 44.0335
1.852, 2, 35.9151, 48.1278, -14.08, 97.4483, -51.5278, 44.0335
1.856, 2, 35.9151, 48.1278, -14.08, 97.4483, -51.5278, 44.0335
1.86, 2, 35.9151, 48.1278, -14.08, 97.4483, -51.5278, 44.0335
1.864, 2, 35.9151, 48.1278, -14.08, 97.4483, -51.5278, 44.0335
1.868, 2, 35.9151, 48.1278, -14.08, 97.4483, -51.5278, 44.0335
1.872, 2, 35.9151, 48.1278, -14.08, 97.4483, -51.5278, 44.0335
1.876, 2, 35.9151, 48.1278, -14.08, 97.4483, -51.5278, 44.0335
1.88, 2, 35.9151, 48.1278, -14.08, 97.4483, -51.5278, 44.0335
1.884, 2, 35.9151, 48.1278, -14.08, 97.4483, -51.5278, 44.0335
1.888, 2, 35.9151, 48.1278, -14.08, 97.4483, -51.5278, 44.0335
1.892, 2, 35.9151, 48.1278, -14.08, 97.4483, -51.5278, 44.0335
1.896, 2, 35.9151, 48.1278, -14.08, 97.4483, -51.5278, 44.0335
1.9, 2, 35.9151, 48.1278, -14.08, 97.4483, -51.5278, 44.0335
1.904, 2, 35.9151, 48.1278, -14.08, 97.4483, -51.5278, 44.0335
1.908, 2, 35.9151, 48.1278, -14.08, 97.4483, -51.5278, 44.0335
1.912, 2, 35.9151, 48.1278, -14.08, 97.4483, -51.5278, 44.0335
1.916, 2, 35.9151, 48.1278, -14.08, 97.4483, -51.5278, 44.0335
1.92, 2, 35.9151, 48.1278, -14.08, 97.4483, -51.5278, 44.0335
1.924, 2, 35.9151, 48.1278, -14.08, 97.4483, -51.5278, 44.0335
1.928, 2, 35.9151, 48.1278, -14.08, 97.4483, -51.5278, 44.0335
1.932, 2, 35.9151, 48.1278, -14.08, 97.4483, -51.5278, 44.0335
1.936, 2, 35.9151, 48.1278, -14.08, 97.4483, -51.5278, 44.0335
1.94, 2, 35.9151, 48.1278, -14.08, 97.4483, -51.5278, 44.0335
1.944, 2, 35.9151, 48.1278, -14.08, 97.4483, -51.5278, 44.0335
1.948, 2, 35.9151, 48.1278, -14.08, 97.4483, -51.5278, 44.0335
1.952, 2, 35.9151, 48.1278, -14.08, 97.4483, -51.5278, 44.0335
1.956, 2, 35.9151, 48.1278, -14.08, 97.4483, -51.5278, 44.0335
1.96, 2, 35.9151, 48.1278, -14.08, 97.4483, -51.5278, 44.0335
1.964, 2, 35.9151, 48.1278, -14.08, 97.4483, -51.5278, 44.0335
1.968, 2, 35.9151, 48.1278, -14.08, 97.4483, -51.5278, 44.0335
1.972, 2, 35.9151, 48.1278, -14.08, 97.4483, -51.5278, 44.0335
1.976, 2, 35.9151, 48.1278, -14.08, 97.4483, -51.5278, 44.0335
1.98, 2, 35.9151, 48.1278, -14.08, 97.4483, -51.5278, 44.0335
1.984, 2, 35.9151, 48.1278, -14.08, 97.4483, -51.5278, 44.0335
1.988, 2, 35.9151, 48.1278, -14.08, 97.4483, -51.5278, 44.0335
1.992, 2, 35.9151, 48.1278, -14.08, 97.4483, -51.5278, 44.0335
1.996, 2, 35.9151, 48.1278, -14.08, 97.4483, -51.5278, 44.0335
1.999, 2, 35.9151, 48.1278, -14.08, 97.4483, -51.5278, 44.0335
2.004, 2, 35.9151, 48.1278, -14.08, 97.4483, -51.5278, 44.0335
2.008, 2, 35.9151, 48.1278, -14.08, 97.4483, -51.5278, 44.0335
2.012, 2, 35.9151, 48.1278, -14.08, 97.4483, -51.5278, 44.0335
2.015, 2, 35.9151, 48.1278, -14.08, 97.4483, -51.5278, 44.0335
2.019, 2, 35.9151, 48.1278, -14.08, 97.4483, -51.5278, 44.0335
2.024, 2, 35.9151, 48.1278, -14.08, 97.4483, -51.5278, 44.0335
2.028, 2, 35.9151, 48.1278, -14.08, 97.4483, -51.5278, 44.0335
2.031, 2, 35.9151, 48.1278, -14.08, 97.4483, -51.5278, 44.0335
2.036, 4, 35.9151, 48.1278, -14.08, 97.4483, -51.5278, 44.0335
2.04, 4, 35.9151, 48.1278, -14.08, 97.4483, -51.5278, 44.0335
2.044, 4, 35.9151, 48.1278, -14.08, 97.4483, -51.5278, 44.0335
2.048, 4, 35.9151, 48.1278, -14.08, 97.4483, -51.5278, 44.0335
2.051, 4, 35.9151, 48.1278, -14.08, 97.4483, -51.5278, 44.0335
2.055, 4, 35.9151, 48.1278, -14.08, 97.4483, -51.5278, 44.0335
2.06, 4, 35.9151, 48.1278, -14.08, 97.4483, -51.5278, 44.0335
2.064, 4, 35.9151, 48.1278, -14.08, 97.4483, -51.5278, 44.0335
2.068, 4, 35.9151, 48.1278, -14.08, 97.4483, -51.5278, 44.0335
2.071, 4, 35.9151, 48.1278, -14.08, 97.4483, -51.5278, 44.0335
2.076, 4, 35.9151, 48.1278, -14.08, 97.4483, -51.5278, 44.0335
2.08, 4, 35.9151, 48.1278, -14.08, 97.4483, -51.5278, 44.0335
2.084, 4, 35.9151, 48.1278, -14.08, 97.4483, -51.5278, 44.0335
2.087, 4, 35.9151, 48.1278, -14.08, 97.4483, -51.5278, 44.0335
2.092, 4, 35.9151, 48.1278, -14.08, 97.4483, -51.5278, 44.0335
2.096, 4, 35.9151, 48.1278, -14.08, 97.4483, -51.5278, 44.0335
2.1, 4, 35.9151, 48.1278, -14.08, 97.4483, -51.5278, 44.0335
2.104, 4, 35.9151, 48.1278, -14.08, 97.4483, -51.5278, 44.0335
2.107, 4, 35.9151, 48.1278, -14.08, 97.4483, -51.5278, 44.0335
2.111, 4, 35.9151, 48.1278, -14.08, 97.4483, -51.5278, 44.0335
2.116, 4, 35.9151, 48.1278, -14.08, 97.4483, -51.5278, 44.0335
2.12, 4, 35.9151, 48.1278, -14.08, 97.4483, -51.5278, 44.0335
2.124, 4, 35.9151, 48.1278, -14.08, 97.4483, -51.5278, 44.0335
2.127, 4, 35.9151, 48.1278, -14.08, 97.4483, -51.5278, 44.0335
2.132, 4, 35.9151, 48.1278, -14.08, 97.4483, -51.5278, 44.0335
2.136, 4, 35.9151, 48.1278, -14.08, 97.4483, -51.5278, 44.0335
2.142, 4, 35.9151, 48.1278, -14.08, 97.4483, -51.5278, 44.0335
2.144, 4, 35.9151, 48.1278, -14.08, 97.4483, -51.5278, 44.0335
2.147, 4, 35.9151, 48.1278, -14.08, 97.4483, -51.5278, 44.0335
2.152, 4, 35.9151, 48.1278, -14.08, 97.4483, -51.5278, 44.0335
2.156, 4, 35.9151, 48.1278, -14.08, 97.4483, -51.5278, 44.0335
2.16, 4, 35.9151, 48.1278, -14.08, 97.4483, -51.5278, 44.0335
2.163, 4, 35.9151, 48.1278, -14.08, 97.4483, -51.5278, 44.0335
2.168, 4, 35.9151, 48.1278, -14.08, 97.4483, -51.5278, 44.0335
2.172, 4, 35.9151, 48.1278, -14.08, 97.4483, -51.5278, 44.0335
2.176, 4, 35.9151, 48.128, -14.08, 97.4483, -51.5279, 44.0335
2.179, 4, 35.915, 48.1283, -14.0801, 97.4483, -51.5279, 44.0335
2.184, 4, 35.9147, 48.1291, -14.0801, 97.4483, -51.528, 44.0334
2.188, 4, 35.9143, 48.1303, -14.0802, 97.4483, -51.5284, 44.0332
2.192, 4, 35.9138, 48.1322, -14.0804, 97.4484, -51.5291, 44.0327
2.196, 4, 35.913, 48.1348, -14.0806, 97.4485, -51.5305, 44.0319
2.199, 4, 35.912, 48.1382, -14.0811, 97.4487, -51.5328, 44.0304
2.204, 4, 35.9109, 48.1424, -14.0817, 97.449, -51.5366, 44.0281
2.208, 5, 35.9096, 48.1475, -14.0827, 97.4495, -51.5423, 44.0246
2.212, 5, 35.9083, 48.1536, -14.084, 97.4501, -51.5505, 44.0195
2.216, 5, 35.9068, 48.1609, -14.0858, 97.4509, -51.5618, 44.0125
2.219, 5, 35.9052, 48.1693, -14.088, 97.4521, -51.5767, 44.0033
2.224, 5, 35.9036, 48.1789, -14.0909, 97.4535, -51.596, 43.9914
2.228, 5, 35.902, 48.1898, -14.0945, 97.4552, -51.6202, 43.9765
2.232, 5, 35.9005, 48.2017, -14.0988, 97.4574, -51.6499, 43.9581
2.235, 5, 35.899, 48.2147, -14.1039, 97.4599, -51.6855, 43.9362
2.24, 5, 35.8976, 48.2287, -14.1097, 97.4628, -51.7273, 43.9105
2.244, 5, 35.8964, 48.2436, -14.1165, 97.4661, -51.7754, 43.881
2.248, 5, 35.8952, 48.2596, -14.124, 97.4697, -51.8297, 43.8476
2.252, 5, 35.8941, 48.2767, -14.1323, 97.4738, -51.8901, 43.8106
2.255, 5, 35.8929, 48.295, -14.1413, 97.4781, -51.9562, 43.7701
2.259, 5, 35.8918, 48.3146, -14.151, 97.4826, -52.0275, 43.7265
2.264, 5, 35.8907, 48.3353, -14.1613, 97.4874, -52.1035, 43.6801
2.268, 5, 35.8895, 48.3571, -14.1721, 97.4923, -52.1836, 43.6313
2.272, 5, 35.8882, 48.3799, -14.1833, 97.4973, -52.2672, 43.5804
2.275, 5, 35.8868, 48.4037, -14.1949, 97.5024, -52.3537, 43.5278
2.28, 5, 35.8853, 48.4286, -14.2067, 97.5074, -52.4425, 43.4739
2.284, 5, 35.8836, 48.4543, -14.2187, 97.5125, -52.533, 43.4191
2.288, 5, 35.8817, 48.4809, -14.2308, 97.5174, -52.6249, 43.3635
2.291, 5, 35.8796, 48.5083, -14.243, 97.5222, -52.7177, 43.3075
2.296, 5, 35.8773, 48.5364, -14.2552, 97.5269, -52.8112, 43.2513
2.3, 5, 35.8748, 48.565, -14.2674, 97.5314, -52.9051, 43.1948
2.304, 5, 35.8722, 48.5939, -14.2795, 97.5358, -52.9993, 43.1384
2.308, 5, 35.8695, 48.623, -14.2916, 97.5401, -53.0936, 43.0819
2.311, 5, 35.8667, 48.6523, -14.3036, 97.5441, -53.1881, 43.0255
2.316, 5, 35.8639, 48.6816, -14.3156, 97.548, -53.2827, 42.9691
2.32, 5, 35.861, 48.711, -14.3274, 97.5517, -53.3773, 42.9128
2.324, 5, 35.858, 48.7404, -14.3392, 97.5552, -53.4719, 42.8567
2.328, 5, 35.8551, 48.7697, -14.3509, 97.5586, -53.5665, 42.8007
2.331, 5, 35.852, 48.7991, -14.3625, 97.5617, -53.6611, 42.7448
2.336, 5, 35.849, 48.8284, -14.3739, 97.5647, -53.7556, 42.689
2.34, 5, 35.8459, 48.8576, -14.3853, 97.5676, -53.8502, 42.6333
2.344, 5, 35.8428, 48.8869, -14.3966, 97.5702, -53.9447, 42.5778
2.347, 5, 35.8396, 48.916, -14.4078, 97.5726, -54.0393, 42.5224
2.352, 5, 35.8364, 48.9452, -14.4189, 97.5749, -54.1338, 42.4671
2.356, 5, 35.8332, 48.9742, -14.4299, 97.577, -54.2282, 42.4119
2.36, 5, 35.8299, 49.0033, -14.4408, 97.579, -54.3226, 42.3569
2.364, 5, 35.8266, 49.0322, -14.4516, 97.5807, -54.417, 42.302
2.367, 5, 35.8233, 49.0612, -14.4623, 97.5823, -54.5114, 42.2472
2.372, 5, 35.8199, 49.09, -14.4729, 97.5837, -54.6057, 42.1926
2.376, 5, 35.8166, 49.1189, -14.4834, 97.585, -54.7001, 42.1381
2.38, 5, 35.8131, 49.1476, -14.4938, 97.5861, -54.7943, 42.0837
2.383, 5, 35.8097, 49.1764, -14.5041, 97.587, -54.8886, 42.0294
2.388, 5, 35.8062, 49.205, -14.5142, 97.5877, -54.9828, 41.9752
2.392, 5, 35.8027, 49.2336, -14.5243, 97.5883, -55.077, 41.9212
2.396, 5, 35.7991, 49.2622, -14.5343, 97.5887, -55.1712, 41.8673
2.4, 5, 35.7956, 49.2907, -14.5442, 97.5889, -55.2653, 41.8135
2.403, 5, 35.7919, 49.3192, -14.554, 97.589, -55.3594, 41.7598
2.408, 5, 35.7883, 49.3476, -14.5637, 97.5889, -55.4535, 41.7063
2.412, 5, 35.7846, 49.3759, -14.5733, 97.5887, -55.5475, 41.6528
2.416, 5, 35.7809, 49.4042, -14.5828, 97.5883, -55.6415, 41.5995
2.42, 5, 35.7772, 49.4324, -14.5922, 97.5877, -55.7355, 41.5463
2.423, 5, 35.7734, 49.4606, -14.6014, 97.587, -55.8294, 41.4932
2.428, 5, 35.7696, 49.4888, -14.6106, 97.5861, -55.9233, 41.4402
2.432, 5, 35.7658, 49.5168, -14.6197, 97.585, -56.0172, 41.3874
2.436, 5, 35.7619, 49.5448, -14.6287, 97.5838, -56.1111, 41.3346
2.439, 5, 35.758, 49.5728, -14.6376, 97.5824, -56.2049, 41.282
2.444, 5, 35.7541, 49.6007, -14.6463, 97.5809, -56.2987, 41.2294
2.448, 5, 35.7501, 49.6286, -14.655, 97.5792, -56.3925, 41.177
2.452, 5, 35.7461, 49.6564, -14.6636, 97.5773, -56.4862, 41.1247
2.456, 5, 35.7421, 49.6841, -14.672, 97.5753, -56.5799, 41.0725
2.459, 5, 35.738, 49.7118, -14.6804, 97.5732, -56.6735, 41.0204
2.464, 5, 35.734, 49.7395, -14.6887, 97.5709, -56.7672, 40.9684
2.468, 5, 35.7298, 49.767, -14.6968, 97.5684, -56.8608, 40.9165
2.472, 5, 35.7257, 49.7946, -14.7049, 97.5658, -56.9544, 40.8648
2.476, 5, 35.7215, 49.822, -14.7128, 97.563, -57.0479, 40.8131
2.479, 5, 35.7173, 49.8494, -14.7207, 97.5601, -57.1414, 40.7615
2.484, 5, 35.713, 49.8768, -14.7285, 97.557, -57.2349, 40.7101
2.488, 5, 35.7088, 49.9041, -14.7361, 97.5538, -57.3283, 40.6587
2.492, 5, 35.7045, 49.9313, -14.7436, 97.5504, -57.4217, 40.6075
2.495, 5, 35.7001, 49.9585, -14.7511, 97.5469, -57.5151, 40.5563
2.5, 5, 35.6958, 49.9857, -14.7584, 97.5433, -57.6085, 40.5053
2.504, 5, 35.6914, 50.0127, -14.7657, 97.5394, -57.7018, 40.4543
2.508, 5, 35.6869, 50.0397, -14.7728, 97.5355, -57.7951, 40.4035
2.512, 5, 35.6825, 50.0667, -14.7798, 97.5314, -57.8883, 40.3527
2.515, 5, 35.678, 50.0936, -14.7867, 97.5271, -57.9816, 40.3021
2.52, 5, 35.6735, 50.1205, -14.7935, 97.5227, -58.0748, 40.2515
2.524, 5, 35.6689, 50.1472, -14.8003, 97.5182, -58.1679, 40.2011
2.528, 5, 35.6643, 50.174, -14.8069, 97.5135, -58.2611, 40.1507
2.531, 5, 35.6597, 50.2006, -14.8134, 97.5087, -58.3541, 40.1004
2.536, 5, 35.6551, 50.2273, -14.8198, 97.5037, -58.4472, 40.0503
2.54, 5, 35.6504, 50.2538, -14.8261, 97.4986, -58.5402, 40.0002
2.544, 5, 35.6457, 50.2803, -14.8323, 97.4933, -58.6332, 39.9502
2.548, 5, 35.6409, 50.3067, -14.8384, 97.4879, -58.7262, 39.9003
2.553, 5, 35.6362, 50.3331, -14.8443, 97.4824, -58.8191, 39.8506
2.556, 5, 35.6314, 50.3594, -14.8502, 97.4767, -58.912, 39.8009
2.56, 5, 35.6265, 50.3857, -14.856, 97.4709, -59.0049, 39.7512
2.564, 5, 35.6217, 50.4119, -14.8616, 97.465, -59.0978, 39.7017
2.568, 5, 35.6168, 50.438, -14.8672, 97.4589, -59.1906, 39.6523
2.571, 5, 35.6119, 50.4641, -14.8727, 97.4527, -59.2833, 39.603
2.576, 5, 35.6069, 50.4902, -14.878, 97.4463, -59.3761, 39.5537
2.58, 5, 35.6019, 50.5161, -14.8833, 97.4398, -59.4688, 39.5046
2.584, 5, 35.5969, 50.542, -14.8884, 97.4332, -59.5615, 39.4555
2.587, 5, 35.5919, 50.5679, -14.8934, 97.4264, -59.6541, 39.4065
2.592, 5, 35.5868, 50.5936, -14.8984, 97.4195, -59.7467, 39.3576
2.596, 5, 35.5817, 50.6194, -14.9032, 97.4125, -59.8393, 39.3088
2.6, 5, 35.5766, 50.645, -14.9079, 97.4053, -59.9318, 39.2601
2.604, 5, 35.5714, 50.6706, -14.9125, 97.398, -60.0243, 39.2115
2.607, 5, 35.5662, 50.6962, -14.917, 97.3906, -60.1168, 39.1629
2.612, 5, 35.561, 50.7217, -14.9214, 97.383, -60.2093, 39.1145
2.616, 5, 35.5557, 50.7471, -14.9257, 97.3753, -60.3017, 39.0661
2.62, 5, 35.5505, 50.7724, -14.9299, 97.3675, -60.394, 39.0178
2.624, 5, 35.5451, 50.7977, -14.9339, 97.3595, -60.4864, 38.9696
2.627, 5, 35.5398, 50.823, -14.9379, 97.3514, -60.5787, 38.9215
2.632, 5, 35.5344, 50.8482, -14.9418, 97.3432, -60.671, 38.8734
2.636, 5, 35.529, 50.8733, -14.9455, 97.3349, -60.7632, 38.8255
2.64, 5, 35.5236, 50.8983, -14.9492, 97.3264, -60.8554, 38.7776
2.643, 5, 35.5181, 50.9233, -14.9527, 97.3178, -60.9476, 38.7298
2.648, 5, 35.5126, 50.9482, -14.9561, 97.3091, -61.0397, 38.682
2.652, 5, 35.5071, 50.9731, -14.9595, 97.3002, -61.1318, 38.6344
2.656, 5, 35.5015, 50.9979, -14.9627, 97.2912, -61.2239, 38.5868
2.66, 5, 35.496, 51.0227, -14.9658, 97.2821, -61.316, 38.5393
2.663, 5, 35.4903, 51.0473, -14.9688, 97.2729, -61.408, 38.4919
2.668, 5, 35.4847, 51.0719, -14.9717, 97.2636, -61.4999, 38.4446
2.672, 5, 35.479, 51.0965, -14.9744, 97.2541, -61.5919, 38.3973
2.676, 5, 35.4733, 51.121, -14.9771, 97.2445, -61.6838, 38.3501
2.679, 5, 35.4676, 51.1454, -14.9797, 97.2348, -61.7757, 38.303
2.684, 5, 35.4618, 51.1698, -14.9821, 97.2249, -61.8675, 38.256
2.688, 5, 35.456, 51.1941, -14.9845, 97.215, -61.9593, 38.209
2.692, 5, 35.4502, 51.2183, -14.9867, 97.2048, -62.0511, 38.1621
2.696, 5, 35.4443, 51.2425, -14.9888, 97.1946, -62.1428, 38.1153
2.699, 5, 35.4385, 51.2666, -14.9908, 97.1843, -62.2345, 38.0686
2.704, 5, 35.4325, 51.2906, -14.9928, 97.1739, -62.3262, 38.0219
2.708, 5, 35.4266, 51.3146, -14.9946, 97.1633, -62.4178, 37.9753
2.712, 5, 35.4206, 51.3385, -14.9962, 97.1526, -62.5094, 37.9288
2.716, 5, 35.4146, 51.3624, -14.9978, 97.1418, -62.601, 37.8824
2.719, 5, 35.4086, 51.3862, -14.9993, 97.1309, -62.6925, 37.836
2.724, 5, 35.4025, 51.4099, -15.0006, 97.1198, -62.784, 37.7897
2.728, 5, 35.3964, 51.4336, -15.0019, 97.1086, -62.8755, 37.7434
2.732, 5, 35.3903, 51.4572, -15.003, 97.0974, -62.9669, 37.6973
2.735, 5, 35.3842, 51.4807, -15.004, 97.086, -63.0583, 37.6512
2.74, 5, 35.378, 51.5041, -15.005, 97.0744, -63.1496, 37.6051
2.744, 5, 35.3718, 51.5275, -15.0058, 97.0628, -63.2409, 37.5592
2.748, 5, 35.3655, 51.5509, -15.0064, 97.0511, -63.3322, 37.5133
2.752, 5, 35.3592, 51.5741, -15.007, 97.0392, -63.4235, 37.4674
2.755, 5, 35.353, 51.5973, -15.0075, 97.0272, -63.5147, 37.4217
2.76, 5, 35.3466, 51.6205, -15.0078, 97.0151, -63.6059, 37.376
2.764, 5, 35.3403, 51.6435, -15.0081, 97.0029, -63.697, 37.3303
2.768, 5, 35.3339, 51.6665, -15.0082, 96.9906, -63.7881, 37.2848
2.772, 5, 35.3275, 51.6895, -15.0082, 96.9782, -63.8792, 37.2393
2.775, 5, 35.321, 51.7123, -15.0081, 96.9657, -63.9703, 37.1938
2.78, 5, 35.3145, 51.7351, -15.0079, 96.953, -64.0613, 37.1484
2.784, 5, 35.308, 51.7579, -15.0076, 96.9402, -64.1523, 37.1031
2.788, 5, 35.3015, 51.7805, -15.0072, 96.9274, -64.2432, 37.0579
2.791, 5, 35.2949, 51.8031, -15.0067, 96.9144, -64.3341, 37.0127
2.796, 5, 35.2883, 51.8257, -15.006, 96.9013, -64.425, 36.9675
2.8, 5, 35.2817, 51.8481, -15.0052, 96.8881, -64.5158, 36.9225
2.804, 5, 35.2751, 51.8705, -15.0043, 96.8748, -64.6066, 36.8775
2.808, 5, 35.2684, 51.8928, -15.0034, 96.8613, -64.6974, 36.8325
2.811, 5, 35.2617, 51.9151, -15.0023, 96.8478, -64.7881, 36.7876
2.816, 5, 35.2549, 51.9373, -15.001, 96.8341, -64.8788, 36.7428
2.82, 5, 35.2482, 51.9594, -14.9997, 96.8204, -64.9695, 36.698
2.824, 5, 35.2414, 51.9815, -14.9983, 96.8065, -65.0601, 36.6533
2.828, 5, 35.2345, 52.0035, -14.9967, 96.7926, -65.1507, 36.6086
2.831, 5, 35.2277, 52.0254, -14.995, 96.7785, -65.2413, 36.564
2.836, 5, 35.2208, 52.0473, -14.9933, 96.7643, -65.3319, 36.5195
2.84, 5, 35.2139, 52.0691, -14.9914, 96.75, -65.4224, 36.475
2.844, 5, 35.207, 52.0908, -14.9894, 96.7356, -65.5128, 36.4306
2.847, 5, 35.2, 52.1124, -14.9873, 96.7211, -65.6033, 36.3862
2.852, 5, 35.193, 52.134, -14.985, 96.7065, -65.6937, 36.3419
2.856, 5, 35.186, 52.1555, -14.9827, 96.6918, -65.784, 36.2976
2.86, 5, 35.1789, 52.177, -14.9803, 96.677, -65.8744, 36.2534
2.864, 5, 35.1718, 52.1984, -14.9777, 96.6621, -65.9647, 36.2093
2.867, 5, 35.1647, 52.2197, -14.975, 96.6471, -66.055, 36.1652
2.872, 5, 35.1576, 52.2409, -14.9722, 96.632, -66.1452, 36.1211
2.876, 5, 35.1504, 52.2621, -14.9693, 96.6167, -66.2354, 36.0771
2.88, 5, 35.1432, 52.2832, -14.9663, 96.6014, -66.3256, 36.0332
2.883, 5, 35.136, 52.3042, -14.9632, 96.586, -66.4157, 35.9893
2.888, 5, 35.1287, 52.3252, -14.96, 96.5705, -66.5058, 35.9454
2.892, 5, 35.1214, 52.3461, -14.9566, 96.5548, -66.5959, 35.9016
2.896, 5, 35.1141, 52.3669, -14.9532, 96.5391, -66.6859, 35.8579
2.9, 5, 35.1068, 52.3877, -14.9496, 96.5233, -66.7759, 35.8142
2.903, 5, 35.0994, 52.4084, -14.9459, 96.5074, -66.8659, 35.7706
2.908, 5, 35.092, 52.429, -14.9421, 96.4913, -66.9558, 35.727
2.912, 5, 35.0846, 52.4496, -14.9382, 96.4752, -67.0458, 35.6834
2.916, 5, 35.0771, 52.4701, -14.9342, 96.459, -67.1356, 35.6399
2.92, 5, 35.0697, 52.4905, -14.93, 96.4426, -67.2255, 35.5965
2.923, 5, 35.0622, 52.5108, -14.9258, 96.4262, -67.3153, 35.5531
2.928, 5, 35.0546, 52.5311, -14.9214, 96.4097, -67.405, 35.5098
2.932, 5, 35.0471, 52.5513, -14.917, 96.3931, -67.4948, 35.4665
2.936, 5, 35.0395, 52.5714, -14.9124, 96.3764, -67.5845, 35.4232
2.939, 5, 35.0318, 52.5915, -14.9077, 96.3596, -67.6742, 35.38
2.944, 5, 35.0242, 52.6115, -14.9029, 96.3426, -67.7638, 35.3368
2.948, 5, 35.0165, 52.6314, -14.898, 96.3256, -67.8534, 35.2937
2.952, 5, 35.0088, 52.6513, -14.893, 96.3085, -67.943, 35.2507
2.956, 5, 35.0011, 52.6711, -14.8878, 96.2913, -68.0325, 35.2076
2.959, 5, 34.9933, 52.6908, -14.8826, 96.274, -68.1221, 35.1646
2.964, 5, 34.9855, 52.7104, -14.8772, 96.2566, -68.2115, 35.1217
2.968, 5, 34.9777, 52.73, -14.8717, 96.2392, -68.301, 35.0788
2.972, 5, 34.9699, 52.7495, -14.8661, 96.2216, -68.3904, 35.036
2.976, 5, 34.962, 52.7689, -14.8604, 96.2039, -68.4798, 34.9932
2.98, 5, 34.9541, 52.7883, -14.8546, 96.1861, -68.5691, 34.9504
2.984, 5, 34.9462, 52.8076, -14.8487, 96.1683, -68.6584, 34.9077
2.988, 5, 34.9383, 52.8268, -14.8427, 96.1503, -68.7477, 34.865
2.992, 5, 34.9303, 52.8459, -14.8365, 96.1323, -68.837, 34.8224
2.995, 5, 34.9223, 52.865, -14.8302, 96.1141, -68.9262, 34.7798
3, 5, 34.9142, 52.884, -14.8239, 96.0959, -69.0154, 34.7372
3.004, 5, 34.9062, 52.903, -14.8174, 96.0776, -69.1045, 34.6947
3.008, 5, 34.8981, 52.9218, -14.8108, 96.0592, -69.1936, 34.6522
3.012, 5, 34.89, 52.9406, -14.804, 96.0407, -69.2827, 34.6098
3.015, 5, 34.8818, 52.9593, -14.7972, 96.0221, -69.3717, 34.5674
3.02, 5, 34.8737, 52.978, -14.7903, 96.0034, -69.4608, 34.525
3.024, 5, 34.8655, 52.9966, -14.7832, 95.9846, -69.5497, 34.4827
3.028, 5, 34.8573, 53.0151, -14.7761, 95.9657, -69.6387, 34.4404
3.031, 5, 34.849, 53.0335, -14.7688, 95.9468, -69.7276, 34.3982
3.036, 5, 34.8407, 53.0518, -14.7614, 95.9277, -69.8165, 34.356
3.04, 5, 34.8324, 53.0701, -14.7539, 95.9086, -69.9054, 34.3138
3.044, 5, 34.8241, 53.0883, -14.7463, 95.8894, -69.9942, 34.2717
3.048, 5, 34.8157, 53.1065, -14.7385, 95.87, -70.083, 34.2296
3.051, 5, 34.8074, 53.1246, -14.7307, 95.8506, -70.1717, 34.1876
3.056, 5, 34.7989, 53.1425, -14.7227, 95.8312, -70.2604, 34.1455
3.06, 5, 34.7905, 53.1605, -14.7147, 95.8116, -70.3491, 34.1036
3.064, 5, 34.782, 53.1783, -14.7065, 95.7919, -70.4378, 34.0616
3.068, 5, 34.7735, 53.1961, -14.6982, 95.7722, -70.5264, 34.0197
3.071, 5, 34.765, 53.2138, -14.6898, 95.7523, -70.615, 33.9778
3.076, 5, 34.7565, 53.2314, -14.6812, 95.7324, -70.7036, 33.936
3.08, 5, 34.7479, 53.249, -14.6726, 95.7124, -70.7921, 33.8942
3.084, 5, 34.7393, 53.2665, -14.6639, 95.6923, -70.8806, 33.8524
3.087, 5, 34.7307, 53.2839, -14.655, 95.6721, -70.969, 33.8106
3.092, 5, 34.722, 53.3012, -14.646, 95.6518, -71.0575, 33.7689
3.096, 5, 34.7134, 53.3185, -14.6369, 95.6315, -71.1459, 33.7272
3.1, 5, 34.7046, 53.3357, -14.6277, 95.611, -71.2342, 33.6856
3.104, 5, 34.6959, 53.3528, -14.6184, 95.5905, -71.3225, 33.644
3.107, 5, 34.6872, 53.3698, -14.609, 95.5699, -71.4108, 33.6024
3.112, 5, 34.6784, 53.3868, -14.5994, 95.5492, -71.4991, 33.5609
3.116, 5, 34.6696, 53.4037, -14.5897, 95.5284, -71.5873, 33.5193
3.12, 5, 34.6607, 53.4205, -14.58, 95.5076, -71.6755, 33.4778
3.124, 5, 34.6518, 53.4372, -14.5701, 95.4866, -71.7637, 33.4364
3.128, 5, 34.6429, 53.4538, -14.5601, 95.4656, -71.8518, 33.395
3.132, 5, 34.634, 53.4704, -14.5499, 95.4444, -71.9399, 33.3536
3.136, 5, 34.6249, 53.4867, -14.5396, 95.4232, -72.028, 33.3122
3.14, 5, 34.6158, 53.5029, -14.5292, 95.4019, -72.1159, 33.271
3.143, 5, 34.6065, 53.5189, -14.5185, 95.3805, -72.2038, 33.2299
3.148, 5, 34.5971, 53.5347, -14.5076, 95.3589, -72.2915, 33.1889
3.152, 5, 34.5875, 53.5502, -14.4963, 95.3371, -72.3791, 33.1483
3.156, 5, 34.5779, 53.5653, -14.4847, 95.3151, -72.4664, 33.1081
3.16, 5, 34.568, 53.5801, -14.4725, 95.2928, -72.5533, 33.0684
3.163, 5, 34.5581, 53.5944, -14.4597, 95.2701, -72.6397, 33.0295
3.168, 5, 34.5482, 53.6082, -14.4461, 95.2469, -72.7256, 32.9916
3.172, 5, 34.5381, 53.6215, -14.4317, 95.2231, -72.8107, 32.9547
3.176, 5, 34.528, 53.6342, -14.4162, 95.1988, -72.895, 32.9193
3.179, 5, 34.5178, 53.6463, -14.3995, 95.1737, -72.9783, 32.8854
3.184, 5, 34.5075, 53.6577, -14.3815, 95.1477, -73.0605, 32.8533
3.188, 5, 34.4972, 53.6684, -14.3622, 95.1209, -73.1413, 32.8232
3.192, 6, 34.4867, 53.6783, -14.3412, 95.0932, -73.2209, 32.7954
3.196, 6, 34.4761, 53.6875, -14.3187, 95.0644, -73.2989, 32.7698
3.199, 6, 34.4653, 53.6958, -14.2944, 95.0345, -73.3753, 32.7468
3.204, 6, 34.4545, 53.7032, -14.2684, 95.0036, -73.4501, 32.7263
3.208, 6, 34.4435, 53.7097, -14.2405, 94.9715, -73.5231, 32.7085
3.212, 6, 34.4324, 53.7153, -14.2108, 94.9383, -73.5944, 32.6934
3.216, 6, 34.421, 53.7199, -14.1791, 94.904, -73.6638, 32.6811
3.22, 6, 34.4095, 53.7235, -14.1457, 94.8685, -73.7314, 32.6716
3.224, 6, 34.3978, 53.7262, -14.1103, 94.832, -73.7972, 32.6648
3.228, 6, 34.386, 53.7279, -14.0731, 94.7943, -73.8611, 32.6609
3.232, 6, 34.374, 53.7287, -14.034, 94.7555, -73.9232, 32.6597
3.235, 6, 34.3619, 53.7287, -13.9932, 94.7156, -73.9835, 32.6611
3.24, 6, 34.3496, 53.7278, -13.9506, 94.6748, -74.0421, 32.6652
3.244, 6, 34.3372, 53.7261, -13.9065, 94.6329, -74.099, 32.6717
3.248, 6, 34.3247, 53.7236, -13.8607, 94.5901, -74.1544, 32.6805
3.252, 6, 34.3121, 53.7204, -13.8135, 94.5465, -74.2084, 32.6915
3.255, 6, 34.2994, 53.7164, -13.765, 94.5022, -74.261, 32.7044
3.26, 6, 34.2867, 53.7119, -13.7153, 94.4571, -74.3125, 32.719
3.264, 6, 34.2739, 53.7067, -13.6645, 94.4115, -74.3629, 32.7352
3.268, 6, 34.261, 53.7009, -13.6127, 94.3653, -74.4125, 32.7526
3.272, 6, 34.248, 53.6946, -13.5602, 94.3187, -74.4613, 32.7712
3.276, 6, 34.2349, 53.6879, -13.5071, 94.2718, -74.5096, 32.7905
3.28, 6, 34.2218, 53.6807, -13.4533, 94.2246, -74.5574, 32.8106
3.284, 6, 34.2085, 53.6732, -13.3992, 94.1772, -74.6048, 32.8312
3.288, 6, 34.1951, 53.6653, -13.3447, 94.1296, -74.652, 32.8521
3.291, 6, 34.1815, 53.6572, -13.2899, 94.082, -74.6991, 32.8733
3.296, 6, 34.1679, 53.6488, -13.2349, 94.0343, -74.7459, 32.8946
3.3, 6, 34.1542, 53.6402, -13.1798, 93.9865, -74.7928, 32.916
3.304, 6, 34.1403, 53.6315, -13.1245, 93.9387, -74.8395, 32.9374
3.308, 6, 34.1265, 53.6227, -13.0692, 93.8909, -74.8863, 32.9589
3.312, 6, 34.1125, 53.6137, -13.0138, 93.8431, -74.933, 32.9803
3.316, 6, 34.0986, 53.6047, -12.9583, 93.7953, -74.9797, 33.0017
3.32, 6, 34.0846, 53.5956, -12.9027, 93.7476, -75.0264, 33.0231
3.324, 6, 34.0706, 53.5865, -12.8471, 93.6998, -75.0732, 33.0444
3.328, 6, 34.0565, 53.5773, -12.7915, 93.652, -75.1199, 33.0657
3.332, 6, 34.0425, 53.568, -12.7358, 93.6043, -75.1666, 33.087
3.336, 6, 34.0284, 53.5587, -12.6801, 93.5565, -75.2134, 33.1081
3.34, 6, 34.0143, 53.5494, -12.6243, 93.5088, -75.2602, 33.1292
3.344, 6, 34.0002, 53.5399, -12.5685, 93.4611, -75.3069, 33.1503
3.347, 6, 33.986, 53.5305, -12.5127, 93.4135, -75.3537, 33.1713
3.352, 6, 33.9719, 53.521, -12.4568, 93.3658, -75.4005, 33.1922
3.356, 6, 33.9577, 53.5114, -12.4009, 93.3181, -75.4473, 33.2131
3.36, 6, 33.9435, 53.5018, -12.345, 93.2705, -75.4942, 33.2339
3.364, 6, 33.9293, 53.4921, -12.289, 93.2229, -75.541, 33.2547
3.368, 6, 33.915, 53.4824, -12.233, 93.1753, -75.5879, 33.2753
3.372, 6, 33.9008, 53.4726, -12.1769, 93.1277, -75.6347, 33.296
3.376, 6, 33.8865, 53.4628, -12.1209, 93.0801, -75.6816, 33.3165
3.38, 6, 33.8722, 53.4529, -12.0647, 93.0326, -75.7285, 33.3371
3.383, 6, 33.8579, 53.443, -12.0086, 92.985, -75.7754, 33.3575
3.388, 6, 33.8436, 53.4331, -11.9524, 92.9375, -75.8224, 33.3779
3.392, 6, 33.8292, 53.423, -11.8962, 92.89, -75.8693, 33.3982
3.396, 6, 33.8149, 53.413, -11.8399, 92.8425, -75.9162, 33.4185
3.4, 6, 33.8005, 53.4029, -11.7836, 92.7951, -75.9632, 33.4387
3.403, 6, 33.7861, 53.3927, -11.7273, 92.7476, -76.0102, 33.4588
3.408, 6, 33.7717, 53.3825, -11.6709, 92.7002, -76.0572, 33.4789
3.412, 6, 33.7572, 53.3722, -11.6145, 92.6527, -76.1042, 33.4989
3.416, 6, 33.7428, 53.3619, -11.5581, 92.6053, -76.1512, 33.5188
3.42, 6, 33.7283, 53.3516, -11.5016, 92.5579, -76.1982, 33.5387
3.424, 6, 33.7138, 53.3412, -11.4451, 92.5106, -76.2453, 33.5585
3.428, 6, 33.6993, 53.3307, -11.3886, 92.4632, -76.2923, 33.5783
3.432, 6, 33.6848, 53.3202, -11.332, 92.4159, -76.3394, 33.598
3.436, 6, 33.6702, 53.3096, -11.2754, 92.3685, -76.3865, 33.6176
3.439, 6, 33.6557, 53.299, -11.2188, 92.3212, -76.4336, 33.6372
3.444, 6, 33.6411, 53.2884, -11.1621, 92.2739, -76.4807, 33.6567
3.448, 6, 33.6265, 53.2777, -11.1054, 92.2266, -76.5278, 33.6762
3.452, 6, 33.6119, 53.2669, -11.0487, 92.1794, -76.5749, 33.6955
3.456, 6, 33.5972, 53.2561, -10.9919, 92.1321, -76.6221, 33.7149
3.46, 6, 33.5826, 53.2452, -10.9351, 92.0849, -76.6692, 33.7341
3.464, 6, 33.5679, 53.2343, -10.8783, 92.0377, -76.7164, 33.7533
3.468, 6, 33.5532, 53.2234, -10.8214, 91.9904, -76.7636, 33.7724
3.472, 6, 33.5385, 53.2124, -10.7645, 91.9433, -76.8108, 33.7915
3.476, 6, 33.5238, 53.2013, -10.7076, 91.8961, -76.858, 33.8105
3.48, 6, 33.509, 53.1902, -10.6506, 91.8489, -76.9052, 33.8294
3.484, 6, 33.4943, 53.1791, -10.5937, 91.8018, -76.9524, 33.8483
3.488, 6, 33.4795, 53.1679, -10.5366, 91.7546, -76.9997, 33.8671
3.492, 6, 33.4647, 53.1566, -10.4796, 91.7075, -77.0469, 33.8859
3.495, 6, 33.4499, 53.1453, -10.4225, 91.6604, -77.0942, 33.9045
3.5, 6, 33.435, 53.1339, -10.3654, 91.6133, -77.1415, 33.9232
3.504, 6, 33.4202, 53.1225, -10.3082, 91.5663, -77.1888, 33.9417
3.508, 6, 33.4053, 53.1111, -10.251, 91.5192, -77.2361, 33.9602
3.512, 6, 33.3904, 53.0996, -10.1938, 91.4722, -77.2834, 33.9786
3.516, 6, 33.3755, 53.088, -10.1366, 91.4251, -77.3307, 33.997
3.52, 6, 33.3606, 53.0764, -10.0793, 91.3781, -77.3781, 34.0152
3.524, 6, 33.3457, 53.0648, -10.022, 91.3311, -77.4254, 34.0335
3.528, 6, 33.3307, 53.0531, -9.96464, 91.2841, -77.4728, 34.0516
3.531, 6, 33.3157, 53.0413, -9.90727, 91.2371, -77.5202, 34.0697
3.536, 6, 33.3007, 53.0295, -9.84987, 91.1902, -77.5676, 34.0877
3.54, 6, 33.2857, 53.0177, -9.79243, 91.1432, -77.615, 34.1057
3.544, 6, 33.2707, 53.0058, -9.73497, 91.0963, -77.6624, 34.1236
3.548, 6, 33.2556, 52.9938, -9.67748, 91.0494, -77.7098, 34.1414
3.552, 6, 33.2406, 52.9818, -9.61995, 91.0025, -77.7573, 34.1592
3.556, 6, 33.2255, 52.9698, -9.5624, 90.9556, -77.8047, 34.1769
3.56, 6, 33.2104, 52.9577, -9.50481, 90.9087, -77.8522, 34.1945
3.564, 6, 33.1954, 52.9455, -9.44721, 90.8618, -77.8997, 34.212
3.568, 6, 33.1807, 52.9333, -9.38961, 90.815, -77.9471, 34.2295
3.572, 6, 33.1662, 52.921, -9.33205, 90.7682, -77.9946, 34.2469
3.576, 6, 33.1523, 52.9086, -9.27461, 90.7215, -78.0419, 34.2643
3.58, 6, 33.1389, 52.8962, -9.2174, 90.675, -78.0891, 34.2815
3.584, 6, 33.126, 52.8837, -9.16059, 90.6288, -78.136, 34.2985
3.587, 6, 33.1138, 52.8713, -9.10437, 90.583, -78.1825, 34.3153
3.592, 6, 33.102, 52.859, -9.04902, 90.538, -78.2282, 34.3318
3.596, 6, 33.0906, 52.8468, -8.99485, 90.4939, -78.273, 34.3479
3.6, 6, 33.0796, 52.8349, -8.94219, 90.451, -78.3166, 34.3635
3.604, 6, 33.069, 52.8234, -8.89143, 90.4096, -78.3586, 34.3785
3.608, 6, 33.0589, 52.8123, -8.84294, 90.3701, -78.3987, 34.3928
3.612, 6, 33.0493, 52.8019, -8.79711, 90.3328, -78.4366, 34.4062
3.616, 6, 33.0401, 52.7921, -8.75428, 90.298, -78.472, 34.4188
3.62, 6, 33.0314, 52.7832, -8.71478, 90.2659, -78.5046, 34.4303
3.624, 6, 33.023, 52.7751, -8.67885, 90.2368, -78.5343, 34.4408
3.628, 6, 33.0149, 52.768, -8.64663, 90.2108, -78.5608, 34.4501
3.632, 6, 33.0072, 52.7619, -8.61821, 90.188, -78.5841, 34.4583
3.636, 6, 32.9998, 52.7567, -8.59354, 90.1682, -78.6043, 34.4653
3.64, 6, 32.9929, 52.7524, -8.57251, 90.1515, -78.6214, 34.4713
3.644, 6, 32.9864, 52.749, -8.55489, 90.1376, -78.6356, 34.4762
3.648, 6, 32.9804, 52.7463, -8.54043, 90.1262, -78.6473, 34.4803
3.652, 6, 32.9748, 52.7442, -8.52879, 90.1172, -78.6566, 34.4835
3.656, 6, 32.9697, 52.7427, -8.51962, 90.1101, -78.6639, 34.486
3.66, 6, 32.965, 52.7416, -8.51255, 90.1048, -78.6694, 34.4879
3.664, 6, 32.9607, 52.7409, -8.50723, 90.1008, -78.6735, 34.4893
3.668, 6, 32.957, 52.7405, -8.50331, 90.0979, -78.6765, 34.4903
3.672, 7, 32.9538, 52.7402, -8.50049, 90.0959, -78.6787, 34.491
3.676, 7, 32.9512, 52.7401, -8.4985, 90.0945, -78.6802, 34.4915
3.679, 7, 32.9492, 52.74, -8.49712, 90.0935, -78.6812, 34.4918
3.684, 7, 32.9477, 52.7399, -8.49618, 90.0929, -78.6819, 34.4921
3.688, 7, 32.9468, 52.7399, -8.49554, 90.0924, -78.6824, 34.4922
3.692, 7, 32.9461, 52.7398, -8.4951, 90.0921, -78.6827, 34.4923
3.696, 7, 32.9456, 52.7398, -8.49481, 90.0919, -78.6829, 34.4924
3.7, 7, 32.9453, 52.7398, -8.49461, 90.0918, -78.683, 34.4925
3.704, 7, 32.9451, 52.7398, -8.49447, 90.0917, -78.6831, 34.4925
3.708, 7, 32.9449, 52.7398, -8.49438, 90.0916, -78.6832, 34.4925
3.712, 7, 32.9449, 52.7398, -8.49432, 90.0916, -78.6833, 34.4925
3.716, 7, 32.9448, 52.7398, -8.49428, 90.0915, -78.6833, 34.4925
3.72, 7, 32.9447, 52.7398, -8.49425, 90.0915, -78.6833, 34.4925
3.724, 7, 32.9447, 52.7398, -8.49423, 90.0915, -78.6833, 34.4926
3.728, 7, 32.9447, 52.7398, -8.49422, 90.0915, -78.6833, 34.4926
3.732, 7, 32.9447, 52.7398, -8.49421, 90.0915, -78.6833, 34.4926
3.735, 7, 32.9447, 52.7398, -8.4942, 90.0915, -78.6833, 34.4926
3.74, 7, 32.9447, 52.7398, -8.4942, 90.0915, -78.6833, 34.4926
3.744, 7, 32.9447, 52.7398, -8.49419, 90.0915, -78.6833, 34.4926
3.748, 7, 32.9447, 52.7398, -8.49419, 90.0915, -78.6833, 34.4926
3.752, 7, 32.9447, 52.7398, -8.49419, 90.0915, -78.6833, 34.4926
3.756, 7, 32.9446, 52.7398, -8.49419, 90.0915, -78.6833, 34.4926
3.76, 7, 32.9446, 52.7398, -8.49419, 90.0915, -78.6833, 34.4926
3.764, 7, 32.9446, 52.7398, -8.49419, 90.0915, -78.6833, 34.4926
3.768, 7, 32.9446, 52.7398, -8.49419, 90.0915, -78.6833, 34.4926
3.772, 7, 32.9446, 52.7398, -8.49419, 90.0915, -78.6833, 34.4926
3.776, 7, 32.9446, 52.7398, -8.49419, 90.0915, -78.6833, 34.4926
3.78, 7, 32.9446, 52.7398, -8.49419, 90.0915, -78.6833, 34.4926
3.784, 7, 32.9446, 52.7398, -8.49419, 90.0915, -78.6833, 34.4926
3.788, 7, 32.9446, 52.7398, -8.49419, 90.0915, -78.6833, 34.4926
