hehonglu123/ABB_Primitive_Study/execution/movec/curve_exe_v300_z20.csv
timestamp, cmd_num, J1, J2, J3, J4, J5, J6
0, -1, 32.9446, 52.7398, -8.49419, 90.0915, -78.6833, 34.4926
0.002, -1, 32.9446, 52.7398, -8.49419, 90.0915, -78.6833, 34.4926
0.006, -1, 32.9446, 52.7398, -8.49419, 90.0915, -78.6833, 34.4926
0.008, -1, 32.9446, 52.7398, -8.49419, 90.0915, -78.6833, 34.4926
0.011, -1, 32.9446, 52.7398, -8.49419, 90.0915, -78.6833, 34.4926
0.016, -1, 32.9446, 52.7398, -8.49419, 90.0915, -78.6833, 34.4926
0.02, -1, 32.9446, 52.7398, -8.49419, 90.0915, -78.6833, 34.4926
0.024, -1, 32.9446, 52.7398, -8.49419, 90.0915, -78.6833, 34.4926
0.028, -1, 32.9446, 52.7398, -8.49419, 90.0915, -78.6833, 34.4926
0.032, -1, 32.9447, 52.7398, -8.49419, 90.0915, -78.6833, 34.4926
0.036, -1, 32.9447, 52.7397, -8.49419, 90.0915, -78.6833, 34.4926
0.04, -1, 32.9449, 52.7396, -8.49419, 90.0915, -78.6833, 34.4926
0.044, -1, 32.9453, 52.7392, -8.49421, 90.0915, -78.6833, 34.4926
0.048, -1, 32.9461, 52.7385, -8.49426, 90.0915, -78.6831, 34.4927
0.052, -1, 32.9474, 52.7371, -8.49437, 90.0917, -78.6826, 34.4928
0.056, -1, 32.9492, 52.7349, -8.4946, 90.0919, -78.6817, 34.4931
0.06, -1, 32.9516, 52.7318, -8.49501, 90.0924, -78.6798, 34.4938
0.064, -1, 32.9544, 52.7277, -8.4957, 90.0932, -78.6767, 34.4949
0.068, -1, 32.9578, 52.7227, -8.49678, 90.0946, -78.6717, 34.4966
0.072, -1, 32.9617, 52.7167, -8.4984, 90.0966, -78.6641, 34.4993
0.076, -1, 32.9661, 52.7097, -8.50073, 90.0995, -78.6532, 34.5031
0.08, -1, 32.9711, 52.7018, -8.50394, 90.1037, -78.6379, 34.5085
0.084, -1, 32.9767, 52.6929, -8.50823, 90.1092, -78.6175, 34.5157
0.088, -1, 32.983, 52.6832, -8.51381, 90.1164, -78.5907, 34.5251
0.092, -1, 32.9898, 52.6726, -8.52089, 90.1256, -78.5567, 34.537
0.096, -1, 32.9971, 52.6615, -8.52966, 90.1371, -78.5143, 34.5519
0.1, -1, 33.0046, 52.6498, -8.54028, 90.151, -78.4629, 34.57
0.104, -1, 33.0124, 52.6377, -8.55288, 90.1675, -78.4018, 34.5915
0.108, -1, 33.0205, 52.6252, -8.56751, 90.1868, -78.3306, 34.6165
0.112, -1, 33.0288, 52.6121, -8.58421, 90.2088, -78.2493, 34.645
0.116, -1, 33.0376, 52.5985, -8.60294, 90.2336, -78.158, 34.6771
0.12, -1, 33.0467, 52.5842, -8.62361, 90.2609, -78.0572, 34.7125
0.124, -1, 33.0563, 52.5693, -8.6461, 90.2906, -77.9475, 34.7511
0.128, -1, 33.0663, 52.5539, -8.67024, 90.3226, -77.8297, 34.7924
0.131, -1, 33.0765, 52.5379, -8.69587, 90.3565, -77.7047, 34.8364
0.136, -1, 33.0871, 52.5214, -8.72276, 90.392, -77.5735, 34.8825
0.139, -1, 33.0981, 52.5041, -8.75072, 90.429, -77.4372, 34.9304
0.144, -1, 33.1095, 52.4858, -8.77954, 90.4671, -77.2967, 34.9797
0.148, -1, 33.1216, 52.4664, -8.80901, 90.506, -77.1531, 35.0302
0.152, -1, 33.1344, 52.4458, -8.83897, 90.5456, -77.0071, 35.0815
0.156, -1, 33.1481, 52.4239, -8.86926, 90.5855, -76.8596, 35.1333
0.16, -1, 33.1624, 52.4009, -8.89978, 90.6258, -76.7111, 35.1855
0.164, -1, 33.1774, 52.3772, -8.93044, 90.6662, -76.562, 35.2379
0.168, -1, 33.1929, 52.3529, -8.96117, 90.7067, -76.4125, 35.2904
0.172, -1, 33.2086, 52.3282, -8.99193, 90.7472, -76.2629, 35.343
0.176, -1, 33.2246, 52.3033, -9.0227, 90.7877, -76.1133, 35.3955
0.18, -1, 33.2406, 52.2782, -9.05345, 90.8282, -75.9638, 35.4481
0.184, -1, 33.2568, 52.2531, -9.08416, 90.8687, -75.8145, 35.5005
0.188, -1, 33.273, 52.2279, -9.11484, 90.9091, -75.6653, 35.5529
0.192, -1, 33.2892, 52.2027, -9.14548, 90.9495, -75.5164, 35.6053
0.196, -1, 33.3054, 52.1775, -9.17607, 90.9897, -75.3677, 35.6575
0.2, -1, 33.3216, 52.1524, -9.2066, 91.03, -75.2192, 35.7097
0.204, -1, 33.3378, 52.1272, -9.23709, 91.0701, -75.071, 35.7617
0.208, -1, 33.354, 52.1021, -9.26752, 91.1102, -74.9231, 35.8137
0.212, -1, 33.3702, 52.077, -9.29789, 91.1502, -74.7754, 35.8656
0.216, -1, 33.3863, 52.052, -9.32821, 91.1901, -74.628, 35.9174
0.22, -1, 33.4024, 52.027, -9.35848, 91.23, -74.4809, 35.9691
0.224, -1, 33.4184, 52.0021, -9.38869, 91.2698, -74.334, 36.0207
0.228, -1, 33.4345, 51.9772, -9.41885, 91.3095, -74.1874, 36.0722
0.232, -1, 33.4505, 51.9523, -9.44895, 91.3492, -74.0411, 36.1236
0.236, -1, 33.4665, 51.9275, -9.479, 91.3887, -73.895, 36.1749
0.24, -1, 33.4825, 51.9028, -9.509, 91.4282, -73.7492, 36.2262
0.244, -1, 33.4984, 51.878, -9.53894, 91.4677, -73.6036, 36.2773
0.248, -1, 33.5143, 51.8533, -9.56883, 91.507, -73.4583, 36.3284
0.252, -1, 33.5302, 51.8287, -9.59867, 91.5463, -73.3133, 36.3793
0.256, -1, 33.546, 51.8041, -9.62845, 91.5855, -73.1685, 36.4302
0.26, -1, 33.5618, 51.7796, -9.65818, 91.6247, -73.024, 36.481
0.264, -1, 33.5776, 51.7551, -9.68785, 91.6638, -72.8797, 36.5317
0.268, -1, 33.5934, 51.7306, -9.71748, 91.7028, -72.7357, 36.5823
0.272, -1, 33.6091, 51.7062, -9.74705, 91.7417, -72.5919, 36.6328
0.276, -1, 33.6248, 51.6818, -9.77657, 91.7806, -72.4484, 36.6832
0.28, -1, 33.6405, 51.6575, -9.80604, 91.8194, -72.3051, 36.7335
0.284, -1, 33.6561, 51.6332, -9.83546, 91.8582, -72.1621, 36.7838
0.288, -1, 33.6718, 51.6089, -9.86483, 91.8969, -72.0193, 36.8339
0.292, -1, 33.6874, 51.5847, -9.89415, 91.9355, -71.8768, 36.884
0.296, -1, 33.7029, 51.5605, -9.92341, 91.974, -71.7345, 36.934
0.3, -1, 33.7185, 51.5364, -9.95263, 92.0125, -71.5925, 36.9839
0.304, -1, 33.734, 51.5123, -9.9818, 92.0509, -71.4507, 37.0337
0.308, -1, 33.7495, 51.4883, -10.0109, 92.0893, -71.3092, 37.0835
0.312, -1, 33.765, 51.4643, -10.04, 92.1275, -71.1679, 37.1331
0.316, -1, 33.7804, 51.4403, -10.069, 92.1657, -71.0268, 37.1827
0.32, -1, 33.7958, 51.4164, -10.098, 92.2039, -70.886, 37.2321
0.324, -1, 33.8112, 51.3925, -10.1269, 92.242, -70.7454, 37.2815
0.328, -1, 33.8266, 51.3687, -10.1558, 92.28, -70.605, 37.3309
0.332, -1, 33.8419, 51.3449, -10.1846, 92.318, -70.4649, 37.3801
0.336, -1, 33.8572, 51.3211, -10.2134, 92.3559, -70.325, 37.4292
0.34, -1, 33.8725, 51.2974, -10.2421, 92.3937, -70.1854, 37.4783
0.344, -1, 33.8877, 51.2737, -10.2708, 92.4315, -70.046, 37.5273
0.348, -1, 33.903, 51.2501, -10.2994, 92.4692, -69.9068, 37.5762
0.352, -1, 33.9182, 51.2265, -10.328, 92.5068, -69.7678, 37.625
0.356, -1, 33.9334, 51.2029, -10.3565, 92.5444, -69.6291, 37.6737
0.36, -1, 33.9485, 51.1794, -10.385, 92.5819, -69.4906, 37.7224
0.364, -1, 33.9636, 51.1559, -10.4134, 92.6194, -69.3523, 37.771
0.368, -1, 33.9788, 51.1325, -10.4418, 92.6568, -69.2143, 37.8195
0.372, -1, 33.9938, 51.109, -10.4702, 92.6941, -69.0764, 37.8679
0.376, -1, 34.0089, 51.0857, -10.4985, 92.7314, -68.9389, 37.9163
0.38, -1, 34.0239, 51.0623, -10.5268, 92.7686, -68.8015, 37.9645
0.384, -1, 34.0389, 51.039, -10.555, 92.8058, -68.6643, 38.0127
0.388, -1, 34.0539, 51.0158, -10.5831, 92.8429, -68.5274, 38.0608
0.392, -1, 34.0689, 50.9926, -10.6113, 92.8799, -68.3907, 38.1089
0.396, -1, 34.0838, 50.9694, -10.6393, 92.9169, -68.2542, 38.1568
0.4, -1, 34.0987, 50.9462, -10.6674, 92.9538, -68.1179, 38.2047
0.404, -1, 34.1136, 50.9231, -10.6954, 92.9907, -67.9818, 38.2525
0.408, -1, 34.1285, 50.9, -10.7233, 93.0275, -67.846, 38.3002
0.412, -1, 34.1433, 50.877, -10.7512, 93.0642, -67.7104, 38.3479
0.416, -1, 34.1582, 50.854, -10.779, 93.1009, -67.575, 38.3955
0.42, -1, 34.173, 50.831, -10.8069, 93.1375, -67.4398, 38.443
0.424, -1, 34.1877, 50.8081, -10.8346, 93.1741, -67.3048, 38.4904
0.428, -1, 34.2025, 50.7852, -10.8624, 93.2106, -67.17, 38.5377
0.432, -1, 34.2172, 50.7623, -10.89, 93.2471, -67.0354, 38.585
0.436, -1, 34.2319, 50.7395, -10.9177, 93.2835, -66.901, 38.6322
0.44, -1, 34.2466, 50.7167, -10.9453, 93.3198, -66.7669, 38.6794
0.444, -1, 34.2613, 50.694, -10.9728, 93.3561, -66.6329, 38.7264
0.448, -1, 34.2759, 50.6713, -11.0003, 93.3923, -66.4992, 38.7734
0.452, -1, 34.2905, 50.6486, -11.0278, 93.4285, -66.3656, 38.8203
0.456, -1, 34.3051, 50.6259, -11.0552, 93.4647, -66.2323, 38.8672
0.46, -1, 34.3197, 50.6033, -11.0826, 93.5007, -66.0992, 38.914
0.464, -1, 34.3342, 50.5807, -11.11, 93.5367, -65.9662, 38.9607
0.468, -1, 34.3487, 50.5582, -11.1373, 93.5727, -65.8335, 39.0073
0.472, -1, 34.3632, 50.5357, -11.1645, 93.6086, -65.701, 39.0539
0.476, -1, 34.3777, 50.5132, -11.1918, 93.6445, -65.5686, 39.1004
0.48, -1, 34.3922, 50.4907, -11.2189, 93.6803, -65.4365, 39.1468
0.484, -1, 34.4066, 50.4683, -11.2461, 93.716, -65.3045, 39.1932
0.488, -1, 34.421, 50.446, -11.2732, 93.7517, -65.1728, 39.2394
0.492, -1, 34.4354, 50.4236, -11.3002, 93.7873, -65.0412, 39.2857
0.496, -1, 34.4498, 50.4013, -11.3273, 93.8229, -64.9099, 39.3318
0.5, -1, 34.4642, 50.379, -11.3542, 93.8584, -64.7787, 39.3779
0.504, -1, 34.4785, 50.3568, -11.3812, 93.8939, -64.6477, 39.4239
0.508, -1, 34.4928, 50.3346, -11.4081, 93.9294, -64.517, 39.4699
0.512, -1, 34.5071, 50.3124, -11.4349, 93.9647, -64.3864, 39.5158
0.516, -1, 34.5214, 50.2902, -11.4618, 94.0001, -64.256, 39.5616
0.52, -1, 34.5356, 50.2681, -11.4886, 94.0353, -64.1257, 39.6073
0.524, -1, 34.5499, 50.246, -11.5153, 94.0706, -63.9957, 39.653
0.528, -1, 34.5641, 50.224, -11.542, 94.1057, -63.8659, 39.6986
0.532, -1, 34.5783, 50.202, -11.5687, 94.1409, -63.7362, 39.7442
0.536, -1, 34.5924, 50.18, -11.5953, 94.1759, -63.6068, 39.7897
0.54, -1, 34.6066, 50.158, -11.6219, 94.211, -63.4775, 39.8351
0.544, -1, 34.6207, 50.1361, -11.6485, 94.2459, -63.3484, 39.8804
0.548, -1, 34.6348, 50.1142, -11.675, 94.2809, -63.2195, 39.9257
0.552, -1, 34.6489, 50.0923, -11.7015, 94.3157, -63.0908, 39.971
0.556, -1, 34.663, 50.0705, -11.7279, 94.3506, -62.9622, 40.0161
0.56, -1, 34.677, 50.0487, -11.7543, 94.3853, -62.8339, 40.0612
0.564, -1, 34.691, 50.0269, -11.7807, 94.4201, -62.7057, 40.1063
0.568, -1, 34.705, 50.0052, -11.807, 94.4547, -62.5777, 40.1512
0.572, -1, 34.719, 49.9834, -11.8333, 94.4894, -62.4498, 40.1961
0.576, -1, 34.733, 49.9618, -11.8596, 94.524, -62.3222, 40.241
0.58, -1, 34.7469, 49.9401, -11.8858, 94.5585, -62.1947, 40.2858
0.584, -1, 34.7609, 49.9185, -11.912, 94.593, -62.0674, 40.3305
0.588, -1, 34.7748, 49.8969, -11.9381, 94.6274, -61.9403, 40.3752
0.592, -1, 34.7887, 49.8753, -11.9642, 94.6618, -61.8133, 40.4198
0.596, -1, 34.8025, 49.8538, -11.9903, 94.6961, -61.6866, 40.4643
0.6, -1, 34.8164, 49.8323, -12.0163, 94.7304, -61.56, 40.5088
0.604, -1, 34.8302, 49.8108, -12.0423, 94.7647, -61.4336, 40.5532
0.608, -1, 34.844, 49.7894, -12.0683, 94.7989, -61.3073, 40.5976
0.612, -1, 34.8578, 49.768, -12.0942, 94.8331, -61.1812, 40.6419
0.616, -1, 34.8716, 49.7466, -12.1201, 94.8672, -61.0553, 40.6861
0.62, -1, 34.8854, 49.7252, -12.146, 94.9012, -60.9296, 40.7303
0.624, -1, 34.8991, 49.7039, -12.1718, 94.9352, -60.804, 40.7744
0.628, -1, 34.9128, 49.6826, -12.1976, 94.9692, -60.6786, 40.8185
0.632, -1, 34.9265, 49.6613, -12.2234, 95.0032, -60.5534, 40.8625
0.636, -1, 34.9402, 49.6401, -12.2491, 95.037, -60.4283, 40.9064
0.64, -1, 34.9539, 49.6189, -12.2748, 95.0709, -60.3034, 40.9503
0.644, -1, 34.9675, 49.5977, -12.3005, 95.1047, -60.1787, 40.9941
0.648, -1, 34.9812, 49.5765, -12.3261, 95.1384, -60.0541, 41.0379
0.652, -1, 34.9948, 49.5554, -12.3517, 95.1721, -59.9297, 41.0816
0.656, -1, 35.0084, 49.5343, -12.3772, 95.2058, -59.8055, 41.1252
0.66, -1, 35.022, 49.5132, -12.4028, 95.2394, -59.6814, 41.1688
0.664, -1, 35.0355, 49.4922, -12.4283, 95.273, -59.5575, 41.2124
0.668, -1, 35.0491, 49.4712, -12.4537, 95.3065, -59.4337, 41.2558
0.672, -1, 35.0626, 49.4502, -12.4791, 95.34, -59.3101, 41.2993
0.676, -1, 35.0761, 49.4292, -12.5045, 95.3734, -59.1867, 41.3426
0.68, -1, 35.0896, 49.4083, -12.5299, 95.4068, -59.0634, 41.3859
0.684, -1, 35.1031, 49.3874, -12.5552, 95.4401, -58.9403, 41.4292
0.688, -1, 35.1165, 49.3665, -12.5805, 95.4735, -58.8174, 41.4724
0.692, -1, 35.1299, 49.3456, -12.6058, 95.5067, -58.6946, 41.5155
0.696, -1, 35.1434, 49.3248, -12.631, 95.5399, -58.5719, 41.5586
0.7, -1, 35.1568, 49.304, -12.6562, 95.5731, -58.4495, 41.6017
0.704, -1, 35.1701, 49.2832, -12.6813, 95.6063, -58.3271, 41.6446
0.708, -1, 35.1835, 49.2625, -12.7065, 95.6394, -58.205, 41.6876
0.712, -1, 35.1969, 49.2417, -12.7316, 95.6724, -58.083, 41.7304
0.716, -1, 35.2102, 49.221, -12.7566, 95.7054, -57.9611, 41.7732
0.72, -1, 35.2235, 49.2004, -12.7817, 95.7384, -57.8394, 41.816
0.724, -1, 35.2368, 49.1797, -12.8067, 95.7713, -57.7178, 41.8587
0.728, -1, 35.2501, 49.1591, -12.8316, 95.8042, -57.5964, 41.9014
0.732, -1, 35.2634, 49.1385, -12.8566, 95.8371, -57.4752, 41.944
0.736, -1, 35.2766, 49.1179, -12.8815, 95.8699, -57.3541, 41.9865
0.74, -1, 35.2898, 49.0974, -12.9064, 95.9026, -57.2332, 42.029
0.744, -1, 35.3031, 49.0769, -12.9312, 95.9354, -57.1124, 42.0714
0.748, -1, 35.3163, 49.0564, -12.956, 95.968, -56.9917, 42.1138
0.752, -1, 35.3294, 49.0359, -12.9808, 96.0007, -56.8712, 42.1562
0.756, -1, 35.3426, 49.0155, -13.0056, 96.0333, -56.7509, 42.1984
0.76, -1, 35.3558, 48.9951, -13.0303, 96.0659, -56.6307, 42.2407
0.764, -1, 35.3689, 48.9747, -13.055, 96.0984, -56.5107, 42.2828
0.768, -1, 35.382, 48.9543, -13.0797, 96.1309, -56.3907, 42.325
0.772, -1, 35.3951, 48.934, -13.1043, 96.1633, -56.271, 42.3671
0.776, -1, 35.4082, 48.9137, -13.1289, 96.1957, -56.1514, 42.4091
0.78, -1, 35.4213, 48.8934, -13.1535, 96.2281, -56.0319, 42.451
0.784, -1, 35.4343, 48.8731, -13.178, 96.2604, -55.9126, 42.493
0.788, -1, 35.4474, 48.8528, -13.2025, 96.2927, -55.7934, 42.5348
0.792, -1, 35.4604, 48.8326, -13.227, 96.3249, -55.6744, 42.5767
0.796, -1, 35.4734, 48.8124, -13.2515, 96.3571, -55.5555, 42.6184
0.8, -1, 35.4864, 48.7923, -13.2759, 96.3893, -55.4367, 42.6602
0.804, -1, 35.4994, 48.7721, -13.3003, 96.4214, -55.3181, 42.7018
0.808, -1, 35.5124, 48.752, -13.3247, 96.4535, -55.1997, 42.7435
0.812, -1, 35.5253, 48.7319, -13.349, 96.4856, -55.0813, 42.785
0.816, -1, 35.5382, 48.7118, -13.3733, 96.5176, -54.9631, 42.8266
0.82, -1, 35.5512, 48.6918, -13.3976, 96.5496, -54.8451, 42.868
0.824, -1, 35.5641, 48.6717, -13.4219, 96.5816, -54.7272, 42.9095
0.828, -1, 35.577, 48.6517, -13.4461, 96.6134, -54.6094, 42.9508
0.832, -1, 35.5898, 48.6318, -13.4703, 96.6453, -54.4918, 42.9922
0.836, -1, 35.6027, 48.6118, -13.4944, 96.6772, -54.3743, 43.0335
0.84, -1, 35.6155, 48.5919, -13.5186, 96.709, -54.2569, 43.0747
0.844, -1, 35.6284, 48.5719, -13.5427, 96.7407, -54.1397, 43.1159
0.848, -1, 35.6412, 48.5521, -13.5668, 96.7724, -54.0226, 43.157
0.852, -1, 35.6539, 48.5322, -13.5909, 96.8041, -53.9056, 43.1981
0.856, -1, 35.6666, 48.5125, -13.6149, 96.8358, -53.7888, 43.2392
0.86, -1, 35.6791, 48.4928, -13.6389, 96.8674, -53.6721, 43.2802
0.864, -1, 35.6914, 48.4734, -13.6628, 96.8989, -53.5556, 43.3211
0.868, -1, 35.7035, 48.4543, -13.6867, 96.9304, -53.4394, 43.3619
0.872, -1, 35.7152, 48.4354, -13.7106, 96.9618, -53.3236, 43.4026
0.876, -1, 35.7267, 48.4169, -13.7343, 96.993, -53.2083, 43.4431
0.88, -1, 35.7378, 48.3988, -13.7579, 97.0241, -53.0937, 43.4834
0.884, -1, 35.7487, 48.3811, -13.7812, 97.0549, -52.9801, 43.5233
0.888, -1, 35.7593, 48.3638, -13.8043, 97.0853, -52.8677, 43.5628
0.892, -1, 35.7696, 48.347, -13.8271, 97.1153, -52.7571, 43.6017
0.896, -1, 35.7796, 48.3308, -13.8494, 97.1448, -52.6484, 43.6399
0.9, -1, 35.7891, 48.3154, -13.8713, 97.1735, -52.5423, 43.6772
0.904, -1, 35.7981, 48.3007, -13.8924, 97.2015, -52.4393, 43.7134
0.908, -1, 35.8067, 48.2868, -13.9129, 97.2284, -52.3399, 43.7484
0.912, -1, 35.8148, 48.2737, -13.9324, 97.2542, -52.2448, 43.7818
0.916, -1, 35.8225, 48.2613, -13.951, 97.2786, -52.1546, 43.8135
0.92, -1, 35.8299, 48.2495, -13.9684, 97.3016, -52.07, 43.8433
0.924, -1, 35.8369, 48.2384, -13.9846, 97.3229, -51.9913, 43.871
0.928, -1, 35.8436, 48.2277, -13.9994, 97.3424, -51.9192, 43.8963
0.932, -1, 35.8501, 48.2175, -14.0129, 97.3601, -51.8539, 43.9192
0.936, -1, 35.8564, 48.2078, -14.0248, 97.3759, -51.7957, 43.9397
0.94, -1, 35.8623, 48.1986, -14.0354, 97.3898, -51.7445, 43.9577
0.944, -1, 35.8681, 48.1898, -14.0445, 97.4018, -51.7003, 43.9732
0.948, -1, 35.8735, 48.1815, -14.0522, 97.4119, -51.6627, 43.9864
0.952, -1, 35.8787, 48.1738, -14.0587, 97.4204, -51.6314, 43.9974
0.956, -1, 35.8837, 48.1666, -14.0639, 97.4273, -51.6059, 44.0063
0.96, -1, 35.8884, 48.16, -14.0681, 97.4328, -51.5855, 44.0135
0.964, -1, 35.8928, 48.1539, -14.0714, 97.4371, -51.5697, 44.019
0.968, -1, 35.897, 48.1485, -14.0739, 97.4403, -51.5576, 44.0232
0.972, -1, 35.9008, 48.1437, -14.0757, 97.4427, -51.5487, 44.0263
0.976, -1, 35.9042, 48.1397, -14.077, 97.4444, -51.5423, 44.0285
0.98, 2, 35.9071, 48.1364, -14.078, 97.4456, -51.5377, 44.0301
0.984, 2, 35.9094, 48.1339, -14.0786, 97.4465, -51.5346, 44.0312
0.988, 2, 35.9112, 48.132, -14.0791, 97.4471, -51.5324, 44.0319
0.992, 2, 35.9124, 48.1306, -14.0794, 97.4475, -51.5309, 44.0325
0.996, 2, 35.9133, 48.1297, -14.0796, 97.4477, -51.5299, 44.0328
1, 2, 35.9139, 48.1291, -14.0797, 97.4479, -51.5293, 44.033
1.004, 2, 35.9143, 48.1287, -14.0798, 97.448, -51.5288, 44.0332
1.008, 2, 35.9146, 48.1284, -14.0799, 97.4481, -51.5285, 44.0333
1.012, 2, 35.9147, 48.1282, -14.0799, 97.4482, -51.5283, 44.0334
1.016, 2, 35.9149, 48.128, -14.08, 97.4482, -51.5281, 44.0334
1.02, 2, 35.915, 48.128, -14.08, 97.4482, -51.528, 44.0335
1.024, 2, 35.915, 48.1279, -14.08, 97.4482, -51.528, 44.0335
1.027, 2, 35.9151, 48.1279, -14.08, 97.4483, -51.5279, 44.0335
1.032, 2, 35.9151, 48.1278, -14.08, 97.4483, -51.5279, 44.0335
1.036, 2, 35.9151, 48.1278, -14.08, 97.4483, -51.5279, 44.0335
1.04, 2, 35.9151, 48.1278, -14.08, 97.4483, -51.5279, 44.0335
1.044, 2, 35.9151, 48.1278, -14.08, 97.4483, -51.5279, 44.0335
1.048, 2, 35.9151, 48.1278, -14.08, 97.4483, -51.5279, 44.0335
1.052, 2, 35.9151, 48.1278, -14.08, 97.4483, -51.5279, 44.0335
1.055, 2, 35.9151, 48.1278, -14.08, 97.4483, -51.5278, 44.0335
1.06, 2, 35.9151, 48.1278, -14.08, 97.4483, -51.5278, 44.0335
1.064, 2, 35.9151, 48.1278, -14.08, 97.4483, -51.5278, 44.0335
1.068, 2, 35.9151, 48.1278, -14.08, 97.4483, -51.5278, 44.0335
1.072, 2, 35.9151, 48.1278, -14.08, 97.4483, -51.5278, 44.0335
1.076, 2, 35.9151, 48.1278, -14.08, 97.4483, -51.5278, 44.0335
1.08, 2, 35.9151, 48.1278, -14.08, 97.4483, -51.5278, 44.0335
1.084, 2, 35.9151, 48.1278, -14.08, 97.4483, -51.5278, 44.0335
1.088, 2, 35.9151, 48.1278, -14.08, 97.4483, -51.5278, 44.0335
1.091, 2, 35.9151, 48.1278, -14.08, 97.4483, -51.5278, 44.0335
1.096, 2, 35.9151, 48.1278, -14.08, 97.4483, -51.5278, 44.0335
1.1, 2, 35.9151, 48.1278, -14.08, 97.4483, -51.5278, 44.0335
1.104, 2, 35.9151, 48.1278, -14.08, 97.4483, -51.5278, 44.0335
1.108, 2, 35.9151, 48.1278, -14.08, 97.4483, -51.5278, 44.0335
1.112, 2, 35.9151, 48.1278, -14.08, 97.4483, -51.5278, 44.0335
1.116, 2, 35.9151, 48.1278, -14.08, 97.4483, -51.5278, 44.0335
1.119, 2, 35.9151, 48.1278, -14.08, 97.4483, -51.5278, 44.0335
1.124, 2, 35.9151, 48.1278, -14.08, 97.4483, -51.5278, 44.0335
1.128, 2, 35.9151, 48.1278, -14.08, 97.4483, -51.5278, 44.0335
1.132, 2, 35.9151, 48.1278, -14.08, 97.4483, -51.5278, 44.0335
1.136, 2, 35.9151, 48.1278, -14.08, 97.4483, -51.5278, 44.0335
1.14, 2, 35.9151, 48.1278, -14.08, 97.4483, -51.5278, 44.0335
1.144, 2, 35.9151, 48.1278, -14.08, 97.4483, -51.5278, 44.0335
1.147, 2, 35.9151, 48.1278, -14.08, 97.4483, -51.5278, 44.0335
1.152, 2, 35.9151, 48.1278, -14.08, 97.4483, -51.5278, 44.0335
1.156, 2, 35.9151, 48.1278, -14.08, 97.4483, -51.5278, 44.0335
1.16, 2, 35.9151, 48.1278, -14.08, 97.4483, -51.5278, 44.0335
1.164, 2, 35.9151, 48.1278, -14.08, 97.4483, -51.5278, 44.0335
1.168, 2, 35.9151, 48.1278, -14.08, 97.4483, -51.5278, 44.0335
1.172, 2, 35.9151, 48.1278, -14.08, 97.4483, -51.5278, 44.0335
1.175, 2, 35.9151, 48.1278, -14.08, 97.4483, -51.5278, 44.0335
1.18, 2, 35.9151, 48.1278, -14.08, 97.4483, -51.5278, 44.0335
1.184, 2, 35.9151, 48.1278, -14.08, 97.4483, -51.5278, 44.0335
1.188, 2, 35.9151, 48.1278, -14.08, 97.4483, -51.5278, 44.0335
1.192, 2, 35.9151, 48.1278, -14.08, 97.4483, -51.5278, 44.0335
1.196, 2, 35.9151, 48.1278, -14.08, 97.4483, -51.5278, 44.0335
1.2, 2, 35.9151, 48.1278, -14.08, 97.4483, -51.5278, 44.0335
1.204, 2, 35.9151, 48.1278, -14.08, 97.4483, -51.5278, 44.0335
1.208, 2, 35.9151, 48.1278, -14.08, 97.4483, -51.5278, 44.0335
1.212, 2, 35.9151, 48.1278, -14.08, 97.4483, -51.5278, 44.0335
1.216, 2, 35.9151, 48.1278, -14.08, 97.4483, -51.5278, 44.0335
1.22, 2, 35.9151, 48.1278, -14.08, 97.4483, -51.5278, 44.0335
1.224, 2, 35.9151, 48.1278, -14.08, 97.4483, -51.5278, 44.0335
1.228, 2, 35.9151, 48.1278, -14.08, 97.4483, -51.5278, 44.0335
1.232, 2, 35.9151, 48.1278, -14.08, 97.4483, -51.5278, 44.0335
1.236, 2, 35.9151, 48.1278, -14.08, 97.4483, -51.5278, 44.0335
1.24, 2, 35.9151, 48.1278, -14.08, 97.4483, -51.5278, 44.0335
1.244, 2, 35.9151, 48.1278, -14.08, 97.4483, -51.5278, 44.0335
1.248, 2, 35.9151, 48.1278, -14.08, 97.4483, -51.5278, 44.0335
1.252, 2, 35.9151, 48.1278, -14.08, 97.4483, -51.5278, 44.0335
1.256, 2, 35.9151, 48.1278, -14.08, 97.4483, -51.5278, 44.0335
1.26, 2, 35.9151, 48.1278, -14.08, 97.4483, -51.5278, 44.0335
1.264, 2, 35.9151, 48.1278, -14.08, 97.4483, -51.5278, 44.0335
1.267, 2, 35.9151, 48.1278, -14.08, 97.4483, -51.5278, 44.0335
1.272, 2, 35.9151, 48.1278, -14.08, 97.4483, -51.5278, 44.0335
1.276, 2, 35.9151, 48.1278, -14.08, 97.4483, -51.5278, 44.0335
1.28, 2, 35.9151, 48.1278, -14.08, 97.4483, -51.5278, 44.0335
1.284, 2, 35.9151, 48.1278, -14.08, 97.4483, -51.5278, 44.0335
1.288, 2, 35.9151, 48.1278, -14.08, 97.4483, -51.5278, 44.0335
1.292, 2, 35.9151, 48.1278, -14.08, 97.4483, -51.5278, 44.0335
1.295, 2, 35.9151, 48.1278, -14.08, 97.4483, -51.5278, 44.0335
1.3, 2, 35.9151, 48.1278, -14.08, 97.4483, -51.5278, 44.0335
1.304, 2, 35.9151, 48.1278, -14.08, 97.4483, -51.5278, 44.0335
1.308, 2, 35.9151, 48.1278, -14.08, 97.4483, -51.5278, 44.0335
1.312, 2, 35.9151, 48.1278, -14.08, 97.4483, -51.5278, 44.0335
1.316, 2, 35.9151, 48.1278, -14.08, 97.4483, -51.5278, 44.0335
1.32, 2, 35.9151, 48.1278, -14.08, 97.4483, -51.5278, 44.0335
1.324, 2, 35.9151, 48.1278, -14.08, 97.4483, -51.5278, 44.0335
1.328, 2, 35.9151, 48.1278, -14.08, 97.4483, -51.5278, 44.0335
1.332, 2, 35.9151, 48.1278, -14.08, 97.4483, -51.5278, 44.0335
1.336, 2, 35.9151, 48.1278, -14.08, 97.4483, -51.5278, 44.0335
1.34, 2, 35.9151, 48.1278, -14.08, 97.4483, -51.5278, 44.0335
1.344, 2, 35.9151, 48.1278, -14.08, 97.4483, -51.5278, 44.0335
1.348, 2, 35.9151, 48.1278, -14.08, 97.4483, -51.5278, 44.0335
1.352, 2, 35.9151, 48.1278, -14.08, 97.4483, -51.5278, 44.0335
1.356, 2, 35.9151, 48.1278, -14.08, 97.4483, -51.5278, 44.0335
1.36, 2, 35.9151, 48.1278, -14.08, 97.4483, -51.5278, 44.0335
1.364, 2, 35.9151, 48.1278, -14.08, 97.4483, -51.5278, 44.0335
1.368, 2, 35.9151, 48.1278, -14.08, 97.4483, -51.5278, 44.0335
1.372, 2, 35.9151, 48.1278, -14.08, 97.4483, -51.5278, 44.0335
1.376, 2, 35.9151, 48.1278, -14.08, 97.4483, -51.5278, 44.0335
1.38, 2, 35.9151, 48.1278, -14.08, 97.4483, -51.5278, 44.0335
1.384, 2, 35.9151, 48.1278, -14.08, 97.4483, -51.5278, 44.0335
1.388, 2, 35.9151, 48.1278, -14.08, 97.4483, -51.5278, 44.0335
1.392, 2, 35.9151, 48.1278, -14.08, 97.4483, -51.5278, 44.0335
1.396, 2, 35.9151, 48.1278, -14.08, 97.4483, -51.5278, 44.0335
1.4, 2, 35.9151, 48.1278, -14.08, 97.4483, -51.5278, 44.0335
1.404, 2, 35.9151, 48.1278, -14.08, 97.4483, -51.5278, 44.0335
1.408, 2, 35.9151, 48.1278, -14.08, 97.4483, -51.5278, 44.0335
1.412, 2, 35.9151, 48.1278, -14.08, 97.4483, -51.5278, 44.0335
1.416, 2, 35.9151, 48.1278, -14.08, 97.4483, -51.5278, 44.0335
1.42, 2, 35.9151, 48.1278, -14.08, 97.4483, -51.5278, 44.0335
1.424, 2, 35.9151, 48.1278, -14.08, 97.4483, -51.5278, 44.0335
1.428, 2, 35.9151, 48.1278, -14.08, 97.4483, -51.5278, 44.0335
1.432, 2, 35.9151, 48.1278, -14.08, 97.4483, -51.5278, 44.0335
1.436, 2, 35.9151, 48.1278, -14.08, 97.4483, -51.5278, 44.0335
1.44, 2, 35.9151, 48.1278, -14.08, 97.4483, -51.5278, 44.0335
1.444, 2, 35.9151, 48.1278, -14.08, 97.4483, -51.5278, 44.0335
1.448, 2, 35.9151, 48.1278, -14.08, 97.4483, -51.5278, 44.0335
1.452, 2, 35.9151, 48.1278, -14.08, 97.4483, -51.5278, 44.0335
1.456, 2, 35.9151, 48.1278, -14.08, 97.4483, -51.5278, 44.0335
1.46, 2, 35.9151, 48.1278, -14.08, 97.4483, -51.5278, 44.0335
1.464, 2, 35.9151, 48.1278, -14.08, 97.4483, -51.5278, 44.0335
1.468, 2, 35.9151, 48.1278, -14.08, 97.4483, -51.5278, 44.0335
1.472, 2, 35.9151, 48.1278, -14.08, 97.4483, -51.5278, 44.0335
1.476, 2, 35.9151, 48.1278, -14.08, 97.4483, -51.5278, 44.0335
1.48, 2, 35.9151, 48.1278, -14.08, 97.4483, -51.5278, 44.0335
1.484, 2, 35.9151, 48.1278, -14.08, 97.4483, -51.5278, 44.0335
1.488, 2, 35.9151, 48.1278, -14.08, 97.4483, -51.5278, 44.0335
1.492, 2, 35.9151, 48.1278, -14.08, 97.4483, -51.5278, 44.0335
1.496, 2, 35.9151, 48.1278, -14.08, 97.4483, -51.5278, 44.0335
1.5, 2, 35.9151, 48.1278, -14.08, 97.4483, -51.5278, 44.0335
1.504, 2, 35.9151, 48.1278, -14.08, 97.4483, -51.5278, 44.0335
1.508, 2, 35.9151, 48.1278, -14.08, 97.4483, -51.5278, 44.0335
1.512, 2, 35.9151, 48.1278, -14.08, 97.4483, -51.5278, 44.0335
1.516, 2, 35.9151, 48.1278, -14.08, 97.4483, -51.5278, 44.0335
1.52, 2, 35.9151, 48.1278, -14.08, 97.4483, -51.5278, 44.0335
1.524, 2, 35.9151, 48.1278, -14.08, 97.4483, -51.5278, 44.0335
1.528, 2, 35.9151, 48.1278, -14.08, 97.4483, -51.5278, 44.0335
1.532, 2, 35.9151, 48.1278, -14.08, 97.4483, -51.5278, 44.0335
1.536, 2, 35.9151, 48.1278, -14.08, 97.4483, -51.5278, 44.0335
1.54, 2, 35.9151, 48.1278, -14.08, 97.4483, -51.5278, 44.0335
1.544, 2, 35.9151, 48.1278, -14.08, 97.4483, -51.5278, 44.0335
1.548, 2, 35.9151, 48.1278, -14.08, 97.4483, -51.5278, 44.0335
1.552, 2, 35.9151, 48.1278, -14.08, 97.4483, -51.5278, 44.0335
1.556, 2, 35.9151, 48.1278, -14.08, 97.4483, -51.5278, 44.0335
1.56, 2, 35.9151, 48.1278, -14.08, 97.4483, -51.5278, 44.0335
1.564, 2, 35.9151, 48.1278, -14.08, 97.4483, -51.5278, 44.0335
1.568, 2, 35.9151, 48.1278, -14.08, 97.4483, -51.5278, 44.0335
1.572, 2, 35.9151, 48.1278, -14.08, 97.4483, -51.5278, 44.0335
1.576, 2, 35.9151, 48.1278, -14.08, 97.4483, -51.5278, 44.0335
1.58, 2, 35.9151, 48.1278, -14.08, 97.4483, -51.5278, 44.0335
1.584, 2, 35.9151, 48.1278, -14.08, 97.4483, -51.5278, 44.0335
1.588, 2, 35.9151, 48.1278, -14.08, 97.4483, -51.5278, 44.0335
1.592, 2, 35.9151, 48.1278, -14.08, 97.4483, -51.5278, 44.0335
1.596, 2, 35.9151, 48.1278, -14.08, 97.4483, -51.5278, 44.0335
1.6, 2, 35.9151, 48.1278, -14.08, 97.4483, -51.5278, 44.0335
1.604, 2, 35.9151, 48.1278, -14.08, 97.4483, -51.5278, 44.0335
1.608, 2, 35.9151, 48.1278, -14.08, 97.4483, -51.5278, 44.0335
1.612, 2, 35.9151, 48.1278, -14.08, 97.4483, -51.5278, 44.0335
1.616, 2, 35.9151, 48.1278, -14.08, 97.4483, -51.5278, 44.0335
1.62, 2, 35.9151, 48.1278, -14.08, 97.4483, -51.5278, 44.0335
1.624, 2, 35.9151, 48.1278, -14.08, 97.4483, -51.5278, 44.0335
1.628, 2, 35.9151, 48.1278, -14.08, 97.4483, -51.5278, 44.0335
1.632, 2, 35.9151, 48.1278, -14.08, 97.4483, -51.5278, 44.0335
1.636, 2, 35.9151, 48.1278, -14.08, 97.4483, -51.5278, 44.0335
1.64, 2, 35.9151, 48.1278, -14.08, 97.4483, -51.5278, 44.0335
1.644, 2, 35.9151, 48.1278, -14.08, 97.4483, -51.5278, 44.0335
1.648, 2, 35.9151, 48.1278, -14.08, 97.4483, -51.5278, 44.0335
1.652, 2, 35.9151, 48.1278, -14.08, 97.4483, -51.5278, 44.0335
1.656, 2, 35.9151, 48.1278, -14.08, 97.4483, -51.5278, 44.0335
1.66, 2, 35.9151, 48.1278, -14.08, 97.4483, -51.5278, 44.0335
1.664, 2, 35.9151, 48.1278, -14.08, 97.4483, -51.5278, 44.0335
1.668, 2, 35.9151, 48.1278, -14.08, 97.4483, -51.5278, 44.0335
1.672, 2, 35.9151, 48.1278, -14.08, 97.4483, -51.5278, 44.0335
1.676, 2, 35.9151, 48.1278, -14.08, 97.4483, -51.5278, 44.0335
1.68, 2, 35.9151, 48.1278, -14.08, 97.4483, -51.5278, 44.0335
1.684, 2, 35.9151, 48.1278, -14.08, 97.4483, -51.5278, 44.0335
1.688, 2, 35.9151, 48.1278, -14.08, 97.4483, -51.5278, 44.0335
1.692, 2, 35.9151, 48.1278, -14.08, 97.4483, -51.5278, 44.0335
1.696, 2, 35.9151, 48.1278, -14.08, 97.4483, -51.5278, 44.0335
1.7, 2, 35.9151, 48.1278, -14.08, 97.4483, -51.5278, 44.0335
1.704, 2, 35.9151, 48.1278, -14.08, 97.4483, -51.5278, 44.0335
1.708, 2, 35.9151, 48.1278, -14.08, 97.4483, -51.5278, 44.0335
1.712, 2, 35.9151, 48.1278, -14.08, 97.4483, -51.5278, 44.0335
1.716, 2, 35.9151, 48.1278, -14.08, 97.4483, -51.5278, 44.0335
1.72, 2, 35.9151, 48.1278, -14.08, 97.4483, -51.5278, 44.0335
1.724, 2, 35.9151, 48.1278, -14.08, 97.4483, -51.5278, 44.0335
1.728, 2, 35.9151, 48.1278, -14.08, 97.4483, -51.5278, 44.0335
1.732, 2, 35.9151, 48.1278, -14.08, 97.4483, -51.5278, 44.0335
1.736, 2, 35.9151, 48.1278, -14.08, 97.4483, -51.5278, 44.0335
1.74, 2, 35.9151, 48.1278, -14.08, 97.4483, -51.5278, 44.0335
1.744, 2, 35.9151, 48.1278, -14.08, 97.4483, -51.5278, 44.0335
1.748, 2, 35.9151, 48.1278, -14.08, 97.4483, -51.5278, 44.0335
1.752, 2, 35.9151, 48.1278, -14.08, 97.4483, -51.5278, 44.0335
1.756, 2, 35.9151, 48.1278, -14.08, 97.4483, -51.5278, 44.0335
1.76, 2, 35.9151, 48.1278, -14.08, 97.4483, -51.5278, 44.0335
1.764, 2, 35.9151, 48.1278, -14.08, 97.4483, -51.5278, 44.0335
1.768, 2, 35.9151, 48.1278, -14.08, 97.4483, -51.5278, 44.0335
1.772, 2, 35.9151, 48.1278, -14.08, 97.4483, -51.5278, 44.0335
1.776, 2, 35.9151, 48.1278, -14.08, 97.4483, -51.5278, 44.0335
1.78, 2, 35.9151, 48.1278, -14.08, 97.4483, -51.5278, 44.0335
1.784, 2, 35.9151, 48.1278, -14.08, 97.4483, -51.5278, 44.0335
1.788, 2, 35.9151, 48.1278, -14.08, 97.4483, -51.5278, 44.0335
1.792, 2, 35.9151, 48.1278, -14.08, 97.4483, -51.5278, 44.0335
1.796, 2, 35.9151, 48.1278, -14.08, 97.4483, -51.5278, 44.0335
1.8, 2, 35.9151, 48.1278, -14.08, 97.4483, -51.5278, 44.0335
1.804, 2, 35.9151, 48.1278, -14.08, 97.4483, -51.5278, 44.0335
1.808, 2, 35.9151, 48.1278, -14.08, 97.4483, -51.5278, 44.0335
1.812, 2, 35.9151, 48.1278, -14.08, 97.4483, -51.5278, 44.0335
1.816, 2, 35.9151, 48.1278, -14.08, 97.4483, -51.5278, 44.0335
1.82, 2, 35.9151, 48.1278, -14.08, 97.4483, -51.5278, 44.0335
1.824, 2, 35.9151, 48.1278, -14.08, 97.4483, -51.5278, 44.0335
1.828, 2, 35.9151, 48.1278, -14.08, 97.4483, -51.5278, 44.0335
1.832, 2, 35.9151, 48.1278, -14.08, 97.4483, -51.5278, 44.0335
1.836, 2, 35.9151, 48.1278, -14.08, 97.4483, -51.5278, 44.0335
1.84, 2, 35.9151, 48.1278, -14.08, 97.4483, -51.5278, 44.0335
1.844, 2, 35.9151, 48.1278, -14.08, 97.4483, -51.5278, 44.0335
1.848, 2, 35.9151, 48.1278, -14.08, 97.4483, -51.5278, 44.0335
1.852, 2, 35.9151, 48.1278, -14.08, 97.4483, -51.5278, 44.0335
1.856, 2, 35.9151, 48.1278, -14.08, 97.4483, -51.5278, 44.0335
1.86, 2, 35.9151, 48.1278, -14.08, 97.4483, -51.5278, 44.0335
1.864, 2, 35.9151, 48.1278, -14.08, 97.4483, -51.5278, 44.0335
1.868, 2, 35.9151, 48.1278, -14.08, 97.4483, -51.5278, 44.0335
1.872, 2, 35.9151, 48.1278, -14.08, 97.4483, -51.5278, 44.0335
1.876, 2, 35.9151, 48.1278, -14.08, 97.4483, -51.5278, 44.0335
1.88, 2, 35.9151, 48.1278, -14.08, 97.4483, -51.5278, 44.0335
1.884, 2, 35.9151, 48.1278, -14.08, 97.4483, -51.5278, 44.0335
1.888, 2, 35.9151, 48.1278, -14.08, 97.4483, -51.5278, 44.0335
1.892, 2, 35.9151, 48.1278, -14.08, 97.4483, -51.5278, 44.0335
1.896, 2, 35.9151, 48.1278, -14.08, 97.4483, -51.5278, 44.0335
1.9, 2, 35.9151, 48.1278, -14.08, 97.4483, -51.5278, 44.0335
1.904, 2, 35.9151, 48.1278, -14.08, 97.4483, -51.5278, 44.0335
1.908, 2, 35.9151, 48.1278, -14.08, 97.4483, -51.5278, 44.0335
1.912, 2, 35.9151, 48.1278, -14.08, 97.4483, -51.5278, 44.0335
1.916, 2, 35.9151, 48.1278, -14.08, 97.4483, -51.5278, 44.0335
1.92, 2, 35.9151, 48.1278, -14.08, 97.4483, -51.5278, 44.0335
1.924, 2, 35.9151, 48.1278, -14.08, 97.4483, -51.5278, 44.0335
1.928, 2, 35.9151, 48.1278, -14.08, 97.4483, -51.5278, 44.0335
1.932, 2, 35.9151, 48.1278, -14.08, 97.4483, -51.5278, 44.0335
1.936, 2, 35.9151, 48.1278, -14.08, 97.4483, -51.5278, 44.0335
1.94, 2, 35.9151, 48.1278, -14.08, 97.4483, -51.5278, 44.0335
1.944, 2, 35.9151, 48.1278, -14.08, 97.4483, -51.5278, 44.0335
1.948, 2, 35.9151, 48.1278, -14.08, 97.4483, -51.5278, 44.0335
1.952, 2, 35.9151, 48.1278, -14.08, 97.4483, -51.5278, 44.0335
1.956, 2, 35.9151, 48.1278, -14.08, 97.4483, -51.5278, 44.0335
1.96, 2, 35.9151, 48.1278, -14.08, 97.4483, -51.5278, 44.0335
1.964, 2, 35.9151, 48.1278, -14.08, 97.4483, -51.5278, 44.0335
1.968, 2, 35.9151, 48.1278, -14.08, 97.4483, -51.5278, 44.0335
1.972, 2, 35.9151, 48.1278, -14.08, 97.4483, -51.5278, 44.0335
1.976, 2, 35.9151, 48.1278, -14.08, 97.4483, -51.5278, 44.0335
1.98, 2, 35.9151, 48.1278, -14.08, 97.4483, -51.5278, 44.0335
1.984, 2, 35.9151, 48.1278, -14.08, 97.4483, -51.5278, 44.0335
1.988, 2, 35.9151, 48.1278, -14.08, 97.4483, -51.5278, 44.0335
1.992, 2, 35.9151, 48.1278, -14.08, 97.4483, -51.5278, 44.0335
1.996, 2, 35.9151, 48.1278, -14.08, 97.4483, -51.5278, 44.0335
1.999, 2, 35.9151, 48.1278, -14.08, 97.4483, -51.5278, 44.0335
2.004, 2, 35.9151, 48.1278, -14.08, 97.4483, -51.5278, 44.0335
2.008, 2, 35.9151, 48.1278, -14.08, 97.4483, -51.5278, 44.0335
2.012, 2, 35.9151, 48.1278, -14.08, 97.4483, -51.5278, 44.0335
2.015, 2, 35.9151, 48.1278, -14.08, 97.4483, -51.5278, 44.0335
2.019, 2, 35.9151, 48.1278, -14.08, 97.4483, -51.5278, 44.0335
2.024, 2, 35.9151, 48.1278, -14.08, 97.4483, -51.5278, 44.0335
2.028, 2, 35.9151, 48.1278, -14.08, 97.4483, -51.5278, 44.0335
2.031, 2, 35.9151, 48.1278, -14.08, 97.4483, -51.5278, 44.0335
2.036, 4, 35.9151, 48.1278, -14.08, 97.4483, -51.5278, 44.0335
2.04, 4, 35.9151, 48.1278, -14.08, 97.4483, -51.5278, 44.0335
2.044, 4, 35.9151, 48.1278, -14.08, 97.4483, -51.5278, 44.0335
2.048, 4, 35.9151, 48.1278, -14.08, 97.4483, -51.5278, 44.0335
2.051, 4, 35.9151, 48.1278, -14.08, 97.4483, -51.5278, 44.0335
2.055, 4, 35.9151, 48.1278, -14.08, 97.4483, -51.5278, 44.0335
2.06, 4, 35.9151, 48.1278, -14.08, 97.4483, -51.5278, 44.0335
2.064, 4, 35.9151, 48.1278, -14.08, 97.4483, -51.5278, 44.0335
2.068, 4, 35.9151, 48.1278, -14.08, 97.4483, -51.5278, 44.0335
2.071, 4, 35.9151, 48.1278, -14.08, 97.4483, -51.5278, 44.0335
2.076, 4, 35.9151, 48.1278, -14.08, 97.4483, -51.5278, 44.0335
2.08, 4, 35.9151, 48.1278, -14.08, 97.4483, -51.5278, 44.0335
2.084, 4, 35.9151, 48.1278, -14.08, 97.4483, -51.5278, 44.0335
2.087, 4, 35.9151, 48.1278, -14.08, 97.4483, -51.5278, 44.0335
2.092, 4, 35.9151, 48.1278, -14.08, 97.4483, -51.5278, 44.0335
2.096, 4, 35.9151, 48.1278, -14.08, 97.4483, -51.5278, 44.0335
2.1, 4, 35.9151, 48.1278, -14.08, 97.4483, -51.5278, 44.0335
2.104, 4, 35.9151, 48.1278, -14.08, 97.4483, -51.5278, 44.0335
2.107, 4, 35.9151, 48.1278, -14.08, 97.4483, -51.5278, 44.0335
2.111, 4, 35.9151, 48.1278, -14.08, 97.4483, -51.5278, 44.0335
2.116, 4, 35.9151, 48.1278, -14.08, 97.4483, -51.5278, 44.0335
2.12, 4, 35.9151, 48.1278, -14.08, 97.4483, -51.5278, 44.0335
2.124, 4, 35.9151, 48.1278, -14.08, 97.4483, -51.5278, 44.0335
2.127, 4, 35.9151, 48.1278, -14.08, 97.4483, -51.5278, 44.0335
2.132, 4, 35.9151, 48.1278, -14.08, 97.4483, -51.5278, 44.0335
2.136, 4, 35.9151, 48.1278, -14.08, 97.4483, -51.5278, 44.0335
2.142, 4, 35.9151, 48.1278, -14.08, 97.4483, -51.5278, 44.0335
2.144, 4, 35.9151, 48.1278, -14.08, 97.4483, -51.5278, 44.0335
2.147, 4, 35.9151, 48.1278, -14.08, 97.4483, -51.5278, 44.0335
2.152, 4, 35.9151, 48.1278, -14.08, 97.4483, -51.5278, 44.0335
2.156, 4, 35.9151, 48.1278, -14.08, 97.4483, -51.5278, 44.0335
2.16, 4, 35.9151, 48.1278, -14.08, 97.4483, -51.5278, 44.0335
2.163, 4, 35.9151, 48.1278, -14.08, 97.4483, -51.5278, 44.0335
2.168, 4, 35.9151, 48.1278, -14.08, 97.4483, -51.5278, 44.0335
2.172, 4, 35.9151, 48.1278, -14.08, 97.4483, -51.5278, 44.0335
2.176, 4, 35.9151, 48.128, -14.08, 97.4483, -51.5279, 44.0335
2.179, 4, 35.915, 48.1283, -14.0801, 97.4483, -51.5279, 44.0335
2.184, 4, 35.9147, 48.1291, -14.0801, 97.4483, -51.528, 44.0334
2.188, 4, 35.9143, 48.1303, -14.0802, 97.4483, -51.5284, 44.0332
2.192, 4, 35.9138, 48.1322, -14.0804, 97.4484, -51.5291, 44.0327
2.196, 4, 35.913, 48.1348, -14.0806, 97.4485, -51.5305, 44.0319
2.199, 4, 35.912, 48.1382, -14.0811, 97.4487, -51.5328, 44.0304
2.204, 4, 35.9109, 48.1424, -14.0817, 97.449, -51.5366, 44.0281
2.208, 5, 35.9096, 48.1475, -14.0827, 97.4495, -51.5423, 44.0246
2.212, 5, 35.9083, 48.1536, -14.084, 97.4501, -51.5505, 44.0195
2.216, 5, 35.9068, 48.1609, -14.0858, 97.4509, -51.5618, 44.0125
2.219, 5, 35.9052, 48.1693, -14.088, 97.4521, -51.5767, 44.0033
2.224, 5, 35.9036, 48.1789, -14.0909, 97.4535, -51.596, 43.9914
2.228, 5, 35.902, 48.1898, -14.0945, 97.4552, -51.6202, 43.9765
2.232, 5, 35.9005, 48.2017, -14.0988, 97.4574, -51.6499, 43.9581
2.235, 5, 35.899, 48.2147, -14.1039, 97.4599, -51.6855, 43.9362
2.24, 5, 35.8976, 48.2287, -14.1097, 97.4628, -51.7273, 43.9105
2.244, 5, 35.8964, 48.2436, -14.1165, 97.4661, -51.7754, 43.881
2.248, 5, 35.8952, 48.2596, -14.124, 97.4697, -51.8297, 43.8476
2.252, 5, 35.8941, 48.2767, -14.1323, 97.4738, -51.8901, 43.8106
2.255, 5, 35.8929, 48.295, -14.1413, 97.4781, -51.9562, 43.7701
2.259, 5, 35.8918, 48.3146, -14.151, 97.4826, -52.0275, 43.7265
2.264, 5, 35.8907, 48.3353, -14.1613, 97.4874, -52.1035, 43.6801
2.268, 5, 35.8895, 48.3571, -14.1721, 97.4923, -52.1836, 43.6313
2.272, 5, 35.8882, 48.3799, -14.1833, 97.4973, -52.2672, 43.5804
2.275, 5, 35.8868, 48.4037, -14.1949, 97.5024, -52.3537, 43.5278
2.28, 5, 35.8853, 48.4286, -14.2067, 97.5074, -52.4425, 43.4739
2.284, 5, 35.8836, 48.4543, -14.2187, 97.5125, -52.533, 43.4191
2.288, 5, 35.8817, 48.4809, -14.2308, 97.5174, -52.6249, 43.3635
2.291, 5, 35.8796, 48.5083, -14.243, 97.5222, -52.7177, 43.3075
2.296, 5, 35.8773, 48.5364, -14.2552, 97.5269, -52.8112, 43.2513
2.3, 5, 35.8748, 48.565, -14.2674, 97.5314, -52.9051, 43.1948
2.304, 5, 35.8722, 48.5939, -14.2795, 97.5358, -52.9993, 43.1384
2.308, 5, 35.8695, 48.623, -14.2916, 97.5401, -53.0936, 43.0819
2.311, 5, 35.8667, 48.6523, -14.3036, 97.5441, -53.1881, 43.0255
2.316, 5, 35.8639, 48.6816, -14.3156, 97.548, -53.2827, 42.9691
2.32, 5, 35.861, 48.711, -14.3274, 97.5517, -53.3773, 42.9128
2.324, 5, 35.858, 48.7404, -14.3392, 97.5552, -53.4719, 42.8567
2.328, 5, 35.8551, 48.7697, -14.3509, 97.5586, -53.5665, 42.8007
2.331, 5, 35.852, 48.7991, -14.3625, 97.5617, -53.6611, 42.7448
2.336, 5, 35.849, 48.8284, -14.3739, 97.5647, -53.7556, 42.689
2.34, 5, 35.8459, 48.8576, -14.3853, 97.5676, -53.8502, 42.6333
2.344, 5, 35.8428, 48.8869, -14.3966, 97.5702, -53.9447, 42.5778
2.347, 5, 35.8396, 48.916, -14.4078, 97.5726, -54.0393, 42.5224
2.352, 5, 35.8364, 48.9452, -14.4189, 97.5749, -54.1338, 42.4671
2.356, 5, 35.8332, 48.9742, -14.4299, 97.577, -54.2282, 42.4119
2.36, 5, 35.8299, 49.0033, -14.4408, 97.579, -54.3226, 42.3569
2.364, 5, 35.8266, 49.0322, -14.4516, 97.5807, -54.417, 42.302
2.367, 5, 35.8233, 49.0612, -14.4623, 97.5823, -54.5114, 42.2472
2.372, 5, 35.82, 49.09, -14.4729, 97.5837, -54.6057, 42.1926
2.376, 5, 35.8166, 49.1189, -14.4834, 97.585, -54.7001, 42.1381
2.38, 5, 35.8131, 49.1476, -14.4938, 97.5861, -54.7943, 42.0837
2.383, 5, 35.8097, 49.1764, -14.5041, 97.587, -54.8886, 42.0294
2.388, 5, 35.8062, 49.205, -14.5142, 97.5877, -54.9828, 41.9752
2.392, 5, 35.8027, 49.2336, -14.5243, 97.5883, -55.077, 41.9212
2.396, 5, 35.7991, 49.2622, -14.5343, 97.5887, -55.1712, 41.8673
2.4, 5, 35.7956, 49.2907, -14.5442, 97.5889, -55.2653, 41.8135
2.403, 5, 35.792, 49.3192, -14.554, 97.589, -55.3594, 41.7598
2.408, 5, 35.7883, 49.3476, -14.5637, 97.5889, -55.4535, 41.7063
2.412, 5, 35.7846, 49.3759, -14.5733, 97.5887, -55.5475, 41.6528
2.416, 5, 35.7809, 49.4042, -14.5828, 97.5883, -55.6415, 41.5995
2.42, 5, 35.7772, 49.4324, -14.5922, 97.5877, -55.7355, 41.5463
2.423, 5, 35.7734, 49.4606, -14.6015, 97.587, -55.8294, 41.4932
2.428, 5, 35.7696, 49.4888, -14.6106, 97.5861, -55.9233, 41.4402
2.432, 5, 35.7658, 49.5168, -14.6197, 97.585, -56.0172, 41.3874
2.436, 5, 35.7619, 49.5448, -14.6287, 97.5838, -56.1111, 41.3346
2.439, 5, 35.758, 49.5728, -14.6376, 97.5824, -56.2049, 41.282
2.444, 5, 35.7541, 49.6007, -14.6464, 97.5809, -56.2987, 41.2294
2.448, 5, 35.7501, 49.6286, -14.655, 97.5792, -56.3925, 41.177
2.452, 5, 35.7461, 49.6564, -14.6636, 97.5773, -56.4862, 41.1247
2.456, 5, 35.7421, 49.6841, -14.6721, 97.5753, -56.5799, 41.0725
2.459, 5, 35.7381, 49.7118, -14.6805, 97.5732, -56.6736, 41.0204
2.464, 5, 35.734, 49.7395, -14.6887, 97.5709, -56.7672, 40.9684
2.468, 5, 35.7299, 49.767, -14.6969, 97.5684, -56.8608, 40.9165
2.472, 5, 35.7257, 49.7946, -14.7049, 97.5658, -56.9544, 40.8648
2.476, 5, 35.7215, 49.822, -14.7129, 97.563, -57.0479, 40.8131
2.479, 5, 35.7173, 49.8495, -14.7208, 97.5601, -57.1414, 40.7615
2.484, 5, 35.7131, 49.8768, -14.7285, 97.557, -57.2349, 40.7101
2.488, 5, 35.7088, 49.9041, -14.7362, 97.5538, -57.3284, 40.6587
2.492, 5, 35.7045, 49.9314, -14.7437, 97.5505, -57.4218, 40.6075
2.495, 5, 35.7002, 49.9585, -14.7511, 97.5469, -57.5151, 40.5563
2.5, 5, 35.6958, 49.9857, -14.7585, 97.5433, -57.6085, 40.5053
2.506, 5, 35.687, 50.0398, -14.7728, 97.5355, -57.7951, 40.4035
2.508, 5, 35.687, 50.0398, -14.7728, 97.5355, -57.7951, 40.4035
2.512, 5, 35.6825, 50.0667, -14.7799, 97.5314, -57.8884, 40.3527
2.515, 5, 35.678, 50.0936, -14.7868, 97.5271, -57.9816, 40.3021
2.52, 5, 35.6735, 50.1205, -14.7936, 97.5227, -58.0748, 40.2515
2.524, 5, 35.6689, 50.1473, -14.8003, 97.5182, -58.1679, 40.2011
2.528, 5, 35.6644, 50.174, -14.8069, 97.5135, -58.2611, 40.1507
2.531, 5, 35.6597, 50.2007, -14.8135, 97.5087, -58.3542, 40.1005
2.536, 5, 35.6551, 50.2273, -14.8199, 97.5037, -58.4472, 40.0503
2.54, 5, 35.6504, 50.2538, -14.8262, 97.4986, -58.5403, 40.0002
2.544, 5, 35.6457, 50.2803, -14.8324, 97.4934, -58.6333, 39.9502
2.548, 5, 35.641, 50.3068, -14.8384, 97.488, -58.7262, 39.9004
2.551, 5, 35.6362, 50.3331, -14.8444, 97.4824, -58.8192, 39.8506
2.556, 5, 35.6314, 50.3595, -14.8503, 97.4768, -58.9121, 39.8009
2.56, 5, 35.6266, 50.3857, -14.8561, 97.4709, -59.0049, 39.7513
2.564, 5, 35.6217, 50.4119, -14.8617, 97.465, -59.0978, 39.7018
2.568, 5, 35.6168, 50.4381, -14.8673, 97.4589, -59.1906, 39.6523
2.571, 5, 35.6119, 50.4641, -14.8728, 97.4527, -59.2833, 39.603
2.576, 5, 35.607, 50.4902, -14.8781, 97.4463, -59.3761, 39.5538
2.58, 5, 35.602, 50.5161, -14.8834, 97.4398, -59.4688, 39.5046
2.584, 5, 35.597, 50.542, -14.8885, 97.4332, -59.5615, 39.4555
2.587, 5, 35.5919, 50.5679, -14.8935, 97.4264, -59.6541, 39.4066
2.592, 5, 35.5869, 50.5937, -14.8985, 97.4195, -59.7467, 39.3577
2.596, 5, 35.5817, 50.6194, -14.9033, 97.4125, -59.8393, 39.3089
2.6, 5, 35.5766, 50.6451, -14.908, 97.4053, -59.9318, 39.2602
2.604, 5, 35.5715, 50.6707, -14.9126, 97.398, -60.0243, 39.2115
2.607, 5, 35.5663, 50.6962, -14.9171, 97.3906, -60.1168, 39.163
2.612, 5, 35.561, 50.7217, -14.9215, 97.383, -60.2092, 39.1145
2.616, 5, 35.5558, 50.7471, -14.9258, 97.3753, -60.3016, 39.0661
2.62, 5, 35.5505, 50.7725, -14.93, 97.3675, -60.394, 39.0178
2.624, 5, 35.5452, 50.7978, -14.9341, 97.3596, -60.4864, 38.9696
2.627, 5, 35.5398, 50.823, -14.938, 97.3515, -60.5787, 38.9215
2.632, 5, 35.5345, 50.8482, -14.9419, 97.3433, -60.6709, 38.8735
2.636, 5, 35.5291, 50.8733, -14.9456, 97.3349, -60.7632, 38.8255
2.64, 5, 35.5236, 50.8983, -14.9493, 97.3264, -60.8554, 38.7776
2.643, 5, 35.5182, 50.9233, -14.9528, 97.3178, -60.9476, 38.7298
2.648, 5, 35.5127, 50.9483, -14.9562, 97.3091, -61.0397, 38.6821
2.652, 5, 35.5071, 50.9731, -14.9596, 97.3003, -61.1318, 38.6344
2.656, 5, 35.5016, 50.9979, -14.9628, 97.2913, -61.2239, 38.5869
2.66, 5, 35.496, 51.0227, -14.9659, 97.2822, -61.3159, 38.5394
2.663, 5, 35.4904, 51.0473, -14.9689, 97.2729, -61.4079, 38.492
2.668, 5, 35.4847, 51.0719, -14.9718, 97.2636, -61.4999, 38.4446
2.672, 5, 35.4791, 51.0965, -14.9745, 97.2541, -61.5918, 38.3974
2.676, 5, 35.4733, 51.121, -14.9772, 97.2445, -61.6837, 38.3502
2.679, 5, 35.4676, 51.1454, -14.9798, 97.2348, -61.7756, 38.3031
2.684, 5, 35.4618, 51.1698, -14.9822, 97.2249, -61.8674, 38.2561
2.688, 5, 35.456, 51.1941, -14.9846, 97.215, -61.9592, 38.2091
2.692, 5, 35.4502, 51.2183, -14.9868, 97.2049, -62.051, 38.1622
2.696, 5, 35.4444, 51.2425, -14.9889, 97.1947, -62.1427, 38.1154
2.699, 5, 35.4385, 51.2666, -14.9909, 97.1843, -62.2344, 38.0687
2.704, 5, 35.4326, 51.2906, -14.9928, 97.1739, -62.3261, 38.022
2.708, 5, 35.4266, 51.3146, -14.9946, 97.1633, -62.4177, 37.9754
2.712, 5, 35.4206, 51.3385, -14.9963, 97.1526, -62.5093, 37.9289
2.716, 5, 35.4146, 51.3624, -14.9979, 97.1418, -62.6008, 37.8824
2.719, 5, 35.4086, 51.3862, -14.9993, 97.1309, -62.6924, 37.8361
2.724, 5, 35.4025, 51.4099, -15.0007, 97.1198, -62.7839, 37.7898
2.728, 5, 35.3965, 51.4335, -15.0019, 97.1087, -62.8753, 37.7435
2.732, 5, 35.3903, 51.4571, -15.003, 97.0974, -62.9667, 37.6974
2.735, 5, 35.3842, 51.4806, -15.0041, 97.086, -63.0581, 37.6513
2.74, 5, 35.378, 51.5041, -15.005, 97.0745, -63.1495, 37.6052
2.744, 5, 35.3718, 51.5275, -15.0058, 97.0628, -63.2408, 37.5593
2.748, 5, 35.3655, 51.5508, -15.0064, 97.0511, -63.3321, 37.5134
2.752, 5, 35.3593, 51.5741, -15.007, 97.0392, -63.4233, 37.4675
2.755, 5, 35.353, 51.5973, -15.0075, 97.0273, -63.5145, 37.4218
2.76, 5, 35.3466, 51.6204, -15.0078, 97.0152, -63.6057, 37.3761
2.764, 5, 35.3403, 51.6435, -15.0081, 97.003, -63.6968, 37.3304
2.768, 5, 35.3339, 51.6665, -15.0082, 96.9906, -63.788, 37.2848
2.772, 5, 35.3275, 51.6894, -15.0082, 96.9782, -63.879, 37.2393
2.775, 5, 35.321, 51.7123, -15.0081, 96.9657, -63.9701, 37.1939
2.78, 5, 35.3145, 51.7351, -15.0079, 96.953, -64.0611, 37.1485
2.784, 5, 35.308, 51.7578, -15.0076, 96.9403, -64.1521, 37.1032
2.788, 5, 35.3015, 51.7805, -15.0071, 96.9274, -64.243, 37.0579
2.791, 5, 35.2949, 51.8031, -15.0066, 96.9144, -64.3339, 37.0128
2.796, 5, 35.2883, 51.8256, -15.0059, 96.9013, -64.4248, 36.9676
2.8, 5, 35.2817, 51.8481, -15.0052, 96.8881, -64.5156, 36.9226
2.804, 5, 35.2751, 51.8704, -15.0043, 96.8748, -64.6064, 36.8775
2.808, 5, 35.2684, 51.8928, -15.0033, 96.8613, -64.6972, 36.8326
2.811, 5, 35.2617, 51.915, -15.0022, 96.8478, -64.788, 36.7877
2.816, 5, 35.2549, 51.9372, -15.001, 96.8342, -64.8787, 36.7429
2.82, 5, 35.2482, 51.9594, -14.9996, 96.8204, -64.9693, 36.6981
2.824, 5, 35.2414, 51.9814, -14.9982, 96.8065, -65.06, 36.6534
2.828, 5, 35.2346, 52.0034, -14.9967, 96.7926, -65.1506, 36.6087
2.831, 5, 35.2277, 52.0254, -14.995, 96.7785, -65.2412, 36.5641
2.836, 5, 35.2208, 52.0472, -14.9932, 96.7643, -65.3317, 36.5196
2.84, 5, 35.2139, 52.069, -14.9913, 96.75, -65.4222, 36.4751
2.844, 5, 35.207, 52.0907, -14.9893, 96.7357, -65.5127, 36.4307
2.847, 5, 35.2, 52.1124, -14.9872, 96.7212, -65.6031, 36.3863
2.852, 5, 35.193, 52.134, -14.985, 96.7066, -65.6935, 36.342
2.856, 5, 35.186, 52.1555, -14.9827, 96.6918, -65.7839, 36.2977
2.86, 5, 35.1789, 52.1769, -14.9802, 96.677, -65.8742, 36.2535
2.864, 5, 35.1718, 52.1983, -14.9777, 96.6621, -65.9645, 36.2093
2.867, 5, 35.1647, 52.2196, -14.975, 96.6471, -66.0548, 36.1652
2.872, 5, 35.1576, 52.2409, -14.9722, 96.632, -66.1451, 36.1212
2.876, 5, 35.1504, 52.2621, -14.9693, 96.6168, -66.2353, 36.0772
2.88, 5, 35.1432, 52.2832, -14.9663, 96.6014, -66.3254, 36.0332
2.883, 5, 35.136, 52.3042, -14.9632, 96.586, -66.4156, 35.9893
2.888, 5, 35.1287, 52.3252, -14.96, 96.5705, -66.5057, 35.9455
2.892, 5, 35.1214, 52.3461, -14.9567, 96.5549, -66.5958, 35.9017
2.896, 5, 35.1141, 52.3669, -14.9532, 96.5391, -66.6858, 35.858
2.9, 5, 35.1068, 52.3877, -14.9496, 96.5233, -66.7758, 35.8143
2.903, 5, 35.0994, 52.4084, -14.946, 96.5074, -66.8658, 35.7706
2.908, 5, 35.092, 52.429, -14.9422, 96.4913, -66.9557, 35.727
2.912, 5, 35.0846, 52.4496, -14.9383, 96.4752, -67.0456, 35.6835
2.916, 5, 35.0772, 52.4701, -14.9343, 96.459, -67.1355, 35.64
2.92, 5, 35.0697, 52.4905, -14.9301, 96.4427, -67.2254, 35.5966
2.923, 5, 35.0622, 52.5108, -14.9259, 96.4262, -67.3152, 35.5532
2.928, 5, 35.0546, 52.5311, -14.9216, 96.4097, -67.4049, 35.5098
2.932, 5, 35.0471, 52.5513, -14.9171, 96.3931, -67.4947, 35.4665
2.936, 5, 35.0395, 52.5715, -14.9125, 96.3764, -67.5844, 35.4233
2.939, 5, 35.0319, 52.5915, -14.9079, 96.3596, -67.6741, 35.3801
2.944, 5, 35.0242, 52.6115, -14.9031, 96.3427, -67.7637, 35.3369
2.948, 5, 35.0166, 52.6315, -14.8982, 96.3257, -67.8533, 35.2938
2.952, 5, 35.0089, 52.6513, -14.8931, 96.3085, -67.9429, 35.2507
2.956, 5, 35.0011, 52.6711, -14.888, 96.2914, -68.0325, 35.2077
2.959, 5, 34.9934, 52.6908, -14.8828, 96.2741, -68.122, 35.1647
2.964, 5, 34.9856, 52.7105, -14.8774, 96.2567, -68.2114, 35.1218
2.968, 5, 34.9778, 52.7301, -14.8719, 96.2392, -68.3009, 35.0789
2.972, 5, 34.9699, 52.7496, -14.8663, 96.2216, -68.3903, 35.036
2.976, 5, 34.9621, 52.769, -14.8607, 96.2039, -68.4797, 34.9932
2.98, 5, 34.9542, 52.7884, -14.8548, 96.1862, -68.569, 34.9505
2.984, 5, 34.9463, 52.8077, -14.8489, 96.1683, -68.6583, 34.9078
2.988, 5, 34.9383, 52.8269, -14.8429, 96.1504, -68.7476, 34.8651
2.992, 5, 34.9303, 52.846, -14.8367, 96.1323, -68.8369, 34.8224
2.995, 5, 34.9223, 52.8651, -14.8305, 96.1142, -68.9261, 34.7798
3, 5, 34.9143, 52.8841, -14.8241, 96.096, -69.0153, 34.7373
3.004, 5, 34.9062, 52.9031, -14.8176, 96.0776, -69.1044, 34.6948
3.008, 5, 34.8982, 52.9219, -14.811, 96.0592, -69.1935, 34.6523
3.012, 5, 34.89, 52.9407, -14.8043, 96.0407, -69.2826, 34.6099
3.015, 5, 34.8819, 52.9594, -14.7975, 96.0221, -69.3716, 34.5675
3.02, 5, 34.8737, 52.9781, -14.7906, 96.0034, -69.4607, 34.5251
3.024, 5, 34.8655, 52.9967, -14.7835, 95.9846, -69.5496, 34.4828
3.028, 5, 34.8573, 53.0152, -14.7763, 95.9658, -69.6386, 34.4405
3.031, 5, 34.8491, 53.0336, -14.7691, 95.9468, -69.7275, 34.3983
3.036, 5, 34.8408, 53.0519, -14.7617, 95.9278, -69.8164, 34.3561
3.04, 5, 34.8325, 53.0702, -14.7542, 95.9087, -69.9052, 34.3139
3.044, 5, 34.8242, 53.0884, -14.7466, 95.8894, -69.994, 34.2718
3.048, 5, 34.8158, 53.1066, -14.7388, 95.8701, -70.0828, 34.2297
3.051, 5, 34.8074, 53.1246, -14.731, 95.8507, -70.1716, 34.1877
3.056, 5, 34.799, 53.1426, -14.723, 95.8312, -70.2603, 34.1456
3.06, 5, 34.7906, 53.1606, -14.7149, 95.8116, -70.349, 34.1037
3.064, 5, 34.7821, 53.1784, -14.7068, 95.792, -70.4376, 34.0617
3.068, 5, 34.7736, 53.1962, -14.6985, 95.7722, -70.5262, 34.0198
3.071, 5, 34.7651, 53.2139, -14.69, 95.7524, -70.6148, 33.9779
3.076, 5, 34.7565, 53.2315, -14.6815, 95.7325, -70.7034, 33.9361
3.08, 5, 34.748, 53.249, -14.6729, 95.7124, -70.7919, 33.8943
3.084, 5, 34.7393, 53.2665, -14.6641, 95.6923, -70.8804, 33.8525
3.087, 5, 34.7306, 53.2838, -14.6552, 95.6722, -70.9688, 33.8108
3.092, 5, 34.7219, 53.301, -14.6461, 95.6519, -71.0572, 33.7692
3.096, 5, 34.7131, 53.318, -14.6369, 95.6315, -71.1455, 33.7276
3.1, 5, 34.7042, 53.335, -14.6275, 95.6109, -71.2337, 33.6861
3.104, 5, 34.6953, 53.3517, -14.6179, 95.5903, -71.3218, 33.6449
3.107, 5, 34.6863, 53.3683, -14.6081, 95.5695, -71.4097, 33.6038
3.112, 5, 34.6772, 53.3846, -14.5979, 95.5485, -71.4975, 33.563
3.116, 5, 34.668, 53.4008, -14.5875, 95.5273, -71.585, 33.5226
3.12, 5, 34.6588, 53.4167, -14.5766, 95.5058, -71.6722, 33.4826
3.124, 5, 34.6496, 53.4323, -14.5654, 95.4841, -71.7591, 33.443
3.128, 5, 34.6402, 53.4477, -14.5536, 95.4621, -71.8456, 33.404
3.132, 5, 34.6309, 53.4627, -14.5413, 95.4398, -71.9316, 33.3657
3.136, 5, 34.6215, 53.4774, -14.5285, 95.417, -72.0172, 33.3282
3.14, 5, 34.612, 53.4918, -14.5149, 95.3939, -72.1022, 33.2914
3.143, 5, 34.6025, 53.5057, -14.5007, 95.3703, -72.1867, 33.2556
3.148, 5, 34.5928, 53.5193, -14.4857, 95.3463, -72.2705, 33.2208
3.152, 5, 34.5832, 53.5324, -14.4699, 95.3217, -72.3536, 33.1869
3.156, 5, 34.5734, 53.5451, -14.4533, 95.2966, -72.436, 33.1542
3.16, 5, 34.5636, 53.5573, -14.4358, 95.271, -72.5176, 33.1227
3.163, 5, 34.5536, 53.569, -14.4173, 95.2449, -72.5985, 33.0924
3.168, 5, 34.5436, 53.5802, -14.398, 95.2181, -72.6785, 33.0634
3.172, 5, 34.5335, 53.5909, -14.3776, 95.1908, -72.7577, 33.0357
3.176, 5, 34.5232, 53.6011, -14.3563, 95.1628, -72.836, 33.0093
3.179, 5, 34.5129, 53.6107, -14.3339, 95.1342, -72.9134, 32.9844
3.184, 5, 34.5025, 53.6197, -14.3105, 95.105, -72.9898, 32.9609
3.188, 5, 34.4919, 53.6282, -14.286, 95.0751, -73.0653, 32.9388
3.192, 6, 34.4812, 53.636, -14.2604, 95.0446, -73.1399, 32.9183
3.196, 6, 34.4704, 53.6433, -14.2338, 95.0134, -73.2134, 32.8993
3.199, 6, 34.4595, 53.6501, -14.206, 94.9815, -73.2859, 32.8819
3.204, 6, 34.4485, 53.6562, -14.1772, 94.9489, -73.3574, 32.866
3.208, 6, 34.4374, 53.6617, -14.1472, 94.9157, -73.4279, 32.8517
3.212, 6, 34.4261, 53.6666, -14.1161, 94.8818, -73.4974, 32.8389
3.216, 6, 34.4148, 53.6709, -14.0839, 94.8473, -73.5658, 32.8278
3.22, 6, 34.4033, 53.6745, -14.0506, 94.812, -73.6332, 32.8182
3.224, 6, 34.3917, 53.6776, -14.0162, 94.7761, -73.6995, 32.8103
3.228, 6, 34.38, 53.6801, -13.9807, 94.7396, -73.7648, 32.8039
3.232, 6, 34.3682, 53.682, -13.9441, 94.7024, -73.8291, 32.7991
3.235, 6, 34.3562, 53.6833, -13.9064, 94.6645, -73.8923, 32.7959
3.24, 6, 34.3442, 53.684, -13.8677, 94.626, -73.9545, 32.7942
3.244, 6, 34.332, 53.6842, -13.8278, 94.5869, -74.0157, 32.794
3.248, 6, 34.3197, 53.6837, -13.787, 94.5472, -74.0758, 32.7954
3.252, 6, 34.3073, 53.6827, -13.7451, 94.5069, -74.135, 32.7982
3.255, 6, 34.2949, 53.6811, -13.7022, 94.466, -74.1933, 32.8025
3.26, 6, 34.2823, 53.679, -13.6583, 94.4245, -74.2505, 32.8081
3.264, 6, 34.2696, 53.6764, -13.6134, 94.3825, -74.3069, 32.8151
3.268, 6, 34.2568, 53.6732, -13.5676, 94.34, -74.3624, 32.8235
3.272, 6, 34.2439, 53.6695, -13.5209, 94.297, -74.417, 32.8331
3.276, 6, 34.2309, 53.6653, -13.4733, 94.2534, -74.4708, 32.844
3.28, 6, 34.2179, 53.6607, -13.4249, 94.2094, -74.5238, 32.856
3.284, 6, 34.2047, 53.6556, -13.3757, 94.165, -74.576, 32.8691
3.288, 6, 34.1915, 53.65, -13.3257, 94.1201, -74.6276, 32.8833
3.291, 6, 34.1782, 53.6441, -13.275, 94.0748, -74.6784, 32.8985
3.296, 6, 34.1649, 53.6378, -13.2236, 94.0292, -74.7287, 32.9146
3.3, 6, 34.1515, 53.6311, -13.1715, 93.9833, -74.7783, 32.9315
3.304, 6, 34.1381, 53.6241, -13.1189, 93.937, -74.8275, 32.9492
3.308, 6, 34.1246, 53.6168, -13.0658, 93.8905, -74.8762, 32.9675
3.312, 6, 34.1111, 53.6091, -13.0122, 93.8437, -74.9245, 32.9864
3.316, 6, 34.0975, 53.6012, -12.9581, 93.7967, -74.9725, 33.0058
3.32, 6, 34.0839, 53.5931, -12.9038, 93.7496, -75.0202, 33.0256
3.324, 6, 34.0703, 53.5847, -12.8491, 93.7023, -75.0677, 33.0458
3.328, 6, 34.0565, 53.5762, -12.7941, 93.6549, -75.115, 33.0662
3.332, 6, 34.0427, 53.5674, -12.739, 93.6074, -75.1621, 33.0867
3.336, 6, 34.0289, 53.5585, -12.6836, 93.5599, -75.2091, 33.1075
3.34, 6, 34.0149, 53.5494, -12.6281, 93.5123, -75.2561, 33.1283
3.344, 6, 34.001, 53.5402, -12.5725, 93.4647, -75.303, 33.1491
3.347, 6, 33.9869, 53.5309, -12.5168, 93.4171, -75.3499, 33.1699
3.352, 6, 33.9728, 53.5215, -12.461, 93.3694, -75.3967, 33.1908
3.356, 6, 33.9587, 53.512, -12.4052, 93.3218, -75.4436, 33.2116
3.36, 6, 33.9445, 53.5024, -12.3493, 93.2742, -75.4904, 33.2324
3.364, 6, 33.9303, 53.4928, -12.2933, 93.2266, -75.5373, 33.2531
3.368, 6, 33.9161, 53.4831, -12.2373, 93.179, -75.5842, 33.2738
3.372, 6, 33.9019, 53.4734, -12.1813, 93.1314, -75.631, 33.2944
3.376, 6, 33.8876, 53.4636, -12.1252, 93.0839, -75.6779, 33.3149
3.38, 6, 33.8733, 53.4537, -12.0691, 93.0363, -75.7248, 33.3355
3.383, 6, 33.859, 53.4438, -12.013, 92.9888, -75.7717, 33.3559
3.388, 6, 33.8447, 53.4338, -11.9568, 92.9413, -75.8187, 33.3763
3.392, 6, 33.8303, 53.4238, -11.9006, 92.8938, -75.8656, 33.3966
3.396, 6, 33.816, 53.4138, -11.8443, 92.8463, -75.9125, 33.4169
3.4, 6, 33.8016, 53.4037, -11.788, 92.7988, -75.9595, 33.4371
3.403, 6, 33.7872, 53.3935, -11.7317, 92.7513, -76.0065, 33.4572
3.408, 6, 33.7728, 53.3833, -11.6753, 92.7039, -76.0535, 33.4773
3.412, 6, 33.7584, 53.373, -11.619, 92.6565, -76.1005, 33.4973
3.416, 6, 33.7439, 53.3627, -11.5625, 92.6091, -76.1475, 33.5173
3.42, 6, 33.7294, 53.3524, -11.5061, 92.5617, -76.1945, 33.5372
3.424, 6, 33.7149, 53.342, -11.4496, 92.5143, -76.2416, 33.557
3.428, 6, 33.7004, 53.3315, -11.393, 92.4669, -76.2886, 33.5768
3.432, 6, 33.6859, 53.321, -11.3365, 92.4196, -76.3357, 33.5965
3.436, 6, 33.6714, 53.3105, -11.2799, 92.3723, -76.3828, 33.6161
3.439, 6, 33.6568, 53.2999, -11.2232, 92.3249, -76.4298, 33.6357
3.444, 6, 33.6422, 53.2892, -11.1666, 92.2776, -76.477, 33.6552
3.448, 6, 33.6276, 53.2785, -11.1099, 92.2304, -76.5241, 33.6746
3.452, 6, 33.613, 53.2677, -11.0532, 92.1831, -76.5712, 33.694
3.456, 6, 33.5984, 53.2569, -10.9964, 92.1358, -76.6183, 33.7134
3.46, 6, 33.5837, 53.2461, -10.9396, 92.0886, -76.6655, 33.7326
3.464, 6, 33.569, 53.2352, -10.8828, 92.0414, -76.7127, 33.7518
3.468, 6, 33.5544, 53.2242, -10.8259, 91.9942, -76.7599, 33.7709
3.472, 6, 33.5396, 53.2132, -10.769, 91.947, -76.807, 33.79
3.476, 6, 33.5249, 53.2022, -10.7121, 91.8998, -76.8543, 33.809
3.48, 6, 33.5102, 53.1911, -10.6551, 91.8526, -76.9015, 33.828
3.484, 6, 33.4954, 53.1799, -10.5981, 91.8055, -76.9487, 33.8468
3.488, 6, 33.4806, 53.1687, -10.5411, 91.7583, -76.9959, 33.8656
3.492, 6, 33.4658, 53.1575, -10.4841, 91.7112, -77.0432, 33.8844
3.495, 6, 33.451, 53.1462, -10.427, 91.6641, -77.0905, 33.9031
3.5, 6, 33.4362, 53.1348, -10.3699, 91.617, -77.1378, 33.9217
3.504, 6, 33.4213, 53.1234, -10.3127, 91.57, -77.1851, 33.9402
3.508, 6, 33.4065, 53.112, -10.2555, 91.5229, -77.2324, 33.9587
3.512, 6, 33.3916, 53.1005, -10.1983, 91.4759, -77.2797, 33.9772
3.516, 6, 33.3767, 53.0889, -10.1411, 91.4288, -77.327, 33.9955
3.52, 6, 33.3618, 53.0774, -10.0838, 91.3818, -77.3744, 34.0138
3.524, 6, 33.3468, 53.0657, -10.0265, 91.3348, -77.4217, 34.032
3.528, 6, 33.3319, 53.054, -9.96915, 91.2878, -77.4691, 34.0502
3.531, 6, 33.3169, 53.0423, -9.91179, 91.2408, -77.5165, 34.0683
3.536, 6, 33.3019, 53.0305, -9.85439, 91.1939, -77.5639, 34.0863
3.54, 6, 33.2869, 53.0186, -9.79696, 91.1469, -77.6113, 34.1043
3.544, 6, 33.2719, 53.0067, -9.7395, 91.1, -77.6587, 34.1222
3.548, 6, 33.2568, 52.9948, -9.68201, 91.0531, -77.7061, 34.14
3.552, 6, 33.2418, 52.9828, -9.62449, 91.0062, -77.7535, 34.1578
3.556, 6, 33.2267, 52.9707, -9.56694, 90.9593, -77.801, 34.1755
3.56, 6, 33.2116, 52.9586, -9.50936, 90.9124, -77.8485, 34.1931
3.564, 6, 33.1966, 52.9465, -9.45176, 90.8655, -77.8959, 34.2107
3.568, 6, 33.1819, 52.9343, -9.39416, 90.8187, -77.9434, 34.2282
3.572, 6, 33.1674, 52.922, -9.33661, 90.7719, -77.9908, 34.2456
3.576, 6, 33.1535, 52.9096, -9.27917, 90.7252, -78.0382, 34.2629
3.58, 6, 33.14, 52.8972, -9.22196, 90.6787, -78.0854, 34.2801
3.584, 6, 33.1272, 52.8847, -9.16513, 90.6325, -78.1323, 34.2971
3.587, 6, 33.1149, 52.8723, -9.1089, 90.5867, -78.1787, 34.3139
3.592, 6, 33.103, 52.86, -9.05352, 90.5416, -78.2245, 34.3305
3.596, 6, 33.0916, 52.8478, -8.99929, 90.4975, -78.2693, 34.3466
3.6, 6, 33.0805, 52.8359, -8.94655, 90.4545, -78.313, 34.3622
3.604, 6, 33.0699, 52.8244, -8.89568, 90.4131, -78.355, 34.3772
3.608, 6, 33.0597, 52.8133, -8.84704, 90.3735, -78.3953, 34.3916
3.612, 6, 33.0501, 52.8028, -8.80103, 90.336, -78.4334, 34.4051
3.616, 6, 33.0409, 52.793, -8.75799, 90.301, -78.4689, 34.4177
3.62, 6, 33.0321, 52.784, -8.71824, 90.2687, -78.5018, 34.4293
3.624, 6, 33.0237, 52.7758, -8.68202, 90.2394, -78.5317, 34.4399
3.628, 6, 33.0156, 52.7687, -8.64951, 90.2131, -78.5584, 34.4493
3.632, 6, 33.0079, 52.7625, -8.62077, 90.19, -78.582, 34.4575
3.636, 6, 33.0004, 52.7572, -8.59578, 90.17, -78.6024, 34.4647
3.64, 6, 32.9934, 52.7528, -8.57442, 90.153, -78.6198, 34.4707
3.644, 6, 32.9869, 52.7493, -8.5565, 90.1388, -78.6343, 34.4758
3.648, 6, 32.9809, 52.7465, -8.54175, 90.1273, -78.6462, 34.4799
3.652, 6, 32.9753, 52.7444, -8.52985, 90.118, -78.6557, 34.4832
3.656, 6, 32.9702, 52.7428, -8.52045, 90.1108, -78.6632, 34.4857
3.66, 6, 32.9655, 52.7417, -8.51319, 90.1053, -78.6689, 34.4877
3.664, 6, 32.9611, 52.741, -8.5077, 90.1012, -78.6732, 34.4891
3.668, 6, 32.9573, 52.7405, -8.50366, 90.0982, -78.6763, 34.4902
3.672, 7, 32.9541, 52.7402, -8.50074, 90.0961, -78.6785, 34.4909
3.676, 7, 32.9514, 52.7401, -8.49867, 90.0946, -78.68, 34.4915
3.679, 7, 32.9494, 52.74, -8.49724, 90.0936, -78.6811, 34.4918
3.684, 7, 32.9479, 52.7399, -8.49626, 90.0929, -78.6818, 34.4921
3.688, 7, 32.9468, 52.7399, -8.49559, 90.0924, -78.6823, 34.4922
3.692, 7, 32.9461, 52.7398, -8.49514, 90.0921, -78.6826, 34.4923
3.696, 7, 32.9456, 52.7398, -8.49483, 90.0919, -78.6829, 34.4924
3.7, 7, 32.9453, 52.7398, -8.49463, 90.0918, -78.683, 34.4925
3.704, 7, 32.9451, 52.7398, -8.49448, 90.0917, -78.6831, 34.4925
3.708, 7, 32.945, 52.7398, -8.49439, 90.0916, -78.6832, 34.4925
3.712, 7, 32.9449, 52.7398, -8.49432, 90.0916, -78.6832, 34.4925
3.716, 7, 32.9448, 52.7398, -8.49428, 90.0915, -78.6833, 34.4925
3.72, 7, 32.9447, 52.7398, -8.49425, 90.0915, -78.6833, 34.4925
3.724, 7, 32.9447, 52.7398, -8.49423, 90.0915, -78.6833, 34.4926
3.728, 7, 32.9447, 52.7398, -8.49422, 90.0915, -78.6833, 34.4926
3.732, 7, 32.9447, 52.7398, -8.49421, 90.0915, -78.6833, 34.4926
3.735, 7, 32.9447, 52.7398, -8.4942, 90.0915, -78.6833, 34.4926
3.74, 7, 32.9447, 52.7398, -8.4942, 90.0915, -78.6833, 34.4926
3.744, 7, 32.9447, 52.7398, -8.4942, 90.0915, -78.6833, 34.4926
3.748, 7, 32.9447, 52.7398, -8.49419, 90.0915, -78.6833, 34.4926
3.752, 7, 32.9447, 52.7398, -8.49419, 90.0915, -78.6833, 34.4926
3.756, 7, 32.9446, 52.7398, -8.49419, 90.0915, -78.6833, 34.4926
3.76, 7, 32.9446, 52.7398, -8.49419, 90.0915, -78.6833, 34.4926
3.764, 7, 32.9446, 52.7398, -8.49419, 90.0915, -78.6833, 34.4926
3.768, 7, 32.9446, 52.7398, -8.49419, 90.0915, -78.6833, 34.4926
3.772, 7, 32.9446, 52.7398, -8.49419, 90.0915, -78.6833, 34.4926
3.776, 7, 32.9446, 52.7398, -8.49419, 90.0915, -78.6833, 34.4926
3.78, 7, 32.9446, 52.7398, -8.49419, 90.0915, -78.6833, 34.4926
3.784, 7, 32.9446, 52.7398, -8.49419, 90.0915, -78.6833, 34.4926
3.788, 7, 32.9446, 52.7398, -8.49419, 90.0915, -78.6833, 34.4926
