hehonglu123/ABB_Primitive_Study/execution/movec/curve_exe_v200_z10.csv
timestamp, cmd_num, J1, J2, J3, J4, J5, J6
0, 1, 32.9528, 52.8019, -8.46502, 89.9168, -78.8096, 34.6812
0.002, 1, 32.9528, 52.8019, -8.46502, 89.9168, -78.8096, 34.6812
0.004, 1, 32.9528, 52.8019, -8.46502, 89.9168, -78.8096, 34.6812
0.008, 1, 32.9528, 52.8019, -8.46502, 89.9168, -78.8096, 34.6812
0.011, 1, 32.9528, 52.8019, -8.46502, 89.9168, -78.8096, 34.6812
0.016, 1, 32.9528, 52.8019, -8.46502, 89.9168, -78.8096, 34.6812
0.02, 1, 32.9528, 52.8019, -8.46502, 89.9168, -78.8096, 34.6812
0.024, 1, 32.9528, 52.8019, -8.46502, 89.9168, -78.8096, 34.6812
0.028, 1, 32.9528, 52.8019, -8.46502, 89.9168, -78.8096, 34.6812
0.032, 1, 32.9528, 52.8019, -8.46502, 89.9168, -78.8096, 34.6812
0.036, 1, 32.9528, 52.8019, -8.46502, 89.9168, -78.8096, 34.6812
0.04, 1, 32.9529, 52.8019, -8.46502, 89.9168, -78.8096, 34.6812
0.044, 1, 32.9531, 52.8018, -8.46503, 89.9168, -78.8095, 34.6812
0.048, 1, 32.9535, 52.8014, -8.46504, 89.9169, -78.8095, 34.6812
0.052, 1, 32.9543, 52.8006, -8.46509, 89.9169, -78.8093, 34.6813
0.056, 1, 32.9556, 52.7993, -8.46521, 89.917, -78.8088, 34.6815
0.06, 1, 32.9574, 52.7971, -8.46543, 89.9173, -78.8079, 34.6818
0.064, 1, 32.9597, 52.794, -8.46584, 89.9178, -78.8061, 34.6824
0.068, 1, 32.9625, 52.7899, -8.46653, 89.9186, -78.803, 34.6835
0.072, 1, 32.9659, 52.7849, -8.46761, 89.92, -78.798, 34.6852
0.076, 1, 32.9697, 52.7789, -8.46923, 89.922, -78.7905, 34.6877
0.08, 1, 32.9741, 52.7719, -8.47155, 89.925, -78.7796, 34.6915
0.084, 1, 32.9791, 52.7639, -8.47475, 89.9292, -78.7644, 34.6967
0.088, 1, 32.9847, 52.7549, -8.47904, 89.9348, -78.744, 34.7037
0.092, 1, 32.991, 52.7451, -8.48461, 89.9421, -78.7174, 34.7128
0.096, 1, 32.9978, 52.7344, -8.49169, 89.9515, -78.6834, 34.7244
0.1, 1, 33.005, 52.7231, -8.50046, 89.9631, -78.6411, 34.7389
0.104, 1, 33.0126, 52.7112, -8.51109, 89.9773, -78.5897, 34.7566
0.108, 1, 33.0204, 52.699, -8.5237, 89.9942, -78.5285, 34.7775
0.112, 1, 33.0284, 52.6863, -8.53837, 90.0139, -78.4572, 34.802
0.116, 1, 33.0368, 52.673, -8.55512, 90.0364, -78.3757, 34.8299
0.12, 1, 33.0455, 52.6592, -8.57391, 90.0617, -78.2841, 34.8613
0.124, 1, 33.0546, 52.6447, -8.59467, 90.0896, -78.183, 34.896
0.128, 1, 33.0642, 52.6296, -8.61726, 90.12, -78.0728, 34.9337
0.131, 1, 33.0741, 52.6139, -8.64153, 90.1527, -77.9545, 34.9743
0.136, 1, 33.0844, 52.5977, -8.6673, 90.1875, -77.8288, 35.0174
0.139, 1, 33.0949, 52.5809, -8.69437, 90.2239, -77.6968, 35.0627
0.144, 1, 33.1058, 52.5633, -8.72251, 90.2618, -77.5596, 35.1097
0.148, 1, 33.1172, 52.5447, -8.75152, 90.3009, -77.4182, 35.1582
0.152, 1, 33.1293, 52.525, -8.7812, 90.3408, -77.2736, 35.2077
0.156, 1, 33.1421, 52.5041, -8.81138, 90.3814, -77.1267, 35.2581
0.16, 1, 33.1556, 52.4819, -8.8419, 90.4224, -76.9782, 35.309
0.164, 1, 33.17, 52.4586, -8.87265, 90.4637, -76.8286, 35.3603
0.168, 1, 33.1849, 52.4345, -8.90354, 90.5052, -76.6784, 35.4118
0.172, 1, 33.2004, 52.4098, -8.9345, 90.5467, -76.5279, 35.4634
0.176, 1, 33.2161, 52.3847, -8.9655, 90.5883, -76.3772, 35.515
0.18, 1, 33.2321, 52.3594, -8.9965, 90.6299, -76.2265, 35.5667
0.184, 1, 33.2481, 52.334, -9.02748, 90.6715, -76.076, 35.6183
0.188, 1, 33.2643, 52.3084, -9.05844, 90.713, -75.9256, 35.6699
0.192, 1, 33.2805, 52.2828, -9.08935, 90.7545, -75.7754, 35.7214
0.196, 1, 33.2967, 52.2573, -9.12022, 90.7959, -75.6254, 35.7728
0.2, 1, 33.3129, 52.2317, -9.15103, 90.8372, -75.4757, 35.8241
0.204, 1, 33.3291, 52.2061, -9.1818, 90.8785, -75.3262, 35.8753
0.208, 1, 33.3453, 52.1806, -9.21251, 90.9197, -75.177, 35.9265
0.212, 1, 33.3614, 52.1551, -9.24316, 90.9608, -75.028, 35.9775
0.216, 1, 33.3776, 52.1296, -9.27376, 91.0018, -74.8794, 36.0285
0.22, 1, 33.3937, 52.1042, -9.3043, 91.0428, -74.731, 36.0794
0.224, 1, 33.4098, 52.0788, -9.33479, 91.0837, -74.5829, 36.1302
0.228, 1, 33.4258, 52.0535, -9.36522, 91.1245, -74.435, 36.1808
0.232, 1, 33.4419, 52.0282, -9.3956, 91.1652, -74.2874, 36.2314
0.236, 1, 33.4579, 52.003, -9.42592, 91.2059, -74.1401, 36.2819
0.24, 1, 33.4738, 51.9778, -9.45618, 91.2465, -73.9931, 36.3323
0.244, 1, 33.4898, 51.9526, -9.48639, 91.287, -73.8463, 36.3826
0.248, 1, 33.5057, 51.9275, -9.51654, 91.3275, -73.6998, 36.4329
0.252, 1, 33.5216, 51.9025, -9.54664, 91.3678, -73.5536, 36.483
0.256, 1, 33.5374, 51.8774, -9.57668, 91.4081, -73.4076, 36.533
0.26, 1, 33.5533, 51.8525, -9.60667, 91.4483, -73.2619, 36.583
0.264, 1, 33.5691, 51.8276, -9.6366, 91.4885, -73.1165, 36.6328
0.268, 1, 33.5848, 51.8027, -9.66649, 91.5286, -72.9713, 36.6826
0.272, 1, 33.6006, 51.7778, -9.69631, 91.5686, -72.8264, 36.7323
0.276, 1, 33.6163, 51.7531, -9.72609, 91.6085, -72.6817, 36.7819
0.28, 1, 33.632, 51.7283, -9.75581, 91.6484, -72.5373, 36.8314
0.284, 1, 33.6476, 51.7036, -9.78547, 91.6882, -72.3932, 36.8808
0.288, 1, 33.6633, 51.679, -9.81509, 91.7279, -72.2493, 36.9301
0.292, 1, 33.6789, 51.6544, -9.84465, 91.7675, -72.1057, 36.9794
0.296, 1, 33.6945, 51.6298, -9.87416, 91.8071, -71.9623, 37.0285
0.3, 1, 33.71, 51.6053, -9.90362, 91.8466, -71.8191, 37.0776
0.304, 1, 33.7255, 51.5808, -9.93303, 91.8861, -71.6763, 37.1265
0.308, 1, 33.741, 51.5563, -9.96238, 91.9255, -71.5336, 37.1754
0.312, 1, 33.7565, 51.5319, -9.99169, 91.9648, -71.3913, 37.2243
0.316, 1, 33.7719, 51.5076, -10.0209, 92.004, -71.2491, 37.273
0.32, 1, 33.7873, 51.4833, -10.0501, 92.0432, -71.1073, 37.3216
0.324, 1, 33.8027, 51.459, -10.0793, 92.0823, -70.9656, 37.3702
0.328, 1, 33.8181, 51.4348, -10.1084, 92.1213, -70.8242, 37.4186
0.332, 1, 33.8334, 51.4106, -10.1374, 92.1603, -70.6831, 37.467
0.336, 1, 33.8487, 51.3864, -10.1665, 92.1992, -70.5422, 37.5153
0.34, 1, 33.864, 51.3623, -10.1954, 92.238, -70.4015, 37.5636
0.344, 1, 33.8793, 51.3383, -10.2243, 92.2768, -70.261, 37.6117
0.348, 1, 33.8945, 51.3142, -10.2532, 92.3155, -70.1209, 37.6598
0.352, 1, 33.9097, 51.2903, -10.282, 92.3541, -69.9809, 37.7077
0.356, 1, 33.9249, 51.2663, -10.3107, 92.3927, -69.8412, 37.7556
0.36, 1, 33.94, 51.2424, -10.3394, 92.4312, -69.7017, 37.8034
0.364, 1, 33.9552, 51.2186, -10.3681, 92.4696, -69.5624, 37.8512
0.368, 1, 33.9703, 51.1947, -10.3967, 92.508, -69.4234, 37.8988
0.372, 1, 33.9853, 51.171, -10.4253, 92.5463, -69.2846, 37.9464
0.376, 1, 34.0004, 51.1472, -10.4538, 92.5846, -69.1461, 37.9939
0.38, 1, 34.0154, 51.1235, -10.4823, 92.6228, -69.0078, 38.0413
0.384, 1, 34.0304, 51.0998, -10.5107, 92.6609, -68.8697, 38.0887
0.388, 1, 34.0454, 51.0762, -10.5391, 92.6989, -68.7318, 38.1359
0.392, 1, 34.0604, 51.0526, -10.5674, 92.7369, -68.5941, 38.1831
0.396, 1, 34.0753, 51.0291, -10.5957, 92.7749, -68.4567, 38.2302
0.4, 1, 34.0902, 51.0056, -10.6239, 92.8127, -68.3195, 38.2773
0.404, 1, 34.1051, 50.9821, -10.6521, 92.8506, -68.1826, 38.3242
0.408, 1, 34.1199, 50.9587, -10.6803, 92.8883, -68.0458, 38.3711
0.412, 1, 34.1348, 50.9353, -10.7084, 92.926, -67.9093, 38.4179
0.416, 1, 34.1496, 50.9119, -10.7364, 92.9636, -67.773, 38.4646
0.42, 1, 34.1643, 50.8886, -10.7644, 93.0012, -67.6369, 38.5113
0.424, 1, 34.1791, 50.8653, -10.7924, 93.0387, -67.501, 38.5579
0.428, 1, 34.1938, 50.8421, -10.8203, 93.0762, -67.3653, 38.6044
0.432, 1, 34.2086, 50.8189, -10.8482, 93.1136, -67.2299, 38.6508
0.436, 1, 34.2232, 50.7957, -10.876, 93.1509, -67.0947, 38.6971
0.44, 1, 34.2379, 50.7726, -10.9038, 93.1881, -66.9597, 38.7434
0.444, 1, 34.2526, 50.7495, -10.9315, 93.2254, -66.8249, 38.7896
0.448, 1, 34.2672, 50.7264, -10.9592, 93.2625, -66.6903, 38.8358
0.452, 1, 34.2818, 50.7034, -10.9869, 93.2996, -66.5559, 38.8818
0.456, 1, 34.2964, 50.6804, -11.0145, 93.3367, -66.4217, 38.9278
0.46, 1, 34.3109, 50.6574, -11.0421, 93.3736, -66.2878, 38.9738
0.464, 1, 34.3254, 50.6345, -11.0696, 93.4106, -66.154, 39.0196
0.468, 1, 34.3399, 50.6116, -11.0971, 93.4474, -66.0204, 39.0654
0.472, 1, 34.3544, 50.5888, -11.1246, 93.4842, -65.8871, 39.1111
0.476, 1, 34.3689, 50.566, -11.152, 93.521, -65.754, 39.1567
0.48, 1, 34.3833, 50.5432, -11.1793, 93.5577, -65.621, 39.2023
0.484, 1, 34.3978, 50.5204, -11.2066, 93.5943, -65.4883, 39.2478
0.488, 1, 34.4121, 50.4977, -11.2339, 93.6309, -65.3558, 39.2933
0.492, 1, 34.4265, 50.475, -11.2612, 93.6675, -65.2234, 39.3386
0.496, 1, 34.4409, 50.4524, -11.2883, 93.7039, -65.0913, 39.3839
0.5, 1, 34.4552, 50.4298, -11.3155, 93.7404, -64.9594, 39.4291
0.504, 1, 34.4695, 50.4072, -11.3426, 93.7767, -64.8276, 39.4743
0.508, 1, 34.4838, 50.3847, -11.3697, 93.813, -64.6961, 39.5194
0.512, 1, 34.4981, 50.3622, -11.3967, 93.8493, -64.5647, 39.5644
0.516, 1, 34.5123, 50.3397, -11.4237, 93.8855, -64.4336, 39.6094
0.52, 1, 34.5265, 50.3173, -11.4507, 93.9217, -64.3026, 39.6543
0.524, 1, 34.5408, 50.2949, -11.4776, 93.9578, -64.1719, 39.6991
0.528, 1, 34.5549, 50.2725, -11.5045, 93.9938, -64.0413, 39.7439
0.532, 1, 34.5691, 50.2501, -11.5313, 94.0298, -63.9109, 39.7886
0.536, 1, 34.5832, 50.2278, -11.5581, 94.0657, -63.7807, 39.8332
0.54, 1, 34.5974, 50.2056, -11.5848, 94.1016, -63.6507, 39.8777
0.544, 1, 34.6115, 50.1833, -11.6116, 94.1375, -63.5209, 39.9222
0.548, 1, 34.6255, 50.1611, -11.6382, 94.1732, -63.3913, 39.9667
0.552, 1, 34.6396, 50.1389, -11.6649, 94.209, -63.2619, 40.0111
0.556, 1, 34.6536, 50.1168, -11.6915, 94.2447, -63.1326, 40.0554
0.56, 1, 34.6677, 50.0947, -11.718, 94.2803, -63.0036, 40.0996
0.564, 1, 34.6817, 50.0726, -11.7446, 94.3159, -62.8747, 40.1438
0.568, 1, 34.6956, 50.0505, -11.7711, 94.3514, -62.746, 40.1879
0.572, 1, 34.7096, 50.0285, -11.7975, 94.3869, -62.6175, 40.2319
0.576, 1, 34.7235, 50.0065, -11.8239, 94.4223, -62.4892, 40.2759
0.58, 1, 34.7375, 49.9846, -11.8503, 94.4577, -62.361, 40.3199
0.584, 1, 34.7514, 49.9626, -11.8766, 94.493, -62.2331, 40.3637
0.588, 1, 34.7652, 49.9407, -11.9029, 94.5283, -62.1053, 40.4075
0.592, 1, 34.7791, 49.9189, -11.9292, 94.5635, -61.9777, 40.4513
0.596, 1, 34.7929, 49.897, -11.9554, 94.5987, -61.8503, 40.495
0.6, 1, 34.8068, 49.8752, -11.9816, 94.6338, -61.723, 40.5386
0.604, 1, 34.8206, 49.8535, -12.0078, 94.6689, -61.5959, 40.5821
0.608, 1, 34.8343, 49.8317, -12.0339, 94.7039, -61.4691, 40.6256
0.612, 1, 34.8481, 49.81, -12.0599, 94.7389, -61.3423, 40.6691
0.616, 1, 34.8618, 49.7883, -12.086, 94.7738, -61.2158, 40.7125
0.62, 1, 34.8756, 49.7667, -12.112, 94.8087, -61.0894, 40.7558
0.624, 1, 34.8893, 49.7451, -12.138, 94.8435, -60.9632, 40.799
0.628, 1, 34.903, 49.7235, -12.1639, 94.8783, -60.8372, 40.8422
0.632, 1, 34.9166, 49.7019, -12.1898, 94.9131, -60.7114, 40.8854
0.636, 1, 34.9303, 49.6804, -12.2157, 94.9478, -60.5857, 40.9284
0.64, 1, 34.9439, 49.6589, -12.2415, 94.9824, -60.4602, 40.9715
0.644, 1, 34.9575, 49.6374, -12.2673, 95.017, -60.3349, 41.0144
0.648, 1, 34.9711, 49.6159, -12.2931, 95.0516, -60.2097, 41.0573
0.652, 1, 34.9847, 49.5945, -12.3188, 95.0861, -60.0847, 41.1002
0.656, 1, 34.9983, 49.5731, -12.3445, 95.1205, -59.9599, 41.143
0.66, 1, 35.0118, 49.5518, -12.3701, 95.1549, -59.8352, 41.1857
0.664, 1, 35.0253, 49.5304, -12.3958, 95.1893, -59.7107, 41.2284
0.668, 1, 35.0388, 49.5091, -12.4214, 95.2236, -59.5864, 41.271
0.672, 1, 35.0523, 49.4879, -12.4469, 95.2579, -59.4622, 41.3136
0.676, 1, 35.0658, 49.4666, -12.4724, 95.2921, -59.3382, 41.3561
0.68, 1, 35.0792, 49.4454, -12.4979, 95.3263, -59.2144, 41.3985
0.684, 1, 35.0927, 49.4242, -12.5234, 95.3605, -59.0907, 41.4409
0.688, 1, 35.1061, 49.4031, -12.5488, 95.3946, -58.9672, 41.4833
0.692, 1, 35.1195, 49.3819, -12.5742, 95.4286, -58.8439, 41.5256
0.696, 1, 35.1329, 49.3608, -12.5995, 95.4626, -58.7207, 41.5678
0.7, 1, 35.1462, 49.3397, -12.6249, 95.4966, -58.5977, 41.61
0.704, 1, 35.1596, 49.3187, -12.6501, 95.5305, -58.4748, 41.6521
0.708, 1, 35.1729, 49.2977, -12.6754, 95.5644, -58.3521, 41.6941
0.712, 1, 35.1862, 49.2767, -12.7006, 95.5982, -58.2296, 41.7361
0.716, 1, 35.1995, 49.2557, -12.7258, 95.632, -58.1072, 41.7781
0.72, 1, 35.2128, 49.2347, -12.751, 95.6657, -57.985, 41.82
0.724, 1, 35.226, 49.2138, -12.7761, 95.6994, -57.8629, 41.8618
0.728, 1, 35.2393, 49.1929, -12.8012, 95.7331, -57.741, 41.9036
0.732, 1, 35.2525, 49.1721, -12.8262, 95.7667, -57.6192, 41.9454
0.736, 1, 35.2657, 49.1512, -12.8513, 95.8003, -57.4976, 41.9871
0.74, 1, 35.2789, 49.1304, -12.8763, 95.8338, -57.3762, 42.0287
0.744, 1, 35.2921, 49.1097, -12.9012, 95.8673, -57.2549, 42.0703
0.748, 1, 35.3052, 49.0889, -12.9262, 95.9007, -57.1338, 42.1118
0.752, 1, 35.3184, 49.0682, -12.9511, 95.9341, -57.0128, 42.1533
0.756, 1, 35.3315, 49.0475, -12.9759, 95.9675, -56.8919, 42.1947
0.76, 1, 35.3446, 49.0268, -13.0008, 96.0008, -56.7712, 42.2361
0.764, 1, 35.3577, 49.0061, -13.0256, 96.0341, -56.6507, 42.2774
0.768, 1, 35.3708, 48.9855, -13.0504, 96.0673, -56.5303, 42.3187
0.772, 1, 35.3838, 48.9649, -13.0751, 96.1005, -56.4101, 42.3599
0.776, 1, 35.3969, 48.9443, -13.0998, 96.1336, -56.29, 42.401
0.78, 1, 35.4099, 48.9238, -13.1245, 96.1667, -56.1701, 42.4422
0.784, 1, 35.4229, 48.9032, -13.1492, 96.1998, -56.0503, 42.4832
0.788, 1, 35.4359, 48.8827, -13.1738, 96.2328, -55.9307, 42.5242
0.792, 1, 35.4489, 48.8623, -13.1984, 96.2658, -55.8112, 42.5652
0.796, 1, 35.4619, 48.8418, -13.2229, 96.2988, -55.6918, 42.6061
0.8, 1, 35.4748, 48.8214, -13.2475, 96.3317, -55.5726, 42.647
0.804, 1, 35.4877, 48.801, -13.272, 96.3645, -55.4535, 42.6878
0.808, 1, 35.5006, 48.7806, -13.2965, 96.3974, -55.3346, 42.7285
0.812, 1, 35.5136, 48.7603, -13.3209, 96.4302, -55.2159, 42.7693
0.816, 1, 35.5264, 48.7399, -13.3453, 96.4629, -55.0972, 42.8099
0.82, 1, 35.5393, 48.7196, -13.3697, 96.4956, -54.9787, 42.8506
0.824, 1, 35.5522, 48.6994, -13.3941, 96.5283, -54.8604, 42.8911
0.828, 1, 35.565, 48.6791, -13.4184, 96.5609, -54.7422, 42.9316
0.832, 1, 35.5778, 48.6589, -13.4427, 96.5935, -54.6241, 42.9721
0.836, 1, 35.5906, 48.6387, -13.467, 96.6261, -54.5062, 43.0125
0.84, 1, 35.6034, 48.6185, -13.4912, 96.6586, -54.3884, 43.0529
0.844, 1, 35.6162, 48.5983, -13.5154, 96.6911, -54.2707, 43.0933
0.848, 1, 35.629, 48.5782, -13.5396, 96.7235, -54.1532, 43.1335
0.852, 1, 35.6417, 48.5581, -13.5638, 96.7559, -54.0358, 43.1738
0.856, 1, 35.6545, 48.538, -13.5879, 96.7883, -53.9186, 43.214
0.86, 1, 35.6672, 48.5179, -13.612, 96.8206, -53.8015, 43.2541
0.864, 1, 35.6799, 48.4979, -13.6361, 96.8529, -53.6845, 43.2942
0.868, 1, 35.6925, 48.4779, -13.6601, 96.8852, -53.5677, 43.3343
0.872, 1, 35.7051, 48.458, -13.6841, 96.9174, -53.451, 43.3743
0.876, 1, 35.7176, 48.4381, -13.7081, 96.9496, -53.3345, 43.4142
0.88, 1, 35.73, 48.4184, -13.7321, 96.9817, -53.2181, 43.4541
0.884, 1, 35.7419, 48.3992, -13.756, 97.0137, -53.102, 43.4939
0.888, 1, 35.7533, 48.3805, -13.7798, 97.0457, -52.9863, 43.5336
0.892, 1, 35.7641, 48.3627, -13.8035, 97.0775, -52.8712, 43.5731
0.896, 1, 35.7742, 48.3457, -13.8269, 97.109, -52.757, 43.6122
0.9, 1, 35.7836, 48.3297, -13.8501, 97.1401, -52.6444, 43.6508
0.904, 1, 35.7924, 48.3145, -13.8728, 97.1706, -52.534, 43.6887
0.908, 1, 35.8007, 48.3002, -13.895, 97.2003, -52.4264, 43.7256
0.912, 1, 35.8087, 48.2866, -13.9163, 97.229, -52.3226, 43.7613
0.916, 1, 35.8164, 48.2736, -13.9367, 97.2564, -52.2234, 43.7953
0.92, 1, 35.8238, 48.2613, -13.956, 97.2823, -52.1296, 43.8275
0.924, 1, 35.8309, 48.2497, -13.9741, 97.3065, -52.042, 43.8576
0.928, 1, 35.8377, 48.2387, -13.9907, 97.3288, -51.9612, 43.8853
0.932, 1, 35.8442, 48.2281, -14.0057, 97.3491, -51.888, 43.9104
0.936, 1, 35.8507, 48.2178, -14.0192, 97.3671, -51.8226, 43.9328
0.94, 1, 35.8571, 48.2077, -14.031, 97.3829, -51.7653, 43.9524
0.944, 1, 35.8634, 48.1979, -14.0412, 97.3966, -51.716, 43.9693
0.948, 1, 35.8695, 48.1884, -14.0498, 97.4081, -51.6743, 43.9836
0.952, 1, 35.8755, 48.1793, -14.0569, 97.4175, -51.6399, 43.9954
0.956, 2, 35.8812, 48.1708, -14.0626, 97.4252, -51.612, 44.0049
0.96, 2, 35.8865, 48.1631, -14.0672, 97.4313, -51.5899, 44.0124
0.964, 2, 35.8915, 48.1562, -14.0707, 97.436, -51.5728, 44.0183
0.968, 2, 35.896, 48.1502, -14.0734, 97.4396, -51.5598, 44.0227
0.972, 2, 35.9001, 48.145, -14.0754, 97.4422, -51.5503, 44.0259
0.976, 2, 35.9037, 48.1406, -14.0768, 97.4441, -51.5433, 44.0283
0.98, 2, 35.9067, 48.1371, -14.0778, 97.4454, -51.5385, 44.0299
0.984, 2, 35.9091, 48.1343, -14.0785, 97.4463, -51.5351, 44.0311
0.988, 2, 35.911, 48.1323, -14.079, 97.4469, -51.5327, 44.0319
0.992, 2, 35.9123, 48.1308, -14.0793, 97.4474, -51.5312, 44.0324
0.996, 2, 35.9132, 48.1299, -14.0796, 97.4477, -51.5301, 44.0328
1, 2, 35.9138, 48.1292, -14.0797, 97.4479, -51.5294, 44.033
1.004, 2, 35.9142, 48.1287, -14.0798, 97.448, -51.5289, 44.0332
1.008, 2, 35.9145, 48.1284, -14.0799, 97.4481, -51.5285, 44.0333
1.012, 2, 35.9147, 48.1282, -14.0799, 97.4482, -51.5283, 44.0334
1.016, 2, 35.9149, 48.1281, -14.08, 97.4482, -51.5282, 44.0334
1.02, 2, 35.9149, 48.128, -14.08, 97.4482, -51.5281, 44.0335
1.024, 2, 35.915, 48.1279, -14.08, 97.4482, -51.528, 44.0335
1.027, 2, 35.915, 48.1279, -14.08, 97.4483, -51.5279, 44.0335
1.032, 2, 35.9151, 48.1278, -14.08, 97.4483, -51.5279, 44.0335
1.036, 2, 35.9151, 48.1278, -14.08, 97.4483, -51.5279, 44.0335
1.04, 2, 35.9151, 48.1278, -14.08, 97.4483, -51.5279, 44.0335
1.044, 2, 35.9151, 48.1278, -14.08, 97.4483, -51.5279, 44.0335
1.048, 2, 35.9151, 48.1278, -14.08, 97.4483, -51.5279, 44.0335
1.052, 2, 35.9151, 48.1278, -14.08, 97.4483, -51.5279, 44.0335
1.055, 2, 35.9151, 48.1278, -14.08, 97.4483, -51.5278, 44.0335
1.06, 2, 35.9151, 48.1278, -14.08, 97.4483, -51.5278, 44.0335
1.064, 2, 35.9151, 48.1278, -14.08, 97.4483, -51.5278, 44.0335
1.068, 2, 35.9151, 48.1278, -14.08, 97.4483, -51.5278, 44.0335
1.072, 2, 35.9151, 48.1278, -14.08, 97.4483, -51.5278, 44.0335
1.076, 2, 35.9151, 48.1278, -14.08, 97.4483, -51.5278, 44.0335
1.08, 2, 35.9151, 48.1278, -14.08, 97.4483, -51.5278, 44.0335
1.084, 2, 35.9151, 48.1278, -14.08, 97.4483, -51.5278, 44.0335
1.088, 2, 35.9151, 48.1278, -14.08, 97.4483, -51.5278, 44.0335
1.091, 2, 35.9151, 48.1278, -14.08, 97.4483, -51.5278, 44.0335
1.096, 2, 35.9151, 48.1278, -14.08, 97.4483, -51.5278, 44.0335
1.1, 2, 35.9151, 48.1278, -14.08, 97.4483, -51.5278, 44.0335
1.104, 2, 35.9151, 48.1278, -14.08, 97.4483, -51.5278, 44.0335
1.108, 2, 35.9151, 48.1278, -14.08, 97.4483, -51.5278, 44.0335
1.112, 2, 35.9151, 48.1278, -14.08, 97.4483, -51.5278, 44.0335
1.116, 2, 35.9151, 48.1278, -14.08, 97.4483, -51.5278, 44.0335
1.119, 2, 35.9151, 48.1278, -14.08, 97.4483, -51.5278, 44.0335
1.124, 2, 35.9151, 48.1278, -14.08, 97.4483, -51.5278, 44.0335
1.128, 2, 35.9151, 48.1278, -14.08, 97.4483, -51.5278, 44.0335
1.132, 2, 35.9151, 48.1278, -14.08, 97.4483, -51.5278, 44.0335
1.136, 2, 35.9151, 48.1278, -14.08, 97.4483, -51.5278, 44.0335
1.14, 2, 35.9151, 48.1278, -14.08, 97.4483, -51.5278, 44.0335
1.144, 2, 35.9151, 48.1278, -14.08, 97.4483, -51.5278, 44.0335
1.147, 2, 35.9151, 48.1278, -14.08, 97.4483, -51.5278, 44.0335
1.152, 2, 35.9151, 48.1278, -14.08, 97.4483, -51.5278, 44.0335
1.156, 2, 35.9151, 48.1278, -14.08, 97.4483, -51.5278, 44.0335
1.16, 2, 35.9151, 48.1278, -14.08, 97.4483, -51.5278, 44.0335
1.164, 2, 35.9151, 48.1278, -14.08, 97.4483, -51.5278, 44.0335
1.168, 2, 35.9151, 48.1278, -14.08, 97.4483, -51.5278, 44.0335
1.172, 2, 35.9151, 48.1278, -14.08, 97.4483, -51.5278, 44.0335
1.175, 2, 35.9151, 48.1278, -14.08, 97.4483, -51.5278, 44.0335
1.18, 2, 35.9151, 48.1278, -14.08, 97.4483, -51.5278, 44.0335
1.184, 2, 35.9151, 48.1278, -14.08, 97.4483, -51.5278, 44.0335
1.188, 2, 35.9151, 48.1278, -14.08, 97.4483, -51.5278, 44.0335
1.192, 2, 35.9151, 48.1278, -14.08, 97.4483, -51.5278, 44.0335
1.196, 2, 35.9151, 48.1278, -14.08, 97.4483, -51.5278, 44.0335
1.2, 2, 35.9151, 48.1278, -14.08, 97.4483, -51.5278, 44.0335
1.204, 2, 35.9151, 48.1278, -14.08, 97.4483, -51.5278, 44.0335
1.208, 2, 35.9151, 48.1278, -14.08, 97.4483, -51.5278, 44.0335
1.212, 2, 35.9151, 48.1278, -14.08, 97.4483, -51.5278, 44.0335
1.216, 2, 35.9151, 48.1278, -14.08, 97.4483, -51.5278, 44.0335
1.22, 2, 35.9151, 48.1278, -14.08, 97.4483, -51.5278, 44.0335
1.224, 2, 35.9151, 48.1278, -14.08, 97.4483, -51.5278, 44.0335
1.228, 2, 35.9151, 48.1278, -14.08, 97.4483, -51.5278, 44.0335
1.232, 2, 35.9151, 48.1278, -14.08, 97.4483, -51.5278, 44.0335
1.236, 2, 35.9151, 48.1278, -14.08, 97.4483, -51.5278, 44.0335
1.24, 2, 35.9151, 48.1278, -14.08, 97.4483, -51.5278, 44.0335
1.244, 2, 35.9151, 48.1278, -14.08, 97.4483, -51.5278, 44.0335
1.248, 2, 35.9151, 48.1278, -14.08, 97.4483, -51.5278, 44.0335
1.252, 2, 35.9151, 48.1278, -14.08, 97.4483, -51.5278, 44.0335
1.256, 2, 35.9151, 48.1278, -14.08, 97.4483, -51.5278, 44.0335
1.26, 2, 35.9151, 48.1278, -14.08, 97.4483, -51.5278, 44.0335
1.264, 2, 35.9151, 48.1278, -14.08, 97.4483, -51.5278, 44.0335
1.267, 2, 35.9151, 48.1278, -14.08, 97.4483, -51.5278, 44.0335
1.272, 2, 35.9151, 48.1278, -14.08, 97.4483, -51.5278, 44.0335
1.276, 2, 35.9151, 48.1278, -14.08, 97.4483, -51.5278, 44.0335
1.28, 2, 35.9151, 48.1278, -14.08, 97.4483, -51.5278, 44.0335
1.284, 2, 35.9151, 48.1278, -14.08, 97.4483, -51.5278, 44.0335
1.288, 2, 35.9151, 48.1278, -14.08, 97.4483, -51.5278, 44.0335
1.292, 2, 35.9151, 48.1278, -14.08, 97.4483, -51.5278, 44.0335
1.295, 2, 35.9151, 48.1278, -14.08, 97.4483, -51.5278, 44.0335
1.3, 2, 35.9151, 48.1278, -14.08, 97.4483, -51.5278, 44.0335
1.304, 2, 35.9151, 48.1278, -14.08, 97.4483, -51.5278, 44.0335
1.308, 2, 35.9151, 48.1278, -14.08, 97.4483, -51.5278, 44.0335
1.312, 2, 35.9151, 48.1278, -14.08, 97.4483, -51.5278, 44.0335
1.316, 2, 35.9151, 48.1278, -14.08, 97.4483, -51.5278, 44.0335
1.32, 2, 35.9151, 48.1278, -14.08, 97.4483, -51.5278, 44.0335
1.324, 2, 35.9151, 48.1278, -14.08, 97.4483, -51.5278, 44.0335
1.328, 2, 35.9151, 48.1278, -14.08, 97.4483, -51.5278, 44.0335
1.332, 2, 35.9151, 48.1278, -14.08, 97.4483, -51.5278, 44.0335
1.336, 2, 35.9151, 48.1278, -14.08, 97.4483, -51.5278, 44.0335
1.34, 2, 35.9151, 48.1278, -14.08, 97.4483, -51.5278, 44.0335
1.344, 2, 35.9151, 48.1278, -14.08, 97.4483, -51.5278, 44.0335
1.348, 2, 35.9151, 48.1278, -14.08, 97.4483, -51.5278, 44.0335
1.352, 2, 35.9151, 48.1278, -14.08, 97.4483, -51.5278, 44.0335
1.356, 2, 35.9151, 48.1278, -14.08, 97.4483, -51.5278, 44.0335
1.36, 2, 35.9151, 48.1278, -14.08, 97.4483, -51.5278, 44.0335
1.364, 2, 35.9151, 48.1278, -14.08, 97.4483, -51.5278, 44.0335
1.368, 2, 35.9151, 48.1278, -14.08, 97.4483, -51.5278, 44.0335
1.372, 2, 35.9151, 48.1278, -14.08, 97.4483, -51.5278, 44.0335
1.376, 2, 35.9151, 48.1278, -14.08, 97.4483, -51.5278, 44.0335
1.38, 2, 35.9151, 48.1278, -14.08, 97.4483, -51.5278, 44.0335
1.384, 2, 35.9151, 48.1278, -14.08, 97.4483, -51.5278, 44.0335
1.388, 2, 35.9151, 48.1278, -14.08, 97.4483, -51.5278, 44.0335
1.392, 2, 35.9151, 48.1278, -14.08, 97.4483, -51.5278, 44.0335
1.396, 2, 35.9151, 48.1278, -14.08, 97.4483, -51.5278, 44.0335
1.4, 2, 35.9151, 48.1278, -14.08, 97.4483, -51.5278, 44.0335
1.404, 2, 35.9151, 48.1278, -14.08, 97.4483, -51.5278, 44.0335
1.408, 2, 35.9151, 48.1278, -14.08, 97.4483, -51.5278, 44.0335
1.412, 2, 35.9151, 48.1278, -14.08, 97.4483, -51.5278, 44.0335
1.416, 2, 35.9151, 48.1278, -14.08, 97.4483, -51.5278, 44.0335
1.42, 2, 35.9151, 48.1278, -14.08, 97.4483, -51.5278, 44.0335
1.424, 2, 35.9151, 48.1278, -14.08, 97.4483, -51.5278, 44.0335
1.428, 2, 35.9151, 48.1278, -14.08, 97.4483, -51.5278, 44.0335
1.432, 2, 35.9151, 48.1278, -14.08, 97.4483, -51.5278, 44.0335
1.436, 2, 35.9151, 48.1278, -14.08, 97.4483, -51.5278, 44.0335
1.44, 2, 35.9151, 48.1278, -14.08, 97.4483, -51.5278, 44.0335
1.444, 2, 35.9151, 48.1278, -14.08, 97.4483, -51.5278, 44.0335
1.448, 2, 35.9151, 48.1278, -14.08, 97.4483, -51.5278, 44.0335
1.452, 2, 35.9151, 48.1278, -14.08, 97.4483, -51.5278, 44.0335
1.456, 3, 35.9151, 48.1278, -14.08, 97.4483, -51.5278, 44.0335
1.46, 3, 35.9151, 48.1278, -14.08, 97.4483, -51.5278, 44.0335
1.464, 3, 35.9151, 48.1278, -14.08, 97.4483, -51.5278, 44.0335
1.468, 3, 35.9151, 48.1278, -14.08, 97.4483, -51.5278, 44.0335
1.472, 3, 35.9151, 48.1278, -14.08, 97.4483, -51.5278, 44.0335
1.476, 3, 35.9151, 48.1278, -14.08, 97.4483, -51.5278, 44.0335
1.48, 3, 35.9151, 48.1278, -14.08, 97.4483, -51.5278, 44.0335
1.484, 3, 35.9151, 48.1278, -14.08, 97.4483, -51.5278, 44.0335
1.488, 3, 35.9151, 48.1278, -14.08, 97.4483, -51.5278, 44.0335
1.492, 3, 35.9151, 48.1278, -14.08, 97.4483, -51.5278, 44.0335
1.496, 3, 35.9151, 48.1278, -14.08, 97.4483, -51.5278, 44.0335
1.5, 3, 35.9151, 48.1278, -14.08, 97.4483, -51.5278, 44.0335
1.504, 3, 35.9151, 48.1278, -14.08, 97.4483, -51.5278, 44.0335
1.508, 3, 35.9151, 48.1278, -14.08, 97.4483, -51.5278, 44.0335
1.512, 4, 35.9151, 48.1278, -14.08, 97.4483, -51.5278, 44.0335
1.516, 4, 35.9151, 48.1278, -14.08, 97.4483, -51.5278, 44.0335
1.52, 4, 35.9151, 48.1278, -14.08, 97.4483, -51.5278, 44.0335
1.524, 4, 35.9151, 48.1278, -14.08, 97.4483, -51.5278, 44.0335
1.528, 4, 35.9151, 48.1278, -14.08, 97.4483, -51.5278, 44.0335
1.532, 4, 35.9151, 48.1278, -14.08, 97.4483, -51.5278, 44.0335
1.536, 4, 35.9151, 48.1278, -14.08, 97.4483, -51.5278, 44.0335
1.54, 4, 35.9151, 48.1278, -14.08, 97.4483, -51.5278, 44.0335
1.544, 4, 35.9151, 48.1278, -14.08, 97.4483, -51.5278, 44.0335
1.548, 4, 35.9151, 48.1278, -14.08, 97.4483, -51.5278, 44.0335
1.552, 4, 35.9151, 48.128, -14.08, 97.4483, -51.5279, 44.0335
1.556, 4, 35.915, 48.1283, -14.0801, 97.4483, -51.5279, 44.0335
1.56, 4, 35.9147, 48.1291, -14.0801, 97.4483, -51.528, 44.0334
1.564, 4, 35.9143, 48.1303, -14.0802, 97.4483, -51.5284, 44.0332
1.568, 4, 35.9138, 48.1322, -14.0804, 97.4484, -51.5291, 44.0327
1.572, 4, 35.913, 48.1348, -14.0806, 97.4485, -51.5305, 44.0319
1.576, 4, 35.9121, 48.1381, -14.0811, 97.4487, -51.5328, 44.0304
1.58, 4, 35.911, 48.1421, -14.0817, 97.449, -51.5366, 44.0281
1.584, 4, 35.9099, 48.1467, -14.0826, 97.4494, -51.5422, 44.0246
1.588, 4, 35.9087, 48.152, -14.0839, 97.4501, -51.5501, 44.0197
1.592, 4, 35.9075, 48.158, -14.0855, 97.4509, -51.5608, 44.0131
1.596, 4, 35.9064, 48.1647, -14.0876, 97.4519, -51.5748, 44.0045
1.6, 4, 35.9053, 48.1722, -14.0902, 97.4532, -51.5924, 43.9936
1.604, 4, 35.9043, 48.1805, -14.0933, 97.4548, -51.6139, 43.9803
1.608, 4, 35.9034, 48.1895, -14.097, 97.4566, -51.6396, 43.9645
1.612, 4, 35.9025, 48.1992, -14.1012, 97.4588, -51.6696, 43.9459
1.616, 4, 35.9017, 48.2095, -14.106, 97.4612, -51.704, 43.9248
1.62, 4, 35.9011, 48.2206, -14.1114, 97.4639, -51.7427, 43.901
1.624, 4, 35.9005, 48.2322, -14.1173, 97.4669, -51.7853, 43.8747
1.628, 4, 35.9, 48.2447, -14.1237, 97.47, -51.8317, 43.8463
1.632, 4, 35.8995, 48.2579, -14.1306, 97.4734, -51.8813, 43.8158
1.636, 4, 35.8989, 48.272, -14.1378, 97.4769, -51.9338, 43.7835
1.64, 4, 35.8983, 48.2869, -14.1453, 97.4805, -51.9888, 43.7499
1.644, 4, 35.8976, 48.3027, -14.1531, 97.4842, -52.0457, 43.715
1.648, 4, 35.8967, 48.3192, -14.1611, 97.488, -52.1043, 43.6792
1.652, 4, 35.8957, 48.3364, -14.1692, 97.4917, -52.1641, 43.6427
1.656, 4, 35.8945, 48.3541, -14.1775, 97.4955, -52.2249, 43.6056
1.66, 4, 35.8933, 48.3723, -14.1858, 97.4992, -52.2865, 43.5681
1.664, 4, 35.8919, 48.3909, -14.1942, 97.5029, -52.3486, 43.5303
1.668, 4, 35.8904, 48.4099, -14.2026, 97.5066, -52.4111, 43.4923
1.672, 4, 35.8888, 48.4291, -14.211, 97.5101, -52.4738, 43.4543
1.676, 4, 35.8872, 48.4486, -14.2194, 97.5136, -52.5367, 43.4162
1.68, 4, 35.8855, 48.4682, -14.2278, 97.5171, -52.5998, 43.378
1.684, 4, 35.8838, 48.4879, -14.2362, 97.5204, -52.6629, 43.3399
1.688, 4, 35.882, 48.5077, -14.2445, 97.5237, -52.726, 43.3018
1.692, 4, 35.8802, 48.5274, -14.2528, 97.5269, -52.7892, 43.2637
1.696, 4, 35.8784, 48.5472, -14.2611, 97.53, -52.8524, 43.2257
1.7, 4, 35.8765, 48.567, -14.2693, 97.5331, -52.9156, 43.1878
1.704, 4, 35.8747, 48.5868, -14.2775, 97.5361, -52.9788, 43.1498
1.708, 4, 35.8728, 48.6066, -14.2856, 97.5389, -53.042, 43.112
1.712, 4, 35.8709, 48.6264, -14.2937, 97.5417, -53.1052, 43.0742
1.716, 4, 35.869, 48.6461, -14.3017, 97.5445, -53.1684, 43.0364
1.72, 4, 35.8671, 48.6659, -14.3098, 97.5471, -53.2316, 42.9988
1.724, 4, 35.8651, 48.6856, -14.3177, 97.5497, -53.2947, 42.9612
1.728, 4, 35.8632, 48.7053, -14.3256, 97.5521, -53.3579, 42.9236
1.732, 4, 35.8612, 48.725, -14.3335, 97.5545, -53.421, 42.8861
1.736, 4, 35.8592, 48.7446, -14.3414, 97.5568, -53.4841, 42.8487
1.74, 4, 35.8572, 48.7642, -14.3492, 97.5591, -53.5472, 42.8113
1.744, 4, 35.8552, 48.7838, -14.3569, 97.5612, -53.6103, 42.7739
1.748, 4, 35.8532, 48.8034, -14.3646, 97.5633, -53.6734, 42.7367
1.752, 4, 35.8511, 48.823, -14.3723, 97.5653, -53.7365, 42.6995
1.756, 4, 35.849, 48.8425, -14.3799, 97.5672, -53.7996, 42.6623
1.76, 4, 35.847, 48.862, -14.3875, 97.5691, -53.8626, 42.6253
1.764, 4, 35.8449, 48.8815, -14.395, 97.5708, -53.9257, 42.5882
1.768, 4, 35.8428, 48.901, -14.4025, 97.5725, -53.9887, 42.5513
1.772, 4, 35.8407, 48.9205, -14.4099, 97.5741, -54.0517, 42.5143
1.776, 4, 35.8385, 48.9399, -14.4173, 97.5756, -54.1147, 42.4775
1.78, 4, 35.8364, 48.9593, -14.4247, 97.5771, -54.1777, 42.4407
1.784, 4, 35.8342, 48.9787, -14.432, 97.5784, -54.2406, 42.404
1.788, 4, 35.8321, 48.998, -14.4393, 97.5797, -54.3036, 42.3673
1.792, 4, 35.8299, 49.0174, -14.4465, 97.5809, -54.3665, 42.3306
1.796, 4, 35.8277, 49.0367, -14.4537, 97.5821, -54.4295, 42.2941
1.8, 4, 35.8255, 49.056, -14.4608, 97.5832, -54.4924, 42.2576
1.804, 4, 35.8232, 49.0752, -14.4679, 97.5841, -54.5553, 42.2211
1.808, 4, 35.821, 49.0945, -14.4749, 97.585, -54.6182, 42.1847
1.812, 4, 35.8187, 49.1137, -14.4819, 97.5859, -54.681, 42.1484
1.816, 4, 35.8165, 49.1329, -14.4889, 97.5866, -54.7439, 42.1121
1.82, 4, 35.8142, 49.1521, -14.4958, 97.5873, -54.8067, 42.0758
1.824, 4, 35.8119, 49.1712, -14.5027, 97.5879, -54.8696, 42.0396
1.828, 4, 35.8096, 49.1903, -14.5095, 97.5884, -54.9324, 42.0035
1.832, 4, 35.8072, 49.2094, -14.5163, 97.5889, -54.9952, 41.9674
1.836, 4, 35.8049, 49.2285, -14.523, 97.5893, -55.058, 41.9314
1.84, 4, 35.8025, 49.2476, -14.5297, 97.5896, -55.1208, 41.8955
1.844, 4, 35.8001, 49.2666, -14.5363, 97.5898, -55.1835, 41.8595
1.848, 4, 35.7978, 49.2856, -14.5429, 97.59, -55.2463, 41.8237
1.852, 4, 35.7954, 49.3046, -14.5495, 97.5901, -55.309, 41.7879
1.856, 4, 35.7929, 49.3235, -14.556, 97.5901, -55.3718, 41.7521
1.86, 4, 35.7905, 49.3425, -14.5624, 97.59, -55.4345, 41.7164
1.864, 4, 35.7881, 49.3614, -14.5688, 97.5899, -55.4972, 41.6808
1.868, 4, 35.7856, 49.3803, -14.5752, 97.5897, -55.5599, 41.6452
1.872, 4, 35.7831, 49.3991, -14.5815, 97.5894, -55.6225, 41.6096
1.876, 4, 35.7807, 49.418, -14.5878, 97.5891, -55.6852, 41.5741
1.88, 4, 35.7781, 49.4368, -14.5941, 97.5887, -55.7478, 41.5387
1.884, 4, 35.7756, 49.4556, -14.6003, 97.5882, -55.8105, 41.5033
1.888, 4, 35.7731, 49.4744, -14.6064, 97.5876, -55.8731, 41.4679
1.892, 4, 35.7706, 49.4931, -14.6125, 97.587, -55.9357, 41.4326
1.896, 4, 35.768, 49.5118, -14.6186, 97.5863, -55.9983, 41.3974
1.9, 4, 35.7654, 49.5305, -14.6246, 97.5855, -56.0609, 41.3622
1.904, 4, 35.7629, 49.5492, -14.6305, 97.5846, -56.1234, 41.3271
1.908, 4, 35.7603, 49.5678, -14.6365, 97.5837, -56.186, 41.292
1.912, 4, 35.7576, 49.5865, -14.6423, 97.5827, -56.2485, 41.2569
1.916, 4, 35.755, 49.6051, -14.6482, 97.5817, -56.311, 41.2219
1.92, 4, 35.7524, 49.6236, -14.654, 97.5806, -56.3735, 41.187
1.924, 4, 35.7497, 49.6422, -14.6597, 97.5794, -56.436, 41.1521
1.928, 4, 35.747, 49.6607, -14.6654, 97.5781, -56.4985, 41.1172
1.932, 4, 35.7444, 49.6792, -14.671, 97.5768, -56.561, 41.0824
1.936, 4, 35.7417, 49.6977, -14.6766, 97.5754, -56.6234, 41.0477
1.94, 4, 35.739, 49.7161, -14.6822, 97.5739, -56.6859, 41.013
1.944, 4, 35.7362, 49.7346, -14.6877, 97.5723, -56.7483, 40.9783
1.948, 4, 35.7335, 49.753, -14.6932, 97.5708, -56.8107, 40.9437
1.952, 4, 35.7307, 49.7713, -14.6986, 97.5691, -56.8731, 40.9091
1.956, 4, 35.728, 49.7897, -14.704, 97.5673, -56.9355, 40.8746
1.96, 4, 35.7252, 49.808, -14.7093, 97.5655, -56.9978, 40.8402
1.964, 4, 35.7224, 49.8263, -14.7146, 97.5636, -57.0602, 40.8057
1.968, 4, 35.7196, 49.8446, -14.7198, 97.5617, -57.1225, 40.7714
1.972, 4, 35.7168, 49.8629, -14.725, 97.5597, -57.1849, 40.737
1.976, 4, 35.7139, 49.8811, -14.7302, 97.5576, -57.2472, 40.7027
1.98, 4, 35.7111, 49.8993, -14.7353, 97.5555, -57.3095, 40.6685
1.984, 4, 35.7082, 49.9175, -14.7403, 97.5532, -57.3717, 40.6343
1.988, 4, 35.7053, 49.9356, -14.7453, 97.551, -57.434, 40.6002
1.992, 4, 35.7024, 49.9537, -14.7503, 97.5486, -57.4963, 40.5661
1.996, 4, 35.6995, 49.9718, -14.7552, 97.5462, -57.5585, 40.532
1.999, 4, 35.6966, 49.9899, -14.7601, 97.5437, -57.6207, 40.498
2.004, 4, 35.6937, 50.008, -14.7649, 97.5412, -57.683, 40.464
2.008, 4, 35.6907, 50.026, -14.7697, 97.5386, -57.7452, 40.4301
2.012, 4, 35.6878, 50.044, -14.7744, 97.5359, -57.8073, 40.3962
2.015, 4, 35.6848, 50.062, -14.7791, 97.5332, -57.8695, 40.3624
2.019, 4, 35.6818, 50.0799, -14.7837, 97.5304, -57.9317, 40.3286
2.024, 4, 35.6788, 50.0978, -14.7883, 97.5275, -57.9938, 40.2949
2.028, 4, 35.6758, 50.1157, -14.7929, 97.5246, -58.0559, 40.2612
2.031, 4, 35.6728, 50.1336, -14.7974, 97.5216, -58.1181, 40.2275
2.036, 4, 35.6697, 50.1515, -14.8018, 97.5185, -58.1802, 40.1939
2.04, 4, 35.6667, 50.1693, -14.8063, 97.5154, -58.2422, 40.1603
2.044, 4, 35.6636, 50.1871, -14.8106, 97.5122, -58.3043, 40.1268
2.048, 4, 35.6605, 50.2048, -14.8149, 97.509, -58.3664, 40.0933
2.051, 4, 35.6574, 50.2226, -14.8192, 97.5057, -58.4284, 40.0599
2.055, 4, 35.6543, 50.2403, -14.8234, 97.5023, -58.4904, 40.0265
2.06, 4, 35.6512, 50.258, -14.8276, 97.4988, -58.5525, 39.9931
2.064, 4, 35.6481, 50.2757, -14.8317, 97.4953, -58.6145, 39.9598
2.068, 4, 35.6449, 50.2933, -14.8358, 97.4918, -58.6764, 39.9265
2.071, 4, 35.6417, 50.3109, -14.8399, 97.4882, -58.7384, 39.8933
2.076, 4, 35.6386, 50.3285, -14.8438, 97.4845, -58.8004, 39.8601
2.08, 4, 35.6354, 50.3461, -14.8478, 97.4807, -58.8623, 39.8269
2.084, 4, 35.6322, 50.3636, -14.8517, 97.4769, -58.9242, 39.7938
2.087, 4, 35.6289, 50.3811, -14.8555, 97.473, -58.9862, 39.7608
2.092, 4, 35.6257, 50.3986, -14.8593, 97.4691, -59.0481, 39.7277
2.096, 4, 35.6225, 50.4161, -14.8631, 97.4651, -59.1099, 39.6947
2.1, 4, 35.6192, 50.4335, -14.8668, 97.461, -59.1718, 39.6618
2.104, 4, 35.6159, 50.4509, -14.8705, 97.4569, -59.2337, 39.6289
2.107, 4, 35.6126, 50.4683, -14.8741, 97.4527, -59.2955, 39.596
2.111, 4, 35.6093, 50.4856, -14.8777, 97.4485, -59.3573, 39.5632
2.116, 4, 35.606, 50.503, -14.8812, 97.4442, -59.4192, 39.5304
2.12, 4, 35.6027, 50.5203, -14.8847, 97.4398, -59.4809, 39.4977
2.124, 4, 35.5994, 50.5375, -14.8881, 97.4354, -59.5427, 39.4649
2.127, 4, 35.596, 50.5548, -14.8915, 97.4309, -59.6045, 39.4323
2.132, 4, 35.5926, 50.572, -14.8948, 97.4264, -59.6663, 39.3996
2.136, 4, 35.5893, 50.5892, -14.8981, 97.4218, -59.728, 39.367
2.14, 4, 35.5859, 50.6064, -14.9013, 97.4171, -59.7897, 39.3345
2.143, 4, 35.5825, 50.6235, -14.9045, 97.4124, -59.8514, 39.302
2.148, 4, 35.579, 50.6406, -14.9077, 97.4076, -59.9131, 39.2695
2.152, 4, 35.5756, 50.6577, -14.9108, 97.4028, -59.9748, 39.2371
2.156, 4, 35.5721, 50.6747, -14.9138, 97.3979, -60.0365, 39.2047
2.16, 4, 35.5687, 50.6918, -14.9168, 97.393, -60.0981, 39.1723
2.163, 4, 35.5652, 50.7088, -14.9198, 97.3879, -60.1598, 39.14
2.168, 4, 35.5617, 50.7258, -14.9227, 97.3829, -60.2214, 39.1077
2.172, 4, 35.5582, 50.7427, -14.9256, 97.3777, -60.283, 39.0754
2.176, 4, 35.5547, 50.7596, -14.9284, 97.3726, -60.3446, 39.0432
2.179, 4, 35.5512, 50.7765, -14.9311, 97.3673, -60.4062, 39.011
2.184, 4, 35.5476, 50.7934, -14.9339, 97.362, -60.4677, 38.9789
2.188, 4, 35.5441, 50.8102, -14.9365, 97.3566, -60.5293, 38.9468
2.192, 4, 35.5405, 50.8271, -14.9392, 97.3512, -60.5908, 38.9147
2.196, 4, 35.5369, 50.8438, -14.9417, 97.3457, -60.6523, 38.8827
2.199, 4, 35.5333, 50.8606, -14.9443, 97.3402, -60.7138, 38.8507
2.204, 4, 35.5297, 50.8773, -14.9467, 97.3346, -60.7753, 38.8187
2.208, 4, 35.5261, 50.894, -14.9492, 97.329, -60.8368, 38.7868
2.212, 4, 35.5224, 50.9107, -14.9516, 97.3233, -60.8983, 38.7549
2.216, 4, 35.5188, 50.9274, -14.9539, 97.3175, -60.9597, 38.7231
2.219, 4, 35.5151, 50.944, -14.9562, 97.3117, -61.0211, 38.6913
2.224, 4, 35.5115, 50.9606, -14.9584, 97.3058, -61.0825, 38.6595
2.228, 4, 35.5078, 50.9771, -14.9606, 97.2999, -61.1439, 38.6277
2.232, 4, 35.5041, 50.9937, -14.9628, 97.2939, -61.2053, 38.596
2.235, 4, 35.5004, 51.0102, -14.9649, 97.2879, -61.2667, 38.5643
2.24, 4, 35.4966, 51.0267, -14.9669, 97.2818, -61.328, 38.5327
2.244, 4, 35.4929, 51.0431, -14.9689, 97.2756, -61.3894, 38.5011
2.248, 4, 35.4891, 51.0596, -14.9709, 97.2694, -61.4507, 38.4695
2.252, 4, 35.4854, 51.076, -14.9728, 97.2632, -61.512, 38.438
2.255, 4, 35.4816, 51.0923, -14.9746, 97.2568, -61.5733, 38.4065
2.259, 4, 35.4778, 51.1087, -14.9764, 97.2505, -61.6346, 38.375
2.264, 4, 35.474, 51.125, -14.9782, 97.244, -61.6959, 38.3436
2.268, 4, 35.4701, 51.1413, -14.9799, 97.2376, -61.7571, 38.3121
2.272, 4, 35.4663, 51.1575, -14.9816, 97.231, -61.8183, 38.2808
2.275, 4, 35.4625, 51.1738, -14.9832, 97.2244, -61.8796, 38.2494
2.28, 4, 35.4586, 51.19, -14.9848, 97.2178, -61.9408, 38.2181
2.284, 4, 35.4547, 51.2061, -14.9863, 97.2111, -62.0019, 38.1869
2.288, 4, 35.4508, 51.2223, -14.9877, 97.2043, -62.0631, 38.1556
2.291, 4, 35.4469, 51.2384, -14.9892, 97.1975, -62.1243, 38.1244
2.296, 4, 35.443, 51.2545, -14.9905, 97.1907, -62.1854, 38.0932
2.3, 4, 35.4391, 51.2706, -14.9919, 97.1838, -62.2466, 38.0621
2.304, 4, 35.4351, 51.2866, -14.9931, 97.1768, -62.3077, 38.031
2.308, 4, 35.4312, 51.3026, -14.9944, 97.1698, -62.3688, 37.9999
2.311, 4, 35.4272, 51.3186, -14.9955, 97.1627, -62.4298, 37.9689
2.316, 4, 35.4232, 51.3345, -14.9967, 97.1556, -62.4909, 37.9379
2.32, 4, 35.4192, 51.3504, -14.9977, 97.1484, -62.552, 37.9069
2.324, 4, 35.4152, 51.3663, -14.9988, 97.1412, -62.613, 37.8759
2.328, 4, 35.4112, 51.3822, -14.9998, 97.1339, -62.674, 37.845
2.331, 4, 35.4072, 51.398, -15.0007, 97.1265, -62.735, 37.8141
2.336, 4, 35.4031, 51.4138, -15.0016, 97.1191, -62.796, 37.7833
2.34, 4, 35.3991, 51.4296, -15.0024, 97.1117, -62.857, 37.7524
2.344, 4, 35.395, 51.4453, -15.0032, 97.1042, -62.9179, 37.7216
2.347, 4, 35.3909, 51.4611, -15.0039, 97.0967, -62.9789, 37.6909
2.352, 4, 35.3868, 51.4767, -15.0046, 97.0891, -63.0398, 37.6601
2.356, 4, 35.3827, 51.4924, -15.0052, 97.0814, -63.1007, 37.6294
2.36, 4, 35.3786, 51.508, -15.0058, 97.0737, -63.1616, 37.5988
2.364, 4, 35.3744, 51.5236, -15.0064, 97.066, -63.2225, 37.5681
2.367, 4, 35.3703, 51.5392, -15.0069, 97.0582, -63.2834, 37.5375
2.372, 4, 35.3661, 51.5547, -15.0073, 97.0503, -63.3442, 37.5069
2.376, 4, 35.3619, 51.5703, -15.0077, 97.0424, -63.405, 37.4764
2.38, 4, 35.3577, 51.5857, -15.008, 97.0344, -63.4659, 37.4458
2.383, 4, 35.3535, 51.6012, -15.0083, 97.0264, -63.5267, 37.4153
2.388, 4, 35.3493, 51.6166, -15.0086, 97.0184, -63.5874, 37.3849
2.392, 4, 35.3451, 51.632, -15.0087, 97.0103, -63.6482, 37.3544
2.396, 4, 35.3408, 51.6474, -15.0089, 97.0021, -63.709, 37.324
2.4, 4, 35.3366, 51.6627, -15.009, 96.9939, -63.7697, 37.2937
2.403, 4, 35.3323, 51.678, -15.009, 96.9856, -63.8304, 37.2633
2.408, 4, 35.328, 51.6933, -15.009, 96.9773, -63.8912, 37.233
2.412, 4, 35.3237, 51.7085, -15.009, 96.969, -63.9519, 37.2027
2.416, 4, 35.3194, 51.7238, -15.0088, 96.9606, -64.0125, 37.1724
2.42, 4, 35.3151, 51.739, -15.0087, 96.9521, -64.0732, 37.1422
2.423, 4, 35.3107, 51.7541, -15.0085, 96.9436, -64.1339, 37.112
2.428, 5, 35.3064, 51.7692, -15.0082, 96.935, -64.1945, 37.0818
2.432, 5, 35.302, 51.7843, -15.0079, 96.9264, -64.2551, 37.0516
2.436, 5, 35.2976, 51.7994, -15.0076, 96.9178, -64.3157, 37.0215
2.439, 5, 35.2932, 51.8144, -15.0071, 96.909, -64.3763, 36.9914
2.444, 5, 35.2888, 51.8295, -15.0067, 96.9003, -64.4369, 36.9613
2.448, 5, 35.2844, 51.8444, -15.0062, 96.8915, -64.4974, 36.9313
2.452, 5, 35.28, 51.8594, -15.0056, 96.8826, -64.558, 36.9013
2.456, 5, 35.2756, 51.8743, -15.005, 96.8737, -64.6185, 36.8713
2.459, 5, 35.2711, 51.8892, -15.0044, 96.8648, -64.679, 36.8413
2.464, 5, 35.2666, 51.9041, -15.0036, 96.8558, -64.7395, 36.8114
2.468, 5, 35.2621, 51.9189, -15.0029, 96.8467, -64.8, 36.7814
2.472, 5, 35.2577, 51.9337, -15.0021, 96.8377, -64.8605, 36.7516
2.476, 5, 35.2532, 51.9484, -15.0012, 96.8285, -64.9209, 36.7217
2.479, 5, 35.2486, 51.9632, -15.0003, 96.8193, -64.9814, 36.6919
2.484, 5, 35.2441, 51.9779, -14.9994, 96.8101, -65.0418, 36.6621
2.488, 5, 35.2396, 51.9926, -14.9983, 96.8008, -65.1022, 36.6323
2.492, 5, 35.235, 52.0072, -14.9973, 96.7915, -65.1626, 36.6025
2.495, 5, 35.2304, 52.0218, -14.9962, 96.7821, -65.223, 36.5728
2.5, 5, 35.2258, 52.0364, -14.995, 96.7726, -65.2834, 36.5431
2.504, 5, 35.2212, 52.051, -14.9938, 96.7632, -65.3437, 36.5134
2.508, 5, 35.2166, 52.0655, -14.9926, 96.7537, -65.4041, 36.4837
2.512, 5, 35.212, 52.08, -14.9913, 96.7441, -65.4644, 36.4541
2.515, 5, 35.2074, 52.0945, -14.9899, 96.7345, -65.5247, 36.4245
2.52, 5, 35.2027, 52.1089, -14.9885, 96.7248, -65.585, 36.3949
2.524, 5, 35.1981, 52.1233, -14.987, 96.7151, -65.6453, 36.3654
2.528, 5, 35.1934, 52.1377, -14.9855, 96.7053, -65.7055, 36.3358
2.531, 5, 35.1887, 52.1521, -14.984, 96.6955, -65.7658, 36.3063
2.536, 5, 35.184, 52.1664, -14.9824, 96.6857, -65.826, 36.2768
2.54, 5, 35.1793, 52.1807, -14.9807, 96.6758, -65.8862, 36.2474
2.544, 5, 35.1746, 52.1949, -14.979, 96.6659, -65.9464, 36.2179
2.548, 5, 35.1698, 52.2091, -14.9773, 96.6559, -66.0066, 36.1885
2.551, 5, 35.1651, 52.2233, -14.9754, 96.6458, -66.0668, 36.1591
2.556, 5, 35.1603, 52.2375, -14.9736, 96.6357, -66.1269, 36.1298
2.56, 5, 35.1556, 52.2516, -14.9717, 96.6256, -66.1871, 36.1004
2.564, 5, 35.1508, 52.2657, -14.9697, 96.6155, -66.2472, 36.0711
2.568, 5, 35.146, 52.2798, -14.9677, 96.6052, -66.3073, 36.0418
2.571, 5, 35.1412, 52.2939, -14.9657, 96.595, -66.3674, 36.0125
2.576, 5, 35.1363, 52.3079, -14.9636, 96.5847, -66.4275, 35.9833
2.58, 5, 35.1315, 52.3218, -14.9614, 96.5743, -66.4876, 35.9541
2.584, 5, 35.1267, 52.3358, -14.9592, 96.5639, -66.5476, 35.9249
2.587, 5, 35.1218, 52.3497, -14.957, 96.5535, -66.6077, 35.8957
2.592, 5, 35.1169, 52.3636, -14.9547, 96.543, -66.6677, 35.8665
2.596, 5, 35.112, 52.3775, -14.9523, 96.5325, -66.7277, 35.8374
2.6, 5, 35.1071, 52.3913, -14.9499, 96.5219, -66.7877, 35.8083
2.604, 5, 35.1022, 52.4051, -14.9474, 96.5113, -66.8477, 35.7792
2.607, 5, 35.0973, 52.4189, -14.9449, 96.5006, -66.9077, 35.7501
2.612, 5, 35.0924, 52.4326, -14.9424, 96.4899, -66.9676, 35.7211
2.616, 5, 35.0874, 52.4463, -14.9398, 96.4792, -67.0276, 35.692
2.62, 5, 35.0824, 52.46, -14.9371, 96.4684, -67.0875, 35.663
2.624, 5, 35.0775, 52.4736, -14.9344, 96.4575, -67.1474, 35.634
2.627, 5, 35.0725, 52.4872, -14.9317, 96.4466, -67.2073, 35.6051
2.632, 5, 35.0675, 52.5008, -14.9289, 96.4357, -67.2672, 35.5761
2.636, 5, 35.0625, 52.5144, -14.926, 96.4247, -67.327, 35.5472
2.64, 5, 35.0574, 52.5279, -14.9231, 96.4137, -67.3869, 35.5183
2.643, 5, 35.0524, 52.5414, -14.9202, 96.4027, -67.4467, 35.4894
2.648, 5, 35.0474, 52.5548, -14.9172, 96.3916, -67.5065, 35.4606
2.652, 5, 35.0423, 52.5683, -14.9141, 96.3804, -67.5663, 35.4318
2.656, 5, 35.0372, 52.5817, -14.911, 96.3692, -67.6261, 35.4029
2.66, 5, 35.0321, 52.595, -14.9079, 96.358, -67.6859, 35.3741
2.663, 5, 35.027, 52.6083, -14.9047, 96.3467, -67.7457, 35.3454
2.668, 5, 35.0219, 52.6217, -14.9014, 96.3354, -67.8054, 35.3166
2.672, 5, 35.0168, 52.6349, -14.8981, 96.3241, -67.8651, 35.2879
2.676, 5, 35.0117, 52.6482, -14.8948, 96.3127, -67.9249, 35.2592
2.679, 5, 35.0065, 52.6614, -14.8914, 96.3012, -67.9846, 35.2305
2.684, 5, 35.0014, 52.6745, -14.8879, 96.2897, -68.0443, 35.2018
2.688, 5, 34.9962, 52.6877, -14.8844, 96.2782, -68.1039, 35.1732
2.692, 5, 34.991, 52.7008, -14.8809, 96.2666, -68.1636, 35.1445
2.696, 5, 34.9858, 52.7139, -14.8773, 96.255, -68.2232, 35.1159
2.699, 5, 34.9806, 52.7269, -14.8736, 96.2434, -68.2829, 35.0873
2.704, 5, 34.9754, 52.74, -14.8699, 96.2317, -68.3425, 35.0587
2.708, 5, 34.9701, 52.753, -14.8662, 96.2199, -68.4021, 35.0302
2.712, 5, 34.9649, 52.7659, -14.8624, 96.2081, -68.4617, 35.0016
2.716, 5, 34.9596, 52.7788, -14.8585, 96.1963, -68.5212, 34.9731
2.719, 5, 34.9544, 52.7917, -14.8546, 96.1845, -68.5808, 34.9446
2.724, 5, 34.9491, 52.8046, -14.8507, 96.1726, -68.6403, 34.9161
2.728, 5, 34.9438, 52.8174, -14.8467, 96.1606, -68.6999, 34.8877
2.732, 5, 34.9385, 52.8302, -14.8427, 96.1486, -68.7594, 34.8592
2.735, 5, 34.9332, 52.843, -14.8386, 96.1366, -68.8189, 34.8308
2.74, 5, 34.9278, 52.8557, -14.8344, 96.1245, -68.8784, 34.8024
2.744, 5, 34.9225, 52.8684, -14.8302, 96.1124, -68.9378, 34.774
2.748, 5, 34.9171, 52.8811, -14.826, 96.1003, -68.9973, 34.7457
2.752, 5, 34.9118, 52.8938, -14.8217, 96.0881, -69.0567, 34.7173
2.755, 5, 34.9064, 52.9064, -14.8173, 96.0758, -69.1161, 34.689
2.76, 5, 34.901, 52.9189, -14.8129, 96.0636, -69.1756, 34.6607
2.764, 5, 34.8956, 52.9315, -14.8085, 96.0512, -69.235, 34.6324
2.768, 5, 34.8902, 52.944, -14.804, 96.0389, -69.2943, 34.6041
2.772, 5, 34.8848, 52.9565, -14.7994, 96.0265, -69.3537, 34.5758
2.775, 5, 34.8793, 52.9689, -14.7948, 96.014, -69.4131, 34.5476
2.78, 5, 34.8739, 52.9814, -14.7902, 96.0016, -69.4724, 34.5193
2.784, 5, 34.8684, 52.9937, -14.7855, 95.9891, -69.5317, 34.4911
2.788, 5, 34.8629, 53.0061, -14.7807, 95.9765, -69.591, 34.4629
2.791, 5, 34.8574, 53.0184, -14.7759, 95.9639, -69.6503, 34.4348
2.796, 5, 34.8519, 53.0307, -14.7711, 95.9513, -69.7096, 34.4066
2.8, 5, 34.8464, 53.043, -14.7662, 95.9386, -69.7689, 34.3785
2.804, 5, 34.8409, 53.0552, -14.7612, 95.9259, -69.8281, 34.3503
2.808, 5, 34.8354, 53.0674, -14.7562, 95.9131, -69.8874, 34.3222
2.811, 5, 34.8298, 53.0795, -14.7512, 95.9003, -69.9466, 34.2941
2.816, 5, 34.8243, 53.0917, -14.7461, 95.8875, -70.0058, 34.2661
2.82, 5, 34.8187, 53.1038, -14.7409, 95.8746, -70.065, 34.238
2.824, 5, 34.8131, 53.1158, -14.7357, 95.8617, -70.1242, 34.2099
2.828, 5, 34.8075, 53.1279, -14.7305, 95.8487, -70.1833, 34.1819
2.831, 5, 34.8019, 53.1399, -14.7252, 95.8357, -70.2425, 34.1539
2.836, 5, 34.7963, 53.1518, -14.7198, 95.8227, -70.3016, 34.1259
2.84, 5, 34.7906, 53.1638, -14.7144, 95.8096, -70.3607, 34.0979
2.844, 5, 34.785, 53.1757, -14.709, 95.7965, -70.4198, 34.07
2.847, 5, 34.7794, 53.1875, -14.7035, 95.7834, -70.4789, 34.042
2.852, 5, 34.7737, 53.1994, -14.6979, 95.7702, -70.538, 34.0141
2.856, 5, 34.768, 53.2112, -14.6923, 95.757, -70.597, 33.9862
2.86, 5, 34.7623, 53.2229, -14.6866, 95.7437, -70.6561, 33.9583
2.864, 5, 34.7566, 53.2347, -14.6809, 95.7304, -70.7151, 33.9304
2.867, 5, 34.7509, 53.2464, -14.6752, 95.7171, -70.7741, 33.9025
2.872, 5, 34.7452, 53.2581, -14.6694, 95.7037, -70.8331, 33.8746
2.876, 5, 34.7394, 53.2697, -14.6635, 95.6903, -70.8921, 33.8468
2.88, 5, 34.7337, 53.2813, -14.6576, 95.6768, -70.9511, 33.819
2.883, 5, 34.7279, 53.2929, -14.6517, 95.6633, -71.0101, 33.7912
2.888, 5, 34.7221, 53.3044, -14.6456, 95.6498, -71.069, 33.7634
2.892, 5, 34.7164, 53.3159, -14.6396, 95.6362, -71.1279, 33.7356
2.896, 5, 34.7106, 53.3274, -14.6335, 95.6226, -71.1869, 33.7078
2.9, 5, 34.7047, 53.3389, -14.6273, 95.609, -71.2458, 33.68
2.903, 5, 34.6989, 53.3503, -14.6211, 95.5953, -71.3046, 33.6523
2.908, 5, 34.6931, 53.3617, -14.6149, 95.5815, -71.3635, 33.6246
2.912, 5, 34.6872, 53.373, -14.6085, 95.5678, -71.4224, 33.5969
2.916, 5, 34.6814, 53.3843, -14.6022, 95.554, -71.4812, 33.5692
2.92, 5, 34.6755, 53.3956, -14.5958, 95.5402, -71.54, 33.5415
2.923, 5, 34.6696, 53.4068, -14.5893, 95.5263, -71.5988, 33.5138
2.928, 5, 34.6637, 53.4181, -14.5828, 95.5124, -71.6576, 33.4861
2.932, 5, 34.6578, 53.4292, -14.5762, 95.4984, -71.7164, 33.4585
2.936, 5, 34.6519, 53.4404, -14.5696, 95.4845, -71.7752, 33.4309
2.939, 5, 34.646, 53.4515, -14.5629, 95.4704, -71.834, 33.4032
2.944, 5, 34.64, 53.4626, -14.5562, 95.4564, -71.8927, 33.3756
2.948, 5, 34.6341, 53.4736, -14.5494, 95.4423, -71.9514, 33.348
2.952, 5, 34.6281, 53.4846, -14.5426, 95.4281, -72.0101, 33.3205
2.956, 5, 34.6222, 53.4956, -14.5358, 95.414, -72.0688, 33.2929
2.959, 5, 34.6162, 53.5065, -14.5288, 95.3998, -72.1275, 33.2653
2.964, 5, 34.6102, 53.5174, -14.5218, 95.3855, -72.1862, 33.2378
2.968, 5, 34.6041, 53.5283, -14.5148, 95.3713, -72.2448, 33.2103
2.972, 5, 34.598, 53.539, -14.5077, 95.3569, -72.3034, 33.1828
2.976, 5, 34.5919, 53.5497, -14.5005, 95.3426, -72.362, 33.1554
2.98, 5, 34.5858, 53.5603, -14.4932, 95.3281, -72.4206, 33.128
2.984, 5, 34.5795, 53.5708, -14.4858, 95.3136, -72.479, 33.1007
2.988, 5, 34.5732, 53.5812, -14.4783, 95.299, -72.5374, 33.0736
2.992, 5, 34.5669, 53.5915, -14.4705, 95.2843, -72.5956, 33.0466
2.995, 5, 34.5604, 53.6015, -14.4626, 95.2695, -72.6537, 33.02
3, 5, 34.5539, 53.6115, -14.4543, 95.2545, -72.7116, 32.9936
3.004, 5, 34.5473, 53.6212, -14.4457, 95.2392, -72.7692, 32.9677
3.008, 5, 34.5406, 53.6306, -14.4368, 95.2237, -72.8265, 32.9423
3.012, 5, 34.534, 53.6398, -14.4273, 95.208, -72.8834, 32.9176
3.015, 5, 34.5273, 53.6488, -14.4174, 95.1919, -72.9399, 32.8935
3.02, 5, 34.5205, 53.6574, -14.4069, 95.1754, -72.9959, 32.8703
3.024, 5, 34.5138, 53.6658, -14.3958, 95.1585, -73.0514, 32.8479
3.028, 5, 34.507, 53.6738, -14.3839, 95.1411, -73.1062, 32.8266
3.031, 5, 34.5002, 53.6814, -14.3714, 95.1233, -73.1605, 32.8063
3.036, 5, 34.4934, 53.6887, -14.358, 95.1049, -73.214, 32.7871
3.04, 5, 34.4865, 53.6956, -14.3439, 95.0861, -73.2669, 32.7692
3.044, 5, 34.4796, 53.7021, -14.3289, 95.0666, -73.319, 32.7524
3.048, 5, 34.4726, 53.7082, -14.3131, 95.0467, -73.3703, 32.7369
3.051, 5, 34.4655, 53.7138, -14.2965, 95.0261, -73.4208, 32.7227
3.056, 5, 34.4584, 53.7191, -14.279, 95.0051, -73.4706, 32.7098
3.06, 5, 34.4512, 53.7238, -14.2606, 94.9834, -73.5196, 32.6982
3.064, 5, 34.4439, 53.7282, -14.2414, 94.9613, -73.5678, 32.6879
3.068, 5, 34.4365, 53.7321, -14.2213, 94.9385, -73.6152, 32.6788
3.071, 5, 34.429, 53.7355, -14.2004, 94.9153, -73.6618, 32.671
3.076, 5, 34.4215, 53.7384, -14.1786, 94.8914, -73.7076, 32.6645
3.08, 5, 34.4138, 53.7409, -14.156, 94.8671, -73.7527, 32.6593
3.084, 5, 34.406, 53.743, -14.1325, 94.8422, -73.797, 32.6553
3.087, 5, 34.3981, 53.7445, -14.1081, 94.8168, -73.8404, 32.6526
3.092, 5, 34.3902, 53.7456, -14.0829, 94.7908, -73.8831, 32.6512
3.096, 5, 34.3822, 53.7463, -14.0569, 94.7643, -73.925, 32.6511
3.1, 5, 34.3741, 53.7465, -14.03, 94.7372, -73.9661, 32.6523
3.104, 5, 34.366, 53.7463, -14.0023, 94.7096, -74.0064, 32.6548
3.107, 5, 34.3578, 53.7456, -13.9737, 94.6815, -74.0459, 32.6585
3.112, 5, 34.3495, 53.7445, -13.9443, 94.6529, -74.0846, 32.6636
3.116, 5, 34.3412, 53.743, -13.914, 94.6237, -74.1226, 32.6698
3.12, 5, 34.3329, 53.7412, -13.883, 94.5941, -74.1598, 32.6773
3.124, 5, 34.3245, 53.7389, -13.8513, 94.564, -74.1963, 32.6859
3.128, 5, 34.3161, 53.7364, -13.8188, 94.5334, -74.2321, 32.6955
3.132, 5, 34.3076, 53.7335, -13.7857, 94.5025, -74.2672, 32.7062
3.136, 5, 34.2992, 53.7303, -13.752, 94.4711, -74.3018, 32.7178
3.14, 5, 34.2907, 53.7268, -13.7177, 94.4395, -74.3359, 32.7301
3.143, 5, 34.2821, 53.723, -13.6829, 94.4075, -74.3696, 32.7432
3.148, 5, 34.2735, 53.719, -13.6477, 94.3753, -74.4028, 32.7569
3.152, 5, 34.2649, 53.7147, -13.6122, 94.3429, -74.4358, 32.7711
3.156, 5, 34.2561, 53.7103, -13.5763, 94.3103, -74.4684, 32.7858
3.16, 5, 34.2474, 53.7056, -13.5401, 94.2776, -74.5009, 32.8007
3.163, 5, 34.2385, 53.7009, -13.5038, 94.2448, -74.5331, 32.816
3.168, 5, 34.2296, 53.6959, -13.4672, 94.2119, -74.5653, 32.8314
3.172, 5, 34.2207, 53.6908, -13.4306, 94.1789, -74.5974, 32.8469
3.176, 5, 34.2117, 53.6857, -13.3938, 94.1459, -74.6294, 32.8626
3.179, 5, 34.2026, 53.6804, -13.3569, 94.1129, -74.6613, 32.8783
3.184, 5, 34.1936, 53.6751, -13.32, 94.0798, -74.6933, 32.894
3.188, 5, 34.1844, 53.6697, -13.283, 94.0467, -74.7252, 32.9097
3.192, 5, 34.1753, 53.6643, -13.246, 94.0137, -74.7571, 32.9255
3.196, 5, 34.1661, 53.6588, -13.2089, 93.9806, -74.789, 32.9412
3.199, 5, 34.1569, 53.6533, -13.1719, 93.9475, -74.8209, 32.9569
3.204, 5, 34.1477, 53.6478, -13.1348, 93.9145, -74.8528, 32.9726
3.208, 5, 34.1385, 53.6422, -13.0976, 93.8814, -74.8847, 32.9883
3.212, 5, 34.1293, 53.6366, -13.0605, 93.8484, -74.9166, 33.004
3.216, 5, 34.1201, 53.631, -13.0233, 93.8153, -74.9485, 33.0196
3.22, 5, 34.1108, 53.6254, -12.9861, 93.7823, -74.9805, 33.0352
3.224, 5, 34.1016, 53.6198, -12.9489, 93.7493, -75.0124, 33.0508
3.228, 5, 34.0923, 53.6141, -12.9117, 93.7163, -75.0443, 33.0663
3.232, 5, 34.083, 53.6084, -12.8745, 93.6833, -75.0763, 33.0818
3.235, 5, 34.0737, 53.6026, -12.8372, 93.6503, -75.1082, 33.0973
3.24, 5, 34.0644, 53.5969, -12.8, 93.6173, -75.1402, 33.1128
3.244, 5, 34.0551, 53.5911, -12.7627, 93.5843, -75.1721, 33.1282
3.248, 5, 34.0458, 53.5854, -12.7254, 93.5513, -75.2041, 33.1436
3.252, 5, 34.0365, 53.5795, -12.6881, 93.5183, -75.2361, 33.159
3.255, 5, 34.0272, 53.5737, -12.6507, 93.4854, -75.268, 33.1744
3.26, 5, 34.0179, 53.5679, -12.6134, 93.4524, -75.3, 33.1897
3.264, 5, 34.0085, 53.562, -12.576, 93.4195, -75.332, 33.205
3.268, 5, 33.9992, 53.5561, -12.5386, 93.3865, -75.364, 33.2203
3.272, 5, 33.9898, 53.5502, -12.5012, 93.3536, -75.396, 33.2355
3.276, 5, 33.9804, 53.5442, -12.4638, 93.3207, -75.428, 33.2507
3.28, 5, 33.971, 53.5383, -12.4264, 93.2878, -75.46, 33.2659
3.284, 5, 33.9617, 53.5323, -12.3889, 93.2549, -75.4921, 33.2811
3.288, 5, 33.9523, 53.5263, -12.3514, 93.222, -75.5241, 33.2962
3.291, 5, 33.9429, 53.5202, -12.3139, 93.1891, -75.5561, 33.3113
3.296, 5, 33.9334, 53.5142, -12.2764, 93.1562, -75.5882, 33.3264
3.3, 5, 33.924, 53.5081, -12.2389, 93.1233, -75.6202, 33.3414
3.304, 5, 33.9146, 53.502, -12.2014, 93.0905, -75.6523, 33.3564
3.308, 5, 33.9051, 53.4959, -12.1638, 93.0576, -75.6843, 33.3714
3.312, 5, 33.8957, 53.4898, -12.1263, 93.0247, -75.7164, 33.3864
3.316, 5, 33.8862, 53.4836, -12.0887, 92.9919, -75.7485, 33.4013
3.32, 5, 33.8768, 53.4774, -12.0511, 92.9591, -75.7806, 33.4162
3.324, 5, 33.8673, 53.4712, -12.0135, 92.9262, -75.8126, 33.4311
3.328, 5, 33.8578, 53.465, -11.9759, 92.8934, -75.8447, 33.4459
3.332, 5, 33.8483, 53.4588, -11.9382, 92.8606, -75.8768, 33.4607
3.336, 5, 33.8388, 53.4525, -11.9005, 92.8278, -75.9089, 33.4755
3.34, 5, 33.8293, 53.4462, -11.8629, 92.795, -75.941, 33.4903
3.344, 5, 33.8198, 53.4399, -11.8252, 92.7622, -75.9732, 33.505
3.347, 5, 33.8102, 53.4335, -11.7875, 92.7294, -76.0053, 33.5197
3.352, 5, 33.8007, 53.4272, -11.7497, 92.6966, -76.0374, 33.5344
3.356, 5, 33.7912, 53.4208, -11.712, 92.6639, -76.0696, 33.549
3.36, 5, 33.7816, 53.4144, -11.6742, 92.6311, -76.1017, 33.5637
3.364, 5, 33.772, 53.408, -11.6365, 92.5984, -76.1339, 33.5782
3.368, 5, 33.7625, 53.4015, -11.5987, 92.5656, -76.166, 33.5928
3.372, 5, 33.7529, 53.3951, -11.5609, 92.5329, -76.1982, 33.6073
3.376, 5, 33.7433, 53.3886, -11.523, 92.5002, -76.2303, 33.6218
3.38, 5, 33.7337, 53.3821, -11.4852, 92.4674, -76.2625, 33.6363
3.383, 5, 33.7241, 53.3755, -11.4474, 92.4347, -76.2947, 33.6507
3.388, 5, 33.7145, 53.369, -11.4095, 92.402, -76.3269, 33.6652
3.392, 5, 33.7049, 53.3624, -11.3716, 92.3693, -76.3591, 33.6795
3.396, 5, 33.6952, 53.3558, -11.3337, 92.3366, -76.3913, 33.6939
3.4, 5, 33.6856, 53.3492, -11.2958, 92.3039, -76.4235, 33.7082
3.403, 5, 33.6759, 53.3425, -11.2579, 92.2713, -76.4557, 33.7225
3.408, 5, 33.6663, 53.3359, -11.2199, 92.2386, -76.4879, 33.7368
3.412, 5, 33.6566, 53.3292, -11.182, 92.2059, -76.5201, 33.751
3.416, 5, 33.6469, 53.3225, -11.144, 92.1733, -76.5523, 33.7652
3.42, 5, 33.6372, 53.3158, -11.106, 92.1406, -76.5846, 33.7794
3.424, 5, 33.6275, 53.309, -11.068, 92.108, -76.6168, 33.7936
3.428, 5, 33.6178, 53.3022, -11.03, 92.0753, -76.649, 33.8077
3.432, 5, 33.6081, 53.2954, -10.9919, 92.0427, -76.6813, 33.8218
3.436, 5, 33.5984, 53.2886, -10.9539, 92.0101, -76.7136, 33.8359
3.439, 5, 33.5887, 53.2818, -10.9158, 91.9775, -76.7458, 33.8499
3.444, 5, 33.5789, 53.2749, -10.8777, 91.9449, -76.7781, 33.8639
3.448, 5, 33.5692, 53.268, -10.8396, 91.9123, -76.8104, 33.8779
3.452, 5, 33.5594, 53.2611, -10.8015, 91.8797, -76.8426, 33.8918
3.456, 5, 33.5497, 53.2542, -10.7634, 91.8471, -76.8749, 33.9057
3.46, 5, 33.5399, 53.2472, -10.7252, 91.8145, -76.9072, 33.9196
3.464, 5, 33.5301, 53.2403, -10.6871, 91.782, -76.9395, 33.9335
3.468, 5, 33.5203, 53.2333, -10.6489, 91.7494, -76.9718, 33.9473
3.472, 5, 33.5105, 53.2263, -10.6107, 91.7168, -77.0041, 33.9611
3.476, 5, 33.5007, 53.2192, -10.5725, 91.6843, -77.0364, 33.9749
3.48, 5, 33.4909, 53.2122, -10.5343, 91.6518, -77.0688, 33.9886
3.484, 5, 33.4811, 53.2051, -10.4961, 91.6192, -77.1011, 34.0023
3.488, 5, 33.4713, 53.198, -10.4578, 91.5867, -77.1334, 34.016
3.492, 5, 33.4614, 53.1908, -10.4196, 91.5542, -77.1658, 34.0297
3.495, 5, 33.4516, 53.1837, -10.3813, 91.5217, -77.1981, 34.0433
3.5, 5, 33.4417, 53.1765, -10.343, 91.4891, -77.2305, 34.0569
3.504, 5, 33.4319, 53.1693, -10.3047, 91.4566, -77.2628, 34.0704
3.508, 5, 33.422, 53.1621, -10.2664, 91.4241, -77.2952, 34.084
3.512, 5, 33.4121, 53.1549, -10.228, 91.3917, -77.3276, 34.0975
3.516, 5, 33.4022, 53.1476, -10.1897, 91.3592, -77.3599, 34.1109
3.52, 5, 33.3923, 53.1403, -10.1513, 91.3267, -77.3923, 34.1244
3.524, 5, 33.3824, 53.133, -10.113, 91.2942, -77.4247, 34.1378
3.528, 5, 33.3725, 53.1257, -10.0746, 91.2618, -77.4571, 34.1512
3.531, 5, 33.3626, 53.1184, -10.0362, 91.2293, -77.4895, 34.1645
3.536, 5, 33.3526, 53.111, -9.99774, 91.1969, -77.5219, 34.1778
3.54, 5, 33.3427, 53.1036, -9.9593, 91.1644, -77.5543, 34.1911
3.544, 5, 33.3327, 53.0962, -9.92086, 91.132, -77.5867, 34.2044
3.548, 5, 33.3228, 53.0887, -9.88239, 91.0996, -77.6191, 34.2176
3.552, 5, 33.3128, 53.0813, -9.84391, 91.0672, -77.6516, 34.2308
3.556, 5, 33.3028, 53.0738, -9.80542, 91.0348, -77.684, 34.244
3.56, 5, 33.2928, 53.0663, -9.76691, 91.0023, -77.7164, 34.2571
3.564, 5, 33.2828, 53.0588, -9.72839, 90.9699, -77.7489, 34.2702
3.568, 5, 33.2728, 53.0512, -9.68986, 90.9376, -77.7813, 34.2833
3.572, 5, 33.2628, 53.0437, -9.65131, 90.9052, -77.8138, 34.2963
3.576, 5, 33.2528, 53.0361, -9.61274, 90.8728, -77.8462, 34.3094
3.58, 5, 33.2428, 53.0284, -9.57417, 90.8404, -77.8787, 34.3223
3.584, 5, 33.2328, 53.0208, -9.53557, 90.808, -77.9111, 34.3353
3.587, 5, 33.2227, 53.0131, -9.49697, 90.7757, -77.9436, 34.3482
3.592, 5, 33.2127, 53.0055, -9.45835, 90.7433, -77.9761, 34.3611
3.596, 5, 33.2026, 52.9978, -9.41971, 90.711, -78.0086, 34.374
3.6, 5, 33.1925, 52.99, -9.38107, 90.6786, -78.0411, 34.3868
3.604, 5, 33.1824, 52.9823, -9.34241, 90.6463, -78.0736, 34.3996
3.608, 5, 33.1724, 52.9745, -9.30373, 90.614, -78.1061, 34.4124
3.612, 5, 33.1623, 52.9667, -9.26504, 90.5816, -78.1386, 34.4251
3.616, 5, 33.1522, 52.9589, -9.22634, 90.5493, -78.1711, 34.4378
3.62, 5, 33.1421, 52.9511, -9.18762, 90.517, -78.2036, 34.4505
3.624, 5, 33.1319, 52.9432, -9.14889, 90.4847, -78.2362, 34.4632
3.628, 5, 33.1218, 52.9353, -9.11015, 90.4524, -78.2687, 34.4758
3.632, 5, 33.1118, 52.9274, -9.0714, 90.4201, -78.3012, 34.4884
3.636, 5, 33.1019, 52.9195, -9.03266, 90.3878, -78.3337, 34.5009
3.64, 5, 33.0923, 52.9115, -8.99396, 90.3556, -78.3662, 34.5134
3.644, 5, 33.0831, 52.9035, -8.95535, 90.3234, -78.3987, 34.5259
3.648, 5, 33.0742, 52.8954, -8.91691, 90.2913, -78.431, 34.5383
3.652, 5, 33.0659, 52.8873, -8.87876, 90.2595, -78.4631, 34.5506
3.656, 5, 33.0581, 52.8792, -8.84106, 90.228, -78.4949, 34.5627
3.66, 5, 33.0507, 52.8711, -8.80402, 90.197, -78.5261, 34.5746
3.664, 5, 33.0437, 52.8632, -8.76788, 90.1667, -78.5566, 34.5862
3.668, 5, 33.0371, 52.8555, -8.73293, 90.1375, -78.5862, 34.5974
3.672, 5, 33.0307, 52.848, -8.69947, 90.1094, -78.6144, 34.6081
3.676, 5, 33.0246, 52.841, -8.66778, 90.0829, -78.6412, 34.6182
3.679, 5, 33.0187, 52.8344, -8.63817, 90.0581, -78.6662, 34.6277
3.684, 5, 33.013, 52.8284, -8.61087, 90.0353, -78.6892, 34.6364
3.688, 5, 33.0075, 52.823, -8.58608, 90.0146, -78.7101, 34.6442
3.692, 5, 33.0022, 52.8183, -8.56393, 89.9962, -78.7287, 34.6512
3.696, 5, 32.997, 52.8143, -8.5445, 89.9801, -78.745, 34.6573
3.7, 5, 32.992, 52.811, -8.52777, 89.9664, -78.7589, 34.6625
