hehonglu123/ABB_Primitive_Study/execution/movel_30_car_close/curve_exe_v1000_z10.csv
timestamp, cmd_num, J1, J2, J3, J4, J5, J6
0, -1, -18.2639, 27.6366, 43.2521, -16.0925, -101.723, 6.01522
0.002, -1, -18.2639, 27.6366, 43.2521, -16.0925, -101.723, 6.01522
0.006, -1, -18.2639, 27.6366, 43.2521, -16.0925, -101.723, 6.01522
0.008, -1, -18.2639, 27.6366, 43.2521, -16.0925, -101.723, 6.01522
0.011, -1, -18.2639, 27.6366, 43.2521, -16.0925, -101.723, 6.01522
0.016, -1, -18.2639, 27.6366, 43.2521, -16.0925, -101.723, 6.01522
0.02, -1, -18.2639, 27.6366, 43.2521, -16.0925, -101.723, 6.01522
0.024, -1, -18.2639, 27.6366, 43.2521, -16.0925, -101.723, 6.01522
0.028, -1, -18.2639, 27.6366, 43.2521, -16.0925, -101.723, 6.01522
0.032, -1, -18.2639, 27.6366, 43.2521, -16.0925, -101.723, 6.01522
0.036, -1, -18.2638, 27.6366, 43.2521, -16.0925, -101.723, 6.01521
0.04, -1, -18.2635, 27.6365, 43.2521, -16.0925, -101.723, 6.01521
0.044, -1, -18.2629, 27.6361, 43.2522, -16.0925, -101.723, 6.01519
0.048, -1, -18.2616, 27.6355, 43.2523, -16.0924, -101.723, 6.01513
0.052, -1, -18.2597, 27.6345, 43.2525, -16.0922, -101.723, 6.01498
0.056, -1, -18.2568, 27.6328, 43.2529, -16.0917, -101.722, 6.01465
0.06, -1, -18.2529, 27.6304, 43.2534, -16.0908, -101.722, 6.01405
0.064, -1, -18.248, 27.6272, 43.2541, -16.0893, -101.72, 6.013
0.068, -1, -18.2417, 27.6228, 43.255, -16.0867, -101.717, 6.01131
0.072, -1, -18.234, 27.6172, 43.2562, -16.0828, -101.713, 6.00873
0.076, -1, -18.2245, 27.61, 43.2576, -16.0772, -101.707, 6.00498
0.08, -1, -18.2128, 27.601, 43.2594, -16.0692, -101.699, 5.99971
0.084, -1, -18.1986, 27.5898, 43.2615, -16.0583, -101.687, 5.99254
0.088, -1, -18.1815, 27.5762, 43.2641, -16.0438, -101.672, 5.98304
0.092, -1, -18.1612, 27.5599, 43.2671, -16.025, -101.652, 5.97075
0.096, -1, -18.1376, 27.5409, 43.2706, -16.0013, -101.627, 5.95519
0.1, -1, -18.1102, 27.5187, 43.2745, -15.9717, -101.596, 5.93588
0.104, -1, -18.0789, 27.4932, 43.279, -15.9357, -101.558, 5.91234
0.108, -1, -18.0432, 27.4642, 43.2839, -15.8925, -101.512, 5.88413
0.112, -1, -18.0031, 27.4313, 43.2895, -15.8415, -101.458, 5.85084
0.116, -1, -17.9583, 27.3946, 43.2956, -15.7821, -101.396, 5.81212
0.12, -1, -17.909, 27.3541, 43.3022, -15.7139, -101.324, 5.76767
0.124, -1, -17.8551, 27.3097, 43.3093, -15.6366, -101.242, 5.71731
0.128, -1, -17.7966, 27.2615, 43.3169, -15.55, -101.151, 5.66093
0.131, -1, -17.7338, 27.2095, 43.3251, -15.4542, -101.05, 5.59855
0.136, -1, -17.6665, 27.1539, 43.3336, -15.3494, -100.939, 5.53033
0.139, -1, -17.5948, 27.0946, 43.3427, -15.236, -100.82, 5.4565
0.144, -1, -17.5187, 27.0316, 43.3523, -15.1145, -100.691, 5.37741
0.148, -1, -17.4382, 26.965, 43.3624, -14.9855, -100.555, 5.29348
0.152, -1, -17.3537, 26.8951, 43.373, -14.8498, -100.412, 5.20516
0.156, -1, -17.2655, 26.822, 43.384, -14.7081, -100.262, 5.11296
0.16, -1, -17.174, 26.7461, 43.3955, -14.5613, -100.107, 5.01739
0.164, -1, -17.0794, 26.6676, 43.4074, -14.41, -99.9478, 4.91897
0.168, -1, -16.982, 26.5866, 43.4198, -14.2552, -99.7844, 4.81819
0.172, -1, -16.8819, 26.5033, 43.4325, -14.0975, -99.6179, 4.71552
0.176, -1, -16.7792, 26.418, 43.4456, -13.9375, -99.449, 4.61136
0.18, -1, -16.6742, 26.3309, 43.4591, -13.7758, -99.2783, 4.50606
0.184, -1, -16.5671, 26.2422, 43.4728, -13.6127, -99.1062, 4.39988
0.188, -1, -16.4583, 26.1522, 43.4868, -13.4486, -98.9331, 4.29303
0.192, -1, -16.3481, 26.0613, 43.501, -13.2838, -98.759, 4.18566
0.196, -1, -16.2369, 25.9697, 43.5154, -13.1183, -98.5844, 4.07787
0.2, -1, -16.1249, 25.8775, 43.5298, -12.9522, -98.4091, 3.96971
0.204, -1, -16.0124, 25.7848, 43.5443, -12.7857, -98.2334, 3.86125
0.208, -1, -15.8994, 25.6919, 43.5589, -12.6188, -98.0572, 3.75252
0.212, -1, -15.7859, 25.5986, 43.5735, -12.4514, -97.8806, 3.64353
0.216, -1, -15.6722, 25.5051, 43.5882, -12.2838, -97.7036, 3.53431
0.22, -1, -15.5582, 25.4114, 43.6029, -12.1157, -97.5263, 3.42486
0.224, -1, -15.4439, 25.3174, 43.6177, -11.9474, -97.3486, 3.3152
0.228, -1, -15.3294, 25.2233, 43.6325, -11.7787, -97.1706, 3.20533
0.232, -1, -15.2146, 25.129, 43.6473, -11.6097, -96.9922, 3.09526
0.236, -1, -15.0996, 25.0345, 43.6621, -11.4404, -96.8135, 2.985
0.24, -1, -14.9845, 24.9398, 43.677, -11.2708, -96.6345, 2.87454
0.244, -1, -14.8691, 24.845, 43.6918, -11.101, -96.4553, 2.76389
0.248, -1, -14.7535, 24.75, 43.7068, -10.9308, -96.2757, 2.65305
0.252, -1, -14.6377, 24.6548, 43.7217, -10.7604, -96.0958, 2.54203
0.256, -1, -14.5218, 24.5595, 43.7367, -10.5896, -95.9156, 2.43083
0.26, -1, -14.4056, 24.4641, 43.7517, -10.4187, -95.7351, 2.31945
0.264, -1, -14.2893, 24.3685, 43.7667, -10.2474, -95.5544, 2.2079
0.268, -1, -14.1728, 24.2727, 43.7817, -10.0759, -95.3734, 2.09618
0.272, -1, -14.0561, 24.1768, 43.7968, -9.90411, -95.1921, 1.98429
0.276, -1, -13.9393, 24.0808, 43.8118, -9.73208, -95.0105, 1.87224
0.28, -1, -13.8223, 23.9846, 43.8269, -9.55981, -94.8287, 1.76002
0.284, -1, -13.7051, 23.8883, 43.8421, -9.38729, -94.6466, 1.64765
0.288, -1, -13.5877, 23.7919, 43.8572, -9.21453, -94.4643, 1.53512
0.292, -1, -13.4703, 23.6953, 43.8724, -9.04154, -94.2817, 1.42244
0.296, -1, -13.3526, 23.5986, 43.8875, -8.86833, -94.0989, 1.30962
0.3, -1, -13.2348, 23.5018, 43.9027, -8.69489, -93.9158, 1.19665
0.304, -1, -13.1169, 23.4048, 43.918, -8.52124, -93.7325, 1.08354
0.308, -1, -12.9988, 23.3078, 43.9332, -8.34738, -93.549, 0.970291
0.312, -1, -12.8806, 23.2106, 43.9484, -8.17332, -93.3653, 0.856913
0.316, -1, -12.7623, 23.1134, 43.9637, -7.99906, -93.1814, 0.743408
0.32, -1, -12.6438, 23.016, 43.979, -7.82462, -92.9973, 0.629778
0.324, -1, -12.5252, 22.9185, 43.9943, -7.64999, -92.813, 0.51603
0.328, -1, -12.4065, 22.821, 44.0096, -7.47518, -92.6285, 0.402168
0.332, -1, -12.2877, 22.7233, 44.0249, -7.30021, -92.4438, 0.288197
0.336, -1, -12.1687, 22.6256, 44.0403, -7.12507, -92.259, 0.17412
0.34, -1, -12.0497, 22.5277, 44.0556, -6.94979, -92.074, 0.0599435
0.344, -1, -11.9305, 22.4298, 44.071, -6.77435, -91.8888, -0.0543284
0.348, -1, -11.8113, 22.3318, 44.0864, -6.59878, -91.7035, -0.168691
0.352, -1, -11.6919, 22.2337, 44.1018, -6.42308, -91.5181, -0.283138
0.356, -1, -11.5725, 22.1356, 44.1172, -6.24725, -91.3325, -0.397666
0.36, -1, -11.453, 22.0374, 44.1326, -6.07131, -91.1468, -0.51227
0.364, -1, -11.3334, 21.9391, 44.148, -5.89525, -90.961, -0.626944
0.368, -1, -11.2137, 21.8408, 44.1635, -5.7191, -90.7751, -0.741683
0.372, -1, -11.094, 21.7425, 44.1789, -5.54286, -90.5891, -0.856483
0.376, -1, -10.9742, 21.6441, 44.1944, -5.36653, -90.403, -0.971338
0.38, -1, -10.8544, 21.5456, 44.2098, -5.19012, -90.2168, -1.08624
0.384, -1, -10.7345, 21.4471, 44.2253, -5.01365, -90.0305, -1.20119
0.388, -1, -10.6145, 21.3486, 44.2407, -4.83711, -89.8442, -1.31618
0.392, -1, -10.4946, 21.25, 44.2562, -4.66052, -89.6578, -1.43121
0.396, -1, -10.3746, 21.1514, 44.2717, -4.48389, -89.4714, -1.54626
0.4, -1, -10.2545, 21.0528, 44.2872, -4.30722, -89.2849, -1.66134
0.404, -1, -10.1345, 20.9542, 44.3026, -4.13052, -89.0984, -1.77643
0.408, -1, -10.0144, 20.8556, 44.3181, -3.9538, -88.9119, -1.89154
0.412, -1, -9.89437, 20.7569, 44.3336, -3.77707, -88.7254, -2.00666
0.416, -1, -9.77429, 20.6583, 44.3491, -3.60033, -88.5388, -2.12178
0.42, -1, -9.65422, 20.5597, 44.3646, -3.42359, -88.3523, -2.2369
0.424, -1, -9.53415, 20.461, 44.38, -3.24687, -88.1658, -2.35202
0.428, -1, -9.41409, 20.3624, 44.3955, -3.07016, -87.9793, -2.46712
0.432, -1, -9.29405, 20.2638, 44.411, -2.89348, -87.7928, -2.5822
0.436, -1, -9.17403, 20.1652, 44.4265, -2.71684, -87.6064, -2.69726
0.44, -1, -9.05404, 20.0667, 44.4419, -2.54024, -87.42, -2.81229
0.444, -1, -8.93409, 19.9681, 44.4574, -2.36369, -87.2337, -2.92729
0.448, -1, -8.81417, 19.8696, 44.4729, -2.1872, -87.0474, -3.04225
0.452, -1, -8.6943, 19.7712, 44.4883, -2.01078, -86.8612, -3.15716
0.456, -1, -8.57448, 19.6727, 44.5038, -1.83444, -86.6751, -3.27203
0.46, -1, -8.45471, 19.5744, 44.5192, -1.65818, -86.489, -3.38684
0.464, -1, -8.33501, 19.476, 44.5346, -1.48201, -86.3031, -3.50159
0.468, -1, -8.21537, 19.3778, 44.5501, -1.30593, -86.1173, -3.61628
0.472, -1, -8.0958, 19.2796, 44.5655, -1.12997, -85.9315, -3.73089
0.476, -1, -7.97631, 19.1814, 44.5809, -0.954123, -85.746, -3.84544
0.48, -1, -7.8569, 19.0834, 44.5963, -0.778397, -85.5605, -3.9599
0.484, -1, -7.73757, 18.9854, 44.6116, -0.602801, -85.3752, -4.07428
0.488, -1, -7.61834, 18.8874, 44.627, -0.427343, -85.19, -4.18856
0.492, -1, -7.49921, 18.7896, 44.6424, -0.25203, -85.0049, -4.30276
0.496, -1, -7.38018, 18.6918, 44.6577, -0.076871, -84.8201, -4.41685
0.5, -1, -7.26126, 18.5942, 44.673, 0.0981278, -84.6354, -4.53084
0.504, -1, -7.14245, 18.4966, 44.6883, 0.272959, -84.4509, -4.64472
0.508, -1, -7.02375, 18.3991, 44.7036, 0.447614, -84.2665, -4.75848
0.512, -1, -6.90518, 18.3017, 44.7189, 0.622086, -84.0824, -4.87213
0.516, -1, -6.78674, 18.2045, 44.7342, 0.796369, -83.8984, -4.98565
0.52, -1, -6.66843, 18.1073, 44.7494, 0.970454, -83.7147, -5.09905
0.524, -1, -6.55026, 18.0103, 44.7647, 1.14434, -83.5312, -5.21231
0.528, -1, -6.43223, 17.9133, 44.7799, 1.31801, -83.3479, -5.32543
0.532, -1, -6.31434, 17.8165, 44.7951, 1.49146, -83.1648, -5.43841
0.536, -1, -6.19661, 17.7198, 44.8102, 1.66468, -82.982, -5.55125
0.54, -1, -6.07903, 17.6233, 44.8254, 1.83768, -82.7994, -5.66393
0.544, -1, -5.96161, 17.5269, 44.8405, 2.01044, -82.6171, -5.77646
0.548, -1, -5.84436, 17.4306, 44.8556, 2.18295, -82.435, -5.88883
0.552, -1, -5.72727, 17.3344, 44.8707, 2.35521, -82.2532, -6.00103
0.556, -1, -5.61036, 17.2384, 44.8858, 2.52721, -82.0716, -6.11307
0.56, -1, -5.49363, 17.1426, 44.9008, 2.69895, -81.8904, -6.22494
0.564, -1, -5.37708, 17.0469, 44.9159, 2.87042, -81.7094, -6.33663
0.568, -1, -5.26071, 16.9513, 44.9309, 3.04162, -81.5287, -6.44814
0.572, -1, -5.14454, 16.8559, 44.9458, 3.21253, -81.3483, -6.55947
0.576, -1, -5.02856, 16.7607, 44.9608, 3.38316, -81.1682, -6.67061
0.58, -1, -4.91278, 16.6656, 44.9757, 3.55349, -80.9885, -6.78156
0.584, -1, -4.79719, 16.5707, 44.9906, 3.72352, -80.809, -6.89231
0.588, -1, -4.68182, 16.476, 45.0055, 3.89325, -80.6299, -7.00287
0.592, -1, -4.56665, 16.3814, 45.0203, 4.06267, -80.451, -7.11322
0.596, -1, -4.4517, 16.287, 45.0351, 4.23177, -80.2726, -7.22337
0.6, -1, -4.33696, 16.1928, 45.0499, 4.40055, -80.0944, -7.33331
0.604, -1, -4.22243, 16.0988, 45.0647, 4.56901, -79.9166, -7.44304
0.608, -1, -4.10814, 16.0049, 45.0794, 4.73713, -79.7392, -7.55255
0.612, -1, -3.99406, 15.9112, 45.0941, 4.90493, -79.5621, -7.66184
0.616, -1, -3.88021, 15.8178, 45.1087, 5.07238, -79.3854, -7.77092
0.62, -1, -3.7666, 15.7245, 45.1234, 5.23949, -79.209, -7.87977
0.624, -1, -3.65322, 15.6314, 45.138, 5.40625, -79.033, -7.98839
0.628, -1, -3.54007, 15.5385, 45.1526, 5.57266, -78.8573, -8.09679
0.632, -1, -3.42716, 15.4458, 45.1671, 5.73872, -78.6821, -8.20495
0.636, -1, -3.31449, 15.3533, 45.1816, 5.90442, -78.5072, -8.31288
0.64, -1, -3.20207, 15.261, 45.1961, 6.06975, -78.3327, -8.42058
0.644, -1, -3.08989, 15.1689, 45.2106, 6.23473, -78.1586, -8.52804
0.648, -1, -2.97796, 15.077, 45.225, 6.39933, -77.9848, -8.63526
0.652, -1, -2.86628, 14.9853, 45.2394, 6.56357, -77.8115, -8.74224
0.656, -1, -2.75485, 14.8938, 45.2538, 6.72744, -77.6386, -8.84898
0.66, -1, -2.64367, 14.8025, 45.2681, 6.89093, -77.466, -8.95547
0.664, -1, -2.53275, 14.7115, 45.2824, 7.05404, -77.2939, -9.06172
0.668, -1, -2.42209, 14.6206, 45.2966, 7.21677, -77.1221, -9.16772
0.672, -1, -2.31168, 14.5299, 45.3109, 7.37913, -76.9507, -9.27347
0.676, -1, -2.20153, 14.4395, 45.3251, 7.5411, -76.7798, -9.37897
0.68, -1, -2.09164, 14.3493, 45.3392, 7.70269, -76.6092, -9.48423
0.684, -1, -1.98201, 14.2593, 45.3533, 7.86389, -76.4391, -9.58923
0.688, -1, -1.87265, 14.1695, 45.3674, 8.0247, -76.2694, -9.69398
0.692, -1, -1.76355, 14.0799, 45.3815, 8.18512, -76.1001, -9.79848
0.696, -1, -1.65471, 13.9906, 45.3955, 8.34516, -75.9312, -9.90272
0.7, -1, -1.54614, 13.9014, 45.4095, 8.5048, -75.7627, -10.0067
0.704, -1, -1.43783, 13.8125, 45.4235, 8.66405, -75.5946, -10.1104
0.708, -1, -1.3298, 13.7238, 45.4374, 8.8229, -75.4269, -10.2139
0.712, -1, -1.22203, 13.6353, 45.4513, 8.98136, -75.2597, -10.3171
0.716, -1, -1.11453, 13.5471, 45.4651, 9.13942, -75.0929, -10.4201
0.72, -1, -1.0073, 13.4591, 45.4789, 9.29708, -74.9265, -10.5228
0.724, -1, -0.900341, 13.3712, 45.4927, 9.45434, -74.7605, -10.6252
0.728, -1, -0.793652, 13.2837, 45.5065, 9.61121, -74.5949, -10.7274
0.732, -1, -0.687235, 13.1963, 45.5202, 9.76767, -74.4298, -10.8293
0.736, -1, -0.58109, 13.1091, 45.5339, 9.92374, -74.2651, -10.931
0.74, -1, -0.475218, 13.0222, 45.5475, 10.0794, -74.1008, -11.0324
0.744, -1, -0.369619, 12.9355, 45.5611, 10.2347, -73.9369, -11.1335
0.748, -1, -0.264294, 12.8491, 45.5747, 10.3895, -73.7735, -11.2344
0.752, -1, -0.159242, 12.7628, 45.5882, 10.544, -73.6105, -11.335
0.756, -1, -0.0544645, 12.6768, 45.6017, 10.698, -73.4479, -11.4353
0.76, -1, 0.0500385, 12.591, 45.6152, 10.8517, -73.2857, -11.5354
0.764, -1, 0.154267, 12.5054, 45.6286, 11.0049, -73.124, -11.6352
0.768, -1, 0.25822, 12.4201, 45.642, 11.1577, -72.9627, -11.7347
0.772, -1, 0.361898, 12.335, 45.6554, 11.3102, -72.8018, -11.834
0.776, -1, 0.465301, 12.2501, 45.6687, 11.4622, -72.6414, -11.9331
0.78, -1, 0.568428, 12.1654, 45.682, 11.6138, -72.4813, -12.0318
0.784, -1, 0.67128, 12.081, 45.6952, 11.765, -72.3218, -12.1303
0.788, -1, 0.773856, 11.9968, 45.7085, 11.9158, -72.1626, -12.2285
0.792, -1, 0.876156, 11.9128, 45.7216, 12.0662, -72.0039, -12.3265
0.796, -1, 0.978181, 11.829, 45.7348, 12.2162, -71.8456, -12.4242
0.8, -1, 1.07993, 11.7455, 45.7479, 12.3658, -71.6877, -12.5216
0.804, -1, 1.1814, 11.6622, 45.761, 12.5149, -71.5302, -12.6188
0.808, -1, 1.2826, 11.5791, 45.774, 12.6637, -71.3732, -12.7157
0.812, -1, 1.38352, 11.4963, 45.787, 12.8121, -71.2166, -12.8124
0.816, -1, 1.48417, 11.4136, 45.8, 12.96, -71.0605, -12.9087
0.82, -1, 1.58454, 11.3312, 45.8129, 13.1076, -70.9047, -13.0048
0.824, -1, 1.68464, 11.2491, 45.8258, 13.2548, -70.7494, -13.1007
0.828, -1, 1.78446, 11.1671, 45.8387, 13.4015, -70.5945, -13.1963
0.832, -1, 1.88401, 11.0854, 45.8515, 13.5478, -70.4401, -13.2916
0.836, -1, 1.98329, 11.0039, 45.8643, 13.6938, -70.2861, -13.3867
0.84, -1, 2.0823, 10.9226, 45.8771, 13.8393, -70.1325, -13.4815
0.844, -1, 2.18103, 10.8416, 45.8898, 13.9844, -69.9793, -13.576
0.848, -1, 2.27949, 10.7607, 45.9025, 14.1292, -69.8265, -13.6703
0.852, -1, 2.37768, 10.6801, 45.9151, 14.2735, -69.6742, -13.7643
0.856, -1, 2.4756, 10.5997, 45.9278, 14.4174, -69.5223, -13.858
0.86, -1, 2.57325, 10.5196, 45.9403, 14.561, -69.3708, -13.9515
0.864, -1, 2.67063, 10.4396, 45.9529, 14.7041, -69.2197, -14.0448
0.868, -1, 2.76775, 10.3599, 45.9654, 14.8469, -69.0691, -14.1378
0.872, -1, 2.8646, 10.2804, 45.9779, 14.9892, -68.9188, -14.2305
0.876, -1, 2.96118, 10.2011, 45.9903, 15.1312, -68.769, -14.323
0.88, -1, 3.0575, 10.1221, 46.0027, 15.2727, -68.6196, -14.4152
0.884, -1, 3.15355, 10.0432, 46.0151, 15.4139, -68.4706, -14.5071
0.888, -1, 3.24934, 9.96457, 46.0275, 15.5547, -68.322, -14.5988
0.892, -1, 3.34487, 9.88615, 46.0398, 15.6951, -68.1738, -14.6903
0.896, -1, 3.44014, 9.80795, 46.052, 15.8352, -68.026, -14.7815
0.9, -1, 3.53514, 9.72995, 46.0643, 15.9748, -67.8786, -14.8725
0.904, -1, 3.62989, 9.65217, 46.0765, 16.1141, -67.7316, -14.9632
0.908, -1, 3.72438, 9.5746, 46.0887, 16.253, -67.585, -15.0537
0.912, -1, 3.81862, 9.49724, 46.1008, 16.3915, -67.4389, -15.1439
0.916, -1, 3.9126, 9.42009, 46.1129, 16.5296, -67.2931, -15.2338
0.92, -1, 4.00632, 9.34315, 46.125, 16.6674, -67.1477, -15.3236
0.924, -1, 4.0998, 9.26642, 46.1371, 16.8047, -67.0027, -15.4131
0.928, -1, 4.19302, 9.18989, 46.1491, 16.9418, -66.858, -15.5023
0.932, -1, 4.28599, 9.11357, 46.161, 17.0784, -66.7138, -15.5913
0.936, -1, 4.37871, 9.03745, 46.173, 17.2147, -66.57, -15.6801
0.94, -1, 4.47118, 8.96154, 46.1849, 17.3506, -66.4265, -15.7686
0.944, -1, 4.56341, 8.88583, 46.1968, 17.4862, -66.2835, -15.8569
0.948, -1, 4.65539, 8.81032, 46.2087, 17.6214, -66.1408, -15.945
0.952, -1, 4.74712, 8.73502, 46.2205, 17.7562, -65.9985, -16.0328
0.956, -1, 4.83861, 8.65991, 46.2323, 17.8907, -65.8565, -16.1204
0.96, -1, 4.92986, 8.585, 46.244, 18.0248, -65.715, -16.2078
0.964, -1, 5.02087, 8.5103, 46.2558, 18.1585, -65.5738, -16.2949
0.968, -1, 5.11163, 8.43578, 46.2674, 18.292, -65.433, -16.3818
0.972, -1, 5.20216, 8.36147, 46.2791, 18.425, -65.2926, -16.4685
0.976, -1, 5.29245, 8.28735, 46.2907, 18.5577, -65.1525, -16.5549
0.98, -1, 5.38249, 8.21343, 46.3024, 18.6901, -65.0128, -16.6411
0.984, -1, 5.47231, 8.1397, 46.3139, 18.8221, -64.8735, -16.7271
0.988, -1, 5.56189, 8.06616, 46.3255, 18.9538, -64.7345, -16.8129
0.992, -1, 5.65123, 7.99281, 46.337, 19.0851, -64.5959, -16.8984
0.996, -1, 5.74034, 7.91966, 46.3485, 19.2161, -64.4577, -16.9837
1, -1, 5.82922, 7.84669, 46.3599, 19.3467, -64.3198, -17.0688
1.004, -1, 5.91787, 7.77392, 46.3714, 19.477, -64.1823, -17.1537
1.008, -1, 6.00629, 7.70133, 46.3827, 19.607, -64.0451, -17.2384
1.012, -1, 6.09448, 7.62894, 46.3941, 19.7366, -63.9083, -17.3228
1.016, -1, 6.18245, 7.55672, 46.4054, 19.8659, -63.7719, -17.407
1.02, -1, 6.27018, 7.4847, 46.4168, 19.9948, -63.6358, -17.491
1.024, -1, 6.35769, 7.41286, 46.428, 20.1234, -63.5, -17.5748
1.027, -1, 6.44498, 7.3412, 46.4393, 20.2517, -63.3646, -17.6584
1.032, -1, 6.53204, 7.26973, 46.4505, 20.3797, -63.2295, -17.7417
1.036, -1, 6.61888, 7.19844, 46.4617, 20.5074, -63.0948, -17.8249
1.04, -1, 6.7055, 7.12733, 46.4729, 20.6347, -62.9605, -17.9078
1.044, -1, 6.79189, 7.05641, 46.484, 20.7617, -62.8264, -17.9905
1.048, -1, 6.87807, 6.98566, 46.4951, 20.8883, -62.6927, -18.073
1.052, -1, 6.96403, 6.91509, 46.5062, 21.0147, -62.5594, -18.1553
1.055, -1, 7.04978, 6.8447, 46.5172, 21.1407, -62.4264, -18.2374
1.06, -1, 7.1353, 6.77449, 46.5283, 21.2664, -62.2937, -18.3193
1.064, -1, 7.22061, 6.70445, 46.5392, 21.3918, -62.1614, -18.401
1.068, -1, 7.30571, 6.6346, 46.5502, 21.5169, -62.0293, -18.4824
1.072, -1, 7.39059, 6.56491, 46.5611, 21.6416, -61.8977, -18.5637
1.076, -1, 7.47526, 6.4954, 46.5721, 21.7661, -61.7663, -18.6448
1.08, -1, 7.55972, 6.42607, 46.583, 21.8902, -61.6353, -18.7256
1.084, -1, 7.64397, 6.3569, 46.5938, 22.0141, -61.5046, -18.8063
1.088, -1, 7.72801, 6.28791, 46.6046, 22.1376, -61.3742, -18.8868
1.091, -1, 7.81184, 6.21909, 46.6154, 22.2608, -61.2442, -18.967
1.096, -1, 7.89547, 6.15044, 46.6262, 22.3837, -61.1144, -19.0471
1.1, -1, 7.97889, 6.08195, 46.637, 22.5063, -60.985, -19.1269
1.104, -1, 8.0621, 6.01364, 46.6477, 22.6287, -60.8559, -19.2066
1.108, -1, 8.14511, 5.94549, 46.6584, 22.7507, -60.7272, -19.2861
1.112, -1, 8.22792, 5.87751, 46.6691, 22.8724, -60.5987, -19.3654
1.116, -1, 8.31053, 5.8097, 46.6797, 22.9938, -60.4706, -19.4445
1.119, -1, 8.39293, 5.74205, 46.6903, 23.1149, -60.3427, -19.5234
1.124, -1, 8.47514, 5.67456, 46.7009, 23.2357, -60.2152, -19.6021
1.128, -1, 8.55715, 5.60723, 46.7115, 23.3563, -60.088, -19.6806
1.132, -1, 8.63896, 5.54007, 46.722, 23.4765, -59.9611, -19.7589
1.136, -1, 8.72058, 5.47307, 46.7326, 23.5965, -59.8345, -19.837
1.14, -1, 8.802, 5.40623, 46.7431, 23.7161, -59.7082, -19.915
1.144, -1, 8.88322, 5.33954, 46.7535, 23.8355, -59.5822, -19.9927
1.147, -1, 8.96426, 5.27302, 46.764, 23.9546, -59.4565, -20.0703
1.152, -1, 9.0451, 5.20665, 46.7744, 24.0735, -59.3311, -20.1477
1.156, -1, 9.12575, 5.14044, 46.7848, 24.192, -59.206, -20.2249
1.16, -1, 9.20622, 5.07438, 46.7952, 24.3103, -59.0811, -20.302
1.164, -1, 9.28649, 5.00848, 46.8055, 24.4283, -58.9566, -20.3788
1.168, -1, 9.36658, 4.94273, 46.8158, 24.546, -58.8324, -20.4555
1.172, -1, 9.44648, 4.87714, 46.8261, 24.6634, -58.7084, -20.532
1.175, -1, 9.5262, 4.81169, 46.8364, 24.7806, -58.5847, -20.6083
1.18, -1, 9.60574, 4.7464, 46.8466, 24.8975, -58.4614, -20.6845
1.184, -1, 9.68509, 4.68126, 46.8569, 25.0141, -58.3383, -20.7604
1.188, -1, 9.76426, 4.61626, 46.8671, 25.1305, -58.2155, -20.8362
1.192, -1, 9.84325, 4.55141, 46.8773, 25.2466, -58.0929, -20.9119
1.196, -1, 9.92206, 4.48671, 46.8874, 25.3624, -57.9707, -20.9873
1.2, -1, 10.0007, 4.42216, 46.8976, 25.478, -57.8487, -21.0626
1.204, -1, 10.0791, 4.35775, 46.9077, 25.5933, -57.727, -21.1377
1.208, -1, 10.1574, 4.29349, 46.9178, 25.7084, -57.6055, -21.2127
1.212, -1, 10.2355, 4.22937, 46.9278, 25.8232, -57.4844, -21.2874
1.216, -1, 10.3134, 4.16539, 46.9379, 25.9377, -57.3635, -21.3621
1.22, -1, 10.3912, 4.10156, 46.9479, 26.052, -57.2429, -21.4365
1.224, -1, 10.4688, 4.03787, 46.9579, 26.166, -57.1225, -21.5108
1.228, -1, 10.5462, 3.97432, 46.9679, 26.2798, -57.0024, -21.5849
1.232, -1, 10.6234, 3.9109, 46.9778, 26.3933, -56.8826, -21.6588
1.236, -1, 10.7005, 3.84763, 46.9878, 26.5066, -56.763, -21.7326
1.24, -1, 10.7774, 3.7845, 46.9977, 26.6197, -56.6437, -21.8063
1.244, -1, 10.8541, 3.7215, 47.0076, 26.7325, -56.5247, -21.8797
1.248, -1, 10.9307, 3.65864, 47.0174, 26.845, -56.4059, -21.953
1.252, -1, 11.0071, 3.59591, 47.0273, 26.9573, -56.2874, -22.0262
1.256, -1, 11.0834, 3.53333, 47.0371, 27.0694, -56.1691, -22.0992
1.26, -1, 11.1594, 3.47087, 47.0469, 27.1812, -56.0511, -22.172
1.264, -1, 11.2353, 3.40855, 47.0567, 27.2928, -55.9333, -22.2447
1.267, -1, 11.3111, 3.34636, 47.0665, 27.4041, -55.8158, -22.3172
1.272, -1, 11.3867, 3.28431, 47.0762, 27.5152, -55.6985, -22.3896
1.276, -1, 11.4621, 3.22238, 47.0859, 27.6261, -55.5815, -22.4618
1.28, -1, 11.5374, 3.16059, 47.0956, 27.7367, -55.4648, -22.5339
1.284, -1, 11.6125, 3.09893, 47.1053, 27.8471, -55.3482, -22.6058
1.288, -1, 11.6874, 3.0374, 47.115, 27.9573, -55.232, -22.6775
1.292, -1, 11.7622, 2.97599, 47.1246, 28.0672, -55.1159, -22.7492
1.295, -1, 11.8369, 2.91471, 47.1342, 28.1769, -55.0001, -22.8206
1.3, -1, 11.9113, 2.85357, 47.1438, 28.2864, -54.8846, -22.8919
1.304, -1, 11.9857, 2.79254, 47.1534, 28.3957, -54.7693, -22.9631
1.308, -1, 12.0598, 2.73165, 47.163, 28.5047, -54.6542, -23.0341
1.312, -1, 12.1339, 2.67088, 47.1725, 28.6135, -54.5394, -23.105
1.316, -1, 12.2077, 2.61023, 47.182, 28.7221, -54.4248, -23.1757
1.32, -1, 12.2814, 2.54971, 47.1915, 28.8304, -54.3104, -23.2463
1.324, -1, 12.355, 2.48931, 47.201, 28.9386, -54.1963, -23.3167
1.328, -1, 12.4284, 2.42904, 47.2105, 29.0465, -54.0824, -23.387
1.332, -1, 12.5017, 2.36888, 47.2199, 29.1542, -53.9687, -23.4572
1.336, -1, 12.5748, 2.30885, 47.2293, 29.2617, -53.8553, -23.5272
1.34, -1, 12.6478, 2.24894, 47.2387, 29.3689, -53.7421, -23.5971
1.344, -1, 12.7206, 2.18915, 47.2481, 29.476, -53.6291, -23.6668
1.348, -1, 12.7933, 2.12948, 47.2575, 29.5828, -53.5163, -23.7364
1.352, -1, 12.8659, 2.06993, 47.2669, 29.6895, -53.4038, -23.8058
1.356, -1, 12.9383, 2.0105, 47.2762, 29.7959, -53.2915, -23.8752
1.36, -1, 13.0105, 1.95118, 47.2855, 29.9021, -53.1794, -23.9443
1.364, -1, 13.0826, 1.89199, 47.2948, 30.0081, -53.0675, -24.0134
1.368, -1, 13.1546, 1.83291, 47.3041, 30.1138, -52.9559, -24.0823
1.372, -1, 13.2264, 1.77394, 47.3133, 30.2194, -52.8445, -24.151
1.376, -1, 13.2981, 1.71509, 47.3226, 30.3248, -52.7333, -24.2197
1.38, -1, 13.3696, 1.65636, 47.3318, 30.4299, -52.6223, -24.2882
1.384, -1, 13.441, 1.59774, 47.341, 30.5349, -52.5115, -24.3565
1.388, -1, 13.5123, 1.53923, 47.3502, 30.6396, -52.4009, -24.4248
1.392, -1, 13.5834, 1.48084, 47.3593, 30.7442, -52.2906, -24.4929
1.396, -1, 13.6544, 1.42256, 47.3685, 30.8485, -52.1805, -24.5608
1.4, -1, 13.7253, 1.36439, 47.3776, 30.9527, -52.0705, -24.6287
1.404, -1, 13.796, 1.30634, 47.3867, 31.0566, -51.9608, -24.6964
1.408, -1, 13.8666, 1.24839, 47.3958, 31.1604, -51.8513, -24.764
1.412, -1, 13.937, 1.19055, 47.4049, 31.2639, -51.742, -24.8314
1.416, -1, 14.0074, 1.13283, 47.414, 31.3673, -51.633, -24.8987
1.42, -1, 14.0775, 1.07521, 47.423, 31.4704, -51.5241, -24.9659
1.424, -1, 14.1476, 1.0177, 47.4321, 31.5734, -51.4154, -25.033
1.428, -1, 14.2175, 0.960302, 47.4411, 31.6762, -51.307, -25.0999
1.432, -1, 14.2873, 0.903009, 47.4501, 31.7788, -51.1987, -25.1668
1.436, -1, 14.357, 0.845822, 47.459, 31.8811, -51.0906, -25.2334
1.44, -1, 14.4265, 0.788742, 47.468, 31.9833, -50.9828, -25.3
1.444, -1, 14.4959, 0.731767, 47.4769, 32.0854, -50.8751, -25.3665
1.448, -1, 14.5652, 0.674897, 47.4859, 32.1872, -50.7676, -25.4328
1.452, -1, 14.6343, 0.618132, 47.4948, 32.2888, -50.6604, -25.499
1.456, -1, 14.7033, 0.56147, 47.5037, 32.3903, -50.5533, -25.5651
1.46, -1, 14.7722, 0.504912, 47.5126, 32.4915, -50.4464, -25.631
1.464, -1, 14.841, 0.448456, 47.5214, 32.5926, -50.3397, -25.6969
1.468, -1, 14.9096, 0.392102, 47.5303, 32.6935, -50.2333, -25.7626
1.472, -1, 14.9782, 0.33585, 47.5391, 32.7942, -50.127, -25.8282
1.476, -1, 15.0466, 0.279699, 47.5479, 32.8947, -50.0208, -25.8937
1.48, -1, 15.1148, 0.223648, 47.5567, 32.9951, -49.9149, -25.959
1.484, -1, 15.183, 0.167697, 47.5655, 33.0953, -49.8092, -26.0243
1.488, -1, 15.251, 0.111846, 47.5743, 33.1953, -49.7037, -26.0894
1.492, -1, 15.3189, 0.056093, 47.583, 33.2951, -49.5983, -26.1545
1.496, -1, 15.3867, 0.000438437, 47.5918, 33.3947, -49.4931, -26.2194
1.5, -1, 15.4544, -0.0551184, 47.6005, 33.4942, -49.3881, -26.2842
1.504, -1, 15.522, -0.110578, 47.6092, 33.5935, -49.2833, -26.3488
1.508, -1, 15.5894, -0.165941, 47.6179, 33.6926, -49.1787, -26.4134
1.512, -1, 15.6567, -0.221208, 47.6266, 33.7916, -49.0743, -26.4779
1.516, -1, 15.7239, -0.276379, 47.6352, 33.8904, -48.97, -26.5422
1.52, -1, 15.791, -0.331455, 47.6439, 33.989, -48.866, -26.6064
1.524, -1, 15.858, -0.386436, 47.6525, 34.0874, -48.7621, -26.6706
1.528, -1, 15.9248, -0.441323, 47.6611, 34.1857, -48.6583, -26.7346
1.532, -1, 15.9916, -0.496117, 47.6697, 34.2838, -48.5548, -26.7985
1.536, -1, 16.0582, -0.550817, 47.6783, 34.3817, -48.4514, -26.8623
1.54, -1, 16.1247, -0.605425, 47.6869, 34.4795, -48.3482, -26.926
1.544, -1, 16.1911, -0.65994, 47.6955, 34.5771, -48.2452, -26.9895
1.548, -1, 16.2574, -0.714364, 47.704, 34.6746, -48.1424, -27.053
1.552, -1, 16.3236, -0.768696, 47.7125, 34.7718, -48.0397, -27.1164
1.556, -1, 16.3897, -0.822938, 47.7211, 34.869, -47.9372, -27.1796
1.56, -1, 16.4556, -0.87709, 47.7295, 34.9659, -47.8349, -27.2428
1.564, -1, 16.5215, -0.931151, 47.738, 35.0627, -47.7327, -27.3058
1.568, -1, 16.5872, -0.985123, 47.7465, 35.1593, -47.6307, -27.3688
1.572, -1, 16.6529, -1.03901, 47.755, 35.2558, -47.5289, -27.4316
1.576, -1, 16.7184, -1.0928, 47.7634, 35.3521, -47.4272, -27.4944
1.58, -1, 16.7838, -1.14651, 47.7719, 35.4483, -47.3258, -27.557
1.584, -1, 16.8491, -1.20013, 47.7803, 35.5443, -47.2244, -27.6195
1.588, -1, 16.9143, -1.25366, 47.7887, 35.6401, -47.1233, -27.682
1.592, -1, 16.9794, -1.3071, 47.7971, 35.7358, -47.0223, -27.7443
1.596, -1, 17.0444, -1.36046, 47.8054, 35.8314, -46.9214, -27.8065
1.6, -1, 17.1093, -1.41374, 47.8138, 35.9268, -46.8208, -27.8687
1.604, -1, 17.1741, -1.46692, 47.8222, 36.022, -46.7203, -27.9307
1.608, -1, 17.2388, -1.52003, 47.8305, 36.1171, -46.6199, -27.9926
1.612, -1, 17.3034, -1.57304, 47.8388, 36.212, -46.5197, -28.0544
1.616, -1, 17.3678, -1.62598, 47.8471, 36.3068, -46.4197, -28.1162
1.62, -1, 17.4322, -1.67883, 47.8554, 36.4014, -46.3198, -28.1778
1.624, -1, 17.4965, -1.73159, 47.8637, 36.4959, -46.2201, -28.2394
1.628, -1, 17.5607, -1.78428, 47.872, 36.5902, -46.1206, -28.3008
1.632, -1, 17.6247, -1.83688, 47.8802, 36.6844, -46.0212, -28.3621
1.636, -1, 17.6887, -1.8894, 47.8885, 36.7784, -45.9219, -28.4234
1.64, -1, 17.7526, -1.94183, 47.8967, 36.8723, -45.8228, -28.4846
1.644, -1, 17.8163, -1.99419, 47.9049, 36.966, -45.7239, -28.5456
1.648, -1, 17.88, -2.04646, 47.9132, 37.0596, -45.6251, -28.6066
1.652, -1, 17.9436, -2.09866, 47.9213, 37.1531, -45.5265, -28.6674
1.656, -1, 18.0071, -2.15077, 47.9295, 37.2464, -45.428, -28.7282
1.66, -1, 18.0704, -2.2028, 47.9377, 37.3396, -45.3297, -28.7889
1.664, -1, 18.1337, -2.25476, 47.9459, 37.4326, -45.2315, -28.8495
1.668, -1, 18.1969, -2.30663, 47.954, 37.5255, -45.1335, -28.91
1.672, -1, 18.26, -2.35843, 47.9621, 37.6182, -45.0356, -28.9704
1.676, -1, 18.323, -2.41015, 47.9703, 37.7108, -44.9378, -29.0307
1.68, -1, 18.3859, -2.46179, 47.9784, 37.8033, -44.8403, -29.091
1.684, -1, 18.4487, -2.51335, 47.9865, 37.8956, -44.7428, -29.1511
1.688, -1, 18.5114, -2.56483, 47.9945, 37.9878, -44.6455, -29.2111
1.692, -1, 18.574, -2.61624, 48.0026, 38.0798, -44.5484, -29.2711
1.696, -1, 18.6366, -2.66757, 48.0107, 38.1717, -44.4514, -29.331
1.7, -1, 18.699, -2.71883, 48.0187, 38.2635, -44.3545, -29.3907
1.704, -1, 18.7613, -2.77001, 48.0268, 38.3551, -44.2578, -29.4504
1.708, -1, 18.8236, -2.82111, 48.0348, 38.4466, -44.1612, -29.51
1.712, -1, 18.8857, -2.87214, 48.0428, 38.538, -44.0648, -29.5695
1.716, -1, 18.9478, -2.92309, 48.0508, 38.6292, -43.9685, -29.629
1.72, -1, 19.0098, -2.97397, 48.0588, 38.7203, -43.8724, -29.6883
1.724, -1, 19.0716, -3.02477, 48.0668, 38.8113, -43.7764, -29.7476
1.728, -1, 19.1334, -3.07551, 48.0747, 38.9021, -43.6805, -29.8067
1.732, -1, 19.1951, -3.12616, 48.0827, 38.9928, -43.5848, -29.8658
1.736, -1, 19.2567, -3.17675, 48.0906, 39.0834, -43.4892, -29.9248
1.74, -1, 19.3183, -3.22726, 48.0985, 39.1738, -43.3937, -29.9837
1.744, -1, 19.3797, -3.2777, 48.1065, 39.2642, -43.2984, -30.0425
1.748, -1, 19.441, -3.32806, 48.1144, 39.3543, -43.2032, -30.1013
1.752, -1, 19.5023, -3.37836, 48.1223, 39.4444, -43.1082, -30.1599
1.756, -1, 19.5635, -3.42858, 48.1302, 39.5343, -43.0133, -30.2185
1.76, -1, 19.6246, -3.47873, 48.138, 39.6241, -42.9185, -30.277
1.764, -1, 19.6856, -3.52881, 48.1459, 39.7138, -42.8239, -30.3354
1.768, -1, 19.7465, -3.57882, 48.1538, 39.8033, -42.7294, -30.3937
1.772, -1, 19.8073, -3.62876, 48.1616, 39.8927, -42.635, -30.452
1.776, -1, 19.868, -3.67863, 48.1694, 39.982, -42.5407, -30.5101
1.78, -1, 19.9287, -3.72844, 48.1772, 40.0712, -42.4466, -30.5682
1.784, -1, 19.9893, -3.77817, 48.185, 40.1602, -42.3526, -30.6262
1.788, -1, 20.0498, -3.82783, 48.1928, 40.2492, -42.2588, -30.6841
1.792, -1, 20.1102, -3.87743, 48.2006, 40.338, -42.1651, -30.742
1.796, -1, 20.1705, -3.92695, 48.2084, 40.4266, -42.0715, -30.7997
1.8, -1, 20.2307, -3.97641, 48.2162, 40.5152, -41.978, -30.8574
1.804, -1, 20.2909, -4.0258, 48.2239, 40.6036, -41.8847, -30.915
1.808, -1, 20.351, -4.07513, 48.2317, 40.6919, -41.7915, -30.9726
1.812, -1, 20.411, -4.12438, 48.2394, 40.7801, -41.6984, -31.03
1.816, -1, 20.4709, -4.17357, 48.2471, 40.8682, -41.6054, -31.0874
1.82, -1, 20.5307, -4.2227, 48.2548, 40.9562, -41.5126, -31.1447
1.824, -1, 20.5905, -4.27176, 48.2625, 41.044, -41.4199, -31.2019
1.828, -1, 20.6501, -4.32075, 48.2702, 41.1317, -41.3273, -31.259
1.832, -1, 20.7097, -4.36968, 48.2779, 41.2193, -41.2348, -31.3161
1.836, -1, 20.7692, -4.41854, 48.2856, 41.3068, -41.1425, -31.3731
1.84, -1, 20.8287, -4.46734, 48.2933, 41.3942, -41.0503, -31.43
1.844, -1, 20.888, -4.51607, 48.3009, 41.4815, -40.9582, -31.4868
1.848, -1, 20.9473, -4.56474, 48.3085, 41.5686, -40.8662, -31.5436
1.852, -1, 21.0065, -4.61335, 48.3162, 41.6556, -40.7744, -31.6003
1.856, -1, 21.0656, -4.66189, 48.3238, 41.7425, -40.6826, -31.6569
1.86, -1, 21.1247, -4.71037, 48.3314, 41.8293, -40.591, -31.7134
1.864, -1, 21.1837, -4.75878, 48.339, 41.916, -40.4995, -31.7699
1.868, -1, 21.2425, -4.80714, 48.3466, 42.0026, -40.4082, -31.8263
1.872, -1, 21.3014, -4.85543, 48.3542, 42.0891, -40.3169, -31.8826
1.876, -1, 21.3601, -4.90366, 48.3618, 42.1754, -40.2258, -31.9389
1.88, -1, 21.4188, -4.95183, 48.3693, 42.2617, -40.1347, -31.995
1.884, -1, 21.4774, -4.99993, 48.3769, 42.3478, -40.0438, -32.0511
1.888, -1, 21.5359, -5.04798, 48.3844, 42.4338, -39.953, -32.1072
1.892, -1, 21.5943, -5.09596, 48.392, 42.5197, -39.8624, -32.1631
1.896, -1, 21.6527, -5.14388, 48.3995, 42.6055, -39.7718, -32.219
1.9, -1, 21.711, -5.19174, 48.407, 42.6912, -39.6814, -32.2749
1.904, -1, 21.7692, -5.23955, 48.4145, 42.7768, -39.591, -32.3306
1.908, -1, 21.8274, -5.28729, 48.422, 42.8623, -39.5008, -32.3863
1.912, -1, 21.8854, -5.33497, 48.4295, 42.9477, -39.4107, -32.4419
1.916, -1, 21.9434, -5.38259, 48.437, 43.033, -39.3207, -32.4974
1.92, -1, 22.0014, -5.43016, 48.4444, 43.1181, -39.2308, -32.5529
1.924, -1, 22.0592, -5.47766, 48.4519, 43.2032, -39.141, -32.6083
1.928, -1, 22.117, -5.52511, 48.4593, 43.2881, -39.0514, -32.6637
1.932, -1, 22.1747, -5.5725, 48.4668, 43.373, -38.9618, -32.7189
1.936, -1, 22.2324, -5.61983, 48.4742, 43.4577, -38.8724, -32.7741
1.94, -1, 22.2899, -5.6671, 48.4816, 43.5424, -38.783, -32.8293
1.944, -1, 22.3475, -5.71431, 48.489, 43.6269, -38.6938, -32.8843
1.948, -1, 22.4049, -5.76147, 48.4965, 43.7113, -38.6047, -32.9393
1.952, -1, 22.4623, -5.80857, 48.5038, 43.7957, -38.5157, -32.9943
1.956, -1, 22.5196, -5.85562, 48.5112, 43.8799, -38.4268, -33.0491
1.96, -1, 22.5768, -5.9026, 48.5186, 43.9641, -38.338, -33.1039
1.964, -1, 22.6339, -5.94953, 48.526, 44.0481, -38.2493, -33.1587
1.968, -1, 22.691, -5.99641, 48.5333, 44.132, -38.1607, -33.2133
1.972, -1, 22.7481, -6.04323, 48.5407, 44.2158, -38.0723, -33.2679
1.976, -1, 22.805, -6.08999, 48.548, 44.2996, -37.9839, -33.3225
1.98, -1, 22.8619, -6.1367, 48.5554, 44.3832, -37.8956, -33.3769
1.984, -1, 22.9187, -6.18335, 48.5627, 44.4667, -37.8075, -33.4314
1.988, -1, 22.9755, -6.22995, 48.57, 44.5502, -37.7194, -33.4857
1.992, -1, 23.0322, -6.27649, 48.5773, 44.6335, -37.6315, -33.54
1.996, -1, 23.0888, -6.32298, 48.5846, 44.7167, -37.5436, -33.5942
1.999, -1, 23.1453, -6.36941, 48.5919, 44.7999, -37.4558, -33.6484
2.004, -1, 23.2018, -6.41579, 48.5992, 44.8829, -37.3682, -33.7024
2.008, -1, 23.2582, -6.46212, 48.6065, 44.9659, -37.2807, -33.7565
2.012, -1, 23.3146, -6.50839, 48.6137, 45.0487, -37.1932, -33.8104
2.015, -1, 23.3709, -6.55461, 48.621, 45.1315, -37.1059, -33.8643
2.019, -1, 23.4271, -6.60077, 48.6282, 45.2141, -37.0186, -33.9182
2.024, -1, 23.4833, -6.64688, 48.6355, 45.2967, -36.9315, -33.972
2.028, -1, 23.5394, -6.69295, 48.6427, 45.3792, -36.8444, -34.0257
2.031, -1, 23.5954, -6.73895, 48.6499, 45.4616, -36.7575, -34.0794
2.036, -1, 23.6514, -6.78491, 48.6571, 45.5438, -36.6707, -34.1329
2.04, -1, 23.7073, -6.83081, 48.6644, 45.626, -36.5839, -34.1865
2.044, -1, 23.7631, -6.87666, 48.6716, 45.7081, -36.4973, -34.24
2.048, -1, 23.8189, -6.92246, 48.6787, 45.7901, -36.4107, -34.2934
2.051, -1, 23.8746, -6.96821, 48.6859, 45.872, -36.3243, -34.3467
2.055, -1, 23.9303, -7.0139, 48.6931, 45.9539, -36.2379, -34.4
2.06, -1, 23.9859, -7.05955, 48.7003, 46.0356, -36.1516, -34.4533
2.064, -1, 24.0414, -7.10514, 48.7074, 46.1172, -36.0655, -34.5064
2.068, -1, 24.0969, -7.15069, 48.7146, 46.1988, -35.9794, -34.5596
2.071, -1, 24.1523, -7.19618, 48.7217, 46.2802, -35.8934, -34.6126
2.076, -1, 24.2076, -7.24163, 48.7289, 46.3616, -35.8076, -34.6656
2.08, -1, 24.2629, -7.28702, 48.736, 46.4429, -35.7218, -34.7186
2.084, -1, 24.3181, -7.33237, 48.7431, 46.5241, -35.6361, -34.7714
2.087, -1, 24.3733, -7.37766, 48.7502, 46.6052, -35.5505, -34.8243
2.092, -1, 24.4284, -7.4229, 48.7573, 46.6862, -35.465, -34.877
2.096, -1, 24.4834, -7.46805, 48.7644, 46.7671, -35.3796, -34.9298
2.1, -1, 24.5381, -7.51304, 48.7715, 46.8479, -35.2943, -34.9824
2.104, -1, 24.5925, -7.55778, 48.7785, 46.9286, -35.2091, -35.035
2.107, -1, 24.6463, -7.60215, 48.7855, 47.0092, -35.1241, -35.0874
2.111, -1, 24.6995, -7.646, 48.7924, 47.0894, -35.0394, -35.1397
2.116, -1, 24.7518, -7.6892, 48.7992, 47.1693, -34.9551, -35.1918
2.12, -1, 24.8033, -7.73159, 48.8058, 47.2487, -34.8714, -35.2435
2.124, -1, 24.8536, -7.77304, 48.8124, 47.3271, -34.7887, -35.2946
2.127, -1, 24.9027, -7.81341, 48.8187, 47.4045, -34.7071, -35.345
2.132, -1, 24.9505, -7.85258, 48.8249, 47.4803, -34.6271, -35.3944
2.136, -1, 24.9968, -7.89035, 48.8309, 47.5542, -34.5492, -35.4426
2.14, -1, 25.0412, -7.92654, 48.8366, 47.6257, -34.4738, -35.4892
2.143, -1, 25.0837, -7.96099, 48.8421, 47.6943, -34.4014, -35.5339
2.148, -1, 25.124, -7.99357, 48.8472, 47.7596, -34.3326, -35.5764
2.152, -1, 25.162, -8.02426, 48.8521, 47.8209, -34.2679, -35.6164
2.156, -1, 25.1976, -8.05307, 48.8566, 47.878, -34.2078, -35.6536
2.16, -1, 25.2309, -8.08004, 48.8609, 47.9303, -34.1526, -35.6877
2.163, -1, 25.2618, -8.10518, 48.8649, 47.9776, -34.1027, -35.7185
2.168, -1, 25.2902, -8.12851, 48.8685, 48.0198, -34.0582, -35.746
2.172, -1, 25.3162, -8.15, 48.8719, 48.0568, -34.0191, -35.7701
2.176, -1, 25.3397, -8.16958, 48.8749, 48.0887, -33.9854, -35.7909
2.179, -1, 25.3607, -8.18717, 48.8776, 48.1157, -33.9568, -35.8084
2.184, -1, 25.3793, -8.20276, 48.88, 48.1382, -33.9331, -35.8231
2.188, -1, 25.3955, -8.21643, 48.8821, 48.1565, -33.9137, -35.835
2.192, -1, 25.4095, -8.22829, 48.884, 48.1711, -33.8982, -35.8445
2.196, -1, 25.4217, -8.23847, 48.8855, 48.1825, -33.8861, -35.8518
2.199, -1, 25.4321, -8.24707, 48.8868, 48.1912, -33.8769, -35.8575
2.204, -1, 25.4408, -8.2542, 48.8879, 48.1976, -33.8701, -35.8616
2.208, -1, 25.4481, -8.25997, 48.8888, 48.2022, -33.8651, -35.8646
2.212, -1, 25.4538, -8.26449, 48.8894, 48.2055, -33.8616, -35.8667
2.216, 2, 25.4583, -8.26791, 48.8899, 48.2078, -33.8592, -35.8682
2.219, 2, 25.4616, -8.2704, 48.8903, 48.2093, -33.8575, -35.8692
2.224, 2, 25.464, -8.27214, 48.8906, 48.2104, -33.8563, -35.8699
2.228, 2, 25.4656, -8.27333, 48.8908, 48.2111, -33.8556, -35.8703
2.232, 2, 25.4667, -8.27414, 48.8909, 48.2116, -33.855, -35.8707
2.235, 2, 25.4674, -8.27469, 48.891, 48.2119, -33.8547, -35.8709
2.24, 2, 25.4679, -8.27506, 48.891, 48.2121, -33.8545, -35.871
2.244, 2, 25.4683, -8.27531, 48.8911, 48.2123, -33.8543, -35.8711
2.248, 2, 25.4685, -8.27548, 48.8911, 48.2124, -33.8542, -35.8712
2.252, 2, 25.4687, -8.2756, 48.8911, 48.2125, -33.8541, -35.8712
2.255, 2, 25.4688, -8.27567, 48.8911, 48.2125, -33.854, -35.8712
2.259, 2, 25.4688, -8.27573, 48.8911, 48.2125, -33.854, -35.8713
2.264, 2, 25.4689, -8.27576, 48.8911, 48.2126, -33.854, -35.8713
2.268, 2, 25.4689, -8.27579, 48.8911, 48.2126, -33.854, -35.8713
2.272, 2, 25.4689, -8.2758, 48.8911, 48.2126, -33.854, -35.8713
2.275, 2, 25.469, -8.27582, 48.8911, 48.2126, -33.854, -35.8713
2.28, 2, 25.469, -8.27582, 48.8911, 48.2126, -33.854, -35.8713
2.284, 2, 25.469, -8.27583, 48.8911, 48.2126, -33.854, -35.8713
2.288, 2, 25.469, -8.27583, 48.8911, 48.2126, -33.854, -35.8713
2.291, 2, 25.469, -8.27583, 48.8911, 48.2126, -33.8539, -35.8713
2.296, 2, 25.469, -8.27584, 48.8911, 48.2126, -33.8539, -35.8713
2.3, 2, 25.469, -8.27584, 48.8911, 48.2126, -33.8539, -35.8713
2.304, 2, 25.469, -8.27584, 48.8911, 48.2126, -33.8539, -35.8713
2.308, 2, 25.469, -8.27584, 48.8911, 48.2126, -33.8539, -35.8713
2.311, 2, 25.469, -8.27584, 48.8911, 48.2126, -33.8539, -35.8713
2.316, 2, 25.469, -8.27584, 48.8911, 48.2126, -33.8539, -35.8713
2.32, 2, 25.469, -8.27584, 48.8911, 48.2126, -33.8539, -35.8713
2.324, 2, 25.469, -8.27584, 48.8911, 48.2126, -33.8539, -35.8713
2.328, 2, 25.469, -8.27584, 48.8911, 48.2126, -33.8539, -35.8713
2.331, 2, 25.469, -8.27584, 48.8911, 48.2126, -33.8539, -35.8713
2.336, 2, 25.469, -8.27584, 48.8911, 48.2126, -33.8539, -35.8713
2.34, 2, 25.469, -8.27584, 48.8911, 48.2126, -33.8539, -35.8713
2.344, 2, 25.469, -8.27584, 48.8911, 48.2126, -33.8539, -35.8713
2.347, 2, 25.469, -8.27584, 48.8911, 48.2126, -33.8539, -35.8713
2.352, 2, 25.469, -8.27584, 48.8911, 48.2126, -33.8539, -35.8713
2.356, 2, 25.469, -8.27584, 48.8911, 48.2126, -33.8539, -35.8713
2.36, 2, 25.469, -8.27584, 48.8911, 48.2126, -33.8539, -35.8713
2.364, 2, 25.469, -8.27584, 48.8911, 48.2126, -33.8539, -35.8713
2.367, 2, 25.469, -8.27584, 48.8911, 48.2126, -33.8539, -35.8713
2.372, 2, 25.469, -8.27584, 48.8911, 48.2126, -33.8539, -35.8713
2.376, 2, 25.469, -8.27584, 48.8911, 48.2126, -33.8539, -35.8713
2.38, 2, 25.469, -8.27584, 48.8911, 48.2126, -33.8539, -35.8713
2.383, 2, 25.469, -8.27584, 48.8911, 48.2126, -33.8539, -35.8713
2.388, 2, 25.469, -8.27584, 48.8911, 48.2126, -33.8539, -35.8713
2.392, 2, 25.469, -8.27584, 48.8911, 48.2126, -33.8539, -35.8713
2.396, 2, 25.469, -8.27584, 48.8911, 48.2126, -33.8539, -35.8713
2.4, 2, 25.469, -8.27584, 48.8911, 48.2126, -33.8539, -35.8713
2.403, 2, 25.469, -8.27584, 48.8911, 48.2126, -33.8539, -35.8713
2.408, 2, 25.469, -8.27584, 48.8911, 48.2126, -33.8539, -35.8713
2.412, 2, 25.469, -8.27584, 48.8911, 48.2126, -33.8539, -35.8713
2.416, 2, 25.469, -8.27584, 48.8911, 48.2126, -33.8539, -35.8713
2.42, 2, 25.469, -8.27584, 48.8911, 48.2126, -33.8539, -35.8713
2.423, 2, 25.469, -8.27584, 48.8911, 48.2126, -33.8539, -35.8713
2.428, 2, 25.469, -8.27584, 48.8911, 48.2126, -33.8539, -35.8713
2.432, 2, 25.469, -8.27584, 48.8911, 48.2126, -33.8539, -35.8713
2.436, 2, 25.469, -8.27584, 48.8911, 48.2126, -33.8539, -35.8713
2.439, 2, 25.469, -8.27584, 48.8911, 48.2126, -33.8539, -35.8713
2.444, 2, 25.469, -8.27584, 48.8911, 48.2126, -33.8539, -35.8713
2.448, 2, 25.469, -8.27584, 48.8911, 48.2126, -33.8539, -35.8713
2.452, 2, 25.469, -8.27584, 48.8911, 48.2126, -33.8539, -35.8713
2.456, 2, 25.469, -8.27584, 48.8911, 48.2126, -33.8539, -35.8713
2.459, 2, 25.469, -8.27584, 48.8911, 48.2126, -33.8539, -35.8713
2.464, 2, 25.469, -8.27584, 48.8911, 48.2126, -33.8539, -35.8713
2.468, 2, 25.469, -8.27584, 48.8911, 48.2126, -33.8539, -35.8713
2.472, 2, 25.469, -8.27584, 48.8911, 48.2126, -33.8539, -35.8713
2.476, 2, 25.469, -8.27584, 48.8911, 48.2126, -33.8539, -35.8713
2.479, 2, 25.469, -8.27584, 48.8911, 48.2126, -33.8539, -35.8713
2.484, 2, 25.469, -8.27584, 48.8911, 48.2126, -33.8539, -35.8713
2.488, 2, 25.469, -8.27584, 48.8911, 48.2126, -33.8539, -35.8713
2.492, 2, 25.469, -8.27584, 48.8911, 48.2126, -33.8539, -35.8713
2.495, 2, 25.469, -8.27584, 48.8911, 48.2126, -33.8539, -35.8713
2.5, 2, 25.469, -8.27584, 48.8911, 48.2126, -33.8539, -35.8713
2.504, 2, 25.469, -8.27584, 48.8911, 48.2126, -33.8539, -35.8713
2.508, 2, 25.469, -8.27584, 48.8911, 48.2126, -33.8539, -35.8713
2.512, 2, 25.469, -8.27584, 48.8911, 48.2126, -33.8539, -35.8713
2.515, 2, 25.469, -8.27584, 48.8911, 48.2126, -33.8539, -35.8713
2.52, 2, 25.469, -8.27584, 48.8911, 48.2126, -33.8539, -35.8713
2.524, 2, 25.469, -8.27584, 48.8911, 48.2126, -33.8539, -35.8713
2.528, 2, 25.469, -8.27584, 48.8911, 48.2126, -33.8539, -35.8713
2.531, 2, 25.469, -8.27584, 48.8911, 48.2126, -33.8539, -35.8713
2.536, 2, 25.469, -8.27584, 48.8911, 48.2126, -33.8539, -35.8713
2.54, 2, 25.469, -8.27584, 48.8911, 48.2126, -33.8539, -35.8713
2.544, 2, 25.469, -8.27584, 48.8911, 48.2126, -33.8539, -35.8713
2.548, 2, 25.469, -8.27584, 48.8911, 48.2126, -33.8539, -35.8713
2.551, 2, 25.469, -8.27584, 48.8911, 48.2126, -33.8539, -35.8713
2.556, 2, 25.469, -8.27584, 48.8911, 48.2126, -33.8539, -35.8713
2.56, 2, 25.469, -8.27584, 48.8911, 48.2126, -33.8539, -35.8713
2.564, 2, 25.469, -8.27584, 48.8911, 48.2126, -33.8539, -35.8713
2.568, 2, 25.469, -8.27584, 48.8911, 48.2126, -33.8539, -35.8713
2.571, 2, 25.469, -8.27584, 48.8911, 48.2126, -33.8539, -35.8713
2.576, 2, 25.469, -8.27584, 48.8911, 48.2126, -33.8539, -35.8713
2.58, 2, 25.469, -8.27584, 48.8911, 48.2126, -33.8539, -35.8713
2.584, 2, 25.469, -8.27584, 48.8911, 48.2126, -33.8539, -35.8713
2.587, 2, 25.469, -8.27584, 48.8911, 48.2126, -33.8539, -35.8713
2.592, 2, 25.469, -8.27584, 48.8911, 48.2126, -33.8539, -35.8713
2.596, 2, 25.469, -8.27584, 48.8911, 48.2126, -33.8539, -35.8713
2.6, 2, 25.469, -8.27584, 48.8911, 48.2126, -33.8539, -35.8713
2.604, 2, 25.469, -8.27584, 48.8911, 48.2126, -33.8539, -35.8713
2.607, 2, 25.469, -8.27584, 48.8911, 48.2126, -33.8539, -35.8713
2.612, 2, 25.469, -8.27584, 48.8911, 48.2126, -33.8539, -35.8713
2.616, 2, 25.469, -8.27584, 48.8911, 48.2126, -33.8539, -35.8713
2.62, 2, 25.469, -8.27584, 48.8911, 48.2126, -33.8539, -35.8713
2.624, 2, 25.469, -8.27584, 48.8911, 48.2126, -33.8539, -35.8713
2.627, 2, 25.469, -8.27584, 48.8911, 48.2126, -33.8539, -35.8713
2.632, 2, 25.469, -8.27584, 48.8911, 48.2126, -33.8539, -35.8713
2.636, 2, 25.469, -8.27584, 48.8911, 48.2126, -33.8539, -35.8713
2.64, 2, 25.469, -8.27584, 48.8911, 48.2126, -33.8539, -35.8713
2.643, 2, 25.469, -8.27584, 48.8911, 48.2126, -33.8539, -35.8713
2.648, 2, 25.469, -8.27584, 48.8911, 48.2126, -33.8539, -35.8713
2.652, 2, 25.469, -8.27584, 48.8911, 48.2126, -33.8539, -35.8713
2.656, 2, 25.469, -8.27584, 48.8911, 48.2126, -33.8539, -35.8713
2.66, 2, 25.469, -8.27584, 48.8911, 48.2126, -33.8539, -35.8713
2.663, 2, 25.469, -8.27584, 48.8911, 48.2126, -33.8539, -35.8713
2.668, 2, 25.469, -8.27584, 48.8911, 48.2126, -33.8539, -35.8713
2.672, 2, 25.469, -8.27584, 48.8911, 48.2126, -33.8539, -35.8713
2.676, 2, 25.469, -8.27584, 48.8911, 48.2126, -33.8539, -35.8713
2.679, 2, 25.469, -8.27584, 48.8911, 48.2126, -33.8539, -35.8713
2.684, 2, 25.469, -8.27584, 48.8911, 48.2126, -33.8539, -35.8713
2.688, 2, 25.469, -8.27584, 48.8911, 48.2126, -33.8539, -35.8713
2.692, 2, 25.469, -8.27584, 48.8911, 48.2126, -33.8539, -35.8713
2.696, 2, 25.469, -8.27584, 48.8911, 48.2126, -33.8539, -35.8713
2.699, 2, 25.469, -8.27584, 48.8911, 48.2126, -33.8539, -35.8713
2.704, 2, 25.469, -8.27584, 48.8911, 48.2126, -33.8539, -35.8713
2.708, 2, 25.469, -8.27584, 48.8911, 48.2126, -33.8539, -35.8713
2.712, 2, 25.469, -8.27584, 48.8911, 48.2126, -33.8539, -35.8713
2.716, 2, 25.469, -8.27584, 48.8911, 48.2126, -33.8539, -35.8713
2.719, 2, 25.469, -8.27584, 48.8911, 48.2126, -33.8539, -35.8713
2.724, 2, 25.469, -8.27584, 48.8911, 48.2126, -33.8539, -35.8713
2.728, 2, 25.469, -8.27584, 48.8911, 48.2126, -33.8539, -35.8713
2.732, 2, 25.469, -8.27584, 48.8911, 48.2126, -33.8539, -35.8713
2.735, 2, 25.469, -8.27584, 48.8911, 48.2126, -33.8539, -35.8713
2.74, 2, 25.469, -8.27584, 48.8911, 48.2126, -33.8539, -35.8713
2.744, 2, 25.469, -8.27584, 48.8911, 48.2126, -33.8539, -35.8713
2.748, 2, 25.469, -8.27584, 48.8911, 48.2126, -33.8539, -35.8713
2.752, 2, 25.469, -8.27584, 48.8911, 48.2126, -33.8539, -35.8713
2.755, 2, 25.469, -8.27584, 48.8911, 48.2126, -33.8539, -35.8713
2.76, 2, 25.469, -8.27584, 48.8911, 48.2126, -33.8539, -35.8713
2.764, 2, 25.469, -8.27584, 48.8911, 48.2126, -33.8539, -35.8713
2.768, 2, 25.469, -8.27584, 48.8911, 48.2126, -33.8539, -35.8713
2.772, 2, 25.469, -8.27584, 48.8911, 48.2126, -33.8539, -35.8713
2.775, 2, 25.469, -8.27584, 48.8911, 48.2126, -33.8539, -35.8713
2.78, 2, 25.469, -8.27584, 48.8911, 48.2126, -33.8539, -35.8713
2.784, 2, 25.469, -8.27584, 48.8911, 48.2126, -33.8539, -35.8713
2.788, 2, 25.469, -8.27584, 48.8911, 48.2126, -33.8539, -35.8713
2.791, 2, 25.469, -8.27584, 48.8911, 48.2126, -33.8539, -35.8713
2.796, 2, 25.469, -8.27584, 48.8911, 48.2126, -33.8539, -35.8713
2.8, 2, 25.469, -8.27584, 48.8911, 48.2126, -33.8539, -35.8713
2.804, 2, 25.469, -8.27584, 48.8911, 48.2126, -33.8539, -35.8713
2.808, 2, 25.469, -8.27584, 48.8911, 48.2126, -33.8539, -35.8713
2.811, 2, 25.469, -8.27584, 48.8911, 48.2126, -33.8539, -35.8713
2.816, 2, 25.469, -8.27584, 48.8911, 48.2126, -33.8539, -35.8713
2.82, 2, 25.469, -8.27584, 48.8911, 48.2126, -33.8539, -35.8713
2.824, 2, 25.469, -8.27584, 48.8911, 48.2126, -33.8539, -35.8713
2.828, 2, 25.469, -8.27584, 48.8911, 48.2126, -33.8539, -35.8713
2.831, 2, 25.469, -8.27584, 48.8911, 48.2126, -33.8539, -35.8713
2.836, 2, 25.469, -8.27584, 48.8911, 48.2126, -33.8539, -35.8713
2.84, 2, 25.469, -8.27584, 48.8911, 48.2126, -33.8539, -35.8713
2.844, 2, 25.469, -8.27584, 48.8911, 48.2126, -33.8539, -35.8713
2.847, 2, 25.469, -8.27584, 48.8911, 48.2126, -33.8539, -35.8713
2.852, 2, 25.469, -8.27584, 48.8911, 48.2126, -33.8539, -35.8713
2.856, 2, 25.469, -8.27584, 48.8911, 48.2126, -33.8539, -35.8713
2.86, 2, 25.469, -8.27584, 48.8911, 48.2126, -33.8539, -35.8713
2.864, 2, 25.469, -8.27584, 48.8911, 48.2126, -33.8539, -35.8713
2.867, 2, 25.469, -8.27584, 48.8911, 48.2126, -33.8539, -35.8713
2.872, 2, 25.469, -8.27584, 48.8911, 48.2126, -33.8539, -35.8713
2.876, 2, 25.469, -8.27584, 48.8911, 48.2126, -33.8539, -35.8713
2.88, 2, 25.469, -8.27584, 48.8911, 48.2126, -33.8539, -35.8713
2.883, 2, 25.469, -8.27584, 48.8911, 48.2126, -33.8539, -35.8713
2.888, 2, 25.469, -8.27584, 48.8911, 48.2126, -33.8539, -35.8713
2.892, 2, 25.469, -8.27584, 48.8911, 48.2126, -33.8539, -35.8713
2.896, 2, 25.469, -8.27584, 48.8911, 48.2126, -33.8539, -35.8713
2.9, 2, 25.469, -8.27584, 48.8911, 48.2126, -33.8539, -35.8713
2.903, 2, 25.469, -8.27584, 48.8911, 48.2126, -33.8539, -35.8713
2.908, 2, 25.469, -8.27584, 48.8911, 48.2126, -33.8539, -35.8713
2.912, 2, 25.469, -8.27584, 48.8911, 48.2126, -33.8539, -35.8713
2.916, 2, 25.469, -8.27584, 48.8911, 48.2126, -33.8539, -35.8713
2.92, 2, 25.469, -8.27584, 48.8911, 48.2126, -33.8539, -35.8713
2.923, 2, 25.469, -8.27584, 48.8911, 48.2126, -33.8539, -35.8713
2.928, 2, 25.469, -8.27584, 48.8911, 48.2126, -33.8539, -35.8713
2.932, 2, 25.469, -8.27584, 48.8911, 48.2126, -33.8539, -35.8713
2.936, 2, 25.469, -8.27584, 48.8911, 48.2126, -33.8539, -35.8713
2.939, 2, 25.469, -8.27584, 48.8911, 48.2126, -33.8539, -35.8713
2.944, 2, 25.469, -8.27584, 48.8911, 48.2126, -33.8539, -35.8713
2.948, 2, 25.469, -8.27584, 48.8911, 48.2126, -33.8539, -35.8713
2.952, 2, 25.469, -8.27584, 48.8911, 48.2126, -33.8539, -35.8713
2.956, 2, 25.469, -8.27584, 48.8911, 48.2126, -33.8539, -35.8713
2.959, 2, 25.469, -8.27584, 48.8911, 48.2126, -33.8539, -35.8713
2.964, 2, 25.469, -8.27584, 48.8911, 48.2126, -33.8539, -35.8713
2.968, 2, 25.469, -8.27584, 48.8911, 48.2126, -33.8539, -35.8713
2.972, 2, 25.469, -8.27584, 48.8911, 48.2126, -33.8539, -35.8713
2.976, 2, 25.469, -8.27584, 48.8911, 48.2126, -33.8539, -35.8713
2.98, 2, 25.469, -8.27584, 48.8911, 48.2126, -33.8539, -35.8713
2.984, 2, 25.469, -8.27584, 48.8911, 48.2126, -33.8539, -35.8713
2.988, 2, 25.469, -8.27584, 48.8911, 48.2126, -33.8539, -35.8713
2.992, 2, 25.469, -8.27584, 48.8911, 48.2126, -33.8539, -35.8713
2.995, 2, 25.469, -8.27584, 48.8911, 48.2126, -33.8539, -35.8713
3, 2, 25.469, -8.27584, 48.8911, 48.2126, -33.8539, -35.8713
3.004, 2, 25.469, -8.27584, 48.8911, 48.2126, -33.8539, -35.8713
3.008, 2, 25.469, -8.27584, 48.8911, 48.2126, -33.8539, -35.8713
3.012, 2, 25.469, -8.27584, 48.8911, 48.2126, -33.8539, -35.8713
3.015, 2, 25.469, -8.27584, 48.8911, 48.2126, -33.8539, -35.8713
3.02, 2, 25.469, -8.27584, 48.8911, 48.2126, -33.8539, -35.8713
3.024, 2, 25.469, -8.27584, 48.8911, 48.2126, -33.8539, -35.8713
3.028, 2, 25.469, -8.27584, 48.8911, 48.2126, -33.8539, -35.8713
3.031, 2, 25.469, -8.27584, 48.8911, 48.2126, -33.8539, -35.8713
3.036, 2, 25.469, -8.27584, 48.8911, 48.2126, -33.8539, -35.8713
3.04, 2, 25.469, -8.27584, 48.8911, 48.2126, -33.8539, -35.8713
3.044, 2, 25.469, -8.27584, 48.8911, 48.2126, -33.8539, -35.8713
3.048, 2, 25.469, -8.27584, 48.8911, 48.2126, -33.8539, -35.8713
3.051, 2, 25.469, -8.27584, 48.8911, 48.2126, -33.8539, -35.8713
3.056, 2, 25.469, -8.27584, 48.8911, 48.2126, -33.8539, -35.8713
3.06, 2, 25.469, -8.27584, 48.8911, 48.2126, -33.8539, -35.8713
3.064, 2, 25.469, -8.27584, 48.8911, 48.2126, -33.8539, -35.8713
3.068, 2, 25.469, -8.27584, 48.8911, 48.2126, -33.8539, -35.8713
3.071, 2, 25.469, -8.27584, 48.8911, 48.2126, -33.8539, -35.8713
3.076, 2, 25.469, -8.27584, 48.8911, 48.2126, -33.8539, -35.8713
3.08, 2, 25.469, -8.27584, 48.8911, 48.2126, -33.8539, -35.8713
3.084, 2, 25.469, -8.27584, 48.8911, 48.2126, -33.8539, -35.8713
3.087, 2, 25.469, -8.27584, 48.8911, 48.2126, -33.8539, -35.8713
3.092, 2, 25.469, -8.27584, 48.8911, 48.2126, -33.8539, -35.8713
3.096, 2, 25.469, -8.27584, 48.8911, 48.2126, -33.8539, -35.8713
3.1, 2, 25.469, -8.27584, 48.8911, 48.2126, -33.8539, -35.8713
3.104, 2, 25.469, -8.27584, 48.8911, 48.2126, -33.8539, -35.8713
3.107, 2, 25.469, -8.27584, 48.8911, 48.2126, -33.8539, -35.8713
3.112, 2, 25.469, -8.27584, 48.8911, 48.2126, -33.8539, -35.8713
3.116, 2, 25.469, -8.27584, 48.8911, 48.2126, -33.8539, -35.8713
3.12, 2, 25.469, -8.27584, 48.8911, 48.2126, -33.8539, -35.8713
3.124, 2, 25.469, -8.27584, 48.8911, 48.2126, -33.8539, -35.8713
3.128, 2, 25.469, -8.27584, 48.8911, 48.2126, -33.8539, -35.8713
3.132, 2, 25.469, -8.27584, 48.8911, 48.2126, -33.8539, -35.8713
3.136, 2, 25.469, -8.27584, 48.8911, 48.2126, -33.8539, -35.8713
3.14, 2, 25.469, -8.27584, 48.8911, 48.2126, -33.8539, -35.8713
3.143, 2, 25.469, -8.27584, 48.8911, 48.2126, -33.8539, -35.8713
3.148, 2, 25.469, -8.27584, 48.8911, 48.2126, -33.8539, -35.8713
3.152, 2, 25.469, -8.27584, 48.8911, 48.2126, -33.8539, -35.8713
3.156, 2, 25.469, -8.27584, 48.8911, 48.2126, -33.8539, -35.8713
3.16, 2, 25.469, -8.27584, 48.8911, 48.2126, -33.8539, -35.8713
3.163, 2, 25.469, -8.27584, 48.8911, 48.2126, -33.8539, -35.8713
3.168, 2, 25.469, -8.27584, 48.8911, 48.2126, -33.8539, -35.8713
3.172, 2, 25.469, -8.27584, 48.8911, 48.2126, -33.8539, -35.8713
3.176, 2, 25.469, -8.27584, 48.8911, 48.2126, -33.8539, -35.8713
3.179, 2, 25.469, -8.27584, 48.8911, 48.2126, -33.8539, -35.8713
3.184, 2, 25.469, -8.27584, 48.8911, 48.2126, -33.8539, -35.8713
3.188, 2, 25.469, -8.27584, 48.8911, 48.2126, -33.8539, -35.8713
3.192, 2, 25.469, -8.27584, 48.8911, 48.2126, -33.8539, -35.8713
3.196, 2, 25.469, -8.27584, 48.8911, 48.2126, -33.8539, -35.8713
3.199, 2, 25.469, -8.27584, 48.8911, 48.2126, -33.8539, -35.8713
3.204, 2, 25.469, -8.27584, 48.8911, 48.2126, -33.8539, -35.8713
3.208, 2, 25.469, -8.27584, 48.8911, 48.2126, -33.8539, -35.8713
3.212, 2, 25.469, -8.27584, 48.8911, 48.2126, -33.8539, -35.8713
3.216, 2, 25.469, -8.27584, 48.8911, 48.2126, -33.8539, -35.8713
3.22, 2, 25.469, -8.27584, 48.8911, 48.2126, -33.8539, -35.8713
3.224, 2, 25.469, -8.27584, 48.8911, 48.2126, -33.8539, -35.8713
3.228, 2, 25.469, -8.27584, 48.8911, 48.2126, -33.8539, -35.8713
3.232, 2, 25.469, -8.27584, 48.8911, 48.2126, -33.8539, -35.8713
3.235, 2, 25.469, -8.27584, 48.8911, 48.2126, -33.8539, -35.8713
3.24, 2, 25.469, -8.27584, 48.8911, 48.2126, -33.8539, -35.8713
3.244, 2, 25.469, -8.27584, 48.8911, 48.2126, -33.8539, -35.8713
3.248, 2, 25.469, -8.27584, 48.8911, 48.2126, -33.8539, -35.8713
3.252, 2, 25.469, -8.27584, 48.8911, 48.2126, -33.8539, -35.8713
3.255, 2, 25.469, -8.27584, 48.8911, 48.2126, -33.8539, -35.8713
3.26, 2, 25.469, -8.27584, 48.8911, 48.2126, -33.8539, -35.8713
3.264, 2, 25.469, -8.27584, 48.8911, 48.2126, -33.8539, -35.8713
3.268, 2, 25.469, -8.27584, 48.8911, 48.2126, -33.8539, -35.8713
3.272, 2, 25.469, -8.27584, 48.8911, 48.2126, -33.8539, -35.8713
3.276, 2, 25.469, -8.27584, 48.8911, 48.2126, -33.8539, -35.8713
3.28, 2, 25.469, -8.27584, 48.8911, 48.2126, -33.8539, -35.8713
3.284, 2, 25.469, -8.27584, 48.8911, 48.2126, -33.8539, -35.8713
3.288, 2, 25.469, -8.27584, 48.8911, 48.2126, -33.8539, -35.8713
3.291, 4, 25.469, -8.27584, 48.8911, 48.2126, -33.8539, -35.8713
3.296, 4, 25.469, -8.27584, 48.8911, 48.2126, -33.8539, -35.8713
3.3, 4, 25.469, -8.27584, 48.8911, 48.2126, -33.8539, -35.8713
3.304, 4, 25.469, -8.27584, 48.8911, 48.2126, -33.8539, -35.8713
3.308, 4, 25.469, -8.27584, 48.8911, 48.2126, -33.8539, -35.8713
3.312, 4, 25.469, -8.27584, 48.8911, 48.2126, -33.8539, -35.8713
3.316, 4, 25.469, -8.27584, 48.8911, 48.2126, -33.8539, -35.8713
3.32, 4, 25.469, -8.27584, 48.8911, 48.2126, -33.8539, -35.8713
3.324, 4, 25.469, -8.27584, 48.8911, 48.2126, -33.8539, -35.8713
3.328, 4, 25.469, -8.27584, 48.8911, 48.2126, -33.8539, -35.8713
3.332, 4, 25.469, -8.27584, 48.8911, 48.2126, -33.8539, -35.8713
3.336, 4, 25.469, -8.27584, 48.8911, 48.2126, -33.8539, -35.8713
3.34, 4, 25.469, -8.27584, 48.8911, 48.2126, -33.8539, -35.8713
3.344, 4, 25.469, -8.27584, 48.8911, 48.2126, -33.8539, -35.8713
3.347, 4, 25.469, -8.27584, 48.8911, 48.2126, -33.8539, -35.8713
3.352, 4, 25.469, -8.27584, 48.8911, 48.2126, -33.8539, -35.8713
3.356, 4, 25.469, -8.27584, 48.8911, 48.2126, -33.8539, -35.8713
3.36, 4, 25.469, -8.27584, 48.8911, 48.2126, -33.8539, -35.8713
3.364, 4, 25.469, -8.27584, 48.8911, 48.2126, -33.8539, -35.8713
3.368, 4, 25.469, -8.27584, 48.8911, 48.2126, -33.8539, -35.8713
3.372, 4, 25.469, -8.27584, 48.8911, 48.2126, -33.8539, -35.8713
3.376, 4, 25.469, -8.27584, 48.8911, 48.2126, -33.8539, -35.8713
3.38, 4, 25.469, -8.27584, 48.8911, 48.2126, -33.8539, -35.8713
3.383, 4, 25.469, -8.27584, 48.8911, 48.2126, -33.8539, -35.8713
3.388, 4, 25.469, -8.27584, 48.8911, 48.2126, -33.8539, -35.8713
3.392, 4, 25.469, -8.27584, 48.8911, 48.2126, -33.8539, -35.8713
3.398, 4, 25.469, -8.27584, 48.8911, 48.2126, -33.8539, -35.8713
3.4, 4, 25.469, -8.27584, 48.8911, 48.2126, -33.8539, -35.8713
3.403, 4, 25.469, -8.27584, 48.8911, 48.2126, -33.8539, -35.8713
3.408, 4, 25.469, -8.27584, 48.8911, 48.2126, -33.8539, -35.8713
3.412, 4, 25.469, -8.27584, 48.8911, 48.2126, -33.8539, -35.8713
3.416, 4, 25.469, -8.27584, 48.8911, 48.2126, -33.8539, -35.8713
3.42, 4, 25.469, -8.27584, 48.8911, 48.2126, -33.8539, -35.8713
3.424, 4, 25.4689, -8.27586, 48.8911, 48.2126, -33.8539, -35.8713
3.428, 4, 25.4687, -8.27591, 48.8912, 48.2126, -33.854, -35.8713
3.432, 4, 25.4681, -8.27607, 48.8913, 48.2125, -33.854, -35.8712
3.436, 4, 25.467, -8.27639, 48.8916, 48.2121, -33.8541, -35.8709
3.439, 4, 25.4651, -8.27697, 48.8922, 48.2113, -33.8543, -35.8703
3.444, 4, 25.4624, -8.27788, 48.8932, 48.2096, -33.8547, -35.8689
3.448, 4, 25.4587, -8.27923, 48.8949, 48.2065, -33.8555, -35.8663
3.452, 4, 25.4536, -8.28114, 48.8975, 48.201, -33.8569, -35.8618
3.456, 4, 25.4471, -8.28375, 48.9015, 48.1922, -33.859, -35.8545
3.46, 4, 25.4388, -8.28722, 48.9071, 48.1789, -33.8622, -35.8434
3.464, 4, 25.4282, -8.29175, 48.9149, 48.1595, -33.8669, -35.8273
3.468, 5, 25.4147, -8.29755, 48.9254, 48.1324, -33.8735, -35.8047
3.472, 5, 25.3979, -8.30485, 48.9394, 48.0955, -33.8824, -35.7741
3.476, 5, 25.3772, -8.31386, 48.9575, 48.0469, -33.8942, -35.7336
3.48, 5, 25.352, -8.32477, 48.9804, 47.9841, -33.9094, -35.6813
3.484, 5, 25.3218, -8.33776, 49.0088, 47.9048, -33.9286, -35.6153
3.488, 5, 25.286, -8.353, 49.0435, 47.8068, -33.9525, -35.5337
3.492, 5, 25.2442, -8.37064, 49.0851, 47.6878, -33.9817, -35.4345
3.495, 5, 25.1959, -8.39082, 49.1342, 47.5457, -34.0167, -35.3162
3.5, 5, 25.1406, -8.41366, 49.1912, 47.3789, -34.0581, -35.1774
3.504, 5, 25.078, -8.43923, 49.2565, 47.186, -34.1062, -35.0168
3.508, 5, 25.0077, -8.46759, 49.3303, 46.9661, -34.1616, -34.8339
3.512, 5, 24.9296, -8.49876, 49.4127, 46.7186, -34.2245, -34.628
3.516, 5, 24.8435, -8.53267, 49.5038, 46.4435, -34.2952, -34.3993
3.52, 5, 24.7495, -8.56923, 49.6035, 46.141, -34.3736, -34.148
3.524, 5, 24.6477, -8.60831, 49.7115, 45.8121, -34.46, -33.8748
3.528, 5, 24.5383, -8.64973, 49.8275, 45.4578, -34.554, -33.5809
3.531, 5, 24.4215, -8.69329, 49.951, 45.08, -34.6557, -33.2675
3.536, 5, 24.2977, -8.73877, 50.0816, 44.6804, -34.7646, -32.9364
3.54, 5, 24.1672, -8.78595, 50.2184, 44.2614, -34.8805, -32.5895
3.544, 5, 24.0304, -8.83457, 50.3608, 43.8252, -35.0028, -32.2287
3.548, 5, 23.8878, -8.88438, 50.5081, 43.3744, -35.1313, -31.8561
3.552, 5, 23.7398, -8.93508, 50.6594, 42.9112, -35.2653, -31.4737
3.556, 5, 23.5872, -8.98639, 50.8142, 42.438, -35.4044, -31.0834
3.56, 5, 23.4304, -9.03803, 50.9715, 41.9568, -35.5483, -30.687
3.564, 5, 23.27, -9.08972, 51.131, 41.4697, -35.6964, -30.286
3.568, 5, 23.1063, -9.14123, 51.2918, 40.9783, -35.8483, -29.8821
3.572, 5, 22.9397, -9.19235, 51.4537, 40.4841, -36.0038, -29.4764
3.576, 5, 22.7706, -9.24289, 51.616, 39.9885, -36.1625, -29.07
3.58, 5, 22.5992, -9.29268, 51.7786, 39.4925, -36.3242, -28.6638
3.584, 5, 22.4257, -9.34158, 51.9411, 38.9969, -36.4886, -28.2584
3.587, 5, 22.2504, -9.38945, 52.1032, 38.5024, -36.6556, -27.8545
3.592, 5, 22.0736, -9.43617, 52.2648, 38.0094, -36.8252, -27.4524
3.596, 5, 21.8955, -9.48165, 52.4258, 37.5181, -36.9971, -27.0522
3.6, 5, 21.7162, -9.52582, 52.586, 37.0289, -37.1714, -26.6543
3.604, 5, 21.5358, -9.56863, 52.7454, 36.5419, -37.3481, -26.2588
3.608, 5, 21.3546, -9.61004, 52.904, 36.057, -37.527, -25.8656
3.612, 5, 21.1724, -9.65001, 53.0617, 35.5746, -37.7083, -25.475
3.616, 5, 20.9893, -9.68854, 53.2184, 35.0945, -37.8918, -25.0868
3.62, 5, 20.8054, -9.72558, 53.3742, 34.6169, -38.0776, -24.7013
3.624, 5, 20.6206, -9.76114, 53.5291, 34.1417, -38.2656, -24.3184
3.628, 5, 20.435, -9.79518, 53.683, 33.669, -38.4559, -23.938
3.632, 5, 20.2487, -9.8277, 53.836, 33.1989, -38.6484, -23.5604
3.636, 5, 20.0615, -9.85868, 53.988, 32.7312, -38.8432, -23.1853
3.64, 5, 19.8735, -9.88811, 54.139, 32.2661, -39.0402, -22.813
3.644, 5, 19.6848, -9.91597, 54.289, 31.8036, -39.2395, -22.4433
3.648, 5, 19.4952, -9.94225, 54.438, 31.3436, -39.441, -22.0764
3.652, 5, 19.3049, -9.96695, 54.586, 30.8862, -39.6448, -21.7121
3.656, 5, 19.1138, -9.99004, 54.733, 30.4313, -39.8507, -21.3506
3.66, 5, 18.922, -10.0115, 54.879, 29.979, -40.059, -20.9917
3.664, 5, 18.7294, -10.0314, 55.0239, 29.5293, -40.2694, -20.6356
3.668, 5, 18.536, -10.0496, 55.1678, 29.0822, -40.482, -20.2823
3.672, 5, 18.3419, -10.0661, 55.3107, 28.6378, -40.6969, -19.9317
3.676, 5, 18.147, -10.081, 55.4525, 28.1959, -40.914, -19.5838
3.679, 5, 17.9513, -10.0942, 55.5933, 27.7566, -41.1333, -19.2386
3.684, 5, 17.7549, -10.1057, 55.7331, 27.3199, -41.3548, -18.8963
3.688, 5, 17.5578, -10.1155, 55.8717, 26.8858, -41.5785, -18.5567
3.692, 5, 17.3599, -10.1236, 56.0093, 26.4544, -41.8045, -18.2198
3.696, 5, 17.1613, -10.1299, 56.1459, 26.0255, -42.0326, -17.8857
3.7, 5, 16.962, -10.1345, 56.2813, 25.5993, -42.2629, -17.5544
3.704, 5, 16.7619, -10.1374, 56.4157, 25.1757, -42.4954, -17.2258
3.708, 5, 16.5611, -10.1385, 56.549, 24.7547, -42.7301, -16.9
3.712, 5, 16.3597, -10.1378, 56.6812, 24.3363, -42.967, -16.577
3.716, 5, 16.1575, -10.1354, 56.8123, 23.9205, -43.2061, -16.2568
3.72, 5, 15.9546, -10.1312, 56.9423, 23.5073, -43.4473, -15.9393
3.724, 5, 15.751, -10.1251, 57.0712, 23.0967, -43.6907, -15.6246
3.728, 5, 15.5468, -10.1172, 57.199, 22.6888, -43.9362, -15.3127
3.732, 5, 15.3418, -10.1075, 57.3256, 22.2834, -44.1839, -15.0035
3.735, 5, 15.1362, -10.096, 57.4511, 21.8807, -44.4338, -14.6971
3.74, 5, 14.9299, -10.0826, 57.5755, 21.4805, -44.6857, -14.3935
3.744, 5, 14.723, -10.0674, 57.6987, 21.0829, -44.9398, -14.0927
3.748, 5, 14.5154, -10.0503, 57.8207, 20.6879, -45.196, -13.7946
3.752, 5, 14.3071, -10.0313, 57.9416, 20.2954, -45.4543, -13.4992
3.756, 5, 14.0983, -10.0104, 58.0613, 19.9056, -45.7148, -13.2066
3.76, 5, 13.8887, -9.98758, 58.1799, 19.5183, -45.9772, -12.9168
3.764, 5, 13.6786, -9.96288, 58.2972, 19.1335, -46.2418, -12.6297
3.768, 5, 13.4678, -9.93624, 58.4134, 18.7513, -46.5085, -12.3454
3.772, 5, 13.2564, -9.90768, 58.5283, 18.3716, -46.7772, -12.0638
3.776, 5, 13.0444, -9.87717, 58.6421, 17.9945, -47.048, -11.785
3.78, 5, 12.8318, -9.84471, 58.7547, 17.6199, -47.3208, -11.5089
3.784, 5, 12.6186, -9.81029, 58.866, 17.2479, -47.5956, -11.2355
3.788, 5, 12.4048, -9.7739, 58.9761, 16.8784, -47.8725, -10.9649
3.792, 5, 12.1905, -9.73554, 59.085, 16.5113, -48.1515, -10.697
3.796, 5, 11.9756, -9.69519, 59.1926, 16.1468, -48.4324, -10.4318
3.8, 5, 11.7601, -9.65285, 59.299, 15.7848, -48.7154, -10.1693
3.804, 5, 11.5441, -9.6085, 59.4042, 15.4253, -49.0003, -9.90959
3.808, 5, 11.3275, -9.56215, 59.508, 15.0682, -49.2873, -9.65257
3.812, 5, 11.1104, -9.51379, 59.6107, 14.7137, -49.5762, -9.39824
3.816, 5, 10.8928, -9.46341, 59.712, 14.3616, -49.8671, -9.14662
3.82, 5, 10.6747, -9.411, 59.8121, 14.0119, -50.1599, -8.89769
3.824, 5, 10.4561, -9.35656, 59.9109, 13.6647, -50.4546, -8.65143
3.828, 5, 10.2369, -9.30009, 60.0084, 13.3198, -50.7513, -8.40785
3.832, 5, 10.0173, -9.24157, 60.1046, 12.9774, -51.0498, -8.16693
3.836, 5, 9.79724, -9.18101, 60.1995, 12.6374, -51.3503, -7.92867
3.84, 5, 9.57668, -9.1184, 60.2931, 12.2998, -51.6526, -7.69304
3.844, 5, 9.35567, -9.05373, 60.3853, 11.9645, -51.9567, -7.46005
3.848, 5, 9.1342, -8.987, 60.4763, 11.6316, -52.2626, -7.22968
3.852, 5, 8.9123, -8.91821, 60.5659, 11.301, -52.5704, -7.00192
3.856, 5, 8.68997, -8.84736, 60.6541, 10.9727, -52.88, -6.77677
3.86, 5, 8.46721, -8.77443, 60.7411, 10.6467, -53.1913, -6.55422
3.864, 5, 8.24405, -8.69942, 60.8266, 10.3231, -53.5044, -6.33425
3.868, 5, 8.0205, -8.62234, 60.9108, 10.0017, -53.8192, -6.11687
3.872, 5, 7.79655, -8.54317, 60.9937, 9.68258, -54.1357, -5.90206
3.876, 5, 7.57223, -8.46193, 61.0751, 9.36572, -54.454, -5.68982
3.88, 5, 7.34754, -8.37861, 61.1552, 9.05112, -54.7739, -5.48014
3.884, 5, 7.1225, -8.2932, 61.2339, 8.73874, -55.0956, -5.27301
3.888, 5, 6.89711, -8.20572, 61.3112, 8.42858, -55.4188, -5.06841
3.892, 5, 6.6714, -8.11615, 61.3871, 8.12063, -55.7438, -4.86636
3.896, 5, 6.44536, -8.0245, 61.4616, 7.81487, -56.0703, -4.66682
3.9, 5, 6.21902, -7.93078, 61.5347, 7.51129, -56.3985, -4.4698
3.904, 5, 5.99243, -7.83499, 61.6063, 7.20986, -56.7282, -4.27527
3.908, 5, 5.76563, -7.73715, 61.6766, 6.91058, -57.0595, -4.08324
3.912, 5, 5.5387, -7.63729, 61.7454, 6.61343, -57.3923, -3.8937
3.916, 5, 5.3117, -7.53544, 61.8127, 6.31842, -57.7265, -3.70663
3.92, 5, 5.08471, -7.43163, 61.8786, 6.02554, -58.0622, -3.52205
3.924, 5, 4.85785, -7.32591, 61.9431, 5.73483, -58.3992, -3.33996
3.928, 5, 4.63134, -7.21842, 62.0061, 5.44631, -58.7374, -3.16037
3.932, 5, 4.40548, -7.10936, 62.0676, 5.16006, -59.0768, -2.98334
3.936, 5, 4.18061, -6.99899, 62.1276, 4.8762, -59.4169, -2.80891
3.94, 5, 3.95711, -6.88761, 62.1861, 4.59492, -59.7577, -2.63721
3.944, 5, 3.73535, -6.7755, 62.2431, 4.31653, -60.0984, -2.46839
3.948, 5, 3.51571, -6.66297, 62.2984, 4.04143, -60.4387, -2.30268
3.952, 5, 3.29854, -6.55029, 62.352, 3.77014, -60.7776, -2.14034
3.956, 5, 3.0842, -6.43774, 62.4039, 3.50328, -61.1142, -1.98171
3.96, 5, 2.87308, -6.32555, 62.4539, 3.24156, -61.4474, -1.82716
3.964, 5, 2.66562, -6.21392, 62.5018, 2.98573, -61.7761, -1.67707
3.968, 5, 2.46227, -6.10298, 62.5476, 2.73657, -62.0991, -1.53184
3.972, 5, 2.26343, -5.99274, 62.591, 2.49485, -62.4151, -1.39183
3.976, 5, 2.0694, -5.88308, 62.6318, 2.26126, -62.7231, -1.25738
3.98, 5, 1.88043, -5.77382, 62.6698, 2.03642, -63.0219, -1.12877
3.984, 5, 1.69666, -5.66474, 62.7048, 1.8208, -63.3109, -1.00619
3.988, 5, 1.51825, -5.55563, 62.7365, 1.61471, -63.5896, -0.889733
3.992, 5, 1.34534, -5.44632, 62.7648, 1.41826, -63.8576, -0.779402
3.996, 5, 1.17807, -5.33665, 62.7894, 1.2314, -64.1151, -0.675078
3.999, 6, 1.01647, -5.2264, 62.81, 1.05385, -64.3625, -0.576544
4.004, 6, 0.860444, -5.1152, 62.8266, 0.885176, -64.6004, -0.483492
4.008, 6, 0.709736, -5.00263, 62.8389, 0.724802, -64.8298, -0.395537
4.012, 6, 0.563938, -4.88825, 62.8467, 0.572006, -65.0517, -0.312228
4.016, 6, 0.422534, -4.77167, 62.8499, 0.425955, -65.2674, -0.233064
4.02, 6, 0.28495, -4.65255, 62.8483, 0.285729, -65.4784, -0.157504
4.024, 6, 0.150592, -4.53061, 62.8419, 0.150348, -65.6861, -0.0849898
4.028, 6, 0.0189095, -4.40555, 62.8307, 0.0188075, -65.8921, -0.014961
4.032, 6, -0.110606, -4.27702, 62.8147, -0.10989, -66.0978, 0.0531289
4.036, 6, -0.238484, -4.14454, 62.7939, -0.236707, -66.3045, 0.119796
4.04, 6, -0.36532, -4.0075, 62.7684, -0.36255, -66.5137, 0.185519
4.044, 6, -0.491754, -3.86523, 62.7385, -0.48826, -66.7265, 0.250732
4.048, 6, -0.618427, -3.7171, 62.704, -0.614614, -66.9438, 0.315828
4.052, 6, -0.745945, -3.56262, 62.6653, -0.742323, -67.1667, 0.381157
4.056, 6, -0.874862, -3.40145, 62.6225, -0.872028, -67.3961, 0.447026
4.06, 6, -1.00567, -3.23337, 62.5757, -1.00428, -67.6325, 0.513692
4.064, 6, -1.13879, -3.05827, 62.5252, -1.13954, -67.8767, 0.581357
4.068, 6, -1.2746, -2.87612, 62.471, -1.27814, -68.1292, 0.650163
4.072, 6, -1.41338, -2.68694, 62.4134, -1.42033, -68.3901, 0.720195
4.076, 6, -1.55538, -2.49084, 62.3524, -1.56624, -68.6598, 0.791477
4.08, 6, -1.70071, -2.28799, 62.2881, -1.71587, -68.9383, 0.863987
4.084, 6, -1.84943, -2.0786, 62.2206, -1.86918, -69.2254, 0.937653
4.088, 6, -2.00148, -1.86295, 62.1499, -2.02603, -69.521, 1.01237
4.092, 6, -2.15674, -1.64136, 62.0762, -2.18622, -69.8248, 1.08801
4.096, 6, -2.31501, -1.41423, 61.9994, -2.34948, -70.1363, 1.1644
4.1, 6, -2.4761, -1.18193, 61.9197, -2.5155, -70.455, 1.24137
4.104, 6, -2.63979, -0.944782, 61.8371, -2.68393, -70.7803, 1.31872
4.108, 6, -2.8059, -0.703056, 61.7516, -2.8544, -71.1114, 1.39625
4.112, 6, -2.97415, -0.457018, 61.6633, -3.02651, -71.4478, 1.47376
4.116, 6, -3.14426, -0.206962, 61.5723, -3.19986, -71.7886, 1.55105
4.12, 6, -3.31592, 0.0468231, 61.4788, -3.37406, -72.133, 1.62793
4.124, 6, -3.48884, 0.304069, 61.3829, -3.54872, -72.4803, 1.70422
4.128, 6, -3.66281, 0.564508, 61.2846, -3.72347, -72.8298, 1.77975
4.132, 6, -3.83765, 0.827831, 61.1841, -3.89799, -73.1808, 1.85437
4.136, 6, -4.01318, 1.0937, 61.0815, -4.07197, -73.5326, 1.92796
4.14, 6, -4.18924, 1.36176, 60.9769, -4.24515, -73.8848, 2.00041
4.144, 6, -4.36566, 1.63169, 60.8703, -4.41734, -74.2368, 2.07165
4.148, 6, -4.54225, 1.90314, 60.7618, -4.58837, -74.5884, 2.14162
4.152, 6, -4.71878, 2.17575, 60.6516, -4.75814, -74.9392, 2.2103
4.156, 6, -4.89504, 2.44919, 60.5397, -4.92657, -75.2889, 2.27766
4.16, 6, -5.07084, 2.72319, 60.4262, -5.09362, -75.6376, 2.34372
4.164, 6, -5.24605, 2.99754, 60.3111, -5.25928, -75.9851, 2.40849
4.168, 6, -5.42056, 3.2721, 60.1945, -5.42352, -76.3313, 2.47197
4.172, 6, -5.59433, 3.54676, 60.0764, -5.58635, -76.6761, 2.53421
4.176, 6, -5.76731, 3.82146, 59.9569, -5.74779, -77.0196, 2.59521
4.18, 6, -5.93947, 4.09614, 59.8358, -5.90782, -77.3616, 2.65502
4.184, 6, -6.11079, 4.37075, 59.7133, -6.06648, -77.7022, 2.71364
4.188, 6, -6.28126, 4.64525, 59.5894, -6.22377, -78.0412, 2.77113
4.192, 6, -6.45087, 4.91962, 59.464, -6.3797, -78.3788, 2.82749
4.196, 6, -6.61962, 5.19384, 59.3372, -6.53431, -78.7149, 2.88277
4.2, 6, -6.7875, 5.46787, 59.209, -6.68759, -79.0494, 2.93698
4.204, 6, -6.9545, 5.74171, 59.0794, -6.83957, -79.3824, 2.99016
4.208, 6, -7.12063, 6.01532, 58.9484, -6.99027, -79.7138, 3.04235
4.212, 6, -7.28589, 6.2887, 58.8159, -7.1397, -80.0436, 3.09355
4.216, 6, -7.45028, 6.56183, 58.6821, -7.28788, -80.3718, 3.14381
4.22, 6, -7.61379, 6.8347, 58.5468, -7.43483, -80.6984, 3.19315
4.224, 6, -7.77644, 7.10729, 58.4102, -7.58056, -81.0233, 3.24159
4.228, 6, -7.93821, 7.37958, 58.2722, -7.72509, -81.3467, 3.28917
4.232, 6, -8.09911, 7.65156, 58.1329, -7.86844, -81.6683, 3.3359
4.236, 6, -8.25912, 7.92322, 57.9921, -8.01062, -81.9883, 3.38182
4.24, 6, -8.41827, 8.19455, 57.8501, -8.15164, -82.3067, 3.42695
4.244, 6, -8.57654, 8.46552, 57.7066, -8.29152, -82.6234, 3.47131
4.248, 6, -8.73394, 8.73614, 57.5618, -8.43028, -82.9383, 3.51494
4.252, 6, -8.89048, 9.00639, 57.4157, -8.56792, -83.2516, 3.55784
4.256, 6, -9.04615, 9.27625, 57.2682, -8.70446, -83.5632, 3.60005
4.26, 6, -9.20096, 9.54572, 57.1194, -8.8399, -83.873, 3.6416
4.264, 6, -9.35492, 9.81479, 56.9693, -8.97426, -84.1812, 3.68249
4.268, 6, -9.50801, 10.0835, 56.8179, -9.10755, -84.4876, 3.72276
4.272, 6, -9.66025, 10.3517, 56.6651, -9.23978, -84.7922, 3.76243
4.276, 6, -9.81164, 10.6195, 56.5111, -9.37095, -85.0952, 3.80152
4.28, 6, -9.96218, 10.8869, 56.3557, -9.50107, -85.3964, 3.84005
4.284, 6, -10.1119, 11.1538, 56.199, -9.63015, -85.6959, 3.87804
4.288, 6, -10.2607, 11.4203, 56.0411, -9.75819, -85.9936, 3.91552
4.292, 6, -10.4087, 11.6863, 55.8819, -9.88521, -86.2896, 3.95249
4.296, 6, -10.5559, 11.9518, 55.7214, -10.0112, -86.5839, 3.989
4.3, 6, -10.7022, 12.2169, 55.5596, -10.1362, -86.8764, 4.02504
4.304, 6, -10.8477, 12.4815, 55.3965, -10.2602, -87.1671, 4.06066
4.308, 6, -10.9923, 12.7456, 55.2322, -10.3831, -87.4561, 4.09585
4.312, 6, -11.1361, 13.0092, 55.0666, -10.5051, -87.7434, 4.13065
4.316, 6, -11.2791, 13.2723, 54.8998, -10.6261, -88.0289, 4.16507
4.32, 6, -11.4213, 13.535, 54.7318, -10.7461, -88.3127, 4.19913
4.324, 6, -11.5626, 13.7971, 54.5625, -10.8651, -88.5947, 4.23284
4.328, 6, -11.7031, 14.0587, 54.3919, -10.9832, -88.8749, 4.26623
4.332, 6, -11.8428, 14.3198, 54.2202, -11.1003, -89.1535, 4.29932
4.336, 6, -11.9817, 14.5803, 54.0472, -11.2164, -89.4302, 4.33211
4.34, 6, -12.1198, 14.8404, 53.873, -11.3316, -89.7053, 4.36463
4.344, 6, -12.2571, 15.0999, 53.6975, -11.4458, -89.9785, 4.3969
4.348, 6, -12.3935, 15.3588, 53.5209, -11.5591, -90.2501, 4.42892
4.352, 6, -12.5291, 15.6173, 53.3431, -11.6715, -90.5199, 4.46072
4.356, 6, -12.6639, 15.8751, 53.1641, -11.7829, -90.7879, 4.49231
4.36, 6, -12.7979, 16.1325, 52.9839, -11.8934, -91.0542, 4.52371
4.364, 6, -12.9311, 16.3893, 52.8025, -12.003, -91.3188, 4.55493
4.368, 6, -13.0635, 16.6455, 52.6199, -12.1116, -91.5816, 4.58599
4.372, 6, -13.1951, 16.9012, 52.4361, -12.2194, -91.8427, 4.6169
4.376, 6, -13.326, 17.1564, 52.2512, -12.3262, -92.1021, 4.64768
4.38, 6, -13.456, 17.411, 52.0651, -12.4321, -92.3597, 4.67834
4.384, 6, -13.5852, 17.665, 51.8778, -12.5372, -92.6156, 4.7089
4.388, 6, -13.7137, 17.9185, 51.6894, -12.6413, -92.8698, 4.73936
4.392, 6, -13.8414, 18.1714, 51.4999, -12.7445, -93.1222, 4.76975
4.396, 6, -13.9683, 18.4238, 51.3092, -12.8468, -93.373, 4.80008
4.4, 6, -14.0944, 18.6756, 51.1173, -12.9482, -93.6221, 4.83035
4.404, 6, -14.2198, 18.9268, 50.9243, -13.0488, -93.8695, 4.86059
4.408, 6, -14.3444, 19.1775, 50.7302, -13.1484, -94.1151, 4.8908
4.412, 6, -14.4681, 19.4276, 50.535, -13.2471, -94.3591, 4.921
4.416, 6, -14.591, 19.677, 50.3387, -13.345, -94.6014, 4.9512
4.42, 6, -14.7128, 19.9256, 50.1413, -13.4419, -94.842, 4.98141
4.424, 6, -14.8335, 20.1733, 49.943, -13.5379, -95.0809, 5.01163
4.428, 6, -14.9529, 20.42, 49.7439, -13.6331, -95.3181, 5.04188
4.432, 6, -15.0712, 20.6655, 49.5439, -13.7272, -95.5534, 5.07214
4.436, 6, -15.1882, 20.9098, 49.3433, -13.8204, -95.7868, 5.10243
4.44, 6, -15.3039, 21.1527, 49.1421, -13.9125, -96.0181, 5.13272
4.444, 6, -15.4184, 21.394, 48.9405, -14.0035, -96.2473, 5.16301
4.448, 6, -15.5316, 21.6335, 48.7388, -14.0933, -96.474, 5.19327
4.452, 6, -15.6435, 21.8711, 48.5371, -14.1819, -96.6982, 5.22349
4.456, 6, -15.7539, 22.1064, 48.3357, -14.2692, -96.9196, 5.25363
4.46, 6, -15.8628, 22.3393, 48.1349, -14.355, -97.1379, 5.28367
4.464, 6, -15.97, 22.5695, 47.9349, -14.4393, -97.3529, 5.31356
4.468, 6, -16.0755, 22.7968, 47.736, -14.5219, -97.5642, 5.34328
4.472, 6, -16.1792, 23.021, 47.5385, -14.6029, -97.7718, 5.37276
4.476, 6, -16.2811, 23.2419, 47.3428, -14.682, -97.9752, 5.40199
4.48, 6, -16.381, 23.4592, 47.149, -14.7592, -98.1743, 5.43091
4.484, 6, -16.4789, 23.6727, 46.9576, -14.8344, -98.3688, 5.45947
4.488, 6, -16.5746, 23.882, 46.7688, -14.9076, -98.5585, 5.48766
4.492, 6, -16.6679, 24.0869, 46.583, -14.9787, -98.7433, 5.51541
4.496, 6, -16.7589, 24.2872, 46.4004, -15.0476, -98.923, 5.5427
4.5, 6, -16.8475, 24.4826, 46.2213, -15.1143, -99.0975, 5.56949
4.504, 6, -16.9335, 24.673, 46.046, -15.1788, -99.2666, 5.59575
4.508, 6, -17.0168, 24.858, 45.8747, -15.241, -99.4303, 5.62143
4.512, 6, -17.0974, 25.0376, 45.7076, -15.301, -99.5884, 5.6465
4.516, 6, -17.1753, 25.2115, 45.5451, -15.3586, -99.7408, 5.67093
4.52, 6, -17.2503, 25.3795, 45.3872, -15.4139, -99.8876, 5.69469
4.524, 6, -17.3225, 25.5416, 45.2343, -15.467, -100.029, 5.71774
4.528, 6, -17.3917, 25.6976, 45.0865, -15.5177, -100.164, 5.74006
4.532, 6, -17.458, 25.8473, 44.9441, -15.566, -100.293, 5.7616
4.536, 6, -17.5213, 25.9906, 44.8071, -15.612, -100.416, 5.78235
4.54, 6, -17.5816, 26.1276, 44.6758, -15.6557, -100.534, 5.80227
4.544, 6, -17.639, 26.258, 44.5504, -15.6971, -100.645, 5.82133
4.548, 6, -17.6933, 26.3818, 44.4309, -15.7361, -100.75, 5.83951
4.552, 6, -17.7447, 26.4989, 44.3176, -15.7728, -100.85, 5.85678
4.556, 6, -17.7929, 26.6093, 44.2105, -15.8072, -100.943, 5.87312
4.56, 6, -17.8382, 26.713, 44.1097, -15.8393, -101.03, 5.8885
4.564, 6, -17.8806, 26.8099, 44.0154, -15.8692, -101.111, 5.90292
4.568, 6, -17.92, 26.9003, 43.9274, -15.8967, -101.187, 5.91636
4.572, 6, -17.9566, 26.9841, 43.8459, -15.9221, -101.256, 5.9288
4.576, 6, -17.9906, 27.0615, 43.7708, -15.9452, -101.319, 5.94025
4.58, 6, -18.0218, 27.1327, 43.702, -15.9662, -101.377, 5.95071
4.584, 6, -18.0505, 27.1977, 43.6394, -15.9852, -101.429, 5.96019
4.588, 6, -18.0766, 27.2567, 43.5829, -16.0021, -101.475, 5.96871
4.592, 6, -18.1004, 27.3099, 43.5323, -16.0171, -101.516, 5.9763
4.596, 6, -18.1218, 27.3577, 43.4874, -16.0303, -101.553, 5.983
4.6, 6, -18.1412, 27.4002, 43.4478, -16.0417, -101.584, 5.98885
4.604, 6, -18.1585, 27.438, 43.4133, -16.0515, -101.611, 5.99389
4.608, 6, -18.1741, 27.4713, 43.3835, -16.0599, -101.634, 5.99818
4.612, 6, -18.188, 27.5004, 43.3579, -16.0669, -101.653, 6.00179
4.616, 6, -18.2002, 27.5256, 43.3364, -16.0726, -101.669, 6.00478
4.62, 6, -18.2109, 27.5471, 43.3184, -16.0773, -101.682, 6.00722
4.624, 6, -18.2201, 27.5652, 43.3036, -16.0811, -101.692, 6.00919
4.628, 6, -18.2281, 27.5804, 43.2915, -16.0841, -101.7, 6.01075
4.632, 6, -18.2349, 27.5929, 43.2819, -16.0864, -101.707, 6.01196
4.636, 6, -18.2408, 27.6031, 43.2743, -16.0881, -101.711, 6.01288
4.64, 6, -18.2458, 27.6113, 43.2684, -16.0894, -101.715, 6.01357
4.644, 6, -18.2501, 27.6179, 43.2638, -16.0904, -101.718, 6.01407
4.648, 7, -18.2536, 27.6231, 43.2604, -16.091, -101.719, 6.01443
4.652, 7, -18.2565, 27.6271, 43.2579, -16.0915, -101.721, 6.01468
4.656, 7, -18.2587, 27.63, 43.2561, -16.0918, -101.721, 6.01485
4.66, 7, -18.2603, 27.6321, 43.2548, -16.0921, -101.722, 6.01497
4.664, 7, -18.2615, 27.6335, 43.2539, -16.0922, -101.722, 6.01505
4.668, 7, -18.2622, 27.6345, 43.2533, -16.0923, -101.723, 6.0151
4.672, 7, -18.2628, 27.6352, 43.2529, -16.0924, -101.723, 6.01514
4.676, 7, -18.2631, 27.6357, 43.2526, -16.0924, -101.723, 6.01516
4.68, 7, -18.2634, 27.636, 43.2525, -16.0924, -101.723, 6.01518
4.684, 7, -18.2635, 27.6362, 43.2523, -16.0925, -101.723, 6.01519
4.688, 7, -18.2636, 27.6363, 43.2522, -16.0925, -101.723, 6.0152
4.692, 7, -18.2637, 27.6364, 43.2522, -16.0925, -101.723, 6.0152
4.696, 7, -18.2638, 27.6365, 43.2522, -16.0925, -101.723, 6.01521
4.7, 7, -18.2638, 27.6365, 43.2521, -16.0925, -101.723, 6.01521
4.704, 7, -18.2638, 27.6365, 43.2521, -16.0925, -101.723, 6.01521
4.708, 7, -18.2638, 27.6366, 43.2521, -16.0925, -101.723, 6.01521
4.712, 7, -18.2639, 27.6366, 43.2521, -16.0925, -101.723, 6.01521
4.716, 7, -18.2639, 27.6366, 43.2521, -16.0925, -101.723, 6.01521
4.72, 7, -18.2639, 27.6366, 43.2521, -16.0925, -101.723, 6.01521
4.724, 7, -18.2639, 27.6366, 43.2521, -16.0925, -101.723, 6.01522
4.728, 7, -18.2639, 27.6366, 43.2521, -16.0925, -101.723, 6.01522
4.732, 7, -18.2639, 27.6366, 43.2521, -16.0925, -101.723, 6.01522
4.736, 7, -18.2639, 27.6366, 43.2521, -16.0925, -101.723, 6.01522
4.74, 7, -18.2639, 27.6366, 43.2521, -16.0925, -101.723, 6.01522
4.744, 7, -18.2639, 27.6366, 43.2521, -16.0925, -101.723, 6.01522
4.748, 7, -18.2639, 27.6366, 43.2521, -16.0925, -101.723, 6.01522
4.752, 7, -18.2639, 27.6366, 43.2521, -16.0925, -101.723, 6.01522
4.756, 7, -18.2639, 27.6366, 43.2521, -16.0925, -101.723, 6.01522
4.76, 7, -18.2639, 27.6366, 43.2521, -16.0925, -101.723, 6.01522
4.764, 7, -18.2639, 27.6366, 43.2521, -16.0925, -101.723, 6.01522
