hehonglu123/ABB_Primitive_Study/execution/movel_30_car_close/curve_exe_v300_z10.csv
timestamp, cmd_num, J1, J2, J3, J4, J5, J6
0, -1, -18.2639, 27.6366, 43.2521, -16.0925, -101.723, 6.01522
0.002, -1, -18.2639, 27.6366, 43.2521, -16.0925, -101.723, 6.01522
0.006, -1, -18.2639, 27.6366, 43.2521, -16.0925, -101.723, 6.01522
0.008, -1, -18.2639, 27.6366, 43.2521, -16.0925, -101.723, 6.01522
0.011, -1, -18.2639, 27.6366, 43.2521, -16.0925, -101.723, 6.01522
0.016, -1, -18.2639, 27.6366, 43.2521, -16.0925, -101.723, 6.01522
0.02, -1, -18.2639, 27.6366, 43.2521, -16.0925, -101.723, 6.01522
0.024, -1, -18.2639, 27.6366, 43.2521, -16.0925, -101.723, 6.01522
0.028, -1, -18.2639, 27.6366, 43.2521, -16.0925, -101.723, 6.01522
0.032, -1, -18.2639, 27.6366, 43.2521, -16.0925, -101.723, 6.01522
0.036, -1, -18.2638, 27.6366, 43.2521, -16.0925, -101.723, 6.01521
0.04, -1, -18.2635, 27.6365, 43.2521, -16.0925, -101.723, 6.01521
0.044, -1, -18.2629, 27.6361, 43.2522, -16.0925, -101.723, 6.01519
0.048, -1, -18.2616, 27.6355, 43.2523, -16.0924, -101.723, 6.01513
0.052, -1, -18.2597, 27.6345, 43.2525, -16.0922, -101.723, 6.01498
0.056, -1, -18.2568, 27.6328, 43.2529, -16.0917, -101.722, 6.01465
0.06, -1, -18.2529, 27.6304, 43.2534, -16.0908, -101.722, 6.01405
0.064, -1, -18.248, 27.6272, 43.2541, -16.0893, -101.72, 6.013
0.068, -1, -18.2417, 27.6228, 43.255, -16.0867, -101.717, 6.01131
0.072, -1, -18.234, 27.6172, 43.2562, -16.0828, -101.713, 6.00873
0.076, -1, -18.2245, 27.61, 43.2576, -16.0772, -101.707, 6.00498
0.08, -1, -18.2128, 27.601, 43.2594, -16.0692, -101.699, 5.99971
0.084, -1, -18.1986, 27.5898, 43.2615, -16.0583, -101.687, 5.99254
0.088, -1, -18.1815, 27.5762, 43.2641, -16.0438, -101.672, 5.98304
0.092, -1, -18.1612, 27.5599, 43.2671, -16.025, -101.652, 5.97075
0.096, -1, -18.1376, 27.5409, 43.2706, -16.0013, -101.627, 5.95519
0.1, -1, -18.1102, 27.5187, 43.2745, -15.9717, -101.596, 5.93588
0.104, -1, -18.0789, 27.4932, 43.279, -15.9357, -101.558, 5.91234
0.108, -1, -18.0432, 27.4642, 43.2839, -15.8925, -101.512, 5.88413
0.112, -1, -18.0031, 27.4313, 43.2895, -15.8415, -101.458, 5.85084
0.116, -1, -17.9583, 27.3946, 43.2956, -15.7821, -101.396, 5.81212
0.12, -1, -17.909, 27.3541, 43.3022, -15.7139, -101.324, 5.76767
0.124, -1, -17.8551, 27.3097, 43.3093, -15.6366, -101.242, 5.71731
0.128, -1, -17.7966, 27.2615, 43.3169, -15.55, -101.151, 5.66093
0.131, -1, -17.7338, 27.2095, 43.3251, -15.4542, -101.05, 5.59855
0.136, -1, -17.6665, 27.1539, 43.3336, -15.3494, -100.939, 5.53033
0.139, -1, -17.5948, 27.0946, 43.3427, -15.236, -100.82, 5.4565
0.144, -1, -17.5187, 27.0316, 43.3523, -15.1145, -100.691, 5.37741
0.148, -1, -17.4382, 26.965, 43.3624, -14.9855, -100.555, 5.29348
0.152, -1, -17.3537, 26.8951, 43.373, -14.8498, -100.412, 5.20516
0.156, -1, -17.2655, 26.822, 43.384, -14.7081, -100.262, 5.11296
0.16, -1, -17.174, 26.7461, 43.3955, -14.5613, -100.107, 5.01739
0.164, -1, -17.0794, 26.6676, 43.4074, -14.41, -99.9478, 4.91897
0.168, -1, -16.982, 26.5866, 43.4198, -14.2552, -99.7844, 4.81819
0.172, -1, -16.8819, 26.5033, 43.4325, -14.0975, -99.6179, 4.71552
0.176, -1, -16.7792, 26.418, 43.4456, -13.9375, -99.449, 4.61136
0.18, -1, -16.6742, 26.3309, 43.4591, -13.7758, -99.2783, 4.50606
0.184, -1, -16.5671, 26.2422, 43.4728, -13.6127, -99.1062, 4.39988
0.188, -1, -16.4583, 26.1522, 43.4868, -13.4486, -98.9331, 4.29303
0.192, -1, -16.3481, 26.0613, 43.501, -13.2838, -98.759, 4.18566
0.196, -1, -16.2369, 25.9697, 43.5154, -13.1183, -98.5844, 4.07787
0.2, -1, -16.1249, 25.8775, 43.5298, -12.9522, -98.4091, 3.96971
0.204, -1, -16.0124, 25.7848, 43.5443, -12.7857, -98.2334, 3.86125
0.208, -1, -15.8994, 25.6919, 43.5589, -12.6188, -98.0572, 3.75252
0.212, -1, -15.7859, 25.5986, 43.5735, -12.4514, -97.8806, 3.64353
0.216, -1, -15.6722, 25.5051, 43.5882, -12.2838, -97.7036, 3.53431
0.22, -1, -15.5582, 25.4114, 43.6029, -12.1157, -97.5263, 3.42486
0.224, -1, -15.4439, 25.3174, 43.6177, -11.9474, -97.3486, 3.3152
0.228, -1, -15.3294, 25.2233, 43.6325, -11.7787, -97.1706, 3.20533
0.232, -1, -15.2146, 25.129, 43.6473, -11.6097, -96.9922, 3.09526
0.236, -1, -15.0996, 25.0345, 43.6621, -11.4404, -96.8135, 2.985
0.24, -1, -14.9845, 24.9398, 43.677, -11.2708, -96.6345, 2.87454
0.244, -1, -14.8691, 24.845, 43.6918, -11.101, -96.4553, 2.76389
0.248, -1, -14.7535, 24.75, 43.7068, -10.9308, -96.2757, 2.65305
0.252, -1, -14.6377, 24.6548, 43.7217, -10.7604, -96.0958, 2.54203
0.256, -1, -14.5218, 24.5595, 43.7367, -10.5896, -95.9156, 2.43083
0.26, -1, -14.4056, 24.4641, 43.7517, -10.4187, -95.7351, 2.31945
0.264, -1, -14.2893, 24.3685, 43.7667, -10.2474, -95.5544, 2.2079
0.268, -1, -14.1728, 24.2727, 43.7817, -10.0759, -95.3734, 2.09618
0.272, -1, -14.0561, 24.1768, 43.7968, -9.90411, -95.1921, 1.98429
0.276, -1, -13.9393, 24.0808, 43.8118, -9.73208, -95.0105, 1.87224
0.28, -1, -13.8223, 23.9846, 43.8269, -9.55981, -94.8287, 1.76002
0.284, -1, -13.7051, 23.8883, 43.8421, -9.38729, -94.6466, 1.64765
0.288, -1, -13.5877, 23.7919, 43.8572, -9.21453, -94.4643, 1.53512
0.292, -1, -13.4703, 23.6953, 43.8724, -9.04154, -94.2817, 1.42244
0.296, -1, -13.3526, 23.5986, 43.8875, -8.86833, -94.0989, 1.30962
0.3, -1, -13.2348, 23.5018, 43.9027, -8.69489, -93.9158, 1.19665
0.304, -1, -13.1169, 23.4048, 43.918, -8.52124, -93.7325, 1.08354
0.308, -1, -12.9988, 23.3078, 43.9332, -8.34738, -93.549, 0.970291
0.312, -1, -12.8806, 23.2106, 43.9484, -8.17332, -93.3653, 0.856913
0.316, -1, -12.7623, 23.1134, 43.9637, -7.99906, -93.1814, 0.743408
0.32, -1, -12.6438, 23.016, 43.979, -7.82462, -92.9973, 0.629778
0.324, -1, -12.5252, 22.9185, 43.9943, -7.64999, -92.813, 0.51603
0.328, -1, -12.4065, 22.821, 44.0096, -7.47518, -92.6285, 0.402168
0.332, -1, -12.2877, 22.7233, 44.0249, -7.30021, -92.4438, 0.288197
0.336, -1, -12.1687, 22.6256, 44.0403, -7.12507, -92.259, 0.17412
0.34, -1, -12.0497, 22.5277, 44.0556, -6.94979, -92.074, 0.0599435
0.344, -1, -11.9305, 22.4298, 44.071, -6.77435, -91.8888, -0.0543284
0.348, -1, -11.8113, 22.3318, 44.0864, -6.59878, -91.7035, -0.168691
0.352, -1, -11.6919, 22.2337, 44.1018, -6.42308, -91.5181, -0.283138
0.356, -1, -11.5725, 22.1356, 44.1172, -6.24725, -91.3325, -0.397666
0.36, -1, -11.453, 22.0374, 44.1326, -6.07131, -91.1468, -0.51227
0.364, -1, -11.3334, 21.9391, 44.148, -5.89525, -90.961, -0.626944
0.368, -1, -11.2137, 21.8408, 44.1635, -5.7191, -90.7751, -0.741683
0.372, -1, -11.094, 21.7425, 44.1789, -5.54286, -90.5891, -0.856483
0.376, -1, -10.9742, 21.6441, 44.1944, -5.36653, -90.403, -0.971338
0.38, -1, -10.8544, 21.5456, 44.2098, -5.19012, -90.2168, -1.08624
0.384, -1, -10.7345, 21.4471, 44.2253, -5.01365, -90.0305, -1.20119
0.388, -1, -10.6145, 21.3486, 44.2407, -4.83711, -89.8442, -1.31618
0.392, -1, -10.4946, 21.25, 44.2562, -4.66052, -89.6578, -1.43121
0.396, -1, -10.3746, 21.1514, 44.2717, -4.48389, -89.4714, -1.54626
0.4, -1, -10.2545, 21.0528, 44.2872, -4.30722, -89.2849, -1.66134
0.404, -1, -10.1345, 20.9542, 44.3026, -4.13052, -89.0984, -1.77643
0.408, -1, -10.0144, 20.8556, 44.3181, -3.9538, -88.9119, -1.89154
0.412, -1, -9.89437, 20.7569, 44.3336, -3.77707, -88.7254, -2.00666
0.416, -1, -9.77429, 20.6583, 44.3491, -3.60033, -88.5388, -2.12178
0.42, -1, -9.65422, 20.5597, 44.3646, -3.42359, -88.3523, -2.2369
0.424, -1, -9.53415, 20.461, 44.38, -3.24687, -88.1658, -2.35202
0.428, -1, -9.41409, 20.3624, 44.3955, -3.07016, -87.9793, -2.46712
0.432, -1, -9.29405, 20.2638, 44.411, -2.89348, -87.7928, -2.5822
0.436, -1, -9.17403, 20.1652, 44.4265, -2.71684, -87.6064, -2.69726
0.44, -1, -9.05404, 20.0667, 44.4419, -2.54024, -87.42, -2.81229
0.444, -1, -8.93409, 19.9681, 44.4574, -2.36369, -87.2337, -2.92729
0.448, -1, -8.81417, 19.8696, 44.4729, -2.1872, -87.0474, -3.04225
0.452, -1, -8.6943, 19.7712, 44.4883, -2.01078, -86.8612, -3.15716
0.456, -1, -8.57448, 19.6727, 44.5038, -1.83444, -86.6751, -3.27203
0.46, -1, -8.45471, 19.5744, 44.5192, -1.65818, -86.489, -3.38684
0.464, -1, -8.33501, 19.476, 44.5346, -1.48201, -86.3031, -3.50159
0.468, -1, -8.21537, 19.3778, 44.5501, -1.30593, -86.1173, -3.61628
0.472, -1, -8.0958, 19.2796, 44.5655, -1.12997, -85.9315, -3.73089
0.476, -1, -7.97631, 19.1814, 44.5809, -0.954123, -85.746, -3.84544
0.48, -1, -7.8569, 19.0834, 44.5963, -0.778397, -85.5605, -3.9599
0.484, -1, -7.73757, 18.9854, 44.6116, -0.602801, -85.3752, -4.07428
0.488, -1, -7.61834, 18.8874, 44.627, -0.427343, -85.19, -4.18856
0.492, -1, -7.49921, 18.7896, 44.6424, -0.25203, -85.0049, -4.30276
0.496, -1, -7.38018, 18.6918, 44.6577, -0.076871, -84.8201, -4.41685
0.5, -1, -7.26126, 18.5942, 44.673, 0.0981278, -84.6354, -4.53084
0.504, -1, -7.14245, 18.4966, 44.6883, 0.272959, -84.4509, -4.64472
0.508, -1, -7.02375, 18.3991, 44.7036, 0.447614, -84.2665, -4.75848
0.512, -1, -6.90518, 18.3017, 44.7189, 0.622086, -84.0824, -4.87213
0.516, -1, -6.78674, 18.2045, 44.7342, 0.796369, -83.8984, -4.98565
0.52, -1, -6.66843, 18.1073, 44.7494, 0.970454, -83.7147, -5.09905
0.524, -1, -6.55026, 18.0103, 44.7647, 1.14434, -83.5312, -5.21231
0.528, -1, -6.43223, 17.9133, 44.7799, 1.31801, -83.3479, -5.32543
0.532, -1, -6.31434, 17.8165, 44.7951, 1.49146, -83.1648, -5.43841
0.536, -1, -6.19661, 17.7198, 44.8102, 1.66468, -82.982, -5.55125
0.54, -1, -6.07903, 17.6233, 44.8254, 1.83768, -82.7994, -5.66393
0.544, -1, -5.96161, 17.5269, 44.8405, 2.01044, -82.6171, -5.77646
0.548, -1, -5.84436, 17.4306, 44.8556, 2.18295, -82.435, -5.88883
0.552, -1, -5.72727, 17.3344, 44.8707, 2.35521, -82.2532, -6.00103
0.556, -1, -5.61036, 17.2384, 44.8858, 2.52721, -82.0716, -6.11307
0.56, -1, -5.49363, 17.1426, 44.9008, 2.69895, -81.8904, -6.22494
0.564, -1, -5.37708, 17.0469, 44.9159, 2.87042, -81.7094, -6.33663
0.568, -1, -5.26071, 16.9513, 44.9309, 3.04162, -81.5287, -6.44814
0.572, -1, -5.14454, 16.8559, 44.9458, 3.21253, -81.3483, -6.55947
0.576, -1, -5.02856, 16.7607, 44.9608, 3.38316, -81.1682, -6.67061
0.58, -1, -4.91278, 16.6656, 44.9757, 3.55349, -80.9885, -6.78156
0.584, -1, -4.79719, 16.5707, 44.9906, 3.72352, -80.809, -6.89231
0.588, -1, -4.68182, 16.476, 45.0055, 3.89325, -80.6299, -7.00287
0.592, -1, -4.56665, 16.3814, 45.0203, 4.06267, -80.451, -7.11322
0.596, -1, -4.4517, 16.287, 45.0351, 4.23177, -80.2726, -7.22337
0.6, -1, -4.33696, 16.1928, 45.0499, 4.40055, -80.0944, -7.33331
0.604, -1, -4.22243, 16.0988, 45.0647, 4.56901, -79.9166, -7.44304
0.608, -1, -4.10814, 16.0049, 45.0794, 4.73713, -79.7392, -7.55255
0.612, -1, -3.99406, 15.9112, 45.0941, 4.90493, -79.5621, -7.66184
0.616, -1, -3.88021, 15.8178, 45.1087, 5.07238, -79.3854, -7.77092
0.62, -1, -3.7666, 15.7245, 45.1234, 5.23949, -79.209, -7.87977
0.624, -1, -3.65322, 15.6314, 45.138, 5.40625, -79.033, -7.98839
0.628, -1, -3.54007, 15.5385, 45.1526, 5.57266, -78.8573, -8.09679
0.632, -1, -3.42716, 15.4458, 45.1671, 5.73872, -78.6821, -8.20495
0.636, -1, -3.31449, 15.3533, 45.1816, 5.90442, -78.5072, -8.31288
0.64, -1, -3.20207, 15.261, 45.1961, 6.06975, -78.3327, -8.42058
0.644, -1, -3.08989, 15.1689, 45.2106, 6.23473, -78.1586, -8.52804
0.648, -1, -2.97796, 15.077, 45.225, 6.39933, -77.9848, -8.63526
0.652, -1, -2.86628, 14.9853, 45.2394, 6.56357, -77.8115, -8.74224
0.656, -1, -2.75485, 14.8938, 45.2538, 6.72744, -77.6386, -8.84898
0.66, -1, -2.64367, 14.8025, 45.2681, 6.89093, -77.466, -8.95547
0.664, -1, -2.53275, 14.7115, 45.2824, 7.05404, -77.2939, -9.06172
0.668, -1, -2.42209, 14.6206, 45.2966, 7.21677, -77.1221, -9.16772
0.672, -1, -2.31168, 14.5299, 45.3109, 7.37913, -76.9507, -9.27347
0.676, -1, -2.20153, 14.4395, 45.3251, 7.5411, -76.7798, -9.37897
0.68, -1, -2.09164, 14.3493, 45.3392, 7.70269, -76.6092, -9.48423
0.684, -1, -1.98201, 14.2593, 45.3533, 7.86389, -76.4391, -9.58923
0.688, -1, -1.87265, 14.1695, 45.3674, 8.0247, -76.2694, -9.69398
0.692, -1, -1.76355, 14.0799, 45.3815, 8.18512, -76.1001, -9.79848
0.696, -1, -1.65471, 13.9906, 45.3955, 8.34516, -75.9312, -9.90272
0.7, -1, -1.54614, 13.9014, 45.4095, 8.5048, -75.7627, -10.0067
0.704, -1, -1.43783, 13.8125, 45.4235, 8.66405, -75.5946, -10.1104
0.708, -1, -1.3298, 13.7238, 45.4374, 8.8229, -75.4269, -10.2139
0.712, -1, -1.22203, 13.6353, 45.4513, 8.98136, -75.2597, -10.3171
0.716, -1, -1.11453, 13.5471, 45.4651, 9.13942, -75.0929, -10.4201
0.72, -1, -1.0073, 13.4591, 45.4789, 9.29708, -74.9265, -10.5228
0.724, -1, -0.900341, 13.3712, 45.4927, 9.45434, -74.7605, -10.6252
0.728, -1, -0.793652, 13.2837, 45.5065, 9.61121, -74.5949, -10.7274
0.732, -1, -0.687235, 13.1963, 45.5202, 9.76767, -74.4298, -10.8293
0.736, -1, -0.58109, 13.1091, 45.5339, 9.92374, -74.2651, -10.931
0.74, -1, -0.475218, 13.0222, 45.5475, 10.0794, -74.1008, -11.0324
0.744, -1, -0.369619, 12.9355, 45.5611, 10.2347, -73.9369, -11.1335
0.748, -1, -0.264294, 12.8491, 45.5747, 10.3895, -73.7735, -11.2344
0.752, -1, -0.159242, 12.7628, 45.5882, 10.544, -73.6105, -11.335
0.756, -1, -0.0544645, 12.6768, 45.6017, 10.698, -73.4479, -11.4353
0.76, -1, 0.0500385, 12.591, 45.6152, 10.8517, -73.2857, -11.5354
0.764, -1, 0.154267, 12.5054, 45.6286, 11.0049, -73.124, -11.6352
0.768, -1, 0.25822, 12.4201, 45.642, 11.1577, -72.9627, -11.7347
0.772, -1, 0.361898, 12.335, 45.6554, 11.3102, -72.8018, -11.834
0.776, -1, 0.465301, 12.2501, 45.6687, 11.4622, -72.6414, -11.9331
0.78, -1, 0.568428, 12.1654, 45.682, 11.6138, -72.4813, -12.0318
0.784, -1, 0.67128, 12.081, 45.6952, 11.765, -72.3218, -12.1303
0.788, -1, 0.773856, 11.9968, 45.7085, 11.9158, -72.1626, -12.2285
0.792, -1, 0.876156, 11.9128, 45.7216, 12.0662, -72.0039, -12.3265
0.796, -1, 0.978181, 11.829, 45.7348, 12.2162, -71.8456, -12.4242
0.8, -1, 1.07993, 11.7455, 45.7479, 12.3658, -71.6877, -12.5216
0.804, -1, 1.1814, 11.6622, 45.761, 12.5149, -71.5302, -12.6188
0.808, -1, 1.2826, 11.5791, 45.774, 12.6637, -71.3732, -12.7157
0.812, -1, 1.38352, 11.4963, 45.787, 12.8121, -71.2166, -12.8124
0.816, -1, 1.48417, 11.4136, 45.8, 12.96, -71.0605, -12.9087
0.82, -1, 1.58454, 11.3312, 45.8129, 13.1076, -70.9047, -13.0048
0.824, -1, 1.68464, 11.2491, 45.8258, 13.2548, -70.7494, -13.1007
0.828, -1, 1.78446, 11.1671, 45.8387, 13.4015, -70.5945, -13.1963
0.832, -1, 1.88401, 11.0854, 45.8515, 13.5478, -70.4401, -13.2916
0.836, -1, 1.98329, 11.0039, 45.8643, 13.6938, -70.2861, -13.3867
0.84, -1, 2.0823, 10.9226, 45.8771, 13.8393, -70.1325, -13.4815
0.844, -1, 2.18103, 10.8416, 45.8898, 13.9844, -69.9793, -13.576
0.848, -1, 2.27949, 10.7607, 45.9025, 14.1292, -69.8265, -13.6703
0.852, -1, 2.37768, 10.6801, 45.9151, 14.2735, -69.6742, -13.7643
0.856, -1, 2.4756, 10.5997, 45.9278, 14.4174, -69.5223, -13.858
0.86, -1, 2.57325, 10.5196, 45.9403, 14.561, -69.3708, -13.9515
0.864, -1, 2.67063, 10.4396, 45.9529, 14.7041, -69.2197, -14.0448
0.868, -1, 2.76775, 10.3599, 45.9654, 14.8469, -69.0691, -14.1378
0.872, -1, 2.8646, 10.2804, 45.9779, 14.9892, -68.9188, -14.2305
0.876, -1, 2.96118, 10.2011, 45.9903, 15.1312, -68.769, -14.323
0.88, -1, 3.0575, 10.1221, 46.0027, 15.2727, -68.6196, -14.4152
0.884, -1, 3.15355, 10.0432, 46.0151, 15.4139, -68.4706, -14.5071
0.888, -1, 3.24934, 9.96457, 46.0275, 15.5547, -68.322, -14.5988
0.892, -1, 3.34487, 9.88615, 46.0398, 15.6951, -68.1738, -14.6903
0.896, -1, 3.44014, 9.80795, 46.052, 15.8352, -68.026, -14.7815
0.9, -1, 3.53514, 9.72995, 46.0643, 15.9748, -67.8786, -14.8725
0.904, -1, 3.62989, 9.65217, 46.0765, 16.1141, -67.7316, -14.9632
0.908, -1, 3.72438, 9.5746, 46.0887, 16.253, -67.585, -15.0537
0.912, -1, 3.81862, 9.49724, 46.1008, 16.3915, -67.4389, -15.1439
0.916, -1, 3.9126, 9.42009, 46.1129, 16.5296, -67.2931, -15.2338
0.92, -1, 4.00632, 9.34315, 46.125, 16.6674, -67.1477, -15.3236
0.924, -1, 4.0998, 9.26642, 46.1371, 16.8047, -67.0027, -15.4131
0.928, -1, 4.19302, 9.18989, 46.1491, 16.9418, -66.858, -15.5023
0.932, -1, 4.28599, 9.11357, 46.161, 17.0784, -66.7138, -15.5913
0.936, -1, 4.37871, 9.03745, 46.173, 17.2147, -66.57, -15.6801
0.94, -1, 4.47118, 8.96154, 46.1849, 17.3506, -66.4265, -15.7686
0.944, -1, 4.56341, 8.88583, 46.1968, 17.4862, -66.2835, -15.8569
0.948, -1, 4.65539, 8.81032, 46.2087, 17.6214, -66.1408, -15.945
0.952, -1, 4.74712, 8.73502, 46.2205, 17.7562, -65.9985, -16.0328
0.956, -1, 4.83861, 8.65991, 46.2323, 17.8907, -65.8565, -16.1204
0.96, -1, 4.92986, 8.585, 46.244, 18.0248, -65.715, -16.2078
0.964, -1, 5.02087, 8.5103, 46.2558, 18.1585, -65.5738, -16.2949
0.968, -1, 5.11163, 8.43578, 46.2674, 18.292, -65.433, -16.3818
0.972, -1, 5.20216, 8.36147, 46.2791, 18.425, -65.2926, -16.4685
0.976, -1, 5.29245, 8.28735, 46.2907, 18.5577, -65.1525, -16.5549
0.98, -1, 5.38249, 8.21343, 46.3024, 18.6901, -65.0128, -16.6411
0.984, -1, 5.47231, 8.1397, 46.3139, 18.8221, -64.8735, -16.7271
0.988, -1, 5.56189, 8.06616, 46.3255, 18.9538, -64.7345, -16.8129
0.992, -1, 5.65123, 7.99281, 46.337, 19.0851, -64.5959, -16.8984
0.996, -1, 5.74034, 7.91966, 46.3485, 19.2161, -64.4577, -16.9837
1, -1, 5.82922, 7.84669, 46.3599, 19.3467, -64.3198, -17.0688
1.004, -1, 5.91787, 7.77392, 46.3714, 19.477, -64.1823, -17.1537
1.008, -1, 6.00629, 7.70133, 46.3827, 19.607, -64.0451, -17.2384
1.012, -1, 6.09448, 7.62894, 46.3941, 19.7366, -63.9083, -17.3228
1.016, -1, 6.18245, 7.55672, 46.4054, 19.8659, -63.7719, -17.407
1.02, -1, 6.27018, 7.4847, 46.4168, 19.9948, -63.6358, -17.491
1.024, -1, 6.35769, 7.41286, 46.428, 20.1234, -63.5, -17.5748
1.027, -1, 6.44498, 7.3412, 46.4393, 20.2517, -63.3646, -17.6584
1.032, -1, 6.53204, 7.26973, 46.4505, 20.3797, -63.2295, -17.7417
1.036, -1, 6.61888, 7.19844, 46.4617, 20.5074, -63.0948, -17.8249
1.04, -1, 6.7055, 7.12733, 46.4729, 20.6347, -62.9605, -17.9078
1.044, -1, 6.79189, 7.05641, 46.484, 20.7617, -62.8264, -17.9905
1.048, -1, 6.87807, 6.98566, 46.4951, 20.8883, -62.6927, -18.073
1.052, -1, 6.96403, 6.91509, 46.5062, 21.0147, -62.5594, -18.1553
1.055, -1, 7.04978, 6.8447, 46.5172, 21.1407, -62.4264, -18.2374
1.06, -1, 7.1353, 6.77449, 46.5283, 21.2664, -62.2937, -18.3193
1.064, -1, 7.22061, 6.70445, 46.5392, 21.3918, -62.1614, -18.401
1.068, -1, 7.30571, 6.6346, 46.5502, 21.5169, -62.0293, -18.4824
1.072, -1, 7.39059, 6.56491, 46.5611, 21.6416, -61.8977, -18.5637
1.076, -1, 7.47526, 6.4954, 46.5721, 21.7661, -61.7663, -18.6448
1.08, -1, 7.55972, 6.42607, 46.583, 21.8902, -61.6353, -18.7256
1.084, -1, 7.64397, 6.3569, 46.5938, 22.0141, -61.5046, -18.8063
1.088, -1, 7.72801, 6.28791, 46.6046, 22.1376, -61.3742, -18.8868
1.091, -1, 7.81184, 6.21909, 46.6154, 22.2608, -61.2442, -18.967
1.096, -1, 7.89547, 6.15044, 46.6262, 22.3837, -61.1144, -19.0471
1.1, -1, 7.97889, 6.08195, 46.637, 22.5063, -60.985, -19.1269
1.104, -1, 8.0621, 6.01364, 46.6477, 22.6287, -60.8559, -19.2066
1.108, -1, 8.14511, 5.94549, 46.6584, 22.7507, -60.7272, -19.2861
1.112, -1, 8.22792, 5.87751, 46.6691, 22.8724, -60.5987, -19.3654
1.116, -1, 8.31053, 5.8097, 46.6797, 22.9938, -60.4706, -19.4445
1.119, -1, 8.39293, 5.74205, 46.6903, 23.1149, -60.3427, -19.5234
1.124, -1, 8.47514, 5.67456, 46.7009, 23.2357, -60.2152, -19.6021
1.128, -1, 8.55715, 5.60723, 46.7115, 23.3563, -60.088, -19.6806
1.132, -1, 8.63896, 5.54007, 46.722, 23.4765, -59.9611, -19.7589
1.136, -1, 8.72058, 5.47307, 46.7326, 23.5965, -59.8345, -19.837
1.14, -1, 8.802, 5.40623, 46.7431, 23.7161, -59.7082, -19.915
1.144, -1, 8.88322, 5.33954, 46.7535, 23.8355, -59.5822, -19.9927
1.147, -1, 8.96426, 5.27302, 46.764, 23.9546, -59.4565, -20.0703
1.152, -1, 9.0451, 5.20665, 46.7744, 24.0735, -59.3311, -20.1477
1.156, -1, 9.12575, 5.14044, 46.7848, 24.192, -59.206, -20.2249
1.16, -1, 9.20622, 5.07438, 46.7952, 24.3103, -59.0811, -20.302
1.164, -1, 9.28649, 5.00848, 46.8055, 24.4283, -58.9566, -20.3788
1.168, -1, 9.36658, 4.94273, 46.8158, 24.546, -58.8324, -20.4555
1.172, -1, 9.44648, 4.87714, 46.8261, 24.6634, -58.7084, -20.532
1.175, -1, 9.5262, 4.81169, 46.8364, 24.7806, -58.5847, -20.6083
1.18, -1, 9.60574, 4.7464, 46.8466, 24.8975, -58.4614, -20.6845
1.184, -1, 9.68509, 4.68126, 46.8569, 25.0141, -58.3383, -20.7604
1.188, -1, 9.76426, 4.61626, 46.8671, 25.1305, -58.2155, -20.8362
1.192, -1, 9.84325, 4.55141, 46.8773, 25.2466, -58.0929, -20.9119
1.196, -1, 9.92206, 4.48671, 46.8874, 25.3624, -57.9707, -20.9873
1.2, -1, 10.0007, 4.42216, 46.8976, 25.478, -57.8487, -21.0626
1.204, -1, 10.0791, 4.35775, 46.9077, 25.5933, -57.727, -21.1377
1.208, -1, 10.1574, 4.29349, 46.9178, 25.7084, -57.6055, -21.2127
1.212, -1, 10.2355, 4.22937, 46.9278, 25.8232, -57.4844, -21.2874
1.216, -1, 10.3134, 4.16539, 46.9379, 25.9377, -57.3635, -21.3621
1.22, -1, 10.3912, 4.10156, 46.9479, 26.052, -57.2429, -21.4365
1.224, -1, 10.4688, 4.03787, 46.9579, 26.166, -57.1225, -21.5108
1.228, -1, 10.5462, 3.97432, 46.9679, 26.2798, -57.0024, -21.5849
1.232, -1, 10.6234, 3.9109, 46.9778, 26.3933, -56.8826, -21.6588
1.236, -1, 10.7005, 3.84763, 46.9878, 26.5066, -56.763, -21.7326
1.24, -1, 10.7774, 3.7845, 46.9977, 26.6197, -56.6437, -21.8063
1.244, -1, 10.8541, 3.7215, 47.0076, 26.7325, -56.5247, -21.8797
1.248, -1, 10.9307, 3.65864, 47.0174, 26.845, -56.4059, -21.953
1.252, -1, 11.0071, 3.59591, 47.0273, 26.9573, -56.2874, -22.0262
1.256, -1, 11.0834, 3.53333, 47.0371, 27.0694, -56.1691, -22.0992
1.26, -1, 11.1594, 3.47087, 47.0469, 27.1812, -56.0511, -22.172
1.264, -1, 11.2353, 3.40855, 47.0567, 27.2928, -55.9333, -22.2447
1.267, -1, 11.3111, 3.34636, 47.0665, 27.4041, -55.8158, -22.3172
1.272, -1, 11.3867, 3.28431, 47.0762, 27.5152, -55.6985, -22.3896
1.276, -1, 11.4621, 3.22238, 47.0859, 27.6261, -55.5815, -22.4618
1.28, -1, 11.5374, 3.16059, 47.0956, 27.7367, -55.4648, -22.5339
1.284, -1, 11.6125, 3.09893, 47.1053, 27.8471, -55.3482, -22.6058
1.288, -1, 11.6874, 3.0374, 47.115, 27.9573, -55.232, -22.6775
1.292, -1, 11.7622, 2.97599, 47.1246, 28.0672, -55.1159, -22.7492
1.295, -1, 11.8369, 2.91471, 47.1342, 28.1769, -55.0001, -22.8206
1.3, -1, 11.9113, 2.85357, 47.1438, 28.2864, -54.8846, -22.8919
1.304, -1, 11.9857, 2.79254, 47.1534, 28.3957, -54.7693, -22.9631
1.308, -1, 12.0598, 2.73165, 47.163, 28.5047, -54.6542, -23.0341
1.312, -1, 12.1339, 2.67088, 47.1725, 28.6135, -54.5394, -23.105
1.316, -1, 12.2077, 2.61023, 47.182, 28.7221, -54.4248, -23.1757
1.32, -1, 12.2814, 2.54971, 47.1915, 28.8304, -54.3104, -23.2463
1.324, -1, 12.355, 2.48931, 47.201, 28.9386, -54.1963, -23.3167
1.328, -1, 12.4284, 2.42904, 47.2105, 29.0465, -54.0824, -23.387
1.332, -1, 12.5017, 2.36888, 47.2199, 29.1542, -53.9687, -23.4572
1.336, -1, 12.5748, 2.30885, 47.2293, 29.2617, -53.8553, -23.5272
1.34, -1, 12.6478, 2.24894, 47.2387, 29.3689, -53.7421, -23.5971
1.344, -1, 12.7206, 2.18915, 47.2481, 29.476, -53.6291, -23.6668
1.348, -1, 12.7933, 2.12948, 47.2575, 29.5828, -53.5163, -23.7364
1.352, -1, 12.8659, 2.06993, 47.2669, 29.6895, -53.4038, -23.8058
1.356, -1, 12.9383, 2.0105, 47.2762, 29.7959, -53.2915, -23.8752
1.36, -1, 13.0105, 1.95118, 47.2855, 29.9021, -53.1794, -23.9443
1.364, -1, 13.0826, 1.89199, 47.2948, 30.0081, -53.0675, -24.0134
1.368, -1, 13.1546, 1.83291, 47.3041, 30.1138, -52.9559, -24.0823
1.372, -1, 13.2264, 1.77394, 47.3133, 30.2194, -52.8445, -24.151
1.376, -1, 13.2981, 1.71509, 47.3226, 30.3248, -52.7333, -24.2197
1.38, -1, 13.3696, 1.65636, 47.3318, 30.4299, -52.6223, -24.2882
1.384, -1, 13.441, 1.59774, 47.341, 30.5349, -52.5115, -24.3565
1.388, -1, 13.5123, 1.53923, 47.3502, 30.6396, -52.4009, -24.4248
1.392, -1, 13.5834, 1.48084, 47.3593, 30.7442, -52.2906, -24.4929
1.396, -1, 13.6544, 1.42256, 47.3685, 30.8485, -52.1805, -24.5608
1.4, -1, 13.7253, 1.36439, 47.3776, 30.9527, -52.0705, -24.6287
1.404, -1, 13.796, 1.30634, 47.3867, 31.0566, -51.9608, -24.6964
1.408, -1, 13.8666, 1.24839, 47.3958, 31.1604, -51.8513, -24.764
1.412, -1, 13.937, 1.19055, 47.4049, 31.2639, -51.742, -24.8314
1.416, -1, 14.0074, 1.13283, 47.414, 31.3673, -51.633, -24.8987
1.42, -1, 14.0775, 1.07521, 47.423, 31.4704, -51.5241, -24.9659
1.424, -1, 14.1476, 1.0177, 47.4321, 31.5734, -51.4154, -25.033
1.428, -1, 14.2175, 0.960302, 47.4411, 31.6762, -51.307, -25.0999
1.432, -1, 14.2873, 0.903009, 47.4501, 31.7788, -51.1987, -25.1668
1.436, -1, 14.357, 0.845822, 47.459, 31.8811, -51.0906, -25.2334
1.44, -1, 14.4265, 0.788742, 47.468, 31.9833, -50.9828, -25.3
1.444, -1, 14.4959, 0.731767, 47.4769, 32.0854, -50.8751, -25.3665
1.448, -1, 14.5652, 0.674897, 47.4859, 32.1872, -50.7676, -25.4328
1.452, -1, 14.6343, 0.618132, 47.4948, 32.2888, -50.6604, -25.499
1.456, -1, 14.7033, 0.56147, 47.5037, 32.3903, -50.5533, -25.5651
1.46, -1, 14.7722, 0.504912, 47.5126, 32.4915, -50.4464, -25.631
1.464, -1, 14.841, 0.448456, 47.5214, 32.5926, -50.3397, -25.6969
1.468, -1, 14.9096, 0.392102, 47.5303, 32.6935, -50.2333, -25.7626
1.472, -1, 14.9782, 0.33585, 47.5391, 32.7942, -50.127, -25.8282
1.476, -1, 15.0466, 0.279699, 47.5479, 32.8947, -50.0208, -25.8937
1.48, -1, 15.1148, 0.223648, 47.5567, 32.9951, -49.9149, -25.959
1.484, -1, 15.183, 0.167697, 47.5655, 33.0953, -49.8092, -26.0243
1.488, -1, 15.251, 0.111846, 47.5743, 33.1953, -49.7037, -26.0894
1.492, -1, 15.3189, 0.056093, 47.583, 33.2951, -49.5983, -26.1545
1.496, -1, 15.3867, 0.000438437, 47.5918, 33.3947, -49.4931, -26.2194
1.5, -1, 15.4544, -0.0551184, 47.6005, 33.4942, -49.3881, -26.2842
1.504, -1, 15.522, -0.110578, 47.6092, 33.5935, -49.2833, -26.3488
1.508, -1, 15.5894, -0.165941, 47.6179, 33.6926, -49.1787, -26.4134
1.512, -1, 15.6567, -0.221208, 47.6266, 33.7916, -49.0743, -26.4779
1.516, -1, 15.7239, -0.276379, 47.6352, 33.8904, -48.97, -26.5422
1.52, -1, 15.791, -0.331455, 47.6439, 33.989, -48.866, -26.6064
1.524, -1, 15.858, -0.386436, 47.6525, 34.0874, -48.7621, -26.6706
1.528, -1, 15.9248, -0.441323, 47.6611, 34.1857, -48.6583, -26.7346
1.532, -1, 15.9916, -0.496117, 47.6697, 34.2838, -48.5548, -26.7985
1.536, -1, 16.0582, -0.550817, 47.6783, 34.3817, -48.4514, -26.8623
1.54, -1, 16.1247, -0.605425, 47.6869, 34.4795, -48.3482, -26.926
1.544, -1, 16.1911, -0.65994, 47.6955, 34.5771, -48.2452, -26.9895
1.548, -1, 16.2574, -0.714364, 47.704, 34.6746, -48.1424, -27.053
1.552, -1, 16.3236, -0.768696, 47.7125, 34.7718, -48.0397, -27.1164
1.556, -1, 16.3897, -0.822938, 47.7211, 34.869, -47.9372, -27.1796
1.56, -1, 16.4556, -0.87709, 47.7295, 34.9659, -47.8349, -27.2428
1.564, -1, 16.5215, -0.931151, 47.738, 35.0627, -47.7327, -27.3058
1.568, -1, 16.5872, -0.985123, 47.7465, 35.1593, -47.6307, -27.3688
1.572, -1, 16.6529, -1.03901, 47.755, 35.2558, -47.5289, -27.4316
1.576, -1, 16.7184, -1.0928, 47.7634, 35.3521, -47.4272, -27.4944
1.58, -1, 16.7838, -1.14651, 47.7719, 35.4483, -47.3258, -27.557
1.584, -1, 16.8491, -1.20013, 47.7803, 35.5443, -47.2244, -27.6195
1.588, -1, 16.9143, -1.25366, 47.7887, 35.6401, -47.1233, -27.682
1.592, -1, 16.9794, -1.3071, 47.7971, 35.7358, -47.0223, -27.7443
1.596, -1, 17.0444, -1.36046, 47.8054, 35.8314, -46.9214, -27.8065
1.6, -1, 17.1093, -1.41374, 47.8138, 35.9268, -46.8208, -27.8687
1.604, -1, 17.1741, -1.46692, 47.8222, 36.022, -46.7203, -27.9307
1.608, -1, 17.2388, -1.52003, 47.8305, 36.1171, -46.6199, -27.9926
1.612, -1, 17.3034, -1.57304, 47.8388, 36.212, -46.5197, -28.0544
1.616, -1, 17.3678, -1.62598, 47.8471, 36.3068, -46.4197, -28.1162
1.62, -1, 17.4322, -1.67883, 47.8554, 36.4014, -46.3198, -28.1778
1.624, -1, 17.4965, -1.73159, 47.8637, 36.4959, -46.2201, -28.2394
1.628, -1, 17.5607, -1.78428, 47.872, 36.5902, -46.1206, -28.3008
1.632, -1, 17.6247, -1.83688, 47.8802, 36.6844, -46.0212, -28.3621
1.636, -1, 17.6887, -1.8894, 47.8885, 36.7784, -45.9219, -28.4234
1.64, -1, 17.7526, -1.94183, 47.8967, 36.8723, -45.8228, -28.4846
1.644, -1, 17.8163, -1.99419, 47.9049, 36.966, -45.7239, -28.5456
1.648, -1, 17.88, -2.04646, 47.9132, 37.0596, -45.6251, -28.6066
1.652, -1, 17.9436, -2.09866, 47.9213, 37.1531, -45.5265, -28.6674
1.656, -1, 18.0071, -2.15077, 47.9295, 37.2464, -45.428, -28.7282
1.66, -1, 18.0704, -2.2028, 47.9377, 37.3396, -45.3297, -28.7889
1.664, -1, 18.1337, -2.25476, 47.9459, 37.4326, -45.2315, -28.8495
1.668, -1, 18.1969, -2.30663, 47.954, 37.5255, -45.1335, -28.91
1.672, -1, 18.26, -2.35843, 47.9621, 37.6182, -45.0356, -28.9704
1.676, -1, 18.323, -2.41015, 47.9703, 37.7108, -44.9378, -29.0307
1.68, -1, 18.3859, -2.46179, 47.9784, 37.8033, -44.8403, -29.091
1.684, -1, 18.4487, -2.51335, 47.9865, 37.8956, -44.7428, -29.1511
1.688, -1, 18.5114, -2.56483, 47.9945, 37.9878, -44.6455, -29.2111
1.692, -1, 18.574, -2.61624, 48.0026, 38.0798, -44.5484, -29.2711
1.696, -1, 18.6366, -2.66757, 48.0107, 38.1717, -44.4514, -29.331
1.7, -1, 18.699, -2.71883, 48.0187, 38.2635, -44.3545, -29.3907
1.704, -1, 18.7613, -2.77001, 48.0268, 38.3551, -44.2578, -29.4504
1.708, -1, 18.8236, -2.82111, 48.0348, 38.4466, -44.1612, -29.51
1.712, -1, 18.8857, -2.87214, 48.0428, 38.538, -44.0648, -29.5695
1.716, -1, 18.9478, -2.92309, 48.0508, 38.6292, -43.9685, -29.629
1.72, -1, 19.0098, -2.97397, 48.0588, 38.7203, -43.8724, -29.6883
1.724, -1, 19.0716, -3.02477, 48.0668, 38.8113, -43.7764, -29.7476
1.728, -1, 19.1334, -3.07551, 48.0747, 38.9021, -43.6805, -29.8067
1.732, -1, 19.1951, -3.12616, 48.0827, 38.9928, -43.5848, -29.8658
1.736, -1, 19.2567, -3.17675, 48.0906, 39.0834, -43.4892, -29.9248
1.74, -1, 19.3183, -3.22726, 48.0985, 39.1738, -43.3937, -29.9837
1.744, -1, 19.3797, -3.2777, 48.1065, 39.2642, -43.2984, -30.0425
1.748, -1, 19.441, -3.32806, 48.1144, 39.3543, -43.2032, -30.1013
1.752, -1, 19.5023, -3.37836, 48.1223, 39.4444, -43.1082, -30.1599
1.756, -1, 19.5635, -3.42858, 48.1302, 39.5343, -43.0133, -30.2185
1.76, -1, 19.6246, -3.47873, 48.138, 39.6241, -42.9185, -30.277
1.764, -1, 19.6856, -3.52881, 48.1459, 39.7138, -42.8239, -30.3354
1.768, -1, 19.7465, -3.57882, 48.1538, 39.8033, -42.7294, -30.3937
1.772, -1, 19.8073, -3.62876, 48.1616, 39.8927, -42.635, -30.452
1.776, -1, 19.868, -3.67863, 48.1694, 39.982, -42.5407, -30.5101
1.78, -1, 19.9287, -3.72844, 48.1772, 40.0712, -42.4466, -30.5682
1.784, -1, 19.9893, -3.77817, 48.185, 40.1602, -42.3526, -30.6262
1.788, -1, 20.0498, -3.82783, 48.1928, 40.2492, -42.2588, -30.6841
1.792, -1, 20.1102, -3.87743, 48.2006, 40.338, -42.1651, -30.742
1.796, -1, 20.1705, -3.92695, 48.2084, 40.4266, -42.0715, -30.7997
1.8, -1, 20.2307, -3.97641, 48.2162, 40.5152, -41.978, -30.8574
1.804, -1, 20.2909, -4.0258, 48.2239, 40.6036, -41.8847, -30.915
1.808, -1, 20.351, -4.07513, 48.2317, 40.6919, -41.7915, -30.9726
1.812, -1, 20.411, -4.12438, 48.2394, 40.7801, -41.6984, -31.03
1.816, -1, 20.4709, -4.17357, 48.2471, 40.8682, -41.6054, -31.0874
1.82, -1, 20.5307, -4.2227, 48.2548, 40.9562, -41.5126, -31.1447
1.824, -1, 20.5905, -4.27176, 48.2625, 41.044, -41.4199, -31.2019
1.828, -1, 20.6501, -4.32075, 48.2702, 41.1317, -41.3273, -31.259
1.832, -1, 20.7097, -4.36968, 48.2779, 41.2193, -41.2348, -31.3161
1.836, -1, 20.7692, -4.41854, 48.2856, 41.3068, -41.1425, -31.3731
1.84, -1, 20.8287, -4.46734, 48.2933, 41.3942, -41.0503, -31.43
1.844, -1, 20.888, -4.51607, 48.3009, 41.4815, -40.9582, -31.4868
1.848, -1, 20.9473, -4.56474, 48.3085, 41.5686, -40.8662, -31.5436
1.852, -1, 21.0065, -4.61335, 48.3162, 41.6556, -40.7744, -31.6003
1.856, -1, 21.0656, -4.66189, 48.3238, 41.7425, -40.6826, -31.6569
1.86, -1, 21.1247, -4.71037, 48.3314, 41.8293, -40.591, -31.7134
1.864, -1, 21.1837, -4.75878, 48.339, 41.916, -40.4995, -31.7699
1.868, -1, 21.2425, -4.80714, 48.3466, 42.0026, -40.4082, -31.8263
1.872, -1, 21.3014, -4.85543, 48.3542, 42.0891, -40.3169, -31.8826
1.876, -1, 21.3601, -4.90366, 48.3618, 42.1754, -40.2258, -31.9389
1.88, -1, 21.4188, -4.95183, 48.3693, 42.2617, -40.1347, -31.995
1.884, -1, 21.4774, -4.99993, 48.3769, 42.3478, -40.0438, -32.0511
1.888, -1, 21.5359, -5.04798, 48.3844, 42.4338, -39.953, -32.1072
1.892, -1, 21.5943, -5.09596, 48.392, 42.5197, -39.8624, -32.1631
1.896, -1, 21.6527, -5.14388, 48.3995, 42.6055, -39.7718, -32.219
1.9, -1, 21.711, -5.19174, 48.407, 42.6912, -39.6814, -32.2749
1.904, -1, 21.7692, -5.23955, 48.4145, 42.7768, -39.591, -32.3306
1.908, -1, 21.8274, -5.28729, 48.422, 42.8623, -39.5008, -32.3863
1.912, -1, 21.8854, -5.33497, 48.4295, 42.9477, -39.4107, -32.4419
1.916, -1, 21.9434, -5.38259, 48.437, 43.033, -39.3207, -32.4974
1.92, -1, 22.0014, -5.43016, 48.4444, 43.1181, -39.2308, -32.5529
1.924, -1, 22.0592, -5.47766, 48.4519, 43.2032, -39.141, -32.6083
1.928, -1, 22.117, -5.52511, 48.4593, 43.2881, -39.0514, -32.6637
1.932, -1, 22.1747, -5.5725, 48.4668, 43.373, -38.9618, -32.7189
1.936, -1, 22.2324, -5.61983, 48.4742, 43.4577, -38.8724, -32.7741
1.94, -1, 22.2899, -5.6671, 48.4816, 43.5424, -38.783, -32.8293
1.944, -1, 22.3475, -5.71431, 48.489, 43.6269, -38.6938, -32.8843
1.948, -1, 22.4049, -5.76147, 48.4965, 43.7113, -38.6047, -32.9393
1.952, -1, 22.4623, -5.80857, 48.5038, 43.7957, -38.5157, -32.9943
1.956, -1, 22.5196, -5.85562, 48.5112, 43.8799, -38.4268, -33.0491
1.96, -1, 22.5768, -5.9026, 48.5186, 43.9641, -38.338, -33.1039
1.964, -1, 22.6339, -5.94953, 48.526, 44.0481, -38.2493, -33.1587
1.968, -1, 22.691, -5.99641, 48.5333, 44.132, -38.1607, -33.2133
1.972, -1, 22.7481, -6.04323, 48.5407, 44.2158, -38.0723, -33.2679
1.976, -1, 22.805, -6.08999, 48.548, 44.2996, -37.9839, -33.3225
1.98, -1, 22.8619, -6.1367, 48.5554, 44.3832, -37.8956, -33.3769
1.984, -1, 22.9187, -6.18335, 48.5627, 44.4667, -37.8075, -33.4314
1.988, -1, 22.9755, -6.22995, 48.57, 44.5502, -37.7194, -33.4857
1.992, -1, 23.0322, -6.27649, 48.5773, 44.6335, -37.6315, -33.54
1.996, -1, 23.0888, -6.32298, 48.5846, 44.7167, -37.5436, -33.5942
1.999, -1, 23.1453, -6.36941, 48.5919, 44.7999, -37.4558, -33.6484
2.004, -1, 23.2018, -6.41579, 48.5992, 44.8829, -37.3682, -33.7024
2.008, -1, 23.2582, -6.46212, 48.6065, 44.9659, -37.2807, -33.7565
2.012, -1, 23.3146, -6.50839, 48.6137, 45.0487, -37.1932, -33.8104
2.015, -1, 23.3709, -6.55461, 48.621, 45.1315, -37.1059, -33.8643
2.019, -1, 23.4271, -6.60077, 48.6282, 45.2141, -37.0186, -33.9182
2.024, -1, 23.4833, -6.64688, 48.6355, 45.2967, -36.9315, -33.972
2.028, -1, 23.5394, -6.69295, 48.6427, 45.3792, -36.8444, -34.0257
2.031, -1, 23.5954, -6.73895, 48.6499, 45.4616, -36.7575, -34.0794
2.036, -1, 23.6514, -6.78491, 48.6571, 45.5438, -36.6707, -34.1329
2.04, -1, 23.7073, -6.83081, 48.6644, 45.626, -36.5839, -34.1865
2.044, -1, 23.7631, -6.87666, 48.6716, 45.7081, -36.4973, -34.24
2.048, -1, 23.8189, -6.92246, 48.6787, 45.7901, -36.4107, -34.2934
2.051, -1, 23.8746, -6.96821, 48.6859, 45.872, -36.3243, -34.3467
2.055, -1, 23.9303, -7.0139, 48.6931, 45.9539, -36.2379, -34.4
2.06, -1, 23.9859, -7.05955, 48.7003, 46.0356, -36.1516, -34.4533
2.064, -1, 24.0414, -7.10514, 48.7074, 46.1172, -36.0655, -34.5064
2.068, -1, 24.0969, -7.15069, 48.7146, 46.1988, -35.9794, -34.5596
2.071, -1, 24.1523, -7.19618, 48.7217, 46.2802, -35.8934, -34.6126
2.076, -1, 24.2076, -7.24163, 48.7289, 46.3616, -35.8076, -34.6656
2.08, -1, 24.2629, -7.28702, 48.736, 46.4429, -35.7218, -34.7186
2.084, -1, 24.3181, -7.33237, 48.7431, 46.5241, -35.6361, -34.7714
2.087, -1, 24.3733, -7.37766, 48.7502, 46.6052, -35.5505, -34.8243
2.092, -1, 24.4284, -7.4229, 48.7573, 46.6862, -35.465, -34.877
2.096, -1, 24.4834, -7.46805, 48.7644, 46.7671, -35.3796, -34.9298
2.1, -1, 24.5381, -7.51304, 48.7715, 46.8479, -35.2943, -34.9824
2.104, -1, 24.5925, -7.55778, 48.7785, 46.9286, -35.2091, -35.035
2.107, -1, 24.6463, -7.60215, 48.7855, 47.0092, -35.1241, -35.0874
2.111, -1, 24.6995, -7.646, 48.7924, 47.0894, -35.0394, -35.1397
2.116, -1, 24.7518, -7.6892, 48.7992, 47.1693, -34.9551, -35.1918
2.12, -1, 24.8033, -7.73159, 48.8058, 47.2487, -34.8714, -35.2435
2.124, -1, 24.8536, -7.77304, 48.8124, 47.3271, -34.7887, -35.2946
2.127, -1, 24.9027, -7.81341, 48.8187, 47.4045, -34.7071, -35.345
2.132, -1, 24.9505, -7.85258, 48.8249, 47.4803, -34.6271, -35.3944
2.136, -1, 24.9968, -7.89035, 48.8309, 47.5542, -34.5492, -35.4426
2.14, -1, 25.0412, -7.92654, 48.8366, 47.6257, -34.4738, -35.4892
2.143, -1, 25.0837, -7.96099, 48.8421, 47.6943, -34.4014, -35.5339
2.148, -1, 25.124, -7.99357, 48.8472, 47.7596, -34.3326, -35.5764
2.152, -1, 25.162, -8.02426, 48.8521, 47.8209, -34.2679, -35.6164
2.156, -1, 25.1976, -8.05307, 48.8566, 47.878, -34.2078, -35.6536
2.16, -1, 25.2309, -8.08004, 48.8609, 47.9303, -34.1526, -35.6877
2.163, -1, 25.2618, -8.10518, 48.8649, 47.9776, -34.1027, -35.7185
2.168, -1, 25.2902, -8.12851, 48.8685, 48.0198, -34.0582, -35.746
2.172, -1, 25.3162, -8.15, 48.8719, 48.0568, -34.0191, -35.7701
2.176, -1, 25.3397, -8.16958, 48.8749, 48.0887, -33.9854, -35.7909
2.179, -1, 25.3607, -8.18717, 48.8776, 48.1157, -33.9568, -35.8084
2.184, -1, 25.3793, -8.20276, 48.88, 48.1382, -33.9331, -35.8231
2.188, -1, 25.3955, -8.21643, 48.8821, 48.1565, -33.9137, -35.835
2.192, -1, 25.4095, -8.22829, 48.884, 48.1711, -33.8982, -35.8445
2.196, -1, 25.4217, -8.23847, 48.8855, 48.1825, -33.8861, -35.8518
2.199, -1, 25.4321, -8.24707, 48.8868, 48.1912, -33.8769, -35.8575
2.204, -1, 25.4408, -8.2542, 48.8879, 48.1976, -33.8701, -35.8616
2.208, -1, 25.4481, -8.25997, 48.8888, 48.2022, -33.8651, -35.8646
2.212, -1, 25.4538, -8.26449, 48.8894, 48.2055, -33.8616, -35.8667
2.216, 2, 25.4583, -8.26791, 48.8899, 48.2078, -33.8592, -35.8682
2.219, 2, 25.4616, -8.2704, 48.8903, 48.2093, -33.8575, -35.8692
2.224, 2, 25.464, -8.27214, 48.8906, 48.2104, -33.8563, -35.8699
2.228, 2, 25.4656, -8.27333, 48.8908, 48.2111, -33.8556, -35.8703
2.232, 2, 25.4667, -8.27414, 48.8909, 48.2116, -33.855, -35.8707
2.235, 2, 25.4674, -8.27469, 48.891, 48.2119, -33.8547, -35.8709
2.24, 2, 25.4679, -8.27506, 48.891, 48.2121, -33.8545, -35.871
2.244, 2, 25.4683, -8.27531, 48.8911, 48.2123, -33.8543, -35.8711
2.248, 2, 25.4685, -8.27548, 48.8911, 48.2124, -33.8542, -35.8712
2.252, 2, 25.4687, -8.2756, 48.8911, 48.2125, -33.8541, -35.8712
2.255, 2, 25.4688, -8.27567, 48.8911, 48.2125, -33.854, -35.8712
2.259, 2, 25.4688, -8.27573, 48.8911, 48.2125, -33.854, -35.8713
2.264, 2, 25.4689, -8.27576, 48.8911, 48.2126, -33.854, -35.8713
2.268, 2, 25.4689, -8.27579, 48.8911, 48.2126, -33.854, -35.8713
2.272, 2, 25.4689, -8.2758, 48.8911, 48.2126, -33.854, -35.8713
2.275, 2, 25.469, -8.27582, 48.8911, 48.2126, -33.854, -35.8713
2.28, 2, 25.469, -8.27582, 48.8911, 48.2126, -33.854, -35.8713
2.284, 2, 25.469, -8.27583, 48.8911, 48.2126, -33.854, -35.8713
2.288, 2, 25.469, -8.27583, 48.8911, 48.2126, -33.854, -35.8713
2.291, 2, 25.469, -8.27583, 48.8911, 48.2126, -33.8539, -35.8713
2.296, 2, 25.469, -8.27584, 48.8911, 48.2126, -33.8539, -35.8713
2.3, 2, 25.469, -8.27584, 48.8911, 48.2126, -33.8539, -35.8713
2.304, 2, 25.469, -8.27584, 48.8911, 48.2126, -33.8539, -35.8713
2.308, 2, 25.469, -8.27584, 48.8911, 48.2126, -33.8539, -35.8713
2.311, 2, 25.469, -8.27584, 48.8911, 48.2126, -33.8539, -35.8713
2.316, 2, 25.469, -8.27584, 48.8911, 48.2126, -33.8539, -35.8713
2.32, 2, 25.469, -8.27584, 48.8911, 48.2126, -33.8539, -35.8713
2.324, 2, 25.469, -8.27584, 48.8911, 48.2126, -33.8539, -35.8713
2.328, 2, 25.469, -8.27584, 48.8911, 48.2126, -33.8539, -35.8713
2.331, 2, 25.469, -8.27584, 48.8911, 48.2126, -33.8539, -35.8713
2.336, 2, 25.469, -8.27584, 48.8911, 48.2126, -33.8539, -35.8713
2.34, 2, 25.469, -8.27584, 48.8911, 48.2126, -33.8539, -35.8713
2.344, 2, 25.469, -8.27584, 48.8911, 48.2126, -33.8539, -35.8713
2.347, 2, 25.469, -8.27584, 48.8911, 48.2126, -33.8539, -35.8713
2.352, 2, 25.469, -8.27584, 48.8911, 48.2126, -33.8539, -35.8713
2.356, 2, 25.469, -8.27584, 48.8911, 48.2126, -33.8539, -35.8713
2.36, 2, 25.469, -8.27584, 48.8911, 48.2126, -33.8539, -35.8713
2.364, 2, 25.469, -8.27584, 48.8911, 48.2126, -33.8539, -35.8713
2.367, 2, 25.469, -8.27584, 48.8911, 48.2126, -33.8539, -35.8713
2.372, 2, 25.469, -8.27584, 48.8911, 48.2126, -33.8539, -35.8713
2.376, 2, 25.469, -8.27584, 48.8911, 48.2126, -33.8539, -35.8713
2.38, 2, 25.469, -8.27584, 48.8911, 48.2126, -33.8539, -35.8713
2.383, 2, 25.469, -8.27584, 48.8911, 48.2126, -33.8539, -35.8713
2.388, 2, 25.469, -8.27584, 48.8911, 48.2126, -33.8539, -35.8713
2.392, 2, 25.469, -8.27584, 48.8911, 48.2126, -33.8539, -35.8713
2.396, 2, 25.469, -8.27584, 48.8911, 48.2126, -33.8539, -35.8713
2.4, 2, 25.469, -8.27584, 48.8911, 48.2126, -33.8539, -35.8713
2.403, 2, 25.469, -8.27584, 48.8911, 48.2126, -33.8539, -35.8713
2.408, 2, 25.469, -8.27584, 48.8911, 48.2126, -33.8539, -35.8713
2.412, 2, 25.469, -8.27584, 48.8911, 48.2126, -33.8539, -35.8713
2.416, 2, 25.469, -8.27584, 48.8911, 48.2126, -33.8539, -35.8713
2.42, 2, 25.469, -8.27584, 48.8911, 48.2126, -33.8539, -35.8713
2.423, 2, 25.469, -8.27584, 48.8911, 48.2126, -33.8539, -35.8713
2.428, 2, 25.469, -8.27584, 48.8911, 48.2126, -33.8539, -35.8713
2.432, 2, 25.469, -8.27584, 48.8911, 48.2126, -33.8539, -35.8713
2.436, 2, 25.469, -8.27584, 48.8911, 48.2126, -33.8539, -35.8713
2.439, 2, 25.469, -8.27584, 48.8911, 48.2126, -33.8539, -35.8713
2.444, 2, 25.469, -8.27584, 48.8911, 48.2126, -33.8539, -35.8713
2.448, 2, 25.469, -8.27584, 48.8911, 48.2126, -33.8539, -35.8713
2.452, 2, 25.469, -8.27584, 48.8911, 48.2126, -33.8539, -35.8713
2.456, 2, 25.469, -8.27584, 48.8911, 48.2126, -33.8539, -35.8713
2.459, 2, 25.469, -8.27584, 48.8911, 48.2126, -33.8539, -35.8713
2.464, 2, 25.469, -8.27584, 48.8911, 48.2126, -33.8539, -35.8713
2.468, 2, 25.469, -8.27584, 48.8911, 48.2126, -33.8539, -35.8713
2.472, 2, 25.469, -8.27584, 48.8911, 48.2126, -33.8539, -35.8713
2.476, 2, 25.469, -8.27584, 48.8911, 48.2126, -33.8539, -35.8713
2.479, 2, 25.469, -8.27584, 48.8911, 48.2126, -33.8539, -35.8713
2.484, 2, 25.469, -8.27584, 48.8911, 48.2126, -33.8539, -35.8713
2.488, 2, 25.469, -8.27584, 48.8911, 48.2126, -33.8539, -35.8713
2.492, 2, 25.469, -8.27584, 48.8911, 48.2126, -33.8539, -35.8713
2.495, 2, 25.469, -8.27584, 48.8911, 48.2126, -33.8539, -35.8713
2.5, 2, 25.469, -8.27584, 48.8911, 48.2126, -33.8539, -35.8713
2.504, 2, 25.469, -8.27584, 48.8911, 48.2126, -33.8539, -35.8713
2.508, 2, 25.469, -8.27584, 48.8911, 48.2126, -33.8539, -35.8713
2.512, 2, 25.469, -8.27584, 48.8911, 48.2126, -33.8539, -35.8713
2.515, 2, 25.469, -8.27584, 48.8911, 48.2126, -33.8539, -35.8713
2.52, 2, 25.469, -8.27584, 48.8911, 48.2126, -33.8539, -35.8713
2.524, 2, 25.469, -8.27584, 48.8911, 48.2126, -33.8539, -35.8713
2.528, 2, 25.469, -8.27584, 48.8911, 48.2126, -33.8539, -35.8713
2.531, 2, 25.469, -8.27584, 48.8911, 48.2126, -33.8539, -35.8713
2.536, 2, 25.469, -8.27584, 48.8911, 48.2126, -33.8539, -35.8713
2.54, 2, 25.469, -8.27584, 48.8911, 48.2126, -33.8539, -35.8713
2.544, 2, 25.469, -8.27584, 48.8911, 48.2126, -33.8539, -35.8713
2.548, 2, 25.469, -8.27584, 48.8911, 48.2126, -33.8539, -35.8713
2.551, 2, 25.469, -8.27584, 48.8911, 48.2126, -33.8539, -35.8713
2.556, 2, 25.469, -8.27584, 48.8911, 48.2126, -33.8539, -35.8713
2.56, 2, 25.469, -8.27584, 48.8911, 48.2126, -33.8539, -35.8713
2.564, 2, 25.469, -8.27584, 48.8911, 48.2126, -33.8539, -35.8713
2.568, 2, 25.469, -8.27584, 48.8911, 48.2126, -33.8539, -35.8713
2.571, 2, 25.469, -8.27584, 48.8911, 48.2126, -33.8539, -35.8713
2.576, 2, 25.469, -8.27584, 48.8911, 48.2126, -33.8539, -35.8713
2.58, 2, 25.469, -8.27584, 48.8911, 48.2126, -33.8539, -35.8713
2.584, 2, 25.469, -8.27584, 48.8911, 48.2126, -33.8539, -35.8713
2.587, 2, 25.469, -8.27584, 48.8911, 48.2126, -33.8539, -35.8713
2.592, 2, 25.469, -8.27584, 48.8911, 48.2126, -33.8539, -35.8713
2.596, 2, 25.469, -8.27584, 48.8911, 48.2126, -33.8539, -35.8713
2.6, 2, 25.469, -8.27584, 48.8911, 48.2126, -33.8539, -35.8713
2.604, 2, 25.469, -8.27584, 48.8911, 48.2126, -33.8539, -35.8713
2.607, 2, 25.469, -8.27584, 48.8911, 48.2126, -33.8539, -35.8713
2.612, 2, 25.469, -8.27584, 48.8911, 48.2126, -33.8539, -35.8713
2.616, 2, 25.469, -8.27584, 48.8911, 48.2126, -33.8539, -35.8713
2.62, 2, 25.469, -8.27584, 48.8911, 48.2126, -33.8539, -35.8713
2.624, 2, 25.469, -8.27584, 48.8911, 48.2126, -33.8539, -35.8713
2.627, 2, 25.469, -8.27584, 48.8911, 48.2126, -33.8539, -35.8713
2.632, 2, 25.469, -8.27584, 48.8911, 48.2126, -33.8539, -35.8713
2.636, 2, 25.469, -8.27584, 48.8911, 48.2126, -33.8539, -35.8713
2.64, 2, 25.469, -8.27584, 48.8911, 48.2126, -33.8539, -35.8713
2.643, 2, 25.469, -8.27584, 48.8911, 48.2126, -33.8539, -35.8713
2.648, 2, 25.469, -8.27584, 48.8911, 48.2126, -33.8539, -35.8713
2.652, 2, 25.469, -8.27584, 48.8911, 48.2126, -33.8539, -35.8713
2.656, 2, 25.469, -8.27584, 48.8911, 48.2126, -33.8539, -35.8713
2.66, 2, 25.469, -8.27584, 48.8911, 48.2126, -33.8539, -35.8713
2.663, 2, 25.469, -8.27584, 48.8911, 48.2126, -33.8539, -35.8713
2.668, 2, 25.469, -8.27584, 48.8911, 48.2126, -33.8539, -35.8713
2.672, 2, 25.469, -8.27584, 48.8911, 48.2126, -33.8539, -35.8713
2.676, 2, 25.469, -8.27584, 48.8911, 48.2126, -33.8539, -35.8713
2.679, 2, 25.469, -8.27584, 48.8911, 48.2126, -33.8539, -35.8713
2.684, 2, 25.469, -8.27584, 48.8911, 48.2126, -33.8539, -35.8713
2.688, 2, 25.469, -8.27584, 48.8911, 48.2126, -33.8539, -35.8713
2.692, 2, 25.469, -8.27584, 48.8911, 48.2126, -33.8539, -35.8713
2.696, 2, 25.469, -8.27584, 48.8911, 48.2126, -33.8539, -35.8713
2.699, 2, 25.469, -8.27584, 48.8911, 48.2126, -33.8539, -35.8713
2.704, 2, 25.469, -8.27584, 48.8911, 48.2126, -33.8539, -35.8713
2.708, 2, 25.469, -8.27584, 48.8911, 48.2126, -33.8539, -35.8713
2.712, 2, 25.469, -8.27584, 48.8911, 48.2126, -33.8539, -35.8713
2.716, 2, 25.469, -8.27584, 48.8911, 48.2126, -33.8539, -35.8713
2.719, 2, 25.469, -8.27584, 48.8911, 48.2126, -33.8539, -35.8713
2.724, 2, 25.469, -8.27584, 48.8911, 48.2126, -33.8539, -35.8713
2.728, 2, 25.469, -8.27584, 48.8911, 48.2126, -33.8539, -35.8713
2.732, 2, 25.469, -8.27584, 48.8911, 48.2126, -33.8539, -35.8713
2.735, 2, 25.469, -8.27584, 48.8911, 48.2126, -33.8539, -35.8713
2.74, 2, 25.469, -8.27584, 48.8911, 48.2126, -33.8539, -35.8713
2.744, 2, 25.469, -8.27584, 48.8911, 48.2126, -33.8539, -35.8713
2.748, 2, 25.469, -8.27584, 48.8911, 48.2126, -33.8539, -35.8713
2.752, 2, 25.469, -8.27584, 48.8911, 48.2126, -33.8539, -35.8713
2.755, 2, 25.469, -8.27584, 48.8911, 48.2126, -33.8539, -35.8713
2.76, 2, 25.469, -8.27584, 48.8911, 48.2126, -33.8539, -35.8713
2.764, 2, 25.469, -8.27584, 48.8911, 48.2126, -33.8539, -35.8713
2.768, 2, 25.469, -8.27584, 48.8911, 48.2126, -33.8539, -35.8713
2.772, 2, 25.469, -8.27584, 48.8911, 48.2126, -33.8539, -35.8713
2.775, 2, 25.469, -8.27584, 48.8911, 48.2126, -33.8539, -35.8713
2.78, 2, 25.469, -8.27584, 48.8911, 48.2126, -33.8539, -35.8713
2.784, 2, 25.469, -8.27584, 48.8911, 48.2126, -33.8539, -35.8713
2.788, 2, 25.469, -8.27584, 48.8911, 48.2126, -33.8539, -35.8713
2.791, 2, 25.469, -8.27584, 48.8911, 48.2126, -33.8539, -35.8713
2.796, 2, 25.469, -8.27584, 48.8911, 48.2126, -33.8539, -35.8713
2.8, 2, 25.469, -8.27584, 48.8911, 48.2126, -33.8539, -35.8713
2.804, 2, 25.469, -8.27584, 48.8911, 48.2126, -33.8539, -35.8713
2.808, 2, 25.469, -8.27584, 48.8911, 48.2126, -33.8539, -35.8713
2.811, 2, 25.469, -8.27584, 48.8911, 48.2126, -33.8539, -35.8713
2.816, 2, 25.469, -8.27584, 48.8911, 48.2126, -33.8539, -35.8713
2.82, 2, 25.469, -8.27584, 48.8911, 48.2126, -33.8539, -35.8713
2.824, 2, 25.469, -8.27584, 48.8911, 48.2126, -33.8539, -35.8713
2.828, 2, 25.469, -8.27584, 48.8911, 48.2126, -33.8539, -35.8713
2.831, 2, 25.469, -8.27584, 48.8911, 48.2126, -33.8539, -35.8713
2.836, 2, 25.469, -8.27584, 48.8911, 48.2126, -33.8539, -35.8713
2.84, 2, 25.469, -8.27584, 48.8911, 48.2126, -33.8539, -35.8713
2.844, 2, 25.469, -8.27584, 48.8911, 48.2126, -33.8539, -35.8713
2.847, 2, 25.469, -8.27584, 48.8911, 48.2126, -33.8539, -35.8713
2.852, 2, 25.469, -8.27584, 48.8911, 48.2126, -33.8539, -35.8713
2.856, 2, 25.469, -8.27584, 48.8911, 48.2126, -33.8539, -35.8713
2.86, 2, 25.469, -8.27584, 48.8911, 48.2126, -33.8539, -35.8713
2.864, 2, 25.469, -8.27584, 48.8911, 48.2126, -33.8539, -35.8713
2.867, 2, 25.469, -8.27584, 48.8911, 48.2126, -33.8539, -35.8713
2.872, 2, 25.469, -8.27584, 48.8911, 48.2126, -33.8539, -35.8713
2.876, 2, 25.469, -8.27584, 48.8911, 48.2126, -33.8539, -35.8713
2.88, 2, 25.469, -8.27584, 48.8911, 48.2126, -33.8539, -35.8713
2.883, 2, 25.469, -8.27584, 48.8911, 48.2126, -33.8539, -35.8713
2.888, 2, 25.469, -8.27584, 48.8911, 48.2126, -33.8539, -35.8713
2.892, 2, 25.469, -8.27584, 48.8911, 48.2126, -33.8539, -35.8713
2.896, 2, 25.469, -8.27584, 48.8911, 48.2126, -33.8539, -35.8713
2.9, 2, 25.469, -8.27584, 48.8911, 48.2126, -33.8539, -35.8713
2.903, 2, 25.469, -8.27584, 48.8911, 48.2126, -33.8539, -35.8713
2.908, 2, 25.469, -8.27584, 48.8911, 48.2126, -33.8539, -35.8713
2.912, 2, 25.469, -8.27584, 48.8911, 48.2126, -33.8539, -35.8713
2.916, 2, 25.469, -8.27584, 48.8911, 48.2126, -33.8539, -35.8713
2.92, 2, 25.469, -8.27584, 48.8911, 48.2126, -33.8539, -35.8713
2.923, 2, 25.469, -8.27584, 48.8911, 48.2126, -33.8539, -35.8713
2.928, 2, 25.469, -8.27584, 48.8911, 48.2126, -33.8539, -35.8713
2.932, 2, 25.469, -8.27584, 48.8911, 48.2126, -33.8539, -35.8713
2.936, 2, 25.469, -8.27584, 48.8911, 48.2126, -33.8539, -35.8713
2.939, 2, 25.469, -8.27584, 48.8911, 48.2126, -33.8539, -35.8713
2.944, 2, 25.469, -8.27584, 48.8911, 48.2126, -33.8539, -35.8713
2.948, 2, 25.469, -8.27584, 48.8911, 48.2126, -33.8539, -35.8713
2.952, 2, 25.469, -8.27584, 48.8911, 48.2126, -33.8539, -35.8713
2.956, 2, 25.469, -8.27584, 48.8911, 48.2126, -33.8539, -35.8713
2.959, 2, 25.469, -8.27584, 48.8911, 48.2126, -33.8539, -35.8713
2.964, 2, 25.469, -8.27584, 48.8911, 48.2126, -33.8539, -35.8713
2.968, 2, 25.469, -8.27584, 48.8911, 48.2126, -33.8539, -35.8713
2.972, 2, 25.469, -8.27584, 48.8911, 48.2126, -33.8539, -35.8713
2.976, 2, 25.469, -8.27584, 48.8911, 48.2126, -33.8539, -35.8713
2.98, 2, 25.469, -8.27584, 48.8911, 48.2126, -33.8539, -35.8713
2.984, 2, 25.469, -8.27584, 48.8911, 48.2126, -33.8539, -35.8713
2.988, 2, 25.469, -8.27584, 48.8911, 48.2126, -33.8539, -35.8713
2.992, 2, 25.469, -8.27584, 48.8911, 48.2126, -33.8539, -35.8713
2.995, 2, 25.469, -8.27584, 48.8911, 48.2126, -33.8539, -35.8713
3, 2, 25.469, -8.27584, 48.8911, 48.2126, -33.8539, -35.8713
3.004, 2, 25.469, -8.27584, 48.8911, 48.2126, -33.8539, -35.8713
3.008, 2, 25.469, -8.27584, 48.8911, 48.2126, -33.8539, -35.8713
3.012, 2, 25.469, -8.27584, 48.8911, 48.2126, -33.8539, -35.8713
3.015, 2, 25.469, -8.27584, 48.8911, 48.2126, -33.8539, -35.8713
3.02, 2, 25.469, -8.27584, 48.8911, 48.2126, -33.8539, -35.8713
3.024, 2, 25.469, -8.27584, 48.8911, 48.2126, -33.8539, -35.8713
3.028, 2, 25.469, -8.27584, 48.8911, 48.2126, -33.8539, -35.8713
3.031, 2, 25.469, -8.27584, 48.8911, 48.2126, -33.8539, -35.8713
3.036, 2, 25.469, -8.27584, 48.8911, 48.2126, -33.8539, -35.8713
3.04, 2, 25.469, -8.27584, 48.8911, 48.2126, -33.8539, -35.8713
3.044, 2, 25.469, -8.27584, 48.8911, 48.2126, -33.8539, -35.8713
3.048, 2, 25.469, -8.27584, 48.8911, 48.2126, -33.8539, -35.8713
3.051, 2, 25.469, -8.27584, 48.8911, 48.2126, -33.8539, -35.8713
3.056, 2, 25.469, -8.27584, 48.8911, 48.2126, -33.8539, -35.8713
3.06, 2, 25.469, -8.27584, 48.8911, 48.2126, -33.8539, -35.8713
3.064, 2, 25.469, -8.27584, 48.8911, 48.2126, -33.8539, -35.8713
3.068, 2, 25.469, -8.27584, 48.8911, 48.2126, -33.8539, -35.8713
3.071, 2, 25.469, -8.27584, 48.8911, 48.2126, -33.8539, -35.8713
3.076, 2, 25.469, -8.27584, 48.8911, 48.2126, -33.8539, -35.8713
3.08, 2, 25.469, -8.27584, 48.8911, 48.2126, -33.8539, -35.8713
3.084, 2, 25.469, -8.27584, 48.8911, 48.2126, -33.8539, -35.8713
3.087, 2, 25.469, -8.27584, 48.8911, 48.2126, -33.8539, -35.8713
3.092, 2, 25.469, -8.27584, 48.8911, 48.2126, -33.8539, -35.8713
3.096, 2, 25.469, -8.27584, 48.8911, 48.2126, -33.8539, -35.8713
3.1, 2, 25.469, -8.27584, 48.8911, 48.2126, -33.8539, -35.8713
3.104, 2, 25.469, -8.27584, 48.8911, 48.2126, -33.8539, -35.8713
3.107, 2, 25.469, -8.27584, 48.8911, 48.2126, -33.8539, -35.8713
3.112, 2, 25.469, -8.27584, 48.8911, 48.2126, -33.8539, -35.8713
3.116, 2, 25.469, -8.27584, 48.8911, 48.2126, -33.8539, -35.8713
3.12, 2, 25.469, -8.27584, 48.8911, 48.2126, -33.8539, -35.8713
3.124, 2, 25.469, -8.27584, 48.8911, 48.2126, -33.8539, -35.8713
3.128, 2, 25.469, -8.27584, 48.8911, 48.2126, -33.8539, -35.8713
3.132, 2, 25.469, -8.27584, 48.8911, 48.2126, -33.8539, -35.8713
3.136, 2, 25.469, -8.27584, 48.8911, 48.2126, -33.8539, -35.8713
3.14, 2, 25.469, -8.27584, 48.8911, 48.2126, -33.8539, -35.8713
3.143, 2, 25.469, -8.27584, 48.8911, 48.2126, -33.8539, -35.8713
3.148, 2, 25.469, -8.27584, 48.8911, 48.2126, -33.8539, -35.8713
3.152, 2, 25.469, -8.27584, 48.8911, 48.2126, -33.8539, -35.8713
3.156, 2, 25.469, -8.27584, 48.8911, 48.2126, -33.8539, -35.8713
3.16, 2, 25.469, -8.27584, 48.8911, 48.2126, -33.8539, -35.8713
3.163, 2, 25.469, -8.27584, 48.8911, 48.2126, -33.8539, -35.8713
3.168, 2, 25.469, -8.27584, 48.8911, 48.2126, -33.8539, -35.8713
3.172, 2, 25.469, -8.27584, 48.8911, 48.2126, -33.8539, -35.8713
3.176, 2, 25.469, -8.27584, 48.8911, 48.2126, -33.8539, -35.8713
3.179, 2, 25.469, -8.27584, 48.8911, 48.2126, -33.8539, -35.8713
3.184, 2, 25.469, -8.27584, 48.8911, 48.2126, -33.8539, -35.8713
3.188, 2, 25.469, -8.27584, 48.8911, 48.2126, -33.8539, -35.8713
3.192, 2, 25.469, -8.27584, 48.8911, 48.2126, -33.8539, -35.8713
3.196, 2, 25.469, -8.27584, 48.8911, 48.2126, -33.8539, -35.8713
3.199, 2, 25.469, -8.27584, 48.8911, 48.2126, -33.8539, -35.8713
3.204, 2, 25.469, -8.27584, 48.8911, 48.2126, -33.8539, -35.8713
3.208, 2, 25.469, -8.27584, 48.8911, 48.2126, -33.8539, -35.8713
3.212, 2, 25.469, -8.27584, 48.8911, 48.2126, -33.8539, -35.8713
3.216, 2, 25.469, -8.27584, 48.8911, 48.2126, -33.8539, -35.8713
3.22, 2, 25.469, -8.27584, 48.8911, 48.2126, -33.8539, -35.8713
3.224, 2, 25.469, -8.27584, 48.8911, 48.2126, -33.8539, -35.8713
3.228, 2, 25.469, -8.27584, 48.8911, 48.2126, -33.8539, -35.8713
3.232, 2, 25.469, -8.27584, 48.8911, 48.2126, -33.8539, -35.8713
3.235, 2, 25.469, -8.27584, 48.8911, 48.2126, -33.8539, -35.8713
3.24, 2, 25.469, -8.27584, 48.8911, 48.2126, -33.8539, -35.8713
3.244, 2, 25.469, -8.27584, 48.8911, 48.2126, -33.8539, -35.8713
3.248, 2, 25.469, -8.27584, 48.8911, 48.2126, -33.8539, -35.8713
3.252, 2, 25.469, -8.27584, 48.8911, 48.2126, -33.8539, -35.8713
3.255, 2, 25.469, -8.27584, 48.8911, 48.2126, -33.8539, -35.8713
3.26, 2, 25.469, -8.27584, 48.8911, 48.2126, -33.8539, -35.8713
3.264, 2, 25.469, -8.27584, 48.8911, 48.2126, -33.8539, -35.8713
3.268, 2, 25.469, -8.27584, 48.8911, 48.2126, -33.8539, -35.8713
3.272, 2, 25.469, -8.27584, 48.8911, 48.2126, -33.8539, -35.8713
3.276, 2, 25.469, -8.27584, 48.8911, 48.2126, -33.8539, -35.8713
3.28, 2, 25.469, -8.27584, 48.8911, 48.2126, -33.8539, -35.8713
3.284, 2, 25.469, -8.27584, 48.8911, 48.2126, -33.8539, -35.8713
3.288, 2, 25.469, -8.27584, 48.8911, 48.2126, -33.8539, -35.8713
3.291, 4, 25.469, -8.27584, 48.8911, 48.2126, -33.8539, -35.8713
3.296, 4, 25.469, -8.27584, 48.8911, 48.2126, -33.8539, -35.8713
3.3, 4, 25.469, -8.27584, 48.8911, 48.2126, -33.8539, -35.8713
3.304, 4, 25.469, -8.27584, 48.8911, 48.2126, -33.8539, -35.8713
3.308, 4, 25.469, -8.27584, 48.8911, 48.2126, -33.8539, -35.8713
3.312, 4, 25.469, -8.27584, 48.8911, 48.2126, -33.8539, -35.8713
3.316, 4, 25.469, -8.27584, 48.8911, 48.2126, -33.8539, -35.8713
3.32, 4, 25.469, -8.27584, 48.8911, 48.2126, -33.8539, -35.8713
3.324, 4, 25.469, -8.27584, 48.8911, 48.2126, -33.8539, -35.8713
3.328, 4, 25.469, -8.27584, 48.8911, 48.2126, -33.8539, -35.8713
3.332, 4, 25.469, -8.27584, 48.8911, 48.2126, -33.8539, -35.8713
3.336, 4, 25.469, -8.27584, 48.8911, 48.2126, -33.8539, -35.8713
3.34, 4, 25.469, -8.27584, 48.8911, 48.2126, -33.8539, -35.8713
3.344, 4, 25.469, -8.27584, 48.8911, 48.2126, -33.8539, -35.8713
3.347, 4, 25.469, -8.27584, 48.8911, 48.2126, -33.8539, -35.8713
3.352, 4, 25.469, -8.27584, 48.8911, 48.2126, -33.8539, -35.8713
3.356, 4, 25.469, -8.27584, 48.8911, 48.2126, -33.8539, -35.8713
3.36, 4, 25.469, -8.27584, 48.8911, 48.2126, -33.8539, -35.8713
3.364, 4, 25.469, -8.27584, 48.8911, 48.2126, -33.8539, -35.8713
3.368, 4, 25.469, -8.27584, 48.8911, 48.2126, -33.8539, -35.8713
3.372, 4, 25.469, -8.27584, 48.8911, 48.2126, -33.8539, -35.8713
3.376, 4, 25.469, -8.27584, 48.8911, 48.2126, -33.8539, -35.8713
3.38, 4, 25.469, -8.27584, 48.8911, 48.2126, -33.8539, -35.8713
3.383, 4, 25.469, -8.27584, 48.8911, 48.2126, -33.8539, -35.8713
3.388, 4, 25.469, -8.27584, 48.8911, 48.2126, -33.8539, -35.8713
3.392, 4, 25.469, -8.27584, 48.8911, 48.2126, -33.8539, -35.8713
3.396, 4, 25.469, -8.27584, 48.8911, 48.2126, -33.8539, -35.8713
3.4, 4, 25.469, -8.27584, 48.8911, 48.2126, -33.8539, -35.8713
3.403, 4, 25.469, -8.27584, 48.8911, 48.2126, -33.8539, -35.8713
3.408, 4, 25.469, -8.27584, 48.8911, 48.2126, -33.8539, -35.8713
3.412, 4, 25.469, -8.27584, 48.8911, 48.2126, -33.8539, -35.8713
3.416, 4, 25.469, -8.27584, 48.8911, 48.2126, -33.8539, -35.8713
3.42, 4, 25.469, -8.27584, 48.8911, 48.2126, -33.8539, -35.8713
3.424, 4, 25.4689, -8.27586, 48.8911, 48.2126, -33.8539, -35.8713
3.428, 4, 25.4687, -8.27591, 48.8912, 48.2126, -33.854, -35.8713
3.432, 4, 25.4681, -8.27607, 48.8913, 48.2125, -33.854, -35.8712
3.436, 4, 25.467, -8.27639, 48.8916, 48.2121, -33.8541, -35.8709
3.439, 4, 25.4651, -8.27697, 48.8922, 48.2113, -33.8543, -35.8703
3.444, 4, 25.4624, -8.27787, 48.8932, 48.2096, -33.8547, -35.8689
3.448, 4, 25.4587, -8.27921, 48.8949, 48.2065, -33.8555, -35.8663
3.452, 4, 25.4539, -8.28103, 48.8975, 48.2011, -33.8568, -35.8618
3.456, 4, 25.4478, -8.28343, 48.9012, 48.1925, -33.8589, -35.8546
3.46, 4, 25.4405, -8.28646, 48.9064, 48.1796, -33.862, -35.8439
3.464, 4, 25.4316, -8.2902, 48.9134, 48.1613, -33.8664, -35.8288
3.468, 5, 25.421, -8.29476, 48.9225, 48.1365, -33.8724, -35.8081
3.472, 5, 25.4083, -8.30024, 48.9341, 48.1042, -33.8801, -35.7811
3.476, 5, 25.3934, -8.3067, 48.9485, 48.0632, -33.8899, -35.747
3.48, 5, 25.3762, -8.3142, 48.9659, 48.0127, -33.902, -35.7049
3.484, 5, 25.3565, -8.32277, 48.9864, 47.9521, -33.9166, -35.6543
3.488, 5, 25.3342, -8.33241, 49.0104, 47.8808, -33.9337, -35.5949
3.492, 5, 25.3094, -8.34311, 49.0376, 47.7987, -33.9534, -35.5264
3.495, 5, 25.2821, -8.35484, 49.0682, 47.706, -33.9758, -35.4491
3.5, 5, 25.2524, -8.36758, 49.102, 47.603, -34.0007, -35.3632
3.504, 5, 25.2202, -8.38133, 49.1388, 47.4905, -34.028, -35.2694
3.508, 5, 25.1857, -8.39605, 49.1783, 47.3693, -34.0575, -35.1684
3.512, 5, 25.149, -8.41169, 49.2204, 47.2405, -34.089, -35.061
3.516, 5, 25.1103, -8.42817, 49.2647, 47.1051, -34.1222, -34.9482
3.52, 5, 25.0697, -8.44539, 49.3108, 46.9641, -34.157, -34.8307
3.524, 5, 25.0276, -8.46324, 49.3585, 46.8187, -34.1931, -34.7096
3.528, 5, 24.9841, -8.48162, 49.4075, 46.6696, -34.2303, -34.5855
3.531, 5, 24.9394, -8.50043, 49.4574, 46.5178, -34.2683, -34.4591
3.536, 5, 24.8937, -8.51959, 49.5082, 46.3638, -34.3071, -34.331
3.54, 5, 24.847, -8.53899, 49.5595, 46.2084, -34.3466, -34.2018
3.544, 5, 24.7995, -8.55859, 49.6112, 46.052, -34.3865, -34.0717
3.548, 5, 24.7513, -8.5783, 49.6632, 45.895, -34.4268, -33.9411
3.552, 5, 24.7025, -8.59808, 49.7154, 45.7375, -34.4674, -33.8103
3.556, 5, 24.6533, -8.61786, 49.7677, 45.5799, -34.5084, -33.6794
3.56, 5, 24.6038, -8.6376, 49.82, 45.4222, -34.5496, -33.5484
3.564, 5, 24.5541, -8.65729, 49.8723, 45.2645, -34.591, -33.4175
3.568, 5, 24.5042, -8.67691, 49.9247, 45.1068, -34.6327, -33.2867
3.572, 5, 24.4541, -8.69644, 49.9769, 44.9493, -34.6746, -33.156
3.576, 5, 24.4039, -8.71587, 50.0291, 44.7919, -34.7168, -33.0255
3.58, 5, 24.3536, -8.7352, 50.0813, 44.6347, -34.7591, -32.8951
3.584, 5, 24.3032, -8.75443, 50.1334, 44.4776, -34.8017, -32.7649
3.587, 5, 24.2527, -8.77355, 50.1854, 44.3208, -34.8444, -32.635
3.592, 5, 24.2021, -8.79255, 50.2373, 44.1641, -34.8874, -32.5052
3.596, 5, 24.1514, -8.81145, 50.2892, 44.0076, -34.9306, -32.3756
3.6, 5, 24.1007, -8.83023, 50.341, 43.8513, -34.974, -32.2463
3.604, 5, 24.0499, -8.8489, 50.3927, 43.6951, -35.0176, -32.1171
3.608, 5, 23.999, -8.86745, 50.4444, 43.5392, -35.0614, -31.9881
3.612, 5, 23.948, -8.88589, 50.4959, 43.3835, -35.1054, -31.8594
3.616, 5, 23.897, -8.90421, 50.5474, 43.2279, -35.1496, -31.7309
3.62, 5, 23.8459, -8.92242, 50.5988, 43.0726, -35.194, -31.6025
3.624, 5, 23.7947, -8.94051, 50.6501, 42.9175, -35.2386, -31.4744
3.628, 5, 23.7434, -8.95848, 50.7014, 42.7626, -35.2834, -31.3465
3.632, 5, 23.6921, -8.97634, 50.7525, 42.6078, -35.3284, -31.2188
3.636, 5, 23.6407, -8.99408, 50.8036, 42.4533, -35.3736, -31.0913
3.64, 5, 23.5892, -9.0117, 50.8546, 42.299, -35.419, -30.9641
3.644, 5, 23.5376, -9.0292, 50.9056, 42.1449, -35.4647, -30.837
3.648, 5, 23.486, -9.04658, 50.9564, 41.991, -35.5105, -30.7102
3.652, 5, 23.4343, -9.06384, 51.0072, 41.8373, -35.5565, -30.5836
3.656, 5, 23.3825, -9.08098, 51.0579, 41.6838, -35.6028, -30.4572
3.66, 5, 23.3306, -9.098, 51.1085, 41.5305, -35.6492, -30.331
3.664, 5, 23.2787, -9.1149, 51.159, 41.3774, -35.6959, -30.2051
3.668, 5, 23.2267, -9.13168, 51.2094, 41.2245, -35.7428, -30.0793
3.672, 5, 23.1746, -9.14834, 51.2598, 41.0718, -35.7898, -29.9538
3.676, 5, 23.1224, -9.16487, 51.3101, 40.9194, -35.8371, -29.8285
3.679, 5, 23.0702, -9.18128, 51.3603, 40.7671, -35.8846, -29.7034
3.684, 5, 23.0179, -9.19757, 51.4104, 40.6151, -35.9322, -29.5786
3.688, 5, 22.9655, -9.21374, 51.4604, 40.4633, -35.9801, -29.4539
3.692, 5, 22.9131, -9.22979, 51.5104, 40.3116, -36.0282, -29.3295
3.696, 5, 22.8606, -9.24571, 51.5602, 40.1602, -36.0765, -29.2053
3.7, 5, 22.808, -9.2615, 51.61, 40.009, -36.125, -29.0813
3.704, 5, 22.7553, -9.27718, 51.6597, 39.8581, -36.1737, -28.9576
3.708, 5, 22.7025, -9.29272, 51.7094, 39.7073, -36.2226, -28.8341
3.712, 5, 22.6497, -9.30815, 51.7589, 39.5567, -36.2717, -28.7108
3.716, 5, 22.5968, -9.32345, 51.8084, 39.4064, -36.321, -28.5877
3.72, 5, 22.5439, -9.33862, 51.8577, 39.2563, -36.3705, -28.4649
3.724, 5, 22.4908, -9.35366, 51.907, 39.1063, -36.4202, -28.3422
3.728, 5, 22.4377, -9.36859, 51.9562, 38.9566, -36.4702, -28.2199
3.732, 5, 22.3845, -9.38338, 52.0054, 38.8072, -36.5203, -28.0977
3.735, 5, 22.3313, -9.39805, 52.0544, 38.6579, -36.5706, -27.9758
3.74, 5, 22.278, -9.41259, 52.1034, 38.5089, -36.6212, -27.854
3.744, 5, 22.2245, -9.427, 52.1522, 38.36, -36.6719, -27.7326
3.748, 5, 22.1711, -9.44129, 52.201, 38.2114, -36.7228, -27.6113
3.752, 5, 22.1175, -9.45545, 52.2497, 38.063, -36.774, -27.4903
3.756, 5, 22.0639, -9.46948, 52.2984, 37.9148, -36.8253, -27.3695
3.76, 5, 22.0102, -9.48338, 52.3469, 37.7669, -36.8769, -27.2489
3.764, 5, 21.9564, -9.49715, 52.3954, 37.6191, -36.9287, -27.1286
3.768, 5, 21.9026, -9.5108, 52.4437, 37.4716, -36.9806, -27.0085
3.772, 5, 21.8487, -9.52431, 52.492, 37.3243, -37.0328, -26.8886
3.776, 5, 21.7947, -9.5377, 52.5402, 37.1772, -37.0852, -26.769
3.78, 5, 21.7406, -9.55096, 52.5883, 37.0304, -37.1377, -26.6496
3.784, 5, 21.6865, -9.56409, 52.6364, 36.8837, -37.1905, -26.5304
3.788, 5, 21.6323, -9.57708, 52.6843, 36.7373, -37.2435, -26.4115
3.792, 5, 21.578, -9.58995, 52.7322, 36.5911, -37.2967, -26.2928
3.796, 5, 21.5237, -9.60269, 52.78, 36.4451, -37.3501, -26.1743
3.8, 5, 21.4692, -9.6153, 52.8277, 36.2994, -37.4036, -26.056
3.804, 5, 21.4147, -9.62777, 52.8753, 36.1539, -37.4574, -25.938
3.808, 5, 21.3602, -9.64012, 52.9228, 36.0086, -37.5114, -25.8202
3.812, 5, 21.3055, -9.65233, 52.9703, 35.8635, -37.5656, -25.7027
3.816, 5, 21.2508, -9.66442, 53.0176, 35.7186, -37.62, -25.5854
3.82, 5, 21.196, -9.67637, 53.0649, 35.574, -37.6746, -25.4683
3.824, 5, 21.1412, -9.68818, 53.1121, 35.4296, -37.7294, -25.3515
3.828, 5, 21.0862, -9.69987, 53.1592, 35.2854, -37.7844, -25.2349
3.832, 5, 21.0312, -9.71143, 53.2062, 35.1414, -37.8396, -25.1185
3.836, 5, 20.9762, -9.72285, 53.2531, 34.9977, -37.895, -25.0024
3.84, 5, 20.921, -9.73413, 53.3, 34.8542, -37.9506, -24.8865
3.844, 5, 20.8658, -9.74529, 53.3467, 34.7109, -38.0065, -24.7709
3.848, 5, 20.8105, -9.75631, 53.3934, 34.5678, -38.0625, -24.6554
3.852, 5, 20.7552, -9.76719, 53.44, 34.425, -38.1187, -24.5403
3.856, 5, 20.6997, -9.77794, 53.4865, 34.2824, -38.1751, -24.4253
3.86, 5, 20.6442, -9.78856, 53.5329, 34.14, -38.2317, -24.3106
3.864, 5, 20.5886, -9.79904, 53.5792, 33.9978, -38.2885, -24.1961
3.868, 5, 20.533, -9.80938, 53.6255, 33.8559, -38.3456, -24.0819
3.872, 5, 20.4773, -9.81959, 53.6716, 33.7142, -38.4028, -23.9679
3.876, 5, 20.4215, -9.82966, 53.7177, 33.5727, -38.4602, -23.8542
3.88, 5, 20.3656, -9.83959, 53.7637, 33.4315, -38.5178, -23.7407
3.884, 5, 20.3097, -9.84939, 53.8096, 33.2905, -38.5757, -23.6274
3.888, 5, 20.2537, -9.85904, 53.8554, 33.1497, -38.6337, -23.5144
3.892, 5, 20.1976, -9.86856, 53.9011, 33.0091, -38.692, -23.4016
3.896, 5, 20.1415, -9.87794, 53.9467, 32.8688, -38.7504, -23.2891
3.9, 5, 20.0852, -9.88718, 53.9923, 32.7287, -38.809, -23.1768
3.904, 5, 20.029, -9.89628, 54.0377, 32.5889, -38.8679, -23.0647
3.908, 5, 19.9726, -9.90524, 54.0831, 32.4492, -38.9269, -22.9529
3.912, 5, 19.9162, -9.91406, 54.1283, 32.3098, -38.9862, -22.8413
3.916, 5, 19.8597, -9.92274, 54.1735, 32.1706, -39.0456, -22.73
3.92, 5, 19.8031, -9.93128, 54.2186, 32.0317, -39.1053, -22.6189
3.924, 5, 19.7465, -9.93968, 54.2636, 31.893, -39.1651, -22.5081
3.928, 5, 19.6897, -9.94793, 54.3085, 31.7545, -39.2252, -22.3975
3.932, 5, 19.633, -9.95604, 54.3534, 31.6163, -39.2854, -22.2871
3.936, 5, 19.5761, -9.96401, 54.3981, 31.4782, -39.3459, -22.177
3.94, 5, 19.5192, -9.97183, 54.4427, 31.3405, -39.4065, -22.0671
3.944, 5, 19.4622, -9.97951, 54.4873, 31.2029, -39.4674, -21.9575
3.948, 5, 19.4051, -9.98705, 54.5317, 31.0656, -39.5284, -21.8481
3.952, 5, 19.348, -9.99444, 54.5761, 30.9285, -39.5897, -21.739
3.956, 5, 19.2908, -10.0017, 54.6204, 30.7916, -39.6511, -21.6301
3.96, 5, 19.2336, -10.0088, 54.6646, 30.655, -39.7128, -21.5214
3.964, 5, 19.1762, -10.0157, 54.7087, 30.5186, -39.7747, -21.413
3.968, 5, 19.1188, -10.0226, 54.7527, 30.3825, -39.8367, -21.3049
3.972, 5, 19.0613, -10.0292, 54.7966, 30.2465, -39.899, -21.197
3.976, 5, 19.0038, -10.0357, 54.8404, 30.1108, -39.9615, -21.0893
3.98, 5, 18.9462, -10.0421, 54.8841, 29.9754, -40.0241, -20.9819
3.984, 5, 18.8885, -10.0483, 54.9278, 29.8401, -40.087, -20.8747
3.988, 5, 18.8307, -10.0544, 54.9713, 29.7051, -40.1501, -20.7678
3.992, 5, 18.7729, -10.0603, 55.0147, 29.5704, -40.2133, -20.6611
3.996, 5, 18.715, -10.0661, 55.0581, 29.4359, -40.2768, -20.5547
3.999, 5, 18.6571, -10.0717, 55.1014, 29.3016, -40.3405, -20.4485
4.004, 5, 18.5991, -10.0772, 55.1445, 29.1675, -40.4043, -20.3425
4.008, 5, 18.541, -10.0825, 55.1876, 29.0337, -40.4684, -20.2368
4.012, 5, 18.4828, -10.0877, 55.2306, 28.9001, -40.5327, -20.1314
4.016, 5, 18.4246, -10.0927, 55.2735, 28.7667, -40.5971, -20.0262
4.02, 5, 18.3663, -10.0976, 55.3163, 28.6336, -40.6618, -19.9212
4.024, 5, 18.3079, -10.1024, 55.359, 28.5007, -40.7267, -19.8165
4.028, 5, 18.2495, -10.1069, 55.4016, 28.3681, -40.7917, -19.7121
4.032, 5, 18.191, -10.1114, 55.4441, 28.2357, -40.857, -19.6079
4.036, 5, 18.1324, -10.1156, 55.4865, 28.1035, -40.9225, -19.5039
4.04, 5, 18.0738, -10.1198, 55.5288, 27.9715, -40.9881, -19.4002
4.044, 5, 18.0151, -10.1237, 55.571, 27.8398, -41.054, -19.2967
4.048, 5, 17.9563, -10.1276, 55.6132, 27.7083, -41.12, -19.1935
4.052, 5, 17.8975, -10.1312, 55.6552, 27.5771, -41.1863, -19.0905
4.056, 5, 17.8386, -10.1347, 55.6971, 27.4461, -41.2528, -18.9878
4.06, 5, 17.7796, -10.1381, 55.739, 27.3153, -41.3194, -18.8853
4.064, 5, 17.7206, -10.1413, 55.7807, 27.1848, -41.3863, -18.7831
4.068, 5, 17.6615, -10.1444, 55.8224, 27.0545, -41.4533, -18.6811
4.072, 5, 17.6023, -10.1473, 55.864, 26.9244, -41.5206, -18.5794
4.076, 5, 17.5431, -10.15, 55.9054, 26.7946, -41.588, -18.4779
4.08, 5, 17.4838, -10.1526, 55.9468, 26.665, -41.6557, -18.3767
4.084, 5, 17.4244, -10.155, 55.9881, 26.5356, -41.7235, -18.2757
4.088, 5, 17.365, -10.1573, 56.0292, 26.4065, -41.7916, -18.175
4.092, 5, 17.3055, -10.1595, 56.0703, 26.2776, -41.8598, -18.0745
4.096, 5, 17.2459, -10.1614, 56.1113, 26.149, -41.9283, -17.9743
4.1, 5, 17.1863, -10.1632, 56.1522, 26.0205, -41.9969, -17.8743
4.104, 5, 17.1266, -10.1649, 56.193, 25.8924, -42.0657, -17.7746
4.108, 5, 17.0669, -10.1664, 56.2337, 25.7644, -42.1348, -17.6751
4.112, 5, 17.007, -10.1678, 56.2743, 25.6367, -42.204, -17.5758
4.116, 5, 16.9471, -10.1689, 56.3148, 25.5092, -42.2734, -17.4768
4.12, 5, 16.8872, -10.17, 56.3552, 25.382, -42.343, -17.3781
4.124, 5, 16.8272, -10.1709, 56.3955, 25.255, -42.4129, -17.2796
4.128, 5, 16.7671, -10.1716, 56.4357, 25.1282, -42.4829, -17.1814
4.132, 5, 16.7069, -10.1721, 56.4758, 25.0017, -42.5531, -17.0834
4.136, 5, 16.6467, -10.1725, 56.5158, 24.8754, -42.6235, -16.9857
4.14, 5, 16.5864, -10.1728, 56.5557, 24.7493, -42.6941, -16.8882
4.144, 5, 16.5261, -10.1729, 56.5956, 24.6235, -42.7649, -16.7909
4.148, 5, 16.4657, -10.1728, 56.6353, 24.4979, -42.8359, -16.694
4.152, 5, 16.4052, -10.1725, 56.6749, 24.3726, -42.9071, -16.5972
4.156, 5, 16.3447, -10.1722, 56.7144, 24.2475, -42.9785, -16.5007
4.16, 5, 16.2841, -10.1716, 56.7539, 24.1226, -43.0501, -16.4045
4.164, 5, 16.2234, -10.1709, 56.7932, 23.998, -43.1219, -16.3085
4.168, 5, 16.1627, -10.17, 56.8324, 23.8736, -43.1939, -16.2128
4.172, 5, 16.1019, -10.169, 56.8715, 23.7494, -43.2661, -16.1173
4.176, 5, 16.041, -10.1678, 56.9106, 23.6255, -43.3385, -16.0221
4.18, 5, 15.9801, -10.1664, 56.9495, 23.5018, -43.411, -15.9271
4.184, 5, 15.9191, -10.1649, 56.9883, 23.3783, -43.4838, -15.8324
4.188, 5, 15.8581, -10.1632, 57.027, 23.2551, -43.5568, -15.7379
4.192, 5, 15.797, -10.1613, 57.0657, 23.1321, -43.6299, -15.6437
4.196, 5, 15.7358, -10.1593, 57.1042, 23.0094, -43.7033, -15.5497
4.2, 5, 15.6746, -10.1571, 57.1426, 22.8869, -43.7768, -15.456
4.204, 5, 15.6133, -10.1548, 57.1809, 22.7646, -43.8506, -15.3625
4.208, 5, 15.5519, -10.1522, 57.2192, 22.6425, -43.9245, -15.2692
4.212, 5, 15.4905, -10.1496, 57.2573, 22.5207, -43.9986, -15.1763
4.216, 5, 15.429, -10.1467, 57.2953, 22.3992, -44.073, -15.0835
4.22, 5, 15.3675, -10.1437, 57.3332, 22.2778, -44.1475, -14.9911
4.224, 5, 15.3059, -10.1405, 57.371, 22.1567, -44.2222, -14.8988
4.228, 5, 15.2442, -10.1372, 57.4087, 22.0358, -44.2971, -14.8069
4.232, 5, 15.1825, -10.1337, 57.4463, 21.9152, -44.3722, -14.7151
4.236, 5, 15.1207, -10.13, 57.4838, 21.7948, -44.4475, -14.6236
4.24, 5, 15.0589, -10.1262, 57.5213, 21.6746, -44.5229, -14.5324
4.244, 5, 14.997, -10.1222, 57.5585, 21.5547, -44.5986, -14.4414
4.248, 5, 14.935, -10.118, 57.5957, 21.435, -44.6745, -14.3507
4.252, 5, 14.873, -10.1137, 57.6328, 21.3155, -44.7505, -14.2602
4.256, 5, 14.8109, -10.1091, 57.6698, 21.1963, -44.8268, -14.17
4.26, 5, 14.7488, -10.1045, 57.7067, 21.0772, -44.9032, -14.08
4.264, 5, 14.6866, -10.0996, 57.7435, 20.9585, -44.9798, -13.9902
4.268, 5, 14.6243, -10.0946, 57.7802, 20.8399, -45.0566, -13.9007
4.272, 5, 14.562, -10.0894, 57.8167, 20.7216, -45.1336, -13.8115
4.276, 5, 14.4996, -10.0841, 57.8532, 20.6035, -45.2108, -13.7225
4.28, 5, 14.4372, -10.0785, 57.8896, 20.4857, -45.2882, -13.6338
4.284, 5, 14.3747, -10.0728, 57.9258, 20.368, -45.3658, -13.5453
4.288, 5, 14.3122, -10.067, 57.962, 20.2507, -45.4435, -13.457
4.292, 5, 14.2496, -10.0609, 57.998, 20.1335, -45.5215, -13.369
4.296, 5, 14.1869, -10.0547, 58.034, 20.0166, -45.5996, -13.2812
4.3, 5, 14.1242, -10.0483, 58.0698, 19.8999, -45.6779, -13.1937
4.304, 5, 14.0614, -10.0418, 58.1055, 19.7834, -45.7564, -13.1065
4.308, 5, 13.9986, -10.0351, 58.1412, 19.6672, -45.8351, -13.0195
4.312, 5, 13.9357, -10.0282, 58.1767, 19.5512, -45.914, -12.9327
4.316, 5, 13.8728, -10.0211, 58.2121, 19.4354, -45.9931, -12.8462
4.32, 5, 13.8098, -10.0139, 58.2474, 19.3198, -46.0723, -12.7599
4.324, 5, 13.7468, -10.0065, 58.2826, 19.2045, -46.1518, -12.6739
4.328, 5, 13.6836, -9.99889, 58.3177, 19.0894, -46.2314, -12.5881
4.332, 5, 13.6205, -9.99113, 58.3526, 18.9746, -46.3112, -12.5026
4.336, 5, 13.5573, -9.9832, 58.3875, 18.8599, -46.3912, -12.4173
4.34, 5, 13.494, -9.9751, 58.4223, 18.7455, -46.4714, -12.3322
4.344, 5, 13.4307, -9.96682, 58.457, 18.6314, -46.5518, -12.2474
4.348, 5, 13.3673, -9.95837, 58.4915, 18.5174, -46.6324, -12.1629
4.352, 5, 13.3039, -9.94974, 58.5259, 18.4037, -46.7131, -12.0786
4.356, 5, 13.2404, -9.94094, 58.5603, 18.2902, -46.794, -11.9945
4.36, 5, 13.1768, -9.93196, 58.5945, 18.1769, -46.8751, -11.9107
4.364, 5, 13.1132, -9.92281, 58.6286, 18.0639, -46.9564, -11.8272
4.368, 5, 13.0496, -9.91348, 58.6626, 17.9511, -47.0379, -11.7439
4.372, 5, 12.9859, -9.90398, 58.6965, 17.8385, -47.1196, -11.6608
4.376, 5, 12.9221, -9.8943, 58.7303, 17.7262, -47.2015, -11.578
4.38, 5, 12.8583, -9.88445, 58.764, 17.6141, -47.2835, -11.4954
4.384, 5, 12.7944, -9.87442, 58.7976, 17.5022, -47.3657, -11.4131
4.388, 5, 12.7305, -9.86421, 58.831, 17.3905, -47.4481, -11.331
4.392, 5, 12.6665, -9.85382, 58.8644, 17.2791, -47.5307, -11.2492
4.396, 5, 12.6025, -9.84326, 58.8976, 17.1679, -47.6135, -11.1676
4.4, 5, 12.5384, -9.83252, 58.9308, 17.0569, -47.6964, -11.0863
4.404, 5, 12.4743, -9.8216, 58.9638, 16.9461, -47.7796, -11.0052
4.408, 5, 12.4101, -9.8105, 58.9967, 16.8356, -47.8629, -10.9243
4.412, 5, 12.3459, -9.79923, 59.0295, 16.7253, -47.9464, -10.8437
4.416, 5, 12.2816, -9.78778, 59.0622, 16.6152, -48.0301, -10.7634
4.42, 5, 12.2173, -9.77614, 59.0948, 16.5054, -48.1139, -10.6832
4.424, 5, 12.1529, -9.76433, 59.1272, 16.3957, -48.198, -10.6034
4.428, 5, 12.0884, -9.75234, 59.1596, 16.2863, -48.2822, -10.5238
4.432, 5, 12.0239, -9.74017, 59.1918, 16.1772, -48.3666, -10.4444
4.436, 5, 11.9594, -9.72782, 59.224, 16.0682, -48.4512, -10.3653
4.44, 5, 11.8948, -9.71529, 59.256, 15.9595, -48.536, -10.2864
4.444, 5, 11.8302, -9.70258, 59.2879, 15.851, -48.621, -10.2077
4.448, 5, 11.7655, -9.68969, 59.3197, 15.7427, -48.7061, -10.1293
4.452, 5, 11.7007, -9.67662, 59.3514, 15.6347, -48.7914, -10.0512
4.456, 5, 11.6359, -9.66336, 59.383, 15.5269, -48.8769, -9.9733
4.46, 5, 11.5711, -9.64993, 59.4144, 15.4193, -48.9626, -9.89565
4.464, 5, 11.5062, -9.63631, 59.4458, 15.3119, -49.0485, -9.81824
4.468, 5, 11.4413, -9.62251, 59.477, 15.2048, -49.1345, -9.74108
4.472, 5, 11.3763, -9.60853, 59.5081, 15.0979, -49.2207, -9.66416
4.476, 5, 11.3112, -9.59436, 59.5391, 14.9912, -49.3071, -9.58749
4.48, 5, 11.2461, -9.58001, 59.57, 14.8847, -49.3937, -9.51106
4.484, 5, 11.181, -9.56548, 59.6008, 14.7784, -49.4805, -9.43487
4.488, 5, 11.1158, -9.55077, 59.6315, 14.6724, -49.5674, -9.35893
4.492, 5, 11.0506, -9.53587, 59.662, 14.5666, -49.6545, -9.28324
4.496, 5, 10.9853, -9.52079, 59.6924, 14.461, -49.7418, -9.20779
4.5, 5, 10.92, -9.50552, 59.7227, 14.3557, -49.8293, -9.13258
4.504, 5, 10.8546, -9.49008, 59.7529, 14.2506, -49.9169, -9.05762
4.508, 5, 10.7892, -9.47444, 59.783, 14.1456, -50.0047, -8.98289
4.512, 5, 10.7237, -9.45863, 59.813, 14.041, -50.0927, -8.90841
4.516, 5, 10.6582, -9.44263, 59.8429, 13.9365, -50.1809, -8.83418
4.52, 5, 10.5926, -9.42644, 59.8726, 13.8322, -50.2693, -8.76018
4.524, 5, 10.527, -9.41007, 59.9022, 13.7282, -50.3578, -8.68643
4.528, 5, 10.4614, -9.39352, 59.9317, 13.6244, -50.4465, -8.61291
4.532, 5, 10.3957, -9.37678, 59.9611, 13.5208, -50.5353, -8.53964
4.536, 5, 10.3299, -9.35986, 59.9904, 13.4174, -50.6244, -8.46661
4.54, 5, 10.2641, -9.34276, 60.0195, 13.3142, -50.7136, -8.39382
4.544, 5, 10.1983, -9.32547, 60.0486, 13.2113, -50.803, -8.32126
4.548, 5, 10.1324, -9.30799, 60.0775, 13.1086, -50.8925, -8.24895
4.552, 5, 10.0665, -9.29033, 60.1063, 13.006, -50.9822, -8.17687
4.556, 5, 10.0006, -9.27249, 60.135, 12.9037, -51.0721, -8.10504
4.56, 5, 9.93457, -9.25446, 60.1636, 12.8017, -51.1622, -8.03344
4.564, 5, 9.86853, -9.23625, 60.192, 12.6998, -51.2524, -7.96208
4.568, 5, 9.80244, -9.21786, 60.2204, 12.5981, -51.3428, -7.89096
4.572, 5, 9.73632, -9.19927, 60.2486, 12.4967, -51.4333, -7.82007
4.576, 5, 9.67015, -9.18051, 60.2767, 12.3955, -51.5241, -7.74942
4.58, 5, 9.60394, -9.16156, 60.3047, 12.2944, -51.6149, -7.67901
4.584, 5, 9.53769, -9.14242, 60.3325, 12.1936, -51.706, -7.60884
4.588, 5, 9.4714, -9.1231, 60.3603, 12.093, -51.7972, -7.5389
4.592, 5, 9.40507, -9.1036, 60.3879, 11.9927, -51.8886, -7.46919
4.596, 5, 9.3387, -9.08391, 60.4154, 11.8925, -51.9802, -7.39973
4.6, 5, 9.27228, -9.06403, 60.4428, 11.7925, -52.0719, -7.3305
4.604, 5, 9.20583, -9.04397, 60.47, 11.6928, -52.1637, -7.2615
4.608, 5, 9.13934, -9.02373, 60.4972, 11.5932, -52.2558, -7.19274
4.612, 5, 9.07282, -9.0033, 60.5242, 11.4939, -52.348, -7.12421
4.616, 5, 9.00625, -8.98268, 60.5511, 11.3948, -52.4404, -7.05592
4.62, 5, 8.93964, -8.96188, 60.5779, 11.2959, -52.5329, -6.98786
4.624, 5, 8.873, -8.94089, 60.6046, 11.1972, -52.6256, -6.92003
4.628, 5, 8.80632, -8.91972, 60.6311, 11.0987, -52.7184, -6.85244
4.632, 5, 8.7396, -8.89836, 60.6576, 11.0004, -52.8114, -6.78508
4.636, 5, 8.67284, -8.87682, 60.6839, 10.9023, -52.9046, -6.71796
4.64, 5, 8.60605, -8.85509, 60.71, 10.8044, -52.9979, -6.65107
4.644, 5, 8.53922, -8.83317, 60.7361, 10.7067, -53.0914, -6.58441
4.648, 5, 8.47235, -8.81107, 60.7621, 10.6093, -53.185, -6.51798
4.652, 5, 8.40545, -8.78878, 60.7879, 10.512, -53.2788, -6.45179
4.656, 5, 8.33851, -8.76631, 60.8136, 10.415, -53.3728, -6.38582
4.66, 5, 8.27154, -8.74365, 60.8391, 10.3181, -53.4669, -6.32009
4.664, 5, 8.20453, -8.7208, 60.8646, 10.2215, -53.5611, -6.25459
4.668, 5, 8.13748, -8.69777, 60.8899, 10.125, -53.6556, -6.18933
4.672, 5, 8.0704, -8.67454, 60.9151, 10.0288, -53.7501, -6.12429
4.676, 5, 8.00329, -8.65114, 60.9402, 9.93277, -53.8449, -6.05949
4.68, 5, 7.93614, -8.62754, 60.9652, 9.83695, -53.9398, -5.99491
4.684, 5, 7.86895, -8.60376, 60.99, 9.74133, -54.0348, -5.93057
4.688, 5, 7.80174, -8.57979, 61.0147, 9.64591, -54.13, -5.86646
4.692, 5, 7.73449, -8.55564, 61.0393, 9.55069, -54.2254, -5.80257
4.696, 5, 7.6672, -8.53129, 61.0638, 9.45568, -54.3209, -5.73892
4.7, 5, 7.59988, -8.50676, 61.0881, 9.36086, -54.4165, -5.6755
4.704, 5, 7.53253, -8.48204, 61.1124, 9.26626, -54.5123, -5.61231
4.708, 5, 7.46515, -8.45714, 61.1365, 9.17185, -54.6083, -5.54935
4.712, 5, 7.39773, -8.43204, 61.1604, 9.07764, -54.7044, -5.48662
4.716, 5, 7.33028, -8.40676, 61.1843, 8.98363, -54.8007, -5.42411
4.72, 5, 7.2628, -8.38129, 61.208, 8.88983, -54.8971, -5.36184
4.724, 5, 7.19529, -8.35563, 61.2316, 8.79622, -54.9937, -5.2998
4.728, 5, 7.12775, -8.32978, 61.2551, 8.70282, -55.0904, -5.23798
4.732, 5, 7.06017, -8.30374, 61.2784, 8.60961, -55.1872, -5.1764
4.736, 5, 6.99256, -8.27752, 61.3016, 8.51661, -55.2843, -5.11504
4.74, 5, 6.92493, -8.2511, 61.3247, 8.42381, -55.3814, -5.05391
4.744, 5, 6.85726, -8.2245, 61.3477, 8.3312, -55.4787, -4.99301
4.748, 5, 6.78956, -8.1977, 61.3706, 8.23879, -55.5762, -4.93234
4.752, 5, 6.72183, -8.17072, 61.3933, 8.14658, -55.6738, -4.8719
4.756, 5, 6.65407, -8.14355, 61.4158, 8.05457, -55.7716, -4.81168
4.76, 5, 6.58629, -8.11618, 61.4383, 7.96276, -55.8695, -4.7517
4.764, 5, 6.51847, -8.08863, 61.4606, 7.87115, -55.9675, -4.69194
4.768, 5, 6.45062, -8.06089, 61.4829, 7.77973, -56.0657, -4.63241
4.772, 5, 6.38275, -8.03296, 61.5049, 7.68852, -56.1641, -4.5731
4.776, 5, 6.31485, -8.00484, 61.5269, 7.59749, -56.2626, -4.51403
4.78, 5, 6.24692, -7.97653, 61.5487, 7.50667, -56.3612, -4.45518
4.784, 5, 6.17896, -7.94803, 61.5704, 7.41604, -56.46, -4.39656
4.788, 5, 6.11098, -7.91934, 61.592, 7.3256, -56.5589, -4.33816
4.792, 5, 6.04296, -7.89046, 61.6134, 7.23536, -56.658, -4.27999
4.796, 5, 5.97492, -7.86139, 61.6347, 7.14532, -56.7572, -4.22205
4.8, 5, 5.90686, -7.83213, 61.6559, 7.05546, -56.8566, -4.16433
4.804, 5, 5.83877, -7.80268, 61.6769, 6.9658, -56.9561, -4.10683
4.808, 5, 5.77065, -7.77304, 61.6978, 6.87634, -57.0557, -4.04956
4.812, 5, 5.70251, -7.74321, 61.7186, 6.78706, -57.1555, -3.99251
4.816, 5, 5.63434, -7.7132, 61.7393, 6.69798, -57.2554, -3.93569
4.82, 5, 5.56615, -7.68299, 61.7598, 6.60908, -57.3554, -3.87909
4.824, 5, 5.49793, -7.6526, 61.7802, 6.52038, -57.4556, -3.82271
4.828, 5, 5.42969, -7.62202, 61.8005, 6.43187, -57.5559, -3.76655
4.832, 5, 5.36143, -7.59125, 61.8206, 6.34354, -57.6564, -3.71062
4.836, 5, 5.29314, -7.5603, 61.8406, 6.2554, -57.757, -3.6549
4.84, 5, 5.22483, -7.52915, 61.8605, 6.16745, -57.8577, -3.59941
4.844, 5, 5.1565, -7.49782, 61.8803, 6.07969, -57.9585, -3.54413
4.848, 5, 5.08814, -7.4663, 61.8999, 5.99211, -58.0595, -3.48908
4.852, 5, 5.01977, -7.4346, 61.9194, 5.90472, -58.1607, -3.43424
4.856, 5, 4.95137, -7.40271, 61.9387, 5.81752, -58.2619, -3.37962
4.86, 5, 4.88295, -7.37063, 61.958, 5.7305, -58.3633, -3.32522
4.864, 5, 4.81451, -7.33837, 61.9771, 5.64366, -58.4648, -3.27104
4.868, 5, 4.74605, -7.30592, 61.996, 5.55701, -58.5664, -3.21708
4.872, 5, 4.67757, -7.27329, 62.0149, 5.47054, -58.6682, -3.16333
4.876, 5, 4.60907, -7.24047, 62.0336, 5.38426, -58.7701, -3.1098
4.88, 5, 4.54054, -7.20746, 62.0522, 5.29815, -58.8721, -3.05649
4.884, 5, 4.472, -7.17428, 62.0706, 5.21223, -58.9742, -3.00339
4.888, 5, 4.40345, -7.1409, 62.0889, 5.12649, -59.0765, -2.95051
4.892, 5, 4.33487, -7.10735, 62.1071, 5.04093, -59.1789, -2.89784
4.896, 5, 4.26627, -7.0736, 62.1251, 4.95555, -59.2814, -2.84539
4.9, 5, 4.19766, -7.03968, 62.143, 4.87034, -59.384, -2.79315
4.904, 5, 4.12903, -7.00557, 62.1608, 4.78532, -59.4868, -2.74112
4.908, 5, 4.06038, -6.97128, 62.1785, 4.70048, -59.5897, -2.68931
4.912, 5, 3.99171, -6.9368, 62.196, 4.61581, -59.6927, -2.63771
4.916, 5, 3.92303, -6.90215, 62.2134, 4.53132, -59.7958, -2.58633
4.92, 5, 3.85433, -6.86731, 62.2306, 4.44701, -59.899, -2.53515
4.924, 5, 3.78562, -6.83228, 62.2477, 4.36287, -60.0024, -2.48419
4.928, 5, 3.71689, -6.79708, 62.2647, 4.27891, -60.1058, -2.43344
4.932, 5, 3.64814, -6.76169, 62.2816, 4.19513, -60.2094, -2.3829
4.936, 5, 3.57938, -6.72612, 62.2983, 4.11152, -60.3131, -2.33258
4.94, 5, 3.51061, -6.69037, 62.3149, 4.02808, -60.4169, -2.28246
4.944, 5, 3.44182, -6.65444, 62.3313, 3.94482, -60.5209, -2.23255
4.948, 5, 3.37302, -6.61833, 62.3476, 3.86174, -60.6249, -2.18285
4.952, 5, 3.3042, -6.58203, 62.3638, 3.77882, -60.7291, -2.13336
4.956, 5, 3.23537, -6.54556, 62.3799, 3.69608, -60.8333, -2.08408
4.96, 5, 3.16653, -6.5089, 62.3958, 3.61351, -60.9377, -2.03501
4.964, 5, 3.09767, -6.47206, 62.4115, 3.53111, -61.0422, -1.98615
4.968, 5, 3.0288, -6.43505, 62.4272, 3.44888, -61.1468, -1.9375
4.972, 5, 2.95992, -6.39785, 62.4427, 3.36682, -61.2515, -1.88905
4.976, 5, 2.89103, -6.36047, 62.4581, 3.28494, -61.3563, -1.84081
4.98, 5, 2.82213, -6.32292, 62.4733, 3.20322, -61.4612, -1.79278
4.984, 5, 2.75321, -6.28518, 62.4884, 3.12167, -61.5662, -1.74495
4.988, 5, 2.68429, -6.24726, 62.5034, 3.04029, -61.6714, -1.69733
4.992, 5, 2.61535, -6.20917, 62.5182, 2.95908, -61.7766, -1.64992
4.996, 5, 2.5464, -6.17089, 62.5329, 2.87804, -61.882, -1.60271
5, 5, 2.47745, -6.13244, 62.5475, 2.79716, -61.9874, -1.55571
5.004, 5, 2.40848, -6.09381, 62.5619, 2.71645, -62.093, -1.50891
5.008, 5, 2.3395, -6.055, 62.5762, 2.63591, -62.1986, -1.46232
5.012, 5, 2.27052, -6.01601, 62.5903, 2.55553, -62.3044, -1.41593
5.016, 5, 2.20153, -5.97684, 62.6044, 2.47532, -62.4102, -1.36975
5.02, 5, 2.13253, -5.93749, 62.6182, 2.39528, -62.5162, -1.32377
5.024, 5, 2.06352, -5.89797, 62.632, 2.3154, -62.6223, -1.27799
5.028, 5, 1.9945, -5.85826, 62.6456, 2.23568, -62.7284, -1.23242
5.032, 5, 1.92547, -5.81838, 62.6591, 2.15613, -62.8347, -1.18705
5.036, 5, 1.85644, -5.77833, 62.6724, 2.07674, -62.941, -1.14189
5.04, 5, 1.7874, -5.73809, 62.6856, 1.99752, -63.0475, -1.09692
5.044, 5, 1.71836, -5.69768, 62.6986, 1.91845, -63.154, -1.05216
5.048, 5, 1.64931, -5.65709, 62.7116, 1.83955, -63.2607, -1.0076
5.052, 5, 1.58025, -5.61632, 62.7243, 1.76082, -63.3674, -0.963243
5.056, 5, 1.51118, -5.57537, 62.737, 1.68224, -63.4743, -0.919086
5.06, 5, 1.44212, -5.53425, 62.7495, 1.60382, -63.5812, -0.87513
5.064, 5, 1.37304, -5.49294, 62.7618, 1.52557, -63.6882, -0.831376
5.068, 5, 1.30395, -5.45142, 62.7741, 1.44747, -63.7953, -0.787821
5.072, 5, 1.23485, -5.40964, 62.7861, 1.36953, -63.9025, -0.744467
5.076, 5, 1.16574, -5.36752, 62.798, 1.29175, -64.0099, -0.701312
5.08, 5, 1.0966, -5.32498, 62.8096, 1.21413, -64.1173, -0.658356
5.084, 5, 1.02747, -5.28193, 62.8209, 1.13666, -64.2248, -0.615598
5.088, 5, 0.958366, -5.23824, 62.832, 1.05935, -64.3325, -0.57304
5.092, 5, 0.889312, -5.19381, 62.8426, 0.982193, -64.4404, -0.530682
5.096, 5, 0.820343, -5.14855, 62.8527, 0.905208, -64.5485, -0.488532
5.1, 5, 0.751486, -5.10236, 62.8622, 0.828407, -64.6569, -0.446595
5.104, 5, 0.682759, -5.05512, 62.8709, 0.751815, -64.7655, -0.404886
5.108, 5, 0.614181, -5.0067, 62.8788, 0.675464, -64.8745, -0.36342
5.112, 5, 0.545772, -4.95699, 62.8858, 0.599396, -64.984, -0.322219
5.116, 6, 0.477565, -4.90587, 62.8915, 0.523661, -65.0938, -0.28131
5.12, 6, 0.409607, -4.85324, 62.896, 0.448316, -65.2041, -0.240722
5.124, 6, 0.34196, -4.79903, 62.899, 0.373427, -65.3148, -0.200488
5.128, 6, 0.274691, -4.74319, 62.9004, 0.299061, -65.426, -0.160644
5.132, 6, 0.207864, -4.68568, 62.9002, 0.225293, -65.5377, -0.121227
5.136, 6, 0.141527, -4.6265, 62.8981, 0.152193, -65.6497, -0.082273
5.14, 6, 0.0757134, -4.56562, 62.8942, 0.0798291, -65.7621, -0.0438168
5.144, 6, 0.0104395, -4.50304, 62.8885, 0.00825624, -65.8748, -0.00588627
5.148, 6, -0.0542871, -4.43874, 62.8808, -0.0624836, -65.9878, 0.0314976
5.152, 6, -0.118467, -4.37272, 62.8713, -0.132366, -66.1009, 0.0683228
5.156, 6, -0.182106, -4.30502, 62.8599, -0.201385, -66.214, 0.104587
5.16, 6, -0.245222, -4.23569, 62.8468, -0.269554, -66.3273, 0.140297
5.164, 6, -0.307846, -4.1648, 62.8321, -0.336899, -66.4405, 0.175469
5.168, 6, -0.370022, -4.09243, 62.8159, -0.403462, -66.5536, 0.210124
5.172, 6, -0.431798, -4.01871, 62.7984, -0.469296, -66.6666, 0.24429
5.176, 6, -0.49322, -3.94375, 62.7796, -0.534458, -66.7795, 0.278
5.18, 6, -0.554321, -3.86768, 62.7597, -0.599016, -66.8923, 0.311289
5.184, 6, -0.615114, -3.79061, 62.739, -0.663034, -67.0049, 0.344191
5.188, 6, -0.675598, -3.71266, 62.7174, -0.726581, -67.1174, 0.376743
5.192, 6, -0.735769, -3.63396, 62.6952, -0.789716, -67.2298, 0.408978
5.196, 6, -0.795624, -3.55462, 62.6725, -0.852495, -67.342, 0.440924
5.2, 6, -0.855177, -3.47476, 62.6493, -0.914963, -67.4542, 0.472607
5.204, 6, -0.914454, -3.39447, 62.6257, -0.977154, -67.5662, 0.504045
5.208, 6, -0.973493, -3.31386, 62.6018, -1.0391, -67.6782, 0.535254
5.212, 6, -1.03234, -3.23301, 62.5776, -1.10081, -67.7901, 0.566246
5.216, 6, -1.09102, -3.15197, 62.5532, -1.1623, -67.9019, 0.597028
5.22, 6, -1.14957, -3.0708, 62.5286, -1.22359, -68.0136, 0.627605
5.224, 6, -1.208, -2.98952, 62.5038, -1.28467, -68.1253, 0.657983
5.228, 6, -1.26633, -2.90816, 62.4789, -1.34556, -68.2369, 0.688164
5.232, 6, -1.32457, -2.82672, 62.4538, -1.40625, -68.3484, 0.718152
5.236, 6, -1.38272, -2.74523, 62.4286, -1.46675, -68.4598, 0.747948
5.24, 6, -1.44079, -2.66368, 62.4032, -1.52707, -68.5712, 0.777554
5.244, 6, -1.49877, -2.58209, 62.3776, -1.5872, -68.6825, 0.806972
5.248, 6, -1.55668, -2.50045, 62.3519, -1.64714, -68.7937, 0.836203
5.252, 6, -1.6145, -2.41877, 62.3261, -1.7069, -68.9048, 0.865249
5.256, 6, -1.67225, -2.33705, 62.3002, -1.76647, -69.0159, 0.89411
5.26, 6, -1.72992, -2.25529, 62.2741, -1.82586, -69.1269, 0.922789
5.264, 6, -1.78751, -2.1735, 62.2478, -1.88507, -69.2378, 0.951285
5.268, 6, -1.84502, -2.09167, 62.2214, -1.9441, -69.3486, 0.979602
5.272, 6, -1.90246, -2.0098, 62.1949, -2.00296, -69.4593, 1.00774
5.276, 6, -1.95982, -1.92791, 62.1682, -2.06163, -69.57, 1.0357
5.28, 6, -2.0171, -1.84598, 62.1414, -2.12012, -69.6805, 1.06348
5.284, 6, -2.07431, -1.76402, 62.1145, -2.17844, -69.791, 1.09108
5.288, 6, -2.13144, -1.68203, 62.0874, -2.23659, -69.9014, 1.11851
5.292, 6, -2.18849, -1.60001, 62.0602, -2.29456, -70.0117, 1.14577
5.296, 6, -2.24547, -1.51796, 62.0328, -2.35235, -70.1219, 1.17286
5.3, 6, -2.30236, -1.43588, 62.0053, -2.40997, -70.2321, 1.19977
5.304, 6, -2.35918, -1.35377, 61.9777, -2.46742, -70.3421, 1.22651
5.308, 6, -2.41593, -1.27164, 61.9499, -2.5247, -70.4521, 1.25308
5.312, 6, -2.47259, -1.18948, 61.922, -2.58181, -70.562, 1.27949
5.316, 6, -2.52918, -1.10729, 61.894, -2.63875, -70.6718, 1.30572
5.32, 6, -2.58569, -1.02508, 61.8658, -2.69552, -70.7814, 1.33179
5.324, 6, -2.64212, -0.942848, 61.8374, -2.75212, -70.891, 1.3577
5.328, 6, -2.69848, -0.860589, 61.809, -2.80855, -71.0005, 1.38344
5.332, 6, -2.75475, -0.778307, 61.7804, -2.86482, -71.1099, 1.40902
5.336, 6, -2.81095, -0.696003, 61.7516, -2.92092, -71.2192, 1.43444
5.34, 6, -2.86707, -0.613677, 61.7228, -2.97686, -71.3285, 1.45969
5.344, 6, -2.92312, -0.53133, 61.6937, -3.03263, -71.4376, 1.48479
5.348, 6, -2.97908, -0.448963, 61.6646, -3.08824, -71.5466, 1.50973
5.352, 6, -3.03497, -0.366575, 61.6353, -3.14369, -71.6555, 1.53451
5.356, 6, -3.09078, -0.284169, 61.6059, -3.19898, -71.7643, 1.55913
5.36, 6, -3.14651, -0.201745, 61.5763, -3.25411, -71.8731, 1.5836
5.364, 6, -3.20216, -0.119303, 61.5466, -3.30907, -71.9817, 1.60792
5.368, 6, -3.25774, -0.0368433, 61.5168, -3.36388, -72.0902, 1.63208
5.372, 6, -3.31324, 0.0456324, 61.4868, -3.41853, -72.1986, 1.65608
5.376, 6, -3.36865, 0.128124, 61.4567, -3.47303, -72.3069, 1.67994
5.38, 6, -3.42399, 0.210631, 61.4265, -3.52736, -72.4151, 1.70365
5.384, 6, -3.47926, 0.293152, 61.3961, -3.58154, -72.5232, 1.7272
5.388, 6, -3.53444, 0.375687, 61.3656, -3.63557, -72.6312, 1.75061
5.392, 6, -3.58955, 0.458235, 61.3349, -3.68944, -72.7391, 1.77388
5.396, 6, -3.64457, 0.540796, 61.3041, -3.74316, -72.8469, 1.79699
5.4, 6, -3.69952, 0.623369, 61.2732, -3.79673, -72.9546, 1.81996
5.404, 6, -3.75439, 0.705953, 61.2421, -3.85014, -73.0621, 1.84279
5.408, 6, -3.80918, 0.788548, 61.2109, -3.90341, -73.1696, 1.86547
5.412, 6, -3.86389, 0.871154, 61.1796, -3.95652, -73.2769, 1.88801
5.416, 6, -3.91853, 0.953768, 61.1482, -4.00949, -73.3842, 1.91041
5.42, 6, -3.97308, 1.03639, 61.1166, -4.0623, -73.4913, 1.93267
5.424, 6, -4.02756, 1.11902, 61.0848, -4.11497, -73.5983, 1.95479
5.428, 6, -4.08196, 1.20166, 61.0529, -4.1675, -73.7052, 1.97677
5.432, 6, -4.13628, 1.28431, 61.0209, -4.21987, -73.812, 1.99862
5.436, 6, -4.19052, 1.36696, 60.9888, -4.2721, -73.9187, 2.02032
5.44, 6, -4.24468, 1.44962, 60.9565, -4.32419, -74.0252, 2.0419
5.444, 6, -4.29876, 1.53229, 60.9241, -4.37613, -74.1317, 2.06334
5.448, 6, -4.35277, 1.61495, 60.8916, -4.42793, -74.238, 2.08464
5.452, 6, -4.40669, 1.69763, 60.8589, -4.47959, -74.3442, 2.10581
5.456, 6, -4.46054, 1.78031, 60.8261, -4.53111, -74.4503, 2.12685
5.46, 6, -4.51431, 1.86299, 60.7932, -4.58248, -74.5562, 2.14777
5.464, 6, -4.56799, 1.94567, 60.7601, -4.63372, -74.6621, 2.16855
5.468, 6, -4.6216, 2.02835, 60.7269, -4.68482, -74.7678, 2.1892
5.472, 6, -4.67513, 2.11104, 60.6935, -4.73578, -74.8734, 2.20973
5.476, 6, -4.72859, 2.19373, 60.6601, -4.7866, -74.9789, 2.23012
5.48, 6, -4.78196, 2.27641, 60.6265, -4.83728, -75.0843, 2.2504
5.484, 6, -4.83525, 2.3591, 60.5927, -4.88783, -75.1895, 2.27055
5.488, 6, -4.88847, 2.44178, 60.5589, -4.93824, -75.2946, 2.29057
5.492, 6, -4.9416, 2.52446, 60.5248, -4.98852, -75.3997, 2.31047
5.496, 6, -4.99466, 2.60714, 60.4907, -5.03866, -75.5045, 2.33025
5.5, 6, -5.04763, 2.68982, 60.4564, -5.08867, -75.6093, 2.34991
5.504, 6, -5.10053, 2.7725, 60.422, -5.13855, -75.7139, 2.36945
5.508, 6, -5.15335, 2.85517, 60.3875, -5.18829, -75.8184, 2.38886
5.512, 6, -5.20609, 2.93783, 60.3528, -5.23791, -75.9227, 2.40816
5.516, 6, -5.25875, 3.02049, 60.3181, -5.28739, -76.027, 2.42735
5.52, 6, -5.31133, 3.10315, 60.2831, -5.33675, -76.1311, 2.44641
5.524, 6, -5.36383, 3.1858, 60.2481, -5.38597, -76.2351, 2.46536
5.528, 6, -5.41625, 3.26844, 60.2129, -5.43507, -76.3389, 2.48419
5.532, 6, -5.4686, 3.35107, 60.1776, -5.48403, -76.4427, 2.50291
5.536, 6, -5.52086, 3.4337, 60.1421, -5.53287, -76.5463, 2.52152
5.54, 6, -5.57305, 3.51632, 60.1065, -5.58158, -76.6497, 2.54002
5.544, 6, -5.62515, 3.59893, 60.0708, -5.63017, -76.7531, 2.5584
5.548, 6, -5.67718, 3.68153, 60.035, -5.67863, -76.8563, 2.57667
5.552, 6, -5.72913, 3.76412, 59.999, -5.72696, -76.9593, 2.59483
5.556, 6, -5.781, 3.84671, 59.9629, -5.77516, -77.0623, 2.61288
5.56, 6, -5.83279, 3.92928, 59.9267, -5.82325, -77.1651, 2.63083
5.564, 6, -5.8845, 4.01184, 59.8903, -5.8712, -77.2677, 2.64867
5.568, 6, -5.93613, 4.09439, 59.8538, -5.91903, -77.3703, 2.6664
5.572, 6, -5.98768, 4.17692, 59.8172, -5.96674, -77.4727, 2.68402
5.576, 6, -6.03916, 4.25945, 59.7805, -6.01432, -77.5749, 2.70154
5.58, 6, -6.09055, 4.34196, 59.7436, -6.06179, -77.6771, 2.71896
5.584, 6, -6.14186, 4.42445, 59.7066, -6.10912, -77.7791, 2.73627
5.588, 6, -6.1931, 4.50694, 59.6694, -6.15634, -77.8809, 2.75348
5.592, 6, -6.24426, 4.58941, 59.6322, -6.20343, -77.9827, 2.77058
5.596, 6, -6.29533, 4.67186, 59.5948, -6.25041, -78.0842, 2.78759
5.6, 6, -6.34633, 4.7543, 59.5573, -6.29726, -78.1857, 2.8045
5.604, 6, -6.39725, 4.83672, 59.5196, -6.34399, -78.287, 2.8213
5.608, 6, -6.44809, 4.91913, 59.4818, -6.3906, -78.3882, 2.83801
5.612, 6, -6.49885, 5.00152, 59.4439, -6.43709, -78.4892, 2.85462
5.616, 6, -6.54953, 5.0839, 59.4059, -6.48347, -78.5901, 2.87114
5.62, 6, -6.60014, 5.16625, 59.3677, -6.52972, -78.6909, 2.88755
5.624, 6, -6.65066, 5.24859, 59.3294, -6.57586, -78.7915, 2.90388
5.628, 6, -6.7011, 5.33092, 59.291, -6.62187, -78.892, 2.9201
5.632, 6, -6.75147, 5.41322, 59.2525, -6.66777, -78.9923, 2.93624
5.636, 6, -6.80175, 5.4955, 59.2138, -6.71355, -79.0925, 2.95228
5.64, 6, -6.85196, 5.57777, 59.175, -6.75922, -79.1926, 2.96823
5.644, 6, -6.90209, 5.66001, 59.1361, -6.80477, -79.2925, 2.98408
5.648, 6, -6.95214, 5.74223, 59.097, -6.8502, -79.3922, 2.99985
5.652, 6, -7.00211, 5.82444, 59.0578, -6.89552, -79.4919, 3.01553
5.656, 6, -7.052, 5.90662, 59.0185, -6.94072, -79.5914, 3.03111
5.66, 6, -7.10181, 5.98878, 58.9791, -6.98581, -79.6907, 3.04661
5.664, 6, -7.15154, 6.07092, 58.9395, -7.03078, -79.7899, 3.06202
5.668, 6, -7.2012, 6.15304, 58.8998, -7.07564, -79.889, 3.07735
5.672, 6, -7.25077, 6.23513, 58.86, -7.12039, -79.9879, 3.09258
5.676, 6, -7.30027, 6.3172, 58.8201, -7.16502, -80.0867, 3.10774
5.68, 6, -7.34968, 6.39925, 58.78, -7.20954, -80.1853, 3.1228
5.684, 6, -7.39902, 6.48127, 58.7398, -7.25395, -80.2838, 3.13779
5.688, 6, -7.44828, 6.56327, 58.6995, -7.29825, -80.3821, 3.15269
5.692, 6, -7.49746, 6.64525, 58.6591, -7.34243, -80.4803, 3.1675
5.696, 6, -7.54657, 6.7272, 58.6185, -7.38651, -80.5783, 3.18224
5.7, 6, -7.59559, 6.80913, 58.5778, -7.43047, -80.6762, 3.19689
5.704, 6, -7.64453, 6.89103, 58.537, -7.47433, -80.774, 3.21147
5.708, 6, -7.6934, 6.9729, 58.4961, -7.51807, -80.8716, 3.22596
5.712, 6, -7.74219, 7.05475, 58.455, -7.5617, -80.9691, 3.24038
5.716, 6, -7.79089, 7.13657, 58.4138, -7.60523, -81.0664, 3.25471
5.72, 6, -7.83952, 7.21836, 58.3725, -7.64865, -81.1635, 3.26897
5.724, 6, -7.88807, 7.30012, 58.3311, -7.69195, -81.2605, 3.28316
5.728, 6, -7.93655, 7.38186, 58.2895, -7.73515, -81.3574, 3.29726
5.732, 6, -7.98494, 7.46357, 58.2478, -7.77825, -81.4541, 3.31129
5.736, 6, -8.03326, 7.54525, 58.206, -7.82123, -81.5507, 3.32525
5.74, 6, -8.08149, 7.6269, 58.1641, -7.86411, -81.6471, 3.33913
5.744, 6, -8.12965, 7.70852, 58.1221, -7.90689, -81.7434, 3.35294
5.748, 6, -8.17773, 7.79012, 58.0799, -7.94955, -81.8395, 3.36668
5.752, 6, -8.22573, 7.87168, 58.0376, -7.99212, -81.9355, 3.38034
5.756, 6, -8.27366, 7.95321, 57.9952, -8.03457, -82.0313, 3.39393
5.76, 6, -8.3215, 8.03471, 57.9526, -8.07692, -82.127, 3.40746
5.764, 6, -8.36927, 8.11618, 57.91, -8.11917, -82.2225, 3.42091
5.768, 6, -8.41696, 8.19762, 57.8672, -8.16132, -82.3179, 3.43429
5.772, 6, -8.46457, 8.27903, 57.8243, -8.20336, -82.4131, 3.44761
5.776, 6, -8.5121, 8.36041, 57.7812, -8.24529, -82.5081, 3.46085
5.78, 6, -8.55955, 8.44175, 57.7381, -8.28713, -82.6031, 3.47403
5.784, 6, -8.60693, 8.52306, 57.6948, -8.32886, -82.6978, 3.48714
5.788, 6, -8.65423, 8.60434, 57.6514, -8.37049, -82.7924, 3.50019
5.792, 6, -8.70145, 8.68558, 57.6079, -8.41202, -82.8869, 3.51317
5.796, 6, -8.74859, 8.76679, 57.5643, -8.45345, -82.9812, 3.52609
5.8, 6, -8.79565, 8.84797, 57.5205, -8.49477, -83.0753, 3.53894
5.804, 6, -8.84264, 8.92911, 57.4766, -8.536, -83.1693, 3.55173
5.808, 6, -8.88955, 9.01022, 57.4326, -8.57713, -83.2632, 3.56446
5.812, 6, -8.93638, 9.09129, 57.3885, -8.61815, -83.3569, 3.57712
5.816, 6, -8.98313, 9.17233, 57.3443, -8.65908, -83.4504, 3.58972
5.82, 6, -9.02981, 9.25333, 57.2999, -8.69991, -83.5438, 3.60227
5.824, 6, -9.07641, 9.3343, 57.2554, -8.74064, -83.637, 3.61475
5.828, 6, -9.12293, 9.41523, 57.2108, -8.78127, -83.7301, 3.62717
5.832, 6, -9.16937, 9.49612, 57.1661, -8.8218, -83.823, 3.63953
5.836, 6, -9.21574, 9.57698, 57.1213, -8.86224, -83.9158, 3.65184
5.84, 6, -9.26202, 9.6578, 57.0763, -8.90258, -84.0084, 3.66409
5.844, 6, -9.30823, 9.73858, 57.0313, -8.94282, -84.1009, 3.67628
5.848, 6, -9.35437, 9.81933, 56.9861, -8.98296, -84.1932, 3.68841
5.852, 6, -9.40042, 9.90004, 56.9408, -9.02302, -84.2853, 3.70049
5.856, 6, -9.4464, 9.9807, 56.8953, -9.06297, -84.3773, 3.71251
5.86, 6, -9.4923, 10.0613, 56.8498, -9.10283, -84.4691, 3.72448
5.864, 6, -9.53813, 10.1419, 56.8041, -9.14259, -84.5608, 3.73639
5.868, 6, -9.58388, 10.2225, 56.7583, -9.18226, -84.6523, 3.74825
5.872, 6, -9.62955, 10.303, 56.7124, -9.22184, -84.7437, 3.76006
5.876, 6, -9.67514, 10.3835, 56.6664, -9.26132, -84.8349, 3.77182
5.88, 6, -9.72065, 10.4639, 56.6203, -9.3007, -84.9259, 3.78352
5.884, 6, -9.76609, 10.5443, 56.574, -9.34, -85.0168, 3.79517
5.888, 6, -9.81145, 10.6246, 56.5277, -9.3792, -85.1076, 3.80677
5.892, 6, -9.85674, 10.705, 56.4812, -9.41831, -85.1981, 3.81832
5.896, 6, -9.90194, 10.7852, 56.4346, -9.45732, -85.2886, 3.82983
5.9, 6, -9.94707, 10.8655, 56.3878, -9.49625, -85.3788, 3.84128
5.904, 6, -9.99213, 10.9456, 56.341, -9.53508, -85.4689, 3.85269
5.908, 6, -10.0371, 11.0258, 56.2941, -9.57382, -85.5589, 3.86404
5.912, 6, -10.082, 11.1059, 56.247, -9.61247, -85.6487, 3.87535
