hehonglu123/ABB_Primitive_Study/execution/movel_30_car_close/curve_exe_v50_z10.csv
timestamp, cmd_num, J1, J2, J3, J4, J5, J6
0, -1, -18.2639, 27.6366, 43.2521, -16.0925, -101.723, 6.01522
0.002, -1, -18.2639, 27.6366, 43.2521, -16.0925, -101.723, 6.01522
0.006, -1, -18.2639, 27.6366, 43.2521, -16.0925, -101.723, 6.01522
0.008, -1, -18.2639, 27.6366, 43.2521, -16.0925, -101.723, 6.01522
0.011, -1, -18.2639, 27.6366, 43.2521, -16.0925, -101.723, 6.01522
0.016, -1, -18.2639, 27.6366, 43.2521, -16.0925, -101.723, 6.01522
0.02, -1, -18.2639, 27.6366, 43.2521, -16.0925, -101.723, 6.01522
0.024, -1, -18.2639, 27.6366, 43.2521, -16.0925, -101.723, 6.01522
0.028, -1, -18.2639, 27.6366, 43.2521, -16.0925, -101.723, 6.01522
0.032, -1, -18.2639, 27.6366, 43.2521, -16.0925, -101.723, 6.01522
0.036, -1, -18.2638, 27.6366, 43.2521, -16.0925, -101.723, 6.01521
0.04, -1, -18.2635, 27.6365, 43.2521, -16.0925, -101.723, 6.01521
0.044, -1, -18.2629, 27.6361, 43.2522, -16.0925, -101.723, 6.01519
0.048, -1, -18.2616, 27.6355, 43.2523, -16.0924, -101.723, 6.01513
0.052, -1, -18.2597, 27.6345, 43.2525, -16.0922, -101.723, 6.01498
0.056, -1, -18.2568, 27.6328, 43.2529, -16.0917, -101.722, 6.01465
0.06, -1, -18.2529, 27.6304, 43.2534, -16.0908, -101.722, 6.01405
0.064, -1, -18.248, 27.6272, 43.2541, -16.0893, -101.72, 6.013
0.068, -1, -18.2417, 27.6228, 43.255, -16.0867, -101.717, 6.01131
0.072, -1, -18.234, 27.6172, 43.2562, -16.0828, -101.713, 6.00873
0.076, -1, -18.2245, 27.61, 43.2576, -16.0772, -101.707, 6.00498
0.08, -1, -18.2128, 27.601, 43.2594, -16.0692, -101.699, 5.99971
0.084, -1, -18.1986, 27.5898, 43.2615, -16.0583, -101.687, 5.99254
0.088, -1, -18.1815, 27.5762, 43.2641, -16.0438, -101.672, 5.98304
0.092, -1, -18.1612, 27.5599, 43.2671, -16.025, -101.652, 5.97075
0.096, -1, -18.1376, 27.5409, 43.2706, -16.0013, -101.627, 5.95519
0.1, -1, -18.1102, 27.5187, 43.2745, -15.9717, -101.596, 5.93588
0.104, -1, -18.0789, 27.4932, 43.279, -15.9357, -101.558, 5.91234
0.108, -1, -18.0432, 27.4642, 43.2839, -15.8925, -101.512, 5.88413
0.112, -1, -18.0031, 27.4313, 43.2895, -15.8415, -101.458, 5.85084
0.116, -1, -17.9583, 27.3946, 43.2956, -15.7821, -101.396, 5.81212
0.12, -1, -17.909, 27.3541, 43.3022, -15.7139, -101.324, 5.76767
0.124, -1, -17.8551, 27.3097, 43.3093, -15.6366, -101.242, 5.71731
0.128, -1, -17.7966, 27.2615, 43.317, -15.55, -101.151, 5.66093
0.131, -1, -17.7338, 27.2095, 43.3251, -15.4542, -101.05, 5.59855
0.136, -1, -17.6665, 27.1539, 43.3336, -15.3494, -100.939, 5.53033
0.139, -1, -17.5948, 27.0946, 43.3427, -15.236, -100.82, 5.4565
0.144, -1, -17.5187, 27.0316, 43.3523, -15.1145, -100.691, 5.37741
0.148, -1, -17.4382, 26.965, 43.3624, -14.9855, -100.555, 5.29348
0.152, -1, -17.3537, 26.8951, 43.373, -14.8498, -100.412, 5.20516
0.156, -1, -17.2655, 26.822, 43.384, -14.7081, -100.262, 5.11296
0.16, -1, -17.174, 26.7461, 43.3955, -14.5613, -100.107, 5.01739
0.164, -1, -17.0794, 26.6676, 43.4075, -14.41, -99.9478, 4.91897
0.168, -1, -16.982, 26.5866, 43.4198, -14.2552, -99.7844, 4.81819
0.172, -1, -16.8819, 26.5033, 43.4325, -14.0975, -99.6179, 4.71552
0.176, -1, -16.7792, 26.418, 43.4456, -13.9375, -99.449, 4.61136
0.18, -1, -16.6742, 26.3309, 43.4591, -13.7758, -99.2783, 4.50606
0.184, -1, -16.5671, 26.2422, 43.4728, -13.6127, -99.1062, 4.39988
0.188, -1, -16.4583, 26.1522, 43.4868, -13.4486, -98.9331, 4.29303
0.192, -1, -16.3481, 26.0613, 43.501, -13.2838, -98.759, 4.18566
0.196, -1, -16.2369, 25.9697, 43.5154, -13.1183, -98.5844, 4.07787
0.2, -1, -16.1249, 25.8775, 43.5298, -12.9522, -98.4091, 3.96971
0.204, -1, -16.0124, 25.7848, 43.5443, -12.7857, -98.2334, 3.86125
0.208, -1, -15.8994, 25.6919, 43.5589, -12.6188, -98.0572, 3.75252
0.212, -1, -15.7859, 25.5986, 43.5735, -12.4514, -97.8806, 3.64353
0.216, -1, -15.6722, 25.5051, 43.5882, -12.2838, -97.7036, 3.53431
0.22, -1, -15.5582, 25.4114, 43.6029, -12.1157, -97.5263, 3.42486
0.224, -1, -15.4439, 25.3174, 43.6177, -11.9474, -97.3486, 3.3152
0.228, -1, -15.3294, 25.2233, 43.6325, -11.7787, -97.1706, 3.20533
0.232, -1, -15.2146, 25.129, 43.6473, -11.6097, -96.9922, 3.09526
0.236, -1, -15.0996, 25.0345, 43.6621, -11.4404, -96.8135, 2.985
0.24, -1, -14.9845, 24.9398, 43.677, -11.2708, -96.6345, 2.87454
0.244, -1, -14.8691, 24.845, 43.6918, -11.101, -96.4553, 2.76389
0.248, -1, -14.7535, 24.75, 43.7068, -10.9308, -96.2757, 2.65305
0.252, -1, -14.6377, 24.6548, 43.7217, -10.7604, -96.0958, 2.54203
0.256, -1, -14.5218, 24.5595, 43.7367, -10.5896, -95.9156, 2.43083
0.26, -1, -14.4056, 24.4641, 43.7517, -10.4187, -95.7351, 2.31945
0.264, -1, -14.2893, 24.3685, 43.7667, -10.2474, -95.5544, 2.2079
0.268, -1, -14.1728, 24.2727, 43.7817, -10.0759, -95.3734, 2.09618
0.272, -1, -14.0561, 24.1768, 43.7968, -9.90411, -95.1921, 1.98429
0.276, -1, -13.9393, 24.0808, 43.8118, -9.73208, -95.0105, 1.87224
0.28, -1, -13.8223, 23.9846, 43.8269, -9.55981, -94.8287, 1.76002
0.284, -1, -13.7051, 23.8883, 43.8421, -9.38729, -94.6466, 1.64765
0.288, -1, -13.5877, 23.7919, 43.8572, -9.21453, -94.4643, 1.53512
0.292, -1, -13.4703, 23.6953, 43.8724, -9.04154, -94.2817, 1.42244
0.296, -1, -13.3526, 23.5986, 43.8875, -8.86833, -94.0989, 1.30962
0.3, -1, -13.2348, 23.5018, 43.9027, -8.69489, -93.9158, 1.19665
0.304, -1, -13.1169, 23.4048, 43.918, -8.52124, -93.7325, 1.08354
0.308, -1, -12.9988, 23.3078, 43.9332, -8.34738, -93.549, 0.970291
0.312, -1, -12.8806, 23.2106, 43.9484, -8.17332, -93.3653, 0.856913
0.316, -1, -12.7623, 23.1134, 43.9637, -7.99906, -93.1814, 0.743408
0.32, -1, -12.6438, 23.016, 43.979, -7.82462, -92.9973, 0.629778
0.324, -1, -12.5252, 22.9185, 43.9943, -7.64999, -92.813, 0.51603
0.328, -1, -12.4065, 22.821, 44.0096, -7.47518, -92.6285, 0.402168
0.332, -1, -12.2877, 22.7233, 44.0249, -7.30021, -92.4438, 0.288197
0.336, -1, -12.1687, 22.6256, 44.0403, -7.12507, -92.259, 0.17412
0.34, -1, -12.0497, 22.5277, 44.0556, -6.94979, -92.074, 0.0599435
0.344, -1, -11.9305, 22.4298, 44.071, -6.77435, -91.8888, -0.0543284
0.348, -1, -11.8113, 22.3318, 44.0864, -6.59878, -91.7035, -0.168691
0.352, -1, -11.6919, 22.2337, 44.1018, -6.42308, -91.5181, -0.283138
0.356, -1, -11.5725, 22.1356, 44.1172, -6.24725, -91.3325, -0.397666
0.36, -1, -11.453, 22.0374, 44.1326, -6.07131, -91.1468, -0.51227
0.364, -1, -11.3334, 21.9391, 44.148, -5.89525, -90.961, -0.626944
0.368, -1, -11.2137, 21.8408, 44.1635, -5.7191, -90.7751, -0.741683
0.372, -1, -11.094, 21.7425, 44.1789, -5.54286, -90.5891, -0.856483
0.376, -1, -10.9742, 21.6441, 44.1944, -5.36653, -90.403, -0.971338
0.38, -1, -10.8544, 21.5456, 44.2098, -5.19012, -90.2168, -1.08624
0.384, -1, -10.7345, 21.4471, 44.2253, -5.01365, -90.0305, -1.20119
0.388, -1, -10.6145, 21.3486, 44.2407, -4.83711, -89.8442, -1.31618
0.392, -1, -10.4946, 21.25, 44.2562, -4.66052, -89.6578, -1.43121
0.396, -1, -10.3746, 21.1514, 44.2717, -4.48389, -89.4714, -1.54626
0.4, -1, -10.2545, 21.0528, 44.2872, -4.30722, -89.2849, -1.66134
0.404, -1, -10.1345, 20.9542, 44.3026, -4.13052, -89.0984, -1.77643
0.408, -1, -10.0144, 20.8556, 44.3181, -3.9538, -88.9119, -1.89154
0.412, -1, -9.89437, 20.7569, 44.3336, -3.77707, -88.7254, -2.00666
0.416, -1, -9.77429, 20.6583, 44.3491, -3.60033, -88.5388, -2.12178
0.42, -1, -9.65422, 20.5597, 44.3646, -3.42359, -88.3523, -2.2369
0.424, -1, -9.53415, 20.461, 44.38, -3.24687, -88.1658, -2.35202
0.428, -1, -9.41409, 20.3624, 44.3955, -3.07016, -87.9793, -2.46712
0.432, -1, -9.29405, 20.2638, 44.411, -2.89348, -87.7928, -2.5822
0.436, -1, -9.17403, 20.1652, 44.4265, -2.71684, -87.6064, -2.69726
0.44, -1, -9.05404, 20.0667, 44.4419, -2.54024, -87.42, -2.81229
0.444, -1, -8.93409, 19.9681, 44.4574, -2.36369, -87.2337, -2.92729
0.448, -1, -8.81417, 19.8696, 44.4729, -2.1872, -87.0474, -3.04225
0.452, -1, -8.6943, 19.7712, 44.4883, -2.01078, -86.8612, -3.15716
0.456, -1, -8.57448, 19.6727, 44.5038, -1.83444, -86.6751, -3.27203
0.46, -1, -8.45471, 19.5744, 44.5192, -1.65818, -86.489, -3.38684
0.464, -1, -8.33501, 19.476, 44.5346, -1.48201, -86.3031, -3.50159
0.468, -1, -8.21537, 19.3778, 44.5501, -1.30593, -86.1173, -3.61628
0.472, -1, -8.0958, 19.2796, 44.5655, -1.12997, -85.9315, -3.73089
0.476, -1, -7.97631, 19.1814, 44.5809, -0.954123, -85.746, -3.84544
0.48, -1, -7.8569, 19.0834, 44.5963, -0.778397, -85.5605, -3.9599
0.484, -1, -7.73757, 18.9854, 44.6116, -0.602801, -85.3752, -4.07428
0.488, -1, -7.61834, 18.8874, 44.627, -0.427343, -85.19, -4.18856
0.492, -1, -7.49921, 18.7896, 44.6424, -0.25203, -85.0049, -4.30276
0.496, -1, -7.38018, 18.6918, 44.6577, -0.076871, -84.8201, -4.41685
0.5, -1, -7.26126, 18.5942, 44.673, 0.0981278, -84.6354, -4.53084
0.504, -1, -7.14245, 18.4966, 44.6883, 0.272959, -84.4509, -4.64472
0.508, -1, -7.02375, 18.3991, 44.7036, 0.447614, -84.2665, -4.75848
0.512, -1, -6.90518, 18.3017, 44.7189, 0.622086, -84.0824, -4.87213
0.516, -1, -6.78674, 18.2045, 44.7342, 0.796369, -83.8984, -4.98565
0.52, -1, -6.66843, 18.1073, 44.7494, 0.970454, -83.7147, -5.09905
0.524, -1, -6.55026, 18.0103, 44.7647, 1.14434, -83.5312, -5.21231
0.528, -1, -6.43223, 17.9133, 44.7799, 1.31801, -83.3479, -5.32543
0.532, -1, -6.31434, 17.8165, 44.7951, 1.49146, -83.1648, -5.43841
0.536, -1, -6.19661, 17.7198, 44.8102, 1.66468, -82.982, -5.55125
0.54, -1, -6.07903, 17.6233, 44.8254, 1.83768, -82.7994, -5.66393
0.544, -1, -5.96161, 17.5269, 44.8405, 2.01044, -82.6171, -5.77646
0.548, -1, -5.84436, 17.4306, 44.8556, 2.18295, -82.435, -5.88883
0.552, -1, -5.72727, 17.3344, 44.8707, 2.35521, -82.2532, -6.00103
0.556, -1, -5.61036, 17.2384, 44.8858, 2.52721, -82.0716, -6.11307
0.56, -1, -5.49363, 17.1426, 44.9008, 2.69895, -81.8904, -6.22494
0.564, -1, -5.37708, 17.0469, 44.9159, 2.87042, -81.7094, -6.33663
0.568, -1, -5.26071, 16.9513, 44.9309, 3.04162, -81.5287, -6.44814
0.572, -1, -5.14454, 16.8559, 44.9458, 3.21253, -81.3483, -6.55947
0.576, -1, -5.02856, 16.7607, 44.9608, 3.38316, -81.1682, -6.67061
0.58, -1, -4.91278, 16.6656, 44.9757, 3.55349, -80.9885, -6.78156
0.584, -1, -4.79719, 16.5707, 44.9906, 3.72352, -80.809, -6.89231
0.588, -1, -4.68182, 16.476, 45.0055, 3.89325, -80.6299, -7.00287
0.592, -1, -4.56665, 16.3814, 45.0203, 4.06267, -80.451, -7.11322
0.596, -1, -4.4517, 16.287, 45.0351, 4.23177, -80.2726, -7.22337
0.6, -1, -4.33696, 16.1928, 45.0499, 4.40055, -80.0944, -7.33331
0.604, -1, -4.22243, 16.0988, 45.0647, 4.56901, -79.9166, -7.44304
0.608, -1, -4.10814, 16.0049, 45.0794, 4.73713, -79.7392, -7.55255
0.612, -1, -3.99406, 15.9112, 45.0941, 4.90493, -79.5621, -7.66184
0.616, -1, -3.88021, 15.8178, 45.1087, 5.07238, -79.3854, -7.77092
0.62, -1, -3.7666, 15.7245, 45.1234, 5.23949, -79.209, -7.87977
0.624, -1, -3.65322, 15.6314, 45.138, 5.40625, -79.033, -7.98839
0.628, -1, -3.54007, 15.5385, 45.1526, 5.57266, -78.8573, -8.09679
0.632, -1, -3.42716, 15.4458, 45.1671, 5.73872, -78.6821, -8.20495
0.636, -1, -3.31449, 15.3533, 45.1816, 5.90442, -78.5072, -8.31288
0.64, -1, -3.20207, 15.261, 45.1961, 6.06975, -78.3327, -8.42058
0.644, -1, -3.08989, 15.1689, 45.2106, 6.23473, -78.1586, -8.52804
0.648, -1, -2.97796, 15.077, 45.225, 6.39933, -77.9848, -8.63526
0.652, -1, -2.86628, 14.9853, 45.2394, 6.56357, -77.8115, -8.74224
0.656, -1, -2.75485, 14.8938, 45.2538, 6.72744, -77.6386, -8.84898
0.66, -1, -2.64367, 14.8025, 45.2681, 6.89093, -77.466, -8.95547
0.664, -1, -2.53275, 14.7115, 45.2824, 7.05404, -77.2939, -9.06172
0.668, -1, -2.42209, 14.6206, 45.2966, 7.21677, -77.1221, -9.16772
0.672, -1, -2.31168, 14.5299, 45.3109, 7.37913, -76.9507, -9.27347
0.676, -1, -2.20153, 14.4395, 45.3251, 7.5411, -76.7798, -9.37897
0.68, -1, -2.09164, 14.3493, 45.3392, 7.70269, -76.6092, -9.48423
0.684, -1, -1.98201, 14.2593, 45.3533, 7.86389, -76.4391, -9.58923
0.688, -1, -1.87265, 14.1695, 45.3674, 8.0247, -76.2694, -9.69398
0.692, -1, -1.76355, 14.0799, 45.3815, 8.18512, -76.1001, -9.79848
0.696, -1, -1.65471, 13.9906, 45.3955, 8.34516, -75.9312, -9.90272
0.7, -1, -1.54614, 13.9014, 45.4095, 8.5048, -75.7627, -10.0067
0.704, -1, -1.43783, 13.8125, 45.4235, 8.66405, -75.5946, -10.1104
0.708, -1, -1.3298, 13.7238, 45.4374, 8.8229, -75.4269, -10.2139
0.712, -1, -1.22203, 13.6353, 45.4513, 8.98136, -75.2597, -10.3171
0.716, -1, -1.11453, 13.5471, 45.4651, 9.13942, -75.0929, -10.4201
0.72, -1, -1.0073, 13.4591, 45.4789, 9.29708, -74.9265, -10.5228
0.724, -1, -0.900341, 13.3712, 45.4927, 9.45434, -74.7605, -10.6252
0.728, -1, -0.793652, 13.2837, 45.5065, 9.61121, -74.5949, -10.7274
0.732, -1, -0.687235, 13.1963, 45.5202, 9.76767, -74.4298, -10.8293
0.736, -1, -0.58109, 13.1091, 45.5339, 9.92374, -74.2651, -10.931
0.74, -1, -0.475218, 13.0222, 45.5475, 10.0794, -74.1008, -11.0324
0.744, -1, -0.369619, 12.9355, 45.5611, 10.2347, -73.9369, -11.1335
0.748, -1, -0.264294, 12.8491, 45.5747, 10.3895, -73.7735, -11.2344
0.752, -1, -0.159242, 12.7628, 45.5882, 10.544, -73.6105, -11.335
0.756, -1, -0.0544645, 12.6768, 45.6017, 10.698, -73.4479, -11.4353
0.76, -1, 0.0500385, 12.591, 45.6152, 10.8517, -73.2857, -11.5354
0.764, -1, 0.154267, 12.5054, 45.6286, 11.0049, -73.124, -11.6352
0.768, -1, 0.25822, 12.4201, 45.642, 11.1577, -72.9627, -11.7347
0.772, -1, 0.361898, 12.335, 45.6554, 11.3102, -72.8018, -11.834
0.776, -1, 0.465301, 12.2501, 45.6687, 11.4622, -72.6414, -11.9331
0.78, -1, 0.568428, 12.1654, 45.682, 11.6138, -72.4813, -12.0318
0.784, -1, 0.67128, 12.081, 45.6952, 11.765, -72.3218, -12.1303
0.788, -1, 0.773856, 11.9968, 45.7085, 11.9158, -72.1626, -12.2285
0.792, -1, 0.876156, 11.9128, 45.7216, 12.0662, -72.0039, -12.3265
0.796, -1, 0.978181, 11.829, 45.7348, 12.2162, -71.8456, -12.4242
0.8, -1, 1.07993, 11.7455, 45.7479, 12.3658, -71.6877, -12.5216
0.804, -1, 1.1814, 11.6622, 45.761, 12.5149, -71.5302, -12.6188
0.808, -1, 1.2826, 11.5791, 45.774, 12.6637, -71.3732, -12.7157
0.812, -1, 1.38352, 11.4963, 45.787, 12.8121, -71.2166, -12.8124
0.816, -1, 1.48417, 11.4136, 45.8, 12.96, -71.0605, -12.9087
0.82, -1, 1.58454, 11.3312, 45.8129, 13.1076, -70.9047, -13.0048
0.824, -1, 1.68464, 11.2491, 45.8258, 13.2548, -70.7494, -13.1007
0.828, -1, 1.78446, 11.1671, 45.8387, 13.4015, -70.5945, -13.1963
0.832, -1, 1.88401, 11.0854, 45.8515, 13.5478, -70.4401, -13.2916
0.836, -1, 1.98329, 11.0039, 45.8643, 13.6938, -70.2861, -13.3867
0.84, -1, 2.0823, 10.9226, 45.8771, 13.8393, -70.1325, -13.4815
0.844, -1, 2.18103, 10.8416, 45.8898, 13.9844, -69.9793, -13.576
0.848, -1, 2.27949, 10.7607, 45.9025, 14.1292, -69.8265, -13.6703
0.852, -1, 2.37768, 10.6801, 45.9151, 14.2735, -69.6742, -13.7643
0.856, -1, 2.4756, 10.5997, 45.9278, 14.4174, -69.5223, -13.858
0.86, -1, 2.57325, 10.5196, 45.9403, 14.561, -69.3708, -13.9515
0.864, -1, 2.67063, 10.4396, 45.9529, 14.7041, -69.2197, -14.0448
0.868, -1, 2.76775, 10.3599, 45.9654, 14.8469, -69.0691, -14.1378
0.872, -1, 2.8646, 10.2804, 45.9779, 14.9892, -68.9188, -14.2305
0.876, -1, 2.96118, 10.2011, 45.9903, 15.1312, -68.769, -14.323
0.88, -1, 3.0575, 10.1221, 46.0027, 15.2727, -68.6196, -14.4152
0.884, -1, 3.15355, 10.0432, 46.0151, 15.4139, -68.4706, -14.5071
0.888, -1, 3.24934, 9.96457, 46.0275, 15.5547, -68.322, -14.5988
0.892, -1, 3.34487, 9.88615, 46.0398, 15.6951, -68.1738, -14.6903
0.896, -1, 3.44014, 9.80795, 46.052, 15.8352, -68.026, -14.7815
0.9, -1, 3.53514, 9.72995, 46.0643, 15.9748, -67.8786, -14.8725
0.904, -1, 3.62989, 9.65217, 46.0765, 16.1141, -67.7316, -14.9632
0.908, -1, 3.72438, 9.5746, 46.0887, 16.253, -67.585, -15.0537
0.912, -1, 3.81862, 9.49724, 46.1008, 16.3915, -67.4389, -15.1439
0.916, -1, 3.9126, 9.42009, 46.1129, 16.5296, -67.2931, -15.2338
0.92, -1, 4.00632, 9.34315, 46.125, 16.6674, -67.1477, -15.3236
0.924, -1, 4.0998, 9.26642, 46.1371, 16.8047, -67.0027, -15.4131
0.928, -1, 4.19302, 9.18989, 46.1491, 16.9418, -66.858, -15.5023
0.932, -1, 4.28599, 9.11357, 46.161, 17.0784, -66.7138, -15.5913
0.936, -1, 4.37871, 9.03745, 46.173, 17.2147, -66.57, -15.6801
0.94, -1, 4.47118, 8.96154, 46.1849, 17.3506, -66.4265, -15.7686
0.944, -1, 4.56341, 8.88583, 46.1968, 17.4862, -66.2835, -15.8569
0.948, -1, 4.65539, 8.81032, 46.2087, 17.6214, -66.1408, -15.945
0.952, -1, 4.74712, 8.73502, 46.2205, 17.7562, -65.9985, -16.0328
0.956, -1, 4.83861, 8.65991, 46.2323, 17.8907, -65.8565, -16.1204
0.96, -1, 4.92986, 8.585, 46.244, 18.0248, -65.715, -16.2078
0.964, -1, 5.02087, 8.5103, 46.2558, 18.1585, -65.5738, -16.2949
0.968, -1, 5.11163, 8.43578, 46.2674, 18.292, -65.433, -16.3818
0.972, -1, 5.20216, 8.36147, 46.2791, 18.425, -65.2926, -16.4685
0.976, -1, 5.29245, 8.28735, 46.2907, 18.5577, -65.1525, -16.5549
0.98, -1, 5.38249, 8.21343, 46.3024, 18.6901, -65.0128, -16.6411
0.984, -1, 5.47231, 8.1397, 46.3139, 18.8221, -64.8735, -16.7271
0.988, -1, 5.56189, 8.06616, 46.3255, 18.9538, -64.7345, -16.8129
0.992, -1, 5.65123, 7.99281, 46.337, 19.0851, -64.5959, -16.8984
0.996, -1, 5.74034, 7.91966, 46.3485, 19.2161, -64.4577, -16.9837
1, -1, 5.82922, 7.84669, 46.3599, 19.3467, -64.3198, -17.0688
1.004, -1, 5.91787, 7.77392, 46.3714, 19.477, -64.1823, -17.1537
1.008, -1, 6.00629, 7.70133, 46.3827, 19.607, -64.0451, -17.2384
1.012, -1, 6.09448, 7.62894, 46.3941, 19.7366, -63.9083, -17.3228
1.016, -1, 6.18245, 7.55672, 46.4054, 19.8659, -63.7719, -17.407
1.02, -1, 6.27018, 7.4847, 46.4168, 19.9948, -63.6358, -17.491
1.024, -1, 6.35769, 7.41286, 46.428, 20.1234, -63.5, -17.5748
1.027, -1, 6.44498, 7.3412, 46.4393, 20.2517, -63.3646, -17.6584
1.032, -1, 6.53204, 7.26973, 46.4505, 20.3797, -63.2295, -17.7417
1.036, -1, 6.61888, 7.19844, 46.4617, 20.5074, -63.0948, -17.8249
1.04, -1, 6.7055, 7.12733, 46.4729, 20.6347, -62.9605, -17.9078
1.044, -1, 6.79189, 7.05641, 46.484, 20.7617, -62.8264, -17.9905
1.048, -1, 6.87807, 6.98566, 46.4951, 20.8883, -62.6927, -18.073
1.052, -1, 6.96403, 6.91509, 46.5062, 21.0147, -62.5594, -18.1553
1.055, -1, 7.04978, 6.8447, 46.5172, 21.1407, -62.4264, -18.2374
1.06, -1, 7.1353, 6.77449, 46.5283, 21.2664, -62.2937, -18.3193
1.064, -1, 7.22061, 6.70445, 46.5392, 21.3918, -62.1614, -18.401
1.068, -1, 7.30571, 6.6346, 46.5502, 21.5169, -62.0293, -18.4824
1.072, -1, 7.39059, 6.56491, 46.5611, 21.6416, -61.8977, -18.5637
1.076, -1, 7.47526, 6.4954, 46.5721, 21.7661, -61.7663, -18.6448
1.08, -1, 7.55972, 6.42607, 46.583, 21.8902, -61.6353, -18.7256
1.084, -1, 7.64397, 6.3569, 46.5938, 22.0141, -61.5046, -18.8063
1.088, -1, 7.72801, 6.28791, 46.6046, 22.1376, -61.3742, -18.8868
1.091, -1, 7.81184, 6.21909, 46.6154, 22.2608, -61.2442, -18.967
1.096, -1, 7.89547, 6.15044, 46.6262, 22.3837, -61.1144, -19.0471
1.1, -1, 7.97889, 6.08195, 46.637, 22.5063, -60.985, -19.1269
1.104, -1, 8.0621, 6.01364, 46.6477, 22.6287, -60.8559, -19.2066
1.108, -1, 8.14511, 5.94549, 46.6584, 22.7507, -60.7272, -19.2861
1.112, -1, 8.22792, 5.87751, 46.6691, 22.8724, -60.5987, -19.3654
1.116, -1, 8.31053, 5.8097, 46.6797, 22.9938, -60.4706, -19.4445
1.119, -1, 8.39293, 5.74205, 46.6903, 23.1149, -60.3427, -19.5234
1.124, -1, 8.47514, 5.67456, 46.7009, 23.2357, -60.2152, -19.6021
1.128, -1, 8.55715, 5.60723, 46.7115, 23.3563, -60.088, -19.6806
1.132, -1, 8.63896, 5.54007, 46.722, 23.4765, -59.9611, -19.7589
1.136, -1, 8.72058, 5.47307, 46.7326, 23.5965, -59.8345, -19.837
1.14, -1, 8.802, 5.40623, 46.7431, 23.7161, -59.7082, -19.915
1.144, -1, 8.88322, 5.33954, 46.7535, 23.8355, -59.5822, -19.9927
1.147, -1, 8.96426, 5.27302, 46.764, 23.9546, -59.4565, -20.0703
1.152, -1, 9.0451, 5.20665, 46.7744, 24.0735, -59.3311, -20.1477
1.156, -1, 9.12575, 5.14044, 46.7848, 24.192, -59.206, -20.2249
1.16, -1, 9.20622, 5.07438, 46.7952, 24.3103, -59.0811, -20.302
1.164, -1, 9.28649, 5.00848, 46.8055, 24.4283, -58.9566, -20.3788
1.168, -1, 9.36658, 4.94273, 46.8158, 24.546, -58.8324, -20.4555
1.172, -1, 9.44648, 4.87714, 46.8261, 24.6634, -58.7084, -20.532
1.175, -1, 9.5262, 4.81169, 46.8364, 24.7806, -58.5847, -20.6083
1.18, -1, 9.60574, 4.7464, 46.8466, 24.8975, -58.4614, -20.6845
1.184, -1, 9.68509, 4.68126, 46.8569, 25.0141, -58.3383, -20.7604
1.188, -1, 9.76426, 4.61626, 46.8671, 25.1305, -58.2155, -20.8362
1.192, -1, 9.84325, 4.55141, 46.8773, 25.2466, -58.0929, -20.9119
1.196, -1, 9.92206, 4.48671, 46.8874, 25.3624, -57.9707, -20.9873
1.2, -1, 10.0007, 4.42216, 46.8976, 25.478, -57.8487, -21.0626
1.204, -1, 10.0791, 4.35775, 46.9077, 25.5933, -57.727, -21.1377
1.208, -1, 10.1574, 4.29349, 46.9178, 25.7084, -57.6055, -21.2127
1.212, -1, 10.2355, 4.22937, 46.9278, 25.8232, -57.4844, -21.2874
1.216, -1, 10.3134, 4.16539, 46.9379, 25.9377, -57.3635, -21.3621
1.22, -1, 10.3912, 4.10156, 46.9479, 26.052, -57.2429, -21.4365
1.224, -1, 10.4688, 4.03787, 46.9579, 26.166, -57.1225, -21.5108
1.228, -1, 10.5462, 3.97432, 46.9679, 26.2798, -57.0024, -21.5849
1.232, -1, 10.6234, 3.9109, 46.9778, 26.3933, -56.8826, -21.6588
1.236, -1, 10.7005, 3.84763, 46.9878, 26.5066, -56.763, -21.7326
1.24, -1, 10.7774, 3.7845, 46.9977, 26.6197, -56.6437, -21.8063
1.244, -1, 10.8541, 3.7215, 47.0076, 26.7325, -56.5247, -21.8797
1.248, -1, 10.9307, 3.65864, 47.0174, 26.845, -56.4059, -21.953
1.252, -1, 11.0071, 3.59591, 47.0273, 26.9573, -56.2874, -22.0262
1.256, -1, 11.0834, 3.53333, 47.0371, 27.0694, -56.1691, -22.0992
1.26, -1, 11.1594, 3.47087, 47.0469, 27.1812, -56.0511, -22.172
1.264, -1, 11.2353, 3.40855, 47.0567, 27.2928, -55.9333, -22.2447
1.267, -1, 11.3111, 3.34636, 47.0665, 27.4041, -55.8158, -22.3172
1.272, -1, 11.3867, 3.28431, 47.0762, 27.5152, -55.6985, -22.3896
1.276, -1, 11.4621, 3.22238, 47.0859, 27.6261, -55.5815, -22.4618
1.28, -1, 11.5374, 3.16059, 47.0956, 27.7367, -55.4648, -22.5339
1.284, -1, 11.6125, 3.09893, 47.1053, 27.8471, -55.3482, -22.6058
1.288, -1, 11.6874, 3.0374, 47.115, 27.9573, -55.232, -22.6775
1.292, -1, 11.7622, 2.97599, 47.1246, 28.0672, -55.1159, -22.7492
1.295, -1, 11.8369, 2.91471, 47.1342, 28.1769, -55.0001, -22.8206
1.3, -1, 11.9113, 2.85357, 47.1438, 28.2864, -54.8846, -22.8919
1.304, -1, 11.9857, 2.79254, 47.1534, 28.3957, -54.7693, -22.9631
1.308, -1, 12.0598, 2.73165, 47.163, 28.5047, -54.6542, -23.0341
1.312, -1, 12.1339, 2.67088, 47.1725, 28.6135, -54.5394, -23.105
1.316, -1, 12.2077, 2.61023, 47.182, 28.7221, -54.4248, -23.1757
1.32, -1, 12.2814, 2.54971, 47.1915, 28.8304, -54.3104, -23.2463
1.324, -1, 12.355, 2.48931, 47.201, 28.9386, -54.1963, -23.3167
1.328, -1, 12.4284, 2.42904, 47.2105, 29.0465, -54.0824, -23.387
1.332, -1, 12.5017, 2.36888, 47.2199, 29.1542, -53.9687, -23.4572
1.336, -1, 12.5748, 2.30885, 47.2293, 29.2617, -53.8553, -23.5272
1.34, -1, 12.6478, 2.24894, 47.2387, 29.3689, -53.7421, -23.5971
1.344, -1, 12.7206, 2.18915, 47.2481, 29.476, -53.6291, -23.6668
1.348, -1, 12.7933, 2.12948, 47.2575, 29.5828, -53.5163, -23.7364
1.352, -1, 12.8659, 2.06993, 47.2669, 29.6895, -53.4038, -23.8058
1.356, -1, 12.9383, 2.0105, 47.2762, 29.7959, -53.2915, -23.8752
1.36, -1, 13.0105, 1.95118, 47.2855, 29.9021, -53.1794, -23.9443
1.364, -1, 13.0826, 1.89199, 47.2948, 30.0081, -53.0675, -24.0134
1.368, -1, 13.1546, 1.83291, 47.3041, 30.1138, -52.9559, -24.0823
1.372, -1, 13.2264, 1.77394, 47.3133, 30.2194, -52.8445, -24.151
1.376, -1, 13.2981, 1.71509, 47.3226, 30.3248, -52.7333, -24.2197
1.38, -1, 13.3696, 1.65636, 47.3318, 30.4299, -52.6223, -24.2882
1.384, -1, 13.441, 1.59774, 47.341, 30.5349, -52.5115, -24.3565
1.388, -1, 13.5123, 1.53923, 47.3502, 30.6396, -52.4009, -24.4248
1.392, -1, 13.5834, 1.48084, 47.3593, 30.7442, -52.2906, -24.4929
1.396, -1, 13.6544, 1.42256, 47.3685, 30.8485, -52.1805, -24.5608
1.4, -1, 13.7253, 1.36439, 47.3776, 30.9527, -52.0705, -24.6287
1.404, -1, 13.796, 1.30634, 47.3867, 31.0566, -51.9608, -24.6964
1.408, -1, 13.8666, 1.24839, 47.3958, 31.1604, -51.8513, -24.764
1.412, -1, 13.937, 1.19055, 47.4049, 31.2639, -51.742, -24.8314
1.416, -1, 14.0074, 1.13283, 47.414, 31.3673, -51.633, -24.8987
1.42, -1, 14.0775, 1.07521, 47.423, 31.4704, -51.5241, -24.9659
1.424, -1, 14.1476, 1.0177, 47.4321, 31.5734, -51.4154, -25.033
1.428, -1, 14.2175, 0.960302, 47.4411, 31.6762, -51.307, -25.0999
1.432, -1, 14.2873, 0.903009, 47.4501, 31.7788, -51.1987, -25.1668
1.436, -1, 14.357, 0.845822, 47.459, 31.8811, -51.0906, -25.2334
1.44, -1, 14.4265, 0.788742, 47.468, 31.9833, -50.9828, -25.3
1.444, -1, 14.4959, 0.731767, 47.4769, 32.0854, -50.8751, -25.3665
1.448, -1, 14.5652, 0.674897, 47.4859, 32.1872, -50.7676, -25.4328
1.452, -1, 14.6343, 0.618132, 47.4948, 32.2888, -50.6604, -25.499
1.456, -1, 14.7033, 0.56147, 47.5037, 32.3903, -50.5533, -25.5651
1.46, -1, 14.7722, 0.504912, 47.5126, 32.4915, -50.4464, -25.631
1.464, -1, 14.841, 0.448456, 47.5214, 32.5926, -50.3397, -25.6969
1.468, -1, 14.9096, 0.392102, 47.5303, 32.6935, -50.2333, -25.7626
1.472, -1, 14.9782, 0.33585, 47.5391, 32.7942, -50.127, -25.8282
1.476, -1, 15.0466, 0.279699, 47.5479, 32.8947, -50.0208, -25.8937
1.48, -1, 15.1148, 0.223648, 47.5567, 32.9951, -49.9149, -25.959
1.484, -1, 15.183, 0.167697, 47.5655, 33.0953, -49.8092, -26.0243
1.488, -1, 15.251, 0.111846, 47.5743, 33.1953, -49.7037, -26.0894
1.492, -1, 15.3189, 0.056093, 47.583, 33.2951, -49.5983, -26.1545
1.496, -1, 15.3867, 0.000438437, 47.5918, 33.3947, -49.4931, -26.2194
1.5, -1, 15.4544, -0.0551184, 47.6005, 33.4942, -49.3881, -26.2842
1.504, -1, 15.522, -0.110578, 47.6092, 33.5935, -49.2833, -26.3488
1.508, -1, 15.5894, -0.165941, 47.6179, 33.6926, -49.1787, -26.4134
1.512, -1, 15.6567, -0.221208, 47.6266, 33.7916, -49.0743, -26.4779
1.516, -1, 15.7239, -0.276379, 47.6352, 33.8904, -48.97, -26.5422
1.52, -1, 15.791, -0.331455, 47.6439, 33.989, -48.866, -26.6064
1.524, -1, 15.858, -0.386436, 47.6525, 34.0874, -48.7621, -26.6706
1.528, -1, 15.9248, -0.441323, 47.6611, 34.1857, -48.6583, -26.7346
1.532, -1, 15.9916, -0.496117, 47.6697, 34.2838, -48.5548, -26.7985
1.536, -1, 16.0582, -0.550817, 47.6783, 34.3817, -48.4514, -26.8623
1.54, -1, 16.1247, -0.605425, 47.6869, 34.4795, -48.3482, -26.926
1.544, -1, 16.1911, -0.65994, 47.6955, 34.5771, -48.2452, -26.9895
1.548, -1, 16.2574, -0.714364, 47.704, 34.6746, -48.1424, -27.053
1.552, -1, 16.3236, -0.768696, 47.7125, 34.7718, -48.0397, -27.1164
1.556, -1, 16.3897, -0.822938, 47.7211, 34.869, -47.9372, -27.1796
1.56, -1, 16.4556, -0.87709, 47.7295, 34.9659, -47.8349, -27.2428
1.564, -1, 16.5215, -0.931151, 47.738, 35.0627, -47.7327, -27.3058
1.568, -1, 16.5872, -0.985123, 47.7465, 35.1593, -47.6307, -27.3688
1.572, -1, 16.6529, -1.03901, 47.755, 35.2558, -47.5289, -27.4316
1.576, -1, 16.7184, -1.0928, 47.7634, 35.3521, -47.4272, -27.4944
1.58, -1, 16.7838, -1.14651, 47.7719, 35.4483, -47.3258, -27.557
1.584, -1, 16.8491, -1.20013, 47.7803, 35.5443, -47.2244, -27.6195
1.588, -1, 16.9143, -1.25366, 47.7887, 35.6401, -47.1233, -27.682
1.592, -1, 16.9794, -1.3071, 47.7971, 35.7358, -47.0223, -27.7443
1.596, -1, 17.0444, -1.36046, 47.8054, 35.8314, -46.9214, -27.8065
1.6, -1, 17.1093, -1.41374, 47.8138, 35.9268, -46.8208, -27.8687
1.604, -1, 17.1741, -1.46692, 47.8222, 36.022, -46.7203, -27.9307
1.608, -1, 17.2388, -1.52003, 47.8305, 36.1171, -46.6199, -27.9926
1.612, -1, 17.3034, -1.57304, 47.8388, 36.212, -46.5197, -28.0544
1.616, -1, 17.3678, -1.62598, 47.8471, 36.3068, -46.4197, -28.1162
1.62, -1, 17.4322, -1.67883, 47.8554, 36.4014, -46.3198, -28.1778
1.624, -1, 17.4965, -1.73159, 47.8637, 36.4959, -46.2201, -28.2394
1.628, -1, 17.5607, -1.78428, 47.872, 36.5902, -46.1206, -28.3008
1.632, -1, 17.6247, -1.83688, 47.8802, 36.6844, -46.0212, -28.3621
1.636, -1, 17.6887, -1.8894, 47.8885, 36.7784, -45.9219, -28.4234
1.64, -1, 17.7526, -1.94183, 47.8967, 36.8723, -45.8228, -28.4846
1.644, -1, 17.8163, -1.99419, 47.9049, 36.966, -45.7239, -28.5456
1.648, -1, 17.88, -2.04646, 47.9132, 37.0596, -45.6251, -28.6066
1.652, -1, 17.9436, -2.09866, 47.9213, 37.1531, -45.5265, -28.6674
1.656, -1, 18.0071, -2.15077, 47.9295, 37.2464, -45.428, -28.7282
1.66, -1, 18.0704, -2.2028, 47.9377, 37.3396, -45.3297, -28.7889
1.664, -1, 18.1337, -2.25476, 47.9459, 37.4326, -45.2315, -28.8495
1.668, -1, 18.1969, -2.30663, 47.954, 37.5255, -45.1335, -28.91
1.672, -1, 18.26, -2.35843, 47.9621, 37.6182, -45.0356, -28.9704
1.676, -1, 18.323, -2.41015, 47.9703, 37.7108, -44.9378, -29.0307
1.68, -1, 18.3859, -2.46179, 47.9784, 37.8033, -44.8403, -29.091
1.684, -1, 18.4487, -2.51335, 47.9865, 37.8956, -44.7428, -29.1511
1.688, -1, 18.5114, -2.56483, 47.9945, 37.9878, -44.6455, -29.2111
1.692, -1, 18.574, -2.61624, 48.0026, 38.0798, -44.5484, -29.2711
1.696, -1, 18.6366, -2.66757, 48.0107, 38.1717, -44.4514, -29.331
1.7, -1, 18.699, -2.71883, 48.0187, 38.2635, -44.3545, -29.3907
1.704, -1, 18.7613, -2.77001, 48.0268, 38.3551, -44.2578, -29.4504
1.708, -1, 18.8236, -2.82111, 48.0348, 38.4466, -44.1612, -29.51
1.712, -1, 18.8857, -2.87214, 48.0428, 38.538, -44.0648, -29.5695
1.716, -1, 18.9478, -2.92309, 48.0508, 38.6292, -43.9685, -29.629
1.72, -1, 19.0098, -2.97397, 48.0588, 38.7203, -43.8724, -29.6883
1.724, -1, 19.0716, -3.02477, 48.0668, 38.8113, -43.7764, -29.7476
1.728, -1, 19.1334, -3.07551, 48.0747, 38.9021, -43.6805, -29.8067
1.732, -1, 19.1951, -3.12616, 48.0827, 38.9928, -43.5848, -29.8658
1.736, -1, 19.2567, -3.17675, 48.0906, 39.0834, -43.4892, -29.9248
1.74, -1, 19.3183, -3.22726, 48.0985, 39.1738, -43.3937, -29.9837
1.744, -1, 19.3797, -3.2777, 48.1065, 39.2642, -43.2984, -30.0425
1.748, -1, 19.441, -3.32806, 48.1144, 39.3543, -43.2032, -30.1013
1.752, -1, 19.5023, -3.37836, 48.1223, 39.4444, -43.1082, -30.1599
1.756, -1, 19.5635, -3.42858, 48.1302, 39.5343, -43.0133, -30.2185
1.76, -1, 19.6246, -3.47873, 48.138, 39.6241, -42.9185, -30.277
1.764, -1, 19.6856, -3.52881, 48.1459, 39.7138, -42.8239, -30.3354
1.768, -1, 19.7465, -3.57882, 48.1538, 39.8033, -42.7294, -30.3937
1.772, -1, 19.8073, -3.62876, 48.1616, 39.8927, -42.635, -30.452
1.776, -1, 19.868, -3.67863, 48.1694, 39.982, -42.5407, -30.5101
1.78, -1, 19.9287, -3.72844, 48.1772, 40.0712, -42.4466, -30.5682
1.784, -1, 19.9893, -3.77817, 48.185, 40.1602, -42.3526, -30.6262
1.788, -1, 20.0498, -3.82783, 48.1928, 40.2492, -42.2588, -30.6841
1.792, -1, 20.1102, -3.87743, 48.2006, 40.338, -42.1651, -30.742
1.796, -1, 20.1705, -3.92695, 48.2084, 40.4266, -42.0715, -30.7997
1.8, -1, 20.2307, -3.97641, 48.2162, 40.5152, -41.978, -30.8574
1.804, -1, 20.2909, -4.0258, 48.2239, 40.6036, -41.8847, -30.915
1.808, -1, 20.351, -4.07513, 48.2317, 40.6919, -41.7915, -30.9726
1.812, -1, 20.411, -4.12438, 48.2394, 40.7801, -41.6984, -31.03
1.816, -1, 20.4709, -4.17357, 48.2471, 40.8682, -41.6054, -31.0874
1.82, -1, 20.5307, -4.2227, 48.2548, 40.9562, -41.5126, -31.1447
1.824, -1, 20.5905, -4.27176, 48.2625, 41.044, -41.4199, -31.2019
1.828, -1, 20.6501, -4.32075, 48.2702, 41.1317, -41.3273, -31.259
1.832, -1, 20.7097, -4.36968, 48.2779, 41.2193, -41.2348, -31.3161
1.836, -1, 20.7692, -4.41854, 48.2856, 41.3068, -41.1425, -31.3731
1.84, -1, 20.8287, -4.46734, 48.2933, 41.3942, -41.0503, -31.43
1.844, -1, 20.888, -4.51607, 48.3009, 41.4815, -40.9582, -31.4868
1.848, -1, 20.9473, -4.56474, 48.3085, 41.5686, -40.8662, -31.5436
1.852, -1, 21.0065, -4.61335, 48.3162, 41.6556, -40.7744, -31.6003
1.856, -1, 21.0656, -4.66189, 48.3238, 41.7425, -40.6826, -31.6569
1.86, -1, 21.1247, -4.71037, 48.3314, 41.8293, -40.591, -31.7134
1.864, -1, 21.1837, -4.75878, 48.339, 41.916, -40.4995, -31.7699
1.868, -1, 21.2425, -4.80714, 48.3466, 42.0026, -40.4082, -31.8263
1.872, -1, 21.3014, -4.85543, 48.3542, 42.0891, -40.3169, -31.8826
1.876, -1, 21.3601, -4.90366, 48.3618, 42.1754, -40.2258, -31.9389
1.88, -1, 21.4188, -4.95183, 48.3693, 42.2617, -40.1347, -31.995
1.884, -1, 21.4774, -4.99993, 48.3769, 42.3478, -40.0438, -32.0511
1.888, -1, 21.5359, -5.04798, 48.3844, 42.4338, -39.953, -32.1072
1.892, -1, 21.5943, -5.09596, 48.392, 42.5197, -39.8624, -32.1631
1.896, -1, 21.6527, -5.14388, 48.3995, 42.6055, -39.7718, -32.219
1.9, -1, 21.711, -5.19174, 48.407, 42.6912, -39.6814, -32.2749
1.904, -1, 21.7692, -5.23955, 48.4145, 42.7768, -39.591, -32.3306
1.908, -1, 21.8274, -5.28729, 48.422, 42.8623, -39.5008, -32.3863
1.912, -1, 21.8854, -5.33497, 48.4295, 42.9477, -39.4107, -32.4419
1.916, -1, 21.9434, -5.38259, 48.437, 43.033, -39.3207, -32.4974
1.92, -1, 22.0014, -5.43016, 48.4444, 43.1181, -39.2308, -32.5529
1.924, -1, 22.0592, -5.47766, 48.4519, 43.2032, -39.141, -32.6083
1.928, -1, 22.117, -5.52511, 48.4593, 43.2881, -39.0514, -32.6637
1.932, -1, 22.1747, -5.5725, 48.4668, 43.373, -38.9618, -32.7189
1.936, -1, 22.2324, -5.61983, 48.4742, 43.4577, -38.8724, -32.7741
1.94, -1, 22.2899, -5.6671, 48.4816, 43.5424, -38.783, -32.8293
1.944, -1, 22.3475, -5.71431, 48.489, 43.6269, -38.6938, -32.8843
1.948, -1, 22.4049, -5.76147, 48.4965, 43.7113, -38.6047, -32.9393
1.952, -1, 22.4623, -5.80857, 48.5038, 43.7957, -38.5157, -32.9943
1.956, -1, 22.5196, -5.85562, 48.5112, 43.8799, -38.4268, -33.0491
1.96, -1, 22.5768, -5.9026, 48.5186, 43.9641, -38.338, -33.1039
1.964, -1, 22.6339, -5.94953, 48.526, 44.0481, -38.2493, -33.1587
1.968, -1, 22.691, -5.99641, 48.5333, 44.132, -38.1607, -33.2133
1.972, -1, 22.7481, -6.04323, 48.5407, 44.2158, -38.0723, -33.2679
1.976, -1, 22.805, -6.08999, 48.548, 44.2996, -37.9839, -33.3225
1.98, -1, 22.8619, -6.1367, 48.5554, 44.3832, -37.8956, -33.3769
1.984, -1, 22.9187, -6.18335, 48.5627, 44.4667, -37.8075, -33.4314
1.988, -1, 22.9755, -6.22995, 48.57, 44.5502, -37.7194, -33.4857
1.992, -1, 23.0322, -6.27649, 48.5773, 44.6335, -37.6315, -33.54
1.996, -1, 23.0888, -6.32298, 48.5846, 44.7167, -37.5436, -33.5942
1.999, -1, 23.1453, -6.36941, 48.5919, 44.7999, -37.4558, -33.6484
2.004, -1, 23.2018, -6.41579, 48.5992, 44.8829, -37.3682, -33.7024
2.008, -1, 23.2582, -6.46212, 48.6065, 44.9659, -37.2807, -33.7565
2.012, -1, 23.3146, -6.50839, 48.6137, 45.0487, -37.1932, -33.8104
2.015, -1, 23.3709, -6.55461, 48.621, 45.1315, -37.1059, -33.8643
2.019, -1, 23.4271, -6.60077, 48.6282, 45.2141, -37.0186, -33.9182
2.024, -1, 23.4833, -6.64688, 48.6355, 45.2967, -36.9315, -33.972
2.028, -1, 23.5394, -6.69295, 48.6427, 45.3792, -36.8444, -34.0257
2.031, -1, 23.5954, -6.73895, 48.6499, 45.4616, -36.7575, -34.0794
2.036, -1, 23.6514, -6.78491, 48.6571, 45.5438, -36.6707, -34.1329
2.04, -1, 23.7073, -6.83081, 48.6644, 45.626, -36.5839, -34.1865
2.044, -1, 23.7631, -6.87666, 48.6716, 45.7081, -36.4973, -34.24
2.048, -1, 23.8189, -6.92246, 48.6787, 45.7901, -36.4107, -34.2934
2.051, -1, 23.8746, -6.96821, 48.6859, 45.872, -36.3243, -34.3467
2.055, -1, 23.9303, -7.0139, 48.6931, 45.9539, -36.2379, -34.4
2.06, -1, 23.9859, -7.05955, 48.7003, 46.0356, -36.1516, -34.4533
2.064, -1, 24.0414, -7.10514, 48.7074, 46.1172, -36.0655, -34.5064
2.068, -1, 24.0969, -7.15069, 48.7146, 46.1988, -35.9794, -34.5596
2.071, -1, 24.1523, -7.19618, 48.7217, 46.2802, -35.8934, -34.6126
2.076, -1, 24.2076, -7.24163, 48.7289, 46.3616, -35.8076, -34.6656
2.08, -1, 24.2629, -7.28702, 48.736, 46.4429, -35.7218, -34.7186
2.084, -1, 24.3181, -7.33237, 48.7431, 46.5241, -35.6361, -34.7714
2.087, -1, 24.3733, -7.37766, 48.7502, 46.6052, -35.5505, -34.8243
2.092, -1, 24.4284, -7.4229, 48.7573, 46.6862, -35.465, -34.877
2.096, -1, 24.4834, -7.46805, 48.7644, 46.7671, -35.3796, -34.9298
2.1, -1, 24.5381, -7.51304, 48.7715, 46.8479, -35.2943, -34.9824
2.104, -1, 24.5925, -7.55778, 48.7785, 46.9286, -35.2091, -35.035
2.107, -1, 24.6463, -7.60215, 48.7855, 47.0092, -35.1241, -35.0874
2.111, -1, 24.6995, -7.646, 48.7924, 47.0894, -35.0394, -35.1397
2.116, -1, 24.7518, -7.6892, 48.7992, 47.1693, -34.9551, -35.1918
2.12, -1, 24.8033, -7.73159, 48.8058, 47.2487, -34.8714, -35.2435
2.124, -1, 24.8536, -7.77304, 48.8124, 47.3271, -34.7887, -35.2946
2.127, -1, 24.9027, -7.81342, 48.8187, 47.4045, -34.7071, -35.345
2.132, -1, 24.9505, -7.85258, 48.8249, 47.4803, -34.6271, -35.3944
2.136, -1, 24.9968, -7.89035, 48.8309, 47.5542, -34.5492, -35.4426
2.14, -1, 25.0412, -7.92654, 48.8366, 47.6257, -34.4738, -35.4892
2.143, -1, 25.0837, -7.96099, 48.8421, 47.6943, -34.4014, -35.5339
2.148, -1, 25.124, -7.99357, 48.8472, 47.7596, -34.3326, -35.5764
2.152, -1, 25.162, -8.02426, 48.8521, 47.8209, -34.2679, -35.6164
2.156, -1, 25.1976, -8.05308, 48.8566, 47.878, -34.2078, -35.6536
2.16, -1, 25.2309, -8.08004, 48.8609, 47.9303, -34.1526, -35.6877
2.163, -1, 25.2618, -8.10518, 48.8649, 47.9776, -34.1027, -35.7185
2.168, -1, 25.2902, -8.12851, 48.8685, 48.0198, -34.0582, -35.746
2.172, -1, 25.3162, -8.15, 48.8719, 48.0568, -34.0191, -35.7701
2.176, -1, 25.3397, -8.16957, 48.8749, 48.0887, -33.9854, -35.7909
2.179, -1, 25.3607, -8.18717, 48.8776, 48.1157, -33.9568, -35.8084
2.184, -1, 25.3793, -8.20276, 48.88, 48.1382, -33.9331, -35.8231
2.188, -1, 25.3955, -8.21643, 48.8821, 48.1565, -33.9137, -35.835
2.192, -1, 25.4095, -8.22829, 48.884, 48.1711, -33.8982, -35.8445
2.196, -1, 25.4217, -8.23847, 48.8855, 48.1825, -33.8861, -35.8518
2.199, -1, 25.4321, -8.24707, 48.8868, 48.1912, -33.8769, -35.8575
2.204, -1, 25.4408, -8.2542, 48.8879, 48.1976, -33.8701, -35.8616
2.208, -1, 25.4481, -8.25997, 48.8888, 48.2022, -33.8651, -35.8646
2.212, -1, 25.4538, -8.26449, 48.8894, 48.2055, -33.8616, -35.8667
2.216, 2, 25.4583, -8.26791, 48.8899, 48.2078, -33.8592, -35.8682
2.219, 2, 25.4616, -8.2704, 48.8903, 48.2093, -33.8575, -35.8692
2.224, 2, 25.464, -8.27214, 48.8906, 48.2104, -33.8563, -35.8699
2.228, 2, 25.4656, -8.27333, 48.8908, 48.2111, -33.8556, -35.8703
2.232, 2, 25.4667, -8.27414, 48.8909, 48.2116, -33.855, -35.8707
2.235, 2, 25.4674, -8.27469, 48.891, 48.2119, -33.8547, -35.8709
2.24, 2, 25.4679, -8.27506, 48.891, 48.2121, -33.8545, -35.871
2.244, 2, 25.4683, -8.27531, 48.8911, 48.2123, -33.8543, -35.8711
2.248, 2, 25.4685, -8.27548, 48.8911, 48.2124, -33.8542, -35.8712
2.252, 2, 25.4687, -8.2756, 48.8911, 48.2125, -33.8541, -35.8712
2.255, 2, 25.4688, -8.27567, 48.8911, 48.2125, -33.854, -35.8712
2.259, 2, 25.4688, -8.27573, 48.8911, 48.2125, -33.854, -35.8713
2.264, 2, 25.4689, -8.27576, 48.8911, 48.2126, -33.854, -35.8713
2.268, 2, 25.4689, -8.27579, 48.8911, 48.2126, -33.854, -35.8713
2.272, 2, 25.4689, -8.2758, 48.8911, 48.2126, -33.854, -35.8713
2.275, 2, 25.469, -8.27582, 48.8911, 48.2126, -33.854, -35.8713
2.28, 2, 25.469, -8.27582, 48.8911, 48.2126, -33.854, -35.8713
2.284, 2, 25.469, -8.27583, 48.8911, 48.2126, -33.854, -35.8713
2.288, 2, 25.469, -8.27583, 48.8911, 48.2126, -33.854, -35.8713
2.291, 2, 25.469, -8.27583, 48.8911, 48.2126, -33.8539, -35.8713
2.296, 2, 25.469, -8.27584, 48.8911, 48.2126, -33.8539, -35.8713
2.3, 2, 25.469, -8.27584, 48.8911, 48.2126, -33.8539, -35.8713
2.304, 2, 25.469, -8.27584, 48.8911, 48.2126, -33.8539, -35.8713
2.308, 2, 25.469, -8.27584, 48.8911, 48.2126, -33.8539, -35.8713
2.311, 2, 25.469, -8.27584, 48.8911, 48.2126, -33.8539, -35.8713
2.316, 2, 25.469, -8.27584, 48.8911, 48.2126, -33.8539, -35.8713
2.32, 2, 25.469, -8.27584, 48.8911, 48.2126, -33.8539, -35.8713
2.324, 2, 25.469, -8.27584, 48.8911, 48.2126, -33.8539, -35.8713
2.328, 2, 25.469, -8.27584, 48.8911, 48.2126, -33.8539, -35.8713
2.331, 2, 25.469, -8.27584, 48.8911, 48.2126, -33.8539, -35.8713
2.336, 2, 25.469, -8.27584, 48.8911, 48.2126, -33.8539, -35.8713
2.34, 2, 25.469, -8.27584, 48.8911, 48.2126, -33.8539, -35.8713
2.344, 2, 25.469, -8.27584, 48.8911, 48.2126, -33.8539, -35.8713
2.347, 2, 25.469, -8.27584, 48.8911, 48.2126, -33.8539, -35.8713
2.352, 2, 25.469, -8.27584, 48.8911, 48.2126, -33.8539, -35.8713
2.356, 2, 25.469, -8.27584, 48.8911, 48.2126, -33.8539, -35.8713
2.36, 2, 25.469, -8.27584, 48.8911, 48.2126, -33.8539, -35.8713
2.364, 2, 25.469, -8.27584, 48.8911, 48.2126, -33.8539, -35.8713
2.367, 2, 25.469, -8.27584, 48.8911, 48.2126, -33.8539, -35.8713
2.372, 2, 25.469, -8.27584, 48.8911, 48.2126, -33.8539, -35.8713
2.376, 2, 25.469, -8.27584, 48.8911, 48.2126, -33.8539, -35.8713
2.38, 2, 25.469, -8.27584, 48.8911, 48.2126, -33.8539, -35.8713
2.383, 2, 25.469, -8.27584, 48.8911, 48.2126, -33.8539, -35.8713
2.388, 2, 25.469, -8.27584, 48.8911, 48.2126, -33.8539, -35.8713
2.392, 2, 25.469, -8.27584, 48.8911, 48.2126, -33.8539, -35.8713
2.396, 2, 25.469, -8.27584, 48.8911, 48.2126, -33.8539, -35.8713
2.4, 2, 25.469, -8.27584, 48.8911, 48.2126, -33.8539, -35.8713
2.403, 2, 25.469, -8.27584, 48.8911, 48.2126, -33.8539, -35.8713
2.408, 2, 25.469, -8.27584, 48.8911, 48.2126, -33.8539, -35.8713
2.412, 2, 25.469, -8.27584, 48.8911, 48.2126, -33.8539, -35.8713
2.416, 2, 25.469, -8.27584, 48.8911, 48.2126, -33.8539, -35.8713
2.42, 2, 25.469, -8.27584, 48.8911, 48.2126, -33.8539, -35.8713
2.423, 2, 25.469, -8.27584, 48.8911, 48.2126, -33.8539, -35.8713
2.428, 2, 25.469, -8.27584, 48.8911, 48.2126, -33.8539, -35.8713
2.432, 2, 25.469, -8.27584, 48.8911, 48.2126, -33.8539, -35.8713
2.436, 2, 25.469, -8.27584, 48.8911, 48.2126, -33.8539, -35.8713
2.439, 2, 25.469, -8.27584, 48.8911, 48.2126, -33.8539, -35.8713
2.444, 2, 25.469, -8.27584, 48.8911, 48.2126, -33.8539, -35.8713
2.448, 2, 25.469, -8.27584, 48.8911, 48.2126, -33.8539, -35.8713
2.452, 2, 25.469, -8.27584, 48.8911, 48.2126, -33.8539, -35.8713
2.456, 2, 25.469, -8.27584, 48.8911, 48.2126, -33.8539, -35.8713
2.459, 2, 25.469, -8.27584, 48.8911, 48.2126, -33.8539, -35.8713
2.464, 2, 25.469, -8.27584, 48.8911, 48.2126, -33.8539, -35.8713
2.468, 2, 25.469, -8.27584, 48.8911, 48.2126, -33.8539, -35.8713
2.472, 2, 25.469, -8.27584, 48.8911, 48.2126, -33.8539, -35.8713
2.476, 2, 25.469, -8.27584, 48.8911, 48.2126, -33.8539, -35.8713
2.479, 2, 25.469, -8.27584, 48.8911, 48.2126, -33.8539, -35.8713
2.484, 2, 25.469, -8.27584, 48.8911, 48.2126, -33.8539, -35.8713
2.488, 2, 25.469, -8.27584, 48.8911, 48.2126, -33.8539, -35.8713
2.492, 2, 25.469, -8.27584, 48.8911, 48.2126, -33.8539, -35.8713
2.495, 2, 25.469, -8.27584, 48.8911, 48.2126, -33.8539, -35.8713
2.5, 2, 25.469, -8.27584, 48.8911, 48.2126, -33.8539, -35.8713
2.504, 2, 25.469, -8.27584, 48.8911, 48.2126, -33.8539, -35.8713
2.508, 2, 25.469, -8.27584, 48.8911, 48.2126, -33.8539, -35.8713
2.512, 2, 25.469, -8.27584, 48.8911, 48.2126, -33.8539, -35.8713
2.515, 2, 25.469, -8.27584, 48.8911, 48.2126, -33.8539, -35.8713
2.52, 2, 25.469, -8.27584, 48.8911, 48.2126, -33.8539, -35.8713
2.524, 2, 25.469, -8.27584, 48.8911, 48.2126, -33.8539, -35.8713
2.528, 2, 25.469, -8.27584, 48.8911, 48.2126, -33.8539, -35.8713
2.531, 2, 25.469, -8.27584, 48.8911, 48.2126, -33.8539, -35.8713
2.536, 2, 25.469, -8.27584, 48.8911, 48.2126, -33.8539, -35.8713
2.54, 2, 25.469, -8.27584, 48.8911, 48.2126, -33.8539, -35.8713
2.544, 2, 25.469, -8.27584, 48.8911, 48.2126, -33.8539, -35.8713
2.548, 2, 25.469, -8.27584, 48.8911, 48.2126, -33.8539, -35.8713
2.551, 2, 25.469, -8.27584, 48.8911, 48.2126, -33.8539, -35.8713
2.556, 2, 25.469, -8.27584, 48.8911, 48.2126, -33.8539, -35.8713
2.56, 2, 25.469, -8.27584, 48.8911, 48.2126, -33.8539, -35.8713
2.564, 2, 25.469, -8.27584, 48.8911, 48.2126, -33.8539, -35.8713
2.568, 2, 25.469, -8.27584, 48.8911, 48.2126, -33.8539, -35.8713
2.571, 2, 25.469, -8.27584, 48.8911, 48.2126, -33.8539, -35.8713
2.576, 2, 25.469, -8.27584, 48.8911, 48.2126, -33.8539, -35.8713
2.58, 2, 25.469, -8.27584, 48.8911, 48.2126, -33.8539, -35.8713
2.584, 2, 25.469, -8.27584, 48.8911, 48.2126, -33.8539, -35.8713
2.587, 2, 25.469, -8.27584, 48.8911, 48.2126, -33.8539, -35.8713
2.592, 2, 25.469, -8.27584, 48.8911, 48.2126, -33.8539, -35.8713
2.596, 2, 25.469, -8.27584, 48.8911, 48.2126, -33.8539, -35.8713
2.6, 2, 25.469, -8.27584, 48.8911, 48.2126, -33.8539, -35.8713
2.604, 2, 25.469, -8.27584, 48.8911, 48.2126, -33.8539, -35.8713
2.607, 2, 25.469, -8.27584, 48.8911, 48.2126, -33.8539, -35.8713
2.612, 2, 25.469, -8.27584, 48.8911, 48.2126, -33.8539, -35.8713
2.616, 2, 25.469, -8.27584, 48.8911, 48.2126, -33.8539, -35.8713
2.62, 2, 25.469, -8.27584, 48.8911, 48.2126, -33.8539, -35.8713
2.624, 2, 25.469, -8.27584, 48.8911, 48.2126, -33.8539, -35.8713
2.627, 2, 25.469, -8.27584, 48.8911, 48.2126, -33.8539, -35.8713
2.632, 2, 25.469, -8.27584, 48.8911, 48.2126, -33.8539, -35.8713
2.636, 2, 25.469, -8.27584, 48.8911, 48.2126, -33.8539, -35.8713
2.64, 2, 25.469, -8.27584, 48.8911, 48.2126, -33.8539, -35.8713
2.643, 2, 25.469, -8.27584, 48.8911, 48.2126, -33.8539, -35.8713
2.648, 2, 25.469, -8.27584, 48.8911, 48.2126, -33.8539, -35.8713
2.652, 2, 25.469, -8.27584, 48.8911, 48.2126, -33.8539, -35.8713
2.656, 2, 25.469, -8.27584, 48.8911, 48.2126, -33.8539, -35.8713
2.66, 2, 25.469, -8.27584, 48.8911, 48.2126, -33.8539, -35.8713
2.663, 2, 25.469, -8.27584, 48.8911, 48.2126, -33.8539, -35.8713
2.668, 2, 25.469, -8.27584, 48.8911, 48.2126, -33.8539, -35.8713
2.672, 2, 25.469, -8.27584, 48.8911, 48.2126, -33.8539, -35.8713
2.676, 2, 25.469, -8.27584, 48.8911, 48.2126, -33.8539, -35.8713
2.679, 2, 25.469, -8.27584, 48.8911, 48.2126, -33.8539, -35.8713
2.684, 2, 25.469, -8.27584, 48.8911, 48.2126, -33.8539, -35.8713
2.688, 2, 25.469, -8.27584, 48.8911, 48.2126, -33.8539, -35.8713
2.692, 2, 25.469, -8.27584, 48.8911, 48.2126, -33.8539, -35.8713
2.696, 2, 25.469, -8.27584, 48.8911, 48.2126, -33.8539, -35.8713
2.699, 2, 25.469, -8.27584, 48.8911, 48.2126, -33.8539, -35.8713
2.704, 2, 25.469, -8.27584, 48.8911, 48.2126, -33.8539, -35.8713
2.708, 2, 25.469, -8.27584, 48.8911, 48.2126, -33.8539, -35.8713
2.712, 2, 25.469, -8.27584, 48.8911, 48.2126, -33.8539, -35.8713
2.716, 2, 25.469, -8.27584, 48.8911, 48.2126, -33.8539, -35.8713
2.719, 2, 25.469, -8.27584, 48.8911, 48.2126, -33.8539, -35.8713
2.724, 2, 25.469, -8.27584, 48.8911, 48.2126, -33.8539, -35.8713
2.728, 2, 25.469, -8.27584, 48.8911, 48.2126, -33.8539, -35.8713
2.732, 2, 25.469, -8.27584, 48.8911, 48.2126, -33.8539, -35.8713
2.735, 2, 25.469, -8.27584, 48.8911, 48.2126, -33.8539, -35.8713
2.74, 2, 25.469, -8.27584, 48.8911, 48.2126, -33.8539, -35.8713
2.744, 2, 25.469, -8.27584, 48.8911, 48.2126, -33.8539, -35.8713
2.748, 2, 25.469, -8.27584, 48.8911, 48.2126, -33.8539, -35.8713
2.752, 2, 25.469, -8.27584, 48.8911, 48.2126, -33.8539, -35.8713
2.755, 2, 25.469, -8.27584, 48.8911, 48.2126, -33.8539, -35.8713
2.76, 2, 25.469, -8.27584, 48.8911, 48.2126, -33.8539, -35.8713
2.764, 2, 25.469, -8.27584, 48.8911, 48.2126, -33.8539, -35.8713
2.768, 2, 25.469, -8.27584, 48.8911, 48.2126, -33.8539, -35.8713
2.772, 2, 25.469, -8.27584, 48.8911, 48.2126, -33.8539, -35.8713
2.775, 2, 25.469, -8.27584, 48.8911, 48.2126, -33.8539, -35.8713
2.78, 2, 25.469, -8.27584, 48.8911, 48.2126, -33.8539, -35.8713
2.784, 2, 25.469, -8.27584, 48.8911, 48.2126, -33.8539, -35.8713
2.788, 2, 25.469, -8.27584, 48.8911, 48.2126, -33.8539, -35.8713
2.791, 2, 25.469, -8.27584, 48.8911, 48.2126, -33.8539, -35.8713
2.796, 2, 25.469, -8.27584, 48.8911, 48.2126, -33.8539, -35.8713
2.8, 2, 25.469, -8.27584, 48.8911, 48.2126, -33.8539, -35.8713
2.804, 2, 25.469, -8.27584, 48.8911, 48.2126, -33.8539, -35.8713
2.808, 2, 25.469, -8.27584, 48.8911, 48.2126, -33.8539, -35.8713
2.811, 2, 25.469, -8.27584, 48.8911, 48.2126, -33.8539, -35.8713
2.816, 2, 25.469, -8.27584, 48.8911, 48.2126, -33.8539, -35.8713
2.82, 2, 25.469, -8.27584, 48.8911, 48.2126, -33.8539, -35.8713
2.824, 2, 25.469, -8.27584, 48.8911, 48.2126, -33.8539, -35.8713
2.828, 2, 25.469, -8.27584, 48.8911, 48.2126, -33.8539, -35.8713
2.831, 2, 25.469, -8.27584, 48.8911, 48.2126, -33.8539, -35.8713
2.836, 2, 25.469, -8.27584, 48.8911, 48.2126, -33.8539, -35.8713
2.84, 2, 25.469, -8.27584, 48.8911, 48.2126, -33.8539, -35.8713
2.844, 2, 25.469, -8.27584, 48.8911, 48.2126, -33.8539, -35.8713
2.847, 2, 25.469, -8.27584, 48.8911, 48.2126, -33.8539, -35.8713
2.852, 2, 25.469, -8.27584, 48.8911, 48.2126, -33.8539, -35.8713
2.856, 2, 25.469, -8.27584, 48.8911, 48.2126, -33.8539, -35.8713
2.86, 2, 25.469, -8.27584, 48.8911, 48.2126, -33.8539, -35.8713
2.864, 2, 25.469, -8.27584, 48.8911, 48.2126, -33.8539, -35.8713
2.867, 2, 25.469, -8.27584, 48.8911, 48.2126, -33.8539, -35.8713
2.872, 2, 25.469, -8.27584, 48.8911, 48.2126, -33.8539, -35.8713
2.876, 2, 25.469, -8.27584, 48.8911, 48.2126, -33.8539, -35.8713
2.88, 2, 25.469, -8.27584, 48.8911, 48.2126, -33.8539, -35.8713
2.883, 2, 25.469, -8.27584, 48.8911, 48.2126, -33.8539, -35.8713
2.888, 2, 25.469, -8.27584, 48.8911, 48.2126, -33.8539, -35.8713
2.892, 2, 25.469, -8.27584, 48.8911, 48.2126, -33.8539, -35.8713
2.896, 2, 25.469, -8.27584, 48.8911, 48.2126, -33.8539, -35.8713
2.9, 2, 25.469, -8.27584, 48.8911, 48.2126, -33.8539, -35.8713
2.903, 2, 25.469, -8.27584, 48.8911, 48.2126, -33.8539, -35.8713
2.908, 2, 25.469, -8.27584, 48.8911, 48.2126, -33.8539, -35.8713
2.912, 2, 25.469, -8.27584, 48.8911, 48.2126, -33.8539, -35.8713
2.916, 2, 25.469, -8.27584, 48.8911, 48.2126, -33.8539, -35.8713
2.92, 2, 25.469, -8.27584, 48.8911, 48.2126, -33.8539, -35.8713
2.923, 2, 25.469, -8.27584, 48.8911, 48.2126, -33.8539, -35.8713
2.928, 2, 25.469, -8.27584, 48.8911, 48.2126, -33.8539, -35.8713
2.932, 2, 25.469, -8.27584, 48.8911, 48.2126, -33.8539, -35.8713
2.936, 2, 25.469, -8.27584, 48.8911, 48.2126, -33.8539, -35.8713
2.939, 2, 25.469, -8.27584, 48.8911, 48.2126, -33.8539, -35.8713
2.944, 2, 25.469, -8.27584, 48.8911, 48.2126, -33.8539, -35.8713
2.948, 2, 25.469, -8.27584, 48.8911, 48.2126, -33.8539, -35.8713
2.952, 2, 25.469, -8.27584, 48.8911, 48.2126, -33.8539, -35.8713
2.956, 2, 25.469, -8.27584, 48.8911, 48.2126, -33.8539, -35.8713
2.959, 2, 25.469, -8.27584, 48.8911, 48.2126, -33.8539, -35.8713
2.964, 2, 25.469, -8.27584, 48.8911, 48.2126, -33.8539, -35.8713
2.968, 2, 25.469, -8.27584, 48.8911, 48.2126, -33.8539, -35.8713
2.972, 2, 25.469, -8.27584, 48.8911, 48.2126, -33.8539, -35.8713
2.976, 2, 25.469, -8.27584, 48.8911, 48.2126, -33.8539, -35.8713
2.98, 2, 25.469, -8.27584, 48.8911, 48.2126, -33.8539, -35.8713
2.984, 2, 25.469, -8.27584, 48.8911, 48.2126, -33.8539, -35.8713
2.988, 2, 25.469, -8.27584, 48.8911, 48.2126, -33.8539, -35.8713
2.992, 2, 25.469, -8.27584, 48.8911, 48.2126, -33.8539, -35.8713
2.995, 2, 25.469, -8.27584, 48.8911, 48.2126, -33.8539, -35.8713
3, 2, 25.469, -8.27584, 48.8911, 48.2126, -33.8539, -35.8713
3.004, 2, 25.469, -8.27584, 48.8911, 48.2126, -33.8539, -35.8713
3.008, 2, 25.469, -8.27584, 48.8911, 48.2126, -33.8539, -35.8713
3.012, 2, 25.469, -8.27584, 48.8911, 48.2126, -33.8539, -35.8713
3.015, 2, 25.469, -8.27584, 48.8911, 48.2126, -33.8539, -35.8713
3.02, 2, 25.469, -8.27584, 48.8911, 48.2126, -33.8539, -35.8713
3.024, 2, 25.469, -8.27584, 48.8911, 48.2126, -33.8539, -35.8713
3.028, 2, 25.469, -8.27584, 48.8911, 48.2126, -33.8539, -35.8713
3.031, 2, 25.469, -8.27584, 48.8911, 48.2126, -33.8539, -35.8713
3.036, 2, 25.469, -8.27584, 48.8911, 48.2126, -33.8539, -35.8713
3.04, 2, 25.469, -8.27584, 48.8911, 48.2126, -33.8539, -35.8713
3.044, 2, 25.469, -8.27584, 48.8911, 48.2126, -33.8539, -35.8713
3.048, 2, 25.469, -8.27584, 48.8911, 48.2126, -33.8539, -35.8713
3.051, 2, 25.469, -8.27584, 48.8911, 48.2126, -33.8539, -35.8713
3.056, 2, 25.469, -8.27584, 48.8911, 48.2126, -33.8539, -35.8713
3.06, 2, 25.469, -8.27584, 48.8911, 48.2126, -33.8539, -35.8713
3.064, 2, 25.469, -8.27584, 48.8911, 48.2126, -33.8539, -35.8713
3.068, 2, 25.469, -8.27584, 48.8911, 48.2126, -33.8539, -35.8713
3.071, 2, 25.469, -8.27584, 48.8911, 48.2126, -33.8539, -35.8713
3.076, 2, 25.469, -8.27584, 48.8911, 48.2126, -33.8539, -35.8713
3.08, 2, 25.469, -8.27584, 48.8911, 48.2126, -33.8539, -35.8713
3.084, 2, 25.469, -8.27584, 48.8911, 48.2126, -33.8539, -35.8713
3.087, 2, 25.469, -8.27584, 48.8911, 48.2126, -33.8539, -35.8713
3.092, 2, 25.469, -8.27584, 48.8911, 48.2126, -33.8539, -35.8713
3.096, 2, 25.469, -8.27584, 48.8911, 48.2126, -33.8539, -35.8713
3.1, 2, 25.469, -8.27584, 48.8911, 48.2126, -33.8539, -35.8713
3.104, 2, 25.469, -8.27584, 48.8911, 48.2126, -33.8539, -35.8713
3.107, 2, 25.469, -8.27584, 48.8911, 48.2126, -33.8539, -35.8713
3.112, 2, 25.469, -8.27584, 48.8911, 48.2126, -33.8539, -35.8713
3.116, 2, 25.469, -8.27584, 48.8911, 48.2126, -33.8539, -35.8713
3.12, 2, 25.469, -8.27584, 48.8911, 48.2126, -33.8539, -35.8713
3.124, 2, 25.469, -8.27584, 48.8911, 48.2126, -33.8539, -35.8713
3.128, 2, 25.469, -8.27584, 48.8911, 48.2126, -33.8539, -35.8713
3.132, 2, 25.469, -8.27584, 48.8911, 48.2126, -33.8539, -35.8713
3.136, 2, 25.469, -8.27584, 48.8911, 48.2126, -33.8539, -35.8713
3.14, 2, 25.469, -8.27584, 48.8911, 48.2126, -33.8539, -35.8713
3.143, 2, 25.469, -8.27584, 48.8911, 48.2126, -33.8539, -35.8713
3.148, 2, 25.469, -8.27584, 48.8911, 48.2126, -33.8539, -35.8713
3.152, 2, 25.469, -8.27584, 48.8911, 48.2126, -33.8539, -35.8713
3.156, 2, 25.469, -8.27584, 48.8911, 48.2126, -33.8539, -35.8713
3.16, 2, 25.469, -8.27584, 48.8911, 48.2126, -33.8539, -35.8713
3.163, 2, 25.469, -8.27584, 48.8911, 48.2126, -33.8539, -35.8713
3.168, 2, 25.469, -8.27584, 48.8911, 48.2126, -33.8539, -35.8713
3.172, 2, 25.469, -8.27584, 48.8911, 48.2126, -33.8539, -35.8713
3.176, 2, 25.469, -8.27584, 48.8911, 48.2126, -33.8539, -35.8713
3.179, 2, 25.469, -8.27584, 48.8911, 48.2126, -33.8539, -35.8713
3.184, 2, 25.469, -8.27584, 48.8911, 48.2126, -33.8539, -35.8713
3.188, 2, 25.469, -8.27584, 48.8911, 48.2126, -33.8539, -35.8713
3.192, 2, 25.469, -8.27584, 48.8911, 48.2126, -33.8539, -35.8713
3.196, 2, 25.469, -8.27584, 48.8911, 48.2126, -33.8539, -35.8713
3.199, 2, 25.469, -8.27584, 48.8911, 48.2126, -33.8539, -35.8713
3.204, 2, 25.469, -8.27584, 48.8911, 48.2126, -33.8539, -35.8713
3.208, 2, 25.469, -8.27584, 48.8911, 48.2126, -33.8539, -35.8713
3.212, 2, 25.469, -8.27584, 48.8911, 48.2126, -33.8539, -35.8713
3.216, 2, 25.469, -8.27584, 48.8911, 48.2126, -33.8539, -35.8713
3.22, 2, 25.469, -8.27584, 48.8911, 48.2126, -33.8539, -35.8713
3.224, 2, 25.469, -8.27584, 48.8911, 48.2126, -33.8539, -35.8713
3.228, 2, 25.469, -8.27584, 48.8911, 48.2126, -33.8539, -35.8713
3.232, 2, 25.469, -8.27584, 48.8911, 48.2126, -33.8539, -35.8713
3.235, 2, 25.469, -8.27584, 48.8911, 48.2126, -33.8539, -35.8713
3.24, 2, 25.469, -8.27584, 48.8911, 48.2126, -33.8539, -35.8713
3.244, 2, 25.469, -8.27584, 48.8911, 48.2126, -33.8539, -35.8713
3.248, 2, 25.469, -8.27584, 48.8911, 48.2126, -33.8539, -35.8713
3.252, 2, 25.469, -8.27584, 48.8911, 48.2126, -33.8539, -35.8713
3.255, 2, 25.469, -8.27584, 48.8911, 48.2126, -33.8539, -35.8713
3.26, 2, 25.469, -8.27584, 48.8911, 48.2126, -33.8539, -35.8713
3.264, 2, 25.469, -8.27584, 48.8911, 48.2126, -33.8539, -35.8713
3.268, 2, 25.469, -8.27584, 48.8911, 48.2126, -33.8539, -35.8713
3.272, 2, 25.469, -8.27584, 48.8911, 48.2126, -33.8539, -35.8713
3.276, 2, 25.469, -8.27584, 48.8911, 48.2126, -33.8539, -35.8713
3.28, 2, 25.469, -8.27584, 48.8911, 48.2126, -33.8539, -35.8713
3.284, 2, 25.469, -8.27584, 48.8911, 48.2126, -33.8539, -35.8713
3.288, 2, 25.469, -8.27584, 48.8911, 48.2126, -33.8539, -35.8713
3.291, 4, 25.469, -8.27584, 48.8911, 48.2126, -33.8539, -35.8713
3.296, 4, 25.469, -8.27584, 48.8911, 48.2126, -33.8539, -35.8713
3.3, 4, 25.469, -8.27584, 48.8911, 48.2126, -33.8539, -35.8713
3.304, 4, 25.469, -8.27584, 48.8911, 48.2126, -33.8539, -35.8713
3.308, 4, 25.469, -8.27584, 48.8911, 48.2126, -33.8539, -35.8713
3.312, 4, 25.469, -8.27584, 48.8911, 48.2126, -33.8539, -35.8713
3.316, 4, 25.469, -8.27584, 48.8911, 48.2126, -33.8539, -35.8713
3.32, 4, 25.469, -8.27584, 48.8911, 48.2126, -33.8539, -35.8713
3.324, 4, 25.469, -8.27584, 48.8911, 48.2126, -33.8539, -35.8713
3.328, 4, 25.469, -8.27584, 48.8911, 48.2126, -33.8539, -35.8713
3.332, 4, 25.469, -8.27584, 48.8911, 48.2126, -33.8539, -35.8713
3.336, 4, 25.469, -8.27584, 48.8911, 48.2126, -33.8539, -35.8713
3.34, 4, 25.469, -8.27584, 48.8911, 48.2126, -33.8539, -35.8713
3.344, 4, 25.469, -8.27584, 48.8911, 48.2126, -33.8539, -35.8713
3.347, 4, 25.469, -8.27584, 48.8911, 48.2126, -33.8539, -35.8713
3.352, 4, 25.469, -8.27584, 48.8911, 48.2126, -33.8539, -35.8713
3.356, 4, 25.469, -8.27584, 48.8911, 48.2126, -33.8539, -35.8713
3.36, 4, 25.469, -8.27584, 48.8911, 48.2126, -33.8539, -35.8713
3.364, 4, 25.469, -8.27584, 48.8911, 48.2126, -33.8539, -35.8713
3.368, 4, 25.469, -8.27584, 48.8911, 48.2126, -33.8539, -35.8713
3.372, 4, 25.469, -8.27584, 48.8911, 48.2126, -33.8539, -35.8713
3.376, 4, 25.469, -8.27584, 48.8911, 48.2126, -33.8539, -35.8713
3.38, 4, 25.469, -8.27584, 48.8911, 48.2126, -33.8539, -35.8713
3.383, 4, 25.469, -8.27584, 48.8911, 48.2126, -33.8539, -35.8713
3.388, 4, 25.469, -8.27584, 48.8911, 48.2126, -33.8539, -35.8713
3.392, 4, 25.469, -8.27584, 48.8911, 48.2126, -33.8539, -35.8713
3.396, 4, 25.469, -8.27584, 48.8911, 48.2126, -33.8539, -35.8713
3.4, 4, 25.469, -8.27584, 48.8911, 48.2126, -33.8539, -35.8713
3.403, 4, 25.469, -8.27584, 48.8911, 48.2126, -33.8539, -35.8713
3.408, 4, 25.469, -8.27584, 48.8911, 48.2126, -33.8539, -35.8713
3.412, 4, 25.469, -8.27584, 48.8911, 48.2126, -33.8539, -35.8713
3.416, 4, 25.469, -8.27584, 48.8911, 48.2126, -33.8539, -35.8713
3.42, 4, 25.469, -8.27584, 48.8911, 48.2126, -33.8539, -35.8713
3.424, 4, 25.469, -8.27584, 48.8911, 48.2126, -33.8539, -35.8713
3.428, 4, 25.469, -8.27584, 48.8911, 48.2126, -33.8539, -35.8713
3.432, 4, 25.469, -8.27584, 48.8911, 48.2126, -33.8539, -35.8713
3.436, 4, 25.469, -8.27584, 48.8911, 48.2126, -33.8539, -35.8713
3.439, 4, 25.4689, -8.27586, 48.8911, 48.2126, -33.8539, -35.8713
3.444, 4, 25.4687, -8.27591, 48.8912, 48.2126, -33.854, -35.8713
3.448, 4, 25.4682, -8.27603, 48.8913, 48.2125, -33.854, -35.8712
3.452, 4, 25.4673, -8.27625, 48.8915, 48.2122, -33.8541, -35.871
3.456, 4, 25.4661, -8.27659, 48.8919, 48.2116, -33.8542, -35.8705
3.46, 4, 25.4645, -8.27706, 48.8925, 48.2105, -33.8545, -35.8696
3.464, 4, 25.4626, -8.27766, 48.8934, 48.2085, -33.855, -35.8679
3.468, 4, 25.4604, -8.2784, 48.8946, 48.2055, -33.8557, -35.8654
3.472, 4, 25.4579, -8.27928, 48.8963, 48.201, -33.8568, -35.8617
3.476, 4, 25.4553, -8.28031, 48.8984, 48.195, -33.8582, -35.8567
3.48, 4, 25.4523, -8.28152, 48.9012, 48.1872, -33.86, -35.8501
3.484, 5, 25.4489, -8.28294, 48.9045, 48.1774, -33.8624, -35.842
3.488, 5, 25.4451, -8.28459, 48.9085, 48.1656, -33.8651, -35.8321
3.492, 5, 25.4409, -8.28645, 48.9131, 48.1517, -33.8684, -35.8205
3.495, 5, 25.4364, -8.28852, 48.9184, 48.1357, -33.8722, -35.8072
3.5, 5, 25.4316, -8.29077, 48.9243, 48.1178, -33.8764, -35.7922
3.504, 5, 25.4265, -8.29319, 48.9307, 48.0979, -33.8811, -35.7756
3.508, 5, 25.4212, -8.29578, 48.9377, 48.0764, -33.8861, -35.7577
3.512, 5, 25.4155, -8.29852, 48.9451, 48.0535, -33.8915, -35.7386
3.516, 5, 25.4095, -8.30142, 48.9529, 48.0295, -33.8972, -35.7185
3.52, 5, 25.4031, -8.30448, 48.961, 48.0046, -33.9031, -35.6977
3.524, 5, 25.3963, -8.30768, 48.9694, 47.9791, -33.9091, -35.6764
3.528, 5, 25.3891, -8.311, 48.9779, 47.9532, -33.9153, -35.6548
3.531, 5, 25.3815, -8.31441, 48.9866, 47.927, -33.9215, -35.6329
3.536, 5, 25.3738, -8.31788, 48.9954, 47.9005, -33.9278, -35.6109
3.54, 5, 25.366, -8.32138, 49.0042, 47.874, -33.9341, -35.5887
3.544, 5, 25.358, -8.32491, 49.013, 47.8473, -33.9404, -35.5665
3.548, 5, 25.35, -8.32846, 49.0219, 47.8206, -33.9468, -35.5442
3.552, 5, 25.3419, -8.33202, 49.0308, 47.7939, -33.9532, -35.5219
3.556, 5, 25.3338, -8.33558, 49.0398, 47.7672, -33.9596, -35.4996
3.56, 5, 25.3257, -8.33914, 49.0487, 47.7404, -33.966, -35.4772
3.564, 5, 25.3176, -8.34271, 49.0576, 47.7136, -33.9724, -35.4549
3.568, 5, 25.3094, -8.34628, 49.0665, 47.6868, -33.9788, -35.4326
3.572, 5, 25.3013, -8.34984, 49.0755, 47.66, -33.9852, -35.4102
3.576, 5, 25.2931, -8.3534, 49.0844, 47.6332, -33.9917, -35.3879
3.58, 5, 25.2849, -8.35697, 49.0933, 47.6065, -33.9981, -35.3655
3.584, 5, 25.2768, -8.36053, 49.1023, 47.5797, -34.0046, -35.3432
3.587, 5, 25.2686, -8.36408, 49.1112, 47.5529, -34.011, -35.3209
3.592, 5, 25.2604, -8.36763, 49.1201, 47.5261, -34.0175, -35.2986
3.596, 5, 25.2522, -8.37119, 49.129, 47.4994, -34.0239, -35.2762
3.6, 5, 25.2441, -8.37473, 49.138, 47.4726, -34.0304, -35.2539
3.604, 5, 25.2359, -8.37828, 49.1469, 47.4458, -34.0369, -35.2316
3.608, 5, 25.2277, -8.38182, 49.1558, 47.4191, -34.0433, -35.2093
3.612, 5, 25.2195, -8.38536, 49.1647, 47.3923, -34.0498, -35.187
3.616, 5, 25.2113, -8.3889, 49.1736, 47.3656, -34.0563, -35.1647
3.62, 5, 25.2031, -8.39243, 49.1825, 47.3388, -34.0628, -35.1424
3.624, 5, 25.1949, -8.39596, 49.1914, 47.3121, -34.0693, -35.1201
3.628, 5, 25.1867, -8.39949, 49.2003, 47.2854, -34.0758, -35.0979
3.632, 5, 25.1785, -8.40301, 49.2093, 47.2586, -34.0823, -35.0756
3.636, 5, 25.1703, -8.40653, 49.2182, 47.2319, -34.0889, -35.0533
3.64, 5, 25.1621, -8.41005, 49.2271, 47.2052, -34.0954, -35.0311
3.644, 5, 25.1539, -8.41357, 49.236, 47.1785, -34.1019, -35.0088
3.648, 5, 25.1457, -8.41708, 49.2448, 47.1518, -34.1085, -34.9866
3.652, 5, 25.1375, -8.42059, 49.2537, 47.1251, -34.115, -34.9643
3.656, 5, 25.1293, -8.4241, 49.2626, 47.0984, -34.1215, -34.9421
3.66, 5, 25.1211, -8.4276, 49.2715, 47.0717, -34.1281, -34.9198
3.664, 5, 25.1129, -8.4311, 49.2804, 47.045, -34.1347, -34.8976
3.668, 5, 25.1047, -8.4346, 49.2893, 47.0184, -34.1412, -34.8754
3.672, 5, 25.0965, -8.43809, 49.2982, 46.9917, -34.1478, -34.8532
3.676, 5, 25.0882, -8.44158, 49.3071, 46.965, -34.1544, -34.831
3.679, 5, 25.08, -8.44507, 49.3159, 46.9383, -34.1609, -34.8087
3.684, 5, 25.0718, -8.44855, 49.3248, 46.9117, -34.1675, -34.7865
3.688, 5, 25.0636, -8.45204, 49.3337, 46.885, -34.1741, -34.7643
3.692, 5, 25.0553, -8.45552, 49.3426, 46.8584, -34.1807, -34.7422
3.696, 5, 25.0471, -8.45899, 49.3514, 46.8317, -34.1873, -34.72
3.7, 5, 25.0389, -8.46247, 49.3603, 46.8051, -34.1939, -34.6978
3.704, 5, 25.0306, -8.46594, 49.3692, 46.7785, -34.2006, -34.6756
3.708, 5, 25.0224, -8.4694, 49.378, 46.7518, -34.2072, -34.6534
3.712, 5, 25.0142, -8.47287, 49.3869, 46.7252, -34.2138, -34.6313
3.716, 5, 25.0059, -8.47633, 49.3958, 46.6986, -34.2204, -34.6091
3.72, 5, 24.9977, -8.47979, 49.4046, 46.672, -34.2271, -34.587
3.724, 5, 24.9894, -8.48324, 49.4135, 46.6454, -34.2337, -34.5648
3.728, 5, 24.9812, -8.48669, 49.4223, 46.6188, -34.2404, -34.5427
3.732, 5, 24.9729, -8.49014, 49.4312, 46.5922, -34.247, -34.5205
3.735, 5, 24.9647, -8.49359, 49.44, 46.5656, -34.2537, -34.4984
3.74, 5, 24.9564, -8.49703, 49.4489, 46.539, -34.2603, -34.4763
3.744, 5, 24.9482, -8.50047, 49.4577, 46.5124, -34.267, -34.4542
3.748, 5, 24.9399, -8.50391, 49.4666, 46.4858, -34.2737, -34.432
3.752, 5, 24.9317, -8.50734, 49.4754, 46.4593, -34.2804, -34.4099
3.756, 5, 24.9234, -8.51077, 49.4842, 46.4327, -34.2871, -34.3878
3.76, 5, 24.9152, -8.5142, 49.4931, 46.4061, -34.2937, -34.3657
3.764, 5, 24.9069, -8.51762, 49.5019, 46.3796, -34.3004, -34.3436
3.768, 5, 24.8986, -8.52105, 49.5107, 46.353, -34.3072, -34.3215
3.772, 5, 24.8904, -8.52446, 49.5196, 46.3265, -34.3139, -34.2995
3.776, 5, 24.8821, -8.52788, 49.5284, 46.2999, -34.3206, -34.2774
3.78, 5, 24.8738, -8.53129, 49.5372, 46.2734, -34.3273, -34.2553
3.784, 5, 24.8655, -8.5347, 49.5461, 46.2469, -34.334, -34.2332
3.788, 5, 24.8573, -8.53811, 49.5549, 46.2203, -34.3408, -34.2112
3.792, 5, 24.849, -8.54151, 49.5637, 46.1938, -34.3475, -34.1891
3.796, 5, 24.8407, -8.54491, 49.5725, 46.1673, -34.3543, -34.1671
3.8, 5, 24.8324, -8.54831, 49.5813, 46.1408, -34.361, -34.145
3.804, 5, 24.8241, -8.5517, 49.5901, 46.1143, -34.3678, -34.123
3.808, 5, 24.8158, -8.55509, 49.599, 46.0878, -34.3745, -34.101
3.812, 5, 24.8075, -8.55848, 49.6078, 46.0613, -34.3813, -34.0789
3.816, 5, 24.7993, -8.56186, 49.6166, 46.0348, -34.3881, -34.0569
3.82, 5, 24.791, -8.56524, 49.6254, 46.0083, -34.3948, -34.0349
3.824, 5, 24.7827, -8.56862, 49.6342, 45.9819, -34.4016, -34.0129
3.828, 5, 24.7744, -8.572, 49.643, 45.9554, -34.4084, -33.9909
3.832, 5, 24.7661, -8.57537, 49.6518, 45.9289, -34.4152, -33.9689
3.836, 5, 24.7578, -8.57874, 49.6606, 45.9025, -34.422, -33.9469
3.84, 5, 24.7495, -8.5821, 49.6694, 45.876, -34.4288, -33.9249
3.844, 5, 24.7412, -8.58547, 49.6782, 45.8495, -34.4356, -33.9029
3.848, 5, 24.7329, -8.58883, 49.687, 45.8231, -34.4425, -33.8809
3.852, 5, 24.7245, -8.59218, 49.6957, 45.7967, -34.4493, -33.859
3.856, 5, 24.7162, -8.59554, 49.7045, 45.7702, -34.4561, -33.837
3.86, 5, 24.7079, -8.59889, 49.7133, 45.7438, -34.4629, -33.815
3.864, 5, 24.6996, -8.60223, 49.7221, 45.7174, -34.4698, -33.7931
3.868, 5, 24.6913, -8.60558, 49.7309, 45.6909, -34.4766, -33.7711
3.872, 5, 24.683, -8.60892, 49.7396, 45.6645, -34.4835, -33.7492
3.876, 5, 24.6746, -8.61226, 49.7484, 45.6381, -34.4903, -33.7273
3.88, 5, 24.6663, -8.61559, 49.7572, 45.6117, -34.4972, -33.7053
3.884, 5, 24.658, -8.61892, 49.766, 45.5853, -34.5041, -33.6834
3.888, 5, 24.6497, -8.62225, 49.7747, 45.5589, -34.511, -33.6615
3.892, 5, 24.6413, -8.62558, 49.7835, 45.5325, -34.5178, -33.6396
3.896, 5, 24.633, -8.6289, 49.7923, 45.5062, -34.5247, -33.6177
3.9, 5, 24.6247, -8.63222, 49.801, 45.4798, -34.5316, -33.5957
3.904, 5, 24.6163, -8.63553, 49.8098, 45.4534, -34.5385, -33.5739
3.908, 5, 24.608, -8.63885, 49.8185, 45.427, -34.5454, -33.552
3.912, 5, 24.5996, -8.64216, 49.8273, 45.4007, -34.5523, -33.5301
3.916, 5, 24.5913, -8.64546, 49.8361, 45.3743, -34.5593, -33.5082
3.92, 5, 24.5829, -8.64877, 49.8448, 45.348, -34.5662, -33.4863
3.924, 5, 24.5746, -8.65207, 49.8536, 45.3216, -34.5731, -33.4644
3.928, 5, 24.5663, -8.65536, 49.8623, 45.2953, -34.58, -33.4426
3.932, 5, 24.5579, -8.65866, 49.871, 45.2689, -34.587, -33.4207
3.936, 5, 24.5495, -8.66195, 49.8798, 45.2426, -34.5939, -33.3989
3.94, 5, 24.5412, -8.66524, 49.8885, 45.2163, -34.6009, -33.377
3.944, 5, 24.5328, -8.66852, 49.8973, 45.19, -34.6078, -33.3552
3.948, 5, 24.5245, -8.6718, 49.906, 45.1637, -34.6148, -33.3333
3.952, 5, 24.5161, -8.67508, 49.9147, 45.1374, -34.6218, -33.3115
3.956, 5, 24.5077, -8.67836, 49.9235, 45.111, -34.6287, -33.2897
3.96, 5, 24.4994, -8.68163, 49.9322, 45.0848, -34.6357, -33.2679
3.964, 5, 24.491, -8.6849, 49.9409, 45.0585, -34.6427, -33.246
3.968, 5, 24.4826, -8.68817, 49.9497, 45.0322, -34.6497, -33.2242
3.972, 5, 24.4743, -8.69143, 49.9584, 45.0059, -34.6567, -33.2024
3.976, 5, 24.4659, -8.69469, 49.9671, 44.9796, -34.6637, -33.1806
3.98, 5, 24.4575, -8.69795, 49.9758, 44.9533, -34.6707, -33.1588
3.984, 5, 24.4491, -8.7012, 49.9845, 44.9271, -34.6777, -33.1371
3.988, 5, 24.4408, -8.70445, 49.9932, 44.9008, -34.6847, -33.1153
3.992, 5, 24.4324, -8.7077, 50.002, 44.8746, -34.6917, -33.0935
3.996, 5, 24.424, -8.71095, 50.0107, 44.8483, -34.6988, -33.0717
3.999, 5, 24.4156, -8.71419, 50.0194, 44.8221, -34.7058, -33.05
4.004, 5, 24.4072, -8.71743, 50.0281, 44.7958, -34.7128, -33.0282
4.008, 5, 24.3988, -8.72066, 50.0368, 44.7696, -34.7199, -33.0065
4.012, 5, 24.3904, -8.7239, 50.0455, 44.7434, -34.7269, -32.9847
4.016, 5, 24.382, -8.72712, 50.0542, 44.7171, -34.734, -32.963
4.02, 5, 24.3736, -8.73035, 50.0629, 44.6909, -34.7411, -32.9412
4.024, 5, 24.3652, -8.73357, 50.0716, 44.6647, -34.7481, -32.9195
4.028, 5, 24.3568, -8.73679, 50.0803, 44.6385, -34.7552, -32.8978
4.032, 5, 24.3484, -8.74001, 50.089, 44.6123, -34.7623, -32.8761
4.036, 5, 24.34, -8.74322, 50.0977, 44.5861, -34.7694, -32.8543
4.04, 5, 24.3316, -8.74643, 50.1063, 44.5599, -34.7765, -32.8326
4.044, 5, 24.3232, -8.74964, 50.115, 44.5337, -34.7835, -32.8109
4.048, 5, 24.3148, -8.75285, 50.1237, 44.5076, -34.7906, -32.7892
4.052, 5, 24.3064, -8.75605, 50.1324, 44.4814, -34.7978, -32.7676
4.056, 5, 24.298, -8.75925, 50.1411, 44.4552, -34.8049, -32.7459
4.06, 5, 24.2896, -8.76244, 50.1497, 44.429, -34.812, -32.7242
4.064, 5, 24.2811, -8.76563, 50.1584, 44.4029, -34.8191, -32.7025
4.068, 5, 24.2727, -8.76882, 50.1671, 44.3767, -34.8262, -32.6809
4.072, 5, 24.2643, -8.77201, 50.1758, 44.3506, -34.8334, -32.6592
4.076, 5, 24.2559, -8.77519, 50.1844, 44.3244, -34.8405, -32.6375
4.08, 5, 24.2474, -8.77837, 50.1931, 44.2983, -34.8477, -32.6159
4.084, 5, 24.239, -8.78154, 50.2018, 44.2722, -34.8548, -32.5942
4.088, 5, 24.2306, -8.78472, 50.2104, 44.2461, -34.862, -32.5726
4.092, 5, 24.2222, -8.78789, 50.2191, 44.2199, -34.8691, -32.551
4.096, 5, 24.2137, -8.79105, 50.2277, 44.1938, -34.8763, -32.5293
4.1, 5, 24.2053, -8.79422, 50.2364, 44.1677, -34.8835, -32.5077
4.104, 5, 24.1968, -8.79738, 50.245, 44.1416, -34.8907, -32.4861
4.108, 5, 24.1884, -8.80053, 50.2537, 44.1155, -34.8979, -32.4645
4.112, 5, 24.18, -8.80369, 50.2623, 44.0894, -34.9051, -32.4429
4.116, 5, 24.1715, -8.80684, 50.271, 44.0633, -34.9123, -32.4213
4.12, 5, 24.1631, -8.80999, 50.2796, 44.0372, -34.9195, -32.3997
4.124, 5, 24.1546, -8.81313, 50.2883, 44.0112, -34.9267, -32.3781
4.128, 5, 24.1462, -8.81627, 50.2969, 43.9851, -34.9339, -32.3565
4.132, 5, 24.1377, -8.81941, 50.3056, 43.959, -34.9411, -32.335
4.136, 5, 24.1292, -8.82254, 50.3142, 43.933, -34.9483, -32.3134
4.14, 5, 24.1208, -8.82567, 50.3228, 43.9069, -34.9556, -32.2918
4.144, 5, 24.1123, -8.8288, 50.3315, 43.8809, -34.9628, -32.2703
4.148, 5, 24.1039, -8.83193, 50.3401, 43.8548, -34.97, -32.2487
4.152, 5, 24.0954, -8.83505, 50.3487, 43.8288, -34.9773, -32.2272
4.156, 5, 24.0869, -8.83817, 50.3573, 43.8028, -34.9845, -32.2056
4.16, 5, 24.0785, -8.84128, 50.366, 43.7767, -34.9918, -32.1841
4.164, 5, 24.07, -8.8444, 50.3746, 43.7507, -34.9991, -32.1626
4.168, 5, 24.0615, -8.84751, 50.3832, 43.7247, -35.0063, -32.1411
4.172, 5, 24.053, -8.85061, 50.3918, 43.6987, -35.0136, -32.1195
4.176, 5, 24.0446, -8.85372, 50.4004, 43.6727, -35.0209, -32.098
4.18, 5, 24.0361, -8.85682, 50.409, 43.6467, -35.0282, -32.0765
4.184, 5, 24.0276, -8.85991, 50.4176, 43.6207, -35.0355, -32.055
4.188, 5, 24.0191, -8.86301, 50.4263, 43.5947, -35.0428, -32.0335
4.192, 5, 24.0106, -8.8661, 50.4349, 43.5687, -35.0501, -32.012
4.196, 5, 24.0022, -8.86918, 50.4435, 43.5427, -35.0574, -31.9906
4.2, 5, 23.9937, -8.87227, 50.4521, 43.5168, -35.0647, -31.9691
4.204, 5, 23.9852, -8.87535, 50.4607, 43.4908, -35.072, -31.9476
4.208, 5, 23.9767, -8.87842, 50.4693, 43.4648, -35.0794, -31.9262
4.212, 5, 23.9682, -8.8815, 50.4778, 43.4389, -35.0867, -31.9047
4.216, 5, 23.9597, -8.88457, 50.4864, 43.4129, -35.0941, -31.8832
4.22, 5, 23.9512, -8.88764, 50.495, 43.387, -35.1014, -31.8618
4.224, 5, 23.9427, -8.8907, 50.5036, 43.361, -35.1087, -31.8404
4.228, 5, 23.9342, -8.89376, 50.5122, 43.3351, -35.1161, -31.8189
4.232, 5, 23.9257, -8.89682, 50.5208, 43.3092, -35.1235, -31.7975
4.236, 5, 23.9172, -8.89987, 50.5294, 43.2833, -35.1308, -31.7761
4.24, 5, 23.9087, -8.90292, 50.5379, 43.2573, -35.1382, -31.7546
4.244, 5, 23.9001, -8.90597, 50.5465, 43.2314, -35.1456, -31.7332
4.248, 5, 23.8916, -8.90902, 50.5551, 43.2055, -35.153, -31.7118
4.252, 5, 23.8831, -8.91206, 50.5637, 43.1796, -35.1604, -31.6904
4.256, 5, 23.8746, -8.9151, 50.5722, 43.1537, -35.1678, -31.669
4.26, 5, 23.8661, -8.91813, 50.5808, 43.1278, -35.1752, -31.6477
4.264, 5, 23.8576, -8.92117, 50.5894, 43.102, -35.1826, -31.6263
4.268, 5, 23.849, -8.92419, 50.5979, 43.0761, -35.19, -31.6049
4.272, 5, 23.8405, -8.92722, 50.6065, 43.0502, -35.1974, -31.5835
4.276, 5, 23.832, -8.93024, 50.615, 43.0243, -35.2048, -31.5622
4.28, 5, 23.8234, -8.93326, 50.6236, 42.9985, -35.2123, -31.5408
4.284, 5, 23.8149, -8.93628, 50.6322, 42.9726, -35.2197, -31.5194
4.288, 5, 23.8064, -8.93929, 50.6407, 42.9468, -35.2271, -31.4981
4.292, 5, 23.7978, -8.9423, 50.6493, 42.9209, -35.2346, -31.4768
4.296, 5, 23.7893, -8.9453, 50.6578, 42.8951, -35.242, -31.4554
4.3, 5, 23.7808, -8.94831, 50.6664, 42.8693, -35.2495, -31.4341
4.304, 5, 23.7722, -8.95131, 50.6749, 42.8434, -35.257, -31.4128
4.308, 5, 23.7637, -8.9543, 50.6834, 42.8176, -35.2644, -31.3915
4.312, 5, 23.7551, -8.95729, 50.692, 42.7918, -35.2719, -31.3701
4.316, 5, 23.7466, -8.96029, 50.7005, 42.766, -35.2794, -31.3488
4.32, 5, 23.738, -8.96327, 50.709, 42.7402, -35.2869, -31.3275
4.324, 5, 23.7295, -8.96625, 50.7176, 42.7144, -35.2944, -31.3062
4.328, 5, 23.7209, -8.96923, 50.7261, 42.6886, -35.3019, -31.285
4.332, 5, 23.7124, -8.97221, 50.7346, 42.6628, -35.3094, -31.2637
4.336, 5, 23.7038, -8.97518, 50.7432, 42.637, -35.3169, -31.2424
4.34, 5, 23.6952, -8.97815, 50.7517, 42.6113, -35.3244, -31.2211
4.344, 5, 23.6867, -8.98112, 50.7602, 42.5855, -35.3319, -31.1999
4.348, 5, 23.6781, -8.98408, 50.7687, 42.5597, -35.3395, -31.1786
4.352, 5, 23.6695, -8.98704, 50.7772, 42.534, -35.347, -31.1574
4.356, 5, 23.661, -8.99, 50.7858, 42.5082, -35.3545, -31.1361
4.36, 5, 23.6524, -8.99295, 50.7943, 42.4825, -35.3621, -31.1149
4.364, 5, 23.6438, -8.9959, 50.8028, 42.4567, -35.3696, -31.0936
4.368, 5, 23.6353, -8.99885, 50.8113, 42.431, -35.3772, -31.0724
4.372, 5, 23.6267, -9.00179, 50.8198, 42.4053, -35.3847, -31.0512
4.376, 5, 23.6181, -9.00473, 50.8283, 42.3795, -35.3923, -31.03
4.38, 5, 23.6095, -9.00767, 50.8368, 42.3538, -35.3999, -31.0088
4.384, 5, 23.6009, -9.0106, 50.8453, 42.3281, -35.4074, -30.9876
4.388, 5, 23.5923, -9.01354, 50.8538, 42.3024, -35.415, -30.9664
4.392, 5, 23.5838, -9.01646, 50.8623, 42.2767, -35.4226, -30.9452
4.396, 5, 23.5752, -9.01939, 50.8708, 42.251, -35.4302, -30.924
4.4, 5, 23.5666, -9.02231, 50.8793, 42.2253, -35.4378, -30.9028
4.404, 5, 23.558, -9.02522, 50.8878, 42.1996, -35.4454, -30.8816
4.408, 5, 23.5494, -9.02814, 50.8962, 42.1739, -35.453, -30.8605
4.412, 5, 23.5408, -9.03105, 50.9047, 42.1483, -35.4607, -30.8393
4.416, 5, 23.5322, -9.03396, 50.9132, 42.1226, -35.4683, -30.8181
4.42, 5, 23.5236, -9.03686, 50.9217, 42.0969, -35.4759, -30.797
4.424, 5, 23.515, -9.03976, 50.9302, 42.0713, -35.4835, -30.7759
4.428, 5, 23.5064, -9.04266, 50.9386, 42.0456, -35.4912, -30.7547
4.432, 5, 23.4978, -9.04555, 50.9471, 42.02, -35.4988, -30.7336
4.436, 5, 23.4892, -9.04844, 50.9556, 41.9943, -35.5065, -30.7125
4.44, 5, 23.4805, -9.05133, 50.964, 41.9687, -35.5141, -30.6913
4.444, 5, 23.4719, -9.05421, 50.9725, 41.9431, -35.5218, -30.6702
4.448, 5, 23.4633, -9.05709, 50.981, 41.9174, -35.5295, -30.6491
4.452, 5, 23.4547, -9.05997, 50.9894, 41.8918, -35.5371, -30.628
4.456, 5, 23.4461, -9.06285, 50.9979, 41.8662, -35.5448, -30.6069
4.46, 5, 23.4374, -9.06572, 51.0063, 41.8406, -35.5525, -30.5858
4.464, 5, 23.4288, -9.06858, 51.0148, 41.815, -35.5602, -30.5647
4.468, 5, 23.4202, -9.07145, 51.0233, 41.7894, -35.5679, -30.5437
4.472, 5, 23.4116, -9.07431, 51.0317, 41.7638, -35.5756, -30.5226
4.476, 5, 23.4029, -9.07716, 51.0401, 41.7382, -35.5833, -30.5015
4.48, 5, 23.3943, -9.08002, 51.0486, 41.7127, -35.591, -30.4805
4.484, 5, 23.3857, -9.08287, 51.057, 41.6871, -35.5988, -30.4594
4.488, 5, 23.377, -9.08572, 51.0655, 41.6615, -35.6065, -30.4384
4.492, 5, 23.3684, -9.08856, 51.0739, 41.636, -35.6142, -30.4173
4.496, 5, 23.3597, -9.0914, 51.0824, 41.6104, -35.6219, -30.3963
4.5, 5, 23.3511, -9.09424, 51.0908, 41.5849, -35.6297, -30.3753
4.504, 5, 23.3425, -9.09707, 51.0992, 41.5593, -35.6374, -30.3542
4.508, 5, 23.3338, -9.0999, 51.1076, 41.5338, -35.6452, -30.3332
4.512, 5, 23.3252, -9.10273, 51.1161, 41.5083, -35.653, -30.3122
4.516, 5, 23.3165, -9.10555, 51.1245, 41.4827, -35.6607, -30.2912
4.52, 5, 23.3079, -9.10837, 51.1329, 41.4572, -35.6685, -30.2702
4.524, 5, 23.2992, -9.11119, 51.1413, 41.4317, -35.6763, -30.2492
4.528, 5, 23.2905, -9.114, 51.1498, 41.4062, -35.684, -30.2282
4.532, 5, 23.2819, -9.11681, 51.1582, 41.3807, -35.6918, -30.2072
4.536, 5, 23.2732, -9.11962, 51.1666, 41.3552, -35.6996, -30.1863
4.54, 5, 23.2646, -9.12243, 51.175, 41.3297, -35.7074, -30.1653
4.544, 5, 23.2559, -9.12523, 51.1834, 41.3042, -35.7152, -30.1443
4.548, 5, 23.2472, -9.12802, 51.1918, 41.2787, -35.723, -30.1234
4.552, 5, 23.2386, -9.13082, 51.2002, 41.2533, -35.7309, -30.1024
4.556, 5, 23.2299, -9.13361, 51.2086, 41.2278, -35.7387, -30.0815
4.56, 5, 23.2212, -9.13639, 51.217, 41.2023, -35.7465, -30.0606
4.564, 5, 23.2125, -9.13918, 51.2254, 41.1769, -35.7543, -30.0396
4.568, 5, 23.2039, -9.14196, 51.2338, 41.1514, -35.7622, -30.0187
4.572, 5, 23.1952, -9.14473, 51.2422, 41.126, -35.77, -29.9978
4.576, 5, 23.1865, -9.1475, 51.2506, 41.1005, -35.7779, -29.9769
4.58, 5, 23.1778, -9.15028, 51.259, 41.0751, -35.7857, -29.956
4.584, 5, 23.1691, -9.15304, 51.2674, 41.0497, -35.7936, -29.9351
4.588, 5, 23.1604, -9.1558, 51.2758, 41.0243, -35.8015, -29.9142
4.592, 5, 23.1517, -9.15856, 51.2841, 40.9988, -35.8093, -29.8933
4.596, 5, 23.143, -9.16132, 51.2925, 40.9734, -35.8172, -29.8724
4.6, 5, 23.1343, -9.16407, 51.3009, 40.948, -35.8251, -29.8515
4.604, 5, 23.1257, -9.16682, 51.3093, 40.9226, -35.833, -29.8306
4.608, 5, 23.117, -9.16957, 51.3177, 40.8972, -35.8409, -29.8098
4.612, 5, 23.1083, -9.17231, 51.326, 40.8719, -35.8488, -29.7889
4.616, 5, 23.0996, -9.17505, 51.3344, 40.8465, -35.8567, -29.7681
4.62, 5, 23.0908, -9.17779, 51.3428, 40.8211, -35.8646, -29.7472
4.624, 5, 23.0821, -9.18052, 51.3511, 40.7957, -35.8725, -29.7264
4.628, 5, 23.0734, -9.18325, 51.3595, 40.7704, -35.8805, -29.7055
4.632, 5, 23.0647, -9.18597, 51.3678, 40.745, -35.8884, -29.6847
4.636, 5, 23.056, -9.18869, 51.3762, 40.7197, -35.8963, -29.6639
4.64, 5, 23.0473, -9.19141, 51.3846, 40.6943, -35.9043, -29.6431
4.644, 5, 23.0386, -9.19413, 51.3929, 40.669, -35.9122, -29.6223
4.648, 5, 23.0299, -9.19684, 51.4013, 40.6436, -35.9202, -29.6015
4.652, 5, 23.0211, -9.19955, 51.4096, 40.6183, -35.9281, -29.5807
4.656, 5, 23.0124, -9.20225, 51.4179, 40.593, -35.9361, -29.5599
4.66, 5, 23.0037, -9.20496, 51.4263, 40.5677, -35.9441, -29.5391
4.664, 5, 22.995, -9.20765, 51.4346, 40.5424, -35.952, -29.5183
4.668, 5, 22.9862, -9.21035, 51.443, 40.5171, -35.96, -29.4975
4.672, 5, 22.9775, -9.21304, 51.4513, 40.4918, -35.968, -29.4768
4.676, 5, 22.9688, -9.21573, 51.4596, 40.4665, -35.976, -29.456
4.68, 5, 22.96, -9.21841, 51.468, 40.4412, -35.984, -29.4353
4.684, 5, 22.9513, -9.22109, 51.4763, 40.4159, -35.992, -29.4145
4.688, 5, 22.9425, -9.22377, 51.4846, 40.3906, -36, -29.3938
4.692, 5, 22.9338, -9.22645, 51.493, 40.3654, -36.008, -29.373
4.696, 5, 22.9251, -9.22912, 51.5013, 40.3401, -36.0161, -29.3523
4.7, 5, 22.9163, -9.23178, 51.5096, 40.3148, -36.0241, -29.3316
4.704, 5, 22.9076, -9.23445, 51.5179, 40.2896, -36.0321, -29.3109
4.708, 5, 22.8988, -9.23711, 51.5262, 40.2643, -36.0402, -29.2902
4.712, 5, 22.8901, -9.23976, 51.5345, 40.2391, -36.0482, -29.2695
4.716, 5, 22.8813, -9.24242, 51.5429, 40.2139, -36.0562, -29.2488
4.72, 5, 22.8726, -9.24507, 51.5512, 40.1886, -36.0643, -29.2281
4.724, 5, 22.8638, -9.24771, 51.5595, 40.1634, -36.0724, -29.2074
4.728, 5, 22.855, -9.25036, 51.5678, 40.1382, -36.0804, -29.1867
4.732, 5, 22.8463, -9.253, 51.5761, 40.113, -36.0885, -29.166
4.736, 5, 22.8375, -9.25563, 51.5844, 40.0878, -36.0966, -29.1454
4.74, 5, 22.8287, -9.25827, 51.5927, 40.0626, -36.1047, -29.1247
4.744, 5, 22.82, -9.2609, 51.601, 40.0374, -36.1128, -29.1041
4.748, 5, 22.8112, -9.26352, 51.6093, 40.0122, -36.1209, -29.0834
4.752, 5, 22.8024, -9.26615, 51.6176, 39.987, -36.129, -29.0628
4.756, 5, 22.7937, -9.26877, 51.6259, 39.9619, -36.1371, -29.0421
4.76, 5, 22.7849, -9.27138, 51.6341, 39.9367, -36.1452, -29.0215
4.764, 5, 22.7761, -9.27399, 51.6424, 39.9115, -36.1533, -29.0009
4.768, 5, 22.7673, -9.2766, 51.6507, 39.8864, -36.1614, -28.9803
4.772, 5, 22.7585, -9.27921, 51.659, 39.8612, -36.1695, -28.9596
4.776, 5, 22.7498, -9.28181, 51.6673, 39.8361, -36.1777, -28.939
4.78, 5, 22.741, -9.28441, 51.6755, 39.8109, -36.1858, -28.9184
4.784, 5, 22.7322, -9.287, 51.6838, 39.7858, -36.194, -28.8978
4.788, 5, 22.7234, -9.28959, 51.6921, 39.7607, -36.2021, -28.8773
4.792, 5, 22.7146, -9.29218, 51.7003, 39.7355, -36.2103, -28.8567
4.796, 5, 22.7058, -9.29477, 51.7086, 39.7104, -36.2184, -28.8361
4.8, 5, 22.697, -9.29735, 51.7169, 39.6853, -36.2266, -28.8155
4.804, 5, 22.6882, -9.29992, 51.7251, 39.6602, -36.2348, -28.795
4.808, 5, 22.6794, -9.3025, 51.7334, 39.6351, -36.243, -28.7744
4.812, 5, 22.6706, -9.30507, 51.7417, 39.61, -36.2512, -28.7539
4.816, 5, 22.6618, -9.30764, 51.7499, 39.5849, -36.2593, -28.7333
4.82, 5, 22.653, -9.3102, 51.7582, 39.5599, -36.2675, -28.7128
4.824, 5, 22.6442, -9.31276, 51.7664, 39.5348, -36.2757, -28.6923
4.828, 5, 22.6354, -9.31532, 51.7747, 39.5097, -36.284, -28.6717
4.832, 5, 22.6265, -9.31787, 51.7829, 39.4847, -36.2922, -28.6512
4.836, 5, 22.6177, -9.32042, 51.7911, 39.4596, -36.3004, -28.6307
4.84, 5, 22.6089, -9.32297, 51.7994, 39.4345, -36.3086, -28.6102
4.844, 5, 22.6001, -9.32551, 51.8076, 39.4095, -36.3168, -28.5897
4.848, 5, 22.5913, -9.32805, 51.8159, 39.3845, -36.3251, -28.5692
4.852, 5, 22.5824, -9.33058, 51.8241, 39.3594, -36.3333, -28.5487
4.856, 5, 22.5736, -9.33312, 51.8323, 39.3344, -36.3416, -28.5283
4.86, 5, 22.5648, -9.33564, 51.8405, 39.3094, -36.3498, -28.5078
4.864, 5, 22.556, -9.33817, 51.8488, 39.2844, -36.3581, -28.4873
4.868, 5, 22.5471, -9.34069, 51.857, 39.2594, -36.3664, -28.4669
4.872, 5, 22.5383, -9.34321, 51.8652, 39.2344, -36.3746, -28.4464
4.876, 5, 22.5295, -9.34573, 51.8734, 39.2094, -36.3829, -28.426
4.88, 5, 22.5206, -9.34824, 51.8817, 39.1844, -36.3912, -28.4055
4.884, 5, 22.5118, -9.35074, 51.8899, 39.1594, -36.3995, -28.3851
4.888, 5, 22.5029, -9.35325, 51.8981, 39.1344, -36.4078, -28.3646
4.892, 5, 22.4941, -9.35575, 51.9063, 39.1094, -36.4161, -28.3442
4.896, 5, 22.4853, -9.35825, 51.9145, 39.0845, -36.4244, -28.3238
4.9, 5, 22.4764, -9.36074, 51.9227, 39.0595, -36.4327, -28.3034
4.904, 5, 22.4676, -9.36323, 51.9309, 39.0345, -36.441, -28.283
4.908, 5, 22.4587, -9.36572, 51.9391, 39.0096, -36.4493, -28.2626
4.912, 5, 22.4498, -9.3682, 51.9473, 38.9847, -36.4577, -28.2422
4.916, 5, 22.441, -9.37068, 51.9555, 38.9597, -36.466, -28.2218
4.92, 5, 22.4321, -9.37316, 51.9637, 38.9348, -36.4743, -28.2014
4.924, 5, 22.4233, -9.37563, 51.9719, 38.9099, -36.4827, -28.1811
4.928, 5, 22.4144, -9.3781, 51.9801, 38.8849, -36.491, -28.1607
4.932, 5, 22.4055, -9.38056, 51.9883, 38.86, -36.4994, -28.1403
4.936, 5, 22.3967, -9.38303, 51.9965, 38.8351, -36.5077, -28.12
4.94, 5, 22.3878, -9.38548, 52.0046, 38.8102, -36.5161, -28.0996
4.944, 5, 22.3789, -9.38794, 52.0128, 38.7853, -36.5245, -28.0793
4.948, 5, 22.3701, -9.39039, 52.021, 38.7604, -36.5329, -28.059
4.952, 5, 22.3612, -9.39284, 52.0292, 38.7356, -36.5412, -28.0386
4.956, 5, 22.3523, -9.39529, 52.0373, 38.7107, -36.5496, -28.0183
4.96, 5, 22.3434, -9.39773, 52.0455, 38.6858, -36.558, -27.998
4.964, 5, 22.3346, -9.40016, 52.0537, 38.661, -36.5664, -27.9777
4.968, 5, 22.3257, -9.4026, 52.0619, 38.6361, -36.5748, -27.9574
4.972, 5, 22.3168, -9.40503, 52.07, 38.6112, -36.5833, -27.9371
4.976, 5, 22.3079, -9.40746, 52.0782, 38.5864, -36.5917, -27.9168
4.98, 5, 22.299, -9.40988, 52.0863, 38.5616, -36.6001, -27.8965
4.984, 5, 22.2901, -9.4123, 52.0945, 38.5367, -36.6085, -27.8762
4.988, 5, 22.2812, -9.41471, 52.1027, 38.5119, -36.617, -27.856
4.992, 5, 22.2723, -9.41713, 52.1108, 38.4871, -36.6254, -27.8357
4.996, 5, 22.2634, -9.41954, 52.119, 38.4622, -36.6339, -27.8154
5, 5, 22.2545, -9.42194, 52.1271, 38.4374, -36.6423, -27.7952
5.004, 5, 22.2456, -9.42434, 52.1353, 38.4126, -36.6508, -27.7749
5.008, 5, 22.2367, -9.42674, 52.1434, 38.3878, -36.6592, -27.7547
5.012, 5, 22.2278, -9.42914, 52.1515, 38.363, -36.6677, -27.7345
5.016, 5, 22.2189, -9.43153, 52.1597, 38.3383, -36.6762, -27.7142
5.02, 5, 22.21, -9.43392, 52.1678, 38.3135, -36.6847, -27.694
5.024, 5, 22.2011, -9.4363, 52.1759, 38.2887, -36.6931, -27.6738
5.028, 5, 22.1922, -9.43868, 52.1841, 38.2639, -36.7016, -27.6536
5.032, 5, 22.1833, -9.44106, 52.1922, 38.2392, -36.7101, -27.6334
5.036, 5, 22.1744, -9.44343, 52.2003, 38.2144, -36.7186, -27.6132
5.04, 5, 22.1654, -9.4458, 52.2085, 38.1897, -36.7271, -27.593
5.044, 5, 22.1565, -9.44817, 52.2166, 38.1649, -36.7357, -27.5728
5.048, 5, 22.1476, -9.45053, 52.2247, 38.1402, -36.7442, -27.5527
5.052, 5, 22.1387, -9.45289, 52.2328, 38.1155, -36.7527, -27.5325
5.056, 5, 22.1297, -9.45525, 52.2409, 38.0907, -36.7612, -27.5123
5.06, 5, 22.1208, -9.4576, 52.249, 38.066, -36.7698, -27.4922
5.064, 5, 22.1119, -9.45995, 52.2572, 38.0413, -36.7783, -27.472
5.068, 5, 22.1029, -9.4623, 52.2653, 38.0166, -36.7869, -27.4519
5.072, 5, 22.094, -9.46464, 52.2734, 37.9919, -36.7954, -27.4317
5.076, 5, 22.0851, -9.46698, 52.2815, 37.9672, -36.804, -27.4116
5.08, 5, 22.0761, -9.46931, 52.2896, 37.9425, -36.8126, -27.3915
5.084, 5, 22.0672, -9.47164, 52.2977, 37.9178, -36.8211, -27.3714
5.088, 5, 22.0582, -9.47397, 52.3058, 37.8931, -36.8297, -27.3513
5.092, 5, 22.0493, -9.47629, 52.3139, 37.8685, -36.8383, -27.3311
5.096, 5, 22.0403, -9.47861, 52.322, 37.8438, -36.8469, -27.3111
5.1, 5, 22.0314, -9.48093, 52.33, 37.8191, -36.8555, -27.291
5.104, 5, 22.0224, -9.48325, 52.3381, 37.7945, -36.8641, -27.2709
5.108, 5, 22.0135, -9.48555, 52.3462, 37.7698, -36.8727, -27.2508
5.112, 5, 22.0045, -9.48786, 52.3543, 37.7452, -36.8813, -27.2307
5.116, 5, 21.9956, -9.49016, 52.3624, 37.7206, -36.8899, -27.2106
5.12, 5, 21.9866, -9.49246, 52.3705, 37.6959, -36.8985, -27.1906
5.124, 5, 21.9777, -9.49476, 52.3785, 37.6713, -36.9072, -27.1705
5.128, 5, 21.9687, -9.49705, 52.3866, 37.6467, -36.9158, -27.1505
5.132, 5, 21.9597, -9.49934, 52.3947, 37.6221, -36.9244, -27.1304
5.136, 5, 21.9508, -9.50162, 52.4027, 37.5975, -36.9331, -27.1104
5.14, 5, 21.9418, -9.50391, 52.4108, 37.5729, -36.9417, -27.0904
5.144, 5, 21.9328, -9.50618, 52.4189, 37.5483, -36.9504, -27.0704
5.148, 5, 21.9238, -9.50846, 52.4269, 37.5237, -36.959, -27.0503
5.152, 5, 21.9149, -9.51073, 52.435, 37.4991, -36.9677, -27.0303
5.156, 5, 21.9059, -9.51299, 52.4431, 37.4746, -36.9764, -27.0103
5.16, 5, 21.8969, -9.51526, 52.4511, 37.45, -36.9851, -26.9903
5.164, 5, 21.8879, -9.51752, 52.4592, 37.4254, -36.9937, -26.9703
5.168, 5, 21.8789, -9.51977, 52.4672, 37.4009, -37.0024, -26.9504
5.172, 5, 21.87, -9.52203, 52.4753, 37.3763, -37.0111, -26.9304
5.176, 5, 21.861, -9.52427, 52.4833, 37.3518, -37.0198, -26.9104
5.18, 5, 21.852, -9.52652, 52.4914, 37.3273, -37.0285, -26.8904
5.184, 5, 21.843, -9.52876, 52.4994, 37.3027, -37.0373, -26.8705
5.188, 5, 21.834, -9.531, 52.5074, 37.2782, -37.046, -26.8505
5.192, 5, 21.825, -9.53323, 52.5155, 37.2537, -37.0547, -26.8306
5.196, 5, 21.816, -9.53546, 52.5235, 37.2292, -37.0634, -26.8107
5.2, 5, 21.807, -9.53769, 52.5315, 37.2047, -37.0722, -26.7907
5.204, 5, 21.798, -9.53992, 52.5396, 37.1802, -37.0809, -26.7708
5.208, 5, 21.789, -9.54214, 52.5476, 37.1557, -37.0897, -26.7509
5.212, 5, 21.78, -9.54435, 52.5556, 37.1312, -37.0984, -26.731
5.216, 5, 21.771, -9.54657, 52.5636, 37.1067, -37.1072, -26.7111
5.22, 5, 21.762, -9.54877, 52.5717, 37.0822, -37.1159, -26.6912
5.224, 5, 21.7529, -9.55098, 52.5797, 37.0578, -37.1247, -26.6713
5.228, 5, 21.7439, -9.55318, 52.5877, 37.0333, -37.1335, -26.6514
5.232, 5, 21.7349, -9.55538, 52.5957, 37.0088, -37.1423, -26.6315
5.236, 5, 21.7259, -9.55758, 52.6037, 36.9844, -37.151, -26.6116
5.24, 5, 21.7169, -9.55977, 52.6117, 36.9599, -37.1598, -26.5917
5.244, 5, 21.7079, -9.56195, 52.6197, 36.9355, -37.1686, -26.5719
5.248, 5, 21.6988, -9.56414, 52.6277, 36.9111, -37.1774, -26.552
5.252, 5, 21.6898, -9.56632, 52.6357, 36.8866, -37.1862, -26.5322
5.256, 5, 21.6808, -9.5685, 52.6437, 36.8622, -37.1951, -26.5123
5.26, 5, 21.6717, -9.57067, 52.6517, 36.8378, -37.2039, -26.4925
5.264, 5, 21.6627, -9.57284, 52.6597, 36.8134, -37.2127, -26.4727
5.268, 5, 21.6537, -9.57501, 52.6677, 36.789, -37.2215, -26.4529
5.272, 5, 21.6446, -9.57717, 52.6757, 36.7646, -37.2304, -26.433
5.276, 5, 21.6356, -9.57933, 52.6837, 36.7402, -37.2392, -26.4132
5.28, 5, 21.6266, -9.58148, 52.6917, 36.7158, -37.2481, -26.3934
5.284, 5, 21.6175, -9.58363, 52.6996, 36.6914, -37.2569, -26.3736
5.288, 5, 21.6085, -9.58578, 52.7076, 36.6671, -37.2658, -26.3538
5.292, 5, 21.5994, -9.58792, 52.7156, 36.6427, -37.2746, -26.3341
5.296, 5, 21.5904, -9.59007, 52.7236, 36.6183, -37.2835, -26.3143
5.3, 5, 21.5813, -9.5922, 52.7315, 36.594, -37.2924, -26.2945
5.304, 5, 21.5723, -9.59434, 52.7395, 36.5696, -37.3013, -26.2747
5.308, 5, 21.5632, -9.59647, 52.7475, 36.5453, -37.3102, -26.255
5.312, 5, 21.5542, -9.59859, 52.7555, 36.521, -37.3191, -26.2352
5.316, 5, 21.5451, -9.60071, 52.7634, 36.4966, -37.328, -26.2155
5.32, 5, 21.536, -9.60283, 52.7714, 36.4723, -37.3369, -26.1957
5.324, 5, 21.527, -9.60495, 52.7793, 36.448, -37.3458, -26.176
5.328, 5, 21.5179, -9.60706, 52.7873, 36.4237, -37.3547, -26.1563
5.332, 5, 21.5088, -9.60917, 52.7952, 36.3994, -37.3636, -26.1366
5.336, 5, 21.4998, -9.61127, 52.8032, 36.3751, -37.3725, -26.1169
5.34, 5, 21.4907, -9.61337, 52.8111, 36.3508, -37.3815, -26.0972
5.344, 5, 21.4816, -9.61547, 52.8191, 36.3265, -37.3904, -26.0775
5.348, 5, 21.4726, -9.61757, 52.827, 36.3022, -37.3994, -26.0578
5.352, 5, 21.4635, -9.61966, 52.835, 36.278, -37.4083, -26.0381
5.356, 5, 21.4544, -9.62174, 52.8429, 36.2537, -37.4173, -26.0184
5.36, 5, 21.4453, -9.62382, 52.8509, 36.2294, -37.4262, -25.9987
5.364, 5, 21.4362, -9.6259, 52.8588, 36.2052, -37.4352, -25.9791
5.368, 5, 21.4272, -9.62798, 52.8667, 36.1809, -37.4442, -25.9594
5.372, 5, 21.4181, -9.63005, 52.8747, 36.1567, -37.4531, -25.9397
5.376, 5, 21.409, -9.63212, 52.8826, 36.1325, -37.4621, -25.9201
5.38, 5, 21.3999, -9.63418, 52.8905, 36.1082, -37.4711, -25.9005
5.384, 5, 21.3908, -9.63624, 52.8984, 36.084, -37.4801, -25.8808
5.388, 5, 21.3817, -9.6383, 52.9064, 36.0598, -37.4891, -25.8612
5.392, 5, 21.3726, -9.64036, 52.9143, 36.0356, -37.4981, -25.8416
5.396, 5, 21.3635, -9.64241, 52.9222, 36.0114, -37.5071, -25.822
5.4, 5, 21.3544, -9.64445, 52.9301, 35.9872, -37.5161, -25.8023
5.404, 5, 21.3453, -9.64649, 52.938, 35.963, -37.5252, -25.7827
5.408, 5, 21.3362, -9.64853, 52.9459, 35.9388, -37.5342, -25.7631
5.412, 5, 21.3271, -9.65057, 52.9538, 35.9146, -37.5432, -25.7436
5.416, 5, 21.318, -9.6526, 52.9617, 35.8905, -37.5523, -25.724
5.42, 5, 21.3089, -9.65463, 52.9696, 35.8663, -37.5613, -25.7044
5.424, 5, 21.2998, -9.65665, 52.9775, 35.8421, -37.5704, -25.6848
5.428, 5, 21.2906, -9.65867, 52.9854, 35.818, -37.5794, -25.6653
5.432, 5, 21.2815, -9.66069, 52.9933, 35.7938, -37.5885, -25.6457
5.436, 5, 21.2724, -9.6627, 53.0012, 35.7697, -37.5976, -25.6262
5.44, 5, 21.2633, -9.66471, 53.0091, 35.7455, -37.6066, -25.6066
5.444, 5, 21.2542, -9.66672, 53.017, 35.7214, -37.6157, -25.5871
5.448, 5, 21.245, -9.66872, 53.0249, 35.6973, -37.6248, -25.5675
5.452, 5, 21.2359, -9.67072, 53.0328, 35.6732, -37.6339, -25.548
5.456, 5, 21.2268, -9.67272, 53.0406, 35.6491, -37.643, -25.5285
5.46, 5, 21.2176, -9.67471, 53.0485, 35.625, -37.6521, -25.509
5.464, 5, 21.2085, -9.67669, 53.0564, 35.6009, -37.6612, -25.4895
5.468, 5, 21.1994, -9.67868, 53.0643, 35.5768, -37.6703, -25.47
5.472, 5, 21.1902, -9.68066, 53.0721, 35.5527, -37.6794, -25.4505
5.476, 5, 21.1811, -9.68264, 53.08, 35.5286, -37.6885, -25.431
5.48, 5, 21.172, -9.68461, 53.0879, 35.5045, -37.6977, -25.4115
5.484, 5, 21.1628, -9.68658, 53.0957, 35.4805, -37.7068, -25.3921
5.488, 5, 21.1537, -9.68855, 53.1036, 35.4564, -37.7159, -25.3726
5.492, 5, 21.1445, -9.69051, 53.1115, 35.4323, -37.7251, -25.3531
5.496, 5, 21.1354, -9.69247, 53.1193, 35.4083, -37.7342, -25.3337
5.5, 5, 21.1262, -9.69442, 53.1272, 35.3842, -37.7434, -25.3143
5.504, 5, 21.1171, -9.69637, 53.135, 35.3602, -37.7526, -25.2948
5.508, 5, 21.1079, -9.69832, 53.1429, 35.3362, -37.7617, -25.2754
5.512, 5, 21.0988, -9.70026, 53.1507, 35.3122, -37.7709, -25.256
5.516, 5, 21.0896, -9.7022, 53.1586, 35.2881, -37.7801, -25.2365
5.52, 5, 21.0804, -9.70414, 53.1664, 35.2641, -37.7893, -25.2171
5.524, 5, 21.0713, -9.70607, 53.1743, 35.2401, -37.7985, -25.1977
5.528, 5, 21.0621, -9.708, 53.1821, 35.2161, -37.8077, -25.1783
5.532, 5, 21.0529, -9.70993, 53.1899, 35.1921, -37.8169, -25.1589
5.536, 5, 21.0438, -9.71185, 53.1978, 35.1681, -37.8261, -25.1395
5.54, 5, 21.0346, -9.71377, 53.2056, 35.1442, -37.8353, -25.1202
5.544, 5, 21.0254, -9.71568, 53.2134, 35.1202, -37.8445, -25.1008
5.548, 5, 21.0163, -9.71759, 53.2212, 35.0962, -37.8537, -25.0814
5.552, 5, 21.0071, -9.7195, 53.2291, 35.0723, -37.863, -25.0621
5.556, 5, 20.9979, -9.72141, 53.2369, 35.0483, -37.8722, -25.0427
5.56, 5, 20.9887, -9.7233, 53.2447, 35.0243, -37.8814, -25.0234
5.564, 5, 20.9795, -9.7252, 53.2525, 35.0004, -37.8907, -25.004
5.568, 5, 20.9703, -9.72709, 53.2603, 34.9765, -37.8999, -24.9847
5.572, 5, 20.9612, -9.72898, 53.2682, 34.9525, -37.9092, -24.9654
5.576, 5, 20.952, -9.73087, 53.276, 34.9286, -37.9185, -24.946
5.58, 5, 20.9428, -9.73275, 53.2838, 34.9047, -37.9277, -24.9267
5.584, 5, 20.9336, -9.73463, 53.2916, 34.8808, -37.937, -24.9074
5.588, 5, 20.9244, -9.7365, 53.2994, 34.8569, -37.9463, -24.8881
5.592, 5, 20.9152, -9.73837, 53.3072, 34.833, -37.9556, -24.8688
5.596, 5, 20.906, -9.74024, 53.315, 34.8091, -37.9649, -24.8495
5.6, 5, 20.8968, -9.7421, 53.3228, 34.7852, -37.9742, -24.8302
5.604, 5, 20.8876, -9.74396, 53.3306, 34.7613, -37.9835, -24.811
5.608, 5, 20.8784, -9.74581, 53.3384, 34.7374, -37.9928, -24.7917
5.612, 5, 20.8692, -9.74767, 53.3461, 34.7136, -38.0021, -24.7724
5.616, 5, 20.86, -9.74951, 53.3539, 34.6897, -38.0114, -24.7532
5.62, 5, 20.8508, -9.75136, 53.3617, 34.6659, -38.0207, -24.7339
5.624, 5, 20.8415, -9.7532, 53.3695, 34.642, -38.0301, -24.7147
5.628, 5, 20.8323, -9.75504, 53.3773, 34.6182, -38.0394, -24.6955
5.632, 5, 20.8231, -9.75687, 53.3851, 34.5943, -38.0487, -24.6762
5.636, 5, 20.8139, -9.7587, 53.3928, 34.5705, -38.0581, -24.657
5.64, 5, 20.8047, -9.76052, 53.4006, 34.5467, -38.0674, -24.6378
5.644, 5, 20.7954, -9.76235, 53.4084, 34.5229, -38.0768, -24.6186
5.648, 5, 20.7862, -9.76416, 53.4161, 34.4991, -38.0862, -24.5994
5.652, 5, 20.777, -9.76598, 53.4239, 34.4753, -38.0955, -24.5802
5.656, 5, 20.7678, -9.76779, 53.4317, 34.4515, -38.1049, -24.561
5.66, 5, 20.7585, -9.7696, 53.4394, 34.4277, -38.1143, -24.5418
5.664, 5, 20.7493, -9.7714, 53.4472, 34.4039, -38.1237, -24.5226
5.668, 5, 20.7401, -9.7732, 53.4549, 34.3801, -38.1331, -24.5035
5.672, 5, 20.7308, -9.775, 53.4627, 34.3563, -38.1425, -24.4843
5.676, 5, 20.7216, -9.77679, 53.4704, 34.3326, -38.1519, -24.4652
5.68, 5, 20.7123, -9.77858, 53.4782, 34.3088, -38.1613, -24.446
5.684, 5, 20.7031, -9.78036, 53.4859, 34.285, -38.1707, -24.4269
5.688, 5, 20.6939, -9.78214, 53.4937, 34.2613, -38.1801, -24.4077
5.692, 5, 20.6846, -9.78392, 53.5014, 34.2376, -38.1896, -24.3886
5.696, 5, 20.6754, -9.78569, 53.5091, 34.2138, -38.199, -24.3695
5.7, 5, 20.6661, -9.78746, 53.5169, 34.1901, -38.2084, -24.3504
5.704, 5, 20.6569, -9.78923, 53.5246, 34.1664, -38.2179, -24.3313
5.708, 5, 20.6476, -9.79099, 53.5324, 34.1426, -38.2273, -24.3122
5.712, 5, 20.6383, -9.79275, 53.5401, 34.1189, -38.2368, -24.2931
5.716, 5, 20.6291, -9.7945, 53.5478, 34.0952, -38.2462, -24.274
5.72, 5, 20.6198, -9.79626, 53.5555, 34.0715, -38.2557, -24.2549
5.724, 5, 20.6106, -9.798, 53.5633, 34.0478, -38.2652, -24.2358
5.728, 5, 20.6013, -9.79975, 53.571, 34.0242, -38.2747, -24.2167
5.732, 5, 20.592, -9.80149, 53.5787, 34.0005, -38.2841, -24.1977
5.736, 5, 20.5828, -9.80322, 53.5864, 33.9768, -38.2936, -24.1786
5.74, 5, 20.5735, -9.80495, 53.5941, 33.9531, -38.3031, -24.1596
5.744, 5, 20.5642, -9.80668, 53.6018, 33.9295, -38.3126, -24.1405
5.748, 5, 20.5549, -9.80841, 53.6095, 33.9058, -38.3221, -24.1215
5.752, 5, 20.5457, -9.81013, 53.6172, 33.8822, -38.3316, -24.1025
5.756, 5, 20.5364, -9.81184, 53.6249, 33.8585, -38.3412, -24.0834
5.76, 5, 20.5271, -9.81356, 53.6326, 33.8349, -38.3507, -24.0644
5.764, 5, 20.5178, -9.81527, 53.6403, 33.8113, -38.3602, -24.0454
5.768, 5, 20.5085, -9.81697, 53.648, 33.7877, -38.3697, -24.0264
5.772, 5, 20.4993, -9.81867, 53.6557, 33.764, -38.3793, -24.0074
5.776, 5, 20.49, -9.82037, 53.6634, 33.7404, -38.3888, -23.9884
5.78, 5, 20.4807, -9.82207, 53.6711, 33.7168, -38.3984, -23.9694
5.784, 5, 20.4714, -9.82376, 53.6788, 33.6932, -38.4079, -23.9505
5.788, 5, 20.4621, -9.82544, 53.6865, 33.6697, -38.4175, -23.9315
5.792, 5, 20.4528, -9.82713, 53.6941, 33.6461, -38.4271, -23.9125
5.796, 5, 20.4435, -9.8288, 53.7018, 33.6225, -38.4366, -23.8936
5.8, 5, 20.4342, -9.83048, 53.7095, 33.5989, -38.4462, -23.8746
5.804, 5, 20.4249, -9.83215, 53.7172, 33.5754, -38.4558, -23.8557
5.808, 5, 20.4156, -9.83382, 53.7248, 33.5518, -38.4654, -23.8368
5.812, 5, 20.4063, -9.83548, 53.7325, 33.5283, -38.475, -23.8178
5.816, 5, 20.397, -9.83714, 53.7402, 33.5047, -38.4846, -23.7989
5.82, 5, 20.3877, -9.8388, 53.7478, 33.4812, -38.4942, -23.78
5.824, 5, 20.3783, -9.84045, 53.7555, 33.4576, -38.5038, -23.7611
5.828, 5, 20.369, -9.8421, 53.7632, 33.4341, -38.5134, -23.7422
5.832, 5, 20.3597, -9.84374, 53.7708, 33.4106, -38.523, -23.7233
5.836, 5, 20.3504, -9.84538, 53.7785, 33.3871, -38.5327, -23.7044
5.84, 5, 20.3411, -9.84702, 53.7861, 33.3636, -38.5423, -23.6855
5.844, 5, 20.3317, -9.84865, 53.7938, 33.3401, -38.5519, -23.6666
5.848, 5, 20.3224, -9.85028, 53.8014, 33.3166, -38.5616, -23.6478
5.852, 5, 20.3131, -9.85191, 53.8091, 33.2931, -38.5712, -23.6289
5.856, 5, 20.3038, -9.85353, 53.8167, 33.2696, -38.5809, -23.61
5.86, 5, 20.2944, -9.85515, 53.8243, 33.2461, -38.5906, -23.5912
5.864, 5, 20.2851, -9.85676, 53.832, 33.2227, -38.6002, -23.5724
5.868, 5, 20.2758, -9.85837, 53.8396, 33.1992, -38.6099, -23.5535
5.872, 5, 20.2664, -9.85998, 53.8472, 33.1757, -38.6196, -23.5347
5.876, 5, 20.2571, -9.86158, 53.8549, 33.1523, -38.6293, -23.5159
5.88, 5, 20.2478, -9.86318, 53.8625, 33.1288, -38.639, -23.4971
5.884, 5, 20.2384, -9.86477, 53.8701, 33.1054, -38.6487, -23.4782
5.888, 5, 20.2291, -9.86636, 53.8777, 33.082, -38.6584, -23.4594
5.892, 5, 20.2197, -9.86795, 53.8854, 33.0586, -38.6681, -23.4406
5.896, 5, 20.2104, -9.86953, 53.893, 33.0351, -38.6778, -23.4219
5.9, 5, 20.201, -9.87111, 53.9006, 33.0117, -38.6875, -23.4031
5.904, 5, 20.1917, -9.87268, 53.9082, 32.9883, -38.6972, -23.3843
5.908, 5, 20.1823, -9.87425, 53.9158, 32.9649, -38.7069, -23.3655
5.912, 5, 20.173, -9.87582, 53.9234, 32.9415, -38.7167, -23.3468
5.916, 5, 20.1636, -9.87738, 53.931, 32.9181, -38.7264, -23.328
5.92, 5, 20.1542, -9.87894, 53.9386, 32.8948, -38.7362, -23.3093
5.924, 5, 20.1449, -9.8805, 53.9462, 32.8714, -38.7459, -23.2905
5.928, 5, 20.1355, -9.88205, 53.9538, 32.848, -38.7557, -23.2718
