hehonglu123/ABB_Primitive_Study/execution/movel_30_car_close/curve_exe_v500_z1.csv
timestamp, cmd_num, J1, J2, J3, J4, J5, J6
0, -1, -18.2639, 27.6366, 43.2521, -16.0925, -101.723, 6.01522
0.003, -1, -18.2639, 27.6366, 43.2521, -16.0925, -101.723, 6.01522
0.006, -1, -18.2639, 27.6366, 43.2521, -16.0925, -101.723, 6.01522
0.008, -1, -18.2639, 27.6366, 43.2521, -16.0925, -101.723, 6.01522
0.011, -1, -18.2639, 27.6366, 43.2521, -16.0925, -101.723, 6.01522
0.016, -1, -18.2639, 27.6366, 43.2521, -16.0925, -101.723, 6.01522
0.02, -1, -18.2639, 27.6366, 43.2521, -16.0925, -101.723, 6.01522
0.024, -1, -18.2639, 27.6366, 43.2521, -16.0925, -101.723, 6.01522
0.028, -1, -18.2639, 27.6366, 43.2521, -16.0925, -101.723, 6.01522
0.032, -1, -18.2639, 27.6366, 43.2521, -16.0925, -101.723, 6.01522
0.036, -1, -18.2638, 27.6366, 43.2521, -16.0925, -101.723, 6.01521
0.04, -1, -18.2635, 27.6365, 43.2521, -16.0925, -101.723, 6.01521
0.044, -1, -18.2629, 27.6361, 43.2522, -16.0925, -101.723, 6.01519
0.048, -1, -18.2616, 27.6355, 43.2523, -16.0924, -101.723, 6.01513
0.052, -1, -18.2597, 27.6345, 43.2525, -16.0922, -101.723, 6.01498
0.056, -1, -18.2568, 27.6328, 43.2529, -16.0917, -101.722, 6.01465
0.06, -1, -18.2529, 27.6304, 43.2534, -16.0908, -101.722, 6.01405
0.064, -1, -18.248, 27.6272, 43.2541, -16.0893, -101.72, 6.013
0.068, -1, -18.2417, 27.6228, 43.255, -16.0867, -101.717, 6.01131
0.072, -1, -18.234, 27.6172, 43.2562, -16.0828, -101.713, 6.00873
0.076, -1, -18.2245, 27.61, 43.2576, -16.0772, -101.707, 6.00498
0.08, -1, -18.2128, 27.601, 43.2594, -16.0692, -101.699, 5.99971
0.084, -1, -18.1986, 27.5898, 43.2615, -16.0583, -101.687, 5.99254
0.088, -1, -18.1815, 27.5762, 43.2641, -16.0438, -101.672, 5.98304
0.092, -1, -18.1612, 27.5599, 43.2671, -16.025, -101.652, 5.97075
0.096, -1, -18.1376, 27.5409, 43.2706, -16.0013, -101.627, 5.95519
0.1, -1, -18.1102, 27.5187, 43.2745, -15.9717, -101.596, 5.93588
0.104, -1, -18.0789, 27.4932, 43.279, -15.9357, -101.558, 5.91234
0.108, -1, -18.0432, 27.4642, 43.2839, -15.8925, -101.512, 5.88413
0.112, -1, -18.0031, 27.4313, 43.2895, -15.8415, -101.458, 5.85084
0.116, -1, -17.9583, 27.3946, 43.2956, -15.7821, -101.396, 5.81212
0.12, -1, -17.909, 27.3541, 43.3022, -15.7139, -101.324, 5.76767
0.124, -1, -17.8551, 27.3097, 43.3093, -15.6366, -101.242, 5.71731
0.128, -1, -17.7966, 27.2615, 43.317, -15.55, -101.151, 5.66093
0.131, -1, -17.7338, 27.2095, 43.3251, -15.4542, -101.05, 5.59855
0.136, -1, -17.6665, 27.1539, 43.3336, -15.3494, -100.939, 5.53033
0.139, -1, -17.5948, 27.0946, 43.3427, -15.236, -100.82, 5.4565
0.144, -1, -17.5187, 27.0316, 43.3523, -15.1145, -100.691, 5.37741
0.148, -1, -17.4382, 26.965, 43.3624, -14.9855, -100.555, 5.29348
0.152, -1, -17.3537, 26.8951, 43.373, -14.8498, -100.412, 5.20516
0.156, -1, -17.2655, 26.822, 43.384, -14.7081, -100.262, 5.11296
0.16, -1, -17.174, 26.7461, 43.3955, -14.5613, -100.107, 5.01739
0.164, -1, -17.0794, 26.6676, 43.4075, -14.41, -99.9478, 4.91897
0.168, -1, -16.982, 26.5866, 43.4198, -14.2552, -99.7844, 4.81819
0.172, -1, -16.8819, 26.5033, 43.4325, -14.0975, -99.6179, 4.71552
0.176, -1, -16.7792, 26.418, 43.4456, -13.9375, -99.449, 4.61136
0.18, -1, -16.6742, 26.3309, 43.4591, -13.7758, -99.2783, 4.50606
0.184, -1, -16.5671, 26.2422, 43.4728, -13.6127, -99.1062, 4.39988
0.188, -1, -16.4583, 26.1522, 43.4868, -13.4486, -98.9331, 4.29303
0.192, -1, -16.3481, 26.0613, 43.501, -13.2838, -98.759, 4.18566
0.196, -1, -16.2369, 25.9697, 43.5154, -13.1183, -98.5844, 4.07787
0.2, -1, -16.1249, 25.8775, 43.5298, -12.9522, -98.4091, 3.96971
0.204, -1, -16.0124, 25.7848, 43.5443, -12.7857, -98.2334, 3.86125
0.208, -1, -15.8994, 25.6919, 43.5589, -12.6188, -98.0572, 3.75252
0.212, -1, -15.7859, 25.5986, 43.5735, -12.4514, -97.8806, 3.64353
0.216, -1, -15.6722, 25.5051, 43.5882, -12.2838, -97.7036, 3.53431
0.22, -1, -15.5582, 25.4114, 43.6029, -12.1157, -97.5263, 3.42486
0.224, -1, -15.4439, 25.3174, 43.6177, -11.9474, -97.3486, 3.3152
0.228, -1, -15.3294, 25.2233, 43.6325, -11.7787, -97.1706, 3.20533
0.232, -1, -15.2146, 25.129, 43.6473, -11.6097, -96.9922, 3.09526
0.236, -1, -15.0996, 25.0345, 43.6621, -11.4404, -96.8135, 2.985
0.24, -1, -14.9845, 24.9398, 43.677, -11.2708, -96.6345, 2.87454
0.244, -1, -14.8691, 24.845, 43.6918, -11.101, -96.4553, 2.76389
0.248, -1, -14.7535, 24.75, 43.7068, -10.9308, -96.2757, 2.65305
0.252, -1, -14.6377, 24.6548, 43.7217, -10.7604, -96.0958, 2.54203
0.256, -1, -14.5218, 24.5595, 43.7367, -10.5896, -95.9156, 2.43083
0.26, -1, -14.4056, 24.4641, 43.7517, -10.4187, -95.7351, 2.31945
0.264, -1, -14.2893, 24.3685, 43.7667, -10.2474, -95.5544, 2.2079
0.268, -1, -14.1728, 24.2727, 43.7817, -10.0759, -95.3734, 2.09618
0.272, -1, -14.0561, 24.1768, 43.7968, -9.90411, -95.1921, 1.98429
0.276, -1, -13.9393, 24.0808, 43.8118, -9.73208, -95.0105, 1.87224
0.28, -1, -13.8223, 23.9846, 43.8269, -9.55981, -94.8287, 1.76002
0.284, -1, -13.7051, 23.8883, 43.8421, -9.38729, -94.6466, 1.64765
0.288, -1, -13.5877, 23.7919, 43.8572, -9.21453, -94.4643, 1.53512
0.292, -1, -13.4703, 23.6953, 43.8724, -9.04154, -94.2817, 1.42244
0.296, -1, -13.3526, 23.5986, 43.8875, -8.86833, -94.0989, 1.30962
0.3, -1, -13.2348, 23.5018, 43.9027, -8.69489, -93.9158, 1.19665
0.304, -1, -13.1169, 23.4048, 43.918, -8.52124, -93.7325, 1.08354
0.308, -1, -12.9988, 23.3078, 43.9332, -8.34738, -93.549, 0.970291
0.312, -1, -12.8806, 23.2106, 43.9484, -8.17332, -93.3653, 0.856913
0.316, -1, -12.7623, 23.1134, 43.9637, -7.99906, -93.1814, 0.743408
0.32, -1, -12.6438, 23.016, 43.979, -7.82462, -92.9973, 0.629778
0.324, -1, -12.5252, 22.9185, 43.9943, -7.64999, -92.813, 0.51603
0.328, -1, -12.4065, 22.821, 44.0096, -7.47518, -92.6285, 0.402168
0.332, -1, -12.2877, 22.7233, 44.0249, -7.30021, -92.4438, 0.288197
0.336, -1, -12.1687, 22.6256, 44.0403, -7.12507, -92.259, 0.17412
0.34, -1, -12.0497, 22.5277, 44.0556, -6.94979, -92.074, 0.0599435
0.344, -1, -11.9305, 22.4298, 44.071, -6.77435, -91.8888, -0.0543284
0.348, -1, -11.8113, 22.3318, 44.0864, -6.59878, -91.7035, -0.168691
0.352, -1, -11.6919, 22.2337, 44.1018, -6.42308, -91.5181, -0.283138
0.356, -1, -11.5725, 22.1356, 44.1172, -6.24725, -91.3325, -0.397666
0.36, -1, -11.453, 22.0374, 44.1326, -6.07131, -91.1468, -0.51227
0.364, -1, -11.3334, 21.9391, 44.148, -5.89525, -90.961, -0.626944
0.368, -1, -11.2137, 21.8408, 44.1635, -5.7191, -90.7751, -0.741683
0.372, -1, -11.094, 21.7425, 44.1789, -5.54286, -90.5891, -0.856483
0.376, -1, -10.9742, 21.6441, 44.1944, -5.36653, -90.403, -0.971338
0.38, -1, -10.8544, 21.5456, 44.2098, -5.19012, -90.2168, -1.08624
0.384, -1, -10.7345, 21.4471, 44.2253, -5.01365, -90.0305, -1.20119
0.388, -1, -10.6145, 21.3486, 44.2407, -4.83711, -89.8442, -1.31618
0.392, -1, -10.4946, 21.25, 44.2562, -4.66052, -89.6578, -1.43121
0.396, -1, -10.3746, 21.1514, 44.2717, -4.48389, -89.4714, -1.54626
0.4, -1, -10.2545, 21.0528, 44.2872, -4.30722, -89.2849, -1.66134
0.404, -1, -10.1345, 20.9542, 44.3026, -4.13052, -89.0984, -1.77643
0.408, -1, -10.0144, 20.8556, 44.3181, -3.9538, -88.9119, -1.89154
0.412, -1, -9.89437, 20.7569, 44.3336, -3.77707, -88.7254, -2.00666
0.416, -1, -9.77429, 20.6583, 44.3491, -3.60033, -88.5388, -2.12178
0.42, -1, -9.65422, 20.5597, 44.3646, -3.42359, -88.3523, -2.2369
0.424, -1, -9.53415, 20.461, 44.38, -3.24687, -88.1658, -2.35202
0.428, -1, -9.41409, 20.3624, 44.3955, -3.07016, -87.9793, -2.46712
0.432, -1, -9.29405, 20.2638, 44.411, -2.89348, -87.7928, -2.5822
0.436, -1, -9.17403, 20.1652, 44.4265, -2.71684, -87.6064, -2.69726
0.44, -1, -9.05404, 20.0667, 44.4419, -2.54024, -87.42, -2.81229
0.444, -1, -8.93409, 19.9681, 44.4574, -2.36369, -87.2337, -2.92729
0.448, -1, -8.81417, 19.8696, 44.4729, -2.1872, -87.0474, -3.04225
0.452, -1, -8.6943, 19.7712, 44.4883, -2.01078, -86.8612, -3.15716
0.456, -1, -8.57448, 19.6727, 44.5038, -1.83444, -86.6751, -3.27203
0.46, -1, -8.45471, 19.5744, 44.5192, -1.65818, -86.489, -3.38684
0.464, -1, -8.33501, 19.476, 44.5346, -1.48201, -86.3031, -3.50159
0.468, -1, -8.21537, 19.3778, 44.5501, -1.30593, -86.1173, -3.61628
0.472, -1, -8.0958, 19.2796, 44.5655, -1.12997, -85.9315, -3.73089
0.476, -1, -7.97631, 19.1814, 44.5809, -0.954123, -85.746, -3.84544
0.48, -1, -7.8569, 19.0834, 44.5963, -0.778397, -85.5605, -3.9599
0.484, -1, -7.73757, 18.9854, 44.6116, -0.602801, -85.3752, -4.07428
0.488, -1, -7.61834, 18.8874, 44.627, -0.427343, -85.19, -4.18856
0.492, -1, -7.49921, 18.7896, 44.6424, -0.25203, -85.0049, -4.30276
0.496, -1, -7.38018, 18.6918, 44.6577, -0.076871, -84.8201, -4.41685
0.5, -1, -7.26126, 18.5942, 44.673, 0.0981278, -84.6354, -4.53084
0.504, -1, -7.14245, 18.4966, 44.6883, 0.272959, -84.4509, -4.64472
0.508, -1, -7.02375, 18.3991, 44.7036, 0.447614, -84.2665, -4.75848
0.512, -1, -6.90518, 18.3017, 44.7189, 0.622086, -84.0824, -4.87213
0.516, -1, -6.78674, 18.2045, 44.7342, 0.796369, -83.8984, -4.98565
0.52, -1, -6.66843, 18.1073, 44.7494, 0.970454, -83.7147, -5.09905
0.524, -1, -6.55026, 18.0103, 44.7647, 1.14434, -83.5312, -5.21231
0.528, -1, -6.43223, 17.9133, 44.7799, 1.31801, -83.3479, -5.32543
0.532, -1, -6.31434, 17.8165, 44.7951, 1.49146, -83.1648, -5.43841
0.536, -1, -6.19661, 17.7198, 44.8102, 1.66468, -82.982, -5.55125
0.54, -1, -6.07903, 17.6233, 44.8254, 1.83768, -82.7994, -5.66393
0.544, -1, -5.96161, 17.5269, 44.8405, 2.01044, -82.6171, -5.77646
0.548, -1, -5.84436, 17.4306, 44.8556, 2.18295, -82.435, -5.88883
0.552, -1, -5.72727, 17.3344, 44.8707, 2.35521, -82.2532, -6.00103
0.556, -1, -5.61036, 17.2384, 44.8858, 2.52721, -82.0716, -6.11307
0.56, -1, -5.49363, 17.1426, 44.9008, 2.69895, -81.8904, -6.22494
0.564, -1, -5.37708, 17.0469, 44.9159, 2.87042, -81.7094, -6.33663
0.568, -1, -5.26071, 16.9513, 44.9309, 3.04162, -81.5287, -6.44814
0.572, -1, -5.14454, 16.8559, 44.9458, 3.21253, -81.3483, -6.55947
0.576, -1, -5.02856, 16.7607, 44.9608, 3.38316, -81.1682, -6.67061
0.58, -1, -4.91278, 16.6656, 44.9757, 3.55349, -80.9885, -6.78156
0.584, -1, -4.79719, 16.5707, 44.9906, 3.72352, -80.809, -6.89231
0.588, -1, -4.68182, 16.476, 45.0055, 3.89325, -80.6299, -7.00287
0.592, -1, -4.56665, 16.3814, 45.0203, 4.06267, -80.451, -7.11322
0.596, -1, -4.4517, 16.287, 45.0351, 4.23177, -80.2726, -7.22337
0.6, -1, -4.33696, 16.1928, 45.0499, 4.40055, -80.0944, -7.33331
0.604, -1, -4.22243, 16.0988, 45.0647, 4.56901, -79.9166, -7.44304
0.608, -1, -4.10814, 16.0049, 45.0794, 4.73713, -79.7392, -7.55255
0.612, -1, -3.99406, 15.9112, 45.0941, 4.90493, -79.5621, -7.66184
0.616, -1, -3.88021, 15.8178, 45.1087, 5.07238, -79.3854, -7.77092
0.62, -1, -3.7666, 15.7245, 45.1234, 5.23949, -79.209, -7.87977
0.624, -1, -3.65322, 15.6314, 45.138, 5.40625, -79.033, -7.98839
0.628, -1, -3.54007, 15.5385, 45.1526, 5.57266, -78.8573, -8.09679
0.632, -1, -3.42716, 15.4458, 45.1671, 5.73872, -78.6821, -8.20495
0.636, -1, -3.31449, 15.3533, 45.1816, 5.90442, -78.5072, -8.31288
0.64, -1, -3.20207, 15.261, 45.1961, 6.06975, -78.3327, -8.42058
0.644, -1, -3.08989, 15.1689, 45.2106, 6.23473, -78.1586, -8.52804
0.648, -1, -2.97796, 15.077, 45.225, 6.39933, -77.9848, -8.63526
0.652, -1, -2.86628, 14.9853, 45.2394, 6.56357, -77.8115, -8.74224
0.656, -1, -2.75485, 14.8938, 45.2538, 6.72744, -77.6386, -8.84898
0.66, -1, -2.64367, 14.8025, 45.2681, 6.89093, -77.466, -8.95547
0.664, -1, -2.53275, 14.7115, 45.2824, 7.05404, -77.2939, -9.06172
0.668, -1, -2.42209, 14.6206, 45.2966, 7.21677, -77.1221, -9.16772
0.672, -1, -2.31168, 14.5299, 45.3109, 7.37913, -76.9507, -9.27347
0.676, -1, -2.20153, 14.4395, 45.3251, 7.5411, -76.7798, -9.37897
0.68, -1, -2.09164, 14.3493, 45.3392, 7.70269, -76.6092, -9.48423
0.684, -1, -1.98201, 14.2593, 45.3533, 7.86389, -76.4391, -9.58923
0.688, -1, -1.87265, 14.1695, 45.3674, 8.0247, -76.2694, -9.69398
0.692, -1, -1.76355, 14.0799, 45.3815, 8.18512, -76.1001, -9.79848
0.696, -1, -1.65471, 13.9906, 45.3955, 8.34516, -75.9312, -9.90272
0.7, -1, -1.54614, 13.9014, 45.4095, 8.5048, -75.7627, -10.0067
0.704, -1, -1.43783, 13.8125, 45.4235, 8.66405, -75.5946, -10.1104
0.708, -1, -1.3298, 13.7238, 45.4374, 8.8229, -75.4269, -10.2139
0.712, -1, -1.22203, 13.6353, 45.4513, 8.98136, -75.2597, -10.3171
0.716, -1, -1.11453, 13.5471, 45.4651, 9.13942, -75.0929, -10.4201
0.72, -1, -1.0073, 13.4591, 45.4789, 9.29708, -74.9265, -10.5228
0.724, -1, -0.900341, 13.3712, 45.4927, 9.45434, -74.7605, -10.6252
0.728, -1, -0.793652, 13.2837, 45.5065, 9.61121, -74.5949, -10.7274
0.732, -1, -0.687235, 13.1963, 45.5202, 9.76767, -74.4298, -10.8293
0.736, -1, -0.58109, 13.1091, 45.5339, 9.92374, -74.2651, -10.931
0.74, -1, -0.475218, 13.0222, 45.5475, 10.0794, -74.1008, -11.0324
0.744, -1, -0.369619, 12.9355, 45.5611, 10.2347, -73.9369, -11.1335
0.748, -1, -0.264294, 12.8491, 45.5747, 10.3895, -73.7735, -11.2344
0.752, -1, -0.159242, 12.7628, 45.5882, 10.544, -73.6105, -11.335
0.756, -1, -0.0544645, 12.6768, 45.6017, 10.698, -73.4479, -11.4353
0.76, -1, 0.0500385, 12.591, 45.6152, 10.8517, -73.2857, -11.5354
0.764, -1, 0.154267, 12.5054, 45.6286, 11.0049, -73.124, -11.6352
0.768, -1, 0.25822, 12.4201, 45.642, 11.1577, -72.9627, -11.7347
0.772, -1, 0.361898, 12.335, 45.6554, 11.3102, -72.8018, -11.834
0.776, -1, 0.465301, 12.2501, 45.6687, 11.4622, -72.6414, -11.9331
0.78, -1, 0.568428, 12.1654, 45.682, 11.6138, -72.4813, -12.0318
0.784, -1, 0.67128, 12.081, 45.6952, 11.765, -72.3218, -12.1303
0.788, -1, 0.773856, 11.9968, 45.7085, 11.9158, -72.1626, -12.2285
0.792, -1, 0.876156, 11.9128, 45.7216, 12.0662, -72.0039, -12.3265
0.796, -1, 0.978181, 11.829, 45.7348, 12.2162, -71.8456, -12.4242
0.8, -1, 1.07993, 11.7455, 45.7479, 12.3658, -71.6877, -12.5216
0.804, -1, 1.1814, 11.6622, 45.761, 12.5149, -71.5302, -12.6188
0.808, -1, 1.2826, 11.5791, 45.774, 12.6637, -71.3732, -12.7157
0.812, -1, 1.38352, 11.4963, 45.787, 12.8121, -71.2166, -12.8124
0.816, -1, 1.48417, 11.4136, 45.8, 12.96, -71.0605, -12.9087
0.82, -1, 1.58454, 11.3312, 45.8129, 13.1076, -70.9047, -13.0048
0.824, -1, 1.68464, 11.2491, 45.8258, 13.2548, -70.7494, -13.1007
0.828, -1, 1.78446, 11.1671, 45.8387, 13.4015, -70.5945, -13.1963
0.832, -1, 1.88401, 11.0854, 45.8515, 13.5478, -70.4401, -13.2916
0.836, -1, 1.98329, 11.0039, 45.8643, 13.6938, -70.2861, -13.3867
0.84, -1, 2.0823, 10.9226, 45.8771, 13.8393, -70.1325, -13.4815
0.844, -1, 2.18103, 10.8416, 45.8898, 13.9844, -69.9793, -13.576
0.848, -1, 2.27949, 10.7607, 45.9025, 14.1292, -69.8265, -13.6703
0.852, -1, 2.37768, 10.6801, 45.9151, 14.2735, -69.6742, -13.7643
0.856, -1, 2.4756, 10.5997, 45.9278, 14.4174, -69.5223, -13.858
0.86, -1, 2.57325, 10.5196, 45.9403, 14.561, -69.3708, -13.9515
0.864, -1, 2.67063, 10.4396, 45.9529, 14.7041, -69.2197, -14.0448
0.868, -1, 2.76775, 10.3599, 45.9654, 14.8469, -69.0691, -14.1378
0.872, -1, 2.8646, 10.2804, 45.9779, 14.9892, -68.9188, -14.2305
0.876, -1, 2.96118, 10.2011, 45.9903, 15.1312, -68.769, -14.323
0.88, -1, 3.0575, 10.1221, 46.0027, 15.2727, -68.6196, -14.4152
0.884, -1, 3.15355, 10.0432, 46.0151, 15.4139, -68.4706, -14.5071
0.888, -1, 3.24934, 9.96457, 46.0275, 15.5547, -68.322, -14.5988
0.892, -1, 3.34487, 9.88615, 46.0398, 15.6951, -68.1738, -14.6903
0.896, -1, 3.44014, 9.80795, 46.052, 15.8352, -68.026, -14.7815
0.9, -1, 3.53514, 9.72995, 46.0643, 15.9748, -67.8786, -14.8725
0.904, -1, 3.62989, 9.65217, 46.0765, 16.1141, -67.7316, -14.9632
0.908, -1, 3.72438, 9.5746, 46.0887, 16.253, -67.585, -15.0537
0.912, -1, 3.81862, 9.49724, 46.1008, 16.3915, -67.4389, -15.1439
0.916, -1, 3.9126, 9.42009, 46.1129, 16.5296, -67.2931, -15.2338
0.92, -1, 4.00632, 9.34315, 46.125, 16.6674, -67.1477, -15.3236
0.924, -1, 4.0998, 9.26642, 46.1371, 16.8047, -67.0027, -15.4131
0.928, -1, 4.19302, 9.18989, 46.1491, 16.9418, -66.858, -15.5023
0.932, -1, 4.28599, 9.11357, 46.161, 17.0784, -66.7138, -15.5913
0.936, -1, 4.37871, 9.03745, 46.173, 17.2147, -66.57, -15.6801
0.94, -1, 4.47118, 8.96154, 46.1849, 17.3506, -66.4265, -15.7686
0.944, -1, 4.56341, 8.88583, 46.1968, 17.4862, -66.2835, -15.8569
0.948, -1, 4.65539, 8.81032, 46.2087, 17.6214, -66.1408, -15.945
0.952, -1, 4.74712, 8.73502, 46.2205, 17.7562, -65.9985, -16.0328
0.956, -1, 4.83861, 8.65991, 46.2323, 17.8907, -65.8565, -16.1204
0.96, -1, 4.92986, 8.585, 46.244, 18.0248, -65.715, -16.2078
0.964, -1, 5.02087, 8.5103, 46.2558, 18.1585, -65.5738, -16.2949
0.968, -1, 5.11163, 8.43578, 46.2674, 18.292, -65.433, -16.3818
0.972, -1, 5.20216, 8.36147, 46.2791, 18.425, -65.2926, -16.4685
0.976, -1, 5.29245, 8.28735, 46.2907, 18.5577, -65.1525, -16.5549
0.98, -1, 5.38249, 8.21343, 46.3024, 18.6901, -65.0128, -16.6411
0.984, -1, 5.47231, 8.1397, 46.3139, 18.8221, -64.8735, -16.7271
0.988, -1, 5.56189, 8.06616, 46.3255, 18.9538, -64.7345, -16.8129
0.992, -1, 5.65123, 7.99281, 46.337, 19.0851, -64.5959, -16.8984
0.996, -1, 5.74034, 7.91966, 46.3485, 19.2161, -64.4577, -16.9837
1, -1, 5.82922, 7.84669, 46.3599, 19.3467, -64.3198, -17.0688
1.004, -1, 5.91787, 7.77392, 46.3714, 19.477, -64.1823, -17.1537
1.008, -1, 6.00629, 7.70133, 46.3827, 19.607, -64.0451, -17.2384
1.012, -1, 6.09448, 7.62894, 46.3941, 19.7366, -63.9083, -17.3228
1.016, -1, 6.18245, 7.55672, 46.4054, 19.8659, -63.7719, -17.407
1.02, -1, 6.27018, 7.4847, 46.4168, 19.9948, -63.6358, -17.491
1.024, -1, 6.35769, 7.41286, 46.428, 20.1234, -63.5, -17.5748
1.027, -1, 6.44498, 7.3412, 46.4393, 20.2517, -63.3646, -17.6584
1.032, -1, 6.53204, 7.26973, 46.4505, 20.3797, -63.2295, -17.7417
1.036, -1, 6.61888, 7.19844, 46.4617, 20.5074, -63.0948, -17.8249
1.04, -1, 6.7055, 7.12733, 46.4729, 20.6347, -62.9605, -17.9078
1.044, -1, 6.79189, 7.05641, 46.484, 20.7617, -62.8264, -17.9905
1.048, -1, 6.87807, 6.98566, 46.4951, 20.8883, -62.6927, -18.073
1.052, -1, 6.96403, 6.91509, 46.5062, 21.0147, -62.5594, -18.1553
1.055, -1, 7.04978, 6.8447, 46.5172, 21.1407, -62.4264, -18.2374
1.06, -1, 7.1353, 6.77449, 46.5283, 21.2664, -62.2937, -18.3193
1.064, -1, 7.22061, 6.70445, 46.5392, 21.3918, -62.1614, -18.401
1.068, -1, 7.30571, 6.6346, 46.5502, 21.5169, -62.0293, -18.4824
1.072, -1, 7.39059, 6.56491, 46.5611, 21.6416, -61.8977, -18.5637
1.076, -1, 7.47526, 6.4954, 46.5721, 21.7661, -61.7663, -18.6448
1.08, -1, 7.55972, 6.42607, 46.583, 21.8902, -61.6353, -18.7256
1.084, -1, 7.64397, 6.3569, 46.5938, 22.0141, -61.5046, -18.8063
1.088, -1, 7.72801, 6.28791, 46.6046, 22.1376, -61.3742, -18.8868
1.091, -1, 7.81184, 6.21909, 46.6154, 22.2608, -61.2442, -18.967
1.096, -1, 7.89547, 6.15044, 46.6262, 22.3837, -61.1144, -19.0471
1.1, -1, 7.97889, 6.08195, 46.637, 22.5063, -60.985, -19.1269
1.104, -1, 8.0621, 6.01364, 46.6477, 22.6287, -60.8559, -19.2066
1.108, -1, 8.14511, 5.94549, 46.6584, 22.7507, -60.7272, -19.2861
1.112, -1, 8.22792, 5.87751, 46.6691, 22.8724, -60.5987, -19.3654
1.116, -1, 8.31053, 5.8097, 46.6797, 22.9938, -60.4706, -19.4445
1.119, -1, 8.39293, 5.74205, 46.6903, 23.1149, -60.3427, -19.5234
1.124, -1, 8.47514, 5.67456, 46.7009, 23.2357, -60.2152, -19.6021
1.128, -1, 8.55715, 5.60723, 46.7115, 23.3563, -60.088, -19.6806
1.132, -1, 8.63896, 5.54007, 46.722, 23.4765, -59.9611, -19.7589
1.136, -1, 8.72058, 5.47307, 46.7326, 23.5965, -59.8345, -19.837
1.14, -1, 8.802, 5.40623, 46.7431, 23.7161, -59.7082, -19.915
1.144, -1, 8.88322, 5.33954, 46.7535, 23.8355, -59.5822, -19.9927
1.147, -1, 8.96426, 5.27302, 46.764, 23.9546, -59.4565, -20.0703
1.152, -1, 9.0451, 5.20665, 46.7744, 24.0735, -59.3311, -20.1477
1.156, -1, 9.12575, 5.14044, 46.7848, 24.192, -59.206, -20.2249
1.16, -1, 9.20622, 5.07438, 46.7952, 24.3103, -59.0811, -20.302
1.164, -1, 9.28649, 5.00848, 46.8055, 24.4283, -58.9566, -20.3788
1.168, -1, 9.36658, 4.94273, 46.8158, 24.546, -58.8324, -20.4555
1.172, -1, 9.44648, 4.87714, 46.8261, 24.6634, -58.7084, -20.532
1.175, -1, 9.5262, 4.81169, 46.8364, 24.7806, -58.5847, -20.6083
1.18, -1, 9.60574, 4.7464, 46.8466, 24.8975, -58.4614, -20.6845
1.184, -1, 9.68509, 4.68126, 46.8569, 25.0141, -58.3383, -20.7604
1.188, -1, 9.76426, 4.61626, 46.8671, 25.1305, -58.2155, -20.8362
1.192, -1, 9.84325, 4.55141, 46.8773, 25.2466, -58.0929, -20.9119
1.196, -1, 9.92206, 4.48671, 46.8874, 25.3624, -57.9707, -20.9873
1.2, -1, 10.0007, 4.42216, 46.8976, 25.478, -57.8487, -21.0626
1.204, -1, 10.0791, 4.35775, 46.9077, 25.5933, -57.727, -21.1377
1.208, -1, 10.1574, 4.29349, 46.9178, 25.7084, -57.6055, -21.2127
1.212, -1, 10.2355, 4.22937, 46.9278, 25.8232, -57.4844, -21.2874
1.216, -1, 10.3134, 4.16539, 46.9379, 25.9377, -57.3635, -21.3621
1.22, -1, 10.3912, 4.10156, 46.9479, 26.052, -57.2429, -21.4365
1.224, -1, 10.4688, 4.03787, 46.9579, 26.166, -57.1225, -21.5108
1.228, -1, 10.5462, 3.97432, 46.9679, 26.2798, -57.0024, -21.5849
1.232, -1, 10.6234, 3.9109, 46.9778, 26.3933, -56.8826, -21.6588
1.236, -1, 10.7005, 3.84763, 46.9878, 26.5066, -56.763, -21.7326
1.24, -1, 10.7774, 3.7845, 46.9977, 26.6197, -56.6437, -21.8063
1.244, -1, 10.8541, 3.7215, 47.0076, 26.7325, -56.5247, -21.8797
1.248, -1, 10.9307, 3.65864, 47.0174, 26.845, -56.4059, -21.953
1.252, -1, 11.0071, 3.59591, 47.0273, 26.9573, -56.2874, -22.0262
1.256, -1, 11.0834, 3.53333, 47.0371, 27.0694, -56.1691, -22.0992
1.26, -1, 11.1594, 3.47087, 47.0469, 27.1812, -56.0511, -22.172
1.264, -1, 11.2353, 3.40855, 47.0567, 27.2928, -55.9333, -22.2447
1.267, -1, 11.3111, 3.34636, 47.0665, 27.4041, -55.8158, -22.3172
1.272, -1, 11.3867, 3.28431, 47.0762, 27.5152, -55.6985, -22.3896
1.276, -1, 11.4621, 3.22238, 47.0859, 27.6261, -55.5815, -22.4618
1.28, -1, 11.5374, 3.16059, 47.0956, 27.7367, -55.4648, -22.5339
1.284, -1, 11.6125, 3.09893, 47.1053, 27.8471, -55.3482, -22.6058
1.288, -1, 11.6874, 3.0374, 47.115, 27.9573, -55.232, -22.6775
1.292, -1, 11.7622, 2.97599, 47.1246, 28.0672, -55.1159, -22.7492
1.295, -1, 11.8369, 2.91471, 47.1342, 28.1769, -55.0001, -22.8206
1.3, -1, 11.9113, 2.85357, 47.1438, 28.2864, -54.8846, -22.8919
1.304, -1, 11.9857, 2.79254, 47.1534, 28.3957, -54.7693, -22.9631
1.308, -1, 12.0598, 2.73165, 47.163, 28.5047, -54.6542, -23.0341
1.312, -1, 12.1339, 2.67088, 47.1725, 28.6135, -54.5394, -23.105
1.316, -1, 12.2077, 2.61023, 47.182, 28.7221, -54.4248, -23.1757
1.32, -1, 12.2814, 2.54971, 47.1915, 28.8304, -54.3104, -23.2463
1.324, -1, 12.355, 2.48931, 47.201, 28.9386, -54.1963, -23.3167
1.328, -1, 12.4284, 2.42904, 47.2105, 29.0465, -54.0824, -23.387
1.332, -1, 12.5017, 2.36888, 47.2199, 29.1542, -53.9687, -23.4572
1.336, -1, 12.5748, 2.30885, 47.2293, 29.2617, -53.8553, -23.5272
1.34, -1, 12.6478, 2.24894, 47.2387, 29.3689, -53.7421, -23.5971
1.344, -1, 12.7206, 2.18915, 47.2481, 29.476, -53.6291, -23.6668
1.348, -1, 12.7933, 2.12948, 47.2575, 29.5828, -53.5163, -23.7364
1.352, -1, 12.8659, 2.06993, 47.2669, 29.6895, -53.4038, -23.8058
1.356, -1, 12.9383, 2.0105, 47.2762, 29.7959, -53.2915, -23.8752
1.36, -1, 13.0105, 1.95118, 47.2855, 29.9021, -53.1794, -23.9443
1.364, -1, 13.0826, 1.89199, 47.2948, 30.0081, -53.0675, -24.0134
1.368, -1, 13.1546, 1.83291, 47.3041, 30.1138, -52.9559, -24.0823
1.372, -1, 13.2264, 1.77394, 47.3133, 30.2194, -52.8445, -24.151
1.376, -1, 13.2981, 1.71509, 47.3226, 30.3248, -52.7333, -24.2197
1.38, -1, 13.3696, 1.65636, 47.3318, 30.4299, -52.6223, -24.2882
1.384, -1, 13.441, 1.59774, 47.341, 30.5349, -52.5115, -24.3565
1.388, -1, 13.5123, 1.53923, 47.3502, 30.6396, -52.4009, -24.4248
1.392, -1, 13.5834, 1.48084, 47.3593, 30.7442, -52.2906, -24.4929
1.396, -1, 13.6544, 1.42256, 47.3685, 30.8485, -52.1805, -24.5608
1.4, -1, 13.7253, 1.36439, 47.3776, 30.9527, -52.0705, -24.6287
1.404, -1, 13.796, 1.30634, 47.3867, 31.0566, -51.9608, -24.6964
1.408, -1, 13.8666, 1.24839, 47.3958, 31.1604, -51.8513, -24.764
1.412, -1, 13.937, 1.19055, 47.4049, 31.2639, -51.742, -24.8314
1.416, -1, 14.0074, 1.13283, 47.414, 31.3673, -51.633, -24.8987
1.42, -1, 14.0775, 1.07521, 47.423, 31.4704, -51.5241, -24.9659
1.424, -1, 14.1476, 1.0177, 47.4321, 31.5734, -51.4154, -25.033
1.428, -1, 14.2175, 0.960302, 47.4411, 31.6762, -51.307, -25.0999
1.432, -1, 14.2873, 0.903009, 47.4501, 31.7788, -51.1987, -25.1668
1.436, -1, 14.357, 0.845822, 47.459, 31.8811, -51.0906, -25.2334
1.44, -1, 14.4265, 0.788742, 47.468, 31.9833, -50.9828, -25.3
1.444, -1, 14.4959, 0.731767, 47.4769, 32.0854, -50.8751, -25.3665
1.448, -1, 14.5652, 0.674897, 47.4859, 32.1872, -50.7676, -25.4328
1.452, -1, 14.6343, 0.618132, 47.4948, 32.2888, -50.6604, -25.499
1.456, -1, 14.7033, 0.56147, 47.5037, 32.3903, -50.5533, -25.5651
1.46, -1, 14.7722, 0.504912, 47.5126, 32.4915, -50.4464, -25.631
1.464, -1, 14.841, 0.448456, 47.5214, 32.5926, -50.3397, -25.6969
1.468, -1, 14.9096, 0.392102, 47.5303, 32.6935, -50.2333, -25.7626
1.472, -1, 14.9782, 0.33585, 47.5391, 32.7942, -50.127, -25.8282
1.476, -1, 15.0466, 0.279699, 47.5479, 32.8947, -50.0208, -25.8937
1.48, -1, 15.1148, 0.223648, 47.5567, 32.9951, -49.9149, -25.959
1.484, -1, 15.183, 0.167697, 47.5655, 33.0953, -49.8092, -26.0243
1.488, -1, 15.251, 0.111846, 47.5743, 33.1953, -49.7037, -26.0894
1.492, -1, 15.3189, 0.056093, 47.583, 33.2951, -49.5983, -26.1545
1.496, -1, 15.3867, 0.000438437, 47.5918, 33.3947, -49.4931, -26.2194
1.5, -1, 15.4544, -0.0551184, 47.6005, 33.4942, -49.3881, -26.2842
1.504, -1, 15.522, -0.110578, 47.6092, 33.5935, -49.2833, -26.3488
1.508, -1, 15.5894, -0.165941, 47.6179, 33.6926, -49.1787, -26.4134
1.512, -1, 15.6567, -0.221208, 47.6266, 33.7916, -49.0743, -26.4779
1.516, -1, 15.7239, -0.276379, 47.6352, 33.8904, -48.97, -26.5422
1.52, -1, 15.791, -0.331455, 47.6439, 33.989, -48.866, -26.6064
1.524, -1, 15.858, -0.386436, 47.6525, 34.0874, -48.7621, -26.6706
1.528, -1, 15.9248, -0.441323, 47.6611, 34.1857, -48.6583, -26.7346
1.532, -1, 15.9916, -0.496117, 47.6697, 34.2838, -48.5548, -26.7985
1.536, -1, 16.0582, -0.550817, 47.6783, 34.3817, -48.4514, -26.8623
1.54, -1, 16.1247, -0.605425, 47.6869, 34.4795, -48.3482, -26.926
1.544, -1, 16.1911, -0.65994, 47.6955, 34.5771, -48.2452, -26.9895
1.548, -1, 16.2574, -0.714364, 47.704, 34.6746, -48.1424, -27.053
1.552, -1, 16.3236, -0.768696, 47.7125, 34.7718, -48.0397, -27.1164
1.556, -1, 16.3897, -0.822938, 47.7211, 34.869, -47.9372, -27.1796
1.56, -1, 16.4556, -0.87709, 47.7295, 34.9659, -47.8349, -27.2428
1.564, -1, 16.5215, -0.931151, 47.738, 35.0627, -47.7327, -27.3058
1.568, -1, 16.5872, -0.985123, 47.7465, 35.1593, -47.6307, -27.3688
1.572, -1, 16.6529, -1.03901, 47.755, 35.2558, -47.5289, -27.4316
1.576, -1, 16.7184, -1.0928, 47.7634, 35.3521, -47.4272, -27.4944
1.58, -1, 16.7838, -1.14651, 47.7719, 35.4483, -47.3258, -27.557
1.584, -1, 16.8491, -1.20013, 47.7803, 35.5443, -47.2244, -27.6195
1.588, -1, 16.9143, -1.25366, 47.7887, 35.6401, -47.1233, -27.682
1.592, -1, 16.9794, -1.3071, 47.7971, 35.7358, -47.0223, -27.7443
1.596, -1, 17.0444, -1.36046, 47.8054, 35.8314, -46.9214, -27.8065
1.6, -1, 17.1093, -1.41374, 47.8138, 35.9268, -46.8208, -27.8687
1.604, -1, 17.1741, -1.46692, 47.8222, 36.022, -46.7203, -27.9307
1.608, -1, 17.2388, -1.52003, 47.8305, 36.1171, -46.6199, -27.9926
1.612, -1, 17.3034, -1.57304, 47.8388, 36.212, -46.5197, -28.0544
1.616, -1, 17.3678, -1.62598, 47.8471, 36.3068, -46.4197, -28.1162
1.62, -1, 17.4322, -1.67883, 47.8554, 36.4014, -46.3198, -28.1778
1.624, -1, 17.4965, -1.73159, 47.8637, 36.4959, -46.2201, -28.2394
1.628, -1, 17.5607, -1.78428, 47.872, 36.5902, -46.1206, -28.3008
1.632, -1, 17.6247, -1.83688, 47.8802, 36.6844, -46.0212, -28.3621
1.636, -1, 17.6887, -1.8894, 47.8885, 36.7784, -45.9219, -28.4234
1.64, -1, 17.7526, -1.94183, 47.8967, 36.8723, -45.8228, -28.4846
1.644, -1, 17.8163, -1.99419, 47.9049, 36.966, -45.7239, -28.5456
1.648, -1, 17.88, -2.04646, 47.9132, 37.0596, -45.6251, -28.6066
1.652, -1, 17.9436, -2.09866, 47.9213, 37.1531, -45.5265, -28.6674
1.656, -1, 18.0071, -2.15077, 47.9295, 37.2464, -45.428, -28.7282
1.66, -1, 18.0704, -2.2028, 47.9377, 37.3396, -45.3297, -28.7889
1.664, -1, 18.1337, -2.25476, 47.9459, 37.4326, -45.2315, -28.8495
1.668, -1, 18.1969, -2.30663, 47.954, 37.5255, -45.1335, -28.91
1.672, -1, 18.26, -2.35843, 47.9621, 37.6182, -45.0356, -28.9704
1.676, -1, 18.323, -2.41015, 47.9703, 37.7108, -44.9378, -29.0307
1.68, -1, 18.3859, -2.46179, 47.9784, 37.8033, -44.8403, -29.091
1.684, -1, 18.4487, -2.51335, 47.9865, 37.8956, -44.7428, -29.1511
1.688, -1, 18.5114, -2.56483, 47.9945, 37.9878, -44.6455, -29.2111
1.692, -1, 18.574, -2.61624, 48.0026, 38.0798, -44.5484, -29.2711
1.696, -1, 18.6366, -2.66757, 48.0107, 38.1717, -44.4514, -29.331
1.7, -1, 18.699, -2.71883, 48.0187, 38.2635, -44.3545, -29.3907
1.704, -1, 18.7613, -2.77001, 48.0268, 38.3551, -44.2578, -29.4504
1.708, -1, 18.8236, -2.82111, 48.0348, 38.4466, -44.1612, -29.51
1.712, -1, 18.8857, -2.87214, 48.0428, 38.538, -44.0648, -29.5695
1.716, -1, 18.9478, -2.92309, 48.0508, 38.6292, -43.9685, -29.629
1.72, -1, 19.0098, -2.97397, 48.0588, 38.7203, -43.8724, -29.6883
1.724, -1, 19.0716, -3.02477, 48.0668, 38.8113, -43.7764, -29.7476
1.728, -1, 19.1334, -3.07551, 48.0747, 38.9021, -43.6805, -29.8067
1.732, -1, 19.1951, -3.12616, 48.0827, 38.9928, -43.5848, -29.8658
1.736, -1, 19.2567, -3.17675, 48.0906, 39.0834, -43.4892, -29.9248
1.74, -1, 19.3183, -3.22726, 48.0985, 39.1738, -43.3937, -29.9837
1.744, -1, 19.3797, -3.2777, 48.1065, 39.2642, -43.2984, -30.0425
1.748, -1, 19.441, -3.32806, 48.1144, 39.3543, -43.2032, -30.1013
1.752, -1, 19.5023, -3.37836, 48.1223, 39.4444, -43.1082, -30.1599
1.756, -1, 19.5635, -3.42858, 48.1302, 39.5343, -43.0133, -30.2185
1.76, -1, 19.6246, -3.47873, 48.138, 39.6241, -42.9185, -30.277
1.764, -1, 19.6856, -3.52881, 48.1459, 39.7138, -42.8239, -30.3354
1.768, -1, 19.7465, -3.57882, 48.1538, 39.8033, -42.7294, -30.3937
1.772, -1, 19.8073, -3.62876, 48.1616, 39.8927, -42.635, -30.452
1.776, -1, 19.868, -3.67863, 48.1694, 39.982, -42.5407, -30.5101
1.78, -1, 19.9287, -3.72844, 48.1772, 40.0712, -42.4466, -30.5682
1.784, -1, 19.9893, -3.77817, 48.185, 40.1602, -42.3526, -30.6262
1.788, -1, 20.0498, -3.82783, 48.1928, 40.2492, -42.2588, -30.6841
1.792, -1, 20.1102, -3.87743, 48.2006, 40.338, -42.1651, -30.742
1.796, -1, 20.1705, -3.92695, 48.2084, 40.4266, -42.0715, -30.7997
1.8, -1, 20.2307, -3.97641, 48.2162, 40.5152, -41.978, -30.8574
1.804, -1, 20.2909, -4.0258, 48.2239, 40.6036, -41.8847, -30.915
1.808, -1, 20.351, -4.07513, 48.2317, 40.6919, -41.7915, -30.9726
1.812, -1, 20.411, -4.12438, 48.2394, 40.7801, -41.6984, -31.03
1.816, -1, 20.4709, -4.17357, 48.2471, 40.8682, -41.6054, -31.0874
1.82, -1, 20.5307, -4.2227, 48.2548, 40.9562, -41.5126, -31.1447
1.824, -1, 20.5905, -4.27176, 48.2625, 41.044, -41.4199, -31.2019
1.828, -1, 20.6501, -4.32075, 48.2702, 41.1317, -41.3273, -31.259
1.832, -1, 20.7097, -4.36968, 48.2779, 41.2193, -41.2348, -31.3161
1.836, -1, 20.7692, -4.41854, 48.2856, 41.3068, -41.1425, -31.3731
1.84, -1, 20.8287, -4.46734, 48.2933, 41.3942, -41.0503, -31.43
1.844, -1, 20.888, -4.51607, 48.3009, 41.4815, -40.9582, -31.4868
1.848, -1, 20.9473, -4.56474, 48.3085, 41.5686, -40.8662, -31.5436
1.852, -1, 21.0065, -4.61335, 48.3162, 41.6556, -40.7744, -31.6003
1.856, -1, 21.0656, -4.66189, 48.3238, 41.7425, -40.6826, -31.6569
1.86, -1, 21.1247, -4.71037, 48.3314, 41.8293, -40.591, -31.7134
1.864, -1, 21.1837, -4.75878, 48.339, 41.916, -40.4995, -31.7699
1.868, -1, 21.2425, -4.80714, 48.3466, 42.0026, -40.4082, -31.8263
1.872, -1, 21.3014, -4.85543, 48.3542, 42.0891, -40.3169, -31.8826
1.876, -1, 21.3601, -4.90366, 48.3618, 42.1754, -40.2258, -31.9389
1.88, -1, 21.4188, -4.95183, 48.3693, 42.2617, -40.1347, -31.995
1.884, -1, 21.4774, -4.99993, 48.3769, 42.3478, -40.0438, -32.0511
1.888, -1, 21.5359, -5.04798, 48.3844, 42.4338, -39.953, -32.1072
1.892, -1, 21.5943, -5.09596, 48.392, 42.5197, -39.8624, -32.1631
1.896, -1, 21.6527, -5.14388, 48.3995, 42.6055, -39.7718, -32.219
1.9, -1, 21.711, -5.19174, 48.407, 42.6912, -39.6814, -32.2749
1.904, -1, 21.7692, -5.23955, 48.4145, 42.7768, -39.591, -32.3306
1.908, -1, 21.8274, -5.28729, 48.422, 42.8623, -39.5008, -32.3863
1.912, -1, 21.8854, -5.33497, 48.4295, 42.9477, -39.4107, -32.4419
1.916, -1, 21.9434, -5.38259, 48.437, 43.033, -39.3207, -32.4974
1.92, -1, 22.0014, -5.43016, 48.4444, 43.1181, -39.2308, -32.5529
1.924, -1, 22.0592, -5.47766, 48.4519, 43.2032, -39.141, -32.6083
1.928, -1, 22.117, -5.52511, 48.4593, 43.2881, -39.0514, -32.6637
1.932, -1, 22.1747, -5.5725, 48.4668, 43.373, -38.9618, -32.7189
1.936, -1, 22.2324, -5.61983, 48.4742, 43.4577, -38.8724, -32.7741
1.94, -1, 22.2899, -5.6671, 48.4816, 43.5424, -38.783, -32.8293
1.944, -1, 22.3475, -5.71431, 48.489, 43.6269, -38.6938, -32.8843
1.948, -1, 22.4049, -5.76147, 48.4965, 43.7113, -38.6047, -32.9393
1.952, -1, 22.4623, -5.80857, 48.5038, 43.7957, -38.5157, -32.9943
1.956, -1, 22.5196, -5.85562, 48.5112, 43.8799, -38.4268, -33.0491
1.96, -1, 22.5768, -5.9026, 48.5186, 43.9641, -38.338, -33.1039
1.964, -1, 22.6339, -5.94953, 48.526, 44.0481, -38.2493, -33.1587
1.968, -1, 22.691, -5.99641, 48.5333, 44.132, -38.1607, -33.2133
1.972, -1, 22.7481, -6.04323, 48.5407, 44.2158, -38.0723, -33.2679
1.976, -1, 22.805, -6.08999, 48.548, 44.2996, -37.9839, -33.3225
1.98, -1, 22.8619, -6.1367, 48.5554, 44.3832, -37.8956, -33.3769
1.984, -1, 22.9187, -6.18335, 48.5627, 44.4667, -37.8075, -33.4314
1.988, -1, 22.9755, -6.22995, 48.57, 44.5502, -37.7194, -33.4857
1.992, -1, 23.0322, -6.27649, 48.5773, 44.6335, -37.6315, -33.54
1.996, -1, 23.0888, -6.32298, 48.5846, 44.7167, -37.5436, -33.5942
1.999, -1, 23.1453, -6.36941, 48.5919, 44.7999, -37.4558, -33.6484
2.004, -1, 23.2018, -6.41579, 48.5992, 44.8829, -37.3682, -33.7024
2.008, -1, 23.2582, -6.46212, 48.6065, 44.9659, -37.2807, -33.7565
2.012, -1, 23.3146, -6.50839, 48.6137, 45.0487, -37.1932, -33.8104
2.015, -1, 23.3709, -6.55461, 48.621, 45.1315, -37.1059, -33.8643
2.019, -1, 23.4271, -6.60077, 48.6282, 45.2141, -37.0186, -33.9182
2.024, -1, 23.4833, -6.64688, 48.6355, 45.2967, -36.9315, -33.972
2.028, -1, 23.5394, -6.69295, 48.6427, 45.3792, -36.8444, -34.0257
2.031, -1, 23.5954, -6.73895, 48.6499, 45.4616, -36.7575, -34.0794
2.036, -1, 23.6514, -6.78491, 48.6571, 45.5438, -36.6707, -34.1329
2.04, -1, 23.7073, -6.83081, 48.6644, 45.626, -36.5839, -34.1865
2.044, -1, 23.7631, -6.87666, 48.6716, 45.7081, -36.4973, -34.24
2.048, -1, 23.8189, -6.92246, 48.6787, 45.7901, -36.4107, -34.2934
2.051, -1, 23.8746, -6.96821, 48.6859, 45.872, -36.3243, -34.3467
2.055, -1, 23.9303, -7.0139, 48.6931, 45.9539, -36.2379, -34.4
2.06, -1, 23.9859, -7.05955, 48.7003, 46.0356, -36.1516, -34.4533
2.064, -1, 24.0414, -7.10514, 48.7074, 46.1172, -36.0655, -34.5064
2.068, -1, 24.0969, -7.15069, 48.7146, 46.1988, -35.9794, -34.5596
2.071, -1, 24.1523, -7.19618, 48.7217, 46.2802, -35.8934, -34.6126
2.076, -1, 24.2076, -7.24163, 48.7289, 46.3616, -35.8076, -34.6656
2.08, -1, 24.2629, -7.28702, 48.736, 46.4429, -35.7218, -34.7186
2.084, -1, 24.3181, -7.33237, 48.7431, 46.5241, -35.6361, -34.7714
2.087, -1, 24.3733, -7.37766, 48.7502, 46.6052, -35.5505, -34.8243
2.092, -1, 24.4284, -7.4229, 48.7573, 46.6862, -35.465, -34.877
2.096, -1, 24.4834, -7.46805, 48.7644, 46.7671, -35.3796, -34.9298
2.1, -1, 24.5381, -7.51304, 48.7715, 46.8479, -35.2943, -34.9824
2.104, -1, 24.5925, -7.55778, 48.7785, 46.9286, -35.2091, -35.035
2.107, -1, 24.6463, -7.60215, 48.7855, 47.0092, -35.1241, -35.0874
2.111, -1, 24.6995, -7.646, 48.7924, 47.0894, -35.0394, -35.1397
2.116, -1, 24.7518, -7.6892, 48.7992, 47.1693, -34.9551, -35.1918
2.12, -1, 24.8033, -7.73159, 48.8058, 47.2487, -34.8714, -35.2435
2.124, -1, 24.8536, -7.77304, 48.8124, 47.3271, -34.7887, -35.2946
2.127, -1, 24.9027, -7.81342, 48.8187, 47.4045, -34.7071, -35.345
2.132, -1, 24.9505, -7.85258, 48.8249, 47.4803, -34.6271, -35.3944
2.136, -1, 24.9968, -7.89035, 48.8309, 47.5542, -34.5492, -35.4426
2.14, -1, 25.0412, -7.92654, 48.8366, 47.6257, -34.4738, -35.4892
2.143, -1, 25.0837, -7.96099, 48.8421, 47.6943, -34.4014, -35.5339
2.148, -1, 25.124, -7.99357, 48.8472, 47.7596, -34.3326, -35.5764
2.152, -1, 25.162, -8.02426, 48.8521, 47.8209, -34.2679, -35.6164
2.156, -1, 25.1976, -8.05308, 48.8566, 47.878, -34.2078, -35.6536
2.16, -1, 25.2309, -8.08004, 48.8609, 47.9303, -34.1526, -35.6877
2.163, -1, 25.2618, -8.10518, 48.8649, 47.9776, -34.1027, -35.7185
2.168, -1, 25.2902, -8.12851, 48.8685, 48.0198, -34.0582, -35.746
2.172, -1, 25.3162, -8.15, 48.8719, 48.0568, -34.0191, -35.7701
2.176, -1, 25.3397, -8.16957, 48.8749, 48.0887, -33.9854, -35.7909
2.179, -1, 25.3607, -8.18717, 48.8776, 48.1157, -33.9568, -35.8084
2.184, -1, 25.3793, -8.20276, 48.88, 48.1382, -33.9331, -35.8231
2.188, -1, 25.3955, -8.21643, 48.8821, 48.1565, -33.9137, -35.835
2.192, -1, 25.4095, -8.22829, 48.884, 48.1711, -33.8982, -35.8445
2.196, -1, 25.4217, -8.23847, 48.8855, 48.1825, -33.8861, -35.8518
2.199, -1, 25.4321, -8.24707, 48.8868, 48.1912, -33.8769, -35.8575
2.204, -1, 25.4408, -8.2542, 48.8879, 48.1976, -33.8701, -35.8616
2.208, -1, 25.4481, -8.25997, 48.8888, 48.2022, -33.8651, -35.8646
2.212, -1, 25.4538, -8.26449, 48.8894, 48.2055, -33.8616, -35.8667
2.216, 2, 25.4583, -8.26791, 48.8899, 48.2078, -33.8592, -35.8682
2.219, 2, 25.4616, -8.2704, 48.8903, 48.2093, -33.8575, -35.8692
2.224, 2, 25.464, -8.27214, 48.8906, 48.2104, -33.8563, -35.8699
2.228, 2, 25.4656, -8.27333, 48.8908, 48.2111, -33.8556, -35.8703
2.232, 2, 25.4667, -8.27414, 48.8909, 48.2116, -33.855, -35.8707
2.235, 2, 25.4674, -8.27469, 48.891, 48.2119, -33.8547, -35.8709
2.24, 2, 25.4679, -8.27506, 48.891, 48.2121, -33.8545, -35.871
2.244, 2, 25.4683, -8.27531, 48.8911, 48.2123, -33.8543, -35.8711
2.248, 2, 25.4685, -8.27548, 48.8911, 48.2124, -33.8542, -35.8712
2.252, 2, 25.4687, -8.2756, 48.8911, 48.2125, -33.8541, -35.8712
2.255, 2, 25.4688, -8.27567, 48.8911, 48.2125, -33.854, -35.8712
2.259, 2, 25.4688, -8.27573, 48.8911, 48.2125, -33.854, -35.8713
2.264, 2, 25.4689, -8.27576, 48.8911, 48.2126, -33.854, -35.8713
2.268, 2, 25.4689, -8.27579, 48.8911, 48.2126, -33.854, -35.8713
2.272, 2, 25.4689, -8.2758, 48.8911, 48.2126, -33.854, -35.8713
2.275, 2, 25.469, -8.27582, 48.8911, 48.2126, -33.854, -35.8713
2.28, 2, 25.469, -8.27582, 48.8911, 48.2126, -33.854, -35.8713
2.284, 2, 25.469, -8.27583, 48.8911, 48.2126, -33.854, -35.8713
2.288, 2, 25.469, -8.27583, 48.8911, 48.2126, -33.854, -35.8713
2.291, 2, 25.469, -8.27583, 48.8911, 48.2126, -33.8539, -35.8713
2.296, 2, 25.469, -8.27584, 48.8911, 48.2126, -33.8539, -35.8713
2.3, 2, 25.469, -8.27584, 48.8911, 48.2126, -33.8539, -35.8713
2.304, 2, 25.469, -8.27584, 48.8911, 48.2126, -33.8539, -35.8713
2.308, 2, 25.469, -8.27584, 48.8911, 48.2126, -33.8539, -35.8713
2.311, 2, 25.469, -8.27584, 48.8911, 48.2126, -33.8539, -35.8713
2.316, 2, 25.469, -8.27584, 48.8911, 48.2126, -33.8539, -35.8713
2.32, 2, 25.469, -8.27584, 48.8911, 48.2126, -33.8539, -35.8713
2.324, 2, 25.469, -8.27584, 48.8911, 48.2126, -33.8539, -35.8713
2.328, 2, 25.469, -8.27584, 48.8911, 48.2126, -33.8539, -35.8713
2.331, 2, 25.469, -8.27584, 48.8911, 48.2126, -33.8539, -35.8713
2.336, 2, 25.469, -8.27584, 48.8911, 48.2126, -33.8539, -35.8713
2.34, 2, 25.469, -8.27584, 48.8911, 48.2126, -33.8539, -35.8713
2.344, 2, 25.469, -8.27584, 48.8911, 48.2126, -33.8539, -35.8713
2.347, 2, 25.469, -8.27584, 48.8911, 48.2126, -33.8539, -35.8713
2.352, 2, 25.469, -8.27584, 48.8911, 48.2126, -33.8539, -35.8713
2.356, 2, 25.469, -8.27584, 48.8911, 48.2126, -33.8539, -35.8713
2.36, 2, 25.469, -8.27584, 48.8911, 48.2126, -33.8539, -35.8713
2.364, 2, 25.469, -8.27584, 48.8911, 48.2126, -33.8539, -35.8713
2.367, 2, 25.469, -8.27584, 48.8911, 48.2126, -33.8539, -35.8713
2.372, 2, 25.469, -8.27584, 48.8911, 48.2126, -33.8539, -35.8713
2.376, 2, 25.469, -8.27584, 48.8911, 48.2126, -33.8539, -35.8713
2.38, 2, 25.469, -8.27584, 48.8911, 48.2126, -33.8539, -35.8713
2.383, 2, 25.469, -8.27584, 48.8911, 48.2126, -33.8539, -35.8713
2.388, 2, 25.469, -8.27584, 48.8911, 48.2126, -33.8539, -35.8713
2.392, 2, 25.469, -8.27584, 48.8911, 48.2126, -33.8539, -35.8713
2.396, 2, 25.469, -8.27584, 48.8911, 48.2126, -33.8539, -35.8713
2.4, 2, 25.469, -8.27584, 48.8911, 48.2126, -33.8539, -35.8713
2.403, 2, 25.469, -8.27584, 48.8911, 48.2126, -33.8539, -35.8713
2.408, 2, 25.469, -8.27584, 48.8911, 48.2126, -33.8539, -35.8713
2.412, 2, 25.469, -8.27584, 48.8911, 48.2126, -33.8539, -35.8713
2.416, 2, 25.469, -8.27584, 48.8911, 48.2126, -33.8539, -35.8713
2.42, 2, 25.469, -8.27584, 48.8911, 48.2126, -33.8539, -35.8713
2.423, 2, 25.469, -8.27584, 48.8911, 48.2126, -33.8539, -35.8713
2.428, 2, 25.469, -8.27584, 48.8911, 48.2126, -33.8539, -35.8713
2.432, 2, 25.469, -8.27584, 48.8911, 48.2126, -33.8539, -35.8713
2.436, 2, 25.469, -8.27584, 48.8911, 48.2126, -33.8539, -35.8713
2.439, 2, 25.469, -8.27584, 48.8911, 48.2126, -33.8539, -35.8713
2.444, 2, 25.469, -8.27584, 48.8911, 48.2126, -33.8539, -35.8713
2.448, 2, 25.469, -8.27584, 48.8911, 48.2126, -33.8539, -35.8713
2.452, 2, 25.469, -8.27584, 48.8911, 48.2126, -33.8539, -35.8713
2.456, 2, 25.469, -8.27584, 48.8911, 48.2126, -33.8539, -35.8713
2.459, 2, 25.469, -8.27584, 48.8911, 48.2126, -33.8539, -35.8713
2.464, 2, 25.469, -8.27584, 48.8911, 48.2126, -33.8539, -35.8713
2.468, 2, 25.469, -8.27584, 48.8911, 48.2126, -33.8539, -35.8713
2.472, 2, 25.469, -8.27584, 48.8911, 48.2126, -33.8539, -35.8713
2.476, 2, 25.469, -8.27584, 48.8911, 48.2126, -33.8539, -35.8713
2.479, 2, 25.469, -8.27584, 48.8911, 48.2126, -33.8539, -35.8713
2.484, 2, 25.469, -8.27584, 48.8911, 48.2126, -33.8539, -35.8713
2.488, 2, 25.469, -8.27584, 48.8911, 48.2126, -33.8539, -35.8713
2.492, 2, 25.469, -8.27584, 48.8911, 48.2126, -33.8539, -35.8713
2.495, 2, 25.469, -8.27584, 48.8911, 48.2126, -33.8539, -35.8713
2.5, 2, 25.469, -8.27584, 48.8911, 48.2126, -33.8539, -35.8713
2.504, 2, 25.469, -8.27584, 48.8911, 48.2126, -33.8539, -35.8713
2.508, 2, 25.469, -8.27584, 48.8911, 48.2126, -33.8539, -35.8713
2.512, 2, 25.469, -8.27584, 48.8911, 48.2126, -33.8539, -35.8713
2.515, 2, 25.469, -8.27584, 48.8911, 48.2126, -33.8539, -35.8713
2.52, 2, 25.469, -8.27584, 48.8911, 48.2126, -33.8539, -35.8713
2.524, 2, 25.469, -8.27584, 48.8911, 48.2126, -33.8539, -35.8713
2.528, 2, 25.469, -8.27584, 48.8911, 48.2126, -33.8539, -35.8713
2.531, 2, 25.469, -8.27584, 48.8911, 48.2126, -33.8539, -35.8713
2.536, 2, 25.469, -8.27584, 48.8911, 48.2126, -33.8539, -35.8713
2.54, 2, 25.469, -8.27584, 48.8911, 48.2126, -33.8539, -35.8713
2.544, 2, 25.469, -8.27584, 48.8911, 48.2126, -33.8539, -35.8713
2.548, 2, 25.469, -8.27584, 48.8911, 48.2126, -33.8539, -35.8713
2.551, 2, 25.469, -8.27584, 48.8911, 48.2126, -33.8539, -35.8713
2.556, 2, 25.469, -8.27584, 48.8911, 48.2126, -33.8539, -35.8713
2.56, 2, 25.469, -8.27584, 48.8911, 48.2126, -33.8539, -35.8713
2.564, 2, 25.469, -8.27584, 48.8911, 48.2126, -33.8539, -35.8713
2.568, 2, 25.469, -8.27584, 48.8911, 48.2126, -33.8539, -35.8713
2.571, 2, 25.469, -8.27584, 48.8911, 48.2126, -33.8539, -35.8713
2.576, 2, 25.469, -8.27584, 48.8911, 48.2126, -33.8539, -35.8713
2.58, 2, 25.469, -8.27584, 48.8911, 48.2126, -33.8539, -35.8713
2.584, 2, 25.469, -8.27584, 48.8911, 48.2126, -33.8539, -35.8713
2.587, 2, 25.469, -8.27584, 48.8911, 48.2126, -33.8539, -35.8713
2.592, 2, 25.469, -8.27584, 48.8911, 48.2126, -33.8539, -35.8713
2.596, 2, 25.469, -8.27584, 48.8911, 48.2126, -33.8539, -35.8713
2.6, 2, 25.469, -8.27584, 48.8911, 48.2126, -33.8539, -35.8713
2.604, 2, 25.469, -8.27584, 48.8911, 48.2126, -33.8539, -35.8713
2.607, 2, 25.469, -8.27584, 48.8911, 48.2126, -33.8539, -35.8713
2.612, 2, 25.469, -8.27584, 48.8911, 48.2126, -33.8539, -35.8713
2.616, 2, 25.469, -8.27584, 48.8911, 48.2126, -33.8539, -35.8713
2.62, 2, 25.469, -8.27584, 48.8911, 48.2126, -33.8539, -35.8713
2.624, 2, 25.469, -8.27584, 48.8911, 48.2126, -33.8539, -35.8713
2.627, 2, 25.469, -8.27584, 48.8911, 48.2126, -33.8539, -35.8713
2.632, 2, 25.469, -8.27584, 48.8911, 48.2126, -33.8539, -35.8713
2.636, 2, 25.469, -8.27584, 48.8911, 48.2126, -33.8539, -35.8713
2.64, 2, 25.469, -8.27584, 48.8911, 48.2126, -33.8539, -35.8713
2.643, 2, 25.469, -8.27584, 48.8911, 48.2126, -33.8539, -35.8713
2.648, 2, 25.469, -8.27584, 48.8911, 48.2126, -33.8539, -35.8713
2.652, 2, 25.469, -8.27584, 48.8911, 48.2126, -33.8539, -35.8713
2.656, 2, 25.469, -8.27584, 48.8911, 48.2126, -33.8539, -35.8713
2.66, 2, 25.469, -8.27584, 48.8911, 48.2126, -33.8539, -35.8713
2.663, 2, 25.469, -8.27584, 48.8911, 48.2126, -33.8539, -35.8713
2.668, 2, 25.469, -8.27584, 48.8911, 48.2126, -33.8539, -35.8713
2.672, 2, 25.469, -8.27584, 48.8911, 48.2126, -33.8539, -35.8713
2.676, 2, 25.469, -8.27584, 48.8911, 48.2126, -33.8539, -35.8713
2.679, 2, 25.469, -8.27584, 48.8911, 48.2126, -33.8539, -35.8713
2.684, 2, 25.469, -8.27584, 48.8911, 48.2126, -33.8539, -35.8713
2.688, 2, 25.469, -8.27584, 48.8911, 48.2126, -33.8539, -35.8713
2.692, 2, 25.469, -8.27584, 48.8911, 48.2126, -33.8539, -35.8713
2.696, 2, 25.469, -8.27584, 48.8911, 48.2126, -33.8539, -35.8713
2.699, 2, 25.469, -8.27584, 48.8911, 48.2126, -33.8539, -35.8713
2.704, 2, 25.469, -8.27584, 48.8911, 48.2126, -33.8539, -35.8713
2.708, 2, 25.469, -8.27584, 48.8911, 48.2126, -33.8539, -35.8713
2.712, 2, 25.469, -8.27584, 48.8911, 48.2126, -33.8539, -35.8713
2.716, 2, 25.469, -8.27584, 48.8911, 48.2126, -33.8539, -35.8713
2.719, 2, 25.469, -8.27584, 48.8911, 48.2126, -33.8539, -35.8713
2.724, 2, 25.469, -8.27584, 48.8911, 48.2126, -33.8539, -35.8713
2.728, 2, 25.469, -8.27584, 48.8911, 48.2126, -33.8539, -35.8713
2.732, 2, 25.469, -8.27584, 48.8911, 48.2126, -33.8539, -35.8713
2.735, 2, 25.469, -8.27584, 48.8911, 48.2126, -33.8539, -35.8713
2.74, 2, 25.469, -8.27584, 48.8911, 48.2126, -33.8539, -35.8713
2.744, 2, 25.469, -8.27584, 48.8911, 48.2126, -33.8539, -35.8713
2.748, 2, 25.469, -8.27584, 48.8911, 48.2126, -33.8539, -35.8713
2.752, 2, 25.469, -8.27584, 48.8911, 48.2126, -33.8539, -35.8713
2.755, 2, 25.469, -8.27584, 48.8911, 48.2126, -33.8539, -35.8713
2.76, 2, 25.469, -8.27584, 48.8911, 48.2126, -33.8539, -35.8713
2.764, 2, 25.469, -8.27584, 48.8911, 48.2126, -33.8539, -35.8713
2.768, 2, 25.469, -8.27584, 48.8911, 48.2126, -33.8539, -35.8713
2.772, 2, 25.469, -8.27584, 48.8911, 48.2126, -33.8539, -35.8713
2.775, 2, 25.469, -8.27584, 48.8911, 48.2126, -33.8539, -35.8713
2.78, 2, 25.469, -8.27584, 48.8911, 48.2126, -33.8539, -35.8713
2.784, 2, 25.469, -8.27584, 48.8911, 48.2126, -33.8539, -35.8713
2.788, 2, 25.469, -8.27584, 48.8911, 48.2126, -33.8539, -35.8713
2.791, 2, 25.469, -8.27584, 48.8911, 48.2126, -33.8539, -35.8713
2.796, 2, 25.469, -8.27584, 48.8911, 48.2126, -33.8539, -35.8713
2.8, 2, 25.469, -8.27584, 48.8911, 48.2126, -33.8539, -35.8713
2.804, 2, 25.469, -8.27584, 48.8911, 48.2126, -33.8539, -35.8713
2.808, 2, 25.469, -8.27584, 48.8911, 48.2126, -33.8539, -35.8713
2.811, 2, 25.469, -8.27584, 48.8911, 48.2126, -33.8539, -35.8713
2.816, 2, 25.469, -8.27584, 48.8911, 48.2126, -33.8539, -35.8713
2.82, 2, 25.469, -8.27584, 48.8911, 48.2126, -33.8539, -35.8713
2.824, 2, 25.469, -8.27584, 48.8911, 48.2126, -33.8539, -35.8713
2.828, 2, 25.469, -8.27584, 48.8911, 48.2126, -33.8539, -35.8713
2.831, 2, 25.469, -8.27584, 48.8911, 48.2126, -33.8539, -35.8713
2.836, 2, 25.469, -8.27584, 48.8911, 48.2126, -33.8539, -35.8713
2.84, 2, 25.469, -8.27584, 48.8911, 48.2126, -33.8539, -35.8713
2.844, 2, 25.469, -8.27584, 48.8911, 48.2126, -33.8539, -35.8713
2.847, 2, 25.469, -8.27584, 48.8911, 48.2126, -33.8539, -35.8713
2.852, 2, 25.469, -8.27584, 48.8911, 48.2126, -33.8539, -35.8713
2.856, 2, 25.469, -8.27584, 48.8911, 48.2126, -33.8539, -35.8713
2.86, 2, 25.469, -8.27584, 48.8911, 48.2126, -33.8539, -35.8713
2.864, 2, 25.469, -8.27584, 48.8911, 48.2126, -33.8539, -35.8713
2.867, 2, 25.469, -8.27584, 48.8911, 48.2126, -33.8539, -35.8713
2.872, 2, 25.469, -8.27584, 48.8911, 48.2126, -33.8539, -35.8713
2.876, 2, 25.469, -8.27584, 48.8911, 48.2126, -33.8539, -35.8713
2.88, 2, 25.469, -8.27584, 48.8911, 48.2126, -33.8539, -35.8713
2.883, 2, 25.469, -8.27584, 48.8911, 48.2126, -33.8539, -35.8713
2.888, 2, 25.469, -8.27584, 48.8911, 48.2126, -33.8539, -35.8713
2.892, 2, 25.469, -8.27584, 48.8911, 48.2126, -33.8539, -35.8713
2.896, 2, 25.469, -8.27584, 48.8911, 48.2126, -33.8539, -35.8713
2.9, 2, 25.469, -8.27584, 48.8911, 48.2126, -33.8539, -35.8713
2.903, 2, 25.469, -8.27584, 48.8911, 48.2126, -33.8539, -35.8713
2.908, 2, 25.469, -8.27584, 48.8911, 48.2126, -33.8539, -35.8713
2.912, 2, 25.469, -8.27584, 48.8911, 48.2126, -33.8539, -35.8713
2.916, 2, 25.469, -8.27584, 48.8911, 48.2126, -33.8539, -35.8713
2.92, 2, 25.469, -8.27584, 48.8911, 48.2126, -33.8539, -35.8713
2.923, 2, 25.469, -8.27584, 48.8911, 48.2126, -33.8539, -35.8713
2.928, 2, 25.469, -8.27584, 48.8911, 48.2126, -33.8539, -35.8713
2.932, 2, 25.469, -8.27584, 48.8911, 48.2126, -33.8539, -35.8713
2.936, 2, 25.469, -8.27584, 48.8911, 48.2126, -33.8539, -35.8713
2.939, 2, 25.469, -8.27584, 48.8911, 48.2126, -33.8539, -35.8713
2.944, 2, 25.469, -8.27584, 48.8911, 48.2126, -33.8539, -35.8713
2.948, 2, 25.469, -8.27584, 48.8911, 48.2126, -33.8539, -35.8713
2.952, 2, 25.469, -8.27584, 48.8911, 48.2126, -33.8539, -35.8713
2.956, 2, 25.469, -8.27584, 48.8911, 48.2126, -33.8539, -35.8713
2.959, 2, 25.469, -8.27584, 48.8911, 48.2126, -33.8539, -35.8713
2.964, 2, 25.469, -8.27584, 48.8911, 48.2126, -33.8539, -35.8713
2.968, 2, 25.469, -8.27584, 48.8911, 48.2126, -33.8539, -35.8713
2.972, 2, 25.469, -8.27584, 48.8911, 48.2126, -33.8539, -35.8713
2.976, 2, 25.469, -8.27584, 48.8911, 48.2126, -33.8539, -35.8713
2.98, 2, 25.469, -8.27584, 48.8911, 48.2126, -33.8539, -35.8713
2.984, 2, 25.469, -8.27584, 48.8911, 48.2126, -33.8539, -35.8713
2.988, 2, 25.469, -8.27584, 48.8911, 48.2126, -33.8539, -35.8713
2.992, 2, 25.469, -8.27584, 48.8911, 48.2126, -33.8539, -35.8713
2.995, 2, 25.469, -8.27584, 48.8911, 48.2126, -33.8539, -35.8713
3, 2, 25.469, -8.27584, 48.8911, 48.2126, -33.8539, -35.8713
3.004, 2, 25.469, -8.27584, 48.8911, 48.2126, -33.8539, -35.8713
3.008, 2, 25.469, -8.27584, 48.8911, 48.2126, -33.8539, -35.8713
3.012, 2, 25.469, -8.27584, 48.8911, 48.2126, -33.8539, -35.8713
3.015, 2, 25.469, -8.27584, 48.8911, 48.2126, -33.8539, -35.8713
3.02, 2, 25.469, -8.27584, 48.8911, 48.2126, -33.8539, -35.8713
3.024, 2, 25.469, -8.27584, 48.8911, 48.2126, -33.8539, -35.8713
3.028, 2, 25.469, -8.27584, 48.8911, 48.2126, -33.8539, -35.8713
3.031, 2, 25.469, -8.27584, 48.8911, 48.2126, -33.8539, -35.8713
3.036, 2, 25.469, -8.27584, 48.8911, 48.2126, -33.8539, -35.8713
3.04, 2, 25.469, -8.27584, 48.8911, 48.2126, -33.8539, -35.8713
3.044, 2, 25.469, -8.27584, 48.8911, 48.2126, -33.8539, -35.8713
3.048, 2, 25.469, -8.27584, 48.8911, 48.2126, -33.8539, -35.8713
3.051, 2, 25.469, -8.27584, 48.8911, 48.2126, -33.8539, -35.8713
3.056, 2, 25.469, -8.27584, 48.8911, 48.2126, -33.8539, -35.8713
3.06, 2, 25.469, -8.27584, 48.8911, 48.2126, -33.8539, -35.8713
3.064, 2, 25.469, -8.27584, 48.8911, 48.2126, -33.8539, -35.8713
3.068, 2, 25.469, -8.27584, 48.8911, 48.2126, -33.8539, -35.8713
3.071, 2, 25.469, -8.27584, 48.8911, 48.2126, -33.8539, -35.8713
3.076, 2, 25.469, -8.27584, 48.8911, 48.2126, -33.8539, -35.8713
3.08, 2, 25.469, -8.27584, 48.8911, 48.2126, -33.8539, -35.8713
3.084, 2, 25.469, -8.27584, 48.8911, 48.2126, -33.8539, -35.8713
3.087, 2, 25.469, -8.27584, 48.8911, 48.2126, -33.8539, -35.8713
3.092, 2, 25.469, -8.27584, 48.8911, 48.2126, -33.8539, -35.8713
3.096, 2, 25.469, -8.27584, 48.8911, 48.2126, -33.8539, -35.8713
3.1, 2, 25.469, -8.27584, 48.8911, 48.2126, -33.8539, -35.8713
3.104, 2, 25.469, -8.27584, 48.8911, 48.2126, -33.8539, -35.8713
3.107, 2, 25.469, -8.27584, 48.8911, 48.2126, -33.8539, -35.8713
3.112, 2, 25.469, -8.27584, 48.8911, 48.2126, -33.8539, -35.8713
3.116, 2, 25.469, -8.27584, 48.8911, 48.2126, -33.8539, -35.8713
3.12, 2, 25.469, -8.27584, 48.8911, 48.2126, -33.8539, -35.8713
3.124, 2, 25.469, -8.27584, 48.8911, 48.2126, -33.8539, -35.8713
3.128, 2, 25.469, -8.27584, 48.8911, 48.2126, -33.8539, -35.8713
3.132, 2, 25.469, -8.27584, 48.8911, 48.2126, -33.8539, -35.8713
3.136, 2, 25.469, -8.27584, 48.8911, 48.2126, -33.8539, -35.8713
3.14, 2, 25.469, -8.27584, 48.8911, 48.2126, -33.8539, -35.8713
3.143, 2, 25.469, -8.27584, 48.8911, 48.2126, -33.8539, -35.8713
3.148, 2, 25.469, -8.27584, 48.8911, 48.2126, -33.8539, -35.8713
3.152, 2, 25.469, -8.27584, 48.8911, 48.2126, -33.8539, -35.8713
3.156, 2, 25.469, -8.27584, 48.8911, 48.2126, -33.8539, -35.8713
3.16, 2, 25.469, -8.27584, 48.8911, 48.2126, -33.8539, -35.8713
3.163, 2, 25.469, -8.27584, 48.8911, 48.2126, -33.8539, -35.8713
3.168, 2, 25.469, -8.27584, 48.8911, 48.2126, -33.8539, -35.8713
3.172, 2, 25.469, -8.27584, 48.8911, 48.2126, -33.8539, -35.8713
3.176, 2, 25.469, -8.27584, 48.8911, 48.2126, -33.8539, -35.8713
3.179, 2, 25.469, -8.27584, 48.8911, 48.2126, -33.8539, -35.8713
3.184, 2, 25.469, -8.27584, 48.8911, 48.2126, -33.8539, -35.8713
3.188, 2, 25.469, -8.27584, 48.8911, 48.2126, -33.8539, -35.8713
3.192, 2, 25.469, -8.27584, 48.8911, 48.2126, -33.8539, -35.8713
3.196, 2, 25.469, -8.27584, 48.8911, 48.2126, -33.8539, -35.8713
3.199, 2, 25.469, -8.27584, 48.8911, 48.2126, -33.8539, -35.8713
3.204, 2, 25.469, -8.27584, 48.8911, 48.2126, -33.8539, -35.8713
3.208, 2, 25.469, -8.27584, 48.8911, 48.2126, -33.8539, -35.8713
3.212, 2, 25.469, -8.27584, 48.8911, 48.2126, -33.8539, -35.8713
3.216, 2, 25.469, -8.27584, 48.8911, 48.2126, -33.8539, -35.8713
3.22, 2, 25.469, -8.27584, 48.8911, 48.2126, -33.8539, -35.8713
3.224, 2, 25.469, -8.27584, 48.8911, 48.2126, -33.8539, -35.8713
3.228, 2, 25.469, -8.27584, 48.8911, 48.2126, -33.8539, -35.8713
3.232, 2, 25.469, -8.27584, 48.8911, 48.2126, -33.8539, -35.8713
3.235, 2, 25.469, -8.27584, 48.8911, 48.2126, -33.8539, -35.8713
3.24, 2, 25.469, -8.27584, 48.8911, 48.2126, -33.8539, -35.8713
3.244, 2, 25.469, -8.27584, 48.8911, 48.2126, -33.8539, -35.8713
3.248, 2, 25.469, -8.27584, 48.8911, 48.2126, -33.8539, -35.8713
3.252, 2, 25.469, -8.27584, 48.8911, 48.2126, -33.8539, -35.8713
3.255, 2, 25.469, -8.27584, 48.8911, 48.2126, -33.8539, -35.8713
3.26, 2, 25.469, -8.27584, 48.8911, 48.2126, -33.8539, -35.8713
3.264, 2, 25.469, -8.27584, 48.8911, 48.2126, -33.8539, -35.8713
3.268, 2, 25.469, -8.27584, 48.8911, 48.2126, -33.8539, -35.8713
3.272, 2, 25.469, -8.27584, 48.8911, 48.2126, -33.8539, -35.8713
3.276, 2, 25.469, -8.27584, 48.8911, 48.2126, -33.8539, -35.8713
3.28, 2, 25.469, -8.27584, 48.8911, 48.2126, -33.8539, -35.8713
3.284, 2, 25.469, -8.27584, 48.8911, 48.2126, -33.8539, -35.8713
3.288, 2, 25.469, -8.27584, 48.8911, 48.2126, -33.8539, -35.8713
3.291, 4, 25.469, -8.27584, 48.8911, 48.2126, -33.8539, -35.8713
3.296, 4, 25.469, -8.27584, 48.8911, 48.2126, -33.8539, -35.8713
3.3, 4, 25.469, -8.27584, 48.8911, 48.2126, -33.8539, -35.8713
3.304, 4, 25.469, -8.27584, 48.8911, 48.2126, -33.8539, -35.8713
3.308, 4, 25.469, -8.27584, 48.8911, 48.2126, -33.8539, -35.8713
3.312, 4, 25.469, -8.27584, 48.8911, 48.2126, -33.8539, -35.8713
3.316, 4, 25.469, -8.27584, 48.8911, 48.2126, -33.8539, -35.8713
3.32, 4, 25.469, -8.27584, 48.8911, 48.2126, -33.8539, -35.8713
3.324, 4, 25.469, -8.27584, 48.8911, 48.2126, -33.8539, -35.8713
3.328, 4, 25.469, -8.27584, 48.8911, 48.2126, -33.8539, -35.8713
3.332, 4, 25.469, -8.27584, 48.8911, 48.2126, -33.8539, -35.8713
3.336, 4, 25.469, -8.27584, 48.8911, 48.2126, -33.8539, -35.8713
3.34, 4, 25.469, -8.27584, 48.8911, 48.2126, -33.8539, -35.8713
3.344, 4, 25.469, -8.27584, 48.8911, 48.2126, -33.8539, -35.8713
3.347, 4, 25.469, -8.27584, 48.8911, 48.2126, -33.8539, -35.8713
3.352, 4, 25.469, -8.27584, 48.8911, 48.2126, -33.8539, -35.8713
3.356, 4, 25.469, -8.27584, 48.8911, 48.2126, -33.8539, -35.8713
3.36, 4, 25.469, -8.27584, 48.8911, 48.2126, -33.8539, -35.8713
3.364, 4, 25.469, -8.27584, 48.8911, 48.2126, -33.8539, -35.8713
3.368, 4, 25.469, -8.27584, 48.8911, 48.2126, -33.8539, -35.8713
3.372, 4, 25.469, -8.27584, 48.8911, 48.2126, -33.8539, -35.8713
3.376, 4, 25.469, -8.27584, 48.8911, 48.2126, -33.8539, -35.8713
3.38, 4, 25.469, -8.27584, 48.8911, 48.2126, -33.8539, -35.8713
3.383, 4, 25.469, -8.27584, 48.8911, 48.2126, -33.8539, -35.8713
3.388, 4, 25.469, -8.27584, 48.8911, 48.2126, -33.8539, -35.8713
3.392, 4, 25.469, -8.27584, 48.8911, 48.2126, -33.8539, -35.8713
3.396, 4, 25.469, -8.27584, 48.8911, 48.2126, -33.8539, -35.8713
3.4, 4, 25.469, -8.27584, 48.8911, 48.2126, -33.8539, -35.8713
3.403, 4, 25.469, -8.27584, 48.8911, 48.2126, -33.8539, -35.8713
3.408, 4, 25.469, -8.27584, 48.8911, 48.2126, -33.8539, -35.8713
3.412, 4, 25.469, -8.27584, 48.8911, 48.2126, -33.8539, -35.8713
3.416, 4, 25.469, -8.27584, 48.8911, 48.2126, -33.8539, -35.8713
3.42, 4, 25.469, -8.27584, 48.8911, 48.2126, -33.8539, -35.8713
3.424, 4, 25.4689, -8.27586, 48.8911, 48.2126, -33.8539, -35.8713
3.428, 4, 25.4687, -8.27591, 48.8912, 48.2126, -33.854, -35.8713
3.432, 4, 25.4681, -8.27607, 48.8913, 48.2125, -33.854, -35.8712
3.436, 4, 25.467, -8.27639, 48.8916, 48.2121, -33.8541, -35.8709
3.439, 4, 25.4651, -8.27697, 48.8922, 48.2113, -33.8543, -35.8703
3.444, 4, 25.4624, -8.27788, 48.8932, 48.2096, -33.8547, -35.8689
3.448, 4, 25.4587, -8.27922, 48.8949, 48.2065, -33.8555, -35.8663
3.452, 4, 25.4537, -8.28111, 48.8975, 48.201, -33.8568, -35.8618
3.456, 4, 25.4473, -8.28366, 48.9014, 48.1923, -33.859, -35.8545
3.46, 4, 25.4392, -8.28702, 48.9069, 48.1791, -33.8622, -35.8436
3.464, 4, 25.4291, -8.29133, 48.9145, 48.16, -33.8668, -35.8277
3.468, 5, 25.4164, -8.2968, 48.9246, 48.1335, -33.8732, -35.8056
3.472, 5, 25.4009, -8.30358, 48.9379, 48.0979, -33.8818, -35.776
3.476, 5, 25.382, -8.3118, 48.9549, 48.0513, -33.893, -35.7372
3.48, 5, 25.3595, -8.32154, 48.976, 47.9921, -33.9073, -35.6879
3.484, 5, 25.3333, -8.33285, 49.0017, 47.9185, -33.9251, -35.6266
3.488, 5, 25.3032, -8.34578, 49.0323, 47.8291, -33.9467, -35.5521
3.492, 5, 25.269, -8.36036, 49.0682, 47.7229, -33.9725, -35.4636
3.495, 5, 25.2306, -8.37663, 49.1095, 47.5992, -34.0027, -35.3605
3.5, 5, 25.1878, -8.39461, 49.1563, 47.4579, -34.0373, -35.2428
3.504, 5, 25.1407, -8.41432, 49.2086, 47.2994, -34.0764, -35.1107
3.508, 5, 25.0891, -8.43572, 49.266, 47.1244, -34.1197, -34.9649
3.512, 5, 25.0334, -8.45872, 49.3284, 46.9339, -34.1671, -34.8062
3.516, 5, 24.9738, -8.4832, 49.3952, 46.7293, -34.2184, -34.6359
3.52, 5, 24.9106, -8.50899, 49.466, 46.5122, -34.2732, -34.4553
3.524, 5, 24.8443, -8.53594, 49.5403, 46.2844, -34.3311, -34.2658
3.528, 5, 24.7752, -8.56393, 49.6176, 46.0477, -34.3917, -34.0689
3.531, 5, 24.7034, -8.59281, 49.6973, 45.8038, -34.4546, -33.8663
3.536, 5, 24.6291, -8.62245, 49.7789, 45.5545, -34.5196, -33.6591
3.54, 5, 24.5527, -8.6527, 49.8621, 45.3013, -34.5861, -33.4489
3.544, 5, 24.4743, -8.68342, 49.9463, 45.0453, -34.654, -33.2365
3.548, 5, 24.3943, -8.71444, 50.0313, 44.7876, -34.723, -33.0227
3.552, 5, 24.3129, -8.74561, 50.1167, 44.5289, -34.7929, -32.8083
3.556, 5, 24.2305, -8.77678, 50.2024, 44.2696, -34.8636, -32.5935
3.56, 5, 24.1472, -8.80786, 50.2882, 44.0102, -34.9351, -32.3787
3.564, 5, 24.0634, -8.83877, 50.374, 43.7508, -35.0073, -32.164
3.568, 5, 23.9791, -8.86946, 50.4598, 43.4916, -35.0801, -31.9497
3.572, 5, 23.8945, -8.89989, 50.5454, 43.2328, -35.1536, -31.7358
3.576, 5, 23.8095, -8.93005, 50.6309, 42.9743, -35.2276, -31.5223
3.58, 5, 23.7242, -8.95992, 50.7162, 42.7164, -35.3022, -31.3093
3.584, 5, 23.6387, -8.98948, 50.8013, 42.4589, -35.3774, -31.0969
3.587, 5, 23.5529, -9.01872, 50.8862, 42.2019, -35.4532, -30.885
3.592, 5, 23.4669, -9.04765, 50.9709, 41.9455, -35.5296, -30.6737
3.596, 5, 23.3806, -9.07625, 51.0554, 41.6896, -35.6066, -30.463
3.6, 5, 23.2942, -9.10452, 51.1397, 41.4343, -35.6841, -30.2528
3.604, 5, 23.2075, -9.13245, 51.2238, 41.1795, -35.7622, -30.0433
3.608, 5, 23.1207, -9.16006, 51.3076, 40.9253, -35.8408, -29.8344
3.612, 5, 23.0336, -9.18732, 51.3912, 40.6717, -35.9201, -29.626
3.616, 5, 22.9463, -9.21424, 51.4746, 40.4187, -35.9998, -29.4183
3.62, 5, 22.8588, -9.24083, 51.5577, 40.1663, -36.0802, -29.2112
3.624, 5, 22.7711, -9.26707, 51.6407, 39.9144, -36.1611, -29.0048
3.628, 5, 22.6832, -9.29296, 51.7234, 39.6631, -36.2426, -28.7989
3.632, 5, 22.5951, -9.31851, 51.8058, 39.4125, -36.3247, -28.5937
3.636, 5, 22.5068, -9.34371, 51.8881, 39.1624, -36.4073, -28.3891
3.64, 5, 22.4182, -9.36856, 51.9701, 38.9129, -36.4905, -28.1851
3.644, 5, 22.3295, -9.39307, 52.0519, 38.664, -36.5743, -27.9818
3.648, 5, 22.2406, -9.41722, 52.1334, 38.4157, -36.6586, -27.7791
3.652, 5, 22.1515, -9.44101, 52.2147, 38.1681, -36.7435, -27.577
3.656, 5, 22.0621, -9.46445, 52.2958, 37.921, -36.829, -27.3755
3.66, 5, 21.9726, -9.48754, 52.3767, 37.6745, -36.9151, -27.1747
3.664, 5, 21.8829, -9.51027, 52.4573, 37.4287, -37.0016, -26.9746
3.668, 5, 21.7929, -9.53264, 52.5377, 37.1834, -37.0888, -26.7751
3.672, 5, 21.7028, -9.55465, 52.6178, 36.9388, -37.1765, -26.5762
3.676, 5, 21.6124, -9.5763, 52.6977, 36.6948, -37.2648, -26.378
3.679, 5, 21.5219, -9.5976, 52.7774, 36.4514, -37.3537, -26.1804
3.684, 5, 21.4311, -9.61852, 52.8569, 36.2086, -37.4431, -25.9834
3.688, 5, 21.3402, -9.63908, 52.9361, 35.9664, -37.5331, -25.7872
3.692, 5, 21.249, -9.65928, 53.015, 35.7248, -37.6236, -25.5915
3.696, 5, 21.1577, -9.67911, 53.0938, 35.4839, -37.7147, -25.3965
3.7, 5, 21.0661, -9.69857, 53.1723, 35.2436, -37.8064, -25.2022
3.704, 5, 20.9744, -9.71766, 53.2505, 35.0039, -37.8986, -25.0085
3.708, 5, 20.8824, -9.73638, 53.3286, 34.7649, -37.9914, -24.8155
3.712, 5, 20.7903, -9.75473, 53.4064, 34.5264, -38.0848, -24.6232
3.716, 5, 20.6979, -9.7727, 53.4839, 34.2886, -38.1787, -24.4315
3.72, 5, 20.6054, -9.79029, 53.5612, 34.0515, -38.2732, -24.2404
3.724, 5, 20.5126, -9.80751, 53.6383, 33.8149, -38.3682, -24.0501
3.728, 5, 20.4197, -9.82434, 53.7151, 33.579, -38.4638, -23.8604
3.732, 5, 20.3265, -9.8408, 53.7917, 33.3437, -38.56, -23.6713
3.735, 5, 20.2332, -9.85687, 53.868, 33.1091, -38.6567, -23.483
3.74, 5, 20.1396, -9.87256, 53.9441, 32.8751, -38.754, -23.2953
3.744, 5, 20.0459, -9.88785, 54.0199, 32.6417, -38.8518, -23.1082
3.748, 5, 19.952, -9.90277, 54.0955, 32.409, -38.9502, -22.9219
3.752, 5, 19.8578, -9.91728, 54.1709, 32.1769, -39.0492, -22.7362
3.756, 5, 19.7635, -9.93141, 54.246, 31.9455, -39.1487, -22.5512
3.76, 5, 19.669, -9.94515, 54.3208, 31.7147, -39.2488, -22.3669
3.764, 5, 19.5743, -9.95848, 54.3954, 31.4845, -39.3494, -22.1832
3.768, 5, 19.4794, -9.97142, 54.4697, 31.255, -39.4506, -22.0002
3.772, 5, 19.3843, -9.98396, 54.5438, 31.0261, -39.5524, -21.8179
3.776, 5, 19.289, -9.9961, 54.6177, 30.7979, -39.6547, -21.6363
3.78, 5, 19.1935, -10.0078, 54.6913, 30.5703, -39.7576, -21.4554
3.784, 5, 19.0978, -10.0192, 54.7646, 30.3434, -39.861, -21.2751
3.788, 5, 19.0019, -10.0301, 54.8377, 30.1171, -39.965, -21.0955
3.792, 5, 18.9059, -10.0406, 54.9105, 29.8915, -40.0695, -20.9166
3.796, 5, 18.8096, -10.0507, 54.9831, 29.6665, -40.1746, -20.7384
3.8, 5, 18.7132, -10.0604, 55.0554, 29.4421, -40.2803, -20.5609
3.804, 5, 18.6166, -10.0697, 55.1274, 29.2184, -40.3865, -20.384
3.808, 5, 18.5197, -10.0785, 55.1992, 28.9954, -40.4933, -20.2079
3.812, 5, 18.4227, -10.087, 55.2707, 28.773, -40.6006, -20.0324
3.816, 5, 18.3255, -10.095, 55.342, 28.5513, -40.7085, -19.8576
3.82, 5, 18.2281, -10.1026, 55.413, 28.3302, -40.8169, -19.6835
3.824, 5, 18.1306, -10.1098, 55.4837, 28.1097, -40.9259, -19.5101
3.828, 5, 18.0328, -10.1166, 55.5542, 27.89, -41.0355, -19.3374
3.832, 5, 17.9349, -10.123, 55.6244, 27.6708, -41.1456, -19.1653
3.836, 5, 17.8367, -10.1289, 55.6944, 27.4523, -41.2562, -18.994
3.84, 5, 17.7384, -10.1344, 55.7641, 27.2345, -41.3674, -18.8233
3.844, 5, 17.6399, -10.1395, 55.8335, 27.0173, -41.4792, -18.6534
3.848, 5, 17.5412, -10.1441, 55.9026, 26.8008, -41.5915, -18.4841
3.852, 5, 17.4423, -10.1484, 55.9715, 26.5849, -41.7043, -18.3155
3.856, 5, 17.3433, -10.1521, 56.0401, 26.3697, -41.8177, -18.1476
3.86, 5, 17.244, -10.1555, 56.1085, 26.1552, -41.9317, -17.9804
3.864, 5, 17.1446, -10.1584, 56.1766, 25.9413, -42.0462, -17.8139
3.868, 5, 17.045, -10.1609, 56.2444, 25.728, -42.1612, -17.6481
3.872, 5, 16.9452, -10.163, 56.312, 25.5154, -42.2768, -17.483
3.876, 5, 16.8452, -10.1646, 56.3792, 25.3035, -42.393, -17.3186
3.88, 5, 16.7451, -10.1658, 56.4463, 25.0922, -42.5097, -17.1548
3.884, 5, 16.6448, -10.1665, 56.513, 24.8816, -42.6269, -16.9918
3.888, 5, 16.5443, -10.1668, 56.5795, 24.6716, -42.7447, -16.8295
3.892, 5, 16.4436, -10.1667, 56.6457, 24.4623, -42.863, -16.6678
3.896, 5, 16.3427, -10.1661, 56.7116, 24.2536, -42.9819, -16.5069
3.9, 5, 16.2417, -10.165, 56.7772, 24.0456, -43.1013, -16.3466
3.904, 5, 16.1405, -10.1635, 56.8426, 23.8383, -43.2213, -16.187
3.908, 5, 16.0391, -10.1616, 56.9077, 23.6316, -43.3418, -16.0282
3.912, 5, 15.9375, -10.1592, 56.9725, 23.4256, -43.4629, -15.87
3.916, 5, 15.8358, -10.1564, 57.037, 23.2202, -43.5845, -15.7125
3.92, 5, 15.7338, -10.1531, 57.1013, 23.0155, -43.7066, -15.5558
3.924, 5, 15.6318, -10.1494, 57.1653, 22.8114, -43.8293, -15.3997
3.928, 5, 15.5295, -10.1452, 57.229, 22.608, -43.9525, -15.2443
3.932, 5, 15.4271, -10.1405, 57.2924, 22.4052, -44.0763, -15.0896
3.936, 5, 15.3245, -10.1354, 57.3555, 22.2031, -44.2006, -14.9356
3.94, 5, 15.2217, -10.1298, 57.4184, 22.0016, -44.3254, -14.7823
3.944, 5, 15.1188, -10.1237, 57.4809, 21.8008, -44.4508, -14.6296
3.948, 5, 15.0157, -10.1172, 57.5432, 21.6006, -44.5766, -14.4777
3.952, 5, 14.9124, -10.1103, 57.6052, 21.4011, -44.7031, -14.3265
3.956, 5, 14.809, -10.1028, 57.6669, 21.2022, -44.83, -14.1759
3.96, 5, 14.7054, -10.0949, 57.7283, 21.004, -44.9575, -14.0261
3.964, 5, 14.6016, -10.0865, 57.7894, 20.8064, -45.0855, -13.8769
3.968, 5, 14.4977, -10.0777, 57.8503, 20.6094, -45.2141, -13.7284
3.972, 5, 14.3936, -10.0684, 57.9108, 20.4131, -45.3431, -13.5806
3.976, 5, 14.2894, -10.0586, 57.971, 20.2174, -45.4727, -13.4335
3.98, 5, 14.185, -10.0483, 58.031, 20.0224, -45.6028, -13.2871
3.984, 5, 14.0804, -10.0376, 58.0906, 19.828, -45.7334, -13.1414
3.988, 5, 13.9757, -10.0264, 58.15, 19.6343, -45.8646, -12.9964
3.992, 5, 13.8709, -10.0147, 58.2091, 19.4412, -45.9963, -12.852
3.996, 5, 13.7658, -10.0025, 58.2679, 19.2487, -46.1285, -12.7084
3.999, 5, 13.6606, -9.98985, 58.3263, 19.0569, -46.2612, -12.5654
4.004, 5, 13.5553, -9.97671, 58.3845, 18.8657, -46.3944, -12.4231
4.008, 5, 13.4498, -9.9631, 58.4424, 18.6751, -46.5282, -12.2815
4.012, 5, 13.3442, -9.94899, 58.5, 18.4852, -46.6624, -12.1406
4.016, 5, 13.2384, -9.93441, 58.5573, 18.2959, -46.7972, -12.0004
4.02, 5, 13.1325, -9.91934, 58.6142, 18.1073, -46.9325, -11.8608
4.024, 5, 13.0264, -9.90378, 58.6709, 17.9193, -47.0683, -11.722
4.028, 5, 12.9201, -9.88773, 58.7273, 17.7319, -47.2046, -11.5838
4.032, 5, 12.8137, -9.8712, 58.7834, 17.5451, -47.3414, -11.4463
4.036, 5, 12.7072, -9.85417, 58.8391, 17.359, -47.4787, -11.3095
4.04, 5, 12.6005, -9.83665, 58.8946, 17.1735, -47.6166, -11.1734
4.044, 5, 12.4937, -9.81863, 58.9497, 16.9887, -47.755, -11.0379
4.048, 5, 12.3867, -9.80013, 59.0046, 16.8044, -47.8938, -10.9032
4.052, 5, 12.2796, -9.78112, 59.0591, 16.6208, -48.0332, -10.7691
4.056, 5, 12.1723, -9.76162, 59.1134, 16.4379, -48.1731, -10.6357
4.06, 5, 12.0649, -9.74162, 59.1673, 16.2555, -48.3134, -10.503
4.064, 5, 11.9574, -9.72112, 59.2209, 16.0738, -48.4543, -10.371
4.068, 5, 11.8497, -9.70012, 59.2742, 15.8927, -48.5957, -10.2396
4.072, 5, 11.7418, -9.67861, 59.3272, 15.7123, -48.7376, -10.109
4.076, 5, 11.6339, -9.65661, 59.3798, 15.5324, -48.88, -9.97899
4.08, 5, 11.5258, -9.6341, 59.4322, 15.3532, -49.0229, -9.8497
4.084, 5, 11.4175, -9.61108, 59.4843, 15.1746, -49.1663, -9.72108
4.088, 5, 11.3091, -9.58756, 59.536, 14.9967, -49.3102, -9.59315
4.092, 5, 11.2006, -9.56354, 59.5874, 14.8193, -49.4546, -9.46589
4.096, 5, 11.092, -9.539, 59.6385, 14.6426, -49.5995, -9.33932
4.1, 5, 10.9832, -9.51396, 59.6893, 14.4665, -49.7449, -9.21342
4.104, 5, 10.8743, -9.4884, 59.7397, 14.291, -49.8907, -9.08819
4.108, 5, 10.7653, -9.46234, 59.7899, 14.1161, -50.0371, -8.96365
4.112, 5, 10.6561, -9.43577, 59.8397, 13.9419, -50.1839, -8.83977
4.116, 5, 10.5468, -9.40868, 59.8892, 13.7682, -50.3313, -8.71657
4.12, 5, 10.4374, -9.38109, 59.9384, 13.5952, -50.4791, -8.59404
4.124, 5, 10.3279, -9.35298, 59.9872, 13.4227, -50.6274, -8.47217
4.128, 5, 10.2182, -9.32436, 60.0357, 13.2509, -50.7762, -8.35097
4.132, 5, 10.1084, -9.29523, 60.0839, 13.0797, -50.9254, -8.23044
4.136, 5, 9.9985, -9.26559, 60.1318, 12.909, -51.0751, -8.11057
4.14, 5, 9.88847, -9.23543, 60.1793, 12.739, -51.2253, -7.99137
4.144, 5, 9.77833, -9.20476, 60.2266, 12.5696, -51.3759, -7.87282
4.148, 5, 9.66807, -9.17358, 60.2734, 12.4007, -51.5271, -7.75494
4.152, 5, 9.5577, -9.14188, 60.32, 12.2325, -51.6786, -7.63771
4.156, 5, 9.44721, -9.10967, 60.3662, 12.0648, -51.8307, -7.52114
4.16, 5, 9.33661, -9.07695, 60.4121, 11.8977, -51.9832, -7.40523
4.164, 5, 9.2259, -9.04371, 60.4577, 11.7312, -52.1361, -7.28997
4.168, 5, 9.11508, -9.00996, 60.503, 11.5653, -52.2895, -7.17536
4.172, 5, 9.00416, -8.97569, 60.5479, 11.4, -52.4433, -7.0614
4.176, 5, 8.89312, -8.94091, 60.5924, 11.2352, -52.5976, -6.94809
4.18, 5, 8.78198, -8.90562, 60.6367, 11.071, -52.7524, -6.83543
4.184, 5, 8.67074, -8.8698, 60.6806, 10.9074, -52.9076, -6.72342
4.188, 5, 8.55939, -8.83348, 60.7241, 10.7444, -53.0632, -6.61205
4.192, 5, 8.44795, -8.79663, 60.7674, 10.582, -53.2192, -6.50134
4.196, 5, 8.3364, -8.75927, 60.8103, 10.4201, -53.3757, -6.39126
4.2, 5, 8.22475, -8.72139, 60.8528, 10.2588, -53.5327, -6.28183
4.204, 5, 8.11301, -8.683, 60.895, 10.098, -53.69, -6.17304
4.208, 5, 8.00117, -8.64408, 60.9369, 9.93785, -53.8478, -6.06489
4.212, 5, 7.88923, -8.60465, 60.9784, 9.77824, -54.006, -5.95739
4.216, 5, 7.7772, -8.5647, 61.0196, 9.61919, -54.1647, -5.85052
4.22, 5, 7.66507, -8.52423, 61.0605, 9.4607, -54.3238, -5.74429
4.224, 5, 7.55286, -8.48324, 61.101, 9.30277, -54.4833, -5.6387
4.228, 5, 7.44055, -8.44173, 61.1411, 9.1454, -54.6432, -5.53375
4.232, 5, 7.32815, -8.39969, 61.1809, 8.98858, -54.8035, -5.42943
4.236, 5, 7.21566, -8.35714, 61.2204, 8.83233, -54.9643, -5.32575
4.24, 5, 7.10309, -8.31406, 61.2595, 8.67663, -55.1254, -5.2227
4.244, 5, 6.99043, -8.27047, 61.2983, 8.52148, -55.287, -5.12029
4.248, 5, 6.87769, -8.22634, 61.3367, 8.36688, -55.449, -5.01851
4.252, 5, 6.76486, -8.1817, 61.3748, 8.21284, -55.6114, -4.91737
4.256, 5, 6.65195, -8.13653, 61.4125, 8.05935, -55.7743, -4.81686
4.26, 5, 6.53896, -8.09083, 61.4498, 7.9064, -55.9375, -4.71698
4.264, 5, 6.42589, -8.04461, 61.4868, 7.75401, -56.1011, -4.61773
4.268, 5, 6.31274, -7.99786, 61.5235, 7.60215, -56.2651, -4.51911
4.272, 5, 6.19951, -7.95059, 61.5598, 7.45085, -56.4296, -4.42112
4.276, 5, 6.08621, -7.90279, 61.5957, 7.30008, -56.5944, -4.32376
4.28, 5, 5.97283, -7.85447, 61.6313, 7.14986, -56.7596, -4.22703
4.284, 5, 5.85938, -7.80562, 61.6665, 7.00017, -56.9253, -4.13092
4.288, 5, 5.74586, -7.75625, 61.7014, 6.85102, -57.0913, -4.03544
4.292, 5, 5.63227, -7.70636, 61.7359, 6.7024, -57.2577, -3.94057
4.296, 5, 5.51861, -7.65594, 61.7701, 6.55432, -57.4244, -3.84633
4.3, 5, 5.40488, -7.605, 61.8038, 6.40676, -57.5916, -3.75271
4.304, 5, 5.29109, -7.55353, 61.8373, 6.25973, -57.7592, -3.6597
4.308, 5, 5.17723, -7.50154, 61.8703, 6.11322, -57.9271, -3.56731
4.312, 5, 5.06331, -7.44903, 61.903, 5.96724, -58.0954, -3.47553
4.316, 5, 4.94933, -7.396, 61.9354, 5.82177, -58.264, -3.38437
4.32, 5, 4.83529, -7.34245, 61.9673, 5.67682, -58.433, -3.29381
4.324, 5, 4.72119, -7.28839, 61.9989, 5.53238, -58.6024, -3.20386
4.328, 5, 4.60704, -7.2338, 62.0302, 5.38845, -58.7721, -3.11451
4.332, 5, 4.49283, -7.1787, 62.061, 5.24502, -58.9422, -3.02576
4.336, 5, 4.37857, -7.12309, 62.0915, 5.10211, -59.1127, -2.93762
4.34, 5, 4.26425, -7.06696, 62.1217, 4.95969, -59.2834, -2.85007
4.344, 5, 4.14989, -7.01031, 62.1515, 4.81778, -59.4546, -2.76312
4.348, 5, 4.03547, -6.95316, 62.1809, 4.67636, -59.626, -2.67677
4.352, 5, 3.92101, -6.8955, 62.2099, 4.53543, -59.7978, -2.591
4.356, 5, 3.80651, -6.83733, 62.2386, 4.395, -59.9699, -2.50583
4.36, 5, 3.69196, -6.77865, 62.2669, 4.25506, -60.1424, -2.42125
4.364, 5, 3.57736, -6.71946, 62.2948, 4.11561, -60.3151, -2.33725
4.368, 5, 3.46273, -6.65977, 62.3223, 3.97664, -60.4882, -2.25384
4.372, 5, 3.34806, -6.59958, 62.3495, 3.83815, -60.6616, -2.17101
4.376, 5, 3.23335, -6.53888, 62.3763, 3.70014, -60.8353, -2.08876
4.38, 5, 3.1186, -6.47768, 62.4028, 3.56261, -61.0093, -2.00709
4.384, 5, 3.00382, -6.41599, 62.4288, 3.42556, -61.1837, -1.926
4.388, 5, 2.889, -6.35379, 62.4545, 3.28898, -61.3583, -1.84549
4.392, 5, 2.77416, -6.29109, 62.4798, 3.15287, -61.5332, -1.76555
4.396, 5, 2.65928, -6.2279, 62.5048, 3.01723, -61.7084, -1.68618
4.4, 5, 2.54438, -6.16421, 62.5293, 2.88205, -61.8839, -1.60738
4.404, 5, 2.42948, -6.10003, 62.5535, 2.74734, -62.0597, -1.52916
4.408, 5, 2.31465, -6.03541, 62.5773, 2.6131, -62.2358, -1.4515
4.412, 5, 2.20005, -5.9704, 62.6008, 2.47932, -62.4121, -1.37441
4.416, 5, 2.08585, -5.9051, 62.6239, 2.34604, -62.5887, -1.29792
4.42, 5, 1.97222, -5.83961, 62.6466, 2.21329, -62.7654, -1.22203
4.424, 5, 1.8593, -5.77405, 62.6689, 2.08116, -62.9422, -1.14679
4.428, 5, 1.74721, -5.70853, 62.6908, 1.94976, -63.1188, -1.07228
4.432, 5, 1.63608, -5.64315, 62.7124, 1.81928, -63.2951, -0.998575
4.436, 5, 1.52605, -5.57808, 62.7334, 1.68993, -63.4706, -0.925799
4.44, 5, 1.41732, -5.51351, 62.7541, 1.56197, -63.645, -0.854092
4.444, 5, 1.31023, -5.44969, 62.7742, 1.43573, -63.8178, -0.783625
4.448, 5, 1.20517, -5.38689, 62.7938, 1.31158, -63.9885, -0.714597
4.452, 5, 1.10255, -5.32531, 62.8127, 1.18998, -64.1564, -0.647239
4.456, 5, 1.00269, -5.26501, 62.8309, 1.07143, -64.3207, -0.581813
4.46, 5, 0.905777, -5.20582, 62.8482, 0.956474, -64.4807, -0.518601
4.464, 5, 0.811859, -5.14746, 62.8644, 0.84569, -64.6355, -0.45789
4.468, 5, 0.720907, -5.08959, 62.8792, 0.739614, -64.7843, -0.399948
4.472, 5, 0.632852, -5.03187, 62.8924, 0.6387, -64.9265, -0.344995
4.476, 6, 0.547642, -4.97405, 62.9038, 0.543261, -65.0618, -0.293174
4.48, 6, 0.465254, -4.91593, 62.9132, 0.453433, -65.19, -0.244536
4.484, 6, 0.38563, -4.85729, 62.9205, 0.369152, -65.3113, -0.199025
4.488, 6, 0.308587, -4.79782, 62.9254, 0.290149, -65.4263, -0.156477
4.492, 6, 0.233782, -4.73709, 62.9279, 0.215959, -65.5358, -0.116632
4.496, 6, 0.160786, -4.67463, 62.9277, 0.145942, -65.6408, -0.0791345
4.5, 6, 0.089165, -4.60997, 62.9248, 0.0793092, -65.7426, -0.0435588
4.504, 6, 0.0185238, -4.54278, 62.919, 0.015157, -65.8427, -0.00941942
4.508, 6, -0.0514703, -4.47284, 62.9105, -0.047499, -65.9425, 0.0238072
4.512, 6, -0.121046, -4.40009, 62.8992, -0.109682, -66.0437, 0.0566597
4.516, 6, -0.190332, -4.32451, 62.8853, -0.172402, -66.1478, 0.0896654
4.52, 6, -0.259447, -4.24601, 62.8688, -0.2366, -66.2563, 0.123309
4.524, 6, -0.328623, -4.16443, 62.8498, -0.303088, -66.3703, 0.158006
4.528, 6, -0.398237, -4.07952, 62.8286, -0.372503, -66.4907, 0.194075
4.532, 6, -0.468736, -3.99106, 62.8051, -0.445279, -66.6182, 0.231729
4.536, 6, -0.540565, -3.89882, 62.7796, -0.521641, -66.7529, 0.271072
4.54, 6, -0.614136, -3.80266, 62.7521, -0.601616, -66.8949, 0.312104
4.544, 6, -0.689789, -3.70244, 62.7226, -0.685067, -67.0437, 0.354743
4.548, 6, -0.767731, -3.59812, 62.6915, -0.771735, -67.1989, 0.398842
4.552, 6, -0.847994, -3.48976, 62.6586, -0.861277, -67.36, 0.444214
4.556, 6, -0.930454, -3.37752, 62.6243, -0.953305, -67.5261, 0.490646
4.56, 6, -1.01491, -3.26161, 62.5886, -1.04741, -67.6966, 0.53792
4.564, 6, -1.10117, -3.14229, 62.5517, -1.14318, -67.8708, 0.585815
4.568, 6, -1.18904, -3.01986, 62.5136, -1.24023, -68.0479, 0.634121
4.572, 6, -1.27838, -2.89465, 62.4745, -1.33817, -68.2273, 0.682644
4.576, 6, -1.36905, -2.76703, 62.4345, -1.43668, -68.4085, 0.731214
4.58, 6, -1.4609, -2.63732, 62.3936, -1.53548, -68.5908, 0.779687
4.584, 6, -1.55378, -2.50584, 62.3519, -1.63435, -68.774, 0.827946
4.588, 6, -1.6475, -2.37292, 62.3096, -1.73311, -68.9576, 0.875904
4.592, 6, -1.74181, -2.2389, 62.2666, -1.83164, -69.1416, 0.9235
4.596, 6, -1.83649, -2.10408, 62.2231, -1.92986, -69.3256, 0.970691
4.6, 6, -1.93136, -1.96869, 62.1791, -2.0277, -69.5096, 1.01745
4.604, 6, -2.02628, -1.83289, 62.1346, -2.12514, -69.6936, 1.06376
4.608, 6, -2.12117, -1.69678, 62.0897, -2.22214, -69.8774, 1.10961
4.612, 6, -2.21598, -1.56043, 62.0444, -2.31869, -70.0611, 1.15501
4.616, 6, -2.31065, -1.4239, 61.9987, -2.41479, -70.2445, 1.19993
4.62, 6, -2.40516, -1.28723, 61.9526, -2.51043, -70.4277, 1.24439
4.624, 6, -2.4995, -1.15043, 61.906, -2.6056, -70.6108, 1.28839
4.628, 6, -2.59365, -1.01354, 61.8591, -2.7003, -70.7935, 1.33193
4.632, 6, -2.6876, -0.87655, 61.8118, -2.79455, -70.9761, 1.37502
4.636, 6, -2.78135, -0.739485, 61.7642, -2.88833, -71.1583, 1.41765
4.64, 6, -2.87488, -0.602348, 61.7161, -2.98165, -71.3403, 1.45983
4.644, 6, -2.96821, -0.465147, 61.6676, -3.07452, -71.5221, 1.50158
4.648, 6, -3.06133, -0.327886, 61.6188, -3.16694, -71.7036, 1.54288
4.652, 6, -3.15423, -0.190569, 61.5696, -3.25891, -71.8848, 1.58375
4.656, 6, -3.24691, -0.0532012, 61.52, -3.35043, -72.0657, 1.62419
4.66, 6, -3.33938, 0.0842144, 61.47, -3.44151, -72.2463, 1.66421
4.664, 6, -3.43163, 0.221674, 61.4197, -3.53215, -72.4267, 1.7038
4.668, 6, -3.52366, 0.359175, 61.3689, -3.62236, -72.6068, 1.74298
4.672, 6, -3.61548, 0.496714, 61.3178, -3.71213, -72.7865, 1.78175
4.676, 6, -3.70708, 0.634287, 61.2663, -3.80148, -72.966, 1.82012
4.68, 6, -3.79846, 0.771893, 61.2145, -3.89041, -73.1451, 1.85808
4.684, 6, -3.88962, 0.909527, 61.1622, -3.97891, -73.324, 1.89565
4.688, 6, -3.98057, 1.04719, 61.1096, -4.067, -73.5026, 1.93283
4.692, 6, -4.07129, 1.18487, 61.0566, -4.15468, -73.6808, 1.96962
4.696, 6, -4.1618, 1.32258, 61.0033, -4.24194, -73.8587, 2.00603
4.7, 6, -4.25209, 1.4603, 60.9495, -4.3288, -74.0364, 2.04205
4.704, 6, -4.34216, 1.59804, 60.8954, -4.41526, -74.2137, 2.07771
4.708, 6, -4.43201, 1.73579, 60.8409, -4.50132, -74.3906, 2.11299
4.712, 6, -4.52164, 1.87354, 60.7861, -4.58698, -74.5673, 2.14792
4.716, 6, -4.61105, 2.01131, 60.7309, -4.67225, -74.7436, 2.18248
4.72, 6, -4.70024, 2.14908, 60.6753, -4.75713, -74.9196, 2.21668
4.724, 6, -4.78922, 2.28685, 60.6193, -4.84163, -75.0952, 2.25054
4.728, 6, -4.87797, 2.42463, 60.563, -4.92574, -75.2705, 2.28404
4.732, 6, -4.9665, 2.56239, 60.5063, -5.00948, -75.4455, 2.31721
4.736, 6, -5.05482, 2.70016, 60.4492, -5.09284, -75.6201, 2.35003
4.74, 6, -5.14291, 2.83791, 60.3918, -5.17583, -75.7943, 2.38252
4.744, 6, -5.23079, 2.97565, 60.334, -5.25846, -75.9683, 2.41468
4.748, 6, -5.31844, 3.11338, 60.2758, -5.34071, -76.1418, 2.44652
4.752, 6, -5.40588, 3.25109, 60.2173, -5.42261, -76.315, 2.47803
4.756, 6, -5.4931, 3.38878, 60.1584, -5.50415, -76.4879, 2.50922
4.76, 6, -5.58009, 3.52646, 60.0992, -5.58533, -76.6604, 2.54011
4.764, 6, -5.66687, 3.66411, 60.0395, -5.66616, -76.8325, 2.57068
4.768, 6, -5.75342, 3.80173, 59.9796, -5.74664, -77.0043, 2.60094
4.772, 6, -5.83975, 3.93933, 59.9192, -5.82678, -77.1757, 2.63091
4.776, 6, -5.92586, 4.0769, 59.8585, -5.90657, -77.3467, 2.66058
4.78, 6, -6.01175, 4.21443, 59.7975, -5.98602, -77.5173, 2.68995
4.784, 6, -6.09742, 4.35193, 59.736, -6.06514, -77.6876, 2.71903
4.788, 6, -6.18287, 4.48939, 59.6743, -6.14391, -77.8575, 2.74783
4.792, 6, -6.2681, 4.6268, 59.6121, -6.22236, -78.027, 2.77634
4.796, 6, -6.35311, 4.76418, 59.5496, -6.30047, -78.1961, 2.80458
4.8, 6, -6.4379, 4.90152, 59.4868, -6.37825, -78.3649, 2.83254
4.804, 6, -6.52247, 5.03881, 59.4236, -6.45571, -78.5332, 2.86023
4.808, 6, -6.60682, 5.17605, 59.36, -6.53284, -78.7012, 2.88765
4.812, 6, -6.69096, 5.31324, 59.2961, -6.60965, -78.8688, 2.91481
4.816, 6, -6.77487, 5.45038, 59.2319, -6.68614, -79.036, 2.9417
4.82, 6, -6.85856, 5.58746, 59.1672, -6.7623, -79.2028, 2.96834
4.824, 6, -6.94203, 5.72449, 59.1023, -6.83815, -79.3691, 2.99472
4.828, 6, -7.02529, 5.86146, 59.037, -6.91368, -79.5351, 3.02086
4.832, 6, -7.10832, 5.99837, 58.9713, -6.98889, -79.7008, 3.04674
4.836, 6, -7.19114, 6.13522, 58.9053, -7.06379, -79.866, 3.07239
4.84, 6, -7.27373, 6.272, 58.8389, -7.13838, -80.0308, 3.09779
4.844, 6, -7.35611, 6.40873, 58.7722, -7.21266, -80.1952, 3.12296
4.848, 6, -7.43827, 6.54538, 58.7051, -7.28663, -80.3592, 3.14789
4.852, 6, -7.52021, 6.68197, 58.6377, -7.36029, -80.5228, 3.17259
4.856, 6, -7.60193, 6.81848, 58.5699, -7.43365, -80.6859, 3.19707
4.86, 6, -7.68343, 6.95493, 58.5018, -7.5067, -80.8487, 3.22132
4.864, 6, -7.76472, 7.0913, 58.4334, -7.57945, -81.0111, 3.24536
4.868, 6, -7.84578, 7.22759, 58.3646, -7.65189, -81.1731, 3.26918
4.872, 6, -7.92663, 7.36381, 58.2954, -7.72404, -81.3346, 3.29278
4.876, 6, -8.00726, 7.49995, 58.226, -7.79589, -81.4957, 3.31618
4.88, 6, -8.08767, 7.63602, 58.1561, -7.86744, -81.6565, 3.33936
4.884, 6, -8.16786, 7.772, 58.086, -7.9387, -81.8168, 3.36235
4.888, 6, -8.24784, 7.90789, 58.0155, -8.00966, -81.9767, 3.38513
4.892, 6, -8.3276, 8.04371, 57.9446, -8.08034, -82.1361, 3.40772
4.896, 6, -8.40714, 8.17944, 57.8734, -8.15072, -82.2952, 3.43011
4.9, 6, -8.48647, 8.31508, 57.8019, -8.22081, -82.4538, 3.45231
4.904, 6, -8.56557, 8.45063, 57.73, -8.29062, -82.6121, 3.47432
4.908, 6, -8.64446, 8.58609, 57.6578, -8.36014, -82.7699, 3.49615
4.912, 6, -8.72314, 8.72146, 57.5853, -8.42937, -82.9272, 3.5178
4.916, 6, -8.8016, 8.85674, 57.5124, -8.49832, -83.0842, 3.53926
4.92, 6, -8.87984, 8.99193, 57.4392, -8.56699, -83.2407, 3.56055
4.924, 6, -8.95786, 9.12702, 57.3657, -8.63538, -83.3968, 3.58167
4.928, 6, -9.03567, 9.26201, 57.2918, -8.7035, -83.5525, 3.60262
4.932, 6, -9.11327, 9.3969, 57.2176, -8.77133, -83.7077, 3.6234
4.936, 6, -9.19065, 9.5317, 57.143, -8.83889, -83.8626, 3.64401
4.94, 6, -9.26781, 9.66639, 57.0681, -8.90618, -84.017, 3.66447
4.944, 6, -9.34476, 9.80098, 56.9929, -8.97319, -84.1709, 3.68476
4.948, 6, -9.42149, 9.93547, 56.9174, -9.03993, -84.3245, 3.7049
4.952, 6, -9.49801, 10.0699, 56.8415, -9.1064, -84.4776, 3.72489
4.956, 6, -9.57432, 10.2041, 56.7653, -9.1726, -84.6303, 3.74473
4.96, 6, -9.65041, 10.3383, 56.6888, -9.23854, -84.7825, 3.76442
4.964, 6, -9.72629, 10.4724, 56.612, -9.30421, -84.9343, 3.78396
4.968, 6, -9.80195, 10.6063, 56.5348, -9.36962, -85.0857, 3.80336
4.972, 6, -9.8774, 10.7402, 56.4573, -9.43476, -85.2366, 3.82263
4.976, 6, -9.95264, 10.8739, 56.3795, -9.49964, -85.3871, 3.84175
4.98, 6, -10.0277, 11.0075, 56.3013, -9.56427, -85.5372, 3.86074
4.984, 6, -10.1025, 11.141, 56.2229, -9.62863, -85.6868, 3.8796
4.988, 6, -10.1771, 11.2744, 56.1441, -9.69274, -85.836, 3.89833
4.992, 6, -10.2515, 11.4077, 56.0649, -9.75659, -85.9848, 3.91694
4.996, 6, -10.3256, 11.5408, 55.9855, -9.82019, -86.1331, 3.93542
5, 6, -10.3996, 11.6739, 55.9058, -9.88353, -86.281, 3.95378
5.004, 6, -10.4734, 11.8068, 55.8257, -9.94662, -86.4285, 3.97202
5.008, 6, -10.5469, 11.9396, 55.7453, -10.0095, -86.5754, 3.99015
5.012, 6, -10.6202, 12.0723, 55.6646, -10.0721, -86.722, 4.00816
5.016, 6, -10.6933, 12.2048, 55.5835, -10.1344, -86.8681, 4.02606
5.02, 6, -10.7662, 12.3372, 55.5022, -10.1965, -87.0138, 4.04385
5.024, 6, -10.8389, 12.4695, 55.4205, -10.2583, -87.1591, 4.06154
5.028, 6, -10.9114, 12.6017, 55.3386, -10.32, -87.3039, 4.07912
5.032, 6, -10.9837, 12.7338, 55.2563, -10.3813, -87.4482, 4.0966
5.036, 6, -11.0558, 12.8657, 55.1737, -10.4424, -87.5922, 4.11398
5.04, 6, -11.1276, 12.9975, 55.0908, -10.5033, -87.7356, 4.13126
5.044, 6, -11.1993, 13.1292, 55.0075, -10.5639, -87.8787, 4.14845
5.048, 6, -11.2707, 13.2607, 54.924, -10.6243, -88.0213, 4.16554
5.052, 6, -11.3419, 13.3921, 54.8401, -10.6845, -88.1634, 4.18255
5.056, 6, -11.413, 13.5234, 54.756, -10.7444, -88.3051, 4.19947
5.06, 6, -11.4838, 13.6546, 54.6715, -10.804, -88.4464, 4.2163
5.064, 6, -11.5544, 13.7856, 54.5867, -10.8635, -88.5872, 4.23305
5.068, 6, -11.6248, 13.9165, 54.5016, -10.9226, -88.7276, 4.24972
5.072, 6, -11.695, 14.0473, 54.4162, -10.9816, -88.8676, 4.26631
5.076, 6, -11.765, 14.1779, 54.3305, -11.0403, -89.0071, 4.28282
5.08, 6, -11.8348, 14.3084, 54.2445, -11.0987, -89.1461, 4.29926
5.084, 6, -11.9044, 14.4388, 54.1582, -11.157, -89.2848, 4.31562
5.088, 6, -11.9738, 14.569, 54.0716, -11.215, -89.4229, 4.33192
5.092, 6, -12.043, 14.6991, 53.9847, -11.2727, -89.5607, 4.34814
5.096, 6, -12.1119, 14.8291, 53.8974, -11.3302, -89.698, 4.36431
5.1, 6, -12.1807, 14.9589, 53.8099, -11.3875, -89.8349, 4.3804
5.104, 6, -12.2493, 15.0886, 53.7221, -11.4446, -89.9713, 4.39644
5.108, 6, -12.3176, 15.2182, 53.6339, -11.5014, -90.1073, 4.41242
5.112, 6, -12.3858, 15.3476, 53.5455, -11.5579, -90.2429, 4.42833
5.116, 6, -12.4538, 15.4769, 53.4568, -11.6143, -90.378, 4.4442
5.12, 6, -12.5215, 15.6061, 53.3677, -11.6704, -90.5127, 4.46001
5.124, 6, -12.5891, 15.7351, 53.2784, -11.7262, -90.647, 4.47576
5.128, 6, -12.6564, 15.864, 53.1888, -11.7819, -90.7808, 4.49147
5.132, 6, -12.7236, 15.9928, 53.0989, -11.8373, -90.9142, 4.50713
5.136, 6, -12.7905, 16.1214, 53.0086, -11.8925, -91.0472, 4.52274
5.14, 6, -12.8573, 16.2499, 52.9181, -11.9474, -91.1797, 4.53831
5.144, 6, -12.9239, 16.3782, 52.8273, -12.0021, -91.3118, 4.55384
5.148, 6, -12.9902, 16.5064, 52.7362, -12.0566, -91.4435, 4.56933
5.152, 6, -13.0564, 16.6345, 52.6448, -12.1108, -91.5747, 4.58478
5.156, 6, -13.1223, 16.7624, 52.5531, -12.1648, -91.7055, 4.60019
5.16, 6, -13.1881, 16.8902, 52.4611, -12.2186, -91.8359, 4.61557
5.164, 6, -13.2537, 17.0179, 52.3688, -12.2722, -91.9658, 4.63091
5.168, 6, -13.3191, 17.1454, 52.2762, -12.3255, -92.0953, 4.64623
5.172, 6, -13.3842, 17.2728, 52.1833, -12.3786, -92.2244, 4.66151
5.176, 6, -13.4492, 17.4001, 52.0902, -12.4315, -92.353, 4.67677
5.18, 6, -13.514, 17.5272, 51.9967, -12.4841, -92.4812, 4.692
5.184, 6, -13.5786, 17.6542, 51.903, -12.5365, -92.609, 4.70721
5.188, 6, -13.643, 17.781, 51.809, -12.5887, -92.7364, 4.72239
5.192, 6, -13.7072, 17.9077, 51.7147, -12.6407, -92.8634, 4.73756
5.196, 6, -13.7712, 18.0343, 51.6201, -12.6924, -92.9899, 4.7527
5.2, 6, -13.835, 18.1607, 51.5252, -12.7439, -93.1159, 4.76783
5.204, 6, -13.8986, 18.287, 51.43, -12.7952, -93.2416, 4.78294
5.208, 6, -13.962, 18.4131, 51.3345, -12.8463, -93.3668, 4.79804
5.212, 6, -14.0253, 18.5391, 51.2388, -12.8971, -93.4916, 4.81313
5.216, 6, -14.0883, 18.665, 51.1427, -12.9477, -93.616, 4.8282
5.22, 6, -14.1511, 18.7907, 51.0464, -12.9981, -93.74, 4.84327
5.224, 6, -14.2138, 18.9162, 50.9498, -13.0483, -93.8635, 4.85833
5.228, 6, -14.2763, 19.0417, 50.8529, -13.0982, -93.9866, 4.87338
5.232, 6, -14.3385, 19.167, 50.7558, -13.1479, -94.1093, 4.88843
5.236, 6, -14.4006, 19.2921, 50.6583, -13.1974, -94.2316, 4.90347
5.24, 6, -14.4625, 19.4171, 50.5606, -13.2467, -94.3534, 4.91852
5.244, 6, -14.5242, 19.542, 50.4626, -13.2958, -94.4748, 4.93356
5.248, 6, -14.5857, 19.6667, 50.3643, -13.3446, -94.5958, 4.94861
5.252, 6, -14.647, 19.7913, 50.2657, -13.3932, -94.7164, 4.96366
5.256, 6, -14.7082, 19.9158, 50.1669, -13.4416, -94.8366, 4.97872
5.26, 6, -14.7691, 20.0401, 50.0677, -13.4898, -94.9563, 4.99378
5.264, 6, -14.8298, 20.1643, 49.9683, -13.5377, -95.0756, 5.00885
5.268, 6, -14.8904, 20.2883, 49.8686, -13.5854, -95.1945, 5.02393
5.272, 6, -14.9508, 20.4122, 49.7687, -13.6329, -95.313, 5.03902
5.276, 6, -15.011, 20.5359, 49.6684, -13.6802, -95.4311, 5.05412
5.28, 6, -15.071, 20.6595, 49.5679, -13.7273, -95.5487, 5.06923
5.284, 6, -15.1308, 20.783, 49.4671, -13.7741, -95.6659, 5.08437
5.288, 6, -15.1904, 20.9063, 49.366, -13.8207, -95.7827, 5.09952
5.292, 6, -15.2499, 21.0295, 49.2647, -13.8671, -95.8991, 5.11468
5.296, 6, -15.3091, 21.1526, 49.163, -13.9133, -96.0151, 5.12987
5.3, 6, -15.3682, 21.2755, 49.0611, -13.9593, -96.1307, 5.14508
5.304, 6, -15.4271, 21.3982, 48.959, -14.005, -96.2459, 5.16031
5.308, 6, -15.4858, 21.5209, 48.8565, -14.0505, -96.3606, 5.17556
5.312, 6, -15.5443, 21.6434, 48.7538, -14.0958, -96.475, 5.19084
5.316, 6, -15.6027, 21.7657, 48.6508, -14.1409, -96.5889, 5.20614
5.32, 6, -15.6608, 21.8879, 48.5476, -14.1858, -96.7024, 5.22147
5.324, 6, -15.7188, 22.01, 48.444, -14.2304, -96.8156, 5.23683
5.328, 6, -15.7766, 22.132, 48.3402, -14.2748, -96.9283, 5.25222
5.332, 6, -15.8343, 22.2538, 48.2362, -14.319, -97.0406, 5.26763
5.336, 6, -15.8917, 22.3755, 48.1318, -14.363, -97.1525, 5.28309
5.34, 6, -15.949, 22.497, 48.0272, -14.4068, -97.2641, 5.29857
5.344, 6, -16.006, 22.6184, 47.9224, -14.4503, -97.3752, 5.31409
5.348, 6, -16.0629, 22.7397, 47.8172, -14.4936, -97.4859, 5.32964
5.352, 6, -16.1197, 22.8608, 47.7118, -14.5367, -97.5962, 5.34523
5.356, 6, -16.1762, 22.9818, 47.6061, -14.5796, -97.7061, 5.36086
5.36, 6, -16.2326, 23.1027, 47.5002, -14.6223, -97.8157, 5.37653
5.364, 6, -16.2888, 23.2235, 47.394, -14.6647, -97.9248, 5.39223
5.368, 6, -16.3448, 23.3441, 47.2875, -14.7069, -98.0336, 5.40798
5.372, 6, -16.4007, 23.4646, 47.1807, -14.7489, -98.1419, 5.42377
5.376, 6, -16.4563, 23.5849, 47.0737, -14.7907, -98.2499, 5.4396
5.38, 6, -16.5118, 23.7052, 46.9665, -14.8323, -98.3575, 5.45548
5.384, 6, -16.5672, 23.8252, 46.8589, -14.8736, -98.4646, 5.47141
5.388, 6, -16.6223, 23.9452, 46.7511, -14.9147, -98.5714, 5.48738
5.392, 6, -16.6773, 24.0651, 46.6431, -14.9556, -98.6778, 5.50339
5.396, 6, -16.7321, 24.1848, 46.5348, -14.9963, -98.7838, 5.51946
5.4, 6, -16.7867, 24.3043, 46.4262, -15.0368, -98.8895, 5.53558
5.404, 6, -16.8412, 24.4238, 46.3173, -15.077, -98.9947, 5.55174
5.408, 6, -16.8955, 24.5431, 46.2082, -15.1171, -99.0996, 5.56796
5.412, 6, -16.9496, 24.6623, 46.0989, -15.1569, -99.204, 5.58424
5.416, 6, -17.0035, 24.7814, 45.9892, -15.1965, -99.3081, 5.60056
5.42, 6, -17.0572, 24.9002, 45.8794, -15.2358, -99.4118, 5.61694
5.424, 6, -17.1106, 25.0189, 45.7693, -15.275, -99.5152, 5.63338
5.428, 6, -17.1635, 25.1372, 45.6591, -15.3139, -99.6181, 5.64987
5.432, 6, -17.216, 25.255, 45.5487, -15.3526, -99.7206, 5.66641
5.436, 6, -17.268, 25.3724, 45.4383, -15.391, -99.8227, 5.68299
5.44, 6, -17.3195, 25.4892, 45.3279, -15.4292, -99.9242, 5.69961
5.444, 6, -17.3704, 25.6052, 45.2177, -15.467, -100.025, 5.71624
5.448, 6, -17.4207, 25.7203, 45.1078, -15.5046, -100.125, 5.73288
5.452, 6, -17.4702, 25.8342, 44.9984, -15.5417, -100.225, 5.7495
5.456, 6, -17.5188, 25.9466, 44.8897, -15.5784, -100.323, 5.76606
5.46, 6, -17.5665, 26.0572, 44.782, -15.6145, -100.42, 5.78254
5.464, 6, -17.613, 26.1657, 44.6756, -15.6501, -100.516, 5.79887
5.468, 6, -17.6583, 26.2717, 44.5709, -15.6849, -100.61, 5.81502
5.472, 6, -17.7023, 26.3751, 44.4682, -15.7189, -100.702, 5.83091
5.476, 6, -17.745, 26.4755, 44.3679, -15.7519, -100.792, 5.84647
5.48, 6, -17.7861, 26.5727, 44.2705, -15.7838, -100.878, 5.86163
5.484, 6, -17.8258, 26.6664, 44.1762, -15.8145, -100.962, 5.87632
5.488, 6, -17.8637, 26.7562, 44.0857, -15.8438, -101.042, 5.89046
5.492, 6, -17.8999, 26.8417, 43.9992, -15.8716, -101.117, 5.90396
5.496, 6, -17.9342, 26.9229, 43.9172, -15.8978, -101.189, 5.91678
5.5, 6, -17.9667, 26.9994, 43.84, -15.9223, -101.256, 5.92883
5.504, 6, -17.9972, 27.0712, 43.7679, -15.9449, -101.318, 5.94007
5.508, 6, -18.0258, 27.1382, 43.701, -15.9658, -101.375, 5.95044
5.512, 6, -18.0526, 27.2003, 43.6395, -15.9847, -101.427, 5.95993
5.516, 6, -18.0775, 27.2574, 43.5834, -16.0017, -101.474, 5.96851
5.52, 6, -18.1004, 27.3097, 43.5329, -16.0169, -101.516, 5.97619
5.524, 6, -18.1215, 27.357, 43.4878, -16.0302, -101.552, 5.98298
5.528, 6, -18.1406, 27.3995, 43.4479, -16.0418, -101.584, 5.98891
5.532, 6, -18.158, 27.4374, 43.413, -16.0518, -101.612, 5.99402
5.536, 6, -18.1736, 27.4709, 43.3829, -16.0603, -101.635, 5.99837
5.54, 6, -18.1876, 27.5003, 43.3571, -16.0673, -101.654, 6.00202
5.544, 6, -18.1999, 27.5257, 43.3353, -16.0731, -101.67, 6.00502
5.548, 6, -18.2108, 27.5475, 43.3173, -16.0778, -101.683, 6.00747
5.552, 6, -18.2203, 27.5659, 43.3024, -16.0815, -101.693, 6.00942
5.556, 6, -18.2284, 27.5812, 43.2904, -16.0844, -101.701, 6.01095
5.56, 6, -18.2354, 27.5939, 43.2808, -16.0867, -101.708, 6.01213
5.564, 6, -18.2414, 27.6041, 43.2733, -16.0884, -101.712, 6.01301
5.568, 6, -18.2465, 27.6124, 43.2676, -16.0896, -101.716, 6.01367
5.572, 6, -18.2507, 27.6189, 43.2632, -16.0905, -101.718, 6.01415
5.576, 6, -18.2542, 27.6239, 43.2599, -16.0911, -101.72, 6.01448
5.58, 7, -18.257, 27.6277, 43.2575, -16.0916, -101.721, 6.01472
5.584, 7, -18.2591, 27.6305, 43.2558, -16.0919, -101.722, 6.01488
5.588, 7, -18.2606, 27.6324, 43.2546, -16.0921, -101.722, 6.01499
5.592, 7, -18.2617, 27.6338, 43.2538, -16.0922, -101.723, 6.01506
5.596, 7, -18.2624, 27.6347, 43.2532, -16.0923, -101.723, 6.01511
5.6, 7, -18.2629, 27.6353, 43.2529, -16.0924, -101.723, 6.01514
5.604, 7, -18.2632, 27.6357, 43.2526, -16.0924, -101.723, 6.01517
5.608, 7, -18.2634, 27.636, 43.2524, -16.0925, -101.723, 6.01518
5.612, 7, -18.2636, 27.6362, 43.2523, -16.0925, -101.723, 6.01519
5.616, 7, -18.2637, 27.6363, 43.2522, -16.0925, -101.723, 6.0152
5.62, 7, -18.2637, 27.6364, 43.2522, -16.0925, -101.723, 6.01521
5.624, 7, -18.2638, 27.6365, 43.2521, -16.0925, -101.723, 6.01521
5.628, 7, -18.2638, 27.6365, 43.2521, -16.0925, -101.723, 6.01521
5.632, 7, -18.2638, 27.6365, 43.2521, -16.0925, -101.723, 6.01521
5.636, 7, -18.2639, 27.6366, 43.2521, -16.0925, -101.723, 6.01521
5.64, 7, -18.2639, 27.6366, 43.2521, -16.0925, -101.723, 6.01521
5.644, 7, -18.2639, 27.6366, 43.2521, -16.0925, -101.723, 6.01521
5.648, 7, -18.2639, 27.6366, 43.2521, -16.0925, -101.723, 6.01521
5.652, 7, -18.2639, 27.6366, 43.2521, -16.0925, -101.723, 6.01522
5.656, 7, -18.2639, 27.6366, 43.2521, -16.0925, -101.723, 6.01522
5.66, 7, -18.2639, 27.6366, 43.2521, -16.0925, -101.723, 6.01522
5.664, 7, -18.2639, 27.6366, 43.2521, -16.0925, -101.723, 6.01522
5.668, 7, -18.2639, 27.6366, 43.2521, -16.0925, -101.723, 6.01522
5.672, 7, -18.2639, 27.6366, 43.2521, -16.0925, -101.723, 6.01522
5.676, 7, -18.2639, 27.6366, 43.2521, -16.0925, -101.723, 6.01522
5.68, 7, -18.2639, 27.6366, 43.2521, -16.0925, -101.723, 6.01522
5.684, 7, -18.2639, 27.6366, 43.2521, -16.0925, -101.723, 6.01522
5.688, 7, -18.2639, 27.6366, 43.2521, -16.0925, -101.723, 6.01522
5.692, 7, -18.2639, 27.6366, 43.2521, -16.0925, -101.723, 6.01522
5.696, 7, -18.2639, 27.6366, 43.2521, -16.0925, -101.723, 6.01522
