hehonglu123/ABB_Primitive_Study/execution/movel_30_car_close/curve_exe_vmax_z10.csv
timestamp, cmd_num, J1, J2, J3, J4, J5, J6
0, -1, -18.2639, 27.6366, 43.2521, -16.0925, -101.723, 6.01522
0.002, -1, -18.2639, 27.6366, 43.2521, -16.0925, -101.723, 6.01522
0.006, -1, -18.2639, 27.6366, 43.2521, -16.0925, -101.723, 6.01522
0.008, -1, -18.2639, 27.6366, 43.2521, -16.0925, -101.723, 6.01522
0.011, -1, -18.2639, 27.6366, 43.2521, -16.0925, -101.723, 6.01522
0.016, -1, -18.2639, 27.6366, 43.2521, -16.0925, -101.723, 6.01522
0.02, -1, -18.2639, 27.6366, 43.2521, -16.0925, -101.723, 6.01522
0.024, -1, -18.2639, 27.6366, 43.2521, -16.0925, -101.723, 6.01522
0.028, -1, -18.2639, 27.6366, 43.2521, -16.0925, -101.723, 6.01522
0.032, -1, -18.2639, 27.6366, 43.2521, -16.0925, -101.723, 6.01522
0.036, -1, -18.2638, 27.6366, 43.2521, -16.0925, -101.723, 6.01521
0.04, -1, -18.2635, 27.6365, 43.2521, -16.0925, -101.723, 6.01521
0.044, -1, -18.2629, 27.6361, 43.2522, -16.0925, -101.723, 6.01519
0.048, -1, -18.2616, 27.6355, 43.2523, -16.0924, -101.723, 6.01513
0.052, -1, -18.2597, 27.6345, 43.2525, -16.0922, -101.723, 6.01498
0.056, -1, -18.2568, 27.6328, 43.2529, -16.0917, -101.722, 6.01465
0.06, -1, -18.2529, 27.6304, 43.2534, -16.0908, -101.722, 6.01405
0.064, -1, -18.248, 27.6272, 43.2541, -16.0893, -101.72, 6.013
0.068, -1, -18.2417, 27.6228, 43.255, -16.0867, -101.717, 6.01131
0.072, -1, -18.234, 27.6172, 43.2562, -16.0828, -101.713, 6.00873
0.076, -1, -18.2245, 27.61, 43.2576, -16.0772, -101.707, 6.00498
0.08, -1, -18.2128, 27.601, 43.2594, -16.0692, -101.699, 5.99971
0.084, -1, -18.1986, 27.5898, 43.2615, -16.0583, -101.687, 5.99254
0.088, -1, -18.1815, 27.5762, 43.2641, -16.0438, -101.672, 5.98304
0.092, -1, -18.1612, 27.5599, 43.2671, -16.025, -101.652, 5.97075
0.096, -1, -18.1376, 27.5409, 43.2706, -16.0013, -101.627, 5.95519
0.1, -1, -18.1102, 27.5187, 43.2745, -15.9717, -101.596, 5.93588
0.104, -1, -18.0789, 27.4932, 43.279, -15.9357, -101.558, 5.91234
0.108, -1, -18.0432, 27.4642, 43.2839, -15.8925, -101.512, 5.88413
0.112, -1, -18.0031, 27.4313, 43.2895, -15.8415, -101.458, 5.85084
0.116, -1, -17.9583, 27.3946, 43.2956, -15.7821, -101.396, 5.81212
0.12, -1, -17.909, 27.3541, 43.3022, -15.7139, -101.324, 5.76767
0.124, -1, -17.8551, 27.3097, 43.3093, -15.6366, -101.242, 5.71731
0.128, -1, -17.7966, 27.2615, 43.3169, -15.55, -101.151, 5.66093
0.131, -1, -17.7338, 27.2095, 43.3251, -15.4542, -101.05, 5.59855
0.136, -1, -17.6665, 27.1539, 43.3336, -15.3494, -100.939, 5.53033
0.139, -1, -17.5948, 27.0946, 43.3427, -15.236, -100.82, 5.4565
0.144, -1, -17.5187, 27.0316, 43.3523, -15.1145, -100.691, 5.37741
0.148, -1, -17.4382, 26.965, 43.3624, -14.9855, -100.555, 5.29348
0.152, -1, -17.3537, 26.8951, 43.373, -14.8498, -100.412, 5.20516
0.156, -1, -17.2655, 26.822, 43.384, -14.7081, -100.262, 5.11296
0.16, -1, -17.174, 26.7461, 43.3955, -14.5613, -100.107, 5.01739
0.164, -1, -17.0794, 26.6676, 43.4074, -14.41, -99.9478, 4.91897
0.168, -1, -16.982, 26.5866, 43.4198, -14.2552, -99.7844, 4.81819
0.172, -1, -16.8819, 26.5033, 43.4325, -14.0975, -99.6179, 4.71552
0.176, -1, -16.7792, 26.418, 43.4456, -13.9375, -99.449, 4.61136
0.18, -1, -16.6742, 26.3309, 43.4591, -13.7758, -99.2783, 4.50606
0.184, -1, -16.5672, 26.2422, 43.4728, -13.6127, -99.1062, 4.39988
0.188, -1, -16.4583, 26.1522, 43.4868, -13.4486, -98.9331, 4.29303
0.192, -1, -16.3481, 26.0613, 43.501, -13.2838, -98.759, 4.18566
0.196, -1, -16.2369, 25.9697, 43.5154, -13.1183, -98.5844, 4.07787
0.2, -1, -16.1249, 25.8775, 43.5298, -12.9522, -98.4091, 3.96971
0.204, -1, -16.0124, 25.7848, 43.5443, -12.7857, -98.2334, 3.86125
0.208, -1, -15.8994, 25.6919, 43.5589, -12.6188, -98.0572, 3.75252
0.212, -1, -15.7859, 25.5986, 43.5735, -12.4514, -97.8806, 3.64353
0.216, -1, -15.6722, 25.5051, 43.5882, -12.2838, -97.7036, 3.53431
0.22, -1, -15.5582, 25.4114, 43.6029, -12.1157, -97.5263, 3.42486
0.224, -1, -15.4439, 25.3174, 43.6177, -11.9474, -97.3486, 3.3152
0.228, -1, -15.3294, 25.2233, 43.6325, -11.7787, -97.1706, 3.20533
0.232, -1, -15.2146, 25.129, 43.6473, -11.6097, -96.9922, 3.09526
0.236, -1, -15.0996, 25.0345, 43.6621, -11.4404, -96.8135, 2.985
0.24, -1, -14.9845, 24.9398, 43.677, -11.2708, -96.6345, 2.87454
0.244, -1, -14.8691, 24.845, 43.6918, -11.101, -96.4553, 2.76389
0.248, -1, -14.7535, 24.75, 43.7068, -10.9308, -96.2757, 2.65305
0.252, -1, -14.6377, 24.6548, 43.7217, -10.7604, -96.0958, 2.54203
0.256, -1, -14.5218, 24.5595, 43.7367, -10.5896, -95.9156, 2.43083
0.26, -1, -14.4056, 24.4641, 43.7517, -10.4187, -95.7351, 2.31945
0.264, -1, -14.2893, 24.3685, 43.7667, -10.2474, -95.5544, 2.2079
0.268, -1, -14.1728, 24.2727, 43.7817, -10.0759, -95.3734, 2.09618
0.272, -1, -14.0561, 24.1768, 43.7968, -9.90411, -95.1921, 1.98429
0.276, -1, -13.9393, 24.0808, 43.8118, -9.73208, -95.0105, 1.87224
0.28, -1, -13.8223, 23.9846, 43.8269, -9.55981, -94.8287, 1.76002
0.284, -1, -13.7051, 23.8883, 43.8421, -9.38729, -94.6466, 1.64765
0.288, -1, -13.5877, 23.7919, 43.8572, -9.21453, -94.4643, 1.53512
0.292, -1, -13.4703, 23.6953, 43.8724, -9.04154, -94.2817, 1.42244
0.296, -1, -13.3526, 23.5986, 43.8875, -8.86833, -94.0989, 1.30962
0.3, -1, -13.2348, 23.5018, 43.9027, -8.69489, -93.9158, 1.19665
0.304, -1, -13.1169, 23.4048, 43.918, -8.52124, -93.7325, 1.08354
0.308, -1, -12.9988, 23.3078, 43.9332, -8.34738, -93.549, 0.970291
0.312, -1, -12.8806, 23.2106, 43.9484, -8.17332, -93.3653, 0.856913
0.316, -1, -12.7623, 23.1134, 43.9637, -7.99906, -93.1814, 0.743408
0.32, -1, -12.6438, 23.016, 43.979, -7.82462, -92.9973, 0.629778
0.324, -1, -12.5252, 22.9185, 43.9943, -7.64999, -92.813, 0.51603
0.328, -1, -12.4065, 22.821, 44.0096, -7.47518, -92.6285, 0.402168
0.332, -1, -12.2877, 22.7233, 44.0249, -7.30021, -92.4438, 0.288197
0.336, -1, -12.1687, 22.6256, 44.0403, -7.12507, -92.259, 0.17412
0.34, -1, -12.0497, 22.5277, 44.0556, -6.94979, -92.074, 0.0599435
0.344, -1, -11.9305, 22.4298, 44.071, -6.77435, -91.8888, -0.0543284
0.348, -1, -11.8113, 22.3318, 44.0864, -6.59878, -91.7035, -0.168691
0.352, -1, -11.6919, 22.2337, 44.1018, -6.42308, -91.5181, -0.283138
0.356, -1, -11.5725, 22.1356, 44.1172, -6.24725, -91.3325, -0.397666
0.36, -1, -11.453, 22.0374, 44.1326, -6.07131, -91.1468, -0.51227
0.364, -1, -11.3334, 21.9391, 44.148, -5.89525, -90.961, -0.626944
0.368, -1, -11.2137, 21.8408, 44.1635, -5.7191, -90.7751, -0.741683
0.372, -1, -11.094, 21.7425, 44.1789, -5.54286, -90.5891, -0.856483
0.376, -1, -10.9742, 21.6441, 44.1944, -5.36653, -90.403, -0.971338
0.38, -1, -10.8544, 21.5456, 44.2098, -5.19012, -90.2168, -1.08624
0.384, -1, -10.7345, 21.4471, 44.2253, -5.01365, -90.0305, -1.20119
0.388, -1, -10.6145, 21.3486, 44.2407, -4.83711, -89.8442, -1.31618
0.392, -1, -10.4946, 21.25, 44.2562, -4.66052, -89.6578, -1.43121
0.396, -1, -10.3746, 21.1514, 44.2717, -4.48389, -89.4714, -1.54626
0.4, -1, -10.2545, 21.0528, 44.2872, -4.30722, -89.2849, -1.66134
0.404, -1, -10.1345, 20.9542, 44.3026, -4.13052, -89.0984, -1.77643
0.408, -1, -10.0144, 20.8556, 44.3181, -3.9538, -88.9119, -1.89154
0.412, -1, -9.89437, 20.7569, 44.3336, -3.77707, -88.7254, -2.00666
0.416, -1, -9.77429, 20.6583, 44.3491, -3.60033, -88.5388, -2.12178
0.42, -1, -9.65422, 20.5597, 44.3646, -3.42359, -88.3523, -2.2369
0.424, -1, -9.53415, 20.461, 44.38, -3.24687, -88.1658, -2.35202
0.428, -1, -9.41409, 20.3624, 44.3955, -3.07016, -87.9793, -2.46712
0.432, -1, -9.29405, 20.2638, 44.411, -2.89348, -87.7928, -2.5822
0.436, -1, -9.17403, 20.1652, 44.4265, -2.71684, -87.6064, -2.69726
0.44, -1, -9.05404, 20.0667, 44.4419, -2.54024, -87.42, -2.81229
0.444, -1, -8.93409, 19.9681, 44.4574, -2.36369, -87.2337, -2.92729
0.448, -1, -8.81417, 19.8696, 44.4729, -2.1872, -87.0474, -3.04225
0.452, -1, -8.6943, 19.7712, 44.4883, -2.01078, -86.8612, -3.15716
0.456, -1, -8.57448, 19.6727, 44.5038, -1.83444, -86.6751, -3.27203
0.46, -1, -8.45471, 19.5744, 44.5192, -1.65818, -86.489, -3.38684
0.464, -1, -8.33501, 19.476, 44.5346, -1.48201, -86.3031, -3.50159
0.468, -1, -8.21537, 19.3778, 44.5501, -1.30593, -86.1173, -3.61628
0.472, -1, -8.0958, 19.2796, 44.5655, -1.12997, -85.9315, -3.73089
0.476, -1, -7.97631, 19.1814, 44.5809, -0.954123, -85.746, -3.84544
0.48, -1, -7.8569, 19.0834, 44.5963, -0.778397, -85.5605, -3.9599
0.484, -1, -7.73757, 18.9854, 44.6116, -0.602801, -85.3752, -4.07428
0.488, -1, -7.61834, 18.8874, 44.627, -0.427343, -85.19, -4.18856
0.492, -1, -7.49921, 18.7896, 44.6424, -0.25203, -85.0049, -4.30276
0.496, -1, -7.38018, 18.6918, 44.6577, -0.076871, -84.8201, -4.41685
0.5, -1, -7.26126, 18.5942, 44.673, 0.0981278, -84.6354, -4.53084
0.504, -1, -7.14245, 18.4966, 44.6883, 0.272959, -84.4509, -4.64472
0.508, -1, -7.02375, 18.3991, 44.7036, 0.447614, -84.2665, -4.75848
0.512, -1, -6.90518, 18.3017, 44.7189, 0.622086, -84.0824, -4.87213
0.516, -1, -6.78674, 18.2045, 44.7342, 0.796369, -83.8984, -4.98565
0.52, -1, -6.66843, 18.1073, 44.7494, 0.970454, -83.7147, -5.09905
0.524, -1, -6.55026, 18.0103, 44.7647, 1.14434, -83.5312, -5.21231
0.528, -1, -6.43223, 17.9133, 44.7799, 1.31801, -83.3479, -5.32543
0.532, -1, -6.31434, 17.8165, 44.7951, 1.49146, -83.1648, -5.43841
0.536, -1, -6.19661, 17.7198, 44.8102, 1.66468, -82.982, -5.55125
0.54, -1, -6.07903, 17.6233, 44.8254, 1.83768, -82.7994, -5.66393
0.544, -1, -5.96161, 17.5269, 44.8405, 2.01044, -82.6171, -5.77646
0.548, -1, -5.84436, 17.4306, 44.8556, 2.18295, -82.435, -5.88883
0.552, -1, -5.72727, 17.3344, 44.8707, 2.35521, -82.2532, -6.00103
0.556, -1, -5.61036, 17.2384, 44.8858, 2.52721, -82.0716, -6.11307
0.56, -1, -5.49363, 17.1426, 44.9008, 2.69895, -81.8904, -6.22494
0.564, -1, -5.37708, 17.0469, 44.9159, 2.87042, -81.7094, -6.33663
0.568, -1, -5.26071, 16.9513, 44.9309, 3.04162, -81.5287, -6.44814
0.572, -1, -5.14454, 16.8559, 44.9458, 3.21253, -81.3483, -6.55947
0.576, -1, -5.02856, 16.7607, 44.9608, 3.38316, -81.1682, -6.67061
0.58, -1, -4.91278, 16.6656, 44.9757, 3.55349, -80.9885, -6.78156
0.584, -1, -4.79719, 16.5707, 44.9906, 3.72352, -80.809, -6.89231
0.588, -1, -4.68182, 16.476, 45.0055, 3.89325, -80.6299, -7.00287
0.592, -1, -4.56665, 16.3814, 45.0203, 4.06267, -80.451, -7.11322
0.596, -1, -4.4517, 16.287, 45.0351, 4.23177, -80.2726, -7.22337
0.6, -1, -4.33696, 16.1928, 45.0499, 4.40055, -80.0944, -7.33331
0.604, -1, -4.22244, 16.0988, 45.0647, 4.56901, -79.9166, -7.44304
0.608, -1, -4.10814, 16.0049, 45.0794, 4.73713, -79.7392, -7.55255
0.612, -1, -3.99406, 15.9112, 45.0941, 4.90493, -79.5621, -7.66184
0.616, -1, -3.88021, 15.8178, 45.1087, 5.07238, -79.3854, -7.77092
0.62, -1, -3.7666, 15.7245, 45.1234, 5.23949, -79.209, -7.87977
0.624, -1, -3.65322, 15.6314, 45.138, 5.40625, -79.033, -7.98839
0.628, -1, -3.54007, 15.5385, 45.1526, 5.57266, -78.8573, -8.09679
0.632, -1, -3.42716, 15.4458, 45.1671, 5.73872, -78.6821, -8.20495
0.636, -1, -3.31449, 15.3533, 45.1816, 5.90442, -78.5072, -8.31288
0.64, -1, -3.20207, 15.261, 45.1961, 6.06975, -78.3327, -8.42058
0.644, -1, -3.08989, 15.1689, 45.2106, 6.23473, -78.1586, -8.52804
0.648, -1, -2.97796, 15.077, 45.225, 6.39933, -77.9848, -8.63526
0.652, -1, -2.86628, 14.9853, 45.2394, 6.56357, -77.8115, -8.74224
0.656, -1, -2.75485, 14.8938, 45.2538, 6.72744, -77.6386, -8.84898
0.66, -1, -2.64367, 14.8025, 45.2681, 6.89093, -77.466, -8.95547
0.664, -1, -2.53275, 14.7115, 45.2824, 7.05404, -77.2939, -9.06172
0.668, -1, -2.42209, 14.6206, 45.2966, 7.21677, -77.1221, -9.16772
0.672, -1, -2.31168, 14.5299, 45.3109, 7.37913, -76.9507, -9.27347
0.676, -1, -2.20153, 14.4395, 45.3251, 7.5411, -76.7798, -9.37897
0.68, -1, -2.09164, 14.3493, 45.3392, 7.70269, -76.6092, -9.48423
0.684, -1, -1.98201, 14.2593, 45.3533, 7.86389, -76.4391, -9.58923
0.688, -1, -1.87265, 14.1695, 45.3674, 8.0247, -76.2694, -9.69398
0.692, -1, -1.76355, 14.0799, 45.3815, 8.18512, -76.1001, -9.79848
0.696, -1, -1.65471, 13.9906, 45.3955, 8.34516, -75.9312, -9.90272
0.7, -1, -1.54614, 13.9014, 45.4095, 8.5048, -75.7627, -10.0067
0.704, -1, -1.43783, 13.8125, 45.4235, 8.66405, -75.5946, -10.1104
0.708, -1, -1.3298, 13.7238, 45.4374, 8.8229, -75.4269, -10.2139
0.712, -1, -1.22203, 13.6353, 45.4513, 8.98136, -75.2597, -10.3171
0.716, -1, -1.11453, 13.5471, 45.4651, 9.13942, -75.0929, -10.4201
0.72, -1, -1.0073, 13.4591, 45.4789, 9.29708, -74.9265, -10.5228
0.724, -1, -0.900341, 13.3712, 45.4927, 9.45434, -74.7605, -10.6252
0.728, -1, -0.793652, 13.2837, 45.5065, 9.61121, -74.5949, -10.7274
0.732, -1, -0.687235, 13.1963, 45.5202, 9.76767, -74.4298, -10.8293
0.736, -1, -0.58109, 13.1091, 45.5339, 9.92374, -74.2651, -10.931
0.74, -1, -0.475218, 13.0222, 45.5475, 10.0794, -74.1008, -11.0324
0.744, -1, -0.369619, 12.9355, 45.5611, 10.2347, -73.9369, -11.1335
0.748, -1, -0.264294, 12.8491, 45.5747, 10.3895, -73.7735, -11.2344
0.752, -1, -0.159242, 12.7628, 45.5882, 10.544, -73.6105, -11.335
0.756, -1, -0.0544645, 12.6768, 45.6017, 10.698, -73.4479, -11.4353
0.76, -1, 0.0500385, 12.591, 45.6152, 10.8517, -73.2857, -11.5354
0.764, -1, 0.154267, 12.5054, 45.6286, 11.0049, -73.124, -11.6352
0.768, -1, 0.25822, 12.4201, 45.642, 11.1577, -72.9627, -11.7347
0.772, -1, 0.361898, 12.335, 45.6554, 11.3102, -72.8018, -11.834
0.776, -1, 0.465301, 12.2501, 45.6687, 11.4622, -72.6414, -11.9331
0.78, -1, 0.568428, 12.1654, 45.682, 11.6138, -72.4813, -12.0318
0.784, -1, 0.67128, 12.081, 45.6952, 11.765, -72.3218, -12.1303
0.788, -1, 0.773856, 11.9968, 45.7085, 11.9158, -72.1626, -12.2285
0.792, -1, 0.876156, 11.9128, 45.7216, 12.0662, -72.0039, -12.3265
0.796, -1, 0.978181, 11.829, 45.7348, 12.2162, -71.8456, -12.4242
0.8, -1, 1.07993, 11.7455, 45.7479, 12.3658, -71.6877, -12.5216
0.804, -1, 1.1814, 11.6622, 45.761, 12.5149, -71.5302, -12.6188
0.808, -1, 1.2826, 11.5791, 45.774, 12.6637, -71.3732, -12.7157
0.812, -1, 1.38352, 11.4963, 45.787, 12.8121, -71.2166, -12.8124
0.816, -1, 1.48417, 11.4136, 45.8, 12.96, -71.0605, -12.9087
0.82, -1, 1.58454, 11.3312, 45.8129, 13.1076, -70.9047, -13.0048
0.824, -1, 1.68464, 11.2491, 45.8258, 13.2548, -70.7494, -13.1007
0.828, -1, 1.78446, 11.1671, 45.8387, 13.4015, -70.5945, -13.1963
0.832, -1, 1.88401, 11.0854, 45.8515, 13.5478, -70.4401, -13.2916
0.836, -1, 1.98329, 11.0039, 45.8643, 13.6938, -70.2861, -13.3867
0.84, -1, 2.0823, 10.9226, 45.8771, 13.8393, -70.1325, -13.4815
0.844, -1, 2.18103, 10.8416, 45.8898, 13.9844, -69.9793, -13.576
0.848, -1, 2.27949, 10.7607, 45.9025, 14.1292, -69.8265, -13.6703
0.852, -1, 2.37768, 10.6801, 45.9151, 14.2735, -69.6742, -13.7643
0.856, -1, 2.4756, 10.5997, 45.9278, 14.4174, -69.5223, -13.858
0.86, -1, 2.57325, 10.5196, 45.9403, 14.561, -69.3708, -13.9515
0.864, -1, 2.67063, 10.4396, 45.9529, 14.7041, -69.2197, -14.0448
0.868, -1, 2.76775, 10.3599, 45.9654, 14.8469, -69.0691, -14.1378
0.872, -1, 2.8646, 10.2804, 45.9779, 14.9892, -68.9188, -14.2305
0.876, -1, 2.96118, 10.2011, 45.9903, 15.1312, -68.769, -14.323
0.88, -1, 3.0575, 10.1221, 46.0027, 15.2727, -68.6196, -14.4152
0.884, -1, 3.15355, 10.0432, 46.0151, 15.4139, -68.4706, -14.5071
0.888, -1, 3.24934, 9.96457, 46.0275, 15.5547, -68.322, -14.5988
0.892, -1, 3.34487, 9.88615, 46.0398, 15.6951, -68.1738, -14.6903
0.896, -1, 3.44014, 9.80795, 46.052, 15.8352, -68.026, -14.7815
0.9, -1, 3.53514, 9.72995, 46.0643, 15.9748, -67.8786, -14.8725
0.904, -1, 3.62989, 9.65217, 46.0765, 16.1141, -67.7316, -14.9632
0.908, -1, 3.72438, 9.5746, 46.0887, 16.253, -67.585, -15.0537
0.912, -1, 3.81862, 9.49724, 46.1008, 16.3915, -67.4389, -15.1439
0.916, -1, 3.9126, 9.42009, 46.1129, 16.5296, -67.2931, -15.2338
0.92, -1, 4.00632, 9.34315, 46.125, 16.6674, -67.1477, -15.3236
0.924, -1, 4.0998, 9.26642, 46.1371, 16.8047, -67.0027, -15.4131
0.928, -1, 4.19302, 9.18989, 46.1491, 16.9418, -66.858, -15.5023
0.932, -1, 4.28599, 9.11357, 46.161, 17.0784, -66.7138, -15.5913
0.936, -1, 4.37871, 9.03745, 46.173, 17.2147, -66.57, -15.6801
0.94, -1, 4.47118, 8.96154, 46.1849, 17.3506, -66.4265, -15.7686
0.944, -1, 4.56341, 8.88583, 46.1968, 17.4862, -66.2835, -15.8569
0.948, -1, 4.65539, 8.81032, 46.2087, 17.6214, -66.1408, -15.945
0.952, -1, 4.74712, 8.73502, 46.2205, 17.7562, -65.9985, -16.0328
0.956, -1, 4.83861, 8.65991, 46.2323, 17.8907, -65.8565, -16.1204
0.96, -1, 4.92986, 8.585, 46.244, 18.0248, -65.715, -16.2078
0.964, -1, 5.02087, 8.5103, 46.2558, 18.1585, -65.5738, -16.2949
0.968, -1, 5.11163, 8.43578, 46.2674, 18.292, -65.433, -16.3818
0.972, -1, 5.20216, 8.36147, 46.2791, 18.425, -65.2926, -16.4685
0.976, -1, 5.29245, 8.28735, 46.2907, 18.5577, -65.1525, -16.5549
0.98, -1, 5.38249, 8.21343, 46.3024, 18.6901, -65.0128, -16.6411
0.984, -1, 5.47231, 8.1397, 46.3139, 18.8221, -64.8735, -16.7271
0.988, -1, 5.56189, 8.06616, 46.3255, 18.9538, -64.7345, -16.8129
0.992, -1, 5.65123, 7.99281, 46.337, 19.0851, -64.5959, -16.8984
0.996, -1, 5.74034, 7.91966, 46.3485, 19.2161, -64.4577, -16.9837
1, -1, 5.82922, 7.84669, 46.3599, 19.3467, -64.3198, -17.0688
1.004, -1, 5.91787, 7.77392, 46.3714, 19.477, -64.1823, -17.1537
1.008, -1, 6.00629, 7.70133, 46.3827, 19.607, -64.0451, -17.2384
1.012, -1, 6.09448, 7.62894, 46.3941, 19.7366, -63.9083, -17.3228
1.016, -1, 6.18245, 7.55672, 46.4054, 19.8659, -63.7719, -17.407
1.02, -1, 6.27018, 7.4847, 46.4168, 19.9948, -63.6358, -17.491
1.024, -1, 6.35769, 7.41286, 46.428, 20.1234, -63.5, -17.5748
1.027, -1, 6.44498, 7.3412, 46.4393, 20.2517, -63.3646, -17.6584
1.032, -1, 6.53204, 7.26973, 46.4505, 20.3797, -63.2295, -17.7417
1.036, -1, 6.61888, 7.19844, 46.4617, 20.5074, -63.0948, -17.8249
1.04, -1, 6.7055, 7.12733, 46.4729, 20.6347, -62.9605, -17.9078
1.044, -1, 6.79189, 7.05641, 46.484, 20.7617, -62.8264, -17.9905
1.048, -1, 6.87807, 6.98566, 46.4951, 20.8883, -62.6927, -18.073
1.052, -1, 6.96403, 6.91509, 46.5062, 21.0147, -62.5594, -18.1553
1.055, -1, 7.04978, 6.8447, 46.5172, 21.1407, -62.4264, -18.2374
1.06, -1, 7.1353, 6.77449, 46.5283, 21.2664, -62.2937, -18.3193
1.064, -1, 7.22061, 6.70445, 46.5392, 21.3918, -62.1614, -18.401
1.068, -1, 7.30571, 6.6346, 46.5502, 21.5169, -62.0293, -18.4824
1.072, -1, 7.39059, 6.56491, 46.5611, 21.6416, -61.8977, -18.5637
1.076, -1, 7.47526, 6.4954, 46.5721, 21.7661, -61.7663, -18.6448
1.08, -1, 7.55972, 6.42607, 46.583, 21.8902, -61.6353, -18.7256
1.084, -1, 7.64397, 6.3569, 46.5938, 22.0141, -61.5046, -18.8063
1.088, -1, 7.72801, 6.28791, 46.6046, 22.1376, -61.3742, -18.8868
1.091, -1, 7.81184, 6.21909, 46.6154, 22.2608, -61.2442, -18.967
1.096, -1, 7.89547, 6.15044, 46.6262, 22.3837, -61.1144, -19.0471
1.1, -1, 7.97889, 6.08195, 46.637, 22.5063, -60.985, -19.1269
1.104, -1, 8.0621, 6.01364, 46.6477, 22.6287, -60.8559, -19.2066
1.108, -1, 8.14511, 5.94549, 46.6584, 22.7507, -60.7272, -19.2861
1.112, -1, 8.22792, 5.87751, 46.6691, 22.8724, -60.5987, -19.3654
1.116, -1, 8.31053, 5.8097, 46.6797, 22.9938, -60.4706, -19.4445
1.119, -1, 8.39293, 5.74205, 46.6903, 23.1149, -60.3427, -19.5234
1.124, -1, 8.47514, 5.67456, 46.7009, 23.2357, -60.2152, -19.6021
1.128, -1, 8.55715, 5.60723, 46.7115, 23.3563, -60.088, -19.6806
1.132, -1, 8.63896, 5.54007, 46.722, 23.4765, -59.9611, -19.7589
1.136, -1, 8.72058, 5.47307, 46.7326, 23.5965, -59.8345, -19.837
1.14, -1, 8.802, 5.40623, 46.7431, 23.7161, -59.7082, -19.915
1.144, -1, 8.88322, 5.33954, 46.7535, 23.8355, -59.5822, -19.9927
1.147, -1, 8.96426, 5.27302, 46.764, 23.9546, -59.4565, -20.0703
1.152, -1, 9.0451, 5.20665, 46.7744, 24.0735, -59.3311, -20.1477
1.156, -1, 9.12575, 5.14044, 46.7848, 24.192, -59.206, -20.2249
1.16, -1, 9.20622, 5.07438, 46.7952, 24.3103, -59.0811, -20.302
1.164, -1, 9.28649, 5.00848, 46.8055, 24.4283, -58.9566, -20.3788
1.168, -1, 9.36658, 4.94273, 46.8158, 24.546, -58.8324, -20.4555
1.172, -1, 9.44648, 4.87714, 46.8261, 24.6634, -58.7084, -20.532
1.175, -1, 9.5262, 4.81169, 46.8364, 24.7806, -58.5847, -20.6083
1.18, -1, 9.60574, 4.7464, 46.8466, 24.8975, -58.4614, -20.6845
1.184, -1, 9.68509, 4.68126, 46.8569, 25.0141, -58.3383, -20.7604
1.188, -1, 9.76426, 4.61626, 46.8671, 25.1305, -58.2155, -20.8362
1.192, -1, 9.84325, 4.55141, 46.8773, 25.2466, -58.0929, -20.9119
1.196, -1, 9.92206, 4.48671, 46.8874, 25.3624, -57.9707, -20.9873
1.2, -1, 10.0007, 4.42216, 46.8976, 25.478, -57.8487, -21.0626
1.204, -1, 10.0791, 4.35775, 46.9077, 25.5933, -57.727, -21.1377
1.208, -1, 10.1574, 4.29349, 46.9178, 25.7084, -57.6055, -21.2127
1.212, -1, 10.2355, 4.22937, 46.9278, 25.8232, -57.4844, -21.2874
1.216, -1, 10.3134, 4.16539, 46.9379, 25.9377, -57.3635, -21.3621
1.22, -1, 10.3912, 4.10156, 46.9479, 26.052, -57.2429, -21.4365
1.224, -1, 10.4688, 4.03787, 46.9579, 26.166, -57.1225, -21.5108
1.228, -1, 10.5462, 3.97432, 46.9679, 26.2798, -57.0024, -21.5849
1.232, -1, 10.6234, 3.9109, 46.9778, 26.3933, -56.8826, -21.6588
1.236, -1, 10.7005, 3.84763, 46.9878, 26.5066, -56.763, -21.7326
1.24, -1, 10.7774, 3.7845, 46.9977, 26.6197, -56.6437, -21.8063
1.244, -1, 10.8541, 3.7215, 47.0076, 26.7325, -56.5247, -21.8797
1.248, -1, 10.9307, 3.65864, 47.0174, 26.845, -56.4059, -21.953
1.252, -1, 11.0071, 3.59591, 47.0273, 26.9573, -56.2874, -22.0262
1.256, -1, 11.0834, 3.53333, 47.0371, 27.0694, -56.1691, -22.0992
1.26, -1, 11.1594, 3.47087, 47.0469, 27.1812, -56.0511, -22.172
1.264, -1, 11.2353, 3.40855, 47.0567, 27.2928, -55.9333, -22.2447
1.267, -1, 11.3111, 3.34636, 47.0665, 27.4041, -55.8158, -22.3172
1.272, -1, 11.3867, 3.28431, 47.0762, 27.5152, -55.6985, -22.3896
1.276, -1, 11.4621, 3.22238, 47.0859, 27.6261, -55.5815, -22.4618
1.28, -1, 11.5374, 3.16059, 47.0956, 27.7367, -55.4648, -22.5339
1.284, -1, 11.6125, 3.09893, 47.1053, 27.8471, -55.3482, -22.6058
1.288, -1, 11.6874, 3.0374, 47.115, 27.9573, -55.232, -22.6775
1.292, -1, 11.7622, 2.97599, 47.1246, 28.0672, -55.1159, -22.7492
1.295, -1, 11.8369, 2.91471, 47.1342, 28.1769, -55.0001, -22.8206
1.3, -1, 11.9113, 2.85357, 47.1438, 28.2864, -54.8846, -22.8919
1.304, -1, 11.9857, 2.79254, 47.1534, 28.3957, -54.7693, -22.9631
1.308, -1, 12.0598, 2.73165, 47.163, 28.5047, -54.6542, -23.0341
1.312, -1, 12.1339, 2.67088, 47.1725, 28.6135, -54.5394, -23.105
1.316, -1, 12.2077, 2.61023, 47.182, 28.7221, -54.4248, -23.1757
1.32, -1, 12.2814, 2.54971, 47.1915, 28.8304, -54.3104, -23.2463
1.324, -1, 12.355, 2.48931, 47.201, 28.9386, -54.1963, -23.3167
1.328, -1, 12.4284, 2.42904, 47.2105, 29.0465, -54.0824, -23.387
1.332, -1, 12.5017, 2.36888, 47.2199, 29.1542, -53.9687, -23.4572
1.336, -1, 12.5748, 2.30885, 47.2293, 29.2617, -53.8553, -23.5272
1.34, -1, 12.6478, 2.24894, 47.2387, 29.3689, -53.7421, -23.5971
1.344, -1, 12.7206, 2.18915, 47.2481, 29.476, -53.6291, -23.6668
1.348, -1, 12.7933, 2.12948, 47.2575, 29.5828, -53.5163, -23.7364
1.352, -1, 12.8659, 2.06993, 47.2669, 29.6895, -53.4038, -23.8058
1.356, -1, 12.9383, 2.0105, 47.2762, 29.7959, -53.2915, -23.8752
1.36, -1, 13.0105, 1.95118, 47.2855, 29.9021, -53.1794, -23.9443
1.364, -1, 13.0826, 1.89199, 47.2948, 30.0081, -53.0675, -24.0134
1.368, -1, 13.1546, 1.83291, 47.3041, 30.1138, -52.9559, -24.0823
1.372, -1, 13.2264, 1.77394, 47.3133, 30.2194, -52.8445, -24.151
1.376, -1, 13.2981, 1.71509, 47.3226, 30.3248, -52.7333, -24.2197
1.38, -1, 13.3696, 1.65636, 47.3318, 30.4299, -52.6223, -24.2882
1.384, -1, 13.441, 1.59774, 47.341, 30.5349, -52.5115, -24.3565
1.388, -1, 13.5123, 1.53923, 47.3502, 30.6396, -52.4009, -24.4248
1.392, -1, 13.5834, 1.48084, 47.3593, 30.7442, -52.2906, -24.4929
1.396, -1, 13.6544, 1.42256, 47.3685, 30.8485, -52.1805, -24.5608
1.4, -1, 13.7253, 1.36439, 47.3776, 30.9527, -52.0705, -24.6287
1.404, -1, 13.796, 1.30634, 47.3867, 31.0566, -51.9608, -24.6964
1.408, -1, 13.8666, 1.24839, 47.3958, 31.1604, -51.8513, -24.764
1.412, -1, 13.937, 1.19055, 47.4049, 31.2639, -51.742, -24.8314
1.416, -1, 14.0074, 1.13283, 47.414, 31.3673, -51.633, -24.8987
1.42, -1, 14.0775, 1.07521, 47.423, 31.4704, -51.5241, -24.9659
1.424, -1, 14.1476, 1.0177, 47.4321, 31.5734, -51.4154, -25.033
1.428, -1, 14.2175, 0.960302, 47.4411, 31.6762, -51.307, -25.0999
1.432, -1, 14.2873, 0.903009, 47.4501, 31.7788, -51.1987, -25.1668
1.436, -1, 14.357, 0.845822, 47.459, 31.8811, -51.0906, -25.2334
1.44, -1, 14.4265, 0.788742, 47.468, 31.9833, -50.9828, -25.3
1.444, -1, 14.4959, 0.731767, 47.4769, 32.0854, -50.8751, -25.3665
1.448, -1, 14.5652, 0.674897, 47.4859, 32.1872, -50.7676, -25.4328
1.452, -1, 14.6343, 0.618132, 47.4948, 32.2888, -50.6604, -25.499
1.456, -1, 14.7033, 0.56147, 47.5037, 32.3903, -50.5533, -25.5651
1.46, -1, 14.7722, 0.504912, 47.5126, 32.4915, -50.4464, -25.631
1.464, -1, 14.841, 0.448456, 47.5214, 32.5926, -50.3397, -25.6969
1.468, -1, 14.9096, 0.392102, 47.5303, 32.6935, -50.2333, -25.7626
1.472, -1, 14.9782, 0.33585, 47.5391, 32.7942, -50.127, -25.8282
1.476, -1, 15.0466, 0.279699, 47.5479, 32.8947, -50.0208, -25.8937
1.48, -1, 15.1148, 0.223648, 47.5567, 32.9951, -49.9149, -25.959
1.484, -1, 15.183, 0.167697, 47.5655, 33.0953, -49.8092, -26.0243
1.488, -1, 15.251, 0.111846, 47.5743, 33.1953, -49.7037, -26.0894
1.492, -1, 15.3189, 0.056093, 47.583, 33.2951, -49.5983, -26.1545
1.496, -1, 15.3867, 0.00043844, 47.5918, 33.3947, -49.4931, -26.2194
1.5, -1, 15.4544, -0.0551184, 47.6005, 33.4942, -49.3881, -26.2842
1.504, -1, 15.522, -0.110578, 47.6092, 33.5935, -49.2833, -26.3488
1.508, -1, 15.5894, -0.165941, 47.6179, 33.6926, -49.1787, -26.4134
1.512, -1, 15.6567, -0.221208, 47.6266, 33.7916, -49.0743, -26.4779
1.516, -1, 15.7239, -0.276379, 47.6352, 33.8904, -48.97, -26.5422
1.52, -1, 15.791, -0.331455, 47.6439, 33.989, -48.866, -26.6064
1.524, -1, 15.858, -0.386436, 47.6525, 34.0874, -48.7621, -26.6706
1.528, -1, 15.9248, -0.441323, 47.6611, 34.1857, -48.6583, -26.7346
1.532, -1, 15.9916, -0.496117, 47.6697, 34.2838, -48.5548, -26.7985
1.536, -1, 16.0582, -0.550817, 47.6783, 34.3817, -48.4514, -26.8623
1.54, -1, 16.1247, -0.605425, 47.6869, 34.4795, -48.3482, -26.926
1.544, -1, 16.1911, -0.65994, 47.6955, 34.5771, -48.2452, -26.9895
1.548, -1, 16.2574, -0.714364, 47.704, 34.6746, -48.1424, -27.053
1.552, -1, 16.3236, -0.768696, 47.7125, 34.7718, -48.0397, -27.1164
1.556, -1, 16.3897, -0.822938, 47.7211, 34.869, -47.9372, -27.1796
1.56, -1, 16.4556, -0.87709, 47.7295, 34.9659, -47.8349, -27.2428
1.564, -1, 16.5215, -0.931151, 47.738, 35.0627, -47.7327, -27.3058
1.568, -1, 16.5872, -0.985123, 47.7465, 35.1593, -47.6307, -27.3688
1.572, -1, 16.6529, -1.03901, 47.755, 35.2558, -47.5289, -27.4316
1.576, -1, 16.7184, -1.0928, 47.7634, 35.3521, -47.4272, -27.4944
1.58, -1, 16.7838, -1.14651, 47.7719, 35.4483, -47.3258, -27.557
1.584, -1, 16.8491, -1.20013, 47.7803, 35.5443, -47.2244, -27.6195
1.588, -1, 16.9143, -1.25366, 47.7887, 35.6401, -47.1233, -27.682
1.592, -1, 16.9794, -1.3071, 47.7971, 35.7358, -47.0223, -27.7443
1.596, -1, 17.0444, -1.36046, 47.8054, 35.8314, -46.9214, -27.8065
1.6, -1, 17.1093, -1.41374, 47.8138, 35.9268, -46.8208, -27.8687
1.604, -1, 17.1741, -1.46692, 47.8222, 36.022, -46.7203, -27.9307
1.608, -1, 17.2388, -1.52003, 47.8305, 36.1171, -46.6199, -27.9926
1.612, -1, 17.3034, -1.57304, 47.8388, 36.212, -46.5197, -28.0544
1.616, -1, 17.3678, -1.62598, 47.8471, 36.3068, -46.4197, -28.1162
1.62, -1, 17.4322, -1.67883, 47.8554, 36.4014, -46.3198, -28.1778
1.624, -1, 17.4965, -1.73159, 47.8637, 36.4959, -46.2201, -28.2394
1.628, -1, 17.5607, -1.78428, 47.872, 36.5902, -46.1206, -28.3008
1.632, -1, 17.6247, -1.83688, 47.8802, 36.6844, -46.0212, -28.3621
1.636, -1, 17.6887, -1.8894, 47.8885, 36.7784, -45.9219, -28.4234
1.64, -1, 17.7526, -1.94183, 47.8967, 36.8723, -45.8228, -28.4846
1.644, -1, 17.8163, -1.99419, 47.9049, 36.966, -45.7239, -28.5456
1.648, -1, 17.88, -2.04646, 47.9132, 37.0596, -45.6251, -28.6066
1.652, -1, 17.9436, -2.09866, 47.9213, 37.1531, -45.5265, -28.6674
1.656, -1, 18.0071, -2.15077, 47.9295, 37.2464, -45.428, -28.7282
1.66, -1, 18.0704, -2.2028, 47.9377, 37.3396, -45.3297, -28.7889
1.664, -1, 18.1337, -2.25476, 47.9459, 37.4326, -45.2315, -28.8495
1.668, -1, 18.1969, -2.30663, 47.954, 37.5255, -45.1335, -28.91
1.672, -1, 18.26, -2.35843, 47.9621, 37.6182, -45.0356, -28.9704
1.676, -1, 18.323, -2.41015, 47.9703, 37.7108, -44.9378, -29.0307
1.68, -1, 18.3859, -2.46179, 47.9784, 37.8033, -44.8403, -29.091
1.684, -1, 18.4487, -2.51335, 47.9865, 37.8956, -44.7428, -29.1511
1.688, -1, 18.5114, -2.56483, 47.9945, 37.9878, -44.6455, -29.2111
1.692, -1, 18.574, -2.61624, 48.0026, 38.0798, -44.5484, -29.2711
1.696, -1, 18.6366, -2.66757, 48.0107, 38.1717, -44.4514, -29.331
1.7, -1, 18.699, -2.71883, 48.0187, 38.2635, -44.3545, -29.3907
1.704, -1, 18.7613, -2.77001, 48.0268, 38.3551, -44.2578, -29.4504
1.708, -1, 18.8236, -2.82111, 48.0348, 38.4466, -44.1612, -29.51
1.712, -1, 18.8857, -2.87214, 48.0428, 38.538, -44.0648, -29.5695
1.716, -1, 18.9478, -2.92309, 48.0508, 38.6292, -43.9685, -29.629
1.72, -1, 19.0098, -2.97397, 48.0588, 38.7203, -43.8724, -29.6883
1.724, -1, 19.0716, -3.02477, 48.0668, 38.8113, -43.7764, -29.7476
1.728, -1, 19.1334, -3.07551, 48.0747, 38.9021, -43.6805, -29.8067
1.732, -1, 19.1951, -3.12616, 48.0827, 38.9928, -43.5848, -29.8658
1.736, -1, 19.2567, -3.17675, 48.0906, 39.0834, -43.4892, -29.9248
1.74, -1, 19.3183, -3.22726, 48.0985, 39.1738, -43.3937, -29.9837
1.744, -1, 19.3797, -3.2777, 48.1065, 39.2642, -43.2984, -30.0425
1.748, -1, 19.441, -3.32806, 48.1144, 39.3543, -43.2032, -30.1013
1.752, -1, 19.5023, -3.37836, 48.1223, 39.4444, -43.1082, -30.1599
1.756, -1, 19.5635, -3.42858, 48.1302, 39.5343, -43.0133, -30.2185
1.76, -1, 19.6246, -3.47873, 48.138, 39.6241, -42.9185, -30.277
1.764, -1, 19.6856, -3.52881, 48.1459, 39.7138, -42.8239, -30.3354
1.768, -1, 19.7465, -3.57882, 48.1538, 39.8033, -42.7294, -30.3937
1.772, -1, 19.8073, -3.62876, 48.1616, 39.8927, -42.635, -30.452
1.776, -1, 19.868, -3.67863, 48.1694, 39.982, -42.5407, -30.5101
1.78, -1, 19.9287, -3.72844, 48.1772, 40.0712, -42.4466, -30.5682
1.784, -1, 19.9893, -3.77817, 48.185, 40.1602, -42.3526, -30.6262
1.788, -1, 20.0498, -3.82783, 48.1928, 40.2492, -42.2588, -30.6841
1.792, -1, 20.1102, -3.87743, 48.2006, 40.338, -42.1651, -30.742
1.796, -1, 20.1705, -3.92695, 48.2084, 40.4266, -42.0715, -30.7997
1.8, -1, 20.2307, -3.97641, 48.2162, 40.5152, -41.978, -30.8574
1.804, -1, 20.2909, -4.0258, 48.2239, 40.6036, -41.8847, -30.915
1.808, -1, 20.351, -4.07513, 48.2317, 40.6919, -41.7915, -30.9726
1.812, -1, 20.411, -4.12438, 48.2394, 40.7801, -41.6984, -31.03
1.816, -1, 20.4709, -4.17357, 48.2471, 40.8682, -41.6054, -31.0874
1.82, -1, 20.5307, -4.2227, 48.2548, 40.9562, -41.5126, -31.1447
1.824, -1, 20.5905, -4.27176, 48.2625, 41.044, -41.4199, -31.2019
1.828, -1, 20.6501, -4.32075, 48.2702, 41.1317, -41.3273, -31.259
1.832, -1, 20.7097, -4.36968, 48.2779, 41.2193, -41.2348, -31.3161
1.836, -1, 20.7692, -4.41854, 48.2856, 41.3068, -41.1425, -31.3731
1.84, -1, 20.8287, -4.46734, 48.2933, 41.3942, -41.0503, -31.43
1.844, -1, 20.888, -4.51607, 48.3009, 41.4815, -40.9582, -31.4868
1.848, -1, 20.9473, -4.56474, 48.3085, 41.5686, -40.8662, -31.5436
1.852, -1, 21.0065, -4.61335, 48.3162, 41.6556, -40.7744, -31.6003
1.856, -1, 21.0656, -4.66189, 48.3238, 41.7425, -40.6826, -31.6569
1.86, -1, 21.1247, -4.71037, 48.3314, 41.8293, -40.591, -31.7134
1.864, -1, 21.1837, -4.75878, 48.339, 41.916, -40.4995, -31.7699
1.868, -1, 21.2425, -4.80714, 48.3466, 42.0026, -40.4082, -31.8263
1.872, -1, 21.3014, -4.85543, 48.3542, 42.0891, -40.3169, -31.8826
1.876, -1, 21.3601, -4.90366, 48.3618, 42.1754, -40.2258, -31.9389
1.88, -1, 21.4188, -4.95183, 48.3693, 42.2617, -40.1347, -31.995
1.884, -1, 21.4774, -4.99993, 48.3769, 42.3478, -40.0438, -32.0511
1.888, -1, 21.5359, -5.04798, 48.3844, 42.4338, -39.953, -32.1072
1.892, -1, 21.5943, -5.09596, 48.392, 42.5197, -39.8624, -32.1631
1.896, -1, 21.6527, -5.14388, 48.3995, 42.6055, -39.7718, -32.219
1.9, -1, 21.711, -5.19174, 48.407, 42.6912, -39.6814, -32.2749
1.904, -1, 21.7692, -5.23955, 48.4145, 42.7768, -39.591, -32.3306
1.908, -1, 21.8274, -5.28729, 48.422, 42.8623, -39.5008, -32.3863
1.912, -1, 21.8854, -5.33497, 48.4295, 42.9477, -39.4107, -32.4419
1.916, -1, 21.9434, -5.38259, 48.437, 43.033, -39.3207, -32.4974
1.92, -1, 22.0014, -5.43016, 48.4444, 43.1181, -39.2308, -32.5529
1.924, -1, 22.0592, -5.47766, 48.4519, 43.2032, -39.141, -32.6083
1.928, -1, 22.117, -5.52511, 48.4593, 43.2881, -39.0514, -32.6637
1.932, -1, 22.1747, -5.5725, 48.4668, 43.373, -38.9618, -32.7189
1.936, -1, 22.2324, -5.61983, 48.4742, 43.4577, -38.8724, -32.7741
1.94, -1, 22.2899, -5.6671, 48.4816, 43.5424, -38.783, -32.8293
1.944, -1, 22.3475, -5.71431, 48.489, 43.6269, -38.6938, -32.8843
1.948, -1, 22.4049, -5.76147, 48.4965, 43.7113, -38.6047, -32.9393
1.952, -1, 22.4623, -5.80857, 48.5038, 43.7957, -38.5157, -32.9943
1.956, -1, 22.5196, -5.85562, 48.5112, 43.8799, -38.4268, -33.0491
1.96, -1, 22.5768, -5.9026, 48.5186, 43.9641, -38.338, -33.1039
1.964, -1, 22.6339, -5.94953, 48.526, 44.0481, -38.2493, -33.1587
1.968, -1, 22.691, -5.99641, 48.5333, 44.132, -38.1607, -33.2133
1.972, -1, 22.7481, -6.04323, 48.5407, 44.2158, -38.0723, -33.2679
1.976, -1, 22.805, -6.08999, 48.548, 44.2996, -37.9839, -33.3225
1.98, -1, 22.8619, -6.1367, 48.5554, 44.3832, -37.8956, -33.3769
1.984, -1, 22.9187, -6.18335, 48.5627, 44.4667, -37.8075, -33.4314
1.988, -1, 22.9755, -6.22995, 48.57, 44.5502, -37.7194, -33.4857
1.992, -1, 23.0322, -6.27649, 48.5773, 44.6335, -37.6315, -33.54
1.996, -1, 23.0888, -6.32298, 48.5846, 44.7167, -37.5436, -33.5942
1.999, -1, 23.1453, -6.36941, 48.5919, 44.7999, -37.4558, -33.6484
2.004, -1, 23.2018, -6.41579, 48.5992, 44.8829, -37.3682, -33.7024
2.008, -1, 23.2582, -6.46212, 48.6065, 44.9659, -37.2807, -33.7565
2.012, -1, 23.3146, -6.50839, 48.6137, 45.0487, -37.1932, -33.8104
2.015, -1, 23.3709, -6.55461, 48.621, 45.1315, -37.1059, -33.8643
2.019, -1, 23.4271, -6.60077, 48.6282, 45.2141, -37.0186, -33.9182
2.024, -1, 23.4833, -6.64688, 48.6355, 45.2967, -36.9315, -33.972
2.028, -1, 23.5394, -6.69295, 48.6427, 45.3792, -36.8444, -34.0257
2.031, -1, 23.5954, -6.73895, 48.6499, 45.4616, -36.7575, -34.0794
2.036, -1, 23.6514, -6.78491, 48.6571, 45.5438, -36.6707, -34.1329
2.04, -1, 23.7073, -6.83081, 48.6644, 45.626, -36.5839, -34.1865
2.044, -1, 23.7631, -6.87666, 48.6716, 45.7081, -36.4973, -34.24
2.048, -1, 23.8189, -6.92246, 48.6787, 45.7901, -36.4107, -34.2934
2.051, -1, 23.8746, -6.96821, 48.6859, 45.872, -36.3243, -34.3467
2.055, -1, 23.9303, -7.0139, 48.6931, 45.9539, -36.2379, -34.4
2.06, -1, 23.9859, -7.05955, 48.7003, 46.0356, -36.1516, -34.4533
2.064, -1, 24.0414, -7.10514, 48.7074, 46.1172, -36.0655, -34.5064
2.068, -1, 24.0969, -7.15069, 48.7146, 46.1988, -35.9794, -34.5596
2.071, -1, 24.1523, -7.19618, 48.7217, 46.2802, -35.8934, -34.6126
2.076, -1, 24.2076, -7.24163, 48.7289, 46.3616, -35.8076, -34.6656
2.08, -1, 24.2629, -7.28702, 48.736, 46.4429, -35.7218, -34.7186
2.084, -1, 24.3181, -7.33237, 48.7431, 46.5241, -35.6361, -34.7714
2.087, -1, 24.3733, -7.37766, 48.7502, 46.6052, -35.5505, -34.8243
2.092, -1, 24.4284, -7.4229, 48.7573, 46.6862, -35.465, -34.877
2.096, -1, 24.4834, -7.46805, 48.7644, 46.7671, -35.3796, -34.9298
2.1, -1, 24.5381, -7.51304, 48.7715, 46.8479, -35.2943, -34.9824
2.104, -1, 24.5925, -7.55778, 48.7785, 46.9286, -35.2091, -35.035
2.107, -1, 24.6463, -7.60215, 48.7855, 47.0092, -35.1241, -35.0874
2.111, -1, 24.6995, -7.646, 48.7924, 47.0894, -35.0394, -35.1397
2.116, -1, 24.7518, -7.6892, 48.7992, 47.1693, -34.9551, -35.1918
2.12, -1, 24.8033, -7.73159, 48.8058, 47.2487, -34.8714, -35.2435
2.124, -1, 24.8536, -7.77304, 48.8124, 47.3271, -34.7887, -35.2946
2.127, -1, 24.9027, -7.81341, 48.8187, 47.4045, -34.7071, -35.345
2.132, -1, 24.9505, -7.85258, 48.8249, 47.4803, -34.6271, -35.3944
2.136, -1, 24.9968, -7.89035, 48.8309, 47.5542, -34.5492, -35.4426
2.14, -1, 25.0412, -7.92654, 48.8366, 47.6257, -34.4738, -35.4892
2.143, -1, 25.0837, -7.96099, 48.8421, 47.6943, -34.4014, -35.5339
2.148, -1, 25.124, -7.99357, 48.8472, 47.7596, -34.3326, -35.5764
2.152, -1, 25.162, -8.02426, 48.8521, 47.8209, -34.2679, -35.6164
2.156, -1, 25.1976, -8.05307, 48.8566, 47.878, -34.2078, -35.6536
2.16, -1, 25.2309, -8.08004, 48.8609, 47.9303, -34.1526, -35.6877
2.163, -1, 25.2618, -8.10518, 48.8649, 47.9776, -34.1027, -35.7185
2.168, -1, 25.2902, -8.12851, 48.8685, 48.0198, -34.0582, -35.746
2.172, -1, 25.3162, -8.15, 48.8719, 48.0568, -34.0191, -35.7701
2.176, -1, 25.3397, -8.16958, 48.8749, 48.0887, -33.9854, -35.7909
2.179, -1, 25.3607, -8.18717, 48.8776, 48.1157, -33.9568, -35.8084
2.184, -1, 25.3793, -8.20276, 48.88, 48.1382, -33.9331, -35.8231
2.188, -1, 25.3955, -8.21643, 48.8821, 48.1565, -33.9137, -35.835
2.192, -1, 25.4095, -8.22829, 48.884, 48.1711, -33.8982, -35.8445
2.196, -1, 25.4217, -8.23847, 48.8855, 48.1825, -33.8861, -35.8518
2.199, -1, 25.4321, -8.24707, 48.8868, 48.1912, -33.8769, -35.8575
2.204, -1, 25.4408, -8.2542, 48.8879, 48.1976, -33.8701, -35.8616
2.208, -1, 25.4481, -8.25997, 48.8888, 48.2022, -33.8651, -35.8646
2.212, -1, 25.4538, -8.26449, 48.8894, 48.2055, -33.8616, -35.8667
2.216, 2, 25.4583, -8.26791, 48.8899, 48.2078, -33.8592, -35.8682
2.219, 2, 25.4616, -8.2704, 48.8903, 48.2093, -33.8575, -35.8692
2.224, 2, 25.464, -8.27214, 48.8906, 48.2104, -33.8563, -35.8699
2.228, 2, 25.4656, -8.27333, 48.8908, 48.2111, -33.8556, -35.8703
2.232, 2, 25.4667, -8.27414, 48.8909, 48.2116, -33.855, -35.8707
2.235, 2, 25.4674, -8.27469, 48.891, 48.2119, -33.8547, -35.8709
2.24, 2, 25.4679, -8.27506, 48.891, 48.2121, -33.8545, -35.871
2.244, 2, 25.4683, -8.27531, 48.8911, 48.2123, -33.8543, -35.8711
2.248, 2, 25.4685, -8.27548, 48.8911, 48.2124, -33.8542, -35.8712
2.252, 2, 25.4687, -8.2756, 48.8911, 48.2125, -33.8541, -35.8712
2.255, 2, 25.4688, -8.27567, 48.8911, 48.2125, -33.854, -35.8712
2.259, 2, 25.4688, -8.27573, 48.8911, 48.2125, -33.854, -35.8713
2.264, 2, 25.4689, -8.27576, 48.8911, 48.2126, -33.854, -35.8713
2.268, 2, 25.4689, -8.27579, 48.8911, 48.2126, -33.854, -35.8713
2.272, 2, 25.4689, -8.2758, 48.8911, 48.2126, -33.854, -35.8713
2.275, 2, 25.469, -8.27582, 48.8911, 48.2126, -33.854, -35.8713
2.28, 2, 25.469, -8.27582, 48.8911, 48.2126, -33.854, -35.8713
2.284, 2, 25.469, -8.27583, 48.8911, 48.2126, -33.854, -35.8713
2.288, 2, 25.469, -8.27583, 48.8911, 48.2126, -33.854, -35.8713
2.291, 2, 25.469, -8.27583, 48.8911, 48.2126, -33.8539, -35.8713
2.296, 2, 25.469, -8.27584, 48.8911, 48.2126, -33.8539, -35.8713
2.3, 2, 25.469, -8.27584, 48.8911, 48.2126, -33.8539, -35.8713
2.304, 2, 25.469, -8.27584, 48.8911, 48.2126, -33.8539, -35.8713
2.308, 2, 25.469, -8.27584, 48.8911, 48.2126, -33.8539, -35.8713
2.311, 2, 25.469, -8.27584, 48.8911, 48.2126, -33.8539, -35.8713
2.316, 2, 25.469, -8.27584, 48.8911, 48.2126, -33.8539, -35.8713
2.32, 2, 25.469, -8.27584, 48.8911, 48.2126, -33.8539, -35.8713
2.324, 2, 25.469, -8.27584, 48.8911, 48.2126, -33.8539, -35.8713
2.328, 2, 25.469, -8.27584, 48.8911, 48.2126, -33.8539, -35.8713
2.331, 2, 25.469, -8.27584, 48.8911, 48.2126, -33.8539, -35.8713
2.336, 2, 25.469, -8.27584, 48.8911, 48.2126, -33.8539, -35.8713
2.34, 2, 25.469, -8.27584, 48.8911, 48.2126, -33.8539, -35.8713
2.344, 2, 25.469, -8.27584, 48.8911, 48.2126, -33.8539, -35.8713
2.347, 2, 25.469, -8.27584, 48.8911, 48.2126, -33.8539, -35.8713
2.352, 2, 25.469, -8.27584, 48.8911, 48.2126, -33.8539, -35.8713
2.356, 2, 25.469, -8.27584, 48.8911, 48.2126, -33.8539, -35.8713
2.36, 2, 25.469, -8.27584, 48.8911, 48.2126, -33.8539, -35.8713
2.364, 2, 25.469, -8.27584, 48.8911, 48.2126, -33.8539, -35.8713
2.367, 2, 25.469, -8.27584, 48.8911, 48.2126, -33.8539, -35.8713
2.372, 2, 25.469, -8.27584, 48.8911, 48.2126, -33.8539, -35.8713
2.376, 2, 25.469, -8.27584, 48.8911, 48.2126, -33.8539, -35.8713
2.38, 2, 25.469, -8.27584, 48.8911, 48.2126, -33.8539, -35.8713
2.383, 2, 25.469, -8.27584, 48.8911, 48.2126, -33.8539, -35.8713
2.388, 2, 25.469, -8.27584, 48.8911, 48.2126, -33.8539, -35.8713
2.392, 2, 25.469, -8.27584, 48.8911, 48.2126, -33.8539, -35.8713
2.396, 2, 25.469, -8.27584, 48.8911, 48.2126, -33.8539, -35.8713
2.4, 2, 25.469, -8.27584, 48.8911, 48.2126, -33.8539, -35.8713
2.403, 2, 25.469, -8.27584, 48.8911, 48.2126, -33.8539, -35.8713
2.408, 2, 25.469, -8.27584, 48.8911, 48.2126, -33.8539, -35.8713
2.412, 2, 25.469, -8.27584, 48.8911, 48.2126, -33.8539, -35.8713
2.416, 2, 25.469, -8.27584, 48.8911, 48.2126, -33.8539, -35.8713
2.42, 2, 25.469, -8.27584, 48.8911, 48.2126, -33.8539, -35.8713
2.423, 2, 25.469, -8.27584, 48.8911, 48.2126, -33.8539, -35.8713
2.428, 2, 25.469, -8.27584, 48.8911, 48.2126, -33.8539, -35.8713
2.432, 2, 25.469, -8.27584, 48.8911, 48.2126, -33.8539, -35.8713
2.436, 2, 25.469, -8.27584, 48.8911, 48.2126, -33.8539, -35.8713
2.439, 2, 25.469, -8.27584, 48.8911, 48.2126, -33.8539, -35.8713
2.444, 2, 25.469, -8.27584, 48.8911, 48.2126, -33.8539, -35.8713
2.448, 2, 25.469, -8.27584, 48.8911, 48.2126, -33.8539, -35.8713
2.452, 2, 25.469, -8.27584, 48.8911, 48.2126, -33.8539, -35.8713
2.456, 2, 25.469, -8.27584, 48.8911, 48.2126, -33.8539, -35.8713
2.459, 2, 25.469, -8.27584, 48.8911, 48.2126, -33.8539, -35.8713
2.464, 2, 25.469, -8.27584, 48.8911, 48.2126, -33.8539, -35.8713
2.468, 2, 25.469, -8.27584, 48.8911, 48.2126, -33.8539, -35.8713
2.472, 2, 25.469, -8.27584, 48.8911, 48.2126, -33.8539, -35.8713
2.476, 2, 25.469, -8.27584, 48.8911, 48.2126, -33.8539, -35.8713
2.479, 2, 25.469, -8.27584, 48.8911, 48.2126, -33.8539, -35.8713
2.484, 2, 25.469, -8.27584, 48.8911, 48.2126, -33.8539, -35.8713
2.488, 2, 25.469, -8.27584, 48.8911, 48.2126, -33.8539, -35.8713
2.492, 2, 25.469, -8.27584, 48.8911, 48.2126, -33.8539, -35.8713
2.495, 2, 25.469, -8.27584, 48.8911, 48.2126, -33.8539, -35.8713
2.5, 2, 25.469, -8.27584, 48.8911, 48.2126, -33.8539, -35.8713
2.504, 2, 25.469, -8.27584, 48.8911, 48.2126, -33.8539, -35.8713
2.508, 2, 25.469, -8.27584, 48.8911, 48.2126, -33.8539, -35.8713
2.512, 2, 25.469, -8.27584, 48.8911, 48.2126, -33.8539, -35.8713
2.515, 2, 25.469, -8.27584, 48.8911, 48.2126, -33.8539, -35.8713
2.52, 2, 25.469, -8.27584, 48.8911, 48.2126, -33.8539, -35.8713
2.524, 2, 25.469, -8.27584, 48.8911, 48.2126, -33.8539, -35.8713
2.528, 2, 25.469, -8.27584, 48.8911, 48.2126, -33.8539, -35.8713
2.531, 2, 25.469, -8.27584, 48.8911, 48.2126, -33.8539, -35.8713
2.536, 2, 25.469, -8.27584, 48.8911, 48.2126, -33.8539, -35.8713
2.54, 2, 25.469, -8.27584, 48.8911, 48.2126, -33.8539, -35.8713
2.544, 2, 25.469, -8.27584, 48.8911, 48.2126, -33.8539, -35.8713
2.548, 2, 25.469, -8.27584, 48.8911, 48.2126, -33.8539, -35.8713
2.551, 2, 25.469, -8.27584, 48.8911, 48.2126, -33.8539, -35.8713
2.556, 2, 25.469, -8.27584, 48.8911, 48.2126, -33.8539, -35.8713
2.56, 2, 25.469, -8.27584, 48.8911, 48.2126, -33.8539, -35.8713
2.564, 2, 25.469, -8.27584, 48.8911, 48.2126, -33.8539, -35.8713
2.568, 2, 25.469, -8.27584, 48.8911, 48.2126, -33.8539, -35.8713
2.571, 2, 25.469, -8.27584, 48.8911, 48.2126, -33.8539, -35.8713
2.576, 2, 25.469, -8.27584, 48.8911, 48.2126, -33.8539, -35.8713
2.58, 2, 25.469, -8.27584, 48.8911, 48.2126, -33.8539, -35.8713
2.584, 2, 25.469, -8.27584, 48.8911, 48.2126, -33.8539, -35.8713
2.587, 2, 25.469, -8.27584, 48.8911, 48.2126, -33.8539, -35.8713
2.592, 2, 25.469, -8.27584, 48.8911, 48.2126, -33.8539, -35.8713
2.596, 2, 25.469, -8.27584, 48.8911, 48.2126, -33.8539, -35.8713
2.6, 2, 25.469, -8.27584, 48.8911, 48.2126, -33.8539, -35.8713
2.604, 2, 25.469, -8.27584, 48.8911, 48.2126, -33.8539, -35.8713
2.607, 2, 25.469, -8.27584, 48.8911, 48.2126, -33.8539, -35.8713
2.612, 2, 25.469, -8.27584, 48.8911, 48.2126, -33.8539, -35.8713
2.616, 2, 25.469, -8.27584, 48.8911, 48.2126, -33.8539, -35.8713
2.62, 2, 25.469, -8.27584, 48.8911, 48.2126, -33.8539, -35.8713
2.624, 2, 25.469, -8.27584, 48.8911, 48.2126, -33.8539, -35.8713
2.627, 2, 25.469, -8.27584, 48.8911, 48.2126, -33.8539, -35.8713
2.632, 2, 25.469, -8.27584, 48.8911, 48.2126, -33.8539, -35.8713
2.636, 2, 25.469, -8.27584, 48.8911, 48.2126, -33.8539, -35.8713
2.64, 2, 25.469, -8.27584, 48.8911, 48.2126, -33.8539, -35.8713
2.643, 2, 25.469, -8.27584, 48.8911, 48.2126, -33.8539, -35.8713
2.648, 2, 25.469, -8.27584, 48.8911, 48.2126, -33.8539, -35.8713
2.652, 2, 25.469, -8.27584, 48.8911, 48.2126, -33.8539, -35.8713
2.656, 2, 25.469, -8.27584, 48.8911, 48.2126, -33.8539, -35.8713
2.66, 2, 25.469, -8.27584, 48.8911, 48.2126, -33.8539, -35.8713
2.663, 2, 25.469, -8.27584, 48.8911, 48.2126, -33.8539, -35.8713
2.668, 2, 25.469, -8.27584, 48.8911, 48.2126, -33.8539, -35.8713
2.672, 2, 25.469, -8.27584, 48.8911, 48.2126, -33.8539, -35.8713
2.676, 2, 25.469, -8.27584, 48.8911, 48.2126, -33.8539, -35.8713
2.679, 2, 25.469, -8.27584, 48.8911, 48.2126, -33.8539, -35.8713
2.684, 2, 25.469, -8.27584, 48.8911, 48.2126, -33.8539, -35.8713
2.688, 2, 25.469, -8.27584, 48.8911, 48.2126, -33.8539, -35.8713
2.692, 2, 25.469, -8.27584, 48.8911, 48.2126, -33.8539, -35.8713
2.696, 2, 25.469, -8.27584, 48.8911, 48.2126, -33.8539, -35.8713
2.699, 2, 25.469, -8.27584, 48.8911, 48.2126, -33.8539, -35.8713
2.704, 2, 25.469, -8.27584, 48.8911, 48.2126, -33.8539, -35.8713
2.708, 2, 25.469, -8.27584, 48.8911, 48.2126, -33.8539, -35.8713
2.712, 2, 25.469, -8.27584, 48.8911, 48.2126, -33.8539, -35.8713
2.716, 2, 25.469, -8.27584, 48.8911, 48.2126, -33.8539, -35.8713
2.719, 2, 25.469, -8.27584, 48.8911, 48.2126, -33.8539, -35.8713
2.724, 2, 25.469, -8.27584, 48.8911, 48.2126, -33.8539, -35.8713
2.728, 2, 25.469, -8.27584, 48.8911, 48.2126, -33.8539, -35.8713
2.732, 2, 25.469, -8.27584, 48.8911, 48.2126, -33.8539, -35.8713
2.735, 2, 25.469, -8.27584, 48.8911, 48.2126, -33.8539, -35.8713
2.74, 2, 25.469, -8.27584, 48.8911, 48.2126, -33.8539, -35.8713
2.744, 2, 25.469, -8.27584, 48.8911, 48.2126, -33.8539, -35.8713
2.748, 2, 25.469, -8.27584, 48.8911, 48.2126, -33.8539, -35.8713
2.752, 2, 25.469, -8.27584, 48.8911, 48.2126, -33.8539, -35.8713
2.755, 2, 25.469, -8.27584, 48.8911, 48.2126, -33.8539, -35.8713
2.76, 2, 25.469, -8.27584, 48.8911, 48.2126, -33.8539, -35.8713
2.764, 2, 25.469, -8.27584, 48.8911, 48.2126, -33.8539, -35.8713
2.768, 2, 25.469, -8.27584, 48.8911, 48.2126, -33.8539, -35.8713
2.772, 2, 25.469, -8.27584, 48.8911, 48.2126, -33.8539, -35.8713
2.775, 2, 25.469, -8.27584, 48.8911, 48.2126, -33.8539, -35.8713
2.78, 2, 25.469, -8.27584, 48.8911, 48.2126, -33.8539, -35.8713
2.784, 2, 25.469, -8.27584, 48.8911, 48.2126, -33.8539, -35.8713
2.788, 2, 25.469, -8.27584, 48.8911, 48.2126, -33.8539, -35.8713
2.791, 2, 25.469, -8.27584, 48.8911, 48.2126, -33.8539, -35.8713
2.796, 2, 25.469, -8.27584, 48.8911, 48.2126, -33.8539, -35.8713
2.8, 2, 25.469, -8.27584, 48.8911, 48.2126, -33.8539, -35.8713
2.804, 2, 25.469, -8.27584, 48.8911, 48.2126, -33.8539, -35.8713
2.808, 2, 25.469, -8.27584, 48.8911, 48.2126, -33.8539, -35.8713
2.811, 2, 25.469, -8.27584, 48.8911, 48.2126, -33.8539, -35.8713
2.816, 2, 25.469, -8.27584, 48.8911, 48.2126, -33.8539, -35.8713
2.82, 2, 25.469, -8.27584, 48.8911, 48.2126, -33.8539, -35.8713
2.824, 2, 25.469, -8.27584, 48.8911, 48.2126, -33.8539, -35.8713
2.828, 2, 25.469, -8.27584, 48.8911, 48.2126, -33.8539, -35.8713
2.831, 2, 25.469, -8.27584, 48.8911, 48.2126, -33.8539, -35.8713
2.836, 2, 25.469, -8.27584, 48.8911, 48.2126, -33.8539, -35.8713
2.84, 2, 25.469, -8.27584, 48.8911, 48.2126, -33.8539, -35.8713
2.844, 2, 25.469, -8.27584, 48.8911, 48.2126, -33.8539, -35.8713
2.847, 2, 25.469, -8.27584, 48.8911, 48.2126, -33.8539, -35.8713
2.852, 2, 25.469, -8.27584, 48.8911, 48.2126, -33.8539, -35.8713
2.856, 2, 25.469, -8.27584, 48.8911, 48.2126, -33.8539, -35.8713
2.86, 2, 25.469, -8.27584, 48.8911, 48.2126, -33.8539, -35.8713
2.864, 2, 25.469, -8.27584, 48.8911, 48.2126, -33.8539, -35.8713
2.867, 2, 25.469, -8.27584, 48.8911, 48.2126, -33.8539, -35.8713
2.872, 2, 25.469, -8.27584, 48.8911, 48.2126, -33.8539, -35.8713
2.876, 2, 25.469, -8.27584, 48.8911, 48.2126, -33.8539, -35.8713
2.88, 2, 25.469, -8.27584, 48.8911, 48.2126, -33.8539, -35.8713
2.883, 2, 25.469, -8.27584, 48.8911, 48.2126, -33.8539, -35.8713
2.888, 2, 25.469, -8.27584, 48.8911, 48.2126, -33.8539, -35.8713
2.892, 2, 25.469, -8.27584, 48.8911, 48.2126, -33.8539, -35.8713
2.896, 2, 25.469, -8.27584, 48.8911, 48.2126, -33.8539, -35.8713
2.9, 2, 25.469, -8.27584, 48.8911, 48.2126, -33.8539, -35.8713
2.903, 2, 25.469, -8.27584, 48.8911, 48.2126, -33.8539, -35.8713
2.908, 2, 25.469, -8.27584, 48.8911, 48.2126, -33.8539, -35.8713
2.912, 2, 25.469, -8.27584, 48.8911, 48.2126, -33.8539, -35.8713
2.916, 2, 25.469, -8.27584, 48.8911, 48.2126, -33.8539, -35.8713
2.92, 2, 25.469, -8.27584, 48.8911, 48.2126, -33.8539, -35.8713
2.923, 2, 25.469, -8.27584, 48.8911, 48.2126, -33.8539, -35.8713
2.928, 2, 25.469, -8.27584, 48.8911, 48.2126, -33.8539, -35.8713
2.932, 2, 25.469, -8.27584, 48.8911, 48.2126, -33.8539, -35.8713
2.936, 2, 25.469, -8.27584, 48.8911, 48.2126, -33.8539, -35.8713
2.939, 2, 25.469, -8.27584, 48.8911, 48.2126, -33.8539, -35.8713
2.944, 2, 25.469, -8.27584, 48.8911, 48.2126, -33.8539, -35.8713
2.948, 2, 25.469, -8.27584, 48.8911, 48.2126, -33.8539, -35.8713
2.952, 2, 25.469, -8.27584, 48.8911, 48.2126, -33.8539, -35.8713
2.956, 2, 25.469, -8.27584, 48.8911, 48.2126, -33.8539, -35.8713
2.959, 2, 25.469, -8.27584, 48.8911, 48.2126, -33.8539, -35.8713
2.964, 2, 25.469, -8.27584, 48.8911, 48.2126, -33.8539, -35.8713
2.968, 2, 25.469, -8.27584, 48.8911, 48.2126, -33.8539, -35.8713
2.972, 2, 25.469, -8.27584, 48.8911, 48.2126, -33.8539, -35.8713
2.976, 2, 25.469, -8.27584, 48.8911, 48.2126, -33.8539, -35.8713
2.98, 2, 25.469, -8.27584, 48.8911, 48.2126, -33.8539, -35.8713
2.984, 2, 25.469, -8.27584, 48.8911, 48.2126, -33.8539, -35.8713
2.988, 2, 25.469, -8.27584, 48.8911, 48.2126, -33.8539, -35.8713
2.992, 2, 25.469, -8.27584, 48.8911, 48.2126, -33.8539, -35.8713
2.995, 2, 25.469, -8.27584, 48.8911, 48.2126, -33.8539, -35.8713
3, 2, 25.469, -8.27584, 48.8911, 48.2126, -33.8539, -35.8713
3.004, 2, 25.469, -8.27584, 48.8911, 48.2126, -33.8539, -35.8713
3.008, 2, 25.469, -8.27584, 48.8911, 48.2126, -33.8539, -35.8713
3.012, 2, 25.469, -8.27584, 48.8911, 48.2126, -33.8539, -35.8713
3.015, 2, 25.469, -8.27584, 48.8911, 48.2126, -33.8539, -35.8713
3.02, 2, 25.469, -8.27584, 48.8911, 48.2126, -33.8539, -35.8713
3.024, 2, 25.469, -8.27584, 48.8911, 48.2126, -33.8539, -35.8713
3.028, 2, 25.469, -8.27584, 48.8911, 48.2126, -33.8539, -35.8713
3.031, 2, 25.469, -8.27584, 48.8911, 48.2126, -33.8539, -35.8713
3.036, 2, 25.469, -8.27584, 48.8911, 48.2126, -33.8539, -35.8713
3.04, 2, 25.469, -8.27584, 48.8911, 48.2126, -33.8539, -35.8713
3.044, 2, 25.469, -8.27584, 48.8911, 48.2126, -33.8539, -35.8713
3.048, 2, 25.469, -8.27584, 48.8911, 48.2126, -33.8539, -35.8713
3.051, 2, 25.469, -8.27584, 48.8911, 48.2126, -33.8539, -35.8713
3.056, 2, 25.469, -8.27584, 48.8911, 48.2126, -33.8539, -35.8713
3.06, 2, 25.469, -8.27584, 48.8911, 48.2126, -33.8539, -35.8713
3.064, 2, 25.469, -8.27584, 48.8911, 48.2126, -33.8539, -35.8713
3.068, 2, 25.469, -8.27584, 48.8911, 48.2126, -33.8539, -35.8713
3.071, 2, 25.469, -8.27584, 48.8911, 48.2126, -33.8539, -35.8713
3.076, 2, 25.469, -8.27584, 48.8911, 48.2126, -33.8539, -35.8713
3.08, 2, 25.469, -8.27584, 48.8911, 48.2126, -33.8539, -35.8713
3.084, 2, 25.469, -8.27584, 48.8911, 48.2126, -33.8539, -35.8713
3.087, 2, 25.469, -8.27584, 48.8911, 48.2126, -33.8539, -35.8713
3.092, 2, 25.469, -8.27584, 48.8911, 48.2126, -33.8539, -35.8713
3.096, 2, 25.469, -8.27584, 48.8911, 48.2126, -33.8539, -35.8713
3.1, 2, 25.469, -8.27584, 48.8911, 48.2126, -33.8539, -35.8713
3.104, 2, 25.469, -8.27584, 48.8911, 48.2126, -33.8539, -35.8713
3.107, 2, 25.469, -8.27584, 48.8911, 48.2126, -33.8539, -35.8713
3.112, 2, 25.469, -8.27584, 48.8911, 48.2126, -33.8539, -35.8713
3.116, 2, 25.469, -8.27584, 48.8911, 48.2126, -33.8539, -35.8713
3.12, 2, 25.469, -8.27584, 48.8911, 48.2126, -33.8539, -35.8713
3.124, 2, 25.469, -8.27584, 48.8911, 48.2126, -33.8539, -35.8713
3.128, 2, 25.469, -8.27584, 48.8911, 48.2126, -33.8539, -35.8713
3.132, 2, 25.469, -8.27584, 48.8911, 48.2126, -33.8539, -35.8713
3.136, 2, 25.469, -8.27584, 48.8911, 48.2126, -33.8539, -35.8713
3.14, 2, 25.469, -8.27584, 48.8911, 48.2126, -33.8539, -35.8713
3.143, 2, 25.469, -8.27584, 48.8911, 48.2126, -33.8539, -35.8713
3.148, 2, 25.469, -8.27584, 48.8911, 48.2126, -33.8539, -35.8713
3.152, 2, 25.469, -8.27584, 48.8911, 48.2126, -33.8539, -35.8713
3.156, 2, 25.469, -8.27584, 48.8911, 48.2126, -33.8539, -35.8713
3.16, 2, 25.469, -8.27584, 48.8911, 48.2126, -33.8539, -35.8713
3.163, 2, 25.469, -8.27584, 48.8911, 48.2126, -33.8539, -35.8713
3.168, 2, 25.469, -8.27584, 48.8911, 48.2126, -33.8539, -35.8713
3.172, 2, 25.469, -8.27584, 48.8911, 48.2126, -33.8539, -35.8713
3.176, 2, 25.469, -8.27584, 48.8911, 48.2126, -33.8539, -35.8713
3.179, 2, 25.469, -8.27584, 48.8911, 48.2126, -33.8539, -35.8713
3.184, 2, 25.469, -8.27584, 48.8911, 48.2126, -33.8539, -35.8713
3.188, 2, 25.469, -8.27584, 48.8911, 48.2126, -33.8539, -35.8713
3.192, 2, 25.469, -8.27584, 48.8911, 48.2126, -33.8539, -35.8713
3.196, 2, 25.469, -8.27584, 48.8911, 48.2126, -33.8539, -35.8713
3.199, 2, 25.469, -8.27584, 48.8911, 48.2126, -33.8539, -35.8713
3.204, 2, 25.469, -8.27584, 48.8911, 48.2126, -33.8539, -35.8713
3.208, 2, 25.469, -8.27584, 48.8911, 48.2126, -33.8539, -35.8713
3.212, 2, 25.469, -8.27584, 48.8911, 48.2126, -33.8539, -35.8713
3.216, 2, 25.469, -8.27584, 48.8911, 48.2126, -33.8539, -35.8713
3.22, 2, 25.469, -8.27584, 48.8911, 48.2126, -33.8539, -35.8713
3.224, 2, 25.469, -8.27584, 48.8911, 48.2126, -33.8539, -35.8713
3.228, 2, 25.469, -8.27584, 48.8911, 48.2126, -33.8539, -35.8713
3.232, 2, 25.469, -8.27584, 48.8911, 48.2126, -33.8539, -35.8713
3.235, 2, 25.469, -8.27584, 48.8911, 48.2126, -33.8539, -35.8713
3.24, 2, 25.469, -8.27584, 48.8911, 48.2126, -33.8539, -35.8713
3.244, 2, 25.469, -8.27584, 48.8911, 48.2126, -33.8539, -35.8713
3.248, 2, 25.469, -8.27584, 48.8911, 48.2126, -33.8539, -35.8713
3.252, 2, 25.469, -8.27584, 48.8911, 48.2126, -33.8539, -35.8713
3.255, 2, 25.469, -8.27584, 48.8911, 48.2126, -33.8539, -35.8713
3.26, 2, 25.469, -8.27584, 48.8911, 48.2126, -33.8539, -35.8713
3.264, 2, 25.469, -8.27584, 48.8911, 48.2126, -33.8539, -35.8713
3.268, 2, 25.469, -8.27584, 48.8911, 48.2126, -33.8539, -35.8713
3.272, 2, 25.469, -8.27584, 48.8911, 48.2126, -33.8539, -35.8713
3.276, 2, 25.469, -8.27584, 48.8911, 48.2126, -33.8539, -35.8713
3.28, 2, 25.469, -8.27584, 48.8911, 48.2126, -33.8539, -35.8713
3.284, 2, 25.469, -8.27584, 48.8911, 48.2126, -33.8539, -35.8713
3.288, 2, 25.469, -8.27584, 48.8911, 48.2126, -33.8539, -35.8713
3.291, 4, 25.469, -8.27584, 48.8911, 48.2126, -33.8539, -35.8713
3.296, 4, 25.469, -8.27584, 48.8911, 48.2126, -33.8539, -35.8713
3.3, 4, 25.469, -8.27584, 48.8911, 48.2126, -33.8539, -35.8713
3.304, 4, 25.469, -8.27584, 48.8911, 48.2126, -33.8539, -35.8713
3.308, 4, 25.469, -8.27584, 48.8911, 48.2126, -33.8539, -35.8713
3.312, 4, 25.469, -8.27584, 48.8911, 48.2126, -33.8539, -35.8713
3.316, 4, 25.469, -8.27584, 48.8911, 48.2126, -33.8539, -35.8713
3.32, 4, 25.469, -8.27584, 48.8911, 48.2126, -33.8539, -35.8713
3.324, 4, 25.469, -8.27584, 48.8911, 48.2126, -33.8539, -35.8713
3.328, 4, 25.469, -8.27584, 48.8911, 48.2126, -33.8539, -35.8713
3.332, 4, 25.469, -8.27584, 48.8911, 48.2126, -33.8539, -35.8713
3.336, 4, 25.469, -8.27584, 48.8911, 48.2126, -33.8539, -35.8713
3.34, 4, 25.469, -8.27584, 48.8911, 48.2126, -33.8539, -35.8713
3.344, 4, 25.469, -8.27584, 48.8911, 48.2126, -33.8539, -35.8713
3.347, 4, 25.469, -8.27584, 48.8911, 48.2126, -33.8539, -35.8713
3.352, 4, 25.469, -8.27584, 48.8911, 48.2126, -33.8539, -35.8713
3.356, 4, 25.469, -8.27584, 48.8911, 48.2126, -33.8539, -35.8713
3.36, 4, 25.469, -8.27584, 48.8911, 48.2126, -33.8539, -35.8713
3.364, 4, 25.469, -8.27584, 48.8911, 48.2126, -33.8539, -35.8713
3.368, 4, 25.469, -8.27584, 48.8911, 48.2126, -33.8539, -35.8713
3.372, 4, 25.469, -8.27584, 48.8911, 48.2126, -33.8539, -35.8713
3.376, 4, 25.469, -8.27584, 48.8911, 48.2126, -33.8539, -35.8713
3.38, 4, 25.469, -8.27584, 48.8911, 48.2126, -33.8539, -35.8713
3.383, 4, 25.469, -8.27584, 48.8911, 48.2126, -33.8539, -35.8713
3.388, 4, 25.469, -8.27584, 48.8911, 48.2126, -33.8539, -35.8713
3.392, 4, 25.469, -8.27584, 48.8911, 48.2126, -33.8539, -35.8713
3.398, 4, 25.469, -8.27584, 48.8911, 48.2126, -33.8539, -35.8713
3.402, 4, 25.469, -8.27584, 48.8911, 48.2126, -33.8539, -35.8713
3.404, 4, 25.469, -8.27584, 48.8911, 48.2126, -33.8539, -35.8713
3.408, 4, 25.469, -8.27584, 48.8911, 48.2126, -33.8539, -35.8713
3.412, 4, 25.469, -8.27584, 48.8911, 48.2126, -33.8539, -35.8713
3.416, 4, 25.469, -8.27584, 48.8911, 48.2126, -33.8539, -35.8713
3.42, 4, 25.469, -8.27584, 48.8911, 48.2126, -33.8539, -35.8713
3.424, 4, 25.4689, -8.27586, 48.8911, 48.2126, -33.8539, -35.8713
3.428, 4, 25.4687, -8.27591, 48.8912, 48.2126, -33.854, -35.8713
3.432, 4, 25.4681, -8.27607, 48.8913, 48.2125, -33.854, -35.8712
3.436, 4, 25.467, -8.27639, 48.8916, 48.2121, -33.8541, -35.8709
3.439, 4, 25.4651, -8.27697, 48.8922, 48.2113, -33.8543, -35.8703
3.444, 4, 25.4624, -8.27788, 48.8932, 48.2096, -33.8547, -35.8689
3.448, 4, 25.4587, -8.27923, 48.8949, 48.2065, -33.8555, -35.8663
3.452, 4, 25.4536, -8.28114, 48.8975, 48.201, -33.8569, -35.8618
3.456, 4, 25.4471, -8.28375, 48.9015, 48.1922, -33.859, -35.8545
3.46, 4, 25.4388, -8.28722, 48.9071, 48.1789, -33.8622, -35.8434
3.464, 4, 25.4282, -8.29175, 48.9149, 48.1595, -33.8669, -35.8273
3.468, 5, 25.4147, -8.29755, 48.9254, 48.1324, -33.8735, -35.8047
3.472, 5, 25.3979, -8.30485, 48.9394, 48.0955, -33.8824, -35.7741
3.476, 5, 25.3772, -8.31386, 48.9575, 48.0469, -33.8942, -35.7336
3.48, 5, 25.352, -8.32477, 48.9804, 47.9841, -33.9094, -35.6813
3.484, 5, 25.3217, -8.33777, 49.0088, 47.9048, -33.9286, -35.6153
3.488, 5, 25.2859, -8.35303, 49.0436, 47.8068, -33.9525, -35.5337
3.492, 5, 25.244, -8.37074, 49.0854, 47.6877, -33.9817, -35.4345
3.495, 5, 25.1953, -8.39106, 49.1348, 47.5455, -34.0168, -35.316
3.5, 5, 25.1393, -8.41414, 49.1924, 47.3783, -34.0583, -35.1769
3.504, 5, 25.0756, -8.4401, 49.2586, 47.1846, -34.1067, -35.0157
3.508, 5, 25.0037, -8.46904, 49.3338, 46.9631, -34.1625, -34.8314
3.512, 5, 24.9231, -8.50101, 49.4181, 46.7128, -34.2263, -34.6233
3.516, 5, 24.8337, -8.53603, 49.5117, 46.4331, -34.2982, -34.3908
3.52, 5, 24.7351, -8.57405, 49.6147, 46.1237, -34.3788, -34.1338
3.524, 5, 24.6271, -8.61503, 49.727, 45.7846, -34.4681, -33.8523
3.528, 5, 24.5096, -8.65885, 49.8487, 45.4159, -34.5666, -33.5465
3.531, 5, 24.3824, -8.7054, 49.9796, 45.0183, -34.6744, -33.2169
3.536, 5, 24.2454, -8.75453, 50.1196, 44.5923, -34.7917, -32.8641
3.54, 5, 24.0986, -8.80606, 50.2685, 44.1388, -34.9185, -32.489
3.544, 5, 23.9419, -8.85978, 50.4261, 43.6588, -35.0552, -32.0923
3.548, 5, 23.7754, -8.91545, 50.5921, 43.1533, -35.2018, -31.675
3.552, 5, 23.5991, -8.9728, 50.7661, 42.6232, -35.3585, -31.2379
3.556, 5, 23.4131, -9.03156, 50.9478, 42.0697, -35.5254, -30.7821
3.56, 5, 23.2176, -9.09142, 51.1368, 41.4936, -35.7028, -30.3084
3.564, 5, 23.0127, -9.15206, 51.3327, 40.8961, -35.8907, -29.8178
3.568, 5, 22.7986, -9.21317, 51.5351, 40.2782, -36.0894, -29.3113
3.572, 5, 22.5756, -9.27443, 51.7435, 39.6412, -36.299, -28.79
3.576, 5, 22.3437, -9.33552, 51.9575, 38.9863, -36.5195, -28.2549
3.58, 5, 22.1032, -9.39613, 52.1767, 38.3149, -36.7511, -27.7073
3.584, 5, 21.8543, -9.45595, 52.4006, 37.6282, -36.9936, -27.1484
3.587, 5, 21.5972, -9.51464, 52.6287, 36.9279, -37.2472, -26.5795
3.592, 5, 21.3321, -9.57189, 52.8606, 36.2154, -37.5116, -26.0019
3.596, 5, 21.0591, -9.62735, 53.0956, 35.4921, -37.7869, -25.417
3.6, 5, 20.7787, -9.68068, 53.3333, 34.7595, -38.0729, -24.8259
3.604, 5, 20.491, -9.73155, 53.5733, 34.0191, -38.3696, -24.2299
3.608, 5, 20.1962, -9.77964, 53.8151, 33.2723, -38.6767, -23.6302
3.612, 5, 19.8945, -9.82465, 54.0582, 32.5202, -38.9943, -23.0279
3.616, 5, 19.5862, -9.86625, 54.3023, 31.764, -39.3223, -22.4241
3.62, 5, 19.2715, -9.90413, 54.547, 31.0049, -39.6605, -21.8196
3.624, 5, 18.9505, -9.93801, 54.7919, 30.2437, -40.009, -21.2154
3.628, 5, 18.6235, -9.96761, 55.0368, 29.4811, -40.3677, -20.612
3.632, 5, 18.2905, -9.99271, 55.2814, 28.718, -40.7366, -20.01
3.636, 5, 17.9519, -10.0131, 55.5253, 27.9548, -41.1159, -19.4102
3.64, 5, 17.6079, -10.0287, 55.7684, 27.1921, -41.5055, -18.8128
3.644, 5, 17.2587, -10.0393, 56.0105, 26.4305, -41.9055, -18.2185
3.648, 5, 16.9045, -10.0448, 56.2512, 25.6705, -42.3157, -17.6278
3.652, 5, 16.5455, -10.0451, 56.4904, 24.9127, -42.7361, -17.0411
3.656, 5, 16.182, -10.0399, 56.7277, 24.1577, -43.1666, -16.4589
3.66, 5, 15.8142, -10.0292, 56.963, 23.4062, -43.607, -15.882
3.664, 5, 15.4423, -10.0128, 57.196, 22.6589, -44.0569, -15.3108
3.668, 5, 15.0665, -9.99046, 57.4263, 21.9165, -44.5161, -14.7459
3.672, 5, 14.6872, -9.96212, 57.6538, 21.1797, -44.9843, -14.188
3.676, 5, 14.3047, -9.92764, 57.8781, 20.4492, -45.4612, -13.6376
3.679, 5, 13.9195, -9.88692, 58.0991, 19.7256, -45.9462, -13.0953
3.684, 5, 13.5317, -9.8399, 58.3164, 19.0096, -46.439, -12.5614
3.688, 5, 13.1418, -9.78654, 58.5298, 18.3018, -46.9393, -12.0365
3.692, 5, 12.7501, -9.72687, 58.7392, 17.6026, -47.4464, -11.5209
3.696, 5, 12.357, -9.66094, 58.9443, 16.9126, -47.9601, -11.0151
3.7, 5, 11.9628, -9.58883, 59.1449, 16.2323, -48.4797, -10.5193
3.704, 5, 11.5678, -9.51069, 59.3409, 15.562, -49.0048, -10.034
3.708, 5, 11.1726, -9.4267, 59.5321, 14.9023, -49.5347, -9.55939
3.712, 5, 10.7775, -9.33707, 59.7182, 14.2536, -50.0688, -9.09575
3.716, 5, 10.3832, -9.24199, 59.8993, 13.6163, -50.6063, -8.64339
3.72, 5, 9.99025, -9.14167, 60.075, 12.991, -51.1464, -8.20259
3.724, 5, 9.59914, -9.03629, 60.2453, 12.3781, -51.6884, -7.77361
3.728, 5, 9.21054, -8.92605, 60.41, 11.7782, -52.2311, -7.35676
3.732, 5, 8.82504, -8.81116, 60.569, 11.1917, -52.7737, -6.95229
3.735, 5, 8.44324, -8.69185, 60.7222, 10.6193, -53.315, -6.56047
3.74, 5, 8.06567, -8.56843, 60.8695, 10.0614, -53.854, -6.18155
3.744, 5, 7.69287, -8.44123, 61.0108, 9.51852, -54.3895, -5.81573
3.748, 5, 7.32538, -8.31067, 61.146, 8.99116, -54.9203, -5.46317
3.752, 5, 6.96376, -8.1772, 61.2752, 8.47968, -55.4454, -5.12397
3.756, 5, 6.60851, -8.04128, 61.3982, 7.98436, -55.9637, -4.79816
3.76, 5, 6.26014, -7.90339, 61.5152, 7.50542, -56.4743, -4.48572
3.764, 5, 5.91909, -7.76398, 61.6263, 7.04299, -56.9764, -4.18654
3.768, 5, 5.58579, -7.62353, 61.7314, 6.59711, -57.4689, -3.90048
3.772, 5, 5.26062, -7.48249, 61.8308, 6.16775, -57.9513, -3.62733
3.776, 5, 4.9439, -7.34127, 61.9245, 5.75482, -58.4228, -3.36684
3.78, 5, 4.63593, -7.20034, 62.0128, 5.35818, -58.8829, -3.11871
3.784, 5, 4.33695, -7.0601, 62.0958, 4.97761, -59.331, -2.88264
3.788, 5, 4.04723, -6.92101, 62.1736, 4.61289, -59.7667, -2.65828
3.792, 5, 3.76697, -6.78347, 62.2466, 4.26375, -60.1896, -2.44528
3.796, 5, 3.49635, -6.6479, 62.3149, 3.92992, -60.5993, -2.24328
3.8, 5, 3.23551, -6.51466, 62.3786, 3.61113, -60.9955, -2.05194
3.804, 5, 2.98451, -6.38404, 62.4381, 3.30711, -61.378, -1.87091
3.808, 5, 2.74337, -6.25619, 62.4934, 3.01759, -61.7463, -1.69986
3.812, 5, 2.51192, -6.13108, 62.5448, 2.74231, -62.1004, -1.53846
3.816, 5, 2.28996, -6.00853, 62.5922, 2.48097, -62.44, -1.38639
3.82, 5, 2.07718, -5.88829, 62.6357, 2.23325, -62.7652, -1.24328
3.824, 5, 1.87329, -5.77004, 62.6754, 1.99876, -63.076, -1.10879
3.828, 5, 1.67798, -5.65347, 62.7112, 1.77702, -63.3727, -0.982489
3.832, 5, 1.49098, -5.53828, 62.7431, 1.5675, -63.6557, -0.863962
3.836, 5, 1.31201, -5.4242, 62.771, 1.36958, -63.9259, -0.752741
3.84, 6, 1.14078, -5.31089, 62.795, 1.18257, -64.1839, -0.648336
3.844, 6, 0.976878, -5.19789, 62.8148, 1.00574, -64.4308, -0.550239
3.848, 6, 0.819741, -5.08458, 62.8304, 0.838282, -64.6677, -0.457927
3.852, 6, 0.668698, -4.97032, 62.8415, 0.679368, -64.8958, -0.37086
3.856, 6, 0.523024, -4.85451, 62.848, 0.528091, -65.1165, -0.288479
3.86, 6, 0.381992, -4.73664, 62.8498, 0.383491, -65.3312, -0.210208
3.864, 6, 0.244883, -4.61633, 62.8468, 0.244559, -65.5414, -0.135457
3.868, 6, 0.111018, -4.49324, 62.839, 0.110261, -65.7486, -0.0636392
3.872, 6, -0.0202064, -4.36701, 62.8263, -0.0204401, -65.9545, 0.00582355
3.876, 6, -0.14934, -4.23724, 62.8088, -0.148554, -66.1605, 0.073482
3.88, 6, -0.276958, -4.10338, 62.7866, -0.275041, -66.3679, 0.13985
3.884, 6, -0.403686, -3.96477, 62.7598, -0.400799, -66.5781, 0.205399
3.888, 6, -0.530182, -3.82074, 62.7284, -0.526654, -66.7922, 0.270553
3.892, 6, -0.657091, -3.67069, 62.6926, -0.653369, -67.0111, 0.335697
3.896, 6, -0.78503, -3.51414, 62.6526, -0.781637, -67.236, 0.401169
3.9, 6, -0.914561, -3.35077, 62.6086, -0.912078, -67.4674, 0.467264
3.904, 6, -1.04618, -3.18035, 62.5606, -1.04522, -67.7062, 0.534227
3.908, 6, -1.18032, -3.00276, 62.5089, -1.18151, -67.953, 0.602245
3.912, 6, -1.31738, -2.81793, 62.4535, -1.32126, -68.2081, 0.671453
3.916, 6, -1.45768, -2.62582, 62.3946, -1.4647, -68.472, 0.741924
3.92, 6, -1.60156, -2.42639, 62.3323, -1.61196, -68.7447, 0.813686
3.924, 6, -1.74928, -2.21959, 62.2665, -1.76308, -69.0266, 0.886719
3.928, 6, -1.90105, -2.00536, 62.1973, -1.91806, -69.3174, 0.960975
3.932, 6, -2.05702, -1.78367, 62.1246, -2.07684, -69.6173, 1.03638
3.936, 6, -2.21722, -1.55451, 62.0483, -2.23934, -69.9262, 1.11285
3.94, 6, -2.38167, -1.31789, 61.9685, -2.40547, -70.2439, 1.1903
3.944, 6, -2.55031, -1.07383, 61.8849, -2.57512, -70.5705, 1.26862
3.948, 6, -2.7231, -0.822359, 61.7976, -2.74819, -70.9057, 1.34771
3.952, 6, -2.89999, -0.563509, 61.7065, -2.92457, -71.2495, 1.42749
3.956, 6, -3.08091, -0.297338, 61.6114, -3.10414, -71.6017, 1.50784
3.96, 6, -3.26574, -0.0239684, 61.5123, -3.28679, -71.9623, 1.58867
3.964, 6, -3.45429, 0.25641, 61.4091, -3.47241, -72.331, 1.66988
3.968, 6, -3.64635, 0.543562, 61.3018, -3.66085, -72.7077, 1.75137
3.972, 6, -3.84167, 0.837232, 61.1904, -3.85198, -73.0922, 1.83304
3.976, 6, -4.04003, 1.13716, 61.0747, -4.04562, -73.4842, 1.91477
3.98, 6, -4.24119, 1.44308, 60.9548, -4.24155, -73.8833, 1.99644
3.984, 6, -4.44492, 1.7547, 60.8307, -4.43954, -74.2891, 2.07792
3.988, 6, -4.65103, 2.07172, 60.7024, -4.63932, -74.701, 2.15909
3.992, 6, -4.85929, 2.39377, 60.5699, -4.8406, -75.1185, 2.2398
3.996, 6, -5.06946, 2.72048, 60.4331, -5.04308, -75.5409, 2.31993
3.999, 6, -5.28126, 3.05146, 60.2924, -5.24642, -75.9677, 2.39933
4.004, 6, -5.49439, 3.38639, 60.1476, -5.4503, -76.398, 2.47788
4.008, 6, -5.70859, 3.72499, 59.9989, -5.6544, -76.8311, 2.55545
4.012, 6, -5.92366, 4.06708, 59.8465, -5.85838, -77.2665, 2.63193
4.016, 6, -6.13943, 4.41252, 59.6903, -6.06195, -77.7033, 2.70721
4.02, 6, -6.35575, 4.76108, 59.5306, -6.2648, -78.1408, 2.78122
4.024, 6, -6.57242, 5.11248, 59.3673, -6.46671, -78.5786, 2.85388
4.028, 6, -6.78928, 5.46636, 59.2007, -6.66744, -79.0161, 2.92514
4.032, 6, -7.00613, 5.82232, 59.0308, -6.86685, -79.4528, 2.99497
4.036, 6, -7.22276, 6.17998, 58.8577, -7.0648, -79.8884, 3.06336
4.04, 6, -7.43896, 6.53895, 58.6815, -7.26119, -80.3226, 3.13032
4.044, 6, -7.65457, 6.89896, 58.5024, -7.45597, -80.7551, 3.19586
4.048, 6, -7.86944, 7.25975, 58.3202, -7.64909, -81.1858, 3.26001
4.052, 6, -8.08348, 7.62116, 58.1352, -7.84054, -81.6146, 3.32279
4.056, 6, -8.29661, 7.98304, 57.9473, -8.0303, -82.0414, 3.38426
4.06, 6, -8.50877, 8.34526, 57.7566, -8.21839, -82.466, 3.44445
4.064, 6, -8.71991, 8.70773, 57.563, -8.40481, -82.8885, 3.50342
4.068, 6, -8.92998, 9.07036, 57.3666, -8.58959, -83.3087, 3.56121
4.072, 6, -9.13897, 9.43311, 57.1674, -8.77275, -83.7268, 3.61787
4.076, 6, -9.34685, 9.79591, 56.9653, -8.9543, -84.1426, 3.67346
4.08, 6, -9.5536, 10.1588, 56.7604, -9.13426, -84.5561, 3.72802
4.084, 6, -9.75923, 10.5216, 56.5527, -9.31267, -84.9674, 3.7816
4.088, 6, -9.96372, 10.8844, 56.3421, -9.48952, -85.3764, 3.83426
4.092, 6, -10.1671, 11.2471, 56.1286, -9.66485, -85.7831, 3.88604
4.096, 6, -10.3692, 11.6098, 55.9123, -9.83865, -86.1875, 3.937
4.1, 6, -10.5701, 11.9721, 55.6933, -10.0109, -86.5896, 3.98717
4.104, 6, -10.7695, 12.3341, 55.4714, -10.1817, -86.9893, 4.03659
4.108, 6, -10.9674, 12.6954, 55.2469, -10.3509, -87.3865, 4.08532
4.112, 6, -11.1635, 13.0558, 55.0198, -10.5186, -87.7812, 4.13338
4.116, 6, -11.3576, 13.4151, 54.7903, -10.6846, -88.1732, 4.18079
4.12, 6, -11.5497, 13.7732, 54.5585, -10.849, -88.5623, 4.22759
4.124, 6, -11.7396, 14.1299, 54.3244, -11.0115, -88.9481, 4.27378
4.128, 6, -11.9274, 14.4849, 54.0884, -11.1722, -89.3305, 4.31937
4.132, 6, -12.113, 14.8382, 53.8506, -11.3309, -89.7091, 4.36437
4.136, 6, -12.2966, 15.1893, 53.6113, -11.4874, -90.0835, 4.40878
4.14, 6, -12.4781, 15.5381, 53.3707, -11.6416, -90.4534, 4.45259
4.144, 6, -12.6574, 15.8843, 53.1291, -11.7934, -90.8184, 4.4958
4.148, 6, -12.8344, 16.2275, 52.8868, -11.9426, -91.1781, 4.53841
4.152, 6, -13.0091, 16.5676, 52.644, -12.0892, -91.5322, 4.5804
4.156, 6, -13.1813, 16.9044, 52.401, -12.233, -91.8805, 4.62178
4.16, 6, -13.3511, 17.2377, 52.1581, -12.3739, -92.2226, 4.66255
4.164, 6, -13.5183, 17.5672, 51.9156, -12.5118, -92.5583, 4.7027
4.168, 6, -13.6828, 17.8928, 51.6736, -12.6468, -92.8874, 4.74224
4.172, 6, -13.8447, 18.2142, 51.4324, -12.7787, -93.21, 4.78118
4.176, 6, -14.0036, 18.5312, 51.1922, -12.9075, -93.5258, 4.81953
4.18, 6, -14.1595, 18.8436, 50.9533, -13.0333, -93.8349, 4.85731
4.184, 6, -14.3123, 19.1511, 50.7158, -13.1561, -94.1374, 4.89453
4.188, 6, -14.4619, 19.4537, 50.4799, -13.2758, -94.4332, 4.93121
4.192, 6, -14.6083, 19.7512, 50.2457, -13.3926, -94.7224, 4.96736
4.196, 6, -14.7516, 20.0437, 50.0134, -13.5065, -95.0051, 5.00299
4.2, 6, -14.8918, 20.3311, 49.783, -13.6174, -95.2812, 5.03811
4.204, 6, -15.0289, 20.6133, 49.5548, -13.7255, -95.551, 5.07273
4.208, 6, -15.1629, 20.8904, 49.3288, -13.8307, -95.8143, 5.10686
4.212, 6, -15.2938, 21.1623, 49.1051, -13.9331, -96.0713, 5.1405
4.216, 6, -15.4217, 21.429, 48.8839, -14.0327, -96.3221, 5.17367
4.22, 6, -15.5466, 21.6905, 48.6653, -14.1296, -96.5666, 5.20635
4.224, 6, -15.6685, 21.9467, 48.4494, -14.2238, -96.8051, 5.23857
4.228, 6, -15.7873, 22.1977, 48.2362, -14.3154, -97.0375, 5.2703
4.232, 6, -15.9033, 22.4435, 48.026, -14.4043, -97.2638, 5.30156
4.236, 6, -16.0163, 22.6839, 47.8187, -14.4907, -97.4843, 5.33234
4.24, 6, -16.1264, 22.9192, 47.6146, -14.5745, -97.6988, 5.36264
4.244, 6, -16.2336, 23.1491, 47.4136, -14.6557, -97.9075, 5.39245
4.248, 6, -16.3379, 23.3737, 47.2159, -14.7346, -98.1105, 5.42177
4.252, 6, -16.4394, 23.593, 47.0217, -14.8109, -98.3077, 5.4506
4.256, 6, -16.538, 23.8069, 46.8309, -14.8849, -98.4993, 5.47891
4.26, 6, -16.6337, 24.0154, 46.6438, -14.9565, -98.6853, 5.50671
4.264, 6, -16.7266, 24.2184, 46.4605, -15.0257, -98.8657, 5.53398
4.268, 6, -16.8166, 24.4158, 46.281, -15.0927, -99.0406, 5.56072
4.272, 6, -16.9037, 24.6077, 46.1055, -15.1573, -99.2099, 5.58689
4.276, 6, -16.9879, 24.7938, 45.9342, -15.2197, -99.3737, 5.61249
4.28, 6, -17.0693, 24.9743, 45.7672, -15.2797, -99.532, 5.6375
4.284, 6, -17.1477, 25.1489, 45.6047, -15.3375, -99.6848, 5.66188
4.288, 6, -17.2232, 25.3177, 45.4467, -15.3931, -99.832, 5.68562
4.292, 6, -17.2958, 25.4805, 45.2935, -15.4464, -99.9736, 5.70869
4.296, 6, -17.3655, 25.6372, 45.1453, -15.4974, -100.11, 5.73105
4.3, 6, -17.4322, 25.7877, 45.0022, -15.5462, -100.24, 5.75268
4.304, 6, -17.4959, 25.9321, 44.8645, -15.5927, -100.364, 5.77355
4.308, 6, -17.5568, 26.0701, 44.7322, -15.6369, -100.483, 5.79362
4.312, 6, -17.6147, 26.2018, 44.6055, -15.6788, -100.596, 5.81286
4.316, 6, -17.6696, 26.327, 44.4847, -15.7185, -100.703, 5.83125
4.32, 6, -17.7216, 26.4457, 44.3699, -15.7559, -100.804, 5.84875
4.324, 6, -17.7706, 26.5578, 44.2611, -15.7909, -100.899, 5.86534
4.328, 6, -17.8167, 26.6633, 44.1586, -15.8237, -100.988, 5.881
4.332, 6, -17.86, 26.7623, 44.0623, -15.8543, -101.071, 5.8957
4.336, 6, -17.9004, 26.8548, 43.9723, -15.8826, -101.148, 5.90944
4.34, 6, -17.938, 26.9409, 43.8887, -15.9087, -101.219, 5.9222
4.344, 6, -17.973, 27.0207, 43.8113, -15.9326, -101.285, 5.93398
4.348, 6, -18.0054, 27.0943, 43.7402, -15.9544, -101.344, 5.94478
4.352, 6, -18.0352, 27.1619, 43.6752, -15.9741, -101.398, 5.95462
4.356, 6, -18.0624, 27.2234, 43.6163, -15.9918, -101.447, 5.96352
4.36, 6, -18.0872, 27.2791, 43.5632, -16.0077, -101.49, 5.97151
4.364, 6, -18.1097, 27.3293, 43.5157, -16.0217, -101.529, 5.97861
4.368, 6, -18.13, 27.3743, 43.4736, -16.0339, -101.563, 5.98486
4.372, 6, -18.1483, 27.4144, 43.4365, -16.0446, -101.592, 5.99032
4.376, 6, -18.1647, 27.4499, 43.4042, -16.0538, -101.617, 5.99503
4.38, 6, -18.1794, 27.4812, 43.3762, -16.0615, -101.639, 5.99904
4.384, 6, -18.1924, 27.5085, 43.3523, -16.0681, -101.656, 6.00242
4.388, 6, -18.2038, 27.532, 43.3321, -16.0735, -101.671, 6.00524
4.392, 6, -18.2137, 27.5521, 43.3152, -16.0779, -101.684, 6.00755
4.396, 6, -18.2223, 27.5689, 43.3012, -16.0815, -101.693, 6.00942
4.4, 6, -18.2297, 27.583, 43.2899, -16.0844, -101.701, 6.0109
4.404, 6, -18.236, 27.5947, 43.2808, -16.0866, -101.707, 6.01206
4.408, 6, -18.2416, 27.6044, 43.2735, -16.0883, -101.712, 6.01295
4.412, 6, -18.2464, 27.6122, 43.2678, -16.0895, -101.715, 6.01362
4.416, 6, -18.2505, 27.6185, 43.2634, -16.0904, -101.718, 6.0141
4.42, 7, -18.2539, 27.6235, 43.2601, -16.0911, -101.719, 6.01445
4.424, 7, -18.2567, 27.6274, 43.2577, -16.0915, -101.721, 6.01469
4.428, 7, -18.2588, 27.6302, 43.2559, -16.0919, -101.722, 6.01486
4.432, 7, -18.2604, 27.6322, 43.2547, -16.0921, -101.722, 6.01498
4.436, 7, -18.2615, 27.6336, 43.2539, -16.0922, -101.722, 6.01505
4.44, 7, -18.2623, 27.6346, 43.2533, -16.0923, -101.723, 6.01511
4.444, 7, -18.2628, 27.6352, 43.2529, -16.0924, -101.723, 6.01514
4.448, 7, -18.2631, 27.6357, 43.2526, -16.0924, -101.723, 6.01516
4.452, 7, -18.2634, 27.636, 43.2524, -16.0925, -101.723, 6.01518
4.456, 7, -18.2635, 27.6362, 43.2523, -16.0925, -101.723, 6.01519
4.46, 7, -18.2637, 27.6363, 43.2522, -16.0925, -101.723, 6.0152
4.464, 7, -18.2637, 27.6364, 43.2522, -16.0925, -101.723, 6.01521
4.468, 7, -18.2638, 27.6365, 43.2521, -16.0925, -101.723, 6.01521
4.472, 7, -18.2638, 27.6365, 43.2521, -16.0925, -101.723, 6.01521
4.476, 7, -18.2638, 27.6365, 43.2521, -16.0925, -101.723, 6.01521
4.48, 7, -18.2638, 27.6366, 43.2521, -16.0925, -101.723, 6.01521
4.484, 7, -18.2639, 27.6366, 43.2521, -16.0925, -101.723, 6.01521
4.488, 7, -18.2639, 27.6366, 43.2521, -16.0925, -101.723, 6.01521
4.492, 7, -18.2639, 27.6366, 43.2521, -16.0925, -101.723, 6.01521
4.496, 7, -18.2639, 27.6366, 43.2521, -16.0925, -101.723, 6.01522
4.5, 7, -18.2639, 27.6366, 43.2521, -16.0925, -101.723, 6.01522
4.504, 7, -18.2639, 27.6366, 43.2521, -16.0925, -101.723, 6.01522
4.508, 7, -18.2639, 27.6366, 43.2521, -16.0925, -101.723, 6.01522
4.512, 7, -18.2639, 27.6366, 43.2521, -16.0925, -101.723, 6.01522
4.516, 7, -18.2639, 27.6366, 43.2521, -16.0925, -101.723, 6.01522
4.52, 7, -18.2639, 27.6366, 43.2521, -16.0925, -101.723, 6.01522
4.524, 7, -18.2639, 27.6366, 43.2521, -16.0925, -101.723, 6.01522
4.528, 7, -18.2639, 27.6366, 43.2521, -16.0925, -101.723, 6.01522
4.532, 7, -18.2639, 27.6366, 43.2521, -16.0925, -101.723, 6.01522
4.536, 7, -18.2639, 27.6366, 43.2521, -16.0925, -101.723, 6.01522
