hehonglu123/ABB_Primitive_Study/execution/movel_30_car_close/curve_exe_v500_z20.csv
timestamp, cmd_num, J1, J2, J3, J4, J5, J6
0, -1, -18.2639, 27.6366, 43.2521, -16.0925, -101.723, 6.01522
0.002, -1, -18.2639, 27.6366, 43.2521, -16.0925, -101.723, 6.01522
0.006, -1, -18.2639, 27.6366, 43.2521, -16.0925, -101.723, 6.01522
0.008, -1, -18.2639, 27.6366, 43.2521, -16.0925, -101.723, 6.01522
0.011, -1, -18.2639, 27.6366, 43.2521, -16.0925, -101.723, 6.01522
0.016, -1, -18.2639, 27.6366, 43.2521, -16.0925, -101.723, 6.01522
0.02, -1, -18.2639, 27.6366, 43.2521, -16.0925, -101.723, 6.01522
0.024, -1, -18.2639, 27.6366, 43.2521, -16.0925, -101.723, 6.01522
0.028, -1, -18.2639, 27.6366, 43.2521, -16.0925, -101.723, 6.01522
0.032, -1, -18.2639, 27.6366, 43.2521, -16.0925, -101.723, 6.01522
0.036, -1, -18.2638, 27.6366, 43.2521, -16.0925, -101.723, 6.01521
0.04, -1, -18.2635, 27.6365, 43.2521, -16.0925, -101.723, 6.01521
0.044, -1, -18.2629, 27.6361, 43.2522, -16.0925, -101.723, 6.01519
0.048, -1, -18.2616, 27.6355, 43.2523, -16.0924, -101.723, 6.01513
0.052, -1, -18.2597, 27.6345, 43.2525, -16.0922, -101.723, 6.01498
0.056, -1, -18.2568, 27.6328, 43.2529, -16.0917, -101.722, 6.01465
0.06, -1, -18.2529, 27.6304, 43.2534, -16.0908, -101.722, 6.01405
0.064, -1, -18.248, 27.6272, 43.2541, -16.0893, -101.72, 6.013
0.068, -1, -18.2417, 27.6228, 43.255, -16.0867, -101.717, 6.01131
0.072, -1, -18.234, 27.6172, 43.2562, -16.0828, -101.713, 6.00873
0.076, -1, -18.2245, 27.61, 43.2576, -16.0772, -101.707, 6.00498
0.08, -1, -18.2128, 27.601, 43.2594, -16.0692, -101.699, 5.99971
0.084, -1, -18.1986, 27.5898, 43.2615, -16.0583, -101.687, 5.99254
0.088, -1, -18.1815, 27.5762, 43.2641, -16.0438, -101.672, 5.98304
0.092, -1, -18.1612, 27.5599, 43.2671, -16.025, -101.652, 5.97075
0.096, -1, -18.1376, 27.5409, 43.2706, -16.0013, -101.627, 5.95519
0.1, -1, -18.1102, 27.5187, 43.2745, -15.9717, -101.596, 5.93588
0.104, -1, -18.0789, 27.4932, 43.279, -15.9357, -101.558, 5.91234
0.108, -1, -18.0432, 27.4642, 43.2839, -15.8925, -101.512, 5.88413
0.112, -1, -18.0031, 27.4313, 43.2895, -15.8415, -101.458, 5.85084
0.116, -1, -17.9583, 27.3946, 43.2956, -15.7821, -101.396, 5.81212
0.12, -1, -17.909, 27.3541, 43.3022, -15.7139, -101.324, 5.76767
0.124, -1, -17.8551, 27.3097, 43.3093, -15.6366, -101.242, 5.71731
0.128, -1, -17.7966, 27.2615, 43.3169, -15.55, -101.151, 5.66093
0.131, -1, -17.7338, 27.2095, 43.3251, -15.4542, -101.05, 5.59855
0.136, -1, -17.6665, 27.1539, 43.3336, -15.3494, -100.939, 5.53033
0.139, -1, -17.5948, 27.0946, 43.3427, -15.236, -100.82, 5.4565
0.144, -1, -17.5187, 27.0316, 43.3523, -15.1145, -100.691, 5.37741
0.148, -1, -17.4382, 26.965, 43.3624, -14.9855, -100.555, 5.29348
0.152, -1, -17.3537, 26.8951, 43.373, -14.8498, -100.412, 5.20516
0.156, -1, -17.2655, 26.822, 43.384, -14.7081, -100.262, 5.11296
0.16, -1, -17.174, 26.7461, 43.3955, -14.5613, -100.107, 5.01739
0.164, -1, -17.0794, 26.6676, 43.4074, -14.41, -99.9478, 4.91897
0.168, -1, -16.982, 26.5866, 43.4198, -14.2552, -99.7844, 4.81819
0.172, -1, -16.8819, 26.5033, 43.4325, -14.0975, -99.6179, 4.71552
0.176, -1, -16.7792, 26.418, 43.4456, -13.9375, -99.449, 4.61136
0.18, -1, -16.6742, 26.3309, 43.4591, -13.7758, -99.2783, 4.50606
0.184, -1, -16.5672, 26.2422, 43.4728, -13.6127, -99.1062, 4.39988
0.188, -1, -16.4583, 26.1522, 43.4868, -13.4486, -98.9331, 4.29303
0.192, -1, -16.3481, 26.0613, 43.501, -13.2838, -98.759, 4.18566
0.196, -1, -16.2369, 25.9697, 43.5154, -13.1183, -98.5844, 4.07787
0.2, -1, -16.1249, 25.8775, 43.5298, -12.9522, -98.4091, 3.96971
0.204, -1, -16.0124, 25.7848, 43.5443, -12.7857, -98.2334, 3.86125
0.208, -1, -15.8994, 25.6919, 43.5589, -12.6188, -98.0572, 3.75252
0.212, -1, -15.7859, 25.5986, 43.5735, -12.4514, -97.8806, 3.64353
0.216, -1, -15.6722, 25.5051, 43.5882, -12.2838, -97.7036, 3.53431
0.22, -1, -15.5582, 25.4114, 43.6029, -12.1157, -97.5263, 3.42486
0.224, -1, -15.4439, 25.3174, 43.6177, -11.9474, -97.3486, 3.3152
0.228, -1, -15.3294, 25.2233, 43.6325, -11.7787, -97.1706, 3.20533
0.232, -1, -15.2146, 25.129, 43.6473, -11.6097, -96.9922, 3.09526
0.236, -1, -15.0996, 25.0345, 43.6621, -11.4404, -96.8135, 2.985
0.24, -1, -14.9845, 24.9398, 43.677, -11.2708, -96.6345, 2.87454
0.244, -1, -14.8691, 24.845, 43.6918, -11.101, -96.4553, 2.76389
0.248, -1, -14.7535, 24.75, 43.7068, -10.9308, -96.2757, 2.65305
0.252, -1, -14.6377, 24.6548, 43.7217, -10.7604, -96.0958, 2.54203
0.256, -1, -14.5218, 24.5595, 43.7367, -10.5896, -95.9156, 2.43083
0.26, -1, -14.4056, 24.4641, 43.7517, -10.4187, -95.7351, 2.31945
0.264, -1, -14.2893, 24.3685, 43.7667, -10.2474, -95.5544, 2.2079
0.268, -1, -14.1728, 24.2727, 43.7817, -10.0759, -95.3734, 2.09618
0.272, -1, -14.0561, 24.1768, 43.7968, -9.90411, -95.1921, 1.98429
0.276, -1, -13.9393, 24.0808, 43.8118, -9.73208, -95.0105, 1.87224
0.28, -1, -13.8223, 23.9846, 43.8269, -9.55981, -94.8287, 1.76002
0.284, -1, -13.7051, 23.8883, 43.8421, -9.38729, -94.6466, 1.64765
0.288, -1, -13.5877, 23.7919, 43.8572, -9.21453, -94.4643, 1.53512
0.292, -1, -13.4703, 23.6953, 43.8724, -9.04154, -94.2817, 1.42244
0.296, -1, -13.3526, 23.5986, 43.8875, -8.86833, -94.0989, 1.30962
0.3, -1, -13.2348, 23.5018, 43.9027, -8.69489, -93.9158, 1.19665
0.304, -1, -13.1169, 23.4048, 43.918, -8.52124, -93.7325, 1.08354
0.308, -1, -12.9988, 23.3078, 43.9332, -8.34738, -93.549, 0.970291
0.312, -1, -12.8806, 23.2106, 43.9484, -8.17332, -93.3653, 0.856913
0.316, -1, -12.7623, 23.1134, 43.9637, -7.99906, -93.1814, 0.743408
0.32, -1, -12.6438, 23.016, 43.979, -7.82462, -92.9973, 0.629778
0.324, -1, -12.5252, 22.9185, 43.9943, -7.64999, -92.813, 0.51603
0.328, -1, -12.4065, 22.821, 44.0096, -7.47518, -92.6285, 0.402168
0.332, -1, -12.2877, 22.7233, 44.0249, -7.30021, -92.4438, 0.288197
0.336, -1, -12.1687, 22.6256, 44.0403, -7.12507, -92.259, 0.17412
0.34, -1, -12.0497, 22.5277, 44.0556, -6.94979, -92.074, 0.0599435
0.344, -1, -11.9305, 22.4298, 44.071, -6.77435, -91.8888, -0.0543284
0.348, -1, -11.8113, 22.3318, 44.0864, -6.59878, -91.7035, -0.168691
0.352, -1, -11.6919, 22.2337, 44.1018, -6.42308, -91.5181, -0.283138
0.356, -1, -11.5725, 22.1356, 44.1172, -6.24725, -91.3325, -0.397666
0.36, -1, -11.453, 22.0374, 44.1326, -6.07131, -91.1468, -0.51227
0.364, -1, -11.3334, 21.9391, 44.148, -5.89525, -90.961, -0.626944
0.368, -1, -11.2137, 21.8408, 44.1635, -5.7191, -90.7751, -0.741683
0.372, -1, -11.094, 21.7425, 44.1789, -5.54286, -90.5891, -0.856483
0.376, -1, -10.9742, 21.6441, 44.1944, -5.36653, -90.403, -0.971338
0.38, -1, -10.8544, 21.5456, 44.2098, -5.19012, -90.2168, -1.08624
0.384, -1, -10.7345, 21.4471, 44.2253, -5.01365, -90.0305, -1.20119
0.388, -1, -10.6145, 21.3486, 44.2407, -4.83711, -89.8442, -1.31618
0.392, -1, -10.4946, 21.25, 44.2562, -4.66052, -89.6578, -1.43121
0.396, -1, -10.3746, 21.1514, 44.2717, -4.48389, -89.4714, -1.54626
0.4, -1, -10.2545, 21.0528, 44.2872, -4.30722, -89.2849, -1.66134
0.404, -1, -10.1345, 20.9542, 44.3026, -4.13052, -89.0984, -1.77643
0.408, -1, -10.0144, 20.8556, 44.3181, -3.9538, -88.9119, -1.89154
0.412, -1, -9.89437, 20.7569, 44.3336, -3.77707, -88.7254, -2.00666
0.416, -1, -9.77429, 20.6583, 44.3491, -3.60033, -88.5388, -2.12178
0.42, -1, -9.65422, 20.5597, 44.3646, -3.42359, -88.3523, -2.2369
0.424, -1, -9.53415, 20.461, 44.38, -3.24687, -88.1658, -2.35202
0.428, -1, -9.41409, 20.3624, 44.3955, -3.07016, -87.9793, -2.46712
0.432, -1, -9.29405, 20.2638, 44.411, -2.89348, -87.7928, -2.5822
0.436, -1, -9.17403, 20.1652, 44.4265, -2.71684, -87.6064, -2.69726
0.44, -1, -9.05404, 20.0667, 44.4419, -2.54024, -87.42, -2.81229
0.444, -1, -8.93409, 19.9681, 44.4574, -2.36369, -87.2337, -2.92729
0.448, -1, -8.81417, 19.8696, 44.4729, -2.1872, -87.0474, -3.04225
0.452, -1, -8.6943, 19.7712, 44.4883, -2.01078, -86.8612, -3.15716
0.456, -1, -8.57448, 19.6727, 44.5038, -1.83444, -86.6751, -3.27203
0.46, -1, -8.45471, 19.5744, 44.5192, -1.65818, -86.489, -3.38684
0.464, -1, -8.33501, 19.476, 44.5346, -1.48201, -86.3031, -3.50159
0.468, -1, -8.21537, 19.3778, 44.5501, -1.30593, -86.1173, -3.61628
0.472, -1, -8.0958, 19.2796, 44.5655, -1.12997, -85.9315, -3.73089
0.476, -1, -7.97631, 19.1814, 44.5809, -0.954123, -85.746, -3.84544
0.48, -1, -7.8569, 19.0834, 44.5963, -0.778397, -85.5605, -3.9599
0.484, -1, -7.73757, 18.9854, 44.6116, -0.602801, -85.3752, -4.07428
0.488, -1, -7.61834, 18.8874, 44.627, -0.427343, -85.19, -4.18856
0.492, -1, -7.49921, 18.7896, 44.6424, -0.25203, -85.0049, -4.30276
0.496, -1, -7.38018, 18.6918, 44.6577, -0.076871, -84.8201, -4.41685
0.5, -1, -7.26126, 18.5942, 44.673, 0.0981278, -84.6354, -4.53084
0.504, -1, -7.14245, 18.4966, 44.6883, 0.272959, -84.4509, -4.64472
0.508, -1, -7.02375, 18.3991, 44.7036, 0.447614, -84.2665, -4.75848
0.512, -1, -6.90518, 18.3017, 44.7189, 0.622086, -84.0824, -4.87213
0.516, -1, -6.78674, 18.2045, 44.7342, 0.796369, -83.8984, -4.98565
0.52, -1, -6.66843, 18.1073, 44.7494, 0.970454, -83.7147, -5.09905
0.524, -1, -6.55026, 18.0103, 44.7647, 1.14434, -83.5312, -5.21231
0.528, -1, -6.43223, 17.9133, 44.7799, 1.31801, -83.3479, -5.32543
0.532, -1, -6.31434, 17.8165, 44.7951, 1.49146, -83.1648, -5.43841
0.536, -1, -6.19661, 17.7198, 44.8102, 1.66468, -82.982, -5.55125
0.54, -1, -6.07903, 17.6233, 44.8254, 1.83768, -82.7994, -5.66393
0.544, -1, -5.96161, 17.5269, 44.8405, 2.01044, -82.6171, -5.77646
0.548, -1, -5.84436, 17.4306, 44.8556, 2.18295, -82.435, -5.88883
0.552, -1, -5.72727, 17.3344, 44.8707, 2.35521, -82.2532, -6.00103
0.556, -1, -5.61036, 17.2384, 44.8858, 2.52721, -82.0716, -6.11307
0.56, -1, -5.49363, 17.1426, 44.9008, 2.69895, -81.8904, -6.22494
0.564, -1, -5.37708, 17.0469, 44.9159, 2.87042, -81.7094, -6.33663
0.568, -1, -5.26071, 16.9513, 44.9309, 3.04162, -81.5287, -6.44814
0.572, -1, -5.14454, 16.8559, 44.9458, 3.21253, -81.3483, -6.55947
0.576, -1, -5.02856, 16.7607, 44.9608, 3.38316, -81.1682, -6.67061
0.58, -1, -4.91278, 16.6656, 44.9757, 3.55349, -80.9885, -6.78156
0.584, -1, -4.79719, 16.5707, 44.9906, 3.72352, -80.809, -6.89231
0.588, -1, -4.68182, 16.476, 45.0055, 3.89325, -80.6299, -7.00287
0.592, -1, -4.56665, 16.3814, 45.0203, 4.06267, -80.451, -7.11322
0.596, -1, -4.4517, 16.287, 45.0351, 4.23177, -80.2726, -7.22337
0.6, -1, -4.33696, 16.1928, 45.0499, 4.40055, -80.0944, -7.33331
0.604, -1, -4.22244, 16.0988, 45.0647, 4.56901, -79.9166, -7.44304
0.608, -1, -4.10814, 16.0049, 45.0794, 4.73713, -79.7392, -7.55255
0.612, -1, -3.99406, 15.9112, 45.0941, 4.90493, -79.5621, -7.66184
0.616, -1, -3.88021, 15.8178, 45.1087, 5.07238, -79.3854, -7.77092
0.62, -1, -3.7666, 15.7245, 45.1234, 5.23949, -79.209, -7.87977
0.624, -1, -3.65322, 15.6314, 45.138, 5.40625, -79.033, -7.98839
0.628, -1, -3.54007, 15.5385, 45.1526, 5.57266, -78.8573, -8.09679
0.632, -1, -3.42716, 15.4458, 45.1671, 5.73872, -78.6821, -8.20495
0.636, -1, -3.31449, 15.3533, 45.1816, 5.90442, -78.5072, -8.31288
0.64, -1, -3.20207, 15.261, 45.1961, 6.06975, -78.3327, -8.42058
0.644, -1, -3.08989, 15.1689, 45.2106, 6.23473, -78.1586, -8.52804
0.648, -1, -2.97796, 15.077, 45.225, 6.39933, -77.9848, -8.63526
0.652, -1, -2.86628, 14.9853, 45.2394, 6.56357, -77.8115, -8.74224
0.656, -1, -2.75485, 14.8938, 45.2538, 6.72744, -77.6386, -8.84898
0.66, -1, -2.64367, 14.8025, 45.2681, 6.89093, -77.466, -8.95547
0.664, -1, -2.53275, 14.7115, 45.2824, 7.05404, -77.2939, -9.06172
0.668, -1, -2.42209, 14.6206, 45.2966, 7.21677, -77.1221, -9.16772
0.672, -1, -2.31168, 14.5299, 45.3109, 7.37913, -76.9507, -9.27347
0.676, -1, -2.20153, 14.4395, 45.3251, 7.5411, -76.7798, -9.37897
0.68, -1, -2.09164, 14.3493, 45.3392, 7.70269, -76.6092, -9.48423
0.684, -1, -1.98201, 14.2593, 45.3533, 7.86389, -76.4391, -9.58923
0.688, -1, -1.87265, 14.1695, 45.3674, 8.0247, -76.2694, -9.69398
0.692, -1, -1.76355, 14.0799, 45.3815, 8.18512, -76.1001, -9.79848
0.696, -1, -1.65471, 13.9906, 45.3955, 8.34516, -75.9312, -9.90272
0.7, -1, -1.54614, 13.9014, 45.4095, 8.5048, -75.7627, -10.0067
0.704, -1, -1.43783, 13.8125, 45.4235, 8.66405, -75.5946, -10.1104
0.708, -1, -1.3298, 13.7238, 45.4374, 8.8229, -75.4269, -10.2139
0.712, -1, -1.22203, 13.6353, 45.4513, 8.98136, -75.2597, -10.3171
0.716, -1, -1.11453, 13.5471, 45.4651, 9.13942, -75.0929, -10.4201
0.72, -1, -1.0073, 13.4591, 45.4789, 9.29708, -74.9265, -10.5228
0.724, -1, -0.900341, 13.3712, 45.4927, 9.45434, -74.7605, -10.6252
0.728, -1, -0.793652, 13.2837, 45.5065, 9.61121, -74.5949, -10.7274
0.732, -1, -0.687235, 13.1963, 45.5202, 9.76767, -74.4298, -10.8293
0.736, -1, -0.58109, 13.1091, 45.5339, 9.92374, -74.2651, -10.931
0.74, -1, -0.475218, 13.0222, 45.5475, 10.0794, -74.1008, -11.0324
0.744, -1, -0.369619, 12.9355, 45.5611, 10.2347, -73.9369, -11.1335
0.748, -1, -0.264294, 12.8491, 45.5747, 10.3895, -73.7735, -11.2344
0.752, -1, -0.159242, 12.7628, 45.5882, 10.544, -73.6105, -11.335
0.756, -1, -0.0544645, 12.6768, 45.6017, 10.698, -73.4479, -11.4353
0.76, -1, 0.0500385, 12.591, 45.6152, 10.8517, -73.2857, -11.5354
0.764, -1, 0.154267, 12.5054, 45.6286, 11.0049, -73.124, -11.6352
0.768, -1, 0.25822, 12.4201, 45.642, 11.1577, -72.9627, -11.7347
0.772, -1, 0.361898, 12.335, 45.6554, 11.3102, -72.8018, -11.834
0.776, -1, 0.465301, 12.2501, 45.6687, 11.4622, -72.6414, -11.9331
0.78, -1, 0.568428, 12.1654, 45.682, 11.6138, -72.4813, -12.0318
0.784, -1, 0.67128, 12.081, 45.6952, 11.765, -72.3218, -12.1303
0.788, -1, 0.773856, 11.9968, 45.7085, 11.9158, -72.1626, -12.2285
0.792, -1, 0.876156, 11.9128, 45.7216, 12.0662, -72.0039, -12.3265
0.796, -1, 0.978181, 11.829, 45.7348, 12.2162, -71.8456, -12.4242
0.8, -1, 1.07993, 11.7455, 45.7479, 12.3658, -71.6877, -12.5216
0.804, -1, 1.1814, 11.6622, 45.761, 12.5149, -71.5302, -12.6188
0.808, -1, 1.2826, 11.5791, 45.774, 12.6637, -71.3732, -12.7157
0.812, -1, 1.38352, 11.4963, 45.787, 12.8121, -71.2166, -12.8124
0.816, -1, 1.48417, 11.4136, 45.8, 12.96, -71.0605, -12.9087
0.82, -1, 1.58454, 11.3312, 45.8129, 13.1076, -70.9047, -13.0048
0.824, -1, 1.68464, 11.2491, 45.8258, 13.2548, -70.7494, -13.1007
0.828, -1, 1.78446, 11.1671, 45.8387, 13.4015, -70.5945, -13.1963
0.832, -1, 1.88401, 11.0854, 45.8515, 13.5478, -70.4401, -13.2916
0.836, -1, 1.98329, 11.0039, 45.8643, 13.6938, -70.2861, -13.3867
0.84, -1, 2.0823, 10.9226, 45.8771, 13.8393, -70.1325, -13.4815
0.844, -1, 2.18103, 10.8416, 45.8898, 13.9844, -69.9793, -13.576
0.848, -1, 2.27949, 10.7607, 45.9025, 14.1292, -69.8265, -13.6703
0.852, -1, 2.37768, 10.6801, 45.9151, 14.2735, -69.6742, -13.7643
0.856, -1, 2.4756, 10.5997, 45.9278, 14.4174, -69.5223, -13.858
0.86, -1, 2.57325, 10.5196, 45.9403, 14.561, -69.3708, -13.9515
0.864, -1, 2.67063, 10.4396, 45.9529, 14.7041, -69.2197, -14.0448
0.868, -1, 2.76775, 10.3599, 45.9654, 14.8469, -69.0691, -14.1378
0.872, -1, 2.8646, 10.2804, 45.9779, 14.9892, -68.9188, -14.2305
0.876, -1, 2.96118, 10.2011, 45.9903, 15.1312, -68.769, -14.323
0.88, -1, 3.0575, 10.1221, 46.0027, 15.2727, -68.6196, -14.4152
0.884, -1, 3.15355, 10.0432, 46.0151, 15.4139, -68.4706, -14.5071
0.888, -1, 3.24934, 9.96457, 46.0275, 15.5547, -68.322, -14.5988
0.892, -1, 3.34487, 9.88615, 46.0398, 15.6951, -68.1738, -14.6903
0.896, -1, 3.44014, 9.80795, 46.052, 15.8352, -68.026, -14.7815
0.9, -1, 3.53514, 9.72995, 46.0643, 15.9748, -67.8786, -14.8725
0.904, -1, 3.62989, 9.65217, 46.0765, 16.1141, -67.7316, -14.9632
0.908, -1, 3.72438, 9.5746, 46.0887, 16.253, -67.585, -15.0537
0.912, -1, 3.81862, 9.49724, 46.1008, 16.3915, -67.4389, -15.1439
0.916, -1, 3.9126, 9.42009, 46.1129, 16.5296, -67.2931, -15.2338
0.92, -1, 4.00632, 9.34315, 46.125, 16.6674, -67.1477, -15.3236
0.924, -1, 4.0998, 9.26642, 46.1371, 16.8047, -67.0027, -15.4131
0.928, -1, 4.19302, 9.18989, 46.1491, 16.9418, -66.858, -15.5023
0.932, -1, 4.28599, 9.11357, 46.161, 17.0784, -66.7138, -15.5913
0.936, -1, 4.37871, 9.03745, 46.173, 17.2147, -66.57, -15.6801
0.94, -1, 4.47118, 8.96154, 46.1849, 17.3506, -66.4265, -15.7686
0.944, -1, 4.56341, 8.88583, 46.1968, 17.4862, -66.2835, -15.8569
0.948, -1, 4.65539, 8.81032, 46.2087, 17.6214, -66.1408, -15.945
0.952, -1, 4.74712, 8.73502, 46.2205, 17.7562, -65.9985, -16.0328
0.956, -1, 4.83861, 8.65991, 46.2323, 17.8907, -65.8565, -16.1204
0.96, -1, 4.92986, 8.585, 46.244, 18.0248, -65.715, -16.2078
0.964, -1, 5.02087, 8.5103, 46.2558, 18.1585, -65.5738, -16.2949
0.968, -1, 5.11163, 8.43578, 46.2674, 18.292, -65.433, -16.3818
0.972, -1, 5.20216, 8.36147, 46.2791, 18.425, -65.2926, -16.4685
0.976, -1, 5.29245, 8.28735, 46.2907, 18.5577, -65.1525, -16.5549
0.98, -1, 5.38249, 8.21343, 46.3024, 18.6901, -65.0128, -16.6411
0.984, -1, 5.47231, 8.1397, 46.3139, 18.8221, -64.8735, -16.7271
0.988, -1, 5.56189, 8.06616, 46.3255, 18.9538, -64.7345, -16.8129
0.992, -1, 5.65123, 7.99281, 46.337, 19.0851, -64.5959, -16.8984
0.996, -1, 5.74034, 7.91966, 46.3485, 19.2161, -64.4577, -16.9837
1, -1, 5.82922, 7.84669, 46.3599, 19.3467, -64.3198, -17.0688
1.004, -1, 5.91787, 7.77392, 46.3714, 19.477, -64.1823, -17.1537
1.008, -1, 6.00629, 7.70133, 46.3827, 19.607, -64.0451, -17.2384
1.012, -1, 6.09448, 7.62894, 46.3941, 19.7366, -63.9083, -17.3228
1.016, -1, 6.18245, 7.55672, 46.4054, 19.8659, -63.7719, -17.407
1.02, -1, 6.27018, 7.4847, 46.4168, 19.9948, -63.6358, -17.491
1.024, -1, 6.35769, 7.41286, 46.428, 20.1234, -63.5, -17.5748
1.027, -1, 6.44498, 7.3412, 46.4393, 20.2517, -63.3646, -17.6584
1.032, -1, 6.53204, 7.26973, 46.4505, 20.3797, -63.2295, -17.7417
1.036, -1, 6.61888, 7.19844, 46.4617, 20.5074, -63.0948, -17.8249
1.04, -1, 6.7055, 7.12733, 46.4729, 20.6347, -62.9605, -17.9078
1.044, -1, 6.79189, 7.05641, 46.484, 20.7617, -62.8264, -17.9905
1.048, -1, 6.87807, 6.98566, 46.4951, 20.8883, -62.6927, -18.073
1.052, -1, 6.96403, 6.91509, 46.5062, 21.0147, -62.5594, -18.1553
1.055, -1, 7.04978, 6.8447, 46.5172, 21.1407, -62.4264, -18.2374
1.06, -1, 7.1353, 6.77449, 46.5283, 21.2664, -62.2937, -18.3193
1.064, -1, 7.22061, 6.70445, 46.5392, 21.3918, -62.1614, -18.401
1.068, -1, 7.30571, 6.6346, 46.5502, 21.5169, -62.0293, -18.4824
1.072, -1, 7.39059, 6.56491, 46.5611, 21.6416, -61.8977, -18.5637
1.076, -1, 7.47526, 6.4954, 46.5721, 21.7661, -61.7663, -18.6448
1.08, -1, 7.55972, 6.42607, 46.583, 21.8902, -61.6353, -18.7256
1.084, -1, 7.64397, 6.3569, 46.5938, 22.0141, -61.5046, -18.8063
1.088, -1, 7.72801, 6.28791, 46.6046, 22.1376, -61.3742, -18.8868
1.091, -1, 7.81184, 6.21909, 46.6154, 22.2608, -61.2442, -18.967
1.096, -1, 7.89547, 6.15044, 46.6262, 22.3837, -61.1144, -19.0471
1.1, -1, 7.97889, 6.08195, 46.637, 22.5063, -60.985, -19.1269
1.104, -1, 8.0621, 6.01364, 46.6477, 22.6287, -60.8559, -19.2066
1.108, -1, 8.14511, 5.94549, 46.6584, 22.7507, -60.7272, -19.2861
1.112, -1, 8.22792, 5.87751, 46.6691, 22.8724, -60.5987, -19.3654
1.116, -1, 8.31053, 5.8097, 46.6797, 22.9938, -60.4706, -19.4445
1.119, -1, 8.39293, 5.74205, 46.6903, 23.1149, -60.3427, -19.5234
1.124, -1, 8.47514, 5.67456, 46.7009, 23.2357, -60.2152, -19.6021
1.128, -1, 8.55715, 5.60723, 46.7115, 23.3563, -60.088, -19.6806
1.132, -1, 8.63896, 5.54007, 46.722, 23.4765, -59.9611, -19.7589
1.136, -1, 8.72058, 5.47307, 46.7326, 23.5965, -59.8345, -19.837
1.14, -1, 8.802, 5.40623, 46.7431, 23.7161, -59.7082, -19.915
1.144, -1, 8.88322, 5.33954, 46.7535, 23.8355, -59.5822, -19.9927
1.147, -1, 8.96426, 5.27302, 46.764, 23.9546, -59.4565, -20.0703
1.152, -1, 9.0451, 5.20665, 46.7744, 24.0735, -59.3311, -20.1477
1.156, -1, 9.12575, 5.14044, 46.7848, 24.192, -59.206, -20.2249
1.16, -1, 9.20622, 5.07438, 46.7952, 24.3103, -59.0811, -20.302
1.164, -1, 9.28649, 5.00848, 46.8055, 24.4283, -58.9566, -20.3788
1.168, -1, 9.36658, 4.94273, 46.8158, 24.546, -58.8324, -20.4555
1.172, -1, 9.44648, 4.87714, 46.8261, 24.6634, -58.7084, -20.532
1.175, -1, 9.5262, 4.81169, 46.8364, 24.7806, -58.5847, -20.6083
1.18, -1, 9.60574, 4.7464, 46.8466, 24.8975, -58.4614, -20.6845
1.184, -1, 9.68509, 4.68126, 46.8569, 25.0141, -58.3383, -20.7604
1.188, -1, 9.76426, 4.61626, 46.8671, 25.1305, -58.2155, -20.8362
1.192, -1, 9.84325, 4.55141, 46.8773, 25.2466, -58.0929, -20.9119
1.196, -1, 9.92206, 4.48671, 46.8874, 25.3624, -57.9707, -20.9873
1.2, -1, 10.0007, 4.42216, 46.8976, 25.478, -57.8487, -21.0626
1.204, -1, 10.0791, 4.35775, 46.9077, 25.5933, -57.727, -21.1377
1.208, -1, 10.1574, 4.29349, 46.9178, 25.7084, -57.6055, -21.2127
1.212, -1, 10.2355, 4.22937, 46.9278, 25.8232, -57.4844, -21.2874
1.216, -1, 10.3134, 4.16539, 46.9379, 25.9377, -57.3635, -21.3621
1.22, -1, 10.3912, 4.10156, 46.9479, 26.052, -57.2429, -21.4365
1.224, -1, 10.4688, 4.03787, 46.9579, 26.166, -57.1225, -21.5108
1.228, -1, 10.5462, 3.97432, 46.9679, 26.2798, -57.0024, -21.5849
1.232, -1, 10.6234, 3.9109, 46.9778, 26.3933, -56.8826, -21.6588
1.236, -1, 10.7005, 3.84763, 46.9878, 26.5066, -56.763, -21.7326
1.24, -1, 10.7774, 3.7845, 46.9977, 26.6197, -56.6437, -21.8063
1.244, -1, 10.8541, 3.7215, 47.0076, 26.7325, -56.5247, -21.8797
1.248, -1, 10.9307, 3.65864, 47.0174, 26.845, -56.4059, -21.953
1.252, -1, 11.0071, 3.59591, 47.0273, 26.9573, -56.2874, -22.0262
1.256, -1, 11.0834, 3.53333, 47.0371, 27.0694, -56.1691, -22.0992
1.26, -1, 11.1594, 3.47087, 47.0469, 27.1812, -56.0511, -22.172
1.264, -1, 11.2353, 3.40855, 47.0567, 27.2928, -55.9333, -22.2447
1.267, -1, 11.3111, 3.34636, 47.0665, 27.4041, -55.8158, -22.3172
1.272, -1, 11.3867, 3.28431, 47.0762, 27.5152, -55.6985, -22.3896
1.276, -1, 11.4621, 3.22238, 47.0859, 27.6261, -55.5815, -22.4618
1.28, -1, 11.5374, 3.16059, 47.0956, 27.7367, -55.4648, -22.5339
1.284, -1, 11.6125, 3.09893, 47.1053, 27.8471, -55.3482, -22.6058
1.288, -1, 11.6874, 3.0374, 47.115, 27.9573, -55.232, -22.6775
1.292, -1, 11.7622, 2.97599, 47.1246, 28.0672, -55.1159, -22.7492
1.295, -1, 11.8369, 2.91471, 47.1342, 28.1769, -55.0001, -22.8206
1.3, -1, 11.9113, 2.85357, 47.1438, 28.2864, -54.8846, -22.8919
1.304, -1, 11.9857, 2.79254, 47.1534, 28.3957, -54.7693, -22.9631
1.308, -1, 12.0598, 2.73165, 47.163, 28.5047, -54.6542, -23.0341
1.312, -1, 12.1339, 2.67088, 47.1725, 28.6135, -54.5394, -23.105
1.316, -1, 12.2077, 2.61023, 47.182, 28.7221, -54.4248, -23.1757
1.32, -1, 12.2814, 2.54971, 47.1915, 28.8304, -54.3104, -23.2463
1.324, -1, 12.355, 2.48931, 47.201, 28.9386, -54.1963, -23.3167
1.328, -1, 12.4284, 2.42904, 47.2105, 29.0465, -54.0824, -23.387
1.332, -1, 12.5017, 2.36888, 47.2199, 29.1542, -53.9687, -23.4572
1.336, -1, 12.5748, 2.30885, 47.2293, 29.2617, -53.8553, -23.5272
1.34, -1, 12.6478, 2.24894, 47.2387, 29.3689, -53.7421, -23.5971
1.344, -1, 12.7206, 2.18915, 47.2481, 29.476, -53.6291, -23.6668
1.348, -1, 12.7933, 2.12948, 47.2575, 29.5828, -53.5163, -23.7364
1.352, -1, 12.8659, 2.06993, 47.2669, 29.6895, -53.4038, -23.8058
1.356, -1, 12.9383, 2.0105, 47.2762, 29.7959, -53.2915, -23.8752
1.36, -1, 13.0105, 1.95118, 47.2855, 29.9021, -53.1794, -23.9443
1.364, -1, 13.0826, 1.89199, 47.2948, 30.0081, -53.0675, -24.0134
1.368, -1, 13.1546, 1.83291, 47.3041, 30.1138, -52.9559, -24.0823
1.372, -1, 13.2264, 1.77394, 47.3133, 30.2194, -52.8445, -24.151
1.376, -1, 13.2981, 1.71509, 47.3226, 30.3248, -52.7333, -24.2197
1.38, -1, 13.3696, 1.65636, 47.3318, 30.4299, -52.6223, -24.2882
1.384, -1, 13.441, 1.59774, 47.341, 30.5349, -52.5115, -24.3565
1.388, -1, 13.5123, 1.53923, 47.3502, 30.6396, -52.4009, -24.4248
1.392, -1, 13.5834, 1.48084, 47.3593, 30.7442, -52.2906, -24.4929
1.396, -1, 13.6544, 1.42256, 47.3685, 30.8485, -52.1805, -24.5608
1.4, -1, 13.7253, 1.36439, 47.3776, 30.9527, -52.0705, -24.6287
1.404, -1, 13.796, 1.30634, 47.3867, 31.0566, -51.9608, -24.6964
1.408, -1, 13.8666, 1.24839, 47.3958, 31.1604, -51.8513, -24.764
1.412, -1, 13.937, 1.19055, 47.4049, 31.2639, -51.742, -24.8314
1.416, -1, 14.0074, 1.13283, 47.414, 31.3673, -51.633, -24.8987
1.42, -1, 14.0775, 1.07521, 47.423, 31.4704, -51.5241, -24.9659
1.424, -1, 14.1476, 1.0177, 47.4321, 31.5734, -51.4154, -25.033
1.428, -1, 14.2175, 0.960302, 47.4411, 31.6762, -51.307, -25.0999
1.432, -1, 14.2873, 0.903009, 47.4501, 31.7788, -51.1987, -25.1668
1.436, -1, 14.357, 0.845822, 47.459, 31.8811, -51.0906, -25.2334
1.44, -1, 14.4265, 0.788742, 47.468, 31.9833, -50.9828, -25.3
1.444, -1, 14.4959, 0.731767, 47.4769, 32.0854, -50.8751, -25.3665
1.448, -1, 14.5652, 0.674897, 47.4859, 32.1872, -50.7676, -25.4328
1.452, -1, 14.6343, 0.618132, 47.4948, 32.2888, -50.6604, -25.499
1.456, -1, 14.7033, 0.56147, 47.5037, 32.3903, -50.5533, -25.5651
1.46, -1, 14.7722, 0.504912, 47.5126, 32.4915, -50.4464, -25.631
1.464, -1, 14.841, 0.448456, 47.5214, 32.5926, -50.3397, -25.6969
1.468, -1, 14.9096, 0.392102, 47.5303, 32.6935, -50.2333, -25.7626
1.472, -1, 14.9782, 0.33585, 47.5391, 32.7942, -50.127, -25.8282
1.476, -1, 15.0466, 0.279699, 47.5479, 32.8947, -50.0208, -25.8937
1.48, -1, 15.1148, 0.223648, 47.5567, 32.9951, -49.9149, -25.959
1.484, -1, 15.183, 0.167697, 47.5655, 33.0953, -49.8092, -26.0243
1.488, -1, 15.251, 0.111846, 47.5743, 33.1953, -49.7037, -26.0894
1.492, -1, 15.3189, 0.056093, 47.583, 33.2951, -49.5983, -26.1545
1.496, -1, 15.3867, 0.00043844, 47.5918, 33.3947, -49.4931, -26.2194
1.5, -1, 15.4544, -0.0551184, 47.6005, 33.4942, -49.3881, -26.2842
1.504, -1, 15.522, -0.110578, 47.6092, 33.5935, -49.2833, -26.3488
1.508, -1, 15.5894, -0.165941, 47.6179, 33.6926, -49.1787, -26.4134
1.512, -1, 15.6567, -0.221208, 47.6266, 33.7916, -49.0743, -26.4779
1.516, -1, 15.7239, -0.276379, 47.6352, 33.8904, -48.97, -26.5422
1.52, -1, 15.791, -0.331455, 47.6439, 33.989, -48.866, -26.6064
1.524, -1, 15.858, -0.386436, 47.6525, 34.0874, -48.7621, -26.6706
1.528, -1, 15.9248, -0.441323, 47.6611, 34.1857, -48.6583, -26.7346
1.532, -1, 15.9916, -0.496117, 47.6697, 34.2838, -48.5548, -26.7985
1.536, -1, 16.0582, -0.550817, 47.6783, 34.3817, -48.4514, -26.8623
1.54, -1, 16.1247, -0.605425, 47.6869, 34.4795, -48.3482, -26.926
1.544, -1, 16.1911, -0.65994, 47.6955, 34.5771, -48.2452, -26.9895
1.548, -1, 16.2574, -0.714364, 47.704, 34.6746, -48.1424, -27.053
1.552, -1, 16.3236, -0.768696, 47.7125, 34.7718, -48.0397, -27.1164
1.556, -1, 16.3897, -0.822938, 47.7211, 34.869, -47.9372, -27.1796
1.56, -1, 16.4556, -0.87709, 47.7295, 34.9659, -47.8349, -27.2428
1.564, -1, 16.5215, -0.931151, 47.738, 35.0627, -47.7327, -27.3058
1.568, -1, 16.5872, -0.985123, 47.7465, 35.1593, -47.6307, -27.3688
1.572, -1, 16.6529, -1.03901, 47.755, 35.2558, -47.5289, -27.4316
1.576, -1, 16.7184, -1.0928, 47.7634, 35.3521, -47.4272, -27.4944
1.58, -1, 16.7838, -1.14651, 47.7719, 35.4483, -47.3258, -27.557
1.584, -1, 16.8491, -1.20013, 47.7803, 35.5443, -47.2244, -27.6195
1.588, -1, 16.9143, -1.25366, 47.7887, 35.6401, -47.1233, -27.682
1.592, -1, 16.9794, -1.3071, 47.7971, 35.7358, -47.0223, -27.7443
1.596, -1, 17.0444, -1.36046, 47.8054, 35.8314, -46.9214, -27.8065
1.6, -1, 17.1093, -1.41374, 47.8138, 35.9268, -46.8208, -27.8687
1.604, -1, 17.1741, -1.46692, 47.8222, 36.022, -46.7203, -27.9307
1.608, -1, 17.2388, -1.52003, 47.8305, 36.1171, -46.6199, -27.9926
1.612, -1, 17.3034, -1.57304, 47.8388, 36.212, -46.5197, -28.0544
1.616, -1, 17.3678, -1.62598, 47.8471, 36.3068, -46.4197, -28.1162
1.62, -1, 17.4322, -1.67883, 47.8554, 36.4014, -46.3198, -28.1778
1.624, -1, 17.4965, -1.73159, 47.8637, 36.4959, -46.2201, -28.2394
1.628, -1, 17.5607, -1.78428, 47.872, 36.5902, -46.1206, -28.3008
1.632, -1, 17.6247, -1.83688, 47.8802, 36.6844, -46.0212, -28.3621
1.636, -1, 17.6887, -1.8894, 47.8885, 36.7784, -45.9219, -28.4234
1.64, -1, 17.7526, -1.94183, 47.8967, 36.8723, -45.8228, -28.4846
1.644, -1, 17.8163, -1.99419, 47.9049, 36.966, -45.7239, -28.5456
1.648, -1, 17.88, -2.04646, 47.9132, 37.0596, -45.6251, -28.6066
1.652, -1, 17.9436, -2.09866, 47.9213, 37.1531, -45.5265, -28.6674
1.656, -1, 18.0071, -2.15077, 47.9295, 37.2464, -45.428, -28.7282
1.66, -1, 18.0704, -2.2028, 47.9377, 37.3396, -45.3297, -28.7889
1.664, -1, 18.1337, -2.25476, 47.9459, 37.4326, -45.2315, -28.8495
1.668, -1, 18.1969, -2.30663, 47.954, 37.5255, -45.1335, -28.91
1.672, -1, 18.26, -2.35843, 47.9621, 37.6182, -45.0356, -28.9704
1.676, -1, 18.323, -2.41015, 47.9703, 37.7108, -44.9378, -29.0307
1.68, -1, 18.3859, -2.46179, 47.9784, 37.8033, -44.8403, -29.091
1.684, -1, 18.4487, -2.51335, 47.9865, 37.8956, -44.7428, -29.1511
1.688, -1, 18.5114, -2.56483, 47.9945, 37.9878, -44.6455, -29.2111
1.692, -1, 18.574, -2.61624, 48.0026, 38.0798, -44.5484, -29.2711
1.696, -1, 18.6366, -2.66757, 48.0107, 38.1717, -44.4514, -29.331
1.7, -1, 18.699, -2.71883, 48.0187, 38.2635, -44.3545, -29.3907
1.704, -1, 18.7613, -2.77001, 48.0268, 38.3551, -44.2578, -29.4504
1.708, -1, 18.8236, -2.82111, 48.0348, 38.4466, -44.1612, -29.51
1.712, -1, 18.8857, -2.87214, 48.0428, 38.538, -44.0648, -29.5695
1.716, -1, 18.9478, -2.92309, 48.0508, 38.6292, -43.9685, -29.629
1.72, -1, 19.0098, -2.97397, 48.0588, 38.7203, -43.8724, -29.6883
1.724, -1, 19.0716, -3.02477, 48.0668, 38.8113, -43.7764, -29.7476
1.728, -1, 19.1334, -3.07551, 48.0747, 38.9021, -43.6805, -29.8067
1.732, -1, 19.1951, -3.12616, 48.0827, 38.9928, -43.5848, -29.8658
1.736, -1, 19.2567, -3.17675, 48.0906, 39.0834, -43.4892, -29.9248
1.74, -1, 19.3183, -3.22726, 48.0985, 39.1738, -43.3937, -29.9837
1.744, -1, 19.3797, -3.2777, 48.1065, 39.2642, -43.2984, -30.0425
1.748, -1, 19.441, -3.32806, 48.1144, 39.3543, -43.2032, -30.1013
1.752, -1, 19.5023, -3.37836, 48.1223, 39.4444, -43.1082, -30.1599
1.756, -1, 19.5635, -3.42858, 48.1302, 39.5343, -43.0133, -30.2185
1.76, -1, 19.6246, -3.47873, 48.138, 39.6241, -42.9185, -30.277
1.764, -1, 19.6856, -3.52881, 48.1459, 39.7138, -42.8239, -30.3354
1.768, -1, 19.7465, -3.57882, 48.1538, 39.8033, -42.7294, -30.3937
1.772, -1, 19.8073, -3.62876, 48.1616, 39.8927, -42.635, -30.452
1.776, -1, 19.868, -3.67863, 48.1694, 39.982, -42.5407, -30.5101
1.78, -1, 19.9287, -3.72844, 48.1772, 40.0712, -42.4466, -30.5682
1.784, -1, 19.9893, -3.77817, 48.185, 40.1602, -42.3526, -30.6262
1.788, -1, 20.0498, -3.82783, 48.1928, 40.2492, -42.2588, -30.6841
1.792, -1, 20.1102, -3.87743, 48.2006, 40.338, -42.1651, -30.742
1.796, -1, 20.1705, -3.92695, 48.2084, 40.4266, -42.0715, -30.7997
1.8, -1, 20.2307, -3.97641, 48.2162, 40.5152, -41.978, -30.8574
1.804, -1, 20.2909, -4.0258, 48.2239, 40.6036, -41.8847, -30.915
1.808, -1, 20.351, -4.07513, 48.2317, 40.6919, -41.7915, -30.9726
1.812, -1, 20.411, -4.12438, 48.2394, 40.7801, -41.6984, -31.03
1.816, -1, 20.4709, -4.17357, 48.2471, 40.8682, -41.6054, -31.0874
1.82, -1, 20.5307, -4.2227, 48.2548, 40.9562, -41.5126, -31.1447
1.824, -1, 20.5905, -4.27176, 48.2625, 41.044, -41.4199, -31.2019
1.828, -1, 20.6501, -4.32075, 48.2702, 41.1317, -41.3273, -31.259
1.832, -1, 20.7097, -4.36968, 48.2779, 41.2193, -41.2348, -31.3161
1.836, -1, 20.7692, -4.41854, 48.2856, 41.3068, -41.1425, -31.3731
1.84, -1, 20.8287, -4.46734, 48.2933, 41.3942, -41.0503, -31.43
1.844, -1, 20.888, -4.51607, 48.3009, 41.4815, -40.9582, -31.4868
1.848, -1, 20.9473, -4.56474, 48.3085, 41.5686, -40.8662, -31.5436
1.852, -1, 21.0065, -4.61335, 48.3162, 41.6556, -40.7744, -31.6003
1.856, -1, 21.0656, -4.66189, 48.3238, 41.7425, -40.6826, -31.6569
1.86, -1, 21.1247, -4.71037, 48.3314, 41.8293, -40.591, -31.7134
1.864, -1, 21.1837, -4.75878, 48.339, 41.916, -40.4995, -31.7699
1.868, -1, 21.2425, -4.80714, 48.3466, 42.0026, -40.4082, -31.8263
1.872, -1, 21.3014, -4.85543, 48.3542, 42.0891, -40.3169, -31.8826
1.876, -1, 21.3601, -4.90366, 48.3618, 42.1754, -40.2258, -31.9389
1.88, -1, 21.4188, -4.95183, 48.3693, 42.2617, -40.1347, -31.995
1.884, -1, 21.4774, -4.99993, 48.3769, 42.3478, -40.0438, -32.0511
1.888, -1, 21.5359, -5.04798, 48.3844, 42.4338, -39.953, -32.1072
1.892, -1, 21.5943, -5.09596, 48.392, 42.5197, -39.8624, -32.1631
1.896, -1, 21.6527, -5.14388, 48.3995, 42.6055, -39.7718, -32.219
1.9, -1, 21.711, -5.19174, 48.407, 42.6912, -39.6814, -32.2749
1.904, -1, 21.7692, -5.23955, 48.4145, 42.7768, -39.591, -32.3306
1.908, -1, 21.8274, -5.28729, 48.422, 42.8623, -39.5008, -32.3863
1.912, -1, 21.8854, -5.33497, 48.4295, 42.9477, -39.4107, -32.4419
1.916, -1, 21.9434, -5.38259, 48.437, 43.033, -39.3207, -32.4974
1.92, -1, 22.0014, -5.43016, 48.4444, 43.1181, -39.2308, -32.5529
1.924, -1, 22.0592, -5.47766, 48.4519, 43.2032, -39.141, -32.6083
1.928, -1, 22.117, -5.52511, 48.4593, 43.2881, -39.0514, -32.6637
1.932, -1, 22.1747, -5.5725, 48.4668, 43.373, -38.9618, -32.7189
1.936, -1, 22.2324, -5.61983, 48.4742, 43.4577, -38.8724, -32.7741
1.94, -1, 22.2899, -5.6671, 48.4816, 43.5424, -38.783, -32.8293
1.944, -1, 22.3475, -5.71431, 48.489, 43.6269, -38.6938, -32.8843
1.948, -1, 22.4049, -5.76147, 48.4965, 43.7113, -38.6047, -32.9393
1.952, -1, 22.4623, -5.80857, 48.5038, 43.7957, -38.5157, -32.9943
1.956, -1, 22.5196, -5.85562, 48.5112, 43.8799, -38.4268, -33.0491
1.96, -1, 22.5768, -5.9026, 48.5186, 43.9641, -38.338, -33.1039
1.964, -1, 22.6339, -5.94953, 48.526, 44.0481, -38.2493, -33.1587
1.968, -1, 22.691, -5.99641, 48.5333, 44.132, -38.1607, -33.2133
1.972, -1, 22.7481, -6.04323, 48.5407, 44.2158, -38.0723, -33.2679
1.976, -1, 22.805, -6.08999, 48.548, 44.2996, -37.9839, -33.3225
1.98, -1, 22.8619, -6.1367, 48.5554, 44.3832, -37.8956, -33.3769
1.984, -1, 22.9187, -6.18335, 48.5627, 44.4667, -37.8075, -33.4314
1.988, -1, 22.9755, -6.22995, 48.57, 44.5502, -37.7194, -33.4857
1.992, -1, 23.0322, -6.27649, 48.5773, 44.6335, -37.6315, -33.54
1.996, -1, 23.0888, -6.32298, 48.5846, 44.7167, -37.5436, -33.5942
1.999, -1, 23.1453, -6.36941, 48.5919, 44.7999, -37.4558, -33.6484
2.004, -1, 23.2018, -6.41579, 48.5992, 44.8829, -37.3682, -33.7024
2.008, -1, 23.2582, -6.46212, 48.6065, 44.9659, -37.2807, -33.7565
2.012, -1, 23.3146, -6.50839, 48.6137, 45.0487, -37.1932, -33.8104
2.015, -1, 23.3709, -6.55461, 48.621, 45.1315, -37.1059, -33.8643
2.019, -1, 23.4271, -6.60077, 48.6282, 45.2141, -37.0186, -33.9182
2.024, -1, 23.4833, -6.64688, 48.6355, 45.2967, -36.9315, -33.972
2.028, -1, 23.5394, -6.69295, 48.6427, 45.3792, -36.8444, -34.0257
2.031, -1, 23.5954, -6.73895, 48.6499, 45.4616, -36.7575, -34.0794
2.036, -1, 23.6514, -6.78491, 48.6571, 45.5438, -36.6707, -34.1329
2.04, -1, 23.7073, -6.83081, 48.6644, 45.626, -36.5839, -34.1865
2.044, -1, 23.7631, -6.87666, 48.6716, 45.7081, -36.4973, -34.24
2.048, -1, 23.8189, -6.92246, 48.6787, 45.7901, -36.4107, -34.2934
2.051, -1, 23.8746, -6.96821, 48.6859, 45.872, -36.3243, -34.3467
2.055, -1, 23.9303, -7.0139, 48.6931, 45.9539, -36.2379, -34.4
2.06, -1, 23.9859, -7.05955, 48.7003, 46.0356, -36.1516, -34.4533
2.064, -1, 24.0414, -7.10514, 48.7074, 46.1172, -36.0655, -34.5064
2.068, -1, 24.0969, -7.15069, 48.7146, 46.1988, -35.9794, -34.5596
2.071, -1, 24.1523, -7.19618, 48.7217, 46.2802, -35.8934, -34.6126
2.076, -1, 24.2076, -7.24163, 48.7289, 46.3616, -35.8076, -34.6656
2.08, -1, 24.2629, -7.28702, 48.736, 46.4429, -35.7218, -34.7186
2.084, -1, 24.3181, -7.33237, 48.7431, 46.5241, -35.6361, -34.7714
2.087, -1, 24.3733, -7.37766, 48.7502, 46.6052, -35.5505, -34.8243
2.092, -1, 24.4284, -7.4229, 48.7573, 46.6862, -35.465, -34.877
2.096, -1, 24.4834, -7.46805, 48.7644, 46.7671, -35.3796, -34.9298
2.1, -1, 24.5381, -7.51304, 48.7715, 46.8479, -35.2943, -34.9824
2.104, -1, 24.5925, -7.55778, 48.7785, 46.9286, -35.2091, -35.035
2.107, -1, 24.6463, -7.60215, 48.7855, 47.0092, -35.1241, -35.0874
2.111, -1, 24.6995, -7.646, 48.7924, 47.0894, -35.0394, -35.1397
2.116, -1, 24.7518, -7.6892, 48.7992, 47.1693, -34.9551, -35.1918
2.12, -1, 24.8033, -7.73159, 48.8058, 47.2487, -34.8714, -35.2435
2.124, -1, 24.8536, -7.77304, 48.8124, 47.3271, -34.7887, -35.2946
2.127, -1, 24.9027, -7.81341, 48.8187, 47.4045, -34.7071, -35.345
2.132, -1, 24.9505, -7.85258, 48.8249, 47.4803, -34.6271, -35.3944
2.136, -1, 24.9968, -7.89035, 48.8309, 47.5542, -34.5492, -35.4426
2.14, -1, 25.0412, -7.92654, 48.8366, 47.6257, -34.4738, -35.4892
2.143, -1, 25.0837, -7.96099, 48.8421, 47.6943, -34.4014, -35.5339
2.148, -1, 25.124, -7.99357, 48.8472, 47.7596, -34.3326, -35.5764
2.152, -1, 25.162, -8.02426, 48.8521, 47.8209, -34.2679, -35.6164
2.156, -1, 25.1976, -8.05307, 48.8566, 47.878, -34.2078, -35.6536
2.16, -1, 25.2309, -8.08004, 48.8609, 47.9303, -34.1526, -35.6877
2.163, -1, 25.2618, -8.10518, 48.8649, 47.9776, -34.1027, -35.7185
2.168, -1, 25.2902, -8.12851, 48.8685, 48.0198, -34.0582, -35.746
2.172, -1, 25.3162, -8.15, 48.8719, 48.0568, -34.0191, -35.7701
2.176, -1, 25.3397, -8.16958, 48.8749, 48.0887, -33.9854, -35.7909
2.179, -1, 25.3607, -8.18717, 48.8776, 48.1157, -33.9568, -35.8084
2.184, -1, 25.3793, -8.20276, 48.88, 48.1382, -33.9331, -35.8231
2.188, -1, 25.3955, -8.21643, 48.8821, 48.1565, -33.9137, -35.835
2.192, -1, 25.4095, -8.22829, 48.884, 48.1711, -33.8982, -35.8445
2.196, -1, 25.4217, -8.23847, 48.8855, 48.1825, -33.8861, -35.8518
2.199, -1, 25.4321, -8.24707, 48.8868, 48.1912, -33.8769, -35.8575
2.204, -1, 25.4408, -8.2542, 48.8879, 48.1976, -33.8701, -35.8616
2.208, -1, 25.4481, -8.25997, 48.8888, 48.2022, -33.8651, -35.8646
2.212, -1, 25.4538, -8.26449, 48.8894, 48.2055, -33.8616, -35.8667
2.216, 2, 25.4583, -8.26791, 48.8899, 48.2078, -33.8592, -35.8682
2.219, 2, 25.4616, -8.2704, 48.8903, 48.2093, -33.8575, -35.8692
2.224, 2, 25.464, -8.27214, 48.8906, 48.2104, -33.8563, -35.8699
2.228, 2, 25.4656, -8.27333, 48.8908, 48.2111, -33.8556, -35.8703
2.232, 2, 25.4667, -8.27414, 48.8909, 48.2116, -33.855, -35.8707
2.235, 2, 25.4674, -8.27469, 48.891, 48.2119, -33.8547, -35.8709
2.24, 2, 25.4679, -8.27506, 48.891, 48.2121, -33.8545, -35.871
2.244, 2, 25.4683, -8.27531, 48.8911, 48.2123, -33.8543, -35.8711
2.248, 2, 25.4685, -8.27548, 48.8911, 48.2124, -33.8542, -35.8712
2.252, 2, 25.4687, -8.2756, 48.8911, 48.2125, -33.8541, -35.8712
2.255, 2, 25.4688, -8.27567, 48.8911, 48.2125, -33.854, -35.8712
2.259, 2, 25.4688, -8.27573, 48.8911, 48.2125, -33.854, -35.8713
2.264, 2, 25.4689, -8.27576, 48.8911, 48.2126, -33.854, -35.8713
2.268, 2, 25.4689, -8.27579, 48.8911, 48.2126, -33.854, -35.8713
2.272, 2, 25.4689, -8.2758, 48.8911, 48.2126, -33.854, -35.8713
2.275, 2, 25.469, -8.27582, 48.8911, 48.2126, -33.854, -35.8713
2.28, 2, 25.469, -8.27582, 48.8911, 48.2126, -33.854, -35.8713
2.284, 2, 25.469, -8.27583, 48.8911, 48.2126, -33.854, -35.8713
2.288, 2, 25.469, -8.27583, 48.8911, 48.2126, -33.854, -35.8713
2.291, 2, 25.469, -8.27583, 48.8911, 48.2126, -33.8539, -35.8713
2.296, 2, 25.469, -8.27584, 48.8911, 48.2126, -33.8539, -35.8713
2.3, 2, 25.469, -8.27584, 48.8911, 48.2126, -33.8539, -35.8713
2.304, 2, 25.469, -8.27584, 48.8911, 48.2126, -33.8539, -35.8713
2.308, 2, 25.469, -8.27584, 48.8911, 48.2126, -33.8539, -35.8713
2.311, 2, 25.469, -8.27584, 48.8911, 48.2126, -33.8539, -35.8713
2.316, 2, 25.469, -8.27584, 48.8911, 48.2126, -33.8539, -35.8713
2.32, 2, 25.469, -8.27584, 48.8911, 48.2126, -33.8539, -35.8713
2.324, 2, 25.469, -8.27584, 48.8911, 48.2126, -33.8539, -35.8713
2.328, 2, 25.469, -8.27584, 48.8911, 48.2126, -33.8539, -35.8713
2.331, 2, 25.469, -8.27584, 48.8911, 48.2126, -33.8539, -35.8713
2.336, 2, 25.469, -8.27584, 48.8911, 48.2126, -33.8539, -35.8713
2.34, 2, 25.469, -8.27584, 48.8911, 48.2126, -33.8539, -35.8713
2.344, 2, 25.469, -8.27584, 48.8911, 48.2126, -33.8539, -35.8713
2.347, 2, 25.469, -8.27584, 48.8911, 48.2126, -33.8539, -35.8713
2.352, 2, 25.469, -8.27584, 48.8911, 48.2126, -33.8539, -35.8713
2.356, 2, 25.469, -8.27584, 48.8911, 48.2126, -33.8539, -35.8713
2.36, 2, 25.469, -8.27584, 48.8911, 48.2126, -33.8539, -35.8713
2.364, 2, 25.469, -8.27584, 48.8911, 48.2126, -33.8539, -35.8713
2.367, 2, 25.469, -8.27584, 48.8911, 48.2126, -33.8539, -35.8713
2.372, 2, 25.469, -8.27584, 48.8911, 48.2126, -33.8539, -35.8713
2.376, 2, 25.469, -8.27584, 48.8911, 48.2126, -33.8539, -35.8713
2.38, 2, 25.469, -8.27584, 48.8911, 48.2126, -33.8539, -35.8713
2.383, 2, 25.469, -8.27584, 48.8911, 48.2126, -33.8539, -35.8713
2.388, 2, 25.469, -8.27584, 48.8911, 48.2126, -33.8539, -35.8713
2.392, 2, 25.469, -8.27584, 48.8911, 48.2126, -33.8539, -35.8713
2.396, 2, 25.469, -8.27584, 48.8911, 48.2126, -33.8539, -35.8713
2.4, 2, 25.469, -8.27584, 48.8911, 48.2126, -33.8539, -35.8713
2.403, 2, 25.469, -8.27584, 48.8911, 48.2126, -33.8539, -35.8713
2.408, 2, 25.469, -8.27584, 48.8911, 48.2126, -33.8539, -35.8713
2.412, 2, 25.469, -8.27584, 48.8911, 48.2126, -33.8539, -35.8713
2.416, 2, 25.469, -8.27584, 48.8911, 48.2126, -33.8539, -35.8713
2.42, 2, 25.469, -8.27584, 48.8911, 48.2126, -33.8539, -35.8713
2.423, 2, 25.469, -8.27584, 48.8911, 48.2126, -33.8539, -35.8713
2.428, 2, 25.469, -8.27584, 48.8911, 48.2126, -33.8539, -35.8713
2.432, 2, 25.469, -8.27584, 48.8911, 48.2126, -33.8539, -35.8713
2.436, 2, 25.469, -8.27584, 48.8911, 48.2126, -33.8539, -35.8713
2.439, 2, 25.469, -8.27584, 48.8911, 48.2126, -33.8539, -35.8713
2.444, 2, 25.469, -8.27584, 48.8911, 48.2126, -33.8539, -35.8713
2.448, 2, 25.469, -8.27584, 48.8911, 48.2126, -33.8539, -35.8713
2.452, 2, 25.469, -8.27584, 48.8911, 48.2126, -33.8539, -35.8713
2.456, 2, 25.469, -8.27584, 48.8911, 48.2126, -33.8539, -35.8713
2.459, 2, 25.469, -8.27584, 48.8911, 48.2126, -33.8539, -35.8713
2.464, 2, 25.469, -8.27584, 48.8911, 48.2126, -33.8539, -35.8713
2.468, 2, 25.469, -8.27584, 48.8911, 48.2126, -33.8539, -35.8713
2.472, 2, 25.469, -8.27584, 48.8911, 48.2126, -33.8539, -35.8713
2.476, 2, 25.469, -8.27584, 48.8911, 48.2126, -33.8539, -35.8713
2.479, 2, 25.469, -8.27584, 48.8911, 48.2126, -33.8539, -35.8713
2.484, 2, 25.469, -8.27584, 48.8911, 48.2126, -33.8539, -35.8713
2.488, 2, 25.469, -8.27584, 48.8911, 48.2126, -33.8539, -35.8713
2.492, 2, 25.469, -8.27584, 48.8911, 48.2126, -33.8539, -35.8713
2.495, 2, 25.469, -8.27584, 48.8911, 48.2126, -33.8539, -35.8713
2.5, 2, 25.469, -8.27584, 48.8911, 48.2126, -33.8539, -35.8713
2.504, 2, 25.469, -8.27584, 48.8911, 48.2126, -33.8539, -35.8713
2.508, 2, 25.469, -8.27584, 48.8911, 48.2126, -33.8539, -35.8713
2.512, 2, 25.469, -8.27584, 48.8911, 48.2126, -33.8539, -35.8713
2.515, 2, 25.469, -8.27584, 48.8911, 48.2126, -33.8539, -35.8713
2.52, 2, 25.469, -8.27584, 48.8911, 48.2126, -33.8539, -35.8713
2.524, 2, 25.469, -8.27584, 48.8911, 48.2126, -33.8539, -35.8713
2.528, 2, 25.469, -8.27584, 48.8911, 48.2126, -33.8539, -35.8713
2.531, 2, 25.469, -8.27584, 48.8911, 48.2126, -33.8539, -35.8713
2.536, 2, 25.469, -8.27584, 48.8911, 48.2126, -33.8539, -35.8713
2.54, 2, 25.469, -8.27584, 48.8911, 48.2126, -33.8539, -35.8713
2.544, 2, 25.469, -8.27584, 48.8911, 48.2126, -33.8539, -35.8713
2.548, 2, 25.469, -8.27584, 48.8911, 48.2126, -33.8539, -35.8713
2.551, 2, 25.469, -8.27584, 48.8911, 48.2126, -33.8539, -35.8713
2.556, 2, 25.469, -8.27584, 48.8911, 48.2126, -33.8539, -35.8713
2.56, 2, 25.469, -8.27584, 48.8911, 48.2126, -33.8539, -35.8713
2.564, 2, 25.469, -8.27584, 48.8911, 48.2126, -33.8539, -35.8713
2.568, 2, 25.469, -8.27584, 48.8911, 48.2126, -33.8539, -35.8713
2.571, 2, 25.469, -8.27584, 48.8911, 48.2126, -33.8539, -35.8713
2.576, 2, 25.469, -8.27584, 48.8911, 48.2126, -33.8539, -35.8713
2.58, 2, 25.469, -8.27584, 48.8911, 48.2126, -33.8539, -35.8713
2.584, 2, 25.469, -8.27584, 48.8911, 48.2126, -33.8539, -35.8713
2.587, 2, 25.469, -8.27584, 48.8911, 48.2126, -33.8539, -35.8713
2.592, 2, 25.469, -8.27584, 48.8911, 48.2126, -33.8539, -35.8713
2.596, 2, 25.469, -8.27584, 48.8911, 48.2126, -33.8539, -35.8713
2.6, 2, 25.469, -8.27584, 48.8911, 48.2126, -33.8539, -35.8713
2.604, 2, 25.469, -8.27584, 48.8911, 48.2126, -33.8539, -35.8713
2.607, 2, 25.469, -8.27584, 48.8911, 48.2126, -33.8539, -35.8713
2.612, 2, 25.469, -8.27584, 48.8911, 48.2126, -33.8539, -35.8713
2.616, 2, 25.469, -8.27584, 48.8911, 48.2126, -33.8539, -35.8713
2.62, 2, 25.469, -8.27584, 48.8911, 48.2126, -33.8539, -35.8713
2.624, 2, 25.469, -8.27584, 48.8911, 48.2126, -33.8539, -35.8713
2.627, 2, 25.469, -8.27584, 48.8911, 48.2126, -33.8539, -35.8713
2.632, 2, 25.469, -8.27584, 48.8911, 48.2126, -33.8539, -35.8713
2.636, 2, 25.469, -8.27584, 48.8911, 48.2126, -33.8539, -35.8713
2.64, 2, 25.469, -8.27584, 48.8911, 48.2126, -33.8539, -35.8713
2.643, 2, 25.469, -8.27584, 48.8911, 48.2126, -33.8539, -35.8713
2.648, 2, 25.469, -8.27584, 48.8911, 48.2126, -33.8539, -35.8713
2.652, 2, 25.469, -8.27584, 48.8911, 48.2126, -33.8539, -35.8713
2.656, 2, 25.469, -8.27584, 48.8911, 48.2126, -33.8539, -35.8713
2.66, 2, 25.469, -8.27584, 48.8911, 48.2126, -33.8539, -35.8713
2.663, 2, 25.469, -8.27584, 48.8911, 48.2126, -33.8539, -35.8713
2.668, 2, 25.469, -8.27584, 48.8911, 48.2126, -33.8539, -35.8713
2.672, 2, 25.469, -8.27584, 48.8911, 48.2126, -33.8539, -35.8713
2.676, 2, 25.469, -8.27584, 48.8911, 48.2126, -33.8539, -35.8713
2.679, 2, 25.469, -8.27584, 48.8911, 48.2126, -33.8539, -35.8713
2.684, 2, 25.469, -8.27584, 48.8911, 48.2126, -33.8539, -35.8713
2.688, 2, 25.469, -8.27584, 48.8911, 48.2126, -33.8539, -35.8713
2.692, 2, 25.469, -8.27584, 48.8911, 48.2126, -33.8539, -35.8713
2.696, 2, 25.469, -8.27584, 48.8911, 48.2126, -33.8539, -35.8713
2.699, 2, 25.469, -8.27584, 48.8911, 48.2126, -33.8539, -35.8713
2.704, 2, 25.469, -8.27584, 48.8911, 48.2126, -33.8539, -35.8713
2.708, 2, 25.469, -8.27584, 48.8911, 48.2126, -33.8539, -35.8713
2.712, 2, 25.469, -8.27584, 48.8911, 48.2126, -33.8539, -35.8713
2.716, 2, 25.469, -8.27584, 48.8911, 48.2126, -33.8539, -35.8713
2.719, 2, 25.469, -8.27584, 48.8911, 48.2126, -33.8539, -35.8713
2.724, 2, 25.469, -8.27584, 48.8911, 48.2126, -33.8539, -35.8713
2.728, 2, 25.469, -8.27584, 48.8911, 48.2126, -33.8539, -35.8713
2.732, 2, 25.469, -8.27584, 48.8911, 48.2126, -33.8539, -35.8713
2.735, 2, 25.469, -8.27584, 48.8911, 48.2126, -33.8539, -35.8713
2.74, 2, 25.469, -8.27584, 48.8911, 48.2126, -33.8539, -35.8713
2.744, 2, 25.469, -8.27584, 48.8911, 48.2126, -33.8539, -35.8713
2.748, 2, 25.469, -8.27584, 48.8911, 48.2126, -33.8539, -35.8713
2.752, 2, 25.469, -8.27584, 48.8911, 48.2126, -33.8539, -35.8713
2.755, 2, 25.469, -8.27584, 48.8911, 48.2126, -33.8539, -35.8713
2.76, 2, 25.469, -8.27584, 48.8911, 48.2126, -33.8539, -35.8713
2.764, 2, 25.469, -8.27584, 48.8911, 48.2126, -33.8539, -35.8713
2.768, 2, 25.469, -8.27584, 48.8911, 48.2126, -33.8539, -35.8713
2.772, 2, 25.469, -8.27584, 48.8911, 48.2126, -33.8539, -35.8713
2.775, 2, 25.469, -8.27584, 48.8911, 48.2126, -33.8539, -35.8713
2.78, 2, 25.469, -8.27584, 48.8911, 48.2126, -33.8539, -35.8713
2.784, 2, 25.469, -8.27584, 48.8911, 48.2126, -33.8539, -35.8713
2.788, 2, 25.469, -8.27584, 48.8911, 48.2126, -33.8539, -35.8713
2.791, 2, 25.469, -8.27584, 48.8911, 48.2126, -33.8539, -35.8713
2.796, 2, 25.469, -8.27584, 48.8911, 48.2126, -33.8539, -35.8713
2.8, 2, 25.469, -8.27584, 48.8911, 48.2126, -33.8539, -35.8713
2.804, 2, 25.469, -8.27584, 48.8911, 48.2126, -33.8539, -35.8713
2.808, 2, 25.469, -8.27584, 48.8911, 48.2126, -33.8539, -35.8713
2.811, 2, 25.469, -8.27584, 48.8911, 48.2126, -33.8539, -35.8713
2.816, 2, 25.469, -8.27584, 48.8911, 48.2126, -33.8539, -35.8713
2.82, 2, 25.469, -8.27584, 48.8911, 48.2126, -33.8539, -35.8713
2.824, 2, 25.469, -8.27584, 48.8911, 48.2126, -33.8539, -35.8713
2.828, 2, 25.469, -8.27584, 48.8911, 48.2126, -33.8539, -35.8713
2.831, 2, 25.469, -8.27584, 48.8911, 48.2126, -33.8539, -35.8713
2.836, 2, 25.469, -8.27584, 48.8911, 48.2126, -33.8539, -35.8713
2.84, 2, 25.469, -8.27584, 48.8911, 48.2126, -33.8539, -35.8713
2.844, 2, 25.469, -8.27584, 48.8911, 48.2126, -33.8539, -35.8713
2.847, 2, 25.469, -8.27584, 48.8911, 48.2126, -33.8539, -35.8713
2.852, 2, 25.469, -8.27584, 48.8911, 48.2126, -33.8539, -35.8713
2.856, 2, 25.469, -8.27584, 48.8911, 48.2126, -33.8539, -35.8713
2.86, 2, 25.469, -8.27584, 48.8911, 48.2126, -33.8539, -35.8713
2.864, 2, 25.469, -8.27584, 48.8911, 48.2126, -33.8539, -35.8713
2.867, 2, 25.469, -8.27584, 48.8911, 48.2126, -33.8539, -35.8713
2.872, 2, 25.469, -8.27584, 48.8911, 48.2126, -33.8539, -35.8713
2.876, 2, 25.469, -8.27584, 48.8911, 48.2126, -33.8539, -35.8713
2.88, 2, 25.469, -8.27584, 48.8911, 48.2126, -33.8539, -35.8713
2.883, 2, 25.469, -8.27584, 48.8911, 48.2126, -33.8539, -35.8713
2.888, 2, 25.469, -8.27584, 48.8911, 48.2126, -33.8539, -35.8713
2.892, 2, 25.469, -8.27584, 48.8911, 48.2126, -33.8539, -35.8713
2.896, 2, 25.469, -8.27584, 48.8911, 48.2126, -33.8539, -35.8713
2.9, 2, 25.469, -8.27584, 48.8911, 48.2126, -33.8539, -35.8713
2.903, 2, 25.469, -8.27584, 48.8911, 48.2126, -33.8539, -35.8713
2.908, 2, 25.469, -8.27584, 48.8911, 48.2126, -33.8539, -35.8713
2.912, 2, 25.469, -8.27584, 48.8911, 48.2126, -33.8539, -35.8713
2.916, 2, 25.469, -8.27584, 48.8911, 48.2126, -33.8539, -35.8713
2.92, 2, 25.469, -8.27584, 48.8911, 48.2126, -33.8539, -35.8713
2.923, 2, 25.469, -8.27584, 48.8911, 48.2126, -33.8539, -35.8713
2.928, 2, 25.469, -8.27584, 48.8911, 48.2126, -33.8539, -35.8713
2.932, 2, 25.469, -8.27584, 48.8911, 48.2126, -33.8539, -35.8713
2.936, 2, 25.469, -8.27584, 48.8911, 48.2126, -33.8539, -35.8713
2.939, 2, 25.469, -8.27584, 48.8911, 48.2126, -33.8539, -35.8713
2.944, 2, 25.469, -8.27584, 48.8911, 48.2126, -33.8539, -35.8713
2.948, 2, 25.469, -8.27584, 48.8911, 48.2126, -33.8539, -35.8713
2.952, 2, 25.469, -8.27584, 48.8911, 48.2126, -33.8539, -35.8713
2.956, 2, 25.469, -8.27584, 48.8911, 48.2126, -33.8539, -35.8713
2.959, 2, 25.469, -8.27584, 48.8911, 48.2126, -33.8539, -35.8713
2.964, 2, 25.469, -8.27584, 48.8911, 48.2126, -33.8539, -35.8713
2.968, 2, 25.469, -8.27584, 48.8911, 48.2126, -33.8539, -35.8713
2.972, 2, 25.469, -8.27584, 48.8911, 48.2126, -33.8539, -35.8713
2.976, 2, 25.469, -8.27584, 48.8911, 48.2126, -33.8539, -35.8713
2.98, 2, 25.469, -8.27584, 48.8911, 48.2126, -33.8539, -35.8713
2.984, 2, 25.469, -8.27584, 48.8911, 48.2126, -33.8539, -35.8713
2.988, 2, 25.469, -8.27584, 48.8911, 48.2126, -33.8539, -35.8713
2.992, 2, 25.469, -8.27584, 48.8911, 48.2126, -33.8539, -35.8713
2.995, 2, 25.469, -8.27584, 48.8911, 48.2126, -33.8539, -35.8713
3, 2, 25.469, -8.27584, 48.8911, 48.2126, -33.8539, -35.8713
3.004, 2, 25.469, -8.27584, 48.8911, 48.2126, -33.8539, -35.8713
3.008, 2, 25.469, -8.27584, 48.8911, 48.2126, -33.8539, -35.8713
3.012, 2, 25.469, -8.27584, 48.8911, 48.2126, -33.8539, -35.8713
3.015, 2, 25.469, -8.27584, 48.8911, 48.2126, -33.8539, -35.8713
3.02, 2, 25.469, -8.27584, 48.8911, 48.2126, -33.8539, -35.8713
3.024, 2, 25.469, -8.27584, 48.8911, 48.2126, -33.8539, -35.8713
3.028, 2, 25.469, -8.27584, 48.8911, 48.2126, -33.8539, -35.8713
3.031, 2, 25.469, -8.27584, 48.8911, 48.2126, -33.8539, -35.8713
3.036, 2, 25.469, -8.27584, 48.8911, 48.2126, -33.8539, -35.8713
3.04, 2, 25.469, -8.27584, 48.8911, 48.2126, -33.8539, -35.8713
3.044, 2, 25.469, -8.27584, 48.8911, 48.2126, -33.8539, -35.8713
3.048, 2, 25.469, -8.27584, 48.8911, 48.2126, -33.8539, -35.8713
3.051, 2, 25.469, -8.27584, 48.8911, 48.2126, -33.8539, -35.8713
3.056, 2, 25.469, -8.27584, 48.8911, 48.2126, -33.8539, -35.8713
3.06, 2, 25.469, -8.27584, 48.8911, 48.2126, -33.8539, -35.8713
3.064, 2, 25.469, -8.27584, 48.8911, 48.2126, -33.8539, -35.8713
3.068, 2, 25.469, -8.27584, 48.8911, 48.2126, -33.8539, -35.8713
3.071, 2, 25.469, -8.27584, 48.8911, 48.2126, -33.8539, -35.8713
3.076, 2, 25.469, -8.27584, 48.8911, 48.2126, -33.8539, -35.8713
3.08, 2, 25.469, -8.27584, 48.8911, 48.2126, -33.8539, -35.8713
3.084, 2, 25.469, -8.27584, 48.8911, 48.2126, -33.8539, -35.8713
3.087, 2, 25.469, -8.27584, 48.8911, 48.2126, -33.8539, -35.8713
3.092, 2, 25.469, -8.27584, 48.8911, 48.2126, -33.8539, -35.8713
3.096, 2, 25.469, -8.27584, 48.8911, 48.2126, -33.8539, -35.8713
3.1, 2, 25.469, -8.27584, 48.8911, 48.2126, -33.8539, -35.8713
3.104, 2, 25.469, -8.27584, 48.8911, 48.2126, -33.8539, -35.8713
3.107, 2, 25.469, -8.27584, 48.8911, 48.2126, -33.8539, -35.8713
3.112, 2, 25.469, -8.27584, 48.8911, 48.2126, -33.8539, -35.8713
3.116, 2, 25.469, -8.27584, 48.8911, 48.2126, -33.8539, -35.8713
3.12, 2, 25.469, -8.27584, 48.8911, 48.2126, -33.8539, -35.8713
3.124, 2, 25.469, -8.27584, 48.8911, 48.2126, -33.8539, -35.8713
3.128, 2, 25.469, -8.27584, 48.8911, 48.2126, -33.8539, -35.8713
3.132, 2, 25.469, -8.27584, 48.8911, 48.2126, -33.8539, -35.8713
3.136, 2, 25.469, -8.27584, 48.8911, 48.2126, -33.8539, -35.8713
3.14, 2, 25.469, -8.27584, 48.8911, 48.2126, -33.8539, -35.8713
3.143, 2, 25.469, -8.27584, 48.8911, 48.2126, -33.8539, -35.8713
3.148, 2, 25.469, -8.27584, 48.8911, 48.2126, -33.8539, -35.8713
3.152, 2, 25.469, -8.27584, 48.8911, 48.2126, -33.8539, -35.8713
3.156, 2, 25.469, -8.27584, 48.8911, 48.2126, -33.8539, -35.8713
3.16, 2, 25.469, -8.27584, 48.8911, 48.2126, -33.8539, -35.8713
3.163, 2, 25.469, -8.27584, 48.8911, 48.2126, -33.8539, -35.8713
3.168, 2, 25.469, -8.27584, 48.8911, 48.2126, -33.8539, -35.8713
3.172, 2, 25.469, -8.27584, 48.8911, 48.2126, -33.8539, -35.8713
3.176, 2, 25.469, -8.27584, 48.8911, 48.2126, -33.8539, -35.8713
3.179, 2, 25.469, -8.27584, 48.8911, 48.2126, -33.8539, -35.8713
3.184, 2, 25.469, -8.27584, 48.8911, 48.2126, -33.8539, -35.8713
3.188, 2, 25.469, -8.27584, 48.8911, 48.2126, -33.8539, -35.8713
3.192, 2, 25.469, -8.27584, 48.8911, 48.2126, -33.8539, -35.8713
3.196, 2, 25.469, -8.27584, 48.8911, 48.2126, -33.8539, -35.8713
3.199, 2, 25.469, -8.27584, 48.8911, 48.2126, -33.8539, -35.8713
3.204, 2, 25.469, -8.27584, 48.8911, 48.2126, -33.8539, -35.8713
3.208, 2, 25.469, -8.27584, 48.8911, 48.2126, -33.8539, -35.8713
3.212, 2, 25.469, -8.27584, 48.8911, 48.2126, -33.8539, -35.8713
3.216, 2, 25.469, -8.27584, 48.8911, 48.2126, -33.8539, -35.8713
3.22, 2, 25.469, -8.27584, 48.8911, 48.2126, -33.8539, -35.8713
3.224, 2, 25.469, -8.27584, 48.8911, 48.2126, -33.8539, -35.8713
3.228, 2, 25.469, -8.27584, 48.8911, 48.2126, -33.8539, -35.8713
3.232, 2, 25.469, -8.27584, 48.8911, 48.2126, -33.8539, -35.8713
3.235, 2, 25.469, -8.27584, 48.8911, 48.2126, -33.8539, -35.8713
3.24, 2, 25.469, -8.27584, 48.8911, 48.2126, -33.8539, -35.8713
3.244, 2, 25.469, -8.27584, 48.8911, 48.2126, -33.8539, -35.8713
3.248, 2, 25.469, -8.27584, 48.8911, 48.2126, -33.8539, -35.8713
3.252, 2, 25.469, -8.27584, 48.8911, 48.2126, -33.8539, -35.8713
3.255, 2, 25.469, -8.27584, 48.8911, 48.2126, -33.8539, -35.8713
3.26, 2, 25.469, -8.27584, 48.8911, 48.2126, -33.8539, -35.8713
3.264, 2, 25.469, -8.27584, 48.8911, 48.2126, -33.8539, -35.8713
3.268, 2, 25.469, -8.27584, 48.8911, 48.2126, -33.8539, -35.8713
3.272, 2, 25.469, -8.27584, 48.8911, 48.2126, -33.8539, -35.8713
3.276, 2, 25.469, -8.27584, 48.8911, 48.2126, -33.8539, -35.8713
3.28, 2, 25.469, -8.27584, 48.8911, 48.2126, -33.8539, -35.8713
3.284, 2, 25.469, -8.27584, 48.8911, 48.2126, -33.8539, -35.8713
3.288, 2, 25.469, -8.27584, 48.8911, 48.2126, -33.8539, -35.8713
3.291, 4, 25.469, -8.27584, 48.8911, 48.2126, -33.8539, -35.8713
3.296, 4, 25.469, -8.27584, 48.8911, 48.2126, -33.8539, -35.8713
3.3, 4, 25.469, -8.27584, 48.8911, 48.2126, -33.8539, -35.8713
3.304, 4, 25.469, -8.27584, 48.8911, 48.2126, -33.8539, -35.8713
3.308, 4, 25.469, -8.27584, 48.8911, 48.2126, -33.8539, -35.8713
3.312, 4, 25.469, -8.27584, 48.8911, 48.2126, -33.8539, -35.8713
3.316, 4, 25.469, -8.27584, 48.8911, 48.2126, -33.8539, -35.8713
3.32, 4, 25.469, -8.27584, 48.8911, 48.2126, -33.8539, -35.8713
3.324, 4, 25.469, -8.27584, 48.8911, 48.2126, -33.8539, -35.8713
3.328, 4, 25.469, -8.27584, 48.8911, 48.2126, -33.8539, -35.8713
3.332, 4, 25.469, -8.27584, 48.8911, 48.2126, -33.8539, -35.8713
3.336, 4, 25.469, -8.27584, 48.8911, 48.2126, -33.8539, -35.8713
3.34, 4, 25.469, -8.27584, 48.8911, 48.2126, -33.8539, -35.8713
3.344, 4, 25.469, -8.27584, 48.8911, 48.2126, -33.8539, -35.8713
3.347, 4, 25.469, -8.27584, 48.8911, 48.2126, -33.8539, -35.8713
3.352, 4, 25.469, -8.27584, 48.8911, 48.2126, -33.8539, -35.8713
3.356, 4, 25.469, -8.27584, 48.8911, 48.2126, -33.8539, -35.8713
3.36, 4, 25.469, -8.27584, 48.8911, 48.2126, -33.8539, -35.8713
3.364, 4, 25.469, -8.27584, 48.8911, 48.2126, -33.8539, -35.8713
3.368, 4, 25.469, -8.27584, 48.8911, 48.2126, -33.8539, -35.8713
3.372, 4, 25.469, -8.27584, 48.8911, 48.2126, -33.8539, -35.8713
3.376, 4, 25.469, -8.27584, 48.8911, 48.2126, -33.8539, -35.8713
3.38, 4, 25.469, -8.27584, 48.8911, 48.2126, -33.8539, -35.8713
3.383, 4, 25.469, -8.27584, 48.8911, 48.2126, -33.8539, -35.8713
3.388, 4, 25.469, -8.27584, 48.8911, 48.2126, -33.8539, -35.8713
3.392, 4, 25.469, -8.27584, 48.8911, 48.2126, -33.8539, -35.8713
3.396, 4, 25.469, -8.27584, 48.8911, 48.2126, -33.8539, -35.8713
3.4, 4, 25.469, -8.27584, 48.8911, 48.2126, -33.8539, -35.8713
3.403, 4, 25.469, -8.27584, 48.8911, 48.2126, -33.8539, -35.8713
3.408, 4, 25.469, -8.27584, 48.8911, 48.2126, -33.8539, -35.8713
3.412, 4, 25.469, -8.27584, 48.8911, 48.2126, -33.8539, -35.8713
3.416, 4, 25.469, -8.27584, 48.8911, 48.2126, -33.8539, -35.8713
3.42, 4, 25.469, -8.27584, 48.8911, 48.2126, -33.8539, -35.8713
3.424, 4, 25.4689, -8.27586, 48.8911, 48.2126, -33.8539, -35.8713
3.428, 4, 25.4687, -8.27591, 48.8912, 48.2126, -33.854, -35.8713
3.432, 4, 25.4681, -8.27607, 48.8913, 48.2125, -33.854, -35.8712
3.436, 4, 25.467, -8.27639, 48.8916, 48.2121, -33.8541, -35.8709
3.439, 4, 25.4651, -8.27697, 48.8922, 48.2113, -33.8543, -35.8703
3.444, 4, 25.4624, -8.27788, 48.8932, 48.2096, -33.8547, -35.8689
3.448, 4, 25.4587, -8.27922, 48.8949, 48.2065, -33.8555, -35.8663
3.452, 4, 25.4537, -8.28111, 48.8975, 48.201, -33.8568, -35.8618
3.456, 4, 25.4473, -8.28366, 48.9014, 48.1923, -33.859, -35.8545
3.46, 4, 25.4392, -8.28702, 48.9069, 48.1791, -33.8622, -35.8436
3.464, 4, 25.4291, -8.29134, 48.9145, 48.16, -33.8668, -35.8277
3.468, 5, 25.4164, -8.2968, 48.9246, 48.1335, -33.8732, -35.8056
3.472, 5, 25.4009, -8.30358, 48.9379, 48.0979, -33.8818, -35.776
3.476, 5, 25.382, -8.3118, 48.9549, 48.0513, -33.893, -35.7372
3.48, 5, 25.3595, -8.32154, 48.976, 47.9921, -33.9073, -35.6879
3.484, 5, 25.3333, -8.33285, 49.0017, 47.9185, -33.9251, -35.6266
3.488, 5, 25.3032, -8.34578, 49.0323, 47.8291, -33.9467, -35.5521
3.492, 5, 25.269, -8.36036, 49.0682, 47.7229, -33.9725, -35.4636
3.495, 5, 25.2306, -8.37663, 49.1095, 47.5992, -34.0027, -35.3605
3.5, 5, 25.1878, -8.39462, 49.1563, 47.4579, -34.0373, -35.2428
3.504, 5, 25.1407, -8.41432, 49.2086, 47.2994, -34.0764, -35.1107
3.508, 5, 25.0891, -8.43572, 49.266, 47.1244, -34.1197, -34.9649
3.512, 5, 25.0334, -8.45872, 49.3284, 46.9339, -34.1671, -34.8062
3.516, 5, 24.9738, -8.4832, 49.3952, 46.7293, -34.2184, -34.6359
3.52, 5, 24.9106, -8.50899, 49.466, 46.5122, -34.2732, -34.4553
3.524, 5, 24.8443, -8.53594, 49.5403, 46.2844, -34.3311, -34.2658
3.528, 5, 24.7752, -8.56393, 49.6176, 46.0477, -34.3917, -34.0689
3.531, 5, 24.7034, -8.59281, 49.6973, 45.8038, -34.4546, -33.8663
3.536, 5, 24.6291, -8.62245, 49.7789, 45.5545, -34.5196, -33.6591
3.54, 5, 24.5527, -8.6527, 49.8621, 45.3013, -34.5861, -33.4489
3.544, 5, 24.4743, -8.68342, 49.9463, 45.0453, -34.654, -33.2365
3.548, 5, 24.3943, -8.71444, 50.0313, 44.7876, -34.723, -33.0227
3.552, 5, 24.3129, -8.74561, 50.1167, 44.5289, -34.7929, -32.8083
3.556, 5, 24.2305, -8.77678, 50.2024, 44.2696, -34.8636, -32.5935
3.56, 5, 24.1472, -8.80786, 50.2882, 44.0102, -34.9351, -32.3787
3.564, 5, 24.0634, -8.83877, 50.374, 43.7508, -35.0073, -32.164
3.568, 5, 23.9791, -8.86946, 50.4598, 43.4916, -35.0801, -31.9497
3.572, 5, 23.8945, -8.89989, 50.5454, 43.2328, -35.1536, -31.7358
3.576, 5, 23.8095, -8.93005, 50.6309, 42.9743, -35.2276, -31.5223
3.58, 5, 23.7242, -8.95992, 50.7162, 42.7164, -35.3022, -31.3093
3.584, 5, 23.6387, -8.98948, 50.8013, 42.4589, -35.3774, -31.0969
3.587, 5, 23.5529, -9.01872, 50.8862, 42.2019, -35.4532, -30.885
3.592, 5, 23.4669, -9.04765, 50.9709, 41.9455, -35.5296, -30.6737
3.596, 5, 23.3806, -9.07625, 51.0554, 41.6896, -35.6066, -30.463
3.6, 5, 23.2942, -9.10452, 51.1397, 41.4343, -35.6841, -30.2528
3.604, 5, 23.2075, -9.13245, 51.2238, 41.1795, -35.7622, -30.0433
3.608, 5, 23.1207, -9.16006, 51.3076, 40.9253, -35.8408, -29.8344
3.612, 5, 23.0336, -9.18732, 51.3912, 40.6717, -35.9201, -29.626
3.616, 5, 22.9463, -9.21424, 51.4746, 40.4187, -35.9998, -29.4183
3.62, 5, 22.8588, -9.24083, 51.5577, 40.1663, -36.0802, -29.2112
3.624, 5, 22.7711, -9.26707, 51.6407, 39.9144, -36.1611, -29.0048
3.628, 5, 22.6832, -9.29296, 51.7234, 39.6631, -36.2426, -28.7989
3.632, 5, 22.5951, -9.31851, 51.8058, 39.4125, -36.3247, -28.5937
3.636, 5, 22.5068, -9.34371, 51.8881, 39.1624, -36.4073, -28.3891
3.64, 5, 22.4182, -9.36856, 51.9701, 38.9129, -36.4905, -28.1851
3.644, 5, 22.3295, -9.39307, 52.0519, 38.664, -36.5743, -27.9818
3.648, 5, 22.2406, -9.41722, 52.1334, 38.4157, -36.6586, -27.7791
3.652, 5, 22.1515, -9.44101, 52.2147, 38.1681, -36.7435, -27.577
3.656, 5, 22.0621, -9.46445, 52.2958, 37.921, -36.829, -27.3755
3.66, 5, 21.9726, -9.48754, 52.3767, 37.6745, -36.9151, -27.1747
3.664, 5, 21.8829, -9.51027, 52.4573, 37.4287, -37.0016, -26.9746
3.668, 5, 21.7929, -9.53264, 52.5377, 37.1834, -37.0888, -26.7751
3.672, 5, 21.7028, -9.55465, 52.6178, 36.9388, -37.1765, -26.5762
3.676, 5, 21.6124, -9.5763, 52.6977, 36.6948, -37.2648, -26.378
3.679, 5, 21.5219, -9.5976, 52.7774, 36.4514, -37.3537, -26.1804
3.684, 5, 21.4311, -9.61852, 52.8569, 36.2086, -37.4431, -25.9834
3.688, 5, 21.3402, -9.63908, 52.9361, 35.9664, -37.5331, -25.7872
3.692, 5, 21.249, -9.65928, 53.015, 35.7248, -37.6236, -25.5915
3.696, 5, 21.1577, -9.67911, 53.0938, 35.4839, -37.7147, -25.3965
3.7, 5, 21.0661, -9.69857, 53.1723, 35.2436, -37.8064, -25.2022
3.704, 5, 20.9744, -9.71766, 53.2505, 35.0039, -37.8986, -25.0085
3.708, 5, 20.8824, -9.73638, 53.3286, 34.7649, -37.9914, -24.8155
3.712, 5, 20.7903, -9.75473, 53.4064, 34.5264, -38.0848, -24.6232
3.716, 5, 20.6979, -9.7727, 53.4839, 34.2886, -38.1787, -24.4315
3.72, 5, 20.6054, -9.79029, 53.5612, 34.0515, -38.2732, -24.2404
3.724, 5, 20.5126, -9.80751, 53.6383, 33.8149, -38.3682, -24.0501
3.728, 5, 20.4197, -9.82434, 53.7151, 33.579, -38.4638, -23.8604
3.732, 5, 20.3265, -9.8408, 53.7917, 33.3437, -38.56, -23.6713
3.735, 5, 20.2332, -9.85687, 53.868, 33.1091, -38.6567, -23.483
3.74, 5, 20.1396, -9.87256, 53.9441, 32.8751, -38.754, -23.2953
3.744, 5, 20.0459, -9.88785, 54.0199, 32.6417, -38.8518, -23.1082
3.748, 5, 19.952, -9.90277, 54.0955, 32.409, -38.9502, -22.9219
3.752, 5, 19.8578, -9.91728, 54.1709, 32.1769, -39.0492, -22.7362
3.756, 5, 19.7635, -9.93141, 54.246, 31.9455, -39.1487, -22.5512
3.76, 5, 19.669, -9.94515, 54.3208, 31.7147, -39.2488, -22.3669
3.764, 5, 19.5743, -9.95848, 54.3954, 31.4845, -39.3494, -22.1832
3.768, 5, 19.4794, -9.97142, 54.4697, 31.255, -39.4506, -22.0002
3.772, 5, 19.3843, -9.98396, 54.5438, 31.0261, -39.5524, -21.8179
3.776, 5, 19.289, -9.9961, 54.6177, 30.7979, -39.6547, -21.6363
3.78, 5, 19.1935, -10.0078, 54.6913, 30.5703, -39.7576, -21.4554
3.784, 5, 19.0978, -10.0192, 54.7646, 30.3434, -39.861, -21.2751
3.788, 5, 19.0019, -10.0301, 54.8377, 30.1171, -39.965, -21.0955
3.792, 5, 18.9059, -10.0406, 54.9105, 29.8915, -40.0695, -20.9166
3.796, 5, 18.8096, -10.0507, 54.9831, 29.6665, -40.1746, -20.7384
3.8, 5, 18.7132, -10.0604, 55.0554, 29.4421, -40.2803, -20.5609
3.804, 5, 18.6166, -10.0697, 55.1274, 29.2184, -40.3865, -20.384
3.808, 5, 18.5197, -10.0785, 55.1992, 28.9954, -40.4933, -20.2079
3.812, 5, 18.4227, -10.087, 55.2707, 28.773, -40.6006, -20.0324
3.816, 5, 18.3255, -10.095, 55.342, 28.5513, -40.7085, -19.8576
3.82, 5, 18.2281, -10.1026, 55.413, 28.3302, -40.8169, -19.6835
3.824, 5, 18.1306, -10.1098, 55.4837, 28.1097, -40.9259, -19.5101
3.828, 5, 18.0328, -10.1166, 55.5542, 27.89, -41.0355, -19.3374
3.832, 5, 17.9349, -10.123, 55.6244, 27.6708, -41.1456, -19.1653
3.836, 5, 17.8367, -10.1289, 55.6944, 27.4523, -41.2562, -18.994
3.84, 5, 17.7384, -10.1344, 55.7641, 27.2345, -41.3674, -18.8233
3.844, 5, 17.6399, -10.1395, 55.8335, 27.0173, -41.4792, -18.6534
3.848, 5, 17.5412, -10.1441, 55.9026, 26.8008, -41.5915, -18.4841
3.852, 5, 17.4423, -10.1484, 55.9715, 26.5849, -41.7043, -18.3155
3.856, 5, 17.3433, -10.1521, 56.0401, 26.3697, -41.8177, -18.1476
3.86, 5, 17.244, -10.1555, 56.1085, 26.1552, -41.9317, -17.9804
3.864, 5, 17.1446, -10.1584, 56.1766, 25.9413, -42.0462, -17.8139
3.868, 5, 17.045, -10.1609, 56.2444, 25.728, -42.1612, -17.6481
3.872, 5, 16.9452, -10.163, 56.312, 25.5154, -42.2768, -17.483
3.876, 5, 16.8452, -10.1646, 56.3792, 25.3035, -42.393, -17.3186
3.88, 5, 16.7451, -10.1658, 56.4463, 25.0922, -42.5097, -17.1548
3.884, 5, 16.6448, -10.1665, 56.513, 24.8816, -42.6269, -16.9918
3.888, 5, 16.5443, -10.1668, 56.5795, 24.6716, -42.7447, -16.8295
3.892, 5, 16.4436, -10.1667, 56.6457, 24.4623, -42.863, -16.6678
3.896, 5, 16.3427, -10.1661, 56.7116, 24.2536, -42.9819, -16.5069
3.9, 5, 16.2417, -10.165, 56.7772, 24.0456, -43.1013, -16.3466
3.904, 5, 16.1405, -10.1635, 56.8426, 23.8383, -43.2213, -16.187
3.908, 5, 16.0391, -10.1616, 56.9077, 23.6316, -43.3418, -16.0282
3.912, 5, 15.9375, -10.1592, 56.9725, 23.4256, -43.4629, -15.87
3.916, 5, 15.8358, -10.1564, 57.037, 23.2202, -43.5845, -15.7125
3.92, 5, 15.7338, -10.1531, 57.1013, 23.0155, -43.7066, -15.5558
3.924, 5, 15.6318, -10.1494, 57.1653, 22.8114, -43.8293, -15.3997
3.928, 5, 15.5295, -10.1452, 57.229, 22.608, -43.9525, -15.2443
3.932, 5, 15.4271, -10.1405, 57.2924, 22.4052, -44.0763, -15.0896
3.936, 5, 15.3245, -10.1354, 57.3555, 22.2031, -44.2006, -14.9356
3.94, 5, 15.2217, -10.1298, 57.4184, 22.0016, -44.3254, -14.7823
3.944, 5, 15.1188, -10.1237, 57.4809, 21.8008, -44.4508, -14.6296
3.948, 5, 15.0157, -10.1172, 57.5432, 21.6006, -44.5766, -14.4777
3.952, 5, 14.9124, -10.1103, 57.6052, 21.4011, -44.7031, -14.3265
3.956, 5, 14.809, -10.1028, 57.6669, 21.2022, -44.83, -14.1759
3.96, 5, 14.7054, -10.0949, 57.7283, 21.004, -44.9575, -14.0261
3.964, 5, 14.6016, -10.0865, 57.7894, 20.8064, -45.0855, -13.8769
3.968, 5, 14.4977, -10.0777, 57.8503, 20.6094, -45.2141, -13.7284
3.972, 5, 14.3936, -10.0684, 57.9108, 20.4131, -45.3431, -13.5806
3.976, 5, 14.2894, -10.0586, 57.971, 20.2174, -45.4727, -13.4335
3.98, 5, 14.185, -10.0483, 58.031, 20.0224, -45.6028, -13.2871
3.984, 5, 14.0804, -10.0376, 58.0906, 19.828, -45.7334, -13.1414
3.988, 5, 13.9757, -10.0264, 58.15, 19.6343, -45.8646, -12.9964
3.992, 5, 13.8709, -10.0147, 58.2091, 19.4412, -45.9963, -12.852
3.996, 5, 13.7658, -10.0025, 58.2679, 19.2487, -46.1285, -12.7084
3.999, 5, 13.6606, -9.98985, 58.3263, 19.0569, -46.2612, -12.5654
4.004, 5, 13.5553, -9.97671, 58.3845, 18.8657, -46.3944, -12.4231
4.008, 5, 13.4498, -9.9631, 58.4424, 18.6751, -46.5282, -12.2815
4.012, 5, 13.3442, -9.94899, 58.5, 18.4852, -46.6624, -12.1406
4.016, 5, 13.2384, -9.93441, 58.5573, 18.2959, -46.7972, -12.0004
4.02, 5, 13.1325, -9.91934, 58.6142, 18.1073, -46.9325, -11.8608
4.024, 5, 13.0264, -9.90378, 58.6709, 17.9193, -47.0683, -11.722
4.028, 5, 12.9201, -9.88773, 58.7273, 17.7319, -47.2046, -11.5838
4.032, 5, 12.8137, -9.8712, 58.7834, 17.5451, -47.3414, -11.4463
4.036, 5, 12.7072, -9.85417, 58.8391, 17.359, -47.4787, -11.3095
4.04, 5, 12.6005, -9.83665, 58.8946, 17.1735, -47.6166, -11.1734
4.044, 5, 12.4937, -9.81863, 58.9497, 16.9887, -47.755, -11.0379
4.048, 5, 12.3867, -9.80013, 59.0046, 16.8044, -47.8938, -10.9032
4.052, 5, 12.2796, -9.78112, 59.0591, 16.6208, -48.0332, -10.7691
4.056, 5, 12.1723, -9.76162, 59.1134, 16.4379, -48.1731, -10.6357
4.06, 5, 12.0649, -9.74162, 59.1673, 16.2555, -48.3134, -10.503
4.064, 5, 11.9574, -9.72113, 59.2209, 16.0738, -48.4543, -10.371
4.068, 5, 11.8497, -9.70013, 59.2742, 15.8927, -48.5957, -10.2396
4.072, 5, 11.7418, -9.67863, 59.3272, 15.7122, -48.7376, -10.109
4.076, 5, 11.6339, -9.65663, 59.3799, 15.5324, -48.88, -9.97899
4.08, 5, 11.5258, -9.63412, 59.4322, 15.3532, -49.0229, -9.84969
4.084, 5, 11.4175, -9.61111, 59.4843, 15.1746, -49.1663, -9.72107
4.088, 5, 11.3092, -9.5876, 59.536, 14.9966, -49.3102, -9.59313
4.092, 5, 11.2007, -9.56358, 59.5874, 14.8193, -49.4546, -9.46586
4.096, 5, 11.092, -9.53905, 59.6385, 14.6426, -49.5994, -9.33928
4.1, 5, 10.9832, -9.51402, 59.6893, 14.4664, -49.7448, -9.21337
4.104, 5, 10.8743, -9.48848, 59.7398, 14.2909, -49.8907, -9.08813
4.108, 5, 10.7653, -9.46243, 59.7899, 14.1161, -50.037, -8.96357
4.112, 5, 10.6562, -9.43587, 59.8397, 13.9418, -50.1838, -8.83968
4.116, 5, 10.5469, -9.4088, 59.8892, 13.7681, -50.3312, -8.71646
4.12, 5, 10.4375, -9.38121, 59.9384, 13.5951, -50.479, -8.59392
4.124, 5, 10.3279, -9.35312, 59.9872, 13.4226, -50.6272, -8.47203
4.128, 5, 10.2183, -9.32452, 60.0358, 13.2507, -50.776, -8.35082
4.132, 5, 10.1085, -9.2954, 60.084, 13.0795, -50.9252, -8.23027
4.136, 5, 9.99858, -9.26577, 60.1318, 12.9088, -51.0749, -8.11038
4.14, 5, 9.88856, -9.23563, 60.1794, 12.7388, -51.225, -7.99116
4.144, 5, 9.77842, -9.20498, 60.2266, 12.5693, -51.3757, -7.87259
4.148, 5, 9.66817, -9.17381, 60.2735, 12.4005, -51.5268, -7.75469
4.152, 5, 9.5578, -9.14213, 60.3201, 12.2322, -51.6783, -7.63744
4.156, 5, 9.44732, -9.10994, 60.3663, 12.0645, -51.8303, -7.52085
4.16, 5, 9.33673, -9.07723, 60.4122, 11.8974, -51.9828, -7.40492
4.164, 5, 9.22602, -9.04401, 60.4578, 11.7309, -52.1357, -7.28964
4.168, 5, 9.11521, -9.01027, 60.503, 11.5649, -52.2891, -7.17501
4.172, 5, 9.00429, -8.97602, 60.5479, 11.3996, -52.4429, -7.06104
4.176, 5, 8.89326, -8.94125, 60.5925, 11.2348, -52.5972, -6.94772
4.18, 5, 8.78212, -8.90596, 60.6368, 11.0706, -52.7519, -6.83505
4.184, 5, 8.67088, -8.87016, 60.6807, 10.907, -52.9071, -6.72303
4.188, 5, 8.55954, -8.83383, 60.7242, 10.744, -53.0627, -6.61165
4.192, 5, 8.44809, -8.797, 60.7675, 10.5815, -53.2187, -6.50093
4.196, 5, 8.33655, -8.75964, 60.8104, 10.4197, -53.3752, -6.39085
4.2, 5, 8.2249, -8.72176, 60.8529, 10.2583, -53.5322, -6.28141
4.204, 5, 8.11315, -8.68336, 60.8951, 10.0976, -53.6895, -6.17262
4.208, 5, 8.00131, -8.64444, 60.937, 9.93741, -53.8473, -6.06448
4.212, 5, 7.88937, -8.605, 60.9785, 9.7778, -54.0055, -5.95697
4.216, 5, 7.77733, -8.56504, 61.0197, 9.61876, -54.1642, -5.85011
4.22, 5, 7.6652, -8.52456, 61.0605, 9.46028, -54.3233, -5.7439
4.224, 5, 7.55298, -8.48355, 61.1011, 9.30236, -54.4828, -5.63832
4.228, 5, 7.44066, -8.44202, 61.1412, 9.14501, -54.6427, -5.53338
4.232, 5, 7.32826, -8.39997, 61.181, 8.98822, -54.8031, -5.42908
4.236, 5, 7.21576, -8.3574, 61.2205, 8.83198, -54.9639, -5.32543
4.24, 5, 7.10318, -8.31429, 61.2596, 8.67631, -55.1251, -5.2224
4.244, 5, 6.99051, -8.27067, 61.2983, 8.52119, -55.2867, -5.12002
4.248, 5, 6.87776, -8.22652, 61.3367, 8.36662, -55.4488, -5.01828
4.252, 5, 6.76492, -8.18185, 61.3748, 8.21261, -55.6112, -4.91716
4.256, 5, 6.652, -8.13665, 61.4125, 8.05915, -55.7741, -4.81669
4.26, 5, 6.539, -8.09093, 61.4499, 7.90624, -55.9373, -4.71684
4.264, 5, 6.42592, -8.04468, 61.4869, 7.75388, -56.101, -4.61762
4.268, 5, 6.31276, -7.99791, 61.5235, 7.60206, -56.2651, -4.51904
4.272, 5, 6.19952, -7.95061, 61.5598, 7.45079, -56.4296, -4.42108
4.276, 5, 6.08621, -7.90279, 61.5957, 7.30005, -56.5944, -4.32375
4.28, 5, 5.97283, -7.85445, 61.6313, 7.14985, -56.7597, -4.22704
4.284, 5, 5.85937, -7.80559, 61.6665, 7.00019, -56.9254, -4.13096
4.288, 5, 5.74585, -7.7562, 61.7014, 6.85106, -57.0914, -4.03549
4.292, 5, 5.63225, -7.70629, 61.7359, 6.70246, -57.2578, -3.94065
4.296, 5, 5.51859, -7.65587, 61.77, 6.55438, -57.4246, -3.84641
4.3, 5, 5.40486, -7.60492, 61.8038, 6.40683, -57.5918, -3.7528
4.304, 5, 5.29106, -7.55345, 61.8372, 6.2598, -57.7593, -3.65979
4.308, 5, 5.1772, -7.50147, 61.8703, 6.1133, -57.9272, -3.5674
4.312, 5, 5.06328, -7.44897, 61.903, 5.96731, -58.0955, -3.47562
4.316, 5, 4.9493, -7.39595, 61.9353, 5.82183, -58.2642, -3.38444
4.32, 5, 4.83526, -7.34242, 61.9673, 5.67687, -58.4332, -3.29387
4.324, 5, 4.72116, -7.28837, 61.9989, 5.53241, -58.6025, -3.2039
4.328, 5, 4.60701, -7.23381, 62.0302, 5.38846, -58.7722, -3.11453
4.332, 5, 4.49281, -7.17873, 62.0611, 5.24502, -58.9423, -3.02576
4.336, 5, 4.37855, -7.12315, 62.0916, 5.10208, -59.1127, -2.93759
4.34, 5, 4.26424, -7.06705, 62.1217, 4.95965, -59.2834, -2.85002
4.344, 5, 4.14987, -7.01044, 62.1515, 4.81771, -59.4545, -2.76304
4.348, 5, 4.03547, -6.95332, 62.1809, 4.67626, -59.6259, -2.67665
4.352, 5, 3.92101, -6.8957, 62.21, 4.53531, -59.7977, -2.59086
4.356, 5, 3.80651, -6.83756, 62.2387, 4.39486, -59.9698, -2.50566
4.36, 5, 3.69196, -6.77892, 62.267, 4.25489, -60.1422, -2.42104
4.364, 5, 3.57737, -6.71977, 62.2949, 4.11541, -60.3149, -2.33701
4.368, 5, 3.46274, -6.66011, 62.3225, 3.97641, -60.4879, -2.25357
4.372, 5, 3.34808, -6.59995, 62.3497, 3.8379, -60.6613, -2.17072
4.376, 5, 3.23337, -6.53928, 62.3765, 3.69987, -60.835, -2.08844
4.38, 5, 3.11862, -6.47811, 62.4029, 3.56232, -61.009, -2.00675
4.384, 5, 3.00384, -6.41643, 62.429, 3.42525, -61.1833, -1.92564
4.388, 5, 2.88903, -6.35425, 62.4547, 3.28865, -61.3579, -1.8451
4.392, 5, 2.77419, -6.29157, 62.48, 3.15253, -61.5328, -1.76515
4.396, 5, 2.65931, -6.22839, 62.505, 3.01687, -61.708, -1.68576
4.4, 5, 2.5444, -6.1647, 62.5295, 2.88169, -61.8835, -1.60696
4.404, 5, 2.42946, -6.10048, 62.5537, 2.74697, -62.0593, -1.52873
4.408, 5, 2.31448, -6.03569, 62.5775, 2.61272, -62.2354, -1.45107
4.412, 5, 2.19945, -5.97025, 62.6008, 2.47893, -62.4117, -1.37397
4.416, 5, 2.08438, -5.90404, 62.6237, 2.34559, -62.5884, -1.29745
4.42, 5, 1.96926, -5.83695, 62.6461, 2.21271, -62.7654, -1.22149
4.424, 5, 1.85411, -5.76885, 62.6678, 2.08028, -62.9427, -1.1461
4.428, 5, 1.73897, -5.69958, 62.6889, 1.94829, -63.1204, -1.07127
4.432, 5, 1.62386, -5.62902, 62.7092, 1.81675, -63.2986, -0.996996
4.436, 5, 1.50883, -5.55701, 62.7286, 1.68568, -63.4772, -0.923293
4.44, 5, 1.39391, -5.48341, 62.7469, 1.55508, -63.6564, -0.850167
4.444, 5, 1.27913, -5.40803, 62.764, 1.42499, -63.8362, -0.777631
4.448, 5, 1.16451, -5.33065, 62.7796, 1.29544, -64.0166, -0.705706
4.452, 5, 1.05008, -5.25103, 62.7936, 1.16649, -64.1978, -0.63442
4.456, 5, 0.935897, -5.16896, 62.8058, 1.03821, -64.3798, -0.563804
4.46, 6, 0.822022, -5.08428, 62.8159, 0.91066, -64.5625, -0.493899
4.464, 6, 0.708551, -4.9969, 62.8238, 0.783935, -64.7461, -0.424748
4.468, 6, 0.595591, -4.90678, 62.8292, 0.658126, -64.9306, -0.3564
4.472, 6, 0.48325, -4.81396, 62.832, 0.533333, -65.1159, -0.288904
4.476, 6, 0.371628, -4.7185, 62.8319, 0.409661, -65.3019, -0.222316
4.48, 6, 0.260808, -4.62041, 62.8289, 0.287212, -65.4886, -0.156686
4.484, 6, 0.150848, -4.51971, 62.8229, 0.166087, -65.6759, -0.0920657
4.488, 6, 0.0417867, -4.41632, 62.8138, 0.0463739, -65.8638, -0.0284979
4.492, 6, -0.0663522, -4.3102, 62.8016, -0.0718544, -66.052, 0.0339826
4.496, 6, -0.173552, -4.20127, 62.7863, -0.188546, -66.2404, 0.0953523
4.5, 6, -0.279805, -4.08952, 62.7679, -0.303675, -66.429, 0.155601
4.504, 6, -0.385114, -3.975, 62.7467, -0.417238, -66.6176, 0.214732
4.508, 6, -0.489496, -3.8578, 62.7227, -0.529257, -66.8062, 0.27276
4.512, 6, -0.59299, -3.73808, 62.6961, -0.639776, -66.9946, 0.329712
4.516, 6, -0.695653, -3.61599, 62.667, -0.748856, -67.1827, 0.385625
4.52, 6, -0.797562, -3.49174, 62.6358, -0.856574, -67.3706, 0.440544
4.524, 6, -0.898796, -3.36555, 62.6026, -0.963017, -67.5582, 0.494519
4.528, 6, -0.999426, -3.23761, 62.5675, -1.06828, -67.7455, 0.547603
4.532, 6, -1.0995, -3.10813, 62.5309, -1.17247, -67.9324, 0.599852
4.536, 6, -1.19903, -2.97731, 62.4929, -1.27568, -68.119, 0.651324
4.54, 6, -1.29802, -2.84532, 62.4537, -1.378, -68.3053, 0.70207
4.544, 6, -1.39647, -2.71233, 62.4135, -1.47953, -68.4913, 0.75214
4.548, 6, -1.49439, -2.57851, 62.3723, -1.58034, -68.677, 0.801577
4.552, 6, -1.59179, -2.444, 62.3304, -1.68049, -68.8624, 0.850417
4.556, 6, -1.68872, -2.30893, 62.2878, -1.78004, -69.0475, 0.898688
4.56, 6, -1.78522, -2.17343, 62.2446, -1.87901, -69.2324, 0.946414
4.564, 6, -1.88136, -2.03759, 62.2009, -1.97744, -69.4171, 0.993613
4.568, 6, -1.97718, -1.90149, 62.1567, -2.07534, -69.6015, 1.0403
4.572, 6, -2.07272, -1.7652, 62.112, -2.17273, -69.7857, 1.08648
4.576, 6, -2.16799, -1.62874, 62.0669, -2.26962, -69.9696, 1.13217
4.58, 6, -2.26301, -1.49215, 62.0214, -2.36602, -70.1533, 1.17737
4.584, 6, -2.3578, -1.35544, 61.9755, -2.46194, -70.3368, 1.2221
4.588, 6, -2.45235, -1.21864, 61.9291, -2.55738, -70.52, 1.26635
4.592, 6, -2.54669, -1.08174, 61.8824, -2.65234, -70.7029, 1.31013
4.596, 6, -2.64079, -0.94477, 61.8353, -2.74684, -70.8856, 1.35345
4.6, 6, -2.73468, -0.807723, 61.7878, -2.84087, -71.068, 1.39632
4.604, 6, -2.82835, -0.670607, 61.74, -2.93445, -71.2501, 1.43873
4.608, 6, -2.9218, -0.533428, 61.6917, -3.02756, -71.432, 1.4807
4.612, 6, -3.01504, -0.39619, 61.6431, -3.12023, -71.6136, 1.52223
4.616, 6, -3.10805, -0.258896, 61.5941, -3.21244, -71.795, 1.56332
4.62, 6, -3.20085, -0.121551, 61.5446, -3.30421, -71.976, 1.60398
4.624, 6, -3.29343, 0.0158439, 61.4949, -3.39554, -72.1568, 1.64422
4.628, 6, -3.38579, 0.153284, 61.4447, -3.48643, -72.3373, 1.68403
4.632, 6, -3.47794, 0.290766, 61.3942, -3.57689, -72.5175, 1.72342
4.636, 6, -3.56986, 0.428288, 61.3432, -3.66691, -72.6974, 1.76241
4.64, 6, -3.66157, 0.565846, 61.292, -3.75651, -72.877, 1.80098
4.644, 6, -3.75306, 0.703437, 61.2403, -3.84568, -73.0563, 1.83915
4.648, 6, -3.84433, 0.841058, 61.1882, -3.93443, -73.2353, 1.87692
4.652, 6, -3.93539, 0.978708, 61.1358, -4.02277, -73.414, 1.9143
4.656, 6, -4.02622, 1.11638, 61.083, -4.11069, -73.5924, 1.95129
4.66, 6, -4.11684, 1.25408, 61.0298, -4.19819, -73.7705, 1.9879
4.664, 6, -4.20724, 1.39179, 60.9763, -4.28529, -73.9482, 2.02412
4.668, 6, -4.29741, 1.52952, 60.9224, -4.37199, -74.1257, 2.05997
4.672, 6, -4.38737, 1.66727, 60.8681, -4.45828, -74.3028, 2.09544
4.676, 6, -4.47711, 1.80503, 60.8134, -4.54418, -74.4796, 2.13055
4.68, 6, -4.56663, 1.94279, 60.7584, -4.62968, -74.6561, 2.1653
4.684, 6, -4.65594, 2.08056, 60.703, -4.71479, -74.8322, 2.19969
4.688, 6, -4.74502, 2.21834, 60.6472, -4.79951, -75.008, 2.23372
4.692, 6, -4.83388, 2.35611, 60.591, -4.88385, -75.1834, 2.26741
4.696, 6, -4.92252, 2.49388, 60.5345, -4.9678, -75.3586, 2.30075
4.7, 6, -5.01094, 2.63165, 60.4776, -5.05138, -75.5333, 2.33374
4.704, 6, -5.09915, 2.76941, 60.4204, -5.13458, -75.7078, 2.36641
4.708, 6, -5.18713, 2.90716, 60.3628, -5.21741, -75.8819, 2.39873
4.712, 6, -5.27489, 3.0449, 60.3048, -5.29987, -76.0556, 2.43073
4.716, 6, -5.36244, 3.18262, 60.2464, -5.38196, -76.229, 2.46241
4.72, 6, -5.44976, 3.32033, 60.1877, -5.46369, -76.402, 2.49376
4.724, 6, -5.53686, 3.45802, 60.1287, -5.54506, -76.5747, 2.5248
4.728, 6, -5.62375, 3.59568, 60.0692, -5.62607, -76.747, 2.55553
4.732, 6, -5.71041, 3.73332, 60.0094, -5.70673, -76.9189, 2.58595
4.736, 6, -5.79686, 3.87093, 59.9493, -5.78704, -77.0905, 2.61606
4.74, 6, -5.88308, 4.00851, 59.8887, -5.867, -77.2617, 2.64588
4.744, 6, -5.96909, 4.14607, 59.8279, -5.94661, -77.4325, 2.6754
4.748, 6, -6.05487, 4.28358, 59.7666, -6.02589, -77.603, 2.70462
4.752, 6, -6.14043, 4.42106, 59.705, -6.10482, -77.7731, 2.73356
4.756, 6, -6.22577, 4.55851, 59.6431, -6.18342, -77.9428, 2.76221
4.76, 6, -6.31089, 4.69591, 59.5807, -6.26168, -78.1121, 2.79058
4.764, 6, -6.39579, 4.83327, 59.5181, -6.33962, -78.281, 2.81868
4.768, 6, -6.48047, 4.97058, 59.455, -6.41722, -78.4496, 2.8465
4.772, 6, -6.56493, 5.10785, 59.3917, -6.4945, -78.6178, 2.87405
4.776, 6, -6.64917, 5.24507, 59.3279, -6.57145, -78.7855, 2.90134
4.78, 6, -6.73319, 5.38223, 59.2638, -6.64808, -78.9529, 2.92836
4.784, 6, -6.81699, 5.51935, 59.1994, -6.7244, -79.1199, 2.95513
4.788, 6, -6.90057, 5.65641, 59.1346, -6.80039, -79.2865, 2.98164
4.792, 6, -6.98393, 5.79341, 59.0694, -6.87607, -79.4527, 3.00789
4.796, 6, -7.06708, 5.93035, 59.004, -6.95143, -79.6185, 3.0339
4.8, 6, -7.15, 6.06723, 58.9381, -7.02648, -79.784, 3.05966
4.804, 6, -7.2327, 6.20405, 58.8719, -7.10122, -79.9489, 3.08519
4.808, 6, -7.31519, 6.34081, 58.8054, -7.17565, -80.1135, 3.11047
4.812, 6, -7.39746, 6.47749, 58.7385, -7.24977, -80.2778, 3.13552
4.816, 6, -7.4795, 6.61411, 58.6712, -7.32358, -80.4416, 3.16034
4.82, 6, -7.56133, 6.75066, 58.6036, -7.39709, -80.6049, 3.18492
4.824, 6, -7.64294, 6.88714, 58.5357, -7.47029, -80.7679, 3.20929
4.828, 6, -7.72433, 7.02355, 58.4674, -7.5432, -80.9305, 3.23343
4.832, 6, -7.80551, 7.15988, 58.3988, -7.6158, -81.0927, 3.25736
4.836, 6, -7.88646, 7.29613, 58.3298, -7.6881, -81.2544, 3.28107
4.84, 6, -7.9672, 7.43231, 58.2605, -7.7601, -81.4157, 3.30456
4.844, 6, -8.04772, 7.56841, 58.1909, -7.83181, -81.5767, 3.32785
4.848, 6, -8.12802, 7.70443, 58.1209, -7.90322, -81.7372, 3.35094
4.852, 6, -8.20811, 7.84036, 58.0505, -7.97434, -81.8973, 3.37382
4.856, 6, -8.28797, 7.97622, 57.9799, -8.04517, -82.057, 3.3965
4.86, 6, -8.36762, 8.11198, 57.9088, -8.1157, -82.2162, 3.41899
4.864, 6, -8.44705, 8.24766, 57.8375, -8.18595, -82.375, 3.44129
4.868, 6, -8.52627, 8.38326, 57.7658, -8.25591, -82.5335, 3.46339
4.872, 6, -8.60526, 8.51876, 57.6937, -8.32558, -82.6915, 3.48531
4.876, 6, -8.68405, 8.65417, 57.6214, -8.39497, -82.8491, 3.50705
4.88, 6, -8.76261, 8.78949, 57.5487, -8.46407, -83.0062, 3.5286
4.884, 6, -8.84096, 8.92472, 57.4756, -8.53289, -83.1629, 3.54998
4.888, 6, -8.91909, 9.05985, 57.4022, -8.60144, -83.3193, 3.57119
4.892, 6, -8.99701, 9.19489, 57.3285, -8.6697, -83.4751, 3.59222
4.896, 6, -9.07471, 9.32983, 57.2545, -8.73768, -83.6306, 3.61308
4.9, 6, -9.1522, 9.46467, 57.1801, -8.80539, -83.7856, 3.63378
4.904, 6, -9.22947, 9.59941, 57.1054, -8.87282, -83.9402, 3.65431
4.908, 6, -9.30652, 9.73405, 57.0304, -8.93998, -84.0944, 3.67469
4.912, 6, -9.38336, 9.86858, 56.955, -9.00686, -84.2481, 3.6949
4.916, 6, -9.45999, 10.003, 56.8793, -9.07348, -84.4015, 3.71497
4.92, 6, -9.5364, 10.1373, 56.8033, -9.13982, -84.5543, 3.73488
4.924, 6, -9.6126, 10.2716, 56.7269, -9.2059, -84.7068, 3.75464
4.928, 6, -9.68858, 10.4057, 56.6502, -9.27171, -84.8588, 3.77426
4.932, 6, -9.76435, 10.5397, 56.5732, -9.33725, -85.0104, 3.79373
4.936, 6, -9.83991, 10.6736, 56.4959, -9.40253, -85.1616, 3.81306
4.94, 6, -9.91525, 10.8074, 56.4182, -9.46755, -85.3123, 3.83225
4.944, 6, -9.99038, 10.941, 56.3402, -9.5323, -85.4626, 3.85131
4.948, 6, -10.0653, 11.0746, 56.2619, -9.59679, -85.6124, 3.87024
4.952, 6, -10.14, 11.2081, 56.1833, -9.66103, -85.7618, 3.88903
4.956, 6, -10.2145, 11.3414, 56.1043, -9.72501, -85.9108, 3.9077
4.96, 6, -10.2888, 11.4746, 56.0251, -9.78873, -86.0594, 3.92625
4.964, 6, -10.3628, 11.6077, 55.9455, -9.85219, -86.2075, 3.94467
4.968, 6, -10.4367, 11.7407, 55.8655, -9.9154, -86.3551, 3.96297
4.972, 6, -10.5104, 11.8735, 55.7853, -9.97836, -86.5024, 3.98115
4.976, 6, -10.5838, 12.0063, 55.7048, -10.0411, -86.6492, 3.99922
4.98, 6, -10.657, 12.1389, 55.6239, -10.1035, -86.7955, 4.01717
4.984, 6, -10.73, 12.2714, 55.5427, -10.1657, -86.9414, 4.03502
4.988, 6, -10.8028, 12.4038, 55.4612, -10.2277, -87.0869, 4.05276
4.992, 6, -10.8754, 12.536, 55.3794, -10.2894, -87.2319, 4.07039
4.996, 6, -10.9478, 12.6682, 55.2972, -10.3509, -87.3765, 4.08792
5, 6, -11.02, 12.8001, 55.2148, -10.4121, -87.5207, 4.10535
5.004, 6, -11.092, 12.932, 55.132, -10.4731, -87.6644, 4.12268
5.008, 6, -11.1637, 13.0638, 55.0489, -10.5338, -87.8076, 4.13992
5.012, 6, -11.2353, 13.1954, 54.9656, -10.5943, -87.9505, 4.15706
5.016, 6, -11.3066, 13.3269, 54.8819, -10.6546, -88.0929, 4.17411
5.02, 6, -11.3777, 13.4582, 54.7979, -10.7146, -88.2348, 4.19107
5.024, 6, -11.4487, 13.5895, 54.7135, -10.7744, -88.3763, 4.20795
5.028, 6, -11.5194, 13.7206, 54.6289, -10.8339, -88.5174, 4.22474
5.032, 6, -11.5899, 13.8515, 54.544, -10.8932, -88.658, 4.24145
5.036, 6, -11.6602, 13.9824, 54.4587, -10.9522, -88.7982, 4.25808
5.04, 6, -11.7303, 14.1131, 54.3732, -11.011, -88.9379, 4.27463
5.044, 6, -11.8002, 14.2437, 54.2873, -11.0696, -89.0772, 4.2911
5.048, 6, -11.8699, 14.3741, 54.2012, -11.128, -89.2161, 4.3075
5.052, 6, -11.9394, 14.5044, 54.1147, -11.1861, -89.3545, 4.32383
5.056, 6, -12.0086, 14.6346, 54.0279, -11.2439, -89.4924, 4.3401
5.06, 6, -12.0777, 14.7646, 53.9408, -11.3016, -89.63, 4.35629
5.064, 6, -12.1466, 14.8945, 53.8535, -11.3589, -89.7671, 4.37242
5.068, 6, -12.2153, 15.0243, 53.7658, -11.4161, -89.9038, 4.38849
5.072, 6, -12.2837, 15.1539, 53.6778, -11.473, -90.04, 4.40449
5.076, 6, -12.352, 15.2835, 53.5895, -11.5297, -90.1758, 4.42044
5.08, 6, -12.4201, 15.4128, 53.5009, -11.5862, -90.3111, 4.43633
5.084, 6, -12.4879, 15.5421, 53.4121, -11.6424, -90.4461, 4.45216
5.088, 6, -12.5556, 15.6712, 53.3229, -11.6984, -90.5805, 4.46795
5.092, 6, -12.623, 15.8001, 53.2334, -11.7541, -90.7146, 4.48368
5.096, 6, -12.6903, 15.9289, 53.1436, -11.8096, -90.8482, 4.49936
5.1, 6, -12.7574, 16.0576, 53.0535, -11.8649, -90.9814, 4.515
5.104, 6, -12.8242, 16.1862, 52.9632, -11.92, -91.1141, 4.53059
5.108, 6, -12.8909, 16.3146, 52.8725, -11.9748, -91.2464, 4.54614
5.112, 6, -12.9573, 16.4429, 52.7815, -12.0294, -91.3783, 4.56164
5.116, 6, -13.0236, 16.571, 52.6903, -12.0838, -91.5098, 4.57711
5.12, 6, -13.0897, 16.699, 52.5987, -12.1379, -91.6408, 4.59254
5.124, 6, -13.1555, 16.8269, 52.5069, -12.1918, -91.7714, 4.60794
5.128, 6, -13.2212, 16.9547, 52.4147, -12.2455, -91.9015, 4.6233
5.132, 6, -13.2867, 17.0822, 52.3223, -12.2989, -92.0312, 4.63863
5.136, 6, -13.3519, 17.2097, 52.2296, -12.3521, -92.1605, 4.65393
5.14, 6, -13.417, 17.337, 52.1365, -12.4051, -92.2894, 4.6692
5.144, 6, -13.4819, 17.4642, 52.0432, -12.4579, -92.4178, 4.68444
5.148, 6, -13.5466, 17.5912, 51.9496, -12.5104, -92.5458, 4.69966
5.152, 6, -13.6111, 17.7181, 51.8558, -12.5627, -92.6734, 4.71485
5.156, 6, -13.6754, 17.8449, 51.7616, -12.6148, -92.8005, 4.73003
5.16, 6, -13.7394, 17.9715, 51.6671, -12.6666, -92.9272, 4.74518
5.164, 6, -13.8034, 18.098, 51.5724, -12.7183, -93.0535, 4.76032
5.168, 6, -13.8671, 18.2243, 51.4773, -12.7697, -93.1794, 4.77544
5.172, 6, -13.9306, 18.3505, 51.382, -12.8208, -93.3048, 4.79054
5.176, 6, -13.9939, 18.4766, 51.2864, -12.8718, -93.4298, 4.80563
5.18, 6, -14.057, 18.6025, 51.1905, -12.9225, -93.5544, 4.82071
5.184, 6, -14.12, 18.7283, 51.0943, -12.973, -93.6786, 4.83578
5.188, 6, -14.1827, 18.8539, 50.9979, -13.0233, -93.8023, 4.85085
5.192, 6, -14.2453, 18.9794, 50.9011, -13.0734, -93.9256, 4.8659
5.196, 6, -14.3076, 19.1048, 50.8041, -13.1232, -94.0485, 4.88095
5.2, 6, -14.3698, 19.23, 50.7068, -13.1728, -94.171, 4.896
5.204, 6, -14.4318, 19.3551, 50.6092, -13.2222, -94.293, 4.91104
5.208, 6, -14.4936, 19.48, 50.5113, -13.2714, -94.4146, 4.92609
5.212, 6, -14.5552, 19.6048, 50.4132, -13.3203, -94.5358, 4.94113
5.216, 6, -14.6166, 19.7295, 50.3147, -13.369, -94.6566, 4.95618
5.22, 6, -14.6778, 19.854, 50.216, -13.4175, -94.7769, 4.97124
5.224, 6, -14.7388, 19.9783, 50.117, -13.4658, -94.8969, 4.98629
5.228, 6, -14.7997, 20.1026, 50.0178, -13.5139, -95.0164, 5.00136
5.232, 6, -14.8603, 20.2267, 49.9182, -13.5617, -95.1355, 5.01643
5.236, 6, -14.9208, 20.3506, 49.8184, -13.6093, -95.2541, 5.03152
5.24, 6, -14.9811, 20.4744, 49.7183, -13.6567, -95.3724, 5.04662
5.244, 6, -15.0412, 20.5981, 49.6179, -13.7039, -95.4902, 5.06172
5.248, 6, -15.1011, 20.7216, 49.5172, -13.7509, -95.6077, 5.07685
5.252, 6, -15.1608, 20.845, 49.4163, -13.7976, -95.7247, 5.09199
5.256, 6, -15.2204, 20.9683, 49.3151, -13.8441, -95.8413, 5.10714
5.26, 6, -15.2797, 21.0914, 49.2136, -13.8904, -95.9575, 5.12232
5.264, 6, -15.3389, 21.2144, 49.1118, -13.9365, -96.0733, 5.13751
5.268, 6, -15.3979, 21.3372, 49.0098, -13.9823, -96.1887, 5.15273
5.272, 6, -15.4567, 21.4599, 48.9075, -14.0279, -96.3036, 5.16797
5.276, 6, -15.5153, 21.5825, 48.8049, -14.0734, -96.4182, 5.18323
5.28, 6, -15.5737, 21.7049, 48.7021, -14.1185, -96.5323, 5.19852
5.284, 6, -15.632, 21.8272, 48.5989, -14.1635, -96.6461, 5.21383
5.288, 6, -15.6901, 21.9494, 48.4956, -14.2083, -96.7594, 5.22917
5.292, 6, -15.748, 22.0714, 48.3919, -14.2528, -96.8724, 5.24454
5.296, 6, -15.8057, 22.1933, 48.288, -14.2971, -96.9849, 5.25994
5.3, 6, -15.8632, 22.3151, 48.1838, -14.3412, -97.097, 5.27537
5.304, 6, -15.9206, 22.4367, 48.0793, -14.3851, -97.2088, 5.29083
5.308, 6, -15.9778, 22.5582, 47.9746, -14.4287, -97.3201, 5.30632
5.312, 6, -16.0348, 22.6795, 47.8696, -14.4721, -97.431, 5.32186
5.316, 6, -16.0916, 22.8007, 47.7643, -14.5153, -97.5416, 5.33742
5.32, 6, -16.1482, 22.9218, 47.6587, -14.5583, -97.6517, 5.35303
5.324, 6, -16.2047, 23.0428, 47.5529, -14.6011, -97.7615, 5.36867
5.328, 6, -16.261, 23.1636, 47.4469, -14.6437, -97.8708, 5.38435
5.332, 6, -16.3171, 23.2843, 47.3405, -14.686, -97.9798, 5.40007
5.336, 6, -16.373, 23.4049, 47.2339, -14.7281, -98.0883, 5.41584
5.34, 6, -16.4288, 23.5253, 47.127, -14.77, -98.1965, 5.43164
5.344, 6, -16.4844, 23.6456, 47.0199, -14.8117, -98.3043, 5.4475
5.348, 6, -16.5398, 23.7658, 46.9125, -14.8531, -98.4117, 5.46339
5.352, 6, -16.5951, 23.8858, 46.8048, -14.8944, -98.5187, 5.47934
5.356, 6, -16.6501, 24.0057, 46.6969, -14.9354, -98.6253, 5.49533
5.36, 6, -16.705, 24.1255, 46.5887, -14.9762, -98.7315, 5.51137
5.364, 6, -16.7597, 24.2452, 46.4803, -15.0167, -98.8373, 5.52746
5.368, 6, -16.8143, 24.3647, 46.3716, -15.0571, -98.9428, 5.5436
5.372, 6, -16.8687, 24.4841, 46.2626, -15.0972, -99.0479, 5.55979
5.376, 6, -16.9229, 24.6033, 46.1533, -15.1372, -99.1525, 5.57603
5.38, 6, -16.9769, 24.7225, 46.0438, -15.1769, -99.2568, 5.59233
5.384, 6, -17.0307, 24.8415, 45.9341, -15.2163, -99.3607, 5.60869
5.388, 6, -17.0844, 24.9603, 45.8241, -15.2556, -99.4642, 5.6251
5.392, 6, -17.138, 25.0791, 45.7138, -15.2946, -99.5674, 5.64157
5.396, 6, -17.1913, 25.1977, 45.6033, -15.3335, -99.6701, 5.65809
5.4, 6, -17.2442, 25.316, 45.4925, -15.3721, -99.7725, 5.67468
5.404, 6, -17.2967, 25.4339, 45.3817, -15.4104, -99.8744, 5.69132
5.408, 6, -17.3486, 25.5511, 45.2708, -15.4486, -99.976, 5.70801
5.412, 6, -17.3996, 25.6674, 45.1601, -15.4864, -100.077, 5.72475
5.416, 6, -17.4496, 25.7824, 45.0497, -15.524, -100.178, 5.7415
5.42, 6, -17.4986, 25.896, 44.9398, -15.5612, -100.277, 5.75825
5.424, 6, -17.5464, 26.0078, 44.8308, -15.598, -100.376, 5.77495
5.428, 6, -17.5932, 26.1177, 44.723, -15.6342, -100.474, 5.79154
5.432, 6, -17.6389, 26.2253, 44.6166, -15.6698, -100.569, 5.80797
5.436, 6, -17.6834, 26.3305, 44.512, -15.7045, -100.663, 5.82416
5.44, 6, -17.7267, 26.4328, 44.4098, -15.7383, -100.755, 5.84005
5.444, 6, -17.7684, 26.5318, 44.3103, -15.771, -100.844, 5.85555
5.448, 6, -17.8086, 26.6271, 44.2141, -15.8025, -100.929, 5.87057
5.452, 6, -17.8471, 26.7186, 44.1215, -15.8326, -101.011, 5.88504
5.456, 6, -17.8839, 26.8059, 44.0331, -15.8611, -101.089, 5.89887
5.46, 6, -17.919, 26.8889, 43.9492, -15.888, -101.162, 5.91199
5.464, 6, -17.9524, 26.9676, 43.8701, -15.9131, -101.231, 5.92432
5.468, 6, -17.984, 27.0417, 43.796, -15.9364, -101.295, 5.93582
5.472, 6, -18.0139, 27.111, 43.7272, -15.9578, -101.353, 5.94644
5.476, 6, -18.0418, 27.1754, 43.6639, -15.9772, -101.407, 5.95617
5.48, 6, -18.0677, 27.2348, 43.6061, -15.9948, -101.455, 5.965
5.484, 6, -18.0916, 27.2889, 43.5538, -16.0105, -101.498, 5.97292
5.488, 6, -18.1134, 27.338, 43.507, -16.0243, -101.536, 5.97997
5.492, 6, -18.1332, 27.3821, 43.4654, -16.0365, -101.57, 5.98618
5.496, 6, -18.1511, 27.4215, 43.4289, -16.047, -101.599, 5.99156
5.5, 6, -18.1673, 27.4564, 43.3971, -16.056, -101.623, 5.99619
5.504, 6, -18.1817, 27.4872, 43.3697, -16.0636, -101.644, 6.00011
5.508, 6, -18.1946, 27.5141, 43.3463, -16.0699, -101.662, 6.00339
5.512, 6, -18.206, 27.5372, 43.3267, -16.0751, -101.676, 6.00608
5.516, 6, -18.2159, 27.5568, 43.3104, -16.0793, -101.687, 6.00827
5.52, 6, -18.2244, 27.5733, 43.2971, -16.0827, -101.697, 6.01002
5.524, 6, -18.2317, 27.587, 43.2864, -16.0853, -101.704, 6.0114
5.528, 6, -18.238, 27.5983, 43.2778, -16.0873, -101.709, 6.01245
5.532, 6, -18.2434, 27.6075, 43.2711, -16.0888, -101.713, 6.01325
5.536, 6, -18.2481, 27.6149, 43.2659, -16.0899, -101.716, 6.01384
5.54, 6, -18.252, 27.6207, 43.262, -16.0907, -101.719, 6.01426
5.544, 7, -18.2551, 27.6252, 43.259, -16.0913, -101.72, 6.01456
5.548, 7, -18.2577, 27.6287, 43.2569, -16.0917, -101.721, 6.01477
5.552, 7, -18.2596, 27.6311, 43.2554, -16.092, -101.722, 6.01491
5.556, 7, -18.261, 27.6329, 43.2543, -16.0921, -101.722, 6.01501
5.56, 7, -18.2619, 27.6341, 43.2536, -16.0923, -101.723, 6.01508
5.564, 7, -18.2625, 27.6349, 43.2531, -16.0923, -101.723, 6.01512
5.568, 7, -18.263, 27.6354, 43.2528, -16.0924, -101.723, 6.01515
5.572, 7, -18.2633, 27.6358, 43.2525, -16.0924, -101.723, 6.01517
5.576, 7, -18.2635, 27.6361, 43.2524, -16.0925, -101.723, 6.01519
5.58, 7, -18.2636, 27.6362, 43.2523, -16.0925, -101.723, 6.0152
5.584, 7, -18.2637, 27.6364, 43.2522, -16.0925, -101.723, 6.0152
5.588, 7, -18.2638, 27.6364, 43.2522, -16.0925, -101.723, 6.01521
5.592, 7, -18.2638, 27.6365, 43.2521, -16.0925, -101.723, 6.01521
5.596, 7, -18.2638, 27.6365, 43.2521, -16.0925, -101.723, 6.01521
5.6, 7, -18.2638, 27.6366, 43.2521, -16.0925, -101.723, 6.01521
5.604, 7, -18.2639, 27.6366, 43.2521, -16.0925, -101.723, 6.01521
5.608, 7, -18.2639, 27.6366, 43.2521, -16.0925, -101.723, 6.01521
5.612, 7, -18.2639, 27.6366, 43.2521, -16.0925, -101.723, 6.01521
5.616, 7, -18.2639, 27.6366, 43.2521, -16.0925, -101.723, 6.01521
5.62, 7, -18.2639, 27.6366, 43.2521, -16.0925, -101.723, 6.01522
5.624, 7, -18.2639, 27.6366, 43.2521, -16.0925, -101.723, 6.01522
5.628, 7, -18.2639, 27.6366, 43.2521, -16.0925, -101.723, 6.01522
5.632, 7, -18.2639, 27.6366, 43.2521, -16.0925, -101.723, 6.01522
5.636, 7, -18.2639, 27.6366, 43.2521, -16.0925, -101.723, 6.01522
5.64, 7, -18.2639, 27.6366, 43.2521, -16.0925, -101.723, 6.01522
5.644, 7, -18.2639, 27.6366, 43.2521, -16.0925, -101.723, 6.01522
5.648, 7, -18.2639, 27.6366, 43.2521, -16.0925, -101.723, 6.01522
5.652, 7, -18.2639, 27.6366, 43.2521, -16.0925, -101.723, 6.01522
5.656, 7, -18.2639, 27.6366, 43.2521, -16.0925, -101.723, 6.01522
5.66, 7, -18.2639, 27.6366, 43.2521, -16.0925, -101.723, 6.01522
