hehonglu123/ABB_Primitive_Study/execution/movel_30_car_close/curve_exe_v50_z20.csv
timestamp, cmd_num, J1, J2, J3, J4, J5, J6
0, -1, -13.4393, 43.6787, 12.5946, -11.6275, -87.029, 7.42441
0.002, -1, -13.4393, 43.6787, 12.5946, -11.6275, -87.029, 7.42441
0.006, -1, -13.4393, 43.6787, 12.5946, -11.6275, -87.029, 7.42441
0.008, -1, -13.4393, 43.6787, 12.5946, -11.6275, -87.029, 7.42441
0.011, -1, -13.4393, 43.6787, 12.5946, -11.6275, -87.029, 7.42441
0.016, -1, -13.4393, 43.6787, 12.5946, -11.6275, -87.029, 7.42441
0.02, -1, -13.4393, 43.6787, 12.5946, -11.6275, -87.029, 7.42441
0.024, -1, -13.4393, 43.6787, 12.5946, -11.6275, -87.029, 7.42441
0.028, -1, -13.4393, 43.6787, 12.5946, -11.6275, -87.029, 7.42441
0.032, -1, -13.4393, 43.6786, 12.5946, -11.6275, -87.029, 7.42441
0.036, -1, -13.4392, 43.6786, 12.5946, -11.6275, -87.029, 7.42441
0.04, -1, -13.439, 43.6784, 12.5947, -11.6275, -87.029, 7.42441
0.044, -1, -13.4383, 43.6778, 12.5948, -11.6275, -87.029, 7.42439
0.048, -1, -13.4372, 43.6767, 12.595, -11.6274, -87.0289, 7.42434
0.052, -1, -13.4354, 43.6748, 12.5954, -11.6273, -87.0288, 7.42423
0.056, -1, -13.4328, 43.6721, 12.596, -11.627, -87.0286, 7.42399
0.06, -1, -13.4293, 43.6685, 12.597, -11.6264, -87.0281, 7.42354
0.064, -1, -13.425, 43.6638, 12.5985, -11.6253, -87.0272, 7.42275
0.068, -1, -13.4196, 43.658, 12.6005, -11.6236, -87.0258, 7.42149
0.072, -1, -13.4132, 43.6509, 12.6033, -11.621, -87.0236, 7.41956
0.076, -1, -13.4055, 43.6423, 12.607, -11.6172, -87.0203, 7.41674
0.08, -1, -13.3962, 43.6318, 12.6118, -11.6118, -87.0156, 7.4128
0.084, -1, -13.3851, 43.6191, 12.618, -11.6045, -87.0092, 7.40742
0.088, -1, -13.372, 43.604, 12.6258, -11.5948, -87.0007, 7.40031
0.092, -1, -13.3568, 43.5861, 12.6355, -11.5821, -86.9896, 7.3911
0.096, -1, -13.3395, 43.5652, 12.6472, -11.5661, -86.9756, 7.37945
0.1, -1, -13.3198, 43.5413, 12.6612, -11.5462, -86.958, 7.36498
0.104, -1, -13.2977, 43.5138, 12.6778, -11.5219, -86.9366, 7.34734
0.108, -1, -13.2729, 43.4827, 12.6972, -11.4928, -86.9108, 7.32621
0.112, -1, -13.2455, 43.4478, 12.7196, -11.4584, -86.8803, 7.30126
0.116, -1, -13.2153, 43.4089, 12.7451, -11.4183, -86.8448, 7.27223
0.12, -1, -13.1826, 43.3661, 12.7739, -11.3723, -86.804, 7.23891
0.124, -1, -13.1474, 43.3195, 12.806, -11.3201, -86.7577, 7.20115
0.128, -1, -13.1099, 43.2691, 12.8414, -11.2617, -86.7057, 7.15886
0.131, -1, -13.07, 43.215, 12.8802, -11.197, -86.6482, 7.11208
0.136, -1, -13.0277, 43.1571, 12.9221, -11.1262, -86.5852, 7.0609
0.139, -1, -12.983, 43.0956, 12.9672, -11.0495, -86.517, 7.00551
0.144, -1, -12.9357, 43.0304, 13.0153, -10.9674, -86.444, 6.94617
0.148, -1, -12.8859, 42.9615, 13.0663, -10.8803, -86.3664, 6.8832
0.152, -1, -12.8336, 42.8891, 13.1199, -10.7886, -86.2848, 6.81694
0.156, -1, -12.7791, 42.8136, 13.1758, -10.6929, -86.1996, 6.74777
0.16, -1, -12.7226, 42.7353, 13.2339, -10.5937, -86.1113, 6.67609
0.164, -1, -12.6642, 42.6543, 13.2937, -10.4916, -86.0204, 6.60229
0.168, -1, -12.604, 42.5709, 13.3552, -10.3871, -85.9274, 6.52676
0.172, -1, -12.5418, 42.485, 13.418, -10.2807, -85.8327, 6.44984
0.176, -1, -12.4779, 42.397, 13.482, -10.1729, -85.7368, 6.37186
0.18, -1, -12.4122, 42.307, 13.5469, -10.064, -85.6399, 6.29309
0.184, -1, -12.3448, 42.2153, 13.6126, -9.95423, -85.5423, 6.21372
0.188, -1, -12.276, 42.1221, 13.6789, -9.84392, -85.4442, 6.13393
0.192, -1, -12.2061, 42.0277, 13.7457, -9.73318, -85.3458, 6.05383
0.196, -1, -12.1354, 41.9326, 13.8127, -9.62213, -85.2471, 5.97349
0.2, -1, -12.0641, 41.8369, 13.88, -9.51085, -85.1482, 5.89298
0.204, -1, -11.9924, 41.7408, 13.9475, -9.39939, -85.0491, 5.81234
0.208, -1, -11.9204, 41.6443, 14.0151, -9.28778, -84.95, 5.73159
0.212, -1, -11.8482, 41.5477, 14.0828, -9.17605, -84.8507, 5.65076
0.216, -1, -11.7757, 41.4508, 14.1506, -9.06423, -84.7513, 5.56986
0.22, -1, -11.7032, 41.3538, 14.2184, -8.95232, -84.6518, 5.48889
0.224, -1, -11.6305, 41.2567, 14.2863, -8.84033, -84.5523, 5.40786
0.228, -1, -11.5578, 41.1595, 14.3543, -8.72827, -84.4527, 5.32678
0.232, -1, -11.485, 41.0622, 14.4223, -8.61614, -84.3531, 5.24566
0.236, -1, -11.4121, 40.9649, 14.4903, -8.50395, -84.2534, 5.16449
0.24, -1, -11.3392, 40.8675, 14.5584, -8.39171, -84.1537, 5.08327
0.244, -1, -11.2662, 40.77, 14.6265, -8.2794, -84.0539, 5.00202
0.248, -1, -11.1932, 40.6725, 14.6946, -8.16704, -83.954, 4.92072
0.252, -1, -11.1202, 40.575, 14.7628, -8.05462, -83.8541, 4.83939
0.256, -1, -11.0471, 40.4774, 14.831, -7.94216, -83.7542, 4.75802
0.26, -1, -10.974, 40.3798, 14.8993, -7.82964, -83.6542, 4.67661
0.264, -1, -10.9008, 40.2821, 14.9675, -7.71707, -83.5542, 4.59516
0.268, -1, -10.8276, 40.1844, 15.0358, -7.60445, -83.4541, 4.51368
0.272, -1, -10.7544, 40.0866, 15.1042, -7.49179, -83.354, 4.43217
0.276, -1, -10.6812, 39.9888, 15.1725, -7.37908, -83.2538, 4.35062
0.28, -1, -10.6079, 39.8909, 15.2409, -7.26633, -83.1536, 4.26904
0.284, -1, -10.5346, 39.793, 15.3093, -7.15353, -83.0534, 4.18743
0.288, -1, -10.4613, 39.6951, 15.3778, -7.04069, -82.9531, 4.10579
0.292, -1, -10.3879, 39.5971, 15.4462, -6.92781, -82.8528, 4.02412
0.296, -1, -10.3145, 39.4991, 15.5147, -6.81489, -82.7525, 3.94242
0.3, -1, -10.2411, 39.4011, 15.5832, -6.70193, -82.6521, 3.86069
0.304, -1, -10.1677, 39.303, 15.6518, -6.58894, -82.5517, 3.77894
0.308, -1, -10.0942, 39.2049, 15.7203, -6.47591, -82.4512, 3.69716
0.312, -1, -10.0207, 39.1068, 15.7889, -6.36284, -82.3508, 3.61535
0.316, -1, -9.94724, 39.0086, 15.8575, -6.24974, -82.2503, 3.53352
0.32, -1, -9.87371, 38.9104, 15.9261, -6.13661, -82.1497, 3.45167
0.324, -1, -9.80017, 38.8122, 15.9947, -6.02345, -82.0492, 3.36979
0.328, -1, -9.7266, 38.714, 16.0634, -5.91025, -81.9486, 3.28789
0.332, -1, -9.65302, 38.6157, 16.1321, -5.79703, -81.848, 3.20597
0.336, -1, -9.57941, 38.5174, 16.2007, -5.68378, -81.7473, 3.12404
0.34, -1, -9.50579, 38.4191, 16.2694, -5.57051, -81.6467, 3.04208
0.344, -1, -9.43215, 38.3207, 16.3382, -5.45721, -81.546, 2.9601
0.348, -1, -9.3585, 38.2224, 16.4069, -5.34388, -81.4453, 2.87811
0.352, -1, -9.28483, 38.124, 16.4756, -5.23053, -81.3446, 2.7961
0.356, -1, -9.21114, 38.0256, 16.5444, -5.11716, -81.2438, 2.71407
0.36, -1, -9.13744, 37.9271, 16.6132, -5.00377, -81.1431, 2.63203
0.364, -1, -9.06373, 37.8287, 16.682, -4.89036, -81.0423, 2.54998
0.368, -1, -8.99001, 37.7302, 16.7508, -4.77693, -80.9415, 2.46791
0.372, -1, -8.91628, 37.6318, 16.8196, -4.66348, -80.8407, 2.38582
0.376, -1, -8.84253, 37.5333, 16.8884, -4.55001, -80.7399, 2.30373
0.38, -1, -8.76878, 37.4348, 16.9572, -4.43654, -80.639, 2.22163
0.384, -1, -8.69502, 37.3363, 17.026, -4.32304, -80.5382, 2.13951
0.388, -1, -8.62125, 37.2377, 17.0949, -4.20954, -80.4373, 2.05739
0.392, -1, -8.54747, 37.1392, 17.1637, -4.09602, -80.3364, 1.97525
0.396, -1, -8.47369, 37.0407, 17.2326, -3.98249, -80.2355, 1.89312
0.4, -1, -8.39989, 36.9421, 17.3014, -3.86896, -80.1347, 1.81097
0.404, -1, -8.3261, 36.8436, 17.3703, -3.75541, -80.0338, 1.72882
0.408, -1, -8.2523, 36.745, 17.4392, -3.64186, -79.9328, 1.64666
0.412, -1, -8.1785, 36.6464, 17.5081, -3.52831, -79.8319, 1.5645
0.416, -1, -8.10469, 36.5478, 17.5769, -3.41475, -79.731, 1.48234
0.42, -1, -8.03088, 36.4493, 17.6458, -3.30119, -79.6301, 1.40018
0.424, -1, -7.95708, 36.3507, 17.7147, -3.18762, -79.5292, 1.31801
0.428, -1, -7.88327, 36.2521, 17.7836, -3.07406, -79.4283, 1.23585
0.432, -1, -7.80946, 36.1535, 17.8524, -2.9605, -79.3274, 1.15368
0.436, -1, -7.73565, 36.055, 17.9213, -2.84694, -79.2265, 1.07152
0.44, -1, -7.66185, 35.9564, 17.9902, -2.73339, -79.1255, 0.989362
0.444, -1, -7.58805, 35.8578, 18.059, -2.61984, -79.0247, 0.907206
0.448, -1, -7.51425, 35.7593, 18.1279, -2.5063, -78.9238, 0.825055
0.452, -1, -7.44046, 35.6607, 18.1968, -2.39276, -78.8229, 0.74291
0.456, -1, -7.36667, 35.5622, 18.2656, -2.27923, -78.722, 0.660771
0.46, -1, -7.29289, 35.4637, 18.3345, -2.16572, -78.6211, 0.57864
0.464, -1, -7.21912, 35.3651, 18.4033, -2.05221, -78.5202, 0.496517
0.468, -1, -7.14536, 35.2666, 18.4721, -1.93872, -78.4194, 0.414404
0.472, -1, -7.0716, 35.1681, 18.541, -1.82525, -78.3186, 0.3323
0.476, -1, -6.99786, 35.0696, 18.6098, -1.71178, -78.2177, 0.250208
0.48, -1, -6.92412, 34.9711, 18.6786, -1.59834, -78.1169, 0.168128
0.484, -1, -6.8504, 34.8727, 18.7474, -1.48491, -78.0161, 0.0860606
0.488, -1, -6.77669, 34.7742, 18.8162, -1.3715, -77.9153, 0.00400718
0.492, -1, -6.70299, 34.6758, 18.8849, -1.25811, -77.8146, -0.0780314
0.496, -1, -6.62931, 34.5774, 18.9537, -1.14475, -77.7138, -0.160054
0.5, -1, -6.55564, 34.479, 19.0224, -1.0314, -77.6131, -0.242061
0.504, -1, -6.48198, 34.3806, 19.0912, -0.918086, -77.5124, -0.32405
0.508, -1, -6.40835, 34.2823, 19.1599, -0.804793, -77.4118, -0.40602
0.512, -1, -6.33473, 34.184, 19.2286, -0.691526, -77.3111, -0.487971
0.516, -1, -6.26113, 34.0857, 19.2973, -0.578287, -77.2105, -0.569902
0.52, -1, -6.18754, 33.9874, 19.3659, -0.465077, -77.1099, -0.651811
0.524, -1, -6.11398, 33.8892, 19.4346, -0.351899, -77.0093, -0.733699
0.528, -1, -6.04043, 33.7909, 19.5032, -0.238752, -76.9088, -0.815563
0.532, -1, -5.96691, 33.6928, 19.5718, -0.125637, -76.8082, -0.897404
0.536, -1, -5.89341, 33.5946, 19.6404, -0.0125577, -76.7078, -0.979219
0.54, -1, -5.81993, 33.4965, 19.7089, 0.100487, -76.6073, -1.06101
0.544, -1, -5.74648, 33.3984, 19.7775, 0.213494, -76.5069, -1.14277
0.548, -1, -5.67305, 33.3003, 19.846, 0.326464, -76.4065, -1.22451
0.552, -1, -5.59964, 33.2023, 19.9145, 0.439395, -76.3061, -1.30622
0.556, -1, -5.52626, 33.1043, 19.983, 0.552287, -76.2058, -1.3879
0.56, -1, -5.4529, 33.0063, 20.0514, 0.665137, -76.1055, -1.46955
0.564, -1, -5.37957, 32.9084, 20.1198, 0.777945, -76.0053, -1.55117
0.568, -1, -5.30627, 32.8105, 20.1882, 0.890711, -75.9051, -1.63275
0.572, -1, -5.23299, 32.7126, 20.2566, 1.00343, -75.8049, -1.71431
0.576, -1, -5.15974, 32.6148, 20.3249, 1.11611, -75.7048, -1.79584
0.58, -1, -5.08653, 32.517, 20.3932, 1.22874, -75.6047, -1.87733
0.584, -1, -5.01334, 32.4193, 20.4615, 1.34132, -75.5047, -1.95878
0.588, -1, -4.94019, 32.3216, 20.5298, 1.45386, -75.4047, -2.04021
0.592, -1, -4.86706, 32.2239, 20.598, 1.56635, -75.3047, -2.12159
0.596, -1, -4.79397, 32.1263, 20.6662, 1.67879, -75.2048, -2.20295
0.6, -1, -4.72091, 32.0288, 20.7344, 1.79118, -75.1049, -2.28426
0.604, -1, -4.64789, 31.9313, 20.8025, 1.90351, -75.0051, -2.36554
0.608, -1, -4.57489, 31.8338, 20.8706, 2.0158, -74.9053, -2.44678
0.612, -1, -4.50194, 31.7363, 20.9387, 2.12803, -74.8056, -2.52798
0.616, -1, -4.42901, 31.639, 21.0067, 2.2402, -74.7059, -2.60914
0.62, -1, -4.35613, 31.5416, 21.0747, 2.35233, -74.6063, -2.69027
0.624, -1, -4.28328, 31.4443, 21.1427, 2.46439, -74.5067, -2.77135
0.628, -1, -4.21046, 31.3471, 21.2106, 2.5764, -74.4071, -2.85239
0.632, -1, -4.13769, 31.2499, 21.2785, 2.68835, -74.3077, -2.93339
0.636, -1, -4.06495, 31.1528, 21.3464, 2.80024, -74.2082, -3.01435
0.64, -1, -3.99225, 31.0557, 21.4142, 2.91208, -74.1089, -3.09526
0.644, -1, -3.91959, 30.9587, 21.482, 3.02385, -74.0095, -3.17613
0.648, -1, -3.84697, 30.8617, 21.5497, 3.13556, -73.9103, -3.25695
0.652, -1, -3.77439, 30.7648, 21.6175, 3.24721, -73.8111, -3.33773
0.656, -1, -3.70185, 30.6679, 21.6851, 3.35879, -73.7119, -3.41847
0.66, -1, -3.62935, 30.5711, 21.7528, 3.47031, -73.6128, -3.49916
0.664, -1, -3.55689, 30.4743, 21.8204, 3.58177, -73.5137, -3.5798
0.668, -1, -3.48448, 30.3776, 21.8879, 3.69316, -73.4148, -3.66039
0.672, -1, -3.41211, 30.281, 21.9554, 3.80448, -73.3158, -3.74094
0.676, -1, -3.33978, 30.1844, 22.0229, 3.91574, -73.217, -3.82143
0.68, -1, -3.2675, 30.0879, 22.0904, 4.02693, -73.1182, -3.90188
0.684, -1, -3.19526, 29.9914, 22.1578, 4.13805, -73.0194, -3.98228
0.688, -1, -3.12307, 29.895, 22.2251, 4.24909, -72.9207, -4.06262
0.692, -1, -3.05092, 29.7987, 22.2924, 4.36007, -72.8221, -4.14292
0.696, -1, -2.97882, 29.7024, 22.3597, 4.47098, -72.7236, -4.22316
0.7, -1, -2.90677, 29.6062, 22.4269, 4.58181, -72.6251, -4.30335
0.704, -1, -2.83476, 29.51, 22.4941, 4.69257, -72.5267, -4.38349
0.708, -1, -2.76281, 29.4139, 22.5612, 4.80326, -72.4283, -4.46358
0.712, -1, -2.6909, 29.3179, 22.6283, 4.91387, -72.33, -4.54361
0.716, -1, -2.61904, 29.2219, 22.6954, 5.02441, -72.2318, -4.62358
0.72, -1, -2.54723, 29.126, 22.7623, 5.13487, -72.1336, -4.7035
0.724, -1, -2.47547, 29.0302, 22.8293, 5.24525, -72.0355, -4.78337
0.728, -1, -2.40376, 28.9344, 22.8962, 5.35555, -71.9375, -4.86317
0.732, -1, -2.3321, 28.8388, 22.9631, 5.46578, -71.8396, -4.94293
0.736, -1, -2.26049, 28.7431, 23.0299, 5.57593, -71.7417, -5.02262
0.74, -1, -2.18894, 28.6476, 23.0966, 5.68599, -71.6439, -5.10225
0.744, -1, -2.11743, 28.5521, 23.1633, 5.79598, -71.5462, -5.18183
0.748, -1, -2.04598, 28.4567, 23.23, 5.90588, -71.4485, -5.26135
0.752, -1, -1.97459, 28.3614, 23.2966, 6.0157, -71.3509, -5.34081
0.756, -1, -1.90324, 28.2661, 23.3631, 6.12544, -71.2534, -5.42021
0.76, -1, -1.83196, 28.1709, 23.4297, 6.23509, -71.1559, -5.49954
0.764, -1, -1.76072, 28.0758, 23.4961, 6.34466, -71.0586, -5.57882
0.768, -1, -1.68954, 27.9807, 23.5625, 6.45415, -70.9613, -5.65803
0.772, -1, -1.61842, 27.8857, 23.6289, 6.56354, -70.8641, -5.73718
0.776, -1, -1.54735, 27.7908, 23.6952, 6.67285, -70.7669, -5.81627
0.78, -1, -1.47635, 27.696, 23.7614, 6.78208, -70.6699, -5.8953
0.784, -1, -1.40539, 27.6013, 23.8276, 6.89121, -70.5729, -5.97426
0.788, -1, -1.3345, 27.5066, 23.8937, 7.00026, -70.476, -6.05316
0.792, -1, -1.26366, 27.412, 23.9598, 7.10922, -70.3792, -6.13199
0.796, -1, -1.19288, 27.3175, 24.0259, 7.21808, -70.2824, -6.21076
0.8, -1, -1.12216, 27.2231, 24.0918, 7.32686, -70.1858, -6.28946
0.804, -1, -1.0515, 27.1287, 24.1577, 7.43554, -70.0892, -6.3681
0.808, -1, -0.980902, 27.0345, 24.2236, 7.54414, -69.9927, -6.44667
0.812, -1, -0.910361, 26.9403, 24.2894, 7.65264, -69.8963, -6.52517
0.816, -1, -0.839881, 26.8461, 24.3552, 7.76104, -69.7999, -6.6036
0.82, -1, -0.769462, 26.7521, 24.4209, 7.86935, -69.7037, -6.68197
0.824, -1, -0.699103, 26.6582, 24.4865, 7.97757, -69.6075, -6.76027
0.828, -1, -0.628806, 26.5643, 24.5521, 8.08569, -69.5115, -6.8385
0.832, -1, -0.558571, 26.4705, 24.6176, 8.19372, -69.4155, -6.91666
0.836, -1, -0.488397, 26.3768, 24.6831, 8.30165, -69.3195, -6.99475
0.84, -1, -0.418285, 26.2832, 24.7485, 8.40948, -69.2237, -7.07277
0.844, -1, -0.348235, 26.1897, 24.8138, 8.51722, -69.128, -7.15072
0.848, -1, -0.278247, 26.0962, 24.8791, 8.62486, -69.0323, -7.2286
0.852, -1, -0.208322, 26.0028, 24.9443, 8.7324, -68.9368, -7.30641
0.856, -1, -0.138461, 25.9096, 25.0095, 8.83985, -68.8413, -7.38414
0.86, -1, -0.0686629, 25.8164, 25.0746, 8.94719, -68.7459, -7.46181
0.864, -1, 0.00107158, 25.7232, 25.1396, 9.05444, -68.6506, -7.53941
0.868, -1, 0.0707421, 25.6302, 25.2046, 9.16158, -68.5554, -7.61693
0.872, -1, 0.140348, 25.5373, 25.2696, 9.26863, -68.4603, -7.69438
0.876, -1, 0.20989, 25.4444, 25.3344, 9.37558, -68.3652, -7.77176
0.88, -1, 0.279367, 25.3517, 25.3992, 9.48243, -68.2703, -7.84907
0.884, -1, 0.34878, 25.259, 25.464, 9.58918, -68.1754, -7.92631
0.888, -1, 0.418127, 25.1664, 25.5287, 9.69583, -68.0807, -8.00347
0.892, -1, 0.487409, 25.0739, 25.5933, 9.80238, -67.986, -8.08056
0.896, -1, 0.556626, 24.9815, 25.6579, 9.90883, -67.8914, -8.15758
0.9, -1, 0.625778, 24.8891, 25.7224, 10.0152, -67.7969, -8.23452
0.904, -1, 0.694864, 24.7969, 25.7868, 10.1214, -67.7025, -8.3114
0.908, -1, 0.763884, 24.7047, 25.8512, 10.2276, -67.6081, -8.3882
0.912, -1, 0.832839, 24.6127, 25.9155, 10.3336, -67.5139, -8.46492
0.916, -1, 0.901728, 24.5207, 25.9798, 10.4396, -67.4198, -8.54158
0.92, -1, 0.970551, 24.4288, 26.044, 10.5454, -67.3257, -8.61816
0.924, -1, 1.03931, 24.337, 26.1081, 10.6511, -67.2318, -8.69466
0.928, -1, 1.108, 24.2453, 26.1722, 10.7568, -67.1379, -8.7711
0.932, -1, 1.17662, 24.1536, 26.2362, 10.8623, -67.0441, -8.84745
0.936, -1, 1.24518, 24.0621, 26.3001, 10.9678, -66.9504, -8.92374
0.94, -1, 1.31367, 23.9707, 26.364, 11.0731, -66.8568, -8.99995
0.944, -1, 1.3821, 23.8793, 26.4279, 11.1783, -66.7633, -9.07608
0.948, -1, 1.45046, 23.788, 26.4916, 11.2834, -66.6699, -9.15215
0.952, -1, 1.51875, 23.6968, 26.5553, 11.3885, -66.5765, -9.22813
0.956, -1, 1.58698, 23.6058, 26.619, 11.4934, -66.4833, -9.30405
0.96, -1, 1.65513, 23.5148, 26.6825, 11.5982, -66.3902, -9.37988
0.964, -1, 1.72323, 23.4238, 26.746, 11.7029, -66.2971, -9.45565
0.968, -1, 1.79125, 23.333, 26.8095, 11.8075, -66.2042, -9.53133
0.972, -1, 1.85921, 23.2423, 26.8729, 11.912, -66.1113, -9.60695
0.976, -1, 1.9271, 23.1517, 26.9362, 12.0164, -66.0185, -9.68248
0.98, -1, 1.99492, 23.0611, 26.9995, 12.1207, -65.9258, -9.75795
0.984, -1, 2.06267, 22.9706, 27.0627, 12.2249, -65.8333, -9.83333
0.988, -1, 2.13036, 22.8803, 27.1258, 12.329, -65.7408, -9.90864
0.992, -1, 2.19798, 22.79, 27.1889, 12.433, -65.6484, -9.98388
0.996, -1, 2.26553, 22.6998, 27.2519, 12.5369, -65.556, -10.059
1, -1, 2.33301, 22.6097, 27.3148, 12.6407, -65.4638, -10.1341
1.004, -1, 2.40042, 22.5197, 27.3777, 12.7443, -65.3717, -10.2091
1.008, -1, 2.46777, 22.4298, 27.4405, 12.8479, -65.2797, -10.2841
1.012, -1, 2.53505, 22.34, 27.5033, 12.9513, -65.1877, -10.3589
1.016, -1, 2.60226, 22.2502, 27.566, 13.0547, -65.0959, -10.4337
1.02, -1, 2.6694, 22.1606, 27.6286, 13.158, -65.0042, -10.5084
1.024, -1, 2.73647, 22.071, 27.6911, 13.2611, -64.9125, -10.583
1.027, -1, 2.80347, 21.9816, 27.7536, 13.3641, -64.8209, -10.6576
1.032, -1, 2.87041, 21.8922, 27.8161, 13.4671, -64.7295, -10.7321
1.036, -1, 2.93727, 21.8029, 27.8784, 13.5699, -64.6381, -10.8065
1.04, -1, 3.00407, 21.7138, 27.9407, 13.6726, -64.5468, -10.8808
1.044, -1, 3.0708, 21.6247, 28.003, 13.7752, -64.4556, -10.955
1.048, -1, 3.13746, 21.5357, 28.0652, 13.8777, -64.3645, -11.0292
1.052, -1, 3.20405, 21.4468, 28.1273, 13.9801, -64.2735, -11.1033
1.055, -1, 3.27057, 21.358, 28.1893, 14.0824, -64.1826, -11.1773
1.06, -1, 3.33702, 21.2692, 28.2513, 14.1846, -64.0918, -11.2512
1.064, -1, 3.4034, 21.1806, 28.3132, 14.2867, -64.0011, -11.3251
1.068, -1, 3.46972, 21.0921, 28.3751, 14.3887, -63.9105, -11.3989
1.072, -1, 3.53596, 21.0036, 28.4369, 14.4906, -63.82, -11.4726
1.076, -1, 3.60213, 20.9153, 28.4986, 14.5923, -63.7295, -11.5462
1.08, -1, 3.66824, 20.827, 28.5602, 14.694, -63.6392, -11.6197
1.084, -1, 3.73427, 20.7389, 28.6218, 14.7955, -63.549, -11.6932
1.088, -1, 3.80024, 20.6508, 28.6834, 14.897, -63.4588, -11.7666
1.091, -1, 3.86614, 20.5628, 28.7448, 14.9983, -63.3688, -11.8399
1.096, -1, 3.93196, 20.4749, 28.8062, 15.0995, -63.2788, -11.9132
1.1, -1, 3.99772, 20.3871, 28.8675, 15.2006, -63.189, -11.9863
1.104, -1, 4.06341, 20.2994, 28.9288, 15.3017, -63.0992, -12.0594
1.108, -1, 4.12902, 20.2118, 28.99, 15.4026, -63.0095, -12.1324
1.112, -1, 4.19457, 20.1243, 29.0512, 15.5034, -62.92, -12.2054
1.116, -1, 4.26005, 20.0369, 29.1122, 15.604, -62.8305, -12.2782
1.119, -1, 4.32546, 19.9496, 29.1732, 15.7046, -62.7411, -12.351
1.124, -1, 4.3908, 19.8623, 29.2342, 15.8051, -62.6518, -12.4237
1.128, -1, 4.45606, 19.7752, 29.2951, 15.9055, -62.5627, -12.4963
1.132, -1, 4.52126, 19.6881, 29.3559, 16.0057, -62.4736, -12.5688
1.136, -1, 4.58639, 19.6012, 29.4166, 16.1059, -62.3846, -12.6413
1.14, -1, 4.65145, 19.5143, 29.4773, 16.2059, -62.2957, -12.7137
1.144, -1, 4.71644, 19.4275, 29.5379, 16.3059, -62.2069, -12.786
1.147, -1, 4.78136, 19.3409, 29.5985, 16.4057, -62.1181, -12.8582
1.152, -1, 4.84621, 19.2543, 29.659, 16.5054, -62.0295, -12.9304
1.156, -1, 4.911, 19.1678, 29.7194, 16.605, -61.941, -13.0025
1.16, -1, 4.97571, 19.0814, 29.7797, 16.7045, -61.8526, -13.0744
1.164, -1, 5.04035, 18.9951, 29.84, 16.8039, -61.7643, -13.1464
1.168, -1, 5.10493, 18.9089, 29.9003, 16.9032, -61.676, -13.2182
1.172, -1, 5.16943, 18.8228, 29.9604, 17.0024, -61.5879, -13.29
1.175, -1, 5.23387, 18.7367, 30.0205, 17.1015, -61.4998, -13.3617
1.18, -1, 5.29824, 18.6508, 30.0805, 17.2005, -61.4119, -13.4333
1.184, -1, 5.36254, 18.565, 30.1405, 17.2994, -61.324, -13.5048
1.188, -1, 5.42677, 18.4792, 30.2004, 17.3981, -61.2363, -13.5763
1.192, -1, 5.49093, 18.3935, 30.2603, 17.4968, -61.1486, -13.6476
1.196, -1, 5.55502, 18.308, 30.32, 17.5953, -61.061, -13.719
1.2, -1, 5.61905, 18.2225, 30.3798, 17.6938, -60.9735, -13.7902
1.204, -1, 5.683, 18.1371, 30.4394, 17.7921, -60.8861, -13.8613
1.208, -1, 5.74689, 18.0518, 30.499, 17.8904, -60.7988, -13.9324
1.212, -1, 5.81071, 17.9666, 30.5585, 17.9885, -60.7116, -14.0034
1.216, -1, 5.87447, 17.8815, 30.618, 18.0865, -60.6245, -14.0743
1.22, -1, 5.93815, 17.7965, 30.6774, 18.1845, -60.5375, -14.1452
1.224, -1, 6.00177, 17.7115, 30.7367, 18.2823, -60.4506, -14.216
1.228, -1, 6.06532, 17.6267, 30.796, 18.38, -60.3637, -14.2867
1.232, -1, 6.1288, 17.5419, 30.8552, 18.4776, -60.277, -14.3573
1.236, -1, 6.19222, 17.4573, 30.9143, 18.5751, -60.1903, -14.4279
1.24, -1, 6.25557, 17.3727, 30.9734, 18.6725, -60.1038, -14.4983
1.244, -1, 6.31885, 17.2882, 31.0324, 18.7698, -60.0173, -14.5687
1.248, -1, 6.38207, 17.2038, 31.0914, 18.867, -59.9309, -14.6391
1.252, -1, 6.44521, 17.1195, 31.1503, 18.9641, -59.8447, -14.7093
1.256, -1, 6.5083, 17.0353, 31.2091, 19.0611, -59.7585, -14.7795
1.26, -1, 6.57131, 16.9512, 31.2679, 19.158, -59.6724, -14.8496
1.264, -1, 6.63426, 16.8671, 31.3266, 19.2548, -59.5863, -14.9197
1.267, -1, 6.69714, 16.7832, 31.3853, 19.3515, -59.5004, -14.9896
1.272, -1, 6.75996, 16.6993, 31.4439, 19.4481, -59.4146, -15.0595
1.276, -1, 6.82271, 16.6155, 31.5024, 19.5446, -59.3288, -15.1293
1.28, -1, 6.8854, 16.5318, 31.5609, 19.641, -59.2432, -15.1991
1.284, -1, 6.94802, 16.4482, 31.6193, 19.7373, -59.1576, -15.2687
1.288, -1, 7.01058, 16.3647, 31.6776, 19.8335, -59.0721, -15.3383
1.292, -1, 7.07306, 16.2813, 31.7359, 19.9296, -58.9868, -15.4078
1.295, -1, 7.13549, 16.1979, 31.7941, 20.0256, -58.9015, -15.4773
1.3, -1, 7.19785, 16.1147, 31.8523, 20.1215, -58.8162, -15.5467
1.304, -1, 7.26014, 16.0315, 31.9104, 20.2172, -58.7311, -15.616
1.308, -1, 7.32237, 15.9484, 31.9684, 20.3129, -58.6461, -15.6852
1.312, -1, 7.38454, 15.8654, 32.0264, 20.4085, -58.5612, -15.7544
1.316, -1, 7.44664, 15.7825, 32.0843, 20.504, -58.4763, -15.8235
1.32, -1, 7.50867, 15.6997, 32.1422, 20.5994, -58.3915, -15.8925
1.324, -1, 7.57064, 15.617, 32.2, 20.6947, -58.3069, -15.9614
1.328, -1, 7.63255, 15.5343, 32.2577, 20.7899, -58.2223, -16.0303
1.332, -1, 7.69439, 15.4518, 32.3154, 20.885, -58.1378, -16.0991
1.336, -1, 7.75617, 15.3693, 32.373, 20.98, -58.0533, -16.1678
1.34, -1, 7.81789, 15.2869, 32.4306, 21.0749, -57.969, -16.2365
1.344, -1, 7.87954, 15.2046, 32.4881, 21.1697, -57.8848, -16.3051
1.348, -1, 7.94112, 15.1223, 32.5455, 21.2644, -57.8006, -16.3736
1.352, -1, 8.00265, 15.0402, 32.6029, 21.359, -57.7166, -16.4421
1.356, -1, 8.06411, 14.9581, 32.6602, 21.4535, -57.6326, -16.5104
1.36, -1, 8.12551, 14.8762, 32.7175, 21.5479, -57.5487, -16.5787
1.364, -1, 8.18684, 14.7943, 32.7747, 21.6422, -57.4649, -16.647
1.368, -1, 8.24811, 14.7125, 32.8318, 21.7364, -57.3811, -16.7152
1.372, -1, 8.30932, 14.6308, 32.8889, 21.8306, -57.2975, -16.7833
1.376, -1, 8.37047, 14.5491, 32.946, 21.9246, -57.214, -16.8513
1.38, -1, 8.43155, 14.4676, 33.0029, 22.0185, -57.1305, -16.9192
1.384, -1, 8.49257, 14.3861, 33.0598, 22.1123, -57.0471, -16.9871
1.388, -1, 8.55353, 14.3047, 33.1167, 22.2061, -56.9638, -17.055
1.392, -1, 8.61443, 14.2234, 33.1735, 22.2997, -56.8806, -17.1227
1.396, -1, 8.67526, 14.1422, 33.2302, 22.3933, -56.7975, -17.1904
1.4, -1, 8.73603, 14.0611, 33.2869, 22.4867, -56.7144, -17.258
1.404, -1, 8.79674, 13.98, 33.3435, 22.5801, -56.6315, -17.3255
1.408, -1, 8.85739, 13.899, 33.4001, 22.6733, -56.5486, -17.393
1.412, -1, 8.91798, 13.8182, 33.4566, 22.7665, -56.4658, -17.4604
1.416, -1, 8.9785, 13.7374, 33.5131, 22.8596, -56.3831, -17.5278
1.42, -1, 9.03897, 13.6566, 33.5695, 22.9525, -56.3005, -17.595
1.424, -1, 9.09937, 13.576, 33.6258, 23.0454, -56.218, -17.6622
1.428, -1, 9.15971, 13.4954, 33.6821, 23.1382, -56.1355, -17.7294
1.432, -1, 9.21999, 13.4149, 33.7383, 23.2309, -56.0532, -17.7964
1.436, -1, 9.2802, 13.3345, 33.7945, 23.3235, -55.9709, -17.8634
1.44, -1, 9.34036, 13.2542, 33.8506, 23.416, -55.8887, -17.9304
1.444, -1, 9.40046, 13.174, 33.9066, 23.5084, -55.8065, -17.9972
1.448, -1, 9.46049, 13.0938, 33.9626, 23.6007, -55.7245, -18.064
1.452, -1, 9.52047, 13.0138, 34.0186, 23.6929, -55.6426, -18.1307
1.456, -1, 9.58039, 12.9338, 34.0745, 23.7851, -55.5607, -18.1974
1.46, -1, 9.64024, 12.8539, 34.1303, 23.8771, -55.4789, -18.264
1.464, -1, 9.70004, 12.774, 34.186, 23.9691, -55.3972, -18.3305
1.468, -1, 9.75977, 12.6943, 34.2418, 24.0609, -55.3156, -18.397
1.472, -1, 9.81944, 12.6146, 34.2974, 24.1527, -55.234, -18.4634
1.476, -1, 9.87906, 12.535, 34.353, 24.2444, -55.1526, -18.5297
1.48, -1, 9.93862, 12.4555, 34.4086, 24.3359, -55.0712, -18.596
1.484, -1, 9.99811, 12.3761, 34.4641, 24.4274, -54.9899, -18.6621
1.488, -1, 10.0576, 12.2967, 34.5195, 24.5188, -54.9087, -18.7283
1.492, -1, 10.1169, 12.2174, 34.5749, 24.6101, -54.8275, -18.7943
1.496, -1, 10.1763, 12.1382, 34.6302, 24.7013, -54.7465, -18.8603
1.5, -1, 10.2355, 12.0591, 34.6855, 24.7925, -54.6655, -18.9263
1.504, -1, 10.2947, 11.9801, 34.7407, 24.8835, -54.5846, -18.9921
1.508, -1, 10.3539, 11.9011, 34.7959, 24.9744, -54.5038, -19.0579
1.512, -1, 10.413, 11.8222, 34.851, 25.0653, -54.4231, -19.1237
1.516, -1, 10.472, 11.7434, 34.906, 25.1561, -54.3424, -19.1893
1.52, -1, 10.531, 11.6647, 34.961, 25.2468, -54.2618, -19.255
1.524, -1, 10.5899, 11.586, 35.016, 25.3373, -54.1813, -19.3205
1.528, -1, 10.6487, 11.5074, 35.0709, 25.4278, -54.1009, -19.386
1.532, -1, 10.7075, 11.4289, 35.1257, 25.5183, -54.0205, -19.4514
1.536, -1, 10.7663, 11.3505, 35.1805, 25.6086, -53.9403, -19.5168
1.54, -1, 10.825, 11.2722, 35.2353, 25.6988, -53.8601, -19.582
1.544, -1, 10.8836, 11.1939, 35.2899, 25.789, -53.78, -19.6473
1.548, -1, 10.9422, 11.1157, 35.3446, 25.8791, -53.6999, -19.7124
1.552, -1, 11.0007, 11.0375, 35.3991, 25.969, -53.62, -19.7775
1.556, -1, 11.0592, 10.9595, 35.4537, 26.0589, -53.5401, -19.8426
1.56, -1, 11.1176, 10.8815, 35.5081, 26.1487, -53.4603, -19.9076
1.564, -1, 11.1759, 10.8036, 35.5626, 26.2385, -53.3806, -19.9725
1.568, -1, 11.2342, 10.7258, 35.6169, 26.3281, -53.3009, -20.0373
1.572, -1, 11.2925, 10.648, 35.6713, 26.4177, -53.2213, -20.1021
1.576, -1, 11.3507, 10.5703, 35.7255, 26.5071, -53.1418, -20.1669
1.58, -1, 11.4088, 10.4927, 35.7797, 26.5965, -53.0624, -20.2315
1.584, -1, 11.4669, 10.4152, 35.8339, 26.6858, -52.983, -20.2962
1.588, -1, 11.5249, 10.3377, 35.888, 26.775, -52.9038, -20.3607
1.592, -1, 11.5829, 10.2603, 35.9421, 26.8642, -52.8246, -20.4252
1.596, -1, 11.6408, 10.183, 35.9961, 26.9532, -52.7454, -20.4896
1.6, -1, 11.6987, 10.1058, 36.0501, 27.0422, -52.6664, -20.554
1.604, -1, 11.7565, 10.0286, 36.104, 27.1311, -52.5874, -20.6183
1.608, -1, 11.8142, 9.9515, 36.1579, 27.2199, -52.5085, -20.6826
1.612, -1, 11.8719, 9.87447, 36.2117, 27.3086, -52.4296, -20.7467
1.616, -1, 11.9296, 9.79751, 36.2654, 27.3972, -52.3509, -20.8109
1.62, -1, 11.9872, 9.72062, 36.3191, 27.4858, -52.2722, -20.875
1.624, -1, 12.0447, 9.6438, 36.3728, 27.5743, -52.1936, -20.939
1.628, -1, 12.1022, 9.56705, 36.4264, 27.6627, -52.115, -21.0029
1.632, -1, 12.1596, 9.49037, 36.48, 27.751, -52.0365, -21.0668
1.636, -1, 12.217, 9.41376, 36.5335, 27.8392, -51.9581, -21.1307
1.64, -1, 12.2744, 9.33723, 36.587, 27.9274, -51.8798, -21.1944
1.644, -1, 12.3316, 9.26076, 36.6404, 28.0154, -51.8015, -21.2582
1.648, -1, 12.3889, 9.18436, 36.6938, 28.1034, -51.7233, -21.3218
1.652, -1, 12.446, 9.10803, 36.7471, 28.1913, -51.6452, -21.3854
1.656, -1, 12.5032, 9.03177, 36.8004, 28.2792, -51.5672, -21.449
1.66, -1, 12.5602, 8.95557, 36.8536, 28.3669, -51.4892, -21.5125
1.664, -1, 12.6173, 8.87945, 36.9068, 28.4546, -51.4113, -21.5759
1.668, -1, 12.6742, 8.8034, 36.9599, 28.5422, -51.3334, -21.6393
1.672, -1, 12.7312, 8.72741, 37.013, 28.6297, -51.2557, -21.7026
1.676, -1, 12.788, 8.65149, 37.066, 28.7171, -51.178, -21.7659
1.68, -1, 12.8448, 8.57564, 37.119, 28.8045, -51.1003, -21.8291
1.684, -1, 12.9016, 8.49985, 37.172, 28.8918, -51.0228, -21.8922
1.688, -1, 12.9583, 8.42414, 37.2249, 28.979, -50.9453, -21.9553
1.692, -1, 13.015, 8.34848, 37.2777, 29.0661, -50.8679, -22.0184
1.696, -1, 13.0716, 8.2729, 37.3305, 29.1532, -50.7905, -22.0814
1.7, -1, 13.1282, 8.19738, 37.3833, 29.2402, -50.7132, -22.1443
1.704, -1, 13.1847, 8.12193, 37.436, 29.3271, -50.636, -22.2072
1.708, -1, 13.2411, 8.04655, 37.4886, 29.4139, -50.5588, -22.27
1.712, -1, 13.2976, 7.97123, 37.5413, 29.5006, -50.4818, -22.3327
1.716, -1, 13.3539, 7.89598, 37.5938, 29.5873, -50.4047, -22.3954
1.72, -1, 13.4102, 7.8208, 37.6464, 29.6739, -50.3278, -22.4581
1.724, -1, 13.4665, 7.74567, 37.6988, 29.7604, -50.2509, -22.5207
1.728, -1, 13.5227, 7.67062, 37.7513, 29.8469, -50.1741, -22.5832
1.732, -1, 13.5789, 7.59563, 37.8037, 29.9332, -50.0973, -22.6457
1.736, -1, 13.635, 7.5207, 37.856, 30.0195, -50.0207, -22.7082
1.74, -1, 13.6911, 7.44584, 37.9083, 30.1057, -49.944, -22.7706
1.744, -1, 13.7471, 7.37105, 37.9606, 30.1919, -49.8675, -22.8329
1.748, -1, 13.8031, 7.29631, 38.0128, 30.278, -49.791, -22.8952
1.752, -1, 13.859, 7.22165, 38.0649, 30.364, -49.7146, -22.9574
1.756, -1, 13.9149, 7.14704, 38.117, 30.4499, -49.6382, -23.0195
1.76, -1, 13.9708, 7.0725, 38.1691, 30.5357, -49.5619, -23.0817
1.764, -1, 14.0265, 6.99802, 38.2211, 30.6215, -49.4857, -23.1437
1.768, -1, 14.0823, 6.92361, 38.2731, 30.7072, -49.4095, -23.2057
1.772, -1, 14.138, 6.84926, 38.3251, 30.7929, -49.3335, -23.2677
1.776, -1, 14.1936, 6.77497, 38.377, 30.8784, -49.2574, -23.3296
1.78, -1, 14.2492, 6.70075, 38.4288, 30.9639, -49.1815, -23.3915
1.784, -1, 14.3048, 6.62659, 38.4806, 31.0493, -49.1056, -23.4533
1.788, -1, 14.3603, 6.55249, 38.5324, 31.1347, -49.0297, -23.515
1.792, -1, 14.4157, 6.47845, 38.5841, 31.2199, -48.9539, -23.5767
1.796, -1, 14.4711, 6.40447, 38.6358, 31.3051, -48.8782, -23.6383
1.8, -1, 14.5265, 6.33056, 38.6874, 31.3903, -48.8026, -23.6999
1.804, -1, 14.5818, 6.25671, 38.739, 31.4753, -48.727, -23.7615
1.808, -1, 14.6371, 6.18292, 38.7906, 31.5603, -48.6515, -23.823
1.812, -1, 14.6923, 6.10919, 38.8421, 31.6452, -48.576, -23.8844
1.816, -1, 14.7475, 6.03552, 38.8936, 31.7301, -48.5006, -23.9458
1.82, -1, 14.8027, 5.96192, 38.945, 31.8148, -48.4253, -24.0071
1.824, -1, 14.8577, 5.88837, 38.9963, 31.8996, -48.35, -24.0684
1.828, -1, 14.9128, 5.81488, 39.0477, 31.9842, -48.2748, -24.1297
1.832, -1, 14.9678, 5.74146, 39.099, 32.0688, -48.1997, -24.1908
1.836, -1, 15.0227, 5.66809, 39.1502, 32.1533, -48.1246, -24.252
1.84, -1, 15.0776, 5.59479, 39.2014, 32.2377, -48.0496, -24.3131
1.844, -1, 15.1325, 5.52154, 39.2526, 32.322, -47.9746, -24.3741
1.848, -1, 15.1873, 5.44836, 39.3037, 32.4063, -47.8997, -24.4351
1.852, -1, 15.2421, 5.37523, 39.3548, 32.4906, -47.8248, -24.496
1.856, -1, 15.2968, 5.30216, 39.4059, 32.5747, -47.7501, -24.5569
1.86, -1, 15.3515, 5.22916, 39.4569, 32.6588, -47.6753, -24.6178
1.864, -1, 15.4062, 5.15621, 39.5078, 32.7428, -47.6007, -24.6785
1.868, -1, 15.4608, 5.08331, 39.5588, 32.8268, -47.5261, -24.7393
1.872, -1, 15.5153, 5.01048, 39.6096, 32.9107, -47.4515, -24.8
1.876, -1, 15.5698, 4.93771, 39.6605, 32.9945, -47.3771, -24.8606
1.88, -1, 15.6243, 4.86499, 39.7113, 33.0782, -47.3026, -24.9212
1.884, -1, 15.6787, 4.79233, 39.762, 33.1619, -47.2283, -24.9818
1.888, -1, 15.7331, 4.71973, 39.8128, 33.2455, -47.154, -25.0423
1.892, -1, 15.7875, 4.64718, 39.8634, 33.3291, -47.0797, -25.1027
1.896, -1, 15.8418, 4.57469, 39.9141, 33.4126, -47.0055, -25.1631
1.9, -1, 15.896, 4.50226, 39.9647, 33.496, -46.9314, -25.2235
1.904, -1, 15.9502, 4.42989, 40.0152, 33.5793, -46.8573, -25.2838
1.908, -1, 16.0044, 4.35757, 40.0658, 33.6626, -46.7833, -25.3441
1.912, -1, 16.0585, 4.28531, 40.1162, 33.7459, -46.7094, -25.4043
1.916, -1, 16.1126, 4.2131, 40.1667, 33.829, -46.6355, -25.4644
1.92, -1, 16.1667, 4.14095, 40.2171, 33.9121, -46.5616, -25.5246
1.924, -1, 16.2207, 4.06885, 40.2675, 33.9952, -46.4878, -25.5846
1.928, -1, 16.2746, 3.99681, 40.3178, 34.0781, -46.4141, -25.6447
1.932, -1, 16.3286, 3.92482, 40.3681, 34.161, -46.3404, -25.7047
1.936, -1, 16.3824, 3.85289, 40.4183, 34.2439, -46.2668, -25.7646
1.94, -1, 16.4363, 3.78102, 40.4685, 34.3267, -46.1932, -25.8245
1.944, -1, 16.4901, 3.7092, 40.5187, 34.4094, -46.1197, -25.8843
1.948, -1, 16.5438, 3.63743, 40.5689, 34.4921, -46.0463, -25.9442
1.952, -1, 16.5975, 3.56571, 40.619, 34.5746, -45.9729, -26.0039
1.956, -1, 16.6512, 3.49405, 40.669, 34.6572, -45.8995, -26.0636
1.96, -1, 16.7049, 3.42245, 40.719, 34.7397, -45.8263, -26.1233
1.964, -1, 16.7585, 3.35089, 40.769, 34.8221, -45.753, -26.1829
1.968, -1, 16.812, 3.27939, 40.819, 34.9044, -45.6799, -26.2425
1.972, -1, 16.8655, 3.20795, 40.8689, 34.9867, -45.6067, -26.302
1.976, -1, 16.919, 3.13655, 40.9188, 35.0689, -45.5337, -26.3615
1.98, -1, 16.9724, 3.06521, 40.9686, 35.1511, -45.4606, -26.421
1.984, -1, 17.0258, 2.99392, 41.0184, 35.2332, -45.3877, -26.4804
1.988, -1, 17.0792, 2.92269, 41.0682, 35.3153, -45.3148, -26.5398
1.992, -1, 17.1325, 2.8515, 41.1179, 35.3972, -45.2419, -26.5991
1.996, -1, 17.1858, 2.78037, 41.1676, 35.4792, -45.1691, -26.6584
1.999, -1, 17.239, 2.70929, 41.2173, 35.561, -45.0964, -26.7176
2.004, -1, 17.2922, 2.63826, 41.2669, 35.6428, -45.0237, -26.7768
2.008, -1, 17.3454, 2.56728, 41.3165, 35.7246, -44.951, -26.8359
2.012, -1, 17.3985, 2.49635, 41.366, 35.8063, -44.8784, -26.895
2.015, -1, 17.4516, 2.42547, 41.4155, 35.8879, -44.8059, -26.9541
2.019, -1, 17.5047, 2.35465, 41.465, 35.9695, -44.7334, -27.0131
2.024, -1, 17.5577, 2.28387, 41.5145, 36.051, -44.661, -27.0721
2.028, -1, 17.6107, 2.21315, 41.5639, 36.1325, -44.5886, -27.131
2.031, -1, 17.6636, 2.14247, 41.6132, 36.2139, -44.5163, -27.1899
2.036, -1, 17.7165, 2.07185, 41.6626, 36.2952, -44.444, -27.2488
2.04, -1, 17.7694, 2.00127, 41.7119, 36.3765, -44.3717, -27.3076
2.044, -1, 17.8222, 1.93075, 41.7611, 36.4577, -44.2996, -27.3664
2.048, -1, 17.875, 1.86027, 41.8104, 36.5389, -44.2274, -27.4251
2.051, -1, 17.9277, 1.78984, 41.8596, 36.62, -44.1554, -27.4838
2.055, -1, 17.9805, 1.71946, 41.9087, 36.7011, -44.0833, -27.5424
2.06, -1, 18.0331, 1.64914, 41.9579, 36.7821, -44.0113, -27.601
2.064, -1, 18.0858, 1.57886, 42.007, 36.863, -43.9394, -27.6596
2.068, -1, 18.1384, 1.50862, 42.056, 36.9439, -43.8675, -27.7181
2.071, -1, 18.191, 1.43844, 42.1051, 37.0247, -43.7957, -27.7766
2.076, -1, 18.2435, 1.36831, 42.1541, 37.1055, -43.7239, -27.835
2.08, -1, 18.296, 1.29822, 42.203, 37.1862, -43.6522, -27.8935
2.084, -1, 18.3484, 1.22818, 42.252, 37.2669, -43.5805, -27.9518
2.087, -1, 18.4009, 1.15819, 42.3009, 37.3475, -43.5089, -28.0101
2.092, -1, 18.4533, 1.08824, 42.3497, 37.4281, -43.4373, -28.0684
2.096, -1, 18.5056, 1.01835, 42.3985, 37.5086, -43.3658, -28.1267
2.1, -1, 18.5579, 0.948498, 42.4473, 37.589, -43.2943, -28.1849
2.104, -1, 18.6102, 0.878696, 42.4961, 37.6694, -43.2228, -28.243
2.107, -1, 18.6625, 0.808941, 42.5448, 37.7497, -43.1514, -28.3012
2.111, -1, 18.7147, 0.739232, 42.5935, 37.83, -43.0801, -28.3593
2.116, -1, 18.7669, 0.66957, 42.6422, 37.9103, -43.0088, -28.4173
2.12, -1, 18.819, 0.599954, 42.6908, 37.9904, -42.9375, -28.4753
2.124, -1, 18.8711, 0.530384, 42.7394, 38.0706, -42.8663, -28.5333
2.127, -1, 18.9232, 0.460861, 42.788, 38.1507, -42.7952, -28.5912
2.132, -1, 18.9752, 0.391383, 42.8366, 38.2307, -42.7241, -28.6491
2.136, -1, 19.0272, 0.321951, 42.8851, 38.3106, -42.653, -28.707
2.14, -1, 19.0792, 0.252564, 42.9335, 38.3906, -42.582, -28.7648
2.143, -1, 19.1311, 0.183223, 42.982, 38.4704, -42.511, -28.8226
2.148, -1, 19.183, 0.113928, 43.0304, 38.5502, -42.4401, -28.8803
2.152, -1, 19.2349, 0.044677, 43.0788, 38.63, -42.3692, -28.9381
2.156, -1, 19.2868, -0.0245287, 43.1271, 38.7097, -42.2984, -28.9957
2.16, -1, 19.3386, -0.0936896, 43.1754, 38.7894, -42.2276, -29.0534
2.163, -1, 19.3903, -0.162806, 43.2237, 38.869, -42.1569, -29.111
2.168, -1, 19.4421, -0.231878, 43.272, 38.9485, -42.0862, -29.1685
2.172, -1, 19.4938, -0.300905, 43.3202, 39.028, -42.0155, -29.226
2.176, -1, 19.5454, -0.369889, 43.3684, 39.1075, -41.9449, -29.2835
2.179, -1, 19.5971, -0.438828, 43.4165, 39.1869, -41.8744, -29.341
2.184, -1, 19.6487, -0.507724, 43.4647, 39.2662, -41.8039, -29.3984
2.188, -1, 19.7002, -0.576576, 43.5128, 39.3455, -41.7334, -29.4558
2.192, -1, 19.7518, -0.645384, 43.5608, 39.4248, -41.663, -29.5131
2.196, -1, 19.8033, -0.714149, 43.6089, 39.504, -41.5926, -29.5704
2.199, -1, 19.8548, -0.782871, 43.6569, 39.5831, -41.5223, -29.6277
2.204, -1, 19.9062, -0.851549, 43.7049, 39.6622, -41.452, -29.6849
2.208, -1, 19.9576, -0.920185, 43.7528, 39.7413, -41.3817, -29.7421
2.212, -1, 20.009, -0.988778, 43.8007, 39.8203, -41.3115, -29.7992
2.216, -1, 20.0603, -1.05733, 43.8486, 39.8992, -41.2414, -29.8564
2.219, -1, 20.1117, -1.12584, 43.8965, 39.9781, -41.1713, -29.9135
2.224, -1, 20.1629, -1.1943, 43.9443, 40.057, -41.1012, -29.9705
2.228, -1, 20.2142, -1.26272, 43.9921, 40.1358, -41.0312, -30.0275
2.232, -1, 20.2654, -1.33111, 44.0399, 40.2145, -40.9612, -30.0845
2.235, -1, 20.3166, -1.39945, 44.0876, 40.2933, -40.8912, -30.1415
2.24, -1, 20.3677, -1.46774, 44.1353, 40.3719, -40.8213, -30.1984
2.244, -1, 20.4189, -1.536, 44.183, 40.4505, -40.7515, -30.2553
2.248, -1, 20.47, -1.60422, 44.2307, 40.5291, -40.6817, -30.3121
2.252, -1, 20.521, -1.67239, 44.2783, 40.6076, -40.6119, -30.3689
2.255, -1, 20.5721, -1.74052, 44.3259, 40.6861, -40.5422, -30.4257
2.259, -1, 20.6231, -1.80862, 44.3735, 40.7645, -40.4725, -30.4824
2.264, -1, 20.674, -1.87667, 44.421, 40.8429, -40.4028, -30.5391
2.268, -1, 20.725, -1.94468, 44.4685, 40.9212, -40.3332, -30.5958
2.272, -1, 20.7759, -2.01265, 44.516, 40.9995, -40.2636, -30.6525
2.275, -1, 20.8268, -2.08058, 44.5635, 41.0778, -40.1941, -30.7091
2.28, -1, 20.8776, -2.14847, 44.6109, 41.1559, -40.1246, -30.7656
2.284, -1, 20.9284, -2.21633, 44.6583, 41.2341, -40.0552, -30.8222
2.288, -1, 20.9792, -2.28414, 44.7057, 41.3122, -39.9858, -30.8787
2.291, -1, 21.03, -2.35191, 44.753, 41.3903, -39.9164, -30.9352
2.296, -1, 21.0807, -2.41964, 44.8003, 41.4683, -39.8471, -30.9916
2.3, -1, 21.1314, -2.48734, 44.8476, 41.5462, -39.7778, -31.048
2.304, -1, 21.1821, -2.55499, 44.8949, 41.6242, -39.7086, -31.1044
2.308, -1, 21.2328, -2.62261, 44.9421, 41.702, -39.6394, -31.1607
2.311, -1, 21.2834, -2.69019, 44.9894, 41.7799, -39.5702, -31.2171
2.316, -1, 21.334, -2.75773, 45.0365, 41.8577, -39.5011, -31.2733
2.32, -1, 21.3845, -2.82523, 45.0837, 41.9354, -39.432, -31.3296
2.324, -1, 21.435, -2.89269, 45.1308, 42.0131, -39.3629, -31.3858
2.328, -1, 21.4856, -2.96012, 45.1779, 42.0908, -39.2939, -31.442
2.331, -1, 21.536, -3.0275, 45.225, 42.1684, -39.225, -31.4982
2.336, -1, 21.5865, -3.09485, 45.2721, 42.2459, -39.156, -31.5543
2.34, -1, 21.6369, -3.16216, 45.3191, 42.3235, -39.0872, -31.6104
2.344, -1, 21.6873, -3.22944, 45.3661, 42.401, -39.0183, -31.6664
2.347, -1, 21.7376, -3.29668, 45.413, 42.4784, -38.9495, -31.7225
2.352, -1, 21.788, -3.36388, 45.46, 42.5558, -38.8807, -31.7785
2.356, -1, 21.8383, -3.43104, 45.5069, 42.6331, -38.812, -31.8344
2.36, -1, 21.8885, -3.49816, 45.5538, 42.7105, -38.7433, -31.8904
2.364, -1, 21.9388, -3.56525, 45.6007, 42.7877, -38.6746, -31.9463
2.367, -1, 21.989, -3.63231, 45.6475, 42.865, -38.606, -32.0022
2.372, -1, 22.0392, -3.69932, 45.6943, 42.9421, -38.5374, -32.058
2.376, -1, 22.0894, -3.7663, 45.7411, 43.0193, -38.4688, -32.1138
2.38, -1, 22.1395, -3.83325, 45.7879, 43.0964, -38.4003, -32.1696
2.383, -1, 22.1896, -3.90016, 45.8346, 43.1734, -38.3318, -32.2254
2.388, -1, 22.2397, -3.96703, 45.8814, 43.2505, -38.2634, -32.2811
2.392, -1, 22.2898, -4.03387, 45.9281, 43.3274, -38.195, -32.3368
2.396, -1, 22.3398, -4.10067, 45.9747, 43.4044, -38.1266, -32.3924
2.4, -1, 22.3898, -4.16743, 46.0214, 43.4813, -38.0583, -32.4481
2.403, -1, 22.4398, -4.23416, 46.068, 43.5581, -37.99, -32.5037
2.408, -1, 22.4898, -4.30086, 46.1146, 43.635, -37.9217, -32.5593
2.412, -1, 22.5397, -4.36752, 46.1612, 43.7117, -37.8535, -32.6148
2.416, -1, 22.5896, -4.43415, 46.2077, 43.7885, -37.7853, -32.6703
2.42, -1, 22.6395, -4.50074, 46.2542, 43.8652, -37.7172, -32.7258
2.423, -1, 22.6893, -4.5673, 46.3007, 43.9418, -37.649, -32.7813
2.428, -1, 22.7391, -4.63382, 46.3472, 44.0184, -37.581, -32.8367
2.432, -1, 22.7889, -4.70031, 46.3936, 44.095, -37.5129, -32.8921
2.436, -1, 22.8387, -4.76676, 46.4401, 44.1716, -37.4449, -32.9475
2.439, -1, 22.8885, -4.83318, 46.4865, 44.2481, -37.3769, -33.0029
2.444, -1, 22.9382, -4.89957, 46.5328, 44.3245, -37.309, -33.0582
2.448, -1, 22.9879, -4.96592, 46.5792, 44.4009, -37.2411, -33.1135
2.452, -1, 23.0376, -5.03224, 46.6255, 44.4773, -37.1732, -33.1687
2.456, -1, 23.0872, -5.09853, 46.6718, 44.5537, -37.1053, -33.224
2.459, -1, 23.1368, -5.16478, 46.7181, 44.63, -37.0375, -33.2792
2.464, -1, 23.1864, -5.231, 46.7644, 44.7062, -36.9698, -33.3344
2.468, -1, 23.236, -5.29718, 46.8106, 44.7825, -36.902, -33.3895
2.472, -1, 23.2855, -5.36334, 46.8568, 44.8587, -36.8343, -33.4447
2.476, -1, 23.3351, -5.42946, 46.903, 44.9348, -36.7666, -33.4998
2.479, -1, 23.3846, -5.49555, 46.9492, 45.0109, -36.699, -33.5548
2.484, -1, 23.434, -5.5616, 46.9953, 45.087, -36.6314, -33.6099
2.488, -1, 23.4835, -5.62762, 47.0415, 45.1631, -36.5638, -33.6649
2.492, -1, 23.5329, -5.69361, 47.0876, 45.2391, -36.4963, -33.7199
2.495, -1, 23.5823, -5.75957, 47.1336, 45.315, -36.4288, -33.7749
2.5, -1, 23.6317, -5.8255, 47.1797, 45.391, -36.3613, -33.8298
2.504, -1, 23.6811, -5.89139, 47.2257, 45.4669, -36.2939, -33.8847
2.508, -1, 23.7304, -5.95726, 47.2718, 45.5427, -36.2265, -33.9396
2.512, -1, 23.7797, -6.02309, 47.3177, 45.6185, -36.1591, -33.9944
2.515, -1, 23.829, -6.08889, 47.3637, 45.6943, -36.0917, -34.0493
2.52, -1, 23.8782, -6.15466, 47.4097, 45.7701, -36.0244, -34.1041
2.524, -1, 23.9275, -6.2204, 47.4556, 45.8458, -35.9571, -34.1589
2.528, -1, 23.9767, -6.2861, 47.5015, 45.9215, -35.8899, -34.2136
2.531, -1, 24.0259, -6.35178, 47.5474, 45.9971, -35.8227, -34.2683
2.536, -1, 24.075, -6.41742, 47.5932, 46.0727, -35.7555, -34.323
2.54, -1, 24.1242, -6.48304, 47.6391, 46.1483, -35.6883, -34.3777
2.544, -1, 24.1733, -6.54862, 47.6849, 46.2238, -35.6212, -34.4324
2.548, -1, 24.2224, -6.61417, 47.7307, 46.2993, -35.5541, -34.487
2.551, -1, 24.2715, -6.6797, 47.7765, 46.3748, -35.4871, -34.5416
2.556, -1, 24.3205, -6.74519, 47.8222, 46.4502, -35.42, -34.5962
2.56, -1, 24.3696, -6.81065, 47.8679, 46.5256, -35.353, -34.6507
2.564, -1, 24.4186, -6.87608, 47.9137, 46.601, -35.2861, -34.7053
2.568, -1, 24.4676, -6.94149, 47.9593, 46.6763, -35.2191, -34.7598
2.571, -1, 24.5165, -7.00685, 48.005, 46.7516, -35.1522, -34.8142
2.576, -1, 24.5654, -7.07214, 48.0506, 46.8269, -35.0853, -34.8687
2.58, -1, 24.6141, -7.1373, 48.0962, 46.9021, -35.0185, -34.9231
2.584, -1, 24.6626, -7.20223, 48.1417, 46.9772, -34.9517, -34.9775
2.587, -1, 24.7107, -7.26679, 48.1871, 47.0523, -34.885, -35.0318
2.592, -1, 24.7583, -7.33083, 48.2323, 47.1272, -34.8185, -35.086
2.596, -1, 24.8052, -7.39408, 48.2771, 47.2019, -34.7522, -35.14
2.6, -1, 24.8512, -7.45629, 48.3216, 47.2761, -34.6862, -35.1938
2.604, -1, 24.8962, -7.51717, 48.3654, 47.3497, -34.6209, -35.2471
2.607, -1, 24.9401, -7.57653, 48.4085, 47.4224, -34.5563, -35.2997
2.612, -1, 24.9827, -7.63417, 48.4507, 47.4939, -34.4929, -35.3515
2.616, -1, 25.0239, -7.68985, 48.4918, 47.5637, -34.4309, -35.4021
2.62, -1, 25.0637, -7.74334, 48.5315, 47.6314, -34.3708, -35.4511
2.624, -1, 25.1019, -7.79443, 48.5697, 47.6965, -34.313, -35.4983
2.627, -1, 25.1384, -7.8429, 48.6061, 47.7586, -34.2579, -35.5433
2.632, -1, 25.173, -7.88858, 48.6405, 47.8173, -34.2058, -35.5858
2.636, -1, 25.2056, -7.93135, 48.6727, 47.8721, -34.1572, -35.6255
2.64, -1, 25.236, -7.97127, 48.7025, 47.9226, -34.1123, -35.6621
2.643, -1, 25.2644, -8.00853, 48.7299, 47.9687, -34.0714, -35.6954
2.648, -1, 25.2907, -8.04334, 48.7548, 48.0101, -34.0346, -35.7254
2.652, -1, 25.3149, -8.07579, 48.7771, 48.0467, -34.0021, -35.7519
2.656, -1, 25.3371, -8.10584, 48.7969, 48.0786, -33.9737, -35.7749
2.66, -1, 25.3573, -8.13331, 48.8143, 48.1059, -33.9494, -35.7947
2.663, -1, 25.3754, -8.15803, 48.8293, 48.129, -33.9288, -35.8113
2.668, -1, 25.3915, -8.17982, 48.842, 48.1481, -33.9118, -35.8251
2.672, -1, 25.4054, -8.19861, 48.8527, 48.1637, -33.8979, -35.8363
2.676, -1, 25.4175, -8.21453, 48.8615, 48.1761, -33.8867, -35.8453
2.679, -1, 25.4277, -8.22784, 48.8686, 48.1859, -33.878, -35.8523
2.684, -1, 25.4365, -8.23887, 48.8743, 48.1934, -33.8713, -35.8576
2.688, -1, 25.4439, -8.24789, 48.8787, 48.199, -33.8662, -35.8617
2.692, -1, 25.45, -8.25516, 48.8822, 48.2031, -33.8625, -35.8646
2.696, -1, 25.4551, -8.26089, 48.8848, 48.2061, -33.8599, -35.8667
2.699, 2, 25.459, -8.26528, 48.8867, 48.2081, -33.858, -35.8682
2.704, 2, 25.462, -8.26853, 48.8881, 48.2096, -33.8567, -35.8692
2.708, 2, 25.4642, -8.27085, 48.8891, 48.2105, -33.8558, -35.8699
2.712, 2, 25.4658, -8.27245, 48.8897, 48.2112, -33.8552, -35.8703
2.716, 2, 25.4668, -8.27355, 48.8902, 48.2117, -33.8548, -35.8706
2.719, 2, 25.4675, -8.27429, 48.8905, 48.212, -33.8545, -35.8709
2.724, 2, 25.468, -8.27479, 48.8907, 48.2122, -33.8543, -35.871
2.728, 2, 25.4683, -8.27513, 48.8908, 48.2123, -33.8542, -35.8711
2.732, 2, 25.4685, -8.27536, 48.8909, 48.2124, -33.8541, -35.8712
2.735, 2, 25.4687, -8.27551, 48.891, 48.2125, -33.8541, -35.8712
2.74, 2, 25.4688, -8.27562, 48.891, 48.2125, -33.854, -35.8712
2.744, 2, 25.4688, -8.27569, 48.8911, 48.2126, -33.854, -35.8713
2.748, 2, 25.4689, -8.27574, 48.8911, 48.2126, -33.854, -35.8713
2.752, 2, 25.4689, -8.27577, 48.8911, 48.2126, -33.854, -35.8713
2.755, 2, 25.4689, -8.27579, 48.8911, 48.2126, -33.854, -35.8713
2.76, 2, 25.469, -8.27581, 48.8911, 48.2126, -33.854, -35.8713
2.764, 2, 25.469, -8.27582, 48.8911, 48.2126, -33.854, -35.8713
2.768, 2, 25.469, -8.27582, 48.8911, 48.2126, -33.854, -35.8713
2.772, 2, 25.469, -8.27583, 48.8911, 48.2126, -33.854, -35.8713
2.775, 2, 25.469, -8.27583, 48.8911, 48.2126, -33.8539, -35.8713
2.78, 2, 25.469, -8.27583, 48.8911, 48.2126, -33.8539, -35.8713
2.784, 2, 25.469, -8.27584, 48.8911, 48.2126, -33.8539, -35.8713
2.788, 2, 25.469, -8.27584, 48.8911, 48.2126, -33.8539, -35.8713
2.791, 2, 25.469, -8.27584, 48.8911, 48.2126, -33.8539, -35.8713
2.796, 2, 25.469, -8.27584, 48.8911, 48.2126, -33.8539, -35.8713
2.8, 2, 25.469, -8.27584, 48.8911, 48.2126, -33.8539, -35.8713
2.804, 2, 25.469, -8.27584, 48.8911, 48.2126, -33.8539, -35.8713
2.808, 2, 25.469, -8.27584, 48.8911, 48.2126, -33.8539, -35.8713
2.811, 2, 25.469, -8.27584, 48.8911, 48.2126, -33.8539, -35.8713
2.816, 2, 25.469, -8.27584, 48.8911, 48.2126, -33.8539, -35.8713
2.82, 2, 25.469, -8.27584, 48.8911, 48.2126, -33.8539, -35.8713
2.824, 2, 25.469, -8.27584, 48.8911, 48.2126, -33.8539, -35.8713
2.828, 2, 25.469, -8.27584, 48.8911, 48.2126, -33.8539, -35.8713
2.831, 2, 25.469, -8.27584, 48.8911, 48.2126, -33.8539, -35.8713
2.836, 2, 25.469, -8.27584, 48.8911, 48.2126, -33.8539, -35.8713
2.84, 2, 25.469, -8.27584, 48.8911, 48.2126, -33.8539, -35.8713
2.844, 2, 25.469, -8.27584, 48.8911, 48.2126, -33.8539, -35.8713
2.847, 2, 25.469, -8.27584, 48.8911, 48.2126, -33.8539, -35.8713
2.852, 2, 25.469, -8.27584, 48.8911, 48.2126, -33.8539, -35.8713
2.856, 2, 25.469, -8.27584, 48.8911, 48.2126, -33.8539, -35.8713
2.86, 2, 25.469, -8.27584, 48.8911, 48.2126, -33.8539, -35.8713
2.864, 2, 25.469, -8.27584, 48.8911, 48.2126, -33.8539, -35.8713
2.867, 2, 25.469, -8.27584, 48.8911, 48.2126, -33.8539, -35.8713
2.872, 2, 25.469, -8.27584, 48.8911, 48.2126, -33.8539, -35.8713
2.876, 2, 25.469, -8.27584, 48.8911, 48.2126, -33.8539, -35.8713
2.88, 2, 25.469, -8.27584, 48.8911, 48.2126, -33.8539, -35.8713
2.883, 2, 25.469, -8.27584, 48.8911, 48.2126, -33.8539, -35.8713
2.888, 2, 25.469, -8.27584, 48.8911, 48.2126, -33.8539, -35.8713
2.892, 2, 25.469, -8.27584, 48.8911, 48.2126, -33.8539, -35.8713
2.896, 2, 25.469, -8.27584, 48.8911, 48.2126, -33.8539, -35.8713
2.9, 2, 25.469, -8.27584, 48.8911, 48.2126, -33.8539, -35.8713
2.903, 2, 25.469, -8.27584, 48.8911, 48.2126, -33.8539, -35.8713
2.908, 2, 25.469, -8.27584, 48.8911, 48.2126, -33.8539, -35.8713
2.912, 2, 25.469, -8.27584, 48.8911, 48.2126, -33.8539, -35.8713
2.916, 2, 25.469, -8.27584, 48.8911, 48.2126, -33.8539, -35.8713
2.92, 2, 25.469, -8.27584, 48.8911, 48.2126, -33.8539, -35.8713
2.923, 2, 25.469, -8.27584, 48.8911, 48.2126, -33.8539, -35.8713
2.928, 2, 25.469, -8.27584, 48.8911, 48.2126, -33.8539, -35.8713
2.932, 2, 25.469, -8.27584, 48.8911, 48.2126, -33.8539, -35.8713
2.936, 2, 25.469, -8.27584, 48.8911, 48.2126, -33.8539, -35.8713
2.939, 2, 25.469, -8.27584, 48.8911, 48.2126, -33.8539, -35.8713
2.944, 2, 25.469, -8.27584, 48.8911, 48.2126, -33.8539, -35.8713
2.948, 2, 25.469, -8.27584, 48.8911, 48.2126, -33.8539, -35.8713
2.952, 2, 25.469, -8.27584, 48.8911, 48.2126, -33.8539, -35.8713
2.956, 2, 25.469, -8.27584, 48.8911, 48.2126, -33.8539, -35.8713
2.959, 2, 25.469, -8.27584, 48.8911, 48.2126, -33.8539, -35.8713
2.964, 2, 25.469, -8.27584, 48.8911, 48.2126, -33.8539, -35.8713
2.968, 2, 25.469, -8.27584, 48.8911, 48.2126, -33.8539, -35.8713
2.972, 2, 25.469, -8.27584, 48.8911, 48.2126, -33.8539, -35.8713
2.976, 2, 25.469, -8.27584, 48.8911, 48.2126, -33.8539, -35.8713
2.98, 2, 25.469, -8.27584, 48.8911, 48.2126, -33.8539, -35.8713
2.984, 2, 25.469, -8.27584, 48.8911, 48.2126, -33.8539, -35.8713
2.988, 2, 25.469, -8.27584, 48.8911, 48.2126, -33.8539, -35.8713
2.992, 2, 25.469, -8.27584, 48.8911, 48.2126, -33.8539, -35.8713
2.995, 2, 25.469, -8.27584, 48.8911, 48.2126, -33.8539, -35.8713
3, 2, 25.469, -8.27584, 48.8911, 48.2126, -33.8539, -35.8713
3.004, 2, 25.469, -8.27584, 48.8911, 48.2126, -33.8539, -35.8713
3.008, 2, 25.469, -8.27584, 48.8911, 48.2126, -33.8539, -35.8713
3.012, 2, 25.469, -8.27584, 48.8911, 48.2126, -33.8539, -35.8713
3.015, 2, 25.469, -8.27584, 48.8911, 48.2126, -33.8539, -35.8713
3.02, 2, 25.469, -8.27584, 48.8911, 48.2126, -33.8539, -35.8713
3.024, 2, 25.469, -8.27584, 48.8911, 48.2126, -33.8539, -35.8713
3.028, 2, 25.469, -8.27584, 48.8911, 48.2126, -33.8539, -35.8713
3.031, 2, 25.469, -8.27584, 48.8911, 48.2126, -33.8539, -35.8713
3.036, 2, 25.469, -8.27584, 48.8911, 48.2126, -33.8539, -35.8713
3.04, 2, 25.469, -8.27584, 48.8911, 48.2126, -33.8539, -35.8713
3.044, 2, 25.469, -8.27584, 48.8911, 48.2126, -33.8539, -35.8713
3.048, 2, 25.469, -8.27584, 48.8911, 48.2126, -33.8539, -35.8713
3.051, 2, 25.469, -8.27584, 48.8911, 48.2126, -33.8539, -35.8713
3.056, 2, 25.469, -8.27584, 48.8911, 48.2126, -33.8539, -35.8713
3.06, 2, 25.469, -8.27584, 48.8911, 48.2126, -33.8539, -35.8713
3.064, 2, 25.469, -8.27584, 48.8911, 48.2126, -33.8539, -35.8713
3.068, 2, 25.469, -8.27584, 48.8911, 48.2126, -33.8539, -35.8713
3.071, 2, 25.469, -8.27584, 48.8911, 48.2126, -33.8539, -35.8713
3.076, 2, 25.469, -8.27584, 48.8911, 48.2126, -33.8539, -35.8713
3.08, 2, 25.469, -8.27584, 48.8911, 48.2126, -33.8539, -35.8713
3.084, 2, 25.469, -8.27584, 48.8911, 48.2126, -33.8539, -35.8713
3.087, 2, 25.469, -8.27584, 48.8911, 48.2126, -33.8539, -35.8713
3.092, 2, 25.469, -8.27584, 48.8911, 48.2126, -33.8539, -35.8713
3.096, 2, 25.469, -8.27584, 48.8911, 48.2126, -33.8539, -35.8713
3.1, 2, 25.469, -8.27584, 48.8911, 48.2126, -33.8539, -35.8713
3.104, 2, 25.469, -8.27584, 48.8911, 48.2126, -33.8539, -35.8713
3.107, 2, 25.469, -8.27584, 48.8911, 48.2126, -33.8539, -35.8713
3.112, 2, 25.469, -8.27584, 48.8911, 48.2126, -33.8539, -35.8713
3.116, 2, 25.469, -8.27584, 48.8911, 48.2126, -33.8539, -35.8713
3.12, 2, 25.469, -8.27584, 48.8911, 48.2126, -33.8539, -35.8713
3.124, 2, 25.469, -8.27584, 48.8911, 48.2126, -33.8539, -35.8713
3.128, 2, 25.469, -8.27584, 48.8911, 48.2126, -33.8539, -35.8713
3.132, 2, 25.469, -8.27584, 48.8911, 48.2126, -33.8539, -35.8713
3.136, 2, 25.469, -8.27584, 48.8911, 48.2126, -33.8539, -35.8713
3.14, 2, 25.469, -8.27584, 48.8911, 48.2126, -33.8539, -35.8713
3.143, 2, 25.469, -8.27584, 48.8911, 48.2126, -33.8539, -35.8713
3.148, 2, 25.469, -8.27584, 48.8911, 48.2126, -33.8539, -35.8713
3.152, 2, 25.469, -8.27584, 48.8911, 48.2126, -33.8539, -35.8713
3.156, 2, 25.469, -8.27584, 48.8911, 48.2126, -33.8539, -35.8713
3.16, 2, 25.469, -8.27584, 48.8911, 48.2126, -33.8539, -35.8713
3.163, 2, 25.469, -8.27584, 48.8911, 48.2126, -33.8539, -35.8713
3.168, 2, 25.469, -8.27584, 48.8911, 48.2126, -33.8539, -35.8713
3.172, 2, 25.469, -8.27584, 48.8911, 48.2126, -33.8539, -35.8713
3.176, 2, 25.469, -8.27584, 48.8911, 48.2126, -33.8539, -35.8713
3.179, 2, 25.469, -8.27584, 48.8911, 48.2126, -33.8539, -35.8713
3.184, 2, 25.469, -8.27584, 48.8911, 48.2126, -33.8539, -35.8713
3.188, 2, 25.469, -8.27584, 48.8911, 48.2126, -33.8539, -35.8713
3.192, 2, 25.469, -8.27584, 48.8911, 48.2126, -33.8539, -35.8713
3.196, 2, 25.469, -8.27584, 48.8911, 48.2126, -33.8539, -35.8713
3.199, 2, 25.469, -8.27584, 48.8911, 48.2126, -33.8539, -35.8713
3.204, 2, 25.469, -8.27584, 48.8911, 48.2126, -33.8539, -35.8713
3.208, 2, 25.469, -8.27584, 48.8911, 48.2126, -33.8539, -35.8713
3.212, 2, 25.469, -8.27584, 48.8911, 48.2126, -33.8539, -35.8713
3.216, 2, 25.469, -8.27584, 48.8911, 48.2126, -33.8539, -35.8713
3.22, 2, 25.469, -8.27584, 48.8911, 48.2126, -33.8539, -35.8713
3.224, 2, 25.469, -8.27584, 48.8911, 48.2126, -33.8539, -35.8713
3.228, 2, 25.469, -8.27584, 48.8911, 48.2126, -33.8539, -35.8713
3.232, 2, 25.469, -8.27584, 48.8911, 48.2126, -33.8539, -35.8713
3.235, 2, 25.469, -8.27584, 48.8911, 48.2126, -33.8539, -35.8713
3.24, 2, 25.469, -8.27584, 48.8911, 48.2126, -33.8539, -35.8713
3.244, 2, 25.469, -8.27584, 48.8911, 48.2126, -33.8539, -35.8713
3.248, 2, 25.469, -8.27584, 48.8911, 48.2126, -33.8539, -35.8713
3.252, 2, 25.469, -8.27584, 48.8911, 48.2126, -33.8539, -35.8713
3.255, 2, 25.469, -8.27584, 48.8911, 48.2126, -33.8539, -35.8713
3.26, 2, 25.469, -8.27584, 48.8911, 48.2126, -33.8539, -35.8713
3.264, 2, 25.469, -8.27584, 48.8911, 48.2126, -33.8539, -35.8713
3.268, 2, 25.469, -8.27584, 48.8911, 48.2126, -33.8539, -35.8713
3.272, 2, 25.469, -8.27584, 48.8911, 48.2126, -33.8539, -35.8713
3.276, 2, 25.469, -8.27584, 48.8911, 48.2126, -33.8539, -35.8713
3.28, 2, 25.469, -8.27584, 48.8911, 48.2126, -33.8539, -35.8713
3.284, 2, 25.469, -8.27584, 48.8911, 48.2126, -33.8539, -35.8713
3.288, 2, 25.469, -8.27584, 48.8911, 48.2126, -33.8539, -35.8713
3.291, 2, 25.469, -8.27584, 48.8911, 48.2126, -33.8539, -35.8713
3.296, 2, 25.469, -8.27584, 48.8911, 48.2126, -33.8539, -35.8713
3.3, 2, 25.469, -8.27584, 48.8911, 48.2126, -33.8539, -35.8713
3.304, 2, 25.469, -8.27584, 48.8911, 48.2126, -33.8539, -35.8713
3.308, 2, 25.469, -8.27584, 48.8911, 48.2126, -33.8539, -35.8713
3.312, 2, 25.469, -8.27584, 48.8911, 48.2126, -33.8539, -35.8713
3.316, 2, 25.469, -8.27584, 48.8911, 48.2126, -33.8539, -35.8713
3.32, 2, 25.469, -8.27584, 48.8911, 48.2126, -33.8539, -35.8713
3.324, 2, 25.469, -8.27584, 48.8911, 48.2126, -33.8539, -35.8713
3.328, 2, 25.469, -8.27584, 48.8911, 48.2126, -33.8539, -35.8713
3.332, 2, 25.469, -8.27584, 48.8911, 48.2126, -33.8539, -35.8713
3.336, 2, 25.469, -8.27584, 48.8911, 48.2126, -33.8539, -35.8713
3.34, 2, 25.469, -8.27584, 48.8911, 48.2126, -33.8539, -35.8713
3.344, 2, 25.469, -8.27584, 48.8911, 48.2126, -33.8539, -35.8713
3.347, 2, 25.469, -8.27584, 48.8911, 48.2126, -33.8539, -35.8713
3.352, 2, 25.469, -8.27584, 48.8911, 48.2126, -33.8539, -35.8713
3.356, 2, 25.469, -8.27584, 48.8911, 48.2126, -33.8539, -35.8713
3.36, 2, 25.469, -8.27584, 48.8911, 48.2126, -33.8539, -35.8713
3.364, 2, 25.469, -8.27584, 48.8911, 48.2126, -33.8539, -35.8713
3.368, 2, 25.469, -8.27584, 48.8911, 48.2126, -33.8539, -35.8713
3.372, 2, 25.469, -8.27584, 48.8911, 48.2126, -33.8539, -35.8713
3.376, 2, 25.469, -8.27584, 48.8911, 48.2126, -33.8539, -35.8713
3.38, 2, 25.469, -8.27584, 48.8911, 48.2126, -33.8539, -35.8713
3.383, 2, 25.469, -8.27584, 48.8911, 48.2126, -33.8539, -35.8713
3.388, 2, 25.469, -8.27584, 48.8911, 48.2126, -33.8539, -35.8713
3.392, 2, 25.469, -8.27584, 48.8911, 48.2126, -33.8539, -35.8713
3.396, 2, 25.469, -8.27584, 48.8911, 48.2126, -33.8539, -35.8713
3.4, 2, 25.469, -8.27584, 48.8911, 48.2126, -33.8539, -35.8713
3.403, 2, 25.469, -8.27584, 48.8911, 48.2126, -33.8539, -35.8713
3.408, 2, 25.469, -8.27584, 48.8911, 48.2126, -33.8539, -35.8713
3.412, 2, 25.469, -8.27584, 48.8911, 48.2126, -33.8539, -35.8713
3.416, 2, 25.469, -8.27584, 48.8911, 48.2126, -33.8539, -35.8713
3.42, 2, 25.469, -8.27584, 48.8911, 48.2126, -33.8539, -35.8713
3.424, 2, 25.469, -8.27584, 48.8911, 48.2126, -33.8539, -35.8713
3.428, 2, 25.469, -8.27584, 48.8911, 48.2126, -33.8539, -35.8713
3.432, 2, 25.469, -8.27584, 48.8911, 48.2126, -33.8539, -35.8713
3.436, 2, 25.469, -8.27584, 48.8911, 48.2126, -33.8539, -35.8713
3.439, 2, 25.469, -8.27584, 48.8911, 48.2126, -33.8539, -35.8713
3.444, 2, 25.469, -8.27584, 48.8911, 48.2126, -33.8539, -35.8713
3.448, 2, 25.469, -8.27584, 48.8911, 48.2126, -33.8539, -35.8713
3.452, 2, 25.469, -8.27584, 48.8911, 48.2126, -33.8539, -35.8713
3.456, 2, 25.469, -8.27584, 48.8911, 48.2126, -33.8539, -35.8713
3.46, 2, 25.469, -8.27584, 48.8911, 48.2126, -33.8539, -35.8713
3.464, 2, 25.469, -8.27584, 48.8911, 48.2126, -33.8539, -35.8713
3.468, 2, 25.469, -8.27584, 48.8911, 48.2126, -33.8539, -35.8713
3.472, 2, 25.469, -8.27584, 48.8911, 48.2126, -33.8539, -35.8713
3.476, 2, 25.469, -8.27584, 48.8911, 48.2126, -33.8539, -35.8713
3.48, 2, 25.469, -8.27584, 48.8911, 48.2126, -33.8539, -35.8713
3.484, 2, 25.469, -8.27584, 48.8911, 48.2126, -33.8539, -35.8713
3.488, 2, 25.469, -8.27584, 48.8911, 48.2126, -33.8539, -35.8713
3.492, 2, 25.469, -8.27584, 48.8911, 48.2126, -33.8539, -35.8713
3.495, 2, 25.469, -8.27584, 48.8911, 48.2126, -33.8539, -35.8713
3.5, 2, 25.469, -8.27584, 48.8911, 48.2126, -33.8539, -35.8713
3.504, 2, 25.469, -8.27584, 48.8911, 48.2126, -33.8539, -35.8713
3.508, 2, 25.469, -8.27584, 48.8911, 48.2126, -33.8539, -35.8713
3.512, 2, 25.469, -8.27584, 48.8911, 48.2126, -33.8539, -35.8713
3.516, 2, 25.469, -8.27584, 48.8911, 48.2126, -33.8539, -35.8713
3.52, 2, 25.469, -8.27584, 48.8911, 48.2126, -33.8539, -35.8713
3.524, 2, 25.469, -8.27584, 48.8911, 48.2126, -33.8539, -35.8713
3.528, 2, 25.469, -8.27584, 48.8911, 48.2126, -33.8539, -35.8713
3.531, 2, 25.469, -8.27584, 48.8911, 48.2126, -33.8539, -35.8713
3.536, 2, 25.469, -8.27584, 48.8911, 48.2126, -33.8539, -35.8713
3.54, 2, 25.469, -8.27584, 48.8911, 48.2126, -33.8539, -35.8713
3.544, 2, 25.469, -8.27584, 48.8911, 48.2126, -33.8539, -35.8713
3.548, 2, 25.469, -8.27584, 48.8911, 48.2126, -33.8539, -35.8713
3.552, 2, 25.469, -8.27584, 48.8911, 48.2126, -33.8539, -35.8713
3.556, 2, 25.469, -8.27584, 48.8911, 48.2126, -33.8539, -35.8713
3.56, 2, 25.469, -8.27584, 48.8911, 48.2126, -33.8539, -35.8713
3.564, 2, 25.469, -8.27584, 48.8911, 48.2126, -33.8539, -35.8713
3.568, 2, 25.469, -8.27584, 48.8911, 48.2126, -33.8539, -35.8713
3.572, 2, 25.469, -8.27584, 48.8911, 48.2126, -33.8539, -35.8713
3.576, 2, 25.469, -8.27584, 48.8911, 48.2126, -33.8539, -35.8713
3.58, 2, 25.469, -8.27584, 48.8911, 48.2126, -33.8539, -35.8713
3.584, 2, 25.469, -8.27584, 48.8911, 48.2126, -33.8539, -35.8713
3.587, 2, 25.469, -8.27584, 48.8911, 48.2126, -33.8539, -35.8713
3.592, 2, 25.469, -8.27584, 48.8911, 48.2126, -33.8539, -35.8713
3.596, 2, 25.469, -8.27584, 48.8911, 48.2126, -33.8539, -35.8713
3.6, 2, 25.469, -8.27584, 48.8911, 48.2126, -33.8539, -35.8713
3.604, 2, 25.469, -8.27584, 48.8911, 48.2126, -33.8539, -35.8713
3.608, 2, 25.469, -8.27584, 48.8911, 48.2126, -33.8539, -35.8713
3.612, 2, 25.469, -8.27584, 48.8911, 48.2126, -33.8539, -35.8713
3.616, 2, 25.469, -8.27584, 48.8911, 48.2126, -33.8539, -35.8713
3.62, 2, 25.469, -8.27584, 48.8911, 48.2126, -33.8539, -35.8713
3.624, 2, 25.469, -8.27584, 48.8911, 48.2126, -33.8539, -35.8713
3.628, 2, 25.469, -8.27584, 48.8911, 48.2126, -33.8539, -35.8713
3.632, 2, 25.469, -8.27584, 48.8911, 48.2126, -33.8539, -35.8713
3.636, 2, 25.469, -8.27584, 48.8911, 48.2126, -33.8539, -35.8713
3.64, 2, 25.469, -8.27584, 48.8911, 48.2126, -33.8539, -35.8713
3.644, 2, 25.469, -8.27584, 48.8911, 48.2126, -33.8539, -35.8713
3.648, 2, 25.469, -8.27584, 48.8911, 48.2126, -33.8539, -35.8713
3.652, 2, 25.469, -8.27584, 48.8911, 48.2126, -33.8539, -35.8713
3.656, 2, 25.469, -8.27584, 48.8911, 48.2126, -33.8539, -35.8713
3.66, 2, 25.469, -8.27584, 48.8911, 48.2126, -33.8539, -35.8713
3.664, 2, 25.469, -8.27584, 48.8911, 48.2126, -33.8539, -35.8713
3.668, 2, 25.469, -8.27584, 48.8911, 48.2126, -33.8539, -35.8713
3.672, 2, 25.469, -8.27584, 48.8911, 48.2126, -33.8539, -35.8713
3.676, 2, 25.469, -8.27584, 48.8911, 48.2126, -33.8539, -35.8713
3.679, 2, 25.469, -8.27584, 48.8911, 48.2126, -33.8539, -35.8713
3.684, 2, 25.469, -8.27584, 48.8911, 48.2126, -33.8539, -35.8713
3.688, 2, 25.469, -8.27584, 48.8911, 48.2126, -33.8539, -35.8713
3.692, 2, 25.469, -8.27584, 48.8911, 48.2126, -33.8539, -35.8713
3.696, 2, 25.469, -8.27584, 48.8911, 48.2126, -33.8539, -35.8713
3.7, 2, 25.469, -8.27584, 48.8911, 48.2126, -33.8539, -35.8713
3.704, 2, 25.469, -8.27584, 48.8911, 48.2126, -33.8539, -35.8713
3.708, 2, 25.469, -8.27584, 48.8911, 48.2126, -33.8539, -35.8713
3.712, 2, 25.469, -8.27584, 48.8911, 48.2126, -33.8539, -35.8713
3.716, 2, 25.469, -8.27584, 48.8911, 48.2126, -33.8539, -35.8713
3.72, 2, 25.469, -8.27584, 48.8911, 48.2126, -33.8539, -35.8713
3.724, 2, 25.469, -8.27584, 48.8911, 48.2126, -33.8539, -35.8713
3.728, 2, 25.469, -8.27584, 48.8911, 48.2126, -33.8539, -35.8713
3.732, 2, 25.469, -8.27584, 48.8911, 48.2126, -33.8539, -35.8713
3.735, 2, 25.469, -8.27584, 48.8911, 48.2126, -33.8539, -35.8713
3.74, 2, 25.469, -8.27584, 48.8911, 48.2126, -33.8539, -35.8713
3.744, 2, 25.469, -8.27584, 48.8911, 48.2126, -33.8539, -35.8713
3.748, 2, 25.469, -8.27584, 48.8911, 48.2126, -33.8539, -35.8713
3.752, 2, 25.469, -8.27584, 48.8911, 48.2126, -33.8539, -35.8713
3.756, 2, 25.469, -8.27584, 48.8911, 48.2126, -33.8539, -35.8713
3.76, 2, 25.469, -8.27584, 48.8911, 48.2126, -33.8539, -35.8713
3.764, 2, 25.469, -8.27584, 48.8911, 48.2126, -33.8539, -35.8713
3.768, 2, 25.469, -8.27584, 48.8911, 48.2126, -33.8539, -35.8713
3.772, 2, 25.469, -8.27584, 48.8911, 48.2126, -33.8539, -35.8713
3.776, 4, 25.469, -8.27584, 48.8911, 48.2126, -33.8539, -35.8713
3.78, 4, 25.469, -8.27584, 48.8911, 48.2126, -33.8539, -35.8713
3.784, 4, 25.469, -8.27584, 48.8911, 48.2126, -33.8539, -35.8713
3.788, 4, 25.469, -8.27584, 48.8911, 48.2126, -33.8539, -35.8713
3.792, 4, 25.469, -8.27584, 48.8911, 48.2126, -33.8539, -35.8713
3.796, 4, 25.469, -8.27584, 48.8911, 48.2126, -33.8539, -35.8713
3.8, 4, 25.469, -8.27584, 48.8911, 48.2126, -33.8539, -35.8713
3.804, 4, 25.469, -8.27584, 48.8911, 48.2126, -33.8539, -35.8713
3.808, 4, 25.469, -8.27584, 48.8911, 48.2126, -33.8539, -35.8713
3.812, 4, 25.469, -8.27584, 48.8911, 48.2126, -33.8539, -35.8713
3.816, 4, 25.469, -8.27584, 48.8911, 48.2126, -33.8539, -35.8713
3.82, 4, 25.469, -8.27584, 48.8911, 48.2126, -33.8539, -35.8713
3.824, 4, 25.469, -8.27584, 48.8911, 48.2126, -33.8539, -35.8713
3.828, 4, 25.469, -8.27584, 48.8911, 48.2126, -33.8539, -35.8713
3.832, 4, 25.469, -8.27584, 48.8911, 48.2126, -33.8539, -35.8713
3.836, 4, 25.469, -8.27584, 48.8911, 48.2126, -33.8539, -35.8713
3.84, 4, 25.469, -8.27584, 48.8911, 48.2126, -33.8539, -35.8713
3.844, 4, 25.469, -8.27584, 48.8911, 48.2126, -33.8539, -35.8713
3.848, 4, 25.469, -8.27584, 48.8911, 48.2126, -33.8539, -35.8713
3.852, 4, 25.469, -8.27584, 48.8911, 48.2126, -33.8539, -35.8713
3.856, 4, 25.469, -8.27584, 48.8911, 48.2126, -33.8539, -35.8713
3.86, 4, 25.469, -8.27584, 48.8911, 48.2126, -33.8539, -35.8713
3.864, 4, 25.469, -8.27584, 48.8911, 48.2126, -33.8539, -35.8713
3.868, 4, 25.469, -8.27584, 48.8911, 48.2126, -33.8539, -35.8713
3.872, 4, 25.469, -8.27584, 48.8911, 48.2126, -33.8539, -35.8713
3.876, 4, 25.469, -8.27584, 48.8911, 48.2126, -33.8539, -35.8713
3.88, 4, 25.469, -8.27584, 48.8911, 48.2126, -33.8539, -35.8713
3.884, 4, 25.469, -8.27584, 48.8911, 48.2126, -33.8539, -35.8713
3.888, 4, 25.469, -8.27584, 48.8911, 48.2126, -33.8539, -35.8713
3.892, 4, 25.469, -8.27584, 48.8911, 48.2126, -33.8539, -35.8713
3.896, 4, 25.469, -8.27584, 48.8911, 48.2126, -33.8539, -35.8713
3.9, 4, 25.469, -8.27584, 48.8911, 48.2126, -33.8539, -35.8713
3.904, 4, 25.469, -8.27584, 48.8911, 48.2126, -33.8539, -35.8713
3.908, 4, 25.469, -8.27584, 48.8911, 48.2126, -33.8539, -35.8713
3.912, 4, 25.469, -8.27584, 48.8911, 48.2126, -33.8539, -35.8713
3.916, 4, 25.469, -8.27584, 48.8911, 48.2126, -33.8539, -35.8713
3.92, 4, 25.469, -8.27584, 48.8911, 48.2126, -33.8539, -35.8713
3.924, 4, 25.4689, -8.27586, 48.8911, 48.2126, -33.8539, -35.8713
3.928, 4, 25.4687, -8.27591, 48.8912, 48.2126, -33.854, -35.8713
3.932, 4, 25.4682, -8.27603, 48.8913, 48.2125, -33.854, -35.8712
3.936, 4, 25.4673, -8.27625, 48.8915, 48.2122, -33.8541, -35.871
3.94, 4, 25.4661, -8.27659, 48.8919, 48.2116, -33.8542, -35.8705
3.944, 4, 25.4645, -8.27706, 48.8925, 48.2105, -33.8545, -35.8696
3.948, 4, 25.4626, -8.27766, 48.8934, 48.2085, -33.855, -35.8679
3.952, 4, 25.4604, -8.2784, 48.8946, 48.2055, -33.8557, -35.8654
3.956, 4, 25.4579, -8.27928, 48.8963, 48.201, -33.8568, -35.8617
3.96, 4, 25.4553, -8.28031, 48.8984, 48.195, -33.8582, -35.8567
3.964, 4, 25.4523, -8.28152, 48.9012, 48.1872, -33.86, -35.8501
3.968, 5, 25.4489, -8.28294, 48.9045, 48.1774, -33.8624, -35.842
3.972, 5, 25.4451, -8.28459, 48.9085, 48.1656, -33.8651, -35.8321
3.976, 5, 25.4409, -8.28645, 48.9131, 48.1517, -33.8684, -35.8205
3.98, 5, 25.4364, -8.28852, 48.9184, 48.1357, -33.8722, -35.8072
3.984, 5, 25.4316, -8.29077, 48.9243, 48.1178, -33.8764, -35.7922
3.988, 5, 25.4265, -8.29319, 48.9307, 48.0979, -33.8811, -35.7756
3.992, 5, 25.4212, -8.29578, 48.9377, 48.0764, -33.8861, -35.7577
3.996, 5, 25.4155, -8.29852, 48.9451, 48.0535, -33.8915, -35.7386
3.999, 5, 25.4095, -8.30142, 48.9529, 48.0295, -33.8972, -35.7185
4.004, 5, 25.4031, -8.30448, 48.961, 48.0046, -33.9031, -35.6977
4.008, 5, 25.3963, -8.30768, 48.9694, 47.9791, -33.9091, -35.6764
4.012, 5, 25.3891, -8.311, 48.9779, 47.9532, -33.9153, -35.6548
4.016, 5, 25.3815, -8.31441, 48.9866, 47.927, -33.9215, -35.6329
4.02, 5, 25.3738, -8.31788, 48.9954, 47.9005, -33.9278, -35.6109
4.024, 5, 25.366, -8.32138, 49.0042, 47.874, -33.9341, -35.5887
4.028, 5, 25.358, -8.32491, 49.013, 47.8473, -33.9404, -35.5665
4.032, 5, 25.35, -8.32846, 49.0219, 47.8206, -33.9468, -35.5442
4.036, 5, 25.3419, -8.33202, 49.0308, 47.7939, -33.9532, -35.5219
4.04, 5, 25.3338, -8.33558, 49.0398, 47.7672, -33.9596, -35.4996
4.044, 5, 25.3257, -8.33914, 49.0487, 47.7404, -33.966, -35.4772
4.048, 5, 25.3176, -8.34271, 49.0576, 47.7136, -33.9724, -35.4549
4.052, 5, 25.3094, -8.34628, 49.0665, 47.6868, -33.9788, -35.4326
4.056, 5, 25.3013, -8.34984, 49.0755, 47.66, -33.9852, -35.4102
4.06, 5, 25.2931, -8.3534, 49.0844, 47.6332, -33.9917, -35.3879
4.064, 5, 25.2849, -8.35697, 49.0933, 47.6065, -33.9981, -35.3655
4.068, 5, 25.2768, -8.36053, 49.1023, 47.5797, -34.0046, -35.3432
4.072, 5, 25.2686, -8.36408, 49.1112, 47.5529, -34.011, -35.3209
4.076, 5, 25.2604, -8.36763, 49.1201, 47.5261, -34.0175, -35.2986
4.08, 5, 25.2522, -8.37119, 49.129, 47.4994, -34.0239, -35.2762
4.084, 5, 25.2441, -8.37473, 49.138, 47.4726, -34.0304, -35.2539
4.088, 5, 25.2359, -8.37828, 49.1469, 47.4458, -34.0369, -35.2316
4.092, 5, 25.2277, -8.38182, 49.1558, 47.4191, -34.0433, -35.2093
4.096, 5, 25.2195, -8.38536, 49.1647, 47.3923, -34.0498, -35.187
4.1, 5, 25.2113, -8.3889, 49.1736, 47.3656, -34.0563, -35.1647
4.104, 5, 25.2031, -8.39243, 49.1825, 47.3388, -34.0628, -35.1424
4.108, 5, 25.1949, -8.39596, 49.1914, 47.3121, -34.0693, -35.1201
4.112, 5, 25.1867, -8.39949, 49.2003, 47.2854, -34.0758, -35.0979
4.116, 5, 25.1785, -8.40301, 49.2093, 47.2586, -34.0823, -35.0756
4.12, 5, 25.1703, -8.40653, 49.2182, 47.2319, -34.0889, -35.0533
4.124, 5, 25.1621, -8.41005, 49.2271, 47.2052, -34.0954, -35.0311
4.128, 5, 25.1539, -8.41357, 49.236, 47.1785, -34.1019, -35.0088
4.132, 5, 25.1457, -8.41708, 49.2448, 47.1518, -34.1085, -34.9866
4.136, 5, 25.1375, -8.42059, 49.2537, 47.1251, -34.115, -34.9643
4.14, 5, 25.1293, -8.4241, 49.2626, 47.0984, -34.1215, -34.9421
4.144, 5, 25.1211, -8.4276, 49.2715, 47.0717, -34.1281, -34.9198
4.148, 5, 25.1129, -8.4311, 49.2804, 47.045, -34.1347, -34.8976
4.152, 5, 25.1047, -8.4346, 49.2893, 47.0184, -34.1412, -34.8754
4.156, 5, 25.0965, -8.43809, 49.2982, 46.9917, -34.1478, -34.8532
4.16, 5, 25.0882, -8.44158, 49.3071, 46.965, -34.1544, -34.831
4.164, 5, 25.08, -8.44507, 49.3159, 46.9383, -34.1609, -34.8087
4.168, 5, 25.0718, -8.44855, 49.3248, 46.9117, -34.1675, -34.7865
4.172, 5, 25.0636, -8.45204, 49.3337, 46.885, -34.1741, -34.7643
4.176, 5, 25.0553, -8.45552, 49.3426, 46.8584, -34.1807, -34.7422
4.18, 5, 25.0471, -8.45899, 49.3514, 46.8317, -34.1873, -34.72
4.184, 5, 25.0389, -8.46247, 49.3603, 46.8051, -34.1939, -34.6978
4.188, 5, 25.0306, -8.46594, 49.3692, 46.7785, -34.2006, -34.6756
4.192, 5, 25.0224, -8.4694, 49.378, 46.7518, -34.2072, -34.6534
4.196, 5, 25.0142, -8.47287, 49.3869, 46.7252, -34.2138, -34.6313
4.2, 5, 25.0059, -8.47633, 49.3958, 46.6986, -34.2204, -34.6091
4.204, 5, 24.9977, -8.47979, 49.4046, 46.672, -34.2271, -34.587
4.208, 5, 24.9894, -8.48324, 49.4135, 46.6454, -34.2337, -34.5648
4.212, 5, 24.9812, -8.48669, 49.4223, 46.6188, -34.2404, -34.5427
4.216, 5, 24.9729, -8.49014, 49.4312, 46.5922, -34.247, -34.5205
4.22, 5, 24.9647, -8.49359, 49.44, 46.5656, -34.2537, -34.4984
4.224, 5, 24.9564, -8.49703, 49.4489, 46.539, -34.2603, -34.4763
4.228, 5, 24.9482, -8.50047, 49.4577, 46.5124, -34.267, -34.4542
4.232, 5, 24.9399, -8.50391, 49.4666, 46.4858, -34.2737, -34.432
4.236, 5, 24.9317, -8.50734, 49.4754, 46.4593, -34.2804, -34.4099
4.24, 5, 24.9234, -8.51077, 49.4842, 46.4327, -34.2871, -34.3878
4.244, 5, 24.9152, -8.5142, 49.4931, 46.4061, -34.2937, -34.3657
4.248, 5, 24.9069, -8.51762, 49.5019, 46.3796, -34.3004, -34.3436
4.252, 5, 24.8986, -8.52105, 49.5107, 46.353, -34.3072, -34.3215
4.256, 5, 24.8904, -8.52446, 49.5196, 46.3265, -34.3139, -34.2995
4.26, 5, 24.8821, -8.52788, 49.5284, 46.2999, -34.3206, -34.2774
4.264, 5, 24.8738, -8.53129, 49.5372, 46.2734, -34.3273, -34.2553
4.268, 5, 24.8655, -8.5347, 49.5461, 46.2469, -34.334, -34.2332
4.272, 5, 24.8573, -8.53811, 49.5549, 46.2203, -34.3408, -34.2112
4.276, 5, 24.849, -8.54151, 49.5637, 46.1938, -34.3475, -34.1891
4.28, 5, 24.8407, -8.54491, 49.5725, 46.1673, -34.3543, -34.1671
4.284, 5, 24.8324, -8.54831, 49.5813, 46.1408, -34.361, -34.145
4.288, 5, 24.8241, -8.5517, 49.5901, 46.1143, -34.3678, -34.123
4.292, 5, 24.8158, -8.55509, 49.599, 46.0878, -34.3745, -34.101
4.296, 5, 24.8075, -8.55848, 49.6078, 46.0613, -34.3813, -34.0789
4.3, 5, 24.7993, -8.56186, 49.6166, 46.0348, -34.3881, -34.0569
4.304, 5, 24.791, -8.56524, 49.6254, 46.0083, -34.3948, -34.0349
4.308, 5, 24.7827, -8.56862, 49.6342, 45.9819, -34.4016, -34.0129
4.312, 5, 24.7744, -8.572, 49.643, 45.9554, -34.4084, -33.9909
4.316, 5, 24.7661, -8.57537, 49.6518, 45.9289, -34.4152, -33.9689
4.32, 5, 24.7578, -8.57874, 49.6606, 45.9025, -34.422, -33.9469
4.324, 5, 24.7495, -8.5821, 49.6694, 45.876, -34.4288, -33.9249
4.328, 5, 24.7412, -8.58547, 49.6782, 45.8495, -34.4356, -33.9029
4.332, 5, 24.7329, -8.58883, 49.687, 45.8231, -34.4425, -33.8809
4.336, 5, 24.7245, -8.59218, 49.6957, 45.7967, -34.4493, -33.859
4.34, 5, 24.7162, -8.59554, 49.7045, 45.7702, -34.4561, -33.837
4.344, 5, 24.7079, -8.59889, 49.7133, 45.7438, -34.4629, -33.815
4.348, 5, 24.6996, -8.60223, 49.7221, 45.7174, -34.4698, -33.7931
4.352, 5, 24.6913, -8.60558, 49.7309, 45.6909, -34.4766, -33.7711
4.356, 5, 24.683, -8.60892, 49.7396, 45.6645, -34.4835, -33.7492
4.36, 5, 24.6746, -8.61226, 49.7484, 45.6381, -34.4903, -33.7273
4.364, 5, 24.6663, -8.61559, 49.7572, 45.6117, -34.4972, -33.7053
4.368, 5, 24.658, -8.61892, 49.766, 45.5853, -34.5041, -33.6834
4.372, 5, 24.6497, -8.62225, 49.7747, 45.5589, -34.511, -33.6615
4.376, 5, 24.6413, -8.62558, 49.7835, 45.5325, -34.5178, -33.6396
4.38, 5, 24.633, -8.6289, 49.7923, 45.5062, -34.5247, -33.6177
4.384, 5, 24.6247, -8.63222, 49.801, 45.4798, -34.5316, -33.5957
4.388, 5, 24.6163, -8.63553, 49.8098, 45.4534, -34.5385, -33.5739
4.392, 5, 24.608, -8.63885, 49.8185, 45.427, -34.5454, -33.552
4.396, 5, 24.5996, -8.64216, 49.8273, 45.4007, -34.5523, -33.5301
4.4, 5, 24.5913, -8.64546, 49.8361, 45.3743, -34.5593, -33.5082
4.404, 5, 24.5829, -8.64877, 49.8448, 45.348, -34.5662, -33.4863
4.408, 5, 24.5746, -8.65207, 49.8536, 45.3216, -34.5731, -33.4644
4.412, 5, 24.5663, -8.65536, 49.8623, 45.2953, -34.58, -33.4426
4.416, 5, 24.5579, -8.65866, 49.871, 45.2689, -34.587, -33.4207
4.42, 5, 24.5495, -8.66195, 49.8798, 45.2426, -34.5939, -33.3989
4.424, 5, 24.5412, -8.66524, 49.8885, 45.2163, -34.6009, -33.377
4.428, 5, 24.5328, -8.66852, 49.8973, 45.19, -34.6078, -33.3552
4.432, 5, 24.5245, -8.6718, 49.906, 45.1637, -34.6148, -33.3333
4.436, 5, 24.5161, -8.67508, 49.9147, 45.1374, -34.6218, -33.3115
4.44, 5, 24.5077, -8.67836, 49.9235, 45.111, -34.6287, -33.2897
4.444, 5, 24.4994, -8.68163, 49.9322, 45.0848, -34.6357, -33.2679
4.448, 5, 24.491, -8.6849, 49.9409, 45.0585, -34.6427, -33.246
4.452, 5, 24.4826, -8.68817, 49.9497, 45.0322, -34.6497, -33.2242
4.456, 5, 24.4743, -8.69143, 49.9584, 45.0059, -34.6567, -33.2024
4.46, 5, 24.4659, -8.69469, 49.9671, 44.9796, -34.6637, -33.1806
4.464, 5, 24.4575, -8.69795, 49.9758, 44.9533, -34.6707, -33.1588
4.468, 5, 24.4491, -8.7012, 49.9845, 44.9271, -34.6777, -33.1371
4.472, 5, 24.4408, -8.70445, 49.9932, 44.9008, -34.6847, -33.1153
4.476, 5, 24.4324, -8.7077, 50.002, 44.8746, -34.6917, -33.0935
4.48, 5, 24.424, -8.71095, 50.0107, 44.8483, -34.6988, -33.0717
4.484, 5, 24.4156, -8.71419, 50.0194, 44.8221, -34.7058, -33.05
4.488, 5, 24.4072, -8.71743, 50.0281, 44.7958, -34.7128, -33.0282
4.492, 5, 24.3988, -8.72066, 50.0368, 44.7696, -34.7199, -33.0065
4.496, 5, 24.3904, -8.7239, 50.0455, 44.7434, -34.7269, -32.9847
4.5, 5, 24.382, -8.72712, 50.0542, 44.7171, -34.734, -32.963
4.504, 5, 24.3736, -8.73035, 50.0629, 44.6909, -34.7411, -32.9412
4.508, 5, 24.3652, -8.73357, 50.0716, 44.6647, -34.7481, -32.9195
4.512, 5, 24.3568, -8.73679, 50.0803, 44.6385, -34.7552, -32.8978
4.516, 5, 24.3484, -8.74001, 50.089, 44.6123, -34.7623, -32.8761
4.52, 5, 24.34, -8.74322, 50.0977, 44.5861, -34.7694, -32.8543
4.524, 5, 24.3316, -8.74643, 50.1063, 44.5599, -34.7765, -32.8326
4.528, 5, 24.3232, -8.74964, 50.115, 44.5337, -34.7835, -32.8109
4.532, 5, 24.3148, -8.75285, 50.1237, 44.5076, -34.7906, -32.7892
4.536, 5, 24.3064, -8.75605, 50.1324, 44.4814, -34.7978, -32.7676
4.54, 5, 24.298, -8.75925, 50.1411, 44.4552, -34.8049, -32.7459
4.544, 5, 24.2896, -8.76244, 50.1497, 44.429, -34.812, -32.7242
4.548, 5, 24.2811, -8.76563, 50.1584, 44.4029, -34.8191, -32.7025
4.552, 5, 24.2727, -8.76882, 50.1671, 44.3767, -34.8262, -32.6809
4.556, 5, 24.2643, -8.77201, 50.1758, 44.3506, -34.8334, -32.6592
4.56, 5, 24.2559, -8.77519, 50.1844, 44.3244, -34.8405, -32.6375
4.564, 5, 24.2474, -8.77837, 50.1931, 44.2983, -34.8477, -32.6159
4.568, 5, 24.239, -8.78154, 50.2018, 44.2722, -34.8548, -32.5942
4.572, 5, 24.2306, -8.78472, 50.2104, 44.2461, -34.862, -32.5726
4.576, 5, 24.2222, -8.78789, 50.2191, 44.2199, -34.8691, -32.551
4.58, 5, 24.2137, -8.79105, 50.2277, 44.1938, -34.8763, -32.5293
4.584, 5, 24.2053, -8.79422, 50.2364, 44.1677, -34.8835, -32.5077
4.588, 5, 24.1968, -8.79738, 50.245, 44.1416, -34.8907, -32.4861
4.592, 5, 24.1884, -8.80053, 50.2537, 44.1155, -34.8979, -32.4645
4.596, 5, 24.18, -8.80369, 50.2623, 44.0894, -34.9051, -32.4429
4.6, 5, 24.1715, -8.80684, 50.271, 44.0633, -34.9123, -32.4213
4.604, 5, 24.1631, -8.80999, 50.2796, 44.0372, -34.9195, -32.3997
4.608, 5, 24.1546, -8.81313, 50.2883, 44.0112, -34.9267, -32.3781
4.612, 5, 24.1462, -8.81627, 50.2969, 43.9851, -34.9339, -32.3565
4.616, 5, 24.1377, -8.81941, 50.3056, 43.959, -34.9411, -32.335
4.62, 5, 24.1292, -8.82254, 50.3142, 43.933, -34.9483, -32.3134
4.624, 5, 24.1208, -8.82567, 50.3228, 43.9069, -34.9556, -32.2918
4.628, 5, 24.1123, -8.8288, 50.3315, 43.8809, -34.9628, -32.2703
4.632, 5, 24.1039, -8.83193, 50.3401, 43.8548, -34.97, -32.2487
4.636, 5, 24.0954, -8.83505, 50.3487, 43.8288, -34.9773, -32.2272
4.64, 5, 24.0869, -8.83817, 50.3573, 43.8028, -34.9845, -32.2056
4.644, 5, 24.0785, -8.84128, 50.366, 43.7767, -34.9918, -32.1841
4.648, 5, 24.07, -8.8444, 50.3746, 43.7507, -34.9991, -32.1626
4.652, 5, 24.0615, -8.84751, 50.3832, 43.7247, -35.0063, -32.1411
4.656, 5, 24.053, -8.85061, 50.3918, 43.6987, -35.0136, -32.1195
4.66, 5, 24.0446, -8.85372, 50.4004, 43.6727, -35.0209, -32.098
4.664, 5, 24.0361, -8.85682, 50.409, 43.6467, -35.0282, -32.0765
4.668, 5, 24.0276, -8.85991, 50.4176, 43.6207, -35.0355, -32.055
4.672, 5, 24.0191, -8.86301, 50.4263, 43.5947, -35.0428, -32.0335
4.676, 5, 24.0106, -8.8661, 50.4349, 43.5687, -35.0501, -32.012
4.68, 5, 24.0022, -8.86918, 50.4435, 43.5427, -35.0574, -31.9906
4.684, 5, 23.9937, -8.87227, 50.4521, 43.5168, -35.0647, -31.9691
4.688, 5, 23.9852, -8.87535, 50.4607, 43.4908, -35.072, -31.9476
4.692, 5, 23.9767, -8.87842, 50.4693, 43.4648, -35.0794, -31.9262
4.696, 5, 23.9682, -8.8815, 50.4778, 43.4389, -35.0867, -31.9047
4.7, 5, 23.9597, -8.88457, 50.4864, 43.4129, -35.0941, -31.8832
4.704, 5, 23.9512, -8.88764, 50.495, 43.387, -35.1014, -31.8618
4.708, 5, 23.9427, -8.8907, 50.5036, 43.361, -35.1087, -31.8404
4.712, 5, 23.9342, -8.89376, 50.5122, 43.3351, -35.1161, -31.8189
4.716, 5, 23.9257, -8.89682, 50.5208, 43.3092, -35.1235, -31.7975
4.72, 5, 23.9172, -8.89987, 50.5294, 43.2833, -35.1308, -31.7761
4.724, 5, 23.9087, -8.90292, 50.5379, 43.2573, -35.1382, -31.7546
4.728, 5, 23.9001, -8.90597, 50.5465, 43.2314, -35.1456, -31.7332
4.732, 5, 23.8916, -8.90902, 50.5551, 43.2055, -35.153, -31.7118
4.736, 5, 23.8831, -8.91206, 50.5637, 43.1796, -35.1604, -31.6904
4.74, 5, 23.8746, -8.9151, 50.5722, 43.1537, -35.1678, -31.669
4.744, 5, 23.8661, -8.91813, 50.5808, 43.1278, -35.1752, -31.6477
4.748, 5, 23.8576, -8.92117, 50.5894, 43.102, -35.1826, -31.6263
4.752, 5, 23.849, -8.92419, 50.5979, 43.0761, -35.19, -31.6049
4.756, 5, 23.8405, -8.92722, 50.6065, 43.0502, -35.1974, -31.5835
4.76, 5, 23.832, -8.93024, 50.615, 43.0243, -35.2048, -31.5622
4.764, 5, 23.8234, -8.93326, 50.6236, 42.9985, -35.2123, -31.5408
4.768, 5, 23.8149, -8.93628, 50.6322, 42.9726, -35.2197, -31.5194
4.772, 5, 23.8064, -8.93929, 50.6407, 42.9468, -35.2271, -31.4981
4.776, 5, 23.7978, -8.9423, 50.6493, 42.9209, -35.2346, -31.4768
4.78, 5, 23.7893, -8.9453, 50.6578, 42.8951, -35.242, -31.4554
4.784, 5, 23.7808, -8.94831, 50.6664, 42.8693, -35.2495, -31.4341
4.788, 5, 23.7722, -8.95131, 50.6749, 42.8434, -35.257, -31.4128
4.792, 5, 23.7637, -8.9543, 50.6834, 42.8176, -35.2644, -31.3915
4.796, 5, 23.7551, -8.95729, 50.692, 42.7918, -35.2719, -31.3701
4.8, 5, 23.7466, -8.96029, 50.7005, 42.766, -35.2794, -31.3488
4.804, 5, 23.738, -8.96327, 50.709, 42.7402, -35.2869, -31.3275
4.808, 5, 23.7295, -8.96625, 50.7176, 42.7144, -35.2944, -31.3062
4.812, 5, 23.7209, -8.96923, 50.7261, 42.6886, -35.3019, -31.285
4.816, 5, 23.7124, -8.97221, 50.7346, 42.6628, -35.3094, -31.2637
4.82, 5, 23.7038, -8.97518, 50.7432, 42.637, -35.3169, -31.2424
4.824, 5, 23.6952, -8.97815, 50.7517, 42.6113, -35.3244, -31.2211
4.828, 5, 23.6867, -8.98112, 50.7602, 42.5855, -35.3319, -31.1999
4.832, 5, 23.6781, -8.98408, 50.7687, 42.5597, -35.3395, -31.1786
4.836, 5, 23.6695, -8.98704, 50.7772, 42.534, -35.347, -31.1574
4.84, 5, 23.661, -8.99, 50.7858, 42.5082, -35.3545, -31.1361
4.844, 5, 23.6524, -8.99295, 50.7943, 42.4825, -35.3621, -31.1149
4.848, 5, 23.6438, -8.9959, 50.8028, 42.4567, -35.3696, -31.0936
4.852, 5, 23.6353, -8.99885, 50.8113, 42.431, -35.3772, -31.0724
4.856, 5, 23.6267, -9.00179, 50.8198, 42.4053, -35.3847, -31.0512
4.86, 5, 23.6181, -9.00473, 50.8283, 42.3795, -35.3923, -31.03
4.864, 5, 23.6095, -9.00767, 50.8368, 42.3538, -35.3999, -31.0088
4.868, 5, 23.6009, -9.0106, 50.8453, 42.3281, -35.4074, -30.9876
4.872, 5, 23.5923, -9.01354, 50.8538, 42.3024, -35.415, -30.9664
4.876, 5, 23.5838, -9.01646, 50.8623, 42.2767, -35.4226, -30.9452
4.88, 5, 23.5752, -9.01939, 50.8708, 42.251, -35.4302, -30.924
4.884, 5, 23.5666, -9.02231, 50.8793, 42.2253, -35.4378, -30.9028
4.888, 5, 23.558, -9.02522, 50.8878, 42.1996, -35.4454, -30.8816
4.892, 5, 23.5494, -9.02814, 50.8962, 42.1739, -35.453, -30.8605
4.896, 5, 23.5408, -9.03105, 50.9047, 42.1483, -35.4607, -30.8393
4.9, 5, 23.5322, -9.03396, 50.9132, 42.1226, -35.4683, -30.8181
4.904, 5, 23.5236, -9.03686, 50.9217, 42.0969, -35.4759, -30.797
4.908, 5, 23.515, -9.03976, 50.9302, 42.0713, -35.4835, -30.7759
4.912, 5, 23.5064, -9.04266, 50.9386, 42.0456, -35.4912, -30.7547
4.916, 5, 23.4978, -9.04555, 50.9471, 42.02, -35.4988, -30.7336
4.92, 5, 23.4892, -9.04844, 50.9556, 41.9943, -35.5065, -30.7125
4.924, 5, 23.4805, -9.05133, 50.964, 41.9687, -35.5141, -30.6913
4.928, 5, 23.4719, -9.05421, 50.9725, 41.9431, -35.5218, -30.6702
4.932, 5, 23.4633, -9.05709, 50.981, 41.9174, -35.5295, -30.6491
4.936, 5, 23.4547, -9.05997, 50.9894, 41.8918, -35.5371, -30.628
4.94, 5, 23.4461, -9.06285, 50.9979, 41.8662, -35.5448, -30.6069
4.944, 5, 23.4374, -9.06572, 51.0063, 41.8406, -35.5525, -30.5858
4.948, 5, 23.4288, -9.06858, 51.0148, 41.815, -35.5602, -30.5647
4.952, 5, 23.4202, -9.07145, 51.0233, 41.7894, -35.5679, -30.5437
4.956, 5, 23.4116, -9.07431, 51.0317, 41.7638, -35.5756, -30.5226
4.96, 5, 23.4029, -9.07716, 51.0401, 41.7382, -35.5833, -30.5015
4.964, 5, 23.3943, -9.08002, 51.0486, 41.7127, -35.591, -30.4805
4.968, 5, 23.3857, -9.08287, 51.057, 41.6871, -35.5988, -30.4594
4.972, 5, 23.377, -9.08572, 51.0655, 41.6615, -35.6065, -30.4384
4.976, 5, 23.3684, -9.08856, 51.0739, 41.636, -35.6142, -30.4173
4.98, 5, 23.3597, -9.0914, 51.0824, 41.6104, -35.6219, -30.3963
4.984, 5, 23.3511, -9.09424, 51.0908, 41.5849, -35.6297, -30.3753
4.988, 5, 23.3425, -9.09707, 51.0992, 41.5593, -35.6374, -30.3542
4.992, 5, 23.3338, -9.0999, 51.1076, 41.5338, -35.6452, -30.3332
4.996, 5, 23.3252, -9.10273, 51.1161, 41.5083, -35.653, -30.3122
5, 5, 23.3165, -9.10555, 51.1245, 41.4827, -35.6607, -30.2912
5.004, 5, 23.3079, -9.10837, 51.1329, 41.4572, -35.6685, -30.2702
5.008, 5, 23.2992, -9.11119, 51.1413, 41.4317, -35.6763, -30.2492
5.012, 5, 23.2905, -9.114, 51.1498, 41.4062, -35.684, -30.2282
5.016, 5, 23.2819, -9.11681, 51.1582, 41.3807, -35.6918, -30.2072
5.02, 5, 23.2732, -9.11962, 51.1666, 41.3552, -35.6996, -30.1863
5.024, 5, 23.2646, -9.12243, 51.175, 41.3297, -35.7074, -30.1653
5.028, 5, 23.2559, -9.12523, 51.1834, 41.3042, -35.7152, -30.1443
5.032, 5, 23.2472, -9.12802, 51.1918, 41.2787, -35.723, -30.1234
5.036, 5, 23.2386, -9.13082, 51.2002, 41.2533, -35.7309, -30.1024
5.04, 5, 23.2299, -9.13361, 51.2086, 41.2278, -35.7387, -30.0815
5.044, 5, 23.2212, -9.13639, 51.217, 41.2023, -35.7465, -30.0606
5.048, 5, 23.2125, -9.13918, 51.2254, 41.1769, -35.7543, -30.0396
5.052, 5, 23.2039, -9.14196, 51.2338, 41.1514, -35.7622, -30.0187
5.056, 5, 23.1952, -9.14473, 51.2422, 41.126, -35.77, -29.9978
5.06, 5, 23.1865, -9.1475, 51.2506, 41.1005, -35.7779, -29.9769
5.064, 5, 23.1778, -9.15028, 51.259, 41.0751, -35.7857, -29.956
5.068, 5, 23.1691, -9.15304, 51.2674, 41.0497, -35.7936, -29.9351
5.072, 5, 23.1604, -9.1558, 51.2758, 41.0243, -35.8015, -29.9142
5.076, 5, 23.1517, -9.15856, 51.2841, 40.9988, -35.8093, -29.8933
5.08, 5, 23.143, -9.16132, 51.2925, 40.9734, -35.8172, -29.8724
5.084, 5, 23.1343, -9.16407, 51.3009, 40.948, -35.8251, -29.8515
5.088, 5, 23.1257, -9.16682, 51.3093, 40.9226, -35.833, -29.8306
5.092, 5, 23.117, -9.16957, 51.3177, 40.8972, -35.8409, -29.8098
5.096, 5, 23.1083, -9.17231, 51.326, 40.8719, -35.8488, -29.7889
5.1, 5, 23.0996, -9.17505, 51.3344, 40.8465, -35.8567, -29.7681
5.104, 5, 23.0908, -9.17779, 51.3428, 40.8211, -35.8646, -29.7472
5.108, 5, 23.0821, -9.18052, 51.3511, 40.7957, -35.8725, -29.7264
5.112, 5, 23.0734, -9.18325, 51.3595, 40.7704, -35.8805, -29.7055
5.116, 5, 23.0647, -9.18597, 51.3678, 40.745, -35.8884, -29.6847
5.12, 5, 23.056, -9.18869, 51.3762, 40.7197, -35.8963, -29.6639
5.124, 5, 23.0473, -9.19141, 51.3846, 40.6943, -35.9043, -29.6431
5.128, 5, 23.0386, -9.19413, 51.3929, 40.669, -35.9122, -29.6223
5.132, 5, 23.0299, -9.19684, 51.4013, 40.6436, -35.9202, -29.6015
5.136, 5, 23.0211, -9.19955, 51.4096, 40.6183, -35.9281, -29.5807
5.14, 5, 23.0124, -9.20225, 51.4179, 40.593, -35.9361, -29.5599
5.144, 5, 23.0037, -9.20496, 51.4263, 40.5677, -35.9441, -29.5391
5.148, 5, 22.995, -9.20765, 51.4346, 40.5424, -35.952, -29.5183
5.152, 5, 22.9862, -9.21035, 51.443, 40.5171, -35.96, -29.4975
5.156, 5, 22.9775, -9.21304, 51.4513, 40.4918, -35.968, -29.4768
5.16, 5, 22.9688, -9.21573, 51.4596, 40.4665, -35.976, -29.456
5.164, 5, 22.96, -9.21841, 51.468, 40.4412, -35.984, -29.4353
5.168, 5, 22.9513, -9.22109, 51.4763, 40.4159, -35.992, -29.4145
5.172, 5, 22.9425, -9.22377, 51.4846, 40.3906, -36, -29.3938
5.176, 5, 22.9338, -9.22645, 51.493, 40.3654, -36.008, -29.373
5.18, 5, 22.9251, -9.22912, 51.5013, 40.3401, -36.0161, -29.3523
5.184, 5, 22.9163, -9.23178, 51.5096, 40.3148, -36.0241, -29.3316
5.188, 5, 22.9076, -9.23445, 51.5179, 40.2896, -36.0321, -29.3109
5.192, 5, 22.8988, -9.23711, 51.5262, 40.2643, -36.0402, -29.2902
5.196, 5, 22.8901, -9.23976, 51.5345, 40.2391, -36.0482, -29.2695
5.2, 5, 22.8813, -9.24242, 51.5429, 40.2139, -36.0562, -29.2488
5.204, 5, 22.8726, -9.24507, 51.5512, 40.1886, -36.0643, -29.2281
5.208, 5, 22.8638, -9.24771, 51.5595, 40.1634, -36.0724, -29.2074
5.212, 5, 22.855, -9.25036, 51.5678, 40.1382, -36.0804, -29.1867
5.216, 5, 22.8463, -9.253, 51.5761, 40.113, -36.0885, -29.166
5.22, 5, 22.8375, -9.25563, 51.5844, 40.0878, -36.0966, -29.1454
5.224, 5, 22.8287, -9.25827, 51.5927, 40.0626, -36.1047, -29.1247
5.228, 5, 22.82, -9.2609, 51.601, 40.0374, -36.1128, -29.1041
5.232, 5, 22.8112, -9.26352, 51.6093, 40.0122, -36.1209, -29.0834
5.236, 5, 22.8024, -9.26615, 51.6176, 39.987, -36.129, -29.0628
5.24, 5, 22.7937, -9.26877, 51.6259, 39.9619, -36.1371, -29.0421
5.244, 5, 22.7849, -9.27138, 51.6341, 39.9367, -36.1452, -29.0215
5.248, 5, 22.7761, -9.27399, 51.6424, 39.9115, -36.1533, -29.0009
5.252, 5, 22.7673, -9.2766, 51.6507, 39.8864, -36.1614, -28.9803
5.256, 5, 22.7585, -9.27921, 51.659, 39.8612, -36.1695, -28.9596
5.26, 5, 22.7498, -9.28181, 51.6673, 39.8361, -36.1777, -28.939
5.264, 5, 22.741, -9.28441, 51.6755, 39.8109, -36.1858, -28.9184
5.268, 5, 22.7322, -9.287, 51.6838, 39.7858, -36.194, -28.8978
5.272, 5, 22.7234, -9.28959, 51.6921, 39.7607, -36.2021, -28.8773
5.276, 5, 22.7146, -9.29218, 51.7003, 39.7355, -36.2103, -28.8567
5.28, 5, 22.7058, -9.29477, 51.7086, 39.7104, -36.2184, -28.8361
5.284, 5, 22.697, -9.29735, 51.7169, 39.6853, -36.2266, -28.8155
5.288, 5, 22.6882, -9.29992, 51.7251, 39.6602, -36.2348, -28.795
5.292, 5, 22.6794, -9.3025, 51.7334, 39.6351, -36.243, -28.7744
5.296, 5, 22.6706, -9.30507, 51.7417, 39.61, -36.2512, -28.7539
5.3, 5, 22.6618, -9.30764, 51.7499, 39.5849, -36.2593, -28.7333
5.304, 5, 22.653, -9.3102, 51.7582, 39.5599, -36.2675, -28.7128
5.308, 5, 22.6442, -9.31276, 51.7664, 39.5348, -36.2757, -28.6923
5.312, 5, 22.6354, -9.31532, 51.7747, 39.5097, -36.284, -28.6717
5.316, 5, 22.6265, -9.31787, 51.7829, 39.4847, -36.2922, -28.6512
5.32, 5, 22.6177, -9.32042, 51.7911, 39.4596, -36.3004, -28.6307
5.324, 5, 22.6089, -9.32297, 51.7994, 39.4345, -36.3086, -28.6102
5.328, 5, 22.6001, -9.32551, 51.8076, 39.4095, -36.3168, -28.5897
5.332, 5, 22.5913, -9.32805, 51.8159, 39.3845, -36.3251, -28.5692
5.336, 5, 22.5824, -9.33058, 51.8241, 39.3594, -36.3333, -28.5487
5.34, 5, 22.5736, -9.33312, 51.8323, 39.3344, -36.3416, -28.5283
5.344, 5, 22.5648, -9.33564, 51.8405, 39.3094, -36.3498, -28.5078
5.348, 5, 22.556, -9.33817, 51.8488, 39.2844, -36.3581, -28.4873
5.352, 5, 22.5471, -9.34069, 51.857, 39.2594, -36.3664, -28.4669
5.356, 5, 22.5383, -9.34321, 51.8652, 39.2344, -36.3746, -28.4464
5.36, 5, 22.5295, -9.34573, 51.8734, 39.2094, -36.3829, -28.426
5.364, 5, 22.5206, -9.34824, 51.8817, 39.1844, -36.3912, -28.4055
5.368, 5, 22.5118, -9.35074, 51.8899, 39.1594, -36.3995, -28.3851
5.372, 5, 22.5029, -9.35325, 51.8981, 39.1344, -36.4078, -28.3646
5.376, 5, 22.4941, -9.35575, 51.9063, 39.1094, -36.4161, -28.3442
5.38, 5, 22.4853, -9.35825, 51.9145, 39.0845, -36.4244, -28.3238
5.384, 5, 22.4764, -9.36074, 51.9227, 39.0595, -36.4327, -28.3034
5.388, 5, 22.4676, -9.36323, 51.9309, 39.0345, -36.441, -28.283
5.392, 5, 22.4587, -9.36572, 51.9391, 39.0096, -36.4493, -28.2626
5.396, 5, 22.4498, -9.3682, 51.9473, 38.9847, -36.4577, -28.2422
5.4, 5, 22.441, -9.37068, 51.9555, 38.9597, -36.466, -28.2218
5.404, 5, 22.4321, -9.37316, 51.9637, 38.9348, -36.4743, -28.2014
5.408, 5, 22.4233, -9.37563, 51.9719, 38.9099, -36.4827, -28.1811
5.412, 5, 22.4144, -9.3781, 51.9801, 38.8849, -36.491, -28.1607
5.416, 5, 22.4055, -9.38056, 51.9883, 38.86, -36.4994, -28.1403
5.42, 5, 22.3967, -9.38303, 51.9965, 38.8351, -36.5077, -28.12
5.424, 5, 22.3878, -9.38548, 52.0046, 38.8102, -36.5161, -28.0996
5.428, 5, 22.3789, -9.38794, 52.0128, 38.7853, -36.5245, -28.0793
5.432, 5, 22.3701, -9.39039, 52.021, 38.7604, -36.5329, -28.059
5.436, 5, 22.3612, -9.39284, 52.0292, 38.7356, -36.5412, -28.0386
5.44, 5, 22.3523, -9.39529, 52.0373, 38.7107, -36.5496, -28.0183
5.444, 5, 22.3434, -9.39773, 52.0455, 38.6858, -36.558, -27.998
5.448, 5, 22.3346, -9.40016, 52.0537, 38.661, -36.5664, -27.9777
5.452, 5, 22.3257, -9.4026, 52.0619, 38.6361, -36.5748, -27.9574
5.456, 5, 22.3168, -9.40503, 52.07, 38.6112, -36.5833, -27.9371
5.46, 5, 22.3079, -9.40746, 52.0782, 38.5864, -36.5917, -27.9168
5.464, 5, 22.299, -9.40988, 52.0863, 38.5616, -36.6001, -27.8965
5.468, 5, 22.2901, -9.4123, 52.0945, 38.5367, -36.6085, -27.8762
5.472, 5, 22.2812, -9.41471, 52.1027, 38.5119, -36.617, -27.856
5.476, 5, 22.2723, -9.41713, 52.1108, 38.4871, -36.6254, -27.8357
5.48, 5, 22.2634, -9.41954, 52.119, 38.4622, -36.6339, -27.8154
5.484, 5, 22.2545, -9.42194, 52.1271, 38.4374, -36.6423, -27.7952
5.488, 5, 22.2456, -9.42434, 52.1353, 38.4126, -36.6508, -27.7749
5.492, 5, 22.2367, -9.42674, 52.1434, 38.3878, -36.6592, -27.7547
5.496, 5, 22.2278, -9.42914, 52.1515, 38.363, -36.6677, -27.7345
5.5, 5, 22.2189, -9.43153, 52.1597, 38.3383, -36.6762, -27.7142
5.504, 5, 22.21, -9.43392, 52.1678, 38.3135, -36.6847, -27.694
5.508, 5, 22.2011, -9.4363, 52.1759, 38.2887, -36.6931, -27.6738
5.512, 5, 22.1922, -9.43868, 52.1841, 38.2639, -36.7016, -27.6536
5.516, 5, 22.1833, -9.44106, 52.1922, 38.2392, -36.7101, -27.6334
5.52, 5, 22.1744, -9.44343, 52.2003, 38.2144, -36.7186, -27.6132
5.524, 5, 22.1654, -9.4458, 52.2085, 38.1897, -36.7271, -27.593
5.528, 5, 22.1565, -9.44817, 52.2166, 38.1649, -36.7357, -27.5728
5.532, 5, 22.1476, -9.45053, 52.2247, 38.1402, -36.7442, -27.5527
5.536, 5, 22.1387, -9.45289, 52.2328, 38.1155, -36.7527, -27.5325
5.54, 5, 22.1297, -9.45525, 52.2409, 38.0907, -36.7612, -27.5123
5.544, 5, 22.1208, -9.4576, 52.249, 38.066, -36.7698, -27.4922
5.548, 5, 22.1119, -9.45995, 52.2572, 38.0413, -36.7783, -27.472
5.552, 5, 22.1029, -9.4623, 52.2653, 38.0166, -36.7869, -27.4519
5.556, 5, 22.094, -9.46464, 52.2734, 37.9919, -36.7954, -27.4317
5.56, 5, 22.0851, -9.46698, 52.2815, 37.9672, -36.804, -27.4116
5.564, 5, 22.0761, -9.46931, 52.2896, 37.9425, -36.8126, -27.3915
5.568, 5, 22.0672, -9.47164, 52.2977, 37.9178, -36.8211, -27.3714
5.572, 5, 22.0582, -9.47397, 52.3058, 37.8931, -36.8297, -27.3513
5.576, 5, 22.0493, -9.47629, 52.3139, 37.8685, -36.8383, -27.3311
5.58, 5, 22.0403, -9.47861, 52.322, 37.8438, -36.8469, -27.3111
5.584, 5, 22.0314, -9.48093, 52.33, 37.8191, -36.8555, -27.291
5.588, 5, 22.0224, -9.48325, 52.3381, 37.7945, -36.8641, -27.2709
5.592, 5, 22.0135, -9.48555, 52.3462, 37.7698, -36.8727, -27.2508
5.596, 5, 22.0045, -9.48786, 52.3543, 37.7452, -36.8813, -27.2307
5.6, 5, 21.9956, -9.49016, 52.3624, 37.7206, -36.8899, -27.2106
5.604, 5, 21.9866, -9.49246, 52.3705, 37.6959, -36.8985, -27.1906
5.608, 5, 21.9777, -9.49476, 52.3785, 37.6713, -36.9072, -27.1705
5.612, 5, 21.9687, -9.49705, 52.3866, 37.6467, -36.9158, -27.1505
5.616, 5, 21.9597, -9.49934, 52.3947, 37.6221, -36.9244, -27.1304
5.62, 5, 21.9508, -9.50162, 52.4027, 37.5975, -36.9331, -27.1104
5.624, 5, 21.9418, -9.50391, 52.4108, 37.5729, -36.9417, -27.0904
5.628, 5, 21.9328, -9.50618, 52.4189, 37.5483, -36.9504, -27.0704
5.632, 5, 21.9238, -9.50846, 52.4269, 37.5237, -36.959, -27.0503
5.636, 5, 21.9149, -9.51073, 52.435, 37.4991, -36.9677, -27.0303
5.64, 5, 21.9059, -9.51299, 52.4431, 37.4746, -36.9764, -27.0103
5.644, 5, 21.8969, -9.51526, 52.4511, 37.45, -36.9851, -26.9903
5.648, 5, 21.8879, -9.51752, 52.4592, 37.4254, -36.9937, -26.9703
5.652, 5, 21.8789, -9.51977, 52.4672, 37.4009, -37.0024, -26.9504
5.656, 5, 21.87, -9.52203, 52.4753, 37.3763, -37.0111, -26.9304
5.66, 5, 21.861, -9.52427, 52.4833, 37.3518, -37.0198, -26.9104
5.664, 5, 21.852, -9.52652, 52.4914, 37.3273, -37.0285, -26.8904
5.668, 5, 21.843, -9.52876, 52.4994, 37.3027, -37.0373, -26.8705
5.672, 5, 21.834, -9.531, 52.5074, 37.2782, -37.046, -26.8505
5.676, 5, 21.825, -9.53323, 52.5155, 37.2537, -37.0547, -26.8306
5.68, 5, 21.816, -9.53546, 52.5235, 37.2292, -37.0634, -26.8107
5.684, 5, 21.807, -9.53769, 52.5315, 37.2047, -37.0722, -26.7907
5.688, 5, 21.798, -9.53992, 52.5396, 37.1802, -37.0809, -26.7708
5.692, 5, 21.789, -9.54214, 52.5476, 37.1557, -37.0897, -26.7509
5.696, 5, 21.78, -9.54435, 52.5556, 37.1312, -37.0984, -26.731
5.7, 5, 21.771, -9.54657, 52.5636, 37.1067, -37.1072, -26.7111
5.704, 5, 21.762, -9.54877, 52.5717, 37.0822, -37.1159, -26.6912
5.708, 5, 21.7529, -9.55098, 52.5797, 37.0578, -37.1247, -26.6713
5.712, 5, 21.7439, -9.55318, 52.5877, 37.0333, -37.1335, -26.6514
5.716, 5, 21.7349, -9.55538, 52.5957, 37.0088, -37.1423, -26.6315
5.72, 5, 21.7259, -9.55758, 52.6037, 36.9844, -37.151, -26.6116
5.724, 5, 21.7169, -9.55977, 52.6117, 36.9599, -37.1598, -26.5917
5.728, 5, 21.7079, -9.56195, 52.6197, 36.9355, -37.1686, -26.5719
5.732, 5, 21.6988, -9.56414, 52.6277, 36.9111, -37.1774, -26.552
5.736, 5, 21.6898, -9.56632, 52.6357, 36.8866, -37.1862, -26.5322
5.74, 5, 21.6808, -9.5685, 52.6437, 36.8622, -37.1951, -26.5123
5.744, 5, 21.6717, -9.57067, 52.6517, 36.8378, -37.2039, -26.4925
5.748, 5, 21.6627, -9.57284, 52.6597, 36.8134, -37.2127, -26.4727
5.752, 5, 21.6537, -9.57501, 52.6677, 36.789, -37.2215, -26.4529
5.756, 5, 21.6446, -9.57717, 52.6757, 36.7646, -37.2304, -26.433
5.76, 5, 21.6356, -9.57933, 52.6837, 36.7402, -37.2392, -26.4132
5.764, 5, 21.6266, -9.58148, 52.6917, 36.7158, -37.2481, -26.3934
5.768, 5, 21.6175, -9.58363, 52.6996, 36.6914, -37.2569, -26.3736
5.772, 5, 21.6085, -9.58578, 52.7076, 36.6671, -37.2658, -26.3538
5.776, 5, 21.5994, -9.58792, 52.7156, 36.6427, -37.2746, -26.3341
5.78, 5, 21.5904, -9.59007, 52.7236, 36.6183, -37.2835, -26.3143
5.784, 5, 21.5813, -9.5922, 52.7315, 36.594, -37.2924, -26.2945
5.788, 5, 21.5723, -9.59434, 52.7395, 36.5696, -37.3013, -26.2747
5.792, 5, 21.5632, -9.59647, 52.7475, 36.5453, -37.3102, -26.255
5.796, 5, 21.5542, -9.59859, 52.7555, 36.521, -37.3191, -26.2352
5.8, 5, 21.5451, -9.60071, 52.7634, 36.4966, -37.328, -26.2155
5.804, 5, 21.536, -9.60283, 52.7714, 36.4723, -37.3369, -26.1957
5.808, 5, 21.527, -9.60495, 52.7793, 36.448, -37.3458, -26.176
5.812, 5, 21.5179, -9.60706, 52.7873, 36.4237, -37.3547, -26.1563
5.816, 5, 21.5088, -9.60917, 52.7952, 36.3994, -37.3636, -26.1366
5.82, 5, 21.4998, -9.61127, 52.8032, 36.3751, -37.3725, -26.1169
5.824, 5, 21.4907, -9.61337, 52.8111, 36.3508, -37.3815, -26.0972
5.828, 5, 21.4816, -9.61547, 52.8191, 36.3265, -37.3904, -26.0775
5.832, 5, 21.4726, -9.61757, 52.827, 36.3022, -37.3994, -26.0578
5.836, 5, 21.4635, -9.61966, 52.835, 36.278, -37.4083, -26.0381
5.84, 5, 21.4544, -9.62174, 52.8429, 36.2537, -37.4173, -26.0184
5.844, 5, 21.4453, -9.62382, 52.8509, 36.2294, -37.4262, -25.9987
5.848, 5, 21.4362, -9.6259, 52.8588, 36.2052, -37.4352, -25.9791
5.852, 5, 21.4272, -9.62798, 52.8667, 36.1809, -37.4442, -25.9594
5.856, 5, 21.4181, -9.63005, 52.8747, 36.1567, -37.4531, -25.9397
5.86, 5, 21.409, -9.63212, 52.8826, 36.1325, -37.4621, -25.9201
5.864, 5, 21.3999, -9.63418, 52.8905, 36.1082, -37.4711, -25.9005
5.868, 5, 21.3908, -9.63624, 52.8984, 36.084, -37.4801, -25.8808
5.872, 5, 21.3817, -9.6383, 52.9064, 36.0598, -37.4891, -25.8612
5.876, 5, 21.3726, -9.64036, 52.9143, 36.0356, -37.4981, -25.8416
5.88, 5, 21.3635, -9.64241, 52.9222, 36.0114, -37.5071, -25.822
5.884, 5, 21.3544, -9.64445, 52.9301, 35.9872, -37.5161, -25.8023
5.888, 5, 21.3453, -9.64649, 52.938, 35.963, -37.5252, -25.7827
5.892, 5, 21.3362, -9.64853, 52.9459, 35.9388, -37.5342, -25.7631
5.896, 5, 21.3271, -9.65057, 52.9538, 35.9146, -37.5432, -25.7436
5.9, 5, 21.318, -9.6526, 52.9617, 35.8905, -37.5523, -25.724
5.904, 5, 21.3089, -9.65463, 52.9696, 35.8663, -37.5613, -25.7044
5.908, 5, 21.2998, -9.65665, 52.9775, 35.8421, -37.5704, -25.6848
5.912, 5, 21.2906, -9.65867, 52.9854, 35.818, -37.5794, -25.6653
5.916, 5, 21.2815, -9.66069, 52.9933, 35.7938, -37.5885, -25.6457
5.92, 5, 21.2724, -9.6627, 53.0012, 35.7697, -37.5976, -25.6262
5.924, 5, 21.2633, -9.66471, 53.0091, 35.7455, -37.6066, -25.6066
5.928, 5, 21.2542, -9.66672, 53.017, 35.7214, -37.6157, -25.5871
5.932, 5, 21.245, -9.66872, 53.0249, 35.6973, -37.6248, -25.5675
