hehonglu123/ABB_Primitive_Study/execution/movec_30_car/curve_exe_v500_fine.csv
timestamp, cmd_num, J1, J2, J3, J4, J5, J6
0, -1, -11.8209, 27.637, 43.2514, -10.4208, -101.239, 3.92109
0.002, -1, -11.8209, 27.637, 43.2514, -10.4208, -101.239, 3.92109
0.006, -1, -11.8209, 27.637, 43.2514, -10.4208, -101.239, 3.92109
0.008, -1, -11.8209, 27.637, 43.2514, -10.4208, -101.239, 3.92109
0.011, -1, -11.8209, 27.637, 43.2514, -10.4208, -101.239, 3.92109
0.016, -1, -11.8209, 27.637, 43.2514, -10.4208, -101.239, 3.92109
0.02, -1, -11.8209, 27.637, 43.2514, -10.4208, -101.239, 3.92109
0.024, -1, -11.8209, 27.637, 43.2514, -10.4208, -101.239, 3.92109
0.028, -1, -11.8209, 27.637, 43.2514, -10.4208, -101.239, 3.92109
0.032, -1, -11.8209, 27.637, 43.2514, -10.4208, -101.239, 3.92109
0.036, -1, -11.8208, 27.637, 43.2514, -10.4208, -101.239, 3.92108
0.04, -1, -11.8206, 27.6369, 43.2514, -10.4208, -101.239, 3.92108
0.044, -1, -11.8199, 27.6367, 43.2513, -10.4208, -101.239, 3.92105
0.048, -1, -11.8188, 27.6363, 43.2513, -10.4207, -101.239, 3.92098
0.052, -1, -11.8169, 27.6357, 43.2511, -10.4205, -101.239, 3.92081
0.056, -1, -11.8142, 27.6347, 43.2509, -10.42, -101.238, 3.92043
0.06, -1, -11.8106, 27.6334, 43.2504, -10.419, -101.236, 3.91973
0.064, -1, -11.8059, 27.6315, 43.2496, -10.4173, -101.234, 3.9185
0.068, -1, -11.8, 27.6291, 43.2483, -10.4146, -101.23, 3.91654
0.072, -1, -11.7928, 27.626, 43.2465, -10.4103, -101.223, 3.91354
0.076, -1, -11.7838, 27.6222, 43.2437, -10.4041, -101.214, 3.90917
0.08, -1, -11.7728, 27.6173, 43.2399, -10.3954, -101.201, 3.90303
0.084, -1, -11.7593, 27.6114, 43.2348, -10.3836, -101.183, 3.89469
0.088, -1, -11.7432, 27.6044, 43.2281, -10.3678, -101.159, 3.88364
0.092, -1, -11.7244, 27.5963, 43.2194, -10.3474, -101.128, 3.86937
0.096, -1, -11.7027, 27.5871, 43.2085, -10.3216, -101.09, 3.85137
0.1, -1, -11.6782, 27.5767, 43.1952, -10.2898, -101.042, 3.82914
0.104, -1, -11.6506, 27.5654, 43.1791, -10.2512, -100.985, 3.80229
0.108, -1, -11.6199, 27.5528, 43.1601, -10.2055, -100.916, 3.77048
0.112, -1, -11.5859, 27.5392, 43.138, -10.1523, -100.837, 3.73348
0.116, -1, -11.5485, 27.5242, 43.1128, -10.0915, -100.746, 3.69117
0.12, -1, -11.5074, 27.5079, 43.0844, -10.0229, -100.644, 3.64352
0.124, -1, -11.4628, 27.4904, 43.053, -9.94673, -100.53, 3.5906
0.128, -1, -11.4147, 27.4716, 43.0185, -9.8632, -100.406, 3.53258
0.131, -1, -11.3633, 27.4515, 42.9811, -9.77265, -100.271, 3.46969
0.136, -1, -11.3087, 27.4303, 42.941, -9.67555, -100.126, 3.40227
0.139, -1, -11.251, 27.4079, 42.8985, -9.57247, -99.9725, 3.33069
0.144, -1, -11.1903, 27.3844, 42.8538, -9.46403, -99.8108, 3.25539
0.148, -1, -11.1266, 27.3596, 42.807, -9.35088, -99.6422, 3.17682
0.152, -1, -11.0601, 27.3337, 42.7586, -9.23367, -99.4675, 3.09542
0.156, -1, -10.9909, 27.3067, 42.7087, -9.11298, -99.2876, 3.01159
0.16, -1, -10.9195, 27.2787, 42.6576, -8.98935, -99.1033, 2.92571
0.164, -1, -10.8461, 27.2499, 42.6054, -8.86324, -98.9152, 2.8381
0.168, -1, -10.7711, 27.2203, 42.5523, -8.73504, -98.7241, 2.74903
0.172, -1, -10.6948, 27.1902, 42.4985, -8.60512, -98.5303, 2.65876
0.176, -1, -10.6172, 27.1595, 42.4441, -8.47377, -98.3344, 2.56749
0.18, -1, -10.5385, 27.1283, 42.3892, -8.34126, -98.1368, 2.4754
0.184, -1, -10.459, 27.0968, 42.3339, -8.2078, -97.9377, 2.38265
0.188, -1, -10.3785, 27.0649, 42.2783, -8.07358, -97.7375, 2.28937
0.192, -1, -10.2973, 27.0327, 42.2224, -7.93872, -97.5364, 2.19564
0.196, -1, -10.2155, 27.0003, 42.1662, -7.80334, -97.3344, 2.10154
0.2, -1, -10.1331, 26.9676, 42.1099, -7.6675, -97.1317, 2.00712
0.204, -1, -10.0503, 26.9348, 42.0533, -7.53125, -96.9285, 1.91241
0.208, -1, -9.9672, 26.9019, 41.9967, -7.39462, -96.7247, 1.81744
0.212, -1, -9.88379, 26.8688, 41.9399, -7.25765, -96.5203, 1.72223
0.216, -1, -9.80013, 26.8356, 41.8829, -7.12034, -96.3155, 1.62679
0.22, -1, -9.71623, 26.8024, 41.8258, -6.98271, -96.1101, 1.53111
0.224, -1, -9.63212, 26.769, 41.7686, -6.84476, -95.9043, 1.43522
0.228, -1, -9.54781, 26.7356, 41.7112, -6.7065, -95.6981, 1.33912
0.232, -1, -9.46329, 26.7021, 41.6537, -6.56794, -95.4914, 1.2428
0.236, -1, -9.37859, 26.6685, 41.5961, -6.42908, -95.2842, 1.14628
0.24, -1, -9.29371, 26.6349, 41.5384, -6.28992, -95.0766, 1.04954
0.244, -1, -9.20864, 26.6011, 41.4805, -6.15046, -94.8685, 0.952603
0.248, -1, -9.12338, 26.5673, 41.4226, -6.01071, -94.66, 0.85546
0.252, -1, -9.03795, 26.5335, 41.3645, -5.87067, -94.4511, 0.758115
0.256, -1, -8.95235, 26.4995, 41.3062, -5.73034, -94.2418, 0.660569
0.26, -1, -8.86656, 26.4655, 41.2479, -5.58972, -94.032, 0.562823
0.264, -1, -8.78061, 26.4315, 41.1895, -5.44882, -93.8218, 0.464879
0.268, -1, -8.69448, 26.3973, 41.1309, -5.30764, -93.6111, 0.366738
0.272, -1, -8.60818, 26.3631, 41.0722, -5.16617, -93.4001, 0.2684
0.276, -1, -8.52171, 26.3288, 41.0134, -5.02442, -93.1886, 0.169869
0.28, -1, -8.43507, 26.2945, 40.9545, -4.8824, -92.9767, 0.0711437
0.284, -1, -8.34827, 26.2601, 40.8954, -4.74009, -92.7644, -0.027773
0.288, -1, -8.2613, 26.2256, 40.8363, -4.59752, -92.5517, -0.12688
0.292, -1, -8.17417, 26.191, 40.777, -4.45467, -92.3386, -0.226175
0.296, -1, -8.08688, 26.1564, 40.7177, -4.31156, -92.1251, -0.325657
0.3, -1, -7.99944, 26.1218, 40.6582, -4.16818, -91.9112, -0.425324
0.304, -1, -7.91184, 26.087, 40.5986, -4.02454, -91.6969, -0.525173
0.308, -1, -7.82408, 26.0522, 40.5389, -3.88064, -91.4822, -0.625202
0.312, -1, -7.73618, 26.0174, 40.4791, -3.73648, -91.2672, -0.725408
0.316, -1, -7.64814, 25.9825, 40.4192, -3.59207, -91.0517, -0.825789
0.32, -1, -7.55995, 25.9475, 40.3592, -3.44742, -90.8359, -0.926341
0.324, -1, -7.47161, 25.9125, 40.299, -3.30252, -90.6198, -1.02706
0.328, -1, -7.38314, 25.8774, 40.2388, -3.15738, -90.4032, -1.12795
0.332, -1, -7.29454, 25.8422, 40.1785, -3.01202, -90.1864, -1.229
0.336, -1, -7.20579, 25.807, 40.1181, -2.86642, -89.9691, -1.3302
0.34, -1, -7.11692, 25.7718, 40.0576, -2.7206, -89.7516, -1.43156
0.344, -1, -7.02791, 25.7365, 39.997, -2.57457, -89.5337, -1.53307
0.348, -1, -6.93879, 25.7011, 39.9364, -2.42832, -89.3156, -1.63473
0.352, -1, -6.84954, 25.6657, 39.8756, -2.28187, -89.0971, -1.73653
0.356, -1, -6.76017, 25.6303, 39.8148, -2.13522, -88.8783, -1.83847
0.36, -1, -6.67068, 25.5948, 39.7538, -1.98837, -88.6592, -1.94055
0.364, -1, -6.58109, 25.5593, 39.6928, -1.84134, -88.4398, -2.04276
0.368, -1, -6.49138, 25.5237, 39.6318, -1.69412, -88.2202, -2.14509
0.372, -1, -6.40157, 25.488, 39.5706, -1.54672, -88.0003, -2.24755
0.376, -1, -6.31166, 25.4524, 39.5094, -1.39915, -87.7802, -2.35013
0.38, -1, -6.22164, 25.4167, 39.4481, -1.25142, -87.5598, -2.45282
0.384, -1, -6.13154, 25.3809, 39.3867, -1.10353, -87.3391, -2.55562
0.388, -1, -6.04134, 25.3451, 39.3253, -0.955482, -87.1182, -2.65853
0.392, -1, -5.95105, 25.3093, 39.2639, -0.807292, -86.8972, -2.76154
0.396, -1, -5.86068, 25.2735, 39.2023, -0.658961, -86.6759, -2.86465
0.4, -1, -5.77023, 25.2376, 39.1407, -0.510497, -86.4544, -2.96785
0.404, -1, -5.6797, 25.2017, 39.0791, -0.361907, -86.2327, -3.07114
0.408, -1, -5.58909, 25.1658, 39.0174, -0.213195, -86.0109, -3.17451
0.412, -1, -5.49843, 25.1298, 38.9556, -0.0643699, -85.7888, -3.27796
0.416, -1, -5.40769, 25.0938, 38.8938, 0.084563, -85.5666, -3.38149
0.42, -1, -5.3169, 25.0578, 38.832, 0.233597, -85.3443, -3.48508
0.424, -1, -5.22606, 25.0217, 38.7701, 0.382725, -85.1218, -3.58874
0.428, -1, -5.13516, 24.9857, 38.7082, 0.531939, -84.8992, -3.69246
0.432, -1, -5.04422, 24.9496, 38.6463, 0.681234, -84.6765, -3.79624
0.436, -1, -4.95323, 24.9135, 38.5843, 0.830602, -84.4536, -3.90007
0.44, -1, -4.86221, 24.8774, 38.5223, 0.980034, -84.2307, -4.00394
0.444, -1, -4.77115, 24.8413, 38.4603, 1.12953, -84.0077, -4.10786
0.448, -1, -4.68007, 24.8051, 38.3983, 1.27907, -83.7846, -4.2118
0.452, -1, -4.58896, 24.769, 38.3362, 1.42865, -83.5614, -4.31578
0.456, -1, -4.49784, 24.7329, 38.2741, 1.57827, -83.3382, -4.41979
0.46, -1, -4.40671, 24.6967, 38.212, 1.72792, -83.1149, -4.52381
0.464, -1, -4.31556, 24.6605, 38.15, 1.87758, -82.8917, -4.62785
0.468, -1, -4.22441, 24.6244, 38.0879, 2.02726, -82.6684, -4.73189
0.472, -1, -4.13326, 24.5882, 38.0258, 2.17694, -82.4451, -4.83594
0.476, -1, -4.04211, 24.552, 37.9636, 2.32662, -82.2217, -4.93998
0.48, -1, -3.95098, 24.5159, 37.9016, 2.47628, -81.9985, -5.04401
0.484, -1, -3.85986, 24.4797, 37.8395, 2.62592, -81.7752, -5.14803
0.488, -1, -3.76876, 24.4436, 37.7774, 2.77553, -81.552, -5.25202
0.492, -1, -3.67769, 24.4075, 37.7154, 2.92509, -81.3289, -5.35599
0.496, -1, -3.58665, 24.3713, 37.6533, 3.07461, -81.1058, -5.45992
0.5, -1, -3.49564, 24.3352, 37.5913, 3.22408, -80.8829, -5.56381
0.504, -1, -3.40467, 24.2992, 37.5293, 3.37347, -80.66, -5.66766
0.508, -1, -3.31375, 24.2631, 37.4674, 3.52279, -80.4372, -5.77146
0.512, -1, -3.22288, 24.227, 37.4054, 3.67203, -80.2146, -5.87519
0.516, -1, -3.13206, 24.191, 37.3436, 3.82118, -79.9921, -5.97887
0.52, -1, -3.0413, 24.155, 37.2817, 3.97022, -79.7697, -6.08247
0.524, -1, -2.95061, 24.119, 37.2199, 4.11915, -79.5475, -6.186
0.528, -1, -2.85999, 24.0831, 37.1582, 4.26797, -79.3255, -6.28944
0.532, -1, -2.76944, 24.0472, 37.0965, 4.41666, -79.1037, -6.3928
0.536, -1, -2.67898, 24.0113, 37.0349, 4.56522, -78.882, -6.49606
0.54, -1, -2.58859, 23.9754, 36.9733, 4.71363, -78.6606, -6.59923
0.544, -1, -2.49829, 23.9396, 36.9118, 4.86189, -78.4394, -6.70228
0.548, -1, -2.40809, 23.9038, 36.8503, 5.00999, -78.2185, -6.80523
0.552, -1, -2.31798, 23.8681, 36.7889, 5.15792, -77.9978, -6.90806
0.556, -1, -2.22797, 23.8324, 36.7276, 5.30568, -77.7773, -7.01077
0.56, -1, -2.13807, 23.7967, 36.6664, 5.45326, -77.5572, -7.11336
0.564, -1, -2.04828, 23.7611, 36.6053, 5.60064, -77.3373, -7.2158
0.568, -1, -1.9586, 23.7256, 36.5442, 5.74782, -77.1177, -7.31811
0.572, -1, -1.86904, 23.6901, 36.4832, 5.8948, -76.8984, -7.42028
0.576, -1, -1.7796, 23.6546, 36.4223, 6.04157, -76.6795, -7.5223
0.58, -1, -1.6903, 23.6192, 36.3615, 6.18811, -76.4609, -7.62416
0.584, -1, -1.60113, 23.5839, 36.3008, 6.33442, -76.2426, -7.72587
0.588, -1, -1.5121, 23.5486, 36.2402, 6.4805, -76.0246, -7.82741
0.592, -1, -1.42322, 23.5134, 36.1797, 6.62634, -75.8071, -7.92879
0.596, -1, -1.33448, 23.4782, 36.1193, 6.77193, -75.5899, -8.02999
0.6, -1, -1.2459, 23.4431, 36.059, 6.91726, -75.3731, -8.13101
0.604, -1, -1.15748, 23.408, 35.9988, 7.06233, -75.1566, -8.23185
0.608, -1, -1.06922, 23.373, 35.9387, 7.20713, -74.9406, -8.3325
0.612, -1, -0.98112, 23.3381, 35.8787, 7.35165, -74.725, -8.43296
0.616, -1, -0.893193, 23.3033, 35.8189, 7.49589, -74.5098, -8.53323
0.62, -1, -0.805439, 23.2685, 35.7592, 7.63985, -74.295, -8.63329
0.624, -1, -0.717861, 23.2338, 35.6995, 7.78351, -74.0807, -8.73316
0.628, -1, -0.630465, 23.1991, 35.6401, 7.92687, -73.8668, -8.83281
0.632, -1, -0.543252, 23.1646, 35.5807, 8.06993, -73.6534, -8.93225
0.636, -1, -0.456226, 23.1301, 35.5215, 8.21268, -73.4404, -9.03148
0.64, -1, -0.369389, 23.0957, 35.4624, 8.35511, -73.2279, -9.13049
0.644, -1, -0.282746, 23.0613, 35.4034, 8.49722, -73.0159, -9.22927
0.648, -1, -0.196298, 23.0271, 35.3446, 8.63901, -72.8044, -9.32783
0.652, -1, -0.110049, 22.9929, 35.2859, 8.78046, -72.5934, -9.42616
0.656, -1, -0.0240014, 22.9588, 35.2273, 8.92158, -72.3828, -9.52425
0.66, -1, 0.0618417, 22.9248, 35.1689, 9.06236, -72.1728, -9.62211
0.664, -1, 0.147478, 22.8908, 35.1106, 9.2028, -71.9633, -9.71973
0.668, -1, 0.232905, 22.857, 35.0525, 9.34289, -71.7543, -9.81711
0.672, -1, 0.318122, 22.8232, 34.9945, 9.48263, -71.5458, -9.91425
0.676, -1, 0.403125, 22.7895, 34.9367, 9.62201, -71.3379, -10.0111
0.68, -1, 0.487913, 22.7559, 34.879, 9.76104, -71.1304, -10.1078
0.684, -1, 0.572484, 22.7224, 34.8215, 9.8997, -70.9236, -10.2042
0.688, -1, 0.656834, 22.689, 34.7641, 10.038, -70.7173, -10.3003
0.692, -1, 0.740962, 22.6557, 34.7069, 10.1759, -70.5115, -10.3962
0.696, -1, 0.824867, 22.6224, 34.6498, 10.3135, -70.3062, -10.4918
0.7, -1, 0.908546, 22.5892, 34.5929, 10.4507, -70.1016, -10.5872
0.704, -1, 0.991999, 22.5562, 34.5361, 10.5875, -69.8974, -10.6823
0.708, -1, 1.07522, 22.5232, 34.4795, 10.7239, -69.6939, -10.7771
0.712, -1, 1.15822, 22.4903, 34.423, 10.86, -69.4909, -10.8717
0.716, -1, 1.24098, 22.4575, 34.3667, 10.9957, -69.2885, -10.966
0.72, -1, 1.32352, 22.4248, 34.3106, 11.131, -69.0866, -11.0601
0.724, -1, 1.40582, 22.3922, 34.2546, 11.2659, -68.8853, -11.1539
0.728, -1, 1.48788, 22.3597, 34.1988, 11.4004, -68.6846, -11.2474
0.732, -1, 1.56971, 22.3272, 34.1431, 11.5346, -68.4845, -11.3406
0.736, -1, 1.65131, 22.2949, 34.0876, 11.6683, -68.285, -11.4336
0.74, -1, 1.73267, 22.2627, 34.0323, 11.8017, -68.086, -11.5263
0.744, -1, 1.81379, 22.2305, 33.9771, 11.9347, -67.8876, -11.6187
0.748, -1, 1.89467, 22.1985, 33.9221, 12.0673, -67.6898, -11.7109
0.752, -1, 1.97531, 22.1665, 33.8672, 12.1995, -67.4926, -11.8028
0.756, -1, 2.05572, 22.1347, 33.8125, 12.3313, -67.296, -11.8944
0.76, -1, 2.13588, 22.1029, 33.758, 12.4626, -67.0999, -11.9857
0.764, -1, 2.2158, 22.0712, 33.7037, 12.5936, -66.9045, -12.0768
0.768, -1, 2.29548, 22.0397, 33.6495, 12.7243, -66.7097, -12.1676
0.772, -1, 2.37492, 22.0082, 33.5954, 12.8545, -66.5154, -12.2581
0.776, -1, 2.45412, 21.9768, 33.5416, 12.9843, -66.3217, -12.3483
0.78, -1, 2.53307, 21.9455, 33.4879, 13.1137, -66.1287, -12.4383
0.784, -1, 2.61178, 21.9143, 33.4343, 13.2427, -65.9362, -12.5279
0.788, -1, 2.69025, 21.8832, 33.381, 13.3713, -65.7444, -12.6173
0.792, -1, 2.76848, 21.8522, 33.3278, 13.4995, -65.5531, -12.7065
0.796, -1, 2.84646, 21.8213, 33.2748, 13.6273, -65.3624, -12.7953
0.8, -1, 2.92419, 21.7905, 33.2219, 13.7547, -65.1723, -12.8839
0.804, -1, 3.00168, 21.7598, 33.1692, 13.8817, -64.9829, -12.9721
0.808, -1, 3.07893, 21.7292, 33.1167, 14.0083, -64.794, -13.0602
0.812, -1, 3.15594, 21.6987, 33.0643, 14.1345, -64.6057, -13.1479
0.816, -1, 3.2327, 21.6683, 33.0121, 14.2603, -64.418, -13.2353
0.82, -1, 3.30921, 21.638, 32.9601, 14.3857, -64.231, -13.3225
0.824, -1, 3.38548, 21.6078, 32.9082, 14.5107, -64.0445, -13.4094
0.828, -1, 3.46151, 21.5776, 32.8565, 14.6353, -63.8586, -13.496
0.832, -1, 3.53729, 21.5476, 32.805, 14.7595, -63.6733, -13.5823
0.836, -1, 3.61283, 21.5177, 32.7536, 14.8833, -63.4886, -13.6684
0.84, -1, 3.68813, 21.4878, 32.7024, 15.0067, -63.3046, -13.7541
0.844, -1, 3.76318, 21.4581, 32.6514, 15.1296, -63.1211, -13.8396
0.848, -1, 3.83799, 21.4285, 32.6005, 15.2522, -62.9382, -13.9248
0.852, -1, 3.91256, 21.3989, 32.5498, 15.3744, -62.7559, -14.0098
0.856, -1, 3.98689, 21.3695, 32.4993, 15.4962, -62.5742, -14.0944
0.86, -1, 4.06097, 21.3401, 32.4489, 15.6176, -62.393, -14.1788
0.864, -1, 4.13482, 21.3109, 32.3987, 15.7386, -62.2125, -14.2629
0.868, -1, 4.20842, 21.2817, 32.3486, 15.8592, -62.0326, -14.3468
0.872, -1, 4.28179, 21.2526, 32.2988, 15.9794, -61.8533, -14.4303
0.876, -1, 4.35492, 21.2236, 32.249, 16.0993, -61.6745, -14.5136
0.88, -1, 4.42781, 21.1948, 32.1995, 16.2187, -61.4963, -14.5966
0.884, -1, 4.50047, 21.166, 32.1501, 16.3377, -61.3187, -14.6794
0.888, -1, 4.57289, 21.1373, 32.1009, 16.4564, -61.1417, -14.7619
0.892, -1, 4.64507, 21.1087, 32.0518, 16.5746, -60.9653, -14.8441
0.896, -1, 4.71702, 21.0802, 32.0029, 16.6925, -60.7895, -14.926
0.9, -1, 4.78874, 21.0517, 31.9541, 16.81, -60.6142, -15.0077
0.904, -1, 4.86022, 21.0234, 31.9055, 16.9271, -60.4395, -15.0891
0.908, -1, 4.93148, 20.9952, 31.8571, 17.0438, -60.2653, -15.1702
0.912, -1, 5.0025, 20.967, 31.8088, 17.1602, -60.0917, -15.2511
0.916, -1, 5.07329, 20.939, 31.7607, 17.2762, -59.9187, -15.3317
0.92, -1, 5.14386, 20.911, 31.7127, 17.3918, -59.7462, -15.4121
0.924, -1, 5.2142, 20.8832, 31.6649, 17.507, -59.5743, -15.4922
0.928, -1, 5.28431, 20.8554, 31.6173, 17.6218, -59.403, -15.572
0.932, -1, 5.3542, 20.8277, 31.5698, 17.7363, -59.2322, -15.6516
0.936, -1, 5.42387, 20.8001, 31.5224, 17.8505, -59.0619, -15.7309
0.94, -1, 5.49331, 20.7726, 31.4752, 17.9642, -58.8922, -15.81
0.944, -1, 5.56253, 20.7451, 31.4282, 18.0776, -58.723, -15.8888
0.948, -1, 5.63153, 20.7178, 31.3812, 18.1907, -58.5544, -15.9674
0.952, -1, 5.70032, 20.6905, 31.3345, 18.3033, -58.3862, -16.0457
0.956, -1, 5.76889, 20.6634, 31.2879, 18.4157, -58.2187, -16.1238
0.96, -1, 5.83724, 20.6363, 31.2414, 18.5276, -58.0516, -16.2017
0.964, -1, 5.90538, 20.6093, 31.1951, 18.6393, -57.8851, -16.2793
0.968, -1, 5.9733, 20.5824, 31.1489, 18.7505, -57.7191, -16.3566
0.972, -1, 6.04101, 20.5556, 31.1029, 18.8615, -57.5536, -16.4337
0.976, -1, 6.10851, 20.5288, 31.057, 18.972, -57.3886, -16.5106
0.98, -1, 6.1758, 20.5021, 31.0113, 19.0823, -57.2242, -16.5872
0.984, -1, 6.24288, 20.4756, 30.9657, 19.1922, -57.0602, -16.6636
0.988, -1, 6.30975, 20.4491, 30.9202, 19.3017, -56.8968, -16.7397
0.992, -1, 6.37641, 20.4227, 30.8749, 19.4109, -56.7339, -16.8156
0.996, -1, 6.44287, 20.3963, 30.8298, 19.5198, -56.5715, -16.8913
1, -1, 6.50913, 20.3701, 30.7847, 19.6283, -56.4095, -16.9668
1.004, -1, 6.57518, 20.3439, 30.7398, 19.7365, -56.2481, -17.042
1.008, -1, 6.64103, 20.3178, 30.6951, 19.8444, -56.0872, -17.117
1.012, -1, 6.70668, 20.2918, 30.6504, 19.9519, -55.9267, -17.1917
1.016, -1, 6.77212, 20.2659, 30.606, 20.0591, -55.7668, -17.2663
1.02, -1, 6.83737, 20.24, 30.5616, 20.166, -55.6073, -17.3406
1.024, -1, 6.90243, 20.2142, 30.5174, 20.2726, -55.4483, -17.4146
1.027, -1, 6.96728, 20.1885, 30.4733, 20.3788, -55.2898, -17.4885
1.032, -1, 7.03194, 20.1629, 30.4294, 20.4848, -55.1318, -17.5621
1.036, -1, 7.0964, 20.1374, 30.3855, 20.5904, -54.9743, -17.6355
1.04, -1, 7.16067, 20.1119, 30.3418, 20.6957, -54.8172, -17.7087
1.044, -1, 7.22475, 20.0865, 30.2983, 20.8006, -54.6606, -17.7817
1.048, -1, 7.28864, 20.0612, 30.2549, 20.9053, -54.5044, -17.8544
1.052, -1, 7.35234, 20.036, 30.2116, 21.0096, -54.3487, -17.927
1.055, -1, 7.41585, 20.0108, 30.1684, 21.1137, -54.1935, -17.9993
1.06, -1, 7.47917, 19.9857, 30.1254, 21.2174, -54.0388, -18.0714
1.064, -1, 7.5423, 19.9607, 30.0824, 21.3208, -53.8845, -18.1433
1.068, -1, 7.60525, 19.9357, 30.0397, 21.4239, -53.7307, -18.215
1.072, -1, 7.66801, 19.9109, 29.997, 21.5268, -53.5773, -18.2864
1.076, -1, 7.73058, 19.8861, 29.9545, 21.6293, -53.4243, -18.3577
1.08, -1, 7.79298, 19.8614, 29.9121, 21.7315, -53.2718, -18.4287
1.084, -1, 7.85519, 19.8367, 29.8698, 21.8334, -53.1198, -18.4996
1.088, -1, 7.91722, 19.8121, 29.8276, 21.935, -52.9682, -18.5702
1.091, -1, 7.97907, 19.7876, 29.7856, 22.0363, -52.817, -18.6407
1.096, -1, 8.04075, 19.7632, 29.7436, 22.1374, -52.6663, -18.7109
1.1, -1, 8.10224, 19.7388, 29.7018, 22.2381, -52.516, -18.7809
1.104, -1, 8.16356, 19.7145, 29.6602, 22.3386, -52.3661, -18.8507
1.108, -1, 8.2247, 19.6903, 29.6186, 22.4387, -52.2167, -18.9204
1.112, -1, 8.28567, 19.6661, 29.5772, 22.5386, -52.0677, -18.9898
1.116, -1, 8.34646, 19.642, 29.5358, 22.6382, -51.9191, -19.059
1.119, -1, 8.40708, 19.618, 29.4946, 22.7375, -51.771, -19.128
1.124, -1, 8.46752, 19.5941, 29.4536, 22.8365, -51.6233, -19.1969
1.128, -1, 8.5278, 19.5702, 29.4126, 22.9353, -51.4759, -19.2655
1.132, -1, 8.5879, 19.5464, 29.3717, 23.0337, -51.329, -19.334
1.136, -1, 8.64784, 19.5226, 29.331, 23.1319, -51.1826, -19.4022
1.14, -1, 8.70761, 19.4989, 29.2904, 23.2298, -51.0365, -19.4703
1.144, -1, 8.76721, 19.4753, 29.2499, 23.3274, -50.8908, -19.5381
1.147, -1, 8.82664, 19.4518, 29.2095, 23.4248, -50.7456, -19.6058
1.152, -1, 8.88591, 19.4283, 29.1692, 23.5219, -50.6007, -19.6733
1.156, -1, 8.94502, 19.4049, 29.129, 23.6187, -50.4563, -19.7406
1.16, -1, 9.00397, 19.3815, 29.0889, 23.7153, -50.3122, -19.8077
1.164, -1, 9.06275, 19.3582, 29.049, 23.8116, -50.1686, -19.8747
1.168, -1, 9.12137, 19.335, 29.0091, 23.9076, -50.0253, -19.9414
1.172, -1, 9.17983, 19.3118, 28.9694, 24.0034, -49.8825, -20.008
1.175, -1, 9.23814, 19.2887, 28.9298, 24.0989, -49.74, -20.0744
1.18, -1, 9.29628, 19.2657, 28.8903, 24.1941, -49.5979, -20.1406
1.184, -1, 9.35427, 19.2427, 28.8508, 24.2891, -49.4562, -20.2066
1.188, -1, 9.4121, 19.2198, 28.8115, 24.3838, -49.3148, -20.2724
1.192, -1, 9.46978, 19.1969, 28.7723, 24.4783, -49.1739, -20.3381
1.196, -1, 9.5273, 19.1741, 28.7332, 24.5725, -49.0333, -20.4036
1.2, -1, 9.58467, 19.1514, 28.6943, 24.6665, -48.8931, -20.4689
1.204, -1, 9.64189, 19.1287, 28.6554, 24.7602, -48.7533, -20.5341
1.208, -1, 9.69896, 19.1061, 28.6166, 24.8537, -48.6138, -20.5991
1.212, -1, 9.75588, 19.0836, 28.5779, 24.947, -48.4747, -20.6639
1.216, -1, 9.81265, 19.0611, 28.5393, 25.0399, -48.336, -20.7285
1.22, -1, 9.86927, 19.0386, 28.5008, 25.1327, -48.1976, -20.793
1.224, -1, 9.92575, 19.0163, 28.4624, 25.2252, -48.0596, -20.8573
1.228, -1, 9.98208, 18.9939, 28.4241, 25.3175, -47.9219, -20.9215
1.232, -1, 10.0383, 18.9717, 28.386, 25.4095, -47.7846, -20.9854
1.236, -1, 10.0943, 18.9495, 28.3479, 25.5013, -47.6476, -21.0493
1.24, -1, 10.1502, 18.9273, 28.3099, 25.5929, -47.511, -21.1129
1.244, -1, 10.206, 18.9052, 28.272, 25.6842, -47.3748, -21.1764
1.248, -1, 10.2616, 18.8832, 28.2342, 25.7753, -47.2388, -21.2397
1.252, -1, 10.3171, 18.8612, 28.1965, 25.8662, -47.1033, -21.3029
1.256, -1, 10.3724, 18.8393, 28.1589, 25.9569, -46.968, -21.3659
1.26, -1, 10.4276, 18.8174, 28.1213, 26.0473, -46.8331, -21.4288
1.264, -1, 10.4827, 18.7956, 28.0839, 26.1375, -46.6986, -21.4915
1.267, -1, 10.5376, 18.7738, 28.0466, 26.2275, -46.5643, -21.554
1.272, -1, 10.5924, 18.7521, 28.0093, 26.3172, -46.4304, -21.6164
1.276, -1, 10.647, 18.7304, 27.9722, 26.4067, -46.2969, -21.6786
1.28, -1, 10.7016, 18.7088, 27.9351, 26.4961, -46.1636, -21.7407
1.284, -1, 10.7559, 18.6873, 27.8982, 26.5851, -46.0307, -21.8027
1.288, -1, 10.8102, 18.6658, 27.8613, 26.674, -45.8981, -21.8644
1.292, -1, 10.8643, 18.6443, 27.8245, 26.7627, -45.7658, -21.9261
1.295, -1, 10.9183, 18.6229, 27.7878, 26.8511, -45.6339, -21.9875
1.3, -1, 10.9722, 18.6016, 27.7512, 26.9394, -45.5022, -22.0489
1.304, -1, 11.0259, 18.5803, 27.7147, 27.0274, -45.3709, -22.1101
1.308, -1, 11.0796, 18.5591, 27.6782, 27.1152, -45.2399, -22.1711
1.312, -1, 11.133, 18.5379, 27.6419, 27.2028, -45.1092, -22.232
1.316, -1, 11.1864, 18.5167, 27.6056, 27.2902, -44.9788, -22.2928
1.32, -1, 11.2396, 18.4956, 27.5695, 27.3774, -44.8487, -22.3534
1.324, -1, 11.2927, 18.4746, 27.5334, 27.4644, -44.719, -22.4138
1.328, -1, 11.3457, 18.4536, 27.4974, 27.5512, -44.5895, -22.4742
1.332, -1, 11.3986, 18.4327, 27.4614, 27.6378, -44.4603, -22.5344
1.336, -1, 11.4513, 18.4118, 27.4256, 27.7241, -44.3314, -22.5944
1.34, -1, 11.5039, 18.3909, 27.3898, 27.8103, -44.2029, -22.6543
1.344, -1, 11.5564, 18.3701, 27.3542, 27.8963, -44.0746, -22.7141
1.348, -1, 11.6088, 18.3494, 27.3186, 27.9821, -43.9466, -22.7737
1.352, -1, 11.661, 18.3287, 27.2831, 28.0677, -43.8189, -22.8332
1.356, -1, 11.7132, 18.308, 27.2476, 28.1531, -43.6915, -22.8926
1.36, -1, 11.7652, 18.2874, 27.2123, 28.2383, -43.5644, -22.9518
1.364, -1, 11.8171, 18.2668, 27.177, 28.3233, -43.4376, -23.0109
1.368, -1, 11.8688, 18.2463, 27.1418, 28.4081, -43.3111, -23.0698
1.372, -1, 11.9205, 18.2259, 27.1067, 28.4927, -43.1848, -23.1286
1.376, -1, 11.972, 18.2054, 27.0717, 28.5771, -43.0589, -23.1873
1.38, -1, 12.0235, 18.1851, 27.0367, 28.6614, -42.9332, -23.2459
1.384, -1, 12.0748, 18.1647, 27.0018, 28.7454, -42.8078, -23.3043
1.388, -1, 12.126, 18.1444, 26.967, 28.8293, -42.6827, -23.3626
1.392, -1, 12.1771, 18.1242, 26.9323, 28.913, -42.5578, -23.4208
1.396, -1, 12.228, 18.104, 26.8977, 28.9965, -42.4333, -23.4788
1.4, -1, 12.2789, 18.0839, 26.8631, 29.0798, -42.309, -23.5367
1.404, -1, 12.3296, 18.0637, 26.8286, 29.1629, -42.185, -23.5945
1.408, -1, 12.3803, 18.0437, 26.7942, 29.2459, -42.0612, -23.6522
1.412, -1, 12.4308, 18.0237, 26.7599, 29.3286, -41.9377, -23.7097
1.416, -1, 12.4812, 18.0037, 26.7256, 29.4112, -41.8145, -23.7671
1.42, -1, 12.5315, 17.9838, 26.6914, 29.4936, -41.6915, -23.8244
1.424, -1, 12.5817, 17.9639, 26.6573, 29.5759, -41.5689, -23.8816
1.428, -1, 12.6318, 17.944, 26.6232, 29.6579, -41.4464, -23.9386
1.432, -1, 12.6818, 17.9242, 26.5893, 29.7398, -41.3243, -23.9956
1.436, -1, 12.7317, 17.9044, 26.5554, 29.8215, -41.2024, -24.0523
1.44, -1, 12.7815, 17.8847, 26.5215, 29.9031, -41.0807, -24.109
1.444, -1, 12.8311, 17.865, 26.4878, 29.9844, -40.9594, -24.1656
1.448, -1, 12.8807, 17.8454, 26.4541, 30.0656, -40.8382, -24.222
1.452, -1, 12.9302, 17.8258, 26.4205, 30.1466, -40.7174, -24.2783
1.456, -1, 12.9795, 17.8062, 26.3869, 30.2275, -40.5967, -24.3345
1.46, -1, 13.0288, 17.7867, 26.3534, 30.3082, -40.4764, -24.3906
1.464, -1, 13.0779, 17.7673, 26.32, 30.3887, -40.3563, -24.4466
1.468, -1, 13.127, 17.7478, 26.2867, 30.469, -40.2364, -24.5024
1.472, -1, 13.1759, 17.7284, 26.2534, 30.5492, -40.1168, -24.5582
1.476, -1, 13.2248, 17.7091, 26.2202, 30.6292, -39.9974, -24.6138
1.48, -1, 13.2735, 17.6898, 26.1871, 30.7091, -39.8783, -24.6693
1.484, -1, 13.3222, 17.6705, 26.154, 30.7888, -39.7594, -24.7247
1.488, -1, 13.3707, 17.6512, 26.121, 30.8683, -39.6407, -24.78
1.492, -1, 13.4191, 17.6321, 26.0881, 30.9476, -39.5223, -24.8351
1.496, -1, 13.4675, 17.6129, 26.0553, 31.0268, -39.4042, -24.8902
1.5, -1, 13.5157, 17.5938, 26.0225, 31.1059, -39.2863, -24.9451
1.504, -1, 13.5639, 17.5747, 25.9897, 31.1848, -39.1686, -25
1.508, -1, 13.612, 17.5557, 25.9571, 31.2635, -39.0511, -25.0547
1.512, -1, 13.6599, 17.5366, 25.9245, 31.3421, -38.9339, -25.1093
1.516, -1, 13.7078, 17.5177, 25.8919, 31.4205, -38.8169, -25.1638
1.52, -1, 13.7556, 17.4988, 25.8595, 31.4987, -38.7002, -25.2182
1.524, -1, 13.8032, 17.4799, 25.8271, 31.5768, -38.5837, -25.2725
1.528, -1, 13.8508, 17.461, 25.7947, 31.6548, -38.4674, -25.3267
1.532, -1, 13.8983, 17.4422, 25.7624, 31.7326, -38.3513, -25.3808
1.536, -1, 13.9457, 17.4234, 25.7302, 31.8102, -38.2355, -25.4347
1.54, -1, 13.993, 17.4047, 25.6981, 31.8877, -38.1199, -25.4886
1.544, -1, 14.0402, 17.386, 25.666, 31.965, -38.0045, -25.5424
1.548, -1, 14.0874, 17.3673, 25.634, 32.0422, -37.8893, -25.596
1.552, -1, 14.1344, 17.3486, 25.602, 32.1193, -37.7744, -25.6496
1.556, -1, 14.1813, 17.33, 25.5701, 32.1962, -37.6597, -25.703
1.56, -1, 14.2282, 17.3115, 25.5382, 32.2729, -37.5452, -25.7564
1.564, -1, 14.275, 17.2929, 25.5065, 32.3495, -37.4309, -25.8096
1.568, -1, 14.3216, 17.2745, 25.4747, 32.426, -37.3168, -25.8628
1.572, -1, 14.3682, 17.256, 25.4431, 32.5023, -37.2029, -25.9158
1.576, -1, 14.4147, 17.2376, 25.4115, 32.5785, -37.0893, -25.9688
1.58, -1, 14.4611, 17.2192, 25.3799, 32.6545, -36.9758, -26.0216
1.584, -1, 14.5075, 17.2008, 25.3484, 32.7304, -36.8626, -26.0744
1.588, -1, 14.5537, 17.1825, 25.317, 32.8062, -36.7496, -26.1271
1.592, -1, 14.5999, 17.1642, 25.2856, 32.8818, -36.6368, -26.1796
1.596, -1, 14.6459, 17.1459, 25.2543, 32.9573, -36.5242, -26.2321
1.6, -1, 14.6919, 17.1277, 25.2231, 33.0326, -36.4118, -26.2844
1.604, -1, 14.7378, 17.1095, 25.1919, 33.1078, -36.2996, -26.3367
1.608, -1, 14.7837, 17.0914, 25.1607, 33.1829, -36.1877, -26.3889
1.612, -1, 14.8294, 17.0733, 25.1296, 33.2578, -36.0759, -26.441
1.616, -1, 14.875, 17.0552, 25.0986, 33.3326, -35.9643, -26.493
1.62, -1, 14.9206, 17.0371, 25.0676, 33.4072, -35.8529, -26.5448
1.624, -1, 14.9661, 17.0191, 25.0367, 33.4817, -35.7418, -26.5966
1.628, -1, 15.0115, 17.0011, 25.0058, 33.5561, -35.6308, -26.6483
1.632, -1, 15.0568, 16.9831, 24.975, 33.6304, -35.52, -26.7
1.636, -1, 15.1021, 16.9652, 24.9443, 33.7045, -35.4094, -26.7515
1.64, -1, 15.1472, 16.9473, 24.9136, 33.7785, -35.2991, -26.8029
1.644, -1, 15.1923, 16.9294, 24.8829, 33.8523, -35.1889, -26.8543
1.648, -1, 15.2373, 16.9116, 24.8524, 33.9261, -35.0789, -26.9055
1.652, -1, 15.2822, 16.8938, 24.8218, 33.9997, -34.9691, -26.9567
1.656, -1, 15.3271, 16.876, 24.7913, 34.0731, -34.8595, -27.0077
1.66, -1, 15.3719, 16.8583, 24.7609, 34.1465, -34.75, -27.0587
1.664, -1, 15.4166, 16.8406, 24.7305, 34.2197, -34.6408, -27.1096
1.668, -1, 15.4612, 16.8229, 24.7002, 34.2928, -34.5318, -27.1604
1.672, -1, 15.5057, 16.8053, 24.6699, 34.3657, -34.4229, -27.2111
1.676, -1, 15.5502, 16.7876, 24.6397, 34.4386, -34.3143, -27.2618
1.68, -1, 15.5946, 16.7701, 24.6095, 34.5113, -34.2058, -27.3123
1.684, -1, 15.6389, 16.7525, 24.5794, 34.5839, -34.0975, -27.3628
1.688, -1, 15.6831, 16.735, 24.5494, 34.6563, -33.9894, -27.4131
1.692, -1, 15.7272, 16.7175, 24.5193, 34.7287, -33.8815, -27.4634
1.696, -1, 15.7713, 16.7, 24.4894, 34.8009, -33.7737, -27.5136
1.7, -1, 15.8153, 16.6826, 24.4595, 34.873, -33.6662, -27.5637
1.704, -1, 15.8593, 16.6652, 24.4296, 34.945, -33.5588, -27.6138
1.708, -1, 15.9031, 16.6478, 24.3998, 35.0168, -33.4516, -27.6637
1.712, -1, 15.9469, 16.6304, 24.37, 35.0886, -33.3446, -27.7136
1.716, -1, 15.9906, 16.6131, 24.3403, 35.1602, -33.2377, -27.7634
1.72, -1, 16.0343, 16.5958, 24.3107, 35.2317, -33.1311, -27.8131
1.724, -1, 16.0778, 16.5786, 24.281, 35.303, -33.0246, -27.8627
1.728, -1, 16.1213, 16.5613, 24.2515, 35.3743, -32.9183, -27.9122
1.732, -1, 16.1648, 16.5441, 24.222, 35.4454, -32.8121, -27.9617
1.736, -1, 16.2081, 16.5269, 24.1925, 35.5165, -32.7062, -28.011
1.74, -1, 16.2514, 16.5098, 24.1631, 35.5874, -32.6004, -28.0603
1.744, -1, 16.2946, 16.4927, 24.1337, 35.6582, -32.4947, -28.1096
1.748, -1, 16.3378, 16.4756, 24.1044, 35.7289, -32.3893, -28.1587
1.752, -1, 16.3808, 16.4585, 24.0751, 35.7994, -32.284, -28.2077
1.756, -1, 16.4238, 16.4414, 24.0459, 35.8699, -32.1789, -28.2567
1.76, -1, 16.4668, 16.4244, 24.0167, 35.9402, -32.074, -28.3056
1.764, -1, 16.5096, 16.4074, 23.9875, 36.0105, -31.9692, -28.3544
1.768, -1, 16.5524, 16.3905, 23.9584, 36.0806, -31.8646, -28.4032
1.772, -1, 16.5952, 16.3736, 23.9294, 36.1506, -31.7602, -28.4518
1.776, -1, 16.6378, 16.3566, 23.9004, 36.2205, -31.6559, -28.5004
1.78, -1, 16.6804, 16.3398, 23.8714, 36.2902, -31.5518, -28.5489
1.784, -1, 16.7229, 16.3229, 23.8425, 36.3599, -31.4478, -28.5973
1.788, -1, 16.7654, 16.3061, 23.8137, 36.4295, -31.344, -28.6457
1.792, -1, 16.8078, 16.2893, 23.7849, 36.4989, -31.2404, -28.694
1.796, -1, 16.8501, 16.2725, 23.7561, 36.5683, -31.137, -28.7422
1.8, -1, 16.8924, 16.2558, 23.7274, 36.6375, -31.0337, -28.7903
1.804, -1, 16.9346, 16.239, 23.6987, 36.7067, -30.9305, -28.8384
1.808, -1, 16.9767, 16.2224, 23.67, 36.7757, -30.8276, -28.8863
1.812, -1, 17.0188, 16.2057, 23.6414, 36.8446, -30.7248, -28.9343
1.816, -1, 17.0608, 16.189, 23.6129, 36.9134, -30.6221, -28.9821
1.82, -1, 17.1027, 16.1724, 23.5844, 36.9821, -30.5196, -29.0298
1.824, -1, 17.1445, 16.1559, 23.5559, 37.0507, -30.4172, -29.0775
1.828, -1, 17.186, 16.1394, 23.5275, 37.1192, -30.3151, -29.1251
1.832, -1, 17.2272, 16.1231, 23.4991, 37.1876, -30.2131, -29.1727
1.836, -1, 17.2677, 16.107, 23.4708, 37.2557, -30.1114, -29.2201
1.84, -1, 17.3076, 16.0912, 23.4426, 37.3237, -30.01, -29.2673
1.844, -1, 17.3467, 16.0757, 23.4146, 37.3913, -29.9092, -29.3143
1.848, -1, 17.3848, 16.0608, 23.3867, 37.4584, -29.8092, -29.3609
1.852, -1, 17.422, 16.0463, 23.3592, 37.5247, -29.7102, -29.407
1.856, -1, 17.458, 16.0323, 23.332, 37.59, -29.6128, -29.4524
1.86, -1, 17.4929, 16.019, 23.3054, 37.654, -29.5174, -29.4969
1.864, -1, 17.5264, 16.0063, 23.2795, 37.7163, -29.4245, -29.5402
1.868, -1, 17.5585, 15.9944, 23.2545, 37.7765, -29.3348, -29.582
1.872, -1, 17.589, 15.9832, 23.2306, 37.8341, -29.2489, -29.6221
1.876, -1, 17.6179, 15.9726, 23.2078, 37.8888, -29.1674, -29.66
1.88, -1, 17.6452, 15.9627, 23.1865, 37.94, -29.0911, -29.6956
1.884, -1, 17.6708, 15.9533, 23.1668, 37.9874, -29.0204, -29.7286
1.888, -1, 17.6949, 15.9443, 23.1489, 38.0306, -28.9559, -29.7586
1.892, -1, 17.7175, 15.9356, 23.1327, 38.0695, -28.8979, -29.7857
1.896, -1, 17.7385, 15.9272, 23.1184, 38.1039, -28.8466, -29.8096
1.9, -1, 17.758, 15.9192, 23.106, 38.1339, -28.8018, -29.8304
1.904, -1, 17.7759, 15.9115, 23.0954, 38.1595, -28.7636, -29.8482
1.908, -1, 17.792, 15.9045, 23.0865, 38.181, -28.7315, -29.8632
1.912, -1, 17.8065, 15.898, 23.0792, 38.1987, -28.7051, -29.8755
1.916, -1, 17.8195, 15.8921, 23.0733, 38.2129, -28.6838, -29.8854
1.92, -1, 17.831, 15.8868, 23.0687, 38.2241, -28.667, -29.8932
1.924, -1, 17.8411, 15.8821, 23.0652, 38.2327, -28.6542, -29.8991
1.928, -1, 17.85, 15.8781, 23.0626, 38.2391, -28.6446, -29.9036
1.932, -1, 17.8576, 15.8747, 23.0607, 38.2438, -28.6375, -29.9068
1.936, -1, 17.8638, 15.872, 23.0593, 38.2471, -28.6325, -29.9091
1.94, 2, 17.8689, 15.8698, 23.0584, 38.2494, -28.629, -29.9108
1.944, 2, 17.8727, 15.8682, 23.0577, 38.251, -28.6266, -29.9119
1.948, 2, 17.8755, 15.867, 23.0573, 38.2521, -28.625, -29.9126
1.952, 2, 17.8775, 15.8662, 23.057, 38.2528, -28.6239, -29.9131
1.956, 2, 17.8788, 15.8657, 23.0568, 38.2533, -28.6231, -29.9135
1.96, 2, 17.8797, 15.8653, 23.0567, 38.2537, -28.6226, -29.9137
1.964, 2, 17.8803, 15.8651, 23.0566, 38.2539, -28.6222, -29.9139
1.968, 2, 17.8807, 15.8649, 23.0565, 38.254, -28.622, -29.914
1.972, 2, 17.881, 15.8648, 23.0565, 38.2541, -28.6219, -29.9141
1.976, 2, 17.8812, 15.8647, 23.0564, 38.2542, -28.6217, -29.9141
1.98, 2, 17.8813, 15.8647, 23.0564, 38.2543, -28.6217, -29.9142
1.984, 2, 17.8814, 15.8646, 23.0564, 38.2543, -28.6216, -29.9142
1.988, 2, 17.8814, 15.8646, 23.0564, 38.2543, -28.6216, -29.9142
1.992, 2, 17.8815, 15.8646, 23.0564, 38.2543, -28.6216, -29.9142
1.996, 2, 17.8815, 15.8646, 23.0564, 38.2543, -28.6216, -29.9142
1.999, 2, 17.8815, 15.8646, 23.0564, 38.2544, -28.6215, -29.9142
2.004, 2, 17.8815, 15.8646, 23.0564, 38.2544, -28.6215, -29.9142
2.008, 2, 17.8816, 15.8646, 23.0564, 38.2544, -28.6215, -29.9142
2.012, 2, 17.8816, 15.8646, 23.0564, 38.2544, -28.6215, -29.9142
2.015, 2, 17.8816, 15.8646, 23.0564, 38.2544, -28.6215, -29.9142
2.019, 2, 17.8816, 15.8646, 23.0564, 38.2544, -28.6215, -29.9142
2.024, 2, 17.8816, 15.8646, 23.0564, 38.2544, -28.6215, -29.9142
2.028, 2, 17.8816, 15.8645, 23.0564, 38.2544, -28.6215, -29.9142
2.031, 2, 17.8816, 15.8645, 23.0564, 38.2544, -28.6215, -29.9142
2.036, 2, 17.8816, 15.8645, 23.0564, 38.2544, -28.6215, -29.9142
2.04, 2, 17.8816, 15.8645, 23.0564, 38.2544, -28.6215, -29.9142
2.044, 2, 17.8816, 15.8645, 23.0564, 38.2544, -28.6215, -29.9142
2.048, 2, 17.8816, 15.8645, 23.0564, 38.2544, -28.6215, -29.9142
2.051, 2, 17.8816, 15.8645, 23.0564, 38.2544, -28.6215, -29.9142
2.055, 2, 17.8816, 15.8645, 23.0564, 38.2544, -28.6215, -29.9142
2.06, 2, 17.8816, 15.8645, 23.0564, 38.2544, -28.6215, -29.9142
2.064, 2, 17.8816, 15.8645, 23.0564, 38.2544, -28.6215, -29.9142
2.068, 2, 17.8816, 15.8645, 23.0564, 38.2544, -28.6215, -29.9142
2.071, 2, 17.8816, 15.8645, 23.0564, 38.2544, -28.6215, -29.9142
2.076, 2, 17.8816, 15.8645, 23.0564, 38.2544, -28.6215, -29.9142
2.08, 2, 17.8816, 15.8645, 23.0564, 38.2544, -28.6215, -29.9142
2.084, 2, 17.8816, 15.8645, 23.0564, 38.2544, -28.6215, -29.9142
2.087, 2, 17.8816, 15.8645, 23.0564, 38.2544, -28.6215, -29.9142
2.092, 2, 17.8816, 15.8645, 23.0564, 38.2544, -28.6215, -29.9142
2.096, 2, 17.8816, 15.8645, 23.0564, 38.2544, -28.6215, -29.9142
2.1, 2, 17.8816, 15.8645, 23.0564, 38.2544, -28.6215, -29.9142
2.104, 2, 17.8816, 15.8645, 23.0564, 38.2544, -28.6215, -29.9142
2.107, 2, 17.8816, 15.8645, 23.0564, 38.2544, -28.6215, -29.9142
2.111, 2, 17.8816, 15.8645, 23.0564, 38.2544, -28.6215, -29.9142
2.116, 2, 17.8816, 15.8645, 23.0564, 38.2544, -28.6215, -29.9142
2.12, 2, 17.8816, 15.8645, 23.0564, 38.2544, -28.6215, -29.9142
2.124, 2, 17.8816, 15.8645, 23.0564, 38.2544, -28.6215, -29.9142
2.127, 2, 17.8816, 15.8645, 23.0564, 38.2544, -28.6215, -29.9142
2.132, 2, 17.8816, 15.8645, 23.0564, 38.2544, -28.6215, -29.9142
2.136, 2, 17.8816, 15.8645, 23.0564, 38.2544, -28.6215, -29.9142
2.14, 2, 17.8816, 15.8645, 23.0564, 38.2544, -28.6215, -29.9142
2.143, 2, 17.8816, 15.8645, 23.0564, 38.2544, -28.6215, -29.9142
2.148, 2, 17.8816, 15.8645, 23.0564, 38.2544, -28.6215, -29.9142
2.152, 2, 17.8816, 15.8645, 23.0564, 38.2544, -28.6215, -29.9142
2.156, 2, 17.8816, 15.8645, 23.0564, 38.2544, -28.6215, -29.9142
2.16, 2, 17.8816, 15.8645, 23.0564, 38.2544, -28.6215, -29.9142
2.163, 2, 17.8816, 15.8645, 23.0564, 38.2544, -28.6215, -29.9142
2.168, 2, 17.8816, 15.8645, 23.0564, 38.2544, -28.6215, -29.9142
2.172, 2, 17.8816, 15.8645, 23.0564, 38.2544, -28.6215, -29.9142
2.176, 2, 17.8816, 15.8645, 23.0564, 38.2544, -28.6215, -29.9142
2.179, 2, 17.8816, 15.8645, 23.0564, 38.2544, -28.6215, -29.9142
2.184, 2, 17.8816, 15.8645, 23.0564, 38.2544, -28.6215, -29.9142
2.188, 2, 17.8816, 15.8645, 23.0564, 38.2544, -28.6215, -29.9142
2.192, 2, 17.8816, 15.8645, 23.0564, 38.2544, -28.6215, -29.9142
2.196, 2, 17.8816, 15.8645, 23.0564, 38.2544, -28.6215, -29.9142
2.199, 2, 17.8816, 15.8645, 23.0564, 38.2544, -28.6215, -29.9142
2.204, 2, 17.8816, 15.8645, 23.0564, 38.2544, -28.6215, -29.9142
2.208, 2, 17.8816, 15.8645, 23.0564, 38.2544, -28.6215, -29.9142
2.212, 2, 17.8816, 15.8645, 23.0564, 38.2544, -28.6215, -29.9142
2.216, 2, 17.8816, 15.8645, 23.0564, 38.2544, -28.6215, -29.9142
2.219, 2, 17.8816, 15.8645, 23.0564, 38.2544, -28.6215, -29.9142
2.224, 2, 17.8816, 15.8645, 23.0564, 38.2544, -28.6215, -29.9142
2.228, 2, 17.8816, 15.8645, 23.0564, 38.2544, -28.6215, -29.9142
2.232, 2, 17.8816, 15.8645, 23.0564, 38.2544, -28.6215, -29.9142
2.235, 2, 17.8816, 15.8645, 23.0564, 38.2544, -28.6215, -29.9142
2.24, 2, 17.8816, 15.8645, 23.0564, 38.2544, -28.6215, -29.9142
2.244, 2, 17.8816, 15.8645, 23.0564, 38.2544, -28.6215, -29.9142
2.248, 2, 17.8816, 15.8645, 23.0564, 38.2544, -28.6215, -29.9142
2.252, 2, 17.8816, 15.8645, 23.0564, 38.2544, -28.6215, -29.9142
2.255, 2, 17.8816, 15.8645, 23.0564, 38.2544, -28.6215, -29.9142
2.259, 2, 17.8816, 15.8645, 23.0564, 38.2544, -28.6215, -29.9142
2.264, 2, 17.8816, 15.8645, 23.0564, 38.2544, -28.6215, -29.9142
2.268, 2, 17.8816, 15.8645, 23.0564, 38.2544, -28.6215, -29.9142
2.272, 2, 17.8816, 15.8645, 23.0564, 38.2544, -28.6215, -29.9142
2.275, 2, 17.8816, 15.8645, 23.0564, 38.2544, -28.6215, -29.9142
2.28, 2, 17.8816, 15.8645, 23.0564, 38.2544, -28.6215, -29.9142
2.284, 2, 17.8816, 15.8645, 23.0564, 38.2544, -28.6215, -29.9142
2.288, 2, 17.8816, 15.8645, 23.0564, 38.2544, -28.6215, -29.9142
2.291, 2, 17.8816, 15.8645, 23.0564, 38.2544, -28.6215, -29.9142
2.296, 2, 17.8816, 15.8645, 23.0564, 38.2544, -28.6215, -29.9142
2.3, 2, 17.8816, 15.8645, 23.0564, 38.2544, -28.6215, -29.9142
2.304, 2, 17.8816, 15.8645, 23.0564, 38.2544, -28.6215, -29.9142
2.308, 2, 17.8816, 15.8645, 23.0564, 38.2544, -28.6215, -29.9142
2.311, 2, 17.8816, 15.8645, 23.0564, 38.2544, -28.6215, -29.9142
2.316, 2, 17.8816, 15.8645, 23.0564, 38.2544, -28.6215, -29.9142
2.32, 2, 17.8816, 15.8645, 23.0564, 38.2544, -28.6215, -29.9142
2.324, 2, 17.8816, 15.8645, 23.0564, 38.2544, -28.6215, -29.9142
2.328, 2, 17.8816, 15.8645, 23.0564, 38.2544, -28.6215, -29.9142
2.331, 2, 17.8816, 15.8645, 23.0564, 38.2544, -28.6215, -29.9142
2.336, 2, 17.8816, 15.8645, 23.0564, 38.2544, -28.6215, -29.9142
2.34, 2, 17.8816, 15.8645, 23.0564, 38.2544, -28.6215, -29.9142
2.344, 2, 17.8816, 15.8645, 23.0564, 38.2544, -28.6215, -29.9142
2.347, 2, 17.8816, 15.8645, 23.0564, 38.2544, -28.6215, -29.9142
2.352, 2, 17.8816, 15.8645, 23.0564, 38.2544, -28.6215, -29.9142
2.356, 2, 17.8816, 15.8645, 23.0564, 38.2544, -28.6215, -29.9142
2.36, 2, 17.8816, 15.8645, 23.0564, 38.2544, -28.6215, -29.9142
2.364, 2, 17.8816, 15.8645, 23.0564, 38.2544, -28.6215, -29.9142
2.367, 2, 17.8816, 15.8645, 23.0564, 38.2544, -28.6215, -29.9142
2.372, 2, 17.8816, 15.8645, 23.0564, 38.2544, -28.6215, -29.9142
2.376, 2, 17.8816, 15.8645, 23.0564, 38.2544, -28.6215, -29.9142
2.38, 2, 17.8816, 15.8645, 23.0564, 38.2544, -28.6215, -29.9142
2.383, 2, 17.8816, 15.8645, 23.0564, 38.2544, -28.6215, -29.9142
2.388, 2, 17.8816, 15.8645, 23.0564, 38.2544, -28.6215, -29.9142
2.392, 2, 17.8816, 15.8645, 23.0564, 38.2544, -28.6215, -29.9142
2.396, 2, 17.8816, 15.8645, 23.0564, 38.2544, -28.6215, -29.9142
2.4, 2, 17.8816, 15.8645, 23.0564, 38.2544, -28.6215, -29.9142
2.403, 2, 17.8816, 15.8645, 23.0564, 38.2544, -28.6215, -29.9142
2.408, 2, 17.8816, 15.8645, 23.0564, 38.2544, -28.6215, -29.9142
2.412, 2, 17.8816, 15.8645, 23.0564, 38.2544, -28.6215, -29.9142
2.416, 2, 17.8816, 15.8645, 23.0564, 38.2544, -28.6215, -29.9142
2.42, 2, 17.8816, 15.8645, 23.0564, 38.2544, -28.6215, -29.9142
2.423, 2, 17.8816, 15.8645, 23.0564, 38.2544, -28.6215, -29.9142
2.428, 2, 17.8816, 15.8645, 23.0564, 38.2544, -28.6215, -29.9142
2.432, 2, 17.8816, 15.8645, 23.0564, 38.2544, -28.6215, -29.9142
2.436, 2, 17.8816, 15.8645, 23.0564, 38.2544, -28.6215, -29.9142
2.439, 2, 17.8816, 15.8645, 23.0564, 38.2544, -28.6215, -29.9142
2.444, 2, 17.8816, 15.8645, 23.0564, 38.2544, -28.6215, -29.9142
2.448, 2, 17.8816, 15.8645, 23.0564, 38.2544, -28.6215, -29.9142
2.452, 2, 17.8816, 15.8645, 23.0564, 38.2544, -28.6215, -29.9142
2.456, 2, 17.8816, 15.8645, 23.0564, 38.2544, -28.6215, -29.9142
2.459, 2, 17.8816, 15.8645, 23.0564, 38.2544, -28.6215, -29.9142
2.464, 2, 17.8816, 15.8645, 23.0564, 38.2544, -28.6215, -29.9142
2.468, 2, 17.8816, 15.8645, 23.0564, 38.2544, -28.6215, -29.9142
2.472, 2, 17.8816, 15.8645, 23.0564, 38.2544, -28.6215, -29.9142
2.476, 2, 17.8816, 15.8645, 23.0564, 38.2544, -28.6215, -29.9142
2.479, 2, 17.8816, 15.8645, 23.0564, 38.2544, -28.6215, -29.9142
2.484, 2, 17.8816, 15.8645, 23.0564, 38.2544, -28.6215, -29.9142
2.488, 2, 17.8816, 15.8645, 23.0564, 38.2544, -28.6215, -29.9142
2.492, 2, 17.8816, 15.8645, 23.0564, 38.2544, -28.6215, -29.9142
2.495, 2, 17.8816, 15.8645, 23.0564, 38.2544, -28.6215, -29.9142
2.5, 2, 17.8816, 15.8645, 23.0564, 38.2544, -28.6215, -29.9142
2.504, 2, 17.8816, 15.8645, 23.0564, 38.2544, -28.6215, -29.9142
2.508, 2, 17.8816, 15.8645, 23.0564, 38.2544, -28.6215, -29.9142
2.512, 2, 17.8816, 15.8645, 23.0564, 38.2544, -28.6215, -29.9142
2.515, 2, 17.8816, 15.8645, 23.0564, 38.2544, -28.6215, -29.9142
2.52, 2, 17.8816, 15.8645, 23.0564, 38.2544, -28.6215, -29.9142
2.524, 2, 17.8816, 15.8645, 23.0564, 38.2544, -28.6215, -29.9142
2.528, 2, 17.8816, 15.8645, 23.0564, 38.2544, -28.6215, -29.9142
2.531, 2, 17.8816, 15.8645, 23.0564, 38.2544, -28.6215, -29.9142
2.536, 2, 17.8816, 15.8645, 23.0564, 38.2544, -28.6215, -29.9142
2.54, 2, 17.8816, 15.8645, 23.0564, 38.2544, -28.6215, -29.9142
2.544, 2, 17.8816, 15.8645, 23.0564, 38.2544, -28.6215, -29.9142
2.548, 2, 17.8816, 15.8645, 23.0564, 38.2544, -28.6215, -29.9142
2.551, 2, 17.8816, 15.8645, 23.0564, 38.2544, -28.6215, -29.9142
2.556, 2, 17.8816, 15.8645, 23.0564, 38.2544, -28.6215, -29.9142
2.56, 2, 17.8816, 15.8645, 23.0564, 38.2544, -28.6215, -29.9142
2.564, 2, 17.8816, 15.8645, 23.0564, 38.2544, -28.6215, -29.9142
2.568, 2, 17.8816, 15.8645, 23.0564, 38.2544, -28.6215, -29.9142
2.571, 2, 17.8816, 15.8645, 23.0564, 38.2544, -28.6215, -29.9142
2.576, 2, 17.8816, 15.8645, 23.0564, 38.2544, -28.6215, -29.9142
2.58, 2, 17.8816, 15.8645, 23.0564, 38.2544, -28.6215, -29.9142
2.584, 2, 17.8816, 15.8645, 23.0564, 38.2544, -28.6215, -29.9142
2.587, 2, 17.8816, 15.8645, 23.0564, 38.2544, -28.6215, -29.9142
2.592, 2, 17.8816, 15.8645, 23.0564, 38.2544, -28.6215, -29.9142
2.596, 2, 17.8816, 15.8645, 23.0564, 38.2544, -28.6215, -29.9142
2.6, 2, 17.8816, 15.8645, 23.0564, 38.2544, -28.6215, -29.9142
2.604, 2, 17.8816, 15.8645, 23.0564, 38.2544, -28.6215, -29.9142
2.607, 2, 17.8816, 15.8645, 23.0564, 38.2544, -28.6215, -29.9142
2.612, 2, 17.8816, 15.8645, 23.0564, 38.2544, -28.6215, -29.9142
2.616, 2, 17.8816, 15.8645, 23.0564, 38.2544, -28.6215, -29.9142
2.62, 2, 17.8816, 15.8645, 23.0564, 38.2544, -28.6215, -29.9142
2.624, 2, 17.8816, 15.8645, 23.0564, 38.2544, -28.6215, -29.9142
2.627, 2, 17.8816, 15.8645, 23.0564, 38.2544, -28.6215, -29.9142
2.632, 2, 17.8816, 15.8645, 23.0564, 38.2544, -28.6215, -29.9142
2.636, 2, 17.8816, 15.8645, 23.0564, 38.2544, -28.6215, -29.9142
2.64, 2, 17.8816, 15.8645, 23.0564, 38.2544, -28.6215, -29.9142
2.643, 2, 17.8816, 15.8645, 23.0564, 38.2544, -28.6215, -29.9142
2.648, 2, 17.8816, 15.8645, 23.0564, 38.2544, -28.6215, -29.9142
2.652, 2, 17.8816, 15.8645, 23.0564, 38.2544, -28.6215, -29.9142
2.656, 2, 17.8816, 15.8645, 23.0564, 38.2544, -28.6215, -29.9142
2.66, 2, 17.8816, 15.8645, 23.0564, 38.2544, -28.6215, -29.9142
2.663, 2, 17.8816, 15.8645, 23.0564, 38.2544, -28.6215, -29.9142
2.668, 2, 17.8816, 15.8645, 23.0564, 38.2544, -28.6215, -29.9142
2.672, 2, 17.8816, 15.8645, 23.0564, 38.2544, -28.6215, -29.9142
2.676, 2, 17.8816, 15.8645, 23.0564, 38.2544, -28.6215, -29.9142
2.679, 2, 17.8816, 15.8645, 23.0564, 38.2544, -28.6215, -29.9142
2.684, 2, 17.8816, 15.8645, 23.0564, 38.2544, -28.6215, -29.9142
2.688, 2, 17.8816, 15.8645, 23.0564, 38.2544, -28.6215, -29.9142
2.692, 2, 17.8816, 15.8645, 23.0564, 38.2544, -28.6215, -29.9142
2.696, 2, 17.8816, 15.8645, 23.0564, 38.2544, -28.6215, -29.9142
2.699, 2, 17.8816, 15.8645, 23.0564, 38.2544, -28.6215, -29.9142
2.704, 2, 17.8816, 15.8645, 23.0564, 38.2544, -28.6215, -29.9142
2.708, 2, 17.8816, 15.8645, 23.0564, 38.2544, -28.6215, -29.9142
2.712, 2, 17.8816, 15.8645, 23.0564, 38.2544, -28.6215, -29.9142
2.716, 2, 17.8816, 15.8645, 23.0564, 38.2544, -28.6215, -29.9142
2.719, 2, 17.8816, 15.8645, 23.0564, 38.2544, -28.6215, -29.9142
2.724, 2, 17.8816, 15.8645, 23.0564, 38.2544, -28.6215, -29.9142
2.728, 2, 17.8816, 15.8645, 23.0564, 38.2544, -28.6215, -29.9142
2.732, 2, 17.8816, 15.8645, 23.0564, 38.2544, -28.6215, -29.9142
2.735, 2, 17.8816, 15.8645, 23.0564, 38.2544, -28.6215, -29.9142
2.74, 2, 17.8816, 15.8645, 23.0564, 38.2544, -28.6215, -29.9142
2.744, 2, 17.8816, 15.8645, 23.0564, 38.2544, -28.6215, -29.9142
2.748, 2, 17.8816, 15.8645, 23.0564, 38.2544, -28.6215, -29.9142
2.752, 2, 17.8816, 15.8645, 23.0564, 38.2544, -28.6215, -29.9142
2.755, 2, 17.8816, 15.8645, 23.0564, 38.2544, -28.6215, -29.9142
2.76, 2, 17.8816, 15.8645, 23.0564, 38.2544, -28.6215, -29.9142
2.764, 2, 17.8816, 15.8645, 23.0564, 38.2544, -28.6215, -29.9142
2.768, 2, 17.8816, 15.8645, 23.0564, 38.2544, -28.6215, -29.9142
2.772, 2, 17.8816, 15.8645, 23.0564, 38.2544, -28.6215, -29.9142
2.775, 2, 17.8816, 15.8645, 23.0564, 38.2544, -28.6215, -29.9142
2.78, 2, 17.8816, 15.8645, 23.0564, 38.2544, -28.6215, -29.9142
2.784, 2, 17.8816, 15.8645, 23.0564, 38.2544, -28.6215, -29.9142
2.788, 2, 17.8816, 15.8645, 23.0564, 38.2544, -28.6215, -29.9142
2.791, 2, 17.8816, 15.8645, 23.0564, 38.2544, -28.6215, -29.9142
2.796, 2, 17.8816, 15.8645, 23.0564, 38.2544, -28.6215, -29.9142
2.8, 2, 17.8816, 15.8645, 23.0564, 38.2544, -28.6215, -29.9142
2.804, 2, 17.8816, 15.8645, 23.0564, 38.2544, -28.6215, -29.9142
2.808, 2, 17.8816, 15.8645, 23.0564, 38.2544, -28.6215, -29.9142
2.811, 2, 17.8816, 15.8645, 23.0564, 38.2544, -28.6215, -29.9142
2.816, 2, 17.8816, 15.8645, 23.0564, 38.2544, -28.6215, -29.9142
2.82, 2, 17.8816, 15.8645, 23.0564, 38.2544, -28.6215, -29.9142
2.824, 2, 17.8816, 15.8645, 23.0564, 38.2544, -28.6215, -29.9142
2.828, 2, 17.8816, 15.8645, 23.0564, 38.2544, -28.6215, -29.9142
2.831, 2, 17.8816, 15.8645, 23.0564, 38.2544, -28.6215, -29.9142
2.836, 2, 17.8816, 15.8645, 23.0564, 38.2544, -28.6215, -29.9142
2.84, 2, 17.8816, 15.8645, 23.0564, 38.2544, -28.6215, -29.9142
2.844, 2, 17.8816, 15.8645, 23.0564, 38.2544, -28.6215, -29.9142
2.847, 2, 17.8816, 15.8645, 23.0564, 38.2544, -28.6215, -29.9142
2.852, 2, 17.8816, 15.8645, 23.0564, 38.2544, -28.6215, -29.9142
2.856, 2, 17.8816, 15.8645, 23.0564, 38.2544, -28.6215, -29.9142
2.86, 2, 17.8816, 15.8645, 23.0564, 38.2544, -28.6215, -29.9142
2.864, 2, 17.8816, 15.8645, 23.0564, 38.2544, -28.6215, -29.9142
2.867, 2, 17.8816, 15.8645, 23.0564, 38.2544, -28.6215, -29.9142
2.872, 2, 17.8816, 15.8645, 23.0564, 38.2544, -28.6215, -29.9142
2.876, 2, 17.8816, 15.8645, 23.0564, 38.2544, -28.6215, -29.9142
2.88, 2, 17.8816, 15.8645, 23.0564, 38.2544, -28.6215, -29.9142
2.883, 2, 17.8816, 15.8645, 23.0564, 38.2544, -28.6215, -29.9142
2.888, 2, 17.8816, 15.8645, 23.0564, 38.2544, -28.6215, -29.9142
2.892, 2, 17.8816, 15.8645, 23.0564, 38.2544, -28.6215, -29.9142
2.896, 2, 17.8816, 15.8645, 23.0564, 38.2544, -28.6215, -29.9142
2.9, 2, 17.8816, 15.8645, 23.0564, 38.2544, -28.6215, -29.9142
2.903, 2, 17.8816, 15.8645, 23.0564, 38.2544, -28.6215, -29.9142
2.908, 2, 17.8816, 15.8645, 23.0564, 38.2544, -28.6215, -29.9142
2.912, 2, 17.8816, 15.8645, 23.0564, 38.2544, -28.6215, -29.9142
2.916, 2, 17.8816, 15.8645, 23.0564, 38.2544, -28.6215, -29.9142
2.92, 2, 17.8816, 15.8645, 23.0564, 38.2544, -28.6215, -29.9142
2.923, 2, 17.8816, 15.8645, 23.0564, 38.2544, -28.6215, -29.9142
2.928, 2, 17.8816, 15.8645, 23.0564, 38.2544, -28.6215, -29.9142
2.932, 2, 17.8816, 15.8645, 23.0564, 38.2544, -28.6215, -29.9142
2.936, 2, 17.8816, 15.8645, 23.0564, 38.2544, -28.6215, -29.9142
2.939, 2, 17.8816, 15.8645, 23.0564, 38.2544, -28.6215, -29.9142
2.944, 2, 17.8816, 15.8645, 23.0564, 38.2544, -28.6215, -29.9142
2.948, 2, 17.8816, 15.8645, 23.0564, 38.2544, -28.6215, -29.9142
2.952, 2, 17.8816, 15.8645, 23.0564, 38.2544, -28.6215, -29.9142
2.956, 2, 17.8816, 15.8645, 23.0564, 38.2544, -28.6215, -29.9142
2.959, 2, 17.8816, 15.8645, 23.0564, 38.2544, -28.6215, -29.9142
2.964, 2, 17.8816, 15.8645, 23.0564, 38.2544, -28.6215, -29.9142
2.968, 2, 17.8816, 15.8645, 23.0564, 38.2544, -28.6215, -29.9142
2.972, 2, 17.8816, 15.8645, 23.0564, 38.2544, -28.6215, -29.9142
2.976, 2, 17.8816, 15.8645, 23.0564, 38.2544, -28.6215, -29.9142
2.98, 2, 17.8816, 15.8645, 23.0564, 38.2544, -28.6215, -29.9142
2.984, 2, 17.8816, 15.8645, 23.0564, 38.2544, -28.6215, -29.9142
2.988, 2, 17.8816, 15.8645, 23.0564, 38.2544, -28.6215, -29.9142
2.992, 2, 17.8816, 15.8645, 23.0564, 38.2544, -28.6215, -29.9142
2.995, 2, 17.8816, 15.8645, 23.0564, 38.2544, -28.6215, -29.9142
3, 2, 17.8816, 15.8645, 23.0564, 38.2544, -28.6215, -29.9142
3.004, 2, 17.8816, 15.8645, 23.0564, 38.2544, -28.6215, -29.9142
3.008, 2, 17.8816, 15.8645, 23.0564, 38.2544, -28.6215, -29.9142
3.012, 2, 17.8816, 15.8645, 23.0564, 38.2544, -28.6215, -29.9142
3.015, 4, 17.8816, 15.8645, 23.0564, 38.2544, -28.6215, -29.9142
3.02, 4, 17.8816, 15.8645, 23.0564, 38.2544, -28.6215, -29.9142
3.024, 4, 17.8816, 15.8645, 23.0564, 38.2544, -28.6215, -29.9142
3.028, 4, 17.8816, 15.8645, 23.0564, 38.2544, -28.6215, -29.9142
3.031, 4, 17.8816, 15.8645, 23.0564, 38.2544, -28.6215, -29.9142
3.036, 4, 17.8816, 15.8645, 23.0564, 38.2544, -28.6215, -29.9142
3.04, 4, 17.8816, 15.8645, 23.0564, 38.2544, -28.6215, -29.9142
3.044, 4, 17.8816, 15.8645, 23.0564, 38.2544, -28.6215, -29.9142
3.048, 4, 17.8816, 15.8645, 23.0564, 38.2544, -28.6215, -29.9142
3.051, 4, 17.8816, 15.8645, 23.0564, 38.2544, -28.6215, -29.9142
3.056, 4, 17.8816, 15.8645, 23.0564, 38.2544, -28.6215, -29.9142
3.06, 4, 17.8816, 15.8645, 23.0564, 38.2544, -28.6215, -29.9142
3.064, 4, 17.8816, 15.8645, 23.0564, 38.2544, -28.6215, -29.9142
3.068, 4, 17.8816, 15.8645, 23.0564, 38.2544, -28.6215, -29.9142
3.071, 4, 17.8816, 15.8645, 23.0564, 38.2544, -28.6215, -29.9142
3.076, 4, 17.8816, 15.8645, 23.0564, 38.2544, -28.6215, -29.9142
3.08, 4, 17.8816, 15.8645, 23.0564, 38.2544, -28.6215, -29.9142
3.084, 4, 17.8816, 15.8645, 23.0564, 38.2544, -28.6215, -29.9142
3.087, 4, 17.8816, 15.8645, 23.0564, 38.2544, -28.6215, -29.9142
3.092, 4, 17.8816, 15.8645, 23.0564, 38.2544, -28.6215, -29.9142
3.096, 4, 17.8816, 15.8645, 23.0564, 38.2544, -28.6215, -29.9142
3.1, 4, 17.8816, 15.8645, 23.0564, 38.2544, -28.6215, -29.9142
3.104, 4, 17.8816, 15.8645, 23.0564, 38.2544, -28.6215, -29.9142
3.107, 4, 17.8816, 15.8645, 23.0564, 38.2544, -28.6215, -29.9142
3.112, 4, 17.8816, 15.8645, 23.0564, 38.2544, -28.6215, -29.9142
3.116, 4, 17.8816, 15.8645, 23.0564, 38.2544, -28.6215, -29.9142
3.122, 4, 17.8816, 15.8645, 23.0564, 38.2544, -28.6215, -29.9142
3.124, 4, 17.8816, 15.8645, 23.0564, 38.2544, -28.6215, -29.9142
3.128, 4, 17.8816, 15.8645, 23.0564, 38.2544, -28.6215, -29.9142
3.132, 4, 17.8816, 15.8645, 23.0564, 38.2544, -28.6215, -29.9142
3.136, 4, 17.8816, 15.8645, 23.0564, 38.2544, -28.6215, -29.9142
3.14, 4, 17.8816, 15.8645, 23.0564, 38.2544, -28.6215, -29.9142
3.143, 4, 17.8816, 15.8645, 23.0564, 38.2544, -28.6215, -29.9142
3.148, 4, 17.8816, 15.8646, 23.0564, 38.2544, -28.6215, -29.9142
3.152, 4, 17.8815, 15.8646, 23.0564, 38.2544, -28.6215, -29.9142
3.156, 4, 17.8813, 15.8647, 23.0563, 38.2543, -28.6215, -29.9142
3.16, 4, 17.8808, 15.8651, 23.0563, 38.2543, -28.6215, -29.9142
3.163, 4, 17.8799, 15.8658, 23.0561, 38.2541, -28.6216, -29.914
3.168, 4, 17.8784, 15.867, 23.0557, 38.2537, -28.6217, -29.9137
3.172, 4, 17.8763, 15.869, 23.0552, 38.2529, -28.622, -29.913
3.176, 4, 17.8734, 15.8718, 23.0543, 38.2514, -28.6225, -29.9118
3.179, 4, 17.8697, 15.8758, 23.053, 38.2487, -28.6234, -29.9096
3.184, 4, 17.8651, 15.8812, 23.0512, 38.2445, -28.6248, -29.906
3.188, 5, 17.8594, 15.8885, 23.0486, 38.2381, -28.6269, -29.9006
3.192, 5, 17.8526, 15.8978, 23.0452, 38.2288, -28.6299, -29.8927
3.196, 5, 17.8445, 15.9094, 23.0407, 38.2157, -28.6342, -29.8817
3.199, 5, 17.8347, 15.9237, 23.0348, 38.198, -28.6401, -29.8667
3.204, 5, 17.8233, 15.9405, 23.0274, 38.1745, -28.6478, -29.8468
3.208, 5, 17.8102, 15.9598, 23.0182, 38.1443, -28.6577, -29.8211
3.212, 5, 17.7955, 15.9816, 23.0071, 38.1062, -28.6703, -29.7887
3.216, 5, 17.7792, 16.0059, 22.9939, 38.0593, -28.6857, -29.7488
3.22, 5, 17.7612, 16.0327, 22.9784, 38.0026, -28.7045, -29.7006
3.224, 5, 17.7416, 16.0622, 22.9605, 37.9355, -28.7267, -29.6435
3.228, 5, 17.7202, 16.0947, 22.9401, 37.8576, -28.7525, -29.5771
3.232, 5, 17.697, 16.1301, 22.9171, 37.7685, -28.7821, -29.5013
3.235, 5, 17.6719, 16.1686, 22.8916, 37.6683, -28.8155, -29.416
3.24, 5, 17.6449, 16.21, 22.8635, 37.5572, -28.8526, -29.3215
3.244, 5, 17.6162, 16.2541, 22.8329, 37.4357, -28.8934, -29.218
3.248, 5, 17.5857, 16.3008, 22.8, 37.3043, -28.9376, -29.1063
3.252, 5, 17.5535, 16.3499, 22.7651, 37.164, -28.9849, -28.9869
3.255, 5, 17.5196, 16.4015, 22.7281, 37.0156, -29.0352, -28.8608
3.26, 5, 17.484, 16.4557, 22.6894, 36.8602, -29.0881, -28.7287
3.264, 5, 17.4466, 16.5124, 22.649, 36.6988, -29.1432, -28.5918
3.268, 5, 17.4074, 16.5718, 22.6073, 36.5327, -29.2002, -28.4507
3.272, 5, 17.3666, 16.6336, 22.5645, 36.3626, -29.2589, -28.3065
3.276, 5, 17.3243, 16.6976, 22.5207, 36.1894, -29.3189, -28.1597
3.28, 5, 17.2806, 16.7634, 22.4762, 36.014, -29.3799, -28.0111
3.284, 5, 17.2359, 16.8307, 22.4311, 35.8369, -29.4419, -27.8613
3.288, 5, 17.1901, 16.8991, 22.3856, 35.6587, -29.5046, -27.7105
3.291, 5, 17.1435, 16.9684, 22.3398, 35.4798, -29.5678, -27.5593
3.296, 5, 17.0961, 17.0385, 22.2938, 35.3005, -29.6316, -27.4079
3.3, 5, 17.0481, 17.109, 22.2476, 35.1212, -29.6957, -27.2565
3.304, 5, 16.9995, 17.18, 22.2014, 34.9419, -29.7601, -27.1052
3.308, 5, 16.9505, 17.2511, 22.1552, 34.7628, -29.8248, -26.9543
3.312, 5, 16.9012, 17.3224, 22.109, 34.5841, -29.8897, -26.8037
3.316, 5, 16.8517, 17.3936, 22.0629, 34.4057, -29.9549, -26.6536
3.32, 5, 16.8019, 17.4649, 22.0169, 34.2278, -30.0202, -26.5039
3.324, 5, 16.7519, 17.5361, 21.971, 34.0503, -30.0858, -26.3547
3.328, 5, 16.7018, 17.6071, 21.9252, 33.8733, -30.1515, -26.206
3.332, 5, 16.6516, 17.6781, 21.8795, 33.6967, -30.2175, -26.0577
3.336, 5, 16.6012, 17.749, 21.834, 33.5206, -30.2836, -25.91
3.34, 5, 16.5507, 17.8197, 21.7886, 33.3451, -30.3499, -25.7628
3.344, 5, 16.5001, 17.8903, 21.7432, 33.17, -30.4164, -25.6161
3.347, 5, 16.4494, 17.9607, 21.6981, 32.9954, -30.483, -25.4699
3.352, 5, 16.3985, 18.0311, 21.653, 32.8213, -30.5499, -25.3242
3.356, 5, 16.3476, 18.1012, 21.6081, 32.6477, -30.6169, -25.179
3.36, 5, 16.2965, 18.1713, 21.5633, 32.4746, -30.684, -25.0344
3.364, 5, 16.2453, 18.2412, 21.5187, 32.3019, -30.7514, -24.8902
3.368, 5, 16.1941, 18.3109, 21.4742, 32.1298, -30.819, -24.7466
3.372, 5, 16.1427, 18.3805, 21.4298, 31.9582, -30.8867, -24.6034
3.376, 5, 16.0912, 18.4499, 21.3856, 31.787, -30.9546, -24.4608
3.38, 5, 16.0396, 18.5193, 21.3415, 31.6164, -31.0226, -24.3187
3.383, 5, 15.9879, 18.5884, 21.2976, 31.4462, -31.0909, -24.177
3.388, 5, 15.9361, 18.6574, 21.2537, 31.2765, -31.1593, -24.0359
3.392, 5, 15.8842, 18.7263, 21.2101, 31.1073, -31.2279, -23.8952
3.396, 5, 15.8322, 18.795, 21.1665, 30.9386, -31.2967, -23.7551
3.4, 5, 15.7801, 18.8636, 21.1231, 30.7704, -31.3656, -23.6154
3.403, 5, 15.7279, 18.932, 21.0799, 30.6026, -31.4347, -23.4763
3.408, 5, 15.6756, 19.0003, 21.0368, 30.4353, -31.504, -23.3376
3.412, 5, 15.6232, 19.0684, 20.9938, 30.2686, -31.5735, -23.1994
3.416, 5, 15.5707, 19.1364, 20.951, 30.1022, -31.6431, -23.0618
3.42, 5, 15.5181, 19.2042, 20.9084, 29.9364, -31.713, -22.9245
3.424, 5, 15.4654, 19.2719, 20.8658, 29.771, -31.783, -22.7878
3.428, 5, 15.4126, 19.3395, 20.8235, 29.6061, -31.8531, -22.6516
3.432, 5, 15.3598, 19.4069, 20.7812, 29.4417, -31.9235, -22.5158
3.436, 5, 15.3068, 19.4741, 20.7391, 29.2778, -31.994, -22.3805
3.439, 5, 15.2537, 19.5412, 20.6972, 29.1143, -32.0647, -22.2457
3.444, 5, 15.2005, 19.6082, 20.6554, 28.9513, -32.1356, -22.1114
3.448, 5, 15.1473, 19.675, 20.6138, 28.7887, -32.2066, -21.9776
3.452, 5, 15.0939, 19.7416, 20.5723, 28.6267, -32.2778, -21.8442
3.456, 5, 15.0404, 19.8081, 20.5309, 28.4651, -32.3492, -21.7113
3.46, 5, 14.9869, 19.8745, 20.4897, 28.3039, -32.4208, -21.5788
3.464, 5, 14.9333, 19.9407, 20.4487, 28.1432, -32.4925, -21.4468
3.468, 5, 14.8795, 20.0068, 20.4078, 27.983, -32.5644, -21.3153
3.472, 5, 14.8257, 20.0727, 20.3671, 27.8232, -32.6365, -21.1843
3.476, 5, 14.7718, 20.1385, 20.3265, 27.6639, -32.7087, -21.0537
3.48, 5, 14.7178, 20.2041, 20.286, 27.5051, -32.7812, -20.9236
3.484, 5, 14.6637, 20.2696, 20.2457, 27.3467, -32.8537, -20.7939
3.488, 5, 14.6095, 20.3349, 20.2056, 27.1887, -32.9265, -20.6647
3.492, 5, 14.5552, 20.4001, 20.1656, 27.0312, -32.9995, -20.5359
3.495, 5, 14.5009, 20.4651, 20.1258, 26.8742, -33.0726, -20.4076
3.5, 5, 14.4464, 20.53, 20.0861, 26.7176, -33.1458, -20.2798
3.504, 5, 14.3919, 20.5947, 20.0466, 26.5614, -33.2193, -20.1524
3.508, 5, 14.3372, 20.6593, 20.0072, 26.4057, -33.2929, -20.0254
3.512, 5, 14.2825, 20.7238, 19.968, 26.2505, -33.3667, -19.8989
3.516, 5, 14.2277, 20.7881, 19.9289, 26.0957, -33.4407, -19.7729
3.52, 5, 14.1728, 20.8522, 19.89, 25.9413, -33.5148, -19.6473
3.524, 5, 14.1179, 20.9162, 19.8513, 25.7874, -33.5891, -19.5221
3.528, 5, 14.0628, 20.9801, 19.8127, 25.6339, -33.6636, -19.3974
3.531, 5, 14.0077, 21.0438, 19.7742, 25.4808, -33.7382, -19.2731
3.536, 5, 13.9524, 21.1073, 19.7359, 25.3282, -33.813, -19.1492
3.54, 5, 13.8971, 21.1708, 19.6978, 25.1761, -33.888, -19.0258
3.544, 5, 13.8417, 21.234, 19.6598, 25.0243, -33.9632, -18.9028
3.548, 5, 13.7862, 21.2971, 19.622, 24.873, -34.0385, -18.7802
3.552, 5, 13.7307, 21.3601, 19.5844, 24.7221, -34.114, -18.6581
3.556, 5, 13.675, 21.4229, 19.5469, 24.5717, -34.1897, -18.5364
3.56, 5, 13.6193, 21.4856, 19.5096, 24.4217, -34.2655, -18.4152
3.564, 5, 13.5635, 21.5482, 19.4724, 24.2721, -34.3416, -18.2943
3.568, 5, 13.5076, 21.6105, 19.4354, 24.1229, -34.4178, -18.1739
3.572, 5, 13.4516, 21.6728, 19.3985, 23.9742, -34.4941, -18.0539
3.576, 5, 13.3956, 21.7349, 19.3618, 23.8259, -34.5706, -17.9343
3.58, 5, 13.3395, 21.7968, 19.3253, 23.678, -34.6473, -17.8152
3.584, 5, 13.2833, 21.8586, 19.289, 23.5305, -34.7242, -17.6965
3.587, 5, 13.227, 21.9203, 19.2528, 23.3835, -34.8013, -17.5782
3.592, 5, 13.1706, 21.9818, 19.2168, 23.2368, -34.8785, -17.4603
3.596, 5, 13.1142, 22.0431, 19.1809, 23.0906, -34.9559, -17.3428
3.6, 5, 13.0577, 22.1043, 19.1452, 22.9449, -35.0334, -17.2257
3.604, 5, 13.0011, 22.1654, 19.1097, 22.7995, -35.1112, -17.1091
3.608, 5, 12.9444, 22.2263, 19.0743, 22.6546, -35.1891, -16.9929
3.612, 5, 12.8876, 22.287, 19.0391, 22.51, -35.2672, -16.877
3.616, 5, 12.8308, 22.3476, 19.0041, 22.3659, -35.3454, -16.7616
3.62, 5, 12.7739, 22.4081, 18.9693, 22.2222, -35.4238, -16.6466
3.624, 5, 12.717, 22.4684, 18.9346, 22.0789, -35.5024, -16.532
3.628, 5, 12.6599, 22.5286, 18.9001, 21.9361, -35.5812, -16.4178
3.632, 5, 12.6028, 22.5886, 18.8658, 21.7936, -35.6601, -16.304
3.636, 5, 12.5456, 22.6484, 18.8316, 21.6516, -35.7392, -16.1906
3.64, 5, 12.4884, 22.7082, 18.7976, 21.5099, -35.8185, -16.0776
3.644, 5, 12.431, 22.7677, 18.7638, 21.3687, -35.8979, -15.9651
3.648, 5, 12.3736, 22.8271, 18.7302, 21.2278, -35.9776, -15.8529
3.652, 5, 12.3161, 22.8864, 18.6967, 21.0874, -36.0574, -15.7411
3.656, 5, 12.2586, 22.9455, 18.6634, 20.9474, -36.1373, -15.6297
3.66, 5, 12.201, 23.0045, 18.6303, 20.8078, -36.2174, -15.5187
3.664, 5, 12.1433, 23.0633, 18.5974, 20.6686, -36.2977, -15.4081
3.668, 5, 12.0856, 23.122, 18.5646, 20.5298, -36.3782, -15.2979
3.672, 5, 12.0277, 23.1805, 18.532, 20.3914, -36.4588, -15.1881
3.676, 5, 11.9698, 23.2389, 18.4996, 20.2534, -36.5397, -15.0786
3.679, 5, 11.9119, 23.2971, 18.4673, 20.1158, -36.6206, -14.9696
3.684, 5, 11.8539, 23.3552, 18.4353, 19.9786, -36.7018, -14.861
3.688, 5, 11.7958, 23.4131, 18.4034, 19.8418, -36.7831, -14.7527
3.692, 5, 11.7376, 23.4709, 18.3717, 19.7053, -36.8646, -14.6448
3.696, 5, 11.6794, 23.5285, 18.3402, 19.5693, -36.9463, -14.5373
3.7, 5, 11.6211, 23.586, 18.3088, 19.4337, -37.0281, -14.4302
3.704, 5, 11.5628, 23.6433, 18.2777, 19.2985, -37.1101, -14.3235
3.708, 5, 11.5043, 23.7005, 18.2467, 19.1636, -37.1923, -14.2171
3.712, 5, 11.4459, 23.7575, 18.2159, 19.0292, -37.2746, -14.1112
3.716, 5, 11.3873, 23.8144, 18.1853, 18.8951, -37.3571, -14.0056
3.72, 5, 11.3287, 23.8711, 18.1548, 18.7615, -37.4398, -13.9004
3.724, 5, 11.27, 23.9277, 18.1245, 18.6282, -37.5226, -13.7955
3.728, 5, 11.2113, 23.9841, 18.0945, 18.4953, -37.6056, -13.6911
3.732, 5, 11.1525, 24.0404, 18.0646, 18.3628, -37.6888, -13.587
3.735, 5, 11.0936, 24.0965, 18.0348, 18.2307, -37.7722, -13.4833
3.74, 5, 11.0347, 24.1525, 18.0053, 18.0989, -37.8557, -13.3799
3.744, 5, 10.9757, 24.2083, 17.9759, 17.9676, -37.9394, -13.277
3.748, 5, 10.9167, 24.264, 17.9468, 17.8366, -38.0232, -13.1744
3.752, 5, 10.8576, 24.3195, 17.9178, 17.706, -38.1072, -13.0721
3.756, 5, 10.7984, 24.3749, 17.889, 17.5758, -38.1914, -12.9703
3.76, 5, 10.7392, 24.4302, 17.8604, 17.446, -38.2758, -12.8688
3.764, 5, 10.6799, 24.4853, 17.8319, 17.3165, -38.3603, -12.7676
3.768, 5, 10.6206, 24.5402, 17.8037, 17.1874, -38.445, -12.6668
3.772, 5, 10.5612, 24.595, 17.7756, 17.0587, -38.5298, -12.5664
3.776, 5, 10.5017, 24.6496, 17.7477, 16.9304, -38.6148, -12.4664
3.78, 5, 10.4422, 24.7041, 17.72, 16.8025, -38.7, -12.3667
3.784, 5, 10.3826, 24.7585, 17.6925, 16.6749, -38.7854, -12.2674
3.788, 5, 10.323, 24.8127, 17.6651, 16.5477, -38.8709, -12.1684
3.792, 5, 10.2633, 24.8667, 17.638, 16.4209, -38.9566, -12.0698
3.796, 5, 10.2035, 24.9206, 17.611, 16.2944, -39.0425, -11.9715
3.8, 5, 10.1437, 24.9744, 17.5843, 16.1683, -39.1285, -11.8736
3.804, 5, 10.0838, 25.028, 17.5577, 16.0426, -39.2147, -11.776
3.808, 5, 10.0239, 25.0815, 17.5313, 15.9173, -39.3011, -11.6788
3.812, 5, 9.96395, 25.1348, 17.5051, 15.7923, -39.3876, -11.582
3.816, 5, 9.90392, 25.1879, 17.479, 15.6676, -39.4743, -11.4855
3.82, 5, 9.84384, 25.241, 17.4532, 15.5434, -39.5612, -11.3893
3.824, 5, 9.7837, 25.2938, 17.4276, 15.4195, -39.6482, -11.2935
3.828, 5, 9.72351, 25.3465, 17.4021, 15.296, -39.7354, -11.198
3.832, 5, 9.66327, 25.3991, 17.3769, 15.1728, -39.8228, -11.1029
3.836, 5, 9.60297, 25.4515, 17.3518, 15.05, -39.9103, -11.0081
3.84, 5, 9.54262, 25.5038, 17.3269, 14.9275, -39.998, -10.9137
3.844, 5, 9.48222, 25.5559, 17.3022, 14.8054, -40.0859, -10.8196
3.848, 5, 9.42176, 25.6079, 17.2777, 14.6837, -40.174, -10.7259
3.852, 5, 9.36126, 25.6597, 17.2534, 14.5623, -40.2622, -10.6325
3.856, 5, 9.3007, 25.7114, 17.2293, 14.4413, -40.3506, -10.5394
3.86, 5, 9.24009, 25.763, 17.2054, 14.3206, -40.4391, -10.4466
3.864, 5, 9.17943, 25.8143, 17.1816, 14.2003, -40.5278, -10.3542
3.868, 5, 9.11873, 25.8656, 17.1581, 14.0804, -40.6167, -10.2622
3.872, 5, 9.05797, 25.9167, 17.1348, 13.9608, -40.7058, -10.1704
3.876, 5, 8.99717, 25.9676, 17.1116, 13.8415, -40.795, -10.079
3.88, 5, 8.93631, 26.0184, 17.0887, 13.7226, -40.8844, -9.98797
3.884, 5, 8.87541, 26.0691, 17.0659, 13.604, -40.9739, -9.89723
3.888, 5, 8.81446, 26.1196, 17.0434, 13.4858, -41.0636, -9.80682
3.892, 5, 8.75347, 26.1699, 17.021, 13.3679, -41.1535, -9.71673
3.896, 5, 8.69242, 26.2201, 16.9988, 13.2504, -41.2436, -9.62698
3.9, 5, 8.63134, 26.2702, 16.9769, 13.1332, -41.3338, -9.53755
3.904, 5, 8.57021, 26.3201, 16.9551, 13.0164, -41.4242, -9.44844
3.908, 5, 8.50903, 26.3699, 16.9335, 12.8999, -41.5147, -9.35966
3.912, 5, 8.44781, 26.4195, 16.9121, 12.7837, -41.6054, -9.2712
3.916, 5, 8.38655, 26.4689, 16.8909, 12.6679, -41.6963, -9.18306
3.92, 5, 8.32524, 26.5183, 16.87, 12.5525, -41.7873, -9.09525
3.924, 5, 8.26389, 26.5674, 16.8492, 12.4373, -41.8785, -9.00775
3.928, 5, 8.20249, 26.6165, 16.8286, 12.3225, -41.9699, -8.92058
3.932, 5, 8.14106, 26.6653, 16.8082, 12.2081, -42.0614, -8.83372
3.936, 5, 8.07958, 26.7141, 16.788, 12.094, -42.1531, -8.74718
3.94, 5, 8.01806, 26.7626, 16.768, 11.9802, -42.245, -8.66095
3.944, 5, 7.9565, 26.8111, 16.7482, 11.8667, -42.337, -8.57504
3.948, 5, 7.8949, 26.8594, 16.7286, 11.7536, -42.4292, -8.48945
3.952, 5, 7.83325, 26.9075, 16.7093, 11.6408, -42.5215, -8.40416
3.956, 5, 7.77157, 26.9555, 16.6901, 11.5284, -42.614, -8.31919
3.96, 5, 7.70985, 27.0033, 16.6711, 11.4163, -42.7067, -8.23454
3.964, 5, 7.64808, 27.051, 16.6523, 11.3045, -42.7996, -8.15019
3.968, 5, 7.58628, 27.0986, 16.6337, 11.193, -42.8926, -8.06615
3.972, 5, 7.52444, 27.146, 16.6154, 11.0819, -42.9857, -7.98242
3.976, 5, 7.46256, 27.1933, 16.5972, 10.9711, -43.0791, -7.899
3.98, 5, 7.40064, 27.2404, 16.5792, 10.8606, -43.1725, -7.81589
3.984, 5, 7.33869, 27.2873, 16.5614, 10.7505, -43.2662, -7.73309
3.988, 5, 7.2767, 27.3341, 16.5439, 10.6407, -43.36, -7.65059
3.992, 5, 7.21467, 27.3808, 16.5265, 10.5312, -43.454, -7.56839
3.996, 5, 7.1526, 27.4273, 16.5093, 10.422, -43.5481, -7.4865
3.999, 5, 7.0905, 27.4737, 16.4924, 10.3132, -43.6424, -7.40491
4.004, 5, 7.02836, 27.5199, 16.4756, 10.2047, -43.7369, -7.32362
4.008, 5, 6.96619, 27.566, 16.4591, 10.0965, -43.8315, -7.24264
4.012, 5, 6.90398, 27.6119, 16.4427, 9.98861, -43.9263, -7.16196
4.016, 5, 6.84173, 27.6577, 16.4266, 9.88107, -44.0213, -7.08157
4.02, 5, 6.77946, 27.7034, 16.4107, 9.77384, -44.1164, -7.00149
4.024, 5, 6.71714, 27.7489, 16.3949, 9.66693, -44.2116, -6.9217
4.028, 5, 6.6548, 27.7942, 16.3794, 9.56034, -44.3071, -6.84222
4.032, 5, 6.59241, 27.8394, 16.3641, 9.45407, -44.4027, -6.76302
4.036, 5, 6.53, 27.8845, 16.349, 9.34812, -44.4984, -6.68413
4.04, 5, 6.46755, 27.9294, 16.3341, 9.24248, -44.5943, -6.60553
4.044, 5, 6.40508, 27.9741, 16.3194, 9.13716, -44.6904, -6.52722
4.048, 5, 6.34256, 28.0188, 16.3049, 9.03216, -44.7866, -6.44921
4.052, 5, 6.28002, 28.0632, 16.2906, 8.92747, -44.883, -6.3715
4.056, 5, 6.21744, 28.1075, 16.2765, 8.8231, -44.9796, -6.29407
4.06, 5, 6.15484, 28.1517, 16.2627, 8.71904, -45.0763, -6.21694
4.064, 5, 6.0922, 28.1957, 16.249, 8.6153, -45.1732, -6.14009
4.068, 5, 6.02953, 28.2396, 16.2355, 8.51187, -45.2702, -6.06354
4.072, 5, 5.96683, 28.2834, 16.2223, 8.40875, -45.3674, -5.98728
4.076, 5, 5.90409, 28.327, 16.2093, 8.30594, -45.4648, -5.9113
4.08, 5, 5.84133, 28.3704, 16.1964, 8.20344, -45.5623, -5.83562
4.084, 5, 5.77854, 28.4137, 16.1838, 8.10125, -45.6599, -5.76022
4.088, 5, 5.71572, 28.4568, 16.1714, 7.99938, -45.7578, -5.68511
4.092, 5, 5.65287, 28.4999, 16.1592, 7.8978, -45.8558, -5.61028
4.096, 5, 5.58999, 28.5427, 16.1472, 7.79654, -45.9539, -5.53574
4.1, 5, 5.52709, 28.5854, 16.1354, 7.69558, -46.0522, -5.46148
4.104, 5, 5.46415, 28.628, 16.1239, 7.59493, -46.1507, -5.3875
4.108, 5, 5.40119, 28.6704, 16.1125, 7.49458, -46.2493, -5.31381
4.112, 5, 5.33821, 28.7127, 16.1014, 7.39454, -46.3481, -5.24039
4.116, 5, 5.27519, 28.7548, 16.0904, 7.29479, -46.4471, -5.16726
4.12, 5, 5.21215, 28.7968, 16.0797, 7.19535, -46.5462, -5.0944
4.124, 5, 5.14909, 28.8387, 16.0692, 7.09621, -46.6455, -5.02182
4.128, 5, 5.086, 28.8804, 16.0589, 6.99736, -46.7449, -4.94952
4.132, 5, 5.02288, 28.9219, 16.0488, 6.89882, -46.8445, -4.87749
4.136, 5, 4.95974, 28.9633, 16.0389, 6.80057, -46.9442, -4.80574
4.14, 5, 4.89657, 29.0046, 16.0292, 6.70261, -47.0442, -4.73426
4.144, 5, 4.83337, 29.0457, 16.0198, 6.60495, -47.1442, -4.66305
4.148, 5, 4.77016, 29.0867, 16.0105, 6.50759, -47.2444, -4.59212
4.152, 5, 4.70692, 29.1275, 16.0015, 6.41052, -47.3448, -4.52145
4.156, 5, 4.64365, 29.1682, 15.9927, 6.31374, -47.4454, -4.45106
4.16, 5, 4.58036, 29.2087, 15.9841, 6.21725, -47.5461, -4.38093
4.164, 5, 4.51705, 29.2491, 15.9757, 6.12106, -47.6469, -4.31108
4.168, 5, 4.45372, 29.2894, 15.9675, 6.02515, -47.7479, -4.24149
4.172, 5, 4.39036, 29.3295, 15.9595, 5.92953, -47.8491, -4.17216
4.176, 5, 4.32698, 29.3695, 15.9518, 5.8342, -47.9504, -4.1031
4.18, 5, 4.26358, 29.4093, 15.9442, 5.73915, -48.0519, -4.03431
4.184, 5, 4.20016, 29.449, 15.9369, 5.64439, -48.1536, -3.96578
4.188, 5, 4.13672, 29.4885, 15.9298, 5.54992, -48.2554, -3.89752
4.192, 5, 4.07326, 29.5279, 15.9229, 5.45573, -48.3573, -3.82951
4.196, 5, 4.00978, 29.5672, 15.9162, 5.36182, -48.4594, -3.76177
4.2, 5, 3.94628, 29.6063, 15.9097, 5.2682, -48.5617, -3.69429
4.204, 5, 3.88276, 29.6453, 15.9034, 5.17486, -48.6641, -3.62707
4.208, 5, 3.81922, 29.6841, 15.8974, 5.0818, -48.7667, -3.5601
4.212, 5, 3.75567, 29.7228, 15.8916, 4.98902, -48.8694, -3.4934
4.216, 5, 3.69209, 29.7613, 15.8859, 4.89652, -48.9723, -3.42695
4.22, 5, 3.6285, 29.7997, 15.8805, 4.8043, -49.0753, -3.36076
4.224, 5, 3.56489, 29.838, 15.8753, 4.71235, -49.1785, -3.29483
4.228, 5, 3.50126, 29.8761, 15.8703, 4.62069, -49.2818, -3.22915
4.232, 5, 3.43762, 29.9141, 15.8656, 4.5293, -49.3853, -3.16373
4.236, 5, 3.37396, 29.9519, 15.861, 4.43819, -49.4889, -3.09856
4.24, 5, 3.31029, 29.9896, 15.8567, 4.34735, -49.5927, -3.03365
4.244, 5, 3.2466, 30.0272, 15.8526, 4.25679, -49.6967, -2.96899
4.248, 5, 3.18289, 30.0646, 15.8487, 4.1665, -49.8008, -2.90458
4.252, 5, 3.11918, 30.1019, 15.845, 4.07648, -49.905, -2.84042
4.256, 5, 3.05544, 30.139, 15.8415, 3.98674, -50.0095, -2.77651
4.26, 5, 2.99169, 30.176, 15.8383, 3.89727, -50.114, -2.71285
4.264, 5, 2.92793, 30.2128, 15.8352, 3.80807, -50.2187, -2.64944
4.268, 5, 2.86416, 30.2495, 15.8324, 3.71914, -50.3236, -2.58629
4.272, 5, 2.80037, 30.2861, 15.8298, 3.63048, -50.4286, -2.52338
4.276, 5, 2.73657, 30.3225, 15.8274, 3.54209, -50.5337, -2.46071
4.28, 5, 2.67276, 30.3588, 15.8252, 3.45398, -50.6391, -2.3983
4.284, 5, 2.60893, 30.395, 15.8232, 3.36612, -50.7445, -2.33613
4.288, 5, 2.54509, 30.431, 15.8215, 3.27854, -50.8501, -2.27421
4.292, 5, 2.48124, 30.4668, 15.82, 3.19122, -50.9559, -2.21253
4.296, 5, 2.41738, 30.5025, 15.8187, 3.10417, -51.0618, -2.1511
4.3, 5, 2.35351, 30.5381, 15.8176, 3.01739, -51.1679, -2.08991
4.304, 5, 2.28963, 30.5736, 15.8167, 2.93087, -51.2741, -2.02897
4.308, 5, 2.22574, 30.6089, 15.816, 2.84462, -51.3805, -1.96826
4.312, 5, 2.16184, 30.644, 15.8156, 2.75863, -51.487, -1.90781
4.316, 5, 2.09793, 30.679, 15.8154, 2.67291, -51.5936, -1.84759
4.32, 5, 2.03401, 30.7139, 15.8154, 2.58744, -51.7004, -1.78762
4.324, 5, 1.97008, 30.7486, 15.8156, 2.50225, -51.8074, -1.72788
4.328, 5, 1.90614, 30.7832, 15.816, 2.41731, -51.9145, -1.66839
4.332, 5, 1.8422, 30.8177, 15.8167, 2.33263, -52.0218, -1.60914
4.336, 5, 1.77825, 30.852, 15.8176, 2.24822, -52.1292, -1.55012
4.34, 5, 1.71429, 30.8862, 15.8187, 2.16406, -52.2368, -1.49135
4.344, 5, 1.65032, 30.9202, 15.82, 2.08017, -52.3445, -1.43281
4.348, 5, 1.58634, 30.9541, 15.8215, 1.99653, -52.4523, -1.37451
4.352, 5, 1.52236, 30.9879, 15.8233, 1.91315, -52.5603, -1.31645
4.356, 5, 1.45837, 31.0215, 15.8252, 1.83002, -52.6685, -1.25862
4.36, 5, 1.39438, 31.055, 15.8274, 1.74715, -52.7768, -1.20102
4.364, 5, 1.33039, 31.0883, 15.8299, 1.66454, -52.8852, -1.14366
4.368, 5, 1.26646, 31.1215, 15.8325, 1.58218, -52.9938, -1.08654
4.372, 5, 1.20271, 31.1545, 15.8354, 1.50007, -53.1026, -1.02964
4.376, 5, 1.13937, 31.1873, 15.8385, 1.41822, -53.2115, -0.972993
4.38, 5, 1.07665, 31.2197, 15.8419, 1.33667, -53.3204, -0.9166
4.384, 5, 1.01475, 31.2516, 15.8456, 1.25544, -53.4294, -0.860498
4.388, 5, 0.953814, 31.283, 15.8495, 1.17463, -53.5383, -0.804744
4.392, 5, 0.893997, 31.3138, 15.8538, 1.09435, -53.6469, -0.749425
4.396, 5, 0.835417, 31.3438, 15.8584, 1.01479, -53.755, -0.694659
4.4, 5, 0.77817, 31.373, 15.8633, 0.936173, -53.8623, -0.640604
4.404, 5, 0.722363, 31.4013, 15.8684, 0.858783, -53.9683, -0.587452
4.408, 5, 0.668151, 31.4285, 15.8737, 0.782958, -54.0725, -0.535429
4.412, 5, 0.615703, 31.4547, 15.8791, 0.709077, -54.1744, -0.484791
4.416, 5, 0.565149, 31.4799, 15.8846, 0.637553, -54.2734, -0.435815
4.42, 5, 0.516563, 31.5039, 15.8901, 0.568815, -54.3688, -0.388785
4.424, 5, 0.469981, 31.5268, 15.8954, 0.503285, -54.4601, -0.343983
4.428, 5, 0.425444, 31.5487, 15.9005, 0.441357, -54.5466, -0.30167
4.432, 5, 0.383037, 31.5695, 15.9052, 0.383376, -54.6278, -0.262076
4.436, 5, 0.342879, 31.5892, 15.9096, 0.329627, -54.7033, -0.225386
4.44, 5, 0.305073, 31.6076, 15.9136, 0.28032, -54.7727, -0.19174
4.444, 5, 0.269669, 31.6249, 15.9171, 0.235588, -54.8359, -0.161222
4.448, 5, 0.236666, 31.6411, 15.9202, 0.195484, -54.8926, -0.133863
4.452, 5, 0.206039, 31.6561, 15.9227, 0.159973, -54.9429, -0.109635
4.456, 5, 0.177757, 31.6699, 15.9247, 0.128937, -54.987, -0.0884535
4.46, 5, 0.151809, 31.6826, 15.9263, 0.102174, -55.0251, -0.0701795
4.464, 5, 0.128226, 31.6942, 15.9274, 0.0794096, -55.0575, -0.0546259
4.468, 5, 0.107068, 31.7046, 15.9282, 0.0603139, -55.0848, -0.0415688
4.472, 5, 0.0883703, 31.7138, 15.9287, 0.0445212, -55.1074, -0.0307608
4.476, 5, 0.0720885, 31.7219, 15.9289, 0.031653, -55.1258, -0.0219458
4.48, 5, 0.0580591, 31.7288, 15.929, 0.0213353, -55.1406, -0.0148699
4.484, 5, 0.0460095, 31.7346, 15.9289, 0.0132099, -55.1523, -0.00928944
4.49, 5, 0.0266657, 31.7438, 15.9285, 0.00220444, -55.1681, -0.00170748
4.492, 5, 0.0266657, 31.7438, 15.9285, 0.00220444, -55.1681, -0.00170748
4.496, 5, 0.01897, 31.7472, 15.9282, -0.00128666, -55.1731, 0.00070911
4.5, 5, 0.0124649, 31.7501, 15.9279, -0.00380124, -55.1768, 0.00245645
4.504, 5, 0.00709968, 31.7523, 15.9276, -0.00557323, -55.1793, 0.00369294
4.508, 5, 0.00283011, 31.754, 15.9274, -0.0067995, -55.1811, 0.00455209
4.512, 5, -0.000410331, 31.7553, 15.9272, -0.00763763, -55.1823, 0.00514116
4.516, 5, -0.0027582, 31.7562, 15.927, -0.0082068, -55.1831, 0.00554198
4.52, 5, -0.00445138, 31.7568, 15.9269, -0.00859259, -55.1837, 0.00581432
4.524, 5, -0.00580742, 31.7573, 15.9269, -0.00885581, -55.1841, 0.00600174
4.528, 5, -0.00715803, 31.7576, 15.9269, -0.0090443, -55.1844, 0.00613941
4.532, 5, -0.00878733, 31.7579, 15.9269, -0.00920619, -55.1847, 0.00626266
4.536, 5, -0.0109087, 31.7581, 15.9271, -0.00940251, -55.1851, 0.00641509
4.54, 5, -0.0136768, 31.7583, 15.9275, -0.00971733, -55.1857, 0.00665532
4.544, 5, -0.0172048, 31.7585, 15.9283, -0.0102649, -55.1869, 0.00706193
4.548, 5, -0.021584, 31.7587, 15.9295, -0.0111944, -55.1889, 0.00773682
4.552, 5, -0.0269192, 31.7588, 15.9314, -0.0126931, -55.1921, 0.00880746
4.556, 6, -0.0333699, 31.7589, 15.9343, -0.0149888, -55.197, 0.0104283
4.56, 6, -0.0411661, 31.7588, 15.9385, -0.0183502, -55.2041, 0.0127815
4.564, 6, -0.0505806, 31.7585, 15.9443, -0.0230886, -55.2141, 0.0160772
4.568, 6, -0.0618571, 31.758, 15.9522, -0.029557, -55.2277, 0.0205524
4.572, 6, -0.0751287, 31.757, 15.9625, -0.0381452, -55.2457, 0.026466
4.576, 6, -0.0903989, 31.7556, 15.9758, -0.049264, -55.269, 0.034088
4.58, 6, -0.107606, 31.7536, 15.9924, -0.0633193, -55.2985, 0.0436832
4.584, 6, -0.126708, 31.7508, 16.0129, -0.0806819, -55.3349, 0.0554928
4.588, 6, -0.147712, 31.7472, 16.0375, -0.101661, -55.3789, 0.069717
4.592, 6, -0.170667, 31.7427, 16.0666, -0.126487, -55.431, 0.0865034
4.596, 6, -0.195654, 31.7372, 16.1003, -0.155299, -55.4916, 0.105939
4.6, 6, -0.222768, 31.7308, 16.1387, -0.188142, -55.5607, 0.128049
4.604, 6, -0.252074, 31.7234, 16.1818, -0.224972, -55.6385, 0.152797
4.608, 6, -0.28357, 31.7152, 16.2295, -0.265661, -55.7246, 0.180091
4.612, 6, -0.317175, 31.7061, 16.2816, -0.310001, -55.8186, 0.209784
4.616, 6, -0.352777, 31.6961, 16.3378, -0.357716, -55.9201, 0.241683
4.62, 6, -0.390304, 31.6855, 16.3978, -0.408462, -56.0285, 0.275555
4.624, 6, -0.42975, 31.6743, 16.4612, -0.461851, -56.1429, 0.311135
4.628, 6, -0.471127, 31.6625, 16.5275, -0.517467, -56.2626, 0.348144
4.632, 6, -0.514392, 31.6504, 16.5964, -0.574898, -56.3867, 0.386304
4.636, 6, -0.559417, 31.638, 16.6674, -0.633755, -56.5144, 0.425352
4.64, 6, -0.606019, 31.6253, 16.7401, -0.69369, -56.6452, 0.465053
4.644, 6, -0.653991, 31.6125, 16.8143, -0.754405, -56.7783, 0.505204
4.648, 6, -0.703123, 31.5996, 16.8895, -0.815651, -56.9132, 0.545636
4.652, 6, -0.753221, 31.5865, 16.9657, -0.877229, -57.0496, 0.58621
4.656, 6, -0.804134, 31.5734, 17.0426, -0.938979, -57.187, 0.626819
4.66, 6, -0.855765, 31.5602, 17.1201, -1.00078, -57.3253, 0.667374
4.664, 6, -0.908042, 31.5469, 17.198, -1.06252, -57.4643, 0.707812
4.668, 6, -0.96088, 31.5336, 17.2762, -1.12415, -57.6037, 0.748083
4.672, 6, -1.01416, 31.5202, 17.3548, -1.18561, -57.7435, 0.788151
4.676, 6, -1.06774, 31.5068, 17.4336, -1.24686, -57.8836, 0.827994
4.68, 6, -1.12152, 31.4933, 17.5126, -1.30788, -58.0239, 0.867595
4.684, 6, -1.17541, 31.4798, 17.5918, -1.36866, -58.1644, 0.906943
4.688, 6, -1.22936, 31.4662, 17.6712, -1.42918, -58.3051, 0.946033
4.692, 6, -1.28332, 31.4526, 17.7508, -1.48944, -58.446, 0.984859
4.696, 6, -1.33728, 31.4389, 17.8305, -1.54944, -58.587, 1.02342
4.7, 6, -1.3912, 31.4251, 17.9104, -1.60918, -58.7281, 1.06171
4.704, 6, -1.44509, 31.4113, 17.9904, -1.66865, -58.8694, 1.09974
4.708, 6, -1.49893, 31.3975, 18.0706, -1.72785, -59.0107, 1.1375
4.712, 6, -1.55271, 31.3836, 18.1509, -1.78678, -59.1523, 1.17499
4.716, 6, -1.60644, 31.3696, 18.2313, -1.84544, -59.2939, 1.21221
4.72, 6, -1.66011, 31.3556, 18.3119, -1.90384, -59.4357, 1.24917
4.724, 6, -1.71371, 31.3416, 18.3927, -1.96197, -59.5775, 1.28586
4.728, 6, -1.76725, 31.3274, 18.4736, -2.01984, -59.7195, 1.32229
4.732, 6, -1.82073, 31.3133, 18.5546, -2.07745, -59.8617, 1.35845
4.736, 6, -1.87414, 31.2991, 18.6357, -2.13479, -60.0039, 1.39435
4.74, 6, -1.92748, 31.2848, 18.717, -2.19186, -60.1462, 1.42999
4.744, 6, -1.98075, 31.2705, 18.7985, -2.24868, -60.2887, 1.46537
4.748, 6, -2.03396, 31.2562, 18.88, -2.30524, -60.4313, 1.50049
4.752, 6, -2.08709, 31.2418, 18.9617, -2.36154, -60.574, 1.53535
4.756, 6, -2.14015, 31.2273, 19.0436, -2.41758, -60.7168, 1.56995
4.76, 6, -2.19315, 31.2128, 19.1255, -2.47337, -60.8597, 1.6043
4.764, 6, -2.24607, 31.1983, 19.2076, -2.52889, -61.0028, 1.63839
4.768, 6, -2.29892, 31.1837, 19.2899, -2.58417, -61.1459, 1.67222
4.772, 6, -2.3517, 31.1691, 19.3722, -2.63919, -61.2892, 1.70581
4.776, 6, -2.40441, 31.1544, 19.4547, -2.69396, -61.4325, 1.73914
4.78, 6, -2.45705, 31.1397, 19.5374, -2.74847, -61.576, 1.77221
4.784, 6, -2.50961, 31.1249, 19.6201, -2.80274, -61.7196, 1.80504
4.788, 6, -2.5621, 31.1101, 19.703, -2.85676, -61.8633, 1.83761
4.792, 6, -2.61451, 31.0953, 19.786, -2.91052, -62.0071, 1.86994
4.796, 6, -2.66685, 31.0804, 19.8692, -2.96404, -62.151, 1.90202
4.8, 6, -2.71912, 31.0655, 19.9524, -3.01732, -62.2951, 1.93385
4.804, 6, -2.7713, 31.0505, 20.0358, -3.07035, -62.4392, 1.96544
4.808, 6, -2.82341, 31.0355, 20.1193, -3.12313, -62.5834, 1.99678
4.812, 6, -2.87544, 31.0205, 20.203, -3.17568, -62.7278, 2.02788
4.816, 6, -2.9274, 31.0054, 20.2867, -3.22798, -62.8722, 2.05874
4.82, 6, -2.97927, 30.9903, 20.3706, -3.28004, -63.0168, 2.08935
4.824, 6, -3.03107, 30.9751, 20.4546, -3.33186, -63.1614, 2.11972
4.828, 6, -3.08279, 30.9599, 20.5388, -3.38344, -63.3062, 2.14985
4.832, 6, -3.13443, 30.9447, 20.623, -3.43478, -63.4511, 2.17975
4.836, 6, -3.18598, 30.9294, 20.7074, -3.48588, -63.5961, 2.2094
4.84, 6, -3.23746, 30.9141, 20.7919, -3.53675, -63.7411, 2.23882
4.844, 6, -3.28885, 30.8988, 20.8765, -3.58739, -63.8863, 2.268
4.848, 6, -3.34016, 30.8834, 20.9613, -3.63779, -64.0316, 2.29695
4.852, 6, -3.39139, 30.868, 21.0461, -3.68795, -64.177, 2.32566
4.856, 6, -3.44254, 30.8526, 21.1311, -3.73789, -64.3224, 2.35414
4.86, 6, -3.4936, 30.8371, 21.2162, -3.78759, -64.468, 2.38239
4.864, 6, -3.54458, 30.8216, 21.3014, -3.83707, -64.6137, 2.4104
4.868, 6, -3.59547, 30.8061, 21.3867, -3.88631, -64.7595, 2.43819
4.872, 6, -3.64627, 30.7905, 21.4721, -3.93533, -64.9054, 2.46574
4.876, 6, -3.697, 30.7749, 21.5577, -3.98412, -65.0513, 2.49307
4.88, 6, -3.74763, 30.7593, 21.6434, -4.03269, -65.1974, 2.52017
4.884, 6, -3.79818, 30.7436, 21.7291, -4.08103, -65.3436, 2.54704
4.888, 6, -3.84864, 30.728, 21.815, -4.12915, -65.4898, 2.57369
4.892, 6, -3.89901, 30.7123, 21.901, -4.17704, -65.6362, 2.60011
4.896, 6, -3.94929, 30.6965, 21.9871, -4.22472, -65.7826, 2.62631
4.9, 6, -3.99949, 30.6808, 22.0733, -4.27217, -65.9292, 2.65229
4.904, 6, -4.04959, 30.665, 22.1597, -4.3194, -66.0758, 2.67804
4.908, 6, -4.0996, 30.6492, 22.2461, -4.36642, -66.2226, 2.70357
4.912, 6, -4.14953, 30.6333, 22.3327, -4.41322, -66.3694, 2.72889
4.916, 6, -4.19936, 30.6174, 22.4193, -4.4598, -66.5163, 2.75398
4.92, 6, -4.2491, 30.6016, 22.5061, -4.50616, -66.6633, 2.77886
4.924, 6, -4.29874, 30.5856, 22.5929, -4.55232, -66.8104, 2.80352
4.928, 6, -4.3483, 30.5697, 22.6799, -4.59825, -66.9576, 2.82796
4.932, 6, -4.39776, 30.5537, 22.767, -4.64398, -67.1049, 2.85219
4.936, 6, -4.44712, 30.5378, 22.8542, -4.68949, -67.2523, 2.8762
4.94, 6, -4.49639, 30.5218, 22.9415, -4.73479, -67.3997, 2.9
4.944, 6, -4.54557, 30.5057, 23.0288, -4.77989, -67.5473, 2.92359
4.948, 6, -4.59465, 30.4897, 23.1163, -4.82477, -67.6949, 2.94697
4.952, 6, -4.64364, 30.4736, 23.2039, -4.86945, -67.8427, 2.97013
4.956, 6, -4.69252, 30.4575, 23.2916, -4.91392, -67.9905, 2.99309
4.96, 6, -4.74132, 30.4414, 23.3794, -4.95818, -68.1384, 3.01583
4.964, 6, -4.79001, 30.4253, 23.4673, -5.00224, -68.2864, 3.03837
4.968, 6, -4.83861, 30.4092, 23.5553, -5.0461, -68.4344, 3.06071
4.972, 6, -4.8871, 30.393, 23.6434, -5.08975, -68.5826, 3.08283
4.976, 6, -4.9355, 30.3768, 23.7316, -5.13321, -68.7308, 3.10475
4.98, 6, -4.9838, 30.3606, 23.8199, -5.17646, -68.8792, 3.12647
4.984, 6, -5.032, 30.3444, 23.9082, -5.21951, -69.0276, 3.14799
4.988, 6, -5.0801, 30.3282, 23.9967, -5.26236, -69.1761, 3.1693
4.992, 6, -5.1281, 30.312, 24.0853, -5.30502, -69.3246, 3.19041
4.996, 6, -5.176, 30.2957, 24.174, -5.34748, -69.4733, 3.21132
5, 6, -5.22379, 30.2794, 24.2627, -5.38974, -69.6221, 3.23203
5.004, 6, -5.27148, 30.2632, 24.3516, -5.43181, -69.7709, 3.25254
5.008, 6, -5.31907, 30.2469, 24.4406, -5.47368, -69.9198, 3.27285
5.012, 6, -5.36655, 30.2306, 24.5296, -5.51536, -70.0688, 3.29296
5.016, 6, -5.41393, 30.2143, 24.6188, -5.55685, -70.2179, 3.31287
5.02, 6, -5.46121, 30.1979, 24.708, -5.59814, -70.3671, 3.33259
5.024, 6, -5.50838, 30.1816, 24.7973, -5.63924, -70.5163, 3.35211
5.028, 6, -5.55544, 30.1653, 24.8867, -5.68015, -70.6656, 3.37144
5.032, 6, -5.60239, 30.1489, 24.9762, -5.72087, -70.8151, 3.39057
5.036, 6, -5.64924, 30.1325, 25.0658, -5.7614, -70.9646, 3.4095
5.04, 6, -5.69598, 30.1162, 25.1555, -5.80174, -71.1141, 3.42825
5.044, 6, -5.74261, 30.0998, 25.2453, -5.84189, -71.2638, 3.44679
5.048, 6, -5.78914, 30.0834, 25.3352, -5.88185, -71.4136, 3.46515
5.052, 6, -5.83555, 30.067, 25.4251, -5.92162, -71.5634, 3.48331
5.056, 6, -5.88186, 30.0506, 25.5152, -5.96121, -71.7133, 3.50127
5.06, 6, -5.92805, 30.0342, 25.6053, -6.0006, -71.8633, 3.51905
5.064, 6, -5.97413, 30.0178, 25.6955, -6.03981, -72.0134, 3.53663
5.068, 6, -6.0201, 30.0014, 25.7858, -6.07883, -72.1635, 3.55403
5.072, 6, -6.06595, 29.985, 25.8761, -6.11766, -72.3137, 3.57123
5.076, 6, -6.1117, 29.9686, 25.9666, -6.15631, -72.464, 3.58824
5.08, 6, -6.15732, 29.9522, 26.0571, -6.19477, -72.6144, 3.60506
5.084, 6, -6.20284, 29.9358, 26.1478, -6.23305, -72.7649, 3.62169
5.088, 6, -6.24823, 29.9193, 26.2385, -6.27114, -72.9154, 3.63814
5.092, 6, -6.29351, 29.9029, 26.3293, -6.30904, -73.0661, 3.65439
5.096, 6, -6.33868, 29.8865, 26.4201, -6.34676, -73.2168, 3.67046
5.1, 6, -6.38372, 29.8701, 26.5111, -6.3843, -73.3676, 3.68634
5.104, 6, -6.42865, 29.8537, 26.6021, -6.42166, -73.5184, 3.70203
5.108, 6, -6.47346, 29.8373, 26.6932, -6.45883, -73.6693, 3.71754
5.112, 6, -6.51815, 29.8209, 26.7844, -6.49582, -73.8204, 3.73285
5.116, 6, -6.56271, 29.8045, 26.8756, -6.53263, -73.9715, 3.74799
5.12, 6, -6.60716, 29.7881, 26.9669, -6.56925, -74.1226, 3.76294
5.124, 6, -6.65148, 29.7717, 27.0583, -6.6057, -74.2738, 3.7777
5.128, 6, -6.69569, 29.7553, 27.1498, -6.64196, -74.4252, 3.79228
5.132, 6, -6.73976, 29.7389, 27.2413, -6.67804, -74.5766, 3.80668
5.136, 6, -6.78372, 29.7226, 27.333, -6.71394, -74.728, 3.82089
5.14, 6, -6.82755, 29.7062, 27.4246, -6.74967, -74.8796, 3.83492
5.144, 6, -6.87125, 29.6899, 27.5164, -6.78521, -75.0312, 3.84877
5.148, 6, -6.91483, 29.6735, 27.6082, -6.82058, -75.1829, 3.86244
5.152, 6, -6.95828, 29.6572, 27.7001, -6.85577, -75.3346, 3.87592
5.156, 6, -7.0016, 29.6409, 27.7921, -6.89078, -75.4864, 3.88923
5.16, 6, -7.0448, 29.6246, 27.8841, -6.92561, -75.6383, 3.90235
5.164, 6, -7.08787, 29.6083, 27.9762, -6.96027, -75.7903, 3.9153
5.168, 6, -7.1308, 29.592, 28.0684, -6.99474, -75.9424, 3.92806
5.172, 6, -7.17361, 29.5757, 28.1606, -7.02905, -76.0945, 3.94065
5.176, 6, -7.21629, 29.5595, 28.2529, -7.06318, -76.2467, 3.95306
5.18, 6, -7.25883, 29.5432, 28.3453, -7.09713, -76.3989, 3.96529
5.184, 6, -7.30124, 29.527, 28.4377, -7.13091, -76.5513, 3.97734
5.188, 6, -7.34352, 29.5108, 28.5302, -7.16451, -76.7037, 3.98922
5.192, 6, -7.38566, 29.4946, 28.6227, -7.19794, -76.8561, 4.00092
5.196, 6, -7.42767, 29.4784, 28.7153, -7.2312, -77.0087, 4.01244
5.2, 6, -7.46955, 29.4623, 28.808, -7.26428, -77.1613, 4.02379
5.204, 6, -7.51129, 29.4461, 28.9007, -7.29719, -77.314, 4.03496
5.208, 6, -7.55289, 29.43, 28.9935, -7.32993, -77.4667, 4.04596
5.212, 6, -7.59436, 29.4139, 29.0864, -7.3625, -77.6195, 4.05679
5.216, 6, -7.63569, 29.3978, 29.1793, -7.3949, -77.7724, 4.06744
5.22, 6, -7.67688, 29.3818, 29.2722, -7.42712, -77.9254, 4.07792
5.224, 6, -7.71793, 29.3657, 29.3653, -7.45918, -78.0784, 4.08823
5.228, 6, -7.75884, 29.3497, 29.4583, -7.49107, -78.2315, 4.09837
5.232, 6, -7.79961, 29.3337, 29.5515, -7.52278, -78.3846, 4.10833
5.236, 6, -7.84023, 29.3177, 29.6446, -7.55433, -78.5378, 4.11812
5.24, 6, -7.88072, 29.3018, 29.7379, -7.58571, -78.6911, 4.12775
5.244, 6, -7.92106, 29.2859, 29.8311, -7.61693, -78.8444, 4.1372
5.248, 6, -7.96127, 29.27, 29.9245, -7.64797, -78.9979, 4.14649
5.252, 6, -8.00132, 29.2541, 30.0179, -7.67885, -79.1513, 4.1556
5.256, 6, -8.04123, 29.2383, 30.1113, -7.70956, -79.3049, 4.16455
5.26, 6, -8.081, 29.2225, 30.2048, -7.74011, -79.4585, 4.17333
5.264, 6, -8.12062, 29.2067, 30.2983, -7.77049, -79.6121, 4.18194
5.268, 6, -8.16009, 29.1909, 30.3919, -7.8007, -79.7659, 4.19039
5.272, 6, -8.19942, 29.1752, 30.4855, -7.83075, -79.9196, 4.19867
5.276, 6, -8.2386, 29.1595, 30.5792, -7.86064, -80.0735, 4.20679
5.28, 6, -8.27763, 29.1438, 30.6729, -7.89036, -80.2274, 4.21474
5.284, 6, -8.31651, 29.1282, 30.7667, -7.91992, -80.3814, 4.22252
5.288, 6, -8.35524, 29.1126, 30.8605, -7.94932, -80.5354, 4.23014
5.292, 6, -8.39382, 29.097, 30.9543, -7.97856, -80.6895, 4.2376
5.296, 6, -8.43225, 29.0815, 31.0482, -8.00763, -80.8437, 4.24489
5.3, 6, -8.47052, 29.066, 31.1422, -8.03654, -80.9979, 4.25203
5.304, 6, -8.50865, 29.0505, 31.2362, -8.06529, -81.1522, 4.259
5.308, 6, -8.54662, 29.0351, 31.3302, -8.09388, -81.3065, 4.26581
5.312, 6, -8.58443, 29.0197, 31.4242, -8.12232, -81.4609, 4.27245
5.316, 6, -8.6221, 29.0044, 31.5183, -8.15059, -81.6154, 4.27894
5.32, 6, -8.6596, 28.989, 31.6125, -8.1787, -81.7699, 4.28527
5.324, 6, -8.69695, 28.9738, 31.7066, -8.20665, -81.9245, 4.29143
5.328, 6, -8.73415, 28.9585, 31.8009, -8.23445, -82.0791, 4.29744
5.332, 6, -8.77119, 28.9433, 31.8951, -8.26209, -82.2338, 4.30329
5.336, 6, -8.80806, 28.9282, 31.9894, -8.28957, -82.3885, 4.30897
5.34, 6, -8.84478, 28.913, 32.0837, -8.31689, -82.5434, 4.3145
5.344, 6, -8.88134, 28.8979, 32.1781, -8.34405, -82.6982, 4.31987
5.348, 6, -8.91774, 28.8829, 32.2725, -8.37106, -82.8532, 4.32508
5.352, 6, -8.95398, 28.8679, 32.3669, -8.39791, -83.0082, 4.33014
5.356, 6, -8.99005, 28.853, 32.4614, -8.4246, -83.1633, 4.33503
5.36, 6, -9.02597, 28.838, 32.5559, -8.45113, -83.3184, 4.33977
5.364, 6, -9.06171, 28.8232, 32.6504, -8.47751, -83.4736, 4.34435
5.368, 6, -9.0973, 28.8084, 32.745, -8.50373, -83.6288, 4.34877
5.372, 6, -9.13272, 28.7936, 32.8395, -8.52979, -83.7841, 4.35304
5.376, 6, -9.16797, 28.7789, 32.9342, -8.55569, -83.9395, 4.35715
5.38, 6, -9.20305, 28.7642, 33.0288, -8.58143, -84.0949, 4.3611
5.384, 6, -9.23797, 28.7496, 33.1235, -8.60702, -84.2504, 4.36489
5.388, 6, -9.27272, 28.735, 33.2182, -8.63245, -84.4059, 4.36853
5.392, 6, -9.30729, 28.7205, 33.3129, -8.65772, -84.5615, 4.37201
5.396, 6, -9.3417, 28.706, 33.4077, -8.68284, -84.7172, 4.37534
5.4, 6, -9.37593, 28.6916, 33.5025, -8.70779, -84.8729, 4.37851
5.404, 6, -9.41, 28.6772, 33.5973, -8.73259, -85.0287, 4.38153
5.408, 6, -9.44388, 28.6629, 33.6921, -8.75723, -85.1846, 4.38439
5.412, 6, -9.4776, 28.6486, 33.7869, -8.78171, -85.3405, 4.3871
5.416, 6, -9.51113, 28.6344, 33.8818, -8.80603, -85.4964, 4.38965
5.42, 6, -9.54449, 28.6203, 33.9767, -8.8302, -85.6524, 4.39205
5.424, 6, -9.57768, 28.6062, 34.0716, -8.8542, -85.8085, 4.39429
5.428, 6, -9.61068, 28.5921, 34.1665, -8.87805, -85.9647, 4.39638
5.432, 6, -9.64351, 28.5782, 34.2615, -8.90174, -86.1208, 4.39832
5.436, 6, -9.67615, 28.5642, 34.3564, -8.92527, -86.2771, 4.4001
5.44, 6, -9.70861, 28.5504, 34.4514, -8.94864, -86.4334, 4.40173
5.444, 6, -9.7409, 28.5366, 34.5464, -8.97185, -86.5898, 4.40321
5.448, 6, -9.77299, 28.5229, 34.6414, -8.9949, -86.7462, 4.40454
5.452, 6, -9.80491, 28.5092, 34.7364, -9.0178, -86.9027, 4.40571
5.456, 6, -9.83664, 28.4956, 34.8315, -9.04053, -87.0592, 4.40673
5.46, 6, -9.86818, 28.4821, 34.9265, -9.06311, -87.2158, 4.4076
5.464, 6, -9.89954, 28.4686, 35.0216, -9.08552, -87.3724, 4.40832
5.468, 6, -9.93071, 28.4552, 35.1166, -9.10778, -87.5292, 4.40889
5.472, 6, -9.96169, 28.4418, 35.2117, -9.12988, -87.6859, 4.40931
5.476, 6, -9.99248, 28.4286, 35.3068, -9.15182, -87.8427, 4.40957
5.48, 6, -10.0231, 28.4154, 35.4018, -9.1736, -87.9996, 4.40969
5.484, 6, -10.0535, 28.4022, 35.4969, -9.19522, -88.1565, 4.40966
5.488, 6, -10.0837, 28.3892, 35.592, -9.21668, -88.3135, 4.40947
5.492, 6, -10.1137, 28.3762, 35.6871, -9.23798, -88.4706, 4.40914
5.496, 6, -10.1436, 28.3633, 35.7822, -9.25912, -88.6276, 4.40866
5.5, 6, -10.1732, 28.3504, 35.8773, -9.28011, -88.7848, 4.40803
5.504, 6, -10.2026, 28.3376, 35.9724, -9.30093, -88.942, 4.40725
5.508, 6, -10.2319, 28.3249, 36.0675, -9.32159, -89.0992, 4.40632
5.512, 6, -10.2609, 28.3123, 36.1626, -9.3421, -89.2565, 4.40524
5.516, 6, -10.2898, 28.2998, 36.2577, -9.36244, -89.4139, 4.40402
5.52, 6, -10.3184, 28.2873, 36.3528, -9.38263, -89.5713, 4.40265
5.524, 6, -10.3469, 28.2749, 36.4479, -9.40265, -89.7288, 4.40113
5.528, 6, -10.3751, 28.2626, 36.543, -9.42251, -89.8863, 4.39946
5.532, 6, -10.4031, 28.2503, 36.6381, -9.44222, -90.0439, 4.39765
5.536, 6, -10.431, 28.2382, 36.7332, -9.46176, -90.2015, 4.39569
5.54, 6, -10.4586, 28.2261, 36.8282, -9.48115, -90.3592, 4.39358
5.544, 6, -10.486, 28.2141, 36.9233, -9.50037, -90.5169, 4.39133
5.548, 6, -10.5133, 28.2022, 37.0184, -9.51944, -90.6747, 4.38893
5.552, 6, -10.5403, 28.1904, 37.1134, -9.53834, -90.8325, 4.38639
5.556, 6, -10.5671, 28.1786, 37.2084, -9.55709, -90.9904, 4.38371
5.56, 6, -10.5937, 28.167, 37.3035, -9.57567, -91.1484, 4.38087
5.564, 6, -10.6201, 28.1554, 37.3985, -9.5941, -91.3064, 4.3779
5.568, 6, -10.6462, 28.1439, 37.4935, -9.61236, -91.4644, 4.37478
5.572, 6, -10.6722, 28.1325, 37.5885, -9.63047, -91.6225, 4.37151
5.576, 6, -10.698, 28.1212, 37.6834, -9.64841, -91.7806, 4.3681
5.58, 6, -10.7235, 28.11, 37.7784, -9.66619, -91.9388, 4.36455
5.584, 6, -10.7488, 28.0989, 37.8733, -9.68382, -92.0971, 4.36086
5.588, 6, -10.774, 28.0878, 37.9682, -9.70128, -92.2554, 4.35702
5.592, 6, -10.7989, 28.0769, 38.0631, -9.71859, -92.4137, 4.35304
5.596, 6, -10.8235, 28.066, 38.158, -9.73573, -92.5721, 4.34892
5.6, 6, -10.848, 28.0553, 38.2529, -9.75271, -92.7305, 4.34466
5.604, 6, -10.8722, 28.0446, 38.3477, -9.76953, -92.889, 4.34025
5.608, 6, -10.8963, 28.034, 38.4425, -9.78619, -93.0476, 4.33571
5.612, 6, -10.9201, 28.0235, 38.5373, -9.8027, -93.2062, 4.33102
5.616, 6, -10.9437, 28.0132, 38.6321, -9.81904, -93.3648, 4.32619
5.62, 6, -10.967, 28.0029, 38.7268, -9.83522, -93.5235, 4.32122
5.624, 6, -10.9902, 27.9927, 38.8215, -9.85124, -93.6822, 4.31611
5.628, 6, -11.0131, 27.9826, 38.9162, -9.8671, -93.841, 4.31087
5.632, 6, -11.0358, 27.9726, 39.0109, -9.8828, -93.9998, 4.30548
5.636, 6, -11.0582, 27.9627, 39.1055, -9.89833, -94.1587, 4.29995
5.64, 6, -11.0805, 27.9529, 39.2001, -9.91371, -94.3176, 4.29429
5.644, 6, -11.1025, 27.9433, 39.2947, -9.92892, -94.4766, 4.28848
5.648, 6, -11.1242, 27.9337, 39.3893, -9.94398, -94.6356, 4.28254
5.652, 6, -11.1458, 27.9242, 39.4838, -9.95887, -94.7947, 4.27645
5.656, 6, -11.1671, 27.9148, 39.5783, -9.9736, -94.9538, 4.27023
5.66, 6, -11.1882, 27.9056, 39.6727, -9.98816, -95.113, 4.26387
5.664, 6, -11.209, 27.8964, 39.7671, -10.0026, -95.2722, 4.25738
5.668, 6, -11.2296, 27.8874, 39.8615, -10.0168, -95.4315, 4.25074
5.672, 6, -11.25, 27.8784, 39.9558, -10.0309, -95.5908, 4.24397
5.676, 6, -11.2702, 27.8696, 40.0501, -10.0448, -95.7502, 4.23706
5.68, 6, -11.2901, 27.8609, 40.1444, -10.0585, -95.9096, 4.23001
5.684, 6, -11.3097, 27.8523, 40.2386, -10.0721, -96.0691, 4.22282
5.688, 6, -11.3291, 27.8438, 40.3328, -10.0855, -96.2286, 4.2155
5.692, 6, -11.3483, 27.8354, 40.4269, -10.0987, -96.3881, 4.20804
5.696, 6, -11.3673, 27.8271, 40.521, -10.1118, -96.5477, 4.20044
5.7, 6, -11.386, 27.819, 40.6151, -10.1247, -96.7074, 4.19271
5.704, 6, -11.4044, 27.811, 40.7091, -10.1375, -96.8671, 4.18485
5.708, 6, -11.4226, 27.803, 40.8031, -10.15, -97.0269, 4.17684
5.712, 6, -11.4406, 27.7952, 40.897, -10.1624, -97.1867, 4.16871
5.716, 6, -11.4583, 27.7876, 40.9908, -10.1747, -97.3465, 4.16044
5.72, 6, -11.4758, 27.78, 41.0847, -10.1867, -97.5065, 4.15203
5.724, 6, -11.493, 27.7726, 41.1784, -10.1986, -97.6664, 4.14349
5.728, 6, -11.51, 27.7652, 41.2721, -10.2104, -97.8264, 4.13482
5.732, 6, -11.5267, 27.7581, 41.3658, -10.2219, -97.9865, 4.12602
5.736, 6, -11.5431, 27.751, 41.4593, -10.2333, -98.1465, 4.11708
5.74, 6, -11.5592, 27.744, 41.5527, -10.2445, -98.3066, 4.10802
5.744, 6, -11.575, 27.7371, 41.6459, -10.2555, -98.4666, 4.09883
5.748, 6, -11.5904, 27.7303, 41.7388, -10.2664, -98.6265, 4.08953
5.752, 6, -11.6055, 27.7235, 41.8312, -10.2771, -98.7859, 4.08012
5.756, 6, -11.6202, 27.7169, 41.9231, -10.2876, -98.9447, 4.07063
5.76, 6, -11.6345, 27.7103, 42.0141, -10.2978, -99.1026, 4.06107
5.764, 6, -11.6483, 27.7039, 42.1042, -10.3078, -99.2591, 4.05149
5.768, 6, -11.6617, 27.6976, 42.1929, -10.3176, -99.4138, 4.0419
5.772, 6, -11.6746, 27.6914, 42.28, -10.3271, -99.5661, 4.03236
5.776, 6, -11.687, 27.6854, 42.365, -10.3362, -99.7152, 4.02292
5.78, 6, -11.6988, 27.6796, 42.4476, -10.345, -99.8605, 4.01363
5.784, 6, -11.71, 27.674, 42.5273, -10.3534, -100.001, 4.00455
5.788, 6, -11.7207, 27.6687, 42.6038, -10.3614, -100.136, 3.99575
5.792, 6, -11.7308, 27.6637, 42.6767, -10.3688, -100.265, 3.9873
5.796, 6, -11.7403, 27.6591, 42.7456, -10.3758, -100.386, 3.97925
5.8, 6, -11.7492, 27.6548, 42.8101, -10.3822, -100.5, 3.97167
5.804, 6, -11.7574, 27.651, 42.8699, -10.3881, -100.605, 3.96461
5.808, 6, -11.765, 27.6476, 42.9248, -10.3934, -100.702, 3.95811
5.812, 6, -11.7719, 27.6447, 42.9747, -10.3982, -100.789, 3.9522
5.816, 6, -11.7782, 27.6422, 43.0195, -10.4023, -100.866, 3.94689
5.82, 6, -11.7839, 27.6401, 43.0593, -10.406, -100.935, 3.9422
5.824, 6, -11.7891, 27.6385, 43.0942, -10.409, -100.994, 3.93812
5.828, 6, -11.7937, 27.6373, 43.1244, -10.4116, -101.045, 3.93463
5.832, 6, -11.7979, 27.6364, 43.1502, -10.4138, -101.087, 3.93168
5.836, 6, -11.8015, 27.6359, 43.1719, -10.4155, -101.122, 3.92924
5.84, 6, -11.8047, 27.6356, 43.1898, -10.4169, -101.151, 3.92726
5.844, 6, -11.8075, 27.6354, 43.2044, -10.418, -101.174, 3.92567
5.848, 6, -11.81, 27.6354, 43.2161, -10.4188, -101.191, 3.92444
5.852, 6, -11.8121, 27.6356, 43.2253, -10.4194, -101.205, 3.92349
5.856, 6, -11.814, 27.6357, 43.2324, -10.4199, -101.215, 3.92278
5.86, 6, -11.8156, 27.636, 43.2378, -10.4202, -101.222, 3.92226
5.864, 7, -11.817, 27.6362, 43.2418, -10.4204, -101.228, 3.9219
5.868, 7, -11.8181, 27.6364, 43.2447, -10.4206, -101.231, 3.92164
5.872, 7, -11.8189, 27.6366, 43.2468, -10.4206, -101.234, 3.92146
5.876, 7, -11.8196, 27.6367, 43.2483, -10.4207, -101.236, 3.92134
5.88, 7, -11.82, 27.6368, 43.2493, -10.4208, -101.237, 3.92126
5.884, 7, -11.8203, 27.6368, 43.25, -10.4208, -101.238, 3.9212
5.888, 7, -11.8205, 27.6369, 43.2504, -10.4208, -101.238, 3.92117
5.892, 7, -11.8206, 27.6369, 43.2507, -10.4208, -101.239, 3.92114
5.896, 7, -11.8207, 27.6369, 43.2509, -10.4208, -101.239, 3.92112
5.9, 7, -11.8208, 27.6369, 43.2511, -10.4208, -101.239, 3.92111
5.904, 7, -11.8208, 27.637, 43.2512, -10.4208, -101.239, 3.9211
5.908, 7, -11.8208, 27.637, 43.2512, -10.4208, -101.239, 3.9211
5.912, 7, -11.8209, 27.637, 43.2513, -10.4208, -101.239, 3.92109
5.916, 7, -11.8209, 27.637, 43.2513, -10.4208, -101.239, 3.92109
5.92, 7, -11.8209, 27.637, 43.2513, -10.4208, -101.239, 3.92109
5.924, 7, -11.8209, 27.637, 43.2513, -10.4208, -101.239, 3.92109
5.928, 7, -11.8209, 27.637, 43.2514, -10.4208, -101.239, 3.92109
5.932, 7, -11.8209, 27.637, 43.2514, -10.4208, -101.239, 3.92109
5.936, 7, -11.8209, 27.637, 43.2514, -10.4208, -101.239, 3.92109
