hehonglu123/ABB_Primitive_Study/execution/movec_30_car/curve_exe_v1000_z20.csv
timestamp, cmd_num, J1, J2, J3, J4, J5, J6
0, -1, -11.8209, 27.637, 43.2514, -10.4208, -101.239, 3.92109
0.002, -1, -11.8209, 27.637, 43.2514, -10.4208, -101.239, 3.92109
0.006, -1, -11.8209, 27.637, 43.2514, -10.4208, -101.239, 3.92109
0.008, -1, -11.8209, 27.637, 43.2514, -10.4208, -101.239, 3.92109
0.011, -1, -11.8209, 27.637, 43.2514, -10.4208, -101.239, 3.92109
0.016, -1, -11.8209, 27.637, 43.2514, -10.4208, -101.239, 3.92109
0.02, -1, -11.8209, 27.637, 43.2514, -10.4208, -101.239, 3.92109
0.024, -1, -11.8209, 27.637, 43.2514, -10.4208, -101.239, 3.92109
0.028, -1, -11.8209, 27.637, 43.2514, -10.4208, -101.239, 3.92109
0.032, -1, -11.8209, 27.637, 43.2514, -10.4208, -101.239, 3.92109
0.036, -1, -11.8208, 27.637, 43.2514, -10.4208, -101.239, 3.92108
0.04, -1, -11.8206, 27.6369, 43.2514, -10.4208, -101.239, 3.92108
0.044, -1, -11.8199, 27.6367, 43.2513, -10.4208, -101.239, 3.92105
0.048, -1, -11.8188, 27.6363, 43.2513, -10.4207, -101.239, 3.92098
0.052, -1, -11.8169, 27.6357, 43.2511, -10.4205, -101.239, 3.92081
0.056, -1, -11.8142, 27.6347, 43.2509, -10.42, -101.238, 3.92043
0.06, -1, -11.8106, 27.6334, 43.2504, -10.419, -101.236, 3.91973
0.064, -1, -11.8059, 27.6315, 43.2496, -10.4173, -101.234, 3.9185
0.068, -1, -11.8, 27.6291, 43.2483, -10.4146, -101.23, 3.91654
0.072, -1, -11.7928, 27.626, 43.2465, -10.4103, -101.223, 3.91354
0.076, -1, -11.7838, 27.6222, 43.2437, -10.4041, -101.214, 3.90917
0.08, -1, -11.7728, 27.6173, 43.2399, -10.3954, -101.201, 3.90303
0.084, -1, -11.7593, 27.6114, 43.2348, -10.3836, -101.183, 3.89469
0.088, -1, -11.7432, 27.6044, 43.2281, -10.3678, -101.159, 3.88364
0.092, -1, -11.7244, 27.5963, 43.2194, -10.3474, -101.128, 3.86937
0.096, -1, -11.7027, 27.5871, 43.2085, -10.3216, -101.09, 3.85137
0.1, -1, -11.6782, 27.5767, 43.1952, -10.2898, -101.042, 3.82914
0.104, -1, -11.6506, 27.5654, 43.1791, -10.2512, -100.985, 3.80229
0.108, -1, -11.6199, 27.5528, 43.1601, -10.2055, -100.916, 3.77048
0.112, -1, -11.5859, 27.5392, 43.138, -10.1523, -100.837, 3.73348
0.116, -1, -11.5485, 27.5242, 43.1128, -10.0915, -100.746, 3.69117
0.12, -1, -11.5074, 27.5079, 43.0844, -10.0229, -100.644, 3.64352
0.124, -1, -11.4628, 27.4904, 43.053, -9.94673, -100.53, 3.5906
0.128, -1, -11.4147, 27.4716, 43.0185, -9.8632, -100.406, 3.53258
0.131, -1, -11.3633, 27.4515, 42.9811, -9.77265, -100.271, 3.46969
0.136, -1, -11.3087, 27.4303, 42.941, -9.67555, -100.126, 3.40227
0.139, -1, -11.251, 27.4079, 42.8985, -9.57247, -99.9725, 3.33069
0.144, -1, -11.1903, 27.3844, 42.8538, -9.46403, -99.8108, 3.25539
0.148, -1, -11.1266, 27.3596, 42.807, -9.35088, -99.6422, 3.17682
0.152, -1, -11.0601, 27.3337, 42.7586, -9.23367, -99.4675, 3.09542
0.156, -1, -10.9909, 27.3067, 42.7087, -9.11298, -99.2876, 3.01159
0.16, -1, -10.9195, 27.2787, 42.6576, -8.98935, -99.1033, 2.92571
0.164, -1, -10.8461, 27.2499, 42.6054, -8.86324, -98.9152, 2.8381
0.168, -1, -10.7711, 27.2203, 42.5523, -8.73504, -98.7241, 2.74903
0.172, -1, -10.6948, 27.1902, 42.4985, -8.60512, -98.5303, 2.65876
0.176, -1, -10.6172, 27.1595, 42.4441, -8.47377, -98.3344, 2.56749
0.18, -1, -10.5385, 27.1283, 42.3892, -8.34126, -98.1368, 2.4754
0.184, -1, -10.459, 27.0968, 42.3339, -8.2078, -97.9377, 2.38265
0.188, -1, -10.3785, 27.0649, 42.2783, -8.07358, -97.7375, 2.28937
0.192, -1, -10.2973, 27.0327, 42.2224, -7.93872, -97.5364, 2.19564
0.196, -1, -10.2155, 27.0003, 42.1662, -7.80334, -97.3344, 2.10154
0.2, -1, -10.1331, 26.9676, 42.1099, -7.6675, -97.1317, 2.00712
0.204, -1, -10.0503, 26.9348, 42.0533, -7.53125, -96.9285, 1.91241
0.208, -1, -9.9672, 26.9019, 41.9967, -7.39462, -96.7247, 1.81744
0.212, -1, -9.88379, 26.8688, 41.9399, -7.25765, -96.5203, 1.72223
0.216, -1, -9.80013, 26.8356, 41.8829, -7.12034, -96.3155, 1.62679
0.22, -1, -9.71623, 26.8024, 41.8258, -6.98271, -96.1101, 1.53111
0.224, -1, -9.63212, 26.769, 41.7686, -6.84476, -95.9043, 1.43522
0.228, -1, -9.54781, 26.7356, 41.7112, -6.7065, -95.6981, 1.33912
0.232, -1, -9.46329, 26.7021, 41.6537, -6.56794, -95.4914, 1.2428
0.236, -1, -9.37859, 26.6685, 41.5961, -6.42908, -95.2842, 1.14628
0.24, -1, -9.29371, 26.6349, 41.5384, -6.28992, -95.0766, 1.04954
0.244, -1, -9.20864, 26.6011, 41.4805, -6.15046, -94.8685, 0.952603
0.248, -1, -9.12338, 26.5673, 41.4226, -6.01071, -94.66, 0.85546
0.252, -1, -9.03795, 26.5335, 41.3645, -5.87067, -94.4511, 0.758115
0.256, -1, -8.95235, 26.4995, 41.3062, -5.73034, -94.2418, 0.660569
0.26, -1, -8.86656, 26.4655, 41.2479, -5.58972, -94.032, 0.562823
0.264, -1, -8.78061, 26.4315, 41.1895, -5.44882, -93.8218, 0.464879
0.268, -1, -8.69448, 26.3973, 41.1309, -5.30764, -93.6111, 0.366738
0.272, -1, -8.60818, 26.3631, 41.0722, -5.16617, -93.4001, 0.2684
0.276, -1, -8.52171, 26.3288, 41.0134, -5.02442, -93.1886, 0.169869
0.28, -1, -8.43507, 26.2945, 40.9545, -4.8824, -92.9767, 0.0711437
0.284, -1, -8.34827, 26.2601, 40.8954, -4.74009, -92.7644, -0.027773
0.288, -1, -8.2613, 26.2256, 40.8363, -4.59752, -92.5517, -0.12688
0.292, -1, -8.17417, 26.191, 40.777, -4.45467, -92.3386, -0.226175
0.296, -1, -8.08688, 26.1564, 40.7177, -4.31156, -92.1251, -0.325657
0.3, -1, -7.99944, 26.1218, 40.6582, -4.16818, -91.9112, -0.425324
0.304, -1, -7.91184, 26.087, 40.5986, -4.02454, -91.6969, -0.525173
0.308, -1, -7.82408, 26.0522, 40.5389, -3.88064, -91.4822, -0.625202
0.312, -1, -7.73618, 26.0174, 40.4791, -3.73648, -91.2672, -0.725408
0.316, -1, -7.64814, 25.9825, 40.4192, -3.59207, -91.0517, -0.825789
0.32, -1, -7.55995, 25.9475, 40.3592, -3.44742, -90.8359, -0.926341
0.324, -1, -7.47161, 25.9125, 40.299, -3.30252, -90.6198, -1.02706
0.328, -1, -7.38314, 25.8774, 40.2388, -3.15738, -90.4032, -1.12795
0.332, -1, -7.29454, 25.8422, 40.1785, -3.01202, -90.1864, -1.229
0.336, -1, -7.20579, 25.807, 40.1181, -2.86642, -89.9691, -1.3302
0.34, -1, -7.11692, 25.7718, 40.0576, -2.7206, -89.7516, -1.43156
0.344, -1, -7.02791, 25.7365, 39.997, -2.57457, -89.5337, -1.53307
0.348, -1, -6.93879, 25.7011, 39.9364, -2.42832, -89.3156, -1.63473
0.352, -1, -6.84954, 25.6657, 39.8756, -2.28187, -89.0971, -1.73653
0.356, -1, -6.76017, 25.6303, 39.8148, -2.13522, -88.8783, -1.83847
0.36, -1, -6.67068, 25.5948, 39.7538, -1.98837, -88.6592, -1.94055
0.364, -1, -6.58109, 25.5593, 39.6928, -1.84134, -88.4398, -2.04276
0.368, -1, -6.49138, 25.5237, 39.6318, -1.69412, -88.2202, -2.14509
0.372, -1, -6.40157, 25.488, 39.5706, -1.54672, -88.0003, -2.24755
0.376, -1, -6.31166, 25.4524, 39.5094, -1.39915, -87.7802, -2.35013
0.38, -1, -6.22164, 25.4167, 39.4481, -1.25142, -87.5598, -2.45282
0.384, -1, -6.13154, 25.3809, 39.3867, -1.10353, -87.3391, -2.55562
0.388, -1, -6.04134, 25.3451, 39.3253, -0.955482, -87.1182, -2.65853
0.392, -1, -5.95105, 25.3093, 39.2639, -0.807292, -86.8972, -2.76154
0.396, -1, -5.86068, 25.2735, 39.2023, -0.658961, -86.6759, -2.86465
0.4, -1, -5.77023, 25.2376, 39.1407, -0.510497, -86.4544, -2.96785
0.404, -1, -5.6797, 25.2017, 39.0791, -0.361907, -86.2327, -3.07114
0.408, -1, -5.58909, 25.1658, 39.0174, -0.213195, -86.0109, -3.17451
0.412, -1, -5.49843, 25.1298, 38.9556, -0.0643699, -85.7888, -3.27796
0.416, -1, -5.40769, 25.0938, 38.8938, 0.084563, -85.5666, -3.38149
0.42, -1, -5.3169, 25.0578, 38.832, 0.233597, -85.3443, -3.48508
0.424, -1, -5.22606, 25.0217, 38.7701, 0.382725, -85.1218, -3.58874
0.428, -1, -5.13516, 24.9857, 38.7082, 0.531939, -84.8992, -3.69246
0.432, -1, -5.04422, 24.9496, 38.6463, 0.681234, -84.6765, -3.79624
0.436, -1, -4.95323, 24.9135, 38.5843, 0.830602, -84.4536, -3.90007
0.44, -1, -4.86221, 24.8774, 38.5223, 0.980034, -84.2307, -4.00394
0.444, -1, -4.77115, 24.8413, 38.4603, 1.12953, -84.0077, -4.10786
0.448, -1, -4.68007, 24.8051, 38.3983, 1.27907, -83.7846, -4.2118
0.452, -1, -4.58896, 24.769, 38.3362, 1.42865, -83.5614, -4.31578
0.456, -1, -4.49784, 24.7329, 38.2741, 1.57827, -83.3382, -4.41979
0.46, -1, -4.40671, 24.6967, 38.212, 1.72792, -83.1149, -4.52381
0.464, -1, -4.31556, 24.6605, 38.15, 1.87758, -82.8917, -4.62785
0.468, -1, -4.22441, 24.6244, 38.0879, 2.02726, -82.6684, -4.73189
0.472, -1, -4.13326, 24.5882, 38.0258, 2.17694, -82.4451, -4.83594
0.476, -1, -4.04211, 24.552, 37.9636, 2.32662, -82.2217, -4.93998
0.48, -1, -3.95098, 24.5159, 37.9016, 2.47628, -81.9985, -5.04401
0.484, -1, -3.85986, 24.4797, 37.8395, 2.62592, -81.7752, -5.14803
0.488, -1, -3.76876, 24.4436, 37.7774, 2.77553, -81.552, -5.25202
0.492, -1, -3.67769, 24.4075, 37.7154, 2.92509, -81.3289, -5.35599
0.496, -1, -3.58665, 24.3713, 37.6533, 3.07461, -81.1058, -5.45992
0.5, -1, -3.49564, 24.3352, 37.5913, 3.22408, -80.8829, -5.56381
0.504, -1, -3.40467, 24.2992, 37.5293, 3.37347, -80.66, -5.66766
0.508, -1, -3.31375, 24.2631, 37.4674, 3.52279, -80.4372, -5.77146
0.512, -1, -3.22288, 24.227, 37.4054, 3.67203, -80.2146, -5.87519
0.516, -1, -3.13206, 24.191, 37.3436, 3.82118, -79.9921, -5.97887
0.52, -1, -3.0413, 24.155, 37.2817, 3.97022, -79.7697, -6.08247
0.524, -1, -2.95061, 24.119, 37.2199, 4.11915, -79.5475, -6.186
0.528, -1, -2.85999, 24.0831, 37.1582, 4.26797, -79.3255, -6.28944
0.532, -1, -2.76944, 24.0472, 37.0965, 4.41666, -79.1037, -6.3928
0.536, -1, -2.67898, 24.0113, 37.0349, 4.56522, -78.882, -6.49606
0.54, -1, -2.58859, 23.9754, 36.9733, 4.71363, -78.6606, -6.59923
0.544, -1, -2.49829, 23.9396, 36.9118, 4.86189, -78.4394, -6.70228
0.548, -1, -2.40809, 23.9038, 36.8503, 5.00999, -78.2185, -6.80523
0.552, -1, -2.31798, 23.8681, 36.7889, 5.15792, -77.9978, -6.90806
0.556, -1, -2.22797, 23.8324, 36.7276, 5.30568, -77.7773, -7.01077
0.56, -1, -2.13807, 23.7967, 36.6664, 5.45326, -77.5572, -7.11336
0.564, -1, -2.04828, 23.7611, 36.6053, 5.60064, -77.3373, -7.2158
0.568, -1, -1.9586, 23.7256, 36.5442, 5.74782, -77.1177, -7.31811
0.572, -1, -1.86904, 23.6901, 36.4832, 5.8948, -76.8984, -7.42028
0.576, -1, -1.7796, 23.6546, 36.4223, 6.04157, -76.6795, -7.5223
0.58, -1, -1.6903, 23.6192, 36.3615, 6.18811, -76.4609, -7.62416
0.584, -1, -1.60113, 23.5839, 36.3008, 6.33442, -76.2426, -7.72587
0.588, -1, -1.5121, 23.5486, 36.2402, 6.4805, -76.0246, -7.82741
0.592, -1, -1.42322, 23.5134, 36.1797, 6.62634, -75.8071, -7.92879
0.596, -1, -1.33448, 23.4782, 36.1193, 6.77193, -75.5899, -8.02999
0.6, -1, -1.2459, 23.4431, 36.059, 6.91726, -75.3731, -8.13101
0.604, -1, -1.15748, 23.408, 35.9988, 7.06233, -75.1566, -8.23185
0.608, -1, -1.06922, 23.373, 35.9387, 7.20713, -74.9406, -8.3325
0.612, -1, -0.98112, 23.3381, 35.8787, 7.35165, -74.725, -8.43296
0.616, -1, -0.893193, 23.3033, 35.8189, 7.49589, -74.5098, -8.53323
0.62, -1, -0.805439, 23.2685, 35.7592, 7.63985, -74.295, -8.63329
0.624, -1, -0.717861, 23.2338, 35.6995, 7.78351, -74.0807, -8.73316
0.628, -1, -0.630465, 23.1991, 35.6401, 7.92687, -73.8668, -8.83281
0.632, -1, -0.543252, 23.1646, 35.5807, 8.06993, -73.6534, -8.93225
0.636, -1, -0.456226, 23.1301, 35.5215, 8.21268, -73.4404, -9.03148
0.64, -1, -0.369389, 23.0957, 35.4624, 8.35511, -73.2279, -9.13049
0.644, -1, -0.282746, 23.0613, 35.4034, 8.49722, -73.0159, -9.22927
0.648, -1, -0.196298, 23.0271, 35.3446, 8.63901, -72.8044, -9.32783
0.652, -1, -0.110049, 22.9929, 35.2859, 8.78046, -72.5934, -9.42616
0.656, -1, -0.0240014, 22.9588, 35.2273, 8.92158, -72.3828, -9.52425
0.66, -1, 0.0618417, 22.9248, 35.1689, 9.06236, -72.1728, -9.62211
0.664, -1, 0.147478, 22.8908, 35.1106, 9.2028, -71.9633, -9.71973
0.668, -1, 0.232905, 22.857, 35.0525, 9.34289, -71.7543, -9.81711
0.672, -1, 0.318122, 22.8232, 34.9945, 9.48263, -71.5458, -9.91425
0.676, -1, 0.403125, 22.7895, 34.9367, 9.62201, -71.3379, -10.0111
0.68, -1, 0.487913, 22.7559, 34.879, 9.76104, -71.1304, -10.1078
0.684, -1, 0.572484, 22.7224, 34.8215, 9.8997, -70.9236, -10.2042
0.688, -1, 0.656834, 22.689, 34.7641, 10.038, -70.7173, -10.3003
0.692, -1, 0.740962, 22.6557, 34.7069, 10.1759, -70.5115, -10.3962
0.696, -1, 0.824867, 22.6224, 34.6498, 10.3135, -70.3062, -10.4918
0.7, -1, 0.908546, 22.5892, 34.5929, 10.4507, -70.1016, -10.5872
0.704, -1, 0.991999, 22.5562, 34.5361, 10.5875, -69.8974, -10.6823
0.708, -1, 1.07522, 22.5232, 34.4795, 10.7239, -69.6939, -10.7771
0.712, -1, 1.15822, 22.4903, 34.423, 10.86, -69.4909, -10.8717
0.716, -1, 1.24098, 22.4575, 34.3667, 10.9957, -69.2885, -10.966
0.72, -1, 1.32352, 22.4248, 34.3106, 11.131, -69.0866, -11.0601
0.724, -1, 1.40582, 22.3922, 34.2546, 11.2659, -68.8853, -11.1539
0.728, -1, 1.48788, 22.3597, 34.1988, 11.4004, -68.6846, -11.2474
0.732, -1, 1.56971, 22.3272, 34.1431, 11.5346, -68.4845, -11.3406
0.736, -1, 1.65131, 22.2949, 34.0876, 11.6683, -68.285, -11.4336
0.74, -1, 1.73267, 22.2627, 34.0323, 11.8017, -68.086, -11.5263
0.744, -1, 1.81379, 22.2305, 33.9771, 11.9347, -67.8876, -11.6187
0.748, -1, 1.89467, 22.1985, 33.9221, 12.0673, -67.6898, -11.7109
0.752, -1, 1.97531, 22.1665, 33.8672, 12.1995, -67.4926, -11.8028
0.756, -1, 2.05572, 22.1347, 33.8125, 12.3313, -67.296, -11.8944
0.76, -1, 2.13588, 22.1029, 33.758, 12.4626, -67.0999, -11.9857
0.764, -1, 2.2158, 22.0712, 33.7037, 12.5936, -66.9045, -12.0768
0.768, -1, 2.29548, 22.0397, 33.6495, 12.7243, -66.7097, -12.1676
0.772, -1, 2.37492, 22.0082, 33.5954, 12.8545, -66.5154, -12.2581
0.776, -1, 2.45412, 21.9768, 33.5416, 12.9843, -66.3217, -12.3483
0.78, -1, 2.53307, 21.9455, 33.4879, 13.1137, -66.1287, -12.4383
0.784, -1, 2.61178, 21.9143, 33.4343, 13.2427, -65.9362, -12.5279
0.788, -1, 2.69025, 21.8832, 33.381, 13.3713, -65.7444, -12.6173
0.792, -1, 2.76848, 21.8522, 33.3278, 13.4995, -65.5531, -12.7065
0.796, -1, 2.84646, 21.8213, 33.2748, 13.6273, -65.3624, -12.7953
0.8, -1, 2.92419, 21.7905, 33.2219, 13.7547, -65.1723, -12.8839
0.804, -1, 3.00168, 21.7598, 33.1692, 13.8817, -64.9829, -12.9721
0.808, -1, 3.07893, 21.7292, 33.1167, 14.0083, -64.794, -13.0602
0.812, -1, 3.15594, 21.6987, 33.0643, 14.1345, -64.6057, -13.1479
0.816, -1, 3.2327, 21.6683, 33.0121, 14.2603, -64.418, -13.2353
0.82, -1, 3.30921, 21.638, 32.9601, 14.3857, -64.231, -13.3225
0.824, -1, 3.38548, 21.6078, 32.9082, 14.5107, -64.0445, -13.4094
0.828, -1, 3.46151, 21.5776, 32.8565, 14.6353, -63.8586, -13.496
0.832, -1, 3.53729, 21.5476, 32.805, 14.7595, -63.6733, -13.5823
0.836, -1, 3.61283, 21.5177, 32.7536, 14.8833, -63.4886, -13.6684
0.84, -1, 3.68813, 21.4878, 32.7024, 15.0067, -63.3046, -13.7541
0.844, -1, 3.76318, 21.4581, 32.6514, 15.1296, -63.1211, -13.8396
0.848, -1, 3.83799, 21.4285, 32.6005, 15.2522, -62.9382, -13.9248
0.852, -1, 3.91256, 21.3989, 32.5498, 15.3744, -62.7559, -14.0098
0.856, -1, 3.98689, 21.3695, 32.4993, 15.4962, -62.5742, -14.0944
0.86, -1, 4.06097, 21.3401, 32.4489, 15.6176, -62.393, -14.1788
0.864, -1, 4.13482, 21.3109, 32.3987, 15.7386, -62.2125, -14.2629
0.868, -1, 4.20842, 21.2817, 32.3486, 15.8592, -62.0326, -14.3468
0.872, -1, 4.28179, 21.2526, 32.2988, 15.9794, -61.8533, -14.4303
0.876, -1, 4.35492, 21.2236, 32.249, 16.0993, -61.6745, -14.5136
0.88, -1, 4.42781, 21.1948, 32.1995, 16.2187, -61.4963, -14.5966
0.884, -1, 4.50047, 21.166, 32.1501, 16.3377, -61.3187, -14.6794
0.888, -1, 4.57289, 21.1373, 32.1009, 16.4564, -61.1417, -14.7619
0.892, -1, 4.64507, 21.1087, 32.0518, 16.5746, -60.9653, -14.8441
0.896, -1, 4.71702, 21.0802, 32.0029, 16.6925, -60.7895, -14.926
0.9, -1, 4.78874, 21.0517, 31.9541, 16.81, -60.6142, -15.0077
0.904, -1, 4.86022, 21.0234, 31.9055, 16.9271, -60.4395, -15.0891
0.908, -1, 4.93148, 20.9952, 31.8571, 17.0438, -60.2653, -15.1702
0.912, -1, 5.0025, 20.967, 31.8088, 17.1602, -60.0917, -15.2511
0.916, -1, 5.07329, 20.939, 31.7607, 17.2762, -59.9187, -15.3317
0.92, -1, 5.14386, 20.911, 31.7127, 17.3918, -59.7462, -15.4121
0.924, -1, 5.2142, 20.8832, 31.6649, 17.507, -59.5743, -15.4922
0.928, -1, 5.28431, 20.8554, 31.6173, 17.6218, -59.403, -15.572
0.932, -1, 5.3542, 20.8277, 31.5698, 17.7363, -59.2322, -15.6516
0.936, -1, 5.42387, 20.8001, 31.5224, 17.8505, -59.0619, -15.7309
0.94, -1, 5.49331, 20.7726, 31.4752, 17.9642, -58.8922, -15.81
0.944, -1, 5.56253, 20.7451, 31.4282, 18.0776, -58.723, -15.8888
0.948, -1, 5.63153, 20.7178, 31.3812, 18.1907, -58.5544, -15.9674
0.952, -1, 5.70032, 20.6905, 31.3345, 18.3033, -58.3862, -16.0457
0.956, -1, 5.76889, 20.6634, 31.2879, 18.4157, -58.2187, -16.1238
0.96, -1, 5.83724, 20.6363, 31.2414, 18.5276, -58.0516, -16.2017
0.964, -1, 5.90538, 20.6093, 31.1951, 18.6393, -57.8851, -16.2793
0.968, -1, 5.9733, 20.5824, 31.1489, 18.7505, -57.7191, -16.3566
0.972, -1, 6.04101, 20.5556, 31.1029, 18.8615, -57.5536, -16.4337
0.976, -1, 6.10851, 20.5288, 31.057, 18.972, -57.3886, -16.5106
0.98, -1, 6.1758, 20.5021, 31.0113, 19.0823, -57.2242, -16.5872
0.984, -1, 6.24288, 20.4756, 30.9657, 19.1922, -57.0602, -16.6636
0.988, -1, 6.30975, 20.4491, 30.9202, 19.3017, -56.8968, -16.7397
0.992, -1, 6.37641, 20.4227, 30.8749, 19.4109, -56.7339, -16.8156
0.996, -1, 6.44287, 20.3963, 30.8298, 19.5198, -56.5715, -16.8913
1, -1, 6.50913, 20.3701, 30.7847, 19.6283, -56.4095, -16.9668
1.004, -1, 6.57518, 20.3439, 30.7398, 19.7365, -56.2481, -17.042
1.008, -1, 6.64103, 20.3178, 30.6951, 19.8444, -56.0872, -17.117
1.012, -1, 6.70668, 20.2918, 30.6504, 19.9519, -55.9267, -17.1917
1.016, -1, 6.77212, 20.2659, 30.606, 20.0591, -55.7668, -17.2663
1.02, -1, 6.83737, 20.24, 30.5616, 20.166, -55.6073, -17.3406
1.024, -1, 6.90243, 20.2142, 30.5174, 20.2726, -55.4483, -17.4146
1.027, -1, 6.96728, 20.1885, 30.4733, 20.3788, -55.2898, -17.4885
1.032, -1, 7.03194, 20.1629, 30.4294, 20.4848, -55.1318, -17.5621
1.036, -1, 7.0964, 20.1374, 30.3855, 20.5904, -54.9743, -17.6355
1.04, -1, 7.16067, 20.1119, 30.3418, 20.6957, -54.8172, -17.7087
1.044, -1, 7.22475, 20.0865, 30.2983, 20.8006, -54.6606, -17.7817
1.048, -1, 7.28864, 20.0612, 30.2549, 20.9053, -54.5044, -17.8544
1.052, -1, 7.35234, 20.036, 30.2116, 21.0096, -54.3487, -17.927
1.055, -1, 7.41585, 20.0108, 30.1684, 21.1137, -54.1935, -17.9993
1.06, -1, 7.47917, 19.9857, 30.1254, 21.2174, -54.0388, -18.0714
1.064, -1, 7.5423, 19.9607, 30.0824, 21.3208, -53.8845, -18.1433
1.068, -1, 7.60525, 19.9357, 30.0397, 21.4239, -53.7307, -18.215
1.072, -1, 7.66801, 19.9109, 29.997, 21.5268, -53.5773, -18.2864
1.076, -1, 7.73058, 19.8861, 29.9545, 21.6293, -53.4243, -18.3577
1.08, -1, 7.79298, 19.8614, 29.9121, 21.7315, -53.2718, -18.4287
1.084, -1, 7.85519, 19.8367, 29.8698, 21.8334, -53.1198, -18.4996
1.088, -1, 7.91722, 19.8121, 29.8276, 21.935, -52.9682, -18.5702
1.091, -1, 7.97907, 19.7876, 29.7856, 22.0363, -52.817, -18.6407
1.096, -1, 8.04075, 19.7632, 29.7436, 22.1374, -52.6663, -18.7109
1.1, -1, 8.10224, 19.7388, 29.7018, 22.2381, -52.516, -18.7809
1.104, -1, 8.16356, 19.7145, 29.6602, 22.3386, -52.3661, -18.8507
1.108, -1, 8.2247, 19.6903, 29.6186, 22.4387, -52.2167, -18.9204
1.112, -1, 8.28567, 19.6661, 29.5772, 22.5386, -52.0677, -18.9898
1.116, -1, 8.34646, 19.642, 29.5358, 22.6382, -51.9191, -19.059
1.119, -1, 8.40708, 19.618, 29.4946, 22.7375, -51.771, -19.128
1.124, -1, 8.46752, 19.5941, 29.4536, 22.8365, -51.6233, -19.1969
1.128, -1, 8.5278, 19.5702, 29.4126, 22.9353, -51.4759, -19.2655
1.132, -1, 8.5879, 19.5464, 29.3717, 23.0337, -51.329, -19.334
1.136, -1, 8.64784, 19.5226, 29.331, 23.1319, -51.1826, -19.4022
1.14, -1, 8.70761, 19.4989, 29.2904, 23.2298, -51.0365, -19.4703
1.144, -1, 8.76721, 19.4753, 29.2499, 23.3274, -50.8908, -19.5381
1.147, -1, 8.82664, 19.4518, 29.2095, 23.4248, -50.7456, -19.6058
1.152, -1, 8.88591, 19.4283, 29.1692, 23.5219, -50.6007, -19.6733
1.156, -1, 8.94502, 19.4049, 29.129, 23.6187, -50.4563, -19.7406
1.16, -1, 9.00397, 19.3815, 29.0889, 23.7153, -50.3122, -19.8077
1.164, -1, 9.06275, 19.3582, 29.049, 23.8116, -50.1686, -19.8747
1.168, -1, 9.12137, 19.335, 29.0091, 23.9076, -50.0253, -19.9414
1.172, -1, 9.17983, 19.3118, 28.9694, 24.0034, -49.8825, -20.008
1.175, -1, 9.23814, 19.2887, 28.9298, 24.0989, -49.74, -20.0744
1.18, -1, 9.29628, 19.2657, 28.8903, 24.1941, -49.5979, -20.1406
1.184, -1, 9.35427, 19.2427, 28.8508, 24.2891, -49.4562, -20.2066
1.188, -1, 9.4121, 19.2198, 28.8115, 24.3838, -49.3148, -20.2724
1.192, -1, 9.46978, 19.1969, 28.7723, 24.4783, -49.1739, -20.3381
1.196, -1, 9.5273, 19.1741, 28.7332, 24.5725, -49.0333, -20.4036
1.2, -1, 9.58467, 19.1514, 28.6943, 24.6665, -48.8931, -20.4689
1.204, -1, 9.64189, 19.1287, 28.6554, 24.7602, -48.7533, -20.5341
1.208, -1, 9.69896, 19.1061, 28.6166, 24.8537, -48.6138, -20.5991
1.212, -1, 9.75588, 19.0836, 28.5779, 24.947, -48.4747, -20.6639
1.216, -1, 9.81265, 19.0611, 28.5393, 25.0399, -48.336, -20.7285
1.22, -1, 9.86927, 19.0386, 28.5008, 25.1327, -48.1976, -20.793
1.224, -1, 9.92575, 19.0163, 28.4624, 25.2252, -48.0596, -20.8573
1.228, -1, 9.98208, 18.9939, 28.4241, 25.3175, -47.9219, -20.9215
1.232, -1, 10.0383, 18.9717, 28.386, 25.4095, -47.7846, -20.9854
1.236, -1, 10.0943, 18.9495, 28.3479, 25.5013, -47.6476, -21.0493
1.24, -1, 10.1502, 18.9273, 28.3099, 25.5929, -47.511, -21.1129
1.244, -1, 10.206, 18.9052, 28.272, 25.6842, -47.3748, -21.1764
1.248, -1, 10.2616, 18.8832, 28.2342, 25.7753, -47.2388, -21.2397
1.252, -1, 10.3171, 18.8612, 28.1965, 25.8662, -47.1033, -21.3029
1.256, -1, 10.3724, 18.8393, 28.1589, 25.9569, -46.968, -21.3659
1.26, -1, 10.4276, 18.8174, 28.1213, 26.0473, -46.8331, -21.4288
1.264, -1, 10.4827, 18.7956, 28.0839, 26.1375, -46.6986, -21.4915
1.267, -1, 10.5376, 18.7738, 28.0466, 26.2275, -46.5643, -21.554
1.272, -1, 10.5924, 18.7521, 28.0093, 26.3172, -46.4304, -21.6164
1.276, -1, 10.647, 18.7304, 27.9722, 26.4067, -46.2969, -21.6786
1.28, -1, 10.7016, 18.7088, 27.9351, 26.4961, -46.1636, -21.7407
1.284, -1, 10.7559, 18.6873, 27.8982, 26.5851, -46.0307, -21.8027
1.288, -1, 10.8102, 18.6658, 27.8613, 26.674, -45.8981, -21.8644
1.292, -1, 10.8643, 18.6443, 27.8245, 26.7627, -45.7658, -21.9261
1.295, -1, 10.9183, 18.6229, 27.7878, 26.8511, -45.6339, -21.9875
1.3, -1, 10.9722, 18.6016, 27.7512, 26.9394, -45.5022, -22.0489
1.304, -1, 11.0259, 18.5803, 27.7147, 27.0274, -45.3709, -22.1101
1.308, -1, 11.0796, 18.5591, 27.6782, 27.1152, -45.2399, -22.1711
1.312, -1, 11.133, 18.5379, 27.6419, 27.2028, -45.1092, -22.232
1.316, -1, 11.1864, 18.5167, 27.6056, 27.2902, -44.9788, -22.2928
1.32, -1, 11.2396, 18.4956, 27.5695, 27.3774, -44.8487, -22.3534
1.324, -1, 11.2927, 18.4746, 27.5334, 27.4644, -44.719, -22.4138
1.328, -1, 11.3457, 18.4536, 27.4974, 27.5512, -44.5895, -22.4742
1.332, -1, 11.3986, 18.4327, 27.4614, 27.6378, -44.4603, -22.5344
1.336, -1, 11.4513, 18.4118, 27.4256, 27.7241, -44.3314, -22.5944
1.34, -1, 11.5039, 18.3909, 27.3898, 27.8103, -44.2029, -22.6543
1.344, -1, 11.5564, 18.3701, 27.3542, 27.8963, -44.0746, -22.7141
1.348, -1, 11.6088, 18.3494, 27.3186, 27.9821, -43.9466, -22.7737
1.352, -1, 11.661, 18.3287, 27.2831, 28.0677, -43.8189, -22.8332
1.356, -1, 11.7132, 18.308, 27.2476, 28.1531, -43.6915, -22.8926
1.36, -1, 11.7652, 18.2874, 27.2123, 28.2383, -43.5644, -22.9518
1.364, -1, 11.8171, 18.2668, 27.177, 28.3233, -43.4376, -23.0109
1.368, -1, 11.8688, 18.2463, 27.1418, 28.4081, -43.3111, -23.0698
1.372, -1, 11.9205, 18.2259, 27.1067, 28.4927, -43.1848, -23.1286
1.376, -1, 11.972, 18.2054, 27.0717, 28.5771, -43.0589, -23.1873
1.38, -1, 12.0235, 18.1851, 27.0367, 28.6614, -42.9332, -23.2459
1.384, -1, 12.0748, 18.1647, 27.0018, 28.7454, -42.8078, -23.3043
1.388, -1, 12.126, 18.1444, 26.967, 28.8293, -42.6827, -23.3626
1.392, -1, 12.1771, 18.1242, 26.9323, 28.913, -42.5578, -23.4208
1.396, -1, 12.228, 18.104, 26.8977, 28.9965, -42.4333, -23.4788
1.4, -1, 12.2789, 18.0839, 26.8631, 29.0798, -42.309, -23.5367
1.404, -1, 12.3296, 18.0637, 26.8286, 29.1629, -42.185, -23.5945
1.408, -1, 12.3803, 18.0437, 26.7942, 29.2459, -42.0612, -23.6522
1.412, -1, 12.4308, 18.0237, 26.7599, 29.3286, -41.9377, -23.7097
1.416, -1, 12.4812, 18.0037, 26.7256, 29.4112, -41.8145, -23.7671
1.42, -1, 12.5315, 17.9838, 26.6914, 29.4936, -41.6915, -23.8244
1.424, -1, 12.5817, 17.9639, 26.6573, 29.5759, -41.5689, -23.8816
1.428, -1, 12.6318, 17.944, 26.6232, 29.6579, -41.4464, -23.9386
1.432, -1, 12.6818, 17.9242, 26.5893, 29.7398, -41.3243, -23.9956
1.436, -1, 12.7317, 17.9044, 26.5554, 29.8215, -41.2024, -24.0523
1.44, -1, 12.7815, 17.8847, 26.5215, 29.9031, -41.0807, -24.109
1.444, -1, 12.8311, 17.865, 26.4878, 29.9844, -40.9594, -24.1656
1.448, -1, 12.8807, 17.8454, 26.4541, 30.0656, -40.8382, -24.222
1.452, -1, 12.9302, 17.8258, 26.4205, 30.1466, -40.7174, -24.2783
1.456, -1, 12.9795, 17.8062, 26.3869, 30.2275, -40.5967, -24.3345
1.46, -1, 13.0288, 17.7867, 26.3534, 30.3082, -40.4764, -24.3906
1.464, -1, 13.0779, 17.7673, 26.32, 30.3887, -40.3563, -24.4466
1.468, -1, 13.127, 17.7478, 26.2867, 30.469, -40.2364, -24.5024
1.472, -1, 13.1759, 17.7284, 26.2534, 30.5492, -40.1168, -24.5582
1.476, -1, 13.2248, 17.7091, 26.2202, 30.6292, -39.9974, -24.6138
1.48, -1, 13.2735, 17.6898, 26.1871, 30.7091, -39.8783, -24.6693
1.484, -1, 13.3222, 17.6705, 26.154, 30.7888, -39.7594, -24.7247
1.488, -1, 13.3707, 17.6512, 26.121, 30.8683, -39.6407, -24.78
1.492, -1, 13.4191, 17.6321, 26.0881, 30.9476, -39.5223, -24.8351
1.496, -1, 13.4675, 17.6129, 26.0553, 31.0268, -39.4042, -24.8902
1.5, -1, 13.5157, 17.5938, 26.0225, 31.1059, -39.2863, -24.9451
1.504, -1, 13.5639, 17.5747, 25.9897, 31.1848, -39.1686, -25
1.508, -1, 13.612, 17.5557, 25.9571, 31.2635, -39.0511, -25.0547
1.512, -1, 13.6599, 17.5366, 25.9245, 31.3421, -38.9339, -25.1093
1.516, -1, 13.7078, 17.5177, 25.8919, 31.4205, -38.8169, -25.1638
1.52, -1, 13.7556, 17.4988, 25.8595, 31.4987, -38.7002, -25.2182
1.524, -1, 13.8032, 17.4799, 25.8271, 31.5768, -38.5837, -25.2725
1.528, -1, 13.8508, 17.461, 25.7947, 31.6548, -38.4674, -25.3267
1.532, -1, 13.8983, 17.4422, 25.7624, 31.7326, -38.3513, -25.3808
1.536, -1, 13.9457, 17.4234, 25.7302, 31.8102, -38.2355, -25.4347
1.54, -1, 13.993, 17.4047, 25.6981, 31.8877, -38.1199, -25.4886
1.544, -1, 14.0402, 17.386, 25.666, 31.965, -38.0045, -25.5424
1.548, -1, 14.0874, 17.3673, 25.634, 32.0422, -37.8893, -25.596
1.552, -1, 14.1344, 17.3486, 25.602, 32.1193, -37.7744, -25.6496
1.556, -1, 14.1813, 17.33, 25.5701, 32.1962, -37.6597, -25.703
1.56, -1, 14.2282, 17.3115, 25.5382, 32.2729, -37.5452, -25.7564
1.564, -1, 14.275, 17.2929, 25.5065, 32.3495, -37.4309, -25.8096
1.568, -1, 14.3216, 17.2745, 25.4747, 32.426, -37.3168, -25.8628
1.572, -1, 14.3682, 17.256, 25.4431, 32.5023, -37.2029, -25.9158
1.576, -1, 14.4147, 17.2376, 25.4115, 32.5785, -37.0893, -25.9688
1.58, -1, 14.4611, 17.2192, 25.3799, 32.6545, -36.9758, -26.0216
1.584, -1, 14.5075, 17.2008, 25.3484, 32.7304, -36.8626, -26.0744
1.588, -1, 14.5537, 17.1825, 25.317, 32.8062, -36.7496, -26.1271
1.592, -1, 14.5999, 17.1642, 25.2856, 32.8818, -36.6368, -26.1796
1.596, -1, 14.6459, 17.1459, 25.2543, 32.9573, -36.5242, -26.2321
1.6, -1, 14.6919, 17.1277, 25.2231, 33.0326, -36.4118, -26.2844
1.604, -1, 14.7378, 17.1095, 25.1919, 33.1078, -36.2996, -26.3367
1.608, -1, 14.7837, 17.0914, 25.1607, 33.1829, -36.1877, -26.3889
1.612, -1, 14.8294, 17.0733, 25.1296, 33.2578, -36.0759, -26.441
1.616, -1, 14.875, 17.0552, 25.0986, 33.3326, -35.9643, -26.493
1.62, -1, 14.9206, 17.0371, 25.0676, 33.4072, -35.8529, -26.5448
1.624, -1, 14.9661, 17.0191, 25.0367, 33.4817, -35.7418, -26.5966
1.628, -1, 15.0115, 17.0011, 25.0058, 33.5561, -35.6308, -26.6483
1.632, -1, 15.0568, 16.9831, 24.975, 33.6304, -35.52, -26.7
1.636, -1, 15.1021, 16.9652, 24.9443, 33.7045, -35.4094, -26.7515
1.64, -1, 15.1472, 16.9473, 24.9136, 33.7785, -35.2991, -26.8029
1.644, -1, 15.1923, 16.9294, 24.8829, 33.8523, -35.1889, -26.8543
1.648, -1, 15.2373, 16.9116, 24.8524, 33.9261, -35.0789, -26.9055
1.652, -1, 15.2822, 16.8938, 24.8218, 33.9997, -34.9691, -26.9567
1.656, -1, 15.3271, 16.876, 24.7913, 34.0731, -34.8595, -27.0077
1.66, -1, 15.3719, 16.8583, 24.7609, 34.1465, -34.75, -27.0587
1.664, -1, 15.4166, 16.8406, 24.7305, 34.2197, -34.6408, -27.1096
1.668, -1, 15.4612, 16.8229, 24.7002, 34.2928, -34.5318, -27.1604
1.672, -1, 15.5057, 16.8053, 24.6699, 34.3657, -34.4229, -27.2111
1.676, -1, 15.5502, 16.7876, 24.6397, 34.4386, -34.3143, -27.2618
1.68, -1, 15.5946, 16.7701, 24.6095, 34.5113, -34.2058, -27.3123
1.684, -1, 15.6389, 16.7525, 24.5794, 34.5839, -34.0975, -27.3628
1.688, -1, 15.6831, 16.735, 24.5494, 34.6563, -33.9894, -27.4131
1.692, -1, 15.7272, 16.7175, 24.5193, 34.7287, -33.8815, -27.4634
1.696, -1, 15.7713, 16.7, 24.4894, 34.8009, -33.7737, -27.5136
1.7, -1, 15.8153, 16.6826, 24.4595, 34.873, -33.6662, -27.5637
1.704, -1, 15.8593, 16.6652, 24.4296, 34.945, -33.5588, -27.6138
1.708, -1, 15.9031, 16.6478, 24.3998, 35.0168, -33.4516, -27.6637
1.712, -1, 15.9469, 16.6304, 24.37, 35.0886, -33.3446, -27.7136
1.716, -1, 15.9906, 16.6131, 24.3403, 35.1602, -33.2377, -27.7634
1.72, -1, 16.0343, 16.5958, 24.3107, 35.2317, -33.1311, -27.8131
1.724, -1, 16.0778, 16.5786, 24.281, 35.303, -33.0246, -27.8627
1.728, -1, 16.1213, 16.5613, 24.2515, 35.3743, -32.9183, -27.9122
1.732, -1, 16.1648, 16.5441, 24.222, 35.4454, -32.8121, -27.9617
1.736, -1, 16.2081, 16.5269, 24.1925, 35.5165, -32.7062, -28.011
1.74, -1, 16.2514, 16.5098, 24.1631, 35.5874, -32.6004, -28.0603
1.744, -1, 16.2946, 16.4927, 24.1337, 35.6582, -32.4947, -28.1096
1.748, -1, 16.3378, 16.4756, 24.1044, 35.7289, -32.3893, -28.1587
1.752, -1, 16.3808, 16.4585, 24.0751, 35.7994, -32.284, -28.2077
1.756, -1, 16.4238, 16.4414, 24.0459, 35.8699, -32.1789, -28.2567
1.76, -1, 16.4668, 16.4244, 24.0167, 35.9402, -32.074, -28.3056
1.764, -1, 16.5096, 16.4074, 23.9875, 36.0105, -31.9692, -28.3544
1.768, -1, 16.5524, 16.3905, 23.9584, 36.0806, -31.8646, -28.4032
1.772, -1, 16.5952, 16.3736, 23.9294, 36.1506, -31.7602, -28.4518
1.776, -1, 16.6378, 16.3566, 23.9004, 36.2205, -31.6559, -28.5004
1.78, -1, 16.6804, 16.3398, 23.8714, 36.2902, -31.5518, -28.5489
1.784, -1, 16.7229, 16.3229, 23.8425, 36.3599, -31.4478, -28.5973
1.788, -1, 16.7654, 16.3061, 23.8137, 36.4295, -31.344, -28.6457
1.792, -1, 16.8078, 16.2893, 23.7849, 36.4989, -31.2404, -28.694
1.796, -1, 16.8501, 16.2725, 23.7561, 36.5683, -31.137, -28.7422
1.8, -1, 16.8924, 16.2558, 23.7274, 36.6375, -31.0337, -28.7903
1.804, -1, 16.9346, 16.239, 23.6987, 36.7067, -30.9305, -28.8384
1.808, -1, 16.9767, 16.2224, 23.67, 36.7757, -30.8276, -28.8863
1.812, -1, 17.0188, 16.2057, 23.6414, 36.8446, -30.7248, -28.9343
1.816, -1, 17.0608, 16.189, 23.6129, 36.9134, -30.6221, -28.9821
1.82, -1, 17.1027, 16.1724, 23.5844, 36.9821, -30.5196, -29.0298
1.824, -1, 17.1445, 16.1559, 23.5559, 37.0507, -30.4172, -29.0775
1.828, -1, 17.186, 16.1394, 23.5275, 37.1192, -30.3151, -29.1251
1.832, -1, 17.2272, 16.1231, 23.4991, 37.1876, -30.2131, -29.1727
1.836, -1, 17.2677, 16.107, 23.4708, 37.2557, -30.1114, -29.2201
1.84, -1, 17.3076, 16.0912, 23.4426, 37.3237, -30.01, -29.2673
1.844, -1, 17.3467, 16.0757, 23.4146, 37.3913, -29.9092, -29.3143
1.848, -1, 17.3848, 16.0608, 23.3867, 37.4584, -29.8092, -29.3609
1.852, -1, 17.422, 16.0463, 23.3592, 37.5247, -29.7102, -29.407
1.856, -1, 17.458, 16.0323, 23.332, 37.59, -29.6128, -29.4524
1.86, -1, 17.4929, 16.019, 23.3054, 37.654, -29.5174, -29.4969
1.864, -1, 17.5264, 16.0063, 23.2795, 37.7163, -29.4245, -29.5402
1.868, -1, 17.5585, 15.9944, 23.2545, 37.7765, -29.3348, -29.582
1.872, -1, 17.589, 15.9832, 23.2306, 37.8341, -29.2489, -29.6221
1.876, -1, 17.6179, 15.9726, 23.2078, 37.8888, -29.1674, -29.66
1.88, -1, 17.6452, 15.9627, 23.1865, 37.94, -29.0911, -29.6956
1.884, -1, 17.6708, 15.9533, 23.1668, 37.9874, -29.0204, -29.7286
1.888, -1, 17.6949, 15.9443, 23.1489, 38.0306, -28.9559, -29.7586
1.892, -1, 17.7175, 15.9356, 23.1327, 38.0695, -28.8979, -29.7857
1.896, -1, 17.7385, 15.9272, 23.1184, 38.1039, -28.8466, -29.8096
1.9, -1, 17.758, 15.9192, 23.106, 38.1339, -28.8018, -29.8304
1.904, -1, 17.7759, 15.9115, 23.0954, 38.1595, -28.7636, -29.8482
1.908, -1, 17.792, 15.9045, 23.0865, 38.181, -28.7315, -29.8632
1.912, -1, 17.8065, 15.898, 23.0792, 38.1987, -28.7051, -29.8755
1.916, -1, 17.8195, 15.8921, 23.0733, 38.2129, -28.6838, -29.8854
1.92, -1, 17.831, 15.8868, 23.0687, 38.2241, -28.667, -29.8932
1.924, -1, 17.8411, 15.8821, 23.0652, 38.2327, -28.6542, -29.8991
1.928, -1, 17.85, 15.8781, 23.0626, 38.2391, -28.6446, -29.9036
1.932, -1, 17.8576, 15.8747, 23.0607, 38.2438, -28.6375, -29.9068
1.936, -1, 17.8638, 15.872, 23.0593, 38.2471, -28.6325, -29.9091
1.94, 2, 17.8689, 15.8698, 23.0584, 38.2494, -28.629, -29.9108
1.944, 2, 17.8727, 15.8682, 23.0577, 38.251, -28.6266, -29.9119
1.948, 2, 17.8755, 15.867, 23.0573, 38.2521, -28.625, -29.9126
1.952, 2, 17.8775, 15.8662, 23.057, 38.2528, -28.6239, -29.9131
1.956, 2, 17.8788, 15.8657, 23.0568, 38.2533, -28.6231, -29.9135
1.96, 2, 17.8797, 15.8653, 23.0567, 38.2537, -28.6226, -29.9137
1.964, 2, 17.8803, 15.8651, 23.0566, 38.2539, -28.6222, -29.9139
1.968, 2, 17.8807, 15.8649, 23.0565, 38.254, -28.622, -29.914
1.972, 2, 17.881, 15.8648, 23.0565, 38.2541, -28.6219, -29.9141
1.976, 2, 17.8812, 15.8647, 23.0564, 38.2542, -28.6217, -29.9141
1.98, 2, 17.8813, 15.8647, 23.0564, 38.2543, -28.6217, -29.9142
1.984, 2, 17.8814, 15.8646, 23.0564, 38.2543, -28.6216, -29.9142
1.988, 2, 17.8814, 15.8646, 23.0564, 38.2543, -28.6216, -29.9142
1.992, 2, 17.8815, 15.8646, 23.0564, 38.2543, -28.6216, -29.9142
1.996, 2, 17.8815, 15.8646, 23.0564, 38.2543, -28.6216, -29.9142
1.999, 2, 17.8815, 15.8646, 23.0564, 38.2544, -28.6215, -29.9142
2.004, 2, 17.8815, 15.8646, 23.0564, 38.2544, -28.6215, -29.9142
2.008, 2, 17.8816, 15.8646, 23.0564, 38.2544, -28.6215, -29.9142
2.012, 2, 17.8816, 15.8646, 23.0564, 38.2544, -28.6215, -29.9142
2.015, 2, 17.8816, 15.8646, 23.0564, 38.2544, -28.6215, -29.9142
2.019, 2, 17.8816, 15.8646, 23.0564, 38.2544, -28.6215, -29.9142
2.024, 2, 17.8816, 15.8646, 23.0564, 38.2544, -28.6215, -29.9142
2.028, 2, 17.8816, 15.8645, 23.0564, 38.2544, -28.6215, -29.9142
2.031, 2, 17.8816, 15.8645, 23.0564, 38.2544, -28.6215, -29.9142
2.036, 2, 17.8816, 15.8645, 23.0564, 38.2544, -28.6215, -29.9142
2.04, 2, 17.8816, 15.8645, 23.0564, 38.2544, -28.6215, -29.9142
2.044, 2, 17.8816, 15.8645, 23.0564, 38.2544, -28.6215, -29.9142
2.048, 2, 17.8816, 15.8645, 23.0564, 38.2544, -28.6215, -29.9142
2.051, 2, 17.8816, 15.8645, 23.0564, 38.2544, -28.6215, -29.9142
2.055, 2, 17.8816, 15.8645, 23.0564, 38.2544, -28.6215, -29.9142
2.06, 2, 17.8816, 15.8645, 23.0564, 38.2544, -28.6215, -29.9142
2.064, 2, 17.8816, 15.8645, 23.0564, 38.2544, -28.6215, -29.9142
2.068, 2, 17.8816, 15.8645, 23.0564, 38.2544, -28.6215, -29.9142
2.071, 2, 17.8816, 15.8645, 23.0564, 38.2544, -28.6215, -29.9142
2.076, 2, 17.8816, 15.8645, 23.0564, 38.2544, -28.6215, -29.9142
2.08, 2, 17.8816, 15.8645, 23.0564, 38.2544, -28.6215, -29.9142
2.084, 2, 17.8816, 15.8645, 23.0564, 38.2544, -28.6215, -29.9142
2.087, 2, 17.8816, 15.8645, 23.0564, 38.2544, -28.6215, -29.9142
2.092, 2, 17.8816, 15.8645, 23.0564, 38.2544, -28.6215, -29.9142
2.096, 2, 17.8816, 15.8645, 23.0564, 38.2544, -28.6215, -29.9142
2.1, 2, 17.8816, 15.8645, 23.0564, 38.2544, -28.6215, -29.9142
2.104, 2, 17.8816, 15.8645, 23.0564, 38.2544, -28.6215, -29.9142
2.107, 2, 17.8816, 15.8645, 23.0564, 38.2544, -28.6215, -29.9142
2.111, 2, 17.8816, 15.8645, 23.0564, 38.2544, -28.6215, -29.9142
2.116, 2, 17.8816, 15.8645, 23.0564, 38.2544, -28.6215, -29.9142
2.12, 2, 17.8816, 15.8645, 23.0564, 38.2544, -28.6215, -29.9142
2.124, 2, 17.8816, 15.8645, 23.0564, 38.2544, -28.6215, -29.9142
2.127, 2, 17.8816, 15.8645, 23.0564, 38.2544, -28.6215, -29.9142
2.132, 2, 17.8816, 15.8645, 23.0564, 38.2544, -28.6215, -29.9142
2.136, 2, 17.8816, 15.8645, 23.0564, 38.2544, -28.6215, -29.9142
2.14, 2, 17.8816, 15.8645, 23.0564, 38.2544, -28.6215, -29.9142
2.143, 2, 17.8816, 15.8645, 23.0564, 38.2544, -28.6215, -29.9142
2.148, 2, 17.8816, 15.8645, 23.0564, 38.2544, -28.6215, -29.9142
2.152, 2, 17.8816, 15.8645, 23.0564, 38.2544, -28.6215, -29.9142
2.156, 2, 17.8816, 15.8645, 23.0564, 38.2544, -28.6215, -29.9142
2.16, 2, 17.8816, 15.8645, 23.0564, 38.2544, -28.6215, -29.9142
2.163, 2, 17.8816, 15.8645, 23.0564, 38.2544, -28.6215, -29.9142
2.168, 2, 17.8816, 15.8645, 23.0564, 38.2544, -28.6215, -29.9142
2.172, 2, 17.8816, 15.8645, 23.0564, 38.2544, -28.6215, -29.9142
2.176, 2, 17.8816, 15.8645, 23.0564, 38.2544, -28.6215, -29.9142
2.179, 2, 17.8816, 15.8645, 23.0564, 38.2544, -28.6215, -29.9142
2.184, 2, 17.8816, 15.8645, 23.0564, 38.2544, -28.6215, -29.9142
2.188, 2, 17.8816, 15.8645, 23.0564, 38.2544, -28.6215, -29.9142
2.192, 2, 17.8816, 15.8645, 23.0564, 38.2544, -28.6215, -29.9142
2.196, 2, 17.8816, 15.8645, 23.0564, 38.2544, -28.6215, -29.9142
2.199, 2, 17.8816, 15.8645, 23.0564, 38.2544, -28.6215, -29.9142
2.204, 2, 17.8816, 15.8645, 23.0564, 38.2544, -28.6215, -29.9142
2.208, 2, 17.8816, 15.8645, 23.0564, 38.2544, -28.6215, -29.9142
2.212, 2, 17.8816, 15.8645, 23.0564, 38.2544, -28.6215, -29.9142
2.216, 2, 17.8816, 15.8645, 23.0564, 38.2544, -28.6215, -29.9142
2.219, 2, 17.8816, 15.8645, 23.0564, 38.2544, -28.6215, -29.9142
2.224, 2, 17.8816, 15.8645, 23.0564, 38.2544, -28.6215, -29.9142
2.228, 2, 17.8816, 15.8645, 23.0564, 38.2544, -28.6215, -29.9142
2.232, 2, 17.8816, 15.8645, 23.0564, 38.2544, -28.6215, -29.9142
2.235, 2, 17.8816, 15.8645, 23.0564, 38.2544, -28.6215, -29.9142
2.24, 2, 17.8816, 15.8645, 23.0564, 38.2544, -28.6215, -29.9142
2.244, 2, 17.8816, 15.8645, 23.0564, 38.2544, -28.6215, -29.9142
2.248, 2, 17.8816, 15.8645, 23.0564, 38.2544, -28.6215, -29.9142
2.252, 2, 17.8816, 15.8645, 23.0564, 38.2544, -28.6215, -29.9142
2.255, 2, 17.8816, 15.8645, 23.0564, 38.2544, -28.6215, -29.9142
2.259, 2, 17.8816, 15.8645, 23.0564, 38.2544, -28.6215, -29.9142
2.264, 2, 17.8816, 15.8645, 23.0564, 38.2544, -28.6215, -29.9142
2.268, 2, 17.8816, 15.8645, 23.0564, 38.2544, -28.6215, -29.9142
2.272, 2, 17.8816, 15.8645, 23.0564, 38.2544, -28.6215, -29.9142
2.275, 2, 17.8816, 15.8645, 23.0564, 38.2544, -28.6215, -29.9142
2.28, 2, 17.8816, 15.8645, 23.0564, 38.2544, -28.6215, -29.9142
2.284, 2, 17.8816, 15.8645, 23.0564, 38.2544, -28.6215, -29.9142
2.288, 2, 17.8816, 15.8645, 23.0564, 38.2544, -28.6215, -29.9142
2.291, 2, 17.8816, 15.8645, 23.0564, 38.2544, -28.6215, -29.9142
2.296, 2, 17.8816, 15.8645, 23.0564, 38.2544, -28.6215, -29.9142
2.3, 2, 17.8816, 15.8645, 23.0564, 38.2544, -28.6215, -29.9142
2.304, 2, 17.8816, 15.8645, 23.0564, 38.2544, -28.6215, -29.9142
2.308, 2, 17.8816, 15.8645, 23.0564, 38.2544, -28.6215, -29.9142
2.311, 2, 17.8816, 15.8645, 23.0564, 38.2544, -28.6215, -29.9142
2.316, 2, 17.8816, 15.8645, 23.0564, 38.2544, -28.6215, -29.9142
2.32, 2, 17.8816, 15.8645, 23.0564, 38.2544, -28.6215, -29.9142
2.324, 2, 17.8816, 15.8645, 23.0564, 38.2544, -28.6215, -29.9142
2.328, 2, 17.8816, 15.8645, 23.0564, 38.2544, -28.6215, -29.9142
2.331, 2, 17.8816, 15.8645, 23.0564, 38.2544, -28.6215, -29.9142
2.336, 2, 17.8816, 15.8645, 23.0564, 38.2544, -28.6215, -29.9142
2.34, 2, 17.8816, 15.8645, 23.0564, 38.2544, -28.6215, -29.9142
2.344, 2, 17.8816, 15.8645, 23.0564, 38.2544, -28.6215, -29.9142
2.347, 2, 17.8816, 15.8645, 23.0564, 38.2544, -28.6215, -29.9142
2.352, 2, 17.8816, 15.8645, 23.0564, 38.2544, -28.6215, -29.9142
2.356, 2, 17.8816, 15.8645, 23.0564, 38.2544, -28.6215, -29.9142
2.36, 2, 17.8816, 15.8645, 23.0564, 38.2544, -28.6215, -29.9142
2.364, 2, 17.8816, 15.8645, 23.0564, 38.2544, -28.6215, -29.9142
2.367, 2, 17.8816, 15.8645, 23.0564, 38.2544, -28.6215, -29.9142
2.372, 2, 17.8816, 15.8645, 23.0564, 38.2544, -28.6215, -29.9142
2.376, 2, 17.8816, 15.8645, 23.0564, 38.2544, -28.6215, -29.9142
2.38, 2, 17.8816, 15.8645, 23.0564, 38.2544, -28.6215, -29.9142
2.383, 2, 17.8816, 15.8645, 23.0564, 38.2544, -28.6215, -29.9142
2.388, 2, 17.8816, 15.8645, 23.0564, 38.2544, -28.6215, -29.9142
2.392, 2, 17.8816, 15.8645, 23.0564, 38.2544, -28.6215, -29.9142
2.396, 2, 17.8816, 15.8645, 23.0564, 38.2544, -28.6215, -29.9142
2.4, 2, 17.8816, 15.8645, 23.0564, 38.2544, -28.6215, -29.9142
2.403, 2, 17.8816, 15.8645, 23.0564, 38.2544, -28.6215, -29.9142
2.408, 2, 17.8816, 15.8645, 23.0564, 38.2544, -28.6215, -29.9142
2.412, 2, 17.8816, 15.8645, 23.0564, 38.2544, -28.6215, -29.9142
2.416, 2, 17.8816, 15.8645, 23.0564, 38.2544, -28.6215, -29.9142
2.42, 2, 17.8816, 15.8645, 23.0564, 38.2544, -28.6215, -29.9142
2.423, 2, 17.8816, 15.8645, 23.0564, 38.2544, -28.6215, -29.9142
2.428, 2, 17.8816, 15.8645, 23.0564, 38.2544, -28.6215, -29.9142
2.432, 2, 17.8816, 15.8645, 23.0564, 38.2544, -28.6215, -29.9142
2.436, 2, 17.8816, 15.8645, 23.0564, 38.2544, -28.6215, -29.9142
2.439, 2, 17.8816, 15.8645, 23.0564, 38.2544, -28.6215, -29.9142
2.444, 2, 17.8816, 15.8645, 23.0564, 38.2544, -28.6215, -29.9142
2.448, 2, 17.8816, 15.8645, 23.0564, 38.2544, -28.6215, -29.9142
2.452, 2, 17.8816, 15.8645, 23.0564, 38.2544, -28.6215, -29.9142
2.456, 2, 17.8816, 15.8645, 23.0564, 38.2544, -28.6215, -29.9142
2.459, 2, 17.8816, 15.8645, 23.0564, 38.2544, -28.6215, -29.9142
2.464, 2, 17.8816, 15.8645, 23.0564, 38.2544, -28.6215, -29.9142
2.468, 2, 17.8816, 15.8645, 23.0564, 38.2544, -28.6215, -29.9142
2.472, 2, 17.8816, 15.8645, 23.0564, 38.2544, -28.6215, -29.9142
2.476, 2, 17.8816, 15.8645, 23.0564, 38.2544, -28.6215, -29.9142
2.479, 2, 17.8816, 15.8645, 23.0564, 38.2544, -28.6215, -29.9142
2.484, 2, 17.8816, 15.8645, 23.0564, 38.2544, -28.6215, -29.9142
2.488, 2, 17.8816, 15.8645, 23.0564, 38.2544, -28.6215, -29.9142
2.492, 2, 17.8816, 15.8645, 23.0564, 38.2544, -28.6215, -29.9142
2.495, 2, 17.8816, 15.8645, 23.0564, 38.2544, -28.6215, -29.9142
2.5, 2, 17.8816, 15.8645, 23.0564, 38.2544, -28.6215, -29.9142
2.504, 2, 17.8816, 15.8645, 23.0564, 38.2544, -28.6215, -29.9142
2.508, 2, 17.8816, 15.8645, 23.0564, 38.2544, -28.6215, -29.9142
2.512, 2, 17.8816, 15.8645, 23.0564, 38.2544, -28.6215, -29.9142
2.515, 2, 17.8816, 15.8645, 23.0564, 38.2544, -28.6215, -29.9142
2.52, 2, 17.8816, 15.8645, 23.0564, 38.2544, -28.6215, -29.9142
2.524, 2, 17.8816, 15.8645, 23.0564, 38.2544, -28.6215, -29.9142
2.528, 2, 17.8816, 15.8645, 23.0564, 38.2544, -28.6215, -29.9142
2.531, 2, 17.8816, 15.8645, 23.0564, 38.2544, -28.6215, -29.9142
2.536, 2, 17.8816, 15.8645, 23.0564, 38.2544, -28.6215, -29.9142
2.54, 2, 17.8816, 15.8645, 23.0564, 38.2544, -28.6215, -29.9142
2.544, 2, 17.8816, 15.8645, 23.0564, 38.2544, -28.6215, -29.9142
2.548, 2, 17.8816, 15.8645, 23.0564, 38.2544, -28.6215, -29.9142
2.551, 2, 17.8816, 15.8645, 23.0564, 38.2544, -28.6215, -29.9142
2.556, 2, 17.8816, 15.8645, 23.0564, 38.2544, -28.6215, -29.9142
2.56, 2, 17.8816, 15.8645, 23.0564, 38.2544, -28.6215, -29.9142
2.564, 2, 17.8816, 15.8645, 23.0564, 38.2544, -28.6215, -29.9142
2.568, 2, 17.8816, 15.8645, 23.0564, 38.2544, -28.6215, -29.9142
2.571, 2, 17.8816, 15.8645, 23.0564, 38.2544, -28.6215, -29.9142
2.576, 2, 17.8816, 15.8645, 23.0564, 38.2544, -28.6215, -29.9142
2.58, 2, 17.8816, 15.8645, 23.0564, 38.2544, -28.6215, -29.9142
2.584, 2, 17.8816, 15.8645, 23.0564, 38.2544, -28.6215, -29.9142
2.587, 2, 17.8816, 15.8645, 23.0564, 38.2544, -28.6215, -29.9142
2.592, 2, 17.8816, 15.8645, 23.0564, 38.2544, -28.6215, -29.9142
2.596, 2, 17.8816, 15.8645, 23.0564, 38.2544, -28.6215, -29.9142
2.6, 2, 17.8816, 15.8645, 23.0564, 38.2544, -28.6215, -29.9142
2.604, 2, 17.8816, 15.8645, 23.0564, 38.2544, -28.6215, -29.9142
2.607, 2, 17.8816, 15.8645, 23.0564, 38.2544, -28.6215, -29.9142
2.612, 2, 17.8816, 15.8645, 23.0564, 38.2544, -28.6215, -29.9142
2.616, 2, 17.8816, 15.8645, 23.0564, 38.2544, -28.6215, -29.9142
2.62, 2, 17.8816, 15.8645, 23.0564, 38.2544, -28.6215, -29.9142
2.624, 2, 17.8816, 15.8645, 23.0564, 38.2544, -28.6215, -29.9142
2.627, 2, 17.8816, 15.8645, 23.0564, 38.2544, -28.6215, -29.9142
2.632, 2, 17.8816, 15.8645, 23.0564, 38.2544, -28.6215, -29.9142
2.636, 2, 17.8816, 15.8645, 23.0564, 38.2544, -28.6215, -29.9142
2.64, 2, 17.8816, 15.8645, 23.0564, 38.2544, -28.6215, -29.9142
2.643, 2, 17.8816, 15.8645, 23.0564, 38.2544, -28.6215, -29.9142
2.648, 2, 17.8816, 15.8645, 23.0564, 38.2544, -28.6215, -29.9142
2.652, 2, 17.8816, 15.8645, 23.0564, 38.2544, -28.6215, -29.9142
2.656, 2, 17.8816, 15.8645, 23.0564, 38.2544, -28.6215, -29.9142
2.66, 2, 17.8816, 15.8645, 23.0564, 38.2544, -28.6215, -29.9142
2.663, 2, 17.8816, 15.8645, 23.0564, 38.2544, -28.6215, -29.9142
2.668, 2, 17.8816, 15.8645, 23.0564, 38.2544, -28.6215, -29.9142
2.672, 2, 17.8816, 15.8645, 23.0564, 38.2544, -28.6215, -29.9142
2.676, 2, 17.8816, 15.8645, 23.0564, 38.2544, -28.6215, -29.9142
2.679, 2, 17.8816, 15.8645, 23.0564, 38.2544, -28.6215, -29.9142
2.684, 2, 17.8816, 15.8645, 23.0564, 38.2544, -28.6215, -29.9142
2.688, 2, 17.8816, 15.8645, 23.0564, 38.2544, -28.6215, -29.9142
2.692, 2, 17.8816, 15.8645, 23.0564, 38.2544, -28.6215, -29.9142
2.696, 2, 17.8816, 15.8645, 23.0564, 38.2544, -28.6215, -29.9142
2.699, 2, 17.8816, 15.8645, 23.0564, 38.2544, -28.6215, -29.9142
2.704, 2, 17.8816, 15.8645, 23.0564, 38.2544, -28.6215, -29.9142
2.708, 2, 17.8816, 15.8645, 23.0564, 38.2544, -28.6215, -29.9142
2.712, 2, 17.8816, 15.8645, 23.0564, 38.2544, -28.6215, -29.9142
2.716, 2, 17.8816, 15.8645, 23.0564, 38.2544, -28.6215, -29.9142
2.719, 2, 17.8816, 15.8645, 23.0564, 38.2544, -28.6215, -29.9142
2.724, 2, 17.8816, 15.8645, 23.0564, 38.2544, -28.6215, -29.9142
2.728, 2, 17.8816, 15.8645, 23.0564, 38.2544, -28.6215, -29.9142
2.732, 2, 17.8816, 15.8645, 23.0564, 38.2544, -28.6215, -29.9142
2.735, 2, 17.8816, 15.8645, 23.0564, 38.2544, -28.6215, -29.9142
2.74, 2, 17.8816, 15.8645, 23.0564, 38.2544, -28.6215, -29.9142
2.744, 2, 17.8816, 15.8645, 23.0564, 38.2544, -28.6215, -29.9142
2.748, 2, 17.8816, 15.8645, 23.0564, 38.2544, -28.6215, -29.9142
2.752, 2, 17.8816, 15.8645, 23.0564, 38.2544, -28.6215, -29.9142
2.755, 2, 17.8816, 15.8645, 23.0564, 38.2544, -28.6215, -29.9142
2.76, 2, 17.8816, 15.8645, 23.0564, 38.2544, -28.6215, -29.9142
2.764, 2, 17.8816, 15.8645, 23.0564, 38.2544, -28.6215, -29.9142
2.768, 2, 17.8816, 15.8645, 23.0564, 38.2544, -28.6215, -29.9142
2.772, 2, 17.8816, 15.8645, 23.0564, 38.2544, -28.6215, -29.9142
2.775, 2, 17.8816, 15.8645, 23.0564, 38.2544, -28.6215, -29.9142
2.78, 2, 17.8816, 15.8645, 23.0564, 38.2544, -28.6215, -29.9142
2.784, 2, 17.8816, 15.8645, 23.0564, 38.2544, -28.6215, -29.9142
2.788, 2, 17.8816, 15.8645, 23.0564, 38.2544, -28.6215, -29.9142
2.791, 2, 17.8816, 15.8645, 23.0564, 38.2544, -28.6215, -29.9142
2.796, 2, 17.8816, 15.8645, 23.0564, 38.2544, -28.6215, -29.9142
2.8, 2, 17.8816, 15.8645, 23.0564, 38.2544, -28.6215, -29.9142
2.804, 2, 17.8816, 15.8645, 23.0564, 38.2544, -28.6215, -29.9142
2.808, 2, 17.8816, 15.8645, 23.0564, 38.2544, -28.6215, -29.9142
2.811, 2, 17.8816, 15.8645, 23.0564, 38.2544, -28.6215, -29.9142
2.816, 2, 17.8816, 15.8645, 23.0564, 38.2544, -28.6215, -29.9142
2.82, 2, 17.8816, 15.8645, 23.0564, 38.2544, -28.6215, -29.9142
2.824, 2, 17.8816, 15.8645, 23.0564, 38.2544, -28.6215, -29.9142
2.828, 2, 17.8816, 15.8645, 23.0564, 38.2544, -28.6215, -29.9142
2.831, 2, 17.8816, 15.8645, 23.0564, 38.2544, -28.6215, -29.9142
2.836, 2, 17.8816, 15.8645, 23.0564, 38.2544, -28.6215, -29.9142
2.84, 2, 17.8816, 15.8645, 23.0564, 38.2544, -28.6215, -29.9142
2.844, 2, 17.8816, 15.8645, 23.0564, 38.2544, -28.6215, -29.9142
2.847, 2, 17.8816, 15.8645, 23.0564, 38.2544, -28.6215, -29.9142
2.852, 2, 17.8816, 15.8645, 23.0564, 38.2544, -28.6215, -29.9142
2.856, 2, 17.8816, 15.8645, 23.0564, 38.2544, -28.6215, -29.9142
2.86, 2, 17.8816, 15.8645, 23.0564, 38.2544, -28.6215, -29.9142
2.864, 2, 17.8816, 15.8645, 23.0564, 38.2544, -28.6215, -29.9142
2.867, 2, 17.8816, 15.8645, 23.0564, 38.2544, -28.6215, -29.9142
2.872, 2, 17.8816, 15.8645, 23.0564, 38.2544, -28.6215, -29.9142
2.876, 2, 17.8816, 15.8645, 23.0564, 38.2544, -28.6215, -29.9142
2.88, 2, 17.8816, 15.8645, 23.0564, 38.2544, -28.6215, -29.9142
2.883, 2, 17.8816, 15.8645, 23.0564, 38.2544, -28.6215, -29.9142
2.888, 2, 17.8816, 15.8645, 23.0564, 38.2544, -28.6215, -29.9142
2.892, 2, 17.8816, 15.8645, 23.0564, 38.2544, -28.6215, -29.9142
2.896, 2, 17.8816, 15.8645, 23.0564, 38.2544, -28.6215, -29.9142
2.9, 2, 17.8816, 15.8645, 23.0564, 38.2544, -28.6215, -29.9142
2.903, 2, 17.8816, 15.8645, 23.0564, 38.2544, -28.6215, -29.9142
2.908, 2, 17.8816, 15.8645, 23.0564, 38.2544, -28.6215, -29.9142
2.912, 2, 17.8816, 15.8645, 23.0564, 38.2544, -28.6215, -29.9142
2.916, 2, 17.8816, 15.8645, 23.0564, 38.2544, -28.6215, -29.9142
2.92, 2, 17.8816, 15.8645, 23.0564, 38.2544, -28.6215, -29.9142
2.923, 2, 17.8816, 15.8645, 23.0564, 38.2544, -28.6215, -29.9142
2.928, 2, 17.8816, 15.8645, 23.0564, 38.2544, -28.6215, -29.9142
2.932, 2, 17.8816, 15.8645, 23.0564, 38.2544, -28.6215, -29.9142
2.936, 2, 17.8816, 15.8645, 23.0564, 38.2544, -28.6215, -29.9142
2.939, 2, 17.8816, 15.8645, 23.0564, 38.2544, -28.6215, -29.9142
2.944, 2, 17.8816, 15.8645, 23.0564, 38.2544, -28.6215, -29.9142
2.948, 2, 17.8816, 15.8645, 23.0564, 38.2544, -28.6215, -29.9142
2.952, 2, 17.8816, 15.8645, 23.0564, 38.2544, -28.6215, -29.9142
2.956, 2, 17.8816, 15.8645, 23.0564, 38.2544, -28.6215, -29.9142
2.959, 2, 17.8816, 15.8645, 23.0564, 38.2544, -28.6215, -29.9142
2.964, 2, 17.8816, 15.8645, 23.0564, 38.2544, -28.6215, -29.9142
2.968, 2, 17.8816, 15.8645, 23.0564, 38.2544, -28.6215, -29.9142
2.972, 2, 17.8816, 15.8645, 23.0564, 38.2544, -28.6215, -29.9142
2.976, 2, 17.8816, 15.8645, 23.0564, 38.2544, -28.6215, -29.9142
2.98, 2, 17.8816, 15.8645, 23.0564, 38.2544, -28.6215, -29.9142
2.984, 2, 17.8816, 15.8645, 23.0564, 38.2544, -28.6215, -29.9142
2.988, 2, 17.8816, 15.8645, 23.0564, 38.2544, -28.6215, -29.9142
2.992, 2, 17.8816, 15.8645, 23.0564, 38.2544, -28.6215, -29.9142
2.995, 2, 17.8816, 15.8645, 23.0564, 38.2544, -28.6215, -29.9142
3, 2, 17.8816, 15.8645, 23.0564, 38.2544, -28.6215, -29.9142
3.004, 2, 17.8816, 15.8645, 23.0564, 38.2544, -28.6215, -29.9142
3.008, 2, 17.8816, 15.8645, 23.0564, 38.2544, -28.6215, -29.9142
3.012, 2, 17.8816, 15.8645, 23.0564, 38.2544, -28.6215, -29.9142
3.015, 4, 17.8816, 15.8645, 23.0564, 38.2544, -28.6215, -29.9142
3.02, 4, 17.8816, 15.8645, 23.0564, 38.2544, -28.6215, -29.9142
3.024, 4, 17.8816, 15.8645, 23.0564, 38.2544, -28.6215, -29.9142
3.028, 4, 17.8816, 15.8645, 23.0564, 38.2544, -28.6215, -29.9142
3.031, 4, 17.8816, 15.8645, 23.0564, 38.2544, -28.6215, -29.9142
3.036, 4, 17.8816, 15.8645, 23.0564, 38.2544, -28.6215, -29.9142
3.04, 4, 17.8816, 15.8645, 23.0564, 38.2544, -28.6215, -29.9142
3.044, 4, 17.8816, 15.8645, 23.0564, 38.2544, -28.6215, -29.9142
3.048, 4, 17.8816, 15.8645, 23.0564, 38.2544, -28.6215, -29.9142
3.051, 4, 17.8816, 15.8645, 23.0564, 38.2544, -28.6215, -29.9142
3.056, 4, 17.8816, 15.8645, 23.0564, 38.2544, -28.6215, -29.9142
3.06, 4, 17.8816, 15.8645, 23.0564, 38.2544, -28.6215, -29.9142
3.064, 4, 17.8816, 15.8645, 23.0564, 38.2544, -28.6215, -29.9142
3.068, 4, 17.8816, 15.8645, 23.0564, 38.2544, -28.6215, -29.9142
3.071, 4, 17.8816, 15.8645, 23.0564, 38.2544, -28.6215, -29.9142
3.076, 4, 17.8816, 15.8645, 23.0564, 38.2544, -28.6215, -29.9142
3.08, 4, 17.8816, 15.8645, 23.0564, 38.2544, -28.6215, -29.9142
3.084, 4, 17.8816, 15.8645, 23.0564, 38.2544, -28.6215, -29.9142
3.087, 4, 17.8816, 15.8645, 23.0564, 38.2544, -28.6215, -29.9142
3.092, 4, 17.8816, 15.8645, 23.0564, 38.2544, -28.6215, -29.9142
3.096, 4, 17.8816, 15.8645, 23.0564, 38.2544, -28.6215, -29.9142
3.1, 4, 17.8816, 15.8645, 23.0564, 38.2544, -28.6215, -29.9142
3.104, 4, 17.8816, 15.8645, 23.0564, 38.2544, -28.6215, -29.9142
3.107, 4, 17.8816, 15.8645, 23.0564, 38.2544, -28.6215, -29.9142
3.112, 4, 17.8816, 15.8645, 23.0564, 38.2544, -28.6215, -29.9142
3.116, 4, 17.8816, 15.8645, 23.0564, 38.2544, -28.6215, -29.9142
3.122, 4, 17.8816, 15.8645, 23.0564, 38.2544, -28.6215, -29.9142
3.124, 4, 17.8816, 15.8645, 23.0564, 38.2544, -28.6215, -29.9142
3.128, 4, 17.8816, 15.8645, 23.0564, 38.2544, -28.6215, -29.9142
3.132, 4, 17.8816, 15.8645, 23.0564, 38.2544, -28.6215, -29.9142
3.136, 4, 17.8816, 15.8645, 23.0564, 38.2544, -28.6215, -29.9142
3.14, 4, 17.8816, 15.8645, 23.0564, 38.2544, -28.6215, -29.9142
3.143, 4, 17.8816, 15.8645, 23.0564, 38.2544, -28.6215, -29.9142
3.148, 4, 17.8816, 15.8646, 23.0564, 38.2544, -28.6215, -29.9142
3.152, 4, 17.8815, 15.8646, 23.0564, 38.2544, -28.6215, -29.9142
3.156, 4, 17.8813, 15.8647, 23.0563, 38.2543, -28.6215, -29.9142
3.16, 4, 17.8808, 15.8651, 23.0563, 38.2543, -28.6215, -29.9142
3.163, 4, 17.8799, 15.8658, 23.0561, 38.2541, -28.6216, -29.914
3.168, 4, 17.8784, 15.867, 23.0557, 38.2537, -28.6217, -29.9137
3.172, 4, 17.8763, 15.869, 23.0552, 38.2529, -28.622, -29.913
3.176, 4, 17.8734, 15.8718, 23.0543, 38.2514, -28.6225, -29.9118
3.179, 4, 17.8697, 15.8758, 23.053, 38.2487, -28.6234, -29.9096
3.184, 4, 17.8651, 15.8812, 23.0512, 38.2445, -28.6248, -29.906
3.188, 5, 17.8594, 15.8885, 23.0486, 38.2381, -28.6269, -29.9006
3.192, 5, 17.8526, 15.8978, 23.0452, 38.2288, -28.6299, -29.8927
3.196, 5, 17.8445, 15.9095, 23.0407, 38.2157, -28.6342, -29.8817
3.199, 5, 17.8347, 15.9237, 23.0348, 38.198, -28.6401, -29.8667
3.204, 5, 17.8231, 15.9407, 23.0273, 38.1745, -28.6478, -29.8468
3.208, 5, 17.8096, 15.9606, 23.018, 38.1442, -28.6578, -29.821
3.212, 5, 17.7941, 15.9834, 23.0067, 38.1059, -28.6704, -29.7885
3.216, 5, 17.7763, 16.0093, 22.993, 38.0584, -28.6861, -29.7481
3.22, 5, 17.7562, 16.0389, 22.9767, 38.0006, -28.7052, -29.699
3.224, 5, 17.7334, 16.0723, 22.9576, 37.9314, -28.7281, -29.6401
3.228, 5, 17.7078, 16.11, 22.9354, 37.8498, -28.7552, -29.5707
3.232, 5, 17.6791, 16.1524, 22.9099, 37.7549, -28.7868, -29.49
3.235, 5, 17.6471, 16.1996, 22.8809, 37.6459, -28.8233, -29.3974
3.24, 5, 17.6117, 16.2519, 22.8482, 37.5222, -28.8648, -29.2922
3.244, 5, 17.5728, 16.3095, 22.8118, 37.3832, -28.9117, -29.174
3.248, 5, 17.5305, 16.3723, 22.7715, 37.2285, -28.9641, -29.0426
3.252, 5, 17.4845, 16.4404, 22.7274, 37.0579, -29.0221, -28.8978
3.255, 5, 17.4348, 16.5139, 22.6793, 36.8714, -29.086, -28.7396
3.26, 5, 17.3815, 16.5929, 22.6274, 36.6692, -29.1556, -28.5681
3.264, 5, 17.3243, 16.6772, 22.5716, 36.4515, -29.231, -28.3837
3.27, 5, 17.1991, 16.8612, 22.4491, 35.9717, -29.399, -27.9775
3.272, 5, 17.1991, 16.8612, 22.4491, 35.9717, -29.399, -27.9775
3.276, 5, 17.1313, 16.9604, 22.3827, 35.711, -29.4913, -27.7571
3.28, 5, 17.0603, 17.0638, 22.3133, 35.4374, -29.5888, -27.526
3.284, 5, 16.9862, 17.171, 22.2409, 35.1522, -29.6914, -27.2853
3.288, 5, 16.9092, 17.2817, 22.1659, 34.8563, -29.7986, -27.0359
3.291, 5, 16.8293, 17.3958, 22.0886, 34.5511, -29.9102, -26.7788
3.296, 5, 16.7465, 17.5131, 22.0091, 34.2377, -30.0258, -26.5152
3.3, 5, 16.6611, 17.6333, 21.9279, 33.9176, -30.145, -26.2462
3.304, 5, 16.5732, 17.7563, 21.8452, 33.5919, -30.2674, -25.9728
3.308, 5, 16.483, 17.8819, 21.7613, 33.2618, -30.3926, -25.6961
3.312, 5, 16.3907, 18.0098, 21.6764, 32.9285, -30.5202, -25.417
3.316, 5, 16.2964, 18.1396, 21.5909, 32.5929, -30.6501, -25.1364
3.32, 5, 16.2004, 18.271, 21.5048, 32.256, -30.7817, -24.855
3.324, 5, 16.1027, 18.4037, 21.4185, 31.9185, -30.9149, -24.5735
3.328, 5, 16.0034, 18.5375, 21.3321, 31.5811, -31.0495, -24.2924
3.332, 5, 15.9028, 18.6719, 21.2458, 31.2443, -31.1852, -24.0122
3.336, 5, 15.8009, 18.8069, 21.1596, 30.9086, -31.322, -23.7332
3.34, 5, 15.698, 18.9421, 21.0737, 30.5741, -31.4597, -23.4556
3.344, 5, 15.5943, 19.0772, 20.9882, 30.241, -31.5982, -23.1796
3.347, 5, 15.4898, 19.2121, 20.9031, 29.9096, -31.7376, -22.9054
3.352, 5, 15.3848, 19.3467, 20.8185, 29.5799, -31.8777, -22.6329
3.356, 5, 15.2793, 19.4809, 20.7344, 29.252, -32.0185, -22.3622
3.36, 5, 15.1732, 19.6147, 20.6509, 28.9258, -32.1601, -22.0933
3.364, 5, 15.0668, 19.7479, 20.568, 28.6014, -32.3024, -21.8263
3.368, 5, 14.9599, 19.8805, 20.4856, 28.2789, -32.4454, -21.5611
3.372, 5, 14.8526, 20.0127, 20.4038, 27.9581, -32.5891, -21.2978
3.376, 5, 14.7449, 20.1442, 20.3226, 27.6392, -32.7335, -21.0363
3.38, 5, 14.6369, 20.2752, 20.242, 27.3221, -32.8786, -20.7766
3.383, 5, 14.5284, 20.4056, 20.162, 27.0068, -33.0244, -20.5187
3.388, 5, 14.4197, 20.5355, 20.0826, 26.6933, -33.1709, -20.2627
3.392, 5, 14.3105, 20.6647, 20.0038, 26.3815, -33.318, -20.0084
3.396, 5, 14.201, 20.7934, 19.9256, 26.0716, -33.4659, -19.756
3.4, 5, 14.0912, 20.9214, 19.8481, 25.7634, -33.6144, -19.5053
3.403, 5, 13.981, 21.0489, 19.7712, 25.457, -33.7636, -19.2563
3.408, 5, 13.8705, 21.1758, 19.6949, 25.1523, -33.9135, -19.0092
3.412, 5, 13.7597, 21.3021, 19.6192, 24.8494, -34.0641, -18.7637
3.416, 5, 13.6485, 21.4278, 19.5442, 24.5481, -34.2154, -18.52
3.42, 5, 13.537, 21.553, 19.4699, 24.2487, -34.3674, -18.278
3.424, 5, 13.4252, 21.6775, 19.3962, 23.9509, -34.52, -18.0377
3.428, 5, 13.313, 21.8014, 19.3231, 23.6548, -34.6734, -17.7991
3.432, 5, 13.2006, 21.9248, 19.2507, 23.3604, -34.8274, -17.5621
3.436, 5, 13.0878, 22.0475, 19.179, 23.0677, -34.9821, -17.3269
3.439, 5, 12.9748, 22.1697, 19.1079, 22.7767, -35.1375, -17.0933
3.444, 5, 12.8614, 22.2913, 19.0375, 22.4873, -35.2936, -16.8613
3.448, 5, 12.7477, 22.4123, 18.9678, 22.1996, -35.4503, -16.631
3.452, 5, 12.6338, 22.5326, 18.8987, 21.9136, -35.6078, -16.4023
3.456, 5, 12.5195, 22.6524, 18.8304, 21.6292, -35.7659, -16.1752
3.46, 5, 12.405, 22.7716, 18.7627, 21.3465, -35.9247, -15.9498
3.464, 5, 12.2902, 22.8902, 18.6957, 21.0653, -36.0842, -15.7259
3.468, 5, 12.175, 23.0082, 18.6295, 20.7858, -36.2444, -15.5036
3.472, 5, 12.0597, 23.1256, 18.5639, 20.5079, -36.4053, -15.2829
3.476, 5, 11.944, 23.2424, 18.499, 20.2316, -36.5668, -15.0637
3.48, 5, 11.8281, 23.3586, 18.4349, 19.9569, -36.7291, -14.8462
3.484, 5, 11.7119, 23.4743, 18.3714, 19.6838, -36.892, -14.6301
3.488, 5, 11.5954, 23.5893, 18.3087, 19.4123, -37.0555, -14.4156
3.492, 5, 11.4787, 23.7037, 18.2466, 19.1423, -37.2198, -14.2026
3.495, 5, 11.3617, 23.8175, 18.1853, 18.874, -37.3847, -13.9912
3.5, 5, 11.2444, 23.9307, 18.1248, 18.6071, -37.5503, -13.7812
3.504, 5, 11.1269, 24.0434, 18.0649, 18.3418, -37.7166, -13.5728
3.508, 5, 11.0092, 24.1554, 18.0058, 18.0781, -37.8836, -13.3658
3.512, 5, 10.8912, 24.2669, 17.9474, 17.8159, -38.0512, -13.1604
3.516, 5, 10.773, 24.3777, 17.8897, 17.5552, -38.2195, -12.9563
3.52, 5, 10.6545, 24.488, 17.8328, 17.296, -38.3885, -12.7538
3.524, 5, 10.5358, 24.5976, 17.7766, 17.0384, -38.5581, -12.5527
3.528, 5, 10.4168, 24.7067, 17.7211, 16.7822, -38.7284, -12.3531
3.531, 5, 10.2977, 24.8152, 17.6664, 16.5275, -38.8994, -12.1548
3.536, 5, 10.1783, 24.9231, 17.6124, 16.2744, -39.0711, -11.9581
3.54, 5, 10.0587, 25.0303, 17.5592, 16.0227, -39.2434, -11.7627
3.544, 5, 9.93881, 25.137, 17.5067, 15.7724, -39.4164, -11.5687
3.548, 5, 9.81875, 25.2431, 17.455, 15.5236, -39.5901, -11.3761
3.552, 5, 9.69848, 25.3487, 17.4041, 15.2763, -39.7644, -11.1849
3.556, 5, 9.578, 25.4536, 17.3539, 15.0304, -39.9394, -10.9951
3.56, 5, 9.45731, 25.5579, 17.3044, 14.786, -40.1151, -10.8067
3.564, 5, 9.33642, 25.6616, 17.2558, 14.543, -40.2915, -10.6196
3.568, 5, 9.21532, 25.7648, 17.2079, 14.3014, -40.4685, -10.4339
3.572, 5, 9.09403, 25.8673, 17.1608, 14.0612, -40.6462, -10.2495
3.576, 5, 8.97253, 25.9693, 17.1144, 13.8224, -40.8245, -10.0664
3.58, 5, 8.85085, 26.0707, 17.0689, 13.585, -41.0036, -9.88469
3.584, 5, 8.72897, 26.1714, 17.0241, 13.349, -41.1832, -9.70428
3.587, 5, 8.60691, 26.2716, 16.9801, 13.1144, -41.3636, -9.52517
3.592, 5, 8.48467, 26.3712, 16.9369, 12.8812, -41.5446, -9.34737
3.596, 5, 8.36225, 26.4702, 16.8945, 12.6493, -41.7263, -9.17086
3.6, 5, 8.23965, 26.5686, 16.8528, 12.4188, -41.9086, -8.99564
3.604, 5, 8.11688, 26.6665, 16.812, 12.1896, -42.0916, -8.82169
3.608, 5, 7.99394, 26.7637, 16.772, 11.9618, -42.2752, -8.64901
3.612, 5, 7.87083, 26.8603, 16.7327, 11.7354, -42.4595, -8.47759
3.616, 5, 7.74757, 26.9564, 16.6943, 11.5103, -42.6445, -8.30743
3.62, 5, 7.62414, 27.0519, 16.6567, 11.2865, -42.8301, -8.13852
3.624, 5, 7.50055, 27.1467, 16.6199, 11.064, -43.0163, -7.97085
3.628, 5, 7.3768, 27.241, 16.5838, 10.8428, -43.2032, -7.80441
3.632, 5, 7.25291, 27.3347, 16.5486, 10.623, -43.3908, -7.6392
3.636, 5, 7.12886, 27.4278, 16.5143, 10.4044, -43.579, -7.47521
3.64, 5, 7.00467, 27.5204, 16.4807, 10.1872, -43.7679, -7.31243
3.644, 5, 6.88034, 27.6123, 16.4479, 9.97125, -43.9574, -7.15086
3.648, 5, 6.75587, 27.7037, 16.416, 9.75659, -44.1475, -6.99049
3.652, 5, 6.63125, 27.7944, 16.3849, 9.5432, -44.3383, -6.83132
3.656, 5, 6.5065, 27.8846, 16.3546, 9.33109, -44.5298, -6.67333
3.66, 5, 6.38162, 27.9742, 16.3251, 9.12025, -44.7218, -6.51653
3.664, 5, 6.2566, 28.0632, 16.2965, 8.91068, -44.9146, -6.3609
3.668, 5, 6.13146, 28.1516, 16.2687, 8.70236, -45.1079, -6.20644
3.672, 5, 6.0062, 28.2395, 16.2417, 8.49529, -45.3019, -6.05314
3.676, 5, 5.88081, 28.3267, 16.2156, 8.28947, -45.4966, -5.901
3.679, 5, 5.7553, 28.4134, 16.1903, 8.08488, -45.6919, -5.75
3.684, 5, 5.62968, 28.4995, 16.1659, 7.88153, -45.8878, -5.60015
3.688, 5, 5.50394, 28.585, 16.1422, 7.6794, -46.0844, -5.45143
3.692, 5, 5.37808, 28.6699, 16.1195, 7.47849, -46.2817, -5.30385
3.696, 5, 5.25212, 28.7543, 16.0975, 7.27879, -46.4795, -5.15738
3.7, 5, 5.12606, 28.838, 16.0764, 7.0803, -46.678, -5.01202
3.704, 5, 4.99989, 28.9212, 16.0562, 6.88299, -46.8772, -4.86778
3.708, 5, 4.87362, 29.0038, 16.0368, 6.68688, -47.077, -4.72462
3.712, 5, 4.74725, 29.0858, 16.0182, 6.49194, -47.2774, -4.58257
3.716, 5, 4.62079, 29.1673, 16.0005, 6.29818, -47.4784, -4.44159
3.72, 5, 4.49424, 29.2482, 15.9837, 6.10559, -47.6801, -4.30169
3.724, 5, 4.3676, 29.3285, 15.9677, 5.91415, -47.8824, -4.16286
3.728, 5, 4.24087, 29.4082, 15.9525, 5.72386, -48.0853, -4.02509
3.732, 5, 4.11406, 29.4874, 15.9382, 5.53471, -48.2889, -3.88838
3.735, 5, 3.98717, 29.566, 15.9248, 5.3467, -48.493, -3.75271
3.74, 5, 3.86021, 29.644, 15.9122, 5.15982, -48.6978, -3.61809
3.744, 5, 3.73316, 29.7214, 15.9005, 4.97407, -48.9032, -3.4845
3.748, 5, 3.60605, 29.7983, 15.8896, 4.78943, -49.1092, -3.35194
3.752, 5, 3.47888, 29.8746, 15.8796, 4.6059, -49.3159, -3.22041
3.756, 5, 3.35166, 29.9504, 15.8704, 4.42348, -49.5231, -3.08989
3.76, 5, 3.22444, 30.0255, 15.8621, 4.24215, -49.731, -2.96039
3.764, 5, 3.09733, 30.1001, 15.8547, 4.06193, -49.9394, -2.8319
3.768, 5, 2.97046, 30.174, 15.8481, 3.8828, -50.1485, -2.70442
3.772, 5, 2.84394, 30.2472, 15.8425, 3.7048, -50.3581, -2.57796
3.776, 5, 2.71786, 30.3198, 15.8377, 3.52794, -50.5682, -2.45255
3.78, 5, 2.59226, 30.3916, 15.8338, 3.35226, -50.7788, -2.32819
3.784, 5, 2.46716, 30.4626, 15.8309, 3.17782, -50.9897, -2.20494
3.788, 5, 2.34258, 30.5329, 15.8288, 3.00469, -51.2009, -2.08285
3.792, 5, 2.21864, 30.6023, 15.8276, 2.83296, -51.4122, -1.96196
3.796, 5, 2.09549, 30.6706, 15.8273, 2.66274, -51.6235, -1.84236
3.8, 5, 1.9733, 30.7378, 15.828, 2.49419, -51.8346, -1.72416
3.804, 5, 1.8522, 30.8036, 15.8297, 2.32749, -52.0451, -1.60747
3.808, 5, 1.73228, 30.8681, 15.8324, 2.16287, -52.2548, -1.49246
3.812, 5, 1.61356, 30.9309, 15.8362, 2.00059, -52.4634, -1.37927
3.816, 5, 1.49598, 30.9919, 15.8413, 1.84091, -52.6704, -1.2681
3.82, 5, 1.37946, 31.0511, 15.8477, 1.68409, -52.8757, -1.15911
3.824, 5, 1.26398, 31.1082, 15.8559, 1.53036, -53.0791, -1.05244
3.828, 5, 1.1496, 31.163, 15.8662, 1.37989, -53.2806, -0.948199
3.832, 5, 1.03647, 31.2151, 15.879, 1.23281, -53.4801, -0.846468
3.836, 5, 0.924641, 31.2644, 15.8951, 1.08916, -53.6781, -0.747283
3.84, 6, 0.813973, 31.3105, 15.9149, 0.948962, -53.8748, -0.65064
3.844, 6, 0.704169, 31.3531, 15.9392, 0.812157, -54.0707, -0.556496
3.848, 6, 0.594859, 31.3922, 15.9689, 0.678612, -54.2666, -0.464759
3.852, 6, 0.485721, 31.4276, 16.0046, 0.548113, -54.4631, -0.375286
3.856, 6, 0.376579, 31.4592, 16.0471, 0.420368, -54.6612, -0.287883
3.86, 6, 0.267448, 31.4868, 16.097, 0.295009, -54.8619, -0.202311
3.864, 6, 0.158534, 31.5103, 16.1552, 0.171619, -55.0662, -0.118303
3.868, 6, 0.0501685, 31.5296, 16.222, 0.0497605, -55.275, -0.0355793
3.872, 6, -0.0573445, 31.5445, 16.2977, -0.0709884, -55.4891, 0.0461279
3.876, 6, -0.163887, 31.5551, 16.3826, -0.191, -55.7092, 0.127056
3.88, 6, -0.269554, 31.5613, 16.4766, -0.310584, -55.9356, 0.2074
3.884, 6, -0.374561, 31.5633, 16.5794, -0.429982, -56.1686, 0.287311
3.888, 6, -0.479136, 31.5613, 16.6906, -0.549367, -56.4082, 0.366898
3.892, 6, -0.583452, 31.5555, 16.8097, -0.668851, -56.6541, 0.446224
3.896, 6, -0.68757, 31.5463, 16.936, -0.788488, -56.9062, 0.525318
3.9, 6, -0.791437, 31.5339, 17.0687, -0.908278, -57.1638, 0.604173
3.904, 6, -0.894968, 31.5186, 17.2071, -1.02817, -57.4266, 0.682751
3.908, 6, -0.998177, 31.5006, 17.3503, -1.14807, -57.6938, 0.760985
3.912, 6, -1.10121, 31.4804, 17.4977, -1.26784, -57.9647, 0.838785
3.916, 6, -1.20429, 31.4581, 17.6485, -1.38733, -58.2389, 0.91605
3.92, 6, -1.30765, 31.4343, 17.8021, -1.50637, -58.5156, 0.992672
3.924, 6, -1.41148, 31.4092, 17.958, -1.62482, -58.7943, 1.06855
3.928, 6, -1.51592, 31.3831, 18.1156, -1.74255, -59.0746, 1.14361
3.932, 6, -1.62095, 31.3563, 18.2746, -1.85945, -59.3562, 1.21777
3.936, 6, -1.72644, 31.329, 18.4348, -1.97546, -59.6387, 1.291
3.94, 6, -1.83219, 31.3012, 18.5959, -2.09052, -59.9221, 1.36324
3.944, 6, -1.93803, 31.2731, 18.7578, -2.20461, -60.2063, 1.4345
3.948, 6, -2.04385, 31.2448, 18.9204, -2.31771, -60.491, 1.50475
3.952, 6, -2.14956, 31.2161, 19.0838, -2.42981, -60.7763, 1.574
3.956, 6, -2.2551, 31.1872, 19.2477, -2.54091, -61.0621, 1.64223
3.96, 6, -2.36043, 31.1581, 19.4122, -2.65101, -61.3485, 1.70947
3.964, 6, -2.46552, 31.1288, 19.5773, -2.76011, -61.6353, 1.7757
3.968, 6, -2.57035, 31.0994, 19.7429, -2.86822, -61.9226, 1.84093
3.972, 6, -2.6749, 31.0697, 19.909, -2.97535, -62.2103, 1.90518
3.976, 6, -2.77917, 31.0399, 20.0757, -3.08149, -62.4984, 1.96844
3.98, 6, -2.88313, 31.0099, 20.2428, -3.18667, -62.787, 2.03074
3.984, 6, -2.98679, 30.9798, 20.4105, -3.29088, -63.076, 2.09206
3.988, 6, -3.09013, 30.9495, 20.5786, -3.39414, -63.3655, 2.15243
3.992, 6, -3.19316, 30.9191, 20.7473, -3.49646, -63.6553, 2.21184
3.996, 6, -3.29587, 30.8885, 20.9164, -3.59784, -63.9456, 2.27032
3.999, 6, -3.39825, 30.8578, 21.086, -3.69829, -64.2362, 2.32786
4.004, 6, -3.5003, 30.8269, 21.2561, -3.79782, -64.5273, 2.38447
4.008, 6, -3.60202, 30.7959, 21.4266, -3.89644, -64.8187, 2.44017
4.012, 6, -3.7034, 30.7649, 21.5976, -3.99416, -65.1105, 2.49495
4.016, 6, -3.80443, 30.7336, 21.769, -4.09099, -65.4028, 2.54884
4.02, 6, -3.90511, 30.7023, 21.9409, -4.18693, -65.6954, 2.60183
4.024, 6, -4.00545, 30.6709, 22.1133, -4.282, -65.9883, 2.65393
4.028, 6, -4.10542, 30.6393, 22.2861, -4.37619, -66.2817, 2.70516
4.032, 6, -4.20503, 30.6077, 22.4593, -4.46953, -66.5754, 2.75551
4.036, 6, -4.30428, 30.5759, 22.6329, -4.56201, -66.8695, 2.805
4.04, 6, -4.40316, 30.5441, 22.807, -4.65365, -67.164, 2.85362
4.044, 6, -4.50166, 30.5122, 22.9815, -4.74445, -67.4588, 2.9014
4.048, 6, -4.59978, 30.4801, 23.1564, -4.83441, -67.754, 2.94833
4.052, 6, -4.69752, 30.448, 23.3317, -4.92355, -68.0495, 2.99442
4.056, 6, -4.79487, 30.4159, 23.5074, -5.01187, -68.3455, 3.03967
4.06, 6, -4.89183, 30.3836, 23.6835, -5.09937, -68.6417, 3.0841
4.064, 6, -4.98839, 30.3513, 23.8601, -5.18607, -68.9383, 3.1277
4.068, 6, -5.08455, 30.319, 24.037, -5.27195, -69.2353, 3.17048
4.072, 6, -5.1803, 30.2865, 24.2143, -5.35704, -69.5326, 3.21245
4.076, 6, -5.27565, 30.2541, 24.3919, -5.44133, -69.8303, 3.2536
4.08, 6, -5.37057, 30.2216, 24.57, -5.52483, -70.1283, 3.29395
4.084, 6, -5.46508, 30.189, 24.7484, -5.60754, -70.4266, 3.3335
4.088, 6, -5.55916, 30.1564, 24.9272, -5.68948, -70.7253, 3.37225
4.092, 6, -5.65282, 30.1238, 25.1063, -5.77063, -71.0243, 3.41022
4.096, 6, -5.74603, 30.0911, 25.2858, -5.85101, -71.3236, 3.44739
4.1, 6, -5.83881, 30.0584, 25.4657, -5.93062, -71.6233, 3.48378
4.104, 6, -5.93114, 30.0257, 25.6459, -6.00947, -71.9233, 3.51939
4.108, 6, -6.02302, 29.993, 25.8264, -6.08756, -72.2236, 3.55423
4.112, 6, -6.11444, 29.9603, 26.0072, -6.16489, -72.5242, 3.5883
4.116, 6, -6.2054, 29.9275, 26.1884, -6.24147, -72.8251, 3.62161
4.12, 6, -6.2959, 29.8948, 26.3699, -6.31731, -73.1264, 3.65416
4.124, 6, -6.38592, 29.8621, 26.5517, -6.3924, -73.4279, 3.68595
4.128, 6, -6.47547, 29.8294, 26.7338, -6.46676, -73.7298, 3.71699
4.132, 6, -6.56453, 29.7967, 26.9162, -6.54039, -74.0319, 3.74729
4.136, 6, -6.65311, 29.764, 27.0989, -6.61329, -74.3344, 3.77685
4.14, 6, -6.7412, 29.7314, 27.2819, -6.68546, -74.6372, 3.80567
4.144, 6, -6.82879, 29.6988, 27.4652, -6.75692, -74.9402, 3.83376
4.148, 6, -6.91588, 29.6662, 27.6488, -6.82766, -75.2435, 3.86112
4.152, 6, -7.00246, 29.6337, 27.8326, -6.8977, -75.5471, 3.88776
4.156, 6, -7.08852, 29.6012, 28.0167, -6.96703, -75.8511, 3.91369
4.16, 6, -7.17407, 29.5687, 28.201, -7.03566, -76.1552, 3.93891
4.164, 6, -7.2591, 29.5363, 28.3857, -7.1036, -76.4597, 3.96341
4.168, 6, -7.3436, 29.504, 28.5705, -7.17085, -76.7644, 3.98722
4.172, 6, -7.42757, 29.4718, 28.7556, -7.23741, -77.0694, 4.01033
4.176, 6, -7.511, 29.4396, 28.941, -7.30329, -77.3747, 4.03274
4.18, 6, -7.59389, 29.4075, 29.1266, -7.36849, -77.6802, 4.05446
4.184, 6, -7.67623, 29.3755, 29.3124, -7.43302, -77.986, 4.07551
4.188, 6, -7.75802, 29.3435, 29.4984, -7.49689, -78.2921, 4.09586
4.192, 6, -7.83924, 29.3117, 29.6847, -7.56008, -78.5984, 4.11555
4.196, 6, -7.91991, 29.2799, 29.8711, -7.62262, -78.905, 4.13456
4.2, 6, -8, 29.2483, 30.0578, -7.6845, -79.2119, 4.15289
4.204, 6, -8.07951, 29.2168, 30.2447, -7.74572, -79.519, 4.17057
4.208, 6, -8.15845, 29.1853, 30.4318, -7.80628, -79.8263, 4.18757
4.212, 6, -8.23679, 29.154, 30.619, -7.8662, -80.134, 4.20392
4.216, 6, -8.31454, 29.1228, 30.8065, -7.92546, -80.4418, 4.2196
4.22, 6, -8.39169, 29.0918, 30.9941, -7.98408, -80.75, 4.23463
4.224, 6, -8.46823, 29.0609, 31.182, -8.04204, -81.0584, 4.24901
4.228, 6, -8.54416, 29.0301, 31.37, -8.09936, -81.367, 4.26273
4.232, 6, -8.61947, 28.9995, 31.5581, -8.15604, -81.6759, 4.27581
4.236, 6, -8.69416, 28.969, 31.7464, -8.21206, -81.9851, 4.28823
4.24, 6, -8.76821, 28.9387, 31.9349, -8.26745, -82.2945, 4.30001
4.244, 6, -8.84163, 28.9085, 32.1235, -8.32218, -82.6041, 4.31115
4.248, 6, -8.9144, 28.8786, 32.3122, -8.37628, -82.914, 4.32165
4.252, 6, -8.98651, 28.8488, 32.5011, -8.42972, -83.2242, 4.33151
4.256, 6, -9.05797, 28.8191, 32.6901, -8.48253, -83.5346, 4.34073
4.26, 6, -9.12875, 28.7897, 32.8792, -8.53469, -83.8452, 4.34932
4.264, 6, -9.19887, 28.7605, 33.0684, -8.58621, -84.1561, 4.35728
4.268, 6, -9.2683, 28.7314, 33.2578, -8.63709, -84.4672, 4.36461
4.272, 6, -9.33705, 28.7026, 33.4472, -8.68733, -84.7785, 4.37131
4.276, 6, -9.4051, 28.674, 33.6367, -8.73692, -85.0901, 4.37739
4.28, 6, -9.47245, 28.6456, 33.8263, -8.78588, -85.4019, 4.38284
4.284, 6, -9.5391, 28.6174, 34.016, -8.83419, -85.7139, 4.38768
4.288, 6, -9.60503, 28.5895, 34.2057, -8.88187, -86.0262, 4.3919
4.292, 6, -9.67024, 28.5618, 34.3955, -8.92891, -86.3387, 4.3955
4.296, 6, -9.73473, 28.5344, 34.5854, -8.97531, -86.6514, 4.39849
4.3, 6, -9.79848, 28.5072, 34.7753, -9.02107, -86.9643, 4.40087
4.304, 6, -9.86148, 28.4802, 34.9653, -9.0662, -87.2775, 4.40265
4.308, 6, -9.92375, 28.4535, 35.1553, -9.11069, -87.5909, 4.40382
4.312, 6, -9.98525, 28.4271, 35.3453, -9.15455, -87.9045, 4.40439
4.316, 6, -10.046, 28.401, 35.5354, -9.19777, -88.2183, 4.40435
4.32, 6, -10.106, 28.3751, 35.7254, -9.24036, -88.5323, 4.40373
4.324, 6, -10.1652, 28.3496, 35.9155, -9.28232, -88.8466, 4.4025
4.328, 6, -10.2236, 28.3243, 36.1056, -9.32364, -89.161, 4.40069
4.332, 6, -10.2812, 28.2993, 36.2957, -9.36433, -89.4757, 4.39828
4.336, 6, -10.3381, 28.2747, 36.4857, -9.4044, -89.7906, 4.39529
4.34, 6, -10.3941, 28.2503, 36.6758, -9.44382, -90.1056, 4.39171
4.344, 6, -10.4493, 28.2263, 36.8658, -9.48262, -90.4209, 4.38755
4.348, 6, -10.5037, 28.2026, 37.0558, -9.52079, -90.7364, 4.38281
4.352, 6, -10.5573, 28.1792, 37.2458, -9.55833, -91.0521, 4.37749
4.356, 6, -10.61, 28.1562, 37.4357, -9.59523, -91.368, 4.3716
4.36, 6, -10.6619, 28.1335, 37.6255, -9.6315, -91.6841, 4.36513
4.364, 6, -10.713, 28.1112, 37.8153, -9.66714, -92.0004, 4.35809
4.368, 6, -10.7632, 28.0892, 38.0051, -9.70213, -92.3169, 4.35048
4.372, 6, -10.8125, 28.0676, 38.1948, -9.73649, -92.6336, 4.3423
4.376, 6, -10.861, 28.0464, 38.3843, -9.77021, -92.9505, 4.33355
4.38, 6, -10.9086, 28.0256, 38.5738, -9.80329, -93.2676, 4.32424
4.384, 6, -10.9553, 28.0051, 38.7632, -9.83572, -93.5849, 4.31437
4.388, 6, -11.0011, 27.985, 38.9525, -9.8675, -93.9024, 4.30393
4.392, 6, -11.046, 27.9654, 39.1416, -9.89864, -94.2201, 4.29294
4.396, 6, -11.0898, 27.9461, 39.3305, -9.92912, -94.538, 4.28139
4.4, 6, -11.1327, 27.9271, 39.5191, -9.95895, -94.8559, 4.2693
4.404, 6, -11.1745, 27.9086, 39.7071, -9.98811, -95.1737, 4.25667
4.408, 6, -11.2152, 27.8904, 39.8945, -10.0166, -95.4911, 4.24352
4.412, 6, -11.2548, 27.8725, 40.0809, -10.0444, -95.8078, 4.22988
4.416, 6, -11.2931, 27.855, 40.266, -10.0714, -96.1233, 4.21578
4.42, 6, -11.3302, 27.838, 40.4494, -10.0976, -96.4368, 4.20127
4.424, 6, -11.366, 27.8214, 40.6307, -10.123, -96.7476, 4.18641
4.428, 6, -11.4005, 27.8053, 40.8094, -10.1476, -97.0547, 4.17126
4.432, 6, -11.4337, 27.7897, 40.9849, -10.1712, -97.357, 4.1559
4.436, 6, -11.4655, 27.7748, 41.1566, -10.1937, -97.6535, 4.14042
4.44, 6, -11.4958, 27.7606, 41.3239, -10.2153, -97.9429, 4.12492
4.444, 6, -11.5247, 27.7471, 41.4861, -10.2357, -98.2241, 4.10949
4.448, 6, -11.552, 27.7343, 41.6427, -10.255, -98.4959, 4.09423
4.452, 6, -11.5779, 27.7223, 41.7929, -10.2731, -98.7571, 4.07924
4.456, 6, -11.6021, 27.7111, 41.9364, -10.29, -99.0066, 4.06464
4.46, 6, -11.6248, 27.7008, 42.0725, -10.3056, -99.2434, 4.05052
4.464, 6, -11.646, 27.6914, 42.201, -10.3201, -99.4666, 4.03697
4.468, 6, -11.6656, 27.6828, 42.3214, -10.3333, -99.6757, 4.02408
4.472, 6, -11.6837, 27.675, 42.4335, -10.3453, -99.8701, 4.01191
4.476, 6, -11.7002, 27.6681, 42.5372, -10.3562, -100.05, 4.00052
4.48, 6, -11.7153, 27.662, 42.6324, -10.3659, -100.214, 3.98997
4.484, 6, -11.7289, 27.6567, 42.7191, -10.3746, -100.363, 3.98026
4.488, 6, -11.7411, 27.6521, 42.7974, -10.3822, -100.498, 3.97143
4.492, 6, -11.752, 27.6481, 42.8676, -10.389, -100.618, 3.96347
4.496, 6, -11.7616, 27.6448, 42.9299, -10.3948, -100.724, 3.95638
4.5, 6, -11.7702, 27.6421, 42.9847, -10.3998, -100.817, 3.95014
4.504, 6, -11.7778, 27.64, 43.0324, -10.4041, -100.897, 3.94471
4.508, 6, -11.7844, 27.6383, 43.0736, -10.4076, -100.965, 3.94006
4.512, 6, -11.7902, 27.6371, 43.1087, -10.4106, -101.022, 3.93611
4.516, 6, -11.7952, 27.6363, 43.1382, -10.413, -101.07, 3.93282
4.52, 6, -11.7995, 27.6358, 43.1628, -10.4149, -101.11, 3.93011
4.524, 6, -11.8032, 27.6355, 43.1829, -10.4165, -101.141, 3.92792
4.528, 6, -11.8063, 27.6353, 43.1992, -10.4177, -101.166, 3.92617
4.532, 6, -11.809, 27.6353, 43.2122, -10.4186, -101.186, 3.92481
4.536, 6, -11.8114, 27.6355, 43.2224, -10.4193, -101.201, 3.92376
4.54, 6, -11.8134, 27.6357, 43.2302, -10.4198, -101.212, 3.92298
4.544, 6, -11.8151, 27.6359, 43.2362, -10.4201, -101.22, 3.92241
4.548, 6, -11.8166, 27.6361, 43.2407, -10.4204, -101.226, 3.92199
4.552, 7, -11.8178, 27.6363, 43.2439, -10.4205, -101.23, 3.92171
4.556, 7, -11.8187, 27.6365, 43.2463, -10.4206, -101.233, 3.92151
4.56, 7, -11.8194, 27.6367, 43.2479, -10.4207, -101.235, 3.92137
4.564, 7, -11.8199, 27.6368, 43.249, -10.4207, -101.237, 3.92128
4.568, 7, -11.8202, 27.6368, 43.2498, -10.4208, -101.238, 3.92122
4.572, 7, -11.8204, 27.6369, 43.2503, -10.4208, -101.238, 3.92118
4.576, 7, -11.8206, 27.6369, 43.2506, -10.4208, -101.239, 3.92115
4.58, 7, -11.8207, 27.6369, 43.2509, -10.4208, -101.239, 3.92113
4.584, 7, -11.8208, 27.6369, 43.251, -10.4208, -101.239, 3.92111
4.588, 7, -11.8208, 27.637, 43.2511, -10.4208, -101.239, 3.9211
4.592, 7, -11.8208, 27.637, 43.2512, -10.4208, -101.239, 3.9211
4.596, 7, -11.8209, 27.637, 43.2513, -10.4208, -101.239, 3.92109
4.6, 7, -11.8209, 27.637, 43.2513, -10.4208, -101.239, 3.92109
4.604, 7, -11.8209, 27.637, 43.2513, -10.4208, -101.239, 3.92109
4.608, 7, -11.8209, 27.637, 43.2513, -10.4208, -101.239, 3.92109
4.612, 7, -11.8209, 27.637, 43.2513, -10.4208, -101.239, 3.92109
4.616, 7, -11.8209, 27.637, 43.2514, -10.4208, -101.239, 3.92109
4.62, 7, -11.8209, 27.637, 43.2514, -10.4208, -101.239, 3.92109
4.624, 7, -11.8209, 27.637, 43.2514, -10.4208, -101.239, 3.92109
4.628, 7, -11.8209, 27.637, 43.2514, -10.4208, -101.239, 3.92109
4.632, 7, -11.8209, 27.637, 43.2514, -10.4208, -101.239, 3.92109
4.636, 7, -11.8209, 27.637, 43.2514, -10.4208, -101.239, 3.92109
4.64, 7, -11.8209, 27.637, 43.2514, -10.4208, -101.239, 3.92109
4.644, 7, -11.8209, 27.637, 43.2514, -10.4208, -101.239, 3.92109
4.648, 7, -11.8209, 27.637, 43.2514, -10.4208, -101.239, 3.92109
4.652, 7, -11.8209, 27.637, 43.2514, -10.4208, -101.239, 3.92109
4.656, 7, -11.8209, 27.637, 43.2514, -10.4208, -101.239, 3.92109
4.66, 7, -11.8209, 27.637, 43.2514, -10.4208, -101.239, 3.92109
4.664, 7, -11.8209, 27.637, 43.2514, -10.4208, -101.239, 3.92109
4.668, 7, -11.8209, 27.637, 43.2514, -10.4208, -101.239, 3.92109
