hehonglu123/ABB_Primitive_Study/execution/movec_30_car/curve_exe_v500_z20.csv
timestamp, cmd_num, J1, J2, J3, J4, J5, J6
0, -1, -11.8209, 27.637, 43.2514, -10.4208, -101.239, 3.92109
0.002, -1, -11.8209, 27.637, 43.2514, -10.4208, -101.239, 3.92109
0.006, -1, -11.8209, 27.637, 43.2514, -10.4208, -101.239, 3.92109
0.008, -1, -11.8209, 27.637, 43.2514, -10.4208, -101.239, 3.92109
0.011, -1, -11.8209, 27.637, 43.2514, -10.4208, -101.239, 3.92109
0.016, -1, -11.8209, 27.637, 43.2514, -10.4208, -101.239, 3.92109
0.02, -1, -11.8209, 27.637, 43.2514, -10.4208, -101.239, 3.92109
0.024, -1, -11.8209, 27.637, 43.2514, -10.4208, -101.239, 3.92109
0.028, -1, -11.8209, 27.637, 43.2514, -10.4208, -101.239, 3.92109
0.032, -1, -11.8209, 27.637, 43.2514, -10.4208, -101.239, 3.92109
0.036, -1, -11.8208, 27.637, 43.2514, -10.4208, -101.239, 3.92108
0.04, -1, -11.8206, 27.6369, 43.2514, -10.4208, -101.239, 3.92108
0.044, -1, -11.8199, 27.6367, 43.2513, -10.4208, -101.239, 3.92105
0.048, -1, -11.8188, 27.6363, 43.2513, -10.4207, -101.239, 3.92098
0.052, -1, -11.8169, 27.6357, 43.2511, -10.4205, -101.239, 3.92081
0.056, -1, -11.8142, 27.6347, 43.2509, -10.42, -101.238, 3.92043
0.06, -1, -11.8106, 27.6334, 43.2504, -10.419, -101.236, 3.91973
0.064, -1, -11.8059, 27.6315, 43.2496, -10.4173, -101.234, 3.9185
0.068, -1, -11.8, 27.6291, 43.2483, -10.4146, -101.23, 3.91654
0.072, -1, -11.7928, 27.626, 43.2465, -10.4103, -101.223, 3.91354
0.076, -1, -11.7838, 27.6222, 43.2437, -10.4041, -101.214, 3.90917
0.08, -1, -11.7728, 27.6173, 43.2399, -10.3954, -101.201, 3.90303
0.084, -1, -11.7593, 27.6114, 43.2348, -10.3836, -101.183, 3.89469
0.088, -1, -11.7432, 27.6044, 43.2281, -10.3678, -101.159, 3.88364
0.092, -1, -11.7244, 27.5963, 43.2194, -10.3474, -101.128, 3.86937
0.096, -1, -11.7027, 27.5871, 43.2085, -10.3216, -101.09, 3.85137
0.1, -1, -11.6782, 27.5767, 43.1952, -10.2898, -101.042, 3.82914
0.104, -1, -11.6506, 27.5654, 43.1791, -10.2512, -100.985, 3.80229
0.108, -1, -11.6199, 27.5528, 43.1601, -10.2055, -100.916, 3.77048
0.112, -1, -11.5859, 27.5392, 43.138, -10.1523, -100.837, 3.73348
0.116, -1, -11.5485, 27.5242, 43.1128, -10.0915, -100.746, 3.69117
0.12, -1, -11.5074, 27.5079, 43.0844, -10.0229, -100.644, 3.64352
0.124, -1, -11.4628, 27.4904, 43.053, -9.94673, -100.53, 3.5906
0.128, -1, -11.4147, 27.4716, 43.0185, -9.8632, -100.406, 3.53258
0.131, -1, -11.3633, 27.4515, 42.9811, -9.77265, -100.271, 3.46969
0.136, -1, -11.3087, 27.4303, 42.941, -9.67555, -100.126, 3.40227
0.139, -1, -11.251, 27.4079, 42.8985, -9.57247, -99.9725, 3.33069
0.144, -1, -11.1903, 27.3844, 42.8538, -9.46403, -99.8108, 3.25539
0.148, -1, -11.1266, 27.3596, 42.807, -9.35088, -99.6422, 3.17682
0.152, -1, -11.0601, 27.3337, 42.7586, -9.23367, -99.4675, 3.09542
0.156, -1, -10.9909, 27.3067, 42.7087, -9.11298, -99.2876, 3.01159
0.16, -1, -10.9195, 27.2787, 42.6576, -8.98935, -99.1033, 2.92571
0.164, -1, -10.8461, 27.2499, 42.6054, -8.86324, -98.9152, 2.8381
0.168, -1, -10.7711, 27.2203, 42.5523, -8.73504, -98.7241, 2.74903
0.172, -1, -10.6947, 27.1902, 42.4985, -8.60512, -98.5303, 2.65876
0.176, -1, -10.6172, 27.1595, 42.4441, -8.47377, -98.3344, 2.56749
0.18, -1, -10.5385, 27.1283, 42.3892, -8.34126, -98.1368, 2.4754
0.184, -1, -10.459, 27.0968, 42.3339, -8.2078, -97.9377, 2.38265
0.188, -1, -10.3785, 27.0649, 42.2783, -8.07358, -97.7375, 2.28937
0.192, -1, -10.2973, 27.0327, 42.2224, -7.93872, -97.5364, 2.19564
0.196, -1, -10.2155, 27.0003, 42.1662, -7.80334, -97.3344, 2.10154
0.2, -1, -10.1331, 26.9676, 42.1099, -7.6675, -97.1317, 2.00712
0.204, -1, -10.0503, 26.9348, 42.0533, -7.53125, -96.9285, 1.91241
0.208, -1, -9.9672, 26.9019, 41.9967, -7.39462, -96.7247, 1.81744
0.212, -1, -9.88379, 26.8688, 41.9399, -7.25765, -96.5203, 1.72223
0.216, -1, -9.80013, 26.8356, 41.8829, -7.12034, -96.3155, 1.62679
0.22, -1, -9.71623, 26.8024, 41.8258, -6.98271, -96.1101, 1.53111
0.224, -1, -9.63212, 26.769, 41.7686, -6.84476, -95.9043, 1.43522
0.228, -1, -9.54781, 26.7356, 41.7112, -6.7065, -95.6981, 1.33912
0.232, -1, -9.46329, 26.7021, 41.6537, -6.56794, -95.4914, 1.2428
0.236, -1, -9.37859, 26.6685, 41.5961, -6.42908, -95.2842, 1.14628
0.24, -1, -9.29371, 26.6349, 41.5384, -6.28992, -95.0766, 1.04954
0.244, -1, -9.20864, 26.6011, 41.4805, -6.15046, -94.8685, 0.952603
0.248, -1, -9.12338, 26.5673, 41.4226, -6.01071, -94.66, 0.85546
0.252, -1, -9.03795, 26.5335, 41.3645, -5.87067, -94.4511, 0.758115
0.256, -1, -8.95235, 26.4995, 41.3062, -5.73034, -94.2418, 0.660569
0.26, -1, -8.86656, 26.4655, 41.2479, -5.58972, -94.032, 0.562823
0.264, -1, -8.78061, 26.4315, 41.1895, -5.44882, -93.8218, 0.464879
0.268, -1, -8.69448, 26.3973, 41.1309, -5.30764, -93.6111, 0.366738
0.272, -1, -8.60818, 26.3631, 41.0722, -5.16617, -93.4001, 0.2684
0.276, -1, -8.52171, 26.3288, 41.0134, -5.02442, -93.1886, 0.169869
0.28, -1, -8.43507, 26.2945, 40.9545, -4.8824, -92.9767, 0.0711437
0.284, -1, -8.34827, 26.2601, 40.8954, -4.74009, -92.7644, -0.027773
0.288, -1, -8.2613, 26.2256, 40.8363, -4.59752, -92.5517, -0.12688
0.292, -1, -8.17417, 26.191, 40.777, -4.45467, -92.3386, -0.226175
0.296, -1, -8.08688, 26.1564, 40.7177, -4.31156, -92.1251, -0.325657
0.3, -1, -7.99944, 26.1218, 40.6582, -4.16818, -91.9112, -0.425324
0.304, -1, -7.91184, 26.087, 40.5986, -4.02454, -91.6969, -0.525173
0.308, -1, -7.82408, 26.0522, 40.5389, -3.88064, -91.4822, -0.625202
0.312, -1, -7.73618, 26.0174, 40.4791, -3.73648, -91.2672, -0.725408
0.316, -1, -7.64814, 25.9825, 40.4192, -3.59207, -91.0517, -0.825789
0.32, -1, -7.55995, 25.9475, 40.3592, -3.44742, -90.8359, -0.926341
0.324, -1, -7.47161, 25.9125, 40.299, -3.30252, -90.6198, -1.02706
0.328, -1, -7.38314, 25.8774, 40.2388, -3.15738, -90.4032, -1.12795
0.332, -1, -7.29454, 25.8422, 40.1785, -3.01202, -90.1864, -1.229
0.336, -1, -7.20579, 25.807, 40.1181, -2.86642, -89.9691, -1.3302
0.34, -1, -7.11692, 25.7718, 40.0576, -2.7206, -89.7516, -1.43156
0.344, -1, -7.02791, 25.7365, 39.997, -2.57457, -89.5337, -1.53307
0.348, -1, -6.93879, 25.7011, 39.9364, -2.42832, -89.3156, -1.63473
0.352, -1, -6.84954, 25.6657, 39.8756, -2.28187, -89.0971, -1.73653
0.356, -1, -6.76017, 25.6303, 39.8148, -2.13522, -88.8783, -1.83847
0.36, -1, -6.67068, 25.5948, 39.7538, -1.98837, -88.6592, -1.94055
0.364, -1, -6.58109, 25.5593, 39.6928, -1.84134, -88.4398, -2.04276
0.368, -1, -6.49138, 25.5237, 39.6318, -1.69412, -88.2202, -2.14509
0.372, -1, -6.40157, 25.488, 39.5706, -1.54672, -88.0003, -2.24755
0.376, -1, -6.31166, 25.4524, 39.5094, -1.39915, -87.7802, -2.35013
0.38, -1, -6.22164, 25.4167, 39.4481, -1.25142, -87.5598, -2.45282
0.384, -1, -6.13154, 25.3809, 39.3867, -1.10353, -87.3391, -2.55562
0.388, -1, -6.04134, 25.3451, 39.3253, -0.955482, -87.1182, -2.65853
0.392, -1, -5.95105, 25.3093, 39.2639, -0.807292, -86.8972, -2.76154
0.396, -1, -5.86068, 25.2735, 39.2023, -0.658961, -86.6759, -2.86465
0.4, -1, -5.77023, 25.2376, 39.1407, -0.510497, -86.4544, -2.96785
0.404, -1, -5.6797, 25.2017, 39.0791, -0.361907, -86.2327, -3.07114
0.408, -1, -5.58909, 25.1658, 39.0174, -0.213195, -86.0109, -3.17451
0.412, -1, -5.49843, 25.1298, 38.9556, -0.0643699, -85.7888, -3.27796
0.416, -1, -5.40769, 25.0938, 38.8938, 0.084563, -85.5666, -3.38149
0.42, -1, -5.3169, 25.0578, 38.832, 0.233597, -85.3443, -3.48508
0.424, -1, -5.22606, 25.0217, 38.7701, 0.382725, -85.1218, -3.58874
0.428, -1, -5.13516, 24.9857, 38.7082, 0.531939, -84.8992, -3.69246
0.432, -1, -5.04422, 24.9496, 38.6463, 0.681234, -84.6765, -3.79624
0.436, -1, -4.95323, 24.9135, 38.5843, 0.830602, -84.4536, -3.90007
0.44, -1, -4.86221, 24.8774, 38.5223, 0.980034, -84.2307, -4.00394
0.444, -1, -4.77115, 24.8413, 38.4603, 1.12953, -84.0077, -4.10786
0.448, -1, -4.68007, 24.8051, 38.3983, 1.27907, -83.7846, -4.2118
0.452, -1, -4.58896, 24.769, 38.3362, 1.42865, -83.5614, -4.31578
0.456, -1, -4.49784, 24.7329, 38.2741, 1.57827, -83.3382, -4.41979
0.46, -1, -4.40671, 24.6967, 38.212, 1.72792, -83.1149, -4.52381
0.464, -1, -4.31556, 24.6605, 38.15, 1.87758, -82.8917, -4.62785
0.468, -1, -4.22441, 24.6244, 38.0879, 2.02726, -82.6684, -4.73189
0.472, -1, -4.13326, 24.5882, 38.0258, 2.17694, -82.4451, -4.83594
0.476, -1, -4.04211, 24.552, 37.9636, 2.32662, -82.2217, -4.93998
0.48, -1, -3.95098, 24.5159, 37.9016, 2.47628, -81.9985, -5.04401
0.484, -1, -3.85986, 24.4797, 37.8395, 2.62592, -81.7752, -5.14803
0.488, -1, -3.76876, 24.4436, 37.7774, 2.77553, -81.552, -5.25202
0.492, -1, -3.67769, 24.4075, 37.7154, 2.92509, -81.3289, -5.35599
0.496, -1, -3.58665, 24.3713, 37.6533, 3.07461, -81.1058, -5.45992
0.5, -1, -3.49564, 24.3352, 37.5913, 3.22408, -80.8829, -5.56381
0.504, -1, -3.40467, 24.2992, 37.5293, 3.37347, -80.66, -5.66766
0.508, -1, -3.31375, 24.2631, 37.4674, 3.52279, -80.4372, -5.77146
0.512, -1, -3.22288, 24.227, 37.4054, 3.67203, -80.2146, -5.87519
0.516, -1, -3.13206, 24.191, 37.3436, 3.82118, -79.9921, -5.97887
0.52, -1, -3.0413, 24.155, 37.2817, 3.97022, -79.7697, -6.08247
0.524, -1, -2.95061, 24.119, 37.2199, 4.11915, -79.5475, -6.186
0.528, -1, -2.85999, 24.0831, 37.1582, 4.26797, -79.3255, -6.28944
0.532, -1, -2.76944, 24.0472, 37.0965, 4.41666, -79.1037, -6.3928
0.536, -1, -2.67898, 24.0113, 37.0349, 4.56522, -78.882, -6.49606
0.54, -1, -2.58859, 23.9754, 36.9733, 4.71363, -78.6606, -6.59923
0.544, -1, -2.49829, 23.9396, 36.9118, 4.86189, -78.4394, -6.70228
0.548, -1, -2.40809, 23.9038, 36.8503, 5.00999, -78.2185, -6.80523
0.552, -1, -2.31798, 23.8681, 36.7889, 5.15792, -77.9978, -6.90806
0.556, -1, -2.22797, 23.8324, 36.7276, 5.30568, -77.7773, -7.01077
0.56, -1, -2.13807, 23.7967, 36.6664, 5.45326, -77.5572, -7.11336
0.564, -1, -2.04828, 23.7611, 36.6053, 5.60064, -77.3373, -7.2158
0.568, -1, -1.9586, 23.7256, 36.5442, 5.74782, -77.1177, -7.31811
0.572, -1, -1.86904, 23.6901, 36.4832, 5.8948, -76.8984, -7.42028
0.576, -1, -1.7796, 23.6546, 36.4223, 6.04157, -76.6795, -7.5223
0.58, -1, -1.6903, 23.6192, 36.3615, 6.18811, -76.4609, -7.62416
0.584, -1, -1.60113, 23.5839, 36.3008, 6.33442, -76.2426, -7.72587
0.588, -1, -1.5121, 23.5486, 36.2402, 6.4805, -76.0246, -7.82741
0.592, -1, -1.42322, 23.5134, 36.1797, 6.62634, -75.8071, -7.92879
0.596, -1, -1.33448, 23.4782, 36.1193, 6.77193, -75.5899, -8.02999
0.6, -1, -1.2459, 23.4431, 36.059, 6.91726, -75.3731, -8.13101
0.604, -1, -1.15748, 23.408, 35.9988, 7.06233, -75.1566, -8.23185
0.608, -1, -1.06922, 23.373, 35.9387, 7.20713, -74.9406, -8.3325
0.612, -1, -0.98112, 23.3381, 35.8787, 7.35165, -74.725, -8.43296
0.616, -1, -0.893193, 23.3033, 35.8189, 7.49589, -74.5098, -8.53323
0.62, -1, -0.805439, 23.2685, 35.7592, 7.63985, -74.295, -8.63329
0.624, -1, -0.717861, 23.2338, 35.6995, 7.78351, -74.0807, -8.73316
0.628, -1, -0.630465, 23.1991, 35.6401, 7.92687, -73.8668, -8.83281
0.632, -1, -0.543252, 23.1646, 35.5807, 8.06993, -73.6534, -8.93225
0.636, -1, -0.456226, 23.1301, 35.5215, 8.21268, -73.4404, -9.03148
0.64, -1, -0.369389, 23.0957, 35.4624, 8.35511, -73.2279, -9.13049
0.644, -1, -0.282746, 23.0613, 35.4034, 8.49722, -73.0159, -9.22927
0.648, -1, -0.196298, 23.0271, 35.3446, 8.63901, -72.8044, -9.32783
0.652, -1, -0.110049, 22.9929, 35.2859, 8.78046, -72.5934, -9.42616
0.656, -1, -0.0240014, 22.9588, 35.2273, 8.92158, -72.3828, -9.52425
0.66, -1, 0.0618417, 22.9248, 35.1689, 9.06236, -72.1728, -9.62211
0.664, -1, 0.147478, 22.8908, 35.1106, 9.2028, -71.9633, -9.71973
0.668, -1, 0.232905, 22.857, 35.0525, 9.34289, -71.7543, -9.81711
0.672, -1, 0.318122, 22.8232, 34.9945, 9.48263, -71.5458, -9.91425
0.676, -1, 0.403125, 22.7895, 34.9367, 9.62201, -71.3379, -10.0111
0.68, -1, 0.487913, 22.7559, 34.879, 9.76104, -71.1304, -10.1078
0.684, -1, 0.572484, 22.7224, 34.8215, 9.8997, -70.9236, -10.2042
0.688, -1, 0.656834, 22.689, 34.7641, 10.038, -70.7173, -10.3003
0.692, -1, 0.740962, 22.6557, 34.7069, 10.1759, -70.5115, -10.3962
0.696, -1, 0.824867, 22.6224, 34.6498, 10.3135, -70.3062, -10.4918
0.7, -1, 0.908546, 22.5892, 34.5929, 10.4507, -70.1016, -10.5872
0.704, -1, 0.991999, 22.5562, 34.5361, 10.5875, -69.8974, -10.6823
0.708, -1, 1.07522, 22.5232, 34.4795, 10.7239, -69.6939, -10.7771
0.712, -1, 1.15822, 22.4903, 34.423, 10.86, -69.4909, -10.8717
0.716, -1, 1.24098, 22.4575, 34.3667, 10.9957, -69.2885, -10.966
0.72, -1, 1.32352, 22.4248, 34.3106, 11.131, -69.0866, -11.0601
0.724, -1, 1.40582, 22.3922, 34.2546, 11.2659, -68.8853, -11.1539
0.728, -1, 1.48788, 22.3597, 34.1988, 11.4004, -68.6846, -11.2474
0.732, -1, 1.56971, 22.3272, 34.1431, 11.5346, -68.4845, -11.3406
0.736, -1, 1.65131, 22.2949, 34.0876, 11.6683, -68.285, -11.4336
0.74, -1, 1.73267, 22.2627, 34.0323, 11.8017, -68.086, -11.5263
0.744, -1, 1.81379, 22.2305, 33.9771, 11.9347, -67.8876, -11.6187
0.748, -1, 1.89467, 22.1985, 33.9221, 12.0673, -67.6898, -11.7109
0.752, -1, 1.97531, 22.1665, 33.8672, 12.1995, -67.4926, -11.8028
0.756, -1, 2.05572, 22.1347, 33.8125, 12.3313, -67.296, -11.8944
0.76, -1, 2.13588, 22.1029, 33.758, 12.4626, -67.0999, -11.9857
0.764, -1, 2.2158, 22.0712, 33.7037, 12.5936, -66.9045, -12.0768
0.768, -1, 2.29548, 22.0397, 33.6495, 12.7243, -66.7097, -12.1676
0.772, -1, 2.37492, 22.0082, 33.5954, 12.8545, -66.5154, -12.2581
0.776, -1, 2.45412, 21.9768, 33.5416, 12.9843, -66.3217, -12.3483
0.78, -1, 2.53307, 21.9455, 33.4879, 13.1137, -66.1287, -12.4383
0.784, -1, 2.61178, 21.9143, 33.4343, 13.2427, -65.9362, -12.5279
0.788, -1, 2.69025, 21.8832, 33.381, 13.3713, -65.7444, -12.6173
0.792, -1, 2.76848, 21.8522, 33.3278, 13.4995, -65.5531, -12.7065
0.796, -1, 2.84646, 21.8213, 33.2748, 13.6273, -65.3624, -12.7953
0.8, -1, 2.92419, 21.7905, 33.2219, 13.7547, -65.1723, -12.8839
0.804, -1, 3.00168, 21.7598, 33.1692, 13.8817, -64.9829, -12.9721
0.808, -1, 3.07893, 21.7292, 33.1167, 14.0083, -64.794, -13.0602
0.812, -1, 3.15594, 21.6987, 33.0643, 14.1345, -64.6057, -13.1479
0.816, -1, 3.2327, 21.6683, 33.0121, 14.2603, -64.418, -13.2353
0.82, -1, 3.30921, 21.638, 32.9601, 14.3857, -64.231, -13.3225
0.824, -1, 3.38548, 21.6078, 32.9082, 14.5107, -64.0445, -13.4094
0.828, -1, 3.46151, 21.5776, 32.8565, 14.6353, -63.8586, -13.496
0.832, -1, 3.53729, 21.5476, 32.805, 14.7595, -63.6733, -13.5823
0.836, -1, 3.61283, 21.5177, 32.7536, 14.8833, -63.4886, -13.6684
0.84, -1, 3.68813, 21.4878, 32.7024, 15.0067, -63.3046, -13.7541
0.844, -1, 3.76318, 21.4581, 32.6514, 15.1296, -63.1211, -13.8396
0.848, -1, 3.83799, 21.4285, 32.6005, 15.2522, -62.9382, -13.9248
0.852, -1, 3.91256, 21.3989, 32.5498, 15.3744, -62.7559, -14.0098
0.856, -1, 3.98689, 21.3695, 32.4993, 15.4962, -62.5742, -14.0944
0.86, -1, 4.06097, 21.3401, 32.4489, 15.6176, -62.393, -14.1788
0.864, -1, 4.13482, 21.3109, 32.3987, 15.7386, -62.2125, -14.2629
0.868, -1, 4.20842, 21.2817, 32.3486, 15.8592, -62.0326, -14.3468
0.872, -1, 4.28179, 21.2526, 32.2988, 15.9794, -61.8533, -14.4303
0.876, -1, 4.35492, 21.2236, 32.249, 16.0993, -61.6745, -14.5136
0.88, -1, 4.42781, 21.1948, 32.1995, 16.2187, -61.4963, -14.5966
0.884, -1, 4.50047, 21.166, 32.1501, 16.3377, -61.3187, -14.6794
0.888, -1, 4.57289, 21.1373, 32.1009, 16.4564, -61.1417, -14.7619
0.892, -1, 4.64507, 21.1087, 32.0518, 16.5746, -60.9653, -14.8441
0.896, -1, 4.71702, 21.0802, 32.0029, 16.6925, -60.7895, -14.926
0.9, -1, 4.78874, 21.0517, 31.9541, 16.81, -60.6142, -15.0077
0.904, -1, 4.86022, 21.0234, 31.9055, 16.9271, -60.4395, -15.0891
0.908, -1, 4.93148, 20.9952, 31.8571, 17.0438, -60.2653, -15.1702
0.912, -1, 5.0025, 20.967, 31.8088, 17.1602, -60.0917, -15.2511
0.916, -1, 5.07329, 20.939, 31.7607, 17.2762, -59.9187, -15.3317
0.92, -1, 5.14386, 20.911, 31.7127, 17.3918, -59.7462, -15.4121
0.924, -1, 5.2142, 20.8832, 31.6649, 17.507, -59.5743, -15.4922
0.928, -1, 5.28431, 20.8554, 31.6173, 17.6218, -59.403, -15.572
0.932, -1, 5.3542, 20.8277, 31.5698, 17.7363, -59.2322, -15.6516
0.936, -1, 5.42387, 20.8001, 31.5224, 17.8505, -59.0619, -15.7309
0.94, -1, 5.49331, 20.7726, 31.4752, 17.9642, -58.8922, -15.81
0.944, -1, 5.56253, 20.7451, 31.4282, 18.0776, -58.723, -15.8888
0.948, -1, 5.63153, 20.7178, 31.3812, 18.1907, -58.5544, -15.9674
0.952, -1, 5.70032, 20.6905, 31.3345, 18.3033, -58.3862, -16.0457
0.956, -1, 5.76889, 20.6634, 31.2879, 18.4157, -58.2187, -16.1238
0.96, -1, 5.83724, 20.6363, 31.2414, 18.5276, -58.0516, -16.2017
0.964, -1, 5.90538, 20.6093, 31.1951, 18.6393, -57.8851, -16.2793
0.968, -1, 5.9733, 20.5824, 31.1489, 18.7505, -57.7191, -16.3566
0.972, -1, 6.04101, 20.5556, 31.1029, 18.8615, -57.5536, -16.4337
0.976, -1, 6.10851, 20.5288, 31.057, 18.972, -57.3886, -16.5106
0.98, -1, 6.1758, 20.5021, 31.0113, 19.0823, -57.2242, -16.5872
0.984, -1, 6.24288, 20.4756, 30.9657, 19.1922, -57.0602, -16.6636
0.988, -1, 6.30975, 20.4491, 30.9202, 19.3017, -56.8968, -16.7397
0.992, -1, 6.37641, 20.4227, 30.8749, 19.4109, -56.7339, -16.8156
0.996, -1, 6.44287, 20.3963, 30.8298, 19.5198, -56.5715, -16.8913
1, -1, 6.50913, 20.3701, 30.7847, 19.6283, -56.4095, -16.9668
1.004, -1, 6.57518, 20.3439, 30.7398, 19.7365, -56.2481, -17.042
1.008, -1, 6.64103, 20.3178, 30.6951, 19.8444, -56.0872, -17.117
1.012, -1, 6.70668, 20.2918, 30.6504, 19.9519, -55.9267, -17.1917
1.016, -1, 6.77212, 20.2659, 30.606, 20.0591, -55.7668, -17.2663
1.02, -1, 6.83737, 20.24, 30.5616, 20.166, -55.6073, -17.3406
1.024, -1, 6.90243, 20.2142, 30.5174, 20.2726, -55.4483, -17.4146
1.027, -1, 6.96728, 20.1885, 30.4733, 20.3788, -55.2898, -17.4885
1.032, -1, 7.03194, 20.1629, 30.4294, 20.4848, -55.1318, -17.5621
1.036, -1, 7.0964, 20.1374, 30.3855, 20.5904, -54.9743, -17.6355
1.04, -1, 7.16067, 20.1119, 30.3418, 20.6957, -54.8172, -17.7087
1.044, -1, 7.22475, 20.0865, 30.2983, 20.8006, -54.6606, -17.7817
1.048, -1, 7.28864, 20.0612, 30.2549, 20.9053, -54.5044, -17.8544
1.052, -1, 7.35234, 20.036, 30.2116, 21.0096, -54.3487, -17.927
1.055, -1, 7.41585, 20.0108, 30.1684, 21.1137, -54.1935, -17.9993
1.06, -1, 7.47917, 19.9857, 30.1254, 21.2174, -54.0388, -18.0714
1.064, -1, 7.5423, 19.9607, 30.0824, 21.3208, -53.8845, -18.1433
1.068, -1, 7.60525, 19.9357, 30.0397, 21.4239, -53.7307, -18.215
1.072, -1, 7.66801, 19.9109, 29.997, 21.5268, -53.5773, -18.2864
1.076, -1, 7.73058, 19.8861, 29.9545, 21.6293, -53.4243, -18.3577
1.08, -1, 7.79298, 19.8614, 29.9121, 21.7315, -53.2718, -18.4287
1.084, -1, 7.85519, 19.8367, 29.8698, 21.8334, -53.1198, -18.4996
1.088, -1, 7.91722, 19.8121, 29.8276, 21.935, -52.9682, -18.5702
1.091, -1, 7.97907, 19.7876, 29.7856, 22.0363, -52.817, -18.6407
1.096, -1, 8.04075, 19.7632, 29.7436, 22.1374, -52.6663, -18.7109
1.1, -1, 8.10224, 19.7388, 29.7018, 22.2381, -52.516, -18.7809
1.104, -1, 8.16356, 19.7145, 29.6602, 22.3386, -52.3661, -18.8507
1.108, -1, 8.2247, 19.6903, 29.6186, 22.4387, -52.2167, -18.9204
1.112, -1, 8.28567, 19.6661, 29.5772, 22.5386, -52.0677, -18.9898
1.116, -1, 8.34646, 19.642, 29.5358, 22.6382, -51.9191, -19.059
1.119, -1, 8.40708, 19.618, 29.4946, 22.7375, -51.771, -19.128
1.124, -1, 8.46752, 19.5941, 29.4536, 22.8365, -51.6233, -19.1969
1.128, -1, 8.5278, 19.5702, 29.4126, 22.9353, -51.4759, -19.2655
1.132, -1, 8.5879, 19.5464, 29.3717, 23.0337, -51.329, -19.334
1.136, -1, 8.64784, 19.5226, 29.331, 23.1319, -51.1826, -19.4022
1.14, -1, 8.70761, 19.4989, 29.2904, 23.2298, -51.0365, -19.4703
1.144, -1, 8.76721, 19.4753, 29.2499, 23.3274, -50.8908, -19.5381
1.147, -1, 8.82664, 19.4518, 29.2095, 23.4248, -50.7456, -19.6058
1.152, -1, 8.88591, 19.4283, 29.1692, 23.5219, -50.6007, -19.6733
1.156, -1, 8.94502, 19.4049, 29.129, 23.6187, -50.4563, -19.7406
1.16, -1, 9.00397, 19.3815, 29.0889, 23.7153, -50.3122, -19.8077
1.164, -1, 9.06275, 19.3582, 29.049, 23.8116, -50.1686, -19.8747
1.168, -1, 9.12137, 19.335, 29.0091, 23.9076, -50.0253, -19.9414
1.172, -1, 9.17983, 19.3118, 28.9694, 24.0034, -49.8825, -20.008
1.175, -1, 9.23814, 19.2887, 28.9298, 24.0989, -49.74, -20.0744
1.18, -1, 9.29628, 19.2657, 28.8903, 24.1941, -49.5979, -20.1406
1.184, -1, 9.35427, 19.2427, 28.8508, 24.2891, -49.4562, -20.2066
1.188, -1, 9.4121, 19.2198, 28.8115, 24.3838, -49.3148, -20.2724
1.192, -1, 9.46978, 19.1969, 28.7723, 24.4783, -49.1739, -20.3381
1.196, -1, 9.5273, 19.1741, 28.7332, 24.5725, -49.0333, -20.4036
1.2, -1, 9.58467, 19.1514, 28.6943, 24.6665, -48.8931, -20.4689
1.204, -1, 9.64189, 19.1287, 28.6554, 24.7602, -48.7533, -20.5341
1.208, -1, 9.69896, 19.1061, 28.6166, 24.8537, -48.6138, -20.5991
1.212, -1, 9.75588, 19.0836, 28.5779, 24.947, -48.4747, -20.6639
1.216, -1, 9.81265, 19.0611, 28.5393, 25.0399, -48.336, -20.7285
1.22, -1, 9.86927, 19.0386, 28.5008, 25.1327, -48.1976, -20.793
1.224, -1, 9.92575, 19.0163, 28.4624, 25.2252, -48.0596, -20.8573
1.228, -1, 9.98208, 18.9939, 28.4241, 25.3175, -47.9219, -20.9215
1.232, -1, 10.0383, 18.9717, 28.386, 25.4095, -47.7846, -20.9854
1.236, -1, 10.0943, 18.9495, 28.3479, 25.5013, -47.6476, -21.0493
1.24, -1, 10.1502, 18.9273, 28.3099, 25.5929, -47.511, -21.1129
1.244, -1, 10.206, 18.9052, 28.272, 25.6842, -47.3748, -21.1764
1.248, -1, 10.2616, 18.8832, 28.2342, 25.7753, -47.2388, -21.2397
1.252, -1, 10.3171, 18.8612, 28.1965, 25.8662, -47.1033, -21.3029
1.256, -1, 10.3724, 18.8393, 28.1589, 25.9569, -46.968, -21.3659
1.26, -1, 10.4276, 18.8174, 28.1213, 26.0473, -46.8331, -21.4288
1.264, -1, 10.4827, 18.7956, 28.0839, 26.1375, -46.6986, -21.4915
1.267, -1, 10.5376, 18.7738, 28.0466, 26.2275, -46.5643, -21.554
1.272, -1, 10.5924, 18.7521, 28.0093, 26.3172, -46.4304, -21.6164
1.276, -1, 10.647, 18.7304, 27.9722, 26.4067, -46.2969, -21.6786
1.28, -1, 10.7016, 18.7088, 27.9351, 26.4961, -46.1636, -21.7407
1.284, -1, 10.7559, 18.6873, 27.8982, 26.5851, -46.0307, -21.8027
1.288, -1, 10.8102, 18.6658, 27.8613, 26.674, -45.8981, -21.8644
1.292, -1, 10.8643, 18.6443, 27.8245, 26.7627, -45.7658, -21.9261
1.295, -1, 10.9183, 18.6229, 27.7878, 26.8511, -45.6339, -21.9875
1.3, -1, 10.9722, 18.6016, 27.7512, 26.9394, -45.5022, -22.0489
1.304, -1, 11.0259, 18.5803, 27.7147, 27.0274, -45.3709, -22.1101
1.308, -1, 11.0796, 18.5591, 27.6782, 27.1152, -45.2399, -22.1711
1.312, -1, 11.133, 18.5379, 27.6419, 27.2028, -45.1092, -22.232
1.316, -1, 11.1864, 18.5167, 27.6056, 27.2902, -44.9788, -22.2928
1.32, -1, 11.2396, 18.4956, 27.5695, 27.3774, -44.8487, -22.3534
1.324, -1, 11.2927, 18.4746, 27.5334, 27.4644, -44.719, -22.4138
1.328, -1, 11.3457, 18.4536, 27.4974, 27.5512, -44.5895, -22.4742
1.332, -1, 11.3986, 18.4327, 27.4614, 27.6378, -44.4603, -22.5344
1.336, -1, 11.4513, 18.4118, 27.4256, 27.7241, -44.3314, -22.5944
1.34, -1, 11.5039, 18.3909, 27.3898, 27.8103, -44.2029, -22.6543
1.344, -1, 11.5564, 18.3701, 27.3542, 27.8963, -44.0746, -22.7141
1.348, -1, 11.6088, 18.3494, 27.3186, 27.9821, -43.9466, -22.7737
1.352, -1, 11.661, 18.3287, 27.2831, 28.0677, -43.8189, -22.8332
1.356, -1, 11.7132, 18.308, 27.2476, 28.1531, -43.6915, -22.8926
1.36, -1, 11.7652, 18.2874, 27.2123, 28.2383, -43.5644, -22.9518
1.364, -1, 11.8171, 18.2668, 27.177, 28.3233, -43.4376, -23.0109
1.368, -1, 11.8688, 18.2463, 27.1418, 28.4081, -43.3111, -23.0698
1.372, -1, 11.9205, 18.2259, 27.1067, 28.4927, -43.1848, -23.1286
1.376, -1, 11.972, 18.2054, 27.0717, 28.5771, -43.0589, -23.1873
1.38, -1, 12.0235, 18.1851, 27.0367, 28.6614, -42.9332, -23.2459
1.384, -1, 12.0748, 18.1647, 27.0018, 28.7454, -42.8078, -23.3043
1.388, -1, 12.126, 18.1444, 26.967, 28.8293, -42.6827, -23.3626
1.392, -1, 12.1771, 18.1242, 26.9323, 28.913, -42.5578, -23.4208
1.396, -1, 12.228, 18.104, 26.8977, 28.9965, -42.4333, -23.4788
1.4, -1, 12.2789, 18.0839, 26.8631, 29.0798, -42.309, -23.5367
1.404, -1, 12.3296, 18.0637, 26.8286, 29.1629, -42.185, -23.5945
1.408, -1, 12.3803, 18.0437, 26.7942, 29.2459, -42.0612, -23.6522
1.412, -1, 12.4308, 18.0237, 26.7599, 29.3286, -41.9377, -23.7097
1.416, -1, 12.4812, 18.0037, 26.7256, 29.4112, -41.8145, -23.7671
1.42, -1, 12.5315, 17.9838, 26.6914, 29.4936, -41.6915, -23.8244
1.424, -1, 12.5817, 17.9639, 26.6573, 29.5759, -41.5689, -23.8816
1.428, -1, 12.6318, 17.944, 26.6232, 29.6579, -41.4464, -23.9386
1.432, -1, 12.6818, 17.9242, 26.5893, 29.7398, -41.3243, -23.9956
1.436, -1, 12.7317, 17.9044, 26.5554, 29.8215, -41.2024, -24.0523
1.44, -1, 12.7815, 17.8847, 26.5215, 29.9031, -41.0807, -24.109
1.444, -1, 12.8311, 17.865, 26.4878, 29.9844, -40.9594, -24.1656
1.448, -1, 12.8807, 17.8454, 26.4541, 30.0656, -40.8382, -24.222
1.452, -1, 12.9302, 17.8258, 26.4205, 30.1466, -40.7174, -24.2783
1.456, -1, 12.9795, 17.8062, 26.3869, 30.2275, -40.5967, -24.3345
1.46, -1, 13.0288, 17.7867, 26.3534, 30.3082, -40.4764, -24.3906
1.464, -1, 13.0779, 17.7673, 26.32, 30.3887, -40.3563, -24.4466
1.468, -1, 13.127, 17.7478, 26.2867, 30.469, -40.2364, -24.5024
1.472, -1, 13.1759, 17.7284, 26.2534, 30.5492, -40.1168, -24.5582
1.476, -1, 13.2248, 17.7091, 26.2202, 30.6292, -39.9974, -24.6138
1.48, -1, 13.2735, 17.6898, 26.1871, 30.7091, -39.8783, -24.6693
1.484, -1, 13.3222, 17.6705, 26.154, 30.7888, -39.7594, -24.7247
1.488, -1, 13.3707, 17.6512, 26.121, 30.8683, -39.6407, -24.78
1.492, -1, 13.4191, 17.6321, 26.0881, 30.9476, -39.5223, -24.8351
1.496, -1, 13.4675, 17.6129, 26.0553, 31.0268, -39.4042, -24.8902
1.5, -1, 13.5157, 17.5938, 26.0225, 31.1059, -39.2863, -24.9451
1.504, -1, 13.5639, 17.5747, 25.9897, 31.1848, -39.1686, -25
1.508, -1, 13.612, 17.5557, 25.9571, 31.2635, -39.0511, -25.0547
1.512, -1, 13.6599, 17.5366, 25.9245, 31.3421, -38.9339, -25.1093
1.516, -1, 13.7078, 17.5177, 25.8919, 31.4205, -38.8169, -25.1638
1.52, -1, 13.7556, 17.4988, 25.8595, 31.4987, -38.7002, -25.2182
1.524, -1, 13.8032, 17.4799, 25.8271, 31.5768, -38.5837, -25.2725
1.528, -1, 13.8508, 17.461, 25.7947, 31.6548, -38.4674, -25.3267
1.532, -1, 13.8983, 17.4422, 25.7624, 31.7326, -38.3513, -25.3808
1.536, -1, 13.9457, 17.4234, 25.7302, 31.8102, -38.2355, -25.4347
1.54, -1, 13.993, 17.4047, 25.6981, 31.8877, -38.1199, -25.4886
1.544, -1, 14.0402, 17.386, 25.666, 31.965, -38.0045, -25.5424
1.548, -1, 14.0874, 17.3673, 25.634, 32.0422, -37.8893, -25.596
1.552, -1, 14.1344, 17.3486, 25.602, 32.1193, -37.7744, -25.6496
1.556, -1, 14.1813, 17.33, 25.5701, 32.1962, -37.6597, -25.703
1.56, -1, 14.2282, 17.3115, 25.5382, 32.2729, -37.5452, -25.7564
1.564, -1, 14.275, 17.2929, 25.5065, 32.3495, -37.4309, -25.8096
1.568, -1, 14.3216, 17.2745, 25.4747, 32.426, -37.3168, -25.8628
1.572, -1, 14.3682, 17.256, 25.4431, 32.5023, -37.2029, -25.9158
1.576, -1, 14.4147, 17.2376, 25.4115, 32.5785, -37.0893, -25.9688
1.58, -1, 14.4611, 17.2192, 25.3799, 32.6545, -36.9758, -26.0216
1.584, -1, 14.5075, 17.2008, 25.3484, 32.7304, -36.8626, -26.0744
1.588, -1, 14.5537, 17.1825, 25.317, 32.8062, -36.7496, -26.1271
1.592, -1, 14.5999, 17.1642, 25.2856, 32.8818, -36.6368, -26.1796
1.596, -1, 14.6459, 17.1459, 25.2543, 32.9573, -36.5242, -26.2321
1.6, -1, 14.6919, 17.1277, 25.2231, 33.0326, -36.4118, -26.2844
1.604, -1, 14.7378, 17.1095, 25.1919, 33.1078, -36.2996, -26.3367
1.608, -1, 14.7837, 17.0914, 25.1607, 33.1829, -36.1877, -26.3889
1.612, -1, 14.8294, 17.0733, 25.1296, 33.2578, -36.0759, -26.441
1.616, -1, 14.875, 17.0552, 25.0986, 33.3326, -35.9643, -26.493
1.62, -1, 14.9206, 17.0371, 25.0676, 33.4072, -35.8529, -26.5448
1.624, -1, 14.9661, 17.0191, 25.0367, 33.4817, -35.7418, -26.5966
1.628, -1, 15.0115, 17.0011, 25.0058, 33.5561, -35.6308, -26.6483
1.632, -1, 15.0568, 16.9831, 24.975, 33.6304, -35.52, -26.7
1.636, -1, 15.1021, 16.9652, 24.9443, 33.7045, -35.4094, -26.7515
1.64, -1, 15.1472, 16.9473, 24.9136, 33.7785, -35.2991, -26.8029
1.644, -1, 15.1923, 16.9294, 24.8829, 33.8523, -35.1889, -26.8543
1.648, -1, 15.2373, 16.9116, 24.8524, 33.9261, -35.0789, -26.9055
1.652, -1, 15.2822, 16.8938, 24.8218, 33.9997, -34.9691, -26.9567
1.656, -1, 15.3271, 16.876, 24.7913, 34.0731, -34.8595, -27.0077
1.66, -1, 15.3719, 16.8583, 24.7609, 34.1465, -34.75, -27.0587
1.664, -1, 15.4166, 16.8406, 24.7305, 34.2197, -34.6408, -27.1096
1.668, -1, 15.4612, 16.8229, 24.7002, 34.2928, -34.5318, -27.1604
1.672, -1, 15.5057, 16.8053, 24.6699, 34.3657, -34.4229, -27.2111
1.676, -1, 15.5502, 16.7876, 24.6397, 34.4386, -34.3143, -27.2618
1.68, -1, 15.5946, 16.7701, 24.6095, 34.5113, -34.2058, -27.3123
1.684, -1, 15.6389, 16.7525, 24.5794, 34.5839, -34.0975, -27.3628
1.688, -1, 15.6831, 16.735, 24.5494, 34.6563, -33.9894, -27.4131
1.692, -1, 15.7272, 16.7175, 24.5193, 34.7287, -33.8815, -27.4634
1.696, -1, 15.7713, 16.7, 24.4894, 34.8009, -33.7737, -27.5136
1.7, -1, 15.8153, 16.6826, 24.4595, 34.873, -33.6662, -27.5637
1.704, -1, 15.8593, 16.6652, 24.4296, 34.945, -33.5588, -27.6138
1.708, -1, 15.9031, 16.6478, 24.3998, 35.0168, -33.4516, -27.6637
1.712, -1, 15.9469, 16.6304, 24.37, 35.0886, -33.3446, -27.7136
1.716, -1, 15.9906, 16.6131, 24.3403, 35.1602, -33.2377, -27.7634
1.72, -1, 16.0343, 16.5958, 24.3107, 35.2317, -33.1311, -27.8131
1.724, -1, 16.0778, 16.5786, 24.281, 35.303, -33.0246, -27.8627
1.728, -1, 16.1213, 16.5613, 24.2515, 35.3743, -32.9183, -27.9122
1.732, -1, 16.1648, 16.5441, 24.222, 35.4454, -32.8121, -27.9617
1.736, -1, 16.2081, 16.5269, 24.1925, 35.5165, -32.7062, -28.011
1.74, -1, 16.2514, 16.5098, 24.1631, 35.5874, -32.6004, -28.0603
1.744, -1, 16.2946, 16.4927, 24.1337, 35.6582, -32.4947, -28.1096
1.748, -1, 16.3378, 16.4756, 24.1044, 35.7289, -32.3893, -28.1587
1.752, -1, 16.3808, 16.4585, 24.0751, 35.7994, -32.284, -28.2077
1.756, -1, 16.4238, 16.4414, 24.0459, 35.8699, -32.1789, -28.2567
1.76, -1, 16.4668, 16.4244, 24.0167, 35.9402, -32.074, -28.3056
1.764, -1, 16.5096, 16.4074, 23.9875, 36.0105, -31.9692, -28.3544
1.768, -1, 16.5524, 16.3905, 23.9584, 36.0806, -31.8646, -28.4032
1.772, -1, 16.5952, 16.3736, 23.9294, 36.1506, -31.7602, -28.4518
1.776, -1, 16.6378, 16.3566, 23.9004, 36.2205, -31.6559, -28.5004
1.78, -1, 16.6804, 16.3398, 23.8714, 36.2902, -31.5518, -28.5489
1.784, -1, 16.7229, 16.3229, 23.8425, 36.3599, -31.4478, -28.5973
1.788, -1, 16.7654, 16.3061, 23.8137, 36.4295, -31.344, -28.6457
1.792, -1, 16.8078, 16.2893, 23.7849, 36.4989, -31.2404, -28.694
1.796, -1, 16.8501, 16.2725, 23.7561, 36.5683, -31.137, -28.7422
1.8, -1, 16.8924, 16.2558, 23.7274, 36.6375, -31.0337, -28.7903
1.804, -1, 16.9346, 16.239, 23.6987, 36.7067, -30.9305, -28.8384
1.808, -1, 16.9767, 16.2224, 23.67, 36.7757, -30.8276, -28.8863
1.812, -1, 17.0188, 16.2057, 23.6414, 36.8446, -30.7248, -28.9343
1.816, -1, 17.0608, 16.189, 23.6129, 36.9134, -30.6221, -28.9821
1.82, -1, 17.1027, 16.1724, 23.5844, 36.9821, -30.5196, -29.0298
1.824, -1, 17.1445, 16.1559, 23.5559, 37.0507, -30.4172, -29.0775
1.828, -1, 17.186, 16.1394, 23.5275, 37.1192, -30.3151, -29.1251
1.832, -1, 17.2272, 16.1231, 23.4991, 37.1876, -30.2131, -29.1727
1.836, -1, 17.2677, 16.107, 23.4708, 37.2557, -30.1114, -29.2201
1.84, -1, 17.3076, 16.0912, 23.4426, 37.3237, -30.01, -29.2673
1.844, -1, 17.3467, 16.0757, 23.4146, 37.3913, -29.9092, -29.3143
1.848, -1, 17.3848, 16.0608, 23.3867, 37.4584, -29.8092, -29.3609
1.852, -1, 17.422, 16.0463, 23.3592, 37.5247, -29.7102, -29.407
1.856, -1, 17.458, 16.0323, 23.332, 37.59, -29.6128, -29.4524
1.86, -1, 17.4929, 16.019, 23.3054, 37.654, -29.5174, -29.4969
1.864, -1, 17.5264, 16.0063, 23.2795, 37.7163, -29.4245, -29.5402
1.868, -1, 17.5585, 15.9944, 23.2545, 37.7765, -29.3348, -29.582
1.872, -1, 17.589, 15.9832, 23.2306, 37.8341, -29.2489, -29.6221
1.876, -1, 17.6179, 15.9726, 23.2078, 37.8888, -29.1674, -29.66
1.88, -1, 17.6452, 15.9627, 23.1865, 37.94, -29.0911, -29.6956
1.884, -1, 17.6708, 15.9533, 23.1668, 37.9874, -29.0204, -29.7286
1.888, -1, 17.6949, 15.9443, 23.1489, 38.0306, -28.9559, -29.7586
1.892, -1, 17.7175, 15.9356, 23.1327, 38.0695, -28.8979, -29.7857
1.896, -1, 17.7385, 15.9272, 23.1184, 38.1039, -28.8466, -29.8096
1.9, -1, 17.758, 15.9192, 23.106, 38.1339, -28.8018, -29.8304
1.904, -1, 17.7759, 15.9115, 23.0954, 38.1595, -28.7636, -29.8482
1.908, -1, 17.792, 15.9045, 23.0865, 38.181, -28.7315, -29.8632
1.912, -1, 17.8065, 15.898, 23.0792, 38.1987, -28.7051, -29.8755
1.916, -1, 17.8195, 15.8921, 23.0733, 38.2129, -28.6838, -29.8854
1.92, -1, 17.831, 15.8868, 23.0687, 38.2241, -28.667, -29.8932
1.924, -1, 17.8411, 15.8821, 23.0652, 38.2327, -28.6542, -29.8991
1.928, -1, 17.85, 15.8781, 23.0626, 38.2391, -28.6446, -29.9036
1.932, -1, 17.8576, 15.8747, 23.0607, 38.2438, -28.6375, -29.9068
1.936, -1, 17.8638, 15.872, 23.0593, 38.2471, -28.6325, -29.9091
1.94, 2, 17.8689, 15.8698, 23.0584, 38.2494, -28.629, -29.9108
1.944, 2, 17.8727, 15.8682, 23.0577, 38.251, -28.6266, -29.9119
1.948, 2, 17.8755, 15.867, 23.0573, 38.2521, -28.625, -29.9126
1.952, 2, 17.8775, 15.8662, 23.057, 38.2528, -28.6239, -29.9131
1.956, 2, 17.8788, 15.8657, 23.0568, 38.2533, -28.6231, -29.9135
1.96, 2, 17.8797, 15.8653, 23.0567, 38.2537, -28.6226, -29.9137
1.964, 2, 17.8803, 15.8651, 23.0566, 38.2539, -28.6222, -29.9139
1.968, 2, 17.8807, 15.8649, 23.0565, 38.254, -28.622, -29.914
1.972, 2, 17.881, 15.8648, 23.0565, 38.2541, -28.6219, -29.9141
1.976, 2, 17.8812, 15.8647, 23.0564, 38.2542, -28.6217, -29.9141
1.98, 2, 17.8813, 15.8647, 23.0564, 38.2543, -28.6217, -29.9142
1.984, 2, 17.8814, 15.8646, 23.0564, 38.2543, -28.6216, -29.9142
1.988, 2, 17.8814, 15.8646, 23.0564, 38.2543, -28.6216, -29.9142
1.992, 2, 17.8815, 15.8646, 23.0564, 38.2543, -28.6216, -29.9142
1.996, 2, 17.8815, 15.8646, 23.0564, 38.2543, -28.6216, -29.9142
1.999, 2, 17.8815, 15.8646, 23.0564, 38.2544, -28.6215, -29.9142
2.004, 2, 17.8815, 15.8646, 23.0564, 38.2544, -28.6215, -29.9142
2.008, 2, 17.8816, 15.8646, 23.0564, 38.2544, -28.6215, -29.9142
2.012, 2, 17.8816, 15.8646, 23.0564, 38.2544, -28.6215, -29.9142
2.015, 2, 17.8816, 15.8646, 23.0564, 38.2544, -28.6215, -29.9142
2.019, 2, 17.8816, 15.8646, 23.0564, 38.2544, -28.6215, -29.9142
2.024, 2, 17.8816, 15.8646, 23.0564, 38.2544, -28.6215, -29.9142
2.028, 2, 17.8816, 15.8645, 23.0564, 38.2544, -28.6215, -29.9142
2.031, 2, 17.8816, 15.8645, 23.0564, 38.2544, -28.6215, -29.9142
2.036, 2, 17.8816, 15.8645, 23.0564, 38.2544, -28.6215, -29.9142
2.04, 2, 17.8816, 15.8645, 23.0564, 38.2544, -28.6215, -29.9142
2.044, 2, 17.8816, 15.8645, 23.0564, 38.2544, -28.6215, -29.9142
2.048, 2, 17.8816, 15.8645, 23.0564, 38.2544, -28.6215, -29.9142
2.051, 2, 17.8816, 15.8645, 23.0564, 38.2544, -28.6215, -29.9142
2.055, 2, 17.8816, 15.8645, 23.0564, 38.2544, -28.6215, -29.9142
2.06, 2, 17.8816, 15.8645, 23.0564, 38.2544, -28.6215, -29.9142
2.064, 2, 17.8816, 15.8645, 23.0564, 38.2544, -28.6215, -29.9142
2.068, 2, 17.8816, 15.8645, 23.0564, 38.2544, -28.6215, -29.9142
2.071, 2, 17.8816, 15.8645, 23.0564, 38.2544, -28.6215, -29.9142
2.076, 2, 17.8816, 15.8645, 23.0564, 38.2544, -28.6215, -29.9142
2.08, 2, 17.8816, 15.8645, 23.0564, 38.2544, -28.6215, -29.9142
2.084, 2, 17.8816, 15.8645, 23.0564, 38.2544, -28.6215, -29.9142
2.087, 2, 17.8816, 15.8645, 23.0564, 38.2544, -28.6215, -29.9142
2.092, 2, 17.8816, 15.8645, 23.0564, 38.2544, -28.6215, -29.9142
2.096, 2, 17.8816, 15.8645, 23.0564, 38.2544, -28.6215, -29.9142
2.1, 2, 17.8816, 15.8645, 23.0564, 38.2544, -28.6215, -29.9142
2.104, 2, 17.8816, 15.8645, 23.0564, 38.2544, -28.6215, -29.9142
2.107, 2, 17.8816, 15.8645, 23.0564, 38.2544, -28.6215, -29.9142
2.111, 2, 17.8816, 15.8645, 23.0564, 38.2544, -28.6215, -29.9142
2.116, 2, 17.8816, 15.8645, 23.0564, 38.2544, -28.6215, -29.9142
2.12, 2, 17.8816, 15.8645, 23.0564, 38.2544, -28.6215, -29.9142
2.124, 2, 17.8816, 15.8645, 23.0564, 38.2544, -28.6215, -29.9142
2.127, 2, 17.8816, 15.8645, 23.0564, 38.2544, -28.6215, -29.9142
2.132, 2, 17.8816, 15.8645, 23.0564, 38.2544, -28.6215, -29.9142
2.136, 2, 17.8816, 15.8645, 23.0564, 38.2544, -28.6215, -29.9142
2.14, 2, 17.8816, 15.8645, 23.0564, 38.2544, -28.6215, -29.9142
2.143, 2, 17.8816, 15.8645, 23.0564, 38.2544, -28.6215, -29.9142
2.148, 2, 17.8816, 15.8645, 23.0564, 38.2544, -28.6215, -29.9142
2.152, 2, 17.8816, 15.8645, 23.0564, 38.2544, -28.6215, -29.9142
2.156, 2, 17.8816, 15.8645, 23.0564, 38.2544, -28.6215, -29.9142
2.16, 2, 17.8816, 15.8645, 23.0564, 38.2544, -28.6215, -29.9142
2.163, 2, 17.8816, 15.8645, 23.0564, 38.2544, -28.6215, -29.9142
2.168, 2, 17.8816, 15.8645, 23.0564, 38.2544, -28.6215, -29.9142
2.172, 2, 17.8816, 15.8645, 23.0564, 38.2544, -28.6215, -29.9142
2.176, 2, 17.8816, 15.8645, 23.0564, 38.2544, -28.6215, -29.9142
2.179, 2, 17.8816, 15.8645, 23.0564, 38.2544, -28.6215, -29.9142
2.184, 2, 17.8816, 15.8645, 23.0564, 38.2544, -28.6215, -29.9142
2.188, 2, 17.8816, 15.8645, 23.0564, 38.2544, -28.6215, -29.9142
2.192, 2, 17.8816, 15.8645, 23.0564, 38.2544, -28.6215, -29.9142
2.196, 2, 17.8816, 15.8645, 23.0564, 38.2544, -28.6215, -29.9142
2.199, 2, 17.8816, 15.8645, 23.0564, 38.2544, -28.6215, -29.9142
2.204, 2, 17.8816, 15.8645, 23.0564, 38.2544, -28.6215, -29.9142
2.208, 2, 17.8816, 15.8645, 23.0564, 38.2544, -28.6215, -29.9142
2.212, 2, 17.8816, 15.8645, 23.0564, 38.2544, -28.6215, -29.9142
2.216, 2, 17.8816, 15.8645, 23.0564, 38.2544, -28.6215, -29.9142
2.219, 2, 17.8816, 15.8645, 23.0564, 38.2544, -28.6215, -29.9142
2.224, 2, 17.8816, 15.8645, 23.0564, 38.2544, -28.6215, -29.9142
2.228, 2, 17.8816, 15.8645, 23.0564, 38.2544, -28.6215, -29.9142
2.232, 2, 17.8816, 15.8645, 23.0564, 38.2544, -28.6215, -29.9142
2.235, 2, 17.8816, 15.8645, 23.0564, 38.2544, -28.6215, -29.9142
2.24, 2, 17.8816, 15.8645, 23.0564, 38.2544, -28.6215, -29.9142
2.244, 2, 17.8816, 15.8645, 23.0564, 38.2544, -28.6215, -29.9142
2.248, 2, 17.8816, 15.8645, 23.0564, 38.2544, -28.6215, -29.9142
2.252, 2, 17.8816, 15.8645, 23.0564, 38.2544, -28.6215, -29.9142
2.255, 2, 17.8816, 15.8645, 23.0564, 38.2544, -28.6215, -29.9142
2.259, 2, 17.8816, 15.8645, 23.0564, 38.2544, -28.6215, -29.9142
2.264, 2, 17.8816, 15.8645, 23.0564, 38.2544, -28.6215, -29.9142
2.268, 2, 17.8816, 15.8645, 23.0564, 38.2544, -28.6215, -29.9142
2.272, 2, 17.8816, 15.8645, 23.0564, 38.2544, -28.6215, -29.9142
2.275, 2, 17.8816, 15.8645, 23.0564, 38.2544, -28.6215, -29.9142
2.28, 2, 17.8816, 15.8645, 23.0564, 38.2544, -28.6215, -29.9142
2.284, 2, 17.8816, 15.8645, 23.0564, 38.2544, -28.6215, -29.9142
2.288, 2, 17.8816, 15.8645, 23.0564, 38.2544, -28.6215, -29.9142
2.291, 2, 17.8816, 15.8645, 23.0564, 38.2544, -28.6215, -29.9142
2.296, 2, 17.8816, 15.8645, 23.0564, 38.2544, -28.6215, -29.9142
2.3, 2, 17.8816, 15.8645, 23.0564, 38.2544, -28.6215, -29.9142
2.304, 2, 17.8816, 15.8645, 23.0564, 38.2544, -28.6215, -29.9142
2.308, 2, 17.8816, 15.8645, 23.0564, 38.2544, -28.6215, -29.9142
2.311, 2, 17.8816, 15.8645, 23.0564, 38.2544, -28.6215, -29.9142
2.316, 2, 17.8816, 15.8645, 23.0564, 38.2544, -28.6215, -29.9142
2.32, 2, 17.8816, 15.8645, 23.0564, 38.2544, -28.6215, -29.9142
2.324, 2, 17.8816, 15.8645, 23.0564, 38.2544, -28.6215, -29.9142
2.328, 2, 17.8816, 15.8645, 23.0564, 38.2544, -28.6215, -29.9142
2.331, 2, 17.8816, 15.8645, 23.0564, 38.2544, -28.6215, -29.9142
2.336, 2, 17.8816, 15.8645, 23.0564, 38.2544, -28.6215, -29.9142
2.34, 2, 17.8816, 15.8645, 23.0564, 38.2544, -28.6215, -29.9142
2.344, 2, 17.8816, 15.8645, 23.0564, 38.2544, -28.6215, -29.9142
2.347, 2, 17.8816, 15.8645, 23.0564, 38.2544, -28.6215, -29.9142
2.352, 2, 17.8816, 15.8645, 23.0564, 38.2544, -28.6215, -29.9142
2.356, 2, 17.8816, 15.8645, 23.0564, 38.2544, -28.6215, -29.9142
2.36, 2, 17.8816, 15.8645, 23.0564, 38.2544, -28.6215, -29.9142
2.364, 2, 17.8816, 15.8645, 23.0564, 38.2544, -28.6215, -29.9142
2.367, 2, 17.8816, 15.8645, 23.0564, 38.2544, -28.6215, -29.9142
2.372, 2, 17.8816, 15.8645, 23.0564, 38.2544, -28.6215, -29.9142
2.376, 2, 17.8816, 15.8645, 23.0564, 38.2544, -28.6215, -29.9142
2.38, 2, 17.8816, 15.8645, 23.0564, 38.2544, -28.6215, -29.9142
2.383, 2, 17.8816, 15.8645, 23.0564, 38.2544, -28.6215, -29.9142
2.388, 2, 17.8816, 15.8645, 23.0564, 38.2544, -28.6215, -29.9142
2.392, 2, 17.8816, 15.8645, 23.0564, 38.2544, -28.6215, -29.9142
2.396, 2, 17.8816, 15.8645, 23.0564, 38.2544, -28.6215, -29.9142
2.4, 2, 17.8816, 15.8645, 23.0564, 38.2544, -28.6215, -29.9142
2.403, 2, 17.8816, 15.8645, 23.0564, 38.2544, -28.6215, -29.9142
2.408, 2, 17.8816, 15.8645, 23.0564, 38.2544, -28.6215, -29.9142
2.412, 2, 17.8816, 15.8645, 23.0564, 38.2544, -28.6215, -29.9142
2.416, 2, 17.8816, 15.8645, 23.0564, 38.2544, -28.6215, -29.9142
2.42, 2, 17.8816, 15.8645, 23.0564, 38.2544, -28.6215, -29.9142
2.423, 2, 17.8816, 15.8645, 23.0564, 38.2544, -28.6215, -29.9142
2.428, 2, 17.8816, 15.8645, 23.0564, 38.2544, -28.6215, -29.9142
2.432, 2, 17.8816, 15.8645, 23.0564, 38.2544, -28.6215, -29.9142
2.436, 2, 17.8816, 15.8645, 23.0564, 38.2544, -28.6215, -29.9142
2.439, 2, 17.8816, 15.8645, 23.0564, 38.2544, -28.6215, -29.9142
2.444, 2, 17.8816, 15.8645, 23.0564, 38.2544, -28.6215, -29.9142
2.448, 2, 17.8816, 15.8645, 23.0564, 38.2544, -28.6215, -29.9142
2.452, 2, 17.8816, 15.8645, 23.0564, 38.2544, -28.6215, -29.9142
2.456, 2, 17.8816, 15.8645, 23.0564, 38.2544, -28.6215, -29.9142
2.459, 2, 17.8816, 15.8645, 23.0564, 38.2544, -28.6215, -29.9142
2.464, 2, 17.8816, 15.8645, 23.0564, 38.2544, -28.6215, -29.9142
2.468, 2, 17.8816, 15.8645, 23.0564, 38.2544, -28.6215, -29.9142
2.472, 2, 17.8816, 15.8645, 23.0564, 38.2544, -28.6215, -29.9142
2.476, 2, 17.8816, 15.8645, 23.0564, 38.2544, -28.6215, -29.9142
2.479, 2, 17.8816, 15.8645, 23.0564, 38.2544, -28.6215, -29.9142
2.484, 2, 17.8816, 15.8645, 23.0564, 38.2544, -28.6215, -29.9142
2.488, 2, 17.8816, 15.8645, 23.0564, 38.2544, -28.6215, -29.9142
2.492, 2, 17.8816, 15.8645, 23.0564, 38.2544, -28.6215, -29.9142
2.495, 2, 17.8816, 15.8645, 23.0564, 38.2544, -28.6215, -29.9142
2.5, 2, 17.8816, 15.8645, 23.0564, 38.2544, -28.6215, -29.9142
2.504, 2, 17.8816, 15.8645, 23.0564, 38.2544, -28.6215, -29.9142
2.508, 2, 17.8816, 15.8645, 23.0564, 38.2544, -28.6215, -29.9142
2.512, 2, 17.8816, 15.8645, 23.0564, 38.2544, -28.6215, -29.9142
2.515, 2, 17.8816, 15.8645, 23.0564, 38.2544, -28.6215, -29.9142
2.52, 2, 17.8816, 15.8645, 23.0564, 38.2544, -28.6215, -29.9142
2.524, 2, 17.8816, 15.8645, 23.0564, 38.2544, -28.6215, -29.9142
2.528, 2, 17.8816, 15.8645, 23.0564, 38.2544, -28.6215, -29.9142
2.531, 2, 17.8816, 15.8645, 23.0564, 38.2544, -28.6215, -29.9142
2.536, 2, 17.8816, 15.8645, 23.0564, 38.2544, -28.6215, -29.9142
2.54, 2, 17.8816, 15.8645, 23.0564, 38.2544, -28.6215, -29.9142
2.544, 2, 17.8816, 15.8645, 23.0564, 38.2544, -28.6215, -29.9142
2.548, 2, 17.8816, 15.8645, 23.0564, 38.2544, -28.6215, -29.9142
2.551, 2, 17.8816, 15.8645, 23.0564, 38.2544, -28.6215, -29.9142
2.556, 2, 17.8816, 15.8645, 23.0564, 38.2544, -28.6215, -29.9142
2.56, 2, 17.8816, 15.8645, 23.0564, 38.2544, -28.6215, -29.9142
2.564, 2, 17.8816, 15.8645, 23.0564, 38.2544, -28.6215, -29.9142
2.568, 2, 17.8816, 15.8645, 23.0564, 38.2544, -28.6215, -29.9142
2.571, 2, 17.8816, 15.8645, 23.0564, 38.2544, -28.6215, -29.9142
2.576, 2, 17.8816, 15.8645, 23.0564, 38.2544, -28.6215, -29.9142
2.58, 2, 17.8816, 15.8645, 23.0564, 38.2544, -28.6215, -29.9142
2.584, 2, 17.8816, 15.8645, 23.0564, 38.2544, -28.6215, -29.9142
2.587, 2, 17.8816, 15.8645, 23.0564, 38.2544, -28.6215, -29.9142
2.592, 2, 17.8816, 15.8645, 23.0564, 38.2544, -28.6215, -29.9142
2.596, 2, 17.8816, 15.8645, 23.0564, 38.2544, -28.6215, -29.9142
2.6, 2, 17.8816, 15.8645, 23.0564, 38.2544, -28.6215, -29.9142
2.604, 2, 17.8816, 15.8645, 23.0564, 38.2544, -28.6215, -29.9142
2.607, 2, 17.8816, 15.8645, 23.0564, 38.2544, -28.6215, -29.9142
2.612, 2, 17.8816, 15.8645, 23.0564, 38.2544, -28.6215, -29.9142
2.616, 2, 17.8816, 15.8645, 23.0564, 38.2544, -28.6215, -29.9142
2.62, 2, 17.8816, 15.8645, 23.0564, 38.2544, -28.6215, -29.9142
2.624, 2, 17.8816, 15.8645, 23.0564, 38.2544, -28.6215, -29.9142
2.627, 2, 17.8816, 15.8645, 23.0564, 38.2544, -28.6215, -29.9142
2.632, 2, 17.8816, 15.8645, 23.0564, 38.2544, -28.6215, -29.9142
2.636, 2, 17.8816, 15.8645, 23.0564, 38.2544, -28.6215, -29.9142
2.64, 2, 17.8816, 15.8645, 23.0564, 38.2544, -28.6215, -29.9142
2.643, 2, 17.8816, 15.8645, 23.0564, 38.2544, -28.6215, -29.9142
2.648, 2, 17.8816, 15.8645, 23.0564, 38.2544, -28.6215, -29.9142
2.652, 2, 17.8816, 15.8645, 23.0564, 38.2544, -28.6215, -29.9142
2.656, 2, 17.8816, 15.8645, 23.0564, 38.2544, -28.6215, -29.9142
2.66, 2, 17.8816, 15.8645, 23.0564, 38.2544, -28.6215, -29.9142
2.663, 2, 17.8816, 15.8645, 23.0564, 38.2544, -28.6215, -29.9142
2.668, 2, 17.8816, 15.8645, 23.0564, 38.2544, -28.6215, -29.9142
2.672, 2, 17.8816, 15.8645, 23.0564, 38.2544, -28.6215, -29.9142
2.676, 2, 17.8816, 15.8645, 23.0564, 38.2544, -28.6215, -29.9142
2.679, 2, 17.8816, 15.8645, 23.0564, 38.2544, -28.6215, -29.9142
2.684, 2, 17.8816, 15.8645, 23.0564, 38.2544, -28.6215, -29.9142
2.688, 2, 17.8816, 15.8645, 23.0564, 38.2544, -28.6215, -29.9142
2.692, 2, 17.8816, 15.8645, 23.0564, 38.2544, -28.6215, -29.9142
2.696, 2, 17.8816, 15.8645, 23.0564, 38.2544, -28.6215, -29.9142
2.699, 2, 17.8816, 15.8645, 23.0564, 38.2544, -28.6215, -29.9142
2.704, 2, 17.8816, 15.8645, 23.0564, 38.2544, -28.6215, -29.9142
2.708, 2, 17.8816, 15.8645, 23.0564, 38.2544, -28.6215, -29.9142
2.712, 2, 17.8816, 15.8645, 23.0564, 38.2544, -28.6215, -29.9142
2.716, 2, 17.8816, 15.8645, 23.0564, 38.2544, -28.6215, -29.9142
2.719, 2, 17.8816, 15.8645, 23.0564, 38.2544, -28.6215, -29.9142
2.724, 2, 17.8816, 15.8645, 23.0564, 38.2544, -28.6215, -29.9142
2.728, 2, 17.8816, 15.8645, 23.0564, 38.2544, -28.6215, -29.9142
2.732, 2, 17.8816, 15.8645, 23.0564, 38.2544, -28.6215, -29.9142
2.735, 2, 17.8816, 15.8645, 23.0564, 38.2544, -28.6215, -29.9142
2.74, 2, 17.8816, 15.8645, 23.0564, 38.2544, -28.6215, -29.9142
2.744, 2, 17.8816, 15.8645, 23.0564, 38.2544, -28.6215, -29.9142
2.748, 2, 17.8816, 15.8645, 23.0564, 38.2544, -28.6215, -29.9142
2.752, 2, 17.8816, 15.8645, 23.0564, 38.2544, -28.6215, -29.9142
2.755, 2, 17.8816, 15.8645, 23.0564, 38.2544, -28.6215, -29.9142
2.76, 2, 17.8816, 15.8645, 23.0564, 38.2544, -28.6215, -29.9142
2.764, 2, 17.8816, 15.8645, 23.0564, 38.2544, -28.6215, -29.9142
2.768, 2, 17.8816, 15.8645, 23.0564, 38.2544, -28.6215, -29.9142
2.772, 2, 17.8816, 15.8645, 23.0564, 38.2544, -28.6215, -29.9142
2.775, 2, 17.8816, 15.8645, 23.0564, 38.2544, -28.6215, -29.9142
2.78, 2, 17.8816, 15.8645, 23.0564, 38.2544, -28.6215, -29.9142
2.784, 2, 17.8816, 15.8645, 23.0564, 38.2544, -28.6215, -29.9142
2.788, 2, 17.8816, 15.8645, 23.0564, 38.2544, -28.6215, -29.9142
2.791, 2, 17.8816, 15.8645, 23.0564, 38.2544, -28.6215, -29.9142
2.796, 2, 17.8816, 15.8645, 23.0564, 38.2544, -28.6215, -29.9142
2.8, 2, 17.8816, 15.8645, 23.0564, 38.2544, -28.6215, -29.9142
2.804, 2, 17.8816, 15.8645, 23.0564, 38.2544, -28.6215, -29.9142
2.808, 2, 17.8816, 15.8645, 23.0564, 38.2544, -28.6215, -29.9142
2.811, 2, 17.8816, 15.8645, 23.0564, 38.2544, -28.6215, -29.9142
2.816, 2, 17.8816, 15.8645, 23.0564, 38.2544, -28.6215, -29.9142
2.82, 2, 17.8816, 15.8645, 23.0564, 38.2544, -28.6215, -29.9142
2.824, 2, 17.8816, 15.8645, 23.0564, 38.2544, -28.6215, -29.9142
2.828, 2, 17.8816, 15.8645, 23.0564, 38.2544, -28.6215, -29.9142
2.831, 2, 17.8816, 15.8645, 23.0564, 38.2544, -28.6215, -29.9142
2.836, 2, 17.8816, 15.8645, 23.0564, 38.2544, -28.6215, -29.9142
2.84, 2, 17.8816, 15.8645, 23.0564, 38.2544, -28.6215, -29.9142
2.844, 2, 17.8816, 15.8645, 23.0564, 38.2544, -28.6215, -29.9142
2.847, 2, 17.8816, 15.8645, 23.0564, 38.2544, -28.6215, -29.9142
2.852, 2, 17.8816, 15.8645, 23.0564, 38.2544, -28.6215, -29.9142
2.856, 2, 17.8816, 15.8645, 23.0564, 38.2544, -28.6215, -29.9142
2.86, 2, 17.8816, 15.8645, 23.0564, 38.2544, -28.6215, -29.9142
2.864, 2, 17.8816, 15.8645, 23.0564, 38.2544, -28.6215, -29.9142
2.867, 2, 17.8816, 15.8645, 23.0564, 38.2544, -28.6215, -29.9142
2.872, 2, 17.8816, 15.8645, 23.0564, 38.2544, -28.6215, -29.9142
2.876, 2, 17.8816, 15.8645, 23.0564, 38.2544, -28.6215, -29.9142
2.88, 2, 17.8816, 15.8645, 23.0564, 38.2544, -28.6215, -29.9142
2.883, 2, 17.8816, 15.8645, 23.0564, 38.2544, -28.6215, -29.9142
2.888, 2, 17.8816, 15.8645, 23.0564, 38.2544, -28.6215, -29.9142
2.892, 2, 17.8816, 15.8645, 23.0564, 38.2544, -28.6215, -29.9142
2.896, 2, 17.8816, 15.8645, 23.0564, 38.2544, -28.6215, -29.9142
2.9, 2, 17.8816, 15.8645, 23.0564, 38.2544, -28.6215, -29.9142
2.903, 2, 17.8816, 15.8645, 23.0564, 38.2544, -28.6215, -29.9142
2.908, 2, 17.8816, 15.8645, 23.0564, 38.2544, -28.6215, -29.9142
2.912, 2, 17.8816, 15.8645, 23.0564, 38.2544, -28.6215, -29.9142
2.916, 2, 17.8816, 15.8645, 23.0564, 38.2544, -28.6215, -29.9142
2.92, 2, 17.8816, 15.8645, 23.0564, 38.2544, -28.6215, -29.9142
2.923, 2, 17.8816, 15.8645, 23.0564, 38.2544, -28.6215, -29.9142
2.928, 2, 17.8816, 15.8645, 23.0564, 38.2544, -28.6215, -29.9142
2.932, 2, 17.8816, 15.8645, 23.0564, 38.2544, -28.6215, -29.9142
2.936, 2, 17.8816, 15.8645, 23.0564, 38.2544, -28.6215, -29.9142
2.939, 2, 17.8816, 15.8645, 23.0564, 38.2544, -28.6215, -29.9142
2.944, 2, 17.8816, 15.8645, 23.0564, 38.2544, -28.6215, -29.9142
2.948, 2, 17.8816, 15.8645, 23.0564, 38.2544, -28.6215, -29.9142
2.952, 2, 17.8816, 15.8645, 23.0564, 38.2544, -28.6215, -29.9142
2.956, 2, 17.8816, 15.8645, 23.0564, 38.2544, -28.6215, -29.9142
2.959, 2, 17.8816, 15.8645, 23.0564, 38.2544, -28.6215, -29.9142
2.964, 2, 17.8816, 15.8645, 23.0564, 38.2544, -28.6215, -29.9142
2.968, 2, 17.8816, 15.8645, 23.0564, 38.2544, -28.6215, -29.9142
2.972, 2, 17.8816, 15.8645, 23.0564, 38.2544, -28.6215, -29.9142
2.976, 2, 17.8816, 15.8645, 23.0564, 38.2544, -28.6215, -29.9142
2.98, 2, 17.8816, 15.8645, 23.0564, 38.2544, -28.6215, -29.9142
2.984, 2, 17.8816, 15.8645, 23.0564, 38.2544, -28.6215, -29.9142
2.988, 2, 17.8816, 15.8645, 23.0564, 38.2544, -28.6215, -29.9142
2.992, 2, 17.8816, 15.8645, 23.0564, 38.2544, -28.6215, -29.9142
2.995, 2, 17.8816, 15.8645, 23.0564, 38.2544, -28.6215, -29.9142
3, 2, 17.8816, 15.8645, 23.0564, 38.2544, -28.6215, -29.9142
3.004, 2, 17.8816, 15.8645, 23.0564, 38.2544, -28.6215, -29.9142
3.008, 2, 17.8816, 15.8645, 23.0564, 38.2544, -28.6215, -29.9142
3.012, 2, 17.8816, 15.8645, 23.0564, 38.2544, -28.6215, -29.9142
3.015, 4, 17.8816, 15.8645, 23.0564, 38.2544, -28.6215, -29.9142
3.02, 4, 17.8816, 15.8645, 23.0564, 38.2544, -28.6215, -29.9142
3.024, 4, 17.8816, 15.8645, 23.0564, 38.2544, -28.6215, -29.9142
3.028, 4, 17.8816, 15.8645, 23.0564, 38.2544, -28.6215, -29.9142
3.031, 4, 17.8816, 15.8645, 23.0564, 38.2544, -28.6215, -29.9142
3.036, 4, 17.8816, 15.8645, 23.0564, 38.2544, -28.6215, -29.9142
3.04, 4, 17.8816, 15.8645, 23.0564, 38.2544, -28.6215, -29.9142
3.044, 4, 17.8816, 15.8645, 23.0564, 38.2544, -28.6215, -29.9142
3.048, 4, 17.8816, 15.8645, 23.0564, 38.2544, -28.6215, -29.9142
3.051, 4, 17.8816, 15.8645, 23.0564, 38.2544, -28.6215, -29.9142
3.056, 4, 17.8816, 15.8645, 23.0564, 38.2544, -28.6215, -29.9142
3.06, 4, 17.8816, 15.8645, 23.0564, 38.2544, -28.6215, -29.9142
3.064, 4, 17.8816, 15.8645, 23.0564, 38.2544, -28.6215, -29.9142
3.068, 4, 17.8816, 15.8645, 23.0564, 38.2544, -28.6215, -29.9142
3.071, 4, 17.8816, 15.8645, 23.0564, 38.2544, -28.6215, -29.9142
3.076, 4, 17.8816, 15.8645, 23.0564, 38.2544, -28.6215, -29.9142
3.08, 4, 17.8816, 15.8645, 23.0564, 38.2544, -28.6215, -29.9142
3.084, 4, 17.8816, 15.8645, 23.0564, 38.2544, -28.6215, -29.9142
3.087, 4, 17.8816, 15.8645, 23.0564, 38.2544, -28.6215, -29.9142
3.092, 4, 17.8816, 15.8645, 23.0564, 38.2544, -28.6215, -29.9142
3.096, 4, 17.8816, 15.8645, 23.0564, 38.2544, -28.6215, -29.9142
3.1, 4, 17.8816, 15.8645, 23.0564, 38.2544, -28.6215, -29.9142
3.104, 4, 17.8816, 15.8645, 23.0564, 38.2544, -28.6215, -29.9142
3.107, 4, 17.8816, 15.8645, 23.0564, 38.2544, -28.6215, -29.9142
3.112, 4, 17.8816, 15.8645, 23.0564, 38.2544, -28.6215, -29.9142
3.116, 4, 17.8816, 15.8645, 23.0564, 38.2544, -28.6215, -29.9142
3.122, 4, 17.8816, 15.8645, 23.0564, 38.2544, -28.6215, -29.9142
3.124, 4, 17.8816, 15.8645, 23.0564, 38.2544, -28.6215, -29.9142
3.128, 4, 17.8816, 15.8645, 23.0564, 38.2544, -28.6215, -29.9142
3.132, 4, 17.8816, 15.8645, 23.0564, 38.2544, -28.6215, -29.9142
3.136, 4, 17.8816, 15.8645, 23.0564, 38.2544, -28.6215, -29.9142
3.14, 4, 17.8816, 15.8645, 23.0564, 38.2544, -28.6215, -29.9142
3.143, 4, 17.8816, 15.8645, 23.0564, 38.2544, -28.6215, -29.9142
3.148, 4, 17.8816, 15.8646, 23.0564, 38.2544, -28.6215, -29.9142
3.152, 4, 17.8815, 15.8646, 23.0564, 38.2544, -28.6215, -29.9142
3.156, 4, 17.8813, 15.8647, 23.0563, 38.2543, -28.6215, -29.9142
3.16, 4, 17.8808, 15.8651, 23.0563, 38.2543, -28.6215, -29.9142
3.163, 4, 17.8799, 15.8658, 23.0561, 38.2541, -28.6216, -29.914
3.168, 4, 17.8784, 15.867, 23.0557, 38.2537, -28.6217, -29.9137
3.172, 4, 17.8763, 15.869, 23.0552, 38.2529, -28.622, -29.913
3.176, 4, 17.8734, 15.8718, 23.0543, 38.2514, -28.6225, -29.9118
3.179, 4, 17.8697, 15.8758, 23.053, 38.2487, -28.6234, -29.9096
3.184, 4, 17.8651, 15.8812, 23.0512, 38.2445, -28.6248, -29.906
3.188, 5, 17.8594, 15.8885, 23.0486, 38.2381, -28.6269, -29.9006
3.192, 5, 17.8526, 15.8978, 23.0452, 38.2288, -28.6299, -29.8927
3.196, 5, 17.8445, 15.9094, 23.0407, 38.2157, -28.6342, -29.8817
3.199, 5, 17.8347, 15.9237, 23.0348, 38.198, -28.6401, -29.8667
3.204, 5, 17.8233, 15.9405, 23.0274, 38.1745, -28.6478, -29.8468
3.208, 5, 17.8102, 15.9598, 23.0182, 38.1443, -28.6577, -29.8211
3.212, 5, 17.7955, 15.9816, 23.0071, 38.1062, -28.6703, -29.7887
3.216, 5, 17.7792, 16.0059, 22.9939, 38.0593, -28.6857, -29.7488
3.22, 5, 17.7612, 16.0327, 22.9784, 38.0026, -28.7045, -29.7006
3.224, 5, 17.7416, 16.0622, 22.9605, 37.9355, -28.7267, -29.6435
3.228, 5, 17.7202, 16.0947, 22.9401, 37.8576, -28.7525, -29.5771
3.232, 5, 17.697, 16.1301, 22.9171, 37.7685, -28.7821, -29.5013
3.235, 5, 17.6719, 16.1686, 22.8916, 37.6683, -28.8155, -29.416
3.24, 5, 17.6449, 16.21, 22.8635, 37.5572, -28.8526, -29.3215
3.244, 5, 17.6162, 16.2541, 22.8329, 37.4357, -28.8934, -29.218
3.248, 5, 17.5857, 16.3008, 22.8, 37.3043, -28.9376, -29.1063
3.252, 5, 17.5535, 16.3499, 22.7651, 37.164, -28.9849, -28.9869
3.255, 5, 17.5196, 16.4015, 22.7281, 37.0156, -29.0352, -28.8608
3.26, 5, 17.484, 16.4557, 22.6893, 36.8602, -29.0881, -28.7287
3.264, 5, 17.4466, 16.5124, 22.649, 36.6988, -29.1432, -28.5918
3.268, 5, 17.4074, 16.5718, 22.6073, 36.5327, -29.2002, -28.4507
3.272, 5, 17.3666, 16.6336, 22.5645, 36.3626, -29.2589, -28.3065
3.276, 5, 17.3243, 16.6976, 22.5207, 36.1894, -29.3189, -28.1597
3.28, 5, 17.2806, 16.7634, 22.4762, 36.014, -29.3799, -28.0111
3.284, 5, 17.2359, 16.8307, 22.4311, 35.8369, -29.4419, -27.8613
3.288, 5, 17.1901, 16.8991, 22.3856, 35.6587, -29.5046, -27.7105
3.291, 5, 17.1435, 16.9684, 22.3398, 35.4798, -29.5678, -27.5593
3.296, 5, 17.0961, 17.0385, 22.2938, 35.3005, -29.6316, -27.4079
3.3, 5, 17.0481, 17.109, 22.2476, 35.1212, -29.6957, -27.2565
3.304, 5, 16.9995, 17.18, 22.2014, 34.9419, -29.7601, -27.1052
3.308, 5, 16.9505, 17.2511, 22.1552, 34.7628, -29.8248, -26.9543
3.312, 5, 16.9012, 17.3224, 22.109, 34.5841, -29.8897, -26.8037
3.316, 5, 16.8517, 17.3936, 22.0629, 34.4057, -29.9549, -26.6536
3.32, 5, 16.8019, 17.4649, 22.0169, 34.2278, -30.0202, -26.5039
3.324, 5, 16.7519, 17.5361, 21.971, 34.0503, -30.0858, -26.3547
3.328, 5, 16.7018, 17.6071, 21.9252, 33.8733, -30.1515, -26.206
3.332, 5, 16.6516, 17.6781, 21.8795, 33.6967, -30.2175, -26.0577
3.336, 5, 16.6012, 17.749, 21.834, 33.5206, -30.2836, -25.91
3.34, 5, 16.5507, 17.8197, 21.7886, 33.3451, -30.3499, -25.7628
3.344, 5, 16.5001, 17.8903, 21.7432, 33.17, -30.4164, -25.6161
3.347, 5, 16.4494, 17.9607, 21.6981, 32.9954, -30.483, -25.4699
3.352, 5, 16.3985, 18.0311, 21.653, 32.8213, -30.5499, -25.3242
3.356, 5, 16.3476, 18.1012, 21.6081, 32.6477, -30.6169, -25.179
3.36, 5, 16.2965, 18.1713, 21.5633, 32.4746, -30.684, -25.0344
3.364, 5, 16.2453, 18.2412, 21.5187, 32.3019, -30.7514, -24.8902
3.368, 5, 16.1941, 18.3109, 21.4742, 32.1298, -30.819, -24.7466
3.372, 5, 16.1427, 18.3805, 21.4298, 31.9582, -30.8867, -24.6034
3.376, 5, 16.0912, 18.4499, 21.3856, 31.787, -30.9546, -24.4608
3.38, 5, 16.0396, 18.5193, 21.3415, 31.6164, -31.0226, -24.3187
3.383, 5, 15.9879, 18.5884, 21.2976, 31.4462, -31.0909, -24.177
3.388, 5, 15.9361, 18.6574, 21.2537, 31.2765, -31.1593, -24.0359
3.392, 5, 15.8842, 18.7263, 21.2101, 31.1073, -31.2279, -23.8952
3.396, 5, 15.8322, 18.795, 21.1665, 30.9386, -31.2967, -23.7551
3.4, 5, 15.7801, 18.8636, 21.1231, 30.7704, -31.3656, -23.6154
3.403, 5, 15.7279, 18.932, 21.0799, 30.6026, -31.4347, -23.4763
3.408, 5, 15.6756, 19.0003, 21.0368, 30.4353, -31.504, -23.3376
3.412, 5, 15.6232, 19.0684, 20.9938, 30.2686, -31.5735, -23.1994
3.416, 5, 15.5707, 19.1364, 20.951, 30.1022, -31.6431, -23.0618
3.42, 5, 15.5181, 19.2042, 20.9084, 29.9364, -31.713, -22.9245
3.424, 5, 15.4654, 19.2719, 20.8658, 29.771, -31.783, -22.7878
3.428, 5, 15.4126, 19.3395, 20.8235, 29.6061, -31.8531, -22.6516
3.432, 5, 15.3598, 19.4069, 20.7812, 29.4417, -31.9235, -22.5158
3.436, 5, 15.3068, 19.4741, 20.7391, 29.2778, -31.994, -22.3805
3.439, 5, 15.2537, 19.5412, 20.6972, 29.1143, -32.0647, -22.2457
3.444, 5, 15.2005, 19.6082, 20.6554, 28.9513, -32.1356, -22.1114
3.448, 5, 15.1473, 19.675, 20.6138, 28.7887, -32.2066, -21.9776
3.452, 5, 15.0939, 19.7416, 20.5723, 28.6267, -32.2778, -21.8442
3.456, 5, 15.0404, 19.8081, 20.5309, 28.4651, -32.3492, -21.7113
3.46, 5, 14.9869, 19.8745, 20.4897, 28.3039, -32.4208, -21.5788
3.464, 5, 14.9333, 19.9407, 20.4487, 28.1432, -32.4925, -21.4468
3.468, 5, 14.8795, 20.0068, 20.4078, 27.983, -32.5644, -21.3153
3.472, 5, 14.8257, 20.0727, 20.3671, 27.8232, -32.6365, -21.1843
3.476, 5, 14.7718, 20.1385, 20.3265, 27.6639, -32.7087, -21.0537
3.48, 5, 14.7178, 20.2041, 20.286, 27.5051, -32.7812, -20.9236
3.484, 5, 14.6637, 20.2696, 20.2457, 27.3467, -32.8537, -20.7939
3.488, 5, 14.6095, 20.3349, 20.2056, 27.1887, -32.9265, -20.6647
3.492, 5, 14.5552, 20.4001, 20.1656, 27.0312, -32.9995, -20.5359
3.495, 5, 14.5009, 20.4651, 20.1258, 26.8742, -33.0726, -20.4076
3.5, 5, 14.4464, 20.53, 20.0861, 26.7176, -33.1458, -20.2798
3.504, 5, 14.3919, 20.5947, 20.0466, 26.5614, -33.2193, -20.1524
3.508, 5, 14.3372, 20.6593, 20.0072, 26.4057, -33.2929, -20.0254
3.512, 5, 14.2825, 20.7238, 19.968, 26.2505, -33.3667, -19.8989
3.516, 5, 14.2277, 20.7881, 19.9289, 26.0957, -33.4407, -19.7729
3.52, 5, 14.1728, 20.8522, 19.89, 25.9413, -33.5148, -19.6473
3.524, 5, 14.1179, 20.9162, 19.8513, 25.7874, -33.5891, -19.5221
3.528, 5, 14.0628, 20.9801, 19.8127, 25.6339, -33.6636, -19.3974
3.531, 5, 14.0077, 21.0438, 19.7742, 25.4808, -33.7382, -19.2731
3.536, 5, 13.9524, 21.1073, 19.7359, 25.3282, -33.813, -19.1492
3.54, 5, 13.8971, 21.1708, 19.6978, 25.1761, -33.888, -19.0258
3.544, 5, 13.8417, 21.234, 19.6598, 25.0243, -33.9632, -18.9028
3.548, 5, 13.7862, 21.2971, 19.622, 24.873, -34.0385, -18.7802
3.552, 5, 13.7307, 21.3601, 19.5844, 24.7221, -34.114, -18.6581
3.556, 5, 13.675, 21.4229, 19.5469, 24.5717, -34.1897, -18.5364
3.56, 5, 13.6193, 21.4856, 19.5096, 24.4217, -34.2655, -18.4152
3.564, 5, 13.5635, 21.5482, 19.4724, 24.2721, -34.3416, -18.2943
3.568, 5, 13.5076, 21.6105, 19.4354, 24.1229, -34.4178, -18.1739
3.572, 5, 13.4516, 21.6728, 19.3985, 23.9742, -34.4941, -18.0539
3.576, 5, 13.3956, 21.7349, 19.3618, 23.8259, -34.5706, -17.9343
3.58, 5, 13.3395, 21.7968, 19.3253, 23.678, -34.6473, -17.8152
3.584, 5, 13.2833, 21.8586, 19.289, 23.5305, -34.7242, -17.6965
3.587, 5, 13.227, 21.9203, 19.2528, 23.3835, -34.8013, -17.5782
3.592, 5, 13.1706, 21.9818, 19.2168, 23.2368, -34.8785, -17.4603
3.596, 5, 13.1142, 22.0431, 19.1809, 23.0906, -34.9559, -17.3428
3.6, 5, 13.0577, 22.1043, 19.1452, 22.9449, -35.0334, -17.2257
3.604, 5, 13.0011, 22.1654, 19.1097, 22.7995, -35.1112, -17.1091
3.608, 5, 12.9444, 22.2263, 19.0743, 22.6546, -35.1891, -16.9929
3.612, 5, 12.8876, 22.287, 19.0391, 22.51, -35.2672, -16.877
3.616, 5, 12.8308, 22.3476, 19.0041, 22.3659, -35.3454, -16.7616
3.62, 5, 12.7739, 22.4081, 18.9693, 22.2222, -35.4238, -16.6466
3.624, 5, 12.717, 22.4684, 18.9346, 22.0789, -35.5024, -16.532
3.628, 5, 12.6599, 22.5286, 18.9001, 21.9361, -35.5812, -16.4178
3.632, 5, 12.6028, 22.5886, 18.8658, 21.7936, -35.6601, -16.304
3.636, 5, 12.5456, 22.6484, 18.8316, 21.6516, -35.7392, -16.1906
3.64, 5, 12.4884, 22.7082, 18.7976, 21.5099, -35.8185, -16.0776
3.644, 5, 12.431, 22.7677, 18.7638, 21.3687, -35.8979, -15.9651
3.648, 5, 12.3736, 22.8271, 18.7302, 21.2278, -35.9776, -15.8529
3.652, 5, 12.3161, 22.8864, 18.6967, 21.0874, -36.0574, -15.7411
3.656, 5, 12.2586, 22.9455, 18.6634, 20.9474, -36.1373, -15.6297
3.66, 5, 12.201, 23.0045, 18.6303, 20.8078, -36.2174, -15.5187
3.664, 5, 12.1433, 23.0633, 18.5974, 20.6686, -36.2977, -15.4081
3.668, 5, 12.0856, 23.122, 18.5646, 20.5298, -36.3782, -15.2979
3.672, 5, 12.0277, 23.1805, 18.532, 20.3914, -36.4588, -15.1881
3.676, 5, 11.9698, 23.2389, 18.4996, 20.2534, -36.5397, -15.0786
3.679, 5, 11.9119, 23.2971, 18.4673, 20.1158, -36.6206, -14.9696
3.684, 5, 11.8539, 23.3552, 18.4353, 19.9786, -36.7018, -14.861
3.688, 5, 11.7958, 23.4131, 18.4034, 19.8418, -36.7831, -14.7527
3.692, 5, 11.7376, 23.4709, 18.3717, 19.7053, -36.8646, -14.6448
3.696, 5, 11.6794, 23.5285, 18.3402, 19.5693, -36.9463, -14.5373
3.7, 5, 11.6211, 23.586, 18.3088, 19.4337, -37.0281, -14.4302
3.704, 5, 11.5628, 23.6433, 18.2777, 19.2985, -37.1101, -14.3235
3.708, 5, 11.5043, 23.7005, 18.2467, 19.1636, -37.1923, -14.2171
3.712, 5, 11.4459, 23.7575, 18.2159, 19.0292, -37.2746, -14.1112
3.716, 5, 11.3873, 23.8144, 18.1853, 18.8951, -37.3571, -14.0056
3.72, 5, 11.3287, 23.8711, 18.1548, 18.7615, -37.4398, -13.9004
3.724, 5, 11.27, 23.9277, 18.1245, 18.6282, -37.5226, -13.7955
3.728, 5, 11.2113, 23.9841, 18.0945, 18.4953, -37.6056, -13.6911
3.732, 5, 11.1525, 24.0404, 18.0646, 18.3628, -37.6888, -13.587
3.735, 5, 11.0936, 24.0965, 18.0348, 18.2307, -37.7722, -13.4833
3.74, 5, 11.0347, 24.1525, 18.0053, 18.0989, -37.8557, -13.3799
3.744, 5, 10.9757, 24.2083, 17.9759, 17.9676, -37.9394, -13.277
3.748, 5, 10.9167, 24.264, 17.9468, 17.8366, -38.0232, -13.1744
3.752, 5, 10.8576, 24.3195, 17.9178, 17.706, -38.1072, -13.0721
3.756, 5, 10.7984, 24.3749, 17.889, 17.5758, -38.1914, -12.9703
3.76, 5, 10.7392, 24.4302, 17.8604, 17.446, -38.2758, -12.8688
3.764, 5, 10.6799, 24.4853, 17.8319, 17.3165, -38.3603, -12.7676
3.768, 5, 10.6206, 24.5402, 17.8037, 17.1874, -38.445, -12.6668
3.772, 5, 10.5612, 24.595, 17.7756, 17.0587, -38.5298, -12.5664
3.776, 5, 10.5017, 24.6496, 17.7477, 16.9304, -38.6148, -12.4664
3.78, 5, 10.4422, 24.7041, 17.72, 16.8025, -38.7, -12.3667
3.784, 5, 10.3826, 24.7585, 17.6925, 16.6749, -38.7854, -12.2674
3.788, 5, 10.323, 24.8127, 17.6651, 16.5477, -38.8709, -12.1684
3.792, 5, 10.2633, 24.8667, 17.638, 16.4209, -38.9566, -12.0698
3.798, 5, 10.1437, 24.9744, 17.5843, 16.1683, -39.1285, -11.8736
3.8, 5, 10.1437, 24.9744, 17.5843, 16.1683, -39.1285, -11.8736
3.804, 5, 10.0838, 25.028, 17.5577, 16.0426, -39.2147, -11.776
3.808, 5, 10.0239, 25.0815, 17.5313, 15.9173, -39.3011, -11.6788
3.812, 5, 9.96396, 25.1348, 17.5051, 15.7923, -39.3876, -11.582
3.816, 5, 9.90393, 25.1879, 17.479, 15.6676, -39.4743, -11.4855
3.82, 5, 9.84385, 25.241, 17.4532, 15.5434, -39.5612, -11.3893
3.824, 5, 9.78371, 25.2938, 17.4276, 15.4195, -39.6482, -11.2935
3.828, 5, 9.72352, 25.3465, 17.4021, 15.296, -39.7354, -11.198
3.832, 5, 9.66328, 25.3991, 17.3769, 15.1728, -39.8228, -11.1029
3.836, 5, 9.60298, 25.4515, 17.3518, 15.05, -39.9103, -11.0081
3.84, 5, 9.54263, 25.5038, 17.3269, 14.9275, -39.998, -10.9137
3.844, 5, 9.48223, 25.5559, 17.3022, 14.8054, -40.0859, -10.8196
3.848, 5, 9.42178, 25.6079, 17.2777, 14.6837, -40.174, -10.7259
3.852, 5, 9.36127, 25.6597, 17.2534, 14.5623, -40.2622, -10.6324
3.856, 5, 9.30072, 25.7114, 17.2293, 14.4413, -40.3506, -10.5394
3.86, 5, 9.24011, 25.763, 17.2054, 14.3206, -40.4391, -10.4466
3.864, 5, 9.17946, 25.8143, 17.1816, 14.2003, -40.5278, -10.3542
3.868, 5, 9.11875, 25.8656, 17.1581, 14.0803, -40.6167, -10.2622
3.872, 5, 9.058, 25.9167, 17.1348, 13.9607, -40.7057, -10.1704
3.876, 5, 8.99719, 25.9676, 17.1116, 13.8415, -40.795, -10.079
3.88, 5, 8.93634, 26.0184, 17.0887, 13.7226, -40.8843, -9.98794
3.884, 5, 8.87544, 26.0691, 17.0659, 13.604, -40.9739, -9.8972
3.888, 5, 8.81449, 26.1196, 17.0434, 13.4858, -41.0636, -9.80679
3.892, 5, 8.7535, 26.1699, 17.021, 13.3679, -41.1535, -9.71671
3.896, 5, 8.69246, 26.2201, 16.9988, 13.2504, -41.2435, -9.62695
3.9, 5, 8.63138, 26.2702, 16.9769, 13.1332, -41.3337, -9.53752
3.904, 5, 8.57025, 26.3201, 16.9551, 13.0163, -41.4241, -9.44841
3.908, 5, 8.50907, 26.3699, 16.9335, 12.8999, -41.5146, -9.35963
3.912, 5, 8.44785, 26.4195, 16.9121, 12.7837, -41.6054, -9.27117
3.916, 5, 8.38659, 26.4689, 16.8909, 12.6679, -41.6962, -9.18303
3.92, 5, 8.32529, 26.5183, 16.87, 12.5524, -41.7873, -9.09521
3.924, 5, 8.26394, 26.5674, 16.8492, 12.4373, -41.8785, -9.00772
3.928, 5, 8.20255, 26.6165, 16.8286, 12.3225, -41.9698, -8.92054
3.932, 5, 8.14111, 26.6653, 16.8082, 12.208, -42.0614, -8.83368
3.936, 5, 8.07964, 26.7141, 16.788, 12.0939, -42.153, -8.74714
3.94, 5, 8.01812, 26.7626, 16.768, 11.9801, -42.2449, -8.66092
3.944, 5, 7.95656, 26.8111, 16.7482, 11.8667, -42.3369, -8.57501
3.948, 5, 7.89496, 26.8594, 16.7287, 11.7536, -42.4291, -8.48941
3.952, 5, 7.83332, 26.9075, 16.7093, 11.6408, -42.5215, -8.40413
3.956, 5, 7.77164, 26.9555, 16.6901, 11.5283, -42.614, -8.31916
3.96, 5, 7.70991, 27.0033, 16.6711, 11.4162, -42.7066, -8.2345
3.964, 5, 7.64815, 27.051, 16.6523, 11.3045, -42.7995, -8.15016
3.968, 5, 7.58635, 27.0986, 16.6337, 11.193, -42.8925, -8.06612
3.972, 5, 7.52451, 27.146, 16.6154, 11.0819, -42.9856, -7.98239
3.976, 5, 7.46263, 27.1932, 16.5972, 10.9711, -43.079, -7.89898
3.98, 5, 7.40072, 27.2404, 16.5792, 10.8606, -43.1725, -7.81587
3.984, 5, 7.33877, 27.2873, 16.5614, 10.7505, -43.2661, -7.73306
3.988, 5, 7.27677, 27.3341, 16.5439, 10.6407, -43.3599, -7.65056
3.992, 5, 7.21475, 27.3808, 16.5265, 10.5312, -43.4539, -7.56837
3.996, 5, 7.15268, 27.4273, 16.5094, 10.422, -43.548, -7.48648
3.999, 5, 7.09058, 27.4737, 16.4924, 10.3132, -43.6423, -7.4049
4.004, 5, 7.02844, 27.5199, 16.4756, 10.2047, -43.7368, -7.32361
4.008, 5, 6.96627, 27.566, 16.4591, 10.0965, -43.8314, -7.24263
4.012, 5, 6.90406, 27.6119, 16.4428, 9.98862, -43.9262, -7.16195
4.016, 5, 6.84182, 27.6577, 16.4266, 9.88107, -44.0212, -7.08157
4.02, 5, 6.77954, 27.7034, 16.4107, 9.77385, -44.1163, -7.00149
4.024, 5, 6.71723, 27.7488, 16.395, 9.66695, -44.2115, -6.92171
4.028, 5, 6.65488, 27.7942, 16.3794, 9.56036, -44.307, -6.84222
4.032, 5, 6.5925, 27.8394, 16.3641, 9.4541, -44.4025, -6.76304
4.036, 5, 6.53009, 27.8844, 16.349, 9.34815, -44.4983, -6.68415
4.04, 5, 6.46764, 27.9294, 16.3341, 9.24252, -44.5942, -6.60555
4.044, 5, 6.40516, 27.9741, 16.3194, 9.13721, -44.6903, -6.52725
4.048, 5, 6.34265, 28.0187, 16.3049, 9.03221, -44.7865, -6.44924
4.052, 5, 6.2801, 28.0632, 16.2906, 8.92753, -44.8829, -6.37153
4.056, 5, 6.21753, 28.1075, 16.2766, 8.82316, -44.9795, -6.29411
4.06, 5, 6.15492, 28.1517, 16.2627, 8.71911, -45.0762, -6.21698
4.064, 5, 6.09227, 28.1957, 16.249, 8.61537, -45.173, -6.14014
4.068, 5, 6.0296, 28.2396, 16.2356, 8.51195, -45.2701, -6.0636
4.072, 5, 5.9669, 28.2833, 16.2223, 8.40883, -45.3673, -5.98734
4.076, 5, 5.90416, 28.3269, 16.2093, 8.30603, -45.4646, -5.91137
4.08, 5, 5.8414, 28.3703, 16.1965, 8.20354, -45.5621, -5.83569
4.084, 5, 5.7786, 28.4136, 16.1838, 8.10136, -45.6598, -5.7603
4.088, 5, 5.71578, 28.4568, 16.1714, 7.99949, -45.7577, -5.68519
4.092, 5, 5.65293, 28.4998, 16.1592, 7.89792, -45.8557, -5.61037
4.096, 5, 5.59005, 28.5427, 16.1472, 7.79667, -45.9538, -5.53583
4.1, 5, 5.52714, 28.5854, 16.1355, 7.69571, -46.0521, -5.46158
4.104, 5, 5.4642, 28.6279, 16.1239, 7.59507, -46.1506, -5.38761
4.108, 5, 5.40123, 28.6703, 16.1125, 7.49473, -46.2493, -5.31392
4.112, 5, 5.33824, 28.7126, 16.1014, 7.39469, -46.3481, -5.24051
4.116, 5, 5.27523, 28.7548, 16.0905, 7.29495, -46.447, -5.16738
4.12, 5, 5.21218, 28.7967, 16.0798, 7.19552, -46.5461, -5.09453
4.124, 5, 5.14911, 28.8386, 16.0692, 7.09639, -46.6454, -5.02196
4.128, 5, 5.08601, 28.8803, 16.0589, 6.99755, -46.7449, -4.94966
4.132, 5, 5.02289, 28.9218, 16.0489, 6.89901, -46.8445, -4.87764
4.136, 5, 4.95974, 28.9632, 16.039, 6.80077, -46.9442, -4.8059
4.14, 5, 4.89657, 29.0045, 16.0293, 6.70283, -47.0442, -4.73442
4.144, 5, 4.83337, 29.0456, 16.0199, 6.60518, -47.1443, -4.66322
4.148, 5, 4.77014, 29.0866, 16.0106, 6.50782, -47.2445, -4.5923
4.152, 5, 4.7069, 29.1274, 16.0016, 6.41076, -47.3449, -4.52164
4.156, 5, 4.64362, 29.1681, 15.9928, 6.31399, -47.4455, -4.45125
4.16, 5, 4.58033, 29.2086, 15.9842, 6.21751, -47.5462, -4.38113
4.164, 5, 4.51701, 29.249, 15.9758, 6.12132, -47.647, -4.31128
4.168, 5, 4.45367, 29.2893, 15.9677, 6.02542, -47.7481, -4.2417
4.172, 5, 4.3903, 29.3294, 15.9597, 5.92981, -47.8493, -4.17238
4.176, 5, 4.32692, 29.3693, 15.9519, 5.83448, -47.9506, -4.10333
4.18, 5, 4.26351, 29.4092, 15.9444, 5.73945, -48.0521, -4.03454
4.184, 5, 4.20009, 29.4488, 15.9371, 5.64469, -48.1538, -3.96602
4.188, 5, 4.13664, 29.4884, 15.93, 5.55023, -48.2556, -3.89776
4.192, 5, 4.07317, 29.5278, 15.9231, 5.45604, -48.3575, -3.82976
4.196, 5, 4.00968, 29.567, 15.9164, 5.36214, -48.4596, -3.76202
4.2, 5, 3.94617, 29.6061, 15.9099, 5.26852, -48.5619, -3.69454
4.204, 5, 3.88265, 29.6451, 15.9037, 5.17518, -48.6644, -3.62732
4.208, 5, 3.8191, 29.6839, 15.8976, 5.08213, -48.7669, -3.56036
4.212, 5, 3.75554, 29.7226, 15.8918, 4.98935, -48.8697, -3.49366
4.216, 5, 3.69195, 29.7612, 15.8862, 4.89685, -48.9726, -3.42722
4.22, 5, 3.62836, 29.7996, 15.8808, 4.80463, -49.0756, -3.36103
4.224, 5, 3.56474, 29.8378, 15.8756, 4.71269, -49.1788, -3.2951
4.228, 5, 3.50111, 29.8759, 15.8706, 4.62102, -49.2822, -3.22942
4.232, 5, 3.43746, 29.9139, 15.8659, 4.52963, -49.3857, -3.164
4.236, 5, 3.37379, 29.9518, 15.8613, 4.43852, -49.4893, -3.09883
4.24, 5, 3.31011, 29.9895, 15.857, 4.34767, -49.5931, -3.03391
4.244, 5, 3.24641, 30.027, 15.8529, 4.25711, -49.6971, -2.96924
4.248, 5, 3.1827, 30.0644, 15.849, 4.16681, -49.8012, -2.90483
4.252, 5, 3.11898, 30.1017, 15.8453, 4.07679, -49.9055, -2.84067
4.256, 5, 3.05524, 30.1388, 15.8418, 3.98704, -50.0099, -2.77676
4.26, 5, 2.99148, 30.1758, 15.8385, 3.89756, -50.1145, -2.71309
4.264, 5, 2.92771, 30.2127, 15.8355, 3.80835, -50.2192, -2.64968
4.268, 5, 2.86393, 30.2494, 15.8327, 3.71941, -50.324, -2.58651
4.272, 5, 2.80014, 30.286, 15.8301, 3.63074, -50.4291, -2.52359
4.276, 5, 2.73633, 30.3224, 15.8277, 3.54234, -50.5342, -2.46092
4.28, 5, 2.67251, 30.3587, 15.8255, 3.45421, -50.6396, -2.39849
4.284, 5, 2.60868, 30.3948, 15.8235, 3.36634, -50.745, -2.33631
4.288, 5, 2.54484, 30.4308, 15.8218, 3.27874, -50.8506, -2.27438
4.292, 5, 2.48099, 30.4667, 15.8202, 3.1914, -50.9564, -2.21269
4.296, 5, 2.41712, 30.5024, 15.8189, 3.10434, -51.0623, -2.15124
4.3, 5, 2.35325, 30.538, 15.8178, 3.01753, -51.1684, -2.09004
4.304, 5, 2.28937, 30.5735, 15.8169, 2.93099, -51.2746, -2.02908
4.308, 5, 2.22547, 30.6088, 15.8163, 2.84471, -51.381, -1.96836
4.312, 5, 2.16157, 30.644, 15.8158, 2.7587, -51.4875, -1.90788
4.316, 5, 2.09765, 30.679, 15.8156, 2.67295, -51.5942, -1.84764
4.32, 5, 2.03373, 30.7139, 15.8156, 2.58746, -51.701, -1.78765
4.324, 5, 1.9698, 30.7486, 15.8158, 2.50223, -51.808, -1.72789
4.328, 5, 1.90586, 30.7832, 15.8162, 2.41726, -51.9151, -1.66838
4.332, 5, 1.84191, 30.8177, 15.8169, 2.33255, -52.0223, -1.6091
4.336, 5, 1.77795, 30.8521, 15.8177, 2.24811, -52.1297, -1.55006
4.34, 5, 1.71399, 30.8862, 15.8188, 2.16392, -52.2373, -1.49126
4.344, 5, 1.65002, 30.9203, 15.8201, 2.07999, -52.345, -1.4327
4.348, 5, 1.58604, 30.9542, 15.8216, 1.99632, -52.4529, -1.37437
4.352, 5, 1.52206, 30.988, 15.8234, 1.9129, -52.5609, -1.31629
4.356, 5, 1.45807, 31.0216, 15.8253, 1.82975, -52.669, -1.25843
4.36, 5, 1.39407, 31.0551, 15.8275, 1.74685, -52.7773, -1.20081
4.364, 5, 1.33006, 31.0884, 15.8299, 1.6642, -52.8858, -1.14343
4.368, 5, 1.26602, 31.1216, 15.8326, 1.58182, -52.9944, -1.08628
4.372, 5, 1.20196, 31.1545, 15.8355, 1.49968, -53.1031, -1.02936
4.376, 5, 1.13788, 31.1871, 15.8388, 1.4178, -53.2121, -0.972678
4.38, 5, 1.07381, 31.2194, 15.8424, 1.33617, -53.3212, -0.91622
4.384, 5, 1.0098, 31.2512, 15.8466, 1.25479, -53.4306, -0.859988
4.388, 5, 0.945907, 31.2825, 15.8514, 1.17366, -53.5404, -0.80398
4.392, 5, 0.882191, 31.3131, 15.857, 1.09277, -53.6506, -0.748198
4.396, 5, 0.818707, 31.3429, 15.8636, 1.01213, -53.7613, -0.692644
4.4, 5, 0.755497, 31.3719, 15.8714, 0.931764, -53.8726, -0.637327
4.404, 5, 0.692581, 31.3999, 15.8806, 0.851673, -53.9847, -0.582258
4.408, 5, 0.629961, 31.4268, 15.8916, 0.771885, -54.0977, -0.527455
4.412, 5, 0.567632, 31.4524, 15.9046, 0.692431, -54.2118, -0.472938
4.416, 5, 0.505584, 31.4765, 15.9199, 0.613349, -54.3271, -0.418735
4.42, 6, 0.44381, 31.4992, 15.9378, 0.534682, -54.4437, -0.364879
4.424, 6, 0.382297, 31.5202, 15.9586, 0.456483, -54.5618, -0.311407
4.428, 6, 0.321029, 31.5394, 15.9826, 0.378811, -54.6815, -0.258363
4.432, 6, 0.259992, 31.5569, 16.01, 0.301731, -54.8027, -0.205793
4.436, 6, 0.199171, 31.5724, 16.0409, 0.225313, -54.9257, -0.153746
4.44, 6, 0.138551, 31.5859, 16.0755, 0.149625, -55.0503, -0.102273
4.444, 6, 0.0781186, 31.5975, 16.1139, 0.0747321, -55.1765, -0.0514184
4.448, 6, 0.0178654, 31.6071, 16.1561, 0.00069315, -55.3044, -0.00122479
4.452, 6, -0.0422053, 31.6148, 16.202, -0.0724461, -55.4337, 0.0482749
4.456, 6, -0.102078, 31.6204, 16.2517, -0.144654, -55.5645, 0.0970572
4.46, 6, -0.161731, 31.6242, 16.3048, -0.215912, -55.6966, 0.145109
4.464, 6, -0.221141, 31.6261, 16.3614, -0.286222, -55.83, 0.192429
4.468, 6, -0.280284, 31.6263, 16.4211, -0.355596, -55.9644, 0.239026
4.472, 6, -0.339139, 31.6248, 16.4837, -0.424062, -56.0997, 0.284918
4.476, 6, -0.397691, 31.6216, 16.5489, -0.491663, -56.2359, 0.330132
4.48, 6, -0.455929, 31.617, 16.6165, -0.558448, -56.3728, 0.374704
4.484, 6, -0.513849, 31.6111, 16.6861, -0.624475, -56.5103, 0.418672
4.488, 6, -0.57144, 31.6039, 16.7575, -0.689809, -56.6484, 0.462079
4.492, 6, -0.628686, 31.5957, 16.8305, -0.754515, -56.7869, 0.50497
4.496, 6, -0.685564, 31.5865, 16.9048, -0.818655, -56.9257, 0.547388
4.5, 6, -0.742057, 31.5764, 16.9802, -0.88229, -57.0649, 0.589373
4.504, 6, -0.798164, 31.5656, 17.0564, -0.945472, -57.2044, 0.630961
4.508, 6, -0.853898, 31.5541, 17.1334, -1.00825, -57.3441, 0.672182
4.512, 6, -0.909288, 31.5421, 17.2109, -1.07065, -57.484, 0.713061
4.516, 6, -0.964378, 31.5296, 17.289, -1.1327, -57.6241, 0.753617
4.52, 6, -1.01922, 31.5169, 17.3674, -1.19443, -57.7643, 0.793863
4.524, 6, -1.07387, 31.5039, 17.4461, -1.25585, -57.9047, 0.83381
4.528, 6, -1.12837, 31.4907, 17.525, -1.31697, -58.0452, 0.873466
4.532, 6, -1.18274, 31.4773, 17.6042, -1.37779, -58.1859, 0.912834
4.536, 6, -1.23701, 31.4638, 17.6836, -1.43833, -58.3267, 0.951921
4.54, 6, -1.29119, 31.4503, 17.7632, -1.49859, -58.4676, 0.990728
4.544, 6, -1.34528, 31.4366, 17.8429, -1.55857, -58.6087, 1.02926
4.548, 6, -1.3993, 31.4229, 17.9228, -1.61827, -58.7499, 1.06751
4.552, 6, -1.45324, 31.4092, 18.0028, -1.67769, -58.8912, 1.10549
4.556, 6, -1.50711, 31.3953, 18.083, -1.73685, -59.0326, 1.1432
4.56, 6, -1.56092, 31.3814, 18.1633, -1.79573, -59.1741, 1.18064
4.564, 6, -1.61465, 31.3675, 18.2438, -1.85434, -59.3158, 1.21781
4.568, 6, -1.66832, 31.3535, 18.3244, -1.91268, -59.4576, 1.25472
4.572, 6, -1.72192, 31.3394, 18.4051, -1.97075, -59.5995, 1.29135
4.576, 6, -1.77546, 31.3253, 18.486, -2.02856, -59.7415, 1.32772
4.58, 6, -1.82892, 31.3111, 18.5671, -2.0861, -59.8836, 1.36383
4.584, 6, -1.88232, 31.2969, 18.6482, -2.14338, -60.0259, 1.39967
4.588, 6, -1.93564, 31.2826, 18.7295, -2.2004, -60.1682, 1.43525
4.592, 6, -1.9889, 31.2683, 18.811, -2.25715, -60.3107, 1.47057
4.596, 6, -2.04209, 31.254, 18.8926, -2.31365, -60.4533, 1.50563
4.6, 6, -2.09521, 31.2396, 18.9743, -2.36988, -60.596, 1.54043
4.604, 6, -2.14826, 31.2251, 19.0561, -2.42586, -60.7388, 1.57498
4.608, 6, -2.20123, 31.2106, 19.1381, -2.48158, -60.8818, 1.60926
4.612, 6, -2.25414, 31.1961, 19.2202, -2.53704, -61.0248, 1.64329
4.616, 6, -2.30697, 31.1815, 19.3025, -2.59225, -61.168, 1.67707
4.62, 6, -2.35974, 31.1669, 19.3848, -2.64721, -61.3112, 1.71059
4.624, 6, -2.41243, 31.1522, 19.4673, -2.70191, -61.4546, 1.74386
4.628, 6, -2.46504, 31.1375, 19.55, -2.75637, -61.5981, 1.77688
4.632, 6, -2.51759, 31.1227, 19.6327, -2.81057, -61.7417, 1.80965
4.636, 6, -2.57006, 31.1079, 19.7156, -2.86452, -61.8854, 1.84217
4.64, 6, -2.62245, 31.0931, 19.7986, -2.91823, -62.0292, 1.87444
4.644, 6, -2.67477, 31.0782, 19.8818, -2.97169, -62.1732, 1.90646
4.648, 6, -2.72701, 31.0633, 19.965, -3.0249, -62.3172, 1.93824
4.652, 6, -2.77918, 31.0483, 20.0484, -3.07787, -62.4613, 1.96977
4.656, 6, -2.83127, 31.0333, 20.132, -3.1306, -62.6056, 2.00106
4.66, 6, -2.88328, 31.0182, 20.2156, -3.18308, -62.7499, 2.0321
4.664, 6, -2.93522, 31.0032, 20.2994, -3.23533, -62.8944, 2.06291
4.668, 6, -2.98707, 30.988, 20.3833, -3.28733, -63.0389, 2.09347
4.672, 6, -3.03885, 30.9729, 20.4673, -3.3391, -63.1836, 2.12379
4.676, 6, -3.09054, 30.9577, 20.5514, -3.39062, -63.3283, 2.15387
4.68, 6, -3.14216, 30.9425, 20.6357, -3.44191, -63.4732, 2.18372
4.684, 6, -3.19369, 30.9272, 20.7201, -3.49297, -63.6182, 2.21333
4.688, 6, -3.24515, 30.9119, 20.8046, -3.54378, -63.7632, 2.2427
4.692, 6, -3.29652, 30.8966, 20.8892, -3.59437, -63.9084, 2.27184
4.696, 6, -3.34781, 30.8812, 20.9739, -3.64472, -64.0537, 2.30074
4.7, 6, -3.39902, 30.8658, 21.0588, -3.69484, -64.199, 2.32941
4.704, 6, -3.45014, 30.8503, 21.1438, -3.74474, -64.3445, 2.35785
4.708, 6, -3.50118, 30.8349, 21.2288, -3.7944, -64.4901, 2.38606
4.712, 6, -3.55213, 30.8194, 21.314, -3.84383, -64.6357, 2.41404
4.716, 6, -3.603, 30.8038, 21.3994, -3.89304, -64.7815, 2.44179
4.72, 6, -3.65379, 30.7883, 21.4848, -3.94202, -64.9273, 2.46931
4.724, 6, -3.70449, 30.7727, 21.5704, -3.99078, -65.0733, 2.49661
4.728, 6, -3.7551, 30.7571, 21.656, -4.03931, -65.2193, 2.52368
4.732, 6, -3.80563, 30.7414, 21.7418, -4.08762, -65.3655, 2.55052
4.736, 6, -3.85607, 30.7257, 21.8277, -4.13571, -65.5117, 2.57714
4.74, 6, -3.90642, 30.71, 21.9137, -4.18358, -65.6581, 2.60354
4.744, 6, -3.95669, 30.6943, 21.9998, -4.23123, -65.8045, 2.62972
4.748, 6, -4.00686, 30.6785, 22.086, -4.27866, -65.951, 2.65568
4.752, 6, -4.05695, 30.6627, 22.1723, -4.32588, -66.0976, 2.68141
4.756, 6, -4.10695, 30.6469, 22.2588, -4.37288, -66.2443, 2.70693
4.76, 6, -4.15685, 30.631, 22.3453, -4.41967, -66.3911, 2.73223
4.764, 6, -4.20667, 30.6152, 22.432, -4.46624, -66.538, 2.75732
4.768, 6, -4.25639, 30.5993, 22.5187, -4.5126, -66.685, 2.78219
4.772, 6, -4.30603, 30.5833, 22.6056, -4.55875, -66.8321, 2.80684
4.776, 6, -4.35557, 30.5674, 22.6926, -4.60469, -66.9793, 2.83128
4.78, 6, -4.40502, 30.5514, 22.7797, -4.65042, -67.1265, 2.85551
4.784, 6, -4.45437, 30.5354, 22.8669, -4.69594, -67.2739, 2.87953
4.788, 6, -4.50364, 30.5194, 22.9542, -4.74125, -67.4213, 2.90333
4.792, 6, -4.5528, 30.5034, 23.0416, -4.78636, -67.5689, 2.92693
4.796, 6, -4.60187, 30.4873, 23.1291, -4.83126, -67.7165, 2.95031
4.8, 6, -4.65085, 30.4713, 23.2167, -4.87595, -67.8642, 2.97349
4.804, 6, -4.69973, 30.4552, 23.3044, -4.92044, -68.012, 2.99645
4.808, 6, -4.74852, 30.4391, 23.3922, -4.96473, -68.1599, 3.01921
4.812, 6, -4.79721, 30.4229, 23.4801, -5.00881, -68.3079, 3.04176
4.816, 6, -4.8458, 30.4068, 23.5682, -5.05269, -68.456, 3.0641
4.82, 6, -4.89429, 30.3906, 23.6563, -5.09636, -68.6042, 3.08624
4.824, 6, -4.94268, 30.3744, 23.7445, -5.13983, -68.7524, 3.10817
4.828, 6, -4.99098, 30.3582, 23.8328, -5.1831, -68.9008, 3.12989
4.832, 6, -5.03917, 30.342, 23.9212, -5.22617, -69.0492, 3.15141
4.836, 6, -5.08727, 30.3258, 24.0097, -5.26904, -69.1977, 3.17273
4.84, 6, -5.13526, 30.3095, 24.0983, -5.31171, -69.3463, 3.19384
4.844, 6, -5.18315, 30.2933, 24.187, -5.35418, -69.495, 3.21475
4.848, 6, -5.23094, 30.277, 24.2758, -5.39645, -69.6438, 3.23545
4.852, 6, -5.27863, 30.2607, 24.3647, -5.43852, -69.7927, 3.25596
4.856, 6, -5.32621, 30.2444, 24.4537, -5.48039, -69.9416, 3.27626
4.86, 6, -5.37369, 30.2281, 24.5428, -5.52207, -70.0907, 3.29636
4.864, 6, -5.42106, 30.2118, 24.632, -5.56355, -70.2398, 3.31626
4.868, 6, -5.46833, 30.1954, 24.7213, -5.60483, -70.389, 3.33596
4.872, 6, -5.51549, 30.1791, 24.8106, -5.64592, -70.5383, 3.35546
4.876, 6, -5.56255, 30.1627, 24.9001, -5.68681, -70.6876, 3.37477
4.88, 6, -5.6095, 30.1464, 24.9896, -5.72751, -70.8371, 3.39387
4.884, 6, -5.65633, 30.13, 25.0792, -5.76801, -70.9866, 3.41278
4.888, 6, -5.70306, 30.1136, 25.1689, -5.80832, -71.1363, 3.43149
4.892, 6, -5.74968, 30.0973, 25.2587, -5.84844, -71.286, 3.45
4.896, 6, -5.79619, 30.0809, 25.3486, -5.88837, -71.4358, 3.46832
4.9, 6, -5.84259, 30.0645, 25.4386, -5.9281, -71.5856, 3.48644
4.904, 6, -5.88888, 30.0481, 25.5287, -5.96764, -71.7356, 3.50437
4.908, 6, -5.93506, 30.0317, 25.6188, -6.00699, -71.8856, 3.52211
4.912, 6, -5.98112, 30.0153, 25.709, -6.04615, -72.0357, 3.53965
4.916, 6, -6.02707, 29.9989, 25.7994, -6.08513, -72.1859, 3.55699
4.92, 6, -6.0729, 29.9825, 25.8897, -6.12391, -72.3362, 3.57415
4.924, 6, -6.11863, 29.9661, 25.9802, -6.16251, -72.4865, 3.59111
4.928, 6, -6.16423, 29.9497, 26.0708, -6.20091, -72.6369, 3.60789
4.932, 6, -6.20972, 29.9333, 26.1614, -6.23913, -72.7874, 3.62447
4.936, 6, -6.25509, 29.9168, 26.2521, -6.27716, -72.938, 3.64086
4.94, 6, -6.30035, 29.9004, 26.3429, -6.31501, -73.0887, 3.65706
4.944, 6, -6.34549, 29.884, 26.4338, -6.35267, -73.2394, 3.67308
4.948, 6, -6.39051, 29.8676, 26.5248, -6.39015, -73.3902, 3.6889
4.952, 6, -6.43541, 29.8512, 26.6158, -6.42744, -73.5411, 3.70454
4.956, 6, -6.48019, 29.8348, 26.7069, -6.46455, -73.6921, 3.71999
4.96, 6, -6.52485, 29.8184, 26.7981, -6.50148, -73.8431, 3.73525
4.964, 6, -6.56939, 29.802, 26.8894, -6.53822, -73.9942, 3.75033
4.968, 6, -6.6138, 29.7856, 26.9807, -6.57478, -74.1454, 3.76522
4.972, 6, -6.6581, 29.7693, 27.0721, -6.61116, -74.2967, 3.77993
4.976, 6, -6.70227, 29.7529, 27.1636, -6.64736, -74.448, 3.79446
4.98, 6, -6.74632, 29.7365, 27.2551, -6.68337, -74.5994, 3.8088
4.984, 6, -6.79024, 29.7202, 27.3467, -6.71921, -74.7509, 3.82295
4.988, 6, -6.83404, 29.7038, 27.4384, -6.75487, -74.9025, 3.83693
4.992, 6, -6.87772, 29.6875, 27.5302, -6.79035, -75.0541, 3.85072
4.996, 6, -6.92126, 29.6711, 27.622, -6.82566, -75.2058, 3.86434
5, 6, -6.96468, 29.6548, 27.7139, -6.86078, -75.3576, 3.87777
5.004, 6, -7.00798, 29.6385, 27.8059, -6.89573, -75.5094, 3.89102
5.008, 6, -7.05114, 29.6222, 27.8979, -6.9305, -75.6613, 3.90409
5.012, 6, -7.09418, 29.6059, 27.99, -6.9651, -75.8133, 3.91699
5.016, 6, -7.13708, 29.5896, 28.0822, -6.99952, -75.9654, 3.9297
5.02, 6, -7.17986, 29.5734, 28.1744, -7.03377, -76.1175, 3.94224
5.024, 6, -7.2225, 29.5571, 28.2667, -7.06784, -76.2697, 3.9546
5.028, 6, -7.26502, 29.5409, 28.3591, -7.10174, -76.422, 3.96679
5.032, 6, -7.3074, 29.5247, 28.4515, -7.13547, -76.5743, 3.9788
5.036, 6, -7.34965, 29.5085, 28.544, -7.16902, -76.7267, 3.99063
5.04, 6, -7.39176, 29.4923, 28.6365, -7.20241, -76.8792, 4.00229
5.044, 6, -7.43375, 29.4761, 28.7291, -7.23562, -77.0317, 4.01378
5.048, 6, -7.47559, 29.46, 28.8218, -7.26866, -77.1843, 4.02509
5.052, 6, -7.51731, 29.4438, 28.9145, -7.30154, -77.3369, 4.03623
5.056, 6, -7.55888, 29.4277, 29.0073, -7.33424, -77.4897, 4.0472
5.06, 6, -7.60032, 29.4116, 29.1001, -7.36678, -77.6425, 4.058
5.064, 6, -7.64163, 29.3955, 29.193, -7.39915, -77.7953, 4.06862
5.068, 6, -7.68279, 29.3795, 29.286, -7.43135, -77.9483, 4.07908
5.072, 6, -7.72382, 29.3634, 29.379, -7.46338, -78.1013, 4.08936
5.076, 6, -7.76471, 29.3474, 29.4721, -7.49525, -78.2543, 4.09948
5.08, 6, -7.80546, 29.3314, 29.5652, -7.52695, -78.4074, 4.10943
5.084, 6, -7.84607, 29.3155, 29.6583, -7.55849, -78.5606, 4.11921
5.088, 6, -7.88654, 29.2995, 29.7516, -7.58986, -78.7139, 4.12882
5.092, 6, -7.92687, 29.2836, 29.8448, -7.62107, -78.8672, 4.13827
5.096, 6, -7.96706, 29.2677, 29.9382, -7.65211, -79.0206, 4.14754
5.1, 6, -8.0071, 29.2519, 30.0316, -7.68299, -79.174, 4.15666
5.104, 6, -8.047, 29.236, 30.125, -7.71371, -79.3275, 4.1656
5.108, 6, -8.08676, 29.2202, 30.2185, -7.74427, -79.4811, 4.17438
5.112, 6, -8.12637, 29.2044, 30.312, -7.77466, -79.6347, 4.18299
5.116, 6, -8.16583, 29.1887, 30.4056, -7.80489, -79.7884, 4.19144
5.12, 6, -8.20515, 29.1729, 30.4992, -7.83496, -79.9422, 4.19972
5.124, 6, -8.24432, 29.1572, 30.5929, -7.86487, -80.096, 4.20784
5.128, 6, -8.28335, 29.1416, 30.6866, -7.89461, -80.2499, 4.21579
5.132, 6, -8.32222, 29.1259, 30.7804, -7.9242, -80.4039, 4.22358
5.136, 6, -8.36095, 29.1103, 30.8742, -7.95362, -80.5579, 4.23121
5.14, 6, -8.39952, 29.0947, 30.9681, -7.98288, -80.712, 4.23867
5.144, 6, -8.43795, 29.0792, 31.062, -8.01197, -80.8662, 4.24597
5.148, 6, -8.47622, 29.0637, 31.156, -8.04091, -81.0204, 4.2531
5.152, 6, -8.51435, 29.0482, 31.25, -8.06968, -81.1747, 4.26007
5.156, 6, -8.55231, 29.0328, 31.344, -8.0983, -81.329, 4.26688
5.16, 6, -8.59013, 29.0174, 31.4381, -8.12675, -81.4835, 4.27353
5.164, 6, -8.62778, 29.002, 31.5322, -8.15504, -81.6379, 4.28001
5.168, 6, -8.66529, 28.9867, 31.6264, -8.18317, -81.7925, 4.28633
5.172, 6, -8.70263, 28.9714, 31.7206, -8.21113, -81.9471, 4.29249
5.176, 6, -8.73982, 28.9561, 31.8149, -8.23894, -82.1017, 4.29849
5.18, 6, -8.77685, 28.9409, 31.9091, -8.26658, -82.2565, 4.30433
5.184, 6, -8.81372, 28.9258, 32.0035, -8.29407, -82.4113, 4.31
5.188, 6, -8.85043, 28.9106, 32.0978, -8.32139, -82.5661, 4.31552
5.192, 6, -8.88698, 28.8956, 32.1922, -8.34855, -82.721, 4.32087
5.196, 6, -8.92337, 28.8805, 32.2866, -8.37555, -82.876, 4.32607
5.2, 6, -8.95959, 28.8655, 32.3811, -8.40239, -83.031, 4.33111
5.204, 6, -8.99565, 28.8506, 32.4756, -8.42907, -83.1861, 4.33598
5.208, 6, -9.03155, 28.8357, 32.5701, -8.45558, -83.3413, 4.3407
5.212, 6, -9.06728, 28.8208, 32.6646, -8.48194, -83.4965, 4.34526
5.216, 6, -9.10284, 28.806, 32.7592, -8.50813, -83.6518, 4.34966
5.22, 6, -9.13824, 28.7912, 32.8538, -8.53417, -83.8071, 4.3539
5.224, 6, -9.17347, 28.7765, 32.9484, -8.56004, -83.9625, 4.35799
5.228, 6, -9.20853, 28.7618, 33.0431, -8.58576, -84.118, 4.36191
5.232, 6, -9.24341, 28.7472, 33.1378, -8.61131, -84.2735, 4.36568
5.236, 6, -9.27813, 28.7327, 33.2325, -8.6367, -84.4291, 4.36929
5.24, 6, -9.31268, 28.7181, 33.3272, -8.66194, -84.5847, 4.37275
5.244, 6, -9.34705, 28.7037, 33.422, -8.68701, -84.7404, 4.37604
5.248, 6, -9.38125, 28.6893, 33.5168, -8.71192, -84.8962, 4.37919
5.252, 6, -9.41528, 28.6749, 33.6116, -8.73667, -85.052, 4.38217
5.256, 6, -9.44913, 28.6606, 33.7064, -8.76126, -85.2079, 4.385
5.26, 6, -9.4828, 28.6464, 33.8013, -8.78569, -85.3638, 4.38768
5.264, 6, -9.5163, 28.6322, 33.8961, -8.80997, -85.5198, 4.3902
5.268, 6, -9.54962, 28.6181, 33.991, -8.83408, -85.6758, 4.39257
5.272, 6, -9.58276, 28.604, 34.0859, -8.85803, -85.8319, 4.39478
5.276, 6, -9.61572, 28.59, 34.1809, -8.88182, -85.9881, 4.39683
5.28, 6, -9.6485, 28.576, 34.2758, -8.90545, -86.1443, 4.39874
5.284, 6, -9.6811, 28.5621, 34.3708, -8.92893, -86.3006, 4.40049
5.288, 6, -9.71352, 28.5483, 34.4657, -8.95224, -86.4569, 4.40208
5.292, 6, -9.74576, 28.5345, 34.5607, -8.97539, -86.6133, 4.40353
5.296, 6, -9.77781, 28.5208, 34.6557, -8.99839, -86.7697, 4.40482
5.3, 6, -9.80968, 28.5072, 34.7507, -9.02122, -86.9262, 4.40596
5.304, 6, -9.84136, 28.4936, 34.8457, -9.0439, -87.0828, 4.40695
5.308, 6, -9.87286, 28.4801, 34.9407, -9.06642, -87.2394, 4.40778
5.312, 6, -9.90416, 28.4666, 35.0358, -9.08877, -87.3961, 4.40846
5.316, 6, -9.93529, 28.4532, 35.1308, -9.11097, -87.5528, 4.409
5.32, 6, -9.96622, 28.4399, 35.2259, -9.13301, -87.7096, 4.40938
5.324, 6, -9.99696, 28.4267, 35.3209, -9.15489, -87.8664, 4.40961
5.328, 6, -10.0275, 28.4135, 35.416, -9.17662, -88.0233, 4.40969
5.332, 6, -10.0579, 28.4004, 35.5111, -9.19818, -88.1802, 4.40963
5.336, 6, -10.088, 28.3873, 35.6062, -9.21959, -88.3372, 4.40941
5.34, 6, -10.118, 28.3744, 35.7012, -9.24084, -88.4942, 4.40904
5.344, 6, -10.1478, 28.3615, 35.7963, -9.26193, -88.6513, 4.40853
5.348, 6, -10.1774, 28.3486, 35.8914, -9.28286, -88.8085, 4.40787
5.352, 6, -10.2068, 28.3359, 35.9865, -9.30363, -88.9657, 4.40706
5.356, 6, -10.236, 28.3232, 36.0816, -9.32425, -89.1229, 4.4061
5.36, 6, -10.265, 28.3106, 36.1766, -9.3447, -89.2802, 4.40499
5.364, 6, -10.2938, 28.2981, 36.2717, -9.365, -89.4376, 4.40374
5.368, 6, -10.3224, 28.2856, 36.3668, -9.38514, -89.595, 4.40234
5.372, 6, -10.3508, 28.2733, 36.4619, -9.40513, -89.7524, 4.40079
5.376, 6, -10.379, 28.261, 36.557, -9.42496, -89.91, 4.3991
5.38, 6, -10.407, 28.2487, 36.652, -9.44462, -90.0675, 4.39726
5.384, 6, -10.4348, 28.2366, 36.7471, -9.46414, -90.2251, 4.39527
5.388, 6, -10.4624, 28.2245, 36.8421, -9.48349, -90.3828, 4.39314
5.392, 6, -10.4898, 28.2126, 36.9372, -9.50269, -90.5405, 4.39087
5.396, 6, -10.517, 28.2007, 37.0322, -9.52173, -90.6983, 4.38845
5.4, 6, -10.544, 28.1888, 37.1273, -9.54062, -90.8561, 4.38589
5.404, 6, -10.5707, 28.1771, 37.2223, -9.55934, -91.0139, 4.38318
5.408, 6, -10.5973, 28.1655, 37.3173, -9.57791, -91.1718, 4.38033
5.412, 6, -10.6237, 28.1539, 37.4123, -9.59632, -91.3298, 4.37734
5.416, 6, -10.6498, 28.1424, 37.5073, -9.61458, -91.4878, 4.3742
5.42, 6, -10.6758, 28.131, 37.6022, -9.63268, -91.6459, 4.37092
5.424, 6, -10.7015, 28.1197, 37.6972, -9.65062, -91.804, 4.36749
5.428, 6, -10.727, 28.1085, 37.7921, -9.6684, -91.9622, 4.36393
5.432, 6, -10.7523, 28.0974, 37.8871, -9.68602, -92.1204, 4.36022
5.436, 6, -10.7774, 28.0864, 37.982, -9.70349, -92.2786, 4.35637
5.44, 6, -10.8023, 28.0754, 38.0769, -9.72079, -92.437, 4.35237
5.444, 6, -10.827, 28.0646, 38.1717, -9.73794, -92.5953, 4.34824
5.448, 6, -10.8514, 28.0538, 38.2666, -9.75493, -92.7537, 4.34396
5.452, 6, -10.8756, 28.0432, 38.3614, -9.77175, -92.9122, 4.33954
5.456, 6, -10.8996, 28.0326, 38.4563, -9.78842, -93.0707, 4.33498
5.46, 6, -10.9234, 28.0221, 38.551, -9.80492, -93.2293, 4.33028
5.464, 6, -10.947, 28.0117, 38.6458, -9.82127, -93.3879, 4.32544
5.468, 6, -10.9703, 28.0014, 38.7406, -9.83745, -93.5466, 4.32045
5.472, 6, -10.9934, 27.9913, 38.8353, -9.85347, -93.7053, 4.31533
5.476, 6, -11.0163, 27.9812, 38.93, -9.86932, -93.8641, 4.31007
5.48, 6, -11.039, 27.9712, 39.0246, -9.88502, -94.0229, 4.30466
5.484, 6, -11.0614, 27.9613, 39.1193, -9.90055, -94.1818, 4.29912
5.488, 6, -11.0836, 27.9515, 39.2139, -9.91592, -94.3408, 4.29344
5.492, 6, -11.1056, 27.9419, 39.3085, -9.93113, -94.4997, 4.28761
5.496, 6, -11.1274, 27.9323, 39.403, -9.94617, -94.6588, 4.28165
5.5, 6, -11.1489, 27.9228, 39.4975, -9.96105, -94.8179, 4.27555
5.504, 6, -11.1702, 27.9135, 39.592, -9.97576, -94.977, 4.26931
5.508, 6, -11.1913, 27.9042, 39.6865, -9.99031, -95.1362, 4.26294
5.512, 6, -11.2121, 27.8951, 39.7809, -10.0047, -95.2954, 4.25642
5.516, 6, -11.2327, 27.886, 39.8753, -10.0189, -95.4547, 4.24977
5.52, 6, -11.253, 27.8771, 39.9696, -10.033, -95.614, 4.24298
5.524, 6, -11.2731, 27.8683, 40.0639, -10.0469, -95.7734, 4.23606
5.528, 6, -11.293, 27.8596, 40.1582, -10.0606, -95.9328, 4.22899
5.532, 6, -11.3127, 27.851, 40.2524, -10.0741, -96.0923, 4.22179
5.536, 6, -11.3321, 27.8425, 40.3466, -10.0875, -96.2518, 4.21446
5.54, 6, -11.3512, 27.8341, 40.4407, -10.1007, -96.4114, 4.20699
5.544, 6, -11.3701, 27.8259, 40.5348, -10.1138, -96.571, 4.19938
5.548, 6, -11.3888, 27.8177, 40.6288, -10.1267, -96.7307, 4.19164
5.552, 6, -11.4072, 27.8097, 40.7228, -10.1394, -96.8904, 4.18376
5.556, 6, -11.4254, 27.8018, 40.8168, -10.1519, -97.0501, 4.17574
5.56, 6, -11.4434, 27.794, 40.9107, -10.1643, -97.21, 4.1676
5.564, 6, -11.461, 27.7864, 41.0046, -10.1765, -97.3698, 4.15931
5.568, 6, -11.4785, 27.7788, 41.0984, -10.1886, -97.5297, 4.1509
5.572, 6, -11.4957, 27.7714, 41.1921, -10.2005, -97.6897, 4.14235
5.576, 6, -11.5126, 27.7641, 41.2858, -10.2122, -97.8497, 4.13366
5.58, 6, -11.5293, 27.7569, 41.3795, -10.2237, -98.0097, 4.12485
5.584, 6, -11.5457, 27.7499, 41.4731, -10.2351, -98.1698, 4.11589
5.588, 6, -11.5619, 27.7429, 41.5666, -10.2462, -98.33, 4.10681
5.592, 6, -11.5778, 27.7361, 41.6601, -10.2573, -98.4902, 4.09759
5.596, 6, -11.5934, 27.7294, 41.7534, -10.2681, -98.6504, 4.08825
5.6, 6, -11.6086, 27.7228, 41.8464, -10.2788, -98.8105, 4.07878
5.604, 6, -11.6235, 27.7162, 41.9391, -10.2893, -98.9705, 4.06919
5.608, 6, -11.6379, 27.7096, 42.0312, -10.2996, -99.13, 4.0595
5.612, 6, -11.6518, 27.7031, 42.1223, -10.3097, -99.2887, 4.04974
5.616, 6, -11.6652, 27.6966, 42.2123, -10.3196, -99.4461, 4.03995
5.62, 6, -11.678, 27.6903, 42.3008, -10.3292, -99.6013, 4.03018
5.624, 6, -11.6904, 27.684, 42.3872, -10.3386, -99.7537, 4.0205
5.628, 6, -11.7021, 27.678, 42.4712, -10.3475, -99.9021, 4.01096
5.632, 6, -11.7134, 27.6722, 42.5523, -10.356, -100.046, 4.00166
5.636, 6, -11.7241, 27.6667, 42.63, -10.3641, -100.183, 3.99266
5.64, 6, -11.7341, 27.6616, 42.7037, -10.3717, -100.314, 3.98405
5.644, 6, -11.7435, 27.6569, 42.773, -10.3787, -100.437, 3.9759
5.648, 6, -11.7523, 27.6526, 42.8375, -10.3851, -100.551, 3.96827
5.652, 6, -11.7604, 27.6488, 42.8968, -10.3909, -100.655, 3.96122
5.656, 6, -11.7678, 27.6454, 42.9509, -10.3961, -100.75, 3.95481
5.66, 6, -11.7747, 27.6427, 42.9995, -10.4007, -100.835, 3.94906
5.664, 6, -11.7809, 27.6404, 43.0427, -10.4047, -100.909, 3.94397
5.668, 6, -11.7866, 27.6387, 43.0807, -10.408, -100.973, 3.93956
5.672, 6, -11.7917, 27.6374, 43.1135, -10.4108, -101.028, 3.93578
5.676, 6, -11.7962, 27.6365, 43.1415, -10.4132, -101.074, 3.9326
5.68, 6, -11.8002, 27.6359, 43.165, -10.415, -101.112, 3.92996
5.684, 6, -11.8036, 27.6355, 43.1844, -10.4165, -101.143, 3.92782
5.688, 6, -11.8066, 27.6354, 43.2002, -10.4177, -101.167, 3.92611
5.692, 6, -11.8092, 27.6354, 43.2128, -10.4186, -101.187, 3.92477
5.696, 6, -11.8115, 27.6355, 43.2228, -10.4193, -101.201, 3.92373
5.7, 6, -11.8135, 27.6357, 43.2305, -10.4198, -101.213, 3.92296
5.704, 6, -11.8152, 27.6359, 43.2364, -10.4201, -101.221, 3.92239
5.708, 6, -11.8166, 27.6361, 43.2408, -10.4204, -101.226, 3.92199
5.712, 7, -11.8178, 27.6363, 43.244, -10.4205, -101.231, 3.9217
5.716, 7, -11.8187, 27.6365, 43.2463, -10.4206, -101.233, 3.9215
5.72, 7, -11.8194, 27.6367, 43.2479, -10.4207, -101.235, 3.92137
5.724, 7, -11.8199, 27.6368, 43.249, -10.4207, -101.237, 3.92128
5.728, 7, -11.8202, 27.6368, 43.2498, -10.4208, -101.238, 3.92122
5.732, 7, -11.8204, 27.6369, 43.2503, -10.4208, -101.238, 3.92117
5.736, 7, -11.8206, 27.6369, 43.2506, -10.4208, -101.239, 3.92115
5.74, 7, -11.8207, 27.6369, 43.2509, -10.4208, -101.239, 3.92113
5.744, 7, -11.8208, 27.6369, 43.251, -10.4208, -101.239, 3.92111
5.748, 7, -11.8208, 27.637, 43.2511, -10.4208, -101.239, 3.9211
5.752, 7, -11.8208, 27.637, 43.2512, -10.4208, -101.239, 3.9211
5.756, 7, -11.8209, 27.637, 43.2513, -10.4208, -101.239, 3.92109
5.76, 7, -11.8209, 27.637, 43.2513, -10.4208, -101.239, 3.92109
5.764, 7, -11.8209, 27.637, 43.2513, -10.4208, -101.239, 3.92109
5.768, 7, -11.8209, 27.637, 43.2513, -10.4208, -101.239, 3.92109
5.772, 7, -11.8209, 27.637, 43.2513, -10.4208, -101.239, 3.92109
5.776, 7, -11.8209, 27.637, 43.2514, -10.4208, -101.239, 3.92109
5.78, 7, -11.8209, 27.637, 43.2514, -10.4208, -101.239, 3.92109
5.784, 7, -11.8209, 27.637, 43.2514, -10.4208, -101.239, 3.92109
5.788, 7, -11.8209, 27.637, 43.2514, -10.4208, -101.239, 3.92109
5.792, 7, -11.8209, 27.637, 43.2514, -10.4208, -101.239, 3.92109
5.796, 7, -11.8209, 27.637, 43.2514, -10.4208, -101.239, 3.92109
5.8, 7, -11.8209, 27.637, 43.2514, -10.4208, -101.239, 3.92109
5.804, 7, -11.8209, 27.637, 43.2514, -10.4208, -101.239, 3.92109
5.808, 7, -11.8209, 27.637, 43.2514, -10.4208, -101.239, 3.92109
5.812, 7, -11.8209, 27.637, 43.2514, -10.4208, -101.239, 3.92109
5.816, 7, -11.8209, 27.637, 43.2514, -10.4208, -101.239, 3.92109
5.82, 7, -11.8209, 27.637, 43.2514, -10.4208, -101.239, 3.92109
5.824, 7, -11.8209, 27.637, 43.2514, -10.4208, -101.239, 3.92109
5.828, 7, -11.8209, 27.637, 43.2514, -10.4208, -101.239, 3.92109
