hehonglu123/ABB_Primitive_Study/execution/movec_30_car/curve_exe_v300_fine.csv
timestamp, cmd_num, J1, J2, J3, J4, J5, J6
0, -1, -11.8209, 27.637, 43.2514, -10.4208, -101.239, 3.92109
0.002, -1, -11.8209, 27.637, 43.2514, -10.4208, -101.239, 3.92109
0.006, -1, -11.8209, 27.637, 43.2514, -10.4208, -101.239, 3.92109
0.008, -1, -11.8209, 27.637, 43.2514, -10.4208, -101.239, 3.92109
0.011, -1, -11.8209, 27.637, 43.2514, -10.4208, -101.239, 3.92109
0.016, -1, -11.8209, 27.637, 43.2514, -10.4208, -101.239, 3.92109
0.02, -1, -11.8209, 27.637, 43.2514, -10.4208, -101.239, 3.92109
0.024, -1, -11.8209, 27.637, 43.2514, -10.4208, -101.239, 3.92109
0.028, -1, -11.8209, 27.637, 43.2514, -10.4208, -101.239, 3.92109
0.032, -1, -11.8209, 27.637, 43.2514, -10.4208, -101.239, 3.92109
0.036, -1, -11.8208, 27.637, 43.2514, -10.4208, -101.239, 3.92108
0.04, -1, -11.8206, 27.6369, 43.2514, -10.4208, -101.239, 3.92108
0.044, -1, -11.8199, 27.6367, 43.2513, -10.4208, -101.239, 3.92105
0.048, -1, -11.8188, 27.6363, 43.2513, -10.4207, -101.239, 3.92098
0.052, -1, -11.8169, 27.6357, 43.2511, -10.4205, -101.239, 3.92081
0.056, -1, -11.8142, 27.6347, 43.2509, -10.42, -101.238, 3.92043
0.06, -1, -11.8106, 27.6334, 43.2504, -10.419, -101.236, 3.91973
0.064, -1, -11.8059, 27.6315, 43.2496, -10.4173, -101.234, 3.9185
0.068, -1, -11.8, 27.6291, 43.2483, -10.4146, -101.23, 3.91654
0.072, -1, -11.7928, 27.626, 43.2465, -10.4103, -101.223, 3.91354
0.076, -1, -11.7838, 27.6222, 43.2437, -10.4041, -101.214, 3.90917
0.08, -1, -11.7728, 27.6173, 43.2399, -10.3954, -101.201, 3.90303
0.084, -1, -11.7593, 27.6114, 43.2348, -10.3836, -101.183, 3.89469
0.088, -1, -11.7432, 27.6044, 43.2281, -10.3678, -101.159, 3.88364
0.092, -1, -11.7244, 27.5963, 43.2194, -10.3474, -101.128, 3.86937
0.096, -1, -11.7027, 27.5871, 43.2085, -10.3216, -101.09, 3.85137
0.1, -1, -11.6782, 27.5767, 43.1952, -10.2898, -101.042, 3.82914
0.104, -1, -11.6506, 27.5654, 43.1791, -10.2512, -100.985, 3.80229
0.108, -1, -11.6199, 27.5528, 43.1601, -10.2055, -100.916, 3.77048
0.112, -1, -11.5859, 27.5392, 43.138, -10.1523, -100.837, 3.73348
0.116, -1, -11.5485, 27.5242, 43.1128, -10.0915, -100.746, 3.69117
0.12, -1, -11.5074, 27.5079, 43.0844, -10.0229, -100.644, 3.64352
0.124, -1, -11.4628, 27.4904, 43.053, -9.94673, -100.53, 3.5906
0.128, -1, -11.4147, 27.4716, 43.0185, -9.8632, -100.406, 3.53258
0.131, -1, -11.3633, 27.4515, 42.9811, -9.77265, -100.271, 3.46969
0.136, -1, -11.3087, 27.4303, 42.941, -9.67555, -100.126, 3.40227
0.139, -1, -11.251, 27.4079, 42.8985, -9.57247, -99.9725, 3.33069
0.144, -1, -11.1903, 27.3844, 42.8538, -9.46403, -99.8108, 3.25539
0.148, -1, -11.1266, 27.3596, 42.807, -9.35088, -99.6422, 3.17682
0.152, -1, -11.0601, 27.3337, 42.7586, -9.23367, -99.4675, 3.09542
0.156, -1, -10.9909, 27.3067, 42.7087, -9.11298, -99.2876, 3.01159
0.16, -1, -10.9195, 27.2787, 42.6576, -8.98935, -99.1033, 2.92571
0.164, -1, -10.8461, 27.2499, 42.6054, -8.86324, -98.9152, 2.8381
0.168, -1, -10.7711, 27.2203, 42.5523, -8.73504, -98.7241, 2.74903
0.172, -1, -10.6948, 27.1902, 42.4985, -8.60512, -98.5303, 2.65876
0.176, -1, -10.6172, 27.1595, 42.4441, -8.47377, -98.3344, 2.56749
0.18, -1, -10.5385, 27.1283, 42.3892, -8.34126, -98.1368, 2.4754
0.184, -1, -10.459, 27.0968, 42.3339, -8.2078, -97.9377, 2.38265
0.188, -1, -10.3785, 27.0649, 42.2783, -8.07358, -97.7375, 2.28937
0.192, -1, -10.2973, 27.0327, 42.2224, -7.93872, -97.5364, 2.19564
0.196, -1, -10.2155, 27.0003, 42.1662, -7.80334, -97.3344, 2.10154
0.2, -1, -10.1331, 26.9676, 42.1099, -7.6675, -97.1317, 2.00712
0.204, -1, -10.0503, 26.9348, 42.0533, -7.53125, -96.9285, 1.91241
0.208, -1, -9.9672, 26.9019, 41.9967, -7.39462, -96.7247, 1.81744
0.212, -1, -9.88379, 26.8688, 41.9399, -7.25765, -96.5203, 1.72223
0.216, -1, -9.80013, 26.8356, 41.8829, -7.12034, -96.3155, 1.62679
0.22, -1, -9.71623, 26.8024, 41.8258, -6.98271, -96.1101, 1.53111
0.224, -1, -9.63212, 26.769, 41.7686, -6.84476, -95.9043, 1.43522
0.228, -1, -9.54781, 26.7356, 41.7112, -6.7065, -95.6981, 1.33912
0.232, -1, -9.46329, 26.7021, 41.6537, -6.56794, -95.4914, 1.2428
0.236, -1, -9.37859, 26.6685, 41.5961, -6.42908, -95.2842, 1.14628
0.24, -1, -9.29371, 26.6349, 41.5384, -6.28992, -95.0766, 1.04954
0.244, -1, -9.20864, 26.6011, 41.4805, -6.15046, -94.8685, 0.952603
0.248, -1, -9.12338, 26.5673, 41.4226, -6.01071, -94.66, 0.85546
0.252, -1, -9.03795, 26.5335, 41.3645, -5.87067, -94.4511, 0.758115
0.256, -1, -8.95235, 26.4995, 41.3062, -5.73034, -94.2418, 0.660569
0.26, -1, -8.86656, 26.4655, 41.2479, -5.58972, -94.032, 0.562823
0.264, -1, -8.78061, 26.4315, 41.1895, -5.44882, -93.8218, 0.464879
0.268, -1, -8.69448, 26.3973, 41.1309, -5.30764, -93.6111, 0.366738
0.272, -1, -8.60818, 26.3631, 41.0722, -5.16617, -93.4001, 0.2684
0.276, -1, -8.52171, 26.3288, 41.0134, -5.02442, -93.1886, 0.169869
0.28, -1, -8.43507, 26.2945, 40.9545, -4.8824, -92.9767, 0.0711437
0.284, -1, -8.34827, 26.2601, 40.8954, -4.74009, -92.7644, -0.027773
0.288, -1, -8.2613, 26.2256, 40.8363, -4.59752, -92.5517, -0.12688
0.292, -1, -8.17417, 26.191, 40.777, -4.45467, -92.3386, -0.226175
0.296, -1, -8.08688, 26.1564, 40.7177, -4.31156, -92.1251, -0.325657
0.3, -1, -7.99944, 26.1218, 40.6582, -4.16818, -91.9112, -0.425324
0.304, -1, -7.91184, 26.087, 40.5986, -4.02454, -91.6969, -0.525173
0.308, -1, -7.82408, 26.0522, 40.5389, -3.88064, -91.4822, -0.625202
0.312, -1, -7.73618, 26.0174, 40.4791, -3.73648, -91.2672, -0.725408
0.316, -1, -7.64814, 25.9825, 40.4192, -3.59207, -91.0517, -0.825789
0.32, -1, -7.55995, 25.9475, 40.3592, -3.44742, -90.8359, -0.926341
0.324, -1, -7.47161, 25.9125, 40.299, -3.30252, -90.6198, -1.02706
0.328, -1, -7.38314, 25.8774, 40.2388, -3.15738, -90.4032, -1.12795
0.332, -1, -7.29454, 25.8422, 40.1785, -3.01202, -90.1864, -1.229
0.336, -1, -7.20579, 25.807, 40.1181, -2.86642, -89.9691, -1.3302
0.34, -1, -7.11692, 25.7718, 40.0576, -2.7206, -89.7516, -1.43156
0.344, -1, -7.02791, 25.7365, 39.997, -2.57457, -89.5337, -1.53307
0.348, -1, -6.93879, 25.7011, 39.9364, -2.42832, -89.3156, -1.63473
0.352, -1, -6.84954, 25.6657, 39.8756, -2.28187, -89.0971, -1.73653
0.356, -1, -6.76017, 25.6303, 39.8148, -2.13522, -88.8783, -1.83847
0.36, -1, -6.67068, 25.5948, 39.7538, -1.98837, -88.6592, -1.94055
0.364, -1, -6.58109, 25.5593, 39.6928, -1.84134, -88.4398, -2.04276
0.368, -1, -6.49138, 25.5237, 39.6318, -1.69412, -88.2202, -2.14509
0.372, -1, -6.40157, 25.488, 39.5706, -1.54672, -88.0003, -2.24755
0.376, -1, -6.31166, 25.4524, 39.5094, -1.39915, -87.7802, -2.35013
0.38, -1, -6.22164, 25.4167, 39.4481, -1.25142, -87.5598, -2.45282
0.384, -1, -6.13154, 25.3809, 39.3867, -1.10353, -87.3391, -2.55562
0.388, -1, -6.04134, 25.3451, 39.3253, -0.955482, -87.1182, -2.65853
0.392, -1, -5.95105, 25.3093, 39.2639, -0.807292, -86.8972, -2.76154
0.396, -1, -5.86068, 25.2735, 39.2023, -0.658961, -86.6759, -2.86465
0.4, -1, -5.77023, 25.2376, 39.1407, -0.510497, -86.4544, -2.96785
0.404, -1, -5.6797, 25.2017, 39.0791, -0.361907, -86.2327, -3.07114
0.408, -1, -5.58909, 25.1658, 39.0174, -0.213195, -86.0109, -3.17451
0.412, -1, -5.49843, 25.1298, 38.9556, -0.0643699, -85.7888, -3.27796
0.416, -1, -5.40769, 25.0938, 38.8938, 0.084563, -85.5666, -3.38149
0.42, -1, -5.3169, 25.0578, 38.832, 0.233597, -85.3443, -3.48508
0.424, -1, -5.22606, 25.0217, 38.7701, 0.382725, -85.1218, -3.58874
0.428, -1, -5.13516, 24.9857, 38.7082, 0.531939, -84.8992, -3.69246
0.432, -1, -5.04422, 24.9496, 38.6463, 0.681234, -84.6765, -3.79624
0.436, -1, -4.95323, 24.9135, 38.5843, 0.830602, -84.4536, -3.90007
0.44, -1, -4.86221, 24.8774, 38.5223, 0.980034, -84.2307, -4.00394
0.444, -1, -4.77115, 24.8413, 38.4603, 1.12953, -84.0077, -4.10786
0.448, -1, -4.68007, 24.8051, 38.3983, 1.27907, -83.7846, -4.2118
0.452, -1, -4.58896, 24.769, 38.3362, 1.42865, -83.5614, -4.31578
0.456, -1, -4.49784, 24.7329, 38.2741, 1.57827, -83.3382, -4.41979
0.46, -1, -4.40671, 24.6967, 38.212, 1.72792, -83.1149, -4.52381
0.464, -1, -4.31556, 24.6605, 38.15, 1.87758, -82.8917, -4.62785
0.468, -1, -4.22441, 24.6244, 38.0879, 2.02726, -82.6684, -4.73189
0.472, -1, -4.13326, 24.5882, 38.0258, 2.17694, -82.4451, -4.83594
0.476, -1, -4.04211, 24.552, 37.9636, 2.32662, -82.2217, -4.93998
0.48, -1, -3.95098, 24.5159, 37.9016, 2.47628, -81.9985, -5.04401
0.484, -1, -3.85986, 24.4797, 37.8395, 2.62592, -81.7752, -5.14803
0.488, -1, -3.76876, 24.4436, 37.7774, 2.77553, -81.552, -5.25202
0.492, -1, -3.67769, 24.4075, 37.7154, 2.92509, -81.3289, -5.35599
0.496, -1, -3.58665, 24.3713, 37.6533, 3.07461, -81.1058, -5.45992
0.5, -1, -3.49564, 24.3352, 37.5913, 3.22408, -80.8829, -5.56381
0.504, -1, -3.40467, 24.2992, 37.5293, 3.37347, -80.66, -5.66766
0.508, -1, -3.31375, 24.2631, 37.4674, 3.52279, -80.4372, -5.77146
0.512, -1, -3.22288, 24.227, 37.4054, 3.67203, -80.2146, -5.87519
0.516, -1, -3.13206, 24.191, 37.3436, 3.82118, -79.9921, -5.97887
0.52, -1, -3.0413, 24.155, 37.2817, 3.97022, -79.7697, -6.08247
0.524, -1, -2.95061, 24.119, 37.2199, 4.11915, -79.5475, -6.186
0.528, -1, -2.85999, 24.0831, 37.1582, 4.26797, -79.3255, -6.28944
0.532, -1, -2.76944, 24.0472, 37.0965, 4.41666, -79.1037, -6.3928
0.536, -1, -2.67898, 24.0113, 37.0349, 4.56522, -78.882, -6.49606
0.54, -1, -2.58859, 23.9754, 36.9733, 4.71363, -78.6606, -6.59923
0.544, -1, -2.49829, 23.9396, 36.9118, 4.86189, -78.4394, -6.70228
0.548, -1, -2.40809, 23.9038, 36.8503, 5.00999, -78.2185, -6.80523
0.552, -1, -2.31798, 23.8681, 36.7889, 5.15792, -77.9978, -6.90806
0.556, -1, -2.22797, 23.8324, 36.7276, 5.30568, -77.7773, -7.01077
0.56, -1, -2.13807, 23.7967, 36.6664, 5.45326, -77.5572, -7.11336
0.564, -1, -2.04828, 23.7611, 36.6053, 5.60064, -77.3373, -7.2158
0.568, -1, -1.9586, 23.7256, 36.5442, 5.74782, -77.1177, -7.31811
0.572, -1, -1.86904, 23.6901, 36.4832, 5.8948, -76.8984, -7.42028
0.576, -1, -1.7796, 23.6546, 36.4223, 6.04157, -76.6795, -7.5223
0.58, -1, -1.6903, 23.6192, 36.3615, 6.18811, -76.4609, -7.62416
0.584, -1, -1.60113, 23.5839, 36.3008, 6.33442, -76.2426, -7.72587
0.588, -1, -1.5121, 23.5486, 36.2402, 6.4805, -76.0246, -7.82741
0.592, -1, -1.42322, 23.5134, 36.1797, 6.62634, -75.8071, -7.92879
0.596, -1, -1.33448, 23.4782, 36.1193, 6.77193, -75.5899, -8.02999
0.6, -1, -1.2459, 23.4431, 36.059, 6.91726, -75.3731, -8.13101
0.604, -1, -1.15748, 23.408, 35.9988, 7.06233, -75.1566, -8.23185
0.608, -1, -1.06922, 23.373, 35.9387, 7.20713, -74.9406, -8.3325
0.612, -1, -0.98112, 23.3381, 35.8787, 7.35165, -74.725, -8.43296
0.616, -1, -0.893193, 23.3033, 35.8189, 7.49589, -74.5098, -8.53323
0.62, -1, -0.805439, 23.2685, 35.7592, 7.63985, -74.295, -8.63329
0.624, -1, -0.717861, 23.2338, 35.6995, 7.78351, -74.0807, -8.73316
0.628, -1, -0.630465, 23.1991, 35.6401, 7.92687, -73.8668, -8.83281
0.632, -1, -0.543252, 23.1646, 35.5807, 8.06993, -73.6534, -8.93225
0.636, -1, -0.456226, 23.1301, 35.5215, 8.21268, -73.4404, -9.03148
0.64, -1, -0.369389, 23.0957, 35.4624, 8.35511, -73.2279, -9.13049
0.644, -1, -0.282746, 23.0613, 35.4034, 8.49722, -73.0159, -9.22927
0.648, -1, -0.196298, 23.0271, 35.3446, 8.63901, -72.8044, -9.32783
0.652, -1, -0.110049, 22.9929, 35.2859, 8.78046, -72.5934, -9.42616
0.656, -1, -0.0240014, 22.9588, 35.2273, 8.92158, -72.3828, -9.52425
0.66, -1, 0.0618417, 22.9248, 35.1689, 9.06236, -72.1728, -9.62211
0.664, -1, 0.147478, 22.8908, 35.1106, 9.2028, -71.9633, -9.71973
0.668, -1, 0.232905, 22.857, 35.0525, 9.34289, -71.7543, -9.81711
0.672, -1, 0.318122, 22.8232, 34.9945, 9.48263, -71.5458, -9.91425
0.676, -1, 0.403125, 22.7895, 34.9367, 9.62201, -71.3379, -10.0111
0.68, -1, 0.487913, 22.7559, 34.879, 9.76104, -71.1304, -10.1078
0.684, -1, 0.572484, 22.7224, 34.8215, 9.8997, -70.9236, -10.2042
0.688, -1, 0.656834, 22.689, 34.7641, 10.038, -70.7173, -10.3003
0.692, -1, 0.740962, 22.6557, 34.7069, 10.1759, -70.5115, -10.3962
0.696, -1, 0.824867, 22.6224, 34.6498, 10.3135, -70.3062, -10.4918
0.7, -1, 0.908546, 22.5892, 34.5929, 10.4507, -70.1016, -10.5872
0.704, -1, 0.991999, 22.5562, 34.5361, 10.5875, -69.8974, -10.6823
0.708, -1, 1.07522, 22.5232, 34.4795, 10.7239, -69.6939, -10.7771
0.712, -1, 1.15822, 22.4903, 34.423, 10.86, -69.4909, -10.8717
0.716, -1, 1.24098, 22.4575, 34.3667, 10.9957, -69.2885, -10.966
0.72, -1, 1.32352, 22.4248, 34.3106, 11.131, -69.0866, -11.0601
0.724, -1, 1.40582, 22.3922, 34.2546, 11.2659, -68.8853, -11.1539
0.728, -1, 1.48788, 22.3597, 34.1988, 11.4004, -68.6846, -11.2474
0.732, -1, 1.56971, 22.3272, 34.1431, 11.5346, -68.4845, -11.3406
0.736, -1, 1.65131, 22.2949, 34.0876, 11.6683, -68.285, -11.4336
0.74, -1, 1.73267, 22.2627, 34.0323, 11.8017, -68.086, -11.5263
0.744, -1, 1.81379, 22.2305, 33.9771, 11.9347, -67.8876, -11.6187
0.748, -1, 1.89467, 22.1985, 33.9221, 12.0673, -67.6898, -11.7109
0.752, -1, 1.97531, 22.1665, 33.8672, 12.1995, -67.4926, -11.8028
0.756, -1, 2.05572, 22.1347, 33.8125, 12.3313, -67.296, -11.8944
0.76, -1, 2.13588, 22.1029, 33.758, 12.4626, -67.0999, -11.9857
0.764, -1, 2.2158, 22.0712, 33.7037, 12.5936, -66.9045, -12.0768
0.768, -1, 2.29548, 22.0397, 33.6495, 12.7243, -66.7097, -12.1676
0.772, -1, 2.37492, 22.0082, 33.5954, 12.8545, -66.5154, -12.2581
0.776, -1, 2.45412, 21.9768, 33.5416, 12.9843, -66.3217, -12.3483
0.78, -1, 2.53307, 21.9455, 33.4879, 13.1137, -66.1287, -12.4383
0.784, -1, 2.61178, 21.9143, 33.4343, 13.2427, -65.9362, -12.5279
0.788, -1, 2.69025, 21.8832, 33.381, 13.3713, -65.7444, -12.6173
0.792, -1, 2.76848, 21.8522, 33.3278, 13.4995, -65.5531, -12.7065
0.796, -1, 2.84646, 21.8213, 33.2748, 13.6273, -65.3624, -12.7953
0.8, -1, 2.92419, 21.7905, 33.2219, 13.7547, -65.1723, -12.8839
0.804, -1, 3.00168, 21.7598, 33.1692, 13.8817, -64.9829, -12.9721
0.808, -1, 3.07893, 21.7292, 33.1167, 14.0083, -64.794, -13.0602
0.812, -1, 3.15594, 21.6987, 33.0643, 14.1345, -64.6057, -13.1479
0.816, -1, 3.2327, 21.6683, 33.0121, 14.2603, -64.418, -13.2353
0.82, -1, 3.30921, 21.638, 32.9601, 14.3857, -64.231, -13.3225
0.824, -1, 3.38548, 21.6078, 32.9082, 14.5107, -64.0445, -13.4094
0.828, -1, 3.46151, 21.5776, 32.8565, 14.6353, -63.8586, -13.496
0.832, -1, 3.53729, 21.5476, 32.805, 14.7595, -63.6733, -13.5823
0.836, -1, 3.61283, 21.5177, 32.7536, 14.8833, -63.4886, -13.6684
0.84, -1, 3.68813, 21.4878, 32.7024, 15.0067, -63.3046, -13.7541
0.844, -1, 3.76318, 21.4581, 32.6514, 15.1296, -63.1211, -13.8396
0.848, -1, 3.83799, 21.4285, 32.6005, 15.2522, -62.9382, -13.9248
0.852, -1, 3.91256, 21.3989, 32.5498, 15.3744, -62.7559, -14.0098
0.856, -1, 3.98689, 21.3695, 32.4993, 15.4962, -62.5742, -14.0944
0.86, -1, 4.06097, 21.3401, 32.4489, 15.6176, -62.393, -14.1788
0.864, -1, 4.13482, 21.3109, 32.3987, 15.7386, -62.2125, -14.2629
0.868, -1, 4.20842, 21.2817, 32.3486, 15.8592, -62.0326, -14.3468
0.872, -1, 4.28179, 21.2526, 32.2988, 15.9794, -61.8533, -14.4303
0.876, -1, 4.35492, 21.2236, 32.249, 16.0993, -61.6745, -14.5136
0.88, -1, 4.42781, 21.1948, 32.1995, 16.2187, -61.4963, -14.5966
0.884, -1, 4.50047, 21.166, 32.1501, 16.3377, -61.3187, -14.6794
0.888, -1, 4.57289, 21.1373, 32.1009, 16.4564, -61.1417, -14.7619
0.892, -1, 4.64507, 21.1087, 32.0518, 16.5746, -60.9653, -14.8441
0.896, -1, 4.71702, 21.0802, 32.0029, 16.6925, -60.7895, -14.926
0.9, -1, 4.78874, 21.0517, 31.9541, 16.81, -60.6142, -15.0077
0.904, -1, 4.86022, 21.0234, 31.9055, 16.9271, -60.4395, -15.0891
0.908, -1, 4.93148, 20.9952, 31.8571, 17.0438, -60.2653, -15.1702
0.912, -1, 5.0025, 20.967, 31.8088, 17.1602, -60.0917, -15.2511
0.916, -1, 5.07329, 20.939, 31.7607, 17.2762, -59.9187, -15.3317
0.92, -1, 5.14386, 20.911, 31.7127, 17.3918, -59.7462, -15.4121
0.924, -1, 5.2142, 20.8832, 31.6649, 17.507, -59.5743, -15.4922
0.928, -1, 5.28431, 20.8554, 31.6173, 17.6218, -59.403, -15.572
0.932, -1, 5.3542, 20.8277, 31.5698, 17.7363, -59.2322, -15.6516
0.936, -1, 5.42387, 20.8001, 31.5224, 17.8505, -59.0619, -15.7309
0.94, -1, 5.49331, 20.7726, 31.4752, 17.9642, -58.8922, -15.81
0.944, -1, 5.56253, 20.7451, 31.4282, 18.0776, -58.723, -15.8888
0.948, -1, 5.63153, 20.7178, 31.3812, 18.1907, -58.5544, -15.9674
0.952, -1, 5.70032, 20.6905, 31.3345, 18.3033, -58.3862, -16.0457
0.956, -1, 5.76889, 20.6634, 31.2879, 18.4157, -58.2187, -16.1238
0.96, -1, 5.83724, 20.6363, 31.2414, 18.5276, -58.0516, -16.2017
0.964, -1, 5.90538, 20.6093, 31.1951, 18.6393, -57.8851, -16.2793
0.968, -1, 5.9733, 20.5824, 31.1489, 18.7505, -57.7191, -16.3566
0.972, -1, 6.04101, 20.5556, 31.1029, 18.8615, -57.5536, -16.4337
0.976, -1, 6.10851, 20.5288, 31.057, 18.972, -57.3886, -16.5106
0.98, -1, 6.1758, 20.5021, 31.0113, 19.0823, -57.2242, -16.5872
0.984, -1, 6.24288, 20.4756, 30.9657, 19.1922, -57.0602, -16.6636
0.988, -1, 6.30975, 20.4491, 30.9202, 19.3017, -56.8968, -16.7397
0.992, -1, 6.37641, 20.4227, 30.8749, 19.4109, -56.7339, -16.8156
0.996, -1, 6.44287, 20.3963, 30.8298, 19.5198, -56.5715, -16.8913
1, -1, 6.50913, 20.3701, 30.7847, 19.6283, -56.4095, -16.9668
1.004, -1, 6.57518, 20.3439, 30.7398, 19.7365, -56.2481, -17.042
1.008, -1, 6.64103, 20.3178, 30.6951, 19.8444, -56.0872, -17.117
1.012, -1, 6.70668, 20.2918, 30.6504, 19.9519, -55.9267, -17.1917
1.016, -1, 6.77212, 20.2659, 30.606, 20.0591, -55.7668, -17.2663
1.02, -1, 6.83737, 20.24, 30.5616, 20.166, -55.6073, -17.3406
1.024, -1, 6.90243, 20.2142, 30.5174, 20.2726, -55.4483, -17.4146
1.027, -1, 6.96728, 20.1885, 30.4733, 20.3788, -55.2898, -17.4885
1.032, -1, 7.03194, 20.1629, 30.4294, 20.4848, -55.1318, -17.5621
1.036, -1, 7.0964, 20.1374, 30.3855, 20.5904, -54.9743, -17.6355
1.04, -1, 7.16067, 20.1119, 30.3418, 20.6957, -54.8172, -17.7087
1.044, -1, 7.22475, 20.0865, 30.2983, 20.8006, -54.6606, -17.7817
1.048, -1, 7.28864, 20.0612, 30.2549, 20.9053, -54.5044, -17.8544
1.052, -1, 7.35234, 20.036, 30.2116, 21.0096, -54.3487, -17.927
1.055, -1, 7.41585, 20.0108, 30.1684, 21.1137, -54.1935, -17.9993
1.06, -1, 7.47917, 19.9857, 30.1254, 21.2174, -54.0388, -18.0714
1.064, -1, 7.5423, 19.9607, 30.0824, 21.3208, -53.8845, -18.1433
1.068, -1, 7.60525, 19.9357, 30.0397, 21.4239, -53.7307, -18.215
1.072, -1, 7.66801, 19.9109, 29.997, 21.5268, -53.5773, -18.2864
1.076, -1, 7.73058, 19.8861, 29.9545, 21.6293, -53.4243, -18.3577
1.08, -1, 7.79298, 19.8614, 29.9121, 21.7315, -53.2718, -18.4287
1.084, -1, 7.85519, 19.8367, 29.8698, 21.8334, -53.1198, -18.4996
1.088, -1, 7.91722, 19.8121, 29.8276, 21.935, -52.9682, -18.5702
1.091, -1, 7.97907, 19.7876, 29.7856, 22.0363, -52.817, -18.6407
1.096, -1, 8.04075, 19.7632, 29.7436, 22.1374, -52.6663, -18.7109
1.1, -1, 8.10224, 19.7388, 29.7018, 22.2381, -52.516, -18.7809
1.104, -1, 8.16356, 19.7145, 29.6602, 22.3386, -52.3661, -18.8507
1.108, -1, 8.2247, 19.6903, 29.6186, 22.4387, -52.2167, -18.9204
1.112, -1, 8.28567, 19.6661, 29.5772, 22.5386, -52.0677, -18.9898
1.116, -1, 8.34646, 19.642, 29.5358, 22.6382, -51.9191, -19.059
1.119, -1, 8.40708, 19.618, 29.4946, 22.7375, -51.771, -19.128
1.124, -1, 8.46752, 19.5941, 29.4536, 22.8365, -51.6233, -19.1969
1.128, -1, 8.5278, 19.5702, 29.4126, 22.9353, -51.4759, -19.2655
1.132, -1, 8.5879, 19.5464, 29.3717, 23.0337, -51.329, -19.334
1.136, -1, 8.64784, 19.5226, 29.331, 23.1319, -51.1826, -19.4022
1.14, -1, 8.70761, 19.4989, 29.2904, 23.2298, -51.0365, -19.4703
1.144, -1, 8.76721, 19.4753, 29.2499, 23.3274, -50.8908, -19.5381
1.147, -1, 8.82664, 19.4518, 29.2095, 23.4248, -50.7456, -19.6058
1.152, -1, 8.88591, 19.4283, 29.1692, 23.5219, -50.6007, -19.6733
1.156, -1, 8.94502, 19.4049, 29.129, 23.6187, -50.4563, -19.7406
1.16, -1, 9.00397, 19.3815, 29.0889, 23.7153, -50.3122, -19.8077
1.164, -1, 9.06275, 19.3582, 29.049, 23.8116, -50.1686, -19.8747
1.168, -1, 9.12137, 19.335, 29.0091, 23.9076, -50.0253, -19.9414
1.172, -1, 9.17983, 19.3118, 28.9694, 24.0034, -49.8825, -20.008
1.175, -1, 9.23814, 19.2887, 28.9298, 24.0989, -49.74, -20.0744
1.18, -1, 9.29628, 19.2657, 28.8903, 24.1941, -49.5979, -20.1406
1.184, -1, 9.35427, 19.2427, 28.8508, 24.2891, -49.4562, -20.2066
1.188, -1, 9.4121, 19.2198, 28.8115, 24.3838, -49.3148, -20.2724
1.192, -1, 9.46978, 19.1969, 28.7723, 24.4783, -49.1739, -20.3381
1.196, -1, 9.5273, 19.1741, 28.7332, 24.5725, -49.0333, -20.4036
1.2, -1, 9.58467, 19.1514, 28.6943, 24.6665, -48.8931, -20.4689
1.204, -1, 9.64189, 19.1287, 28.6554, 24.7602, -48.7533, -20.5341
1.208, -1, 9.69896, 19.1061, 28.6166, 24.8537, -48.6138, -20.5991
1.212, -1, 9.75588, 19.0836, 28.5779, 24.947, -48.4747, -20.6639
1.216, -1, 9.81265, 19.0611, 28.5393, 25.0399, -48.336, -20.7285
1.22, -1, 9.86927, 19.0386, 28.5008, 25.1327, -48.1976, -20.793
1.224, -1, 9.92575, 19.0163, 28.4624, 25.2252, -48.0596, -20.8573
1.228, -1, 9.98208, 18.9939, 28.4241, 25.3175, -47.9219, -20.9215
1.232, -1, 10.0383, 18.9717, 28.386, 25.4095, -47.7846, -20.9854
1.236, -1, 10.0943, 18.9495, 28.3479, 25.5013, -47.6476, -21.0493
1.24, -1, 10.1502, 18.9273, 28.3099, 25.5929, -47.511, -21.1129
1.244, -1, 10.206, 18.9052, 28.272, 25.6842, -47.3748, -21.1764
1.248, -1, 10.2616, 18.8832, 28.2342, 25.7753, -47.2388, -21.2397
1.252, -1, 10.3171, 18.8612, 28.1965, 25.8662, -47.1033, -21.3029
1.256, -1, 10.3724, 18.8393, 28.1589, 25.9569, -46.968, -21.3659
1.26, -1, 10.4276, 18.8174, 28.1213, 26.0473, -46.8331, -21.4288
1.264, -1, 10.4827, 18.7956, 28.0839, 26.1375, -46.6986, -21.4915
1.267, -1, 10.5376, 18.7738, 28.0466, 26.2275, -46.5643, -21.554
1.272, -1, 10.5924, 18.7521, 28.0093, 26.3172, -46.4304, -21.6164
1.276, -1, 10.647, 18.7304, 27.9722, 26.4067, -46.2969, -21.6786
1.28, -1, 10.7016, 18.7088, 27.9351, 26.4961, -46.1636, -21.7407
1.284, -1, 10.7559, 18.6873, 27.8982, 26.5851, -46.0307, -21.8027
1.288, -1, 10.8102, 18.6658, 27.8613, 26.674, -45.8981, -21.8644
1.292, -1, 10.8643, 18.6443, 27.8245, 26.7627, -45.7658, -21.9261
1.295, -1, 10.9183, 18.6229, 27.7878, 26.8511, -45.6339, -21.9875
1.3, -1, 10.9722, 18.6016, 27.7512, 26.9394, -45.5022, -22.0489
1.304, -1, 11.0259, 18.5803, 27.7147, 27.0274, -45.3709, -22.1101
1.308, -1, 11.0796, 18.5591, 27.6782, 27.1152, -45.2399, -22.1711
1.312, -1, 11.133, 18.5379, 27.6419, 27.2028, -45.1092, -22.232
1.316, -1, 11.1864, 18.5167, 27.6056, 27.2902, -44.9788, -22.2928
1.32, -1, 11.2396, 18.4956, 27.5695, 27.3774, -44.8487, -22.3534
1.324, -1, 11.2927, 18.4746, 27.5334, 27.4644, -44.719, -22.4138
1.328, -1, 11.3457, 18.4536, 27.4974, 27.5512, -44.5895, -22.4742
1.332, -1, 11.3986, 18.4327, 27.4614, 27.6378, -44.4603, -22.5344
1.336, -1, 11.4513, 18.4118, 27.4256, 27.7241, -44.3314, -22.5944
1.34, -1, 11.5039, 18.3909, 27.3898, 27.8103, -44.2029, -22.6543
1.344, -1, 11.5564, 18.3701, 27.3542, 27.8963, -44.0746, -22.7141
1.348, -1, 11.6088, 18.3494, 27.3186, 27.9821, -43.9466, -22.7737
1.352, -1, 11.661, 18.3287, 27.2831, 28.0677, -43.8189, -22.8332
1.356, -1, 11.7132, 18.308, 27.2476, 28.1531, -43.6915, -22.8926
1.36, -1, 11.7652, 18.2874, 27.2123, 28.2383, -43.5644, -22.9518
1.364, -1, 11.8171, 18.2668, 27.177, 28.3233, -43.4376, -23.0109
1.368, -1, 11.8688, 18.2463, 27.1418, 28.4081, -43.3111, -23.0698
1.372, -1, 11.9205, 18.2259, 27.1067, 28.4927, -43.1848, -23.1286
1.376, -1, 11.972, 18.2054, 27.0717, 28.5771, -43.0589, -23.1873
1.38, -1, 12.0235, 18.1851, 27.0367, 28.6614, -42.9332, -23.2459
1.384, -1, 12.0748, 18.1647, 27.0018, 28.7454, -42.8078, -23.3043
1.388, -1, 12.126, 18.1444, 26.967, 28.8293, -42.6827, -23.3626
1.392, -1, 12.1771, 18.1242, 26.9323, 28.913, -42.5578, -23.4208
1.396, -1, 12.228, 18.104, 26.8977, 28.9965, -42.4333, -23.4788
1.4, -1, 12.2789, 18.0839, 26.8631, 29.0798, -42.309, -23.5367
1.404, -1, 12.3296, 18.0637, 26.8286, 29.1629, -42.185, -23.5945
1.408, -1, 12.3803, 18.0437, 26.7942, 29.2459, -42.0612, -23.6522
1.412, -1, 12.4308, 18.0237, 26.7599, 29.3286, -41.9377, -23.7097
1.416, -1, 12.4812, 18.0037, 26.7256, 29.4112, -41.8145, -23.7671
1.42, -1, 12.5315, 17.9838, 26.6914, 29.4936, -41.6915, -23.8244
1.424, -1, 12.5817, 17.9639, 26.6573, 29.5759, -41.5689, -23.8816
1.428, -1, 12.6318, 17.944, 26.6232, 29.6579, -41.4464, -23.9386
1.432, -1, 12.6818, 17.9242, 26.5893, 29.7398, -41.3243, -23.9956
1.436, -1, 12.7317, 17.9044, 26.5554, 29.8215, -41.2024, -24.0523
1.44, -1, 12.7815, 17.8847, 26.5215, 29.9031, -41.0807, -24.109
1.444, -1, 12.8311, 17.865, 26.4878, 29.9844, -40.9594, -24.1656
1.448, -1, 12.8807, 17.8454, 26.4541, 30.0656, -40.8382, -24.222
1.452, -1, 12.9302, 17.8258, 26.4205, 30.1466, -40.7174, -24.2783
1.456, -1, 12.9795, 17.8062, 26.3869, 30.2275, -40.5967, -24.3345
1.46, -1, 13.0288, 17.7867, 26.3534, 30.3082, -40.4764, -24.3906
1.464, -1, 13.0779, 17.7673, 26.32, 30.3887, -40.3563, -24.4466
1.468, -1, 13.127, 17.7478, 26.2867, 30.469, -40.2364, -24.5024
1.472, -1, 13.1759, 17.7284, 26.2534, 30.5492, -40.1168, -24.5582
1.476, -1, 13.2248, 17.7091, 26.2202, 30.6292, -39.9974, -24.6138
1.48, -1, 13.2735, 17.6898, 26.1871, 30.7091, -39.8783, -24.6693
1.484, -1, 13.3222, 17.6705, 26.154, 30.7888, -39.7594, -24.7247
1.488, -1, 13.3707, 17.6512, 26.121, 30.8683, -39.6407, -24.78
1.492, -1, 13.4191, 17.6321, 26.0881, 30.9476, -39.5223, -24.8351
1.496, -1, 13.4675, 17.6129, 26.0553, 31.0268, -39.4042, -24.8902
1.5, -1, 13.5157, 17.5938, 26.0225, 31.1059, -39.2863, -24.9451
1.504, -1, 13.5639, 17.5747, 25.9897, 31.1848, -39.1686, -25
1.508, -1, 13.612, 17.5557, 25.9571, 31.2635, -39.0511, -25.0547
1.512, -1, 13.6599, 17.5366, 25.9245, 31.3421, -38.9339, -25.1093
1.516, -1, 13.7078, 17.5177, 25.8919, 31.4205, -38.8169, -25.1638
1.52, -1, 13.7556, 17.4988, 25.8595, 31.4987, -38.7002, -25.2182
1.524, -1, 13.8032, 17.4799, 25.8271, 31.5768, -38.5837, -25.2725
1.528, -1, 13.8508, 17.461, 25.7947, 31.6548, -38.4674, -25.3267
1.532, -1, 13.8983, 17.4422, 25.7624, 31.7326, -38.3513, -25.3808
1.536, -1, 13.9457, 17.4234, 25.7302, 31.8102, -38.2355, -25.4347
1.54, -1, 13.993, 17.4047, 25.6981, 31.8877, -38.1199, -25.4886
1.544, -1, 14.0402, 17.386, 25.666, 31.965, -38.0045, -25.5424
1.548, -1, 14.0874, 17.3673, 25.634, 32.0422, -37.8893, -25.596
1.552, -1, 14.1344, 17.3486, 25.602, 32.1193, -37.7744, -25.6496
1.556, -1, 14.1813, 17.33, 25.5701, 32.1962, -37.6597, -25.703
1.56, -1, 14.2282, 17.3115, 25.5382, 32.2729, -37.5452, -25.7564
1.564, -1, 14.275, 17.2929, 25.5065, 32.3495, -37.4309, -25.8096
1.568, -1, 14.3216, 17.2745, 25.4747, 32.426, -37.3168, -25.8628
1.572, -1, 14.3682, 17.256, 25.4431, 32.5023, -37.2029, -25.9158
1.576, -1, 14.4147, 17.2376, 25.4115, 32.5785, -37.0893, -25.9688
1.58, -1, 14.4611, 17.2192, 25.3799, 32.6545, -36.9758, -26.0216
1.584, -1, 14.5075, 17.2008, 25.3484, 32.7304, -36.8626, -26.0744
1.588, -1, 14.5537, 17.1825, 25.317, 32.8062, -36.7496, -26.1271
1.592, -1, 14.5999, 17.1642, 25.2856, 32.8818, -36.6368, -26.1796
1.596, -1, 14.6459, 17.1459, 25.2543, 32.9573, -36.5242, -26.2321
1.6, -1, 14.6919, 17.1277, 25.2231, 33.0326, -36.4118, -26.2844
1.604, -1, 14.7378, 17.1095, 25.1919, 33.1078, -36.2996, -26.3367
1.608, -1, 14.7837, 17.0914, 25.1607, 33.1829, -36.1877, -26.3889
1.612, -1, 14.8294, 17.0733, 25.1296, 33.2578, -36.0759, -26.441
1.616, -1, 14.875, 17.0552, 25.0986, 33.3326, -35.9643, -26.493
1.62, -1, 14.9206, 17.0371, 25.0676, 33.4072, -35.8529, -26.5448
1.624, -1, 14.9661, 17.0191, 25.0367, 33.4817, -35.7418, -26.5966
1.628, -1, 15.0115, 17.0011, 25.0058, 33.5561, -35.6308, -26.6483
1.632, -1, 15.0568, 16.9831, 24.975, 33.6304, -35.52, -26.7
1.636, -1, 15.1021, 16.9652, 24.9443, 33.7045, -35.4094, -26.7515
1.64, -1, 15.1472, 16.9473, 24.9136, 33.7785, -35.2991, -26.8029
1.644, -1, 15.1923, 16.9294, 24.8829, 33.8523, -35.1889, -26.8543
1.648, -1, 15.2373, 16.9116, 24.8524, 33.9261, -35.0789, -26.9055
1.652, -1, 15.2822, 16.8938, 24.8218, 33.9997, -34.9691, -26.9567
1.656, -1, 15.3271, 16.876, 24.7913, 34.0731, -34.8595, -27.0077
1.66, -1, 15.3719, 16.8583, 24.7609, 34.1465, -34.75, -27.0587
1.664, -1, 15.4166, 16.8406, 24.7305, 34.2197, -34.6408, -27.1096
1.668, -1, 15.4612, 16.8229, 24.7002, 34.2928, -34.5318, -27.1604
1.672, -1, 15.5057, 16.8053, 24.6699, 34.3657, -34.4229, -27.2111
1.676, -1, 15.5502, 16.7876, 24.6397, 34.4386, -34.3143, -27.2618
1.68, -1, 15.5946, 16.7701, 24.6095, 34.5113, -34.2058, -27.3123
1.684, -1, 15.6389, 16.7525, 24.5794, 34.5839, -34.0975, -27.3628
1.688, -1, 15.6831, 16.735, 24.5494, 34.6563, -33.9894, -27.4131
1.692, -1, 15.7272, 16.7175, 24.5193, 34.7287, -33.8815, -27.4634
1.696, -1, 15.7713, 16.7, 24.4894, 34.8009, -33.7737, -27.5136
1.7, -1, 15.8153, 16.6826, 24.4595, 34.873, -33.6662, -27.5637
1.704, -1, 15.8593, 16.6652, 24.4296, 34.945, -33.5588, -27.6138
1.708, -1, 15.9031, 16.6478, 24.3998, 35.0168, -33.4516, -27.6637
1.712, -1, 15.9469, 16.6304, 24.37, 35.0886, -33.3446, -27.7136
1.716, -1, 15.9906, 16.6131, 24.3403, 35.1602, -33.2377, -27.7634
1.72, -1, 16.0343, 16.5958, 24.3107, 35.2317, -33.1311, -27.8131
1.724, -1, 16.0778, 16.5786, 24.281, 35.303, -33.0246, -27.8627
1.728, -1, 16.1213, 16.5613, 24.2515, 35.3743, -32.9183, -27.9122
1.732, -1, 16.1648, 16.5441, 24.222, 35.4454, -32.8121, -27.9617
1.736, -1, 16.2081, 16.5269, 24.1925, 35.5165, -32.7062, -28.011
1.74, -1, 16.2514, 16.5098, 24.1631, 35.5874, -32.6004, -28.0603
1.744, -1, 16.2946, 16.4927, 24.1337, 35.6582, -32.4947, -28.1096
1.748, -1, 16.3378, 16.4756, 24.1044, 35.7289, -32.3893, -28.1587
1.752, -1, 16.3808, 16.4585, 24.0751, 35.7994, -32.284, -28.2077
1.756, -1, 16.4238, 16.4414, 24.0459, 35.8699, -32.1789, -28.2567
1.76, -1, 16.4668, 16.4244, 24.0167, 35.9402, -32.074, -28.3056
1.764, -1, 16.5096, 16.4074, 23.9875, 36.0105, -31.9692, -28.3544
1.768, -1, 16.5524, 16.3905, 23.9584, 36.0806, -31.8646, -28.4032
1.772, -1, 16.5952, 16.3736, 23.9294, 36.1506, -31.7602, -28.4518
1.776, -1, 16.6378, 16.3566, 23.9004, 36.2205, -31.6559, -28.5004
1.78, -1, 16.6804, 16.3398, 23.8714, 36.2902, -31.5518, -28.5489
1.784, -1, 16.7229, 16.3229, 23.8425, 36.3599, -31.4478, -28.5973
1.788, -1, 16.7654, 16.3061, 23.8137, 36.4295, -31.344, -28.6457
1.792, -1, 16.8078, 16.2893, 23.7849, 36.4989, -31.2404, -28.694
1.796, -1, 16.8501, 16.2725, 23.7561, 36.5683, -31.137, -28.7422
1.8, -1, 16.8924, 16.2558, 23.7274, 36.6375, -31.0337, -28.7903
1.804, -1, 16.9346, 16.239, 23.6987, 36.7067, -30.9305, -28.8384
1.808, -1, 16.9767, 16.2224, 23.67, 36.7757, -30.8276, -28.8863
1.812, -1, 17.0188, 16.2057, 23.6414, 36.8446, -30.7248, -28.9343
1.816, -1, 17.0608, 16.189, 23.6129, 36.9134, -30.6221, -28.9821
1.82, -1, 17.1027, 16.1724, 23.5844, 36.9821, -30.5196, -29.0298
1.824, -1, 17.1445, 16.1559, 23.5559, 37.0507, -30.4172, -29.0775
1.828, -1, 17.186, 16.1394, 23.5275, 37.1192, -30.3151, -29.1251
1.832, -1, 17.2272, 16.1231, 23.4991, 37.1876, -30.2131, -29.1727
1.836, -1, 17.2677, 16.107, 23.4708, 37.2557, -30.1114, -29.2201
1.84, -1, 17.3076, 16.0912, 23.4426, 37.3237, -30.01, -29.2673
1.844, -1, 17.3467, 16.0757, 23.4146, 37.3913, -29.9092, -29.3143
1.848, -1, 17.3848, 16.0608, 23.3867, 37.4584, -29.8092, -29.3609
1.852, -1, 17.422, 16.0463, 23.3592, 37.5247, -29.7102, -29.407
1.856, -1, 17.458, 16.0323, 23.332, 37.59, -29.6128, -29.4524
1.86, -1, 17.4929, 16.019, 23.3054, 37.654, -29.5174, -29.4969
1.864, -1, 17.5264, 16.0063, 23.2795, 37.7163, -29.4245, -29.5402
1.868, -1, 17.5585, 15.9944, 23.2545, 37.7765, -29.3348, -29.582
1.872, -1, 17.589, 15.9832, 23.2306, 37.8341, -29.2489, -29.6221
1.876, -1, 17.6179, 15.9726, 23.2078, 37.8888, -29.1674, -29.66
1.88, -1, 17.6452, 15.9627, 23.1865, 37.94, -29.0911, -29.6956
1.884, -1, 17.6708, 15.9533, 23.1668, 37.9874, -29.0204, -29.7286
1.888, -1, 17.6949, 15.9443, 23.1489, 38.0306, -28.9559, -29.7586
1.892, -1, 17.7175, 15.9356, 23.1327, 38.0695, -28.8979, -29.7857
1.896, -1, 17.7385, 15.9272, 23.1184, 38.1039, -28.8466, -29.8096
1.9, -1, 17.758, 15.9192, 23.106, 38.1339, -28.8018, -29.8304
1.904, -1, 17.7759, 15.9115, 23.0954, 38.1595, -28.7636, -29.8482
1.908, -1, 17.792, 15.9045, 23.0865, 38.181, -28.7315, -29.8632
1.912, -1, 17.8065, 15.898, 23.0792, 38.1987, -28.7051, -29.8755
1.916, -1, 17.8195, 15.8921, 23.0733, 38.2129, -28.6838, -29.8854
1.92, -1, 17.831, 15.8868, 23.0687, 38.2241, -28.667, -29.8932
1.924, -1, 17.8411, 15.8821, 23.0652, 38.2327, -28.6542, -29.8991
1.928, -1, 17.85, 15.8781, 23.0626, 38.2391, -28.6446, -29.9036
1.932, -1, 17.8576, 15.8747, 23.0607, 38.2438, -28.6375, -29.9068
1.936, -1, 17.8638, 15.872, 23.0593, 38.2471, -28.6325, -29.9091
1.94, 2, 17.8689, 15.8698, 23.0584, 38.2494, -28.629, -29.9108
1.944, 2, 17.8727, 15.8682, 23.0577, 38.251, -28.6266, -29.9119
1.948, 2, 17.8755, 15.867, 23.0573, 38.2521, -28.625, -29.9126
1.952, 2, 17.8775, 15.8662, 23.057, 38.2528, -28.6239, -29.9131
1.956, 2, 17.8788, 15.8657, 23.0568, 38.2533, -28.6231, -29.9135
1.96, 2, 17.8797, 15.8653, 23.0567, 38.2537, -28.6226, -29.9137
1.964, 2, 17.8803, 15.8651, 23.0566, 38.2539, -28.6222, -29.9139
1.968, 2, 17.8807, 15.8649, 23.0565, 38.254, -28.622, -29.914
1.972, 2, 17.881, 15.8648, 23.0565, 38.2541, -28.6219, -29.9141
1.976, 2, 17.8812, 15.8647, 23.0564, 38.2542, -28.6217, -29.9141
1.98, 2, 17.8813, 15.8647, 23.0564, 38.2543, -28.6217, -29.9142
1.984, 2, 17.8814, 15.8646, 23.0564, 38.2543, -28.6216, -29.9142
1.988, 2, 17.8814, 15.8646, 23.0564, 38.2543, -28.6216, -29.9142
1.992, 2, 17.8815, 15.8646, 23.0564, 38.2543, -28.6216, -29.9142
1.996, 2, 17.8815, 15.8646, 23.0564, 38.2543, -28.6216, -29.9142
1.999, 2, 17.8815, 15.8646, 23.0564, 38.2544, -28.6215, -29.9142
2.004, 2, 17.8815, 15.8646, 23.0564, 38.2544, -28.6215, -29.9142
2.008, 2, 17.8816, 15.8646, 23.0564, 38.2544, -28.6215, -29.9142
2.012, 2, 17.8816, 15.8646, 23.0564, 38.2544, -28.6215, -29.9142
2.015, 2, 17.8816, 15.8646, 23.0564, 38.2544, -28.6215, -29.9142
2.019, 2, 17.8816, 15.8646, 23.0564, 38.2544, -28.6215, -29.9142
2.024, 2, 17.8816, 15.8646, 23.0564, 38.2544, -28.6215, -29.9142
2.028, 2, 17.8816, 15.8645, 23.0564, 38.2544, -28.6215, -29.9142
2.031, 2, 17.8816, 15.8645, 23.0564, 38.2544, -28.6215, -29.9142
2.036, 2, 17.8816, 15.8645, 23.0564, 38.2544, -28.6215, -29.9142
2.04, 2, 17.8816, 15.8645, 23.0564, 38.2544, -28.6215, -29.9142
2.044, 2, 17.8816, 15.8645, 23.0564, 38.2544, -28.6215, -29.9142
2.048, 2, 17.8816, 15.8645, 23.0564, 38.2544, -28.6215, -29.9142
2.051, 2, 17.8816, 15.8645, 23.0564, 38.2544, -28.6215, -29.9142
2.055, 2, 17.8816, 15.8645, 23.0564, 38.2544, -28.6215, -29.9142
2.06, 2, 17.8816, 15.8645, 23.0564, 38.2544, -28.6215, -29.9142
2.064, 2, 17.8816, 15.8645, 23.0564, 38.2544, -28.6215, -29.9142
2.068, 2, 17.8816, 15.8645, 23.0564, 38.2544, -28.6215, -29.9142
2.071, 2, 17.8816, 15.8645, 23.0564, 38.2544, -28.6215, -29.9142
2.076, 2, 17.8816, 15.8645, 23.0564, 38.2544, -28.6215, -29.9142
2.08, 2, 17.8816, 15.8645, 23.0564, 38.2544, -28.6215, -29.9142
2.084, 2, 17.8816, 15.8645, 23.0564, 38.2544, -28.6215, -29.9142
2.087, 2, 17.8816, 15.8645, 23.0564, 38.2544, -28.6215, -29.9142
2.092, 2, 17.8816, 15.8645, 23.0564, 38.2544, -28.6215, -29.9142
2.096, 2, 17.8816, 15.8645, 23.0564, 38.2544, -28.6215, -29.9142
2.1, 2, 17.8816, 15.8645, 23.0564, 38.2544, -28.6215, -29.9142
2.104, 2, 17.8816, 15.8645, 23.0564, 38.2544, -28.6215, -29.9142
2.107, 2, 17.8816, 15.8645, 23.0564, 38.2544, -28.6215, -29.9142
2.111, 2, 17.8816, 15.8645, 23.0564, 38.2544, -28.6215, -29.9142
2.116, 2, 17.8816, 15.8645, 23.0564, 38.2544, -28.6215, -29.9142
2.12, 2, 17.8816, 15.8645, 23.0564, 38.2544, -28.6215, -29.9142
2.124, 2, 17.8816, 15.8645, 23.0564, 38.2544, -28.6215, -29.9142
2.127, 2, 17.8816, 15.8645, 23.0564, 38.2544, -28.6215, -29.9142
2.132, 2, 17.8816, 15.8645, 23.0564, 38.2544, -28.6215, -29.9142
2.136, 2, 17.8816, 15.8645, 23.0564, 38.2544, -28.6215, -29.9142
2.14, 2, 17.8816, 15.8645, 23.0564, 38.2544, -28.6215, -29.9142
2.143, 2, 17.8816, 15.8645, 23.0564, 38.2544, -28.6215, -29.9142
2.148, 2, 17.8816, 15.8645, 23.0564, 38.2544, -28.6215, -29.9142
2.152, 2, 17.8816, 15.8645, 23.0564, 38.2544, -28.6215, -29.9142
2.156, 2, 17.8816, 15.8645, 23.0564, 38.2544, -28.6215, -29.9142
2.16, 2, 17.8816, 15.8645, 23.0564, 38.2544, -28.6215, -29.9142
2.163, 2, 17.8816, 15.8645, 23.0564, 38.2544, -28.6215, -29.9142
2.168, 2, 17.8816, 15.8645, 23.0564, 38.2544, -28.6215, -29.9142
2.172, 2, 17.8816, 15.8645, 23.0564, 38.2544, -28.6215, -29.9142
2.176, 2, 17.8816, 15.8645, 23.0564, 38.2544, -28.6215, -29.9142
2.179, 2, 17.8816, 15.8645, 23.0564, 38.2544, -28.6215, -29.9142
2.184, 2, 17.8816, 15.8645, 23.0564, 38.2544, -28.6215, -29.9142
2.188, 2, 17.8816, 15.8645, 23.0564, 38.2544, -28.6215, -29.9142
2.192, 2, 17.8816, 15.8645, 23.0564, 38.2544, -28.6215, -29.9142
2.196, 2, 17.8816, 15.8645, 23.0564, 38.2544, -28.6215, -29.9142
2.199, 2, 17.8816, 15.8645, 23.0564, 38.2544, -28.6215, -29.9142
2.204, 2, 17.8816, 15.8645, 23.0564, 38.2544, -28.6215, -29.9142
2.208, 2, 17.8816, 15.8645, 23.0564, 38.2544, -28.6215, -29.9142
2.212, 2, 17.8816, 15.8645, 23.0564, 38.2544, -28.6215, -29.9142
2.216, 2, 17.8816, 15.8645, 23.0564, 38.2544, -28.6215, -29.9142
2.219, 2, 17.8816, 15.8645, 23.0564, 38.2544, -28.6215, -29.9142
2.224, 2, 17.8816, 15.8645, 23.0564, 38.2544, -28.6215, -29.9142
2.228, 2, 17.8816, 15.8645, 23.0564, 38.2544, -28.6215, -29.9142
2.232, 2, 17.8816, 15.8645, 23.0564, 38.2544, -28.6215, -29.9142
2.235, 2, 17.8816, 15.8645, 23.0564, 38.2544, -28.6215, -29.9142
2.24, 2, 17.8816, 15.8645, 23.0564, 38.2544, -28.6215, -29.9142
2.244, 2, 17.8816, 15.8645, 23.0564, 38.2544, -28.6215, -29.9142
2.248, 2, 17.8816, 15.8645, 23.0564, 38.2544, -28.6215, -29.9142
2.252, 2, 17.8816, 15.8645, 23.0564, 38.2544, -28.6215, -29.9142
2.255, 2, 17.8816, 15.8645, 23.0564, 38.2544, -28.6215, -29.9142
2.259, 2, 17.8816, 15.8645, 23.0564, 38.2544, -28.6215, -29.9142
2.264, 2, 17.8816, 15.8645, 23.0564, 38.2544, -28.6215, -29.9142
2.268, 2, 17.8816, 15.8645, 23.0564, 38.2544, -28.6215, -29.9142
2.272, 2, 17.8816, 15.8645, 23.0564, 38.2544, -28.6215, -29.9142
2.275, 2, 17.8816, 15.8645, 23.0564, 38.2544, -28.6215, -29.9142
2.28, 2, 17.8816, 15.8645, 23.0564, 38.2544, -28.6215, -29.9142
2.284, 2, 17.8816, 15.8645, 23.0564, 38.2544, -28.6215, -29.9142
2.288, 2, 17.8816, 15.8645, 23.0564, 38.2544, -28.6215, -29.9142
2.291, 2, 17.8816, 15.8645, 23.0564, 38.2544, -28.6215, -29.9142
2.296, 2, 17.8816, 15.8645, 23.0564, 38.2544, -28.6215, -29.9142
2.3, 2, 17.8816, 15.8645, 23.0564, 38.2544, -28.6215, -29.9142
2.304, 2, 17.8816, 15.8645, 23.0564, 38.2544, -28.6215, -29.9142
2.308, 2, 17.8816, 15.8645, 23.0564, 38.2544, -28.6215, -29.9142
2.311, 2, 17.8816, 15.8645, 23.0564, 38.2544, -28.6215, -29.9142
2.316, 2, 17.8816, 15.8645, 23.0564, 38.2544, -28.6215, -29.9142
2.32, 2, 17.8816, 15.8645, 23.0564, 38.2544, -28.6215, -29.9142
2.324, 2, 17.8816, 15.8645, 23.0564, 38.2544, -28.6215, -29.9142
2.328, 2, 17.8816, 15.8645, 23.0564, 38.2544, -28.6215, -29.9142
2.331, 2, 17.8816, 15.8645, 23.0564, 38.2544, -28.6215, -29.9142
2.336, 2, 17.8816, 15.8645, 23.0564, 38.2544, -28.6215, -29.9142
2.34, 2, 17.8816, 15.8645, 23.0564, 38.2544, -28.6215, -29.9142
2.344, 2, 17.8816, 15.8645, 23.0564, 38.2544, -28.6215, -29.9142
2.347, 2, 17.8816, 15.8645, 23.0564, 38.2544, -28.6215, -29.9142
2.352, 2, 17.8816, 15.8645, 23.0564, 38.2544, -28.6215, -29.9142
2.356, 2, 17.8816, 15.8645, 23.0564, 38.2544, -28.6215, -29.9142
2.36, 2, 17.8816, 15.8645, 23.0564, 38.2544, -28.6215, -29.9142
2.364, 2, 17.8816, 15.8645, 23.0564, 38.2544, -28.6215, -29.9142
2.367, 2, 17.8816, 15.8645, 23.0564, 38.2544, -28.6215, -29.9142
2.372, 2, 17.8816, 15.8645, 23.0564, 38.2544, -28.6215, -29.9142
2.376, 2, 17.8816, 15.8645, 23.0564, 38.2544, -28.6215, -29.9142
2.38, 2, 17.8816, 15.8645, 23.0564, 38.2544, -28.6215, -29.9142
2.383, 2, 17.8816, 15.8645, 23.0564, 38.2544, -28.6215, -29.9142
2.388, 2, 17.8816, 15.8645, 23.0564, 38.2544, -28.6215, -29.9142
2.392, 2, 17.8816, 15.8645, 23.0564, 38.2544, -28.6215, -29.9142
2.396, 2, 17.8816, 15.8645, 23.0564, 38.2544, -28.6215, -29.9142
2.4, 2, 17.8816, 15.8645, 23.0564, 38.2544, -28.6215, -29.9142
2.403, 2, 17.8816, 15.8645, 23.0564, 38.2544, -28.6215, -29.9142
2.408, 2, 17.8816, 15.8645, 23.0564, 38.2544, -28.6215, -29.9142
2.412, 2, 17.8816, 15.8645, 23.0564, 38.2544, -28.6215, -29.9142
2.416, 2, 17.8816, 15.8645, 23.0564, 38.2544, -28.6215, -29.9142
2.42, 2, 17.8816, 15.8645, 23.0564, 38.2544, -28.6215, -29.9142
2.423, 2, 17.8816, 15.8645, 23.0564, 38.2544, -28.6215, -29.9142
2.428, 2, 17.8816, 15.8645, 23.0564, 38.2544, -28.6215, -29.9142
2.432, 2, 17.8816, 15.8645, 23.0564, 38.2544, -28.6215, -29.9142
2.436, 2, 17.8816, 15.8645, 23.0564, 38.2544, -28.6215, -29.9142
2.439, 2, 17.8816, 15.8645, 23.0564, 38.2544, -28.6215, -29.9142
2.444, 2, 17.8816, 15.8645, 23.0564, 38.2544, -28.6215, -29.9142
2.448, 2, 17.8816, 15.8645, 23.0564, 38.2544, -28.6215, -29.9142
2.452, 2, 17.8816, 15.8645, 23.0564, 38.2544, -28.6215, -29.9142
2.456, 2, 17.8816, 15.8645, 23.0564, 38.2544, -28.6215, -29.9142
2.459, 2, 17.8816, 15.8645, 23.0564, 38.2544, -28.6215, -29.9142
2.464, 2, 17.8816, 15.8645, 23.0564, 38.2544, -28.6215, -29.9142
2.468, 2, 17.8816, 15.8645, 23.0564, 38.2544, -28.6215, -29.9142
2.472, 2, 17.8816, 15.8645, 23.0564, 38.2544, -28.6215, -29.9142
2.476, 2, 17.8816, 15.8645, 23.0564, 38.2544, -28.6215, -29.9142
2.479, 2, 17.8816, 15.8645, 23.0564, 38.2544, -28.6215, -29.9142
2.484, 2, 17.8816, 15.8645, 23.0564, 38.2544, -28.6215, -29.9142
2.488, 2, 17.8816, 15.8645, 23.0564, 38.2544, -28.6215, -29.9142
2.492, 2, 17.8816, 15.8645, 23.0564, 38.2544, -28.6215, -29.9142
2.495, 2, 17.8816, 15.8645, 23.0564, 38.2544, -28.6215, -29.9142
2.5, 2, 17.8816, 15.8645, 23.0564, 38.2544, -28.6215, -29.9142
2.504, 2, 17.8816, 15.8645, 23.0564, 38.2544, -28.6215, -29.9142
2.508, 2, 17.8816, 15.8645, 23.0564, 38.2544, -28.6215, -29.9142
2.512, 2, 17.8816, 15.8645, 23.0564, 38.2544, -28.6215, -29.9142
2.515, 2, 17.8816, 15.8645, 23.0564, 38.2544, -28.6215, -29.9142
2.52, 2, 17.8816, 15.8645, 23.0564, 38.2544, -28.6215, -29.9142
2.524, 2, 17.8816, 15.8645, 23.0564, 38.2544, -28.6215, -29.9142
2.528, 2, 17.8816, 15.8645, 23.0564, 38.2544, -28.6215, -29.9142
2.531, 2, 17.8816, 15.8645, 23.0564, 38.2544, -28.6215, -29.9142
2.536, 2, 17.8816, 15.8645, 23.0564, 38.2544, -28.6215, -29.9142
2.54, 2, 17.8816, 15.8645, 23.0564, 38.2544, -28.6215, -29.9142
2.544, 2, 17.8816, 15.8645, 23.0564, 38.2544, -28.6215, -29.9142
2.548, 2, 17.8816, 15.8645, 23.0564, 38.2544, -28.6215, -29.9142
2.551, 2, 17.8816, 15.8645, 23.0564, 38.2544, -28.6215, -29.9142
2.556, 2, 17.8816, 15.8645, 23.0564, 38.2544, -28.6215, -29.9142
2.56, 2, 17.8816, 15.8645, 23.0564, 38.2544, -28.6215, -29.9142
2.564, 2, 17.8816, 15.8645, 23.0564, 38.2544, -28.6215, -29.9142
2.568, 2, 17.8816, 15.8645, 23.0564, 38.2544, -28.6215, -29.9142
2.571, 2, 17.8816, 15.8645, 23.0564, 38.2544, -28.6215, -29.9142
2.576, 2, 17.8816, 15.8645, 23.0564, 38.2544, -28.6215, -29.9142
2.58, 2, 17.8816, 15.8645, 23.0564, 38.2544, -28.6215, -29.9142
2.584, 2, 17.8816, 15.8645, 23.0564, 38.2544, -28.6215, -29.9142
2.587, 2, 17.8816, 15.8645, 23.0564, 38.2544, -28.6215, -29.9142
2.592, 2, 17.8816, 15.8645, 23.0564, 38.2544, -28.6215, -29.9142
2.596, 2, 17.8816, 15.8645, 23.0564, 38.2544, -28.6215, -29.9142
2.6, 2, 17.8816, 15.8645, 23.0564, 38.2544, -28.6215, -29.9142
2.604, 2, 17.8816, 15.8645, 23.0564, 38.2544, -28.6215, -29.9142
2.607, 2, 17.8816, 15.8645, 23.0564, 38.2544, -28.6215, -29.9142
2.612, 2, 17.8816, 15.8645, 23.0564, 38.2544, -28.6215, -29.9142
2.616, 2, 17.8816, 15.8645, 23.0564, 38.2544, -28.6215, -29.9142
2.62, 2, 17.8816, 15.8645, 23.0564, 38.2544, -28.6215, -29.9142
2.624, 2, 17.8816, 15.8645, 23.0564, 38.2544, -28.6215, -29.9142
2.627, 2, 17.8816, 15.8645, 23.0564, 38.2544, -28.6215, -29.9142
2.632, 2, 17.8816, 15.8645, 23.0564, 38.2544, -28.6215, -29.9142
2.636, 2, 17.8816, 15.8645, 23.0564, 38.2544, -28.6215, -29.9142
2.64, 2, 17.8816, 15.8645, 23.0564, 38.2544, -28.6215, -29.9142
2.643, 2, 17.8816, 15.8645, 23.0564, 38.2544, -28.6215, -29.9142
2.648, 2, 17.8816, 15.8645, 23.0564, 38.2544, -28.6215, -29.9142
2.652, 2, 17.8816, 15.8645, 23.0564, 38.2544, -28.6215, -29.9142
2.656, 2, 17.8816, 15.8645, 23.0564, 38.2544, -28.6215, -29.9142
2.66, 2, 17.8816, 15.8645, 23.0564, 38.2544, -28.6215, -29.9142
2.663, 2, 17.8816, 15.8645, 23.0564, 38.2544, -28.6215, -29.9142
2.668, 2, 17.8816, 15.8645, 23.0564, 38.2544, -28.6215, -29.9142
2.672, 2, 17.8816, 15.8645, 23.0564, 38.2544, -28.6215, -29.9142
2.676, 2, 17.8816, 15.8645, 23.0564, 38.2544, -28.6215, -29.9142
2.679, 2, 17.8816, 15.8645, 23.0564, 38.2544, -28.6215, -29.9142
2.684, 2, 17.8816, 15.8645, 23.0564, 38.2544, -28.6215, -29.9142
2.688, 2, 17.8816, 15.8645, 23.0564, 38.2544, -28.6215, -29.9142
2.692, 2, 17.8816, 15.8645, 23.0564, 38.2544, -28.6215, -29.9142
2.696, 2, 17.8816, 15.8645, 23.0564, 38.2544, -28.6215, -29.9142
2.699, 2, 17.8816, 15.8645, 23.0564, 38.2544, -28.6215, -29.9142
2.704, 2, 17.8816, 15.8645, 23.0564, 38.2544, -28.6215, -29.9142
2.708, 2, 17.8816, 15.8645, 23.0564, 38.2544, -28.6215, -29.9142
2.712, 2, 17.8816, 15.8645, 23.0564, 38.2544, -28.6215, -29.9142
2.716, 2, 17.8816, 15.8645, 23.0564, 38.2544, -28.6215, -29.9142
2.719, 2, 17.8816, 15.8645, 23.0564, 38.2544, -28.6215, -29.9142
2.724, 2, 17.8816, 15.8645, 23.0564, 38.2544, -28.6215, -29.9142
2.728, 2, 17.8816, 15.8645, 23.0564, 38.2544, -28.6215, -29.9142
2.732, 2, 17.8816, 15.8645, 23.0564, 38.2544, -28.6215, -29.9142
2.735, 2, 17.8816, 15.8645, 23.0564, 38.2544, -28.6215, -29.9142
2.74, 2, 17.8816, 15.8645, 23.0564, 38.2544, -28.6215, -29.9142
2.744, 2, 17.8816, 15.8645, 23.0564, 38.2544, -28.6215, -29.9142
2.748, 2, 17.8816, 15.8645, 23.0564, 38.2544, -28.6215, -29.9142
2.752, 2, 17.8816, 15.8645, 23.0564, 38.2544, -28.6215, -29.9142
2.755, 2, 17.8816, 15.8645, 23.0564, 38.2544, -28.6215, -29.9142
2.76, 2, 17.8816, 15.8645, 23.0564, 38.2544, -28.6215, -29.9142
2.764, 2, 17.8816, 15.8645, 23.0564, 38.2544, -28.6215, -29.9142
2.768, 2, 17.8816, 15.8645, 23.0564, 38.2544, -28.6215, -29.9142
2.772, 2, 17.8816, 15.8645, 23.0564, 38.2544, -28.6215, -29.9142
2.775, 2, 17.8816, 15.8645, 23.0564, 38.2544, -28.6215, -29.9142
2.78, 2, 17.8816, 15.8645, 23.0564, 38.2544, -28.6215, -29.9142
2.784, 2, 17.8816, 15.8645, 23.0564, 38.2544, -28.6215, -29.9142
2.788, 2, 17.8816, 15.8645, 23.0564, 38.2544, -28.6215, -29.9142
2.791, 2, 17.8816, 15.8645, 23.0564, 38.2544, -28.6215, -29.9142
2.796, 2, 17.8816, 15.8645, 23.0564, 38.2544, -28.6215, -29.9142
2.8, 2, 17.8816, 15.8645, 23.0564, 38.2544, -28.6215, -29.9142
2.804, 2, 17.8816, 15.8645, 23.0564, 38.2544, -28.6215, -29.9142
2.808, 2, 17.8816, 15.8645, 23.0564, 38.2544, -28.6215, -29.9142
2.811, 2, 17.8816, 15.8645, 23.0564, 38.2544, -28.6215, -29.9142
2.816, 2, 17.8816, 15.8645, 23.0564, 38.2544, -28.6215, -29.9142
2.82, 2, 17.8816, 15.8645, 23.0564, 38.2544, -28.6215, -29.9142
2.824, 2, 17.8816, 15.8645, 23.0564, 38.2544, -28.6215, -29.9142
2.828, 2, 17.8816, 15.8645, 23.0564, 38.2544, -28.6215, -29.9142
2.831, 2, 17.8816, 15.8645, 23.0564, 38.2544, -28.6215, -29.9142
2.836, 2, 17.8816, 15.8645, 23.0564, 38.2544, -28.6215, -29.9142
2.84, 2, 17.8816, 15.8645, 23.0564, 38.2544, -28.6215, -29.9142
2.844, 2, 17.8816, 15.8645, 23.0564, 38.2544, -28.6215, -29.9142
2.847, 2, 17.8816, 15.8645, 23.0564, 38.2544, -28.6215, -29.9142
2.852, 2, 17.8816, 15.8645, 23.0564, 38.2544, -28.6215, -29.9142
2.856, 2, 17.8816, 15.8645, 23.0564, 38.2544, -28.6215, -29.9142
2.86, 2, 17.8816, 15.8645, 23.0564, 38.2544, -28.6215, -29.9142
2.864, 2, 17.8816, 15.8645, 23.0564, 38.2544, -28.6215, -29.9142
2.867, 2, 17.8816, 15.8645, 23.0564, 38.2544, -28.6215, -29.9142
2.872, 2, 17.8816, 15.8645, 23.0564, 38.2544, -28.6215, -29.9142
2.876, 2, 17.8816, 15.8645, 23.0564, 38.2544, -28.6215, -29.9142
2.88, 2, 17.8816, 15.8645, 23.0564, 38.2544, -28.6215, -29.9142
2.883, 2, 17.8816, 15.8645, 23.0564, 38.2544, -28.6215, -29.9142
2.888, 2, 17.8816, 15.8645, 23.0564, 38.2544, -28.6215, -29.9142
2.892, 2, 17.8816, 15.8645, 23.0564, 38.2544, -28.6215, -29.9142
2.896, 2, 17.8816, 15.8645, 23.0564, 38.2544, -28.6215, -29.9142
2.9, 2, 17.8816, 15.8645, 23.0564, 38.2544, -28.6215, -29.9142
2.903, 2, 17.8816, 15.8645, 23.0564, 38.2544, -28.6215, -29.9142
2.908, 2, 17.8816, 15.8645, 23.0564, 38.2544, -28.6215, -29.9142
2.912, 2, 17.8816, 15.8645, 23.0564, 38.2544, -28.6215, -29.9142
2.916, 2, 17.8816, 15.8645, 23.0564, 38.2544, -28.6215, -29.9142
2.92, 2, 17.8816, 15.8645, 23.0564, 38.2544, -28.6215, -29.9142
2.923, 2, 17.8816, 15.8645, 23.0564, 38.2544, -28.6215, -29.9142
2.928, 2, 17.8816, 15.8645, 23.0564, 38.2544, -28.6215, -29.9142
2.932, 2, 17.8816, 15.8645, 23.0564, 38.2544, -28.6215, -29.9142
2.936, 2, 17.8816, 15.8645, 23.0564, 38.2544, -28.6215, -29.9142
2.939, 2, 17.8816, 15.8645, 23.0564, 38.2544, -28.6215, -29.9142
2.944, 2, 17.8816, 15.8645, 23.0564, 38.2544, -28.6215, -29.9142
2.948, 2, 17.8816, 15.8645, 23.0564, 38.2544, -28.6215, -29.9142
2.952, 2, 17.8816, 15.8645, 23.0564, 38.2544, -28.6215, -29.9142
2.956, 2, 17.8816, 15.8645, 23.0564, 38.2544, -28.6215, -29.9142
2.959, 2, 17.8816, 15.8645, 23.0564, 38.2544, -28.6215, -29.9142
2.964, 2, 17.8816, 15.8645, 23.0564, 38.2544, -28.6215, -29.9142
2.968, 2, 17.8816, 15.8645, 23.0564, 38.2544, -28.6215, -29.9142
2.972, 2, 17.8816, 15.8645, 23.0564, 38.2544, -28.6215, -29.9142
2.976, 2, 17.8816, 15.8645, 23.0564, 38.2544, -28.6215, -29.9142
2.98, 2, 17.8816, 15.8645, 23.0564, 38.2544, -28.6215, -29.9142
2.984, 2, 17.8816, 15.8645, 23.0564, 38.2544, -28.6215, -29.9142
2.988, 2, 17.8816, 15.8645, 23.0564, 38.2544, -28.6215, -29.9142
2.992, 2, 17.8816, 15.8645, 23.0564, 38.2544, -28.6215, -29.9142
2.995, 2, 17.8816, 15.8645, 23.0564, 38.2544, -28.6215, -29.9142
3, 2, 17.8816, 15.8645, 23.0564, 38.2544, -28.6215, -29.9142
3.004, 2, 17.8816, 15.8645, 23.0564, 38.2544, -28.6215, -29.9142
3.008, 2, 17.8816, 15.8645, 23.0564, 38.2544, -28.6215, -29.9142
3.012, 2, 17.8816, 15.8645, 23.0564, 38.2544, -28.6215, -29.9142
3.015, 4, 17.8816, 15.8645, 23.0564, 38.2544, -28.6215, -29.9142
3.02, 4, 17.8816, 15.8645, 23.0564, 38.2544, -28.6215, -29.9142
3.024, 4, 17.8816, 15.8645, 23.0564, 38.2544, -28.6215, -29.9142
3.028, 4, 17.8816, 15.8645, 23.0564, 38.2544, -28.6215, -29.9142
3.031, 4, 17.8816, 15.8645, 23.0564, 38.2544, -28.6215, -29.9142
3.036, 4, 17.8816, 15.8645, 23.0564, 38.2544, -28.6215, -29.9142
3.04, 4, 17.8816, 15.8645, 23.0564, 38.2544, -28.6215, -29.9142
3.044, 4, 17.8816, 15.8645, 23.0564, 38.2544, -28.6215, -29.9142
3.048, 4, 17.8816, 15.8645, 23.0564, 38.2544, -28.6215, -29.9142
3.051, 4, 17.8816, 15.8645, 23.0564, 38.2544, -28.6215, -29.9142
3.056, 4, 17.8816, 15.8645, 23.0564, 38.2544, -28.6215, -29.9142
3.06, 4, 17.8816, 15.8645, 23.0564, 38.2544, -28.6215, -29.9142
3.064, 4, 17.8816, 15.8645, 23.0564, 38.2544, -28.6215, -29.9142
3.068, 4, 17.8816, 15.8645, 23.0564, 38.2544, -28.6215, -29.9142
3.071, 4, 17.8816, 15.8645, 23.0564, 38.2544, -28.6215, -29.9142
3.076, 4, 17.8816, 15.8645, 23.0564, 38.2544, -28.6215, -29.9142
3.08, 4, 17.8816, 15.8645, 23.0564, 38.2544, -28.6215, -29.9142
3.084, 4, 17.8816, 15.8645, 23.0564, 38.2544, -28.6215, -29.9142
3.087, 4, 17.8816, 15.8645, 23.0564, 38.2544, -28.6215, -29.9142
3.092, 4, 17.8816, 15.8645, 23.0564, 38.2544, -28.6215, -29.9142
3.096, 4, 17.8816, 15.8645, 23.0564, 38.2544, -28.6215, -29.9142
3.1, 4, 17.8816, 15.8645, 23.0564, 38.2544, -28.6215, -29.9142
3.104, 4, 17.8816, 15.8645, 23.0564, 38.2544, -28.6215, -29.9142
3.107, 4, 17.8816, 15.8645, 23.0564, 38.2544, -28.6215, -29.9142
3.112, 4, 17.8816, 15.8645, 23.0564, 38.2544, -28.6215, -29.9142
3.116, 4, 17.8816, 15.8645, 23.0564, 38.2544, -28.6215, -29.9142
3.122, 4, 17.8816, 15.8645, 23.0564, 38.2544, -28.6215, -29.9142
3.124, 4, 17.8816, 15.8645, 23.0564, 38.2544, -28.6215, -29.9142
3.128, 4, 17.8816, 15.8645, 23.0564, 38.2544, -28.6215, -29.9142
3.132, 4, 17.8816, 15.8645, 23.0564, 38.2544, -28.6215, -29.9142
3.136, 4, 17.8816, 15.8645, 23.0564, 38.2544, -28.6215, -29.9142
3.14, 4, 17.8816, 15.8645, 23.0564, 38.2544, -28.6215, -29.9142
3.143, 4, 17.8816, 15.8645, 23.0564, 38.2544, -28.6215, -29.9142
3.148, 4, 17.8816, 15.8646, 23.0564, 38.2544, -28.6215, -29.9142
3.152, 4, 17.8815, 15.8646, 23.0564, 38.2544, -28.6215, -29.9142
3.156, 4, 17.8813, 15.8647, 23.0563, 38.2543, -28.6215, -29.9142
3.16, 4, 17.8808, 15.8651, 23.0563, 38.2543, -28.6215, -29.9142
3.163, 4, 17.8799, 15.8658, 23.0561, 38.2541, -28.6216, -29.914
3.168, 4, 17.8784, 15.867, 23.0557, 38.2537, -28.6217, -29.9137
3.172, 4, 17.8763, 15.869, 23.0552, 38.2529, -28.622, -29.913
3.176, 4, 17.8734, 15.8717, 23.0543, 38.2514, -28.6225, -29.9118
3.179, 4, 17.8698, 15.8756, 23.053, 38.2488, -28.6234, -29.9096
3.184, 4, 17.8654, 15.8807, 23.0513, 38.2446, -28.6248, -29.9061
3.188, 5, 17.8602, 15.8872, 23.0489, 38.2383, -28.6268, -29.9008
3.192, 5, 17.8541, 15.8955, 23.0457, 38.2292, -28.6298, -29.8931
3.196, 5, 17.8471, 15.9056, 23.0416, 38.2168, -28.6339, -29.8825
3.199, 5, 17.8389, 15.9177, 23.0363, 38.2002, -28.6393, -29.8684
3.204, 5, 17.8297, 15.9317, 23.0298, 38.1786, -28.6464, -29.8502
3.208, 5, 17.8194, 15.9475, 23.022, 38.1515, -28.6553, -29.8271
3.212, 5, 17.808, 15.9649, 23.0127, 38.118, -28.6663, -29.7986
3.216, 5, 17.7958, 15.9837, 23.0018, 38.0778, -28.6795, -29.7643
3.22, 5, 17.7827, 16.004, 22.9893, 38.0302, -28.6952, -29.7238
3.224, 5, 17.7686, 16.0256, 22.9752, 37.9753, -28.7133, -29.677
3.228, 5, 17.7536, 16.0486, 22.9594, 37.913, -28.7339, -29.6239
3.232, 5, 17.7376, 16.0731, 22.942, 37.8435, -28.7568, -29.5647
3.235, 5, 17.7205, 16.0994, 22.923, 37.7673, -28.7821, -29.4997
3.24, 5, 17.7023, 16.1274, 22.9025, 37.6847, -28.8095, -29.4293
3.244, 5, 17.683, 16.1572, 22.8806, 37.5964, -28.8389, -29.3541
3.248, 5, 17.6627, 16.1888, 22.8575, 37.5031, -28.87, -29.2747
3.252, 5, 17.6415, 16.2222, 22.8333, 37.4055, -28.9026, -29.1916
3.255, 5, 17.6194, 16.2573, 22.8082, 37.3045, -28.9364, -29.1056
3.26, 5, 17.5963, 16.2941, 22.7822, 37.2006, -28.9713, -29.0172
3.264, 5, 17.5722, 16.3324, 22.7556, 37.0946, -29.007, -28.927
3.268, 5, 17.547, 16.372, 22.7285, 36.9871, -29.0434, -28.8356
3.272, 5, 17.5209, 16.4128, 22.7009, 36.8785, -29.0802, -28.7434
3.276, 5, 17.494, 16.4546, 22.6731, 36.7692, -29.1174, -28.6505
3.28, 5, 17.4664, 16.497, 22.645, 36.6595, -29.1548, -28.5574
3.284, 5, 17.4382, 16.5398, 22.6168, 36.5495, -29.1924, -28.4641
3.288, 5, 17.4097, 16.583, 22.5885, 36.4395, -29.2302, -28.3708
3.291, 5, 17.381, 16.6264, 22.5601, 36.3295, -29.2681, -28.2776
3.296, 5, 17.352, 16.6699, 22.5318, 36.2195, -29.3061, -28.1844
3.3, 5, 17.3229, 16.7134, 22.5035, 36.1097, -29.3442, -28.0913
3.304, 5, 17.2938, 16.757, 22.4751, 35.9999, -29.3824, -27.9984
3.308, 5, 17.2645, 16.8005, 22.4468, 35.8904, -29.4207, -27.9057
3.312, 5, 17.2351, 16.8441, 22.4186, 35.7809, -29.459, -27.8131
3.316, 5, 17.2057, 16.8876, 22.3903, 35.6717, -29.4974, -27.7207
3.32, 5, 17.1763, 16.9311, 22.3622, 35.5626, -29.5359, -27.6285
3.324, 5, 17.1467, 16.9745, 22.334, 35.4537, -29.5744, -27.5365
3.328, 5, 17.1172, 17.0179, 22.3059, 35.345, -29.6131, -27.4447
3.332, 5, 17.0875, 17.0612, 22.2778, 35.2365, -29.6517, -27.3531
3.336, 5, 17.0579, 17.1045, 22.2498, 35.1281, -29.6905, -27.2616
3.34, 5, 17.0282, 17.1478, 22.2218, 35.02, -29.7293, -27.1704
3.344, 5, 16.9985, 17.191, 22.1939, 34.912, -29.7681, -27.0793
3.347, 5, 16.9687, 17.2341, 22.166, 34.8042, -29.8071, -26.9884
3.352, 5, 16.9388, 17.2772, 22.1382, 34.6966, -29.8461, -26.8978
3.356, 5, 16.909, 17.3203, 22.1104, 34.5891, -29.8851, -26.8073
3.36, 5, 16.8791, 17.3633, 22.0826, 34.4819, -29.9243, -26.717
3.364, 5, 16.8491, 17.4062, 22.0549, 34.3748, -29.9634, -26.6269
3.368, 5, 16.8191, 17.4491, 22.0272, 34.268, -30.0027, -26.537
3.372, 5, 16.7891, 17.492, 21.9996, 34.1613, -30.042, -26.4472
3.376, 5, 16.759, 17.5348, 21.9721, 34.0547, -30.0814, -26.3577
3.38, 5, 16.7289, 17.5775, 21.9445, 33.9484, -30.1208, -26.2684
3.383, 5, 16.6988, 17.6202, 21.9171, 33.8422, -30.1603, -26.1792
3.388, 5, 16.6686, 17.6628, 21.8896, 33.7363, -30.1999, -26.0902
3.392, 5, 16.6384, 17.7054, 21.8622, 33.6305, -30.2395, -26.0014
3.396, 5, 16.6081, 17.748, 21.8349, 33.5249, -30.2792, -25.9129
3.4, 5, 16.5778, 17.7904, 21.8076, 33.4194, -30.319, -25.8244
3.403, 5, 16.5474, 17.8329, 21.7804, 33.3142, -30.3588, -25.7362
3.408, 5, 16.517, 17.8752, 21.7532, 33.2091, -30.3987, -25.6482
3.412, 5, 16.4866, 17.9176, 21.726, 33.1042, -30.4386, -25.5603
3.416, 5, 16.4562, 17.9598, 21.6989, 32.9995, -30.4786, -25.4727
3.42, 5, 16.4257, 18.0021, 21.6719, 32.895, -30.5187, -25.3852
3.424, 5, 16.3951, 18.0442, 21.6449, 32.7906, -30.5589, -25.2979
3.428, 5, 16.3645, 18.0863, 21.6179, 32.6865, -30.5991, -25.2108
3.432, 5, 16.3339, 18.1284, 21.591, 32.5825, -30.6393, -25.1239
3.436, 5, 16.3033, 18.1704, 21.5641, 32.4786, -30.6796, -25.0371
3.439, 5, 16.2726, 18.2124, 21.5373, 32.375, -30.72, -24.9506
3.444, 5, 16.2418, 18.2543, 21.5106, 32.2715, -30.7605, -24.8642
3.448, 5, 16.2111, 18.2961, 21.4839, 32.1683, -30.801, -24.778
3.452, 5, 16.1803, 18.3379, 21.4572, 32.0652, -30.8416, -24.692
3.456, 5, 16.1494, 18.3797, 21.4306, 31.9622, -30.8822, -24.6061
3.46, 5, 16.1185, 18.4214, 21.404, 31.8595, -30.923, -24.5205
3.464, 5, 16.0876, 18.463, 21.3775, 31.7569, -30.9637, -24.435
3.468, 5, 16.0567, 18.5046, 21.351, 31.6545, -31.0046, -24.3497
3.472, 5, 16.0257, 18.5461, 21.3246, 31.5523, -31.0455, -24.2646
3.476, 5, 15.9946, 18.5876, 21.2983, 31.4502, -31.0864, -24.1797
3.48, 5, 15.9636, 18.6291, 21.272, 31.3483, -31.1275, -24.095
3.484, 5, 15.9325, 18.6704, 21.2457, 31.2466, -31.1685, -24.0104
3.488, 5, 15.9013, 18.7118, 21.2195, 31.1451, -31.2097, -23.926
3.492, 5, 15.8702, 18.753, 21.1933, 31.0438, -31.2509, -23.8418
3.495, 5, 15.8389, 18.7942, 21.1672, 30.9426, -31.2922, -23.7578
3.5, 5, 15.8077, 18.8354, 21.1412, 30.8416, -31.3335, -23.6739
3.504, 5, 15.7764, 18.8765, 21.1152, 30.7408, -31.3749, -23.5902
3.508, 5, 15.7451, 18.9176, 21.0892, 30.6401, -31.4164, -23.5067
3.512, 5, 15.7137, 18.9586, 21.0633, 30.5396, -31.4579, -23.4234
3.516, 5, 15.6823, 18.9995, 21.0374, 30.4393, -31.4995, -23.3403
3.52, 5, 15.6509, 19.0405, 21.0116, 30.3392, -31.5412, -23.2573
3.524, 5, 15.6194, 19.0813, 20.9859, 30.2392, -31.5829, -23.1745
3.528, 5, 15.5879, 19.1221, 20.9602, 30.1394, -31.6247, -23.0919
3.531, 5, 15.5564, 19.1628, 20.9346, 30.0398, -31.6665, -23.0094
3.536, 5, 15.5248, 19.2035, 20.909, 29.9403, -31.7084, -22.9272
3.54, 5, 15.4932, 19.2442, 20.8834, 29.8411, -31.7504, -22.8451
3.544, 5, 15.4616, 19.2847, 20.8579, 29.7419, -31.7925, -22.7632
3.548, 5, 15.4299, 19.3253, 20.8325, 29.643, -31.8346, -22.6814
3.552, 5, 15.3982, 19.3658, 20.8071, 29.5442, -31.8767, -22.5998
3.556, 5, 15.3664, 19.4062, 20.7818, 29.4456, -31.9189, -22.5184
3.56, 5, 15.3347, 19.4465, 20.7565, 29.3472, -31.9612, -22.4372
3.564, 5, 15.3029, 19.4869, 20.7313, 29.2489, -32.0036, -22.3561
3.568, 5, 15.271, 19.5271, 20.7061, 29.1509, -32.046, -22.2752
3.572, 5, 15.2391, 19.5673, 20.681, 29.0529, -32.0885, -22.1945
3.576, 5, 15.2072, 19.6075, 20.6559, 28.9552, -32.131, -22.114
3.58, 5, 15.1753, 19.6476, 20.6309, 28.8576, -32.1736, -22.0336
3.584, 5, 15.1433, 19.6877, 20.606, 28.7602, -32.2163, -21.9534
3.587, 5, 15.1112, 19.7276, 20.5811, 28.6629, -32.259, -21.8734
3.592, 5, 15.0792, 19.7676, 20.5562, 28.5658, -32.3018, -21.7935
3.596, 5, 15.0471, 19.8075, 20.5314, 28.4689, -32.3446, -21.7138
3.6, 5, 15.015, 19.8473, 20.5067, 28.3722, -32.3875, -21.6343
3.604, 5, 14.9828, 19.8871, 20.482, 28.2756, -32.4305, -21.5549
3.608, 5, 14.9506, 19.9268, 20.4574, 28.1792, -32.4735, -21.4757
3.612, 5, 14.9184, 19.9665, 20.4328, 28.0829, -32.5166, -21.3967
3.616, 5, 14.8862, 20.0061, 20.4083, 27.9868, -32.5598, -21.3179
3.62, 5, 14.8539, 20.0457, 20.3838, 27.8909, -32.603, -21.2392
3.624, 5, 14.8216, 20.0852, 20.3594, 27.7952, -32.6463, -21.1607
3.628, 5, 14.7892, 20.1247, 20.335, 27.6996, -32.6896, -21.0823
3.632, 5, 14.7568, 20.1641, 20.3107, 27.6041, -32.7331, -21.0041
3.636, 5, 14.7244, 20.2035, 20.2865, 27.5089, -32.7765, -20.9261
3.64, 5, 14.692, 20.2428, 20.2623, 27.4138, -32.8201, -20.8482
3.644, 5, 14.6595, 20.282, 20.2381, 27.3188, -32.8637, -20.7705
3.648, 5, 14.627, 20.3212, 20.214, 27.2241, -32.9073, -20.693
3.652, 5, 14.5944, 20.3604, 20.19, 27.1295, -32.951, -20.6156
3.656, 5, 14.5619, 20.3995, 20.166, 27.035, -32.9948, -20.5384
3.66, 5, 14.5293, 20.4385, 20.1421, 26.9407, -33.0386, -20.4614
3.664, 5, 14.4966, 20.4775, 20.1182, 26.8466, -33.0825, -20.3845
3.668, 5, 14.4639, 20.5164, 20.0944, 26.7526, -33.1265, -20.3078
3.672, 5, 14.4312, 20.5553, 20.0707, 26.6588, -33.1705, -20.2313
3.676, 5, 14.3985, 20.5942, 20.047, 26.5652, -33.2146, -20.1549
3.679, 5, 14.3657, 20.6329, 20.0233, 26.4717, -33.2588, -20.0786
3.684, 5, 14.3329, 20.6716, 19.9997, 26.3784, -33.303, -20.0026
3.688, 5, 14.3001, 20.7103, 19.9762, 26.2853, -33.3472, -19.9267
3.692, 5, 14.2672, 20.7489, 19.9527, 26.1923, -33.3916, -19.8509
3.696, 5, 14.2343, 20.7875, 19.9293, 26.0994, -33.436, -19.7753
3.7, 5, 14.2014, 20.826, 19.9059, 26.0067, -33.4804, -19.6999
3.704, 5, 14.1685, 20.8645, 19.8826, 25.9142, -33.5249, -19.6246
3.708, 5, 14.1355, 20.9029, 19.8593, 25.8219, -33.5695, -19.5495
3.712, 5, 14.1025, 20.9412, 19.8361, 25.7297, -33.6142, -19.4746
3.716, 5, 14.0694, 20.9795, 19.813, 25.6376, -33.6589, -19.3998
3.72, 5, 14.0363, 21.0178, 19.7899, 25.5457, -33.7036, -19.3252
3.724, 5, 14.0032, 21.056, 19.7669, 25.454, -33.7484, -19.2507
3.728, 5, 13.9701, 21.0941, 19.7439, 25.3624, -33.7933, -19.1764
3.732, 5, 13.9369, 21.1322, 19.721, 25.271, -33.8383, -19.1022
3.735, 5, 13.9037, 21.1702, 19.6981, 25.1797, -33.8833, -19.0282
3.74, 5, 13.8705, 21.2082, 19.6753, 25.0886, -33.9283, -18.9544
3.744, 5, 13.8372, 21.2462, 19.6525, 24.9977, -33.9735, -18.8807
3.748, 5, 13.8039, 21.284, 19.6298, 24.9069, -34.0187, -18.8071
3.752, 5, 13.7706, 21.3219, 19.6072, 24.8163, -34.0639, -18.7338
3.756, 5, 13.7373, 21.3596, 19.5846, 24.7258, -34.1092, -18.6605
3.76, 5, 13.7039, 21.3973, 19.5621, 24.6355, -34.1546, -18.5875
3.764, 5, 13.6705, 21.435, 19.5396, 24.5453, -34.2001, -18.5145
3.768, 5, 13.637, 21.4726, 19.5172, 24.4553, -34.2456, -18.4418
3.772, 5, 13.6036, 21.5102, 19.4949, 24.3654, -34.2911, -18.3692
3.776, 5, 13.5701, 21.5477, 19.4726, 24.2757, -34.3368, -18.2967
3.78, 5, 13.5366, 21.5852, 19.4504, 24.1861, -34.3824, -18.2244
3.784, 5, 13.503, 21.6226, 19.4282, 24.0967, -34.4282, -18.1522
3.788, 5, 13.4694, 21.6599, 19.4061, 24.0075, -34.474, -18.0802
3.792, 5, 13.4358, 21.6972, 19.384, 23.9184, -34.5199, -18.0084
3.796, 5, 13.4022, 21.7344, 19.362, 23.8295, -34.5658, -17.9367
3.8, 5, 13.3685, 21.7716, 19.3401, 23.7407, -34.6118, -17.8652
3.804, 5, 13.3348, 21.8088, 19.3182, 23.652, -34.6579, -17.7938
3.808, 5, 13.3011, 21.8458, 19.2964, 23.5636, -34.704, -17.7225
3.812, 5, 13.2673, 21.8829, 19.2746, 23.4752, -34.7502, -17.6514
3.816, 5, 13.2335, 21.9198, 19.2529, 23.387, -34.7964, -17.5805
3.82, 5, 13.1997, 21.9568, 19.2313, 23.299, -34.8427, -17.5097
3.824, 5, 13.1659, 21.9936, 19.2097, 23.2111, -34.8891, -17.4391
3.828, 5, 13.132, 22.0305, 19.1882, 23.1234, -34.9355, -17.3686
3.832, 5, 13.0981, 22.0672, 19.1667, 23.0358, -34.982, -17.2982
3.836, 5, 13.0642, 22.1039, 19.1453, 22.9484, -35.0286, -17.2281
3.84, 5, 13.0302, 22.1406, 19.1239, 22.8611, -35.0752, -17.158
3.844, 5, 12.9962, 22.1772, 19.1027, 22.774, -35.1218, -17.0881
3.848, 5, 12.9622, 22.2137, 19.0814, 22.6871, -35.1686, -17.0184
3.852, 5, 12.9282, 22.2502, 19.0603, 22.6002, -35.2154, -16.9488
3.856, 5, 12.8941, 22.2867, 19.0392, 22.5136, -35.2622, -16.8793
3.86, 5, 12.8601, 22.3231, 19.0181, 22.427, -35.3092, -16.81
3.864, 5, 12.8259, 22.3594, 18.9972, 22.3407, -35.3562, -16.7409
3.868, 5, 12.7918, 22.3957, 18.9762, 22.2544, -35.4032, -16.6719
3.872, 5, 12.7576, 22.4319, 18.9554, 22.1684, -35.4503, -16.603
3.876, 5, 12.7234, 22.4681, 18.9346, 22.0824, -35.4975, -16.5343
3.88, 5, 12.6892, 22.5042, 18.9139, 21.9967, -35.5447, -16.4657
3.884, 5, 12.655, 22.5403, 18.8932, 21.911, -35.592, -16.3973
3.888, 5, 12.6207, 22.5763, 18.8726, 21.8256, -35.6394, -16.329
3.892, 5, 12.5864, 22.6122, 18.852, 21.7402, -35.6868, -16.2609
3.896, 5, 12.5521, 22.6481, 18.8316, 21.655, -35.7343, -16.1929
3.9, 5, 12.5177, 22.684, 18.8111, 21.57, -35.7818, -16.125
3.904, 5, 12.4833, 22.7198, 18.7908, 21.4851, -35.8294, -16.0573
3.908, 5, 12.4489, 22.7555, 18.7705, 21.4003, -35.8771, -15.9898
3.912, 5, 12.4145, 22.7912, 18.7503, 21.3158, -35.9248, -15.9224
3.916, 5, 12.3801, 22.8269, 18.7301, 21.2313, -35.9726, -15.8551
3.92, 5, 12.3456, 22.8624, 18.71, 21.147, -36.0204, -15.788
3.924, 5, 12.3111, 22.898, 18.6899, 21.0628, -36.0683, -15.721
3.928, 5, 12.2765, 22.9334, 18.6699, 20.9788, -36.1163, -15.6542
3.932, 5, 12.242, 22.9689, 18.65, 20.8949, -36.1643, -15.5875
3.936, 5, 12.2074, 23.0042, 18.6302, 20.8112, -36.2124, -15.5209
3.94, 5, 12.1728, 23.0395, 18.6104, 20.7276, -36.2606, -15.4545
3.944, 5, 12.1382, 23.0748, 18.5906, 20.6442, -36.3088, -15.3882
3.948, 5, 12.1035, 23.11, 18.571, 20.5609, -36.3571, -15.3221
3.952, 5, 12.0688, 23.1452, 18.5514, 20.4778, -36.4054, -15.2561
3.956, 5, 12.0341, 23.1803, 18.5318, 20.3948, -36.4538, -15.1903
3.96, 5, 11.9994, 23.2153, 18.5124, 20.3119, -36.5023, -15.1246
3.964, 5, 11.9646, 23.2503, 18.4929, 20.2292, -36.5508, -15.059
3.968, 5, 11.9299, 23.2852, 18.4736, 20.1466, -36.5994, -14.9936
3.972, 5, 11.8951, 23.3201, 18.4543, 20.0642, -36.648, -14.9283
3.976, 5, 11.8602, 23.3549, 18.4351, 19.9819, -36.6967, -14.8631
3.98, 5, 11.8254, 23.3897, 18.4159, 19.8998, -36.7455, -14.7981
3.984, 5, 11.7905, 23.4244, 18.3968, 19.8178, -36.7943, -14.7333
3.988, 5, 11.7556, 23.4591, 18.3778, 19.7359, -36.8432, -14.6685
3.992, 5, 11.7207, 23.4937, 18.3588, 19.6542, -36.8921, -14.6039
3.996, 5, 11.6858, 23.5283, 18.3399, 19.5727, -36.9412, -14.5395
3.999, 5, 11.6508, 23.5628, 18.3211, 19.4912, -36.9902, -14.4752
4.004, 5, 11.6158, 23.5972, 18.3023, 19.41, -37.0394, -14.411
4.008, 5, 11.5808, 23.6316, 18.2836, 19.3288, -37.0886, -14.3469
4.012, 5, 11.5457, 23.666, 18.265, 19.2478, -37.1378, -14.283
4.016, 5, 11.5107, 23.7003, 18.2464, 19.1669, -37.1871, -14.2193
4.02, 5, 11.4756, 23.7345, 18.2279, 19.0862, -37.2365, -14.1556
4.024, 5, 11.4405, 23.7687, 18.2095, 19.0056, -37.2859, -14.0922
4.028, 5, 11.4053, 23.8028, 18.1911, 18.9252, -37.3354, -14.0288
4.032, 5, 11.3702, 23.8369, 18.1728, 18.8449, -37.385, -13.9656
4.036, 5, 11.335, 23.8709, 18.1545, 18.7647, -37.4346, -13.9025
4.04, 5, 11.2998, 23.9049, 18.1363, 18.6847, -37.4843, -13.8395
4.044, 5, 11.2646, 23.9388, 18.1182, 18.6048, -37.534, -13.7767
4.048, 5, 11.2293, 23.9727, 18.1001, 18.5251, -37.5838, -13.714
4.052, 5, 11.1941, 24.0065, 18.0821, 18.4455, -37.6337, -13.6515
4.056, 5, 11.1588, 24.0402, 18.0642, 18.366, -37.6836, -13.5891
4.06, 5, 11.1235, 24.0739, 18.0464, 18.2867, -37.7336, -13.5268
4.064, 5, 11.0881, 24.1076, 18.0286, 18.2075, -37.7837, -13.4647
4.068, 5, 11.0528, 24.1412, 18.0108, 18.1285, -37.8338, -13.4027
4.072, 5, 11.0174, 24.1747, 17.9932, 18.0496, -37.8839, -13.3408
4.076, 5, 10.982, 24.2082, 17.9756, 17.9708, -37.9342, -13.279
4.08, 5, 10.9466, 24.2416, 17.958, 17.8922, -37.9844, -13.2174
4.084, 5, 10.9111, 24.275, 17.9406, 17.8137, -38.0348, -13.156
4.088, 5, 10.8757, 24.3084, 17.9232, 17.7353, -38.0852, -13.0946
4.092, 5, 10.8402, 24.3416, 17.9058, 17.6571, -38.1357, -13.0334
4.096, 5, 10.8047, 24.3748, 17.8886, 17.579, -38.1862, -12.9723
4.1, 5, 10.7691, 24.408, 17.8714, 17.5011, -38.2368, -12.9114
4.104, 5, 10.7336, 24.4411, 17.8542, 17.4233, -38.2874, -12.8505
4.108, 5, 10.698, 24.4742, 17.8372, 17.3456, -38.3381, -12.7899
4.112, 5, 10.6624, 24.5072, 17.8202, 17.268, -38.3889, -12.7293
4.116, 5, 10.6268, 24.5401, 17.8032, 17.1906, -38.4397, -12.6689
4.12, 5, 10.5912, 24.573, 17.7863, 17.1134, -38.4906, -12.6086
4.124, 5, 10.5555, 24.6059, 17.7695, 17.0362, -38.5416, -12.5484
4.128, 5, 10.5198, 24.6387, 17.7528, 16.9592, -38.5926, -12.4884
4.132, 5, 10.4841, 24.6714, 17.7361, 16.8824, -38.6436, -12.4285
4.136, 5, 10.4484, 24.7041, 17.7195, 16.8056, -38.6948, -12.3687
4.14, 5, 10.4127, 24.7367, 17.703, 16.7291, -38.7459, -12.309
4.144, 5, 10.3769, 24.7693, 17.6865, 16.6526, -38.7972, -12.2495
4.148, 5, 10.3411, 24.8018, 17.6701, 16.5763, -38.8485, -12.1901
4.152, 5, 10.3053, 24.8343, 17.6538, 16.5001, -38.8999, -12.1309
4.156, 5, 10.2695, 24.8667, 17.6375, 16.424, -38.9513, -12.0717
4.16, 5, 10.2336, 24.8991, 17.6213, 16.3481, -39.0028, -12.0127
4.164, 5, 10.1978, 24.9314, 17.6051, 16.2723, -39.0543, -11.9539
4.168, 5, 10.1619, 24.9636, 17.5891, 16.1967, -39.1059, -11.8951
4.172, 5, 10.126, 24.9958, 17.5731, 16.1211, -39.1576, -11.8365
4.176, 5, 10.0901, 25.028, 17.5571, 16.0457, -39.2093, -11.778
4.18, 5, 10.0541, 25.0601, 17.5413, 15.9705, -39.2611, -11.7196
4.184, 5, 10.0181, 25.0921, 17.5254, 15.8953, -39.313, -11.6614
4.188, 5, 9.98215, 25.1241, 17.5097, 15.8204, -39.3649, -11.6033
4.192, 5, 9.94615, 25.156, 17.494, 15.7455, -39.4169, -11.5453
4.196, 5, 9.91012, 25.1879, 17.4784, 15.6708, -39.4689, -11.4874
4.2, 5, 9.87407, 25.2198, 17.4629, 15.5962, -39.521, -11.4297
4.204, 5, 9.83801, 25.2515, 17.4475, 15.5217, -39.5732, -11.3721
4.208, 5, 9.80192, 25.2833, 17.4321, 15.4473, -39.6254, -11.3146
4.212, 5, 9.76581, 25.3149, 17.4167, 15.3731, -39.6777, -11.2572
4.216, 5, 9.72969, 25.3466, 17.4015, 15.2991, -39.73, -11.2
4.22, 5, 9.69354, 25.3781, 17.3863, 15.2251, -39.7824, -11.1429
4.224, 5, 9.65738, 25.4096, 17.3712, 15.1513, -39.8349, -11.0859
4.228, 5, 9.62119, 25.4411, 17.3561, 15.0776, -39.8874, -11.029
4.232, 5, 9.58499, 25.4725, 17.3411, 15.004, -39.94, -10.9723
4.236, 5, 9.54877, 25.5038, 17.3262, 14.9306, -39.9926, -10.9156
4.24, 5, 9.51253, 25.5351, 17.3114, 14.8573, -40.0453, -10.8591
4.244, 5, 9.47627, 25.5664, 17.2966, 14.7841, -40.0981, -10.8028
4.248, 5, 9.43999, 25.5976, 17.2819, 14.7111, -40.1509, -10.7465
4.252, 5, 9.40369, 25.6287, 17.2672, 14.6382, -40.2038, -10.6904
4.256, 5, 9.36738, 25.6598, 17.2527, 14.5654, -40.2567, -10.6344
4.26, 5, 9.33104, 25.6908, 17.2382, 14.4927, -40.3097, -10.5785
4.264, 5, 9.29469, 25.7218, 17.2237, 14.4202, -40.3628, -10.5227
4.268, 5, 9.25832, 25.7527, 17.2094, 14.3478, -40.4159, -10.4671
4.272, 5, 9.22193, 25.7836, 17.1951, 14.2755, -40.4691, -10.4115
4.276, 5, 9.18553, 25.8144, 17.1809, 14.2034, -40.5224, -10.3561
4.28, 5, 9.1491, 25.8452, 17.1667, 14.1313, -40.5757, -10.3009
4.284, 5, 9.11266, 25.8759, 17.1526, 14.0594, -40.629, -10.2457
4.288, 5, 9.0762, 25.9065, 17.1386, 13.9877, -40.6824, -10.1906
4.292, 5, 9.03972, 25.9372, 17.1247, 13.916, -40.7359, -10.1357
4.296, 5, 9.00323, 25.9677, 17.1108, 13.8445, -40.7895, -10.0809
4.3, 5, 8.96672, 25.9982, 17.097, 13.7731, -40.8431, -10.0262
4.304, 5, 8.93019, 26.0286, 17.0833, 13.7018, -40.8967, -9.97167
4.308, 5, 8.89364, 26.059, 17.0696, 13.6307, -40.9505, -9.91722
4.312, 5, 8.85708, 26.0894, 17.056, 13.5597, -41.0043, -9.86289
4.316, 5, 8.8205, 26.1197, 17.0425, 13.4888, -41.0581, -9.80868
4.32, 5, 8.7839, 26.1499, 17.0291, 13.418, -41.112, -9.75458
4.324, 5, 8.74729, 26.1801, 17.0157, 13.3474, -41.166, -9.70061
4.328, 5, 8.71066, 26.2102, 17.0024, 13.2769, -41.22, -9.64675
4.332, 5, 8.67401, 26.2403, 16.9891, 13.2065, -41.2741, -9.59301
4.336, 5, 8.63735, 26.2703, 16.976, 13.1362, -41.3282, -9.53939
4.34, 5, 8.60067, 26.3003, 16.9629, 13.066, -41.3824, -9.48588
4.344, 5, 8.56397, 26.3302, 16.9498, 12.996, -41.4367, -9.43249
4.348, 5, 8.52726, 26.36, 16.9369, 12.9261, -41.491, -9.37922
4.352, 5, 8.49053, 26.3898, 16.924, 12.8563, -41.5454, -9.32606
4.356, 5, 8.45378, 26.4196, 16.9112, 12.7867, -41.5998, -9.27302
4.36, 5, 8.41702, 26.4493, 16.8985, 12.7172, -41.6543, -9.2201
4.364, 5, 8.38025, 26.479, 16.8858, 12.6477, -41.7089, -9.16729
4.368, 5, 8.34345, 26.5085, 16.8732, 12.5785, -41.7635, -9.1146
4.372, 5, 8.30664, 26.5381, 16.8607, 12.5093, -41.8182, -9.06202
4.376, 5, 8.26982, 26.5676, 16.8482, 12.4402, -41.8729, -9.00956
4.38, 5, 8.23298, 26.597, 16.8358, 12.3713, -41.9277, -8.95721
4.384, 5, 8.19613, 26.6264, 16.8235, 12.3025, -41.9826, -8.90497
4.388, 5, 8.15926, 26.6557, 16.8113, 12.2338, -42.0375, -8.85286
4.392, 5, 8.12237, 26.685, 16.7991, 12.1653, -42.0924, -8.80085
4.396, 5, 8.08547, 26.7142, 16.787, 12.0969, -42.1475, -8.74896
4.4, 5, 8.04856, 26.7434, 16.775, 12.0285, -42.2026, -8.69718
4.404, 5, 8.01163, 26.7725, 16.763, 11.9603, -42.2577, -8.64552
4.408, 5, 7.97468, 26.8016, 16.7512, 11.8923, -42.3129, -8.59397
4.412, 5, 7.93773, 26.8306, 16.7393, 11.8243, -42.3682, -8.54253
4.416, 5, 7.90075, 26.8596, 16.7276, 11.7565, -42.4235, -8.49121
4.42, 5, 7.86376, 26.8885, 16.7159, 11.6888, -42.4789, -8.44
4.424, 5, 7.82676, 26.9173, 16.7044, 11.6212, -42.5343, -8.3889
4.428, 5, 7.78974, 26.9461, 16.6928, 11.5537, -42.5899, -8.33791
4.432, 5, 7.75271, 26.9749, 16.6814, 11.4864, -42.6454, -8.28704
4.436, 5, 7.71566, 27.0036, 16.67, 11.4191, -42.701, -8.23628
4.44, 5, 7.6786, 27.0322, 16.6587, 11.352, -42.7567, -8.18563
4.444, 5, 7.64153, 27.0608, 16.6475, 11.285, -42.8124, -8.13509
4.448, 5, 7.60444, 27.0893, 16.6363, 11.2181, -42.8682, -8.08467
4.452, 5, 7.56733, 27.1178, 16.6252, 11.1514, -42.9241, -8.03435
4.456, 5, 7.53022, 27.1462, 16.6142, 11.0847, -42.98, -7.98415
4.46, 5, 7.49309, 27.1746, 16.6033, 11.0182, -43.036, -7.93405
4.464, 5, 7.45594, 27.2029, 16.5924, 10.9518, -43.092, -7.88407
4.468, 5, 7.41878, 27.2312, 16.5816, 10.8855, -43.1481, -7.8342
4.472, 5, 7.38161, 27.2594, 16.5709, 10.8194, -43.2043, -7.78444
4.476, 5, 7.34443, 27.2876, 16.5603, 10.7533, -43.2605, -7.73479
4.48, 5, 7.30723, 27.3157, 16.5497, 10.6874, -43.3167, -7.68525
4.484, 5, 7.27002, 27.3438, 16.5392, 10.6216, -43.3731, -7.63582
4.488, 5, 7.23279, 27.3718, 16.5288, 10.5559, -43.4294, -7.58649
4.492, 5, 7.19555, 27.3997, 16.5184, 10.4903, -43.4859, -7.53728
4.496, 5, 7.1583, 27.4276, 16.5081, 10.4248, -43.5424, -7.48818
4.5, 5, 7.12104, 27.4555, 16.4979, 10.3595, -43.5989, -7.43919
4.504, 5, 7.08376, 27.4832, 16.4878, 10.2942, -43.6555, -7.3903
4.508, 5, 7.04647, 27.511, 16.4777, 10.2291, -43.7122, -7.34153
4.512, 5, 7.00916, 27.5387, 16.4678, 10.1641, -43.7689, -7.29286
4.516, 5, 6.97185, 27.5663, 16.4578, 10.0992, -43.8257, -7.2443
4.52, 5, 6.93452, 27.5939, 16.448, 10.0345, -43.8826, -7.19585
4.524, 5, 6.89718, 27.6214, 16.4382, 9.96982, -43.9395, -7.14751
4.528, 5, 6.85982, 27.6489, 16.4285, 9.90529, -43.9965, -7.09927
4.532, 5, 6.82246, 27.6763, 16.4189, 9.84087, -44.0535, -7.05115
4.536, 5, 6.78508, 27.7037, 16.4094, 9.77657, -44.1106, -7.00313
4.54, 5, 6.74769, 27.731, 16.3999, 9.71238, -44.1677, -6.95521
4.544, 5, 6.71029, 27.7583, 16.3905, 9.64831, -44.2249, -6.90741
4.548, 5, 6.67287, 27.7855, 16.3812, 9.58435, -44.2821, -6.85971
4.552, 5, 6.63544, 27.8127, 16.372, 9.5205, -44.3395, -6.81212
4.556, 5, 6.598, 27.8398, 16.3628, 9.45677, -44.3968, -6.76464
4.56, 5, 6.56055, 27.8668, 16.3537, 9.39316, -44.4542, -6.71726
4.564, 5, 6.52309, 27.8938, 16.3447, 9.32966, -44.5117, -6.66999
4.568, 5, 6.48561, 27.9208, 16.3357, 9.26627, -44.5693, -6.62283
4.572, 5, 6.44812, 27.9477, 16.3268, 9.203, -44.6269, -6.57577
4.576, 5, 6.41063, 27.9745, 16.318, 9.13984, -44.6845, -6.52882
4.58, 5, 6.37311, 28.0013, 16.3093, 9.0768, -44.7423, -6.48197
4.584, 5, 6.33559, 28.028, 16.3006, 9.01387, -44.8, -6.43523
4.588, 5, 6.29806, 28.0547, 16.2921, 8.95105, -44.8579, -6.38859
4.592, 5, 6.26051, 28.0814, 16.2836, 8.88835, -44.9157, -6.34206
4.596, 5, 6.22296, 28.1079, 16.2751, 8.82576, -44.9737, -6.29564
4.6, 5, 6.18539, 28.1345, 16.2668, 8.76328, -45.0317, -6.24932
4.604, 5, 6.14781, 28.1609, 16.2585, 8.70091, -45.0898, -6.2031
4.608, 5, 6.11022, 28.1874, 16.2503, 8.63866, -45.1479, -6.15699
4.612, 5, 6.07262, 28.2137, 16.2422, 8.57652, -45.2061, -6.11099
4.616, 5, 6.03501, 28.24, 16.2341, 8.51449, -45.2643, -6.06509
4.62, 5, 5.99738, 28.2663, 16.2261, 8.45258, -45.3226, -6.01929
4.624, 5, 5.95975, 28.2925, 16.2182, 8.39078, -45.3809, -5.9736
4.628, 5, 5.9221, 28.3187, 16.2104, 8.32909, -45.4393, -5.92801
4.632, 5, 5.88445, 28.3448, 16.2026, 8.26751, -45.4978, -5.88252
4.636, 5, 5.84678, 28.3708, 16.195, 8.20604, -45.5563, -5.83714
4.64, 5, 5.8091, 28.3968, 16.1874, 8.14469, -45.6149, -5.79186
4.644, 5, 5.77141, 28.4228, 16.1798, 8.08344, -45.6735, -5.74669
4.648, 5, 5.73371, 28.4487, 16.1724, 8.02231, -45.7322, -5.70162
4.652, 5, 5.696, 28.4745, 16.165, 7.96129, -45.791, -5.65665
4.656, 5, 5.65828, 28.5003, 16.1577, 7.90038, -45.8498, -5.61178
4.66, 5, 5.62055, 28.526, 16.1505, 7.83958, -45.9087, -5.56702
4.664, 5, 5.58281, 28.5517, 16.1433, 7.77889, -45.9676, -5.52236
4.668, 5, 5.54506, 28.5774, 16.1362, 7.71831, -46.0266, -5.4778
4.672, 5, 5.5073, 28.6029, 16.1292, 7.65785, -46.0856, -5.43334
4.676, 5, 5.46952, 28.6285, 16.1223, 7.59749, -46.1447, -5.38899
4.68, 5, 5.43174, 28.6539, 16.1155, 7.53724, -46.2039, -5.34473
4.684, 5, 5.39395, 28.6794, 16.1087, 7.4771, -46.2631, -5.30058
4.688, 5, 5.35615, 28.7047, 16.102, 7.41707, -46.3223, -5.25653
4.692, 5, 5.31834, 28.73, 16.0954, 7.35715, -46.3817, -5.21258
4.696, 5, 5.28052, 28.7553, 16.0888, 7.29733, -46.4411, -5.16873
4.7, 5, 5.24269, 28.7805, 16.0823, 7.23763, -46.5005, -5.12498
4.704, 5, 5.20485, 28.8057, 16.076, 7.17803, -46.56, -5.08133
4.708, 5, 5.167, 28.8308, 16.0696, 7.11855, -46.6196, -5.03778
4.712, 5, 5.12914, 28.8558, 16.0634, 7.05917, -46.6792, -4.99433
4.716, 5, 5.09127, 28.8809, 16.0572, 6.99989, -46.7388, -4.95098
4.72, 5, 5.05339, 28.9058, 16.0511, 6.94073, -46.7986, -4.90772
4.724, 5, 5.0155, 28.9307, 16.0451, 6.88167, -46.8584, -4.86457
4.728, 5, 4.9776, 28.9556, 16.0392, 6.82271, -46.9182, -4.82152
4.732, 5, 4.9397, 28.9803, 16.0333, 6.76387, -46.9781, -4.77856
4.736, 5, 4.90178, 29.0051, 16.0276, 6.70513, -47.0381, -4.7357
4.74, 5, 4.86386, 29.0298, 16.0219, 6.6465, -47.0981, -4.69294
4.744, 5, 4.82593, 29.0544, 16.0162, 6.58797, -47.1582, -4.65028
4.748, 5, 4.78798, 29.079, 16.0107, 6.52955, -47.2183, -4.60772
4.752, 5, 4.75003, 29.1035, 16.0052, 6.47123, -47.2785, -4.56525
4.756, 5, 4.71207, 29.128, 15.9998, 6.41302, -47.3387, -4.52288
4.76, 5, 4.67411, 29.1525, 15.9945, 6.35491, -47.399, -4.48061
4.764, 5, 4.63613, 29.1768, 15.9892, 6.29691, -47.4594, -4.43844
4.768, 5, 4.59815, 29.2012, 15.984, 6.23902, -47.5198, -4.39636
4.772, 5, 4.56015, 29.2255, 15.9789, 6.18123, -47.5803, -4.35438
4.776, 5, 4.52215, 29.2497, 15.9739, 6.12354, -47.6408, -4.31249
4.78, 5, 4.48414, 29.2739, 15.969, 6.06596, -47.7014, -4.2707
4.784, 5, 4.44613, 29.298, 15.9641, 6.00848, -47.762, -4.22901
4.788, 5, 4.4081, 29.322, 15.9593, 5.9511, -47.8227, -4.18741
4.792, 5, 4.37007, 29.3461, 15.9546, 5.89383, -47.8835, -4.14591
4.796, 5, 4.33203, 29.37, 15.95, 5.83666, -47.9443, -4.1045
4.8, 5, 4.29398, 29.3939, 15.9454, 5.7796, -48.0052, -4.06319
4.804, 5, 4.25592, 29.4178, 15.9409, 5.72264, -48.0661, -4.02198
4.808, 5, 4.21786, 29.4416, 15.9365, 5.66578, -48.1271, -3.98086
4.812, 5, 4.17979, 29.4654, 15.9322, 5.60902, -48.1881, -3.93983
4.816, 5, 4.14171, 29.4891, 15.928, 5.55237, -48.2492, -3.8989
4.82, 5, 4.10362, 29.5128, 15.9238, 5.49582, -48.3103, -3.85806
4.824, 5, 4.06553, 29.5364, 15.9197, 5.43937, -48.3715, -3.81732
4.828, 5, 4.02743, 29.5599, 15.9157, 5.38302, -48.4328, -3.77667
4.832, 5, 3.98933, 29.5834, 15.9117, 5.32678, -48.4941, -3.73611
4.836, 5, 3.95121, 29.6069, 15.9078, 5.27063, -48.5555, -3.69565
4.84, 5, 3.91309, 29.6303, 15.904, 5.21459, -48.6169, -3.65529
4.844, 5, 3.87496, 29.6536, 15.9003, 5.15865, -48.6784, -3.61501
4.848, 5, 3.83683, 29.6769, 15.8967, 5.10281, -48.7399, -3.57483
4.852, 5, 3.79869, 29.7002, 15.8931, 5.04707, -48.8015, -3.53474
4.856, 5, 3.76054, 29.7234, 15.8897, 4.99143, -48.8632, -3.49475
4.86, 5, 3.72239, 29.7465, 15.8862, 4.93589, -48.9249, -3.45485
4.864, 5, 3.68423, 29.7696, 15.8829, 4.88046, -48.9866, -3.41504
4.868, 5, 3.64606, 29.7927, 15.8797, 4.82512, -49.0484, -3.37532
4.872, 5, 3.60789, 29.8157, 15.8765, 4.76988, -49.1103, -3.33569
4.876, 5, 3.56971, 29.8386, 15.8734, 4.71475, -49.1722, -3.29616
4.88, 5, 3.53153, 29.8615, 15.8704, 4.65971, -49.2342, -3.25672
4.884, 5, 3.49334, 29.8844, 15.8674, 4.60477, -49.2962, -3.21737
4.888, 5, 3.45514, 29.9072, 15.8646, 4.54994, -49.3583, -3.17811
4.892, 5, 3.41694, 29.9299, 15.8618, 4.4952, -49.4205, -3.13895
4.896, 5, 3.37873, 29.9526, 15.8591, 4.44056, -49.4827, -3.09987
4.9, 5, 3.34052, 29.9752, 15.8564, 4.38602, -49.5449, -3.06089
4.904, 5, 3.3023, 29.9978, 15.8539, 4.33158, -49.6072, -3.022
4.908, 5, 3.26408, 30.0203, 15.8514, 4.27724, -49.6696, -2.9832
4.912, 5, 3.22585, 30.0428, 15.849, 4.223, -49.732, -2.94449
4.916, 5, 3.18761, 30.0653, 15.8467, 4.16885, -49.7945, -2.90587
4.92, 5, 3.14937, 30.0876, 15.8444, 4.11481, -49.857, -2.86734
4.924, 5, 3.11112, 30.11, 15.8422, 4.06086, -49.9196, -2.8289
4.928, 5, 3.07287, 30.1323, 15.8401, 4.00701, -49.9823, -2.79055
4.932, 5, 3.03462, 30.1545, 15.8381, 3.95326, -50.0449, -2.75229
4.936, 5, 2.99636, 30.1767, 15.8362, 3.8996, -50.1077, -2.71412
4.94, 5, 2.95809, 30.1988, 15.8343, 3.84605, -50.1705, -2.67605
4.944, 5, 2.91982, 30.2209, 15.8326, 3.79259, -50.2333, -2.63806
4.948, 5, 2.88154, 30.2429, 15.8308, 3.73923, -50.2963, -2.60016
4.952, 5, 2.84327, 30.2649, 15.8292, 3.68596, -50.3592, -2.56235
4.956, 5, 2.80498, 30.2868, 15.8277, 3.6328, -50.4222, -2.52463
4.96, 5, 2.76669, 30.3087, 15.8262, 3.57973, -50.4853, -2.487
4.964, 5, 2.7284, 30.3305, 15.8248, 3.52675, -50.5484, -2.44946
4.968, 5, 2.6901, 30.3523, 15.8235, 3.47388, -50.6116, -2.412
4.972, 5, 2.6518, 30.374, 15.8223, 3.4211, -50.6749, -2.37464
4.976, 5, 2.61349, 30.3957, 15.8211, 3.36842, -50.7382, -2.33736
4.98, 5, 2.57518, 30.4173, 15.82, 3.31583, -50.8015, -2.30017
4.984, 5, 2.53686, 30.4389, 15.819, 3.26334, -50.8649, -2.26308
4.988, 5, 2.49854, 30.4604, 15.8181, 3.21094, -50.9284, -2.22607
4.992, 5, 2.46022, 30.4819, 15.8172, 3.15865, -50.9919, -2.18914
4.996, 5, 2.42189, 30.5033, 15.8165, 3.10644, -51.0554, -2.15231
5, 5, 2.38356, 30.5247, 15.8158, 3.05434, -51.119, -2.11556
5.004, 5, 2.34523, 30.546, 15.8152, 3.00233, -51.1827, -2.0789
5.008, 5, 2.30689, 30.5672, 15.8146, 2.95041, -51.2464, -2.04233
5.012, 5, 2.26855, 30.5885, 15.8142, 2.89859, -51.3102, -2.00585
5.016, 5, 2.2302, 30.6096, 15.8138, 2.84687, -51.374, -1.96946
5.02, 5, 2.19185, 30.6307, 15.8135, 2.79524, -51.4379, -1.93315
5.024, 5, 2.1535, 30.6518, 15.8133, 2.7437, -51.5019, -1.89693
5.028, 5, 2.11514, 30.6728, 15.8132, 2.69226, -51.5659, -1.86079
5.032, 5, 2.07678, 30.6938, 15.8131, 2.64092, -51.6299, -1.82475
5.036, 5, 2.03842, 30.7147, 15.8131, 2.58967, -51.694, -1.78879
5.04, 5, 2.00005, 30.7356, 15.8132, 2.53851, -51.7582, -1.75291
5.044, 5, 1.96169, 30.7564, 15.8134, 2.48745, -51.8224, -1.71713
5.048, 5, 1.92331, 30.7771, 15.8136, 2.43649, -51.8866, -1.68143
5.052, 5, 1.88494, 30.7979, 15.814, 2.38562, -51.9509, -1.64581
5.056, 5, 1.84656, 30.8185, 15.8144, 2.33484, -52.0153, -1.61029
5.06, 5, 1.80818, 30.8391, 15.8149, 2.28415, -52.0797, -1.57485
5.064, 5, 1.76979, 30.8597, 15.8155, 2.23356, -52.1442, -1.53949
5.068, 5, 1.73141, 30.8802, 15.8161, 2.18307, -52.2087, -1.50422
5.072, 5, 1.69302, 30.9007, 15.8168, 2.13267, -52.2733, -1.46904
5.076, 5, 1.65463, 30.9211, 15.8176, 2.08236, -52.338, -1.43394
5.08, 5, 1.61623, 30.9414, 15.8185, 2.03214, -52.4027, -1.39893
5.084, 5, 1.57783, 30.9617, 15.8195, 1.98202, -52.4674, -1.36401
5.088, 5, 1.53943, 30.982, 15.8205, 1.93198, -52.5322, -1.32917
5.092, 5, 1.50103, 31.0022, 15.8217, 1.88205, -52.5971, -1.29441
5.096, 5, 1.46263, 31.0224, 15.8229, 1.8322, -52.662, -1.25974
5.1, 5, 1.42422, 31.0425, 15.8241, 1.78245, -52.7269, -1.22515
5.104, 5, 1.38581, 31.0625, 15.8255, 1.73278, -52.7919, -1.19065
5.108, 5, 1.3474, 31.0825, 15.8269, 1.68321, -52.857, -1.15623
5.112, 5, 1.30899, 31.1025, 15.8285, 1.63373, -52.9221, -1.1219
5.116, 5, 1.27058, 31.1224, 15.8301, 1.58434, -52.9873, -1.08764
5.12, 5, 1.23216, 31.1423, 15.8317, 1.53505, -53.0525, -1.05348
5.124, 5, 1.19374, 31.1621, 15.8335, 1.48584, -53.1178, -1.01939
5.128, 5, 1.15532, 31.1818, 15.8353, 1.43672, -53.1831, -0.985393
5.132, 5, 1.1169, 31.2015, 15.8372, 1.3877, -53.2485, -0.951475
5.136, 5, 1.07848, 31.2212, 15.8392, 1.33876, -53.314, -0.91764
5.14, 5, 1.04006, 31.2408, 15.8413, 1.28991, -53.3795, -0.883887
5.144, 5, 1.00163, 31.2604, 15.8435, 1.24115, -53.445, -0.850217
5.148, 5, 0.963204, 31.2799, 15.8457, 1.19249, -53.5106, -0.816629
5.152, 5, 0.924775, 31.2993, 15.848, 1.14391, -53.5762, -0.783122
5.156, 5, 0.886346, 31.3187, 15.8504, 1.09542, -53.6419, -0.749698
5.16, 5, 0.847915, 31.3381, 15.8529, 1.04702, -53.7077, -0.716355
5.164, 5, 0.809483, 31.3574, 15.8554, 0.998704, -53.7735, -0.683094
5.168, 5, 0.771053, 31.3767, 15.858, 0.950479, -53.8394, -0.649913
5.172, 5, 0.732644, 31.3959, 15.8607, 0.902343, -53.9053, -0.616814
5.176, 5, 0.694309, 31.415, 15.8635, 0.854295, -53.9712, -0.583797
5.18, 5, 0.656132, 31.4341, 15.8664, 0.806338, -54.0372, -0.550863
5.184, 5, 0.618214, 31.4531, 15.8693, 0.758479, -54.1033, -0.518018
5.188, 5, 0.580672, 31.4718, 15.8724, 0.710733, -54.1693, -0.485273
5.192, 5, 0.543673, 31.4904, 15.8756, 0.663128, -54.2354, -0.452648
5.196, 5, 0.507429, 31.5086, 15.879, 0.615713, -54.3013, -0.42018
5.2, 5, 0.472136, 31.5263, 15.8825, 0.568573, -54.367, -0.387926
5.204, 5, 0.437907, 31.5434, 15.8861, 0.521837, -54.4323, -0.355976
5.208, 5, 0.404791, 31.5599, 15.8899, 0.475684, -54.4969, -0.324451
5.212, 5, 0.372819, 31.5758, 15.8938, 0.430341, -54.5605, -0.293504
5.216, 5, 0.342012, 31.591, 15.8978, 0.386079, -54.6228, -0.263316
5.22, 5, 0.312379, 31.6055, 15.9017, 0.343194, -54.6832, -0.234086
5.224, 5, 0.28395, 31.6194, 15.9056, 0.302001, -54.7414, -0.206025
5.228, 5, 0.25681, 31.6325, 15.9093, 0.262811, -54.7968, -0.179341
5.232, 5, 0.231074, 31.645, 15.9129, 0.225923, -54.849, -0.154233
5.236, 5, 0.20682, 31.6566, 15.9162, 0.191611, -54.8977, -0.130885
5.24, 5, 0.184033, 31.6676, 15.9191, 0.160112, -54.9425, -0.109454
5.244, 5, 0.162613, 31.6779, 15.9217, 0.131613, -54.983, -0.0900627
5.248, 5, 0.142443, 31.6877, 15.9239, 0.106233, -55.0192, -0.0727874
5.252, 5, 0.123469, 31.6969, 15.9257, 0.0840066, -55.0509, -0.0576494
5.256, 5, 0.105726, 31.7055, 15.927, 0.0648803, -55.0782, -0.0446116
5.26, 5, 0.0893076, 31.7135, 15.9279, 0.0487166, -55.1013, -0.0335809
5.264, 5, 0.074325, 31.7209, 15.9284, 0.0353074, -55.1205, -0.024418
5.268, 5, 0.0608694, 31.7274, 15.9287, 0.0243935, -55.1362, -0.0169487
5.272, 5, 0.0489557, 31.7332, 15.9288, 0.0156853, -55.1487, -0.0109787
5.278, 5, 0.0293534, 31.7426, 15.9285, 0.00368592, -55.166, -0.00272622
5.28, 5, 0.0293534, 31.7426, 15.9285, 0.00368592, -55.166, -0.00272622
5.284, 5, 0.0214102, 31.7462, 15.9283, -0.000189529, -55.1715, -4.86387E-5
5.288, 5, 0.0146054, 31.7492, 15.928, -0.00301069, -55.1756, 0.00190784
5.292, 5, 0.00890559, 31.7516, 15.9277, -0.00501721, -55.1785, 0.00330519
5.296, 5, 0.00428203, 31.7535, 15.9274, -0.00641572, -55.1805, 0.00428328
5.3, 5, 0.00069135, 31.7549, 15.9272, -0.00737587, -55.1819, 0.00495723
5.304, 5, -0.00196869, 31.7559, 15.9271, -0.00802921, -55.1829, 0.005417
5.308, 5, -0.00390774, 31.7567, 15.927, -0.00847227, -55.1835, 0.00572961
5.312, 5, -0.00543868, 31.7572, 15.9269, -0.00877431, -55.184, 0.00594435
5.316, 5, -0.00690824, 31.7575, 15.9269, -0.00898909, -55.1843, 0.00610054
5.32, 5, -0.00861813, 31.7578, 15.9269, -0.0091688, -55.1846, 0.00623632
5.324, 5, -0.0107941, 31.758, 15.9271, -0.00937718, -55.185, 0.00639725
5.328, 5, -0.0135957, 31.7583, 15.9275, -0.00970019, -55.1857, 0.0066432
5.332, 5, -0.0171219, 31.7585, 15.9283, -0.0102532, -55.1869, 0.00705322
5.336, 5, -0.0214138, 31.7587, 15.9295, -0.0111848, -55.1889, 0.00772795
5.34, 5, -0.0264861, 31.7588, 15.9314, -0.0126764, -55.1921, 0.00878936
5.344, 6, -0.0323835, 31.7588, 15.9342, -0.0149381, -55.1968, 0.0103785
5.348, 6, -0.039216, 31.7586, 15.9382, -0.0182029, -55.2037, 0.0126517
5.352, 6, -0.0471385, 31.7582, 15.9436, -0.0227215, -55.2132, 0.0157772
5.356, 6, -0.0562873, 31.7575, 15.9509, -0.028757, -55.2258, 0.019931
5.36, 6, -0.0667226, 31.7565, 15.9601, -0.036578, -55.2422, 0.0252907
5.364, 6, -0.0784226, 31.7551, 15.9717, -0.0464447, -55.2628, 0.0320271
5.368, 6, -0.0913268, 31.7531, 15.9859, -0.0585903, -55.2881, 0.0402917
5.372, 6, -0.105381, 31.7505, 16.0029, -0.0732012, -55.3186, 0.0502051
5.376, 6, -0.120555, 31.7474, 16.0228, -0.0904013, -55.3545, 0.0618464
5.38, 6, -0.136858, 31.7436, 16.0458, -0.110241, -55.3959, 0.0752466
5.384, 6, -0.15435, 31.7392, 16.0717, -0.132696, -55.4428, 0.0903871
5.388, 6, -0.173122, 31.7342, 16.1005, -0.157669, -55.495, 0.107203
5.392, 6, -0.193236, 31.7287, 16.1321, -0.185007, -55.5523, 0.125591
5.396, 6, -0.214672, 31.7226, 16.1663, -0.214512, -55.6142, 0.145417
5.4, 6, -0.237323, 31.7162, 16.2028, -0.245955, -55.6803, 0.166525
5.404, 6, -0.26105, 31.7094, 16.2413, -0.279082, -55.7502, 0.188745
5.408, 6, -0.285761, 31.7023, 16.2816, -0.313629, -55.8231, 0.211897
5.412, 6, -0.311438, 31.695, 16.3234, -0.349329, -55.8988, 0.235802
5.416, 6, -0.338104, 31.6875, 16.3663, -0.385923, -55.9765, 0.260287
5.42, 6, -0.365781, 31.6799, 16.4103, -0.42318, -56.0559, 0.285197
5.424, 6, -0.39448, 31.6723, 16.455, -0.460896, -56.1365, 0.310394
5.428, 6, -0.424175, 31.6646, 16.5002, -0.498909, -56.218, 0.335769
5.432, 6, -0.454766, 31.6569, 16.5458, -0.537095, -56.3001, 0.361236
5.436, 6, -0.486078, 31.6492, 16.5918, -0.575365, -56.3827, 0.386734
5.44, 6, -0.51791, 31.6415, 16.638, -0.613657, -56.4656, 0.412218
5.444, 6, -0.550093, 31.6337, 16.6843, -0.65193, -56.5488, 0.437659
5.448, 6, -0.582507, 31.626, 16.7308, -0.690155, -56.6321, 0.463037
5.452, 6, -0.615072, 31.6182, 16.7773, -0.728315, -56.7156, 0.488339
5.456, 6, -0.647732, 31.6104, 16.824, -0.766396, -56.7992, 0.513555
5.46, 6, -0.680449, 31.6026, 16.8708, -0.804389, -56.8828, 0.53868
5.464, 6, -0.713199, 31.5948, 16.9176, -0.842289, -56.9665, 0.563709
5.468, 6, -0.745964, 31.5869, 16.9644, -0.880093, -57.0503, 0.588641
5.472, 6, -0.778732, 31.579, 17.0114, -0.917798, -57.1342, 0.613472
5.476, 6, -0.811496, 31.5712, 17.0584, -0.955402, -57.2181, 0.638203
5.48, 6, -0.844249, 31.5632, 17.1054, -0.992905, -57.302, 0.662832
5.484, 6, -0.876989, 31.5553, 17.1526, -1.03031, -57.386, 0.68736
5.488, 6, -0.909713, 31.5473, 17.1997, -1.06761, -57.47, 0.711787
5.492, 6, -0.942418, 31.5394, 17.247, -1.1048, -57.5541, 0.736112
5.496, 6, -0.975104, 31.5314, 17.2942, -1.1419, -57.6383, 0.760336
5.5, 6, -1.00777, 31.5233, 17.3416, -1.1789, -57.7225, 0.78446
5.504, 6, -1.04041, 31.5153, 17.3889, -1.21579, -57.8067, 0.808482
5.508, 6, -1.07304, 31.5072, 17.4364, -1.25258, -57.891, 0.832405
5.512, 6, -1.10564, 31.4992, 17.4839, -1.28928, -57.9753, 0.856227
5.516, 6, -1.13822, 31.4911, 17.5314, -1.32587, -58.0597, 0.87995
5.52, 6, -1.17078, 31.4829, 17.579, -1.36236, -58.1441, 0.903574
5.524, 6, -1.20331, 31.4748, 17.6267, -1.39875, -58.2285, 0.927098
5.528, 6, -1.23583, 31.4666, 17.6744, -1.43505, -58.313, 0.950524
5.532, 6, -1.26832, 31.4585, 17.7221, -1.47124, -58.3976, 0.97385
5.536, 6, -1.30078, 31.4502, 17.7699, -1.50734, -58.4822, 0.997079
5.54, 6, -1.33323, 31.442, 17.8178, -1.54334, -58.5668, 1.02021
5.544, 6, -1.36565, 31.4338, 17.8657, -1.57923, -58.6515, 1.04324
5.548, 6, -1.39805, 31.4255, 17.9137, -1.61504, -58.7362, 1.06618
5.552, 6, -1.43043, 31.4172, 17.9617, -1.65074, -58.821, 1.08901
5.556, 6, -1.46278, 31.4089, 18.0097, -1.68634, -58.9058, 1.11175
5.56, 6, -1.49512, 31.4006, 18.0579, -1.72185, -58.9906, 1.13439
5.564, 6, -1.52742, 31.3923, 18.106, -1.75726, -59.0755, 1.15694
5.568, 6, -1.55971, 31.3839, 18.1542, -1.79258, -59.1604, 1.17939
5.572, 6, -1.59197, 31.3756, 18.2025, -1.8278, -59.2454, 1.20174
5.576, 6, -1.62421, 31.3672, 18.2508, -1.86292, -59.3304, 1.224
5.58, 6, -1.65642, 31.3588, 18.2992, -1.89794, -59.4155, 1.24616
5.584, 6, -1.68861, 31.3503, 18.3476, -1.93287, -59.5006, 1.26822
5.588, 6, -1.72078, 31.3419, 18.3961, -1.9677, -59.5858, 1.29019
5.592, 6, -1.75292, 31.3334, 18.4446, -2.00244, -59.671, 1.31207
5.596, 6, -1.78503, 31.3249, 18.4932, -2.03708, -59.7562, 1.33385
5.6, 6, -1.81713, 31.3164, 18.5418, -2.07163, -59.8415, 1.35553
5.604, 6, -1.8492, 31.3079, 18.5905, -2.10608, -59.9268, 1.37712
5.608, 6, -1.88124, 31.2994, 18.6392, -2.14044, -60.0122, 1.39861
5.612, 6, -1.91326, 31.2908, 18.688, -2.17471, -60.0976, 1.42001
5.616, 6, -1.94526, 31.2822, 18.7368, -2.20888, -60.183, 1.44132
5.62, 6, -1.97723, 31.2736, 18.7856, -2.24295, -60.2685, 1.46253
5.624, 6, -2.00917, 31.265, 18.8346, -2.27693, -60.354, 1.48365
5.628, 6, -2.0411, 31.2564, 18.8835, -2.31082, -60.4396, 1.50468
5.632, 6, -2.07299, 31.2478, 18.9325, -2.34462, -60.5252, 1.52561
5.636, 6, -2.10486, 31.2391, 18.9816, -2.37832, -60.6109, 1.54645
5.64, 6, -2.13671, 31.2304, 19.0307, -2.41193, -60.6965, 1.5672
5.644, 6, -2.16853, 31.2217, 19.0799, -2.44545, -60.7823, 1.58785
5.648, 6, -2.20032, 31.213, 19.1291, -2.47887, -60.8681, 1.60841
5.652, 6, -2.23209, 31.2043, 19.1783, -2.51221, -60.9539, 1.62889
5.656, 6, -2.26383, 31.1956, 19.2276, -2.54545, -61.0397, 1.64926
5.66, 6, -2.29555, 31.1868, 19.277, -2.5786, -61.1256, 1.66955
5.664, 6, -2.32724, 31.178, 19.3264, -2.61166, -61.2116, 1.68975
5.668, 6, -2.3589, 31.1692, 19.3758, -2.64462, -61.2975, 1.70985
5.672, 6, -2.39054, 31.1604, 19.4253, -2.6775, -61.3835, 1.72986
5.676, 6, -2.42215, 31.1516, 19.4748, -2.71029, -61.4696, 1.74979
5.68, 6, -2.45374, 31.1428, 19.5244, -2.74298, -61.5557, 1.76962
5.684, 6, -2.4853, 31.1339, 19.5741, -2.77558, -61.6418, 1.78936
5.688, 6, -2.51683, 31.1251, 19.6237, -2.8081, -61.728, 1.80901
5.692, 6, -2.54834, 31.1162, 19.6735, -2.84052, -61.8142, 1.82857
5.696, 6, -2.57981, 31.1073, 19.7232, -2.87286, -61.9005, 1.84804
5.7, 6, -2.61127, 31.0984, 19.773, -2.90511, -61.9868, 1.86743
5.704, 6, -2.64269, 31.0895, 19.8229, -2.93726, -62.0731, 1.88672
5.708, 6, -2.67409, 31.0805, 19.8728, -2.96933, -62.1595, 1.90592
5.712, 6, -2.70546, 31.0716, 19.9228, -3.00131, -62.2459, 1.92504
5.716, 6, -2.7368, 31.0626, 19.9728, -3.0332, -62.3323, 1.94407
5.72, 6, -2.76812, 31.0536, 20.0228, -3.06501, -62.4188, 1.963
5.724, 6, -2.7994, 31.0446, 20.0729, -3.09672, -62.5053, 1.98185
5.728, 6, -2.83066, 31.0356, 20.123, -3.12835, -62.5919, 2.00062
5.732, 6, -2.86189, 31.0266, 20.1732, -3.15989, -62.6785, 2.01929
5.736, 6, -2.8931, 31.0175, 20.2234, -3.19134, -62.7651, 2.03788
5.74, 6, -2.92427, 31.0085, 20.2737, -3.22271, -62.8518, 2.05638
5.744, 6, -2.95542, 30.9994, 20.324, -3.25398, -62.9385, 2.07479
5.748, 6, -2.98654, 30.9903, 20.3744, -3.28518, -63.0253, 2.09311
5.752, 6, -3.01763, 30.9812, 20.4248, -3.31628, -63.1121, 2.11135
5.756, 6, -3.04869, 30.9721, 20.4752, -3.3473, -63.1989, 2.1295
5.76, 6, -3.07972, 30.963, 20.5257, -3.37824, -63.2858, 2.14757
5.764, 6, -3.11073, 30.9538, 20.5762, -3.40908, -63.3727, 2.16555
5.768, 6, -3.1417, 30.9447, 20.6268, -3.43985, -63.4596, 2.18344
5.772, 6, -3.17265, 30.9355, 20.6774, -3.47052, -63.5466, 2.20125
5.776, 6, -3.20356, 30.9264, 20.7281, -3.50112, -63.6336, 2.21897
5.78, 6, -3.23445, 30.9172, 20.7788, -3.53162, -63.7206, 2.23661
5.784, 6, -3.26531, 30.908, 20.8296, -3.56205, -63.8077, 2.25416
5.788, 6, -3.29614, 30.8988, 20.8803, -3.59238, -63.8949, 2.27163
5.792, 6, -3.32694, 30.8895, 20.9312, -3.62264, -63.982, 2.28901
5.796, 6, -3.35771, 30.8803, 20.9821, -3.65281, -64.0692, 2.30631
5.8, 6, -3.38845, 30.8711, 21.033, -3.68289, -64.1565, 2.32352
5.804, 6, -3.41916, 30.8618, 21.0839, -3.7129, -64.2437, 2.34065
5.808, 6, -3.44984, 30.8525, 21.1349, -3.74282, -64.331, 2.3577
5.812, 6, -3.48048, 30.8432, 21.186, -3.77265, -64.4184, 2.37466
5.816, 6, -3.5111, 30.8339, 21.2371, -3.80241, -64.5057, 2.39154
5.82, 6, -3.54169, 30.8246, 21.2882, -3.83208, -64.5932, 2.40834
5.824, 6, -3.57225, 30.8153, 21.3394, -3.86167, -64.6806, 2.42505
5.828, 6, -3.60278, 30.806, 21.3906, -3.89118, -64.7681, 2.44168
5.832, 6, -3.63327, 30.7967, 21.4419, -3.9206, -64.8556, 2.45823
5.836, 6, -3.66374, 30.7873, 21.4931, -3.94994, -64.9432, 2.47469
5.84, 6, -3.69418, 30.7779, 21.5445, -3.97921, -65.0308, 2.49108
5.844, 6, -3.72458, 30.7686, 21.5959, -4.00839, -65.1184, 2.50738
5.848, 6, -3.75495, 30.7592, 21.6473, -4.03748, -65.206, 2.5236
5.852, 6, -3.78529, 30.7498, 21.6987, -4.0665, -65.2937, 2.53974
5.856, 6, -3.8156, 30.7404, 21.7502, -4.09544, -65.3815, 2.55579
5.86, 6, -3.84588, 30.731, 21.8018, -4.1243, -65.4692, 2.57177
5.864, 6, -3.87613, 30.7215, 21.8534, -4.15308, -65.557, 2.58766
5.868, 6, -3.90634, 30.7121, 21.905, -4.18177, -65.6449, 2.60348
5.872, 6, -3.93652, 30.7027, 21.9566, -4.21039, -65.7327, 2.61921
5.876, 6, -3.96667, 30.6932, 22.0083, -4.23893, -65.8206, 2.63486
5.88, 6, -3.99679, 30.6837, 22.0601, -4.26739, -65.9086, 2.65043
5.884, 6, -4.02688, 30.6743, 22.1119, -4.29577, -65.9965, 2.66593
5.888, 6, -4.05693, 30.6648, 22.1637, -4.32407, -66.0845, 2.68134
5.892, 6, -4.08695, 30.6553, 22.2155, -4.35229, -66.1726, 2.69667
5.896, 6, -4.11694, 30.6458, 22.2674, -4.38043, -66.2606, 2.71193
5.9, 6, -4.1469, 30.6363, 22.3194, -4.4085, -66.3487, 2.7271
5.904, 6, -4.17682, 30.6268, 22.3713, -4.43648, -66.4369, 2.7422
5.908, 6, -4.20671, 30.6172, 22.4233, -4.46439, -66.525, 2.75722
5.912, 6, -4.23657, 30.6077, 22.4754, -4.49223, -66.6132, 2.77216
5.916, 6, -4.26639, 30.5982, 22.5275, -4.51998, -66.7015, 2.78702
5.92, 6, -4.29618, 30.5886, 22.5796, -4.54766, -66.7897, 2.8018
5.924, 6, -4.32594, 30.579, 22.6318, -4.57526, -66.878, 2.81651
5.928, 6, -4.35566, 30.5695, 22.684, -4.60278, -66.9664, 2.83113
5.932, 6, -4.38535, 30.5599, 22.7362, -4.63023, -67.0547, 2.84568
5.936, 6, -4.41501, 30.5503, 22.7885, -4.6576, -67.1431, 2.86016
5.94, 6, -4.44463, 30.5407, 22.8408, -4.68489, -67.2316, 2.87455
5.944, 6, -4.47421, 30.5311, 22.8932, -4.71211, -67.32, 2.88887
