hehonglu123/ABB_Primitive_Study/execution/movec_30_car/curve_exe_v1000_z1.csv
timestamp, cmd_num, J1, J2, J3, J4, J5, J6
0, -1, -11.8209, 27.637, 43.2514, -10.4208, -101.239, 3.92109
0.002, -1, -11.8209, 27.637, 43.2514, -10.4208, -101.239, 3.92109
0.006, -1, -11.8209, 27.637, 43.2514, -10.4208, -101.239, 3.92109
0.008, -1, -11.8209, 27.637, 43.2514, -10.4208, -101.239, 3.92109
0.011, -1, -11.8209, 27.637, 43.2514, -10.4208, -101.239, 3.92109
0.016, -1, -11.8209, 27.637, 43.2514, -10.4208, -101.239, 3.92109
0.02, -1, -11.8209, 27.637, 43.2514, -10.4208, -101.239, 3.92109
0.024, -1, -11.8209, 27.637, 43.2514, -10.4208, -101.239, 3.92109
0.028, -1, -11.8209, 27.637, 43.2514, -10.4208, -101.239, 3.92109
0.032, -1, -11.8209, 27.637, 43.2514, -10.4208, -101.239, 3.92109
0.036, -1, -11.8208, 27.637, 43.2514, -10.4208, -101.239, 3.92108
0.04, -1, -11.8206, 27.6369, 43.2514, -10.4208, -101.239, 3.92108
0.044, -1, -11.8199, 27.6367, 43.2513, -10.4208, -101.239, 3.92105
0.048, -1, -11.8188, 27.6363, 43.2513, -10.4207, -101.239, 3.92098
0.052, -1, -11.8169, 27.6357, 43.2511, -10.4205, -101.239, 3.92081
0.056, -1, -11.8142, 27.6347, 43.2509, -10.42, -101.238, 3.92043
0.06, -1, -11.8106, 27.6334, 43.2504, -10.419, -101.236, 3.91973
0.064, -1, -11.8059, 27.6315, 43.2496, -10.4173, -101.234, 3.9185
0.068, -1, -11.8, 27.6291, 43.2483, -10.4146, -101.23, 3.91654
0.072, -1, -11.7928, 27.626, 43.2465, -10.4103, -101.223, 3.91354
0.076, -1, -11.7838, 27.6222, 43.2437, -10.4041, -101.214, 3.90917
0.08, -1, -11.7728, 27.6173, 43.2399, -10.3954, -101.201, 3.90303
0.084, -1, -11.7593, 27.6114, 43.2348, -10.3836, -101.183, 3.89469
0.088, -1, -11.7432, 27.6044, 43.2281, -10.3678, -101.159, 3.88364
0.092, -1, -11.7244, 27.5963, 43.2194, -10.3474, -101.128, 3.86937
0.096, -1, -11.7027, 27.5871, 43.2085, -10.3216, -101.09, 3.85137
0.1, -1, -11.6782, 27.5767, 43.1952, -10.2898, -101.042, 3.82914
0.104, -1, -11.6506, 27.5654, 43.1791, -10.2512, -100.985, 3.80229
0.108, -1, -11.6199, 27.5528, 43.1601, -10.2055, -100.916, 3.77048
0.112, -1, -11.5859, 27.5392, 43.138, -10.1523, -100.837, 3.73348
0.116, -1, -11.5485, 27.5242, 43.1128, -10.0915, -100.746, 3.69117
0.12, -1, -11.5074, 27.5079, 43.0844, -10.0229, -100.644, 3.64352
0.124, -1, -11.4628, 27.4904, 43.053, -9.94673, -100.53, 3.5906
0.128, -1, -11.4147, 27.4716, 43.0185, -9.8632, -100.406, 3.53258
0.131, -1, -11.3633, 27.4515, 42.9811, -9.77265, -100.271, 3.46969
0.136, -1, -11.3087, 27.4303, 42.941, -9.67555, -100.126, 3.40227
0.139, -1, -11.251, 27.4079, 42.8985, -9.57247, -99.9725, 3.33069
0.144, -1, -11.1903, 27.3844, 42.8538, -9.46403, -99.8108, 3.25539
0.148, -1, -11.1266, 27.3596, 42.807, -9.35088, -99.6422, 3.17682
0.152, -1, -11.0601, 27.3337, 42.7586, -9.23367, -99.4675, 3.09542
0.156, -1, -10.9909, 27.3067, 42.7087, -9.11298, -99.2876, 3.01159
0.16, -1, -10.9195, 27.2787, 42.6576, -8.98935, -99.1033, 2.92571
0.164, -1, -10.8461, 27.2499, 42.6054, -8.86324, -98.9152, 2.8381
0.168, -1, -10.7711, 27.2203, 42.5523, -8.73504, -98.7241, 2.74903
0.172, -1, -10.6947, 27.1902, 42.4985, -8.60512, -98.5303, 2.65876
0.176, -1, -10.6172, 27.1595, 42.4441, -8.47377, -98.3344, 2.56749
0.18, -1, -10.5385, 27.1283, 42.3892, -8.34126, -98.1368, 2.4754
0.184, -1, -10.459, 27.0968, 42.3339, -8.2078, -97.9377, 2.38265
0.188, -1, -10.3785, 27.0649, 42.2783, -8.07358, -97.7375, 2.28937
0.192, -1, -10.2973, 27.0327, 42.2224, -7.93872, -97.5364, 2.19564
0.196, -1, -10.2155, 27.0003, 42.1662, -7.80334, -97.3344, 2.10154
0.2, -1, -10.1331, 26.9676, 42.1099, -7.6675, -97.1317, 2.00712
0.204, -1, -10.0503, 26.9348, 42.0533, -7.53125, -96.9285, 1.91241
0.208, -1, -9.9672, 26.9019, 41.9967, -7.39462, -96.7247, 1.81744
0.212, -1, -9.88379, 26.8688, 41.9399, -7.25765, -96.5203, 1.72223
0.216, -1, -9.80013, 26.8356, 41.8829, -7.12034, -96.3155, 1.62679
0.22, -1, -9.71623, 26.8024, 41.8258, -6.98271, -96.1101, 1.53111
0.224, -1, -9.63212, 26.769, 41.7686, -6.84476, -95.9043, 1.43522
0.228, -1, -9.54781, 26.7356, 41.7112, -6.7065, -95.6981, 1.33912
0.232, -1, -9.46329, 26.7021, 41.6537, -6.56794, -95.4914, 1.2428
0.236, -1, -9.37859, 26.6685, 41.5961, -6.42908, -95.2842, 1.14628
0.24, -1, -9.29371, 26.6349, 41.5384, -6.28992, -95.0766, 1.04954
0.244, -1, -9.20864, 26.6011, 41.4805, -6.15046, -94.8685, 0.952603
0.248, -1, -9.12338, 26.5673, 41.4226, -6.01071, -94.66, 0.85546
0.252, -1, -9.03795, 26.5335, 41.3645, -5.87067, -94.4511, 0.758115
0.256, -1, -8.95235, 26.4995, 41.3062, -5.73034, -94.2418, 0.660569
0.26, -1, -8.86656, 26.4655, 41.2479, -5.58972, -94.032, 0.562823
0.264, -1, -8.78061, 26.4315, 41.1895, -5.44882, -93.8218, 0.464879
0.268, -1, -8.69448, 26.3973, 41.1309, -5.30764, -93.6111, 0.366738
0.272, -1, -8.60818, 26.3631, 41.0722, -5.16617, -93.4001, 0.2684
0.276, -1, -8.52171, 26.3288, 41.0134, -5.02442, -93.1886, 0.169869
0.28, -1, -8.43507, 26.2945, 40.9545, -4.8824, -92.9767, 0.0711437
0.284, -1, -8.34827, 26.2601, 40.8954, -4.74009, -92.7644, -0.027773
0.288, -1, -8.2613, 26.2256, 40.8363, -4.59752, -92.5517, -0.12688
0.292, -1, -8.17417, 26.191, 40.777, -4.45467, -92.3386, -0.226175
0.296, -1, -8.08688, 26.1564, 40.7177, -4.31156, -92.1251, -0.325657
0.3, -1, -7.99944, 26.1218, 40.6582, -4.16818, -91.9112, -0.425324
0.304, -1, -7.91184, 26.087, 40.5986, -4.02454, -91.6969, -0.525173
0.308, -1, -7.82408, 26.0522, 40.5389, -3.88064, -91.4822, -0.625202
0.312, -1, -7.73618, 26.0174, 40.4791, -3.73648, -91.2672, -0.725408
0.316, -1, -7.64814, 25.9825, 40.4192, -3.59207, -91.0517, -0.825789
0.32, -1, -7.55995, 25.9475, 40.3592, -3.44742, -90.8359, -0.926341
0.324, -1, -7.47161, 25.9125, 40.299, -3.30252, -90.6198, -1.02706
0.328, -1, -7.38314, 25.8774, 40.2388, -3.15738, -90.4032, -1.12795
0.332, -1, -7.29454, 25.8422, 40.1785, -3.01202, -90.1864, -1.229
0.336, -1, -7.20579, 25.807, 40.1181, -2.86642, -89.9691, -1.3302
0.34, -1, -7.11692, 25.7718, 40.0576, -2.7206, -89.7516, -1.43156
0.344, -1, -7.02791, 25.7365, 39.997, -2.57457, -89.5337, -1.53307
0.348, -1, -6.93879, 25.7011, 39.9364, -2.42832, -89.3156, -1.63473
0.352, -1, -6.84954, 25.6657, 39.8756, -2.28187, -89.0971, -1.73653
0.356, -1, -6.76017, 25.6303, 39.8148, -2.13522, -88.8783, -1.83847
0.36, -1, -6.67068, 25.5948, 39.7538, -1.98837, -88.6592, -1.94055
0.364, -1, -6.58109, 25.5593, 39.6928, -1.84134, -88.4398, -2.04276
0.368, -1, -6.49138, 25.5237, 39.6318, -1.69412, -88.2202, -2.14509
0.372, -1, -6.40157, 25.488, 39.5706, -1.54672, -88.0003, -2.24755
0.376, -1, -6.31166, 25.4524, 39.5094, -1.39915, -87.7802, -2.35013
0.38, -1, -6.22164, 25.4167, 39.4481, -1.25142, -87.5598, -2.45282
0.384, -1, -6.13154, 25.3809, 39.3867, -1.10353, -87.3391, -2.55562
0.388, -1, -6.04134, 25.3451, 39.3253, -0.955482, -87.1182, -2.65853
0.392, -1, -5.95105, 25.3093, 39.2639, -0.807292, -86.8972, -2.76154
0.396, -1, -5.86068, 25.2735, 39.2023, -0.658961, -86.6759, -2.86465
0.4, -1, -5.77023, 25.2376, 39.1407, -0.510497, -86.4544, -2.96785
0.404, -1, -5.6797, 25.2017, 39.0791, -0.361907, -86.2327, -3.07114
0.408, -1, -5.58909, 25.1658, 39.0174, -0.213195, -86.0109, -3.17451
0.412, -1, -5.49843, 25.1298, 38.9556, -0.0643699, -85.7888, -3.27796
0.416, -1, -5.40769, 25.0938, 38.8938, 0.084563, -85.5666, -3.38149
0.42, -1, -5.3169, 25.0578, 38.832, 0.233597, -85.3443, -3.48508
0.424, -1, -5.22606, 25.0217, 38.7701, 0.382725, -85.1218, -3.58874
0.428, -1, -5.13516, 24.9857, 38.7082, 0.531939, -84.8992, -3.69246
0.432, -1, -5.04422, 24.9496, 38.6463, 0.681234, -84.6765, -3.79624
0.436, -1, -4.95323, 24.9135, 38.5843, 0.830602, -84.4536, -3.90007
0.44, -1, -4.86221, 24.8774, 38.5223, 0.980034, -84.2307, -4.00394
0.444, -1, -4.77115, 24.8413, 38.4603, 1.12953, -84.0077, -4.10786
0.448, -1, -4.68007, 24.8051, 38.3983, 1.27907, -83.7846, -4.2118
0.452, -1, -4.58896, 24.769, 38.3362, 1.42865, -83.5614, -4.31578
0.456, -1, -4.49784, 24.7329, 38.2741, 1.57827, -83.3382, -4.41979
0.46, -1, -4.40671, 24.6967, 38.212, 1.72792, -83.1149, -4.52381
0.464, -1, -4.31556, 24.6605, 38.15, 1.87758, -82.8917, -4.62785
0.468, -1, -4.22441, 24.6244, 38.0879, 2.02726, -82.6684, -4.73189
0.472, -1, -4.13326, 24.5882, 38.0258, 2.17694, -82.4451, -4.83594
0.476, -1, -4.04211, 24.552, 37.9636, 2.32662, -82.2217, -4.93998
0.48, -1, -3.95098, 24.5159, 37.9016, 2.47628, -81.9985, -5.04401
0.484, -1, -3.85986, 24.4797, 37.8395, 2.62592, -81.7752, -5.14803
0.488, -1, -3.76876, 24.4436, 37.7774, 2.77553, -81.552, -5.25202
0.492, -1, -3.67769, 24.4075, 37.7154, 2.92509, -81.3289, -5.35599
0.496, -1, -3.58665, 24.3713, 37.6533, 3.07461, -81.1058, -5.45992
0.5, -1, -3.49564, 24.3352, 37.5913, 3.22408, -80.8829, -5.56381
0.504, -1, -3.40467, 24.2992, 37.5293, 3.37347, -80.66, -5.66766
0.508, -1, -3.31375, 24.2631, 37.4674, 3.52279, -80.4372, -5.77146
0.512, -1, -3.22288, 24.227, 37.4054, 3.67203, -80.2146, -5.87519
0.516, -1, -3.13206, 24.191, 37.3436, 3.82118, -79.9921, -5.97887
0.52, -1, -3.0413, 24.155, 37.2817, 3.97022, -79.7697, -6.08247
0.524, -1, -2.95061, 24.119, 37.2199, 4.11915, -79.5475, -6.186
0.528, -1, -2.85999, 24.0831, 37.1582, 4.26797, -79.3255, -6.28944
0.532, -1, -2.76944, 24.0472, 37.0965, 4.41666, -79.1037, -6.3928
0.536, -1, -2.67898, 24.0113, 37.0349, 4.56522, -78.882, -6.49606
0.54, -1, -2.58859, 23.9754, 36.9733, 4.71363, -78.6606, -6.59923
0.544, -1, -2.49829, 23.9396, 36.9118, 4.86189, -78.4394, -6.70228
0.548, -1, -2.40809, 23.9038, 36.8503, 5.00999, -78.2185, -6.80523
0.552, -1, -2.31798, 23.8681, 36.7889, 5.15792, -77.9978, -6.90806
0.556, -1, -2.22797, 23.8324, 36.7276, 5.30568, -77.7773, -7.01077
0.56, -1, -2.13807, 23.7967, 36.6664, 5.45326, -77.5572, -7.11336
0.564, -1, -2.04828, 23.7611, 36.6053, 5.60064, -77.3373, -7.2158
0.568, -1, -1.9586, 23.7256, 36.5442, 5.74782, -77.1177, -7.31811
0.572, -1, -1.86904, 23.6901, 36.4832, 5.8948, -76.8984, -7.42028
0.576, -1, -1.7796, 23.6546, 36.4223, 6.04157, -76.6795, -7.5223
0.58, -1, -1.6903, 23.6192, 36.3615, 6.18811, -76.4609, -7.62416
0.584, -1, -1.60113, 23.5839, 36.3008, 6.33442, -76.2426, -7.72587
0.588, -1, -1.5121, 23.5486, 36.2402, 6.4805, -76.0246, -7.82741
0.592, -1, -1.42322, 23.5134, 36.1797, 6.62634, -75.8071, -7.92879
0.596, -1, -1.33448, 23.4782, 36.1193, 6.77193, -75.5899, -8.02999
0.6, -1, -1.2459, 23.4431, 36.059, 6.91726, -75.3731, -8.13101
0.604, -1, -1.15748, 23.408, 35.9988, 7.06233, -75.1566, -8.23185
0.608, -1, -1.06922, 23.373, 35.9387, 7.20713, -74.9406, -8.3325
0.612, -1, -0.98112, 23.3381, 35.8787, 7.35165, -74.725, -8.43296
0.616, -1, -0.893193, 23.3033, 35.8189, 7.49589, -74.5098, -8.53323
0.62, -1, -0.805439, 23.2685, 35.7592, 7.63985, -74.295, -8.63329
0.624, -1, -0.717861, 23.2338, 35.6995, 7.78351, -74.0807, -8.73316
0.628, -1, -0.630465, 23.1991, 35.6401, 7.92687, -73.8668, -8.83281
0.632, -1, -0.543252, 23.1646, 35.5807, 8.06993, -73.6534, -8.93225
0.636, -1, -0.456226, 23.1301, 35.5215, 8.21268, -73.4404, -9.03148
0.64, -1, -0.369389, 23.0957, 35.4624, 8.35511, -73.2279, -9.13049
0.644, -1, -0.282746, 23.0613, 35.4034, 8.49722, -73.0159, -9.22927
0.648, -1, -0.196298, 23.0271, 35.3446, 8.63901, -72.8044, -9.32783
0.652, -1, -0.110049, 22.9929, 35.2859, 8.78046, -72.5934, -9.42616
0.656, -1, -0.0240014, 22.9588, 35.2273, 8.92158, -72.3828, -9.52425
0.66, -1, 0.0618417, 22.9248, 35.1689, 9.06236, -72.1728, -9.62211
0.664, -1, 0.147478, 22.8908, 35.1106, 9.2028, -71.9633, -9.71973
0.668, -1, 0.232905, 22.857, 35.0525, 9.34289, -71.7543, -9.81711
0.672, -1, 0.318122, 22.8232, 34.9945, 9.48263, -71.5458, -9.91425
0.676, -1, 0.403125, 22.7895, 34.9367, 9.62201, -71.3379, -10.0111
0.68, -1, 0.487913, 22.7559, 34.879, 9.76104, -71.1304, -10.1078
0.684, -1, 0.572484, 22.7224, 34.8215, 9.8997, -70.9236, -10.2042
0.688, -1, 0.656834, 22.689, 34.7641, 10.038, -70.7173, -10.3003
0.692, -1, 0.740962, 22.6557, 34.7069, 10.1759, -70.5115, -10.3962
0.696, -1, 0.824867, 22.6224, 34.6498, 10.3135, -70.3062, -10.4918
0.7, -1, 0.908546, 22.5892, 34.5929, 10.4507, -70.1016, -10.5872
0.704, -1, 0.991999, 22.5562, 34.5361, 10.5875, -69.8974, -10.6823
0.708, -1, 1.07522, 22.5232, 34.4795, 10.7239, -69.6939, -10.7771
0.712, -1, 1.15822, 22.4903, 34.423, 10.86, -69.4909, -10.8717
0.716, -1, 1.24098, 22.4575, 34.3667, 10.9957, -69.2885, -10.966
0.72, -1, 1.32352, 22.4248, 34.3106, 11.131, -69.0866, -11.0601
0.724, -1, 1.40582, 22.3922, 34.2546, 11.2659, -68.8853, -11.1539
0.728, -1, 1.48788, 22.3597, 34.1988, 11.4004, -68.6846, -11.2474
0.732, -1, 1.56971, 22.3272, 34.1431, 11.5346, -68.4845, -11.3406
0.736, -1, 1.65131, 22.2949, 34.0876, 11.6683, -68.285, -11.4336
0.74, -1, 1.73267, 22.2627, 34.0323, 11.8017, -68.086, -11.5263
0.744, -1, 1.81379, 22.2305, 33.9771, 11.9347, -67.8876, -11.6187
0.748, -1, 1.89467, 22.1985, 33.9221, 12.0673, -67.6898, -11.7109
0.752, -1, 1.97531, 22.1665, 33.8672, 12.1995, -67.4926, -11.8028
0.756, -1, 2.05572, 22.1347, 33.8125, 12.3313, -67.296, -11.8944
0.76, -1, 2.13588, 22.1029, 33.758, 12.4626, -67.0999, -11.9857
0.764, -1, 2.2158, 22.0712, 33.7037, 12.5936, -66.9045, -12.0768
0.768, -1, 2.29548, 22.0397, 33.6495, 12.7243, -66.7097, -12.1676
0.772, -1, 2.37492, 22.0082, 33.5954, 12.8545, -66.5154, -12.2581
0.776, -1, 2.45412, 21.9768, 33.5416, 12.9843, -66.3217, -12.3483
0.78, -1, 2.53307, 21.9455, 33.4879, 13.1137, -66.1287, -12.4383
0.784, -1, 2.61178, 21.9143, 33.4343, 13.2427, -65.9362, -12.5279
0.788, -1, 2.69025, 21.8832, 33.381, 13.3713, -65.7444, -12.6173
0.792, -1, 2.76848, 21.8522, 33.3278, 13.4995, -65.5531, -12.7065
0.796, -1, 2.84646, 21.8213, 33.2748, 13.6273, -65.3624, -12.7953
0.8, -1, 2.92419, 21.7905, 33.2219, 13.7547, -65.1723, -12.8839
0.804, -1, 3.00168, 21.7598, 33.1692, 13.8817, -64.9829, -12.9721
0.808, -1, 3.07893, 21.7292, 33.1167, 14.0083, -64.794, -13.0602
0.812, -1, 3.15594, 21.6987, 33.0643, 14.1345, -64.6057, -13.1479
0.816, -1, 3.2327, 21.6683, 33.0121, 14.2603, -64.418, -13.2353
0.82, -1, 3.30921, 21.638, 32.9601, 14.3857, -64.231, -13.3225
0.824, -1, 3.38548, 21.6078, 32.9082, 14.5107, -64.0445, -13.4094
0.828, -1, 3.46151, 21.5776, 32.8565, 14.6353, -63.8586, -13.496
0.832, -1, 3.53729, 21.5476, 32.805, 14.7595, -63.6733, -13.5823
0.836, -1, 3.61283, 21.5177, 32.7536, 14.8833, -63.4886, -13.6684
0.84, -1, 3.68813, 21.4878, 32.7024, 15.0067, -63.3046, -13.7541
0.844, -1, 3.76318, 21.4581, 32.6514, 15.1296, -63.1211, -13.8396
0.848, -1, 3.83799, 21.4285, 32.6005, 15.2522, -62.9382, -13.9248
0.852, -1, 3.91256, 21.3989, 32.5498, 15.3744, -62.7559, -14.0098
0.856, -1, 3.98689, 21.3695, 32.4993, 15.4962, -62.5742, -14.0944
0.86, -1, 4.06097, 21.3401, 32.4489, 15.6176, -62.393, -14.1788
0.864, -1, 4.13482, 21.3109, 32.3987, 15.7386, -62.2125, -14.2629
0.868, -1, 4.20842, 21.2817, 32.3486, 15.8592, -62.0326, -14.3468
0.872, -1, 4.28179, 21.2526, 32.2988, 15.9794, -61.8533, -14.4303
0.876, -1, 4.35492, 21.2236, 32.249, 16.0993, -61.6745, -14.5136
0.88, -1, 4.42781, 21.1948, 32.1995, 16.2187, -61.4963, -14.5966
0.884, -1, 4.50047, 21.166, 32.1501, 16.3377, -61.3187, -14.6794
0.888, -1, 4.57289, 21.1373, 32.1009, 16.4564, -61.1417, -14.7619
0.892, -1, 4.64507, 21.1087, 32.0518, 16.5746, -60.9653, -14.8441
0.896, -1, 4.71702, 21.0802, 32.0029, 16.6925, -60.7895, -14.926
0.9, -1, 4.78874, 21.0517, 31.9541, 16.81, -60.6142, -15.0077
0.904, -1, 4.86022, 21.0234, 31.9055, 16.9271, -60.4395, -15.0891
0.908, -1, 4.93148, 20.9952, 31.8571, 17.0438, -60.2653, -15.1702
0.912, -1, 5.0025, 20.967, 31.8088, 17.1602, -60.0917, -15.2511
0.916, -1, 5.07329, 20.939, 31.7607, 17.2762, -59.9187, -15.3317
0.92, -1, 5.14386, 20.911, 31.7127, 17.3918, -59.7462, -15.4121
0.924, -1, 5.2142, 20.8832, 31.6649, 17.507, -59.5743, -15.4922
0.928, -1, 5.28431, 20.8554, 31.6173, 17.6218, -59.403, -15.572
0.932, -1, 5.3542, 20.8277, 31.5698, 17.7363, -59.2322, -15.6516
0.936, -1, 5.42387, 20.8001, 31.5224, 17.8505, -59.0619, -15.7309
0.94, -1, 5.49331, 20.7726, 31.4752, 17.9642, -58.8922, -15.81
0.944, -1, 5.56253, 20.7451, 31.4282, 18.0776, -58.723, -15.8888
0.948, -1, 5.63153, 20.7178, 31.3812, 18.1907, -58.5544, -15.9674
0.952, -1, 5.70032, 20.6905, 31.3345, 18.3033, -58.3862, -16.0457
0.956, -1, 5.76889, 20.6634, 31.2879, 18.4157, -58.2187, -16.1238
0.96, -1, 5.83724, 20.6363, 31.2414, 18.5276, -58.0516, -16.2017
0.964, -1, 5.90538, 20.6093, 31.1951, 18.6393, -57.8851, -16.2793
0.968, -1, 5.9733, 20.5824, 31.1489, 18.7505, -57.7191, -16.3566
0.972, -1, 6.04101, 20.5556, 31.1029, 18.8615, -57.5536, -16.4337
0.976, -1, 6.10851, 20.5288, 31.057, 18.972, -57.3886, -16.5106
0.98, -1, 6.1758, 20.5021, 31.0113, 19.0823, -57.2242, -16.5872
0.984, -1, 6.24288, 20.4756, 30.9657, 19.1922, -57.0602, -16.6636
0.988, -1, 6.30975, 20.4491, 30.9202, 19.3017, -56.8968, -16.7397
0.992, -1, 6.37641, 20.4227, 30.8749, 19.4109, -56.7339, -16.8156
0.996, -1, 6.44287, 20.3963, 30.8298, 19.5198, -56.5715, -16.8913
1, -1, 6.50913, 20.3701, 30.7847, 19.6283, -56.4095, -16.9668
1.004, -1, 6.57518, 20.3439, 30.7398, 19.7365, -56.2481, -17.042
1.008, -1, 6.64103, 20.3178, 30.6951, 19.8444, -56.0872, -17.117
1.012, -1, 6.70668, 20.2918, 30.6504, 19.9519, -55.9267, -17.1917
1.016, -1, 6.77212, 20.2659, 30.606, 20.0591, -55.7668, -17.2663
1.02, -1, 6.83737, 20.24, 30.5616, 20.166, -55.6073, -17.3406
1.024, -1, 6.90243, 20.2142, 30.5174, 20.2726, -55.4483, -17.4146
1.027, -1, 6.96728, 20.1885, 30.4733, 20.3788, -55.2898, -17.4885
1.032, -1, 7.03194, 20.1629, 30.4294, 20.4848, -55.1318, -17.5621
1.036, -1, 7.0964, 20.1374, 30.3855, 20.5904, -54.9743, -17.6355
1.04, -1, 7.16067, 20.1119, 30.3418, 20.6957, -54.8172, -17.7087
1.044, -1, 7.22475, 20.0865, 30.2983, 20.8006, -54.6606, -17.7817
1.048, -1, 7.28864, 20.0612, 30.2549, 20.9053, -54.5044, -17.8544
1.052, -1, 7.35234, 20.036, 30.2116, 21.0096, -54.3487, -17.927
1.055, -1, 7.41585, 20.0108, 30.1684, 21.1137, -54.1935, -17.9993
1.06, -1, 7.47917, 19.9857, 30.1254, 21.2174, -54.0388, -18.0714
1.064, -1, 7.5423, 19.9607, 30.0824, 21.3208, -53.8845, -18.1433
1.068, -1, 7.60525, 19.9357, 30.0397, 21.4239, -53.7307, -18.215
1.072, -1, 7.66801, 19.9109, 29.997, 21.5268, -53.5773, -18.2864
1.076, -1, 7.73058, 19.8861, 29.9545, 21.6293, -53.4243, -18.3577
1.08, -1, 7.79298, 19.8614, 29.9121, 21.7315, -53.2718, -18.4287
1.084, -1, 7.85519, 19.8367, 29.8698, 21.8334, -53.1198, -18.4996
1.088, -1, 7.91722, 19.8121, 29.8276, 21.935, -52.9682, -18.5702
1.091, -1, 7.97907, 19.7876, 29.7856, 22.0363, -52.817, -18.6407
1.096, -1, 8.04075, 19.7632, 29.7436, 22.1374, -52.6663, -18.7109
1.1, -1, 8.10224, 19.7388, 29.7018, 22.2381, -52.516, -18.7809
1.104, -1, 8.16356, 19.7145, 29.6602, 22.3386, -52.3661, -18.8507
1.108, -1, 8.2247, 19.6903, 29.6186, 22.4387, -52.2167, -18.9204
1.112, -1, 8.28567, 19.6661, 29.5772, 22.5386, -52.0677, -18.9898
1.116, -1, 8.34646, 19.642, 29.5358, 22.6382, -51.9191, -19.059
1.119, -1, 8.40708, 19.618, 29.4946, 22.7375, -51.771, -19.128
1.124, -1, 8.46752, 19.5941, 29.4536, 22.8365, -51.6233, -19.1969
1.128, -1, 8.5278, 19.5702, 29.4126, 22.9353, -51.4759, -19.2655
1.132, -1, 8.5879, 19.5464, 29.3717, 23.0337, -51.329, -19.334
1.136, -1, 8.64784, 19.5226, 29.331, 23.1319, -51.1826, -19.4022
1.14, -1, 8.70761, 19.4989, 29.2904, 23.2298, -51.0365, -19.4703
1.144, -1, 8.76721, 19.4753, 29.2499, 23.3274, -50.8908, -19.5381
1.147, -1, 8.82664, 19.4518, 29.2095, 23.4248, -50.7456, -19.6058
1.152, -1, 8.88591, 19.4283, 29.1692, 23.5219, -50.6007, -19.6733
1.156, -1, 8.94502, 19.4049, 29.129, 23.6187, -50.4563, -19.7406
1.16, -1, 9.00397, 19.3815, 29.0889, 23.7153, -50.3122, -19.8077
1.164, -1, 9.06275, 19.3582, 29.049, 23.8116, -50.1686, -19.8747
1.168, -1, 9.12137, 19.335, 29.0091, 23.9076, -50.0253, -19.9414
1.172, -1, 9.17983, 19.3118, 28.9694, 24.0034, -49.8825, -20.008
1.175, -1, 9.23814, 19.2887, 28.9298, 24.0989, -49.74, -20.0744
1.18, -1, 9.29628, 19.2657, 28.8903, 24.1941, -49.5979, -20.1406
1.184, -1, 9.35427, 19.2427, 28.8508, 24.2891, -49.4562, -20.2066
1.188, -1, 9.4121, 19.2198, 28.8115, 24.3838, -49.3148, -20.2724
1.192, -1, 9.46978, 19.1969, 28.7723, 24.4783, -49.1739, -20.3381
1.196, -1, 9.5273, 19.1741, 28.7332, 24.5725, -49.0333, -20.4036
1.2, -1, 9.58467, 19.1514, 28.6943, 24.6665, -48.8931, -20.4689
1.204, -1, 9.64189, 19.1287, 28.6554, 24.7602, -48.7533, -20.5341
1.208, -1, 9.69896, 19.1061, 28.6166, 24.8537, -48.6138, -20.5991
1.212, -1, 9.75588, 19.0836, 28.5779, 24.947, -48.4747, -20.6639
1.216, -1, 9.81265, 19.0611, 28.5393, 25.0399, -48.336, -20.7285
1.22, -1, 9.86927, 19.0386, 28.5008, 25.1327, -48.1976, -20.793
1.224, -1, 9.92575, 19.0163, 28.4624, 25.2252, -48.0596, -20.8573
1.228, -1, 9.98208, 18.9939, 28.4241, 25.3175, -47.9219, -20.9215
1.232, -1, 10.0383, 18.9717, 28.386, 25.4095, -47.7846, -20.9854
1.236, -1, 10.0943, 18.9495, 28.3479, 25.5013, -47.6476, -21.0493
1.24, -1, 10.1502, 18.9273, 28.3099, 25.5929, -47.511, -21.1129
1.244, -1, 10.206, 18.9052, 28.272, 25.6842, -47.3748, -21.1764
1.248, -1, 10.2616, 18.8832, 28.2342, 25.7753, -47.2388, -21.2397
1.252, -1, 10.3171, 18.8612, 28.1965, 25.8662, -47.1033, -21.3029
1.256, -1, 10.3724, 18.8393, 28.1589, 25.9569, -46.968, -21.3659
1.26, -1, 10.4276, 18.8174, 28.1213, 26.0473, -46.8331, -21.4288
1.264, -1, 10.4827, 18.7956, 28.0839, 26.1375, -46.6986, -21.4915
1.267, -1, 10.5376, 18.7738, 28.0466, 26.2275, -46.5643, -21.554
1.272, -1, 10.5924, 18.7521, 28.0093, 26.3172, -46.4304, -21.6164
1.276, -1, 10.647, 18.7304, 27.9722, 26.4067, -46.2969, -21.6786
1.28, -1, 10.7016, 18.7088, 27.9351, 26.4961, -46.1636, -21.7407
1.284, -1, 10.7559, 18.6873, 27.8982, 26.5851, -46.0307, -21.8027
1.288, -1, 10.8102, 18.6658, 27.8613, 26.674, -45.8981, -21.8644
1.292, -1, 10.8643, 18.6443, 27.8245, 26.7627, -45.7658, -21.9261
1.295, -1, 10.9183, 18.6229, 27.7878, 26.8511, -45.6339, -21.9875
1.3, -1, 10.9722, 18.6016, 27.7512, 26.9394, -45.5022, -22.0489
1.304, -1, 11.0259, 18.5803, 27.7147, 27.0274, -45.3709, -22.1101
1.308, -1, 11.0796, 18.5591, 27.6782, 27.1152, -45.2399, -22.1711
1.312, -1, 11.133, 18.5379, 27.6419, 27.2028, -45.1092, -22.232
1.316, -1, 11.1864, 18.5167, 27.6056, 27.2902, -44.9788, -22.2928
1.32, -1, 11.2396, 18.4956, 27.5695, 27.3774, -44.8487, -22.3534
1.324, -1, 11.2927, 18.4746, 27.5334, 27.4644, -44.719, -22.4138
1.328, -1, 11.3457, 18.4536, 27.4974, 27.5512, -44.5895, -22.4742
1.332, -1, 11.3986, 18.4327, 27.4614, 27.6378, -44.4603, -22.5344
1.336, -1, 11.4513, 18.4118, 27.4256, 27.7241, -44.3314, -22.5944
1.34, -1, 11.5039, 18.3909, 27.3898, 27.8103, -44.2029, -22.6543
1.344, -1, 11.5564, 18.3701, 27.3542, 27.8963, -44.0746, -22.7141
1.348, -1, 11.6088, 18.3494, 27.3186, 27.9821, -43.9466, -22.7737
1.352, -1, 11.661, 18.3287, 27.2831, 28.0677, -43.8189, -22.8332
1.356, -1, 11.7132, 18.308, 27.2476, 28.1531, -43.6915, -22.8926
1.36, -1, 11.7652, 18.2874, 27.2123, 28.2383, -43.5644, -22.9518
1.364, -1, 11.8171, 18.2668, 27.177, 28.3233, -43.4376, -23.0109
1.368, -1, 11.8688, 18.2463, 27.1418, 28.4081, -43.3111, -23.0698
1.372, -1, 11.9205, 18.2259, 27.1067, 28.4927, -43.1848, -23.1286
1.376, -1, 11.972, 18.2054, 27.0717, 28.5771, -43.0589, -23.1873
1.38, -1, 12.0235, 18.1851, 27.0367, 28.6614, -42.9332, -23.2459
1.384, -1, 12.0748, 18.1647, 27.0018, 28.7454, -42.8078, -23.3043
1.388, -1, 12.126, 18.1444, 26.967, 28.8293, -42.6827, -23.3626
1.392, -1, 12.1771, 18.1242, 26.9323, 28.913, -42.5578, -23.4208
1.396, -1, 12.228, 18.104, 26.8977, 28.9965, -42.4333, -23.4788
1.4, -1, 12.2789, 18.0839, 26.8631, 29.0798, -42.309, -23.5367
1.404, -1, 12.3296, 18.0637, 26.8286, 29.1629, -42.185, -23.5945
1.408, -1, 12.3803, 18.0437, 26.7942, 29.2459, -42.0612, -23.6522
1.412, -1, 12.4308, 18.0237, 26.7599, 29.3286, -41.9377, -23.7097
1.416, -1, 12.4812, 18.0037, 26.7256, 29.4112, -41.8145, -23.7671
1.42, -1, 12.5315, 17.9838, 26.6914, 29.4936, -41.6915, -23.8244
1.424, -1, 12.5817, 17.9639, 26.6573, 29.5759, -41.5689, -23.8816
1.428, -1, 12.6318, 17.944, 26.6232, 29.6579, -41.4464, -23.9386
1.432, -1, 12.6818, 17.9242, 26.5893, 29.7398, -41.3243, -23.9956
1.436, -1, 12.7317, 17.9044, 26.5554, 29.8215, -41.2024, -24.0523
1.44, -1, 12.7815, 17.8847, 26.5215, 29.9031, -41.0807, -24.109
1.444, -1, 12.8311, 17.865, 26.4878, 29.9844, -40.9594, -24.1656
1.448, -1, 12.8807, 17.8454, 26.4541, 30.0656, -40.8382, -24.222
1.452, -1, 12.9302, 17.8258, 26.4205, 30.1466, -40.7174, -24.2783
1.456, -1, 12.9795, 17.8062, 26.3869, 30.2275, -40.5967, -24.3345
1.46, -1, 13.0288, 17.7867, 26.3534, 30.3082, -40.4764, -24.3906
1.464, -1, 13.0779, 17.7673, 26.32, 30.3887, -40.3563, -24.4466
1.468, -1, 13.127, 17.7478, 26.2867, 30.469, -40.2364, -24.5024
1.472, -1, 13.1759, 17.7284, 26.2534, 30.5492, -40.1168, -24.5582
1.476, -1, 13.2248, 17.7091, 26.2202, 30.6292, -39.9974, -24.6138
1.48, -1, 13.2735, 17.6898, 26.1871, 30.7091, -39.8783, -24.6693
1.484, -1, 13.3222, 17.6705, 26.154, 30.7888, -39.7594, -24.7247
1.488, -1, 13.3707, 17.6512, 26.121, 30.8683, -39.6407, -24.78
1.492, -1, 13.4191, 17.6321, 26.0881, 30.9476, -39.5223, -24.8351
1.496, -1, 13.4675, 17.6129, 26.0553, 31.0268, -39.4042, -24.8902
1.5, -1, 13.5157, 17.5938, 26.0225, 31.1059, -39.2863, -24.9451
1.504, -1, 13.5639, 17.5747, 25.9897, 31.1848, -39.1686, -25
1.508, -1, 13.612, 17.5557, 25.9571, 31.2635, -39.0511, -25.0547
1.512, -1, 13.6599, 17.5366, 25.9245, 31.3421, -38.9339, -25.1093
1.516, -1, 13.7078, 17.5177, 25.8919, 31.4205, -38.8169, -25.1638
1.52, -1, 13.7556, 17.4988, 25.8595, 31.4987, -38.7002, -25.2182
1.524, -1, 13.8032, 17.4799, 25.8271, 31.5768, -38.5837, -25.2725
1.528, -1, 13.8508, 17.461, 25.7947, 31.6548, -38.4674, -25.3267
1.532, -1, 13.8983, 17.4422, 25.7624, 31.7326, -38.3513, -25.3808
1.536, -1, 13.9457, 17.4234, 25.7302, 31.8102, -38.2355, -25.4347
1.54, -1, 13.993, 17.4047, 25.6981, 31.8877, -38.1199, -25.4886
1.544, -1, 14.0402, 17.386, 25.666, 31.965, -38.0045, -25.5424
1.548, -1, 14.0874, 17.3673, 25.634, 32.0422, -37.8893, -25.596
1.552, -1, 14.1344, 17.3486, 25.602, 32.1193, -37.7744, -25.6496
1.556, -1, 14.1813, 17.33, 25.5701, 32.1962, -37.6597, -25.703
1.56, -1, 14.2282, 17.3115, 25.5382, 32.2729, -37.5452, -25.7564
1.564, -1, 14.275, 17.2929, 25.5065, 32.3495, -37.4309, -25.8096
1.568, -1, 14.3216, 17.2745, 25.4747, 32.426, -37.3168, -25.8628
1.572, -1, 14.3682, 17.256, 25.4431, 32.5023, -37.2029, -25.9158
1.576, -1, 14.4147, 17.2376, 25.4115, 32.5785, -37.0893, -25.9688
1.58, -1, 14.4611, 17.2192, 25.3799, 32.6545, -36.9758, -26.0216
1.584, -1, 14.5075, 17.2008, 25.3484, 32.7304, -36.8626, -26.0744
1.588, -1, 14.5537, 17.1825, 25.317, 32.8062, -36.7496, -26.1271
1.592, -1, 14.5999, 17.1642, 25.2856, 32.8818, -36.6368, -26.1796
1.596, -1, 14.6459, 17.1459, 25.2543, 32.9573, -36.5242, -26.2321
1.6, -1, 14.6919, 17.1277, 25.2231, 33.0326, -36.4118, -26.2844
1.604, -1, 14.7378, 17.1095, 25.1919, 33.1078, -36.2996, -26.3367
1.608, -1, 14.7837, 17.0914, 25.1607, 33.1829, -36.1877, -26.3889
1.612, -1, 14.8294, 17.0733, 25.1296, 33.2578, -36.0759, -26.441
1.616, -1, 14.875, 17.0552, 25.0986, 33.3326, -35.9643, -26.493
1.62, -1, 14.9206, 17.0371, 25.0676, 33.4072, -35.8529, -26.5448
1.624, -1, 14.9661, 17.0191, 25.0367, 33.4817, -35.7418, -26.5966
1.628, -1, 15.0115, 17.0011, 25.0058, 33.5561, -35.6308, -26.6483
1.632, -1, 15.0568, 16.9831, 24.975, 33.6304, -35.52, -26.7
1.636, -1, 15.1021, 16.9652, 24.9443, 33.7045, -35.4094, -26.7515
1.64, -1, 15.1472, 16.9473, 24.9136, 33.7785, -35.2991, -26.8029
1.644, -1, 15.1923, 16.9294, 24.8829, 33.8523, -35.1889, -26.8543
1.648, -1, 15.2373, 16.9116, 24.8524, 33.9261, -35.0789, -26.9055
1.652, -1, 15.2822, 16.8938, 24.8218, 33.9997, -34.9691, -26.9567
1.656, -1, 15.3271, 16.876, 24.7913, 34.0731, -34.8595, -27.0077
1.66, -1, 15.3719, 16.8583, 24.7609, 34.1465, -34.75, -27.0587
1.664, -1, 15.4166, 16.8406, 24.7305, 34.2197, -34.6408, -27.1096
1.668, -1, 15.4612, 16.8229, 24.7002, 34.2928, -34.5318, -27.1604
1.672, -1, 15.5057, 16.8053, 24.6699, 34.3657, -34.4229, -27.2111
1.676, -1, 15.5502, 16.7876, 24.6397, 34.4386, -34.3143, -27.2618
1.68, -1, 15.5946, 16.7701, 24.6095, 34.5113, -34.2058, -27.3123
1.684, -1, 15.6389, 16.7525, 24.5794, 34.5839, -34.0975, -27.3628
1.688, -1, 15.6831, 16.735, 24.5494, 34.6563, -33.9894, -27.4131
1.692, -1, 15.7272, 16.7175, 24.5193, 34.7287, -33.8815, -27.4634
1.696, -1, 15.7713, 16.7, 24.4894, 34.8009, -33.7737, -27.5136
1.7, -1, 15.8153, 16.6826, 24.4595, 34.873, -33.6662, -27.5637
1.704, -1, 15.8593, 16.6652, 24.4296, 34.945, -33.5588, -27.6138
1.708, -1, 15.9031, 16.6478, 24.3998, 35.0168, -33.4516, -27.6637
1.712, -1, 15.9469, 16.6304, 24.37, 35.0886, -33.3446, -27.7136
1.716, -1, 15.9906, 16.6131, 24.3403, 35.1602, -33.2377, -27.7634
1.72, -1, 16.0343, 16.5958, 24.3107, 35.2317, -33.1311, -27.8131
1.724, -1, 16.0778, 16.5786, 24.281, 35.303, -33.0246, -27.8627
1.728, -1, 16.1213, 16.5613, 24.2515, 35.3743, -32.9183, -27.9122
1.732, -1, 16.1648, 16.5441, 24.222, 35.4454, -32.8121, -27.9617
1.736, -1, 16.2081, 16.5269, 24.1925, 35.5165, -32.7062, -28.011
1.74, -1, 16.2514, 16.5098, 24.1631, 35.5874, -32.6004, -28.0603
1.744, -1, 16.2946, 16.4927, 24.1337, 35.6582, -32.4947, -28.1096
1.748, -1, 16.3378, 16.4756, 24.1044, 35.7289, -32.3893, -28.1587
1.752, -1, 16.3808, 16.4585, 24.0751, 35.7994, -32.284, -28.2077
1.756, -1, 16.4238, 16.4414, 24.0459, 35.8699, -32.1789, -28.2567
1.76, -1, 16.4668, 16.4244, 24.0167, 35.9402, -32.074, -28.3056
1.764, -1, 16.5096, 16.4074, 23.9875, 36.0105, -31.9692, -28.3544
1.768, -1, 16.5524, 16.3905, 23.9584, 36.0806, -31.8646, -28.4032
1.772, -1, 16.5952, 16.3736, 23.9294, 36.1506, -31.7602, -28.4518
1.776, -1, 16.6378, 16.3566, 23.9004, 36.2205, -31.6559, -28.5004
1.78, -1, 16.6804, 16.3398, 23.8714, 36.2902, -31.5518, -28.5489
1.784, -1, 16.7229, 16.3229, 23.8425, 36.3599, -31.4478, -28.5973
1.788, -1, 16.7654, 16.3061, 23.8137, 36.4295, -31.344, -28.6457
1.792, -1, 16.8078, 16.2893, 23.7849, 36.4989, -31.2404, -28.694
1.796, -1, 16.8501, 16.2725, 23.7561, 36.5683, -31.137, -28.7422
1.8, -1, 16.8924, 16.2558, 23.7274, 36.6375, -31.0337, -28.7903
1.804, -1, 16.9346, 16.239, 23.6987, 36.7067, -30.9305, -28.8384
1.808, -1, 16.9767, 16.2224, 23.67, 36.7757, -30.8276, -28.8863
1.812, -1, 17.0188, 16.2057, 23.6414, 36.8446, -30.7248, -28.9343
1.816, -1, 17.0608, 16.189, 23.6129, 36.9134, -30.6221, -28.9821
1.82, -1, 17.1027, 16.1724, 23.5844, 36.9821, -30.5196, -29.0298
1.824, -1, 17.1445, 16.1559, 23.5559, 37.0507, -30.4172, -29.0775
1.828, -1, 17.186, 16.1394, 23.5275, 37.1192, -30.3151, -29.1251
1.832, -1, 17.2272, 16.1231, 23.4991, 37.1876, -30.2131, -29.1727
1.836, -1, 17.2677, 16.107, 23.4708, 37.2557, -30.1114, -29.2201
1.84, -1, 17.3076, 16.0912, 23.4426, 37.3237, -30.01, -29.2673
1.844, -1, 17.3467, 16.0757, 23.4146, 37.3913, -29.9092, -29.3143
1.848, -1, 17.3848, 16.0608, 23.3867, 37.4584, -29.8092, -29.3609
1.852, -1, 17.422, 16.0463, 23.3592, 37.5247, -29.7102, -29.407
1.856, -1, 17.458, 16.0323, 23.332, 37.59, -29.6128, -29.4524
1.86, -1, 17.4929, 16.019, 23.3054, 37.654, -29.5174, -29.4969
1.864, -1, 17.5264, 16.0063, 23.2795, 37.7163, -29.4245, -29.5402
1.868, -1, 17.5585, 15.9944, 23.2545, 37.7765, -29.3348, -29.582
1.872, -1, 17.589, 15.9832, 23.2306, 37.8341, -29.2489, -29.6221
1.876, -1, 17.6179, 15.9726, 23.2078, 37.8888, -29.1674, -29.66
1.88, -1, 17.6452, 15.9627, 23.1865, 37.94, -29.0911, -29.6956
1.884, -1, 17.6708, 15.9533, 23.1668, 37.9874, -29.0204, -29.7286
1.888, -1, 17.6949, 15.9443, 23.1489, 38.0306, -28.9559, -29.7586
1.892, -1, 17.7175, 15.9356, 23.1327, 38.0695, -28.8979, -29.7857
1.896, -1, 17.7385, 15.9272, 23.1184, 38.1039, -28.8466, -29.8096
1.9, -1, 17.758, 15.9192, 23.106, 38.1339, -28.8018, -29.8304
1.904, -1, 17.7759, 15.9115, 23.0954, 38.1595, -28.7636, -29.8482
1.908, -1, 17.792, 15.9045, 23.0865, 38.181, -28.7315, -29.8632
1.912, -1, 17.8065, 15.898, 23.0792, 38.1987, -28.7051, -29.8755
1.916, -1, 17.8195, 15.8921, 23.0733, 38.2129, -28.6838, -29.8854
1.92, -1, 17.831, 15.8868, 23.0687, 38.2241, -28.667, -29.8932
1.924, -1, 17.8411, 15.8821, 23.0652, 38.2327, -28.6542, -29.8991
1.928, -1, 17.85, 15.8781, 23.0626, 38.2391, -28.6446, -29.9036
1.932, -1, 17.8576, 15.8747, 23.0607, 38.2438, -28.6375, -29.9068
1.936, -1, 17.8638, 15.872, 23.0593, 38.2471, -28.6325, -29.9091
1.94, 2, 17.8689, 15.8698, 23.0584, 38.2494, -28.629, -29.9108
1.944, 2, 17.8727, 15.8682, 23.0577, 38.251, -28.6266, -29.9119
1.948, 2, 17.8755, 15.867, 23.0573, 38.2521, -28.625, -29.9126
1.952, 2, 17.8775, 15.8662, 23.057, 38.2528, -28.6239, -29.9131
1.956, 2, 17.8788, 15.8657, 23.0568, 38.2533, -28.6231, -29.9135
1.96, 2, 17.8797, 15.8653, 23.0567, 38.2537, -28.6226, -29.9137
1.964, 2, 17.8803, 15.8651, 23.0566, 38.2539, -28.6222, -29.9139
1.968, 2, 17.8807, 15.8649, 23.0565, 38.254, -28.622, -29.914
1.972, 2, 17.881, 15.8648, 23.0565, 38.2541, -28.6219, -29.9141
1.976, 2, 17.8812, 15.8647, 23.0564, 38.2542, -28.6217, -29.9141
1.98, 2, 17.8813, 15.8647, 23.0564, 38.2543, -28.6217, -29.9142
1.984, 2, 17.8814, 15.8646, 23.0564, 38.2543, -28.6216, -29.9142
1.988, 2, 17.8814, 15.8646, 23.0564, 38.2543, -28.6216, -29.9142
1.992, 2, 17.8815, 15.8646, 23.0564, 38.2543, -28.6216, -29.9142
1.996, 2, 17.8815, 15.8646, 23.0564, 38.2543, -28.6216, -29.9142
1.999, 2, 17.8815, 15.8646, 23.0564, 38.2544, -28.6215, -29.9142
2.004, 2, 17.8815, 15.8646, 23.0564, 38.2544, -28.6215, -29.9142
2.008, 2, 17.8816, 15.8646, 23.0564, 38.2544, -28.6215, -29.9142
2.012, 2, 17.8816, 15.8646, 23.0564, 38.2544, -28.6215, -29.9142
2.015, 2, 17.8816, 15.8646, 23.0564, 38.2544, -28.6215, -29.9142
2.019, 2, 17.8816, 15.8646, 23.0564, 38.2544, -28.6215, -29.9142
2.024, 2, 17.8816, 15.8646, 23.0564, 38.2544, -28.6215, -29.9142
2.028, 2, 17.8816, 15.8645, 23.0564, 38.2544, -28.6215, -29.9142
2.031, 2, 17.8816, 15.8645, 23.0564, 38.2544, -28.6215, -29.9142
2.036, 2, 17.8816, 15.8645, 23.0564, 38.2544, -28.6215, -29.9142
2.04, 2, 17.8816, 15.8645, 23.0564, 38.2544, -28.6215, -29.9142
2.044, 2, 17.8816, 15.8645, 23.0564, 38.2544, -28.6215, -29.9142
2.048, 2, 17.8816, 15.8645, 23.0564, 38.2544, -28.6215, -29.9142
2.051, 2, 17.8816, 15.8645, 23.0564, 38.2544, -28.6215, -29.9142
2.055, 2, 17.8816, 15.8645, 23.0564, 38.2544, -28.6215, -29.9142
2.06, 2, 17.8816, 15.8645, 23.0564, 38.2544, -28.6215, -29.9142
2.064, 2, 17.8816, 15.8645, 23.0564, 38.2544, -28.6215, -29.9142
2.068, 2, 17.8816, 15.8645, 23.0564, 38.2544, -28.6215, -29.9142
2.071, 2, 17.8816, 15.8645, 23.0564, 38.2544, -28.6215, -29.9142
2.076, 2, 17.8816, 15.8645, 23.0564, 38.2544, -28.6215, -29.9142
2.08, 2, 17.8816, 15.8645, 23.0564, 38.2544, -28.6215, -29.9142
2.084, 2, 17.8816, 15.8645, 23.0564, 38.2544, -28.6215, -29.9142
2.087, 2, 17.8816, 15.8645, 23.0564, 38.2544, -28.6215, -29.9142
2.092, 2, 17.8816, 15.8645, 23.0564, 38.2544, -28.6215, -29.9142
2.096, 2, 17.8816, 15.8645, 23.0564, 38.2544, -28.6215, -29.9142
2.1, 2, 17.8816, 15.8645, 23.0564, 38.2544, -28.6215, -29.9142
2.104, 2, 17.8816, 15.8645, 23.0564, 38.2544, -28.6215, -29.9142
2.107, 2, 17.8816, 15.8645, 23.0564, 38.2544, -28.6215, -29.9142
2.111, 2, 17.8816, 15.8645, 23.0564, 38.2544, -28.6215, -29.9142
2.116, 2, 17.8816, 15.8645, 23.0564, 38.2544, -28.6215, -29.9142
2.12, 2, 17.8816, 15.8645, 23.0564, 38.2544, -28.6215, -29.9142
2.124, 2, 17.8816, 15.8645, 23.0564, 38.2544, -28.6215, -29.9142
2.127, 2, 17.8816, 15.8645, 23.0564, 38.2544, -28.6215, -29.9142
2.132, 2, 17.8816, 15.8645, 23.0564, 38.2544, -28.6215, -29.9142
2.136, 2, 17.8816, 15.8645, 23.0564, 38.2544, -28.6215, -29.9142
2.14, 2, 17.8816, 15.8645, 23.0564, 38.2544, -28.6215, -29.9142
2.143, 2, 17.8816, 15.8645, 23.0564, 38.2544, -28.6215, -29.9142
2.148, 2, 17.8816, 15.8645, 23.0564, 38.2544, -28.6215, -29.9142
2.152, 2, 17.8816, 15.8645, 23.0564, 38.2544, -28.6215, -29.9142
2.156, 2, 17.8816, 15.8645, 23.0564, 38.2544, -28.6215, -29.9142
2.16, 2, 17.8816, 15.8645, 23.0564, 38.2544, -28.6215, -29.9142
2.163, 2, 17.8816, 15.8645, 23.0564, 38.2544, -28.6215, -29.9142
2.168, 2, 17.8816, 15.8645, 23.0564, 38.2544, -28.6215, -29.9142
2.172, 2, 17.8816, 15.8645, 23.0564, 38.2544, -28.6215, -29.9142
2.176, 2, 17.8816, 15.8645, 23.0564, 38.2544, -28.6215, -29.9142
2.179, 2, 17.8816, 15.8645, 23.0564, 38.2544, -28.6215, -29.9142
2.184, 2, 17.8816, 15.8645, 23.0564, 38.2544, -28.6215, -29.9142
2.188, 2, 17.8816, 15.8645, 23.0564, 38.2544, -28.6215, -29.9142
2.192, 2, 17.8816, 15.8645, 23.0564, 38.2544, -28.6215, -29.9142
2.196, 2, 17.8816, 15.8645, 23.0564, 38.2544, -28.6215, -29.9142
2.199, 2, 17.8816, 15.8645, 23.0564, 38.2544, -28.6215, -29.9142
2.204, 2, 17.8816, 15.8645, 23.0564, 38.2544, -28.6215, -29.9142
2.208, 2, 17.8816, 15.8645, 23.0564, 38.2544, -28.6215, -29.9142
2.212, 2, 17.8816, 15.8645, 23.0564, 38.2544, -28.6215, -29.9142
2.216, 2, 17.8816, 15.8645, 23.0564, 38.2544, -28.6215, -29.9142
2.219, 2, 17.8816, 15.8645, 23.0564, 38.2544, -28.6215, -29.9142
2.224, 2, 17.8816, 15.8645, 23.0564, 38.2544, -28.6215, -29.9142
2.228, 2, 17.8816, 15.8645, 23.0564, 38.2544, -28.6215, -29.9142
2.232, 2, 17.8816, 15.8645, 23.0564, 38.2544, -28.6215, -29.9142
2.235, 2, 17.8816, 15.8645, 23.0564, 38.2544, -28.6215, -29.9142
2.24, 2, 17.8816, 15.8645, 23.0564, 38.2544, -28.6215, -29.9142
2.244, 2, 17.8816, 15.8645, 23.0564, 38.2544, -28.6215, -29.9142
2.248, 2, 17.8816, 15.8645, 23.0564, 38.2544, -28.6215, -29.9142
2.252, 2, 17.8816, 15.8645, 23.0564, 38.2544, -28.6215, -29.9142
2.255, 2, 17.8816, 15.8645, 23.0564, 38.2544, -28.6215, -29.9142
2.259, 2, 17.8816, 15.8645, 23.0564, 38.2544, -28.6215, -29.9142
2.264, 2, 17.8816, 15.8645, 23.0564, 38.2544, -28.6215, -29.9142
2.268, 2, 17.8816, 15.8645, 23.0564, 38.2544, -28.6215, -29.9142
2.272, 2, 17.8816, 15.8645, 23.0564, 38.2544, -28.6215, -29.9142
2.275, 2, 17.8816, 15.8645, 23.0564, 38.2544, -28.6215, -29.9142
2.28, 2, 17.8816, 15.8645, 23.0564, 38.2544, -28.6215, -29.9142
2.284, 2, 17.8816, 15.8645, 23.0564, 38.2544, -28.6215, -29.9142
2.288, 2, 17.8816, 15.8645, 23.0564, 38.2544, -28.6215, -29.9142
2.291, 2, 17.8816, 15.8645, 23.0564, 38.2544, -28.6215, -29.9142
2.296, 2, 17.8816, 15.8645, 23.0564, 38.2544, -28.6215, -29.9142
2.3, 2, 17.8816, 15.8645, 23.0564, 38.2544, -28.6215, -29.9142
2.304, 2, 17.8816, 15.8645, 23.0564, 38.2544, -28.6215, -29.9142
2.308, 2, 17.8816, 15.8645, 23.0564, 38.2544, -28.6215, -29.9142
2.311, 2, 17.8816, 15.8645, 23.0564, 38.2544, -28.6215, -29.9142
2.316, 2, 17.8816, 15.8645, 23.0564, 38.2544, -28.6215, -29.9142
2.32, 2, 17.8816, 15.8645, 23.0564, 38.2544, -28.6215, -29.9142
2.324, 2, 17.8816, 15.8645, 23.0564, 38.2544, -28.6215, -29.9142
2.328, 2, 17.8816, 15.8645, 23.0564, 38.2544, -28.6215, -29.9142
2.331, 2, 17.8816, 15.8645, 23.0564, 38.2544, -28.6215, -29.9142
2.336, 2, 17.8816, 15.8645, 23.0564, 38.2544, -28.6215, -29.9142
2.34, 2, 17.8816, 15.8645, 23.0564, 38.2544, -28.6215, -29.9142
2.344, 2, 17.8816, 15.8645, 23.0564, 38.2544, -28.6215, -29.9142
2.347, 2, 17.8816, 15.8645, 23.0564, 38.2544, -28.6215, -29.9142
2.352, 2, 17.8816, 15.8645, 23.0564, 38.2544, -28.6215, -29.9142
2.356, 2, 17.8816, 15.8645, 23.0564, 38.2544, -28.6215, -29.9142
2.36, 2, 17.8816, 15.8645, 23.0564, 38.2544, -28.6215, -29.9142
2.364, 2, 17.8816, 15.8645, 23.0564, 38.2544, -28.6215, -29.9142
2.367, 2, 17.8816, 15.8645, 23.0564, 38.2544, -28.6215, -29.9142
2.372, 2, 17.8816, 15.8645, 23.0564, 38.2544, -28.6215, -29.9142
2.376, 2, 17.8816, 15.8645, 23.0564, 38.2544, -28.6215, -29.9142
2.38, 2, 17.8816, 15.8645, 23.0564, 38.2544, -28.6215, -29.9142
2.383, 2, 17.8816, 15.8645, 23.0564, 38.2544, -28.6215, -29.9142
2.388, 2, 17.8816, 15.8645, 23.0564, 38.2544, -28.6215, -29.9142
2.392, 2, 17.8816, 15.8645, 23.0564, 38.2544, -28.6215, -29.9142
2.396, 2, 17.8816, 15.8645, 23.0564, 38.2544, -28.6215, -29.9142
2.4, 2, 17.8816, 15.8645, 23.0564, 38.2544, -28.6215, -29.9142
2.403, 2, 17.8816, 15.8645, 23.0564, 38.2544, -28.6215, -29.9142
2.408, 2, 17.8816, 15.8645, 23.0564, 38.2544, -28.6215, -29.9142
2.412, 2, 17.8816, 15.8645, 23.0564, 38.2544, -28.6215, -29.9142
2.416, 2, 17.8816, 15.8645, 23.0564, 38.2544, -28.6215, -29.9142
2.42, 2, 17.8816, 15.8645, 23.0564, 38.2544, -28.6215, -29.9142
2.423, 2, 17.8816, 15.8645, 23.0564, 38.2544, -28.6215, -29.9142
2.428, 2, 17.8816, 15.8645, 23.0564, 38.2544, -28.6215, -29.9142
2.432, 2, 17.8816, 15.8645, 23.0564, 38.2544, -28.6215, -29.9142
2.436, 2, 17.8816, 15.8645, 23.0564, 38.2544, -28.6215, -29.9142
2.439, 2, 17.8816, 15.8645, 23.0564, 38.2544, -28.6215, -29.9142
2.444, 2, 17.8816, 15.8645, 23.0564, 38.2544, -28.6215, -29.9142
2.448, 2, 17.8816, 15.8645, 23.0564, 38.2544, -28.6215, -29.9142
2.452, 2, 17.8816, 15.8645, 23.0564, 38.2544, -28.6215, -29.9142
2.456, 2, 17.8816, 15.8645, 23.0564, 38.2544, -28.6215, -29.9142
2.459, 2, 17.8816, 15.8645, 23.0564, 38.2544, -28.6215, -29.9142
2.464, 2, 17.8816, 15.8645, 23.0564, 38.2544, -28.6215, -29.9142
2.468, 2, 17.8816, 15.8645, 23.0564, 38.2544, -28.6215, -29.9142
2.472, 2, 17.8816, 15.8645, 23.0564, 38.2544, -28.6215, -29.9142
2.476, 2, 17.8816, 15.8645, 23.0564, 38.2544, -28.6215, -29.9142
2.479, 2, 17.8816, 15.8645, 23.0564, 38.2544, -28.6215, -29.9142
2.484, 2, 17.8816, 15.8645, 23.0564, 38.2544, -28.6215, -29.9142
2.488, 2, 17.8816, 15.8645, 23.0564, 38.2544, -28.6215, -29.9142
2.492, 2, 17.8816, 15.8645, 23.0564, 38.2544, -28.6215, -29.9142
2.495, 2, 17.8816, 15.8645, 23.0564, 38.2544, -28.6215, -29.9142
2.5, 2, 17.8816, 15.8645, 23.0564, 38.2544, -28.6215, -29.9142
2.504, 2, 17.8816, 15.8645, 23.0564, 38.2544, -28.6215, -29.9142
2.508, 2, 17.8816, 15.8645, 23.0564, 38.2544, -28.6215, -29.9142
2.512, 2, 17.8816, 15.8645, 23.0564, 38.2544, -28.6215, -29.9142
2.515, 2, 17.8816, 15.8645, 23.0564, 38.2544, -28.6215, -29.9142
2.52, 2, 17.8816, 15.8645, 23.0564, 38.2544, -28.6215, -29.9142
2.524, 2, 17.8816, 15.8645, 23.0564, 38.2544, -28.6215, -29.9142
2.528, 2, 17.8816, 15.8645, 23.0564, 38.2544, -28.6215, -29.9142
2.531, 2, 17.8816, 15.8645, 23.0564, 38.2544, -28.6215, -29.9142
2.536, 2, 17.8816, 15.8645, 23.0564, 38.2544, -28.6215, -29.9142
2.54, 2, 17.8816, 15.8645, 23.0564, 38.2544, -28.6215, -29.9142
2.544, 2, 17.8816, 15.8645, 23.0564, 38.2544, -28.6215, -29.9142
2.548, 2, 17.8816, 15.8645, 23.0564, 38.2544, -28.6215, -29.9142
2.551, 2, 17.8816, 15.8645, 23.0564, 38.2544, -28.6215, -29.9142
2.556, 2, 17.8816, 15.8645, 23.0564, 38.2544, -28.6215, -29.9142
2.56, 2, 17.8816, 15.8645, 23.0564, 38.2544, -28.6215, -29.9142
2.564, 2, 17.8816, 15.8645, 23.0564, 38.2544, -28.6215, -29.9142
2.568, 2, 17.8816, 15.8645, 23.0564, 38.2544, -28.6215, -29.9142
2.571, 2, 17.8816, 15.8645, 23.0564, 38.2544, -28.6215, -29.9142
2.576, 2, 17.8816, 15.8645, 23.0564, 38.2544, -28.6215, -29.9142
2.58, 2, 17.8816, 15.8645, 23.0564, 38.2544, -28.6215, -29.9142
2.584, 2, 17.8816, 15.8645, 23.0564, 38.2544, -28.6215, -29.9142
2.587, 2, 17.8816, 15.8645, 23.0564, 38.2544, -28.6215, -29.9142
2.592, 2, 17.8816, 15.8645, 23.0564, 38.2544, -28.6215, -29.9142
2.596, 2, 17.8816, 15.8645, 23.0564, 38.2544, -28.6215, -29.9142
2.6, 2, 17.8816, 15.8645, 23.0564, 38.2544, -28.6215, -29.9142
2.604, 2, 17.8816, 15.8645, 23.0564, 38.2544, -28.6215, -29.9142
2.607, 2, 17.8816, 15.8645, 23.0564, 38.2544, -28.6215, -29.9142
2.612, 2, 17.8816, 15.8645, 23.0564, 38.2544, -28.6215, -29.9142
2.616, 2, 17.8816, 15.8645, 23.0564, 38.2544, -28.6215, -29.9142
2.62, 2, 17.8816, 15.8645, 23.0564, 38.2544, -28.6215, -29.9142
2.624, 2, 17.8816, 15.8645, 23.0564, 38.2544, -28.6215, -29.9142
2.627, 2, 17.8816, 15.8645, 23.0564, 38.2544, -28.6215, -29.9142
2.632, 2, 17.8816, 15.8645, 23.0564, 38.2544, -28.6215, -29.9142
2.636, 2, 17.8816, 15.8645, 23.0564, 38.2544, -28.6215, -29.9142
2.64, 2, 17.8816, 15.8645, 23.0564, 38.2544, -28.6215, -29.9142
2.643, 2, 17.8816, 15.8645, 23.0564, 38.2544, -28.6215, -29.9142
2.648, 2, 17.8816, 15.8645, 23.0564, 38.2544, -28.6215, -29.9142
2.652, 2, 17.8816, 15.8645, 23.0564, 38.2544, -28.6215, -29.9142
2.656, 2, 17.8816, 15.8645, 23.0564, 38.2544, -28.6215, -29.9142
2.66, 2, 17.8816, 15.8645, 23.0564, 38.2544, -28.6215, -29.9142
2.663, 2, 17.8816, 15.8645, 23.0564, 38.2544, -28.6215, -29.9142
2.668, 2, 17.8816, 15.8645, 23.0564, 38.2544, -28.6215, -29.9142
2.672, 2, 17.8816, 15.8645, 23.0564, 38.2544, -28.6215, -29.9142
2.676, 2, 17.8816, 15.8645, 23.0564, 38.2544, -28.6215, -29.9142
2.679, 2, 17.8816, 15.8645, 23.0564, 38.2544, -28.6215, -29.9142
2.684, 2, 17.8816, 15.8645, 23.0564, 38.2544, -28.6215, -29.9142
2.688, 2, 17.8816, 15.8645, 23.0564, 38.2544, -28.6215, -29.9142
2.692, 2, 17.8816, 15.8645, 23.0564, 38.2544, -28.6215, -29.9142
2.696, 2, 17.8816, 15.8645, 23.0564, 38.2544, -28.6215, -29.9142
2.699, 2, 17.8816, 15.8645, 23.0564, 38.2544, -28.6215, -29.9142
2.704, 2, 17.8816, 15.8645, 23.0564, 38.2544, -28.6215, -29.9142
2.708, 2, 17.8816, 15.8645, 23.0564, 38.2544, -28.6215, -29.9142
2.712, 2, 17.8816, 15.8645, 23.0564, 38.2544, -28.6215, -29.9142
2.716, 2, 17.8816, 15.8645, 23.0564, 38.2544, -28.6215, -29.9142
2.719, 2, 17.8816, 15.8645, 23.0564, 38.2544, -28.6215, -29.9142
2.724, 2, 17.8816, 15.8645, 23.0564, 38.2544, -28.6215, -29.9142
2.728, 2, 17.8816, 15.8645, 23.0564, 38.2544, -28.6215, -29.9142
2.732, 2, 17.8816, 15.8645, 23.0564, 38.2544, -28.6215, -29.9142
2.735, 2, 17.8816, 15.8645, 23.0564, 38.2544, -28.6215, -29.9142
2.74, 2, 17.8816, 15.8645, 23.0564, 38.2544, -28.6215, -29.9142
2.744, 2, 17.8816, 15.8645, 23.0564, 38.2544, -28.6215, -29.9142
2.748, 2, 17.8816, 15.8645, 23.0564, 38.2544, -28.6215, -29.9142
2.752, 2, 17.8816, 15.8645, 23.0564, 38.2544, -28.6215, -29.9142
2.755, 2, 17.8816, 15.8645, 23.0564, 38.2544, -28.6215, -29.9142
2.76, 2, 17.8816, 15.8645, 23.0564, 38.2544, -28.6215, -29.9142
2.764, 2, 17.8816, 15.8645, 23.0564, 38.2544, -28.6215, -29.9142
2.768, 2, 17.8816, 15.8645, 23.0564, 38.2544, -28.6215, -29.9142
2.772, 2, 17.8816, 15.8645, 23.0564, 38.2544, -28.6215, -29.9142
2.775, 2, 17.8816, 15.8645, 23.0564, 38.2544, -28.6215, -29.9142
2.78, 2, 17.8816, 15.8645, 23.0564, 38.2544, -28.6215, -29.9142
2.784, 2, 17.8816, 15.8645, 23.0564, 38.2544, -28.6215, -29.9142
2.788, 2, 17.8816, 15.8645, 23.0564, 38.2544, -28.6215, -29.9142
2.791, 2, 17.8816, 15.8645, 23.0564, 38.2544, -28.6215, -29.9142
2.796, 2, 17.8816, 15.8645, 23.0564, 38.2544, -28.6215, -29.9142
2.8, 2, 17.8816, 15.8645, 23.0564, 38.2544, -28.6215, -29.9142
2.804, 2, 17.8816, 15.8645, 23.0564, 38.2544, -28.6215, -29.9142
2.808, 2, 17.8816, 15.8645, 23.0564, 38.2544, -28.6215, -29.9142
2.811, 2, 17.8816, 15.8645, 23.0564, 38.2544, -28.6215, -29.9142
2.816, 2, 17.8816, 15.8645, 23.0564, 38.2544, -28.6215, -29.9142
2.82, 2, 17.8816, 15.8645, 23.0564, 38.2544, -28.6215, -29.9142
2.824, 2, 17.8816, 15.8645, 23.0564, 38.2544, -28.6215, -29.9142
2.828, 2, 17.8816, 15.8645, 23.0564, 38.2544, -28.6215, -29.9142
2.831, 2, 17.8816, 15.8645, 23.0564, 38.2544, -28.6215, -29.9142
2.836, 2, 17.8816, 15.8645, 23.0564, 38.2544, -28.6215, -29.9142
2.84, 2, 17.8816, 15.8645, 23.0564, 38.2544, -28.6215, -29.9142
2.844, 2, 17.8816, 15.8645, 23.0564, 38.2544, -28.6215, -29.9142
2.847, 2, 17.8816, 15.8645, 23.0564, 38.2544, -28.6215, -29.9142
2.852, 2, 17.8816, 15.8645, 23.0564, 38.2544, -28.6215, -29.9142
2.856, 2, 17.8816, 15.8645, 23.0564, 38.2544, -28.6215, -29.9142
2.86, 2, 17.8816, 15.8645, 23.0564, 38.2544, -28.6215, -29.9142
2.864, 2, 17.8816, 15.8645, 23.0564, 38.2544, -28.6215, -29.9142
2.867, 2, 17.8816, 15.8645, 23.0564, 38.2544, -28.6215, -29.9142
2.872, 2, 17.8816, 15.8645, 23.0564, 38.2544, -28.6215, -29.9142
2.876, 2, 17.8816, 15.8645, 23.0564, 38.2544, -28.6215, -29.9142
2.88, 2, 17.8816, 15.8645, 23.0564, 38.2544, -28.6215, -29.9142
2.883, 2, 17.8816, 15.8645, 23.0564, 38.2544, -28.6215, -29.9142
2.888, 2, 17.8816, 15.8645, 23.0564, 38.2544, -28.6215, -29.9142
2.892, 2, 17.8816, 15.8645, 23.0564, 38.2544, -28.6215, -29.9142
2.896, 2, 17.8816, 15.8645, 23.0564, 38.2544, -28.6215, -29.9142
2.9, 2, 17.8816, 15.8645, 23.0564, 38.2544, -28.6215, -29.9142
2.903, 2, 17.8816, 15.8645, 23.0564, 38.2544, -28.6215, -29.9142
2.908, 2, 17.8816, 15.8645, 23.0564, 38.2544, -28.6215, -29.9142
2.912, 2, 17.8816, 15.8645, 23.0564, 38.2544, -28.6215, -29.9142
2.916, 2, 17.8816, 15.8645, 23.0564, 38.2544, -28.6215, -29.9142
2.92, 2, 17.8816, 15.8645, 23.0564, 38.2544, -28.6215, -29.9142
2.923, 2, 17.8816, 15.8645, 23.0564, 38.2544, -28.6215, -29.9142
2.928, 2, 17.8816, 15.8645, 23.0564, 38.2544, -28.6215, -29.9142
2.932, 2, 17.8816, 15.8645, 23.0564, 38.2544, -28.6215, -29.9142
2.936, 2, 17.8816, 15.8645, 23.0564, 38.2544, -28.6215, -29.9142
2.939, 2, 17.8816, 15.8645, 23.0564, 38.2544, -28.6215, -29.9142
2.944, 2, 17.8816, 15.8645, 23.0564, 38.2544, -28.6215, -29.9142
2.948, 2, 17.8816, 15.8645, 23.0564, 38.2544, -28.6215, -29.9142
2.952, 2, 17.8816, 15.8645, 23.0564, 38.2544, -28.6215, -29.9142
2.956, 2, 17.8816, 15.8645, 23.0564, 38.2544, -28.6215, -29.9142
2.959, 2, 17.8816, 15.8645, 23.0564, 38.2544, -28.6215, -29.9142
2.964, 2, 17.8816, 15.8645, 23.0564, 38.2544, -28.6215, -29.9142
2.968, 2, 17.8816, 15.8645, 23.0564, 38.2544, -28.6215, -29.9142
2.972, 2, 17.8816, 15.8645, 23.0564, 38.2544, -28.6215, -29.9142
2.976, 2, 17.8816, 15.8645, 23.0564, 38.2544, -28.6215, -29.9142
2.98, 2, 17.8816, 15.8645, 23.0564, 38.2544, -28.6215, -29.9142
2.984, 2, 17.8816, 15.8645, 23.0564, 38.2544, -28.6215, -29.9142
2.988, 2, 17.8816, 15.8645, 23.0564, 38.2544, -28.6215, -29.9142
2.992, 2, 17.8816, 15.8645, 23.0564, 38.2544, -28.6215, -29.9142
2.995, 2, 17.8816, 15.8645, 23.0564, 38.2544, -28.6215, -29.9142
3, 2, 17.8816, 15.8645, 23.0564, 38.2544, -28.6215, -29.9142
3.004, 2, 17.8816, 15.8645, 23.0564, 38.2544, -28.6215, -29.9142
3.008, 2, 17.8816, 15.8645, 23.0564, 38.2544, -28.6215, -29.9142
3.012, 2, 17.8816, 15.8645, 23.0564, 38.2544, -28.6215, -29.9142
3.015, 4, 17.8816, 15.8645, 23.0564, 38.2544, -28.6215, -29.9142
3.02, 4, 17.8816, 15.8645, 23.0564, 38.2544, -28.6215, -29.9142
3.024, 4, 17.8816, 15.8645, 23.0564, 38.2544, -28.6215, -29.9142
3.028, 4, 17.8816, 15.8645, 23.0564, 38.2544, -28.6215, -29.9142
3.031, 4, 17.8816, 15.8645, 23.0564, 38.2544, -28.6215, -29.9142
3.036, 4, 17.8816, 15.8645, 23.0564, 38.2544, -28.6215, -29.9142
3.04, 4, 17.8816, 15.8645, 23.0564, 38.2544, -28.6215, -29.9142
3.044, 4, 17.8816, 15.8645, 23.0564, 38.2544, -28.6215, -29.9142
3.048, 4, 17.8816, 15.8645, 23.0564, 38.2544, -28.6215, -29.9142
3.051, 4, 17.8816, 15.8645, 23.0564, 38.2544, -28.6215, -29.9142
3.056, 4, 17.8816, 15.8645, 23.0564, 38.2544, -28.6215, -29.9142
3.06, 4, 17.8816, 15.8645, 23.0564, 38.2544, -28.6215, -29.9142
3.064, 4, 17.8816, 15.8645, 23.0564, 38.2544, -28.6215, -29.9142
3.068, 4, 17.8816, 15.8645, 23.0564, 38.2544, -28.6215, -29.9142
3.071, 4, 17.8816, 15.8645, 23.0564, 38.2544, -28.6215, -29.9142
3.076, 4, 17.8816, 15.8645, 23.0564, 38.2544, -28.6215, -29.9142
3.08, 4, 17.8816, 15.8645, 23.0564, 38.2544, -28.6215, -29.9142
3.084, 4, 17.8816, 15.8645, 23.0564, 38.2544, -28.6215, -29.9142
3.087, 4, 17.8816, 15.8645, 23.0564, 38.2544, -28.6215, -29.9142
3.092, 4, 17.8816, 15.8645, 23.0564, 38.2544, -28.6215, -29.9142
3.096, 4, 17.8816, 15.8645, 23.0564, 38.2544, -28.6215, -29.9142
3.1, 4, 17.8816, 15.8645, 23.0564, 38.2544, -28.6215, -29.9142
3.104, 4, 17.8816, 15.8645, 23.0564, 38.2544, -28.6215, -29.9142
3.107, 4, 17.8816, 15.8645, 23.0564, 38.2544, -28.6215, -29.9142
3.112, 4, 17.8816, 15.8645, 23.0564, 38.2544, -28.6215, -29.9142
3.116, 4, 17.8816, 15.8645, 23.0564, 38.2544, -28.6215, -29.9142
3.122, 4, 17.8816, 15.8645, 23.0564, 38.2544, -28.6215, -29.9142
3.124, 4, 17.8816, 15.8645, 23.0564, 38.2544, -28.6215, -29.9142
3.128, 4, 17.8816, 15.8645, 23.0564, 38.2544, -28.6215, -29.9142
3.132, 4, 17.8816, 15.8645, 23.0564, 38.2544, -28.6215, -29.9142
3.136, 4, 17.8816, 15.8645, 23.0564, 38.2544, -28.6215, -29.9142
3.14, 4, 17.8816, 15.8645, 23.0564, 38.2544, -28.6215, -29.9142
3.143, 4, 17.8816, 15.8645, 23.0564, 38.2544, -28.6215, -29.9142
3.148, 4, 17.8816, 15.8646, 23.0564, 38.2544, -28.6215, -29.9142
3.152, 4, 17.8815, 15.8646, 23.0564, 38.2544, -28.6215, -29.9142
3.156, 4, 17.8813, 15.8647, 23.0563, 38.2543, -28.6215, -29.9142
3.16, 4, 17.8808, 15.8651, 23.0563, 38.2543, -28.6215, -29.9142
3.163, 4, 17.8799, 15.8658, 23.0561, 38.2541, -28.6216, -29.914
3.168, 4, 17.8784, 15.867, 23.0557, 38.2537, -28.6217, -29.9137
3.172, 4, 17.8763, 15.869, 23.0552, 38.2529, -28.622, -29.913
3.176, 4, 17.8734, 15.8718, 23.0543, 38.2514, -28.6225, -29.9118
3.179, 4, 17.8697, 15.8758, 23.053, 38.2487, -28.6234, -29.9096
3.184, 4, 17.8651, 15.8812, 23.0512, 38.2445, -28.6248, -29.906
3.188, 5, 17.8594, 15.8885, 23.0486, 38.2381, -28.6269, -29.9006
3.192, 5, 17.8526, 15.8978, 23.0452, 38.2288, -28.6299, -29.8927
3.196, 5, 17.8445, 15.9095, 23.0407, 38.2157, -28.6342, -29.8817
3.199, 5, 17.8347, 15.9237, 23.0348, 38.198, -28.6401, -29.8667
3.204, 5, 17.8231, 15.9407, 23.0273, 38.1745, -28.6478, -29.8468
3.208, 5, 17.8096, 15.9606, 23.018, 38.1442, -28.6578, -29.821
3.212, 5, 17.7941, 15.9834, 23.0067, 38.1059, -28.6704, -29.7885
3.216, 5, 17.7763, 16.0093, 22.993, 38.0584, -28.6861, -29.7481
3.22, 5, 17.7562, 16.0389, 22.9767, 38.0006, -28.7052, -29.699
3.224, 5, 17.7334, 16.0723, 22.9576, 37.9314, -28.7281, -29.6401
3.228, 5, 17.7078, 16.11, 22.9354, 37.8498, -28.7552, -29.5707
3.232, 5, 17.6791, 16.1524, 22.9099, 37.7549, -28.7868, -29.49
3.235, 5, 17.6471, 16.1996, 22.8809, 37.6459, -28.8233, -29.3974
3.24, 5, 17.6117, 16.2519, 22.8482, 37.5222, -28.8648, -29.2922
3.244, 5, 17.5728, 16.3095, 22.8118, 37.3832, -28.9117, -29.174
3.248, 5, 17.5305, 16.3723, 22.7715, 37.2285, -28.9641, -29.0426
3.252, 5, 17.4845, 16.4404, 22.7274, 37.0579, -29.0221, -28.8978
3.255, 5, 17.4348, 16.5139, 22.6793, 36.8714, -29.086, -28.7396
3.26, 5, 17.3815, 16.5929, 22.6274, 36.6692, -29.1556, -28.5681
3.264, 5, 17.3243, 16.6772, 22.5716, 36.4515, -29.231, -28.3837
3.268, 5, 17.2635, 16.7667, 22.5121, 36.2188, -29.3122, -28.1866
3.272, 5, 17.1991, 16.8612, 22.4491, 35.9717, -29.399, -27.9775
3.276, 5, 17.1313, 16.9604, 22.3827, 35.711, -29.4913, -27.7571
3.28, 5, 17.0603, 17.0638, 22.3133, 35.4374, -29.5888, -27.526
3.284, 5, 16.9862, 17.171, 22.2409, 35.1522, -29.6914, -27.2853
3.288, 5, 16.9092, 17.2817, 22.1659, 34.8563, -29.7986, -27.0359
3.292, 5, 16.8293, 17.3958, 22.0885, 34.5511, -29.9102, -26.7788
3.296, 5, 16.7465, 17.5131, 22.0091, 34.2377, -30.0258, -26.5152
3.3, 5, 16.6611, 17.6333, 21.9279, 33.9176, -30.145, -26.2462
3.304, 5, 16.5732, 17.7563, 21.8452, 33.5919, -30.2674, -25.9728
3.308, 5, 16.483, 17.8819, 21.7613, 33.2618, -30.3926, -25.6961
3.312, 5, 16.3907, 18.0098, 21.6764, 32.9285, -30.5202, -25.417
3.316, 5, 16.2964, 18.1396, 21.5909, 32.5929, -30.6501, -25.1364
3.32, 5, 16.2004, 18.271, 21.5048, 32.256, -30.7817, -24.855
3.324, 5, 16.1027, 18.4037, 21.4185, 31.9185, -30.9149, -24.5735
3.328, 5, 16.0034, 18.5375, 21.3321, 31.5811, -31.0495, -24.2924
3.332, 5, 15.9028, 18.6719, 21.2458, 31.2443, -31.1852, -24.0122
3.336, 5, 15.8009, 18.8069, 21.1596, 30.9086, -31.322, -23.7332
3.34, 5, 15.698, 18.9421, 21.0737, 30.5741, -31.4597, -23.4556
3.344, 5, 15.5943, 19.0772, 20.9882, 30.241, -31.5982, -23.1796
3.347, 5, 15.4898, 19.2121, 20.9031, 29.9096, -31.7376, -22.9054
3.352, 5, 15.3848, 19.3467, 20.8185, 29.5799, -31.8777, -22.6329
3.356, 5, 15.2793, 19.4809, 20.7344, 29.252, -32.0185, -22.3622
3.36, 5, 15.1732, 19.6147, 20.6509, 28.9258, -32.1601, -22.0933
3.364, 5, 15.0668, 19.7479, 20.568, 28.6014, -32.3024, -21.8263
3.368, 5, 14.9599, 19.8805, 20.4856, 28.2789, -32.4454, -21.5611
3.372, 5, 14.8526, 20.0127, 20.4038, 27.9581, -32.5891, -21.2978
3.376, 5, 14.7449, 20.1442, 20.3226, 27.6392, -32.7335, -21.0363
3.38, 5, 14.6369, 20.2752, 20.242, 27.3221, -32.8786, -20.7766
3.383, 5, 14.5284, 20.4056, 20.162, 27.0068, -33.0244, -20.5187
3.388, 5, 14.4197, 20.5355, 20.0826, 26.6933, -33.1709, -20.2627
3.392, 5, 14.3105, 20.6647, 20.0038, 26.3815, -33.318, -20.0084
3.396, 5, 14.201, 20.7934, 19.9256, 26.0716, -33.4659, -19.756
3.4, 5, 14.0912, 20.9214, 19.8481, 25.7634, -33.6144, -19.5053
3.403, 5, 13.981, 21.0489, 19.7712, 25.457, -33.7636, -19.2563
3.408, 5, 13.8705, 21.1758, 19.6949, 25.1523, -33.9135, -19.0092
3.412, 5, 13.7597, 21.3021, 19.6192, 24.8494, -34.0641, -18.7637
3.416, 5, 13.6485, 21.4278, 19.5442, 24.5481, -34.2154, -18.52
3.42, 5, 13.537, 21.553, 19.4699, 24.2487, -34.3674, -18.278
3.424, 5, 13.4252, 21.6775, 19.3962, 23.9509, -34.52, -18.0377
3.428, 5, 13.313, 21.8014, 19.3231, 23.6548, -34.6734, -17.7991
3.432, 5, 13.2006, 21.9248, 19.2507, 23.3604, -34.8274, -17.5621
3.436, 5, 13.0878, 22.0475, 19.179, 23.0677, -34.9821, -17.3269
3.439, 5, 12.9748, 22.1697, 19.1079, 22.7767, -35.1375, -17.0933
3.444, 5, 12.8614, 22.2913, 19.0375, 22.4873, -35.2936, -16.8613
3.448, 5, 12.7477, 22.4123, 18.9678, 22.1996, -35.4503, -16.631
3.452, 5, 12.6338, 22.5326, 18.8987, 21.9136, -35.6078, -16.4023
3.456, 5, 12.5195, 22.6524, 18.8304, 21.6292, -35.7659, -16.1752
3.46, 5, 12.405, 22.7716, 18.7627, 21.3465, -35.9247, -15.9498
3.464, 5, 12.2902, 22.8902, 18.6957, 21.0653, -36.0842, -15.7259
3.468, 5, 12.175, 23.0082, 18.6295, 20.7858, -36.2444, -15.5036
3.472, 5, 12.0597, 23.1256, 18.5639, 20.5079, -36.4053, -15.2829
3.476, 5, 11.944, 23.2424, 18.499, 20.2316, -36.5668, -15.0637
3.48, 5, 11.8281, 23.3586, 18.4349, 19.9569, -36.7291, -14.8462
3.484, 5, 11.7119, 23.4743, 18.3714, 19.6838, -36.892, -14.6301
3.488, 5, 11.5954, 23.5893, 18.3087, 19.4123, -37.0555, -14.4156
3.492, 5, 11.4787, 23.7037, 18.2466, 19.1423, -37.2198, -14.2026
3.495, 5, 11.3617, 23.8175, 18.1853, 18.874, -37.3847, -13.9912
3.5, 5, 11.2444, 23.9307, 18.1248, 18.6071, -37.5503, -13.7812
3.504, 5, 11.1269, 24.0434, 18.0649, 18.3418, -37.7166, -13.5728
3.508, 5, 11.0092, 24.1554, 18.0058, 18.0781, -37.8836, -13.3658
3.512, 5, 10.8912, 24.2669, 17.9474, 17.8159, -38.0512, -13.1604
3.516, 5, 10.773, 24.3777, 17.8897, 17.5552, -38.2195, -12.9563
3.52, 5, 10.6545, 24.488, 17.8328, 17.296, -38.3885, -12.7538
3.524, 5, 10.5358, 24.5976, 17.7766, 17.0384, -38.5581, -12.5527
3.528, 5, 10.4168, 24.7067, 17.7211, 16.7822, -38.7284, -12.3531
3.531, 5, 10.2977, 24.8152, 17.6664, 16.5275, -38.8994, -12.1548
3.536, 5, 10.1783, 24.9231, 17.6124, 16.2744, -39.0711, -11.9581
3.54, 5, 10.0586, 25.0303, 17.5592, 16.0227, -39.2434, -11.7627
3.544, 5, 9.9388, 25.137, 17.5067, 15.7724, -39.4164, -11.5687
3.548, 5, 9.81874, 25.2431, 17.455, 15.5236, -39.5901, -11.3761
3.552, 5, 9.69847, 25.3487, 17.4041, 15.2763, -39.7644, -11.1849
3.556, 5, 9.57798, 25.4536, 17.3539, 15.0304, -39.9394, -10.9951
3.56, 5, 9.45729, 25.5579, 17.3044, 14.786, -40.1151, -10.8067
3.564, 5, 9.3364, 25.6616, 17.2558, 14.543, -40.2915, -10.6196
3.568, 5, 9.2153, 25.7648, 17.2079, 14.3014, -40.4685, -10.4339
3.572, 5, 9.094, 25.8673, 17.1608, 14.0612, -40.6462, -10.2495
3.576, 5, 8.9725, 25.9693, 17.1144, 13.8224, -40.8246, -10.0664
3.58, 5, 8.85081, 26.0707, 17.0689, 13.585, -41.0036, -9.88471
3.584, 5, 8.72894, 26.1714, 17.0241, 13.349, -41.1833, -9.7043
3.587, 5, 8.60687, 26.2716, 16.9801, 13.1144, -41.3636, -9.5252
3.592, 5, 8.48463, 26.3712, 16.9369, 12.8812, -41.5447, -9.3474
3.596, 5, 8.3622, 26.4702, 16.8944, 12.6493, -41.7263, -9.17089
3.6, 5, 8.2396, 26.5686, 16.8528, 12.4188, -41.9087, -8.99566
3.604, 5, 8.11683, 26.6665, 16.812, 12.1897, -42.0917, -8.82171
3.608, 5, 7.99388, 26.7637, 16.772, 11.9619, -42.2753, -8.64904
3.612, 5, 7.87077, 26.8603, 16.7327, 11.7354, -42.4596, -8.47762
3.616, 5, 7.7475, 26.9564, 16.6943, 11.5103, -42.6446, -8.30746
3.62, 5, 7.62407, 27.0519, 16.6567, 11.2865, -42.8302, -8.13854
3.624, 5, 7.50047, 27.1468, 16.6198, 11.064, -43.0164, -7.97087
3.628, 5, 7.37673, 27.2411, 16.5838, 10.8428, -43.2033, -7.80443
3.632, 5, 7.25283, 27.3348, 16.5486, 10.623, -43.3909, -7.63921
3.636, 5, 7.12878, 27.4279, 16.5142, 10.4044, -43.5791, -7.47521
3.64, 5, 7.00458, 27.5204, 16.4807, 10.1872, -43.768, -7.31243
3.644, 5, 6.88024, 27.6124, 16.4479, 9.97122, -43.9575, -7.15085
3.648, 5, 6.75577, 27.7037, 16.416, 9.75655, -44.1476, -6.99047
3.652, 5, 6.63115, 27.7945, 16.3849, 9.54315, -44.3384, -6.83128
3.656, 5, 6.5064, 27.8847, 16.3546, 9.33102, -44.5299, -6.67329
3.66, 5, 6.38151, 27.9743, 16.3251, 9.12017, -44.722, -6.51647
3.664, 5, 6.2565, 28.0633, 16.2965, 8.91057, -44.9147, -6.36082
3.668, 5, 6.13135, 28.1517, 16.2687, 8.70224, -45.1081, -6.20635
3.672, 5, 6.00608, 28.2395, 16.2417, 8.49515, -45.3021, -6.05304
3.676, 5, 5.88069, 28.3268, 16.2156, 8.28931, -45.4968, -5.90088
3.679, 5, 5.75518, 28.4134, 16.1903, 8.08471, -45.6921, -5.74988
3.684, 5, 5.62955, 28.4995, 16.1658, 7.88135, -45.888, -5.60002
3.688, 5, 5.5038, 28.585, 16.1422, 7.67922, -46.0846, -5.4513
3.692, 5, 5.37794, 28.67, 16.1194, 7.4783, -46.2819, -5.30371
3.696, 5, 5.25197, 28.7543, 16.0975, 7.27861, -46.4797, -5.15724
3.7, 5, 5.1259, 28.8381, 16.0764, 7.08012, -46.6783, -5.01189
3.704, 5, 4.99972, 28.9212, 16.0562, 6.88282, -46.8774, -4.86765
3.708, 5, 4.87344, 29.0038, 16.0368, 6.68673, -47.0772, -4.72451
3.712, 5, 4.74706, 29.0859, 16.0183, 6.49181, -47.2776, -4.58247
3.716, 5, 4.62059, 29.1673, 16.0006, 6.29807, -47.4787, -4.44151
3.72, 5, 4.49403, 29.2482, 15.9838, 6.1055, -47.6804, -4.30163
3.724, 5, 4.36738, 29.3285, 15.9678, 5.91409, -47.8827, -4.16283
3.728, 5, 4.24064, 29.4082, 15.9527, 5.72383, -48.0857, -4.02508
3.732, 5, 4.11382, 29.4873, 15.9384, 5.53472, -48.2893, -3.88839
3.735, 5, 3.98691, 29.5659, 15.925, 5.34674, -48.4935, -3.75275
3.74, 5, 3.85993, 29.6439, 15.9125, 5.1599, -48.6983, -3.61816
3.744, 5, 3.73288, 29.7214, 15.9008, 4.97417, -48.9038, -3.4846
3.748, 5, 3.60575, 29.7982, 15.8899, 4.78957, -49.1098, -3.35207
3.752, 5, 3.47855, 29.8745, 15.8799, 4.60607, -49.3165, -3.22056
3.756, 5, 3.3513, 29.9503, 15.8708, 4.42367, -49.5238, -3.09006
3.76, 5, 3.22403, 30.0254, 15.8625, 4.24237, -49.7317, -2.96058
3.764, 5, 3.0969, 30.1, 15.8551, 4.06216, -49.9402, -2.8321
3.768, 5, 2.97017, 30.1738, 15.8486, 3.88305, -50.1493, -2.70464
3.772, 5, 2.8441, 30.2469, 15.843, 3.70505, -50.3589, -2.57819
3.776, 5, 2.71893, 30.319, 15.8383, 3.52822, -50.5691, -2.4528
3.78, 5, 2.5948, 30.3902, 15.8347, 3.35264, -50.7795, -2.32853
3.784, 5, 2.4718, 30.4604, 15.8319, 3.17844, -50.9902, -2.20546
3.788, 5, 2.34994, 30.5293, 15.8301, 3.0058, -51.2007, -2.08372
3.792, 5, 2.22923, 30.5971, 15.8293, 2.83494, -51.4109, -1.96347
3.796, 5, 2.10971, 30.6637, 15.8293, 2.66615, -51.6203, -1.84488
3.8, 5, 1.99155, 30.7288, 15.8302, 2.49973, -51.8284, -1.72817
3.804, 5, 1.87503, 30.7925, 15.8319, 2.33604, -52.0348, -1.61358
3.808, 5, 1.7605, 30.8546, 15.8344, 2.17544, -52.2388, -1.50136
3.812, 5, 1.64824, 30.9149, 15.8376, 2.01837, -52.44, -1.3918
3.816, 5, 1.53848, 30.9735, 15.8415, 1.86525, -52.6376, -1.28517
3.82, 5, 1.43137, 31.0303, 15.8459, 1.71652, -52.8309, -1.18178
3.824, 5, 1.32706, 31.0853, 15.8508, 1.57262, -53.0193, -1.0819
3.828, 5, 1.22573, 31.1383, 15.856, 1.43395, -53.2021, -0.985809
3.832, 5, 1.12762, 31.1893, 15.8615, 1.30089, -53.3787, -0.893737
3.836, 5, 1.03298, 31.2383, 15.8672, 1.17374, -53.5486, -0.80589
3.84, 5, 0.942088, 31.2851, 15.8731, 1.05279, -53.7112, -0.72244
3.844, 5, 0.855196, 31.3295, 15.8789, 0.938263, -53.8661, -0.643524
3.848, 5, 0.772431, 31.3715, 15.8849, 0.830331, -54.0129, -0.569249
3.852, 5, 0.693787, 31.4109, 15.8909, 0.729129, -54.1514, -0.499683
3.856, 5, 0.619108, 31.4478, 15.8969, 0.634724, -54.2813, -0.434852
3.86, 5, 0.548098, 31.482, 15.9032, 0.547105, -54.4027, -0.374728
3.864, 5, 0.480369, 31.5136, 15.9098, 0.466156, -54.5157, -0.319214
3.868, 6, 0.415498, 31.5428, 15.917, 0.391638, -54.6207, -0.268131
3.872, 6, 0.353041, 31.5695, 15.9251, 0.323172, -54.7185, -0.22121
3.876, 6, 0.292527, 31.5939, 15.9346, 0.260236, -54.81, -0.178087
3.88, 6, 0.233521, 31.6158, 15.946, 0.20217, -54.8964, -0.138311
3.884, 6, 0.175692, 31.6353, 15.9598, 0.148198, -54.979, -0.101351
3.888, 6, 0.118794, 31.6522, 15.9768, 0.0974458, -55.0594, -0.066614
3.892, 6, 0.0625835, 31.6664, 15.9977, 0.0489695, -55.1392, -0.0334628
3.896, 6, 0.00680328, 31.6779, 16.0231, 0.00177895, -55.2203, -0.00123078
3.9, 6, -0.048778, 31.6867, 16.0535, -0.0451352, -55.3043, 0.0307573
3.904, 6, -0.104367, 31.6928, 16.0897, -0.0927739, -55.3931, 0.0631675
3.908, 6, -0.160186, 31.6963, 16.1322, -0.142099, -55.4883, 0.0966358
3.912, 6, -0.216492, 31.6971, 16.1814, -0.193996, -55.5915, 0.131745
3.916, 6, -0.273592, 31.6952, 16.2377, -0.249242, -55.704, 0.169001
3.92, 6, -0.331849, 31.6906, 16.3015, -0.308474, -55.8268, 0.208816
3.924, 6, -0.391672, 31.6833, 16.3728, -0.372171, -55.9609, 0.251497
3.928, 6, -0.453484, 31.6734, 16.4517, -0.440654, -56.1068, 0.297243
3.932, 6, -0.517687, 31.6611, 16.5382, -0.514095, -56.2649, 0.346149
3.936, 6, -0.58463, 31.6466, 16.6321, -0.592531, -56.4352, 0.398217
3.94, 6, -0.654554, 31.6302, 16.7333, -0.67588, -56.6176, 0.453371
3.944, 6, -0.727569, 31.6121, 16.8415, -0.763958, -56.8119, 0.511463
3.948, 6, -0.803672, 31.5924, 16.9564, -0.856496, -57.0177, 0.57229
3.952, 6, -0.88281, 31.5714, 17.0776, -0.95315, -57.2344, 0.635599
3.956, 6, -0.964924, 31.5492, 17.2048, -1.05351, -57.4612, 0.7011
3.96, 6, -1.04994, 31.5259, 17.3373, -1.15713, -57.6974, 0.768477
3.964, 6, -1.13769, 31.5016, 17.4748, -1.26354, -57.942, 0.837401
3.968, 6, -1.22792, 31.4765, 17.6168, -1.37225, -58.1941, 0.907539
3.972, 6, -1.32026, 31.4507, 17.7626, -1.48278, -58.4528, 0.978567
3.976, 6, -1.4144, 31.4242, 17.912, -1.59469, -58.7172, 1.05017
3.98, 6, -1.5101, 31.3972, 18.0643, -1.70755, -58.9864, 1.12207
3.984, 6, -1.60723, 31.3698, 18.2191, -1.82096, -59.2596, 1.194
3.988, 6, -1.70571, 31.342, 18.376, -1.93457, -59.536, 1.26571
3.992, 6, -1.80549, 31.3139, 18.5347, -2.04807, -59.815, 1.33702
3.996, 6, -1.90653, 31.2855, 18.6948, -2.16122, -60.096, 1.40774
3.999, 6, -2.00874, 31.2569, 18.8562, -2.27381, -60.3785, 1.47777
4.004, 6, -2.11191, 31.2282, 19.0185, -2.3857, -60.6623, 1.54699
4.008, 6, -2.21574, 31.1993, 19.1817, -2.49679, -60.947, 1.61534
4.012, 6, -2.31995, 31.1702, 19.3457, -2.60701, -61.2326, 1.68277
4.016, 6, -2.42433, 31.1409, 19.5103, -2.71632, -61.5188, 1.74927
4.02, 6, -2.52872, 31.1114, 19.6756, -2.8247, -61.8056, 1.81482
4.024, 6, -2.63301, 31.0818, 19.8414, -2.93213, -62.093, 1.8794
4.028, 6, -2.73715, 31.0521, 20.0078, -3.03861, -62.3809, 1.94301
4.032, 6, -2.84107, 31.0221, 20.1747, -3.14414, -62.6693, 2.00566
4.036, 6, -2.94474, 30.9921, 20.3421, -3.24871, -62.9581, 2.06735
4.04, 6, -3.04815, 30.9618, 20.5101, -3.35233, -63.2473, 2.12808
4.044, 6, -3.15126, 30.9314, 20.6785, -3.455, -63.537, 2.18787
4.048, 6, -3.25407, 30.9009, 20.8474, -3.55674, -63.8271, 2.24671
4.052, 6, -3.35657, 30.8703, 21.0168, -3.65756, -64.1176, 2.30461
4.056, 6, -3.45874, 30.8395, 21.1867, -3.75745, -64.4085, 2.36159
4.06, 6, -3.56058, 30.8086, 21.357, -3.85642, -64.6998, 2.41764
4.064, 6, -3.66209, 30.7775, 21.5278, -3.95449, -64.9914, 2.47278
4.068, 6, -3.76326, 30.7464, 21.6991, -4.05167, -65.2835, 2.52702
4.072, 6, -3.86409, 30.7151, 21.8708, -4.14796, -65.576, 2.58037
4.076, 6, -3.96456, 30.6837, 22.043, -4.24337, -65.8688, 2.63282
4.08, 6, -4.06468, 30.6522, 22.2155, -4.3379, -66.162, 2.68439
4.084, 6, -4.16444, 30.6206, 22.3886, -4.43158, -66.4556, 2.73509
4.088, 6, -4.26384, 30.5889, 22.562, -4.5244, -66.7495, 2.78492
4.092, 6, -4.36287, 30.5571, 22.7359, -4.61637, -67.0438, 2.83389
4.096, 6, -4.46152, 30.5252, 22.9103, -4.7075, -67.3385, 2.88201
4.1, 6, -4.5598, 30.4932, 23.085, -4.7978, -67.6336, 2.92928
4.104, 6, -4.6577, 30.4611, 23.2601, -4.88727, -67.929, 2.9757
4.108, 6, -4.75521, 30.429, 23.4357, -4.97592, -68.2247, 3.02129
4.112, 6, -4.85232, 30.3968, 23.6117, -5.06375, -68.5208, 3.06605
4.116, 6, -4.94905, 30.3645, 23.788, -5.15077, -68.8173, 3.10999
4.12, 6, -5.04537, 30.3322, 23.9648, -5.23698, -69.1141, 3.1531
4.124, 6, -5.14129, 30.2998, 24.1419, -5.32239, -69.4113, 3.1954
4.128, 6, -5.2368, 30.2673, 24.3194, -5.407, -69.7088, 3.23688
4.132, 6, -5.3319, 30.2348, 24.4973, -5.49083, -70.0067, 3.27756
4.136, 6, -5.42658, 30.2023, 24.6756, -5.57386, -70.3049, 3.31744
4.14, 6, -5.52083, 30.1697, 24.8542, -5.65611, -70.6034, 3.35652
4.144, 6, -5.61466, 30.1371, 25.0332, -5.73759, -70.9023, 3.3948
4.148, 6, -5.70806, 30.1044, 25.2126, -5.81828, -71.2015, 3.4323
4.152, 6, -5.80101, 30.0717, 25.3923, -5.89821, -71.501, 3.46901
4.156, 6, -5.89352, 30.039, 25.5723, -5.97738, -71.8008, 3.50494
4.16, 6, -5.98559, 30.0063, 25.7527, -6.05578, -72.101, 3.5401
4.164, 6, -6.0772, 29.9736, 25.9334, -6.13342, -72.4015, 3.57449
4.168, 6, -6.16835, 29.9409, 26.1144, -6.21031, -72.7023, 3.60811
4.172, 6, -6.25904, 29.9082, 26.2958, -6.28646, -73.0034, 3.64097
4.176, 6, -6.34926, 29.8754, 26.4775, -6.36186, -73.3048, 3.67307
4.18, 6, -6.439, 29.8427, 26.6595, -6.43652, -73.6066, 3.70443
4.184, 6, -6.52826, 29.81, 26.8418, -6.51045, -73.9086, 3.73503
4.188, 6, -6.61704, 29.7773, 27.0243, -6.58365, -74.211, 3.76489
4.192, 6, -6.70533, 29.7447, 27.2072, -6.65613, -74.5136, 3.79402
4.196, 6, -6.79313, 29.7121, 27.3904, -6.72788, -74.8165, 3.82241
4.2, 6, -6.88042, 29.6795, 27.5738, -6.79892, -75.1197, 3.85007
4.204, 6, -6.96721, 29.6469, 27.7576, -6.86925, -75.4232, 3.87701
4.208, 6, -7.05349, 29.6144, 27.9416, -6.93887, -75.727, 3.90323
4.212, 6, -7.13925, 29.5819, 28.1258, -7.00778, -76.0311, 3.92873
4.216, 6, -7.22449, 29.5495, 28.3103, -7.076, -76.3354, 3.95353
4.22, 6, -7.30921, 29.5172, 28.4951, -7.14353, -76.6401, 3.97762
4.224, 6, -7.39339, 29.4849, 28.6801, -7.21037, -76.945, 4.00101
4.228, 6, -7.47704, 29.4527, 28.8653, -7.27653, -77.2501, 4.0237
4.232, 6, -7.56015, 29.4206, 29.0508, -7.342, -77.5556, 4.04571
4.236, 6, -7.64271, 29.3885, 29.2366, -7.40681, -77.8613, 4.06702
4.24, 6, -7.72473, 29.3565, 29.4225, -7.47094, -78.1672, 4.08766
4.244, 6, -7.80618, 29.3247, 29.6087, -7.5344, -78.4735, 4.10761
4.248, 6, -7.88707, 29.2929, 29.795, -7.5972, -78.7799, 4.12689
4.252, 6, -7.9674, 29.2612, 29.9816, -7.65934, -79.0867, 4.1455
4.256, 6, -8.04715, 29.2296, 30.1684, -7.72082, -79.3937, 4.16344
4.26, 6, -8.12632, 29.1981, 30.3554, -7.78165, -79.7009, 4.18071
4.264, 6, -8.2049, 29.1668, 30.5426, -7.84182, -80.0085, 4.19732
4.268, 6, -8.28289, 29.1356, 30.73, -7.90135, -80.3162, 4.21328
4.272, 6, -8.36029, 29.1045, 30.9176, -7.96022, -80.6243, 4.22857
4.276, 6, -8.43708, 29.0735, 31.1053, -8.01845, -80.9326, 4.24321
4.28, 6, -8.51326, 29.0426, 31.2932, -8.07603, -81.2411, 4.2572
4.284, 6, -8.58882, 29.012, 31.4813, -8.13297, -81.5499, 4.27054
4.288, 6, -8.66376, 28.9814, 31.6696, -8.18925, -81.8589, 4.28323
4.292, 6, -8.73807, 28.951, 31.858, -8.2449, -82.1682, 4.29527
4.296, 6, -8.81175, 28.9208, 32.0465, -8.2999, -82.4778, 4.30667
4.3, 6, -8.88478, 28.8908, 32.2352, -8.35426, -82.7876, 4.31743
4.304, 6, -8.95716, 28.8609, 32.424, -8.40797, -83.0976, 4.32755
4.308, 6, -9.02889, 28.8312, 32.613, -8.46104, -83.4079, 4.33703
4.312, 6, -9.09995, 28.8017, 32.802, -8.51346, -83.7184, 4.34588
4.316, 6, -9.17034, 28.7724, 32.9912, -8.56525, -84.0292, 4.35409
4.32, 6, -9.24005, 28.7433, 33.1805, -8.61639, -84.3402, 4.36168
4.324, 6, -9.30908, 28.7143, 33.3699, -8.6669, -84.6514, 4.36864
4.328, 6, -9.37742, 28.6856, 33.5594, -8.71676, -84.9629, 4.37497
4.332, 6, -9.44506, 28.6572, 33.7489, -8.76598, -85.2746, 4.38068
4.336, 6, -9.512, 28.6289, 33.9386, -8.81456, -85.5866, 4.38577
4.34, 6, -9.57823, 28.6009, 34.1283, -8.8625, -85.8988, 4.39025
4.344, 6, -9.64373, 28.5731, 34.3181, -8.90981, -86.2111, 4.3941
4.348, 6, -9.70852, 28.5455, 34.5079, -8.95647, -86.5238, 4.39735
4.352, 6, -9.77257, 28.5182, 34.6978, -9.0025, -86.8366, 4.39998
4.356, 6, -9.83588, 28.4912, 34.8878, -9.04789, -87.1497, 4.402
4.36, 6, -9.89845, 28.4644, 35.0778, -9.09264, -87.463, 4.40342
4.364, 6, -9.96027, 28.4379, 35.2678, -9.13676, -87.7765, 4.40423
4.368, 6, -10.0213, 28.4116, 35.4578, -9.18025, -88.0902, 4.40445
4.372, 6, -10.0816, 28.3857, 35.6479, -9.2231, -88.4042, 4.40406
4.376, 6, -10.1411, 28.36, 35.838, -9.26531, -88.7183, 4.40308
4.38, 6, -10.1999, 28.3346, 36.0281, -9.30689, -89.0327, 4.40151
4.384, 6, -10.2578, 28.3095, 36.2181, -9.34784, -89.3473, 4.39934
4.388, 6, -10.315, 28.2847, 36.4082, -9.38816, -89.6621, 4.39659
4.392, 6, -10.3714, 28.2602, 36.5983, -9.42785, -89.9771, 4.39325
4.396, 6, -10.4269, 28.2361, 36.7883, -9.4669, -90.2923, 4.38933
4.4, 6, -10.4816, 28.2122, 36.9783, -9.50532, -90.6077, 4.38482
4.404, 6, -10.5356, 28.1887, 37.1683, -9.54311, -90.9233, 4.37974
4.408, 6, -10.5886, 28.1655, 37.3582, -9.58027, -91.2391, 4.37408
4.412, 6, -10.6409, 28.1427, 37.5481, -9.6168, -91.5551, 4.36784
4.416, 6, -10.6923, 28.1203, 37.7379, -9.65269, -91.8713, 4.36103
4.42, 6, -10.7428, 28.0981, 37.9277, -9.68794, -92.1878, 4.35366
4.424, 6, -10.7925, 28.0764, 38.1174, -9.72256, -92.5044, 4.34571
4.428, 6, -10.8413, 28.055, 38.3069, -9.75654, -92.8212, 4.33719
4.432, 6, -10.8892, 28.034, 38.4963, -9.78988, -93.1381, 4.32812
4.436, 6, -10.9361, 28.0133, 38.6856, -9.82257, -93.4552, 4.31848
4.44, 6, -10.9821, 27.993, 38.8745, -9.8546, -93.7723, 4.30829
4.444, 6, -11.0271, 27.9731, 39.0631, -9.88596, -94.0893, 4.29755
4.448, 6, -11.0711, 27.9536, 39.2513, -9.91665, -94.4061, 4.28628
4.452, 6, -11.1141, 27.9346, 39.439, -9.94664, -94.7225, 4.27449
4.456, 6, -11.1561, 27.9159, 39.626, -9.97593, -95.0383, 4.26219
4.46, 6, -11.1971, 27.8977, 39.8121, -10.0045, -95.3533, 4.24939
4.464, 6, -11.2369, 27.8799, 39.9972, -10.0323, -95.6671, 4.23613
4.468, 6, -11.2755, 27.8625, 40.1809, -10.0594, -95.9793, 4.22242
4.472, 6, -11.3129, 27.8455, 40.3629, -10.0856, -96.2896, 4.20831
4.476, 6, -11.3491, 27.829, 40.5429, -10.1111, -96.5972, 4.19384
4.48, 6, -11.3839, 27.813, 40.7204, -10.1356, -96.9014, 4.17907
4.484, 6, -11.4175, 27.7975, 40.8951, -10.1593, -97.2015, 4.16405
4.488, 6, -11.4496, 27.7826, 41.0664, -10.182, -97.4965, 4.14886
4.492, 6, -11.4804, 27.7683, 41.2338, -10.2038, -97.7854, 4.13358
4.496, 6, -11.5098, 27.7547, 41.3967, -10.2245, -98.0671, 4.11831
4.5, 6, -11.5377, 27.7417, 41.5546, -10.2441, -98.3407, 4.10312
4.504, 6, -11.5641, 27.7295, 41.7069, -10.2626, -98.605, 4.08812
4.508, 6, -11.589, 27.718, 41.8529, -10.2801, -98.859, 4.0734
4.512, 6, -11.6123, 27.7072, 41.9923, -10.2963, -99.1016, 4.05907
4.516, 6, -11.6341, 27.6973, 42.1245, -10.3114, -99.3318, 4.04523
4.52, 6, -11.6544, 27.6881, 42.2492, -10.3253, -99.5489, 4.03196
4.524, 6, -11.6732, 27.6798, 42.366, -10.338, -99.752, 4.01935
4.528, 6, -11.6905, 27.6724, 42.4746, -10.3496, -99.9406, 4.00747
4.532, 6, -11.7063, 27.6657, 42.575, -10.36, -100.114, 3.99638
4.536, 6, -11.7207, 27.6599, 42.6669, -10.3694, -100.273, 3.98612
4.54, 6, -11.7338, 27.6548, 42.7505, -10.3777, -100.417, 3.97673
4.544, 6, -11.7454, 27.6504, 42.8258, -10.385, -100.546, 3.96821
4.548, 6, -11.7559, 27.6467, 42.893, -10.3914, -100.661, 3.96057
4.552, 6, -11.7651, 27.6436, 42.9525, -10.3969, -100.762, 3.95379
4.556, 6, -11.7733, 27.6411, 43.0046, -10.4016, -100.85, 3.94785
4.56, 6, -11.7805, 27.6392, 43.0498, -10.4056, -100.926, 3.94272
4.564, 6, -11.7868, 27.6377, 43.0886, -10.4089, -100.99, 3.93834
4.568, 6, -11.7922, 27.6367, 43.1215, -10.4117, -101.044, 3.93466
4.572, 6, -11.797, 27.636, 43.149, -10.4139, -101.088, 3.9316
4.576, 6, -11.8011, 27.6356, 43.1718, -10.4156, -101.124, 3.92911
4.58, 6, -11.8045, 27.6353, 43.1903, -10.417, -101.153, 3.92711
4.584, 6, -11.8075, 27.6353, 43.2051, -10.4181, -101.175, 3.92554
4.588, 6, -11.8101, 27.6354, 43.2169, -10.4189, -101.193, 3.92431
4.592, 6, -11.8123, 27.6355, 43.226, -10.4195, -101.206, 3.92339
4.596, 6, -11.8142, 27.6357, 43.2331, -10.4199, -101.216, 3.9227
4.6, 6, -11.8158, 27.636, 43.2383, -10.4202, -101.223, 3.92221
4.604, 7, -11.8172, 27.6362, 43.2422, -10.4204, -101.228, 3.92185
4.608, 7, -11.8182, 27.6364, 43.2451, -10.4206, -101.232, 3.92161
4.612, 7, -11.8191, 27.6366, 43.2471, -10.4207, -101.234, 3.92144
4.616, 7, -11.8196, 27.6367, 43.2484, -10.4207, -101.236, 3.92133
4.62, 7, -11.82, 27.6368, 43.2494, -10.4208, -101.237, 3.92125
4.624, 7, -11.8203, 27.6369, 43.25, -10.4208, -101.238, 3.9212
4.628, 7, -11.8205, 27.6369, 43.2505, -10.4208, -101.238, 3.92116
4.632, 7, -11.8206, 27.6369, 43.2508, -10.4208, -101.239, 3.92114
4.636, 7, -11.8207, 27.6369, 43.2509, -10.4208, -101.239, 3.92112
4.64, 7, -11.8208, 27.637, 43.2511, -10.4208, -101.239, 3.92111
4.644, 7, -11.8208, 27.637, 43.2512, -10.4208, -101.239, 3.9211
4.648, 7, -11.8208, 27.637, 43.2512, -10.4208, -101.239, 3.9211
4.652, 7, -11.8209, 27.637, 43.2513, -10.4208, -101.239, 3.92109
4.656, 7, -11.8209, 27.637, 43.2513, -10.4208, -101.239, 3.92109
4.66, 7, -11.8209, 27.637, 43.2513, -10.4208, -101.239, 3.92109
4.664, 7, -11.8209, 27.637, 43.2513, -10.4208, -101.239, 3.92109
4.668, 7, -11.8209, 27.637, 43.2514, -10.4208, -101.239, 3.92109
4.672, 7, -11.8209, 27.637, 43.2514, -10.4208, -101.239, 3.92109
4.676, 7, -11.8209, 27.637, 43.2514, -10.4208, -101.239, 3.92109
4.68, 7, -11.8209, 27.637, 43.2514, -10.4208, -101.239, 3.92109
4.684, 7, -11.8209, 27.637, 43.2514, -10.4208, -101.239, 3.92109
4.688, 7, -11.8209, 27.637, 43.2514, -10.4208, -101.239, 3.92109
4.692, 7, -11.8209, 27.637, 43.2514, -10.4208, -101.239, 3.92109
4.696, 7, -11.8209, 27.637, 43.2514, -10.4208, -101.239, 3.92109
4.7, 7, -11.8209, 27.637, 43.2514, -10.4208, -101.239, 3.92109
4.704, 7, -11.8209, 27.637, 43.2514, -10.4208, -101.239, 3.92109
4.708, 7, -11.8209, 27.637, 43.2514, -10.4208, -101.239, 3.92109
4.712, 7, -11.8209, 27.637, 43.2514, -10.4208, -101.239, 3.92109
4.716, 7, -11.8209, 27.637, 43.2514, -10.4208, -101.239, 3.92109
4.72, 7, -11.8209, 27.637, 43.2514, -10.4208, -101.239, 3.92109
