hehonglu123/ABB_Primitive_Study/execution/movec_30_car/curve_exe_v500_z1.csv
timestamp, cmd_num, J1, J2, J3, J4, J5, J6
0, -1, -11.8209, 27.637, 43.2514, -10.4208, -101.239, 3.92109
0.002, -1, -11.8209, 27.637, 43.2514, -10.4208, -101.239, 3.92109
0.006, -1, -11.8209, 27.637, 43.2514, -10.4208, -101.239, 3.92109
0.008, -1, -11.8209, 27.637, 43.2514, -10.4208, -101.239, 3.92109
0.011, -1, -11.8209, 27.637, 43.2514, -10.4208, -101.239, 3.92109
0.016, -1, -11.8209, 27.637, 43.2514, -10.4208, -101.239, 3.92109
0.02, -1, -11.8209, 27.637, 43.2514, -10.4208, -101.239, 3.92109
0.024, -1, -11.8209, 27.637, 43.2514, -10.4208, -101.239, 3.92109
0.028, -1, -11.8209, 27.637, 43.2514, -10.4208, -101.239, 3.92109
0.032, -1, -11.8209, 27.637, 43.2514, -10.4208, -101.239, 3.92109
0.036, -1, -11.8208, 27.637, 43.2514, -10.4208, -101.239, 3.92108
0.04, -1, -11.8206, 27.6369, 43.2514, -10.4208, -101.239, 3.92108
0.044, -1, -11.8199, 27.6367, 43.2513, -10.4208, -101.239, 3.92105
0.048, -1, -11.8188, 27.6363, 43.2513, -10.4207, -101.239, 3.92098
0.052, -1, -11.8169, 27.6357, 43.2511, -10.4205, -101.239, 3.92081
0.056, -1, -11.8142, 27.6347, 43.2509, -10.42, -101.238, 3.92043
0.06, -1, -11.8106, 27.6334, 43.2504, -10.419, -101.236, 3.91973
0.064, -1, -11.8059, 27.6315, 43.2496, -10.4173, -101.234, 3.9185
0.068, -1, -11.8, 27.6291, 43.2483, -10.4146, -101.23, 3.91654
0.072, -1, -11.7928, 27.626, 43.2465, -10.4103, -101.223, 3.91354
0.076, -1, -11.7838, 27.6222, 43.2437, -10.4041, -101.214, 3.90917
0.08, -1, -11.7728, 27.6173, 43.2399, -10.3954, -101.201, 3.90303
0.084, -1, -11.7593, 27.6114, 43.2348, -10.3836, -101.183, 3.89469
0.088, -1, -11.7432, 27.6044, 43.2281, -10.3678, -101.159, 3.88364
0.092, -1, -11.7244, 27.5963, 43.2194, -10.3474, -101.128, 3.86937
0.096, -1, -11.7027, 27.5871, 43.2085, -10.3216, -101.09, 3.85137
0.1, -1, -11.6782, 27.5767, 43.1952, -10.2898, -101.042, 3.82914
0.104, -1, -11.6506, 27.5654, 43.1791, -10.2512, -100.985, 3.80229
0.108, -1, -11.6199, 27.5528, 43.1601, -10.2055, -100.916, 3.77048
0.112, -1, -11.5859, 27.5392, 43.138, -10.1523, -100.837, 3.73348
0.116, -1, -11.5485, 27.5242, 43.1128, -10.0915, -100.746, 3.69117
0.12, -1, -11.5074, 27.5079, 43.0844, -10.0229, -100.644, 3.64352
0.124, -1, -11.4628, 27.4904, 43.053, -9.94673, -100.53, 3.5906
0.128, -1, -11.4147, 27.4716, 43.0185, -9.8632, -100.406, 3.53258
0.131, -1, -11.3633, 27.4515, 42.9811, -9.77265, -100.271, 3.46969
0.136, -1, -11.3087, 27.4303, 42.941, -9.67555, -100.126, 3.40227
0.139, -1, -11.251, 27.4079, 42.8985, -9.57247, -99.9725, 3.33069
0.144, -1, -11.1903, 27.3844, 42.8538, -9.46403, -99.8108, 3.25539
0.148, -1, -11.1266, 27.3596, 42.807, -9.35088, -99.6422, 3.17682
0.152, -1, -11.0601, 27.3337, 42.7586, -9.23367, -99.4675, 3.09542
0.156, -1, -10.9909, 27.3067, 42.7087, -9.11298, -99.2876, 3.01159
0.16, -1, -10.9195, 27.2787, 42.6576, -8.98935, -99.1033, 2.92571
0.164, -1, -10.8461, 27.2499, 42.6054, -8.86324, -98.9152, 2.8381
0.168, -1, -10.7711, 27.2203, 42.5523, -8.73504, -98.7241, 2.74903
0.172, -1, -10.6948, 27.1902, 42.4985, -8.60512, -98.5303, 2.65876
0.176, -1, -10.6172, 27.1595, 42.4441, -8.47377, -98.3344, 2.56749
0.18, -1, -10.5385, 27.1283, 42.3892, -8.34126, -98.1368, 2.4754
0.184, -1, -10.459, 27.0968, 42.3339, -8.2078, -97.9377, 2.38265
0.188, -1, -10.3785, 27.0649, 42.2783, -8.07358, -97.7375, 2.28937
0.192, -1, -10.2973, 27.0327, 42.2224, -7.93872, -97.5364, 2.19564
0.196, -1, -10.2155, 27.0003, 42.1662, -7.80334, -97.3344, 2.10154
0.2, -1, -10.1331, 26.9676, 42.1099, -7.6675, -97.1317, 2.00712
0.204, -1, -10.0503, 26.9348, 42.0533, -7.53125, -96.9285, 1.91241
0.208, -1, -9.9672, 26.9019, 41.9967, -7.39462, -96.7247, 1.81744
0.212, -1, -9.88379, 26.8688, 41.9399, -7.25765, -96.5203, 1.72223
0.216, -1, -9.80013, 26.8356, 41.8829, -7.12034, -96.3155, 1.62679
0.22, -1, -9.71623, 26.8024, 41.8258, -6.98271, -96.1101, 1.53111
0.224, -1, -9.63212, 26.769, 41.7686, -6.84476, -95.9043, 1.43522
0.228, -1, -9.54781, 26.7356, 41.7112, -6.7065, -95.6981, 1.33912
0.232, -1, -9.46329, 26.7021, 41.6537, -6.56794, -95.4914, 1.2428
0.236, -1, -9.37859, 26.6685, 41.5961, -6.42908, -95.2842, 1.14628
0.24, -1, -9.29371, 26.6349, 41.5384, -6.28992, -95.0766, 1.04954
0.244, -1, -9.20864, 26.6011, 41.4805, -6.15046, -94.8685, 0.952603
0.248, -1, -9.12338, 26.5673, 41.4226, -6.01071, -94.66, 0.85546
0.252, -1, -9.03795, 26.5335, 41.3645, -5.87067, -94.4511, 0.758115
0.256, -1, -8.95235, 26.4995, 41.3062, -5.73034, -94.2418, 0.660569
0.26, -1, -8.86656, 26.4655, 41.2479, -5.58972, -94.032, 0.562823
0.264, -1, -8.78061, 26.4315, 41.1895, -5.44882, -93.8218, 0.464879
0.268, -1, -8.69448, 26.3973, 41.1309, -5.30764, -93.6111, 0.366738
0.272, -1, -8.60818, 26.3631, 41.0722, -5.16617, -93.4001, 0.2684
0.276, -1, -8.52171, 26.3288, 41.0134, -5.02442, -93.1886, 0.169869
0.28, -1, -8.43507, 26.2945, 40.9545, -4.8824, -92.9767, 0.0711437
0.284, -1, -8.34827, 26.2601, 40.8954, -4.74009, -92.7644, -0.027773
0.288, -1, -8.2613, 26.2256, 40.8363, -4.59752, -92.5517, -0.12688
0.292, -1, -8.17417, 26.191, 40.777, -4.45467, -92.3386, -0.226175
0.296, -1, -8.08688, 26.1564, 40.7177, -4.31156, -92.1251, -0.325657
0.3, -1, -7.99944, 26.1218, 40.6582, -4.16818, -91.9112, -0.425324
0.304, -1, -7.91184, 26.087, 40.5986, -4.02454, -91.6969, -0.525173
0.308, -1, -7.82408, 26.0522, 40.5389, -3.88064, -91.4822, -0.625202
0.312, -1, -7.73618, 26.0174, 40.4791, -3.73648, -91.2672, -0.725408
0.316, -1, -7.64814, 25.9825, 40.4192, -3.59207, -91.0517, -0.825789
0.32, -1, -7.55995, 25.9475, 40.3592, -3.44742, -90.8359, -0.926341
0.324, -1, -7.47161, 25.9125, 40.299, -3.30252, -90.6198, -1.02706
0.328, -1, -7.38314, 25.8774, 40.2388, -3.15738, -90.4032, -1.12795
0.332, -1, -7.29454, 25.8422, 40.1785, -3.01202, -90.1864, -1.229
0.336, -1, -7.20579, 25.807, 40.1181, -2.86642, -89.9691, -1.3302
0.34, -1, -7.11692, 25.7718, 40.0576, -2.7206, -89.7516, -1.43156
0.344, -1, -7.02791, 25.7365, 39.997, -2.57457, -89.5337, -1.53307
0.348, -1, -6.93879, 25.7011, 39.9364, -2.42832, -89.3156, -1.63473
0.352, -1, -6.84954, 25.6657, 39.8756, -2.28187, -89.0971, -1.73653
0.356, -1, -6.76017, 25.6303, 39.8148, -2.13522, -88.8783, -1.83847
0.36, -1, -6.67068, 25.5948, 39.7538, -1.98837, -88.6592, -1.94055
0.364, -1, -6.58109, 25.5593, 39.6928, -1.84134, -88.4398, -2.04276
0.368, -1, -6.49138, 25.5237, 39.6318, -1.69412, -88.2202, -2.14509
0.372, -1, -6.40157, 25.488, 39.5706, -1.54672, -88.0003, -2.24755
0.376, -1, -6.31166, 25.4524, 39.5094, -1.39915, -87.7802, -2.35013
0.38, -1, -6.22164, 25.4167, 39.4481, -1.25142, -87.5598, -2.45282
0.384, -1, -6.13154, 25.3809, 39.3867, -1.10353, -87.3391, -2.55562
0.388, -1, -6.04134, 25.3451, 39.3253, -0.955482, -87.1182, -2.65853
0.392, -1, -5.95105, 25.3093, 39.2639, -0.807292, -86.8972, -2.76154
0.396, -1, -5.86068, 25.2735, 39.2023, -0.658961, -86.6759, -2.86465
0.4, -1, -5.77023, 25.2376, 39.1407, -0.510497, -86.4544, -2.96785
0.404, -1, -5.6797, 25.2017, 39.0791, -0.361907, -86.2327, -3.07114
0.408, -1, -5.58909, 25.1658, 39.0174, -0.213195, -86.0109, -3.17451
0.412, -1, -5.49843, 25.1298, 38.9556, -0.0643699, -85.7888, -3.27796
0.416, -1, -5.40769, 25.0938, 38.8938, 0.084563, -85.5666, -3.38149
0.42, -1, -5.3169, 25.0578, 38.832, 0.233597, -85.3443, -3.48508
0.424, -1, -5.22606, 25.0217, 38.7701, 0.382725, -85.1218, -3.58874
0.428, -1, -5.13516, 24.9857, 38.7082, 0.531939, -84.8992, -3.69246
0.432, -1, -5.04422, 24.9496, 38.6463, 0.681234, -84.6765, -3.79624
0.436, -1, -4.95323, 24.9135, 38.5843, 0.830602, -84.4536, -3.90007
0.44, -1, -4.86221, 24.8774, 38.5223, 0.980034, -84.2307, -4.00394
0.444, -1, -4.77115, 24.8413, 38.4603, 1.12953, -84.0077, -4.10786
0.448, -1, -4.68007, 24.8051, 38.3983, 1.27907, -83.7846, -4.2118
0.452, -1, -4.58896, 24.769, 38.3362, 1.42865, -83.5614, -4.31578
0.456, -1, -4.49784, 24.7329, 38.2741, 1.57827, -83.3382, -4.41979
0.46, -1, -4.40671, 24.6967, 38.212, 1.72792, -83.1149, -4.52381
0.464, -1, -4.31556, 24.6605, 38.15, 1.87758, -82.8917, -4.62785
0.468, -1, -4.22441, 24.6244, 38.0879, 2.02726, -82.6684, -4.73189
0.472, -1, -4.13326, 24.5882, 38.0258, 2.17694, -82.4451, -4.83594
0.476, -1, -4.04211, 24.552, 37.9636, 2.32662, -82.2217, -4.93998
0.48, -1, -3.95098, 24.5159, 37.9016, 2.47628, -81.9985, -5.04401
0.484, -1, -3.85986, 24.4797, 37.8395, 2.62592, -81.7752, -5.14803
0.488, -1, -3.76876, 24.4436, 37.7774, 2.77553, -81.552, -5.25202
0.492, -1, -3.67769, 24.4075, 37.7154, 2.92509, -81.3289, -5.35599
0.496, -1, -3.58665, 24.3713, 37.6533, 3.07461, -81.1058, -5.45992
0.5, -1, -3.49564, 24.3352, 37.5913, 3.22408, -80.8829, -5.56381
0.504, -1, -3.40467, 24.2992, 37.5293, 3.37347, -80.66, -5.66766
0.508, -1, -3.31375, 24.2631, 37.4674, 3.52279, -80.4372, -5.77146
0.512, -1, -3.22288, 24.227, 37.4054, 3.67203, -80.2146, -5.87519
0.516, -1, -3.13206, 24.191, 37.3436, 3.82118, -79.9921, -5.97887
0.52, -1, -3.0413, 24.155, 37.2817, 3.97022, -79.7697, -6.08247
0.524, -1, -2.95061, 24.119, 37.2199, 4.11915, -79.5475, -6.186
0.528, -1, -2.85999, 24.0831, 37.1582, 4.26797, -79.3255, -6.28944
0.532, -1, -2.76944, 24.0472, 37.0965, 4.41666, -79.1037, -6.3928
0.536, -1, -2.67898, 24.0113, 37.0349, 4.56522, -78.882, -6.49606
0.54, -1, -2.58859, 23.9754, 36.9733, 4.71363, -78.6606, -6.59923
0.544, -1, -2.49829, 23.9396, 36.9118, 4.86189, -78.4394, -6.70228
0.548, -1, -2.40809, 23.9038, 36.8503, 5.00999, -78.2185, -6.80523
0.552, -1, -2.31798, 23.8681, 36.7889, 5.15792, -77.9978, -6.90806
0.556, -1, -2.22797, 23.8324, 36.7276, 5.30568, -77.7773, -7.01077
0.56, -1, -2.13807, 23.7967, 36.6664, 5.45326, -77.5572, -7.11336
0.564, -1, -2.04828, 23.7611, 36.6053, 5.60064, -77.3373, -7.2158
0.568, -1, -1.9586, 23.7256, 36.5442, 5.74782, -77.1177, -7.31811
0.572, -1, -1.86904, 23.6901, 36.4832, 5.8948, -76.8984, -7.42028
0.576, -1, -1.7796, 23.6546, 36.4223, 6.04157, -76.6795, -7.5223
0.58, -1, -1.6903, 23.6192, 36.3615, 6.18811, -76.4609, -7.62416
0.584, -1, -1.60113, 23.5839, 36.3008, 6.33442, -76.2426, -7.72587
0.588, -1, -1.5121, 23.5486, 36.2402, 6.4805, -76.0246, -7.82741
0.592, -1, -1.42322, 23.5134, 36.1797, 6.62634, -75.8071, -7.92879
0.596, -1, -1.33448, 23.4782, 36.1193, 6.77193, -75.5899, -8.02999
0.6, -1, -1.2459, 23.4431, 36.059, 6.91726, -75.3731, -8.13101
0.604, -1, -1.15748, 23.408, 35.9988, 7.06233, -75.1566, -8.23185
0.608, -1, -1.06922, 23.373, 35.9387, 7.20713, -74.9406, -8.3325
0.612, -1, -0.98112, 23.3381, 35.8787, 7.35165, -74.725, -8.43296
0.616, -1, -0.893193, 23.3033, 35.8189, 7.49589, -74.5098, -8.53323
0.62, -1, -0.805439, 23.2685, 35.7592, 7.63985, -74.295, -8.63329
0.624, -1, -0.717861, 23.2338, 35.6995, 7.78351, -74.0807, -8.73316
0.628, -1, -0.630465, 23.1991, 35.6401, 7.92687, -73.8668, -8.83281
0.632, -1, -0.543252, 23.1646, 35.5807, 8.06993, -73.6534, -8.93225
0.636, -1, -0.456226, 23.1301, 35.5215, 8.21268, -73.4404, -9.03148
0.64, -1, -0.369389, 23.0957, 35.4624, 8.35511, -73.2279, -9.13049
0.644, -1, -0.282746, 23.0613, 35.4034, 8.49722, -73.0159, -9.22927
0.648, -1, -0.196298, 23.0271, 35.3446, 8.63901, -72.8044, -9.32783
0.652, -1, -0.110049, 22.9929, 35.2859, 8.78046, -72.5934, -9.42616
0.656, -1, -0.0240014, 22.9588, 35.2273, 8.92158, -72.3828, -9.52425
0.66, -1, 0.0618417, 22.9248, 35.1689, 9.06236, -72.1728, -9.62211
0.664, -1, 0.147478, 22.8908, 35.1106, 9.2028, -71.9633, -9.71973
0.668, -1, 0.232905, 22.857, 35.0525, 9.34289, -71.7543, -9.81711
0.672, -1, 0.318122, 22.8232, 34.9945, 9.48263, -71.5458, -9.91425
0.676, -1, 0.403125, 22.7895, 34.9367, 9.62201, -71.3379, -10.0111
0.68, -1, 0.487913, 22.7559, 34.879, 9.76104, -71.1304, -10.1078
0.684, -1, 0.572484, 22.7224, 34.8215, 9.8997, -70.9236, -10.2042
0.688, -1, 0.656834, 22.689, 34.7641, 10.038, -70.7173, -10.3003
0.692, -1, 0.740962, 22.6557, 34.7069, 10.1759, -70.5115, -10.3962
0.696, -1, 0.824867, 22.6224, 34.6498, 10.3135, -70.3062, -10.4918
0.7, -1, 0.908546, 22.5892, 34.5929, 10.4507, -70.1016, -10.5872
0.704, -1, 0.991999, 22.5562, 34.5361, 10.5875, -69.8974, -10.6823
0.708, -1, 1.07522, 22.5232, 34.4795, 10.7239, -69.6939, -10.7771
0.712, -1, 1.15822, 22.4903, 34.423, 10.86, -69.4909, -10.8717
0.716, -1, 1.24098, 22.4575, 34.3667, 10.9957, -69.2885, -10.966
0.72, -1, 1.32352, 22.4248, 34.3106, 11.131, -69.0866, -11.0601
0.724, -1, 1.40582, 22.3922, 34.2546, 11.2659, -68.8853, -11.1539
0.728, -1, 1.48788, 22.3597, 34.1988, 11.4004, -68.6846, -11.2474
0.732, -1, 1.56971, 22.3272, 34.1431, 11.5346, -68.4845, -11.3406
0.736, -1, 1.65131, 22.2949, 34.0876, 11.6683, -68.285, -11.4336
0.74, -1, 1.73267, 22.2627, 34.0323, 11.8017, -68.086, -11.5263
0.744, -1, 1.81379, 22.2305, 33.9771, 11.9347, -67.8876, -11.6187
0.748, -1, 1.89467, 22.1985, 33.9221, 12.0673, -67.6898, -11.7109
0.752, -1, 1.97531, 22.1665, 33.8672, 12.1995, -67.4926, -11.8028
0.756, -1, 2.05572, 22.1347, 33.8125, 12.3313, -67.296, -11.8944
0.76, -1, 2.13588, 22.1029, 33.758, 12.4626, -67.0999, -11.9857
0.764, -1, 2.2158, 22.0712, 33.7037, 12.5936, -66.9045, -12.0768
0.768, -1, 2.29548, 22.0397, 33.6495, 12.7243, -66.7097, -12.1676
0.772, -1, 2.37492, 22.0082, 33.5954, 12.8545, -66.5154, -12.2581
0.776, -1, 2.45412, 21.9768, 33.5416, 12.9843, -66.3217, -12.3483
0.78, -1, 2.53307, 21.9455, 33.4879, 13.1137, -66.1287, -12.4383
0.784, -1, 2.61178, 21.9143, 33.4343, 13.2427, -65.9362, -12.5279
0.788, -1, 2.69025, 21.8832, 33.381, 13.3713, -65.7444, -12.6173
0.792, -1, 2.76848, 21.8522, 33.3278, 13.4995, -65.5531, -12.7065
0.796, -1, 2.84646, 21.8213, 33.2748, 13.6273, -65.3624, -12.7953
0.8, -1, 2.92419, 21.7905, 33.2219, 13.7547, -65.1723, -12.8839
0.804, -1, 3.00168, 21.7598, 33.1692, 13.8817, -64.9829, -12.9721
0.808, -1, 3.07893, 21.7292, 33.1167, 14.0083, -64.794, -13.0602
0.812, -1, 3.15594, 21.6987, 33.0643, 14.1345, -64.6057, -13.1479
0.816, -1, 3.2327, 21.6683, 33.0121, 14.2603, -64.418, -13.2353
0.82, -1, 3.30921, 21.638, 32.9601, 14.3857, -64.231, -13.3225
0.824, -1, 3.38548, 21.6078, 32.9082, 14.5107, -64.0445, -13.4094
0.828, -1, 3.46151, 21.5776, 32.8565, 14.6353, -63.8586, -13.496
0.832, -1, 3.53729, 21.5476, 32.805, 14.7595, -63.6733, -13.5823
0.836, -1, 3.61283, 21.5177, 32.7536, 14.8833, -63.4886, -13.6684
0.84, -1, 3.68813, 21.4878, 32.7024, 15.0067, -63.3046, -13.7541
0.844, -1, 3.76318, 21.4581, 32.6514, 15.1296, -63.1211, -13.8396
0.848, -1, 3.83799, 21.4285, 32.6005, 15.2522, -62.9382, -13.9248
0.852, -1, 3.91256, 21.3989, 32.5498, 15.3744, -62.7559, -14.0098
0.856, -1, 3.98689, 21.3695, 32.4993, 15.4962, -62.5742, -14.0944
0.86, -1, 4.06097, 21.3401, 32.4489, 15.6176, -62.393, -14.1788
0.864, -1, 4.13482, 21.3109, 32.3987, 15.7386, -62.2125, -14.2629
0.868, -1, 4.20842, 21.2817, 32.3486, 15.8592, -62.0326, -14.3468
0.872, -1, 4.28179, 21.2526, 32.2988, 15.9794, -61.8533, -14.4303
0.876, -1, 4.35492, 21.2236, 32.249, 16.0993, -61.6745, -14.5136
0.88, -1, 4.42781, 21.1948, 32.1995, 16.2187, -61.4963, -14.5966
0.884, -1, 4.50047, 21.166, 32.1501, 16.3377, -61.3187, -14.6794
0.888, -1, 4.57289, 21.1373, 32.1009, 16.4564, -61.1417, -14.7619
0.892, -1, 4.64507, 21.1087, 32.0518, 16.5746, -60.9653, -14.8441
0.896, -1, 4.71702, 21.0802, 32.0029, 16.6925, -60.7895, -14.926
0.9, -1, 4.78874, 21.0517, 31.9541, 16.81, -60.6142, -15.0077
0.904, -1, 4.86022, 21.0234, 31.9055, 16.9271, -60.4395, -15.0891
0.908, -1, 4.93148, 20.9952, 31.8571, 17.0438, -60.2653, -15.1702
0.912, -1, 5.0025, 20.967, 31.8088, 17.1602, -60.0917, -15.2511
0.916, -1, 5.07329, 20.939, 31.7607, 17.2762, -59.9187, -15.3317
0.92, -1, 5.14386, 20.911, 31.7127, 17.3918, -59.7462, -15.4121
0.924, -1, 5.2142, 20.8832, 31.6649, 17.507, -59.5743, -15.4922
0.928, -1, 5.28431, 20.8554, 31.6173, 17.6218, -59.403, -15.572
0.932, -1, 5.3542, 20.8277, 31.5698, 17.7363, -59.2322, -15.6516
0.936, -1, 5.42387, 20.8001, 31.5224, 17.8505, -59.0619, -15.7309
0.94, -1, 5.49331, 20.7726, 31.4752, 17.9642, -58.8922, -15.81
0.944, -1, 5.56253, 20.7451, 31.4282, 18.0776, -58.723, -15.8888
0.948, -1, 5.63153, 20.7178, 31.3812, 18.1907, -58.5544, -15.9674
0.952, -1, 5.70032, 20.6905, 31.3345, 18.3033, -58.3862, -16.0457
0.956, -1, 5.76889, 20.6634, 31.2879, 18.4157, -58.2187, -16.1238
0.96, -1, 5.83724, 20.6363, 31.2414, 18.5276, -58.0516, -16.2017
0.964, -1, 5.90538, 20.6093, 31.1951, 18.6393, -57.8851, -16.2793
0.968, -1, 5.9733, 20.5824, 31.1489, 18.7505, -57.7191, -16.3566
0.972, -1, 6.04101, 20.5556, 31.1029, 18.8615, -57.5536, -16.4337
0.976, -1, 6.10851, 20.5288, 31.057, 18.972, -57.3886, -16.5106
0.98, -1, 6.1758, 20.5021, 31.0113, 19.0823, -57.2242, -16.5872
0.984, -1, 6.24288, 20.4756, 30.9657, 19.1922, -57.0602, -16.6636
0.988, -1, 6.30975, 20.4491, 30.9202, 19.3017, -56.8968, -16.7397
0.992, -1, 6.37641, 20.4227, 30.8749, 19.4109, -56.7339, -16.8156
0.996, -1, 6.44287, 20.3963, 30.8298, 19.5198, -56.5715, -16.8913
1, -1, 6.50913, 20.3701, 30.7847, 19.6283, -56.4095, -16.9668
1.004, -1, 6.57518, 20.3439, 30.7398, 19.7365, -56.2481, -17.042
1.008, -1, 6.64103, 20.3178, 30.6951, 19.8444, -56.0872, -17.117
1.012, -1, 6.70668, 20.2918, 30.6504, 19.9519, -55.9267, -17.1917
1.016, -1, 6.77212, 20.2659, 30.606, 20.0591, -55.7668, -17.2663
1.02, -1, 6.83737, 20.24, 30.5616, 20.166, -55.6073, -17.3406
1.024, -1, 6.90243, 20.2142, 30.5174, 20.2726, -55.4483, -17.4146
1.027, -1, 6.96728, 20.1885, 30.4733, 20.3788, -55.2898, -17.4885
1.032, -1, 7.03194, 20.1629, 30.4294, 20.4848, -55.1318, -17.5621
1.036, -1, 7.0964, 20.1374, 30.3855, 20.5904, -54.9743, -17.6355
1.04, -1, 7.16067, 20.1119, 30.3418, 20.6957, -54.8172, -17.7087
1.044, -1, 7.22475, 20.0865, 30.2983, 20.8006, -54.6606, -17.7817
1.048, -1, 7.28864, 20.0612, 30.2549, 20.9053, -54.5044, -17.8544
1.052, -1, 7.35234, 20.036, 30.2116, 21.0096, -54.3487, -17.927
1.055, -1, 7.41585, 20.0108, 30.1684, 21.1137, -54.1935, -17.9993
1.06, -1, 7.47917, 19.9857, 30.1254, 21.2174, -54.0388, -18.0714
1.064, -1, 7.5423, 19.9607, 30.0824, 21.3208, -53.8845, -18.1433
1.068, -1, 7.60525, 19.9357, 30.0397, 21.4239, -53.7307, -18.215
1.072, -1, 7.66801, 19.9109, 29.997, 21.5268, -53.5773, -18.2864
1.076, -1, 7.73058, 19.8861, 29.9545, 21.6293, -53.4243, -18.3577
1.08, -1, 7.79298, 19.8614, 29.9121, 21.7315, -53.2718, -18.4287
1.084, -1, 7.85519, 19.8367, 29.8698, 21.8334, -53.1198, -18.4996
1.088, -1, 7.91722, 19.8121, 29.8276, 21.935, -52.9682, -18.5702
1.091, -1, 7.97907, 19.7876, 29.7856, 22.0363, -52.817, -18.6407
1.096, -1, 8.04075, 19.7632, 29.7436, 22.1374, -52.6663, -18.7109
1.1, -1, 8.10224, 19.7388, 29.7018, 22.2381, -52.516, -18.7809
1.104, -1, 8.16356, 19.7145, 29.6602, 22.3386, -52.3661, -18.8507
1.108, -1, 8.2247, 19.6903, 29.6186, 22.4387, -52.2167, -18.9204
1.112, -1, 8.28567, 19.6661, 29.5772, 22.5386, -52.0677, -18.9898
1.116, -1, 8.34646, 19.642, 29.5358, 22.6382, -51.9191, -19.059
1.119, -1, 8.40708, 19.618, 29.4946, 22.7375, -51.771, -19.128
1.124, -1, 8.46752, 19.5941, 29.4536, 22.8365, -51.6233, -19.1969
1.128, -1, 8.5278, 19.5702, 29.4126, 22.9353, -51.4759, -19.2655
1.132, -1, 8.5879, 19.5464, 29.3717, 23.0337, -51.329, -19.334
1.136, -1, 8.64784, 19.5226, 29.331, 23.1319, -51.1826, -19.4022
1.14, -1, 8.70761, 19.4989, 29.2904, 23.2298, -51.0365, -19.4703
1.144, -1, 8.76721, 19.4753, 29.2499, 23.3274, -50.8908, -19.5381
1.147, -1, 8.82664, 19.4518, 29.2095, 23.4248, -50.7456, -19.6058
1.152, -1, 8.88591, 19.4283, 29.1692, 23.5219, -50.6007, -19.6733
1.156, -1, 8.94502, 19.4049, 29.129, 23.6187, -50.4563, -19.7406
1.16, -1, 9.00397, 19.3815, 29.0889, 23.7153, -50.3122, -19.8077
1.164, -1, 9.06275, 19.3582, 29.049, 23.8116, -50.1686, -19.8747
1.168, -1, 9.12137, 19.335, 29.0091, 23.9076, -50.0253, -19.9414
1.172, -1, 9.17983, 19.3118, 28.9694, 24.0034, -49.8825, -20.008
1.175, -1, 9.23814, 19.2887, 28.9298, 24.0989, -49.74, -20.0744
1.18, -1, 9.29628, 19.2657, 28.8903, 24.1941, -49.5979, -20.1406
1.184, -1, 9.35427, 19.2427, 28.8508, 24.2891, -49.4562, -20.2066
1.188, -1, 9.4121, 19.2198, 28.8115, 24.3838, -49.3148, -20.2724
1.192, -1, 9.46978, 19.1969, 28.7723, 24.4783, -49.1739, -20.3381
1.196, -1, 9.5273, 19.1741, 28.7332, 24.5725, -49.0333, -20.4036
1.2, -1, 9.58467, 19.1514, 28.6943, 24.6665, -48.8931, -20.4689
1.204, -1, 9.64189, 19.1287, 28.6554, 24.7602, -48.7533, -20.5341
1.208, -1, 9.69896, 19.1061, 28.6166, 24.8537, -48.6138, -20.5991
1.212, -1, 9.75588, 19.0836, 28.5779, 24.947, -48.4747, -20.6639
1.216, -1, 9.81265, 19.0611, 28.5393, 25.0399, -48.336, -20.7285
1.22, -1, 9.86927, 19.0386, 28.5008, 25.1327, -48.1976, -20.793
1.224, -1, 9.92575, 19.0163, 28.4624, 25.2252, -48.0596, -20.8573
1.228, -1, 9.98208, 18.9939, 28.4241, 25.3175, -47.9219, -20.9215
1.232, -1, 10.0383, 18.9717, 28.386, 25.4095, -47.7846, -20.9854
1.236, -1, 10.0943, 18.9495, 28.3479, 25.5013, -47.6476, -21.0493
1.24, -1, 10.1502, 18.9273, 28.3099, 25.5929, -47.511, -21.1129
1.244, -1, 10.206, 18.9052, 28.272, 25.6842, -47.3748, -21.1764
1.248, -1, 10.2616, 18.8832, 28.2342, 25.7753, -47.2388, -21.2397
1.252, -1, 10.3171, 18.8612, 28.1965, 25.8662, -47.1033, -21.3029
1.256, -1, 10.3724, 18.8393, 28.1589, 25.9569, -46.968, -21.3659
1.26, -1, 10.4276, 18.8174, 28.1213, 26.0473, -46.8331, -21.4288
1.264, -1, 10.4827, 18.7956, 28.0839, 26.1375, -46.6986, -21.4915
1.267, -1, 10.5376, 18.7738, 28.0466, 26.2275, -46.5643, -21.554
1.272, -1, 10.5924, 18.7521, 28.0093, 26.3172, -46.4304, -21.6164
1.276, -1, 10.647, 18.7304, 27.9722, 26.4067, -46.2969, -21.6786
1.28, -1, 10.7016, 18.7088, 27.9351, 26.4961, -46.1636, -21.7407
1.284, -1, 10.7559, 18.6873, 27.8982, 26.5851, -46.0307, -21.8027
1.288, -1, 10.8102, 18.6658, 27.8613, 26.674, -45.8981, -21.8644
1.292, -1, 10.8643, 18.6443, 27.8245, 26.7627, -45.7658, -21.9261
1.295, -1, 10.9183, 18.6229, 27.7878, 26.8511, -45.6339, -21.9875
1.3, -1, 10.9722, 18.6016, 27.7512, 26.9394, -45.5022, -22.0489
1.304, -1, 11.0259, 18.5803, 27.7147, 27.0274, -45.3709, -22.1101
1.308, -1, 11.0796, 18.5591, 27.6782, 27.1152, -45.2399, -22.1711
1.312, -1, 11.133, 18.5379, 27.6419, 27.2028, -45.1092, -22.232
1.316, -1, 11.1864, 18.5167, 27.6056, 27.2902, -44.9788, -22.2928
1.32, -1, 11.2396, 18.4956, 27.5695, 27.3774, -44.8487, -22.3534
1.324, -1, 11.2927, 18.4746, 27.5334, 27.4644, -44.719, -22.4138
1.328, -1, 11.3457, 18.4536, 27.4974, 27.5512, -44.5895, -22.4742
1.332, -1, 11.3986, 18.4327, 27.4614, 27.6378, -44.4603, -22.5344
1.336, -1, 11.4513, 18.4118, 27.4256, 27.7241, -44.3314, -22.5944
1.34, -1, 11.5039, 18.3909, 27.3898, 27.8103, -44.2029, -22.6543
1.344, -1, 11.5564, 18.3701, 27.3542, 27.8963, -44.0746, -22.7141
1.348, -1, 11.6088, 18.3494, 27.3186, 27.9821, -43.9466, -22.7737
1.352, -1, 11.661, 18.3287, 27.2831, 28.0677, -43.8189, -22.8332
1.356, -1, 11.7132, 18.308, 27.2476, 28.1531, -43.6915, -22.8926
1.36, -1, 11.7652, 18.2874, 27.2123, 28.2383, -43.5644, -22.9518
1.364, -1, 11.8171, 18.2668, 27.177, 28.3233, -43.4376, -23.0109
1.368, -1, 11.8688, 18.2463, 27.1418, 28.4081, -43.3111, -23.0698
1.372, -1, 11.9205, 18.2259, 27.1067, 28.4927, -43.1848, -23.1286
1.376, -1, 11.972, 18.2054, 27.0717, 28.5771, -43.0589, -23.1873
1.38, -1, 12.0235, 18.1851, 27.0367, 28.6614, -42.9332, -23.2459
1.384, -1, 12.0748, 18.1647, 27.0018, 28.7454, -42.8078, -23.3043
1.388, -1, 12.126, 18.1444, 26.967, 28.8293, -42.6827, -23.3626
1.392, -1, 12.1771, 18.1242, 26.9323, 28.913, -42.5578, -23.4208
1.396, -1, 12.228, 18.104, 26.8977, 28.9965, -42.4333, -23.4788
1.4, -1, 12.2789, 18.0839, 26.8631, 29.0798, -42.309, -23.5367
1.404, -1, 12.3296, 18.0637, 26.8286, 29.1629, -42.185, -23.5945
1.408, -1, 12.3803, 18.0437, 26.7942, 29.2459, -42.0612, -23.6522
1.412, -1, 12.4308, 18.0237, 26.7599, 29.3286, -41.9377, -23.7097
1.416, -1, 12.4812, 18.0037, 26.7256, 29.4112, -41.8145, -23.7671
1.42, -1, 12.5315, 17.9838, 26.6914, 29.4936, -41.6915, -23.8244
1.424, -1, 12.5817, 17.9639, 26.6573, 29.5759, -41.5689, -23.8816
1.428, -1, 12.6318, 17.944, 26.6232, 29.6579, -41.4464, -23.9386
1.432, -1, 12.6818, 17.9242, 26.5893, 29.7398, -41.3243, -23.9956
1.436, -1, 12.7317, 17.9044, 26.5554, 29.8215, -41.2024, -24.0523
1.44, -1, 12.7815, 17.8847, 26.5215, 29.9031, -41.0807, -24.109
1.444, -1, 12.8311, 17.865, 26.4878, 29.9844, -40.9594, -24.1656
1.448, -1, 12.8807, 17.8454, 26.4541, 30.0656, -40.8382, -24.222
1.452, -1, 12.9302, 17.8258, 26.4205, 30.1466, -40.7174, -24.2783
1.456, -1, 12.9795, 17.8062, 26.3869, 30.2275, -40.5967, -24.3345
1.46, -1, 13.0288, 17.7867, 26.3534, 30.3082, -40.4764, -24.3906
1.464, -1, 13.0779, 17.7673, 26.32, 30.3887, -40.3563, -24.4466
1.468, -1, 13.127, 17.7478, 26.2867, 30.469, -40.2364, -24.5024
1.472, -1, 13.1759, 17.7284, 26.2534, 30.5492, -40.1168, -24.5582
1.476, -1, 13.2248, 17.7091, 26.2202, 30.6292, -39.9974, -24.6138
1.48, -1, 13.2735, 17.6898, 26.1871, 30.7091, -39.8783, -24.6693
1.484, -1, 13.3222, 17.6705, 26.154, 30.7888, -39.7594, -24.7247
1.488, -1, 13.3707, 17.6512, 26.121, 30.8683, -39.6407, -24.78
1.492, -1, 13.4191, 17.6321, 26.0881, 30.9476, -39.5223, -24.8351
1.496, -1, 13.4675, 17.6129, 26.0553, 31.0268, -39.4042, -24.8902
1.5, -1, 13.5157, 17.5938, 26.0225, 31.1059, -39.2863, -24.9451
1.504, -1, 13.5639, 17.5747, 25.9897, 31.1848, -39.1686, -25
1.508, -1, 13.612, 17.5557, 25.9571, 31.2635, -39.0511, -25.0547
1.512, -1, 13.6599, 17.5366, 25.9245, 31.3421, -38.9339, -25.1093
1.516, -1, 13.7078, 17.5177, 25.8919, 31.4205, -38.8169, -25.1638
1.52, -1, 13.7556, 17.4988, 25.8595, 31.4987, -38.7002, -25.2182
1.524, -1, 13.8032, 17.4799, 25.8271, 31.5768, -38.5837, -25.2725
1.528, -1, 13.8508, 17.461, 25.7947, 31.6548, -38.4674, -25.3267
1.532, -1, 13.8983, 17.4422, 25.7624, 31.7326, -38.3513, -25.3808
1.536, -1, 13.9457, 17.4234, 25.7302, 31.8102, -38.2355, -25.4347
1.54, -1, 13.993, 17.4047, 25.6981, 31.8877, -38.1199, -25.4886
1.544, -1, 14.0402, 17.386, 25.666, 31.965, -38.0045, -25.5424
1.548, -1, 14.0874, 17.3673, 25.634, 32.0422, -37.8893, -25.596
1.552, -1, 14.1344, 17.3486, 25.602, 32.1193, -37.7744, -25.6496
1.556, -1, 14.1813, 17.33, 25.5701, 32.1962, -37.6597, -25.703
1.56, -1, 14.2282, 17.3115, 25.5382, 32.2729, -37.5452, -25.7564
1.564, -1, 14.275, 17.2929, 25.5065, 32.3495, -37.4309, -25.8096
1.568, -1, 14.3216, 17.2745, 25.4747, 32.426, -37.3168, -25.8628
1.572, -1, 14.3682, 17.256, 25.4431, 32.5023, -37.2029, -25.9158
1.576, -1, 14.4147, 17.2376, 25.4115, 32.5785, -37.0893, -25.9688
1.58, -1, 14.4611, 17.2192, 25.3799, 32.6545, -36.9758, -26.0216
1.584, -1, 14.5075, 17.2008, 25.3484, 32.7304, -36.8626, -26.0744
1.588, -1, 14.5537, 17.1825, 25.317, 32.8062, -36.7496, -26.1271
1.592, -1, 14.5999, 17.1642, 25.2856, 32.8818, -36.6368, -26.1796
1.596, -1, 14.6459, 17.1459, 25.2543, 32.9573, -36.5242, -26.2321
1.6, -1, 14.6919, 17.1277, 25.2231, 33.0326, -36.4118, -26.2844
1.604, -1, 14.7378, 17.1095, 25.1919, 33.1078, -36.2996, -26.3367
1.608, -1, 14.7837, 17.0914, 25.1607, 33.1829, -36.1877, -26.3889
1.612, -1, 14.8294, 17.0733, 25.1296, 33.2578, -36.0759, -26.441
1.616, -1, 14.875, 17.0552, 25.0986, 33.3326, -35.9643, -26.493
1.62, -1, 14.9206, 17.0371, 25.0676, 33.4072, -35.8529, -26.5448
1.624, -1, 14.9661, 17.0191, 25.0367, 33.4817, -35.7418, -26.5966
1.628, -1, 15.0115, 17.0011, 25.0058, 33.5561, -35.6308, -26.6483
1.632, -1, 15.0568, 16.9831, 24.975, 33.6304, -35.52, -26.7
1.636, -1, 15.1021, 16.9652, 24.9443, 33.7045, -35.4094, -26.7515
1.64, -1, 15.1472, 16.9473, 24.9136, 33.7785, -35.2991, -26.8029
1.644, -1, 15.1923, 16.9294, 24.8829, 33.8523, -35.1889, -26.8543
1.648, -1, 15.2373, 16.9116, 24.8524, 33.9261, -35.0789, -26.9055
1.652, -1, 15.2822, 16.8938, 24.8218, 33.9997, -34.9691, -26.9567
1.656, -1, 15.3271, 16.876, 24.7913, 34.0731, -34.8595, -27.0077
1.66, -1, 15.3719, 16.8583, 24.7609, 34.1465, -34.75, -27.0587
1.664, -1, 15.4166, 16.8406, 24.7305, 34.2197, -34.6408, -27.1096
1.668, -1, 15.4612, 16.8229, 24.7002, 34.2928, -34.5318, -27.1604
1.672, -1, 15.5057, 16.8053, 24.6699, 34.3657, -34.4229, -27.2111
1.676, -1, 15.5502, 16.7876, 24.6397, 34.4386, -34.3143, -27.2618
1.68, -1, 15.5946, 16.7701, 24.6095, 34.5113, -34.2058, -27.3123
1.684, -1, 15.6389, 16.7525, 24.5794, 34.5839, -34.0975, -27.3628
1.688, -1, 15.6831, 16.735, 24.5494, 34.6563, -33.9894, -27.4131
1.692, -1, 15.7272, 16.7175, 24.5193, 34.7287, -33.8815, -27.4634
1.696, -1, 15.7713, 16.7, 24.4894, 34.8009, -33.7737, -27.5136
1.7, -1, 15.8153, 16.6826, 24.4595, 34.873, -33.6662, -27.5637
1.704, -1, 15.8593, 16.6652, 24.4296, 34.945, -33.5588, -27.6138
1.708, -1, 15.9031, 16.6478, 24.3998, 35.0168, -33.4516, -27.6637
1.712, -1, 15.9469, 16.6304, 24.37, 35.0886, -33.3446, -27.7136
1.716, -1, 15.9906, 16.6131, 24.3403, 35.1602, -33.2377, -27.7634
1.72, -1, 16.0343, 16.5958, 24.3107, 35.2317, -33.1311, -27.8131
1.724, -1, 16.0778, 16.5786, 24.281, 35.303, -33.0246, -27.8627
1.728, -1, 16.1213, 16.5613, 24.2515, 35.3743, -32.9183, -27.9122
1.732, -1, 16.1648, 16.5441, 24.222, 35.4454, -32.8121, -27.9617
1.736, -1, 16.2081, 16.5269, 24.1925, 35.5165, -32.7062, -28.011
1.74, -1, 16.2514, 16.5098, 24.1631, 35.5874, -32.6004, -28.0603
1.744, -1, 16.2946, 16.4927, 24.1337, 35.6582, -32.4947, -28.1096
1.748, -1, 16.3378, 16.4756, 24.1044, 35.7289, -32.3893, -28.1587
1.752, -1, 16.3808, 16.4585, 24.0751, 35.7994, -32.284, -28.2077
1.756, -1, 16.4238, 16.4414, 24.0459, 35.8699, -32.1789, -28.2567
1.76, -1, 16.4668, 16.4244, 24.0167, 35.9402, -32.074, -28.3056
1.764, -1, 16.5096, 16.4074, 23.9875, 36.0105, -31.9692, -28.3544
1.768, -1, 16.5524, 16.3905, 23.9584, 36.0806, -31.8646, -28.4032
1.772, -1, 16.5952, 16.3736, 23.9294, 36.1506, -31.7602, -28.4518
1.776, -1, 16.6378, 16.3566, 23.9004, 36.2205, -31.6559, -28.5004
1.78, -1, 16.6804, 16.3398, 23.8714, 36.2902, -31.5518, -28.5489
1.784, -1, 16.7229, 16.3229, 23.8425, 36.3599, -31.4478, -28.5973
1.788, -1, 16.7654, 16.3061, 23.8137, 36.4295, -31.344, -28.6457
1.792, -1, 16.8078, 16.2893, 23.7849, 36.4989, -31.2404, -28.694
1.796, -1, 16.8501, 16.2725, 23.7561, 36.5683, -31.137, -28.7422
1.8, -1, 16.8924, 16.2558, 23.7274, 36.6375, -31.0337, -28.7903
1.804, -1, 16.9346, 16.239, 23.6987, 36.7067, -30.9305, -28.8384
1.808, -1, 16.9767, 16.2224, 23.67, 36.7757, -30.8276, -28.8863
1.812, -1, 17.0188, 16.2057, 23.6414, 36.8446, -30.7248, -28.9343
1.816, -1, 17.0608, 16.189, 23.6129, 36.9134, -30.6221, -28.9821
1.82, -1, 17.1027, 16.1724, 23.5844, 36.9821, -30.5196, -29.0298
1.824, -1, 17.1445, 16.1559, 23.5559, 37.0507, -30.4172, -29.0775
1.828, -1, 17.186, 16.1394, 23.5275, 37.1192, -30.3151, -29.1251
1.832, -1, 17.2272, 16.1231, 23.4991, 37.1876, -30.2131, -29.1727
1.836, -1, 17.2677, 16.107, 23.4708, 37.2557, -30.1114, -29.2201
1.84, -1, 17.3076, 16.0912, 23.4426, 37.3237, -30.01, -29.2673
1.844, -1, 17.3467, 16.0757, 23.4146, 37.3913, -29.9092, -29.3143
1.848, -1, 17.3848, 16.0608, 23.3867, 37.4584, -29.8092, -29.3609
1.852, -1, 17.422, 16.0463, 23.3592, 37.5247, -29.7102, -29.407
1.856, -1, 17.458, 16.0323, 23.332, 37.59, -29.6128, -29.4524
1.86, -1, 17.4929, 16.019, 23.3054, 37.654, -29.5174, -29.4969
1.864, -1, 17.5264, 16.0063, 23.2795, 37.7163, -29.4245, -29.5402
1.868, -1, 17.5585, 15.9944, 23.2545, 37.7765, -29.3348, -29.582
1.872, -1, 17.589, 15.9832, 23.2306, 37.8341, -29.2489, -29.6221
1.876, -1, 17.6179, 15.9726, 23.2078, 37.8888, -29.1674, -29.66
1.88, -1, 17.6452, 15.9627, 23.1865, 37.94, -29.0911, -29.6956
1.884, -1, 17.6708, 15.9533, 23.1668, 37.9874, -29.0204, -29.7286
1.888, -1, 17.6949, 15.9443, 23.1489, 38.0306, -28.9559, -29.7586
1.892, -1, 17.7175, 15.9356, 23.1327, 38.0695, -28.8979, -29.7857
1.896, -1, 17.7385, 15.9272, 23.1184, 38.1039, -28.8466, -29.8096
1.9, -1, 17.758, 15.9192, 23.106, 38.1339, -28.8018, -29.8304
1.904, -1, 17.7759, 15.9115, 23.0954, 38.1595, -28.7636, -29.8482
1.908, -1, 17.792, 15.9045, 23.0865, 38.181, -28.7315, -29.8632
1.912, -1, 17.8065, 15.898, 23.0792, 38.1987, -28.7051, -29.8755
1.916, -1, 17.8195, 15.8921, 23.0733, 38.2129, -28.6838, -29.8854
1.92, -1, 17.831, 15.8868, 23.0687, 38.2241, -28.667, -29.8932
1.924, -1, 17.8411, 15.8821, 23.0652, 38.2327, -28.6542, -29.8991
1.928, -1, 17.85, 15.8781, 23.0626, 38.2391, -28.6446, -29.9036
1.932, -1, 17.8576, 15.8747, 23.0607, 38.2438, -28.6375, -29.9068
1.936, -1, 17.8638, 15.872, 23.0593, 38.2471, -28.6325, -29.9091
1.94, 2, 17.8689, 15.8698, 23.0584, 38.2494, -28.629, -29.9108
1.944, 2, 17.8727, 15.8682, 23.0577, 38.251, -28.6266, -29.9119
1.948, 2, 17.8755, 15.867, 23.0573, 38.2521, -28.625, -29.9126
1.952, 2, 17.8775, 15.8662, 23.057, 38.2528, -28.6239, -29.9131
1.956, 2, 17.8788, 15.8657, 23.0568, 38.2533, -28.6231, -29.9135
1.96, 2, 17.8797, 15.8653, 23.0567, 38.2537, -28.6226, -29.9137
1.964, 2, 17.8803, 15.8651, 23.0566, 38.2539, -28.6222, -29.9139
1.968, 2, 17.8807, 15.8649, 23.0565, 38.254, -28.622, -29.914
1.972, 2, 17.881, 15.8648, 23.0565, 38.2541, -28.6219, -29.9141
1.976, 2, 17.8812, 15.8647, 23.0564, 38.2542, -28.6217, -29.9141
1.98, 2, 17.8813, 15.8647, 23.0564, 38.2543, -28.6217, -29.9142
1.984, 2, 17.8814, 15.8646, 23.0564, 38.2543, -28.6216, -29.9142
1.988, 2, 17.8814, 15.8646, 23.0564, 38.2543, -28.6216, -29.9142
1.992, 2, 17.8815, 15.8646, 23.0564, 38.2543, -28.6216, -29.9142
1.996, 2, 17.8815, 15.8646, 23.0564, 38.2543, -28.6216, -29.9142
1.999, 2, 17.8815, 15.8646, 23.0564, 38.2544, -28.6215, -29.9142
2.004, 2, 17.8815, 15.8646, 23.0564, 38.2544, -28.6215, -29.9142
2.008, 2, 17.8816, 15.8646, 23.0564, 38.2544, -28.6215, -29.9142
2.012, 2, 17.8816, 15.8646, 23.0564, 38.2544, -28.6215, -29.9142
2.015, 2, 17.8816, 15.8646, 23.0564, 38.2544, -28.6215, -29.9142
2.019, 2, 17.8816, 15.8646, 23.0564, 38.2544, -28.6215, -29.9142
2.024, 2, 17.8816, 15.8646, 23.0564, 38.2544, -28.6215, -29.9142
2.028, 2, 17.8816, 15.8645, 23.0564, 38.2544, -28.6215, -29.9142
2.031, 2, 17.8816, 15.8645, 23.0564, 38.2544, -28.6215, -29.9142
2.036, 2, 17.8816, 15.8645, 23.0564, 38.2544, -28.6215, -29.9142
2.04, 2, 17.8816, 15.8645, 23.0564, 38.2544, -28.6215, -29.9142
2.044, 2, 17.8816, 15.8645, 23.0564, 38.2544, -28.6215, -29.9142
2.048, 2, 17.8816, 15.8645, 23.0564, 38.2544, -28.6215, -29.9142
2.051, 2, 17.8816, 15.8645, 23.0564, 38.2544, -28.6215, -29.9142
2.055, 2, 17.8816, 15.8645, 23.0564, 38.2544, -28.6215, -29.9142
2.06, 2, 17.8816, 15.8645, 23.0564, 38.2544, -28.6215, -29.9142
2.064, 2, 17.8816, 15.8645, 23.0564, 38.2544, -28.6215, -29.9142
2.068, 2, 17.8816, 15.8645, 23.0564, 38.2544, -28.6215, -29.9142
2.071, 2, 17.8816, 15.8645, 23.0564, 38.2544, -28.6215, -29.9142
2.076, 2, 17.8816, 15.8645, 23.0564, 38.2544, -28.6215, -29.9142
2.08, 2, 17.8816, 15.8645, 23.0564, 38.2544, -28.6215, -29.9142
2.084, 2, 17.8816, 15.8645, 23.0564, 38.2544, -28.6215, -29.9142
2.087, 2, 17.8816, 15.8645, 23.0564, 38.2544, -28.6215, -29.9142
2.092, 2, 17.8816, 15.8645, 23.0564, 38.2544, -28.6215, -29.9142
2.096, 2, 17.8816, 15.8645, 23.0564, 38.2544, -28.6215, -29.9142
2.1, 2, 17.8816, 15.8645, 23.0564, 38.2544, -28.6215, -29.9142
2.104, 2, 17.8816, 15.8645, 23.0564, 38.2544, -28.6215, -29.9142
2.107, 2, 17.8816, 15.8645, 23.0564, 38.2544, -28.6215, -29.9142
2.111, 2, 17.8816, 15.8645, 23.0564, 38.2544, -28.6215, -29.9142
2.116, 2, 17.8816, 15.8645, 23.0564, 38.2544, -28.6215, -29.9142
2.12, 2, 17.8816, 15.8645, 23.0564, 38.2544, -28.6215, -29.9142
2.124, 2, 17.8816, 15.8645, 23.0564, 38.2544, -28.6215, -29.9142
2.127, 2, 17.8816, 15.8645, 23.0564, 38.2544, -28.6215, -29.9142
2.132, 2, 17.8816, 15.8645, 23.0564, 38.2544, -28.6215, -29.9142
2.136, 2, 17.8816, 15.8645, 23.0564, 38.2544, -28.6215, -29.9142
2.14, 2, 17.8816, 15.8645, 23.0564, 38.2544, -28.6215, -29.9142
2.143, 2, 17.8816, 15.8645, 23.0564, 38.2544, -28.6215, -29.9142
2.148, 2, 17.8816, 15.8645, 23.0564, 38.2544, -28.6215, -29.9142
2.152, 2, 17.8816, 15.8645, 23.0564, 38.2544, -28.6215, -29.9142
2.156, 2, 17.8816, 15.8645, 23.0564, 38.2544, -28.6215, -29.9142
2.16, 2, 17.8816, 15.8645, 23.0564, 38.2544, -28.6215, -29.9142
2.163, 2, 17.8816, 15.8645, 23.0564, 38.2544, -28.6215, -29.9142
2.168, 2, 17.8816, 15.8645, 23.0564, 38.2544, -28.6215, -29.9142
2.172, 2, 17.8816, 15.8645, 23.0564, 38.2544, -28.6215, -29.9142
2.176, 2, 17.8816, 15.8645, 23.0564, 38.2544, -28.6215, -29.9142
2.179, 2, 17.8816, 15.8645, 23.0564, 38.2544, -28.6215, -29.9142
2.184, 2, 17.8816, 15.8645, 23.0564, 38.2544, -28.6215, -29.9142
2.188, 2, 17.8816, 15.8645, 23.0564, 38.2544, -28.6215, -29.9142
2.192, 2, 17.8816, 15.8645, 23.0564, 38.2544, -28.6215, -29.9142
2.196, 2, 17.8816, 15.8645, 23.0564, 38.2544, -28.6215, -29.9142
2.199, 2, 17.8816, 15.8645, 23.0564, 38.2544, -28.6215, -29.9142
2.204, 2, 17.8816, 15.8645, 23.0564, 38.2544, -28.6215, -29.9142
2.208, 2, 17.8816, 15.8645, 23.0564, 38.2544, -28.6215, -29.9142
2.212, 2, 17.8816, 15.8645, 23.0564, 38.2544, -28.6215, -29.9142
2.216, 2, 17.8816, 15.8645, 23.0564, 38.2544, -28.6215, -29.9142
2.219, 2, 17.8816, 15.8645, 23.0564, 38.2544, -28.6215, -29.9142
2.224, 2, 17.8816, 15.8645, 23.0564, 38.2544, -28.6215, -29.9142
2.228, 2, 17.8816, 15.8645, 23.0564, 38.2544, -28.6215, -29.9142
2.232, 2, 17.8816, 15.8645, 23.0564, 38.2544, -28.6215, -29.9142
2.235, 2, 17.8816, 15.8645, 23.0564, 38.2544, -28.6215, -29.9142
2.24, 2, 17.8816, 15.8645, 23.0564, 38.2544, -28.6215, -29.9142
2.244, 2, 17.8816, 15.8645, 23.0564, 38.2544, -28.6215, -29.9142
2.248, 2, 17.8816, 15.8645, 23.0564, 38.2544, -28.6215, -29.9142
2.252, 2, 17.8816, 15.8645, 23.0564, 38.2544, -28.6215, -29.9142
2.255, 2, 17.8816, 15.8645, 23.0564, 38.2544, -28.6215, -29.9142
2.259, 2, 17.8816, 15.8645, 23.0564, 38.2544, -28.6215, -29.9142
2.264, 2, 17.8816, 15.8645, 23.0564, 38.2544, -28.6215, -29.9142
2.268, 2, 17.8816, 15.8645, 23.0564, 38.2544, -28.6215, -29.9142
2.272, 2, 17.8816, 15.8645, 23.0564, 38.2544, -28.6215, -29.9142
2.275, 2, 17.8816, 15.8645, 23.0564, 38.2544, -28.6215, -29.9142
2.28, 2, 17.8816, 15.8645, 23.0564, 38.2544, -28.6215, -29.9142
2.284, 2, 17.8816, 15.8645, 23.0564, 38.2544, -28.6215, -29.9142
2.288, 2, 17.8816, 15.8645, 23.0564, 38.2544, -28.6215, -29.9142
2.291, 2, 17.8816, 15.8645, 23.0564, 38.2544, -28.6215, -29.9142
2.296, 2, 17.8816, 15.8645, 23.0564, 38.2544, -28.6215, -29.9142
2.3, 2, 17.8816, 15.8645, 23.0564, 38.2544, -28.6215, -29.9142
2.304, 2, 17.8816, 15.8645, 23.0564, 38.2544, -28.6215, -29.9142
2.308, 2, 17.8816, 15.8645, 23.0564, 38.2544, -28.6215, -29.9142
2.311, 2, 17.8816, 15.8645, 23.0564, 38.2544, -28.6215, -29.9142
2.316, 2, 17.8816, 15.8645, 23.0564, 38.2544, -28.6215, -29.9142
2.32, 2, 17.8816, 15.8645, 23.0564, 38.2544, -28.6215, -29.9142
2.324, 2, 17.8816, 15.8645, 23.0564, 38.2544, -28.6215, -29.9142
2.328, 2, 17.8816, 15.8645, 23.0564, 38.2544, -28.6215, -29.9142
2.331, 2, 17.8816, 15.8645, 23.0564, 38.2544, -28.6215, -29.9142
2.336, 2, 17.8816, 15.8645, 23.0564, 38.2544, -28.6215, -29.9142
2.34, 2, 17.8816, 15.8645, 23.0564, 38.2544, -28.6215, -29.9142
2.344, 2, 17.8816, 15.8645, 23.0564, 38.2544, -28.6215, -29.9142
2.347, 2, 17.8816, 15.8645, 23.0564, 38.2544, -28.6215, -29.9142
2.352, 2, 17.8816, 15.8645, 23.0564, 38.2544, -28.6215, -29.9142
2.356, 2, 17.8816, 15.8645, 23.0564, 38.2544, -28.6215, -29.9142
2.36, 2, 17.8816, 15.8645, 23.0564, 38.2544, -28.6215, -29.9142
2.364, 2, 17.8816, 15.8645, 23.0564, 38.2544, -28.6215, -29.9142
2.367, 2, 17.8816, 15.8645, 23.0564, 38.2544, -28.6215, -29.9142
2.372, 2, 17.8816, 15.8645, 23.0564, 38.2544, -28.6215, -29.9142
2.376, 2, 17.8816, 15.8645, 23.0564, 38.2544, -28.6215, -29.9142
2.38, 2, 17.8816, 15.8645, 23.0564, 38.2544, -28.6215, -29.9142
2.383, 2, 17.8816, 15.8645, 23.0564, 38.2544, -28.6215, -29.9142
2.388, 2, 17.8816, 15.8645, 23.0564, 38.2544, -28.6215, -29.9142
2.392, 2, 17.8816, 15.8645, 23.0564, 38.2544, -28.6215, -29.9142
2.396, 2, 17.8816, 15.8645, 23.0564, 38.2544, -28.6215, -29.9142
2.4, 2, 17.8816, 15.8645, 23.0564, 38.2544, -28.6215, -29.9142
2.403, 2, 17.8816, 15.8645, 23.0564, 38.2544, -28.6215, -29.9142
2.408, 2, 17.8816, 15.8645, 23.0564, 38.2544, -28.6215, -29.9142
2.412, 2, 17.8816, 15.8645, 23.0564, 38.2544, -28.6215, -29.9142
2.416, 2, 17.8816, 15.8645, 23.0564, 38.2544, -28.6215, -29.9142
2.42, 2, 17.8816, 15.8645, 23.0564, 38.2544, -28.6215, -29.9142
2.423, 2, 17.8816, 15.8645, 23.0564, 38.2544, -28.6215, -29.9142
2.428, 2, 17.8816, 15.8645, 23.0564, 38.2544, -28.6215, -29.9142
2.432, 2, 17.8816, 15.8645, 23.0564, 38.2544, -28.6215, -29.9142
2.436, 2, 17.8816, 15.8645, 23.0564, 38.2544, -28.6215, -29.9142
2.439, 2, 17.8816, 15.8645, 23.0564, 38.2544, -28.6215, -29.9142
2.444, 2, 17.8816, 15.8645, 23.0564, 38.2544, -28.6215, -29.9142
2.448, 2, 17.8816, 15.8645, 23.0564, 38.2544, -28.6215, -29.9142
2.452, 2, 17.8816, 15.8645, 23.0564, 38.2544, -28.6215, -29.9142
2.456, 2, 17.8816, 15.8645, 23.0564, 38.2544, -28.6215, -29.9142
2.459, 2, 17.8816, 15.8645, 23.0564, 38.2544, -28.6215, -29.9142
2.464, 2, 17.8816, 15.8645, 23.0564, 38.2544, -28.6215, -29.9142
2.468, 2, 17.8816, 15.8645, 23.0564, 38.2544, -28.6215, -29.9142
2.472, 2, 17.8816, 15.8645, 23.0564, 38.2544, -28.6215, -29.9142
2.476, 2, 17.8816, 15.8645, 23.0564, 38.2544, -28.6215, -29.9142
2.479, 2, 17.8816, 15.8645, 23.0564, 38.2544, -28.6215, -29.9142
2.484, 2, 17.8816, 15.8645, 23.0564, 38.2544, -28.6215, -29.9142
2.488, 2, 17.8816, 15.8645, 23.0564, 38.2544, -28.6215, -29.9142
2.492, 2, 17.8816, 15.8645, 23.0564, 38.2544, -28.6215, -29.9142
2.495, 2, 17.8816, 15.8645, 23.0564, 38.2544, -28.6215, -29.9142
2.5, 2, 17.8816, 15.8645, 23.0564, 38.2544, -28.6215, -29.9142
2.504, 2, 17.8816, 15.8645, 23.0564, 38.2544, -28.6215, -29.9142
2.508, 2, 17.8816, 15.8645, 23.0564, 38.2544, -28.6215, -29.9142
2.512, 2, 17.8816, 15.8645, 23.0564, 38.2544, -28.6215, -29.9142
2.515, 2, 17.8816, 15.8645, 23.0564, 38.2544, -28.6215, -29.9142
2.52, 2, 17.8816, 15.8645, 23.0564, 38.2544, -28.6215, -29.9142
2.524, 2, 17.8816, 15.8645, 23.0564, 38.2544, -28.6215, -29.9142
2.528, 2, 17.8816, 15.8645, 23.0564, 38.2544, -28.6215, -29.9142
2.531, 2, 17.8816, 15.8645, 23.0564, 38.2544, -28.6215, -29.9142
2.536, 2, 17.8816, 15.8645, 23.0564, 38.2544, -28.6215, -29.9142
2.54, 2, 17.8816, 15.8645, 23.0564, 38.2544, -28.6215, -29.9142
2.544, 2, 17.8816, 15.8645, 23.0564, 38.2544, -28.6215, -29.9142
2.548, 2, 17.8816, 15.8645, 23.0564, 38.2544, -28.6215, -29.9142
2.551, 2, 17.8816, 15.8645, 23.0564, 38.2544, -28.6215, -29.9142
2.556, 2, 17.8816, 15.8645, 23.0564, 38.2544, -28.6215, -29.9142
2.56, 2, 17.8816, 15.8645, 23.0564, 38.2544, -28.6215, -29.9142
2.564, 2, 17.8816, 15.8645, 23.0564, 38.2544, -28.6215, -29.9142
2.568, 2, 17.8816, 15.8645, 23.0564, 38.2544, -28.6215, -29.9142
2.571, 2, 17.8816, 15.8645, 23.0564, 38.2544, -28.6215, -29.9142
2.576, 2, 17.8816, 15.8645, 23.0564, 38.2544, -28.6215, -29.9142
2.58, 2, 17.8816, 15.8645, 23.0564, 38.2544, -28.6215, -29.9142
2.584, 2, 17.8816, 15.8645, 23.0564, 38.2544, -28.6215, -29.9142
2.587, 2, 17.8816, 15.8645, 23.0564, 38.2544, -28.6215, -29.9142
2.592, 2, 17.8816, 15.8645, 23.0564, 38.2544, -28.6215, -29.9142
2.596, 2, 17.8816, 15.8645, 23.0564, 38.2544, -28.6215, -29.9142
2.6, 2, 17.8816, 15.8645, 23.0564, 38.2544, -28.6215, -29.9142
2.604, 2, 17.8816, 15.8645, 23.0564, 38.2544, -28.6215, -29.9142
2.607, 2, 17.8816, 15.8645, 23.0564, 38.2544, -28.6215, -29.9142
2.612, 2, 17.8816, 15.8645, 23.0564, 38.2544, -28.6215, -29.9142
2.616, 2, 17.8816, 15.8645, 23.0564, 38.2544, -28.6215, -29.9142
2.62, 2, 17.8816, 15.8645, 23.0564, 38.2544, -28.6215, -29.9142
2.624, 2, 17.8816, 15.8645, 23.0564, 38.2544, -28.6215, -29.9142
2.627, 2, 17.8816, 15.8645, 23.0564, 38.2544, -28.6215, -29.9142
2.632, 2, 17.8816, 15.8645, 23.0564, 38.2544, -28.6215, -29.9142
2.636, 2, 17.8816, 15.8645, 23.0564, 38.2544, -28.6215, -29.9142
2.64, 2, 17.8816, 15.8645, 23.0564, 38.2544, -28.6215, -29.9142
2.643, 2, 17.8816, 15.8645, 23.0564, 38.2544, -28.6215, -29.9142
2.648, 2, 17.8816, 15.8645, 23.0564, 38.2544, -28.6215, -29.9142
2.652, 2, 17.8816, 15.8645, 23.0564, 38.2544, -28.6215, -29.9142
2.656, 2, 17.8816, 15.8645, 23.0564, 38.2544, -28.6215, -29.9142
2.66, 2, 17.8816, 15.8645, 23.0564, 38.2544, -28.6215, -29.9142
2.663, 2, 17.8816, 15.8645, 23.0564, 38.2544, -28.6215, -29.9142
2.668, 2, 17.8816, 15.8645, 23.0564, 38.2544, -28.6215, -29.9142
2.672, 2, 17.8816, 15.8645, 23.0564, 38.2544, -28.6215, -29.9142
2.676, 2, 17.8816, 15.8645, 23.0564, 38.2544, -28.6215, -29.9142
2.679, 2, 17.8816, 15.8645, 23.0564, 38.2544, -28.6215, -29.9142
2.684, 2, 17.8816, 15.8645, 23.0564, 38.2544, -28.6215, -29.9142
2.688, 2, 17.8816, 15.8645, 23.0564, 38.2544, -28.6215, -29.9142
2.692, 2, 17.8816, 15.8645, 23.0564, 38.2544, -28.6215, -29.9142
2.696, 2, 17.8816, 15.8645, 23.0564, 38.2544, -28.6215, -29.9142
2.699, 2, 17.8816, 15.8645, 23.0564, 38.2544, -28.6215, -29.9142
2.704, 2, 17.8816, 15.8645, 23.0564, 38.2544, -28.6215, -29.9142
2.708, 2, 17.8816, 15.8645, 23.0564, 38.2544, -28.6215, -29.9142
2.712, 2, 17.8816, 15.8645, 23.0564, 38.2544, -28.6215, -29.9142
2.716, 2, 17.8816, 15.8645, 23.0564, 38.2544, -28.6215, -29.9142
2.719, 2, 17.8816, 15.8645, 23.0564, 38.2544, -28.6215, -29.9142
2.724, 2, 17.8816, 15.8645, 23.0564, 38.2544, -28.6215, -29.9142
2.728, 2, 17.8816, 15.8645, 23.0564, 38.2544, -28.6215, -29.9142
2.732, 2, 17.8816, 15.8645, 23.0564, 38.2544, -28.6215, -29.9142
2.735, 2, 17.8816, 15.8645, 23.0564, 38.2544, -28.6215, -29.9142
2.74, 2, 17.8816, 15.8645, 23.0564, 38.2544, -28.6215, -29.9142
2.744, 2, 17.8816, 15.8645, 23.0564, 38.2544, -28.6215, -29.9142
2.748, 2, 17.8816, 15.8645, 23.0564, 38.2544, -28.6215, -29.9142
2.752, 2, 17.8816, 15.8645, 23.0564, 38.2544, -28.6215, -29.9142
2.755, 2, 17.8816, 15.8645, 23.0564, 38.2544, -28.6215, -29.9142
2.76, 2, 17.8816, 15.8645, 23.0564, 38.2544, -28.6215, -29.9142
2.764, 2, 17.8816, 15.8645, 23.0564, 38.2544, -28.6215, -29.9142
2.768, 2, 17.8816, 15.8645, 23.0564, 38.2544, -28.6215, -29.9142
2.772, 2, 17.8816, 15.8645, 23.0564, 38.2544, -28.6215, -29.9142
2.775, 2, 17.8816, 15.8645, 23.0564, 38.2544, -28.6215, -29.9142
2.78, 2, 17.8816, 15.8645, 23.0564, 38.2544, -28.6215, -29.9142
2.784, 2, 17.8816, 15.8645, 23.0564, 38.2544, -28.6215, -29.9142
2.788, 2, 17.8816, 15.8645, 23.0564, 38.2544, -28.6215, -29.9142
2.791, 2, 17.8816, 15.8645, 23.0564, 38.2544, -28.6215, -29.9142
2.796, 2, 17.8816, 15.8645, 23.0564, 38.2544, -28.6215, -29.9142
2.8, 2, 17.8816, 15.8645, 23.0564, 38.2544, -28.6215, -29.9142
2.804, 2, 17.8816, 15.8645, 23.0564, 38.2544, -28.6215, -29.9142
2.808, 2, 17.8816, 15.8645, 23.0564, 38.2544, -28.6215, -29.9142
2.811, 2, 17.8816, 15.8645, 23.0564, 38.2544, -28.6215, -29.9142
2.816, 2, 17.8816, 15.8645, 23.0564, 38.2544, -28.6215, -29.9142
2.82, 2, 17.8816, 15.8645, 23.0564, 38.2544, -28.6215, -29.9142
2.824, 2, 17.8816, 15.8645, 23.0564, 38.2544, -28.6215, -29.9142
2.828, 2, 17.8816, 15.8645, 23.0564, 38.2544, -28.6215, -29.9142
2.831, 2, 17.8816, 15.8645, 23.0564, 38.2544, -28.6215, -29.9142
2.836, 2, 17.8816, 15.8645, 23.0564, 38.2544, -28.6215, -29.9142
2.84, 2, 17.8816, 15.8645, 23.0564, 38.2544, -28.6215, -29.9142
2.844, 2, 17.8816, 15.8645, 23.0564, 38.2544, -28.6215, -29.9142
2.847, 2, 17.8816, 15.8645, 23.0564, 38.2544, -28.6215, -29.9142
2.852, 2, 17.8816, 15.8645, 23.0564, 38.2544, -28.6215, -29.9142
2.856, 2, 17.8816, 15.8645, 23.0564, 38.2544, -28.6215, -29.9142
2.86, 2, 17.8816, 15.8645, 23.0564, 38.2544, -28.6215, -29.9142
2.864, 2, 17.8816, 15.8645, 23.0564, 38.2544, -28.6215, -29.9142
2.867, 2, 17.8816, 15.8645, 23.0564, 38.2544, -28.6215, -29.9142
2.872, 2, 17.8816, 15.8645, 23.0564, 38.2544, -28.6215, -29.9142
2.876, 2, 17.8816, 15.8645, 23.0564, 38.2544, -28.6215, -29.9142
2.88, 2, 17.8816, 15.8645, 23.0564, 38.2544, -28.6215, -29.9142
2.883, 2, 17.8816, 15.8645, 23.0564, 38.2544, -28.6215, -29.9142
2.888, 2, 17.8816, 15.8645, 23.0564, 38.2544, -28.6215, -29.9142
2.892, 2, 17.8816, 15.8645, 23.0564, 38.2544, -28.6215, -29.9142
2.896, 2, 17.8816, 15.8645, 23.0564, 38.2544, -28.6215, -29.9142
2.9, 2, 17.8816, 15.8645, 23.0564, 38.2544, -28.6215, -29.9142
2.903, 2, 17.8816, 15.8645, 23.0564, 38.2544, -28.6215, -29.9142
2.908, 2, 17.8816, 15.8645, 23.0564, 38.2544, -28.6215, -29.9142
2.912, 2, 17.8816, 15.8645, 23.0564, 38.2544, -28.6215, -29.9142
2.916, 2, 17.8816, 15.8645, 23.0564, 38.2544, -28.6215, -29.9142
2.92, 2, 17.8816, 15.8645, 23.0564, 38.2544, -28.6215, -29.9142
2.923, 2, 17.8816, 15.8645, 23.0564, 38.2544, -28.6215, -29.9142
2.928, 2, 17.8816, 15.8645, 23.0564, 38.2544, -28.6215, -29.9142
2.932, 2, 17.8816, 15.8645, 23.0564, 38.2544, -28.6215, -29.9142
2.936, 2, 17.8816, 15.8645, 23.0564, 38.2544, -28.6215, -29.9142
2.939, 2, 17.8816, 15.8645, 23.0564, 38.2544, -28.6215, -29.9142
2.944, 2, 17.8816, 15.8645, 23.0564, 38.2544, -28.6215, -29.9142
2.948, 2, 17.8816, 15.8645, 23.0564, 38.2544, -28.6215, -29.9142
2.952, 2, 17.8816, 15.8645, 23.0564, 38.2544, -28.6215, -29.9142
2.956, 2, 17.8816, 15.8645, 23.0564, 38.2544, -28.6215, -29.9142
2.959, 2, 17.8816, 15.8645, 23.0564, 38.2544, -28.6215, -29.9142
2.964, 2, 17.8816, 15.8645, 23.0564, 38.2544, -28.6215, -29.9142
2.968, 2, 17.8816, 15.8645, 23.0564, 38.2544, -28.6215, -29.9142
2.972, 2, 17.8816, 15.8645, 23.0564, 38.2544, -28.6215, -29.9142
2.976, 2, 17.8816, 15.8645, 23.0564, 38.2544, -28.6215, -29.9142
2.98, 2, 17.8816, 15.8645, 23.0564, 38.2544, -28.6215, -29.9142
2.984, 2, 17.8816, 15.8645, 23.0564, 38.2544, -28.6215, -29.9142
2.988, 2, 17.8816, 15.8645, 23.0564, 38.2544, -28.6215, -29.9142
2.992, 2, 17.8816, 15.8645, 23.0564, 38.2544, -28.6215, -29.9142
2.995, 2, 17.8816, 15.8645, 23.0564, 38.2544, -28.6215, -29.9142
3, 2, 17.8816, 15.8645, 23.0564, 38.2544, -28.6215, -29.9142
3.004, 2, 17.8816, 15.8645, 23.0564, 38.2544, -28.6215, -29.9142
3.008, 2, 17.8816, 15.8645, 23.0564, 38.2544, -28.6215, -29.9142
3.012, 2, 17.8816, 15.8645, 23.0564, 38.2544, -28.6215, -29.9142
3.015, 4, 17.8816, 15.8645, 23.0564, 38.2544, -28.6215, -29.9142
3.02, 4, 17.8816, 15.8645, 23.0564, 38.2544, -28.6215, -29.9142
3.024, 4, 17.8816, 15.8645, 23.0564, 38.2544, -28.6215, -29.9142
3.028, 4, 17.8816, 15.8645, 23.0564, 38.2544, -28.6215, -29.9142
3.031, 4, 17.8816, 15.8645, 23.0564, 38.2544, -28.6215, -29.9142
3.036, 4, 17.8816, 15.8645, 23.0564, 38.2544, -28.6215, -29.9142
3.04, 4, 17.8816, 15.8645, 23.0564, 38.2544, -28.6215, -29.9142
3.044, 4, 17.8816, 15.8645, 23.0564, 38.2544, -28.6215, -29.9142
3.048, 4, 17.8816, 15.8645, 23.0564, 38.2544, -28.6215, -29.9142
3.051, 4, 17.8816, 15.8645, 23.0564, 38.2544, -28.6215, -29.9142
3.056, 4, 17.8816, 15.8645, 23.0564, 38.2544, -28.6215, -29.9142
3.06, 4, 17.8816, 15.8645, 23.0564, 38.2544, -28.6215, -29.9142
3.064, 4, 17.8816, 15.8645, 23.0564, 38.2544, -28.6215, -29.9142
3.068, 4, 17.8816, 15.8645, 23.0564, 38.2544, -28.6215, -29.9142
3.071, 4, 17.8816, 15.8645, 23.0564, 38.2544, -28.6215, -29.9142
3.076, 4, 17.8816, 15.8645, 23.0564, 38.2544, -28.6215, -29.9142
3.08, 4, 17.8816, 15.8645, 23.0564, 38.2544, -28.6215, -29.9142
3.084, 4, 17.8816, 15.8645, 23.0564, 38.2544, -28.6215, -29.9142
3.087, 4, 17.8816, 15.8645, 23.0564, 38.2544, -28.6215, -29.9142
3.092, 4, 17.8816, 15.8645, 23.0564, 38.2544, -28.6215, -29.9142
3.096, 4, 17.8816, 15.8645, 23.0564, 38.2544, -28.6215, -29.9142
3.1, 4, 17.8816, 15.8645, 23.0564, 38.2544, -28.6215, -29.9142
3.104, 4, 17.8816, 15.8645, 23.0564, 38.2544, -28.6215, -29.9142
3.107, 4, 17.8816, 15.8645, 23.0564, 38.2544, -28.6215, -29.9142
3.112, 4, 17.8816, 15.8645, 23.0564, 38.2544, -28.6215, -29.9142
3.116, 4, 17.8816, 15.8645, 23.0564, 38.2544, -28.6215, -29.9142
3.122, 4, 17.8816, 15.8645, 23.0564, 38.2544, -28.6215, -29.9142
3.124, 4, 17.8816, 15.8645, 23.0564, 38.2544, -28.6215, -29.9142
3.128, 4, 17.8816, 15.8645, 23.0564, 38.2544, -28.6215, -29.9142
3.132, 4, 17.8816, 15.8645, 23.0564, 38.2544, -28.6215, -29.9142
3.136, 4, 17.8816, 15.8645, 23.0564, 38.2544, -28.6215, -29.9142
3.14, 4, 17.8816, 15.8645, 23.0564, 38.2544, -28.6215, -29.9142
3.143, 4, 17.8816, 15.8645, 23.0564, 38.2544, -28.6215, -29.9142
3.148, 4, 17.8816, 15.8646, 23.0564, 38.2544, -28.6215, -29.9142
3.152, 4, 17.8815, 15.8646, 23.0564, 38.2544, -28.6215, -29.9142
3.156, 4, 17.8813, 15.8647, 23.0563, 38.2543, -28.6215, -29.9142
3.16, 4, 17.8808, 15.8651, 23.0563, 38.2543, -28.6215, -29.9142
3.163, 4, 17.8799, 15.8658, 23.0561, 38.2541, -28.6216, -29.914
3.168, 4, 17.8784, 15.867, 23.0557, 38.2537, -28.6217, -29.9137
3.172, 4, 17.8763, 15.869, 23.0552, 38.2529, -28.622, -29.913
3.176, 4, 17.8734, 15.8718, 23.0543, 38.2514, -28.6225, -29.9118
3.179, 4, 17.8697, 15.8758, 23.053, 38.2487, -28.6234, -29.9096
3.184, 4, 17.8651, 15.8812, 23.0512, 38.2445, -28.6248, -29.906
3.188, 5, 17.8594, 15.8885, 23.0486, 38.2381, -28.6269, -29.9006
3.192, 5, 17.8526, 15.8978, 23.0452, 38.2288, -28.6299, -29.8927
3.196, 5, 17.8445, 15.9094, 23.0407, 38.2157, -28.6342, -29.8817
3.199, 5, 17.8347, 15.9237, 23.0348, 38.198, -28.6401, -29.8667
3.204, 5, 17.8233, 15.9405, 23.0274, 38.1745, -28.6478, -29.8468
3.208, 5, 17.8102, 15.9598, 23.0182, 38.1443, -28.6577, -29.8211
3.212, 5, 17.7955, 15.9816, 23.0071, 38.1062, -28.6703, -29.7887
3.216, 5, 17.7792, 16.0059, 22.9939, 38.0593, -28.6857, -29.7488
3.22, 5, 17.7612, 16.0327, 22.9784, 38.0026, -28.7045, -29.7006
3.224, 5, 17.7416, 16.0622, 22.9605, 37.9355, -28.7267, -29.6435
3.228, 5, 17.7202, 16.0947, 22.9401, 37.8576, -28.7525, -29.5771
3.232, 5, 17.697, 16.1301, 22.9171, 37.7685, -28.7821, -29.5013
3.235, 5, 17.6719, 16.1686, 22.8916, 37.6683, -28.8155, -29.416
3.24, 5, 17.6449, 16.21, 22.8635, 37.5572, -28.8526, -29.3215
3.244, 5, 17.6162, 16.2541, 22.8329, 37.4357, -28.8934, -29.218
3.248, 5, 17.5857, 16.3008, 22.8, 37.3043, -28.9376, -29.1063
3.252, 5, 17.5535, 16.3499, 22.7651, 37.164, -28.9849, -28.9869
3.255, 5, 17.5196, 16.4015, 22.7281, 37.0156, -29.0352, -28.8608
3.26, 5, 17.484, 16.4557, 22.6894, 36.8602, -29.0881, -28.7287
3.264, 5, 17.4466, 16.5124, 22.649, 36.6988, -29.1432, -28.5918
3.268, 5, 17.4074, 16.5718, 22.6073, 36.5327, -29.2002, -28.4507
3.272, 5, 17.3666, 16.6336, 22.5645, 36.3626, -29.2589, -28.3065
3.276, 5, 17.3243, 16.6976, 22.5207, 36.1894, -29.3189, -28.1597
3.28, 5, 17.2806, 16.7634, 22.4762, 36.014, -29.3799, -28.0111
3.284, 5, 17.2359, 16.8307, 22.4311, 35.8369, -29.4419, -27.8613
3.288, 5, 17.1901, 16.8991, 22.3856, 35.6587, -29.5046, -27.7105
3.291, 5, 17.1435, 16.9684, 22.3398, 35.4798, -29.5678, -27.5593
3.296, 5, 17.0961, 17.0385, 22.2938, 35.3005, -29.6316, -27.4079
3.3, 5, 17.0481, 17.109, 22.2476, 35.1212, -29.6957, -27.2565
3.304, 5, 16.9995, 17.18, 22.2014, 34.9419, -29.7601, -27.1052
3.308, 5, 16.9505, 17.2511, 22.1552, 34.7628, -29.8248, -26.9543
3.312, 5, 16.9012, 17.3224, 22.109, 34.5841, -29.8897, -26.8037
3.316, 5, 16.8517, 17.3936, 22.0629, 34.4057, -29.9549, -26.6536
3.32, 5, 16.8019, 17.4649, 22.0169, 34.2278, -30.0202, -26.5039
3.324, 5, 16.7519, 17.5361, 21.971, 34.0503, -30.0858, -26.3547
3.328, 5, 16.7018, 17.6071, 21.9252, 33.8733, -30.1515, -26.206
3.332, 5, 16.6516, 17.6781, 21.8795, 33.6967, -30.2175, -26.0577
3.336, 5, 16.6012, 17.749, 21.834, 33.5206, -30.2836, -25.91
3.34, 5, 16.5507, 17.8197, 21.7886, 33.3451, -30.3499, -25.7628
3.344, 5, 16.5001, 17.8903, 21.7432, 33.17, -30.4164, -25.6161
3.347, 5, 16.4494, 17.9607, 21.6981, 32.9954, -30.483, -25.4699
3.352, 5, 16.3985, 18.0311, 21.653, 32.8213, -30.5499, -25.3242
3.356, 5, 16.3476, 18.1012, 21.6081, 32.6477, -30.6169, -25.179
3.36, 5, 16.2965, 18.1713, 21.5633, 32.4746, -30.684, -25.0344
3.364, 5, 16.2453, 18.2412, 21.5187, 32.3019, -30.7514, -24.8902
3.368, 5, 16.1941, 18.3109, 21.4742, 32.1298, -30.819, -24.7466
3.372, 5, 16.1427, 18.3805, 21.4298, 31.9582, -30.8867, -24.6034
3.376, 5, 16.0912, 18.4499, 21.3856, 31.787, -30.9546, -24.4608
3.38, 5, 16.0396, 18.5193, 21.3415, 31.6164, -31.0226, -24.3187
3.383, 5, 15.9879, 18.5884, 21.2976, 31.4462, -31.0909, -24.177
3.388, 5, 15.9361, 18.6574, 21.2537, 31.2765, -31.1593, -24.0359
3.392, 5, 15.8842, 18.7263, 21.2101, 31.1073, -31.2279, -23.8952
3.396, 5, 15.8322, 18.795, 21.1665, 30.9386, -31.2967, -23.7551
3.4, 5, 15.7801, 18.8636, 21.1231, 30.7704, -31.3656, -23.6154
3.403, 5, 15.7279, 18.932, 21.0799, 30.6026, -31.4347, -23.4763
3.408, 5, 15.6756, 19.0003, 21.0368, 30.4353, -31.504, -23.3376
3.412, 5, 15.6232, 19.0684, 20.9938, 30.2686, -31.5735, -23.1994
3.416, 5, 15.5707, 19.1364, 20.951, 30.1022, -31.6431, -23.0618
3.42, 5, 15.5181, 19.2042, 20.9084, 29.9364, -31.713, -22.9245
3.424, 5, 15.4654, 19.2719, 20.8658, 29.771, -31.783, -22.7878
3.428, 5, 15.4126, 19.3395, 20.8235, 29.6061, -31.8531, -22.6516
3.432, 5, 15.3598, 19.4069, 20.7812, 29.4417, -31.9235, -22.5158
3.436, 5, 15.3068, 19.4741, 20.7391, 29.2778, -31.994, -22.3805
3.439, 5, 15.2537, 19.5412, 20.6972, 29.1143, -32.0647, -22.2457
3.444, 5, 15.2005, 19.6082, 20.6554, 28.9513, -32.1356, -22.1114
3.448, 5, 15.1473, 19.675, 20.6138, 28.7887, -32.2066, -21.9776
3.452, 5, 15.0939, 19.7416, 20.5723, 28.6267, -32.2778, -21.8442
3.456, 5, 15.0404, 19.8081, 20.5309, 28.4651, -32.3492, -21.7113
3.46, 5, 14.9869, 19.8745, 20.4897, 28.3039, -32.4208, -21.5788
3.464, 5, 14.9333, 19.9407, 20.4487, 28.1432, -32.4925, -21.4468
3.468, 5, 14.8795, 20.0068, 20.4078, 27.983, -32.5644, -21.3153
3.472, 5, 14.8257, 20.0727, 20.3671, 27.8232, -32.6365, -21.1843
3.476, 5, 14.7718, 20.1385, 20.3265, 27.6639, -32.7087, -21.0537
3.48, 5, 14.7178, 20.2041, 20.286, 27.5051, -32.7812, -20.9236
3.484, 5, 14.6637, 20.2696, 20.2457, 27.3467, -32.8537, -20.7939
3.488, 5, 14.6095, 20.3349, 20.2056, 27.1887, -32.9265, -20.6647
3.492, 5, 14.5552, 20.4001, 20.1656, 27.0312, -32.9995, -20.5359
3.495, 5, 14.5009, 20.4651, 20.1258, 26.8742, -33.0726, -20.4076
3.5, 5, 14.4464, 20.53, 20.0861, 26.7176, -33.1458, -20.2798
3.504, 5, 14.3919, 20.5947, 20.0466, 26.5614, -33.2193, -20.1524
3.508, 5, 14.3372, 20.6593, 20.0072, 26.4057, -33.2929, -20.0254
3.512, 5, 14.2825, 20.7238, 19.968, 26.2505, -33.3667, -19.8989
3.516, 5, 14.2277, 20.7881, 19.9289, 26.0957, -33.4407, -19.7729
3.52, 5, 14.1728, 20.8522, 19.89, 25.9413, -33.5148, -19.6473
3.524, 5, 14.1179, 20.9162, 19.8513, 25.7874, -33.5891, -19.5221
3.528, 5, 14.0628, 20.9801, 19.8127, 25.6339, -33.6636, -19.3974
3.531, 5, 14.0077, 21.0438, 19.7742, 25.4808, -33.7382, -19.2731
3.536, 5, 13.9524, 21.1073, 19.7359, 25.3282, -33.813, -19.1492
3.54, 5, 13.8971, 21.1708, 19.6978, 25.1761, -33.888, -19.0258
3.544, 5, 13.8417, 21.234, 19.6598, 25.0243, -33.9632, -18.9028
3.548, 5, 13.7862, 21.2971, 19.622, 24.873, -34.0385, -18.7802
3.552, 5, 13.7307, 21.3601, 19.5844, 24.7221, -34.114, -18.6581
3.556, 5, 13.675, 21.4229, 19.5469, 24.5717, -34.1897, -18.5364
3.56, 5, 13.6193, 21.4856, 19.5096, 24.4217, -34.2655, -18.4152
3.564, 5, 13.5635, 21.5482, 19.4724, 24.2721, -34.3416, -18.2943
3.568, 5, 13.5076, 21.6105, 19.4354, 24.1229, -34.4178, -18.1739
3.572, 5, 13.4516, 21.6728, 19.3985, 23.9742, -34.4941, -18.0539
3.576, 5, 13.3956, 21.7349, 19.3618, 23.8259, -34.5706, -17.9343
3.58, 5, 13.3395, 21.7968, 19.3253, 23.678, -34.6473, -17.8152
3.584, 5, 13.2833, 21.8586, 19.289, 23.5305, -34.7242, -17.6965
3.587, 5, 13.227, 21.9203, 19.2528, 23.3835, -34.8013, -17.5782
3.592, 5, 13.1706, 21.9818, 19.2168, 23.2368, -34.8785, -17.4603
3.596, 5, 13.1142, 22.0431, 19.1809, 23.0906, -34.9559, -17.3428
3.6, 5, 13.0577, 22.1043, 19.1452, 22.9449, -35.0334, -17.2257
3.604, 5, 13.0011, 22.1654, 19.1097, 22.7995, -35.1112, -17.1091
3.608, 5, 12.9444, 22.2263, 19.0743, 22.6546, -35.1891, -16.9929
3.612, 5, 12.8876, 22.287, 19.0391, 22.51, -35.2672, -16.877
3.616, 5, 12.8308, 22.3476, 19.0041, 22.3659, -35.3454, -16.7616
3.62, 5, 12.7739, 22.4081, 18.9693, 22.2222, -35.4238, -16.6466
3.624, 5, 12.717, 22.4684, 18.9346, 22.0789, -35.5024, -16.532
3.628, 5, 12.6599, 22.5286, 18.9001, 21.9361, -35.5812, -16.4178
3.632, 5, 12.6028, 22.5886, 18.8658, 21.7936, -35.6601, -16.304
3.636, 5, 12.5456, 22.6484, 18.8316, 21.6516, -35.7392, -16.1906
3.64, 5, 12.4884, 22.7082, 18.7976, 21.5099, -35.8185, -16.0776
3.644, 5, 12.431, 22.7677, 18.7638, 21.3687, -35.8979, -15.9651
3.648, 5, 12.3736, 22.8271, 18.7302, 21.2278, -35.9776, -15.8529
3.652, 5, 12.3161, 22.8864, 18.6967, 21.0874, -36.0574, -15.7411
3.656, 5, 12.2586, 22.9455, 18.6634, 20.9474, -36.1373, -15.6297
3.66, 5, 12.201, 23.0045, 18.6303, 20.8078, -36.2174, -15.5187
3.664, 5, 12.1433, 23.0633, 18.5974, 20.6686, -36.2977, -15.4081
3.668, 5, 12.0856, 23.122, 18.5646, 20.5298, -36.3782, -15.2979
3.672, 5, 12.0277, 23.1805, 18.532, 20.3914, -36.4588, -15.1881
3.676, 5, 11.9698, 23.2389, 18.4996, 20.2534, -36.5397, -15.0786
3.679, 5, 11.9119, 23.2971, 18.4673, 20.1158, -36.6206, -14.9696
3.684, 5, 11.8539, 23.3552, 18.4353, 19.9786, -36.7018, -14.861
3.688, 5, 11.7958, 23.4131, 18.4034, 19.8418, -36.7831, -14.7527
3.692, 5, 11.7376, 23.4709, 18.3717, 19.7053, -36.8646, -14.6448
3.696, 5, 11.6794, 23.5285, 18.3402, 19.5693, -36.9463, -14.5373
3.7, 5, 11.6211, 23.586, 18.3088, 19.4337, -37.0281, -14.4302
3.704, 5, 11.5628, 23.6433, 18.2777, 19.2985, -37.1101, -14.3235
3.708, 5, 11.5043, 23.7005, 18.2467, 19.1636, -37.1923, -14.2171
3.712, 5, 11.4459, 23.7575, 18.2159, 19.0292, -37.2746, -14.1112
3.716, 5, 11.3873, 23.8144, 18.1853, 18.8951, -37.3571, -14.0056
3.72, 5, 11.3287, 23.8711, 18.1548, 18.7615, -37.4398, -13.9004
3.724, 5, 11.27, 23.9277, 18.1245, 18.6282, -37.5226, -13.7955
3.728, 5, 11.2113, 23.9841, 18.0945, 18.4953, -37.6056, -13.6911
3.732, 5, 11.1525, 24.0404, 18.0646, 18.3628, -37.6888, -13.587
3.735, 5, 11.0936, 24.0965, 18.0348, 18.2307, -37.7722, -13.4833
3.74, 5, 11.0347, 24.1525, 18.0053, 18.0989, -37.8557, -13.3799
3.744, 5, 10.9757, 24.2083, 17.9759, 17.9676, -37.9394, -13.277
3.748, 5, 10.9167, 24.264, 17.9468, 17.8366, -38.0232, -13.1744
3.752, 5, 10.8576, 24.3195, 17.9178, 17.706, -38.1072, -13.0721
3.756, 5, 10.7984, 24.3749, 17.889, 17.5758, -38.1914, -12.9703
3.76, 5, 10.7392, 24.4302, 17.8604, 17.446, -38.2758, -12.8688
3.764, 5, 10.6799, 24.4853, 17.8319, 17.3165, -38.3603, -12.7676
3.768, 5, 10.6206, 24.5402, 17.8037, 17.1874, -38.445, -12.6668
3.772, 5, 10.5612, 24.595, 17.7756, 17.0587, -38.5298, -12.5664
3.776, 5, 10.5017, 24.6496, 17.7477, 16.9304, -38.6148, -12.4664
3.78, 5, 10.4422, 24.7041, 17.72, 16.8025, -38.7, -12.3667
3.784, 5, 10.3826, 24.7585, 17.6925, 16.6749, -38.7854, -12.2674
3.788, 5, 10.323, 24.8127, 17.6651, 16.5477, -38.8709, -12.1684
3.792, 5, 10.2633, 24.8667, 17.638, 16.4209, -38.9566, -12.0698
3.796, 5, 10.2035, 24.9206, 17.611, 16.2944, -39.0425, -11.9715
3.8, 5, 10.1437, 24.9744, 17.5843, 16.1683, -39.1285, -11.8736
3.804, 5, 10.0838, 25.028, 17.5577, 16.0426, -39.2147, -11.776
3.808, 5, 10.0239, 25.0815, 17.5313, 15.9173, -39.3011, -11.6788
3.812, 5, 9.96395, 25.1348, 17.5051, 15.7923, -39.3876, -11.582
3.816, 5, 9.90392, 25.1879, 17.479, 15.6676, -39.4743, -11.4855
3.82, 5, 9.84384, 25.241, 17.4532, 15.5434, -39.5612, -11.3893
3.824, 5, 9.7837, 25.2938, 17.4276, 15.4195, -39.6482, -11.2935
3.828, 5, 9.72351, 25.3465, 17.4021, 15.296, -39.7354, -11.198
3.832, 5, 9.66327, 25.3991, 17.3769, 15.1728, -39.8228, -11.1029
3.836, 5, 9.60297, 25.4515, 17.3518, 15.05, -39.9103, -11.0081
3.84, 5, 9.54262, 25.5038, 17.3269, 14.9275, -39.998, -10.9137
3.846, 5, 9.42176, 25.6079, 17.2777, 14.6837, -40.174, -10.7259
3.848, 5, 9.42176, 25.6079, 17.2777, 14.6837, -40.174, -10.7259
3.852, 5, 9.36126, 25.6597, 17.2534, 14.5623, -40.2622, -10.6325
3.856, 5, 9.3007, 25.7114, 17.2293, 14.4413, -40.3506, -10.5394
3.86, 5, 9.24009, 25.763, 17.2054, 14.3206, -40.4391, -10.4466
3.864, 5, 9.17943, 25.8143, 17.1816, 14.2003, -40.5278, -10.3542
3.868, 5, 9.11873, 25.8656, 17.1581, 14.0804, -40.6167, -10.2622
3.872, 5, 9.05797, 25.9167, 17.1348, 13.9608, -40.7058, -10.1704
3.876, 5, 8.99717, 25.9676, 17.1116, 13.8415, -40.795, -10.079
3.88, 5, 8.93631, 26.0184, 17.0887, 13.7226, -40.8844, -9.98797
3.884, 5, 8.87541, 26.0691, 17.0659, 13.604, -40.9739, -9.89723
3.888, 5, 8.81446, 26.1196, 17.0434, 13.4858, -41.0636, -9.80682
3.892, 5, 8.75347, 26.1699, 17.021, 13.3679, -41.1535, -9.71673
3.896, 5, 8.69242, 26.2201, 16.9988, 13.2504, -41.2436, -9.62698
3.9, 5, 8.63134, 26.2702, 16.9769, 13.1332, -41.3338, -9.53755
3.904, 5, 8.57021, 26.3201, 16.9551, 13.0164, -41.4242, -9.44844
3.908, 5, 8.50903, 26.3699, 16.9335, 12.8999, -41.5147, -9.35966
3.912, 5, 8.44781, 26.4195, 16.9121, 12.7837, -41.6054, -9.2712
3.916, 5, 8.38655, 26.4689, 16.8909, 12.6679, -41.6963, -9.18306
3.92, 5, 8.32524, 26.5183, 16.87, 12.5525, -41.7873, -9.09525
3.924, 5, 8.26389, 26.5674, 16.8492, 12.4373, -41.8785, -9.00775
3.928, 5, 8.20249, 26.6165, 16.8286, 12.3225, -41.9699, -8.92058
3.932, 5, 8.14106, 26.6653, 16.8082, 12.2081, -42.0614, -8.83372
3.936, 5, 8.07958, 26.7141, 16.788, 12.094, -42.1531, -8.74718
3.94, 5, 8.01806, 26.7626, 16.768, 11.9802, -42.245, -8.66095
3.944, 5, 7.9565, 26.8111, 16.7482, 11.8667, -42.337, -8.57504
3.948, 5, 7.8949, 26.8594, 16.7286, 11.7536, -42.4292, -8.48945
3.952, 5, 7.83325, 26.9075, 16.7093, 11.6408, -42.5215, -8.40416
3.956, 5, 7.77157, 26.9555, 16.6901, 11.5284, -42.614, -8.31919
3.96, 5, 7.70985, 27.0033, 16.6711, 11.4163, -42.7067, -8.23454
3.964, 5, 7.64808, 27.051, 16.6523, 11.3045, -42.7996, -8.15019
3.968, 5, 7.58628, 27.0986, 16.6337, 11.193, -42.8926, -8.06615
3.972, 5, 7.52444, 27.146, 16.6154, 11.0819, -42.9857, -7.98242
3.976, 5, 7.46256, 27.1933, 16.5972, 10.9711, -43.0791, -7.899
3.98, 5, 7.40064, 27.2404, 16.5792, 10.8606, -43.1725, -7.81589
3.984, 5, 7.33869, 27.2873, 16.5614, 10.7505, -43.2662, -7.73309
3.988, 5, 7.2767, 27.3341, 16.5439, 10.6407, -43.36, -7.65059
3.992, 5, 7.21467, 27.3808, 16.5265, 10.5312, -43.454, -7.56839
3.996, 5, 7.1526, 27.4273, 16.5093, 10.422, -43.5481, -7.4865
3.999, 5, 7.0905, 27.4737, 16.4924, 10.3132, -43.6424, -7.40491
4.004, 5, 7.02836, 27.5199, 16.4756, 10.2047, -43.7369, -7.32362
4.008, 5, 6.96619, 27.566, 16.4591, 10.0965, -43.8315, -7.24264
4.012, 5, 6.90398, 27.6119, 16.4427, 9.98861, -43.9263, -7.16196
4.016, 5, 6.84173, 27.6577, 16.4266, 9.88107, -44.0213, -7.08157
4.02, 5, 6.77946, 27.7034, 16.4107, 9.77384, -44.1164, -7.00149
4.024, 5, 6.71714, 27.7489, 16.3949, 9.66693, -44.2116, -6.9217
4.028, 5, 6.6548, 27.7942, 16.3794, 9.56034, -44.3071, -6.84222
4.032, 5, 6.59241, 27.8394, 16.3641, 9.45407, -44.4027, -6.76302
4.036, 5, 6.53, 27.8845, 16.349, 9.34812, -44.4984, -6.68413
4.04, 5, 6.46755, 27.9294, 16.3341, 9.24248, -44.5943, -6.60553
4.044, 5, 6.40508, 27.9741, 16.3194, 9.13716, -44.6904, -6.52722
4.048, 5, 6.34256, 28.0188, 16.3049, 9.03216, -44.7866, -6.44921
4.052, 5, 6.28002, 28.0632, 16.2906, 8.92747, -44.883, -6.3715
4.056, 5, 6.21744, 28.1075, 16.2765, 8.8231, -44.9796, -6.29407
4.06, 5, 6.15484, 28.1517, 16.2627, 8.71904, -45.0763, -6.21694
4.064, 5, 6.0922, 28.1957, 16.249, 8.6153, -45.1732, -6.14009
4.068, 5, 6.02952, 28.2396, 16.2355, 8.51187, -45.2702, -6.06354
4.072, 5, 5.96682, 28.2834, 16.2223, 8.40875, -45.3674, -5.98728
4.076, 5, 5.90409, 28.327, 16.2093, 8.30594, -45.4648, -5.9113
4.08, 5, 5.84132, 28.3704, 16.1964, 8.20344, -45.5623, -5.83562
4.084, 5, 5.77853, 28.4137, 16.1838, 8.10126, -45.6599, -5.76022
4.088, 5, 5.71571, 28.4568, 16.1714, 7.99938, -45.7578, -5.68511
4.092, 5, 5.65285, 28.4998, 16.1592, 7.89781, -45.8558, -5.61028
4.096, 5, 5.58997, 28.5427, 16.1472, 7.79655, -45.9539, -5.53574
4.1, 5, 5.52706, 28.5854, 16.1354, 7.6956, -46.0522, -5.46149
4.104, 5, 5.46412, 28.628, 16.1239, 7.59495, -46.1507, -5.38752
4.108, 5, 5.40116, 28.6704, 16.1125, 7.49461, -46.2494, -5.31383
4.112, 5, 5.33816, 28.7127, 16.1014, 7.39457, -46.3482, -5.24042
4.116, 5, 5.27514, 28.7548, 16.0905, 7.29483, -46.4471, -5.16729
4.12, 5, 5.2121, 28.7968, 16.0797, 7.1954, -46.5462, -5.09444
4.124, 5, 5.14902, 28.8386, 16.0692, 7.09627, -46.6455, -5.02187
4.128, 5, 5.08593, 28.8803, 16.0589, 6.99744, -46.745, -4.94958
4.132, 5, 5.0228, 28.9218, 16.0489, 6.89891, -46.8446, -4.87757
4.136, 5, 4.95965, 28.9632, 16.039, 6.80068, -46.9444, -4.80583
4.14, 5, 4.89648, 29.0045, 16.0293, 6.70274, -47.0443, -4.73436
4.144, 5, 4.83328, 29.0456, 16.0199, 6.60511, -47.1444, -4.66317
4.148, 5, 4.77005, 29.0866, 16.0107, 6.50776, -47.2446, -4.59225
4.152, 5, 4.7068, 29.1274, 16.0017, 6.41071, -47.345, -4.52161
4.156, 5, 4.64352, 29.1681, 15.9929, 6.31396, -47.4456, -4.45123
4.16, 5, 4.58023, 29.2086, 15.9843, 6.21749, -47.5463, -4.38112
4.164, 5, 4.5169, 29.249, 15.9759, 6.12132, -47.6472, -4.31129
4.168, 5, 4.45356, 29.2892, 15.9678, 6.02544, -47.7483, -4.24172
4.172, 5, 4.39019, 29.3293, 15.9598, 5.92984, -47.8495, -4.17241
4.176, 5, 4.3268, 29.3693, 15.9521, 5.83454, -47.9508, -4.10338
4.18, 5, 4.26339, 29.4091, 15.9446, 5.73952, -48.0523, -4.0346
4.184, 5, 4.19995, 29.4488, 15.9372, 5.64478, -48.154, -3.96609
4.188, 5, 4.1365, 29.4883, 15.9302, 5.55033, -48.2558, -3.89785
4.192, 5, 4.07302, 29.5277, 15.9233, 5.45617, -48.3578, -3.82986
4.196, 5, 4.00953, 29.5669, 15.9166, 5.36229, -48.46, -3.76214
4.2, 5, 3.94601, 29.606, 15.9102, 5.26869, -48.5623, -3.69468
4.204, 5, 3.88248, 29.645, 15.9039, 5.17537, -48.6647, -3.62748
4.208, 5, 3.81892, 29.6838, 15.8979, 5.08233, -48.7673, -3.56053
4.212, 5, 3.75535, 29.7225, 15.8921, 4.98957, -48.8701, -3.49385
4.216, 5, 3.69176, 29.761, 15.8865, 4.89709, -48.973, -3.42742
4.22, 5, 3.62815, 29.7994, 15.8811, 4.80489, -49.076, -3.36124
4.224, 5, 3.56453, 29.8377, 15.8759, 4.71297, -49.1793, -3.29533
4.228, 5, 3.50089, 29.8758, 15.871, 4.62132, -49.2826, -3.22966
4.232, 5, 3.43723, 29.9137, 15.8662, 4.52995, -49.3862, -3.16425
4.236, 5, 3.37355, 29.9516, 15.8617, 4.43885, -49.4898, -3.0991
4.24, 5, 3.30986, 29.9893, 15.8574, 4.34802, -49.5937, -3.03419
4.244, 5, 3.24616, 30.0268, 15.8533, 4.25747, -49.6977, -2.96954
4.248, 5, 3.18243, 30.0642, 15.8494, 4.16719, -49.8018, -2.90513
4.252, 5, 3.1187, 30.1015, 15.8457, 4.07718, -49.9061, -2.84098
4.256, 5, 3.05495, 30.1386, 15.8423, 3.98744, -50.0105, -2.77708
4.26, 5, 2.99118, 30.1756, 15.839, 3.89797, -50.1151, -2.71342
4.264, 5, 2.92741, 30.2124, 15.836, 3.80877, -50.2199, -2.65002
4.268, 5, 2.86362, 30.2491, 15.8332, 3.71984, -50.3247, -2.58686
4.272, 5, 2.79981, 30.2857, 15.8306, 3.63118, -50.4298, -2.52395
4.276, 5, 2.736, 30.3221, 15.8282, 3.54278, -50.535, -2.46128
4.28, 5, 2.67217, 30.3584, 15.826, 3.45465, -50.6403, -2.39886
4.284, 5, 2.60833, 30.3946, 15.8241, 3.36679, -50.7458, -2.33668
4.288, 5, 2.54447, 30.4306, 15.8223, 3.27919, -50.8514, -2.27474
4.292, 5, 2.48061, 30.4665, 15.8208, 3.19185, -50.9572, -2.21305
4.296, 5, 2.41674, 30.5022, 15.8195, 3.10478, -51.0632, -2.15161
4.3, 5, 2.35285, 30.5378, 15.8184, 3.01797, -51.1693, -2.0904
4.304, 5, 2.28896, 30.5732, 15.8175, 2.93142, -51.2755, -2.02943
4.308, 5, 2.22506, 30.6085, 15.8168, 2.84514, -51.3819, -1.96871
4.312, 5, 2.16114, 30.6437, 15.8164, 2.75911, -51.4884, -1.90823
4.316, 5, 2.09722, 30.6788, 15.8162, 2.67335, -51.5951, -1.84798
4.32, 5, 2.03329, 30.7136, 15.8162, 2.58785, -51.7019, -1.78798
4.324, 5, 1.96935, 30.7484, 15.8164, 2.5026, -51.8089, -1.72821
4.328, 5, 1.90541, 30.783, 15.8168, 2.41761, -51.916, -1.66868
4.332, 5, 1.84145, 30.8175, 15.8174, 2.33289, -52.0233, -1.60939
4.336, 5, 1.77749, 30.8519, 15.8183, 2.24842, -52.1307, -1.55033
4.34, 5, 1.71352, 30.8861, 15.8193, 2.1642, -52.2383, -1.49151
4.344, 5, 1.64954, 30.9201, 15.8206, 2.08025, -52.346, -1.43293
4.348, 5, 1.58556, 30.954, 15.8221, 1.99654, -52.4539, -1.37458
4.352, 5, 1.52157, 30.9878, 15.8239, 1.9131, -52.5619, -1.31647
4.356, 5, 1.45758, 31.0215, 15.8258, 1.82991, -52.67, -1.25859
4.36, 5, 1.39358, 31.055, 15.828, 1.74697, -52.7783, -1.20095
4.364, 5, 1.32959, 31.0884, 15.8303, 1.66429, -52.8868, -1.14353
4.368, 5, 1.26565, 31.1216, 15.8329, 1.58186, -52.9954, -1.08636
4.372, 5, 1.20185, 31.1546, 15.8358, 1.49968, -53.1041, -1.02941
4.376, 5, 1.13828, 31.1875, 15.8388, 1.41777, -53.213, -0.972705
4.38, 5, 1.07503, 31.2201, 15.8421, 1.33613, -53.322, -0.916246
4.384, 5, 1.01224, 31.2525, 15.8457, 1.25478, -53.431, -0.86005
4.388, 5, 0.950076, 31.2845, 15.8495, 1.17377, -53.5401, -0.804143
4.392, 5, 0.888764, 31.3159, 15.8536, 1.09315, -53.6492, -0.748573
4.396, 5, 0.828512, 31.3468, 15.8581, 1.01303, -53.758, -0.693412
4.4, 5, 0.769504, 31.3768, 15.8628, 0.93357, -53.8664, -0.638767
4.404, 5, 0.71192, 31.406, 15.8679, 0.854982, -53.974, -0.584785
4.408, 5, 0.65591, 31.4342, 15.8732, 0.777546, -54.0804, -0.531655
4.412, 5, 0.601527, 31.4612, 15.8789, 0.701604, -54.1852, -0.479604
4.416, 5, 0.548703, 31.487, 15.8848, 0.627542, -54.2879, -0.428889
4.42, 5, 0.497273, 31.5116, 15.891, 0.555765, -54.3878, -0.379774
4.424, 5, 0.447008, 31.5348, 15.8976, 0.486657, -54.4845, -0.332512
4.428, 5, 0.397633, 31.5568, 15.9048, 0.420547, -54.5776, -0.287315
4.432, 6, 0.34884, 31.5775, 15.9127, 0.357666, -54.6671, -0.244334
4.436, 6, 0.300262, 31.5968, 15.9216, 0.298118, -54.7529, -0.203633
4.44, 6, 0.251511, 31.6149, 15.9319, 0.241855, -54.8354, -0.165176
4.444, 6, 0.202327, 31.6317, 15.9441, 0.188667, -54.9152, -0.128823
4.448, 6, 0.152697, 31.6469, 15.9587, 0.138187, -54.9932, -0.0943276
4.452, 6, 0.102799, 31.6605, 15.9763, 0.0899139, -55.0702, -0.0613562
4.456, 6, 0.0528722, 31.672, 15.9975, 0.0432453, -55.1476, -0.0295091
4.46, 6, 0.00318639, 31.6815, 16.0227, -0.0024798, -55.2264, 0.00165173
4.464, 6, -0.0459597, 31.6888, 16.0525, -0.0479386, -55.3079, 0.0325741
4.468, 6, -0.0943303, 31.6938, 16.087, -0.0937791, -55.3932, 0.0636859
4.472, 6, -0.14185, 31.6966, 16.1266, -0.140579, -55.4831, 0.0953689
4.476, 6, -0.188586, 31.6971, 16.1712, -0.188812, -55.5783, 0.127936
4.48, 6, -0.234669, 31.6953, 16.2207, -0.238826, -55.6792, 0.161617
4.484, 6, -0.280227, 31.6914, 16.275, -0.290825, -55.7859, 0.196547
4.488, 6, -0.325382, 31.6854, 16.3337, -0.344869, -55.8984, 0.232764
4.492, 6, -0.370306, 31.6776, 16.3964, -0.40088, -56.0162, 0.270218
4.496, 6, -0.41529, 31.6682, 16.4625, -0.458666, -56.1387, 0.30878
4.5, 6, -0.460731, 31.6576, 16.5315, -0.517952, -56.2654, 0.348269
4.504, 6, -0.507007, 31.6462, 16.6028, -0.578422, -56.3955, 0.388478
4.508, 6, -0.55439, 31.6342, 16.676, -0.639762, -56.5282, 0.429197
4.512, 6, -0.603037, 31.6218, 16.7507, -0.701681, -56.663, 0.470231
4.516, 6, -0.652996, 31.6091, 16.8264, -0.76394, -56.7993, 0.511419
4.52, 6, -0.704168, 31.5963, 16.9029, -0.82635, -56.9367, 0.552632
4.524, 6, -0.756328, 31.5833, 16.9801, -0.888775, -57.075, 0.593774
4.528, 6, -0.809203, 31.5703, 17.0577, -0.951121, -57.2138, 0.63478
4.532, 6, -0.862566, 31.5571, 17.1357, -1.01332, -57.3531, 0.675603
4.536, 6, -0.916253, 31.5439, 17.2141, -1.07534, -57.4927, 0.716212
4.54, 6, -0.970149, 31.5306, 17.2926, -1.13713, -57.6326, 0.756585
4.544, 6, -1.02417, 31.5172, 17.3714, -1.19869, -57.7728, 0.796709
4.548, 6, -1.07827, 31.5038, 17.4504, -1.25999, -57.9131, 0.836573
4.552, 6, -1.13239, 31.4903, 17.5295, -1.32103, -58.0536, 0.876172
4.556, 6, -1.18651, 31.4768, 17.6088, -1.38181, -58.1943, 0.915502
4.56, 6, -1.24061, 31.4632, 17.6883, -1.44231, -58.3351, 0.954561
4.564, 6, -1.29467, 31.4496, 17.7679, -1.50255, -58.476, 0.993348
4.568, 6, -1.34869, 31.4359, 17.8477, -1.56251, -58.6171, 1.03186
4.572, 6, -1.40266, 31.4221, 17.9276, -1.6222, -58.7583, 1.07011
4.576, 6, -1.45657, 31.4083, 18.0077, -1.68161, -58.8996, 1.10808
4.58, 6, -1.51043, 31.3944, 18.0879, -1.74076, -59.041, 1.14578
4.584, 6, -1.56422, 31.3805, 18.1683, -1.79963, -59.1826, 1.18321
4.588, 6, -1.61795, 31.3665, 18.2488, -1.85824, -59.3243, 1.22037
4.592, 6, -1.67161, 31.3525, 18.3294, -1.91657, -59.4661, 1.25726
4.596, 6, -1.72521, 31.3384, 18.4102, -1.97464, -59.608, 1.29389
4.6, 6, -1.77874, 31.3243, 18.4911, -2.03243, -59.7501, 1.33024
4.604, 6, -1.83221, 31.3102, 18.5722, -2.08997, -59.8922, 1.36634
4.608, 6, -1.88561, 31.2959, 18.6534, -2.14724, -60.0345, 1.40217
4.612, 6, -1.93893, 31.2817, 18.7347, -2.20424, -60.1769, 1.43774
4.616, 6, -1.99219, 31.2674, 18.8162, -2.26098, -60.3194, 1.47304
4.62, 6, -2.04538, 31.253, 18.8977, -2.31747, -60.462, 1.50809
4.624, 6, -2.0985, 31.2386, 18.9795, -2.37369, -60.6048, 1.54287
4.628, 6, -2.15155, 31.2241, 19.0613, -2.42965, -60.7476, 1.5774
4.632, 6, -2.20453, 31.2096, 19.1433, -2.48536, -60.8906, 1.61167
4.636, 6, -2.25744, 31.1951, 19.2255, -2.54081, -61.0336, 1.64568
4.64, 6, -2.31028, 31.1805, 19.3077, -2.596, -61.1768, 1.67944
4.644, 6, -2.36304, 31.1659, 19.3901, -2.65094, -61.3201, 1.71294
4.648, 6, -2.41573, 31.1512, 19.4726, -2.70563, -61.4635, 1.74619
4.652, 6, -2.46835, 31.1365, 19.5553, -2.76006, -61.607, 1.77919
4.656, 6, -2.52089, 31.1217, 19.638, -2.81425, -61.7507, 1.81194
4.66, 6, -2.57336, 31.1069, 19.721, -2.86818, -61.8944, 1.84444
4.664, 6, -2.62576, 31.0921, 19.804, -2.92187, -62.0382, 1.87669
4.668, 6, -2.67808, 31.0772, 19.8871, -2.97531, -62.1822, 1.90869
4.672, 6, -2.73032, 31.0622, 19.9704, -3.0285, -62.3262, 1.94045
4.676, 6, -2.78248, 31.0473, 20.0538, -3.08145, -62.4704, 1.97196
4.68, 6, -2.83457, 31.0323, 20.1374, -3.13416, -62.6146, 2.00323
4.684, 6, -2.88658, 31.0172, 20.221, -3.18662, -62.759, 2.03425
4.688, 6, -2.93852, 31.0021, 20.3048, -3.23884, -62.9035, 2.06503
4.692, 6, -2.99037, 30.987, 20.3887, -3.29082, -63.0481, 2.09557
4.696, 6, -3.04214, 30.9719, 20.4727, -3.34257, -63.1927, 2.12587
4.7, 6, -3.09384, 30.9567, 20.5569, -3.39407, -63.3375, 2.15593
4.704, 6, -3.14545, 30.9414, 20.6412, -3.44534, -63.4824, 2.18576
4.708, 6, -3.19699, 30.9262, 20.7255, -3.49637, -63.6274, 2.21534
4.712, 6, -3.24844, 30.9109, 20.81, -3.54717, -63.7725, 2.24469
4.716, 6, -3.29981, 30.8955, 20.8947, -3.59773, -63.9177, 2.27381
4.72, 6, -3.3511, 30.8802, 20.9794, -3.64807, -64.0629, 2.30269
4.724, 6, -3.4023, 30.8648, 21.0643, -3.69817, -64.2083, 2.33134
4.728, 6, -3.45342, 30.8493, 21.1493, -3.74804, -64.3538, 2.35976
4.732, 6, -3.50446, 30.8339, 21.2344, -3.79768, -64.4994, 2.38795
4.736, 6, -3.55541, 30.8183, 21.3196, -3.84709, -64.6451, 2.41591
4.74, 6, -3.60628, 30.8028, 21.4049, -3.89628, -64.7908, 2.44363
4.744, 6, -3.65706, 30.7872, 21.4903, -3.94524, -64.9367, 2.47114
4.748, 6, -3.70775, 30.7717, 21.5759, -3.99398, -65.0827, 2.49841
4.752, 6, -3.75836, 30.756, 21.6616, -4.04249, -65.2288, 2.52546
4.756, 6, -3.80888, 30.7404, 21.7474, -4.09078, -65.3749, 2.55229
4.76, 6, -3.85932, 30.7247, 21.8332, -4.13885, -65.5212, 2.57889
4.764, 6, -3.90967, 30.709, 21.9193, -4.1867, -65.6675, 2.60527
4.768, 6, -3.95992, 30.6932, 22.0054, -4.23433, -65.8139, 2.63143
4.772, 6, -4.0101, 30.6775, 22.0916, -4.28175, -65.9605, 2.65736
4.776, 6, -4.06018, 30.6617, 22.1779, -4.32894, -66.1071, 2.68308
4.78, 6, -4.11017, 30.6459, 22.2644, -4.37592, -66.2538, 2.70858
4.784, 6, -4.16007, 30.63, 22.3509, -4.42269, -66.4006, 2.73387
4.788, 6, -4.20988, 30.6141, 22.4376, -4.46925, -66.5475, 2.75893
4.792, 6, -4.2596, 30.5982, 22.5244, -4.51559, -66.6945, 2.78379
4.796, 6, -4.30923, 30.5823, 22.6112, -4.56172, -66.8416, 2.80842
4.8, 6, -4.35876, 30.5664, 22.6982, -4.60764, -66.9888, 2.83285
4.804, 6, -4.40821, 30.5504, 22.7853, -4.65335, -67.1361, 2.85706
4.808, 6, -4.45756, 30.5344, 22.8725, -4.69886, -67.2834, 2.88106
4.812, 6, -4.50681, 30.5184, 22.9598, -4.74415, -67.4309, 2.90485
4.816, 6, -4.55597, 30.5024, 23.0472, -4.78924, -67.5784, 2.92842
4.82, 6, -4.60504, 30.4863, 23.1347, -4.83412, -67.7261, 2.95179
4.824, 6, -4.65401, 30.4702, 23.2224, -4.8788, -67.8738, 2.97495
4.828, 6, -4.70288, 30.4541, 23.3101, -4.92327, -68.0216, 2.9979
4.832, 6, -4.75166, 30.438, 23.3979, -4.96754, -68.1695, 3.02064
4.836, 6, -4.80034, 30.4219, 23.4858, -5.01161, -68.3175, 3.04318
4.84, 6, -4.84892, 30.4057, 23.5738, -5.05547, -68.4656, 3.0655
4.844, 6, -4.89741, 30.3896, 23.662, -5.09913, -68.6138, 3.08763
4.848, 6, -4.9458, 30.3734, 23.7502, -5.14259, -68.762, 3.10954
4.852, 6, -4.99408, 30.3572, 23.8385, -5.18584, -68.9104, 3.13125
4.856, 6, -5.04227, 30.341, 23.9269, -5.2289, -69.0588, 3.15276
4.86, 6, -5.09036, 30.3247, 24.0154, -5.27175, -69.2073, 3.17406
4.864, 6, -5.13835, 30.3085, 24.1041, -5.31441, -69.3559, 3.19516
4.868, 6, -5.18623, 30.2922, 24.1928, -5.35687, -69.5046, 3.21605
4.872, 6, -5.23401, 30.2759, 24.2816, -5.39912, -69.6534, 3.23675
4.876, 6, -5.28169, 30.2597, 24.3705, -5.44118, -69.8023, 3.25724
4.88, 6, -5.32927, 30.2434, 24.4595, -5.48304, -69.9512, 3.27753
4.884, 6, -5.37674, 30.227, 24.5486, -5.52471, -70.1003, 3.29761
4.888, 6, -5.42411, 30.2107, 24.6377, -5.56617, -70.2494, 3.3175
4.892, 6, -5.47137, 30.1944, 24.727, -5.60745, -70.3986, 3.33719
4.896, 6, -5.51852, 30.178, 24.8164, -5.64852, -70.5479, 3.35668
4.9, 6, -5.56557, 30.1617, 24.9058, -5.6894, -70.6973, 3.37597
4.904, 6, -5.61251, 30.1453, 24.9954, -5.73009, -70.8467, 3.39507
4.908, 6, -5.65934, 30.129, 25.085, -5.77058, -70.9963, 3.41396
4.912, 6, -5.70606, 30.1126, 25.1747, -5.81088, -71.1459, 3.43266
4.916, 6, -5.75268, 30.0962, 25.2645, -5.85099, -71.2956, 3.45117
4.92, 6, -5.79918, 30.0798, 25.3544, -5.89091, -71.4454, 3.46947
4.924, 6, -5.84557, 30.0634, 25.4444, -5.93063, -71.5953, 3.48759
4.928, 6, -5.89186, 30.047, 25.5345, -5.97016, -71.7452, 3.5055
4.932, 6, -5.93802, 30.0306, 25.6246, -6.0095, -71.8953, 3.52323
4.936, 6, -5.98408, 30.0142, 25.7148, -6.04866, -72.0454, 3.54076
4.94, 6, -6.03002, 29.9978, 25.8052, -6.08762, -72.1956, 3.55809
4.944, 6, -6.07585, 29.9814, 25.8956, -6.12639, -72.3458, 3.57524
4.948, 6, -6.12157, 29.965, 25.986, -6.16498, -72.4962, 3.59219
4.952, 6, -6.16717, 29.9486, 26.0766, -6.20337, -72.6466, 3.60895
4.956, 6, -6.21265, 29.9322, 26.1673, -6.24159, -72.7971, 3.62553
4.96, 6, -6.25802, 29.9158, 26.258, -6.27961, -72.9477, 3.64191
4.964, 6, -6.30326, 29.8994, 26.3488, -6.31745, -73.0984, 3.6581
4.968, 6, -6.3484, 29.883, 26.4397, -6.3551, -73.2491, 3.6741
4.972, 6, -6.39341, 29.8666, 26.5306, -6.39257, -73.3999, 3.68992
4.976, 6, -6.4383, 29.8502, 26.6217, -6.42985, -73.5508, 3.70555
4.98, 6, -6.48307, 29.8338, 26.7128, -6.46695, -73.7018, 3.72099
4.984, 6, -6.52773, 29.8174, 26.804, -6.50387, -73.8528, 3.73624
4.988, 6, -6.57226, 29.801, 26.8952, -6.5406, -74.004, 3.75131
4.992, 6, -6.61667, 29.7846, 26.9866, -6.57715, -74.1551, 3.76619
4.996, 6, -6.66096, 29.7682, 27.078, -6.61352, -74.3064, 3.78089
5, 6, -6.70512, 29.7518, 27.1695, -6.64971, -74.4578, 3.79541
5.004, 6, -6.74916, 29.7355, 27.261, -6.68572, -74.6092, 3.80974
5.008, 6, -6.79308, 29.7191, 27.3526, -6.72155, -74.7607, 3.82388
5.012, 6, -6.83687, 29.7027, 27.4443, -6.7572, -74.9122, 3.83785
5.016, 6, -6.88054, 29.6864, 27.5361, -6.79267, -75.0639, 3.85163
5.02, 6, -6.92408, 29.6701, 27.6279, -6.82796, -75.2156, 3.86523
5.024, 6, -6.96749, 29.6538, 27.7199, -6.86308, -75.3673, 3.87866
5.028, 6, -7.01077, 29.6374, 27.8118, -6.89802, -75.5192, 3.8919
5.032, 6, -7.05393, 29.6211, 27.9039, -6.93278, -75.6711, 3.90496
5.036, 6, -7.09696, 29.6049, 27.996, -6.96736, -75.8231, 3.91784
5.04, 6, -7.13986, 29.5886, 28.0881, -7.00178, -75.9752, 3.93055
5.044, 6, -7.18263, 29.5723, 28.1804, -7.03601, -76.1273, 3.94308
5.048, 6, -7.22526, 29.5561, 28.2727, -7.07008, -76.2795, 3.95543
5.052, 6, -7.26777, 29.5398, 28.365, -7.10396, -76.4318, 3.9676
5.056, 6, -7.31014, 29.5236, 28.4575, -7.13768, -76.5841, 3.9796
5.06, 6, -7.35238, 29.5074, 28.55, -7.17123, -76.7365, 3.99142
5.064, 6, -7.39449, 29.4912, 28.6425, -7.2046, -76.889, 4.00307
5.068, 6, -7.43646, 29.4751, 28.7351, -7.2378, -77.0415, 4.01454
5.072, 6, -7.4783, 29.4589, 28.8278, -7.27083, -77.1941, 4.02584
5.076, 6, -7.52001, 29.4428, 28.9205, -7.30369, -77.3468, 4.03697
5.08, 6, -7.56157, 29.4267, 29.0133, -7.33638, -77.4995, 4.04793
5.084, 6, -7.60301, 29.4106, 29.1061, -7.36891, -77.6523, 4.05871
5.088, 6, -7.6443, 29.3945, 29.199, -7.40126, -77.8052, 4.06933
5.092, 6, -7.68546, 29.3784, 29.292, -7.43345, -77.9581, 4.07977
5.096, 6, -7.72647, 29.3624, 29.385, -7.46547, -78.1111, 4.09004
5.1, 6, -7.76735, 29.3464, 29.4781, -7.49732, -78.2642, 4.10015
5.104, 6, -7.80809, 29.3304, 29.5712, -7.52901, -78.4173, 4.11008
5.108, 6, -7.84869, 29.3144, 29.6644, -7.56054, -78.5705, 4.11985
5.112, 6, -7.88915, 29.2985, 29.7576, -7.59189, -78.7238, 4.12945
5.116, 6, -7.92947, 29.2826, 29.8509, -7.62309, -78.8771, 4.13888
5.12, 6, -7.96965, 29.2667, 29.9442, -7.65412, -79.0305, 4.14814
5.124, 6, -8.00968, 29.2508, 30.0376, -7.68498, -79.1839, 4.15724
5.128, 6, -8.04957, 29.235, 30.131, -7.71569, -79.3375, 4.16617
5.132, 6, -8.08931, 29.2192, 30.2245, -7.74623, -79.491, 4.17494
5.136, 6, -8.12891, 29.2034, 30.3181, -7.77661, -79.6447, 4.18354
5.14, 6, -8.16837, 29.1876, 30.4116, -7.80682, -79.7984, 4.19197
5.144, 6, -8.20768, 29.1719, 30.5053, -7.83688, -79.9522, 4.20024
5.148, 6, -8.24684, 29.1562, 30.599, -7.86677, -80.106, 4.20835
5.152, 6, -8.28585, 29.1405, 30.6927, -7.8965, -80.2599, 4.21629
5.156, 6, -8.32471, 29.1249, 30.7865, -7.92607, -80.4139, 4.22407
5.16, 6, -8.36343, 29.1093, 30.8803, -7.95548, -80.5679, 4.23168
5.164, 6, -8.40199, 29.0937, 30.9742, -7.98473, -80.722, 4.23913
5.168, 6, -8.44041, 29.0782, 31.0681, -8.01381, -80.8762, 4.24641
5.172, 6, -8.47867, 29.0627, 31.1621, -8.04274, -81.0304, 4.25354
5.176, 6, -8.51678, 29.0472, 31.2561, -8.0715, -81.1847, 4.2605
5.18, 6, -8.55474, 29.0318, 31.3501, -8.1001, -81.339, 4.26729
5.184, 6, -8.59254, 29.0164, 31.4442, -8.12854, -81.4934, 4.27393
5.188, 6, -8.63019, 29.001, 31.5383, -8.15682, -81.6479, 4.2804
5.192, 6, -8.66768, 28.9857, 31.6325, -8.18493, -81.8025, 4.28671
5.196, 6, -8.70502, 28.9704, 31.7267, -8.21289, -81.9571, 4.29286
5.2, 6, -8.74219, 28.9552, 31.8209, -8.24069, -82.1117, 4.29885
5.204, 6, -8.77921, 28.94, 31.9152, -8.26832, -82.2665, 4.30468
5.208, 6, -8.81607, 28.9248, 32.0095, -8.29579, -82.4213, 4.31034
5.212, 6, -8.85277, 28.9097, 32.1039, -8.32311, -82.5761, 4.31585
5.216, 6, -8.88931, 28.8946, 32.1983, -8.35026, -82.731, 4.32119
5.22, 6, -8.92569, 28.8796, 32.2927, -8.37725, -82.886, 4.32638
5.224, 6, -8.9619, 28.8646, 32.3872, -8.40408, -83.041, 4.33141
5.228, 6, -8.99795, 28.8496, 32.4816, -8.43075, -83.1961, 4.33627
5.232, 6, -9.03384, 28.8347, 32.5762, -8.45726, -83.3513, 4.34098
5.236, 6, -9.06956, 28.8199, 32.6707, -8.4836, -83.5065, 4.34553
5.24, 6, -9.10511, 28.805, 32.7653, -8.50979, -83.6618, 4.34992
5.244, 6, -9.1405, 28.7903, 32.8599, -8.53582, -83.8172, 4.35415
5.248, 6, -9.17572, 28.7756, 32.9545, -8.56168, -83.9725, 4.35823
5.252, 6, -9.21076, 28.7609, 33.0492, -8.58739, -84.128, 4.36214
5.256, 6, -9.24564, 28.7463, 33.1439, -8.61293, -84.2835, 4.3659
5.26, 6, -9.28035, 28.7317, 33.2386, -8.63832, -84.4391, 4.36951
5.264, 6, -9.31489, 28.7172, 33.3333, -8.66354, -84.5948, 4.37295
5.268, 6, -9.34925, 28.7028, 33.4281, -8.6886, -84.7505, 4.37624
5.272, 6, -9.38344, 28.6883, 33.5229, -8.71351, -84.9062, 4.37937
5.276, 6, -9.41746, 28.674, 33.6177, -8.73825, -85.062, 4.38235
5.28, 6, -9.4513, 28.6597, 33.7125, -8.76284, -85.2179, 4.38517
5.284, 6, -9.48496, 28.6455, 33.8074, -8.78726, -85.3738, 4.38784
5.288, 6, -9.51845, 28.6313, 33.9023, -8.81152, -85.5298, 4.39035
5.292, 6, -9.55176, 28.6172, 33.9972, -8.83563, -85.6859, 4.39271
5.296, 6, -9.58489, 28.6031, 34.0921, -8.85957, -85.842, 4.39491
5.3, 6, -9.61784, 28.5891, 34.187, -8.88336, -85.9982, 4.39696
5.304, 6, -9.65061, 28.5751, 34.2819, -8.90698, -86.1544, 4.39885
5.308, 6, -9.6832, 28.5612, 34.3769, -8.93045, -86.3107, 4.40059
5.312, 6, -9.71561, 28.5474, 34.4718, -8.95375, -86.467, 4.40218
5.316, 6, -9.74784, 28.5336, 34.5668, -8.9769, -86.6234, 4.40362
5.32, 6, -9.77988, 28.5199, 34.6618, -8.99988, -86.7798, 4.4049
5.324, 6, -9.81173, 28.5063, 34.7568, -9.02271, -86.9363, 4.40603
5.328, 6, -9.84341, 28.4927, 34.8519, -9.04538, -87.0929, 4.40701
5.332, 6, -9.87489, 28.4792, 34.9469, -9.06789, -87.2495, 4.40783
5.336, 6, -9.90619, 28.4657, 35.0419, -9.09024, -87.4062, 4.40851
5.34, 6, -9.9373, 28.4524, 35.137, -9.11243, -87.5629, 4.40903
5.344, 6, -9.96822, 28.4391, 35.232, -9.13446, -87.7197, 4.40941
5.348, 6, -9.99895, 28.4258, 35.3271, -9.15633, -87.8765, 4.40963
5.352, 6, -10.0295, 28.4126, 35.4221, -9.17805, -88.0334, 4.4097
5.356, 6, -10.0598, 28.3995, 35.5172, -9.1996, -88.1903, 4.40963
5.36, 6, -10.09, 28.3865, 35.6123, -9.221, -88.3473, 4.4094
5.364, 6, -10.12, 28.3735, 35.7074, -9.24224, -88.5043, 4.40903
5.368, 6, -10.1497, 28.3606, 35.8025, -9.26332, -88.6614, 4.4085
5.372, 6, -10.1793, 28.3478, 35.8975, -9.28424, -88.8186, 4.40783
5.376, 6, -10.2087, 28.3351, 35.9926, -9.305, -88.9758, 4.40701
5.38, 6, -10.2379, 28.3224, 36.0877, -9.32561, -89.133, 4.40604
5.384, 6, -10.2669, 28.3098, 36.1828, -9.34606, -89.2904, 4.40493
5.388, 6, -10.2957, 28.2973, 36.2779, -9.36635, -89.4477, 4.40366
5.392, 6, -10.3242, 28.2848, 36.373, -9.38648, -89.6051, 4.40225
5.396, 6, -10.3526, 28.2724, 36.468, -9.40645, -89.7626, 4.4007
5.4, 6, -10.3808, 28.2602, 36.5631, -9.42627, -89.9201, 4.39899
5.404, 6, -10.4088, 28.2479, 36.6582, -9.44592, -90.0777, 4.39714
5.408, 6, -10.4366, 28.2358, 36.7532, -9.46543, -90.2353, 4.39515
5.412, 6, -10.4642, 28.2237, 36.8483, -9.48477, -90.393, 4.39301
5.416, 6, -10.4916, 28.2118, 36.9433, -9.50396, -90.5507, 4.39073
5.42, 6, -10.5188, 28.1999, 37.0384, -9.52298, -90.7085, 4.3883
5.424, 6, -10.5457, 28.1881, 37.1334, -9.54186, -90.8663, 4.38572
5.428, 6, -10.5725, 28.1763, 37.2284, -9.56057, -91.0241, 4.38301
5.432, 6, -10.599, 28.1647, 37.3234, -9.57913, -91.1821, 4.38015
5.436, 6, -10.6254, 28.1532, 37.4184, -9.59753, -91.34, 4.37714
5.44, 6, -10.6515, 28.1417, 37.5134, -9.61577, -91.498, 4.37399
5.444, 6, -10.6775, 28.1303, 37.6084, -9.63385, -91.6561, 4.3707
5.448, 6, -10.7032, 28.119, 37.7033, -9.65178, -91.8142, 4.36727
5.452, 6, -10.7287, 28.1078, 37.7983, -9.66955, -91.9724, 4.36369
5.456, 6, -10.754, 28.0967, 37.8932, -9.68716, -92.1306, 4.35998
5.46, 6, -10.779, 28.0857, 37.9881, -9.70461, -92.2889, 4.35611
5.464, 6, -10.8039, 28.0747, 38.083, -9.72191, -92.4472, 4.35211
5.468, 6, -10.8285, 28.0639, 38.1779, -9.73904, -92.6056, 4.34797
5.472, 6, -10.853, 28.0531, 38.2727, -9.75602, -92.764, 4.34368
5.476, 6, -10.8772, 28.0425, 38.3676, -9.77283, -92.9225, 4.33925
5.48, 6, -10.9012, 28.0319, 38.4624, -9.78948, -93.081, 4.33468
5.484, 6, -10.9249, 28.0214, 38.5572, -9.80598, -93.2396, 4.32997
5.488, 6, -10.9485, 28.0111, 38.6519, -9.82231, -93.3982, 4.32512
5.492, 6, -10.9718, 28.0008, 38.7467, -9.83848, -93.5569, 4.32013
5.496, 6, -10.9949, 27.9906, 38.8414, -9.85449, -93.7156, 4.31499
5.5, 6, -11.0178, 27.9805, 38.9361, -9.87034, -93.8744, 4.30972
5.504, 6, -11.0405, 27.9706, 39.0308, -9.88602, -94.0332, 4.30431
5.508, 6, -11.0629, 27.9607, 39.1254, -9.90154, -94.1921, 4.29876
5.512, 6, -11.0851, 27.9509, 39.22, -9.9169, -94.351, 4.29306
5.516, 6, -11.107, 27.9412, 39.3146, -9.9321, -94.51, 4.28723
5.52, 6, -11.1288, 27.9317, 39.4091, -9.94713, -94.6691, 4.28126
5.524, 6, -11.1503, 27.9222, 39.5036, -9.962, -94.8281, 4.27515
5.528, 6, -11.1716, 27.9129, 39.5981, -9.9767, -94.9873, 4.26891
5.532, 6, -11.1926, 27.9036, 39.6926, -9.99124, -95.1465, 4.26252
5.536, 6, -11.2134, 27.8945, 39.787, -10.0056, -95.3057, 4.256
5.54, 6, -11.234, 27.8855, 39.8814, -10.0198, -95.465, 4.24934
5.544, 6, -11.2543, 27.8765, 39.9757, -10.0339, -95.6243, 4.24254
5.548, 6, -11.2744, 27.8677, 40.07, -10.0477, -95.7837, 4.2356
5.552, 6, -11.2943, 27.859, 40.1642, -10.0615, -95.9431, 4.22853
5.556, 6, -11.3139, 27.8504, 40.2585, -10.075, -96.1026, 4.22132
5.56, 6, -11.3333, 27.842, 40.3526, -10.0884, -96.2621, 4.21398
5.564, 6, -11.3524, 27.8336, 40.4468, -10.1016, -96.4217, 4.2065
5.568, 6, -11.3714, 27.8253, 40.5409, -10.1146, -96.5813, 4.19888
5.572, 6, -11.39, 27.8172, 40.6349, -10.1275, -96.741, 4.19113
5.576, 6, -11.4084, 27.8092, 40.7289, -10.1402, -96.9007, 4.18324
5.58, 6, -11.4266, 27.8013, 40.8229, -10.1528, -97.0605, 4.17522
5.584, 6, -11.4445, 27.7935, 40.9168, -10.1651, -97.2203, 4.16707
5.588, 6, -11.4622, 27.7859, 41.0106, -10.1773, -97.3802, 4.15877
5.592, 6, -11.4796, 27.7783, 41.1044, -10.1894, -97.5401, 4.15035
5.596, 6, -11.4968, 27.7709, 41.1982, -10.2012, -97.7, 4.14179
5.6, 6, -11.5137, 27.7636, 41.2919, -10.2129, -97.86, 4.1331
5.604, 6, -11.5304, 27.7565, 41.3855, -10.2244, -98.0201, 4.12427
5.608, 6, -11.5468, 27.7494, 41.4791, -10.2358, -98.1802, 4.11531
5.612, 6, -11.5629, 27.7425, 41.5727, -10.247, -98.3403, 4.10622
5.616, 6, -11.5788, 27.7357, 41.6661, -10.258, -98.5005, 4.09699
5.62, 6, -11.5944, 27.729, 41.7595, -10.2688, -98.6608, 4.08764
5.624, 6, -11.6097, 27.7224, 41.8526, -10.2795, -98.8209, 4.07816
5.628, 6, -11.6245, 27.7158, 41.9453, -10.29, -98.981, 4.06856
5.632, 6, -11.6389, 27.7093, 42.0374, -10.3003, -99.1406, 4.05885
5.636, 6, -11.6528, 27.7028, 42.1287, -10.3104, -99.2995, 4.04908
5.64, 6, -11.6662, 27.6963, 42.2188, -10.3203, -99.4571, 4.03926
5.644, 6, -11.679, 27.6899, 42.3073, -10.3299, -99.6126, 4.02946
5.648, 6, -11.6913, 27.6836, 42.3939, -10.3392, -99.7652, 4.01975
5.652, 6, -11.7031, 27.6775, 42.478, -10.3482, -99.9139, 4.01019
5.656, 6, -11.7143, 27.6717, 42.5592, -10.3567, -100.058, 4.00086
5.66, 6, -11.725, 27.6663, 42.6369, -10.3648, -100.195, 3.99184
5.664, 6, -11.735, 27.6611, 42.7106, -10.3724, -100.326, 3.98322
5.668, 6, -11.7444, 27.6564, 42.7798, -10.3794, -100.449, 3.97506
5.672, 6, -11.7531, 27.6521, 42.8442, -10.3858, -100.563, 3.96744
5.676, 6, -11.7611, 27.6483, 42.9033, -10.3916, -100.667, 3.96041
5.68, 6, -11.7685, 27.645, 42.9571, -10.3968, -100.761, 3.95403
5.684, 6, -11.7753, 27.6422, 43.0054, -10.4013, -100.845, 3.94831
5.688, 6, -11.7816, 27.64, 43.0482, -10.4052, -100.919, 3.94329
5.692, 6, -11.7872, 27.6383, 43.0857, -10.4085, -100.982, 3.93893
5.696, 6, -11.7923, 27.6371, 43.118, -10.4113, -101.036, 3.93522
5.7, 6, -11.7968, 27.6363, 43.1454, -10.4135, -101.081, 3.93212
5.704, 6, -11.8007, 27.6357, 43.1684, -10.4153, -101.118, 3.92956
5.708, 6, -11.8041, 27.6354, 43.1873, -10.4168, -101.148, 3.92748
5.712, 6, -11.8071, 27.6353, 43.2026, -10.4179, -101.171, 3.92583
5.716, 6, -11.8096, 27.6354, 43.2148, -10.4188, -101.19, 3.92455
5.72, 6, -11.8119, 27.6355, 43.2244, -10.4194, -101.204, 3.92357
5.724, 6, -11.8138, 27.6357, 43.2317, -10.4199, -101.214, 3.92284
5.728, 6, -11.8155, 27.6359, 43.2373, -10.4202, -101.222, 3.9223
5.732, 7, -11.8169, 27.6362, 43.2415, -10.4204, -101.227, 3.92192
5.736, 7, -11.818, 27.6364, 43.2445, -10.4205, -101.231, 3.92166
5.74, 7, -11.8189, 27.6366, 43.2467, -10.4206, -101.234, 3.92147
5.744, 7, -11.8195, 27.6367, 43.2482, -10.4207, -101.236, 3.92135
5.748, 7, -11.82, 27.6368, 43.2492, -10.4208, -101.237, 3.92126
5.752, 7, -11.8203, 27.6368, 43.2499, -10.4208, -101.238, 3.92121
5.756, 7, -11.8205, 27.6369, 43.2504, -10.4208, -101.238, 3.92117
5.76, 7, -11.8206, 27.6369, 43.2507, -10.4208, -101.239, 3.92114
5.764, 7, -11.8207, 27.6369, 43.2509, -10.4208, -101.239, 3.92112
5.768, 7, -11.8208, 27.6369, 43.2511, -10.4208, -101.239, 3.92111
5.772, 7, -11.8208, 27.637, 43.2512, -10.4208, -101.239, 3.9211
5.776, 7, -11.8208, 27.637, 43.2512, -10.4208, -101.239, 3.9211
5.78, 7, -11.8209, 27.637, 43.2513, -10.4208, -101.239, 3.92109
5.784, 7, -11.8209, 27.637, 43.2513, -10.4208, -101.239, 3.92109
5.788, 7, -11.8209, 27.637, 43.2513, -10.4208, -101.239, 3.92109
5.792, 7, -11.8209, 27.637, 43.2513, -10.4208, -101.239, 3.92109
5.796, 7, -11.8209, 27.637, 43.2513, -10.4208, -101.239, 3.92109
5.8, 7, -11.8209, 27.637, 43.2514, -10.4208, -101.239, 3.92109
5.804, 7, -11.8209, 27.637, 43.2514, -10.4208, -101.239, 3.92109
5.808, 7, -11.8209, 27.637, 43.2514, -10.4208, -101.239, 3.92109
5.812, 7, -11.8209, 27.637, 43.2514, -10.4208, -101.239, 3.92109
5.816, 7, -11.8209, 27.637, 43.2514, -10.4208, -101.239, 3.92109
5.82, 7, -11.8209, 27.637, 43.2514, -10.4208, -101.239, 3.92109
5.824, 7, -11.8209, 27.637, 43.2514, -10.4208, -101.239, 3.92109
5.828, 7, -11.8209, 27.637, 43.2514, -10.4208, -101.239, 3.92109
5.832, 7, -11.8209, 27.637, 43.2514, -10.4208, -101.239, 3.92109
5.836, 7, -11.8209, 27.637, 43.2514, -10.4208, -101.239, 3.92109
5.84, 7, -11.8209, 27.637, 43.2514, -10.4208, -101.239, 3.92109
5.844, 7, -11.8209, 27.637, 43.2514, -10.4208, -101.239, 3.92109
5.848, 7, -11.8209, 27.637, 43.2514, -10.4208, -101.239, 3.92109
