hehonglu123/ABB_Primitive_Study/execution/movec_30_car/curve_exe_v50_fine.csv
timestamp, cmd_num, J1, J2, J3, J4, J5, J6
0, -1, -11.8209, 27.637, 43.2514, -10.4208, -101.239, 3.92109
0.002, -1, -11.8209, 27.637, 43.2514, -10.4208, -101.239, 3.92109
0.006, -1, -11.8209, 27.637, 43.2514, -10.4208, -101.239, 3.92109
0.008, -1, -11.8209, 27.637, 43.2514, -10.4208, -101.239, 3.92109
0.011, -1, -11.8209, 27.637, 43.2514, -10.4208, -101.239, 3.92109
0.016, -1, -11.8209, 27.637, 43.2514, -10.4208, -101.239, 3.92109
0.02, -1, -11.8209, 27.637, 43.2514, -10.4208, -101.239, 3.92109
0.024, -1, -11.8209, 27.637, 43.2514, -10.4208, -101.239, 3.92109
0.028, -1, -11.8209, 27.637, 43.2514, -10.4208, -101.239, 3.92109
0.032, -1, -11.8209, 27.637, 43.2514, -10.4208, -101.239, 3.92109
0.036, -1, -11.8208, 27.637, 43.2514, -10.4208, -101.239, 3.92108
0.04, -1, -11.8206, 27.6369, 43.2514, -10.4208, -101.239, 3.92108
0.044, -1, -11.8199, 27.6367, 43.2513, -10.4208, -101.239, 3.92105
0.048, -1, -11.8188, 27.6363, 43.2513, -10.4207, -101.239, 3.92098
0.052, -1, -11.8169, 27.6357, 43.2511, -10.4205, -101.239, 3.92081
0.056, -1, -11.8142, 27.6347, 43.2509, -10.42, -101.238, 3.92043
0.06, -1, -11.8106, 27.6334, 43.2504, -10.419, -101.236, 3.91973
0.064, -1, -11.8059, 27.6315, 43.2496, -10.4173, -101.234, 3.9185
0.068, -1, -11.8, 27.6291, 43.2483, -10.4146, -101.23, 3.91654
0.072, -1, -11.7928, 27.626, 43.2465, -10.4103, -101.223, 3.91354
0.076, -1, -11.7838, 27.6222, 43.2437, -10.4041, -101.214, 3.90917
0.08, -1, -11.7728, 27.6173, 43.2399, -10.3954, -101.201, 3.90303
0.084, -1, -11.7593, 27.6114, 43.2348, -10.3836, -101.183, 3.89469
0.088, -1, -11.7432, 27.6044, 43.2281, -10.3678, -101.159, 3.88364
0.092, -1, -11.7244, 27.5963, 43.2194, -10.3474, -101.128, 3.86937
0.096, -1, -11.7027, 27.5871, 43.2085, -10.3216, -101.09, 3.85137
0.1, -1, -11.6782, 27.5767, 43.1952, -10.2898, -101.042, 3.82914
0.104, -1, -11.6506, 27.5654, 43.1791, -10.2512, -100.985, 3.80229
0.108, -1, -11.6199, 27.5528, 43.1601, -10.2055, -100.916, 3.77048
0.112, -1, -11.5859, 27.5392, 43.138, -10.1523, -100.837, 3.73348
0.116, -1, -11.5485, 27.5242, 43.1128, -10.0915, -100.746, 3.69117
0.12, -1, -11.5074, 27.5079, 43.0844, -10.0229, -100.644, 3.64352
0.124, -1, -11.4628, 27.4904, 43.053, -9.94673, -100.53, 3.5906
0.128, -1, -11.4147, 27.4716, 43.0185, -9.8632, -100.406, 3.53258
0.131, -1, -11.3633, 27.4515, 42.9811, -9.77265, -100.271, 3.46969
0.136, -1, -11.3087, 27.4303, 42.941, -9.67555, -100.126, 3.40227
0.139, -1, -11.251, 27.4079, 42.8985, -9.57247, -99.9725, 3.33069
0.144, -1, -11.1903, 27.3844, 42.8538, -9.46403, -99.8108, 3.25539
0.148, -1, -11.1266, 27.3596, 42.807, -9.35088, -99.6422, 3.17682
0.152, -1, -11.0601, 27.3337, 42.7586, -9.23367, -99.4675, 3.09542
0.156, -1, -10.9909, 27.3067, 42.7087, -9.11298, -99.2876, 3.01159
0.16, -1, -10.9195, 27.2787, 42.6576, -8.98935, -99.1033, 2.92571
0.164, -1, -10.8461, 27.2499, 42.6054, -8.86324, -98.9152, 2.8381
0.168, -1, -10.7711, 27.2203, 42.5523, -8.73504, -98.7241, 2.74903
0.172, -1, -10.6948, 27.1902, 42.4985, -8.60512, -98.5303, 2.65876
0.176, -1, -10.6172, 27.1595, 42.4441, -8.47377, -98.3344, 2.56749
0.18, -1, -10.5385, 27.1283, 42.3892, -8.34126, -98.1368, 2.4754
0.184, -1, -10.459, 27.0968, 42.3339, -8.2078, -97.9377, 2.38265
0.188, -1, -10.3785, 27.0649, 42.2783, -8.07358, -97.7375, 2.28937
0.192, -1, -10.2973, 27.0327, 42.2224, -7.93872, -97.5364, 2.19564
0.196, -1, -10.2155, 27.0003, 42.1662, -7.80334, -97.3344, 2.10154
0.2, -1, -10.1331, 26.9676, 42.1099, -7.6675, -97.1317, 2.00712
0.204, -1, -10.0503, 26.9348, 42.0533, -7.53125, -96.9285, 1.91241
0.208, -1, -9.9672, 26.9019, 41.9967, -7.39462, -96.7247, 1.81744
0.212, -1, -9.88379, 26.8688, 41.9399, -7.25765, -96.5203, 1.72223
0.216, -1, -9.80013, 26.8356, 41.8829, -7.12034, -96.3155, 1.62679
0.22, -1, -9.71623, 26.8024, 41.8258, -6.98271, -96.1101, 1.53111
0.224, -1, -9.63212, 26.769, 41.7686, -6.84476, -95.9043, 1.43522
0.228, -1, -9.54781, 26.7356, 41.7112, -6.7065, -95.6981, 1.33912
0.232, -1, -9.46329, 26.7021, 41.6537, -6.56794, -95.4914, 1.2428
0.236, -1, -9.37859, 26.6685, 41.5961, -6.42908, -95.2842, 1.14628
0.24, -1, -9.29371, 26.6349, 41.5384, -6.28992, -95.0766, 1.04954
0.244, -1, -9.20864, 26.6011, 41.4805, -6.15046, -94.8685, 0.952603
0.248, -1, -9.12338, 26.5673, 41.4226, -6.01071, -94.66, 0.85546
0.252, -1, -9.03795, 26.5335, 41.3645, -5.87067, -94.4511, 0.758115
0.256, -1, -8.95235, 26.4995, 41.3062, -5.73034, -94.2418, 0.660569
0.26, -1, -8.86656, 26.4655, 41.2479, -5.58972, -94.032, 0.562823
0.264, -1, -8.78061, 26.4315, 41.1895, -5.44882, -93.8218, 0.464879
0.268, -1, -8.69448, 26.3973, 41.1309, -5.30764, -93.6111, 0.366738
0.272, -1, -8.60818, 26.3631, 41.0722, -5.16617, -93.4001, 0.2684
0.276, -1, -8.52171, 26.3288, 41.0134, -5.02442, -93.1886, 0.169869
0.28, -1, -8.43507, 26.2945, 40.9545, -4.8824, -92.9767, 0.0711437
0.284, -1, -8.34827, 26.2601, 40.8954, -4.74009, -92.7644, -0.027773
0.288, -1, -8.2613, 26.2256, 40.8363, -4.59752, -92.5517, -0.12688
0.292, -1, -8.17417, 26.191, 40.777, -4.45467, -92.3386, -0.226175
0.296, -1, -8.08688, 26.1564, 40.7177, -4.31156, -92.1251, -0.325657
0.3, -1, -7.99944, 26.1218, 40.6582, -4.16818, -91.9112, -0.425324
0.304, -1, -7.91184, 26.087, 40.5986, -4.02454, -91.6969, -0.525173
0.308, -1, -7.82408, 26.0522, 40.5389, -3.88064, -91.4822, -0.625202
0.312, -1, -7.73618, 26.0174, 40.4791, -3.73648, -91.2672, -0.725408
0.316, -1, -7.64814, 25.9825, 40.4192, -3.59207, -91.0517, -0.825789
0.32, -1, -7.55995, 25.9475, 40.3592, -3.44742, -90.8359, -0.926341
0.324, -1, -7.47161, 25.9125, 40.299, -3.30252, -90.6198, -1.02706
0.328, -1, -7.38314, 25.8774, 40.2388, -3.15738, -90.4032, -1.12795
0.332, -1, -7.29454, 25.8422, 40.1785, -3.01202, -90.1864, -1.229
0.336, -1, -7.20579, 25.807, 40.1181, -2.86642, -89.9691, -1.3302
0.34, -1, -7.11692, 25.7718, 40.0576, -2.7206, -89.7516, -1.43156
0.344, -1, -7.02791, 25.7365, 39.997, -2.57457, -89.5337, -1.53307
0.348, -1, -6.93879, 25.7011, 39.9364, -2.42832, -89.3156, -1.63473
0.352, -1, -6.84954, 25.6657, 39.8756, -2.28187, -89.0971, -1.73653
0.356, -1, -6.76017, 25.6303, 39.8148, -2.13522, -88.8783, -1.83847
0.36, -1, -6.67068, 25.5948, 39.7538, -1.98837, -88.6592, -1.94055
0.364, -1, -6.58109, 25.5593, 39.6928, -1.84134, -88.4398, -2.04276
0.368, -1, -6.49138, 25.5237, 39.6318, -1.69412, -88.2202, -2.14509
0.372, -1, -6.40157, 25.488, 39.5706, -1.54672, -88.0003, -2.24755
0.376, -1, -6.31166, 25.4524, 39.5094, -1.39915, -87.7802, -2.35013
0.38, -1, -6.22164, 25.4167, 39.4481, -1.25142, -87.5598, -2.45282
0.384, -1, -6.13154, 25.3809, 39.3867, -1.10353, -87.3391, -2.55562
0.388, -1, -6.04134, 25.3451, 39.3253, -0.955482, -87.1182, -2.65853
0.392, -1, -5.95105, 25.3093, 39.2639, -0.807292, -86.8972, -2.76154
0.396, -1, -5.86068, 25.2735, 39.2023, -0.658961, -86.6759, -2.86465
0.4, -1, -5.77023, 25.2376, 39.1407, -0.510497, -86.4544, -2.96785
0.404, -1, -5.6797, 25.2017, 39.0791, -0.361907, -86.2327, -3.07114
0.408, -1, -5.58909, 25.1658, 39.0174, -0.213195, -86.0109, -3.17451
0.412, -1, -5.49843, 25.1298, 38.9556, -0.0643699, -85.7888, -3.27796
0.416, -1, -5.40769, 25.0938, 38.8938, 0.084563, -85.5666, -3.38149
0.42, -1, -5.3169, 25.0578, 38.832, 0.233597, -85.3443, -3.48508
0.424, -1, -5.22606, 25.0217, 38.7701, 0.382725, -85.1218, -3.58874
0.428, -1, -5.13516, 24.9857, 38.7082, 0.531939, -84.8992, -3.69246
0.432, -1, -5.04422, 24.9496, 38.6463, 0.681234, -84.6765, -3.79624
0.436, -1, -4.95323, 24.9135, 38.5843, 0.830602, -84.4536, -3.90007
0.44, -1, -4.86221, 24.8774, 38.5223, 0.980034, -84.2307, -4.00394
0.444, -1, -4.77115, 24.8413, 38.4603, 1.12953, -84.0077, -4.10786
0.448, -1, -4.68007, 24.8051, 38.3983, 1.27907, -83.7846, -4.2118
0.452, -1, -4.58896, 24.769, 38.3362, 1.42865, -83.5614, -4.31578
0.456, -1, -4.49784, 24.7329, 38.2741, 1.57827, -83.3382, -4.41979
0.46, -1, -4.40671, 24.6967, 38.212, 1.72792, -83.1149, -4.52381
0.464, -1, -4.31556, 24.6605, 38.15, 1.87758, -82.8917, -4.62785
0.468, -1, -4.22441, 24.6244, 38.0879, 2.02726, -82.6684, -4.73189
0.472, -1, -4.13326, 24.5882, 38.0258, 2.17694, -82.4451, -4.83594
0.476, -1, -4.04211, 24.552, 37.9636, 2.32662, -82.2217, -4.93998
0.48, -1, -3.95098, 24.5159, 37.9016, 2.47628, -81.9985, -5.04401
0.484, -1, -3.85986, 24.4797, 37.8395, 2.62592, -81.7752, -5.14803
0.488, -1, -3.76876, 24.4436, 37.7774, 2.77553, -81.552, -5.25202
0.492, -1, -3.67769, 24.4075, 37.7154, 2.92509, -81.3289, -5.35599
0.496, -1, -3.58665, 24.3713, 37.6533, 3.07461, -81.1058, -5.45992
0.5, -1, -3.49564, 24.3352, 37.5913, 3.22408, -80.8829, -5.56381
0.504, -1, -3.40467, 24.2992, 37.5293, 3.37347, -80.66, -5.66766
0.508, -1, -3.31375, 24.2631, 37.4674, 3.52279, -80.4372, -5.77146
0.512, -1, -3.22288, 24.227, 37.4054, 3.67203, -80.2146, -5.87519
0.516, -1, -3.13206, 24.191, 37.3436, 3.82118, -79.9921, -5.97887
0.52, -1, -3.0413, 24.155, 37.2817, 3.97022, -79.7697, -6.08247
0.524, -1, -2.95061, 24.119, 37.2199, 4.11915, -79.5475, -6.186
0.528, -1, -2.85999, 24.0831, 37.1582, 4.26797, -79.3255, -6.28944
0.532, -1, -2.76944, 24.0472, 37.0965, 4.41666, -79.1037, -6.3928
0.536, -1, -2.67898, 24.0113, 37.0349, 4.56522, -78.882, -6.49606
0.54, -1, -2.58859, 23.9754, 36.9733, 4.71363, -78.6606, -6.59923
0.544, -1, -2.49829, 23.9396, 36.9118, 4.86189, -78.4394, -6.70228
0.548, -1, -2.40809, 23.9038, 36.8503, 5.00999, -78.2185, -6.80523
0.552, -1, -2.31798, 23.8681, 36.7889, 5.15792, -77.9978, -6.90806
0.556, -1, -2.22797, 23.8324, 36.7276, 5.30568, -77.7773, -7.01077
0.56, -1, -2.13807, 23.7967, 36.6664, 5.45326, -77.5572, -7.11336
0.564, -1, -2.04828, 23.7611, 36.6053, 5.60064, -77.3373, -7.2158
0.568, -1, -1.9586, 23.7256, 36.5442, 5.74782, -77.1177, -7.31811
0.572, -1, -1.86904, 23.6901, 36.4832, 5.8948, -76.8984, -7.42028
0.576, -1, -1.7796, 23.6546, 36.4223, 6.04157, -76.6795, -7.5223
0.58, -1, -1.6903, 23.6192, 36.3615, 6.18811, -76.4609, -7.62416
0.584, -1, -1.60113, 23.5839, 36.3008, 6.33442, -76.2426, -7.72587
0.588, -1, -1.5121, 23.5486, 36.2402, 6.4805, -76.0246, -7.82741
0.592, -1, -1.42322, 23.5134, 36.1797, 6.62634, -75.8071, -7.92879
0.596, -1, -1.33448, 23.4782, 36.1193, 6.77193, -75.5899, -8.02999
0.6, -1, -1.2459, 23.4431, 36.059, 6.91726, -75.3731, -8.13101
0.604, -1, -1.15748, 23.408, 35.9988, 7.06233, -75.1566, -8.23185
0.608, -1, -1.06922, 23.373, 35.9387, 7.20713, -74.9406, -8.3325
0.612, -1, -0.98112, 23.3381, 35.8787, 7.35165, -74.725, -8.43296
0.616, -1, -0.893193, 23.3033, 35.8189, 7.49589, -74.5098, -8.53323
0.62, -1, -0.805439, 23.2685, 35.7592, 7.63985, -74.295, -8.63329
0.624, -1, -0.717861, 23.2338, 35.6995, 7.78351, -74.0807, -8.73316
0.628, -1, -0.630465, 23.1991, 35.6401, 7.92687, -73.8668, -8.83281
0.632, -1, -0.543252, 23.1646, 35.5807, 8.06993, -73.6534, -8.93225
0.636, -1, -0.456226, 23.1301, 35.5215, 8.21268, -73.4404, -9.03148
0.64, -1, -0.369389, 23.0957, 35.4624, 8.35511, -73.2279, -9.13049
0.644, -1, -0.282746, 23.0613, 35.4034, 8.49722, -73.0159, -9.22927
0.648, -1, -0.196298, 23.0271, 35.3446, 8.63901, -72.8044, -9.32783
0.652, -1, -0.110049, 22.9929, 35.2859, 8.78046, -72.5934, -9.42616
0.656, -1, -0.0240014, 22.9588, 35.2273, 8.92158, -72.3828, -9.52425
0.66, -1, 0.0618417, 22.9248, 35.1689, 9.06236, -72.1728, -9.62211
0.664, -1, 0.147478, 22.8908, 35.1106, 9.2028, -71.9633, -9.71973
0.668, -1, 0.232905, 22.857, 35.0525, 9.34289, -71.7543, -9.81711
0.672, -1, 0.318122, 22.8232, 34.9945, 9.48263, -71.5458, -9.91425
0.676, -1, 0.403125, 22.7895, 34.9367, 9.62201, -71.3379, -10.0111
0.68, -1, 0.487913, 22.7559, 34.879, 9.76104, -71.1304, -10.1078
0.684, -1, 0.572484, 22.7224, 34.8215, 9.8997, -70.9236, -10.2042
0.688, -1, 0.656834, 22.689, 34.7641, 10.038, -70.7173, -10.3003
0.692, -1, 0.740962, 22.6557, 34.7069, 10.1759, -70.5115, -10.3962
0.696, -1, 0.824867, 22.6224, 34.6498, 10.3135, -70.3062, -10.4918
0.7, -1, 0.908546, 22.5892, 34.5929, 10.4507, -70.1016, -10.5872
0.704, -1, 0.991999, 22.5562, 34.5361, 10.5875, -69.8974, -10.6823
0.708, -1, 1.07522, 22.5232, 34.4795, 10.7239, -69.6939, -10.7771
0.712, -1, 1.15822, 22.4903, 34.423, 10.86, -69.4909, -10.8717
0.716, -1, 1.24098, 22.4575, 34.3667, 10.9957, -69.2885, -10.966
0.72, -1, 1.32352, 22.4248, 34.3106, 11.131, -69.0866, -11.0601
0.724, -1, 1.40582, 22.3922, 34.2546, 11.2659, -68.8853, -11.1539
0.728, -1, 1.48788, 22.3597, 34.1988, 11.4004, -68.6846, -11.2474
0.732, -1, 1.56971, 22.3272, 34.1431, 11.5346, -68.4845, -11.3406
0.736, -1, 1.65131, 22.2949, 34.0876, 11.6683, -68.285, -11.4336
0.74, -1, 1.73267, 22.2627, 34.0323, 11.8017, -68.086, -11.5263
0.744, -1, 1.81379, 22.2305, 33.9771, 11.9347, -67.8876, -11.6187
0.748, -1, 1.89467, 22.1985, 33.9221, 12.0673, -67.6898, -11.7109
0.752, -1, 1.97531, 22.1665, 33.8672, 12.1995, -67.4926, -11.8028
0.756, -1, 2.05572, 22.1347, 33.8125, 12.3313, -67.296, -11.8944
0.76, -1, 2.13588, 22.1029, 33.758, 12.4626, -67.0999, -11.9857
0.764, -1, 2.2158, 22.0712, 33.7037, 12.5936, -66.9045, -12.0768
0.768, -1, 2.29548, 22.0397, 33.6495, 12.7243, -66.7097, -12.1676
0.772, -1, 2.37492, 22.0082, 33.5954, 12.8545, -66.5154, -12.2581
0.776, -1, 2.45412, 21.9768, 33.5416, 12.9843, -66.3217, -12.3483
0.78, -1, 2.53307, 21.9455, 33.4879, 13.1137, -66.1287, -12.4383
0.784, -1, 2.61178, 21.9143, 33.4343, 13.2427, -65.9362, -12.5279
0.788, -1, 2.69025, 21.8832, 33.381, 13.3713, -65.7444, -12.6173
0.792, -1, 2.76848, 21.8522, 33.3278, 13.4995, -65.5531, -12.7065
0.796, -1, 2.84646, 21.8213, 33.2748, 13.6273, -65.3624, -12.7953
0.8, -1, 2.92419, 21.7905, 33.2219, 13.7547, -65.1723, -12.8839
0.804, -1, 3.00168, 21.7598, 33.1692, 13.8817, -64.9829, -12.9721
0.808, -1, 3.07893, 21.7292, 33.1167, 14.0083, -64.794, -13.0602
0.812, -1, 3.15594, 21.6987, 33.0643, 14.1345, -64.6057, -13.1479
0.816, -1, 3.2327, 21.6683, 33.0121, 14.2603, -64.418, -13.2353
0.82, -1, 3.30921, 21.638, 32.9601, 14.3857, -64.231, -13.3225
0.824, -1, 3.38548, 21.6078, 32.9082, 14.5107, -64.0445, -13.4094
0.828, -1, 3.46151, 21.5776, 32.8565, 14.6353, -63.8586, -13.496
0.832, -1, 3.53729, 21.5476, 32.805, 14.7595, -63.6733, -13.5823
0.836, -1, 3.61283, 21.5177, 32.7536, 14.8833, -63.4886, -13.6684
0.84, -1, 3.68813, 21.4878, 32.7024, 15.0067, -63.3046, -13.7541
0.844, -1, 3.76318, 21.4581, 32.6514, 15.1296, -63.1211, -13.8396
0.848, -1, 3.83799, 21.4285, 32.6005, 15.2522, -62.9382, -13.9248
0.852, -1, 3.91256, 21.3989, 32.5498, 15.3744, -62.7559, -14.0098
0.856, -1, 3.98689, 21.3695, 32.4993, 15.4962, -62.5742, -14.0944
0.86, -1, 4.06097, 21.3401, 32.4489, 15.6176, -62.393, -14.1788
0.864, -1, 4.13482, 21.3109, 32.3987, 15.7386, -62.2125, -14.2629
0.868, -1, 4.20842, 21.2817, 32.3486, 15.8592, -62.0326, -14.3468
0.872, -1, 4.28179, 21.2526, 32.2988, 15.9794, -61.8533, -14.4303
0.876, -1, 4.35492, 21.2236, 32.249, 16.0993, -61.6745, -14.5136
0.88, -1, 4.42781, 21.1948, 32.1995, 16.2187, -61.4963, -14.5966
0.884, -1, 4.50047, 21.166, 32.1501, 16.3377, -61.3187, -14.6794
0.888, -1, 4.57289, 21.1373, 32.1009, 16.4564, -61.1417, -14.7619
0.892, -1, 4.64507, 21.1087, 32.0518, 16.5746, -60.9653, -14.8441
0.896, -1, 4.71702, 21.0802, 32.0029, 16.6925, -60.7895, -14.926
0.9, -1, 4.78874, 21.0517, 31.9541, 16.81, -60.6142, -15.0077
0.904, -1, 4.86022, 21.0234, 31.9055, 16.9271, -60.4395, -15.0891
0.908, -1, 4.93148, 20.9952, 31.8571, 17.0438, -60.2653, -15.1702
0.912, -1, 5.0025, 20.967, 31.8088, 17.1602, -60.0917, -15.2511
0.916, -1, 5.07329, 20.939, 31.7607, 17.2762, -59.9187, -15.3317
0.92, -1, 5.14386, 20.911, 31.7127, 17.3918, -59.7462, -15.4121
0.924, -1, 5.2142, 20.8832, 31.6649, 17.507, -59.5743, -15.4922
0.928, -1, 5.28431, 20.8554, 31.6173, 17.6218, -59.403, -15.572
0.932, -1, 5.3542, 20.8277, 31.5698, 17.7363, -59.2322, -15.6516
0.936, -1, 5.42387, 20.8001, 31.5224, 17.8505, -59.0619, -15.7309
0.94, -1, 5.49331, 20.7726, 31.4752, 17.9642, -58.8922, -15.81
0.944, -1, 5.56253, 20.7451, 31.4282, 18.0776, -58.723, -15.8888
0.948, -1, 5.63153, 20.7178, 31.3812, 18.1907, -58.5544, -15.9674
0.952, -1, 5.70032, 20.6905, 31.3345, 18.3033, -58.3862, -16.0457
0.956, -1, 5.76889, 20.6634, 31.2879, 18.4157, -58.2187, -16.1238
0.96, -1, 5.83724, 20.6363, 31.2414, 18.5276, -58.0516, -16.2017
0.964, -1, 5.90538, 20.6093, 31.1951, 18.6393, -57.8851, -16.2793
0.968, -1, 5.9733, 20.5824, 31.1489, 18.7505, -57.7191, -16.3566
0.972, -1, 6.04101, 20.5556, 31.1029, 18.8615, -57.5536, -16.4337
0.976, -1, 6.10851, 20.5288, 31.057, 18.972, -57.3886, -16.5106
0.98, -1, 6.1758, 20.5021, 31.0113, 19.0823, -57.2242, -16.5872
0.984, -1, 6.24288, 20.4756, 30.9657, 19.1922, -57.0602, -16.6636
0.988, -1, 6.30975, 20.4491, 30.9202, 19.3017, -56.8968, -16.7397
0.992, -1, 6.37641, 20.4227, 30.8749, 19.4109, -56.7339, -16.8156
0.996, -1, 6.44287, 20.3963, 30.8298, 19.5198, -56.5715, -16.8913
1, -1, 6.50913, 20.3701, 30.7847, 19.6283, -56.4095, -16.9668
1.004, -1, 6.57518, 20.3439, 30.7398, 19.7365, -56.2481, -17.042
1.008, -1, 6.64103, 20.3178, 30.6951, 19.8444, -56.0872, -17.117
1.012, -1, 6.70668, 20.2918, 30.6504, 19.9519, -55.9267, -17.1917
1.016, -1, 6.77212, 20.2659, 30.606, 20.0591, -55.7668, -17.2663
1.02, -1, 6.83737, 20.24, 30.5616, 20.166, -55.6073, -17.3406
1.024, -1, 6.90243, 20.2142, 30.5174, 20.2726, -55.4483, -17.4146
1.027, -1, 6.96728, 20.1885, 30.4733, 20.3788, -55.2898, -17.4885
1.032, -1, 7.03194, 20.1629, 30.4294, 20.4848, -55.1318, -17.5621
1.036, -1, 7.0964, 20.1374, 30.3855, 20.5904, -54.9743, -17.6355
1.04, -1, 7.16067, 20.1119, 30.3418, 20.6957, -54.8172, -17.7087
1.044, -1, 7.22475, 20.0865, 30.2983, 20.8006, -54.6606, -17.7817
1.048, -1, 7.28864, 20.0612, 30.2549, 20.9053, -54.5044, -17.8544
1.052, -1, 7.35234, 20.036, 30.2116, 21.0096, -54.3487, -17.927
1.055, -1, 7.41585, 20.0108, 30.1684, 21.1137, -54.1935, -17.9993
1.06, -1, 7.47917, 19.9857, 30.1254, 21.2174, -54.0388, -18.0714
1.064, -1, 7.5423, 19.9607, 30.0824, 21.3208, -53.8845, -18.1433
1.068, -1, 7.60525, 19.9357, 30.0397, 21.4239, -53.7307, -18.215
1.072, -1, 7.66801, 19.9109, 29.997, 21.5268, -53.5773, -18.2864
1.076, -1, 7.73058, 19.8861, 29.9545, 21.6293, -53.4243, -18.3577
1.08, -1, 7.79298, 19.8614, 29.9121, 21.7315, -53.2718, -18.4287
1.084, -1, 7.85519, 19.8367, 29.8698, 21.8334, -53.1198, -18.4996
1.088, -1, 7.91722, 19.8121, 29.8276, 21.935, -52.9682, -18.5702
1.091, -1, 7.97907, 19.7876, 29.7856, 22.0363, -52.817, -18.6407
1.096, -1, 8.04075, 19.7632, 29.7436, 22.1374, -52.6663, -18.7109
1.1, -1, 8.10224, 19.7388, 29.7018, 22.2381, -52.516, -18.7809
1.104, -1, 8.16356, 19.7145, 29.6602, 22.3386, -52.3661, -18.8507
1.108, -1, 8.2247, 19.6903, 29.6186, 22.4387, -52.2167, -18.9204
1.112, -1, 8.28567, 19.6661, 29.5772, 22.5386, -52.0677, -18.9898
1.116, -1, 8.34646, 19.642, 29.5358, 22.6382, -51.9191, -19.059
1.119, -1, 8.40708, 19.618, 29.4946, 22.7375, -51.771, -19.128
1.124, -1, 8.46752, 19.5941, 29.4536, 22.8365, -51.6233, -19.1969
1.128, -1, 8.5278, 19.5702, 29.4126, 22.9353, -51.4759, -19.2655
1.132, -1, 8.5879, 19.5464, 29.3717, 23.0337, -51.329, -19.334
1.136, -1, 8.64784, 19.5226, 29.331, 23.1319, -51.1826, -19.4022
1.14, -1, 8.70761, 19.4989, 29.2904, 23.2298, -51.0365, -19.4703
1.144, -1, 8.76721, 19.4753, 29.2499, 23.3274, -50.8908, -19.5381
1.147, -1, 8.82664, 19.4518, 29.2095, 23.4248, -50.7456, -19.6058
1.152, -1, 8.88591, 19.4283, 29.1692, 23.5219, -50.6007, -19.6733
1.156, -1, 8.94502, 19.4049, 29.129, 23.6187, -50.4563, -19.7406
1.16, -1, 9.00397, 19.3815, 29.0889, 23.7153, -50.3122, -19.8077
1.164, -1, 9.06275, 19.3582, 29.049, 23.8116, -50.1686, -19.8747
1.168, -1, 9.12137, 19.335, 29.0091, 23.9076, -50.0253, -19.9414
1.172, -1, 9.17983, 19.3118, 28.9694, 24.0034, -49.8825, -20.008
1.175, -1, 9.23814, 19.2887, 28.9298, 24.0989, -49.74, -20.0744
1.18, -1, 9.29628, 19.2657, 28.8903, 24.1941, -49.5979, -20.1406
1.184, -1, 9.35427, 19.2427, 28.8508, 24.2891, -49.4562, -20.2066
1.188, -1, 9.4121, 19.2198, 28.8115, 24.3838, -49.3148, -20.2724
1.192, -1, 9.46978, 19.1969, 28.7723, 24.4783, -49.1739, -20.3381
1.196, -1, 9.5273, 19.1741, 28.7332, 24.5725, -49.0333, -20.4036
1.2, -1, 9.58467, 19.1514, 28.6943, 24.6665, -48.8931, -20.4689
1.204, -1, 9.64189, 19.1287, 28.6554, 24.7602, -48.7533, -20.5341
1.208, -1, 9.69896, 19.1061, 28.6166, 24.8537, -48.6138, -20.5991
1.212, -1, 9.75588, 19.0836, 28.5779, 24.947, -48.4747, -20.6639
1.216, -1, 9.81265, 19.0611, 28.5393, 25.0399, -48.336, -20.7285
1.22, -1, 9.86927, 19.0386, 28.5008, 25.1327, -48.1976, -20.793
1.224, -1, 9.92575, 19.0163, 28.4624, 25.2252, -48.0596, -20.8573
1.228, -1, 9.98208, 18.9939, 28.4241, 25.3175, -47.9219, -20.9215
1.232, -1, 10.0383, 18.9717, 28.386, 25.4095, -47.7846, -20.9854
1.236, -1, 10.0943, 18.9495, 28.3479, 25.5013, -47.6476, -21.0493
1.24, -1, 10.1502, 18.9273, 28.3099, 25.5929, -47.511, -21.1129
1.244, -1, 10.206, 18.9052, 28.272, 25.6842, -47.3748, -21.1764
1.248, -1, 10.2616, 18.8832, 28.2342, 25.7753, -47.2388, -21.2397
1.252, -1, 10.3171, 18.8612, 28.1965, 25.8662, -47.1033, -21.3029
1.256, -1, 10.3724, 18.8393, 28.1589, 25.9569, -46.968, -21.3659
1.26, -1, 10.4276, 18.8174, 28.1213, 26.0473, -46.8331, -21.4288
1.264, -1, 10.4827, 18.7956, 28.0839, 26.1375, -46.6986, -21.4915
1.267, -1, 10.5376, 18.7738, 28.0466, 26.2275, -46.5643, -21.554
1.272, -1, 10.5924, 18.7521, 28.0093, 26.3172, -46.4304, -21.6164
1.276, -1, 10.647, 18.7304, 27.9722, 26.4067, -46.2969, -21.6786
1.28, -1, 10.7016, 18.7088, 27.9351, 26.4961, -46.1636, -21.7407
1.284, -1, 10.7559, 18.6873, 27.8982, 26.5851, -46.0307, -21.8027
1.288, -1, 10.8102, 18.6658, 27.8613, 26.674, -45.8981, -21.8644
1.292, -1, 10.8643, 18.6443, 27.8245, 26.7627, -45.7658, -21.9261
1.295, -1, 10.9183, 18.6229, 27.7878, 26.8511, -45.6339, -21.9875
1.3, -1, 10.9722, 18.6016, 27.7512, 26.9394, -45.5022, -22.0489
1.304, -1, 11.0259, 18.5803, 27.7147, 27.0274, -45.3709, -22.1101
1.308, -1, 11.0796, 18.5591, 27.6782, 27.1152, -45.2399, -22.1711
1.312, -1, 11.133, 18.5379, 27.6419, 27.2028, -45.1092, -22.232
1.316, -1, 11.1864, 18.5167, 27.6056, 27.2902, -44.9788, -22.2928
1.32, -1, 11.2396, 18.4956, 27.5695, 27.3774, -44.8487, -22.3534
1.324, -1, 11.2927, 18.4746, 27.5334, 27.4644, -44.719, -22.4138
1.328, -1, 11.3457, 18.4536, 27.4974, 27.5512, -44.5895, -22.4742
1.332, -1, 11.3986, 18.4327, 27.4614, 27.6378, -44.4603, -22.5344
1.336, -1, 11.4513, 18.4118, 27.4256, 27.7241, -44.3314, -22.5944
1.34, -1, 11.5039, 18.3909, 27.3898, 27.8103, -44.2029, -22.6543
1.344, -1, 11.5564, 18.3701, 27.3542, 27.8963, -44.0746, -22.7141
1.348, -1, 11.6088, 18.3494, 27.3186, 27.9821, -43.9466, -22.7737
1.352, -1, 11.661, 18.3287, 27.2831, 28.0677, -43.8189, -22.8332
1.356, -1, 11.7132, 18.308, 27.2476, 28.1531, -43.6915, -22.8926
1.36, -1, 11.7652, 18.2874, 27.2123, 28.2383, -43.5644, -22.9518
1.364, -1, 11.8171, 18.2668, 27.177, 28.3233, -43.4376, -23.0109
1.368, -1, 11.8688, 18.2463, 27.1418, 28.4081, -43.3111, -23.0698
1.372, -1, 11.9205, 18.2259, 27.1067, 28.4927, -43.1848, -23.1286
1.376, -1, 11.972, 18.2054, 27.0717, 28.5771, -43.0589, -23.1873
1.38, -1, 12.0235, 18.1851, 27.0367, 28.6614, -42.9332, -23.2459
1.384, -1, 12.0748, 18.1647, 27.0018, 28.7454, -42.8078, -23.3043
1.388, -1, 12.126, 18.1444, 26.967, 28.8293, -42.6827, -23.3626
1.392, -1, 12.1771, 18.1242, 26.9323, 28.913, -42.5578, -23.4208
1.396, -1, 12.228, 18.104, 26.8977, 28.9965, -42.4333, -23.4788
1.4, -1, 12.2789, 18.0839, 26.8631, 29.0798, -42.309, -23.5367
1.404, -1, 12.3296, 18.0637, 26.8286, 29.1629, -42.185, -23.5945
1.408, -1, 12.3803, 18.0437, 26.7942, 29.2459, -42.0612, -23.6522
1.412, -1, 12.4308, 18.0237, 26.7599, 29.3286, -41.9377, -23.7097
1.416, -1, 12.4812, 18.0037, 26.7256, 29.4112, -41.8145, -23.7671
1.42, -1, 12.5315, 17.9838, 26.6914, 29.4936, -41.6915, -23.8244
1.424, -1, 12.5817, 17.9639, 26.6573, 29.5759, -41.5689, -23.8816
1.428, -1, 12.6318, 17.944, 26.6232, 29.6579, -41.4464, -23.9386
1.432, -1, 12.6818, 17.9242, 26.5893, 29.7398, -41.3243, -23.9956
1.436, -1, 12.7317, 17.9044, 26.5554, 29.8215, -41.2024, -24.0523
1.44, -1, 12.7815, 17.8847, 26.5215, 29.9031, -41.0807, -24.109
1.444, -1, 12.8311, 17.865, 26.4878, 29.9844, -40.9594, -24.1656
1.448, -1, 12.8807, 17.8454, 26.4541, 30.0656, -40.8382, -24.222
1.452, -1, 12.9302, 17.8258, 26.4205, 30.1466, -40.7174, -24.2783
1.456, -1, 12.9795, 17.8062, 26.3869, 30.2275, -40.5967, -24.3345
1.46, -1, 13.0288, 17.7867, 26.3534, 30.3082, -40.4764, -24.3906
1.464, -1, 13.0779, 17.7673, 26.32, 30.3887, -40.3563, -24.4466
1.468, -1, 13.127, 17.7478, 26.2867, 30.469, -40.2364, -24.5024
1.472, -1, 13.1759, 17.7284, 26.2534, 30.5492, -40.1168, -24.5582
1.476, -1, 13.2248, 17.7091, 26.2202, 30.6292, -39.9974, -24.6138
1.48, -1, 13.2735, 17.6898, 26.1871, 30.7091, -39.8783, -24.6693
1.484, -1, 13.3222, 17.6705, 26.154, 30.7888, -39.7594, -24.7247
1.488, -1, 13.3707, 17.6512, 26.121, 30.8683, -39.6407, -24.78
1.492, -1, 13.4191, 17.6321, 26.0881, 30.9476, -39.5223, -24.8351
1.496, -1, 13.4675, 17.6129, 26.0553, 31.0268, -39.4042, -24.8902
1.5, -1, 13.5157, 17.5938, 26.0225, 31.1059, -39.2863, -24.9451
1.504, -1, 13.5639, 17.5747, 25.9897, 31.1848, -39.1686, -25
1.508, -1, 13.612, 17.5557, 25.9571, 31.2635, -39.0511, -25.0547
1.512, -1, 13.6599, 17.5366, 25.9245, 31.3421, -38.9339, -25.1093
1.516, -1, 13.7078, 17.5177, 25.8919, 31.4205, -38.8169, -25.1638
1.52, -1, 13.7556, 17.4988, 25.8595, 31.4987, -38.7002, -25.2182
1.524, -1, 13.8032, 17.4799, 25.8271, 31.5768, -38.5837, -25.2725
1.528, -1, 13.8508, 17.461, 25.7947, 31.6548, -38.4674, -25.3267
1.532, -1, 13.8983, 17.4422, 25.7624, 31.7326, -38.3513, -25.3808
1.536, -1, 13.9457, 17.4234, 25.7302, 31.8102, -38.2355, -25.4347
1.54, -1, 13.993, 17.4047, 25.6981, 31.8877, -38.1199, -25.4886
1.544, -1, 14.0402, 17.386, 25.666, 31.965, -38.0045, -25.5424
1.548, -1, 14.0874, 17.3673, 25.634, 32.0422, -37.8893, -25.596
1.552, -1, 14.1344, 17.3486, 25.602, 32.1193, -37.7744, -25.6496
1.556, -1, 14.1813, 17.33, 25.5701, 32.1962, -37.6597, -25.703
1.56, -1, 14.2282, 17.3115, 25.5382, 32.2729, -37.5452, -25.7564
1.564, -1, 14.275, 17.2929, 25.5065, 32.3495, -37.4309, -25.8096
1.568, -1, 14.3216, 17.2745, 25.4747, 32.426, -37.3168, -25.8628
1.572, -1, 14.3682, 17.256, 25.4431, 32.5023, -37.2029, -25.9158
1.576, -1, 14.4147, 17.2376, 25.4115, 32.5785, -37.0893, -25.9688
1.58, -1, 14.4611, 17.2192, 25.3799, 32.6545, -36.9758, -26.0216
1.584, -1, 14.5075, 17.2008, 25.3484, 32.7304, -36.8626, -26.0744
1.588, -1, 14.5537, 17.1825, 25.317, 32.8062, -36.7496, -26.1271
1.592, -1, 14.5999, 17.1642, 25.2856, 32.8818, -36.6368, -26.1796
1.596, -1, 14.6459, 17.1459, 25.2543, 32.9573, -36.5242, -26.2321
1.6, -1, 14.6919, 17.1277, 25.2231, 33.0326, -36.4118, -26.2844
1.604, -1, 14.7378, 17.1095, 25.1919, 33.1078, -36.2996, -26.3367
1.608, -1, 14.7837, 17.0914, 25.1607, 33.1829, -36.1877, -26.3889
1.612, -1, 14.8294, 17.0733, 25.1296, 33.2578, -36.0759, -26.441
1.616, -1, 14.875, 17.0552, 25.0986, 33.3326, -35.9643, -26.493
1.62, -1, 14.9206, 17.0371, 25.0676, 33.4072, -35.8529, -26.5448
1.624, -1, 14.9661, 17.0191, 25.0367, 33.4817, -35.7418, -26.5966
1.628, -1, 15.0115, 17.0011, 25.0058, 33.5561, -35.6308, -26.6483
1.632, -1, 15.0568, 16.9831, 24.975, 33.6304, -35.52, -26.7
1.636, -1, 15.1021, 16.9652, 24.9443, 33.7045, -35.4094, -26.7515
1.64, -1, 15.1472, 16.9473, 24.9136, 33.7785, -35.2991, -26.8029
1.644, -1, 15.1923, 16.9294, 24.8829, 33.8523, -35.1889, -26.8543
1.648, -1, 15.2373, 16.9116, 24.8524, 33.9261, -35.0789, -26.9055
1.652, -1, 15.2822, 16.8938, 24.8218, 33.9997, -34.9691, -26.9567
1.656, -1, 15.3271, 16.876, 24.7913, 34.0731, -34.8595, -27.0077
1.66, -1, 15.3719, 16.8583, 24.7609, 34.1465, -34.75, -27.0587
1.664, -1, 15.4166, 16.8406, 24.7305, 34.2197, -34.6408, -27.1096
1.668, -1, 15.4612, 16.8229, 24.7002, 34.2928, -34.5318, -27.1604
1.672, -1, 15.5057, 16.8053, 24.6699, 34.3657, -34.4229, -27.2111
1.676, -1, 15.5502, 16.7876, 24.6397, 34.4386, -34.3143, -27.2618
1.68, -1, 15.5946, 16.7701, 24.6095, 34.5113, -34.2058, -27.3123
1.684, -1, 15.6389, 16.7525, 24.5794, 34.5839, -34.0975, -27.3628
1.688, -1, 15.6831, 16.735, 24.5494, 34.6563, -33.9894, -27.4131
1.692, -1, 15.7272, 16.7175, 24.5193, 34.7287, -33.8815, -27.4634
1.696, -1, 15.7713, 16.7, 24.4894, 34.8009, -33.7737, -27.5136
1.7, -1, 15.8153, 16.6826, 24.4595, 34.873, -33.6662, -27.5637
1.704, -1, 15.8593, 16.6652, 24.4296, 34.945, -33.5588, -27.6138
1.708, -1, 15.9031, 16.6478, 24.3998, 35.0168, -33.4516, -27.6637
1.712, -1, 15.9469, 16.6304, 24.37, 35.0886, -33.3446, -27.7136
1.716, -1, 15.9906, 16.6131, 24.3403, 35.1602, -33.2377, -27.7634
1.72, -1, 16.0343, 16.5958, 24.3107, 35.2317, -33.1311, -27.8131
1.724, -1, 16.0778, 16.5786, 24.281, 35.303, -33.0246, -27.8627
1.728, -1, 16.1213, 16.5613, 24.2515, 35.3743, -32.9183, -27.9122
1.732, -1, 16.1648, 16.5441, 24.222, 35.4454, -32.8121, -27.9617
1.736, -1, 16.2081, 16.5269, 24.1925, 35.5165, -32.7062, -28.011
1.74, -1, 16.2514, 16.5098, 24.1631, 35.5874, -32.6004, -28.0603
1.744, -1, 16.2946, 16.4927, 24.1337, 35.6582, -32.4947, -28.1096
1.748, -1, 16.3378, 16.4756, 24.1044, 35.7289, -32.3893, -28.1587
1.752, -1, 16.3808, 16.4585, 24.0751, 35.7994, -32.284, -28.2077
1.756, -1, 16.4238, 16.4414, 24.0459, 35.8699, -32.1789, -28.2567
1.76, -1, 16.4668, 16.4244, 24.0167, 35.9402, -32.074, -28.3056
1.764, -1, 16.5096, 16.4074, 23.9875, 36.0105, -31.9692, -28.3544
1.768, -1, 16.5524, 16.3905, 23.9584, 36.0806, -31.8646, -28.4032
1.772, -1, 16.5952, 16.3736, 23.9294, 36.1506, -31.7602, -28.4518
1.776, -1, 16.6378, 16.3566, 23.9004, 36.2205, -31.6559, -28.5004
1.78, -1, 16.6804, 16.3398, 23.8714, 36.2902, -31.5518, -28.5489
1.784, -1, 16.7229, 16.3229, 23.8425, 36.3599, -31.4478, -28.5973
1.788, -1, 16.7654, 16.3061, 23.8137, 36.4295, -31.344, -28.6457
1.792, -1, 16.8078, 16.2893, 23.7849, 36.4989, -31.2404, -28.694
1.796, -1, 16.8501, 16.2725, 23.7561, 36.5683, -31.137, -28.7422
1.8, -1, 16.8924, 16.2558, 23.7274, 36.6375, -31.0337, -28.7903
1.804, -1, 16.9346, 16.239, 23.6987, 36.7067, -30.9305, -28.8384
1.808, -1, 16.9767, 16.2224, 23.67, 36.7757, -30.8276, -28.8863
1.812, -1, 17.0188, 16.2057, 23.6414, 36.8446, -30.7248, -28.9343
1.816, -1, 17.0608, 16.189, 23.6129, 36.9134, -30.6221, -28.9821
1.82, -1, 17.1027, 16.1724, 23.5844, 36.9821, -30.5196, -29.0298
1.824, -1, 17.1445, 16.1559, 23.5559, 37.0507, -30.4172, -29.0775
1.828, -1, 17.186, 16.1394, 23.5275, 37.1192, -30.3151, -29.1251
1.832, -1, 17.2272, 16.1231, 23.4991, 37.1876, -30.2131, -29.1727
1.836, -1, 17.2677, 16.107, 23.4708, 37.2557, -30.1114, -29.2201
1.84, -1, 17.3076, 16.0912, 23.4426, 37.3237, -30.01, -29.2673
1.844, -1, 17.3467, 16.0757, 23.4146, 37.3913, -29.9092, -29.3143
1.848, -1, 17.3848, 16.0608, 23.3867, 37.4584, -29.8092, -29.3609
1.852, -1, 17.422, 16.0463, 23.3592, 37.5247, -29.7102, -29.407
1.856, -1, 17.458, 16.0323, 23.332, 37.59, -29.6128, -29.4524
1.86, -1, 17.4929, 16.019, 23.3054, 37.654, -29.5174, -29.4969
1.864, -1, 17.5264, 16.0063, 23.2795, 37.7163, -29.4245, -29.5402
1.868, -1, 17.5585, 15.9944, 23.2545, 37.7765, -29.3348, -29.582
1.872, -1, 17.589, 15.9832, 23.2306, 37.8341, -29.2489, -29.6221
1.876, -1, 17.6179, 15.9726, 23.2078, 37.8888, -29.1674, -29.66
1.88, -1, 17.6452, 15.9627, 23.1865, 37.94, -29.0911, -29.6956
1.884, -1, 17.6708, 15.9533, 23.1668, 37.9874, -29.0204, -29.7286
1.888, -1, 17.6949, 15.9443, 23.1489, 38.0306, -28.9559, -29.7586
1.892, -1, 17.7175, 15.9356, 23.1327, 38.0695, -28.8979, -29.7857
1.896, -1, 17.7385, 15.9272, 23.1184, 38.1039, -28.8466, -29.8096
1.9, -1, 17.758, 15.9192, 23.106, 38.1339, -28.8018, -29.8304
1.904, -1, 17.7759, 15.9115, 23.0954, 38.1595, -28.7636, -29.8482
1.908, -1, 17.792, 15.9045, 23.0865, 38.181, -28.7315, -29.8632
1.912, -1, 17.8065, 15.898, 23.0792, 38.1987, -28.7051, -29.8755
1.916, -1, 17.8195, 15.8921, 23.0733, 38.2129, -28.6838, -29.8854
1.92, -1, 17.831, 15.8868, 23.0687, 38.2241, -28.667, -29.8932
1.924, -1, 17.8411, 15.8821, 23.0652, 38.2327, -28.6542, -29.8991
1.928, -1, 17.85, 15.8781, 23.0626, 38.2391, -28.6446, -29.9036
1.932, -1, 17.8576, 15.8747, 23.0607, 38.2438, -28.6375, -29.9068
1.936, -1, 17.8638, 15.872, 23.0593, 38.2471, -28.6325, -29.9091
1.94, 2, 17.8689, 15.8698, 23.0584, 38.2494, -28.629, -29.9108
1.944, 2, 17.8727, 15.8682, 23.0577, 38.251, -28.6266, -29.9119
1.948, 2, 17.8755, 15.867, 23.0573, 38.2521, -28.625, -29.9126
1.952, 2, 17.8775, 15.8662, 23.057, 38.2528, -28.6239, -29.9131
1.956, 2, 17.8788, 15.8657, 23.0568, 38.2533, -28.6231, -29.9135
1.96, 2, 17.8797, 15.8653, 23.0567, 38.2537, -28.6226, -29.9137
1.964, 2, 17.8803, 15.8651, 23.0566, 38.2539, -28.6222, -29.9139
1.968, 2, 17.8807, 15.8649, 23.0565, 38.254, -28.622, -29.914
1.972, 2, 17.881, 15.8648, 23.0565, 38.2541, -28.6219, -29.9141
1.976, 2, 17.8812, 15.8647, 23.0564, 38.2542, -28.6217, -29.9141
1.98, 2, 17.8813, 15.8647, 23.0564, 38.2543, -28.6217, -29.9142
1.984, 2, 17.8814, 15.8646, 23.0564, 38.2543, -28.6216, -29.9142
1.988, 2, 17.8814, 15.8646, 23.0564, 38.2543, -28.6216, -29.9142
1.992, 2, 17.8815, 15.8646, 23.0564, 38.2543, -28.6216, -29.9142
1.996, 2, 17.8815, 15.8646, 23.0564, 38.2543, -28.6216, -29.9142
1.999, 2, 17.8815, 15.8646, 23.0564, 38.2544, -28.6215, -29.9142
2.004, 2, 17.8815, 15.8646, 23.0564, 38.2544, -28.6215, -29.9142
2.008, 2, 17.8816, 15.8646, 23.0564, 38.2544, -28.6215, -29.9142
2.012, 2, 17.8816, 15.8646, 23.0564, 38.2544, -28.6215, -29.9142
2.015, 2, 17.8816, 15.8646, 23.0564, 38.2544, -28.6215, -29.9142
2.019, 2, 17.8816, 15.8646, 23.0564, 38.2544, -28.6215, -29.9142
2.024, 2, 17.8816, 15.8646, 23.0564, 38.2544, -28.6215, -29.9142
2.028, 2, 17.8816, 15.8645, 23.0564, 38.2544, -28.6215, -29.9142
2.031, 2, 17.8816, 15.8645, 23.0564, 38.2544, -28.6215, -29.9142
2.036, 2, 17.8816, 15.8645, 23.0564, 38.2544, -28.6215, -29.9142
2.04, 2, 17.8816, 15.8645, 23.0564, 38.2544, -28.6215, -29.9142
2.044, 2, 17.8816, 15.8645, 23.0564, 38.2544, -28.6215, -29.9142
2.048, 2, 17.8816, 15.8645, 23.0564, 38.2544, -28.6215, -29.9142
2.051, 2, 17.8816, 15.8645, 23.0564, 38.2544, -28.6215, -29.9142
2.055, 2, 17.8816, 15.8645, 23.0564, 38.2544, -28.6215, -29.9142
2.06, 2, 17.8816, 15.8645, 23.0564, 38.2544, -28.6215, -29.9142
2.064, 2, 17.8816, 15.8645, 23.0564, 38.2544, -28.6215, -29.9142
2.068, 2, 17.8816, 15.8645, 23.0564, 38.2544, -28.6215, -29.9142
2.071, 2, 17.8816, 15.8645, 23.0564, 38.2544, -28.6215, -29.9142
2.076, 2, 17.8816, 15.8645, 23.0564, 38.2544, -28.6215, -29.9142
2.08, 2, 17.8816, 15.8645, 23.0564, 38.2544, -28.6215, -29.9142
2.084, 2, 17.8816, 15.8645, 23.0564, 38.2544, -28.6215, -29.9142
2.087, 2, 17.8816, 15.8645, 23.0564, 38.2544, -28.6215, -29.9142
2.092, 2, 17.8816, 15.8645, 23.0564, 38.2544, -28.6215, -29.9142
2.096, 2, 17.8816, 15.8645, 23.0564, 38.2544, -28.6215, -29.9142
2.1, 2, 17.8816, 15.8645, 23.0564, 38.2544, -28.6215, -29.9142
2.104, 2, 17.8816, 15.8645, 23.0564, 38.2544, -28.6215, -29.9142
2.107, 2, 17.8816, 15.8645, 23.0564, 38.2544, -28.6215, -29.9142
2.111, 2, 17.8816, 15.8645, 23.0564, 38.2544, -28.6215, -29.9142
2.116, 2, 17.8816, 15.8645, 23.0564, 38.2544, -28.6215, -29.9142
2.12, 2, 17.8816, 15.8645, 23.0564, 38.2544, -28.6215, -29.9142
2.124, 2, 17.8816, 15.8645, 23.0564, 38.2544, -28.6215, -29.9142
2.127, 2, 17.8816, 15.8645, 23.0564, 38.2544, -28.6215, -29.9142
2.132, 2, 17.8816, 15.8645, 23.0564, 38.2544, -28.6215, -29.9142
2.136, 2, 17.8816, 15.8645, 23.0564, 38.2544, -28.6215, -29.9142
2.14, 2, 17.8816, 15.8645, 23.0564, 38.2544, -28.6215, -29.9142
2.143, 2, 17.8816, 15.8645, 23.0564, 38.2544, -28.6215, -29.9142
2.148, 2, 17.8816, 15.8645, 23.0564, 38.2544, -28.6215, -29.9142
2.152, 2, 17.8816, 15.8645, 23.0564, 38.2544, -28.6215, -29.9142
2.156, 2, 17.8816, 15.8645, 23.0564, 38.2544, -28.6215, -29.9142
2.16, 2, 17.8816, 15.8645, 23.0564, 38.2544, -28.6215, -29.9142
2.163, 2, 17.8816, 15.8645, 23.0564, 38.2544, -28.6215, -29.9142
2.168, 2, 17.8816, 15.8645, 23.0564, 38.2544, -28.6215, -29.9142
2.172, 2, 17.8816, 15.8645, 23.0564, 38.2544, -28.6215, -29.9142
2.176, 2, 17.8816, 15.8645, 23.0564, 38.2544, -28.6215, -29.9142
2.179, 2, 17.8816, 15.8645, 23.0564, 38.2544, -28.6215, -29.9142
2.184, 2, 17.8816, 15.8645, 23.0564, 38.2544, -28.6215, -29.9142
2.188, 2, 17.8816, 15.8645, 23.0564, 38.2544, -28.6215, -29.9142
2.192, 2, 17.8816, 15.8645, 23.0564, 38.2544, -28.6215, -29.9142
2.196, 2, 17.8816, 15.8645, 23.0564, 38.2544, -28.6215, -29.9142
2.199, 2, 17.8816, 15.8645, 23.0564, 38.2544, -28.6215, -29.9142
2.204, 2, 17.8816, 15.8645, 23.0564, 38.2544, -28.6215, -29.9142
2.208, 2, 17.8816, 15.8645, 23.0564, 38.2544, -28.6215, -29.9142
2.212, 2, 17.8816, 15.8645, 23.0564, 38.2544, -28.6215, -29.9142
2.216, 2, 17.8816, 15.8645, 23.0564, 38.2544, -28.6215, -29.9142
2.219, 2, 17.8816, 15.8645, 23.0564, 38.2544, -28.6215, -29.9142
2.224, 2, 17.8816, 15.8645, 23.0564, 38.2544, -28.6215, -29.9142
2.228, 2, 17.8816, 15.8645, 23.0564, 38.2544, -28.6215, -29.9142
2.232, 2, 17.8816, 15.8645, 23.0564, 38.2544, -28.6215, -29.9142
2.235, 2, 17.8816, 15.8645, 23.0564, 38.2544, -28.6215, -29.9142
2.24, 2, 17.8816, 15.8645, 23.0564, 38.2544, -28.6215, -29.9142
2.244, 2, 17.8816, 15.8645, 23.0564, 38.2544, -28.6215, -29.9142
2.248, 2, 17.8816, 15.8645, 23.0564, 38.2544, -28.6215, -29.9142
2.252, 2, 17.8816, 15.8645, 23.0564, 38.2544, -28.6215, -29.9142
2.255, 2, 17.8816, 15.8645, 23.0564, 38.2544, -28.6215, -29.9142
2.259, 2, 17.8816, 15.8645, 23.0564, 38.2544, -28.6215, -29.9142
2.264, 2, 17.8816, 15.8645, 23.0564, 38.2544, -28.6215, -29.9142
2.268, 2, 17.8816, 15.8645, 23.0564, 38.2544, -28.6215, -29.9142
2.272, 2, 17.8816, 15.8645, 23.0564, 38.2544, -28.6215, -29.9142
2.275, 2, 17.8816, 15.8645, 23.0564, 38.2544, -28.6215, -29.9142
2.28, 2, 17.8816, 15.8645, 23.0564, 38.2544, -28.6215, -29.9142
2.284, 2, 17.8816, 15.8645, 23.0564, 38.2544, -28.6215, -29.9142
2.288, 2, 17.8816, 15.8645, 23.0564, 38.2544, -28.6215, -29.9142
2.291, 2, 17.8816, 15.8645, 23.0564, 38.2544, -28.6215, -29.9142
2.296, 2, 17.8816, 15.8645, 23.0564, 38.2544, -28.6215, -29.9142
2.3, 2, 17.8816, 15.8645, 23.0564, 38.2544, -28.6215, -29.9142
2.304, 2, 17.8816, 15.8645, 23.0564, 38.2544, -28.6215, -29.9142
2.308, 2, 17.8816, 15.8645, 23.0564, 38.2544, -28.6215, -29.9142
2.311, 2, 17.8816, 15.8645, 23.0564, 38.2544, -28.6215, -29.9142
2.316, 2, 17.8816, 15.8645, 23.0564, 38.2544, -28.6215, -29.9142
2.32, 2, 17.8816, 15.8645, 23.0564, 38.2544, -28.6215, -29.9142
2.324, 2, 17.8816, 15.8645, 23.0564, 38.2544, -28.6215, -29.9142
2.328, 2, 17.8816, 15.8645, 23.0564, 38.2544, -28.6215, -29.9142
2.331, 2, 17.8816, 15.8645, 23.0564, 38.2544, -28.6215, -29.9142
2.336, 2, 17.8816, 15.8645, 23.0564, 38.2544, -28.6215, -29.9142
2.34, 2, 17.8816, 15.8645, 23.0564, 38.2544, -28.6215, -29.9142
2.344, 2, 17.8816, 15.8645, 23.0564, 38.2544, -28.6215, -29.9142
2.347, 2, 17.8816, 15.8645, 23.0564, 38.2544, -28.6215, -29.9142
2.352, 2, 17.8816, 15.8645, 23.0564, 38.2544, -28.6215, -29.9142
2.356, 2, 17.8816, 15.8645, 23.0564, 38.2544, -28.6215, -29.9142
2.36, 2, 17.8816, 15.8645, 23.0564, 38.2544, -28.6215, -29.9142
2.364, 2, 17.8816, 15.8645, 23.0564, 38.2544, -28.6215, -29.9142
2.367, 2, 17.8816, 15.8645, 23.0564, 38.2544, -28.6215, -29.9142
2.372, 2, 17.8816, 15.8645, 23.0564, 38.2544, -28.6215, -29.9142
2.376, 2, 17.8816, 15.8645, 23.0564, 38.2544, -28.6215, -29.9142
2.38, 2, 17.8816, 15.8645, 23.0564, 38.2544, -28.6215, -29.9142
2.383, 2, 17.8816, 15.8645, 23.0564, 38.2544, -28.6215, -29.9142
2.388, 2, 17.8816, 15.8645, 23.0564, 38.2544, -28.6215, -29.9142
2.392, 2, 17.8816, 15.8645, 23.0564, 38.2544, -28.6215, -29.9142
2.396, 2, 17.8816, 15.8645, 23.0564, 38.2544, -28.6215, -29.9142
2.4, 2, 17.8816, 15.8645, 23.0564, 38.2544, -28.6215, -29.9142
2.403, 2, 17.8816, 15.8645, 23.0564, 38.2544, -28.6215, -29.9142
2.408, 2, 17.8816, 15.8645, 23.0564, 38.2544, -28.6215, -29.9142
2.412, 2, 17.8816, 15.8645, 23.0564, 38.2544, -28.6215, -29.9142
2.416, 2, 17.8816, 15.8645, 23.0564, 38.2544, -28.6215, -29.9142
2.42, 2, 17.8816, 15.8645, 23.0564, 38.2544, -28.6215, -29.9142
2.423, 2, 17.8816, 15.8645, 23.0564, 38.2544, -28.6215, -29.9142
2.428, 2, 17.8816, 15.8645, 23.0564, 38.2544, -28.6215, -29.9142
2.432, 2, 17.8816, 15.8645, 23.0564, 38.2544, -28.6215, -29.9142
2.436, 2, 17.8816, 15.8645, 23.0564, 38.2544, -28.6215, -29.9142
2.439, 2, 17.8816, 15.8645, 23.0564, 38.2544, -28.6215, -29.9142
2.444, 2, 17.8816, 15.8645, 23.0564, 38.2544, -28.6215, -29.9142
2.448, 2, 17.8816, 15.8645, 23.0564, 38.2544, -28.6215, -29.9142
2.452, 2, 17.8816, 15.8645, 23.0564, 38.2544, -28.6215, -29.9142
2.456, 2, 17.8816, 15.8645, 23.0564, 38.2544, -28.6215, -29.9142
2.459, 2, 17.8816, 15.8645, 23.0564, 38.2544, -28.6215, -29.9142
2.464, 2, 17.8816, 15.8645, 23.0564, 38.2544, -28.6215, -29.9142
2.468, 2, 17.8816, 15.8645, 23.0564, 38.2544, -28.6215, -29.9142
2.472, 2, 17.8816, 15.8645, 23.0564, 38.2544, -28.6215, -29.9142
2.476, 2, 17.8816, 15.8645, 23.0564, 38.2544, -28.6215, -29.9142
2.479, 2, 17.8816, 15.8645, 23.0564, 38.2544, -28.6215, -29.9142
2.484, 2, 17.8816, 15.8645, 23.0564, 38.2544, -28.6215, -29.9142
2.488, 2, 17.8816, 15.8645, 23.0564, 38.2544, -28.6215, -29.9142
2.492, 2, 17.8816, 15.8645, 23.0564, 38.2544, -28.6215, -29.9142
2.495, 2, 17.8816, 15.8645, 23.0564, 38.2544, -28.6215, -29.9142
2.5, 2, 17.8816, 15.8645, 23.0564, 38.2544, -28.6215, -29.9142
2.504, 2, 17.8816, 15.8645, 23.0564, 38.2544, -28.6215, -29.9142
2.508, 2, 17.8816, 15.8645, 23.0564, 38.2544, -28.6215, -29.9142
2.512, 2, 17.8816, 15.8645, 23.0564, 38.2544, -28.6215, -29.9142
2.515, 2, 17.8816, 15.8645, 23.0564, 38.2544, -28.6215, -29.9142
2.52, 2, 17.8816, 15.8645, 23.0564, 38.2544, -28.6215, -29.9142
2.524, 2, 17.8816, 15.8645, 23.0564, 38.2544, -28.6215, -29.9142
2.528, 2, 17.8816, 15.8645, 23.0564, 38.2544, -28.6215, -29.9142
2.531, 2, 17.8816, 15.8645, 23.0564, 38.2544, -28.6215, -29.9142
2.536, 2, 17.8816, 15.8645, 23.0564, 38.2544, -28.6215, -29.9142
2.54, 2, 17.8816, 15.8645, 23.0564, 38.2544, -28.6215, -29.9142
2.544, 2, 17.8816, 15.8645, 23.0564, 38.2544, -28.6215, -29.9142
2.548, 2, 17.8816, 15.8645, 23.0564, 38.2544, -28.6215, -29.9142
2.551, 2, 17.8816, 15.8645, 23.0564, 38.2544, -28.6215, -29.9142
2.556, 2, 17.8816, 15.8645, 23.0564, 38.2544, -28.6215, -29.9142
2.56, 2, 17.8816, 15.8645, 23.0564, 38.2544, -28.6215, -29.9142
2.564, 2, 17.8816, 15.8645, 23.0564, 38.2544, -28.6215, -29.9142
2.568, 2, 17.8816, 15.8645, 23.0564, 38.2544, -28.6215, -29.9142
2.571, 2, 17.8816, 15.8645, 23.0564, 38.2544, -28.6215, -29.9142
2.576, 2, 17.8816, 15.8645, 23.0564, 38.2544, -28.6215, -29.9142
2.58, 2, 17.8816, 15.8645, 23.0564, 38.2544, -28.6215, -29.9142
2.584, 2, 17.8816, 15.8645, 23.0564, 38.2544, -28.6215, -29.9142
2.587, 2, 17.8816, 15.8645, 23.0564, 38.2544, -28.6215, -29.9142
2.592, 2, 17.8816, 15.8645, 23.0564, 38.2544, -28.6215, -29.9142
2.596, 2, 17.8816, 15.8645, 23.0564, 38.2544, -28.6215, -29.9142
2.6, 2, 17.8816, 15.8645, 23.0564, 38.2544, -28.6215, -29.9142
2.604, 2, 17.8816, 15.8645, 23.0564, 38.2544, -28.6215, -29.9142
2.607, 2, 17.8816, 15.8645, 23.0564, 38.2544, -28.6215, -29.9142
2.612, 2, 17.8816, 15.8645, 23.0564, 38.2544, -28.6215, -29.9142
2.616, 2, 17.8816, 15.8645, 23.0564, 38.2544, -28.6215, -29.9142
2.62, 2, 17.8816, 15.8645, 23.0564, 38.2544, -28.6215, -29.9142
2.624, 2, 17.8816, 15.8645, 23.0564, 38.2544, -28.6215, -29.9142
2.627, 2, 17.8816, 15.8645, 23.0564, 38.2544, -28.6215, -29.9142
2.632, 2, 17.8816, 15.8645, 23.0564, 38.2544, -28.6215, -29.9142
2.636, 2, 17.8816, 15.8645, 23.0564, 38.2544, -28.6215, -29.9142
2.64, 2, 17.8816, 15.8645, 23.0564, 38.2544, -28.6215, -29.9142
2.643, 2, 17.8816, 15.8645, 23.0564, 38.2544, -28.6215, -29.9142
2.648, 2, 17.8816, 15.8645, 23.0564, 38.2544, -28.6215, -29.9142
2.652, 2, 17.8816, 15.8645, 23.0564, 38.2544, -28.6215, -29.9142
2.656, 2, 17.8816, 15.8645, 23.0564, 38.2544, -28.6215, -29.9142
2.66, 2, 17.8816, 15.8645, 23.0564, 38.2544, -28.6215, -29.9142
2.663, 2, 17.8816, 15.8645, 23.0564, 38.2544, -28.6215, -29.9142
2.668, 2, 17.8816, 15.8645, 23.0564, 38.2544, -28.6215, -29.9142
2.672, 2, 17.8816, 15.8645, 23.0564, 38.2544, -28.6215, -29.9142
2.676, 2, 17.8816, 15.8645, 23.0564, 38.2544, -28.6215, -29.9142
2.679, 2, 17.8816, 15.8645, 23.0564, 38.2544, -28.6215, -29.9142
2.684, 2, 17.8816, 15.8645, 23.0564, 38.2544, -28.6215, -29.9142
2.688, 2, 17.8816, 15.8645, 23.0564, 38.2544, -28.6215, -29.9142
2.692, 2, 17.8816, 15.8645, 23.0564, 38.2544, -28.6215, -29.9142
2.696, 2, 17.8816, 15.8645, 23.0564, 38.2544, -28.6215, -29.9142
2.699, 2, 17.8816, 15.8645, 23.0564, 38.2544, -28.6215, -29.9142
2.704, 2, 17.8816, 15.8645, 23.0564, 38.2544, -28.6215, -29.9142
2.708, 2, 17.8816, 15.8645, 23.0564, 38.2544, -28.6215, -29.9142
2.712, 2, 17.8816, 15.8645, 23.0564, 38.2544, -28.6215, -29.9142
2.716, 2, 17.8816, 15.8645, 23.0564, 38.2544, -28.6215, -29.9142
2.719, 2, 17.8816, 15.8645, 23.0564, 38.2544, -28.6215, -29.9142
2.724, 2, 17.8816, 15.8645, 23.0564, 38.2544, -28.6215, -29.9142
2.728, 2, 17.8816, 15.8645, 23.0564, 38.2544, -28.6215, -29.9142
2.732, 2, 17.8816, 15.8645, 23.0564, 38.2544, -28.6215, -29.9142
2.735, 2, 17.8816, 15.8645, 23.0564, 38.2544, -28.6215, -29.9142
2.74, 2, 17.8816, 15.8645, 23.0564, 38.2544, -28.6215, -29.9142
2.744, 2, 17.8816, 15.8645, 23.0564, 38.2544, -28.6215, -29.9142
2.748, 2, 17.8816, 15.8645, 23.0564, 38.2544, -28.6215, -29.9142
2.752, 2, 17.8816, 15.8645, 23.0564, 38.2544, -28.6215, -29.9142
2.755, 2, 17.8816, 15.8645, 23.0564, 38.2544, -28.6215, -29.9142
2.76, 2, 17.8816, 15.8645, 23.0564, 38.2544, -28.6215, -29.9142
2.764, 2, 17.8816, 15.8645, 23.0564, 38.2544, -28.6215, -29.9142
2.768, 2, 17.8816, 15.8645, 23.0564, 38.2544, -28.6215, -29.9142
2.772, 2, 17.8816, 15.8645, 23.0564, 38.2544, -28.6215, -29.9142
2.775, 2, 17.8816, 15.8645, 23.0564, 38.2544, -28.6215, -29.9142
2.78, 2, 17.8816, 15.8645, 23.0564, 38.2544, -28.6215, -29.9142
2.784, 2, 17.8816, 15.8645, 23.0564, 38.2544, -28.6215, -29.9142
2.788, 2, 17.8816, 15.8645, 23.0564, 38.2544, -28.6215, -29.9142
2.791, 2, 17.8816, 15.8645, 23.0564, 38.2544, -28.6215, -29.9142
2.796, 2, 17.8816, 15.8645, 23.0564, 38.2544, -28.6215, -29.9142
2.8, 2, 17.8816, 15.8645, 23.0564, 38.2544, -28.6215, -29.9142
2.804, 2, 17.8816, 15.8645, 23.0564, 38.2544, -28.6215, -29.9142
2.808, 2, 17.8816, 15.8645, 23.0564, 38.2544, -28.6215, -29.9142
2.811, 2, 17.8816, 15.8645, 23.0564, 38.2544, -28.6215, -29.9142
2.816, 2, 17.8816, 15.8645, 23.0564, 38.2544, -28.6215, -29.9142
2.82, 2, 17.8816, 15.8645, 23.0564, 38.2544, -28.6215, -29.9142
2.824, 2, 17.8816, 15.8645, 23.0564, 38.2544, -28.6215, -29.9142
2.828, 2, 17.8816, 15.8645, 23.0564, 38.2544, -28.6215, -29.9142
2.831, 2, 17.8816, 15.8645, 23.0564, 38.2544, -28.6215, -29.9142
2.836, 2, 17.8816, 15.8645, 23.0564, 38.2544, -28.6215, -29.9142
2.84, 2, 17.8816, 15.8645, 23.0564, 38.2544, -28.6215, -29.9142
2.844, 2, 17.8816, 15.8645, 23.0564, 38.2544, -28.6215, -29.9142
2.847, 2, 17.8816, 15.8645, 23.0564, 38.2544, -28.6215, -29.9142
2.852, 2, 17.8816, 15.8645, 23.0564, 38.2544, -28.6215, -29.9142
2.856, 2, 17.8816, 15.8645, 23.0564, 38.2544, -28.6215, -29.9142
2.86, 2, 17.8816, 15.8645, 23.0564, 38.2544, -28.6215, -29.9142
2.864, 2, 17.8816, 15.8645, 23.0564, 38.2544, -28.6215, -29.9142
2.867, 2, 17.8816, 15.8645, 23.0564, 38.2544, -28.6215, -29.9142
2.872, 2, 17.8816, 15.8645, 23.0564, 38.2544, -28.6215, -29.9142
2.876, 2, 17.8816, 15.8645, 23.0564, 38.2544, -28.6215, -29.9142
2.88, 2, 17.8816, 15.8645, 23.0564, 38.2544, -28.6215, -29.9142
2.883, 2, 17.8816, 15.8645, 23.0564, 38.2544, -28.6215, -29.9142
2.888, 2, 17.8816, 15.8645, 23.0564, 38.2544, -28.6215, -29.9142
2.892, 2, 17.8816, 15.8645, 23.0564, 38.2544, -28.6215, -29.9142
2.896, 2, 17.8816, 15.8645, 23.0564, 38.2544, -28.6215, -29.9142
2.9, 2, 17.8816, 15.8645, 23.0564, 38.2544, -28.6215, -29.9142
2.903, 2, 17.8816, 15.8645, 23.0564, 38.2544, -28.6215, -29.9142
2.908, 2, 17.8816, 15.8645, 23.0564, 38.2544, -28.6215, -29.9142
2.912, 2, 17.8816, 15.8645, 23.0564, 38.2544, -28.6215, -29.9142
2.916, 2, 17.8816, 15.8645, 23.0564, 38.2544, -28.6215, -29.9142
2.92, 2, 17.8816, 15.8645, 23.0564, 38.2544, -28.6215, -29.9142
2.923, 2, 17.8816, 15.8645, 23.0564, 38.2544, -28.6215, -29.9142
2.928, 2, 17.8816, 15.8645, 23.0564, 38.2544, -28.6215, -29.9142
2.932, 2, 17.8816, 15.8645, 23.0564, 38.2544, -28.6215, -29.9142
2.936, 2, 17.8816, 15.8645, 23.0564, 38.2544, -28.6215, -29.9142
2.939, 2, 17.8816, 15.8645, 23.0564, 38.2544, -28.6215, -29.9142
2.944, 2, 17.8816, 15.8645, 23.0564, 38.2544, -28.6215, -29.9142
2.948, 2, 17.8816, 15.8645, 23.0564, 38.2544, -28.6215, -29.9142
2.952, 2, 17.8816, 15.8645, 23.0564, 38.2544, -28.6215, -29.9142
2.956, 2, 17.8816, 15.8645, 23.0564, 38.2544, -28.6215, -29.9142
2.959, 2, 17.8816, 15.8645, 23.0564, 38.2544, -28.6215, -29.9142
2.964, 2, 17.8816, 15.8645, 23.0564, 38.2544, -28.6215, -29.9142
2.968, 2, 17.8816, 15.8645, 23.0564, 38.2544, -28.6215, -29.9142
2.972, 2, 17.8816, 15.8645, 23.0564, 38.2544, -28.6215, -29.9142
2.976, 2, 17.8816, 15.8645, 23.0564, 38.2544, -28.6215, -29.9142
2.98, 2, 17.8816, 15.8645, 23.0564, 38.2544, -28.6215, -29.9142
2.984, 2, 17.8816, 15.8645, 23.0564, 38.2544, -28.6215, -29.9142
2.988, 2, 17.8816, 15.8645, 23.0564, 38.2544, -28.6215, -29.9142
2.992, 2, 17.8816, 15.8645, 23.0564, 38.2544, -28.6215, -29.9142
2.995, 2, 17.8816, 15.8645, 23.0564, 38.2544, -28.6215, -29.9142
3, 2, 17.8816, 15.8645, 23.0564, 38.2544, -28.6215, -29.9142
3.004, 2, 17.8816, 15.8645, 23.0564, 38.2544, -28.6215, -29.9142
3.008, 2, 17.8816, 15.8645, 23.0564, 38.2544, -28.6215, -29.9142
3.012, 2, 17.8816, 15.8645, 23.0564, 38.2544, -28.6215, -29.9142
3.015, 4, 17.8816, 15.8645, 23.0564, 38.2544, -28.6215, -29.9142
3.02, 4, 17.8816, 15.8645, 23.0564, 38.2544, -28.6215, -29.9142
3.024, 4, 17.8816, 15.8645, 23.0564, 38.2544, -28.6215, -29.9142
3.028, 4, 17.8816, 15.8645, 23.0564, 38.2544, -28.6215, -29.9142
3.031, 4, 17.8816, 15.8645, 23.0564, 38.2544, -28.6215, -29.9142
3.036, 4, 17.8816, 15.8645, 23.0564, 38.2544, -28.6215, -29.9142
3.04, 4, 17.8816, 15.8645, 23.0564, 38.2544, -28.6215, -29.9142
3.044, 4, 17.8816, 15.8645, 23.0564, 38.2544, -28.6215, -29.9142
3.048, 4, 17.8816, 15.8645, 23.0564, 38.2544, -28.6215, -29.9142
3.051, 4, 17.8816, 15.8645, 23.0564, 38.2544, -28.6215, -29.9142
3.056, 4, 17.8816, 15.8645, 23.0564, 38.2544, -28.6215, -29.9142
3.06, 4, 17.8816, 15.8645, 23.0564, 38.2544, -28.6215, -29.9142
3.064, 4, 17.8816, 15.8645, 23.0564, 38.2544, -28.6215, -29.9142
3.068, 4, 17.8816, 15.8645, 23.0564, 38.2544, -28.6215, -29.9142
3.071, 4, 17.8816, 15.8645, 23.0564, 38.2544, -28.6215, -29.9142
3.076, 4, 17.8816, 15.8645, 23.0564, 38.2544, -28.6215, -29.9142
3.08, 4, 17.8816, 15.8645, 23.0564, 38.2544, -28.6215, -29.9142
3.084, 4, 17.8816, 15.8645, 23.0564, 38.2544, -28.6215, -29.9142
3.087, 4, 17.8816, 15.8645, 23.0564, 38.2544, -28.6215, -29.9142
3.092, 4, 17.8816, 15.8645, 23.0564, 38.2544, -28.6215, -29.9142
3.096, 4, 17.8816, 15.8645, 23.0564, 38.2544, -28.6215, -29.9142
3.1, 4, 17.8816, 15.8645, 23.0564, 38.2544, -28.6215, -29.9142
3.104, 4, 17.8816, 15.8645, 23.0564, 38.2544, -28.6215, -29.9142
3.107, 4, 17.8816, 15.8645, 23.0564, 38.2544, -28.6215, -29.9142
3.112, 4, 17.8816, 15.8645, 23.0564, 38.2544, -28.6215, -29.9142
3.116, 4, 17.8816, 15.8645, 23.0564, 38.2544, -28.6215, -29.9142
3.122, 4, 17.8816, 15.8645, 23.0564, 38.2544, -28.6215, -29.9142
3.124, 4, 17.8816, 15.8645, 23.0564, 38.2544, -28.6215, -29.9142
3.128, 4, 17.8816, 15.8645, 23.0564, 38.2544, -28.6215, -29.9142
3.132, 4, 17.8816, 15.8645, 23.0564, 38.2544, -28.6215, -29.9142
3.136, 4, 17.8816, 15.8645, 23.0564, 38.2544, -28.6215, -29.9142
3.14, 4, 17.8816, 15.8645, 23.0564, 38.2544, -28.6215, -29.9142
3.143, 4, 17.8816, 15.8645, 23.0564, 38.2544, -28.6215, -29.9142
3.148, 4, 17.8816, 15.8645, 23.0564, 38.2544, -28.6215, -29.9142
3.152, 4, 17.8816, 15.8645, 23.0564, 38.2544, -28.6215, -29.9142
3.156, 4, 17.8816, 15.8646, 23.0564, 38.2544, -28.6215, -29.9142
3.16, 4, 17.8815, 15.8646, 23.0564, 38.2544, -28.6215, -29.9142
3.163, 4, 17.8813, 15.8647, 23.0563, 38.2543, -28.6215, -29.9142
3.168, 4, 17.8809, 15.865, 23.0563, 38.2543, -28.6215, -29.9142
3.172, 4, 17.88, 15.8657, 23.0561, 38.2541, -28.6216, -29.9141
3.176, 4, 17.8788, 15.8666, 23.0558, 38.2538, -28.6217, -29.9138
3.179, 4, 17.8773, 15.8679, 23.0554, 38.2531, -28.6219, -29.9132
3.184, 4, 17.8755, 15.8695, 23.0549, 38.2519, -28.6223, -29.9122
3.188, 4, 17.8735, 15.8714, 23.0542, 38.25, -28.623, -29.9106
3.192, 4, 17.8714, 15.8735, 23.0532, 38.2472, -28.6239, -29.9083
3.196, 4, 17.8694, 15.8759, 23.052, 38.2434, -28.6251, -29.905
3.199, 4, 17.8673, 15.8785, 23.0506, 38.2383, -28.6268, -29.9007
3.204, 5, 17.8651, 15.8814, 23.0489, 38.2319, -28.6289, -29.8952
3.208, 5, 17.8628, 15.8848, 23.0468, 38.2241, -28.6314, -29.8885
3.212, 5, 17.8604, 15.8885, 23.0444, 38.2148, -28.6344, -29.8806
3.216, 5, 17.8579, 15.8925, 23.0417, 38.2041, -28.6379, -29.8715
3.22, 5, 17.8554, 15.8968, 23.0386, 38.192, -28.6419, -29.8611
3.224, 5, 17.853, 15.9014, 23.0353, 38.1785, -28.6463, -29.8496
3.228, 5, 17.8505, 15.9062, 23.0318, 38.1638, -28.6511, -29.837
3.232, 5, 17.848, 15.9113, 23.028, 38.148, -28.6562, -29.8236
3.235, 5, 17.8454, 15.9167, 23.0239, 38.1314, -28.6617, -29.8094
3.24, 5, 17.8424, 15.9225, 23.0197, 38.1141, -28.6673, -29.7947
3.244, 5, 17.8391, 15.9287, 23.0153, 38.0964, -28.6731, -29.7795
3.248, 5, 17.8354, 15.9352, 23.0108, 38.0782, -28.679, -29.764
3.252, 5, 17.8313, 15.942, 23.0062, 38.0599, -28.685, -29.7483
3.255, 5, 17.827, 15.9491, 23.0015, 38.0414, -28.6911, -29.7325
3.26, 5, 17.8226, 15.9562, 22.9967, 38.0227, -28.6972, -29.7166
3.264, 5, 17.8181, 15.9635, 22.9919, 38.004, -28.7033, -29.7007
3.268, 5, 17.8135, 15.9708, 22.9871, 37.9853, -28.7095, -29.6847
3.272, 5, 17.8088, 15.9781, 22.9823, 37.9665, -28.7157, -29.6687
3.276, 5, 17.8041, 15.9855, 22.9775, 37.9477, -28.7218, -29.6527
3.28, 5, 17.7994, 15.9929, 22.9726, 37.9289, -28.728, -29.6366
3.284, 5, 17.7947, 16.0003, 22.9678, 37.9101, -28.7342, -29.6206
3.288, 5, 17.7899, 16.0077, 22.9629, 37.8912, -28.7404, -29.6045
3.291, 5, 17.7852, 16.0151, 22.9581, 37.8724, -28.7466, -29.5885
3.296, 5, 17.7804, 16.0225, 22.9533, 37.8536, -28.7528, -29.5725
3.3, 5, 17.7756, 16.0299, 22.9484, 37.8348, -28.759, -29.5564
3.304, 5, 17.7708, 16.0373, 22.9436, 37.816, -28.7652, -29.5404
3.308, 5, 17.7661, 16.0448, 22.9387, 37.7972, -28.7714, -29.5244
3.312, 5, 17.7613, 16.0522, 22.9339, 37.7784, -28.7776, -29.5084
3.316, 5, 17.7565, 16.0596, 22.9291, 37.7596, -28.7838, -29.4924
3.32, 5, 17.7517, 16.067, 22.9242, 37.7408, -28.79, -29.4764
3.324, 5, 17.747, 16.0744, 22.9194, 37.722, -28.7962, -29.4603
3.328, 5, 17.7422, 16.0818, 22.9145, 37.7032, -28.8024, -29.4444
3.332, 5, 17.7374, 16.0893, 22.9097, 37.6844, -28.8086, -29.4284
3.336, 5, 17.7326, 16.0967, 22.9049, 37.6657, -28.8149, -29.4124
3.34, 5, 17.7278, 16.1041, 22.9, 37.6469, -28.8211, -29.3964
3.344, 5, 17.723, 16.1115, 22.8952, 37.6281, -28.8273, -29.3804
3.347, 5, 17.7183, 16.1189, 22.8904, 37.6094, -28.8335, -29.3645
3.352, 5, 17.7135, 16.1263, 22.8856, 37.5906, -28.8397, -29.3485
3.356, 5, 17.7087, 16.1337, 22.8807, 37.5719, -28.846, -29.3325
3.36, 5, 17.7039, 16.1411, 22.8759, 37.5532, -28.8522, -29.3166
3.364, 5, 17.6991, 16.1485, 22.8711, 37.5344, -28.8584, -29.3006
3.368, 5, 17.6943, 16.1559, 22.8662, 37.5157, -28.8646, -29.2847
3.372, 5, 17.6895, 16.1633, 22.8614, 37.497, -28.8709, -29.2688
3.376, 5, 17.6847, 16.1707, 22.8566, 37.4783, -28.8771, -29.2528
3.38, 5, 17.6799, 16.1781, 22.8518, 37.4595, -28.8833, -29.2369
3.383, 5, 17.6751, 16.1855, 22.847, 37.4408, -28.8896, -29.221
3.388, 5, 17.6703, 16.1929, 22.8421, 37.4221, -28.8958, -29.2051
3.392, 5, 17.6655, 16.2003, 22.8373, 37.4034, -28.9021, -29.1892
3.396, 5, 17.6607, 16.2077, 22.8325, 37.3848, -28.9083, -29.1733
3.4, 5, 17.6559, 16.2151, 22.8277, 37.3661, -28.9146, -29.1574
3.403, 5, 17.6511, 16.2224, 22.8229, 37.3474, -28.9208, -29.1415
3.408, 5, 17.6463, 16.2298, 22.8181, 37.3287, -28.927, -29.1256
3.412, 5, 17.6415, 16.2372, 22.8132, 37.31, -28.9333, -29.1097
3.416, 5, 17.6367, 16.2446, 22.8084, 37.2914, -28.9395, -29.0938
3.42, 5, 17.6319, 16.252, 22.8036, 37.2727, -28.9458, -29.078
3.424, 5, 17.627, 16.2594, 22.7988, 37.2541, -28.9521, -29.0621
3.428, 5, 17.6222, 16.2667, 22.794, 37.2354, -28.9583, -29.0462
3.432, 5, 17.6174, 16.2741, 22.7892, 37.2168, -28.9646, -29.0304
3.436, 5, 17.6126, 16.2815, 22.7844, 37.1981, -28.9708, -29.0145
3.439, 5, 17.6078, 16.2889, 22.7796, 37.1795, -28.9771, -28.9987
3.444, 5, 17.603, 16.2962, 22.7748, 37.1609, -28.9834, -28.9829
3.448, 5, 17.5981, 16.3036, 22.77, 37.1423, -28.9896, -28.967
3.452, 5, 17.5933, 16.311, 22.7652, 37.1236, -28.9959, -28.9512
3.456, 5, 17.5885, 16.3184, 22.7604, 37.105, -29.0022, -28.9354
3.46, 5, 17.5837, 16.3257, 22.7556, 37.0864, -29.0084, -28.9196
3.464, 5, 17.5789, 16.3331, 22.7508, 37.0678, -29.0147, -28.9038
3.468, 5, 17.574, 16.3405, 22.746, 37.0492, -29.021, -28.888
3.472, 5, 17.5692, 16.3478, 22.7412, 37.0306, -29.0273, -28.8722
3.476, 5, 17.5644, 16.3552, 22.7364, 37.012, -29.0335, -28.8564
3.48, 5, 17.5596, 16.3625, 22.7316, 36.9935, -29.0398, -28.8406
3.484, 5, 17.5547, 16.3699, 22.7268, 36.9749, -29.0461, -28.8248
3.488, 5, 17.5499, 16.3773, 22.722, 36.9563, -29.0524, -28.809
3.492, 5, 17.5451, 16.3846, 22.7173, 36.9378, -29.0587, -28.7933
3.495, 5, 17.5402, 16.392, 22.7125, 36.9192, -29.065, -28.7775
3.5, 5, 17.5354, 16.3993, 22.7077, 36.9006, -29.0712, -28.7617
3.504, 5, 17.5306, 16.4067, 22.7029, 36.8821, -29.0775, -28.746
3.508, 5, 17.5257, 16.414, 22.6981, 36.8636, -29.0838, -28.7303
3.512, 5, 17.5209, 16.4214, 22.6933, 36.845, -29.0901, -28.7145
3.516, 5, 17.5161, 16.4287, 22.6885, 36.8265, -29.0964, -28.6988
3.52, 5, 17.5112, 16.4361, 22.6838, 36.808, -29.1027, -28.683
3.524, 5, 17.5064, 16.4434, 22.679, 36.7894, -29.109, -28.6673
3.528, 5, 17.5015, 16.4508, 22.6742, 36.7709, -29.1153, -28.6516
3.531, 5, 17.4967, 16.4581, 22.6694, 36.7524, -29.1216, -28.6359
3.536, 5, 17.4918, 16.4654, 22.6647, 36.7339, -29.1279, -28.6202
3.54, 5, 17.487, 16.4728, 22.6599, 36.7154, -29.1342, -28.6045
3.544, 5, 17.4821, 16.4801, 22.6551, 36.6969, -29.1405, -28.5888
3.548, 5, 17.4773, 16.4874, 22.6503, 36.6784, -29.1468, -28.5731
3.552, 5, 17.4725, 16.4948, 22.6456, 36.6599, -29.1532, -28.5574
3.556, 5, 17.4676, 16.5021, 22.6408, 36.6415, -29.1595, -28.5417
3.56, 5, 17.4627, 16.5094, 22.636, 36.623, -29.1658, -28.5261
3.564, 5, 17.4579, 16.5168, 22.6313, 36.6045, -29.1721, -28.5104
3.568, 5, 17.453, 16.5241, 22.6265, 36.586, -29.1784, -28.4947
3.572, 5, 17.4482, 16.5314, 22.6217, 36.5676, -29.1847, -28.4791
3.576, 5, 17.4433, 16.5388, 22.617, 36.5491, -29.1911, -28.4634
3.58, 5, 17.4385, 16.5461, 22.6122, 36.5307, -29.1974, -28.4478
3.584, 5, 17.4336, 16.5534, 22.6074, 36.5122, -29.2037, -28.4321
3.587, 5, 17.4288, 16.5607, 22.6027, 36.4938, -29.21, -28.4165
3.592, 5, 17.4239, 16.568, 22.5979, 36.4754, -29.2164, -28.4009
3.596, 5, 17.419, 16.5754, 22.5932, 36.457, -29.2227, -28.3852
3.6, 5, 17.4142, 16.5827, 22.5884, 36.4385, -29.229, -28.3696
3.604, 5, 17.4093, 16.59, 22.5837, 36.4201, -29.2354, -28.354
3.608, 5, 17.4044, 16.5973, 22.5789, 36.4017, -29.2417, -28.3384
3.612, 5, 17.3996, 16.6046, 22.5742, 36.3833, -29.2481, -28.3228
3.616, 5, 17.3947, 16.6119, 22.5694, 36.3649, -29.2544, -28.3072
3.62, 5, 17.3898, 16.6193, 22.5647, 36.3465, -29.2607, -28.2916
3.624, 5, 17.385, 16.6266, 22.5599, 36.3281, -29.2671, -28.276
3.628, 5, 17.3801, 16.6339, 22.5552, 36.3097, -29.2734, -28.2604
3.632, 5, 17.3752, 16.6412, 22.5504, 36.2914, -29.2798, -28.2449
3.636, 5, 17.3703, 16.6485, 22.5457, 36.273, -29.2861, -28.2293
3.64, 5, 17.3655, 16.6558, 22.5409, 36.2546, -29.2925, -28.2137
3.644, 5, 17.3606, 16.6631, 22.5362, 36.2363, -29.2988, -28.1982
3.648, 5, 17.3557, 16.6704, 22.5314, 36.2179, -29.3052, -28.1826
3.652, 5, 17.3508, 16.6777, 22.5267, 36.1995, -29.3115, -28.1671
3.656, 5, 17.346, 16.685, 22.522, 36.1812, -29.3179, -28.1515
3.66, 5, 17.3411, 16.6923, 22.5172, 36.1629, -29.3243, -28.136
3.664, 5, 17.3362, 16.6996, 22.5125, 36.1445, -29.3306, -28.1205
3.668, 5, 17.3313, 16.7069, 22.5077, 36.1262, -29.337, -28.1049
3.672, 5, 17.3264, 16.7142, 22.503, 36.1079, -29.3433, -28.0894
3.676, 5, 17.3215, 16.7214, 22.4983, 36.0895, -29.3497, -28.0739
3.679, 5, 17.3167, 16.7287, 22.4935, 36.0712, -29.3561, -28.0584
3.684, 5, 17.3118, 16.736, 22.4888, 36.0529, -29.3625, -28.0429
3.688, 5, 17.3069, 16.7433, 22.4841, 36.0346, -29.3688, -28.0274
3.692, 5, 17.302, 16.7506, 22.4794, 36.0163, -29.3752, -28.0119
3.696, 5, 17.2971, 16.7579, 22.4746, 35.998, -29.3816, -27.9964
3.7, 5, 17.2922, 16.7652, 22.4699, 35.9797, -29.388, -27.9809
3.704, 5, 17.2873, 16.7724, 22.4652, 35.9614, -29.3943, -27.9654
3.708, 5, 17.2824, 16.7797, 22.4605, 35.9432, -29.4007, -27.95
3.712, 5, 17.2775, 16.787, 22.4557, 35.9249, -29.4071, -27.9345
3.716, 5, 17.2726, 16.7943, 22.451, 35.9066, -29.4135, -27.9191
3.72, 5, 17.2677, 16.8015, 22.4463, 35.8884, -29.4199, -27.9036
3.724, 5, 17.2628, 16.8088, 22.4416, 35.8701, -29.4263, -27.8881
3.728, 5, 17.2579, 16.8161, 22.4369, 35.8518, -29.4326, -27.8727
3.732, 5, 17.253, 16.8234, 22.4321, 35.8336, -29.439, -27.8573
3.735, 5, 17.2481, 16.8306, 22.4274, 35.8154, -29.4454, -27.8418
3.74, 5, 17.2432, 16.8379, 22.4227, 35.7971, -29.4518, -27.8264
3.744, 5, 17.2383, 16.8452, 22.418, 35.7789, -29.4582, -27.811
3.748, 5, 17.2334, 16.8524, 22.4133, 35.7607, -29.4646, -27.7956
3.752, 5, 17.2285, 16.8597, 22.4086, 35.7424, -29.471, -27.7802
3.756, 5, 17.2236, 16.8669, 22.4039, 35.7242, -29.4774, -27.7648
3.76, 5, 17.2187, 16.8742, 22.3992, 35.706, -29.4838, -27.7494
3.764, 5, 17.2138, 16.8815, 22.3945, 35.6878, -29.4902, -27.734
3.768, 5, 17.2088, 16.8887, 22.3898, 35.6696, -29.4967, -27.7186
3.772, 5, 17.2039, 16.896, 22.3851, 35.6514, -29.5031, -27.7032
3.776, 5, 17.199, 16.9032, 22.3804, 35.6332, -29.5095, -27.6878
3.78, 5, 17.1941, 16.9105, 22.3757, 35.615, -29.5159, -27.6724
3.784, 5, 17.1892, 16.9177, 22.371, 35.5969, -29.5223, -27.6571
3.788, 5, 17.1843, 16.925, 22.3663, 35.5787, -29.5287, -27.6417
3.792, 5, 17.1793, 16.9322, 22.3616, 35.5605, -29.5351, -27.6264
3.796, 5, 17.1744, 16.9395, 22.3569, 35.5424, -29.5416, -27.611
3.8, 5, 17.1695, 16.9467, 22.3522, 35.5242, -29.548, -27.5957
3.804, 5, 17.1646, 16.954, 22.3475, 35.506, -29.5544, -27.5803
3.808, 5, 17.1597, 16.9612, 22.3428, 35.4879, -29.5608, -27.565
3.812, 5, 17.1547, 16.9685, 22.3381, 35.4698, -29.5673, -27.5497
3.816, 5, 17.1498, 16.9757, 22.3334, 35.4516, -29.5737, -27.5343
3.82, 5, 17.1449, 16.9829, 22.3287, 35.4335, -29.5801, -27.519
3.824, 5, 17.1399, 16.9902, 22.324, 35.4154, -29.5866, -27.5037
3.828, 5, 17.135, 16.9974, 22.3193, 35.3972, -29.593, -27.4884
3.832, 5, 17.1301, 17.0046, 22.3147, 35.3791, -29.5994, -27.4731
3.836, 5, 17.1251, 17.0119, 22.31, 35.361, -29.6059, -27.4578
3.84, 5, 17.1202, 17.0191, 22.3053, 35.3429, -29.6123, -27.4425
3.844, 5, 17.1153, 17.0263, 22.3006, 35.3248, -29.6187, -27.4272
3.848, 5, 17.1103, 17.0336, 22.2959, 35.3067, -29.6252, -27.4119
3.852, 5, 17.1054, 17.0408, 22.2913, 35.2886, -29.6316, -27.3967
3.856, 5, 17.1005, 17.048, 22.2866, 35.2705, -29.6381, -27.3814
3.86, 5, 17.0955, 17.0552, 22.2819, 35.2524, -29.6445, -27.3661
3.864, 5, 17.0906, 17.0625, 22.2772, 35.2344, -29.651, -27.3509
3.868, 5, 17.0856, 17.0697, 22.2726, 35.2163, -29.6574, -27.3356
3.872, 5, 17.0807, 17.0769, 22.2679, 35.1982, -29.6639, -27.3204
3.876, 5, 17.0758, 17.0841, 22.2632, 35.1802, -29.6703, -27.3051
3.88, 5, 17.0708, 17.0913, 22.2585, 35.1621, -29.6768, -27.2899
3.884, 5, 17.0659, 17.0986, 22.2539, 35.1441, -29.6833, -27.2747
3.888, 5, 17.0609, 17.1058, 22.2492, 35.126, -29.6897, -27.2594
3.892, 5, 17.056, 17.113, 22.2445, 35.108, -29.6962, -27.2442
3.896, 5, 17.051, 17.1202, 22.2399, 35.0899, -29.7027, -27.229
3.9, 5, 17.0461, 17.1274, 22.2352, 35.0719, -29.7091, -27.2138
3.904, 5, 17.0411, 17.1346, 22.2305, 35.0539, -29.7156, -27.1986
3.908, 5, 17.0362, 17.1418, 22.2259, 35.0359, -29.7221, -27.1834
3.912, 5, 17.0312, 17.149, 22.2212, 35.0179, -29.7285, -27.1682
3.916, 5, 17.0263, 17.1562, 22.2166, 34.9999, -29.735, -27.153
3.92, 5, 17.0213, 17.1634, 22.2119, 34.9818, -29.7415, -27.1378
3.924, 5, 17.0163, 17.1706, 22.2073, 34.9638, -29.748, -27.1227
3.928, 5, 17.0114, 17.1778, 22.2026, 34.9459, -29.7544, -27.1075
3.932, 5, 17.0064, 17.185, 22.1979, 34.9279, -29.7609, -27.0923
3.936, 5, 17.0015, 17.1922, 22.1933, 34.9099, -29.7674, -27.0771
3.94, 5, 16.9965, 17.1994, 22.1886, 34.8919, -29.7739, -27.062
3.944, 5, 16.9915, 17.2066, 22.184, 34.8739, -29.7804, -27.0468
3.948, 5, 16.9866, 17.2138, 22.1793, 34.856, -29.7869, -27.0317
3.952, 5, 16.9816, 17.221, 22.1747, 34.838, -29.7934, -27.0166
3.956, 5, 16.9766, 17.2282, 22.17, 34.82, -29.7998, -27.0014
3.96, 5, 16.9717, 17.2354, 22.1654, 34.8021, -29.8063, -26.9863
3.964, 5, 16.9667, 17.2426, 22.1608, 34.7841, -29.8128, -26.9712
3.968, 5, 16.9617, 17.2498, 22.1561, 34.7662, -29.8193, -26.956
3.972, 5, 16.9568, 17.2569, 22.1515, 34.7483, -29.8258, -26.9409
3.976, 5, 16.9518, 17.2641, 22.1468, 34.7303, -29.8323, -26.9258
3.98, 5, 16.9468, 17.2713, 22.1422, 34.7124, -29.8388, -26.9107
3.984, 5, 16.9418, 17.2785, 22.1376, 34.6945, -29.8453, -26.8956
3.988, 5, 16.9369, 17.2857, 22.1329, 34.6766, -29.8518, -26.8805
3.992, 5, 16.9319, 17.2928, 22.1283, 34.6586, -29.8583, -26.8654
3.996, 5, 16.9269, 17.3, 22.1236, 34.6407, -29.8649, -26.8503
3.999, 5, 16.9219, 17.3072, 22.119, 34.6228, -29.8714, -26.8353
4.004, 5, 16.917, 17.3144, 22.1144, 34.6049, -29.8779, -26.8202
4.008, 5, 16.912, 17.3215, 22.1098, 34.587, -29.8844, -26.8051
4.012, 5, 16.907, 17.3287, 22.1051, 34.5692, -29.8909, -26.7901
4.016, 5, 16.902, 17.3359, 22.1005, 34.5513, -29.8974, -26.775
4.02, 5, 16.897, 17.343, 22.0959, 34.5334, -29.9039, -26.76
4.024, 5, 16.892, 17.3502, 22.0912, 34.5155, -29.9105, -26.7449
4.028, 5, 16.8871, 17.3574, 22.0866, 34.4977, -29.917, -26.7299
4.032, 5, 16.8821, 17.3645, 22.082, 34.4798, -29.9235, -26.7148
4.036, 5, 16.8771, 17.3717, 22.0774, 34.4619, -29.93, -26.6998
4.04, 5, 16.8721, 17.3789, 22.0728, 34.4441, -29.9366, -26.6848
4.044, 5, 16.8671, 17.386, 22.0681, 34.4263, -29.9431, -26.6698
4.048, 5, 16.8621, 17.3932, 22.0635, 34.4084, -29.9496, -26.6548
4.052, 5, 16.8571, 17.4003, 22.0589, 34.3906, -29.9562, -26.6397
4.056, 5, 16.8521, 17.4075, 22.0543, 34.3727, -29.9627, -26.6247
4.06, 5, 16.8471, 17.4146, 22.0497, 34.3549, -29.9692, -26.6097
4.064, 5, 16.8421, 17.4218, 22.0451, 34.3371, -29.9758, -26.5947
4.068, 5, 16.8371, 17.4289, 22.0404, 34.3193, -29.9823, -26.5798
4.072, 5, 16.8321, 17.4361, 22.0358, 34.3015, -29.9889, -26.5648
4.076, 5, 16.8271, 17.4432, 22.0312, 34.2837, -29.9954, -26.5498
4.08, 5, 16.8221, 17.4504, 22.0266, 34.2659, -30.0019, -26.5348
4.084, 5, 16.8171, 17.4575, 22.022, 34.2481, -30.0085, -26.5199
4.088, 5, 16.8121, 17.4647, 22.0174, 34.2303, -30.015, -26.5049
4.092, 5, 16.8071, 17.4718, 22.0128, 34.2125, -30.0216, -26.4899
4.096, 5, 16.8021, 17.4789, 22.0082, 34.1947, -30.0281, -26.475
4.1, 5, 16.7971, 17.4861, 22.0036, 34.1769, -30.0347, -26.4601
4.104, 5, 16.7921, 17.4932, 21.999, 34.1592, -30.0413, -26.4451
4.108, 5, 16.7871, 17.5004, 21.9944, 34.1414, -30.0478, -26.4302
4.112, 5, 16.7821, 17.5075, 21.9898, 34.1236, -30.0544, -26.4152
4.116, 5, 16.7771, 17.5146, 21.9852, 34.1059, -30.0609, -26.4003
4.12, 5, 16.772, 17.5218, 21.9806, 34.0881, -30.0675, -26.3854
4.124, 5, 16.767, 17.5289, 21.976, 34.0704, -30.0741, -26.3705
4.128, 5, 16.762, 17.536, 21.9714, 34.0527, -30.0806, -26.3556
4.132, 5, 16.757, 17.5431, 21.9668, 34.0349, -30.0872, -26.3407
4.136, 5, 16.752, 17.5503, 21.9622, 34.0172, -30.0938, -26.3258
4.14, 5, 16.747, 17.5574, 21.9577, 33.9995, -30.1003, -26.3109
4.144, 5, 16.7419, 17.5645, 21.9531, 33.9817, -30.1069, -26.296
4.148, 5, 16.7369, 17.5716, 21.9485, 33.964, -30.1135, -26.2811
4.152, 5, 16.7319, 17.5788, 21.9439, 33.9463, -30.1201, -26.2662
4.156, 5, 16.7269, 17.5859, 21.9393, 33.9286, -30.1267, -26.2514
4.16, 5, 16.7219, 17.593, 21.9347, 33.9109, -30.1332, -26.2365
4.164, 5, 16.7168, 17.6001, 21.9301, 33.8932, -30.1398, -26.2216
4.168, 5, 16.7118, 17.6072, 21.9256, 33.8755, -30.1464, -26.2068
4.172, 5, 16.7068, 17.6143, 21.921, 33.8578, -30.153, -26.1919
4.176, 5, 16.7017, 17.6214, 21.9164, 33.8402, -30.1596, -26.1771
4.18, 5, 16.6967, 17.6286, 21.9118, 33.8225, -30.1662, -26.1622
4.184, 5, 16.6917, 17.6357, 21.9073, 33.8048, -30.1728, -26.1474
4.188, 5, 16.6867, 17.6428, 21.9027, 33.7872, -30.1794, -26.1326
4.192, 5, 16.6816, 17.6499, 21.8981, 33.7695, -30.186, -26.1178
4.196, 5, 16.6766, 17.657, 21.8935, 33.7519, -30.1925, -26.1029
4.2, 5, 16.6716, 17.6641, 21.889, 33.7342, -30.1991, -26.0881
4.204, 5, 16.6665, 17.6712, 21.8844, 33.7166, -30.2057, -26.0733
4.208, 5, 16.6615, 17.6783, 21.8798, 33.6989, -30.2123, -26.0585
4.212, 5, 16.6564, 17.6854, 21.8753, 33.6813, -30.219, -26.0437
4.216, 5, 16.6514, 17.6925, 21.8707, 33.6637, -30.2256, -26.0289
4.22, 5, 16.6464, 17.6996, 21.8661, 33.646, -30.2322, -26.0141
4.224, 5, 16.6413, 17.7067, 21.8616, 33.6284, -30.2388, -25.9993
4.228, 5, 16.6363, 17.7138, 21.857, 33.6108, -30.2454, -25.9846
4.232, 5, 16.6312, 17.7209, 21.8525, 33.5932, -30.252, -25.9698
4.236, 5, 16.6262, 17.7279, 21.8479, 33.5756, -30.2586, -25.955
4.24, 5, 16.6211, 17.735, 21.8434, 33.558, -30.2652, -25.9403
4.244, 5, 16.6161, 17.7421, 21.8388, 33.5404, -30.2718, -25.9255
4.248, 5, 16.611, 17.7492, 21.8342, 33.5228, -30.2785, -25.9107
4.252, 5, 16.606, 17.7563, 21.8297, 33.5052, -30.2851, -25.896
4.256, 5, 16.6009, 17.7634, 21.8251, 33.4876, -30.2917, -25.8813
4.26, 5, 16.5959, 17.7705, 21.8206, 33.4701, -30.2983, -25.8665
4.264, 5, 16.5908, 17.7775, 21.816, 33.4525, -30.305, -25.8518
4.268, 5, 16.5858, 17.7846, 21.8115, 33.4349, -30.3116, -25.8371
4.272, 5, 16.5807, 17.7917, 21.807, 33.4174, -30.3182, -25.8223
4.276, 5, 16.5757, 17.7988, 21.8024, 33.3998, -30.3249, -25.8076
4.28, 5, 16.5706, 17.8058, 21.7979, 33.3823, -30.3315, -25.7929
4.284, 5, 16.5656, 17.8129, 21.7933, 33.3647, -30.3381, -25.7782
4.288, 5, 16.5605, 17.82, 21.7888, 33.3472, -30.3448, -25.7635
4.292, 5, 16.5554, 17.827, 21.7842, 33.3297, -30.3514, -25.7488
4.296, 5, 16.5504, 17.8341, 21.7797, 33.3121, -30.358, -25.7341
4.3, 5, 16.5453, 17.8412, 21.7752, 33.2946, -30.3647, -25.7194
4.304, 5, 16.5403, 17.8482, 21.7706, 33.2771, -30.3713, -25.7048
4.308, 5, 16.5352, 17.8553, 21.7661, 33.2596, -30.378, -25.6901
4.312, 5, 16.5301, 17.8624, 21.7616, 33.2421, -30.3846, -25.6754
4.316, 5, 16.5251, 17.8694, 21.757, 33.2246, -30.3913, -25.6608
4.32, 5, 16.52, 17.8765, 21.7525, 33.2071, -30.3979, -25.6461
4.324, 5, 16.5149, 17.8836, 21.748, 33.1896, -30.4046, -25.6314
4.328, 5, 16.5099, 17.8906, 21.7435, 33.1721, -30.4112, -25.6168
4.332, 5, 16.5048, 17.8977, 21.7389, 33.1546, -30.4179, -25.6021
4.336, 5, 16.4997, 17.9047, 21.7344, 33.1371, -30.4246, -25.5875
4.34, 5, 16.4946, 17.9118, 21.7299, 33.1196, -30.4312, -25.5729
4.344, 5, 16.4896, 17.9188, 21.7254, 33.1022, -30.4379, -25.5582
4.348, 5, 16.4845, 17.9259, 21.7208, 33.0847, -30.4445, -25.5436
4.352, 5, 16.4794, 17.9329, 21.7163, 33.0673, -30.4512, -25.529
4.356, 5, 16.4743, 17.94, 21.7118, 33.0498, -30.4579, -25.5144
4.36, 5, 16.4693, 17.947, 21.7073, 33.0324, -30.4645, -25.4998
4.364, 5, 16.4642, 17.9541, 21.7028, 33.0149, -30.4712, -25.4852
4.368, 5, 16.4591, 17.9611, 21.6983, 32.9975, -30.4779, -25.4706
4.372, 5, 16.454, 17.9681, 21.6937, 32.98, -30.4846, -25.456
4.376, 5, 16.4489, 17.9752, 21.6892, 32.9626, -30.4912, -25.4414
4.38, 5, 16.4439, 17.9822, 21.6847, 32.9452, -30.4979, -25.4268
4.384, 5, 16.4388, 17.9892, 21.6802, 32.9278, -30.5046, -25.4123
4.388, 5, 16.4337, 17.9963, 21.6757, 32.9104, -30.5113, -25.3977
4.392, 5, 16.4286, 18.0033, 21.6712, 32.8929, -30.518, -25.3831
4.396, 5, 16.4235, 18.0103, 21.6667, 32.8755, -30.5247, -25.3686
4.4, 5, 16.4184, 18.0174, 21.6622, 32.8581, -30.5313, -25.354
4.404, 5, 16.4133, 18.0244, 21.6577, 32.8407, -30.538, -25.3394
4.408, 5, 16.4082, 18.0314, 21.6532, 32.8234, -30.5447, -25.3249
4.412, 5, 16.4031, 18.0385, 21.6487, 32.806, -30.5514, -25.3104
4.416, 5, 16.3981, 18.0455, 21.6442, 32.7886, -30.5581, -25.2958
4.42, 5, 16.393, 18.0525, 21.6397, 32.7712, -30.5648, -25.2813
4.424, 5, 16.3879, 18.0595, 21.6352, 32.7539, -30.5715, -25.2668
4.428, 5, 16.3828, 18.0665, 21.6307, 32.7365, -30.5782, -25.2522
4.432, 5, 16.3777, 18.0736, 21.6262, 32.7191, -30.5849, -25.2377
4.436, 5, 16.3726, 18.0806, 21.6217, 32.7018, -30.5916, -25.2232
4.44, 5, 16.3675, 18.0876, 21.6172, 32.6844, -30.5983, -25.2087
4.444, 5, 16.3624, 18.0946, 21.6127, 32.6671, -30.605, -25.1942
4.448, 5, 16.3573, 18.1016, 21.6083, 32.6497, -30.6117, -25.1797
4.452, 5, 16.3522, 18.1086, 21.6038, 32.6324, -30.6184, -25.1652
4.456, 5, 16.3471, 18.1156, 21.5993, 32.6151, -30.6251, -25.1507
4.46, 5, 16.342, 18.1227, 21.5948, 32.5978, -30.6319, -25.1363
4.464, 5, 16.3368, 18.1297, 21.5903, 32.5804, -30.6386, -25.1218
4.468, 5, 16.3317, 18.1367, 21.5858, 32.5631, -30.6453, -25.1073
4.472, 5, 16.3266, 18.1437, 21.5814, 32.5458, -30.652, -25.0929
4.476, 5, 16.3215, 18.1507, 21.5769, 32.5285, -30.6587, -25.0784
4.48, 5, 16.3164, 18.1577, 21.5724, 32.5112, -30.6655, -25.0639
4.484, 5, 16.3113, 18.1647, 21.5679, 32.4939, -30.6722, -25.0495
4.488, 5, 16.3062, 18.1717, 21.5635, 32.4766, -30.6789, -25.0351
4.492, 5, 16.3011, 18.1787, 21.559, 32.4593, -30.6856, -25.0206
4.496, 5, 16.296, 18.1857, 21.5545, 32.4421, -30.6924, -25.0062
4.5, 5, 16.2908, 18.1927, 21.55, 32.4248, -30.6991, -24.9918
4.504, 5, 16.2857, 18.1997, 21.5456, 32.4075, -30.7058, -24.9773
4.508, 5, 16.2806, 18.2066, 21.5411, 32.3902, -30.7126, -24.9629
4.512, 5, 16.2755, 18.2136, 21.5366, 32.373, -30.7193, -24.9485
4.516, 5, 16.2704, 18.2206, 21.5322, 32.3557, -30.726, -24.9341
4.52, 5, 16.2652, 18.2276, 21.5277, 32.3385, -30.7328, -24.9197
4.524, 5, 16.2601, 18.2346, 21.5233, 32.3212, -30.7395, -24.9053
4.528, 5, 16.255, 18.2416, 21.5188, 32.304, -30.7463, -24.8909
4.532, 5, 16.2499, 18.2486, 21.5143, 32.2868, -30.753, -24.8765
4.536, 5, 16.2448, 18.2555, 21.5099, 32.2695, -30.7597, -24.8621
4.54, 5, 16.2396, 18.2625, 21.5054, 32.2523, -30.7665, -24.8478
4.544, 5, 16.2345, 18.2695, 21.501, 32.2351, -30.7732, -24.8334
4.548, 5, 16.2294, 18.2765, 21.4965, 32.2179, -30.78, -24.819
4.552, 5, 16.2242, 18.2834, 21.4921, 32.2007, -30.7868, -24.8047
4.556, 5, 16.2191, 18.2904, 21.4876, 32.1834, -30.7935, -24.7903
4.56, 5, 16.214, 18.2974, 21.4832, 32.1662, -30.8003, -24.7759
4.564, 5, 16.2088, 18.3044, 21.4787, 32.1491, -30.807, -24.7616
4.568, 5, 16.2037, 18.3113, 21.4743, 32.1319, -30.8138, -24.7473
4.572, 5, 16.1986, 18.3183, 21.4698, 32.1147, -30.8206, -24.7329
4.576, 5, 16.1934, 18.3253, 21.4654, 32.0975, -30.8273, -24.7186
4.58, 5, 16.1883, 18.3322, 21.4609, 32.0803, -30.8341, -24.7043
4.584, 5, 16.1832, 18.3392, 21.4565, 32.0631, -30.8408, -24.6899
4.588, 5, 16.178, 18.3462, 21.4521, 32.046, -30.8476, -24.6756
4.592, 5, 16.1729, 18.3531, 21.4476, 32.0288, -30.8544, -24.6613
4.596, 5, 16.1677, 18.3601, 21.4432, 32.0117, -30.8612, -24.647
4.6, 5, 16.1626, 18.367, 21.4388, 31.9945, -30.8679, -24.6327
4.604, 5, 16.1575, 18.374, 21.4343, 31.9774, -30.8747, -24.6184
4.608, 5, 16.1523, 18.3809, 21.4299, 31.9602, -30.8815, -24.6041
4.612, 5, 16.1472, 18.3879, 21.4255, 31.9431, -30.8883, -24.5898
4.616, 5, 16.142, 18.3948, 21.421, 31.9259, -30.8951, -24.5755
4.62, 5, 16.1369, 18.4018, 21.4166, 31.9088, -30.9018, -24.5613
4.624, 5, 16.1317, 18.4087, 21.4122, 31.8917, -30.9086, -24.547
4.628, 5, 16.1266, 18.4157, 21.4078, 31.8746, -30.9154, -24.5327
4.632, 5, 16.1214, 18.4226, 21.4033, 31.8575, -30.9222, -24.5185
4.636, 5, 16.1163, 18.4296, 21.3989, 31.8404, -30.929, -24.5042
4.64, 5, 16.1111, 18.4365, 21.3945, 31.8233, -30.9358, -24.49
4.644, 5, 16.106, 18.4435, 21.3901, 31.8062, -30.9426, -24.4757
4.648, 5, 16.1008, 18.4504, 21.3856, 31.7891, -30.9494, -24.4615
4.652, 5, 16.0957, 18.4573, 21.3812, 31.772, -30.9562, -24.4472
4.656, 5, 16.0905, 18.4643, 21.3768, 31.7549, -30.963, -24.433
4.66, 5, 16.0854, 18.4712, 21.3724, 31.7378, -30.9698, -24.4188
4.664, 5, 16.0802, 18.4781, 21.368, 31.7207, -30.9766, -24.4046
4.668, 5, 16.075, 18.4851, 21.3636, 31.7037, -30.9834, -24.3903
4.672, 5, 16.0699, 18.492, 21.3592, 31.6866, -30.9902, -24.3761
4.676, 5, 16.0647, 18.4989, 21.3548, 31.6696, -30.997, -24.3619
4.68, 5, 16.0596, 18.5059, 21.3503, 31.6525, -31.0038, -24.3477
4.684, 5, 16.0544, 18.5128, 21.3459, 31.6354, -31.0106, -24.3335
4.688, 5, 16.0492, 18.5197, 21.3415, 31.6184, -31.0174, -24.3193
4.692, 5, 16.0441, 18.5266, 21.3371, 31.6014, -31.0243, -24.3052
4.696, 5, 16.0389, 18.5336, 21.3327, 31.5843, -31.0311, -24.291
4.7, 5, 16.0337, 18.5405, 21.3283, 31.5673, -31.0379, -24.2768
4.704, 5, 16.0286, 18.5474, 21.3239, 31.5503, -31.0447, -24.2626
4.708, 5, 16.0234, 18.5543, 21.3195, 31.5333, -31.0515, -24.2485
4.712, 5, 16.0182, 18.5612, 21.3151, 31.5162, -31.0584, -24.2343
4.716, 5, 16.013, 18.5682, 21.3107, 31.4992, -31.0652, -24.2201
4.72, 5, 16.0079, 18.5751, 21.3064, 31.4822, -31.072, -24.206
4.724, 5, 16.0027, 18.582, 21.302, 31.4652, -31.0788, -24.1918
4.728, 5, 15.9975, 18.5889, 21.2976, 31.4482, -31.0857, -24.1777
4.732, 5, 15.9923, 18.5958, 21.2932, 31.4312, -31.0925, -24.1636
4.736, 5, 15.9872, 18.6027, 21.2888, 31.4143, -31.0993, -24.1494
4.74, 5, 15.982, 18.6096, 21.2844, 31.3973, -31.1062, -24.1353
4.744, 5, 15.9768, 18.6165, 21.28, 31.3803, -31.113, -24.1212
4.748, 5, 15.9716, 18.6234, 21.2756, 31.3633, -31.1199, -24.1071
4.752, 5, 15.9664, 18.6303, 21.2713, 31.3464, -31.1267, -24.093
4.756, 5, 15.9613, 18.6372, 21.2669, 31.3294, -31.1335, -24.0789
4.76, 5, 15.9561, 18.6441, 21.2625, 31.3124, -31.1404, -24.0648
4.764, 5, 15.9509, 18.651, 21.2581, 31.2955, -31.1472, -24.0507
4.768, 5, 15.9457, 18.6579, 21.2537, 31.2785, -31.1541, -24.0366
4.772, 5, 15.9405, 18.6648, 21.2494, 31.2616, -31.1609, -24.0225
4.776, 5, 15.9353, 18.6717, 21.245, 31.2447, -31.1678, -24.0084
4.78, 5, 15.9302, 18.6786, 21.2406, 31.2277, -31.1746, -23.9943
4.784, 5, 15.925, 18.6855, 21.2362, 31.2108, -31.1815, -23.9802
4.788, 5, 15.9198, 18.6924, 21.2319, 31.1939, -31.1884, -23.9662
4.792, 5, 15.9146, 18.6993, 21.2275, 31.177, -31.1952, -23.9521
4.796, 5, 15.9094, 18.7061, 21.2231, 31.1601, -31.2021, -23.9381
4.8, 5, 15.9042, 18.713, 21.2188, 31.1431, -31.2089, -23.924
4.804, 5, 15.899, 18.7199, 21.2144, 31.1262, -31.2158, -23.91
4.808, 5, 15.8938, 18.7268, 21.2101, 31.1093, -31.2227, -23.8959
4.812, 5, 15.8886, 18.7337, 21.2057, 31.0924, -31.2295, -23.8819
4.816, 5, 15.8834, 18.7406, 21.2013, 31.0756, -31.2364, -23.8679
4.82, 5, 15.8782, 18.7474, 21.197, 31.0587, -31.2433, -23.8538
4.824, 5, 15.873, 18.7543, 21.1926, 31.0418, -31.2502, -23.8398
4.828, 5, 15.8678, 18.7612, 21.1883, 31.0249, -31.257, -23.8258
4.832, 5, 15.8626, 18.768, 21.1839, 31.0081, -31.2639, -23.8118
4.836, 5, 15.8574, 18.7749, 21.1796, 30.9912, -31.2708, -23.7978
4.84, 5, 15.8522, 18.7818, 21.1752, 30.9743, -31.2777, -23.7838
4.844, 5, 15.847, 18.7887, 21.1709, 30.9575, -31.2846, -23.7698
4.848, 5, 15.8418, 18.7955, 21.1665, 30.9406, -31.2914, -23.7558
4.852, 5, 15.8366, 18.8024, 21.1622, 30.9238, -31.2983, -23.7418
4.856, 5, 15.8314, 18.8093, 21.1578, 30.9069, -31.3052, -23.7278
4.86, 5, 15.8262, 18.8161, 21.1535, 30.8901, -31.3121, -23.7138
4.864, 5, 15.821, 18.823, 21.1491, 30.8733, -31.319, -23.6999
4.868, 5, 15.8158, 18.8298, 21.1448, 30.8564, -31.3259, -23.6859
4.872, 5, 15.8105, 18.8367, 21.1404, 30.8396, -31.3328, -23.6719
4.876, 5, 15.8053, 18.8435, 21.1361, 30.8228, -31.3397, -23.658
4.88, 5, 15.8001, 18.8504, 21.1318, 30.806, -31.3466, -23.644
4.884, 5, 15.7949, 18.8573, 21.1274, 30.7892, -31.3535, -23.6301
4.888, 5, 15.7897, 18.8641, 21.1231, 30.7724, -31.3604, -23.6161
4.892, 5, 15.7845, 18.871, 21.1188, 30.7556, -31.3673, -23.6022
4.896, 5, 15.7793, 18.8778, 21.1144, 30.7388, -31.3742, -23.5883
4.9, 5, 15.774, 18.8847, 21.1101, 30.722, -31.3811, -23.5743
4.904, 5, 15.7688, 18.8915, 21.1058, 30.7052, -31.388, -23.5604
4.908, 5, 15.7636, 18.8983, 21.1015, 30.6884, -31.3949, -23.5465
4.912, 5, 15.7584, 18.9052, 21.0971, 30.6717, -31.4018, -23.5326
4.916, 5, 15.7531, 18.912, 21.0928, 30.6549, -31.4087, -23.5187
4.92, 5, 15.7479, 18.9189, 21.0885, 30.6381, -31.4157, -23.5048
4.924, 5, 15.7427, 18.9257, 21.0842, 30.6214, -31.4226, -23.4909
4.928, 5, 15.7375, 18.9325, 21.0798, 30.6046, -31.4295, -23.477
4.932, 5, 15.7322, 18.9394, 21.0755, 30.5879, -31.4364, -23.4631
4.936, 5, 15.727, 18.9462, 21.0712, 30.5711, -31.4433, -23.4492
4.94, 5, 15.7218, 18.953, 21.0669, 30.5544, -31.4503, -23.4353
4.944, 5, 15.7166, 18.9599, 21.0626, 30.5377, -31.4572, -23.4214
4.948, 5, 15.7113, 18.9667, 21.0583, 30.5209, -31.4641, -23.4076
4.952, 5, 15.7061, 18.9735, 21.054, 30.5042, -31.471, -23.3937
4.956, 5, 15.7009, 18.9804, 21.0496, 30.4875, -31.478, -23.3799
4.96, 5, 15.6956, 18.9872, 21.0453, 30.4708, -31.4849, -23.366
4.964, 5, 15.6904, 18.994, 21.041, 30.4541, -31.4918, -23.3522
4.968, 5, 15.6852, 19.0008, 21.0367, 30.4374, -31.4988, -23.3383
4.972, 5, 15.6799, 19.0077, 21.0324, 30.4207, -31.5057, -23.3245
4.976, 5, 15.6747, 19.0145, 21.0281, 30.404, -31.5127, -23.3106
4.98, 5, 15.6695, 19.0213, 21.0238, 30.3873, -31.5196, -23.2968
4.984, 5, 15.6642, 19.0281, 21.0195, 30.3706, -31.5265, -23.283
4.988, 5, 15.659, 19.0349, 21.0152, 30.3539, -31.5335, -23.2692
4.992, 5, 15.6537, 19.0417, 21.0109, 30.3372, -31.5404, -23.2553
4.996, 5, 15.6485, 19.0485, 21.0066, 30.3206, -31.5474, -23.2415
5, 5, 15.6432, 19.0554, 21.0023, 30.3039, -31.5543, -23.2277
5.004, 5, 15.638, 19.0622, 20.998, 30.2872, -31.5613, -23.2139
5.008, 5, 15.6328, 19.069, 20.9938, 30.2706, -31.5682, -23.2001
5.012, 5, 15.6275, 19.0758, 20.9895, 30.2539, -31.5752, -23.1863
5.016, 5, 15.6223, 19.0826, 20.9852, 30.2373, -31.5822, -23.1726
5.02, 5, 15.617, 19.0894, 20.9809, 30.2206, -31.5891, -23.1588
5.024, 5, 15.6118, 19.0962, 20.9766, 30.204, -31.5961, -23.145
5.028, 5, 15.6065, 19.103, 20.9723, 30.1873, -31.603, -23.1312
5.032, 5, 15.6013, 19.1098, 20.968, 30.1707, -31.61, -23.1175
5.036, 5, 15.596, 19.1166, 20.9638, 30.1541, -31.617, -23.1037
5.04, 5, 15.5908, 19.1234, 20.9595, 30.1375, -31.6239, -23.0899
5.044, 5, 15.5855, 19.1302, 20.9552, 30.1209, -31.6309, -23.0762
5.048, 5, 15.5802, 19.137, 20.9509, 30.1042, -31.6379, -23.0624
5.052, 5, 15.575, 19.1438, 20.9466, 30.0876, -31.6449, -23.0487
5.056, 5, 15.5697, 19.1505, 20.9424, 30.071, -31.6518, -23.035
5.06, 5, 15.5645, 19.1573, 20.9381, 30.0544, -31.6588, -23.0212
5.064, 5, 15.5592, 19.1641, 20.9338, 30.0379, -31.6658, -23.0075
5.068, 5, 15.554, 19.1709, 20.9296, 30.0213, -31.6728, -22.9938
5.072, 5, 15.5487, 19.1777, 20.9253, 30.0047, -31.6797, -22.9801
5.076, 5, 15.5434, 19.1845, 20.921, 29.9881, -31.6867, -22.9663
5.08, 5, 15.5382, 19.1913, 20.9168, 29.9715, -31.6937, -22.9526
5.084, 5, 15.5329, 19.198, 20.9125, 29.955, -31.7007, -22.9389
5.088, 5, 15.5276, 19.2048, 20.9082, 29.9384, -31.7077, -22.9252
5.092, 5, 15.5224, 19.2116, 20.904, 29.9219, -31.7147, -22.9115
5.096, 5, 15.5171, 19.2184, 20.8997, 29.9053, -31.7217, -22.8979
5.1, 5, 15.5118, 19.2251, 20.8955, 29.8888, -31.7287, -22.8842
5.104, 5, 15.5066, 19.2319, 20.8912, 29.8722, -31.7357, -22.8705
5.108, 5, 15.5013, 19.2387, 20.8869, 29.8557, -31.7427, -22.8568
5.112, 5, 15.496, 19.2454, 20.8827, 29.8391, -31.7497, -22.8431
5.116, 5, 15.4908, 19.2522, 20.8784, 29.8226, -31.7567, -22.8295
5.12, 5, 15.4855, 19.259, 20.8742, 29.8061, -31.7637, -22.8158
5.124, 5, 15.4802, 19.2657, 20.8699, 29.7896, -31.7707, -22.8022
5.128, 5, 15.4749, 19.2725, 20.8657, 29.773, -31.7777, -22.7885
5.132, 5, 15.4697, 19.2793, 20.8615, 29.7565, -31.7847, -22.7749
5.136, 5, 15.4644, 19.286, 20.8572, 29.74, -31.7917, -22.7612
5.14, 5, 15.4591, 19.2928, 20.853, 29.7235, -31.7987, -22.7476
5.144, 5, 15.4538, 19.2995, 20.8487, 29.707, -31.8057, -22.734
5.148, 5, 15.4486, 19.3063, 20.8445, 29.6905, -31.8127, -22.7203
5.152, 5, 15.4433, 19.3131, 20.8402, 29.6741, -31.8198, -22.7067
5.156, 5, 15.438, 19.3198, 20.836, 29.6576, -31.8268, -22.6931
5.16, 5, 15.4327, 19.3266, 20.8318, 29.6411, -31.8338, -22.6795
5.164, 5, 15.4274, 19.3333, 20.8275, 29.6246, -31.8408, -22.6659
5.168, 5, 15.4221, 19.3401, 20.8233, 29.6082, -31.8478, -22.6523
5.172, 5, 15.4169, 19.3468, 20.8191, 29.5917, -31.8549, -22.6387
5.176, 5, 15.4116, 19.3535, 20.8148, 29.5752, -31.8619, -22.6251
5.18, 5, 15.4063, 19.3603, 20.8106, 29.5588, -31.8689, -22.6115
5.184, 5, 15.401, 19.367, 20.8064, 29.5423, -31.876, -22.5979
5.188, 5, 15.3957, 19.3738, 20.8022, 29.5259, -31.883, -22.5843
5.192, 5, 15.3904, 19.3805, 20.7979, 29.5094, -31.89, -22.5708
5.196, 5, 15.3851, 19.3873, 20.7937, 29.493, -31.8971, -22.5572
5.2, 5, 15.3798, 19.394, 20.7895, 29.4766, -31.9041, -22.5436
5.204, 5, 15.3745, 19.4007, 20.7853, 29.4602, -31.9111, -22.5301
5.208, 5, 15.3692, 19.4075, 20.7811, 29.4437, -31.9182, -22.5165
5.212, 5, 15.3639, 19.4142, 20.7768, 29.4273, -31.9252, -22.503
5.216, 5, 15.3587, 19.4209, 20.7726, 29.4109, -31.9323, -22.4894
5.22, 5, 15.3534, 19.4277, 20.7684, 29.3945, -31.9393, -22.4759
5.224, 5, 15.3481, 19.4344, 20.7642, 29.3781, -31.9464, -22.4623
5.228, 5, 15.3428, 19.4411, 20.76, 29.3617, -31.9534, -22.4488
5.232, 5, 15.3375, 19.4478, 20.7558, 29.3453, -31.9605, -22.4353
5.236, 5, 15.3322, 19.4546, 20.7516, 29.3289, -31.9675, -22.4218
5.24, 5, 15.3269, 19.4613, 20.7474, 29.3125, -31.9746, -22.4083
5.244, 5, 15.3216, 19.468, 20.7432, 29.2962, -31.9816, -22.3947
5.248, 5, 15.3163, 19.4747, 20.739, 29.2798, -31.9887, -22.3812
5.252, 5, 15.3109, 19.4814, 20.7348, 29.2634, -31.9958, -22.3677
5.256, 5, 15.3056, 19.4881, 20.7306, 29.2471, -32.0028, -22.3542
5.26, 5, 15.3003, 19.4949, 20.7264, 29.2307, -32.0099, -22.3407
5.264, 5, 15.295, 19.5016, 20.7222, 29.2143, -32.017, -22.3273
5.268, 5, 15.2897, 19.5083, 20.718, 29.198, -32.024, -22.3138
5.272, 5, 15.2844, 19.515, 20.7138, 29.1816, -32.0311, -22.3003
5.276, 5, 15.2791, 19.5217, 20.7096, 29.1653, -32.0382, -22.2868
5.28, 5, 15.2738, 19.5284, 20.7054, 29.149, -32.0452, -22.2734
5.284, 5, 15.2685, 19.5351, 20.7012, 29.1326, -32.0523, -22.2599
5.288, 5, 15.2632, 19.5418, 20.697, 29.1163, -32.0594, -22.2464
5.292, 5, 15.2578, 19.5485, 20.6928, 29.1, -32.0665, -22.233
5.296, 5, 15.2525, 19.5552, 20.6886, 29.0837, -32.0735, -22.2195
5.3, 5, 15.2472, 19.5619, 20.6845, 29.0674, -32.0806, -22.2061
5.304, 5, 15.2419, 19.5686, 20.6803, 29.051, -32.0877, -22.1926
5.308, 5, 15.2366, 19.5753, 20.6761, 29.0347, -32.0948, -22.1792
5.312, 5, 15.2313, 19.582, 20.6719, 29.0184, -32.1019, -22.1658
5.316, 5, 15.2259, 19.5887, 20.6677, 29.0021, -32.109, -22.1524
5.32, 5, 15.2206, 19.5954, 20.6636, 28.9859, -32.1161, -22.1389
5.324, 5, 15.2153, 19.6021, 20.6594, 28.9696, -32.1231, -22.1255
5.328, 5, 15.21, 19.6088, 20.6552, 28.9533, -32.1302, -22.1121
5.332, 5, 15.2047, 19.6155, 20.651, 28.937, -32.1373, -22.0987
5.336, 5, 15.1993, 19.6222, 20.6469, 28.9207, -32.1444, -22.0853
5.34, 5, 15.194, 19.6288, 20.6427, 28.9045, -32.1515, -22.0719
5.344, 5, 15.1887, 19.6355, 20.6385, 28.8882, -32.1586, -22.0585
5.348, 5, 15.1834, 19.6422, 20.6344, 28.872, -32.1657, -22.0451
5.352, 5, 15.178, 19.6489, 20.6302, 28.8557, -32.1728, -22.0317
5.356, 5, 15.1727, 19.6556, 20.626, 28.8395, -32.18, -22.0184
5.36, 5, 15.1674, 19.6622, 20.6219, 28.8232, -32.1871, -22.005
5.364, 5, 15.162, 19.6689, 20.6177, 28.807, -32.1942, -21.9916
5.368, 5, 15.1567, 19.6756, 20.6136, 28.7908, -32.2013, -21.9783
5.372, 5, 15.1514, 19.6823, 20.6094, 28.7745, -32.2084, -21.9649
5.376, 5, 15.146, 19.6889, 20.6052, 28.7583, -32.2155, -21.9515
5.38, 5, 15.1407, 19.6956, 20.6011, 28.7421, -32.2226, -21.9382
5.384, 5, 15.1354, 19.7023, 20.5969, 28.7259, -32.2297, -21.9248
5.388, 5, 15.13, 19.7089, 20.5928, 28.7097, -32.2369, -21.9115
5.392, 5, 15.1247, 19.7156, 20.5886, 28.6934, -32.244, -21.8982
5.396, 5, 15.1194, 19.7223, 20.5845, 28.6772, -32.2511, -21.8848
5.4, 5, 15.114, 19.7289, 20.5803, 28.6611, -32.2582, -21.8715
5.404, 5, 15.1087, 19.7356, 20.5762, 28.6449, -32.2654, -21.8582
5.408, 5, 15.1033, 19.7423, 20.572, 28.6287, -32.2725, -21.8449
5.412, 5, 15.098, 19.7489, 20.5679, 28.6125, -32.2796, -21.8316
5.416, 5, 15.0926, 19.7556, 20.5638, 28.5963, -32.2867, -21.8182
5.42, 5, 15.0873, 19.7622, 20.5596, 28.5801, -32.2939, -21.8049
5.424, 5, 15.082, 19.7689, 20.5555, 28.564, -32.301, -21.7916
5.428, 5, 15.0766, 19.7755, 20.5513, 28.5478, -32.3082, -21.7784
5.432, 5, 15.0713, 19.7822, 20.5472, 28.5317, -32.3153, -21.7651
5.436, 5, 15.0659, 19.7888, 20.5431, 28.5155, -32.3224, -21.7518
5.44, 5, 15.0606, 19.7955, 20.5389, 28.4993, -32.3296, -21.7385
5.444, 5, 15.0552, 19.8021, 20.5348, 28.4832, -32.3367, -21.7252
5.448, 5, 15.0499, 19.8088, 20.5307, 28.4671, -32.3439, -21.712
5.452, 5, 15.0445, 19.8154, 20.5266, 28.4509, -32.351, -21.6987
5.456, 5, 15.0392, 19.8221, 20.5224, 28.4348, -32.3582, -21.6854
5.46, 5, 15.0338, 19.8287, 20.5183, 28.4187, -32.3653, -21.6722
5.464, 5, 15.0285, 19.8353, 20.5142, 28.4025, -32.3725, -21.6589
5.468, 5, 15.0231, 19.842, 20.5101, 28.3864, -32.3796, -21.6457
5.472, 5, 15.0177, 19.8486, 20.5059, 28.3703, -32.3868, -21.6324
5.476, 5, 15.0124, 19.8552, 20.5018, 28.3542, -32.3939, -21.6192
5.48, 5, 15.007, 19.8619, 20.4977, 28.3381, -32.4011, -21.606
5.484, 5, 15.0017, 19.8685, 20.4936, 28.322, -32.4083, -21.5927
5.488, 5, 14.9963, 19.8751, 20.4895, 28.3059, -32.4154, -21.5795
5.492, 5, 14.9909, 19.8818, 20.4854, 28.2898, -32.4226, -21.5663
5.496, 5, 14.9856, 19.8884, 20.4813, 28.2737, -32.4297, -21.5531
5.5, 5, 14.9802, 19.895, 20.4771, 28.2577, -32.4369, -21.5399
5.504, 5, 14.9749, 19.9016, 20.473, 28.2416, -32.4441, -21.5267
5.508, 5, 14.9695, 19.9083, 20.4689, 28.2255, -32.4513, -21.5135
5.512, 5, 14.9641, 19.9149, 20.4648, 28.2094, -32.4584, -21.5003
5.516, 5, 14.9588, 19.9215, 20.4607, 28.1934, -32.4656, -21.4871
5.52, 5, 14.9534, 19.9281, 20.4566, 28.1773, -32.4728, -21.4739
5.524, 5, 14.948, 19.9347, 20.4525, 28.1613, -32.48, -21.4607
5.528, 5, 14.9427, 19.9414, 20.4484, 28.1452, -32.4871, -21.4475
5.532, 5, 14.9373, 19.948, 20.4443, 28.1292, -32.4943, -21.4344
5.536, 5, 14.9319, 19.9546, 20.4402, 28.1131, -32.5015, -21.4212
5.54, 5, 14.9265, 19.9612, 20.4361, 28.0971, -32.5087, -21.408
5.544, 5, 14.9212, 19.9678, 20.432, 28.0811, -32.5159, -21.3949
5.548, 5, 14.9158, 19.9744, 20.428, 28.065, -32.5231, -21.3817
5.552, 5, 14.9104, 19.981, 20.4239, 28.049, -32.5303, -21.3686
5.556, 5, 14.905, 19.9876, 20.4198, 28.033, -32.5375, -21.3554
5.56, 5, 14.8997, 19.9942, 20.4157, 28.017, -32.5447, -21.3423
5.564, 5, 14.8943, 20.0008, 20.4116, 28.001, -32.5518, -21.3292
5.568, 5, 14.8889, 20.0074, 20.4075, 27.985, -32.559, -21.316
5.572, 5, 14.8835, 20.014, 20.4034, 27.969, -32.5662, -21.3029
5.576, 5, 14.8782, 20.0206, 20.3994, 27.953, -32.5734, -21.2898
5.58, 5, 14.8728, 20.0272, 20.3953, 27.937, -32.5806, -21.2767
5.584, 5, 14.8674, 20.0338, 20.3912, 27.921, -32.5879, -21.2636
5.588, 5, 14.862, 20.0404, 20.3871, 27.9051, -32.5951, -21.2504
5.592, 5, 14.8566, 20.047, 20.383, 27.8891, -32.6023, -21.2373
5.596, 5, 14.8512, 20.0536, 20.379, 27.8731, -32.6095, -21.2242
5.6, 5, 14.8459, 20.0602, 20.3749, 27.8571, -32.6167, -21.2112
5.604, 5, 14.8405, 20.0668, 20.3708, 27.8412, -32.6239, -21.1981
5.608, 5, 14.8351, 20.0734, 20.3668, 27.8252, -32.6311, -21.185
5.612, 5, 14.8297, 20.0799, 20.3627, 27.8093, -32.6383, -21.1719
5.616, 5, 14.8243, 20.0865, 20.3586, 27.7933, -32.6455, -21.1588
5.62, 5, 14.8189, 20.0931, 20.3546, 27.7774, -32.6528, -21.1458
5.624, 5, 14.8135, 20.0997, 20.3505, 27.7614, -32.66, -21.1327
5.628, 5, 14.8081, 20.1063, 20.3464, 27.7455, -32.6672, -21.1196
5.632, 5, 14.8027, 20.1128, 20.3424, 27.7296, -32.6744, -21.1066
5.636, 5, 14.7973, 20.1194, 20.3383, 27.7137, -32.6817, -21.0935
5.64, 5, 14.7919, 20.126, 20.3343, 27.6977, -32.6889, -21.0805
5.644, 5, 14.7866, 20.1326, 20.3302, 27.6818, -32.6961, -21.0674
5.648, 5, 14.7812, 20.1391, 20.3262, 27.6659, -32.7034, -21.0544
5.652, 5, 14.7758, 20.1457, 20.3221, 27.65, -32.7106, -21.0414
5.656, 5, 14.7704, 20.1523, 20.3181, 27.6341, -32.7178, -21.0283
5.66, 5, 14.765, 20.1588, 20.314, 27.6182, -32.7251, -21.0153
5.664, 5, 14.7596, 20.1654, 20.31, 27.6023, -32.7323, -21.0023
5.668, 5, 14.7542, 20.172, 20.3059, 27.5864, -32.7395, -20.9893
5.672, 5, 14.7488, 20.1785, 20.3019, 27.5705, -32.7468, -20.9763
5.676, 5, 14.7434, 20.1851, 20.2978, 27.5547, -32.754, -20.9633
5.68, 5, 14.7379, 20.1916, 20.2938, 27.5388, -32.7613, -20.9503
5.684, 5, 14.7325, 20.1982, 20.2897, 27.5229, -32.7685, -20.9373
5.688, 5, 14.7271, 20.2048, 20.2857, 27.5071, -32.7758, -20.9243
5.692, 5, 14.7217, 20.2113, 20.2817, 27.4912, -32.783, -20.9113
5.696, 5, 14.7163, 20.2179, 20.2776, 27.4753, -32.7903, -20.8983
5.7, 5, 14.7109, 20.2244, 20.2736, 27.4595, -32.7975, -20.8853
5.704, 5, 14.7055, 20.231, 20.2696, 27.4436, -32.8048, -20.8723
5.708, 5, 14.7001, 20.2375, 20.2655, 27.4278, -32.812, -20.8594
5.712, 5, 14.6947, 20.2441, 20.2615, 27.412, -32.8193, -20.8464
5.716, 5, 14.6893, 20.2506, 20.2575, 27.3961, -32.8266, -20.8335
5.72, 5, 14.6839, 20.2572, 20.2535, 27.3803, -32.8338, -20.8205
5.724, 5, 14.6784, 20.2637, 20.2494, 27.3645, -32.8411, -20.8076
5.728, 5, 14.673, 20.2702, 20.2454, 27.3487, -32.8484, -20.7946
5.732, 5, 14.6676, 20.2768, 20.2414, 27.3328, -32.8556, -20.7817
5.736, 5, 14.6622, 20.2833, 20.2374, 27.317, -32.8629, -20.7687
5.74, 5, 14.6568, 20.2899, 20.2333, 27.3012, -32.8702, -20.7558
5.744, 5, 14.6514, 20.2964, 20.2293, 27.2854, -32.8774, -20.7429
5.748, 5, 14.6459, 20.3029, 20.2253, 27.2696, -32.8847, -20.7299
5.752, 5, 14.6405, 20.3095, 20.2213, 27.2538, -32.892, -20.717
5.756, 5, 14.6351, 20.316, 20.2173, 27.238, -32.8993, -20.7041
5.76, 5, 14.6297, 20.3225, 20.2133, 27.2223, -32.9066, -20.6912
5.764, 5, 14.6243, 20.3291, 20.2093, 27.2065, -32.9138, -20.6783
5.768, 5, 14.6188, 20.3356, 20.2053, 27.1907, -32.9211, -20.6654
5.772, 5, 14.6134, 20.3421, 20.2013, 27.1749, -32.9284, -20.6525
5.776, 5, 14.608, 20.3486, 20.1972, 27.1592, -32.9357, -20.6396
5.78, 5, 14.6026, 20.3551, 20.1932, 27.1434, -32.943, -20.6267
5.784, 5, 14.5971, 20.3617, 20.1892, 27.1277, -32.9503, -20.6138
5.788, 5, 14.5917, 20.3682, 20.1852, 27.1119, -32.9576, -20.601
5.792, 5, 14.5863, 20.3747, 20.1812, 27.0962, -32.9649, -20.5881
5.796, 5, 14.5809, 20.3812, 20.1772, 27.0804, -32.9722, -20.5752
5.8, 5, 14.5754, 20.3877, 20.1732, 27.0647, -32.9795, -20.5624
5.804, 5, 14.57, 20.3942, 20.1693, 27.0489, -32.9868, -20.5495
5.808, 5, 14.5646, 20.4008, 20.1653, 27.0332, -32.9941, -20.5366
5.812, 5, 14.5591, 20.4073, 20.1613, 27.0175, -33.0014, -20.5238
5.816, 5, 14.5537, 20.4138, 20.1573, 27.0018, -33.0087, -20.5109
5.82, 5, 14.5483, 20.4203, 20.1533, 26.9861, -33.016, -20.4981
5.824, 5, 14.5428, 20.4268, 20.1493, 26.9703, -33.0233, -20.4853
5.828, 5, 14.5374, 20.4333, 20.1453, 26.9546, -33.0306, -20.4724
5.832, 5, 14.5319, 20.4398, 20.1413, 26.9389, -33.0379, -20.4596
5.836, 5, 14.5265, 20.4463, 20.1374, 26.9232, -33.0452, -20.4468
5.84, 5, 14.5211, 20.4528, 20.1334, 26.9075, -33.0525, -20.434
5.844, 5, 14.5156, 20.4593, 20.1294, 26.8919, -33.0598, -20.4212
5.848, 5, 14.5102, 20.4658, 20.1254, 26.8762, -33.0672, -20.4083
5.852, 5, 14.5047, 20.4723, 20.1214, 26.8605, -33.0745, -20.3955
5.856, 5, 14.4993, 20.4788, 20.1175, 26.8448, -33.0818, -20.3827
5.86, 5, 14.4939, 20.4853, 20.1135, 26.8291, -33.0891, -20.3699
5.864, 5, 14.4884, 20.4918, 20.1095, 26.8135, -33.0964, -20.3571
5.868, 5, 14.483, 20.4983, 20.1056, 26.7978, -33.1038, -20.3444
5.872, 5, 14.4775, 20.5048, 20.1016, 26.7822, -33.1111, -20.3316
5.876, 5, 14.4721, 20.5112, 20.0976, 26.7665, -33.1184, -20.3188
5.88, 5, 14.4666, 20.5177, 20.0937, 26.7509, -33.1258, -20.306
5.884, 5, 14.4612, 20.5242, 20.0897, 26.7352, -33.1331, -20.2933
5.888, 5, 14.4557, 20.5307, 20.0857, 26.7196, -33.1404, -20.2805
5.892, 5, 14.4503, 20.5372, 20.0818, 26.7039, -33.1478, -20.2677
5.896, 5, 14.4448, 20.5437, 20.0778, 26.6883, -33.1551, -20.255
5.9, 5, 14.4394, 20.5501, 20.0739, 26.6727, -33.1624, -20.2422
5.904, 5, 14.4339, 20.5566, 20.0699, 26.6571, -33.1698, -20.2295
5.908, 5, 14.4285, 20.5631, 20.0659, 26.6414, -33.1771, -20.2167
5.912, 5, 14.423, 20.5696, 20.062, 26.6258, -33.1845, -20.204
5.916, 5, 14.4175, 20.576, 20.058, 26.6102, -33.1918, -20.1913
5.92, 5, 14.4121, 20.5825, 20.0541, 26.5946, -33.1992, -20.1785
5.924, 5, 14.4066, 20.589, 20.0501, 26.579, -33.2065, -20.1658
5.928, 5, 14.4012, 20.5954, 20.0462, 26.5634, -33.2139, -20.1531
5.932, 5, 14.3957, 20.6019, 20.0422, 26.5478, -33.2212, -20.1404
5.936, 5, 14.3903, 20.6084, 20.0383, 26.5323, -33.2286, -20.1277
5.94, 5, 14.3848, 20.6148, 20.0344, 26.5167, -33.2359, -20.115
5.944, 5, 14.3793, 20.6213, 20.0304, 26.5011, -33.2433, -20.1023
5.948, 5, 14.3739, 20.6278, 20.0265, 26.4855, -33.2507, -20.0896
5.952, 5, 14.3684, 20.6342, 20.0225, 26.47, -33.258, -20.0769
5.956, 5, 14.3629, 20.6407, 20.0186, 26.4544, -33.2654, -20.0642
5.96, 5, 14.3575, 20.6471, 20.0147, 26.4388, -33.2727, -20.0515
5.964, 5, 14.352, 20.6536, 20.0107, 26.4233, -33.2801, -20.0388
5.968, 5, 14.3465, 20.66, 20.0068, 26.4077, -33.2875, -20.0261
5.972, 5, 14.3411, 20.6665, 20.0029, 26.3922, -33.2949, -20.0135
5.976, 5, 14.3356, 20.6729, 19.999, 26.3766, -33.3022, -20.0008
5.98, 5, 14.3301, 20.6794, 19.995, 26.3611, -33.3096, -19.9882
