hehonglu123/ABB_Primitive_Study/execution/movec_30_car/curve_exe_v300_z20.csv
timestamp, cmd_num, J1, J2, J3, J4, J5, J6
0, -1, -11.8209, 27.637, 43.2514, -10.4208, -101.239, 3.92109
0.002, -1, -11.8209, 27.637, 43.2514, -10.4208, -101.239, 3.92109
0.006, -1, -11.8209, 27.637, 43.2514, -10.4208, -101.239, 3.92109
0.008, -1, -11.8209, 27.637, 43.2514, -10.4208, -101.239, 3.92109
0.011, -1, -11.8209, 27.637, 43.2514, -10.4208, -101.239, 3.92109
0.016, -1, -11.8209, 27.637, 43.2514, -10.4208, -101.239, 3.92109
0.02, -1, -11.8209, 27.637, 43.2514, -10.4208, -101.239, 3.92109
0.024, -1, -11.8209, 27.637, 43.2514, -10.4208, -101.239, 3.92109
0.028, -1, -11.8209, 27.637, 43.2514, -10.4208, -101.239, 3.92109
0.032, -1, -11.8209, 27.637, 43.2514, -10.4208, -101.239, 3.92109
0.036, -1, -11.8208, 27.637, 43.2514, -10.4208, -101.239, 3.92108
0.04, -1, -11.8206, 27.6369, 43.2514, -10.4208, -101.239, 3.92108
0.044, -1, -11.8199, 27.6367, 43.2513, -10.4208, -101.239, 3.92105
0.048, -1, -11.8188, 27.6363, 43.2513, -10.4207, -101.239, 3.92098
0.052, -1, -11.8169, 27.6357, 43.2511, -10.4205, -101.239, 3.92081
0.056, -1, -11.8142, 27.6347, 43.2509, -10.42, -101.238, 3.92043
0.06, -1, -11.8106, 27.6334, 43.2504, -10.419, -101.236, 3.91973
0.064, -1, -11.8059, 27.6315, 43.2496, -10.4173, -101.234, 3.9185
0.068, -1, -11.8, 27.6291, 43.2483, -10.4146, -101.23, 3.91654
0.072, -1, -11.7928, 27.626, 43.2465, -10.4103, -101.223, 3.91354
0.076, -1, -11.7838, 27.6222, 43.2437, -10.4041, -101.214, 3.90917
0.08, -1, -11.7728, 27.6173, 43.2399, -10.3954, -101.201, 3.90303
0.084, -1, -11.7593, 27.6114, 43.2348, -10.3836, -101.183, 3.89469
0.088, -1, -11.7432, 27.6044, 43.2281, -10.3678, -101.159, 3.88364
0.092, -1, -11.7244, 27.5963, 43.2194, -10.3474, -101.128, 3.86937
0.096, -1, -11.7027, 27.5871, 43.2085, -10.3216, -101.09, 3.85137
0.1, -1, -11.6782, 27.5767, 43.1952, -10.2898, -101.042, 3.82914
0.104, -1, -11.6506, 27.5654, 43.1791, -10.2512, -100.985, 3.80229
0.108, -1, -11.6199, 27.5528, 43.1601, -10.2055, -100.916, 3.77048
0.112, -1, -11.5859, 27.5392, 43.138, -10.1523, -100.837, 3.73348
0.116, -1, -11.5485, 27.5242, 43.1128, -10.0915, -100.746, 3.69117
0.12, -1, -11.5074, 27.5079, 43.0844, -10.0229, -100.644, 3.64352
0.124, -1, -11.4628, 27.4904, 43.053, -9.94673, -100.53, 3.5906
0.128, -1, -11.4147, 27.4716, 43.0185, -9.8632, -100.406, 3.53258
0.131, -1, -11.3633, 27.4515, 42.9811, -9.77265, -100.271, 3.46969
0.136, -1, -11.3087, 27.4303, 42.941, -9.67555, -100.126, 3.40227
0.139, -1, -11.251, 27.4079, 42.8985, -9.57247, -99.9725, 3.33069
0.144, -1, -11.1903, 27.3844, 42.8538, -9.46403, -99.8108, 3.25539
0.148, -1, -11.1266, 27.3596, 42.807, -9.35088, -99.6422, 3.17682
0.152, -1, -11.0601, 27.3337, 42.7586, -9.23367, -99.4675, 3.09542
0.156, -1, -10.9909, 27.3067, 42.7087, -9.11298, -99.2876, 3.01159
0.16, -1, -10.9195, 27.2787, 42.6576, -8.98935, -99.1033, 2.92571
0.164, -1, -10.8461, 27.2499, 42.6054, -8.86324, -98.9152, 2.8381
0.168, -1, -10.7711, 27.2203, 42.5523, -8.73504, -98.7241, 2.74903
0.172, -1, -10.6947, 27.1902, 42.4985, -8.60512, -98.5303, 2.65876
0.176, -1, -10.6172, 27.1595, 42.4441, -8.47377, -98.3344, 2.56749
0.18, -1, -10.5385, 27.1283, 42.3892, -8.34126, -98.1368, 2.4754
0.184, -1, -10.459, 27.0968, 42.3339, -8.2078, -97.9377, 2.38265
0.188, -1, -10.3785, 27.0649, 42.2783, -8.07358, -97.7375, 2.28937
0.192, -1, -10.2973, 27.0327, 42.2224, -7.93872, -97.5364, 2.19564
0.196, -1, -10.2155, 27.0003, 42.1662, -7.80334, -97.3344, 2.10154
0.2, -1, -10.1331, 26.9676, 42.1099, -7.6675, -97.1317, 2.00712
0.204, -1, -10.0503, 26.9348, 42.0533, -7.53125, -96.9285, 1.91241
0.208, -1, -9.9672, 26.9019, 41.9967, -7.39462, -96.7247, 1.81744
0.212, -1, -9.88379, 26.8688, 41.9399, -7.25765, -96.5203, 1.72223
0.216, -1, -9.80013, 26.8356, 41.8829, -7.12034, -96.3155, 1.62679
0.22, -1, -9.71623, 26.8024, 41.8258, -6.98271, -96.1101, 1.53111
0.224, -1, -9.63212, 26.769, 41.7686, -6.84476, -95.9043, 1.43522
0.228, -1, -9.54781, 26.7356, 41.7112, -6.7065, -95.6981, 1.33912
0.232, -1, -9.46329, 26.7021, 41.6537, -6.56794, -95.4914, 1.2428
0.236, -1, -9.37859, 26.6685, 41.5961, -6.42908, -95.2842, 1.14628
0.24, -1, -9.29371, 26.6349, 41.5384, -6.28992, -95.0766, 1.04954
0.244, -1, -9.20864, 26.6011, 41.4805, -6.15046, -94.8685, 0.952603
0.248, -1, -9.12338, 26.5673, 41.4226, -6.01071, -94.66, 0.85546
0.252, -1, -9.03795, 26.5335, 41.3645, -5.87067, -94.4511, 0.758115
0.256, -1, -8.95235, 26.4995, 41.3062, -5.73034, -94.2418, 0.660569
0.26, -1, -8.86656, 26.4655, 41.2479, -5.58972, -94.032, 0.562823
0.264, -1, -8.78061, 26.4315, 41.1895, -5.44882, -93.8218, 0.464879
0.268, -1, -8.69448, 26.3973, 41.1309, -5.30764, -93.6111, 0.366738
0.272, -1, -8.60818, 26.3631, 41.0722, -5.16617, -93.4001, 0.2684
0.276, -1, -8.52171, 26.3288, 41.0134, -5.02442, -93.1886, 0.169869
0.28, -1, -8.43507, 26.2945, 40.9545, -4.8824, -92.9767, 0.0711437
0.284, -1, -8.34827, 26.2601, 40.8954, -4.74009, -92.7644, -0.027773
0.288, -1, -8.2613, 26.2256, 40.8363, -4.59752, -92.5517, -0.12688
0.292, -1, -8.17417, 26.191, 40.777, -4.45467, -92.3386, -0.226175
0.296, -1, -8.08688, 26.1564, 40.7177, -4.31156, -92.1251, -0.325657
0.3, -1, -7.99944, 26.1218, 40.6582, -4.16818, -91.9112, -0.425324
0.304, -1, -7.91184, 26.087, 40.5986, -4.02454, -91.6969, -0.525173
0.308, -1, -7.82408, 26.0522, 40.5389, -3.88064, -91.4822, -0.625202
0.312, -1, -7.73618, 26.0174, 40.4791, -3.73648, -91.2672, -0.725408
0.316, -1, -7.64814, 25.9825, 40.4192, -3.59207, -91.0517, -0.825789
0.32, -1, -7.55995, 25.9475, 40.3592, -3.44742, -90.8359, -0.926341
0.324, -1, -7.47161, 25.9125, 40.299, -3.30252, -90.6198, -1.02706
0.328, -1, -7.38314, 25.8774, 40.2388, -3.15738, -90.4032, -1.12795
0.332, -1, -7.29454, 25.8422, 40.1785, -3.01202, -90.1864, -1.229
0.336, -1, -7.20579, 25.807, 40.1181, -2.86642, -89.9691, -1.3302
0.34, -1, -7.11692, 25.7718, 40.0576, -2.7206, -89.7516, -1.43156
0.344, -1, -7.02791, 25.7365, 39.997, -2.57457, -89.5337, -1.53307
0.348, -1, -6.93879, 25.7011, 39.9364, -2.42832, -89.3156, -1.63473
0.352, -1, -6.84954, 25.6657, 39.8756, -2.28187, -89.0971, -1.73653
0.356, -1, -6.76017, 25.6303, 39.8148, -2.13522, -88.8783, -1.83847
0.36, -1, -6.67068, 25.5948, 39.7538, -1.98837, -88.6592, -1.94055
0.364, -1, -6.58109, 25.5593, 39.6928, -1.84134, -88.4398, -2.04276
0.368, -1, -6.49138, 25.5237, 39.6318, -1.69412, -88.2202, -2.14509
0.372, -1, -6.40157, 25.488, 39.5706, -1.54672, -88.0003, -2.24755
0.376, -1, -6.31166, 25.4524, 39.5094, -1.39915, -87.7802, -2.35013
0.38, -1, -6.22164, 25.4167, 39.4481, -1.25142, -87.5598, -2.45282
0.384, -1, -6.13154, 25.3809, 39.3867, -1.10353, -87.3391, -2.55562
0.388, -1, -6.04134, 25.3451, 39.3253, -0.955482, -87.1182, -2.65853
0.392, -1, -5.95105, 25.3093, 39.2639, -0.807292, -86.8972, -2.76154
0.396, -1, -5.86068, 25.2735, 39.2023, -0.658961, -86.6759, -2.86465
0.4, -1, -5.77023, 25.2376, 39.1407, -0.510497, -86.4544, -2.96785
0.404, -1, -5.6797, 25.2017, 39.0791, -0.361907, -86.2327, -3.07114
0.408, -1, -5.58909, 25.1658, 39.0174, -0.213195, -86.0109, -3.17451
0.412, -1, -5.49843, 25.1298, 38.9556, -0.0643699, -85.7888, -3.27796
0.416, -1, -5.40769, 25.0938, 38.8938, 0.084563, -85.5666, -3.38149
0.42, -1, -5.3169, 25.0578, 38.832, 0.233597, -85.3443, -3.48508
0.424, -1, -5.22606, 25.0217, 38.7701, 0.382725, -85.1218, -3.58874
0.428, -1, -5.13516, 24.9857, 38.7082, 0.531939, -84.8992, -3.69246
0.432, -1, -5.04422, 24.9496, 38.6463, 0.681234, -84.6765, -3.79624
0.436, -1, -4.95323, 24.9135, 38.5843, 0.830602, -84.4536, -3.90007
0.44, -1, -4.86221, 24.8774, 38.5223, 0.980034, -84.2307, -4.00394
0.444, -1, -4.77115, 24.8413, 38.4603, 1.12953, -84.0077, -4.10786
0.448, -1, -4.68007, 24.8051, 38.3983, 1.27907, -83.7846, -4.2118
0.452, -1, -4.58896, 24.769, 38.3362, 1.42865, -83.5614, -4.31578
0.456, -1, -4.49784, 24.7329, 38.2741, 1.57827, -83.3382, -4.41979
0.46, -1, -4.40671, 24.6967, 38.212, 1.72792, -83.1149, -4.52381
0.464, -1, -4.31556, 24.6605, 38.15, 1.87758, -82.8917, -4.62785
0.468, -1, -4.22441, 24.6244, 38.0879, 2.02726, -82.6684, -4.73189
0.472, -1, -4.13326, 24.5882, 38.0258, 2.17694, -82.4451, -4.83594
0.476, -1, -4.04211, 24.552, 37.9636, 2.32662, -82.2217, -4.93998
0.48, -1, -3.95098, 24.5159, 37.9016, 2.47628, -81.9985, -5.04401
0.484, -1, -3.85986, 24.4797, 37.8395, 2.62592, -81.7752, -5.14803
0.488, -1, -3.76876, 24.4436, 37.7774, 2.77553, -81.552, -5.25202
0.492, -1, -3.67769, 24.4075, 37.7154, 2.92509, -81.3289, -5.35599
0.496, -1, -3.58665, 24.3713, 37.6533, 3.07461, -81.1058, -5.45992
0.5, -1, -3.49564, 24.3352, 37.5913, 3.22408, -80.8829, -5.56381
0.504, -1, -3.40467, 24.2992, 37.5293, 3.37347, -80.66, -5.66766
0.508, -1, -3.31375, 24.2631, 37.4674, 3.52279, -80.4372, -5.77146
0.512, -1, -3.22288, 24.227, 37.4054, 3.67203, -80.2146, -5.87519
0.516, -1, -3.13206, 24.191, 37.3436, 3.82118, -79.9921, -5.97887
0.52, -1, -3.0413, 24.155, 37.2817, 3.97022, -79.7697, -6.08247
0.524, -1, -2.95061, 24.119, 37.2199, 4.11915, -79.5475, -6.186
0.528, -1, -2.85999, 24.0831, 37.1582, 4.26797, -79.3255, -6.28944
0.532, -1, -2.76944, 24.0472, 37.0965, 4.41666, -79.1037, -6.3928
0.536, -1, -2.67898, 24.0113, 37.0349, 4.56522, -78.882, -6.49606
0.54, -1, -2.58859, 23.9754, 36.9733, 4.71363, -78.6606, -6.59923
0.544, -1, -2.49829, 23.9396, 36.9118, 4.86189, -78.4394, -6.70228
0.548, -1, -2.40809, 23.9038, 36.8503, 5.00999, -78.2185, -6.80523
0.552, -1, -2.31798, 23.8681, 36.7889, 5.15792, -77.9978, -6.90806
0.556, -1, -2.22797, 23.8324, 36.7276, 5.30568, -77.7773, -7.01077
0.56, -1, -2.13807, 23.7967, 36.6664, 5.45326, -77.5572, -7.11336
0.564, -1, -2.04828, 23.7611, 36.6053, 5.60064, -77.3373, -7.2158
0.568, -1, -1.9586, 23.7256, 36.5442, 5.74782, -77.1177, -7.31811
0.572, -1, -1.86904, 23.6901, 36.4832, 5.8948, -76.8984, -7.42028
0.576, -1, -1.7796, 23.6546, 36.4223, 6.04157, -76.6795, -7.5223
0.58, -1, -1.6903, 23.6192, 36.3615, 6.18811, -76.4609, -7.62416
0.584, -1, -1.60113, 23.5839, 36.3008, 6.33442, -76.2426, -7.72587
0.588, -1, -1.5121, 23.5486, 36.2402, 6.4805, -76.0246, -7.82741
0.592, -1, -1.42322, 23.5134, 36.1797, 6.62634, -75.8071, -7.92879
0.596, -1, -1.33448, 23.4782, 36.1193, 6.77193, -75.5899, -8.02999
0.6, -1, -1.2459, 23.4431, 36.059, 6.91726, -75.3731, -8.13101
0.604, -1, -1.15748, 23.408, 35.9988, 7.06233, -75.1566, -8.23185
0.608, -1, -1.06922, 23.373, 35.9387, 7.20713, -74.9406, -8.3325
0.612, -1, -0.98112, 23.3381, 35.8787, 7.35165, -74.725, -8.43296
0.616, -1, -0.893193, 23.3033, 35.8189, 7.49589, -74.5098, -8.53323
0.62, -1, -0.805439, 23.2685, 35.7592, 7.63985, -74.295, -8.63329
0.624, -1, -0.717861, 23.2338, 35.6995, 7.78351, -74.0807, -8.73316
0.628, -1, -0.630465, 23.1991, 35.6401, 7.92687, -73.8668, -8.83281
0.632, -1, -0.543252, 23.1646, 35.5807, 8.06993, -73.6534, -8.93225
0.636, -1, -0.456226, 23.1301, 35.5215, 8.21268, -73.4404, -9.03148
0.64, -1, -0.369389, 23.0957, 35.4624, 8.35511, -73.2279, -9.13049
0.644, -1, -0.282746, 23.0613, 35.4034, 8.49722, -73.0159, -9.22927
0.648, -1, -0.196298, 23.0271, 35.3446, 8.63901, -72.8044, -9.32783
0.652, -1, -0.110049, 22.9929, 35.2859, 8.78046, -72.5934, -9.42616
0.656, -1, -0.0240014, 22.9588, 35.2273, 8.92158, -72.3828, -9.52425
0.66, -1, 0.0618417, 22.9248, 35.1689, 9.06236, -72.1728, -9.62211
0.664, -1, 0.147478, 22.8908, 35.1106, 9.2028, -71.9633, -9.71973
0.668, -1, 0.232905, 22.857, 35.0525, 9.34289, -71.7543, -9.81711
0.672, -1, 0.318122, 22.8232, 34.9945, 9.48263, -71.5458, -9.91425
0.676, -1, 0.403125, 22.7895, 34.9367, 9.62201, -71.3379, -10.0111
0.68, -1, 0.487913, 22.7559, 34.879, 9.76104, -71.1304, -10.1078
0.684, -1, 0.572484, 22.7224, 34.8215, 9.8997, -70.9236, -10.2042
0.688, -1, 0.656834, 22.689, 34.7641, 10.038, -70.7173, -10.3003
0.692, -1, 0.740962, 22.6557, 34.7069, 10.1759, -70.5115, -10.3962
0.696, -1, 0.824867, 22.6224, 34.6498, 10.3135, -70.3062, -10.4918
0.7, -1, 0.908546, 22.5892, 34.5929, 10.4507, -70.1016, -10.5872
0.704, -1, 0.991999, 22.5562, 34.5361, 10.5875, -69.8974, -10.6823
0.708, -1, 1.07522, 22.5232, 34.4795, 10.7239, -69.6939, -10.7771
0.712, -1, 1.15822, 22.4903, 34.423, 10.86, -69.4909, -10.8717
0.716, -1, 1.24098, 22.4575, 34.3667, 10.9957, -69.2885, -10.966
0.72, -1, 1.32352, 22.4248, 34.3106, 11.131, -69.0866, -11.0601
0.724, -1, 1.40582, 22.3922, 34.2546, 11.2659, -68.8853, -11.1539
0.728, -1, 1.48788, 22.3597, 34.1988, 11.4004, -68.6846, -11.2474
0.732, -1, 1.56971, 22.3272, 34.1431, 11.5346, -68.4845, -11.3406
0.736, -1, 1.65131, 22.2949, 34.0876, 11.6683, -68.285, -11.4336
0.74, -1, 1.73267, 22.2627, 34.0323, 11.8017, -68.086, -11.5263
0.744, -1, 1.81379, 22.2305, 33.9771, 11.9347, -67.8876, -11.6187
0.748, -1, 1.89467, 22.1985, 33.9221, 12.0673, -67.6898, -11.7109
0.752, -1, 1.97531, 22.1665, 33.8672, 12.1995, -67.4926, -11.8028
0.756, -1, 2.05572, 22.1347, 33.8125, 12.3313, -67.296, -11.8944
0.76, -1, 2.13588, 22.1029, 33.758, 12.4626, -67.0999, -11.9857
0.764, -1, 2.2158, 22.0712, 33.7037, 12.5936, -66.9045, -12.0768
0.768, -1, 2.29548, 22.0397, 33.6495, 12.7243, -66.7097, -12.1676
0.772, -1, 2.37492, 22.0082, 33.5954, 12.8545, -66.5154, -12.2581
0.776, -1, 2.45412, 21.9768, 33.5416, 12.9843, -66.3217, -12.3483
0.78, -1, 2.53307, 21.9455, 33.4879, 13.1137, -66.1287, -12.4383
0.784, -1, 2.61178, 21.9143, 33.4343, 13.2427, -65.9362, -12.5279
0.788, -1, 2.69025, 21.8832, 33.381, 13.3713, -65.7444, -12.6173
0.792, -1, 2.76848, 21.8522, 33.3278, 13.4995, -65.5531, -12.7065
0.796, -1, 2.84646, 21.8213, 33.2748, 13.6273, -65.3624, -12.7953
0.8, -1, 2.92419, 21.7905, 33.2219, 13.7547, -65.1723, -12.8839
0.804, -1, 3.00168, 21.7598, 33.1692, 13.8817, -64.9829, -12.9721
0.808, -1, 3.07893, 21.7292, 33.1167, 14.0083, -64.794, -13.0602
0.812, -1, 3.15594, 21.6987, 33.0643, 14.1345, -64.6057, -13.1479
0.816, -1, 3.2327, 21.6683, 33.0121, 14.2603, -64.418, -13.2353
0.82, -1, 3.30921, 21.638, 32.9601, 14.3857, -64.231, -13.3225
0.824, -1, 3.38548, 21.6078, 32.9082, 14.5107, -64.0445, -13.4094
0.828, -1, 3.46151, 21.5776, 32.8565, 14.6353, -63.8586, -13.496
0.832, -1, 3.53729, 21.5476, 32.805, 14.7595, -63.6733, -13.5823
0.836, -1, 3.61283, 21.5177, 32.7536, 14.8833, -63.4886, -13.6684
0.84, -1, 3.68813, 21.4878, 32.7024, 15.0067, -63.3046, -13.7541
0.844, -1, 3.76318, 21.4581, 32.6514, 15.1296, -63.1211, -13.8396
0.848, -1, 3.83799, 21.4285, 32.6005, 15.2522, -62.9382, -13.9248
0.852, -1, 3.91256, 21.3989, 32.5498, 15.3744, -62.7559, -14.0098
0.856, -1, 3.98689, 21.3695, 32.4993, 15.4962, -62.5742, -14.0944
0.86, -1, 4.06097, 21.3401, 32.4489, 15.6176, -62.393, -14.1788
0.864, -1, 4.13482, 21.3109, 32.3987, 15.7386, -62.2125, -14.2629
0.868, -1, 4.20842, 21.2817, 32.3486, 15.8592, -62.0326, -14.3468
0.872, -1, 4.28179, 21.2526, 32.2988, 15.9794, -61.8533, -14.4303
0.876, -1, 4.35492, 21.2236, 32.249, 16.0993, -61.6745, -14.5136
0.88, -1, 4.42781, 21.1948, 32.1995, 16.2187, -61.4963, -14.5966
0.884, -1, 4.50047, 21.166, 32.1501, 16.3377, -61.3187, -14.6794
0.888, -1, 4.57289, 21.1373, 32.1009, 16.4564, -61.1417, -14.7619
0.892, -1, 4.64507, 21.1087, 32.0518, 16.5746, -60.9653, -14.8441
0.896, -1, 4.71702, 21.0802, 32.0029, 16.6925, -60.7895, -14.926
0.9, -1, 4.78874, 21.0517, 31.9541, 16.81, -60.6142, -15.0077
0.904, -1, 4.86022, 21.0234, 31.9055, 16.9271, -60.4395, -15.0891
0.908, -1, 4.93148, 20.9952, 31.8571, 17.0438, -60.2653, -15.1702
0.912, -1, 5.0025, 20.967, 31.8088, 17.1602, -60.0917, -15.2511
0.916, -1, 5.07329, 20.939, 31.7607, 17.2762, -59.9187, -15.3317
0.92, -1, 5.14386, 20.911, 31.7127, 17.3918, -59.7462, -15.4121
0.924, -1, 5.2142, 20.8832, 31.6649, 17.507, -59.5743, -15.4922
0.928, -1, 5.28431, 20.8554, 31.6173, 17.6218, -59.403, -15.572
0.932, -1, 5.3542, 20.8277, 31.5698, 17.7363, -59.2322, -15.6516
0.936, -1, 5.42387, 20.8001, 31.5224, 17.8505, -59.0619, -15.7309
0.94, -1, 5.49331, 20.7726, 31.4752, 17.9642, -58.8922, -15.81
0.944, -1, 5.56253, 20.7451, 31.4282, 18.0776, -58.723, -15.8888
0.948, -1, 5.63153, 20.7178, 31.3812, 18.1907, -58.5544, -15.9674
0.952, -1, 5.70032, 20.6905, 31.3345, 18.3033, -58.3862, -16.0457
0.956, -1, 5.76889, 20.6634, 31.2879, 18.4157, -58.2187, -16.1238
0.96, -1, 5.83724, 20.6363, 31.2414, 18.5276, -58.0516, -16.2017
0.964, -1, 5.90538, 20.6093, 31.1951, 18.6393, -57.8851, -16.2793
0.968, -1, 5.9733, 20.5824, 31.1489, 18.7505, -57.7191, -16.3566
0.972, -1, 6.04101, 20.5556, 31.1029, 18.8615, -57.5536, -16.4337
0.976, -1, 6.10851, 20.5288, 31.057, 18.972, -57.3886, -16.5106
0.98, -1, 6.1758, 20.5021, 31.0113, 19.0823, -57.2242, -16.5872
0.984, -1, 6.24288, 20.4756, 30.9657, 19.1922, -57.0602, -16.6636
0.988, -1, 6.30975, 20.4491, 30.9202, 19.3017, -56.8968, -16.7397
0.992, -1, 6.37641, 20.4227, 30.8749, 19.4109, -56.7339, -16.8156
0.996, -1, 6.44287, 20.3963, 30.8298, 19.5198, -56.5715, -16.8913
1, -1, 6.50913, 20.3701, 30.7847, 19.6283, -56.4095, -16.9668
1.004, -1, 6.57518, 20.3439, 30.7398, 19.7365, -56.2481, -17.042
1.008, -1, 6.64103, 20.3178, 30.6951, 19.8444, -56.0872, -17.117
1.012, -1, 6.70668, 20.2918, 30.6504, 19.9519, -55.9267, -17.1917
1.016, -1, 6.77212, 20.2659, 30.606, 20.0591, -55.7668, -17.2663
1.02, -1, 6.83737, 20.24, 30.5616, 20.166, -55.6073, -17.3406
1.024, -1, 6.90243, 20.2142, 30.5174, 20.2726, -55.4483, -17.4146
1.027, -1, 6.96728, 20.1885, 30.4733, 20.3788, -55.2898, -17.4885
1.032, -1, 7.03194, 20.1629, 30.4294, 20.4848, -55.1318, -17.5621
1.036, -1, 7.0964, 20.1374, 30.3855, 20.5904, -54.9743, -17.6355
1.04, -1, 7.16067, 20.1119, 30.3418, 20.6957, -54.8172, -17.7087
1.044, -1, 7.22475, 20.0865, 30.2983, 20.8006, -54.6606, -17.7817
1.048, -1, 7.28864, 20.0612, 30.2549, 20.9053, -54.5044, -17.8544
1.052, -1, 7.35234, 20.036, 30.2116, 21.0096, -54.3487, -17.927
1.055, -1, 7.41585, 20.0108, 30.1684, 21.1137, -54.1935, -17.9993
1.06, -1, 7.47917, 19.9857, 30.1254, 21.2174, -54.0388, -18.0714
1.064, -1, 7.5423, 19.9607, 30.0824, 21.3208, -53.8845, -18.1433
1.068, -1, 7.60525, 19.9357, 30.0397, 21.4239, -53.7307, -18.215
1.072, -1, 7.66801, 19.9109, 29.997, 21.5268, -53.5773, -18.2864
1.076, -1, 7.73058, 19.8861, 29.9545, 21.6293, -53.4243, -18.3577
1.08, -1, 7.79298, 19.8614, 29.9121, 21.7315, -53.2718, -18.4287
1.084, -1, 7.85519, 19.8367, 29.8698, 21.8334, -53.1198, -18.4996
1.088, -1, 7.91722, 19.8121, 29.8276, 21.935, -52.9682, -18.5702
1.091, -1, 7.97907, 19.7876, 29.7856, 22.0363, -52.817, -18.6407
1.096, -1, 8.04075, 19.7632, 29.7436, 22.1374, -52.6663, -18.7109
1.1, -1, 8.10224, 19.7388, 29.7018, 22.2381, -52.516, -18.7809
1.104, -1, 8.16356, 19.7145, 29.6602, 22.3386, -52.3661, -18.8507
1.108, -1, 8.2247, 19.6903, 29.6186, 22.4387, -52.2167, -18.9204
1.112, -1, 8.28567, 19.6661, 29.5772, 22.5386, -52.0677, -18.9898
1.116, -1, 8.34646, 19.642, 29.5358, 22.6382, -51.9191, -19.059
1.119, -1, 8.40708, 19.618, 29.4946, 22.7375, -51.771, -19.128
1.124, -1, 8.46752, 19.5941, 29.4536, 22.8365, -51.6233, -19.1969
1.128, -1, 8.5278, 19.5702, 29.4126, 22.9353, -51.4759, -19.2655
1.132, -1, 8.5879, 19.5464, 29.3717, 23.0337, -51.329, -19.334
1.136, -1, 8.64784, 19.5226, 29.331, 23.1319, -51.1826, -19.4022
1.14, -1, 8.70761, 19.4989, 29.2904, 23.2298, -51.0365, -19.4703
1.144, -1, 8.76721, 19.4753, 29.2499, 23.3274, -50.8908, -19.5381
1.147, -1, 8.82664, 19.4518, 29.2095, 23.4248, -50.7456, -19.6058
1.152, -1, 8.88591, 19.4283, 29.1692, 23.5219, -50.6007, -19.6733
1.156, -1, 8.94502, 19.4049, 29.129, 23.6187, -50.4563, -19.7406
1.16, -1, 9.00397, 19.3815, 29.0889, 23.7153, -50.3122, -19.8077
1.164, -1, 9.06275, 19.3582, 29.049, 23.8116, -50.1686, -19.8747
1.168, -1, 9.12137, 19.335, 29.0091, 23.9076, -50.0253, -19.9414
1.172, -1, 9.17983, 19.3118, 28.9694, 24.0034, -49.8825, -20.008
1.175, -1, 9.23814, 19.2887, 28.9298, 24.0989, -49.74, -20.0744
1.18, -1, 9.29628, 19.2657, 28.8903, 24.1941, -49.5979, -20.1406
1.184, -1, 9.35427, 19.2427, 28.8508, 24.2891, -49.4562, -20.2066
1.188, -1, 9.4121, 19.2198, 28.8115, 24.3838, -49.3148, -20.2724
1.192, -1, 9.46978, 19.1969, 28.7723, 24.4783, -49.1739, -20.3381
1.196, -1, 9.5273, 19.1741, 28.7332, 24.5725, -49.0333, -20.4036
1.2, -1, 9.58467, 19.1514, 28.6943, 24.6665, -48.8931, -20.4689
1.204, -1, 9.64189, 19.1287, 28.6554, 24.7602, -48.7533, -20.5341
1.208, -1, 9.69896, 19.1061, 28.6166, 24.8537, -48.6138, -20.5991
1.212, -1, 9.75588, 19.0836, 28.5779, 24.947, -48.4747, -20.6639
1.216, -1, 9.81265, 19.0611, 28.5393, 25.0399, -48.336, -20.7285
1.22, -1, 9.86927, 19.0386, 28.5008, 25.1327, -48.1976, -20.793
1.224, -1, 9.92575, 19.0163, 28.4624, 25.2252, -48.0596, -20.8573
1.228, -1, 9.98208, 18.9939, 28.4241, 25.3175, -47.9219, -20.9215
1.232, -1, 10.0383, 18.9717, 28.386, 25.4095, -47.7846, -20.9854
1.236, -1, 10.0943, 18.9495, 28.3479, 25.5013, -47.6476, -21.0493
1.24, -1, 10.1502, 18.9273, 28.3099, 25.5929, -47.511, -21.1129
1.244, -1, 10.206, 18.9052, 28.272, 25.6842, -47.3748, -21.1764
1.248, -1, 10.2616, 18.8832, 28.2342, 25.7753, -47.2388, -21.2397
1.252, -1, 10.3171, 18.8612, 28.1965, 25.8662, -47.1033, -21.3029
1.256, -1, 10.3724, 18.8393, 28.1589, 25.9569, -46.968, -21.3659
1.26, -1, 10.4276, 18.8174, 28.1213, 26.0473, -46.8331, -21.4288
1.264, -1, 10.4827, 18.7956, 28.0839, 26.1375, -46.6986, -21.4915
1.267, -1, 10.5376, 18.7738, 28.0466, 26.2275, -46.5643, -21.554
1.272, -1, 10.5924, 18.7521, 28.0093, 26.3172, -46.4304, -21.6164
1.276, -1, 10.647, 18.7304, 27.9722, 26.4067, -46.2969, -21.6786
1.28, -1, 10.7016, 18.7088, 27.9351, 26.4961, -46.1636, -21.7407
1.284, -1, 10.7559, 18.6873, 27.8982, 26.5851, -46.0307, -21.8027
1.288, -1, 10.8102, 18.6658, 27.8613, 26.674, -45.8981, -21.8644
1.292, -1, 10.8643, 18.6443, 27.8245, 26.7627, -45.7658, -21.9261
1.295, -1, 10.9183, 18.6229, 27.7878, 26.8511, -45.6339, -21.9875
1.3, -1, 10.9722, 18.6016, 27.7512, 26.9394, -45.5022, -22.0489
1.304, -1, 11.0259, 18.5803, 27.7147, 27.0274, -45.3709, -22.1101
1.308, -1, 11.0796, 18.5591, 27.6782, 27.1152, -45.2399, -22.1711
1.312, -1, 11.133, 18.5379, 27.6419, 27.2028, -45.1092, -22.232
1.316, -1, 11.1864, 18.5167, 27.6056, 27.2902, -44.9788, -22.2928
1.32, -1, 11.2396, 18.4956, 27.5695, 27.3774, -44.8487, -22.3534
1.324, -1, 11.2927, 18.4746, 27.5334, 27.4644, -44.719, -22.4138
1.328, -1, 11.3457, 18.4536, 27.4974, 27.5512, -44.5895, -22.4742
1.332, -1, 11.3986, 18.4327, 27.4614, 27.6378, -44.4603, -22.5344
1.336, -1, 11.4513, 18.4118, 27.4256, 27.7241, -44.3314, -22.5944
1.34, -1, 11.5039, 18.3909, 27.3898, 27.8103, -44.2029, -22.6543
1.344, -1, 11.5564, 18.3701, 27.3542, 27.8963, -44.0746, -22.7141
1.348, -1, 11.6088, 18.3494, 27.3186, 27.9821, -43.9466, -22.7737
1.352, -1, 11.661, 18.3287, 27.2831, 28.0677, -43.8189, -22.8332
1.356, -1, 11.7132, 18.308, 27.2476, 28.1531, -43.6915, -22.8926
1.36, -1, 11.7652, 18.2874, 27.2123, 28.2383, -43.5644, -22.9518
1.364, -1, 11.8171, 18.2668, 27.177, 28.3233, -43.4376, -23.0109
1.368, -1, 11.8688, 18.2463, 27.1418, 28.4081, -43.3111, -23.0698
1.372, -1, 11.9205, 18.2259, 27.1067, 28.4927, -43.1848, -23.1286
1.376, -1, 11.972, 18.2054, 27.0717, 28.5771, -43.0589, -23.1873
1.38, -1, 12.0235, 18.1851, 27.0367, 28.6614, -42.9332, -23.2459
1.384, -1, 12.0748, 18.1647, 27.0018, 28.7454, -42.8078, -23.3043
1.388, -1, 12.126, 18.1444, 26.967, 28.8293, -42.6827, -23.3626
1.392, -1, 12.1771, 18.1242, 26.9323, 28.913, -42.5578, -23.4208
1.396, -1, 12.228, 18.104, 26.8977, 28.9965, -42.4333, -23.4788
1.4, -1, 12.2789, 18.0839, 26.8631, 29.0798, -42.309, -23.5367
1.404, -1, 12.3296, 18.0637, 26.8286, 29.1629, -42.185, -23.5945
1.408, -1, 12.3803, 18.0437, 26.7942, 29.2459, -42.0612, -23.6522
1.412, -1, 12.4308, 18.0237, 26.7599, 29.3286, -41.9377, -23.7097
1.416, -1, 12.4812, 18.0037, 26.7256, 29.4112, -41.8145, -23.7671
1.42, -1, 12.5315, 17.9838, 26.6914, 29.4936, -41.6915, -23.8244
1.424, -1, 12.5817, 17.9639, 26.6573, 29.5759, -41.5689, -23.8816
1.428, -1, 12.6318, 17.944, 26.6232, 29.6579, -41.4464, -23.9386
1.432, -1, 12.6818, 17.9242, 26.5893, 29.7398, -41.3243, -23.9956
1.436, -1, 12.7317, 17.9044, 26.5554, 29.8215, -41.2024, -24.0523
1.44, -1, 12.7815, 17.8847, 26.5215, 29.9031, -41.0807, -24.109
1.444, -1, 12.8311, 17.865, 26.4878, 29.9844, -40.9594, -24.1656
1.448, -1, 12.8807, 17.8454, 26.4541, 30.0656, -40.8382, -24.222
1.452, -1, 12.9302, 17.8258, 26.4205, 30.1466, -40.7174, -24.2783
1.456, -1, 12.9795, 17.8062, 26.3869, 30.2275, -40.5967, -24.3345
1.46, -1, 13.0288, 17.7867, 26.3534, 30.3082, -40.4764, -24.3906
1.464, -1, 13.0779, 17.7673, 26.32, 30.3887, -40.3563, -24.4466
1.468, -1, 13.127, 17.7478, 26.2867, 30.469, -40.2364, -24.5024
1.472, -1, 13.1759, 17.7284, 26.2534, 30.5492, -40.1168, -24.5582
1.476, -1, 13.2248, 17.7091, 26.2202, 30.6292, -39.9974, -24.6138
1.48, -1, 13.2735, 17.6898, 26.1871, 30.7091, -39.8783, -24.6693
1.484, -1, 13.3222, 17.6705, 26.154, 30.7888, -39.7594, -24.7247
1.488, -1, 13.3707, 17.6512, 26.121, 30.8683, -39.6407, -24.78
1.492, -1, 13.4191, 17.6321, 26.0881, 30.9476, -39.5223, -24.8351
1.496, -1, 13.4675, 17.6129, 26.0553, 31.0268, -39.4042, -24.8902
1.5, -1, 13.5157, 17.5938, 26.0225, 31.1059, -39.2863, -24.9451
1.504, -1, 13.5639, 17.5747, 25.9897, 31.1848, -39.1686, -25
1.508, -1, 13.612, 17.5557, 25.9571, 31.2635, -39.0511, -25.0547
1.512, -1, 13.6599, 17.5366, 25.9245, 31.3421, -38.9339, -25.1093
1.516, -1, 13.7078, 17.5177, 25.8919, 31.4205, -38.8169, -25.1638
1.52, -1, 13.7556, 17.4988, 25.8595, 31.4987, -38.7002, -25.2182
1.524, -1, 13.8032, 17.4799, 25.8271, 31.5768, -38.5837, -25.2725
1.528, -1, 13.8508, 17.461, 25.7947, 31.6548, -38.4674, -25.3267
1.532, -1, 13.8983, 17.4422, 25.7624, 31.7326, -38.3513, -25.3808
1.536, -1, 13.9457, 17.4234, 25.7302, 31.8102, -38.2355, -25.4347
1.54, -1, 13.993, 17.4047, 25.6981, 31.8877, -38.1199, -25.4886
1.544, -1, 14.0402, 17.386, 25.666, 31.965, -38.0045, -25.5424
1.548, -1, 14.0874, 17.3673, 25.634, 32.0422, -37.8893, -25.596
1.552, -1, 14.1344, 17.3486, 25.602, 32.1193, -37.7744, -25.6496
1.556, -1, 14.1813, 17.33, 25.5701, 32.1962, -37.6597, -25.703
1.56, -1, 14.2282, 17.3115, 25.5382, 32.2729, -37.5452, -25.7564
1.564, -1, 14.275, 17.2929, 25.5065, 32.3495, -37.4309, -25.8096
1.568, -1, 14.3216, 17.2745, 25.4747, 32.426, -37.3168, -25.8628
1.572, -1, 14.3682, 17.256, 25.4431, 32.5023, -37.2029, -25.9158
1.576, -1, 14.4147, 17.2376, 25.4115, 32.5785, -37.0893, -25.9688
1.58, -1, 14.4611, 17.2192, 25.3799, 32.6545, -36.9758, -26.0216
1.584, -1, 14.5075, 17.2008, 25.3484, 32.7304, -36.8626, -26.0744
1.588, -1, 14.5537, 17.1825, 25.317, 32.8062, -36.7496, -26.1271
1.592, -1, 14.5999, 17.1642, 25.2856, 32.8818, -36.6368, -26.1796
1.596, -1, 14.6459, 17.1459, 25.2543, 32.9573, -36.5242, -26.2321
1.6, -1, 14.6919, 17.1277, 25.2231, 33.0326, -36.4118, -26.2844
1.604, -1, 14.7378, 17.1095, 25.1919, 33.1078, -36.2996, -26.3367
1.608, -1, 14.7837, 17.0914, 25.1607, 33.1829, -36.1877, -26.3889
1.612, -1, 14.8294, 17.0733, 25.1296, 33.2578, -36.0759, -26.441
1.616, -1, 14.875, 17.0552, 25.0986, 33.3326, -35.9643, -26.493
1.62, -1, 14.9206, 17.0371, 25.0676, 33.4072, -35.8529, -26.5448
1.624, -1, 14.9661, 17.0191, 25.0367, 33.4817, -35.7418, -26.5966
1.628, -1, 15.0115, 17.0011, 25.0058, 33.5561, -35.6308, -26.6483
1.632, -1, 15.0568, 16.9831, 24.975, 33.6304, -35.52, -26.7
1.636, -1, 15.1021, 16.9652, 24.9443, 33.7045, -35.4094, -26.7515
1.64, -1, 15.1472, 16.9473, 24.9136, 33.7785, -35.2991, -26.8029
1.644, -1, 15.1923, 16.9294, 24.8829, 33.8523, -35.1889, -26.8543
1.648, -1, 15.2373, 16.9116, 24.8524, 33.9261, -35.0789, -26.9055
1.652, -1, 15.2822, 16.8938, 24.8218, 33.9997, -34.9691, -26.9567
1.656, -1, 15.3271, 16.876, 24.7913, 34.0731, -34.8595, -27.0077
1.66, -1, 15.3719, 16.8583, 24.7609, 34.1465, -34.75, -27.0587
1.664, -1, 15.4166, 16.8406, 24.7305, 34.2197, -34.6408, -27.1096
1.668, -1, 15.4612, 16.8229, 24.7002, 34.2928, -34.5318, -27.1604
1.672, -1, 15.5057, 16.8053, 24.6699, 34.3657, -34.4229, -27.2111
1.676, -1, 15.5502, 16.7876, 24.6397, 34.4386, -34.3143, -27.2618
1.68, -1, 15.5946, 16.7701, 24.6095, 34.5113, -34.2058, -27.3123
1.684, -1, 15.6389, 16.7525, 24.5794, 34.5839, -34.0975, -27.3628
1.688, -1, 15.6831, 16.735, 24.5494, 34.6563, -33.9894, -27.4131
1.692, -1, 15.7272, 16.7175, 24.5193, 34.7287, -33.8815, -27.4634
1.696, -1, 15.7713, 16.7, 24.4894, 34.8009, -33.7737, -27.5136
1.7, -1, 15.8153, 16.6826, 24.4595, 34.873, -33.6662, -27.5637
1.704, -1, 15.8593, 16.6652, 24.4296, 34.945, -33.5588, -27.6138
1.708, -1, 15.9031, 16.6478, 24.3998, 35.0168, -33.4516, -27.6637
1.712, -1, 15.9469, 16.6304, 24.37, 35.0886, -33.3446, -27.7136
1.716, -1, 15.9906, 16.6131, 24.3403, 35.1602, -33.2377, -27.7634
1.72, -1, 16.0343, 16.5958, 24.3107, 35.2317, -33.1311, -27.8131
1.724, -1, 16.0778, 16.5786, 24.281, 35.303, -33.0246, -27.8627
1.728, -1, 16.1213, 16.5613, 24.2515, 35.3743, -32.9183, -27.9122
1.732, -1, 16.1648, 16.5441, 24.222, 35.4454, -32.8121, -27.9617
1.736, -1, 16.2081, 16.5269, 24.1925, 35.5165, -32.7062, -28.011
1.74, -1, 16.2514, 16.5098, 24.1631, 35.5874, -32.6004, -28.0603
1.744, -1, 16.2946, 16.4927, 24.1337, 35.6582, -32.4947, -28.1096
1.748, -1, 16.3378, 16.4756, 24.1044, 35.7289, -32.3893, -28.1587
1.752, -1, 16.3808, 16.4585, 24.0751, 35.7994, -32.284, -28.2077
1.756, -1, 16.4238, 16.4414, 24.0459, 35.8699, -32.1789, -28.2567
1.76, -1, 16.4668, 16.4244, 24.0167, 35.9402, -32.074, -28.3056
1.764, -1, 16.5096, 16.4074, 23.9875, 36.0105, -31.9692, -28.3544
1.768, -1, 16.5524, 16.3905, 23.9584, 36.0806, -31.8646, -28.4032
1.772, -1, 16.5952, 16.3736, 23.9294, 36.1506, -31.7602, -28.4518
1.776, -1, 16.6378, 16.3566, 23.9004, 36.2205, -31.6559, -28.5004
1.78, -1, 16.6804, 16.3398, 23.8714, 36.2902, -31.5518, -28.5489
1.784, -1, 16.7229, 16.3229, 23.8425, 36.3599, -31.4478, -28.5973
1.788, -1, 16.7654, 16.3061, 23.8137, 36.4295, -31.344, -28.6457
1.792, -1, 16.8078, 16.2893, 23.7849, 36.4989, -31.2404, -28.694
1.796, -1, 16.8501, 16.2725, 23.7561, 36.5683, -31.137, -28.7422
1.8, -1, 16.8924, 16.2558, 23.7274, 36.6375, -31.0337, -28.7903
1.804, -1, 16.9346, 16.239, 23.6987, 36.7067, -30.9305, -28.8384
1.808, -1, 16.9767, 16.2224, 23.67, 36.7757, -30.8276, -28.8863
1.812, -1, 17.0188, 16.2057, 23.6414, 36.8446, -30.7248, -28.9343
1.816, -1, 17.0608, 16.189, 23.6129, 36.9134, -30.6221, -28.9821
1.82, -1, 17.1027, 16.1724, 23.5844, 36.9821, -30.5196, -29.0298
1.824, -1, 17.1445, 16.1559, 23.5559, 37.0507, -30.4172, -29.0775
1.828, -1, 17.186, 16.1394, 23.5275, 37.1192, -30.3151, -29.1251
1.832, -1, 17.2272, 16.1231, 23.4991, 37.1876, -30.2131, -29.1727
1.836, -1, 17.2677, 16.107, 23.4708, 37.2557, -30.1114, -29.2201
1.84, -1, 17.3076, 16.0912, 23.4426, 37.3237, -30.01, -29.2673
1.844, -1, 17.3467, 16.0757, 23.4146, 37.3913, -29.9092, -29.3143
1.848, -1, 17.3848, 16.0608, 23.3867, 37.4584, -29.8092, -29.3609
1.852, -1, 17.422, 16.0463, 23.3592, 37.5247, -29.7102, -29.407
1.856, -1, 17.458, 16.0323, 23.332, 37.59, -29.6128, -29.4524
1.86, -1, 17.4929, 16.019, 23.3054, 37.654, -29.5174, -29.4969
1.864, -1, 17.5264, 16.0063, 23.2795, 37.7163, -29.4245, -29.5402
1.868, -1, 17.5585, 15.9944, 23.2545, 37.7765, -29.3348, -29.582
1.872, -1, 17.589, 15.9832, 23.2306, 37.8341, -29.2489, -29.6221
1.876, -1, 17.6179, 15.9726, 23.2078, 37.8888, -29.1674, -29.66
1.88, -1, 17.6452, 15.9627, 23.1865, 37.94, -29.0911, -29.6956
1.884, -1, 17.6708, 15.9533, 23.1668, 37.9874, -29.0204, -29.7286
1.888, -1, 17.6949, 15.9443, 23.1489, 38.0306, -28.9559, -29.7586
1.892, -1, 17.7175, 15.9356, 23.1327, 38.0695, -28.8979, -29.7857
1.896, -1, 17.7385, 15.9272, 23.1184, 38.1039, -28.8466, -29.8096
1.9, -1, 17.758, 15.9192, 23.106, 38.1339, -28.8018, -29.8304
1.904, -1, 17.7759, 15.9115, 23.0954, 38.1595, -28.7636, -29.8482
1.908, -1, 17.792, 15.9045, 23.0865, 38.181, -28.7315, -29.8632
1.912, -1, 17.8065, 15.898, 23.0792, 38.1987, -28.7051, -29.8755
1.916, -1, 17.8195, 15.8921, 23.0733, 38.2129, -28.6838, -29.8854
1.92, -1, 17.831, 15.8868, 23.0687, 38.2241, -28.667, -29.8932
1.924, -1, 17.8411, 15.8821, 23.0652, 38.2327, -28.6542, -29.8991
1.928, -1, 17.85, 15.8781, 23.0626, 38.2391, -28.6446, -29.9036
1.932, -1, 17.8576, 15.8747, 23.0607, 38.2438, -28.6375, -29.9068
1.936, -1, 17.8638, 15.872, 23.0593, 38.2471, -28.6325, -29.9091
1.94, 2, 17.8689, 15.8698, 23.0584, 38.2494, -28.629, -29.9108
1.944, 2, 17.8727, 15.8682, 23.0577, 38.251, -28.6266, -29.9119
1.948, 2, 17.8755, 15.867, 23.0573, 38.2521, -28.625, -29.9126
1.952, 2, 17.8775, 15.8662, 23.057, 38.2528, -28.6239, -29.9131
1.956, 2, 17.8788, 15.8657, 23.0568, 38.2533, -28.6231, -29.9135
1.96, 2, 17.8797, 15.8653, 23.0567, 38.2537, -28.6226, -29.9137
1.964, 2, 17.8803, 15.8651, 23.0566, 38.2539, -28.6222, -29.9139
1.968, 2, 17.8807, 15.8649, 23.0565, 38.254, -28.622, -29.914
1.972, 2, 17.881, 15.8648, 23.0565, 38.2541, -28.6219, -29.9141
1.976, 2, 17.8812, 15.8647, 23.0564, 38.2542, -28.6217, -29.9141
1.98, 2, 17.8813, 15.8647, 23.0564, 38.2543, -28.6217, -29.9142
1.984, 2, 17.8814, 15.8646, 23.0564, 38.2543, -28.6216, -29.9142
1.988, 2, 17.8814, 15.8646, 23.0564, 38.2543, -28.6216, -29.9142
1.992, 2, 17.8815, 15.8646, 23.0564, 38.2543, -28.6216, -29.9142
1.996, 2, 17.8815, 15.8646, 23.0564, 38.2543, -28.6216, -29.9142
1.999, 2, 17.8815, 15.8646, 23.0564, 38.2544, -28.6215, -29.9142
2.004, 2, 17.8815, 15.8646, 23.0564, 38.2544, -28.6215, -29.9142
2.008, 2, 17.8816, 15.8646, 23.0564, 38.2544, -28.6215, -29.9142
2.012, 2, 17.8816, 15.8646, 23.0564, 38.2544, -28.6215, -29.9142
2.015, 2, 17.8816, 15.8646, 23.0564, 38.2544, -28.6215, -29.9142
2.019, 2, 17.8816, 15.8646, 23.0564, 38.2544, -28.6215, -29.9142
2.024, 2, 17.8816, 15.8646, 23.0564, 38.2544, -28.6215, -29.9142
2.028, 2, 17.8816, 15.8645, 23.0564, 38.2544, -28.6215, -29.9142
2.031, 2, 17.8816, 15.8645, 23.0564, 38.2544, -28.6215, -29.9142
2.036, 2, 17.8816, 15.8645, 23.0564, 38.2544, -28.6215, -29.9142
2.04, 2, 17.8816, 15.8645, 23.0564, 38.2544, -28.6215, -29.9142
2.044, 2, 17.8816, 15.8645, 23.0564, 38.2544, -28.6215, -29.9142
2.048, 2, 17.8816, 15.8645, 23.0564, 38.2544, -28.6215, -29.9142
2.051, 2, 17.8816, 15.8645, 23.0564, 38.2544, -28.6215, -29.9142
2.055, 2, 17.8816, 15.8645, 23.0564, 38.2544, -28.6215, -29.9142
2.06, 2, 17.8816, 15.8645, 23.0564, 38.2544, -28.6215, -29.9142
2.064, 2, 17.8816, 15.8645, 23.0564, 38.2544, -28.6215, -29.9142
2.068, 2, 17.8816, 15.8645, 23.0564, 38.2544, -28.6215, -29.9142
2.071, 2, 17.8816, 15.8645, 23.0564, 38.2544, -28.6215, -29.9142
2.076, 2, 17.8816, 15.8645, 23.0564, 38.2544, -28.6215, -29.9142
2.08, 2, 17.8816, 15.8645, 23.0564, 38.2544, -28.6215, -29.9142
2.084, 2, 17.8816, 15.8645, 23.0564, 38.2544, -28.6215, -29.9142
2.087, 2, 17.8816, 15.8645, 23.0564, 38.2544, -28.6215, -29.9142
2.092, 2, 17.8816, 15.8645, 23.0564, 38.2544, -28.6215, -29.9142
2.096, 2, 17.8816, 15.8645, 23.0564, 38.2544, -28.6215, -29.9142
2.1, 2, 17.8816, 15.8645, 23.0564, 38.2544, -28.6215, -29.9142
2.104, 2, 17.8816, 15.8645, 23.0564, 38.2544, -28.6215, -29.9142
2.107, 2, 17.8816, 15.8645, 23.0564, 38.2544, -28.6215, -29.9142
2.111, 2, 17.8816, 15.8645, 23.0564, 38.2544, -28.6215, -29.9142
2.116, 2, 17.8816, 15.8645, 23.0564, 38.2544, -28.6215, -29.9142
2.12, 2, 17.8816, 15.8645, 23.0564, 38.2544, -28.6215, -29.9142
2.124, 2, 17.8816, 15.8645, 23.0564, 38.2544, -28.6215, -29.9142
2.127, 2, 17.8816, 15.8645, 23.0564, 38.2544, -28.6215, -29.9142
2.132, 2, 17.8816, 15.8645, 23.0564, 38.2544, -28.6215, -29.9142
2.136, 2, 17.8816, 15.8645, 23.0564, 38.2544, -28.6215, -29.9142
2.14, 2, 17.8816, 15.8645, 23.0564, 38.2544, -28.6215, -29.9142
2.143, 2, 17.8816, 15.8645, 23.0564, 38.2544, -28.6215, -29.9142
2.148, 2, 17.8816, 15.8645, 23.0564, 38.2544, -28.6215, -29.9142
2.152, 2, 17.8816, 15.8645, 23.0564, 38.2544, -28.6215, -29.9142
2.156, 2, 17.8816, 15.8645, 23.0564, 38.2544, -28.6215, -29.9142
2.16, 2, 17.8816, 15.8645, 23.0564, 38.2544, -28.6215, -29.9142
2.163, 2, 17.8816, 15.8645, 23.0564, 38.2544, -28.6215, -29.9142
2.168, 2, 17.8816, 15.8645, 23.0564, 38.2544, -28.6215, -29.9142
2.172, 2, 17.8816, 15.8645, 23.0564, 38.2544, -28.6215, -29.9142
2.176, 2, 17.8816, 15.8645, 23.0564, 38.2544, -28.6215, -29.9142
2.179, 2, 17.8816, 15.8645, 23.0564, 38.2544, -28.6215, -29.9142
2.184, 2, 17.8816, 15.8645, 23.0564, 38.2544, -28.6215, -29.9142
2.188, 2, 17.8816, 15.8645, 23.0564, 38.2544, -28.6215, -29.9142
2.192, 2, 17.8816, 15.8645, 23.0564, 38.2544, -28.6215, -29.9142
2.196, 2, 17.8816, 15.8645, 23.0564, 38.2544, -28.6215, -29.9142
2.199, 2, 17.8816, 15.8645, 23.0564, 38.2544, -28.6215, -29.9142
2.204, 2, 17.8816, 15.8645, 23.0564, 38.2544, -28.6215, -29.9142
2.208, 2, 17.8816, 15.8645, 23.0564, 38.2544, -28.6215, -29.9142
2.212, 2, 17.8816, 15.8645, 23.0564, 38.2544, -28.6215, -29.9142
2.216, 2, 17.8816, 15.8645, 23.0564, 38.2544, -28.6215, -29.9142
2.219, 2, 17.8816, 15.8645, 23.0564, 38.2544, -28.6215, -29.9142
2.224, 2, 17.8816, 15.8645, 23.0564, 38.2544, -28.6215, -29.9142
2.228, 2, 17.8816, 15.8645, 23.0564, 38.2544, -28.6215, -29.9142
2.232, 2, 17.8816, 15.8645, 23.0564, 38.2544, -28.6215, -29.9142
2.235, 2, 17.8816, 15.8645, 23.0564, 38.2544, -28.6215, -29.9142
2.24, 2, 17.8816, 15.8645, 23.0564, 38.2544, -28.6215, -29.9142
2.244, 2, 17.8816, 15.8645, 23.0564, 38.2544, -28.6215, -29.9142
2.248, 2, 17.8816, 15.8645, 23.0564, 38.2544, -28.6215, -29.9142
2.252, 2, 17.8816, 15.8645, 23.0564, 38.2544, -28.6215, -29.9142
2.255, 2, 17.8816, 15.8645, 23.0564, 38.2544, -28.6215, -29.9142
2.259, 2, 17.8816, 15.8645, 23.0564, 38.2544, -28.6215, -29.9142
2.264, 2, 17.8816, 15.8645, 23.0564, 38.2544, -28.6215, -29.9142
2.268, 2, 17.8816, 15.8645, 23.0564, 38.2544, -28.6215, -29.9142
2.272, 2, 17.8816, 15.8645, 23.0564, 38.2544, -28.6215, -29.9142
2.275, 2, 17.8816, 15.8645, 23.0564, 38.2544, -28.6215, -29.9142
2.28, 2, 17.8816, 15.8645, 23.0564, 38.2544, -28.6215, -29.9142
2.284, 2, 17.8816, 15.8645, 23.0564, 38.2544, -28.6215, -29.9142
2.288, 2, 17.8816, 15.8645, 23.0564, 38.2544, -28.6215, -29.9142
2.291, 2, 17.8816, 15.8645, 23.0564, 38.2544, -28.6215, -29.9142
2.296, 2, 17.8816, 15.8645, 23.0564, 38.2544, -28.6215, -29.9142
2.3, 2, 17.8816, 15.8645, 23.0564, 38.2544, -28.6215, -29.9142
2.304, 2, 17.8816, 15.8645, 23.0564, 38.2544, -28.6215, -29.9142
2.308, 2, 17.8816, 15.8645, 23.0564, 38.2544, -28.6215, -29.9142
2.311, 2, 17.8816, 15.8645, 23.0564, 38.2544, -28.6215, -29.9142
2.316, 2, 17.8816, 15.8645, 23.0564, 38.2544, -28.6215, -29.9142
2.32, 2, 17.8816, 15.8645, 23.0564, 38.2544, -28.6215, -29.9142
2.324, 2, 17.8816, 15.8645, 23.0564, 38.2544, -28.6215, -29.9142
2.328, 2, 17.8816, 15.8645, 23.0564, 38.2544, -28.6215, -29.9142
2.331, 2, 17.8816, 15.8645, 23.0564, 38.2544, -28.6215, -29.9142
2.336, 2, 17.8816, 15.8645, 23.0564, 38.2544, -28.6215, -29.9142
2.34, 2, 17.8816, 15.8645, 23.0564, 38.2544, -28.6215, -29.9142
2.344, 2, 17.8816, 15.8645, 23.0564, 38.2544, -28.6215, -29.9142
2.347, 2, 17.8816, 15.8645, 23.0564, 38.2544, -28.6215, -29.9142
2.352, 2, 17.8816, 15.8645, 23.0564, 38.2544, -28.6215, -29.9142
2.356, 2, 17.8816, 15.8645, 23.0564, 38.2544, -28.6215, -29.9142
2.36, 2, 17.8816, 15.8645, 23.0564, 38.2544, -28.6215, -29.9142
2.364, 2, 17.8816, 15.8645, 23.0564, 38.2544, -28.6215, -29.9142
2.367, 2, 17.8816, 15.8645, 23.0564, 38.2544, -28.6215, -29.9142
2.372, 2, 17.8816, 15.8645, 23.0564, 38.2544, -28.6215, -29.9142
2.376, 2, 17.8816, 15.8645, 23.0564, 38.2544, -28.6215, -29.9142
2.38, 2, 17.8816, 15.8645, 23.0564, 38.2544, -28.6215, -29.9142
2.383, 2, 17.8816, 15.8645, 23.0564, 38.2544, -28.6215, -29.9142
2.388, 2, 17.8816, 15.8645, 23.0564, 38.2544, -28.6215, -29.9142
2.392, 2, 17.8816, 15.8645, 23.0564, 38.2544, -28.6215, -29.9142
2.396, 2, 17.8816, 15.8645, 23.0564, 38.2544, -28.6215, -29.9142
2.4, 2, 17.8816, 15.8645, 23.0564, 38.2544, -28.6215, -29.9142
2.403, 2, 17.8816, 15.8645, 23.0564, 38.2544, -28.6215, -29.9142
2.408, 2, 17.8816, 15.8645, 23.0564, 38.2544, -28.6215, -29.9142
2.412, 2, 17.8816, 15.8645, 23.0564, 38.2544, -28.6215, -29.9142
2.416, 2, 17.8816, 15.8645, 23.0564, 38.2544, -28.6215, -29.9142
2.42, 2, 17.8816, 15.8645, 23.0564, 38.2544, -28.6215, -29.9142
2.423, 2, 17.8816, 15.8645, 23.0564, 38.2544, -28.6215, -29.9142
2.428, 2, 17.8816, 15.8645, 23.0564, 38.2544, -28.6215, -29.9142
2.432, 2, 17.8816, 15.8645, 23.0564, 38.2544, -28.6215, -29.9142
2.436, 2, 17.8816, 15.8645, 23.0564, 38.2544, -28.6215, -29.9142
2.439, 2, 17.8816, 15.8645, 23.0564, 38.2544, -28.6215, -29.9142
2.444, 2, 17.8816, 15.8645, 23.0564, 38.2544, -28.6215, -29.9142
2.448, 2, 17.8816, 15.8645, 23.0564, 38.2544, -28.6215, -29.9142
2.452, 2, 17.8816, 15.8645, 23.0564, 38.2544, -28.6215, -29.9142
2.456, 2, 17.8816, 15.8645, 23.0564, 38.2544, -28.6215, -29.9142
2.459, 2, 17.8816, 15.8645, 23.0564, 38.2544, -28.6215, -29.9142
2.464, 2, 17.8816, 15.8645, 23.0564, 38.2544, -28.6215, -29.9142
2.468, 2, 17.8816, 15.8645, 23.0564, 38.2544, -28.6215, -29.9142
2.472, 2, 17.8816, 15.8645, 23.0564, 38.2544, -28.6215, -29.9142
2.476, 2, 17.8816, 15.8645, 23.0564, 38.2544, -28.6215, -29.9142
2.479, 2, 17.8816, 15.8645, 23.0564, 38.2544, -28.6215, -29.9142
2.484, 2, 17.8816, 15.8645, 23.0564, 38.2544, -28.6215, -29.9142
2.488, 2, 17.8816, 15.8645, 23.0564, 38.2544, -28.6215, -29.9142
2.492, 2, 17.8816, 15.8645, 23.0564, 38.2544, -28.6215, -29.9142
2.495, 2, 17.8816, 15.8645, 23.0564, 38.2544, -28.6215, -29.9142
2.5, 2, 17.8816, 15.8645, 23.0564, 38.2544, -28.6215, -29.9142
2.504, 2, 17.8816, 15.8645, 23.0564, 38.2544, -28.6215, -29.9142
2.508, 2, 17.8816, 15.8645, 23.0564, 38.2544, -28.6215, -29.9142
2.512, 2, 17.8816, 15.8645, 23.0564, 38.2544, -28.6215, -29.9142
2.515, 2, 17.8816, 15.8645, 23.0564, 38.2544, -28.6215, -29.9142
2.52, 2, 17.8816, 15.8645, 23.0564, 38.2544, -28.6215, -29.9142
2.524, 2, 17.8816, 15.8645, 23.0564, 38.2544, -28.6215, -29.9142
2.528, 2, 17.8816, 15.8645, 23.0564, 38.2544, -28.6215, -29.9142
2.531, 2, 17.8816, 15.8645, 23.0564, 38.2544, -28.6215, -29.9142
2.536, 2, 17.8816, 15.8645, 23.0564, 38.2544, -28.6215, -29.9142
2.54, 2, 17.8816, 15.8645, 23.0564, 38.2544, -28.6215, -29.9142
2.544, 2, 17.8816, 15.8645, 23.0564, 38.2544, -28.6215, -29.9142
2.548, 2, 17.8816, 15.8645, 23.0564, 38.2544, -28.6215, -29.9142
2.551, 2, 17.8816, 15.8645, 23.0564, 38.2544, -28.6215, -29.9142
2.556, 2, 17.8816, 15.8645, 23.0564, 38.2544, -28.6215, -29.9142
2.56, 2, 17.8816, 15.8645, 23.0564, 38.2544, -28.6215, -29.9142
2.564, 2, 17.8816, 15.8645, 23.0564, 38.2544, -28.6215, -29.9142
2.568, 2, 17.8816, 15.8645, 23.0564, 38.2544, -28.6215, -29.9142
2.571, 2, 17.8816, 15.8645, 23.0564, 38.2544, -28.6215, -29.9142
2.576, 2, 17.8816, 15.8645, 23.0564, 38.2544, -28.6215, -29.9142
2.58, 2, 17.8816, 15.8645, 23.0564, 38.2544, -28.6215, -29.9142
2.584, 2, 17.8816, 15.8645, 23.0564, 38.2544, -28.6215, -29.9142
2.587, 2, 17.8816, 15.8645, 23.0564, 38.2544, -28.6215, -29.9142
2.592, 2, 17.8816, 15.8645, 23.0564, 38.2544, -28.6215, -29.9142
2.596, 2, 17.8816, 15.8645, 23.0564, 38.2544, -28.6215, -29.9142
2.6, 2, 17.8816, 15.8645, 23.0564, 38.2544, -28.6215, -29.9142
2.604, 2, 17.8816, 15.8645, 23.0564, 38.2544, -28.6215, -29.9142
2.607, 2, 17.8816, 15.8645, 23.0564, 38.2544, -28.6215, -29.9142
2.612, 2, 17.8816, 15.8645, 23.0564, 38.2544, -28.6215, -29.9142
2.616, 2, 17.8816, 15.8645, 23.0564, 38.2544, -28.6215, -29.9142
2.62, 2, 17.8816, 15.8645, 23.0564, 38.2544, -28.6215, -29.9142
2.624, 2, 17.8816, 15.8645, 23.0564, 38.2544, -28.6215, -29.9142
2.627, 2, 17.8816, 15.8645, 23.0564, 38.2544, -28.6215, -29.9142
2.632, 2, 17.8816, 15.8645, 23.0564, 38.2544, -28.6215, -29.9142
2.636, 2, 17.8816, 15.8645, 23.0564, 38.2544, -28.6215, -29.9142
2.64, 2, 17.8816, 15.8645, 23.0564, 38.2544, -28.6215, -29.9142
2.643, 2, 17.8816, 15.8645, 23.0564, 38.2544, -28.6215, -29.9142
2.648, 2, 17.8816, 15.8645, 23.0564, 38.2544, -28.6215, -29.9142
2.652, 2, 17.8816, 15.8645, 23.0564, 38.2544, -28.6215, -29.9142
2.656, 2, 17.8816, 15.8645, 23.0564, 38.2544, -28.6215, -29.9142
2.66, 2, 17.8816, 15.8645, 23.0564, 38.2544, -28.6215, -29.9142
2.663, 2, 17.8816, 15.8645, 23.0564, 38.2544, -28.6215, -29.9142
2.668, 2, 17.8816, 15.8645, 23.0564, 38.2544, -28.6215, -29.9142
2.672, 2, 17.8816, 15.8645, 23.0564, 38.2544, -28.6215, -29.9142
2.676, 2, 17.8816, 15.8645, 23.0564, 38.2544, -28.6215, -29.9142
2.679, 2, 17.8816, 15.8645, 23.0564, 38.2544, -28.6215, -29.9142
2.684, 2, 17.8816, 15.8645, 23.0564, 38.2544, -28.6215, -29.9142
2.688, 2, 17.8816, 15.8645, 23.0564, 38.2544, -28.6215, -29.9142
2.692, 2, 17.8816, 15.8645, 23.0564, 38.2544, -28.6215, -29.9142
2.696, 2, 17.8816, 15.8645, 23.0564, 38.2544, -28.6215, -29.9142
2.699, 2, 17.8816, 15.8645, 23.0564, 38.2544, -28.6215, -29.9142
2.704, 2, 17.8816, 15.8645, 23.0564, 38.2544, -28.6215, -29.9142
2.708, 2, 17.8816, 15.8645, 23.0564, 38.2544, -28.6215, -29.9142
2.712, 2, 17.8816, 15.8645, 23.0564, 38.2544, -28.6215, -29.9142
2.716, 2, 17.8816, 15.8645, 23.0564, 38.2544, -28.6215, -29.9142
2.719, 2, 17.8816, 15.8645, 23.0564, 38.2544, -28.6215, -29.9142
2.724, 2, 17.8816, 15.8645, 23.0564, 38.2544, -28.6215, -29.9142
2.728, 2, 17.8816, 15.8645, 23.0564, 38.2544, -28.6215, -29.9142
2.732, 2, 17.8816, 15.8645, 23.0564, 38.2544, -28.6215, -29.9142
2.735, 2, 17.8816, 15.8645, 23.0564, 38.2544, -28.6215, -29.9142
2.74, 2, 17.8816, 15.8645, 23.0564, 38.2544, -28.6215, -29.9142
2.744, 2, 17.8816, 15.8645, 23.0564, 38.2544, -28.6215, -29.9142
2.748, 2, 17.8816, 15.8645, 23.0564, 38.2544, -28.6215, -29.9142
2.752, 2, 17.8816, 15.8645, 23.0564, 38.2544, -28.6215, -29.9142
2.755, 2, 17.8816, 15.8645, 23.0564, 38.2544, -28.6215, -29.9142
2.76, 2, 17.8816, 15.8645, 23.0564, 38.2544, -28.6215, -29.9142
2.764, 2, 17.8816, 15.8645, 23.0564, 38.2544, -28.6215, -29.9142
2.768, 2, 17.8816, 15.8645, 23.0564, 38.2544, -28.6215, -29.9142
2.772, 2, 17.8816, 15.8645, 23.0564, 38.2544, -28.6215, -29.9142
2.775, 2, 17.8816, 15.8645, 23.0564, 38.2544, -28.6215, -29.9142
2.78, 2, 17.8816, 15.8645, 23.0564, 38.2544, -28.6215, -29.9142
2.784, 2, 17.8816, 15.8645, 23.0564, 38.2544, -28.6215, -29.9142
2.788, 2, 17.8816, 15.8645, 23.0564, 38.2544, -28.6215, -29.9142
2.791, 2, 17.8816, 15.8645, 23.0564, 38.2544, -28.6215, -29.9142
2.796, 2, 17.8816, 15.8645, 23.0564, 38.2544, -28.6215, -29.9142
2.8, 2, 17.8816, 15.8645, 23.0564, 38.2544, -28.6215, -29.9142
2.804, 2, 17.8816, 15.8645, 23.0564, 38.2544, -28.6215, -29.9142
2.808, 2, 17.8816, 15.8645, 23.0564, 38.2544, -28.6215, -29.9142
2.811, 2, 17.8816, 15.8645, 23.0564, 38.2544, -28.6215, -29.9142
2.816, 2, 17.8816, 15.8645, 23.0564, 38.2544, -28.6215, -29.9142
2.82, 2, 17.8816, 15.8645, 23.0564, 38.2544, -28.6215, -29.9142
2.824, 2, 17.8816, 15.8645, 23.0564, 38.2544, -28.6215, -29.9142
2.828, 2, 17.8816, 15.8645, 23.0564, 38.2544, -28.6215, -29.9142
2.831, 2, 17.8816, 15.8645, 23.0564, 38.2544, -28.6215, -29.9142
2.836, 2, 17.8816, 15.8645, 23.0564, 38.2544, -28.6215, -29.9142
2.84, 2, 17.8816, 15.8645, 23.0564, 38.2544, -28.6215, -29.9142
2.844, 2, 17.8816, 15.8645, 23.0564, 38.2544, -28.6215, -29.9142
2.847, 2, 17.8816, 15.8645, 23.0564, 38.2544, -28.6215, -29.9142
2.852, 2, 17.8816, 15.8645, 23.0564, 38.2544, -28.6215, -29.9142
2.856, 2, 17.8816, 15.8645, 23.0564, 38.2544, -28.6215, -29.9142
2.86, 2, 17.8816, 15.8645, 23.0564, 38.2544, -28.6215, -29.9142
2.864, 2, 17.8816, 15.8645, 23.0564, 38.2544, -28.6215, -29.9142
2.867, 2, 17.8816, 15.8645, 23.0564, 38.2544, -28.6215, -29.9142
2.872, 2, 17.8816, 15.8645, 23.0564, 38.2544, -28.6215, -29.9142
2.876, 2, 17.8816, 15.8645, 23.0564, 38.2544, -28.6215, -29.9142
2.88, 2, 17.8816, 15.8645, 23.0564, 38.2544, -28.6215, -29.9142
2.883, 2, 17.8816, 15.8645, 23.0564, 38.2544, -28.6215, -29.9142
2.888, 2, 17.8816, 15.8645, 23.0564, 38.2544, -28.6215, -29.9142
2.892, 2, 17.8816, 15.8645, 23.0564, 38.2544, -28.6215, -29.9142
2.896, 2, 17.8816, 15.8645, 23.0564, 38.2544, -28.6215, -29.9142
2.9, 2, 17.8816, 15.8645, 23.0564, 38.2544, -28.6215, -29.9142
2.903, 2, 17.8816, 15.8645, 23.0564, 38.2544, -28.6215, -29.9142
2.908, 2, 17.8816, 15.8645, 23.0564, 38.2544, -28.6215, -29.9142
2.912, 2, 17.8816, 15.8645, 23.0564, 38.2544, -28.6215, -29.9142
2.916, 2, 17.8816, 15.8645, 23.0564, 38.2544, -28.6215, -29.9142
2.92, 2, 17.8816, 15.8645, 23.0564, 38.2544, -28.6215, -29.9142
2.923, 2, 17.8816, 15.8645, 23.0564, 38.2544, -28.6215, -29.9142
2.928, 2, 17.8816, 15.8645, 23.0564, 38.2544, -28.6215, -29.9142
2.932, 2, 17.8816, 15.8645, 23.0564, 38.2544, -28.6215, -29.9142
2.936, 2, 17.8816, 15.8645, 23.0564, 38.2544, -28.6215, -29.9142
2.939, 2, 17.8816, 15.8645, 23.0564, 38.2544, -28.6215, -29.9142
2.944, 2, 17.8816, 15.8645, 23.0564, 38.2544, -28.6215, -29.9142
2.948, 2, 17.8816, 15.8645, 23.0564, 38.2544, -28.6215, -29.9142
2.952, 2, 17.8816, 15.8645, 23.0564, 38.2544, -28.6215, -29.9142
2.956, 2, 17.8816, 15.8645, 23.0564, 38.2544, -28.6215, -29.9142
2.959, 2, 17.8816, 15.8645, 23.0564, 38.2544, -28.6215, -29.9142
2.964, 2, 17.8816, 15.8645, 23.0564, 38.2544, -28.6215, -29.9142
2.968, 2, 17.8816, 15.8645, 23.0564, 38.2544, -28.6215, -29.9142
2.972, 2, 17.8816, 15.8645, 23.0564, 38.2544, -28.6215, -29.9142
2.976, 2, 17.8816, 15.8645, 23.0564, 38.2544, -28.6215, -29.9142
2.98, 2, 17.8816, 15.8645, 23.0564, 38.2544, -28.6215, -29.9142
2.984, 2, 17.8816, 15.8645, 23.0564, 38.2544, -28.6215, -29.9142
2.988, 2, 17.8816, 15.8645, 23.0564, 38.2544, -28.6215, -29.9142
2.992, 2, 17.8816, 15.8645, 23.0564, 38.2544, -28.6215, -29.9142
2.995, 2, 17.8816, 15.8645, 23.0564, 38.2544, -28.6215, -29.9142
3, 2, 17.8816, 15.8645, 23.0564, 38.2544, -28.6215, -29.9142
3.004, 2, 17.8816, 15.8645, 23.0564, 38.2544, -28.6215, -29.9142
3.008, 2, 17.8816, 15.8645, 23.0564, 38.2544, -28.6215, -29.9142
3.012, 2, 17.8816, 15.8645, 23.0564, 38.2544, -28.6215, -29.9142
3.015, 4, 17.8816, 15.8645, 23.0564, 38.2544, -28.6215, -29.9142
3.02, 4, 17.8816, 15.8645, 23.0564, 38.2544, -28.6215, -29.9142
3.024, 4, 17.8816, 15.8645, 23.0564, 38.2544, -28.6215, -29.9142
3.028, 4, 17.8816, 15.8645, 23.0564, 38.2544, -28.6215, -29.9142
3.031, 4, 17.8816, 15.8645, 23.0564, 38.2544, -28.6215, -29.9142
3.036, 4, 17.8816, 15.8645, 23.0564, 38.2544, -28.6215, -29.9142
3.04, 4, 17.8816, 15.8645, 23.0564, 38.2544, -28.6215, -29.9142
3.044, 4, 17.8816, 15.8645, 23.0564, 38.2544, -28.6215, -29.9142
3.048, 4, 17.8816, 15.8645, 23.0564, 38.2544, -28.6215, -29.9142
3.051, 4, 17.8816, 15.8645, 23.0564, 38.2544, -28.6215, -29.9142
3.056, 4, 17.8816, 15.8645, 23.0564, 38.2544, -28.6215, -29.9142
3.06, 4, 17.8816, 15.8645, 23.0564, 38.2544, -28.6215, -29.9142
3.064, 4, 17.8816, 15.8645, 23.0564, 38.2544, -28.6215, -29.9142
3.068, 4, 17.8816, 15.8645, 23.0564, 38.2544, -28.6215, -29.9142
3.071, 4, 17.8816, 15.8645, 23.0564, 38.2544, -28.6215, -29.9142
3.076, 4, 17.8816, 15.8645, 23.0564, 38.2544, -28.6215, -29.9142
3.08, 4, 17.8816, 15.8645, 23.0564, 38.2544, -28.6215, -29.9142
3.084, 4, 17.8816, 15.8645, 23.0564, 38.2544, -28.6215, -29.9142
3.087, 4, 17.8816, 15.8645, 23.0564, 38.2544, -28.6215, -29.9142
3.092, 4, 17.8816, 15.8645, 23.0564, 38.2544, -28.6215, -29.9142
3.096, 4, 17.8816, 15.8645, 23.0564, 38.2544, -28.6215, -29.9142
3.1, 4, 17.8816, 15.8645, 23.0564, 38.2544, -28.6215, -29.9142
3.104, 4, 17.8816, 15.8645, 23.0564, 38.2544, -28.6215, -29.9142
3.107, 4, 17.8816, 15.8645, 23.0564, 38.2544, -28.6215, -29.9142
3.112, 4, 17.8816, 15.8645, 23.0564, 38.2544, -28.6215, -29.9142
3.116, 4, 17.8816, 15.8645, 23.0564, 38.2544, -28.6215, -29.9142
3.122, 4, 17.8816, 15.8645, 23.0564, 38.2544, -28.6215, -29.9142
3.124, 4, 17.8816, 15.8645, 23.0564, 38.2544, -28.6215, -29.9142
3.128, 4, 17.8816, 15.8645, 23.0564, 38.2544, -28.6215, -29.9142
3.132, 4, 17.8816, 15.8645, 23.0564, 38.2544, -28.6215, -29.9142
3.136, 4, 17.8816, 15.8645, 23.0564, 38.2544, -28.6215, -29.9142
3.14, 4, 17.8816, 15.8645, 23.0564, 38.2544, -28.6215, -29.9142
3.143, 4, 17.8816, 15.8645, 23.0564, 38.2544, -28.6215, -29.9142
3.148, 4, 17.8816, 15.8646, 23.0564, 38.2544, -28.6215, -29.9142
3.152, 4, 17.8815, 15.8646, 23.0564, 38.2544, -28.6215, -29.9142
3.156, 4, 17.8813, 15.8647, 23.0563, 38.2543, -28.6215, -29.9142
3.16, 4, 17.8808, 15.8651, 23.0563, 38.2543, -28.6215, -29.9142
3.163, 4, 17.8799, 15.8658, 23.0561, 38.2541, -28.6216, -29.914
3.168, 4, 17.8784, 15.867, 23.0557, 38.2537, -28.6217, -29.9137
3.172, 4, 17.8763, 15.869, 23.0552, 38.2529, -28.622, -29.913
3.176, 4, 17.8734, 15.8717, 23.0543, 38.2514, -28.6225, -29.9118
3.179, 4, 17.8698, 15.8756, 23.053, 38.2488, -28.6234, -29.9096
3.184, 4, 17.8654, 15.8807, 23.0513, 38.2446, -28.6248, -29.9061
3.188, 5, 17.8602, 15.8872, 23.0489, 38.2383, -28.6268, -29.9008
3.192, 5, 17.8541, 15.8955, 23.0457, 38.2292, -28.6298, -29.8931
3.196, 5, 17.8471, 15.9056, 23.0416, 38.2168, -28.6339, -29.8825
3.199, 5, 17.8389, 15.9177, 23.0363, 38.2002, -28.6393, -29.8684
3.204, 5, 17.8297, 15.9317, 23.0298, 38.1786, -28.6464, -29.8502
3.208, 5, 17.8194, 15.9475, 23.022, 38.1515, -28.6553, -29.8271
3.212, 5, 17.808, 15.9649, 23.0127, 38.118, -28.6663, -29.7986
3.216, 5, 17.7958, 15.9837, 23.0018, 38.0778, -28.6795, -29.7643
3.22, 5, 17.7827, 16.004, 22.9893, 38.0302, -28.6952, -29.7238
3.224, 5, 17.7686, 16.0256, 22.9752, 37.9753, -28.7133, -29.677
3.228, 5, 17.7536, 16.0486, 22.9594, 37.913, -28.7339, -29.6239
3.232, 5, 17.7376, 16.0731, 22.942, 37.8435, -28.7568, -29.5647
3.235, 5, 17.7205, 16.0994, 22.923, 37.7673, -28.7821, -29.4997
3.24, 5, 17.7023, 16.1274, 22.9025, 37.6847, -28.8095, -29.4293
3.244, 5, 17.683, 16.1572, 22.8806, 37.5964, -28.8389, -29.3541
3.248, 5, 17.6627, 16.1888, 22.8575, 37.5031, -28.87, -29.2747
3.252, 5, 17.6415, 16.2222, 22.8333, 37.4055, -28.9026, -29.1916
3.255, 5, 17.6194, 16.2573, 22.8082, 37.3045, -28.9364, -29.1056
3.26, 5, 17.5963, 16.2941, 22.7822, 37.2006, -28.9713, -29.0172
3.264, 5, 17.5722, 16.3324, 22.7556, 37.0946, -29.007, -28.927
3.268, 5, 17.547, 16.372, 22.7285, 36.9871, -29.0434, -28.8356
3.272, 5, 17.5209, 16.4128, 22.7009, 36.8785, -29.0802, -28.7434
3.276, 5, 17.494, 16.4546, 22.6731, 36.7692, -29.1174, -28.6505
3.28, 5, 17.4664, 16.497, 22.645, 36.6595, -29.1548, -28.5574
3.284, 5, 17.4382, 16.5398, 22.6168, 36.5495, -29.1924, -28.4641
3.288, 5, 17.4097, 16.583, 22.5885, 36.4395, -29.2302, -28.3708
3.291, 5, 17.381, 16.6264, 22.5601, 36.3295, -29.2681, -28.2776
3.296, 5, 17.352, 16.6699, 22.5318, 36.2195, -29.3061, -28.1844
3.3, 5, 17.3229, 16.7134, 22.5035, 36.1097, -29.3442, -28.0913
3.304, 5, 17.2938, 16.757, 22.4751, 35.9999, -29.3824, -27.9984
3.308, 5, 17.2645, 16.8005, 22.4468, 35.8904, -29.4207, -27.9057
3.312, 5, 17.2351, 16.8441, 22.4186, 35.7809, -29.459, -27.8131
3.316, 5, 17.2057, 16.8876, 22.3903, 35.6717, -29.4974, -27.7207
3.32, 5, 17.1763, 16.9311, 22.3622, 35.5626, -29.5359, -27.6285
3.324, 5, 17.1467, 16.9745, 22.334, 35.4537, -29.5744, -27.5365
3.328, 5, 17.1172, 17.0179, 22.3059, 35.345, -29.6131, -27.4447
3.332, 5, 17.0875, 17.0612, 22.2778, 35.2365, -29.6517, -27.3531
3.336, 5, 17.0579, 17.1045, 22.2498, 35.1281, -29.6905, -27.2616
3.34, 5, 17.0282, 17.1478, 22.2218, 35.02, -29.7293, -27.1704
3.344, 5, 16.9985, 17.191, 22.1939, 34.912, -29.7681, -27.0793
3.347, 5, 16.9687, 17.2341, 22.166, 34.8042, -29.8071, -26.9884
3.352, 5, 16.9388, 17.2772, 22.1382, 34.6966, -29.8461, -26.8978
3.356, 5, 16.909, 17.3203, 22.1104, 34.5891, -29.8851, -26.8073
3.36, 5, 16.8791, 17.3633, 22.0826, 34.4819, -29.9243, -26.717
3.364, 5, 16.8491, 17.4062, 22.0549, 34.3748, -29.9634, -26.6269
3.368, 5, 16.8191, 17.4491, 22.0272, 34.268, -30.0027, -26.537
3.372, 5, 16.7891, 17.492, 21.9996, 34.1613, -30.042, -26.4472
3.376, 5, 16.759, 17.5348, 21.9721, 34.0547, -30.0814, -26.3577
3.38, 5, 16.7289, 17.5775, 21.9445, 33.9484, -30.1208, -26.2684
3.383, 5, 16.6988, 17.6202, 21.9171, 33.8422, -30.1603, -26.1792
3.388, 5, 16.6686, 17.6628, 21.8896, 33.7363, -30.1999, -26.0902
3.392, 5, 16.6384, 17.7054, 21.8622, 33.6305, -30.2395, -26.0014
3.396, 5, 16.6081, 17.748, 21.8349, 33.5249, -30.2792, -25.9129
3.4, 5, 16.5778, 17.7904, 21.8076, 33.4194, -30.319, -25.8244
3.403, 5, 16.5474, 17.8329, 21.7804, 33.3142, -30.3588, -25.7362
3.408, 5, 16.517, 17.8752, 21.7532, 33.2091, -30.3987, -25.6482
3.412, 5, 16.4866, 17.9176, 21.726, 33.1042, -30.4386, -25.5603
3.416, 5, 16.4562, 17.9598, 21.6989, 32.9995, -30.4786, -25.4727
3.42, 5, 16.4257, 18.0021, 21.6719, 32.895, -30.5187, -25.3852
3.424, 5, 16.3951, 18.0442, 21.6449, 32.7906, -30.5589, -25.2979
3.428, 5, 16.3645, 18.0863, 21.6179, 32.6865, -30.5991, -25.2108
3.432, 5, 16.3339, 18.1284, 21.591, 32.5825, -30.6393, -25.1239
3.436, 5, 16.3033, 18.1704, 21.5641, 32.4786, -30.6796, -25.0371
3.439, 5, 16.2726, 18.2124, 21.5373, 32.375, -30.72, -24.9506
3.444, 5, 16.2418, 18.2543, 21.5106, 32.2715, -30.7605, -24.8642
3.448, 5, 16.2111, 18.2961, 21.4839, 32.1683, -30.801, -24.778
3.452, 5, 16.1803, 18.3379, 21.4572, 32.0652, -30.8416, -24.692
3.456, 5, 16.1494, 18.3797, 21.4306, 31.9622, -30.8822, -24.6061
3.46, 5, 16.1185, 18.4214, 21.404, 31.8595, -30.923, -24.5205
3.464, 5, 16.0876, 18.463, 21.3775, 31.7569, -30.9637, -24.435
3.468, 5, 16.0567, 18.5046, 21.351, 31.6545, -31.0046, -24.3497
3.472, 5, 16.0257, 18.5461, 21.3246, 31.5523, -31.0455, -24.2646
3.476, 5, 15.9946, 18.5876, 21.2983, 31.4502, -31.0864, -24.1797
3.48, 5, 15.9636, 18.6291, 21.272, 31.3483, -31.1275, -24.095
3.484, 5, 15.9325, 18.6704, 21.2457, 31.2466, -31.1685, -24.0104
3.488, 5, 15.9013, 18.7118, 21.2195, 31.1451, -31.2097, -23.926
3.492, 5, 15.8702, 18.753, 21.1933, 31.0438, -31.2509, -23.8418
3.495, 5, 15.8389, 18.7942, 21.1672, 30.9426, -31.2922, -23.7578
3.5, 5, 15.8077, 18.8354, 21.1412, 30.8416, -31.3335, -23.6739
3.504, 5, 15.7764, 18.8765, 21.1152, 30.7408, -31.3749, -23.5902
3.508, 5, 15.7451, 18.9176, 21.0892, 30.6401, -31.4164, -23.5067
3.512, 5, 15.7137, 18.9586, 21.0633, 30.5396, -31.4579, -23.4234
3.516, 5, 15.6823, 18.9995, 21.0374, 30.4393, -31.4995, -23.3403
3.52, 5, 15.6509, 19.0405, 21.0116, 30.3392, -31.5412, -23.2573
3.524, 5, 15.6194, 19.0813, 20.9859, 30.2392, -31.5829, -23.1745
3.528, 5, 15.5879, 19.1221, 20.9602, 30.1394, -31.6247, -23.0919
3.531, 5, 15.5564, 19.1628, 20.9346, 30.0398, -31.6665, -23.0094
3.536, 5, 15.5248, 19.2035, 20.909, 29.9403, -31.7084, -22.9272
3.54, 5, 15.4932, 19.2442, 20.8834, 29.8411, -31.7504, -22.8451
3.544, 5, 15.4616, 19.2847, 20.8579, 29.7419, -31.7925, -22.7632
3.548, 5, 15.4299, 19.3253, 20.8325, 29.643, -31.8346, -22.6814
3.552, 5, 15.3982, 19.3658, 20.8071, 29.5442, -31.8767, -22.5998
3.556, 5, 15.3664, 19.4062, 20.7818, 29.4456, -31.9189, -22.5184
3.56, 5, 15.3347, 19.4465, 20.7565, 29.3472, -31.9612, -22.4372
3.564, 5, 15.3029, 19.4869, 20.7313, 29.2489, -32.0036, -22.3561
3.568, 5, 15.271, 19.5271, 20.7061, 29.1509, -32.046, -22.2752
3.572, 5, 15.2391, 19.5673, 20.681, 29.0529, -32.0885, -22.1945
3.576, 5, 15.2072, 19.6075, 20.6559, 28.9552, -32.131, -22.114
3.58, 5, 15.1753, 19.6476, 20.6309, 28.8576, -32.1736, -22.0336
3.584, 5, 15.1433, 19.6877, 20.606, 28.7602, -32.2163, -21.9534
3.587, 5, 15.1112, 19.7276, 20.5811, 28.6629, -32.259, -21.8734
3.592, 5, 15.0792, 19.7676, 20.5562, 28.5658, -32.3018, -21.7935
3.596, 5, 15.0471, 19.8075, 20.5314, 28.4689, -32.3446, -21.7138
3.6, 5, 15.015, 19.8473, 20.5067, 28.3722, -32.3875, -21.6343
3.604, 5, 14.9828, 19.8871, 20.482, 28.2756, -32.4305, -21.5549
3.608, 5, 14.9506, 19.9268, 20.4574, 28.1792, -32.4735, -21.4757
3.612, 5, 14.9184, 19.9665, 20.4328, 28.0829, -32.5166, -21.3967
3.616, 5, 14.8862, 20.0061, 20.4083, 27.9868, -32.5598, -21.3179
3.62, 5, 14.8539, 20.0457, 20.3838, 27.8909, -32.603, -21.2392
3.624, 5, 14.8216, 20.0852, 20.3594, 27.7952, -32.6463, -21.1607
3.628, 5, 14.7892, 20.1247, 20.335, 27.6996, -32.6896, -21.0823
3.632, 5, 14.7568, 20.1641, 20.3107, 27.6041, -32.7331, -21.0041
3.636, 5, 14.7244, 20.2035, 20.2865, 27.5089, -32.7765, -20.9261
3.64, 5, 14.692, 20.2428, 20.2623, 27.4138, -32.8201, -20.8482
3.644, 5, 14.6595, 20.282, 20.2381, 27.3188, -32.8637, -20.7705
3.648, 5, 14.627, 20.3212, 20.214, 27.2241, -32.9073, -20.693
3.652, 5, 14.5944, 20.3604, 20.19, 27.1295, -32.951, -20.6156
3.656, 5, 14.5619, 20.3995, 20.166, 27.035, -32.9948, -20.5384
3.66, 5, 14.5293, 20.4385, 20.1421, 26.9407, -33.0386, -20.4614
3.664, 5, 14.4966, 20.4775, 20.1182, 26.8466, -33.0825, -20.3845
3.668, 5, 14.4639, 20.5164, 20.0944, 26.7526, -33.1265, -20.3078
3.672, 5, 14.4312, 20.5553, 20.0707, 26.6588, -33.1705, -20.2313
3.676, 5, 14.3985, 20.5942, 20.047, 26.5652, -33.2146, -20.1549
3.679, 5, 14.3657, 20.6329, 20.0233, 26.4717, -33.2588, -20.0786
3.684, 5, 14.3329, 20.6716, 19.9997, 26.3784, -33.303, -20.0026
3.688, 5, 14.3001, 20.7103, 19.9762, 26.2853, -33.3472, -19.9267
3.692, 5, 14.2672, 20.7489, 19.9527, 26.1923, -33.3916, -19.8509
3.696, 5, 14.2343, 20.7875, 19.9293, 26.0994, -33.436, -19.7753
3.7, 5, 14.2014, 20.826, 19.9059, 26.0067, -33.4804, -19.6999
3.704, 5, 14.1685, 20.8645, 19.8826, 25.9142, -33.5249, -19.6246
3.708, 5, 14.1355, 20.9029, 19.8593, 25.8219, -33.5695, -19.5495
3.712, 5, 14.1025, 20.9412, 19.8361, 25.7297, -33.6142, -19.4746
3.716, 5, 14.0694, 20.9795, 19.813, 25.6376, -33.6589, -19.3998
3.72, 5, 14.0363, 21.0178, 19.7899, 25.5457, -33.7036, -19.3252
3.724, 5, 14.0032, 21.056, 19.7669, 25.454, -33.7484, -19.2507
3.728, 5, 13.9701, 21.0941, 19.7439, 25.3624, -33.7933, -19.1764
3.732, 5, 13.9369, 21.1322, 19.721, 25.271, -33.8383, -19.1022
3.735, 5, 13.9037, 21.1702, 19.6981, 25.1797, -33.8833, -19.0282
3.74, 5, 13.8705, 21.2082, 19.6753, 25.0886, -33.9283, -18.9544
3.744, 5, 13.8372, 21.2462, 19.6525, 24.9977, -33.9735, -18.8807
3.748, 5, 13.8039, 21.284, 19.6298, 24.9069, -34.0187, -18.8071
3.752, 5, 13.7706, 21.3219, 19.6072, 24.8163, -34.0639, -18.7338
3.756, 5, 13.7373, 21.3596, 19.5846, 24.7258, -34.1092, -18.6605
3.76, 5, 13.7039, 21.3973, 19.5621, 24.6355, -34.1546, -18.5875
3.764, 5, 13.6705, 21.435, 19.5396, 24.5453, -34.2001, -18.5145
3.768, 5, 13.637, 21.4726, 19.5172, 24.4553, -34.2456, -18.4418
3.772, 5, 13.6036, 21.5102, 19.4949, 24.3654, -34.2911, -18.3692
3.776, 5, 13.5701, 21.5477, 19.4726, 24.2757, -34.3368, -18.2967
3.78, 5, 13.5366, 21.5852, 19.4504, 24.1861, -34.3824, -18.2244
3.784, 5, 13.503, 21.6226, 19.4282, 24.0967, -34.4282, -18.1522
3.788, 5, 13.4694, 21.6599, 19.4061, 24.0075, -34.474, -18.0802
3.792, 5, 13.4358, 21.6972, 19.384, 23.9184, -34.5199, -18.0084
3.796, 5, 13.4022, 21.7344, 19.362, 23.8295, -34.5658, -17.9367
3.8, 5, 13.3685, 21.7716, 19.3401, 23.7407, -34.6118, -17.8652
3.804, 5, 13.3348, 21.8088, 19.3182, 23.652, -34.6579, -17.7938
3.808, 5, 13.3011, 21.8458, 19.2964, 23.5636, -34.704, -17.7225
3.812, 5, 13.2673, 21.8829, 19.2746, 23.4752, -34.7502, -17.6514
3.816, 5, 13.2335, 21.9198, 19.2529, 23.387, -34.7964, -17.5805
3.82, 5, 13.1997, 21.9568, 19.2313, 23.299, -34.8427, -17.5097
3.824, 5, 13.1659, 21.9936, 19.2097, 23.2111, -34.8891, -17.4391
3.828, 5, 13.132, 22.0305, 19.1882, 23.1234, -34.9355, -17.3686
3.832, 5, 13.0981, 22.0672, 19.1667, 23.0358, -34.982, -17.2982
3.836, 5, 13.0642, 22.1039, 19.1453, 22.9484, -35.0286, -17.2281
3.84, 5, 13.0302, 22.1406, 19.1239, 22.8611, -35.0752, -17.158
3.844, 5, 12.9962, 22.1772, 19.1027, 22.774, -35.1218, -17.0881
3.848, 5, 12.9622, 22.2137, 19.0814, 22.6871, -35.1686, -17.0184
3.852, 5, 12.9282, 22.2502, 19.0603, 22.6002, -35.2154, -16.9488
3.856, 5, 12.8941, 22.2867, 19.0392, 22.5136, -35.2622, -16.8793
3.86, 5, 12.8601, 22.3231, 19.0181, 22.427, -35.3092, -16.81
3.864, 5, 12.8259, 22.3594, 18.9972, 22.3407, -35.3562, -16.7409
3.868, 5, 12.7918, 22.3957, 18.9762, 22.2544, -35.4032, -16.6719
3.872, 5, 12.7576, 22.4319, 18.9554, 22.1684, -35.4503, -16.603
3.876, 5, 12.7234, 22.4681, 18.9346, 22.0824, -35.4975, -16.5343
3.88, 5, 12.6892, 22.5042, 18.9139, 21.9967, -35.5447, -16.4657
3.884, 5, 12.655, 22.5403, 18.8932, 21.911, -35.592, -16.3973
3.888, 5, 12.6207, 22.5763, 18.8726, 21.8256, -35.6394, -16.329
3.892, 5, 12.5864, 22.6122, 18.852, 21.7402, -35.6868, -16.2609
3.896, 5, 12.5521, 22.6481, 18.8316, 21.655, -35.7343, -16.1929
3.9, 5, 12.5177, 22.684, 18.8111, 21.57, -35.7818, -16.125
3.904, 5, 12.4833, 22.7198, 18.7908, 21.4851, -35.8294, -16.0573
3.908, 5, 12.4489, 22.7555, 18.7705, 21.4003, -35.8771, -15.9898
3.912, 5, 12.4145, 22.7912, 18.7503, 21.3158, -35.9248, -15.9224
3.916, 5, 12.3801, 22.8269, 18.7301, 21.2313, -35.9726, -15.8551
3.92, 5, 12.3456, 22.8624, 18.71, 21.147, -36.0204, -15.788
3.924, 5, 12.3111, 22.898, 18.6899, 21.0628, -36.0683, -15.721
3.928, 5, 12.2765, 22.9334, 18.6699, 20.9788, -36.1163, -15.6542
3.932, 5, 12.242, 22.9689, 18.65, 20.8949, -36.1643, -15.5875
3.936, 5, 12.2074, 23.0042, 18.6302, 20.8112, -36.2124, -15.5209
3.94, 5, 12.1728, 23.0395, 18.6104, 20.7276, -36.2606, -15.4545
3.944, 5, 12.1382, 23.0748, 18.5906, 20.6442, -36.3088, -15.3882
3.948, 5, 12.1035, 23.11, 18.571, 20.5609, -36.3571, -15.3221
3.952, 5, 12.0688, 23.1452, 18.5514, 20.4778, -36.4054, -15.2561
3.956, 5, 12.0341, 23.1803, 18.5318, 20.3948, -36.4538, -15.1903
3.96, 5, 11.9994, 23.2153, 18.5124, 20.3119, -36.5023, -15.1246
3.964, 5, 11.9646, 23.2503, 18.4929, 20.2292, -36.5508, -15.059
3.968, 5, 11.9299, 23.2852, 18.4736, 20.1466, -36.5994, -14.9936
3.972, 5, 11.8951, 23.3201, 18.4543, 20.0642, -36.648, -14.9283
3.976, 5, 11.8602, 23.3549, 18.4351, 19.9819, -36.6967, -14.8631
3.98, 5, 11.8254, 23.3897, 18.4159, 19.8998, -36.7455, -14.7981
3.984, 5, 11.7905, 23.4244, 18.3968, 19.8178, -36.7943, -14.7333
3.988, 5, 11.7556, 23.4591, 18.3778, 19.7359, -36.8432, -14.6685
3.992, 5, 11.7207, 23.4937, 18.3588, 19.6542, -36.8921, -14.6039
3.996, 5, 11.6858, 23.5283, 18.3399, 19.5727, -36.9412, -14.5395
3.999, 5, 11.6508, 23.5628, 18.3211, 19.4912, -36.9902, -14.4752
4.004, 5, 11.6158, 23.5972, 18.3023, 19.41, -37.0394, -14.411
4.008, 5, 11.5808, 23.6316, 18.2836, 19.3288, -37.0886, -14.3469
4.012, 5, 11.5457, 23.666, 18.265, 19.2478, -37.1378, -14.283
4.016, 5, 11.5107, 23.7003, 18.2464, 19.1669, -37.1871, -14.2193
4.02, 5, 11.4756, 23.7345, 18.2279, 19.0862, -37.2365, -14.1556
4.024, 5, 11.4405, 23.7687, 18.2095, 19.0056, -37.2859, -14.0922
4.028, 5, 11.4053, 23.8028, 18.1911, 18.9252, -37.3354, -14.0288
4.032, 5, 11.3702, 23.8369, 18.1728, 18.8449, -37.385, -13.9656
4.036, 5, 11.335, 23.8709, 18.1545, 18.7647, -37.4346, -13.9025
4.04, 5, 11.2998, 23.9049, 18.1363, 18.6847, -37.4843, -13.8395
4.044, 5, 11.2646, 23.9388, 18.1182, 18.6048, -37.534, -13.7767
4.048, 5, 11.2293, 23.9727, 18.1001, 18.5251, -37.5838, -13.714
4.052, 5, 11.1941, 24.0065, 18.0821, 18.4455, -37.6337, -13.6515
4.056, 5, 11.1588, 24.0402, 18.0642, 18.366, -37.6836, -13.5891
4.06, 5, 11.1235, 24.0739, 18.0464, 18.2867, -37.7336, -13.5268
4.064, 5, 11.0881, 24.1076, 18.0286, 18.2075, -37.7837, -13.4647
4.068, 5, 11.0528, 24.1412, 18.0108, 18.1285, -37.8338, -13.4027
4.072, 5, 11.0174, 24.1747, 17.9932, 18.0496, -37.8839, -13.3408
4.076, 5, 10.982, 24.2082, 17.9756, 17.9708, -37.9342, -13.279
4.08, 5, 10.9466, 24.2416, 17.958, 17.8922, -37.9844, -13.2174
4.084, 5, 10.9111, 24.275, 17.9406, 17.8137, -38.0348, -13.156
4.088, 5, 10.8757, 24.3084, 17.9232, 17.7353, -38.0852, -13.0946
4.092, 5, 10.8402, 24.3416, 17.9058, 17.6571, -38.1357, -13.0334
4.096, 5, 10.8047, 24.3748, 17.8886, 17.579, -38.1862, -12.9723
4.1, 5, 10.7691, 24.408, 17.8714, 17.5011, -38.2368, -12.9114
4.104, 5, 10.7336, 24.4411, 17.8542, 17.4233, -38.2874, -12.8505
4.108, 5, 10.698, 24.4742, 17.8372, 17.3456, -38.3381, -12.7899
4.112, 5, 10.6624, 24.5072, 17.8202, 17.268, -38.3889, -12.7293
4.116, 5, 10.6268, 24.5401, 17.8032, 17.1906, -38.4397, -12.6689
4.12, 5, 10.5912, 24.573, 17.7863, 17.1134, -38.4906, -12.6086
4.124, 5, 10.5555, 24.6059, 17.7695, 17.0362, -38.5416, -12.5484
4.128, 5, 10.5198, 24.6387, 17.7528, 16.9592, -38.5926, -12.4884
4.132, 5, 10.4841, 24.6714, 17.7361, 16.8824, -38.6436, -12.4285
4.136, 5, 10.4484, 24.7041, 17.7195, 16.8056, -38.6948, -12.3687
4.14, 5, 10.4127, 24.7367, 17.703, 16.7291, -38.7459, -12.309
4.144, 5, 10.3769, 24.7693, 17.6865, 16.6526, -38.7972, -12.2495
4.148, 5, 10.3411, 24.8018, 17.6701, 16.5763, -38.8485, -12.1901
4.152, 5, 10.3053, 24.8343, 17.6538, 16.5001, -38.8999, -12.1309
4.156, 5, 10.2695, 24.8667, 17.6375, 16.424, -38.9513, -12.0717
4.16, 5, 10.2336, 24.8991, 17.6213, 16.3481, -39.0028, -12.0127
4.164, 5, 10.1978, 24.9314, 17.6051, 16.2723, -39.0543, -11.9539
4.168, 5, 10.1619, 24.9636, 17.5891, 16.1967, -39.1059, -11.8951
4.172, 5, 10.126, 24.9958, 17.5731, 16.1211, -39.1576, -11.8365
4.176, 5, 10.0901, 25.028, 17.5571, 16.0457, -39.2093, -11.778
4.18, 5, 10.0541, 25.0601, 17.5413, 15.9705, -39.2611, -11.7196
4.184, 5, 10.0181, 25.0921, 17.5254, 15.8953, -39.313, -11.6614
4.188, 5, 9.98216, 25.1241, 17.5097, 15.8203, -39.3649, -11.6033
4.192, 5, 9.94615, 25.156, 17.494, 15.7455, -39.4169, -11.5453
4.196, 5, 9.91012, 25.1879, 17.4784, 15.6708, -39.4689, -11.4874
4.2, 5, 9.87408, 25.2198, 17.4629, 15.5962, -39.521, -11.4297
4.204, 5, 9.83801, 25.2515, 17.4475, 15.5217, -39.5732, -11.3721
4.208, 5, 9.80192, 25.2833, 17.4321, 15.4473, -39.6254, -11.3146
4.212, 5, 9.76582, 25.3149, 17.4167, 15.3731, -39.6777, -11.2572
4.216, 5, 9.72969, 25.3466, 17.4015, 15.2991, -39.73, -11.2
4.22, 5, 9.69355, 25.3781, 17.3863, 15.2251, -39.7824, -11.1429
4.224, 5, 9.65739, 25.4096, 17.3712, 15.1513, -39.8349, -11.0859
4.228, 5, 9.6212, 25.4411, 17.3561, 15.0776, -39.8874, -11.029
4.232, 5, 9.585, 25.4725, 17.3411, 15.004, -39.94, -10.9723
4.236, 5, 9.54878, 25.5038, 17.3262, 14.9306, -39.9926, -10.9156
4.24, 5, 9.51254, 25.5351, 17.3114, 14.8573, -40.0453, -10.8591
4.244, 5, 9.47628, 25.5664, 17.2966, 14.7841, -40.0981, -10.8028
4.248, 5, 9.44, 25.5976, 17.2819, 14.7111, -40.1509, -10.7465
4.252, 5, 9.40371, 25.6287, 17.2672, 14.6382, -40.2038, -10.6904
4.256, 5, 9.36739, 25.6598, 17.2527, 14.5654, -40.2567, -10.6344
4.26, 5, 9.33106, 25.6908, 17.2382, 14.4927, -40.3097, -10.5785
4.264, 5, 9.29471, 25.7218, 17.2237, 14.4202, -40.3628, -10.5227
4.268, 5, 9.25834, 25.7527, 17.2094, 14.3478, -40.4159, -10.4671
4.272, 5, 9.22195, 25.7836, 17.1951, 14.2755, -40.4691, -10.4115
4.276, 5, 9.18555, 25.8144, 17.1809, 14.2033, -40.5223, -10.3561
4.28, 5, 9.14912, 25.8452, 17.1667, 14.1313, -40.5756, -10.3008
4.284, 5, 9.11268, 25.8759, 17.1526, 14.0594, -40.629, -10.2457
4.288, 5, 9.07622, 25.9066, 17.1386, 13.9876, -40.6824, -10.1906
4.292, 5, 9.03975, 25.9372, 17.1247, 13.916, -40.7359, -10.1357
4.296, 5, 9.00325, 25.9677, 17.1108, 13.8445, -40.7895, -10.0809
4.3, 5, 8.96674, 25.9982, 17.097, 13.7731, -40.8431, -10.0262
4.304, 5, 8.93022, 26.0287, 17.0833, 13.7018, -40.8967, -9.97164
4.308, 5, 8.89367, 26.059, 17.0696, 13.6307, -40.9504, -9.91719
4.312, 5, 8.85711, 26.0894, 17.056, 13.5597, -41.0042, -9.86286
4.316, 5, 8.82053, 26.1197, 17.0425, 13.4888, -41.0581, -9.80865
4.32, 5, 8.78394, 26.1499, 17.0291, 13.418, -41.112, -9.75455
4.324, 5, 8.74732, 26.1801, 17.0157, 13.3473, -41.1659, -9.70058
4.328, 5, 8.71069, 26.2102, 17.0024, 13.2768, -41.22, -9.64672
4.332, 5, 8.67405, 26.2403, 16.9891, 13.2064, -41.274, -9.59298
4.336, 5, 8.63738, 26.2703, 16.976, 13.1362, -41.3282, -9.53936
4.34, 5, 8.60071, 26.3003, 16.9629, 13.066, -41.3824, -9.48585
4.344, 5, 8.56401, 26.3302, 16.9499, 12.996, -41.4366, -9.43246
4.348, 5, 8.5273, 26.36, 16.9369, 12.9261, -41.491, -9.37919
4.352, 5, 8.49057, 26.3899, 16.924, 12.8563, -41.5453, -9.32603
4.356, 5, 8.45383, 26.4196, 16.9112, 12.7866, -41.5998, -9.27299
4.36, 5, 8.41707, 26.4493, 16.8985, 12.7171, -41.6543, -9.22006
4.364, 5, 8.38029, 26.479, 16.8858, 12.6477, -41.7088, -9.16726
4.368, 5, 8.3435, 26.5086, 16.8732, 12.5784, -41.7634, -9.11456
4.372, 5, 8.30669, 26.5381, 16.8607, 12.5093, -41.8181, -9.06198
4.376, 5, 8.26987, 26.5676, 16.8482, 12.4402, -41.8729, -9.00952
4.38, 5, 8.23303, 26.597, 16.8358, 12.3713, -41.9276, -8.95717
4.384, 5, 8.19618, 26.6264, 16.8235, 12.3025, -41.9825, -8.90494
4.388, 5, 8.15931, 26.6557, 16.8113, 12.2338, -42.0374, -8.85282
4.392, 5, 8.12243, 26.685, 16.7991, 12.1653, -42.0924, -8.80081
4.396, 5, 8.08553, 26.7142, 16.787, 12.0968, -42.1474, -8.74892
4.4, 5, 8.04862, 26.7434, 16.775, 12.0285, -42.2025, -8.69715
4.404, 5, 8.01169, 26.7725, 16.763, 11.9603, -42.2576, -8.64548
4.408, 5, 7.97474, 26.8016, 16.7512, 11.8922, -42.3129, -8.59393
4.412, 5, 7.93779, 26.8306, 16.7394, 11.8243, -42.3681, -8.5425
4.416, 5, 7.90081, 26.8596, 16.7276, 11.7565, -42.4235, -8.49117
4.42, 5, 7.86382, 26.8885, 16.716, 11.6887, -42.4788, -8.43996
4.424, 5, 7.82682, 26.9173, 16.7044, 11.6211, -42.5343, -8.38886
4.428, 5, 7.78981, 26.9461, 16.6928, 11.5537, -42.5898, -8.33788
4.432, 5, 7.75277, 26.9749, 16.6814, 11.4863, -42.6453, -8.28701
4.436, 5, 7.71573, 27.0035, 16.67, 11.4191, -42.701, -8.23624
4.44, 5, 7.67867, 27.0322, 16.6587, 11.352, -42.7566, -8.1856
4.444, 5, 7.6416, 27.0608, 16.6475, 11.285, -42.8124, -8.13506
4.448, 5, 7.60451, 27.0893, 16.6363, 11.2181, -42.8682, -8.08463
4.452, 5, 7.56741, 27.1178, 16.6253, 11.1513, -42.924, -8.03432
4.456, 5, 7.53029, 27.1462, 16.6142, 11.0847, -42.9799, -7.98412
4.46, 5, 7.49316, 27.1746, 16.6033, 11.0182, -43.0359, -7.93402
4.464, 5, 7.45602, 27.2029, 16.5924, 10.9518, -43.0919, -7.88404
4.468, 5, 7.41886, 27.2312, 16.5816, 10.8855, -43.148, -7.83417
4.472, 5, 7.38169, 27.2594, 16.5709, 10.8193, -43.2042, -7.78441
4.476, 5, 7.3445, 27.2876, 16.5603, 10.7533, -43.2604, -7.73476
4.48, 5, 7.30731, 27.3157, 16.5497, 10.6873, -43.3166, -7.68522
4.484, 5, 7.2701, 27.3437, 16.5392, 10.6215, -43.373, -7.63579
4.488, 5, 7.23287, 27.3717, 16.5288, 10.5558, -43.4293, -7.58647
4.492, 5, 7.19563, 27.3997, 16.5184, 10.4903, -43.4858, -7.53726
4.496, 5, 7.15838, 27.4276, 16.5082, 10.4248, -43.5423, -7.48816
4.5, 5, 7.12112, 27.4554, 16.4979, 10.3595, -43.5988, -7.43917
4.504, 5, 7.08384, 27.4832, 16.4878, 10.2942, -43.6554, -7.39028
4.508, 5, 7.04655, 27.511, 16.4778, 10.2291, -43.7121, -7.34151
4.512, 5, 7.00925, 27.5387, 16.4678, 10.1641, -43.7688, -7.29284
4.516, 5, 6.97193, 27.5663, 16.4579, 10.0992, -43.8256, -7.24429
4.52, 5, 6.93461, 27.5939, 16.448, 10.0345, -43.8825, -7.19584
4.524, 5, 6.89727, 27.6214, 16.4383, 9.96983, -43.9394, -7.1475
4.528, 5, 6.85991, 27.6489, 16.4286, 9.90529, -43.9963, -7.09927
4.532, 5, 6.82255, 27.6763, 16.4189, 9.84088, -44.0534, -7.05114
4.536, 5, 6.78517, 27.7037, 16.4094, 9.77658, -44.1104, -7.00312
4.54, 5, 6.74778, 27.731, 16.3999, 9.71239, -44.1676, -6.95521
4.544, 5, 6.71038, 27.7583, 16.3905, 9.64832, -44.2248, -6.90741
4.548, 5, 6.67296, 27.7855, 16.3812, 9.58436, -44.282, -6.85972
4.552, 5, 6.63553, 27.8126, 16.372, 9.52052, -44.3393, -6.81213
4.556, 5, 6.59809, 27.8397, 16.3628, 9.4568, -44.3967, -6.76465
4.56, 5, 6.56064, 27.8668, 16.3537, 9.39319, -44.4541, -6.71727
4.566, 5, 6.4857, 27.9207, 16.3357, 9.26631, -44.5692, -6.62285
4.568, 5, 6.4857, 27.9207, 16.3357, 9.26631, -44.5692, -6.62285
4.572, 5, 6.44822, 27.9476, 16.3269, 9.20304, -44.6268, -6.57579
4.576, 5, 6.41072, 27.9745, 16.318, 9.13988, -44.6844, -6.52884
4.58, 5, 6.37321, 28.0013, 16.3093, 9.07684, -44.7421, -6.482
4.584, 5, 6.33569, 28.028, 16.3007, 9.01392, -44.7999, -6.43526
4.588, 5, 6.29815, 28.0547, 16.2921, 8.9511, -44.8577, -6.38863
4.592, 5, 6.26061, 28.0813, 16.2836, 8.8884, -44.9156, -6.3421
4.596, 5, 6.22305, 28.1079, 16.2752, 8.82582, -44.9736, -6.29568
4.6, 5, 6.18548, 28.1344, 16.2668, 8.76334, -45.0316, -6.24936
4.604, 5, 6.1479, 28.1609, 16.2585, 8.70098, -45.0896, -6.20315
4.608, 5, 6.11031, 28.1873, 16.2503, 8.63874, -45.1477, -6.15704
4.612, 5, 6.07271, 28.2137, 16.2422, 8.5766, -45.2059, -6.11104
4.616, 5, 6.0351, 28.24, 16.2341, 8.51458, -45.2642, -6.06515
4.62, 5, 5.99748, 28.2663, 16.2262, 8.45267, -45.3224, -6.01935
4.624, 5, 5.95984, 28.2925, 16.2183, 8.39087, -45.3808, -5.97366
4.628, 5, 5.92219, 28.3186, 16.2104, 8.32919, -45.4392, -5.92808
4.632, 5, 5.88454, 28.3447, 16.2027, 8.26761, -45.4977, -5.8826
4.636, 5, 5.84687, 28.3708, 16.195, 8.20615, -45.5562, -5.83722
4.64, 5, 5.80919, 28.3968, 16.1874, 8.1448, -45.6148, -5.79195
4.644, 5, 5.7715, 28.4227, 16.1798, 8.08357, -45.6734, -5.74678
4.648, 5, 5.7338, 28.4486, 16.1724, 8.02244, -45.7321, -5.70171
4.652, 5, 5.69609, 28.4745, 16.165, 7.96142, -45.7909, -5.65675
4.656, 5, 5.65836, 28.5002, 16.1577, 7.90052, -45.8497, -5.61188
4.66, 5, 5.62063, 28.526, 16.1505, 7.83973, -45.9085, -5.56712
4.664, 5, 5.58289, 28.5517, 16.1433, 7.77904, -45.9675, -5.52247
4.668, 5, 5.54513, 28.5773, 16.1363, 7.71847, -46.0264, -5.47791
4.672, 5, 5.50737, 28.6029, 16.1293, 7.65801, -46.0855, -5.43346
4.676, 5, 5.46959, 28.6284, 16.1223, 7.59765, -46.1446, -5.38911
4.68, 5, 5.43181, 28.6539, 16.1155, 7.53741, -46.2037, -5.34486
4.684, 5, 5.39402, 28.6793, 16.1087, 7.47727, -46.263, -5.30071
4.688, 5, 5.35621, 28.7047, 16.102, 7.41725, -46.3222, -5.25666
4.692, 5, 5.3184, 28.73, 16.0954, 7.35733, -46.3816, -5.21272
4.696, 5, 5.28058, 28.7552, 16.0889, 7.29752, -46.441, -5.16887
4.7, 5, 5.24274, 28.7804, 16.0824, 7.23783, -46.5004, -5.12512
4.704, 5, 5.2049, 28.8056, 16.076, 7.17823, -46.5599, -5.08148
4.708, 5, 5.16705, 28.8307, 16.0697, 7.11875, -46.6195, -5.03793
4.712, 5, 5.12918, 28.8558, 16.0635, 7.05938, -46.6791, -4.99449
4.716, 5, 5.09131, 28.8808, 16.0573, 7.00011, -46.7388, -4.95114
4.72, 5, 5.05343, 28.9057, 16.0512, 6.94095, -46.7985, -4.90789
4.724, 5, 5.01554, 28.9306, 16.0452, 6.88189, -46.8583, -4.86474
4.728, 5, 4.97764, 28.9554, 16.0393, 6.82295, -46.9182, -4.82169
4.732, 5, 4.93973, 28.9802, 16.0334, 6.76411, -46.9781, -4.77874
4.736, 5, 4.90181, 29.005, 16.0277, 6.70537, -47.0381, -4.73589
4.74, 5, 4.86388, 29.0297, 16.022, 6.64674, -47.0981, -4.69313
4.744, 5, 4.82594, 29.0543, 16.0163, 6.58822, -47.1582, -4.65048
4.748, 5, 4.78799, 29.0789, 16.0108, 6.52981, -47.2183, -4.60792
4.752, 5, 4.75004, 29.1034, 16.0053, 6.4715, -47.2785, -4.56545
4.756, 5, 4.71208, 29.1279, 15.9999, 6.41329, -47.3388, -4.52309
4.76, 5, 4.6741, 29.1523, 15.9946, 6.35519, -47.3991, -4.48082
4.764, 5, 4.63612, 29.1767, 15.9894, 6.29719, -47.4594, -4.43865
4.768, 5, 4.59813, 29.201, 15.9842, 6.2393, -47.5199, -4.39658
4.772, 5, 4.56014, 29.2253, 15.9791, 6.18152, -47.5803, -4.3546
4.776, 5, 4.52213, 29.2495, 15.9741, 6.12384, -47.6409, -4.31272
4.78, 5, 4.48412, 29.2737, 15.9691, 6.06626, -47.7015, -4.27094
4.784, 5, 4.4461, 29.2978, 15.9643, 6.00878, -47.7621, -4.22925
4.788, 5, 4.40807, 29.3219, 15.9595, 5.95141, -47.8228, -4.18765
4.792, 5, 4.37003, 29.3459, 15.9548, 5.89415, -47.8836, -4.14615
4.796, 5, 4.33198, 29.3699, 15.9502, 5.83698, -47.9444, -4.10475
4.8, 5, 4.29393, 29.3938, 15.9456, 5.77992, -48.0053, -4.06345
4.804, 5, 4.25587, 29.4177, 15.9411, 5.72297, -48.0662, -4.02223
4.808, 5, 4.2178, 29.4415, 15.9367, 5.66611, -48.1272, -3.98112
4.812, 5, 4.17973, 29.4652, 15.9324, 5.60936, -48.1883, -3.94009
4.816, 5, 4.14164, 29.4889, 15.9282, 5.55271, -48.2494, -3.89916
4.82, 5, 4.10355, 29.5126, 15.924, 5.49616, -48.3105, -3.85833
4.824, 5, 4.06546, 29.5362, 15.9199, 5.43971, -48.3717, -3.81759
4.828, 5, 4.02735, 29.5598, 15.9159, 5.38337, -48.433, -3.77694
4.832, 5, 3.98924, 29.5833, 15.9119, 5.32713, -48.4943, -3.73639
4.836, 5, 3.95112, 29.6067, 15.9081, 5.27099, -48.5557, -3.69593
4.84, 5, 3.913, 29.6301, 15.9043, 5.21495, -48.6171, -3.65557
4.844, 5, 3.87487, 29.6535, 15.9006, 5.15901, -48.6786, -3.61529
4.848, 5, 3.83673, 29.6768, 15.8969, 5.10317, -48.7402, -3.57512
4.852, 5, 3.79858, 29.7, 15.8934, 5.04743, -48.8018, -3.53503
4.856, 5, 3.76043, 29.7232, 15.8899, 4.9918, -48.8634, -3.49504
4.86, 5, 3.72227, 29.7464, 15.8865, 4.93626, -48.9251, -3.45513
4.864, 5, 3.68411, 29.7695, 15.8832, 4.88083, -48.9869, -3.41533
4.868, 5, 3.64594, 29.7925, 15.8799, 4.82549, -49.0487, -3.37561
4.872, 5, 3.60776, 29.8155, 15.8768, 4.77025, -49.1106, -3.33598
4.876, 5, 3.56958, 29.8384, 15.8737, 4.71512, -49.1725, -3.29645
4.88, 5, 3.53139, 29.8613, 15.8706, 4.66008, -49.2345, -3.25701
4.884, 5, 3.4932, 29.8842, 15.8677, 4.60514, -49.2966, -3.21766
4.888, 5, 3.455, 29.907, 15.8648, 4.5503, -49.3587, -3.17841
4.892, 5, 3.41679, 29.9297, 15.862, 4.49557, -49.4208, -3.13924
4.896, 5, 3.37858, 29.9524, 15.8593, 4.44093, -49.483, -3.10016
4.9, 5, 3.34036, 29.975, 15.8567, 4.38638, -49.5453, -3.06118
4.904, 5, 3.30214, 29.9976, 15.8541, 4.33194, -49.6076, -3.02229
4.908, 5, 3.26391, 30.0202, 15.8517, 4.2776, -49.67, -2.98348
4.912, 5, 3.22567, 30.0426, 15.8493, 4.22335, -49.7324, -2.94477
4.916, 5, 3.18743, 30.0651, 15.8469, 4.1692, -49.7949, -2.90615
4.92, 5, 3.14919, 30.0875, 15.8447, 4.11515, -49.8574, -2.86762
4.924, 5, 3.11094, 30.1098, 15.8425, 4.0612, -49.92, -2.82918
4.928, 5, 3.07268, 30.1321, 15.8404, 4.00735, -49.9827, -2.79082
4.932, 5, 3.03442, 30.1543, 15.8384, 3.95359, -50.0454, -2.75256
4.936, 5, 2.99616, 30.1765, 15.8365, 3.89993, -50.1081, -2.71439
4.94, 5, 2.95789, 30.1986, 15.8346, 3.84637, -50.1709, -2.67631
4.944, 5, 2.91961, 30.2207, 15.8328, 3.79291, -50.2338, -2.63832
4.948, 5, 2.88134, 30.2427, 15.8311, 3.73954, -50.2967, -2.60041
4.952, 5, 2.84305, 30.2647, 15.8295, 3.68627, -50.3597, -2.5626
4.956, 5, 2.80476, 30.2867, 15.828, 3.63309, -50.4227, -2.52487
4.96, 5, 2.76647, 30.3085, 15.8265, 3.58002, -50.4858, -2.48723
4.964, 5, 2.72817, 30.3304, 15.8251, 3.52703, -50.5489, -2.44969
4.968, 5, 2.68987, 30.3521, 15.8238, 3.47415, -50.6121, -2.41223
4.972, 5, 2.65156, 30.3739, 15.8225, 3.42136, -50.6753, -2.37486
4.976, 5, 2.61325, 30.3955, 15.8214, 3.36867, -50.7386, -2.33757
4.98, 5, 2.57494, 30.4172, 15.8203, 3.31607, -50.802, -2.30038
4.984, 5, 2.53662, 30.4388, 15.8193, 3.26357, -50.8654, -2.26327
4.988, 5, 2.4983, 30.4603, 15.8184, 3.21117, -50.9288, -2.22625
4.992, 5, 2.45997, 30.4818, 15.8175, 3.15886, -50.9924, -2.18932
4.996, 5, 2.42164, 30.5032, 15.8167, 3.10664, -51.0559, -2.15248
5, 5, 2.38331, 30.5246, 15.8161, 3.05452, -51.1195, -2.11572
5.004, 5, 2.34497, 30.5459, 15.8154, 3.0025, -51.1832, -2.07906
5.008, 5, 2.30663, 30.5672, 15.8149, 2.95057, -51.2469, -2.04247
5.012, 5, 2.26828, 30.5884, 15.8144, 2.89874, -51.3107, -2.00598
5.016, 5, 2.22994, 30.6095, 15.8141, 2.847, -51.3746, -1.96958
5.02, 5, 2.19158, 30.6307, 15.8138, 2.79535, -51.4384, -1.93326
5.024, 5, 2.15323, 30.6517, 15.8135, 2.7438, -51.5024, -1.89702
5.028, 5, 2.11487, 30.6728, 15.8134, 2.69235, -51.5664, -1.86088
5.032, 5, 2.07651, 30.6937, 15.8133, 2.64099, -51.6304, -1.82482
5.036, 5, 2.03814, 30.7147, 15.8133, 2.58972, -51.6945, -1.78885
5.04, 5, 1.99978, 30.7355, 15.8134, 2.53855, -51.7587, -1.75296
5.044, 5, 1.96141, 30.7564, 15.8136, 2.48747, -51.8229, -1.71716
5.048, 5, 1.92303, 30.7771, 15.8138, 2.43648, -51.8872, -1.68145
5.052, 5, 1.88465, 30.7978, 15.8142, 2.38559, -51.9515, -1.64582
5.056, 5, 1.84628, 30.8185, 15.8146, 2.33479, -52.0159, -1.61028
5.06, 5, 1.80789, 30.8391, 15.815, 2.28409, -52.0803, -1.57482
5.064, 5, 1.76951, 30.8597, 15.8156, 2.23348, -52.1447, -1.53945
5.068, 5, 1.73112, 30.8802, 15.8162, 2.18296, -52.2093, -1.50417
5.072, 5, 1.69273, 30.9007, 15.817, 2.13254, -52.2739, -1.46897
5.076, 5, 1.65434, 30.9211, 15.8178, 2.08221, -52.3385, -1.43385
5.08, 5, 1.61594, 30.9415, 15.8186, 2.03197, -52.4032, -1.39883
5.084, 5, 1.57754, 30.9618, 15.8196, 1.98182, -52.4679, -1.36388
5.088, 5, 1.53914, 30.9821, 15.8206, 1.93177, -52.5327, -1.32903
5.092, 5, 1.50074, 31.0023, 15.8217, 1.88181, -52.5976, -1.29425
5.096, 5, 1.46234, 31.0224, 15.8229, 1.83194, -52.6625, -1.25957
5.1, 5, 1.42393, 31.0426, 15.8242, 1.78217, -52.7274, -1.22496
5.104, 5, 1.38552, 31.0626, 15.8255, 1.73249, -52.7924, -1.19044
5.108, 5, 1.34711, 31.0826, 15.827, 1.6829, -52.8575, -1.15601
5.112, 5, 1.3087, 31.1026, 15.8285, 1.6334, -52.9226, -1.12166
5.116, 5, 1.27029, 31.1225, 15.8301, 1.58399, -52.9878, -1.0874
5.12, 5, 1.23187, 31.1424, 15.8317, 1.53468, -53.053, -1.05322
5.124, 5, 1.19345, 31.1622, 15.8335, 1.48546, -53.1183, -1.01912
5.128, 5, 1.15503, 31.182, 15.8353, 1.43633, -53.1836, -0.985109
5.132, 5, 1.11661, 31.2017, 15.8372, 1.38729, -53.249, -0.951181
5.136, 5, 1.07819, 31.2214, 15.8392, 1.33834, -53.3144, -0.917336
5.14, 5, 1.03976, 31.241, 15.8413, 1.28948, -53.3799, -0.883575
5.144, 5, 1.00132, 31.2605, 15.8434, 1.24072, -53.4454, -0.849897
5.148, 5, 0.962879, 31.2799, 15.8457, 1.19204, -53.511, -0.816301
5.152, 5, 0.924429, 31.2993, 15.8481, 1.14346, -53.5767, -0.782788
5.156, 5, 0.885978, 31.3185, 15.8506, 1.09496, -53.6425, -0.749356
5.16, 5, 0.847536, 31.3376, 15.8533, 1.04655, -53.7083, -0.716004
5.164, 5, 0.809112, 31.3565, 15.8562, 0.998231, -53.7743, -0.682731
5.168, 5, 0.770716, 31.3752, 15.8594, 0.949995, -53.8404, -0.649537
5.172, 5, 0.732356, 31.3936, 15.863, 0.901847, -53.9067, -0.616423
5.176, 5, 0.694041, 31.4118, 15.8669, 0.853785, -53.9732, -0.583388
5.18, 5, 0.655777, 31.4297, 15.8713, 0.805813, -54.04, -0.550433
5.184, 5, 0.61757, 31.4472, 15.8762, 0.757934, -54.1071, -0.517562
5.188, 5, 0.579431, 31.4643, 15.8819, 0.710152, -54.1746, -0.484777
5.192, 5, 0.54137, 31.4809, 15.8882, 0.662473, -54.2425, -0.452083
5.196, 5, 0.503399, 31.497, 15.8955, 0.614904, -54.3108, -0.419485
5.2, 5, 0.465526, 31.5126, 15.9036, 0.567455, -54.3797, -0.38699
5.204, 5, 0.427754, 31.5276, 15.9129, 0.520138, -54.4492, -0.354606
5.208, 5, 0.390084, 31.542, 15.9233, 0.472965, -54.5193, -0.322343
5.212, 5, 0.352514, 31.5557, 15.9349, 0.42595, -54.59, -0.290211
5.216, 5, 0.315041, 31.5687, 15.9478, 0.379111, -54.6614, -0.258221
5.22, 6, 0.277664, 31.5809, 15.9621, 0.332464, -54.7336, -0.226386
5.224, 6, 0.240383, 31.5922, 15.9778, 0.286027, -54.8064, -0.194719
5.228, 6, 0.203201, 31.6028, 15.9951, 0.239818, -54.8799, -0.163233
5.232, 6, 0.166125, 31.6124, 16.0139, 0.193858, -54.9542, -0.131942
5.236, 6, 0.129162, 31.6212, 16.0342, 0.148165, -55.0292, -0.10086
5.24, 6, 0.0923204, 31.629, 16.0562, 0.10276, -55.1049, -0.0700003
5.244, 6, 0.05561, 31.6359, 16.0797, 0.0576608, -55.1813, -0.0393778
5.248, 6, 0.0190394, 31.6419, 16.1049, 0.0128871, -55.2583, -0.00900542
5.252, 6, -0.0173828, 31.6469, 16.1316, -0.0315436, -55.336, 0.0211042
5.256, 6, -0.0536486, 31.651, 16.16, -0.0756153, -55.4143, 0.0509397
5.26, 6, -0.0897501, 31.6542, 16.1898, -0.119314, -55.4932, 0.080491
5.264, 6, -0.125681, 31.6565, 16.2213, -0.162628, -55.5726, 0.10975
5.268, 6, -0.161439, 31.6579, 16.2541, -0.205548, -55.6525, 0.13871
5.272, 6, -0.197028, 31.6584, 16.2885, -0.248069, -55.7329, 0.167366
5.276, 6, -0.232455, 31.6581, 16.3241, -0.290188, -55.8137, 0.195716
5.28, 6, -0.267731, 31.6571, 16.3611, -0.331906, -55.8949, 0.223762
5.284, 6, -0.302862, 31.6553, 16.3993, -0.373229, -55.9765, 0.251507
5.288, 6, -0.337855, 31.6528, 16.4387, -0.414167, -56.0584, 0.278957
5.292, 6, -0.37271, 31.6497, 16.4791, -0.454733, -56.1406, 0.306122
5.296, 6, -0.407422, 31.646, 16.5205, -0.494947, -56.223, 0.333015
5.3, 6, -0.441989, 31.6417, 16.5627, -0.534828, -56.3057, 0.359648
5.304, 6, -0.476413, 31.6369, 16.6058, -0.574399, -56.3886, 0.386038
5.308, 6, -0.510701, 31.6316, 16.6495, -0.613684, -56.4717, 0.412201
5.312, 6, -0.544862, 31.6259, 16.6939, -0.652707, -56.5549, 0.438152
5.316, 6, -0.578899, 31.6198, 16.7388, -0.691491, -56.6382, 0.463909
5.32, 6, -0.61281, 31.6134, 16.7841, -0.73006, -56.7216, 0.489487
5.324, 6, -0.646586, 31.6067, 16.8298, -0.768434, -56.8052, 0.5149
5.328, 6, -0.680213, 31.5998, 16.8758, -0.806634, -56.8888, 0.540161
5.332, 6, -0.713686, 31.5926, 16.9221, -0.844676, -56.9725, 0.565283
5.336, 6, -0.747004, 31.5852, 16.9686, -0.882574, -57.0563, 0.590276
5.34, 6, -0.780177, 31.5777, 17.0153, -0.920341, -57.1402, 0.615146
5.344, 6, -0.813225, 31.5701, 17.0621, -0.957984, -57.224, 0.6399
5.348, 6, -0.846173, 31.5623, 17.1091, -0.995511, -57.308, 0.664543
5.352, 6, -0.879044, 31.5545, 17.1561, -1.03293, -57.392, 0.689077
5.356, 6, -0.911855, 31.5466, 17.2032, -1.07023, -57.476, 0.713505
5.36, 6, -0.944619, 31.5387, 17.2504, -1.10743, -57.5601, 0.737828
5.364, 6, -0.977344, 31.5307, 17.2977, -1.14452, -57.6443, 0.762048
5.368, 6, -1.01003, 31.5227, 17.345, -1.18151, -57.7285, 0.786165
5.372, 6, -1.0427, 31.5147, 17.3923, -1.2184, -57.8127, 0.810181
5.376, 6, -1.07533, 31.5066, 17.4398, -1.25519, -57.897, 0.834095
5.38, 6, -1.10794, 31.4986, 17.4873, -1.29187, -57.9813, 0.857909
5.384, 6, -1.14052, 31.4905, 17.5348, -1.32845, -58.0657, 0.881622
5.388, 6, -1.17308, 31.4824, 17.5824, -1.36494, -58.1501, 0.905235
5.392, 6, -1.20561, 31.4742, 17.6301, -1.40132, -58.2346, 0.928748
5.396, 6, -1.23813, 31.4661, 17.6778, -1.4376, -58.3191, 0.952162
5.4, 6, -1.27062, 31.4579, 17.7255, -1.47378, -58.4036, 0.975477
5.404, 6, -1.30308, 31.4497, 17.7733, -1.50986, -58.4882, 0.998693
5.408, 6, -1.33552, 31.4414, 17.8212, -1.54585, -58.5728, 1.02181
5.412, 6, -1.36794, 31.4332, 17.8691, -1.58173, -58.6575, 1.04483
5.416, 6, -1.40034, 31.4249, 17.9171, -1.61752, -58.7422, 1.06775
5.42, 6, -1.43272, 31.4167, 17.9651, -1.6532, -58.827, 1.09057
5.424, 6, -1.46507, 31.4084, 18.0131, -1.68879, -58.9118, 1.1133
5.428, 6, -1.49739, 31.4, 18.0613, -1.72429, -58.9967, 1.13592
5.432, 6, -1.5297, 31.3917, 18.1094, -1.75968, -59.0816, 1.15845
5.436, 6, -1.56198, 31.3834, 18.1577, -1.79498, -59.1665, 1.18089
5.44, 6, -1.59424, 31.375, 18.2059, -1.83018, -59.2515, 1.20322
5.444, 6, -1.62647, 31.3666, 18.2542, -1.86528, -59.3365, 1.22547
5.448, 6, -1.65868, 31.3582, 18.3026, -1.90029, -59.4216, 1.24761
5.452, 6, -1.69086, 31.3497, 18.351, -1.9352, -59.5067, 1.26966
5.456, 6, -1.72302, 31.3413, 18.3995, -1.97001, -59.5918, 1.29161
5.46, 6, -1.75516, 31.3328, 18.448, -2.00473, -59.677, 1.31347
5.464, 6, -1.78728, 31.3243, 18.4966, -2.03935, -59.7623, 1.33523
5.468, 6, -1.81936, 31.3158, 18.5452, -2.07388, -59.8476, 1.35689
5.472, 6, -1.85143, 31.3073, 18.5939, -2.10831, -59.9329, 1.37846
5.476, 6, -1.88347, 31.2988, 18.6426, -2.14265, -60.0182, 1.39994
5.48, 6, -1.91548, 31.2902, 18.6914, -2.17689, -60.1036, 1.42132
5.484, 6, -1.94747, 31.2817, 18.7402, -2.21104, -60.1891, 1.44261
5.488, 6, -1.97944, 31.2731, 18.789, -2.2451, -60.2746, 1.46381
5.492, 6, -2.01138, 31.2645, 18.838, -2.27906, -60.3601, 1.48491
5.496, 6, -2.04329, 31.2558, 18.8869, -2.31292, -60.4457, 1.50591
5.5, 6, -2.07518, 31.2472, 18.9359, -2.3467, -60.5313, 1.52683
5.504, 6, -2.10705, 31.2385, 18.985, -2.38038, -60.6169, 1.54765
5.508, 6, -2.13889, 31.2299, 19.0341, -2.41397, -60.7026, 1.56838
5.512, 6, -2.1707, 31.2212, 19.0833, -2.44746, -60.7884, 1.58901
5.516, 6, -2.20249, 31.2125, 19.1325, -2.48087, -60.8741, 1.60956
5.52, 6, -2.23425, 31.2037, 19.1817, -2.51418, -60.9599, 1.63001
5.524, 6, -2.26599, 31.195, 19.231, -2.5474, -61.0458, 1.65037
5.528, 6, -2.2977, 31.1863, 19.2803, -2.58053, -61.1317, 1.67063
5.532, 6, -2.32938, 31.1775, 19.3297, -2.61356, -61.2176, 1.69081
5.536, 6, -2.36104, 31.1687, 19.3792, -2.64651, -61.3036, 1.7109
5.54, 6, -2.39267, 31.1599, 19.4287, -2.67936, -61.3896, 1.73089
5.544, 6, -2.42428, 31.1511, 19.4782, -2.71213, -61.4757, 1.7508
5.548, 6, -2.45586, 31.1422, 19.5278, -2.7448, -61.5618, 1.77061
5.552, 6, -2.48741, 31.1334, 19.5774, -2.77738, -61.6479, 1.79033
5.556, 6, -2.51894, 31.1245, 19.6271, -2.80988, -61.7341, 1.80997
5.56, 6, -2.55044, 31.1156, 19.6768, -2.84228, -61.8203, 1.82951
5.564, 6, -2.58191, 31.1067, 19.7266, -2.87459, -61.9065, 1.84896
5.568, 6, -2.61335, 31.0978, 19.7764, -2.90682, -61.9928, 1.86833
5.572, 6, -2.64477, 31.0889, 19.8262, -2.93896, -62.0791, 1.8876
5.576, 6, -2.67616, 31.08, 19.8761, -2.971, -62.1655, 1.90679
5.58, 6, -2.70752, 31.071, 19.9261, -3.00296, -62.2519, 1.92589
5.584, 6, -2.73886, 31.062, 19.9761, -3.03483, -62.3383, 1.9449
5.588, 6, -2.77017, 31.0531, 20.0261, -3.06662, -62.4248, 1.96382
5.592, 6, -2.80145, 31.0441, 20.0762, -3.09831, -62.5113, 1.98265
5.596, 6, -2.8327, 31.0351, 20.1263, -3.12992, -62.5979, 2.0014
5.6, 6, -2.86392, 31.026, 20.1765, -3.16144, -62.6845, 2.02006
5.604, 6, -2.89512, 31.017, 20.2267, -3.19288, -62.7711, 2.03863
5.608, 6, -2.92629, 31.0079, 20.277, -3.22422, -62.8578, 2.05711
5.612, 6, -2.95743, 30.9989, 20.3273, -3.25548, -62.9445, 2.07551
5.616, 6, -2.98854, 30.9898, 20.3776, -3.28666, -63.0312, 2.09382
5.62, 6, -3.01962, 30.9807, 20.428, -3.31775, -63.118, 2.11204
5.624, 6, -3.05068, 30.9716, 20.4785, -3.34875, -63.2048, 2.13018
5.628, 6, -3.0817, 30.9625, 20.5289, -3.37967, -63.2917, 2.14823
5.632, 6, -3.1127, 30.9533, 20.5795, -3.4105, -63.3786, 2.1662
5.636, 6, -3.14367, 30.9442, 20.63, -3.44124, -63.4655, 2.18408
5.64, 6, -3.1746, 30.935, 20.6806, -3.4719, -63.5525, 2.20187
5.644, 6, -3.20551, 30.9259, 20.7313, -3.50248, -63.6395, 2.21958
5.648, 6, -3.23639, 30.9167, 20.782, -3.53298, -63.7265, 2.23721
5.652, 6, -3.26725, 30.9075, 20.8327, -3.56338, -63.8136, 2.25475
5.656, 6, -3.29807, 30.8983, 20.8835, -3.59371, -63.9007, 2.27221
5.66, 6, -3.32886, 30.889, 20.9344, -3.62395, -63.9879, 2.28958
5.664, 6, -3.35962, 30.8798, 20.9852, -3.65411, -64.075, 2.30687
5.668, 6, -3.39035, 30.8706, 21.0361, -3.68418, -64.1623, 2.32407
5.672, 6, -3.42105, 30.8613, 21.0871, -3.71417, -64.2495, 2.34119
5.676, 6, -3.45173, 30.852, 21.1381, -3.74408, -64.3368, 2.35823
5.68, 6, -3.48237, 30.8427, 21.1891, -3.77391, -64.4241, 2.37519
5.684, 6, -3.51298, 30.8335, 21.2402, -3.80365, -64.5115, 2.39206
5.688, 6, -3.54356, 30.8241, 21.2913, -3.83331, -64.5989, 2.40885
5.692, 6, -3.57411, 30.8148, 21.3425, -3.8629, -64.6863, 2.42555
5.696, 6, -3.60463, 30.8055, 21.3937, -3.89239, -64.7738, 2.44218
5.7, 6, -3.63512, 30.7962, 21.445, -3.92181, -64.8613, 2.45872
5.704, 6, -3.66558, 30.7868, 21.4962, -3.95115, -64.9488, 2.47518
5.708, 6, -3.696, 30.7775, 21.5476, -3.9804, -65.0364, 2.49156
5.712, 6, -3.7264, 30.7681, 21.5989, -4.00958, -65.124, 2.50786
5.716, 6, -3.75676, 30.7587, 21.6504, -4.03867, -65.2116, 2.52407
5.72, 6, -3.7871, 30.7493, 21.7018, -4.06769, -65.2993, 2.54021
5.724, 6, -3.8174, 30.7399, 21.7533, -4.09662, -65.387, 2.55627
5.728, 6, -3.84767, 30.7305, 21.8048, -4.12548, -65.4748, 2.57224
5.732, 6, -3.87791, 30.7211, 21.8564, -4.15425, -65.5626, 2.58813
5.736, 6, -3.90812, 30.7116, 21.908, -4.18295, -65.6504, 2.60395
5.74, 6, -3.93829, 30.7022, 21.9597, -4.21157, -65.7382, 2.61968
5.744, 6, -3.96844, 30.6927, 22.0114, -4.2401, -65.8261, 2.63534
5.748, 6, -3.99855, 30.6833, 22.0631, -4.26856, -65.914, 2.65091
5.752, 6, -4.02863, 30.6738, 22.1149, -4.29695, -66.0019, 2.66641
5.756, 6, -4.05868, 30.6643, 22.1667, -4.32525, -66.0899, 2.68183
5.76, 6, -4.08869, 30.6548, 22.2185, -4.35348, -66.1779, 2.69717
5.764, 6, -4.11868, 30.6453, 22.2704, -4.38162, -66.266, 2.71243
5.768, 6, -4.14863, 30.6358, 22.3223, -4.4097, -66.3541, 2.72761
5.772, 6, -4.17855, 30.6263, 22.3743, -4.43769, -66.4422, 2.74271
5.776, 6, -4.20844, 30.6167, 22.4263, -4.46561, -66.5303, 2.75774
5.78, 6, -4.23829, 30.6072, 22.4784, -4.49345, -66.6185, 2.77269
5.784, 6, -4.26811, 30.5977, 22.5304, -4.52122, -66.7067, 2.78756
5.788, 6, -4.2979, 30.5881, 22.5826, -4.54891, -66.795, 2.80236
5.792, 6, -4.32765, 30.5785, 22.6347, -4.57652, -66.8832, 2.81707
5.796, 6, -4.35737, 30.569, 22.6869, -4.60406, -66.9715, 2.83172
5.8, 6, -4.38706, 30.5594, 22.7392, -4.63153, -67.0599, 2.84628
5.804, 6, -4.41671, 30.5498, 22.7914, -4.65892, -67.1483, 2.86077
5.808, 6, -4.44633, 30.5402, 22.8438, -4.68623, -67.2367, 2.87518
5.812, 6, -4.47592, 30.5306, 22.8961, -4.71347, -67.3251, 2.88952
5.816, 6, -4.50547, 30.521, 22.9485, -4.74064, -67.4136, 2.90378
5.82, 6, -4.53499, 30.5113, 23.0009, -4.76773, -67.5021, 2.91796
5.824, 6, -4.56448, 30.5017, 23.0534, -4.79475, -67.5907, 2.93207
5.828, 6, -4.59393, 30.4921, 23.1059, -4.82169, -67.6792, 2.94611
5.832, 6, -4.62335, 30.4824, 23.1584, -4.84856, -67.7678, 2.96007
5.836, 6, -4.65273, 30.4728, 23.211, -4.87535, -67.8565, 2.97395
5.84, 6, -4.68208, 30.4631, 23.2636, -4.90208, -67.9452, 2.98776
5.844, 6, -4.7114, 30.4534, 23.3163, -4.92872, -68.0339, 3.00149
5.848, 6, -4.74067, 30.4438, 23.369, -4.9553, -68.1226, 3.01515
5.852, 6, -4.76992, 30.4341, 23.4217, -4.9818, -68.2114, 3.02873
5.856, 6, -4.79913, 30.4244, 23.4745, -5.00822, -68.3002, 3.04224
5.86, 6, -4.82831, 30.4147, 23.5273, -5.03458, -68.389, 3.05567
5.864, 6, -4.85745, 30.405, 23.5801, -5.06086, -68.4779, 3.06903
5.868, 6, -4.88655, 30.3953, 23.633, -5.08707, -68.5668, 3.08232
5.872, 6, -4.91562, 30.3856, 23.6859, -5.1132, -68.6557, 3.09553
5.876, 6, -4.94465, 30.3759, 23.7388, -5.13926, -68.7447, 3.10866
5.88, 6, -4.97365, 30.3661, 23.7918, -5.16525, -68.8337, 3.12173
5.884, 6, -5.00261, 30.3564, 23.8448, -5.19117, -68.9227, 3.13472
5.888, 6, -5.03154, 30.3467, 23.8979, -5.21702, -69.0118, 3.14763
5.892, 6, -5.06043, 30.3369, 23.951, -5.24279, -69.1008, 3.16047
5.896, 6, -5.08928, 30.3272, 24.0041, -5.26849, -69.19, 3.17324
5.9, 6, -5.1181, 30.3174, 24.0572, -5.29412, -69.2791, 3.18594
5.904, 6, -5.14688, 30.3077, 24.1104, -5.31967, -69.3683, 3.19856
5.908, 6, -5.17563, 30.2979, 24.1636, -5.34516, -69.4575, 3.21111
5.912, 6, -5.20433, 30.2882, 24.2169, -5.37057, -69.5468, 3.22358
5.916, 6, -5.23301, 30.2784, 24.2702, -5.39591, -69.636, 3.23598
5.92, 6, -5.26164, 30.2686, 24.3235, -5.42118, -69.7253, 3.24831
5.924, 6, -5.29023, 30.2588, 24.3769, -5.44638, -69.8147, 3.26057
5.928, 6, -5.31879, 30.249, 24.4303, -5.47151, -69.9041, 3.27275
5.932, 6, -5.34731, 30.2393, 24.4837, -5.49656, -69.9935, 3.28487
5.936, 6, -5.3758, 30.2295, 24.5372, -5.52155, -70.0829, 3.29691
5.94, 6, -5.40424, 30.2197, 24.5907, -5.54646, -70.1724, 3.30887
5.944, 6, -5.43265, 30.2099, 24.6442, -5.57131, -70.2618, 3.32077
5.948, 6, -5.46102, 30.2001, 24.6978, -5.59608, -70.3514, 3.33259
5.952, 6, -5.48935, 30.1902, 24.7513, -5.62078, -70.4409, 3.34434
5.956, 6, -5.51765, 30.1804, 24.805, -5.64542, -70.5305, 3.35603
