hehonglu123/ABB_Primitive_Study/execution/movec_30_car/curve_exe_v300_z10.csv
timestamp, cmd_num, J1, J2, J3, J4, J5, J6
0, -1, -11.8209, 27.637, 43.2514, -10.4208, -101.239, 3.92109
0.002, -1, -11.8209, 27.637, 43.2514, -10.4208, -101.239, 3.92109
0.004, -1, -11.8209, 27.637, 43.2514, -10.4208, -101.239, 3.92109
0.008, -1, -11.8209, 27.637, 43.2514, -10.4208, -101.239, 3.92109
0.011, -1, -11.8209, 27.637, 43.2514, -10.4208, -101.239, 3.92109
0.016, -1, -11.8209, 27.637, 43.2514, -10.4208, -101.239, 3.92109
0.02, -1, -11.8209, 27.637, 43.2514, -10.4208, -101.239, 3.92109
0.024, -1, -11.8209, 27.637, 43.2514, -10.4208, -101.239, 3.92109
0.028, -1, -11.8209, 27.637, 43.2514, -10.4208, -101.239, 3.92109
0.032, -1, -11.8209, 27.637, 43.2514, -10.4208, -101.239, 3.92109
0.036, -1, -11.8208, 27.637, 43.2514, -10.4208, -101.239, 3.92108
0.04, -1, -11.8206, 27.6369, 43.2514, -10.4208, -101.239, 3.92108
0.044, -1, -11.8199, 27.6367, 43.2513, -10.4208, -101.239, 3.92105
0.048, -1, -11.8188, 27.6363, 43.2513, -10.4207, -101.239, 3.92098
0.052, -1, -11.8169, 27.6357, 43.2511, -10.4205, -101.239, 3.92081
0.056, -1, -11.8142, 27.6347, 43.2509, -10.42, -101.238, 3.92043
0.06, -1, -11.8106, 27.6334, 43.2504, -10.419, -101.236, 3.91973
0.064, -1, -11.8059, 27.6315, 43.2496, -10.4173, -101.234, 3.9185
0.068, -1, -11.8, 27.6291, 43.2483, -10.4146, -101.23, 3.91654
0.072, -1, -11.7928, 27.626, 43.2465, -10.4103, -101.223, 3.91354
0.076, -1, -11.7838, 27.6222, 43.2437, -10.4041, -101.214, 3.90917
0.08, -1, -11.7728, 27.6173, 43.2399, -10.3954, -101.201, 3.90303
0.084, -1, -11.7593, 27.6114, 43.2348, -10.3836, -101.183, 3.89469
0.088, -1, -11.7432, 27.6044, 43.2281, -10.3678, -101.159, 3.88364
0.092, -1, -11.7244, 27.5963, 43.2194, -10.3474, -101.128, 3.86937
0.096, -1, -11.7027, 27.5871, 43.2085, -10.3216, -101.09, 3.85137
0.1, -1, -11.6782, 27.5767, 43.1952, -10.2898, -101.042, 3.82914
0.104, -1, -11.6506, 27.5654, 43.1791, -10.2512, -100.985, 3.80229
0.108, -1, -11.6199, 27.5528, 43.1601, -10.2055, -100.916, 3.77048
0.112, -1, -11.5859, 27.5392, 43.138, -10.1523, -100.837, 3.73348
0.116, -1, -11.5485, 27.5242, 43.1128, -10.0915, -100.746, 3.69117
0.12, -1, -11.5074, 27.5079, 43.0844, -10.0229, -100.644, 3.64352
0.124, -1, -11.4628, 27.4904, 43.053, -9.94673, -100.53, 3.5906
0.128, -1, -11.4147, 27.4716, 43.0185, -9.8632, -100.406, 3.53258
0.131, -1, -11.3633, 27.4515, 42.9811, -9.77265, -100.271, 3.46969
0.136, -1, -11.3087, 27.4303, 42.941, -9.67555, -100.126, 3.40227
0.139, -1, -11.251, 27.4079, 42.8985, -9.57247, -99.9725, 3.33069
0.144, -1, -11.1903, 27.3844, 42.8538, -9.46403, -99.8108, 3.25539
0.148, -1, -11.1266, 27.3596, 42.807, -9.35088, -99.6422, 3.17682
0.152, -1, -11.0601, 27.3337, 42.7586, -9.23367, -99.4675, 3.09542
0.156, -1, -10.9909, 27.3067, 42.7087, -9.11298, -99.2876, 3.01159
0.16, -1, -10.9195, 27.2787, 42.6576, -8.98935, -99.1033, 2.92571
0.164, -1, -10.8461, 27.2499, 42.6054, -8.86324, -98.9152, 2.8381
0.168, -1, -10.7711, 27.2203, 42.5523, -8.73504, -98.7241, 2.74903
0.172, -1, -10.6947, 27.1902, 42.4985, -8.60512, -98.5303, 2.65876
0.176, -1, -10.6172, 27.1595, 42.4441, -8.47377, -98.3344, 2.56749
0.18, -1, -10.5385, 27.1283, 42.3892, -8.34126, -98.1368, 2.4754
0.184, -1, -10.459, 27.0968, 42.3339, -8.2078, -97.9377, 2.38265
0.188, -1, -10.3785, 27.0649, 42.2783, -8.07358, -97.7375, 2.28937
0.192, -1, -10.2973, 27.0327, 42.2224, -7.93872, -97.5364, 2.19564
0.196, -1, -10.2155, 27.0003, 42.1662, -7.80334, -97.3344, 2.10154
0.2, -1, -10.1331, 26.9676, 42.1099, -7.6675, -97.1317, 2.00712
0.204, -1, -10.0503, 26.9348, 42.0533, -7.53125, -96.9285, 1.91241
0.208, -1, -9.9672, 26.9019, 41.9967, -7.39462, -96.7247, 1.81744
0.212, -1, -9.88379, 26.8688, 41.9399, -7.25765, -96.5203, 1.72223
0.216, -1, -9.80013, 26.8356, 41.8829, -7.12034, -96.3155, 1.62679
0.22, -1, -9.71623, 26.8024, 41.8258, -6.98271, -96.1101, 1.53111
0.224, -1, -9.63212, 26.769, 41.7686, -6.84476, -95.9043, 1.43522
0.228, -1, -9.54781, 26.7356, 41.7112, -6.7065, -95.6981, 1.33912
0.232, -1, -9.46329, 26.7021, 41.6537, -6.56794, -95.4914, 1.2428
0.236, -1, -9.37859, 26.6685, 41.5961, -6.42908, -95.2842, 1.14628
0.24, -1, -9.29371, 26.6349, 41.5384, -6.28992, -95.0766, 1.04954
0.244, -1, -9.20864, 26.6011, 41.4805, -6.15046, -94.8685, 0.952603
0.248, -1, -9.12338, 26.5673, 41.4226, -6.01071, -94.66, 0.85546
0.252, -1, -9.03795, 26.5335, 41.3645, -5.87067, -94.4511, 0.758115
0.256, -1, -8.95235, 26.4995, 41.3062, -5.73034, -94.2418, 0.660569
0.26, -1, -8.86656, 26.4655, 41.2479, -5.58972, -94.032, 0.562823
0.264, -1, -8.78061, 26.4315, 41.1895, -5.44882, -93.8218, 0.464879
0.268, -1, -8.69448, 26.3973, 41.1309, -5.30764, -93.6111, 0.366738
0.272, -1, -8.60818, 26.3631, 41.0722, -5.16617, -93.4001, 0.2684
0.276, -1, -8.52171, 26.3288, 41.0134, -5.02442, -93.1886, 0.169869
0.28, -1, -8.43507, 26.2945, 40.9545, -4.8824, -92.9767, 0.0711437
0.284, -1, -8.34827, 26.2601, 40.8954, -4.74009, -92.7644, -0.027773
0.288, -1, -8.2613, 26.2256, 40.8363, -4.59752, -92.5517, -0.12688
0.292, -1, -8.17417, 26.191, 40.777, -4.45467, -92.3386, -0.226175
0.296, -1, -8.08688, 26.1564, 40.7177, -4.31156, -92.1251, -0.325657
0.3, -1, -7.99944, 26.1218, 40.6582, -4.16818, -91.9112, -0.425324
0.304, -1, -7.91184, 26.087, 40.5986, -4.02454, -91.6969, -0.525173
0.308, -1, -7.82408, 26.0522, 40.5389, -3.88064, -91.4822, -0.625202
0.312, -1, -7.73618, 26.0174, 40.4791, -3.73648, -91.2672, -0.725408
0.316, -1, -7.64814, 25.9825, 40.4192, -3.59207, -91.0517, -0.825789
0.32, -1, -7.55995, 25.9475, 40.3592, -3.44742, -90.8359, -0.926341
0.324, -1, -7.47161, 25.9125, 40.299, -3.30252, -90.6198, -1.02706
0.328, -1, -7.38314, 25.8774, 40.2388, -3.15738, -90.4032, -1.12795
0.332, -1, -7.29454, 25.8422, 40.1785, -3.01202, -90.1864, -1.229
0.336, -1, -7.20579, 25.807, 40.1181, -2.86642, -89.9691, -1.3302
0.34, -1, -7.11692, 25.7718, 40.0576, -2.7206, -89.7516, -1.43156
0.344, -1, -7.02791, 25.7365, 39.997, -2.57457, -89.5337, -1.53307
0.348, -1, -6.93879, 25.7011, 39.9364, -2.42832, -89.3156, -1.63473
0.352, -1, -6.84954, 25.6657, 39.8756, -2.28187, -89.0971, -1.73653
0.356, -1, -6.76017, 25.6303, 39.8148, -2.13522, -88.8783, -1.83847
0.36, -1, -6.67068, 25.5948, 39.7538, -1.98837, -88.6592, -1.94055
0.364, -1, -6.58109, 25.5593, 39.6928, -1.84134, -88.4398, -2.04276
0.368, -1, -6.49138, 25.5237, 39.6318, -1.69412, -88.2202, -2.14509
0.372, -1, -6.40157, 25.488, 39.5706, -1.54672, -88.0003, -2.24755
0.376, -1, -6.31166, 25.4524, 39.5094, -1.39915, -87.7802, -2.35013
0.38, -1, -6.22164, 25.4167, 39.4481, -1.25142, -87.5598, -2.45282
0.384, -1, -6.13154, 25.3809, 39.3867, -1.10353, -87.3391, -2.55562
0.388, -1, -6.04134, 25.3451, 39.3253, -0.955482, -87.1182, -2.65853
0.392, -1, -5.95105, 25.3093, 39.2639, -0.807292, -86.8972, -2.76154
0.396, -1, -5.86068, 25.2735, 39.2023, -0.658961, -86.6759, -2.86465
0.4, -1, -5.77023, 25.2376, 39.1407, -0.510497, -86.4544, -2.96785
0.404, -1, -5.6797, 25.2017, 39.0791, -0.361907, -86.2327, -3.07114
0.408, -1, -5.58909, 25.1658, 39.0174, -0.213195, -86.0109, -3.17451
0.412, -1, -5.49843, 25.1298, 38.9556, -0.0643699, -85.7888, -3.27796
0.416, -1, -5.40769, 25.0938, 38.8938, 0.084563, -85.5666, -3.38149
0.42, -1, -5.3169, 25.0578, 38.832, 0.233597, -85.3443, -3.48508
0.424, -1, -5.22606, 25.0217, 38.7701, 0.382725, -85.1218, -3.58874
0.428, -1, -5.13516, 24.9857, 38.7082, 0.531939, -84.8992, -3.69246
0.432, -1, -5.04422, 24.9496, 38.6463, 0.681234, -84.6765, -3.79624
0.436, -1, -4.95323, 24.9135, 38.5843, 0.830602, -84.4536, -3.90007
0.44, -1, -4.86221, 24.8774, 38.5223, 0.980034, -84.2307, -4.00394
0.444, -1, -4.77115, 24.8413, 38.4603, 1.12953, -84.0077, -4.10786
0.448, -1, -4.68007, 24.8051, 38.3983, 1.27907, -83.7846, -4.2118
0.452, -1, -4.58896, 24.769, 38.3362, 1.42865, -83.5614, -4.31578
0.456, -1, -4.49784, 24.7329, 38.2741, 1.57827, -83.3382, -4.41979
0.46, -1, -4.40671, 24.6967, 38.212, 1.72792, -83.1149, -4.52381
0.464, -1, -4.31556, 24.6605, 38.15, 1.87758, -82.8917, -4.62785
0.468, -1, -4.22441, 24.6244, 38.0879, 2.02726, -82.6684, -4.73189
0.472, -1, -4.13326, 24.5882, 38.0258, 2.17694, -82.4451, -4.83594
0.476, -1, -4.04211, 24.552, 37.9636, 2.32662, -82.2217, -4.93998
0.48, -1, -3.95098, 24.5159, 37.9016, 2.47628, -81.9985, -5.04401
0.484, -1, -3.85986, 24.4797, 37.8395, 2.62592, -81.7752, -5.14803
0.488, -1, -3.76876, 24.4436, 37.7774, 2.77553, -81.552, -5.25202
0.492, -1, -3.67769, 24.4075, 37.7154, 2.92509, -81.3289, -5.35599
0.496, -1, -3.58665, 24.3713, 37.6533, 3.07461, -81.1058, -5.45992
0.5, -1, -3.49564, 24.3352, 37.5913, 3.22408, -80.8829, -5.56381
0.504, -1, -3.40467, 24.2992, 37.5293, 3.37347, -80.66, -5.66766
0.508, -1, -3.31375, 24.2631, 37.4674, 3.52279, -80.4372, -5.77146
0.512, -1, -3.22288, 24.227, 37.4054, 3.67203, -80.2146, -5.87519
0.516, -1, -3.13206, 24.191, 37.3436, 3.82118, -79.9921, -5.97887
0.52, -1, -3.0413, 24.155, 37.2817, 3.97022, -79.7697, -6.08247
0.524, -1, -2.95061, 24.119, 37.2199, 4.11915, -79.5475, -6.186
0.528, -1, -2.85999, 24.0831, 37.1582, 4.26797, -79.3255, -6.28944
0.532, -1, -2.76944, 24.0472, 37.0965, 4.41666, -79.1037, -6.3928
0.536, -1, -2.67898, 24.0113, 37.0349, 4.56522, -78.882, -6.49606
0.54, -1, -2.58859, 23.9754, 36.9733, 4.71363, -78.6606, -6.59923
0.544, -1, -2.49829, 23.9396, 36.9118, 4.86189, -78.4394, -6.70228
0.548, -1, -2.40809, 23.9038, 36.8503, 5.00999, -78.2185, -6.80523
0.552, -1, -2.31798, 23.8681, 36.7889, 5.15792, -77.9978, -6.90806
0.556, -1, -2.22797, 23.8324, 36.7276, 5.30568, -77.7773, -7.01077
0.56, -1, -2.13807, 23.7967, 36.6664, 5.45326, -77.5572, -7.11336
0.564, -1, -2.04828, 23.7611, 36.6053, 5.60064, -77.3373, -7.2158
0.568, -1, -1.9586, 23.7256, 36.5442, 5.74782, -77.1177, -7.31811
0.572, -1, -1.86904, 23.6901, 36.4832, 5.8948, -76.8984, -7.42028
0.576, -1, -1.7796, 23.6546, 36.4223, 6.04157, -76.6795, -7.5223
0.58, -1, -1.6903, 23.6192, 36.3615, 6.18811, -76.4609, -7.62416
0.584, -1, -1.60113, 23.5839, 36.3008, 6.33442, -76.2426, -7.72587
0.588, -1, -1.5121, 23.5486, 36.2402, 6.4805, -76.0246, -7.82741
0.592, -1, -1.42322, 23.5134, 36.1797, 6.62634, -75.8071, -7.92879
0.596, -1, -1.33448, 23.4782, 36.1193, 6.77193, -75.5899, -8.02999
0.6, -1, -1.2459, 23.4431, 36.059, 6.91726, -75.3731, -8.13101
0.604, -1, -1.15748, 23.408, 35.9988, 7.06233, -75.1566, -8.23185
0.608, -1, -1.06922, 23.373, 35.9387, 7.20713, -74.9406, -8.3325
0.612, -1, -0.98112, 23.3381, 35.8787, 7.35165, -74.725, -8.43296
0.616, -1, -0.893193, 23.3033, 35.8189, 7.49589, -74.5098, -8.53323
0.62, -1, -0.805439, 23.2685, 35.7592, 7.63985, -74.295, -8.63329
0.624, -1, -0.717861, 23.2338, 35.6995, 7.78351, -74.0807, -8.73316
0.628, -1, -0.630465, 23.1991, 35.6401, 7.92687, -73.8668, -8.83281
0.632, -1, -0.543252, 23.1646, 35.5807, 8.06993, -73.6534, -8.93225
0.636, -1, -0.456226, 23.1301, 35.5215, 8.21268, -73.4404, -9.03148
0.64, -1, -0.369389, 23.0957, 35.4624, 8.35511, -73.2279, -9.13049
0.644, -1, -0.282746, 23.0613, 35.4034, 8.49722, -73.0159, -9.22927
0.648, -1, -0.196298, 23.0271, 35.3446, 8.63901, -72.8044, -9.32783
0.652, -1, -0.110049, 22.9929, 35.2859, 8.78046, -72.5934, -9.42616
0.656, -1, -0.0240014, 22.9588, 35.2273, 8.92158, -72.3828, -9.52425
0.66, -1, 0.0618417, 22.9248, 35.1689, 9.06236, -72.1728, -9.62211
0.664, -1, 0.147478, 22.8908, 35.1106, 9.2028, -71.9633, -9.71973
0.668, -1, 0.232905, 22.857, 35.0525, 9.34289, -71.7543, -9.81711
0.672, -1, 0.318122, 22.8232, 34.9945, 9.48263, -71.5458, -9.91425
0.676, -1, 0.403125, 22.7895, 34.9367, 9.62201, -71.3379, -10.0111
0.68, -1, 0.487913, 22.7559, 34.879, 9.76104, -71.1304, -10.1078
0.684, -1, 0.572484, 22.7224, 34.8215, 9.8997, -70.9236, -10.2042
0.688, -1, 0.656834, 22.689, 34.7641, 10.038, -70.7173, -10.3003
0.692, -1, 0.740962, 22.6557, 34.7069, 10.1759, -70.5115, -10.3962
0.696, -1, 0.824867, 22.6224, 34.6498, 10.3135, -70.3062, -10.4918
0.7, -1, 0.908546, 22.5892, 34.5929, 10.4507, -70.1016, -10.5872
0.704, -1, 0.991999, 22.5562, 34.5361, 10.5875, -69.8974, -10.6823
0.708, -1, 1.07522, 22.5232, 34.4795, 10.7239, -69.6939, -10.7771
0.712, -1, 1.15822, 22.4903, 34.423, 10.86, -69.4909, -10.8717
0.716, -1, 1.24098, 22.4575, 34.3667, 10.9957, -69.2885, -10.966
0.72, -1, 1.32352, 22.4248, 34.3106, 11.131, -69.0866, -11.0601
0.724, -1, 1.40582, 22.3922, 34.2546, 11.2659, -68.8853, -11.1539
0.728, -1, 1.48788, 22.3597, 34.1988, 11.4004, -68.6846, -11.2474
0.732, -1, 1.56971, 22.3272, 34.1431, 11.5346, -68.4845, -11.3406
0.736, -1, 1.65131, 22.2949, 34.0876, 11.6683, -68.285, -11.4336
0.74, -1, 1.73267, 22.2627, 34.0323, 11.8017, -68.086, -11.5263
0.744, -1, 1.81379, 22.2305, 33.9771, 11.9347, -67.8876, -11.6187
0.748, -1, 1.89467, 22.1985, 33.9221, 12.0673, -67.6898, -11.7109
0.752, -1, 1.97531, 22.1665, 33.8672, 12.1995, -67.4926, -11.8028
0.756, -1, 2.05572, 22.1347, 33.8125, 12.3313, -67.296, -11.8944
0.76, -1, 2.13588, 22.1029, 33.758, 12.4626, -67.0999, -11.9857
0.764, -1, 2.2158, 22.0712, 33.7037, 12.5936, -66.9045, -12.0768
0.768, -1, 2.29548, 22.0397, 33.6495, 12.7243, -66.7097, -12.1676
0.772, -1, 2.37492, 22.0082, 33.5954, 12.8545, -66.5154, -12.2581
0.776, -1, 2.45412, 21.9768, 33.5416, 12.9843, -66.3217, -12.3483
0.78, -1, 2.53307, 21.9455, 33.4879, 13.1137, -66.1287, -12.4383
0.784, -1, 2.61178, 21.9143, 33.4343, 13.2427, -65.9362, -12.5279
0.788, -1, 2.69025, 21.8832, 33.381, 13.3713, -65.7444, -12.6173
0.792, -1, 2.76848, 21.8522, 33.3278, 13.4995, -65.5531, -12.7065
0.796, -1, 2.84646, 21.8213, 33.2748, 13.6273, -65.3624, -12.7953
0.8, -1, 2.92419, 21.7905, 33.2219, 13.7547, -65.1723, -12.8839
0.804, -1, 3.00168, 21.7598, 33.1692, 13.8817, -64.9829, -12.9721
0.808, -1, 3.07893, 21.7292, 33.1167, 14.0083, -64.794, -13.0602
0.812, -1, 3.15594, 21.6987, 33.0643, 14.1345, -64.6057, -13.1479
0.816, -1, 3.2327, 21.6683, 33.0121, 14.2603, -64.418, -13.2353
0.82, -1, 3.30921, 21.638, 32.9601, 14.3857, -64.231, -13.3225
0.824, -1, 3.38548, 21.6078, 32.9082, 14.5107, -64.0445, -13.4094
0.828, -1, 3.46151, 21.5776, 32.8565, 14.6353, -63.8586, -13.496
0.832, -1, 3.53729, 21.5476, 32.805, 14.7595, -63.6733, -13.5823
0.836, -1, 3.61283, 21.5177, 32.7536, 14.8833, -63.4886, -13.6684
0.84, -1, 3.68813, 21.4878, 32.7024, 15.0067, -63.3046, -13.7541
0.844, -1, 3.76318, 21.4581, 32.6514, 15.1296, -63.1211, -13.8396
0.848, -1, 3.83799, 21.4285, 32.6005, 15.2522, -62.9382, -13.9248
0.852, -1, 3.91256, 21.3989, 32.5498, 15.3744, -62.7559, -14.0098
0.856, -1, 3.98689, 21.3695, 32.4993, 15.4962, -62.5742, -14.0944
0.86, -1, 4.06097, 21.3401, 32.4489, 15.6176, -62.393, -14.1788
0.864, -1, 4.13482, 21.3109, 32.3987, 15.7386, -62.2125, -14.2629
0.868, -1, 4.20842, 21.2817, 32.3486, 15.8592, -62.0326, -14.3468
0.872, -1, 4.28179, 21.2526, 32.2988, 15.9794, -61.8533, -14.4303
0.876, -1, 4.35492, 21.2236, 32.249, 16.0993, -61.6745, -14.5136
0.88, -1, 4.42781, 21.1948, 32.1995, 16.2187, -61.4963, -14.5966
0.884, -1, 4.50047, 21.166, 32.1501, 16.3377, -61.3187, -14.6794
0.888, -1, 4.57289, 21.1373, 32.1009, 16.4564, -61.1417, -14.7619
0.892, -1, 4.64507, 21.1087, 32.0518, 16.5746, -60.9653, -14.8441
0.896, -1, 4.71702, 21.0802, 32.0029, 16.6925, -60.7895, -14.926
0.9, -1, 4.78874, 21.0517, 31.9541, 16.81, -60.6142, -15.0077
0.904, -1, 4.86022, 21.0234, 31.9055, 16.9271, -60.4395, -15.0891
0.908, -1, 4.93148, 20.9952, 31.8571, 17.0438, -60.2653, -15.1702
0.912, -1, 5.0025, 20.967, 31.8088, 17.1602, -60.0917, -15.2511
0.916, -1, 5.07329, 20.939, 31.7607, 17.2762, -59.9187, -15.3317
0.92, -1, 5.14386, 20.911, 31.7127, 17.3918, -59.7462, -15.4121
0.924, -1, 5.2142, 20.8832, 31.6649, 17.507, -59.5743, -15.4922
0.928, -1, 5.28431, 20.8554, 31.6173, 17.6218, -59.403, -15.572
0.932, -1, 5.3542, 20.8277, 31.5698, 17.7363, -59.2322, -15.6516
0.936, -1, 5.42387, 20.8001, 31.5224, 17.8505, -59.0619, -15.7309
0.94, -1, 5.49331, 20.7726, 31.4752, 17.9642, -58.8922, -15.81
0.944, -1, 5.56253, 20.7451, 31.4282, 18.0776, -58.723, -15.8888
0.948, -1, 5.63153, 20.7178, 31.3812, 18.1907, -58.5544, -15.9674
0.952, -1, 5.70032, 20.6905, 31.3345, 18.3033, -58.3862, -16.0457
0.956, -1, 5.76889, 20.6634, 31.2879, 18.4157, -58.2187, -16.1238
0.96, -1, 5.83724, 20.6363, 31.2414, 18.5276, -58.0516, -16.2017
0.964, -1, 5.90538, 20.6093, 31.1951, 18.6393, -57.8851, -16.2793
0.968, -1, 5.9733, 20.5824, 31.1489, 18.7505, -57.7191, -16.3566
0.972, -1, 6.04101, 20.5556, 31.1029, 18.8615, -57.5536, -16.4337
0.976, -1, 6.10851, 20.5288, 31.057, 18.972, -57.3886, -16.5106
0.98, -1, 6.1758, 20.5021, 31.0113, 19.0823, -57.2242, -16.5872
0.984, -1, 6.24288, 20.4756, 30.9657, 19.1922, -57.0602, -16.6636
0.988, -1, 6.30975, 20.4491, 30.9202, 19.3017, -56.8968, -16.7397
0.992, -1, 6.37641, 20.4227, 30.8749, 19.4109, -56.7339, -16.8156
0.996, -1, 6.44287, 20.3963, 30.8298, 19.5198, -56.5715, -16.8913
1, -1, 6.50913, 20.3701, 30.7847, 19.6283, -56.4095, -16.9668
1.004, -1, 6.57518, 20.3439, 30.7398, 19.7365, -56.2481, -17.042
1.008, -1, 6.64103, 20.3178, 30.6951, 19.8444, -56.0872, -17.117
1.012, -1, 6.70668, 20.2918, 30.6504, 19.9519, -55.9267, -17.1917
1.016, -1, 6.77212, 20.2659, 30.606, 20.0591, -55.7668, -17.2663
1.02, -1, 6.83737, 20.24, 30.5616, 20.166, -55.6073, -17.3406
1.024, -1, 6.90243, 20.2142, 30.5174, 20.2726, -55.4483, -17.4146
1.027, -1, 6.96728, 20.1885, 30.4733, 20.3788, -55.2898, -17.4885
1.032, -1, 7.03194, 20.1629, 30.4294, 20.4848, -55.1318, -17.5621
1.036, -1, 7.0964, 20.1374, 30.3855, 20.5904, -54.9743, -17.6355
1.04, -1, 7.16067, 20.1119, 30.3418, 20.6957, -54.8172, -17.7087
1.044, -1, 7.22475, 20.0865, 30.2983, 20.8006, -54.6606, -17.7817
1.048, -1, 7.28864, 20.0612, 30.2549, 20.9053, -54.5044, -17.8544
1.052, -1, 7.35234, 20.036, 30.2116, 21.0096, -54.3487, -17.927
1.055, -1, 7.41585, 20.0108, 30.1684, 21.1137, -54.1935, -17.9993
1.06, -1, 7.47917, 19.9857, 30.1254, 21.2174, -54.0388, -18.0714
1.064, -1, 7.5423, 19.9607, 30.0824, 21.3208, -53.8845, -18.1433
1.068, -1, 7.60525, 19.9357, 30.0397, 21.4239, -53.7307, -18.215
1.072, -1, 7.66801, 19.9109, 29.997, 21.5268, -53.5773, -18.2864
1.076, -1, 7.73058, 19.8861, 29.9545, 21.6293, -53.4243, -18.3577
1.08, -1, 7.79298, 19.8614, 29.9121, 21.7315, -53.2718, -18.4287
1.084, -1, 7.85519, 19.8367, 29.8698, 21.8334, -53.1198, -18.4996
1.088, -1, 7.91722, 19.8121, 29.8276, 21.935, -52.9682, -18.5702
1.091, -1, 7.97907, 19.7876, 29.7856, 22.0363, -52.817, -18.6407
1.096, -1, 8.04075, 19.7632, 29.7436, 22.1374, -52.6663, -18.7109
1.1, -1, 8.10224, 19.7388, 29.7018, 22.2381, -52.516, -18.7809
1.104, -1, 8.16356, 19.7145, 29.6602, 22.3386, -52.3661, -18.8507
1.108, -1, 8.2247, 19.6903, 29.6186, 22.4387, -52.2167, -18.9204
1.112, -1, 8.28567, 19.6661, 29.5772, 22.5386, -52.0677, -18.9898
1.116, -1, 8.34646, 19.642, 29.5358, 22.6382, -51.9191, -19.059
1.119, -1, 8.40708, 19.618, 29.4946, 22.7375, -51.771, -19.128
1.124, -1, 8.46752, 19.5941, 29.4536, 22.8365, -51.6233, -19.1969
1.128, -1, 8.5278, 19.5702, 29.4126, 22.9353, -51.4759, -19.2655
1.132, -1, 8.5879, 19.5464, 29.3717, 23.0337, -51.329, -19.334
1.136, -1, 8.64784, 19.5226, 29.331, 23.1319, -51.1826, -19.4022
1.14, -1, 8.70761, 19.4989, 29.2904, 23.2298, -51.0365, -19.4703
1.144, -1, 8.76721, 19.4753, 29.2499, 23.3274, -50.8908, -19.5381
1.147, -1, 8.82664, 19.4518, 29.2095, 23.4248, -50.7456, -19.6058
1.152, -1, 8.88591, 19.4283, 29.1692, 23.5219, -50.6007, -19.6733
1.156, -1, 8.94502, 19.4049, 29.129, 23.6187, -50.4563, -19.7406
1.16, -1, 9.00397, 19.3815, 29.0889, 23.7153, -50.3122, -19.8077
1.164, -1, 9.06275, 19.3582, 29.049, 23.8116, -50.1686, -19.8747
1.168, -1, 9.12137, 19.335, 29.0091, 23.9076, -50.0253, -19.9414
1.172, -1, 9.17983, 19.3118, 28.9694, 24.0034, -49.8825, -20.008
1.175, -1, 9.23814, 19.2887, 28.9298, 24.0989, -49.74, -20.0744
1.18, -1, 9.29628, 19.2657, 28.8903, 24.1941, -49.5979, -20.1406
1.184, -1, 9.35427, 19.2427, 28.8508, 24.2891, -49.4562, -20.2066
1.188, -1, 9.4121, 19.2198, 28.8115, 24.3838, -49.3148, -20.2724
1.192, -1, 9.46978, 19.1969, 28.7723, 24.4783, -49.1739, -20.3381
1.196, -1, 9.5273, 19.1741, 28.7332, 24.5725, -49.0333, -20.4036
1.2, -1, 9.58467, 19.1514, 28.6943, 24.6665, -48.8931, -20.4689
1.204, -1, 9.64189, 19.1287, 28.6554, 24.7602, -48.7533, -20.5341
1.208, -1, 9.69896, 19.1061, 28.6166, 24.8537, -48.6138, -20.5991
1.212, -1, 9.75588, 19.0836, 28.5779, 24.947, -48.4747, -20.6639
1.216, -1, 9.81265, 19.0611, 28.5393, 25.0399, -48.336, -20.7285
1.22, -1, 9.86927, 19.0386, 28.5008, 25.1327, -48.1976, -20.793
1.224, -1, 9.92575, 19.0163, 28.4624, 25.2252, -48.0596, -20.8573
1.228, -1, 9.98208, 18.9939, 28.4241, 25.3175, -47.9219, -20.9215
1.232, -1, 10.0383, 18.9717, 28.386, 25.4095, -47.7846, -20.9854
1.236, -1, 10.0943, 18.9495, 28.3479, 25.5013, -47.6476, -21.0493
1.24, -1, 10.1502, 18.9273, 28.3099, 25.5929, -47.511, -21.1129
1.244, -1, 10.206, 18.9052, 28.272, 25.6842, -47.3748, -21.1764
1.248, -1, 10.2616, 18.8832, 28.2342, 25.7753, -47.2388, -21.2397
1.252, -1, 10.3171, 18.8612, 28.1965, 25.8662, -47.1033, -21.3029
1.256, -1, 10.3724, 18.8393, 28.1589, 25.9569, -46.968, -21.3659
1.26, -1, 10.4276, 18.8174, 28.1213, 26.0473, -46.8331, -21.4288
1.264, -1, 10.4827, 18.7956, 28.0839, 26.1375, -46.6986, -21.4915
1.267, -1, 10.5376, 18.7738, 28.0466, 26.2275, -46.5643, -21.554
1.272, -1, 10.5924, 18.7521, 28.0093, 26.3172, -46.4304, -21.6164
1.276, -1, 10.647, 18.7304, 27.9722, 26.4067, -46.2969, -21.6786
1.28, -1, 10.7016, 18.7088, 27.9351, 26.4961, -46.1636, -21.7407
1.284, -1, 10.7559, 18.6873, 27.8982, 26.5851, -46.0307, -21.8027
1.288, -1, 10.8102, 18.6658, 27.8613, 26.674, -45.8981, -21.8644
1.292, -1, 10.8643, 18.6443, 27.8245, 26.7627, -45.7658, -21.9261
1.295, -1, 10.9183, 18.6229, 27.7878, 26.8511, -45.6339, -21.9875
1.3, -1, 10.9722, 18.6016, 27.7512, 26.9394, -45.5022, -22.0489
1.304, -1, 11.0259, 18.5803, 27.7147, 27.0274, -45.3709, -22.1101
1.308, -1, 11.0796, 18.5591, 27.6782, 27.1152, -45.2399, -22.1711
1.312, -1, 11.133, 18.5379, 27.6419, 27.2028, -45.1092, -22.232
1.316, -1, 11.1864, 18.5167, 27.6056, 27.2902, -44.9788, -22.2928
1.32, -1, 11.2396, 18.4956, 27.5695, 27.3774, -44.8487, -22.3534
1.324, -1, 11.2927, 18.4746, 27.5334, 27.4644, -44.719, -22.4138
1.328, -1, 11.3457, 18.4536, 27.4974, 27.5512, -44.5895, -22.4742
1.332, -1, 11.3986, 18.4327, 27.4614, 27.6378, -44.4603, -22.5344
1.336, -1, 11.4513, 18.4118, 27.4256, 27.7241, -44.3314, -22.5944
1.34, -1, 11.5039, 18.3909, 27.3898, 27.8103, -44.2029, -22.6543
1.344, -1, 11.5564, 18.3701, 27.3542, 27.8963, -44.0746, -22.7141
1.348, -1, 11.6088, 18.3494, 27.3186, 27.9821, -43.9466, -22.7737
1.352, -1, 11.661, 18.3287, 27.2831, 28.0677, -43.8189, -22.8332
1.356, -1, 11.7132, 18.308, 27.2476, 28.1531, -43.6915, -22.8926
1.36, -1, 11.7652, 18.2874, 27.2123, 28.2383, -43.5644, -22.9518
1.364, -1, 11.8171, 18.2668, 27.177, 28.3233, -43.4376, -23.0109
1.368, -1, 11.8688, 18.2463, 27.1418, 28.4081, -43.3111, -23.0698
1.372, -1, 11.9205, 18.2259, 27.1067, 28.4927, -43.1848, -23.1286
1.376, -1, 11.972, 18.2054, 27.0717, 28.5771, -43.0589, -23.1873
1.38, -1, 12.0235, 18.1851, 27.0367, 28.6614, -42.9332, -23.2459
1.384, -1, 12.0748, 18.1647, 27.0018, 28.7454, -42.8078, -23.3043
1.388, -1, 12.126, 18.1444, 26.967, 28.8293, -42.6827, -23.3626
1.392, -1, 12.1771, 18.1242, 26.9323, 28.913, -42.5578, -23.4208
1.396, -1, 12.228, 18.104, 26.8977, 28.9965, -42.4333, -23.4788
1.4, -1, 12.2789, 18.0839, 26.8631, 29.0798, -42.309, -23.5367
1.404, -1, 12.3296, 18.0637, 26.8286, 29.1629, -42.185, -23.5945
1.408, -1, 12.3803, 18.0437, 26.7942, 29.2459, -42.0612, -23.6522
1.412, -1, 12.4308, 18.0237, 26.7599, 29.3286, -41.9377, -23.7097
1.416, -1, 12.4812, 18.0037, 26.7256, 29.4112, -41.8145, -23.7671
1.42, -1, 12.5315, 17.9838, 26.6914, 29.4936, -41.6915, -23.8244
1.424, -1, 12.5817, 17.9639, 26.6573, 29.5759, -41.5689, -23.8816
1.428, -1, 12.6318, 17.944, 26.6232, 29.6579, -41.4464, -23.9386
1.432, -1, 12.6818, 17.9242, 26.5893, 29.7398, -41.3243, -23.9956
1.436, -1, 12.7317, 17.9044, 26.5554, 29.8215, -41.2024, -24.0523
1.44, -1, 12.7815, 17.8847, 26.5215, 29.9031, -41.0807, -24.109
1.444, -1, 12.8311, 17.865, 26.4878, 29.9844, -40.9594, -24.1656
1.448, -1, 12.8807, 17.8454, 26.4541, 30.0656, -40.8382, -24.222
1.452, -1, 12.9302, 17.8258, 26.4205, 30.1466, -40.7174, -24.2783
1.456, -1, 12.9795, 17.8062, 26.3869, 30.2275, -40.5967, -24.3345
1.46, -1, 13.0288, 17.7867, 26.3534, 30.3082, -40.4764, -24.3906
1.464, -1, 13.0779, 17.7673, 26.32, 30.3887, -40.3563, -24.4466
1.468, -1, 13.127, 17.7478, 26.2867, 30.469, -40.2364, -24.5024
1.472, -1, 13.1759, 17.7284, 26.2534, 30.5492, -40.1168, -24.5582
1.476, -1, 13.2248, 17.7091, 26.2202, 30.6292, -39.9974, -24.6138
1.48, -1, 13.2735, 17.6898, 26.1871, 30.7091, -39.8783, -24.6693
1.484, -1, 13.3222, 17.6705, 26.154, 30.7888, -39.7594, -24.7247
1.488, -1, 13.3707, 17.6512, 26.121, 30.8683, -39.6407, -24.78
1.492, -1, 13.4191, 17.6321, 26.0881, 30.9476, -39.5223, -24.8351
1.496, -1, 13.4675, 17.6129, 26.0553, 31.0268, -39.4042, -24.8902
1.5, -1, 13.5157, 17.5938, 26.0225, 31.1059, -39.2863, -24.9451
1.504, -1, 13.5639, 17.5747, 25.9897, 31.1848, -39.1686, -25
1.508, -1, 13.612, 17.5557, 25.9571, 31.2635, -39.0511, -25.0547
1.512, -1, 13.6599, 17.5366, 25.9245, 31.3421, -38.9339, -25.1093
1.516, -1, 13.7078, 17.5177, 25.8919, 31.4205, -38.8169, -25.1638
1.52, -1, 13.7556, 17.4988, 25.8595, 31.4987, -38.7002, -25.2182
1.524, -1, 13.8032, 17.4799, 25.8271, 31.5768, -38.5837, -25.2725
1.528, -1, 13.8508, 17.461, 25.7947, 31.6548, -38.4674, -25.3267
1.532, -1, 13.8983, 17.4422, 25.7624, 31.7326, -38.3513, -25.3808
1.536, -1, 13.9457, 17.4234, 25.7302, 31.8102, -38.2355, -25.4347
1.54, -1, 13.993, 17.4047, 25.6981, 31.8877, -38.1199, -25.4886
1.544, -1, 14.0402, 17.386, 25.666, 31.965, -38.0045, -25.5424
1.548, -1, 14.0874, 17.3673, 25.634, 32.0422, -37.8893, -25.596
1.552, -1, 14.1344, 17.3486, 25.602, 32.1193, -37.7744, -25.6496
1.556, -1, 14.1813, 17.33, 25.5701, 32.1962, -37.6597, -25.703
1.56, -1, 14.2282, 17.3115, 25.5382, 32.2729, -37.5452, -25.7564
1.564, -1, 14.275, 17.2929, 25.5065, 32.3495, -37.4309, -25.8096
1.568, -1, 14.3216, 17.2745, 25.4747, 32.426, -37.3168, -25.8628
1.572, -1, 14.3682, 17.256, 25.4431, 32.5023, -37.2029, -25.9158
1.576, -1, 14.4147, 17.2376, 25.4115, 32.5785, -37.0893, -25.9688
1.58, -1, 14.4611, 17.2192, 25.3799, 32.6545, -36.9758, -26.0216
1.584, -1, 14.5075, 17.2008, 25.3484, 32.7304, -36.8626, -26.0744
1.588, -1, 14.5537, 17.1825, 25.317, 32.8062, -36.7496, -26.1271
1.592, -1, 14.5999, 17.1642, 25.2856, 32.8818, -36.6368, -26.1796
1.596, -1, 14.6459, 17.1459, 25.2543, 32.9573, -36.5242, -26.2321
1.6, -1, 14.6919, 17.1277, 25.2231, 33.0326, -36.4118, -26.2844
1.604, -1, 14.7378, 17.1095, 25.1919, 33.1078, -36.2996, -26.3367
1.608, -1, 14.7837, 17.0914, 25.1607, 33.1829, -36.1877, -26.3889
1.612, -1, 14.8294, 17.0733, 25.1296, 33.2578, -36.0759, -26.441
1.616, -1, 14.875, 17.0552, 25.0986, 33.3326, -35.9643, -26.493
1.62, -1, 14.9206, 17.0371, 25.0676, 33.4072, -35.8529, -26.5448
1.624, -1, 14.9661, 17.0191, 25.0367, 33.4817, -35.7418, -26.5966
1.628, -1, 15.0115, 17.0011, 25.0058, 33.5561, -35.6308, -26.6483
1.632, -1, 15.0568, 16.9831, 24.975, 33.6304, -35.52, -26.7
1.636, -1, 15.1021, 16.9652, 24.9443, 33.7045, -35.4094, -26.7515
1.64, -1, 15.1472, 16.9473, 24.9136, 33.7785, -35.2991, -26.8029
1.644, -1, 15.1923, 16.9294, 24.8829, 33.8523, -35.1889, -26.8543
1.648, -1, 15.2373, 16.9116, 24.8524, 33.9261, -35.0789, -26.9055
1.652, -1, 15.2822, 16.8938, 24.8218, 33.9997, -34.9691, -26.9567
1.656, -1, 15.3271, 16.876, 24.7913, 34.0731, -34.8595, -27.0077
1.66, -1, 15.3719, 16.8583, 24.7609, 34.1465, -34.75, -27.0587
1.664, -1, 15.4166, 16.8406, 24.7305, 34.2197, -34.6408, -27.1096
1.668, -1, 15.4612, 16.8229, 24.7002, 34.2928, -34.5318, -27.1604
1.672, -1, 15.5057, 16.8053, 24.6699, 34.3657, -34.4229, -27.2111
1.676, -1, 15.5502, 16.7876, 24.6397, 34.4386, -34.3143, -27.2618
1.68, -1, 15.5946, 16.7701, 24.6095, 34.5113, -34.2058, -27.3123
1.684, -1, 15.6389, 16.7525, 24.5794, 34.5839, -34.0975, -27.3628
1.688, -1, 15.6831, 16.735, 24.5494, 34.6563, -33.9894, -27.4131
1.692, -1, 15.7272, 16.7175, 24.5193, 34.7287, -33.8815, -27.4634
1.696, -1, 15.7713, 16.7, 24.4894, 34.8009, -33.7737, -27.5136
1.7, -1, 15.8153, 16.6826, 24.4595, 34.873, -33.6662, -27.5637
1.704, -1, 15.8593, 16.6652, 24.4296, 34.945, -33.5588, -27.6138
1.708, -1, 15.9031, 16.6478, 24.3998, 35.0168, -33.4516, -27.6637
1.712, -1, 15.9469, 16.6304, 24.37, 35.0886, -33.3446, -27.7136
1.716, -1, 15.9906, 16.6131, 24.3403, 35.1602, -33.2377, -27.7634
1.72, -1, 16.0343, 16.5958, 24.3107, 35.2317, -33.1311, -27.8131
1.724, -1, 16.0778, 16.5786, 24.281, 35.303, -33.0246, -27.8627
1.728, -1, 16.1213, 16.5613, 24.2515, 35.3743, -32.9183, -27.9122
1.732, -1, 16.1648, 16.5441, 24.222, 35.4454, -32.8121, -27.9617
1.736, -1, 16.2081, 16.5269, 24.1925, 35.5165, -32.7062, -28.011
1.74, -1, 16.2514, 16.5098, 24.1631, 35.5874, -32.6004, -28.0603
1.744, -1, 16.2946, 16.4927, 24.1337, 35.6582, -32.4947, -28.1096
1.748, -1, 16.3378, 16.4756, 24.1044, 35.7289, -32.3893, -28.1587
1.752, -1, 16.3808, 16.4585, 24.0751, 35.7994, -32.284, -28.2077
1.756, -1, 16.4238, 16.4414, 24.0459, 35.8699, -32.1789, -28.2567
1.76, -1, 16.4668, 16.4244, 24.0167, 35.9402, -32.074, -28.3056
1.764, -1, 16.5096, 16.4074, 23.9875, 36.0105, -31.9692, -28.3544
1.768, -1, 16.5524, 16.3905, 23.9584, 36.0806, -31.8646, -28.4032
1.772, -1, 16.5952, 16.3736, 23.9294, 36.1506, -31.7602, -28.4518
1.776, -1, 16.6378, 16.3566, 23.9004, 36.2205, -31.6559, -28.5004
1.78, -1, 16.6804, 16.3398, 23.8714, 36.2902, -31.5518, -28.5489
1.784, -1, 16.7229, 16.3229, 23.8425, 36.3599, -31.4478, -28.5973
1.788, -1, 16.7654, 16.3061, 23.8137, 36.4295, -31.344, -28.6457
1.792, -1, 16.8078, 16.2893, 23.7849, 36.4989, -31.2404, -28.694
1.796, -1, 16.8501, 16.2725, 23.7561, 36.5683, -31.137, -28.7422
1.8, -1, 16.8924, 16.2558, 23.7274, 36.6375, -31.0337, -28.7903
1.804, -1, 16.9346, 16.239, 23.6987, 36.7067, -30.9305, -28.8384
1.808, -1, 16.9767, 16.2224, 23.67, 36.7757, -30.8276, -28.8863
1.812, -1, 17.0188, 16.2057, 23.6414, 36.8446, -30.7248, -28.9343
1.816, -1, 17.0608, 16.189, 23.6129, 36.9134, -30.6221, -28.9821
1.82, -1, 17.1027, 16.1724, 23.5844, 36.9821, -30.5196, -29.0298
1.824, -1, 17.1445, 16.1559, 23.5559, 37.0507, -30.4172, -29.0775
1.828, -1, 17.186, 16.1394, 23.5275, 37.1192, -30.3151, -29.1251
1.832, -1, 17.2272, 16.1231, 23.4991, 37.1876, -30.2131, -29.1727
1.836, -1, 17.2677, 16.107, 23.4708, 37.2557, -30.1114, -29.2201
1.84, -1, 17.3076, 16.0912, 23.4426, 37.3237, -30.01, -29.2673
1.844, -1, 17.3467, 16.0757, 23.4146, 37.3913, -29.9092, -29.3143
1.848, -1, 17.3848, 16.0608, 23.3867, 37.4584, -29.8092, -29.3609
1.852, -1, 17.422, 16.0463, 23.3592, 37.5247, -29.7102, -29.407
1.856, -1, 17.458, 16.0323, 23.332, 37.59, -29.6128, -29.4524
1.86, -1, 17.4929, 16.019, 23.3054, 37.654, -29.5174, -29.4969
1.864, -1, 17.5264, 16.0063, 23.2795, 37.7163, -29.4245, -29.5402
1.868, -1, 17.5585, 15.9944, 23.2545, 37.7765, -29.3348, -29.582
1.872, -1, 17.589, 15.9832, 23.2306, 37.8341, -29.2489, -29.6221
1.876, -1, 17.6179, 15.9726, 23.2078, 37.8888, -29.1674, -29.66
1.88, -1, 17.6452, 15.9627, 23.1865, 37.94, -29.0911, -29.6956
1.884, -1, 17.6708, 15.9533, 23.1668, 37.9874, -29.0204, -29.7286
1.888, -1, 17.6949, 15.9443, 23.1489, 38.0306, -28.9559, -29.7586
1.892, -1, 17.7175, 15.9356, 23.1327, 38.0695, -28.8979, -29.7857
1.896, -1, 17.7385, 15.9272, 23.1184, 38.1039, -28.8466, -29.8096
1.9, -1, 17.758, 15.9192, 23.106, 38.1339, -28.8018, -29.8304
1.904, -1, 17.7759, 15.9115, 23.0954, 38.1595, -28.7636, -29.8482
1.908, -1, 17.792, 15.9045, 23.0865, 38.181, -28.7315, -29.8632
1.912, -1, 17.8065, 15.898, 23.0792, 38.1987, -28.7051, -29.8755
1.916, -1, 17.8195, 15.8921, 23.0733, 38.2129, -28.6838, -29.8854
1.92, -1, 17.831, 15.8868, 23.0687, 38.2241, -28.667, -29.8932
1.924, -1, 17.8411, 15.8821, 23.0652, 38.2327, -28.6542, -29.8991
1.928, -1, 17.85, 15.8781, 23.0626, 38.2391, -28.6446, -29.9036
1.932, -1, 17.8576, 15.8747, 23.0607, 38.2438, -28.6375, -29.9068
1.936, -1, 17.8638, 15.872, 23.0593, 38.2471, -28.6325, -29.9091
1.94, 2, 17.8689, 15.8698, 23.0584, 38.2494, -28.629, -29.9108
1.944, 2, 17.8727, 15.8682, 23.0577, 38.251, -28.6266, -29.9119
1.948, 2, 17.8755, 15.867, 23.0573, 38.2521, -28.625, -29.9126
1.952, 2, 17.8775, 15.8662, 23.057, 38.2528, -28.6239, -29.9131
1.956, 2, 17.8788, 15.8657, 23.0568, 38.2533, -28.6231, -29.9135
1.96, 2, 17.8797, 15.8653, 23.0567, 38.2537, -28.6226, -29.9137
1.964, 2, 17.8803, 15.8651, 23.0566, 38.2539, -28.6222, -29.9139
1.968, 2, 17.8807, 15.8649, 23.0565, 38.254, -28.622, -29.914
1.972, 2, 17.881, 15.8648, 23.0565, 38.2541, -28.6219, -29.9141
1.976, 2, 17.8812, 15.8647, 23.0564, 38.2542, -28.6217, -29.9141
1.98, 2, 17.8813, 15.8647, 23.0564, 38.2543, -28.6217, -29.9142
1.984, 2, 17.8814, 15.8646, 23.0564, 38.2543, -28.6216, -29.9142
1.988, 2, 17.8814, 15.8646, 23.0564, 38.2543, -28.6216, -29.9142
1.992, 2, 17.8815, 15.8646, 23.0564, 38.2543, -28.6216, -29.9142
1.996, 2, 17.8815, 15.8646, 23.0564, 38.2543, -28.6216, -29.9142
1.999, 2, 17.8815, 15.8646, 23.0564, 38.2544, -28.6215, -29.9142
2.004, 2, 17.8815, 15.8646, 23.0564, 38.2544, -28.6215, -29.9142
2.008, 2, 17.8816, 15.8646, 23.0564, 38.2544, -28.6215, -29.9142
2.012, 2, 17.8816, 15.8646, 23.0564, 38.2544, -28.6215, -29.9142
2.015, 2, 17.8816, 15.8646, 23.0564, 38.2544, -28.6215, -29.9142
2.019, 2, 17.8816, 15.8646, 23.0564, 38.2544, -28.6215, -29.9142
2.024, 2, 17.8816, 15.8646, 23.0564, 38.2544, -28.6215, -29.9142
2.028, 2, 17.8816, 15.8645, 23.0564, 38.2544, -28.6215, -29.9142
2.031, 2, 17.8816, 15.8645, 23.0564, 38.2544, -28.6215, -29.9142
2.036, 2, 17.8816, 15.8645, 23.0564, 38.2544, -28.6215, -29.9142
2.04, 2, 17.8816, 15.8645, 23.0564, 38.2544, -28.6215, -29.9142
2.044, 2, 17.8816, 15.8645, 23.0564, 38.2544, -28.6215, -29.9142
2.048, 2, 17.8816, 15.8645, 23.0564, 38.2544, -28.6215, -29.9142
2.051, 2, 17.8816, 15.8645, 23.0564, 38.2544, -28.6215, -29.9142
2.055, 2, 17.8816, 15.8645, 23.0564, 38.2544, -28.6215, -29.9142
2.06, 2, 17.8816, 15.8645, 23.0564, 38.2544, -28.6215, -29.9142
2.064, 2, 17.8816, 15.8645, 23.0564, 38.2544, -28.6215, -29.9142
2.068, 2, 17.8816, 15.8645, 23.0564, 38.2544, -28.6215, -29.9142
2.071, 2, 17.8816, 15.8645, 23.0564, 38.2544, -28.6215, -29.9142
2.076, 2, 17.8816, 15.8645, 23.0564, 38.2544, -28.6215, -29.9142
2.08, 2, 17.8816, 15.8645, 23.0564, 38.2544, -28.6215, -29.9142
2.084, 2, 17.8816, 15.8645, 23.0564, 38.2544, -28.6215, -29.9142
2.087, 2, 17.8816, 15.8645, 23.0564, 38.2544, -28.6215, -29.9142
2.092, 2, 17.8816, 15.8645, 23.0564, 38.2544, -28.6215, -29.9142
2.096, 2, 17.8816, 15.8645, 23.0564, 38.2544, -28.6215, -29.9142
2.1, 2, 17.8816, 15.8645, 23.0564, 38.2544, -28.6215, -29.9142
2.104, 2, 17.8816, 15.8645, 23.0564, 38.2544, -28.6215, -29.9142
2.107, 2, 17.8816, 15.8645, 23.0564, 38.2544, -28.6215, -29.9142
2.111, 2, 17.8816, 15.8645, 23.0564, 38.2544, -28.6215, -29.9142
2.116, 2, 17.8816, 15.8645, 23.0564, 38.2544, -28.6215, -29.9142
2.12, 2, 17.8816, 15.8645, 23.0564, 38.2544, -28.6215, -29.9142
2.124, 2, 17.8816, 15.8645, 23.0564, 38.2544, -28.6215, -29.9142
2.127, 2, 17.8816, 15.8645, 23.0564, 38.2544, -28.6215, -29.9142
2.132, 2, 17.8816, 15.8645, 23.0564, 38.2544, -28.6215, -29.9142
2.136, 2, 17.8816, 15.8645, 23.0564, 38.2544, -28.6215, -29.9142
2.14, 2, 17.8816, 15.8645, 23.0564, 38.2544, -28.6215, -29.9142
2.143, 2, 17.8816, 15.8645, 23.0564, 38.2544, -28.6215, -29.9142
2.148, 2, 17.8816, 15.8645, 23.0564, 38.2544, -28.6215, -29.9142
2.152, 2, 17.8816, 15.8645, 23.0564, 38.2544, -28.6215, -29.9142
2.156, 2, 17.8816, 15.8645, 23.0564, 38.2544, -28.6215, -29.9142
2.16, 2, 17.8816, 15.8645, 23.0564, 38.2544, -28.6215, -29.9142
2.163, 2, 17.8816, 15.8645, 23.0564, 38.2544, -28.6215, -29.9142
2.168, 2, 17.8816, 15.8645, 23.0564, 38.2544, -28.6215, -29.9142
2.172, 2, 17.8816, 15.8645, 23.0564, 38.2544, -28.6215, -29.9142
2.176, 2, 17.8816, 15.8645, 23.0564, 38.2544, -28.6215, -29.9142
2.179, 2, 17.8816, 15.8645, 23.0564, 38.2544, -28.6215, -29.9142
2.184, 2, 17.8816, 15.8645, 23.0564, 38.2544, -28.6215, -29.9142
2.188, 2, 17.8816, 15.8645, 23.0564, 38.2544, -28.6215, -29.9142
2.192, 2, 17.8816, 15.8645, 23.0564, 38.2544, -28.6215, -29.9142
2.196, 2, 17.8816, 15.8645, 23.0564, 38.2544, -28.6215, -29.9142
2.199, 2, 17.8816, 15.8645, 23.0564, 38.2544, -28.6215, -29.9142
2.204, 2, 17.8816, 15.8645, 23.0564, 38.2544, -28.6215, -29.9142
2.208, 2, 17.8816, 15.8645, 23.0564, 38.2544, -28.6215, -29.9142
2.212, 2, 17.8816, 15.8645, 23.0564, 38.2544, -28.6215, -29.9142
2.216, 2, 17.8816, 15.8645, 23.0564, 38.2544, -28.6215, -29.9142
2.219, 2, 17.8816, 15.8645, 23.0564, 38.2544, -28.6215, -29.9142
2.224, 2, 17.8816, 15.8645, 23.0564, 38.2544, -28.6215, -29.9142
2.228, 2, 17.8816, 15.8645, 23.0564, 38.2544, -28.6215, -29.9142
2.232, 2, 17.8816, 15.8645, 23.0564, 38.2544, -28.6215, -29.9142
2.235, 2, 17.8816, 15.8645, 23.0564, 38.2544, -28.6215, -29.9142
2.24, 2, 17.8816, 15.8645, 23.0564, 38.2544, -28.6215, -29.9142
2.244, 2, 17.8816, 15.8645, 23.0564, 38.2544, -28.6215, -29.9142
2.248, 2, 17.8816, 15.8645, 23.0564, 38.2544, -28.6215, -29.9142
2.252, 2, 17.8816, 15.8645, 23.0564, 38.2544, -28.6215, -29.9142
2.255, 2, 17.8816, 15.8645, 23.0564, 38.2544, -28.6215, -29.9142
2.259, 2, 17.8816, 15.8645, 23.0564, 38.2544, -28.6215, -29.9142
2.264, 2, 17.8816, 15.8645, 23.0564, 38.2544, -28.6215, -29.9142
2.268, 2, 17.8816, 15.8645, 23.0564, 38.2544, -28.6215, -29.9142
2.272, 2, 17.8816, 15.8645, 23.0564, 38.2544, -28.6215, -29.9142
2.275, 2, 17.8816, 15.8645, 23.0564, 38.2544, -28.6215, -29.9142
2.28, 2, 17.8816, 15.8645, 23.0564, 38.2544, -28.6215, -29.9142
2.284, 2, 17.8816, 15.8645, 23.0564, 38.2544, -28.6215, -29.9142
2.288, 2, 17.8816, 15.8645, 23.0564, 38.2544, -28.6215, -29.9142
2.291, 2, 17.8816, 15.8645, 23.0564, 38.2544, -28.6215, -29.9142
2.296, 2, 17.8816, 15.8645, 23.0564, 38.2544, -28.6215, -29.9142
2.3, 2, 17.8816, 15.8645, 23.0564, 38.2544, -28.6215, -29.9142
2.304, 2, 17.8816, 15.8645, 23.0564, 38.2544, -28.6215, -29.9142
2.308, 2, 17.8816, 15.8645, 23.0564, 38.2544, -28.6215, -29.9142
2.311, 2, 17.8816, 15.8645, 23.0564, 38.2544, -28.6215, -29.9142
2.316, 2, 17.8816, 15.8645, 23.0564, 38.2544, -28.6215, -29.9142
2.32, 2, 17.8816, 15.8645, 23.0564, 38.2544, -28.6215, -29.9142
2.324, 2, 17.8816, 15.8645, 23.0564, 38.2544, -28.6215, -29.9142
2.328, 2, 17.8816, 15.8645, 23.0564, 38.2544, -28.6215, -29.9142
2.331, 2, 17.8816, 15.8645, 23.0564, 38.2544, -28.6215, -29.9142
2.336, 2, 17.8816, 15.8645, 23.0564, 38.2544, -28.6215, -29.9142
2.34, 2, 17.8816, 15.8645, 23.0564, 38.2544, -28.6215, -29.9142
2.344, 2, 17.8816, 15.8645, 23.0564, 38.2544, -28.6215, -29.9142
2.347, 2, 17.8816, 15.8645, 23.0564, 38.2544, -28.6215, -29.9142
2.352, 2, 17.8816, 15.8645, 23.0564, 38.2544, -28.6215, -29.9142
2.356, 2, 17.8816, 15.8645, 23.0564, 38.2544, -28.6215, -29.9142
2.36, 2, 17.8816, 15.8645, 23.0564, 38.2544, -28.6215, -29.9142
2.364, 2, 17.8816, 15.8645, 23.0564, 38.2544, -28.6215, -29.9142
2.367, 2, 17.8816, 15.8645, 23.0564, 38.2544, -28.6215, -29.9142
2.372, 2, 17.8816, 15.8645, 23.0564, 38.2544, -28.6215, -29.9142
2.376, 2, 17.8816, 15.8645, 23.0564, 38.2544, -28.6215, -29.9142
2.38, 2, 17.8816, 15.8645, 23.0564, 38.2544, -28.6215, -29.9142
2.383, 2, 17.8816, 15.8645, 23.0564, 38.2544, -28.6215, -29.9142
2.388, 2, 17.8816, 15.8645, 23.0564, 38.2544, -28.6215, -29.9142
2.392, 2, 17.8816, 15.8645, 23.0564, 38.2544, -28.6215, -29.9142
2.396, 2, 17.8816, 15.8645, 23.0564, 38.2544, -28.6215, -29.9142
2.4, 2, 17.8816, 15.8645, 23.0564, 38.2544, -28.6215, -29.9142
2.403, 2, 17.8816, 15.8645, 23.0564, 38.2544, -28.6215, -29.9142
2.408, 2, 17.8816, 15.8645, 23.0564, 38.2544, -28.6215, -29.9142
2.412, 2, 17.8816, 15.8645, 23.0564, 38.2544, -28.6215, -29.9142
2.416, 2, 17.8816, 15.8645, 23.0564, 38.2544, -28.6215, -29.9142
2.42, 2, 17.8816, 15.8645, 23.0564, 38.2544, -28.6215, -29.9142
2.423, 2, 17.8816, 15.8645, 23.0564, 38.2544, -28.6215, -29.9142
2.428, 2, 17.8816, 15.8645, 23.0564, 38.2544, -28.6215, -29.9142
2.432, 2, 17.8816, 15.8645, 23.0564, 38.2544, -28.6215, -29.9142
2.436, 2, 17.8816, 15.8645, 23.0564, 38.2544, -28.6215, -29.9142
2.439, 2, 17.8816, 15.8645, 23.0564, 38.2544, -28.6215, -29.9142
2.444, 2, 17.8816, 15.8645, 23.0564, 38.2544, -28.6215, -29.9142
2.448, 2, 17.8816, 15.8645, 23.0564, 38.2544, -28.6215, -29.9142
2.452, 2, 17.8816, 15.8645, 23.0564, 38.2544, -28.6215, -29.9142
2.456, 2, 17.8816, 15.8645, 23.0564, 38.2544, -28.6215, -29.9142
2.459, 2, 17.8816, 15.8645, 23.0564, 38.2544, -28.6215, -29.9142
2.464, 2, 17.8816, 15.8645, 23.0564, 38.2544, -28.6215, -29.9142
2.468, 2, 17.8816, 15.8645, 23.0564, 38.2544, -28.6215, -29.9142
2.472, 2, 17.8816, 15.8645, 23.0564, 38.2544, -28.6215, -29.9142
2.476, 2, 17.8816, 15.8645, 23.0564, 38.2544, -28.6215, -29.9142
2.479, 2, 17.8816, 15.8645, 23.0564, 38.2544, -28.6215, -29.9142
2.484, 2, 17.8816, 15.8645, 23.0564, 38.2544, -28.6215, -29.9142
2.488, 2, 17.8816, 15.8645, 23.0564, 38.2544, -28.6215, -29.9142
2.492, 2, 17.8816, 15.8645, 23.0564, 38.2544, -28.6215, -29.9142
2.495, 2, 17.8816, 15.8645, 23.0564, 38.2544, -28.6215, -29.9142
2.5, 2, 17.8816, 15.8645, 23.0564, 38.2544, -28.6215, -29.9142
2.504, 2, 17.8816, 15.8645, 23.0564, 38.2544, -28.6215, -29.9142
2.508, 2, 17.8816, 15.8645, 23.0564, 38.2544, -28.6215, -29.9142
2.512, 2, 17.8816, 15.8645, 23.0564, 38.2544, -28.6215, -29.9142
2.515, 2, 17.8816, 15.8645, 23.0564, 38.2544, -28.6215, -29.9142
2.52, 2, 17.8816, 15.8645, 23.0564, 38.2544, -28.6215, -29.9142
2.524, 2, 17.8816, 15.8645, 23.0564, 38.2544, -28.6215, -29.9142
2.528, 2, 17.8816, 15.8645, 23.0564, 38.2544, -28.6215, -29.9142
2.531, 2, 17.8816, 15.8645, 23.0564, 38.2544, -28.6215, -29.9142
2.536, 2, 17.8816, 15.8645, 23.0564, 38.2544, -28.6215, -29.9142
2.54, 2, 17.8816, 15.8645, 23.0564, 38.2544, -28.6215, -29.9142
2.544, 2, 17.8816, 15.8645, 23.0564, 38.2544, -28.6215, -29.9142
2.548, 2, 17.8816, 15.8645, 23.0564, 38.2544, -28.6215, -29.9142
2.551, 2, 17.8816, 15.8645, 23.0564, 38.2544, -28.6215, -29.9142
2.556, 2, 17.8816, 15.8645, 23.0564, 38.2544, -28.6215, -29.9142
2.56, 2, 17.8816, 15.8645, 23.0564, 38.2544, -28.6215, -29.9142
2.564, 2, 17.8816, 15.8645, 23.0564, 38.2544, -28.6215, -29.9142
2.568, 2, 17.8816, 15.8645, 23.0564, 38.2544, -28.6215, -29.9142
2.571, 2, 17.8816, 15.8645, 23.0564, 38.2544, -28.6215, -29.9142
2.576, 2, 17.8816, 15.8645, 23.0564, 38.2544, -28.6215, -29.9142
2.58, 2, 17.8816, 15.8645, 23.0564, 38.2544, -28.6215, -29.9142
2.584, 2, 17.8816, 15.8645, 23.0564, 38.2544, -28.6215, -29.9142
2.587, 2, 17.8816, 15.8645, 23.0564, 38.2544, -28.6215, -29.9142
2.592, 2, 17.8816, 15.8645, 23.0564, 38.2544, -28.6215, -29.9142
2.596, 2, 17.8816, 15.8645, 23.0564, 38.2544, -28.6215, -29.9142
2.6, 2, 17.8816, 15.8645, 23.0564, 38.2544, -28.6215, -29.9142
2.604, 2, 17.8816, 15.8645, 23.0564, 38.2544, -28.6215, -29.9142
2.607, 2, 17.8816, 15.8645, 23.0564, 38.2544, -28.6215, -29.9142
2.612, 2, 17.8816, 15.8645, 23.0564, 38.2544, -28.6215, -29.9142
2.616, 2, 17.8816, 15.8645, 23.0564, 38.2544, -28.6215, -29.9142
2.62, 2, 17.8816, 15.8645, 23.0564, 38.2544, -28.6215, -29.9142
2.624, 2, 17.8816, 15.8645, 23.0564, 38.2544, -28.6215, -29.9142
2.627, 2, 17.8816, 15.8645, 23.0564, 38.2544, -28.6215, -29.9142
2.632, 2, 17.8816, 15.8645, 23.0564, 38.2544, -28.6215, -29.9142
2.636, 2, 17.8816, 15.8645, 23.0564, 38.2544, -28.6215, -29.9142
2.64, 2, 17.8816, 15.8645, 23.0564, 38.2544, -28.6215, -29.9142
2.643, 2, 17.8816, 15.8645, 23.0564, 38.2544, -28.6215, -29.9142
2.648, 2, 17.8816, 15.8645, 23.0564, 38.2544, -28.6215, -29.9142
2.652, 2, 17.8816, 15.8645, 23.0564, 38.2544, -28.6215, -29.9142
2.656, 2, 17.8816, 15.8645, 23.0564, 38.2544, -28.6215, -29.9142
2.66, 2, 17.8816, 15.8645, 23.0564, 38.2544, -28.6215, -29.9142
2.663, 2, 17.8816, 15.8645, 23.0564, 38.2544, -28.6215, -29.9142
2.668, 2, 17.8816, 15.8645, 23.0564, 38.2544, -28.6215, -29.9142
2.672, 2, 17.8816, 15.8645, 23.0564, 38.2544, -28.6215, -29.9142
2.676, 2, 17.8816, 15.8645, 23.0564, 38.2544, -28.6215, -29.9142
2.679, 2, 17.8816, 15.8645, 23.0564, 38.2544, -28.6215, -29.9142
2.684, 2, 17.8816, 15.8645, 23.0564, 38.2544, -28.6215, -29.9142
2.688, 2, 17.8816, 15.8645, 23.0564, 38.2544, -28.6215, -29.9142
2.692, 2, 17.8816, 15.8645, 23.0564, 38.2544, -28.6215, -29.9142
2.696, 2, 17.8816, 15.8645, 23.0564, 38.2544, -28.6215, -29.9142
2.699, 2, 17.8816, 15.8645, 23.0564, 38.2544, -28.6215, -29.9142
2.704, 2, 17.8816, 15.8645, 23.0564, 38.2544, -28.6215, -29.9142
2.708, 2, 17.8816, 15.8645, 23.0564, 38.2544, -28.6215, -29.9142
2.712, 2, 17.8816, 15.8645, 23.0564, 38.2544, -28.6215, -29.9142
2.716, 2, 17.8816, 15.8645, 23.0564, 38.2544, -28.6215, -29.9142
2.719, 2, 17.8816, 15.8645, 23.0564, 38.2544, -28.6215, -29.9142
2.724, 2, 17.8816, 15.8645, 23.0564, 38.2544, -28.6215, -29.9142
2.728, 2, 17.8816, 15.8645, 23.0564, 38.2544, -28.6215, -29.9142
2.732, 2, 17.8816, 15.8645, 23.0564, 38.2544, -28.6215, -29.9142
2.735, 2, 17.8816, 15.8645, 23.0564, 38.2544, -28.6215, -29.9142
2.74, 2, 17.8816, 15.8645, 23.0564, 38.2544, -28.6215, -29.9142
2.744, 2, 17.8816, 15.8645, 23.0564, 38.2544, -28.6215, -29.9142
2.748, 2, 17.8816, 15.8645, 23.0564, 38.2544, -28.6215, -29.9142
2.752, 2, 17.8816, 15.8645, 23.0564, 38.2544, -28.6215, -29.9142
2.755, 2, 17.8816, 15.8645, 23.0564, 38.2544, -28.6215, -29.9142
2.76, 2, 17.8816, 15.8645, 23.0564, 38.2544, -28.6215, -29.9142
2.764, 2, 17.8816, 15.8645, 23.0564, 38.2544, -28.6215, -29.9142
2.768, 2, 17.8816, 15.8645, 23.0564, 38.2544, -28.6215, -29.9142
2.772, 2, 17.8816, 15.8645, 23.0564, 38.2544, -28.6215, -29.9142
2.775, 2, 17.8816, 15.8645, 23.0564, 38.2544, -28.6215, -29.9142
2.78, 2, 17.8816, 15.8645, 23.0564, 38.2544, -28.6215, -29.9142
2.784, 2, 17.8816, 15.8645, 23.0564, 38.2544, -28.6215, -29.9142
2.788, 2, 17.8816, 15.8645, 23.0564, 38.2544, -28.6215, -29.9142
2.791, 2, 17.8816, 15.8645, 23.0564, 38.2544, -28.6215, -29.9142
2.796, 2, 17.8816, 15.8645, 23.0564, 38.2544, -28.6215, -29.9142
2.8, 2, 17.8816, 15.8645, 23.0564, 38.2544, -28.6215, -29.9142
2.804, 2, 17.8816, 15.8645, 23.0564, 38.2544, -28.6215, -29.9142
2.808, 2, 17.8816, 15.8645, 23.0564, 38.2544, -28.6215, -29.9142
2.811, 2, 17.8816, 15.8645, 23.0564, 38.2544, -28.6215, -29.9142
2.816, 2, 17.8816, 15.8645, 23.0564, 38.2544, -28.6215, -29.9142
2.82, 2, 17.8816, 15.8645, 23.0564, 38.2544, -28.6215, -29.9142
2.824, 2, 17.8816, 15.8645, 23.0564, 38.2544, -28.6215, -29.9142
2.828, 2, 17.8816, 15.8645, 23.0564, 38.2544, -28.6215, -29.9142
2.831, 2, 17.8816, 15.8645, 23.0564, 38.2544, -28.6215, -29.9142
2.836, 2, 17.8816, 15.8645, 23.0564, 38.2544, -28.6215, -29.9142
2.84, 2, 17.8816, 15.8645, 23.0564, 38.2544, -28.6215, -29.9142
2.844, 2, 17.8816, 15.8645, 23.0564, 38.2544, -28.6215, -29.9142
2.847, 2, 17.8816, 15.8645, 23.0564, 38.2544, -28.6215, -29.9142
2.852, 2, 17.8816, 15.8645, 23.0564, 38.2544, -28.6215, -29.9142
2.856, 2, 17.8816, 15.8645, 23.0564, 38.2544, -28.6215, -29.9142
2.86, 2, 17.8816, 15.8645, 23.0564, 38.2544, -28.6215, -29.9142
2.864, 2, 17.8816, 15.8645, 23.0564, 38.2544, -28.6215, -29.9142
2.867, 2, 17.8816, 15.8645, 23.0564, 38.2544, -28.6215, -29.9142
2.872, 2, 17.8816, 15.8645, 23.0564, 38.2544, -28.6215, -29.9142
2.876, 2, 17.8816, 15.8645, 23.0564, 38.2544, -28.6215, -29.9142
2.88, 2, 17.8816, 15.8645, 23.0564, 38.2544, -28.6215, -29.9142
2.883, 2, 17.8816, 15.8645, 23.0564, 38.2544, -28.6215, -29.9142
2.888, 2, 17.8816, 15.8645, 23.0564, 38.2544, -28.6215, -29.9142
2.892, 2, 17.8816, 15.8645, 23.0564, 38.2544, -28.6215, -29.9142
2.896, 2, 17.8816, 15.8645, 23.0564, 38.2544, -28.6215, -29.9142
2.9, 2, 17.8816, 15.8645, 23.0564, 38.2544, -28.6215, -29.9142
2.903, 2, 17.8816, 15.8645, 23.0564, 38.2544, -28.6215, -29.9142
2.908, 2, 17.8816, 15.8645, 23.0564, 38.2544, -28.6215, -29.9142
2.912, 2, 17.8816, 15.8645, 23.0564, 38.2544, -28.6215, -29.9142
2.916, 2, 17.8816, 15.8645, 23.0564, 38.2544, -28.6215, -29.9142
2.92, 2, 17.8816, 15.8645, 23.0564, 38.2544, -28.6215, -29.9142
2.923, 2, 17.8816, 15.8645, 23.0564, 38.2544, -28.6215, -29.9142
2.928, 2, 17.8816, 15.8645, 23.0564, 38.2544, -28.6215, -29.9142
2.932, 2, 17.8816, 15.8645, 23.0564, 38.2544, -28.6215, -29.9142
2.936, 2, 17.8816, 15.8645, 23.0564, 38.2544, -28.6215, -29.9142
2.939, 2, 17.8816, 15.8645, 23.0564, 38.2544, -28.6215, -29.9142
2.944, 2, 17.8816, 15.8645, 23.0564, 38.2544, -28.6215, -29.9142
2.948, 2, 17.8816, 15.8645, 23.0564, 38.2544, -28.6215, -29.9142
2.952, 2, 17.8816, 15.8645, 23.0564, 38.2544, -28.6215, -29.9142
2.956, 2, 17.8816, 15.8645, 23.0564, 38.2544, -28.6215, -29.9142
2.959, 2, 17.8816, 15.8645, 23.0564, 38.2544, -28.6215, -29.9142
2.964, 2, 17.8816, 15.8645, 23.0564, 38.2544, -28.6215, -29.9142
2.968, 2, 17.8816, 15.8645, 23.0564, 38.2544, -28.6215, -29.9142
2.972, 2, 17.8816, 15.8645, 23.0564, 38.2544, -28.6215, -29.9142
2.976, 2, 17.8816, 15.8645, 23.0564, 38.2544, -28.6215, -29.9142
2.98, 2, 17.8816, 15.8645, 23.0564, 38.2544, -28.6215, -29.9142
2.984, 2, 17.8816, 15.8645, 23.0564, 38.2544, -28.6215, -29.9142
2.988, 2, 17.8816, 15.8645, 23.0564, 38.2544, -28.6215, -29.9142
2.992, 2, 17.8816, 15.8645, 23.0564, 38.2544, -28.6215, -29.9142
2.995, 2, 17.8816, 15.8645, 23.0564, 38.2544, -28.6215, -29.9142
3, 2, 17.8816, 15.8645, 23.0564, 38.2544, -28.6215, -29.9142
3.004, 2, 17.8816, 15.8645, 23.0564, 38.2544, -28.6215, -29.9142
3.008, 2, 17.8816, 15.8645, 23.0564, 38.2544, -28.6215, -29.9142
3.012, 2, 17.8816, 15.8645, 23.0564, 38.2544, -28.6215, -29.9142
3.015, 4, 17.8816, 15.8645, 23.0564, 38.2544, -28.6215, -29.9142
3.02, 4, 17.8816, 15.8645, 23.0564, 38.2544, -28.6215, -29.9142
3.024, 4, 17.8816, 15.8645, 23.0564, 38.2544, -28.6215, -29.9142
3.028, 4, 17.8816, 15.8645, 23.0564, 38.2544, -28.6215, -29.9142
3.031, 4, 17.8816, 15.8645, 23.0564, 38.2544, -28.6215, -29.9142
3.036, 4, 17.8816, 15.8645, 23.0564, 38.2544, -28.6215, -29.9142
3.04, 4, 17.8816, 15.8645, 23.0564, 38.2544, -28.6215, -29.9142
3.044, 4, 17.8816, 15.8645, 23.0564, 38.2544, -28.6215, -29.9142
3.048, 4, 17.8816, 15.8645, 23.0564, 38.2544, -28.6215, -29.9142
3.051, 4, 17.8816, 15.8645, 23.0564, 38.2544, -28.6215, -29.9142
3.056, 4, 17.8816, 15.8645, 23.0564, 38.2544, -28.6215, -29.9142
3.06, 4, 17.8816, 15.8645, 23.0564, 38.2544, -28.6215, -29.9142
3.064, 4, 17.8816, 15.8645, 23.0564, 38.2544, -28.6215, -29.9142
3.068, 4, 17.8816, 15.8645, 23.0564, 38.2544, -28.6215, -29.9142
3.071, 4, 17.8816, 15.8645, 23.0564, 38.2544, -28.6215, -29.9142
3.076, 4, 17.8816, 15.8645, 23.0564, 38.2544, -28.6215, -29.9142
3.08, 4, 17.8816, 15.8645, 23.0564, 38.2544, -28.6215, -29.9142
3.084, 4, 17.8816, 15.8645, 23.0564, 38.2544, -28.6215, -29.9142
3.087, 4, 17.8816, 15.8645, 23.0564, 38.2544, -28.6215, -29.9142
3.092, 4, 17.8816, 15.8645, 23.0564, 38.2544, -28.6215, -29.9142
3.096, 4, 17.8816, 15.8645, 23.0564, 38.2544, -28.6215, -29.9142
3.1, 4, 17.8816, 15.8645, 23.0564, 38.2544, -28.6215, -29.9142
3.104, 4, 17.8816, 15.8645, 23.0564, 38.2544, -28.6215, -29.9142
3.107, 4, 17.8816, 15.8645, 23.0564, 38.2544, -28.6215, -29.9142
3.112, 4, 17.8816, 15.8645, 23.0564, 38.2544, -28.6215, -29.9142
3.116, 4, 17.8816, 15.8645, 23.0564, 38.2544, -28.6215, -29.9142
3.122, 4, 17.8816, 15.8645, 23.0564, 38.2544, -28.6215, -29.9142
3.124, 4, 17.8816, 15.8645, 23.0564, 38.2544, -28.6215, -29.9142
3.128, 4, 17.8816, 15.8645, 23.0564, 38.2544, -28.6215, -29.9142
3.132, 4, 17.8816, 15.8645, 23.0564, 38.2544, -28.6215, -29.9142
3.136, 4, 17.8816, 15.8645, 23.0564, 38.2544, -28.6215, -29.9142
3.14, 4, 17.8816, 15.8645, 23.0564, 38.2544, -28.6215, -29.9142
3.143, 4, 17.8816, 15.8645, 23.0564, 38.2544, -28.6215, -29.9142
3.148, 4, 17.8816, 15.8646, 23.0564, 38.2544, -28.6215, -29.9142
3.152, 4, 17.8815, 15.8646, 23.0564, 38.2544, -28.6215, -29.9142
3.156, 4, 17.8813, 15.8647, 23.0563, 38.2543, -28.6215, -29.9142
3.16, 4, 17.8808, 15.8651, 23.0563, 38.2543, -28.6215, -29.9142
3.163, 4, 17.8799, 15.8658, 23.0561, 38.2541, -28.6216, -29.914
3.168, 4, 17.8784, 15.867, 23.0557, 38.2537, -28.6217, -29.9137
3.172, 4, 17.8763, 15.869, 23.0552, 38.2529, -28.622, -29.913
3.176, 4, 17.8734, 15.8717, 23.0543, 38.2514, -28.6225, -29.9118
3.179, 4, 17.8698, 15.8756, 23.053, 38.2488, -28.6234, -29.9096
3.184, 4, 17.8654, 15.8807, 23.0513, 38.2446, -28.6248, -29.9061
3.188, 5, 17.8602, 15.8872, 23.0489, 38.2383, -28.6268, -29.9008
3.192, 5, 17.8541, 15.8955, 23.0457, 38.2292, -28.6298, -29.8931
3.196, 5, 17.8471, 15.9056, 23.0416, 38.2168, -28.6339, -29.8825
3.199, 5, 17.8389, 15.9177, 23.0363, 38.2002, -28.6393, -29.8684
3.204, 5, 17.8297, 15.9317, 23.0298, 38.1786, -28.6464, -29.8502
3.208, 5, 17.8194, 15.9475, 23.022, 38.1515, -28.6553, -29.8271
3.212, 5, 17.808, 15.9649, 23.0127, 38.118, -28.6663, -29.7986
3.216, 5, 17.7958, 15.9837, 23.0018, 38.0778, -28.6795, -29.7643
3.22, 5, 17.7827, 16.004, 22.9893, 38.0302, -28.6952, -29.7238
3.224, 5, 17.7686, 16.0256, 22.9752, 37.9753, -28.7133, -29.677
3.228, 5, 17.7536, 16.0486, 22.9594, 37.913, -28.7339, -29.6239
3.232, 5, 17.7376, 16.0731, 22.942, 37.8435, -28.7568, -29.5647
3.235, 5, 17.7205, 16.0994, 22.923, 37.7673, -28.7821, -29.4997
3.24, 5, 17.7023, 16.1274, 22.9025, 37.6847, -28.8095, -29.4293
3.244, 5, 17.683, 16.1572, 22.8806, 37.5964, -28.8389, -29.3541
3.248, 5, 17.6627, 16.1888, 22.8575, 37.5031, -28.87, -29.2747
3.252, 5, 17.6415, 16.2222, 22.8333, 37.4055, -28.9026, -29.1916
3.255, 5, 17.6194, 16.2573, 22.8082, 37.3045, -28.9364, -29.1056
3.26, 5, 17.5963, 16.2941, 22.7822, 37.2006, -28.9713, -29.0172
3.264, 5, 17.5722, 16.3324, 22.7556, 37.0946, -29.007, -28.927
3.268, 5, 17.547, 16.372, 22.7285, 36.9871, -29.0434, -28.8356
3.272, 5, 17.5209, 16.4128, 22.7009, 36.8785, -29.0802, -28.7434
3.276, 5, 17.494, 16.4546, 22.6731, 36.7692, -29.1174, -28.6505
3.28, 5, 17.4664, 16.497, 22.645, 36.6595, -29.1548, -28.5574
3.284, 5, 17.4382, 16.5398, 22.6168, 36.5495, -29.1924, -28.4641
3.288, 5, 17.4097, 16.583, 22.5885, 36.4395, -29.2302, -28.3708
3.291, 5, 17.381, 16.6264, 22.5601, 36.3295, -29.2681, -28.2776
3.296, 5, 17.352, 16.6699, 22.5318, 36.2195, -29.3061, -28.1844
3.3, 5, 17.3229, 16.7134, 22.5035, 36.1097, -29.3442, -28.0913
3.304, 5, 17.2938, 16.757, 22.4751, 35.9999, -29.3824, -27.9984
3.308, 5, 17.2645, 16.8005, 22.4468, 35.8904, -29.4207, -27.9057
3.312, 5, 17.2351, 16.8441, 22.4186, 35.7809, -29.459, -27.8131
3.316, 5, 17.2057, 16.8876, 22.3903, 35.6717, -29.4974, -27.7207
3.32, 5, 17.1763, 16.9311, 22.3622, 35.5626, -29.5359, -27.6285
3.324, 5, 17.1467, 16.9745, 22.334, 35.4537, -29.5744, -27.5365
3.328, 5, 17.1172, 17.0179, 22.3059, 35.345, -29.6131, -27.4447
3.332, 5, 17.0875, 17.0612, 22.2778, 35.2365, -29.6517, -27.3531
3.336, 5, 17.0579, 17.1045, 22.2498, 35.1281, -29.6905, -27.2616
3.34, 5, 17.0282, 17.1478, 22.2218, 35.02, -29.7293, -27.1704
3.344, 5, 16.9985, 17.191, 22.1939, 34.912, -29.7681, -27.0793
3.347, 5, 16.9687, 17.2341, 22.166, 34.8042, -29.8071, -26.9884
3.352, 5, 16.9388, 17.2772, 22.1382, 34.6966, -29.8461, -26.8978
3.356, 5, 16.909, 17.3203, 22.1104, 34.5891, -29.8851, -26.8073
3.36, 5, 16.8791, 17.3633, 22.0826, 34.4819, -29.9243, -26.717
3.364, 5, 16.8491, 17.4062, 22.0549, 34.3748, -29.9634, -26.6269
3.368, 5, 16.8191, 17.4491, 22.0272, 34.268, -30.0027, -26.537
3.372, 5, 16.7891, 17.492, 21.9996, 34.1613, -30.042, -26.4472
3.376, 5, 16.759, 17.5348, 21.9721, 34.0547, -30.0814, -26.3577
3.38, 5, 16.7289, 17.5775, 21.9445, 33.9484, -30.1208, -26.2684
3.383, 5, 16.6988, 17.6202, 21.9171, 33.8422, -30.1603, -26.1792
3.388, 5, 16.6686, 17.6628, 21.8896, 33.7363, -30.1999, -26.0902
3.392, 5, 16.6384, 17.7054, 21.8622, 33.6305, -30.2395, -26.0014
3.396, 5, 16.6081, 17.748, 21.8349, 33.5249, -30.2792, -25.9129
3.4, 5, 16.5778, 17.7904, 21.8076, 33.4194, -30.319, -25.8244
3.403, 5, 16.5474, 17.8329, 21.7804, 33.3142, -30.3588, -25.7362
3.408, 5, 16.517, 17.8752, 21.7532, 33.2091, -30.3987, -25.6482
3.412, 5, 16.4866, 17.9176, 21.726, 33.1042, -30.4386, -25.5603
3.416, 5, 16.4562, 17.9598, 21.6989, 32.9995, -30.4786, -25.4727
3.42, 5, 16.4257, 18.0021, 21.6719, 32.895, -30.5187, -25.3852
3.424, 5, 16.3951, 18.0442, 21.6449, 32.7906, -30.5589, -25.2979
3.428, 5, 16.3645, 18.0863, 21.6179, 32.6865, -30.5991, -25.2108
3.432, 5, 16.3339, 18.1284, 21.591, 32.5825, -30.6393, -25.1239
3.436, 5, 16.3033, 18.1704, 21.5641, 32.4786, -30.6796, -25.0371
3.439, 5, 16.2726, 18.2124, 21.5373, 32.375, -30.72, -24.9506
3.444, 5, 16.2418, 18.2543, 21.5106, 32.2715, -30.7605, -24.8642
3.448, 5, 16.2111, 18.2961, 21.4839, 32.1683, -30.801, -24.778
3.452, 5, 16.1803, 18.3379, 21.4572, 32.0652, -30.8416, -24.692
3.456, 5, 16.1494, 18.3797, 21.4306, 31.9622, -30.8822, -24.6061
3.46, 5, 16.1185, 18.4214, 21.404, 31.8595, -30.923, -24.5205
3.464, 5, 16.0876, 18.463, 21.3775, 31.7569, -30.9637, -24.435
3.468, 5, 16.0567, 18.5046, 21.351, 31.6545, -31.0046, -24.3497
3.472, 5, 16.0257, 18.5461, 21.3246, 31.5523, -31.0455, -24.2646
3.476, 5, 15.9946, 18.5876, 21.2983, 31.4502, -31.0864, -24.1797
3.48, 5, 15.9636, 18.6291, 21.272, 31.3483, -31.1275, -24.095
3.484, 5, 15.9325, 18.6704, 21.2457, 31.2466, -31.1685, -24.0104
3.488, 5, 15.9013, 18.7118, 21.2195, 31.1451, -31.2097, -23.926
3.492, 5, 15.8702, 18.753, 21.1933, 31.0438, -31.2509, -23.8418
3.495, 5, 15.8389, 18.7942, 21.1672, 30.9426, -31.2922, -23.7578
3.5, 5, 15.8077, 18.8354, 21.1412, 30.8416, -31.3335, -23.6739
3.504, 5, 15.7764, 18.8765, 21.1152, 30.7408, -31.3749, -23.5902
3.508, 5, 15.7451, 18.9176, 21.0892, 30.6401, -31.4164, -23.5067
3.512, 5, 15.7137, 18.9586, 21.0633, 30.5396, -31.4579, -23.4234
3.516, 5, 15.6823, 18.9995, 21.0374, 30.4393, -31.4995, -23.3403
3.52, 5, 15.6509, 19.0405, 21.0116, 30.3392, -31.5412, -23.2573
3.524, 5, 15.6194, 19.0813, 20.9859, 30.2392, -31.5829, -23.1745
3.528, 5, 15.5879, 19.1221, 20.9602, 30.1394, -31.6247, -23.0919
3.531, 5, 15.5564, 19.1628, 20.9346, 30.0398, -31.6665, -23.0094
3.536, 5, 15.5248, 19.2035, 20.909, 29.9403, -31.7084, -22.9272
3.54, 5, 15.4932, 19.2442, 20.8834, 29.8411, -31.7504, -22.8451
3.544, 5, 15.4616, 19.2847, 20.8579, 29.7419, -31.7925, -22.7632
3.548, 5, 15.4299, 19.3253, 20.8325, 29.643, -31.8346, -22.6814
3.552, 5, 15.3982, 19.3658, 20.8071, 29.5442, -31.8767, -22.5998
3.556, 5, 15.3664, 19.4062, 20.7818, 29.4456, -31.9189, -22.5184
3.56, 5, 15.3347, 19.4465, 20.7565, 29.3472, -31.9612, -22.4372
3.564, 5, 15.3029, 19.4869, 20.7313, 29.2489, -32.0036, -22.3561
3.568, 5, 15.271, 19.5271, 20.7061, 29.1509, -32.046, -22.2752
3.572, 5, 15.2391, 19.5673, 20.681, 29.0529, -32.0885, -22.1945
3.576, 5, 15.2072, 19.6075, 20.6559, 28.9552, -32.131, -22.114
3.58, 5, 15.1753, 19.6476, 20.6309, 28.8576, -32.1736, -22.0336
3.584, 5, 15.1433, 19.6877, 20.606, 28.7602, -32.2163, -21.9534
3.587, 5, 15.1112, 19.7276, 20.5811, 28.6629, -32.259, -21.8734
3.592, 5, 15.0792, 19.7676, 20.5562, 28.5658, -32.3018, -21.7935
3.596, 5, 15.0471, 19.8075, 20.5314, 28.4689, -32.3446, -21.7138
3.6, 5, 15.015, 19.8473, 20.5067, 28.3722, -32.3875, -21.6343
3.604, 5, 14.9828, 19.8871, 20.482, 28.2756, -32.4305, -21.5549
3.608, 5, 14.9506, 19.9268, 20.4574, 28.1792, -32.4735, -21.4757
3.612, 5, 14.9184, 19.9665, 20.4328, 28.0829, -32.5166, -21.3967
3.616, 5, 14.8862, 20.0061, 20.4083, 27.9868, -32.5598, -21.3179
3.62, 5, 14.8539, 20.0457, 20.3838, 27.8909, -32.603, -21.2392
3.624, 5, 14.8216, 20.0852, 20.3594, 27.7952, -32.6463, -21.1607
3.628, 5, 14.7892, 20.1247, 20.335, 27.6996, -32.6896, -21.0823
3.632, 5, 14.7568, 20.1641, 20.3107, 27.6041, -32.7331, -21.0041
3.636, 5, 14.7244, 20.2035, 20.2865, 27.5089, -32.7765, -20.9261
3.64, 5, 14.692, 20.2428, 20.2623, 27.4138, -32.8201, -20.8482
3.644, 5, 14.6595, 20.282, 20.2381, 27.3188, -32.8637, -20.7705
3.648, 5, 14.627, 20.3212, 20.214, 27.2241, -32.9073, -20.693
3.652, 5, 14.5944, 20.3604, 20.19, 27.1295, -32.951, -20.6156
3.656, 5, 14.5619, 20.3995, 20.166, 27.035, -32.9948, -20.5384
3.66, 5, 14.5293, 20.4385, 20.1421, 26.9407, -33.0386, -20.4614
3.664, 5, 14.4966, 20.4775, 20.1182, 26.8466, -33.0825, -20.3845
3.668, 5, 14.4639, 20.5164, 20.0944, 26.7526, -33.1265, -20.3078
3.672, 5, 14.4312, 20.5553, 20.0707, 26.6588, -33.1705, -20.2313
3.676, 5, 14.3985, 20.5942, 20.047, 26.5652, -33.2146, -20.1549
3.679, 5, 14.3657, 20.6329, 20.0233, 26.4717, -33.2588, -20.0786
3.684, 5, 14.3329, 20.6716, 19.9997, 26.3784, -33.303, -20.0026
3.688, 5, 14.3001, 20.7103, 19.9762, 26.2853, -33.3472, -19.9267
3.692, 5, 14.2672, 20.7489, 19.9527, 26.1923, -33.3916, -19.8509
3.696, 5, 14.2343, 20.7875, 19.9293, 26.0994, -33.436, -19.7753
3.7, 5, 14.2014, 20.826, 19.9059, 26.0067, -33.4804, -19.6999
3.704, 5, 14.1685, 20.8645, 19.8826, 25.9142, -33.5249, -19.6246
3.708, 5, 14.1355, 20.9029, 19.8593, 25.8219, -33.5695, -19.5495
3.712, 5, 14.1025, 20.9412, 19.8361, 25.7297, -33.6142, -19.4746
3.716, 5, 14.0694, 20.9795, 19.813, 25.6376, -33.6589, -19.3998
3.72, 5, 14.0363, 21.0178, 19.7899, 25.5457, -33.7036, -19.3252
3.724, 5, 14.0032, 21.056, 19.7669, 25.454, -33.7484, -19.2507
3.728, 5, 13.9701, 21.0941, 19.7439, 25.3624, -33.7933, -19.1764
3.732, 5, 13.9369, 21.1322, 19.721, 25.271, -33.8383, -19.1022
3.735, 5, 13.9037, 21.1702, 19.6981, 25.1797, -33.8833, -19.0282
3.74, 5, 13.8705, 21.2082, 19.6753, 25.0886, -33.9283, -18.9544
3.744, 5, 13.8372, 21.2462, 19.6525, 24.9977, -33.9735, -18.8807
3.748, 5, 13.8039, 21.284, 19.6298, 24.9069, -34.0187, -18.8071
3.752, 5, 13.7706, 21.3219, 19.6072, 24.8163, -34.0639, -18.7338
3.756, 5, 13.7373, 21.3596, 19.5846, 24.7258, -34.1092, -18.6605
3.76, 5, 13.7039, 21.3973, 19.5621, 24.6355, -34.1546, -18.5875
3.764, 5, 13.6705, 21.435, 19.5396, 24.5453, -34.2001, -18.5145
3.768, 5, 13.637, 21.4726, 19.5172, 24.4553, -34.2456, -18.4418
3.772, 5, 13.6036, 21.5102, 19.4949, 24.3654, -34.2911, -18.3692
3.776, 5, 13.5701, 21.5477, 19.4726, 24.2757, -34.3368, -18.2967
3.78, 5, 13.5366, 21.5852, 19.4504, 24.1861, -34.3824, -18.2244
3.784, 5, 13.503, 21.6226, 19.4282, 24.0967, -34.4282, -18.1522
3.788, 5, 13.4694, 21.6599, 19.4061, 24.0075, -34.474, -18.0802
3.792, 5, 13.4358, 21.6972, 19.384, 23.9184, -34.5199, -18.0084
3.796, 5, 13.4022, 21.7344, 19.362, 23.8295, -34.5658, -17.9367
3.8, 5, 13.3685, 21.7716, 19.3401, 23.7407, -34.6118, -17.8652
3.804, 5, 13.3348, 21.8088, 19.3182, 23.652, -34.6579, -17.7938
3.808, 5, 13.3011, 21.8458, 19.2964, 23.5636, -34.704, -17.7225
3.812, 5, 13.2673, 21.8829, 19.2746, 23.4752, -34.7502, -17.6514
3.816, 5, 13.2335, 21.9198, 19.2529, 23.387, -34.7964, -17.5805
3.82, 5, 13.1997, 21.9568, 19.2313, 23.299, -34.8427, -17.5097
3.824, 5, 13.1659, 21.9936, 19.2097, 23.2111, -34.8891, -17.4391
3.828, 5, 13.132, 22.0305, 19.1882, 23.1234, -34.9355, -17.3686
3.832, 5, 13.0981, 22.0672, 19.1667, 23.0358, -34.982, -17.2982
3.836, 5, 13.0642, 22.1039, 19.1453, 22.9484, -35.0286, -17.2281
3.84, 5, 13.0302, 22.1406, 19.1239, 22.8611, -35.0752, -17.158
3.844, 5, 12.9962, 22.1772, 19.1027, 22.774, -35.1218, -17.0881
3.848, 5, 12.9622, 22.2137, 19.0814, 22.6871, -35.1686, -17.0184
3.852, 5, 12.9282, 22.2502, 19.0603, 22.6002, -35.2154, -16.9488
3.856, 5, 12.8941, 22.2867, 19.0392, 22.5136, -35.2622, -16.8793
3.86, 5, 12.8601, 22.3231, 19.0181, 22.427, -35.3092, -16.81
3.864, 5, 12.8259, 22.3594, 18.9972, 22.3407, -35.3562, -16.7409
3.868, 5, 12.7918, 22.3957, 18.9762, 22.2544, -35.4032, -16.6719
3.872, 5, 12.7576, 22.4319, 18.9554, 22.1684, -35.4503, -16.603
3.876, 5, 12.7234, 22.4681, 18.9346, 22.0824, -35.4975, -16.5343
3.88, 5, 12.6892, 22.5042, 18.9139, 21.9967, -35.5447, -16.4657
3.884, 5, 12.655, 22.5403, 18.8932, 21.911, -35.592, -16.3973
3.888, 5, 12.6207, 22.5763, 18.8726, 21.8256, -35.6394, -16.329
3.892, 5, 12.5864, 22.6122, 18.852, 21.7402, -35.6868, -16.2609
3.896, 5, 12.5521, 22.6481, 18.8316, 21.655, -35.7343, -16.1929
3.9, 5, 12.5177, 22.684, 18.8111, 21.57, -35.7818, -16.125
3.904, 5, 12.4833, 22.7198, 18.7908, 21.4851, -35.8294, -16.0573
3.908, 5, 12.4489, 22.7555, 18.7705, 21.4003, -35.8771, -15.9898
3.912, 5, 12.4145, 22.7912, 18.7503, 21.3158, -35.9248, -15.9224
3.916, 5, 12.3801, 22.8269, 18.7301, 21.2313, -35.9726, -15.8551
3.92, 5, 12.3456, 22.8624, 18.71, 21.147, -36.0204, -15.788
3.924, 5, 12.3111, 22.898, 18.6899, 21.0628, -36.0683, -15.721
3.928, 5, 12.2765, 22.9334, 18.6699, 20.9788, -36.1163, -15.6542
3.932, 5, 12.242, 22.9689, 18.65, 20.8949, -36.1643, -15.5875
3.936, 5, 12.2074, 23.0042, 18.6302, 20.8112, -36.2124, -15.5209
3.94, 5, 12.1728, 23.0395, 18.6104, 20.7276, -36.2606, -15.4545
3.944, 5, 12.1382, 23.0748, 18.5906, 20.6442, -36.3088, -15.3882
3.948, 5, 12.1035, 23.11, 18.571, 20.5609, -36.3571, -15.3221
3.952, 5, 12.0688, 23.1452, 18.5514, 20.4778, -36.4054, -15.2561
3.956, 5, 12.0341, 23.1803, 18.5318, 20.3948, -36.4538, -15.1903
3.96, 5, 11.9994, 23.2153, 18.5124, 20.3119, -36.5023, -15.1246
3.964, 5, 11.9646, 23.2503, 18.4929, 20.2292, -36.5508, -15.059
3.968, 5, 11.9299, 23.2852, 18.4736, 20.1466, -36.5994, -14.9936
3.972, 5, 11.8951, 23.3201, 18.4543, 20.0642, -36.648, -14.9283
3.976, 5, 11.8602, 23.3549, 18.4351, 19.9819, -36.6967, -14.8631
3.98, 5, 11.8254, 23.3897, 18.4159, 19.8998, -36.7455, -14.7981
3.984, 5, 11.7905, 23.4244, 18.3968, 19.8178, -36.7943, -14.7333
3.988, 5, 11.7556, 23.4591, 18.3778, 19.7359, -36.8432, -14.6685
3.992, 5, 11.7207, 23.4937, 18.3588, 19.6542, -36.8921, -14.6039
3.996, 5, 11.6858, 23.5283, 18.3399, 19.5727, -36.9412, -14.5395
3.999, 5, 11.6508, 23.5628, 18.3211, 19.4912, -36.9902, -14.4752
4.004, 5, 11.6158, 23.5972, 18.3023, 19.41, -37.0394, -14.411
4.008, 5, 11.5808, 23.6316, 18.2836, 19.3288, -37.0886, -14.3469
4.012, 5, 11.5457, 23.666, 18.265, 19.2478, -37.1378, -14.283
4.016, 5, 11.5107, 23.7003, 18.2464, 19.1669, -37.1871, -14.2193
4.02, 5, 11.4756, 23.7345, 18.2279, 19.0862, -37.2365, -14.1556
4.024, 5, 11.4405, 23.7687, 18.2095, 19.0056, -37.2859, -14.0922
4.028, 5, 11.4053, 23.8028, 18.1911, 18.9252, -37.3354, -14.0288
4.032, 5, 11.3702, 23.8369, 18.1728, 18.8449, -37.385, -13.9656
4.036, 5, 11.335, 23.8709, 18.1545, 18.7647, -37.4346, -13.9025
4.04, 5, 11.2998, 23.9049, 18.1363, 18.6847, -37.4843, -13.8395
4.044, 5, 11.2646, 23.9388, 18.1182, 18.6048, -37.534, -13.7767
4.048, 5, 11.2293, 23.9727, 18.1001, 18.5251, -37.5838, -13.714
4.052, 5, 11.1941, 24.0065, 18.0821, 18.4455, -37.6337, -13.6515
4.056, 5, 11.1588, 24.0402, 18.0642, 18.366, -37.6836, -13.5891
4.06, 5, 11.1235, 24.0739, 18.0464, 18.2867, -37.7336, -13.5268
4.064, 5, 11.0881, 24.1076, 18.0286, 18.2075, -37.7837, -13.4647
4.068, 5, 11.0528, 24.1412, 18.0108, 18.1285, -37.8338, -13.4027
4.072, 5, 11.0174, 24.1747, 17.9932, 18.0496, -37.8839, -13.3408
4.076, 5, 10.982, 24.2082, 17.9756, 17.9708, -37.9342, -13.279
4.08, 5, 10.9466, 24.2416, 17.958, 17.8922, -37.9844, -13.2174
4.084, 5, 10.9111, 24.275, 17.9406, 17.8137, -38.0348, -13.156
4.088, 5, 10.8757, 24.3084, 17.9232, 17.7353, -38.0852, -13.0946
4.092, 5, 10.8402, 24.3416, 17.9058, 17.6571, -38.1357, -13.0334
4.096, 5, 10.8047, 24.3748, 17.8886, 17.579, -38.1862, -12.9723
4.1, 5, 10.7691, 24.408, 17.8714, 17.5011, -38.2368, -12.9114
4.104, 5, 10.7336, 24.4411, 17.8542, 17.4233, -38.2874, -12.8505
4.108, 5, 10.698, 24.4742, 17.8372, 17.3456, -38.3381, -12.7899
4.112, 5, 10.6624, 24.5072, 17.8202, 17.268, -38.3889, -12.7293
4.116, 5, 10.6268, 24.5401, 17.8032, 17.1906, -38.4397, -12.6689
4.12, 5, 10.5912, 24.573, 17.7863, 17.1134, -38.4906, -12.6086
4.124, 5, 10.5555, 24.6059, 17.7695, 17.0362, -38.5416, -12.5484
4.128, 5, 10.5198, 24.6387, 17.7528, 16.9592, -38.5926, -12.4884
4.132, 5, 10.4841, 24.6714, 17.7361, 16.8824, -38.6436, -12.4285
4.136, 5, 10.4484, 24.7041, 17.7195, 16.8056, -38.6948, -12.3687
4.14, 5, 10.4127, 24.7367, 17.703, 16.7291, -38.7459, -12.309
4.144, 5, 10.3769, 24.7693, 17.6865, 16.6526, -38.7972, -12.2495
4.148, 5, 10.3411, 24.8018, 17.6701, 16.5763, -38.8485, -12.1901
4.152, 5, 10.3053, 24.8343, 17.6538, 16.5001, -38.8999, -12.1309
4.156, 5, 10.2695, 24.8667, 17.6375, 16.424, -38.9513, -12.0717
4.16, 5, 10.2336, 24.8991, 17.6213, 16.3481, -39.0028, -12.0127
4.164, 5, 10.1978, 24.9314, 17.6051, 16.2723, -39.0543, -11.9539
4.168, 5, 10.1619, 24.9636, 17.5891, 16.1967, -39.1059, -11.8951
4.172, 5, 10.126, 24.9958, 17.5731, 16.1211, -39.1576, -11.8365
4.176, 5, 10.0901, 25.028, 17.5571, 16.0457, -39.2093, -11.778
4.18, 5, 10.0541, 25.0601, 17.5413, 15.9705, -39.2611, -11.7196
4.184, 5, 10.0181, 25.0921, 17.5254, 15.8953, -39.313, -11.6614
4.188, 5, 9.98215, 25.1241, 17.5097, 15.8204, -39.3649, -11.6033
4.192, 5, 9.94615, 25.156, 17.494, 15.7455, -39.4169, -11.5453
4.196, 5, 9.91012, 25.1879, 17.4784, 15.6708, -39.4689, -11.4874
4.2, 5, 9.87407, 25.2198, 17.4629, 15.5962, -39.521, -11.4297
4.204, 5, 9.83801, 25.2515, 17.4475, 15.5217, -39.5732, -11.3721
4.208, 5, 9.80192, 25.2833, 17.4321, 15.4473, -39.6254, -11.3146
4.212, 5, 9.76581, 25.3149, 17.4167, 15.3731, -39.6777, -11.2572
4.216, 5, 9.72969, 25.3466, 17.4015, 15.2991, -39.73, -11.2
4.22, 5, 9.69354, 25.3781, 17.3863, 15.2251, -39.7824, -11.1429
4.224, 5, 9.65738, 25.4096, 17.3712, 15.1513, -39.8349, -11.0859
4.228, 5, 9.62119, 25.4411, 17.3561, 15.0776, -39.8874, -11.029
4.232, 5, 9.58499, 25.4725, 17.3411, 15.004, -39.94, -10.9723
4.236, 5, 9.54877, 25.5038, 17.3262, 14.9306, -39.9926, -10.9156
4.24, 5, 9.51253, 25.5351, 17.3114, 14.8573, -40.0453, -10.8591
4.244, 5, 9.47627, 25.5664, 17.2966, 14.7841, -40.0981, -10.8028
4.248, 5, 9.43999, 25.5976, 17.2819, 14.7111, -40.1509, -10.7465
4.252, 5, 9.40369, 25.6287, 17.2672, 14.6382, -40.2038, -10.6904
4.256, 5, 9.36738, 25.6598, 17.2527, 14.5654, -40.2567, -10.6344
4.26, 5, 9.33104, 25.6908, 17.2382, 14.4927, -40.3097, -10.5785
4.264, 5, 9.29469, 25.7218, 17.2237, 14.4202, -40.3628, -10.5227
4.268, 5, 9.25832, 25.7527, 17.2094, 14.3478, -40.4159, -10.4671
4.272, 5, 9.22193, 25.7836, 17.1951, 14.2755, -40.4691, -10.4115
4.276, 5, 9.18553, 25.8144, 17.1809, 14.2034, -40.5224, -10.3561
4.28, 5, 9.1491, 25.8452, 17.1667, 14.1313, -40.5757, -10.3009
4.284, 5, 9.11266, 25.8759, 17.1526, 14.0594, -40.629, -10.2457
4.288, 5, 9.0762, 25.9065, 17.1386, 13.9877, -40.6824, -10.1906
4.292, 5, 9.03972, 25.9372, 17.1247, 13.916, -40.7359, -10.1357
4.296, 5, 9.00323, 25.9677, 17.1108, 13.8445, -40.7895, -10.0809
4.3, 5, 8.96672, 25.9982, 17.097, 13.7731, -40.8431, -10.0262
4.304, 5, 8.93019, 26.0286, 17.0833, 13.7018, -40.8967, -9.97167
4.308, 5, 8.89364, 26.059, 17.0696, 13.6307, -40.9505, -9.91722
4.312, 5, 8.85708, 26.0894, 17.056, 13.5597, -41.0043, -9.86289
4.316, 5, 8.8205, 26.1197, 17.0425, 13.4888, -41.0581, -9.80868
4.32, 5, 8.7839, 26.1499, 17.0291, 13.418, -41.112, -9.75458
4.324, 5, 8.74729, 26.1801, 17.0157, 13.3474, -41.166, -9.70061
4.328, 5, 8.71066, 26.2102, 17.0024, 13.2769, -41.22, -9.64675
4.332, 5, 8.67401, 26.2403, 16.9891, 13.2065, -41.2741, -9.59301
4.336, 5, 8.63735, 26.2703, 16.976, 13.1362, -41.3282, -9.53939
4.34, 5, 8.60067, 26.3003, 16.9629, 13.066, -41.3824, -9.48588
4.344, 5, 8.56397, 26.3302, 16.9498, 12.996, -41.4367, -9.43249
4.348, 5, 8.52726, 26.36, 16.9369, 12.9261, -41.491, -9.37922
4.352, 5, 8.49053, 26.3898, 16.924, 12.8563, -41.5454, -9.32606
4.356, 5, 8.45378, 26.4196, 16.9112, 12.7867, -41.5998, -9.27302
4.36, 5, 8.41702, 26.4493, 16.8985, 12.7172, -41.6543, -9.2201
4.364, 5, 8.38025, 26.479, 16.8858, 12.6477, -41.7089, -9.16729
4.368, 5, 8.34345, 26.5085, 16.8732, 12.5785, -41.7635, -9.1146
4.372, 5, 8.30664, 26.5381, 16.8607, 12.5093, -41.8182, -9.06202
4.376, 5, 8.26982, 26.5676, 16.8482, 12.4402, -41.8729, -9.00956
4.38, 5, 8.23298, 26.597, 16.8358, 12.3713, -41.9277, -8.95721
4.384, 5, 8.19613, 26.6264, 16.8235, 12.3025, -41.9826, -8.90497
4.388, 5, 8.15926, 26.6557, 16.8113, 12.2338, -42.0375, -8.85286
4.392, 5, 8.12237, 26.685, 16.7991, 12.1653, -42.0924, -8.80085
4.396, 5, 8.08547, 26.7142, 16.787, 12.0969, -42.1475, -8.74896
4.4, 5, 8.04856, 26.7434, 16.775, 12.0285, -42.2026, -8.69718
4.404, 5, 8.01163, 26.7725, 16.763, 11.9603, -42.2577, -8.64552
4.408, 5, 7.97468, 26.8016, 16.7512, 11.8923, -42.3129, -8.59397
4.412, 5, 7.93773, 26.8306, 16.7393, 11.8243, -42.3682, -8.54253
4.416, 5, 7.90075, 26.8596, 16.7276, 11.7565, -42.4235, -8.49121
4.42, 5, 7.86376, 26.8885, 16.7159, 11.6888, -42.4789, -8.44
4.424, 5, 7.82676, 26.9173, 16.7044, 11.6212, -42.5343, -8.3889
4.428, 5, 7.78974, 26.9461, 16.6928, 11.5537, -42.5899, -8.33791
4.432, 5, 7.75271, 26.9749, 16.6814, 11.4864, -42.6454, -8.28704
4.436, 5, 7.71566, 27.0036, 16.67, 11.4191, -42.701, -8.23628
4.44, 5, 7.6786, 27.0322, 16.6587, 11.352, -42.7567, -8.18563
4.444, 5, 7.64153, 27.0608, 16.6475, 11.285, -42.8124, -8.13509
4.448, 5, 7.60444, 27.0893, 16.6363, 11.2181, -42.8682, -8.08467
4.452, 5, 7.56733, 27.1178, 16.6252, 11.1514, -42.9241, -8.03435
4.456, 5, 7.53022, 27.1462, 16.6142, 11.0847, -42.98, -7.98415
4.46, 5, 7.49309, 27.1746, 16.6033, 11.0182, -43.036, -7.93405
4.464, 5, 7.45594, 27.2029, 16.5924, 10.9518, -43.092, -7.88407
4.468, 5, 7.41878, 27.2312, 16.5816, 10.8855, -43.1481, -7.8342
4.472, 5, 7.38161, 27.2594, 16.5709, 10.8194, -43.2043, -7.78444
4.476, 5, 7.34443, 27.2876, 16.5603, 10.7533, -43.2605, -7.73479
4.48, 5, 7.30723, 27.3157, 16.5497, 10.6874, -43.3167, -7.68525
4.484, 5, 7.27002, 27.3438, 16.5392, 10.6216, -43.3731, -7.63582
4.488, 5, 7.23279, 27.3718, 16.5288, 10.5559, -43.4294, -7.58649
4.492, 5, 7.19555, 27.3997, 16.5184, 10.4903, -43.4859, -7.53728
4.496, 5, 7.1583, 27.4276, 16.5081, 10.4248, -43.5424, -7.48818
4.5, 5, 7.12104, 27.4555, 16.4979, 10.3595, -43.5989, -7.43919
4.504, 5, 7.08376, 27.4832, 16.4878, 10.2942, -43.6555, -7.3903
4.508, 5, 7.04647, 27.511, 16.4777, 10.2291, -43.7122, -7.34153
4.512, 5, 7.00916, 27.5387, 16.4678, 10.1641, -43.7689, -7.29286
4.516, 5, 6.97185, 27.5663, 16.4578, 10.0992, -43.8257, -7.2443
4.52, 5, 6.93452, 27.5939, 16.448, 10.0345, -43.8826, -7.19585
4.524, 5, 6.89718, 27.6214, 16.4382, 9.96982, -43.9395, -7.14751
4.528, 5, 6.85982, 27.6489, 16.4285, 9.90529, -43.9965, -7.09927
4.532, 5, 6.82246, 27.6763, 16.4189, 9.84087, -44.0535, -7.05115
4.536, 5, 6.78508, 27.7037, 16.4094, 9.77657, -44.1106, -7.00313
4.54, 5, 6.74769, 27.731, 16.3999, 9.71238, -44.1677, -6.95521
4.544, 5, 6.71029, 27.7583, 16.3905, 9.64831, -44.2249, -6.90741
4.548, 5, 6.67287, 27.7855, 16.3812, 9.58435, -44.2821, -6.85971
4.552, 5, 6.63544, 27.8127, 16.372, 9.5205, -44.3395, -6.81212
4.556, 5, 6.598, 27.8398, 16.3628, 9.45677, -44.3968, -6.76464
4.56, 5, 6.56055, 27.8668, 16.3537, 9.39316, -44.4542, -6.71726
4.564, 5, 6.52309, 27.8938, 16.3447, 9.32966, -44.5117, -6.66999
4.568, 5, 6.48561, 27.9208, 16.3357, 9.26627, -44.5693, -6.62283
4.572, 5, 6.44812, 27.9477, 16.3268, 9.203, -44.6269, -6.57577
4.576, 5, 6.41063, 27.9745, 16.318, 9.13984, -44.6845, -6.52882
4.58, 5, 6.37311, 28.0013, 16.3093, 9.0768, -44.7423, -6.48197
4.584, 5, 6.33559, 28.028, 16.3006, 9.01387, -44.8, -6.43523
4.588, 5, 6.29806, 28.0547, 16.2921, 8.95105, -44.8579, -6.38859
4.592, 5, 6.26051, 28.0814, 16.2836, 8.88835, -44.9157, -6.34206
4.596, 5, 6.22296, 28.1079, 16.2751, 8.82576, -44.9737, -6.29564
4.6, 5, 6.18539, 28.1345, 16.2668, 8.76328, -45.0317, -6.24932
4.604, 5, 6.14781, 28.1609, 16.2585, 8.70091, -45.0898, -6.2031
4.608, 5, 6.11022, 28.1874, 16.2503, 8.63866, -45.1479, -6.15699
4.613, 5, 6.07262, 28.2137, 16.2422, 8.57652, -45.2061, -6.11099
4.616, 5, 6.03501, 28.24, 16.2341, 8.51449, -45.2643, -6.06509
4.62, 5, 5.99738, 28.2663, 16.2261, 8.45258, -45.3226, -6.01929
4.624, 5, 5.95975, 28.2925, 16.2182, 8.39078, -45.3809, -5.9736
4.628, 5, 5.9221, 28.3187, 16.2104, 8.32909, -45.4393, -5.92801
4.632, 5, 5.88445, 28.3448, 16.2026, 8.26751, -45.4978, -5.88252
4.636, 5, 5.84678, 28.3708, 16.195, 8.20604, -45.5563, -5.83714
4.64, 5, 5.8091, 28.3968, 16.1874, 8.14469, -45.6149, -5.79186
4.644, 5, 5.77141, 28.4228, 16.1798, 8.08344, -45.6735, -5.74669
4.648, 5, 5.73371, 28.4487, 16.1724, 8.02231, -45.7322, -5.70162
4.652, 5, 5.696, 28.4745, 16.165, 7.96129, -45.791, -5.65665
4.656, 5, 5.65828, 28.5003, 16.1577, 7.90038, -45.8498, -5.61178
4.66, 5, 5.62055, 28.526, 16.1505, 7.83958, -45.9087, -5.56702
4.664, 5, 5.58281, 28.5517, 16.1433, 7.77889, -45.9676, -5.52236
4.668, 5, 5.54505, 28.5774, 16.1362, 7.71832, -46.0266, -5.4778
4.672, 5, 5.50729, 28.6029, 16.1292, 7.65785, -46.0856, -5.43335
4.676, 5, 5.46951, 28.6285, 16.1223, 7.59749, -46.1447, -5.38899
4.68, 5, 5.43173, 28.6539, 16.1155, 7.53725, -46.2039, -5.34474
4.684, 5, 5.39394, 28.6794, 16.1087, 7.47711, -46.2631, -5.30059
4.688, 5, 5.35613, 28.7047, 16.102, 7.41708, -46.3224, -5.25654
4.692, 5, 5.31832, 28.73, 16.0954, 7.35716, -46.3817, -5.21259
4.696, 5, 5.2805, 28.7553, 16.0888, 7.29736, -46.4411, -5.16874
4.7, 5, 5.24266, 28.7805, 16.0824, 7.23766, -46.5005, -5.125
4.704, 5, 5.20482, 28.8057, 16.076, 7.17806, -46.56, -5.08135
4.708, 5, 5.16697, 28.8308, 16.0697, 7.11858, -46.6196, -5.03781
4.712, 5, 5.12911, 28.8558, 16.0634, 7.05921, -46.6792, -4.99436
4.716, 5, 5.09124, 28.8808, 16.0573, 6.99994, -46.7389, -4.95101
4.72, 5, 5.05336, 28.9058, 16.0512, 6.94078, -46.7986, -4.90777
4.724, 5, 5.01547, 28.9307, 16.0452, 6.88173, -46.8584, -4.86462
4.728, 5, 4.97757, 28.9555, 16.0393, 6.82278, -46.9183, -4.82157
4.732, 5, 4.93966, 28.9803, 16.0334, 6.76394, -46.9782, -4.77862
4.736, 5, 4.90174, 29.005, 16.0276, 6.70521, -47.0382, -4.73577
4.74, 5, 4.86381, 29.0297, 16.0219, 6.64659, -47.0982, -4.69302
4.744, 5, 4.82587, 29.0544, 16.0163, 6.58807, -47.1583, -4.65036
4.748, 5, 4.78793, 29.079, 16.0108, 6.52966, -47.2184, -4.6078
4.752, 5, 4.74997, 29.1035, 16.0053, 6.47135, -47.2786, -4.56534
4.756, 5, 4.71201, 29.128, 15.9999, 6.41315, -47.3389, -4.52298
4.76, 5, 4.67404, 29.1524, 15.9946, 6.35505, -47.3992, -4.48072
4.764, 5, 4.63606, 29.1768, 15.9893, 6.29706, -47.4595, -4.43855
4.768, 5, 4.59807, 29.2011, 15.9842, 6.23917, -47.52, -4.39648
4.772, 5, 4.56007, 29.2254, 15.9791, 6.18139, -47.5805, -4.35451
4.776, 5, 4.52206, 29.2496, 15.9741, 6.12372, -47.641, -4.31263
4.78, 5, 4.48405, 29.2738, 15.9691, 6.06614, -47.7016, -4.27085
4.784, 5, 4.44603, 29.2979, 15.9643, 6.00867, -47.7622, -4.22917
4.788, 5, 4.408, 29.3219, 15.9595, 5.95131, -47.823, -4.18758
4.792, 5, 4.36996, 29.3459, 15.9548, 5.89405, -47.8837, -4.14608
4.796, 5, 4.33191, 29.3699, 15.9502, 5.83689, -47.9445, -4.10469
4.8, 5, 4.29386, 29.3938, 15.9456, 5.77984, -48.0054, -4.06338
4.804, 5, 4.25579, 29.4177, 15.9412, 5.72289, -48.0664, -4.02218
4.808, 5, 4.21772, 29.4415, 15.9368, 5.66604, -48.1274, -3.98106
4.812, 5, 4.17965, 29.4653, 15.9324, 5.60929, -48.1884, -3.94005
4.816, 5, 4.14156, 29.489, 15.9282, 5.55265, -48.2495, -3.89912
4.82, 5, 4.10347, 29.5126, 15.924, 5.49611, -48.3107, -3.85829
4.824, 5, 4.06537, 29.5362, 15.9199, 5.43967, -48.3719, -3.81756
4.828, 5, 4.02727, 29.5598, 15.9159, 5.38333, -48.4332, -3.77692
4.832, 5, 3.98915, 29.5833, 15.912, 5.32709, -48.4945, -3.73637
4.836, 5, 3.95103, 29.6067, 15.9081, 5.27096, -48.5559, -3.69592
4.84, 5, 3.91291, 29.6301, 15.9044, 5.21493, -48.6173, -3.65556
4.844, 5, 3.87477, 29.6535, 15.9007, 5.15899, -48.6788, -3.61529
4.848, 5, 3.83663, 29.6768, 15.897, 5.10316, -48.7404, -3.57511
4.852, 5, 3.79848, 29.7, 15.8935, 5.04743, -48.802, -3.53503
4.856, 5, 3.76033, 29.7232, 15.89, 4.9918, -48.8636, -3.49505
4.86, 5, 3.72217, 29.7463, 15.8866, 4.93627, -48.9253, -3.45515
4.864, 5, 3.684, 29.7694, 15.8833, 4.88084, -48.9871, -3.41535
4.868, 5, 3.64583, 29.7925, 15.88, 4.82551, -49.0489, -3.37563
4.872, 5, 3.60765, 29.8155, 15.8769, 4.77028, -49.1108, -3.33602
4.876, 5, 3.56946, 29.8384, 15.8738, 4.71515, -49.1728, -3.29649
4.88, 5, 3.53127, 29.8613, 15.8708, 4.66012, -49.2348, -3.25705
4.884, 5, 3.49308, 29.8841, 15.8678, 4.60519, -49.2968, -3.21771
4.888, 5, 3.45487, 29.9069, 15.865, 4.55036, -49.3589, -3.17846
4.892, 5, 3.41666, 29.9297, 15.8622, 4.49563, -49.4211, -3.13929
4.896, 5, 3.37845, 29.9523, 15.8595, 4.44099, -49.4833, -3.10022
4.9, 5, 3.34023, 29.975, 15.8569, 4.38646, -49.5456, -3.06124
4.904, 5, 3.302, 29.9976, 15.8543, 4.33202, -49.6079, -3.02235
4.908, 5, 3.26377, 30.0201, 15.8518, 4.27768, -49.6703, -2.98356
4.912, 5, 3.22553, 30.0426, 15.8494, 4.22344, -49.7327, -2.94485
4.916, 5, 3.18729, 30.065, 15.8471, 4.1693, -49.7952, -2.90623
4.92, 5, 3.14904, 30.0874, 15.8449, 4.11525, -49.8577, -2.8677
4.924, 5, 3.11079, 30.1097, 15.8427, 4.06131, -49.9203, -2.82926
4.928, 5, 3.07253, 30.132, 15.8406, 4.00746, -49.983, -2.79092
4.932, 5, 3.03427, 30.1542, 15.8386, 3.9537, -50.0457, -2.75266
4.936, 5, 2.996, 30.1764, 15.8367, 3.90005, -50.1084, -2.71449
4.94, 5, 2.95773, 30.1986, 15.8348, 3.84649, -50.1713, -2.67641
4.944, 5, 2.91945, 30.2206, 15.833, 3.79303, -50.2341, -2.63842
4.948, 5, 2.88117, 30.2427, 15.8313, 3.73966, -50.297, -2.60052
4.952, 5, 2.84288, 30.2646, 15.8297, 3.6864, -50.36, -2.56271
4.956, 5, 2.80459, 30.2866, 15.8282, 3.63322, -50.4231, -2.52498
4.96, 5, 2.76629, 30.3084, 15.8267, 3.58015, -50.4861, -2.48735
4.964, 5, 2.72799, 30.3303, 15.8253, 3.52717, -50.5493, -2.4498
4.968, 5, 2.68969, 30.3521, 15.824, 3.47429, -50.6125, -2.41234
4.972, 5, 2.65138, 30.3738, 15.8228, 3.4215, -50.6757, -2.37497
4.976, 5, 2.61307, 30.3955, 15.8216, 3.36881, -50.739, -2.33769
4.98, 5, 2.57475, 30.4171, 15.8205, 3.31621, -50.8024, -2.3005
4.984, 5, 2.53643, 30.4387, 15.8195, 3.26371, -50.8658, -2.26339
4.988, 5, 2.4981, 30.4602, 15.8186, 3.21131, -50.9293, -2.22637
4.992, 5, 2.45977, 30.4817, 15.8178, 3.159, -50.9928, -2.18944
4.996, 5, 2.42144, 30.5031, 15.817, 3.10678, -51.0563, -2.1526
5, 5, 2.3831, 30.5245, 15.8163, 3.05466, -51.12, -2.11585
5.004, 5, 2.34476, 30.5458, 15.8157, 3.00264, -51.1836, -2.07918
5.008, 5, 2.30642, 30.5671, 15.8151, 2.95071, -51.2474, -2.04259
5.012, 5, 2.26807, 30.5883, 15.8147, 2.89887, -51.3112, -2.0061
5.016, 5, 2.22972, 30.6095, 15.8143, 2.84713, -51.375, -1.96969
5.02, 5, 2.19137, 30.6306, 15.814, 2.79548, -51.4389, -1.93337
5.024, 5, 2.15301, 30.6517, 15.8138, 2.74393, -51.5028, -1.89714
5.028, 5, 2.11465, 30.6727, 15.8136, 2.69247, -51.5668, -1.86099
5.032, 5, 2.07628, 30.6937, 15.8136, 2.64111, -51.6309, -1.82493
5.036, 5, 2.03791, 30.7146, 15.8136, 2.58983, -51.695, -1.78895
5.04, 5, 1.99954, 30.7354, 15.8137, 2.53866, -51.7592, -1.75306
5.044, 5, 1.96117, 30.7563, 15.8138, 2.48757, -51.8234, -1.71726
5.048, 5, 1.92279, 30.777, 15.8141, 2.43658, -51.8876, -1.68154
5.052, 5, 1.88442, 30.7978, 15.8144, 2.38568, -51.952, -1.64591
5.056, 5, 1.84603, 30.8184, 15.8148, 2.33488, -52.0163, -1.61036
5.06, 5, 1.80765, 30.8391, 15.8153, 2.28417, -52.0808, -1.5749
5.064, 5, 1.76926, 30.8596, 15.8158, 2.23355, -52.1452, -1.53952
5.068, 5, 1.73087, 30.8802, 15.8165, 2.18302, -52.2098, -1.50423
5.072, 5, 1.69248, 30.9006, 15.8172, 2.13259, -52.2744, -1.46903
5.076, 5, 1.65409, 30.9211, 15.818, 2.08225, -52.339, -1.43391
5.08, 5, 1.61569, 30.9414, 15.8188, 2.032, -52.4037, -1.39887
5.084, 5, 1.57729, 30.9618, 15.8198, 1.98185, -52.4684, -1.36392
5.088, 5, 1.53889, 30.982, 15.8208, 1.93179, -52.5332, -1.32906
5.092, 5, 1.50048, 31.0023, 15.8219, 1.88181, -52.5981, -1.29428
5.096, 5, 1.46208, 31.0224, 15.8231, 1.83194, -52.663, -1.25958
5.1, 5, 1.42367, 31.0425, 15.8244, 1.78215, -52.7279, -1.22497
5.104, 5, 1.38526, 31.0626, 15.8257, 1.73245, -52.7929, -1.19044
5.108, 5, 1.34685, 31.0826, 15.8272, 1.68285, -52.858, -1.156
5.112, 5, 1.30843, 31.1026, 15.8287, 1.63334, -52.9231, -1.12164
5.116, 5, 1.27002, 31.1225, 15.8302, 1.58392, -52.9883, -1.08736
5.12, 5, 1.2316, 31.1424, 15.8319, 1.53459, -53.0535, -1.05317
5.124, 5, 1.19318, 31.1622, 15.8336, 1.48535, -53.1188, -1.01906
5.128, 5, 1.15476, 31.182, 15.8355, 1.4362, -53.1841, -0.985038
5.132, 5, 1.11634, 31.2017, 15.8373, 1.38715, -53.2495, -0.951098
5.136, 5, 1.07792, 31.2214, 15.8393, 1.33819, -53.3149, -0.917241
5.14, 5, 1.03949, 31.241, 15.8414, 1.28931, -53.3804, -0.883468
5.144, 5, 1.00107, 31.2606, 15.8435, 1.24053, -53.4459, -0.849778
5.148, 5, 0.962641, 31.2801, 15.8457, 1.19184, -53.5115, -0.816171
5.152, 5, 0.924213, 31.2996, 15.848, 1.14324, -53.5772, -0.782647
5.156, 5, 0.885784, 31.319, 15.8504, 1.09473, -53.6429, -0.749207
5.16, 5, 0.847353, 31.3384, 15.8529, 1.04631, -53.7086, -0.715849
5.164, 5, 0.808922, 31.3577, 15.8554, 0.997977, -53.7744, -0.682575
5.168, 5, 0.770487, 31.377, 15.858, 0.949737, -53.8403, -0.649383
5.172, 5, 0.732046, 31.3962, 15.8607, 0.901588, -53.9062, -0.616273
5.176, 5, 0.693594, 31.4153, 15.8635, 0.853529, -53.9721, -0.583246
5.18, 5, 0.655132, 31.4343, 15.8664, 0.80556, -54.0382, -0.550301
5.184, 5, 0.616675, 31.4532, 15.8695, 0.757681, -54.1043, -0.517436
5.188, 5, 0.57825, 31.4718, 15.8728, 0.70989, -54.1705, -0.484652
5.192, 5, 0.539895, 31.4901, 15.8764, 0.662189, -54.2368, -0.451948
5.196, 5, 0.501655, 31.508, 15.8804, 0.614578, -54.3033, -0.419324
5.2, 5, 0.463574, 31.5256, 15.8849, 0.56706, -54.3701, -0.386783
5.204, 5, 0.425692, 31.5425, 15.8901, 0.519644, -54.4372, -0.354331
5.208, 5, 0.388036, 31.5589, 15.896, 0.472341, -54.5047, -0.321976
5.212, 5, 0.350615, 31.5746, 15.903, 0.425167, -54.5727, -0.28973
5.216, 5, 0.31343, 31.5895, 15.9112, 0.378144, -54.6413, -0.257607
5.22, 6, 0.276473, 31.6035, 15.9208, 0.3313, -54.7106, -0.225628
5.224, 6, 0.239732, 31.6165, 15.932, 0.284667, -54.7807, -0.193816
5.228, 6, 0.203187, 31.6285, 15.9451, 0.238283, -54.8517, -0.162199
5.232, 6, 0.166809, 31.6394, 15.9602, 0.192191, -54.9237, -0.130805
5.236, 6, 0.130563, 31.6491, 15.9774, 0.146437, -54.9966, -0.0996684
5.24, 6, 0.0944111, 31.6576, 15.997, 0.101066, -55.0706, -0.0688204
5.244, 6, 0.0583212, 31.665, 16.0189, 0.056122, -55.1456, -0.0382924
5.248, 6, 0.022273, 31.6711, 16.0432, 0.0116444, -55.2217, -0.00811102
5.252, 6, -0.0137369, 31.6761, 16.0699, -0.0323371, -55.2988, 0.0217025
5.256, 6, -0.049696, 31.6799, 16.099, -0.0758027, -55.3767, 0.0511344
5.26, 6, -0.085582, 31.6825, 16.1304, -0.118744, -55.4556, 0.0801784
5.264, 6, -0.12137, 31.684, 16.164, -0.161163, -55.5352, 0.108836
5.268, 6, -0.157038, 31.6843, 16.1995, -0.203074, -55.6155, 0.137117
5.272, 6, -0.192576, 31.6836, 16.2369, -0.244498, -55.6965, 0.165035
5.276, 6, -0.22798, 31.6819, 16.2759, -0.285467, -55.7779, 0.192611
5.28, 6, -0.263246, 31.6793, 16.3164, -0.326015, -55.8598, 0.219871
5.284, 6, -0.298362, 31.6758, 16.3581, -0.366186, -55.942, 0.246842
5.288, 6, -0.333297, 31.6716, 16.4009, -0.40602, -56.0246, 0.273552
5.292, 6, -0.368015, 31.6667, 16.4445, -0.445562, -56.1074, 0.300031
5.296, 6, -0.402483, 31.6611, 16.4889, -0.48485, -56.1903, 0.326306
5.3, 6, -0.436682, 31.6551, 16.5338, -0.523921, -56.2735, 0.352401
5.304, 6, -0.470608, 31.6486, 16.5793, -0.562804, -56.3567, 0.378336
5.308, 6, -0.50428, 31.6418, 16.625, -0.601522, -56.4401, 0.404127
5.312, 6, -0.537733, 31.6347, 16.6711, -0.640094, -56.5235, 0.429786
5.316, 6, -0.571016, 31.6274, 16.7174, -0.678532, -56.6071, 0.455321
5.32, 6, -0.604171, 31.6199, 16.7638, -0.716846, -56.6906, 0.480739
5.324, 6, -0.637234, 31.6123, 16.8104, -0.755042, -56.7743, 0.506044
5.328, 6, -0.670226, 31.6046, 16.8571, -0.793123, -56.858, 0.531239
5.332, 6, -0.703164, 31.5969, 16.9039, -0.831094, -56.9418, 0.556326
5.336, 6, -0.736058, 31.5891, 16.9507, -0.868957, -57.0256, 0.581307
5.34, 6, -0.768916, 31.5813, 16.9976, -0.906712, -57.1094, 0.606182
5.344, 6, -0.801742, 31.5734, 17.0446, -0.944362, -57.1933, 0.630953
5.348, 6, -0.83454, 31.5655, 17.0916, -0.981906, -57.2773, 0.655621
5.352, 6, -0.867312, 31.5576, 17.1387, -1.01935, -57.3613, 0.680184
5.356, 6, -0.900059, 31.5497, 17.1859, -1.05668, -57.4453, 0.704646
5.36, 6, -0.932782, 31.5417, 17.2331, -1.09392, -57.5294, 0.729004
5.364, 6, -0.965482, 31.5337, 17.2804, -1.13105, -57.6135, 0.753261
5.368, 6, -0.99816, 31.5257, 17.3277, -1.16807, -57.6977, 0.777415
5.372, 6, -1.03081, 31.5177, 17.375, -1.205, -57.7819, 0.801469
5.376, 6, -1.06345, 31.5096, 17.4225, -1.24182, -57.8662, 0.825421
5.38, 6, -1.09606, 31.5015, 17.4699, -1.27854, -57.9505, 0.849272
5.384, 6, -1.12865, 31.4934, 17.5175, -1.31516, -58.0349, 0.873022
5.388, 6, -1.16121, 31.4853, 17.5651, -1.35168, -58.1193, 0.896672
5.392, 6, -1.19375, 31.4772, 17.6127, -1.3881, -58.2037, 0.920222
5.396, 6, -1.22627, 31.469, 17.6604, -1.42442, -58.2882, 0.943672
5.4, 6, -1.25877, 31.4608, 17.7081, -1.46064, -58.3728, 0.967023
5.404, 6, -1.29125, 31.4526, 17.7559, -1.49676, -58.4573, 0.990274
5.408, 6, -1.3237, 31.4444, 17.8038, -1.53278, -58.542, 1.01343
5.412, 6, -1.35613, 31.4362, 17.8517, -1.5687, -58.6266, 1.03648
5.416, 6, -1.38853, 31.4279, 17.8996, -1.60452, -58.7114, 1.05943
5.42, 6, -1.42092, 31.4197, 17.9476, -1.64024, -58.7961, 1.08229
5.424, 6, -1.45328, 31.4114, 17.9956, -1.67586, -58.8809, 1.10505
5.428, 6, -1.48561, 31.4031, 18.0438, -1.71138, -58.9657, 1.12771
5.432, 6, -1.51792, 31.3947, 18.0919, -1.74681, -59.0506, 1.15027
5.436, 6, -1.55021, 31.3864, 18.1401, -1.78214, -59.1356, 1.17274
5.44, 6, -1.58248, 31.378, 18.1884, -1.81737, -59.2205, 1.19511
5.444, 6, -1.61472, 31.3696, 18.2367, -1.85251, -59.3055, 1.21738
5.448, 6, -1.64694, 31.3612, 18.285, -1.88754, -59.3906, 1.23955
5.452, 6, -1.67913, 31.3528, 18.3334, -1.92248, -59.4757, 1.26163
5.456, 6, -1.7113, 31.3444, 18.3819, -1.95733, -59.5608, 1.28361
5.46, 6, -1.74345, 31.3359, 18.4304, -1.99208, -59.646, 1.3055
5.464, 6, -1.77557, 31.3274, 18.4789, -2.02673, -59.7312, 1.32729
5.468, 6, -1.80767, 31.3189, 18.5275, -2.06129, -59.8165, 1.34899
5.472, 6, -1.83974, 31.3104, 18.5762, -2.09575, -59.9018, 1.37059
5.476, 6, -1.87179, 31.3019, 18.6249, -2.13011, -59.9872, 1.3921
5.48, 6, -1.90381, 31.2933, 18.6736, -2.16439, -60.0725, 1.41351
5.484, 6, -1.93581, 31.2848, 18.7224, -2.19856, -60.158, 1.43483
5.488, 6, -1.96779, 31.2762, 18.7712, -2.23265, -60.2434, 1.45605
5.492, 6, -1.99973, 31.2676, 18.8201, -2.26664, -60.329, 1.47718
5.496, 6, -2.03166, 31.259, 18.8691, -2.30053, -60.4145, 1.49821
5.5, 6, -2.06356, 31.2504, 18.9181, -2.33434, -60.5001, 1.51916
5.504, 6, -2.09543, 31.2417, 18.9671, -2.36804, -60.5857, 1.54001
5.508, 6, -2.12728, 31.233, 19.0162, -2.40166, -60.6714, 1.56076
5.512, 6, -2.1591, 31.2244, 19.0653, -2.43518, -60.7571, 1.58143
5.516, 6, -2.19089, 31.2157, 19.1145, -2.46861, -60.8429, 1.602
5.52, 6, -2.22266, 31.2069, 19.1637, -2.50195, -60.9287, 1.62248
5.524, 6, -2.25441, 31.1982, 19.213, -2.5352, -61.0145, 1.64287
5.528, 6, -2.28613, 31.1895, 19.2623, -2.56835, -61.1004, 1.66316
5.532, 6, -2.31782, 31.1807, 19.3117, -2.60142, -61.1863, 1.68337
5.536, 6, -2.34949, 31.1719, 19.3611, -2.63439, -61.2723, 1.70348
5.54, 6, -2.38113, 31.1631, 19.4106, -2.66727, -61.3583, 1.7235
5.544, 6, -2.41274, 31.1543, 19.4601, -2.70006, -61.4443, 1.74344
5.548, 6, -2.44433, 31.1455, 19.5097, -2.73276, -61.5304, 1.76328
5.552, 6, -2.47589, 31.1366, 19.5593, -2.76537, -61.6165, 1.78303
5.556, 6, -2.50742, 31.1278, 19.6089, -2.79789, -61.7026, 1.80269
5.56, 6, -2.53893, 31.1189, 19.6586, -2.83032, -61.7888, 1.82226
5.564, 6, -2.57041, 31.11, 19.7084, -2.86266, -61.8751, 1.84174
5.568, 6, -2.60186, 31.1011, 19.7582, -2.89491, -61.9613, 1.86114
5.572, 6, -2.63329, 31.0922, 19.808, -2.92708, -62.0476, 1.88044
5.576, 6, -2.66468, 31.0833, 19.8579, -2.95915, -62.134, 1.89966
5.58, 6, -2.69605, 31.0743, 19.9078, -2.99114, -62.2204, 1.91878
5.584, 6, -2.7274, 31.0654, 19.9578, -3.02304, -62.3068, 1.93782
5.588, 6, -2.75871, 31.0564, 20.0078, -3.05485, -62.3933, 1.95677
5.592, 6, -2.79, 31.0474, 20.0578, -3.08657, -62.4798, 1.97563
5.596, 6, -2.82126, 31.0384, 20.108, -3.11821, -62.5663, 1.99441
5.6, 6, -2.85249, 31.0294, 20.1581, -3.14976, -62.6529, 2.0131
5.604, 6, -2.8837, 31.0203, 20.2083, -3.18122, -62.7395, 2.0317
5.608, 6, -2.91487, 31.0113, 20.2585, -3.21259, -62.8261, 2.05021
5.612, 6, -2.94602, 31.0022, 20.3088, -3.24388, -62.9128, 2.06864
5.616, 6, -2.97714, 30.9931, 20.3592, -3.27509, -62.9995, 2.08698
5.62, 6, -3.00823, 30.9841, 20.4095, -3.3062, -63.0863, 2.10523
5.624, 6, -3.03929, 30.975, 20.4599, -3.33723, -63.1731, 2.1234
5.628, 6, -3.07033, 30.9658, 20.5104, -3.36818, -63.2599, 2.14148
5.632, 6, -3.10133, 30.9567, 20.5609, -3.39904, -63.3468, 2.15948
5.636, 6, -3.1323, 30.9476, 20.6115, -3.42982, -63.4337, 2.17739
5.64, 6, -3.16325, 30.9384, 20.6621, -3.46051, -63.5206, 2.19522
5.644, 6, -3.19417, 30.9292, 20.7127, -3.49112, -63.6076, 2.21296
5.648, 6, -3.22506, 30.9201, 20.7634, -3.52164, -63.6946, 2.23062
5.652, 6, -3.25592, 30.9109, 20.8141, -3.55208, -63.7817, 2.24819
5.656, 6, -3.28675, 30.9017, 20.8649, -3.58244, -63.8688, 2.26568
5.66, 6, -3.31755, 30.8925, 20.9157, -3.61271, -63.9559, 2.28309
5.664, 6, -3.34832, 30.8832, 20.9665, -3.6429, -64.0431, 2.30041
5.668, 6, -3.37906, 30.874, 21.0174, -3.67301, -64.1302, 2.31765
5.672, 6, -3.40977, 30.8647, 21.0683, -3.70303, -64.2175, 2.3348
5.676, 6, -3.44046, 30.8555, 21.1193, -3.73298, -64.3047, 2.35187
5.68, 6, -3.47111, 30.8462, 21.1703, -3.76284, -64.3921, 2.36886
5.684, 6, -3.50173, 30.8369, 21.2214, -3.79262, -64.4794, 2.38577
5.688, 6, -3.53232, 30.8276, 21.2725, -3.82232, -64.5668, 2.4026
5.692, 6, -3.56289, 30.8183, 21.3236, -3.85194, -64.6542, 2.41934
5.696, 6, -3.59342, 30.809, 21.3748, -3.88147, -64.7416, 2.43601
5.7, 6, -3.62392, 30.7996, 21.4261, -3.91093, -64.8291, 2.45259
5.704, 6, -3.65439, 30.7903, 21.4773, -3.94031, -64.9166, 2.46909
5.708, 6, -3.68483, 30.7809, 21.5286, -3.96961, -65.0042, 2.48551
5.712, 6, -3.71524, 30.7715, 21.58, -3.99883, -65.0917, 2.50185
5.716, 6, -3.74562, 30.7622, 21.6314, -4.02797, -65.1794, 2.51811
5.72, 6, -3.77597, 30.7528, 21.6828, -4.05703, -65.267, 2.53429
5.724, 6, -3.80628, 30.7434, 21.7343, -4.08601, -65.3547, 2.55039
5.728, 6, -3.83657, 30.734, 21.7858, -4.11491, -65.4424, 2.56641
5.732, 6, -3.86682, 30.7245, 21.8374, -4.14373, -65.5302, 2.58235
5.736, 6, -3.89705, 30.7151, 21.889, -4.17248, -65.618, 2.59821
5.74, 6, -3.92724, 30.7056, 21.9406, -4.20115, -65.7058, 2.61399
5.744, 6, -3.9574, 30.6962, 21.9923, -4.22973, -65.7937, 2.62969
5.748, 6, -3.98753, 30.6867, 22.044, -4.25825, -65.8816, 2.64531
5.752, 6, -4.01762, 30.6773, 22.0958, -4.28668, -65.9695, 2.66085
5.756, 6, -4.04769, 30.6678, 22.1476, -4.31503, -66.0575, 2.67632
5.76, 6, -4.07772, 30.6583, 22.1995, -4.34331, -66.1455, 2.6917
5.764, 6, -4.10772, 30.6488, 22.2513, -4.37151, -66.2335, 2.70701
5.768, 6, -4.13769, 30.6393, 22.3033, -4.39963, -66.3216, 2.72224
5.772, 6, -4.16763, 30.6297, 22.3552, -4.42768, -66.4097, 2.73739
5.776, 6, -4.19753, 30.6202, 22.4072, -4.45565, -66.4979, 2.75246
5.78, 6, -4.2274, 30.6107, 22.4593, -4.48354, -66.586, 2.76745
5.784, 6, -4.25724, 30.6011, 22.5113, -4.51135, -66.6742, 2.78237
5.788, 6, -4.28704, 30.5916, 22.5635, -4.53909, -66.7625, 2.79721
5.792, 6, -4.31682, 30.582, 22.6156, -4.56675, -66.8508, 2.81197
5.796, 6, -4.34656, 30.5724, 22.6678, -4.59434, -66.9391, 2.82665
5.8, 6, -4.37626, 30.5628, 22.72, -4.62185, -67.0274, 2.84126
5.804, 6, -4.40593, 30.5533, 22.7723, -4.64928, -67.1158, 2.85579
5.808, 6, -4.43557, 30.5437, 22.8246, -4.67664, -67.2042, 2.87024
5.812, 6, -4.46518, 30.534, 22.877, -4.70392, -67.2926, 2.88461
5.816, 6, -4.49475, 30.5244, 22.9294, -4.73112, -67.3811, 2.89891
5.82, 6, -4.52429, 30.5148, 22.9818, -4.75825, -67.4696, 2.91313
5.824, 6, -4.55379, 30.5052, 23.0343, -4.78531, -67.5582, 2.92727
5.828, 6, -4.58326, 30.4955, 23.0868, -4.81228, -67.6467, 2.94134
5.832, 6, -4.61269, 30.4859, 23.1393, -4.83919, -67.7353, 2.95533
5.836, 6, -4.64209, 30.4762, 23.1919, -4.86602, -67.824, 2.96925
5.84, 6, -4.67146, 30.4666, 23.2445, -4.89277, -67.9127, 2.98309
5.844, 6, -4.70079, 30.4569, 23.2971, -4.91945, -68.0014, 2.99685
5.848, 6, -4.73009, 30.4472, 23.3498, -4.94605, -68.0901, 3.01054
5.852, 6, -4.75935, 30.4376, 23.4025, -4.97259, -68.1789, 3.02415
5.856, 6, -4.78857, 30.4279, 23.4553, -4.99904, -68.2677, 3.03769
5.86, 6, -4.81777, 30.4182, 23.5081, -5.02542, -68.3565, 3.05115
5.864, 6, -4.84692, 30.4085, 23.5609, -5.05173, -68.4454, 3.06453
5.868, 6, -4.87604, 30.3988, 23.6138, -5.07796, -68.5343, 3.07784
5.872, 6, -4.90512, 30.3891, 23.6667, -5.10412, -68.6232, 3.09108
5.876, 6, -4.93417, 30.3794, 23.7196, -5.13021, -68.7122, 3.10424
5.88, 6, -4.96319, 30.3696, 23.7726, -5.15622, -68.8012, 3.11733
5.884, 6, -4.99216, 30.3599, 23.8256, -5.18216, -68.8902, 3.13034
5.888, 6, -5.0211, 30.3502, 23.8786, -5.20803, -68.9793, 3.14328
5.892, 6, -5.05001, 30.3404, 23.9317, -5.23382, -69.0683, 3.15614
5.896, 6, -5.07887, 30.3307, 23.9848, -5.25954, -69.1575, 3.16893
5.9, 6, -5.1077, 30.3209, 24.038, -5.28519, -69.2466, 3.18165
5.904, 6, -5.1365, 30.3112, 24.0911, -5.31077, -69.3358, 3.19429
5.908, 6, -5.16525, 30.3014, 24.1443, -5.33627, -69.425, 3.20686
5.912, 6, -5.19397, 30.2917, 24.1976, -5.3617, -69.5143, 3.21935
5.916, 6, -5.22266, 30.2819, 24.2509, -5.38706, -69.6035, 3.23177
5.92, 6, -5.2513, 30.2721, 24.3042, -5.41234, -69.6928, 3.24412
5.924, 6, -5.27991, 30.2623, 24.3575, -5.43756, -69.7822, 3.2564
5.928, 6, -5.30848, 30.2526, 24.4109, -5.4627, -69.8716, 3.2686
5.932, 6, -5.33702, 30.2428, 24.4643, -5.48777, -69.961, 3.28073
5.936, 6, -5.36551, 30.233, 24.5178, -5.51277, -70.0504, 3.29278
5.94, 6, -5.39397, 30.2232, 24.5713, -5.5377, -70.1398, 3.30477
5.944, 6, -5.42239, 30.2134, 24.6248, -5.56256, -70.2293, 3.31668
5.948, 6, -5.45077, 30.2036, 24.6784, -5.58734, -70.3189, 3.32852
5.952, 6, -5.47911, 30.1938, 24.7319, -5.61206, -70.4084, 3.34029
5.956, 6, -5.50742, 30.184, 24.7856, -5.6367, -70.498, 3.35198
