hehonglu123/ABB_Primitive_Study/execution/movec_smooth/curve_exe_v200_z10.csv
timestamp, cmd_num, J1, J2, J3, J4, J5, J6
0, 1, 32.9528, 52.8019, -8.46502, 89.9168, -78.8096, 34.6812
0.002, 1, 32.9528, 52.8019, -8.46502, 89.9168, -78.8096, 34.6812
0.004, 1, 32.9528, 52.8019, -8.46502, 89.9168, -78.8096, 34.6812
0.01, 1, 32.9528, 52.8019, -8.46502, 89.9168, -78.8096, 34.6812
0.012, 1, 32.9528, 52.8019, -8.46502, 89.9168, -78.8096, 34.6812
0.016, 1, 32.9528, 52.8019, -8.46502, 89.9168, -78.8096, 34.6812
0.02, 1, 32.9528, 52.8019, -8.46502, 89.9168, -78.8096, 34.6812
0.024, 1, 32.9528, 52.8019, -8.46502, 89.9168, -78.8096, 34.6812
0.028, 1, 32.9528, 52.8019, -8.46502, 89.9168, -78.8096, 34.6812
0.032, 1, 32.9528, 52.8019, -8.46502, 89.9168, -78.8096, 34.6812
0.036, 1, 32.9529, 52.8019, -8.46502, 89.9168, -78.8096, 34.6812
0.04, 1, 32.9531, 52.8018, -8.46503, 89.9168, -78.8095, 34.6812
0.044, 1, 32.9535, 52.8014, -8.46505, 89.9169, -78.8095, 34.6812
0.048, 1, 32.9543, 52.8006, -8.4651, 89.9169, -78.8093, 34.6813
0.052, 1, 32.9556, 52.7993, -8.46521, 89.917, -78.8088, 34.6814
0.056, 1, 32.9574, 52.7971, -8.46544, 89.9173, -78.8079, 34.6818
0.06, 1, 32.9597, 52.794, -8.46584, 89.9178, -78.8061, 34.6824
0.064, 1, 32.9625, 52.7899, -8.46653, 89.9186, -78.803, 34.6834
0.068, 1, 32.9659, 52.7849, -8.46761, 89.92, -78.798, 34.6852
0.072, 1, 32.9697, 52.7789, -8.46923, 89.922, -78.7905, 34.6877
0.076, 1, 32.9741, 52.7719, -8.47155, 89.925, -78.7796, 34.6915
0.08, 1, 32.9791, 52.7639, -8.47475, 89.9292, -78.7644, 34.6967
0.084, 1, 32.9847, 52.7549, -8.47904, 89.9348, -78.744, 34.7037
0.088, 1, 32.991, 52.7451, -8.48462, 89.9421, -78.7174, 34.7128
0.092, 1, 32.9978, 52.7344, -8.49169, 89.9515, -78.6834, 34.7244
0.096, 1, 33.005, 52.7231, -8.50046, 89.9631, -78.6411, 34.7389
0.1, 1, 33.0126, 52.7112, -8.51109, 89.9773, -78.5897, 34.7566
0.104, 1, 33.0204, 52.699, -8.5237, 89.9942, -78.5285, 34.7775
0.108, 1, 33.0284, 52.6863, -8.53837, 90.0139, -78.4572, 34.802
0.112, 1, 33.0368, 52.673, -8.55512, 90.0364, -78.3757, 34.8299
0.116, 1, 33.0455, 52.6592, -8.57391, 90.0617, -78.2841, 34.8613
0.12, 1, 33.0546, 52.6447, -8.59467, 90.0896, -78.183, 34.896
0.124, 1, 33.0642, 52.6296, -8.61726, 90.12, -78.0728, 34.9337
0.128, 1, 33.0741, 52.6139, -8.64154, 90.1527, -77.9545, 34.9743
0.131, 1, 33.0844, 52.5977, -8.66731, 90.1875, -77.8288, 35.0174
0.136, 1, 33.0949, 52.5809, -8.69437, 90.2239, -77.6968, 35.0627
0.139, 1, 33.1058, 52.5633, -8.72251, 90.2618, -77.5596, 35.1097
0.144, 1, 33.1172, 52.5447, -8.75152, 90.3009, -77.4182, 35.1582
0.148, 1, 33.1293, 52.525, -8.7812, 90.3408, -77.2736, 35.2077
0.152, 1, 33.1421, 52.5041, -8.81138, 90.3814, -77.1267, 35.2581
0.156, 1, 33.1556, 52.4819, -8.8419, 90.4224, -76.9782, 35.309
0.16, 1, 33.17, 52.4586, -8.87265, 90.4637, -76.8286, 35.3603
0.164, 1, 33.1849, 52.4345, -8.90354, 90.5052, -76.6784, 35.4118
0.168, 1, 33.2004, 52.4098, -8.93451, 90.5467, -76.5279, 35.4634
0.172, 1, 33.2161, 52.3847, -8.9655, 90.5883, -76.3772, 35.515
0.176, 1, 33.2321, 52.3594, -8.9965, 90.6299, -76.2265, 35.5667
0.18, 1, 33.2481, 52.334, -9.02749, 90.6715, -76.076, 35.6183
0.184, 1, 33.2643, 52.3084, -9.05844, 90.713, -75.9256, 35.6699
0.188, 1, 33.2805, 52.2828, -9.08935, 90.7545, -75.7754, 35.7214
0.192, 1, 33.2967, 52.2573, -9.12022, 90.7959, -75.6254, 35.7728
0.196, 1, 33.3129, 52.2317, -9.15104, 90.8372, -75.4757, 35.8241
0.2, 1, 33.3291, 52.2061, -9.1818, 90.8785, -75.3262, 35.8753
0.204, 1, 33.3453, 52.1806, -9.21251, 90.9197, -75.177, 35.9265
0.208, 1, 33.3614, 52.1551, -9.24316, 90.9608, -75.028, 35.9775
0.212, 1, 33.3776, 52.1296, -9.27376, 91.0018, -74.8794, 36.0285
0.216, 1, 33.3937, 52.1042, -9.30431, 91.0428, -74.731, 36.0794
0.22, 1, 33.4098, 52.0788, -9.33479, 91.0837, -74.5829, 36.1302
0.224, 1, 33.4258, 52.0535, -9.36522, 91.1245, -74.435, 36.1808
0.228, 1, 33.4419, 52.0282, -9.3956, 91.1652, -74.2874, 36.2314
0.232, 1, 33.4579, 52.003, -9.42592, 91.2059, -74.1401, 36.2819
0.236, 1, 33.4738, 51.9778, -9.45618, 91.2465, -73.9931, 36.3323
0.24, 1, 33.4898, 51.9526, -9.48639, 91.287, -73.8463, 36.3826
0.244, 1, 33.5057, 51.9275, -9.51654, 91.3275, -73.6998, 36.4329
0.248, 1, 33.5216, 51.9025, -9.54664, 91.3678, -73.5536, 36.483
0.252, 1, 33.5374, 51.8774, -9.57668, 91.4081, -73.4076, 36.533
0.256, 1, 33.5533, 51.8525, -9.60667, 91.4483, -73.2619, 36.583
0.26, 1, 33.5691, 51.8276, -9.63661, 91.4885, -73.1165, 36.6328
0.264, 1, 33.5848, 51.8027, -9.66649, 91.5286, -72.9713, 36.6826
0.268, 1, 33.6006, 51.7778, -9.69631, 91.5686, -72.8264, 36.7323
0.272, 1, 33.6163, 51.7531, -9.72609, 91.6085, -72.6817, 36.7819
0.276, 1, 33.632, 51.7283, -9.75581, 91.6484, -72.5373, 36.8314
0.28, 1, 33.6476, 51.7036, -9.78548, 91.6882, -72.3932, 36.8808
0.284, 1, 33.6633, 51.679, -9.81509, 91.7279, -72.2493, 36.9301
0.288, 1, 33.6789, 51.6544, -9.84465, 91.7675, -72.1057, 36.9794
0.292, 1, 33.6945, 51.6298, -9.87416, 91.8071, -71.9623, 37.0285
0.296, 1, 33.71, 51.6053, -9.90362, 91.8466, -71.8191, 37.0776
0.3, 1, 33.7255, 51.5808, -9.93303, 91.8861, -71.6763, 37.1265
0.304, 1, 33.741, 51.5563, -9.96238, 91.9255, -71.5336, 37.1754
0.308, 1, 33.7565, 51.5319, -9.99169, 91.9648, -71.3913, 37.2242
0.312, 1, 33.7719, 51.5076, -10.0209, 92.004, -71.2491, 37.273
0.316, 1, 33.7873, 51.4833, -10.0501, 92.0432, -71.1073, 37.3216
0.32, 1, 33.8027, 51.459, -10.0793, 92.0823, -70.9656, 37.3702
0.324, 1, 33.8181, 51.4348, -10.1084, 92.1213, -70.8242, 37.4186
0.328, 1, 33.8334, 51.4106, -10.1375, 92.1603, -70.6831, 37.467
0.332, 1, 33.8487, 51.3864, -10.1665, 92.1992, -70.5422, 37.5153
0.336, 1, 33.864, 51.3623, -10.1954, 92.238, -70.4015, 37.5636
0.34, 1, 33.8793, 51.3383, -10.2243, 92.2768, -70.261, 37.6117
0.344, 1, 33.8945, 51.3142, -10.2532, 92.3155, -70.1209, 37.6598
0.348, 1, 33.9097, 51.2903, -10.282, 92.3541, -69.9809, 37.7077
0.352, 1, 33.9249, 51.2663, -10.3107, 92.3927, -69.8412, 37.7556
0.356, 1, 33.94, 51.2424, -10.3394, 92.4312, -69.7017, 37.8034
0.36, 1, 33.9552, 51.2186, -10.3681, 92.4696, -69.5624, 37.8512
0.364, 1, 33.9703, 51.1947, -10.3967, 92.508, -69.4234, 37.8988
0.368, 1, 33.9853, 51.171, -10.4253, 92.5463, -69.2846, 37.9464
0.372, 1, 34.0004, 51.1472, -10.4538, 92.5846, -69.1461, 37.9939
0.376, 1, 34.0154, 51.1235, -10.4823, 92.6228, -69.0078, 38.0413
0.38, 1, 34.0304, 51.0998, -10.5107, 92.6609, -68.8697, 38.0887
0.384, 1, 34.0454, 51.0762, -10.5391, 92.6989, -68.7318, 38.1359
0.388, 1, 34.0604, 51.0526, -10.5674, 92.7369, -68.5941, 38.1831
0.392, 1, 34.0753, 51.0291, -10.5957, 92.7749, -68.4567, 38.2302
0.396, 1, 34.0902, 51.0056, -10.6239, 92.8127, -68.3195, 38.2773
0.4, 1, 34.1051, 50.9821, -10.6521, 92.8506, -68.1825, 38.3242
0.404, 1, 34.1199, 50.9587, -10.6803, 92.8883, -68.0458, 38.3711
0.408, 1, 34.1348, 50.9353, -10.7084, 92.926, -67.9093, 38.4179
0.412, 1, 34.1496, 50.9119, -10.7364, 92.9636, -67.773, 38.4646
0.416, 1, 34.1643, 50.8886, -10.7644, 93.0012, -67.6369, 38.5113
0.42, 1, 34.1791, 50.8653, -10.7924, 93.0387, -67.501, 38.5579
0.424, 1, 34.1938, 50.8421, -10.8203, 93.0762, -67.3653, 38.6044
0.428, 1, 34.2086, 50.8189, -10.8482, 93.1136, -67.2299, 38.6508
0.432, 1, 34.2232, 50.7957, -10.876, 93.1509, -67.0947, 38.6971
0.436, 1, 34.2379, 50.7726, -10.9038, 93.1881, -66.9597, 38.7434
0.44, 1, 34.2526, 50.7495, -10.9315, 93.2254, -66.8249, 38.7896
0.444, 1, 34.2672, 50.7264, -10.9592, 93.2625, -66.6903, 38.8358
0.448, 1, 34.2818, 50.7034, -10.9869, 93.2996, -66.5559, 38.8818
0.452, 1, 34.2964, 50.6804, -11.0145, 93.3367, -66.4217, 38.9278
0.456, 1, 34.3109, 50.6574, -11.0421, 93.3736, -66.2878, 38.9738
0.46, 1, 34.3254, 50.6345, -11.0696, 93.4106, -66.154, 39.0196
0.464, 1, 34.3399, 50.6116, -11.0971, 93.4474, -66.0204, 39.0654
0.468, 1, 34.3544, 50.5888, -11.1246, 93.4842, -65.8871, 39.1111
0.472, 1, 34.3689, 50.566, -11.152, 93.521, -65.754, 39.1567
0.476, 1, 34.3833, 50.5432, -11.1793, 93.5577, -65.621, 39.2023
0.48, 1, 34.3978, 50.5204, -11.2066, 93.5943, -65.4883, 39.2478
0.484, 1, 34.4121, 50.4977, -11.2339, 93.6309, -65.3558, 39.2933
0.488, 1, 34.4265, 50.475, -11.2612, 93.6675, -65.2234, 39.3386
0.492, 1, 34.4409, 50.4524, -11.2884, 93.7039, -65.0913, 39.3839
0.496, 1, 34.4552, 50.4298, -11.3155, 93.7404, -64.9594, 39.4291
0.5, 1, 34.4695, 50.4072, -11.3426, 93.7767, -64.8276, 39.4743
0.504, 1, 34.4838, 50.3847, -11.3697, 93.813, -64.6961, 39.5194
0.508, 1, 34.4981, 50.3622, -11.3967, 93.8493, -64.5647, 39.5644
0.512, 1, 34.5123, 50.3397, -11.4237, 93.8855, -64.4336, 39.6094
0.516, 1, 34.5265, 50.3173, -11.4507, 93.9217, -64.3026, 39.6543
0.52, 1, 34.5408, 50.2949, -11.4776, 93.9578, -64.1719, 39.6991
0.524, 1, 34.5549, 50.2725, -11.5045, 93.9938, -64.0413, 39.7439
0.528, 1, 34.5691, 50.2501, -11.5313, 94.0298, -63.9109, 39.7886
0.532, 1, 34.5832, 50.2278, -11.5581, 94.0657, -63.7807, 39.8332
0.536, 1, 34.5974, 50.2056, -11.5848, 94.1016, -63.6507, 39.8777
0.54, 1, 34.6115, 50.1833, -11.6116, 94.1375, -63.5209, 39.9222
0.544, 1, 34.6255, 50.1611, -11.6382, 94.1732, -63.3913, 39.9667
0.548, 1, 34.6396, 50.1389, -11.6649, 94.209, -63.2619, 40.0111
0.552, 1, 34.6536, 50.1168, -11.6915, 94.2447, -63.1326, 40.0554
0.556, 1, 34.6677, 50.0947, -11.718, 94.2803, -63.0036, 40.0996
0.56, 1, 34.6817, 50.0726, -11.7446, 94.3159, -62.8747, 40.1438
0.564, 1, 34.6956, 50.0505, -11.7711, 94.3514, -62.746, 40.1879
0.568, 1, 34.7096, 50.0285, -11.7975, 94.3869, -62.6175, 40.2319
0.572, 1, 34.7235, 50.0065, -11.8239, 94.4223, -62.4892, 40.2759
0.576, 1, 34.7375, 49.9846, -11.8503, 94.4577, -62.361, 40.3199
0.58, 1, 34.7514, 49.9626, -11.8766, 94.493, -62.2331, 40.3637
0.584, 1, 34.7652, 49.9407, -11.9029, 94.5283, -62.1053, 40.4075
0.588, 1, 34.7791, 49.9189, -11.9292, 94.5635, -61.9777, 40.4513
0.592, 1, 34.7929, 49.897, -11.9554, 94.5987, -61.8503, 40.495
0.596, 1, 34.8068, 49.8752, -11.9816, 94.6338, -61.723, 40.5386
0.6, 1, 34.8206, 49.8535, -12.0078, 94.6689, -61.5959, 40.5821
0.604, 1, 34.8343, 49.8317, -12.0339, 94.7039, -61.4691, 40.6256
0.608, 1, 34.8481, 49.81, -12.06, 94.7389, -61.3423, 40.6691
0.612, 1, 34.8618, 49.7883, -12.086, 94.7738, -61.2158, 40.7125
0.616, 1, 34.8756, 49.7667, -12.112, 94.8087, -61.0894, 40.7558
0.62, 1, 34.8893, 49.7451, -12.138, 94.8435, -60.9632, 40.799
0.624, 1, 34.903, 49.7235, -12.1639, 94.8783, -60.8372, 40.8422
0.628, 1, 34.9166, 49.7019, -12.1898, 94.9131, -60.7114, 40.8854
0.632, 1, 34.9303, 49.6804, -12.2157, 94.9478, -60.5857, 40.9284
0.636, 1, 34.9439, 49.6589, -12.2415, 94.9824, -60.4602, 40.9715
0.64, 1, 34.9575, 49.6374, -12.2673, 95.017, -60.3349, 41.0144
0.644, 1, 34.9711, 49.6159, -12.2931, 95.0516, -60.2097, 41.0573
0.648, 1, 34.9847, 49.5945, -12.3188, 95.0861, -60.0847, 41.1002
0.652, 1, 34.9983, 49.5731, -12.3445, 95.1205, -59.9599, 41.143
0.656, 1, 35.0118, 49.5518, -12.3701, 95.1549, -59.8352, 41.1857
0.66, 1, 35.0253, 49.5304, -12.3958, 95.1893, -59.7107, 41.2284
0.664, 1, 35.0388, 49.5091, -12.4214, 95.2236, -59.5864, 41.271
0.668, 1, 35.0523, 49.4879, -12.4469, 95.2579, -59.4622, 41.3136
0.672, 1, 35.0658, 49.4666, -12.4724, 95.2921, -59.3382, 41.3561
0.676, 1, 35.0792, 49.4454, -12.4979, 95.3263, -59.2144, 41.3985
0.68, 1, 35.0927, 49.4242, -12.5234, 95.3605, -59.0907, 41.4409
0.684, 1, 35.1061, 49.4031, -12.5488, 95.3946, -58.9672, 41.4833
0.688, 1, 35.1195, 49.3819, -12.5742, 95.4286, -58.8439, 41.5256
0.692, 1, 35.1329, 49.3608, -12.5995, 95.4626, -58.7207, 41.5678
0.696, 1, 35.1462, 49.3397, -12.6249, 95.4966, -58.5977, 41.61
0.7, 1, 35.1596, 49.3187, -12.6501, 95.5305, -58.4748, 41.6521
0.704, 1, 35.1729, 49.2977, -12.6754, 95.5644, -58.3521, 41.6941
0.708, 1, 35.1862, 49.2767, -12.7006, 95.5982, -58.2296, 41.7361
0.712, 1, 35.1995, 49.2557, -12.7258, 95.632, -58.1072, 41.7781
0.716, 1, 35.2128, 49.2347, -12.751, 95.6657, -57.985, 41.82
0.72, 1, 35.226, 49.2138, -12.7761, 95.6994, -57.8629, 41.8618
0.724, 1, 35.2393, 49.1929, -12.8012, 95.7331, -57.741, 41.9036
0.728, 1, 35.2525, 49.1721, -12.8262, 95.7667, -57.6192, 41.9454
0.732, 1, 35.2657, 49.1512, -12.8513, 95.8003, -57.4976, 41.9871
0.736, 1, 35.2789, 49.1304, -12.8763, 95.8338, -57.3762, 42.0287
0.74, 1, 35.2921, 49.1097, -12.9012, 95.8673, -57.2549, 42.0703
0.744, 1, 35.3052, 49.0889, -12.9262, 95.9007, -57.1338, 42.1118
0.748, 1, 35.3184, 49.0682, -12.9511, 95.9341, -57.0128, 42.1533
0.752, 1, 35.3315, 49.0475, -12.9759, 95.9675, -56.8919, 42.1947
0.756, 1, 35.3446, 49.0268, -13.0008, 96.0008, -56.7712, 42.2361
0.76, 1, 35.3577, 49.0061, -13.0256, 96.0341, -56.6507, 42.2774
0.764, 1, 35.3708, 48.9855, -13.0504, 96.0673, -56.5303, 42.3187
0.768, 1, 35.3838, 48.9649, -13.0751, 96.1005, -56.4101, 42.3599
0.772, 1, 35.3969, 48.9443, -13.0998, 96.1336, -56.29, 42.401
0.776, 1, 35.4099, 48.9238, -13.1245, 96.1667, -56.1701, 42.4422
0.78, 1, 35.4229, 48.9032, -13.1492, 96.1998, -56.0503, 42.4832
0.784, 1, 35.4359, 48.8827, -13.1738, 96.2328, -55.9306, 42.5242
0.788, 1, 35.4489, 48.8623, -13.1984, 96.2658, -55.8112, 42.5652
0.792, 1, 35.4619, 48.8418, -13.2229, 96.2988, -55.6918, 42.6061
0.796, 1, 35.4748, 48.8214, -13.2475, 96.3317, -55.5726, 42.647
0.8, 1, 35.4877, 48.801, -13.272, 96.3646, -55.4535, 42.6878
0.804, 1, 35.5006, 48.7806, -13.2965, 96.3974, -55.3346, 42.7285
0.808, 1, 35.5136, 48.7603, -13.3209, 96.4302, -55.2159, 42.7693
0.812, 1, 35.5264, 48.7399, -13.3453, 96.4629, -55.0972, 42.8099
0.816, 1, 35.5393, 48.7196, -13.3697, 96.4956, -54.9787, 42.8506
0.82, 1, 35.5522, 48.6994, -13.3941, 96.5283, -54.8604, 42.8911
0.824, 1, 35.565, 48.6791, -13.4184, 96.5609, -54.7422, 42.9316
0.828, 1, 35.5778, 48.6589, -13.4427, 96.5935, -54.6241, 42.9721
0.832, 1, 35.5906, 48.6387, -13.467, 96.6261, -54.5062, 43.0125
0.836, 1, 35.6034, 48.6185, -13.4912, 96.6586, -54.3884, 43.0529
0.84, 1, 35.6162, 48.5983, -13.5154, 96.6911, -54.2707, 43.0933
0.844, 1, 35.629, 48.5782, -13.5396, 96.7235, -54.1532, 43.1335
0.848, 1, 35.6417, 48.5581, -13.5638, 96.7559, -54.0358, 43.1738
0.852, 1, 35.6545, 48.538, -13.5879, 96.7883, -53.9186, 43.214
0.856, 1, 35.6672, 48.5179, -13.612, 96.8206, -53.8015, 43.2541
0.86, 1, 35.6799, 48.4979, -13.6361, 96.8529, -53.6845, 43.2942
0.864, 1, 35.6925, 48.4779, -13.6601, 96.8852, -53.5677, 43.3343
0.868, 1, 35.7051, 48.458, -13.6841, 96.9174, -53.451, 43.3743
0.872, 1, 35.7176, 48.4381, -13.7081, 96.9496, -53.3345, 43.4142
0.876, 1, 35.73, 48.4184, -13.7321, 96.9817, -53.2181, 43.4541
0.88, 1, 35.7419, 48.3992, -13.756, 97.0137, -53.102, 43.4939
0.884, 1, 35.7533, 48.3805, -13.7798, 97.0457, -52.9863, 43.5336
0.888, 1, 35.7641, 48.3627, -13.8035, 97.0775, -52.8712, 43.5731
0.892, 1, 35.7742, 48.3457, -13.8269, 97.109, -52.757, 43.6122
0.896, 1, 35.7836, 48.3297, -13.8501, 97.1401, -52.6444, 43.6508
0.9, 1, 35.7924, 48.3145, -13.8728, 97.1706, -52.534, 43.6887
0.904, 1, 35.8007, 48.3002, -13.895, 97.2003, -52.4264, 43.7256
0.908, 1, 35.8087, 48.2866, -13.9163, 97.229, -52.3226, 43.7613
0.912, 1, 35.8164, 48.2736, -13.9367, 97.2564, -52.2234, 43.7953
0.916, 1, 35.8238, 48.2613, -13.956, 97.2823, -52.1296, 43.8275
0.92, 1, 35.8309, 48.2497, -13.9741, 97.3065, -52.042, 43.8576
0.924, 1, 35.8377, 48.2387, -13.9907, 97.3288, -51.9612, 43.8853
0.928, 1, 35.8442, 48.2281, -14.0057, 97.3491, -51.888, 43.9104
0.932, 1, 35.8507, 48.2178, -14.0192, 97.3671, -51.8226, 43.9328
0.936, 1, 35.8571, 48.2077, -14.031, 97.3829, -51.7653, 43.9524
0.94, 1, 35.8634, 48.1979, -14.0412, 97.3966, -51.716, 43.9693
0.944, 1, 35.8695, 48.1884, -14.0498, 97.4081, -51.6743, 43.9836
0.948, 1, 35.8755, 48.1793, -14.0569, 97.4175, -51.6399, 43.9954
0.952, 2, 35.8812, 48.1708, -14.0626, 97.4252, -51.612, 44.0049
0.956, 2, 35.8865, 48.1631, -14.0672, 97.4313, -51.5899, 44.0124
0.96, 2, 35.8915, 48.1562, -14.0707, 97.436, -51.5728, 44.0183
0.964, 2, 35.896, 48.1502, -14.0734, 97.4396, -51.5598, 44.0227
0.968, 2, 35.9001, 48.145, -14.0754, 97.4422, -51.5503, 44.0259
0.972, 2, 35.9037, 48.1406, -14.0768, 97.4441, -51.5433, 44.0283
0.976, 2, 35.9067, 48.1371, -14.0778, 97.4454, -51.5385, 44.0299
0.98, 2, 35.9091, 48.1343, -14.0785, 97.4463, -51.5351, 44.0311
0.984, 2, 35.911, 48.1323, -14.079, 97.4469, -51.5327, 44.0319
0.988, 2, 35.9123, 48.1308, -14.0793, 97.4474, -51.5312, 44.0324
0.992, 2, 35.9132, 48.1299, -14.0796, 97.4477, -51.5301, 44.0328
0.996, 2, 35.9138, 48.1292, -14.0797, 97.4479, -51.5294, 44.033
1, 2, 35.9142, 48.1287, -14.0798, 97.448, -51.5289, 44.0332
1.004, 2, 35.9145, 48.1284, -14.0799, 97.4481, -51.5285, 44.0333
1.008, 2, 35.9147, 48.1282, -14.0799, 97.4482, -51.5283, 44.0334
1.012, 2, 35.9149, 48.1281, -14.08, 97.4482, -51.5282, 44.0334
1.016, 2, 35.9149, 48.128, -14.08, 97.4482, -51.5281, 44.0335
1.02, 2, 35.915, 48.1279, -14.08, 97.4482, -51.528, 44.0335
1.024, 2, 35.915, 48.1279, -14.08, 97.4483, -51.5279, 44.0335
1.027, 2, 35.9151, 48.1278, -14.08, 97.4483, -51.5279, 44.0335
1.032, 2, 35.9151, 48.1278, -14.08, 97.4483, -51.5279, 44.0335
1.036, 2, 35.9151, 48.1278, -14.08, 97.4483, -51.5279, 44.0335
1.04, 2, 35.9151, 48.1278, -14.08, 97.4483, -51.5279, 44.0335
1.044, 2, 35.9151, 48.1278, -14.08, 97.4483, -51.5279, 44.0335
1.048, 2, 35.9151, 48.1278, -14.08, 97.4483, -51.5279, 44.0335
1.052, 2, 35.9151, 48.1278, -14.08, 97.4483, -51.5278, 44.0335
1.055, 2, 35.9151, 48.1278, -14.08, 97.4483, -51.5278, 44.0335
1.06, 2, 35.9151, 48.1278, -14.08, 97.4483, -51.5278, 44.0335
1.064, 2, 35.9151, 48.1278, -14.08, 97.4483, -51.5278, 44.0335
1.068, 2, 35.9151, 48.1278, -14.08, 97.4483, -51.5278, 44.0335
1.072, 2, 35.9151, 48.1278, -14.08, 97.4483, -51.5278, 44.0335
1.076, 2, 35.9151, 48.1278, -14.08, 97.4483, -51.5278, 44.0335
1.08, 2, 35.9151, 48.1278, -14.08, 97.4483, -51.5278, 44.0335
1.084, 2, 35.9151, 48.1278, -14.08, 97.4483, -51.5278, 44.0335
1.088, 2, 35.9151, 48.1278, -14.08, 97.4483, -51.5278, 44.0335
1.091, 2, 35.9151, 48.1278, -14.08, 97.4483, -51.5278, 44.0335
1.096, 2, 35.9151, 48.1278, -14.08, 97.4483, -51.5278, 44.0335
1.1, 2, 35.9151, 48.1278, -14.08, 97.4483, -51.5278, 44.0335
1.104, 2, 35.9151, 48.1278, -14.08, 97.4483, -51.5278, 44.0335
1.108, 2, 35.9151, 48.1278, -14.08, 97.4483, -51.5278, 44.0335
1.112, 2, 35.9151, 48.1278, -14.08, 97.4483, -51.5278, 44.0335
1.116, 2, 35.9151, 48.1278, -14.08, 97.4483, -51.5278, 44.0335
1.119, 2, 35.9151, 48.1278, -14.08, 97.4483, -51.5278, 44.0335
1.124, 2, 35.9151, 48.1278, -14.08, 97.4483, -51.5278, 44.0335
1.128, 2, 35.9151, 48.1278, -14.08, 97.4483, -51.5278, 44.0335
1.132, 2, 35.9151, 48.1278, -14.08, 97.4483, -51.5278, 44.0335
1.136, 2, 35.9151, 48.1278, -14.08, 97.4483, -51.5278, 44.0335
1.14, 2, 35.9151, 48.1278, -14.08, 97.4483, -51.5278, 44.0335
1.144, 2, 35.9151, 48.1278, -14.08, 97.4483, -51.5278, 44.0335
1.147, 2, 35.9151, 48.1278, -14.08, 97.4483, -51.5278, 44.0335
1.152, 2, 35.9151, 48.1278, -14.08, 97.4483, -51.5278, 44.0335
1.156, 2, 35.9151, 48.1278, -14.08, 97.4483, -51.5278, 44.0335
1.16, 2, 35.9151, 48.1278, -14.08, 97.4483, -51.5278, 44.0335
1.164, 2, 35.9151, 48.1278, -14.08, 97.4483, -51.5278, 44.0335
1.168, 2, 35.9151, 48.1278, -14.08, 97.4483, -51.5278, 44.0335
1.172, 2, 35.9151, 48.1278, -14.08, 97.4483, -51.5278, 44.0335
1.175, 2, 35.9151, 48.1278, -14.08, 97.4483, -51.5278, 44.0335
1.18, 2, 35.9151, 48.1278, -14.08, 97.4483, -51.5278, 44.0335
1.184, 2, 35.9151, 48.1278, -14.08, 97.4483, -51.5278, 44.0335
1.188, 2, 35.9151, 48.1278, -14.08, 97.4483, -51.5278, 44.0335
1.192, 2, 35.9151, 48.1278, -14.08, 97.4483, -51.5278, 44.0335
1.196, 2, 35.9151, 48.1278, -14.08, 97.4483, -51.5278, 44.0335
1.2, 2, 35.9151, 48.1278, -14.08, 97.4483, -51.5278, 44.0335
1.204, 2, 35.9151, 48.1278, -14.08, 97.4483, -51.5278, 44.0335
1.208, 2, 35.9151, 48.1278, -14.08, 97.4483, -51.5278, 44.0335
1.212, 2, 35.9151, 48.1278, -14.08, 97.4483, -51.5278, 44.0335
1.216, 2, 35.9151, 48.1278, -14.08, 97.4483, -51.5278, 44.0335
1.22, 2, 35.9151, 48.1278, -14.08, 97.4483, -51.5278, 44.0335
1.224, 2, 35.9151, 48.1278, -14.08, 97.4483, -51.5278, 44.0335
1.228, 2, 35.9151, 48.1278, -14.08, 97.4483, -51.5278, 44.0335
1.232, 2, 35.9151, 48.1278, -14.08, 97.4483, -51.5278, 44.0335
1.236, 2, 35.9151, 48.1278, -14.08, 97.4483, -51.5278, 44.0335
1.24, 2, 35.9151, 48.1278, -14.08, 97.4483, -51.5278, 44.0335
1.244, 2, 35.9151, 48.1278, -14.08, 97.4483, -51.5278, 44.0335
1.248, 2, 35.9151, 48.1278, -14.08, 97.4483, -51.5278, 44.0335
1.252, 2, 35.9151, 48.1278, -14.08, 97.4483, -51.5278, 44.0335
1.256, 2, 35.9151, 48.1278, -14.08, 97.4483, -51.5278, 44.0335
1.26, 2, 35.9151, 48.1278, -14.08, 97.4483, -51.5278, 44.0335
1.264, 2, 35.9151, 48.1278, -14.08, 97.4483, -51.5278, 44.0335
1.267, 2, 35.9151, 48.1278, -14.08, 97.4483, -51.5278, 44.0335
1.272, 2, 35.9151, 48.1278, -14.08, 97.4483, -51.5278, 44.0335
1.276, 2, 35.9151, 48.1278, -14.08, 97.4483, -51.5278, 44.0335
1.28, 2, 35.9151, 48.1278, -14.08, 97.4483, -51.5278, 44.0335
1.284, 2, 35.9151, 48.1278, -14.08, 97.4483, -51.5278, 44.0335
1.288, 2, 35.9151, 48.1278, -14.08, 97.4483, -51.5278, 44.0335
1.292, 2, 35.9151, 48.1278, -14.08, 97.4483, -51.5278, 44.0335
1.295, 2, 35.9151, 48.1278, -14.08, 97.4483, -51.5278, 44.0335
1.3, 2, 35.9151, 48.1278, -14.08, 97.4483, -51.5278, 44.0335
1.304, 2, 35.9151, 48.1278, -14.08, 97.4483, -51.5278, 44.0335
1.308, 2, 35.9151, 48.1278, -14.08, 97.4483, -51.5278, 44.0335
1.312, 2, 35.9151, 48.1278, -14.08, 97.4483, -51.5278, 44.0335
1.316, 2, 35.9151, 48.1278, -14.08, 97.4483, -51.5278, 44.0335
1.32, 2, 35.9151, 48.1278, -14.08, 97.4483, -51.5278, 44.0335
1.324, 2, 35.9151, 48.1278, -14.08, 97.4483, -51.5278, 44.0335
1.328, 2, 35.9151, 48.1278, -14.08, 97.4483, -51.5278, 44.0335
1.332, 2, 35.9151, 48.1278, -14.08, 97.4483, -51.5278, 44.0335
1.336, 2, 35.9151, 48.1278, -14.08, 97.4483, -51.5278, 44.0335
1.34, 2, 35.9151, 48.1278, -14.08, 97.4483, -51.5278, 44.0335
1.344, 2, 35.9151, 48.1278, -14.08, 97.4483, -51.5278, 44.0335
1.348, 2, 35.9151, 48.1278, -14.08, 97.4483, -51.5278, 44.0335
1.352, 2, 35.9151, 48.1278, -14.08, 97.4483, -51.5278, 44.0335
1.356, 2, 35.9151, 48.1278, -14.08, 97.4483, -51.5278, 44.0335
1.36, 2, 35.9151, 48.1278, -14.08, 97.4483, -51.5278, 44.0335
1.364, 2, 35.9151, 48.1278, -14.08, 97.4483, -51.5278, 44.0335
1.368, 2, 35.9151, 48.1278, -14.08, 97.4483, -51.5278, 44.0335
1.372, 2, 35.9151, 48.1278, -14.08, 97.4483, -51.5278, 44.0335
1.376, 2, 35.9151, 48.1278, -14.08, 97.4483, -51.5278, 44.0335
1.38, 2, 35.9151, 48.1278, -14.08, 97.4483, -51.5278, 44.0335
1.384, 2, 35.9151, 48.1278, -14.08, 97.4483, -51.5278, 44.0335
1.388, 2, 35.9151, 48.1278, -14.08, 97.4483, -51.5278, 44.0335
1.392, 2, 35.9151, 48.1278, -14.08, 97.4483, -51.5278, 44.0335
1.396, 2, 35.9151, 48.1278, -14.08, 97.4483, -51.5278, 44.0335
1.4, 2, 35.9151, 48.1278, -14.08, 97.4483, -51.5278, 44.0335
1.404, 2, 35.9151, 48.1278, -14.08, 97.4483, -51.5278, 44.0335
1.408, 2, 35.9151, 48.1278, -14.08, 97.4483, -51.5278, 44.0335
1.412, 2, 35.9151, 48.1278, -14.08, 97.4483, -51.5278, 44.0335
1.416, 2, 35.9151, 48.1278, -14.08, 97.4483, -51.5278, 44.0335
1.42, 2, 35.9151, 48.1278, -14.08, 97.4483, -51.5278, 44.0335
1.424, 2, 35.9151, 48.1278, -14.08, 97.4483, -51.5278, 44.0335
1.428, 2, 35.9151, 48.1278, -14.08, 97.4483, -51.5278, 44.0335
1.432, 2, 35.9151, 48.1278, -14.08, 97.4483, -51.5278, 44.0335
1.436, 2, 35.9151, 48.1278, -14.08, 97.4483, -51.5278, 44.0335
1.44, 2, 35.9151, 48.1278, -14.08, 97.4483, -51.5278, 44.0335
1.444, 2, 35.9151, 48.1278, -14.08, 97.4483, -51.5278, 44.0335
1.448, 2, 35.9151, 48.1278, -14.08, 97.4483, -51.5278, 44.0335
1.452, 3, 35.9151, 48.1278, -14.08, 97.4483, -51.5278, 44.0335
1.456, 3, 35.9151, 48.1278, -14.08, 97.4483, -51.5278, 44.0335
1.46, 3, 35.9151, 48.1278, -14.08, 97.4483, -51.5278, 44.0335
1.464, 3, 35.9151, 48.1278, -14.08, 97.4483, -51.5278, 44.0335
1.468, 3, 35.9151, 48.1278, -14.08, 97.4483, -51.5278, 44.0335
1.472, 3, 35.9151, 48.1278, -14.08, 97.4483, -51.5278, 44.0335
1.476, 3, 35.9151, 48.1278, -14.08, 97.4483, -51.5278, 44.0335
1.48, 3, 35.9151, 48.1278, -14.08, 97.4483, -51.5278, 44.0335
1.484, 3, 35.9151, 48.1278, -14.08, 97.4483, -51.5278, 44.0335
1.488, 3, 35.9151, 48.1278, -14.08, 97.4483, -51.5278, 44.0335
1.492, 3, 35.9151, 48.1278, -14.08, 97.4483, -51.5278, 44.0335
1.496, 3, 35.9151, 48.1278, -14.08, 97.4483, -51.5278, 44.0335
1.5, 3, 35.9151, 48.1278, -14.08, 97.4483, -51.5278, 44.0335
1.504, 3, 35.9151, 48.1278, -14.08, 97.4483, -51.5278, 44.0335
1.508, 4, 35.9151, 48.1278, -14.08, 97.4483, -51.5278, 44.0335
1.512, 4, 35.9151, 48.1278, -14.08, 97.4483, -51.5278, 44.0335
1.516, 4, 35.9151, 48.1278, -14.08, 97.4483, -51.5278, 44.0335
1.52, 4, 35.9151, 48.1278, -14.08, 97.4483, -51.5278, 44.0335
1.524, 4, 35.9151, 48.1278, -14.08, 97.4483, -51.5278, 44.0335
1.528, 4, 35.9151, 48.1278, -14.08, 97.4483, -51.5278, 44.0335
1.532, 4, 35.9151, 48.1278, -14.08, 97.4483, -51.5278, 44.0335
1.536, 4, 35.9151, 48.1278, -14.08, 97.4483, -51.5278, 44.0335
1.54, 4, 35.9151, 48.1278, -14.08, 97.4483, -51.5278, 44.0335
1.544, 4, 35.9151, 48.1278, -14.08, 97.4483, -51.5278, 44.0335
1.548, 4, 35.915, 48.128, -14.08, 97.4483, -51.5279, 44.0335
1.552, 4, 35.9148, 48.1283, -14.08, 97.4483, -51.5279, 44.0335
1.556, 4, 35.9144, 48.1291, -14.08, 97.4483, -51.5281, 44.0334
1.56, 4, 35.9137, 48.1303, -14.08, 97.4482, -51.5284, 44.0333
1.564, 4, 35.9128, 48.1322, -14.0799, 97.4481, -51.5292, 44.033
1.568, 4, 35.9115, 48.1347, -14.0798, 97.4478, -51.5306, 44.0325
1.572, 4, 35.91, 48.1378, -14.0797, 97.4474, -51.533, 44.0316
1.576, 4, 35.9084, 48.1415, -14.0795, 97.4468, -51.5368, 44.0301
1.58, 4, 35.9067, 48.1457, -14.0792, 97.4459, -51.5425, 44.028
1.584, 4, 35.905, 48.1504, -14.0788, 97.4445, -51.5505, 44.0249
1.588, 4, 35.9034, 48.1554, -14.0782, 97.4427, -51.5612, 44.0208
1.592, 4, 35.9018, 48.1609, -14.0775, 97.4404, -51.5751, 44.0155
1.596, 4, 35.9002, 48.1669, -14.0766, 97.4374, -51.5925, 44.0089
1.6, 4, 35.8987, 48.1732, -14.0756, 97.4338, -51.6135, 44.0009
1.604, 4, 35.8972, 48.18, -14.0743, 97.4296, -51.6384, 43.9914
1.608, 4, 35.8958, 48.1873, -14.0728, 97.4247, -51.6672, 43.9804
1.612, 4, 35.8945, 48.1948, -14.0712, 97.4191, -51.6998, 43.968
1.616, 4, 35.8933, 48.2027, -14.0693, 97.4128, -51.7361, 43.9542
1.62, 4, 35.8922, 48.211, -14.0673, 97.406, -51.7758, 43.9391
1.624, 4, 35.8911, 48.2197, -14.065, 97.3986, -51.8186, 43.9228
1.628, 4, 35.8899, 48.2289, -14.0627, 97.3908, -51.8639, 43.9056
1.632, 4, 35.8887, 48.2388, -14.0602, 97.3825, -51.9114, 43.8875
1.636, 4, 35.8872, 48.2494, -14.0575, 97.3739, -51.9606, 43.8689
1.64, 4, 35.8856, 48.2606, -14.0548, 97.3651, -52.0112, 43.8497
1.644, 4, 35.8837, 48.2725, -14.052, 97.356, -52.0629, 43.8301
1.648, 4, 35.8816, 48.2848, -14.0491, 97.3468, -52.1154, 43.8102
1.652, 4, 35.8793, 48.2976, -14.0461, 97.3374, -52.1684, 43.7901
1.656, 4, 35.8768, 48.3107, -14.0431, 97.3279, -52.2218, 43.7699
1.66, 4, 35.8742, 48.3241, -14.04, 97.3183, -52.2756, 43.7496
1.664, 4, 35.8715, 48.3376, -14.0369, 97.3087, -52.3295, 43.7293
1.668, 4, 35.8688, 48.3513, -14.0337, 97.299, -52.3836, 43.7089
1.672, 4, 35.8659, 48.3651, -14.0305, 97.2892, -52.4378, 43.6885
1.676, 4, 35.863, 48.3789, -14.0272, 97.2794, -52.4921, 43.6681
1.68, 4, 35.8601, 48.3928, -14.0239, 97.2695, -52.5463, 43.6477
1.684, 4, 35.8571, 48.4067, -14.0205, 97.2596, -52.6006, 43.6273
1.688, 4, 35.8541, 48.4206, -14.0172, 97.2497, -52.6549, 43.6069
1.692, 4, 35.8511, 48.4346, -14.0137, 97.2397, -52.7092, 43.5865
1.696, 4, 35.8481, 48.4485, -14.0103, 97.2297, -52.7635, 43.5662
1.7, 4, 35.845, 48.4624, -14.0068, 97.2196, -52.8178, 43.5458
1.704, 4, 35.842, 48.4762, -14.0033, 97.2095, -52.8721, 43.5255
1.708, 4, 35.8389, 48.4901, -13.9997, 97.1994, -52.9264, 43.5053
1.712, 4, 35.8358, 48.5039, -13.9961, 97.1892, -52.9806, 43.485
1.716, 4, 35.8327, 48.5178, -13.9924, 97.179, -53.0349, 43.4648
1.72, 4, 35.8296, 48.5316, -13.9887, 97.1687, -53.0891, 43.4446
1.724, 4, 35.8265, 48.5453, -13.985, 97.1585, -53.1433, 43.4244
1.728, 4, 35.8233, 48.5591, -13.9813, 97.1481, -53.1975, 43.4042
1.732, 4, 35.8202, 48.5728, -13.9775, 97.1378, -53.2517, 43.3841
1.736, 4, 35.817, 48.5866, -13.9736, 97.1274, -53.3059, 43.3639
1.74, 4, 35.8138, 48.6003, -13.9698, 97.117, -53.3601, 43.3438
1.744, 4, 35.8106, 48.614, -13.9658, 97.1065, -53.4142, 43.3238
1.748, 4, 35.8074, 48.6276, -13.9619, 97.096, -53.4683, 43.3037
1.752, 4, 35.8042, 48.6412, -13.9579, 97.0854, -53.5225, 43.2837
1.756, 4, 35.801, 48.6549, -13.9539, 97.0748, -53.5766, 43.2637
1.76, 4, 35.7977, 48.6685, -13.9498, 97.0642, -53.6307, 43.2437
1.764, 4, 35.7945, 48.682, -13.9457, 97.0536, -53.6847, 43.2237
1.768, 4, 35.7912, 48.6956, -13.9416, 97.0429, -53.7388, 43.2038
1.772, 4, 35.7879, 48.7091, -13.9374, 97.0322, -53.7928, 43.1838
1.776, 4, 35.7846, 48.7226, -13.9332, 97.0214, -53.8469, 43.1639
1.78, 4, 35.7813, 48.7361, -13.9289, 97.0106, -53.9009, 43.1441
1.784, 4, 35.778, 48.7496, -13.9246, 96.9998, -53.9549, 43.1242
1.788, 4, 35.7747, 48.763, -13.9203, 96.9889, -54.0089, 43.1044
1.792, 4, 35.7713, 48.7764, -13.9159, 96.978, -54.0629, 43.0845
1.796, 4, 35.768, 48.7898, -13.9115, 96.9671, -54.1169, 43.0647
1.8, 4, 35.7646, 48.8032, -13.907, 96.9561, -54.1708, 43.045
1.804, 4, 35.7612, 48.8166, -13.9026, 96.9451, -54.2247, 43.0252
1.808, 4, 35.7578, 48.8299, -13.898, 96.9341, -54.2787, 43.0055
1.812, 4, 35.7544, 48.8432, -13.8935, 96.923, -54.3326, 42.9858
1.816, 4, 35.751, 48.8565, -13.8889, 96.9119, -54.3865, 42.9661
1.82, 4, 35.7476, 48.8698, -13.8842, 96.9007, -54.4404, 42.9464
1.824, 4, 35.7441, 48.883, -13.8795, 96.8895, -54.4942, 42.9268
1.828, 4, 35.7407, 48.8963, -13.8748, 96.8783, -54.5481, 42.9071
1.832, 4, 35.7372, 48.9095, -13.87, 96.8671, -54.6019, 42.8875
1.836, 4, 35.7337, 48.9226, -13.8652, 96.8558, -54.6557, 42.8679
1.84, 4, 35.7302, 48.9358, -13.8604, 96.8445, -54.7095, 42.8484
1.844, 4, 35.7267, 48.9489, -13.8555, 96.8331, -54.7633, 42.8288
1.848, 4, 35.7232, 48.962, -13.8506, 96.8217, -54.8171, 42.8093
1.852, 4, 35.7197, 48.9751, -13.8457, 96.8103, -54.8709, 42.7898
1.856, 4, 35.7162, 48.9882, -13.8407, 96.7988, -54.9246, 42.7703
1.86, 4, 35.7126, 49.0013, -13.8356, 96.7873, -54.9784, 42.7508
1.864, 4, 35.709, 49.0143, -13.8305, 96.7758, -55.0321, 42.7313
1.868, 4, 35.7055, 49.0273, -13.8254, 96.7643, -55.0858, 42.7119
1.872, 4, 35.7019, 49.0403, -13.8203, 96.7527, -55.1395, 42.6925
1.876, 4, 35.6983, 49.0532, -13.8151, 96.7411, -55.1932, 42.6731
1.88, 4, 35.6946, 49.0662, -13.8099, 96.7294, -55.2469, 42.6537
1.884, 4, 35.691, 49.0791, -13.8046, 96.7177, -55.3005, 42.6344
1.888, 4, 35.6874, 49.092, -13.7993, 96.706, -55.3542, 42.615
1.892, 4, 35.6837, 49.1048, -13.7939, 96.6942, -55.4078, 42.5957
1.896, 4, 35.68, 49.1177, -13.7886, 96.6824, -55.4614, 42.5764
1.9, 4, 35.6764, 49.1305, -13.7831, 96.6706, -55.515, 42.5571
1.904, 4, 35.6727, 49.1433, -13.7777, 96.6588, -55.5686, 42.5378
1.908, 4, 35.669, 49.1561, -13.7722, 96.6469, -55.6222, 42.5186
1.912, 4, 35.6653, 49.1688, -13.7666, 96.635, -55.6758, 42.4994
1.916, 4, 35.6615, 49.1816, -13.761, 96.623, -55.7293, 42.4802
1.92, 4, 35.6578, 49.1943, -13.7554, 96.611, -55.7829, 42.461
1.924, 4, 35.654, 49.207, -13.7498, 96.599, -55.8364, 42.4418
1.928, 4, 35.6503, 49.2197, -13.7441, 96.587, -55.8899, 42.4226
1.932, 4, 35.6465, 49.2323, -13.7383, 96.5749, -55.9434, 42.4035
1.936, 4, 35.6427, 49.2449, -13.7325, 96.5628, -55.9969, 42.3844
1.94, 4, 35.6389, 49.2575, -13.7267, 96.5506, -56.0503, 42.3653
1.944, 4, 35.6351, 49.2701, -13.7209, 96.5384, -56.1038, 42.3462
1.948, 4, 35.6313, 49.2827, -13.715, 96.5262, -56.1572, 42.3271
1.952, 4, 35.6274, 49.2952, -13.7091, 96.514, -56.2106, 42.308
1.956, 4, 35.6236, 49.3077, -13.7031, 96.5017, -56.2641, 42.289
1.96, 4, 35.6197, 49.3202, -13.6971, 96.4894, -56.3175, 42.27
1.964, 4, 35.6158, 49.3326, -13.691, 96.4771, -56.3708, 42.251
1.968, 4, 35.6119, 49.3451, -13.6849, 96.4647, -56.4242, 42.232
1.972, 4, 35.608, 49.3575, -13.6788, 96.4523, -56.4776, 42.213
1.976, 4, 35.6041, 49.3699, -13.6726, 96.4398, -56.5309, 42.1941
1.98, 4, 35.6002, 49.3823, -13.6664, 96.4274, -56.5843, 42.1752
1.984, 4, 35.5963, 49.3946, -13.6602, 96.4149, -56.6376, 42.1562
1.988, 4, 35.5923, 49.407, -13.6539, 96.4024, -56.6909, 42.1373
1.993, 5, 35.5884, 49.4193, -13.6476, 96.3898, -56.7442, 42.1185
1.996, 5, 35.5844, 49.4315, -13.6412, 96.3772, -56.7974, 42.0996
1.999, 5, 35.5804, 49.4438, -13.6348, 96.3646, -56.8507, 42.0807
2.004, 5, 35.5764, 49.456, -13.6284, 96.3519, -56.904, 42.0619
2.008, 5, 35.5724, 49.4683, -13.6219, 96.3393, -56.9572, 42.0431
2.012, 5, 35.5684, 49.4804, -13.6154, 96.3266, -57.0104, 42.0243
2.015, 5, 35.5643, 49.4926, -13.6089, 96.3138, -57.0636, 42.0055
2.019, 5, 35.5603, 49.5048, -13.6023, 96.301, -57.1168, 41.9867
2.024, 5, 35.5562, 49.5169, -13.5956, 96.2882, -57.17, 41.968
2.028, 5, 35.5522, 49.529, -13.589, 96.2754, -57.2232, 41.9492
2.031, 5, 35.5481, 49.5411, -13.5823, 96.2625, -57.2764, 41.9305
2.036, 5, 35.544, 49.5531, -13.5755, 96.2496, -57.3295, 41.9118
2.04, 5, 35.5399, 49.5652, -13.5687, 96.2367, -57.3826, 41.8931
2.044, 5, 35.5357, 49.5772, -13.5619, 96.2238, -57.4357, 41.8744
2.048, 5, 35.5316, 49.5891, -13.555, 96.2108, -57.4889, 41.8558
2.051, 5, 35.5275, 49.6011, -13.5481, 96.1978, -57.542, 41.8371
2.055, 5, 35.5233, 49.613, -13.5412, 96.1847, -57.595, 41.8185
2.06, 5, 35.5191, 49.625, -13.5342, 96.1716, -57.6481, 41.7999
2.064, 5, 35.515, 49.6369, -13.5272, 96.1585, -57.7011, 41.7813
2.068, 5, 35.5108, 49.6487, -13.5202, 96.1454, -57.7542, 41.7627
2.071, 5, 35.5066, 49.6606, -13.5131, 96.1322, -57.8072, 41.7441
2.076, 5, 35.5024, 49.6724, -13.5059, 96.119, -57.8602, 41.7256
2.08, 5, 35.4981, 49.6842, -13.4987, 96.1058, -57.9132, 41.707
2.084, 5, 35.4939, 49.696, -13.4915, 96.0926, -57.9662, 41.6885
2.087, 5, 35.4896, 49.7077, -13.4843, 96.0793, -58.0192, 41.67
2.092, 5, 35.4854, 49.7195, -13.477, 96.066, -58.0722, 41.6515
2.096, 5, 35.4811, 49.7312, -13.4697, 96.0526, -58.1251, 41.633
2.1, 5, 35.4768, 49.7429, -13.4623, 96.0392, -58.178, 41.6145
2.104, 5, 35.4725, 49.7545, -13.4549, 96.0258, -58.231, 41.5961
2.107, 5, 35.4682, 49.7662, -13.4475, 96.0124, -58.2839, 41.5776
2.111, 5, 35.4639, 49.7778, -13.44, 95.999, -58.3368, 41.5592
2.116, 5, 35.4595, 49.7894, -13.4324, 95.9855, -58.3896, 41.5408
2.12, 5, 35.4552, 49.8009, -13.4249, 95.972, -58.4425, 41.5224
2.124, 5, 35.4508, 49.8125, -13.4173, 95.9584, -58.4954, 41.504
2.127, 5, 35.4464, 49.824, -13.4096, 95.9448, -58.5482, 41.4857
2.132, 5, 35.4421, 49.8355, -13.402, 95.9312, -58.6011, 41.4673
2.136, 5, 35.4377, 49.847, -13.3943, 95.9176, -58.6539, 41.449
2.14, 5, 35.4333, 49.8584, -13.3865, 95.9039, -58.7067, 41.4306
2.143, 5, 35.4288, 49.8699, -13.3787, 95.8903, -58.7595, 41.4123
2.148, 5, 35.4244, 49.8813, -13.3709, 95.8765, -58.8122, 41.394
2.152, 5, 35.42, 49.8926, -13.363, 95.8628, -58.865, 41.3757
2.156, 5, 35.4155, 49.904, -13.3551, 95.849, -58.9178, 41.3575
2.16, 5, 35.411, 49.9153, -13.3472, 95.8352, -58.9705, 41.3392
2.163, 5, 35.4066, 49.9267, -13.3392, 95.8214, -59.0232, 41.3209
2.168, 5, 35.4021, 49.9379, -13.3311, 95.8075, -59.076, 41.3027
2.172, 5, 35.3976, 49.9492, -13.3231, 95.7937, -59.1287, 41.2845
2.176, 5, 35.393, 49.9604, -13.315, 95.7797, -59.1813, 41.2663
2.179, 5, 35.3885, 49.9717, -13.3068, 95.7658, -59.234, 41.2481
2.184, 5, 35.384, 49.9829, -13.2986, 95.7518, -59.2867, 41.2299
2.188, 5, 35.3794, 49.994, -13.2904, 95.7378, -59.3393, 41.2117
2.192, 5, 35.3749, 50.0052, -13.2822, 95.7238, -59.392, 41.1936
2.196, 5, 35.3703, 50.0163, -13.2739, 95.7098, -59.4446, 41.1754
2.199, 5, 35.3657, 50.0274, -13.2655, 95.6957, -59.4972, 41.1573
2.204, 5, 35.3611, 50.0385, -13.2572, 95.6816, -59.5498, 41.1392
2.208, 5, 35.3565, 50.0495, -13.2488, 95.6674, -59.6024, 41.1211
2.212, 5, 35.3519, 50.0605, -13.2403, 95.6533, -59.655, 41.103
2.216, 5, 35.3472, 50.0716, -13.2318, 95.6391, -59.7075, 41.0849
2.219, 5, 35.3426, 50.0825, -13.2233, 95.6249, -59.7601, 41.0668
2.224, 5, 35.3379, 50.0935, -13.2147, 95.6106, -59.8126, 41.0488
2.228, 5, 35.3333, 50.1044, -13.2061, 95.5964, -59.8651, 41.0307
2.232, 5, 35.3286, 50.1153, -13.1975, 95.5821, -59.9176, 41.0127
2.235, 5, 35.3239, 50.1262, -13.1888, 95.5677, -59.9701, 40.9947
2.24, 5, 35.3192, 50.1371, -13.1801, 95.5534, -60.0226, 40.9767
2.244, 5, 35.3145, 50.1479, -13.1713, 95.539, -60.0751, 40.9587
2.248, 5, 35.3097, 50.1587, -13.1625, 95.5246, -60.1276, 40.9407
2.252, 5, 35.305, 50.1695, -13.1536, 95.5102, -60.18, 40.9227
2.255, 5, 35.3002, 50.1803, -13.1448, 95.4957, -60.2324, 40.9047
2.259, 5, 35.2955, 50.191, -13.1359, 95.4812, -60.2849, 40.8868
2.264, 5, 35.2907, 50.2017, -13.1269, 95.4667, -60.3373, 40.8688
2.268, 5, 35.2859, 50.2124, -13.1179, 95.4522, -60.3897, 40.8509
2.272, 5, 35.2811, 50.2231, -13.1089, 95.4376, -60.4421, 40.833
2.275, 5, 35.2763, 50.2337, -13.0998, 95.423, -60.4944, 40.8151
2.28, 5, 35.2715, 50.2444, -13.0907, 95.4084, -60.5468, 40.7972
2.284, 5, 35.2666, 50.255, -13.0815, 95.3938, -60.5991, 40.7793
2.288, 5, 35.2618, 50.2655, -13.0723, 95.3791, -60.6515, 40.7614
2.291, 5, 35.2569, 50.2761, -13.0631, 95.3644, -60.7038, 40.7436
2.296, 5, 35.252, 50.2866, -13.0538, 95.3497, -60.7561, 40.7257
2.3, 5, 35.2472, 50.2971, -13.0445, 95.3349, -60.8084, 40.7079
2.304, 5, 35.2423, 50.3076, -13.0352, 95.3202, -60.8607, 40.69
2.308, 5, 35.2374, 50.318, -13.0258, 95.3054, -60.9129, 40.6722
2.311, 5, 35.2324, 50.3284, -13.0164, 95.2905, -60.9652, 40.6544
2.316, 5, 35.2275, 50.3388, -13.0069, 95.2757, -61.0175, 40.6366
2.32, 5, 35.2226, 50.3492, -12.9974, 95.2608, -61.0697, 40.6188
2.324, 5, 35.2176, 50.3596, -12.9879, 95.2459, -61.1219, 40.601
2.328, 5, 35.2127, 50.3699, -12.9783, 95.231, -61.1741, 40.5833
2.331, 5, 35.2077, 50.3802, -12.9687, 95.216, -61.2263, 40.5655
2.336, 5, 35.2027, 50.3905, -12.959, 95.201, -61.2785, 40.5478
2.34, 5, 35.1977, 50.4007, -12.9493, 95.186, -61.3307, 40.53
2.344, 5, 35.1927, 50.411, -12.9396, 95.171, -61.3828, 40.5123
2.347, 5, 35.1876, 50.4212, -12.9298, 95.156, -61.435, 40.4946
2.352, 5, 35.1826, 50.4314, -12.92, 95.1409, -61.4871, 40.4769
2.356, 5, 35.1776, 50.4415, -12.9101, 95.1258, -61.5392, 40.4592
2.36, 5, 35.1725, 50.4517, -12.9003, 95.1106, -61.5913, 40.4415
2.364, 5, 35.1674, 50.4618, -12.8903, 95.0955, -61.6434, 40.4238
2.367, 5, 35.1623, 50.4718, -12.8804, 95.0803, -61.6955, 40.4061
2.372, 5, 35.1573, 50.4819, -12.8703, 95.0651, -61.7476, 40.3885
2.376, 5, 35.1521, 50.4919, -12.8603, 95.0499, -61.7996, 40.3708
2.38, 5, 35.147, 50.5019, -12.8502, 95.0346, -61.8517, 40.3532
2.383, 5, 35.1419, 50.5119, -12.8401, 95.0193, -61.9037, 40.3355
2.388, 5, 35.1368, 50.5219, -12.8299, 95.004, -61.9557, 40.3179
2.392, 5, 35.1316, 50.5318, -12.8197, 94.9887, -62.0078, 40.3003
2.396, 5, 35.1264, 50.5417, -12.8095, 94.9734, -62.0597, 40.2827
2.4, 5, 35.1213, 50.5516, -12.7992, 94.958, -62.1117, 40.2651
2.403, 5, 35.1161, 50.5615, -12.7889, 94.9426, -62.1637, 40.2475
2.408, 5, 35.1109, 50.5713, -12.7785, 94.9272, -62.2157, 40.2299
2.412, 5, 35.1057, 50.5811, -12.7681, 94.9117, -62.2676, 40.2124
2.416, 5, 35.1004, 50.5909, -12.7577, 94.8962, -62.3195, 40.1948
2.42, 5, 35.0952, 50.6007, -12.7472, 94.8807, -62.3715, 40.1772
2.423, 5, 35.09, 50.6104, -12.7367, 94.8652, -62.4234, 40.1597
2.428, 5, 35.0847, 50.6201, -12.7261, 94.8497, -62.4753, 40.1422
2.432, 5, 35.0794, 50.6298, -12.7155, 94.8341, -62.5272, 40.1246
2.436, 5, 35.0741, 50.6395, -12.7049, 94.8185, -62.579, 40.1071
2.439, 5, 35.0688, 50.6491, -12.6942, 94.8029, -62.6309, 40.0896
2.444, 5, 35.0635, 50.6587, -12.6835, 94.7872, -62.6827, 40.0721
2.448, 5, 35.0582, 50.6683, -12.6727, 94.7716, -62.7346, 40.0546
2.452, 5, 35.0529, 50.6778, -12.6619, 94.7559, -62.7864, 40.0371
2.456, 5, 35.0476, 50.6874, -12.6511, 94.7402, -62.8382, 40.0196
2.459, 5, 35.0422, 50.6969, -12.6402, 94.7244, -62.89, 40.0022
2.464, 5, 35.0368, 50.7064, -12.6293, 94.7087, -62.9418, 39.9847
2.468, 5, 35.0315, 50.7158, -12.6184, 94.6929, -62.9936, 39.9673
2.472, 5, 35.0261, 50.7253, -12.6074, 94.6771, -63.0453, 39.9498
2.476, 5, 35.0207, 50.7347, -12.5963, 94.6612, -63.0971, 39.9324
2.479, 5, 35.0153, 50.744, -12.5853, 94.6454, -63.1488, 39.9149
2.484, 5, 35.0098, 50.7534, -12.5742, 94.6295, -63.2006, 39.8975
2.488, 5, 35.0044, 50.7627, -12.563, 94.6136, -63.2523, 39.8801
2.492, 5, 34.999, 50.772, -12.5518, 94.5977, -63.304, 39.8627
2.495, 5, 34.9935, 50.7813, -12.5406, 94.5817, -63.3557, 39.8453
2.5, 5, 34.988, 50.7906, -12.5293, 94.5658, -63.4073, 39.8279
2.504, 5, 34.9825, 50.7998, -12.518, 94.5498, -63.459, 39.8105
2.508, 5, 34.977, 50.809, -12.5067, 94.5337, -63.5107, 39.7931
2.512, 5, 34.9715, 50.8182, -12.4953, 94.5177, -63.5623, 39.7758
2.515, 5, 34.966, 50.8273, -12.4839, 94.5016, -63.6139, 39.7584
2.52, 5, 34.9605, 50.8364, -12.4724, 94.4855, -63.6655, 39.741
2.524, 5, 34.955, 50.8456, -12.4609, 94.4694, -63.7172, 39.7237
2.528, 5, 34.9494, 50.8546, -12.4494, 94.4533, -63.7687, 39.7063
2.531, 5, 34.9438, 50.8637, -12.4378, 94.4371, -63.8203, 39.689
2.536, 5, 34.9383, 50.8727, -12.4262, 94.421, -63.8719, 39.6717
2.54, 5, 34.9327, 50.8817, -12.4145, 94.4048, -63.9234, 39.6543
2.544, 5, 34.9271, 50.8907, -12.4028, 94.3886, -63.975, 39.637
2.548, 5, 34.9215, 50.8996, -12.3911, 94.3723, -64.0265, 39.6197
2.551, 5, 34.9159, 50.9086, -12.3793, 94.3561, -64.0781, 39.6024
2.556, 5, 34.9103, 50.9175, -12.3675, 94.3398, -64.1296, 39.5851
2.56, 5, 34.9047, 50.9264, -12.3557, 94.3236, -64.1811, 39.5678
2.564, 5, 34.8991, 50.9353, -12.3439, 94.3073, -64.2326, 39.5504
2.568, 5, 34.8935, 50.9442, -12.3321, 94.2911, -64.2842, 39.5331
2.571, 5, 34.8878, 50.953, -12.3202, 94.2749, -64.3357, 39.5158
2.576, 5, 34.8822, 50.9619, -12.3084, 94.2587, -64.3872, 39.4985
2.58, 5, 34.8766, 50.9708, -12.2966, 94.2426, -64.4388, 39.4811
2.584, 5, 34.8709, 50.9796, -12.2848, 94.2265, -64.4904, 39.4637
2.587, 5, 34.8653, 50.9885, -12.273, 94.2104, -64.542, 39.4464
2.592, 5, 34.8596, 50.9973, -12.2612, 94.1945, -64.5937, 39.429
2.596, 5, 34.8539, 51.0062, -12.2495, 94.1786, -64.6453, 39.4115
2.6, 5, 34.8482, 51.015, -12.2378, 94.1628, -64.6971, 39.3941
2.604, 5, 34.8426, 51.0239, -12.2262, 94.1471, -64.7488, 39.3766
2.607, 5, 34.8369, 51.0328, -12.2146, 94.1315, -64.8006, 39.3591
2.612, 5, 34.8312, 51.0417, -12.2031, 94.116, -64.8525, 39.3416
2.616, 5, 34.8254, 51.0506, -12.1917, 94.1006, -64.9044, 39.324
2.62, 5, 34.8197, 51.0595, -12.1803, 94.0854, -64.9563, 39.3064
2.624, 5, 34.814, 51.0684, -12.169, 94.0702, -65.0084, 39.2888
2.627, 5, 34.8083, 51.0774, -12.1577, 94.0551, -65.0604, 39.2711
2.632, 5, 34.8025, 51.0864, -12.1466, 94.0402, -65.1125, 39.2534
2.636, 5, 34.7968, 51.0954, -12.1354, 94.0254, -65.1647, 39.2357
2.64, 5, 34.791, 51.1044, -12.1244, 94.0107, -65.2169, 39.2179
2.643, 5, 34.7853, 51.1134, -12.1134, 93.9961, -65.2692, 39.2001
2.648, 5, 34.7795, 51.1225, -12.1025, 93.9816, -65.3215, 39.1823
2.652, 5, 34.7738, 51.1315, -12.0917, 93.9672, -65.3739, 39.1645
2.656, 5, 34.768, 51.1406, -12.081, 93.953, -65.4264, 39.1466
2.66, 5, 34.7623, 51.1498, -12.0703, 93.9389, -65.4789, 39.1287
2.663, 5, 34.7565, 51.1589, -12.0597, 93.9248, -65.5314, 39.1107
2.668, 5, 34.7508, 51.168, -12.0491, 93.9109, -65.5841, 39.0928
2.672, 5, 34.745, 51.1772, -12.0386, 93.8971, -65.6367, 39.0748
2.676, 5, 34.7392, 51.1864, -12.0282, 93.8834, -65.6894, 39.0568
2.679, 5, 34.7334, 51.1956, -12.0179, 93.8699, -65.7422, 39.0387
2.684, 5, 34.7276, 51.2048, -12.0076, 93.8564, -65.795, 39.0207
2.688, 5, 34.7218, 51.214, -11.9974, 93.843, -65.8479, 39.0026
2.692, 5, 34.716, 51.2232, -11.9872, 93.8297, -65.9008, 38.9845
2.696, 5, 34.7102, 51.2325, -11.977, 93.8164, -65.9538, 38.9663
2.699, 5, 34.7043, 51.2417, -11.9669, 93.8033, -66.0067, 38.9482
2.704, 5, 34.6985, 51.251, -11.9569, 93.7902, -66.0597, 38.93
2.708, 5, 34.6926, 51.2602, -11.9468, 93.7771, -66.1128, 38.9119
2.712, 5, 34.6868, 51.2695, -11.9368, 93.7641, -66.1659, 38.8937
2.716, 5, 34.6809, 51.2787, -11.9268, 93.7511, -66.2189, 38.8755
2.719, 5, 34.6751, 51.288, -11.9167, 93.7381, -66.272, 38.8573
2.724, 5, 34.6692, 51.2972, -11.9067, 93.7252, -66.3251, 38.8391
2.728, 5, 34.6633, 51.3064, -11.8967, 93.7122, -66.3782, 38.821
2.732, 5, 34.6574, 51.3156, -11.8866, 93.6993, -66.4314, 38.8028
2.735, 5, 34.6516, 51.3248, -11.8766, 93.6863, -66.4845, 38.7846
2.74, 5, 34.6457, 51.334, -11.8665, 93.6734, -66.5376, 38.7665
2.744, 5, 34.6398, 51.3431, -11.8564, 93.6604, -66.5907, 38.7483
2.748, 5, 34.6339, 51.3523, -11.8462, 93.6474, -66.6438, 38.7302
2.752, 5, 34.628, 51.3614, -11.836, 93.6343, -66.6969, 38.7121
2.755, 5, 34.622, 51.3705, -11.8258, 93.6213, -66.75, 38.694
2.76, 5, 34.6161, 51.3796, -11.8155, 93.6082, -66.803, 38.6758
2.764, 5, 34.6102, 51.3886, -11.8053, 93.5951, -66.8561, 38.6578
2.768, 5, 34.6042, 51.3976, -11.7949, 93.5819, -66.9091, 38.6397
2.772, 5, 34.5983, 51.4066, -11.7846, 93.5688, -66.9622, 38.6216
2.775, 5, 34.5923, 51.4156, -11.7742, 93.5556, -67.0152, 38.6035
2.78, 5, 34.5863, 51.4246, -11.7637, 93.5423, -67.0683, 38.5855
2.784, 5, 34.5803, 51.4335, -11.7532, 93.5291, -67.1213, 38.5675
2.788, 5, 34.5743, 51.4424, -11.7427, 93.5158, -67.1743, 38.5494
2.791, 5, 34.5683, 51.4513, -11.7322, 93.5025, -67.2273, 38.5314
2.796, 5, 34.5622, 51.4601, -11.7216, 93.4892, -67.2803, 38.5134
2.8, 5, 34.5562, 51.469, -11.7109, 93.4758, -67.3333, 38.4954
2.804, 5, 34.5502, 51.4778, -11.7003, 93.4624, -67.3862, 38.4775
2.808, 5, 34.5441, 51.4866, -11.6896, 93.449, -67.4392, 38.4595
2.811, 5, 34.538, 51.4953, -11.6788, 93.4355, -67.4921, 38.4415
2.816, 5, 34.5319, 51.5041, -11.6681, 93.4221, -67.5451, 38.4236
2.82, 5, 34.5258, 51.5128, -11.6572, 93.4086, -67.598, 38.4057
2.824, 5, 34.5197, 51.5215, -11.6464, 93.395, -67.6509, 38.3877
2.828, 5, 34.5136, 51.5301, -11.6355, 93.3815, -67.7038, 38.3698
2.831, 5, 34.5075, 51.5388, -11.6246, 93.3679, -67.7568, 38.3519
2.836, 5, 34.5013, 51.5474, -11.6136, 93.3543, -67.8096, 38.334
2.84, 5, 34.4952, 51.556, -11.6026, 93.3406, -67.8625, 38.3162
2.844, 5, 34.489, 51.5645, -11.5916, 93.327, -67.9154, 38.2983
2.847, 5, 34.4828, 51.5731, -11.5805, 93.3133, -67.9683, 38.2804
2.852, 5, 34.4766, 51.5816, -11.5694, 93.2995, -68.0211, 38.2626
2.856, 5, 34.4704, 51.5901, -11.5582, 93.2858, -68.074, 38.2447
2.86, 5, 34.4642, 51.5985, -11.547, 93.272, -68.1268, 38.2269
2.864, 5, 34.458, 51.607, -11.5358, 93.2582, -68.1796, 38.2091
2.867, 5, 34.4518, 51.6154, -11.5245, 93.2444, -68.2325, 38.1913
2.872, 5, 34.4455, 51.6238, -11.5132, 93.2305, -68.2853, 38.1735
2.876, 5, 34.4392, 51.6322, -11.5019, 93.2166, -68.3381, 38.1557
2.88, 5, 34.433, 51.6405, -11.4905, 93.2027, -68.3909, 38.1379
2.883, 5, 34.4267, 51.6488, -11.4791, 93.1888, -68.4436, 38.1202
2.888, 5, 34.4204, 51.6571, -11.4676, 93.1748, -68.4964, 38.1024
2.892, 5, 34.4141, 51.6654, -11.4561, 93.1608, -68.5492, 38.0847
2.896, 5, 34.4078, 51.6737, -11.4446, 93.1468, -68.6019, 38.0669
2.9, 5, 34.4015, 51.6819, -11.4331, 93.1327, -68.6547, 38.0492
2.903, 5, 34.3951, 51.6901, -11.4215, 93.1187, -68.7074, 38.0315
2.908, 5, 34.3888, 51.6983, -11.4098, 93.1046, -68.7601, 38.0138
2.912, 5, 34.3824, 51.7064, -11.3981, 93.0904, -68.8128, 37.9961
2.916, 5, 34.3761, 51.7145, -11.3864, 93.0763, -68.8655, 37.9784
2.92, 5, 34.3697, 51.7226, -11.3747, 93.0621, -68.9182, 37.9607
2.923, 5, 34.3633, 51.7307, -11.3629, 93.0479, -68.9709, 37.943
2.928, 5, 34.3569, 51.7388, -11.3511, 93.0336, -69.0236, 37.9254
2.932, 5, 34.3505, 51.7468, -11.3392, 93.0194, -69.0763, 37.9077
2.936, 5, 34.344, 51.7548, -11.3273, 93.0051, -69.1289, 37.89
2.939, 5, 34.3376, 51.7628, -11.3154, 92.9908, -69.1816, 37.8724
2.944, 5, 34.3311, 51.7707, -11.3034, 92.9764, -69.2342, 37.8548
2.948, 5, 34.3247, 51.7787, -11.2914, 92.9621, -69.2869, 37.8372
2.952, 5, 34.3182, 51.7866, -11.2793, 92.9477, -69.3395, 37.8196
2.956, 5, 34.3117, 51.7944, -11.2673, 92.9333, -69.3921, 37.802
2.959, 5, 34.3052, 51.8023, -11.2551, 92.9188, -69.4447, 37.7844
2.964, 5, 34.2987, 51.8101, -11.243, 92.9043, -69.4973, 37.7668
2.968, 5, 34.2922, 51.8179, -11.2308, 92.8898, -69.5499, 37.7492
2.972, 5, 34.2857, 51.8257, -11.2186, 92.8753, -69.6025, 37.7316
2.976, 5, 34.2792, 51.8335, -11.2063, 92.8608, -69.655, 37.7141
2.98, 5, 34.2726, 51.8412, -11.194, 92.8462, -69.7076, 37.6965
2.984, 5, 34.266, 51.8489, -11.1816, 92.8316, -69.7601, 37.679
2.988, 5, 34.2595, 51.8566, -11.1693, 92.817, -69.8127, 37.6615
2.992, 5, 34.2529, 51.8643, -11.1568, 92.8023, -69.8652, 37.6439
2.995, 5, 34.2463, 51.8719, -11.1444, 92.7876, -69.9177, 37.6264
3, 5, 34.2397, 51.8795, -11.1319, 92.7729, -69.9702, 37.6089
3.004, 5, 34.2331, 51.8871, -11.1194, 92.7582, -70.0227, 37.5914
3.008, 5, 34.2264, 51.8946, -11.1068, 92.7434, -70.0752, 37.5739
3.012, 5, 34.2198, 51.9022, -11.0942, 92.7286, -70.1277, 37.5564
3.015, 5, 34.2132, 51.9097, -11.0816, 92.7138, -70.1802, 37.5389
3.02, 5, 34.2065, 51.9172, -11.0689, 92.699, -70.2327, 37.5215
3.024, 5, 34.1998, 51.9246, -11.0562, 92.6841, -70.2851, 37.504
3.028, 5, 34.1931, 51.9321, -11.0434, 92.6693, -70.3376, 37.4866
3.031, 5, 34.1865, 51.9395, -11.0307, 92.6544, -70.39, 37.4691
3.036, 5, 34.1797, 51.9468, -11.0178, 92.6394, -70.4424, 37.4517
3.04, 5, 34.173, 51.9542, -11.005, 92.6245, -70.4949, 37.4342
3.044, 5, 34.1663, 51.9615, -10.9921, 92.6095, -70.5473, 37.4168
3.048, 5, 34.1596, 51.9689, -10.9792, 92.5945, -70.5997, 37.3994
3.051, 5, 34.1528, 51.9761, -10.9662, 92.5794, -70.6521, 37.382
3.056, 5, 34.1461, 51.9834, -10.9532, 92.5644, -70.7044, 37.3646
3.06, 5, 34.1393, 51.9906, -10.9401, 92.5493, -70.7568, 37.3472
3.064, 5, 34.1325, 51.9978, -10.9271, 92.5342, -70.8092, 37.3298
3.068, 5, 34.1257, 52.005, -10.9139, 92.519, -70.8615, 37.3124
3.071, 5, 34.1189, 52.0122, -10.9008, 92.5039, -70.9139, 37.295
3.076, 5, 34.1121, 52.0193, -10.8876, 92.4887, -70.9662, 37.2777
3.08, 5, 34.1053, 52.0264, -10.8744, 92.4735, -71.0186, 37.2603
3.084, 5, 34.0984, 52.0335, -10.8611, 92.4582, -71.0709, 37.2429
3.087, 5, 34.0916, 52.0406, -10.8478, 92.443, -71.1232, 37.2256
3.092, 5, 34.0847, 52.0476, -10.8345, 92.4277, -71.1755, 37.2082
3.096, 5, 34.0779, 52.0546, -10.8211, 92.4124, -71.2278, 37.1909
3.1, 5, 34.071, 52.0616, -10.8077, 92.397, -71.2801, 37.1736
3.104, 5, 34.0641, 52.0686, -10.7942, 92.3817, -71.3324, 37.1562
3.107, 5, 34.0572, 52.0755, -10.7808, 92.3663, -71.3846, 37.1389
3.112, 5, 34.0503, 52.0824, -10.7672, 92.3509, -71.4369, 37.1216
3.116, 5, 34.0433, 52.0893, -10.7537, 92.3355, -71.4891, 37.1043
3.12, 5, 34.0364, 52.0961, -10.7401, 92.32, -71.5414, 37.087
3.124, 5, 34.0294, 52.103, -10.7265, 92.3045, -71.5936, 37.0697
3.128, 5, 34.0225, 52.1098, -10.7128, 92.289, -71.6458, 37.0524
3.132, 5, 34.0155, 52.1166, -10.6991, 92.2735, -71.6981, 37.0351
3.136, 5, 34.0085, 52.1233, -10.6854, 92.2579, -71.7503, 37.0179
3.14, 5, 34.0015, 52.13, -10.6716, 92.2423, -71.8025, 37.0006
3.143, 5, 33.9945, 52.1367, -10.6578, 92.2267, -71.8547, 36.9833
3.148, 5, 33.9875, 52.1434, -10.6439, 92.2111, -71.9068, 36.9661
3.152, 5, 33.9805, 52.1501, -10.63, 92.1955, -71.959, 36.9488
3.156, 5, 33.9735, 52.1567, -10.6161, 92.1798, -72.0112, 36.9316
3.16, 5, 33.9664, 52.1633, -10.6022, 92.1641, -72.0633, 36.9143
3.163, 5, 33.9594, 52.1699, -10.5882, 92.1484, -72.1155, 36.8971
3.168, 5, 33.9523, 52.1764, -10.5741, 92.1326, -72.1676, 36.8798
3.172, 5, 33.9452, 52.183, -10.5601, 92.1168, -72.2197, 36.8626
3.176, 5, 33.9381, 52.1895, -10.5459, 92.101, -72.2718, 36.8454
3.179, 5, 33.931, 52.1959, -10.5318, 92.0852, -72.3239, 36.8282
3.184, 5, 33.9239, 52.2024, -10.5176, 92.0694, -72.376, 36.811
3.188, 5, 33.9168, 52.2088, -10.5034, 92.0535, -72.4281, 36.7937
3.192, 5, 33.9097, 52.2152, -10.4892, 92.0376, -72.4802, 36.7765
3.196, 5, 33.9025, 52.2216, -10.4749, 92.0217, -72.5323, 36.7593
3.199, 5, 33.8954, 52.228, -10.4605, 92.0058, -72.5844, 36.7421
3.204, 5, 33.8882, 52.2343, -10.4462, 91.9898, -72.6364, 36.725
3.208, 5, 33.881, 52.2406, -10.4318, 91.9738, -72.6885, 36.7078
3.212, 5, 33.8738, 52.2468, -10.4174, 91.9578, -72.7405, 36.6906
3.216, 5, 33.8666, 52.2531, -10.4029, 91.9418, -72.7925, 36.6734
3.22, 5, 33.8594, 52.2593, -10.3884, 91.9257, -72.8446, 36.6562
3.224, 5, 33.8522, 52.2655, -10.3738, 91.9096, -72.8966, 36.6391
3.228, 5, 33.845, 52.2717, -10.3593, 91.8935, -72.9486, 36.6219
3.232, 5, 33.8377, 52.2778, -10.3446, 91.8774, -73.0006, 36.6048
3.235, 5, 33.8305, 52.2839, -10.33, 91.8613, -73.0525, 36.5876
3.24, 5, 33.8232, 52.29, -10.3153, 91.8451, -73.1045, 36.5704
3.244, 5, 33.8159, 52.2961, -10.3006, 91.8289, -73.1565, 36.5533
3.248, 5, 33.8086, 52.3021, -10.2858, 91.8127, -73.2085, 36.5362
3.252, 5, 33.8013, 52.3081, -10.271, 91.7964, -73.2604, 36.519
3.255, 5, 33.794, 52.3141, -10.2562, 91.7802, -73.3123, 36.5019
3.26, 5, 33.7867, 52.3201, -10.2413, 91.7639, -73.3643, 36.4848
3.264, 5, 33.7794, 52.326, -10.2264, 91.7475, -73.4162, 36.4676
3.268, 5, 33.772, 52.3319, -10.2114, 91.7312, -73.4681, 36.4505
3.272, 5, 33.7647, 52.3378, -10.1965, 91.7148, -73.52, 36.4334
3.276, 5, 33.7573, 52.3437, -10.1814, 91.6985, -73.5719, 36.4163
3.28, 5, 33.75, 52.3495, -10.1664, 91.6821, -73.6238, 36.3992
3.284, 5, 33.7426, 52.3553, -10.1513, 91.6656, -73.6757, 36.382
3.288, 5, 33.7352, 52.3611, -10.1362, 91.6492, -73.7276, 36.3649
3.291, 5, 33.7278, 52.3668, -10.121, 91.6327, -73.7794, 36.3478
3.296, 5, 33.7204, 52.3726, -10.1058, 91.6162, -73.8313, 36.3307
3.3, 5, 33.7129, 52.3783, -10.0906, 91.5997, -73.8831, 36.3136
3.304, 5, 33.7055, 52.3839, -10.0753, 91.5832, -73.935, 36.2965
3.308, 5, 33.698, 52.3896, -10.06, 91.5666, -73.9868, 36.2794
3.312, 5, 33.6906, 52.3952, -10.0446, 91.55, -74.0386, 36.2624
3.316, 5, 33.6831, 52.4008, -10.0292, 91.5334, -74.0904, 36.2453
3.32, 5, 33.6756, 52.4064, -10.0138, 91.5168, -74.1423, 36.2282
3.324, 5, 33.6681, 52.4119, -9.99836, 91.5001, -74.194, 36.2111
3.328, 5, 33.6606, 52.4174, -9.98286, 91.4834, -74.2458, 36.194
3.332, 5, 33.6531, 52.4229, -9.96733, 91.4667, -74.2976, 36.177
3.336, 5, 33.6456, 52.4284, -9.95177, 91.45, -74.3494, 36.1599
3.34, 5, 33.6381, 52.4338, -9.93616, 91.4333, -74.4011, 36.1428
3.344, 5, 33.6305, 52.4392, -9.92052, 91.4165, -74.4529, 36.1257
3.347, 5, 33.6229, 52.4446, -9.90485, 91.3997, -74.5046, 36.1087
3.352, 5, 33.6154, 52.45, -9.88913, 91.3829, -74.5564, 36.0916
3.356, 5, 33.6078, 52.4553, -9.87338, 91.3661, -74.6081, 36.0745
3.36, 5, 33.6002, 52.4606, -9.8576, 91.3492, -74.6598, 36.0575
3.364, 5, 33.5926, 52.4659, -9.84177, 91.3323, -74.7115, 36.0404
3.368, 5, 33.585, 52.4712, -9.82591, 91.3154, -74.7632, 36.0234
3.372, 5, 33.5774, 52.4764, -9.81002, 91.2985, -74.8149, 36.0063
3.376, 5, 33.5697, 52.4816, -9.79409, 91.2815, -74.8666, 35.9893
3.38, 5, 33.5621, 52.4868, -9.77812, 91.2646, -74.9183, 35.9722
3.383, 5, 33.5544, 52.4919, -9.76211, 91.2476, -74.97, 35.9552
3.388, 5, 33.5468, 52.497, -9.74607, 91.2306, -75.0216, 35.9381
3.392, 5, 33.5391, 52.5021, -9.72999, 91.2135, -75.0733, 35.9211
3.396, 5, 33.5314, 52.5072, -9.71388, 91.1965, -75.1249, 35.904
3.4, 5, 33.5237, 52.5122, -9.69773, 91.1794, -75.1766, 35.887
3.403, 5, 33.516, 52.5172, -9.68154, 91.1623, -75.2282, 35.8699
3.408, 5, 33.5083, 52.5222, -9.66531, 91.1452, -75.2798, 35.8529
3.412, 5, 33.5005, 52.5272, -9.64905, 91.1281, -75.3314, 35.8359
3.416, 5, 33.4928, 52.5321, -9.63276, 91.1109, -75.383, 35.8188
3.42, 5, 33.4851, 52.537, -9.61642, 91.0937, -75.4346, 35.8018
3.424, 5, 33.4773, 52.5419, -9.60006, 91.0765, -75.4862, 35.7848
3.428, 5, 33.4695, 52.5468, -9.58365, 91.0593, -75.5378, 35.7677
3.432, 5, 33.4617, 52.5516, -9.56721, 91.042, -75.5893, 35.7507
3.436, 5, 33.4539, 52.5564, -9.55073, 91.0247, -75.6409, 35.7337
3.439, 5, 33.4461, 52.5612, -9.53422, 91.0074, -75.6924, 35.7166
3.444, 5, 33.4383, 52.5659, -9.51767, 90.9901, -75.744, 35.6996
3.448, 5, 33.4305, 52.5706, -9.50108, 90.9728, -75.7955, 35.6826
3.452, 5, 33.4226, 52.5753, -9.48446, 90.9554, -75.8471, 35.6655
3.456, 5, 33.4148, 52.58, -9.4678, 90.938, -75.8986, 35.6485
3.46, 5, 33.4069, 52.5846, -9.45111, 90.9206, -75.9501, 35.6315
3.464, 5, 33.3991, 52.5893, -9.43438, 90.9032, -76.0016, 35.6144
3.468, 5, 33.3912, 52.5938, -9.41761, 90.8857, -76.0531, 35.5974
3.472, 5, 33.3833, 52.5984, -9.40081, 90.8683, -76.1046, 35.5804
3.476, 5, 33.3754, 52.6029, -9.38397, 90.8508, -76.1561, 35.5634
3.48, 5, 33.3675, 52.6075, -9.3671, 90.8332, -76.2075, 35.5463
3.484, 5, 33.3596, 52.6119, -9.35019, 90.8157, -76.259, 35.5293
3.488, 5, 33.3516, 52.6164, -9.33324, 90.7981, -76.3105, 35.5123
3.492, 5, 33.3437, 52.6208, -9.31626, 90.7806, -76.3619, 35.4953
3.495, 5, 33.3357, 52.6252, -9.29925, 90.763, -76.4133, 35.4782
3.5, 5, 33.3277, 52.6296, -9.2822, 90.7453, -76.4648, 35.4612
3.504, 5, 33.3198, 52.6339, -9.26511, 90.7277, -76.5162, 35.4442
3.508, 5, 33.3118, 52.6383, -9.24799, 90.71, -76.5676, 35.4272
3.512, 5, 33.3038, 52.6426, -9.23083, 90.6923, -76.619, 35.4101
3.516, 5, 33.2958, 52.6468, -9.21363, 90.6746, -76.6704, 35.3931
3.52, 5, 33.2878, 52.6511, -9.1964, 90.6569, -76.7218, 35.3761
3.524, 5, 33.2797, 52.6553, -9.17914, 90.6392, -76.7732, 35.359
3.528, 5, 33.2717, 52.6595, -9.16184, 90.6214, -76.8246, 35.342
3.531, 5, 33.2636, 52.6636, -9.1445, 90.6036, -76.876, 35.325
3.536, 5, 33.2556, 52.6678, -9.12713, 90.5858, -76.9273, 35.308
3.54, 5, 33.2475, 52.6719, -9.10973, 90.5679, -76.9787, 35.2909
3.544, 5, 33.2394, 52.676, -9.09229, 90.5501, -77.03, 35.2739
3.548, 5, 33.2313, 52.68, -9.07481, 90.5322, -77.0814, 35.2569
3.552, 5, 33.2232, 52.684, -9.0573, 90.5143, -77.1327, 35.2398
3.556, 5, 33.2151, 52.688, -9.03975, 90.4964, -77.184, 35.2228
3.56, 5, 33.207, 52.692, -9.02217, 90.4784, -77.2353, 35.2058
3.564, 5, 33.1988, 52.696, -9.00455, 90.4605, -77.2866, 35.1887
3.568, 5, 33.1907, 52.6999, -8.9869, 90.4425, -77.3379, 35.1717
3.572, 5, 33.1825, 52.7038, -8.96922, 90.4245, -77.3892, 35.1547
3.576, 5, 33.1744, 52.7077, -8.95149, 90.4064, -77.4405, 35.1376
3.58, 5, 33.1662, 52.7115, -8.93374, 90.3884, -77.4918, 35.1206
3.584, 5, 33.158, 52.7153, -8.91595, 90.3703, -77.5431, 35.1035
3.587, 5, 33.1498, 52.7191, -8.89812, 90.3522, -77.5943, 35.0865
3.592, 5, 33.1416, 52.7229, -8.88026, 90.3341, -77.6456, 35.0694
3.596, 5, 33.1334, 52.7266, -8.86236, 90.316, -77.6968, 35.0524
3.6, 5, 33.1252, 52.7303, -8.84443, 90.2979, -77.7481, 35.0354
3.604, 5, 33.1169, 52.734, -8.82646, 90.2797, -77.7993, 35.0183
3.608, 5, 33.1087, 52.7376, -8.80847, 90.2615, -77.8505, 35.0013
3.612, 5, 33.1004, 52.7413, -8.79043, 90.2433, -77.9017, 34.9842
3.616, 5, 33.0921, 52.7449, -8.77236, 90.225, -77.9529, 34.9671
3.62, 5, 33.0839, 52.7484, -8.75426, 90.2068, -78.0041, 34.9501
3.624, 5, 33.0757, 52.752, -8.73612, 90.1885, -78.0553, 34.933
3.628, 5, 33.0676, 52.7554, -8.71795, 90.1702, -78.1065, 34.916
3.632, 5, 33.0598, 52.7587, -8.69977, 90.1519, -78.1576, 34.8989
3.636, 5, 33.0524, 52.7618, -8.6816, 90.1336, -78.2086, 34.8819
3.64, 5, 33.0456, 52.7645, -8.66348, 90.1154, -78.2594, 34.865
3.644, 5, 33.0393, 52.7668, -8.64549, 90.0973, -78.3097, 34.8482
3.648, 5, 33.0335, 52.7688, -8.62772, 90.0795, -78.3594, 34.8316
3.652, 5, 33.0282, 52.7703, -8.61031, 90.062, -78.408, 34.8154
3.656, 5, 33.0232, 52.7714, -8.5934, 90.045, -78.4551, 34.7996
3.66, 5, 33.0184, 52.7724, -8.57715, 90.0286, -78.5004, 34.7845
3.664, 5, 33.0137, 52.7733, -8.56173, 90.0131, -78.5432, 34.7701
3.668, 5, 33.0091, 52.7742, -8.5473, 89.9986, -78.5833, 34.7567
3.672, 5, 33.0046, 52.7752, -8.53399, 89.9853, -78.6202, 34.7444
3.676, 5, 33.0002, 52.7764, -8.52192, 89.9732, -78.6537, 34.7332
3.679, 5, 32.9959, 52.7778, -8.51115, 89.9624, -78.6834, 34.7233
3.684, 5, 32.9917, 52.7795, -8.50173, 89.953, -78.7094, 34.7146
3.688, 5, 32.9876, 52.7816, -8.49367, 89.945, -78.7316, 34.7072
