hehonglu123/ABB_Primitive_Study/execution/movec_smooth/curve_exe_v300_z10.csv
timestamp, cmd_num, J1, J2, J3, J4, J5, J6
0, -1, 32.9528, 52.8019, -8.46502, 89.9168, -78.8096, 34.6812
0.002, -1, 32.9528, 52.8019, -8.46502, 89.9168, -78.8096, 34.6812
0.006, -1, 32.9528, 52.8019, -8.46502, 89.9168, -78.8096, 34.6812
0.008, -1, 32.9528, 52.8019, -8.46502, 89.9168, -78.8096, 34.6812
0.011, -1, 32.9528, 52.8019, -8.46502, 89.9168, -78.8096, 34.6812
0.016, -1, 32.9528, 52.8019, -8.46502, 89.9168, -78.8096, 34.6812
0.02, -1, 32.9528, 52.8019, -8.46502, 89.9168, -78.8096, 34.6812
0.024, -1, 32.9528, 52.8019, -8.46502, 89.9168, -78.8096, 34.6812
0.028, -1, 32.9528, 52.8019, -8.46502, 89.9168, -78.8096, 34.6812
0.032, -1, 32.9528, 52.8019, -8.46502, 89.9168, -78.8096, 34.6812
0.036, -1, 32.9529, 52.8019, -8.46502, 89.9168, -78.8096, 34.6812
0.04, -1, 32.9531, 52.8018, -8.46503, 89.9168, -78.8095, 34.6812
0.044, -1, 32.9535, 52.8014, -8.46504, 89.9169, -78.8095, 34.6812
0.048, -1, 32.9543, 52.8006, -8.46509, 89.9169, -78.8093, 34.6813
0.052, -1, 32.9556, 52.7993, -8.46521, 89.917, -78.8088, 34.6815
0.056, -1, 32.9574, 52.7971, -8.46543, 89.9173, -78.8079, 34.6818
0.06, -1, 32.9597, 52.794, -8.46584, 89.9178, -78.8061, 34.6824
0.064, -1, 32.9625, 52.7899, -8.46653, 89.9186, -78.803, 34.6835
0.068, -1, 32.9659, 52.7849, -8.46761, 89.92, -78.798, 34.6852
0.072, -1, 32.9697, 52.7789, -8.46923, 89.922, -78.7905, 34.6877
0.076, -1, 32.9741, 52.7719, -8.47155, 89.925, -78.7796, 34.6915
0.08, -1, 32.9791, 52.7639, -8.47475, 89.9292, -78.7644, 34.6967
0.084, -1, 32.9847, 52.7549, -8.47904, 89.9348, -78.744, 34.7037
0.088, -1, 32.991, 52.7451, -8.48461, 89.9421, -78.7174, 34.7128
0.092, -1, 32.9978, 52.7344, -8.49169, 89.9515, -78.6834, 34.7244
0.096, -1, 33.005, 52.7231, -8.50046, 89.9631, -78.6411, 34.7389
0.1, -1, 33.0126, 52.7112, -8.51109, 89.9773, -78.5897, 34.7566
0.104, -1, 33.0204, 52.699, -8.5237, 89.9942, -78.5285, 34.7775
0.108, -1, 33.0284, 52.6863, -8.53837, 90.0139, -78.4572, 34.802
0.112, -1, 33.0368, 52.673, -8.55512, 90.0364, -78.3757, 34.8299
0.116, -1, 33.0455, 52.6592, -8.57391, 90.0617, -78.2841, 34.8613
0.12, -1, 33.0546, 52.6447, -8.59467, 90.0896, -78.183, 34.896
0.124, -1, 33.0642, 52.6296, -8.61726, 90.12, -78.0728, 34.9337
0.128, -1, 33.0741, 52.6139, -8.64153, 90.1527, -77.9545, 34.9743
0.131, -1, 33.0844, 52.5977, -8.6673, 90.1875, -77.8288, 35.0174
0.136, -1, 33.0949, 52.5809, -8.69437, 90.2239, -77.6968, 35.0627
0.139, -1, 33.1058, 52.5633, -8.72251, 90.2618, -77.5596, 35.1097
0.144, -1, 33.1172, 52.5447, -8.75152, 90.3009, -77.4182, 35.1582
0.148, -1, 33.1293, 52.525, -8.7812, 90.3408, -77.2736, 35.2077
0.152, -1, 33.1421, 52.5041, -8.81138, 90.3814, -77.1267, 35.2581
0.156, -1, 33.1556, 52.4819, -8.8419, 90.4224, -76.9782, 35.309
0.16, -1, 33.17, 52.4586, -8.87265, 90.4637, -76.8286, 35.3603
0.164, -1, 33.1849, 52.4345, -8.90354, 90.5052, -76.6784, 35.4118
0.168, -1, 33.2004, 52.4098, -8.9345, 90.5467, -76.5279, 35.4634
0.172, -1, 33.2161, 52.3847, -8.9655, 90.5883, -76.3772, 35.515
0.176, -1, 33.2321, 52.3594, -8.9965, 90.6299, -76.2265, 35.5667
0.18, -1, 33.2481, 52.334, -9.02748, 90.6715, -76.076, 35.6183
0.184, -1, 33.2643, 52.3084, -9.05844, 90.713, -75.9256, 35.6699
0.188, -1, 33.2805, 52.2828, -9.08935, 90.7545, -75.7754, 35.7214
0.192, -1, 33.2967, 52.2573, -9.12022, 90.7959, -75.6254, 35.7728
0.196, -1, 33.3129, 52.2317, -9.15103, 90.8372, -75.4757, 35.8241
0.2, -1, 33.3291, 52.2061, -9.1818, 90.8785, -75.3262, 35.8753
0.204, -1, 33.3453, 52.1806, -9.21251, 90.9197, -75.177, 35.9265
0.208, -1, 33.3614, 52.1551, -9.24316, 90.9608, -75.028, 35.9775
0.212, -1, 33.3776, 52.1296, -9.27376, 91.0018, -74.8794, 36.0285
0.216, -1, 33.3937, 52.1042, -9.3043, 91.0428, -74.731, 36.0794
0.22, -1, 33.4098, 52.0788, -9.33479, 91.0837, -74.5829, 36.1302
0.224, -1, 33.4258, 52.0535, -9.36522, 91.1245, -74.435, 36.1808
0.228, -1, 33.4419, 52.0282, -9.3956, 91.1652, -74.2874, 36.2314
0.232, -1, 33.4579, 52.003, -9.42592, 91.2059, -74.1401, 36.2819
0.236, -1, 33.4738, 51.9778, -9.45618, 91.2465, -73.9931, 36.3323
0.24, -1, 33.4898, 51.9526, -9.48639, 91.287, -73.8463, 36.3826
0.244, -1, 33.5057, 51.9275, -9.51654, 91.3275, -73.6998, 36.4329
0.248, -1, 33.5216, 51.9025, -9.54664, 91.3678, -73.5536, 36.483
0.252, -1, 33.5374, 51.8774, -9.57668, 91.4081, -73.4076, 36.533
0.256, -1, 33.5533, 51.8525, -9.60667, 91.4483, -73.2619, 36.583
0.26, -1, 33.5691, 51.8276, -9.6366, 91.4885, -73.1165, 36.6328
0.264, -1, 33.5848, 51.8027, -9.66649, 91.5286, -72.9713, 36.6826
0.268, -1, 33.6006, 51.7778, -9.69631, 91.5686, -72.8264, 36.7323
0.272, -1, 33.6163, 51.7531, -9.72609, 91.6085, -72.6817, 36.7819
0.276, -1, 33.632, 51.7283, -9.75581, 91.6484, -72.5373, 36.8314
0.28, -1, 33.6476, 51.7036, -9.78547, 91.6882, -72.3932, 36.8808
0.284, -1, 33.6633, 51.679, -9.81509, 91.7279, -72.2493, 36.9301
0.288, -1, 33.6789, 51.6544, -9.84465, 91.7675, -72.1057, 36.9794
0.292, -1, 33.6945, 51.6298, -9.87416, 91.8071, -71.9623, 37.0285
0.296, -1, 33.71, 51.6053, -9.90362, 91.8466, -71.8191, 37.0776
0.3, -1, 33.7255, 51.5808, -9.93303, 91.8861, -71.6763, 37.1265
0.304, -1, 33.741, 51.5563, -9.96238, 91.9255, -71.5336, 37.1754
0.308, -1, 33.7565, 51.5319, -9.99169, 91.9648, -71.3913, 37.2243
0.312, -1, 33.7719, 51.5076, -10.0209, 92.004, -71.2491, 37.273
0.316, -1, 33.7873, 51.4833, -10.0501, 92.0432, -71.1073, 37.3216
0.32, -1, 33.8027, 51.459, -10.0793, 92.0823, -70.9656, 37.3702
0.324, -1, 33.8181, 51.4348, -10.1084, 92.1213, -70.8242, 37.4186
0.328, -1, 33.8334, 51.4106, -10.1374, 92.1603, -70.6831, 37.467
0.332, -1, 33.8487, 51.3864, -10.1665, 92.1992, -70.5422, 37.5153
0.336, -1, 33.864, 51.3623, -10.1954, 92.238, -70.4015, 37.5636
0.34, -1, 33.8793, 51.3383, -10.2243, 92.2768, -70.261, 37.6117
0.344, -1, 33.8945, 51.3142, -10.2532, 92.3155, -70.1209, 37.6598
0.348, -1, 33.9097, 51.2903, -10.282, 92.3541, -69.9809, 37.7077
0.352, -1, 33.9249, 51.2663, -10.3107, 92.3927, -69.8412, 37.7556
0.356, -1, 33.94, 51.2424, -10.3394, 92.4312, -69.7017, 37.8034
0.36, -1, 33.9552, 51.2186, -10.3681, 92.4696, -69.5624, 37.8512
0.364, -1, 33.9703, 51.1947, -10.3967, 92.508, -69.4234, 37.8988
0.368, -1, 33.9853, 51.171, -10.4253, 92.5463, -69.2846, 37.9464
0.372, -1, 34.0004, 51.1472, -10.4538, 92.5846, -69.1461, 37.9939
0.376, -1, 34.0154, 51.1235, -10.4823, 92.6228, -69.0078, 38.0413
0.38, -1, 34.0304, 51.0998, -10.5107, 92.6609, -68.8697, 38.0887
0.384, -1, 34.0454, 51.0762, -10.5391, 92.6989, -68.7318, 38.1359
0.388, -1, 34.0604, 51.0526, -10.5674, 92.7369, -68.5941, 38.1831
0.392, -1, 34.0753, 51.0291, -10.5957, 92.7749, -68.4567, 38.2302
0.396, -1, 34.0902, 51.0056, -10.6239, 92.8127, -68.3195, 38.2773
0.4, -1, 34.1051, 50.9821, -10.6521, 92.8506, -68.1826, 38.3242
0.404, -1, 34.1199, 50.9587, -10.6803, 92.8883, -68.0458, 38.3711
0.408, -1, 34.1348, 50.9353, -10.7084, 92.926, -67.9093, 38.4179
0.412, -1, 34.1496, 50.9119, -10.7364, 92.9636, -67.773, 38.4646
0.416, -1, 34.1643, 50.8886, -10.7644, 93.0012, -67.6369, 38.5113
0.42, -1, 34.1791, 50.8653, -10.7924, 93.0387, -67.501, 38.5579
0.424, -1, 34.1938, 50.8421, -10.8203, 93.0762, -67.3653, 38.6044
0.428, -1, 34.2086, 50.8189, -10.8482, 93.1136, -67.2299, 38.6508
0.432, -1, 34.2232, 50.7957, -10.876, 93.1509, -67.0947, 38.6971
0.436, -1, 34.2379, 50.7726, -10.9038, 93.1881, -66.9597, 38.7434
0.44, -1, 34.2526, 50.7495, -10.9315, 93.2254, -66.8249, 38.7896
0.444, -1, 34.2672, 50.7264, -10.9592, 93.2625, -66.6903, 38.8358
0.448, -1, 34.2818, 50.7034, -10.9869, 93.2996, -66.5559, 38.8818
0.452, -1, 34.2964, 50.6804, -11.0145, 93.3367, -66.4217, 38.9278
0.456, -1, 34.3109, 50.6574, -11.0421, 93.3736, -66.2878, 38.9738
0.46, -1, 34.3254, 50.6345, -11.0696, 93.4106, -66.154, 39.0196
0.464, -1, 34.3399, 50.6116, -11.0971, 93.4474, -66.0204, 39.0654
0.468, -1, 34.3544, 50.5888, -11.1246, 93.4842, -65.8871, 39.1111
0.472, -1, 34.3689, 50.566, -11.152, 93.521, -65.754, 39.1567
0.476, -1, 34.3833, 50.5432, -11.1793, 93.5577, -65.621, 39.2023
0.48, -1, 34.3978, 50.5204, -11.2066, 93.5943, -65.4883, 39.2478
0.484, -1, 34.4121, 50.4977, -11.2339, 93.6309, -65.3558, 39.2933
0.488, -1, 34.4265, 50.475, -11.2612, 93.6675, -65.2234, 39.3386
0.492, -1, 34.4409, 50.4524, -11.2883, 93.7039, -65.0913, 39.3839
0.496, -1, 34.4552, 50.4298, -11.3155, 93.7404, -64.9594, 39.4291
0.5, -1, 34.4695, 50.4072, -11.3426, 93.7767, -64.8276, 39.4743
0.504, -1, 34.4838, 50.3847, -11.3697, 93.813, -64.6961, 39.5194
0.508, -1, 34.4981, 50.3622, -11.3967, 93.8493, -64.5647, 39.5644
0.512, -1, 34.5123, 50.3397, -11.4237, 93.8855, -64.4336, 39.6094
0.516, -1, 34.5265, 50.3173, -11.4507, 93.9217, -64.3026, 39.6543
0.52, -1, 34.5408, 50.2949, -11.4776, 93.9578, -64.1719, 39.6991
0.524, -1, 34.5549, 50.2725, -11.5045, 93.9938, -64.0413, 39.7439
0.528, -1, 34.5691, 50.2501, -11.5313, 94.0298, -63.9109, 39.7886
0.532, -1, 34.5832, 50.2278, -11.5581, 94.0657, -63.7807, 39.8332
0.536, -1, 34.5974, 50.2056, -11.5848, 94.1016, -63.6507, 39.8777
0.54, -1, 34.6115, 50.1833, -11.6116, 94.1375, -63.5209, 39.9222
0.544, -1, 34.6255, 50.1611, -11.6382, 94.1732, -63.3913, 39.9667
0.548, -1, 34.6396, 50.1389, -11.6649, 94.209, -63.2619, 40.0111
0.552, -1, 34.6536, 50.1168, -11.6915, 94.2447, -63.1326, 40.0554
0.556, -1, 34.6677, 50.0947, -11.718, 94.2803, -63.0036, 40.0996
0.56, -1, 34.6817, 50.0726, -11.7446, 94.3159, -62.8747, 40.1438
0.564, -1, 34.6956, 50.0505, -11.7711, 94.3514, -62.746, 40.1879
0.568, -1, 34.7096, 50.0285, -11.7975, 94.3869, -62.6175, 40.2319
0.572, -1, 34.7235, 50.0065, -11.8239, 94.4223, -62.4892, 40.2759
0.576, -1, 34.7375, 49.9846, -11.8503, 94.4577, -62.361, 40.3199
0.58, -1, 34.7514, 49.9626, -11.8766, 94.493, -62.2331, 40.3637
0.584, -1, 34.7652, 49.9407, -11.9029, 94.5283, -62.1053, 40.4075
0.588, -1, 34.7791, 49.9189, -11.9292, 94.5635, -61.9777, 40.4513
0.592, -1, 34.7929, 49.897, -11.9554, 94.5987, -61.8503, 40.495
0.596, -1, 34.8068, 49.8752, -11.9816, 94.6338, -61.723, 40.5386
0.6, -1, 34.8206, 49.8535, -12.0078, 94.6689, -61.5959, 40.5821
0.604, -1, 34.8343, 49.8317, -12.0339, 94.7039, -61.4691, 40.6256
0.608, -1, 34.8481, 49.81, -12.0599, 94.7389, -61.3423, 40.6691
0.612, -1, 34.8618, 49.7883, -12.086, 94.7738, -61.2158, 40.7125
0.616, -1, 34.8756, 49.7667, -12.112, 94.8087, -61.0894, 40.7558
0.62, -1, 34.8893, 49.7451, -12.138, 94.8435, -60.9632, 40.799
0.624, -1, 34.903, 49.7235, -12.1639, 94.8783, -60.8372, 40.8422
0.628, -1, 34.9166, 49.7019, -12.1898, 94.9131, -60.7114, 40.8854
0.632, -1, 34.9303, 49.6804, -12.2157, 94.9478, -60.5857, 40.9284
0.636, -1, 34.9439, 49.6589, -12.2415, 94.9824, -60.4602, 40.9715
0.64, -1, 34.9575, 49.6374, -12.2673, 95.017, -60.3349, 41.0144
0.644, -1, 34.9711, 49.6159, -12.2931, 95.0516, -60.2097, 41.0573
0.648, -1, 34.9847, 49.5945, -12.3188, 95.0861, -60.0847, 41.1002
0.652, -1, 34.9983, 49.5731, -12.3445, 95.1205, -59.9599, 41.143
0.656, -1, 35.0118, 49.5518, -12.3701, 95.1549, -59.8352, 41.1857
0.66, -1, 35.0253, 49.5304, -12.3958, 95.1893, -59.7107, 41.2284
0.664, -1, 35.0388, 49.5091, -12.4214, 95.2236, -59.5864, 41.271
0.668, -1, 35.0523, 49.4879, -12.4469, 95.2579, -59.4622, 41.3136
0.672, -1, 35.0658, 49.4666, -12.4724, 95.2921, -59.3382, 41.3561
0.676, -1, 35.0792, 49.4454, -12.4979, 95.3263, -59.2144, 41.3985
0.68, -1, 35.0927, 49.4242, -12.5234, 95.3605, -59.0907, 41.4409
0.684, -1, 35.1061, 49.4031, -12.5488, 95.3946, -58.9672, 41.4833
0.688, -1, 35.1195, 49.3819, -12.5742, 95.4286, -58.8439, 41.5256
0.692, -1, 35.1329, 49.3608, -12.5995, 95.4626, -58.7207, 41.5678
0.696, -1, 35.1462, 49.3397, -12.6249, 95.4966, -58.5977, 41.61
0.7, -1, 35.1596, 49.3187, -12.6501, 95.5305, -58.4748, 41.6521
0.704, -1, 35.1729, 49.2977, -12.6754, 95.5644, -58.3521, 41.6941
0.708, -1, 35.1862, 49.2767, -12.7006, 95.5982, -58.2296, 41.7361
0.712, -1, 35.1995, 49.2557, -12.7258, 95.632, -58.1072, 41.7781
0.716, -1, 35.2128, 49.2347, -12.751, 95.6657, -57.985, 41.82
0.72, -1, 35.226, 49.2138, -12.7761, 95.6994, -57.8629, 41.8618
0.724, -1, 35.2393, 49.1929, -12.8012, 95.7331, -57.741, 41.9036
0.728, -1, 35.2525, 49.1721, -12.8262, 95.7667, -57.6192, 41.9454
0.732, -1, 35.2657, 49.1512, -12.8513, 95.8003, -57.4976, 41.9871
0.736, -1, 35.2789, 49.1304, -12.8763, 95.8338, -57.3762, 42.0287
0.74, -1, 35.2921, 49.1097, -12.9012, 95.8673, -57.2549, 42.0703
0.744, -1, 35.3052, 49.0889, -12.9262, 95.9007, -57.1338, 42.1118
0.748, -1, 35.3184, 49.0682, -12.9511, 95.9341, -57.0128, 42.1533
0.752, -1, 35.3315, 49.0475, -12.9759, 95.9675, -56.8919, 42.1947
0.756, -1, 35.3446, 49.0268, -13.0008, 96.0008, -56.7712, 42.2361
0.76, -1, 35.3577, 49.0061, -13.0256, 96.0341, -56.6507, 42.2774
0.764, -1, 35.3708, 48.9855, -13.0504, 96.0673, -56.5303, 42.3187
0.768, -1, 35.3838, 48.9649, -13.0751, 96.1005, -56.4101, 42.3599
0.772, -1, 35.3969, 48.9443, -13.0998, 96.1336, -56.29, 42.401
0.776, -1, 35.4099, 48.9238, -13.1245, 96.1667, -56.1701, 42.4422
0.78, -1, 35.4229, 48.9032, -13.1492, 96.1998, -56.0503, 42.4832
0.784, -1, 35.4359, 48.8827, -13.1738, 96.2328, -55.9307, 42.5242
0.788, -1, 35.4489, 48.8623, -13.1984, 96.2658, -55.8112, 42.5652
0.792, -1, 35.4619, 48.8418, -13.2229, 96.2988, -55.6918, 42.6061
0.796, -1, 35.4748, 48.8214, -13.2475, 96.3317, -55.5726, 42.647
0.8, -1, 35.4877, 48.801, -13.272, 96.3645, -55.4535, 42.6878
0.804, -1, 35.5006, 48.7806, -13.2965, 96.3974, -55.3346, 42.7285
0.808, -1, 35.5136, 48.7603, -13.3209, 96.4302, -55.2159, 42.7693
0.812, -1, 35.5264, 48.7399, -13.3453, 96.4629, -55.0972, 42.8099
0.816, -1, 35.5393, 48.7196, -13.3697, 96.4956, -54.9787, 42.8506
0.82, -1, 35.5522, 48.6994, -13.3941, 96.5283, -54.8604, 42.8911
0.824, -1, 35.565, 48.6791, -13.4184, 96.5609, -54.7422, 42.9316
0.828, -1, 35.5778, 48.6589, -13.4427, 96.5935, -54.6241, 42.9721
0.832, -1, 35.5906, 48.6387, -13.467, 96.6261, -54.5062, 43.0125
0.836, -1, 35.6034, 48.6185, -13.4912, 96.6586, -54.3884, 43.0529
0.84, -1, 35.6162, 48.5983, -13.5154, 96.6911, -54.2707, 43.0933
0.844, -1, 35.629, 48.5782, -13.5396, 96.7235, -54.1532, 43.1335
0.848, -1, 35.6417, 48.5581, -13.5638, 96.7559, -54.0358, 43.1738
0.852, -1, 35.6545, 48.538, -13.5879, 96.7883, -53.9186, 43.214
0.856, -1, 35.6672, 48.5179, -13.612, 96.8206, -53.8015, 43.2541
0.86, -1, 35.6799, 48.4979, -13.6361, 96.8529, -53.6845, 43.2942
0.864, -1, 35.6925, 48.4779, -13.6601, 96.8852, -53.5677, 43.3343
0.868, -1, 35.7051, 48.458, -13.6841, 96.9174, -53.451, 43.3743
0.872, -1, 35.7176, 48.4381, -13.7081, 96.9496, -53.3345, 43.4142
0.876, -1, 35.73, 48.4184, -13.7321, 96.9817, -53.2181, 43.4541
0.88, -1, 35.7419, 48.3992, -13.756, 97.0137, -53.102, 43.4939
0.884, -1, 35.7533, 48.3805, -13.7798, 97.0457, -52.9863, 43.5336
0.888, -1, 35.7641, 48.3627, -13.8035, 97.0775, -52.8712, 43.5731
0.892, -1, 35.7742, 48.3457, -13.8269, 97.109, -52.757, 43.6122
0.896, -1, 35.7836, 48.3297, -13.8501, 97.1401, -52.6444, 43.6508
0.9, -1, 35.7924, 48.3145, -13.8728, 97.1706, -52.534, 43.6887
0.904, -1, 35.8007, 48.3002, -13.895, 97.2003, -52.4264, 43.7256
0.908, -1, 35.8087, 48.2866, -13.9163, 97.229, -52.3226, 43.7613
0.912, -1, 35.8164, 48.2736, -13.9367, 97.2564, -52.2234, 43.7953
0.916, -1, 35.8238, 48.2613, -13.956, 97.2823, -52.1296, 43.8275
0.92, -1, 35.8309, 48.2497, -13.9741, 97.3065, -52.042, 43.8576
0.924, -1, 35.8377, 48.2387, -13.9907, 97.3288, -51.9612, 43.8853
0.928, -1, 35.8442, 48.2281, -14.0057, 97.3491, -51.888, 43.9104
0.932, -1, 35.8507, 48.2178, -14.0192, 97.3671, -51.8226, 43.9328
0.936, -1, 35.8571, 48.2077, -14.031, 97.3829, -51.7653, 43.9524
0.94, -1, 35.8634, 48.1979, -14.0412, 97.3966, -51.716, 43.9693
0.944, -1, 35.8695, 48.1884, -14.0498, 97.4081, -51.6743, 43.9836
0.948, -1, 35.8755, 48.1793, -14.0569, 97.4175, -51.6399, 43.9954
0.952, -1, 35.8812, 48.1708, -14.0626, 97.4252, -51.612, 44.0049
0.956, -1, 35.8865, 48.1631, -14.0672, 97.4313, -51.5899, 44.0124
0.96, -1, 35.8915, 48.1562, -14.0707, 97.436, -51.5728, 44.0183
0.964, -1, 35.896, 48.1502, -14.0734, 97.4396, -51.5598, 44.0227
0.968, -1, 35.9001, 48.145, -14.0754, 97.4422, -51.5503, 44.0259
0.972, -1, 35.9037, 48.1406, -14.0768, 97.4441, -51.5433, 44.0283
0.976, 2, 35.9067, 48.1371, -14.0778, 97.4454, -51.5385, 44.0299
0.98, 2, 35.9091, 48.1343, -14.0785, 97.4463, -51.5351, 44.0311
0.984, 2, 35.911, 48.1323, -14.079, 97.4469, -51.5327, 44.0319
0.988, 2, 35.9123, 48.1308, -14.0793, 97.4474, -51.5312, 44.0324
0.992, 2, 35.9132, 48.1299, -14.0796, 97.4477, -51.5301, 44.0328
0.996, 2, 35.9138, 48.1292, -14.0797, 97.4479, -51.5294, 44.033
1, 2, 35.9142, 48.1287, -14.0798, 97.448, -51.5289, 44.0332
1.004, 2, 35.9145, 48.1284, -14.0799, 97.4481, -51.5285, 44.0333
1.008, 2, 35.9147, 48.1282, -14.0799, 97.4482, -51.5283, 44.0334
1.012, 2, 35.9149, 48.1281, -14.08, 97.4482, -51.5282, 44.0334
1.016, 2, 35.9149, 48.128, -14.08, 97.4482, -51.5281, 44.0335
1.02, 2, 35.915, 48.1279, -14.08, 97.4482, -51.528, 44.0335
1.024, 2, 35.915, 48.1279, -14.08, 97.4483, -51.5279, 44.0335
1.027, 2, 35.9151, 48.1278, -14.08, 97.4483, -51.5279, 44.0335
1.032, 2, 35.9151, 48.1278, -14.08, 97.4483, -51.5279, 44.0335
1.036, 2, 35.9151, 48.1278, -14.08, 97.4483, -51.5279, 44.0335
1.04, 2, 35.9151, 48.1278, -14.08, 97.4483, -51.5279, 44.0335
1.044, 2, 35.9151, 48.1278, -14.08, 97.4483, -51.5279, 44.0335
1.048, 2, 35.9151, 48.1278, -14.08, 97.4483, -51.5279, 44.0335
1.052, 2, 35.9151, 48.1278, -14.08, 97.4483, -51.5278, 44.0335
1.055, 2, 35.9151, 48.1278, -14.08, 97.4483, -51.5278, 44.0335
1.06, 2, 35.9151, 48.1278, -14.08, 97.4483, -51.5278, 44.0335
1.064, 2, 35.9151, 48.1278, -14.08, 97.4483, -51.5278, 44.0335
1.068, 2, 35.9151, 48.1278, -14.08, 97.4483, -51.5278, 44.0335
1.072, 2, 35.9151, 48.1278, -14.08, 97.4483, -51.5278, 44.0335
1.076, 2, 35.9151, 48.1278, -14.08, 97.4483, -51.5278, 44.0335
1.08, 2, 35.9151, 48.1278, -14.08, 97.4483, -51.5278, 44.0335
1.084, 2, 35.9151, 48.1278, -14.08, 97.4483, -51.5278, 44.0335
1.088, 2, 35.9151, 48.1278, -14.08, 97.4483, -51.5278, 44.0335
1.091, 2, 35.9151, 48.1278, -14.08, 97.4483, -51.5278, 44.0335
1.096, 2, 35.9151, 48.1278, -14.08, 97.4483, -51.5278, 44.0335
1.1, 2, 35.9151, 48.1278, -14.08, 97.4483, -51.5278, 44.0335
1.104, 2, 35.9151, 48.1278, -14.08, 97.4483, -51.5278, 44.0335
1.108, 2, 35.9151, 48.1278, -14.08, 97.4483, -51.5278, 44.0335
1.112, 2, 35.9151, 48.1278, -14.08, 97.4483, -51.5278, 44.0335
1.116, 2, 35.9151, 48.1278, -14.08, 97.4483, -51.5278, 44.0335
1.119, 2, 35.9151, 48.1278, -14.08, 97.4483, -51.5278, 44.0335
1.124, 2, 35.9151, 48.1278, -14.08, 97.4483, -51.5278, 44.0335
1.128, 2, 35.9151, 48.1278, -14.08, 97.4483, -51.5278, 44.0335
1.132, 2, 35.9151, 48.1278, -14.08, 97.4483, -51.5278, 44.0335
1.136, 2, 35.9151, 48.1278, -14.08, 97.4483, -51.5278, 44.0335
1.14, 2, 35.9151, 48.1278, -14.08, 97.4483, -51.5278, 44.0335
1.144, 2, 35.9151, 48.1278, -14.08, 97.4483, -51.5278, 44.0335
1.147, 2, 35.9151, 48.1278, -14.08, 97.4483, -51.5278, 44.0335
1.152, 2, 35.9151, 48.1278, -14.08, 97.4483, -51.5278, 44.0335
1.156, 2, 35.9151, 48.1278, -14.08, 97.4483, -51.5278, 44.0335
1.16, 2, 35.9151, 48.1278, -14.08, 97.4483, -51.5278, 44.0335
1.164, 2, 35.9151, 48.1278, -14.08, 97.4483, -51.5278, 44.0335
1.168, 2, 35.9151, 48.1278, -14.08, 97.4483, -51.5278, 44.0335
1.172, 2, 35.9151, 48.1278, -14.08, 97.4483, -51.5278, 44.0335
1.175, 2, 35.9151, 48.1278, -14.08, 97.4483, -51.5278, 44.0335
1.18, 2, 35.9151, 48.1278, -14.08, 97.4483, -51.5278, 44.0335
1.184, 2, 35.9151, 48.1278, -14.08, 97.4483, -51.5278, 44.0335
1.188, 2, 35.9151, 48.1278, -14.08, 97.4483, -51.5278, 44.0335
1.192, 2, 35.9151, 48.1278, -14.08, 97.4483, -51.5278, 44.0335
1.196, 2, 35.9151, 48.1278, -14.08, 97.4483, -51.5278, 44.0335
1.2, 2, 35.9151, 48.1278, -14.08, 97.4483, -51.5278, 44.0335
1.204, 2, 35.9151, 48.1278, -14.08, 97.4483, -51.5278, 44.0335
1.208, 2, 35.9151, 48.1278, -14.08, 97.4483, -51.5278, 44.0335
1.212, 2, 35.9151, 48.1278, -14.08, 97.4483, -51.5278, 44.0335
1.216, 2, 35.9151, 48.1278, -14.08, 97.4483, -51.5278, 44.0335
1.22, 2, 35.9151, 48.1278, -14.08, 97.4483, -51.5278, 44.0335
1.224, 2, 35.9151, 48.1278, -14.08, 97.4483, -51.5278, 44.0335
1.228, 2, 35.9151, 48.1278, -14.08, 97.4483, -51.5278, 44.0335
1.232, 2, 35.9151, 48.1278, -14.08, 97.4483, -51.5278, 44.0335
1.236, 2, 35.9151, 48.1278, -14.08, 97.4483, -51.5278, 44.0335
1.24, 2, 35.9151, 48.1278, -14.08, 97.4483, -51.5278, 44.0335
1.244, 2, 35.9151, 48.1278, -14.08, 97.4483, -51.5278, 44.0335
1.248, 2, 35.9151, 48.1278, -14.08, 97.4483, -51.5278, 44.0335
1.252, 2, 35.9151, 48.1278, -14.08, 97.4483, -51.5278, 44.0335
1.256, 2, 35.9151, 48.1278, -14.08, 97.4483, -51.5278, 44.0335
1.26, 2, 35.9151, 48.1278, -14.08, 97.4483, -51.5278, 44.0335
1.264, 2, 35.9151, 48.1278, -14.08, 97.4483, -51.5278, 44.0335
1.267, 2, 35.9151, 48.1278, -14.08, 97.4483, -51.5278, 44.0335
1.272, 2, 35.9151, 48.1278, -14.08, 97.4483, -51.5278, 44.0335
1.276, 2, 35.9151, 48.1278, -14.08, 97.4483, -51.5278, 44.0335
1.28, 2, 35.9151, 48.1278, -14.08, 97.4483, -51.5278, 44.0335
1.284, 2, 35.9151, 48.1278, -14.08, 97.4483, -51.5278, 44.0335
1.288, 2, 35.9151, 48.1278, -14.08, 97.4483, -51.5278, 44.0335
1.292, 2, 35.9151, 48.1278, -14.08, 97.4483, -51.5278, 44.0335
1.295, 2, 35.9151, 48.1278, -14.08, 97.4483, -51.5278, 44.0335
1.3, 2, 35.9151, 48.1278, -14.08, 97.4483, -51.5278, 44.0335
1.304, 2, 35.9151, 48.1278, -14.08, 97.4483, -51.5278, 44.0335
1.308, 2, 35.9151, 48.1278, -14.08, 97.4483, -51.5278, 44.0335
1.312, 2, 35.9151, 48.1278, -14.08, 97.4483, -51.5278, 44.0335
1.316, 2, 35.9151, 48.1278, -14.08, 97.4483, -51.5278, 44.0335
1.32, 2, 35.9151, 48.1278, -14.08, 97.4483, -51.5278, 44.0335
1.324, 2, 35.9151, 48.1278, -14.08, 97.4483, -51.5278, 44.0335
1.328, 2, 35.9151, 48.1278, -14.08, 97.4483, -51.5278, 44.0335
1.332, 2, 35.9151, 48.1278, -14.08, 97.4483, -51.5278, 44.0335
1.336, 2, 35.9151, 48.1278, -14.08, 97.4483, -51.5278, 44.0335
1.34, 2, 35.9151, 48.1278, -14.08, 97.4483, -51.5278, 44.0335
1.344, 2, 35.9151, 48.1278, -14.08, 97.4483, -51.5278, 44.0335
1.348, 2, 35.9151, 48.1278, -14.08, 97.4483, -51.5278, 44.0335
1.352, 2, 35.9151, 48.1278, -14.08, 97.4483, -51.5278, 44.0335
1.356, 2, 35.9151, 48.1278, -14.08, 97.4483, -51.5278, 44.0335
1.36, 2, 35.9151, 48.1278, -14.08, 97.4483, -51.5278, 44.0335
1.364, 2, 35.9151, 48.1278, -14.08, 97.4483, -51.5278, 44.0335
1.368, 2, 35.9151, 48.1278, -14.08, 97.4483, -51.5278, 44.0335
1.372, 2, 35.9151, 48.1278, -14.08, 97.4483, -51.5278, 44.0335
1.376, 2, 35.9151, 48.1278, -14.08, 97.4483, -51.5278, 44.0335
1.38, 2, 35.9151, 48.1278, -14.08, 97.4483, -51.5278, 44.0335
1.384, 2, 35.9151, 48.1278, -14.08, 97.4483, -51.5278, 44.0335
1.388, 2, 35.9151, 48.1278, -14.08, 97.4483, -51.5278, 44.0335
1.392, 2, 35.9151, 48.1278, -14.08, 97.4483, -51.5278, 44.0335
1.396, 2, 35.9151, 48.1278, -14.08, 97.4483, -51.5278, 44.0335
1.4, 2, 35.9151, 48.1278, -14.08, 97.4483, -51.5278, 44.0335
1.404, 2, 35.9151, 48.1278, -14.08, 97.4483, -51.5278, 44.0335
1.408, 2, 35.9151, 48.1278, -14.08, 97.4483, -51.5278, 44.0335
1.412, 2, 35.9151, 48.1278, -14.08, 97.4483, -51.5278, 44.0335
1.416, 2, 35.9151, 48.1278, -14.08, 97.4483, -51.5278, 44.0335
1.42, 2, 35.9151, 48.1278, -14.08, 97.4483, -51.5278, 44.0335
1.424, 2, 35.9151, 48.1278, -14.08, 97.4483, -51.5278, 44.0335
1.428, 2, 35.9151, 48.1278, -14.08, 97.4483, -51.5278, 44.0335
1.432, 2, 35.9151, 48.1278, -14.08, 97.4483, -51.5278, 44.0335
1.436, 2, 35.9151, 48.1278, -14.08, 97.4483, -51.5278, 44.0335
1.44, 2, 35.9151, 48.1278, -14.08, 97.4483, -51.5278, 44.0335
1.444, 2, 35.9151, 48.1278, -14.08, 97.4483, -51.5278, 44.0335
1.448, 2, 35.9151, 48.1278, -14.08, 97.4483, -51.5278, 44.0335
1.452, 2, 35.9151, 48.1278, -14.08, 97.4483, -51.5278, 44.0335
1.456, 2, 35.9151, 48.1278, -14.08, 97.4483, -51.5278, 44.0335
1.46, 2, 35.9151, 48.1278, -14.08, 97.4483, -51.5278, 44.0335
1.464, 2, 35.9151, 48.1278, -14.08, 97.4483, -51.5278, 44.0335
1.468, 2, 35.9151, 48.1278, -14.08, 97.4483, -51.5278, 44.0335
1.472, 2, 35.9151, 48.1278, -14.08, 97.4483, -51.5278, 44.0335
1.476, 2, 35.9151, 48.1278, -14.08, 97.4483, -51.5278, 44.0335
1.48, 2, 35.9151, 48.1278, -14.08, 97.4483, -51.5278, 44.0335
1.484, 2, 35.9151, 48.1278, -14.08, 97.4483, -51.5278, 44.0335
1.488, 2, 35.9151, 48.1278, -14.08, 97.4483, -51.5278, 44.0335
1.492, 2, 35.9151, 48.1278, -14.08, 97.4483, -51.5278, 44.0335
1.496, 2, 35.9151, 48.1278, -14.08, 97.4483, -51.5278, 44.0335
1.5, 2, 35.9151, 48.1278, -14.08, 97.4483, -51.5278, 44.0335
1.504, 2, 35.9151, 48.1278, -14.08, 97.4483, -51.5278, 44.0335
1.508, 2, 35.9151, 48.1278, -14.08, 97.4483, -51.5278, 44.0335
1.512, 2, 35.9151, 48.1278, -14.08, 97.4483, -51.5278, 44.0335
1.516, 2, 35.9151, 48.1278, -14.08, 97.4483, -51.5278, 44.0335
1.52, 2, 35.9151, 48.1278, -14.08, 97.4483, -51.5278, 44.0335
1.524, 2, 35.9151, 48.1278, -14.08, 97.4483, -51.5278, 44.0335
1.528, 2, 35.9151, 48.1278, -14.08, 97.4483, -51.5278, 44.0335
1.532, 2, 35.9151, 48.1278, -14.08, 97.4483, -51.5278, 44.0335
1.536, 2, 35.9151, 48.1278, -14.08, 97.4483, -51.5278, 44.0335
1.54, 2, 35.9151, 48.1278, -14.08, 97.4483, -51.5278, 44.0335
1.544, 2, 35.9151, 48.1278, -14.08, 97.4483, -51.5278, 44.0335
1.548, 2, 35.9151, 48.1278, -14.08, 97.4483, -51.5278, 44.0335
1.552, 2, 35.9151, 48.1278, -14.08, 97.4483, -51.5278, 44.0335
1.556, 2, 35.9151, 48.1278, -14.08, 97.4483, -51.5278, 44.0335
1.56, 2, 35.9151, 48.1278, -14.08, 97.4483, -51.5278, 44.0335
1.564, 2, 35.9151, 48.1278, -14.08, 97.4483, -51.5278, 44.0335
1.568, 2, 35.9151, 48.1278, -14.08, 97.4483, -51.5278, 44.0335
1.572, 2, 35.9151, 48.1278, -14.08, 97.4483, -51.5278, 44.0335
1.576, 2, 35.9151, 48.1278, -14.08, 97.4483, -51.5278, 44.0335
1.58, 2, 35.9151, 48.1278, -14.08, 97.4483, -51.5278, 44.0335
1.584, 2, 35.9151, 48.1278, -14.08, 97.4483, -51.5278, 44.0335
1.588, 2, 35.9151, 48.1278, -14.08, 97.4483, -51.5278, 44.0335
1.592, 2, 35.9151, 48.1278, -14.08, 97.4483, -51.5278, 44.0335
1.596, 2, 35.9151, 48.1278, -14.08, 97.4483, -51.5278, 44.0335
1.6, 2, 35.9151, 48.1278, -14.08, 97.4483, -51.5278, 44.0335
1.604, 2, 35.9151, 48.1278, -14.08, 97.4483, -51.5278, 44.0335
1.608, 2, 35.9151, 48.1278, -14.08, 97.4483, -51.5278, 44.0335
1.612, 2, 35.9151, 48.1278, -14.08, 97.4483, -51.5278, 44.0335
1.616, 2, 35.9151, 48.1278, -14.08, 97.4483, -51.5278, 44.0335
1.62, 2, 35.9151, 48.1278, -14.08, 97.4483, -51.5278, 44.0335
1.624, 2, 35.9151, 48.1278, -14.08, 97.4483, -51.5278, 44.0335
1.628, 2, 35.9151, 48.1278, -14.08, 97.4483, -51.5278, 44.0335
1.632, 2, 35.9151, 48.1278, -14.08, 97.4483, -51.5278, 44.0335
1.636, 2, 35.9151, 48.1278, -14.08, 97.4483, -51.5278, 44.0335
1.64, 2, 35.9151, 48.1278, -14.08, 97.4483, -51.5278, 44.0335
1.644, 2, 35.9151, 48.1278, -14.08, 97.4483, -51.5278, 44.0335
1.648, 2, 35.9151, 48.1278, -14.08, 97.4483, -51.5278, 44.0335
1.652, 2, 35.9151, 48.1278, -14.08, 97.4483, -51.5278, 44.0335
1.656, 2, 35.9151, 48.1278, -14.08, 97.4483, -51.5278, 44.0335
1.66, 2, 35.9151, 48.1278, -14.08, 97.4483, -51.5278, 44.0335
1.664, 2, 35.9151, 48.1278, -14.08, 97.4483, -51.5278, 44.0335
1.668, 2, 35.9151, 48.1278, -14.08, 97.4483, -51.5278, 44.0335
1.672, 2, 35.9151, 48.1278, -14.08, 97.4483, -51.5278, 44.0335
1.676, 2, 35.9151, 48.1278, -14.08, 97.4483, -51.5278, 44.0335
1.68, 2, 35.9151, 48.1278, -14.08, 97.4483, -51.5278, 44.0335
1.684, 2, 35.9151, 48.1278, -14.08, 97.4483, -51.5278, 44.0335
1.688, 2, 35.9151, 48.1278, -14.08, 97.4483, -51.5278, 44.0335
1.692, 2, 35.9151, 48.1278, -14.08, 97.4483, -51.5278, 44.0335
1.696, 2, 35.9151, 48.1278, -14.08, 97.4483, -51.5278, 44.0335
1.7, 2, 35.9151, 48.1278, -14.08, 97.4483, -51.5278, 44.0335
1.704, 2, 35.9151, 48.1278, -14.08, 97.4483, -51.5278, 44.0335
1.708, 2, 35.9151, 48.1278, -14.08, 97.4483, -51.5278, 44.0335
1.712, 2, 35.9151, 48.1278, -14.08, 97.4483, -51.5278, 44.0335
1.716, 2, 35.9151, 48.1278, -14.08, 97.4483, -51.5278, 44.0335
1.72, 2, 35.9151, 48.1278, -14.08, 97.4483, -51.5278, 44.0335
1.724, 2, 35.9151, 48.1278, -14.08, 97.4483, -51.5278, 44.0335
1.728, 2, 35.9151, 48.1278, -14.08, 97.4483, -51.5278, 44.0335
1.732, 2, 35.9151, 48.1278, -14.08, 97.4483, -51.5278, 44.0335
1.736, 2, 35.9151, 48.1278, -14.08, 97.4483, -51.5278, 44.0335
1.74, 2, 35.9151, 48.1278, -14.08, 97.4483, -51.5278, 44.0335
1.744, 2, 35.9151, 48.1278, -14.08, 97.4483, -51.5278, 44.0335
1.748, 2, 35.9151, 48.1278, -14.08, 97.4483, -51.5278, 44.0335
1.752, 2, 35.9151, 48.1278, -14.08, 97.4483, -51.5278, 44.0335
1.756, 2, 35.9151, 48.1278, -14.08, 97.4483, -51.5278, 44.0335
1.76, 2, 35.9151, 48.1278, -14.08, 97.4483, -51.5278, 44.0335
1.764, 2, 35.9151, 48.1278, -14.08, 97.4483, -51.5278, 44.0335
1.768, 2, 35.9151, 48.1278, -14.08, 97.4483, -51.5278, 44.0335
1.772, 2, 35.9151, 48.1278, -14.08, 97.4483, -51.5278, 44.0335
1.776, 2, 35.9151, 48.1278, -14.08, 97.4483, -51.5278, 44.0335
1.78, 2, 35.9151, 48.1278, -14.08, 97.4483, -51.5278, 44.0335
1.784, 2, 35.9151, 48.1278, -14.08, 97.4483, -51.5278, 44.0335
1.788, 2, 35.9151, 48.1278, -14.08, 97.4483, -51.5278, 44.0335
1.792, 2, 35.9151, 48.1278, -14.08, 97.4483, -51.5278, 44.0335
1.796, 2, 35.9151, 48.1278, -14.08, 97.4483, -51.5278, 44.0335
1.8, 2, 35.9151, 48.1278, -14.08, 97.4483, -51.5278, 44.0335
1.804, 2, 35.9151, 48.1278, -14.08, 97.4483, -51.5278, 44.0335
1.808, 2, 35.9151, 48.1278, -14.08, 97.4483, -51.5278, 44.0335
1.812, 2, 35.9151, 48.1278, -14.08, 97.4483, -51.5278, 44.0335
1.816, 2, 35.9151, 48.1278, -14.08, 97.4483, -51.5278, 44.0335
1.82, 2, 35.9151, 48.1278, -14.08, 97.4483, -51.5278, 44.0335
1.824, 2, 35.9151, 48.1278, -14.08, 97.4483, -51.5278, 44.0335
1.828, 2, 35.9151, 48.1278, -14.08, 97.4483, -51.5278, 44.0335
1.832, 2, 35.9151, 48.1278, -14.08, 97.4483, -51.5278, 44.0335
1.836, 2, 35.9151, 48.1278, -14.08, 97.4483, -51.5278, 44.0335
1.84, 2, 35.9151, 48.1278, -14.08, 97.4483, -51.5278, 44.0335
1.844, 2, 35.9151, 48.1278, -14.08, 97.4483, -51.5278, 44.0335
1.848, 2, 35.9151, 48.1278, -14.08, 97.4483, -51.5278, 44.0335
1.852, 2, 35.9151, 48.1278, -14.08, 97.4483, -51.5278, 44.0335
1.856, 2, 35.9151, 48.1278, -14.08, 97.4483, -51.5278, 44.0335
1.86, 2, 35.9151, 48.1278, -14.08, 97.4483, -51.5278, 44.0335
1.864, 2, 35.9151, 48.1278, -14.08, 97.4483, -51.5278, 44.0335
1.868, 2, 35.9151, 48.1278, -14.08, 97.4483, -51.5278, 44.0335
1.872, 2, 35.9151, 48.1278, -14.08, 97.4483, -51.5278, 44.0335
1.876, 2, 35.9151, 48.1278, -14.08, 97.4483, -51.5278, 44.0335
1.88, 2, 35.9151, 48.1278, -14.08, 97.4483, -51.5278, 44.0335
1.884, 2, 35.9151, 48.1278, -14.08, 97.4483, -51.5278, 44.0335
1.888, 2, 35.9151, 48.1278, -14.08, 97.4483, -51.5278, 44.0335
1.892, 2, 35.9151, 48.1278, -14.08, 97.4483, -51.5278, 44.0335
1.896, 2, 35.9151, 48.1278, -14.08, 97.4483, -51.5278, 44.0335
1.9, 2, 35.9151, 48.1278, -14.08, 97.4483, -51.5278, 44.0335
1.904, 2, 35.9151, 48.1278, -14.08, 97.4483, -51.5278, 44.0335
1.908, 2, 35.9151, 48.1278, -14.08, 97.4483, -51.5278, 44.0335
1.912, 2, 35.9151, 48.1278, -14.08, 97.4483, -51.5278, 44.0335
1.916, 2, 35.9151, 48.1278, -14.08, 97.4483, -51.5278, 44.0335
1.92, 2, 35.9151, 48.1278, -14.08, 97.4483, -51.5278, 44.0335
1.924, 2, 35.9151, 48.1278, -14.08, 97.4483, -51.5278, 44.0335
1.928, 2, 35.9151, 48.1278, -14.08, 97.4483, -51.5278, 44.0335
1.932, 2, 35.9151, 48.1278, -14.08, 97.4483, -51.5278, 44.0335
1.936, 2, 35.9151, 48.1278, -14.08, 97.4483, -51.5278, 44.0335
1.94, 2, 35.9151, 48.1278, -14.08, 97.4483, -51.5278, 44.0335
1.944, 2, 35.9151, 48.1278, -14.08, 97.4483, -51.5278, 44.0335
1.948, 2, 35.9151, 48.1278, -14.08, 97.4483, -51.5278, 44.0335
1.952, 2, 35.9151, 48.1278, -14.08, 97.4483, -51.5278, 44.0335
1.956, 2, 35.9151, 48.1278, -14.08, 97.4483, -51.5278, 44.0335
1.96, 2, 35.9151, 48.1278, -14.08, 97.4483, -51.5278, 44.0335
1.964, 2, 35.9151, 48.1278, -14.08, 97.4483, -51.5278, 44.0335
1.968, 2, 35.9151, 48.1278, -14.08, 97.4483, -51.5278, 44.0335
1.972, 2, 35.9151, 48.1278, -14.08, 97.4483, -51.5278, 44.0335
1.976, 2, 35.9151, 48.1278, -14.08, 97.4483, -51.5278, 44.0335
1.98, 2, 35.9151, 48.1278, -14.08, 97.4483, -51.5278, 44.0335
1.984, 2, 35.9151, 48.1278, -14.08, 97.4483, -51.5278, 44.0335
1.988, 2, 35.9151, 48.1278, -14.08, 97.4483, -51.5278, 44.0335
1.992, 2, 35.9151, 48.1278, -14.08, 97.4483, -51.5278, 44.0335
1.996, 2, 35.9151, 48.1278, -14.08, 97.4483, -51.5278, 44.0335
1.999, 2, 35.9151, 48.1278, -14.08, 97.4483, -51.5278, 44.0335
2.004, 2, 35.9151, 48.1278, -14.08, 97.4483, -51.5278, 44.0335
2.008, 2, 35.9151, 48.1278, -14.08, 97.4483, -51.5278, 44.0335
2.012, 2, 35.9151, 48.1278, -14.08, 97.4483, -51.5278, 44.0335
2.015, 2, 35.9151, 48.1278, -14.08, 97.4483, -51.5278, 44.0335
2.019, 2, 35.9151, 48.1278, -14.08, 97.4483, -51.5278, 44.0335
2.024, 2, 35.9151, 48.1278, -14.08, 97.4483, -51.5278, 44.0335
2.028, 2, 35.9151, 48.1278, -14.08, 97.4483, -51.5278, 44.0335
2.031, 4, 35.9151, 48.1278, -14.08, 97.4483, -51.5278, 44.0335
2.036, 4, 35.9151, 48.1278, -14.08, 97.4483, -51.5278, 44.0335
2.04, 4, 35.9151, 48.1278, -14.08, 97.4483, -51.5278, 44.0335
2.044, 4, 35.9151, 48.1278, -14.08, 97.4483, -51.5278, 44.0335
2.048, 4, 35.9151, 48.1278, -14.08, 97.4483, -51.5278, 44.0335
2.051, 4, 35.9151, 48.1278, -14.08, 97.4483, -51.5278, 44.0335
2.055, 4, 35.9151, 48.1278, -14.08, 97.4483, -51.5278, 44.0335
2.06, 4, 35.9151, 48.1278, -14.08, 97.4483, -51.5278, 44.0335
2.064, 4, 35.9151, 48.1278, -14.08, 97.4483, -51.5278, 44.0335
2.068, 4, 35.9151, 48.1278, -14.08, 97.4483, -51.5278, 44.0335
2.071, 4, 35.9151, 48.1278, -14.08, 97.4483, -51.5278, 44.0335
2.076, 4, 35.9151, 48.1278, -14.08, 97.4483, -51.5278, 44.0335
2.08, 4, 35.9151, 48.1278, -14.08, 97.4483, -51.5278, 44.0335
2.084, 4, 35.9151, 48.1278, -14.08, 97.4483, -51.5278, 44.0335
2.087, 4, 35.9151, 48.1278, -14.08, 97.4483, -51.5278, 44.0335
2.092, 4, 35.9151, 48.1278, -14.08, 97.4483, -51.5278, 44.0335
2.096, 4, 35.9151, 48.1278, -14.08, 97.4483, -51.5278, 44.0335
2.1, 4, 35.9151, 48.1278, -14.08, 97.4483, -51.5278, 44.0335
2.104, 4, 35.9151, 48.1278, -14.08, 97.4483, -51.5278, 44.0335
2.107, 4, 35.9151, 48.1278, -14.08, 97.4483, -51.5278, 44.0335
2.111, 4, 35.9151, 48.1278, -14.08, 97.4483, -51.5278, 44.0335
2.116, 4, 35.9151, 48.1278, -14.08, 97.4483, -51.5278, 44.0335
2.12, 4, 35.9151, 48.1278, -14.08, 97.4483, -51.5278, 44.0335
2.124, 4, 35.9151, 48.1278, -14.08, 97.4483, -51.5278, 44.0335
2.127, 4, 35.9151, 48.1278, -14.08, 97.4483, -51.5278, 44.0335
2.132, 4, 35.9151, 48.1278, -14.08, 97.4483, -51.5278, 44.0335
2.138, 4, 35.9151, 48.1278, -14.08, 97.4483, -51.5278, 44.0335
2.14, 4, 35.9151, 48.1278, -14.08, 97.4483, -51.5278, 44.0335
2.143, 4, 35.9151, 48.1278, -14.08, 97.4483, -51.5278, 44.0335
2.148, 4, 35.9151, 48.1278, -14.08, 97.4483, -51.5278, 44.0335
2.152, 4, 35.9151, 48.1278, -14.08, 97.4483, -51.5278, 44.0335
2.156, 4, 35.9151, 48.1278, -14.08, 97.4483, -51.5278, 44.0335
2.16, 4, 35.9151, 48.1278, -14.08, 97.4483, -51.5278, 44.0335
2.163, 4, 35.9151, 48.1278, -14.08, 97.4483, -51.5278, 44.0335
2.168, 4, 35.9151, 48.1278, -14.08, 97.4483, -51.5278, 44.0335
2.172, 4, 35.915, 48.128, -14.08, 97.4483, -51.5279, 44.0335
2.176, 4, 35.9148, 48.1283, -14.08, 97.4483, -51.5279, 44.0335
2.179, 4, 35.9144, 48.1291, -14.08, 97.4483, -51.5281, 44.0334
2.184, 4, 35.9137, 48.1303, -14.08, 97.4482, -51.5284, 44.0333
2.188, 4, 35.9128, 48.1322, -14.0799, 97.4481, -51.5292, 44.033
2.192, 4, 35.9115, 48.1347, -14.0798, 97.4478, -51.5306, 44.0325
2.196, 4, 35.91, 48.1379, -14.0797, 97.4474, -51.533, 44.0316
2.199, 4, 35.9083, 48.1418, -14.0795, 97.4468, -51.5368, 44.0301
2.204, 5, 35.9064, 48.1464, -14.0792, 97.4459, -51.5426, 44.0279
2.208, 5, 35.9045, 48.1517, -14.0787, 97.4445, -51.5508, 44.0248
2.212, 5, 35.9024, 48.1578, -14.0782, 97.4426, -51.562, 44.0205
2.216, 5, 35.9003, 48.1647, -14.0774, 97.4401, -51.5768, 44.0149
2.219, 5, 35.8981, 48.1724, -14.0764, 97.4369, -51.5956, 44.0077
2.224, 5, 35.8959, 48.1809, -14.0752, 97.4329, -51.619, 43.9988
2.228, 5, 35.8936, 48.19, -14.0737, 97.4281, -51.6473, 43.988
2.232, 5, 35.8914, 48.1997, -14.072, 97.4223, -51.6809, 43.9752
2.235, 5, 35.8892, 48.21, -14.07, 97.4156, -51.7199, 43.9604
2.24, 5, 35.8871, 48.2208, -14.0676, 97.4079, -51.7644, 43.9435
2.244, 5, 35.8851, 48.2322, -14.065, 97.3993, -51.8142, 43.9246
2.248, 5, 35.883, 48.2443, -14.0621, 97.3897, -51.8689, 43.9038
2.252, 5, 35.8809, 48.2572, -14.0589, 97.3794, -51.9284, 43.8812
2.255, 5, 35.8786, 48.2709, -14.0554, 97.3682, -51.992, 43.8571
2.259, 5, 35.8763, 48.2854, -14.0517, 97.3563, -52.0593, 43.8316
2.264, 5, 35.8738, 48.3007, -14.0478, 97.3439, -52.1299, 43.8049
2.268, 5, 35.8711, 48.3168, -14.0436, 97.3309, -52.203, 43.7773
2.272, 5, 35.8683, 48.3336, -14.0393, 97.3174, -52.2784, 43.7488
2.275, 5, 35.8653, 48.351, -14.0348, 97.3036, -52.3554, 43.7198
2.28, 5, 35.8621, 48.3691, -14.0301, 97.2895, -52.4338, 43.6903
2.286, 5, 35.8548, 48.4071, -14.0204, 97.2605, -52.5931, 43.6304
2.288, 5, 35.8548, 48.4071, -14.0204, 97.2605, -52.5931, 43.6304
2.291, 5, 35.8508, 48.4268, -14.0154, 97.2457, -52.6735, 43.6002
2.296, 5, 35.8467, 48.4469, -14.0103, 97.2308, -52.7543, 43.5699
2.3, 5, 35.8423, 48.4671, -14.0051, 97.2158, -52.8353, 43.5396
2.304, 5, 35.8379, 48.4876, -13.9998, 97.2007, -52.9164, 43.5093
2.308, 5, 35.8334, 48.5081, -13.9944, 97.1854, -52.9975, 43.479
2.311, 5, 35.8288, 48.5286, -13.9889, 97.1701, -53.0788, 43.4487
2.316, 5, 35.8241, 48.5492, -13.9833, 97.1547, -53.16, 43.4184
2.32, 5, 35.8194, 48.5697, -13.9776, 97.1392, -53.2412, 43.3882
2.324, 5, 35.8147, 48.5902, -13.9719, 97.1236, -53.3224, 43.3581
2.328, 5, 35.8099, 48.6107, -13.966, 97.1079, -53.4036, 43.3279
2.331, 5, 35.8051, 48.6312, -13.9601, 97.0922, -53.4848, 43.2979
2.336, 5, 35.8003, 48.6516, -13.9541, 97.0764, -53.566, 43.2678
2.34, 5, 35.7955, 48.672, -13.948, 97.0604, -53.6471, 43.2379
2.344, 5, 35.7906, 48.6923, -13.9418, 97.0444, -53.7282, 43.2079
2.347, 5, 35.7856, 48.7126, -13.9355, 97.0283, -53.8093, 43.178
2.352, 5, 35.7807, 48.7328, -13.9291, 97.0122, -53.8903, 43.1482
2.356, 5, 35.7757, 48.753, -13.9227, 96.9959, -53.9713, 43.1184
2.36, 5, 35.7707, 48.7732, -13.9162, 96.9796, -54.0523, 43.0887
2.364, 5, 35.7657, 48.7933, -13.9095, 96.9632, -54.1332, 43.059
2.367, 5, 35.7606, 48.8133, -13.9028, 96.9467, -54.2141, 43.0293
2.372, 5, 35.7555, 48.8333, -13.896, 96.9301, -54.295, 42.9997
2.376, 5, 35.7504, 48.8532, -13.8891, 96.9135, -54.3759, 42.9702
2.38, 5, 35.7453, 48.8731, -13.8822, 96.8968, -54.4567, 42.9407
2.383, 5, 35.7401, 48.893, -13.8751, 96.88, -54.5375, 42.9112
2.388, 5, 35.7349, 48.9128, -13.868, 96.8631, -54.6183, 42.8818
2.392, 5, 35.7297, 48.9326, -13.8607, 96.8461, -54.699, 42.8524
2.396, 5, 35.7244, 48.9523, -13.8534, 96.8291, -54.7797, 42.8231
2.4, 5, 35.7191, 48.9719, -13.846, 96.812, -54.8603, 42.7938
2.403, 5, 35.7138, 48.9915, -13.8385, 96.7948, -54.941, 42.7646
2.408, 5, 35.7085, 49.0111, -13.8309, 96.7776, -55.0216, 42.7354
2.412, 5, 35.7031, 49.0306, -13.8233, 96.7602, -55.1021, 42.7062
2.416, 5, 35.6977, 49.05, -13.8155, 96.7428, -55.1827, 42.6771
2.42, 5, 35.6923, 49.0694, -13.8076, 96.7253, -55.2632, 42.6481
2.423, 5, 35.6868, 49.0888, -13.7997, 96.7078, -55.3437, 42.619
2.428, 5, 35.6813, 49.1081, -13.7917, 96.6901, -55.4241, 42.59
2.432, 5, 35.6758, 49.1273, -13.7836, 96.6724, -55.5045, 42.5611
2.436, 5, 35.6703, 49.1465, -13.7754, 96.6546, -55.5849, 42.5322
2.439, 5, 35.6647, 49.1657, -13.7671, 96.6368, -55.6653, 42.5033
2.444, 5, 35.6591, 49.1848, -13.7587, 96.6188, -55.7456, 42.4745
2.448, 5, 35.6535, 49.2038, -13.7503, 96.6008, -55.8259, 42.4457
2.452, 5, 35.6479, 49.2228, -13.7417, 96.5828, -55.9061, 42.417
2.456, 5, 35.6422, 49.2418, -13.7331, 96.5646, -55.9864, 42.3883
2.459, 5, 35.6365, 49.2607, -13.7243, 96.5464, -56.0666, 42.3596
2.464, 5, 35.6308, 49.2795, -13.7155, 96.5281, -56.1467, 42.331
2.468, 5, 35.625, 49.2983, -13.7066, 96.5097, -56.2269, 42.3024
2.472, 5, 35.6192, 49.317, -13.6976, 96.4913, -56.307, 42.2739
2.476, 5, 35.6134, 49.3357, -13.6886, 96.4728, -56.3871, 42.2454
2.479, 5, 35.6076, 49.3544, -13.6794, 96.4542, -56.4671, 42.2169
2.484, 5, 35.6017, 49.373, -13.6701, 96.4356, -56.5471, 42.1885
2.488, 5, 35.5958, 49.3915, -13.6608, 96.4168, -56.6271, 42.1601
2.492, 5, 35.5899, 49.41, -13.6514, 96.3981, -56.7071, 42.1318
2.495, 5, 35.5839, 49.4284, -13.6419, 96.3792, -56.787, 42.1035
2.5, 5, 35.5779, 49.4468, -13.6323, 96.3603, -56.8669, 42.0752
2.504, 5, 35.5719, 49.4652, -13.6226, 96.3413, -56.9468, 42.0469
2.508, 5, 35.5659, 49.4835, -13.6128, 96.3222, -57.0266, 42.0187
2.512, 5, 35.5598, 49.5017, -13.603, 96.3031, -57.1064, 41.9906
2.515, 5, 35.5538, 49.5199, -13.593, 96.2839, -57.1862, 41.9624
2.52, 5, 35.5476, 49.538, -13.583, 96.2646, -57.2659, 41.9343
2.524, 5, 35.5415, 49.5561, -13.5728, 96.2452, -57.3457, 41.9063
2.528, 5, 35.5353, 49.5741, -13.5626, 96.2258, -57.4253, 41.8782
2.531, 5, 35.5291, 49.5921, -13.5523, 96.2063, -57.505, 41.8503
2.536, 5, 35.5229, 49.61, -13.542, 96.1868, -57.5846, 41.8223
2.54, 5, 35.5167, 49.6279, -13.5315, 96.1672, -57.6642, 41.7944
2.544, 5, 35.5104, 49.6457, -13.5209, 96.1475, -57.7438, 41.7665
2.548, 5, 35.5041, 49.6635, -13.5103, 96.1277, -57.8233, 41.7386
2.551, 5, 35.4977, 49.6812, -13.4995, 96.1079, -57.9028, 41.7108
2.556, 5, 35.4914, 49.6988, -13.4887, 96.088, -57.9823, 41.683
2.56, 5, 35.485, 49.7165, -13.4778, 96.0681, -58.0618, 41.6553
2.564, 5, 35.4786, 49.734, -13.4668, 96.0481, -58.1412, 41.6275
2.568, 5, 35.4721, 49.7515, -13.4557, 96.028, -58.2206, 41.5998
2.571, 5, 35.4657, 49.769, -13.4446, 96.0079, -58.3, 41.5722
2.576, 5, 35.4592, 49.7864, -13.4333, 95.9876, -58.3793, 41.5446
2.58, 5, 35.4526, 49.8037, -13.422, 95.9674, -58.4586, 41.517
2.584, 5, 35.4461, 49.821, -13.4105, 95.947, -58.5379, 41.4894
2.587, 5, 35.4395, 49.8383, -13.399, 95.9266, -58.6171, 41.4619
2.592, 5, 35.4329, 49.8555, -13.3874, 95.9062, -58.6963, 41.4344
2.596, 5, 35.4263, 49.8726, -13.3757, 95.8856, -58.7755, 41.4069
2.6, 5, 35.4196, 49.8897, -13.3639, 95.865, -58.8547, 41.3794
2.604, 5, 35.4129, 49.9067, -13.3521, 95.8444, -58.9338, 41.352
2.607, 5, 35.4062, 49.9237, -13.3401, 95.8236, -59.0129, 41.3247
2.612, 5, 35.3995, 49.9406, -13.3281, 95.8029, -59.092, 41.2973
2.616, 5, 35.3927, 49.9575, -13.3159, 95.782, -59.171, 41.27
2.62, 5, 35.3859, 49.9743, -13.3037, 95.7611, -59.25, 41.2427
2.624, 5, 35.3791, 49.9911, -13.2914, 95.7401, -59.329, 41.2154
2.627, 5, 35.3723, 50.0078, -13.279, 95.7191, -59.408, 41.1882
2.632, 5, 35.3654, 50.0245, -13.2665, 95.698, -59.4869, 41.161
2.636, 5, 35.3585, 50.0411, -13.254, 95.6768, -59.5658, 41.1338
2.64, 5, 35.3516, 50.0577, -13.2413, 95.6556, -59.6447, 41.1066
2.643, 5, 35.3446, 50.0742, -13.2286, 95.6343, -59.7235, 41.0795
2.648, 5, 35.3376, 50.0906, -13.2158, 95.613, -59.8023, 41.0524
2.652, 5, 35.3306, 50.107, -13.2028, 95.5916, -59.8811, 41.0254
2.656, 5, 35.3236, 50.1233, -13.1898, 95.5701, -59.9599, 40.9983
2.66, 5, 35.3165, 50.1396, -13.1768, 95.5486, -60.0386, 40.9713
2.663, 5, 35.3095, 50.1559, -13.1636, 95.527, -60.1173, 40.9443
2.668, 5, 35.3023, 50.172, -13.1503, 95.5053, -60.196, 40.9173
2.672, 5, 35.2952, 50.1882, -13.137, 95.4836, -60.2746, 40.8904
2.676, 5, 35.288, 50.2042, -13.1235, 95.4619, -60.3532, 40.8635
2.679, 5, 35.2808, 50.2203, -13.11, 95.44, -60.4318, 40.8366
2.684, 5, 35.2736, 50.2362, -13.0964, 95.4182, -60.5104, 40.8097
2.688, 5, 35.2664, 50.2521, -13.0827, 95.3962, -60.5889, 40.7829
2.692, 5, 35.2591, 50.268, -13.0689, 95.3742, -60.6674, 40.7561
2.696, 5, 35.2518, 50.2838, -13.055, 95.3521, -60.7459, 40.7293
2.699, 5, 35.2445, 50.2995, -13.0411, 95.33, -60.8243, 40.7025
2.704, 5, 35.2371, 50.3152, -13.027, 95.3078, -60.9027, 40.6758
2.708, 5, 35.2298, 50.3309, -13.0129, 95.2856, -60.9811, 40.6491
2.712, 5, 35.2224, 50.3464, -12.9986, 95.2633, -61.0595, 40.6224
2.716, 5, 35.2149, 50.362, -12.9843, 95.2409, -61.1378, 40.5957
2.719, 5, 35.2075, 50.3774, -12.9699, 95.2185, -61.2161, 40.5691
2.724, 5, 35.2, 50.3929, -12.9554, 95.1961, -61.2944, 40.5424
2.728, 5, 35.1925, 50.4082, -12.9409, 95.1735, -61.3726, 40.5158
2.732, 5, 35.1849, 50.4235, -12.9262, 95.1509, -61.4508, 40.4893
2.735, 5, 35.1774, 50.4388, -12.9114, 95.1283, -61.529, 40.4627
2.74, 5, 35.1698, 50.454, -12.8966, 95.1056, -61.6072, 40.4362
2.744, 5, 35.1622, 50.4691, -12.8817, 95.0829, -61.6853, 40.4097
2.748, 5, 35.1545, 50.4842, -12.8667, 95.0601, -61.7634, 40.3832
2.752, 5, 35.1468, 50.4992, -12.8515, 95.0372, -61.8415, 40.3567
2.755, 5, 35.1392, 50.5142, -12.8364, 95.0143, -61.9196, 40.3302
2.76, 5, 35.1314, 50.5291, -12.8211, 94.9913, -61.9976, 40.3038
2.764, 5, 35.1237, 50.544, -12.8057, 94.9683, -62.0756, 40.2774
2.768, 5, 35.1159, 50.5588, -12.7902, 94.9452, -62.1536, 40.251
2.772, 5, 35.1081, 50.5735, -12.7747, 94.9221, -62.2315, 40.2246
2.775, 5, 35.1003, 50.5882, -12.7591, 94.8988, -62.3094, 40.1983
2.78, 5, 35.0924, 50.6028, -12.7433, 94.8756, -62.3873, 40.172
2.784, 5, 35.0845, 50.6174, -12.7275, 94.8523, -62.4651, 40.1457
2.788, 5, 35.0766, 50.632, -12.7116, 94.8289, -62.543, 40.1194
2.791, 5, 35.0687, 50.6464, -12.6956, 94.8055, -62.6208, 40.0931
2.796, 5, 35.0607, 50.6608, -12.6796, 94.7821, -62.6985, 40.0668
2.8, 5, 35.0528, 50.6752, -12.6634, 94.7585, -62.7763, 40.0406
2.804, 5, 35.0447, 50.6895, -12.6471, 94.735, -62.854, 40.0144
2.808, 5, 35.0367, 50.7037, -12.6308, 94.7113, -62.9317, 39.9882
2.811, 5, 35.0286, 50.7179, -12.6144, 94.6877, -63.0094, 39.962
2.816, 5, 35.0205, 50.732, -12.5979, 94.6639, -63.087, 39.9358
2.82, 5, 35.0124, 50.7461, -12.5812, 94.6401, -63.1646, 39.9097
2.824, 5, 35.0043, 50.7601, -12.5645, 94.6163, -63.2422, 39.8836
2.828, 5, 34.9961, 50.7741, -12.5478, 94.5924, -63.3197, 39.8574
2.831, 5, 34.9879, 50.788, -12.5309, 94.5685, -63.3973, 39.8313
2.836, 5, 34.9797, 50.8018, -12.5139, 94.5445, -63.4748, 39.8053
2.84, 5, 34.9714, 50.8156, -12.4969, 94.5204, -63.5522, 39.7792
2.844, 5, 34.9632, 50.8293, -12.4797, 94.4963, -63.6297, 39.7531
2.847, 5, 34.9549, 50.843, -12.4625, 94.4722, -63.7071, 39.7271
2.852, 5, 34.9466, 50.8566, -12.4452, 94.448, -63.7845, 39.7011
2.856, 5, 34.9383, 50.8702, -12.4278, 94.4238, -63.8618, 39.6751
2.86, 5, 34.93, 50.8837, -12.4104, 94.3996, -63.9392, 39.6491
2.864, 5, 34.9216, 50.8972, -12.3929, 94.3753, -64.0165, 39.6231
2.867, 5, 34.9133, 50.9107, -12.3754, 94.351, -64.0939, 39.5971
2.872, 5, 34.9049, 50.9241, -12.3578, 94.3268, -64.1712, 39.5711
2.876, 5, 34.8965, 50.9375, -12.3402, 94.3026, -64.2486, 39.545
2.88, 5, 34.8882, 50.9509, -12.3226, 94.2784, -64.326, 39.519
2.883, 5, 34.8798, 50.9643, -12.305, 94.2543, -64.4034, 39.4929
2.888, 5, 34.8714, 50.9777, -12.2874, 94.2303, -64.4808, 39.4669
2.892, 5, 34.8629, 50.991, -12.2699, 94.2065, -64.5583, 39.4407
2.896, 5, 34.8545, 51.0044, -12.2524, 94.1828, -64.6359, 39.4146
2.9, 6, 34.846, 51.0177, -12.235, 94.1592, -64.7136, 39.3883
2.903, 6, 34.8375, 51.0311, -12.2178, 94.1359, -64.7913, 39.3621
2.908, 6, 34.829, 51.0445, -12.2006, 94.1127, -64.8691, 39.3357
2.912, 6, 34.8205, 51.058, -12.1836, 94.0898, -64.9471, 39.3093
2.916, 6, 34.8119, 51.0714, -12.1666, 94.0671, -65.0251, 39.2829
2.92, 6, 34.8034, 51.0849, -12.1499, 94.0447, -65.1033, 39.2564
2.923, 6, 34.7948, 51.0984, -12.1332, 94.0225, -65.1816, 39.2298
2.928, 6, 34.7862, 51.112, -12.1167, 94.0005, -65.26, 39.2031
2.932, 6, 34.7775, 51.1255, -12.1004, 93.9788, -65.3385, 39.1764
2.936, 6, 34.7689, 51.1392, -12.0842, 93.9574, -65.4171, 39.1496
2.939, 6, 34.7602, 51.1528, -12.0682, 93.9362, -65.4959, 39.1227
2.944, 6, 34.7515, 51.1665, -12.0523, 93.9152, -65.5747, 39.0958
2.948, 6, 34.7428, 51.1802, -12.0365, 93.8944, -65.6537, 39.0689
2.952, 6, 34.7341, 51.194, -12.0209, 93.8739, -65.7328, 39.0418
2.956, 6, 34.7254, 51.2077, -12.0054, 93.8536, -65.812, 39.0148
2.959, 6, 34.7166, 51.2215, -11.9899, 93.8334, -65.8913, 38.9876
2.964, 6, 34.7078, 51.2353, -11.9746, 93.8134, -65.9706, 38.9605
2.968, 6, 34.699, 51.2491, -11.9593, 93.7935, -66.05, 38.9333
2.972, 6, 34.6902, 51.2629, -11.9441, 93.7737, -66.1295, 38.9061
2.976, 6, 34.6813, 51.2767, -11.9289, 93.7541, -66.209, 38.8789
2.98, 6, 34.6725, 51.2904, -11.9137, 93.7344, -66.2886, 38.8517
2.984, 6, 34.6636, 51.3042, -11.8985, 93.7149, -66.3682, 38.8245
2.988, 6, 34.6547, 51.3179, -11.8833, 93.6953, -66.4478, 38.7973
2.992, 6, 34.6459, 51.3317, -11.8681, 93.6757, -66.5274, 38.77
2.995, 6, 34.637, 51.3453, -11.8529, 93.6562, -66.607, 38.7429
3, 6, 34.6281, 51.359, -11.8375, 93.6366, -66.6866, 38.7157
3.004, 6, 34.6192, 51.3726, -11.8222, 93.6169, -66.7663, 38.6885
3.008, 6, 34.6102, 51.3862, -11.8067, 93.5972, -66.8458, 38.6614
3.012, 6, 34.6013, 51.3997, -11.7912, 93.5775, -66.9254, 38.6343
3.015, 6, 34.5923, 51.4131, -11.7756, 93.5577, -67.005, 38.6072
3.02, 6, 34.5833, 51.4266, -11.7599, 93.5379, -67.0845, 38.5801
3.024, 6, 34.5743, 51.4399, -11.7442, 93.518, -67.164, 38.5531
3.028, 6, 34.5653, 51.4532, -11.7283, 93.498, -67.2435, 38.526
3.031, 6, 34.5562, 51.4665, -11.7124, 93.478, -67.323, 38.499
3.036, 6, 34.5472, 51.4797, -11.6964, 93.4579, -67.4024, 38.4721
3.04, 6, 34.5381, 51.4929, -11.6803, 93.4377, -67.4819, 38.4451
3.044, 6, 34.5289, 51.506, -11.6641, 93.4175, -67.5613, 38.4182
3.048, 6, 34.5198, 51.519, -11.6479, 93.3972, -67.6407, 38.3913
3.051, 6, 34.5106, 51.532, -11.6315, 93.3769, -67.72, 38.3645
3.056, 6, 34.5014, 51.5449, -11.6151, 93.3565, -67.7994, 38.3376
3.06, 6, 34.4921, 51.5578, -11.5986, 93.336, -67.8787, 38.3108
3.064, 6, 34.4829, 51.5707, -11.582, 93.3155, -67.958, 38.284
3.068, 6, 34.4736, 51.5834, -11.5653, 93.2949, -68.0373, 38.2572
3.071, 6, 34.4643, 51.5961, -11.5486, 93.2742, -68.1166, 38.2305
3.076, 6, 34.455, 51.6088, -11.5317, 93.2535, -68.1958, 38.2038
3.08, 6, 34.4456, 51.6214, -11.5148, 93.2328, -68.275, 38.177
3.084, 6, 34.4362, 51.634, -11.4978, 93.2119, -68.3542, 38.1504
3.087, 6, 34.4268, 51.6465, -11.4807, 93.191, -68.4334, 38.1237
3.092, 6, 34.4174, 51.6589, -11.4635, 93.1701, -68.5126, 38.0971
3.096, 6, 34.4079, 51.6713, -11.4462, 93.1491, -68.5917, 38.0704
3.1, 6, 34.3984, 51.6836, -11.4289, 93.128, -68.6708, 38.0439
3.104, 6, 34.3889, 51.6959, -11.4115, 93.1069, -68.7499, 38.0173
3.107, 6, 34.3794, 51.7081, -11.394, 93.0857, -68.829, 37.9907
3.112, 6, 34.3698, 51.7203, -11.3764, 93.0644, -68.908, 37.9642
3.116, 6, 34.3602, 51.7324, -11.3587, 93.0431, -68.9871, 37.9377
3.12, 6, 34.3506, 51.7445, -11.3409, 93.0217, -69.0661, 37.9112
3.124, 6, 34.341, 51.7565, -11.3231, 93.0003, -69.1451, 37.8847
3.128, 6, 34.3313, 51.7684, -11.3051, 92.9788, -69.224, 37.8583
3.132, 6, 34.3216, 51.7803, -11.2871, 92.9572, -69.303, 37.8319
3.136, 6, 34.3119, 51.7921, -11.269, 92.9356, -69.3819, 37.8055
3.14, 6, 34.3021, 51.8039, -11.2508, 92.914, -69.4608, 37.7791
3.143, 6, 34.2924, 51.8156, -11.2326, 92.8922, -69.5397, 37.7527
3.148, 6, 34.2826, 51.8273, -11.2142, 92.8704, -69.6186, 37.7263
3.152, 6, 34.2728, 51.8389, -11.1958, 92.8486, -69.6974, 37.7
3.156, 6, 34.2629, 51.8505, -11.1773, 92.8267, -69.7762, 37.6737
3.16, 6, 34.2531, 51.862, -11.1587, 92.8047, -69.855, 37.6474
3.163, 6, 34.2432, 51.8734, -11.14, 92.7827, -69.9338, 37.6211
3.168, 6, 34.2333, 51.8848, -11.1212, 92.7606, -70.0126, 37.5949
3.172, 6, 34.2233, 51.8962, -11.1024, 92.7385, -70.0913, 37.5686
3.176, 6, 34.2134, 51.9074, -11.0834, 92.7163, -70.17, 37.5424
3.179, 6, 34.2034, 51.9187, -11.0644, 92.694, -70.2487, 37.5162
3.184, 6, 34.1934, 51.9298, -11.0453, 92.6717, -70.3274, 37.49
3.188, 6, 34.1833, 51.9409, -11.0261, 92.6494, -70.4061, 37.4638
3.192, 6, 34.1732, 51.952, -11.0069, 92.627, -70.4847, 37.4377
3.196, 6, 34.1632, 51.963, -10.9875, 92.6045, -70.5633, 37.4115
3.199, 6, 34.153, 51.9739, -10.9681, 92.5819, -70.6419, 37.3854
3.204, 6, 34.1429, 51.9848, -10.9486, 92.5593, -70.7205, 37.3593
3.208, 6, 34.1327, 51.9957, -10.929, 92.5367, -70.7991, 37.3332
3.212, 6, 34.1225, 52.0064, -10.9093, 92.514, -70.8776, 37.3071
3.216, 6, 34.1123, 52.0171, -10.8896, 92.4912, -70.9561, 37.2811
3.22, 6, 34.1021, 52.0278, -10.8697, 92.4684, -71.0346, 37.255
3.224, 6, 34.0918, 52.0384, -10.8498, 92.4455, -71.1131, 37.229
3.228, 6, 34.0815, 52.049, -10.8298, 92.4226, -71.1915, 37.203
3.232, 6, 34.0712, 52.0594, -10.8097, 92.3996, -71.27, 37.177
3.235, 6, 34.0609, 52.0699, -10.7895, 92.3766, -71.3484, 37.151
3.24, 6, 34.0505, 52.0803, -10.7693, 92.3535, -71.4268, 37.125
3.244, 6, 34.0401, 52.0906, -10.7489, 92.3303, -71.5052, 37.0991
3.248, 6, 34.0297, 52.1008, -10.7285, 92.3071, -71.5835, 37.0731
3.252, 6, 34.0193, 52.111, -10.708, 92.2839, -71.6618, 37.0472
3.255, 6, 34.0088, 52.1212, -10.6874, 92.2605, -71.7402, 37.0212
3.26, 6, 33.9983, 52.1313, -10.6667, 92.2372, -71.8185, 36.9953
3.264, 6, 33.9878, 52.1413, -10.646, 92.2137, -71.8967, 36.9694
3.268, 6, 33.9773, 52.1513, -10.6252, 92.1903, -71.975, 36.9436
3.272, 6, 33.9667, 52.1612, -10.6042, 92.1667, -72.0532, 36.9177
3.276, 6, 33.9561, 52.1711, -10.5833, 92.1431, -72.1314, 36.8918
3.28, 6, 33.9455, 52.1809, -10.5622, 92.1195, -72.2096, 36.866
3.284, 6, 33.9349, 52.1906, -10.541, 92.0958, -72.2878, 36.8401
3.288, 6, 33.9242, 52.2003, -10.5198, 92.0721, -72.366, 36.8143
3.291, 6, 33.9136, 52.21, -10.4984, 92.0482, -72.4441, 36.7885
3.296, 6, 33.9028, 52.2196, -10.477, 92.0244, -72.5222, 36.7627
3.3, 6, 33.8921, 52.2291, -10.4555, 92.0005, -72.6003, 36.7369
3.304, 6, 33.8814, 52.2385, -10.434, 91.9765, -72.6784, 36.7111
3.308, 6, 33.8706, 52.2479, -10.4123, 91.9525, -72.7565, 36.6854
3.312, 6, 33.8598, 52.2573, -10.3906, 91.9284, -72.8345, 36.6596
3.316, 6, 33.8489, 52.2666, -10.3688, 91.9043, -72.9125, 36.6338
3.32, 6, 33.8381, 52.2758, -10.3469, 91.8801, -72.9905, 36.6081
3.324, 6, 33.8272, 52.285, -10.3249, 91.8559, -73.0685, 36.5824
3.328, 6, 33.8163, 52.2941, -10.3028, 91.8316, -73.1464, 36.5566
3.332, 6, 33.8054, 52.3031, -10.2807, 91.8073, -73.2244, 36.5309
3.336, 6, 33.7944, 52.3121, -10.2584, 91.7829, -73.3023, 36.5052
3.34, 6, 33.7834, 52.3211, -10.2361, 91.7585, -73.3802, 36.4795
3.344, 6, 33.7724, 52.33, -10.2137, 91.734, -73.4581, 36.4538
3.347, 6, 33.7614, 52.3388, -10.1912, 91.7094, -73.5359, 36.4282
3.352, 6, 33.7503, 52.3475, -10.1687, 91.6849, -73.6138, 36.4025
3.356, 6, 33.7393, 52.3562, -10.146, 91.6602, -73.6916, 36.3768
3.36, 6, 33.7282, 52.3649, -10.1233, 91.6355, -73.7694, 36.3512
3.364, 6, 33.717, 52.3735, -10.1005, 91.6108, -73.8472, 36.3255
3.368, 6, 33.7059, 52.382, -10.0776, 91.586, -73.925, 36.2999
3.372, 6, 33.6947, 52.3905, -10.0547, 91.5611, -74.0027, 36.2742
3.376, 6, 33.6835, 52.3989, -10.0316, 91.5362, -74.0804, 36.2486
3.38, 6, 33.6723, 52.4072, -10.0085, 91.5113, -74.1581, 36.223
3.383, 6, 33.661, 52.4155, -9.98525, 91.4863, -74.2358, 36.1973
3.388, 6, 33.6498, 52.4238, -9.96195, 91.4612, -74.3135, 36.1717
3.392, 6, 33.6385, 52.4319, -9.93857, 91.4361, -74.3911, 36.1461
3.396, 6, 33.6272, 52.4401, -9.91511, 91.411, -74.4688, 36.1205
3.4, 6, 33.6158, 52.4481, -9.89156, 91.3858, -74.5464, 36.0949
3.403, 6, 33.6044, 52.4561, -9.86793, 91.3605, -74.624, 36.0693
3.408, 6, 33.593, 52.464, -9.84422, 91.3352, -74.7016, 36.0437
3.412, 6, 33.5816, 52.4719, -9.82043, 91.3099, -74.7791, 36.0181
3.416, 6, 33.5702, 52.4797, -9.79656, 91.2845, -74.8566, 35.9926
3.42, 6, 33.5587, 52.4875, -9.7726, 91.259, -74.9342, 35.967
3.424, 6, 33.5472, 52.4952, -9.74856, 91.2335, -75.0117, 35.9414
3.428, 6, 33.5357, 52.5028, -9.72444, 91.2079, -75.0891, 35.9158
3.432, 6, 33.5242, 52.5104, -9.70024, 91.1824, -75.1666, 35.8903
3.436, 6, 33.5126, 52.5179, -9.67595, 91.1567, -75.244, 35.8647
3.439, 6, 33.501, 52.5254, -9.65159, 91.131, -75.3214, 35.8391
3.444, 6, 33.4894, 52.5328, -9.62714, 91.1052, -75.3988, 35.8136
3.448, 6, 33.4778, 52.5401, -9.60261, 91.0794, -75.4762, 35.788
3.452, 6, 33.4661, 52.5474, -9.578, 91.0536, -75.5536, 35.7625
3.456, 6, 33.4544, 52.5546, -9.55331, 91.0277, -75.6309, 35.7369
3.46, 6, 33.4427, 52.5618, -9.52853, 91.0018, -75.7083, 35.7114
3.464, 6, 33.431, 52.5689, -9.50368, 90.9757, -75.7856, 35.6858
3.468, 6, 33.4192, 52.5759, -9.47874, 90.9497, -75.8629, 35.6603
3.472, 6, 33.4074, 52.5829, -9.45373, 90.9236, -75.9401, 35.6347
3.476, 6, 33.3956, 52.5898, -9.42863, 90.8975, -76.0174, 35.6092
3.48, 6, 33.3838, 52.5967, -9.40345, 90.8713, -76.0946, 35.5837
3.484, 6, 33.372, 52.6035, -9.37819, 90.845, -76.1719, 35.5581
3.488, 6, 33.3601, 52.6102, -9.35285, 90.8187, -76.2491, 35.5326
3.492, 6, 33.3482, 52.6169, -9.32743, 90.7924, -76.3263, 35.507
3.495, 6, 33.3363, 52.6235, -9.30193, 90.766, -76.4034, 35.4815
3.5, 6, 33.3243, 52.6301, -9.27635, 90.7396, -76.4806, 35.4559
3.504, 6, 33.3123, 52.6366, -9.25069, 90.7131, -76.5577, 35.4304
3.508, 6, 33.3003, 52.643, -9.22495, 90.6866, -76.6348, 35.4049
3.512, 6, 33.2883, 52.6494, -9.19913, 90.66, -76.7119, 35.3793
3.516, 6, 33.2763, 52.6557, -9.17323, 90.6333, -76.789, 35.3538
3.52, 6, 33.2642, 52.662, -9.14725, 90.6067, -76.8661, 35.3282
3.524, 6, 33.2521, 52.6682, -9.1212, 90.5799, -76.9431, 35.3027
3.528, 6, 33.24, 52.6743, -9.09506, 90.5532, -77.0201, 35.2771
3.531, 6, 33.2279, 52.6804, -9.06884, 90.5263, -77.0971, 35.2516
3.536, 6, 33.2157, 52.6864, -9.04255, 90.4995, -77.1741, 35.226
3.54, 6, 33.2035, 52.6924, -9.01617, 90.4726, -77.2511, 35.2005
3.544, 6, 33.1913, 52.6983, -8.98972, 90.4456, -77.328, 35.1749
3.548, 6, 33.1791, 52.7041, -8.96318, 90.4186, -77.405, 35.1494
3.552, 6, 33.1668, 52.7099, -8.93657, 90.3915, -77.4819, 35.1238
3.556, 6, 33.1546, 52.7156, -8.90989, 90.3644, -77.5588, 35.0983
3.56, 6, 33.1425, 52.7212, -8.88312, 90.3373, -77.6357, 35.0727
3.564, 6, 33.1305, 52.7267, -8.85629, 90.3101, -77.7125, 35.0471
3.568, 6, 33.1187, 52.732, -8.82941, 90.2829, -77.7892, 35.0216
3.572, 6, 33.1075, 52.7369, -8.80251, 90.2557, -77.8658, 34.9961
3.576, 6, 33.0968, 52.7415, -8.77564, 90.2285, -77.9421, 34.9707
3.58, 6, 33.0868, 52.7454, -8.74889, 90.2015, -78.0179, 34.9454
3.584, 6, 33.0775, 52.7487, -8.72239, 90.1748, -78.0928, 34.9205
3.587, 6, 33.0688, 52.7513, -8.6963, 90.1484, -78.1663, 34.8959
3.592, 6, 33.0607, 52.7532, -8.67081, 90.1227, -78.238, 34.872
3.596, 6, 33.053, 52.7547, -8.64616, 90.0979, -78.3073, 34.8489
3.6, 6, 33.0455, 52.756, -8.62259, 90.0741, -78.3733, 34.8268
3.604, 6, 33.0383, 52.7572, -8.60034, 90.0517, -78.4356, 34.806
3.608, 6, 33.0312, 52.7586, -8.57962, 90.0309, -78.4934, 34.7867
3.612, 6, 33.0244, 52.7603, -8.56062, 90.0118, -78.5463, 34.769
3.616, 6, 33.0178, 52.7623, -8.54349, 89.9946, -78.594, 34.7531
3.62, 6, 33.0113, 52.7647, -8.52831, 89.9794, -78.6361, 34.739
3.624, 6, 33.0051, 52.7675, -8.51512, 89.9662, -78.6726, 34.7268
3.628, 6, 32.9991, 52.7708, -8.50391, 89.955, -78.7036, 34.7165
3.632, 6, 32.9933, 52.7744, -8.4946, 89.9458, -78.7292, 34.7079
3.636, 6, 32.9876, 52.7783, -8.48705, 89.9383, -78.7499, 34.701
3.64, 6, 32.982, 52.7824, -8.4811, 89.9324, -78.7662, 34.6956
3.644, 6, 32.9766, 52.7863, -8.47653, 89.9279, -78.7786, 34.6915
3.648, 6, 32.9716, 52.7899, -8.47312, 89.9246, -78.7879, 34.6884
3.652, 6, 32.9672, 52.793, -8.47064, 89.9222, -78.7946, 34.6862
3.656, 7, 32.9634, 52.7955, -8.46887, 89.9205, -78.7993, 34.6846
3.66, 7, 32.9604, 52.7974, -8.46764, 89.9193, -78.8026, 34.6835
3.664, 7, 32.958, 52.7988, -8.4668, 89.9185, -78.8048, 34.6828
3.668, 7, 32.9564, 52.7998, -8.46623, 89.918, -78.8063, 34.6823
3.672, 7, 32.9552, 52.8005, -8.46584, 89.9176, -78.8074, 34.6819
3.676, 7, 32.9545, 52.801, -8.46557, 89.9174, -78.8081, 34.6817
3.679, 7, 32.9539, 52.8013, -8.46539, 89.9172, -78.8086, 34.6815
3.684, 7, 32.9536, 52.8015, -8.46527, 89.9171, -78.8089, 34.6814
3.688, 7, 32.9533, 52.8016, -8.46519, 89.917, -78.8091, 34.6814
3.692, 7, 32.9532, 52.8017, -8.46514, 89.9169, -78.8092, 34.6813
3.696, 7, 32.9531, 52.8018, -8.4651, 89.9169, -78.8093, 34.6813
3.7, 7, 32.953, 52.8019, -8.46507, 89.9169, -78.8094, 34.6813
3.704, 7, 32.9529, 52.8019, -8.46506, 89.9169, -78.8095, 34.6812
3.708, 7, 32.9529, 52.8019, -8.46504, 89.9169, -78.8095, 34.6812
3.712, 7, 32.9529, 52.8019, -8.46504, 89.9169, -78.8095, 34.6812
3.716, 7, 32.9529, 52.8019, -8.46503, 89.9168, -78.8095, 34.6812
3.72, 7, 32.9529, 52.8019, -8.46503, 89.9168, -78.8095, 34.6812
3.724, 7, 32.9529, 52.8019, -8.46502, 89.9168, -78.8095, 34.6812
3.728, 7, 32.9528, 52.8019, -8.46502, 89.9168, -78.8095, 34.6812
3.732, 7, 32.9528, 52.8019, -8.46502, 89.9168, -78.8095, 34.6812
3.735, 7, 32.9528, 52.8019, -8.46502, 89.9168, -78.8095, 34.6812
3.74, 7, 32.9528, 52.8019, -8.46502, 89.9168, -78.8095, 34.6812
3.744, 7, 32.9528, 52.8019, -8.46502, 89.9168, -78.8096, 34.6812
3.748, 7, 32.9528, 52.8019, -8.46502, 89.9168, -78.8096, 34.6812
3.752, 7, 32.9528, 52.8019, -8.46502, 89.9168, -78.8096, 34.6812
3.756, 7, 32.9528, 52.8019, -8.46502, 89.9168, -78.8096, 34.6812
3.76, 7, 32.9528, 52.8019, -8.46502, 89.9168, -78.8096, 34.6812
3.764, 7, 32.9528, 52.8019, -8.46502, 89.9168, -78.8096, 34.6812
3.768, 7, 32.9528, 52.8019, -8.46502, 89.9168, -78.8096, 34.6812
3.772, 7, 32.9528, 52.8019, -8.46502, 89.9168, -78.8096, 34.6812
