hehonglu123/ABB_Primitive_Study/execution/movec_smooth/curve_exe_v50_z5.csv
timestamp, cmd_num, J1, J2, J3, J4, J5, J6
0, 1, 32.9528, 52.8019, -8.46502, 89.9168, -78.8096, 34.6812
0.002, 1, 32.9528, 52.8019, -8.46502, 89.9168, -78.8096, 34.6812
0.004, 1, 32.9528, 52.8019, -8.46502, 89.9168, -78.8096, 34.6812
0.01, 1, 32.9528, 52.8019, -8.46502, 89.9168, -78.8096, 34.6812
0.012, 1, 32.9528, 52.8019, -8.46502, 89.9168, -78.8096, 34.6812
0.016, 1, 32.9528, 52.8019, -8.46502, 89.9168, -78.8096, 34.6812
0.02, 1, 32.9528, 52.8019, -8.46502, 89.9168, -78.8096, 34.6812
0.024, 1, 32.9528, 52.8019, -8.46502, 89.9168, -78.8096, 34.6812
0.028, 1, 32.9528, 52.8019, -8.46502, 89.9168, -78.8096, 34.6812
0.032, 1, 32.9528, 52.8019, -8.46502, 89.9168, -78.8096, 34.6812
0.036, 1, 32.9529, 52.8019, -8.46502, 89.9168, -78.8096, 34.6812
0.04, 1, 32.9531, 52.8018, -8.46503, 89.9168, -78.8095, 34.6812
0.044, 1, 32.9535, 52.8014, -8.46505, 89.9169, -78.8095, 34.6812
0.048, 1, 32.9543, 52.8006, -8.4651, 89.9169, -78.8093, 34.6813
0.052, 1, 32.9556, 52.7993, -8.46521, 89.917, -78.8088, 34.6814
0.056, 1, 32.9574, 52.7971, -8.46544, 89.9173, -78.8079, 34.6818
0.06, 1, 32.9597, 52.794, -8.46584, 89.9178, -78.8061, 34.6824
0.064, 1, 32.9625, 52.7899, -8.46653, 89.9186, -78.803, 34.6834
0.068, 1, 32.9659, 52.7849, -8.46761, 89.92, -78.798, 34.6852
0.072, 1, 32.9697, 52.7789, -8.46923, 89.922, -78.7905, 34.6877
0.076, 1, 32.9741, 52.7719, -8.47155, 89.925, -78.7796, 34.6915
0.08, 1, 32.9791, 52.7639, -8.47475, 89.9292, -78.7644, 34.6967
0.084, 1, 32.9847, 52.7549, -8.47904, 89.9348, -78.744, 34.7037
0.088, 1, 32.991, 52.7451, -8.48462, 89.9421, -78.7174, 34.7128
0.092, 1, 32.9978, 52.7344, -8.49169, 89.9515, -78.6834, 34.7244
0.096, 1, 33.005, 52.7231, -8.50046, 89.9631, -78.6411, 34.7389
0.1, 1, 33.0126, 52.7112, -8.51109, 89.9773, -78.5897, 34.7566
0.104, 1, 33.0204, 52.699, -8.5237, 89.9942, -78.5285, 34.7775
0.108, 1, 33.0284, 52.6863, -8.53837, 90.0139, -78.4572, 34.802
0.112, 1, 33.0368, 52.673, -8.55512, 90.0364, -78.3757, 34.8299
0.116, 1, 33.0455, 52.6592, -8.57391, 90.0617, -78.2841, 34.8613
0.12, 1, 33.0546, 52.6447, -8.59467, 90.0896, -78.183, 34.896
0.124, 1, 33.0642, 52.6296, -8.61726, 90.12, -78.0728, 34.9337
0.128, 1, 33.0741, 52.6139, -8.64154, 90.1527, -77.9545, 34.9743
0.131, 1, 33.0844, 52.5977, -8.66731, 90.1875, -77.8288, 35.0174
0.136, 1, 33.0949, 52.5809, -8.69437, 90.2239, -77.6968, 35.0627
0.139, 1, 33.1058, 52.5633, -8.72251, 90.2618, -77.5596, 35.1097
0.144, 1, 33.1172, 52.5447, -8.75152, 90.3009, -77.4182, 35.1582
0.148, 1, 33.1293, 52.525, -8.7812, 90.3408, -77.2736, 35.2077
0.152, 1, 33.1421, 52.5041, -8.81138, 90.3814, -77.1267, 35.2581
0.156, 1, 33.1556, 52.4819, -8.8419, 90.4224, -76.9782, 35.309
0.16, 1, 33.17, 52.4586, -8.87265, 90.4637, -76.8286, 35.3603
0.164, 1, 33.1849, 52.4345, -8.90354, 90.5052, -76.6784, 35.4118
0.168, 1, 33.2004, 52.4098, -8.93451, 90.5467, -76.5279, 35.4634
0.172, 1, 33.2161, 52.3847, -8.9655, 90.5883, -76.3772, 35.515
0.176, 1, 33.2321, 52.3594, -8.9965, 90.6299, -76.2265, 35.5667
0.18, 1, 33.2481, 52.334, -9.02749, 90.6715, -76.076, 35.6183
0.184, 1, 33.2643, 52.3084, -9.05844, 90.713, -75.9256, 35.6699
0.188, 1, 33.2805, 52.2828, -9.08935, 90.7545, -75.7754, 35.7214
0.192, 1, 33.2967, 52.2573, -9.12022, 90.7959, -75.6254, 35.7728
0.196, 1, 33.3129, 52.2317, -9.15104, 90.8372, -75.4757, 35.8241
0.2, 1, 33.3291, 52.2061, -9.1818, 90.8785, -75.3262, 35.8753
0.204, 1, 33.3453, 52.1806, -9.21251, 90.9197, -75.177, 35.9265
0.208, 1, 33.3614, 52.1551, -9.24316, 90.9608, -75.028, 35.9775
0.212, 1, 33.3776, 52.1296, -9.27376, 91.0018, -74.8794, 36.0285
0.216, 1, 33.3937, 52.1042, -9.30431, 91.0428, -74.731, 36.0794
0.22, 1, 33.4098, 52.0788, -9.33479, 91.0837, -74.5829, 36.1302
0.224, 1, 33.4258, 52.0535, -9.36522, 91.1245, -74.435, 36.1808
0.228, 1, 33.4419, 52.0282, -9.3956, 91.1652, -74.2874, 36.2314
0.232, 1, 33.4579, 52.003, -9.42592, 91.2059, -74.1401, 36.2819
0.236, 1, 33.4738, 51.9778, -9.45618, 91.2465, -73.9931, 36.3323
0.24, 1, 33.4898, 51.9526, -9.48639, 91.287, -73.8463, 36.3826
0.244, 1, 33.5057, 51.9275, -9.51654, 91.3275, -73.6998, 36.4329
0.248, 1, 33.5216, 51.9025, -9.54664, 91.3678, -73.5536, 36.483
0.252, 1, 33.5374, 51.8774, -9.57668, 91.4081, -73.4076, 36.533
0.256, 1, 33.5533, 51.8525, -9.60667, 91.4483, -73.2619, 36.583
0.26, 1, 33.5691, 51.8276, -9.63661, 91.4885, -73.1165, 36.6328
0.264, 1, 33.5848, 51.8027, -9.66649, 91.5286, -72.9713, 36.6826
0.268, 1, 33.6006, 51.7778, -9.69631, 91.5686, -72.8264, 36.7323
0.272, 1, 33.6163, 51.7531, -9.72609, 91.6085, -72.6817, 36.7819
0.276, 1, 33.632, 51.7283, -9.75581, 91.6484, -72.5373, 36.8314
0.28, 1, 33.6476, 51.7036, -9.78548, 91.6882, -72.3932, 36.8808
0.284, 1, 33.6633, 51.679, -9.81509, 91.7279, -72.2493, 36.9301
0.288, 1, 33.6789, 51.6544, -9.84465, 91.7675, -72.1057, 36.9794
0.292, 1, 33.6945, 51.6298, -9.87416, 91.8071, -71.9623, 37.0285
0.296, 1, 33.71, 51.6053, -9.90362, 91.8466, -71.8191, 37.0776
0.3, 1, 33.7255, 51.5808, -9.93303, 91.8861, -71.6763, 37.1265
0.304, 1, 33.741, 51.5563, -9.96238, 91.9255, -71.5336, 37.1754
0.308, 1, 33.7565, 51.5319, -9.99169, 91.9648, -71.3913, 37.2242
0.312, 1, 33.7719, 51.5076, -10.0209, 92.004, -71.2491, 37.273
0.316, 1, 33.7873, 51.4833, -10.0501, 92.0432, -71.1073, 37.3216
0.32, 1, 33.8027, 51.459, -10.0793, 92.0823, -70.9656, 37.3702
0.324, 1, 33.8181, 51.4348, -10.1084, 92.1213, -70.8242, 37.4186
0.328, 1, 33.8334, 51.4106, -10.1375, 92.1603, -70.6831, 37.467
0.332, 1, 33.8487, 51.3864, -10.1665, 92.1992, -70.5422, 37.5153
0.336, 1, 33.864, 51.3623, -10.1954, 92.238, -70.4015, 37.5636
0.34, 1, 33.8793, 51.3383, -10.2243, 92.2768, -70.261, 37.6117
0.344, 1, 33.8945, 51.3142, -10.2532, 92.3155, -70.1209, 37.6598
0.348, 1, 33.9097, 51.2903, -10.282, 92.3541, -69.9809, 37.7077
0.352, 1, 33.9249, 51.2663, -10.3107, 92.3927, -69.8412, 37.7556
0.356, 1, 33.94, 51.2424, -10.3394, 92.4312, -69.7017, 37.8034
0.36, 1, 33.9552, 51.2186, -10.3681, 92.4696, -69.5624, 37.8512
0.364, 1, 33.9703, 51.1947, -10.3967, 92.508, -69.4234, 37.8988
0.368, 1, 33.9853, 51.171, -10.4253, 92.5463, -69.2846, 37.9464
0.372, 1, 34.0004, 51.1472, -10.4538, 92.5846, -69.1461, 37.9939
0.376, 1, 34.0154, 51.1235, -10.4823, 92.6228, -69.0078, 38.0413
0.38, 1, 34.0304, 51.0998, -10.5107, 92.6609, -68.8697, 38.0887
0.384, 1, 34.0454, 51.0762, -10.5391, 92.6989, -68.7318, 38.1359
0.388, 1, 34.0604, 51.0526, -10.5674, 92.7369, -68.5941, 38.1831
0.392, 1, 34.0753, 51.0291, -10.5957, 92.7749, -68.4567, 38.2302
0.396, 1, 34.0902, 51.0056, -10.6239, 92.8127, -68.3195, 38.2773
0.4, 1, 34.1051, 50.9821, -10.6521, 92.8506, -68.1825, 38.3242
0.404, 1, 34.1199, 50.9587, -10.6803, 92.8883, -68.0458, 38.3711
0.408, 1, 34.1348, 50.9353, -10.7084, 92.926, -67.9093, 38.4179
0.412, 1, 34.1496, 50.9119, -10.7364, 92.9636, -67.773, 38.4646
0.416, 1, 34.1643, 50.8886, -10.7644, 93.0012, -67.6369, 38.5113
0.42, 1, 34.1791, 50.8653, -10.7924, 93.0387, -67.501, 38.5579
0.424, 1, 34.1938, 50.8421, -10.8203, 93.0762, -67.3653, 38.6044
0.428, 1, 34.2086, 50.8189, -10.8482, 93.1136, -67.2299, 38.6508
0.432, 1, 34.2232, 50.7957, -10.876, 93.1509, -67.0947, 38.6971
0.436, 1, 34.2379, 50.7726, -10.9038, 93.1881, -66.9597, 38.7434
0.44, 1, 34.2526, 50.7495, -10.9315, 93.2254, -66.8249, 38.7896
0.444, 1, 34.2672, 50.7264, -10.9592, 93.2625, -66.6903, 38.8358
0.448, 1, 34.2818, 50.7034, -10.9869, 93.2996, -66.5559, 38.8818
0.452, 1, 34.2964, 50.6804, -11.0145, 93.3367, -66.4217, 38.9278
0.456, 1, 34.3109, 50.6574, -11.0421, 93.3736, -66.2878, 38.9738
0.46, 1, 34.3254, 50.6345, -11.0696, 93.4106, -66.154, 39.0196
0.464, 1, 34.3399, 50.6116, -11.0971, 93.4474, -66.0204, 39.0654
0.468, 1, 34.3544, 50.5888, -11.1246, 93.4842, -65.8871, 39.1111
0.472, 1, 34.3689, 50.566, -11.152, 93.521, -65.754, 39.1567
0.476, 1, 34.3833, 50.5432, -11.1793, 93.5577, -65.621, 39.2023
0.48, 1, 34.3978, 50.5204, -11.2066, 93.5943, -65.4883, 39.2478
0.484, 1, 34.4121, 50.4977, -11.2339, 93.6309, -65.3558, 39.2933
0.488, 1, 34.4265, 50.475, -11.2612, 93.6675, -65.2234, 39.3386
0.492, 1, 34.4409, 50.4524, -11.2884, 93.7039, -65.0913, 39.3839
0.496, 1, 34.4552, 50.4298, -11.3155, 93.7404, -64.9594, 39.4291
0.5, 1, 34.4695, 50.4072, -11.3426, 93.7767, -64.8276, 39.4743
0.504, 1, 34.4838, 50.3847, -11.3697, 93.813, -64.6961, 39.5194
0.508, 1, 34.4981, 50.3622, -11.3967, 93.8493, -64.5647, 39.5644
0.512, 1, 34.5123, 50.3397, -11.4237, 93.8855, -64.4336, 39.6094
0.516, 1, 34.5265, 50.3173, -11.4507, 93.9217, -64.3026, 39.6543
0.52, 1, 34.5408, 50.2949, -11.4776, 93.9578, -64.1719, 39.6991
0.524, 1, 34.5549, 50.2725, -11.5045, 93.9938, -64.0413, 39.7439
0.528, 1, 34.5691, 50.2501, -11.5313, 94.0298, -63.9109, 39.7886
0.532, 1, 34.5832, 50.2278, -11.5581, 94.0657, -63.7807, 39.8332
0.536, 1, 34.5974, 50.2056, -11.5848, 94.1016, -63.6507, 39.8777
0.54, 1, 34.6115, 50.1833, -11.6116, 94.1375, -63.5209, 39.9222
0.544, 1, 34.6255, 50.1611, -11.6382, 94.1732, -63.3913, 39.9667
0.548, 1, 34.6396, 50.1389, -11.6649, 94.209, -63.2619, 40.0111
0.552, 1, 34.6536, 50.1168, -11.6915, 94.2447, -63.1326, 40.0554
0.556, 1, 34.6677, 50.0947, -11.718, 94.2803, -63.0036, 40.0996
0.56, 1, 34.6817, 50.0726, -11.7446, 94.3159, -62.8747, 40.1438
0.564, 1, 34.6956, 50.0505, -11.7711, 94.3514, -62.746, 40.1879
0.568, 1, 34.7096, 50.0285, -11.7975, 94.3869, -62.6175, 40.2319
0.572, 1, 34.7235, 50.0065, -11.8239, 94.4223, -62.4892, 40.2759
0.576, 1, 34.7375, 49.9846, -11.8503, 94.4577, -62.361, 40.3199
0.58, 1, 34.7514, 49.9626, -11.8766, 94.493, -62.2331, 40.3637
0.584, 1, 34.7652, 49.9407, -11.9029, 94.5283, -62.1053, 40.4075
0.588, 1, 34.7791, 49.9189, -11.9292, 94.5635, -61.9777, 40.4513
0.592, 1, 34.7929, 49.897, -11.9554, 94.5987, -61.8503, 40.495
0.596, 1, 34.8068, 49.8752, -11.9816, 94.6338, -61.723, 40.5386
0.6, 1, 34.8206, 49.8535, -12.0078, 94.6689, -61.5959, 40.5821
0.604, 1, 34.8343, 49.8317, -12.0339, 94.7039, -61.4691, 40.6256
0.608, 1, 34.8481, 49.81, -12.06, 94.7389, -61.3423, 40.6691
0.612, 1, 34.8618, 49.7883, -12.086, 94.7738, -61.2158, 40.7125
0.616, 1, 34.8756, 49.7667, -12.112, 94.8087, -61.0894, 40.7558
0.62, 1, 34.8893, 49.7451, -12.138, 94.8435, -60.9632, 40.799
0.624, 1, 34.903, 49.7235, -12.1639, 94.8783, -60.8372, 40.8422
0.628, 1, 34.9166, 49.7019, -12.1898, 94.9131, -60.7114, 40.8854
0.632, 1, 34.9303, 49.6804, -12.2157, 94.9478, -60.5857, 40.9284
0.636, 1, 34.9439, 49.6589, -12.2415, 94.9824, -60.4602, 40.9715
0.64, 1, 34.9575, 49.6374, -12.2673, 95.017, -60.3349, 41.0144
0.644, 1, 34.9711, 49.6159, -12.2931, 95.0516, -60.2097, 41.0573
0.648, 1, 34.9847, 49.5945, -12.3188, 95.0861, -60.0847, 41.1002
0.652, 1, 34.9983, 49.5731, -12.3445, 95.1205, -59.9599, 41.143
0.656, 1, 35.0118, 49.5518, -12.3701, 95.1549, -59.8352, 41.1857
0.66, 1, 35.0253, 49.5304, -12.3958, 95.1893, -59.7107, 41.2284
0.664, 1, 35.0388, 49.5091, -12.4214, 95.2236, -59.5864, 41.271
0.668, 1, 35.0523, 49.4879, -12.4469, 95.2579, -59.4622, 41.3136
0.672, 1, 35.0658, 49.4666, -12.4724, 95.2921, -59.3382, 41.3561
0.676, 1, 35.0792, 49.4454, -12.4979, 95.3263, -59.2144, 41.3985
0.68, 1, 35.0927, 49.4242, -12.5234, 95.3605, -59.0907, 41.4409
0.684, 1, 35.1061, 49.4031, -12.5488, 95.3946, -58.9672, 41.4833
0.688, 1, 35.1195, 49.3819, -12.5742, 95.4286, -58.8439, 41.5256
0.692, 1, 35.1329, 49.3608, -12.5995, 95.4626, -58.7207, 41.5678
0.696, 1, 35.1462, 49.3397, -12.6249, 95.4966, -58.5977, 41.61
0.7, 1, 35.1596, 49.3187, -12.6501, 95.5305, -58.4748, 41.6521
0.704, 1, 35.1729, 49.2977, -12.6754, 95.5644, -58.3521, 41.6941
0.708, 1, 35.1862, 49.2767, -12.7006, 95.5982, -58.2296, 41.7361
0.712, 1, 35.1995, 49.2557, -12.7258, 95.632, -58.1072, 41.7781
0.716, 1, 35.2128, 49.2347, -12.751, 95.6657, -57.985, 41.82
0.72, 1, 35.226, 49.2138, -12.7761, 95.6994, -57.8629, 41.8618
0.724, 1, 35.2393, 49.1929, -12.8012, 95.7331, -57.741, 41.9036
0.728, 1, 35.2525, 49.1721, -12.8262, 95.7667, -57.6192, 41.9454
0.732, 1, 35.2657, 49.1512, -12.8513, 95.8003, -57.4976, 41.9871
0.736, 1, 35.2789, 49.1304, -12.8763, 95.8338, -57.3762, 42.0287
0.74, 1, 35.2921, 49.1097, -12.9012, 95.8673, -57.2549, 42.0703
0.744, 1, 35.3052, 49.0889, -12.9262, 95.9007, -57.1338, 42.1118
0.748, 1, 35.3184, 49.0682, -12.9511, 95.9341, -57.0128, 42.1533
0.752, 1, 35.3315, 49.0475, -12.9759, 95.9675, -56.8919, 42.1947
0.756, 1, 35.3446, 49.0268, -13.0008, 96.0008, -56.7712, 42.2361
0.76, 1, 35.3577, 49.0061, -13.0256, 96.0341, -56.6507, 42.2774
0.764, 1, 35.3708, 48.9855, -13.0504, 96.0673, -56.5303, 42.3187
0.768, 1, 35.3838, 48.9649, -13.0751, 96.1005, -56.4101, 42.3599
0.772, 1, 35.3969, 48.9443, -13.0998, 96.1336, -56.29, 42.401
0.776, 1, 35.4099, 48.9238, -13.1245, 96.1667, -56.1701, 42.4422
0.78, 1, 35.4229, 48.9032, -13.1492, 96.1998, -56.0503, 42.4832
0.784, 1, 35.4359, 48.8827, -13.1738, 96.2328, -55.9306, 42.5242
0.788, 1, 35.4489, 48.8623, -13.1984, 96.2658, -55.8112, 42.5652
0.792, 1, 35.4619, 48.8418, -13.2229, 96.2988, -55.6918, 42.6061
0.796, 1, 35.4748, 48.8214, -13.2475, 96.3317, -55.5726, 42.647
0.8, 1, 35.4877, 48.801, -13.272, 96.3646, -55.4535, 42.6878
0.804, 1, 35.5006, 48.7806, -13.2965, 96.3974, -55.3346, 42.7285
0.808, 1, 35.5136, 48.7603, -13.3209, 96.4302, -55.2159, 42.7693
0.812, 1, 35.5264, 48.7399, -13.3453, 96.4629, -55.0972, 42.8099
0.816, 1, 35.5393, 48.7196, -13.3697, 96.4956, -54.9787, 42.8506
0.82, 1, 35.5522, 48.6994, -13.3941, 96.5283, -54.8604, 42.8911
0.824, 1, 35.565, 48.6791, -13.4184, 96.5609, -54.7422, 42.9316
0.828, 1, 35.5778, 48.6589, -13.4427, 96.5935, -54.6241, 42.9721
0.832, 1, 35.5906, 48.6387, -13.467, 96.6261, -54.5062, 43.0125
0.836, 1, 35.6034, 48.6185, -13.4912, 96.6586, -54.3884, 43.0529
0.84, 1, 35.6162, 48.5983, -13.5154, 96.6911, -54.2707, 43.0933
0.844, 1, 35.629, 48.5782, -13.5396, 96.7235, -54.1532, 43.1335
0.848, 1, 35.6417, 48.5581, -13.5638, 96.7559, -54.0358, 43.1738
0.852, 1, 35.6545, 48.538, -13.5879, 96.7883, -53.9186, 43.214
0.856, 1, 35.6672, 48.5179, -13.612, 96.8206, -53.8015, 43.2541
0.86, 1, 35.6799, 48.4979, -13.6361, 96.8529, -53.6845, 43.2942
0.864, 1, 35.6925, 48.4779, -13.6601, 96.8852, -53.5677, 43.3343
0.868, 1, 35.7051, 48.458, -13.6841, 96.9174, -53.451, 43.3743
0.872, 1, 35.7176, 48.4381, -13.7081, 96.9496, -53.3345, 43.4142
0.876, 1, 35.73, 48.4184, -13.7321, 96.9817, -53.2181, 43.4541
0.88, 1, 35.7419, 48.3992, -13.756, 97.0137, -53.102, 43.4939
0.884, 1, 35.7533, 48.3805, -13.7798, 97.0457, -52.9863, 43.5336
0.888, 1, 35.7641, 48.3627, -13.8035, 97.0775, -52.8712, 43.5731
0.892, 1, 35.7742, 48.3457, -13.8269, 97.109, -52.757, 43.6122
0.896, 1, 35.7836, 48.3297, -13.8501, 97.1401, -52.6444, 43.6508
0.9, 1, 35.7924, 48.3145, -13.8728, 97.1706, -52.534, 43.6887
0.904, 1, 35.8007, 48.3002, -13.895, 97.2003, -52.4264, 43.7256
0.908, 1, 35.8087, 48.2866, -13.9163, 97.229, -52.3226, 43.7613
0.912, 1, 35.8164, 48.2736, -13.9367, 97.2564, -52.2234, 43.7953
0.916, 1, 35.8238, 48.2613, -13.956, 97.2823, -52.1296, 43.8275
0.92, 1, 35.8309, 48.2497, -13.9741, 97.3065, -52.042, 43.8576
0.924, 1, 35.8377, 48.2387, -13.9907, 97.3288, -51.9612, 43.8853
0.928, 1, 35.8442, 48.2281, -14.0057, 97.3491, -51.888, 43.9104
0.932, 1, 35.8507, 48.2178, -14.0192, 97.3671, -51.8226, 43.9328
0.936, 1, 35.8571, 48.2077, -14.031, 97.3829, -51.7653, 43.9524
0.94, 1, 35.8634, 48.1979, -14.0412, 97.3966, -51.716, 43.9693
0.944, 1, 35.8695, 48.1884, -14.0498, 97.4081, -51.6743, 43.9836
0.948, 1, 35.8755, 48.1793, -14.0569, 97.4175, -51.6399, 43.9954
0.952, 2, 35.8812, 48.1708, -14.0626, 97.4252, -51.612, 44.0049
0.956, 2, 35.8865, 48.1631, -14.0672, 97.4313, -51.5899, 44.0124
0.96, 2, 35.8915, 48.1562, -14.0707, 97.436, -51.5728, 44.0183
0.964, 2, 35.896, 48.1502, -14.0734, 97.4396, -51.5598, 44.0227
0.968, 2, 35.9001, 48.145, -14.0754, 97.4422, -51.5503, 44.0259
0.972, 2, 35.9037, 48.1406, -14.0768, 97.4441, -51.5433, 44.0283
0.976, 2, 35.9067, 48.1371, -14.0778, 97.4454, -51.5385, 44.0299
0.98, 2, 35.9091, 48.1343, -14.0785, 97.4463, -51.5351, 44.0311
0.984, 2, 35.911, 48.1323, -14.079, 97.4469, -51.5327, 44.0319
0.988, 2, 35.9123, 48.1308, -14.0793, 97.4474, -51.5312, 44.0324
0.992, 2, 35.9132, 48.1299, -14.0796, 97.4477, -51.5301, 44.0328
0.996, 2, 35.9138, 48.1292, -14.0797, 97.4479, -51.5294, 44.033
1, 2, 35.9142, 48.1287, -14.0798, 97.448, -51.5289, 44.0332
1.004, 2, 35.9145, 48.1284, -14.0799, 97.4481, -51.5285, 44.0333
1.008, 2, 35.9147, 48.1282, -14.0799, 97.4482, -51.5283, 44.0334
1.012, 2, 35.9149, 48.1281, -14.08, 97.4482, -51.5282, 44.0334
1.016, 2, 35.9149, 48.128, -14.08, 97.4482, -51.5281, 44.0335
1.02, 2, 35.915, 48.1279, -14.08, 97.4482, -51.528, 44.0335
1.024, 2, 35.915, 48.1279, -14.08, 97.4483, -51.5279, 44.0335
1.027, 2, 35.9151, 48.1278, -14.08, 97.4483, -51.5279, 44.0335
1.032, 2, 35.9151, 48.1278, -14.08, 97.4483, -51.5279, 44.0335
1.036, 2, 35.9151, 48.1278, -14.08, 97.4483, -51.5279, 44.0335
1.04, 2, 35.9151, 48.1278, -14.08, 97.4483, -51.5279, 44.0335
1.044, 2, 35.9151, 48.1278, -14.08, 97.4483, -51.5279, 44.0335
1.048, 2, 35.9151, 48.1278, -14.08, 97.4483, -51.5279, 44.0335
1.052, 2, 35.9151, 48.1278, -14.08, 97.4483, -51.5278, 44.0335
1.055, 2, 35.9151, 48.1278, -14.08, 97.4483, -51.5278, 44.0335
1.06, 2, 35.9151, 48.1278, -14.08, 97.4483, -51.5278, 44.0335
1.064, 2, 35.9151, 48.1278, -14.08, 97.4483, -51.5278, 44.0335
1.068, 2, 35.9151, 48.1278, -14.08, 97.4483, -51.5278, 44.0335
1.072, 2, 35.9151, 48.1278, -14.08, 97.4483, -51.5278, 44.0335
1.076, 2, 35.9151, 48.1278, -14.08, 97.4483, -51.5278, 44.0335
1.08, 2, 35.9151, 48.1278, -14.08, 97.4483, -51.5278, 44.0335
1.084, 2, 35.9151, 48.1278, -14.08, 97.4483, -51.5278, 44.0335
1.088, 2, 35.9151, 48.1278, -14.08, 97.4483, -51.5278, 44.0335
1.091, 2, 35.9151, 48.1278, -14.08, 97.4483, -51.5278, 44.0335
1.096, 2, 35.9151, 48.1278, -14.08, 97.4483, -51.5278, 44.0335
1.1, 2, 35.9151, 48.1278, -14.08, 97.4483, -51.5278, 44.0335
1.104, 2, 35.9151, 48.1278, -14.08, 97.4483, -51.5278, 44.0335
1.108, 2, 35.9151, 48.1278, -14.08, 97.4483, -51.5278, 44.0335
1.112, 2, 35.9151, 48.1278, -14.08, 97.4483, -51.5278, 44.0335
1.116, 2, 35.9151, 48.1278, -14.08, 97.4483, -51.5278, 44.0335
1.119, 2, 35.9151, 48.1278, -14.08, 97.4483, -51.5278, 44.0335
1.124, 2, 35.9151, 48.1278, -14.08, 97.4483, -51.5278, 44.0335
1.128, 2, 35.9151, 48.1278, -14.08, 97.4483, -51.5278, 44.0335
1.132, 2, 35.9151, 48.1278, -14.08, 97.4483, -51.5278, 44.0335
1.136, 2, 35.9151, 48.1278, -14.08, 97.4483, -51.5278, 44.0335
1.14, 2, 35.9151, 48.1278, -14.08, 97.4483, -51.5278, 44.0335
1.144, 2, 35.9151, 48.1278, -14.08, 97.4483, -51.5278, 44.0335
1.147, 2, 35.9151, 48.1278, -14.08, 97.4483, -51.5278, 44.0335
1.152, 2, 35.9151, 48.1278, -14.08, 97.4483, -51.5278, 44.0335
1.156, 2, 35.9151, 48.1278, -14.08, 97.4483, -51.5278, 44.0335
1.16, 2, 35.9151, 48.1278, -14.08, 97.4483, -51.5278, 44.0335
1.164, 2, 35.9151, 48.1278, -14.08, 97.4483, -51.5278, 44.0335
1.168, 2, 35.9151, 48.1278, -14.08, 97.4483, -51.5278, 44.0335
1.172, 2, 35.9151, 48.1278, -14.08, 97.4483, -51.5278, 44.0335
1.175, 2, 35.9151, 48.1278, -14.08, 97.4483, -51.5278, 44.0335
1.18, 2, 35.9151, 48.1278, -14.08, 97.4483, -51.5278, 44.0335
1.184, 2, 35.9151, 48.1278, -14.08, 97.4483, -51.5278, 44.0335
1.188, 2, 35.9151, 48.1278, -14.08, 97.4483, -51.5278, 44.0335
1.192, 2, 35.9151, 48.1278, -14.08, 97.4483, -51.5278, 44.0335
1.196, 2, 35.9151, 48.1278, -14.08, 97.4483, -51.5278, 44.0335
1.2, 2, 35.9151, 48.1278, -14.08, 97.4483, -51.5278, 44.0335
1.204, 2, 35.9151, 48.1278, -14.08, 97.4483, -51.5278, 44.0335
1.208, 2, 35.9151, 48.1278, -14.08, 97.4483, -51.5278, 44.0335
1.212, 2, 35.9151, 48.1278, -14.08, 97.4483, -51.5278, 44.0335
1.216, 2, 35.9151, 48.1278, -14.08, 97.4483, -51.5278, 44.0335
1.22, 2, 35.9151, 48.1278, -14.08, 97.4483, -51.5278, 44.0335
1.224, 2, 35.9151, 48.1278, -14.08, 97.4483, -51.5278, 44.0335
1.228, 2, 35.9151, 48.1278, -14.08, 97.4483, -51.5278, 44.0335
1.232, 2, 35.9151, 48.1278, -14.08, 97.4483, -51.5278, 44.0335
1.236, 2, 35.9151, 48.1278, -14.08, 97.4483, -51.5278, 44.0335
1.24, 2, 35.9151, 48.1278, -14.08, 97.4483, -51.5278, 44.0335
1.244, 2, 35.9151, 48.1278, -14.08, 97.4483, -51.5278, 44.0335
1.248, 2, 35.9151, 48.1278, -14.08, 97.4483, -51.5278, 44.0335
1.252, 2, 35.9151, 48.1278, -14.08, 97.4483, -51.5278, 44.0335
1.256, 2, 35.9151, 48.1278, -14.08, 97.4483, -51.5278, 44.0335
1.26, 2, 35.9151, 48.1278, -14.08, 97.4483, -51.5278, 44.0335
1.264, 2, 35.9151, 48.1278, -14.08, 97.4483, -51.5278, 44.0335
1.267, 2, 35.9151, 48.1278, -14.08, 97.4483, -51.5278, 44.0335
1.272, 2, 35.9151, 48.1278, -14.08, 97.4483, -51.5278, 44.0335
1.276, 2, 35.9151, 48.1278, -14.08, 97.4483, -51.5278, 44.0335
1.28, 2, 35.9151, 48.1278, -14.08, 97.4483, -51.5278, 44.0335
1.284, 2, 35.9151, 48.1278, -14.08, 97.4483, -51.5278, 44.0335
1.288, 2, 35.9151, 48.1278, -14.08, 97.4483, -51.5278, 44.0335
1.292, 2, 35.9151, 48.1278, -14.08, 97.4483, -51.5278, 44.0335
1.295, 2, 35.9151, 48.1278, -14.08, 97.4483, -51.5278, 44.0335
1.3, 2, 35.9151, 48.1278, -14.08, 97.4483, -51.5278, 44.0335
1.304, 2, 35.9151, 48.1278, -14.08, 97.4483, -51.5278, 44.0335
1.308, 2, 35.9151, 48.1278, -14.08, 97.4483, -51.5278, 44.0335
1.312, 2, 35.9151, 48.1278, -14.08, 97.4483, -51.5278, 44.0335
1.316, 2, 35.9151, 48.1278, -14.08, 97.4483, -51.5278, 44.0335
1.32, 2, 35.9151, 48.1278, -14.08, 97.4483, -51.5278, 44.0335
1.324, 2, 35.9151, 48.1278, -14.08, 97.4483, -51.5278, 44.0335
1.328, 2, 35.9151, 48.1278, -14.08, 97.4483, -51.5278, 44.0335
1.332, 2, 35.9151, 48.1278, -14.08, 97.4483, -51.5278, 44.0335
1.336, 2, 35.9151, 48.1278, -14.08, 97.4483, -51.5278, 44.0335
1.34, 2, 35.9151, 48.1278, -14.08, 97.4483, -51.5278, 44.0335
1.344, 2, 35.9151, 48.1278, -14.08, 97.4483, -51.5278, 44.0335
1.348, 2, 35.9151, 48.1278, -14.08, 97.4483, -51.5278, 44.0335
1.352, 2, 35.9151, 48.1278, -14.08, 97.4483, -51.5278, 44.0335
1.356, 2, 35.9151, 48.1278, -14.08, 97.4483, -51.5278, 44.0335
1.36, 2, 35.9151, 48.1278, -14.08, 97.4483, -51.5278, 44.0335
1.364, 2, 35.9151, 48.1278, -14.08, 97.4483, -51.5278, 44.0335
1.368, 2, 35.9151, 48.1278, -14.08, 97.4483, -51.5278, 44.0335
1.372, 2, 35.9151, 48.1278, -14.08, 97.4483, -51.5278, 44.0335
1.376, 2, 35.9151, 48.1278, -14.08, 97.4483, -51.5278, 44.0335
1.38, 2, 35.9151, 48.1278, -14.08, 97.4483, -51.5278, 44.0335
1.384, 2, 35.9151, 48.1278, -14.08, 97.4483, -51.5278, 44.0335
1.388, 2, 35.9151, 48.1278, -14.08, 97.4483, -51.5278, 44.0335
1.392, 2, 35.9151, 48.1278, -14.08, 97.4483, -51.5278, 44.0335
1.396, 2, 35.9151, 48.1278, -14.08, 97.4483, -51.5278, 44.0335
1.4, 2, 35.9151, 48.1278, -14.08, 97.4483, -51.5278, 44.0335
1.404, 2, 35.9151, 48.1278, -14.08, 97.4483, -51.5278, 44.0335
1.408, 2, 35.9151, 48.1278, -14.08, 97.4483, -51.5278, 44.0335
1.412, 2, 35.9151, 48.1278, -14.08, 97.4483, -51.5278, 44.0335
1.416, 2, 35.9151, 48.1278, -14.08, 97.4483, -51.5278, 44.0335
1.42, 2, 35.9151, 48.1278, -14.08, 97.4483, -51.5278, 44.0335
1.424, 2, 35.9151, 48.1278, -14.08, 97.4483, -51.5278, 44.0335
1.428, 2, 35.9151, 48.1278, -14.08, 97.4483, -51.5278, 44.0335
1.432, 2, 35.9151, 48.1278, -14.08, 97.4483, -51.5278, 44.0335
1.436, 2, 35.9151, 48.1278, -14.08, 97.4483, -51.5278, 44.0335
1.44, 2, 35.9151, 48.1278, -14.08, 97.4483, -51.5278, 44.0335
1.444, 2, 35.9151, 48.1278, -14.08, 97.4483, -51.5278, 44.0335
1.448, 2, 35.9151, 48.1278, -14.08, 97.4483, -51.5278, 44.0335
1.452, 3, 35.9151, 48.1278, -14.08, 97.4483, -51.5278, 44.0335
1.456, 3, 35.9151, 48.1278, -14.08, 97.4483, -51.5278, 44.0335
1.46, 3, 35.9151, 48.1278, -14.08, 97.4483, -51.5278, 44.0335
1.464, 3, 35.9151, 48.1278, -14.08, 97.4483, -51.5278, 44.0335
1.468, 3, 35.9151, 48.1278, -14.08, 97.4483, -51.5278, 44.0335
1.472, 3, 35.9151, 48.1278, -14.08, 97.4483, -51.5278, 44.0335
1.476, 3, 35.9151, 48.1278, -14.08, 97.4483, -51.5278, 44.0335
1.48, 3, 35.9151, 48.1278, -14.08, 97.4483, -51.5278, 44.0335
1.484, 3, 35.9151, 48.1278, -14.08, 97.4483, -51.5278, 44.0335
1.488, 3, 35.9151, 48.1278, -14.08, 97.4483, -51.5278, 44.0335
1.492, 3, 35.9151, 48.1278, -14.08, 97.4483, -51.5278, 44.0335
1.496, 3, 35.9151, 48.1278, -14.08, 97.4483, -51.5278, 44.0335
1.5, 3, 35.9151, 48.1278, -14.08, 97.4483, -51.5278, 44.0335
1.504, 3, 35.9151, 48.1278, -14.08, 97.4483, -51.5278, 44.0335
1.508, 4, 35.9151, 48.1278, -14.08, 97.4483, -51.5278, 44.0335
1.512, 4, 35.9151, 48.1278, -14.08, 97.4483, -51.5278, 44.0335
1.516, 4, 35.9151, 48.1278, -14.08, 97.4483, -51.5278, 44.0335
1.52, 4, 35.9151, 48.1278, -14.08, 97.4483, -51.5278, 44.0335
1.524, 4, 35.9151, 48.1278, -14.08, 97.4483, -51.5278, 44.0335
1.528, 4, 35.9151, 48.1278, -14.08, 97.4483, -51.5278, 44.0335
1.532, 4, 35.9151, 48.1278, -14.08, 97.4483, -51.5278, 44.0335
1.536, 4, 35.9151, 48.1278, -14.08, 97.4483, -51.5278, 44.0335
1.54, 4, 35.9151, 48.1278, -14.08, 97.4483, -51.5278, 44.0335
1.544, 4, 35.9151, 48.1278, -14.08, 97.4483, -51.5278, 44.0335
1.548, 4, 35.9151, 48.1278, -14.08, 97.4483, -51.5278, 44.0335
1.552, 4, 35.9151, 48.1278, -14.08, 97.4483, -51.5278, 44.0335
1.556, 4, 35.9151, 48.1278, -14.08, 97.4483, -51.5278, 44.0335
1.56, 4, 35.915, 48.128, -14.08, 97.4483, -51.5279, 44.0335
1.564, 4, 35.9148, 48.1283, -14.08, 97.4483, -51.5279, 44.0335
1.568, 4, 35.9145, 48.1288, -14.08, 97.4483, -51.528, 44.0335
1.572, 4, 35.9141, 48.1297, -14.08, 97.4482, -51.5283, 44.0333
1.576, 4, 35.9135, 48.1307, -14.08, 97.4481, -51.5289, 44.0331
1.58, 4, 35.9128, 48.132, -14.0799, 97.448, -51.5298, 44.0328
1.584, 4, 35.9122, 48.1333, -14.0798, 97.4477, -51.5313, 44.0322
1.588, 4, 35.9116, 48.1348, -14.0797, 97.4473, -51.5335, 44.0314
1.592, 4, 35.911, 48.1362, -14.0796, 97.4469, -51.5365, 44.0302
1.596, 4, 35.9105, 48.1377, -14.0794, 97.4462, -51.5403, 44.0288
1.6, 4, 35.9101, 48.1393, -14.0791, 97.4454, -51.5452, 44.0269
1.604, 4, 35.9096, 48.141, -14.0788, 97.4444, -51.5511, 44.0247
1.608, 4, 35.9093, 48.1429, -14.0785, 97.4432, -51.5581, 44.022
1.612, 4, 35.909, 48.1448, -14.0781, 97.4419, -51.5661, 44.0189
1.616, 4, 35.9088, 48.1467, -14.0777, 97.4403, -51.5751, 44.0155
1.62, 4, 35.9087, 48.1486, -14.0772, 97.4387, -51.5851, 44.0117
1.624, 4, 35.9087, 48.1506, -14.0767, 97.4368, -51.5959, 44.0075
1.628, 4, 35.9087, 48.1527, -14.0761, 97.4348, -51.6075, 44.0031
1.632, 4, 35.9086, 48.1549, -14.0755, 97.4328, -51.6196, 43.9985
1.636, 4, 35.9085, 48.1574, -14.0749, 97.4307, -51.6322, 43.9937
1.64, 4, 35.9082, 48.1601, -14.0743, 97.4285, -51.6452, 43.9887
1.644, 4, 35.9078, 48.1631, -14.0736, 97.4262, -51.6583, 43.9837
1.648, 4, 35.9073, 48.1663, -14.0729, 97.424, -51.6716, 43.9786
1.652, 4, 35.9068, 48.1696, -14.0723, 97.4217, -51.6851, 43.9735
1.656, 4, 35.9062, 48.1729, -14.0716, 97.4194, -51.6986, 43.9683
1.66, 4, 35.9055, 48.1764, -14.0709, 97.4171, -51.7121, 43.9632
1.664, 4, 35.9049, 48.1799, -14.0702, 97.4147, -51.7257, 43.958
1.668, 4, 35.9042, 48.1834, -14.0695, 97.4124, -51.7393, 43.9528
1.672, 4, 35.9035, 48.1869, -14.0688, 97.4101, -51.7529, 43.9476
1.676, 4, 35.9028, 48.1905, -14.0681, 97.4078, -51.7665, 43.9425
1.68, 4, 35.9021, 48.194, -14.0674, 97.4054, -51.7801, 43.9373
1.684, 4, 35.9014, 48.1976, -14.0667, 97.4031, -51.7938, 43.9321
1.688, 4, 35.9007, 48.2012, -14.066, 97.4007, -51.8074, 43.9269
1.692, 4, 35.9, 48.2047, -14.0653, 97.3984, -51.821, 43.9217
1.696, 4, 35.8993, 48.2083, -14.0646, 97.396, -51.8347, 43.9165
1.7, 4, 35.8986, 48.2119, -14.0639, 97.3937, -51.8483, 43.9113
1.704, 4, 35.8979, 48.2154, -14.0632, 97.3913, -51.8619, 43.9061
1.708, 4, 35.8972, 48.219, -14.0625, 97.389, -51.8756, 43.901
1.712, 4, 35.8965, 48.2225, -14.0618, 97.3866, -51.8892, 43.8958
1.716, 4, 35.8958, 48.2261, -14.061, 97.3843, -51.9028, 43.8906
1.72, 4, 35.895, 48.2297, -14.0603, 97.3819, -51.9165, 43.8854
1.724, 4, 35.8943, 48.2332, -14.0596, 97.3796, -51.9301, 43.8802
1.728, 4, 35.8936, 48.2368, -14.0589, 97.3772, -51.9437, 43.8751
1.732, 4, 35.8929, 48.2403, -14.0581, 97.3748, -51.9574, 43.8699
1.736, 4, 35.8922, 48.2439, -14.0574, 97.3724, -51.971, 43.8647
1.74, 4, 35.8915, 48.2475, -14.0567, 97.3701, -51.9846, 43.8595
1.744, 4, 35.8907, 48.251, -14.0559, 97.3677, -51.9982, 43.8544
1.748, 4, 35.89, 48.2546, -14.0552, 97.3653, -52.0119, 43.8492
1.752, 4, 35.8893, 48.2581, -14.0545, 97.3629, -52.0255, 43.844
1.756, 4, 35.8886, 48.2617, -14.0537, 97.3605, -52.0391, 43.8389
1.76, 4, 35.8879, 48.2652, -14.053, 97.3582, -52.0527, 43.8337
1.764, 4, 35.8871, 48.2688, -14.0522, 97.3558, -52.0664, 43.8286
1.768, 4, 35.8864, 48.2723, -14.0515, 97.3534, -52.08, 43.8234
1.772, 4, 35.8857, 48.2759, -14.0507, 97.351, -52.0936, 43.8182
1.776, 4, 35.885, 48.2794, -14.05, 97.3486, -52.1072, 43.8131
1.78, 4, 35.8842, 48.2829, -14.0492, 97.3462, -52.1209, 43.8079
1.784, 4, 35.8835, 48.2865, -14.0484, 97.3438, -52.1345, 43.8028
1.788, 4, 35.8828, 48.29, -14.0477, 97.3414, -52.1481, 43.7976
1.792, 4, 35.8821, 48.2936, -14.0469, 97.339, -52.1617, 43.7925
1.796, 4, 35.8813, 48.2971, -14.0461, 97.3366, -52.1753, 43.7873
1.8, 4, 35.8806, 48.3006, -14.0454, 97.3342, -52.1889, 43.7822
1.804, 4, 35.8799, 48.3042, -14.0446, 97.3317, -52.2026, 43.777
1.808, 4, 35.8791, 48.3077, -14.0438, 97.3293, -52.2162, 43.7719
1.812, 4, 35.8784, 48.3112, -14.0431, 97.3269, -52.2298, 43.7667
1.816, 4, 35.8777, 48.3148, -14.0423, 97.3245, -52.2434, 43.7616
1.82, 4, 35.8769, 48.3183, -14.0415, 97.3221, -52.257, 43.7564
1.824, 4, 35.8762, 48.3218, -14.0407, 97.3196, -52.2706, 43.7513
1.828, 4, 35.8755, 48.3253, -14.0399, 97.3172, -52.2842, 43.7462
1.832, 4, 35.8747, 48.3289, -14.0391, 97.3148, -52.2978, 43.741
1.836, 4, 35.874, 48.3324, -14.0383, 97.3124, -52.3114, 43.7359
1.84, 4, 35.8733, 48.3359, -14.0376, 97.3099, -52.3251, 43.7308
1.844, 4, 35.8725, 48.3394, -14.0368, 97.3075, -52.3387, 43.7256
1.848, 4, 35.8718, 48.343, -14.036, 97.305, -52.3523, 43.7205
1.852, 4, 35.871, 48.3465, -14.0352, 97.3026, -52.3659, 43.7154
1.856, 4, 35.8703, 48.35, -14.0344, 97.3002, -52.3795, 43.7102
1.86, 4, 35.8696, 48.3535, -14.0336, 97.2977, -52.3931, 43.7051
1.864, 4, 35.8688, 48.357, -14.0327, 97.2953, -52.4067, 43.7
1.868, 4, 35.8681, 48.3605, -14.0319, 97.2928, -52.4203, 43.6949
1.872, 4, 35.8673, 48.3641, -14.0311, 97.2904, -52.4339, 43.6898
1.876, 4, 35.8666, 48.3676, -14.0303, 97.2879, -52.4475, 43.6846
1.88, 4, 35.8658, 48.3711, -14.0295, 97.2855, -52.4611, 43.6795
1.884, 4, 35.8651, 48.3746, -14.0287, 97.283, -52.4747, 43.6744
1.888, 4, 35.8644, 48.3781, -14.0279, 97.2805, -52.4883, 43.6693
1.892, 4, 35.8636, 48.3816, -14.027, 97.2781, -52.5019, 43.6642
1.896, 4, 35.8629, 48.3851, -14.0262, 97.2756, -52.5154, 43.6591
1.9, 4, 35.8621, 48.3886, -14.0254, 97.2731, -52.529, 43.6539
1.904, 4, 35.8614, 48.3921, -14.0246, 97.2706, -52.5426, 43.6488
1.908, 4, 35.8606, 48.3956, -14.0237, 97.2682, -52.5562, 43.6437
1.912, 4, 35.8599, 48.3991, -14.0229, 97.2657, -52.5698, 43.6386
1.916, 4, 35.8591, 48.4026, -14.022, 97.2632, -52.5834, 43.6335
1.92, 4, 35.8584, 48.4061, -14.0212, 97.2607, -52.597, 43.6284
1.924, 4, 35.8576, 48.4096, -14.0204, 97.2582, -52.6106, 43.6233
1.928, 4, 35.8568, 48.4131, -14.0195, 97.2558, -52.6242, 43.6182
1.932, 4, 35.8561, 48.4166, -14.0187, 97.2533, -52.6378, 43.6131
1.936, 4, 35.8553, 48.4201, -14.0178, 97.2508, -52.6513, 43.608
1.94, 4, 35.8546, 48.4236, -14.017, 97.2483, -52.6649, 43.6029
1.944, 4, 35.8538, 48.4271, -14.0161, 97.2458, -52.6785, 43.5978
1.948, 4, 35.8531, 48.4306, -14.0153, 97.2433, -52.6921, 43.5927
1.952, 4, 35.8523, 48.434, -14.0144, 97.2408, -52.7057, 43.5876
1.956, 4, 35.8516, 48.4375, -14.0136, 97.2383, -52.7193, 43.5825
1.96, 4, 35.8508, 48.441, -14.0127, 97.2358, -52.7328, 43.5775
1.964, 4, 35.85, 48.4445, -14.0118, 97.2333, -52.7464, 43.5724
1.968, 4, 35.8493, 48.448, -14.011, 97.2308, -52.76, 43.5673
1.972, 4, 35.8485, 48.4515, -14.0101, 97.2283, -52.7736, 43.5622
1.976, 4, 35.8477, 48.4549, -14.0092, 97.2257, -52.7871, 43.5571
1.98, 4, 35.847, 48.4584, -14.0083, 97.2232, -52.8007, 43.552
1.984, 4, 35.8462, 48.4619, -14.0075, 97.2207, -52.8143, 43.547
1.988, 4, 35.8454, 48.4654, -14.0066, 97.2182, -52.8279, 43.5419
1.992, 4, 35.8447, 48.4688, -14.0057, 97.2157, -52.8414, 43.5368
1.996, 4, 35.8439, 48.4723, -14.0048, 97.2131, -52.855, 43.5317
1.999, 4, 35.8431, 48.4758, -14.0039, 97.2106, -52.8686, 43.5266
2.004, 4, 35.8424, 48.4793, -14.003, 97.2081, -52.8822, 43.5216
2.008, 4, 35.8416, 48.4827, -14.0022, 97.2055, -52.8957, 43.5165
2.012, 4, 35.8408, 48.4862, -14.0013, 97.203, -52.9093, 43.5114
2.015, 4, 35.8401, 48.4897, -14.0004, 97.2005, -52.9229, 43.5064
2.019, 4, 35.8393, 48.4931, -13.9995, 97.1979, -52.9364, 43.5013
2.024, 4, 35.8385, 48.4966, -13.9986, 97.1954, -52.95, 43.4962
2.028, 4, 35.8377, 48.5, -13.9977, 97.1928, -52.9636, 43.4912
2.031, 4, 35.837, 48.5035, -13.9968, 97.1903, -52.9771, 43.4861
2.036, 4, 35.8362, 48.507, -13.9958, 97.1878, -52.9907, 43.481
2.04, 4, 35.8354, 48.5104, -13.9949, 97.1852, -53.0043, 43.476
2.044, 4, 35.8346, 48.5139, -13.994, 97.1826, -53.0178, 43.4709
2.048, 4, 35.8339, 48.5173, -13.9931, 97.1801, -53.0314, 43.4659
2.051, 4, 35.8331, 48.5208, -13.9922, 97.1775, -53.0449, 43.4608
2.055, 4, 35.8323, 48.5242, -13.9913, 97.175, -53.0585, 43.4558
2.06, 4, 35.8315, 48.5277, -13.9904, 97.1724, -53.0721, 43.4507
2.064, 4, 35.8307, 48.5311, -13.9894, 97.1698, -53.0856, 43.4457
2.068, 4, 35.83, 48.5346, -13.9885, 97.1673, -53.0992, 43.4406
2.071, 4, 35.8292, 48.538, -13.9876, 97.1647, -53.1127, 43.4356
2.076, 4, 35.8284, 48.5415, -13.9866, 97.1621, -53.1263, 43.4305
2.08, 4, 35.8276, 48.5449, -13.9857, 97.1596, -53.1398, 43.4255
2.084, 4, 35.8268, 48.5484, -13.9848, 97.157, -53.1534, 43.4204
2.087, 4, 35.826, 48.5518, -13.9838, 97.1544, -53.1669, 43.4154
2.092, 4, 35.8253, 48.5553, -13.9829, 97.1518, -53.1805, 43.4103
2.096, 4, 35.8245, 48.5587, -13.982, 97.1492, -53.194, 43.4053
2.1, 4, 35.8237, 48.5621, -13.981, 97.1466, -53.2076, 43.4003
2.104, 4, 35.8229, 48.5656, -13.9801, 97.1441, -53.2211, 43.3952
2.107, 4, 35.8221, 48.569, -13.9791, 97.1415, -53.2347, 43.3902
2.111, 4, 35.8213, 48.5724, -13.9782, 97.1389, -53.2482, 43.3852
2.116, 4, 35.8205, 48.5759, -13.9772, 97.1363, -53.2618, 43.3801
2.12, 4, 35.8197, 48.5793, -13.9762, 97.1337, -53.2753, 43.3751
2.124, 4, 35.8189, 48.5827, -13.9753, 97.1311, -53.2889, 43.3701
2.127, 4, 35.8182, 48.5862, -13.9743, 97.1285, -53.3024, 43.365
2.132, 4, 35.8174, 48.5896, -13.9734, 97.1259, -53.316, 43.36
2.136, 4, 35.8166, 48.593, -13.9724, 97.1233, -53.3295, 43.355
2.14, 4, 35.8158, 48.5965, -13.9714, 97.1207, -53.343, 43.35
2.143, 4, 35.815, 48.5999, -13.9705, 97.118, -53.3566, 43.3449
2.148, 4, 35.8142, 48.6033, -13.9695, 97.1154, -53.3701, 43.3399
2.152, 4, 35.8134, 48.6067, -13.9685, 97.1128, -53.3837, 43.3349
2.156, 4, 35.8126, 48.6101, -13.9675, 97.1102, -53.3972, 43.3299
2.16, 4, 35.8118, 48.6136, -13.9665, 97.1076, -53.4107, 43.3249
2.163, 4, 35.811, 48.617, -13.9656, 97.105, -53.4243, 43.3198
2.168, 4, 35.8102, 48.6204, -13.9646, 97.1023, -53.4378, 43.3148
2.172, 4, 35.8094, 48.6238, -13.9636, 97.0997, -53.4513, 43.3098
2.176, 4, 35.8086, 48.6272, -13.9626, 97.0971, -53.4649, 43.3048
2.179, 4, 35.8078, 48.6306, -13.9616, 97.0944, -53.4784, 43.2998
2.184, 4, 35.807, 48.634, -13.9606, 97.0918, -53.4919, 43.2948
2.188, 4, 35.8062, 48.6374, -13.9596, 97.0892, -53.5055, 43.2898
2.192, 4, 35.8054, 48.6409, -13.9586, 97.0865, -53.519, 43.2848
2.196, 4, 35.8046, 48.6443, -13.9576, 97.0839, -53.5325, 43.2798
2.199, 4, 35.8037, 48.6477, -13.9566, 97.0813, -53.546, 43.2748
2.204, 4, 35.8029, 48.6511, -13.9556, 97.0786, -53.5596, 43.2698
2.208, 4, 35.8021, 48.6545, -13.9546, 97.076, -53.5731, 43.2648
2.212, 4, 35.8013, 48.6579, -13.9536, 97.0733, -53.5866, 43.2598
2.216, 4, 35.8005, 48.6613, -13.9526, 97.0707, -53.6001, 43.2548
2.219, 4, 35.7997, 48.6647, -13.9515, 97.068, -53.6137, 43.2498
2.224, 4, 35.7989, 48.6681, -13.9505, 97.0653, -53.6272, 43.2448
2.228, 4, 35.7981, 48.6715, -13.9495, 97.0627, -53.6407, 43.2398
2.232, 4, 35.7973, 48.6749, -13.9485, 97.06, -53.6542, 43.2348
2.235, 4, 35.7965, 48.6783, -13.9475, 97.0574, -53.6677, 43.2298
2.24, 4, 35.7956, 48.6816, -13.9464, 97.0547, -53.6813, 43.2248
2.244, 4, 35.7948, 48.685, -13.9454, 97.052, -53.6948, 43.2198
2.248, 4, 35.794, 48.6884, -13.9444, 97.0494, -53.7083, 43.2148
2.252, 4, 35.7932, 48.6918, -13.9433, 97.0467, -53.7218, 43.2098
2.255, 4, 35.7924, 48.6952, -13.9423, 97.044, -53.7353, 43.2048
2.259, 4, 35.7915, 48.6986, -13.9412, 97.0413, -53.7488, 43.1999
2.264, 4, 35.7907, 48.702, -13.9402, 97.0387, -53.7624, 43.1949
2.268, 4, 35.7899, 48.7054, -13.9392, 97.036, -53.7759, 43.1899
2.272, 4, 35.7891, 48.7087, -13.9381, 97.0333, -53.7894, 43.1849
2.275, 4, 35.7883, 48.7121, -13.9371, 97.0306, -53.8029, 43.1799
2.28, 4, 35.7874, 48.7155, -13.936, 97.0279, -53.8164, 43.175
2.284, 4, 35.7866, 48.7189, -13.9349, 97.0252, -53.8299, 43.17
2.288, 4, 35.7858, 48.7222, -13.9339, 97.0225, -53.8434, 43.165
2.291, 4, 35.785, 48.7256, -13.9328, 97.0198, -53.8569, 43.16
2.296, 4, 35.7841, 48.729, -13.9318, 97.0171, -53.8704, 43.1551
2.3, 4, 35.7833, 48.7324, -13.9307, 97.0144, -53.8839, 43.1501
2.304, 4, 35.7825, 48.7357, -13.9296, 97.0117, -53.8974, 43.1451
2.308, 4, 35.7817, 48.7391, -13.9286, 97.009, -53.9109, 43.1402
2.311, 4, 35.7808, 48.7425, -13.9275, 97.0063, -53.9244, 43.1352
2.316, 4, 35.78, 48.7458, -13.9264, 97.0036, -53.938, 43.1302
2.32, 4, 35.7792, 48.7492, -13.9253, 97.0009, -53.9514, 43.1253
2.324, 4, 35.7783, 48.7526, -13.9243, 96.9982, -53.9649, 43.1203
2.328, 4, 35.7775, 48.7559, -13.9232, 96.9955, -53.9784, 43.1154
2.331, 4, 35.7767, 48.7593, -13.9221, 96.9928, -53.9919, 43.1104
2.336, 4, 35.7759, 48.7626, -13.921, 96.99, -54.0054, 43.1054
2.34, 4, 35.775, 48.766, -13.9199, 96.9873, -54.0189, 43.1005
2.344, 4, 35.7742, 48.7694, -13.9188, 96.9846, -54.0324, 43.0955
2.347, 4, 35.7733, 48.7727, -13.9177, 96.9819, -54.0459, 43.0906
2.352, 4, 35.7725, 48.7761, -13.9166, 96.9791, -54.0594, 43.0856
2.356, 4, 35.7717, 48.7794, -13.9155, 96.9764, -54.0729, 43.0807
2.36, 4, 35.7708, 48.7828, -13.9144, 96.9737, -54.0864, 43.0757
2.364, 4, 35.77, 48.7861, -13.9133, 96.9709, -54.0999, 43.0708
2.367, 4, 35.7692, 48.7895, -13.9122, 96.9682, -54.1134, 43.0658
2.372, 4, 35.7683, 48.7928, -13.9111, 96.9655, -54.1269, 43.0609
2.376, 4, 35.7675, 48.7962, -13.91, 96.9627, -54.1404, 43.0559
2.38, 4, 35.7666, 48.7995, -13.9089, 96.96, -54.1539, 43.051
2.383, 4, 35.7658, 48.8029, -13.9078, 96.9572, -54.1673, 43.0461
2.388, 4, 35.7649, 48.8062, -13.9067, 96.9545, -54.1808, 43.0411
2.392, 4, 35.7641, 48.8095, -13.9056, 96.9517, -54.1943, 43.0362
2.396, 4, 35.7633, 48.8129, -13.9044, 96.949, -54.2078, 43.0312
2.4, 4, 35.7624, 48.8162, -13.9033, 96.9462, -54.2213, 43.0263
2.403, 4, 35.7616, 48.8195, -13.9022, 96.9435, -54.2348, 43.0214
2.408, 4, 35.7607, 48.8229, -13.901, 96.9407, -54.2482, 43.0164
2.412, 4, 35.7599, 48.8262, -13.8999, 96.938, -54.2617, 43.0115
2.416, 4, 35.759, 48.8295, -13.8988, 96.9352, -54.2752, 43.0066
2.42, 4, 35.7582, 48.8329, -13.8976, 96.9324, -54.2887, 43.0016
2.423, 4, 35.7573, 48.8362, -13.8965, 96.9297, -54.3022, 42.9967
2.428, 4, 35.7565, 48.8395, -13.8954, 96.9269, -54.3156, 42.9918
2.432, 4, 35.7556, 48.8429, -13.8942, 96.9241, -54.3291, 42.9869
2.436, 4, 35.7548, 48.8462, -13.8931, 96.9213, -54.3426, 42.9819
2.439, 4, 35.7539, 48.8495, -13.8919, 96.9186, -54.3561, 42.977
2.444, 4, 35.7531, 48.8528, -13.8908, 96.9158, -54.3695, 42.9721
2.448, 4, 35.7522, 48.8562, -13.8896, 96.913, -54.383, 42.9672
2.452, 4, 35.7513, 48.8595, -13.8885, 96.9102, -54.3965, 42.9623
2.456, 4, 35.7505, 48.8628, -13.8873, 96.9074, -54.41, 42.9573
2.459, 4, 35.7496, 48.8661, -13.8861, 96.9046, -54.4234, 42.9524
2.464, 4, 35.7488, 48.8694, -13.885, 96.9019, -54.4369, 42.9475
2.468, 4, 35.7479, 48.8727, -13.8838, 96.8991, -54.4504, 42.9426
2.472, 4, 35.747, 48.8761, -13.8826, 96.8963, -54.4638, 42.9377
2.476, 4, 35.7462, 48.8794, -13.8815, 96.8935, -54.4773, 42.9328
2.479, 4, 35.7453, 48.8827, -13.8803, 96.8907, -54.4908, 42.9279
2.484, 4, 35.7445, 48.886, -13.8791, 96.8879, -54.5042, 42.9229
2.488, 4, 35.7436, 48.8893, -13.8779, 96.8851, -54.5177, 42.918
2.492, 4, 35.7427, 48.8926, -13.8768, 96.8823, -54.5311, 42.9131
2.495, 4, 35.7419, 48.8959, -13.8756, 96.8795, -54.5446, 42.9082
2.5, 4, 35.741, 48.8992, -13.8744, 96.8766, -54.5581, 42.9033
2.504, 4, 35.7401, 48.9025, -13.8732, 96.8738, -54.5715, 42.8984
2.508, 4, 35.7393, 48.9058, -13.872, 96.871, -54.585, 42.8935
2.512, 4, 35.7384, 48.9091, -13.8708, 96.8682, -54.5984, 42.8886
2.515, 4, 35.7375, 48.9124, -13.8696, 96.8654, -54.6119, 42.8837
2.52, 4, 35.7367, 48.9157, -13.8684, 96.8626, -54.6254, 42.8788
2.524, 4, 35.7358, 48.919, -13.8672, 96.8597, -54.6388, 42.8739
2.528, 4, 35.7349, 48.9223, -13.866, 96.8569, -54.6523, 42.869
2.531, 4, 35.7341, 48.9256, -13.8648, 96.8541, -54.6657, 42.8641
2.536, 4, 35.7332, 48.9289, -13.8636, 96.8513, -54.6792, 42.8592
2.54, 4, 35.7323, 48.9322, -13.8624, 96.8484, -54.6926, 42.8543
2.544, 4, 35.7314, 48.9355, -13.8612, 96.8456, -54.7061, 42.8495
2.548, 4, 35.7306, 48.9387, -13.86, 96.8428, -54.7195, 42.8446
2.551, 4, 35.7297, 48.942, -13.8587, 96.8399, -54.733, 42.8397
2.556, 4, 35.7288, 48.9453, -13.8575, 96.8371, -54.7464, 42.8348
2.56, 4, 35.7279, 48.9486, -13.8563, 96.8342, -54.7599, 42.8299
2.564, 4, 35.727, 48.9519, -13.8551, 96.8314, -54.7733, 42.825
2.568, 4, 35.7262, 48.9552, -13.8539, 96.8286, -54.7868, 42.8201
2.571, 4, 35.7253, 48.9584, -13.8526, 96.8257, -54.8002, 42.8153
2.576, 4, 35.7244, 48.9617, -13.8514, 96.8229, -54.8137, 42.8104
2.58, 4, 35.7235, 48.965, -13.8502, 96.82, -54.8271, 42.8055
2.584, 4, 35.7226, 48.9683, -13.8489, 96.8172, -54.8405, 42.8006
2.587, 4, 35.7218, 48.9715, -13.8477, 96.8143, -54.854, 42.7957
2.592, 4, 35.7209, 48.9748, -13.8464, 96.8114, -54.8674, 42.7909
2.596, 4, 35.72, 48.9781, -13.8452, 96.8086, -54.8809, 42.786
2.6, 4, 35.7191, 48.9813, -13.8439, 96.8057, -54.8943, 42.7811
2.604, 4, 35.7182, 48.9846, -13.8427, 96.8029, -54.9078, 42.7762
2.607, 4, 35.7173, 48.9879, -13.8414, 96.8, -54.9212, 42.7714
2.612, 4, 35.7164, 48.9911, -13.8402, 96.7971, -54.9346, 42.7665
2.616, 4, 35.7156, 48.9944, -13.8389, 96.7943, -54.9481, 42.7616
2.62, 4, 35.7147, 48.9977, -13.8377, 96.7914, -54.9615, 42.7568
2.624, 4, 35.7138, 49.0009, -13.8364, 96.7885, -54.9749, 42.7519
2.627, 4, 35.7129, 49.0042, -13.8351, 96.7856, -54.9884, 42.747
2.632, 4, 35.712, 49.0074, -13.8339, 96.7827, -55.0018, 42.7422
2.636, 4, 35.7111, 49.0107, -13.8326, 96.7799, -55.0152, 42.7373
2.64, 4, 35.7102, 49.0139, -13.8313, 96.777, -55.0287, 42.7324
2.643, 4, 35.7093, 49.0172, -13.8301, 96.7741, -55.0421, 42.7276
2.648, 4, 35.7084, 49.0205, -13.8288, 96.7712, -55.0555, 42.7227
2.652, 4, 35.7075, 49.0237, -13.8275, 96.7683, -55.0689, 42.7179
2.656, 4, 35.7066, 49.027, -13.8262, 96.7654, -55.0824, 42.713
2.66, 4, 35.7057, 49.0302, -13.8249, 96.7625, -55.0958, 42.7081
2.663, 4, 35.7048, 49.0334, -13.8237, 96.7596, -55.1092, 42.7033
2.668, 4, 35.7039, 49.0367, -13.8224, 96.7567, -55.1226, 42.6984
2.672, 4, 35.703, 49.0399, -13.8211, 96.7538, -55.1361, 42.6936
2.676, 4, 35.7021, 49.0432, -13.8198, 96.7509, -55.1495, 42.6887
2.679, 4, 35.7012, 49.0464, -13.8185, 96.748, -55.1629, 42.6839
2.684, 4, 35.7003, 49.0497, -13.8172, 96.7451, -55.1763, 42.679
2.688, 4, 35.6994, 49.0529, -13.8159, 96.7422, -55.1898, 42.6742
2.692, 4, 35.6985, 49.0561, -13.8146, 96.7393, -55.2032, 42.6693
2.696, 4, 35.6976, 49.0594, -13.8133, 96.7364, -55.2166, 42.6645
2.699, 4, 35.6967, 49.0626, -13.812, 96.7335, -55.23, 42.6596
2.704, 4, 35.6958, 49.0658, -13.8107, 96.7306, -55.2434, 42.6548
2.708, 4, 35.6949, 49.0691, -13.8093, 96.7276, -55.2568, 42.65
2.712, 4, 35.694, 49.0723, -13.808, 96.7247, -55.2703, 42.6451
2.716, 4, 35.6931, 49.0755, -13.8067, 96.7218, -55.2837, 42.6403
2.719, 4, 35.6922, 49.0787, -13.8054, 96.7189, -55.2971, 42.6354
2.724, 4, 35.6913, 49.082, -13.8041, 96.7159, -55.3105, 42.6306
2.728, 4, 35.6904, 49.0852, -13.8027, 96.713, -55.3239, 42.6258
2.732, 4, 35.6895, 49.0884, -13.8014, 96.7101, -55.3373, 42.6209
2.735, 4, 35.6886, 49.0916, -13.8001, 96.7071, -55.3507, 42.6161
2.74, 4, 35.6876, 49.0949, -13.7987, 96.7042, -55.3641, 42.6113
2.744, 4, 35.6867, 49.0981, -13.7974, 96.7013, -55.3776, 42.6064
2.748, 4, 35.6858, 49.1013, -13.7961, 96.6983, -55.391, 42.6016
2.752, 4, 35.6849, 49.1045, -13.7947, 96.6954, -55.4044, 42.5968
2.755, 4, 35.684, 49.1077, -13.7934, 96.6925, -55.4178, 42.592
2.76, 4, 35.6831, 49.1109, -13.792, 96.6895, -55.4312, 42.5871
2.764, 4, 35.6821, 49.1142, -13.7907, 96.6865, -55.4446, 42.5823
2.768, 4, 35.6812, 49.1174, -13.7894, 96.6836, -55.458, 42.5775
2.772, 4, 35.6803, 49.1206, -13.788, 96.6806, -55.4714, 42.5727
2.775, 4, 35.6794, 49.1238, -13.7866, 96.6777, -55.4848, 42.5678
2.78, 4, 35.6785, 49.127, -13.7853, 96.6747, -55.4982, 42.563
2.784, 4, 35.6776, 49.1302, -13.7839, 96.6718, -55.5116, 42.5582
2.788, 4, 35.6766, 49.1334, -13.7826, 96.6688, -55.525, 42.5534
2.791, 4, 35.6757, 49.1366, -13.7812, 96.6659, -55.5384, 42.5486
2.796, 4, 35.6748, 49.1398, -13.7798, 96.6629, -55.5518, 42.5437
2.8, 4, 35.6739, 49.143, -13.7785, 96.6599, -55.5652, 42.5389
2.804, 4, 35.6729, 49.1462, -13.7771, 96.657, -55.5786, 42.5341
2.808, 4, 35.672, 49.1494, -13.7757, 96.654, -55.592, 42.5293
2.811, 4, 35.6711, 49.1526, -13.7743, 96.651, -55.6054, 42.5245
2.816, 4, 35.6702, 49.1558, -13.773, 96.648, -55.6188, 42.5197
2.82, 4, 35.6692, 49.159, -13.7716, 96.6451, -55.6321, 42.5149
2.824, 4, 35.6683, 49.1622, -13.7702, 96.6421, -55.6455, 42.5101
2.828, 4, 35.6674, 49.1653, -13.7688, 96.6391, -55.6589, 42.5053
2.831, 4, 35.6664, 49.1685, -13.7674, 96.6361, -55.6723, 42.5005
2.836, 4, 35.6655, 49.1717, -13.766, 96.6331, -55.6857, 42.4956
2.84, 4, 35.6646, 49.1749, -13.7646, 96.6301, -55.6991, 42.4908
2.844, 4, 35.6636, 49.1781, -13.7632, 96.6272, -55.7125, 42.486
2.847, 4, 35.6627, 49.1813, -13.7618, 96.6242, -55.7259, 42.4812
2.852, 4, 35.6618, 49.1844, -13.7604, 96.6212, -55.7392, 42.4764
2.856, 4, 35.6608, 49.1876, -13.759, 96.6182, -55.7526, 42.4716
2.86, 4, 35.6599, 49.1908, -13.7576, 96.6152, -55.766, 42.4668
2.864, 4, 35.659, 49.194, -13.7562, 96.6122, -55.7794, 42.462
2.867, 4, 35.658, 49.1972, -13.7548, 96.6092, -55.7928, 42.4572
2.872, 4, 35.6571, 49.2003, -13.7534, 96.6062, -55.8062, 42.4524
2.876, 4, 35.6562, 49.2035, -13.752, 96.6032, -55.8195, 42.4477
2.88, 4, 35.6552, 49.2067, -13.7506, 96.6002, -55.8329, 42.4429
2.883, 4, 35.6543, 49.2098, -13.7491, 96.5972, -55.8463, 42.4381
2.888, 4, 35.6533, 49.213, -13.7477, 96.5942, -55.8597, 42.4333
2.892, 4, 35.6524, 49.2162, -13.7463, 96.5911, -55.8731, 42.4285
2.896, 4, 35.6515, 49.2193, -13.7449, 96.5881, -55.8864, 42.4237
2.9, 4, 35.6505, 49.2225, -13.7434, 96.5851, -55.8998, 42.4189
2.903, 4, 35.6496, 49.2257, -13.742, 96.5821, -55.9132, 42.4141
2.908, 4, 35.6486, 49.2288, -13.7406, 96.5791, -55.9266, 42.4093
2.912, 4, 35.6477, 49.232, -13.7391, 96.576, -55.9399, 42.4046
2.916, 4, 35.6467, 49.2351, -13.7377, 96.573, -55.9533, 42.3998
2.92, 4, 35.6458, 49.2383, -13.7362, 96.57, -55.9667, 42.395
2.923, 4, 35.6448, 49.2415, -13.7348, 96.567, -55.98, 42.3902
2.928, 4, 35.6439, 49.2446, -13.7334, 96.5639, -55.9934, 42.3854
2.932, 4, 35.6429, 49.2478, -13.7319, 96.5609, -56.0068, 42.3807
2.936, 4, 35.642, 49.2509, -13.7305, 96.5579, -56.0201, 42.3759
2.939, 4, 35.641, 49.2541, -13.729, 96.5548, -56.0335, 42.3711
2.944, 4, 35.6401, 49.2572, -13.7275, 96.5518, -56.0469, 42.3663
2.948, 4, 35.6391, 49.2604, -13.7261, 96.5487, -56.0602, 42.3616
2.952, 4, 35.6382, 49.2635, -13.7246, 96.5457, -56.0736, 42.3568
2.956, 4, 35.6372, 49.2666, -13.7232, 96.5427, -56.087, 42.352
2.959, 4, 35.6363, 49.2698, -13.7217, 96.5396, -56.1003, 42.3472
2.964, 4, 35.6353, 49.2729, -13.7202, 96.5366, -56.1137, 42.3425
2.968, 4, 35.6344, 49.2761, -13.7187, 96.5335, -56.127, 42.3377
2.972, 4, 35.6334, 49.2792, -13.7173, 96.5305, -56.1404, 42.3329
2.976, 4, 35.6324, 49.2823, -13.7158, 96.5274, -56.1538, 42.3282
2.98, 4, 35.6315, 49.2855, -13.7143, 96.5243, -56.1671, 42.3234
2.984, 4, 35.6305, 49.2886, -13.7128, 96.5213, -56.1805, 42.3186
2.988, 4, 35.6296, 49.2917, -13.7114, 96.5182, -56.1938, 42.3139
2.992, 4, 35.6286, 49.2949, -13.7099, 96.5152, -56.2072, 42.3091
2.995, 4, 35.6276, 49.298, -13.7084, 96.5121, -56.2205, 42.3044
3, 4, 35.6267, 49.3011, -13.7069, 96.509, -56.2339, 42.2996
3.004, 4, 35.6257, 49.3043, -13.7054, 96.506, -56.2473, 42.2948
3.008, 4, 35.6247, 49.3074, -13.7039, 96.5029, -56.2606, 42.2901
3.012, 4, 35.6238, 49.3105, -13.7024, 96.4998, -56.274, 42.2853
3.015, 4, 35.6228, 49.3136, -13.7009, 96.4967, -56.2873, 42.2806
3.02, 4, 35.6219, 49.3168, -13.6994, 96.4937, -56.3007, 42.2758
3.024, 4, 35.6209, 49.3199, -13.6979, 96.4906, -56.314, 42.2711
3.028, 4, 35.6199, 49.323, -13.6964, 96.4875, -56.3274, 42.2663
3.031, 4, 35.6189, 49.3261, -13.6949, 96.4844, -56.3407, 42.2616
3.036, 4, 35.618, 49.3292, -13.6934, 96.4813, -56.354, 42.2568
3.04, 4, 35.617, 49.3323, -13.6918, 96.4782, -56.3674, 42.2521
3.044, 4, 35.616, 49.3355, -13.6903, 96.4752, -56.3807, 42.2473
3.048, 4, 35.6151, 49.3386, -13.6888, 96.4721, -56.3941, 42.2426
3.051, 4, 35.6141, 49.3417, -13.6873, 96.469, -56.4074, 42.2378
3.056, 4, 35.6131, 49.3448, -13.6858, 96.4659, -56.4208, 42.2331
3.06, 4, 35.6121, 49.3479, -13.6842, 96.4628, -56.4341, 42.2283
3.064, 4, 35.6112, 49.351, -13.6827, 96.4597, -56.4474, 42.2236
3.068, 4, 35.6102, 49.3541, -13.6812, 96.4566, -56.4608, 42.2188
3.071, 4, 35.6092, 49.3572, -13.6796, 96.4535, -56.4741, 42.2141
3.076, 4, 35.6082, 49.3603, -13.6781, 96.4504, -56.4875, 42.2094
3.08, 4, 35.6073, 49.3634, -13.6766, 96.4473, -56.5008, 42.2046
3.084, 4, 35.6063, 49.3665, -13.675, 96.4442, -56.5141, 42.1999
3.087, 4, 35.6053, 49.3696, -13.6735, 96.441, -56.5275, 42.1952
3.092, 4, 35.6043, 49.3727, -13.6719, 96.4379, -56.5408, 42.1904
3.096, 4, 35.6033, 49.3758, -13.6704, 96.4348, -56.5541, 42.1857
3.1, 4, 35.6024, 49.3789, -13.6688, 96.4317, -56.5675, 42.181
3.104, 4, 35.6014, 49.382, -13.6673, 96.4286, -56.5808, 42.1762
3.107, 4, 35.6004, 49.3851, -13.6657, 96.4255, -56.5941, 42.1715
3.112, 4, 35.5994, 49.3881, -13.6641, 96.4223, -56.6075, 42.1668
3.116, 4, 35.5984, 49.3912, -13.6626, 96.4192, -56.6208, 42.162
3.12, 4, 35.5974, 49.3943, -13.661, 96.4161, -56.6341, 42.1573
3.124, 4, 35.5965, 49.3974, -13.6595, 96.413, -56.6475, 42.1526
3.128, 4, 35.5955, 49.4005, -13.6579, 96.4098, -56.6608, 42.1479
3.132, 4, 35.5945, 49.4036, -13.6563, 96.4067, -56.6741, 42.1431
3.136, 4, 35.5935, 49.4067, -13.6547, 96.4036, -56.6874, 42.1384
3.14, 4, 35.5925, 49.4097, -13.6532, 96.4004, -56.7007, 42.1337
3.143, 4, 35.5915, 49.4128, -13.6516, 96.3973, -56.7141, 42.129
3.148, 4, 35.5905, 49.4159, -13.65, 96.3941, -56.7274, 42.1242
3.152, 4, 35.5895, 49.419, -13.6484, 96.391, -56.7407, 42.1195
3.156, 4, 35.5885, 49.422, -13.6468, 96.3879, -56.754, 42.1148
3.16, 4, 35.5875, 49.4251, -13.6452, 96.3847, -56.7674, 42.1101
3.163, 4, 35.5866, 49.4282, -13.6437, 96.3816, -56.7807, 42.1054
3.168, 4, 35.5856, 49.4312, -13.6421, 96.3784, -56.794, 42.1006
3.172, 4, 35.5846, 49.4343, -13.6405, 96.3753, -56.8073, 42.0959
3.176, 4, 35.5836, 49.4374, -13.6389, 96.3721, -56.8206, 42.0912
3.179, 4, 35.5826, 49.4404, -13.6373, 96.369, -56.834, 42.0865
3.184, 4, 35.5816, 49.4435, -13.6357, 96.3658, -56.8473, 42.0818
3.188, 4, 35.5806, 49.4466, -13.6341, 96.3626, -56.8606, 42.0771
3.192, 4, 35.5796, 49.4496, -13.6324, 96.3595, -56.8739, 42.0724
3.196, 4, 35.5786, 49.4527, -13.6308, 96.3563, -56.8872, 42.0677
3.199, 4, 35.5776, 49.4557, -13.6292, 96.3531, -56.9005, 42.063
3.204, 4, 35.5766, 49.4588, -13.6276, 96.35, -56.9138, 42.0583
3.208, 4, 35.5756, 49.4619, -13.626, 96.3468, -56.9271, 42.0535
3.212, 4, 35.5746, 49.4649, -13.6244, 96.3437, -56.9404, 42.0488
3.216, 4, 35.5736, 49.468, -13.6228, 96.3405, -56.9538, 42.0441
3.22, 4, 35.5726, 49.471, -13.6211, 96.3373, -56.9671, 42.0394
3.224, 4, 35.5715, 49.4741, -13.6195, 96.3341, -56.9804, 42.0347
3.228, 4, 35.5705, 49.4771, -13.6179, 96.3309, -56.9937, 42.03
3.232, 4, 35.5695, 49.4802, -13.6162, 96.3278, -57.007, 42.0253
3.235, 4, 35.5685, 49.4832, -13.6146, 96.3246, -57.0203, 42.0206
3.24, 4, 35.5675, 49.4862, -13.613, 96.3214, -57.0336, 42.0159
3.244, 4, 35.5665, 49.4893, -13.6113, 96.3182, -57.0469, 42.0112
3.248, 4, 35.5655, 49.4923, -13.6097, 96.315, -57.0602, 42.0065
3.252, 4, 35.5645, 49.4954, -13.608, 96.3118, -57.0735, 42.0019
3.255, 4, 35.5635, 49.4984, -13.6064, 96.3086, -57.0868, 41.9972
3.26, 4, 35.5625, 49.5014, -13.6047, 96.3054, -57.1001, 41.9925
3.264, 4, 35.5615, 49.5045, -13.6031, 96.3022, -57.1134, 41.9878
3.268, 4, 35.5604, 49.5075, -13.6014, 96.299, -57.1267, 41.9831
3.272, 4, 35.5594, 49.5105, -13.5998, 96.2958, -57.14, 41.9784
3.276, 4, 35.5584, 49.5136, -13.5981, 96.2926, -57.1533, 41.9737
3.28, 4, 35.5574, 49.5166, -13.5965, 96.2894, -57.1666, 41.969
3.284, 4, 35.5564, 49.5196, -13.5948, 96.2862, -57.1799, 41.9643
3.288, 4, 35.5554, 49.5226, -13.5931, 96.283, -57.1932, 41.9596
3.291, 4, 35.5543, 49.5257, -13.5915, 96.2798, -57.2065, 41.955
3.296, 4, 35.5533, 49.5287, -13.5898, 96.2766, -57.2197, 41.9503
3.3, 4, 35.5523, 49.5317, -13.5881, 96.2734, -57.233, 41.9456
3.304, 4, 35.5513, 49.5347, -13.5864, 96.2702, -57.2463, 41.9409
3.308, 4, 35.5503, 49.5378, -13.5848, 96.267, -57.2596, 41.9362
3.312, 4, 35.5492, 49.5408, -13.5831, 96.2638, -57.2729, 41.9316
3.316, 4, 35.5482, 49.5438, -13.5814, 96.2605, -57.2862, 41.9269
3.32, 4, 35.5472, 49.5468, -13.5797, 96.2573, -57.2995, 41.9222
3.324, 4, 35.5462, 49.5498, -13.578, 96.2541, -57.3128, 41.9175
3.328, 4, 35.5451, 49.5528, -13.5763, 96.2509, -57.3261, 41.9128
3.332, 4, 35.5441, 49.5558, -13.5746, 96.2476, -57.3393, 41.9082
3.336, 4, 35.5431, 49.5588, -13.5729, 96.2444, -57.3526, 41.9035
3.34, 4, 35.5421, 49.5619, -13.5713, 96.2412, -57.3659, 41.8988
3.344, 4, 35.541, 49.5649, -13.5696, 96.2379, -57.3792, 41.8942
3.347, 4, 35.54, 49.5679, -13.5678, 96.2347, -57.3925, 41.8895
3.352, 4, 35.539, 49.5709, -13.5661, 96.2315, -57.4058, 41.8848
3.356, 4, 35.5379, 49.5739, -13.5644, 96.2282, -57.419, 41.8801
3.36, 4, 35.5369, 49.5769, -13.5627, 96.225, -57.4323, 41.8755
3.364, 4, 35.5359, 49.5799, -13.561, 96.2217, -57.4456, 41.8708
3.368, 4, 35.5349, 49.5829, -13.5593, 96.2185, -57.4589, 41.8661
3.372, 4, 35.5338, 49.5859, -13.5576, 96.2152, -57.4721, 41.8615
3.376, 4, 35.5328, 49.5889, -13.5559, 96.212, -57.4854, 41.8568
3.38, 4, 35.5317, 49.5919, -13.5541, 96.2087, -57.4987, 41.8522
3.383, 4, 35.5307, 49.5948, -13.5524, 96.2055, -57.512, 41.8475
3.388, 4, 35.5297, 49.5978, -13.5507, 96.2022, -57.5252, 41.8428
3.392, 4, 35.5286, 49.6008, -13.549, 96.199, -57.5385, 41.8382
3.396, 4, 35.5276, 49.6038, -13.5472, 96.1957, -57.5518, 41.8335
3.4, 4, 35.5266, 49.6068, -13.5455, 96.1925, -57.565, 41.8289
3.403, 4, 35.5255, 49.6098, -13.5438, 96.1892, -57.5783, 41.8242
3.408, 4, 35.5245, 49.6128, -13.542, 96.1859, -57.5916, 41.8195
3.412, 4, 35.5234, 49.6157, -13.5403, 96.1827, -57.6049, 41.8149
3.416, 4, 35.5224, 49.6187, -13.5385, 96.1794, -57.6181, 41.8102
3.42, 4, 35.5214, 49.6217, -13.5368, 96.1761, -57.6314, 41.8056
3.424, 4, 35.5203, 49.6247, -13.535, 96.1729, -57.6447, 41.8009
3.428, 4, 35.5193, 49.6277, -13.5333, 96.1696, -57.6579, 41.7963
3.432, 4, 35.5182, 49.6306, -13.5315, 96.1663, -57.6712, 41.7916
3.436, 4, 35.5172, 49.6336, -13.5298, 96.163, -57.6844, 41.787
3.439, 4, 35.5161, 49.6366, -13.528, 96.1598, -57.6977, 41.7823
3.444, 4, 35.5151, 49.6395, -13.5263, 96.1565, -57.711, 41.7777
3.448, 4, 35.514, 49.6425, -13.5245, 96.1532, -57.7242, 41.773
3.452, 4, 35.513, 49.6455, -13.5227, 96.1499, -57.7375, 41.7684
3.456, 4, 35.5119, 49.6484, -13.521, 96.1466, -57.7507, 41.7637
3.46, 4, 35.5109, 49.6514, -13.5192, 96.1433, -57.764, 41.7591
3.464, 4, 35.5098, 49.6544, -13.5174, 96.1401, -57.7773, 41.7544
3.468, 4, 35.5088, 49.6573, -13.5156, 96.1368, -57.7905, 41.7498
3.472, 4, 35.5077, 49.6603, -13.5139, 96.1335, -57.8038, 41.7452
3.476, 4, 35.5067, 49.6632, -13.5121, 96.1302, -57.817, 41.7405
3.48, 4, 35.5056, 49.6662, -13.5103, 96.1269, -57.8303, 41.7359
3.484, 4, 35.5046, 49.6692, -13.5085, 96.1236, -57.8435, 41.7312
3.488, 4, 35.5035, 49.6721, -13.5067, 96.1203, -57.8568, 41.7266
3.492, 4, 35.5025, 49.6751, -13.5049, 96.117, -57.87, 41.722
3.495, 4, 35.5014, 49.678, -13.5032, 96.1137, -57.8833, 41.7173
3.5, 4, 35.5004, 49.681, -13.5014, 96.1104, -57.8965, 41.7127
3.504, 4, 35.4993, 49.6839, -13.4996, 96.107, -57.9098, 41.7081
3.508, 4, 35.4982, 49.6869, -13.4978, 96.1037, -57.923, 41.7034
3.512, 4, 35.4972, 49.6898, -13.496, 96.1004, -57.9363, 41.6988
3.516, 4, 35.4961, 49.6928, -13.4942, 96.0971, -57.9495, 41.6942
3.52, 4, 35.4951, 49.6957, -13.4924, 96.0938, -57.9628, 41.6895
3.524, 4, 35.494, 49.6986, -13.4905, 96.0905, -57.976, 41.6849
3.528, 4, 35.4929, 49.7016, -13.4887, 96.0872, -57.9893, 41.6803
3.531, 4, 35.4919, 49.7045, -13.4869, 96.0838, -58.0025, 41.6757
3.536, 4, 35.4908, 49.7075, -13.4851, 96.0805, -58.0158, 41.671
3.54, 4, 35.4897, 49.7104, -13.4833, 96.0772, -58.029, 41.6664
3.544, 4, 35.4887, 49.7133, -13.4815, 96.0739, -58.0422, 41.6618
3.548, 4, 35.4876, 49.7163, -13.4796, 96.0705, -58.0555, 41.6572
3.552, 4, 35.4865, 49.7192, -13.4778, 96.0672, -58.0687, 41.6525
3.556, 4, 35.4855, 49.7221, -13.476, 96.0639, -58.082, 41.6479
3.56, 4, 35.4844, 49.725, -13.4742, 96.0605, -58.0952, 41.6433
3.564, 4, 35.4833, 49.728, -13.4723, 96.0572, -58.1084, 41.6387
3.568, 4, 35.4823, 49.7309, -13.4705, 96.0539, -58.1217, 41.634
3.572, 4, 35.4812, 49.7338, -13.4686, 96.0505, -58.1349, 41.6294
3.576, 4, 35.4801, 49.7367, -13.4668, 96.0472, -58.1481, 41.6248
3.58, 4, 35.479, 49.7397, -13.465, 96.0438, -58.1614, 41.6202
3.584, 4, 35.478, 49.7426, -13.4631, 96.0405, -58.1746, 41.6156
3.587, 4, 35.4769, 49.7455, -13.4613, 96.0371, -58.1878, 41.611
3.592, 4, 35.4758, 49.7484, -13.4594, 96.0338, -58.2011, 41.6063
3.596, 4, 35.4747, 49.7513, -13.4576, 96.0304, -58.2143, 41.6017
3.6, 4, 35.4737, 49.7542, -13.4557, 96.0271, -58.2275, 41.5971
3.604, 4, 35.4726, 49.7572, -13.4539, 96.0237, -58.2407, 41.5925
3.608, 4, 35.4715, 49.7601, -13.452, 96.0204, -58.254, 41.5879
3.612, 4, 35.4704, 49.763, -13.4501, 96.017, -58.2672, 41.5833
3.616, 4, 35.4694, 49.7659, -13.4483, 96.0137, -58.2804, 41.5787
3.62, 4, 35.4683, 49.7688, -13.4464, 96.0103, -58.2937, 41.5741
3.624, 4, 35.4672, 49.7717, -13.4445, 96.0069, -58.3069, 41.5695
3.628, 4, 35.4661, 49.7746, -13.4427, 96.0036, -58.3201, 41.5649
3.632, 4, 35.465, 49.7775, -13.4408, 96.0002, -58.3333, 41.5603
3.636, 4, 35.4639, 49.7804, -13.4389, 95.9968, -58.3465, 41.5557
3.64, 4, 35.4629, 49.7833, -13.437, 95.9935, -58.3598, 41.551
3.644, 4, 35.4618, 49.7862, -13.4351, 95.9901, -58.373, 41.5464
3.648, 4, 35.4607, 49.7891, -13.4333, 95.9867, -58.3862, 41.5418
3.652, 4, 35.4596, 49.792, -13.4314, 95.9833, -58.3994, 41.5372
3.656, 4, 35.4585, 49.7949, -13.4295, 95.98, -58.4126, 41.5326
3.66, 4, 35.4574, 49.7978, -13.4276, 95.9766, -58.4259, 41.528
3.664, 4, 35.4563, 49.8007, -13.4257, 95.9732, -58.4391, 41.5234
3.668, 4, 35.4553, 49.8036, -13.4238, 95.9698, -58.4523, 41.5189
3.672, 4, 35.4542, 49.8064, -13.4219, 95.9664, -58.4655, 41.5143
3.676, 4, 35.4531, 49.8093, -13.42, 95.963, -58.4787, 41.5097
3.679, 4, 35.452, 49.8122, -13.4181, 95.9597, -58.4919, 41.5051
3.684, 4, 35.4509, 49.8151, -13.4162, 95.9563, -58.5051, 41.5005
3.688, 4, 35.4498, 49.818, -13.4143, 95.9529, -58.5184, 41.4959
3.692, 4, 35.4487, 49.8209, -13.4124, 95.9495, -58.5316, 41.4913
3.696, 4, 35.4476, 49.8237, -13.4105, 95.9461, -58.5448, 41.4867
3.7, 4, 35.4465, 49.8266, -13.4085, 95.9427, -58.558, 41.4821
3.704, 4, 35.4454, 49.8295, -13.4066, 95.9393, -58.5712, 41.4775
3.708, 4, 35.4443, 49.8324, -13.4047, 95.9359, -58.5844, 41.4729
3.712, 4, 35.4432, 49.8352, -13.4028, 95.9325, -58.5976, 41.4683
3.716, 4, 35.4421, 49.8381, -13.4009, 95.9291, -58.6108, 41.4637
3.72, 4, 35.441, 49.841, -13.3989, 95.9257, -58.624, 41.4592
3.724, 4, 35.4399, 49.8438, -13.397, 95.9223, -58.6372, 41.4546
3.728, 4, 35.4388, 49.8467, -13.3951, 95.9189, -58.6504, 41.45
3.732, 4, 35.4377, 49.8496, -13.3931, 95.9155, -58.6636, 41.4454
3.735, 4, 35.4366, 49.8524, -13.3912, 95.912, -58.6768, 41.4408
3.74, 4, 35.4355, 49.8553, -13.3893, 95.9086, -58.69, 41.4362
3.744, 4, 35.4344, 49.8582, -13.3873, 95.9052, -58.7032, 41.4317
3.748, 4, 35.4333, 49.861, -13.3854, 95.9018, -58.7164, 41.4271
3.752, 4, 35.4322, 49.8639, -13.3834, 95.8984, -58.7296, 41.4225
3.756, 4, 35.4311, 49.8667, -13.3815, 95.8949, -58.7428, 41.4179
3.76, 4, 35.43, 49.8696, -13.3795, 95.8915, -58.756, 41.4134
3.764, 4, 35.4289, 49.8724, -13.3776, 95.8881, -58.7692, 41.4088
3.768, 4, 35.4278, 49.8753, -13.3756, 95.8847, -58.7824, 41.4042
3.772, 4, 35.4267, 49.8781, -13.3737, 95.8812, -58.7956, 41.3996
3.776, 4, 35.4256, 49.881, -13.3717, 95.8778, -58.8088, 41.395
3.78, 4, 35.4245, 49.8838, -13.3697, 95.8744, -58.822, 41.3905
3.784, 4, 35.4233, 49.8867, -13.3678, 95.8709, -58.8352, 41.3859
3.788, 4, 35.4222, 49.8895, -13.3658, 95.8675, -58.8484, 41.3813
3.792, 4, 35.4211, 49.8924, -13.3638, 95.8641, -58.8616, 41.3768
3.796, 4, 35.42, 49.8952, -13.3618, 95.8606, -58.8748, 41.3722
3.8, 4, 35.4189, 49.8981, -13.3599, 95.8572, -58.888, 41.3676
3.804, 4, 35.4178, 49.9009, -13.3579, 95.8537, -58.9011, 41.3631
3.808, 4, 35.4167, 49.9037, -13.3559, 95.8503, -58.9143, 41.3585
3.812, 4, 35.4156, 49.9066, -13.3539, 95.8468, -58.9275, 41.3539
3.816, 4, 35.4144, 49.9094, -13.3519, 95.8434, -58.9407, 41.3494
3.82, 4, 35.4133, 49.9122, -13.35, 95.8399, -58.9539, 41.3448
3.824, 4, 35.4122, 49.9151, -13.348, 95.8365, -58.9671, 41.3402
3.828, 4, 35.4111, 49.9179, -13.346, 95.833, -58.9803, 41.3357
3.832, 4, 35.41, 49.9207, -13.344, 95.8296, -58.9934, 41.3311
3.836, 4, 35.4088, 49.9236, -13.342, 95.8261, -59.0066, 41.3265
3.84, 4, 35.4077, 49.9264, -13.34, 95.8227, -59.0198, 41.322
3.844, 4, 35.4066, 49.9292, -13.338, 95.8192, -59.033, 41.3174
3.848, 4, 35.4055, 49.932, -13.336, 95.8157, -59.0462, 41.3129
3.852, 4, 35.4044, 49.9349, -13.334, 95.8123, -59.0593, 41.3083
3.856, 4, 35.4032, 49.9377, -13.332, 95.8088, -59.0725, 41.3037
3.86, 4, 35.4021, 49.9405, -13.3299, 95.8053, -59.0857, 41.2992
3.864, 4, 35.401, 49.9433, -13.3279, 95.8019, -59.0989, 41.2946
3.868, 4, 35.3998, 49.9461, -13.3259, 95.7984, -59.112, 41.2901
3.872, 4, 35.3987, 49.9489, -13.3239, 95.7949, -59.1252, 41.2855
3.876, 4, 35.3976, 49.9518, -13.3219, 95.7914, -59.1384, 41.281
3.88, 4, 35.3965, 49.9546, -13.3198, 95.788, -59.1516, 41.2764
3.884, 4, 35.3953, 49.9574, -13.3178, 95.7845, -59.1647, 41.2719
3.888, 4, 35.3942, 49.9602, -13.3158, 95.781, -59.1779, 41.2673
3.892, 4, 35.3931, 49.963, -13.3138, 95.7775, -59.1911, 41.2628
3.896, 4, 35.3919, 49.9658, -13.3117, 95.774, -59.2043, 41.2582
3.9, 4, 35.3908, 49.9686, -13.3097, 95.7706, -59.2174, 41.2537
3.904, 4, 35.3897, 49.9714, -13.3076, 95.7671, -59.2306, 41.2491
3.908, 4, 35.3885, 49.9742, -13.3056, 95.7636, -59.2438, 41.2446
3.912, 4, 35.3874, 49.977, -13.3036, 95.7601, -59.2569, 41.24
3.916, 4, 35.3863, 49.9798, -13.3015, 95.7566, -59.2701, 41.2355
3.92, 4, 35.3851, 49.9826, -13.2995, 95.7531, -59.2833, 41.2309
3.924, 4, 35.384, 49.9854, -13.2974, 95.7496, -59.2964, 41.2264
3.928, 4, 35.3829, 49.9882, -13.2954, 95.7461, -59.3096, 41.2218
3.932, 4, 35.3817, 49.991, -13.2933, 95.7426, -59.3228, 41.2173
3.936, 4, 35.3806, 49.9938, -13.2912, 95.7391, -59.3359, 41.2128
3.94, 4, 35.3794, 49.9966, -13.2892, 95.7356, -59.3491, 41.2082
3.944, 4, 35.3783, 49.9993, -13.2871, 95.7321, -59.3622, 41.2037
3.948, 4, 35.3772, 50.0021, -13.2851, 95.7286, -59.3754, 41.1991
3.952, 4, 35.376, 50.0049, -13.283, 95.7251, -59.3885, 41.1946
3.956, 4, 35.3749, 50.0077, -13.2809, 95.7216, -59.4017, 41.1901
3.96, 4, 35.3737, 50.0105, -13.2788, 95.7181, -59.4149, 41.1855
3.964, 4, 35.3726, 50.0133, -13.2768, 95.7145, -59.428, 41.181
3.968, 4, 35.3714, 50.016, -13.2747, 95.711, -59.4412, 41.1765
3.972, 4, 35.3703, 50.0188, -13.2726, 95.7075, -59.4543, 41.1719
3.976, 4, 35.3692, 50.0216, -13.2705, 95.704, -59.4675, 41.1674
3.98, 4, 35.368, 50.0244, -13.2684, 95.7005, -59.4806, 41.1629
3.984, 4, 35.3669, 50.0271, -13.2664, 95.697, -59.4938, 41.1583
3.988, 4, 35.3657, 50.0299, -13.2643, 95.6934, -59.5069, 41.1538
3.992, 4, 35.3646, 50.0327, -13.2622, 95.6899, -59.5201, 41.1493
3.996, 4, 35.3634, 50.0354, -13.2601, 95.6864, -59.5332, 41.1447
3.999, 4, 35.3623, 50.0382, -13.258, 95.6828, -59.5464, 41.1402
4.004, 4, 35.3611, 50.041, -13.2559, 95.6793, -59.5595, 41.1357
4.008, 4, 35.36, 50.0437, -13.2538, 95.6758, -59.5727, 41.1311
4.012, 4, 35.3588, 50.0465, -13.2517, 95.6723, -59.5858, 41.1266
4.016, 4, 35.3577, 50.0493, -13.2496, 95.6687, -59.599, 41.1221
4.02, 4, 35.3565, 50.052, -13.2475, 95.6652, -59.6121, 41.1176
4.024, 4, 35.3553, 50.0548, -13.2454, 95.6616, -59.6253, 41.113
4.028, 4, 35.3542, 50.0575, -13.2432, 95.6581, -59.6384, 41.1085
4.032, 4, 35.353, 50.0603, -13.2411, 95.6546, -59.6516, 41.104
4.036, 4, 35.3519, 50.063, -13.239, 95.651, -59.6647, 41.0995
4.04, 4, 35.3507, 50.0658, -13.2369, 95.6475, -59.6778, 41.095
4.044, 4, 35.3496, 50.0686, -13.2348, 95.6439, -59.691, 41.0904
4.048, 4, 35.3484, 50.0713, -13.2326, 95.6404, -59.7041, 41.0859
4.052, 4, 35.3472, 50.074, -13.2305, 95.6368, -59.7173, 41.0814
4.056, 4, 35.3461, 50.0768, -13.2284, 95.6333, -59.7304, 41.0769
4.06, 4, 35.3449, 50.0795, -13.2262, 95.6297, -59.7435, 41.0724
4.064, 4, 35.3437, 50.0823, -13.2241, 95.6262, -59.7567, 41.0678
4.068, 4, 35.3426, 50.085, -13.222, 95.6226, -59.7698, 41.0633
4.072, 4, 35.3414, 50.0878, -13.2198, 95.619, -59.7829, 41.0588
4.076, 4, 35.3403, 50.0905, -13.2177, 95.6155, -59.7961, 41.0543
4.08, 4, 35.3391, 50.0932, -13.2155, 95.6119, -59.8092, 41.0498
4.084, 4, 35.3379, 50.096, -13.2134, 95.6083, -59.8223, 41.0453
4.088, 4, 35.3368, 50.0987, -13.2112, 95.6048, -59.8355, 41.0408
4.092, 4, 35.3356, 50.1014, -13.2091, 95.6012, -59.8486, 41.0363
4.096, 4, 35.3344, 50.1042, -13.2069, 95.5976, -59.8617, 41.0317
4.1, 4, 35.3332, 50.1069, -13.2048, 95.5941, -59.8749, 41.0272
4.104, 4, 35.3321, 50.1096, -13.2026, 95.5905, -59.888, 41.0227
4.108, 4, 35.3309, 50.1124, -13.2004, 95.5869, -59.9011, 41.0182
4.112, 4, 35.3297, 50.1151, -13.1983, 95.5834, -59.9142, 41.0137
4.116, 4, 35.3286, 50.1178, -13.1961, 95.5798, -59.9274, 41.0092
4.12, 4, 35.3274, 50.1205, -13.1939, 95.5762, -59.9405, 41.0047
4.124, 4, 35.3262, 50.1233, -13.1918, 95.5726, -59.9536, 41.0002
4.128, 4, 35.325, 50.126, -13.1896, 95.569, -59.9667, 40.9957
4.132, 4, 35.3239, 50.1287, -13.1874, 95.5654, -59.9799, 40.9912
4.136, 4, 35.3227, 50.1314, -13.1852, 95.5619, -59.993, 40.9867
4.14, 4, 35.3215, 50.1341, -13.1831, 95.5583, -60.0061, 40.9822
4.144, 4, 35.3203, 50.1368, -13.1809, 95.5547, -60.0192, 40.9777
4.148, 4, 35.3192, 50.1395, -13.1787, 95.5511, -60.0323, 40.9732
4.152, 4, 35.318, 50.1423, -13.1765, 95.5475, -60.0455, 40.9687
4.156, 4, 35.3168, 50.145, -13.1743, 95.5439, -60.0586, 40.9642
4.16, 4, 35.3156, 50.1477, -13.1721, 95.5403, -60.0717, 40.9597
4.164, 4, 35.3144, 50.1504, -13.1699, 95.5367, -60.0848, 40.9552
4.168, 4, 35.3133, 50.1531, -13.1677, 95.5331, -60.0979, 40.9507
4.172, 4, 35.3121, 50.1558, -13.1655, 95.5295, -60.111, 40.9462
4.176, 4, 35.3109, 50.1585, -13.1633, 95.5259, -60.1242, 40.9417
4.18, 4, 35.3097, 50.1612, -13.1611, 95.5223, -60.1373, 40.9372
4.184, 4, 35.3085, 50.1639, -13.1589, 95.5187, -60.1504, 40.9327
4.188, 4, 35.3073, 50.1666, -13.1567, 95.5151, -60.1635, 40.9282
4.192, 4, 35.3061, 50.1693, -13.1545, 95.5115, -60.1766, 40.9237
4.196, 4, 35.305, 50.172, -13.1523, 95.5079, -60.1897, 40.9192
4.2, 4, 35.3038, 50.1747, -13.15, 95.5042, -60.2028, 40.9147
4.204, 4, 35.3026, 50.1774, -13.1478, 95.5006, -60.2159, 40.9102
4.208, 4, 35.3014, 50.18, -13.1456, 95.497, -60.229, 40.9057
4.212, 4, 35.3002, 50.1827, -13.1434, 95.4934, -60.2421, 40.9013
4.216, 4, 35.299, 50.1854, -13.1411, 95.4898, -60.2553, 40.8968
4.22, 4, 35.2978, 50.1881, -13.1389, 95.4862, -60.2684, 40.8923
4.224, 4, 35.2966, 50.1908, -13.1367, 95.4825, -60.2815, 40.8878
4.228, 4, 35.2954, 50.1935, -13.1344, 95.4789, -60.2946, 40.8833
4.232, 4, 35.2942, 50.1961, -13.1322, 95.4753, -60.3077, 40.8788
4.236, 4, 35.293, 50.1988, -13.13, 95.4716, -60.3208, 40.8743
4.24, 4, 35.2918, 50.2015, -13.1277, 95.468, -60.3339, 40.8698
4.244, 4, 35.2907, 50.2042, -13.1255, 95.4644, -60.347, 40.8654
4.248, 4, 35.2895, 50.2069, -13.1232, 95.4607, -60.3601, 40.8609
4.252, 4, 35.2883, 50.2095, -13.121, 95.4571, -60.3732, 40.8564
4.256, 4, 35.2871, 50.2122, -13.1187, 95.4535, -60.3863, 40.8519
4.26, 4, 35.2859, 50.2149, -13.1165, 95.4498, -60.3994, 40.8474
4.264, 4, 35.2847, 50.2175, -13.1142, 95.4462, -60.4125, 40.843
4.268, 4, 35.2835, 50.2202, -13.112, 95.4426, -60.4256, 40.8385
4.272, 4, 35.2823, 50.2229, -13.1097, 95.4389, -60.4387, 40.834
4.276, 4, 35.2811, 50.2255, -13.1074, 95.4353, -60.4518, 40.8295
4.28, 4, 35.2799, 50.2282, -13.1052, 95.4316, -60.4648, 40.825
4.284, 4, 35.2787, 50.2309, -13.1029, 95.428, -60.4779, 40.8206
4.288, 4, 35.2774, 50.2335, -13.1006, 95.4243, -60.491, 40.8161
4.292, 4, 35.2762, 50.2362, -13.0984, 95.4207, -60.5041, 40.8116
4.296, 4, 35.275, 50.2388, -13.0961, 95.417, -60.5172, 40.8071
4.3, 4, 35.2738, 50.2415, -13.0938, 95.4134, -60.5303, 40.8027
4.304, 4, 35.2726, 50.2441, -13.0915, 95.4097, -60.5434, 40.7982
4.308, 4, 35.2714, 50.2468, -13.0892, 95.4061, -60.5565, 40.7937
4.312, 4, 35.2702, 50.2494, -13.0869, 95.4024, -60.5696, 40.7892
4.316, 4, 35.269, 50.2521, -13.0847, 95.3987, -60.5827, 40.7848
4.32, 4, 35.2678, 50.2547, -13.0824, 95.3951, -60.5957, 40.7803
4.324, 4, 35.2666, 50.2574, -13.0801, 95.3914, -60.6088, 40.7758
4.328, 4, 35.2654, 50.26, -13.0778, 95.3877, -60.6219, 40.7714
4.332, 4, 35.2642, 50.2627, -13.0755, 95.3841, -60.635, 40.7669
4.336, 4, 35.2629, 50.2653, -13.0732, 95.3804, -60.6481, 40.7624
4.34, 4, 35.2617, 50.2679, -13.0709, 95.3767, -60.6612, 40.758
4.344, 4, 35.2605, 50.2706, -13.0686, 95.373, -60.6742, 40.7535
4.348, 4, 35.2593, 50.2732, -13.0663, 95.3694, -60.6873, 40.749
4.352, 4, 35.2581, 50.2759, -13.0639, 95.3657, -60.7004, 40.7446
4.356, 4, 35.2569, 50.2785, -13.0616, 95.362, -60.7135, 40.7401
4.36, 4, 35.2556, 50.2811, -13.0593, 95.3583, -60.7266, 40.7356
4.364, 4, 35.2544, 50.2838, -13.057, 95.3547, -60.7396, 40.7312
4.368, 4, 35.2532, 50.2864, -13.0547, 95.351, -60.7527, 40.7267
4.372, 4, 35.252, 50.289, -13.0524, 95.3473, -60.7658, 40.7223
4.376, 4, 35.2508, 50.2916, -13.05, 95.3436, -60.7789, 40.7178
4.38, 4, 35.2495, 50.2943, -13.0477, 95.3399, -60.7919, 40.7133
4.384, 4, 35.2483, 50.2969, -13.0454, 95.3362, -60.805, 40.7089
4.388, 4, 35.2471, 50.2995, -13.043, 95.3326, -60.8181, 40.7044
4.392, 4, 35.2459, 50.3021, -13.0407, 95.3288, -60.8311, 40.7
4.396, 4, 35.2447, 50.3047, -13.0384, 95.3252, -60.8442, 40.6955
4.4, 4, 35.2434, 50.3074, -13.036, 95.3215, -60.8573, 40.691
4.404, 4, 35.2422, 50.31, -13.0337, 95.3178, -60.8704, 40.6866
4.408, 4, 35.241, 50.3126, -13.0313, 95.3141, -60.8834, 40.6821
4.412, 4, 35.2398, 50.3152, -13.029, 95.3104, -60.8965, 40.6777
4.416, 4, 35.2385, 50.3178, -13.0267, 95.3067, -60.9096, 40.6732
4.42, 4, 35.2373, 50.3204, -13.0243, 95.303, -60.9226, 40.6688
4.424, 4, 35.2361, 50.323, -13.0219, 95.2993, -60.9357, 40.6643
4.428, 4, 35.2348, 50.3256, -13.0196, 95.2956, -60.9488, 40.6599
4.432, 4, 35.2336, 50.3282, -13.0172, 95.2918, -60.9618, 40.6554
4.436, 4, 35.2324, 50.3308, -13.0149, 95.2881, -60.9749, 40.651
4.44, 4, 35.2311, 50.3334, -13.0125, 95.2844, -60.9879, 40.6465
4.444, 4, 35.2299, 50.336, -13.0101, 95.2807, -61.001, 40.6421
4.448, 4, 35.2287, 50.3386, -13.0078, 95.277, -61.0141, 40.6376
4.452, 4, 35.2274, 50.3412, -13.0054, 95.2733, -61.0271, 40.6332
4.456, 4, 35.2262, 50.3438, -13.003, 95.2696, -61.0402, 40.6287
4.46, 4, 35.225, 50.3464, -13.0007, 95.2658, -61.0532, 40.6243
4.464, 4, 35.2237, 50.349, -12.9983, 95.2621, -61.0663, 40.6198
4.468, 4, 35.2225, 50.3516, -12.9959, 95.2584, -61.0794, 40.6154
4.472, 4, 35.2213, 50.3542, -12.9935, 95.2547, -61.0924, 40.6109
4.476, 4, 35.22, 50.3568, -12.9911, 95.2509, -61.1055, 40.6065
4.48, 4, 35.2188, 50.3594, -12.9887, 95.2472, -61.1185, 40.602
4.484, 4, 35.2175, 50.362, -12.9863, 95.2435, -61.1316, 40.5976
4.488, 4, 35.2163, 50.3645, -12.9839, 95.2398, -61.1446, 40.5932
4.492, 4, 35.2151, 50.3671, -12.9816, 95.236, -61.1577, 40.5887
4.496, 4, 35.2138, 50.3697, -12.9792, 95.2323, -61.1707, 40.5843
4.5, 4, 35.2126, 50.3723, -12.9768, 95.2286, -61.1838, 40.5798
4.504, 4, 35.2113, 50.3749, -12.9744, 95.2248, -61.1968, 40.5754
4.508, 4, 35.2101, 50.3774, -12.9719, 95.2211, -61.2099, 40.5709
4.512, 4, 35.2088, 50.38, -12.9695, 95.2173, -61.2229, 40.5665
4.516, 4, 35.2076, 50.3826, -12.9671, 95.2136, -61.236, 40.5621
4.52, 4, 35.2063, 50.3852, -12.9647, 95.2098, -61.249, 40.5576
4.524, 4, 35.2051, 50.3877, -12.9623, 95.2061, -61.2621, 40.5532
4.528, 4, 35.2038, 50.3903, -12.9599, 95.2024, -61.2751, 40.5488
4.532, 4, 35.2026, 50.3929, -12.9575, 95.1986, -61.2882, 40.5443
4.536, 4, 35.2013, 50.3954, -12.955, 95.1949, -61.3012, 40.5399
4.54, 4, 35.2001, 50.398, -12.9526, 95.1911, -61.3143, 40.5355
4.544, 4, 35.1988, 50.4006, -12.9502, 95.1874, -61.3273, 40.531
4.548, 4, 35.1976, 50.4031, -12.9478, 95.1836, -61.3403, 40.5266
4.552, 4, 35.1963, 50.4057, -12.9453, 95.1798, -61.3534, 40.5222
4.556, 4, 35.1951, 50.4082, -12.9429, 95.1761, -61.3664, 40.5177
4.56, 4, 35.1938, 50.4108, -12.9405, 95.1723, -61.3794, 40.5133
4.564, 4, 35.1926, 50.4133, -12.938, 95.1686, -61.3925, 40.5089
4.568, 4, 35.1913, 50.4159, -12.9356, 95.1648, -61.4055, 40.5044
4.572, 4, 35.1901, 50.4184, -12.9331, 95.161, -61.4186, 40.5
4.576, 4, 35.1888, 50.421, -12.9307, 95.1573, -61.4316, 40.4956
4.58, 4, 35.1876, 50.4235, -12.9282, 95.1535, -61.4446, 40.4911
4.584, 4, 35.1863, 50.4261, -12.9258, 95.1497, -61.4577, 40.4867
4.588, 4, 35.185, 50.4286, -12.9233, 95.146, -61.4707, 40.4823
4.592, 4, 35.1838, 50.4312, -12.9209, 95.1422, -61.4837, 40.4779
4.596, 4, 35.1825, 50.4337, -12.9184, 95.1384, -61.4968, 40.4734
4.6, 4, 35.1813, 50.4363, -12.916, 95.1346, -61.5098, 40.469
4.604, 4, 35.18, 50.4388, -12.9135, 95.1309, -61.5228, 40.4646
4.608, 4, 35.1787, 50.4413, -12.911, 95.1271, -61.5359, 40.4602
4.612, 4, 35.1775, 50.4439, -12.9086, 95.1233, -61.5489, 40.4557
4.616, 4, 35.1762, 50.4464, -12.9061, 95.1195, -61.5619, 40.4513
4.62, 4, 35.1749, 50.4489, -12.9036, 95.1157, -61.5749, 40.4469
4.624, 4, 35.1737, 50.4515, -12.9011, 95.112, -61.588, 40.4425
4.628, 4, 35.1724, 50.454, -12.8987, 95.1082, -61.601, 40.4381
4.632, 4, 35.1711, 50.4565, -12.8962, 95.1044, -61.614, 40.4336
4.636, 4, 35.1699, 50.4591, -12.8937, 95.1006, -61.627, 40.4292
4.64, 4, 35.1686, 50.4616, -12.8912, 95.0968, -61.6401, 40.4248
4.644, 4, 35.1673, 50.4641, -12.8887, 95.093, -61.6531, 40.4204
4.648, 4, 35.1661, 50.4666, -12.8862, 95.0892, -61.6661, 40.416
4.652, 4, 35.1648, 50.4692, -12.8837, 95.0854, -61.6791, 40.4115
4.656, 4, 35.1635, 50.4717, -12.8812, 95.0816, -61.6922, 40.4071
4.66, 4, 35.1622, 50.4742, -12.8787, 95.0778, -61.7052, 40.4027
4.664, 4, 35.161, 50.4767, -12.8762, 95.074, -61.7182, 40.3983
4.668, 4, 35.1597, 50.4792, -12.8737, 95.0702, -61.7312, 40.3939
4.672, 4, 35.1584, 50.4817, -12.8712, 95.0664, -61.7442, 40.3895
4.676, 4, 35.1571, 50.4842, -12.8687, 95.0626, -61.7572, 40.385
4.68, 4, 35.1559, 50.4868, -12.8662, 95.0588, -61.7703, 40.3806
4.684, 4, 35.1546, 50.4893, -12.8637, 95.055, -61.7833, 40.3762
4.688, 4, 35.1533, 50.4918, -12.8612, 95.0512, -61.7963, 40.3718
4.692, 4, 35.152, 50.4943, -12.8587, 95.0474, -61.8093, 40.3674
4.696, 4, 35.1508, 50.4968, -12.8562, 95.0436, -61.8223, 40.363
4.7, 4, 35.1495, 50.4993, -12.8536, 95.0398, -61.8353, 40.3586
4.704, 4, 35.1482, 50.5018, -12.8511, 95.0359, -61.8483, 40.3542
4.708, 4, 35.1469, 50.5043, -12.8486, 95.0321, -61.8613, 40.3498
4.712, 4, 35.1456, 50.5068, -12.8461, 95.0283, -61.8744, 40.3454
4.716, 4, 35.1443, 50.5093, -12.8435, 95.0245, -61.8874, 40.3409
4.72, 4, 35.1431, 50.5118, -12.841, 95.0207, -61.9004, 40.3365
4.724, 4, 35.1418, 50.5143, -12.8385, 95.0168, -61.9134, 40.3321
4.728, 4, 35.1405, 50.5168, -12.8359, 95.013, -61.9264, 40.3277
4.732, 4, 35.1392, 50.5192, -12.8334, 95.0092, -61.9394, 40.3233
4.736, 4, 35.1379, 50.5217, -12.8308, 95.0054, -61.9524, 40.3189
4.74, 4, 35.1366, 50.5242, -12.8283, 95.0015, -61.9654, 40.3145
4.744, 4, 35.1353, 50.5267, -12.8257, 94.9977, -61.9784, 40.3101
4.748, 4, 35.1341, 50.5292, -12.8232, 94.9939, -61.9914, 40.3057
4.752, 4, 35.1328, 50.5317, -12.8206, 94.99, -62.0044, 40.3013
4.756, 4, 35.1315, 50.5341, -12.8181, 94.9862, -62.0174, 40.2969
4.76, 4, 35.1302, 50.5366, -12.8155, 94.9824, -62.0304, 40.2925
4.764, 4, 35.1289, 50.5391, -12.8129, 94.9785, -62.0434, 40.2881
4.768, 4, 35.1276, 50.5416, -12.8104, 94.9747, -62.0564, 40.2837
4.772, 4, 35.1263, 50.5441, -12.8078, 94.9708, -62.0694, 40.2793
4.776, 4, 35.125, 50.5465, -12.8053, 94.967, -62.0824, 40.2749
4.78, 4, 35.1237, 50.549, -12.8027, 94.9632, -62.0954, 40.2705
4.784, 4, 35.1224, 50.5515, -12.8001, 94.9593, -62.1084, 40.2661
4.788, 4, 35.1211, 50.5539, -12.7975, 94.9555, -62.1214, 40.2617
4.792, 4, 35.1198, 50.5564, -12.795, 94.9516, -62.1344, 40.2573
4.796, 4, 35.1185, 50.5589, -12.7924, 94.9478, -62.1474, 40.2529
4.8, 4, 35.1172, 50.5613, -12.7898, 94.9439, -62.1604, 40.2485
4.804, 4, 35.1159, 50.5638, -12.7872, 94.94, -62.1734, 40.2441
4.808, 4, 35.1146, 50.5663, -12.7846, 94.9362, -62.1864, 40.2397
4.812, 4, 35.1133, 50.5687, -12.782, 94.9323, -62.1993, 40.2353
4.816, 4, 35.112, 50.5712, -12.7794, 94.9285, -62.2123, 40.2309
4.82, 4, 35.1107, 50.5736, -12.7768, 94.9246, -62.2253, 40.2265
4.824, 4, 35.1094, 50.5761, -12.7742, 94.9208, -62.2383, 40.2221
4.828, 4, 35.1081, 50.5785, -12.7716, 94.9169, -62.2513, 40.2178
4.832, 4, 35.1068, 50.581, -12.769, 94.913, -62.2643, 40.2134
4.836, 4, 35.1055, 50.5834, -12.7664, 94.9092, -62.2773, 40.209
4.84, 4, 35.1042, 50.5859, -12.7638, 94.9053, -62.2902, 40.2046
4.844, 4, 35.1029, 50.5883, -12.7612, 94.9014, -62.3032, 40.2002
4.848, 4, 35.1016, 50.5908, -12.7586, 94.8976, -62.3162, 40.1958
4.852, 4, 35.1003, 50.5932, -12.756, 94.8937, -62.3292, 40.1914
4.856, 4, 35.099, 50.5957, -12.7534, 94.8898, -62.3422, 40.187
4.86, 4, 35.0977, 50.5981, -12.7507, 94.8859, -62.3552, 40.1826
4.864, 4, 35.0964, 50.6005, -12.7481, 94.8821, -62.3681, 40.1782
4.868, 4, 35.0951, 50.603, -12.7455, 94.8782, -62.3811, 40.1739
4.872, 4, 35.0938, 50.6054, -12.7429, 94.8743, -62.3941, 40.1695
4.876, 4, 35.0924, 50.6078, -12.7402, 94.8704, -62.4071, 40.1651
4.88, 4, 35.0911, 50.6103, -12.7376, 94.8665, -62.4201, 40.1607
4.884, 4, 35.0898, 50.6127, -12.735, 94.8626, -62.433, 40.1563
4.888, 4, 35.0885, 50.6151, -12.7323, 94.8588, -62.446, 40.1519
4.892, 4, 35.0872, 50.6176, -12.7297, 94.8549, -62.459, 40.1476
4.896, 4, 35.0859, 50.62, -12.7271, 94.851, -62.472, 40.1432
4.9, 4, 35.0845, 50.6224, -12.7244, 94.8471, -62.4849, 40.1388
4.904, 4, 35.0832, 50.6248, -12.7218, 94.8432, -62.4979, 40.1344
4.908, 4, 35.0819, 50.6273, -12.7191, 94.8393, -62.5109, 40.13
4.912, 4, 35.0806, 50.6297, -12.7165, 94.8354, -62.5238, 40.1256
4.916, 4, 35.0793, 50.6321, -12.7138, 94.8315, -62.5368, 40.1213
4.92, 4, 35.078, 50.6345, -12.7112, 94.8276, -62.5498, 40.1169
4.924, 4, 35.0766, 50.6369, -12.7085, 94.8237, -62.5628, 40.1125
4.928, 4, 35.0753, 50.6393, -12.7058, 94.8198, -62.5757, 40.1081
4.932, 4, 35.074, 50.6418, -12.7032, 94.8159, -62.5887, 40.1037
4.936, 4, 35.0727, 50.6442, -12.7005, 94.812, -62.6017, 40.0994
4.94, 4, 35.0713, 50.6466, -12.6978, 94.8081, -62.6146, 40.095
4.944, 4, 35.07, 50.649, -12.6952, 94.8042, -62.6276, 40.0906
4.948, 4, 35.0687, 50.6514, -12.6925, 94.8003, -62.6406, 40.0862
4.952, 4, 35.0674, 50.6538, -12.6898, 94.7964, -62.6535, 40.0819
4.956, 4, 35.066, 50.6562, -12.6871, 94.7925, -62.6665, 40.0775
4.96, 4, 35.0647, 50.6586, -12.6845, 94.7886, -62.6794, 40.0731
4.964, 4, 35.0634, 50.661, -12.6818, 94.7846, -62.6924, 40.0687
4.968, 4, 35.0621, 50.6634, -12.6791, 94.7807, -62.7054, 40.0644
4.972, 4, 35.0607, 50.6658, -12.6764, 94.7768, -62.7183, 40.06
4.976, 4, 35.0594, 50.6682, -12.6737, 94.7729, -62.7313, 40.0556
4.98, 4, 35.0581, 50.6706, -12.671, 94.769, -62.7442, 40.0512
4.984, 4, 35.0567, 50.673, -12.6683, 94.765, -62.7572, 40.0469
4.988, 4, 35.0554, 50.6754, -12.6656, 94.7611, -62.7702, 40.0425
4.992, 4, 35.0541, 50.6777, -12.6629, 94.7572, -62.7831, 40.0381
4.996, 4, 35.0527, 50.6801, -12.6602, 94.7533, -62.7961, 40.0338
5, 4, 35.0514, 50.6825, -12.6575, 94.7493, -62.809, 40.0294
5.004, 4, 35.0501, 50.6849, -12.6548, 94.7454, -62.822, 40.025
5.008, 4, 35.0487, 50.6873, -12.6521, 94.7415, -62.8349, 40.0207
5.012, 4, 35.0474, 50.6897, -12.6494, 94.7375, -62.8479, 40.0163
5.017, 5, 35.0461, 50.692, -12.6467, 94.7336, -62.8608, 40.0119
5.02, 5, 35.0447, 50.6944, -12.6439, 94.7297, -62.8738, 40.0075
5.024, 5, 35.0434, 50.6968, -12.6412, 94.7257, -62.8867, 40.0032
5.028, 5, 35.042, 50.6992, -12.6385, 94.7218, -62.8997, 39.9988
5.032, 5, 35.0407, 50.7015, -12.6358, 94.7179, -62.9126, 39.9944
5.036, 5, 35.0394, 50.7039, -12.633, 94.7139, -62.9256, 39.9901
5.04, 5, 35.038, 50.7063, -12.6303, 94.71, -62.9385, 39.9857
5.044, 5, 35.0367, 50.7086, -12.6276, 94.706, -62.9515, 39.9814
5.048, 5, 35.0353, 50.711, -12.6249, 94.7021, -62.9644, 39.977
5.052, 5, 35.034, 50.7134, -12.6221, 94.6981, -62.9773, 39.9726
5.056, 5, 35.0326, 50.7157, -12.6194, 94.6942, -62.9903, 39.9683
5.06, 5, 35.0313, 50.7181, -12.6166, 94.6902, -63.0032, 39.9639
5.064, 5, 35.0299, 50.7205, -12.6139, 94.6863, -63.0162, 39.9595
5.068, 5, 35.0286, 50.7228, -12.6111, 94.6823, -63.0291, 39.9552
5.072, 5, 35.0273, 50.7252, -12.6084, 94.6784, -63.0421, 39.9508
5.076, 5, 35.0259, 50.7275, -12.6056, 94.6744, -63.055, 39.9465
5.08, 5, 35.0246, 50.7299, -12.6029, 94.6705, -63.0679, 39.9421
5.084, 5, 35.0232, 50.7322, -12.6001, 94.6665, -63.0809, 39.9377
5.088, 5, 35.0219, 50.7346, -12.5974, 94.6625, -63.0938, 39.9334
5.092, 5, 35.0205, 50.7369, -12.5946, 94.6586, -63.1068, 39.929
5.096, 5, 35.0191, 50.7393, -12.5918, 94.6546, -63.1197, 39.9247
5.1, 5, 35.0178, 50.7416, -12.5891, 94.6507, -63.1326, 39.9203
5.104, 5, 35.0164, 50.744, -12.5863, 94.6467, -63.1456, 39.916
5.108, 5, 35.0151, 50.7463, -12.5835, 94.6427, -63.1585, 39.9116
5.112, 5, 35.0137, 50.7487, -12.5808, 94.6387, -63.1714, 39.9072
5.116, 5, 35.0124, 50.751, -12.578, 94.6348, -63.1843, 39.9029
5.12, 5, 35.011, 50.7533, -12.5752, 94.6308, -63.1973, 39.8985
5.124, 5, 35.0097, 50.7557, -12.5724, 94.6268, -63.2102, 39.8942
5.128, 5, 35.0083, 50.758, -12.5696, 94.6229, -63.2231, 39.8898
5.132, 5, 35.0069, 50.7603, -12.5668, 94.6189, -63.2361, 39.8855
5.136, 5, 35.0056, 50.7627, -12.5641, 94.6149, -63.249, 39.8811
5.14, 5, 35.0042, 50.765, -12.5613, 94.6109, -63.2619, 39.8768
5.144, 5, 35.0029, 50.7673, -12.5585, 94.6069, -63.2749, 39.8724
5.148, 5, 35.0015, 50.7697, -12.5557, 94.603, -63.2878, 39.8681
5.152, 5, 35.0001, 50.772, -12.5529, 94.599, -63.3007, 39.8637
5.156, 5, 34.9988, 50.7743, -12.5501, 94.595, -63.3136, 39.8594
5.16, 5, 34.9974, 50.7766, -12.5473, 94.591, -63.3266, 39.855
5.164, 5, 34.996, 50.779, -12.5445, 94.587, -63.3395, 39.8507
5.168, 5, 34.9947, 50.7813, -12.5417, 94.583, -63.3524, 39.8463
5.172, 5, 34.9933, 50.7836, -12.5388, 94.579, -63.3653, 39.8419
5.176, 5, 34.992, 50.7859, -12.536, 94.5751, -63.3782, 39.8376
5.18, 5, 34.9906, 50.7882, -12.5332, 94.5711, -63.3912, 39.8333
5.184, 5, 34.9892, 50.7905, -12.5304, 94.5671, -63.4041, 39.8289
5.188, 5, 34.9878, 50.7928, -12.5276, 94.5631, -63.417, 39.8246
5.192, 5, 34.9865, 50.7951, -12.5248, 94.5591, -63.4299, 39.8202
5.196, 5, 34.9851, 50.7975, -12.5219, 94.5551, -63.4428, 39.8159
5.2, 5, 34.9837, 50.7998, -12.5191, 94.5511, -63.4557, 39.8115
5.204, 5, 34.9824, 50.8021, -12.5163, 94.5471, -63.4687, 39.8072
5.208, 5, 34.981, 50.8044, -12.5134, 94.5431, -63.4816, 39.8028
5.212, 5, 34.9796, 50.8067, -12.5106, 94.539, -63.4945, 39.7985
5.216, 5, 34.9782, 50.809, -12.5078, 94.535, -63.5074, 39.7941
5.22, 5, 34.9769, 50.8113, -12.5049, 94.531, -63.5203, 39.7898
5.224, 5, 34.9755, 50.8136, -12.5021, 94.527, -63.5332, 39.7855
5.228, 5, 34.9741, 50.8159, -12.4992, 94.523, -63.5461, 39.7811
5.232, 5, 34.9727, 50.8182, -12.4964, 94.519, -63.5591, 39.7768
5.236, 5, 34.9714, 50.8204, -12.4935, 94.515, -63.572, 39.7724
5.24, 5, 34.97, 50.8227, -12.4907, 94.511, -63.5849, 39.7681
5.244, 5, 34.9686, 50.825, -12.4878, 94.507, -63.5978, 39.7637
5.248, 5, 34.9672, 50.8273, -12.485, 94.5029, -63.6107, 39.7594
5.252, 5, 34.9658, 50.8296, -12.4821, 94.4989, -63.6236, 39.7551
5.256, 5, 34.9645, 50.8319, -12.4792, 94.4949, -63.6365, 39.7507
5.26, 5, 34.9631, 50.8342, -12.4764, 94.4909, -63.6494, 39.7464
5.264, 5, 34.9617, 50.8364, -12.4735, 94.4869, -63.6623, 39.742
5.268, 5, 34.9603, 50.8387, -12.4706, 94.4828, -63.6752, 39.7377
5.272, 5, 34.9589, 50.841, -12.4678, 94.4788, -63.6881, 39.7334
5.276, 5, 34.9575, 50.8433, -12.4649, 94.4748, -63.701, 39.729
5.28, 5, 34.9562, 50.8455, -12.462, 94.4707, -63.7139, 39.7247
5.284, 5, 34.9548, 50.8478, -12.4591, 94.4667, -63.7268, 39.7204
5.288, 5, 34.9534, 50.8501, -12.4562, 94.4627, -63.7397, 39.716
5.292, 5, 34.952, 50.8524, -12.4534, 94.4586, -63.7526, 39.7117
5.296, 5, 34.9506, 50.8546, -12.4505, 94.4546, -63.7655, 39.7074
5.3, 5, 34.9492, 50.8569, -12.4476, 94.4506, -63.7784, 39.703
5.304, 5, 34.9478, 50.8592, -12.4447, 94.4465, -63.7913, 39.6987
5.308, 5, 34.9464, 50.8614, -12.4418, 94.4425, -63.8042, 39.6943
5.312, 5, 34.945, 50.8637, -12.4389, 94.4384, -63.8171, 39.69
5.316, 5, 34.9436, 50.8659, -12.436, 94.4344, -63.83, 39.6857
5.32, 5, 34.9423, 50.8682, -12.4331, 94.4304, -63.8429, 39.6813
5.324, 5, 34.9409, 50.8705, -12.4302, 94.4263, -63.8558, 39.677
5.328, 5, 34.9395, 50.8727, -12.4273, 94.4223, -63.8687, 39.6727
5.332, 5, 34.9381, 50.875, -12.4244, 94.4182, -63.8815, 39.6684
5.336, 5, 34.9367, 50.8772, -12.4215, 94.4142, -63.8944, 39.664
5.34, 5, 34.9353, 50.8795, -12.4185, 94.4101, -63.9073, 39.6597
5.344, 5, 34.9339, 50.8817, -12.4156, 94.4061, -63.9202, 39.6554
5.348, 5, 34.9325, 50.884, -12.4127, 94.402, -63.9331, 39.651
5.352, 5, 34.9311, 50.8862, -12.4098, 94.398, -63.946, 39.6467
5.356, 5, 34.9297, 50.8884, -12.4069, 94.3939, -63.9589, 39.6424
5.36, 5, 34.9283, 50.8907, -12.4039, 94.3898, -63.9718, 39.638
5.364, 5, 34.9269, 50.8929, -12.401, 94.3858, -63.9847, 39.6337
5.368, 5, 34.9255, 50.8952, -12.3981, 94.3817, -63.9975, 39.6294
5.372, 5, 34.9241, 50.8974, -12.3951, 94.3777, -64.0104, 39.6251
5.376, 5, 34.9227, 50.8996, -12.3922, 94.3736, -64.0233, 39.6207
5.38, 5, 34.9213, 50.9019, -12.3893, 94.3695, -64.0362, 39.6164
5.384, 5, 34.9199, 50.9041, -12.3863, 94.3655, -64.0491, 39.6121
5.388, 5, 34.9185, 50.9063, -12.3834, 94.3614, -64.062, 39.6077
5.392, 5, 34.9171, 50.9086, -12.3804, 94.3573, -64.0748, 39.6034
5.396, 5, 34.9156, 50.9108, -12.3775, 94.3533, -64.0877, 39.5991
5.4, 5, 34.9142, 50.913, -12.3745, 94.3492, -64.1006, 39.5948
5.404, 5, 34.9128, 50.9152, -12.3716, 94.3451, -64.1135, 39.5904
5.408, 5, 34.9114, 50.9175, -12.3686, 94.341, -64.1263, 39.5861
5.412, 5, 34.91, 50.9197, -12.3657, 94.337, -64.1392, 39.5818
5.416, 5, 34.9086, 50.9219, -12.3627, 94.3329, -64.1521, 39.5775
5.42, 5, 34.9072, 50.9241, -12.3597, 94.3288, -64.165, 39.5732
5.424, 5, 34.9058, 50.9263, -12.3568, 94.3247, -64.1778, 39.5688
5.428, 5, 34.9044, 50.9286, -12.3538, 94.3206, -64.1907, 39.5645
5.432, 5, 34.903, 50.9308, -12.3508, 94.3166, -64.2036, 39.5602
5.436, 5, 34.9015, 50.933, -12.3478, 94.3125, -64.2165, 39.5559
5.44, 5, 34.9001, 50.9352, -12.3449, 94.3084, -64.2293, 39.5515
5.444, 5, 34.8987, 50.9374, -12.3419, 94.3043, -64.2422, 39.5472
5.448, 5, 34.8973, 50.9396, -12.3389, 94.3002, -64.2551, 39.5429
5.452, 5, 34.8959, 50.9418, -12.3359, 94.2961, -64.2679, 39.5386
5.456, 5, 34.8945, 50.944, -12.3329, 94.292, -64.2808, 39.5343
5.46, 5, 34.893, 50.9462, -12.3299, 94.2879, -64.2937, 39.5299
5.464, 5, 34.8916, 50.9484, -12.327, 94.2839, -64.3065, 39.5256
5.468, 5, 34.8902, 50.9506, -12.324, 94.2798, -64.3194, 39.5213
5.472, 5, 34.8888, 50.9528, -12.321, 94.2757, -64.3323, 39.517
5.476, 5, 34.8874, 50.955, -12.318, 94.2716, -64.3451, 39.5127
5.48, 5, 34.8859, 50.9572, -12.315, 94.2675, -64.358, 39.5084
5.484, 5, 34.8845, 50.9594, -12.312, 94.2634, -64.3708, 39.504
5.488, 5, 34.8831, 50.9616, -12.309, 94.2593, -64.3837, 39.4997
5.492, 5, 34.8817, 50.9638, -12.3059, 94.2551, -64.3966, 39.4954
5.496, 5, 34.8802, 50.9659, -12.3029, 94.251, -64.4094, 39.4911
5.5, 5, 34.8788, 50.9681, -12.2999, 94.2469, -64.4223, 39.4868
5.504, 5, 34.8774, 50.9703, -12.2969, 94.2428, -64.4352, 39.4825
5.508, 5, 34.876, 50.9725, -12.2939, 94.2387, -64.448, 39.4781
5.512, 5, 34.8745, 50.9747, -12.2909, 94.2346, -64.4609, 39.4738
5.516, 5, 34.8731, 50.9769, -12.2878, 94.2305, -64.4737, 39.4695
5.52, 5, 34.8717, 50.979, -12.2848, 94.2264, -64.4866, 39.4652
5.524, 5, 34.8702, 50.9812, -12.2818, 94.2223, -64.4994, 39.4609
5.528, 5, 34.8688, 50.9834, -12.2787, 94.2182, -64.5123, 39.4566
5.532, 5, 34.8674, 50.9856, -12.2757, 94.214, -64.5251, 39.4523
5.536, 5, 34.8659, 50.9877, -12.2727, 94.2099, -64.538, 39.448
5.54, 5, 34.8645, 50.9899, -12.2696, 94.2058, -64.5508, 39.4436
5.544, 5, 34.8631, 50.9921, -12.2666, 94.2017, -64.5637, 39.4393
5.548, 5, 34.8616, 50.9942, -12.2636, 94.1976, -64.5765, 39.435
5.552, 5, 34.8602, 50.9964, -12.2605, 94.1934, -64.5894, 39.4307
5.556, 5, 34.8588, 50.9986, -12.2575, 94.1893, -64.6022, 39.4264
5.56, 5, 34.8573, 51.0007, -12.2544, 94.1852, -64.6151, 39.4221
5.564, 5, 34.8559, 51.0029, -12.2514, 94.181, -64.6279, 39.4178
5.568, 5, 34.8545, 51.005, -12.2483, 94.1769, -64.6408, 39.4135
5.572, 5, 34.853, 51.0072, -12.2452, 94.1728, -64.6536, 39.4092
5.576, 5, 34.8516, 51.0093, -12.2422, 94.1686, -64.6665, 39.4049
5.58, 5, 34.8501, 51.0115, -12.2391, 94.1645, -64.6793, 39.4005
5.584, 5, 34.8487, 51.0136, -12.2361, 94.1604, -64.6922, 39.3962
5.588, 5, 34.8473, 51.0158, -12.233, 94.1562, -64.705, 39.3919
5.592, 5, 34.8458, 51.0179, -12.2299, 94.1521, -64.7179, 39.3876
5.596, 5, 34.8444, 51.0201, -12.2269, 94.148, -64.7307, 39.3833
5.6, 5, 34.8429, 51.0222, -12.2238, 94.1439, -64.7435, 39.379
5.604, 5, 34.8415, 51.0244, -12.2207, 94.1397, -64.7564, 39.3747
5.608, 5, 34.8401, 51.0265, -12.2177, 94.1356, -64.7692, 39.3704
5.612, 5, 34.8386, 51.0287, -12.2146, 94.1315, -64.7821, 39.3661
5.616, 5, 34.8372, 51.0308, -12.2115, 94.1274, -64.7949, 39.3617
5.62, 5, 34.8357, 51.033, -12.2085, 94.1233, -64.8078, 39.3574
5.624, 5, 34.8343, 51.0351, -12.2054, 94.1192, -64.8207, 39.3531
5.628, 5, 34.8329, 51.0373, -12.2024, 94.1151, -64.8335, 39.3488
5.632, 5, 34.8314, 51.0394, -12.1993, 94.111, -64.8464, 39.3445
5.636, 5, 34.83, 51.0416, -12.1963, 94.1069, -64.8593, 39.3401
5.64, 5, 34.8285, 51.0438, -12.1933, 94.1028, -64.8721, 39.3358
5.644, 5, 34.8271, 51.0459, -12.1902, 94.0988, -64.885, 39.3315
5.648, 5, 34.8256, 51.0481, -12.1872, 94.0947, -64.8979, 39.3271
5.652, 5, 34.8242, 51.0502, -12.1842, 94.0907, -64.9108, 39.3228
5.656, 5, 34.8228, 51.0524, -12.1812, 94.0867, -64.9237, 39.3185
5.66, 5, 34.8213, 51.0546, -12.1782, 94.0827, -64.9366, 39.3141
5.664, 5, 34.8199, 51.0567, -12.1752, 94.0787, -64.9495, 39.3098
5.668, 5, 34.8184, 51.0589, -12.1722, 94.0747, -64.9624, 39.3054
5.672, 5, 34.817, 51.0611, -12.1693, 94.0707, -64.9753, 39.3011
5.676, 5, 34.8155, 51.0633, -12.1663, 94.0668, -64.9882, 39.2967
5.68, 5, 34.8141, 51.0655, -12.1633, 94.0628, -65.0012, 39.2923
5.684, 5, 34.8127, 51.0676, -12.1604, 94.0589, -65.0141, 39.288
5.688, 5, 34.8112, 51.0698, -12.1575, 94.055, -65.027, 39.2836
5.692, 5, 34.8098, 51.072, -12.1546, 94.0511, -65.04, 39.2792
5.696, 5, 34.8083, 51.0742, -12.1516, 94.0472, -65.0529, 39.2748
5.7, 5, 34.8069, 51.0764, -12.1487, 94.0433, -65.0659, 39.2705
5.704, 5, 34.8054, 51.0786, -12.1459, 94.0395, -65.0789, 39.2661
5.708, 5, 34.804, 51.0808, -12.143, 94.0356, -65.0919, 39.2617
5.712, 5, 34.8026, 51.083, -12.1401, 94.0318, -65.1048, 39.2573
5.716, 5, 34.8011, 51.0853, -12.1372, 94.028, -65.1178, 39.2529
5.72, 5, 34.7997, 51.0875, -12.1344, 94.0242, -65.1308, 39.2485
5.724, 5, 34.7982, 51.0897, -12.1316, 94.0204, -65.1438, 39.244
5.728, 5, 34.7968, 51.0919, -12.1287, 94.0166, -65.1569, 39.2396
5.732, 5, 34.7954, 51.0942, -12.1259, 94.0129, -65.1699, 39.2352
5.736, 5, 34.7939, 51.0964, -12.1231, 94.0092, -65.1829, 39.2308
5.74, 5, 34.7925, 51.0986, -12.1203, 94.0054, -65.1959, 39.2263
5.744, 5, 34.791, 51.1009, -12.1175, 94.0017, -65.209, 39.2219
5.748, 5, 34.7896, 51.1031, -12.1148, 93.9981, -65.222, 39.2175
5.752, 5, 34.7882, 51.1054, -12.112, 93.9944, -65.2351, 39.213
5.756, 5, 34.7867, 51.1076, -12.1092, 93.9907, -65.2482, 39.2086
5.76, 5, 34.7853, 51.1099, -12.1065, 93.9871, -65.2612, 39.2041
5.764, 5, 34.7839, 51.1121, -12.1038, 93.9835, -65.2743, 39.1997
5.768, 5, 34.7824, 51.1144, -12.101, 93.9799, -65.2874, 39.1952
5.772, 5, 34.781, 51.1167, -12.0983, 93.9763, -65.3005, 39.1908
5.776, 5, 34.7795, 51.1189, -12.0956, 93.9727, -65.3136, 39.1863
5.78, 5, 34.7781, 51.1212, -12.093, 93.9691, -65.3267, 39.1818
5.784, 5, 34.7767, 51.1235, -12.0903, 93.9656, -65.3398, 39.1773
5.788, 5, 34.7752, 51.1258, -12.0876, 93.962, -65.3529, 39.1729
5.792, 5, 34.7738, 51.1281, -12.0849, 93.9585, -65.3661, 39.1684
5.796, 5, 34.7724, 51.1304, -12.0823, 93.955, -65.3792, 39.1639
5.8, 5, 34.7709, 51.1327, -12.0797, 93.9515, -65.3923, 39.1594
5.804, 5, 34.7695, 51.1349, -12.077, 93.948, -65.4055, 39.1549
5.808, 5, 34.7681, 51.1373, -12.0744, 93.9446, -65.4186, 39.1504
5.812, 5, 34.7666, 51.1396, -12.0718, 93.9411, -65.4318, 39.1459
5.816, 5, 34.7652, 51.1419, -12.0692, 93.9377, -65.445, 39.1414
5.82, 5, 34.7638, 51.1442, -12.0666, 93.9343, -65.4582, 39.1369
5.824, 5, 34.7623, 51.1465, -12.0641, 93.9309, -65.4713, 39.1324
5.828, 5, 34.7609, 51.1488, -12.0615, 93.9275, -65.4845, 39.1278
5.832, 5, 34.7595, 51.1511, -12.059, 93.9241, -65.4977, 39.1233
5.836, 5, 34.7581, 51.1535, -12.0564, 93.9208, -65.5109, 39.1188
5.84, 5, 34.7566, 51.1558, -12.0539, 93.9174, -65.5242, 39.1143
5.844, 5, 34.7552, 51.1581, -12.0514, 93.9141, -65.5374, 39.1097
5.848, 5, 34.7538, 51.1605, -12.0489, 93.9108, -65.5506, 39.1052
5.852, 5, 34.7523, 51.1628, -12.0464, 93.9075, -65.5638, 39.1006
5.856, 5, 34.7509, 51.1652, -12.0439, 93.9042, -65.5771, 39.0961
5.86, 5, 34.7495, 51.1675, -12.0414, 93.9009, -65.5903, 39.0915
5.864, 5, 34.748, 51.1699, -12.0389, 93.8977, -65.6036, 39.087
5.868, 5, 34.7466, 51.1722, -12.0365, 93.8944, -65.6168, 39.0824
5.872, 5, 34.7452, 51.1746, -12.034, 93.8912, -65.6301, 39.0779
5.876, 5, 34.7438, 51.1769, -12.0315, 93.8879, -65.6434, 39.0733
5.88, 5, 34.7423, 51.1793, -12.0291, 93.8847, -65.6566, 39.0687
5.884, 5, 34.7409, 51.1817, -12.0267, 93.8815, -65.6699, 39.0642
5.888, 5, 34.7395, 51.184, -12.0242, 93.8783, -65.6832, 39.0596
5.892, 5, 34.738, 51.1864, -12.0218, 93.8751, -65.6965, 39.055
5.896, 5, 34.7366, 51.1888, -12.0194, 93.8719, -65.7098, 39.0505
5.9, 5, 34.7352, 51.1911, -12.017, 93.8688, -65.7231, 39.0459
5.904, 5, 34.7337, 51.1935, -12.0146, 93.8656, -65.7364, 39.0413
5.908, 5, 34.7323, 51.1959, -12.0122, 93.8624, -65.7497, 39.0367
5.912, 5, 34.7309, 51.1983, -12.0098, 93.8593, -65.763, 39.0322
5.916, 5, 34.7294, 51.2006, -12.0074, 93.8561, -65.7763, 39.0276
5.92, 5, 34.728, 51.203, -12.005, 93.853, -65.7896, 39.023
5.924, 5, 34.7266, 51.2054, -12.0026, 93.8498, -65.8029, 39.0184
5.928, 5, 34.7251, 51.2077, -12.0002, 93.8467, -65.8162, 39.0138
5.932, 5, 34.7237, 51.2101, -11.9978, 93.8435, -65.8295, 39.0092
5.936, 5, 34.7223, 51.2125, -11.9953, 93.8404, -65.8428, 39.0047
5.94, 5, 34.7208, 51.2149, -11.9929, 93.8372, -65.8561, 39.0001
5.944, 5, 34.7194, 51.2172, -11.9905, 93.8341, -65.8694, 38.9955
5.948, 5, 34.718, 51.2196, -11.9881, 93.8309, -65.8828, 38.9909
5.952, 5, 34.7165, 51.222, -11.9857, 93.8278, -65.8961, 38.9864
5.956, 5, 34.7151, 51.2243, -11.9833, 93.8246, -65.9094, 38.9818
5.96, 5, 34.7137, 51.2267, -11.9809, 93.8215, -65.9227, 38.9772
5.964, 5, 34.7122, 51.2291, -11.9785, 93.8183, -65.936, 38.9726
5.968, 5, 34.7108, 51.2314, -11.9761, 93.8152, -65.9493, 38.968
5.972, 5, 34.7094, 51.2338, -11.9737, 93.812, -65.9626, 38.9635
5.976, 5, 34.7079, 51.2361, -11.9712, 93.8088, -65.9759, 38.9589
5.98, 5, 34.7065, 51.2385, -11.9688, 93.8057, -65.9892, 38.9543
5.984, 5, 34.705, 51.2409, -11.9664, 93.8025, -66.0025, 38.9498
5.988, 5, 34.7036, 51.2432, -11.964, 93.7993, -66.0158, 38.9452
5.992, 5, 34.7022, 51.2456, -11.9615, 93.7962, -66.0291, 38.9406
5.996, 5, 34.7007, 51.2479, -11.9591, 93.793, -66.0424, 38.936
6, 5, 34.6993, 51.2503, -11.9567, 93.7898, -66.0557, 38.9315
6.004, 5, 34.6978, 51.2526, -11.9542, 93.7867, -66.069, 38.9269
6.008, 5, 34.6964, 51.255, -11.9518, 93.7835, -66.0823, 38.9223
6.012, 5, 34.6949, 51.2573, -11.9494, 93.7803, -66.0956, 38.9178
6.016, 5, 34.6935, 51.2597, -11.9469, 93.7771, -66.1089, 38.9132
6.02, 5, 34.692, 51.262, -11.9445, 93.7739, -66.1222, 38.9086
6.024, 5, 34.6906, 51.2644, -11.942, 93.7708, -66.1355, 38.9041
6.028, 5, 34.6892, 51.2667, -11.9396, 93.7676, -66.1488, 38.8995
6.032, 5, 34.6877, 51.269, -11.9371, 93.7644, -66.1621, 38.8949
6.036, 5, 34.6863, 51.2714, -11.9347, 93.7612, -66.1754, 38.8904
6.04, 5, 34.6848, 51.2737, -11.9322, 93.758, -66.1887, 38.8858
6.044, 5, 34.6833, 51.276, -11.9297, 93.7548, -66.202, 38.8813
6.048, 5, 34.6819, 51.2784, -11.9273, 93.7516, -66.2153, 38.8767
6.052, 5, 34.6804, 51.2807, -11.9248, 93.7484, -66.2286, 38.8721
6.056, 5, 34.679, 51.283, -11.9223, 93.7452, -66.2419, 38.8676
6.06, 5, 34.6775, 51.2854, -11.9199, 93.7421, -66.2552, 38.863
6.064, 5, 34.6761, 51.2877, -11.9174, 93.7389, -66.2685, 38.8585
6.068, 5, 34.6746, 51.29, -11.9149, 93.7356, -66.2818, 38.8539
6.072, 5, 34.6732, 51.2923, -11.9125, 93.7324, -66.2951, 38.8494
6.076, 5, 34.6717, 51.2947, -11.91, 93.7292, -66.3084, 38.8448
6.08, 5, 34.6703, 51.297, -11.9075, 93.726, -66.3217, 38.8403
6.084, 5, 34.6688, 51.2993, -11.905, 93.7228, -66.335, 38.8357
6.088, 5, 34.6673, 51.3016, -11.9025, 93.7196, -66.3482, 38.8312
6.092, 5, 34.6659, 51.3039, -11.9, 93.7164, -66.3615, 38.8266
6.096, 5, 34.6644, 51.3062, -11.8975, 93.7132, -66.3748, 38.8221
6.1, 5, 34.663, 51.3086, -11.895, 93.71, -66.3881, 38.8175
6.104, 5, 34.6615, 51.3109, -11.8925, 93.7067, -66.4014, 38.813
6.108, 5, 34.66, 51.3132, -11.8901, 93.7035, -66.4147, 38.8084
6.112, 5, 34.6586, 51.3155, -11.8876, 93.7003, -66.428, 38.8039
6.116, 5, 34.6571, 51.3178, -11.885, 93.6971, -66.4412, 38.7993
6.12, 5, 34.6557, 51.3201, -11.8825, 93.6938, -66.4545, 38.7948
6.124, 5, 34.6542, 51.3224, -11.88, 93.6906, -66.4678, 38.7902
6.128, 5, 34.6527, 51.3247, -11.8775, 93.6874, -66.4811, 38.7857
6.132, 5, 34.6513, 51.327, -11.875, 93.6842, -66.4944, 38.7811
6.136, 5, 34.6498, 51.3293, -11.8725, 93.6809, -66.5077, 38.7766
6.14, 5, 34.6483, 51.3316, -11.87, 93.6777, -66.521, 38.7721
6.144, 5, 34.6468, 51.3339, -11.8675, 93.6745, -66.5342, 38.7675
6.148, 5, 34.6454, 51.3362, -11.8649, 93.6712, -66.5475, 38.763
6.152, 5, 34.6439, 51.3385, -11.8624, 93.668, -66.5608, 38.7584
6.156, 5, 34.6424, 51.3408, -11.8599, 93.6647, -66.5741, 38.7539
6.16, 5, 34.641, 51.3431, -11.8574, 93.6615, -66.5873, 38.7494
6.164, 5, 34.6395, 51.3454, -11.8548, 93.6582, -66.6006, 38.7448
6.168, 5, 34.638, 51.3476, -11.8523, 93.655, -66.6139, 38.7403
6.172, 5, 34.6366, 51.3499, -11.8498, 93.6517, -66.6272, 38.7357
6.176, 5, 34.6351, 51.3522, -11.8472, 93.6485, -66.6404, 38.7312
6.18, 5, 34.6336, 51.3545, -11.8447, 93.6452, -66.6537, 38.7267
6.184, 5, 34.6321, 51.3568, -11.8421, 93.642, -66.667, 38.7221
6.188, 5, 34.6306, 51.3591, -11.8396, 93.6387, -66.6803, 38.7176
6.192, 5, 34.6292, 51.3613, -11.837, 93.6355, -66.6935, 38.7131
6.196, 5, 34.6277, 51.3636, -11.8345, 93.6322, -66.7068, 38.7086
6.2, 5, 34.6262, 51.3659, -11.8319, 93.629, -66.7201, 38.704
6.204, 5, 34.6247, 51.3682, -11.8294, 93.6257, -66.7334, 38.6995
6.208, 5, 34.6233, 51.3704, -11.8268, 93.6224, -66.7466, 38.695
6.212, 5, 34.6218, 51.3727, -11.8243, 93.6191, -66.7599, 38.6904
6.216, 5, 34.6203, 51.375, -11.8217, 93.6159, -66.7732, 38.6859
6.22, 5, 34.6188, 51.3772, -11.8191, 93.6126, -66.7864, 38.6814
6.224, 5, 34.6173, 51.3795, -11.8166, 93.6093, -66.7997, 38.6769
6.228, 5, 34.6158, 51.3818, -11.814, 93.6061, -66.813, 38.6723
6.232, 5, 34.6144, 51.384, -11.8114, 93.6028, -66.8262, 38.6678
6.236, 5, 34.6129, 51.3863, -11.8089, 93.5995, -66.8395, 38.6633
6.24, 5, 34.6114, 51.3886, -11.8063, 93.5962, -66.8528, 38.6588
