hehonglu123/ABB_Primitive_Study/execution/movec_smooth/curve_exe_v500_z20.csv
timestamp, cmd_num, J1, J2, J3, J4, J5, J6
0, -1, 32.9528, 52.8019, -8.46502, 89.9168, -78.8096, 34.6812
0.002, -1, 32.9528, 52.8019, -8.46502, 89.9168, -78.8096, 34.6812
0.006, -1, 32.9528, 52.8019, -8.46502, 89.9168, -78.8096, 34.6812
0.008, -1, 32.9528, 52.8019, -8.46502, 89.9168, -78.8096, 34.6812
0.011, -1, 32.9528, 52.8019, -8.46502, 89.9168, -78.8096, 34.6812
0.016, -1, 32.9528, 52.8019, -8.46502, 89.9168, -78.8096, 34.6812
0.02, -1, 32.9528, 52.8019, -8.46502, 89.9168, -78.8096, 34.6812
0.024, -1, 32.9528, 52.8019, -8.46502, 89.9168, -78.8096, 34.6812
0.028, -1, 32.9528, 52.8019, -8.46502, 89.9168, -78.8096, 34.6812
0.032, -1, 32.9528, 52.8019, -8.46502, 89.9168, -78.8096, 34.6812
0.036, -1, 32.9529, 52.8019, -8.46502, 89.9168, -78.8096, 34.6812
0.04, -1, 32.9531, 52.8018, -8.46503, 89.9168, -78.8095, 34.6812
0.044, -1, 32.9535, 52.8014, -8.46504, 89.9169, -78.8095, 34.6812
0.048, -1, 32.9543, 52.8006, -8.46509, 89.9169, -78.8093, 34.6813
0.052, -1, 32.9556, 52.7993, -8.46521, 89.917, -78.8088, 34.6815
0.056, -1, 32.9574, 52.7971, -8.46543, 89.9173, -78.8079, 34.6818
0.06, -1, 32.9597, 52.794, -8.46584, 89.9178, -78.8061, 34.6824
0.064, -1, 32.9625, 52.7899, -8.46653, 89.9186, -78.803, 34.6835
0.068, -1, 32.9659, 52.7849, -8.46761, 89.92, -78.798, 34.6852
0.072, -1, 32.9697, 52.7789, -8.46923, 89.922, -78.7905, 34.6877
0.076, -1, 32.9741, 52.7719, -8.47155, 89.925, -78.7796, 34.6915
0.08, -1, 32.9791, 52.7639, -8.47475, 89.9292, -78.7644, 34.6967
0.084, -1, 32.9847, 52.7549, -8.47904, 89.9348, -78.744, 34.7037
0.088, -1, 32.991, 52.7451, -8.48461, 89.9421, -78.7174, 34.7128
0.092, -1, 32.9978, 52.7344, -8.49169, 89.9515, -78.6834, 34.7244
0.096, -1, 33.005, 52.7231, -8.50046, 89.9631, -78.6411, 34.7389
0.1, -1, 33.0126, 52.7112, -8.51109, 89.9773, -78.5897, 34.7566
0.104, -1, 33.0204, 52.699, -8.5237, 89.9942, -78.5285, 34.7775
0.108, -1, 33.0284, 52.6863, -8.53837, 90.0139, -78.4572, 34.802
0.112, -1, 33.0368, 52.673, -8.55512, 90.0364, -78.3757, 34.8299
0.116, -1, 33.0455, 52.6592, -8.57391, 90.0617, -78.2841, 34.8613
0.12, -1, 33.0546, 52.6447, -8.59467, 90.0896, -78.183, 34.896
0.124, -1, 33.0642, 52.6296, -8.61726, 90.12, -78.0728, 34.9337
0.128, -1, 33.0741, 52.6139, -8.64153, 90.1527, -77.9545, 34.9743
0.131, -1, 33.0844, 52.5977, -8.6673, 90.1875, -77.8288, 35.0174
0.136, -1, 33.0949, 52.5809, -8.69437, 90.2239, -77.6968, 35.0627
0.139, -1, 33.1058, 52.5633, -8.72251, 90.2618, -77.5596, 35.1097
0.144, -1, 33.1172, 52.5447, -8.75152, 90.3009, -77.4182, 35.1582
0.148, -1, 33.1293, 52.525, -8.7812, 90.3408, -77.2736, 35.2077
0.152, -1, 33.1421, 52.5041, -8.81138, 90.3814, -77.1267, 35.2581
0.156, -1, 33.1556, 52.4819, -8.8419, 90.4224, -76.9782, 35.309
0.16, -1, 33.17, 52.4586, -8.87265, 90.4637, -76.8286, 35.3603
0.164, -1, 33.1849, 52.4345, -8.90354, 90.5052, -76.6784, 35.4118
0.168, -1, 33.2004, 52.4098, -8.9345, 90.5467, -76.5279, 35.4634
0.172, -1, 33.2161, 52.3847, -8.9655, 90.5883, -76.3772, 35.515
0.176, -1, 33.2321, 52.3594, -8.9965, 90.6299, -76.2265, 35.5667
0.18, -1, 33.2481, 52.334, -9.02748, 90.6715, -76.076, 35.6183
0.184, -1, 33.2643, 52.3084, -9.05844, 90.713, -75.9256, 35.6699
0.188, -1, 33.2805, 52.2828, -9.08935, 90.7545, -75.7754, 35.7214
0.192, -1, 33.2967, 52.2573, -9.12022, 90.7959, -75.6254, 35.7728
0.196, -1, 33.3129, 52.2317, -9.15103, 90.8372, -75.4757, 35.8241
0.2, -1, 33.3291, 52.2061, -9.1818, 90.8785, -75.3262, 35.8753
0.204, -1, 33.3453, 52.1806, -9.21251, 90.9197, -75.177, 35.9265
0.208, -1, 33.3614, 52.1551, -9.24316, 90.9608, -75.028, 35.9775
0.212, -1, 33.3776, 52.1296, -9.27376, 91.0018, -74.8794, 36.0285
0.216, -1, 33.3937, 52.1042, -9.3043, 91.0428, -74.731, 36.0794
0.22, -1, 33.4098, 52.0788, -9.33479, 91.0837, -74.5829, 36.1302
0.224, -1, 33.4258, 52.0535, -9.36522, 91.1245, -74.435, 36.1808
0.228, -1, 33.4419, 52.0282, -9.3956, 91.1652, -74.2874, 36.2314
0.232, -1, 33.4579, 52.003, -9.42592, 91.2059, -74.1401, 36.2819
0.236, -1, 33.4738, 51.9778, -9.45618, 91.2465, -73.9931, 36.3323
0.24, -1, 33.4898, 51.9526, -9.48639, 91.287, -73.8463, 36.3826
0.244, -1, 33.5057, 51.9275, -9.51654, 91.3275, -73.6998, 36.4329
0.248, -1, 33.5216, 51.9025, -9.54664, 91.3678, -73.5536, 36.483
0.252, -1, 33.5374, 51.8774, -9.57668, 91.4081, -73.4076, 36.533
0.256, -1, 33.5533, 51.8525, -9.60667, 91.4483, -73.2619, 36.583
0.26, -1, 33.5691, 51.8276, -9.6366, 91.4885, -73.1165, 36.6328
0.264, -1, 33.5848, 51.8027, -9.66649, 91.5286, -72.9713, 36.6826
0.268, -1, 33.6006, 51.7778, -9.69631, 91.5686, -72.8264, 36.7323
0.272, -1, 33.6163, 51.7531, -9.72609, 91.6085, -72.6817, 36.7819
0.276, -1, 33.632, 51.7283, -9.75581, 91.6484, -72.5373, 36.8314
0.28, -1, 33.6476, 51.7036, -9.78547, 91.6882, -72.3932, 36.8808
0.284, -1, 33.6633, 51.679, -9.81509, 91.7279, -72.2493, 36.9301
0.288, -1, 33.6789, 51.6544, -9.84465, 91.7675, -72.1057, 36.9794
0.292, -1, 33.6945, 51.6298, -9.87416, 91.8071, -71.9623, 37.0285
0.296, -1, 33.71, 51.6053, -9.90362, 91.8466, -71.8191, 37.0776
0.3, -1, 33.7255, 51.5808, -9.93303, 91.8861, -71.6763, 37.1265
0.304, -1, 33.741, 51.5563, -9.96238, 91.9255, -71.5336, 37.1754
0.308, -1, 33.7565, 51.5319, -9.99169, 91.9648, -71.3913, 37.2243
0.312, -1, 33.7719, 51.5076, -10.0209, 92.004, -71.2491, 37.273
0.316, -1, 33.7873, 51.4833, -10.0501, 92.0432, -71.1073, 37.3216
0.32, -1, 33.8027, 51.459, -10.0793, 92.0823, -70.9656, 37.3702
0.324, -1, 33.8181, 51.4348, -10.1084, 92.1213, -70.8242, 37.4186
0.328, -1, 33.8334, 51.4106, -10.1374, 92.1603, -70.6831, 37.467
0.332, -1, 33.8487, 51.3864, -10.1665, 92.1992, -70.5422, 37.5153
0.336, -1, 33.864, 51.3623, -10.1954, 92.238, -70.4015, 37.5636
0.34, -1, 33.8793, 51.3383, -10.2243, 92.2768, -70.261, 37.6117
0.344, -1, 33.8945, 51.3142, -10.2532, 92.3155, -70.1209, 37.6598
0.348, -1, 33.9097, 51.2903, -10.282, 92.3541, -69.9809, 37.7077
0.352, -1, 33.9249, 51.2663, -10.3107, 92.3927, -69.8412, 37.7556
0.356, -1, 33.94, 51.2424, -10.3394, 92.4312, -69.7017, 37.8034
0.36, -1, 33.9552, 51.2186, -10.3681, 92.4696, -69.5624, 37.8512
0.364, -1, 33.9703, 51.1947, -10.3967, 92.508, -69.4234, 37.8988
0.368, -1, 33.9853, 51.171, -10.4253, 92.5463, -69.2846, 37.9464
0.372, -1, 34.0004, 51.1472, -10.4538, 92.5846, -69.1461, 37.9939
0.376, -1, 34.0154, 51.1235, -10.4823, 92.6228, -69.0078, 38.0413
0.38, -1, 34.0304, 51.0998, -10.5107, 92.6609, -68.8697, 38.0887
0.384, -1, 34.0454, 51.0762, -10.5391, 92.6989, -68.7318, 38.1359
0.388, -1, 34.0604, 51.0526, -10.5674, 92.7369, -68.5941, 38.1831
0.392, -1, 34.0753, 51.0291, -10.5957, 92.7749, -68.4567, 38.2302
0.396, -1, 34.0902, 51.0056, -10.6239, 92.8127, -68.3195, 38.2773
0.4, -1, 34.1051, 50.9821, -10.6521, 92.8506, -68.1826, 38.3242
0.404, -1, 34.1199, 50.9587, -10.6803, 92.8883, -68.0458, 38.3711
0.408, -1, 34.1348, 50.9353, -10.7084, 92.926, -67.9093, 38.4179
0.412, -1, 34.1496, 50.9119, -10.7364, 92.9636, -67.773, 38.4646
0.416, -1, 34.1643, 50.8886, -10.7644, 93.0012, -67.6369, 38.5113
0.42, -1, 34.1791, 50.8653, -10.7924, 93.0387, -67.501, 38.5579
0.424, -1, 34.1938, 50.8421, -10.8203, 93.0762, -67.3653, 38.6044
0.428, -1, 34.2086, 50.8189, -10.8482, 93.1136, -67.2299, 38.6508
0.432, -1, 34.2232, 50.7957, -10.876, 93.1509, -67.0947, 38.6971
0.436, -1, 34.2379, 50.7726, -10.9038, 93.1881, -66.9597, 38.7434
0.44, -1, 34.2526, 50.7495, -10.9315, 93.2254, -66.8249, 38.7896
0.444, -1, 34.2672, 50.7264, -10.9592, 93.2625, -66.6903, 38.8358
0.448, -1, 34.2818, 50.7034, -10.9869, 93.2996, -66.5559, 38.8818
0.452, -1, 34.2964, 50.6804, -11.0145, 93.3367, -66.4217, 38.9278
0.456, -1, 34.3109, 50.6574, -11.0421, 93.3736, -66.2878, 38.9738
0.46, -1, 34.3254, 50.6345, -11.0696, 93.4106, -66.154, 39.0196
0.464, -1, 34.3399, 50.6116, -11.0971, 93.4474, -66.0204, 39.0654
0.468, -1, 34.3544, 50.5888, -11.1246, 93.4842, -65.8871, 39.1111
0.472, -1, 34.3689, 50.566, -11.152, 93.521, -65.754, 39.1567
0.476, -1, 34.3833, 50.5432, -11.1793, 93.5577, -65.621, 39.2023
0.48, -1, 34.3978, 50.5204, -11.2066, 93.5943, -65.4883, 39.2478
0.484, -1, 34.4121, 50.4977, -11.2339, 93.6309, -65.3558, 39.2933
0.488, -1, 34.4265, 50.475, -11.2612, 93.6675, -65.2234, 39.3386
0.492, -1, 34.4409, 50.4524, -11.2883, 93.7039, -65.0913, 39.3839
0.496, -1, 34.4552, 50.4298, -11.3155, 93.7404, -64.9594, 39.4291
0.5, -1, 34.4695, 50.4072, -11.3426, 93.7767, -64.8276, 39.4743
0.504, -1, 34.4838, 50.3847, -11.3697, 93.813, -64.6961, 39.5194
0.508, -1, 34.4981, 50.3622, -11.3967, 93.8493, -64.5647, 39.5644
0.512, -1, 34.5123, 50.3397, -11.4237, 93.8855, -64.4336, 39.6094
0.516, -1, 34.5265, 50.3173, -11.4507, 93.9217, -64.3026, 39.6543
0.52, -1, 34.5408, 50.2949, -11.4776, 93.9578, -64.1719, 39.6991
0.524, -1, 34.5549, 50.2725, -11.5045, 93.9938, -64.0413, 39.7439
0.528, -1, 34.5691, 50.2501, -11.5313, 94.0298, -63.9109, 39.7886
0.532, -1, 34.5832, 50.2278, -11.5581, 94.0657, -63.7807, 39.8332
0.536, -1, 34.5974, 50.2056, -11.5848, 94.1016, -63.6507, 39.8777
0.54, -1, 34.6115, 50.1833, -11.6116, 94.1375, -63.5209, 39.9222
0.544, -1, 34.6255, 50.1611, -11.6382, 94.1732, -63.3913, 39.9667
0.548, -1, 34.6396, 50.1389, -11.6649, 94.209, -63.2619, 40.0111
0.552, -1, 34.6536, 50.1168, -11.6915, 94.2447, -63.1326, 40.0554
0.556, -1, 34.6677, 50.0947, -11.718, 94.2803, -63.0036, 40.0996
0.56, -1, 34.6817, 50.0726, -11.7446, 94.3159, -62.8747, 40.1438
0.564, -1, 34.6956, 50.0505, -11.7711, 94.3514, -62.746, 40.1879
0.568, -1, 34.7096, 50.0285, -11.7975, 94.3869, -62.6175, 40.2319
0.572, -1, 34.7235, 50.0065, -11.8239, 94.4223, -62.4892, 40.2759
0.576, -1, 34.7375, 49.9846, -11.8503, 94.4577, -62.361, 40.3199
0.58, -1, 34.7514, 49.9626, -11.8766, 94.493, -62.2331, 40.3637
0.584, -1, 34.7652, 49.9407, -11.9029, 94.5283, -62.1053, 40.4075
0.588, -1, 34.7791, 49.9189, -11.9292, 94.5635, -61.9777, 40.4513
0.592, -1, 34.7929, 49.897, -11.9554, 94.5987, -61.8503, 40.495
0.596, -1, 34.8068, 49.8752, -11.9816, 94.6338, -61.723, 40.5386
0.6, -1, 34.8206, 49.8535, -12.0078, 94.6689, -61.5959, 40.5821
0.604, -1, 34.8343, 49.8317, -12.0339, 94.7039, -61.4691, 40.6256
0.608, -1, 34.8481, 49.81, -12.0599, 94.7389, -61.3423, 40.6691
0.612, -1, 34.8618, 49.7883, -12.086, 94.7738, -61.2158, 40.7125
0.616, -1, 34.8756, 49.7667, -12.112, 94.8087, -61.0894, 40.7558
0.62, -1, 34.8893, 49.7451, -12.138, 94.8435, -60.9632, 40.799
0.624, -1, 34.903, 49.7235, -12.1639, 94.8783, -60.8372, 40.8422
0.628, -1, 34.9166, 49.7019, -12.1898, 94.9131, -60.7114, 40.8854
0.632, -1, 34.9303, 49.6804, -12.2157, 94.9478, -60.5857, 40.9284
0.636, -1, 34.9439, 49.6589, -12.2415, 94.9824, -60.4602, 40.9715
0.64, -1, 34.9575, 49.6374, -12.2673, 95.017, -60.3349, 41.0144
0.644, -1, 34.9711, 49.6159, -12.2931, 95.0516, -60.2097, 41.0573
0.648, -1, 34.9847, 49.5945, -12.3188, 95.0861, -60.0847, 41.1002
0.652, -1, 34.9983, 49.5731, -12.3445, 95.1205, -59.9599, 41.143
0.656, -1, 35.0118, 49.5518, -12.3701, 95.1549, -59.8352, 41.1857
0.66, -1, 35.0253, 49.5304, -12.3958, 95.1893, -59.7107, 41.2284
0.664, -1, 35.0388, 49.5091, -12.4214, 95.2236, -59.5864, 41.271
0.668, -1, 35.0523, 49.4879, -12.4469, 95.2579, -59.4622, 41.3136
0.672, -1, 35.0658, 49.4666, -12.4724, 95.2921, -59.3382, 41.3561
0.676, -1, 35.0792, 49.4454, -12.4979, 95.3263, -59.2144, 41.3985
0.68, -1, 35.0927, 49.4242, -12.5234, 95.3605, -59.0907, 41.4409
0.684, -1, 35.1061, 49.4031, -12.5488, 95.3946, -58.9672, 41.4833
0.688, -1, 35.1195, 49.3819, -12.5742, 95.4286, -58.8439, 41.5256
0.692, -1, 35.1329, 49.3608, -12.5995, 95.4626, -58.7207, 41.5678
0.696, -1, 35.1462, 49.3397, -12.6249, 95.4966, -58.5977, 41.61
0.7, -1, 35.1596, 49.3187, -12.6501, 95.5305, -58.4748, 41.6521
0.704, -1, 35.1729, 49.2977, -12.6754, 95.5644, -58.3521, 41.6941
0.708, -1, 35.1862, 49.2767, -12.7006, 95.5982, -58.2296, 41.7361
0.712, -1, 35.1995, 49.2557, -12.7258, 95.632, -58.1072, 41.7781
0.716, -1, 35.2128, 49.2347, -12.751, 95.6657, -57.985, 41.82
0.72, -1, 35.226, 49.2138, -12.7761, 95.6994, -57.8629, 41.8618
0.724, -1, 35.2393, 49.1929, -12.8012, 95.7331, -57.741, 41.9036
0.728, -1, 35.2525, 49.1721, -12.8262, 95.7667, -57.6192, 41.9454
0.732, -1, 35.2657, 49.1512, -12.8513, 95.8003, -57.4976, 41.9871
0.736, -1, 35.2789, 49.1304, -12.8763, 95.8338, -57.3762, 42.0287
0.74, -1, 35.2921, 49.1097, -12.9012, 95.8673, -57.2549, 42.0703
0.744, -1, 35.3052, 49.0889, -12.9262, 95.9007, -57.1338, 42.1118
0.748, -1, 35.3184, 49.0682, -12.9511, 95.9341, -57.0128, 42.1533
0.752, -1, 35.3315, 49.0475, -12.9759, 95.9675, -56.8919, 42.1947
0.756, -1, 35.3446, 49.0268, -13.0008, 96.0008, -56.7712, 42.2361
0.76, -1, 35.3577, 49.0061, -13.0256, 96.0341, -56.6507, 42.2774
0.764, -1, 35.3708, 48.9855, -13.0504, 96.0673, -56.5303, 42.3187
0.768, -1, 35.3838, 48.9649, -13.0751, 96.1005, -56.4101, 42.3599
0.772, -1, 35.3969, 48.9443, -13.0998, 96.1336, -56.29, 42.401
0.776, -1, 35.4099, 48.9238, -13.1245, 96.1667, -56.1701, 42.4422
0.78, -1, 35.4229, 48.9032, -13.1492, 96.1998, -56.0503, 42.4832
0.784, -1, 35.4359, 48.8827, -13.1738, 96.2328, -55.9307, 42.5242
0.788, -1, 35.4489, 48.8623, -13.1984, 96.2658, -55.8112, 42.5652
0.792, -1, 35.4619, 48.8418, -13.2229, 96.2988, -55.6918, 42.6061
0.796, -1, 35.4748, 48.8214, -13.2475, 96.3317, -55.5726, 42.647
0.8, -1, 35.4877, 48.801, -13.272, 96.3645, -55.4535, 42.6878
0.804, -1, 35.5006, 48.7806, -13.2965, 96.3974, -55.3346, 42.7285
0.808, -1, 35.5136, 48.7603, -13.3209, 96.4302, -55.2159, 42.7693
0.812, -1, 35.5264, 48.7399, -13.3453, 96.4629, -55.0972, 42.8099
0.816, -1, 35.5393, 48.7196, -13.3697, 96.4956, -54.9787, 42.8506
0.82, -1, 35.5522, 48.6994, -13.3941, 96.5283, -54.8604, 42.8911
0.824, -1, 35.565, 48.6791, -13.4184, 96.5609, -54.7422, 42.9316
0.828, -1, 35.5778, 48.6589, -13.4427, 96.5935, -54.6241, 42.9721
0.832, -1, 35.5906, 48.6387, -13.467, 96.6261, -54.5062, 43.0125
0.836, -1, 35.6034, 48.6185, -13.4912, 96.6586, -54.3884, 43.0529
0.84, -1, 35.6162, 48.5983, -13.5154, 96.6911, -54.2707, 43.0933
0.844, -1, 35.629, 48.5782, -13.5396, 96.7235, -54.1532, 43.1335
0.848, -1, 35.6417, 48.5581, -13.5638, 96.7559, -54.0358, 43.1738
0.852, -1, 35.6545, 48.538, -13.5879, 96.7883, -53.9186, 43.214
0.856, -1, 35.6672, 48.5179, -13.612, 96.8206, -53.8015, 43.2541
0.86, -1, 35.6799, 48.4979, -13.6361, 96.8529, -53.6845, 43.2942
0.864, -1, 35.6925, 48.4779, -13.6601, 96.8852, -53.5677, 43.3343
0.868, -1, 35.7051, 48.458, -13.6841, 96.9174, -53.451, 43.3743
0.872, -1, 35.7176, 48.4381, -13.7081, 96.9496, -53.3345, 43.4142
0.876, -1, 35.73, 48.4184, -13.7321, 96.9817, -53.2181, 43.4541
0.88, -1, 35.7419, 48.3992, -13.756, 97.0137, -53.102, 43.4939
0.884, -1, 35.7533, 48.3805, -13.7798, 97.0457, -52.9863, 43.5336
0.888, -1, 35.7641, 48.3627, -13.8035, 97.0775, -52.8712, 43.5731
0.892, -1, 35.7742, 48.3457, -13.8269, 97.109, -52.757, 43.6122
0.896, -1, 35.7836, 48.3297, -13.8501, 97.1401, -52.6444, 43.6508
0.9, -1, 35.7924, 48.3145, -13.8728, 97.1706, -52.534, 43.6887
0.904, -1, 35.8007, 48.3002, -13.895, 97.2003, -52.4264, 43.7256
0.908, -1, 35.8087, 48.2866, -13.9163, 97.229, -52.3226, 43.7613
0.912, -1, 35.8164, 48.2736, -13.9367, 97.2564, -52.2234, 43.7953
0.916, -1, 35.8238, 48.2613, -13.956, 97.2823, -52.1296, 43.8275
0.92, -1, 35.8309, 48.2497, -13.9741, 97.3065, -52.042, 43.8576
0.924, -1, 35.8377, 48.2387, -13.9907, 97.3288, -51.9612, 43.8853
0.928, -1, 35.8442, 48.2281, -14.0057, 97.3491, -51.888, 43.9104
0.932, -1, 35.8507, 48.2178, -14.0192, 97.3671, -51.8226, 43.9328
0.936, -1, 35.8571, 48.2077, -14.031, 97.3829, -51.7653, 43.9524
0.94, -1, 35.8634, 48.1979, -14.0412, 97.3966, -51.716, 43.9693
0.944, -1, 35.8695, 48.1884, -14.0498, 97.4081, -51.6743, 43.9836
0.948, -1, 35.8755, 48.1793, -14.0569, 97.4175, -51.6399, 43.9954
0.952, -1, 35.8812, 48.1708, -14.0626, 97.4252, -51.612, 44.0049
0.956, -1, 35.8865, 48.1631, -14.0672, 97.4313, -51.5899, 44.0124
0.96, -1, 35.8915, 48.1562, -14.0707, 97.436, -51.5728, 44.0183
0.964, -1, 35.896, 48.1502, -14.0734, 97.4396, -51.5598, 44.0227
0.968, -1, 35.9001, 48.145, -14.0754, 97.4422, -51.5503, 44.0259
0.972, -1, 35.9037, 48.1406, -14.0768, 97.4441, -51.5433, 44.0283
0.976, 2, 35.9067, 48.1371, -14.0778, 97.4454, -51.5385, 44.0299
0.98, 2, 35.9091, 48.1343, -14.0785, 97.4463, -51.5351, 44.0311
0.984, 2, 35.911, 48.1323, -14.079, 97.4469, -51.5327, 44.0319
0.988, 2, 35.9123, 48.1308, -14.0793, 97.4474, -51.5312, 44.0324
0.992, 2, 35.9132, 48.1299, -14.0796, 97.4477, -51.5301, 44.0328
0.996, 2, 35.9138, 48.1292, -14.0797, 97.4479, -51.5294, 44.033
1, 2, 35.9142, 48.1287, -14.0798, 97.448, -51.5289, 44.0332
1.004, 2, 35.9145, 48.1284, -14.0799, 97.4481, -51.5285, 44.0333
1.008, 2, 35.9147, 48.1282, -14.0799, 97.4482, -51.5283, 44.0334
1.012, 2, 35.9149, 48.1281, -14.08, 97.4482, -51.5282, 44.0334
1.016, 2, 35.9149, 48.128, -14.08, 97.4482, -51.5281, 44.0335
1.02, 2, 35.915, 48.1279, -14.08, 97.4482, -51.528, 44.0335
1.024, 2, 35.915, 48.1279, -14.08, 97.4483, -51.5279, 44.0335
1.027, 2, 35.9151, 48.1278, -14.08, 97.4483, -51.5279, 44.0335
1.032, 2, 35.9151, 48.1278, -14.08, 97.4483, -51.5279, 44.0335
1.036, 2, 35.9151, 48.1278, -14.08, 97.4483, -51.5279, 44.0335
1.04, 2, 35.9151, 48.1278, -14.08, 97.4483, -51.5279, 44.0335
1.044, 2, 35.9151, 48.1278, -14.08, 97.4483, -51.5279, 44.0335
1.048, 2, 35.9151, 48.1278, -14.08, 97.4483, -51.5279, 44.0335
1.052, 2, 35.9151, 48.1278, -14.08, 97.4483, -51.5278, 44.0335
1.055, 2, 35.9151, 48.1278, -14.08, 97.4483, -51.5278, 44.0335
1.06, 2, 35.9151, 48.1278, -14.08, 97.4483, -51.5278, 44.0335
1.064, 2, 35.9151, 48.1278, -14.08, 97.4483, -51.5278, 44.0335
1.068, 2, 35.9151, 48.1278, -14.08, 97.4483, -51.5278, 44.0335
1.072, 2, 35.9151, 48.1278, -14.08, 97.4483, -51.5278, 44.0335
1.076, 2, 35.9151, 48.1278, -14.08, 97.4483, -51.5278, 44.0335
1.08, 2, 35.9151, 48.1278, -14.08, 97.4483, -51.5278, 44.0335
1.084, 2, 35.9151, 48.1278, -14.08, 97.4483, -51.5278, 44.0335
1.088, 2, 35.9151, 48.1278, -14.08, 97.4483, -51.5278, 44.0335
1.091, 2, 35.9151, 48.1278, -14.08, 97.4483, -51.5278, 44.0335
1.096, 2, 35.9151, 48.1278, -14.08, 97.4483, -51.5278, 44.0335
1.1, 2, 35.9151, 48.1278, -14.08, 97.4483, -51.5278, 44.0335
1.104, 2, 35.9151, 48.1278, -14.08, 97.4483, -51.5278, 44.0335
1.108, 2, 35.9151, 48.1278, -14.08, 97.4483, -51.5278, 44.0335
1.112, 2, 35.9151, 48.1278, -14.08, 97.4483, -51.5278, 44.0335
1.116, 2, 35.9151, 48.1278, -14.08, 97.4483, -51.5278, 44.0335
1.119, 2, 35.9151, 48.1278, -14.08, 97.4483, -51.5278, 44.0335
1.124, 2, 35.9151, 48.1278, -14.08, 97.4483, -51.5278, 44.0335
1.128, 2, 35.9151, 48.1278, -14.08, 97.4483, -51.5278, 44.0335
1.132, 2, 35.9151, 48.1278, -14.08, 97.4483, -51.5278, 44.0335
1.136, 2, 35.9151, 48.1278, -14.08, 97.4483, -51.5278, 44.0335
1.14, 2, 35.9151, 48.1278, -14.08, 97.4483, -51.5278, 44.0335
1.144, 2, 35.9151, 48.1278, -14.08, 97.4483, -51.5278, 44.0335
1.147, 2, 35.9151, 48.1278, -14.08, 97.4483, -51.5278, 44.0335
1.152, 2, 35.9151, 48.1278, -14.08, 97.4483, -51.5278, 44.0335
1.156, 2, 35.9151, 48.1278, -14.08, 97.4483, -51.5278, 44.0335
1.16, 2, 35.9151, 48.1278, -14.08, 97.4483, -51.5278, 44.0335
1.164, 2, 35.9151, 48.1278, -14.08, 97.4483, -51.5278, 44.0335
1.168, 2, 35.9151, 48.1278, -14.08, 97.4483, -51.5278, 44.0335
1.172, 2, 35.9151, 48.1278, -14.08, 97.4483, -51.5278, 44.0335
1.175, 2, 35.9151, 48.1278, -14.08, 97.4483, -51.5278, 44.0335
1.18, 2, 35.9151, 48.1278, -14.08, 97.4483, -51.5278, 44.0335
1.184, 2, 35.9151, 48.1278, -14.08, 97.4483, -51.5278, 44.0335
1.188, 2, 35.9151, 48.1278, -14.08, 97.4483, -51.5278, 44.0335
1.192, 2, 35.9151, 48.1278, -14.08, 97.4483, -51.5278, 44.0335
1.196, 2, 35.9151, 48.1278, -14.08, 97.4483, -51.5278, 44.0335
1.2, 2, 35.9151, 48.1278, -14.08, 97.4483, -51.5278, 44.0335
1.204, 2, 35.9151, 48.1278, -14.08, 97.4483, -51.5278, 44.0335
1.208, 2, 35.9151, 48.1278, -14.08, 97.4483, -51.5278, 44.0335
1.212, 2, 35.9151, 48.1278, -14.08, 97.4483, -51.5278, 44.0335
1.216, 2, 35.9151, 48.1278, -14.08, 97.4483, -51.5278, 44.0335
1.22, 2, 35.9151, 48.1278, -14.08, 97.4483, -51.5278, 44.0335
1.224, 2, 35.9151, 48.1278, -14.08, 97.4483, -51.5278, 44.0335
1.228, 2, 35.9151, 48.1278, -14.08, 97.4483, -51.5278, 44.0335
1.232, 2, 35.9151, 48.1278, -14.08, 97.4483, -51.5278, 44.0335
1.236, 2, 35.9151, 48.1278, -14.08, 97.4483, -51.5278, 44.0335
1.24, 2, 35.9151, 48.1278, -14.08, 97.4483, -51.5278, 44.0335
1.244, 2, 35.9151, 48.1278, -14.08, 97.4483, -51.5278, 44.0335
1.248, 2, 35.9151, 48.1278, -14.08, 97.4483, -51.5278, 44.0335
1.252, 2, 35.9151, 48.1278, -14.08, 97.4483, -51.5278, 44.0335
1.256, 2, 35.9151, 48.1278, -14.08, 97.4483, -51.5278, 44.0335
1.26, 2, 35.9151, 48.1278, -14.08, 97.4483, -51.5278, 44.0335
1.264, 2, 35.9151, 48.1278, -14.08, 97.4483, -51.5278, 44.0335
1.267, 2, 35.9151, 48.1278, -14.08, 97.4483, -51.5278, 44.0335
1.272, 2, 35.9151, 48.1278, -14.08, 97.4483, -51.5278, 44.0335
1.276, 2, 35.9151, 48.1278, -14.08, 97.4483, -51.5278, 44.0335
1.28, 2, 35.9151, 48.1278, -14.08, 97.4483, -51.5278, 44.0335
1.284, 2, 35.9151, 48.1278, -14.08, 97.4483, -51.5278, 44.0335
1.288, 2, 35.9151, 48.1278, -14.08, 97.4483, -51.5278, 44.0335
1.292, 2, 35.9151, 48.1278, -14.08, 97.4483, -51.5278, 44.0335
1.295, 2, 35.9151, 48.1278, -14.08, 97.4483, -51.5278, 44.0335
1.3, 2, 35.9151, 48.1278, -14.08, 97.4483, -51.5278, 44.0335
1.304, 2, 35.9151, 48.1278, -14.08, 97.4483, -51.5278, 44.0335
1.308, 2, 35.9151, 48.1278, -14.08, 97.4483, -51.5278, 44.0335
1.312, 2, 35.9151, 48.1278, -14.08, 97.4483, -51.5278, 44.0335
1.316, 2, 35.9151, 48.1278, -14.08, 97.4483, -51.5278, 44.0335
1.32, 2, 35.9151, 48.1278, -14.08, 97.4483, -51.5278, 44.0335
1.324, 2, 35.9151, 48.1278, -14.08, 97.4483, -51.5278, 44.0335
1.328, 2, 35.9151, 48.1278, -14.08, 97.4483, -51.5278, 44.0335
1.332, 2, 35.9151, 48.1278, -14.08, 97.4483, -51.5278, 44.0335
1.336, 2, 35.9151, 48.1278, -14.08, 97.4483, -51.5278, 44.0335
1.34, 2, 35.9151, 48.1278, -14.08, 97.4483, -51.5278, 44.0335
1.344, 2, 35.9151, 48.1278, -14.08, 97.4483, -51.5278, 44.0335
1.348, 2, 35.9151, 48.1278, -14.08, 97.4483, -51.5278, 44.0335
1.352, 2, 35.9151, 48.1278, -14.08, 97.4483, -51.5278, 44.0335
1.356, 2, 35.9151, 48.1278, -14.08, 97.4483, -51.5278, 44.0335
1.36, 2, 35.9151, 48.1278, -14.08, 97.4483, -51.5278, 44.0335
1.364, 2, 35.9151, 48.1278, -14.08, 97.4483, -51.5278, 44.0335
1.368, 2, 35.9151, 48.1278, -14.08, 97.4483, -51.5278, 44.0335
1.372, 2, 35.9151, 48.1278, -14.08, 97.4483, -51.5278, 44.0335
1.376, 2, 35.9151, 48.1278, -14.08, 97.4483, -51.5278, 44.0335
1.38, 2, 35.9151, 48.1278, -14.08, 97.4483, -51.5278, 44.0335
1.384, 2, 35.9151, 48.1278, -14.08, 97.4483, -51.5278, 44.0335
1.388, 2, 35.9151, 48.1278, -14.08, 97.4483, -51.5278, 44.0335
1.392, 2, 35.9151, 48.1278, -14.08, 97.4483, -51.5278, 44.0335
1.396, 2, 35.9151, 48.1278, -14.08, 97.4483, -51.5278, 44.0335
1.4, 2, 35.9151, 48.1278, -14.08, 97.4483, -51.5278, 44.0335
1.404, 2, 35.9151, 48.1278, -14.08, 97.4483, -51.5278, 44.0335
1.408, 2, 35.9151, 48.1278, -14.08, 97.4483, -51.5278, 44.0335
1.412, 2, 35.9151, 48.1278, -14.08, 97.4483, -51.5278, 44.0335
1.416, 2, 35.9151, 48.1278, -14.08, 97.4483, -51.5278, 44.0335
1.42, 2, 35.9151, 48.1278, -14.08, 97.4483, -51.5278, 44.0335
1.424, 2, 35.9151, 48.1278, -14.08, 97.4483, -51.5278, 44.0335
1.428, 2, 35.9151, 48.1278, -14.08, 97.4483, -51.5278, 44.0335
1.432, 2, 35.9151, 48.1278, -14.08, 97.4483, -51.5278, 44.0335
1.436, 2, 35.9151, 48.1278, -14.08, 97.4483, -51.5278, 44.0335
1.44, 2, 35.9151, 48.1278, -14.08, 97.4483, -51.5278, 44.0335
1.444, 2, 35.9151, 48.1278, -14.08, 97.4483, -51.5278, 44.0335
1.448, 2, 35.9151, 48.1278, -14.08, 97.4483, -51.5278, 44.0335
1.452, 2, 35.9151, 48.1278, -14.08, 97.4483, -51.5278, 44.0335
1.456, 2, 35.9151, 48.1278, -14.08, 97.4483, -51.5278, 44.0335
1.46, 2, 35.9151, 48.1278, -14.08, 97.4483, -51.5278, 44.0335
1.464, 2, 35.9151, 48.1278, -14.08, 97.4483, -51.5278, 44.0335
1.468, 2, 35.9151, 48.1278, -14.08, 97.4483, -51.5278, 44.0335
1.472, 2, 35.9151, 48.1278, -14.08, 97.4483, -51.5278, 44.0335
1.476, 2, 35.9151, 48.1278, -14.08, 97.4483, -51.5278, 44.0335
1.48, 2, 35.9151, 48.1278, -14.08, 97.4483, -51.5278, 44.0335
1.484, 2, 35.9151, 48.1278, -14.08, 97.4483, -51.5278, 44.0335
1.488, 2, 35.9151, 48.1278, -14.08, 97.4483, -51.5278, 44.0335
1.492, 2, 35.9151, 48.1278, -14.08, 97.4483, -51.5278, 44.0335
1.496, 2, 35.9151, 48.1278, -14.08, 97.4483, -51.5278, 44.0335
1.5, 2, 35.9151, 48.1278, -14.08, 97.4483, -51.5278, 44.0335
1.504, 2, 35.9151, 48.1278, -14.08, 97.4483, -51.5278, 44.0335
1.508, 2, 35.9151, 48.1278, -14.08, 97.4483, -51.5278, 44.0335
1.512, 2, 35.9151, 48.1278, -14.08, 97.4483, -51.5278, 44.0335
1.516, 2, 35.9151, 48.1278, -14.08, 97.4483, -51.5278, 44.0335
1.52, 2, 35.9151, 48.1278, -14.08, 97.4483, -51.5278, 44.0335
1.524, 2, 35.9151, 48.1278, -14.08, 97.4483, -51.5278, 44.0335
1.528, 2, 35.9151, 48.1278, -14.08, 97.4483, -51.5278, 44.0335
1.532, 2, 35.9151, 48.1278, -14.08, 97.4483, -51.5278, 44.0335
1.536, 2, 35.9151, 48.1278, -14.08, 97.4483, -51.5278, 44.0335
1.54, 2, 35.9151, 48.1278, -14.08, 97.4483, -51.5278, 44.0335
1.544, 2, 35.9151, 48.1278, -14.08, 97.4483, -51.5278, 44.0335
1.548, 2, 35.9151, 48.1278, -14.08, 97.4483, -51.5278, 44.0335
1.552, 2, 35.9151, 48.1278, -14.08, 97.4483, -51.5278, 44.0335
1.556, 2, 35.9151, 48.1278, -14.08, 97.4483, -51.5278, 44.0335
1.56, 2, 35.9151, 48.1278, -14.08, 97.4483, -51.5278, 44.0335
1.564, 2, 35.9151, 48.1278, -14.08, 97.4483, -51.5278, 44.0335
1.568, 2, 35.9151, 48.1278, -14.08, 97.4483, -51.5278, 44.0335
1.572, 2, 35.9151, 48.1278, -14.08, 97.4483, -51.5278, 44.0335
1.576, 2, 35.9151, 48.1278, -14.08, 97.4483, -51.5278, 44.0335
1.58, 2, 35.9151, 48.1278, -14.08, 97.4483, -51.5278, 44.0335
1.584, 2, 35.9151, 48.1278, -14.08, 97.4483, -51.5278, 44.0335
1.588, 2, 35.9151, 48.1278, -14.08, 97.4483, -51.5278, 44.0335
1.592, 2, 35.9151, 48.1278, -14.08, 97.4483, -51.5278, 44.0335
1.596, 2, 35.9151, 48.1278, -14.08, 97.4483, -51.5278, 44.0335
1.6, 2, 35.9151, 48.1278, -14.08, 97.4483, -51.5278, 44.0335
1.604, 2, 35.9151, 48.1278, -14.08, 97.4483, -51.5278, 44.0335
1.608, 2, 35.9151, 48.1278, -14.08, 97.4483, -51.5278, 44.0335
1.612, 2, 35.9151, 48.1278, -14.08, 97.4483, -51.5278, 44.0335
1.616, 2, 35.9151, 48.1278, -14.08, 97.4483, -51.5278, 44.0335
1.62, 2, 35.9151, 48.1278, -14.08, 97.4483, -51.5278, 44.0335
1.624, 2, 35.9151, 48.1278, -14.08, 97.4483, -51.5278, 44.0335
1.628, 2, 35.9151, 48.1278, -14.08, 97.4483, -51.5278, 44.0335
1.632, 2, 35.9151, 48.1278, -14.08, 97.4483, -51.5278, 44.0335
1.636, 2, 35.9151, 48.1278, -14.08, 97.4483, -51.5278, 44.0335
1.64, 2, 35.9151, 48.1278, -14.08, 97.4483, -51.5278, 44.0335
1.644, 2, 35.9151, 48.1278, -14.08, 97.4483, -51.5278, 44.0335
1.648, 2, 35.9151, 48.1278, -14.08, 97.4483, -51.5278, 44.0335
1.652, 2, 35.9151, 48.1278, -14.08, 97.4483, -51.5278, 44.0335
1.656, 2, 35.9151, 48.1278, -14.08, 97.4483, -51.5278, 44.0335
1.66, 2, 35.9151, 48.1278, -14.08, 97.4483, -51.5278, 44.0335
1.664, 2, 35.9151, 48.1278, -14.08, 97.4483, -51.5278, 44.0335
1.668, 2, 35.9151, 48.1278, -14.08, 97.4483, -51.5278, 44.0335
1.672, 2, 35.9151, 48.1278, -14.08, 97.4483, -51.5278, 44.0335
1.676, 2, 35.9151, 48.1278, -14.08, 97.4483, -51.5278, 44.0335
1.68, 2, 35.9151, 48.1278, -14.08, 97.4483, -51.5278, 44.0335
1.684, 2, 35.9151, 48.1278, -14.08, 97.4483, -51.5278, 44.0335
1.688, 2, 35.9151, 48.1278, -14.08, 97.4483, -51.5278, 44.0335
1.692, 2, 35.9151, 48.1278, -14.08, 97.4483, -51.5278, 44.0335
1.696, 2, 35.9151, 48.1278, -14.08, 97.4483, -51.5278, 44.0335
1.7, 2, 35.9151, 48.1278, -14.08, 97.4483, -51.5278, 44.0335
1.704, 2, 35.9151, 48.1278, -14.08, 97.4483, -51.5278, 44.0335
1.708, 2, 35.9151, 48.1278, -14.08, 97.4483, -51.5278, 44.0335
1.712, 2, 35.9151, 48.1278, -14.08, 97.4483, -51.5278, 44.0335
1.716, 2, 35.9151, 48.1278, -14.08, 97.4483, -51.5278, 44.0335
1.72, 2, 35.9151, 48.1278, -14.08, 97.4483, -51.5278, 44.0335
1.724, 2, 35.9151, 48.1278, -14.08, 97.4483, -51.5278, 44.0335
1.728, 2, 35.9151, 48.1278, -14.08, 97.4483, -51.5278, 44.0335
1.732, 2, 35.9151, 48.1278, -14.08, 97.4483, -51.5278, 44.0335
1.736, 2, 35.9151, 48.1278, -14.08, 97.4483, -51.5278, 44.0335
1.74, 2, 35.9151, 48.1278, -14.08, 97.4483, -51.5278, 44.0335
1.744, 2, 35.9151, 48.1278, -14.08, 97.4483, -51.5278, 44.0335
1.748, 2, 35.9151, 48.1278, -14.08, 97.4483, -51.5278, 44.0335
1.752, 2, 35.9151, 48.1278, -14.08, 97.4483, -51.5278, 44.0335
1.756, 2, 35.9151, 48.1278, -14.08, 97.4483, -51.5278, 44.0335
1.76, 2, 35.9151, 48.1278, -14.08, 97.4483, -51.5278, 44.0335
1.764, 2, 35.9151, 48.1278, -14.08, 97.4483, -51.5278, 44.0335
1.768, 2, 35.9151, 48.1278, -14.08, 97.4483, -51.5278, 44.0335
1.772, 2, 35.9151, 48.1278, -14.08, 97.4483, -51.5278, 44.0335
1.776, 2, 35.9151, 48.1278, -14.08, 97.4483, -51.5278, 44.0335
1.78, 2, 35.9151, 48.1278, -14.08, 97.4483, -51.5278, 44.0335
1.784, 2, 35.9151, 48.1278, -14.08, 97.4483, -51.5278, 44.0335
1.788, 2, 35.9151, 48.1278, -14.08, 97.4483, -51.5278, 44.0335
1.792, 2, 35.9151, 48.1278, -14.08, 97.4483, -51.5278, 44.0335
1.796, 2, 35.9151, 48.1278, -14.08, 97.4483, -51.5278, 44.0335
1.8, 2, 35.9151, 48.1278, -14.08, 97.4483, -51.5278, 44.0335
1.804, 2, 35.9151, 48.1278, -14.08, 97.4483, -51.5278, 44.0335
1.808, 2, 35.9151, 48.1278, -14.08, 97.4483, -51.5278, 44.0335
1.812, 2, 35.9151, 48.1278, -14.08, 97.4483, -51.5278, 44.0335
1.816, 2, 35.9151, 48.1278, -14.08, 97.4483, -51.5278, 44.0335
1.82, 2, 35.9151, 48.1278, -14.08, 97.4483, -51.5278, 44.0335
1.824, 2, 35.9151, 48.1278, -14.08, 97.4483, -51.5278, 44.0335
1.828, 2, 35.9151, 48.1278, -14.08, 97.4483, -51.5278, 44.0335
1.832, 2, 35.9151, 48.1278, -14.08, 97.4483, -51.5278, 44.0335
1.836, 2, 35.9151, 48.1278, -14.08, 97.4483, -51.5278, 44.0335
1.84, 2, 35.9151, 48.1278, -14.08, 97.4483, -51.5278, 44.0335
1.844, 2, 35.9151, 48.1278, -14.08, 97.4483, -51.5278, 44.0335
1.848, 2, 35.9151, 48.1278, -14.08, 97.4483, -51.5278, 44.0335
1.852, 2, 35.9151, 48.1278, -14.08, 97.4483, -51.5278, 44.0335
1.856, 2, 35.9151, 48.1278, -14.08, 97.4483, -51.5278, 44.0335
1.86, 2, 35.9151, 48.1278, -14.08, 97.4483, -51.5278, 44.0335
1.864, 2, 35.9151, 48.1278, -14.08, 97.4483, -51.5278, 44.0335
1.868, 2, 35.9151, 48.1278, -14.08, 97.4483, -51.5278, 44.0335
1.872, 2, 35.9151, 48.1278, -14.08, 97.4483, -51.5278, 44.0335
1.876, 2, 35.9151, 48.1278, -14.08, 97.4483, -51.5278, 44.0335
1.88, 2, 35.9151, 48.1278, -14.08, 97.4483, -51.5278, 44.0335
1.884, 2, 35.9151, 48.1278, -14.08, 97.4483, -51.5278, 44.0335
1.888, 2, 35.9151, 48.1278, -14.08, 97.4483, -51.5278, 44.0335
1.892, 2, 35.9151, 48.1278, -14.08, 97.4483, -51.5278, 44.0335
1.896, 2, 35.9151, 48.1278, -14.08, 97.4483, -51.5278, 44.0335
1.9, 2, 35.9151, 48.1278, -14.08, 97.4483, -51.5278, 44.0335
1.904, 2, 35.9151, 48.1278, -14.08, 97.4483, -51.5278, 44.0335
1.908, 2, 35.9151, 48.1278, -14.08, 97.4483, -51.5278, 44.0335
1.912, 2, 35.9151, 48.1278, -14.08, 97.4483, -51.5278, 44.0335
1.916, 2, 35.9151, 48.1278, -14.08, 97.4483, -51.5278, 44.0335
1.92, 2, 35.9151, 48.1278, -14.08, 97.4483, -51.5278, 44.0335
1.924, 2, 35.9151, 48.1278, -14.08, 97.4483, -51.5278, 44.0335
1.928, 2, 35.9151, 48.1278, -14.08, 97.4483, -51.5278, 44.0335
1.932, 2, 35.9151, 48.1278, -14.08, 97.4483, -51.5278, 44.0335
1.936, 2, 35.9151, 48.1278, -14.08, 97.4483, -51.5278, 44.0335
1.94, 2, 35.9151, 48.1278, -14.08, 97.4483, -51.5278, 44.0335
1.944, 2, 35.9151, 48.1278, -14.08, 97.4483, -51.5278, 44.0335
1.948, 2, 35.9151, 48.1278, -14.08, 97.4483, -51.5278, 44.0335
1.952, 2, 35.9151, 48.1278, -14.08, 97.4483, -51.5278, 44.0335
1.956, 2, 35.9151, 48.1278, -14.08, 97.4483, -51.5278, 44.0335
1.96, 2, 35.9151, 48.1278, -14.08, 97.4483, -51.5278, 44.0335
1.964, 2, 35.9151, 48.1278, -14.08, 97.4483, -51.5278, 44.0335
1.968, 2, 35.9151, 48.1278, -14.08, 97.4483, -51.5278, 44.0335
1.972, 2, 35.9151, 48.1278, -14.08, 97.4483, -51.5278, 44.0335
1.976, 2, 35.9151, 48.1278, -14.08, 97.4483, -51.5278, 44.0335
1.98, 2, 35.9151, 48.1278, -14.08, 97.4483, -51.5278, 44.0335
1.984, 2, 35.9151, 48.1278, -14.08, 97.4483, -51.5278, 44.0335
1.988, 2, 35.9151, 48.1278, -14.08, 97.4483, -51.5278, 44.0335
1.992, 2, 35.9151, 48.1278, -14.08, 97.4483, -51.5278, 44.0335
1.996, 2, 35.9151, 48.1278, -14.08, 97.4483, -51.5278, 44.0335
1.999, 2, 35.9151, 48.1278, -14.08, 97.4483, -51.5278, 44.0335
2.004, 2, 35.9151, 48.1278, -14.08, 97.4483, -51.5278, 44.0335
2.008, 2, 35.9151, 48.1278, -14.08, 97.4483, -51.5278, 44.0335
2.012, 2, 35.9151, 48.1278, -14.08, 97.4483, -51.5278, 44.0335
2.015, 2, 35.9151, 48.1278, -14.08, 97.4483, -51.5278, 44.0335
2.019, 2, 35.9151, 48.1278, -14.08, 97.4483, -51.5278, 44.0335
2.024, 2, 35.9151, 48.1278, -14.08, 97.4483, -51.5278, 44.0335
2.028, 2, 35.9151, 48.1278, -14.08, 97.4483, -51.5278, 44.0335
2.031, 4, 35.9151, 48.1278, -14.08, 97.4483, -51.5278, 44.0335
2.036, 4, 35.9151, 48.1278, -14.08, 97.4483, -51.5278, 44.0335
2.04, 4, 35.9151, 48.1278, -14.08, 97.4483, -51.5278, 44.0335
2.044, 4, 35.9151, 48.1278, -14.08, 97.4483, -51.5278, 44.0335
2.048, 4, 35.9151, 48.1278, -14.08, 97.4483, -51.5278, 44.0335
2.051, 4, 35.9151, 48.1278, -14.08, 97.4483, -51.5278, 44.0335
2.055, 4, 35.9151, 48.1278, -14.08, 97.4483, -51.5278, 44.0335
2.06, 4, 35.9151, 48.1278, -14.08, 97.4483, -51.5278, 44.0335
2.064, 4, 35.9151, 48.1278, -14.08, 97.4483, -51.5278, 44.0335
2.068, 4, 35.9151, 48.1278, -14.08, 97.4483, -51.5278, 44.0335
2.071, 4, 35.9151, 48.1278, -14.08, 97.4483, -51.5278, 44.0335
2.076, 4, 35.9151, 48.1278, -14.08, 97.4483, -51.5278, 44.0335
2.08, 4, 35.9151, 48.1278, -14.08, 97.4483, -51.5278, 44.0335
2.084, 4, 35.9151, 48.1278, -14.08, 97.4483, -51.5278, 44.0335
2.087, 4, 35.9151, 48.1278, -14.08, 97.4483, -51.5278, 44.0335
2.092, 4, 35.9151, 48.1278, -14.08, 97.4483, -51.5278, 44.0335
2.096, 4, 35.9151, 48.1278, -14.08, 97.4483, -51.5278, 44.0335
2.1, 4, 35.9151, 48.1278, -14.08, 97.4483, -51.5278, 44.0335
2.104, 4, 35.9151, 48.1278, -14.08, 97.4483, -51.5278, 44.0335
2.107, 4, 35.9151, 48.1278, -14.08, 97.4483, -51.5278, 44.0335
2.111, 4, 35.9151, 48.1278, -14.08, 97.4483, -51.5278, 44.0335
2.116, 4, 35.9151, 48.1278, -14.08, 97.4483, -51.5278, 44.0335
2.12, 4, 35.9151, 48.1278, -14.08, 97.4483, -51.5278, 44.0335
2.124, 4, 35.9151, 48.1278, -14.08, 97.4483, -51.5278, 44.0335
2.127, 4, 35.9151, 48.1278, -14.08, 97.4483, -51.5278, 44.0335
2.132, 4, 35.9151, 48.1278, -14.08, 97.4483, -51.5278, 44.0335
2.138, 4, 35.9151, 48.1278, -14.08, 97.4483, -51.5278, 44.0335
2.142, 4, 35.9151, 48.1278, -14.08, 97.4483, -51.5278, 44.0335
2.146, 4, 35.9151, 48.1278, -14.08, 97.4483, -51.5278, 44.0335
2.148, 4, 35.9151, 48.1278, -14.08, 97.4483, -51.5278, 44.0335
2.152, 4, 35.9151, 48.1278, -14.08, 97.4483, -51.5278, 44.0335
2.156, 4, 35.9151, 48.1278, -14.08, 97.4483, -51.5278, 44.0335
2.16, 4, 35.9151, 48.1278, -14.08, 97.4483, -51.5278, 44.0335
2.163, 4, 35.9151, 48.1278, -14.08, 97.4483, -51.5278, 44.0335
2.168, 4, 35.9151, 48.1278, -14.08, 97.4483, -51.5278, 44.0335
2.172, 4, 35.915, 48.128, -14.08, 97.4483, -51.5279, 44.0335
2.176, 4, 35.9148, 48.1283, -14.08, 97.4483, -51.5279, 44.0335
2.179, 4, 35.9144, 48.1291, -14.08, 97.4483, -51.5281, 44.0334
2.184, 4, 35.9137, 48.1303, -14.08, 97.4482, -51.5284, 44.0333
2.188, 4, 35.9128, 48.1322, -14.0799, 97.4481, -51.5292, 44.033
2.192, 4, 35.9115, 48.1347, -14.0798, 97.4478, -51.5306, 44.0325
2.196, 4, 35.9099, 48.1381, -14.0797, 97.4474, -51.533, 44.0316
2.199, 4, 35.9081, 48.1423, -14.0795, 97.4468, -51.5369, 44.0301
2.204, 5, 35.906, 48.1476, -14.0792, 97.4458, -51.5428, 44.0278
2.208, 5, 35.9036, 48.1542, -14.0787, 97.4444, -51.5514, 44.0246
2.212, 5, 35.9009, 48.1621, -14.078, 97.4424, -51.5635, 44.02
2.216, 5, 35.8978, 48.1715, -14.0772, 97.4396, -51.5798, 44.0138
2.219, 5, 35.8945, 48.1824, -14.076, 97.4359, -51.6013, 44.0056
2.224, 5, 35.8909, 48.1948, -14.0746, 97.4312, -51.6288, 43.9951
2.228, 5, 35.8873, 48.2083, -14.0727, 97.4253, -51.6634, 43.982
2.232, 5, 35.8835, 48.2229, -14.0705, 97.418, -51.7058, 43.9659
2.235, 5, 35.8798, 48.2384, -14.0677, 97.4092, -51.7566, 43.9466
2.24, 5, 35.8761, 48.2549, -14.0645, 97.3988, -51.8163, 43.924
2.244, 5, 35.8724, 48.2724, -14.0607, 97.3867, -51.8849, 43.8979
2.248, 5, 35.8686, 48.2909, -14.0564, 97.373, -51.9625, 43.8686
2.252, 5, 35.8648, 48.3106, -14.0515, 97.3577, -52.0488, 43.8359
2.255, 5, 35.8608, 48.3315, -14.046, 97.3409, -52.1433, 43.8002
2.259, 5, 35.8567, 48.3535, -14.0401, 97.3225, -52.2454, 43.7617
2.264, 5, 35.8525, 48.3767, -14.0336, 97.3028, -52.3544, 43.7207
2.268, 5, 35.8481, 48.4009, -14.0266, 97.2819, -52.4693, 43.6775
2.272, 5, 35.8434, 48.4263, -14.0192, 97.2599, -52.5893, 43.6324
2.275, 5, 35.8385, 48.4528, -14.0113, 97.237, -52.7135, 43.5859
2.28, 5, 35.8331, 48.4806, -14.003, 97.2133, -52.8408, 43.5382
2.284, 5, 35.8273, 48.5097, -13.9944, 97.1889, -52.9706, 43.4898
2.288, 5, 35.8209, 48.5399, -13.9855, 97.1641, -53.1021, 43.4408
2.291, 5, 35.8142, 48.5712, -13.9762, 97.1387, -53.2348, 43.3914
2.296, 5, 35.807, 48.6033, -13.9667, 97.113, -53.3684, 43.3418
2.3, 5, 35.7995, 48.636, -13.9569, 97.087, -53.5024, 43.2921
2.304, 5, 35.7917, 48.669, -13.9469, 97.0607, -53.6368, 43.2424
2.308, 5, 35.7838, 48.7021, -13.9365, 97.0341, -53.7714, 43.1928
2.311, 5, 35.7757, 48.7354, -13.926, 97.0072, -53.9061, 43.1432
2.316, 5, 35.7675, 48.7687, -13.9152, 96.9801, -54.0408, 43.0937
2.32, 5, 35.7592, 48.802, -13.9041, 96.9528, -54.1755, 43.0442
2.324, 5, 35.7508, 48.8352, -13.8928, 96.9253, -54.3102, 42.9949
2.328, 5, 35.7422, 48.8683, -13.8813, 96.8975, -54.4449, 42.9457
2.331, 5, 35.7336, 48.9013, -13.8695, 96.8695, -54.5794, 42.8967
2.336, 5, 35.725, 48.9341, -13.8574, 96.8412, -54.714, 42.8477
2.34, 5, 35.7162, 48.9669, -13.8452, 96.8128, -54.8484, 42.7989
2.344, 5, 35.7073, 48.9995, -13.8326, 96.7841, -54.9828, 42.7501
2.347, 5, 35.6984, 49.032, -13.8199, 96.7553, -55.117, 42.7015
2.352, 5, 35.6894, 49.0644, -13.8069, 96.7262, -55.2512, 42.653
2.356, 5, 35.6803, 49.0966, -13.7936, 96.6969, -55.3854, 42.6047
2.36, 5, 35.6711, 49.1287, -13.7801, 96.6674, -55.5194, 42.5564
2.364, 5, 35.6619, 49.1607, -13.7664, 96.6377, -55.6533, 42.5083
2.367, 5, 35.6525, 49.1925, -13.7524, 96.6078, -55.7872, 42.4603
2.372, 5, 35.6432, 49.2241, -13.7382, 96.5777, -55.921, 42.4123
2.376, 5, 35.6337, 49.2557, -13.7237, 96.5474, -56.0547, 42.3645
2.38, 5, 35.6241, 49.2871, -13.709, 96.5169, -56.1883, 42.3168
2.383, 5, 35.6145, 49.3183, -13.6941, 96.4862, -56.3218, 42.2693
2.388, 5, 35.6048, 49.3494, -13.6789, 96.4553, -56.4553, 42.2218
2.392, 5, 35.595, 49.3804, -13.6635, 96.4242, -56.5886, 42.1744
2.396, 5, 35.5851, 49.4112, -13.6478, 96.3929, -56.7219, 42.1271
2.4, 5, 35.5752, 49.4419, -13.6319, 96.3614, -56.8551, 42.08
2.403, 5, 35.5652, 49.4725, -13.6157, 96.3298, -56.9882, 42.0329
2.408, 5, 35.5551, 49.5029, -13.5993, 96.2979, -57.1212, 41.986
2.412, 5, 35.5449, 49.5331, -13.5826, 96.2658, -57.2542, 41.9391
2.416, 5, 35.5347, 49.5632, -13.5658, 96.2336, -57.387, 41.8923
2.42, 5, 35.5244, 49.5932, -13.5486, 96.2011, -57.5198, 41.8457
2.423, 5, 35.514, 49.623, -13.5313, 96.1685, -57.6525, 41.7991
2.428, 5, 35.5035, 49.6527, -13.5136, 96.1357, -57.7851, 41.7526
2.432, 5, 35.493, 49.6823, -13.4958, 96.1027, -57.9176, 41.7062
2.436, 5, 35.4824, 49.7117, -13.4777, 96.0695, -58.0501, 41.6599
2.439, 5, 35.4717, 49.7409, -13.4593, 96.0361, -58.1824, 41.6137
2.444, 5, 35.4609, 49.77, -13.4408, 96.0026, -58.3147, 41.5676
2.448, 5, 35.45, 49.799, -13.4219, 95.9688, -58.4469, 41.5216
2.452, 5, 35.4391, 49.8278, -13.4029, 95.9349, -58.579, 41.4757
2.456, 5, 35.4281, 49.8564, -13.3835, 95.9008, -58.7111, 41.4298
2.459, 5, 35.4171, 49.885, -13.364, 95.8665, -58.843, 41.384
2.464, 5, 35.4059, 49.9133, -13.3442, 95.8321, -58.9749, 41.3384
2.468, 5, 35.3947, 49.9416, -13.3241, 95.7975, -59.1067, 41.2928
2.472, 5, 35.3834, 49.9696, -13.3039, 95.7627, -59.2384, 41.2472
2.476, 5, 35.372, 49.9976, -13.2833, 95.7277, -59.37, 41.2018
2.479, 5, 35.3606, 50.0253, -13.2626, 95.6926, -59.5016, 41.1564
2.484, 5, 35.3491, 50.053, -13.2416, 95.6572, -59.6331, 41.1112
2.488, 5, 35.3375, 50.0805, -13.2203, 95.6218, -59.7645, 41.066
2.492, 5, 35.3258, 50.1078, -13.1988, 95.5861, -59.8958, 41.0208
2.495, 5, 35.3141, 50.135, -13.1771, 95.5503, -60.027, 40.9758
2.5, 5, 35.3023, 50.162, -13.1551, 95.5143, -60.1582, 40.9308
2.504, 5, 35.2904, 50.1889, -13.1328, 95.4781, -60.2892, 40.8859
2.508, 5, 35.2784, 50.2156, -13.1104, 95.4418, -60.4202, 40.841
2.512, 5, 35.2664, 50.2422, -13.0877, 95.4053, -60.5511, 40.7963
2.515, 5, 35.2543, 50.2686, -13.0647, 95.3687, -60.682, 40.7516
2.52, 5, 35.2421, 50.2949, -13.0415, 95.3318, -60.8127, 40.7069
2.524, 5, 35.2298, 50.321, -13.018, 95.2949, -60.9434, 40.6624
2.528, 5, 35.2175, 50.347, -12.9943, 95.2577, -61.074, 40.6179
2.531, 5, 35.2051, 50.3728, -12.9704, 95.2204, -61.2045, 40.5734
2.536, 5, 35.1926, 50.3985, -12.9462, 95.183, -61.335, 40.5291
2.54, 5, 35.1801, 50.424, -12.9218, 95.1454, -61.4653, 40.4847
2.544, 5, 35.1674, 50.4494, -12.8971, 95.1076, -61.5956, 40.4405
2.548, 5, 35.1547, 50.4746, -12.8722, 95.0697, -61.7258, 40.3963
2.551, 5, 35.1419, 50.4996, -12.847, 95.0316, -61.856, 40.3522
2.556, 5, 35.1291, 50.5245, -12.8216, 94.9934, -61.986, 40.3081
2.56, 5, 35.1162, 50.5492, -12.796, 94.955, -62.116, 40.2641
2.564, 5, 35.1032, 50.5738, -12.7701, 94.9164, -62.2459, 40.2201
2.568, 5, 35.0901, 50.5983, -12.7439, 94.8777, -62.3757, 40.1762
2.571, 5, 35.077, 50.6226, -12.7176, 94.8389, -62.5055, 40.1323
2.576, 5, 35.0638, 50.6467, -12.691, 94.8, -62.6352, 40.0885
2.58, 5, 35.0506, 50.6707, -12.6642, 94.7609, -62.7648, 40.0447
2.584, 5, 35.0373, 50.6946, -12.6371, 94.7217, -62.8943, 40.001
2.587, 5, 35.024, 50.7184, -12.6099, 94.6825, -63.0238, 39.9573
2.592, 5, 35.0106, 50.742, -12.5825, 94.6432, -63.1533, 39.9136
2.596, 5, 34.9971, 50.7655, -12.555, 94.6038, -63.2828, 39.8699
2.6, 5, 34.9836, 50.7889, -12.5273, 94.5645, -63.4122, 39.8262
2.604, 5, 34.9701, 50.8122, -12.4996, 94.5252, -63.5417, 39.7826
2.607, 5, 34.9565, 50.8355, -12.4717, 94.4859, -63.6712, 39.7388
2.612, 5, 34.9428, 50.8586, -12.4438, 94.4468, -63.8007, 39.6951
2.616, 5, 34.9291, 50.8816, -12.4158, 94.4078, -63.9302, 39.6513
2.62, 5, 34.9153, 50.9046, -12.3878, 94.3689, -64.0598, 39.6075
2.624, 5, 34.9015, 50.9276, -12.3598, 94.3302, -64.1896, 39.5637
2.627, 5, 34.8876, 50.9504, -12.3319, 94.2918, -64.3194, 39.5198
2.632, 6, 34.8736, 50.9733, -12.304, 94.2535, -64.4493, 39.4758
2.636, 6, 34.8596, 50.996, -12.2762, 94.2155, -64.5793, 39.4317
2.64, 6, 34.8455, 51.0188, -12.2484, 94.1778, -64.7094, 39.3876
2.643, 6, 34.8313, 51.0415, -12.2207, 94.1403, -64.8397, 39.3434
2.648, 6, 34.8171, 51.0642, -12.1931, 94.1031, -64.9701, 39.2992
2.652, 6, 34.8028, 51.0869, -12.1656, 94.0662, -65.1006, 39.2549
2.656, 6, 34.7885, 51.1095, -12.1382, 94.0296, -65.2313, 39.2105
2.66, 6, 34.7742, 51.1322, -12.1109, 93.9932, -65.3621, 39.166
2.663, 6, 34.7597, 51.1548, -12.0837, 93.9572, -65.493, 39.1215
2.668, 6, 34.7453, 51.1774, -12.0566, 93.9214, -65.6241, 39.0769
2.672, 6, 34.7307, 51.1999, -12.0296, 93.8858, -65.7554, 39.0323
2.676, 6, 34.7161, 51.2225, -12.0027, 93.8506, -65.8867, 38.9876
2.679, 6, 34.7015, 51.245, -11.9759, 93.8155, -66.0182, 38.9428
2.684, 6, 34.6868, 51.2675, -11.9491, 93.7807, -66.1498, 38.898
2.688, 6, 34.672, 51.2899, -11.9224, 93.7462, -66.2816, 38.8532
2.692, 6, 34.6572, 51.3123, -11.8958, 93.7118, -66.4134, 38.8084
2.696, 6, 34.6423, 51.3347, -11.8691, 93.6776, -66.5454, 38.7635
2.699, 6, 34.6273, 51.357, -11.8425, 93.6435, -66.6774, 38.7186
2.704, 6, 34.6123, 51.3792, -11.8159, 93.6095, -66.8095, 38.6737
2.708, 6, 34.5972, 51.4014, -11.7892, 93.5756, -66.9416, 38.6288
2.712, 6, 34.5821, 51.4234, -11.7625, 93.5418, -67.0738, 38.5839
2.716, 6, 34.5669, 51.4454, -11.7357, 93.5079, -67.2061, 38.539
2.719, 6, 34.5517, 51.4673, -11.7088, 93.4741, -67.3383, 38.4941
2.724, 6, 34.5364, 51.4891, -11.6817, 93.4402, -67.4705, 38.4493
2.728, 6, 34.5211, 51.5108, -11.6545, 93.4062, -67.6027, 38.4045
2.732, 6, 34.5057, 51.5323, -11.6271, 93.3721, -67.7349, 38.3598
2.735, 6, 34.4903, 51.5537, -11.5996, 93.3379, -67.8671, 38.3151
2.74, 6, 34.4748, 51.575, -11.5718, 93.3036, -67.9992, 38.2705
2.744, 6, 34.4592, 51.5962, -11.5438, 93.2691, -68.1313, 38.2259
2.748, 6, 34.4436, 51.6172, -11.5156, 93.2345, -68.2633, 38.1814
2.752, 6, 34.428, 51.6381, -11.4872, 93.1998, -68.3953, 38.1369
2.755, 6, 34.4123, 51.6588, -11.4586, 93.1648, -68.5272, 38.0925
2.76, 6, 34.3965, 51.6794, -11.4298, 93.1297, -68.6591, 38.0482
2.764, 6, 34.3806, 51.6999, -11.4007, 93.0945, -68.7909, 38.0039
2.768, 6, 34.3647, 51.7202, -11.3714, 93.0591, -68.9226, 37.9597
2.772, 6, 34.3487, 51.7403, -11.3418, 93.0235, -69.0543, 37.9155
2.775, 6, 34.3326, 51.7603, -11.3121, 92.9878, -69.186, 37.8714
2.78, 6, 34.3165, 51.7801, -11.282, 92.9519, -69.3176, 37.8273
2.784, 6, 34.3002, 51.7998, -11.2518, 92.9158, -69.4491, 37.7833
2.788, 6, 34.284, 51.8193, -11.2213, 92.8796, -69.5805, 37.7394
2.791, 6, 34.2676, 51.8386, -11.1906, 92.8432, -69.7119, 37.6955
2.796, 6, 34.2512, 51.8579, -11.1597, 92.8066, -69.8433, 37.6516
2.8, 6, 34.2347, 51.8769, -11.1285, 92.7699, -69.9746, 37.6078
2.804, 6, 34.2182, 51.8958, -11.0971, 92.733, -70.1058, 37.5641
2.808, 6, 34.2015, 51.9145, -11.0655, 92.696, -70.237, 37.5204
2.811, 6, 34.1848, 51.9331, -11.0336, 92.6588, -70.3681, 37.4767
2.816, 6, 34.1681, 51.9516, -11.0016, 92.6215, -70.4992, 37.4331
2.82, 6, 34.1512, 51.9698, -10.9692, 92.584, -70.6302, 37.3896
2.824, 6, 34.1343, 51.9879, -10.9367, 92.5463, -70.7612, 37.3461
2.828, 6, 34.1174, 52.0059, -10.9039, 92.5085, -70.8921, 37.3026
2.831, 6, 34.1003, 52.0237, -10.8709, 92.4705, -71.0229, 37.2592
2.836, 6, 34.0832, 52.0414, -10.8377, 92.4324, -71.1537, 37.2158
2.84, 6, 34.066, 52.0588, -10.8042, 92.3941, -71.2844, 37.1724
2.844, 6, 34.0488, 52.0762, -10.7705, 92.3556, -71.4151, 37.1291
2.847, 6, 34.0315, 52.0933, -10.7366, 92.317, -71.5457, 37.0858
2.852, 6, 34.0141, 52.1104, -10.7024, 92.2783, -71.6763, 37.0426
2.856, 6, 33.9966, 52.1272, -10.668, 92.2394, -71.8068, 36.9994
2.86, 6, 33.9791, 52.1439, -10.6334, 92.2003, -71.9372, 36.9562
2.864, 6, 33.9615, 52.1605, -10.5985, 92.1611, -72.0676, 36.9131
2.867, 6, 33.9438, 52.1768, -10.5635, 92.1218, -72.198, 36.87
2.872, 6, 33.9261, 52.1931, -10.5282, 92.0823, -72.3282, 36.8269
2.876, 6, 33.9083, 52.2091, -10.4926, 92.0426, -72.4585, 36.7839
2.88, 6, 33.8904, 52.225, -10.4569, 92.0028, -72.5887, 36.7409
2.883, 6, 33.8725, 52.2408, -10.4209, 91.9629, -72.7188, 36.6979
2.888, 6, 33.8545, 52.2563, -10.3847, 91.9228, -72.8488, 36.655
2.892, 6, 33.8364, 52.2718, -10.3482, 91.8825, -72.9789, 36.612
2.896, 6, 33.8183, 52.287, -10.3115, 91.8421, -73.1088, 36.5691
2.9, 6, 33.8001, 52.3021, -10.2746, 91.8016, -73.2387, 36.5263
2.903, 6, 33.7818, 52.317, -10.2375, 91.7609, -73.3686, 36.4834
2.908, 6, 33.7635, 52.3318, -10.2002, 91.7201, -73.4984, 36.4406
2.912, 6, 33.7451, 52.3464, -10.1626, 91.6791, -73.6281, 36.3978
2.916, 6, 33.7266, 52.3609, -10.1248, 91.638, -73.7578, 36.355
2.92, 6, 33.708, 52.3752, -10.0867, 91.5968, -73.8874, 36.3123
2.923, 6, 33.6894, 52.3893, -10.0485, 91.5554, -74.017, 36.2695
2.928, 6, 33.6707, 52.4032, -10.01, 91.5138, -74.1466, 36.2268
2.932, 6, 33.652, 52.417, -9.97124, 91.4721, -74.276, 36.1841
2.936, 6, 33.6332, 52.4307, -9.93229, 91.4303, -74.4055, 36.1414
2.939, 6, 33.6143, 52.4441, -9.89311, 91.3884, -74.5348, 36.0987
2.944, 6, 33.5953, 52.4574, -9.85371, 91.3463, -74.6641, 36.056
2.948, 6, 33.5763, 52.4706, -9.81407, 91.304, -74.7934, 36.0134
2.952, 6, 33.5572, 52.4836, -9.77421, 91.2616, -74.9226, 35.9708
2.956, 6, 33.5381, 52.4964, -9.73413, 91.2191, -75.0518, 35.9281
2.959, 6, 33.5189, 52.509, -9.69381, 91.1765, -75.1809, 35.8855
2.964, 6, 33.4996, 52.5215, -9.65327, 91.1337, -75.31, 35.8429
2.968, 6, 33.4802, 52.5338, -9.61251, 91.0907, -75.439, 35.8003
2.972, 6, 33.4608, 52.5459, -9.57151, 91.0477, -75.5679, 35.7577
2.976, 6, 33.4413, 52.5579, -9.53029, 91.0045, -75.6968, 35.7151
2.98, 6, 33.4218, 52.5697, -9.48885, 90.9611, -75.8257, 35.6725
2.984, 6, 33.4021, 52.5814, -9.44718, 90.9176, -75.9545, 35.6299
2.988, 6, 33.3825, 52.5928, -9.40529, 90.874, -76.0832, 35.5874
2.992, 6, 33.3627, 52.6041, -9.36317, 90.8303, -76.2119, 35.5448
2.995, 6, 33.3431, 52.6152, -9.32083, 90.7864, -76.3405, 35.5022
3, 6, 33.3237, 52.626, -9.27828, 90.7424, -76.4691, 35.4597
3.004, 6, 33.3045, 52.6366, -9.23554, 90.6983, -76.5975, 35.4171
3.008, 6, 33.2858, 52.6467, -9.19264, 90.6541, -76.7258, 35.3746
3.012, 6, 33.2674, 52.6564, -9.14963, 90.6099, -76.8536, 35.3322
3.015, 6, 33.2495, 52.6656, -9.10657, 90.5657, -76.981, 35.29
3.02, 6, 33.232, 52.6744, -9.06356, 90.5216, -77.1076, 35.248
3.024, 6, 33.2147, 52.6826, -9.02071, 90.4778, -77.2331, 35.2063
3.028, 6, 33.1978, 52.6902, -8.97815, 90.4343, -77.3571, 35.1651
3.031, 6, 33.1811, 52.6972, -8.93605, 90.3914, -77.4793, 35.1245
3.036, 6, 33.165, 52.7036, -8.89458, 90.3492, -77.5991, 35.0847
3.04, 6, 33.1494, 52.7093, -8.85396, 90.308, -77.7159, 35.0458
3.044, 6, 33.1344, 52.7144, -8.81441, 90.2678, -77.8293, 35.008
3.048, 6, 33.1201, 52.719, -8.7762, 90.2291, -77.9384, 34.9717
3.051, 6, 33.1066, 52.7233, -8.73957, 90.192, -78.0426, 34.937
3.056, 6, 33.0936, 52.7274, -8.70481, 90.1568, -78.1411, 34.9041
3.06, 6, 33.0813, 52.7314, -8.67217, 90.1239, -78.2334, 34.8734
3.064, 6, 33.0696, 52.7355, -8.64187, 90.0933, -78.3188, 34.8449
3.068, 6, 33.0584, 52.7396, -8.6141, 90.0653, -78.3968, 34.8189
3.071, 6, 33.0477, 52.7438, -8.589, 90.0401, -78.4671, 34.7954
3.076, 6, 33.0376, 52.7482, -8.56664, 90.0176, -78.5295, 34.7745
3.08, 6, 33.028, 52.7527, -8.54702, 89.998, -78.5842, 34.7563
3.084, 6, 33.019, 52.7574, -8.5301, 89.9811, -78.6311, 34.7406
3.087, 6, 33.0106, 52.7622, -8.51578, 89.9668, -78.6708, 34.7274
3.092, 6, 33.0027, 52.7672, -8.50388, 89.9549, -78.7037, 34.7164
3.096, 6, 32.9954, 52.7722, -8.49421, 89.9453, -78.7303, 34.7076
3.1, 6, 32.9886, 52.7772, -8.48653, 89.9377, -78.7514, 34.7005
3.104, 6, 32.9822, 52.7819, -8.48057, 89.9319, -78.7676, 34.6951
3.107, 6, 32.9764, 52.7863, -8.47607, 89.9275, -78.7799, 34.691
3.112, 6, 32.9711, 52.7901, -8.47275, 89.9242, -78.7889, 34.6881
3.116, 7, 32.9666, 52.7932, -8.47036, 89.9219, -78.7953, 34.6859
3.12, 7, 32.9629, 52.7957, -8.46867, 89.9203, -78.7998, 34.6844
3.124, 7, 32.9599, 52.7976, -8.4675, 89.9192, -78.8029, 34.6834
3.128, 7, 32.9577, 52.799, -8.4667, 89.9184, -78.8051, 34.6827
3.132, 7, 32.9561, 52.7999, -8.46616, 89.9179, -78.8065, 34.6822
3.136, 7, 32.9551, 52.8006, -8.46579, 89.9176, -78.8075, 34.6819
3.14, 7, 32.9543, 52.801, -8.46554, 89.9173, -78.8082, 34.6817
3.143, 7, 32.9539, 52.8013, -8.46537, 89.9172, -78.8086, 34.6815
3.148, 7, 32.9535, 52.8015, -8.46526, 89.9171, -78.8089, 34.6814
3.152, 7, 32.9533, 52.8017, -8.46518, 89.917, -78.8091, 34.6813
3.156, 7, 32.9532, 52.8018, -8.46513, 89.9169, -78.8093, 34.6813
3.16, 7, 32.9531, 52.8018, -8.46509, 89.9169, -78.8094, 34.6813
3.163, 7, 32.953, 52.8019, -8.46507, 89.9169, -78.8094, 34.6813
3.168, 7, 32.9529, 52.8019, -8.46505, 89.9169, -78.8095, 34.6812
3.172, 7, 32.9529, 52.8019, -8.46504, 89.9169, -78.8095, 34.6812
3.176, 7, 32.9529, 52.8019, -8.46503, 89.9169, -78.8095, 34.6812
3.179, 7, 32.9529, 52.8019, -8.46503, 89.9168, -78.8095, 34.6812
3.184, 7, 32.9529, 52.8019, -8.46503, 89.9168, -78.8095, 34.6812
3.188, 7, 32.9529, 52.8019, -8.46502, 89.9168, -78.8095, 34.6812
3.192, 7, 32.9528, 52.8019, -8.46502, 89.9168, -78.8095, 34.6812
3.196, 7, 32.9528, 52.8019, -8.46502, 89.9168, -78.8095, 34.6812
3.199, 7, 32.9528, 52.8019, -8.46502, 89.9168, -78.8095, 34.6812
3.204, 7, 32.9528, 52.8019, -8.46502, 89.9168, -78.8095, 34.6812
3.208, 7, 32.9528, 52.8019, -8.46502, 89.9168, -78.8096, 34.6812
3.212, 7, 32.9528, 52.8019, -8.46502, 89.9168, -78.8096, 34.6812
3.216, 7, 32.9528, 52.8019, -8.46502, 89.9168, -78.8096, 34.6812
3.22, 7, 32.9528, 52.8019, -8.46502, 89.9168, -78.8096, 34.6812
3.224, 7, 32.9528, 52.8019, -8.46502, 89.9168, -78.8096, 34.6812
3.228, 7, 32.9528, 52.8019, -8.46502, 89.9168, -78.8096, 34.6812
3.232, 7, 32.9528, 52.8019, -8.46502, 89.9168, -78.8096, 34.6812
