hehonglu123/ABB_Primitive_Study/execution/movec_smooth/curve_exe_v100_z10.csv
timestamp, cmd_num, J1, J2, J3, J4, J5, J6
0, 1, 32.9528, 52.8019, -8.46502, 89.9168, -78.8096, 34.6812
0.002, 1, 32.9528, 52.8019, -8.46502, 89.9168, -78.8096, 34.6812
0.004, 1, 32.9528, 52.8019, -8.46502, 89.9168, -78.8096, 34.6812
0.01, 1, 32.9528, 52.8019, -8.46502, 89.9168, -78.8096, 34.6812
0.012, 1, 32.9528, 52.8019, -8.46502, 89.9168, -78.8096, 34.6812
0.016, 1, 32.9528, 52.8019, -8.46502, 89.9168, -78.8096, 34.6812
0.02, 1, 32.9528, 52.8019, -8.46502, 89.9168, -78.8096, 34.6812
0.024, 1, 32.9528, 52.8019, -8.46502, 89.9168, -78.8096, 34.6812
0.028, 1, 32.9528, 52.8019, -8.46502, 89.9168, -78.8096, 34.6812
0.032, 1, 32.9528, 52.8019, -8.46502, 89.9168, -78.8096, 34.6812
0.036, 1, 32.9529, 52.8019, -8.46502, 89.9168, -78.8096, 34.6812
0.04, 1, 32.9531, 52.8018, -8.46503, 89.9168, -78.8095, 34.6812
0.044, 1, 32.9535, 52.8014, -8.46505, 89.9169, -78.8095, 34.6812
0.048, 1, 32.9543, 52.8006, -8.4651, 89.9169, -78.8093, 34.6813
0.052, 1, 32.9556, 52.7993, -8.46521, 89.917, -78.8088, 34.6814
0.056, 1, 32.9574, 52.7971, -8.46544, 89.9173, -78.8079, 34.6818
0.06, 1, 32.9597, 52.794, -8.46584, 89.9178, -78.8061, 34.6824
0.064, 1, 32.9625, 52.7899, -8.46653, 89.9186, -78.803, 34.6834
0.068, 1, 32.9659, 52.7849, -8.46761, 89.92, -78.798, 34.6852
0.072, 1, 32.9697, 52.7789, -8.46923, 89.922, -78.7905, 34.6877
0.076, 1, 32.9741, 52.7719, -8.47155, 89.925, -78.7796, 34.6915
0.08, 1, 32.9791, 52.7639, -8.47475, 89.9292, -78.7644, 34.6967
0.084, 1, 32.9847, 52.7549, -8.47904, 89.9348, -78.744, 34.7037
0.088, 1, 32.991, 52.7451, -8.48462, 89.9421, -78.7174, 34.7128
0.092, 1, 32.9978, 52.7344, -8.49169, 89.9515, -78.6834, 34.7244
0.096, 1, 33.005, 52.7231, -8.50046, 89.9631, -78.6411, 34.7389
0.1, 1, 33.0126, 52.7112, -8.51109, 89.9773, -78.5897, 34.7566
0.104, 1, 33.0204, 52.699, -8.5237, 89.9942, -78.5285, 34.7775
0.108, 1, 33.0284, 52.6863, -8.53837, 90.0139, -78.4572, 34.802
0.112, 1, 33.0368, 52.673, -8.55512, 90.0364, -78.3757, 34.8299
0.116, 1, 33.0455, 52.6592, -8.57391, 90.0617, -78.2841, 34.8613
0.12, 1, 33.0546, 52.6447, -8.59467, 90.0896, -78.183, 34.896
0.124, 1, 33.0642, 52.6296, -8.61726, 90.12, -78.0728, 34.9337
0.128, 1, 33.0741, 52.6139, -8.64154, 90.1527, -77.9545, 34.9743
0.131, 1, 33.0844, 52.5977, -8.66731, 90.1875, -77.8288, 35.0174
0.136, 1, 33.0949, 52.5809, -8.69437, 90.2239, -77.6968, 35.0627
0.139, 1, 33.1058, 52.5633, -8.72251, 90.2618, -77.5596, 35.1097
0.144, 1, 33.1172, 52.5447, -8.75152, 90.3009, -77.4182, 35.1582
0.148, 1, 33.1293, 52.525, -8.78121, 90.3408, -77.2736, 35.2077
0.152, 1, 33.1421, 52.5041, -8.81138, 90.3814, -77.1267, 35.2581
0.156, 1, 33.1556, 52.4819, -8.8419, 90.4224, -76.9782, 35.309
0.16, 1, 33.17, 52.4586, -8.87265, 90.4637, -76.8286, 35.3603
0.164, 1, 33.1849, 52.4345, -8.90354, 90.5052, -76.6784, 35.4118
0.168, 1, 33.2004, 52.4098, -8.93451, 90.5467, -76.5279, 35.4634
0.172, 1, 33.2161, 52.3847, -8.9655, 90.5883, -76.3772, 35.515
0.176, 1, 33.2321, 52.3594, -8.9965, 90.6299, -76.2265, 35.5667
0.18, 1, 33.2481, 52.334, -9.02749, 90.6715, -76.076, 35.6183
0.184, 1, 33.2643, 52.3084, -9.05844, 90.713, -75.9256, 35.6699
0.188, 1, 33.2805, 52.2828, -9.08935, 90.7545, -75.7754, 35.7214
0.192, 1, 33.2967, 52.2573, -9.12022, 90.7959, -75.6254, 35.7728
0.196, 1, 33.3129, 52.2317, -9.15104, 90.8372, -75.4757, 35.8241
0.2, 1, 33.3291, 52.2061, -9.1818, 90.8785, -75.3262, 35.8753
0.204, 1, 33.3453, 52.1806, -9.21251, 90.9197, -75.177, 35.9265
0.208, 1, 33.3614, 52.1551, -9.24316, 90.9608, -75.028, 35.9775
0.212, 1, 33.3776, 52.1296, -9.27376, 91.0018, -74.8794, 36.0285
0.216, 1, 33.3937, 52.1042, -9.30431, 91.0428, -74.731, 36.0794
0.22, 1, 33.4098, 52.0788, -9.33479, 91.0837, -74.5829, 36.1302
0.224, 1, 33.4258, 52.0535, -9.36522, 91.1245, -74.435, 36.1808
0.228, 1, 33.4419, 52.0282, -9.3956, 91.1652, -74.2874, 36.2314
0.232, 1, 33.4579, 52.003, -9.42592, 91.2059, -74.1401, 36.2819
0.236, 1, 33.4738, 51.9778, -9.45618, 91.2465, -73.9931, 36.3323
0.24, 1, 33.4898, 51.9526, -9.48639, 91.287, -73.8463, 36.3826
0.244, 1, 33.5057, 51.9275, -9.51654, 91.3275, -73.6998, 36.4329
0.248, 1, 33.5216, 51.9025, -9.54664, 91.3678, -73.5536, 36.483
0.252, 1, 33.5374, 51.8774, -9.57668, 91.4081, -73.4076, 36.533
0.256, 1, 33.5533, 51.8525, -9.60667, 91.4483, -73.2619, 36.583
0.26, 1, 33.5691, 51.8276, -9.63661, 91.4885, -73.1165, 36.6328
0.264, 1, 33.5848, 51.8027, -9.66649, 91.5286, -72.9713, 36.6826
0.268, 1, 33.6006, 51.7778, -9.69631, 91.5686, -72.8264, 36.7323
0.272, 1, 33.6163, 51.7531, -9.72609, 91.6085, -72.6817, 36.7819
0.276, 1, 33.632, 51.7283, -9.75581, 91.6484, -72.5373, 36.8314
0.28, 1, 33.6476, 51.7036, -9.78548, 91.6882, -72.3932, 36.8808
0.284, 1, 33.6633, 51.679, -9.81509, 91.7279, -72.2493, 36.9301
0.288, 1, 33.6789, 51.6544, -9.84465, 91.7675, -72.1057, 36.9794
0.292, 1, 33.6945, 51.6298, -9.87416, 91.8071, -71.9623, 37.0285
0.296, 1, 33.71, 51.6053, -9.90362, 91.8466, -71.8191, 37.0776
0.3, 1, 33.7255, 51.5808, -9.93303, 91.8861, -71.6763, 37.1265
0.304, 1, 33.741, 51.5563, -9.96238, 91.9255, -71.5336, 37.1754
0.308, 1, 33.7565, 51.5319, -9.99169, 91.9648, -71.3913, 37.2242
0.312, 1, 33.7719, 51.5076, -10.0209, 92.004, -71.2491, 37.273
0.316, 1, 33.7873, 51.4833, -10.0501, 92.0432, -71.1073, 37.3216
0.32, 1, 33.8027, 51.459, -10.0793, 92.0823, -70.9656, 37.3702
0.324, 1, 33.8181, 51.4348, -10.1084, 92.1213, -70.8242, 37.4186
0.328, 1, 33.8334, 51.4106, -10.1375, 92.1603, -70.6831, 37.467
0.332, 1, 33.8487, 51.3864, -10.1665, 92.1992, -70.5422, 37.5153
0.336, 1, 33.864, 51.3623, -10.1954, 92.238, -70.4015, 37.5636
0.34, 1, 33.8793, 51.3383, -10.2243, 92.2768, -70.261, 37.6117
0.344, 1, 33.8945, 51.3142, -10.2532, 92.3155, -70.1209, 37.6598
0.348, 1, 33.9097, 51.2903, -10.282, 92.3541, -69.9809, 37.7077
0.352, 1, 33.9249, 51.2663, -10.3107, 92.3927, -69.8412, 37.7556
0.356, 1, 33.94, 51.2424, -10.3394, 92.4312, -69.7017, 37.8034
0.36, 1, 33.9552, 51.2186, -10.3681, 92.4696, -69.5624, 37.8512
0.364, 1, 33.9703, 51.1947, -10.3967, 92.508, -69.4234, 37.8988
0.368, 1, 33.9853, 51.171, -10.4253, 92.5463, -69.2846, 37.9464
0.372, 1, 34.0004, 51.1472, -10.4538, 92.5846, -69.1461, 37.9939
0.376, 1, 34.0154, 51.1235, -10.4823, 92.6228, -69.0078, 38.0413
0.38, 1, 34.0304, 51.0998, -10.5107, 92.6609, -68.8697, 38.0887
0.384, 1, 34.0454, 51.0762, -10.5391, 92.6989, -68.7318, 38.1359
0.388, 1, 34.0604, 51.0526, -10.5674, 92.7369, -68.5941, 38.1831
0.392, 1, 34.0753, 51.0291, -10.5957, 92.7749, -68.4567, 38.2302
0.396, 1, 34.0902, 51.0056, -10.6239, 92.8127, -68.3195, 38.2773
0.4, 1, 34.1051, 50.9821, -10.6521, 92.8506, -68.1825, 38.3242
0.404, 1, 34.1199, 50.9587, -10.6803, 92.8883, -68.0458, 38.3711
0.408, 1, 34.1348, 50.9353, -10.7084, 92.926, -67.9093, 38.4179
0.412, 1, 34.1496, 50.9119, -10.7364, 92.9636, -67.773, 38.4646
0.416, 1, 34.1643, 50.8886, -10.7644, 93.0012, -67.6369, 38.5113
0.42, 1, 34.1791, 50.8653, -10.7924, 93.0387, -67.501, 38.5579
0.424, 1, 34.1938, 50.8421, -10.8203, 93.0762, -67.3653, 38.6044
0.428, 1, 34.2086, 50.8189, -10.8482, 93.1136, -67.2299, 38.6508
0.432, 1, 34.2232, 50.7957, -10.876, 93.1509, -67.0947, 38.6971
0.436, 1, 34.2379, 50.7726, -10.9038, 93.1881, -66.9597, 38.7434
0.44, 1, 34.2526, 50.7495, -10.9315, 93.2254, -66.8249, 38.7896
0.444, 1, 34.2672, 50.7264, -10.9592, 93.2625, -66.6903, 38.8358
0.448, 1, 34.2818, 50.7034, -10.9869, 93.2996, -66.5559, 38.8818
0.452, 1, 34.2964, 50.6804, -11.0145, 93.3367, -66.4217, 38.9278
0.456, 1, 34.3109, 50.6574, -11.0421, 93.3736, -66.2878, 38.9738
0.46, 1, 34.3254, 50.6345, -11.0696, 93.4106, -66.154, 39.0196
0.464, 1, 34.3399, 50.6116, -11.0971, 93.4474, -66.0204, 39.0654
0.468, 1, 34.3544, 50.5888, -11.1246, 93.4842, -65.8871, 39.1111
0.472, 1, 34.3689, 50.566, -11.152, 93.521, -65.754, 39.1567
0.476, 1, 34.3833, 50.5432, -11.1793, 93.5577, -65.621, 39.2023
0.48, 1, 34.3978, 50.5204, -11.2066, 93.5943, -65.4883, 39.2478
0.484, 1, 34.4121, 50.4977, -11.2339, 93.6309, -65.3558, 39.2933
0.488, 1, 34.4265, 50.475, -11.2612, 93.6675, -65.2234, 39.3386
0.492, 1, 34.4409, 50.4524, -11.2884, 93.7039, -65.0913, 39.3839
0.496, 1, 34.4552, 50.4298, -11.3155, 93.7404, -64.9594, 39.4291
0.5, 1, 34.4695, 50.4072, -11.3426, 93.7767, -64.8276, 39.4743
0.504, 1, 34.4838, 50.3847, -11.3697, 93.813, -64.6961, 39.5194
0.508, 1, 34.4981, 50.3622, -11.3967, 93.8493, -64.5647, 39.5644
0.512, 1, 34.5123, 50.3397, -11.4237, 93.8855, -64.4336, 39.6094
0.516, 1, 34.5265, 50.3173, -11.4507, 93.9217, -64.3026, 39.6543
0.52, 1, 34.5408, 50.2949, -11.4776, 93.9578, -64.1719, 39.6991
0.524, 1, 34.5549, 50.2725, -11.5045, 93.9938, -64.0413, 39.7439
0.528, 1, 34.5691, 50.2501, -11.5313, 94.0298, -63.9109, 39.7886
0.532, 1, 34.5832, 50.2278, -11.5581, 94.0657, -63.7807, 39.8332
0.536, 1, 34.5974, 50.2056, -11.5848, 94.1016, -63.6507, 39.8777
0.54, 1, 34.6115, 50.1833, -11.6116, 94.1375, -63.5209, 39.9222
0.544, 1, 34.6255, 50.1611, -11.6382, 94.1732, -63.3913, 39.9667
0.548, 1, 34.6396, 50.1389, -11.6649, 94.209, -63.2619, 40.0111
0.552, 1, 34.6536, 50.1168, -11.6915, 94.2447, -63.1326, 40.0554
0.556, 1, 34.6677, 50.0947, -11.718, 94.2803, -63.0036, 40.0996
0.56, 1, 34.6817, 50.0726, -11.7446, 94.3159, -62.8747, 40.1438
0.564, 1, 34.6956, 50.0505, -11.7711, 94.3514, -62.746, 40.1879
0.568, 1, 34.7096, 50.0285, -11.7975, 94.3869, -62.6175, 40.2319
0.572, 1, 34.7235, 50.0065, -11.8239, 94.4223, -62.4892, 40.2759
0.576, 1, 34.7375, 49.9846, -11.8503, 94.4577, -62.361, 40.3199
0.58, 1, 34.7514, 49.9626, -11.8766, 94.493, -62.2331, 40.3637
0.584, 1, 34.7652, 49.9407, -11.9029, 94.5283, -62.1053, 40.4075
0.588, 1, 34.7791, 49.9189, -11.9292, 94.5635, -61.9777, 40.4513
0.592, 1, 34.7929, 49.897, -11.9554, 94.5987, -61.8503, 40.495
0.596, 1, 34.8068, 49.8752, -11.9816, 94.6338, -61.723, 40.5386
0.6, 1, 34.8206, 49.8535, -12.0078, 94.6689, -61.5959, 40.5821
0.604, 1, 34.8343, 49.8317, -12.0339, 94.7039, -61.4691, 40.6256
0.608, 1, 34.8481, 49.81, -12.06, 94.7389, -61.3423, 40.6691
0.612, 1, 34.8618, 49.7883, -12.086, 94.7738, -61.2158, 40.7125
0.616, 1, 34.8756, 49.7667, -12.112, 94.8087, -61.0894, 40.7558
0.62, 1, 34.8893, 49.7451, -12.138, 94.8435, -60.9632, 40.799
0.624, 1, 34.903, 49.7235, -12.1639, 94.8783, -60.8372, 40.8422
0.628, 1, 34.9166, 49.7019, -12.1898, 94.9131, -60.7114, 40.8854
0.632, 1, 34.9303, 49.6804, -12.2157, 94.9478, -60.5857, 40.9284
0.636, 1, 34.9439, 49.6589, -12.2415, 94.9824, -60.4602, 40.9715
0.64, 1, 34.9575, 49.6374, -12.2673, 95.017, -60.3349, 41.0144
0.644, 1, 34.9711, 49.6159, -12.2931, 95.0516, -60.2097, 41.0573
0.648, 1, 34.9847, 49.5945, -12.3188, 95.0861, -60.0847, 41.1002
0.652, 1, 34.9983, 49.5731, -12.3445, 95.1205, -59.9599, 41.143
0.656, 1, 35.0118, 49.5518, -12.3701, 95.1549, -59.8352, 41.1857
0.66, 1, 35.0253, 49.5304, -12.3958, 95.1893, -59.7107, 41.2284
0.664, 1, 35.0388, 49.5091, -12.4214, 95.2236, -59.5864, 41.271
0.668, 1, 35.0523, 49.4879, -12.4469, 95.2579, -59.4622, 41.3136
0.672, 1, 35.0658, 49.4666, -12.4724, 95.2921, -59.3382, 41.3561
0.676, 1, 35.0792, 49.4454, -12.4979, 95.3263, -59.2144, 41.3985
0.68, 1, 35.0927, 49.4242, -12.5234, 95.3605, -59.0907, 41.4409
0.684, 1, 35.1061, 49.4031, -12.5488, 95.3946, -58.9672, 41.4833
0.688, 1, 35.1195, 49.3819, -12.5742, 95.4286, -58.8439, 41.5256
0.692, 1, 35.1329, 49.3608, -12.5995, 95.4626, -58.7207, 41.5678
0.696, 1, 35.1462, 49.3397, -12.6249, 95.4966, -58.5977, 41.61
0.7, 1, 35.1596, 49.3187, -12.6501, 95.5305, -58.4748, 41.6521
0.704, 1, 35.1729, 49.2977, -12.6754, 95.5644, -58.3521, 41.6941
0.708, 1, 35.1862, 49.2767, -12.7006, 95.5982, -58.2296, 41.7361
0.712, 1, 35.1995, 49.2557, -12.7258, 95.632, -58.1072, 41.7781
0.716, 1, 35.2128, 49.2347, -12.751, 95.6657, -57.985, 41.82
0.72, 1, 35.226, 49.2138, -12.7761, 95.6994, -57.8629, 41.8618
0.724, 1, 35.2393, 49.1929, -12.8012, 95.7331, -57.741, 41.9036
0.728, 1, 35.2525, 49.1721, -12.8262, 95.7667, -57.6192, 41.9454
0.732, 1, 35.2657, 49.1512, -12.8513, 95.8003, -57.4976, 41.9871
0.736, 1, 35.2789, 49.1304, -12.8763, 95.8338, -57.3762, 42.0287
0.74, 1, 35.2921, 49.1097, -12.9012, 95.8673, -57.2549, 42.0703
0.744, 1, 35.3052, 49.0889, -12.9262, 95.9007, -57.1338, 42.1118
0.748, 1, 35.3184, 49.0682, -12.9511, 95.9341, -57.0128, 42.1533
0.752, 1, 35.3315, 49.0475, -12.9759, 95.9675, -56.8919, 42.1947
0.756, 1, 35.3446, 49.0268, -13.0008, 96.0008, -56.7712, 42.2361
0.76, 1, 35.3577, 49.0061, -13.0256, 96.0341, -56.6507, 42.2774
0.764, 1, 35.3708, 48.9855, -13.0504, 96.0673, -56.5303, 42.3187
0.768, 1, 35.3838, 48.9649, -13.0751, 96.1005, -56.4101, 42.3599
0.772, 1, 35.3969, 48.9443, -13.0998, 96.1336, -56.29, 42.401
0.776, 1, 35.4099, 48.9238, -13.1245, 96.1667, -56.1701, 42.4422
0.78, 1, 35.4229, 48.9032, -13.1492, 96.1998, -56.0503, 42.4832
0.784, 1, 35.4359, 48.8827, -13.1738, 96.2328, -55.9306, 42.5242
0.788, 1, 35.4489, 48.8623, -13.1984, 96.2658, -55.8112, 42.5652
0.792, 1, 35.4619, 48.8418, -13.2229, 96.2988, -55.6918, 42.6061
0.796, 1, 35.4748, 48.8214, -13.2475, 96.3317, -55.5726, 42.647
0.8, 1, 35.4877, 48.801, -13.272, 96.3646, -55.4535, 42.6878
0.804, 1, 35.5006, 48.7806, -13.2965, 96.3974, -55.3346, 42.7285
0.808, 1, 35.5136, 48.7603, -13.3209, 96.4302, -55.2159, 42.7693
0.812, 1, 35.5264, 48.7399, -13.3453, 96.4629, -55.0972, 42.8099
0.816, 1, 35.5393, 48.7196, -13.3697, 96.4956, -54.9787, 42.8506
0.82, 1, 35.5522, 48.6994, -13.3941, 96.5283, -54.8604, 42.8911
0.824, 1, 35.565, 48.6791, -13.4184, 96.5609, -54.7422, 42.9316
0.828, 1, 35.5778, 48.6589, -13.4427, 96.5935, -54.6241, 42.9721
0.832, 1, 35.5906, 48.6387, -13.467, 96.6261, -54.5062, 43.0125
0.836, 1, 35.6034, 48.6185, -13.4912, 96.6586, -54.3884, 43.0529
0.84, 1, 35.6162, 48.5983, -13.5154, 96.6911, -54.2707, 43.0933
0.844, 1, 35.629, 48.5782, -13.5396, 96.7235, -54.1532, 43.1335
0.848, 1, 35.6417, 48.5581, -13.5638, 96.7559, -54.0358, 43.1738
0.852, 1, 35.6545, 48.538, -13.5879, 96.7883, -53.9186, 43.214
0.856, 1, 35.6672, 48.5179, -13.612, 96.8206, -53.8015, 43.2541
0.86, 1, 35.6799, 48.4979, -13.6361, 96.8529, -53.6845, 43.2942
0.864, 1, 35.6925, 48.4779, -13.6601, 96.8852, -53.5677, 43.3343
0.868, 1, 35.7051, 48.458, -13.6841, 96.9174, -53.451, 43.3743
0.872, 1, 35.7176, 48.4381, -13.7081, 96.9496, -53.3345, 43.4142
0.876, 1, 35.73, 48.4184, -13.7321, 96.9817, -53.2181, 43.4541
0.88, 1, 35.7419, 48.3992, -13.756, 97.0137, -53.102, 43.4939
0.884, 1, 35.7533, 48.3805, -13.7798, 97.0457, -52.9863, 43.5336
0.888, 1, 35.7641, 48.3627, -13.8035, 97.0775, -52.8712, 43.5731
0.892, 1, 35.7742, 48.3457, -13.8269, 97.109, -52.757, 43.6122
0.896, 1, 35.7836, 48.3297, -13.8501, 97.1401, -52.6444, 43.6508
0.9, 1, 35.7924, 48.3145, -13.8728, 97.1706, -52.534, 43.6887
0.904, 1, 35.8007, 48.3002, -13.895, 97.2003, -52.4264, 43.7256
0.908, 1, 35.8087, 48.2866, -13.9163, 97.229, -52.3226, 43.7613
0.912, 1, 35.8164, 48.2736, -13.9367, 97.2564, -52.2234, 43.7953
0.916, 1, 35.8238, 48.2613, -13.956, 97.2823, -52.1296, 43.8275
0.92, 1, 35.8309, 48.2497, -13.9741, 97.3065, -52.042, 43.8576
0.924, 1, 35.8377, 48.2387, -13.9907, 97.3288, -51.9612, 43.8853
0.928, 1, 35.8442, 48.2281, -14.0057, 97.3491, -51.888, 43.9104
0.932, 1, 35.8507, 48.2178, -14.0192, 97.3671, -51.8226, 43.9328
0.936, 1, 35.8571, 48.2077, -14.031, 97.3829, -51.7653, 43.9524
0.94, 1, 35.8634, 48.1979, -14.0412, 97.3966, -51.716, 43.9693
0.944, 1, 35.8695, 48.1884, -14.0498, 97.4081, -51.6743, 43.9836
0.948, 1, 35.8755, 48.1793, -14.0569, 97.4175, -51.6399, 43.9954
0.952, 2, 35.8812, 48.1708, -14.0626, 97.4252, -51.612, 44.0049
0.956, 2, 35.8865, 48.1631, -14.0672, 97.4313, -51.5899, 44.0124
0.96, 2, 35.8915, 48.1562, -14.0707, 97.436, -51.5728, 44.0183
0.964, 2, 35.896, 48.1502, -14.0734, 97.4396, -51.5598, 44.0227
0.968, 2, 35.9001, 48.145, -14.0754, 97.4422, -51.5503, 44.0259
0.972, 2, 35.9037, 48.1406, -14.0768, 97.4441, -51.5433, 44.0283
0.976, 2, 35.9067, 48.1371, -14.0778, 97.4454, -51.5385, 44.0299
0.98, 2, 35.9091, 48.1343, -14.0785, 97.4463, -51.5351, 44.0311
0.984, 2, 35.911, 48.1323, -14.079, 97.4469, -51.5327, 44.0319
0.988, 2, 35.9123, 48.1308, -14.0793, 97.4474, -51.5312, 44.0324
0.992, 2, 35.9132, 48.1299, -14.0796, 97.4477, -51.5301, 44.0328
0.996, 2, 35.9138, 48.1292, -14.0797, 97.4479, -51.5294, 44.033
1, 2, 35.9142, 48.1287, -14.0798, 97.448, -51.5289, 44.0332
1.004, 2, 35.9145, 48.1284, -14.0799, 97.4481, -51.5285, 44.0333
1.008, 2, 35.9147, 48.1282, -14.0799, 97.4482, -51.5283, 44.0334
1.012, 2, 35.9149, 48.1281, -14.08, 97.4482, -51.5282, 44.0334
1.016, 2, 35.9149, 48.128, -14.08, 97.4482, -51.5281, 44.0335
1.02, 2, 35.915, 48.1279, -14.08, 97.4482, -51.528, 44.0335
1.024, 2, 35.915, 48.1279, -14.08, 97.4483, -51.5279, 44.0335
1.027, 2, 35.9151, 48.1278, -14.08, 97.4483, -51.5279, 44.0335
1.032, 2, 35.9151, 48.1278, -14.08, 97.4483, -51.5279, 44.0335
1.036, 2, 35.9151, 48.1278, -14.08, 97.4483, -51.5279, 44.0335
1.04, 2, 35.9151, 48.1278, -14.08, 97.4483, -51.5279, 44.0335
1.044, 2, 35.9151, 48.1278, -14.08, 97.4483, -51.5279, 44.0335
1.048, 2, 35.9151, 48.1278, -14.08, 97.4483, -51.5279, 44.0335
1.052, 2, 35.9151, 48.1278, -14.08, 97.4483, -51.5278, 44.0335
1.055, 2, 35.9151, 48.1278, -14.08, 97.4483, -51.5278, 44.0335
1.06, 2, 35.9151, 48.1278, -14.08, 97.4483, -51.5278, 44.0335
1.064, 2, 35.9151, 48.1278, -14.08, 97.4483, -51.5278, 44.0335
1.068, 2, 35.9151, 48.1278, -14.08, 97.4483, -51.5278, 44.0335
1.072, 2, 35.9151, 48.1278, -14.08, 97.4483, -51.5278, 44.0335
1.076, 2, 35.9151, 48.1278, -14.08, 97.4483, -51.5278, 44.0335
1.08, 2, 35.9151, 48.1278, -14.08, 97.4483, -51.5278, 44.0335
1.084, 2, 35.9151, 48.1278, -14.08, 97.4483, -51.5278, 44.0335
1.088, 2, 35.9151, 48.1278, -14.08, 97.4483, -51.5278, 44.0335
1.091, 2, 35.9151, 48.1278, -14.08, 97.4483, -51.5278, 44.0335
1.096, 2, 35.9151, 48.1278, -14.08, 97.4483, -51.5278, 44.0335
1.1, 2, 35.9151, 48.1278, -14.08, 97.4483, -51.5278, 44.0335
1.104, 2, 35.9151, 48.1278, -14.08, 97.4483, -51.5278, 44.0335
1.108, 2, 35.9151, 48.1278, -14.08, 97.4483, -51.5278, 44.0335
1.112, 2, 35.9151, 48.1278, -14.08, 97.4483, -51.5278, 44.0335
1.116, 2, 35.9151, 48.1278, -14.08, 97.4483, -51.5278, 44.0335
1.119, 2, 35.9151, 48.1278, -14.08, 97.4483, -51.5278, 44.0335
1.124, 2, 35.9151, 48.1278, -14.08, 97.4483, -51.5278, 44.0335
1.128, 2, 35.9151, 48.1278, -14.08, 97.4483, -51.5278, 44.0335
1.132, 2, 35.9151, 48.1278, -14.08, 97.4483, -51.5278, 44.0335
1.136, 2, 35.9151, 48.1278, -14.08, 97.4483, -51.5278, 44.0335
1.14, 2, 35.9151, 48.1278, -14.08, 97.4483, -51.5278, 44.0335
1.144, 2, 35.9151, 48.1278, -14.08, 97.4483, -51.5278, 44.0335
1.147, 2, 35.9151, 48.1278, -14.08, 97.4483, -51.5278, 44.0335
1.152, 2, 35.9151, 48.1278, -14.08, 97.4483, -51.5278, 44.0335
1.156, 2, 35.9151, 48.1278, -14.08, 97.4483, -51.5278, 44.0335
1.16, 2, 35.9151, 48.1278, -14.08, 97.4483, -51.5278, 44.0335
1.164, 2, 35.9151, 48.1278, -14.08, 97.4483, -51.5278, 44.0335
1.168, 2, 35.9151, 48.1278, -14.08, 97.4483, -51.5278, 44.0335
1.172, 2, 35.9151, 48.1278, -14.08, 97.4483, -51.5278, 44.0335
1.175, 2, 35.9151, 48.1278, -14.08, 97.4483, -51.5278, 44.0335
1.18, 2, 35.9151, 48.1278, -14.08, 97.4483, -51.5278, 44.0335
1.184, 2, 35.9151, 48.1278, -14.08, 97.4483, -51.5278, 44.0335
1.188, 2, 35.9151, 48.1278, -14.08, 97.4483, -51.5278, 44.0335
1.192, 2, 35.9151, 48.1278, -14.08, 97.4483, -51.5278, 44.0335
1.196, 2, 35.9151, 48.1278, -14.08, 97.4483, -51.5278, 44.0335
1.2, 2, 35.9151, 48.1278, -14.08, 97.4483, -51.5278, 44.0335
1.204, 2, 35.9151, 48.1278, -14.08, 97.4483, -51.5278, 44.0335
1.208, 2, 35.9151, 48.1278, -14.08, 97.4483, -51.5278, 44.0335
1.212, 2, 35.9151, 48.1278, -14.08, 97.4483, -51.5278, 44.0335
1.216, 2, 35.9151, 48.1278, -14.08, 97.4483, -51.5278, 44.0335
1.22, 2, 35.9151, 48.1278, -14.08, 97.4483, -51.5278, 44.0335
1.224, 2, 35.9151, 48.1278, -14.08, 97.4483, -51.5278, 44.0335
1.228, 2, 35.9151, 48.1278, -14.08, 97.4483, -51.5278, 44.0335
1.232, 2, 35.9151, 48.1278, -14.08, 97.4483, -51.5278, 44.0335
1.236, 2, 35.9151, 48.1278, -14.08, 97.4483, -51.5278, 44.0335
1.24, 2, 35.9151, 48.1278, -14.08, 97.4483, -51.5278, 44.0335
1.244, 2, 35.9151, 48.1278, -14.08, 97.4483, -51.5278, 44.0335
1.248, 2, 35.9151, 48.1278, -14.08, 97.4483, -51.5278, 44.0335
1.252, 2, 35.9151, 48.1278, -14.08, 97.4483, -51.5278, 44.0335
1.256, 2, 35.9151, 48.1278, -14.08, 97.4483, -51.5278, 44.0335
1.26, 2, 35.9151, 48.1278, -14.08, 97.4483, -51.5278, 44.0335
1.264, 2, 35.9151, 48.1278, -14.08, 97.4483, -51.5278, 44.0335
1.267, 2, 35.9151, 48.1278, -14.08, 97.4483, -51.5278, 44.0335
1.272, 2, 35.9151, 48.1278, -14.08, 97.4483, -51.5278, 44.0335
1.276, 2, 35.9151, 48.1278, -14.08, 97.4483, -51.5278, 44.0335
1.28, 2, 35.9151, 48.1278, -14.08, 97.4483, -51.5278, 44.0335
1.284, 2, 35.9151, 48.1278, -14.08, 97.4483, -51.5278, 44.0335
1.288, 2, 35.9151, 48.1278, -14.08, 97.4483, -51.5278, 44.0335
1.292, 2, 35.9151, 48.1278, -14.08, 97.4483, -51.5278, 44.0335
1.295, 2, 35.9151, 48.1278, -14.08, 97.4483, -51.5278, 44.0335
1.3, 2, 35.9151, 48.1278, -14.08, 97.4483, -51.5278, 44.0335
1.304, 2, 35.9151, 48.1278, -14.08, 97.4483, -51.5278, 44.0335
1.308, 2, 35.9151, 48.1278, -14.08, 97.4483, -51.5278, 44.0335
1.312, 2, 35.9151, 48.1278, -14.08, 97.4483, -51.5278, 44.0335
1.316, 2, 35.9151, 48.1278, -14.08, 97.4483, -51.5278, 44.0335
1.32, 2, 35.9151, 48.1278, -14.08, 97.4483, -51.5278, 44.0335
1.324, 2, 35.9151, 48.1278, -14.08, 97.4483, -51.5278, 44.0335
1.328, 2, 35.9151, 48.1278, -14.08, 97.4483, -51.5278, 44.0335
1.332, 2, 35.9151, 48.1278, -14.08, 97.4483, -51.5278, 44.0335
1.336, 2, 35.9151, 48.1278, -14.08, 97.4483, -51.5278, 44.0335
1.34, 2, 35.9151, 48.1278, -14.08, 97.4483, -51.5278, 44.0335
1.344, 2, 35.9151, 48.1278, -14.08, 97.4483, -51.5278, 44.0335
1.348, 2, 35.9151, 48.1278, -14.08, 97.4483, -51.5278, 44.0335
1.352, 2, 35.9151, 48.1278, -14.08, 97.4483, -51.5278, 44.0335
1.356, 2, 35.9151, 48.1278, -14.08, 97.4483, -51.5278, 44.0335
1.36, 2, 35.9151, 48.1278, -14.08, 97.4483, -51.5278, 44.0335
1.364, 2, 35.9151, 48.1278, -14.08, 97.4483, -51.5278, 44.0335
1.368, 2, 35.9151, 48.1278, -14.08, 97.4483, -51.5278, 44.0335
1.372, 2, 35.9151, 48.1278, -14.08, 97.4483, -51.5278, 44.0335
1.376, 2, 35.9151, 48.1278, -14.08, 97.4483, -51.5278, 44.0335
1.38, 2, 35.9151, 48.1278, -14.08, 97.4483, -51.5278, 44.0335
1.384, 2, 35.9151, 48.1278, -14.08, 97.4483, -51.5278, 44.0335
1.388, 2, 35.9151, 48.1278, -14.08, 97.4483, -51.5278, 44.0335
1.392, 2, 35.9151, 48.1278, -14.08, 97.4483, -51.5278, 44.0335
1.396, 2, 35.9151, 48.1278, -14.08, 97.4483, -51.5278, 44.0335
1.4, 2, 35.9151, 48.1278, -14.08, 97.4483, -51.5278, 44.0335
1.404, 2, 35.9151, 48.1278, -14.08, 97.4483, -51.5278, 44.0335
1.408, 2, 35.9151, 48.1278, -14.08, 97.4483, -51.5278, 44.0335
1.412, 2, 35.9151, 48.1278, -14.08, 97.4483, -51.5278, 44.0335
1.416, 2, 35.9151, 48.1278, -14.08, 97.4483, -51.5278, 44.0335
1.42, 2, 35.9151, 48.1278, -14.08, 97.4483, -51.5278, 44.0335
1.424, 2, 35.9151, 48.1278, -14.08, 97.4483, -51.5278, 44.0335
1.428, 2, 35.9151, 48.1278, -14.08, 97.4483, -51.5278, 44.0335
1.432, 2, 35.9151, 48.1278, -14.08, 97.4483, -51.5278, 44.0335
1.436, 2, 35.9151, 48.1278, -14.08, 97.4483, -51.5278, 44.0335
1.44, 2, 35.9151, 48.1278, -14.08, 97.4483, -51.5278, 44.0335
1.444, 2, 35.9151, 48.1278, -14.08, 97.4483, -51.5278, 44.0335
1.448, 2, 35.9151, 48.1278, -14.08, 97.4483, -51.5278, 44.0335
1.452, 3, 35.9151, 48.1278, -14.08, 97.4483, -51.5278, 44.0335
1.456, 3, 35.9151, 48.1278, -14.08, 97.4483, -51.5278, 44.0335
1.46, 3, 35.9151, 48.1278, -14.08, 97.4483, -51.5278, 44.0335
1.464, 3, 35.9151, 48.1278, -14.08, 97.4483, -51.5278, 44.0335
1.468, 3, 35.9151, 48.1278, -14.08, 97.4483, -51.5278, 44.0335
1.472, 3, 35.9151, 48.1278, -14.08, 97.4483, -51.5278, 44.0335
1.476, 3, 35.9151, 48.1278, -14.08, 97.4483, -51.5278, 44.0335
1.48, 3, 35.9151, 48.1278, -14.08, 97.4483, -51.5278, 44.0335
1.484, 3, 35.9151, 48.1278, -14.08, 97.4483, -51.5278, 44.0335
1.488, 3, 35.9151, 48.1278, -14.08, 97.4483, -51.5278, 44.0335
1.492, 3, 35.9151, 48.1278, -14.08, 97.4483, -51.5278, 44.0335
1.496, 3, 35.9151, 48.1278, -14.08, 97.4483, -51.5278, 44.0335
1.5, 3, 35.9151, 48.1278, -14.08, 97.4483, -51.5278, 44.0335
1.504, 3, 35.9151, 48.1278, -14.08, 97.4483, -51.5278, 44.0335
1.508, 4, 35.9151, 48.1278, -14.08, 97.4483, -51.5278, 44.0335
1.512, 4, 35.9151, 48.1278, -14.08, 97.4483, -51.5278, 44.0335
1.516, 4, 35.9151, 48.1278, -14.08, 97.4483, -51.5278, 44.0335
1.52, 4, 35.9151, 48.1278, -14.08, 97.4483, -51.5278, 44.0335
1.524, 4, 35.9151, 48.1278, -14.08, 97.4483, -51.5278, 44.0335
1.528, 4, 35.9151, 48.1278, -14.08, 97.4483, -51.5278, 44.0335
1.532, 4, 35.9151, 48.1278, -14.08, 97.4483, -51.5278, 44.0335
1.536, 4, 35.9151, 48.1278, -14.08, 97.4483, -51.5278, 44.0335
1.54, 4, 35.9151, 48.1278, -14.08, 97.4483, -51.5278, 44.0335
1.544, 4, 35.9151, 48.1278, -14.08, 97.4483, -51.5278, 44.0335
1.548, 4, 35.9151, 48.1278, -14.08, 97.4483, -51.5278, 44.0335
1.552, 4, 35.915, 48.128, -14.08, 97.4483, -51.5279, 44.0335
1.556, 4, 35.9148, 48.1283, -14.08, 97.4483, -51.5279, 44.0335
1.56, 4, 35.9144, 48.1291, -14.08, 97.4483, -51.528, 44.0334
1.564, 4, 35.9138, 48.1302, -14.08, 97.4482, -51.5284, 44.0333
1.568, 4, 35.9129, 48.1318, -14.0799, 97.4481, -51.5291, 44.033
1.572, 4, 35.9119, 48.1339, -14.0799, 97.4479, -51.5304, 44.0326
1.576, 4, 35.9107, 48.1362, -14.0797, 97.4475, -51.5326, 44.0317
1.58, 4, 35.9096, 48.1388, -14.0796, 97.447, -51.5359, 44.0305
1.584, 4, 35.9085, 48.1415, -14.0793, 97.4462, -51.5405, 44.0287
1.588, 4, 35.9075, 48.1443, -14.079, 97.4451, -51.5468, 44.0263
1.592, 4, 35.9067, 48.1472, -14.0786, 97.4438, -51.555, 44.0232
1.596, 4, 35.9058, 48.1504, -14.0781, 97.442, -51.565, 44.0193
1.6, 4, 35.905, 48.1539, -14.0775, 97.44, -51.5772, 44.0147
1.604, 4, 35.9043, 48.1576, -14.0768, 97.4376, -51.5914, 44.0093
1.608, 4, 35.9037, 48.1614, -14.076, 97.4348, -51.6077, 44.0031
1.612, 4, 35.9032, 48.1654, -14.0751, 97.4317, -51.626, 43.9961
1.616, 4, 35.9029, 48.1694, -14.0741, 97.4283, -51.6462, 43.9884
1.62, 4, 35.9027, 48.1735, -14.073, 97.4245, -51.668, 43.98
1.624, 4, 35.9024, 48.1779, -14.0718, 97.4206, -51.6913, 43.9712
1.628, 4, 35.9021, 48.1825, -14.0706, 97.4164, -51.7156, 43.9619
1.632, 4, 35.9017, 48.1877, -14.0693, 97.4121, -51.7409, 43.9523
1.636, 4, 35.901, 48.1932, -14.068, 97.4077, -51.7667, 43.9424
1.64, 4, 35.9002, 48.1992, -14.0667, 97.4031, -51.793, 43.9324
1.644, 4, 35.8992, 48.2056, -14.0653, 97.3986, -51.8197, 43.9223
1.648, 4, 35.898, 48.2122, -14.0639, 97.3939, -51.8465, 43.9121
1.652, 4, 35.8968, 48.219, -14.0625, 97.3893, -51.8735, 43.9018
1.656, 4, 35.8955, 48.2258, -14.0611, 97.3846, -51.9005, 43.8915
1.66, 4, 35.8941, 48.2328, -14.0596, 97.3799, -51.9277, 43.8812
1.664, 4, 35.8927, 48.2398, -14.0582, 97.3752, -51.9548, 43.8709
1.668, 4, 35.8913, 48.2468, -14.0567, 97.3704, -51.982, 43.8606
1.672, 4, 35.8899, 48.2539, -14.0553, 97.3657, -52.0092, 43.8503
1.676, 4, 35.8885, 48.2609, -14.0538, 97.3609, -52.0365, 43.8399
1.68, 4, 35.8871, 48.268, -14.0523, 97.3561, -52.0637, 43.8296
1.684, 4, 35.8856, 48.2751, -14.0508, 97.3514, -52.0909, 43.8193
1.688, 4, 35.8842, 48.2822, -14.0493, 97.3466, -52.1181, 43.809
1.692, 4, 35.8827, 48.2892, -14.0477, 97.3418, -52.1454, 43.7987
1.696, 4, 35.8813, 48.2963, -14.0462, 97.337, -52.1726, 43.7884
1.7, 4, 35.8798, 48.3034, -14.0447, 97.3321, -52.1998, 43.7781
1.704, 4, 35.8784, 48.3104, -14.0431, 97.3273, -52.2271, 43.7678
1.708, 4, 35.8769, 48.3175, -14.0416, 97.3225, -52.2543, 43.7575
1.712, 4, 35.8754, 48.3245, -14.04, 97.3176, -52.2815, 43.7472
1.716, 4, 35.874, 48.3316, -14.0384, 97.3128, -52.3087, 43.737
1.72, 4, 35.8725, 48.3386, -14.0368, 97.3079, -52.3359, 43.7267
1.724, 4, 35.871, 48.3457, -14.0352, 97.303, -52.3631, 43.7164
1.728, 4, 35.8695, 48.3527, -14.0336, 97.2981, -52.3903, 43.7062
1.732, 4, 35.868, 48.3597, -14.032, 97.2932, -52.4175, 43.6959
1.736, 4, 35.8666, 48.3668, -14.0304, 97.2883, -52.4447, 43.6857
1.74, 4, 35.8651, 48.3738, -14.0288, 97.2834, -52.4719, 43.6755
1.744, 4, 35.8636, 48.3808, -14.0271, 97.2785, -52.4991, 43.6652
1.748, 4, 35.8621, 48.3878, -14.0255, 97.2735, -52.5263, 43.655
1.752, 4, 35.8606, 48.3948, -14.0238, 97.2686, -52.5535, 43.6448
1.756, 4, 35.8591, 48.4018, -14.0221, 97.2636, -52.5807, 43.6346
1.76, 4, 35.8576, 48.4088, -14.0204, 97.2587, -52.6079, 43.6244
1.764, 4, 35.8561, 48.4158, -14.0188, 97.2537, -52.635, 43.6142
1.768, 4, 35.8545, 48.4228, -14.0171, 97.2487, -52.6622, 43.604
1.772, 4, 35.853, 48.4298, -14.0154, 97.2437, -52.6894, 43.5938
1.776, 4, 35.8515, 48.4367, -14.0136, 97.2387, -52.7165, 43.5836
1.78, 4, 35.85, 48.4437, -14.0119, 97.2337, -52.7437, 43.5734
1.784, 4, 35.8485, 48.4507, -14.0102, 97.2287, -52.7709, 43.5633
1.788, 4, 35.8469, 48.4576, -14.0084, 97.2236, -52.798, 43.5531
1.792, 4, 35.8454, 48.4646, -14.0067, 97.2186, -52.8252, 43.5429
1.796, 4, 35.8439, 48.4715, -14.0049, 97.2136, -52.8523, 43.5328
1.8, 4, 35.8423, 48.4785, -14.0031, 97.2085, -52.8794, 43.5226
1.804, 4, 35.8408, 48.4854, -14.0013, 97.2034, -52.9066, 43.5125
1.808, 4, 35.8393, 48.4923, -13.9996, 97.1984, -52.9337, 43.5024
1.812, 4, 35.8377, 48.4993, -13.9978, 97.1933, -52.9608, 43.4922
1.816, 4, 35.8362, 48.5062, -13.9959, 97.1882, -52.988, 43.4821
1.82, 4, 35.8346, 48.5131, -13.9941, 97.1831, -53.0151, 43.472
1.824, 4, 35.8331, 48.52, -13.9923, 97.178, -53.0422, 43.4619
1.828, 4, 35.8315, 48.5269, -13.9904, 97.1728, -53.0693, 43.4518
1.832, 4, 35.8299, 48.5338, -13.9886, 97.1677, -53.0965, 43.4417
1.836, 4, 35.8284, 48.5407, -13.9867, 97.1626, -53.1236, 43.4316
1.84, 4, 35.8268, 48.5476, -13.9849, 97.1574, -53.1507, 43.4215
1.844, 4, 35.8252, 48.5545, -13.983, 97.1522, -53.1778, 43.4114
1.848, 4, 35.8237, 48.5613, -13.9811, 97.1471, -53.2049, 43.4013
1.852, 4, 35.8221, 48.5682, -13.9792, 97.1419, -53.232, 43.3912
1.856, 4, 35.8205, 48.5751, -13.9773, 97.1367, -53.2591, 43.3812
1.86, 4, 35.8189, 48.582, -13.9754, 97.1315, -53.2862, 43.3711
1.864, 4, 35.8173, 48.5888, -13.9735, 97.1263, -53.3132, 43.361
1.868, 4, 35.8157, 48.5957, -13.9715, 97.1211, -53.3403, 43.351
1.872, 4, 35.8141, 48.6025, -13.9696, 97.1159, -53.3674, 43.341
1.876, 4, 35.8126, 48.6094, -13.9676, 97.1106, -53.3945, 43.3309
1.88, 4, 35.811, 48.6162, -13.9657, 97.1054, -53.4215, 43.3209
1.884, 4, 35.8094, 48.623, -13.9637, 97.1002, -53.4486, 43.3109
1.888, 4, 35.8077, 48.6298, -13.9617, 97.0949, -53.4757, 43.3008
1.892, 4, 35.8061, 48.6367, -13.9597, 97.0896, -53.5027, 43.2908
1.896, 4, 35.8045, 48.6435, -13.9577, 97.0843, -53.5298, 43.2808
1.9, 4, 35.8029, 48.6503, -13.9557, 97.0791, -53.5569, 43.2708
1.904, 4, 35.8013, 48.6571, -13.9537, 97.0738, -53.5839, 43.2608
1.908, 4, 35.7997, 48.6639, -13.9517, 97.0684, -53.611, 43.2508
1.912, 4, 35.798, 48.6707, -13.9496, 97.0631, -53.638, 43.2408
1.916, 4, 35.7964, 48.6775, -13.9476, 97.0578, -53.665, 43.2308
1.92, 4, 35.7948, 48.6843, -13.9455, 97.0525, -53.6921, 43.2208
1.924, 4, 35.7932, 48.691, -13.9434, 97.0471, -53.7191, 43.2109
1.928, 4, 35.7915, 48.6978, -13.9414, 97.0418, -53.7461, 43.2009
1.932, 4, 35.7899, 48.7046, -13.9393, 97.0364, -53.7732, 43.1909
1.936, 4, 35.7882, 48.7113, -13.9372, 97.0311, -53.8002, 43.181
1.94, 4, 35.7866, 48.7181, -13.9351, 97.0257, -53.8272, 43.171
1.944, 4, 35.785, 48.7248, -13.933, 97.0203, -53.8542, 43.1611
1.948, 4, 35.7833, 48.7316, -13.9308, 97.0149, -53.8812, 43.1511
1.952, 4, 35.7816, 48.7383, -13.9287, 97.0095, -53.9082, 43.1412
1.956, 4, 35.78, 48.7451, -13.9265, 97.0041, -53.9352, 43.1313
1.96, 4, 35.7783, 48.7518, -13.9244, 96.9986, -53.9622, 43.1213
1.964, 4, 35.7767, 48.7585, -13.9222, 96.9932, -53.9892, 43.1114
1.968, 4, 35.775, 48.7652, -13.92, 96.9878, -54.0162, 43.1015
1.972, 4, 35.7733, 48.7719, -13.9179, 96.9823, -54.0432, 43.0916
1.976, 4, 35.7716, 48.7786, -13.9157, 96.9769, -54.0702, 43.0817
1.98, 4, 35.77, 48.7854, -13.9135, 96.9714, -54.0972, 43.0718
1.984, 4, 35.7683, 48.792, -13.9113, 96.9659, -54.1242, 43.0619
1.988, 4, 35.7666, 48.7987, -13.909, 96.9604, -54.1511, 43.052
1.992, 4, 35.7649, 48.8054, -13.9068, 96.9549, -54.1781, 43.0421
1.996, 4, 35.7632, 48.8121, -13.9046, 96.9494, -54.2051, 43.0323
1.999, 4, 35.7615, 48.8188, -13.9023, 96.9439, -54.2321, 43.0224
2.004, 4, 35.7598, 48.8254, -13.9, 96.9384, -54.259, 43.0125
2.008, 4, 35.7581, 48.8321, -13.8978, 96.9329, -54.286, 43.0027
2.012, 4, 35.7564, 48.8388, -13.8955, 96.9274, -54.3129, 42.9928
2.015, 4, 35.7547, 48.8454, -13.8932, 96.9218, -54.3399, 42.983
2.019, 4, 35.753, 48.8521, -13.8909, 96.9163, -54.3668, 42.9731
2.024, 4, 35.7513, 48.8587, -13.8886, 96.9107, -54.3938, 42.9633
2.028, 4, 35.7496, 48.8653, -13.8863, 96.9051, -54.4207, 42.9534
2.031, 4, 35.7479, 48.872, -13.8839, 96.8995, -54.4477, 42.9436
2.036, 4, 35.7462, 48.8786, -13.8816, 96.894, -54.4746, 42.9338
2.04, 4, 35.7444, 48.8852, -13.8793, 96.8884, -54.5015, 42.924
2.044, 4, 35.7427, 48.8918, -13.8769, 96.8827, -54.5285, 42.9141
2.048, 4, 35.741, 48.8984, -13.8745, 96.8771, -54.5554, 42.9043
2.051, 4, 35.7393, 48.905, -13.8722, 96.8715, -54.5823, 42.8945
2.055, 4, 35.7375, 48.9116, -13.8698, 96.8659, -54.6092, 42.8847
2.06, 4, 35.7358, 48.9182, -13.8674, 96.8602, -54.6361, 42.8749
2.064, 4, 35.734, 48.9248, -13.865, 96.8546, -54.663, 42.8651
2.068, 4, 35.7323, 48.9314, -13.8625, 96.8489, -54.6899, 42.8554
2.071, 4, 35.7305, 48.938, -13.8601, 96.8433, -54.7168, 42.8456
2.076, 4, 35.7288, 48.9445, -13.8577, 96.8376, -54.7437, 42.8358
2.08, 4, 35.727, 48.9511, -13.8552, 96.8319, -54.7706, 42.826
2.084, 4, 35.7253, 48.9577, -13.8528, 96.8262, -54.7975, 42.8163
2.087, 4, 35.7235, 48.9642, -13.8503, 96.8205, -54.8244, 42.8065
2.092, 4, 35.7218, 48.9708, -13.8478, 96.8148, -54.8513, 42.7967
2.096, 4, 35.72, 48.9773, -13.8454, 96.8091, -54.8782, 42.787
2.1, 4, 35.7182, 48.9838, -13.8429, 96.8033, -54.9051, 42.7772
2.104, 4, 35.7164, 48.9904, -13.8403, 96.7976, -54.9319, 42.7675
2.107, 4, 35.7147, 48.9969, -13.8378, 96.7919, -54.9588, 42.7578
2.111, 4, 35.7129, 49.0034, -13.8353, 96.7861, -54.9857, 42.748
2.116, 4, 35.7111, 49.0099, -13.8328, 96.7803, -55.0125, 42.7383
2.12, 4, 35.7093, 49.0164, -13.8302, 96.7746, -55.0394, 42.7286
2.124, 4, 35.7075, 49.0229, -13.8277, 96.7688, -55.0663, 42.7189
2.127, 4, 35.7057, 49.0294, -13.8251, 96.763, -55.0931, 42.7092
2.132, 4, 35.7039, 49.0359, -13.8225, 96.7572, -55.12, 42.6994
2.136, 4, 35.7021, 49.0424, -13.82, 96.7514, -55.1468, 42.6897
2.14, 4, 35.7003, 49.0489, -13.8174, 96.7456, -55.1737, 42.68
2.143, 4, 35.6985, 49.0554, -13.8148, 96.7398, -55.2005, 42.6703
2.148, 4, 35.6967, 49.0619, -13.8121, 96.734, -55.2273, 42.6607
2.152, 4, 35.6949, 49.0683, -13.8095, 96.7281, -55.2542, 42.651
2.156, 4, 35.6931, 49.0748, -13.8069, 96.7223, -55.281, 42.6413
2.16, 4, 35.6913, 49.0812, -13.8042, 96.7164, -55.3078, 42.6316
2.163, 4, 35.6895, 49.0877, -13.8016, 96.7106, -55.3346, 42.6219
2.168, 4, 35.6876, 49.0941, -13.7989, 96.7047, -55.3615, 42.6123
2.172, 4, 35.6858, 49.1006, -13.7963, 96.6988, -55.3883, 42.6026
2.176, 4, 35.684, 49.107, -13.7936, 96.693, -55.4151, 42.593
2.179, 4, 35.6821, 49.1134, -13.7909, 96.6871, -55.4419, 42.5833
2.184, 4, 35.6803, 49.1198, -13.7882, 96.6812, -55.4687, 42.5737
2.188, 4, 35.6785, 49.1262, -13.7855, 96.6752, -55.4955, 42.564
2.192, 4, 35.6766, 49.1326, -13.7828, 96.6693, -55.5223, 42.5544
2.196, 4, 35.6748, 49.139, -13.78, 96.6634, -55.5491, 42.5447
2.199, 4, 35.6729, 49.1454, -13.7773, 96.6575, -55.5759, 42.5351
2.204, 4, 35.6711, 49.1518, -13.7745, 96.6515, -55.6027, 42.5255
2.208, 4, 35.6692, 49.1582, -13.7718, 96.6456, -55.6295, 42.5159
2.212, 4, 35.6674, 49.1646, -13.769, 96.6396, -55.6562, 42.5063
2.216, 4, 35.6655, 49.171, -13.7662, 96.6337, -55.683, 42.4966
2.219, 4, 35.6637, 49.1773, -13.7634, 96.6277, -55.7098, 42.487
2.224, 4, 35.6618, 49.1837, -13.7606, 96.6217, -55.7366, 42.4774
2.228, 4, 35.6599, 49.1901, -13.7578, 96.6157, -55.7633, 42.4678
2.232, 4, 35.658, 49.1964, -13.755, 96.6097, -55.7901, 42.4582
2.235, 4, 35.6562, 49.2028, -13.7522, 96.6037, -55.8169, 42.4487
2.24, 4, 35.6543, 49.2091, -13.7494, 96.5977, -55.8436, 42.4391
2.244, 4, 35.6524, 49.2154, -13.7465, 96.5917, -55.8704, 42.4295
2.248, 4, 35.6505, 49.2218, -13.7437, 96.5856, -55.8971, 42.4199
2.252, 4, 35.6486, 49.2281, -13.7408, 96.5796, -55.9239, 42.4103
2.255, 4, 35.6467, 49.2344, -13.7379, 96.5735, -55.9506, 42.4008
2.259, 4, 35.6448, 49.2407, -13.735, 96.5675, -55.9774, 42.3912
2.264, 4, 35.6429, 49.247, -13.7321, 96.5614, -56.0041, 42.3817
2.268, 4, 35.641, 49.2533, -13.7292, 96.5553, -56.0308, 42.3721
2.272, 4, 35.6391, 49.2596, -13.7263, 96.5493, -56.0576, 42.3626
2.275, 4, 35.6372, 49.2659, -13.7234, 96.5432, -56.0843, 42.353
2.28, 4, 35.6353, 49.2722, -13.7205, 96.5371, -56.111, 42.3435
2.284, 4, 35.6334, 49.2785, -13.7175, 96.531, -56.1377, 42.3339
2.288, 4, 35.6315, 49.2848, -13.7146, 96.5249, -56.1645, 42.3244
2.291, 4, 35.6296, 49.291, -13.7116, 96.5188, -56.1912, 42.3149
2.296, 4, 35.6277, 49.2973, -13.7086, 96.5126, -56.2179, 42.3054
2.3, 4, 35.6257, 49.3035, -13.7056, 96.5065, -56.2446, 42.2958
2.304, 4, 35.6238, 49.3098, -13.7026, 96.5003, -56.2713, 42.2863
2.308, 4, 35.6219, 49.316, -13.6996, 96.4942, -56.298, 42.2768
2.311, 4, 35.6199, 49.3223, -13.6966, 96.488, -56.3247, 42.2673
2.316, 4, 35.618, 49.3285, -13.6936, 96.4819, -56.3514, 42.2578
2.32, 4, 35.6161, 49.3347, -13.6906, 96.4757, -56.3781, 42.2483
2.324, 4, 35.6141, 49.341, -13.6875, 96.4695, -56.4048, 42.2388
2.328, 4, 35.6122, 49.3472, -13.6845, 96.4633, -56.4314, 42.2293
2.331, 4, 35.6102, 49.3534, -13.6814, 96.4571, -56.4581, 42.2198
2.336, 4, 35.6083, 49.3596, -13.6784, 96.4509, -56.4848, 42.2104
2.34, 4, 35.6063, 49.3658, -13.6753, 96.4447, -56.5115, 42.2009
2.344, 4, 35.6043, 49.372, -13.6722, 96.4385, -56.5381, 42.1914
2.347, 4, 35.6024, 49.3782, -13.6691, 96.4322, -56.5648, 42.1819
2.352, 4, 35.6004, 49.3844, -13.666, 96.426, -56.5915, 42.1725
2.356, 4, 35.5984, 49.3905, -13.6629, 96.4198, -56.6181, 42.163
2.36, 4, 35.5965, 49.3967, -13.6597, 96.4135, -56.6448, 42.1536
2.364, 4, 35.5945, 49.4029, -13.6566, 96.4072, -56.6714, 42.1441
2.367, 4, 35.5925, 49.409, -13.6534, 96.401, -56.6981, 42.1347
2.372, 4, 35.5905, 49.4152, -13.6503, 96.3947, -56.7247, 42.1252
2.376, 4, 35.5886, 49.4213, -13.6471, 96.3884, -56.7514, 42.1158
2.38, 4, 35.5866, 49.4275, -13.6439, 96.3821, -56.778, 42.1063
2.383, 4, 35.5846, 49.4336, -13.6408, 96.3758, -56.8047, 42.0969
2.388, 4, 35.5826, 49.4398, -13.6376, 96.3695, -56.8313, 42.0875
2.392, 4, 35.5806, 49.4459, -13.6343, 96.3632, -56.8579, 42.0781
2.396, 4, 35.5786, 49.452, -13.6311, 96.3569, -56.8846, 42.0687
2.4, 4, 35.5766, 49.4581, -13.6279, 96.3505, -56.9112, 42.0592
2.403, 4, 35.5746, 49.4642, -13.6247, 96.3442, -56.9378, 42.0498
2.408, 4, 35.5726, 49.4703, -13.6214, 96.3378, -56.9644, 42.0404
2.412, 4, 35.5706, 49.4764, -13.6182, 96.3315, -56.991, 42.031
2.416, 4, 35.5686, 49.4825, -13.6149, 96.3251, -57.0176, 42.0216
2.42, 4, 35.5665, 49.4886, -13.6116, 96.3188, -57.0442, 42.0122
2.423, 4, 35.5645, 49.4947, -13.6083, 96.3124, -57.0708, 42.0028
2.428, 4, 35.5625, 49.5008, -13.6051, 96.306, -57.0974, 41.9935
2.432, 4, 35.5605, 49.5068, -13.6018, 96.2996, -57.124, 41.9841
2.436, 4, 35.5584, 49.5129, -13.5984, 96.2932, -57.1506, 41.9747
2.439, 4, 35.5564, 49.5189, -13.5951, 96.2868, -57.1772, 41.9653
2.444, 4, 35.5544, 49.525, -13.5918, 96.2804, -57.2038, 41.9559
2.448, 4, 35.5523, 49.531, -13.5884, 96.2739, -57.2304, 41.9466
2.452, 4, 35.5503, 49.5371, -13.5851, 96.2675, -57.257, 41.9372
2.456, 4, 35.5483, 49.5431, -13.5817, 96.2611, -57.2836, 41.9279
2.459, 4, 35.5462, 49.5491, -13.5784, 96.2546, -57.3101, 41.9185
2.464, 4, 35.5442, 49.5552, -13.575, 96.2482, -57.3367, 41.9092
2.468, 4, 35.5421, 49.5612, -13.5716, 96.2417, -57.3633, 41.8998
2.472, 4, 35.5401, 49.5672, -13.5682, 96.2353, -57.3898, 41.8905
2.476, 4, 35.538, 49.5732, -13.5648, 96.2288, -57.4164, 41.8811
2.479, 4, 35.5359, 49.5792, -13.5614, 96.2223, -57.4429, 41.8718
2.484, 4, 35.5339, 49.5852, -13.5579, 96.2158, -57.4695, 41.8625
2.488, 4, 35.5318, 49.5912, -13.5545, 96.2093, -57.496, 41.8531
2.492, 4, 35.5297, 49.5972, -13.551, 96.2028, -57.5226, 41.8438
2.495, 4, 35.5276, 49.6031, -13.5476, 96.1963, -57.5491, 41.8345
2.5, 4, 35.5256, 49.6091, -13.5441, 96.1898, -57.5757, 41.8252
2.504, 4, 35.5235, 49.6151, -13.5406, 96.1832, -57.6022, 41.8159
2.508, 4, 35.5214, 49.621, -13.5371, 96.1767, -57.6287, 41.8066
2.512, 4, 35.5193, 49.627, -13.5337, 96.1702, -57.6553, 41.7973
2.515, 4, 35.5172, 49.6329, -13.5301, 96.1636, -57.6818, 41.788
2.52, 4, 35.5151, 49.6389, -13.5266, 96.157, -57.7083, 41.7787
2.524, 4, 35.513, 49.6448, -13.5231, 96.1505, -57.7348, 41.7694
2.528, 4, 35.5109, 49.6508, -13.5196, 96.1439, -57.7614, 41.7601
2.531, 4, 35.5088, 49.6567, -13.516, 96.1373, -57.7879, 41.7508
2.536, 4, 35.5067, 49.6626, -13.5125, 96.1307, -57.8144, 41.7415
2.54, 4, 35.5046, 49.6685, -13.5089, 96.1241, -57.8409, 41.7322
2.544, 4, 35.5025, 49.6744, -13.5053, 96.1175, -57.8674, 41.723
2.548, 4, 35.5004, 49.6803, -13.5017, 96.1109, -57.8939, 41.7137
2.551, 4, 35.4983, 49.6862, -13.4981, 96.1043, -57.9204, 41.7044
2.556, 4, 35.4962, 49.6921, -13.4945, 96.0977, -57.9469, 41.6951
2.56, 4, 35.494, 49.698, -13.4909, 96.091, -57.9734, 41.6859
2.564, 4, 35.4919, 49.7039, -13.4873, 96.0844, -57.9999, 41.6766
2.568, 4, 35.4898, 49.7097, -13.4837, 96.0778, -58.0264, 41.6674
2.571, 4, 35.4877, 49.7156, -13.48, 96.0711, -58.0528, 41.6581
2.576, 4, 35.4855, 49.7215, -13.4764, 96.0644, -58.0793, 41.6489
2.58, 4, 35.4834, 49.7273, -13.4727, 96.0578, -58.1058, 41.6396
2.584, 4, 35.4812, 49.7332, -13.469, 96.0511, -58.1323, 41.6304
2.587, 4, 35.4791, 49.739, -13.4654, 96.0444, -58.1587, 41.6212
2.592, 4, 35.477, 49.7449, -13.4617, 96.0377, -58.1852, 41.6119
2.596, 4, 35.4748, 49.7507, -13.458, 96.031, -58.2117, 41.6027
2.6, 4, 35.4727, 49.7565, -13.4543, 96.0243, -58.2381, 41.5935
2.604, 4, 35.4705, 49.7623, -13.4505, 96.0176, -58.2646, 41.5843
2.607, 4, 35.4683, 49.7682, -13.4468, 96.0109, -58.291, 41.5751
2.612, 4, 35.4662, 49.774, -13.4431, 96.0042, -58.3175, 41.5658
2.616, 4, 35.464, 49.7798, -13.4393, 95.9974, -58.3439, 41.5566
2.62, 4, 35.4618, 49.7856, -13.4356, 95.9907, -58.3704, 41.5474
2.624, 4, 35.4597, 49.7914, -13.4318, 95.9839, -58.3968, 41.5382
2.627, 4, 35.4575, 49.7971, -13.428, 95.9772, -58.4232, 41.529
2.632, 4, 35.4553, 49.8029, -13.4242, 95.9704, -58.4497, 41.5198
2.636, 4, 35.4531, 49.8087, -13.4204, 95.9636, -58.4761, 41.5106
2.64, 4, 35.451, 49.8145, -13.4166, 95.9569, -58.5025, 41.5014
2.643, 4, 35.4488, 49.8202, -13.4128, 95.9501, -58.5289, 41.4923
2.648, 4, 35.4466, 49.826, -13.409, 95.9433, -58.5554, 41.4831
2.652, 4, 35.4444, 49.8317, -13.4052, 95.9365, -58.5818, 41.4739
2.656, 4, 35.4422, 49.8375, -13.4013, 95.9297, -58.6082, 41.4647
2.66, 4, 35.44, 49.8432, -13.3975, 95.9229, -58.6346, 41.4556
2.663, 4, 35.4378, 49.849, -13.3936, 95.916, -58.661, 41.4464
2.668, 4, 35.4356, 49.8547, -13.3897, 95.9092, -58.6874, 41.4372
2.672, 4, 35.4334, 49.8604, -13.3858, 95.9024, -58.7138, 41.4281
2.676, 4, 35.4312, 49.8661, -13.3819, 95.8955, -58.7402, 41.4189
2.679, 4, 35.429, 49.8718, -13.378, 95.8887, -58.7666, 41.4098
2.684, 4, 35.4268, 49.8775, -13.3741, 95.8818, -58.793, 41.4006
2.688, 4, 35.4245, 49.8832, -13.3702, 95.875, -58.8194, 41.3915
2.692, 4, 35.4223, 49.8889, -13.3663, 95.8681, -58.8458, 41.3823
2.696, 4, 35.4201, 49.8946, -13.3623, 95.8612, -58.8721, 41.3732
2.699, 4, 35.4179, 49.9003, -13.3584, 95.8543, -58.8985, 41.364
2.704, 4, 35.4156, 49.906, -13.3544, 95.8474, -58.9249, 41.3549
2.708, 4, 35.4134, 49.9116, -13.3504, 95.8405, -58.9513, 41.3458
2.712, 4, 35.4112, 49.9173, -13.3464, 95.8336, -58.9776, 41.3366
2.716, 4, 35.4089, 49.923, -13.3425, 95.8267, -59.004, 41.3275
2.719, 4, 35.4067, 49.9286, -13.3385, 95.8198, -59.0304, 41.3184
2.724, 4, 35.4044, 49.9343, -13.3344, 95.8129, -59.0567, 41.3093
2.728, 4, 35.4022, 49.9399, -13.3304, 95.8059, -59.0831, 41.3002
2.732, 4, 35.3999, 49.9455, -13.3264, 95.799, -59.1094, 41.2911
2.735, 4, 35.3977, 49.9512, -13.3224, 95.792, -59.1358, 41.2819
2.74, 4, 35.3954, 49.9568, -13.3183, 95.7851, -59.1621, 41.2728
2.744, 4, 35.3932, 49.9624, -13.3142, 95.7781, -59.1885, 41.2637
2.748, 4, 35.3909, 49.968, -13.3102, 95.7712, -59.2148, 41.2546
2.752, 4, 35.3886, 49.9736, -13.3061, 95.7642, -59.2411, 41.2455
2.755, 4, 35.3864, 49.9792, -13.302, 95.7572, -59.2675, 41.2365
2.76, 4, 35.3841, 49.9848, -13.2979, 95.7502, -59.2938, 41.2274
2.764, 4, 35.3818, 49.9904, -13.2938, 95.7432, -59.3201, 41.2183
2.768, 4, 35.3795, 49.996, -13.2897, 95.7362, -59.3465, 41.2092
2.772, 4, 35.3773, 50.0015, -13.2856, 95.7292, -59.3728, 41.2001
2.775, 4, 35.375, 50.0071, -13.2814, 95.7222, -59.3991, 41.191
2.78, 4, 35.3727, 50.0127, -13.2773, 95.7152, -59.4254, 41.182
2.784, 4, 35.3704, 50.0182, -13.2731, 95.7081, -59.4517, 41.1729
2.788, 4, 35.3681, 50.0238, -13.269, 95.7011, -59.478, 41.1638
2.791, 4, 35.3658, 50.0293, -13.2648, 95.694, -59.5043, 41.1548
2.796, 4, 35.3635, 50.0349, -13.2606, 95.687, -59.5306, 41.1457
2.8, 4, 35.3612, 50.0404, -13.2564, 95.6799, -59.5569, 41.1367
2.804, 4, 35.3589, 50.0459, -13.2522, 95.6729, -59.5832, 41.1276
2.808, 4, 35.3566, 50.0515, -13.248, 95.6658, -59.6095, 41.1186
2.811, 4, 35.3543, 50.057, -13.2438, 95.6587, -59.6358, 41.1095
2.816, 4, 35.352, 50.0625, -13.2395, 95.6516, -59.6621, 41.1005
2.82, 4, 35.3496, 50.068, -13.2353, 95.6445, -59.6884, 41.0914
2.824, 4, 35.3473, 50.0735, -13.231, 95.6374, -59.7146, 41.0824
2.828, 4, 35.345, 50.079, -13.2268, 95.6303, -59.7409, 41.0733
2.831, 4, 35.3427, 50.0845, -13.2225, 95.6232, -59.7672, 41.0643
2.836, 4, 35.3404, 50.0899, -13.2182, 95.6161, -59.7935, 41.0553
2.84, 4, 35.338, 50.0954, -13.2139, 95.609, -59.8197, 41.0463
2.844, 4, 35.3357, 50.1009, -13.2096, 95.6018, -59.846, 41.0372
2.847, 4, 35.3333, 50.1063, -13.2053, 95.5947, -59.8722, 41.0282
2.852, 4, 35.331, 50.1118, -13.201, 95.5875, -59.8985, 41.0192
2.856, 4, 35.3287, 50.1172, -13.1967, 95.5804, -59.9247, 41.0102
2.86, 4, 35.3263, 50.1227, -13.1923, 95.5732, -59.951, 41.0012
2.864, 4, 35.324, 50.1281, -13.188, 95.5661, -59.9772, 40.9922
2.867, 4, 35.3216, 50.1336, -13.1836, 95.5589, -60.0035, 40.9832
2.872, 4, 35.3193, 50.139, -13.1792, 95.5517, -60.0297, 40.9742
2.876, 4, 35.3169, 50.1444, -13.1749, 95.5445, -60.056, 40.9652
2.88, 4, 35.3145, 50.1498, -13.1705, 95.5373, -60.0822, 40.9562
2.883, 4, 35.3122, 50.1552, -13.1661, 95.5301, -60.1084, 40.9472
2.888, 4, 35.3098, 50.1606, -13.1617, 95.5229, -60.1347, 40.9382
2.892, 4, 35.3074, 50.166, -13.1572, 95.5157, -60.1609, 40.9292
2.896, 4, 35.3051, 50.1714, -13.1528, 95.5085, -60.1871, 40.9202
2.9, 4, 35.3027, 50.1768, -13.1484, 95.5013, -60.2133, 40.9112
2.903, 4, 35.3003, 50.1822, -13.1439, 95.494, -60.2395, 40.9022
2.908, 4, 35.2979, 50.1875, -13.1395, 95.4868, -60.2657, 40.8933
2.912, 4, 35.2955, 50.1929, -13.135, 95.4795, -60.292, 40.8843
2.916, 4, 35.2932, 50.1983, -13.1305, 95.4723, -60.3182, 40.8753
2.92, 4, 35.2908, 50.2036, -13.1261, 95.465, -60.3444, 40.8663
2.923, 4, 35.2884, 50.209, -13.1216, 95.4577, -60.3706, 40.8574
2.929, 5, 35.286, 50.2143, -13.1171, 95.4505, -60.3968, 40.8484
2.932, 5, 35.2836, 50.2197, -13.1125, 95.4432, -60.4229, 40.8395
2.936, 5, 35.2812, 50.225, -13.108, 95.4359, -60.4491, 40.8305
2.939, 5, 35.2788, 50.2303, -13.1035, 95.4286, -60.4753, 40.8215
2.944, 5, 35.2764, 50.2356, -13.0989, 95.4213, -60.5015, 40.8126
2.948, 5, 35.2739, 50.2409, -13.0944, 95.414, -60.5277, 40.8036
2.952, 5, 35.2715, 50.2462, -13.0898, 95.4067, -60.5539, 40.7947
2.956, 5, 35.2691, 50.2515, -13.0852, 95.3994, -60.58, 40.7858
2.959, 5, 35.2667, 50.2568, -13.0807, 95.392, -60.6062, 40.7768
2.964, 5, 35.2643, 50.2621, -13.0761, 95.3847, -60.6324, 40.7679
2.968, 5, 35.2618, 50.2674, -13.0715, 95.3774, -60.6585, 40.7589
2.972, 5, 35.2594, 50.2727, -13.0669, 95.37, -60.6847, 40.75
2.976, 5, 35.257, 50.2779, -13.0622, 95.3627, -60.7109, 40.7411
2.98, 5, 35.2545, 50.2832, -13.0576, 95.3553, -60.737, 40.7322
2.984, 5, 35.2521, 50.2885, -13.053, 95.3479, -60.7632, 40.7232
2.988, 5, 35.2497, 50.2937, -13.0483, 95.3406, -60.7893, 40.7143
2.992, 5, 35.2472, 50.299, -13.0436, 95.3332, -60.8155, 40.7054
2.995, 5, 35.2448, 50.3042, -13.039, 95.3258, -60.8416, 40.6965
3, 5, 35.2423, 50.3094, -13.0343, 95.3184, -60.8677, 40.6876
3.004, 5, 35.2399, 50.3147, -13.0296, 95.311, -60.8939, 40.6787
3.008, 5, 35.2374, 50.3199, -13.0249, 95.3036, -60.92, 40.6697
3.012, 5, 35.235, 50.3251, -13.0202, 95.2962, -60.9461, 40.6608
3.015, 5, 35.2325, 50.3303, -13.0155, 95.2888, -60.9723, 40.6519
3.02, 5, 35.23, 50.3355, -13.0107, 95.2814, -60.9984, 40.643
3.024, 5, 35.2276, 50.3407, -13.006, 95.2739, -61.0245, 40.6341
3.028, 5, 35.2251, 50.3459, -13.0013, 95.2665, -61.0506, 40.6252
3.031, 5, 35.2226, 50.3511, -12.9965, 95.259, -61.0767, 40.6163
3.036, 5, 35.2201, 50.3563, -12.9917, 95.2516, -61.1028, 40.6075
3.04, 5, 35.2177, 50.3614, -12.987, 95.2441, -61.129, 40.5986
3.044, 5, 35.2152, 50.3666, -12.9822, 95.2367, -61.1551, 40.5897
3.048, 5, 35.2127, 50.3718, -12.9774, 95.2292, -61.1812, 40.5808
3.051, 5, 35.2102, 50.3769, -12.9726, 95.2217, -61.2073, 40.5719
3.056, 5, 35.2077, 50.3821, -12.9677, 95.2142, -61.2334, 40.563
3.06, 5, 35.2052, 50.3872, -12.9629, 95.2068, -61.2595, 40.5542
3.064, 5, 35.2027, 50.3923, -12.9581, 95.1993, -61.2855, 40.5453
3.068, 5, 35.2002, 50.3975, -12.9532, 95.1918, -61.3116, 40.5364
3.071, 5, 35.1977, 50.4026, -12.9484, 95.1843, -61.3377, 40.5276
3.076, 5, 35.1952, 50.4077, -12.9435, 95.1768, -61.3638, 40.5187
3.08, 5, 35.1927, 50.4128, -12.9386, 95.1692, -61.3899, 40.5098
3.084, 5, 35.1902, 50.4179, -12.9338, 95.1617, -61.4159, 40.501
3.087, 5, 35.1877, 50.423, -12.9289, 95.1542, -61.442, 40.4921
3.092, 5, 35.1852, 50.4281, -12.924, 95.1466, -61.4681, 40.4833
3.096, 5, 35.1826, 50.4332, -12.919, 95.1391, -61.4941, 40.4744
3.1, 5, 35.1801, 50.4383, -12.9141, 95.1315, -61.5202, 40.4656
3.104, 5, 35.1776, 50.4433, -12.9092, 95.124, -61.5463, 40.4567
3.107, 5, 35.1751, 50.4484, -12.9042, 95.1164, -61.5723, 40.4479
3.112, 5, 35.1725, 50.4535, -12.8993, 95.1088, -61.5984, 40.439
3.116, 5, 35.17, 50.4585, -12.8943, 95.1013, -61.6244, 40.4302
3.12, 5, 35.1675, 50.4636, -12.8894, 95.0937, -61.6505, 40.4214
3.124, 5, 35.1649, 50.4686, -12.8844, 95.0861, -61.6765, 40.4125
3.128, 5, 35.1624, 50.4737, -12.8794, 95.0785, -61.7025, 40.4037
3.132, 5, 35.1598, 50.4787, -12.8744, 95.0709, -61.7286, 40.3949
3.136, 5, 35.1573, 50.4837, -12.8694, 95.0633, -61.7546, 40.386
3.14, 5, 35.1547, 50.4887, -12.8643, 95.0557, -61.7806, 40.3772
3.143, 5, 35.1522, 50.4937, -12.8593, 95.0481, -61.8067, 40.3684
3.148, 5, 35.1496, 50.4988, -12.8543, 95.0404, -61.8327, 40.3596
3.152, 5, 35.147, 50.5038, -12.8492, 95.0328, -61.8587, 40.3507
3.156, 5, 35.1445, 50.5087, -12.8442, 95.0252, -61.8847, 40.3419
3.16, 5, 35.1419, 50.5137, -12.8391, 95.0175, -61.9107, 40.3331
3.163, 5, 35.1393, 50.5187, -12.834, 95.0099, -61.9368, 40.3243
3.168, 5, 35.1368, 50.5237, -12.8289, 95.0022, -61.9628, 40.3155
3.172, 5, 35.1342, 50.5287, -12.8238, 94.9946, -61.9888, 40.3067
3.176, 5, 35.1316, 50.5336, -12.8187, 94.9869, -62.0148, 40.2979
3.179, 5, 35.129, 50.5386, -12.8136, 94.9792, -62.0408, 40.2891
3.184, 5, 35.1264, 50.5435, -12.8085, 94.9715, -62.0668, 40.2803
3.188, 5, 35.1239, 50.5485, -12.8033, 94.9638, -62.0928, 40.2715
3.192, 5, 35.1213, 50.5534, -12.7982, 94.9561, -62.1187, 40.2627
3.196, 5, 35.1187, 50.5583, -12.793, 94.9484, -62.1447, 40.2539
3.199, 5, 35.1161, 50.5633, -12.7878, 94.9407, -62.1707, 40.2451
3.204, 5, 35.1135, 50.5682, -12.7827, 94.933, -62.1967, 40.2363
3.208, 5, 35.1109, 50.5731, -12.7775, 94.9253, -62.2227, 40.2275
3.212, 5, 35.1083, 50.578, -12.7723, 94.9176, -62.2486, 40.2187
3.216, 5, 35.1057, 50.5829, -12.7671, 94.9099, -62.2746, 40.2099
3.22, 5, 35.1031, 50.5878, -12.7619, 94.9021, -62.3006, 40.2012
3.224, 5, 35.1004, 50.5927, -12.7566, 94.8944, -62.3266, 40.1924
3.228, 5, 35.0978, 50.5976, -12.7514, 94.8866, -62.3525, 40.1836
3.232, 5, 35.0952, 50.6024, -12.7461, 94.8789, -62.3785, 40.1748
3.235, 5, 35.0926, 50.6073, -12.7409, 94.8711, -62.4044, 40.1661
3.24, 5, 35.09, 50.6122, -12.7356, 94.8633, -62.4304, 40.1573
3.244, 5, 35.0873, 50.617, -12.7303, 94.8556, -62.4563, 40.1485
3.248, 5, 35.0847, 50.6219, -12.7251, 94.8478, -62.4823, 40.1398
3.252, 5, 35.0821, 50.6267, -12.7198, 94.84, -62.5082, 40.131
3.255, 5, 35.0794, 50.6316, -12.7145, 94.8322, -62.5342, 40.1222
3.26, 5, 35.0768, 50.6364, -12.7091, 94.8244, -62.5601, 40.1135
3.264, 5, 35.0741, 50.6412, -12.7038, 94.8166, -62.586, 40.1047
3.268, 5, 35.0715, 50.646, -12.6985, 94.8088, -62.612, 40.096
3.272, 5, 35.0688, 50.6509, -12.6931, 94.801, -62.6379, 40.0872
3.276, 5, 35.0662, 50.6557, -12.6878, 94.7932, -62.6638, 40.0784
3.28, 5, 35.0635, 50.6605, -12.6824, 94.7853, -62.6897, 40.0697
3.284, 5, 35.0609, 50.6653, -12.677, 94.7775, -62.7157, 40.061
3.288, 5, 35.0582, 50.67, -12.6717, 94.7697, -62.7416, 40.0522
3.291, 5, 35.0555, 50.6748, -12.6663, 94.7618, -62.7675, 40.0435
3.296, 5, 35.0529, 50.6796, -12.6609, 94.754, -62.7934, 40.0347
3.3, 5, 35.0502, 50.6844, -12.6554, 94.7461, -62.8193, 40.026
3.304, 5, 35.0475, 50.6891, -12.65, 94.7383, -62.8452, 40.0172
3.308, 5, 35.0449, 50.6939, -12.6446, 94.7304, -62.8711, 40.0085
3.312, 5, 35.0422, 50.6986, -12.6391, 94.7225, -62.897, 39.9998
3.316, 5, 35.0395, 50.7034, -12.6337, 94.7146, -62.9229, 39.991
3.32, 5, 35.0368, 50.7081, -12.6282, 94.7068, -62.9488, 39.9823
3.324, 5, 35.0341, 50.7128, -12.6227, 94.6989, -62.9747, 39.9736
3.328, 5, 35.0314, 50.7176, -12.6173, 94.691, -63.0006, 39.9649
3.332, 5, 35.0287, 50.7223, -12.6118, 94.6831, -63.0265, 39.9561
3.336, 5, 35.026, 50.727, -12.6063, 94.6752, -63.0523, 39.9474
3.34, 5, 35.0233, 50.7317, -12.6008, 94.6672, -63.0782, 39.9387
3.344, 5, 35.0206, 50.7364, -12.5952, 94.6593, -63.1041, 39.93
3.347, 5, 35.0179, 50.7411, -12.5897, 94.6514, -63.1299, 39.9213
3.352, 5, 35.0152, 50.7458, -12.5842, 94.6435, -63.1558, 39.9126
3.356, 5, 35.0125, 50.7505, -12.5786, 94.6355, -63.1817, 39.9038
3.36, 5, 35.0098, 50.7551, -12.573, 94.6276, -63.2075, 39.8951
3.364, 5, 35.0071, 50.7598, -12.5675, 94.6196, -63.2334, 39.8864
3.368, 5, 35.0044, 50.7645, -12.5619, 94.6117, -63.2593, 39.8777
3.372, 5, 35.0016, 50.7691, -12.5563, 94.6037, -63.2851, 39.869
3.376, 5, 34.9989, 50.7738, -12.5507, 94.5957, -63.3109, 39.8603
3.38, 5, 34.9962, 50.7784, -12.5451, 94.5878, -63.3368, 39.8516
3.383, 5, 34.9935, 50.783, -12.5395, 94.5798, -63.3626, 39.8429
3.388, 5, 34.9907, 50.7877, -12.5338, 94.5718, -63.3885, 39.8342
3.392, 5, 34.988, 50.7923, -12.5282, 94.5638, -63.4143, 39.8255
3.396, 5, 34.9852, 50.7969, -12.5225, 94.5558, -63.4401, 39.8168
3.4, 5, 34.9825, 50.8015, -12.5169, 94.5478, -63.466, 39.8081
3.403, 5, 34.9798, 50.8061, -12.5112, 94.5398, -63.4918, 39.7994
3.408, 5, 34.977, 50.8107, -12.5055, 94.5318, -63.5176, 39.7907
3.412, 5, 34.9743, 50.8153, -12.4998, 94.5238, -63.5434, 39.7821
3.416, 5, 34.9715, 50.8199, -12.4941, 94.5158, -63.5693, 39.7734
3.42, 5, 34.9687, 50.8245, -12.4884, 94.5077, -63.5951, 39.7647
3.424, 5, 34.966, 50.829, -12.4827, 94.4997, -63.6209, 39.756
3.428, 5, 34.9632, 50.8336, -12.477, 94.4916, -63.6467, 39.7473
3.432, 5, 34.9604, 50.8382, -12.4712, 94.4836, -63.6725, 39.7387
3.436, 5, 34.9577, 50.8427, -12.4655, 94.4755, -63.6983, 39.73
3.439, 5, 34.9549, 50.8473, -12.4597, 94.4675, -63.7241, 39.7213
3.444, 5, 34.9521, 50.8518, -12.454, 94.4594, -63.7499, 39.7126
3.448, 5, 34.9494, 50.8563, -12.4482, 94.4514, -63.7757, 39.704
3.452, 5, 34.9466, 50.8609, -12.4424, 94.4433, -63.8015, 39.6953
3.456, 5, 34.9438, 50.8654, -12.4366, 94.4352, -63.8273, 39.6866
3.46, 5, 34.941, 50.8699, -12.4308, 94.4271, -63.8531, 39.678
3.464, 5, 34.9382, 50.8744, -12.425, 94.419, -63.8788, 39.6693
3.468, 5, 34.9354, 50.8789, -12.4191, 94.4109, -63.9046, 39.6606
3.472, 5, 34.9326, 50.8834, -12.4133, 94.4028, -63.9304, 39.652
3.476, 5, 34.9298, 50.8879, -12.4075, 94.3947, -63.9562, 39.6433
3.48, 5, 34.927, 50.8924, -12.4016, 94.3866, -63.9819, 39.6347
3.484, 5, 34.9242, 50.8968, -12.3957, 94.3785, -64.0077, 39.626
3.488, 5, 34.9214, 50.9013, -12.3898, 94.3703, -64.0335, 39.6173
3.492, 5, 34.9186, 50.9058, -12.384, 94.3622, -64.0592, 39.6087
3.495, 5, 34.9158, 50.9102, -12.3781, 94.3541, -64.085, 39.6
3.5, 5, 34.913, 50.9147, -12.3722, 94.3459, -64.1107, 39.5914
3.504, 5, 34.9102, 50.9191, -12.3662, 94.3378, -64.1365, 39.5827
3.508, 5, 34.9073, 50.9236, -12.3603, 94.3296, -64.1622, 39.5741
3.512, 5, 34.9045, 50.928, -12.3544, 94.3215, -64.188, 39.5654
3.516, 5, 34.9017, 50.9324, -12.3484, 94.3133, -64.2137, 39.5568
3.52, 5, 34.8989, 50.9368, -12.3425, 94.3051, -64.2395, 39.5481
3.524, 5, 34.896, 50.9413, -12.3365, 94.297, -64.2652, 39.5395
3.528, 5, 34.8932, 50.9457, -12.3306, 94.2888, -64.291, 39.5309
3.531, 5, 34.8904, 50.9501, -12.3246, 94.2807, -64.3167, 39.5222
3.536, 5, 34.8876, 50.9545, -12.3187, 94.2725, -64.3425, 39.5136
3.54, 5, 34.8847, 50.9589, -12.3127, 94.2644, -64.3682, 39.5049
3.544, 5, 34.8819, 50.9633, -12.3067, 94.2562, -64.394, 39.4963
3.548, 5, 34.879, 50.9677, -12.3008, 94.2481, -64.4197, 39.4876
3.552, 5, 34.8762, 50.9721, -12.2948, 94.24, -64.4455, 39.4789
3.556, 5, 34.8734, 50.9765, -12.2889, 94.2319, -64.4713, 39.4703
3.56, 5, 34.8705, 50.9809, -12.2829, 94.2238, -64.497, 39.4616
3.564, 5, 34.8677, 50.9853, -12.277, 94.2158, -64.5228, 39.4529
3.568, 5, 34.8648, 50.9897, -12.2711, 94.2077, -64.5486, 39.4442
3.572, 5, 34.862, 50.9941, -12.2651, 94.1997, -64.5744, 39.4356
3.576, 5, 34.8591, 50.9985, -12.2592, 94.1917, -64.6002, 39.4269
3.58, 5, 34.8563, 51.0029, -12.2533, 94.1837, -64.626, 39.4182
3.584, 5, 34.8534, 51.0073, -12.2475, 94.1757, -64.6519, 39.4094
3.587, 5, 34.8506, 51.0117, -12.2416, 94.1678, -64.6777, 39.4007
3.592, 5, 34.8477, 51.0162, -12.2357, 94.1599, -64.7035, 39.392
3.596, 5, 34.8449, 51.0206, -12.2299, 94.152, -64.7294, 39.3833
3.6, 5, 34.842, 51.025, -12.2241, 94.1441, -64.7553, 39.3745
3.604, 5, 34.8391, 51.0294, -12.2183, 94.1363, -64.7812, 39.3658
3.608, 5, 34.8363, 51.0339, -12.2125, 94.1285, -64.8071, 39.357
3.612, 5, 34.8334, 51.0383, -12.2067, 94.1207, -64.833, 39.3483
3.616, 5, 34.8306, 51.0427, -12.2009, 94.113, -64.8589, 39.3395
3.62, 5, 34.8277, 51.0472, -12.1952, 94.1053, -64.8849, 39.3307
3.624, 5, 34.8248, 51.0516, -12.1895, 94.0976, -64.9108, 39.3219
3.628, 5, 34.822, 51.0561, -12.1838, 94.09, -64.9368, 39.3131
3.632, 5, 34.8191, 51.0605, -12.1781, 94.0823, -64.9628, 39.3043
3.636, 5, 34.8162, 51.065, -12.1724, 94.0747, -64.9888, 39.2955
3.64, 5, 34.8134, 51.0695, -12.1668, 94.0672, -65.0148, 39.2867
3.644, 5, 34.8105, 51.0739, -12.1611, 94.0596, -65.0408, 39.2779
3.648, 5, 34.8076, 51.0784, -12.1555, 94.0521, -65.0669, 39.269
3.652, 5, 34.8048, 51.0829, -12.1499, 94.0447, -65.0929, 39.2602
3.656, 5, 34.8019, 51.0874, -12.1443, 94.0372, -65.119, 39.2513
3.66, 5, 34.799, 51.0919, -12.1388, 94.0298, -65.1451, 39.2425
3.664, 5, 34.7961, 51.0964, -12.1332, 94.0224, -65.1712, 39.2336
3.668, 5, 34.7933, 51.1009, -12.1277, 94.015, -65.1973, 39.2247
3.672, 5, 34.7904, 51.1054, -12.1222, 94.0077, -65.2234, 39.2158
3.676, 5, 34.7875, 51.1099, -12.1167, 94.0004, -65.2495, 39.2069
3.679, 5, 34.7847, 51.1144, -12.1112, 93.9931, -65.2757, 39.198
3.684, 5, 34.7818, 51.1189, -12.1058, 93.9859, -65.3018, 39.1891
3.688, 5, 34.7789, 51.1235, -12.1003, 93.9787, -65.328, 39.1802
3.692, 5, 34.776, 51.128, -12.0949, 93.9715, -65.3542, 39.1713
3.696, 5, 34.7732, 51.1326, -12.0895, 93.9643, -65.3804, 39.1624
3.7, 5, 34.7703, 51.1371, -12.0841, 93.9572, -65.4066, 39.1534
3.704, 5, 34.7674, 51.1416, -12.0788, 93.9501, -65.4329, 39.1445
3.708, 5, 34.7645, 51.1462, -12.0734, 93.943, -65.4591, 39.1355
3.712, 5, 34.7616, 51.1508, -12.0681, 93.936, -65.4854, 39.1266
3.716, 5, 34.7588, 51.1553, -12.0628, 93.929, -65.5117, 39.1176
3.72, 5, 34.7559, 51.1599, -12.0575, 93.922, -65.5379, 39.1086
3.724, 5, 34.753, 51.1645, -12.0522, 93.915, -65.5642, 39.0996
3.728, 5, 34.7501, 51.169, -12.047, 93.9081, -65.5906, 39.0906
3.732, 5, 34.7472, 51.1736, -12.0417, 93.9012, -65.6169, 39.0816
3.735, 5, 34.7444, 51.1782, -12.0365, 93.8943, -65.6432, 39.0726
3.74, 5, 34.7415, 51.1828, -12.0313, 93.8875, -65.6696, 39.0636
3.744, 5, 34.7386, 51.1874, -12.0261, 93.8807, -65.696, 39.0546
3.748, 5, 34.7357, 51.192, -12.021, 93.8739, -65.7224, 39.0456
3.752, 5, 34.7328, 51.1966, -12.0158, 93.8671, -65.7488, 39.0366
3.756, 5, 34.7299, 51.2013, -12.0107, 93.8604, -65.7752, 39.0275
3.76, 5, 34.7271, 51.2059, -12.0056, 93.8537, -65.8016, 39.0185
3.764, 5, 34.7242, 51.2105, -12.0005, 93.847, -65.828, 39.0094
3.768, 5, 34.7213, 51.2151, -11.9954, 93.8404, -65.8545, 39.0004
3.772, 5, 34.7184, 51.2198, -11.9903, 93.8337, -65.881, 38.9913
3.776, 5, 34.7155, 51.2244, -11.9853, 93.8271, -65.9074, 38.9822
3.78, 5, 34.7126, 51.229, -11.9802, 93.8205, -65.9339, 38.9731
3.784, 5, 34.7097, 51.2337, -11.9752, 93.814, -65.9604, 38.9641
3.788, 5, 34.7068, 51.2383, -11.9702, 93.8074, -65.9869, 38.955
3.792, 5, 34.7039, 51.243, -11.9652, 93.8009, -66.0135, 38.9459
3.796, 5, 34.701, 51.2476, -11.9602, 93.7944, -66.04, 38.9368
3.8, 5, 34.6981, 51.2523, -11.9552, 93.7879, -66.0665, 38.9277
3.804, 5, 34.6952, 51.2569, -11.9502, 93.7814, -66.0931, 38.9186
3.808, 5, 34.6923, 51.2616, -11.9453, 93.775, -66.1196, 38.9095
3.812, 5, 34.6894, 51.2662, -11.9403, 93.7685, -66.1462, 38.9004
3.816, 5, 34.6865, 51.2709, -11.9353, 93.7621, -66.1727, 38.8913
3.82, 5, 34.6836, 51.2755, -11.9304, 93.7556, -66.1993, 38.8822
3.824, 5, 34.6806, 51.2802, -11.9254, 93.7492, -66.2259, 38.8731
3.828, 5, 34.6777, 51.2848, -11.9204, 93.7428, -66.2524, 38.864
3.832, 5, 34.6748, 51.2895, -11.9155, 93.7363, -66.279, 38.8549
3.836, 5, 34.6719, 51.2941, -11.9105, 93.7299, -66.3056, 38.8458
3.84, 5, 34.669, 51.2987, -11.9055, 93.7235, -66.3321, 38.8367
3.844, 5, 34.666, 51.3033, -11.9005, 93.717, -66.3587, 38.8276
3.848, 5, 34.6631, 51.308, -11.8955, 93.7106, -66.3853, 38.8185
3.852, 5, 34.6602, 51.3126, -11.8905, 93.7041, -66.4118, 38.8094
3.856, 5, 34.6573, 51.3172, -11.8855, 93.6977, -66.4384, 38.8003
3.86, 5, 34.6543, 51.3218, -11.8805, 93.6912, -66.465, 38.7912
3.864, 5, 34.6514, 51.3264, -11.8755, 93.6848, -66.4915, 38.7821
3.868, 5, 34.6485, 51.331, -11.8705, 93.6783, -66.5181, 38.7731
3.872, 5, 34.6455, 51.3356, -11.8654, 93.6718, -66.5447, 38.764
3.876, 5, 34.6426, 51.3402, -11.8604, 93.6653, -66.5712, 38.7549
3.88, 5, 34.6396, 51.3448, -11.8553, 93.6589, -66.5978, 38.7458
3.884, 5, 34.6367, 51.3494, -11.8503, 93.6524, -66.6243, 38.7368
3.888, 5, 34.6338, 51.3539, -11.8452, 93.6459, -66.6509, 38.7277
3.892, 5, 34.6308, 51.3585, -11.8401, 93.6393, -66.6774, 38.7186
3.896, 5, 34.6278, 51.363, -11.835, 93.6328, -66.704, 38.7096
3.9, 5, 34.6249, 51.3676, -11.8299, 93.6263, -66.7305, 38.7005
3.904, 5, 34.6219, 51.3721, -11.8248, 93.6198, -66.7571, 38.6914
3.908, 5, 34.619, 51.3767, -11.8197, 93.6132, -66.7836, 38.6824
3.912, 5, 34.616, 51.3812, -11.8145, 93.6067, -66.8101, 38.6733
3.916, 5, 34.613, 51.3857, -11.8094, 93.6001, -66.8367, 38.6643
3.92, 5, 34.6101, 51.3903, -11.8042, 93.5936, -66.8632, 38.6553
3.924, 5, 34.6071, 51.3948, -11.7991, 93.587, -66.8897, 38.6462
3.928, 5, 34.6041, 51.3993, -11.7939, 93.5804, -66.9163, 38.6372
3.932, 5, 34.6011, 51.4038, -11.7887, 93.5738, -66.9428, 38.6281
3.936, 5, 34.5981, 51.4083, -11.7835, 93.5673, -66.9693, 38.6191
3.94, 5, 34.5952, 51.4128, -11.7783, 93.5607, -66.9958, 38.6101
3.944, 5, 34.5922, 51.4173, -11.7731, 93.554, -67.0223, 38.601
3.948, 5, 34.5892, 51.4217, -11.7679, 93.5474, -67.0489, 38.592
3.952, 5, 34.5862, 51.4262, -11.7627, 93.5408, -67.0754, 38.583
3.956, 5, 34.5832, 51.4307, -11.7574, 93.5342, -67.1019, 38.574
3.96, 5, 34.5802, 51.4351, -11.7522, 93.5276, -67.1284, 38.565
3.964, 5, 34.5772, 51.4396, -11.7469, 93.5209, -67.1549, 38.556
3.968, 5, 34.5742, 51.444, -11.7417, 93.5143, -67.1814, 38.5469
3.972, 5, 34.5712, 51.4485, -11.7364, 93.5076, -67.2079, 38.5379
3.976, 5, 34.5682, 51.4529, -11.7311, 93.501, -67.2344, 38.5289
3.98, 5, 34.5651, 51.4573, -11.7258, 93.4943, -67.2609, 38.5199
3.984, 5, 34.5621, 51.4618, -11.7205, 93.4876, -67.2874, 38.5109
3.988, 5, 34.5591, 51.4662, -11.7152, 93.4809, -67.3139, 38.5019
3.992, 5, 34.5561, 51.4706, -11.7099, 93.4743, -67.3404, 38.493
3.996, 5, 34.5531, 51.475, -11.7045, 93.4676, -67.3669, 38.484
3.999, 5, 34.55, 51.4794, -11.6992, 93.4609, -67.3933, 38.475
4.004, 5, 34.547, 51.4838, -11.6939, 93.4542, -67.4198, 38.466
4.008, 5, 34.544, 51.4882, -11.6885, 93.4474, -67.4463, 38.457
4.012, 5, 34.5409, 51.4926, -11.6831, 93.4407, -67.4728, 38.448
4.016, 5, 34.5379, 51.4969, -11.6778, 93.434, -67.4992, 38.4391
4.02, 5, 34.5348, 51.5013, -11.6724, 93.4273, -67.5257, 38.4301
4.024, 5, 34.5318, 51.5057, -11.667, 93.4205, -67.5522, 38.4211
4.028, 5, 34.5287, 51.51, -11.6616, 93.4138, -67.5787, 38.4121
4.032, 5, 34.5257, 51.5144, -11.6561, 93.407, -67.6051, 38.4032
4.036, 5, 34.5226, 51.5187, -11.6507, 93.4002, -67.6316, 38.3942
4.04, 5, 34.5196, 51.5231, -11.6453, 93.3935, -67.658, 38.3853
4.044, 5, 34.5165, 51.5274, -11.6398, 93.3867, -67.6845, 38.3763
4.048, 5, 34.5135, 51.5317, -11.6344, 93.3799, -67.7109, 38.3674
4.052, 5, 34.5104, 51.536, -11.6289, 93.3731, -67.7374, 38.3584
4.056, 5, 34.5073, 51.5404, -11.6235, 93.3663, -67.7638, 38.3495
4.06, 5, 34.5042, 51.5447, -11.618, 93.3595, -67.7903, 38.3405
4.064, 5, 34.5012, 51.549, -11.6125, 93.3527, -67.8167, 38.3316
4.068, 5, 34.4981, 51.5533, -11.607, 93.3459, -67.8432, 38.3226
4.072, 5, 34.495, 51.5576, -11.6015, 93.3391, -67.8696, 38.3137
4.076, 5, 34.4919, 51.5618, -11.596, 93.3322, -67.8961, 38.3048
4.08, 5, 34.4888, 51.5661, -11.5904, 93.3254, -67.9225, 38.2958
4.084, 5, 34.4858, 51.5704, -11.5849, 93.3185, -67.9489, 38.2869
4.088, 5, 34.4827, 51.5747, -11.5793, 93.3117, -67.9754, 38.278
4.092, 5, 34.4796, 51.5789, -11.5738, 93.3048, -68.0018, 38.269
4.096, 5, 34.4765, 51.5832, -11.5682, 93.298, -68.0282, 38.2601
4.1, 5, 34.4734, 51.5874, -11.5627, 93.2911, -68.0546, 38.2512
4.104, 5, 34.4703, 51.5917, -11.5571, 93.2842, -68.0811, 38.2423
4.108, 5, 34.4672, 51.5959, -11.5515, 93.2773, -68.1075, 38.2334
4.112, 5, 34.4641, 51.6001, -11.5459, 93.2704, -68.1339, 38.2245
4.116, 5, 34.4609, 51.6044, -11.5403, 93.2635, -68.1603, 38.2155
4.12, 5, 34.4578, 51.6086, -11.5346, 93.2566, -68.1867, 38.2066
4.124, 5, 34.4547, 51.6128, -11.529, 93.2497, -68.2131, 38.1977
4.128, 5, 34.4516, 51.617, -11.5234, 93.2428, -68.2395, 38.1888
4.132, 5, 34.4485, 51.6212, -11.5177, 93.2358, -68.2659, 38.1799
4.136, 5, 34.4453, 51.6254, -11.5121, 93.2289, -68.2924, 38.171
4.14, 5, 34.4422, 51.6296, -11.5064, 93.222, -68.3187, 38.1621
4.144, 5, 34.4391, 51.6338, -11.5007, 93.215, -68.3451, 38.1533
4.148, 5, 34.4359, 51.6379, -11.495, 93.2081, -68.3715, 38.1444
4.152, 5, 34.4328, 51.6421, -11.4893, 93.2011, -68.3979, 38.1355
4.156, 5, 34.4297, 51.6463, -11.4836, 93.1941, -68.4243, 38.1266
4.16, 5, 34.4265, 51.6504, -11.4779, 93.1871, -68.4507, 38.1177
4.164, 5, 34.4234, 51.6546, -11.4722, 93.1802, -68.4771, 38.1088
4.168, 5, 34.4202, 51.6587, -11.4665, 93.1732, -68.5035, 38.1
4.172, 5, 34.4171, 51.6628, -11.4607, 93.1662, -68.5299, 38.0911
4.176, 5, 34.4139, 51.667, -11.455, 93.1592, -68.5562, 38.0822
4.18, 5, 34.4108, 51.6711, -11.4492, 93.1522, -68.5826, 38.0733
4.184, 5, 34.4076, 51.6752, -11.4434, 93.1451, -68.609, 38.0645
4.188, 5, 34.4045, 51.6793, -11.4377, 93.1381, -68.6354, 38.0556
4.192, 5, 34.4013, 51.6834, -11.4319, 93.1311, -68.6617, 38.0467
4.196, 5, 34.3981, 51.6875, -11.4261, 93.1241, -68.6881, 38.0379
4.2, 5, 34.3949, 51.6916, -11.4203, 93.117, -68.7145, 38.029
4.204, 5, 34.3918, 51.6957, -11.4144, 93.11, -68.7408, 38.0202
4.208, 5, 34.3886, 51.6998, -11.4086, 93.1029, -68.7672, 38.0113
4.212, 5, 34.3854, 51.7039, -11.4028, 93.0959, -68.7935, 38.0025
4.216, 5, 34.3822, 51.708, -11.3969, 93.0888, -68.8199, 37.9936
4.22, 5, 34.3791, 51.712, -11.3911, 93.0817, -68.8463, 37.9848
4.224, 5, 34.3759, 51.7161, -11.3852, 93.0746, -68.8726, 37.9759
4.228, 5, 34.3727, 51.7201, -11.3793, 93.0675, -68.899, 37.9671
4.232, 5, 34.3695, 51.7242, -11.3735, 93.0604, -68.9253, 37.9583
4.236, 5, 34.3663, 51.7282, -11.3676, 93.0533, -68.9516, 37.9494
4.24, 5, 34.3631, 51.7323, -11.3617, 93.0462, -68.978, 37.9406
4.244, 5, 34.3599, 51.7363, -11.3558, 93.0391, -69.0043, 37.9318
4.248, 5, 34.3567, 51.7403, -11.3498, 93.032, -69.0307, 37.9229
4.252, 5, 34.3535, 51.7443, -11.3439, 93.0248, -69.057, 37.9141
4.256, 5, 34.3503, 51.7483, -11.338, 93.0177, -69.0833, 37.9053
4.26, 5, 34.3471, 51.7523, -11.332, 93.0106, -69.1097, 37.8965
4.264, 5, 34.3438, 51.7563, -11.3261, 93.0034, -69.136, 37.8876
4.268, 5, 34.3406, 51.7603, -11.3201, 92.9963, -69.1623, 37.8788
4.272, 5, 34.3374, 51.7643, -11.3141, 92.9891, -69.1886, 37.87
4.276, 5, 34.3342, 51.7683, -11.3081, 92.9819, -69.215, 37.8612
4.28, 5, 34.3309, 51.7723, -11.3022, 92.9748, -69.2413, 37.8524
4.284, 5, 34.3277, 51.7762, -11.2962, 92.9676, -69.2676, 37.8436
4.288, 5, 34.3245, 51.7802, -11.2901, 92.9604, -69.2939, 37.8348
4.292, 5, 34.3213, 51.7841, -11.2841, 92.9532, -69.3202, 37.826
4.296, 5, 34.318, 51.7881, -11.2781, 92.946, -69.3465, 37.8171
4.3, 5, 34.3148, 51.792, -11.272, 92.9388, -69.3728, 37.8083
4.304, 5, 34.3115, 51.796, -11.266, 92.9316, -69.3991, 37.7995
4.308, 5, 34.3083, 51.7999, -11.2599, 92.9243, -69.4254, 37.7908
4.312, 5, 34.305, 51.8038, -11.2539, 92.9171, -69.4517, 37.782
4.316, 5, 34.3018, 51.8077, -11.2478, 92.9099, -69.478, 37.7732
4.32, 5, 34.2985, 51.8116, -11.2417, 92.9026, -69.5043, 37.7644
4.324, 5, 34.2953, 51.8155, -11.2356, 92.8954, -69.5306, 37.7556
4.328, 5, 34.292, 51.8194, -11.2295, 92.8881, -69.5569, 37.7468
4.332, 5, 34.2887, 51.8233, -11.2234, 92.8809, -69.5832, 37.738
4.336, 5, 34.2855, 51.8272, -11.2173, 92.8736, -69.6095, 37.7292
4.34, 5, 34.2822, 51.8311, -11.2111, 92.8663, -69.6358, 37.7205
4.344, 5, 34.2789, 51.835, -11.205, 92.8591, -69.6621, 37.7117
4.348, 5, 34.2757, 51.8388, -11.1989, 92.8518, -69.6883, 37.7029
4.352, 5, 34.2724, 51.8427, -11.1927, 92.8445, -69.7146, 37.6941
4.356, 5, 34.2691, 51.8466, -11.1865, 92.8372, -69.7409, 37.6854
4.36, 5, 34.2658, 51.8504, -11.1803, 92.8299, -69.7672, 37.6766
4.364, 5, 34.2625, 51.8543, -11.1742, 92.8226, -69.7934, 37.6678
4.368, 5, 34.2593, 51.8581, -11.168, 92.8152, -69.8197, 37.6591
4.372, 5, 34.256, 51.8619, -11.1618, 92.8079, -69.846, 37.6503
4.376, 5, 34.2527, 51.8657, -11.1555, 92.8006, -69.8722, 37.6415
4.38, 5, 34.2494, 51.8696, -11.1493, 92.7932, -69.8985, 37.6328
4.384, 5, 34.2461, 51.8734, -11.1431, 92.7859, -69.9248, 37.624
4.388, 5, 34.2428, 51.8772, -11.1368, 92.7785, -69.951, 37.6153
4.392, 5, 34.2395, 51.881, -11.1306, 92.7712, -69.9773, 37.6065
4.396, 5, 34.2362, 51.8848, -11.1243, 92.7638, -70.0035, 37.5978
4.4, 5, 34.2328, 51.8886, -11.1181, 92.7564, -70.0298, 37.589
4.404, 5, 34.2295, 51.8923, -11.1118, 92.7491, -70.056, 37.5803
4.408, 5, 34.2262, 51.8961, -11.1055, 92.7417, -70.0823, 37.5715
4.412, 5, 34.2229, 51.8999, -11.0992, 92.7343, -70.1085, 37.5628
4.416, 5, 34.2196, 51.9036, -11.0929, 92.7269, -70.1347, 37.554
4.42, 5, 34.2163, 51.9074, -11.0866, 92.7195, -70.161, 37.5453
4.424, 5, 34.2129, 51.9112, -11.0802, 92.7121, -70.1872, 37.5366
4.428, 5, 34.2096, 51.9149, -11.0739, 92.7047, -70.2134, 37.5278
4.432, 5, 34.2063, 51.9186, -11.0676, 92.6973, -70.2397, 37.5191
4.436, 5, 34.2029, 51.9224, -11.0612, 92.6898, -70.2659, 37.5104
4.44, 5, 34.1996, 51.9261, -11.0548, 92.6824, -70.2921, 37.5016
4.444, 5, 34.1963, 51.9298, -11.0485, 92.675, -70.3184, 37.4929
4.448, 5, 34.1929, 51.9335, -11.0421, 92.6675, -70.3446, 37.4842
4.452, 5, 34.1896, 51.9372, -11.0357, 92.66, -70.3708, 37.4755
4.456, 5, 34.1862, 51.9409, -11.0293, 92.6526, -70.397, 37.4667
4.46, 5, 34.1829, 51.9446, -11.0229, 92.6451, -70.4232, 37.458
4.464, 5, 34.1795, 51.9483, -11.0165, 92.6376, -70.4495, 37.4493
4.468, 5, 34.1761, 51.952, -11.01, 92.6302, -70.4757, 37.4406
4.472, 5, 34.1728, 51.9557, -11.0036, 92.6227, -70.5019, 37.4319
4.476, 5, 34.1694, 51.9593, -10.9972, 92.6152, -70.5281, 37.4231
4.48, 5, 34.1661, 51.963, -10.9907, 92.6077, -70.5543, 37.4144
4.484, 5, 34.1627, 51.9667, -10.9842, 92.6002, -70.5805, 37.4057
4.488, 5, 34.1593, 51.9703, -10.9778, 92.5927, -70.6067, 37.397
4.492, 5, 34.1559, 51.9739, -10.9713, 92.5852, -70.6329, 37.3883
4.496, 5, 34.1526, 51.9776, -10.9648, 92.5776, -70.6591, 37.3796
4.5, 5, 34.1492, 51.9812, -10.9583, 92.5701, -70.6853, 37.3709
4.504, 5, 34.1458, 51.9848, -10.9518, 92.5626, -70.7115, 37.3622
4.508, 5, 34.1424, 51.9885, -10.9453, 92.555, -70.7376, 37.3535
4.512, 5, 34.139, 51.9921, -10.9387, 92.5475, -70.7638, 37.3448
4.516, 5, 34.1356, 51.9957, -10.9322, 92.5399, -70.79, 37.3361
4.52, 5, 34.1322, 51.9993, -10.9257, 92.5324, -70.8162, 37.3274
4.524, 5, 34.1289, 52.0029, -10.9191, 92.5248, -70.8424, 37.3187
4.528, 5, 34.1255, 52.0065, -10.9125, 92.5172, -70.8686, 37.31
4.532, 5, 34.1221, 52.01, -10.906, 92.5097, -70.8947, 37.3013
4.536, 5, 34.1186, 52.0136, -10.8994, 92.5021, -70.9209, 37.2927
4.54, 5, 34.1152, 52.0172, -10.8928, 92.4945, -70.9471, 37.284
4.544, 5, 34.1118, 52.0207, -10.8862, 92.4869, -70.9732, 37.2753
4.548, 5, 34.1084, 52.0243, -10.8796, 92.4793, -70.9994, 37.2666
4.552, 5, 34.105, 52.0279, -10.873, 92.4717, -71.0256, 37.2579
4.556, 5, 34.1016, 52.0314, -10.8663, 92.4641, -71.0517, 37.2492
4.56, 5, 34.0982, 52.0349, -10.8597, 92.4564, -71.0779, 37.2406
4.564, 5, 34.0947, 52.0385, -10.853, 92.4488, -71.104, 37.2319
4.568, 5, 34.0913, 52.042, -10.8464, 92.4412, -71.1302, 37.2232
4.572, 5, 34.0879, 52.0455, -10.8397, 92.4335, -71.1564, 37.2146
4.576, 5, 34.0844, 52.049, -10.833, 92.4259, -71.1825, 37.2059
4.58, 5, 34.081, 52.0525, -10.8264, 92.4182, -71.2087, 37.1972
4.584, 5, 34.0776, 52.056, -10.8197, 92.4106, -71.2348, 37.1885
4.588, 5, 34.0741, 52.0595, -10.813, 92.4029, -71.2609, 37.1799
4.592, 5, 34.0707, 52.063, -10.8063, 92.3952, -71.2871, 37.1712
4.596, 5, 34.0672, 52.0665, -10.7995, 92.3875, -71.3132, 37.1625
4.6, 5, 34.0638, 52.07, -10.7928, 92.3799, -71.3394, 37.1539
4.604, 5, 34.0603, 52.0734, -10.7861, 92.3722, -71.3655, 37.1452
4.608, 5, 34.0569, 52.0769, -10.7793, 92.3645, -71.3916, 37.1366
4.612, 5, 34.0534, 52.0803, -10.7726, 92.3568, -71.4178, 37.1279
4.616, 5, 34.05, 52.0838, -10.7658, 92.3491, -71.4439, 37.1193
4.62, 5, 34.0465, 52.0872, -10.759, 92.3413, -71.47, 37.1106
4.624, 5, 34.0431, 52.0907, -10.7522, 92.3336, -71.4961, 37.102
4.628, 5, 34.0396, 52.0941, -10.7454, 92.3259, -71.5223, 37.0933
4.632, 5, 34.0361, 52.0975, -10.7386, 92.3182, -71.5484, 37.0847
4.636, 5, 34.0326, 52.1009, -10.7318, 92.3104, -71.5745, 37.076
4.64, 5, 34.0292, 52.1044, -10.725, 92.3027, -71.6006, 37.0674
4.644, 5, 34.0257, 52.1078, -10.7182, 92.2949, -71.6267, 37.0587
4.648, 5, 34.0222, 52.1112, -10.7113, 92.2872, -71.6528, 37.0501
4.652, 5, 34.0187, 52.1146, -10.7045, 92.2794, -71.6789, 37.0414
4.656, 5, 34.0152, 52.1179, -10.6976, 92.2716, -71.705, 37.0328
4.66, 5, 34.0117, 52.1213, -10.6907, 92.2638, -71.7311, 37.0242
4.664, 5, 34.0082, 52.1247, -10.6839, 92.2561, -71.7572, 37.0155
4.668, 5, 34.0048, 52.1281, -10.677, 92.2483, -71.7833, 37.0069
4.672, 5, 34.0013, 52.1314, -10.6701, 92.2405, -71.8094, 36.9982
4.676, 5, 33.9978, 52.1348, -10.6632, 92.2327, -71.8355, 36.9896
4.68, 5, 33.9943, 52.1381, -10.6563, 92.2249, -71.8616, 36.981
4.684, 5, 33.9907, 52.1415, -10.6494, 92.2171, -71.8877, 36.9723
4.688, 5, 33.9872, 52.1448, -10.6424, 92.2092, -71.9138, 36.9637
4.692, 5, 33.9837, 52.1481, -10.6355, 92.2014, -71.9399, 36.9551
4.696, 5, 33.9802, 52.1515, -10.6285, 92.1936, -71.966, 36.9465
4.7, 5, 33.9767, 52.1548, -10.6216, 92.1858, -71.9921, 36.9378
4.704, 5, 33.9732, 52.1581, -10.6146, 92.1779, -72.0181, 36.9292
4.708, 5, 33.9697, 52.1614, -10.6076, 92.1701, -72.0442, 36.9206
4.712, 5, 33.9661, 52.1647, -10.6006, 92.1622, -72.0703, 36.912
4.716, 5, 33.9626, 52.168, -10.5936, 92.1543, -72.0964, 36.9034
4.72, 5, 33.9591, 52.1713, -10.5866, 92.1465, -72.1224, 36.8947
4.724, 5, 33.9555, 52.1745, -10.5796, 92.1386, -72.1485, 36.8861
4.728, 5, 33.952, 52.1778, -10.5726, 92.1307, -72.1746, 36.8775
4.732, 5, 33.9485, 52.1811, -10.5656, 92.1228, -72.2006, 36.8689
4.736, 5, 33.9449, 52.1843, -10.5585, 92.115, -72.2267, 36.8603
4.74, 5, 33.9414, 52.1876, -10.5515, 92.1071, -72.2527, 36.8517
4.744, 5, 33.9378, 52.1908, -10.5444, 92.0992, -72.2788, 36.8431
4.748, 5, 33.9343, 52.1941, -10.5373, 92.0912, -72.3049, 36.8344
4.752, 5, 33.9307, 52.1973, -10.5303, 92.0833, -72.3309, 36.8258
4.756, 5, 33.9272, 52.2005, -10.5232, 92.0754, -72.357, 36.8172
4.76, 5, 33.9236, 52.2038, -10.5161, 92.0675, -72.383, 36.8086
4.764, 5, 33.92, 52.207, -10.509, 92.0595, -72.4091, 36.8
4.768, 5, 33.9165, 52.2102, -10.5019, 92.0516, -72.4351, 36.7914
4.772, 5, 33.9129, 52.2134, -10.4947, 92.0437, -72.4611, 36.7828
4.776, 5, 33.9093, 52.2166, -10.4876, 92.0357, -72.4872, 36.7742
4.78, 5, 33.9058, 52.2198, -10.4805, 92.0278, -72.5132, 36.7656
4.784, 5, 33.9022, 52.2229, -10.4733, 92.0198, -72.5393, 36.757
4.788, 5, 33.8986, 52.2261, -10.4662, 92.0118, -72.5653, 36.7484
4.792, 5, 33.895, 52.2293, -10.459, 92.0039, -72.5913, 36.7398
4.796, 5, 33.8915, 52.2324, -10.4518, 91.9959, -72.6173, 36.7312
4.8, 5, 33.8879, 52.2356, -10.4446, 91.9879, -72.6434, 36.7226
4.804, 5, 33.8843, 52.2388, -10.4374, 91.9799, -72.6694, 36.714
4.808, 5, 33.8807, 52.2419, -10.4302, 91.9719, -72.6954, 36.7055
4.812, 5, 33.8771, 52.245, -10.423, 91.9639, -72.7214, 36.6969
4.816, 5, 33.8735, 52.2482, -10.4158, 91.9559, -72.7475, 36.6883
4.82, 5, 33.8699, 52.2513, -10.4085, 91.9479, -72.7735, 36.6797
4.824, 5, 33.8663, 52.2544, -10.4013, 91.9398, -72.7995, 36.6711
4.828, 5, 33.8627, 52.2575, -10.3941, 91.9318, -72.8255, 36.6625
4.832, 5, 33.8591, 52.2606, -10.3868, 91.9238, -72.8515, 36.6539
4.836, 5, 33.8555, 52.2637, -10.3795, 91.9157, -72.8775, 36.6453
4.84, 5, 33.8519, 52.2668, -10.3722, 91.9077, -72.9035, 36.6368
4.844, 5, 33.8483, 52.2699, -10.365, 91.8996, -72.9295, 36.6282
4.848, 5, 33.8446, 52.273, -10.3577, 91.8916, -72.9555, 36.6196
4.852, 5, 33.841, 52.2761, -10.3503, 91.8835, -72.9815, 36.611
4.856, 5, 33.8374, 52.2791, -10.343, 91.8755, -73.0075, 36.6024
4.86, 5, 33.8338, 52.2822, -10.3357, 91.8674, -73.0335, 36.5939
4.864, 5, 33.8301, 52.2852, -10.3284, 91.8593, -73.0595, 36.5853
4.868, 5, 33.8265, 52.2883, -10.321, 91.8512, -73.0855, 36.5767
4.872, 5, 33.8229, 52.2913, -10.3137, 91.8431, -73.1115, 36.5681
4.876, 5, 33.8192, 52.2944, -10.3063, 91.835, -73.1375, 36.5596
4.88, 5, 33.8156, 52.2974, -10.2989, 91.8269, -73.1634, 36.551
4.884, 5, 33.8119, 52.3004, -10.2916, 91.8188, -73.1894, 36.5424
4.888, 5, 33.8083, 52.3034, -10.2842, 91.8107, -73.2154, 36.5339
4.892, 5, 33.8047, 52.3064, -10.2768, 91.8026, -73.2414, 36.5253
4.896, 5, 33.801, 52.3094, -10.2694, 91.7945, -73.2673, 36.5167
4.9, 5, 33.7973, 52.3124, -10.262, 91.7863, -73.2933, 36.5082
4.904, 5, 33.7937, 52.3154, -10.2545, 91.7782, -73.3193, 36.4996
4.908, 5, 33.79, 52.3184, -10.2471, 91.77, -73.3453, 36.491
4.912, 5, 33.7864, 52.3214, -10.2397, 91.7619, -73.3712, 36.4825
4.916, 5, 33.7827, 52.3243, -10.2322, 91.7537, -73.3972, 36.4739
4.92, 5, 33.779, 52.3273, -10.2247, 91.7456, -73.4231, 36.4653
4.924, 5, 33.7754, 52.3303, -10.2173, 91.7374, -73.4491, 36.4568
4.928, 5, 33.7717, 52.3332, -10.2098, 91.7292, -73.4751, 36.4482
4.932, 5, 33.768, 52.3362, -10.2023, 91.7211, -73.501, 36.4396
4.936, 5, 33.7643, 52.3391, -10.1948, 91.7129, -73.527, 36.4311
4.94, 5, 33.7607, 52.342, -10.1873, 91.7047, -73.5529, 36.4225
4.944, 5, 33.757, 52.345, -10.1798, 91.6965, -73.5789, 36.414
4.948, 5, 33.7533, 52.3479, -10.1723, 91.6883, -73.6048, 36.4054
4.952, 5, 33.7496, 52.3508, -10.1647, 91.6801, -73.6308, 36.3969
4.956, 5, 33.7459, 52.3537, -10.1572, 91.6719, -73.6567, 36.3883
4.96, 5, 33.7422, 52.3566, -10.1496, 91.6637, -73.6826, 36.3797
4.964, 5, 33.7385, 52.3595, -10.1421, 91.6554, -73.7086, 36.3712
4.968, 5, 33.7348, 52.3624, -10.1345, 91.6472, -73.7345, 36.3626
4.972, 5, 33.7311, 52.3652, -10.1269, 91.639, -73.7604, 36.3541
4.976, 5, 33.7274, 52.3681, -10.1193, 91.6307, -73.7864, 36.3455
4.98, 5, 33.7237, 52.371, -10.1117, 91.6225, -73.8123, 36.337
4.984, 5, 33.72, 52.3738, -10.1041, 91.6142, -73.8382, 36.3284
4.988, 5, 33.7163, 52.3767, -10.0965, 91.606, -73.8642, 36.3199
4.992, 5, 33.7126, 52.3795, -10.0889, 91.5977, -73.8901, 36.3113
4.996, 5, 33.7088, 52.3824, -10.0812, 91.5894, -73.916, 36.3028
5, 5, 33.7051, 52.3852, -10.0736, 91.5811, -73.9419, 36.2942
5.004, 5, 33.7014, 52.388, -10.0659, 91.5729, -73.9678, 36.2857
5.008, 5, 33.6977, 52.3909, -10.0583, 91.5646, -73.9937, 36.2772
5.012, 5, 33.6939, 52.3937, -10.0506, 91.5563, -74.0197, 36.2686
5.016, 5, 33.6902, 52.3965, -10.0429, 91.548, -74.0456, 36.2601
5.02, 5, 33.6865, 52.3993, -10.0352, 91.5397, -74.0715, 36.2515
5.024, 5, 33.6827, 52.4021, -10.0275, 91.5314, -74.0974, 36.243
5.028, 5, 33.679, 52.4049, -10.0198, 91.5231, -74.1233, 36.2344
5.032, 5, 33.6753, 52.4076, -10.0121, 91.5147, -74.1492, 36.2259
5.036, 5, 33.6715, 52.4104, -10.0044, 91.5064, -74.1751, 36.2174
5.04, 5, 33.6678, 52.4132, -9.99665, 91.4981, -74.201, 36.2088
5.044, 5, 33.664, 52.4159, -9.9889, 91.4898, -74.2269, 36.2003
5.048, 5, 33.6603, 52.4187, -9.98115, 91.4814, -74.2528, 36.1917
5.052, 5, 33.6565, 52.4214, -9.97338, 91.4731, -74.2786, 36.1832
5.056, 5, 33.6527, 52.4242, -9.96561, 91.4647, -74.3045, 36.1747
5.06, 5, 33.649, 52.4269, -9.95783, 91.4563, -74.3304, 36.1661
5.064, 5, 33.6452, 52.4296, -9.95004, 91.448, -74.3563, 36.1576
5.068, 5, 33.6414, 52.4324, -9.94224, 91.4396, -74.3822, 36.1491
5.072, 5, 33.6377, 52.4351, -9.93443, 91.4312, -74.4081, 36.1405
5.076, 5, 33.6339, 52.4378, -9.92661, 91.4228, -74.4339, 36.132
5.08, 5, 33.6301, 52.4405, -9.91879, 91.4145, -74.4598, 36.1235
5.084, 5, 33.6263, 52.4432, -9.91095, 91.4061, -74.4857, 36.1149
5.088, 5, 33.6226, 52.4459, -9.90311, 91.3977, -74.5116, 36.1064
5.092, 5, 33.6188, 52.4485, -9.89525, 91.3893, -74.5374, 36.0979
5.096, 5, 33.615, 52.4512, -9.88739, 91.3808, -74.5633, 36.0893
5.1, 5, 33.6112, 52.4539, -9.87952, 91.3724, -74.5891, 36.0808
5.104, 5, 33.6074, 52.4565, -9.87163, 91.364, -74.615, 36.0723
5.108, 5, 33.6036, 52.4592, -9.86374, 91.3556, -74.6409, 36.0637
5.112, 5, 33.5998, 52.4619, -9.85584, 91.3472, -74.6667, 36.0552
5.116, 5, 33.596, 52.4645, -9.84793, 91.3387, -74.6926, 36.0467
5.12, 5, 33.5922, 52.4671, -9.84002, 91.3303, -74.7184, 36.0382
5.124, 5, 33.5884, 52.4698, -9.83209, 91.3218, -74.7443, 36.0296
5.128, 5, 33.5846, 52.4724, -9.82415, 91.3134, -74.7701, 36.0211
5.132, 5, 33.5808, 52.475, -9.81621, 91.3049, -74.796, 36.0126
5.136, 5, 33.577, 52.4776, -9.80825, 91.2964, -74.8218, 36.004
5.14, 5, 33.5732, 52.4802, -9.80029, 91.288, -74.8477, 35.9955
5.144, 5, 33.5693, 52.4828, -9.79231, 91.2795, -74.8735, 35.987
5.148, 5, 33.5655, 52.4854, -9.78433, 91.271, -74.8994, 35.9785
5.152, 5, 33.5617, 52.488, -9.77634, 91.2625, -74.9252, 35.9699
5.156, 5, 33.5579, 52.4905, -9.76834, 91.254, -74.951, 35.9614
5.16, 5, 33.554, 52.4931, -9.76033, 91.2455, -74.9769, 35.9529
5.164, 5, 33.5502, 52.4957, -9.75231, 91.237, -75.0027, 35.9444
5.168, 5, 33.5464, 52.4982, -9.74428, 91.2285, -75.0285, 35.9358
5.172, 5, 33.5425, 52.5008, -9.73625, 91.22, -75.0543, 35.9273
5.176, 5, 33.5387, 52.5033, -9.7282, 91.2115, -75.0802, 35.9188
5.18, 5, 33.5348, 52.5059, -9.72014, 91.2029, -75.106, 35.9103
5.184, 5, 33.531, 52.5084, -9.71208, 91.1944, -75.1318, 35.9018
5.188, 5, 33.5271, 52.5109, -9.70401, 91.1859, -75.1576, 35.8932
5.192, 5, 33.5233, 52.5134, -9.69592, 91.1773, -75.1834, 35.8847
5.196, 5, 33.5194, 52.5159, -9.68783, 91.1688, -75.2093, 35.8762
5.2, 5, 33.5156, 52.5184, -9.67973, 91.1602, -75.2351, 35.8677
5.204, 5, 33.5117, 52.5209, -9.67162, 91.1517, -75.2609, 35.8592
5.208, 5, 33.5079, 52.5234, -9.6635, 91.1431, -75.2867, 35.8506
5.212, 5, 33.504, 52.5259, -9.65537, 91.1345, -75.3125, 35.8421
5.216, 5, 33.5001, 52.5284, -9.64724, 91.126, -75.3383, 35.8336
5.22, 5, 33.4963, 52.5308, -9.63909, 91.1174, -75.3641, 35.8251
5.224, 5, 33.4924, 52.5333, -9.63093, 91.1088, -75.3899, 35.8166
5.228, 5, 33.4885, 52.5358, -9.62277, 91.1002, -75.4157, 35.808
5.232, 5, 33.4846, 52.5382, -9.6146, 91.0916, -75.4415, 35.7995
5.236, 5, 33.4807, 52.5406, -9.60641, 91.083, -75.4673, 35.791
5.24, 5, 33.4769, 52.5431, -9.59822, 91.0744, -75.4931, 35.7825
5.244, 5, 33.473, 52.5455, -9.59002, 91.0658, -75.5189, 35.774
5.248, 5, 33.4691, 52.5479, -9.58181, 91.0572, -75.5446, 35.7655
5.252, 5, 33.4652, 52.5504, -9.57359, 91.0485, -75.5704, 35.7569
5.256, 5, 33.4613, 52.5528, -9.56536, 91.0399, -75.5962, 35.7484
5.26, 5, 33.4574, 52.5552, -9.55713, 91.0313, -75.622, 35.7399
5.264, 5, 33.4535, 52.5576, -9.54888, 91.0226, -75.6478, 35.7314
5.268, 5, 33.4496, 52.5599, -9.54063, 91.014, -75.6736, 35.7229
5.272, 5, 33.4457, 52.5623, -9.53236, 91.0053, -75.6993, 35.7144
5.276, 5, 33.4418, 52.5647, -9.52409, 90.9967, -75.7251, 35.7058
5.28, 5, 33.4379, 52.5671, -9.51581, 90.988, -75.7509, 35.6973
5.284, 5, 33.434, 52.5694, -9.50752, 90.9793, -75.7766, 35.6888
5.288, 5, 33.43, 52.5718, -9.49922, 90.9706, -75.8024, 35.6803
5.292, 5, 33.4261, 52.5741, -9.49091, 90.962, -75.8282, 35.6718
5.296, 5, 33.4222, 52.5765, -9.48259, 90.9533, -75.8539, 35.6633
5.3, 5, 33.4183, 52.5788, -9.47426, 90.9446, -75.8797, 35.6548
5.304, 5, 33.4144, 52.5811, -9.46593, 90.9359, -75.9054, 35.6462
5.308, 5, 33.4104, 52.5835, -9.45758, 90.9272, -75.9312, 35.6377
5.312, 5, 33.4065, 52.5858, -9.44923, 90.9185, -75.957, 35.6292
5.316, 5, 33.4026, 52.5881, -9.44086, 90.9098, -75.9827, 35.6207
5.32, 5, 33.3986, 52.5904, -9.43249, 90.9011, -76.0085, 35.6122
5.324, 5, 33.3947, 52.5927, -9.42411, 90.8923, -76.0342, 35.6037
5.328, 5, 33.3907, 52.595, -9.41572, 90.8836, -76.06, 35.5952
5.332, 5, 33.3868, 52.5973, -9.40732, 90.8749, -76.0857, 35.5866
5.336, 5, 33.3828, 52.5995, -9.39892, 90.8661, -76.1115, 35.5781
5.34, 5, 33.3789, 52.6018, -9.3905, 90.8574, -76.1372, 35.5696
5.344, 5, 33.3749, 52.6041, -9.38207, 90.8486, -76.1629, 35.5611
5.348, 5, 33.371, 52.6063, -9.37364, 90.8399, -76.1887, 35.5526
5.352, 5, 33.367, 52.6086, -9.36519, 90.8311, -76.2144, 35.5441
5.356, 5, 33.3631, 52.6108, -9.35674, 90.8223, -76.2401, 35.5356
5.36, 5, 33.3591, 52.613, -9.34828, 90.8136, -76.2659, 35.5271
5.364, 5, 33.3551, 52.6153, -9.33981, 90.8048, -76.2916, 35.5185
5.368, 5, 33.3512, 52.6175, -9.33133, 90.796, -76.3173, 35.51
5.372, 5, 33.3472, 52.6197, -9.32284, 90.7872, -76.343, 35.5015
5.376, 5, 33.3432, 52.6219, -9.31435, 90.7784, -76.3688, 35.493
5.38, 5, 33.3392, 52.6241, -9.30584, 90.7696, -76.3945, 35.4845
5.384, 5, 33.3352, 52.6263, -9.29732, 90.7608, -76.4202, 35.476
5.388, 5, 33.3313, 52.6285, -9.2888, 90.752, -76.4459, 35.4675
5.392, 5, 33.3273, 52.6307, -9.28027, 90.7432, -76.4716, 35.459
5.396, 5, 33.3233, 52.6329, -9.27173, 90.7344, -76.4974, 35.4504
5.4, 5, 33.3193, 52.635, -9.26318, 90.7255, -76.5231, 35.4419
5.404, 5, 33.3153, 52.6372, -9.25462, 90.7167, -76.5488, 35.4334
5.408, 5, 33.3113, 52.6394, -9.24605, 90.7079, -76.5745, 35.4249
5.412, 5, 33.3073, 52.6415, -9.23747, 90.699, -76.6002, 35.4164
5.416, 5, 33.3033, 52.6436, -9.22888, 90.6902, -76.6259, 35.4079
5.42, 5, 33.2993, 52.6458, -9.22029, 90.6813, -76.6516, 35.3994
5.424, 5, 33.2953, 52.6479, -9.21169, 90.6725, -76.6773, 35.3908
5.428, 5, 33.2913, 52.65, -9.20307, 90.6636, -76.703, 35.3823
5.432, 5, 33.2873, 52.6521, -9.19445, 90.6547, -76.7287, 35.3738
5.436, 5, 33.2833, 52.6543, -9.18582, 90.6459, -76.7544, 35.3653
5.44, 5, 33.2792, 52.6564, -9.17718, 90.637, -76.7801, 35.3568
5.444, 5, 33.2752, 52.6585, -9.16853, 90.6281, -76.8058, 35.3483
5.448, 5, 33.2712, 52.6605, -9.15988, 90.6192, -76.8314, 35.3398
5.452, 5, 33.2672, 52.6626, -9.15121, 90.6103, -76.8571, 35.3312
5.456, 5, 33.2631, 52.6647, -9.14254, 90.6014, -76.8828, 35.3227
5.46, 5, 33.2591, 52.6668, -9.13385, 90.5925, -76.9085, 35.3142
5.464, 5, 33.2551, 52.6688, -9.12516, 90.5836, -76.9342, 35.3057
5.468, 5, 33.251, 52.6709, -9.11646, 90.5747, -76.9598, 35.2972
5.472, 5, 33.247, 52.6729, -9.10775, 90.5657, -76.9855, 35.2887
5.476, 5, 33.243, 52.675, -9.09903, 90.5568, -77.0112, 35.2802
5.48, 5, 33.2389, 52.677, -9.0903, 90.5479, -77.0369, 35.2716
5.484, 5, 33.2349, 52.679, -9.08157, 90.5389, -77.0625, 35.2631
5.488, 5, 33.2308, 52.6811, -9.07282, 90.53, -77.0882, 35.2546
5.492, 5, 33.2268, 52.6831, -9.06407, 90.5211, -77.1139, 35.2461
5.496, 5, 33.2227, 52.6851, -9.05531, 90.5121, -77.1395, 35.2376
5.5, 5, 33.2187, 52.6871, -9.04654, 90.5031, -77.1652, 35.2291
5.504, 5, 33.2146, 52.6891, -9.03776, 90.4942, -77.1909, 35.2205
5.508, 5, 33.2105, 52.6911, -9.02897, 90.4852, -77.2165, 35.212
5.512, 5, 33.2065, 52.6931, -9.02017, 90.4762, -77.2422, 35.2035
5.516, 5, 33.2024, 52.695, -9.01136, 90.4672, -77.2678, 35.195
5.52, 5, 33.1983, 52.697, -9.00255, 90.4583, -77.2935, 35.1865
5.524, 5, 33.1943, 52.699, -8.99372, 90.4493, -77.3191, 35.178
5.528, 5, 33.1902, 52.7009, -8.98489, 90.4403, -77.3448, 35.1694
5.532, 5, 33.1861, 52.7029, -8.97605, 90.4313, -77.3704, 35.1609
5.536, 5, 33.182, 52.7048, -8.9672, 90.4223, -77.3961, 35.1524
5.54, 5, 33.178, 52.7068, -8.95834, 90.4133, -77.4217, 35.1439
5.544, 5, 33.1739, 52.7087, -8.94947, 90.4042, -77.4473, 35.1354
5.548, 5, 33.1698, 52.7106, -8.9406, 90.3952, -77.473, 35.1268
5.552, 5, 33.1657, 52.7125, -8.93171, 90.3862, -77.4986, 35.1183
5.556, 5, 33.1616, 52.7144, -8.92282, 90.3772, -77.5243, 35.1098
5.56, 5, 33.1575, 52.7163, -8.91391, 90.3681, -77.5499, 35.1013
5.564, 5, 33.1534, 52.7182, -8.905, 90.3591, -77.5755, 35.0928
5.568, 5, 33.1493, 52.7201, -8.89608, 90.35, -77.6012, 35.0842
5.572, 5, 33.1452, 52.722, -8.88715, 90.341, -77.6268, 35.0757
5.576, 5, 33.1411, 52.7239, -8.87822, 90.3319, -77.6524, 35.0672
5.58, 5, 33.137, 52.7258, -8.86927, 90.3229, -77.678, 35.0587
5.584, 5, 33.1329, 52.7276, -8.86032, 90.3138, -77.7036, 35.0502
5.588, 5, 33.1288, 52.7295, -8.85135, 90.3047, -77.7293, 35.0416
5.592, 5, 33.1246, 52.7313, -8.84238, 90.2956, -77.7549, 35.0331
5.596, 5, 33.1205, 52.7332, -8.8334, 90.2865, -77.7805, 35.0246
5.6, 5, 33.1164, 52.735, -8.82441, 90.2774, -77.8061, 35.0161
5.604, 5, 33.1123, 52.7368, -8.81541, 90.2683, -77.8317, 35.0075
5.608, 5, 33.1081, 52.7387, -8.8064, 90.2592, -77.8573, 34.999
5.612, 5, 33.104, 52.7405, -8.79739, 90.2501, -77.8829, 34.9905
5.616, 5, 33.0999, 52.7423, -8.78837, 90.241, -77.9085, 34.982
5.62, 5, 33.0958, 52.7441, -8.77933, 90.2319, -77.9342, 34.9734
5.624, 5, 33.0916, 52.7459, -8.77029, 90.2228, -77.9598, 34.9649
5.628, 5, 33.0875, 52.7477, -8.76124, 90.2137, -77.9854, 34.9564
5.632, 5, 33.0833, 52.7494, -8.75218, 90.2045, -78.011, 34.9478
5.636, 5, 33.0792, 52.7512, -8.74311, 90.1954, -78.0366, 34.9393
5.64, 5, 33.075, 52.753, -8.73404, 90.1863, -78.0621, 34.9308
5.644, 5, 33.0709, 52.7548, -8.72495, 90.1771, -78.0877, 34.9223
5.648, 5, 33.0667, 52.7565, -8.71586, 90.168, -78.1133, 34.9137
5.652, 5, 33.0626, 52.7583, -8.70676, 90.1588, -78.1389, 34.9052
5.656, 5, 33.0584, 52.76, -8.69765, 90.1497, -78.1645, 34.8967
5.66, 5, 33.0543, 52.7617, -8.68853, 90.1405, -78.1901, 34.8881
5.664, 5, 33.0501, 52.7635, -8.6794, 90.1313, -78.2157, 34.8796
5.668, 5, 33.0459, 52.7652, -8.67026, 90.1221, -78.2412, 34.8711
5.672, 5, 33.0418, 52.7669, -8.66112, 90.113, -78.2668, 34.8625
5.676, 5, 33.0376, 52.7686, -8.65196, 90.1038, -78.2924, 34.854
5.68, 5, 33.0334, 52.7703, -8.6428, 90.0946, -78.318, 34.8455
5.684, 5, 33.0292, 52.772, -8.63363, 90.0854, -78.3436, 34.8369
5.688, 5, 33.0251, 52.7737, -8.62445, 90.0762, -78.3691, 34.8284
5.692, 5, 33.0209, 52.7754, -8.61526, 90.067, -78.3947, 34.8199
5.696, 5, 33.0167, 52.7771, -8.60607, 90.0577, -78.4203, 34.8113
5.7, 5, 33.0126, 52.7787, -8.59686, 90.0485, -78.4458, 34.8028
5.704, 5, 33.0087, 52.7803, -8.58766, 90.0393, -78.4714, 34.7943
5.708, 5, 33.0049, 52.7818, -8.57846, 90.0301, -78.4969, 34.7857
5.712, 5, 33.0015, 52.7832, -8.56929, 90.0209, -78.5223, 34.7772
5.716, 5, 32.9983, 52.7844, -8.56018, 90.0118, -78.5475, 34.7688
5.72, 5, 32.9955, 52.7854, -8.55116, 90.0028, -78.5725, 34.7605
5.724, 5, 32.993, 52.7863, -8.5423, 89.9939, -78.597, 34.7523
5.728, 5, 32.9907, 52.7871, -8.53366, 89.9852, -78.6209, 34.7443
5.732, 5, 32.9885, 52.7877, -8.52533, 89.9769, -78.644, 34.7365
5.736, 5, 32.9863, 52.7883, -8.51737, 89.9689, -78.666, 34.7292
5.74, 5, 32.9842, 52.7888, -8.50988, 89.9614, -78.6866, 34.7223
5.744, 5, 32.982, 52.7894, -8.50292, 89.9544, -78.7058, 34.7158
5.748, 5, 32.9799, 52.7901, -8.49656, 89.9481, -78.7234, 34.71
