hehonglu123/ABB_Primitive_Study/execution/movec_smooth/curve_exe_v400_z5.csv
timestamp, cmd_num, J1, J2, J3, J4, J5, J6
0, 1, 32.9528, 52.8019, -8.46502, 89.9168, -78.8096, 34.6812
0.002, 1, 32.9528, 52.8019, -8.46502, 89.9168, -78.8096, 34.6812
0.004, 1, 32.9528, 52.8019, -8.46502, 89.9168, -78.8096, 34.6812
0.01, 1, 32.9528, 52.8019, -8.46502, 89.9168, -78.8096, 34.6812
0.012, 1, 32.9528, 52.8019, -8.46502, 89.9168, -78.8096, 34.6812
0.016, 1, 32.9528, 52.8019, -8.46502, 89.9168, -78.8096, 34.6812
0.02, 1, 32.9528, 52.8019, -8.46502, 89.9168, -78.8096, 34.6812
0.024, 1, 32.9528, 52.8019, -8.46502, 89.9168, -78.8096, 34.6812
0.028, 1, 32.9528, 52.8019, -8.46502, 89.9168, -78.8096, 34.6812
0.032, 1, 32.9528, 52.8019, -8.46502, 89.9168, -78.8096, 34.6812
0.036, 1, 32.9529, 52.8019, -8.46502, 89.9168, -78.8096, 34.6812
0.04, 1, 32.9531, 52.8018, -8.46503, 89.9168, -78.8095, 34.6812
0.044, 1, 32.9535, 52.8014, -8.46505, 89.9169, -78.8095, 34.6812
0.048, 1, 32.9543, 52.8006, -8.4651, 89.9169, -78.8093, 34.6813
0.052, 1, 32.9556, 52.7993, -8.46521, 89.917, -78.8088, 34.6814
0.056, 1, 32.9574, 52.7971, -8.46544, 89.9173, -78.8079, 34.6818
0.06, 1, 32.9597, 52.794, -8.46584, 89.9178, -78.8061, 34.6824
0.064, 1, 32.9625, 52.7899, -8.46653, 89.9186, -78.803, 34.6834
0.068, 1, 32.9659, 52.7849, -8.46761, 89.92, -78.798, 34.6852
0.072, 1, 32.9697, 52.7789, -8.46923, 89.922, -78.7905, 34.6877
0.076, 1, 32.9741, 52.7719, -8.47155, 89.925, -78.7796, 34.6915
0.08, 1, 32.9791, 52.7639, -8.47475, 89.9292, -78.7644, 34.6967
0.084, 1, 32.9847, 52.7549, -8.47904, 89.9348, -78.744, 34.7037
0.088, 1, 32.991, 52.7451, -8.48462, 89.9421, -78.7174, 34.7128
0.092, 1, 32.9978, 52.7344, -8.49169, 89.9515, -78.6834, 34.7244
0.096, 1, 33.005, 52.7231, -8.50046, 89.9631, -78.6411, 34.7389
0.1, 1, 33.0126, 52.7112, -8.51109, 89.9773, -78.5897, 34.7566
0.104, 1, 33.0204, 52.699, -8.5237, 89.9942, -78.5285, 34.7775
0.108, 1, 33.0284, 52.6863, -8.53837, 90.0139, -78.4572, 34.802
0.112, 1, 33.0368, 52.673, -8.55512, 90.0364, -78.3757, 34.8299
0.116, 1, 33.0455, 52.6592, -8.57391, 90.0617, -78.2841, 34.8613
0.12, 1, 33.0546, 52.6447, -8.59467, 90.0896, -78.183, 34.896
0.124, 1, 33.0642, 52.6296, -8.61726, 90.12, -78.0728, 34.9337
0.128, 1, 33.0741, 52.6139, -8.64154, 90.1527, -77.9545, 34.9743
0.131, 1, 33.0844, 52.5977, -8.66731, 90.1875, -77.8288, 35.0174
0.136, 1, 33.0949, 52.5809, -8.69437, 90.2239, -77.6968, 35.0627
0.139, 1, 33.1058, 52.5633, -8.72251, 90.2618, -77.5596, 35.1097
0.144, 1, 33.1172, 52.5447, -8.75152, 90.3009, -77.4182, 35.1582
0.148, 1, 33.1293, 52.525, -8.78121, 90.3408, -77.2736, 35.2077
0.152, 1, 33.1421, 52.5041, -8.81138, 90.3814, -77.1267, 35.2581
0.156, 1, 33.1556, 52.4819, -8.8419, 90.4224, -76.9782, 35.309
0.16, 1, 33.17, 52.4586, -8.87265, 90.4637, -76.8286, 35.3603
0.164, 1, 33.1849, 52.4345, -8.90354, 90.5052, -76.6784, 35.4118
0.168, 1, 33.2004, 52.4098, -8.93451, 90.5467, -76.5279, 35.4634
0.172, 1, 33.2161, 52.3847, -8.9655, 90.5883, -76.3772, 35.515
0.176, 1, 33.2321, 52.3594, -8.9965, 90.6299, -76.2265, 35.5667
0.18, 1, 33.2481, 52.334, -9.02749, 90.6715, -76.076, 35.6183
0.184, 1, 33.2643, 52.3084, -9.05844, 90.713, -75.9256, 35.6699
0.188, 1, 33.2805, 52.2828, -9.08935, 90.7545, -75.7754, 35.7214
0.192, 1, 33.2967, 52.2573, -9.12022, 90.7959, -75.6254, 35.7728
0.196, 1, 33.3129, 52.2317, -9.15104, 90.8372, -75.4757, 35.8241
0.2, 1, 33.3291, 52.2061, -9.1818, 90.8785, -75.3262, 35.8753
0.204, 1, 33.3453, 52.1806, -9.21251, 90.9197, -75.177, 35.9265
0.208, 1, 33.3614, 52.1551, -9.24316, 90.9608, -75.028, 35.9775
0.212, 1, 33.3776, 52.1296, -9.27376, 91.0018, -74.8794, 36.0285
0.216, 1, 33.3937, 52.1042, -9.30431, 91.0428, -74.731, 36.0794
0.22, 1, 33.4098, 52.0788, -9.33479, 91.0837, -74.5829, 36.1302
0.224, 1, 33.4258, 52.0535, -9.36522, 91.1245, -74.435, 36.1808
0.228, 1, 33.4419, 52.0282, -9.3956, 91.1652, -74.2874, 36.2314
0.232, 1, 33.4579, 52.003, -9.42592, 91.2059, -74.1401, 36.2819
0.236, 1, 33.4738, 51.9778, -9.45618, 91.2465, -73.9931, 36.3323
0.24, 1, 33.4898, 51.9526, -9.48639, 91.287, -73.8463, 36.3826
0.244, 1, 33.5057, 51.9275, -9.51654, 91.3275, -73.6998, 36.4329
0.248, 1, 33.5216, 51.9025, -9.54664, 91.3678, -73.5536, 36.483
0.252, 1, 33.5374, 51.8774, -9.57668, 91.4081, -73.4076, 36.533
0.256, 1, 33.5533, 51.8525, -9.60667, 91.4483, -73.2619, 36.583
0.26, 1, 33.5691, 51.8276, -9.63661, 91.4885, -73.1165, 36.6328
0.264, 1, 33.5848, 51.8027, -9.66649, 91.5286, -72.9713, 36.6826
0.268, 1, 33.6006, 51.7778, -9.69631, 91.5686, -72.8264, 36.7323
0.272, 1, 33.6163, 51.7531, -9.72609, 91.6085, -72.6817, 36.7819
0.276, 1, 33.632, 51.7283, -9.75581, 91.6484, -72.5373, 36.8314
0.28, 1, 33.6476, 51.7036, -9.78548, 91.6882, -72.3932, 36.8808
0.284, 1, 33.6633, 51.679, -9.81509, 91.7279, -72.2493, 36.9301
0.288, 1, 33.6789, 51.6544, -9.84465, 91.7675, -72.1057, 36.9794
0.292, 1, 33.6945, 51.6298, -9.87416, 91.8071, -71.9623, 37.0285
0.296, 1, 33.71, 51.6053, -9.90362, 91.8466, -71.8191, 37.0776
0.3, 1, 33.7255, 51.5808, -9.93303, 91.8861, -71.6763, 37.1265
0.304, 1, 33.741, 51.5563, -9.96238, 91.9255, -71.5336, 37.1754
0.308, 1, 33.7565, 51.5319, -9.99169, 91.9648, -71.3913, 37.2242
0.312, 1, 33.7719, 51.5076, -10.0209, 92.004, -71.2491, 37.273
0.316, 1, 33.7873, 51.4833, -10.0501, 92.0432, -71.1073, 37.3216
0.32, 1, 33.8027, 51.459, -10.0793, 92.0823, -70.9656, 37.3702
0.324, 1, 33.8181, 51.4348, -10.1084, 92.1213, -70.8242, 37.4186
0.328, 1, 33.8334, 51.4106, -10.1375, 92.1603, -70.6831, 37.467
0.332, 1, 33.8487, 51.3864, -10.1665, 92.1992, -70.5422, 37.5153
0.336, 1, 33.864, 51.3623, -10.1954, 92.238, -70.4015, 37.5636
0.34, 1, 33.8793, 51.3383, -10.2243, 92.2768, -70.261, 37.6117
0.344, 1, 33.8945, 51.3142, -10.2532, 92.3155, -70.1209, 37.6598
0.348, 1, 33.9097, 51.2903, -10.282, 92.3541, -69.9809, 37.7077
0.352, 1, 33.9249, 51.2663, -10.3107, 92.3927, -69.8412, 37.7556
0.356, 1, 33.94, 51.2424, -10.3394, 92.4312, -69.7017, 37.8034
0.36, 1, 33.9552, 51.2186, -10.3681, 92.4696, -69.5624, 37.8512
0.364, 1, 33.9703, 51.1947, -10.3967, 92.508, -69.4234, 37.8988
0.368, 1, 33.9853, 51.171, -10.4253, 92.5463, -69.2846, 37.9464
0.372, 1, 34.0004, 51.1472, -10.4538, 92.5846, -69.1461, 37.9939
0.376, 1, 34.0154, 51.1235, -10.4823, 92.6228, -69.0078, 38.0413
0.38, 1, 34.0304, 51.0998, -10.5107, 92.6609, -68.8697, 38.0887
0.384, 1, 34.0454, 51.0762, -10.5391, 92.6989, -68.7318, 38.1359
0.388, 1, 34.0604, 51.0526, -10.5674, 92.7369, -68.5941, 38.1831
0.392, 1, 34.0753, 51.0291, -10.5957, 92.7749, -68.4567, 38.2302
0.396, 1, 34.0902, 51.0056, -10.6239, 92.8127, -68.3195, 38.2773
0.4, 1, 34.1051, 50.9821, -10.6521, 92.8506, -68.1825, 38.3242
0.404, 1, 34.1199, 50.9587, -10.6803, 92.8883, -68.0458, 38.3711
0.408, 1, 34.1348, 50.9353, -10.7084, 92.926, -67.9093, 38.4179
0.412, 1, 34.1496, 50.9119, -10.7364, 92.9636, -67.773, 38.4646
0.416, 1, 34.1643, 50.8886, -10.7644, 93.0012, -67.6369, 38.5113
0.42, 1, 34.1791, 50.8653, -10.7924, 93.0387, -67.501, 38.5579
0.424, 1, 34.1938, 50.8421, -10.8203, 93.0762, -67.3653, 38.6044
0.428, 1, 34.2086, 50.8189, -10.8482, 93.1136, -67.2299, 38.6508
0.432, 1, 34.2232, 50.7957, -10.876, 93.1509, -67.0947, 38.6971
0.436, 1, 34.2379, 50.7726, -10.9038, 93.1881, -66.9597, 38.7434
0.44, 1, 34.2526, 50.7495, -10.9315, 93.2254, -66.8249, 38.7896
0.444, 1, 34.2672, 50.7264, -10.9592, 93.2625, -66.6903, 38.8358
0.448, 1, 34.2818, 50.7034, -10.9869, 93.2996, -66.5559, 38.8818
0.452, 1, 34.2964, 50.6804, -11.0145, 93.3367, -66.4217, 38.9278
0.456, 1, 34.3109, 50.6574, -11.0421, 93.3736, -66.2878, 38.9738
0.46, 1, 34.3254, 50.6345, -11.0696, 93.4106, -66.154, 39.0196
0.464, 1, 34.3399, 50.6116, -11.0971, 93.4474, -66.0204, 39.0654
0.468, 1, 34.3544, 50.5888, -11.1246, 93.4842, -65.8871, 39.1111
0.472, 1, 34.3689, 50.566, -11.152, 93.521, -65.754, 39.1567
0.476, 1, 34.3833, 50.5432, -11.1793, 93.5577, -65.621, 39.2023
0.48, 1, 34.3978, 50.5204, -11.2066, 93.5943, -65.4883, 39.2478
0.484, 1, 34.4121, 50.4977, -11.2339, 93.6309, -65.3558, 39.2933
0.488, 1, 34.4265, 50.475, -11.2612, 93.6675, -65.2234, 39.3386
0.492, 1, 34.4409, 50.4524, -11.2884, 93.7039, -65.0913, 39.3839
0.496, 1, 34.4552, 50.4298, -11.3155, 93.7404, -64.9594, 39.4291
0.5, 1, 34.4695, 50.4072, -11.3426, 93.7767, -64.8276, 39.4743
0.504, 1, 34.4838, 50.3847, -11.3697, 93.813, -64.6961, 39.5194
0.508, 1, 34.4981, 50.3622, -11.3967, 93.8493, -64.5647, 39.5644
0.512, 1, 34.5123, 50.3397, -11.4237, 93.8855, -64.4336, 39.6094
0.516, 1, 34.5265, 50.3173, -11.4507, 93.9217, -64.3026, 39.6543
0.52, 1, 34.5408, 50.2949, -11.4776, 93.9578, -64.1719, 39.6991
0.524, 1, 34.5549, 50.2725, -11.5045, 93.9938, -64.0413, 39.7439
0.528, 1, 34.5691, 50.2501, -11.5313, 94.0298, -63.9109, 39.7886
0.532, 1, 34.5832, 50.2278, -11.5581, 94.0657, -63.7807, 39.8332
0.536, 1, 34.5974, 50.2056, -11.5848, 94.1016, -63.6507, 39.8777
0.54, 1, 34.6115, 50.1833, -11.6116, 94.1375, -63.5209, 39.9222
0.544, 1, 34.6255, 50.1611, -11.6382, 94.1732, -63.3913, 39.9667
0.548, 1, 34.6396, 50.1389, -11.6649, 94.209, -63.2619, 40.0111
0.552, 1, 34.6536, 50.1168, -11.6915, 94.2447, -63.1326, 40.0554
0.556, 1, 34.6677, 50.0947, -11.718, 94.2803, -63.0036, 40.0996
0.56, 1, 34.6817, 50.0726, -11.7446, 94.3159, -62.8747, 40.1438
0.564, 1, 34.6956, 50.0505, -11.7711, 94.3514, -62.746, 40.1879
0.568, 1, 34.7096, 50.0285, -11.7975, 94.3869, -62.6175, 40.2319
0.572, 1, 34.7235, 50.0065, -11.8239, 94.4223, -62.4892, 40.2759
0.576, 1, 34.7375, 49.9846, -11.8503, 94.4577, -62.361, 40.3199
0.58, 1, 34.7514, 49.9626, -11.8766, 94.493, -62.2331, 40.3637
0.584, 1, 34.7652, 49.9407, -11.9029, 94.5283, -62.1053, 40.4075
0.588, 1, 34.7791, 49.9189, -11.9292, 94.5635, -61.9777, 40.4513
0.592, 1, 34.7929, 49.897, -11.9554, 94.5987, -61.8503, 40.495
0.596, 1, 34.8068, 49.8752, -11.9816, 94.6338, -61.723, 40.5386
0.6, 1, 34.8206, 49.8535, -12.0078, 94.6689, -61.5959, 40.5821
0.604, 1, 34.8343, 49.8317, -12.0339, 94.7039, -61.4691, 40.6256
0.608, 1, 34.8481, 49.81, -12.06, 94.7389, -61.3423, 40.6691
0.612, 1, 34.8618, 49.7883, -12.086, 94.7738, -61.2158, 40.7125
0.616, 1, 34.8756, 49.7667, -12.112, 94.8087, -61.0894, 40.7558
0.62, 1, 34.8893, 49.7451, -12.138, 94.8435, -60.9632, 40.799
0.624, 1, 34.903, 49.7235, -12.1639, 94.8783, -60.8372, 40.8422
0.628, 1, 34.9166, 49.7019, -12.1898, 94.9131, -60.7114, 40.8854
0.632, 1, 34.9303, 49.6804, -12.2157, 94.9478, -60.5857, 40.9284
0.636, 1, 34.9439, 49.6589, -12.2415, 94.9824, -60.4602, 40.9715
0.64, 1, 34.9575, 49.6374, -12.2673, 95.017, -60.3349, 41.0144
0.644, 1, 34.9711, 49.6159, -12.2931, 95.0516, -60.2097, 41.0573
0.648, 1, 34.9847, 49.5945, -12.3188, 95.0861, -60.0847, 41.1002
0.652, 1, 34.9983, 49.5731, -12.3445, 95.1205, -59.9599, 41.143
0.656, 1, 35.0118, 49.5518, -12.3701, 95.1549, -59.8352, 41.1857
0.66, 1, 35.0253, 49.5304, -12.3958, 95.1893, -59.7107, 41.2284
0.664, 1, 35.0388, 49.5091, -12.4214, 95.2236, -59.5864, 41.271
0.668, 1, 35.0523, 49.4879, -12.4469, 95.2579, -59.4622, 41.3136
0.672, 1, 35.0658, 49.4666, -12.4724, 95.2921, -59.3382, 41.3561
0.676, 1, 35.0792, 49.4454, -12.4979, 95.3263, -59.2144, 41.3985
0.68, 1, 35.0927, 49.4242, -12.5234, 95.3605, -59.0907, 41.4409
0.684, 1, 35.1061, 49.4031, -12.5488, 95.3946, -58.9672, 41.4833
0.688, 1, 35.1195, 49.3819, -12.5742, 95.4286, -58.8439, 41.5256
0.692, 1, 35.1329, 49.3608, -12.5995, 95.4626, -58.7207, 41.5678
0.696, 1, 35.1462, 49.3397, -12.6249, 95.4966, -58.5977, 41.61
0.7, 1, 35.1596, 49.3187, -12.6501, 95.5305, -58.4748, 41.6521
0.704, 1, 35.1729, 49.2977, -12.6754, 95.5644, -58.3521, 41.6941
0.708, 1, 35.1862, 49.2767, -12.7006, 95.5982, -58.2296, 41.7361
0.712, 1, 35.1995, 49.2557, -12.7258, 95.632, -58.1072, 41.7781
0.716, 1, 35.2128, 49.2347, -12.751, 95.6657, -57.985, 41.82
0.72, 1, 35.226, 49.2138, -12.7761, 95.6994, -57.8629, 41.8618
0.724, 1, 35.2393, 49.1929, -12.8012, 95.7331, -57.741, 41.9036
0.728, 1, 35.2525, 49.1721, -12.8262, 95.7667, -57.6192, 41.9454
0.732, 1, 35.2657, 49.1512, -12.8513, 95.8003, -57.4976, 41.9871
0.736, 1, 35.2789, 49.1304, -12.8763, 95.8338, -57.3762, 42.0287
0.74, 1, 35.2921, 49.1097, -12.9012, 95.8673, -57.2549, 42.0703
0.744, 1, 35.3052, 49.0889, -12.9262, 95.9007, -57.1338, 42.1118
0.748, 1, 35.3184, 49.0682, -12.9511, 95.9341, -57.0128, 42.1533
0.752, 1, 35.3315, 49.0475, -12.9759, 95.9675, -56.8919, 42.1947
0.756, 1, 35.3446, 49.0268, -13.0008, 96.0008, -56.7712, 42.2361
0.76, 1, 35.3577, 49.0061, -13.0256, 96.0341, -56.6507, 42.2774
0.764, 1, 35.3708, 48.9855, -13.0504, 96.0673, -56.5303, 42.3187
0.768, 1, 35.3838, 48.9649, -13.0751, 96.1005, -56.4101, 42.3599
0.772, 1, 35.3969, 48.9443, -13.0998, 96.1336, -56.29, 42.401
0.776, 1, 35.4099, 48.9238, -13.1245, 96.1667, -56.1701, 42.4422
0.78, 1, 35.4229, 48.9032, -13.1492, 96.1998, -56.0503, 42.4832
0.784, 1, 35.4359, 48.8827, -13.1738, 96.2328, -55.9306, 42.5242
0.788, 1, 35.4489, 48.8623, -13.1984, 96.2658, -55.8112, 42.5652
0.792, 1, 35.4619, 48.8418, -13.2229, 96.2988, -55.6918, 42.6061
0.796, 1, 35.4748, 48.8214, -13.2475, 96.3317, -55.5726, 42.647
0.8, 1, 35.4877, 48.801, -13.272, 96.3646, -55.4535, 42.6878
0.804, 1, 35.5006, 48.7806, -13.2965, 96.3974, -55.3346, 42.7285
0.808, 1, 35.5136, 48.7603, -13.3209, 96.4302, -55.2159, 42.7693
0.812, 1, 35.5264, 48.7399, -13.3453, 96.4629, -55.0972, 42.8099
0.816, 1, 35.5393, 48.7196, -13.3697, 96.4956, -54.9787, 42.8506
0.82, 1, 35.5522, 48.6994, -13.3941, 96.5283, -54.8604, 42.8911
0.824, 1, 35.565, 48.6791, -13.4184, 96.5609, -54.7422, 42.9316
0.828, 1, 35.5778, 48.6589, -13.4427, 96.5935, -54.6241, 42.9721
0.832, 1, 35.5906, 48.6387, -13.467, 96.6261, -54.5062, 43.0125
0.836, 1, 35.6034, 48.6185, -13.4912, 96.6586, -54.3884, 43.0529
0.84, 1, 35.6162, 48.5983, -13.5154, 96.6911, -54.2707, 43.0933
0.844, 1, 35.629, 48.5782, -13.5396, 96.7235, -54.1532, 43.1335
0.848, 1, 35.6417, 48.5581, -13.5638, 96.7559, -54.0358, 43.1738
0.852, 1, 35.6545, 48.538, -13.5879, 96.7883, -53.9186, 43.214
0.856, 1, 35.6672, 48.5179, -13.612, 96.8206, -53.8015, 43.2541
0.86, 1, 35.6799, 48.4979, -13.6361, 96.8529, -53.6845, 43.2942
0.864, 1, 35.6925, 48.4779, -13.6601, 96.8852, -53.5677, 43.3343
0.868, 1, 35.7051, 48.458, -13.6841, 96.9174, -53.451, 43.3743
0.872, 1, 35.7176, 48.4381, -13.7081, 96.9496, -53.3345, 43.4142
0.876, 1, 35.73, 48.4184, -13.7321, 96.9817, -53.2181, 43.4541
0.88, 1, 35.7419, 48.3992, -13.756, 97.0137, -53.102, 43.4939
0.884, 1, 35.7533, 48.3805, -13.7798, 97.0457, -52.9863, 43.5336
0.888, 1, 35.7641, 48.3627, -13.8035, 97.0775, -52.8712, 43.5731
0.892, 1, 35.7742, 48.3457, -13.8269, 97.109, -52.757, 43.6122
0.896, 1, 35.7836, 48.3297, -13.8501, 97.1401, -52.6444, 43.6508
0.9, 1, 35.7924, 48.3145, -13.8728, 97.1706, -52.534, 43.6887
0.904, 1, 35.8007, 48.3002, -13.895, 97.2003, -52.4264, 43.7256
0.908, 1, 35.8087, 48.2866, -13.9163, 97.229, -52.3226, 43.7613
0.912, 1, 35.8164, 48.2736, -13.9367, 97.2564, -52.2234, 43.7953
0.916, 1, 35.8238, 48.2613, -13.956, 97.2823, -52.1296, 43.8275
0.92, 1, 35.8309, 48.2497, -13.9741, 97.3065, -52.042, 43.8576
0.924, 1, 35.8377, 48.2387, -13.9907, 97.3288, -51.9612, 43.8853
0.928, 1, 35.8442, 48.2281, -14.0057, 97.3491, -51.888, 43.9104
0.932, 1, 35.8507, 48.2178, -14.0192, 97.3671, -51.8226, 43.9328
0.936, 1, 35.8571, 48.2077, -14.031, 97.3829, -51.7653, 43.9524
0.94, 1, 35.8634, 48.1979, -14.0412, 97.3966, -51.716, 43.9693
0.944, 1, 35.8695, 48.1884, -14.0498, 97.4081, -51.6743, 43.9836
0.948, 1, 35.8755, 48.1793, -14.0569, 97.4175, -51.6399, 43.9954
0.952, 2, 35.8812, 48.1708, -14.0626, 97.4252, -51.612, 44.0049
0.956, 2, 35.8865, 48.1631, -14.0672, 97.4313, -51.5899, 44.0124
0.96, 2, 35.8915, 48.1562, -14.0707, 97.436, -51.5728, 44.0183
0.964, 2, 35.896, 48.1502, -14.0734, 97.4396, -51.5598, 44.0227
0.968, 2, 35.9001, 48.145, -14.0754, 97.4422, -51.5503, 44.0259
0.972, 2, 35.9037, 48.1406, -14.0768, 97.4441, -51.5433, 44.0283
0.976, 2, 35.9067, 48.1371, -14.0778, 97.4454, -51.5385, 44.0299
0.98, 2, 35.9091, 48.1343, -14.0785, 97.4463, -51.5351, 44.0311
0.984, 2, 35.911, 48.1323, -14.079, 97.4469, -51.5327, 44.0319
0.988, 2, 35.9123, 48.1308, -14.0793, 97.4474, -51.5312, 44.0324
0.992, 2, 35.9132, 48.1299, -14.0796, 97.4477, -51.5301, 44.0328
0.996, 2, 35.9138, 48.1292, -14.0797, 97.4479, -51.5294, 44.033
1, 2, 35.9142, 48.1287, -14.0798, 97.448, -51.5289, 44.0332
1.004, 2, 35.9145, 48.1284, -14.0799, 97.4481, -51.5285, 44.0333
1.008, 2, 35.9147, 48.1282, -14.0799, 97.4482, -51.5283, 44.0334
1.012, 2, 35.9149, 48.1281, -14.08, 97.4482, -51.5282, 44.0334
1.016, 2, 35.9149, 48.128, -14.08, 97.4482, -51.5281, 44.0335
1.02, 2, 35.915, 48.1279, -14.08, 97.4482, -51.528, 44.0335
1.024, 2, 35.915, 48.1279, -14.08, 97.4483, -51.5279, 44.0335
1.027, 2, 35.9151, 48.1278, -14.08, 97.4483, -51.5279, 44.0335
1.032, 2, 35.9151, 48.1278, -14.08, 97.4483, -51.5279, 44.0335
1.036, 2, 35.9151, 48.1278, -14.08, 97.4483, -51.5279, 44.0335
1.04, 2, 35.9151, 48.1278, -14.08, 97.4483, -51.5279, 44.0335
1.044, 2, 35.9151, 48.1278, -14.08, 97.4483, -51.5279, 44.0335
1.048, 2, 35.9151, 48.1278, -14.08, 97.4483, -51.5279, 44.0335
1.052, 2, 35.9151, 48.1278, -14.08, 97.4483, -51.5278, 44.0335
1.055, 2, 35.9151, 48.1278, -14.08, 97.4483, -51.5278, 44.0335
1.06, 2, 35.9151, 48.1278, -14.08, 97.4483, -51.5278, 44.0335
1.064, 2, 35.9151, 48.1278, -14.08, 97.4483, -51.5278, 44.0335
1.068, 2, 35.9151, 48.1278, -14.08, 97.4483, -51.5278, 44.0335
1.072, 2, 35.9151, 48.1278, -14.08, 97.4483, -51.5278, 44.0335
1.076, 2, 35.9151, 48.1278, -14.08, 97.4483, -51.5278, 44.0335
1.08, 2, 35.9151, 48.1278, -14.08, 97.4483, -51.5278, 44.0335
1.084, 2, 35.9151, 48.1278, -14.08, 97.4483, -51.5278, 44.0335
1.088, 2, 35.9151, 48.1278, -14.08, 97.4483, -51.5278, 44.0335
1.091, 2, 35.9151, 48.1278, -14.08, 97.4483, -51.5278, 44.0335
1.096, 2, 35.9151, 48.1278, -14.08, 97.4483, -51.5278, 44.0335
1.1, 2, 35.9151, 48.1278, -14.08, 97.4483, -51.5278, 44.0335
1.104, 2, 35.9151, 48.1278, -14.08, 97.4483, -51.5278, 44.0335
1.108, 2, 35.9151, 48.1278, -14.08, 97.4483, -51.5278, 44.0335
1.112, 2, 35.9151, 48.1278, -14.08, 97.4483, -51.5278, 44.0335
1.116, 2, 35.9151, 48.1278, -14.08, 97.4483, -51.5278, 44.0335
1.119, 2, 35.9151, 48.1278, -14.08, 97.4483, -51.5278, 44.0335
1.124, 2, 35.9151, 48.1278, -14.08, 97.4483, -51.5278, 44.0335
1.128, 2, 35.9151, 48.1278, -14.08, 97.4483, -51.5278, 44.0335
1.132, 2, 35.9151, 48.1278, -14.08, 97.4483, -51.5278, 44.0335
1.136, 2, 35.9151, 48.1278, -14.08, 97.4483, -51.5278, 44.0335
1.14, 2, 35.9151, 48.1278, -14.08, 97.4483, -51.5278, 44.0335
1.144, 2, 35.9151, 48.1278, -14.08, 97.4483, -51.5278, 44.0335
1.147, 2, 35.9151, 48.1278, -14.08, 97.4483, -51.5278, 44.0335
1.152, 2, 35.9151, 48.1278, -14.08, 97.4483, -51.5278, 44.0335
1.156, 2, 35.9151, 48.1278, -14.08, 97.4483, -51.5278, 44.0335
1.16, 2, 35.9151, 48.1278, -14.08, 97.4483, -51.5278, 44.0335
1.164, 2, 35.9151, 48.1278, -14.08, 97.4483, -51.5278, 44.0335
1.168, 2, 35.9151, 48.1278, -14.08, 97.4483, -51.5278, 44.0335
1.172, 2, 35.9151, 48.1278, -14.08, 97.4483, -51.5278, 44.0335
1.175, 2, 35.9151, 48.1278, -14.08, 97.4483, -51.5278, 44.0335
1.18, 2, 35.9151, 48.1278, -14.08, 97.4483, -51.5278, 44.0335
1.184, 2, 35.9151, 48.1278, -14.08, 97.4483, -51.5278, 44.0335
1.188, 2, 35.9151, 48.1278, -14.08, 97.4483, -51.5278, 44.0335
1.192, 2, 35.9151, 48.1278, -14.08, 97.4483, -51.5278, 44.0335
1.196, 2, 35.9151, 48.1278, -14.08, 97.4483, -51.5278, 44.0335
1.2, 2, 35.9151, 48.1278, -14.08, 97.4483, -51.5278, 44.0335
1.204, 2, 35.9151, 48.1278, -14.08, 97.4483, -51.5278, 44.0335
1.208, 2, 35.9151, 48.1278, -14.08, 97.4483, -51.5278, 44.0335
1.212, 2, 35.9151, 48.1278, -14.08, 97.4483, -51.5278, 44.0335
1.216, 2, 35.9151, 48.1278, -14.08, 97.4483, -51.5278, 44.0335
1.22, 2, 35.9151, 48.1278, -14.08, 97.4483, -51.5278, 44.0335
1.224, 2, 35.9151, 48.1278, -14.08, 97.4483, -51.5278, 44.0335
1.228, 2, 35.9151, 48.1278, -14.08, 97.4483, -51.5278, 44.0335
1.232, 2, 35.9151, 48.1278, -14.08, 97.4483, -51.5278, 44.0335
1.236, 2, 35.9151, 48.1278, -14.08, 97.4483, -51.5278, 44.0335
1.24, 2, 35.9151, 48.1278, -14.08, 97.4483, -51.5278, 44.0335
1.244, 2, 35.9151, 48.1278, -14.08, 97.4483, -51.5278, 44.0335
1.248, 2, 35.9151, 48.1278, -14.08, 97.4483, -51.5278, 44.0335
1.252, 2, 35.9151, 48.1278, -14.08, 97.4483, -51.5278, 44.0335
1.256, 2, 35.9151, 48.1278, -14.08, 97.4483, -51.5278, 44.0335
1.26, 2, 35.9151, 48.1278, -14.08, 97.4483, -51.5278, 44.0335
1.264, 2, 35.9151, 48.1278, -14.08, 97.4483, -51.5278, 44.0335
1.267, 2, 35.9151, 48.1278, -14.08, 97.4483, -51.5278, 44.0335
1.272, 2, 35.9151, 48.1278, -14.08, 97.4483, -51.5278, 44.0335
1.276, 2, 35.9151, 48.1278, -14.08, 97.4483, -51.5278, 44.0335
1.28, 2, 35.9151, 48.1278, -14.08, 97.4483, -51.5278, 44.0335
1.284, 2, 35.9151, 48.1278, -14.08, 97.4483, -51.5278, 44.0335
1.288, 2, 35.9151, 48.1278, -14.08, 97.4483, -51.5278, 44.0335
1.292, 2, 35.9151, 48.1278, -14.08, 97.4483, -51.5278, 44.0335
1.295, 2, 35.9151, 48.1278, -14.08, 97.4483, -51.5278, 44.0335
1.3, 2, 35.9151, 48.1278, -14.08, 97.4483, -51.5278, 44.0335
1.304, 2, 35.9151, 48.1278, -14.08, 97.4483, -51.5278, 44.0335
1.308, 2, 35.9151, 48.1278, -14.08, 97.4483, -51.5278, 44.0335
1.312, 2, 35.9151, 48.1278, -14.08, 97.4483, -51.5278, 44.0335
1.316, 2, 35.9151, 48.1278, -14.08, 97.4483, -51.5278, 44.0335
1.32, 2, 35.9151, 48.1278, -14.08, 97.4483, -51.5278, 44.0335
1.324, 2, 35.9151, 48.1278, -14.08, 97.4483, -51.5278, 44.0335
1.328, 2, 35.9151, 48.1278, -14.08, 97.4483, -51.5278, 44.0335
1.332, 2, 35.9151, 48.1278, -14.08, 97.4483, -51.5278, 44.0335
1.336, 2, 35.9151, 48.1278, -14.08, 97.4483, -51.5278, 44.0335
1.34, 2, 35.9151, 48.1278, -14.08, 97.4483, -51.5278, 44.0335
1.344, 2, 35.9151, 48.1278, -14.08, 97.4483, -51.5278, 44.0335
1.348, 2, 35.9151, 48.1278, -14.08, 97.4483, -51.5278, 44.0335
1.352, 2, 35.9151, 48.1278, -14.08, 97.4483, -51.5278, 44.0335
1.356, 2, 35.9151, 48.1278, -14.08, 97.4483, -51.5278, 44.0335
1.36, 2, 35.9151, 48.1278, -14.08, 97.4483, -51.5278, 44.0335
1.364, 2, 35.9151, 48.1278, -14.08, 97.4483, -51.5278, 44.0335
1.368, 2, 35.9151, 48.1278, -14.08, 97.4483, -51.5278, 44.0335
1.372, 2, 35.9151, 48.1278, -14.08, 97.4483, -51.5278, 44.0335
1.376, 2, 35.9151, 48.1278, -14.08, 97.4483, -51.5278, 44.0335
1.38, 2, 35.9151, 48.1278, -14.08, 97.4483, -51.5278, 44.0335
1.384, 2, 35.9151, 48.1278, -14.08, 97.4483, -51.5278, 44.0335
1.388, 2, 35.9151, 48.1278, -14.08, 97.4483, -51.5278, 44.0335
1.392, 2, 35.9151, 48.1278, -14.08, 97.4483, -51.5278, 44.0335
1.396, 2, 35.9151, 48.1278, -14.08, 97.4483, -51.5278, 44.0335
1.4, 2, 35.9151, 48.1278, -14.08, 97.4483, -51.5278, 44.0335
1.404, 2, 35.9151, 48.1278, -14.08, 97.4483, -51.5278, 44.0335
1.408, 2, 35.9151, 48.1278, -14.08, 97.4483, -51.5278, 44.0335
1.412, 2, 35.9151, 48.1278, -14.08, 97.4483, -51.5278, 44.0335
1.416, 2, 35.9151, 48.1278, -14.08, 97.4483, -51.5278, 44.0335
1.42, 2, 35.9151, 48.1278, -14.08, 97.4483, -51.5278, 44.0335
1.424, 2, 35.9151, 48.1278, -14.08, 97.4483, -51.5278, 44.0335
1.428, 2, 35.9151, 48.1278, -14.08, 97.4483, -51.5278, 44.0335
1.432, 2, 35.9151, 48.1278, -14.08, 97.4483, -51.5278, 44.0335
1.436, 2, 35.9151, 48.1278, -14.08, 97.4483, -51.5278, 44.0335
1.44, 2, 35.9151, 48.1278, -14.08, 97.4483, -51.5278, 44.0335
1.444, 2, 35.9151, 48.1278, -14.08, 97.4483, -51.5278, 44.0335
1.448, 2, 35.9151, 48.1278, -14.08, 97.4483, -51.5278, 44.0335
1.452, 3, 35.9151, 48.1278, -14.08, 97.4483, -51.5278, 44.0335
1.456, 3, 35.9151, 48.1278, -14.08, 97.4483, -51.5278, 44.0335
1.46, 3, 35.9151, 48.1278, -14.08, 97.4483, -51.5278, 44.0335
1.464, 3, 35.9151, 48.1278, -14.08, 97.4483, -51.5278, 44.0335
1.468, 3, 35.9151, 48.1278, -14.08, 97.4483, -51.5278, 44.0335
1.472, 3, 35.9151, 48.1278, -14.08, 97.4483, -51.5278, 44.0335
1.476, 3, 35.9151, 48.1278, -14.08, 97.4483, -51.5278, 44.0335
1.48, 3, 35.9151, 48.1278, -14.08, 97.4483, -51.5278, 44.0335
1.484, 3, 35.9151, 48.1278, -14.08, 97.4483, -51.5278, 44.0335
1.488, 3, 35.9151, 48.1278, -14.08, 97.4483, -51.5278, 44.0335
1.492, 3, 35.9151, 48.1278, -14.08, 97.4483, -51.5278, 44.0335
1.496, 3, 35.9151, 48.1278, -14.08, 97.4483, -51.5278, 44.0335
1.5, 3, 35.9151, 48.1278, -14.08, 97.4483, -51.5278, 44.0335
1.504, 3, 35.9151, 48.1278, -14.08, 97.4483, -51.5278, 44.0335
1.508, 4, 35.9151, 48.1278, -14.08, 97.4483, -51.5278, 44.0335
1.512, 4, 35.9151, 48.1278, -14.08, 97.4483, -51.5278, 44.0335
1.516, 5, 35.9151, 48.1278, -14.08, 97.4483, -51.5278, 44.0335
1.52, 5, 35.9151, 48.1278, -14.08, 97.4483, -51.5278, 44.0335
1.524, 5, 35.9151, 48.1278, -14.08, 97.4483, -51.5278, 44.0335
1.528, 5, 35.9151, 48.1278, -14.08, 97.4483, -51.5278, 44.0335
1.532, 5, 35.9151, 48.1278, -14.08, 97.4483, -51.5278, 44.0335
1.536, 5, 35.9151, 48.1278, -14.08, 97.4483, -51.5278, 44.0335
1.54, 5, 35.9151, 48.1278, -14.08, 97.4483, -51.5278, 44.0335
1.544, 5, 35.9151, 48.1278, -14.08, 97.4483, -51.5278, 44.0335
1.548, 5, 35.915, 48.128, -14.08, 97.4483, -51.5279, 44.0335
1.552, 5, 35.9148, 48.1283, -14.08, 97.4483, -51.5279, 44.0335
1.556, 5, 35.9144, 48.1291, -14.08, 97.4483, -51.5281, 44.0334
1.56, 5, 35.9137, 48.1303, -14.08, 97.4482, -51.5284, 44.0333
1.564, 5, 35.9128, 48.1322, -14.0799, 97.4481, -51.5292, 44.033
1.568, 5, 35.9115, 48.1347, -14.0798, 97.4478, -51.5306, 44.0325
1.572, 5, 35.91, 48.138, -14.0797, 97.4474, -51.533, 44.0316
1.576, 5, 35.9082, 48.1421, -14.0795, 97.4468, -51.5369, 44.0301
1.58, 5, 35.9062, 48.1471, -14.0792, 97.4458, -51.5427, 44.0279
1.584, 5, 35.904, 48.1531, -14.0787, 97.4444, -51.5512, 44.0247
1.588, 5, 35.9016, 48.1601, -14.0781, 97.4425, -51.5628, 44.0202
1.592, 5, 35.899, 48.1684, -14.0773, 97.4398, -51.5784, 44.0143
1.596, 5, 35.8962, 48.1778, -14.0762, 97.4364, -51.5987, 44.0066
1.6, 5, 35.8932, 48.1882, -14.0749, 97.432, -51.6243, 43.9968
1.604, 5, 35.8902, 48.1996, -14.0732, 97.4266, -51.656, 43.9848
1.608, 5, 35.8872, 48.2118, -14.0712, 97.42, -51.6942, 43.9702
1.612, 5, 35.8843, 48.2248, -14.0688, 97.4122, -51.7394, 43.953
1.616, 5, 35.8814, 48.2385, -14.066, 97.4031, -51.7919, 43.9331
1.62, 5, 35.8785, 48.2529, -14.0628, 97.3927, -51.8515, 43.9105
1.624, 5, 35.8756, 48.2683, -14.0591, 97.381, -51.9181, 43.8853
1.628, 5, 35.8726, 48.2847, -14.0551, 97.3681, -51.9914, 43.8575
1.632, 5, 35.8695, 48.302, -14.0506, 97.354, -52.0709, 43.8274
1.636, 5, 35.8662, 48.3204, -14.0458, 97.3389, -52.1561, 43.7952
1.64, 5, 35.8629, 48.3397, -14.0406, 97.3228, -52.2463, 43.7612
1.644, 5, 35.8594, 48.3599, -14.035, 97.3058, -52.3407, 43.7256
1.648, 5, 35.8557, 48.381, -14.0292, 97.288, -52.4388, 43.6887
1.652, 5, 35.8517, 48.4031, -14.023, 97.2696, -52.5396, 43.6507
1.656, 5, 35.8475, 48.4262, -14.0166, 97.2507, -52.6427, 43.612
1.66, 5, 35.8428, 48.4502, -14.01, 97.2314, -52.7475, 43.5728
1.664, 5, 35.8378, 48.4751, -14.0031, 97.2117, -52.8534, 43.5331
1.668, 5, 35.8324, 48.5007, -13.9961, 97.1917, -52.9601, 43.4933
1.672, 5, 35.8268, 48.5269, -13.9888, 97.1715, -53.0674, 43.4533
1.676, 5, 35.8209, 48.5535, -13.9814, 97.1511, -53.175, 43.4132
1.68, 5, 35.8148, 48.5803, -13.9739, 97.1305, -53.2828, 43.3731
1.684, 5, 35.8086, 48.6072, -13.9661, 97.1097, -53.3907, 43.3331
1.688, 5, 35.8023, 48.6342, -13.9582, 97.0887, -53.4987, 43.2931
1.692, 5, 35.796, 48.6613, -13.9502, 97.0676, -53.6068, 43.2531
1.696, 5, 35.7895, 48.6883, -13.942, 97.0463, -53.7148, 43.2132
1.7, 5, 35.783, 48.7152, -13.9336, 97.0248, -53.8228, 43.1734
1.704, 5, 35.7764, 48.7421, -13.9251, 97.0033, -53.9308, 43.1337
1.708, 5, 35.7697, 48.7689, -13.9164, 96.9816, -54.0387, 43.094
1.712, 5, 35.763, 48.7957, -13.9076, 96.9597, -54.1466, 43.0544
1.716, 5, 35.7563, 48.8224, -13.8986, 96.9377, -54.2545, 43.0149
1.72, 5, 35.7495, 48.849, -13.8895, 96.9155, -54.3623, 42.9755
1.724, 5, 35.7426, 48.8755, -13.8802, 96.8932, -54.4701, 42.9361
1.728, 5, 35.7357, 48.902, -13.8707, 96.8708, -54.5778, 42.8969
1.732, 5, 35.7288, 48.9283, -13.8611, 96.8482, -54.6854, 42.8577
1.736, 5, 35.7217, 48.9546, -13.8513, 96.8255, -54.793, 42.8186
1.74, 5, 35.7147, 48.9807, -13.8414, 96.8027, -54.9005, 42.7795
1.744, 5, 35.7076, 49.0068, -13.8313, 96.7797, -55.008, 42.7406
1.748, 5, 35.7004, 49.0328, -13.8211, 96.7566, -55.1154, 42.7017
1.752, 5, 35.6932, 49.0587, -13.8107, 96.7334, -55.2228, 42.6629
1.756, 5, 35.686, 49.0846, -13.8002, 96.71, -55.3301, 42.6242
1.76, 5, 35.6787, 49.1103, -13.7895, 96.6865, -55.4374, 42.5855
1.764, 5, 35.6713, 49.1359, -13.7786, 96.6628, -55.5446, 42.547
1.768, 5, 35.6639, 49.1615, -13.7676, 96.6391, -55.6518, 42.5085
1.772, 5, 35.6564, 49.1869, -13.7564, 96.6151, -55.7589, 42.47
1.776, 5, 35.6489, 49.2123, -13.7451, 96.5911, -55.8659, 42.4317
1.78, 5, 35.6414, 49.2376, -13.7336, 96.5669, -55.9729, 42.3934
1.784, 5, 35.6338, 49.2628, -13.722, 96.5427, -56.0798, 42.3552
1.788, 5, 35.6261, 49.2879, -13.7102, 96.5182, -56.1867, 42.317
1.792, 5, 35.6184, 49.3129, -13.6982, 96.4937, -56.2935, 42.279
1.796, 5, 35.6107, 49.3378, -13.6861, 96.469, -56.4003, 42.2409
1.8, 5, 35.6029, 49.3627, -13.6739, 96.4442, -56.507, 42.203
1.804, 5, 35.595, 49.3874, -13.6615, 96.4193, -56.6137, 42.1651
1.808, 5, 35.5871, 49.412, -13.6489, 96.3942, -56.7203, 42.1273
1.812, 5, 35.5792, 49.4366, -13.6362, 96.3691, -56.8268, 42.0896
1.816, 5, 35.5712, 49.4611, -13.6233, 96.3438, -56.9333, 42.0519
1.82, 5, 35.5631, 49.4855, -13.6102, 96.3183, -57.0398, 42.0143
1.824, 5, 35.5551, 49.5097, -13.597, 96.2928, -57.1462, 41.9767
1.828, 5, 35.5469, 49.5339, -13.5837, 96.2671, -57.2525, 41.9393
1.832, 5, 35.5387, 49.558, -13.5702, 96.2413, -57.3588, 41.9018
1.836, 5, 35.5305, 49.582, -13.5565, 96.2154, -57.4651, 41.8645
1.84, 5, 35.5222, 49.606, -13.5427, 96.1894, -57.5713, 41.8272
1.844, 5, 35.5139, 49.6298, -13.5288, 96.1633, -57.6774, 41.79
1.848, 5, 35.5055, 49.6535, -13.5146, 96.137, -57.7835, 41.7528
1.852, 5, 35.4971, 49.6772, -13.5004, 96.1106, -57.8895, 41.7157
1.856, 5, 35.4886, 49.7007, -13.4859, 96.0841, -57.9955, 41.6786
1.86, 5, 35.48, 49.7242, -13.4713, 96.0575, -58.1014, 41.6416
1.864, 5, 35.4715, 49.7475, -13.4566, 96.0307, -58.2073, 41.6047
1.868, 5, 35.4628, 49.7708, -13.4417, 96.0039, -58.3131, 41.5678
1.872, 5, 35.4542, 49.794, -13.4266, 95.9769, -58.4188, 41.531
1.876, 5, 35.4454, 49.817, -13.4114, 95.9498, -58.5246, 41.4942
1.88, 5, 35.4367, 49.84, -13.3961, 95.9226, -58.6302, 41.4575
1.884, 5, 35.4279, 49.8629, -13.3805, 95.8953, -58.7358, 41.4208
1.888, 5, 35.419, 49.8857, -13.3649, 95.8679, -58.8414, 41.3842
1.892, 5, 35.4101, 49.9084, -13.349, 95.8403, -58.9469, 41.3476
1.896, 5, 35.4011, 49.9311, -13.3331, 95.8127, -59.0524, 41.3111
1.9, 5, 35.3921, 49.9536, -13.3169, 95.7849, -59.1578, 41.2747
1.904, 5, 35.3831, 49.976, -13.3006, 95.757, -59.2631, 41.2383
1.908, 5, 35.374, 49.9983, -13.2842, 95.729, -59.3684, 41.202
1.912, 5, 35.3648, 50.0206, -13.2676, 95.7009, -59.4737, 41.1657
1.916, 5, 35.3556, 50.0427, -13.2508, 95.6727, -59.5789, 41.1294
1.92, 5, 35.3464, 50.0648, -13.2339, 95.6444, -59.684, 41.0932
1.924, 5, 35.3371, 50.0867, -13.2168, 95.616, -59.7891, 41.0571
1.928, 5, 35.3277, 50.1086, -13.1996, 95.5874, -59.8942, 41.021
1.932, 5, 35.3184, 50.1303, -13.1822, 95.5588, -59.9992, 40.9849
1.936, 5, 35.3089, 50.152, -13.1647, 95.53, -60.1041, 40.9489
1.94, 5, 35.2994, 50.1736, -13.147, 95.5011, -60.209, 40.913
1.944, 5, 35.2899, 50.195, -13.1292, 95.4722, -60.3139, 40.8771
1.948, 5, 35.2803, 50.2164, -13.1112, 95.4431, -60.4187, 40.8412
1.952, 5, 35.2707, 50.2377, -13.093, 95.4139, -60.5234, 40.8054
1.956, 5, 35.261, 50.2589, -13.0747, 95.3846, -60.6281, 40.7696
1.96, 5, 35.2513, 50.28, -13.0562, 95.3552, -60.7327, 40.7339
1.964, 5, 35.2416, 50.301, -13.0376, 95.3258, -60.8373, 40.6982
1.968, 5, 35.2317, 50.3219, -13.0188, 95.2962, -60.9419, 40.6625
1.972, 5, 35.2219, 50.3427, -12.9999, 95.2665, -61.0464, 40.6269
1.976, 5, 35.212, 50.3634, -12.9808, 95.2366, -61.1508, 40.5914
1.98, 5, 35.202, 50.384, -12.9616, 95.2067, -61.2552, 40.5558
1.984, 5, 35.192, 50.4045, -12.9422, 95.1767, -61.3596, 40.5204
1.988, 5, 35.182, 50.4249, -12.9226, 95.1466, -61.4638, 40.4849
1.992, 5, 35.1719, 50.4452, -12.9029, 95.1164, -61.5681, 40.4495
1.996, 5, 35.1617, 50.4654, -12.883, 95.0861, -61.6723, 40.4141
1.999, 5, 35.1515, 50.4855, -12.863, 95.0557, -61.7764, 40.3788
2.004, 5, 35.1413, 50.5055, -12.8428, 95.0252, -61.8805, 40.3435
2.008, 5, 35.131, 50.5254, -12.8225, 94.9946, -61.9846, 40.3083
2.012, 5, 35.1207, 50.5452, -12.802, 94.9639, -62.0886, 40.2731
2.015, 5, 35.1103, 50.565, -12.7814, 94.9331, -62.1925, 40.2379
2.019, 5, 35.0999, 50.5846, -12.7606, 94.9022, -62.2964, 40.2027
2.024, 5, 35.0894, 50.6041, -12.7396, 94.8712, -62.4003, 40.1676
2.028, 5, 35.0789, 50.6235, -12.7185, 94.8401, -62.5041, 40.1325
2.031, 5, 35.0683, 50.6428, -12.6972, 94.8089, -62.6078, 40.0975
2.036, 5, 35.0577, 50.662, -12.6758, 94.7776, -62.7115, 40.0625
2.04, 5, 35.0471, 50.6811, -12.6542, 94.7462, -62.8152, 40.0275
2.044, 5, 35.0364, 50.7002, -12.6324, 94.7147, -62.9188, 39.9926
2.048, 5, 35.0256, 50.7191, -12.6105, 94.6832, -63.0223, 39.9577
2.051, 5, 35.0148, 50.7379, -12.5885, 94.6515, -63.1258, 39.9228
2.055, 5, 35.004, 50.7566, -12.5663, 94.6197, -63.2293, 39.8879
2.06, 5, 34.9931, 50.7752, -12.5439, 94.5879, -63.3327, 39.8531
2.064, 5, 34.9821, 50.7937, -12.5214, 94.5559, -63.4361, 39.8183
2.068, 5, 34.9711, 50.8121, -12.4987, 94.5239, -63.5394, 39.7836
2.071, 5, 34.9601, 50.8304, -12.4758, 94.4918, -63.6426, 39.7488
2.076, 5, 34.9491, 50.8486, -12.4528, 94.4595, -63.7459, 39.7141
2.08, 5, 34.938, 50.8668, -12.4297, 94.4272, -63.849, 39.6794
2.084, 5, 34.9269, 50.8848, -12.4064, 94.3949, -63.9522, 39.6448
2.087, 5, 34.9158, 50.9028, -12.383, 94.3624, -64.0553, 39.6101
2.092, 5, 34.9047, 50.9207, -12.3595, 94.33, -64.1583, 39.5755
2.096, 5, 34.8936, 50.9386, -12.336, 94.2975, -64.2614, 39.5408
2.1, 5, 34.8825, 50.9564, -12.3124, 94.2651, -64.3645, 39.5062
2.104, 5, 34.8715, 50.9743, -12.2888, 94.2329, -64.4676, 39.4715
2.107, 5, 34.8604, 50.9921, -12.2653, 94.2008, -64.5709, 39.4367
2.111, 5, 34.8493, 51.01, -12.2419, 94.1689, -64.6742, 39.4019
2.116, 5, 34.8382, 51.0278, -12.2186, 94.1374, -64.7777, 39.367
2.12, 5, 34.827, 51.0457, -12.1956, 94.1063, -64.8814, 39.332
2.124, 5, 34.8158, 51.0637, -12.1728, 94.0756, -64.9852, 39.2968
2.127, 5, 34.8045, 51.0817, -12.1503, 94.0454, -65.0894, 39.2615
2.132, 5, 34.7931, 51.0997, -12.1281, 94.0157, -65.1937, 39.2261
2.136, 5, 34.7816, 51.1178, -12.1062, 93.9866, -65.2983, 39.1905
2.14, 5, 34.77, 51.136, -12.0847, 93.958, -65.4032, 39.1548
2.143, 5, 34.7583, 51.1542, -12.0634, 93.9299, -65.5083, 39.1189
2.148, 5, 34.7466, 51.1724, -12.0424, 93.9023, -65.6137, 39.0829
2.152, 5, 34.7348, 51.1907, -12.0217, 93.8752, -65.7193, 39.0468
2.156, 5, 34.7229, 51.2091, -12.0012, 93.8483, -65.825, 39.0106
2.16, 5, 34.7111, 51.2275, -11.9808, 93.8218, -65.9309, 38.9744
2.163, 5, 34.6992, 51.2458, -11.9606, 93.7955, -66.0369, 38.9381
2.168, 5, 34.6873, 51.2642, -11.9404, 93.7694, -66.143, 38.9018
2.172, 5, 34.6754, 51.2826, -11.9202, 93.7433, -66.2491, 38.8654
2.176, 5, 34.6635, 51.3009, -11.9001, 93.7173, -66.3553, 38.8291
2.179, 5, 34.6517, 51.3193, -11.8799, 93.6913, -66.4615, 38.7928
2.184, 5, 34.6398, 51.3375, -11.8596, 93.6653, -66.5677, 38.7565
2.188, 5, 34.6279, 51.3557, -11.8392, 93.6392, -66.6738, 38.7202
2.192, 5, 34.616, 51.3739, -11.8186, 93.613, -66.78, 38.684
2.196, 5, 34.6041, 51.3919, -11.798, 93.5867, -66.8861, 38.6478
2.199, 5, 34.5922, 51.4099, -11.7772, 93.5603, -66.9922, 38.6117
2.204, 5, 34.5802, 51.4278, -11.7563, 93.5339, -67.0982, 38.5756
2.208, 5, 34.5682, 51.4456, -11.7352, 93.5073, -67.2042, 38.5395
2.212, 5, 34.5561, 51.4633, -11.714, 93.4806, -67.3102, 38.5035
2.216, 5, 34.544, 51.4809, -11.6927, 93.4538, -67.4161, 38.4676
2.219, 5, 34.5318, 51.4984, -11.6712, 93.4269, -67.522, 38.4317
2.224, 5, 34.5196, 51.5158, -11.6496, 93.3999, -67.6279, 38.3958
2.228, 5, 34.5074, 51.5331, -11.6278, 93.3728, -67.7337, 38.36
2.232, 5, 34.4951, 51.5503, -11.6058, 93.3455, -67.8395, 38.3242
2.235, 5, 34.4828, 51.5675, -11.5837, 93.3182, -67.9453, 38.2884
2.24, 5, 34.4704, 51.5845, -11.5615, 93.2908, -68.051, 38.2527
2.244, 5, 34.458, 51.6014, -11.5391, 93.2632, -68.1567, 38.2171
2.248, 5, 34.4455, 51.6183, -11.5166, 93.2355, -68.2623, 38.1815
2.252, 5, 34.433, 51.635, -11.4939, 93.2077, -68.3679, 38.1459
2.255, 5, 34.4204, 51.6516, -11.471, 93.1799, -68.4735, 38.1103
2.259, 5, 34.4078, 51.6682, -11.4481, 93.1519, -68.579, 38.0748
2.264, 5, 34.3952, 51.6846, -11.4249, 93.1238, -68.6845, 38.0394
2.268, 5, 34.3825, 51.701, -11.4016, 93.0956, -68.7899, 38.004
2.272, 5, 34.3698, 51.7172, -11.3782, 93.0673, -68.8953, 37.9686
2.275, 5, 34.357, 51.7334, -11.3546, 93.0388, -69.0007, 37.9332
2.28, 5, 34.3441, 51.7494, -11.3309, 93.0103, -69.1061, 37.8979
2.284, 5, 34.3313, 51.7654, -11.307, 92.9817, -69.2114, 37.8626
2.288, 5, 34.3184, 51.7812, -11.283, 92.9529, -69.3166, 37.8274
2.291, 5, 34.3054, 51.797, -11.2588, 92.9241, -69.4219, 37.7922
2.296, 5, 34.2924, 51.8126, -11.2345, 92.8951, -69.5271, 37.757
2.3, 5, 34.2793, 51.8282, -11.2101, 92.8661, -69.6322, 37.7219
2.304, 5, 34.2662, 51.8436, -11.1854, 92.8369, -69.7373, 37.6868
2.308, 5, 34.2531, 51.859, -11.1607, 92.8077, -69.8424, 37.6517
2.311, 5, 34.2399, 51.8743, -11.1358, 92.7783, -69.9475, 37.6167
2.316, 5, 34.2267, 51.8894, -11.1107, 92.7489, -70.0525, 37.5817
2.32, 5, 34.2134, 51.9045, -11.0855, 92.7193, -70.1574, 37.5467
2.324, 5, 34.2001, 51.9194, -11.0602, 92.6896, -70.2624, 37.5117
2.328, 5, 34.1867, 51.9343, -11.0347, 92.6599, -70.3673, 37.4768
2.331, 5, 34.1733, 51.9491, -11.009, 92.63, -70.4721, 37.4419
2.336, 5, 34.1599, 51.9637, -10.9832, 92.6, -70.577, 37.4071
2.34, 5, 34.1464, 51.9783, -10.9573, 92.5699, -70.6817, 37.3723
2.344, 5, 34.1328, 51.9928, -10.9312, 92.5398, -70.7865, 37.3375
2.347, 5, 34.1192, 52.0071, -10.905, 92.5095, -70.8912, 37.3027
2.352, 5, 34.1056, 52.0214, -10.8786, 92.4791, -70.9959, 37.2679
2.356, 5, 34.0919, 52.0356, -10.8521, 92.4486, -71.1005, 37.2332
2.36, 5, 34.0782, 52.0496, -10.8254, 92.4181, -71.2052, 37.1985
2.364, 5, 34.0645, 52.0636, -10.7986, 92.3874, -71.3097, 37.1639
2.367, 5, 34.0507, 52.0774, -10.7716, 92.3566, -71.4143, 37.1292
2.372, 5, 34.0368, 52.0912, -10.7445, 92.3257, -71.5188, 37.0946
2.376, 5, 34.0229, 52.1049, -10.7172, 92.2948, -71.6232, 37.06
2.38, 5, 34.009, 52.1184, -10.6898, 92.2637, -71.7277, 37.0254
2.383, 5, 33.995, 52.1319, -10.6623, 92.2326, -71.8321, 36.9909
2.388, 5, 33.981, 52.1452, -10.6346, 92.2013, -71.9364, 36.9564
2.392, 5, 33.9669, 52.1585, -10.6067, 92.1699, -72.0407, 36.9219
2.396, 5, 33.9528, 52.1716, -10.5787, 92.1385, -72.145, 36.8874
2.4, 5, 33.9386, 52.1847, -10.5506, 92.1069, -72.2493, 36.8529
2.403, 5, 33.9244, 52.1976, -10.5223, 92.0753, -72.3535, 36.8185
2.408, 5, 33.9102, 52.2105, -10.4939, 92.0436, -72.4577, 36.7841
2.412, 5, 33.8959, 52.2232, -10.4653, 92.0117, -72.5618, 36.7497
2.416, 5, 33.8816, 52.2359, -10.4366, 91.9798, -72.666, 36.7153
2.42, 5, 33.8672, 52.2484, -10.4077, 91.9478, -72.77, 36.6809
2.423, 5, 33.8528, 52.2608, -10.3787, 91.9157, -72.8741, 36.6466
2.428, 5, 33.8383, 52.2732, -10.3495, 91.8835, -72.9781, 36.6122
2.432, 5, 33.8238, 52.2854, -10.3202, 91.8512, -73.0821, 36.5779
2.436, 5, 33.8093, 52.2975, -10.2907, 91.8188, -73.186, 36.5436
2.439, 5, 33.7947, 52.3095, -10.2611, 91.7863, -73.2899, 36.5093
2.444, 5, 33.78, 52.3215, -10.2314, 91.7537, -73.3938, 36.4751
2.448, 5, 33.7654, 52.3333, -10.2015, 91.721, -73.4976, 36.4408
2.452, 5, 33.7506, 52.345, -10.1714, 91.6882, -73.6014, 36.4066
2.456, 5, 33.7359, 52.3566, -10.1412, 91.6554, -73.7052, 36.3724
2.459, 5, 33.7211, 52.3681, -10.1109, 91.6224, -73.8089, 36.3382
2.464, 5, 33.7062, 52.3795, -10.0804, 91.5894, -73.9126, 36.3039
2.468, 5, 33.6913, 52.3908, -10.0498, 91.5563, -74.0163, 36.2698
2.472, 5, 33.6764, 52.4019, -10.019, 91.523, -74.1199, 36.2356
2.476, 5, 33.6614, 52.413, -9.98811, 91.4897, -74.2235, 36.2014
2.479, 5, 33.6464, 52.424, -9.95704, 91.4563, -74.327, 36.1673
2.484, 5, 33.6313, 52.4349, -9.92583, 91.4228, -74.4305, 36.1331
2.488, 5, 33.6162, 52.4456, -9.89447, 91.3893, -74.534, 36.099
2.492, 5, 33.601, 52.4563, -9.86296, 91.3556, -74.6375, 36.0648
2.495, 5, 33.5858, 52.4668, -9.83131, 91.3218, -74.7409, 36.0307
2.5, 5, 33.5706, 52.4773, -9.79951, 91.288, -74.8443, 35.9966
2.504, 5, 33.5553, 52.4876, -9.76757, 91.2541, -74.9477, 35.9625
2.508, 5, 33.5399, 52.4979, -9.73548, 91.22, -75.051, 35.9284
2.512, 5, 33.5246, 52.508, -9.70324, 91.1859, -75.1543, 35.8943
2.515, 5, 33.5092, 52.518, -9.67086, 91.1517, -75.2575, 35.8602
2.52, 5, 33.4937, 52.5279, -9.63834, 91.1174, -75.3607, 35.8262
2.524, 5, 33.4782, 52.5377, -9.60567, 91.0831, -75.4639, 35.7921
2.528, 5, 33.4627, 52.5474, -9.57285, 91.0486, -75.5671, 35.758
2.531, 5, 33.4471, 52.557, -9.53989, 91.014, -75.6702, 35.7239
2.536, 5, 33.4314, 52.5665, -9.50679, 90.9794, -75.7733, 35.6899
2.54, 5, 33.4158, 52.5759, -9.47354, 90.9447, -75.8763, 35.6558
2.544, 5, 33.4, 52.5852, -9.44014, 90.9098, -75.9794, 35.6217
2.548, 5, 33.3843, 52.5943, -9.40661, 90.8749, -76.0824, 35.5877
2.551, 5, 33.3685, 52.6034, -9.37293, 90.84, -76.1853, 35.5536
2.556, 5, 33.3526, 52.6124, -9.33911, 90.8049, -76.2883, 35.5196
2.56, 5, 33.3368, 52.6212, -9.30514, 90.7697, -76.3912, 35.4855
2.564, 5, 33.3208, 52.63, -9.27104, 90.7345, -76.494, 35.4514
2.568, 5, 33.3049, 52.6386, -9.23679, 90.6991, -76.5969, 35.4174
2.571, 5, 33.2888, 52.6471, -9.2024, 90.6637, -76.6997, 35.3833
2.576, 5, 33.2728, 52.6556, -9.16786, 90.6282, -76.8024, 35.3493
2.58, 5, 33.2567, 52.6639, -9.13319, 90.5926, -76.9052, 35.3152
2.584, 5, 33.2407, 52.672, -9.09838, 90.5569, -77.0079, 35.2811
2.587, 5, 33.2248, 52.6801, -9.06344, 90.5212, -77.1105, 35.2471
2.592, 5, 33.2091, 52.6879, -9.02837, 90.4854, -77.2131, 35.213
2.596, 5, 33.1937, 52.6955, -8.99321, 90.4495, -77.3155, 35.179
2.6, 5, 33.1786, 52.7027, -8.95797, 90.4136, -77.4178, 35.1451
2.604, 5, 33.1641, 52.7095, -8.92272, 90.3778, -77.5196, 35.1112
2.607, 5, 33.1501, 52.7158, -8.88754, 90.342, -77.6209, 35.0775
2.612, 5, 33.1367, 52.7213, -8.85254, 90.3065, -77.7213, 35.0441
2.616, 5, 33.1239, 52.7261, -8.81787, 90.2713, -77.8204, 35.0111
2.62, 5, 33.1117, 52.7302, -8.78373, 90.2368, -77.9177, 34.9787
2.624, 5, 33.1, 52.7336, -8.75036, 90.203, -78.0126, 34.9471
2.627, 5, 33.089, 52.7365, -8.718, 90.1703, -78.1042, 34.9165
2.632, 5, 33.0784, 52.739, -8.68693, 90.1389, -78.192, 34.8872
2.636, 5, 33.0683, 52.7414, -8.65743, 90.1091, -78.2751, 34.8595
2.64, 5, 33.0586, 52.7438, -8.62979, 90.0812, -78.3528, 34.8336
2.643, 5, 33.0492, 52.7464, -8.60422, 90.0555, -78.4245, 34.8096
2.648, 5, 33.0403, 52.7493, -8.58094, 90.0321, -78.4896, 34.7879
2.652, 5, 33.0316, 52.7525, -8.56007, 90.0111, -78.5479, 34.7684
2.656, 5, 33.0232, 52.7561, -8.54168, 89.9927, -78.599, 34.7514
2.66, 5, 33.0151, 52.7601, -8.52578, 89.9768, -78.6431, 34.7366
2.663, 5, 33.0075, 52.7644, -8.51231, 89.9633, -78.6804, 34.7242
2.668, 5, 33.0002, 52.769, -8.50113, 89.9522, -78.7113, 34.7139
