hehonglu123/ABB_Primitive_Study/execution/movec_smooth/curve_exe_v500_z20.csv
timestamp, cmd_num, J1, J2, J3, J4, J5, J6
0, -1, -17.7491, 35.9016, 27.5363, -15.3564, -94.4966, 7.85923
0.002, -1, -17.7491, 35.9016, 27.5363, -15.3564, -94.4966, 7.85923
0.004, -1, -17.7491, 35.9016, 27.5363, -15.3564, -94.4966, 7.85923
0.01, -1, -17.7491, 35.9016, 27.5363, -15.3564, -94.4966, 7.85923
0.012, -1, -17.7491, 35.9016, 27.5363, -15.3564, -94.4966, 7.85923
0.016, -1, -17.7491, 35.9016, 27.5363, -15.3564, -94.4966, 7.85923
0.02, -1, -17.7491, 35.9016, 27.5363, -15.3564, -94.4966, 7.85923
0.024, -1, -17.7491, 35.9016, 27.5363, -15.3564, -94.4966, 7.85923
0.028, -1, -17.7491, 35.9016, 27.5363, -15.3564, -94.4966, 7.85923
0.032, -1, -17.7491, 35.9016, 27.5363, -15.3564, -94.4966, 7.85923
0.036, -1, -17.7491, 35.9016, 27.5363, -15.3564, -94.4966, 7.85923
0.04, -1, -17.749, 35.9016, 27.5363, -15.3564, -94.4966, 7.85923
0.044, -1, -17.7488, 35.9015, 27.5363, -15.3564, -94.4966, 7.85922
0.048, -1, -17.7482, 35.9013, 27.5363, -15.3564, -94.4966, 7.85921
0.052, -1, -17.7471, 35.9008, 27.5364, -15.3563, -94.4965, 7.85915
0.056, -1, -17.7453, 35.9, 27.5365, -15.3562, -94.4963, 7.85903
0.06, -1, -17.7428, 35.8988, 27.5367, -15.3558, -94.4958, 7.85875
0.064, -1, -17.7394, 35.8971, 27.5369, -15.3551, -94.4949, 7.85824
0.068, -1, -17.7351, 35.8948, 27.5372, -15.3539, -94.4934, 7.85735
0.072, -1, -17.7298, 35.892, 27.5374, -15.3519, -94.491, 7.85592
0.076, -1, -17.7233, 35.8884, 27.5377, -15.3489, -94.4872, 7.85373
0.08, -1, -17.7153, 35.884, 27.5379, -15.3445, -94.4817, 7.85055
0.084, -1, -17.7057, 35.8785, 27.5381, -15.3382, -94.474, 7.84608
0.088, -1, -17.6941, 35.8719, 27.5381, -15.3297, -94.4634, 7.83999
0.092, -1, -17.6802, 35.864, 27.538, -15.3184, -94.4494, 7.83193
0.096, -1, -17.6638, 35.8547, 27.5377, -15.3037, -94.4314, 7.82151
0.1, -1, -17.6449, 35.8439, 27.537, -15.2851, -94.4084, 7.80831
0.104, -1, -17.6232, 35.8316, 27.5359, -15.262, -94.3799, 7.79193
0.108, -1, -17.5984, 35.8175, 27.5344, -15.2337, -94.3452, 7.77197
0.112, -1, -17.5704, 35.8016, 27.5323, -15.1999, -94.3035, 7.74804
0.116, -1, -17.5389, 35.7838, 27.5296, -15.1599, -94.2544, 7.71981
0.12, -1, -17.504, 35.764, 27.5263, -15.1134, -94.1971, 7.68696
0.124, -1, -17.4656, 35.7423, 27.5223, -15.0599, -94.1314, 7.64925
0.128, -1, -17.4237, 35.7187, 27.5174, -14.9992, -94.0569, 7.60649
0.131, -1, -17.3785, 35.6931, 27.5118, -14.9313, -93.9734, 7.5586
0.136, -1, -17.3299, 35.6657, 27.5054, -14.856, -93.8809, 7.50556
0.139, -1, -17.2779, 35.6365, 27.4982, -14.7734, -93.7795, 7.44747
0.144, -1, -17.2225, 35.6054, 27.4903, -14.684, -93.6697, 7.38449
0.148, -1, -17.1638, 35.5724, 27.4817, -14.588, -93.5517, 7.3169
0.152, -1, -17.1017, 35.5375, 27.4724, -14.4858, -93.4263, 7.245
0.156, -1, -17.0365, 35.5009, 27.4626, -14.378, -93.2939, 7.16916
0.16, -1, -16.9683, 35.4626, 27.4524, -14.2653, -93.1554, 7.08978
0.164, -1, -16.8974, 35.4228, 27.4417, -14.1481, -93.0115, 7.0073
0.168, -1, -16.8239, 35.3815, 27.4308, -14.027, -92.8629, 6.92213
0.172, -1, -16.7481, 35.3389, 27.4196, -13.9028, -92.7103, 6.8347
0.176, -1, -16.6699, 35.2949, 27.4082, -13.776, -92.5546, 6.74543
0.18, -1, -16.5897, 35.2497, 27.3968, -13.6471, -92.3962, 6.65467
0.184, -1, -16.5077, 35.2034, 27.3854, -13.5166, -92.2358, 6.56273
0.188, -1, -16.424, 35.1561, 27.3739, -13.3847, -92.0739, 6.46989
0.192, -1, -16.3388, 35.1081, 27.3625, -13.2519, -91.9107, 6.37635
0.196, -1, -16.2526, 35.0593, 27.3511, -13.1184, -91.7466, 6.28227
0.2, -1, -16.1654, 35.0101, 27.3397, -12.9842, -91.5818, 6.18779
0.204, -1, -16.0774, 34.9604, 27.3284, -12.8497, -91.4165, 6.09298
0.208, -1, -15.9889, 34.9105, 27.317, -12.7147, -91.2507, 5.99793
0.212, -1, -15.8998, 34.8603, 27.3056, -12.5795, -91.0846, 5.90267
0.216, -1, -15.8104, 34.8099, 27.2943, -12.4441, -90.9181, 5.80723
0.22, -1, -15.7206, 34.7594, 27.2829, -12.3084, -90.7514, 5.71165
0.224, -1, -15.6306, 34.7087, 27.2715, -12.1726, -90.5845, 5.61595
0.228, -1, -15.5405, 34.658, 27.2601, -12.0366, -90.4174, 5.52012
0.232, -1, -15.4502, 34.6071, 27.2487, -11.9004, -90.2501, 5.42418
0.236, -1, -15.3598, 34.5563, 27.2373, -11.7641, -90.0826, 5.32814
0.24, -1, -15.2692, 34.5053, 27.2259, -11.6277, -89.9149, 5.23201
0.244, -1, -15.1786, 34.4543, 27.2145, -11.4911, -89.7471, 5.13578
0.248, -1, -15.0879, 34.4033, 27.2031, -11.3544, -89.5792, 5.03946
0.252, -1, -14.997, 34.3521, 27.1916, -11.2176, -89.411, 4.94306
0.256, -1, -14.9061, 34.301, 27.1802, -11.0806, -89.2428, 4.84657
0.26, -1, -14.8152, 34.2498, 27.1687, -10.9436, -89.0744, 4.75
0.264, -1, -14.7241, 34.1986, 27.1573, -10.8064, -88.9058, 4.65336
0.268, -1, -14.633, 34.1473, 27.1458, -10.6691, -88.7371, 4.55664
0.272, -1, -14.5418, 34.096, 27.1343, -10.5318, -88.5683, 4.45985
0.276, -1, -14.4505, 34.0446, 27.1228, -10.3943, -88.3994, 4.36298
0.28, -1, -14.3592, 33.9932, 27.1113, -10.2567, -88.2304, 4.26605
0.284, -1, -14.2678, 33.9418, 27.0998, -10.119, -88.0612, 4.16905
0.288, -1, -14.1763, 33.8904, 27.0883, -9.98128, -87.8919, 4.07199
0.292, -1, -14.0848, 33.8389, 27.0768, -9.84344, -87.7226, 3.97487
0.296, -1, -13.9933, 33.7873, 27.0652, -9.70552, -87.5531, 3.8777
0.3, -1, -13.9017, 33.7358, 27.0537, -9.56751, -87.3835, 3.78046
0.304, -1, -13.81, 33.6842, 27.0422, -9.42944, -87.2139, 3.68317
0.308, -1, -13.7183, 33.6326, 27.0306, -9.29129, -87.0441, 3.58584
0.312, -1, -13.6265, 33.581, 27.0191, -9.15307, -86.8743, 3.48845
0.316, -1, -13.5347, 33.5293, 27.0075, -9.01478, -86.7043, 3.39102
0.32, -1, -13.4429, 33.4776, 26.9959, -8.87644, -86.5343, 3.29354
0.324, -1, -13.351, 33.4259, 26.9844, -8.73803, -86.3643, 3.19602
0.328, -1, -13.2591, 33.3742, 26.9728, -8.59957, -86.1941, 3.09847
0.332, -1, -13.1672, 33.3225, 26.9612, -8.46107, -86.0239, 3.00088
0.336, -1, -13.0752, 33.2707, 26.9496, -8.32251, -85.8537, 2.90325
0.34, -1, -12.9832, 33.219, 26.938, -8.18391, -85.6834, 2.8056
0.344, -1, -12.8912, 33.1672, 26.9264, -8.04527, -85.513, 2.70792
0.348, -1, -12.7991, 33.1154, 26.9148, -7.9066, -85.3426, 2.61021
0.352, -1, -12.7071, 33.0636, 26.9032, -7.7679, -85.1722, 2.51248
0.356, -1, -12.615, 33.0118, 26.8916, -7.62917, -85.0017, 2.41474
0.36, -1, -12.5229, 32.9599, 26.88, -7.49042, -84.8312, 2.31698
0.364, -1, -12.4308, 32.9081, 26.8684, -7.35165, -84.6607, 2.2192
0.368, -1, -12.3387, 32.8563, 26.8568, -7.21286, -84.4902, 2.12142
0.372, -1, -12.2466, 32.8044, 26.8452, -7.07407, -84.3197, 2.02362
0.376, -1, -12.1545, 32.7526, 26.8336, -6.93527, -84.1491, 1.92583
0.38, -1, -12.0623, 32.7007, 26.822, -6.79647, -83.9786, 1.82803
0.384, -1, -11.9702, 32.6489, 26.8104, -6.65767, -83.808, 1.73024
0.388, -1, -11.8781, 32.5971, 26.7988, -6.51889, -83.6375, 1.63245
0.392, -1, -11.786, 32.5452, 26.7872, -6.38011, -83.4669, 1.53467
0.396, -1, -11.6939, 32.4934, 26.7756, -6.24135, -83.2964, 1.4369
0.4, -1, -11.6018, 32.4416, 26.764, -6.10261, -83.126, 1.33915
0.404, -1, -11.5097, 32.3898, 26.7524, -5.96389, -82.9555, 1.24141
0.408, -1, -11.4177, 32.338, 26.7408, -5.8252, -82.7851, 1.14369
0.412, -1, -11.3256, 32.2862, 26.7292, -5.68655, -82.6147, 1.046
0.416, -1, -11.2336, 32.2344, 26.7176, -5.54793, -82.4444, 0.948334
0.42, -1, -11.1416, 32.1826, 26.706, -5.40936, -82.2741, 0.850697
0.424, -1, -11.0497, 32.1309, 26.6945, -5.27083, -82.1039, 0.753093
0.428, -1, -10.9577, 32.0792, 26.6829, -5.13235, -81.9337, 0.655523
0.432, -1, -10.8658, 32.0275, 26.6713, -4.99393, -81.7636, 0.557993
0.436, -1, -10.774, 31.9758, 26.6597, -4.85556, -81.5936, 0.460503
0.44, -1, -10.6822, 31.9241, 26.6482, -4.71726, -81.4237, 0.363058
0.444, -1, -10.5904, 31.8725, 26.6366, -4.57903, -81.2538, 0.26566
0.448, -1, -10.4986, 31.8209, 26.625, -4.44086, -81.0841, 0.168312
0.452, -1, -10.4069, 31.7693, 26.6135, -4.30277, -80.9144, 0.0710176
0.456, -1, -10.3153, 31.7178, 26.602, -4.16477, -80.7448, -0.0262211
0.46, -1, -10.2237, 31.6662, 26.5904, -4.02684, -80.5753, -0.123401
0.464, -1, -10.1322, 31.6148, 26.5789, -3.889, -80.406, -0.220519
0.468, -1, -10.0407, 31.5633, 26.5674, -3.75126, -80.2367, -0.317573
0.472, -1, -9.9493, 31.5119, 26.5559, -3.61361, -80.0676, -0.41456
0.476, -1, -9.85796, 31.4605, 26.5444, -3.47605, -79.8985, -0.511477
0.48, -1, -9.76668, 31.4092, 26.5329, -3.3386, -79.7296, -0.60832
0.484, -1, -9.67548, 31.3579, 26.5214, -3.20126, -79.5609, -0.705089
0.488, -1, -9.58434, 31.3066, 26.5099, -3.06403, -79.3923, -0.801779
0.492, -1, -9.49329, 31.2554, 26.4984, -2.92692, -79.2238, -0.898388
0.496, -1, -9.4023, 31.2042, 26.487, -2.78992, -79.0554, -0.994913
0.5, -1, -9.31141, 31.1531, 26.4755, -2.65305, -78.8872, -1.09135
0.504, -1, -9.22059, 31.102, 26.4641, -2.5163, -78.7192, -1.1877
0.508, -1, -9.12986, 31.051, 26.4527, -2.37968, -78.5513, -1.28396
0.512, -1, -9.03921, 31, 26.4413, -2.2432, -78.3836, -1.38013
0.516, -1, -8.94865, 30.9491, 26.4299, -2.10685, -78.2161, -1.47619
0.52, -1, -8.85819, 30.8982, 26.4185, -1.97064, -78.0487, -1.57216
0.524, -1, -8.76782, 30.8474, 26.4071, -1.83458, -77.8815, -1.66803
0.528, -1, -8.67755, 30.7966, 26.3957, -1.69867, -77.7145, -1.7638
0.532, -1, -8.58737, 30.7459, 26.3844, -1.5629, -77.5477, -1.85945
0.536, -1, -8.4973, 30.6952, 26.373, -1.42729, -77.3811, -1.955
0.54, -1, -8.40733, 30.6446, 26.3617, -1.29183, -77.2146, -2.05044
0.544, -1, -8.31746, 30.5941, 26.3504, -1.15654, -77.0484, -2.14577
0.548, -1, -8.22771, 30.5436, 26.3391, -1.02141, -76.8823, -2.24098
0.552, -1, -8.13806, 30.4932, 26.3278, -0.886442, -76.7165, -2.33608
0.556, -1, -8.04852, 30.4428, 26.3165, -0.751646, -76.5509, -2.43105
0.56, -1, -7.9591, 30.3925, 26.3053, -0.617022, -76.3854, -2.5259
0.564, -1, -7.86979, 30.3423, 26.294, -0.482572, -76.2202, -2.62064
0.568, -1, -7.7806, 30.2921, 26.2828, -0.348301, -76.0552, -2.71524
0.572, -1, -7.69153, 30.2421, 26.2716, -0.21421, -75.8905, -2.80972
0.576, -1, -7.60258, 30.192, 26.2604, -0.0803022, -75.7259, -2.90407
0.58, -1, -7.51375, 30.1421, 26.2492, 0.0534192, -75.5616, -2.99829
0.584, -1, -7.42505, 30.0922, 26.2381, 0.186952, -75.3975, -3.09237
0.588, -1, -7.33647, 30.0424, 26.2269, 0.320293, -75.2337, -3.18632
0.592, -1, -7.24802, 29.9926, 26.2158, 0.45344, -75.0701, -3.28014
0.596, -1, -7.1597, 29.943, 26.2047, 0.58639, -74.9067, -3.37381
0.6, -1, -7.07152, 29.8934, 26.1936, 0.719142, -74.7436, -3.46735
0.604, -1, -6.98346, 29.8438, 26.1825, 0.851691, -74.5807, -3.56074
0.608, -1, -6.89554, 29.7944, 26.1714, 0.984037, -74.4181, -3.65399
0.612, -1, -6.80776, 29.745, 26.1604, 1.11618, -74.2557, -3.74709
0.616, -1, -6.72011, 29.6957, 26.1493, 1.24811, -74.0936, -3.84005
0.62, -1, -6.63261, 29.6465, 26.1383, 1.37983, -73.9318, -3.93285
0.624, -1, -6.54524, 29.5974, 26.1273, 1.51133, -73.7702, -4.02551
0.628, -1, -6.45802, 29.5484, 26.1163, 1.64262, -73.6089, -4.11802
0.632, -1, -6.37094, 29.4994, 26.1054, 1.7737, -73.4478, -4.21037
0.636, -1, -6.28401, 29.4505, 26.0944, 1.90455, -73.287, -4.30257
0.64, -1, -6.19722, 29.4017, 26.0835, 2.03518, -73.1265, -4.39461
0.644, -1, -6.11058, 29.353, 26.0726, 2.16559, -72.9663, -4.48649
0.648, -1, -6.02409, 29.3043, 26.0617, 2.29577, -72.8063, -4.57822
0.652, -1, -5.93775, 29.2558, 26.0509, 2.42572, -72.6466, -4.66978
0.656, -1, -5.85156, 29.2073, 26.04, 2.55545, -72.4872, -4.76118
0.66, -1, -5.76553, 29.1589, 26.0292, 2.68494, -72.3281, -4.85242
0.664, -1, -5.67965, 29.1106, 26.0184, 2.8142, -72.1693, -4.94349
0.668, -1, -5.59392, 29.0624, 26.0076, 2.94322, -72.0107, -5.0344
0.672, -1, -5.50836, 29.0143, 25.9968, 3.07201, -71.8525, -5.12514
0.676, -1, -5.42294, 28.9663, 25.9861, 3.20056, -71.6945, -5.21572
0.68, -1, -5.33769, 28.9183, 25.9753, 3.32887, -71.5368, -5.30612
0.684, -1, -5.2526, 28.8705, 25.9646, 3.45693, -71.3795, -5.39636
0.688, -1, -5.16767, 28.8227, 25.954, 3.58476, -71.2224, -5.48642
0.692, -1, -5.0829, 28.7751, 25.9433, 3.71233, -71.0657, -5.57631
0.696, -1, -4.9983, 28.7275, 25.9326, 3.83967, -70.9092, -5.66602
0.7, -1, -4.91386, 28.68, 25.922, 3.96675, -70.753, -5.75557
0.704, -1, -4.82958, 28.6326, 25.9114, 4.09359, -70.5972, -5.84493
0.708, -1, -4.74547, 28.5853, 25.9008, 4.22017, -70.4416, -5.93412
0.712, -1, -4.66153, 28.5381, 25.8903, 4.3465, -70.2864, -6.02313
0.716, -1, -4.57775, 28.491, 25.8797, 4.47258, -70.1315, -6.11197
0.72, -1, -4.49414, 28.444, 25.8692, 4.59841, -69.9769, -6.20062
0.724, -1, -4.4107, 28.3971, 25.8587, 4.72398, -69.8226, -6.2891
0.728, -1, -4.32743, 28.3502, 25.8482, 4.84929, -69.6686, -6.37739
0.732, -1, -4.24433, 28.3035, 25.8378, 4.97435, -69.5149, -6.4655
0.736, -1, -4.1614, 28.2569, 25.8273, 5.09914, -69.3616, -6.55343
0.74, -1, -4.07864, 28.2104, 25.8169, 5.22368, -69.2086, -6.64118
0.744, -1, -3.99605, 28.1639, 25.8065, 5.34796, -69.0559, -6.72874
0.748, -1, -3.91363, 28.1176, 25.7962, 5.47197, -68.9035, -6.81612
0.752, -1, -3.83139, 28.0713, 25.7858, 5.59573, -68.7514, -6.90332
0.756, -1, -3.74932, 28.0252, 25.7755, 5.71922, -68.5997, -6.99033
0.76, -1, -3.66742, 27.9791, 25.7652, 5.84245, -68.4482, -7.07716
0.764, -1, -3.58569, 27.9332, 25.7549, 5.96542, -68.2971, -7.1638
0.768, -1, -3.50414, 27.8873, 25.7447, 6.08812, -68.1464, -7.25026
0.772, -1, -3.42277, 27.8416, 25.7344, 6.21056, -67.9959, -7.33653
0.776, -1, -3.34156, 27.7959, 25.7242, 6.33274, -67.8458, -7.42261
0.78, -1, -3.26053, 27.7503, 25.714, 6.45465, -67.696, -7.50851
0.784, -1, -3.17968, 27.7049, 25.7038, 6.57631, -67.5465, -7.59423
0.788, -1, -3.099, 27.6595, 25.6937, 6.69769, -67.3973, -7.67975
0.792, -1, -3.0185, 27.6143, 25.6836, 6.81882, -67.2485, -7.7651
0.796, -1, -2.93816, 27.5691, 25.6735, 6.93968, -67.1, -7.85026
0.8, -1, -2.85801, 27.524, 25.6634, 7.06028, -66.9518, -7.93523
0.804, -1, -2.77803, 27.479, 25.6533, 7.18061, -66.8039, -8.02001
0.808, -1, -2.69822, 27.4342, 25.6433, 7.30068, -66.6564, -8.10461
0.812, -1, -2.61859, 27.3894, 25.6333, 7.42049, -66.5092, -8.18903
0.816, -1, -2.53913, 27.3447, 25.6233, 7.54004, -66.3623, -8.27326
0.82, -1, -2.45984, 27.3001, 25.6133, 7.65932, -66.2157, -8.35731
0.824, -1, -2.38073, 27.2557, 25.6034, 7.77834, -66.0695, -8.44117
0.828, -1, -2.3018, 27.2113, 25.5934, 7.8971, -65.9235, -8.52484
0.832, -1, -2.22303, 27.167, 25.5835, 8.0156, -65.7779, -8.60833
0.836, -1, -2.14444, 27.1228, 25.5736, 8.13383, -65.6327, -8.69164
0.84, -1, -2.06603, 27.0787, 25.5638, 8.25181, -65.4877, -8.77477
0.844, -1, -1.98779, 27.0347, 25.5539, 8.36952, -65.343, -8.8577
0.848, -1, -1.90972, 26.9908, 25.5441, 8.48697, -65.1987, -8.94046
0.852, -1, -1.83182, 26.947, 25.5343, 8.60416, -65.0547, -9.02303
0.856, -1, -1.7541, 26.9033, 25.5246, 8.7211, -64.911, -9.10542
0.86, -1, -1.67655, 26.8597, 25.5148, 8.83777, -64.7677, -9.18763
0.864, -1, -1.59917, 26.8162, 25.5051, 8.95418, -64.6246, -9.26965
0.868, -1, -1.52196, 26.7728, 25.4954, 9.07033, -64.4819, -9.35149
0.872, -1, -1.44493, 26.7295, 25.4857, 9.18623, -64.3395, -9.43315
0.876, -1, -1.36806, 26.6863, 25.476, 9.30186, -64.1974, -9.51462
0.88, -1, -1.29137, 26.6432, 25.4664, 9.41724, -64.0556, -9.59592
0.884, -1, -1.21485, 26.6001, 25.4567, 9.53236, -63.9142, -9.67703
0.888, -1, -1.1385, 26.5572, 25.4471, 9.64723, -63.773, -9.75796
0.892, -1, -1.06232, 26.5144, 25.4376, 9.76183, -63.6322, -9.83871
0.896, -1, -0.986311, 26.4716, 25.428, 9.87618, -63.4917, -9.91928
0.9, -1, -0.910471, 26.429, 25.4185, 9.99028, -63.3515, -9.99967
0.904, -1, -0.8348, 26.3864, 25.409, 10.1041, -63.2116, -10.0799
0.908, -1, -0.759299, 26.344, 25.3995, 10.2177, -63.0721, -10.1599
0.912, -1, -0.683967, 26.3016, 25.39, 10.331, -62.9328, -10.2398
0.916, -1, -0.608804, 26.2594, 25.3805, 10.4441, -62.7939, -10.3194
0.92, -1, -0.533808, 26.2172, 25.3711, 10.5569, -62.6552, -10.3989
0.924, -1, -0.458981, 26.1751, 25.3617, 10.6695, -62.5169, -10.4782
0.928, -1, -0.384322, 26.1332, 25.3523, 10.7818, -62.3789, -10.5574
0.932, -1, -0.30983, 26.0913, 25.3429, 10.8939, -62.2412, -10.6363
0.936, -1, -0.235505, 26.0495, 25.3336, 11.0057, -62.1038, -10.7151
0.94, -1, -0.161347, 26.0078, 25.3243, 11.1173, -61.9667, -10.7937
0.944, -1, -0.0873549, 25.9662, 25.315, 11.2286, -61.8299, -10.8722
0.948, -1, -0.013529, 25.9247, 25.3057, 11.3396, -61.6935, -10.9504
0.952, -1, 0.0601312, 25.8833, 25.2964, 11.4504, -61.5573, -11.0285
0.956, -1, 0.133626, 25.8419, 25.2872, 11.561, -61.4215, -11.1064
0.96, -1, 0.206956, 25.8007, 25.278, 11.6713, -61.2859, -11.1841
0.964, -1, 0.280122, 25.7596, 25.2688, 11.7814, -61.1507, -11.2617
0.968, -1, 0.353123, 25.7185, 25.2596, 11.8912, -61.0157, -11.339
0.972, -1, 0.42596, 25.6776, 25.2504, 12.0008, -60.8811, -11.4162
0.976, -1, 0.498634, 25.6367, 25.2413, 12.1101, -60.7467, -11.4933
0.98, -1, 0.571145, 25.5959, 25.2322, 12.2192, -60.6127, -11.5701
0.984, -1, 0.643494, 25.5553, 25.2231, 12.328, -60.479, -11.6468
0.988, -1, 0.71568, 25.5147, 25.214, 12.4366, -60.3455, -11.7233
0.992, -1, 0.787704, 25.4742, 25.2049, 12.545, -60.2124, -11.7997
0.996, -1, 0.859567, 25.4338, 25.1959, 12.6531, -60.0796, -11.8758
1, -1, 0.931268, 25.3935, 25.1869, 12.7609, -59.947, -11.9518
1.004, -1, 1.00281, 25.3532, 25.1779, 12.8686, -59.8148, -12.0277
1.008, -1, 1.07419, 25.3131, 25.1689, 12.9759, -59.6828, -12.1033
1.012, -1, 1.14541, 25.2731, 25.16, 13.0831, -59.5512, -12.1788
1.016, -1, 1.21647, 25.2331, 25.151, 13.19, -59.4198, -12.2541
1.02, -1, 1.28738, 25.1932, 25.1421, 13.2966, -59.2888, -12.3293
1.024, -1, 1.35813, 25.1535, 25.1332, 13.4031, -59.158, -12.4043
1.027, -1, 1.42871, 25.1138, 25.1243, 13.5092, -59.0275, -12.4791
1.032, -1, 1.49915, 25.0742, 25.1155, 13.6152, -58.8973, -12.5537
1.036, -1, 1.56942, 25.0347, 25.1067, 13.7209, -58.7674, -12.6282
1.04, -1, 1.63954, 24.9952, 25.0978, 13.8264, -58.6378, -12.7025
1.044, -1, 1.70951, 24.9559, 25.089, 13.9316, -58.5085, -12.7767
1.048, -1, 1.77932, 24.9167, 25.0803, 14.0366, -58.3795, -12.8507
1.052, -1, 1.84898, 24.8775, 25.0715, 14.1414, -58.2507, -12.9245
1.055, -1, 1.91848, 24.8384, 25.0628, 14.246, -58.1223, -12.9982
1.06, -1, 1.98783, 24.7994, 25.0541, 14.3503, -57.9941, -13.0717
1.064, -1, 2.05703, 24.7605, 25.0454, 14.4544, -57.8662, -13.145
1.068, -1, 2.12608, 24.7217, 25.0367, 14.5582, -57.7386, -13.2182
1.072, -1, 2.19497, 24.683, 25.028, 14.6618, -57.6112, -13.2912
1.076, -1, 2.26372, 24.6443, 25.0194, 14.7652, -57.4842, -13.3641
1.08, -1, 2.33231, 24.6057, 25.0107, 14.8684, -57.3574, -13.4368
1.084, -1, 2.40076, 24.5673, 25.0021, 14.9714, -57.2309, -13.5093
1.088, -1, 2.46906, 24.5289, 24.9936, 15.0741, -57.1047, -13.5817
1.091, -1, 2.53721, 24.4905, 24.985, 15.1766, -56.9787, -13.6539
1.096, -1, 2.60521, 24.4523, 24.9764, 15.2789, -56.853, -13.726
1.1, -1, 2.67306, 24.4142, 24.9679, 15.381, -56.7276, -13.7979
1.104, -1, 2.74078, 24.3761, 24.9594, 15.4828, -56.6024, -13.8697
1.108, -1, 2.80834, 24.3381, 24.9509, 15.5845, -56.4776, -13.9413
1.112, -1, 2.87576, 24.3002, 24.9424, 15.6859, -56.353, -14.0127
1.116, -1, 2.94304, 24.2624, 24.934, 15.7871, -56.2286, -14.084
1.119, -1, 3.01017, 24.2246, 24.9255, 15.888, -56.1045, -14.1552
1.124, -1, 3.07716, 24.187, 24.9171, 15.9888, -55.9807, -14.2262
1.128, -1, 3.14401, 24.1494, 24.9087, 16.0894, -55.8572, -14.297
1.132, -1, 3.21072, 24.1119, 24.9003, 16.1897, -55.7339, -14.3677
1.136, -1, 3.27729, 24.0744, 24.892, 16.2898, -55.6108, -14.4383
1.14, -1, 3.34372, 24.0371, 24.8836, 16.3898, -55.488, -14.5087
1.144, -1, 3.41001, 23.9998, 24.8753, 16.4895, -55.3655, -14.5789
1.147, -1, 3.47616, 23.9626, 24.867, 16.589, -55.2433, -14.649
1.152, -1, 3.54217, 23.9255, 24.8587, 16.6883, -55.1212, -14.719
1.156, -1, 3.60804, 23.8885, 24.8504, 16.7873, -54.9995, -14.7888
1.16, -1, 3.67378, 23.8515, 24.8421, 16.8862, -54.878, -14.8585
1.164, -1, 3.73938, 23.8146, 24.8339, 16.9849, -54.7567, -14.928
1.168, -1, 3.80485, 23.7778, 24.8256, 17.0834, -54.6357, -14.9974
1.172, -1, 3.87018, 23.7411, 24.8174, 17.1816, -54.515, -15.0666
1.175, -1, 3.93537, 23.7045, 24.8092, 17.2797, -54.3945, -15.1357
1.18, -1, 4.00044, 23.6679, 24.8011, 17.3776, -54.2742, -15.2047
1.184, -1, 4.06536, 23.6314, 24.7929, 17.4752, -54.1542, -15.2735
1.188, -1, 4.13016, 23.5949, 24.7847, 17.5727, -54.0345, -15.3422
1.192, -1, 4.19482, 23.5586, 24.7766, 17.67, -53.9149, -15.4107
1.196, -1, 4.25936, 23.5223, 24.7685, 17.767, -53.7957, -15.4791
1.2, -1, 4.32376, 23.4861, 24.7604, 17.8639, -53.6766, -15.5474
1.204, -1, 4.38803, 23.45, 24.7523, 17.9606, -53.5578, -15.6155
1.208, -1, 4.45217, 23.4139, 24.7443, 18.0571, -53.4393, -15.6835
1.212, -1, 4.51618, 23.3779, 24.7362, 18.1534, -53.321, -15.7513
1.216, -1, 4.58006, 23.342, 24.7282, 18.2495, -53.2029, -15.819
1.22, -1, 4.64382, 23.3061, 24.7202, 18.3454, -53.0851, -15.8866
1.224, -1, 4.70745, 23.2704, 24.7122, 18.4411, -52.9675, -15.954
1.228, -1, 4.77095, 23.2347, 24.7042, 18.5366, -52.8501, -16.0213
1.232, -1, 4.83432, 23.199, 24.6962, 18.6319, -52.733, -16.0885
1.236, -1, 4.89757, 23.1635, 24.6883, 18.727, -52.6161, -16.1555
1.24, -1, 4.96069, 23.128, 24.6803, 18.822, -52.4994, -16.2224
1.244, -1, 5.02369, 23.0926, 24.6724, 18.9168, -52.3829, -16.2892
1.248, -1, 5.08656, 23.0572, 24.6645, 19.0113, -52.2667, -16.3558
1.252, -1, 5.14931, 23.0219, 24.6566, 19.1057, -52.1508, -16.4223
1.256, -1, 5.21193, 22.9867, 24.6488, 19.1999, -52.035, -16.4887
1.26, -1, 5.27444, 22.9516, 24.6409, 19.2939, -51.9195, -16.5549
1.264, -1, 5.33682, 22.9165, 24.6331, 19.3878, -51.8042, -16.621
1.267, -1, 5.39908, 22.8815, 24.6252, 19.4814, -51.6891, -16.687
1.272, -1, 5.46121, 22.8466, 24.6174, 19.5749, -51.5742, -16.7529
1.276, -1, 5.52323, 22.8117, 24.6096, 19.6682, -51.4596, -16.8186
1.28, -1, 5.58513, 22.7769, 24.6018, 19.7613, -51.3452, -16.8842
1.284, -1, 5.6469, 22.7422, 24.5941, 19.8542, -51.231, -16.9497
1.288, -1, 5.70856, 22.7075, 24.5863, 19.947, -51.1171, -17.015
1.292, -1, 5.7701, 22.6729, 24.5786, 20.0395, -51.0033, -17.0803
1.295, -1, 5.83152, 22.6384, 24.5709, 20.1319, -50.8898, -17.1454
1.3, -1, 5.89282, 22.6039, 24.5632, 20.2241, -50.7765, -17.2103
1.304, -1, 5.95401, 22.5695, 24.5555, 20.3162, -50.6634, -17.2752
1.308, -1, 6.01508, 22.5352, 24.5478, 20.408, -50.5505, -17.3399
1.312, -1, 6.07603, 22.5009, 24.5401, 20.4997, -50.4379, -17.4045
1.316, -1, 6.13687, 22.4667, 24.5325, 20.5912, -50.3254, -17.469
1.32, -1, 6.19759, 22.4326, 24.5249, 20.6826, -50.2132, -17.5333
1.324, -1, 6.25819, 22.3985, 24.5172, 20.7737, -50.1012, -17.5976
1.328, -1, 6.31869, 22.3645, 24.5096, 20.8647, -49.9894, -17.6617
1.332, -1, 6.37907, 22.3305, 24.502, 20.9555, -49.8778, -17.7257
1.336, -1, 6.43933, 22.2966, 24.4945, 21.0462, -49.7664, -17.7895
1.34, -1, 6.49948, 22.2628, 24.4869, 21.1367, -49.6552, -17.8533
1.344, -1, 6.55952, 22.2291, 24.4794, 21.227, -49.5442, -17.9169
1.348, -1, 6.61945, 22.1954, 24.4718, 21.3171, -49.4335, -17.9804
1.352, -1, 6.67926, 22.1617, 24.4643, 21.4071, -49.3229, -18.0438
1.356, -1, 6.73897, 22.1282, 24.4568, 21.4969, -49.2125, -18.1071
1.36, -1, 6.79856, 22.0947, 24.4493, 21.5865, -49.1024, -18.1703
1.364, -1, 6.85805, 22.0612, 24.4418, 21.676, -48.9924, -18.2333
1.368, -1, 6.91742, 22.0278, 24.4344, 21.7653, -48.8827, -18.2962
1.372, -1, 6.97669, 21.9945, 24.4269, 21.8545, -48.7732, -18.3591
1.376, -1, 7.03584, 21.9613, 24.4195, 21.9435, -48.6638, -18.4218
1.38, -1, 7.09489, 21.9281, 24.4121, 22.0323, -48.5547, -18.4843
1.384, -1, 7.15383, 21.8949, 24.4046, 22.1209, -48.4457, -18.5468
1.388, -1, 7.21267, 21.8618, 24.3972, 22.2094, -48.337, -18.6092
1.392, -1, 7.2714, 21.8288, 24.3899, 22.2978, -48.2284, -18.6714
1.396, -1, 7.33002, 21.7959, 24.3825, 22.386, -48.1201, -18.7335
1.4, -1, 7.38854, 21.763, 24.3751, 22.474, -48.0119, -18.7956
1.404, -1, 7.44695, 21.7301, 24.3678, 22.5618, -47.904, -18.8575
1.408, -1, 7.50525, 21.6973, 24.3605, 22.6495, -47.7962, -18.9193
1.412, -1, 7.56346, 21.6646, 24.3532, 22.7371, -47.6886, -18.9809
1.416, -1, 7.62156, 21.6319, 24.3458, 22.8245, -47.5812, -19.0425
1.42, -1, 7.67955, 21.5993, 24.3386, 22.9117, -47.4741, -19.104
1.424, -1, 7.73745, 21.5668, 24.3313, 22.9988, -47.3671, -19.1653
1.428, -1, 7.79524, 21.5343, 24.324, 23.0857, -47.2602, -19.2266
1.432, -1, 7.85293, 21.5019, 24.3168, 23.1725, -47.1536, -19.2877
1.436, -1, 7.91053, 21.4695, 24.3095, 23.2591, -47.0472, -19.3488
1.44, -1, 7.96802, 21.4372, 24.3023, 23.3456, -46.9409, -19.4097
1.444, -1, 8.02541, 21.4049, 24.2951, 23.4319, -46.8348, -19.4705
1.448, -1, 8.0827, 21.3727, 24.2879, 23.5181, -46.729, -19.5312
1.452, -1, 8.1399, 21.3405, 24.2807, 23.6041, -46.6232, -19.5918
1.456, -1, 8.19699, 21.3084, 24.2735, 23.69, -46.5177, -19.6523
1.46, -1, 8.25399, 21.2764, 24.2664, 23.7757, -46.4124, -19.7128
1.464, -1, 8.31089, 21.2444, 24.2592, 23.8613, -46.3072, -19.7731
1.468, -1, 8.36769, 21.2125, 24.2521, 23.9468, -46.2022, -19.8333
1.472, -1, 8.4244, 21.1806, 24.2449, 24.032, -46.0975, -19.8933
1.476, -1, 8.48101, 21.1488, 24.2378, 24.1172, -45.9928, -19.9533
1.48, -1, 8.53752, 21.117, 24.2307, 24.2022, -45.8884, -20.0132
1.484, -1, 8.59394, 21.0853, 24.2236, 24.287, -45.7841, -20.073
1.488, -1, 8.65026, 21.0536, 24.2165, 24.3718, -45.68, -20.1327
1.492, -1, 8.70649, 21.022, 24.2095, 24.4563, -45.5761, -20.1923
1.496, -1, 8.76262, 20.9904, 24.2024, 24.5408, -45.4724, -20.2518
1.5, -1, 8.81866, 20.9589, 24.1954, 24.6251, -45.3688, -20.3112
1.504, -1, 8.87461, 20.9275, 24.1883, 24.7092, -45.2654, -20.3705
1.508, -1, 8.93046, 20.8961, 24.1813, 24.7932, -45.1621, -20.4297
1.512, -1, 8.98623, 20.8647, 24.1743, 24.8771, -45.0591, -20.4888
1.516, -1, 9.04189, 20.8334, 24.1673, 24.9608, -44.9562, -20.5478
1.52, -1, 9.09747, 20.8022, 24.1603, 25.0444, -44.8535, -20.6067
1.524, -1, 9.15296, 20.771, 24.1534, 25.1279, -44.7509, -20.6655
1.528, -1, 9.20836, 20.7398, 24.1464, 25.2112, -44.6485, -20.7242
1.532, -1, 9.26366, 20.7087, 24.1394, 25.2944, -44.5463, -20.7828
1.536, -1, 9.31888, 20.6777, 24.1325, 25.3774, -44.4443, -20.8413
1.54, -1, 9.37401, 20.6467, 24.1256, 25.4604, -44.3424, -20.8997
1.544, -1, 9.42904, 20.6158, 24.1187, 25.5431, -44.2407, -20.9581
1.548, -1, 9.48399, 20.5849, 24.1118, 25.6258, -44.1391, -21.0163
1.552, -1, 9.53885, 20.554, 24.1049, 25.7083, -44.0377, -21.0744
1.556, -1, 9.59363, 20.5232, 24.098, 25.7907, -43.9365, -21.1325
1.56, -1, 9.64831, 20.4925, 24.0911, 25.873, -43.8354, -21.1904
1.564, -1, 9.70291, 20.4618, 24.0842, 25.9551, -43.7345, -21.2483
1.568, -1, 9.75742, 20.4311, 24.0774, 26.0371, -43.6337, -21.3061
1.572, -1, 9.81184, 20.4005, 24.0705, 26.1189, -43.5331, -21.3637
1.576, -1, 9.86618, 20.37, 24.0637, 26.2007, -43.4327, -21.4213
1.58, -1, 9.92043, 20.3395, 24.0569, 26.2823, -43.3324, -21.4788
1.584, -1, 9.9746, 20.309, 24.0501, 26.3638, -43.2323, -21.5362
1.588, -1, 10.0287, 20.2786, 24.0433, 26.4451, -43.1324, -21.5936
1.592, -1, 10.0827, 20.2483, 24.0365, 26.5263, -43.0326, -21.6508
1.596, -1, 10.1366, 20.218, 24.0297, 26.6074, -42.9329, -21.7079
1.6, -1, 10.1904, 20.1877, 24.023, 26.6884, -42.8334, -21.765
1.604, -1, 10.2442, 20.1575, 24.0162, 26.7692, -42.7341, -21.8219
1.608, -1, 10.2978, 20.1273, 24.0095, 26.85, -42.6349, -21.8788
1.612, -1, 10.3514, 20.0972, 24.0027, 26.9306, -42.5359, -21.9356
1.616, -1, 10.4049, 20.0671, 23.996, 27.011, -42.437, -21.9923
1.62, -1, 10.4583, 20.0371, 23.9893, 27.0914, -42.3382, -22.0489
1.624, -1, 10.5117, 20.0071, 23.9826, 27.1716, -42.2397, -22.1054
1.628, -1, 10.5649, 19.9771, 23.9759, 27.2517, -42.1412, -22.1619
1.632, -1, 10.6181, 19.9472, 23.9692, 27.3317, -42.0429, -22.2182
1.636, -1, 10.6712, 19.9174, 23.9625, 27.4116, -41.9448, -22.2745
1.64, -1, 10.7242, 19.8876, 23.9559, 27.4913, -41.8468, -22.3307
1.644, -1, 10.7771, 19.8578, 23.9492, 27.5709, -41.749, -22.3868
1.648, -1, 10.83, 19.8281, 23.9426, 27.6504, -41.6513, -22.4428
1.652, -1, 10.8828, 19.7984, 23.9359, 27.7298, -41.5538, -22.4987
1.656, -1, 10.9355, 19.7688, 23.9293, 27.8091, -41.4564, -22.5546
1.66, -1, 10.9881, 19.7392, 23.9227, 27.8882, -41.3591, -22.6104
1.664, -1, 11.0406, 19.7097, 23.9161, 27.9672, -41.262, -22.666
1.668, -1, 11.0931, 19.6802, 23.9095, 28.0461, -41.1651, -22.7216
1.672, -1, 11.1455, 19.6507, 23.9029, 28.1249, -41.0682, -22.7772
1.676, -1, 11.1978, 19.6213, 23.8963, 28.2036, -40.9716, -22.8326
1.68, -1, 11.25, 19.592, 23.8898, 28.2822, -40.875, -22.8879
1.684, -1, 11.3022, 19.5627, 23.8832, 28.3606, -40.7786, -22.9432
1.688, -1, 11.3542, 19.5334, 23.8767, 28.439, -40.6824, -22.9984
1.692, -1, 11.4062, 19.5041, 23.8701, 28.5172, -40.5863, -23.0535
1.696, -1, 11.4582, 19.4749, 23.8636, 28.5953, -40.4903, -23.1085
1.7, -1, 11.51, 19.4458, 23.8571, 28.6733, -40.3945, -23.1635
1.704, -1, 11.5618, 19.4167, 23.8506, 28.7511, -40.2988, -23.2184
1.708, -1, 11.6135, 19.3876, 23.8441, 28.8289, -40.2032, -23.2732
1.712, -1, 11.6651, 19.3586, 23.8376, 28.9066, -40.1078, -23.3279
1.716, -1, 11.7166, 19.3296, 23.8311, 28.9841, -40.0125, -23.3825
1.72, -1, 11.7681, 19.3007, 23.8246, 29.0615, -39.9174, -23.4371
1.724, -1, 11.8195, 19.2718, 23.8182, 29.1388, -39.8224, -23.4915
1.728, -1, 11.8709, 19.2429, 23.8117, 29.2161, -39.7275, -23.5459
1.732, -1, 11.9221, 19.2141, 23.8053, 29.2931, -39.6328, -23.6003
1.736, -1, 11.9733, 19.1853, 23.7989, 29.3701, -39.5382, -23.6545
1.74, -1, 12.0244, 19.1566, 23.7924, 29.447, -39.4437, -23.7087
1.744, -1, 12.0754, 19.1279, 23.786, 29.5238, -39.3494, -23.7628
1.748, -1, 12.1264, 19.0992, 23.7796, 29.6004, -39.2552, -23.8168
1.752, -1, 12.1773, 19.0706, 23.7732, 29.677, -39.1611, -23.8707
1.756, -1, 12.2281, 19.0421, 23.7668, 29.7535, -39.0672, -23.9246
1.76, -1, 12.2789, 19.0135, 23.7604, 29.8298, -38.9734, -23.9784
1.764, -1, 12.3295, 18.985, 23.7541, 29.906, -38.8797, -24.0321
1.768, -1, 12.3802, 18.9566, 23.7477, 29.9822, -38.7861, -24.0857
1.772, -1, 12.4307, 18.9282, 23.7414, 30.0582, -38.6927, -24.1393
1.776, -1, 12.4812, 18.8998, 23.735, 30.1341, -38.5995, -24.1928
1.78, -1, 12.5316, 18.8714, 23.7287, 30.2099, -38.5063, -24.2462
1.784, -1, 12.5819, 18.8431, 23.7223, 30.2856, -38.4133, -24.2995
1.788, -1, 12.6322, 18.8149, 23.716, 30.3612, -38.3204, -24.3528
1.792, -1, 12.6824, 18.7867, 23.7097, 30.4367, -38.2276, -24.406
1.796, -1, 12.7325, 18.7585, 23.7034, 30.5121, -38.1349, -24.4591
1.8, -1, 12.7825, 18.7303, 23.6971, 30.5874, -38.0424, -24.5122
1.804, -1, 12.8325, 18.7022, 23.6908, 30.6626, -37.95, -24.5652
1.808, -1, 12.8825, 18.6742, 23.6846, 30.7377, -37.8578, -24.6181
1.812, -1, 12.9323, 18.6461, 23.6783, 30.8127, -37.7656, -24.6709
1.816, -1, 12.9821, 18.6181, 23.672, 30.8876, -37.6736, -24.7237
1.82, -1, 13.0318, 18.5902, 23.6658, 30.9624, -37.5817, -24.7764
1.824, -1, 13.0815, 18.5623, 23.6596, 31.0371, -37.4899, -24.829
1.828, -1, 13.1311, 18.5344, 23.6533, 31.1117, -37.3982, -24.8816
1.832, -1, 13.1806, 18.5065, 23.6471, 31.1862, -37.3067, -24.9341
1.836, -1, 13.23, 18.4787, 23.6409, 31.2606, -37.2153, -24.9865
1.84, -1, 13.2794, 18.451, 23.6347, 31.3349, -37.124, -25.0388
1.844, -1, 13.3288, 18.4232, 23.6285, 31.4091, -37.0328, -25.0911
1.848, -1, 13.378, 18.3955, 23.6223, 31.4832, -36.9418, -25.1433
1.852, -1, 13.4272, 18.3679, 23.6161, 31.5572, -36.8508, -25.1955
1.856, -1, 13.4764, 18.3402, 23.6099, 31.6311, -36.76, -25.2475
1.86, -1, 13.5254, 18.3127, 23.6037, 31.7049, -36.6693, -25.2995
1.864, -1, 13.5744, 18.2851, 23.5976, 31.7786, -36.5787, -25.3515
1.868, -1, 13.6234, 18.2576, 23.5914, 31.8522, -36.4883, -25.4034
1.872, -1, 13.6723, 18.2301, 23.5853, 31.9258, -36.3979, -25.4552
1.876, -1, 13.7211, 18.2027, 23.5792, 31.9992, -36.3077, -25.5069
1.88, -1, 13.7698, 18.1752, 23.573, 32.0725, -36.2176, -25.5586
1.884, -1, 13.8185, 18.1479, 23.5669, 32.1458, -36.1275, -25.6102
1.888, -1, 13.8672, 18.1205, 23.5608, 32.2189, -36.0377, -25.6617
1.892, -1, 13.9157, 18.0932, 23.5547, 32.292, -35.9479, -25.7132
1.896, -1, 13.9643, 18.0659, 23.5486, 32.365, -35.8582, -25.7646
1.9, -1, 14.0127, 18.0387, 23.5425, 32.4378, -35.7687, -25.816
1.904, -1, 14.0611, 18.0115, 23.5364, 32.5106, -35.6792, -25.8673
1.908, -1, 14.1094, 17.9843, 23.5303, 32.5833, -35.5899, -25.9185
1.912, -1, 14.1577, 17.9572, 23.5243, 32.6559, -35.5007, -25.9696
1.916, -1, 14.2059, 17.9301, 23.5182, 32.7284, -35.4116, -26.0207
1.92, -1, 14.254, 17.903, 23.5122, 32.8009, -35.3226, -26.0718
1.924, -1, 14.3021, 17.876, 23.5061, 32.8732, -35.2337, -26.1227
1.928, -1, 14.3501, 17.849, 23.5001, 32.9454, -35.145, -26.1736
1.932, -1, 14.3981, 17.822, 23.494, 33.0176, -35.0563, -26.2245
1.936, -1, 14.446, 17.7951, 23.488, 33.0897, -34.9677, -26.2752
1.94, -1, 14.4939, 17.7682, 23.482, 33.1616, -34.8793, -26.3259
1.944, -1, 14.5416, 17.7413, 23.476, 33.2335, -34.791, -26.3766
1.948, -1, 14.5894, 17.7145, 23.47, 33.3053, -34.7027, -26.4272
1.952, -1, 14.6371, 17.6877, 23.464, 33.377, -34.6146, -26.4777
1.956, -1, 14.6847, 17.6609, 23.458, 33.4487, -34.5266, -26.5282
1.96, -1, 14.7322, 17.6341, 23.452, 33.5202, -34.4387, -26.5786
1.964, -1, 14.7797, 17.6074, 23.4461, 33.5917, -34.3509, -26.6289
1.968, -1, 14.8272, 17.5808, 23.4401, 33.663, -34.2632, -26.6792
1.972, -1, 14.8745, 17.5541, 23.4342, 33.7343, -34.1756, -26.7294
1.976, -1, 14.9219, 17.5275, 23.4282, 33.8055, -34.0882, -26.7796
1.98, -1, 14.9692, 17.5009, 23.4223, 33.8766, -34.0008, -26.8297
1.984, -1, 15.0164, 17.4744, 23.4163, 33.9476, -33.9135, -26.8798
1.988, -1, 15.0635, 17.4479, 23.4104, 34.0186, -33.8263, -26.9297
1.992, -1, 15.1106, 17.4214, 23.4045, 34.0894, -33.7393, -26.9797
1.996, -1, 15.1577, 17.3949, 23.3986, 34.1602, -33.6523, -27.0295
1.999, -1, 15.2047, 17.3685, 23.3927, 34.2309, -33.5654, -27.0793
2.004, -1, 15.2516, 17.3421, 23.3868, 34.3015, -33.4787, -27.1291
2.008, -1, 15.2985, 17.3158, 23.3809, 34.372, -33.392, -27.1788
2.012, -1, 15.3453, 17.2894, 23.375, 34.4425, -33.3055, -27.2284
2.015, -1, 15.3921, 17.2631, 23.3691, 34.5128, -33.219, -27.278
2.019, -1, 15.4388, 17.2369, 23.3632, 34.5831, -33.1327, -27.3275
2.024, -1, 15.4855, 17.2106, 23.3574, 34.6533, -33.0464, -27.377
2.028, -1, 15.5321, 17.1844, 23.3515, 34.7234, -32.9602, -27.4264
2.031, -1, 15.5786, 17.1582, 23.3456, 34.7934, -32.8742, -27.4757
2.036, -1, 15.6251, 17.1321, 23.3398, 34.8634, -32.7882, -27.525
2.04, -1, 15.6716, 17.106, 23.334, 34.9333, -32.7024, -27.5742
2.044, -1, 15.718, 17.0799, 23.3281, 35.0031, -32.6166, -27.6234
2.048, -1, 15.7643, 17.0538, 23.3223, 35.0728, -32.531, -27.6725
2.051, -1, 15.8106, 17.0278, 23.3165, 35.1424, -32.4454, -27.7216
2.055, -1, 15.8568, 17.0018, 23.3107, 35.212, -32.3599, -27.7706
2.06, -1, 15.903, 16.9759, 23.3049, 35.2814, -32.2746, -27.8195
2.064, -1, 15.9491, 16.9499, 23.2991, 35.3508, -32.1893, -27.8684
2.068, -1, 15.9952, 16.924, 23.2933, 35.4201, -32.1041, -27.9173
2.071, -1, 16.0413, 16.8981, 23.2875, 35.4894, -32.019, -27.9661
2.076, -1, 16.0872, 16.8723, 23.2817, 35.5585, -31.9341, -28.0148
2.08, -1, 16.1331, 16.8465, 23.2759, 35.6276, -31.8492, -28.0635
2.084, -1, 16.179, 16.8207, 23.2702, 35.6966, -31.7644, -28.1121
2.087, -1, 16.2248, 16.7949, 23.2644, 35.7656, -31.6797, -28.1606
2.092, -1, 16.2706, 16.7692, 23.2587, 35.8344, -31.5951, -28.2092
2.096, -1, 16.3163, 16.7435, 23.2529, 35.9032, -31.5106, -28.2576
2.1, -1, 16.362, 16.7178, 23.2472, 35.9719, -31.4262, -28.306
2.104, -1, 16.4076, 16.6921, 23.2414, 36.0405, -31.3418, -28.3544
2.107, -1, 16.4532, 16.6665, 23.2357, 36.1091, -31.2576, -28.4027
2.111, -1, 16.4987, 16.6409, 23.23, 36.1775, -31.1735, -28.4509
2.116, -1, 16.5442, 16.6154, 23.2243, 36.2459, -31.0894, -28.4991
2.12, -1, 16.5896, 16.5898, 23.2186, 36.3143, -31.0055, -28.5472
2.124, -1, 16.635, 16.5643, 23.2129, 36.3825, -30.9216, -28.5953
2.127, -1, 16.6803, 16.5388, 23.2072, 36.4507, -30.8378, -28.6434
2.132, -1, 16.7255, 16.5134, 23.2015, 36.5188, -30.7542, -28.6913
2.136, -1, 16.7708, 16.488, 23.1958, 36.5868, -30.6706, -28.7393
2.14, -1, 16.8159, 16.4626, 23.1901, 36.6548, -30.5871, -28.7872
2.143, -1, 16.8611, 16.4372, 23.1844, 36.7226, -30.5037, -28.835
2.148, -1, 16.9061, 16.4118, 23.1788, 36.7904, -30.4204, -28.8828
2.152, -1, 16.9512, 16.3865, 23.1731, 36.8582, -30.3371, -28.9305
2.156, -1, 16.9961, 16.3612, 23.1675, 36.9258, -30.254, -28.9782
2.16, -1, 17.0411, 16.336, 23.1618, 36.9934, -30.1709, -29.0258
2.163, -1, 17.086, 16.3107, 23.1562, 37.061, -30.088, -29.0734
2.168, -1, 17.1307, 16.2856, 23.1505, 37.1284, -30.0051, -29.1209
2.172, -1, 17.1752, 16.2605, 23.1449, 37.1958, -29.9223, -29.1684
2.176, -1, 17.2191, 16.2357, 23.1392, 37.263, -29.8397, -29.2157
2.179, -1, 17.2623, 16.2112, 23.1335, 37.3301, -29.7572, -29.263
2.184, -1, 17.3045, 16.1873, 23.1277, 37.397, -29.6751, -29.3101
2.188, -1, 17.3456, 16.164, 23.1218, 37.4635, -29.5935, -29.357
2.192, -1, 17.3855, 16.1414, 23.116, 37.5293, -29.5126, -29.4033
2.196, -1, 17.4241, 16.1195, 23.1101, 37.5942, -29.433, -29.4491
2.199, -1, 17.4614, 16.0985, 23.1043, 37.6578, -29.3548, -29.4939
2.204, -1, 17.4974, 16.0784, 23.0986, 37.7198, -29.2788, -29.5376
2.208, -1, 17.532, 16.0593, 23.093, 37.7796, -29.2053, -29.5798
2.212, -1, 17.565, 16.0414, 23.0876, 37.837, -29.1349, -29.6202
2.216, -1, 17.5961, 16.0246, 23.0825, 37.8913, -29.0682, -29.6585
2.219, -1, 17.6255, 16.0089, 23.0778, 37.9423, -29.0056, -29.6944
2.224, -1, 17.6531, 15.9942, 23.0734, 37.9894, -28.9477, -29.7277
2.228, -1, 17.6791, 15.9802, 23.0695, 38.0325, -28.8949, -29.758
2.232, -1, 17.7034, 15.9668, 23.0661, 38.0711, -28.8475, -29.7852
2.235, -1, 17.7262, 15.9539, 23.0633, 38.1052, -28.8055, -29.8093
2.24, -1, 17.7475, 15.9416, 23.0609, 38.1349, -28.769, -29.8302
2.244, -1, 17.767, 15.9299, 23.0591, 38.1603, -28.7379, -29.848
2.248, -1, 17.7847, 15.9192, 23.0578, 38.1815, -28.7117, -29.863
2.252, -1, 17.8006, 15.9096, 23.0568, 38.1989, -28.6902, -29.8752
2.255, -1, 17.8146, 15.9012, 23.0561, 38.213, -28.6728, -29.8851
2.259, -1, 17.827, 15.8938, 23.0557, 38.2241, -28.6592, -29.8929
2.264, -1, 17.8379, 15.8875, 23.0556, 38.2326, -28.6486, -29.8989
2.268, -1, 17.8474, 15.8821, 23.0556, 38.239, -28.6407, -29.9034
2.272, -1, 17.8555, 15.8777, 23.0556, 38.2437, -28.6349, -29.9067
2.275, -1, 17.8622, 15.8741, 23.0558, 38.247, -28.6307, -29.9091
2.28, 2, 17.8677, 15.8713, 23.0559, 38.2493, -28.6278, -29.9107
2.284, 2, 17.8718, 15.8692, 23.0561, 38.2509, -28.6258, -29.9118
2.288, 2, 17.8749, 15.8678, 23.0562, 38.252, -28.6244, -29.9126
2.291, 2, 17.877, 15.8667, 23.0562, 38.2528, -28.6235, -29.9131
2.296, 2, 17.8785, 15.866, 23.0563, 38.2533, -28.6229, -29.9135
2.3, 2, 17.8795, 15.8655, 23.0563, 38.2536, -28.6224, -29.9137
2.304, 2, 17.8802, 15.8652, 23.0563, 38.2539, -28.6221, -29.9139
2.308, 2, 17.8806, 15.865, 23.0564, 38.254, -28.6219, -29.914
2.311, 2, 17.8809, 15.8649, 23.0564, 38.2541, -28.6218, -29.9141
2.316, 2, 17.8811, 15.8648, 23.0564, 38.2542, -28.6217, -29.9141
2.32, 2, 17.8813, 15.8647, 23.0564, 38.2543, -28.6216, -29.9142
2.324, 2, 17.8814, 15.8646, 23.0564, 38.2543, -28.6216, -29.9142
2.328, 2, 17.8814, 15.8646, 23.0564, 38.2543, -28.6216, -29.9142
2.331, 2, 17.8815, 15.8646, 23.0564, 38.2543, -28.6216, -29.9142
2.336, 2, 17.8815, 15.8646, 23.0564, 38.2543, -28.6215, -29.9142
2.34, 2, 17.8815, 15.8646, 23.0564, 38.2544, -28.6215, -29.9142
2.344, 2, 17.8815, 15.8646, 23.0564, 38.2544, -28.6215, -29.9142
2.347, 2, 17.8816, 15.8646, 23.0564, 38.2544, -28.6215, -29.9142
2.352, 2, 17.8816, 15.8646, 23.0564, 38.2544, -28.6215, -29.9142
2.356, 2, 17.8816, 15.8646, 23.0564, 38.2544, -28.6215, -29.9142
2.36, 2, 17.8816, 15.8646, 23.0564, 38.2544, -28.6215, -29.9142
2.364, 2, 17.8816, 15.8646, 23.0564, 38.2544, -28.6215, -29.9142
2.367, 2, 17.8816, 15.8645, 23.0564, 38.2544, -28.6215, -29.9142
2.372, 2, 17.8816, 15.8645, 23.0564, 38.2544, -28.6215, -29.9142
2.376, 2, 17.8816, 15.8645, 23.0564, 38.2544, -28.6215, -29.9142
2.38, 2, 17.8816, 15.8645, 23.0564, 38.2544, -28.6215, -29.9142
2.383, 2, 17.8816, 15.8645, 23.0564, 38.2544, -28.6215, -29.9142
2.388, 2, 17.8816, 15.8645, 23.0564, 38.2544, -28.6215, -29.9142
2.392, 2, 17.8816, 15.8645, 23.0564, 38.2544, -28.6215, -29.9142
2.396, 2, 17.8816, 15.8645, 23.0564, 38.2544, -28.6215, -29.9142
2.4, 2, 17.8816, 15.8645, 23.0564, 38.2544, -28.6215, -29.9142
2.403, 2, 17.8816, 15.8645, 23.0564, 38.2544, -28.6215, -29.9142
2.408, 2, 17.8816, 15.8645, 23.0564, 38.2544, -28.6215, -29.9142
2.412, 2, 17.8816, 15.8645, 23.0564, 38.2544, -28.6215, -29.9142
2.416, 2, 17.8816, 15.8645, 23.0564, 38.2544, -28.6215, -29.9142
2.42, 2, 17.8816, 15.8645, 23.0564, 38.2544, -28.6215, -29.9142
2.423, 2, 17.8816, 15.8645, 23.0564, 38.2544, -28.6215, -29.9142
2.428, 2, 17.8816, 15.8645, 23.0564, 38.2544, -28.6215, -29.9142
2.432, 2, 17.8816, 15.8645, 23.0564, 38.2544, -28.6215, -29.9142
2.436, 2, 17.8816, 15.8645, 23.0564, 38.2544, -28.6215, -29.9142
2.439, 2, 17.8816, 15.8645, 23.0564, 38.2544, -28.6215, -29.9142
2.444, 2, 17.8816, 15.8645, 23.0564, 38.2544, -28.6215, -29.9142
2.448, 2, 17.8816, 15.8645, 23.0564, 38.2544, -28.6215, -29.9142
2.452, 2, 17.8816, 15.8645, 23.0564, 38.2544, -28.6215, -29.9142
2.456, 2, 17.8816, 15.8645, 23.0564, 38.2544, -28.6215, -29.9142
2.459, 2, 17.8816, 15.8645, 23.0564, 38.2544, -28.6215, -29.9142
2.464, 2, 17.8816, 15.8645, 23.0564, 38.2544, -28.6215, -29.9142
2.468, 2, 17.8816, 15.8645, 23.0564, 38.2544, -28.6215, -29.9142
2.472, 2, 17.8816, 15.8645, 23.0564, 38.2544, -28.6215, -29.9142
2.476, 2, 17.8816, 15.8645, 23.0564, 38.2544, -28.6215, -29.9142
2.479, 2, 17.8816, 15.8645, 23.0564, 38.2544, -28.6215, -29.9142
2.484, 2, 17.8816, 15.8645, 23.0564, 38.2544, -28.6215, -29.9142
2.488, 2, 17.8816, 15.8645, 23.0564, 38.2544, -28.6215, -29.9142
2.492, 2, 17.8816, 15.8645, 23.0564, 38.2544, -28.6215, -29.9142
2.495, 2, 17.8816, 15.8645, 23.0564, 38.2544, -28.6215, -29.9142
2.5, 2, 17.8816, 15.8645, 23.0564, 38.2544, -28.6215, -29.9142
2.504, 2, 17.8816, 15.8645, 23.0564, 38.2544, -28.6215, -29.9142
2.508, 2, 17.8816, 15.8645, 23.0564, 38.2544, -28.6215, -29.9142
2.512, 2, 17.8816, 15.8645, 23.0564, 38.2544, -28.6215, -29.9142
2.515, 2, 17.8816, 15.8645, 23.0564, 38.2544, -28.6215, -29.9142
2.52, 2, 17.8816, 15.8645, 23.0564, 38.2544, -28.6215, -29.9142
2.524, 2, 17.8816, 15.8645, 23.0564, 38.2544, -28.6215, -29.9142
2.528, 2, 17.8816, 15.8645, 23.0564, 38.2544, -28.6215, -29.9142
2.531, 2, 17.8816, 15.8645, 23.0564, 38.2544, -28.6215, -29.9142
2.536, 2, 17.8816, 15.8645, 23.0564, 38.2544, -28.6215, -29.9142
2.54, 2, 17.8816, 15.8645, 23.0564, 38.2544, -28.6215, -29.9142
2.544, 2, 17.8816, 15.8645, 23.0564, 38.2544, -28.6215, -29.9142
2.548, 2, 17.8816, 15.8645, 23.0564, 38.2544, -28.6215, -29.9142
2.551, 2, 17.8816, 15.8645, 23.0564, 38.2544, -28.6215, -29.9142
2.556, 2, 17.8816, 15.8645, 23.0564, 38.2544, -28.6215, -29.9142
2.56, 2, 17.8816, 15.8645, 23.0564, 38.2544, -28.6215, -29.9142
2.564, 2, 17.8816, 15.8645, 23.0564, 38.2544, -28.6215, -29.9142
2.568, 2, 17.8816, 15.8645, 23.0564, 38.2544, -28.6215, -29.9142
2.571, 2, 17.8816, 15.8645, 23.0564, 38.2544, -28.6215, -29.9142
2.576, 2, 17.8816, 15.8645, 23.0564, 38.2544, -28.6215, -29.9142
2.58, 2, 17.8816, 15.8645, 23.0564, 38.2544, -28.6215, -29.9142
2.584, 2, 17.8816, 15.8645, 23.0564, 38.2544, -28.6215, -29.9142
2.587, 2, 17.8816, 15.8645, 23.0564, 38.2544, -28.6215, -29.9142
2.592, 2, 17.8816, 15.8645, 23.0564, 38.2544, -28.6215, -29.9142
2.596, 2, 17.8816, 15.8645, 23.0564, 38.2544, -28.6215, -29.9142
2.6, 2, 17.8816, 15.8645, 23.0564, 38.2544, -28.6215, -29.9142
2.604, 2, 17.8816, 15.8645, 23.0564, 38.2544, -28.6215, -29.9142
2.607, 2, 17.8816, 15.8645, 23.0564, 38.2544, -28.6215, -29.9142
2.612, 2, 17.8816, 15.8645, 23.0564, 38.2544, -28.6215, -29.9142
2.616, 2, 17.8816, 15.8645, 23.0564, 38.2544, -28.6215, -29.9142
2.62, 2, 17.8816, 15.8645, 23.0564, 38.2544, -28.6215, -29.9142
2.624, 2, 17.8816, 15.8645, 23.0564, 38.2544, -28.6215, -29.9142
2.627, 2, 17.8816, 15.8645, 23.0564, 38.2544, -28.6215, -29.9142
2.632, 2, 17.8816, 15.8645, 23.0564, 38.2544, -28.6215, -29.9142
2.636, 2, 17.8816, 15.8645, 23.0564, 38.2544, -28.6215, -29.9142
2.64, 2, 17.8816, 15.8645, 23.0564, 38.2544, -28.6215, -29.9142
2.643, 2, 17.8816, 15.8645, 23.0564, 38.2544, -28.6215, -29.9142
2.648, 2, 17.8816, 15.8645, 23.0564, 38.2544, -28.6215, -29.9142
2.652, 2, 17.8816, 15.8645, 23.0564, 38.2544, -28.6215, -29.9142
2.656, 2, 17.8816, 15.8645, 23.0564, 38.2544, -28.6215, -29.9142
2.66, 2, 17.8816, 15.8645, 23.0564, 38.2544, -28.6215, -29.9142
2.663, 2, 17.8816, 15.8645, 23.0564, 38.2544, -28.6215, -29.9142
2.668, 2, 17.8816, 15.8645, 23.0564, 38.2544, -28.6215, -29.9142
2.672, 2, 17.8816, 15.8645, 23.0564, 38.2544, -28.6215, -29.9142
2.676, 2, 17.8816, 15.8645, 23.0564, 38.2544, -28.6215, -29.9142
2.679, 2, 17.8816, 15.8645, 23.0564, 38.2544, -28.6215, -29.9142
2.684, 2, 17.8816, 15.8645, 23.0564, 38.2544, -28.6215, -29.9142
2.688, 2, 17.8816, 15.8645, 23.0564, 38.2544, -28.6215, -29.9142
2.692, 2, 17.8816, 15.8645, 23.0564, 38.2544, -28.6215, -29.9142
2.696, 2, 17.8816, 15.8645, 23.0564, 38.2544, -28.6215, -29.9142
2.699, 2, 17.8816, 15.8645, 23.0564, 38.2544, -28.6215, -29.9142
2.704, 2, 17.8816, 15.8645, 23.0564, 38.2544, -28.6215, -29.9142
2.708, 2, 17.8816, 15.8645, 23.0564, 38.2544, -28.6215, -29.9142
2.712, 2, 17.8816, 15.8645, 23.0564, 38.2544, -28.6215, -29.9142
2.716, 2, 17.8816, 15.8645, 23.0564, 38.2544, -28.6215, -29.9142
2.719, 2, 17.8816, 15.8645, 23.0564, 38.2544, -28.6215, -29.9142
2.724, 2, 17.8816, 15.8645, 23.0564, 38.2544, -28.6215, -29.9142
2.728, 2, 17.8816, 15.8645, 23.0564, 38.2544, -28.6215, -29.9142
2.732, 2, 17.8816, 15.8645, 23.0564, 38.2544, -28.6215, -29.9142
2.735, 2, 17.8816, 15.8645, 23.0564, 38.2544, -28.6215, -29.9142
2.74, 2, 17.8816, 15.8645, 23.0564, 38.2544, -28.6215, -29.9142
2.744, 2, 17.8816, 15.8645, 23.0564, 38.2544, -28.6215, -29.9142
2.748, 2, 17.8816, 15.8645, 23.0564, 38.2544, -28.6215, -29.9142
2.752, 2, 17.8816, 15.8645, 23.0564, 38.2544, -28.6215, -29.9142
2.755, 2, 17.8816, 15.8645, 23.0564, 38.2544, -28.6215, -29.9142
2.76, 2, 17.8816, 15.8645, 23.0564, 38.2544, -28.6215, -29.9142
2.764, 2, 17.8816, 15.8645, 23.0564, 38.2544, -28.6215, -29.9142
2.768, 2, 17.8816, 15.8645, 23.0564, 38.2544, -28.6215, -29.9142
2.772, 2, 17.8816, 15.8645, 23.0564, 38.2544, -28.6215, -29.9142
2.775, 2, 17.8816, 15.8645, 23.0564, 38.2544, -28.6215, -29.9142
2.78, 2, 17.8816, 15.8645, 23.0564, 38.2544, -28.6215, -29.9142
2.784, 2, 17.8816, 15.8645, 23.0564, 38.2544, -28.6215, -29.9142
2.788, 2, 17.8816, 15.8645, 23.0564, 38.2544, -28.6215, -29.9142
2.791, 2, 17.8816, 15.8645, 23.0564, 38.2544, -28.6215, -29.9142
2.796, 2, 17.8816, 15.8645, 23.0564, 38.2544, -28.6215, -29.9142
2.8, 2, 17.8816, 15.8645, 23.0564, 38.2544, -28.6215, -29.9142
2.804, 2, 17.8816, 15.8645, 23.0564, 38.2544, -28.6215, -29.9142
2.808, 2, 17.8816, 15.8645, 23.0564, 38.2544, -28.6215, -29.9142
2.811, 2, 17.8816, 15.8645, 23.0564, 38.2544, -28.6215, -29.9142
2.816, 2, 17.8816, 15.8645, 23.0564, 38.2544, -28.6215, -29.9142
2.82, 2, 17.8816, 15.8645, 23.0564, 38.2544, -28.6215, -29.9142
2.824, 2, 17.8816, 15.8645, 23.0564, 38.2544, -28.6215, -29.9142
2.828, 2, 17.8816, 15.8645, 23.0564, 38.2544, -28.6215, -29.9142
2.831, 2, 17.8816, 15.8645, 23.0564, 38.2544, -28.6215, -29.9142
2.836, 2, 17.8816, 15.8645, 23.0564, 38.2544, -28.6215, -29.9142
2.84, 2, 17.8816, 15.8645, 23.0564, 38.2544, -28.6215, -29.9142
2.844, 2, 17.8816, 15.8645, 23.0564, 38.2544, -28.6215, -29.9142
2.847, 2, 17.8816, 15.8645, 23.0564, 38.2544, -28.6215, -29.9142
2.852, 2, 17.8816, 15.8645, 23.0564, 38.2544, -28.6215, -29.9142
2.856, 2, 17.8816, 15.8645, 23.0564, 38.2544, -28.6215, -29.9142
2.86, 2, 17.8816, 15.8645, 23.0564, 38.2544, -28.6215, -29.9142
2.864, 2, 17.8816, 15.8645, 23.0564, 38.2544, -28.6215, -29.9142
2.867, 2, 17.8816, 15.8645, 23.0564, 38.2544, -28.6215, -29.9142
2.872, 2, 17.8816, 15.8645, 23.0564, 38.2544, -28.6215, -29.9142
2.876, 2, 17.8816, 15.8645, 23.0564, 38.2544, -28.6215, -29.9142
2.88, 2, 17.8816, 15.8645, 23.0564, 38.2544, -28.6215, -29.9142
2.883, 2, 17.8816, 15.8645, 23.0564, 38.2544, -28.6215, -29.9142
2.888, 2, 17.8816, 15.8645, 23.0564, 38.2544, -28.6215, -29.9142
2.892, 2, 17.8816, 15.8645, 23.0564, 38.2544, -28.6215, -29.9142
2.896, 2, 17.8816, 15.8645, 23.0564, 38.2544, -28.6215, -29.9142
2.9, 2, 17.8816, 15.8645, 23.0564, 38.2544, -28.6215, -29.9142
2.903, 2, 17.8816, 15.8645, 23.0564, 38.2544, -28.6215, -29.9142
2.908, 2, 17.8816, 15.8645, 23.0564, 38.2544, -28.6215, -29.9142
2.912, 2, 17.8816, 15.8645, 23.0564, 38.2544, -28.6215, -29.9142
2.916, 2, 17.8816, 15.8645, 23.0564, 38.2544, -28.6215, -29.9142
2.92, 2, 17.8816, 15.8645, 23.0564, 38.2544, -28.6215, -29.9142
2.923, 2, 17.8816, 15.8645, 23.0564, 38.2544, -28.6215, -29.9142
2.928, 2, 17.8816, 15.8645, 23.0564, 38.2544, -28.6215, -29.9142
2.932, 2, 17.8816, 15.8645, 23.0564, 38.2544, -28.6215, -29.9142
2.936, 2, 17.8816, 15.8645, 23.0564, 38.2544, -28.6215, -29.9142
2.939, 2, 17.8816, 15.8645, 23.0564, 38.2544, -28.6215, -29.9142
2.944, 2, 17.8816, 15.8645, 23.0564, 38.2544, -28.6215, -29.9142
2.948, 2, 17.8816, 15.8645, 23.0564, 38.2544, -28.6215, -29.9142
2.952, 2, 17.8816, 15.8645, 23.0564, 38.2544, -28.6215, -29.9142
2.956, 2, 17.8816, 15.8645, 23.0564, 38.2544, -28.6215, -29.9142
2.959, 2, 17.8816, 15.8645, 23.0564, 38.2544, -28.6215, -29.9142
2.964, 2, 17.8816, 15.8645, 23.0564, 38.2544, -28.6215, -29.9142
2.968, 2, 17.8816, 15.8645, 23.0564, 38.2544, -28.6215, -29.9142
2.972, 2, 17.8816, 15.8645, 23.0564, 38.2544, -28.6215, -29.9142
2.976, 2, 17.8816, 15.8645, 23.0564, 38.2544, -28.6215, -29.9142
2.98, 2, 17.8816, 15.8645, 23.0564, 38.2544, -28.6215, -29.9142
2.984, 2, 17.8816, 15.8645, 23.0564, 38.2544, -28.6215, -29.9142
2.988, 2, 17.8816, 15.8645, 23.0564, 38.2544, -28.6215, -29.9142
2.992, 2, 17.8816, 15.8645, 23.0564, 38.2544, -28.6215, -29.9142
2.995, 2, 17.8816, 15.8645, 23.0564, 38.2544, -28.6215, -29.9142
3, 2, 17.8816, 15.8645, 23.0564, 38.2544, -28.6215, -29.9142
3.004, 2, 17.8816, 15.8645, 23.0564, 38.2544, -28.6215, -29.9142
3.008, 2, 17.8816, 15.8645, 23.0564, 38.2544, -28.6215, -29.9142
3.012, 2, 17.8816, 15.8645, 23.0564, 38.2544, -28.6215, -29.9142
3.015, 2, 17.8816, 15.8645, 23.0564, 38.2544, -28.6215, -29.9142
3.02, 2, 17.8816, 15.8645, 23.0564, 38.2544, -28.6215, -29.9142
3.024, 2, 17.8816, 15.8645, 23.0564, 38.2544, -28.6215, -29.9142
3.028, 2, 17.8816, 15.8645, 23.0564, 38.2544, -28.6215, -29.9142
3.031, 2, 17.8816, 15.8645, 23.0564, 38.2544, -28.6215, -29.9142
3.036, 2, 17.8816, 15.8645, 23.0564, 38.2544, -28.6215, -29.9142
3.04, 2, 17.8816, 15.8645, 23.0564, 38.2544, -28.6215, -29.9142
3.044, 2, 17.8816, 15.8645, 23.0564, 38.2544, -28.6215, -29.9142
3.048, 2, 17.8816, 15.8645, 23.0564, 38.2544, -28.6215, -29.9142
3.051, 2, 17.8816, 15.8645, 23.0564, 38.2544, -28.6215, -29.9142
3.056, 2, 17.8816, 15.8645, 23.0564, 38.2544, -28.6215, -29.9142
3.06, 2, 17.8816, 15.8645, 23.0564, 38.2544, -28.6215, -29.9142
3.064, 2, 17.8816, 15.8645, 23.0564, 38.2544, -28.6215, -29.9142
3.068, 2, 17.8816, 15.8645, 23.0564, 38.2544, -28.6215, -29.9142
3.071, 2, 17.8816, 15.8645, 23.0564, 38.2544, -28.6215, -29.9142
3.076, 2, 17.8816, 15.8645, 23.0564, 38.2544, -28.6215, -29.9142
3.08, 2, 17.8816, 15.8645, 23.0564, 38.2544, -28.6215, -29.9142
3.084, 2, 17.8816, 15.8645, 23.0564, 38.2544, -28.6215, -29.9142
3.087, 2, 17.8816, 15.8645, 23.0564, 38.2544, -28.6215, -29.9142
3.092, 2, 17.8816, 15.8645, 23.0564, 38.2544, -28.6215, -29.9142
3.096, 2, 17.8816, 15.8645, 23.0564, 38.2544, -28.6215, -29.9142
3.1, 2, 17.8816, 15.8645, 23.0564, 38.2544, -28.6215, -29.9142
3.104, 2, 17.8816, 15.8645, 23.0564, 38.2544, -28.6215, -29.9142
3.107, 2, 17.8816, 15.8645, 23.0564, 38.2544, -28.6215, -29.9142
3.112, 2, 17.8816, 15.8645, 23.0564, 38.2544, -28.6215, -29.9142
3.116, 2, 17.8816, 15.8645, 23.0564, 38.2544, -28.6215, -29.9142
3.12, 2, 17.8816, 15.8645, 23.0564, 38.2544, -28.6215, -29.9142
3.124, 2, 17.8816, 15.8645, 23.0564, 38.2544, -28.6215, -29.9142
3.128, 2, 17.8816, 15.8645, 23.0564, 38.2544, -28.6215, -29.9142
3.132, 2, 17.8816, 15.8645, 23.0564, 38.2544, -28.6215, -29.9142
3.136, 2, 17.8816, 15.8645, 23.0564, 38.2544, -28.6215, -29.9142
3.14, 2, 17.8816, 15.8645, 23.0564, 38.2544, -28.6215, -29.9142
3.143, 2, 17.8816, 15.8645, 23.0564, 38.2544, -28.6215, -29.9142
3.148, 2, 17.8816, 15.8645, 23.0564, 38.2544, -28.6215, -29.9142
3.152, 2, 17.8816, 15.8645, 23.0564, 38.2544, -28.6215, -29.9142
3.156, 2, 17.8816, 15.8645, 23.0564, 38.2544, -28.6215, -29.9142
3.16, 2, 17.8816, 15.8645, 23.0564, 38.2544, -28.6215, -29.9142
3.163, 2, 17.8816, 15.8645, 23.0564, 38.2544, -28.6215, -29.9142
3.168, 2, 17.8816, 15.8645, 23.0564, 38.2544, -28.6215, -29.9142
3.172, 2, 17.8816, 15.8645, 23.0564, 38.2544, -28.6215, -29.9142
3.176, 2, 17.8816, 15.8645, 23.0564, 38.2544, -28.6215, -29.9142
3.179, 2, 17.8816, 15.8645, 23.0564, 38.2544, -28.6215, -29.9142
3.184, 2, 17.8816, 15.8645, 23.0564, 38.2544, -28.6215, -29.9142
3.188, 2, 17.8816, 15.8645, 23.0564, 38.2544, -28.6215, -29.9142
3.192, 2, 17.8816, 15.8645, 23.0564, 38.2544, -28.6215, -29.9142
3.196, 2, 17.8816, 15.8645, 23.0564, 38.2544, -28.6215, -29.9142
3.199, 2, 17.8816, 15.8645, 23.0564, 38.2544, -28.6215, -29.9142
3.204, 2, 17.8816, 15.8645, 23.0564, 38.2544, -28.6215, -29.9142
3.208, 2, 17.8816, 15.8645, 23.0564, 38.2544, -28.6215, -29.9142
3.212, 2, 17.8816, 15.8645, 23.0564, 38.2544, -28.6215, -29.9142
3.216, 2, 17.8816, 15.8645, 23.0564, 38.2544, -28.6215, -29.9142
3.22, 2, 17.8816, 15.8645, 23.0564, 38.2544, -28.6215, -29.9142
3.224, 2, 17.8816, 15.8645, 23.0564, 38.2544, -28.6215, -29.9142
3.228, 2, 17.8816, 15.8645, 23.0564, 38.2544, -28.6215, -29.9142
3.232, 2, 17.8816, 15.8645, 23.0564, 38.2544, -28.6215, -29.9142
3.235, 2, 17.8816, 15.8645, 23.0564, 38.2544, -28.6215, -29.9142
3.24, 2, 17.8816, 15.8645, 23.0564, 38.2544, -28.6215, -29.9142
3.244, 2, 17.8816, 15.8645, 23.0564, 38.2544, -28.6215, -29.9142
3.248, 2, 17.8816, 15.8645, 23.0564, 38.2544, -28.6215, -29.9142
3.252, 2, 17.8816, 15.8645, 23.0564, 38.2544, -28.6215, -29.9142
3.255, 2, 17.8816, 15.8645, 23.0564, 38.2544, -28.6215, -29.9142
3.26, 2, 17.8816, 15.8645, 23.0564, 38.2544, -28.6215, -29.9142
3.264, 2, 17.8816, 15.8645, 23.0564, 38.2544, -28.6215, -29.9142
3.268, 2, 17.8816, 15.8645, 23.0564, 38.2544, -28.6215, -29.9142
3.272, 2, 17.8816, 15.8645, 23.0564, 38.2544, -28.6215, -29.9142
3.276, 2, 17.8816, 15.8645, 23.0564, 38.2544, -28.6215, -29.9142
3.28, 2, 17.8816, 15.8645, 23.0564, 38.2544, -28.6215, -29.9142
3.284, 2, 17.8816, 15.8645, 23.0564, 38.2544, -28.6215, -29.9142
3.288, 2, 17.8816, 15.8645, 23.0564, 38.2544, -28.6215, -29.9142
3.291, 2, 17.8816, 15.8645, 23.0564, 38.2544, -28.6215, -29.9142
3.296, 2, 17.8816, 15.8645, 23.0564, 38.2544, -28.6215, -29.9142
3.3, 2, 17.8816, 15.8645, 23.0564, 38.2544, -28.6215, -29.9142
3.304, 2, 17.8816, 15.8645, 23.0564, 38.2544, -28.6215, -29.9142
3.308, 2, 17.8816, 15.8645, 23.0564, 38.2544, -28.6215, -29.9142
3.312, 2, 17.8816, 15.8645, 23.0564, 38.2544, -28.6215, -29.9142
3.316, 2, 17.8816, 15.8645, 23.0564, 38.2544, -28.6215, -29.9142
3.32, 2, 17.8816, 15.8645, 23.0564, 38.2544, -28.6215, -29.9142
3.324, 2, 17.8816, 15.8645, 23.0564, 38.2544, -28.6215, -29.9142
3.328, 2, 17.8816, 15.8645, 23.0564, 38.2544, -28.6215, -29.9142
3.332, 2, 17.8816, 15.8645, 23.0564, 38.2544, -28.6215, -29.9142
3.336, 2, 17.8816, 15.8645, 23.0564, 38.2544, -28.6215, -29.9142
3.34, 2, 17.8816, 15.8645, 23.0564, 38.2544, -28.6215, -29.9142
3.344, 2, 17.8816, 15.8645, 23.0564, 38.2544, -28.6215, -29.9142
3.347, 2, 17.8816, 15.8645, 23.0564, 38.2544, -28.6215, -29.9142
3.352, 2, 17.8816, 15.8645, 23.0564, 38.2544, -28.6215, -29.9142
3.356, 4, 17.8816, 15.8645, 23.0564, 38.2544, -28.6215, -29.9142
3.36, 4, 17.8816, 15.8645, 23.0564, 38.2544, -28.6215, -29.9142
3.364, 4, 17.8816, 15.8645, 23.0564, 38.2544, -28.6215, -29.9142
3.368, 4, 17.8816, 15.8645, 23.0564, 38.2544, -28.6215, -29.9142
3.372, 4, 17.8816, 15.8645, 23.0564, 38.2544, -28.6215, -29.9142
3.376, 4, 17.8816, 15.8645, 23.0564, 38.2544, -28.6215, -29.9142
3.38, 4, 17.8816, 15.8645, 23.0564, 38.2544, -28.6215, -29.9142
3.383, 4, 17.8816, 15.8645, 23.0564, 38.2544, -28.6215, -29.9142
3.388, 4, 17.8816, 15.8645, 23.0564, 38.2544, -28.6215, -29.9142
3.392, 4, 17.8816, 15.8645, 23.0564, 38.2544, -28.6215, -29.9142
3.396, 4, 17.8816, 15.8645, 23.0564, 38.2544, -28.6215, -29.9142
3.4, 4, 17.8816, 15.8645, 23.0564, 38.2544, -28.6215, -29.9142
3.403, 4, 17.8816, 15.8645, 23.0564, 38.2544, -28.6215, -29.9142
3.408, 4, 17.8816, 15.8645, 23.0564, 38.2544, -28.6215, -29.9142
3.412, 4, 17.8816, 15.8645, 23.0564, 38.2544, -28.6215, -29.9142
3.416, 4, 17.8816, 15.8645, 23.0564, 38.2544, -28.6215, -29.9142
3.42, 4, 17.8816, 15.8645, 23.0564, 38.2544, -28.6215, -29.9142
3.424, 4, 17.8816, 15.8645, 23.0564, 38.2544, -28.6215, -29.9142
3.428, 4, 17.8816, 15.8645, 23.0564, 38.2544, -28.6215, -29.9142
3.432, 4, 17.8816, 15.8645, 23.0564, 38.2544, -28.6215, -29.9142
3.436, 4, 17.8816, 15.8645, 23.0564, 38.2544, -28.6215, -29.9142
3.439, 4, 17.8816, 15.8645, 23.0564, 38.2544, -28.6215, -29.9142
3.444, 4, 17.8816, 15.8645, 23.0564, 38.2544, -28.6215, -29.9142
3.448, 4, 17.8816, 15.8645, 23.0564, 38.2544, -28.6215, -29.9142
3.452, 4, 17.8816, 15.8645, 23.0564, 38.2544, -28.6215, -29.9142
3.456, 4, 17.8816, 15.8645, 23.0564, 38.2544, -28.6215, -29.9142
3.462, 4, 17.8816, 15.8645, 23.0564, 38.2544, -28.6215, -29.9142
3.464, 4, 17.8816, 15.8645, 23.0564, 38.2544, -28.6215, -29.9142
3.468, 4, 17.8816, 15.8645, 23.0564, 38.2544, -28.6215, -29.9142
3.472, 4, 17.8816, 15.8645, 23.0564, 38.2544, -28.6215, -29.9142
3.476, 4, 17.8816, 15.8645, 23.0564, 38.2544, -28.6215, -29.9142
3.48, 4, 17.8816, 15.8645, 23.0564, 38.2544, -28.6215, -29.9142
3.484, 4, 17.8816, 15.8645, 23.0564, 38.2544, -28.6215, -29.9142
3.488, 4, 17.8816, 15.8646, 23.0564, 38.2544, -28.6215, -29.9142
3.492, 4, 17.8815, 15.8646, 23.0564, 38.2544, -28.6215, -29.9142
3.495, 4, 17.8813, 15.8647, 23.0563, 38.2543, -28.6215, -29.9142
3.5, 4, 17.8808, 15.8651, 23.0563, 38.2543, -28.6215, -29.9142
3.504, 4, 17.8799, 15.8658, 23.0561, 38.2541, -28.6216, -29.914
3.508, 4, 17.8784, 15.867, 23.0557, 38.2537, -28.6217, -29.9137
3.512, 4, 17.8763, 15.869, 23.0552, 38.2529, -28.622, -29.913
3.516, 4, 17.8734, 15.8718, 23.0543, 38.2514, -28.6225, -29.9118
3.52, 4, 17.8697, 15.8758, 23.053, 38.2487, -28.6234, -29.9096
3.524, 4, 17.8651, 15.8812, 23.0512, 38.2445, -28.6248, -29.906
3.528, 5, 17.8594, 15.8885, 23.0486, 38.2381, -28.6269, -29.9006
3.531, 5, 17.8526, 15.8978, 23.0452, 38.2288, -28.6299, -29.8927
3.536, 5, 17.8445, 15.9094, 23.0407, 38.2157, -28.6342, -29.8817
3.54, 5, 17.8347, 15.9237, 23.0348, 38.198, -28.6401, -29.8667
3.544, 5, 17.8233, 15.9405, 23.0274, 38.1745, -28.6478, -29.8468
3.548, 5, 17.8102, 15.9598, 23.0182, 38.1443, -28.6577, -29.8211
3.552, 5, 17.7955, 15.9816, 23.0071, 38.1062, -28.6703, -29.7887
3.556, 5, 17.7792, 16.0059, 22.9939, 38.0593, -28.6857, -29.7488
3.56, 5, 17.7612, 16.0327, 22.9784, 38.0026, -28.7045, -29.7006
3.564, 5, 17.7416, 16.0622, 22.9605, 37.9355, -28.7267, -29.6435
3.568, 5, 17.7202, 16.0947, 22.9401, 37.8576, -28.7525, -29.5771
3.572, 5, 17.697, 16.1301, 22.9171, 37.7685, -28.7821, -29.5013
3.576, 5, 17.6719, 16.1686, 22.8916, 37.6683, -28.8155, -29.416
3.58, 5, 17.6449, 16.21, 22.8635, 37.5572, -28.8526, -29.3215
3.584, 5, 17.6162, 16.2541, 22.8329, 37.4357, -28.8934, -29.218
3.587, 5, 17.5857, 16.3008, 22.8, 37.3043, -28.9376, -29.1063
3.592, 5, 17.5535, 16.3499, 22.7651, 37.164, -28.9849, -28.9869
3.596, 5, 17.5196, 16.4015, 22.7281, 37.0156, -29.0352, -28.8608
3.6, 5, 17.484, 16.4557, 22.6894, 36.8602, -29.0881, -28.7287
3.604, 5, 17.4466, 16.5124, 22.649, 36.6988, -29.1432, -28.5918
3.608, 5, 17.4074, 16.5718, 22.6073, 36.5327, -29.2002, -28.4507
3.612, 5, 17.3666, 16.6336, 22.5645, 36.3626, -29.2589, -28.3065
3.616, 5, 17.3243, 16.6976, 22.5207, 36.1894, -29.3189, -28.1597
3.62, 5, 17.2806, 16.7634, 22.4762, 36.014, -29.3799, -28.0111
3.624, 5, 17.2359, 16.8307, 22.4311, 35.8369, -29.4419, -27.8613
3.628, 5, 17.1901, 16.8991, 22.3856, 35.6587, -29.5046, -27.7105
3.632, 5, 17.1435, 16.9684, 22.3398, 35.4798, -29.5678, -27.5593
3.636, 5, 17.0961, 17.0385, 22.2938, 35.3005, -29.6316, -27.4079
3.64, 5, 17.0481, 17.109, 22.2476, 35.1212, -29.6957, -27.2565
3.644, 5, 16.9995, 17.18, 22.2014, 34.9419, -29.7601, -27.1052
3.648, 5, 16.9505, 17.2511, 22.1552, 34.7628, -29.8248, -26.9543
3.652, 5, 16.9012, 17.3224, 22.109, 34.5841, -29.8897, -26.8037
3.656, 5, 16.8517, 17.3936, 22.0629, 34.4057, -29.9549, -26.6536
3.66, 5, 16.8019, 17.4649, 22.0169, 34.2278, -30.0202, -26.5039
3.664, 5, 16.7519, 17.5361, 21.971, 34.0503, -30.0858, -26.3547
3.668, 5, 16.7018, 17.6071, 21.9252, 33.8733, -30.1515, -26.206
3.672, 5, 16.6516, 17.6781, 21.8795, 33.6967, -30.2175, -26.0577
3.676, 5, 16.6012, 17.749, 21.834, 33.5206, -30.2836, -25.91
3.679, 5, 16.5507, 17.8197, 21.7886, 33.3451, -30.3499, -25.7628
3.684, 5, 16.5001, 17.8903, 21.7432, 33.17, -30.4164, -25.6161
3.688, 5, 16.4494, 17.9607, 21.6981, 32.9954, -30.483, -25.4699
3.692, 5, 16.3985, 18.0311, 21.653, 32.8213, -30.5499, -25.3242
3.696, 5, 16.3476, 18.1012, 21.6081, 32.6477, -30.6169, -25.179
3.7, 5, 16.2965, 18.1713, 21.5633, 32.4746, -30.684, -25.0344
3.704, 5, 16.2453, 18.2412, 21.5187, 32.3019, -30.7514, -24.8902
3.708, 5, 16.1941, 18.3109, 21.4742, 32.1298, -30.819, -24.7466
3.712, 5, 16.1427, 18.3805, 21.4298, 31.9582, -30.8867, -24.6034
3.716, 5, 16.0912, 18.4499, 21.3856, 31.787, -30.9546, -24.4608
3.72, 5, 16.0396, 18.5193, 21.3415, 31.6164, -31.0226, -24.3187
3.724, 5, 15.9879, 18.5884, 21.2976, 31.4462, -31.0909, -24.177
3.728, 5, 15.9361, 18.6574, 21.2537, 31.2765, -31.1593, -24.0359
3.732, 5, 15.8842, 18.7263, 21.2101, 31.1073, -31.2279, -23.8952
3.735, 5, 15.8322, 18.795, 21.1665, 30.9386, -31.2967, -23.7551
3.74, 5, 15.7801, 18.8636, 21.1231, 30.7704, -31.3656, -23.6154
3.744, 5, 15.7279, 18.932, 21.0799, 30.6026, -31.4347, -23.4763
3.748, 5, 15.6756, 19.0003, 21.0368, 30.4353, -31.504, -23.3376
3.752, 5, 15.6232, 19.0684, 20.9938, 30.2686, -31.5735, -23.1994
3.756, 5, 15.5707, 19.1364, 20.951, 30.1022, -31.6431, -23.0618
3.76, 5, 15.5181, 19.2042, 20.9084, 29.9364, -31.713, -22.9245
3.764, 5, 15.4654, 19.2719, 20.8658, 29.771, -31.783, -22.7878
3.768, 5, 15.4126, 19.3395, 20.8235, 29.6061, -31.8531, -22.6516
3.772, 5, 15.3598, 19.4069, 20.7812, 29.4417, -31.9235, -22.5158
3.776, 5, 15.3068, 19.4741, 20.7391, 29.2778, -31.994, -22.3805
3.78, 5, 15.2537, 19.5412, 20.6972, 29.1143, -32.0647, -22.2457
3.784, 5, 15.2005, 19.6082, 20.6554, 28.9513, -32.1356, -22.1114
3.788, 5, 15.1473, 19.675, 20.6138, 28.7887, -32.2066, -21.9776
3.792, 5, 15.0939, 19.7416, 20.5723, 28.6267, -32.2778, -21.8442
3.796, 5, 15.0404, 19.8081, 20.5309, 28.4651, -32.3492, -21.7113
3.8, 5, 14.9869, 19.8745, 20.4897, 28.3039, -32.4208, -21.5788
3.804, 5, 14.9333, 19.9407, 20.4487, 28.1432, -32.4925, -21.4468
3.808, 5, 14.8795, 20.0068, 20.4078, 27.983, -32.5644, -21.3153
3.812, 5, 14.8257, 20.0727, 20.3671, 27.8232, -32.6365, -21.1843
3.816, 5, 14.7718, 20.1385, 20.3265, 27.6639, -32.7087, -21.0537
3.82, 5, 14.7178, 20.2041, 20.286, 27.5051, -32.7812, -20.9236
3.824, 5, 14.6637, 20.2696, 20.2457, 27.3467, -32.8537, -20.7939
3.828, 5, 14.6095, 20.3349, 20.2056, 27.1887, -32.9265, -20.6647
3.832, 5, 14.5552, 20.4001, 20.1656, 27.0312, -32.9995, -20.5359
3.836, 5, 14.5009, 20.4651, 20.1258, 26.8742, -33.0726, -20.4076
3.84, 5, 14.4464, 20.53, 20.0861, 26.7176, -33.1458, -20.2798
3.844, 5, 14.3919, 20.5947, 20.0466, 26.5614, -33.2193, -20.1524
3.848, 5, 14.3372, 20.6593, 20.0072, 26.4057, -33.2929, -20.0254
3.852, 5, 14.2825, 20.7238, 19.968, 26.2505, -33.3667, -19.8989
3.856, 5, 14.2277, 20.7881, 19.9289, 26.0957, -33.4407, -19.7729
3.86, 5, 14.1728, 20.8522, 19.89, 25.9413, -33.5148, -19.6473
3.864, 5, 14.1179, 20.9162, 19.8513, 25.7874, -33.5891, -19.5221
3.868, 5, 14.0628, 20.9801, 19.8127, 25.6339, -33.6636, -19.3974
3.872, 5, 14.0077, 21.0438, 19.7742, 25.4808, -33.7382, -19.2731
3.876, 5, 13.9524, 21.1073, 19.7359, 25.3282, -33.813, -19.1492
3.88, 5, 13.8971, 21.1708, 19.6978, 25.1761, -33.888, -19.0258
3.884, 5, 13.8417, 21.234, 19.6598, 25.0243, -33.9632, -18.9028
3.888, 5, 13.7862, 21.2971, 19.622, 24.873, -34.0385, -18.7802
3.892, 5, 13.7307, 21.3601, 19.5844, 24.7221, -34.114, -18.6581
3.896, 5, 13.675, 21.4229, 19.5469, 24.5717, -34.1897, -18.5364
3.9, 5, 13.6193, 21.4856, 19.5096, 24.4217, -34.2655, -18.4152
3.904, 5, 13.5635, 21.5482, 19.4724, 24.2721, -34.3416, -18.2943
3.908, 5, 13.5076, 21.6105, 19.4354, 24.1229, -34.4178, -18.1739
3.912, 5, 13.4516, 21.6728, 19.3985, 23.9742, -34.4941, -18.0539
3.916, 5, 13.3956, 21.7349, 19.3618, 23.8259, -34.5706, -17.9343
3.92, 5, 13.3395, 21.7968, 19.3253, 23.678, -34.6473, -17.8152
3.924, 5, 13.2833, 21.8586, 19.289, 23.5305, -34.7242, -17.6965
3.928, 5, 13.227, 21.9203, 19.2528, 23.3835, -34.8013, -17.5782
3.932, 5, 13.1706, 21.9818, 19.2168, 23.2368, -34.8785, -17.4603
3.936, 5, 13.1142, 22.0431, 19.1809, 23.0906, -34.9559, -17.3428
3.94, 5, 13.0577, 22.1043, 19.1452, 22.9449, -35.0334, -17.2257
3.944, 5, 13.0011, 22.1654, 19.1097, 22.7995, -35.1112, -17.1091
3.948, 5, 12.9444, 22.2263, 19.0743, 22.6546, -35.1891, -16.9929
3.952, 5, 12.8876, 22.287, 19.0391, 22.51, -35.2672, -16.877
3.956, 5, 12.8308, 22.3476, 19.0041, 22.3659, -35.3454, -16.7616
3.96, 5, 12.7739, 22.4081, 18.9693, 22.2222, -35.4238, -16.6466
3.964, 5, 12.717, 22.4684, 18.9346, 22.0789, -35.5024, -16.532
3.968, 5, 12.6599, 22.5286, 18.9001, 21.9361, -35.5812, -16.4178
3.972, 5, 12.6028, 22.5886, 18.8658, 21.7936, -35.6601, -16.304
3.976, 5, 12.5456, 22.6484, 18.8316, 21.6516, -35.7392, -16.1906
3.98, 5, 12.4884, 22.7082, 18.7976, 21.5099, -35.8185, -16.0776
3.984, 5, 12.431, 22.7677, 18.7638, 21.3687, -35.8979, -15.9651
3.988, 5, 12.3736, 22.8271, 18.7302, 21.2278, -35.9776, -15.8529
3.992, 5, 12.3161, 22.8864, 18.6967, 21.0874, -36.0574, -15.7411
3.996, 5, 12.2586, 22.9455, 18.6634, 20.9474, -36.1373, -15.6297
3.999, 5, 12.201, 23.0045, 18.6303, 20.8078, -36.2174, -15.5187
4.004, 5, 12.1433, 23.0633, 18.5974, 20.6686, -36.2977, -15.4081
4.008, 5, 12.0856, 23.122, 18.5646, 20.5298, -36.3782, -15.2979
4.012, 5, 12.0277, 23.1805, 18.532, 20.3914, -36.4588, -15.1881
4.016, 5, 11.9698, 23.2389, 18.4996, 20.2534, -36.5397, -15.0786
4.02, 5, 11.9119, 23.2971, 18.4673, 20.1158, -36.6206, -14.9696
4.024, 5, 11.8539, 23.3552, 18.4353, 19.9786, -36.7018, -14.861
4.028, 5, 11.7958, 23.4131, 18.4034, 19.8418, -36.7831, -14.7527
4.032, 5, 11.7376, 23.4709, 18.3717, 19.7053, -36.8646, -14.6448
4.036, 5, 11.6794, 23.5285, 18.3402, 19.5693, -36.9463, -14.5373
4.04, 5, 11.6211, 23.586, 18.3088, 19.4337, -37.0281, -14.4302
4.044, 5, 11.5628, 23.6433, 18.2777, 19.2985, -37.1101, -14.3235
4.048, 5, 11.5043, 23.7005, 18.2467, 19.1636, -37.1923, -14.2171
4.052, 5, 11.4459, 23.7575, 18.2159, 19.0292, -37.2746, -14.1112
4.056, 5, 11.3873, 23.8144, 18.1853, 18.8951, -37.3571, -14.0056
4.06, 5, 11.3287, 23.8711, 18.1548, 18.7615, -37.4398, -13.9004
4.064, 5, 11.27, 23.9277, 18.1245, 18.6282, -37.5226, -13.7955
4.068, 5, 11.2113, 23.9841, 18.0945, 18.4953, -37.6056, -13.6911
4.072, 5, 11.1525, 24.0404, 18.0646, 18.3628, -37.6888, -13.587
4.076, 5, 11.0936, 24.0965, 18.0348, 18.2307, -37.7722, -13.4833
4.08, 5, 11.0347, 24.1525, 18.0053, 18.0989, -37.8557, -13.3799
4.084, 5, 10.9757, 24.2083, 17.9759, 17.9676, -37.9394, -13.277
4.088, 5, 10.9167, 24.264, 17.9468, 17.8366, -38.0232, -13.1744
4.092, 5, 10.8576, 24.3195, 17.9178, 17.706, -38.1072, -13.0721
4.096, 5, 10.7984, 24.3749, 17.889, 17.5758, -38.1914, -12.9703
4.1, 5, 10.7392, 24.4302, 17.8604, 17.446, -38.2758, -12.8688
4.104, 5, 10.6799, 24.4853, 17.8319, 17.3165, -38.3603, -12.7676
4.108, 5, 10.6206, 24.5402, 17.8037, 17.1874, -38.445, -12.6668
4.112, 5, 10.5612, 24.595, 17.7756, 17.0587, -38.5298, -12.5664
4.116, 5, 10.5017, 24.6496, 17.7477, 16.9304, -38.6148, -12.4664
4.12, 5, 10.4422, 24.7041, 17.72, 16.8025, -38.7, -12.3667
4.124, 5, 10.3826, 24.7585, 17.6925, 16.6749, -38.7854, -12.2674
4.128, 5, 10.323, 24.8127, 17.6651, 16.5477, -38.8709, -12.1684
4.132, 5, 10.2633, 24.8667, 17.638, 16.4209, -38.9566, -12.0698
4.138, 5, 10.2035, 24.9206, 17.611, 16.2944, -39.0425, -11.9715
4.14, 5, 10.1437, 24.9744, 17.5843, 16.1683, -39.1285, -11.8736
4.144, 5, 10.0838, 25.028, 17.5577, 16.0426, -39.2147, -11.776
4.148, 5, 10.0239, 25.0815, 17.5313, 15.9173, -39.3011, -11.6788
4.152, 5, 9.96396, 25.1348, 17.5051, 15.7923, -39.3876, -11.582
4.156, 5, 9.90393, 25.1879, 17.479, 15.6676, -39.4743, -11.4855
4.16, 5, 9.84385, 25.241, 17.4532, 15.5434, -39.5612, -11.3893
4.164, 5, 9.78371, 25.2938, 17.4276, 15.4195, -39.6482, -11.2935
4.168, 5, 9.72352, 25.3465, 17.4021, 15.296, -39.7354, -11.198
4.172, 5, 9.66328, 25.3991, 17.3769, 15.1728, -39.8228, -11.1029
4.176, 5, 9.60298, 25.4515, 17.3518, 15.05, -39.9103, -11.0081
4.18, 5, 9.54263, 25.5038, 17.3269, 14.9275, -39.998, -10.9137
4.184, 5, 9.48223, 25.5559, 17.3022, 14.8054, -40.0859, -10.8196
4.188, 5, 9.42178, 25.6079, 17.2777, 14.6837, -40.174, -10.7259
4.192, 5, 9.36127, 25.6597, 17.2534, 14.5623, -40.2622, -10.6324
4.196, 5, 9.30072, 25.7114, 17.2293, 14.4413, -40.3506, -10.5394
4.2, 5, 9.24011, 25.763, 17.2054, 14.3206, -40.4391, -10.4466
4.204, 5, 9.17946, 25.8143, 17.1816, 14.2003, -40.5278, -10.3542
4.208, 5, 9.11875, 25.8656, 17.1581, 14.0803, -40.6167, -10.2622
4.212, 5, 9.058, 25.9167, 17.1348, 13.9607, -40.7057, -10.1704
4.216, 5, 8.99719, 25.9676, 17.1116, 13.8415, -40.795, -10.079
4.22, 5, 8.93634, 26.0184, 17.0887, 13.7226, -40.8843, -9.98794
4.224, 5, 8.87544, 26.0691, 17.0659, 13.604, -40.9739, -9.8972
4.228, 5, 8.81449, 26.1196, 17.0434, 13.4858, -41.0636, -9.80679
4.232, 5, 8.7535, 26.1699, 17.021, 13.3679, -41.1535, -9.71671
4.236, 5, 8.69246, 26.2201, 16.9988, 13.2504, -41.2435, -9.62695
4.24, 5, 8.63138, 26.2702, 16.9769, 13.1332, -41.3337, -9.53752
4.244, 5, 8.57025, 26.3201, 16.9551, 13.0163, -41.4241, -9.44841
4.248, 5, 8.50907, 26.3699, 16.9335, 12.8999, -41.5146, -9.35963
4.252, 5, 8.44785, 26.4195, 16.9121, 12.7837, -41.6054, -9.27117
4.256, 5, 8.38659, 26.4689, 16.8909, 12.6679, -41.6962, -9.18303
4.26, 5, 8.32529, 26.5183, 16.87, 12.5524, -41.7873, -9.09521
4.264, 5, 8.26394, 26.5674, 16.8492, 12.4373, -41.8785, -9.00772
4.268, 5, 8.20255, 26.6165, 16.8286, 12.3225, -41.9698, -8.92054
4.272, 5, 8.14111, 26.6653, 16.8082, 12.208, -42.0614, -8.83368
4.276, 5, 8.07964, 26.7141, 16.788, 12.0939, -42.153, -8.74714
4.28, 5, 8.01812, 26.7626, 16.768, 11.9801, -42.2449, -8.66092
4.284, 5, 7.95656, 26.8111, 16.7482, 11.8667, -42.3369, -8.57501
4.288, 5, 7.89496, 26.8594, 16.7287, 11.7536, -42.4291, -8.48941
4.292, 5, 7.83332, 26.9075, 16.7093, 11.6408, -42.5215, -8.40413
4.296, 5, 7.77164, 26.9555, 16.6901, 11.5283, -42.614, -8.31916
4.3, 5, 7.70991, 27.0033, 16.6711, 11.4162, -42.7066, -8.2345
4.304, 5, 7.64815, 27.051, 16.6523, 11.3045, -42.7995, -8.15016
4.308, 5, 7.58635, 27.0986, 16.6337, 11.193, -42.8925, -8.06612
4.312, 5, 7.52451, 27.146, 16.6154, 11.0819, -42.9856, -7.98239
4.316, 5, 7.46263, 27.1932, 16.5972, 10.9711, -43.079, -7.89898
4.32, 5, 7.40072, 27.2404, 16.5792, 10.8606, -43.1725, -7.81587
4.324, 5, 7.33877, 27.2873, 16.5614, 10.7505, -43.2661, -7.73306
4.328, 5, 7.27677, 27.3341, 16.5439, 10.6407, -43.3599, -7.65056
4.332, 5, 7.21475, 27.3808, 16.5265, 10.5312, -43.4539, -7.56837
4.336, 5, 7.15268, 27.4273, 16.5094, 10.422, -43.548, -7.48648
4.34, 5, 7.09058, 27.4737, 16.4924, 10.3132, -43.6423, -7.4049
4.344, 5, 7.02844, 27.5199, 16.4756, 10.2047, -43.7368, -7.32361
4.348, 5, 6.96627, 27.566, 16.4591, 10.0965, -43.8314, -7.24263
4.352, 5, 6.90406, 27.6119, 16.4428, 9.98862, -43.9262, -7.16195
4.356, 5, 6.84182, 27.6577, 16.4266, 9.88107, -44.0212, -7.08157
4.36, 5, 6.77954, 27.7034, 16.4107, 9.77385, -44.1163, -7.00149
4.364, 5, 6.71723, 27.7488, 16.395, 9.66695, -44.2115, -6.92171
4.368, 5, 6.65488, 27.7942, 16.3794, 9.56036, -44.307, -6.84222
4.372, 5, 6.5925, 27.8394, 16.3641, 9.4541, -44.4025, -6.76304
4.376, 5, 6.53009, 27.8844, 16.349, 9.34815, -44.4983, -6.68415
4.38, 5, 6.46764, 27.9294, 16.3341, 9.24252, -44.5942, -6.60555
4.384, 5, 6.40516, 27.9741, 16.3194, 9.13721, -44.6903, -6.52725
4.388, 5, 6.34265, 28.0187, 16.3049, 9.03221, -44.7865, -6.44924
4.392, 5, 6.2801, 28.0632, 16.2906, 8.92753, -44.8829, -6.37153
4.396, 5, 6.21753, 28.1075, 16.2766, 8.82316, -44.9795, -6.29411
4.4, 5, 6.15492, 28.1517, 16.2627, 8.71911, -45.0762, -6.21698
4.404, 5, 6.09227, 28.1957, 16.249, 8.61537, -45.173, -6.14014
4.408, 5, 6.0296, 28.2396, 16.2356, 8.51195, -45.2701, -6.0636
4.412, 5, 5.9669, 28.2833, 16.2223, 8.40883, -45.3673, -5.98734
4.416, 5, 5.90416, 28.3269, 16.2093, 8.30603, -45.4646, -5.91137
4.42, 5, 5.8414, 28.3703, 16.1965, 8.20354, -45.5621, -5.83569
4.424, 5, 5.7786, 28.4136, 16.1838, 8.10136, -45.6598, -5.7603
4.428, 5, 5.71578, 28.4568, 16.1714, 7.99949, -45.7577, -5.68519
4.432, 5, 5.65293, 28.4998, 16.1592, 7.89792, -45.8557, -5.61037
4.436, 5, 5.59005, 28.5427, 16.1472, 7.79667, -45.9538, -5.53583
4.44, 5, 5.52714, 28.5854, 16.1355, 7.69571, -46.0521, -5.46158
4.444, 5, 5.4642, 28.6279, 16.1239, 7.59507, -46.1506, -5.38761
4.448, 5, 5.40123, 28.6703, 16.1125, 7.49473, -46.2493, -5.31392
4.452, 5, 5.33824, 28.7126, 16.1014, 7.39469, -46.3481, -5.24051
4.456, 5, 5.27523, 28.7548, 16.0905, 7.29495, -46.447, -5.16738
4.46, 5, 5.21218, 28.7967, 16.0798, 7.19552, -46.5461, -5.09453
4.464, 5, 5.14911, 28.8386, 16.0692, 7.09639, -46.6454, -5.02196
4.468, 5, 5.08601, 28.8803, 16.0589, 6.99755, -46.7449, -4.94966
4.472, 5, 5.02289, 28.9218, 16.0489, 6.89901, -46.8445, -4.87764
4.476, 5, 4.95974, 28.9632, 16.039, 6.80077, -46.9442, -4.8059
4.48, 5, 4.89657, 29.0045, 16.0293, 6.70283, -47.0442, -4.73442
4.484, 5, 4.83337, 29.0456, 16.0199, 6.60518, -47.1443, -4.66322
4.488, 5, 4.77014, 29.0866, 16.0106, 6.50782, -47.2445, -4.5923
4.492, 5, 4.7069, 29.1274, 16.0016, 6.41076, -47.3449, -4.52164
4.496, 5, 4.64362, 29.1681, 15.9928, 6.31399, -47.4455, -4.45125
4.5, 5, 4.58033, 29.2086, 15.9842, 6.21751, -47.5462, -4.38113
4.504, 5, 4.51701, 29.249, 15.9758, 6.12132, -47.647, -4.31128
4.508, 5, 4.45367, 29.2893, 15.9677, 6.02542, -47.7481, -4.2417
4.512, 5, 4.3903, 29.3294, 15.9597, 5.92981, -47.8493, -4.17238
4.516, 5, 4.32692, 29.3693, 15.9519, 5.83448, -47.9506, -4.10333
4.52, 5, 4.26351, 29.4092, 15.9444, 5.73945, -48.0521, -4.03454
4.524, 5, 4.20009, 29.4488, 15.9371, 5.64469, -48.1538, -3.96602
4.528, 5, 4.13664, 29.4884, 15.93, 5.55023, -48.2556, -3.89776
4.532, 5, 4.07317, 29.5278, 15.9231, 5.45604, -48.3575, -3.82976
4.536, 5, 4.00968, 29.567, 15.9164, 5.36214, -48.4596, -3.76202
4.54, 5, 3.94617, 29.6061, 15.9099, 5.26852, -48.5619, -3.69454
4.544, 5, 3.88265, 29.6451, 15.9037, 5.17518, -48.6644, -3.62732
4.548, 5, 3.8191, 29.6839, 15.8976, 5.08213, -48.7669, -3.56036
4.552, 5, 3.75554, 29.7226, 15.8918, 4.98935, -48.8697, -3.49366
4.556, 5, 3.69195, 29.7612, 15.8862, 4.89685, -48.9726, -3.42722
4.56, 5, 3.62836, 29.7996, 15.8808, 4.80463, -49.0756, -3.36103
4.564, 5, 3.56474, 29.8378, 15.8756, 4.71269, -49.1788, -3.2951
4.568, 5, 3.50111, 29.8759, 15.8706, 4.62102, -49.2822, -3.22942
4.572, 5, 3.43746, 29.9139, 15.8659, 4.52963, -49.3857, -3.164
4.576, 5, 3.37379, 29.9518, 15.8613, 4.43852, -49.4893, -3.09883
4.58, 5, 3.31011, 29.9895, 15.857, 4.34767, -49.5931, -3.03391
4.584, 5, 3.24641, 30.027, 15.8529, 4.25711, -49.6971, -2.96924
4.588, 5, 3.1827, 30.0644, 15.849, 4.16681, -49.8012, -2.90483
4.592, 5, 3.11898, 30.1017, 15.8453, 4.07679, -49.9055, -2.84067
4.596, 5, 3.05524, 30.1388, 15.8418, 3.98704, -50.0099, -2.77676
4.6, 5, 2.99148, 30.1758, 15.8385, 3.89756, -50.1145, -2.71309
4.604, 5, 2.92771, 30.2127, 15.8355, 3.80835, -50.2192, -2.64968
4.608, 5, 2.86393, 30.2494, 15.8327, 3.71941, -50.324, -2.58651
4.612, 5, 2.80014, 30.286, 15.8301, 3.63074, -50.4291, -2.52359
4.616, 5, 2.73633, 30.3224, 15.8277, 3.54234, -50.5342, -2.46092
4.62, 5, 2.67251, 30.3587, 15.8255, 3.45421, -50.6396, -2.39849
4.624, 5, 2.60868, 30.3948, 15.8235, 3.36634, -50.745, -2.33631
4.628, 5, 2.54484, 30.4308, 15.8218, 3.27874, -50.8506, -2.27438
4.632, 5, 2.48099, 30.4667, 15.8202, 3.1914, -50.9564, -2.21269
4.636, 5, 2.41712, 30.5024, 15.8189, 3.10434, -51.0623, -2.15124
4.64, 5, 2.35325, 30.538, 15.8178, 3.01753, -51.1684, -2.09004
4.644, 5, 2.28937, 30.5735, 15.8169, 2.93099, -51.2746, -2.02908
4.648, 5, 2.22547, 30.6088, 15.8163, 2.84471, -51.381, -1.96836
4.652, 5, 2.16157, 30.644, 15.8158, 2.7587, -51.4875, -1.90788
4.656, 5, 2.09765, 30.679, 15.8156, 2.67295, -51.5942, -1.84764
4.66, 5, 2.03373, 30.7139, 15.8156, 2.58746, -51.701, -1.78765
4.664, 5, 1.9698, 30.7486, 15.8158, 2.50223, -51.808, -1.72789
4.668, 5, 1.90586, 30.7832, 15.8162, 2.41726, -51.9151, -1.66838
4.672, 5, 1.84191, 30.8177, 15.8169, 2.33255, -52.0223, -1.6091
4.676, 5, 1.77795, 30.8521, 15.8177, 2.24811, -52.1297, -1.55006
4.68, 5, 1.71399, 30.8862, 15.8188, 2.16392, -52.2373, -1.49126
4.684, 5, 1.65002, 30.9203, 15.8201, 2.07999, -52.345, -1.4327
4.688, 5, 1.58604, 30.9542, 15.8216, 1.99632, -52.4529, -1.37437
4.692, 5, 1.52206, 30.988, 15.8234, 1.9129, -52.5609, -1.31629
4.696, 5, 1.45807, 31.0216, 15.8253, 1.82975, -52.669, -1.25843
4.7, 5, 1.39408, 31.0551, 15.8275, 1.74685, -52.7773, -1.20081
4.704, 5, 1.33008, 31.0885, 15.8299, 1.6642, -52.8858, -1.14343
4.708, 5, 1.26607, 31.1217, 15.8325, 1.58182, -52.9944, -1.08628
4.712, 5, 1.20206, 31.1548, 15.8353, 1.49968, -53.1031, -1.02937
4.716, 5, 1.13805, 31.1877, 15.8384, 1.4178, -53.212, -0.972685
4.72, 5, 1.07403, 31.2205, 15.8417, 1.33618, -53.321, -0.916235
4.724, 5, 1.01, 31.2532, 15.8452, 1.2548, -53.4302, -0.860017
4.728, 5, 0.945977, 31.2857, 15.8489, 1.17368, -53.5395, -0.804029
4.732, 5, 0.881945, 31.3181, 15.8528, 1.0928, -53.649, -0.748271
4.736, 5, 0.81791, 31.3503, 15.857, 1.01218, -53.7586, -0.692742
4.74, 5, 0.753872, 31.3824, 15.8614, 0.931804, -53.8684, -0.637441
4.744, 5, 0.689832, 31.4144, 15.866, 0.851675, -53.9783, -0.582368
4.748, 5, 0.62579, 31.4463, 15.8708, 0.771792, -54.0884, -0.52752
4.752, 5, 0.561746, 31.478, 15.8758, 0.692155, -54.1986, -0.472899
4.756, 5, 0.497701, 31.5095, 15.8811, 0.612761, -54.309, -0.418502
4.76, 6, 0.433655, 31.541, 15.8865, 0.533611, -54.4195, -0.364328
4.764, 6, 0.369609, 31.5723, 15.8922, 0.454704, -54.5302, -0.310379
4.768, 6, 0.305563, 31.6034, 15.8981, 0.376038, -54.641, -0.256651
4.772, 6, 0.241517, 31.6344, 15.9043, 0.297613, -54.7519, -0.203146
4.776, 6, 0.177471, 31.6653, 15.9106, 0.219428, -54.863, -0.149862
4.78, 6, 0.113426, 31.6961, 15.9172, 0.141483, -54.9743, -0.0967989
4.784, 6, 0.0493824, 31.7267, 15.924, 0.0637761, -55.0857, -0.0439558
4.788, 6, -0.0146595, 31.7572, 15.931, -0.0136922, -55.1972, 0.0086677
4.792, 6, -0.0786996, 31.7876, 15.9383, -0.0909229, -55.3089, 0.0610721
4.796, 6, -0.142738, 31.8178, 15.9457, -0.167917, -55.4208, 0.113258
4.8, 6, -0.206774, 31.8479, 15.9534, -0.244674, -55.5327, 0.165226
4.804, 6, -0.270808, 31.8778, 15.9613, -0.321196, -55.6449, 0.216977
4.808, 6, -0.334839, 31.9076, 15.9694, -0.397482, -55.7571, 0.26851
4.812, 6, -0.398868, 31.9373, 15.9777, -0.473534, -55.8695, 0.319827
4.816, 6, -0.462895, 31.9669, 15.9863, -0.549352, -55.9821, 0.370929
4.82, 6, -0.526918, 31.9963, 15.995, -0.624937, -56.0948, 0.421815
4.824, 6, -0.590939, 32.0256, 16.004, -0.700288, -56.2076, 0.472486
4.828, 6, -0.654955, 32.0547, 16.0132, -0.775408, -56.3206, 0.522943
4.832, 6, -0.718968, 32.0837, 16.0227, -0.850296, -56.4337, 0.573186
4.836, 6, -0.782976, 32.1126, 16.0323, -0.924954, -56.547, 0.623216
4.84, 6, -0.84698, 32.1414, 16.0422, -0.999381, -56.6604, 0.673033
4.844, 6, -0.910978, 32.17, 16.0523, -1.07358, -56.774, 0.722638
4.848, 6, -0.974971, 32.1985, 16.0626, -1.14755, -56.8877, 0.772031
4.852, 6, -1.03896, 32.2268, 16.0731, -1.22129, -57.0015, 0.821213
4.856, 6, -1.10294, 32.255, 16.0839, -1.2948, -57.1155, 0.870185
4.86, 6, -1.16691, 32.2831, 16.0949, -1.36808, -57.2297, 0.918946
4.864, 6, -1.23087, 32.3111, 16.1061, -1.44114, -57.3439, 0.967498
4.868, 6, -1.29483, 32.3389, 16.1175, -1.51398, -57.4583, 1.01584
4.872, 6, -1.35878, 32.3666, 16.1292, -1.58659, -57.5729, 1.06398
4.876, 6, -1.42271, 32.3941, 16.141, -1.65897, -57.6876, 1.1119
4.88, 6, -1.48665, 32.4216, 16.1531, -1.73113, -57.8024, 1.15962
4.884, 6, -1.55057, 32.4489, 16.1654, -1.80307, -57.9174, 1.20714
4.888, 6, -1.61448, 32.476, 16.178, -1.87479, -58.0325, 1.25445
4.892, 6, -1.67839, 32.503, 16.1907, -1.94628, -58.1478, 1.30155
4.896, 6, -1.74228, 32.5299, 16.2037, -2.01756, -58.2632, 1.34845
4.9, 6, -1.80617, 32.5567, 16.2169, -2.08861, -58.3787, 1.39514
4.904, 6, -1.87004, 32.5833, 16.2304, -2.15945, -58.4944, 1.44163
4.908, 6, -1.93391, 32.6098, 16.244, -2.23007, -58.6102, 1.48792
4.912, 6, -1.99776, 32.6362, 16.2579, -2.30047, -58.7262, 1.534
4.916, 6, -2.06161, 32.6625, 16.272, -2.37066, -58.8423, 1.57989
4.92, 6, -2.12544, 32.6886, 16.2863, -2.44063, -58.9585, 1.62557
4.924, 6, -2.18926, 32.7146, 16.3008, -2.51039, -59.0749, 1.67106
4.928, 6, -2.25307, 32.7404, 16.3155, -2.57993, -59.1914, 1.71634
4.932, 6, -2.31686, 32.7661, 16.3305, -2.64926, -59.308, 1.76142
4.936, 6, -2.38065, 32.7917, 16.3457, -2.71837, -59.4248, 1.80631
4.94, 6, -2.44442, 32.8172, 16.3611, -2.78728, -59.5417, 1.851
4.944, 6, -2.50817, 32.8425, 16.3767, -2.85597, -59.6587, 1.89549
4.948, 6, -2.57192, 32.8678, 16.3925, -2.92446, -59.7759, 1.93978
4.952, 6, -2.63564, 32.8929, 16.4086, -2.99273, -59.8932, 1.98388
4.956, 6, -2.69936, 32.9178, 16.4249, -3.0608, -60.0106, 2.02778
4.96, 6, -2.76306, 32.9426, 16.4413, -3.12866, -60.1282, 2.07149
4.964, 6, -2.82674, 32.9674, 16.458, -3.19631, -60.2459, 2.115
4.968, 6, -2.89041, 32.9919, 16.475, -3.26375, -60.3638, 2.15832
4.972, 6, -2.95406, 33.0164, 16.4921, -3.33099, -60.4817, 2.20145
4.976, 6, -3.01769, 33.0407, 16.5095, -3.39802, -60.5998, 2.24438
4.98, 6, -3.08131, 33.0649, 16.527, -3.46485, -60.7181, 2.28712
4.984, 6, -3.14491, 33.089, 16.5448, -3.53147, -60.8364, 2.32967
4.988, 6, -3.2085, 33.113, 16.5628, -3.59789, -60.9549, 2.37202
4.992, 6, -3.27206, 33.1368, 16.581, -3.66411, -61.0736, 2.41419
4.996, 6, -3.33561, 33.1605, 16.5995, -3.73013, -61.1923, 2.45616
5, 6, -3.39914, 33.1841, 16.6181, -3.79594, -61.3112, 2.49795
5.004, 6, -3.46265, 33.2076, 16.637, -3.86155, -61.4302, 2.53954
5.008, 6, -3.52614, 33.2309, 16.6561, -3.92697, -61.5494, 2.58095
5.012, 6, -3.58961, 33.2541, 16.6753, -3.99218, -61.6686, 2.62217
5.016, 6, -3.65306, 33.2772, 16.6949, -4.0572, -61.788, 2.6632
5.02, 6, -3.71649, 33.3002, 16.7146, -4.12202, -61.9076, 2.70404
5.024, 6, -3.7799, 33.323, 16.7345, -4.18664, -62.0272, 2.74469
5.028, 6, -3.84328, 33.3458, 16.7547, -4.25106, -62.147, 2.78516
5.032, 6, -3.90665, 33.3684, 16.775, -4.31529, -62.2669, 2.82544
5.036, 6, -3.96999, 33.3908, 16.7956, -4.37932, -62.387, 2.86554
5.04, 6, -4.03332, 33.4132, 16.8164, -4.44316, -62.5071, 2.90545
5.044, 6, -4.09662, 33.4354, 16.8374, -4.5068, -62.6274, 2.94518
5.048, 6, -4.15989, 33.4576, 16.8586, -4.57025, -62.7478, 2.98472
5.052, 6, -4.22314, 33.4796, 16.88, -4.63351, -62.8684, 3.02408
5.056, 6, -4.28637, 33.5014, 16.9017, -4.69657, -62.9891, 3.06325
5.06, 6, -4.34958, 33.5232, 16.9235, -4.75944, -63.1098, 3.10224
5.064, 6, -4.41276, 33.5448, 16.9456, -4.82212, -63.2308, 3.14105
5.068, 6, -4.47592, 33.5663, 16.9679, -4.88461, -63.3518, 3.17968
5.072, 6, -4.53905, 33.5877, 16.9904, -4.94691, -63.473, 3.21812
5.076, 6, -4.60215, 33.609, 17.0131, -5.00901, -63.5943, 3.25639
5.08, 6, -4.66523, 33.6302, 17.036, -5.07093, -63.7157, 3.29447
5.084, 6, -4.72828, 33.6512, 17.0591, -5.13266, -63.8372, 3.33237
5.088, 6, -4.79131, 33.6721, 17.0825, -5.1942, -63.9589, 3.37009
5.092, 6, -4.85431, 33.6929, 17.106, -5.25556, -64.0807, 3.40763
5.096, 6, -4.91728, 33.7136, 17.1298, -5.31672, -64.2026, 3.44499
5.1, 6, -4.98023, 33.7341, 17.1538, -5.3777, -64.3246, 3.48217
5.104, 6, -5.04314, 33.7546, 17.1779, -5.4385, -64.4467, 3.51918
5.108, 6, -5.10603, 33.7749, 17.2024, -5.4991, -64.569, 3.556
5.112, 6, -5.16889, 33.7951, 17.227, -5.55953, -64.6914, 3.59265
5.116, 6, -5.23172, 33.8152, 17.2518, -5.61977, -64.8139, 3.62912
5.12, 6, -5.29452, 33.8352, 17.2768, -5.67982, -64.9365, 3.66541
5.124, 6, -5.35729, 33.855, 17.3021, -5.73969, -65.0593, 3.70152
5.128, 6, -5.42003, 33.8748, 17.3275, -5.79938, -65.1822, 3.73746
5.132, 6, -5.48274, 33.8944, 17.3532, -5.85888, -65.3052, 3.77322
5.136, 6, -5.54542, 33.9139, 17.3791, -5.9182, -65.4283, 3.8088
5.14, 6, -5.60807, 33.9333, 17.4052, -5.97734, -65.5515, 3.84421
5.144, 6, -5.67068, 33.9525, 17.4315, -6.0363, -65.6749, 3.87945
5.148, 6, -5.73327, 33.9717, 17.458, -6.09508, -65.7984, 3.9145
5.152, 6, -5.79582, 33.9907, 17.4848, -6.15368, -65.922, 3.94939
5.156, 6, -5.85834, 34.0096, 17.5117, -6.2121, -66.0457, 3.9841
5.16, 6, -5.92082, 34.0284, 17.5389, -6.27034, -66.1695, 4.01863
5.164, 6, -5.98327, 34.0471, 17.5662, -6.3284, -66.2935, 4.05299
5.168, 6, -6.04569, 34.0657, 17.5938, -6.38628, -66.4175, 4.08718
5.172, 6, -6.10807, 34.0841, 17.6216, -6.44398, -66.5417, 4.1212
5.176, 6, -6.17042, 34.1024, 17.6496, -6.50151, -66.666, 4.15504
5.18, 6, -6.23273, 34.1207, 17.6779, -6.55886, -66.7905, 4.18871
5.184, 6, -6.29501, 34.1388, 17.7063, -6.61603, -66.915, 4.2222
5.188, 6, -6.35725, 34.1567, 17.7349, -6.67303, -67.0396, 4.25553
5.192, 6, -6.41945, 34.1746, 17.7638, -6.72985, -67.1644, 4.28868
5.196, 6, -6.48162, 34.1924, 17.7928, -6.78649, -67.2893, 4.32166
5.2, 6, -6.54376, 34.21, 17.8221, -6.84296, -67.4143, 4.35447
5.204, 6, -6.60585, 34.2275, 17.8516, -6.89925, -67.5395, 4.38711
5.208, 6, -6.66791, 34.2449, 17.8813, -6.95537, -67.6647, 4.41958
5.212, 6, -6.72993, 34.2622, 17.9112, -7.01132, -67.7901, 4.45187
5.216, 6, -6.79192, 34.2794, 17.9414, -7.0671, -67.9155, 4.484
5.22, 6, -6.85387, 34.2965, 17.9717, -7.1227, -68.0411, 4.51596
5.224, 6, -6.91578, 34.3135, 18.0023, -7.17813, -68.1668, 4.54775
5.228, 6, -6.97765, 34.3303, 18.033, -7.23339, -68.2927, 4.57938
5.232, 6, -7.03948, 34.347, 18.064, -7.28849, -68.4186, 4.61083
5.236, 6, -7.10128, 34.3636, 18.0952, -7.34341, -68.5447, 4.64212
5.24, 6, -7.16303, 34.3801, 18.1266, -7.39817, -68.6709, 4.67324
5.244, 6, -7.22475, 34.3965, 18.1582, -7.45276, -68.7971, 4.7042
5.248, 6, -7.28642, 34.4128, 18.19, -7.50718, -68.9235, 4.73499
5.252, 6, -7.34805, 34.429, 18.222, -7.56144, -69.0501, 4.76561
5.256, 6, -7.40964, 34.4451, 18.2543, -7.61554, -69.1767, 4.79608
5.26, 6, -7.47119, 34.461, 18.2867, -7.66947, -69.3035, 4.82637
5.264, 6, -7.5327, 34.4768, 18.3194, -7.72324, -69.4303, 4.85651
5.268, 6, -7.59416, 34.4926, 18.3522, -7.77684, -69.5573, 4.88648
5.272, 6, -7.65558, 34.5082, 18.3853, -7.83029, -69.6844, 4.91629
5.276, 6, -7.71696, 34.5237, 18.4186, -7.88357, -69.8116, 4.94594
5.28, 6, -7.7783, 34.5391, 18.4521, -7.93669, -69.9389, 4.97542
5.284, 6, -7.83959, 34.5544, 18.4858, -7.98966, -70.0664, 5.00475
5.288, 6, -7.90084, 34.5696, 18.5197, -8.04246, -70.1939, 5.03391
5.292, 6, -7.96205, 34.5847, 18.5538, -8.09511, -70.3216, 5.06291
5.296, 6, -8.02321, 34.5997, 18.5881, -8.14759, -70.4494, 5.09175
5.3, 6, -8.08433, 34.6145, 18.6226, -8.19992, -70.5773, 5.12043
5.304, 6, -8.1454, 34.6293, 18.6573, -8.25209, -70.7053, 5.14895
5.308, 6, -8.20643, 34.644, 18.6922, -8.30411, -70.8334, 5.1773
5.312, 6, -8.26741, 34.6585, 18.7274, -8.35596, -70.9616, 5.2055
5.316, 6, -8.32835, 34.6729, 18.7627, -8.40767, -71.09, 5.23354
5.32, 6, -8.38924, 34.6873, 18.7982, -8.45921, -71.2184, 5.26142
5.324, 6, -8.45008, 34.7015, 18.834, -8.5106, -71.347, 5.28914
5.328, 6, -8.51088, 34.7157, 18.8699, -8.56184, -71.4756, 5.31671
5.332, 6, -8.57163, 34.7297, 18.9061, -8.61292, -71.6044, 5.34411
5.336, 6, -8.63233, 34.7436, 18.9424, -8.66385, -71.7333, 5.37136
5.34, 6, -8.69298, 34.7574, 18.979, -8.71463, -71.8623, 5.39844
5.344, 6, -8.75358, 34.7712, 19.0157, -8.76525, -71.9914, 5.42537
5.348, 6, -8.81414, 34.7848, 19.0527, -8.81572, -72.1206, 5.45215
5.352, 6, -8.87464, 34.7983, 19.0898, -8.86604, -72.2499, 5.47876
5.356, 6, -8.9351, 34.8117, 19.1272, -8.91621, -72.3794, 5.50522
5.36, 6, -8.9955, 34.825, 19.1647, -8.96622, -72.5089, 5.53152
5.364, 6, -9.05586, 34.8382, 19.2025, -9.01609, -72.6385, 5.55767
5.368, 6, -9.11616, 34.8513, 19.2404, -9.06581, -72.7683, 5.58366
5.372, 6, -9.17642, 34.8644, 19.2786, -9.11538, -72.8982, 5.60949
5.376, 6, -9.23662, 34.8773, 19.3169, -9.16479, -73.0281, 5.63517
5.38, 6, -9.29676, 34.8901, 19.3555, -9.21407, -73.1582, 5.66069
5.384, 6, -9.35686, 34.9028, 19.3942, -9.26319, -73.2884, 5.68605
5.388, 6, -9.4169, 34.9154, 19.4332, -9.31216, -73.4186, 5.71127
5.392, 6, -9.47689, 34.9279, 19.4723, -9.36099, -73.549, 5.73632
5.396, 6, -9.53682, 34.9403, 19.5117, -9.40967, -73.6795, 5.76122
5.4, 6, -9.5967, 34.9527, 19.5512, -9.45821, -73.8101, 5.78597
5.404, 6, -9.65653, 34.9649, 19.5909, -9.5066, -73.9408, 5.81057
5.408, 6, -9.7163, 34.977, 19.6308, -9.55485, -74.0716, 5.83501
5.412, 6, -9.77602, 34.989, 19.671, -9.60295, -74.2025, 5.85929
5.416, 6, -9.83568, 35.001, 19.7113, -9.6509, -74.3335, 5.88343
5.42, 6, -9.89528, 35.0128, 19.7518, -9.69872, -74.4646, 5.90741
5.424, 6, -9.95483, 35.0245, 19.7925, -9.74639, -74.5959, 5.93123
5.428, 6, -10.0143, 35.0362, 19.8334, -9.79392, -74.7272, 5.95491
5.432, 6, -10.0737, 35.0477, 19.8745, -9.8413, -74.8586, 5.97843
5.436, 6, -10.1331, 35.0592, 19.9158, -9.88855, -74.9901, 6.0018
5.44, 6, -10.1924, 35.0705, 19.9573, -9.93565, -75.1217, 6.02502
5.444, 6, -10.2517, 35.0818, 19.9989, -9.98261, -75.2534, 6.04808
5.448, 6, -10.3109, 35.093, 20.0408, -10.0294, -75.3853, 6.071
5.452, 6, -10.37, 35.104, 20.0829, -10.0761, -75.5172, 6.09376
5.456, 6, -10.4291, 35.115, 20.1251, -10.1227, -75.6492, 6.11638
5.46, 6, -10.4881, 35.1259, 20.1676, -10.1691, -75.7813, 6.13884
5.464, 6, -10.5471, 35.1367, 20.2102, -10.2153, -75.9136, 6.16115
5.468, 6, -10.606, 35.1474, 20.253, -10.2614, -76.0459, 6.18331
5.472, 6, -10.6648, 35.158, 20.296, -10.3074, -76.1783, 6.20532
5.476, 6, -10.7236, 35.1685, 20.3392, -10.3533, -76.3108, 6.22718
5.48, 6, -10.7823, 35.179, 20.3826, -10.399, -76.4434, 6.2489
5.484, 6, -10.8409, 35.1893, 20.4262, -10.4446, -76.5761, 6.27046
5.488, 6, -10.8995, 35.1996, 20.47, -10.49, -76.7089, 6.29187
5.492, 6, -10.958, 35.2097, 20.514, -10.5353, -76.8419, 6.31314
5.496, 6, -11.0165, 35.2198, 20.5581, -10.5805, -76.9749, 6.33425
5.5, 6, -11.0749, 35.2298, 20.6025, -10.6255, -77.108, 6.35522
5.504, 6, -11.1332, 35.2396, 20.647, -10.6704, -77.2412, 6.37604
5.508, 6, -11.1915, 35.2494, 20.6917, -10.7152, -77.3744, 6.39671
5.512, 6, -11.2496, 35.2591, 20.7366, -10.7599, -77.5078, 6.41723
5.516, 6, -11.3078, 35.2688, 20.7817, -10.8044, -77.6413, 6.43761
5.52, 6, -11.3658, 35.2783, 20.827, -10.8487, -77.7749, 6.45783
5.524, 6, -11.4238, 35.2877, 20.8725, -10.893, -77.9086, 6.47791
5.528, 6, -11.4817, 35.2971, 20.9181, -10.9371, -78.0423, 6.49785
5.532, 6, -11.5396, 35.3064, 20.964, -10.9811, -78.1762, 6.51763
5.536, 6, -11.5974, 35.3155, 21.01, -11.0249, -78.3101, 6.53727
5.54, 6, -11.6551, 35.3246, 21.0562, -11.0686, -78.4442, 6.55677
5.544, 6, -11.7127, 35.3336, 21.1026, -11.1122, -78.5783, 6.57612
5.548, 6, -11.7703, 35.3426, 21.1492, -11.1557, -78.7126, 6.59532
5.552, 6, -11.8278, 35.3514, 21.1959, -11.199, -78.8469, 6.61437
5.556, 6, -11.8853, 35.3602, 21.2429, -11.2422, -78.9813, 6.63328
5.56, 6, -11.9426, 35.3688, 21.29, -11.2853, -79.1158, 6.65205
5.564, 6, -11.9999, 35.3774, 21.3374, -11.3283, -79.2504, 6.67067
5.568, 6, -12.0571, 35.3859, 21.3849, -11.3711, -79.3851, 6.68914
5.572, 6, -12.1143, 35.3943, 21.4325, -11.4138, -79.5199, 6.70747
5.576, 6, -12.1714, 35.4027, 21.4804, -11.4564, -79.6548, 6.72566
5.58, 6, -12.2284, 35.4109, 21.5285, -11.4988, -79.7897, 6.7437
5.584, 6, -12.2853, 35.4191, 21.5767, -11.5411, -79.9248, 6.7616
5.588, 6, -12.3421, 35.4272, 21.6251, -11.5833, -80.0599, 6.77935
5.592, 6, -12.3989, 35.4352, 21.6737, -11.6254, -80.1952, 6.79696
5.596, 6, -12.4556, 35.4431, 21.7225, -11.6674, -80.3305, 6.81442
5.6, 6, -12.5123, 35.4509, 21.7715, -11.7092, -80.4659, 6.83175
5.604, 6, -12.5688, 35.4587, 21.8206, -11.7509, -80.6014, 6.84893
5.608, 6, -12.6253, 35.4664, 21.8699, -11.7925, -80.737, 6.86596
5.612, 6, -12.6817, 35.474, 21.9194, -11.8339, -80.8727, 6.88286
5.616, 6, -12.738, 35.4815, 21.9691, -11.8753, -81.0084, 6.89961
5.62, 6, -12.7943, 35.4889, 22.019, -11.9165, -81.1443, 6.91622
5.624, 6, -12.8505, 35.4963, 22.069, -11.9576, -81.2802, 6.93268
5.628, 6, -12.9065, 35.5036, 22.1192, -11.9986, -81.4162, 6.94901
5.632, 6, -12.9626, 35.5107, 22.1696, -12.0394, -81.5524, 6.96519
5.636, 6, -13.0185, 35.5179, 22.2202, -12.0802, -81.6886, 6.98123
5.64, 6, -13.0744, 35.5249, 22.2709, -12.1208, -81.8249, 6.99713
5.644, 6, -13.1301, 35.5319, 22.3219, -12.1613, -81.9613, 7.01289
5.648, 6, -13.1858, 35.5388, 22.373, -12.2017, -82.0977, 7.02851
5.652, 6, -13.2414, 35.5456, 22.4242, -12.242, -82.2343, 7.04398
5.656, 6, -13.297, 35.5523, 22.4757, -12.2822, -82.3709, 7.05932
5.66, 6, -13.3524, 35.559, 22.5273, -12.3222, -82.5077, 7.07451
5.664, 6, -13.4078, 35.5656, 22.5791, -12.3621, -82.6445, 7.08956
5.668, 6, -13.4631, 35.5721, 22.6311, -12.402, -82.7814, 7.10447
5.672, 6, -13.5183, 35.5786, 22.6833, -12.4417, -82.9184, 7.11924
5.676, 6, -13.5734, 35.585, 22.7356, -12.4812, -83.0555, 7.13387
5.68, 6, -13.6284, 35.5913, 22.7881, -12.5207, -83.1927, 7.14836
5.684, 6, -13.6834, 35.5975, 22.8408, -12.5601, -83.3299, 7.16271
5.688, 6, -13.7383, 35.6036, 22.8936, -12.5993, -83.4673, 7.17692
5.692, 6, -13.7931, 35.6097, 22.9466, -12.6384, -83.6047, 7.19099
5.696, 6, -13.8478, 35.6157, 22.9998, -12.6775, -83.7422, 7.20491
5.7, 6, -13.9024, 35.6217, 23.0532, -12.7164, -83.8799, 7.2187
5.704, 6, -13.9569, 35.6275, 23.1067, -12.7552, -84.0175, 7.23234
5.708, 6, -14.0113, 35.6334, 23.1604, -12.7938, -84.1553, 7.24585
5.712, 6, -14.0657, 35.6391, 23.2143, -12.8324, -84.2932, 7.25921
5.716, 6, -14.12, 35.6448, 23.2683, -12.8709, -84.4311, 7.27244
5.72, 6, -14.1741, 35.6503, 23.3225, -12.9092, -84.5691, 7.28552
5.724, 6, -14.2282, 35.6559, 23.3769, -12.9475, -84.7073, 7.29846
5.728, 6, -14.2822, 35.6613, 23.4314, -12.9856, -84.8454, 7.31127
5.732, 6, -14.3361, 35.6667, 23.4861, -13.0236, -84.9837, 7.32393
5.736, 6, -14.39, 35.6721, 23.541, -13.0615, -85.1221, 7.33646
5.74, 6, -14.4437, 35.6773, 23.596, -13.0993, -85.2605, 7.34884
5.744, 6, -14.4973, 35.6825, 23.6512, -13.137, -85.3991, 7.36108
5.748, 6, -14.5509, 35.6876, 23.7066, -13.1746, -85.5377, 7.37319
5.752, 6, -14.6043, 35.6927, 23.7621, -13.2121, -85.6763, 7.38515
5.756, 6, -14.6577, 35.6977, 23.8178, -13.2494, -85.8151, 7.39697
5.76, 6, -14.711, 35.7027, 23.8737, -13.2867, -85.954, 7.40866
5.764, 6, -14.7642, 35.7075, 23.9297, -13.3238, -86.0929, 7.4202
5.768, 6, -14.8172, 35.7123, 23.9859, -13.3609, -86.2319, 7.43161
5.772, 6, -14.8702, 35.7171, 24.0422, -13.3978, -86.371, 7.44287
5.776, 6, -14.9231, 35.7218, 24.0987, -13.4347, -86.5102, 7.454
5.78, 6, -14.9759, 35.7264, 24.1554, -13.4714, -86.6494, 7.46499
5.784, 6, -15.0286, 35.7309, 24.2122, -13.508, -86.7887, 7.47584
5.788, 6, -15.0812, 35.7355, 24.2692, -13.5445, -86.9282, 7.48654
5.792, 6, -15.1337, 35.7399, 24.3263, -13.5809, -87.0676, 7.49711
5.796, 6, -15.1862, 35.7443, 24.3837, -13.6172, -87.2072, 7.50754
5.8, 6, -15.2385, 35.7486, 24.4411, -13.6535, -87.3469, 7.51784
5.804, 6, -15.2907, 35.7528, 24.4987, -13.6896, -87.4866, 7.52799
5.808, 6, -15.3428, 35.757, 24.5565, -13.7256, -87.6264, 7.538
5.812, 6, -15.3948, 35.7612, 24.6145, -13.7615, -87.7663, 7.54787
5.816, 6, -15.4467, 35.7653, 24.6725, -13.7972, -87.9062, 7.55761
5.82, 6, -15.4985, 35.7693, 24.7308, -13.8329, -88.0462, 7.56721
5.824, 6, -15.5503, 35.7733, 24.7892, -13.8685, -88.1863, 7.57666
5.828, 6, -15.6019, 35.7772, 24.8478, -13.904, -88.3265, 7.58598
5.832, 6, -15.6534, 35.7811, 24.9065, -13.9394, -88.4668, 7.59517
5.836, 6, -15.7048, 35.7849, 24.9653, -13.9747, -88.6071, 7.60421
5.84, 6, -15.7561, 35.7886, 25.0244, -14.0099, -88.7475, 7.61311
5.844, 6, -15.8073, 35.7923, 25.0835, -14.045, -88.888, 7.62188
5.848, 6, -15.8584, 35.7959, 25.1429, -14.08, -89.0286, 7.63051
5.852, 6, -15.9094, 35.7995, 25.2023, -14.1148, -89.1692, 7.63899
5.856, 6, -15.9602, 35.8031, 25.262, -14.1496, -89.3099, 7.64735
5.86, 6, -16.011, 35.8065, 25.3218, -14.1843, -89.4507, 7.65556
5.864, 6, -16.0617, 35.81, 25.3817, -14.2189, -89.5915, 7.66363
5.868, 6, -16.1123, 35.8134, 25.4418, -14.2534, -89.7325, 7.67157
5.872, 6, -16.1627, 35.8167, 25.502, -14.2878, -89.8734, 7.67937
5.876, 6, -16.2131, 35.82, 25.5624, -14.3221, -90.0145, 7.68703
5.88, 6, -16.2633, 35.8232, 25.6229, -14.3563, -90.1557, 7.69455
5.884, 6, -16.3134, 35.8264, 25.6836, -14.3904, -90.2969, 7.70194
5.888, 6, -16.3634, 35.8295, 25.7444, -14.4245, -90.4382, 7.70918
5.892, 6, -16.4134, 35.8326, 25.8054, -14.4584, -90.5795, 7.71629
5.896, 6, -16.4632, 35.8356, 25.8665, -14.4922, -90.7209, 7.72326
5.9, 6, -16.5128, 35.8386, 25.9278, -14.5259, -90.8625, 7.73009
5.904, 6, -16.5624, 35.8415, 25.9892, -14.5596, -91.004, 7.73678
5.908, 6, -16.6119, 35.8444, 26.0508, -14.5931, -91.1457, 7.74333
5.912, 6, -16.6612, 35.8472, 26.1125, -14.6265, -91.2874, 7.74975
5.916, 6, -16.7104, 35.85, 26.1743, -14.6599, -91.4292, 7.75602
5.92, 6, -16.7595, 35.8527, 26.2363, -14.6931, -91.5711, 7.76216
5.924, 6, -16.8083, 35.8554, 26.2984, -14.7263, -91.713, 7.76816
5.928, 6, -16.8569, 35.858, 26.3606, -14.7594, -91.8549, 7.77402
5.932, 6, -16.9052, 35.8605, 26.423, -14.7923, -91.9969, 7.77973
5.936, 6, -16.9532, 35.8629, 26.4854, -14.8252, -92.1388, 7.78531
5.94, 6, -17.0008, 35.8652, 26.5478, -14.8579, -92.2805, 7.79074
5.944, 6, -17.0479, 35.8673, 26.6102, -14.8904, -92.422, 7.79603
