hehonglu123/ABB_Primitive_Study/execution/movec_smooth/curve_exe_v500_z20.csv
timestamp, cmd_num, J1, J2, J3, J4, J5, J6
0, 1, 32.9528, 52.8019, -8.46502, 89.9168, -78.8096, 34.6812
0.002, 1, 32.9528, 52.8019, -8.46502, 89.9168, -78.8096, 34.6812
0.004, 1, 32.9528, 52.8019, -8.46502, 89.9168, -78.8096, 34.6812
0.008, 1, 32.9528, 52.8019, -8.46502, 89.9168, -78.8096, 34.6812
0.011, 1, 32.9528, 52.8019, -8.46502, 89.9168, -78.8096, 34.6812
0.016, 1, 32.9528, 52.8019, -8.46502, 89.9168, -78.8096, 34.6812
0.02, 1, 32.9528, 52.8019, -8.46502, 89.9168, -78.8096, 34.6812
0.024, 1, 32.9528, 52.8019, -8.46502, 89.9168, -78.8096, 34.6812
0.028, 1, 32.9528, 52.8019, -8.46502, 89.9168, -78.8096, 34.6812
0.032, 1, 32.9528, 52.8019, -8.46502, 89.9168, -78.8096, 34.6812
0.036, 1, 32.9528, 52.8019, -8.46502, 89.9168, -78.8096, 34.6812
0.04, 1, 32.9529, 52.8019, -8.46502, 89.9168, -78.8096, 34.6812
0.044, 1, 32.9531, 52.8018, -8.46503, 89.9168, -78.8095, 34.6812
0.048, 1, 32.9535, 52.8014, -8.46504, 89.9169, -78.8095, 34.6812
0.052, 1, 32.9543, 52.8006, -8.46509, 89.9169, -78.8093, 34.6813
0.056, 1, 32.9556, 52.7993, -8.46521, 89.917, -78.8088, 34.6815
0.06, 1, 32.9574, 52.7971, -8.46543, 89.9173, -78.8079, 34.6818
0.064, 1, 32.9597, 52.794, -8.46584, 89.9178, -78.8061, 34.6824
0.068, 1, 32.9625, 52.7899, -8.46653, 89.9186, -78.803, 34.6835
0.072, 1, 32.9659, 52.7849, -8.46761, 89.92, -78.798, 34.6852
0.076, 1, 32.9697, 52.7789, -8.46923, 89.922, -78.7905, 34.6877
0.08, 1, 32.9741, 52.7719, -8.47155, 89.925, -78.7796, 34.6915
0.084, 1, 32.9791, 52.7639, -8.47475, 89.9292, -78.7644, 34.6967
0.088, 1, 32.9847, 52.7549, -8.47904, 89.9348, -78.744, 34.7037
0.092, 1, 32.991, 52.7451, -8.48461, 89.9421, -78.7174, 34.7128
0.096, 1, 32.9978, 52.7344, -8.49169, 89.9515, -78.6834, 34.7244
0.1, 1, 33.005, 52.7231, -8.50046, 89.9631, -78.6411, 34.7389
0.104, 1, 33.0126, 52.7112, -8.51109, 89.9773, -78.5897, 34.7566
0.108, 1, 33.0204, 52.699, -8.5237, 89.9942, -78.5285, 34.7775
0.112, 1, 33.0284, 52.6863, -8.53837, 90.0139, -78.4572, 34.802
0.116, 1, 33.0368, 52.673, -8.55512, 90.0364, -78.3757, 34.8299
0.12, 1, 33.0455, 52.6592, -8.57391, 90.0617, -78.2841, 34.8613
0.124, 1, 33.0546, 52.6447, -8.59467, 90.0896, -78.183, 34.896
0.128, 1, 33.0642, 52.6296, -8.61726, 90.12, -78.0728, 34.9337
0.131, 1, 33.0741, 52.6139, -8.64153, 90.1527, -77.9545, 34.9743
0.136, 1, 33.0844, 52.5977, -8.6673, 90.1875, -77.8288, 35.0174
0.139, 1, 33.0949, 52.5809, -8.69437, 90.2239, -77.6968, 35.0627
0.144, 1, 33.1058, 52.5633, -8.72251, 90.2618, -77.5596, 35.1097
0.148, 1, 33.1172, 52.5447, -8.75152, 90.3009, -77.4182, 35.1582
0.152, 1, 33.1293, 52.525, -8.7812, 90.3408, -77.2736, 35.2077
0.156, 1, 33.1421, 52.5041, -8.81138, 90.3814, -77.1267, 35.2581
0.16, 1, 33.1556, 52.4819, -8.8419, 90.4224, -76.9782, 35.309
0.164, 1, 33.17, 52.4586, -8.87265, 90.4637, -76.8286, 35.3603
0.168, 1, 33.1849, 52.4345, -8.90354, 90.5052, -76.6784, 35.4118
0.172, 1, 33.2004, 52.4098, -8.9345, 90.5467, -76.5279, 35.4634
0.176, 1, 33.2161, 52.3847, -8.9655, 90.5883, -76.3772, 35.515
0.18, 1, 33.2321, 52.3594, -8.9965, 90.6299, -76.2265, 35.5667
0.184, 1, 33.2481, 52.334, -9.02748, 90.6715, -76.076, 35.6183
0.188, 1, 33.2643, 52.3084, -9.05844, 90.713, -75.9256, 35.6699
0.192, 1, 33.2805, 52.2828, -9.08935, 90.7545, -75.7754, 35.7214
0.196, 1, 33.2967, 52.2573, -9.12022, 90.7959, -75.6254, 35.7728
0.2, 1, 33.3129, 52.2317, -9.15103, 90.8372, -75.4757, 35.8241
0.204, 1, 33.3291, 52.2061, -9.1818, 90.8785, -75.3262, 35.8753
0.208, 1, 33.3453, 52.1806, -9.21251, 90.9197, -75.177, 35.9265
0.212, 1, 33.3614, 52.1551, -9.24316, 90.9608, -75.028, 35.9775
0.216, 1, 33.3776, 52.1296, -9.27376, 91.0018, -74.8794, 36.0285
0.22, 1, 33.3937, 52.1042, -9.3043, 91.0428, -74.731, 36.0794
0.224, 1, 33.4098, 52.0788, -9.33479, 91.0837, -74.5829, 36.1302
0.228, 1, 33.4258, 52.0535, -9.36522, 91.1245, -74.435, 36.1808
0.232, 1, 33.4419, 52.0282, -9.3956, 91.1652, -74.2874, 36.2314
0.236, 1, 33.4579, 52.003, -9.42592, 91.2059, -74.1401, 36.2819
0.24, 1, 33.4738, 51.9778, -9.45618, 91.2465, -73.9931, 36.3323
0.244, 1, 33.4898, 51.9526, -9.48639, 91.287, -73.8463, 36.3826
0.248, 1, 33.5057, 51.9275, -9.51654, 91.3275, -73.6998, 36.4329
0.252, 1, 33.5216, 51.9025, -9.54664, 91.3678, -73.5536, 36.483
0.256, 1, 33.5374, 51.8774, -9.57668, 91.4081, -73.4076, 36.533
0.26, 1, 33.5533, 51.8525, -9.60667, 91.4483, -73.2619, 36.583
0.264, 1, 33.5691, 51.8276, -9.6366, 91.4885, -73.1165, 36.6328
0.268, 1, 33.5848, 51.8027, -9.66649, 91.5286, -72.9713, 36.6826
0.272, 1, 33.6006, 51.7778, -9.69631, 91.5686, -72.8264, 36.7323
0.276, 1, 33.6163, 51.7531, -9.72609, 91.6085, -72.6817, 36.7819
0.28, 1, 33.632, 51.7283, -9.75581, 91.6484, -72.5373, 36.8314
0.284, 1, 33.6476, 51.7036, -9.78547, 91.6882, -72.3932, 36.8808
0.288, 1, 33.6633, 51.679, -9.81509, 91.7279, -72.2493, 36.9301
0.292, 1, 33.6789, 51.6544, -9.84465, 91.7675, -72.1057, 36.9794
0.296, 1, 33.6945, 51.6298, -9.87416, 91.8071, -71.9623, 37.0285
0.3, 1, 33.71, 51.6053, -9.90362, 91.8466, -71.8191, 37.0776
0.304, 1, 33.7255, 51.5808, -9.93303, 91.8861, -71.6763, 37.1265
0.308, 1, 33.741, 51.5563, -9.96238, 91.9255, -71.5336, 37.1754
0.312, 1, 33.7565, 51.5319, -9.99169, 91.9648, -71.3913, 37.2243
0.316, 1, 33.7719, 51.5076, -10.0209, 92.004, -71.2491, 37.273
0.32, 1, 33.7873, 51.4833, -10.0501, 92.0432, -71.1073, 37.3216
0.324, 1, 33.8027, 51.459, -10.0793, 92.0823, -70.9656, 37.3702
0.328, 1, 33.8181, 51.4348, -10.1084, 92.1213, -70.8242, 37.4186
0.332, 1, 33.8334, 51.4106, -10.1374, 92.1603, -70.6831, 37.467
0.336, 1, 33.8487, 51.3864, -10.1665, 92.1992, -70.5422, 37.5153
0.34, 1, 33.864, 51.3623, -10.1954, 92.238, -70.4015, 37.5636
0.344, 1, 33.8793, 51.3383, -10.2243, 92.2768, -70.261, 37.6117
0.348, 1, 33.8945, 51.3142, -10.2532, 92.3155, -70.1209, 37.6598
0.352, 1, 33.9097, 51.2903, -10.282, 92.3541, -69.9809, 37.7077
0.356, 1, 33.9249, 51.2663, -10.3107, 92.3927, -69.8412, 37.7556
0.36, 1, 33.94, 51.2424, -10.3394, 92.4312, -69.7017, 37.8034
0.364, 1, 33.9552, 51.2186, -10.3681, 92.4696, -69.5624, 37.8512
0.368, 1, 33.9703, 51.1947, -10.3967, 92.508, -69.4234, 37.8988
0.372, 1, 33.9853, 51.171, -10.4253, 92.5463, -69.2846, 37.9464
0.376, 1, 34.0004, 51.1472, -10.4538, 92.5846, -69.1461, 37.9939
0.38, 1, 34.0154, 51.1235, -10.4823, 92.6228, -69.0078, 38.0413
0.384, 1, 34.0304, 51.0998, -10.5107, 92.6609, -68.8697, 38.0887
0.388, 1, 34.0454, 51.0762, -10.5391, 92.6989, -68.7318, 38.1359
0.392, 1, 34.0604, 51.0526, -10.5674, 92.7369, -68.5941, 38.1831
0.396, 1, 34.0753, 51.0291, -10.5957, 92.7749, -68.4567, 38.2302
0.4, 1, 34.0902, 51.0056, -10.6239, 92.8127, -68.3195, 38.2773
0.404, 1, 34.1051, 50.9821, -10.6521, 92.8506, -68.1826, 38.3242
0.408, 1, 34.1199, 50.9587, -10.6803, 92.8883, -68.0458, 38.3711
0.412, 1, 34.1348, 50.9353, -10.7084, 92.926, -67.9093, 38.4179
0.416, 1, 34.1496, 50.9119, -10.7364, 92.9636, -67.773, 38.4646
0.42, 1, 34.1643, 50.8886, -10.7644, 93.0012, -67.6369, 38.5113
0.424, 1, 34.1791, 50.8653, -10.7924, 93.0387, -67.501, 38.5579
0.428, 1, 34.1938, 50.8421, -10.8203, 93.0762, -67.3653, 38.6044
0.432, 1, 34.2086, 50.8189, -10.8482, 93.1136, -67.2299, 38.6508
0.436, 1, 34.2232, 50.7957, -10.876, 93.1509, -67.0947, 38.6971
0.44, 1, 34.2379, 50.7726, -10.9038, 93.1881, -66.9597, 38.7434
0.444, 1, 34.2526, 50.7495, -10.9315, 93.2254, -66.8249, 38.7896
0.448, 1, 34.2672, 50.7264, -10.9592, 93.2625, -66.6903, 38.8358
0.452, 1, 34.2818, 50.7034, -10.9869, 93.2996, -66.5559, 38.8818
0.456, 1, 34.2964, 50.6804, -11.0145, 93.3367, -66.4217, 38.9278
0.46, 1, 34.3109, 50.6574, -11.0421, 93.3736, -66.2878, 38.9738
0.464, 1, 34.3254, 50.6345, -11.0696, 93.4106, -66.154, 39.0196
0.468, 1, 34.3399, 50.6116, -11.0971, 93.4474, -66.0204, 39.0654
0.472, 1, 34.3544, 50.5888, -11.1246, 93.4842, -65.8871, 39.1111
0.476, 1, 34.3689, 50.566, -11.152, 93.521, -65.754, 39.1567
0.48, 1, 34.3833, 50.5432, -11.1793, 93.5577, -65.621, 39.2023
0.484, 1, 34.3978, 50.5204, -11.2066, 93.5943, -65.4883, 39.2478
0.488, 1, 34.4121, 50.4977, -11.2339, 93.6309, -65.3558, 39.2933
0.492, 1, 34.4265, 50.475, -11.2612, 93.6675, -65.2234, 39.3386
0.496, 1, 34.4409, 50.4524, -11.2883, 93.7039, -65.0913, 39.3839
0.5, 1, 34.4552, 50.4298, -11.3155, 93.7404, -64.9594, 39.4291
0.504, 1, 34.4695, 50.4072, -11.3426, 93.7767, -64.8276, 39.4743
0.508, 1, 34.4838, 50.3847, -11.3697, 93.813, -64.6961, 39.5194
0.512, 1, 34.4981, 50.3622, -11.3967, 93.8493, -64.5647, 39.5644
0.516, 1, 34.5123, 50.3397, -11.4237, 93.8855, -64.4336, 39.6094
0.52, 1, 34.5265, 50.3173, -11.4507, 93.9217, -64.3026, 39.6543
0.524, 1, 34.5408, 50.2949, -11.4776, 93.9578, -64.1719, 39.6991
0.528, 1, 34.5549, 50.2725, -11.5045, 93.9938, -64.0413, 39.7439
0.532, 1, 34.5691, 50.2501, -11.5313, 94.0298, -63.9109, 39.7886
0.536, 1, 34.5832, 50.2278, -11.5581, 94.0657, -63.7807, 39.8332
0.54, 1, 34.5974, 50.2056, -11.5848, 94.1016, -63.6507, 39.8777
0.544, 1, 34.6115, 50.1833, -11.6116, 94.1375, -63.5209, 39.9222
0.548, 1, 34.6255, 50.1611, -11.6382, 94.1732, -63.3913, 39.9667
0.552, 1, 34.6396, 50.1389, -11.6649, 94.209, -63.2619, 40.0111
0.556, 1, 34.6536, 50.1168, -11.6915, 94.2447, -63.1326, 40.0554
0.56, 1, 34.6677, 50.0947, -11.718, 94.2803, -63.0036, 40.0996
0.564, 1, 34.6817, 50.0726, -11.7446, 94.3159, -62.8747, 40.1438
0.568, 1, 34.6956, 50.0505, -11.7711, 94.3514, -62.746, 40.1879
0.572, 1, 34.7096, 50.0285, -11.7975, 94.3869, -62.6175, 40.2319
0.576, 1, 34.7235, 50.0065, -11.8239, 94.4223, -62.4892, 40.2759
0.58, 1, 34.7375, 49.9846, -11.8503, 94.4577, -62.361, 40.3199
0.584, 1, 34.7514, 49.9626, -11.8766, 94.493, -62.2331, 40.3637
0.588, 1, 34.7652, 49.9407, -11.9029, 94.5283, -62.1053, 40.4075
0.592, 1, 34.7791, 49.9189, -11.9292, 94.5635, -61.9777, 40.4513
0.596, 1, 34.7929, 49.897, -11.9554, 94.5987, -61.8503, 40.495
0.6, 1, 34.8068, 49.8752, -11.9816, 94.6338, -61.723, 40.5386
0.604, 1, 34.8206, 49.8535, -12.0078, 94.6689, -61.5959, 40.5821
0.608, 1, 34.8343, 49.8317, -12.0339, 94.7039, -61.4691, 40.6256
0.612, 1, 34.8481, 49.81, -12.0599, 94.7389, -61.3423, 40.6691
0.616, 1, 34.8618, 49.7883, -12.086, 94.7738, -61.2158, 40.7125
0.62, 1, 34.8756, 49.7667, -12.112, 94.8087, -61.0894, 40.7558
0.624, 1, 34.8893, 49.7451, -12.138, 94.8435, -60.9632, 40.799
0.628, 1, 34.903, 49.7235, -12.1639, 94.8783, -60.8372, 40.8422
0.632, 1, 34.9166, 49.7019, -12.1898, 94.9131, -60.7114, 40.8854
0.636, 1, 34.9303, 49.6804, -12.2157, 94.9478, -60.5857, 40.9284
0.64, 1, 34.9439, 49.6589, -12.2415, 94.9824, -60.4602, 40.9715
0.644, 1, 34.9575, 49.6374, -12.2673, 95.017, -60.3349, 41.0144
0.648, 1, 34.9711, 49.6159, -12.2931, 95.0516, -60.2097, 41.0573
0.652, 1, 34.9847, 49.5945, -12.3188, 95.0861, -60.0847, 41.1002
0.656, 1, 34.9983, 49.5731, -12.3445, 95.1205, -59.9599, 41.143
0.66, 1, 35.0118, 49.5518, -12.3701, 95.1549, -59.8352, 41.1857
0.664, 1, 35.0253, 49.5304, -12.3958, 95.1893, -59.7107, 41.2284
0.668, 1, 35.0388, 49.5091, -12.4214, 95.2236, -59.5864, 41.271
0.672, 1, 35.0523, 49.4879, -12.4469, 95.2579, -59.4622, 41.3136
0.676, 1, 35.0658, 49.4666, -12.4724, 95.2921, -59.3382, 41.3561
0.68, 1, 35.0792, 49.4454, -12.4979, 95.3263, -59.2144, 41.3985
0.684, 1, 35.0927, 49.4242, -12.5234, 95.3605, -59.0907, 41.4409
0.688, 1, 35.1061, 49.4031, -12.5488, 95.3946, -58.9672, 41.4833
0.692, 1, 35.1195, 49.3819, -12.5742, 95.4286, -58.8439, 41.5256
0.696, 1, 35.1329, 49.3608, -12.5995, 95.4626, -58.7207, 41.5678
0.7, 1, 35.1462, 49.3397, -12.6249, 95.4966, -58.5977, 41.61
0.704, 1, 35.1596, 49.3187, -12.6501, 95.5305, -58.4748, 41.6521
0.708, 1, 35.1729, 49.2977, -12.6754, 95.5644, -58.3521, 41.6941
0.712, 1, 35.1862, 49.2767, -12.7006, 95.5982, -58.2296, 41.7361
0.716, 1, 35.1995, 49.2557, -12.7258, 95.632, -58.1072, 41.7781
0.72, 1, 35.2128, 49.2347, -12.751, 95.6657, -57.985, 41.82
0.724, 1, 35.226, 49.2138, -12.7761, 95.6994, -57.8629, 41.8618
0.728, 1, 35.2393, 49.1929, -12.8012, 95.7331, -57.741, 41.9036
0.732, 1, 35.2525, 49.1721, -12.8262, 95.7667, -57.6192, 41.9454
0.736, 1, 35.2657, 49.1512, -12.8513, 95.8003, -57.4976, 41.9871
0.74, 1, 35.2789, 49.1304, -12.8763, 95.8338, -57.3762, 42.0287
0.744, 1, 35.2921, 49.1097, -12.9012, 95.8673, -57.2549, 42.0703
0.748, 1, 35.3052, 49.0889, -12.9262, 95.9007, -57.1338, 42.1118
0.752, 1, 35.3184, 49.0682, -12.9511, 95.9341, -57.0128, 42.1533
0.756, 1, 35.3315, 49.0475, -12.9759, 95.9675, -56.8919, 42.1947
0.76, 1, 35.3446, 49.0268, -13.0008, 96.0008, -56.7712, 42.2361
0.764, 1, 35.3577, 49.0061, -13.0256, 96.0341, -56.6507, 42.2774
0.768, 1, 35.3708, 48.9855, -13.0504, 96.0673, -56.5303, 42.3187
0.772, 1, 35.3838, 48.9649, -13.0751, 96.1005, -56.4101, 42.3599
0.776, 1, 35.3969, 48.9443, -13.0998, 96.1336, -56.29, 42.401
0.78, 1, 35.4099, 48.9238, -13.1245, 96.1667, -56.1701, 42.4422
0.784, 1, 35.4229, 48.9032, -13.1492, 96.1998, -56.0503, 42.4832
0.788, 1, 35.4359, 48.8827, -13.1738, 96.2328, -55.9307, 42.5242
0.792, 1, 35.4489, 48.8623, -13.1984, 96.2658, -55.8112, 42.5652
0.796, 1, 35.4619, 48.8418, -13.2229, 96.2988, -55.6918, 42.6061
0.8, 1, 35.4748, 48.8214, -13.2475, 96.3317, -55.5726, 42.647
0.804, 1, 35.4877, 48.801, -13.272, 96.3645, -55.4535, 42.6878
0.808, 1, 35.5006, 48.7806, -13.2965, 96.3974, -55.3346, 42.7285
0.812, 1, 35.5136, 48.7603, -13.3209, 96.4302, -55.2159, 42.7693
0.816, 1, 35.5264, 48.7399, -13.3453, 96.4629, -55.0972, 42.8099
0.82, 1, 35.5393, 48.7196, -13.3697, 96.4956, -54.9787, 42.8506
0.824, 1, 35.5522, 48.6994, -13.3941, 96.5283, -54.8604, 42.8911
0.828, 1, 35.565, 48.6791, -13.4184, 96.5609, -54.7422, 42.9316
0.832, 1, 35.5778, 48.6589, -13.4427, 96.5935, -54.6241, 42.9721
0.836, 1, 35.5906, 48.6387, -13.467, 96.6261, -54.5062, 43.0125
0.84, 1, 35.6034, 48.6185, -13.4912, 96.6586, -54.3884, 43.0529
0.844, 1, 35.6162, 48.5983, -13.5154, 96.6911, -54.2707, 43.0933
0.848, 1, 35.629, 48.5782, -13.5396, 96.7235, -54.1532, 43.1335
0.852, 1, 35.6417, 48.5581, -13.5638, 96.7559, -54.0358, 43.1738
0.856, 1, 35.6545, 48.538, -13.5879, 96.7883, -53.9186, 43.214
0.86, 1, 35.6672, 48.5179, -13.612, 96.8206, -53.8015, 43.2541
0.864, 1, 35.6799, 48.4979, -13.6361, 96.8529, -53.6845, 43.2942
0.868, 1, 35.6925, 48.4779, -13.6601, 96.8852, -53.5677, 43.3343
0.872, 1, 35.7051, 48.458, -13.6841, 96.9174, -53.451, 43.3743
0.876, 1, 35.7176, 48.4381, -13.7081, 96.9496, -53.3345, 43.4142
0.88, 1, 35.73, 48.4184, -13.7321, 96.9817, -53.2181, 43.4541
0.884, 1, 35.7419, 48.3992, -13.756, 97.0137, -53.102, 43.4939
0.888, 1, 35.7533, 48.3805, -13.7798, 97.0457, -52.9863, 43.5336
0.892, 1, 35.7641, 48.3627, -13.8035, 97.0775, -52.8712, 43.5731
0.896, 1, 35.7742, 48.3457, -13.8269, 97.109, -52.757, 43.6122
0.9, 1, 35.7836, 48.3297, -13.8501, 97.1401, -52.6444, 43.6508
0.904, 1, 35.7924, 48.3145, -13.8728, 97.1706, -52.534, 43.6887
0.908, 1, 35.8007, 48.3002, -13.895, 97.2003, -52.4264, 43.7256
0.912, 1, 35.8087, 48.2866, -13.9163, 97.229, -52.3226, 43.7613
0.916, 1, 35.8164, 48.2736, -13.9367, 97.2564, -52.2234, 43.7953
0.92, 1, 35.8238, 48.2613, -13.956, 97.2823, -52.1296, 43.8275
0.924, 1, 35.8309, 48.2497, -13.9741, 97.3065, -52.042, 43.8576
0.928, 1, 35.8377, 48.2387, -13.9907, 97.3288, -51.9612, 43.8853
0.932, 1, 35.8442, 48.2281, -14.0057, 97.3491, -51.888, 43.9104
0.936, 1, 35.8507, 48.2178, -14.0192, 97.3671, -51.8226, 43.9328
0.94, 1, 35.8571, 48.2077, -14.031, 97.3829, -51.7653, 43.9524
0.944, 1, 35.8634, 48.1979, -14.0412, 97.3966, -51.716, 43.9693
0.948, 1, 35.8695, 48.1884, -14.0498, 97.4081, -51.6743, 43.9836
0.952, 1, 35.8755, 48.1793, -14.0569, 97.4175, -51.6399, 43.9954
0.956, 2, 35.8812, 48.1708, -14.0626, 97.4252, -51.612, 44.0049
0.96, 2, 35.8865, 48.1631, -14.0672, 97.4313, -51.5899, 44.0124
0.964, 2, 35.8915, 48.1562, -14.0707, 97.436, -51.5728, 44.0183
0.968, 2, 35.896, 48.1502, -14.0734, 97.4396, -51.5598, 44.0227
0.972, 2, 35.9001, 48.145, -14.0754, 97.4422, -51.5503, 44.0259
0.976, 2, 35.9037, 48.1406, -14.0768, 97.4441, -51.5433, 44.0283
0.98, 2, 35.9067, 48.1371, -14.0778, 97.4454, -51.5385, 44.0299
0.984, 2, 35.9091, 48.1343, -14.0785, 97.4463, -51.5351, 44.0311
0.988, 2, 35.911, 48.1323, -14.079, 97.4469, -51.5327, 44.0319
0.992, 2, 35.9123, 48.1308, -14.0793, 97.4474, -51.5312, 44.0324
0.996, 2, 35.9132, 48.1299, -14.0796, 97.4477, -51.5301, 44.0328
1, 2, 35.9138, 48.1292, -14.0797, 97.4479, -51.5294, 44.033
1.004, 2, 35.9142, 48.1287, -14.0798, 97.448, -51.5289, 44.0332
1.008, 2, 35.9145, 48.1284, -14.0799, 97.4481, -51.5285, 44.0333
1.012, 2, 35.9147, 48.1282, -14.0799, 97.4482, -51.5283, 44.0334
1.016, 2, 35.9149, 48.1281, -14.08, 97.4482, -51.5282, 44.0334
1.02, 2, 35.9149, 48.128, -14.08, 97.4482, -51.5281, 44.0335
1.024, 2, 35.915, 48.1279, -14.08, 97.4482, -51.528, 44.0335
1.027, 2, 35.915, 48.1279, -14.08, 97.4483, -51.5279, 44.0335
1.032, 2, 35.9151, 48.1278, -14.08, 97.4483, -51.5279, 44.0335
1.036, 2, 35.9151, 48.1278, -14.08, 97.4483, -51.5279, 44.0335
1.04, 2, 35.9151, 48.1278, -14.08, 97.4483, -51.5279, 44.0335
1.044, 2, 35.9151, 48.1278, -14.08, 97.4483, -51.5279, 44.0335
1.048, 2, 35.9151, 48.1278, -14.08, 97.4483, -51.5279, 44.0335
1.052, 2, 35.9151, 48.1278, -14.08, 97.4483, -51.5279, 44.0335
1.055, 2, 35.9151, 48.1278, -14.08, 97.4483, -51.5278, 44.0335
1.06, 2, 35.9151, 48.1278, -14.08, 97.4483, -51.5278, 44.0335
1.064, 2, 35.9151, 48.1278, -14.08, 97.4483, -51.5278, 44.0335
1.068, 2, 35.9151, 48.1278, -14.08, 97.4483, -51.5278, 44.0335
1.072, 2, 35.9151, 48.1278, -14.08, 97.4483, -51.5278, 44.0335
1.076, 2, 35.9151, 48.1278, -14.08, 97.4483, -51.5278, 44.0335
1.08, 2, 35.9151, 48.1278, -14.08, 97.4483, -51.5278, 44.0335
1.084, 2, 35.9151, 48.1278, -14.08, 97.4483, -51.5278, 44.0335
1.088, 2, 35.9151, 48.1278, -14.08, 97.4483, -51.5278, 44.0335
1.091, 2, 35.9151, 48.1278, -14.08, 97.4483, -51.5278, 44.0335
1.096, 2, 35.9151, 48.1278, -14.08, 97.4483, -51.5278, 44.0335
1.1, 2, 35.9151, 48.1278, -14.08, 97.4483, -51.5278, 44.0335
1.104, 2, 35.9151, 48.1278, -14.08, 97.4483, -51.5278, 44.0335
1.108, 2, 35.9151, 48.1278, -14.08, 97.4483, -51.5278, 44.0335
1.112, 2, 35.9151, 48.1278, -14.08, 97.4483, -51.5278, 44.0335
1.116, 2, 35.9151, 48.1278, -14.08, 97.4483, -51.5278, 44.0335
1.119, 2, 35.9151, 48.1278, -14.08, 97.4483, -51.5278, 44.0335
1.124, 2, 35.9151, 48.1278, -14.08, 97.4483, -51.5278, 44.0335
1.128, 2, 35.9151, 48.1278, -14.08, 97.4483, -51.5278, 44.0335
1.132, 2, 35.9151, 48.1278, -14.08, 97.4483, -51.5278, 44.0335
1.136, 2, 35.9151, 48.1278, -14.08, 97.4483, -51.5278, 44.0335
1.14, 2, 35.9151, 48.1278, -14.08, 97.4483, -51.5278, 44.0335
1.144, 2, 35.9151, 48.1278, -14.08, 97.4483, -51.5278, 44.0335
1.147, 2, 35.9151, 48.1278, -14.08, 97.4483, -51.5278, 44.0335
1.152, 2, 35.9151, 48.1278, -14.08, 97.4483, -51.5278, 44.0335
1.156, 2, 35.9151, 48.1278, -14.08, 97.4483, -51.5278, 44.0335
1.16, 2, 35.9151, 48.1278, -14.08, 97.4483, -51.5278, 44.0335
1.164, 2, 35.9151, 48.1278, -14.08, 97.4483, -51.5278, 44.0335
1.168, 2, 35.9151, 48.1278, -14.08, 97.4483, -51.5278, 44.0335
1.172, 2, 35.9151, 48.1278, -14.08, 97.4483, -51.5278, 44.0335
1.175, 2, 35.9151, 48.1278, -14.08, 97.4483, -51.5278, 44.0335
1.18, 2, 35.9151, 48.1278, -14.08, 97.4483, -51.5278, 44.0335
1.184, 2, 35.9151, 48.1278, -14.08, 97.4483, -51.5278, 44.0335
1.188, 2, 35.9151, 48.1278, -14.08, 97.4483, -51.5278, 44.0335
1.192, 2, 35.9151, 48.1278, -14.08, 97.4483, -51.5278, 44.0335
1.196, 2, 35.9151, 48.1278, -14.08, 97.4483, -51.5278, 44.0335
1.2, 2, 35.9151, 48.1278, -14.08, 97.4483, -51.5278, 44.0335
1.204, 2, 35.9151, 48.1278, -14.08, 97.4483, -51.5278, 44.0335
1.208, 2, 35.9151, 48.1278, -14.08, 97.4483, -51.5278, 44.0335
1.212, 2, 35.9151, 48.1278, -14.08, 97.4483, -51.5278, 44.0335
1.216, 2, 35.9151, 48.1278, -14.08, 97.4483, -51.5278, 44.0335
1.22, 2, 35.9151, 48.1278, -14.08, 97.4483, -51.5278, 44.0335
1.224, 2, 35.9151, 48.1278, -14.08, 97.4483, -51.5278, 44.0335
1.228, 2, 35.9151, 48.1278, -14.08, 97.4483, -51.5278, 44.0335
1.232, 2, 35.9151, 48.1278, -14.08, 97.4483, -51.5278, 44.0335
1.236, 2, 35.9151, 48.1278, -14.08, 97.4483, -51.5278, 44.0335
1.24, 2, 35.9151, 48.1278, -14.08, 97.4483, -51.5278, 44.0335
1.244, 2, 35.9151, 48.1278, -14.08, 97.4483, -51.5278, 44.0335
1.248, 2, 35.9151, 48.1278, -14.08, 97.4483, -51.5278, 44.0335
1.252, 2, 35.9151, 48.1278, -14.08, 97.4483, -51.5278, 44.0335
1.256, 2, 35.9151, 48.1278, -14.08, 97.4483, -51.5278, 44.0335
1.26, 2, 35.9151, 48.1278, -14.08, 97.4483, -51.5278, 44.0335
1.264, 2, 35.9151, 48.1278, -14.08, 97.4483, -51.5278, 44.0335
1.267, 2, 35.9151, 48.1278, -14.08, 97.4483, -51.5278, 44.0335
1.272, 2, 35.9151, 48.1278, -14.08, 97.4483, -51.5278, 44.0335
1.276, 2, 35.9151, 48.1278, -14.08, 97.4483, -51.5278, 44.0335
1.28, 2, 35.9151, 48.1278, -14.08, 97.4483, -51.5278, 44.0335
1.284, 2, 35.9151, 48.1278, -14.08, 97.4483, -51.5278, 44.0335
1.288, 2, 35.9151, 48.1278, -14.08, 97.4483, -51.5278, 44.0335
1.292, 2, 35.9151, 48.1278, -14.08, 97.4483, -51.5278, 44.0335
1.295, 2, 35.9151, 48.1278, -14.08, 97.4483, -51.5278, 44.0335
1.3, 2, 35.9151, 48.1278, -14.08, 97.4483, -51.5278, 44.0335
1.304, 2, 35.9151, 48.1278, -14.08, 97.4483, -51.5278, 44.0335
1.308, 2, 35.9151, 48.1278, -14.08, 97.4483, -51.5278, 44.0335
1.312, 2, 35.9151, 48.1278, -14.08, 97.4483, -51.5278, 44.0335
1.316, 2, 35.9151, 48.1278, -14.08, 97.4483, -51.5278, 44.0335
1.32, 2, 35.9151, 48.1278, -14.08, 97.4483, -51.5278, 44.0335
1.324, 2, 35.9151, 48.1278, -14.08, 97.4483, -51.5278, 44.0335
1.328, 2, 35.9151, 48.1278, -14.08, 97.4483, -51.5278, 44.0335
1.332, 2, 35.9151, 48.1278, -14.08, 97.4483, -51.5278, 44.0335
1.336, 2, 35.9151, 48.1278, -14.08, 97.4483, -51.5278, 44.0335
1.34, 2, 35.9151, 48.1278, -14.08, 97.4483, -51.5278, 44.0335
1.344, 2, 35.9151, 48.1278, -14.08, 97.4483, -51.5278, 44.0335
1.348, 2, 35.9151, 48.1278, -14.08, 97.4483, -51.5278, 44.0335
1.352, 2, 35.9151, 48.1278, -14.08, 97.4483, -51.5278, 44.0335
1.356, 2, 35.9151, 48.1278, -14.08, 97.4483, -51.5278, 44.0335
1.36, 2, 35.9151, 48.1278, -14.08, 97.4483, -51.5278, 44.0335
1.364, 2, 35.9151, 48.1278, -14.08, 97.4483, -51.5278, 44.0335
1.368, 2, 35.9151, 48.1278, -14.08, 97.4483, -51.5278, 44.0335
1.372, 2, 35.9151, 48.1278, -14.08, 97.4483, -51.5278, 44.0335
1.376, 2, 35.9151, 48.1278, -14.08, 97.4483, -51.5278, 44.0335
1.38, 2, 35.9151, 48.1278, -14.08, 97.4483, -51.5278, 44.0335
1.384, 2, 35.9151, 48.1278, -14.08, 97.4483, -51.5278, 44.0335
1.388, 2, 35.9151, 48.1278, -14.08, 97.4483, -51.5278, 44.0335
1.392, 2, 35.9151, 48.1278, -14.08, 97.4483, -51.5278, 44.0335
1.396, 2, 35.9151, 48.1278, -14.08, 97.4483, -51.5278, 44.0335
1.4, 2, 35.9151, 48.1278, -14.08, 97.4483, -51.5278, 44.0335
1.404, 2, 35.9151, 48.1278, -14.08, 97.4483, -51.5278, 44.0335
1.408, 2, 35.9151, 48.1278, -14.08, 97.4483, -51.5278, 44.0335
1.412, 2, 35.9151, 48.1278, -14.08, 97.4483, -51.5278, 44.0335
1.416, 2, 35.9151, 48.1278, -14.08, 97.4483, -51.5278, 44.0335
1.42, 2, 35.9151, 48.1278, -14.08, 97.4483, -51.5278, 44.0335
1.424, 2, 35.9151, 48.1278, -14.08, 97.4483, -51.5278, 44.0335
1.428, 2, 35.9151, 48.1278, -14.08, 97.4483, -51.5278, 44.0335
1.432, 2, 35.9151, 48.1278, -14.08, 97.4483, -51.5278, 44.0335
1.436, 2, 35.9151, 48.1278, -14.08, 97.4483, -51.5278, 44.0335
1.44, 2, 35.9151, 48.1278, -14.08, 97.4483, -51.5278, 44.0335
1.444, 2, 35.9151, 48.1278, -14.08, 97.4483, -51.5278, 44.0335
1.448, 2, 35.9151, 48.1278, -14.08, 97.4483, -51.5278, 44.0335
1.452, 2, 35.9151, 48.1278, -14.08, 97.4483, -51.5278, 44.0335
1.456, 2, 35.9151, 48.1278, -14.08, 97.4483, -51.5278, 44.0335
1.46, 2, 35.9151, 48.1278, -14.08, 97.4483, -51.5278, 44.0335
1.464, 2, 35.9151, 48.1278, -14.08, 97.4483, -51.5278, 44.0335
1.468, 2, 35.9151, 48.1278, -14.08, 97.4483, -51.5278, 44.0335
1.472, 2, 35.9151, 48.1278, -14.08, 97.4483, -51.5278, 44.0335
1.476, 2, 35.9151, 48.1278, -14.08, 97.4483, -51.5278, 44.0335
1.48, 2, 35.9151, 48.1278, -14.08, 97.4483, -51.5278, 44.0335
1.484, 2, 35.9151, 48.1278, -14.08, 97.4483, -51.5278, 44.0335
1.488, 2, 35.9151, 48.1278, -14.08, 97.4483, -51.5278, 44.0335
1.492, 2, 35.9151, 48.1278, -14.08, 97.4483, -51.5278, 44.0335
1.496, 2, 35.9151, 48.1278, -14.08, 97.4483, -51.5278, 44.0335
1.5, 2, 35.9151, 48.1278, -14.08, 97.4483, -51.5278, 44.0335
1.504, 2, 35.9151, 48.1278, -14.08, 97.4483, -51.5278, 44.0335
1.508, 2, 35.9151, 48.1278, -14.08, 97.4483, -51.5278, 44.0335
1.512, 2, 35.9151, 48.1278, -14.08, 97.4483, -51.5278, 44.0335
1.516, 2, 35.9151, 48.1278, -14.08, 97.4483, -51.5278, 44.0335
1.52, 2, 35.9151, 48.1278, -14.08, 97.4483, -51.5278, 44.0335
1.524, 2, 35.9151, 48.1278, -14.08, 97.4483, -51.5278, 44.0335
1.528, 2, 35.9151, 48.1278, -14.08, 97.4483, -51.5278, 44.0335
1.532, 2, 35.9151, 48.1278, -14.08, 97.4483, -51.5278, 44.0335
1.536, 2, 35.9151, 48.1278, -14.08, 97.4483, -51.5278, 44.0335
1.54, 2, 35.9151, 48.1278, -14.08, 97.4483, -51.5278, 44.0335
1.544, 2, 35.9151, 48.1278, -14.08, 97.4483, -51.5278, 44.0335
1.548, 2, 35.9151, 48.1278, -14.08, 97.4483, -51.5278, 44.0335
1.552, 2, 35.9151, 48.1278, -14.08, 97.4483, -51.5278, 44.0335
1.556, 2, 35.9151, 48.1278, -14.08, 97.4483, -51.5278, 44.0335
1.56, 2, 35.9151, 48.1278, -14.08, 97.4483, -51.5278, 44.0335
1.564, 2, 35.9151, 48.1278, -14.08, 97.4483, -51.5278, 44.0335
1.568, 2, 35.9151, 48.1278, -14.08, 97.4483, -51.5278, 44.0335
1.572, 2, 35.9151, 48.1278, -14.08, 97.4483, -51.5278, 44.0335
1.576, 2, 35.9151, 48.1278, -14.08, 97.4483, -51.5278, 44.0335
1.58, 2, 35.9151, 48.1278, -14.08, 97.4483, -51.5278, 44.0335
1.584, 2, 35.9151, 48.1278, -14.08, 97.4483, -51.5278, 44.0335
1.588, 2, 35.9151, 48.1278, -14.08, 97.4483, -51.5278, 44.0335
1.592, 2, 35.9151, 48.1278, -14.08, 97.4483, -51.5278, 44.0335
1.596, 2, 35.9151, 48.1278, -14.08, 97.4483, -51.5278, 44.0335
1.6, 2, 35.9151, 48.1278, -14.08, 97.4483, -51.5278, 44.0335
1.604, 2, 35.9151, 48.1278, -14.08, 97.4483, -51.5278, 44.0335
1.608, 2, 35.9151, 48.1278, -14.08, 97.4483, -51.5278, 44.0335
1.612, 2, 35.9151, 48.1278, -14.08, 97.4483, -51.5278, 44.0335
1.616, 2, 35.9151, 48.1278, -14.08, 97.4483, -51.5278, 44.0335
1.62, 2, 35.9151, 48.1278, -14.08, 97.4483, -51.5278, 44.0335
1.624, 2, 35.9151, 48.1278, -14.08, 97.4483, -51.5278, 44.0335
1.628, 2, 35.9151, 48.1278, -14.08, 97.4483, -51.5278, 44.0335
1.632, 2, 35.9151, 48.1278, -14.08, 97.4483, -51.5278, 44.0335
1.636, 2, 35.9151, 48.1278, -14.08, 97.4483, -51.5278, 44.0335
1.64, 2, 35.9151, 48.1278, -14.08, 97.4483, -51.5278, 44.0335
1.644, 2, 35.9151, 48.1278, -14.08, 97.4483, -51.5278, 44.0335
1.648, 2, 35.9151, 48.1278, -14.08, 97.4483, -51.5278, 44.0335
1.652, 2, 35.9151, 48.1278, -14.08, 97.4483, -51.5278, 44.0335
1.656, 2, 35.9151, 48.1278, -14.08, 97.4483, -51.5278, 44.0335
1.66, 2, 35.9151, 48.1278, -14.08, 97.4483, -51.5278, 44.0335
1.664, 2, 35.9151, 48.1278, -14.08, 97.4483, -51.5278, 44.0335
1.668, 2, 35.9151, 48.1278, -14.08, 97.4483, -51.5278, 44.0335
1.672, 2, 35.9151, 48.1278, -14.08, 97.4483, -51.5278, 44.0335
1.676, 2, 35.9151, 48.1278, -14.08, 97.4483, -51.5278, 44.0335
1.68, 2, 35.9151, 48.1278, -14.08, 97.4483, -51.5278, 44.0335
1.684, 2, 35.9151, 48.1278, -14.08, 97.4483, -51.5278, 44.0335
1.688, 2, 35.9151, 48.1278, -14.08, 97.4483, -51.5278, 44.0335
1.692, 2, 35.9151, 48.1278, -14.08, 97.4483, -51.5278, 44.0335
1.696, 2, 35.9151, 48.1278, -14.08, 97.4483, -51.5278, 44.0335
1.7, 2, 35.9151, 48.1278, -14.08, 97.4483, -51.5278, 44.0335
1.704, 2, 35.9151, 48.1278, -14.08, 97.4483, -51.5278, 44.0335
1.708, 2, 35.9151, 48.1278, -14.08, 97.4483, -51.5278, 44.0335
1.712, 2, 35.9151, 48.1278, -14.08, 97.4483, -51.5278, 44.0335
1.716, 2, 35.9151, 48.1278, -14.08, 97.4483, -51.5278, 44.0335
1.72, 2, 35.9151, 48.1278, -14.08, 97.4483, -51.5278, 44.0335
1.724, 2, 35.9151, 48.1278, -14.08, 97.4483, -51.5278, 44.0335
1.728, 2, 35.9151, 48.1278, -14.08, 97.4483, -51.5278, 44.0335
1.732, 2, 35.9151, 48.1278, -14.08, 97.4483, -51.5278, 44.0335
1.736, 2, 35.9151, 48.1278, -14.08, 97.4483, -51.5278, 44.0335
1.74, 2, 35.9151, 48.1278, -14.08, 97.4483, -51.5278, 44.0335
1.744, 2, 35.9151, 48.1278, -14.08, 97.4483, -51.5278, 44.0335
1.748, 2, 35.9151, 48.1278, -14.08, 97.4483, -51.5278, 44.0335
1.752, 2, 35.9151, 48.1278, -14.08, 97.4483, -51.5278, 44.0335
1.756, 2, 35.9151, 48.1278, -14.08, 97.4483, -51.5278, 44.0335
1.76, 2, 35.9151, 48.1278, -14.08, 97.4483, -51.5278, 44.0335
1.764, 2, 35.9151, 48.1278, -14.08, 97.4483, -51.5278, 44.0335
1.768, 2, 35.9151, 48.1278, -14.08, 97.4483, -51.5278, 44.0335
1.772, 2, 35.9151, 48.1278, -14.08, 97.4483, -51.5278, 44.0335
1.776, 2, 35.9151, 48.1278, -14.08, 97.4483, -51.5278, 44.0335
1.78, 2, 35.9151, 48.1278, -14.08, 97.4483, -51.5278, 44.0335
1.784, 2, 35.9151, 48.1278, -14.08, 97.4483, -51.5278, 44.0335
1.788, 2, 35.9151, 48.1278, -14.08, 97.4483, -51.5278, 44.0335
1.792, 2, 35.9151, 48.1278, -14.08, 97.4483, -51.5278, 44.0335
1.796, 2, 35.9151, 48.1278, -14.08, 97.4483, -51.5278, 44.0335
1.8, 2, 35.9151, 48.1278, -14.08, 97.4483, -51.5278, 44.0335
1.804, 2, 35.9151, 48.1278, -14.08, 97.4483, -51.5278, 44.0335
1.808, 2, 35.9151, 48.1278, -14.08, 97.4483, -51.5278, 44.0335
1.812, 2, 35.9151, 48.1278, -14.08, 97.4483, -51.5278, 44.0335
1.816, 2, 35.9151, 48.1278, -14.08, 97.4483, -51.5278, 44.0335
1.82, 2, 35.9151, 48.1278, -14.08, 97.4483, -51.5278, 44.0335
1.824, 2, 35.9151, 48.1278, -14.08, 97.4483, -51.5278, 44.0335
1.828, 2, 35.9151, 48.1278, -14.08, 97.4483, -51.5278, 44.0335
1.832, 2, 35.9151, 48.1278, -14.08, 97.4483, -51.5278, 44.0335
1.836, 2, 35.9151, 48.1278, -14.08, 97.4483, -51.5278, 44.0335
1.84, 2, 35.9151, 48.1278, -14.08, 97.4483, -51.5278, 44.0335
1.844, 2, 35.9151, 48.1278, -14.08, 97.4483, -51.5278, 44.0335
1.848, 2, 35.9151, 48.1278, -14.08, 97.4483, -51.5278, 44.0335
1.852, 2, 35.9151, 48.1278, -14.08, 97.4483, -51.5278, 44.0335
1.856, 2, 35.9151, 48.1278, -14.08, 97.4483, -51.5278, 44.0335
1.86, 2, 35.9151, 48.1278, -14.08, 97.4483, -51.5278, 44.0335
1.864, 2, 35.9151, 48.1278, -14.08, 97.4483, -51.5278, 44.0335
1.868, 2, 35.9151, 48.1278, -14.08, 97.4483, -51.5278, 44.0335
1.872, 2, 35.9151, 48.1278, -14.08, 97.4483, -51.5278, 44.0335
1.876, 2, 35.9151, 48.1278, -14.08, 97.4483, -51.5278, 44.0335
1.88, 2, 35.9151, 48.1278, -14.08, 97.4483, -51.5278, 44.0335
1.884, 2, 35.9151, 48.1278, -14.08, 97.4483, -51.5278, 44.0335
1.888, 2, 35.9151, 48.1278, -14.08, 97.4483, -51.5278, 44.0335
1.892, 2, 35.9151, 48.1278, -14.08, 97.4483, -51.5278, 44.0335
1.896, 2, 35.9151, 48.1278, -14.08, 97.4483, -51.5278, 44.0335
1.9, 2, 35.9151, 48.1278, -14.08, 97.4483, -51.5278, 44.0335
1.904, 2, 35.9151, 48.1278, -14.08, 97.4483, -51.5278, 44.0335
1.908, 2, 35.9151, 48.1278, -14.08, 97.4483, -51.5278, 44.0335
1.912, 2, 35.9151, 48.1278, -14.08, 97.4483, -51.5278, 44.0335
1.916, 2, 35.9151, 48.1278, -14.08, 97.4483, -51.5278, 44.0335
1.92, 2, 35.9151, 48.1278, -14.08, 97.4483, -51.5278, 44.0335
1.924, 2, 35.9151, 48.1278, -14.08, 97.4483, -51.5278, 44.0335
1.928, 2, 35.9151, 48.1278, -14.08, 97.4483, -51.5278, 44.0335
1.932, 2, 35.9151, 48.1278, -14.08, 97.4483, -51.5278, 44.0335
1.936, 2, 35.9151, 48.1278, -14.08, 97.4483, -51.5278, 44.0335
1.94, 2, 35.9151, 48.1278, -14.08, 97.4483, -51.5278, 44.0335
1.944, 2, 35.9151, 48.1278, -14.08, 97.4483, -51.5278, 44.0335
1.948, 2, 35.9151, 48.1278, -14.08, 97.4483, -51.5278, 44.0335
1.952, 2, 35.9151, 48.1278, -14.08, 97.4483, -51.5278, 44.0335
1.956, 3, 35.9151, 48.1278, -14.08, 97.4483, -51.5278, 44.0335
1.96, 3, 35.9151, 48.1278, -14.08, 97.4483, -51.5278, 44.0335
1.964, 3, 35.9151, 48.1278, -14.08, 97.4483, -51.5278, 44.0335
1.968, 3, 35.9151, 48.1278, -14.08, 97.4483, -51.5278, 44.0335
1.972, 3, 35.9151, 48.1278, -14.08, 97.4483, -51.5278, 44.0335
1.976, 3, 35.9151, 48.1278, -14.08, 97.4483, -51.5278, 44.0335
1.98, 3, 35.9151, 48.1278, -14.08, 97.4483, -51.5278, 44.0335
1.984, 3, 35.9151, 48.1278, -14.08, 97.4483, -51.5278, 44.0335
1.988, 3, 35.9151, 48.1278, -14.08, 97.4483, -51.5278, 44.0335
1.992, 4, 35.9151, 48.1278, -14.08, 97.4483, -51.5278, 44.0335
1.996, 4, 35.9151, 48.1278, -14.08, 97.4483, -51.5278, 44.0335
1.999, 4, 35.9151, 48.1278, -14.08, 97.4483, -51.5278, 44.0335
2.004, 4, 35.9151, 48.1278, -14.08, 97.4483, -51.5278, 44.0335
2.008, 4, 35.9151, 48.1278, -14.08, 97.4483, -51.5278, 44.0335
2.012, 4, 35.9151, 48.1278, -14.08, 97.4483, -51.5278, 44.0335
2.015, 4, 35.9151, 48.1278, -14.08, 97.4483, -51.5278, 44.0335
2.019, 4, 35.9151, 48.1278, -14.08, 97.4483, -51.5278, 44.0335
2.024, 4, 35.9151, 48.1278, -14.08, 97.4483, -51.5278, 44.0335
2.028, 4, 35.9151, 48.1278, -14.08, 97.4483, -51.5278, 44.0335
2.031, 4, 35.9151, 48.1278, -14.08, 97.4483, -51.5278, 44.0335
2.036, 4, 35.9151, 48.1278, -14.08, 97.4483, -51.5278, 44.0335
2.04, 4, 35.9151, 48.1278, -14.08, 97.4483, -51.5278, 44.0335
2.044, 4, 35.9151, 48.1278, -14.08, 97.4483, -51.5278, 44.0335
2.048, 4, 35.9151, 48.1278, -14.08, 97.4483, -51.5278, 44.0335
2.051, 4, 35.9151, 48.1278, -14.08, 97.4483, -51.5278, 44.0335
2.055, 4, 35.9151, 48.1278, -14.08, 97.4483, -51.5278, 44.0335
2.06, 4, 35.9151, 48.1278, -14.08, 97.4483, -51.5278, 44.0335
2.064, 4, 35.9151, 48.1278, -14.08, 97.4483, -51.5278, 44.0335
2.068, 4, 35.9151, 48.1278, -14.08, 97.4483, -51.5278, 44.0335
2.071, 4, 35.9151, 48.1278, -14.08, 97.4483, -51.5278, 44.0335
2.076, 4, 35.9151, 48.1278, -14.08, 97.4483, -51.5278, 44.0335
2.08, 4, 35.9151, 48.1278, -14.08, 97.4483, -51.5278, 44.0335
2.084, 4, 35.9151, 48.1278, -14.08, 97.4483, -51.5278, 44.0335
2.087, 4, 35.9151, 48.1278, -14.08, 97.4483, -51.5278, 44.0335
2.092, 5, 35.9151, 48.1278, -14.08, 97.4483, -51.5278, 44.0335
2.096, 6, 35.9151, 48.1278, -14.08, 97.4483, -51.5278, 44.0335
2.1, 6, 35.9151, 48.1278, -14.08, 97.4483, -51.5278, 44.0335
2.104, 6, 35.9151, 48.1278, -14.08, 97.4483, -51.5278, 44.0335
2.107, 6, 35.9151, 48.1278, -14.08, 97.4483, -51.5278, 44.0335
2.111, 6, 35.9151, 48.1278, -14.08, 97.4483, -51.5278, 44.0335
2.116, 6, 35.9151, 48.1278, -14.08, 97.4483, -51.5278, 44.0335
2.12, 6, 35.9151, 48.1278, -14.08, 97.4483, -51.5278, 44.0335
2.124, 6, 35.9151, 48.1278, -14.08, 97.4483, -51.5278, 44.0335
2.127, 6, 35.9151, 48.1278, -14.08, 97.4483, -51.5278, 44.0335
2.132, 6, 35.915, 48.128, -14.08, 97.4483, -51.5279, 44.0335
2.136, 6, 35.9148, 48.1283, -14.08, 97.4483, -51.5279, 44.0335
2.14, 6, 35.9143, 48.1291, -14.08, 97.4482, -51.5281, 44.0334
2.143, 6, 35.9136, 48.1303, -14.0799, 97.4482, -51.5284, 44.0333
2.148, 6, 35.9126, 48.1322, -14.0799, 97.448, -51.5292, 44.033
2.152, 6, 35.9113, 48.1347, -14.0797, 97.4477, -51.5306, 44.0325
2.156, 6, 35.9096, 48.138, -14.0795, 97.4472, -51.533, 44.0316
2.16, 6, 35.9077, 48.1423, -14.0791, 97.4464, -51.5368, 44.0302
2.163, 6, 35.9055, 48.1475, -14.0786, 97.4451, -51.5427, 44.0279
2.168, 6, 35.903, 48.1539, -14.0779, 97.4433, -51.5513, 44.0247
2.172, 6, 35.9002, 48.1617, -14.0768, 97.4407, -51.5632, 44.0202
2.176, 6, 35.897, 48.1709, -14.0755, 97.4372, -51.5793, 44.0141
2.179, 6, 35.8935, 48.1816, -14.0737, 97.4325, -51.6006, 44.0061
2.184, 6, 35.8898, 48.1936, -14.0714, 97.4266, -51.6279, 43.9959
2.188, 6, 35.886, 48.2067, -14.0686, 97.4191, -51.662, 43.983
2.192, 6, 35.8821, 48.2208, -14.0651, 97.4099, -51.7039, 43.9673
2.196, 6, 35.8782, 48.2358, -14.061, 97.3989, -51.754, 43.9484
2.199, 6, 35.8743, 48.2516, -14.0561, 97.386, -51.8128, 43.9263
2.204, 6, 35.8704, 48.2683, -14.0505, 97.3711, -51.8804, 43.9009
2.208, 6, 35.8664, 48.2861, -14.0441, 97.3542, -51.9568, 43.8723
2.212, 6, 35.8624, 48.3049, -14.0369, 97.3353, -52.0417, 43.8404
2.216, 6, 35.8582, 48.3249, -14.0291, 97.3147, -52.1347, 43.8056
2.219, 6, 35.8538, 48.346, -14.0205, 97.2923, -52.2351, 43.7681
2.224, 6, 35.8493, 48.3682, -14.0113, 97.2684, -52.3422, 43.728
2.228, 6, 35.8447, 48.3913, -14.0014, 97.2431, -52.4552, 43.6859
2.232, 6, 35.8398, 48.4155, -13.9911, 97.2167, -52.5731, 43.6419
2.235, 6, 35.8346, 48.441, -13.9802, 97.1892, -52.6951, 43.5965
2.24, 6, 35.8289, 48.4676, -13.969, 97.161, -52.8203, 43.55
2.244, 6, 35.8228, 48.4955, -13.9573, 97.1321, -52.9478, 43.5026
2.248, 6, 35.8162, 48.5246, -13.9454, 97.1028, -53.0772, 43.4547
2.252, 6, 35.8091, 48.5547, -13.9332, 97.0731, -53.2077, 43.4064
2.255, 6, 35.8016, 48.5856, -13.9207, 97.0431, -53.339, 43.3579
2.259, 6, 35.7938, 48.617, -13.908, 97.0129, -53.471, 43.3092
2.264, 6, 35.7857, 48.6488, -13.8951, 96.9825, -53.6033, 43.2605
2.268, 6, 35.7775, 48.6809, -13.882, 96.9519, -53.7358, 43.2118
2.272, 6, 35.7691, 48.713, -13.8687, 96.9212, -53.8685, 43.1631
2.275, 6, 35.7606, 48.7452, -13.8552, 96.8904, -54.0013, 43.1145
2.28, 6, 35.752, 48.7773, -13.8416, 96.8595, -54.1341, 43.0659
2.284, 6, 35.7432, 48.8094, -13.8277, 96.8285, -54.267, 43.0174
2.288, 6, 35.7345, 48.8415, -13.8138, 96.7973, -54.3998, 42.969
2.291, 6, 35.7256, 48.8735, -13.7996, 96.7661, -54.5327, 42.9206
2.296, 6, 35.7166, 48.9054, -13.7853, 96.7348, -54.6656, 42.8723
2.3, 6, 35.7076, 48.9371, -13.7707, 96.7034, -54.7984, 42.8242
2.304, 6, 35.6985, 48.9688, -13.7561, 96.6719, -54.9313, 42.776
2.308, 6, 35.6894, 49.0004, -13.7412, 96.6403, -55.0641, 42.728
2.311, 6, 35.6802, 49.0319, -13.7262, 96.6086, -55.1968, 42.6801
2.316, 6, 35.6709, 49.0633, -13.711, 96.5768, -55.3296, 42.6322
2.32, 6, 35.6615, 49.0946, -13.6957, 96.545, -55.4623, 42.5844
2.324, 6, 35.6521, 49.1257, -13.6801, 96.513, -55.595, 42.5367
2.328, 6, 35.6426, 49.1568, -13.6645, 96.481, -55.7277, 42.4891
2.331, 6, 35.633, 49.1878, -13.6486, 96.4489, -55.8603, 42.4416
2.336, 6, 35.6234, 49.2186, -13.6326, 96.4167, -55.993, 42.3941
2.34, 6, 35.6137, 49.2493, -13.6164, 96.3844, -56.1256, 42.3467
2.344, 6, 35.6039, 49.2799, -13.6, 96.352, -56.2581, 42.2994
2.347, 6, 35.5941, 49.3105, -13.5835, 96.3196, -56.3907, 42.2522
2.352, 6, 35.5842, 49.3409, -13.5668, 96.287, -56.5232, 42.205
2.356, 6, 35.5742, 49.3712, -13.5499, 96.2544, -56.6557, 42.1579
2.36, 6, 35.5642, 49.4013, -13.5329, 96.2218, -56.7882, 42.1109
2.364, 6, 35.5541, 49.4314, -13.5157, 96.189, -56.9206, 42.064
2.367, 6, 35.5439, 49.4614, -13.4983, 96.1561, -57.053, 42.0171
2.372, 6, 35.5337, 49.4912, -13.4808, 96.1232, -57.1854, 41.9703
2.376, 6, 35.5234, 49.521, -13.4631, 96.0902, -57.3178, 41.9236
2.38, 6, 35.513, 49.5506, -13.4453, 96.0571, -57.4501, 41.877
2.383, 6, 35.5025, 49.5801, -13.4272, 96.024, -57.5824, 41.8304
2.388, 6, 35.492, 49.6095, -13.4091, 95.9907, -57.7147, 41.7839
2.392, 6, 35.4815, 49.6388, -13.3907, 95.9574, -57.8469, 41.7374
2.396, 6, 35.4708, 49.668, -13.3722, 95.924, -57.9792, 41.691
2.4, 6, 35.4601, 49.697, -13.3535, 95.8906, -58.1114, 41.6447
2.403, 6, 35.4494, 49.726, -13.3347, 95.857, -58.2436, 41.5985
2.408, 6, 35.4385, 49.7548, -13.3157, 95.8234, -58.3757, 41.5523
2.412, 6, 35.4276, 49.7836, -13.2965, 95.7897, -58.5079, 41.5061
2.416, 6, 35.4166, 49.8122, -13.2771, 95.756, -58.64, 41.4601
2.42, 6, 35.4056, 49.8407, -13.2576, 95.7222, -58.7721, 41.4141
2.423, 6, 35.3945, 49.8691, -13.238, 95.6883, -58.9041, 41.3682
2.428, 6, 35.3833, 49.8974, -13.2181, 95.6543, -59.0362, 41.3223
2.432, 6, 35.3721, 49.9256, -13.1982, 95.6202, -59.1682, 41.2765
2.436, 6, 35.3608, 49.9536, -13.178, 95.5861, -59.3002, 41.2307
2.439, 6, 35.3494, 49.9816, -13.1577, 95.552, -59.4322, 41.185
2.444, 6, 35.338, 50.0094, -13.1372, 95.5177, -59.5641, 41.1394
2.448, 6, 35.3265, 50.0371, -13.1166, 95.4834, -59.696, 41.0938
2.452, 6, 35.3149, 50.0647, -13.0958, 95.449, -59.8279, 41.0482
2.456, 6, 35.3033, 50.0922, -13.0748, 95.4146, -59.9598, 41.0028
2.459, 6, 35.2916, 50.1196, -13.0537, 95.38, -60.0916, 40.9573
2.464, 6, 35.2798, 50.1469, -13.0324, 95.3455, -60.2235, 40.912
2.468, 6, 35.268, 50.174, -13.0109, 95.3108, -60.3553, 40.8667
2.472, 6, 35.2561, 50.201, -12.9893, 95.2761, -60.4871, 40.8214
2.476, 6, 35.2441, 50.228, -12.9676, 95.2413, -60.6188, 40.7762
2.479, 6, 35.2321, 50.2548, -12.9456, 95.2065, -60.7506, 40.731
2.484, 6, 35.22, 50.2814, -12.9235, 95.1716, -60.8823, 40.6859
2.488, 6, 35.2078, 50.308, -12.9013, 95.1366, -61.014, 40.6409
2.492, 6, 35.1956, 50.3345, -12.8788, 95.1016, -61.1456, 40.5958
2.495, 6, 35.1833, 50.3608, -12.8563, 95.0665, -61.2773, 40.5509
2.5, 6, 35.1709, 50.387, -12.8335, 95.0314, -61.4089, 40.506
2.504, 6, 35.1585, 50.4132, -12.8106, 94.9961, -61.5405, 40.4611
2.508, 6, 35.146, 50.4391, -12.7876, 94.9609, -61.6721, 40.4163
2.512, 6, 35.1334, 50.465, -12.7644, 94.9255, -61.8037, 40.3715
2.515, 6, 35.1208, 50.4908, -12.741, 94.8902, -61.9352, 40.3267
2.52, 6, 35.1081, 50.5164, -12.7174, 94.8547, -62.0667, 40.282
2.524, 6, 35.0954, 50.542, -12.6937, 94.8192, -62.1982, 40.2374
2.528, 6, 35.0826, 50.5674, -12.6699, 94.7836, -62.3297, 40.1928
2.531, 6, 35.0697, 50.5927, -12.6459, 94.748, -62.4611, 40.1482
2.536, 6, 35.0567, 50.6178, -12.6217, 94.7123, -62.5926, 40.1037
2.54, 6, 35.0437, 50.6429, -12.5974, 94.6766, -62.724, 40.0592
2.544, 6, 35.0306, 50.6678, -12.5729, 94.6408, -62.8554, 40.0147
2.548, 6, 35.0175, 50.6927, -12.5482, 94.605, -62.9867, 39.9703
2.551, 6, 35.0042, 50.7174, -12.5234, 94.5691, -63.1181, 39.9259
2.556, 6, 34.991, 50.742, -12.4984, 94.5331, -63.2494, 39.8816
2.56, 6, 34.9776, 50.7664, -12.4733, 94.4971, -63.3807, 39.8373
2.564, 6, 34.9642, 50.7908, -12.448, 94.461, -63.512, 39.793
2.568, 6, 34.9507, 50.815, -12.4226, 94.4249, -63.6433, 39.7488
2.571, 6, 34.9372, 50.8391, -12.397, 94.3888, -63.7746, 39.7046
2.576, 6, 34.9236, 50.8631, -12.3712, 94.3525, -63.9058, 39.6604
2.58, 6, 34.9099, 50.887, -12.3453, 94.3163, -64.037, 39.6163
2.584, 6, 34.8961, 50.9108, -12.3192, 94.2799, -64.1682, 39.5722
2.587, 6, 34.8823, 50.9344, -12.293, 94.2435, -64.2994, 39.5281
2.592, 6, 34.8685, 50.9579, -12.2666, 94.2071, -64.4306, 39.4841
2.596, 6, 34.8545, 50.9813, -12.2401, 94.1706, -64.5617, 39.4401
2.6, 6, 34.8405, 51.0046, -12.2134, 94.1341, -64.6928, 39.3961
2.604, 6, 34.8265, 51.0278, -12.1865, 94.0975, -64.8239, 39.3522
2.607, 6, 34.8123, 51.0508, -12.1595, 94.0608, -64.955, 39.3082
2.612, 6, 34.7981, 51.0738, -12.1324, 94.0241, -65.0861, 39.2644
2.616, 6, 34.7839, 51.0966, -12.105, 93.9874, -65.2172, 39.2205
2.62, 6, 34.7695, 51.1193, -12.0776, 93.9506, -65.3482, 39.1766
2.624, 6, 34.7551, 51.1418, -12.05, 93.9138, -65.4792, 39.1328
2.627, 6, 34.7407, 51.1643, -12.0222, 93.8769, -65.6103, 39.089
2.632, 6, 34.7262, 51.1866, -11.9943, 93.8399, -65.7412, 39.0453
2.636, 6, 34.7116, 51.2088, -11.9662, 93.8029, -65.8722, 39.0015
2.64, 6, 34.6969, 51.2309, -11.9379, 93.7659, -66.0032, 38.9578
2.643, 6, 34.6822, 51.2529, -11.9096, 93.7288, -66.1341, 38.9141
2.648, 6, 34.6674, 51.2747, -11.881, 93.6917, -66.2651, 38.8705
2.652, 6, 34.6526, 51.2964, -11.8523, 93.6545, -66.396, 38.8268
2.656, 6, 34.6377, 51.3181, -11.8235, 93.6172, -66.5269, 38.7832
2.66, 6, 34.6227, 51.3395, -11.7945, 93.5799, -66.6577, 38.7396
2.663, 6, 34.6076, 51.3609, -11.7653, 93.5426, -66.7886, 38.696
2.668, 6, 34.5925, 51.3822, -11.736, 93.5052, -66.9195, 38.6524
2.672, 6, 34.5774, 51.4033, -11.7066, 93.4678, -67.0503, 38.6089
2.676, 6, 34.5621, 51.4243, -11.677, 93.4304, -67.1811, 38.5654
2.679, 6, 34.5468, 51.4452, -11.6472, 93.3928, -67.3119, 38.5218
2.684, 6, 34.5315, 51.4659, -11.6173, 93.3553, -67.4427, 38.4783
2.688, 6, 34.516, 51.4866, -11.5873, 93.3177, -67.5735, 38.4349
2.692, 6, 34.5005, 51.5071, -11.5571, 93.28, -67.7043, 38.3914
2.696, 6, 34.485, 51.5275, -11.5267, 93.2423, -67.835, 38.3479
2.699, 6, 34.4693, 51.5477, -11.4962, 93.2046, -67.9657, 38.3045
2.704, 6, 34.4537, 51.5679, -11.4656, 93.1668, -68.0965, 38.2611
2.708, 6, 34.4379, 51.5879, -11.4348, 93.1289, -68.2272, 38.2177
2.712, 6, 34.4221, 51.6078, -11.4038, 93.0911, -68.3579, 38.1743
2.716, 6, 34.4062, 51.6276, -11.3727, 93.0531, -68.4886, 38.1309
2.719, 6, 34.3903, 51.6473, -11.3415, 93.0152, -68.6192, 38.0875
2.724, 6, 34.3743, 51.6668, -11.3101, 92.9772, -68.7499, 38.0441
2.728, 6, 34.3582, 51.6862, -11.2786, 92.9391, -68.8805, 38.0008
2.732, 6, 34.3421, 51.7055, -11.2469, 92.901, -69.0112, 37.9574
2.735, 6, 34.3259, 51.7247, -11.2151, 92.8629, -69.1418, 37.9141
2.74, 6, 34.3096, 51.7438, -11.1831, 92.8247, -69.2724, 37.8708
2.744, 6, 34.2933, 51.7627, -11.1509, 92.7864, -69.403, 37.8274
2.748, 6, 34.2769, 51.7815, -11.1187, 92.7482, -69.5336, 37.7841
2.752, 6, 34.2604, 51.8002, -11.0863, 92.7098, -69.6642, 37.7408
2.755, 6, 34.2439, 51.8187, -11.0537, 92.6715, -69.7947, 37.6975
2.76, 6, 34.2273, 51.8372, -11.021, 92.6331, -69.9253, 37.6542
2.764, 6, 34.2107, 51.8555, -10.9881, 92.5946, -70.0558, 37.6109
2.768, 6, 34.194, 51.8737, -10.9551, 92.5561, -70.1863, 37.5676
2.772, 6, 34.1772, 51.8917, -10.922, 92.5176, -70.3169, 37.5243
2.775, 6, 34.1604, 51.9097, -10.8887, 92.479, -70.4474, 37.4811
2.78, 6, 34.1435, 51.9275, -10.8553, 92.4404, -70.5779, 37.4378
2.784, 6, 34.1265, 51.9452, -10.8217, 92.4017, -70.7084, 37.3945
2.788, 6, 34.1095, 51.9627, -10.788, 92.363, -70.8388, 37.3512
2.791, 6, 34.0924, 51.9802, -10.7541, 92.3243, -70.9693, 37.3079
2.796, 6, 34.0752, 51.9975, -10.7201, 92.2855, -71.0997, 37.2647
2.8, 6, 34.058, 52.0147, -10.686, 92.2467, -71.2302, 37.2214
2.804, 6, 34.0407, 52.0318, -10.6517, 92.2078, -71.3606, 37.1781
2.808, 6, 34.0234, 52.0487, -10.6173, 92.1689, -71.491, 37.1348
2.811, 6, 34.006, 52.0656, -10.5827, 92.1299, -71.6214, 37.0915
2.816, 6, 33.9885, 52.0823, -10.548, 92.0909, -71.7518, 37.0483
2.82, 6, 33.971, 52.0988, -10.5132, 92.0519, -71.8822, 37.005
2.824, 6, 33.9534, 52.1153, -10.4782, 92.0128, -72.0126, 36.9617
2.828, 6, 33.9357, 52.1316, -10.443, 91.9737, -72.1429, 36.9184
2.831, 6, 33.918, 52.1478, -10.4078, 91.9345, -72.2733, 36.8751
2.836, 6, 33.9002, 52.1639, -10.3724, 91.8953, -72.4036, 36.8318
2.84, 6, 33.8824, 52.1798, -10.3368, 91.8561, -72.534, 36.7885
2.844, 6, 33.8645, 52.1957, -10.3011, 91.8168, -72.6643, 36.7451
2.847, 6, 33.8465, 52.2114, -10.2653, 91.7775, -72.7946, 36.7018
2.852, 6, 33.8285, 52.2269, -10.2294, 91.7381, -72.9249, 36.6585
2.856, 6, 33.8104, 52.2424, -10.1933, 91.6987, -73.0552, 36.6151
2.86, 6, 33.7922, 52.2577, -10.157, 91.6593, -73.1855, 36.5718
2.864, 6, 33.774, 52.2729, -10.1207, 91.6198, -73.3158, 36.5284
2.867, 6, 33.7557, 52.288, -10.0841, 91.5802, -73.446, 36.4851
2.872, 6, 33.7374, 52.3029, -10.0475, 91.5407, -73.5763, 36.4417
2.876, 6, 33.719, 52.3177, -10.0107, 91.5011, -73.7066, 36.3983
2.88, 6, 33.7005, 52.3324, -9.9738, 91.4614, -73.8368, 36.3549
2.883, 6, 33.682, 52.347, -9.93674, 91.4217, -73.967, 36.3115
2.888, 6, 33.6634, 52.3614, -9.89955, 91.382, -74.0972, 36.268
2.892, 6, 33.6447, 52.3757, -9.86222, 91.3423, -74.2274, 36.2246
2.896, 6, 33.626, 52.3899, -9.82476, 91.3025, -74.3577, 36.1811
2.9, 6, 33.6072, 52.404, -9.78717, 91.2626, -74.4879, 36.1377
2.903, 6, 33.5884, 52.4179, -9.74944, 91.2227, -74.618, 36.0942
2.908, 6, 33.5695, 52.4317, -9.71157, 91.1828, -74.7482, 36.0507
2.912, 6, 33.5505, 52.4454, -9.67357, 91.1429, -74.8784, 36.0071
2.916, 6, 33.5315, 52.4589, -9.63544, 91.1029, -75.0085, 35.9636
2.92, 6, 33.5124, 52.4724, -9.59717, 91.0628, -75.1387, 35.92
2.923, 6, 33.4933, 52.4856, -9.55877, 91.0227, -75.2688, 35.8765
2.928, 6, 33.4741, 52.4988, -9.52024, 90.9826, -75.399, 35.8329
2.932, 6, 33.4548, 52.5118, -9.48158, 90.9425, -75.5291, 35.7893
2.936, 6, 33.4355, 52.5248, -9.44278, 90.9023, -75.6592, 35.7456
2.939, 6, 33.4161, 52.5375, -9.40385, 90.862, -75.7893, 35.702
2.944, 6, 33.3966, 52.5502, -9.36479, 90.8218, -75.9195, 35.6583
2.948, 6, 33.3771, 52.5627, -9.3256, 90.7814, -76.0496, 35.6146
2.952, 6, 33.3576, 52.5751, -9.28627, 90.7411, -76.1796, 35.5709
2.956, 6, 33.3381, 52.5873, -9.24683, 90.7007, -76.3097, 35.5271
2.959, 6, 33.3189, 52.5993, -9.20726, 90.6603, -76.4398, 35.4834
2.964, 6, 33.2999, 52.611, -9.16758, 90.6199, -76.5697, 35.4396
2.968, 6, 33.2813, 52.6223, -9.12783, 90.5794, -76.6995, 35.3959
2.972, 6, 33.2632, 52.6333, -9.08805, 90.539, -76.829, 35.3522
2.976, 6, 33.2454, 52.6438, -9.04829, 90.4988, -76.958, 35.3087
2.98, 6, 33.228, 52.6538, -9.00865, 90.4587, -77.0862, 35.2654
2.984, 6, 33.2109, 52.6634, -8.96921, 90.4189, -77.2134, 35.2225
2.988, 6, 33.1942, 52.6723, -8.93011, 90.3796, -77.3392, 35.18
2.992, 6, 33.1777, 52.6806, -8.89148, 90.3407, -77.4631, 35.1381
2.995, 6, 33.1618, 52.6883, -8.85348, 90.3026, -77.5846, 35.0969
3, 6, 33.1464, 52.6952, -8.81631, 90.2654, -77.7032, 35.0568
3.004, 6, 33.1316, 52.7016, -8.78017, 90.2292, -77.8182, 35.0178
3.008, 6, 33.1176, 52.7074, -8.74529, 90.1944, -77.929, 34.9802
3.012, 6, 33.1042, 52.7129, -8.71192, 90.1611, -78.0348, 34.9443
3.015, 6, 33.0915, 52.7181, -8.68028, 90.1296, -78.1348, 34.9104
3.02, 6, 33.0794, 52.7233, -8.65062, 90.1001, -78.2284, 34.8786
3.024, 6, 33.0678, 52.7283, -8.62315, 90.0728, -78.315, 34.8492
3.028, 6, 33.0568, 52.7334, -8.59801, 90.0478, -78.3941, 34.8223
3.031, 6, 33.0463, 52.7385, -8.57534, 90.0254, -78.4653, 34.7981
3.036, 6, 33.0363, 52.7437, -8.55518, 90.0054, -78.5285, 34.7766
3.04, 6, 33.0268, 52.7489, -8.53755, 89.988, -78.5837, 34.7579
3.044, 6, 33.0179, 52.7543, -8.52239, 89.9731, -78.6311, 34.7418
3.048, 6, 33.0096, 52.7597, -8.50959, 89.9604, -78.671, 34.7282
3.051, 6, 33.0019, 52.7651, -8.499, 89.95, -78.7041, 34.717
3.056, 7, 32.9946, 52.7706, -8.49043, 89.9416, -78.7308, 34.7079
3.06, 7, 32.9879, 52.776, -8.48366, 89.935, -78.7518, 34.7007
3.064, 7, 32.9815, 52.781, -8.47843, 89.9299, -78.7681, 34.6952
3.068, 7, 32.9758, 52.7857, -8.47451, 89.926, -78.7802, 34.6911
3.071, 7, 32.9706, 52.7897, -8.47163, 89.9232, -78.7892, 34.6881
3.076, 7, 32.9661, 52.793, -8.46957, 89.9212, -78.7955, 34.6859
3.08, 7, 32.9625, 52.7956, -8.46812, 89.9198, -78.8, 34.6844
3.084, 7, 32.9596, 52.7975, -8.46713, 89.9189, -78.8031, 34.6834
3.087, 7, 32.9575, 52.7989, -8.46645, 89.9182, -78.8051, 34.6827
3.092, 7, 32.956, 52.7999, -8.46599, 89.9178, -78.8066, 34.6822
3.096, 7, 32.955, 52.8006, -8.46568, 89.9175, -78.8075, 34.6819
3.1, 7, 32.9543, 52.801, -8.46546, 89.9173, -78.8082, 34.6817
3.104, 7, 32.9538, 52.8013, -8.46532, 89.9171, -78.8086, 34.6815
3.107, 7, 32.9535, 52.8015, -8.46522, 89.917, -78.8089, 34.6814
3.112, 7, 32.9533, 52.8017, -8.46516, 89.917, -78.8091, 34.6814
3.116, 7, 32.9531, 52.8018, -8.46511, 89.9169, -78.8093, 34.6813
3.12, 7, 32.953, 52.8018, -8.46508, 89.9169, -78.8094, 34.6813
3.124, 7, 32.953, 52.8019, -8.46506, 89.9169, -78.8094, 34.6813
3.128, 7, 32.9529, 52.8019, -8.46505, 89.9169, -78.8095, 34.6812
3.132, 7, 32.9529, 52.8019, -8.46504, 89.9169, -78.8095, 34.6812
3.136, 7, 32.9529, 52.8019, -8.46503, 89.9168, -78.8095, 34.6812
3.14, 7, 32.9529, 52.8019, -8.46503, 89.9168, -78.8095, 34.6812
3.143, 7, 32.9529, 52.8019, -8.46502, 89.9168, -78.8095, 34.6812
3.148, 7, 32.9528, 52.8019, -8.46502, 89.9168, -78.8095, 34.6812
3.152, 7, 32.9528, 52.8019, -8.46502, 89.9168, -78.8095, 34.6812
