hehonglu123/ABB_Primitive_Study/execution/movec_smooth/curve_exe_v300_z10.csv
timestamp, cmd_num, J1, J2, J3, J4, J5, J6
0, 1, 32.9528, 52.8019, -8.46502, 89.9168, -78.8096, 34.6812
0.002, 1, 32.9528, 52.8019, -8.46502, 89.9168, -78.8096, 34.6812
0.004, 1, 32.9528, 52.8019, -8.46502, 89.9168, -78.8096, 34.6812
0.008, 1, 32.9528, 52.8019, -8.46502, 89.9168, -78.8096, 34.6812
0.011, 1, 32.9528, 52.8019, -8.46502, 89.9168, -78.8096, 34.6812
0.016, 1, 32.9528, 52.8019, -8.46502, 89.9168, -78.8096, 34.6812
0.02, 1, 32.9528, 52.8019, -8.46502, 89.9168, -78.8096, 34.6812
0.024, 1, 32.9528, 52.8019, -8.46502, 89.9168, -78.8096, 34.6812
0.028, 1, 32.9528, 52.8019, -8.46502, 89.9168, -78.8096, 34.6812
0.032, 1, 32.9528, 52.8019, -8.46502, 89.9168, -78.8096, 34.6812
0.036, 1, 32.9528, 52.8019, -8.46502, 89.9168, -78.8096, 34.6812
0.04, 1, 32.9529, 52.8019, -8.46502, 89.9168, -78.8096, 34.6812
0.044, 1, 32.9531, 52.8018, -8.46503, 89.9168, -78.8095, 34.6812
0.048, 1, 32.9535, 52.8014, -8.46504, 89.9169, -78.8095, 34.6812
0.052, 1, 32.9543, 52.8006, -8.46509, 89.9169, -78.8093, 34.6813
0.056, 1, 32.9556, 52.7993, -8.46521, 89.917, -78.8088, 34.6815
0.06, 1, 32.9574, 52.7971, -8.46543, 89.9173, -78.8079, 34.6818
0.064, 1, 32.9597, 52.794, -8.46584, 89.9178, -78.8061, 34.6824
0.068, 1, 32.9625, 52.7899, -8.46653, 89.9186, -78.803, 34.6835
0.072, 1, 32.9659, 52.7849, -8.46761, 89.92, -78.798, 34.6852
0.076, 1, 32.9697, 52.7789, -8.46923, 89.922, -78.7905, 34.6877
0.08, 1, 32.9741, 52.7719, -8.47155, 89.925, -78.7796, 34.6915
0.084, 1, 32.9791, 52.7639, -8.47475, 89.9292, -78.7644, 34.6967
0.088, 1, 32.9847, 52.7549, -8.47904, 89.9348, -78.744, 34.7037
0.092, 1, 32.991, 52.7451, -8.48461, 89.9421, -78.7174, 34.7128
0.096, 1, 32.9978, 52.7344, -8.49169, 89.9515, -78.6834, 34.7244
0.1, 1, 33.005, 52.7231, -8.50046, 89.9631, -78.6411, 34.7389
0.104, 1, 33.0126, 52.7112, -8.51109, 89.9773, -78.5897, 34.7566
0.108, 1, 33.0204, 52.699, -8.5237, 89.9942, -78.5285, 34.7775
0.112, 1, 33.0284, 52.6863, -8.53837, 90.0139, -78.4572, 34.802
0.116, 1, 33.0368, 52.673, -8.55512, 90.0364, -78.3757, 34.8299
0.12, 1, 33.0455, 52.6592, -8.57391, 90.0617, -78.2841, 34.8613
0.124, 1, 33.0546, 52.6447, -8.59467, 90.0896, -78.183, 34.896
0.128, 1, 33.0642, 52.6296, -8.61726, 90.12, -78.0728, 34.9337
0.131, 1, 33.0741, 52.6139, -8.64153, 90.1527, -77.9545, 34.9743
0.136, 1, 33.0844, 52.5977, -8.6673, 90.1875, -77.8288, 35.0174
0.139, 1, 33.0949, 52.5809, -8.69437, 90.2239, -77.6968, 35.0627
0.144, 1, 33.1058, 52.5633, -8.72251, 90.2618, -77.5596, 35.1097
0.148, 1, 33.1172, 52.5447, -8.75152, 90.3009, -77.4182, 35.1582
0.152, 1, 33.1293, 52.525, -8.7812, 90.3408, -77.2736, 35.2077
0.156, 1, 33.1421, 52.5041, -8.81138, 90.3814, -77.1267, 35.2581
0.16, 1, 33.1556, 52.4819, -8.8419, 90.4224, -76.9782, 35.309
0.164, 1, 33.17, 52.4586, -8.87265, 90.4637, -76.8286, 35.3603
0.168, 1, 33.1849, 52.4345, -8.90354, 90.5052, -76.6784, 35.4118
0.172, 1, 33.2004, 52.4098, -8.9345, 90.5467, -76.5279, 35.4634
0.176, 1, 33.2161, 52.3847, -8.9655, 90.5883, -76.3772, 35.515
0.18, 1, 33.2321, 52.3594, -8.9965, 90.6299, -76.2265, 35.5667
0.184, 1, 33.2481, 52.334, -9.02748, 90.6715, -76.076, 35.6183
0.188, 1, 33.2643, 52.3084, -9.05844, 90.713, -75.9256, 35.6699
0.192, 1, 33.2805, 52.2828, -9.08935, 90.7545, -75.7754, 35.7214
0.196, 1, 33.2967, 52.2573, -9.12022, 90.7959, -75.6254, 35.7728
0.2, 1, 33.3129, 52.2317, -9.15103, 90.8372, -75.4757, 35.8241
0.204, 1, 33.3291, 52.2061, -9.1818, 90.8785, -75.3262, 35.8753
0.208, 1, 33.3453, 52.1806, -9.21251, 90.9197, -75.177, 35.9265
0.212, 1, 33.3614, 52.1551, -9.24316, 90.9608, -75.028, 35.9775
0.216, 1, 33.3776, 52.1296, -9.27376, 91.0018, -74.8794, 36.0285
0.22, 1, 33.3937, 52.1042, -9.3043, 91.0428, -74.731, 36.0794
0.224, 1, 33.4098, 52.0788, -9.33479, 91.0837, -74.5829, 36.1302
0.228, 1, 33.4258, 52.0535, -9.36522, 91.1245, -74.435, 36.1808
0.232, 1, 33.4419, 52.0282, -9.3956, 91.1652, -74.2874, 36.2314
0.236, 1, 33.4579, 52.003, -9.42592, 91.2059, -74.1401, 36.2819
0.24, 1, 33.4738, 51.9778, -9.45618, 91.2465, -73.9931, 36.3323
0.244, 1, 33.4898, 51.9526, -9.48639, 91.287, -73.8463, 36.3826
0.248, 1, 33.5057, 51.9275, -9.51654, 91.3275, -73.6998, 36.4329
0.252, 1, 33.5216, 51.9025, -9.54664, 91.3678, -73.5536, 36.483
0.256, 1, 33.5374, 51.8774, -9.57668, 91.4081, -73.4076, 36.533
0.26, 1, 33.5533, 51.8525, -9.60667, 91.4483, -73.2619, 36.583
0.264, 1, 33.5691, 51.8276, -9.6366, 91.4885, -73.1165, 36.6328
0.268, 1, 33.5848, 51.8027, -9.66649, 91.5286, -72.9713, 36.6826
0.272, 1, 33.6006, 51.7778, -9.69631, 91.5686, -72.8264, 36.7323
0.276, 1, 33.6163, 51.7531, -9.72609, 91.6085, -72.6817, 36.7819
0.28, 1, 33.632, 51.7283, -9.75581, 91.6484, -72.5373, 36.8314
0.284, 1, 33.6476, 51.7036, -9.78547, 91.6882, -72.3932, 36.8808
0.288, 1, 33.6633, 51.679, -9.81509, 91.7279, -72.2493, 36.9301
0.292, 1, 33.6789, 51.6544, -9.84465, 91.7675, -72.1057, 36.9794
0.296, 1, 33.6945, 51.6298, -9.87416, 91.8071, -71.9623, 37.0285
0.3, 1, 33.71, 51.6053, -9.90362, 91.8466, -71.8191, 37.0776
0.304, 1, 33.7255, 51.5808, -9.93303, 91.8861, -71.6763, 37.1265
0.308, 1, 33.741, 51.5563, -9.96238, 91.9255, -71.5336, 37.1754
0.312, 1, 33.7565, 51.5319, -9.99169, 91.9648, -71.3913, 37.2243
0.316, 1, 33.7719, 51.5076, -10.0209, 92.004, -71.2491, 37.273
0.32, 1, 33.7873, 51.4833, -10.0501, 92.0432, -71.1073, 37.3216
0.324, 1, 33.8027, 51.459, -10.0793, 92.0823, -70.9656, 37.3702
0.328, 1, 33.8181, 51.4348, -10.1084, 92.1213, -70.8242, 37.4186
0.332, 1, 33.8334, 51.4106, -10.1374, 92.1603, -70.6831, 37.467
0.336, 1, 33.8487, 51.3864, -10.1665, 92.1992, -70.5422, 37.5153
0.34, 1, 33.864, 51.3623, -10.1954, 92.238, -70.4015, 37.5636
0.344, 1, 33.8793, 51.3383, -10.2243, 92.2768, -70.261, 37.6117
0.348, 1, 33.8945, 51.3142, -10.2532, 92.3155, -70.1209, 37.6598
0.352, 1, 33.9097, 51.2903, -10.282, 92.3541, -69.9809, 37.7077
0.356, 1, 33.9249, 51.2663, -10.3107, 92.3927, -69.8412, 37.7556
0.36, 1, 33.94, 51.2424, -10.3394, 92.4312, -69.7017, 37.8034
0.364, 1, 33.9552, 51.2186, -10.3681, 92.4696, -69.5624, 37.8512
0.368, 1, 33.9703, 51.1947, -10.3967, 92.508, -69.4234, 37.8988
0.372, 1, 33.9853, 51.171, -10.4253, 92.5463, -69.2846, 37.9464
0.376, 1, 34.0004, 51.1472, -10.4538, 92.5846, -69.1461, 37.9939
0.38, 1, 34.0154, 51.1235, -10.4823, 92.6228, -69.0078, 38.0413
0.384, 1, 34.0304, 51.0998, -10.5107, 92.6609, -68.8697, 38.0887
0.388, 1, 34.0454, 51.0762, -10.5391, 92.6989, -68.7318, 38.1359
0.392, 1, 34.0604, 51.0526, -10.5674, 92.7369, -68.5941, 38.1831
0.396, 1, 34.0753, 51.0291, -10.5957, 92.7749, -68.4567, 38.2302
0.4, 1, 34.0902, 51.0056, -10.6239, 92.8127, -68.3195, 38.2773
0.404, 1, 34.1051, 50.9821, -10.6521, 92.8506, -68.1826, 38.3242
0.408, 1, 34.1199, 50.9587, -10.6803, 92.8883, -68.0458, 38.3711
0.412, 1, 34.1348, 50.9353, -10.7084, 92.926, -67.9093, 38.4179
0.416, 1, 34.1496, 50.9119, -10.7364, 92.9636, -67.773, 38.4646
0.42, 1, 34.1643, 50.8886, -10.7644, 93.0012, -67.6369, 38.5113
0.424, 1, 34.1791, 50.8653, -10.7924, 93.0387, -67.501, 38.5579
0.428, 1, 34.1938, 50.8421, -10.8203, 93.0762, -67.3653, 38.6044
0.432, 1, 34.2086, 50.8189, -10.8482, 93.1136, -67.2299, 38.6508
0.436, 1, 34.2232, 50.7957, -10.876, 93.1509, -67.0947, 38.6971
0.44, 1, 34.2379, 50.7726, -10.9038, 93.1881, -66.9597, 38.7434
0.444, 1, 34.2526, 50.7495, -10.9315, 93.2254, -66.8249, 38.7896
0.448, 1, 34.2672, 50.7264, -10.9592, 93.2625, -66.6903, 38.8358
0.452, 1, 34.2818, 50.7034, -10.9869, 93.2996, -66.5559, 38.8818
0.456, 1, 34.2964, 50.6804, -11.0145, 93.3367, -66.4217, 38.9278
0.46, 1, 34.3109, 50.6574, -11.0421, 93.3736, -66.2878, 38.9738
0.464, 1, 34.3254, 50.6345, -11.0696, 93.4106, -66.154, 39.0196
0.468, 1, 34.3399, 50.6116, -11.0971, 93.4474, -66.0204, 39.0654
0.472, 1, 34.3544, 50.5888, -11.1246, 93.4842, -65.8871, 39.1111
0.476, 1, 34.3689, 50.566, -11.152, 93.521, -65.754, 39.1567
0.48, 1, 34.3833, 50.5432, -11.1793, 93.5577, -65.621, 39.2023
0.484, 1, 34.3978, 50.5204, -11.2066, 93.5943, -65.4883, 39.2478
0.488, 1, 34.4121, 50.4977, -11.2339, 93.6309, -65.3558, 39.2933
0.492, 1, 34.4265, 50.475, -11.2612, 93.6675, -65.2234, 39.3386
0.496, 1, 34.4409, 50.4524, -11.2883, 93.7039, -65.0913, 39.3839
0.5, 1, 34.4552, 50.4298, -11.3155, 93.7404, -64.9594, 39.4291
0.504, 1, 34.4695, 50.4072, -11.3426, 93.7767, -64.8276, 39.4743
0.508, 1, 34.4838, 50.3847, -11.3697, 93.813, -64.6961, 39.5194
0.512, 1, 34.4981, 50.3622, -11.3967, 93.8493, -64.5647, 39.5644
0.516, 1, 34.5123, 50.3397, -11.4237, 93.8855, -64.4336, 39.6094
0.52, 1, 34.5265, 50.3173, -11.4507, 93.9217, -64.3026, 39.6543
0.524, 1, 34.5408, 50.2949, -11.4776, 93.9578, -64.1719, 39.6991
0.528, 1, 34.5549, 50.2725, -11.5045, 93.9938, -64.0413, 39.7439
0.532, 1, 34.5691, 50.2501, -11.5313, 94.0298, -63.9109, 39.7886
0.536, 1, 34.5832, 50.2278, -11.5581, 94.0657, -63.7807, 39.8332
0.54, 1, 34.5974, 50.2056, -11.5848, 94.1016, -63.6507, 39.8777
0.544, 1, 34.6115, 50.1833, -11.6116, 94.1375, -63.5209, 39.9222
0.548, 1, 34.6255, 50.1611, -11.6382, 94.1732, -63.3913, 39.9667
0.552, 1, 34.6396, 50.1389, -11.6649, 94.209, -63.2619, 40.0111
0.556, 1, 34.6536, 50.1168, -11.6915, 94.2447, -63.1326, 40.0554
0.56, 1, 34.6677, 50.0947, -11.718, 94.2803, -63.0036, 40.0996
0.564, 1, 34.6817, 50.0726, -11.7446, 94.3159, -62.8747, 40.1438
0.568, 1, 34.6956, 50.0505, -11.7711, 94.3514, -62.746, 40.1879
0.572, 1, 34.7096, 50.0285, -11.7975, 94.3869, -62.6175, 40.2319
0.576, 1, 34.7235, 50.0065, -11.8239, 94.4223, -62.4892, 40.2759
0.58, 1, 34.7375, 49.9846, -11.8503, 94.4577, -62.361, 40.3199
0.584, 1, 34.7514, 49.9626, -11.8766, 94.493, -62.2331, 40.3637
0.588, 1, 34.7652, 49.9407, -11.9029, 94.5283, -62.1053, 40.4075
0.592, 1, 34.7791, 49.9189, -11.9292, 94.5635, -61.9777, 40.4513
0.596, 1, 34.7929, 49.897, -11.9554, 94.5987, -61.8503, 40.495
0.6, 1, 34.8068, 49.8752, -11.9816, 94.6338, -61.723, 40.5386
0.604, 1, 34.8206, 49.8535, -12.0078, 94.6689, -61.5959, 40.5821
0.608, 1, 34.8343, 49.8317, -12.0339, 94.7039, -61.4691, 40.6256
0.612, 1, 34.8481, 49.81, -12.0599, 94.7389, -61.3423, 40.6691
0.616, 1, 34.8618, 49.7883, -12.086, 94.7738, -61.2158, 40.7125
0.62, 1, 34.8756, 49.7667, -12.112, 94.8087, -61.0894, 40.7558
0.624, 1, 34.8893, 49.7451, -12.138, 94.8435, -60.9632, 40.799
0.628, 1, 34.903, 49.7235, -12.1639, 94.8783, -60.8372, 40.8422
0.632, 1, 34.9166, 49.7019, -12.1898, 94.9131, -60.7114, 40.8854
0.636, 1, 34.9303, 49.6804, -12.2157, 94.9478, -60.5857, 40.9284
0.64, 1, 34.9439, 49.6589, -12.2415, 94.9824, -60.4602, 40.9715
0.644, 1, 34.9575, 49.6374, -12.2673, 95.017, -60.3349, 41.0144
0.648, 1, 34.9711, 49.6159, -12.2931, 95.0516, -60.2097, 41.0573
0.652, 1, 34.9847, 49.5945, -12.3188, 95.0861, -60.0847, 41.1002
0.656, 1, 34.9983, 49.5731, -12.3445, 95.1205, -59.9599, 41.143
0.66, 1, 35.0118, 49.5518, -12.3701, 95.1549, -59.8352, 41.1857
0.664, 1, 35.0253, 49.5304, -12.3958, 95.1893, -59.7107, 41.2284
0.668, 1, 35.0388, 49.5091, -12.4214, 95.2236, -59.5864, 41.271
0.672, 1, 35.0523, 49.4879, -12.4469, 95.2579, -59.4622, 41.3136
0.676, 1, 35.0658, 49.4666, -12.4724, 95.2921, -59.3382, 41.3561
0.68, 1, 35.0792, 49.4454, -12.4979, 95.3263, -59.2144, 41.3985
0.684, 1, 35.0927, 49.4242, -12.5234, 95.3605, -59.0907, 41.4409
0.688, 1, 35.1061, 49.4031, -12.5488, 95.3946, -58.9672, 41.4833
0.692, 1, 35.1195, 49.3819, -12.5742, 95.4286, -58.8439, 41.5256
0.696, 1, 35.1329, 49.3608, -12.5995, 95.4626, -58.7207, 41.5678
0.7, 1, 35.1462, 49.3397, -12.6249, 95.4966, -58.5977, 41.61
0.704, 1, 35.1596, 49.3187, -12.6501, 95.5305, -58.4748, 41.6521
0.708, 1, 35.1729, 49.2977, -12.6754, 95.5644, -58.3521, 41.6941
0.712, 1, 35.1862, 49.2767, -12.7006, 95.5982, -58.2296, 41.7361
0.716, 1, 35.1995, 49.2557, -12.7258, 95.632, -58.1072, 41.7781
0.72, 1, 35.2128, 49.2347, -12.751, 95.6657, -57.985, 41.82
0.724, 1, 35.226, 49.2138, -12.7761, 95.6994, -57.8629, 41.8618
0.728, 1, 35.2393, 49.1929, -12.8012, 95.7331, -57.741, 41.9036
0.732, 1, 35.2525, 49.1721, -12.8262, 95.7667, -57.6192, 41.9454
0.736, 1, 35.2657, 49.1512, -12.8513, 95.8003, -57.4976, 41.9871
0.74, 1, 35.2789, 49.1304, -12.8763, 95.8338, -57.3762, 42.0287
0.744, 1, 35.2921, 49.1097, -12.9012, 95.8673, -57.2549, 42.0703
0.748, 1, 35.3052, 49.0889, -12.9262, 95.9007, -57.1338, 42.1118
0.752, 1, 35.3184, 49.0682, -12.9511, 95.9341, -57.0128, 42.1533
0.756, 1, 35.3315, 49.0475, -12.9759, 95.9675, -56.8919, 42.1947
0.76, 1, 35.3446, 49.0268, -13.0008, 96.0008, -56.7712, 42.2361
0.764, 1, 35.3577, 49.0061, -13.0256, 96.0341, -56.6507, 42.2774
0.768, 1, 35.3708, 48.9855, -13.0504, 96.0673, -56.5303, 42.3187
0.772, 1, 35.3838, 48.9649, -13.0751, 96.1005, -56.4101, 42.3599
0.776, 1, 35.3969, 48.9443, -13.0998, 96.1336, -56.29, 42.401
0.78, 1, 35.4099, 48.9238, -13.1245, 96.1667, -56.1701, 42.4422
0.784, 1, 35.4229, 48.9032, -13.1492, 96.1998, -56.0503, 42.4832
0.788, 1, 35.4359, 48.8827, -13.1738, 96.2328, -55.9307, 42.5242
0.792, 1, 35.4489, 48.8623, -13.1984, 96.2658, -55.8112, 42.5652
0.796, 1, 35.4619, 48.8418, -13.2229, 96.2988, -55.6918, 42.6061
0.8, 1, 35.4748, 48.8214, -13.2475, 96.3317, -55.5726, 42.647
0.804, 1, 35.4877, 48.801, -13.272, 96.3645, -55.4535, 42.6878
0.808, 1, 35.5006, 48.7806, -13.2965, 96.3974, -55.3346, 42.7285
0.812, 1, 35.5136, 48.7603, -13.3209, 96.4302, -55.2159, 42.7693
0.816, 1, 35.5264, 48.7399, -13.3453, 96.4629, -55.0972, 42.8099
0.82, 1, 35.5393, 48.7196, -13.3697, 96.4956, -54.9787, 42.8506
0.824, 1, 35.5522, 48.6994, -13.3941, 96.5283, -54.8604, 42.8911
0.828, 1, 35.565, 48.6791, -13.4184, 96.5609, -54.7422, 42.9316
0.832, 1, 35.5778, 48.6589, -13.4427, 96.5935, -54.6241, 42.9721
0.836, 1, 35.5906, 48.6387, -13.467, 96.6261, -54.5062, 43.0125
0.84, 1, 35.6034, 48.6185, -13.4912, 96.6586, -54.3884, 43.0529
0.844, 1, 35.6162, 48.5983, -13.5154, 96.6911, -54.2707, 43.0933
0.848, 1, 35.629, 48.5782, -13.5396, 96.7235, -54.1532, 43.1335
0.852, 1, 35.6417, 48.5581, -13.5638, 96.7559, -54.0358, 43.1738
0.856, 1, 35.6545, 48.538, -13.5879, 96.7883, -53.9186, 43.214
0.86, 1, 35.6672, 48.5179, -13.612, 96.8206, -53.8015, 43.2541
0.864, 1, 35.6799, 48.4979, -13.6361, 96.8529, -53.6845, 43.2942
0.868, 1, 35.6925, 48.4779, -13.6601, 96.8852, -53.5677, 43.3343
0.872, 1, 35.7051, 48.458, -13.6841, 96.9174, -53.451, 43.3743
0.876, 1, 35.7176, 48.4381, -13.7081, 96.9496, -53.3345, 43.4142
0.88, 1, 35.73, 48.4184, -13.7321, 96.9817, -53.2181, 43.4541
0.884, 1, 35.7419, 48.3992, -13.756, 97.0137, -53.102, 43.4939
0.888, 1, 35.7533, 48.3805, -13.7798, 97.0457, -52.9863, 43.5336
0.892, 1, 35.7641, 48.3627, -13.8035, 97.0775, -52.8712, 43.5731
0.896, 1, 35.7742, 48.3457, -13.8269, 97.109, -52.757, 43.6122
0.9, 1, 35.7836, 48.3297, -13.8501, 97.1401, -52.6444, 43.6508
0.904, 1, 35.7924, 48.3145, -13.8728, 97.1706, -52.534, 43.6887
0.908, 1, 35.8007, 48.3002, -13.895, 97.2003, -52.4264, 43.7256
0.912, 1, 35.8087, 48.2866, -13.9163, 97.229, -52.3226, 43.7613
0.916, 1, 35.8164, 48.2736, -13.9367, 97.2564, -52.2234, 43.7953
0.92, 1, 35.8238, 48.2613, -13.956, 97.2823, -52.1296, 43.8275
0.924, 1, 35.8309, 48.2497, -13.9741, 97.3065, -52.042, 43.8576
0.928, 1, 35.8377, 48.2387, -13.9907, 97.3288, -51.9612, 43.8853
0.932, 1, 35.8442, 48.2281, -14.0057, 97.3491, -51.888, 43.9104
0.936, 1, 35.8507, 48.2178, -14.0192, 97.3671, -51.8226, 43.9328
0.94, 1, 35.8571, 48.2077, -14.031, 97.3829, -51.7653, 43.9524
0.944, 1, 35.8634, 48.1979, -14.0412, 97.3966, -51.716, 43.9693
0.948, 1, 35.8695, 48.1884, -14.0498, 97.4081, -51.6743, 43.9836
0.952, 1, 35.8755, 48.1793, -14.0569, 97.4175, -51.6399, 43.9954
0.956, 2, 35.8812, 48.1708, -14.0626, 97.4252, -51.612, 44.0049
0.96, 2, 35.8865, 48.1631, -14.0672, 97.4313, -51.5899, 44.0124
0.964, 2, 35.8915, 48.1562, -14.0707, 97.436, -51.5728, 44.0183
0.968, 2, 35.896, 48.1502, -14.0734, 97.4396, -51.5598, 44.0227
0.972, 2, 35.9001, 48.145, -14.0754, 97.4422, -51.5503, 44.0259
0.976, 2, 35.9037, 48.1406, -14.0768, 97.4441, -51.5433, 44.0283
0.98, 2, 35.9067, 48.1371, -14.0778, 97.4454, -51.5385, 44.0299
0.984, 2, 35.9091, 48.1343, -14.0785, 97.4463, -51.5351, 44.0311
0.988, 2, 35.911, 48.1323, -14.079, 97.4469, -51.5327, 44.0319
0.992, 2, 35.9123, 48.1308, -14.0793, 97.4474, -51.5312, 44.0324
0.996, 2, 35.9132, 48.1299, -14.0796, 97.4477, -51.5301, 44.0328
1, 2, 35.9138, 48.1292, -14.0797, 97.4479, -51.5294, 44.033
1.004, 2, 35.9142, 48.1287, -14.0798, 97.448, -51.5289, 44.0332
1.008, 2, 35.9145, 48.1284, -14.0799, 97.4481, -51.5285, 44.0333
1.012, 2, 35.9147, 48.1282, -14.0799, 97.4482, -51.5283, 44.0334
1.016, 2, 35.9149, 48.1281, -14.08, 97.4482, -51.5282, 44.0334
1.02, 2, 35.9149, 48.128, -14.08, 97.4482, -51.5281, 44.0335
1.024, 2, 35.915, 48.1279, -14.08, 97.4482, -51.528, 44.0335
1.027, 2, 35.915, 48.1279, -14.08, 97.4483, -51.5279, 44.0335
1.032, 2, 35.9151, 48.1278, -14.08, 97.4483, -51.5279, 44.0335
1.036, 2, 35.9151, 48.1278, -14.08, 97.4483, -51.5279, 44.0335
1.04, 2, 35.9151, 48.1278, -14.08, 97.4483, -51.5279, 44.0335
1.044, 2, 35.9151, 48.1278, -14.08, 97.4483, -51.5279, 44.0335
1.048, 2, 35.9151, 48.1278, -14.08, 97.4483, -51.5279, 44.0335
1.052, 2, 35.9151, 48.1278, -14.08, 97.4483, -51.5279, 44.0335
1.055, 2, 35.9151, 48.1278, -14.08, 97.4483, -51.5278, 44.0335
1.06, 2, 35.9151, 48.1278, -14.08, 97.4483, -51.5278, 44.0335
1.064, 2, 35.9151, 48.1278, -14.08, 97.4483, -51.5278, 44.0335
1.068, 2, 35.9151, 48.1278, -14.08, 97.4483, -51.5278, 44.0335
1.072, 2, 35.9151, 48.1278, -14.08, 97.4483, -51.5278, 44.0335
1.076, 2, 35.9151, 48.1278, -14.08, 97.4483, -51.5278, 44.0335
1.08, 2, 35.9151, 48.1278, -14.08, 97.4483, -51.5278, 44.0335
1.084, 2, 35.9151, 48.1278, -14.08, 97.4483, -51.5278, 44.0335
1.088, 2, 35.9151, 48.1278, -14.08, 97.4483, -51.5278, 44.0335
1.091, 2, 35.9151, 48.1278, -14.08, 97.4483, -51.5278, 44.0335
1.096, 2, 35.9151, 48.1278, -14.08, 97.4483, -51.5278, 44.0335
1.1, 2, 35.9151, 48.1278, -14.08, 97.4483, -51.5278, 44.0335
1.104, 2, 35.9151, 48.1278, -14.08, 97.4483, -51.5278, 44.0335
1.108, 2, 35.9151, 48.1278, -14.08, 97.4483, -51.5278, 44.0335
1.112, 2, 35.9151, 48.1278, -14.08, 97.4483, -51.5278, 44.0335
1.116, 2, 35.9151, 48.1278, -14.08, 97.4483, -51.5278, 44.0335
1.119, 2, 35.9151, 48.1278, -14.08, 97.4483, -51.5278, 44.0335
1.124, 2, 35.9151, 48.1278, -14.08, 97.4483, -51.5278, 44.0335
1.128, 2, 35.9151, 48.1278, -14.08, 97.4483, -51.5278, 44.0335
1.132, 2, 35.9151, 48.1278, -14.08, 97.4483, -51.5278, 44.0335
1.136, 2, 35.9151, 48.1278, -14.08, 97.4483, -51.5278, 44.0335
1.14, 2, 35.9151, 48.1278, -14.08, 97.4483, -51.5278, 44.0335
1.144, 2, 35.9151, 48.1278, -14.08, 97.4483, -51.5278, 44.0335
1.147, 2, 35.9151, 48.1278, -14.08, 97.4483, -51.5278, 44.0335
1.152, 2, 35.9151, 48.1278, -14.08, 97.4483, -51.5278, 44.0335
1.156, 2, 35.9151, 48.1278, -14.08, 97.4483, -51.5278, 44.0335
1.16, 2, 35.9151, 48.1278, -14.08, 97.4483, -51.5278, 44.0335
1.164, 2, 35.9151, 48.1278, -14.08, 97.4483, -51.5278, 44.0335
1.168, 2, 35.9151, 48.1278, -14.08, 97.4483, -51.5278, 44.0335
1.172, 2, 35.9151, 48.1278, -14.08, 97.4483, -51.5278, 44.0335
1.175, 2, 35.9151, 48.1278, -14.08, 97.4483, -51.5278, 44.0335
1.18, 2, 35.9151, 48.1278, -14.08, 97.4483, -51.5278, 44.0335
1.184, 2, 35.9151, 48.1278, -14.08, 97.4483, -51.5278, 44.0335
1.188, 2, 35.9151, 48.1278, -14.08, 97.4483, -51.5278, 44.0335
1.192, 2, 35.9151, 48.1278, -14.08, 97.4483, -51.5278, 44.0335
1.196, 2, 35.9151, 48.1278, -14.08, 97.4483, -51.5278, 44.0335
1.2, 2, 35.9151, 48.1278, -14.08, 97.4483, -51.5278, 44.0335
1.204, 2, 35.9151, 48.1278, -14.08, 97.4483, -51.5278, 44.0335
1.208, 2, 35.9151, 48.1278, -14.08, 97.4483, -51.5278, 44.0335
1.212, 2, 35.9151, 48.1278, -14.08, 97.4483, -51.5278, 44.0335
1.216, 2, 35.9151, 48.1278, -14.08, 97.4483, -51.5278, 44.0335
1.22, 2, 35.9151, 48.1278, -14.08, 97.4483, -51.5278, 44.0335
1.224, 2, 35.9151, 48.1278, -14.08, 97.4483, -51.5278, 44.0335
1.228, 2, 35.9151, 48.1278, -14.08, 97.4483, -51.5278, 44.0335
1.232, 2, 35.9151, 48.1278, -14.08, 97.4483, -51.5278, 44.0335
1.236, 2, 35.9151, 48.1278, -14.08, 97.4483, -51.5278, 44.0335
1.24, 2, 35.9151, 48.1278, -14.08, 97.4483, -51.5278, 44.0335
1.244, 2, 35.9151, 48.1278, -14.08, 97.4483, -51.5278, 44.0335
1.248, 2, 35.9151, 48.1278, -14.08, 97.4483, -51.5278, 44.0335
1.252, 2, 35.9151, 48.1278, -14.08, 97.4483, -51.5278, 44.0335
1.256, 2, 35.9151, 48.1278, -14.08, 97.4483, -51.5278, 44.0335
1.26, 2, 35.9151, 48.1278, -14.08, 97.4483, -51.5278, 44.0335
1.264, 2, 35.9151, 48.1278, -14.08, 97.4483, -51.5278, 44.0335
1.267, 2, 35.9151, 48.1278, -14.08, 97.4483, -51.5278, 44.0335
1.272, 2, 35.9151, 48.1278, -14.08, 97.4483, -51.5278, 44.0335
1.276, 2, 35.9151, 48.1278, -14.08, 97.4483, -51.5278, 44.0335
1.28, 2, 35.9151, 48.1278, -14.08, 97.4483, -51.5278, 44.0335
1.284, 2, 35.9151, 48.1278, -14.08, 97.4483, -51.5278, 44.0335
1.288, 2, 35.9151, 48.1278, -14.08, 97.4483, -51.5278, 44.0335
1.292, 2, 35.9151, 48.1278, -14.08, 97.4483, -51.5278, 44.0335
1.295, 2, 35.9151, 48.1278, -14.08, 97.4483, -51.5278, 44.0335
1.3, 2, 35.9151, 48.1278, -14.08, 97.4483, -51.5278, 44.0335
1.304, 2, 35.9151, 48.1278, -14.08, 97.4483, -51.5278, 44.0335
1.308, 2, 35.9151, 48.1278, -14.08, 97.4483, -51.5278, 44.0335
1.312, 2, 35.9151, 48.1278, -14.08, 97.4483, -51.5278, 44.0335
1.316, 2, 35.9151, 48.1278, -14.08, 97.4483, -51.5278, 44.0335
1.32, 2, 35.9151, 48.1278, -14.08, 97.4483, -51.5278, 44.0335
1.324, 2, 35.9151, 48.1278, -14.08, 97.4483, -51.5278, 44.0335
1.328, 2, 35.9151, 48.1278, -14.08, 97.4483, -51.5278, 44.0335
1.332, 2, 35.9151, 48.1278, -14.08, 97.4483, -51.5278, 44.0335
1.336, 2, 35.9151, 48.1278, -14.08, 97.4483, -51.5278, 44.0335
1.34, 2, 35.9151, 48.1278, -14.08, 97.4483, -51.5278, 44.0335
1.344, 2, 35.9151, 48.1278, -14.08, 97.4483, -51.5278, 44.0335
1.348, 2, 35.9151, 48.1278, -14.08, 97.4483, -51.5278, 44.0335
1.352, 2, 35.9151, 48.1278, -14.08, 97.4483, -51.5278, 44.0335
1.356, 2, 35.9151, 48.1278, -14.08, 97.4483, -51.5278, 44.0335
1.36, 2, 35.9151, 48.1278, -14.08, 97.4483, -51.5278, 44.0335
1.364, 2, 35.9151, 48.1278, -14.08, 97.4483, -51.5278, 44.0335
1.368, 2, 35.9151, 48.1278, -14.08, 97.4483, -51.5278, 44.0335
1.372, 2, 35.9151, 48.1278, -14.08, 97.4483, -51.5278, 44.0335
1.376, 2, 35.9151, 48.1278, -14.08, 97.4483, -51.5278, 44.0335
1.38, 2, 35.9151, 48.1278, -14.08, 97.4483, -51.5278, 44.0335
1.384, 2, 35.9151, 48.1278, -14.08, 97.4483, -51.5278, 44.0335
1.388, 2, 35.9151, 48.1278, -14.08, 97.4483, -51.5278, 44.0335
1.392, 2, 35.9151, 48.1278, -14.08, 97.4483, -51.5278, 44.0335
1.396, 2, 35.9151, 48.1278, -14.08, 97.4483, -51.5278, 44.0335
1.4, 2, 35.9151, 48.1278, -14.08, 97.4483, -51.5278, 44.0335
1.404, 2, 35.9151, 48.1278, -14.08, 97.4483, -51.5278, 44.0335
1.408, 2, 35.9151, 48.1278, -14.08, 97.4483, -51.5278, 44.0335
1.412, 2, 35.9151, 48.1278, -14.08, 97.4483, -51.5278, 44.0335
1.416, 2, 35.9151, 48.1278, -14.08, 97.4483, -51.5278, 44.0335
1.42, 2, 35.9151, 48.1278, -14.08, 97.4483, -51.5278, 44.0335
1.424, 2, 35.9151, 48.1278, -14.08, 97.4483, -51.5278, 44.0335
1.428, 2, 35.9151, 48.1278, -14.08, 97.4483, -51.5278, 44.0335
1.432, 2, 35.9151, 48.1278, -14.08, 97.4483, -51.5278, 44.0335
1.436, 2, 35.9151, 48.1278, -14.08, 97.4483, -51.5278, 44.0335
1.44, 2, 35.9151, 48.1278, -14.08, 97.4483, -51.5278, 44.0335
1.444, 2, 35.9151, 48.1278, -14.08, 97.4483, -51.5278, 44.0335
1.448, 2, 35.9151, 48.1278, -14.08, 97.4483, -51.5278, 44.0335
1.452, 2, 35.9151, 48.1278, -14.08, 97.4483, -51.5278, 44.0335
1.456, 2, 35.9151, 48.1278, -14.08, 97.4483, -51.5278, 44.0335
1.46, 2, 35.9151, 48.1278, -14.08, 97.4483, -51.5278, 44.0335
1.464, 2, 35.9151, 48.1278, -14.08, 97.4483, -51.5278, 44.0335
1.468, 2, 35.9151, 48.1278, -14.08, 97.4483, -51.5278, 44.0335
1.472, 2, 35.9151, 48.1278, -14.08, 97.4483, -51.5278, 44.0335
1.476, 2, 35.9151, 48.1278, -14.08, 97.4483, -51.5278, 44.0335
1.48, 2, 35.9151, 48.1278, -14.08, 97.4483, -51.5278, 44.0335
1.484, 2, 35.9151, 48.1278, -14.08, 97.4483, -51.5278, 44.0335
1.488, 2, 35.9151, 48.1278, -14.08, 97.4483, -51.5278, 44.0335
1.492, 2, 35.9151, 48.1278, -14.08, 97.4483, -51.5278, 44.0335
1.496, 2, 35.9151, 48.1278, -14.08, 97.4483, -51.5278, 44.0335
1.5, 2, 35.9151, 48.1278, -14.08, 97.4483, -51.5278, 44.0335
1.504, 2, 35.9151, 48.1278, -14.08, 97.4483, -51.5278, 44.0335
1.508, 2, 35.9151, 48.1278, -14.08, 97.4483, -51.5278, 44.0335
1.512, 2, 35.9151, 48.1278, -14.08, 97.4483, -51.5278, 44.0335
1.516, 2, 35.9151, 48.1278, -14.08, 97.4483, -51.5278, 44.0335
1.52, 2, 35.9151, 48.1278, -14.08, 97.4483, -51.5278, 44.0335
1.524, 2, 35.9151, 48.1278, -14.08, 97.4483, -51.5278, 44.0335
1.528, 2, 35.9151, 48.1278, -14.08, 97.4483, -51.5278, 44.0335
1.532, 2, 35.9151, 48.1278, -14.08, 97.4483, -51.5278, 44.0335
1.536, 2, 35.9151, 48.1278, -14.08, 97.4483, -51.5278, 44.0335
1.54, 2, 35.9151, 48.1278, -14.08, 97.4483, -51.5278, 44.0335
1.544, 2, 35.9151, 48.1278, -14.08, 97.4483, -51.5278, 44.0335
1.548, 2, 35.9151, 48.1278, -14.08, 97.4483, -51.5278, 44.0335
1.552, 2, 35.9151, 48.1278, -14.08, 97.4483, -51.5278, 44.0335
1.556, 2, 35.9151, 48.1278, -14.08, 97.4483, -51.5278, 44.0335
1.56, 2, 35.9151, 48.1278, -14.08, 97.4483, -51.5278, 44.0335
1.564, 2, 35.9151, 48.1278, -14.08, 97.4483, -51.5278, 44.0335
1.568, 2, 35.9151, 48.1278, -14.08, 97.4483, -51.5278, 44.0335
1.572, 2, 35.9151, 48.1278, -14.08, 97.4483, -51.5278, 44.0335
1.576, 2, 35.9151, 48.1278, -14.08, 97.4483, -51.5278, 44.0335
1.58, 2, 35.9151, 48.1278, -14.08, 97.4483, -51.5278, 44.0335
1.584, 2, 35.9151, 48.1278, -14.08, 97.4483, -51.5278, 44.0335
1.588, 2, 35.9151, 48.1278, -14.08, 97.4483, -51.5278, 44.0335
1.592, 2, 35.9151, 48.1278, -14.08, 97.4483, -51.5278, 44.0335
1.596, 2, 35.9151, 48.1278, -14.08, 97.4483, -51.5278, 44.0335
1.6, 2, 35.9151, 48.1278, -14.08, 97.4483, -51.5278, 44.0335
1.604, 2, 35.9151, 48.1278, -14.08, 97.4483, -51.5278, 44.0335
1.608, 2, 35.9151, 48.1278, -14.08, 97.4483, -51.5278, 44.0335
1.612, 2, 35.9151, 48.1278, -14.08, 97.4483, -51.5278, 44.0335
1.616, 2, 35.9151, 48.1278, -14.08, 97.4483, -51.5278, 44.0335
1.62, 2, 35.9151, 48.1278, -14.08, 97.4483, -51.5278, 44.0335
1.624, 2, 35.9151, 48.1278, -14.08, 97.4483, -51.5278, 44.0335
1.628, 2, 35.9151, 48.1278, -14.08, 97.4483, -51.5278, 44.0335
1.632, 2, 35.9151, 48.1278, -14.08, 97.4483, -51.5278, 44.0335
1.636, 2, 35.9151, 48.1278, -14.08, 97.4483, -51.5278, 44.0335
1.64, 2, 35.9151, 48.1278, -14.08, 97.4483, -51.5278, 44.0335
1.644, 2, 35.9151, 48.1278, -14.08, 97.4483, -51.5278, 44.0335
1.648, 2, 35.9151, 48.1278, -14.08, 97.4483, -51.5278, 44.0335
1.652, 2, 35.9151, 48.1278, -14.08, 97.4483, -51.5278, 44.0335
1.656, 2, 35.9151, 48.1278, -14.08, 97.4483, -51.5278, 44.0335
1.66, 2, 35.9151, 48.1278, -14.08, 97.4483, -51.5278, 44.0335
1.664, 2, 35.9151, 48.1278, -14.08, 97.4483, -51.5278, 44.0335
1.668, 2, 35.9151, 48.1278, -14.08, 97.4483, -51.5278, 44.0335
1.672, 2, 35.9151, 48.1278, -14.08, 97.4483, -51.5278, 44.0335
1.676, 2, 35.9151, 48.1278, -14.08, 97.4483, -51.5278, 44.0335
1.68, 2, 35.9151, 48.1278, -14.08, 97.4483, -51.5278, 44.0335
1.684, 2, 35.9151, 48.1278, -14.08, 97.4483, -51.5278, 44.0335
1.688, 2, 35.9151, 48.1278, -14.08, 97.4483, -51.5278, 44.0335
1.692, 2, 35.9151, 48.1278, -14.08, 97.4483, -51.5278, 44.0335
1.696, 2, 35.9151, 48.1278, -14.08, 97.4483, -51.5278, 44.0335
1.7, 2, 35.9151, 48.1278, -14.08, 97.4483, -51.5278, 44.0335
1.704, 2, 35.9151, 48.1278, -14.08, 97.4483, -51.5278, 44.0335
1.708, 2, 35.9151, 48.1278, -14.08, 97.4483, -51.5278, 44.0335
1.712, 2, 35.9151, 48.1278, -14.08, 97.4483, -51.5278, 44.0335
1.716, 2, 35.9151, 48.1278, -14.08, 97.4483, -51.5278, 44.0335
1.72, 2, 35.9151, 48.1278, -14.08, 97.4483, -51.5278, 44.0335
1.724, 2, 35.9151, 48.1278, -14.08, 97.4483, -51.5278, 44.0335
1.728, 2, 35.9151, 48.1278, -14.08, 97.4483, -51.5278, 44.0335
1.732, 2, 35.9151, 48.1278, -14.08, 97.4483, -51.5278, 44.0335
1.736, 2, 35.9151, 48.1278, -14.08, 97.4483, -51.5278, 44.0335
1.74, 2, 35.9151, 48.1278, -14.08, 97.4483, -51.5278, 44.0335
1.744, 2, 35.9151, 48.1278, -14.08, 97.4483, -51.5278, 44.0335
1.748, 2, 35.9151, 48.1278, -14.08, 97.4483, -51.5278, 44.0335
1.752, 2, 35.9151, 48.1278, -14.08, 97.4483, -51.5278, 44.0335
1.756, 2, 35.9151, 48.1278, -14.08, 97.4483, -51.5278, 44.0335
1.76, 2, 35.9151, 48.1278, -14.08, 97.4483, -51.5278, 44.0335
1.764, 2, 35.9151, 48.1278, -14.08, 97.4483, -51.5278, 44.0335
1.768, 2, 35.9151, 48.1278, -14.08, 97.4483, -51.5278, 44.0335
1.772, 2, 35.9151, 48.1278, -14.08, 97.4483, -51.5278, 44.0335
1.776, 2, 35.9151, 48.1278, -14.08, 97.4483, -51.5278, 44.0335
1.78, 2, 35.9151, 48.1278, -14.08, 97.4483, -51.5278, 44.0335
1.784, 2, 35.9151, 48.1278, -14.08, 97.4483, -51.5278, 44.0335
1.788, 2, 35.9151, 48.1278, -14.08, 97.4483, -51.5278, 44.0335
1.792, 2, 35.9151, 48.1278, -14.08, 97.4483, -51.5278, 44.0335
1.796, 2, 35.9151, 48.1278, -14.08, 97.4483, -51.5278, 44.0335
1.8, 2, 35.9151, 48.1278, -14.08, 97.4483, -51.5278, 44.0335
1.804, 2, 35.9151, 48.1278, -14.08, 97.4483, -51.5278, 44.0335
1.808, 2, 35.9151, 48.1278, -14.08, 97.4483, -51.5278, 44.0335
1.812, 2, 35.9151, 48.1278, -14.08, 97.4483, -51.5278, 44.0335
1.816, 2, 35.9151, 48.1278, -14.08, 97.4483, -51.5278, 44.0335
1.82, 2, 35.9151, 48.1278, -14.08, 97.4483, -51.5278, 44.0335
1.824, 2, 35.9151, 48.1278, -14.08, 97.4483, -51.5278, 44.0335
1.828, 2, 35.9151, 48.1278, -14.08, 97.4483, -51.5278, 44.0335
1.832, 2, 35.9151, 48.1278, -14.08, 97.4483, -51.5278, 44.0335
1.836, 2, 35.9151, 48.1278, -14.08, 97.4483, -51.5278, 44.0335
1.84, 2, 35.9151, 48.1278, -14.08, 97.4483, -51.5278, 44.0335
1.844, 2, 35.9151, 48.1278, -14.08, 97.4483, -51.5278, 44.0335
1.848, 2, 35.9151, 48.1278, -14.08, 97.4483, -51.5278, 44.0335
1.852, 2, 35.9151, 48.1278, -14.08, 97.4483, -51.5278, 44.0335
1.856, 2, 35.9151, 48.1278, -14.08, 97.4483, -51.5278, 44.0335
1.86, 2, 35.9151, 48.1278, -14.08, 97.4483, -51.5278, 44.0335
1.864, 2, 35.9151, 48.1278, -14.08, 97.4483, -51.5278, 44.0335
1.868, 2, 35.9151, 48.1278, -14.08, 97.4483, -51.5278, 44.0335
1.872, 2, 35.9151, 48.1278, -14.08, 97.4483, -51.5278, 44.0335
1.876, 2, 35.9151, 48.1278, -14.08, 97.4483, -51.5278, 44.0335
1.88, 2, 35.9151, 48.1278, -14.08, 97.4483, -51.5278, 44.0335
1.884, 2, 35.9151, 48.1278, -14.08, 97.4483, -51.5278, 44.0335
1.888, 2, 35.9151, 48.1278, -14.08, 97.4483, -51.5278, 44.0335
1.892, 2, 35.9151, 48.1278, -14.08, 97.4483, -51.5278, 44.0335
1.896, 2, 35.9151, 48.1278, -14.08, 97.4483, -51.5278, 44.0335
1.9, 2, 35.9151, 48.1278, -14.08, 97.4483, -51.5278, 44.0335
1.904, 2, 35.9151, 48.1278, -14.08, 97.4483, -51.5278, 44.0335
1.908, 2, 35.9151, 48.1278, -14.08, 97.4483, -51.5278, 44.0335
1.912, 2, 35.9151, 48.1278, -14.08, 97.4483, -51.5278, 44.0335
1.916, 2, 35.9151, 48.1278, -14.08, 97.4483, -51.5278, 44.0335
1.92, 2, 35.9151, 48.1278, -14.08, 97.4483, -51.5278, 44.0335
1.924, 2, 35.9151, 48.1278, -14.08, 97.4483, -51.5278, 44.0335
1.928, 2, 35.9151, 48.1278, -14.08, 97.4483, -51.5278, 44.0335
1.932, 2, 35.9151, 48.1278, -14.08, 97.4483, -51.5278, 44.0335
1.936, 2, 35.9151, 48.1278, -14.08, 97.4483, -51.5278, 44.0335
1.94, 2, 35.9151, 48.1278, -14.08, 97.4483, -51.5278, 44.0335
1.944, 2, 35.9151, 48.1278, -14.08, 97.4483, -51.5278, 44.0335
1.948, 2, 35.9151, 48.1278, -14.08, 97.4483, -51.5278, 44.0335
1.952, 2, 35.9151, 48.1278, -14.08, 97.4483, -51.5278, 44.0335
1.956, 3, 35.9151, 48.1278, -14.08, 97.4483, -51.5278, 44.0335
1.96, 3, 35.9151, 48.1278, -14.08, 97.4483, -51.5278, 44.0335
1.964, 3, 35.9151, 48.1278, -14.08, 97.4483, -51.5278, 44.0335
1.968, 3, 35.9151, 48.1278, -14.08, 97.4483, -51.5278, 44.0335
1.972, 3, 35.9151, 48.1278, -14.08, 97.4483, -51.5278, 44.0335
1.976, 3, 35.9151, 48.1278, -14.08, 97.4483, -51.5278, 44.0335
1.98, 3, 35.9151, 48.1278, -14.08, 97.4483, -51.5278, 44.0335
1.984, 3, 35.9151, 48.1278, -14.08, 97.4483, -51.5278, 44.0335
1.988, 3, 35.9151, 48.1278, -14.08, 97.4483, -51.5278, 44.0335
1.992, 4, 35.9151, 48.1278, -14.08, 97.4483, -51.5278, 44.0335
1.996, 4, 35.9151, 48.1278, -14.08, 97.4483, -51.5278, 44.0335
1.999, 4, 35.9151, 48.1278, -14.08, 97.4483, -51.5278, 44.0335
2.004, 4, 35.9151, 48.1278, -14.08, 97.4483, -51.5278, 44.0335
2.008, 4, 35.9151, 48.1278, -14.08, 97.4483, -51.5278, 44.0335
2.012, 4, 35.9151, 48.1278, -14.08, 97.4483, -51.5278, 44.0335
2.015, 4, 35.9151, 48.1278, -14.08, 97.4483, -51.5278, 44.0335
2.019, 4, 35.9151, 48.1278, -14.08, 97.4483, -51.5278, 44.0335
2.024, 4, 35.9151, 48.1278, -14.08, 97.4483, -51.5278, 44.0335
2.028, 4, 35.9151, 48.1278, -14.08, 97.4483, -51.5278, 44.0335
2.031, 4, 35.9151, 48.1278, -14.08, 97.4483, -51.5278, 44.0335
2.036, 4, 35.9151, 48.1278, -14.08, 97.4483, -51.5278, 44.0335
2.04, 4, 35.9151, 48.1278, -14.08, 97.4483, -51.5278, 44.0335
2.044, 4, 35.9151, 48.1278, -14.08, 97.4483, -51.5278, 44.0335
2.048, 4, 35.9151, 48.1278, -14.08, 97.4483, -51.5278, 44.0335
2.051, 4, 35.9151, 48.1278, -14.08, 97.4483, -51.5278, 44.0335
2.055, 4, 35.9151, 48.1278, -14.08, 97.4483, -51.5278, 44.0335
2.06, 4, 35.9151, 48.1278, -14.08, 97.4483, -51.5278, 44.0335
2.064, 4, 35.9151, 48.1278, -14.08, 97.4483, -51.5278, 44.0335
2.068, 4, 35.9151, 48.1278, -14.08, 97.4483, -51.5278, 44.0335
2.071, 4, 35.9151, 48.1278, -14.08, 97.4483, -51.5278, 44.0335
2.076, 4, 35.9151, 48.1278, -14.08, 97.4483, -51.5278, 44.0335
2.08, 4, 35.9151, 48.1278, -14.08, 97.4483, -51.5278, 44.0335
2.084, 4, 35.9151, 48.1278, -14.08, 97.4483, -51.5278, 44.0335
2.087, 4, 35.9151, 48.1278, -14.08, 97.4483, -51.5278, 44.0335
2.092, 5, 35.9151, 48.1278, -14.08, 97.4483, -51.5278, 44.0335
2.096, 5, 35.9151, 48.1278, -14.08, 97.4483, -51.5278, 44.0335
2.1, 5, 35.9151, 48.1278, -14.08, 97.4483, -51.5278, 44.0335
2.104, 5, 35.9151, 48.1278, -14.08, 97.4483, -51.5278, 44.0335
2.107, 5, 35.9151, 48.1278, -14.08, 97.4483, -51.5278, 44.0335
2.111, 5, 35.9151, 48.1278, -14.08, 97.4483, -51.5278, 44.0335
2.116, 5, 35.9151, 48.1278, -14.08, 97.4483, -51.5278, 44.0335
2.12, 5, 35.9151, 48.1278, -14.08, 97.4483, -51.5278, 44.0335
2.124, 5, 35.9151, 48.1278, -14.08, 97.4483, -51.5278, 44.0335
2.127, 5, 35.9151, 48.1278, -14.08, 97.4483, -51.5278, 44.0335
2.132, 5, 35.915, 48.128, -14.08, 97.4483, -51.5279, 44.0335
2.136, 5, 35.9148, 48.1283, -14.08, 97.4483, -51.5279, 44.0335
2.14, 5, 35.9143, 48.1291, -14.08, 97.4482, -51.5281, 44.0334
2.143, 5, 35.9136, 48.1303, -14.0799, 97.4482, -51.5284, 44.0333
2.148, 5, 35.9126, 48.1322, -14.0799, 97.448, -51.5292, 44.033
2.152, 5, 35.9113, 48.1347, -14.0797, 97.4477, -51.5306, 44.0325
2.156, 5, 35.9097, 48.1379, -14.0795, 97.4472, -51.5329, 44.0316
2.16, 5, 35.9079, 48.1417, -14.0791, 97.4464, -51.5368, 44.0302
2.163, 5, 35.906, 48.1463, -14.0786, 97.4452, -51.5425, 44.028
2.168, 5, 35.904, 48.1515, -14.0779, 97.4434, -51.5507, 44.025
2.172, 5, 35.9018, 48.1575, -14.077, 97.441, -51.5618, 44.0208
2.176, 5, 35.8996, 48.1642, -14.0758, 97.4378, -51.5764, 44.0153
2.179, 5, 35.8973, 48.1716, -14.0743, 97.4337, -51.595, 44.0082
2.184, 5, 35.8949, 48.1798, -14.0724, 97.4287, -51.6181, 43.9995
2.188, 5, 35.8926, 48.1886, -14.0701, 97.4226, -51.6461, 43.989
2.192, 5, 35.8902, 48.198, -14.0674, 97.4153, -51.6793, 43.9765
2.196, 5, 35.888, 48.2078, -14.0643, 97.4069, -51.7178, 43.962
2.199, 5, 35.8857, 48.2182, -14.0607, 97.3973, -51.7616, 43.9455
2.204, 5, 35.8836, 48.2291, -14.0568, 97.3865, -51.8106, 43.927
2.208, 5, 35.8814, 48.2406, -14.0524, 97.3746, -51.8645, 43.9067
2.212, 5, 35.8791, 48.2529, -14.0476, 97.3617, -51.9229, 43.8848
2.216, 5, 35.8767, 48.266, -14.0424, 97.3479, -51.9855, 43.8613
2.219, 5, 35.8741, 48.2799, -14.037, 97.3333, -52.0517, 43.8364
2.224, 5, 35.8715, 48.2945, -14.0312, 97.3179, -52.1209, 43.8104
2.228, 5, 35.8687, 48.3099, -14.0251, 97.302, -52.1927, 43.7835
2.232, 5, 35.8657, 48.3259, -14.0189, 97.2856, -52.2667, 43.7558
2.235, 5, 35.8625, 48.3426, -14.0124, 97.2687, -52.3423, 43.7275
2.24, 6, 35.859, 48.36, -14.0058, 97.2516, -52.4192, 43.6988
2.244, 6, 35.8553, 48.3779, -13.999, 97.2342, -52.4971, 43.6697
2.248, 6, 35.8514, 48.3964, -13.9921, 97.2166, -52.5756, 43.6404
2.252, 6, 35.8472, 48.4153, -13.9851, 97.1989, -52.6546, 43.611
2.255, 6, 35.8428, 48.4345, -13.978, 97.1811, -52.7339, 43.5815
2.259, 6, 35.8382, 48.454, -13.9709, 97.1632, -52.8134, 43.5519
2.264, 6, 35.8335, 48.4736, -13.9636, 97.1452, -52.8931, 43.5223
2.268, 6, 35.8288, 48.4933, -13.9563, 97.1271, -52.9728, 43.4927
2.272, 6, 35.824, 48.5131, -13.949, 97.1091, -53.0526, 43.4632
2.275, 6, 35.8191, 48.5329, -13.9415, 97.0909, -53.1325, 43.4336
2.28, 6, 35.8142, 48.5526, -13.934, 97.0728, -53.2123, 43.404
2.284, 6, 35.8093, 48.5724, -13.9264, 97.0545, -53.2922, 43.3745
2.288, 6, 35.8043, 48.5921, -13.9188, 97.0363, -53.3721, 43.3451
2.291, 6, 35.7993, 48.6118, -13.9111, 97.018, -53.4519, 43.3156
2.296, 6, 35.7943, 48.6315, -13.9034, 96.9997, -53.5318, 43.2862
2.3, 6, 35.7892, 48.6512, -13.8955, 96.9813, -53.6117, 43.2568
2.304, 6, 35.7841, 48.6708, -13.8877, 96.9629, -53.6915, 43.2274
2.308, 6, 35.779, 48.6904, -13.8797, 96.9445, -53.7714, 43.1981
2.311, 6, 35.7739, 48.7099, -13.8717, 96.926, -53.8512, 43.1688
2.316, 6, 35.7687, 48.7294, -13.8637, 96.9075, -53.9311, 43.1396
2.32, 6, 35.7635, 48.7489, -13.8555, 96.8889, -54.0109, 43.1104
2.324, 6, 35.7583, 48.7683, -13.8474, 96.8704, -54.0907, 43.0812
2.328, 6, 35.7531, 48.7877, -13.8391, 96.8518, -54.1705, 43.052
2.331, 6, 35.7478, 48.807, -13.8308, 96.8331, -54.2503, 43.0229
2.336, 6, 35.7426, 48.8263, -13.8224, 96.8144, -54.33, 42.9938
2.34, 6, 35.7373, 48.8456, -13.814, 96.7957, -54.4098, 42.9647
2.344, 6, 35.7319, 48.8648, -13.8055, 96.777, -54.4896, 42.9357
2.347, 6, 35.7266, 48.884, -13.797, 96.7582, -54.5693, 42.9067
2.352, 6, 35.7212, 48.9032, -13.7884, 96.7394, -54.6491, 42.8778
2.356, 6, 35.7158, 48.9223, -13.7797, 96.7206, -54.7288, 42.8488
2.36, 6, 35.7104, 48.9414, -13.771, 96.7017, -54.8085, 42.8199
2.364, 6, 35.7049, 48.9604, -13.7622, 96.6828, -54.8882, 42.791
2.367, 6, 35.6994, 48.9794, -13.7533, 96.6639, -54.9679, 42.7622
2.372, 6, 35.6939, 48.9984, -13.7444, 96.6449, -55.0476, 42.7334
2.376, 6, 35.6884, 49.0173, -13.7354, 96.6259, -55.1273, 42.7046
2.38, 6, 35.6828, 49.0362, -13.7264, 96.6069, -55.2069, 42.6759
2.383, 6, 35.6773, 49.055, -13.7173, 96.5878, -55.2866, 42.6471
2.388, 6, 35.6717, 49.0738, -13.7081, 96.5687, -55.3662, 42.6184
2.392, 6, 35.6661, 49.0926, -13.6989, 96.5496, -55.4459, 42.5898
2.396, 6, 35.6604, 49.1113, -13.6896, 96.5305, -55.5255, 42.5611
2.4, 6, 35.6547, 49.13, -13.6802, 96.5113, -55.6051, 42.5325
2.403, 6, 35.649, 49.1486, -13.6708, 96.4921, -55.6847, 42.504
2.408, 6, 35.6433, 49.1673, -13.6614, 96.4728, -55.7643, 42.4754
2.412, 6, 35.6376, 49.1858, -13.6519, 96.4536, -55.8439, 42.4469
2.416, 6, 35.6318, 49.2043, -13.6423, 96.4343, -55.9235, 42.4184
2.42, 6, 35.626, 49.2228, -13.6326, 96.4149, -56.0031, 42.3899
2.423, 6, 35.6202, 49.2413, -13.6229, 96.3956, -56.0826, 42.3615
2.428, 6, 35.6143, 49.2597, -13.6131, 96.3762, -56.1622, 42.3331
2.432, 6, 35.6085, 49.2781, -13.6033, 96.3567, -56.2417, 42.3047
2.436, 6, 35.6026, 49.2964, -13.5934, 96.3373, -56.3212, 42.2764
2.439, 6, 35.5967, 49.3147, -13.5835, 96.3178, -56.4008, 42.248
2.444, 6, 35.5907, 49.3329, -13.5735, 96.2983, -56.4803, 42.2197
2.448, 6, 35.5848, 49.3511, -13.5634, 96.2788, -56.5598, 42.1915
2.452, 6, 35.5788, 49.3693, -13.5533, 96.2592, -56.6393, 42.1632
2.456, 6, 35.5728, 49.3874, -13.5431, 96.2396, -56.7188, 42.135
2.459, 6, 35.5667, 49.4055, -13.5328, 96.22, -56.7982, 42.1068
2.464, 6, 35.5607, 49.4236, -13.5225, 96.2003, -56.8777, 42.0787
2.468, 6, 35.5546, 49.4416, -13.5122, 96.1806, -56.9572, 42.0505
2.472, 6, 35.5485, 49.4596, -13.5017, 96.1609, -57.0366, 42.0224
2.476, 6, 35.5424, 49.4775, -13.4912, 96.1412, -57.116, 41.9943
2.479, 6, 35.5362, 49.4954, -13.4807, 96.1214, -57.1955, 41.9662
2.484, 6, 35.53, 49.5132, -13.4701, 96.1016, -57.2749, 41.9382
2.488, 6, 35.5238, 49.531, -13.4594, 96.0818, -57.3543, 41.9102
2.492, 6, 35.5176, 49.5488, -13.4487, 96.0619, -57.4337, 41.8822
2.495, 6, 35.5113, 49.5666, -13.4379, 96.042, -57.5131, 41.8542
2.5, 6, 35.5051, 49.5842, -13.4271, 96.0221, -57.5925, 41.8263
2.504, 6, 35.4988, 49.6019, -13.4162, 96.0022, -57.6718, 41.7984
2.508, 6, 35.4924, 49.6195, -13.4052, 95.9822, -57.7512, 41.7705
2.512, 6, 35.4861, 49.6371, -13.3942, 95.9622, -57.8306, 41.7426
2.515, 6, 35.4797, 49.6546, -13.3831, 95.9422, -57.9099, 41.7148
2.52, 6, 35.4733, 49.6721, -13.372, 95.9222, -57.9893, 41.687
2.524, 6, 35.4669, 49.6896, -13.3608, 95.9021, -58.0686, 41.6592
2.528, 6, 35.4605, 49.707, -13.3495, 95.882, -58.1479, 41.6314
2.531, 6, 35.454, 49.7243, -13.3382, 95.8619, -58.2272, 41.6037
2.536, 6, 35.4475, 49.7417, -13.3268, 95.8417, -58.3065, 41.576
2.54, 6, 35.441, 49.759, -13.3154, 95.8216, -58.3858, 41.5483
2.544, 6, 35.4344, 49.7762, -13.3039, 95.8013, -58.4651, 41.5206
2.548, 6, 35.4279, 49.7934, -13.2923, 95.7811, -58.5444, 41.4929
2.551, 6, 35.4213, 49.8106, -13.2807, 95.7609, -58.6236, 41.4653
2.556, 6, 35.4147, 49.8277, -13.269, 95.7406, -58.7029, 41.4377
2.56, 6, 35.408, 49.8448, -13.2573, 95.7203, -58.7822, 41.4101
2.564, 6, 35.4014, 49.8618, -13.2455, 95.6999, -58.8614, 41.3825
2.568, 6, 35.3947, 49.8789, -13.2337, 95.6796, -58.9406, 41.355
2.571, 6, 35.388, 49.8958, -13.2218, 95.6592, -59.0199, 41.3275
2.576, 6, 35.3813, 49.9127, -13.2098, 95.6388, -59.0991, 41.3
2.58, 6, 35.3745, 49.9296, -13.1978, 95.6183, -59.1783, 41.2725
2.584, 6, 35.3677, 49.9465, -13.1857, 95.5979, -59.2575, 41.245
2.587, 6, 35.3609, 49.9633, -13.1735, 95.5774, -59.3367, 41.2176
2.592, 6, 35.3541, 49.98, -13.1613, 95.5569, -59.4158, 41.1902
2.596, 6, 35.3473, 49.9968, -13.1491, 95.5363, -59.495, 41.1628
2.6, 6, 35.3404, 50.0135, -13.1368, 95.5158, -59.5742, 41.1354
2.604, 6, 35.3335, 50.0301, -13.1244, 95.4952, -59.6533, 41.108
2.607, 6, 35.3266, 50.0467, -13.112, 95.4746, -59.7325, 41.0807
2.612, 6, 35.3196, 50.0632, -13.0995, 95.4539, -59.8116, 41.0534
2.616, 6, 35.3126, 50.0798, -13.0869, 95.4333, -59.8908, 41.0261
2.62, 6, 35.3056, 50.0962, -13.0743, 95.4126, -59.9699, 40.9988
2.624, 6, 35.2986, 50.1127, -13.0616, 95.3919, -60.049, 40.9716
2.627, 6, 35.2916, 50.1291, -13.0489, 95.3712, -60.1281, 40.9443
2.632, 6, 35.2845, 50.1454, -13.0361, 95.3504, -60.2072, 40.9171
2.636, 6, 35.2774, 50.1617, -13.0233, 95.3296, -60.2863, 40.8899
2.64, 6, 35.2703, 50.178, -13.0104, 95.3088, -60.3654, 40.8627
2.643, 6, 35.2632, 50.1942, -12.9974, 95.288, -60.4444, 40.8356
2.648, 6, 35.256, 50.2104, -12.9844, 95.2672, -60.5235, 40.8084
2.652, 6, 35.2488, 50.2266, -12.9714, 95.2463, -60.6026, 40.7813
2.656, 6, 35.2416, 50.2427, -12.9582, 95.2254, -60.6816, 40.7542
2.66, 6, 35.2344, 50.2588, -12.945, 95.2045, -60.7607, 40.7271
2.663, 6, 35.2272, 50.2748, -12.9318, 95.1835, -60.8397, 40.7001
2.668, 6, 35.2199, 50.2908, -12.9185, 95.1626, -60.9187, 40.673
2.672, 6, 35.2126, 50.3067, -12.9051, 95.1416, -60.9977, 40.646
2.676, 6, 35.2052, 50.3226, -12.8917, 95.1206, -61.0767, 40.619
2.679, 6, 35.1979, 50.3385, -12.8782, 95.0995, -61.1558, 40.592
2.684, 6, 35.1905, 50.3543, -12.8647, 95.0785, -61.2347, 40.565
2.688, 6, 35.1831, 50.3701, -12.8511, 95.0574, -61.3137, 40.538
2.692, 6, 35.1757, 50.3858, -12.8375, 95.0363, -61.3927, 40.5111
2.696, 6, 35.1683, 50.4015, -12.8237, 95.0152, -61.4717, 40.4842
2.699, 6, 35.1608, 50.4171, -12.81, 94.9941, -61.5506, 40.4572
2.704, 6, 35.1533, 50.4327, -12.7962, 94.9729, -61.6296, 40.4303
2.708, 6, 35.1458, 50.4483, -12.7823, 94.9517, -61.7085, 40.4035
2.712, 6, 35.1382, 50.4638, -12.7683, 94.9305, -61.7875, 40.3766
2.716, 6, 35.1307, 50.4793, -12.7543, 94.9093, -61.8664, 40.3498
2.719, 6, 35.1231, 50.4948, -12.7403, 94.888, -61.9453, 40.3229
2.724, 6, 35.1155, 50.5102, -12.7262, 94.8668, -62.0242, 40.2961
2.728, 6, 35.1078, 50.5255, -12.712, 94.8455, -62.1032, 40.2693
2.732, 6, 35.1002, 50.5408, -12.6978, 94.8241, -62.1821, 40.2425
2.735, 6, 35.0925, 50.5561, -12.6835, 94.8028, -62.261, 40.2157
2.74, 6, 35.0848, 50.5713, -12.6692, 94.7815, -62.3398, 40.189
2.744, 6, 35.0771, 50.5865, -12.6548, 94.7601, -62.4187, 40.1623
2.748, 6, 35.0693, 50.6017, -12.6403, 94.7387, -62.4976, 40.1355
2.752, 6, 35.0615, 50.6168, -12.6258, 94.7173, -62.5764, 40.1088
2.755, 6, 35.0537, 50.6318, -12.6112, 94.6958, -62.6553, 40.0821
2.76, 6, 35.0459, 50.6469, -12.5966, 94.6744, -62.7341, 40.0554
2.764, 6, 35.0381, 50.6618, -12.5819, 94.6529, -62.813, 40.0288
2.768, 6, 35.0302, 50.6768, -12.5672, 94.6314, -62.8918, 40.0021
2.772, 6, 35.0223, 50.6917, -12.5524, 94.6099, -62.9706, 39.9755
2.775, 6, 35.0144, 50.7065, -12.5375, 94.5884, -63.0495, 39.9488
2.78, 6, 35.0065, 50.7213, -12.5226, 94.5668, -63.1283, 39.9222
2.784, 6, 34.9985, 50.7361, -12.5077, 94.5452, -63.2071, 39.8956
2.788, 6, 34.9905, 50.7508, -12.4926, 94.5236, -63.2859, 39.869
2.791, 6, 34.9825, 50.7655, -12.4776, 94.502, -63.3647, 39.8425
2.796, 6, 34.9744, 50.7801, -12.4624, 94.4804, -63.4434, 39.8159
2.8, 6, 34.9664, 50.7947, -12.4472, 94.4587, -63.5222, 39.7893
2.804, 6, 34.9583, 50.8093, -12.432, 94.437, -63.601, 39.7628
2.808, 6, 34.9502, 50.8238, -12.4167, 94.4153, -63.6797, 39.7363
2.811, 6, 34.9421, 50.8383, -12.4013, 94.3936, -63.7585, 39.7098
2.816, 6, 34.9339, 50.8527, -12.3859, 94.3719, -63.8372, 39.6833
2.82, 6, 34.9257, 50.8671, -12.3704, 94.3502, -63.916, 39.6568
2.824, 6, 34.9175, 50.8814, -12.3549, 94.3284, -63.9947, 39.6303
2.828, 6, 34.9093, 50.8957, -12.3393, 94.3066, -64.0734, 39.6038
2.831, 6, 34.9011, 50.9099, -12.3236, 94.2848, -64.1522, 39.5774
2.836, 6, 34.8928, 50.9242, -12.3079, 94.263, -64.2309, 39.5509
2.84, 6, 34.8845, 50.9383, -12.2921, 94.2411, -64.3096, 39.5245
2.844, 6, 34.8762, 50.9524, -12.2763, 94.2193, -64.3883, 39.4981
2.847, 6, 34.8678, 50.9665, -12.2604, 94.1974, -64.467, 39.4717
2.852, 6, 34.8595, 50.9806, -12.2445, 94.1755, -64.5456, 39.4453
2.856, 6, 34.8511, 50.9946, -12.2285, 94.1536, -64.6243, 39.4189
2.86, 6, 34.8426, 51.0085, -12.2125, 94.1317, -64.703, 39.3925
2.864, 6, 34.8342, 51.0224, -12.1964, 94.1097, -64.7817, 39.3661
2.867, 6, 34.8258, 51.0363, -12.1802, 94.0877, -64.8603, 39.3398
2.872, 6, 34.8173, 51.0501, -12.164, 94.0658, -64.939, 39.3134
2.876, 6, 34.8088, 51.0639, -12.1478, 94.0437, -65.0176, 39.2871
2.88, 6, 34.8002, 51.0776, -12.1314, 94.0217, -65.0963, 39.2608
2.883, 6, 34.7917, 51.0913, -12.1151, 93.9997, -65.1749, 39.2345
2.888, 6, 34.7831, 51.105, -12.0986, 93.9776, -65.2535, 39.2081
2.892, 6, 34.7745, 51.1186, -12.0821, 93.9555, -65.3321, 39.1818
2.896, 6, 34.7659, 51.1322, -12.0656, 93.9334, -65.4108, 39.1556
2.9, 6, 34.7572, 51.1457, -12.049, 93.9113, -65.4894, 39.1293
2.903, 6, 34.7486, 51.1592, -12.0323, 93.8892, -65.568, 39.103
2.908, 6, 34.7399, 51.1726, -12.0156, 93.867, -65.6466, 39.0767
2.912, 6, 34.7311, 51.186, -11.9989, 93.8449, -65.7252, 39.0505
2.916, 6, 34.7224, 51.1993, -11.9821, 93.8227, -65.8037, 39.0243
2.92, 6, 34.7136, 51.2126, -11.9652, 93.8005, -65.8823, 38.998
2.923, 6, 34.7048, 51.2259, -11.9482, 93.7783, -65.9609, 38.9718
2.928, 6, 34.696, 51.2391, -11.9313, 93.756, -66.0395, 38.9456
2.932, 6, 34.6872, 51.2523, -11.9142, 93.7337, -66.118, 38.9194
2.936, 6, 34.6783, 51.2654, -11.8971, 93.7115, -66.1966, 38.8932
2.939, 6, 34.6694, 51.2785, -11.88, 93.6892, -66.2751, 38.867
2.944, 6, 34.6605, 51.2916, -11.8628, 93.6669, -66.3537, 38.8408
2.948, 6, 34.6516, 51.3046, -11.8455, 93.6445, -66.4322, 38.8146
2.952, 6, 34.6427, 51.3175, -11.8282, 93.6222, -66.5108, 38.7884
2.956, 6, 34.6337, 51.3305, -11.8108, 93.5998, -66.5893, 38.7623
2.959, 6, 34.6247, 51.3433, -11.7934, 93.5775, -66.6678, 38.7361
2.964, 6, 34.6157, 51.3562, -11.7759, 93.5551, -66.7464, 38.7099
2.968, 6, 34.6066, 51.3689, -11.7584, 93.5327, -66.8249, 38.6838
2.972, 6, 34.5975, 51.3817, -11.7408, 93.5102, -66.9034, 38.6577
2.976, 6, 34.5885, 51.3944, -11.7232, 93.4878, -66.9819, 38.6315
2.98, 6, 34.5793, 51.407, -11.7055, 93.4653, -67.0604, 38.6054
2.984, 6, 34.5702, 51.4197, -11.6877, 93.4428, -67.1389, 38.5793
2.988, 6, 34.561, 51.4322, -11.6699, 93.4204, -67.2174, 38.5532
2.992, 6, 34.5518, 51.4448, -11.652, 93.3978, -67.2959, 38.5271
2.995, 6, 34.5426, 51.4572, -11.6341, 93.3753, -67.3743, 38.501
3, 6, 34.5334, 51.4697, -11.6162, 93.3528, -67.4528, 38.4749
3.004, 6, 34.5242, 51.4821, -11.5981, 93.3302, -67.5313, 38.4488
3.008, 6, 34.5149, 51.4944, -11.5801, 93.3076, -67.6097, 38.4227
3.012, 6, 34.5056, 51.5067, -11.5619, 93.285, -67.6882, 38.3966
3.015, 6, 34.4962, 51.519, -11.5437, 93.2624, -67.7667, 38.3705
3.02, 6, 34.4869, 51.5312, -11.5255, 93.2398, -67.8451, 38.3445
3.024, 6, 34.4775, 51.5434, -11.5072, 93.2172, -67.9236, 38.3184
3.028, 6, 34.4681, 51.5555, -11.4889, 93.1945, -68.002, 38.2923
3.031, 6, 34.4587, 51.5676, -11.4705, 93.1718, -68.0804, 38.2663
3.036, 6, 34.4493, 51.5796, -11.452, 93.1491, -68.1589, 38.2402
3.04, 6, 34.4398, 51.5916, -11.4335, 93.1264, -68.2373, 38.2142
3.044, 6, 34.4303, 51.6036, -11.4149, 93.1037, -68.3157, 38.1882
3.048, 6, 34.4208, 51.6155, -11.3963, 93.081, -68.3941, 38.1621
3.051, 6, 34.4113, 51.6274, -11.3777, 93.0582, -68.4726, 38.1361
3.056, 6, 34.4017, 51.6392, -11.3589, 93.0354, -68.551, 38.1101
3.06, 6, 34.3921, 51.651, -11.3402, 93.0126, -68.6294, 38.084
3.064, 6, 34.3825, 51.6627, -11.3213, 92.9898, -68.7078, 38.058
3.068, 6, 34.3729, 51.6744, -11.3025, 92.967, -68.7862, 38.032
3.071, 6, 34.3633, 51.686, -11.2835, 92.9442, -68.8646, 38.006
3.076, 6, 34.3536, 51.6976, -11.2645, 92.9213, -68.9429, 37.98
3.08, 6, 34.3439, 51.7092, -11.2455, 92.8985, -69.0213, 37.954
3.084, 6, 34.3342, 51.7207, -11.2264, 92.8756, -69.0997, 37.928
3.087, 6, 34.3244, 51.7322, -11.2073, 92.8527, -69.1781, 37.902
3.092, 6, 34.3147, 51.7436, -11.1881, 92.8298, -69.2564, 37.876
3.096, 6, 34.3049, 51.755, -11.1688, 92.8068, -69.3348, 37.85
3.1, 6, 34.2951, 51.7663, -11.1495, 92.7839, -69.4132, 37.824
3.104, 6, 34.2852, 51.7776, -11.1302, 92.7609, -69.4915, 37.798
3.107, 6, 34.2754, 51.7889, -11.1107, 92.7379, -69.5699, 37.772
3.112, 6, 34.2655, 51.8001, -11.0913, 92.7149, -69.6482, 37.746
3.116, 6, 34.2556, 51.8112, -11.0718, 92.6919, -69.7266, 37.7201
3.12, 6, 34.2457, 51.8223, -11.0522, 92.6689, -69.8049, 37.6941
3.124, 6, 34.2357, 51.8334, -11.0326, 92.6459, -69.8832, 37.6681
3.128, 6, 34.2258, 51.8444, -11.0129, 92.6228, -69.9616, 37.6421
3.132, 6, 34.2158, 51.8554, -10.9932, 92.5997, -70.0399, 37.6161
3.136, 6, 34.2057, 51.8664, -10.9734, 92.5766, -70.1182, 37.5902
3.14, 6, 34.1957, 51.8773, -10.9536, 92.5535, -70.1965, 37.5642
3.143, 6, 34.1856, 51.8881, -10.9337, 92.5304, -70.2748, 37.5382
3.148, 6, 34.1756, 51.8989, -10.9138, 92.5073, -70.3531, 37.5123
3.152, 6, 34.1655, 51.9097, -10.8938, 92.4841, -70.4314, 37.4863
3.156, 6, 34.1553, 51.9204, -10.8738, 92.461, -70.5098, 37.4603
3.16, 6, 34.1452, 51.9311, -10.8537, 92.4378, -70.588, 37.4344
3.163, 6, 34.135, 51.9417, -10.8336, 92.4146, -70.6663, 37.4084
3.168, 6, 34.1248, 51.9523, -10.8134, 92.3914, -70.7446, 37.3824
3.172, 6, 34.1146, 51.9628, -10.7932, 92.3681, -70.8229, 37.3565
3.176, 6, 34.1043, 51.9733, -10.7729, 92.3449, -70.9012, 37.3305
3.179, 6, 34.0941, 51.9838, -10.7525, 92.3216, -70.9795, 37.3045
3.184, 6, 34.0838, 51.9942, -10.7321, 92.2984, -71.0577, 37.2786
3.188, 6, 34.0735, 52.0045, -10.7117, 92.2751, -71.136, 37.2526
3.192, 6, 34.0631, 52.0148, -10.6912, 92.2518, -71.2143, 37.2267
3.196, 6, 34.0528, 52.0251, -10.6707, 92.2285, -71.2925, 37.2007
3.199, 6, 34.0424, 52.0353, -10.6501, 92.2051, -71.3708, 37.1747
3.204, 6, 34.032, 52.0455, -10.6294, 92.1818, -71.449, 37.1488
3.208, 6, 34.0216, 52.0557, -10.6087, 92.1584, -71.5273, 37.1228
3.212, 6, 34.0111, 52.0657, -10.588, 92.135, -71.6055, 37.0968
3.216, 6, 34.0006, 52.0758, -10.5672, 92.1117, -71.6838, 37.0709
3.22, 6, 33.9902, 52.0858, -10.5463, 92.0882, -71.762, 37.0449
3.224, 6, 33.9796, 52.0958, -10.5254, 92.0648, -71.8402, 37.0189
3.228, 6, 33.9691, 52.1057, -10.5045, 92.0414, -71.9185, 36.993
3.232, 6, 33.9585, 52.1155, -10.4835, 92.0179, -71.9967, 36.967
3.235, 6, 33.948, 52.1254, -10.4624, 91.9945, -72.0749, 36.941
3.24, 6, 33.9373, 52.1351, -10.4413, 91.971, -72.1531, 36.915
3.244, 6, 33.9267, 52.1449, -10.4202, 91.9475, -72.2313, 36.8891
3.248, 6, 33.9161, 52.1546, -10.399, 91.924, -72.3095, 36.8631
3.252, 6, 33.9054, 52.1642, -10.3777, 91.9005, -72.3877, 36.8371
3.255, 6, 33.8947, 52.1738, -10.3564, 91.8769, -72.466, 36.8111
3.26, 6, 33.884, 52.1833, -10.3351, 91.8533, -72.5442, 36.7851
3.264, 6, 33.8732, 52.1929, -10.3137, 91.8298, -72.6223, 36.7591
3.268, 6, 33.8625, 52.2023, -10.2922, 91.8062, -72.7005, 36.7331
3.272, 6, 33.8517, 52.2117, -10.2707, 91.7826, -72.7787, 36.7072
3.276, 6, 33.8409, 52.2211, -10.2492, 91.759, -72.8569, 36.6812
3.28, 6, 33.83, 52.2304, -10.2276, 91.7354, -72.9351, 36.6552
3.284, 6, 33.8192, 52.2397, -10.206, 91.7117, -73.0133, 36.6292
3.288, 6, 33.8083, 52.2489, -10.1843, 91.6881, -73.0914, 36.6032
3.291, 6, 33.7974, 52.2581, -10.1625, 91.6644, -73.1696, 36.5771
3.296, 6, 33.7865, 52.2673, -10.1407, 91.6407, -73.2478, 36.5511
3.3, 6, 33.7756, 52.2764, -10.1189, 91.617, -73.3259, 36.5251
3.304, 6, 33.7646, 52.2854, -10.097, 91.5933, -73.4041, 36.4991
3.308, 6, 33.7536, 52.2944, -10.075, 91.5696, -73.4823, 36.4731
3.312, 6, 33.7426, 52.3034, -10.053, 91.5458, -73.5604, 36.4471
3.316, 6, 33.7315, 52.3123, -10.031, 91.5221, -73.6386, 36.421
3.32, 6, 33.7205, 52.3212, -10.0089, 91.4983, -73.7167, 36.395
3.324, 6, 33.7094, 52.33, -9.98675, 91.4745, -73.7948, 36.3689
3.328, 6, 33.6983, 52.3388, -9.96455, 91.4507, -73.873, 36.3429
3.332, 6, 33.6872, 52.3475, -9.94232, 91.4269, -73.9511, 36.3169
3.336, 6, 33.676, 52.3562, -9.92003, 91.4031, -74.0293, 36.2908
3.34, 6, 33.6649, 52.3649, -9.89769, 91.3792, -74.1074, 36.2647
3.344, 6, 33.6537, 52.3735, -9.8753, 91.3554, -74.1855, 36.2387
3.347, 6, 33.6425, 52.382, -9.85287, 91.3315, -74.2636, 36.2126
3.352, 6, 33.6312, 52.3905, -9.83038, 91.3076, -74.3418, 36.1865
3.356, 6, 33.62, 52.399, -9.80785, 91.2837, -74.4199, 36.1605
3.36, 6, 33.6087, 52.4074, -9.78527, 91.2598, -74.498, 36.1344
3.364, 6, 33.5974, 52.4158, -9.76264, 91.2359, -74.5761, 36.1083
3.368, 6, 33.5861, 52.4241, -9.73996, 91.2119, -74.6542, 36.0822
3.372, 6, 33.5747, 52.4324, -9.71724, 91.188, -74.7323, 36.0561
3.376, 6, 33.5634, 52.4406, -9.69446, 91.164, -74.8104, 36.03
3.38, 6, 33.552, 52.4488, -9.67164, 91.14, -74.8885, 36.0039
3.383, 6, 33.5406, 52.4569, -9.64877, 91.116, -74.9666, 35.9778
3.388, 6, 33.5291, 52.465, -9.62585, 91.092, -75.0447, 35.9516
3.392, 6, 33.5177, 52.473, -9.60288, 91.068, -75.1228, 35.9255
3.396, 6, 33.5062, 52.4811, -9.57987, 91.044, -75.2009, 35.8994
3.4, 6, 33.4947, 52.489, -9.5568, 91.0199, -75.2789, 35.8732
3.403, 6, 33.4832, 52.4969, -9.53369, 90.9959, -75.357, 35.8471
3.408, 6, 33.4716, 52.5048, -9.51053, 90.9718, -75.4351, 35.8209
3.412, 6, 33.46, 52.5126, -9.48732, 90.9477, -75.5132, 35.7947
3.416, 6, 33.4484, 52.5204, -9.46407, 90.9236, -75.5913, 35.7686
3.42, 6, 33.4368, 52.5281, -9.44077, 90.8995, -75.6693, 35.7424
3.424, 6, 33.4252, 52.5358, -9.41742, 90.8753, -75.7474, 35.7162
3.428, 6, 33.4135, 52.5434, -9.39402, 90.8512, -75.8255, 35.69
3.432, 6, 33.4019, 52.551, -9.37057, 90.827, -75.9035, 35.6638
3.436, 6, 33.3902, 52.5585, -9.34708, 90.8028, -75.9816, 35.6376
3.439, 6, 33.3784, 52.566, -9.32354, 90.7786, -76.0596, 35.6114
3.444, 6, 33.3667, 52.5735, -9.29995, 90.7544, -76.1377, 35.5851
3.448, 6, 33.3549, 52.5809, -9.27632, 90.7302, -76.2158, 35.5589
3.452, 6, 33.3431, 52.5882, -9.25264, 90.706, -76.2938, 35.5326
3.456, 6, 33.3313, 52.5955, -9.22891, 90.6817, -76.3719, 35.5064
3.46, 6, 33.3195, 52.6028, -9.20514, 90.6574, -76.4499, 35.4801
3.464, 6, 33.3076, 52.61, -9.18132, 90.6332, -76.528, 35.4538
3.468, 6, 33.2958, 52.6172, -9.15745, 90.6089, -76.606, 35.4276
3.472, 6, 33.2839, 52.6243, -9.13354, 90.5845, -76.684, 35.4013
3.476, 6, 33.2719, 52.6314, -9.10958, 90.5602, -76.7621, 35.375
3.48, 6, 33.26, 52.6384, -9.08557, 90.5359, -76.8401, 35.3487
3.484, 6, 33.248, 52.6454, -9.06152, 90.5115, -76.9182, 35.3224
3.488, 6, 33.236, 52.6523, -9.03742, 90.4872, -76.9962, 35.296
3.492, 6, 33.224, 52.6592, -9.01327, 90.4628, -77.0742, 35.2697
3.495, 6, 33.212, 52.6661, -8.98909, 90.4384, -77.1522, 35.2433
3.5, 6, 33.1999, 52.6729, -8.96485, 90.414, -77.2303, 35.217
3.504, 6, 33.1879, 52.6796, -8.94057, 90.3896, -77.3083, 35.1906
3.508, 6, 33.1758, 52.6863, -8.91624, 90.3651, -77.3863, 35.1642
3.512, 6, 33.1637, 52.693, -8.89187, 90.3407, -77.4643, 35.1379
3.516, 6, 33.1516, 52.6996, -8.86745, 90.3162, -77.5423, 35.1115
3.52, 6, 33.1396, 52.7061, -8.843, 90.2917, -77.6203, 35.0851
3.524, 6, 33.1277, 52.7125, -8.8185, 90.2672, -77.6983, 35.0587
3.528, 6, 33.1161, 52.7187, -8.79398, 90.2428, -77.7762, 35.0323
3.531, 6, 33.105, 52.7246, -8.76946, 90.2183, -77.854, 35.0059
3.536, 6, 33.0944, 52.7301, -8.74499, 90.1939, -77.9315, 34.9796
3.54, 6, 33.0846, 52.7349, -8.72065, 90.1697, -78.0084, 34.9535
3.544, 6, 33.0754, 52.739, -8.69655, 90.1457, -78.0845, 34.9277
3.548, 6, 33.0669, 52.7425, -8.67283, 90.1221, -78.1593, 34.9023
3.552, 6, 33.0589, 52.7452, -8.64969, 90.0992, -78.2321, 34.8775
3.556, 6, 33.0514, 52.7475, -8.62734, 90.077, -78.3024, 34.8536
3.56, 6, 33.0441, 52.7495, -8.60598, 90.0558, -78.3694, 34.8308
3.564, 6, 33.037, 52.7515, -8.58585, 90.0358, -78.4326, 34.8094
3.568, 6, 33.03, 52.7537, -8.56714, 90.0173, -78.4912, 34.7894
3.572, 6, 33.0233, 52.756, -8.55001, 90.0004, -78.5448, 34.7712
3.576, 6, 33.0168, 52.7586, -8.5346, 89.9851, -78.593, 34.7548
3.58, 6, 33.0104, 52.7616, -8.52097, 89.9717, -78.6356, 34.7403
3.584, 6, 33.0043, 52.765, -8.50916, 89.96, -78.6724, 34.7277
3.587, 6, 32.9984, 52.7687, -8.49916, 89.9502, -78.7036, 34.7171
3.592, 7, 32.9926, 52.7727, -8.49087, 89.942, -78.7294, 34.7084
3.596, 7, 32.9869, 52.777, -8.48419, 89.9355, -78.7502, 34.7013
3.6, 7, 32.9814, 52.7814, -8.47894, 89.9304, -78.7665, 34.6958
3.604, 7, 32.9761, 52.7856, -8.47494, 89.9264, -78.7789, 34.6916
3.608, 7, 32.9711, 52.7894, -8.47197, 89.9236, -78.7881, 34.6884
3.612, 7, 32.9668, 52.7927, -8.46982, 89.9215, -78.7947, 34.6862
3.616, 7, 32.9631, 52.7953, -8.46831, 89.92, -78.7994, 34.6846
3.62, 7, 32.9601, 52.7973, -8.46726, 89.919, -78.8027, 34.6835
3.624, 7, 32.9578, 52.7988, -8.46654, 89.9183, -78.8049, 34.6828
3.628, 7, 32.9562, 52.7998, -8.46605, 89.9178, -78.8064, 34.6823
3.632, 7, 32.9551, 52.8005, -8.46572, 89.9175, -78.8074, 34.6819
3.636, 7, 32.9544, 52.801, -8.46549, 89.9173, -78.8081, 34.6817
3.64, 7, 32.9539, 52.8013, -8.46534, 89.9171, -78.8086, 34.6815
3.644, 7, 32.9536, 52.8015, -8.46524, 89.917, -78.8089, 34.6814
3.648, 7, 32.9533, 52.8016, -8.46517, 89.917, -78.8091, 34.6814
3.652, 7, 32.9532, 52.8017, -8.46512, 89.9169, -78.8092, 34.6813
3.656, 7, 32.9531, 52.8018, -8.46509, 89.9169, -78.8093, 34.6813
3.66, 7, 32.953, 52.8019, -8.46506, 89.9169, -78.8094, 34.6813
3.664, 7, 32.9529, 52.8019, -8.46505, 89.9169, -78.8095, 34.6812
3.668, 7, 32.9529, 52.8019, -8.46504, 89.9169, -78.8095, 34.6812
3.672, 7, 32.9529, 52.8019, -8.46503, 89.9168, -78.8095, 34.6812
3.676, 7, 32.9529, 52.8019, -8.46503, 89.9168, -78.8095, 34.6812
3.679, 7, 32.9529, 52.8019, -8.46502, 89.9168, -78.8095, 34.6812
3.684, 7, 32.9529, 52.8019, -8.46502, 89.9168, -78.8095, 34.6812
3.688, 7, 32.9528, 52.8019, -8.46502, 89.9168, -78.8095, 34.6812
