hehonglu123/ABB_Primitive_Study/execution/movec_smooth/curve_exe_v500_fine.csv
timestamp, cmd_num, J1, J2, J3, J4, J5, J6
0, 1, 32.9528, 52.8019, -8.46502, 89.9168, -78.8096, 34.6812
0.002, 1, 32.9528, 52.8019, -8.46502, 89.9168, -78.8096, 34.6812
0.004, 1, 32.9528, 52.8019, -8.46502, 89.9168, -78.8096, 34.6812
0.008, 1, 32.9528, 52.8019, -8.46502, 89.9168, -78.8096, 34.6812
0.011, 1, 32.9528, 52.8019, -8.46502, 89.9168, -78.8096, 34.6812
0.016, 1, 32.9528, 52.8019, -8.46502, 89.9168, -78.8096, 34.6812
0.02, 1, 32.9528, 52.8019, -8.46502, 89.9168, -78.8096, 34.6812
0.024, 1, 32.9528, 52.8019, -8.46502, 89.9168, -78.8096, 34.6812
0.028, 1, 32.9528, 52.8019, -8.46502, 89.9168, -78.8096, 34.6812
0.032, 1, 32.9528, 52.8019, -8.46502, 89.9168, -78.8096, 34.6812
0.036, 1, 32.9528, 52.8019, -8.46502, 89.9168, -78.8096, 34.6812
0.04, 1, 32.9529, 52.8019, -8.46502, 89.9168, -78.8096, 34.6812
0.044, 1, 32.9531, 52.8018, -8.46503, 89.9168, -78.8095, 34.6812
0.048, 1, 32.9535, 52.8014, -8.46504, 89.9169, -78.8095, 34.6812
0.052, 1, 32.9543, 52.8006, -8.46509, 89.9169, -78.8093, 34.6813
0.056, 1, 32.9556, 52.7993, -8.46521, 89.917, -78.8088, 34.6815
0.06, 1, 32.9574, 52.7971, -8.46543, 89.9173, -78.8079, 34.6818
0.064, 1, 32.9597, 52.794, -8.46584, 89.9178, -78.8061, 34.6824
0.068, 1, 32.9625, 52.7899, -8.46653, 89.9186, -78.803, 34.6835
0.072, 1, 32.9659, 52.7849, -8.46761, 89.92, -78.798, 34.6852
0.076, 1, 32.9697, 52.7789, -8.46923, 89.922, -78.7905, 34.6877
0.08, 1, 32.9741, 52.7719, -8.47155, 89.925, -78.7796, 34.6915
0.084, 1, 32.9791, 52.7639, -8.47475, 89.9292, -78.7644, 34.6967
0.088, 1, 32.9847, 52.7549, -8.47904, 89.9348, -78.744, 34.7037
0.092, 1, 32.991, 52.7451, -8.48461, 89.9421, -78.7174, 34.7128
0.096, 1, 32.9978, 52.7344, -8.49169, 89.9515, -78.6834, 34.7244
0.1, 1, 33.005, 52.7231, -8.50046, 89.9631, -78.6411, 34.7389
0.104, 1, 33.0126, 52.7112, -8.51109, 89.9773, -78.5897, 34.7566
0.108, 1, 33.0204, 52.699, -8.5237, 89.9942, -78.5285, 34.7775
0.112, 1, 33.0284, 52.6863, -8.53837, 90.0139, -78.4572, 34.802
0.116, 1, 33.0368, 52.673, -8.55512, 90.0364, -78.3757, 34.8299
0.12, 1, 33.0455, 52.6592, -8.57391, 90.0617, -78.2841, 34.8613
0.124, 1, 33.0546, 52.6447, -8.59467, 90.0896, -78.183, 34.896
0.128, 1, 33.0642, 52.6296, -8.61726, 90.12, -78.0728, 34.9337
0.131, 1, 33.0741, 52.6139, -8.64153, 90.1527, -77.9545, 34.9743
0.136, 1, 33.0844, 52.5977, -8.6673, 90.1875, -77.8288, 35.0174
0.139, 1, 33.0949, 52.5809, -8.69437, 90.2239, -77.6968, 35.0627
0.144, 1, 33.1058, 52.5633, -8.72251, 90.2618, -77.5596, 35.1097
0.148, 1, 33.1172, 52.5447, -8.75152, 90.3009, -77.4182, 35.1582
0.152, 1, 33.1293, 52.525, -8.7812, 90.3408, -77.2736, 35.2077
0.156, 1, 33.1421, 52.5041, -8.81138, 90.3814, -77.1267, 35.2581
0.16, 1, 33.1556, 52.4819, -8.8419, 90.4224, -76.9782, 35.309
0.164, 1, 33.17, 52.4586, -8.87265, 90.4637, -76.8286, 35.3603
0.168, 1, 33.1849, 52.4345, -8.90354, 90.5052, -76.6784, 35.4118
0.172, 1, 33.2004, 52.4098, -8.9345, 90.5467, -76.5279, 35.4634
0.176, 1, 33.2161, 52.3847, -8.9655, 90.5883, -76.3772, 35.515
0.18, 1, 33.2321, 52.3594, -8.9965, 90.6299, -76.2265, 35.5667
0.184, 1, 33.2481, 52.334, -9.02748, 90.6715, -76.076, 35.6183
0.188, 1, 33.2643, 52.3084, -9.05844, 90.713, -75.9256, 35.6699
0.192, 1, 33.2805, 52.2828, -9.08935, 90.7545, -75.7754, 35.7214
0.196, 1, 33.2967, 52.2573, -9.12022, 90.7959, -75.6254, 35.7728
0.2, 1, 33.3129, 52.2317, -9.15103, 90.8372, -75.4757, 35.8241
0.204, 1, 33.3291, 52.2061, -9.1818, 90.8785, -75.3262, 35.8753
0.208, 1, 33.3453, 52.1806, -9.21251, 90.9197, -75.177, 35.9265
0.212, 1, 33.3614, 52.1551, -9.24316, 90.9608, -75.028, 35.9775
0.216, 1, 33.3776, 52.1296, -9.27376, 91.0018, -74.8794, 36.0285
0.22, 1, 33.3937, 52.1042, -9.3043, 91.0428, -74.731, 36.0794
0.224, 1, 33.4098, 52.0788, -9.33479, 91.0837, -74.5829, 36.1302
0.228, 1, 33.4258, 52.0535, -9.36522, 91.1245, -74.435, 36.1808
0.232, 1, 33.4419, 52.0282, -9.3956, 91.1652, -74.2874, 36.2314
0.236, 1, 33.4579, 52.003, -9.42592, 91.2059, -74.1401, 36.2819
0.24, 1, 33.4738, 51.9778, -9.45618, 91.2465, -73.9931, 36.3323
0.244, 1, 33.4898, 51.9526, -9.48639, 91.287, -73.8463, 36.3826
0.248, 1, 33.5057, 51.9275, -9.51654, 91.3275, -73.6998, 36.4329
0.252, 1, 33.5216, 51.9025, -9.54664, 91.3678, -73.5536, 36.483
0.256, 1, 33.5374, 51.8774, -9.57668, 91.4081, -73.4076, 36.533
0.26, 1, 33.5533, 51.8525, -9.60667, 91.4483, -73.2619, 36.583
0.264, 1, 33.5691, 51.8276, -9.6366, 91.4885, -73.1165, 36.6328
0.268, 1, 33.5848, 51.8027, -9.66649, 91.5286, -72.9713, 36.6826
0.272, 1, 33.6006, 51.7778, -9.69631, 91.5686, -72.8264, 36.7323
0.276, 1, 33.6163, 51.7531, -9.72609, 91.6085, -72.6817, 36.7819
0.28, 1, 33.632, 51.7283, -9.75581, 91.6484, -72.5373, 36.8314
0.284, 1, 33.6476, 51.7036, -9.78547, 91.6882, -72.3932, 36.8808
0.288, 1, 33.6633, 51.679, -9.81509, 91.7279, -72.2493, 36.9301
0.292, 1, 33.6789, 51.6544, -9.84465, 91.7675, -72.1057, 36.9794
0.296, 1, 33.6945, 51.6298, -9.87416, 91.8071, -71.9623, 37.0285
0.3, 1, 33.71, 51.6053, -9.90362, 91.8466, -71.8191, 37.0776
0.304, 1, 33.7255, 51.5808, -9.93303, 91.8861, -71.6763, 37.1265
0.308, 1, 33.741, 51.5563, -9.96238, 91.9255, -71.5336, 37.1754
0.312, 1, 33.7565, 51.5319, -9.99169, 91.9648, -71.3913, 37.2243
0.316, 1, 33.7719, 51.5076, -10.0209, 92.004, -71.2491, 37.273
0.32, 1, 33.7873, 51.4833, -10.0501, 92.0432, -71.1073, 37.3216
0.324, 1, 33.8027, 51.459, -10.0793, 92.0823, -70.9656, 37.3702
0.328, 1, 33.8181, 51.4348, -10.1084, 92.1213, -70.8242, 37.4186
0.332, 1, 33.8334, 51.4106, -10.1374, 92.1603, -70.6831, 37.467
0.336, 1, 33.8487, 51.3864, -10.1665, 92.1992, -70.5422, 37.5153
0.34, 1, 33.864, 51.3623, -10.1954, 92.238, -70.4015, 37.5636
0.344, 1, 33.8793, 51.3383, -10.2243, 92.2768, -70.261, 37.6117
0.348, 1, 33.8945, 51.3142, -10.2532, 92.3155, -70.1209, 37.6598
0.352, 1, 33.9097, 51.2903, -10.282, 92.3541, -69.9809, 37.7077
0.356, 1, 33.9249, 51.2663, -10.3107, 92.3927, -69.8412, 37.7556
0.36, 1, 33.94, 51.2424, -10.3394, 92.4312, -69.7017, 37.8034
0.364, 1, 33.9552, 51.2186, -10.3681, 92.4696, -69.5624, 37.8512
0.368, 1, 33.9703, 51.1947, -10.3967, 92.508, -69.4234, 37.8988
0.372, 1, 33.9853, 51.171, -10.4253, 92.5463, -69.2846, 37.9464
0.376, 1, 34.0004, 51.1472, -10.4538, 92.5846, -69.1461, 37.9939
0.38, 1, 34.0154, 51.1235, -10.4823, 92.6228, -69.0078, 38.0413
0.384, 1, 34.0304, 51.0998, -10.5107, 92.6609, -68.8697, 38.0887
0.388, 1, 34.0454, 51.0762, -10.5391, 92.6989, -68.7318, 38.1359
0.392, 1, 34.0604, 51.0526, -10.5674, 92.7369, -68.5941, 38.1831
0.396, 1, 34.0753, 51.0291, -10.5957, 92.7749, -68.4567, 38.2302
0.4, 1, 34.0902, 51.0056, -10.6239, 92.8127, -68.3195, 38.2773
0.404, 1, 34.1051, 50.9821, -10.6521, 92.8506, -68.1826, 38.3242
0.408, 1, 34.1199, 50.9587, -10.6803, 92.8883, -68.0458, 38.3711
0.412, 1, 34.1348, 50.9353, -10.7084, 92.926, -67.9093, 38.4179
0.416, 1, 34.1496, 50.9119, -10.7364, 92.9636, -67.773, 38.4646
0.42, 1, 34.1643, 50.8886, -10.7644, 93.0012, -67.6369, 38.5113
0.424, 1, 34.1791, 50.8653, -10.7924, 93.0387, -67.501, 38.5579
0.428, 1, 34.1938, 50.8421, -10.8203, 93.0762, -67.3653, 38.6044
0.432, 1, 34.2086, 50.8189, -10.8482, 93.1136, -67.2299, 38.6508
0.436, 1, 34.2232, 50.7957, -10.876, 93.1509, -67.0947, 38.6971
0.44, 1, 34.2379, 50.7726, -10.9038, 93.1881, -66.9597, 38.7434
0.444, 1, 34.2526, 50.7495, -10.9315, 93.2254, -66.8249, 38.7896
0.448, 1, 34.2672, 50.7264, -10.9592, 93.2625, -66.6903, 38.8358
0.452, 1, 34.2818, 50.7034, -10.9869, 93.2996, -66.5559, 38.8818
0.456, 1, 34.2964, 50.6804, -11.0145, 93.3367, -66.4217, 38.9278
0.46, 1, 34.3109, 50.6574, -11.0421, 93.3736, -66.2878, 38.9738
0.464, 1, 34.3254, 50.6345, -11.0696, 93.4106, -66.154, 39.0196
0.468, 1, 34.3399, 50.6116, -11.0971, 93.4474, -66.0204, 39.0654
0.472, 1, 34.3544, 50.5888, -11.1246, 93.4842, -65.8871, 39.1111
0.476, 1, 34.3689, 50.566, -11.152, 93.521, -65.754, 39.1567
0.48, 1, 34.3833, 50.5432, -11.1793, 93.5577, -65.621, 39.2023
0.484, 1, 34.3978, 50.5204, -11.2066, 93.5943, -65.4883, 39.2478
0.488, 1, 34.4121, 50.4977, -11.2339, 93.6309, -65.3558, 39.2933
0.492, 1, 34.4265, 50.475, -11.2612, 93.6675, -65.2234, 39.3386
0.496, 1, 34.4409, 50.4524, -11.2883, 93.7039, -65.0913, 39.3839
0.5, 1, 34.4552, 50.4298, -11.3155, 93.7404, -64.9594, 39.4291
0.504, 1, 34.4695, 50.4072, -11.3426, 93.7767, -64.8276, 39.4743
0.508, 1, 34.4838, 50.3847, -11.3697, 93.813, -64.6961, 39.5194
0.512, 1, 34.4981, 50.3622, -11.3967, 93.8493, -64.5647, 39.5644
0.516, 1, 34.5123, 50.3397, -11.4237, 93.8855, -64.4336, 39.6094
0.52, 1, 34.5265, 50.3173, -11.4507, 93.9217, -64.3026, 39.6543
0.524, 1, 34.5408, 50.2949, -11.4776, 93.9578, -64.1719, 39.6991
0.528, 1, 34.5549, 50.2725, -11.5045, 93.9938, -64.0413, 39.7439
0.532, 1, 34.5691, 50.2501, -11.5313, 94.0298, -63.9109, 39.7886
0.536, 1, 34.5832, 50.2278, -11.5581, 94.0657, -63.7807, 39.8332
0.54, 1, 34.5974, 50.2056, -11.5848, 94.1016, -63.6507, 39.8777
0.544, 1, 34.6115, 50.1833, -11.6116, 94.1375, -63.5209, 39.9222
0.548, 1, 34.6255, 50.1611, -11.6382, 94.1732, -63.3913, 39.9667
0.552, 1, 34.6396, 50.1389, -11.6649, 94.209, -63.2619, 40.0111
0.556, 1, 34.6536, 50.1168, -11.6915, 94.2447, -63.1326, 40.0554
0.56, 1, 34.6677, 50.0947, -11.718, 94.2803, -63.0036, 40.0996
0.564, 1, 34.6817, 50.0726, -11.7446, 94.3159, -62.8747, 40.1438
0.568, 1, 34.6956, 50.0505, -11.7711, 94.3514, -62.746, 40.1879
0.572, 1, 34.7096, 50.0285, -11.7975, 94.3869, -62.6175, 40.2319
0.576, 1, 34.7235, 50.0065, -11.8239, 94.4223, -62.4892, 40.2759
0.58, 1, 34.7375, 49.9846, -11.8503, 94.4577, -62.361, 40.3199
0.584, 1, 34.7514, 49.9626, -11.8766, 94.493, -62.2331, 40.3637
0.588, 1, 34.7652, 49.9407, -11.9029, 94.5283, -62.1053, 40.4075
0.592, 1, 34.7791, 49.9189, -11.9292, 94.5635, -61.9777, 40.4513
0.596, 1, 34.7929, 49.897, -11.9554, 94.5987, -61.8503, 40.495
0.6, 1, 34.8068, 49.8752, -11.9816, 94.6338, -61.723, 40.5386
0.604, 1, 34.8206, 49.8535, -12.0078, 94.6689, -61.5959, 40.5821
0.608, 1, 34.8343, 49.8317, -12.0339, 94.7039, -61.4691, 40.6256
0.612, 1, 34.8481, 49.81, -12.0599, 94.7389, -61.3423, 40.6691
0.616, 1, 34.8618, 49.7883, -12.086, 94.7738, -61.2158, 40.7125
0.62, 1, 34.8756, 49.7667, -12.112, 94.8087, -61.0894, 40.7558
0.624, 1, 34.8893, 49.7451, -12.138, 94.8435, -60.9632, 40.799
0.628, 1, 34.903, 49.7235, -12.1639, 94.8783, -60.8372, 40.8422
0.632, 1, 34.9166, 49.7019, -12.1898, 94.9131, -60.7114, 40.8854
0.636, 1, 34.9303, 49.6804, -12.2157, 94.9478, -60.5857, 40.9284
0.64, 1, 34.9439, 49.6589, -12.2415, 94.9824, -60.4602, 40.9715
0.644, 1, 34.9575, 49.6374, -12.2673, 95.017, -60.3349, 41.0144
0.648, 1, 34.9711, 49.6159, -12.2931, 95.0516, -60.2097, 41.0573
0.652, 1, 34.9847, 49.5945, -12.3188, 95.0861, -60.0847, 41.1002
0.656, 1, 34.9983, 49.5731, -12.3445, 95.1205, -59.9599, 41.143
0.66, 1, 35.0118, 49.5518, -12.3701, 95.1549, -59.8352, 41.1857
0.664, 1, 35.0253, 49.5304, -12.3958, 95.1893, -59.7107, 41.2284
0.668, 1, 35.0388, 49.5091, -12.4214, 95.2236, -59.5864, 41.271
0.672, 1, 35.0523, 49.4879, -12.4469, 95.2579, -59.4622, 41.3136
0.676, 1, 35.0658, 49.4666, -12.4724, 95.2921, -59.3382, 41.3561
0.68, 1, 35.0792, 49.4454, -12.4979, 95.3263, -59.2144, 41.3985
0.684, 1, 35.0927, 49.4242, -12.5234, 95.3605, -59.0907, 41.4409
0.688, 1, 35.1061, 49.4031, -12.5488, 95.3946, -58.9672, 41.4833
0.692, 1, 35.1195, 49.3819, -12.5742, 95.4286, -58.8439, 41.5256
0.696, 1, 35.1329, 49.3608, -12.5995, 95.4626, -58.7207, 41.5678
0.7, 1, 35.1462, 49.3397, -12.6249, 95.4966, -58.5977, 41.61
0.704, 1, 35.1596, 49.3187, -12.6501, 95.5305, -58.4748, 41.6521
0.708, 1, 35.1729, 49.2977, -12.6754, 95.5644, -58.3521, 41.6941
0.712, 1, 35.1862, 49.2767, -12.7006, 95.5982, -58.2296, 41.7361
0.716, 1, 35.1995, 49.2557, -12.7258, 95.632, -58.1072, 41.7781
0.72, 1, 35.2128, 49.2347, -12.751, 95.6657, -57.985, 41.82
0.724, 1, 35.226, 49.2138, -12.7761, 95.6994, -57.8629, 41.8618
0.728, 1, 35.2393, 49.1929, -12.8012, 95.7331, -57.741, 41.9036
0.732, 1, 35.2525, 49.1721, -12.8262, 95.7667, -57.6192, 41.9454
0.736, 1, 35.2657, 49.1512, -12.8513, 95.8003, -57.4976, 41.9871
0.74, 1, 35.2789, 49.1304, -12.8763, 95.8338, -57.3762, 42.0287
0.744, 1, 35.2921, 49.1097, -12.9012, 95.8673, -57.2549, 42.0703
0.748, 1, 35.3052, 49.0889, -12.9262, 95.9007, -57.1338, 42.1118
0.752, 1, 35.3184, 49.0682, -12.9511, 95.9341, -57.0128, 42.1533
0.756, 1, 35.3315, 49.0475, -12.9759, 95.9675, -56.8919, 42.1947
0.76, 1, 35.3446, 49.0268, -13.0008, 96.0008, -56.7712, 42.2361
0.764, 1, 35.3577, 49.0061, -13.0256, 96.0341, -56.6507, 42.2774
0.768, 1, 35.3708, 48.9855, -13.0504, 96.0673, -56.5303, 42.3187
0.772, 1, 35.3838, 48.9649, -13.0751, 96.1005, -56.4101, 42.3599
0.776, 1, 35.3969, 48.9443, -13.0998, 96.1336, -56.29, 42.401
0.78, 1, 35.4099, 48.9238, -13.1245, 96.1667, -56.1701, 42.4422
0.784, 1, 35.4229, 48.9032, -13.1492, 96.1998, -56.0503, 42.4832
0.788, 1, 35.4359, 48.8827, -13.1738, 96.2328, -55.9307, 42.5242
0.792, 1, 35.4489, 48.8623, -13.1984, 96.2658, -55.8112, 42.5652
0.796, 1, 35.4619, 48.8418, -13.2229, 96.2988, -55.6918, 42.6061
0.8, 1, 35.4748, 48.8214, -13.2475, 96.3317, -55.5726, 42.647
0.804, 1, 35.4877, 48.801, -13.272, 96.3645, -55.4535, 42.6878
0.808, 1, 35.5006, 48.7806, -13.2965, 96.3974, -55.3346, 42.7285
0.812, 1, 35.5136, 48.7603, -13.3209, 96.4302, -55.2159, 42.7693
0.816, 1, 35.5264, 48.7399, -13.3453, 96.4629, -55.0972, 42.8099
0.82, 1, 35.5393, 48.7196, -13.3697, 96.4956, -54.9787, 42.8506
0.824, 1, 35.5522, 48.6994, -13.3941, 96.5283, -54.8604, 42.8911
0.828, 1, 35.565, 48.6791, -13.4184, 96.5609, -54.7422, 42.9316
0.832, 1, 35.5778, 48.6589, -13.4427, 96.5935, -54.6241, 42.9721
0.836, 1, 35.5906, 48.6387, -13.467, 96.6261, -54.5062, 43.0125
0.84, 1, 35.6034, 48.6185, -13.4912, 96.6586, -54.3884, 43.0529
0.844, 1, 35.6162, 48.5983, -13.5154, 96.6911, -54.2707, 43.0933
0.848, 1, 35.629, 48.5782, -13.5396, 96.7235, -54.1532, 43.1335
0.852, 1, 35.6417, 48.5581, -13.5638, 96.7559, -54.0358, 43.1738
0.856, 1, 35.6545, 48.538, -13.5879, 96.7883, -53.9186, 43.214
0.86, 1, 35.6672, 48.5179, -13.612, 96.8206, -53.8015, 43.2541
0.864, 1, 35.6799, 48.4979, -13.6361, 96.8529, -53.6845, 43.2942
0.868, 1, 35.6925, 48.4779, -13.6601, 96.8852, -53.5677, 43.3343
0.872, 1, 35.7051, 48.458, -13.6841, 96.9174, -53.451, 43.3743
0.876, 1, 35.7176, 48.4381, -13.7081, 96.9496, -53.3345, 43.4142
0.88, 1, 35.73, 48.4184, -13.7321, 96.9817, -53.2181, 43.4541
0.884, 1, 35.7419, 48.3992, -13.756, 97.0137, -53.102, 43.4939
0.888, 1, 35.7533, 48.3805, -13.7798, 97.0457, -52.9863, 43.5336
0.892, 1, 35.7641, 48.3627, -13.8035, 97.0775, -52.8712, 43.5731
0.896, 1, 35.7742, 48.3457, -13.8269, 97.109, -52.757, 43.6122
0.9, 1, 35.7836, 48.3297, -13.8501, 97.1401, -52.6444, 43.6508
0.904, 1, 35.7924, 48.3145, -13.8728, 97.1706, -52.534, 43.6887
0.908, 1, 35.8007, 48.3002, -13.895, 97.2003, -52.4264, 43.7256
0.912, 1, 35.8087, 48.2866, -13.9163, 97.229, -52.3226, 43.7613
0.916, 1, 35.8164, 48.2736, -13.9367, 97.2564, -52.2234, 43.7953
0.92, 1, 35.8238, 48.2613, -13.956, 97.2823, -52.1296, 43.8275
0.924, 1, 35.8309, 48.2497, -13.9741, 97.3065, -52.042, 43.8576
0.928, 1, 35.8377, 48.2387, -13.9907, 97.3288, -51.9612, 43.8853
0.932, 1, 35.8442, 48.2281, -14.0057, 97.3491, -51.888, 43.9104
0.936, 1, 35.8507, 48.2178, -14.0192, 97.3671, -51.8226, 43.9328
0.94, 1, 35.8571, 48.2077, -14.031, 97.3829, -51.7653, 43.9524
0.944, 1, 35.8634, 48.1979, -14.0412, 97.3966, -51.716, 43.9693
0.948, 1, 35.8695, 48.1884, -14.0498, 97.4081, -51.6743, 43.9836
0.952, 1, 35.8755, 48.1793, -14.0569, 97.4175, -51.6399, 43.9954
0.956, 2, 35.8812, 48.1708, -14.0626, 97.4252, -51.612, 44.0049
0.96, 2, 35.8865, 48.1631, -14.0672, 97.4313, -51.5899, 44.0124
0.964, 2, 35.8915, 48.1562, -14.0707, 97.436, -51.5728, 44.0183
0.968, 2, 35.896, 48.1502, -14.0734, 97.4396, -51.5598, 44.0227
0.972, 2, 35.9001, 48.145, -14.0754, 97.4422, -51.5503, 44.0259
0.976, 2, 35.9037, 48.1406, -14.0768, 97.4441, -51.5433, 44.0283
0.98, 2, 35.9067, 48.1371, -14.0778, 97.4454, -51.5385, 44.0299
0.984, 2, 35.9091, 48.1343, -14.0785, 97.4463, -51.5351, 44.0311
0.988, 2, 35.911, 48.1323, -14.079, 97.4469, -51.5327, 44.0319
0.992, 2, 35.9123, 48.1308, -14.0793, 97.4474, -51.5312, 44.0324
0.996, 2, 35.9132, 48.1299, -14.0796, 97.4477, -51.5301, 44.0328
1, 2, 35.9138, 48.1292, -14.0797, 97.4479, -51.5294, 44.033
1.004, 2, 35.9142, 48.1287, -14.0798, 97.448, -51.5289, 44.0332
1.008, 2, 35.9145, 48.1284, -14.0799, 97.4481, -51.5285, 44.0333
1.012, 2, 35.9147, 48.1282, -14.0799, 97.4482, -51.5283, 44.0334
1.016, 2, 35.9149, 48.1281, -14.08, 97.4482, -51.5282, 44.0334
1.02, 2, 35.9149, 48.128, -14.08, 97.4482, -51.5281, 44.0335
1.024, 2, 35.915, 48.1279, -14.08, 97.4482, -51.528, 44.0335
1.027, 2, 35.915, 48.1279, -14.08, 97.4483, -51.5279, 44.0335
1.032, 2, 35.9151, 48.1278, -14.08, 97.4483, -51.5279, 44.0335
1.036, 2, 35.9151, 48.1278, -14.08, 97.4483, -51.5279, 44.0335
1.04, 2, 35.9151, 48.1278, -14.08, 97.4483, -51.5279, 44.0335
1.044, 2, 35.9151, 48.1278, -14.08, 97.4483, -51.5279, 44.0335
1.048, 2, 35.9151, 48.1278, -14.08, 97.4483, -51.5279, 44.0335
1.052, 2, 35.9151, 48.1278, -14.08, 97.4483, -51.5279, 44.0335
1.055, 2, 35.9151, 48.1278, -14.08, 97.4483, -51.5278, 44.0335
1.06, 2, 35.9151, 48.1278, -14.08, 97.4483, -51.5278, 44.0335
1.064, 2, 35.9151, 48.1278, -14.08, 97.4483, -51.5278, 44.0335
1.068, 2, 35.9151, 48.1278, -14.08, 97.4483, -51.5278, 44.0335
1.072, 2, 35.9151, 48.1278, -14.08, 97.4483, -51.5278, 44.0335
1.076, 2, 35.9151, 48.1278, -14.08, 97.4483, -51.5278, 44.0335
1.08, 2, 35.9151, 48.1278, -14.08, 97.4483, -51.5278, 44.0335
1.084, 2, 35.9151, 48.1278, -14.08, 97.4483, -51.5278, 44.0335
1.088, 2, 35.9151, 48.1278, -14.08, 97.4483, -51.5278, 44.0335
1.091, 2, 35.9151, 48.1278, -14.08, 97.4483, -51.5278, 44.0335
1.096, 2, 35.9151, 48.1278, -14.08, 97.4483, -51.5278, 44.0335
1.1, 2, 35.9151, 48.1278, -14.08, 97.4483, -51.5278, 44.0335
1.104, 2, 35.9151, 48.1278, -14.08, 97.4483, -51.5278, 44.0335
1.108, 2, 35.9151, 48.1278, -14.08, 97.4483, -51.5278, 44.0335
1.112, 2, 35.9151, 48.1278, -14.08, 97.4483, -51.5278, 44.0335
1.116, 2, 35.9151, 48.1278, -14.08, 97.4483, -51.5278, 44.0335
1.119, 2, 35.9151, 48.1278, -14.08, 97.4483, -51.5278, 44.0335
1.124, 2, 35.9151, 48.1278, -14.08, 97.4483, -51.5278, 44.0335
1.128, 2, 35.9151, 48.1278, -14.08, 97.4483, -51.5278, 44.0335
1.132, 2, 35.9151, 48.1278, -14.08, 97.4483, -51.5278, 44.0335
1.136, 2, 35.9151, 48.1278, -14.08, 97.4483, -51.5278, 44.0335
1.14, 2, 35.9151, 48.1278, -14.08, 97.4483, -51.5278, 44.0335
1.144, 2, 35.9151, 48.1278, -14.08, 97.4483, -51.5278, 44.0335
1.147, 2, 35.9151, 48.1278, -14.08, 97.4483, -51.5278, 44.0335
1.152, 2, 35.9151, 48.1278, -14.08, 97.4483, -51.5278, 44.0335
1.156, 2, 35.9151, 48.1278, -14.08, 97.4483, -51.5278, 44.0335
1.16, 2, 35.9151, 48.1278, -14.08, 97.4483, -51.5278, 44.0335
1.164, 2, 35.9151, 48.1278, -14.08, 97.4483, -51.5278, 44.0335
1.168, 2, 35.9151, 48.1278, -14.08, 97.4483, -51.5278, 44.0335
1.172, 2, 35.9151, 48.1278, -14.08, 97.4483, -51.5278, 44.0335
1.175, 2, 35.9151, 48.1278, -14.08, 97.4483, -51.5278, 44.0335
1.18, 2, 35.9151, 48.1278, -14.08, 97.4483, -51.5278, 44.0335
1.184, 2, 35.9151, 48.1278, -14.08, 97.4483, -51.5278, 44.0335
1.188, 2, 35.9151, 48.1278, -14.08, 97.4483, -51.5278, 44.0335
1.192, 2, 35.9151, 48.1278, -14.08, 97.4483, -51.5278, 44.0335
1.196, 2, 35.9151, 48.1278, -14.08, 97.4483, -51.5278, 44.0335
1.2, 2, 35.9151, 48.1278, -14.08, 97.4483, -51.5278, 44.0335
1.204, 2, 35.9151, 48.1278, -14.08, 97.4483, -51.5278, 44.0335
1.208, 2, 35.9151, 48.1278, -14.08, 97.4483, -51.5278, 44.0335
1.212, 2, 35.9151, 48.1278, -14.08, 97.4483, -51.5278, 44.0335
1.216, 2, 35.9151, 48.1278, -14.08, 97.4483, -51.5278, 44.0335
1.22, 2, 35.9151, 48.1278, -14.08, 97.4483, -51.5278, 44.0335
1.224, 2, 35.9151, 48.1278, -14.08, 97.4483, -51.5278, 44.0335
1.228, 2, 35.9151, 48.1278, -14.08, 97.4483, -51.5278, 44.0335
1.232, 2, 35.9151, 48.1278, -14.08, 97.4483, -51.5278, 44.0335
1.236, 2, 35.9151, 48.1278, -14.08, 97.4483, -51.5278, 44.0335
1.24, 2, 35.9151, 48.1278, -14.08, 97.4483, -51.5278, 44.0335
1.244, 2, 35.9151, 48.1278, -14.08, 97.4483, -51.5278, 44.0335
1.248, 2, 35.9151, 48.1278, -14.08, 97.4483, -51.5278, 44.0335
1.252, 2, 35.9151, 48.1278, -14.08, 97.4483, -51.5278, 44.0335
1.256, 2, 35.9151, 48.1278, -14.08, 97.4483, -51.5278, 44.0335
1.26, 2, 35.9151, 48.1278, -14.08, 97.4483, -51.5278, 44.0335
1.264, 2, 35.9151, 48.1278, -14.08, 97.4483, -51.5278, 44.0335
1.267, 2, 35.9151, 48.1278, -14.08, 97.4483, -51.5278, 44.0335
1.272, 2, 35.9151, 48.1278, -14.08, 97.4483, -51.5278, 44.0335
1.276, 2, 35.9151, 48.1278, -14.08, 97.4483, -51.5278, 44.0335
1.28, 2, 35.9151, 48.1278, -14.08, 97.4483, -51.5278, 44.0335
1.284, 2, 35.9151, 48.1278, -14.08, 97.4483, -51.5278, 44.0335
1.288, 2, 35.9151, 48.1278, -14.08, 97.4483, -51.5278, 44.0335
1.292, 2, 35.9151, 48.1278, -14.08, 97.4483, -51.5278, 44.0335
1.295, 2, 35.9151, 48.1278, -14.08, 97.4483, -51.5278, 44.0335
1.3, 2, 35.9151, 48.1278, -14.08, 97.4483, -51.5278, 44.0335
1.304, 2, 35.9151, 48.1278, -14.08, 97.4483, -51.5278, 44.0335
1.308, 2, 35.9151, 48.1278, -14.08, 97.4483, -51.5278, 44.0335
1.312, 2, 35.9151, 48.1278, -14.08, 97.4483, -51.5278, 44.0335
1.316, 2, 35.9151, 48.1278, -14.08, 97.4483, -51.5278, 44.0335
1.32, 2, 35.9151, 48.1278, -14.08, 97.4483, -51.5278, 44.0335
1.324, 2, 35.9151, 48.1278, -14.08, 97.4483, -51.5278, 44.0335
1.328, 2, 35.9151, 48.1278, -14.08, 97.4483, -51.5278, 44.0335
1.332, 2, 35.9151, 48.1278, -14.08, 97.4483, -51.5278, 44.0335
1.336, 2, 35.9151, 48.1278, -14.08, 97.4483, -51.5278, 44.0335
1.34, 2, 35.9151, 48.1278, -14.08, 97.4483, -51.5278, 44.0335
1.344, 2, 35.9151, 48.1278, -14.08, 97.4483, -51.5278, 44.0335
1.348, 2, 35.9151, 48.1278, -14.08, 97.4483, -51.5278, 44.0335
1.352, 2, 35.9151, 48.1278, -14.08, 97.4483, -51.5278, 44.0335
1.356, 2, 35.9151, 48.1278, -14.08, 97.4483, -51.5278, 44.0335
1.36, 2, 35.9151, 48.1278, -14.08, 97.4483, -51.5278, 44.0335
1.364, 2, 35.9151, 48.1278, -14.08, 97.4483, -51.5278, 44.0335
1.368, 2, 35.9151, 48.1278, -14.08, 97.4483, -51.5278, 44.0335
1.372, 2, 35.9151, 48.1278, -14.08, 97.4483, -51.5278, 44.0335
1.376, 2, 35.9151, 48.1278, -14.08, 97.4483, -51.5278, 44.0335
1.38, 2, 35.9151, 48.1278, -14.08, 97.4483, -51.5278, 44.0335
1.384, 2, 35.9151, 48.1278, -14.08, 97.4483, -51.5278, 44.0335
1.388, 2, 35.9151, 48.1278, -14.08, 97.4483, -51.5278, 44.0335
1.392, 2, 35.9151, 48.1278, -14.08, 97.4483, -51.5278, 44.0335
1.396, 2, 35.9151, 48.1278, -14.08, 97.4483, -51.5278, 44.0335
1.4, 2, 35.9151, 48.1278, -14.08, 97.4483, -51.5278, 44.0335
1.404, 2, 35.9151, 48.1278, -14.08, 97.4483, -51.5278, 44.0335
1.408, 2, 35.9151, 48.1278, -14.08, 97.4483, -51.5278, 44.0335
1.412, 2, 35.9151, 48.1278, -14.08, 97.4483, -51.5278, 44.0335
1.416, 2, 35.9151, 48.1278, -14.08, 97.4483, -51.5278, 44.0335
1.42, 2, 35.9151, 48.1278, -14.08, 97.4483, -51.5278, 44.0335
1.424, 2, 35.9151, 48.1278, -14.08, 97.4483, -51.5278, 44.0335
1.428, 2, 35.9151, 48.1278, -14.08, 97.4483, -51.5278, 44.0335
1.432, 2, 35.9151, 48.1278, -14.08, 97.4483, -51.5278, 44.0335
1.436, 2, 35.9151, 48.1278, -14.08, 97.4483, -51.5278, 44.0335
1.44, 2, 35.9151, 48.1278, -14.08, 97.4483, -51.5278, 44.0335
1.444, 2, 35.9151, 48.1278, -14.08, 97.4483, -51.5278, 44.0335
1.448, 2, 35.9151, 48.1278, -14.08, 97.4483, -51.5278, 44.0335
1.452, 2, 35.9151, 48.1278, -14.08, 97.4483, -51.5278, 44.0335
1.456, 2, 35.9151, 48.1278, -14.08, 97.4483, -51.5278, 44.0335
1.46, 2, 35.9151, 48.1278, -14.08, 97.4483, -51.5278, 44.0335
1.464, 2, 35.9151, 48.1278, -14.08, 97.4483, -51.5278, 44.0335
1.468, 2, 35.9151, 48.1278, -14.08, 97.4483, -51.5278, 44.0335
1.472, 2, 35.9151, 48.1278, -14.08, 97.4483, -51.5278, 44.0335
1.476, 2, 35.9151, 48.1278, -14.08, 97.4483, -51.5278, 44.0335
1.48, 2, 35.9151, 48.1278, -14.08, 97.4483, -51.5278, 44.0335
1.484, 2, 35.9151, 48.1278, -14.08, 97.4483, -51.5278, 44.0335
1.488, 2, 35.9151, 48.1278, -14.08, 97.4483, -51.5278, 44.0335
1.492, 2, 35.9151, 48.1278, -14.08, 97.4483, -51.5278, 44.0335
1.496, 2, 35.9151, 48.1278, -14.08, 97.4483, -51.5278, 44.0335
1.5, 2, 35.9151, 48.1278, -14.08, 97.4483, -51.5278, 44.0335
1.504, 2, 35.9151, 48.1278, -14.08, 97.4483, -51.5278, 44.0335
1.508, 2, 35.9151, 48.1278, -14.08, 97.4483, -51.5278, 44.0335
1.512, 2, 35.9151, 48.1278, -14.08, 97.4483, -51.5278, 44.0335
1.516, 2, 35.9151, 48.1278, -14.08, 97.4483, -51.5278, 44.0335
1.52, 2, 35.9151, 48.1278, -14.08, 97.4483, -51.5278, 44.0335
1.524, 2, 35.9151, 48.1278, -14.08, 97.4483, -51.5278, 44.0335
1.528, 2, 35.9151, 48.1278, -14.08, 97.4483, -51.5278, 44.0335
1.532, 2, 35.9151, 48.1278, -14.08, 97.4483, -51.5278, 44.0335
1.536, 2, 35.9151, 48.1278, -14.08, 97.4483, -51.5278, 44.0335
1.54, 2, 35.9151, 48.1278, -14.08, 97.4483, -51.5278, 44.0335
1.544, 2, 35.9151, 48.1278, -14.08, 97.4483, -51.5278, 44.0335
1.548, 2, 35.9151, 48.1278, -14.08, 97.4483, -51.5278, 44.0335
1.552, 2, 35.9151, 48.1278, -14.08, 97.4483, -51.5278, 44.0335
1.556, 2, 35.9151, 48.1278, -14.08, 97.4483, -51.5278, 44.0335
1.56, 2, 35.9151, 48.1278, -14.08, 97.4483, -51.5278, 44.0335
1.564, 2, 35.9151, 48.1278, -14.08, 97.4483, -51.5278, 44.0335
1.568, 2, 35.9151, 48.1278, -14.08, 97.4483, -51.5278, 44.0335
1.572, 2, 35.9151, 48.1278, -14.08, 97.4483, -51.5278, 44.0335
1.576, 2, 35.9151, 48.1278, -14.08, 97.4483, -51.5278, 44.0335
1.58, 2, 35.9151, 48.1278, -14.08, 97.4483, -51.5278, 44.0335
1.584, 2, 35.9151, 48.1278, -14.08, 97.4483, -51.5278, 44.0335
1.588, 2, 35.9151, 48.1278, -14.08, 97.4483, -51.5278, 44.0335
1.592, 2, 35.9151, 48.1278, -14.08, 97.4483, -51.5278, 44.0335
1.596, 2, 35.9151, 48.1278, -14.08, 97.4483, -51.5278, 44.0335
1.6, 2, 35.9151, 48.1278, -14.08, 97.4483, -51.5278, 44.0335
1.604, 2, 35.9151, 48.1278, -14.08, 97.4483, -51.5278, 44.0335
1.608, 2, 35.9151, 48.1278, -14.08, 97.4483, -51.5278, 44.0335
1.612, 2, 35.9151, 48.1278, -14.08, 97.4483, -51.5278, 44.0335
1.616, 2, 35.9151, 48.1278, -14.08, 97.4483, -51.5278, 44.0335
1.62, 2, 35.9151, 48.1278, -14.08, 97.4483, -51.5278, 44.0335
1.624, 2, 35.9151, 48.1278, -14.08, 97.4483, -51.5278, 44.0335
1.628, 2, 35.9151, 48.1278, -14.08, 97.4483, -51.5278, 44.0335
1.632, 2, 35.9151, 48.1278, -14.08, 97.4483, -51.5278, 44.0335
1.636, 2, 35.9151, 48.1278, -14.08, 97.4483, -51.5278, 44.0335
1.64, 2, 35.9151, 48.1278, -14.08, 97.4483, -51.5278, 44.0335
1.644, 2, 35.9151, 48.1278, -14.08, 97.4483, -51.5278, 44.0335
1.648, 2, 35.9151, 48.1278, -14.08, 97.4483, -51.5278, 44.0335
1.652, 2, 35.9151, 48.1278, -14.08, 97.4483, -51.5278, 44.0335
1.656, 2, 35.9151, 48.1278, -14.08, 97.4483, -51.5278, 44.0335
1.66, 2, 35.9151, 48.1278, -14.08, 97.4483, -51.5278, 44.0335
1.664, 2, 35.9151, 48.1278, -14.08, 97.4483, -51.5278, 44.0335
1.668, 2, 35.9151, 48.1278, -14.08, 97.4483, -51.5278, 44.0335
1.672, 2, 35.9151, 48.1278, -14.08, 97.4483, -51.5278, 44.0335
1.676, 2, 35.9151, 48.1278, -14.08, 97.4483, -51.5278, 44.0335
1.68, 2, 35.9151, 48.1278, -14.08, 97.4483, -51.5278, 44.0335
1.684, 2, 35.9151, 48.1278, -14.08, 97.4483, -51.5278, 44.0335
1.688, 2, 35.9151, 48.1278, -14.08, 97.4483, -51.5278, 44.0335
1.692, 2, 35.9151, 48.1278, -14.08, 97.4483, -51.5278, 44.0335
1.696, 2, 35.9151, 48.1278, -14.08, 97.4483, -51.5278, 44.0335
1.7, 2, 35.9151, 48.1278, -14.08, 97.4483, -51.5278, 44.0335
1.704, 2, 35.9151, 48.1278, -14.08, 97.4483, -51.5278, 44.0335
1.708, 2, 35.9151, 48.1278, -14.08, 97.4483, -51.5278, 44.0335
1.712, 2, 35.9151, 48.1278, -14.08, 97.4483, -51.5278, 44.0335
1.716, 2, 35.9151, 48.1278, -14.08, 97.4483, -51.5278, 44.0335
1.72, 2, 35.9151, 48.1278, -14.08, 97.4483, -51.5278, 44.0335
1.724, 2, 35.9151, 48.1278, -14.08, 97.4483, -51.5278, 44.0335
1.728, 2, 35.9151, 48.1278, -14.08, 97.4483, -51.5278, 44.0335
1.732, 2, 35.9151, 48.1278, -14.08, 97.4483, -51.5278, 44.0335
1.736, 2, 35.9151, 48.1278, -14.08, 97.4483, -51.5278, 44.0335
1.74, 2, 35.9151, 48.1278, -14.08, 97.4483, -51.5278, 44.0335
1.744, 2, 35.9151, 48.1278, -14.08, 97.4483, -51.5278, 44.0335
1.748, 2, 35.9151, 48.1278, -14.08, 97.4483, -51.5278, 44.0335
1.752, 2, 35.9151, 48.1278, -14.08, 97.4483, -51.5278, 44.0335
1.756, 2, 35.9151, 48.1278, -14.08, 97.4483, -51.5278, 44.0335
1.76, 2, 35.9151, 48.1278, -14.08, 97.4483, -51.5278, 44.0335
1.764, 2, 35.9151, 48.1278, -14.08, 97.4483, -51.5278, 44.0335
1.768, 2, 35.9151, 48.1278, -14.08, 97.4483, -51.5278, 44.0335
1.772, 2, 35.9151, 48.1278, -14.08, 97.4483, -51.5278, 44.0335
1.776, 2, 35.9151, 48.1278, -14.08, 97.4483, -51.5278, 44.0335
1.78, 2, 35.9151, 48.1278, -14.08, 97.4483, -51.5278, 44.0335
1.784, 2, 35.9151, 48.1278, -14.08, 97.4483, -51.5278, 44.0335
1.788, 2, 35.9151, 48.1278, -14.08, 97.4483, -51.5278, 44.0335
1.792, 2, 35.9151, 48.1278, -14.08, 97.4483, -51.5278, 44.0335
1.796, 2, 35.9151, 48.1278, -14.08, 97.4483, -51.5278, 44.0335
1.8, 2, 35.9151, 48.1278, -14.08, 97.4483, -51.5278, 44.0335
1.804, 2, 35.9151, 48.1278, -14.08, 97.4483, -51.5278, 44.0335
1.808, 2, 35.9151, 48.1278, -14.08, 97.4483, -51.5278, 44.0335
1.812, 2, 35.9151, 48.1278, -14.08, 97.4483, -51.5278, 44.0335
1.816, 2, 35.9151, 48.1278, -14.08, 97.4483, -51.5278, 44.0335
1.82, 2, 35.9151, 48.1278, -14.08, 97.4483, -51.5278, 44.0335
1.824, 2, 35.9151, 48.1278, -14.08, 97.4483, -51.5278, 44.0335
1.828, 2, 35.9151, 48.1278, -14.08, 97.4483, -51.5278, 44.0335
1.832, 2, 35.9151, 48.1278, -14.08, 97.4483, -51.5278, 44.0335
1.836, 2, 35.9151, 48.1278, -14.08, 97.4483, -51.5278, 44.0335
1.84, 2, 35.9151, 48.1278, -14.08, 97.4483, -51.5278, 44.0335
1.844, 2, 35.9151, 48.1278, -14.08, 97.4483, -51.5278, 44.0335
1.848, 2, 35.9151, 48.1278, -14.08, 97.4483, -51.5278, 44.0335
1.852, 2, 35.9151, 48.1278, -14.08, 97.4483, -51.5278, 44.0335
1.856, 2, 35.9151, 48.1278, -14.08, 97.4483, -51.5278, 44.0335
1.86, 2, 35.9151, 48.1278, -14.08, 97.4483, -51.5278, 44.0335
1.864, 2, 35.9151, 48.1278, -14.08, 97.4483, -51.5278, 44.0335
1.868, 2, 35.9151, 48.1278, -14.08, 97.4483, -51.5278, 44.0335
1.872, 2, 35.9151, 48.1278, -14.08, 97.4483, -51.5278, 44.0335
1.876, 2, 35.9151, 48.1278, -14.08, 97.4483, -51.5278, 44.0335
1.88, 2, 35.9151, 48.1278, -14.08, 97.4483, -51.5278, 44.0335
1.884, 2, 35.9151, 48.1278, -14.08, 97.4483, -51.5278, 44.0335
1.888, 2, 35.9151, 48.1278, -14.08, 97.4483, -51.5278, 44.0335
1.892, 2, 35.9151, 48.1278, -14.08, 97.4483, -51.5278, 44.0335
1.896, 2, 35.9151, 48.1278, -14.08, 97.4483, -51.5278, 44.0335
1.9, 2, 35.9151, 48.1278, -14.08, 97.4483, -51.5278, 44.0335
1.904, 2, 35.9151, 48.1278, -14.08, 97.4483, -51.5278, 44.0335
1.908, 2, 35.9151, 48.1278, -14.08, 97.4483, -51.5278, 44.0335
1.912, 2, 35.9151, 48.1278, -14.08, 97.4483, -51.5278, 44.0335
1.916, 2, 35.9151, 48.1278, -14.08, 97.4483, -51.5278, 44.0335
1.92, 2, 35.9151, 48.1278, -14.08, 97.4483, -51.5278, 44.0335
1.924, 2, 35.9151, 48.1278, -14.08, 97.4483, -51.5278, 44.0335
1.928, 2, 35.9151, 48.1278, -14.08, 97.4483, -51.5278, 44.0335
1.932, 2, 35.9151, 48.1278, -14.08, 97.4483, -51.5278, 44.0335
1.936, 2, 35.9151, 48.1278, -14.08, 97.4483, -51.5278, 44.0335
1.94, 2, 35.9151, 48.1278, -14.08, 97.4483, -51.5278, 44.0335
1.944, 2, 35.9151, 48.1278, -14.08, 97.4483, -51.5278, 44.0335
1.948, 2, 35.9151, 48.1278, -14.08, 97.4483, -51.5278, 44.0335
1.952, 2, 35.9151, 48.1278, -14.08, 97.4483, -51.5278, 44.0335
1.956, 3, 35.9151, 48.1278, -14.08, 97.4483, -51.5278, 44.0335
1.96, 3, 35.9151, 48.1278, -14.08, 97.4483, -51.5278, 44.0335
1.964, 3, 35.9151, 48.1278, -14.08, 97.4483, -51.5278, 44.0335
1.968, 3, 35.9151, 48.1278, -14.08, 97.4483, -51.5278, 44.0335
1.972, 3, 35.9151, 48.1278, -14.08, 97.4483, -51.5278, 44.0335
1.976, 3, 35.9151, 48.1278, -14.08, 97.4483, -51.5278, 44.0335
1.98, 3, 35.9151, 48.1278, -14.08, 97.4483, -51.5278, 44.0335
1.984, 3, 35.9151, 48.1278, -14.08, 97.4483, -51.5278, 44.0335
1.988, 3, 35.9151, 48.1278, -14.08, 97.4483, -51.5278, 44.0335
1.992, 4, 35.9151, 48.1278, -14.08, 97.4483, -51.5278, 44.0335
1.996, 4, 35.9151, 48.1278, -14.08, 97.4483, -51.5278, 44.0335
1.999, 4, 35.9151, 48.1278, -14.08, 97.4483, -51.5278, 44.0335
2.004, 4, 35.9151, 48.1278, -14.08, 97.4483, -51.5278, 44.0335
2.008, 4, 35.9151, 48.1278, -14.08, 97.4483, -51.5278, 44.0335
2.012, 4, 35.9151, 48.1278, -14.08, 97.4483, -51.5278, 44.0335
2.015, 4, 35.9151, 48.1278, -14.08, 97.4483, -51.5278, 44.0335
2.019, 4, 35.9151, 48.1278, -14.08, 97.4483, -51.5278, 44.0335
2.024, 4, 35.9151, 48.1278, -14.08, 97.4483, -51.5278, 44.0335
2.028, 4, 35.9151, 48.1278, -14.08, 97.4483, -51.5278, 44.0335
2.031, 4, 35.9151, 48.1278, -14.08, 97.4483, -51.5278, 44.0335
2.036, 4, 35.9151, 48.1278, -14.08, 97.4483, -51.5278, 44.0335
2.04, 4, 35.9151, 48.1278, -14.08, 97.4483, -51.5278, 44.0335
2.044, 4, 35.9151, 48.1278, -14.08, 97.4483, -51.5278, 44.0335
2.048, 4, 35.9151, 48.1278, -14.08, 97.4483, -51.5278, 44.0335
2.051, 4, 35.9151, 48.1278, -14.08, 97.4483, -51.5278, 44.0335
2.055, 4, 35.9151, 48.1278, -14.08, 97.4483, -51.5278, 44.0335
2.06, 4, 35.9151, 48.1278, -14.08, 97.4483, -51.5278, 44.0335
2.064, 4, 35.9151, 48.1278, -14.08, 97.4483, -51.5278, 44.0335
2.068, 4, 35.9151, 48.1278, -14.08, 97.4483, -51.5278, 44.0335
2.071, 4, 35.9151, 48.1278, -14.08, 97.4483, -51.5278, 44.0335
2.076, 4, 35.9151, 48.1278, -14.08, 97.4483, -51.5278, 44.0335
2.08, 4, 35.9151, 48.1278, -14.08, 97.4483, -51.5278, 44.0335
2.084, 4, 35.9151, 48.1278, -14.08, 97.4483, -51.5278, 44.0335
2.087, 4, 35.9151, 48.1278, -14.08, 97.4483, -51.5278, 44.0335
2.092, 5, 35.9151, 48.1278, -14.08, 97.4483, -51.5278, 44.0335
2.096, 5, 35.9151, 48.1278, -14.08, 97.4483, -51.5278, 44.0335
2.1, 5, 35.9151, 48.1278, -14.08, 97.4483, -51.5278, 44.0335
2.104, 5, 35.9151, 48.1278, -14.08, 97.4483, -51.5278, 44.0335
2.107, 5, 35.9151, 48.1278, -14.08, 97.4483, -51.5278, 44.0335
2.111, 5, 35.9151, 48.1278, -14.08, 97.4483, -51.5278, 44.0335
2.116, 5, 35.9151, 48.1278, -14.08, 97.4483, -51.5278, 44.0335
2.12, 5, 35.9151, 48.1278, -14.08, 97.4483, -51.5278, 44.0335
2.124, 5, 35.9151, 48.1278, -14.08, 97.4483, -51.5278, 44.0335
2.127, 5, 35.9151, 48.1278, -14.08, 97.4483, -51.5278, 44.0335
2.132, 5, 35.915, 48.128, -14.08, 97.4483, -51.5279, 44.0335
2.136, 5, 35.9148, 48.1283, -14.08, 97.4483, -51.5279, 44.0335
2.14, 5, 35.9143, 48.1291, -14.08, 97.4482, -51.5281, 44.0334
2.143, 5, 35.9136, 48.1303, -14.0799, 97.4482, -51.5284, 44.0333
2.148, 5, 35.9126, 48.1322, -14.0799, 97.448, -51.5292, 44.033
2.152, 5, 35.9113, 48.1347, -14.0797, 97.4477, -51.5306, 44.0325
2.156, 5, 35.9096, 48.138, -14.0795, 97.4472, -51.533, 44.0316
2.16, 5, 35.9077, 48.1423, -14.0791, 97.4464, -51.5368, 44.0302
2.163, 5, 35.9055, 48.1475, -14.0786, 97.4451, -51.5427, 44.0279
2.168, 5, 35.903, 48.1539, -14.0779, 97.4433, -51.5513, 44.0247
2.172, 5, 35.9002, 48.1617, -14.0768, 97.4407, -51.5632, 44.0202
2.176, 5, 35.897, 48.1709, -14.0755, 97.4372, -51.5793, 44.0141
2.179, 5, 35.8935, 48.1816, -14.0737, 97.4325, -51.6006, 44.0061
2.184, 5, 35.8898, 48.1936, -14.0714, 97.4266, -51.6279, 43.9959
2.188, 5, 35.886, 48.2067, -14.0686, 97.4191, -51.662, 43.983
2.192, 5, 35.8821, 48.2208, -14.0651, 97.4099, -51.7039, 43.9673
2.196, 5, 35.8782, 48.2358, -14.061, 97.3989, -51.754, 43.9484
2.199, 5, 35.8743, 48.2516, -14.0561, 97.386, -51.8128, 43.9263
2.204, 5, 35.8704, 48.2683, -14.0505, 97.3711, -51.8804, 43.9009
2.208, 5, 35.8664, 48.2861, -14.0441, 97.3542, -51.9568, 43.8723
2.212, 5, 35.8624, 48.3049, -14.0369, 97.3353, -52.0417, 43.8404
2.216, 5, 35.8582, 48.3249, -14.0291, 97.3147, -52.1347, 43.8056
2.219, 5, 35.8538, 48.346, -14.0205, 97.2923, -52.2351, 43.7681
2.224, 5, 35.8493, 48.3682, -14.0113, 97.2684, -52.3422, 43.728
2.228, 5, 35.8447, 48.3913, -14.0014, 97.2431, -52.4552, 43.6859
2.232, 5, 35.8398, 48.4155, -13.9911, 97.2167, -52.5731, 43.6419
2.235, 5, 35.8346, 48.441, -13.9802, 97.1892, -52.6951, 43.5965
2.24, 5, 35.8289, 48.4676, -13.969, 97.161, -52.8203, 43.55
2.244, 5, 35.8228, 48.4955, -13.9573, 97.1321, -52.9478, 43.5026
2.248, 5, 35.8162, 48.5246, -13.9454, 97.1028, -53.0772, 43.4547
2.252, 5, 35.8091, 48.5547, -13.9332, 97.0731, -53.2077, 43.4064
2.255, 5, 35.8016, 48.5856, -13.9207, 97.0431, -53.339, 43.3579
2.259, 5, 35.7938, 48.617, -13.908, 97.0129, -53.471, 43.3092
2.264, 5, 35.7857, 48.6488, -13.8951, 96.9825, -53.6033, 43.2605
2.268, 5, 35.7775, 48.6809, -13.882, 96.9519, -53.7358, 43.2118
2.272, 5, 35.7691, 48.713, -13.8687, 96.9212, -53.8685, 43.1631
2.275, 5, 35.7606, 48.7452, -13.8552, 96.8904, -54.0013, 43.1145
2.28, 5, 35.752, 48.7773, -13.8416, 96.8595, -54.1341, 43.0659
2.284, 5, 35.7433, 48.8094, -13.8278, 96.8285, -54.267, 43.0174
2.288, 5, 35.7345, 48.8415, -13.8138, 96.7973, -54.3998, 42.969
2.291, 5, 35.7256, 48.8735, -13.7996, 96.7661, -54.5327, 42.9206
2.296, 5, 35.7167, 48.9054, -13.7853, 96.7348, -54.6656, 42.8724
2.3, 5, 35.7076, 48.9372, -13.7708, 96.7034, -54.7984, 42.8242
2.304, 5, 35.6986, 48.9688, -13.7561, 96.6719, -54.9313, 42.7761
2.308, 5, 35.6894, 49.0004, -13.7412, 96.6403, -55.0641, 42.728
2.311, 5, 35.6802, 49.0319, -13.7262, 96.6086, -55.1968, 42.6801
2.316, 5, 35.6709, 49.0633, -13.711, 96.5768, -55.3296, 42.6322
2.32, 5, 35.6615, 49.0946, -13.6957, 96.5449, -55.4623, 42.5844
2.324, 5, 35.6521, 49.1258, -13.6802, 96.513, -55.595, 42.5367
2.328, 5, 35.6426, 49.1568, -13.6645, 96.481, -55.7277, 42.4891
2.331, 5, 35.633, 49.1878, -13.6486, 96.4488, -55.8603, 42.4416
2.336, 5, 35.6234, 49.2186, -13.6326, 96.4166, -55.993, 42.3941
2.34, 5, 35.6137, 49.2493, -13.6164, 96.3844, -56.1255, 42.3467
2.344, 5, 35.6039, 49.28, -13.6001, 96.352, -56.2581, 42.2994
2.347, 5, 35.5941, 49.3105, -13.5835, 96.3195, -56.3907, 42.2522
2.352, 5, 35.5842, 49.3409, -13.5668, 96.287, -56.5232, 42.2051
2.356, 5, 35.5742, 49.3712, -13.55, 96.2544, -56.6557, 42.158
2.36, 5, 35.5642, 49.4014, -13.533, 96.2217, -56.7881, 42.111
2.364, 5, 35.5541, 49.4314, -13.5158, 96.1889, -56.9206, 42.064
2.367, 5, 35.5439, 49.4614, -13.4984, 96.1561, -57.053, 42.0172
2.372, 5, 35.5337, 49.4912, -13.4809, 96.1231, -57.1854, 41.9704
2.376, 5, 35.5234, 49.521, -13.4632, 96.0901, -57.3177, 41.9237
2.38, 5, 35.513, 49.5506, -13.4454, 96.0571, -57.45, 41.877
2.383, 5, 35.5026, 49.5801, -13.4273, 96.0239, -57.5824, 41.8304
2.388, 5, 35.4921, 49.6095, -13.4092, 95.9906, -57.7146, 41.7839
2.392, 5, 35.4815, 49.6388, -13.3908, 95.9573, -57.8469, 41.7375
2.396, 5, 35.4709, 49.668, -13.3723, 95.9239, -57.9791, 41.6911
2.4, 5, 35.4602, 49.6971, -13.3536, 95.8905, -58.1113, 41.6448
2.403, 5, 35.4494, 49.726, -13.3348, 95.8569, -58.2435, 41.5986
2.408, 5, 35.4386, 49.7549, -13.3158, 95.8233, -58.3757, 41.5524
2.412, 5, 35.4276, 49.7836, -13.2966, 95.7896, -58.5078, 41.5063
2.416, 5, 35.4167, 49.8122, -13.2773, 95.7559, -58.6399, 41.4602
2.42, 5, 35.4056, 49.8408, -13.2578, 95.722, -58.772, 41.4142
2.423, 5, 35.3945, 49.8692, -13.2381, 95.6881, -58.904, 41.3683
2.428, 5, 35.3834, 49.8974, -13.2183, 95.6542, -59.0361, 41.3224
2.432, 5, 35.3721, 49.9256, -13.1983, 95.6201, -59.1681, 41.2766
2.436, 5, 35.3608, 49.9537, -13.1781, 95.586, -59.3001, 41.2308
2.439, 5, 35.3495, 49.9816, -13.1578, 95.5518, -59.432, 41.1851
2.444, 5, 35.338, 50.0094, -13.1374, 95.5176, -59.564, 41.1395
2.448, 5, 35.3265, 50.0372, -13.1167, 95.4833, -59.6959, 41.0939
2.452, 5, 35.315, 50.0648, -13.0959, 95.4489, -59.8278, 41.0484
2.456, 5, 35.3033, 50.0923, -13.075, 95.4145, -59.9596, 41.0029
2.459, 5, 35.2916, 50.1196, -13.0538, 95.38, -60.0915, 40.9575
2.464, 5, 35.2799, 50.1469, -13.0325, 95.3454, -60.2233, 40.9121
2.468, 5, 35.268, 50.174, -13.0111, 95.3107, -60.3551, 40.8668
2.472, 5, 35.2561, 50.2011, -12.9895, 95.276, -60.4869, 40.8215
2.476, 5, 35.2442, 50.228, -12.9677, 95.2413, -60.6186, 40.7763
2.479, 5, 35.2321, 50.2548, -12.9458, 95.2064, -60.7504, 40.7312
2.484, 5, 35.22, 50.2815, -12.9237, 95.1715, -60.8821, 40.6861
2.488, 5, 35.2079, 50.308, -12.9014, 95.1366, -61.0137, 40.641
2.492, 5, 35.1956, 50.3345, -12.879, 95.1016, -61.1454, 40.596
2.495, 5, 35.1833, 50.3608, -12.8564, 95.0665, -61.277, 40.551
2.5, 5, 35.171, 50.387, -12.8337, 95.0313, -61.4087, 40.5061
2.504, 5, 35.1585, 50.4131, -12.8108, 94.9961, -61.5402, 40.4612
2.508, 5, 35.146, 50.4391, -12.7877, 94.9609, -61.6718, 40.4164
2.512, 5, 35.1335, 50.465, -12.7645, 94.9255, -61.8034, 40.3716
2.515, 5, 35.1209, 50.4908, -12.7411, 94.8902, -61.9349, 40.3269
2.52, 5, 35.1082, 50.5164, -12.7175, 94.8547, -62.0664, 40.2822
2.524, 5, 35.0954, 50.5419, -12.6938, 94.8192, -62.1979, 40.2375
2.528, 5, 35.0826, 50.5673, -12.67, 94.7837, -62.3294, 40.1929
2.531, 5, 35.0697, 50.5926, -12.6459, 94.7481, -62.4608, 40.1483
2.536, 5, 35.0567, 50.6178, -12.6218, 94.7124, -62.5922, 40.1038
2.54, 5, 35.0437, 50.6428, -12.5974, 94.6767, -62.7236, 40.0593
2.544, 5, 35.0307, 50.6677, -12.5729, 94.6409, -62.855, 40.0149
2.548, 5, 35.0176, 50.6925, -12.5482, 94.605, -62.9864, 39.9705
2.551, 5, 35.0047, 50.717, -12.5234, 94.5692, -63.1177, 39.9261
2.556, 5, 34.992, 50.7411, -12.4985, 94.5332, -63.2489, 39.8818
2.56, 5, 34.9795, 50.7646, -12.4734, 94.4973, -63.38, 39.8376
2.564, 5, 34.9676, 50.7874, -12.4482, 94.4614, -63.5107, 39.7935
2.568, 5, 34.9562, 50.8091, -12.423, 94.4255, -63.641, 39.7496
2.571, 5, 34.9455, 50.8297, -12.3978, 94.3899, -63.7703, 39.706
2.576, 5, 34.9354, 50.8491, -12.3728, 94.3546, -63.8982, 39.6629
2.58, 5, 34.9257, 50.8673, -12.348, 94.3198, -64.0242, 39.6205
2.584, 5, 34.9165, 50.8847, -12.3236, 94.2857, -64.1474, 39.5791
2.587, 5, 34.9076, 50.9011, -12.2999, 94.2525, -64.2669, 39.5389
2.592, 5, 34.899, 50.9169, -12.2769, 94.2206, -64.382, 39.5002
2.596, 5, 34.8907, 50.932, -12.2549, 94.1901, -64.4917, 39.4634
2.6, 5, 34.8827, 50.9465, -12.2341, 94.1613, -64.5951, 39.4286
2.604, 5, 34.875, 50.9602, -12.2147, 94.1345, -64.6915, 39.3963
2.607, 5, 34.8675, 50.9733, -12.1967, 94.1098, -64.78, 39.3666
2.612, 5, 34.8603, 50.9858, -12.1804, 94.0875, -64.8602, 39.3397
2.616, 5, 34.8533, 50.9979, -12.1658, 94.0675, -64.9318, 39.3157
2.62, 5, 34.8463, 51.0097, -12.153, 94.05, -64.9945, 39.2947
2.624, 5, 34.8394, 51.021, -12.1419, 94.0349, -65.0486, 39.2765
2.627, 5, 34.8328, 51.0319, -12.1325, 94.0222, -65.0943, 39.2612
2.632, 5, 34.8265, 51.0423, -12.1246, 94.0116, -65.1322, 39.2485
2.636, 5, 34.8205, 51.052, -12.1182, 94.003, -65.1631, 39.2382
2.64, 6, 34.8149, 51.0611, -12.1131, 93.9961, -65.1877, 39.23
2.643, 6, 34.8098, 51.0694, -12.1091, 93.9908, -65.2069, 39.2236
2.648, 6, 34.8052, 51.0769, -12.1061, 93.9867, -65.2216, 39.2187
2.652, 6, 34.8009, 51.0836, -12.1038, 93.9836, -65.2325, 39.215
2.656, 6, 34.7972, 51.0893, -12.1021, 93.9814, -65.2405, 39.2124
2.66, 6, 34.794, 51.0941, -12.1009, 93.9799, -65.2462, 39.2105
2.663, 6, 34.7913, 51.0979, -12.1, 93.9788, -65.2501, 39.2092
2.668, 6, 34.7892, 51.1007, -12.0995, 93.978, -65.2528, 39.2083
2.672, 6, 34.7877, 51.1027, -12.0991, 93.9775, -65.2547, 39.2076
2.676, 6, 34.7866, 51.1041, -12.0988, 93.9771, -65.256, 39.2072
2.679, 6, 34.7857, 51.1052, -12.0986, 93.9769, -65.2568, 39.2069
2.684, 6, 34.7848, 51.1062, -12.0985, 93.9767, -65.2575, 39.2067
2.688, 6, 34.7836, 51.1073, -12.0983, 93.9766, -65.2581, 39.2065
2.692, 6, 34.7821, 51.1087, -12.0982, 93.9764, -65.2588, 39.2063
2.696, 6, 34.7802, 51.1106, -12.0979, 93.9761, -65.2599, 39.2059
2.699, 6, 34.7777, 51.1131, -12.0975, 93.9756, -65.2617, 39.2053
2.704, 6, 34.7748, 51.1163, -12.0969, 93.9747, -65.2648, 39.2043
2.708, 6, 34.7715, 51.1202, -12.0958, 93.9734, -65.2697, 39.2027
2.712, 6, 34.7677, 51.1249, -12.0943, 93.9714, -65.2769, 39.2003
2.716, 6, 34.7635, 51.1304, -12.092, 93.9684, -65.2873, 39.1968
2.719, 6, 34.7588, 51.1368, -12.089, 93.9644, -65.3017, 39.192
2.724, 6, 34.7536, 51.1442, -12.0849, 93.9591, -65.3208, 39.1857
2.728, 6, 34.7479, 51.1524, -12.0796, 93.9521, -65.3456, 39.1774
2.732, 6, 34.7417, 51.1614, -12.073, 93.9433, -65.3769, 39.1669
2.735, 6, 34.7352, 51.171, -12.0647, 93.9324, -65.4156, 39.154
2.74, 6, 34.7284, 51.181, -12.0548, 93.9193, -65.4621, 39.1385
2.744, 6, 34.7214, 51.1914, -12.0431, 93.9038, -65.5171, 39.1201
2.748, 6, 34.7142, 51.202, -12.0295, 93.8859, -65.5808, 39.0989
2.752, 6, 34.7068, 51.2131, -12.014, 93.8654, -65.6531, 39.0747
2.755, 6, 34.699, 51.2246, -11.9966, 93.8426, -65.7337, 39.0478
2.76, 6, 34.6908, 51.2367, -11.9775, 93.8175, -65.8224, 39.0182
2.764, 6, 34.6821, 51.2495, -11.9567, 93.7903, -65.9186, 38.9861
2.768, 6, 34.6731, 51.263, -11.9344, 93.7611, -66.0214, 38.9518
2.772, 6, 34.6636, 51.2771, -11.9107, 93.7302, -66.1302, 38.9155
2.775, 6, 34.6537, 51.2919, -11.8858, 93.6978, -66.2442, 38.8775
2.78, 6, 34.6433, 51.3075, -11.8599, 93.6642, -66.3624, 38.8381
2.784, 6, 34.6323, 51.3238, -11.8331, 93.6296, -66.484, 38.7975
2.788, 6, 34.6206, 51.341, -11.8055, 93.5941, -66.6083, 38.7561
2.791, 6, 34.6083, 51.3589, -11.7775, 93.5581, -66.7345, 38.714
2.796, 6, 34.5952, 51.3776, -11.7489, 93.5217, -66.8622, 38.6715
2.8, 6, 34.5816, 51.397, -11.72, 93.4848, -66.9909, 38.6287
2.804, 6, 34.5674, 51.4167, -11.6908, 93.4478, -67.1202, 38.5856
2.808, 6, 34.5528, 51.4368, -11.6613, 93.4106, -67.2501, 38.5424
2.811, 6, 34.538, 51.457, -11.6317, 93.3732, -67.3802, 38.4991
2.816, 6, 34.5229, 51.4773, -11.6018, 93.3358, -67.5105, 38.4558
2.82, 6, 34.5076, 51.4976, -11.5717, 93.2982, -67.641, 38.4124
2.824, 6, 34.4923, 51.5179, -11.5415, 93.2606, -67.7715, 38.369
2.828, 6, 34.4768, 51.5381, -11.5111, 93.2229, -67.9021, 38.3256
2.831, 6, 34.4612, 51.5582, -11.4806, 93.1852, -68.0327, 38.2823
2.836, 6, 34.4455, 51.5783, -11.4499, 93.1474, -68.1634, 38.2389
2.84, 6, 34.4298, 51.5982, -11.419, 93.1095, -68.2941, 38.1955
2.844, 6, 34.4139, 51.618, -11.388, 93.0716, -68.4247, 38.1521
2.847, 6, 34.398, 51.6377, -11.3568, 93.0337, -68.5554, 38.1087
2.852, 6, 34.3821, 51.6573, -11.3255, 92.9957, -68.686, 38.0653
2.856, 6, 34.3661, 51.6768, -11.294, 92.9577, -68.8166, 38.022
2.86, 6, 34.35, 51.6961, -11.2624, 92.9196, -68.9473, 37.9786
2.864, 6, 34.3338, 51.7154, -11.2307, 92.8815, -69.0779, 37.9353
2.867, 6, 34.3176, 51.7345, -11.1988, 92.8433, -69.2085, 37.892
2.872, 6, 34.3013, 51.7535, -11.1667, 92.8051, -69.3391, 37.8486
2.876, 6, 34.2849, 51.7723, -11.1345, 92.7668, -69.4697, 37.8053
2.88, 6, 34.2685, 51.7911, -11.1022, 92.7286, -69.6003, 37.762
2.883, 6, 34.252, 51.8097, -11.0697, 92.6902, -69.7308, 37.7187
2.888, 6, 34.2355, 51.8282, -11.037, 92.6518, -69.8614, 37.6754
2.892, 6, 34.2188, 51.8466, -11.0043, 92.6134, -69.9919, 37.6321
2.896, 6, 34.2022, 51.8648, -10.9713, 92.5749, -70.1225, 37.5888
2.9, 6, 34.1854, 51.8829, -10.9383, 92.5364, -70.253, 37.5455
2.903, 6, 34.1686, 51.9009, -10.905, 92.4979, -70.3835, 37.5023
2.908, 6, 34.1517, 51.9188, -10.8717, 92.4593, -70.514, 37.459
2.912, 6, 34.1348, 51.9366, -10.8382, 92.4206, -70.6445, 37.4157
2.916, 6, 34.1178, 51.9542, -10.8045, 92.382, -70.7749, 37.3724
2.92, 6, 34.1008, 51.9717, -10.7708, 92.3432, -70.9054, 37.3291
2.923, 6, 34.0836, 51.9891, -10.7368, 92.3045, -71.0359, 37.2859
2.928, 6, 34.0665, 52.0063, -10.7027, 92.2656, -71.1663, 37.2426
2.932, 6, 34.0492, 52.0235, -10.6685, 92.2268, -71.2967, 37.1993
2.936, 6, 34.0319, 52.0405, -10.6342, 92.1879, -71.4271, 37.156
2.939, 6, 34.0145, 52.0574, -10.5997, 92.149, -71.5575, 37.1128
2.944, 6, 33.9971, 52.0741, -10.565, 92.11, -71.688, 37.0695
2.948, 6, 33.9796, 52.0908, -10.5303, 92.071, -71.8183, 37.0262
2.952, 6, 33.962, 52.1073, -10.4953, 92.0319, -71.9487, 36.9829
2.956, 6, 33.9444, 52.1237, -10.4603, 91.9928, -72.0791, 36.9396
2.959, 6, 33.9267, 52.1399, -10.4251, 91.9537, -72.2094, 36.8963
2.964, 6, 33.909, 52.156, -10.3897, 91.9145, -72.3398, 36.853
2.968, 6, 33.8911, 52.1721, -10.3543, 91.8753, -72.4701, 36.8097
2.972, 6, 33.8733, 52.1879, -10.3187, 91.836, -72.6005, 36.7664
2.976, 6, 33.8553, 52.2037, -10.2829, 91.7967, -72.7308, 36.723
2.98, 6, 33.8373, 52.2193, -10.247, 91.7574, -72.8611, 36.6797
2.984, 6, 33.8193, 52.2348, -10.211, 91.718, -72.9914, 36.6364
2.988, 6, 33.8011, 52.2502, -10.1748, 91.6786, -73.1217, 36.593
2.992, 6, 33.783, 52.2655, -10.1385, 91.6391, -73.252, 36.5497
2.995, 6, 33.7647, 52.2806, -10.1021, 91.5996, -73.3822, 36.5063
3, 6, 33.7464, 52.2956, -10.0655, 91.5601, -73.5125, 36.4629
3.004, 6, 33.728, 52.3105, -10.0288, 91.5205, -73.6427, 36.4195
3.008, 6, 33.7096, 52.3253, -9.9919, 91.4809, -73.773, 36.3761
3.012, 6, 33.6911, 52.3399, -9.95491, 91.4412, -73.9032, 36.3327
3.015, 6, 33.6725, 52.3544, -9.91779, 91.4015, -74.0334, 36.2893
3.02, 6, 33.6539, 52.3688, -9.88053, 91.3617, -74.1637, 36.2459
3.024, 6, 33.6352, 52.383, -9.84313, 91.322, -74.2939, 36.2024
3.028, 6, 33.6165, 52.3971, -9.8056, 91.2821, -74.4241, 36.159
3.031, 6, 33.5976, 52.4111, -9.76794, 91.2423, -74.5543, 36.1155
3.036, 6, 33.5788, 52.425, -9.73014, 91.2024, -74.6844, 36.072
3.04, 6, 33.5598, 52.4387, -9.6922, 91.1624, -74.8146, 36.0285
3.044, 6, 33.5408, 52.4523, -9.65414, 91.1225, -74.9448, 35.9849
3.048, 6, 33.5218, 52.4658, -9.61594, 91.0824, -75.0749, 35.9414
3.051, 6, 33.5027, 52.4792, -9.5776, 91.0424, -75.2051, 35.8978
3.056, 6, 33.4835, 52.4924, -9.53914, 91.0023, -75.3352, 35.8542
3.06, 6, 33.4642, 52.5055, -9.50054, 90.9622, -75.4654, 35.8106
3.064, 6, 33.4449, 52.5185, -9.46181, 90.922, -75.5955, 35.767
3.068, 6, 33.4256, 52.5313, -9.42294, 90.8818, -75.7256, 35.7234
3.071, 6, 33.4061, 52.544, -9.38395, 90.8415, -75.8557, 35.6797
3.076, 6, 33.3867, 52.5566, -9.34482, 90.8012, -75.9858, 35.636
3.08, 6, 33.3671, 52.569, -9.30556, 90.7609, -76.1159, 35.5923
3.084, 6, 33.3475, 52.5814, -9.26617, 90.7205, -76.246, 35.5486
3.087, 6, 33.3279, 52.5936, -9.22666, 90.6801, -76.3761, 35.5048
3.092, 6, 33.3083, 52.6056, -9.18701, 90.6396, -76.5062, 35.461
3.096, 6, 33.289, 52.6174, -9.14724, 90.5992, -76.6362, 35.4172
3.1, 6, 33.27, 52.6288, -9.10738, 90.5587, -76.7661, 35.3734
3.104, 6, 33.2514, 52.6399, -9.06744, 90.5182, -76.8959, 35.3297
3.107, 6, 33.2334, 52.6504, -9.02748, 90.4778, -77.0253, 35.286
3.112, 6, 33.216, 52.6604, -8.98757, 90.4375, -77.1542, 35.2425
3.116, 6, 33.1991, 52.6696, -8.94783, 90.3974, -77.2821, 35.1992
3.12, 6, 33.1828, 52.678, -8.9084, 90.3578, -77.4087, 35.1564
3.124, 6, 33.1669, 52.6857, -8.86945, 90.3186, -77.5334, 35.1142
3.128, 6, 33.1516, 52.6927, -8.83118, 90.2803, -77.6557, 35.0729
3.132, 6, 33.1368, 52.699, -8.79383, 90.2429, -77.7746, 35.0325
3.136, 6, 33.1226, 52.7048, -8.75765, 90.2067, -77.8896, 34.9936
3.14, 6, 33.1092, 52.7102, -8.72292, 90.1721, -77.9998, 34.9562
3.143, 6, 33.0963, 52.7154, -8.68991, 90.1392, -78.1042, 34.9207
3.148, 6, 33.0841, 52.7204, -8.6589, 90.1083, -78.2022, 34.8875
3.152, 6, 33.0724, 52.7254, -8.63012, 90.0797, -78.2929, 34.8567
3.156, 6, 33.0612, 52.7305, -8.60378, 90.0536, -78.3758, 34.8285
3.16, 6, 33.0504, 52.7357, -8.58002, 90.03, -78.4505, 34.8031
3.163, 6, 33.04, 52.7411, -8.55893, 90.0091, -78.5167, 34.7806
3.168, 6, 33.0301, 52.7466, -8.54051, 89.9909, -78.5744, 34.761
3.172, 6, 33.0206, 52.7522, -8.5247, 89.9753, -78.6239, 34.7442
3.176, 6, 33.0118, 52.758, -8.51137, 89.9622, -78.6655, 34.7301
3.179, 6, 33.0036, 52.7638, -8.50037, 89.9514, -78.6998, 34.7184
3.184, 7, 32.996, 52.7695, -8.49146, 89.9426, -78.7275, 34.709
3.188, 7, 32.989, 52.7751, -8.48443, 89.9357, -78.7494, 34.7015
3.192, 7, 32.9824, 52.7803, -8.479, 89.9304, -78.7663, 34.6958
3.196, 7, 32.9765, 52.7851, -8.47492, 89.9264, -78.779, 34.6915
3.199, 7, 32.9712, 52.7892, -8.47192, 89.9235, -78.7882, 34.6884
3.204, 7, 32.9666, 52.7926, -8.46977, 89.9214, -78.7949, 34.6861
3.208, 7, 32.9629, 52.7953, -8.46827, 89.92, -78.7995, 34.6846
3.212, 7, 32.9599, 52.7973, -8.46723, 89.919, -78.8027, 34.6835
3.216, 7, 32.9577, 52.7988, -8.46652, 89.9183, -78.8049, 34.6828
3.22, 7, 32.9561, 52.7998, -8.46603, 89.9178, -78.8064, 34.6823
3.224, 7, 32.9551, 52.8005, -8.46571, 89.9175, -78.8074, 34.6819
3.228, 7, 32.9543, 52.801, -8.46548, 89.9173, -78.8081, 34.6817
3.232, 7, 32.9539, 52.8013, -8.46533, 89.9171, -78.8086, 34.6815
3.235, 7, 32.9535, 52.8015, -8.46523, 89.917, -78.8089, 34.6814
3.24, 7, 32.9533, 52.8016, -8.46516, 89.917, -78.8091, 34.6814
3.244, 7, 32.9532, 52.8017, -8.46512, 89.9169, -78.8092, 34.6813
3.248, 7, 32.9531, 52.8018, -8.46509, 89.9169, -78.8093, 34.6813
3.252, 7, 32.953, 52.8019, -8.46506, 89.9169, -78.8094, 34.6813
3.255, 7, 32.9529, 52.8019, -8.46505, 89.9169, -78.8095, 34.6812
3.26, 7, 32.9529, 52.8019, -8.46504, 89.9169, -78.8095, 34.6812
3.264, 7, 32.9529, 52.8019, -8.46503, 89.9168, -78.8095, 34.6812
3.268, 7, 32.9529, 52.8019, -8.46503, 89.9168, -78.8095, 34.6812
3.272, 7, 32.9529, 52.8019, -8.46502, 89.9168, -78.8095, 34.6812
3.276, 7, 32.9529, 52.8019, -8.46502, 89.9168, -78.8095, 34.6812
3.28, 7, 32.9528, 52.8019, -8.46502, 89.9168, -78.8095, 34.6812
