hehonglu123/ABB_Primitive_Study/execution/movec_smooth/curve_exe_v400_fine.csv
timestamp, cmd_num, J1, J2, J3, J4, J5, J6
0, 1, 32.9528, 52.8019, -8.46502, 89.9168, -78.8096, 34.6812
0.002, 1, 32.9528, 52.8019, -8.46502, 89.9168, -78.8096, 34.6812
0.004, 1, 32.9528, 52.8019, -8.46502, 89.9168, -78.8096, 34.6812
0.01, 1, 32.9528, 52.8019, -8.46502, 89.9168, -78.8096, 34.6812
0.012, 1, 32.9528, 52.8019, -8.46502, 89.9168, -78.8096, 34.6812
0.016, 1, 32.9528, 52.8019, -8.46502, 89.9168, -78.8096, 34.6812
0.02, 1, 32.9528, 52.8019, -8.46502, 89.9168, -78.8096, 34.6812
0.024, 1, 32.9528, 52.8019, -8.46502, 89.9168, -78.8096, 34.6812
0.028, 1, 32.9528, 52.8019, -8.46502, 89.9168, -78.8096, 34.6812
0.032, 1, 32.9528, 52.8019, -8.46502, 89.9168, -78.8096, 34.6812
0.036, 1, 32.9529, 52.8019, -8.46502, 89.9168, -78.8096, 34.6812
0.04, 1, 32.9531, 52.8018, -8.46503, 89.9168, -78.8095, 34.6812
0.044, 1, 32.9535, 52.8014, -8.46505, 89.9169, -78.8095, 34.6812
0.048, 1, 32.9543, 52.8006, -8.4651, 89.9169, -78.8093, 34.6813
0.052, 1, 32.9556, 52.7993, -8.46521, 89.917, -78.8088, 34.6814
0.056, 1, 32.9574, 52.7971, -8.46544, 89.9173, -78.8079, 34.6818
0.06, 1, 32.9597, 52.794, -8.46584, 89.9178, -78.8061, 34.6824
0.064, 1, 32.9625, 52.7899, -8.46653, 89.9186, -78.803, 34.6834
0.068, 1, 32.9659, 52.7849, -8.46761, 89.92, -78.798, 34.6852
0.072, 1, 32.9697, 52.7789, -8.46923, 89.922, -78.7905, 34.6877
0.076, 1, 32.9741, 52.7719, -8.47155, 89.925, -78.7796, 34.6915
0.08, 1, 32.9791, 52.7639, -8.47475, 89.9292, -78.7644, 34.6967
0.084, 1, 32.9847, 52.7549, -8.47904, 89.9348, -78.744, 34.7037
0.088, 1, 32.991, 52.7451, -8.48462, 89.9421, -78.7174, 34.7128
0.092, 1, 32.9978, 52.7344, -8.49169, 89.9515, -78.6834, 34.7244
0.096, 1, 33.005, 52.7231, -8.50046, 89.9631, -78.6411, 34.7389
0.1, 1, 33.0126, 52.7112, -8.51109, 89.9773, -78.5897, 34.7566
0.104, 1, 33.0204, 52.699, -8.5237, 89.9942, -78.5285, 34.7775
0.108, 1, 33.0284, 52.6863, -8.53837, 90.0139, -78.4572, 34.802
0.112, 1, 33.0368, 52.673, -8.55512, 90.0364, -78.3757, 34.8299
0.116, 1, 33.0455, 52.6592, -8.57391, 90.0617, -78.2841, 34.8613
0.12, 1, 33.0546, 52.6447, -8.59467, 90.0896, -78.183, 34.896
0.124, 1, 33.0642, 52.6296, -8.61726, 90.12, -78.0728, 34.9337
0.128, 1, 33.0741, 52.6139, -8.64154, 90.1527, -77.9545, 34.9743
0.131, 1, 33.0844, 52.5977, -8.66731, 90.1875, -77.8288, 35.0174
0.136, 1, 33.0949, 52.5809, -8.69437, 90.2239, -77.6968, 35.0627
0.139, 1, 33.1058, 52.5633, -8.72251, 90.2618, -77.5596, 35.1097
0.144, 1, 33.1172, 52.5447, -8.75152, 90.3009, -77.4182, 35.1582
0.148, 1, 33.1293, 52.525, -8.78121, 90.3408, -77.2736, 35.2077
0.152, 1, 33.1421, 52.5041, -8.81138, 90.3814, -77.1267, 35.2581
0.156, 1, 33.1556, 52.4819, -8.8419, 90.4224, -76.9782, 35.309
0.16, 1, 33.17, 52.4586, -8.87265, 90.4637, -76.8286, 35.3603
0.164, 1, 33.1849, 52.4345, -8.90354, 90.5052, -76.6784, 35.4118
0.168, 1, 33.2004, 52.4098, -8.93451, 90.5467, -76.5279, 35.4634
0.172, 1, 33.2161, 52.3847, -8.9655, 90.5883, -76.3772, 35.515
0.176, 1, 33.2321, 52.3594, -8.9965, 90.6299, -76.2265, 35.5667
0.18, 1, 33.2481, 52.334, -9.02749, 90.6715, -76.076, 35.6183
0.184, 1, 33.2643, 52.3084, -9.05844, 90.713, -75.9256, 35.6699
0.188, 1, 33.2805, 52.2828, -9.08935, 90.7545, -75.7754, 35.7214
0.192, 1, 33.2967, 52.2573, -9.12022, 90.7959, -75.6254, 35.7728
0.196, 1, 33.3129, 52.2317, -9.15104, 90.8372, -75.4757, 35.8241
0.2, 1, 33.3291, 52.2061, -9.1818, 90.8785, -75.3262, 35.8753
0.204, 1, 33.3453, 52.1806, -9.21251, 90.9197, -75.177, 35.9265
0.208, 1, 33.3614, 52.1551, -9.24316, 90.9608, -75.028, 35.9775
0.212, 1, 33.3776, 52.1296, -9.27376, 91.0018, -74.8794, 36.0285
0.216, 1, 33.3937, 52.1042, -9.30431, 91.0428, -74.731, 36.0794
0.22, 1, 33.4098, 52.0788, -9.33479, 91.0837, -74.5829, 36.1302
0.224, 1, 33.4258, 52.0535, -9.36522, 91.1245, -74.435, 36.1808
0.228, 1, 33.4419, 52.0282, -9.3956, 91.1652, -74.2874, 36.2314
0.232, 1, 33.4579, 52.003, -9.42592, 91.2059, -74.1401, 36.2819
0.236, 1, 33.4738, 51.9778, -9.45618, 91.2465, -73.9931, 36.3323
0.24, 1, 33.4898, 51.9526, -9.48639, 91.287, -73.8463, 36.3826
0.244, 1, 33.5057, 51.9275, -9.51654, 91.3275, -73.6998, 36.4329
0.248, 1, 33.5216, 51.9025, -9.54664, 91.3678, -73.5536, 36.483
0.252, 1, 33.5374, 51.8774, -9.57668, 91.4081, -73.4076, 36.533
0.256, 1, 33.5533, 51.8525, -9.60667, 91.4483, -73.2619, 36.583
0.26, 1, 33.5691, 51.8276, -9.63661, 91.4885, -73.1165, 36.6328
0.264, 1, 33.5848, 51.8027, -9.66649, 91.5286, -72.9713, 36.6826
0.268, 1, 33.6006, 51.7778, -9.69631, 91.5686, -72.8264, 36.7323
0.272, 1, 33.6163, 51.7531, -9.72609, 91.6085, -72.6817, 36.7819
0.276, 1, 33.632, 51.7283, -9.75581, 91.6484, -72.5373, 36.8314
0.28, 1, 33.6476, 51.7036, -9.78548, 91.6882, -72.3932, 36.8808
0.284, 1, 33.6633, 51.679, -9.81509, 91.7279, -72.2493, 36.9301
0.288, 1, 33.6789, 51.6544, -9.84465, 91.7675, -72.1057, 36.9794
0.292, 1, 33.6945, 51.6298, -9.87416, 91.8071, -71.9623, 37.0285
0.296, 1, 33.71, 51.6053, -9.90362, 91.8466, -71.8191, 37.0776
0.3, 1, 33.7255, 51.5808, -9.93303, 91.8861, -71.6763, 37.1265
0.304, 1, 33.741, 51.5563, -9.96238, 91.9255, -71.5336, 37.1754
0.308, 1, 33.7565, 51.5319, -9.99169, 91.9648, -71.3913, 37.2242
0.312, 1, 33.7719, 51.5076, -10.0209, 92.004, -71.2491, 37.273
0.316, 1, 33.7873, 51.4833, -10.0501, 92.0432, -71.1073, 37.3216
0.32, 1, 33.8027, 51.459, -10.0793, 92.0823, -70.9656, 37.3702
0.324, 1, 33.8181, 51.4348, -10.1084, 92.1213, -70.8242, 37.4186
0.328, 1, 33.8334, 51.4106, -10.1375, 92.1603, -70.6831, 37.467
0.332, 1, 33.8487, 51.3864, -10.1665, 92.1992, -70.5422, 37.5153
0.336, 1, 33.864, 51.3623, -10.1954, 92.238, -70.4015, 37.5636
0.34, 1, 33.8793, 51.3383, -10.2243, 92.2768, -70.261, 37.6117
0.344, 1, 33.8945, 51.3142, -10.2532, 92.3155, -70.1209, 37.6598
0.348, 1, 33.9097, 51.2903, -10.282, 92.3541, -69.9809, 37.7077
0.352, 1, 33.9249, 51.2663, -10.3107, 92.3927, -69.8412, 37.7556
0.356, 1, 33.94, 51.2424, -10.3394, 92.4312, -69.7017, 37.8034
0.36, 1, 33.9552, 51.2186, -10.3681, 92.4696, -69.5624, 37.8512
0.364, 1, 33.9703, 51.1947, -10.3967, 92.508, -69.4234, 37.8988
0.368, 1, 33.9853, 51.171, -10.4253, 92.5463, -69.2846, 37.9464
0.372, 1, 34.0004, 51.1472, -10.4538, 92.5846, -69.1461, 37.9939
0.376, 1, 34.0154, 51.1235, -10.4823, 92.6228, -69.0078, 38.0413
0.38, 1, 34.0304, 51.0998, -10.5107, 92.6609, -68.8697, 38.0887
0.384, 1, 34.0454, 51.0762, -10.5391, 92.6989, -68.7318, 38.1359
0.388, 1, 34.0604, 51.0526, -10.5674, 92.7369, -68.5941, 38.1831
0.392, 1, 34.0753, 51.0291, -10.5957, 92.7749, -68.4567, 38.2302
0.396, 1, 34.0902, 51.0056, -10.6239, 92.8127, -68.3195, 38.2773
0.4, 1, 34.1051, 50.9821, -10.6521, 92.8506, -68.1825, 38.3242
0.404, 1, 34.1199, 50.9587, -10.6803, 92.8883, -68.0458, 38.3711
0.408, 1, 34.1348, 50.9353, -10.7084, 92.926, -67.9093, 38.4179
0.412, 1, 34.1496, 50.9119, -10.7364, 92.9636, -67.773, 38.4646
0.416, 1, 34.1643, 50.8886, -10.7644, 93.0012, -67.6369, 38.5113
0.42, 1, 34.1791, 50.8653, -10.7924, 93.0387, -67.501, 38.5579
0.424, 1, 34.1938, 50.8421, -10.8203, 93.0762, -67.3653, 38.6044
0.428, 1, 34.2086, 50.8189, -10.8482, 93.1136, -67.2299, 38.6508
0.432, 1, 34.2232, 50.7957, -10.876, 93.1509, -67.0947, 38.6971
0.436, 1, 34.2379, 50.7726, -10.9038, 93.1881, -66.9597, 38.7434
0.44, 1, 34.2526, 50.7495, -10.9315, 93.2254, -66.8249, 38.7896
0.444, 1, 34.2672, 50.7264, -10.9592, 93.2625, -66.6903, 38.8358
0.448, 1, 34.2818, 50.7034, -10.9869, 93.2996, -66.5559, 38.8818
0.452, 1, 34.2964, 50.6804, -11.0145, 93.3367, -66.4217, 38.9278
0.456, 1, 34.3109, 50.6574, -11.0421, 93.3736, -66.2878, 38.9738
0.46, 1, 34.3254, 50.6345, -11.0696, 93.4106, -66.154, 39.0196
0.464, 1, 34.3399, 50.6116, -11.0971, 93.4474, -66.0204, 39.0654
0.468, 1, 34.3544, 50.5888, -11.1246, 93.4842, -65.8871, 39.1111
0.472, 1, 34.3689, 50.566, -11.152, 93.521, -65.754, 39.1567
0.476, 1, 34.3833, 50.5432, -11.1793, 93.5577, -65.621, 39.2023
0.48, 1, 34.3978, 50.5204, -11.2066, 93.5943, -65.4883, 39.2478
0.484, 1, 34.4121, 50.4977, -11.2339, 93.6309, -65.3558, 39.2933
0.488, 1, 34.4265, 50.475, -11.2612, 93.6675, -65.2234, 39.3386
0.492, 1, 34.4409, 50.4524, -11.2884, 93.7039, -65.0913, 39.3839
0.496, 1, 34.4552, 50.4298, -11.3155, 93.7404, -64.9594, 39.4291
0.5, 1, 34.4695, 50.4072, -11.3426, 93.7767, -64.8276, 39.4743
0.504, 1, 34.4838, 50.3847, -11.3697, 93.813, -64.6961, 39.5194
0.508, 1, 34.4981, 50.3622, -11.3967, 93.8493, -64.5647, 39.5644
0.512, 1, 34.5123, 50.3397, -11.4237, 93.8855, -64.4336, 39.6094
0.516, 1, 34.5265, 50.3173, -11.4507, 93.9217, -64.3026, 39.6543
0.52, 1, 34.5408, 50.2949, -11.4776, 93.9578, -64.1719, 39.6991
0.524, 1, 34.5549, 50.2725, -11.5045, 93.9938, -64.0413, 39.7439
0.528, 1, 34.5691, 50.2501, -11.5313, 94.0298, -63.9109, 39.7886
0.532, 1, 34.5832, 50.2278, -11.5581, 94.0657, -63.7807, 39.8332
0.536, 1, 34.5974, 50.2056, -11.5848, 94.1016, -63.6507, 39.8777
0.54, 1, 34.6115, 50.1833, -11.6116, 94.1375, -63.5209, 39.9222
0.544, 1, 34.6255, 50.1611, -11.6382, 94.1732, -63.3913, 39.9667
0.548, 1, 34.6396, 50.1389, -11.6649, 94.209, -63.2619, 40.0111
0.552, 1, 34.6536, 50.1168, -11.6915, 94.2447, -63.1326, 40.0554
0.556, 1, 34.6677, 50.0947, -11.718, 94.2803, -63.0036, 40.0996
0.56, 1, 34.6817, 50.0726, -11.7446, 94.3159, -62.8747, 40.1438
0.564, 1, 34.6956, 50.0505, -11.7711, 94.3514, -62.746, 40.1879
0.568, 1, 34.7096, 50.0285, -11.7975, 94.3869, -62.6175, 40.2319
0.572, 1, 34.7235, 50.0065, -11.8239, 94.4223, -62.4892, 40.2759
0.576, 1, 34.7375, 49.9846, -11.8503, 94.4577, -62.361, 40.3199
0.58, 1, 34.7514, 49.9626, -11.8766, 94.493, -62.2331, 40.3637
0.584, 1, 34.7652, 49.9407, -11.9029, 94.5283, -62.1053, 40.4075
0.588, 1, 34.7791, 49.9189, -11.9292, 94.5635, -61.9777, 40.4513
0.592, 1, 34.7929, 49.897, -11.9554, 94.5987, -61.8503, 40.495
0.596, 1, 34.8068, 49.8752, -11.9816, 94.6338, -61.723, 40.5386
0.6, 1, 34.8206, 49.8535, -12.0078, 94.6689, -61.5959, 40.5821
0.604, 1, 34.8343, 49.8317, -12.0339, 94.7039, -61.4691, 40.6256
0.608, 1, 34.8481, 49.81, -12.06, 94.7389, -61.3423, 40.6691
0.612, 1, 34.8618, 49.7883, -12.086, 94.7738, -61.2158, 40.7125
0.616, 1, 34.8756, 49.7667, -12.112, 94.8087, -61.0894, 40.7558
0.62, 1, 34.8893, 49.7451, -12.138, 94.8435, -60.9632, 40.799
0.624, 1, 34.903, 49.7235, -12.1639, 94.8783, -60.8372, 40.8422
0.628, 1, 34.9166, 49.7019, -12.1898, 94.9131, -60.7114, 40.8854
0.632, 1, 34.9303, 49.6804, -12.2157, 94.9478, -60.5857, 40.9284
0.636, 1, 34.9439, 49.6589, -12.2415, 94.9824, -60.4602, 40.9715
0.64, 1, 34.9575, 49.6374, -12.2673, 95.017, -60.3349, 41.0144
0.644, 1, 34.9711, 49.6159, -12.2931, 95.0516, -60.2097, 41.0573
0.648, 1, 34.9847, 49.5945, -12.3188, 95.0861, -60.0847, 41.1002
0.652, 1, 34.9983, 49.5731, -12.3445, 95.1205, -59.9599, 41.143
0.656, 1, 35.0118, 49.5518, -12.3701, 95.1549, -59.8352, 41.1857
0.66, 1, 35.0253, 49.5304, -12.3958, 95.1893, -59.7107, 41.2284
0.664, 1, 35.0388, 49.5091, -12.4214, 95.2236, -59.5864, 41.271
0.668, 1, 35.0523, 49.4879, -12.4469, 95.2579, -59.4622, 41.3136
0.672, 1, 35.0658, 49.4666, -12.4724, 95.2921, -59.3382, 41.3561
0.676, 1, 35.0792, 49.4454, -12.4979, 95.3263, -59.2144, 41.3985
0.68, 1, 35.0927, 49.4242, -12.5234, 95.3605, -59.0907, 41.4409
0.684, 1, 35.1061, 49.4031, -12.5488, 95.3946, -58.9672, 41.4833
0.688, 1, 35.1195, 49.3819, -12.5742, 95.4286, -58.8439, 41.5256
0.692, 1, 35.1329, 49.3608, -12.5995, 95.4626, -58.7207, 41.5678
0.696, 1, 35.1462, 49.3397, -12.6249, 95.4966, -58.5977, 41.61
0.7, 1, 35.1596, 49.3187, -12.6501, 95.5305, -58.4748, 41.6521
0.704, 1, 35.1729, 49.2977, -12.6754, 95.5644, -58.3521, 41.6941
0.708, 1, 35.1862, 49.2767, -12.7006, 95.5982, -58.2296, 41.7361
0.712, 1, 35.1995, 49.2557, -12.7258, 95.632, -58.1072, 41.7781
0.716, 1, 35.2128, 49.2347, -12.751, 95.6657, -57.985, 41.82
0.72, 1, 35.226, 49.2138, -12.7761, 95.6994, -57.8629, 41.8618
0.724, 1, 35.2393, 49.1929, -12.8012, 95.7331, -57.741, 41.9036
0.728, 1, 35.2525, 49.1721, -12.8262, 95.7667, -57.6192, 41.9454
0.732, 1, 35.2657, 49.1512, -12.8513, 95.8003, -57.4976, 41.9871
0.736, 1, 35.2789, 49.1304, -12.8763, 95.8338, -57.3762, 42.0287
0.74, 1, 35.2921, 49.1097, -12.9012, 95.8673, -57.2549, 42.0703
0.744, 1, 35.3052, 49.0889, -12.9262, 95.9007, -57.1338, 42.1118
0.748, 1, 35.3184, 49.0682, -12.9511, 95.9341, -57.0128, 42.1533
0.752, 1, 35.3315, 49.0475, -12.9759, 95.9675, -56.8919, 42.1947
0.756, 1, 35.3446, 49.0268, -13.0008, 96.0008, -56.7712, 42.2361
0.76, 1, 35.3577, 49.0061, -13.0256, 96.0341, -56.6507, 42.2774
0.764, 1, 35.3708, 48.9855, -13.0504, 96.0673, -56.5303, 42.3187
0.768, 1, 35.3838, 48.9649, -13.0751, 96.1005, -56.4101, 42.3599
0.772, 1, 35.3969, 48.9443, -13.0998, 96.1336, -56.29, 42.401
0.776, 1, 35.4099, 48.9238, -13.1245, 96.1667, -56.1701, 42.4422
0.78, 1, 35.4229, 48.9032, -13.1492, 96.1998, -56.0503, 42.4832
0.784, 1, 35.4359, 48.8827, -13.1738, 96.2328, -55.9306, 42.5242
0.788, 1, 35.4489, 48.8623, -13.1984, 96.2658, -55.8112, 42.5652
0.792, 1, 35.4619, 48.8418, -13.2229, 96.2988, -55.6918, 42.6061
0.796, 1, 35.4748, 48.8214, -13.2475, 96.3317, -55.5726, 42.647
0.8, 1, 35.4877, 48.801, -13.272, 96.3646, -55.4535, 42.6878
0.804, 1, 35.5006, 48.7806, -13.2965, 96.3974, -55.3346, 42.7285
0.808, 1, 35.5136, 48.7603, -13.3209, 96.4302, -55.2159, 42.7693
0.812, 1, 35.5264, 48.7399, -13.3453, 96.4629, -55.0972, 42.8099
0.816, 1, 35.5393, 48.7196, -13.3697, 96.4956, -54.9787, 42.8506
0.82, 1, 35.5522, 48.6994, -13.3941, 96.5283, -54.8604, 42.8911
0.824, 1, 35.565, 48.6791, -13.4184, 96.5609, -54.7422, 42.9316
0.828, 1, 35.5778, 48.6589, -13.4427, 96.5935, -54.6241, 42.9721
0.832, 1, 35.5906, 48.6387, -13.467, 96.6261, -54.5062, 43.0125
0.836, 1, 35.6034, 48.6185, -13.4912, 96.6586, -54.3884, 43.0529
0.84, 1, 35.6162, 48.5983, -13.5154, 96.6911, -54.2707, 43.0933
0.844, 1, 35.629, 48.5782, -13.5396, 96.7235, -54.1532, 43.1335
0.848, 1, 35.6417, 48.5581, -13.5638, 96.7559, -54.0358, 43.1738
0.852, 1, 35.6545, 48.538, -13.5879, 96.7883, -53.9186, 43.214
0.856, 1, 35.6672, 48.5179, -13.612, 96.8206, -53.8015, 43.2541
0.86, 1, 35.6799, 48.4979, -13.6361, 96.8529, -53.6845, 43.2942
0.864, 1, 35.6925, 48.4779, -13.6601, 96.8852, -53.5677, 43.3343
0.868, 1, 35.7051, 48.458, -13.6841, 96.9174, -53.451, 43.3743
0.872, 1, 35.7176, 48.4381, -13.7081, 96.9496, -53.3345, 43.4142
0.876, 1, 35.73, 48.4184, -13.7321, 96.9817, -53.2181, 43.4541
0.88, 1, 35.7419, 48.3992, -13.756, 97.0137, -53.102, 43.4939
0.884, 1, 35.7533, 48.3805, -13.7798, 97.0457, -52.9863, 43.5336
0.888, 1, 35.7641, 48.3627, -13.8035, 97.0775, -52.8712, 43.5731
0.892, 1, 35.7742, 48.3457, -13.8269, 97.109, -52.757, 43.6122
0.896, 1, 35.7836, 48.3297, -13.8501, 97.1401, -52.6444, 43.6508
0.9, 1, 35.7924, 48.3145, -13.8728, 97.1706, -52.534, 43.6887
0.904, 1, 35.8007, 48.3002, -13.895, 97.2003, -52.4264, 43.7256
0.908, 1, 35.8087, 48.2866, -13.9163, 97.229, -52.3226, 43.7613
0.912, 1, 35.8164, 48.2736, -13.9367, 97.2564, -52.2234, 43.7953
0.916, 1, 35.8238, 48.2613, -13.956, 97.2823, -52.1296, 43.8275
0.92, 1, 35.8309, 48.2497, -13.9741, 97.3065, -52.042, 43.8576
0.924, 1, 35.8377, 48.2387, -13.9907, 97.3288, -51.9612, 43.8853
0.928, 1, 35.8442, 48.2281, -14.0057, 97.3491, -51.888, 43.9104
0.932, 1, 35.8507, 48.2178, -14.0192, 97.3671, -51.8226, 43.9328
0.936, 1, 35.8571, 48.2077, -14.031, 97.3829, -51.7653, 43.9524
0.94, 1, 35.8634, 48.1979, -14.0412, 97.3966, -51.716, 43.9693
0.944, 1, 35.8695, 48.1884, -14.0498, 97.4081, -51.6743, 43.9836
0.948, 1, 35.8755, 48.1793, -14.0569, 97.4175, -51.6399, 43.9954
0.952, 2, 35.8812, 48.1708, -14.0626, 97.4252, -51.612, 44.0049
0.956, 2, 35.8865, 48.1631, -14.0672, 97.4313, -51.5899, 44.0124
0.96, 2, 35.8915, 48.1562, -14.0707, 97.436, -51.5728, 44.0183
0.964, 2, 35.896, 48.1502, -14.0734, 97.4396, -51.5598, 44.0227
0.968, 2, 35.9001, 48.145, -14.0754, 97.4422, -51.5503, 44.0259
0.972, 2, 35.9037, 48.1406, -14.0768, 97.4441, -51.5433, 44.0283
0.976, 2, 35.9067, 48.1371, -14.0778, 97.4454, -51.5385, 44.0299
0.98, 2, 35.9091, 48.1343, -14.0785, 97.4463, -51.5351, 44.0311
0.984, 2, 35.911, 48.1323, -14.079, 97.4469, -51.5327, 44.0319
0.988, 2, 35.9123, 48.1308, -14.0793, 97.4474, -51.5312, 44.0324
0.992, 2, 35.9132, 48.1299, -14.0796, 97.4477, -51.5301, 44.0328
0.996, 2, 35.9138, 48.1292, -14.0797, 97.4479, -51.5294, 44.033
1, 2, 35.9142, 48.1287, -14.0798, 97.448, -51.5289, 44.0332
1.004, 2, 35.9145, 48.1284, -14.0799, 97.4481, -51.5285, 44.0333
1.008, 2, 35.9147, 48.1282, -14.0799, 97.4482, -51.5283, 44.0334
1.012, 2, 35.9149, 48.1281, -14.08, 97.4482, -51.5282, 44.0334
1.016, 2, 35.9149, 48.128, -14.08, 97.4482, -51.5281, 44.0335
1.02, 2, 35.915, 48.1279, -14.08, 97.4482, -51.528, 44.0335
1.024, 2, 35.915, 48.1279, -14.08, 97.4483, -51.5279, 44.0335
1.027, 2, 35.9151, 48.1278, -14.08, 97.4483, -51.5279, 44.0335
1.032, 2, 35.9151, 48.1278, -14.08, 97.4483, -51.5279, 44.0335
1.036, 2, 35.9151, 48.1278, -14.08, 97.4483, -51.5279, 44.0335
1.04, 2, 35.9151, 48.1278, -14.08, 97.4483, -51.5279, 44.0335
1.044, 2, 35.9151, 48.1278, -14.08, 97.4483, -51.5279, 44.0335
1.048, 2, 35.9151, 48.1278, -14.08, 97.4483, -51.5279, 44.0335
1.052, 2, 35.9151, 48.1278, -14.08, 97.4483, -51.5278, 44.0335
1.055, 2, 35.9151, 48.1278, -14.08, 97.4483, -51.5278, 44.0335
1.06, 2, 35.9151, 48.1278, -14.08, 97.4483, -51.5278, 44.0335
1.064, 2, 35.9151, 48.1278, -14.08, 97.4483, -51.5278, 44.0335
1.068, 2, 35.9151, 48.1278, -14.08, 97.4483, -51.5278, 44.0335
1.072, 2, 35.9151, 48.1278, -14.08, 97.4483, -51.5278, 44.0335
1.076, 2, 35.9151, 48.1278, -14.08, 97.4483, -51.5278, 44.0335
1.08, 2, 35.9151, 48.1278, -14.08, 97.4483, -51.5278, 44.0335
1.084, 2, 35.9151, 48.1278, -14.08, 97.4483, -51.5278, 44.0335
1.088, 2, 35.9151, 48.1278, -14.08, 97.4483, -51.5278, 44.0335
1.091, 2, 35.9151, 48.1278, -14.08, 97.4483, -51.5278, 44.0335
1.096, 2, 35.9151, 48.1278, -14.08, 97.4483, -51.5278, 44.0335
1.1, 2, 35.9151, 48.1278, -14.08, 97.4483, -51.5278, 44.0335
1.104, 2, 35.9151, 48.1278, -14.08, 97.4483, -51.5278, 44.0335
1.108, 2, 35.9151, 48.1278, -14.08, 97.4483, -51.5278, 44.0335
1.112, 2, 35.9151, 48.1278, -14.08, 97.4483, -51.5278, 44.0335
1.116, 2, 35.9151, 48.1278, -14.08, 97.4483, -51.5278, 44.0335
1.119, 2, 35.9151, 48.1278, -14.08, 97.4483, -51.5278, 44.0335
1.124, 2, 35.9151, 48.1278, -14.08, 97.4483, -51.5278, 44.0335
1.128, 2, 35.9151, 48.1278, -14.08, 97.4483, -51.5278, 44.0335
1.132, 2, 35.9151, 48.1278, -14.08, 97.4483, -51.5278, 44.0335
1.136, 2, 35.9151, 48.1278, -14.08, 97.4483, -51.5278, 44.0335
1.14, 2, 35.9151, 48.1278, -14.08, 97.4483, -51.5278, 44.0335
1.144, 2, 35.9151, 48.1278, -14.08, 97.4483, -51.5278, 44.0335
1.147, 2, 35.9151, 48.1278, -14.08, 97.4483, -51.5278, 44.0335
1.152, 2, 35.9151, 48.1278, -14.08, 97.4483, -51.5278, 44.0335
1.156, 2, 35.9151, 48.1278, -14.08, 97.4483, -51.5278, 44.0335
1.16, 2, 35.9151, 48.1278, -14.08, 97.4483, -51.5278, 44.0335
1.164, 2, 35.9151, 48.1278, -14.08, 97.4483, -51.5278, 44.0335
1.168, 2, 35.9151, 48.1278, -14.08, 97.4483, -51.5278, 44.0335
1.172, 2, 35.9151, 48.1278, -14.08, 97.4483, -51.5278, 44.0335
1.175, 2, 35.9151, 48.1278, -14.08, 97.4483, -51.5278, 44.0335
1.18, 2, 35.9151, 48.1278, -14.08, 97.4483, -51.5278, 44.0335
1.184, 2, 35.9151, 48.1278, -14.08, 97.4483, -51.5278, 44.0335
1.188, 2, 35.9151, 48.1278, -14.08, 97.4483, -51.5278, 44.0335
1.192, 2, 35.9151, 48.1278, -14.08, 97.4483, -51.5278, 44.0335
1.196, 2, 35.9151, 48.1278, -14.08, 97.4483, -51.5278, 44.0335
1.2, 2, 35.9151, 48.1278, -14.08, 97.4483, -51.5278, 44.0335
1.204, 2, 35.9151, 48.1278, -14.08, 97.4483, -51.5278, 44.0335
1.208, 2, 35.9151, 48.1278, -14.08, 97.4483, -51.5278, 44.0335
1.212, 2, 35.9151, 48.1278, -14.08, 97.4483, -51.5278, 44.0335
1.216, 2, 35.9151, 48.1278, -14.08, 97.4483, -51.5278, 44.0335
1.22, 2, 35.9151, 48.1278, -14.08, 97.4483, -51.5278, 44.0335
1.224, 2, 35.9151, 48.1278, -14.08, 97.4483, -51.5278, 44.0335
1.228, 2, 35.9151, 48.1278, -14.08, 97.4483, -51.5278, 44.0335
1.232, 2, 35.9151, 48.1278, -14.08, 97.4483, -51.5278, 44.0335
1.236, 2, 35.9151, 48.1278, -14.08, 97.4483, -51.5278, 44.0335
1.24, 2, 35.9151, 48.1278, -14.08, 97.4483, -51.5278, 44.0335
1.244, 2, 35.9151, 48.1278, -14.08, 97.4483, -51.5278, 44.0335
1.248, 2, 35.9151, 48.1278, -14.08, 97.4483, -51.5278, 44.0335
1.252, 2, 35.9151, 48.1278, -14.08, 97.4483, -51.5278, 44.0335
1.256, 2, 35.9151, 48.1278, -14.08, 97.4483, -51.5278, 44.0335
1.26, 2, 35.9151, 48.1278, -14.08, 97.4483, -51.5278, 44.0335
1.264, 2, 35.9151, 48.1278, -14.08, 97.4483, -51.5278, 44.0335
1.267, 2, 35.9151, 48.1278, -14.08, 97.4483, -51.5278, 44.0335
1.272, 2, 35.9151, 48.1278, -14.08, 97.4483, -51.5278, 44.0335
1.276, 2, 35.9151, 48.1278, -14.08, 97.4483, -51.5278, 44.0335
1.28, 2, 35.9151, 48.1278, -14.08, 97.4483, -51.5278, 44.0335
1.284, 2, 35.9151, 48.1278, -14.08, 97.4483, -51.5278, 44.0335
1.288, 2, 35.9151, 48.1278, -14.08, 97.4483, -51.5278, 44.0335
1.292, 2, 35.9151, 48.1278, -14.08, 97.4483, -51.5278, 44.0335
1.295, 2, 35.9151, 48.1278, -14.08, 97.4483, -51.5278, 44.0335
1.3, 2, 35.9151, 48.1278, -14.08, 97.4483, -51.5278, 44.0335
1.304, 2, 35.9151, 48.1278, -14.08, 97.4483, -51.5278, 44.0335
1.308, 2, 35.9151, 48.1278, -14.08, 97.4483, -51.5278, 44.0335
1.312, 2, 35.9151, 48.1278, -14.08, 97.4483, -51.5278, 44.0335
1.316, 2, 35.9151, 48.1278, -14.08, 97.4483, -51.5278, 44.0335
1.32, 2, 35.9151, 48.1278, -14.08, 97.4483, -51.5278, 44.0335
1.324, 2, 35.9151, 48.1278, -14.08, 97.4483, -51.5278, 44.0335
1.328, 2, 35.9151, 48.1278, -14.08, 97.4483, -51.5278, 44.0335
1.332, 2, 35.9151, 48.1278, -14.08, 97.4483, -51.5278, 44.0335
1.336, 2, 35.9151, 48.1278, -14.08, 97.4483, -51.5278, 44.0335
1.34, 2, 35.9151, 48.1278, -14.08, 97.4483, -51.5278, 44.0335
1.344, 2, 35.9151, 48.1278, -14.08, 97.4483, -51.5278, 44.0335
1.348, 2, 35.9151, 48.1278, -14.08, 97.4483, -51.5278, 44.0335
1.352, 2, 35.9151, 48.1278, -14.08, 97.4483, -51.5278, 44.0335
1.356, 2, 35.9151, 48.1278, -14.08, 97.4483, -51.5278, 44.0335
1.36, 2, 35.9151, 48.1278, -14.08, 97.4483, -51.5278, 44.0335
1.364, 2, 35.9151, 48.1278, -14.08, 97.4483, -51.5278, 44.0335
1.368, 2, 35.9151, 48.1278, -14.08, 97.4483, -51.5278, 44.0335
1.372, 2, 35.9151, 48.1278, -14.08, 97.4483, -51.5278, 44.0335
1.376, 2, 35.9151, 48.1278, -14.08, 97.4483, -51.5278, 44.0335
1.38, 2, 35.9151, 48.1278, -14.08, 97.4483, -51.5278, 44.0335
1.384, 2, 35.9151, 48.1278, -14.08, 97.4483, -51.5278, 44.0335
1.388, 2, 35.9151, 48.1278, -14.08, 97.4483, -51.5278, 44.0335
1.392, 2, 35.9151, 48.1278, -14.08, 97.4483, -51.5278, 44.0335
1.396, 2, 35.9151, 48.1278, -14.08, 97.4483, -51.5278, 44.0335
1.4, 2, 35.9151, 48.1278, -14.08, 97.4483, -51.5278, 44.0335
1.404, 2, 35.9151, 48.1278, -14.08, 97.4483, -51.5278, 44.0335
1.408, 2, 35.9151, 48.1278, -14.08, 97.4483, -51.5278, 44.0335
1.412, 2, 35.9151, 48.1278, -14.08, 97.4483, -51.5278, 44.0335
1.416, 2, 35.9151, 48.1278, -14.08, 97.4483, -51.5278, 44.0335
1.42, 2, 35.9151, 48.1278, -14.08, 97.4483, -51.5278, 44.0335
1.424, 2, 35.9151, 48.1278, -14.08, 97.4483, -51.5278, 44.0335
1.428, 2, 35.9151, 48.1278, -14.08, 97.4483, -51.5278, 44.0335
1.432, 2, 35.9151, 48.1278, -14.08, 97.4483, -51.5278, 44.0335
1.436, 2, 35.9151, 48.1278, -14.08, 97.4483, -51.5278, 44.0335
1.44, 2, 35.9151, 48.1278, -14.08, 97.4483, -51.5278, 44.0335
1.444, 2, 35.9151, 48.1278, -14.08, 97.4483, -51.5278, 44.0335
1.448, 2, 35.9151, 48.1278, -14.08, 97.4483, -51.5278, 44.0335
1.452, 3, 35.9151, 48.1278, -14.08, 97.4483, -51.5278, 44.0335
1.456, 3, 35.9151, 48.1278, -14.08, 97.4483, -51.5278, 44.0335
1.46, 3, 35.9151, 48.1278, -14.08, 97.4483, -51.5278, 44.0335
1.464, 3, 35.9151, 48.1278, -14.08, 97.4483, -51.5278, 44.0335
1.468, 3, 35.9151, 48.1278, -14.08, 97.4483, -51.5278, 44.0335
1.472, 3, 35.9151, 48.1278, -14.08, 97.4483, -51.5278, 44.0335
1.476, 3, 35.9151, 48.1278, -14.08, 97.4483, -51.5278, 44.0335
1.48, 3, 35.9151, 48.1278, -14.08, 97.4483, -51.5278, 44.0335
1.484, 3, 35.9151, 48.1278, -14.08, 97.4483, -51.5278, 44.0335
1.488, 3, 35.9151, 48.1278, -14.08, 97.4483, -51.5278, 44.0335
1.492, 3, 35.9151, 48.1278, -14.08, 97.4483, -51.5278, 44.0335
1.496, 3, 35.9151, 48.1278, -14.08, 97.4483, -51.5278, 44.0335
1.5, 3, 35.9151, 48.1278, -14.08, 97.4483, -51.5278, 44.0335
1.504, 3, 35.9151, 48.1278, -14.08, 97.4483, -51.5278, 44.0335
1.508, 4, 35.9151, 48.1278, -14.08, 97.4483, -51.5278, 44.0335
1.512, 4, 35.9151, 48.1278, -14.08, 97.4483, -51.5278, 44.0335
1.516, 4, 35.9151, 48.1278, -14.08, 97.4483, -51.5278, 44.0335
1.52, 4, 35.9151, 48.1278, -14.08, 97.4483, -51.5278, 44.0335
1.524, 4, 35.9151, 48.1278, -14.08, 97.4483, -51.5278, 44.0335
1.528, 4, 35.9151, 48.1278, -14.08, 97.4483, -51.5278, 44.0335
1.532, 4, 35.9151, 48.1278, -14.08, 97.4483, -51.5278, 44.0335
1.536, 4, 35.9151, 48.1278, -14.08, 97.4483, -51.5278, 44.0335
1.54, 4, 35.9151, 48.1278, -14.08, 97.4483, -51.5278, 44.0335
1.544, 4, 35.9151, 48.1278, -14.08, 97.4483, -51.5278, 44.0335
1.548, 4, 35.915, 48.128, -14.08, 97.4483, -51.5279, 44.0335
1.552, 4, 35.9148, 48.1283, -14.08, 97.4483, -51.5279, 44.0335
1.556, 4, 35.9144, 48.1291, -14.08, 97.4483, -51.5281, 44.0334
1.56, 4, 35.9137, 48.1303, -14.08, 97.4482, -51.5284, 44.0333
1.564, 4, 35.9128, 48.1322, -14.0799, 97.4481, -51.5292, 44.033
1.568, 4, 35.9115, 48.1347, -14.0798, 97.4478, -51.5306, 44.0325
1.572, 4, 35.91, 48.138, -14.0797, 97.4474, -51.533, 44.0316
1.576, 4, 35.9082, 48.1421, -14.0795, 97.4468, -51.5369, 44.0301
1.58, 4, 35.9062, 48.1471, -14.0792, 97.4458, -51.5427, 44.0279
1.584, 4, 35.904, 48.1531, -14.0787, 97.4444, -51.5512, 44.0247
1.588, 4, 35.9016, 48.1601, -14.0781, 97.4425, -51.5628, 44.0202
1.592, 4, 35.899, 48.1684, -14.0773, 97.4398, -51.5784, 44.0143
1.596, 4, 35.8962, 48.1778, -14.0762, 97.4364, -51.5987, 44.0066
1.6, 4, 35.8932, 48.1882, -14.0749, 97.432, -51.6243, 43.9968
1.604, 4, 35.8902, 48.1996, -14.0732, 97.4266, -51.656, 43.9848
1.608, 4, 35.8872, 48.2118, -14.0712, 97.42, -51.6942, 43.9702
1.612, 4, 35.8843, 48.2248, -14.0688, 97.4122, -51.7394, 43.953
1.616, 4, 35.8814, 48.2385, -14.066, 97.4031, -51.7919, 43.9331
1.62, 4, 35.8785, 48.2529, -14.0628, 97.3927, -51.8515, 43.9105
1.624, 4, 35.8756, 48.2683, -14.0591, 97.381, -51.9181, 43.8853
1.628, 4, 35.8726, 48.2847, -14.0551, 97.3681, -51.9914, 43.8575
1.632, 4, 35.8695, 48.302, -14.0506, 97.354, -52.0709, 43.8274
1.636, 4, 35.8662, 48.3204, -14.0458, 97.3389, -52.1561, 43.7952
1.64, 4, 35.8629, 48.3397, -14.0406, 97.3228, -52.2463, 43.7612
1.644, 4, 35.8594, 48.3599, -14.035, 97.3058, -52.3407, 43.7256
1.648, 4, 35.8557, 48.381, -14.0292, 97.288, -52.4388, 43.6887
1.652, 4, 35.8517, 48.4031, -14.023, 97.2696, -52.5396, 43.6507
1.656, 4, 35.8475, 48.4262, -14.0166, 97.2507, -52.6427, 43.612
1.66, 4, 35.8428, 48.4502, -14.01, 97.2314, -52.7475, 43.5728
1.664, 4, 35.8378, 48.4751, -14.0031, 97.2117, -52.8534, 43.5331
1.668, 4, 35.8324, 48.5007, -13.9961, 97.1917, -52.9601, 43.4933
1.672, 4, 35.8268, 48.5269, -13.9888, 97.1715, -53.0674, 43.4533
1.676, 4, 35.8209, 48.5535, -13.9814, 97.1511, -53.175, 43.4132
1.68, 4, 35.8148, 48.5803, -13.9739, 97.1305, -53.2828, 43.3731
1.684, 4, 35.8086, 48.6072, -13.9661, 97.1097, -53.3907, 43.3331
1.688, 4, 35.8023, 48.6342, -13.9582, 97.0887, -53.4987, 43.2931
1.692, 4, 35.796, 48.6613, -13.9502, 97.0676, -53.6068, 43.2531
1.696, 4, 35.7895, 48.6883, -13.942, 97.0463, -53.7148, 43.2132
1.7, 4, 35.783, 48.7152, -13.9336, 97.0248, -53.8228, 43.1734
1.704, 4, 35.7764, 48.7421, -13.9251, 97.0033, -53.9308, 43.1337
1.708, 4, 35.7697, 48.7689, -13.9164, 96.9816, -54.0387, 43.094
1.712, 4, 35.7631, 48.7957, -13.9076, 96.9597, -54.1466, 43.0544
1.716, 4, 35.7563, 48.8224, -13.8986, 96.9377, -54.2545, 43.0149
1.72, 4, 35.7495, 48.849, -13.8895, 96.9155, -54.3623, 42.9755
1.724, 4, 35.7426, 48.8755, -13.8802, 96.8932, -54.4701, 42.9361
1.728, 4, 35.7357, 48.902, -13.8707, 96.8708, -54.5778, 42.8969
1.732, 4, 35.7288, 48.9283, -13.8611, 96.8482, -54.6854, 42.8577
1.736, 4, 35.7218, 48.9546, -13.8514, 96.8255, -54.793, 42.8186
1.74, 4, 35.7147, 48.9808, -13.8415, 96.8027, -54.9005, 42.7796
1.744, 4, 35.7076, 49.0069, -13.8314, 96.7797, -55.008, 42.7406
1.748, 4, 35.7005, 49.0329, -13.8212, 96.7566, -55.1155, 42.7017
1.752, 4, 35.6932, 49.0588, -13.8108, 96.7333, -55.2228, 42.6629
1.756, 4, 35.686, 49.0846, -13.8003, 96.71, -55.3301, 42.6242
1.76, 4, 35.6787, 49.1103, -13.7896, 96.6865, -55.4374, 42.5856
1.764, 4, 35.6713, 49.136, -13.7787, 96.6628, -55.5446, 42.547
1.768, 4, 35.6639, 49.1615, -13.7677, 96.639, -55.6518, 42.5085
1.772, 4, 35.6565, 49.187, -13.7566, 96.6151, -55.7589, 42.4701
1.776, 4, 35.649, 49.2124, -13.7453, 96.5911, -55.8659, 42.4317
1.78, 4, 35.6414, 49.2377, -13.7338, 96.5669, -55.9729, 42.3934
1.784, 4, 35.6338, 49.2629, -13.7222, 96.5426, -56.0798, 42.3552
1.788, 4, 35.6262, 49.288, -13.7104, 96.5182, -56.1867, 42.3171
1.792, 4, 35.6185, 49.313, -13.6985, 96.4937, -56.2936, 42.279
1.796, 4, 35.6107, 49.338, -13.6864, 96.469, -56.4003, 42.241
1.8, 4, 35.6029, 49.3628, -13.6742, 96.4442, -56.507, 42.2031
1.804, 4, 35.5951, 49.3875, -13.6618, 96.4192, -56.6137, 42.1652
1.808, 4, 35.5872, 49.4122, -13.6492, 96.3942, -56.7203, 42.1274
1.812, 4, 35.5793, 49.4368, -13.6365, 96.369, -56.8269, 42.0897
1.816, 4, 35.5713, 49.4612, -13.6237, 96.3437, -56.9334, 42.052
1.82, 4, 35.5632, 49.4856, -13.6106, 96.3183, -57.0398, 42.0144
1.824, 4, 35.5552, 49.5099, -13.5975, 96.2927, -57.1462, 41.9769
1.828, 4, 35.547, 49.5341, -13.5842, 96.2671, -57.2526, 41.9394
1.832, 4, 35.5388, 49.5582, -13.5707, 96.2413, -57.3589, 41.902
1.836, 4, 35.5306, 49.5823, -13.557, 96.2153, -57.4651, 41.8646
1.84, 4, 35.5223, 49.6062, -13.5432, 96.1893, -57.5713, 41.8273
1.844, 4, 35.514, 49.63, -13.5293, 96.1632, -57.6774, 41.7901
1.848, 4, 35.5056, 49.6538, -13.5152, 96.1369, -57.7835, 41.753
1.852, 4, 35.4972, 49.6774, -13.501, 96.1105, -57.8895, 41.7158
1.856, 4, 35.4887, 49.701, -13.4865, 96.084, -57.9955, 41.6788
1.86, 4, 35.4802, 49.7244, -13.472, 96.0574, -58.1014, 41.6418
1.864, 4, 35.4716, 49.7478, -13.4573, 96.0306, -58.2073, 41.6049
1.868, 4, 35.463, 49.7711, -13.4424, 96.0038, -58.3131, 41.568
1.872, 4, 35.4543, 49.7943, -13.4274, 95.9768, -58.4189, 41.5312
1.876, 4, 35.4456, 49.8174, -13.4122, 95.9497, -58.5246, 41.4944
1.88, 4, 35.4369, 49.8404, -13.3968, 95.9225, -58.6303, 41.4577
1.884, 4, 35.428, 49.8633, -13.3813, 95.8952, -58.7359, 41.421
1.888, 4, 35.4192, 49.8861, -13.3657, 95.8677, -58.8414, 41.3844
1.892, 4, 35.4103, 49.9088, -13.3499, 95.8402, -58.9469, 41.3479
1.896, 4, 35.4013, 49.9314, -13.3339, 95.8125, -59.0524, 41.3114
1.9, 4, 35.3923, 49.9539, -13.3178, 95.7848, -59.1578, 41.275
1.904, 4, 35.3833, 49.9764, -13.3015, 95.7569, -59.2631, 41.2386
1.908, 4, 35.3742, 49.9987, -13.2851, 95.7289, -59.3684, 41.2022
1.912, 4, 35.365, 50.021, -13.2685, 95.7008, -59.4737, 41.166
1.916, 4, 35.3558, 50.0431, -13.2517, 95.6726, -59.5789, 41.1297
1.92, 4, 35.3466, 50.0652, -13.2348, 95.6443, -59.684, 41.0935
1.924, 4, 35.3373, 50.0871, -13.2178, 95.6158, -59.7891, 41.0574
1.928, 4, 35.3279, 50.109, -13.2006, 95.5873, -59.8941, 41.0213
1.932, 4, 35.3186, 50.1307, -13.1832, 95.5587, -59.9991, 40.9852
1.936, 4, 35.3091, 50.1524, -13.1657, 95.5299, -60.104, 40.9493
1.94, 4, 35.2996, 50.174, -13.148, 95.501, -60.2089, 40.9133
1.944, 4, 35.2901, 50.1954, -13.1301, 95.4721, -60.3138, 40.8774
1.948, 4, 35.2805, 50.2168, -13.1121, 95.443, -60.4185, 40.8415
1.952, 4, 35.2709, 50.2381, -13.094, 95.4138, -60.5233, 40.8057
1.956, 4, 35.2612, 50.2593, -13.0757, 95.3846, -60.628, 40.7699
1.96, 4, 35.2515, 50.2804, -13.0572, 95.3552, -60.7326, 40.7342
1.964, 4, 35.2418, 50.3013, -13.0386, 95.3257, -60.8372, 40.6985
1.968, 4, 35.2319, 50.3222, -13.0198, 95.2961, -60.9417, 40.6629
1.972, 4, 35.2221, 50.343, -13.0009, 95.2664, -61.0462, 40.6273
1.976, 4, 35.2122, 50.3637, -12.9818, 95.2366, -61.1506, 40.5917
1.98, 4, 35.2022, 50.3843, -12.9625, 95.2067, -61.255, 40.5562
1.984, 4, 35.1922, 50.4048, -12.9431, 95.1767, -61.3593, 40.5207
1.988, 4, 35.1822, 50.4252, -12.9235, 95.1466, -61.4636, 40.4853
1.992, 4, 35.1721, 50.4455, -12.9038, 95.1164, -61.5678, 40.4499
1.996, 4, 35.1619, 50.4657, -12.8839, 95.0861, -61.672, 40.4145
1.999, 4, 35.1517, 50.4858, -12.8639, 95.0557, -61.7761, 40.3792
2.004, 4, 35.1415, 50.5058, -12.8437, 95.0252, -61.8802, 40.3439
2.008, 4, 35.1312, 50.5257, -12.8233, 94.9946, -61.9842, 40.3086
2.012, 4, 35.1209, 50.5455, -12.8028, 94.9639, -62.0881, 40.2734
2.015, 4, 35.1105, 50.5652, -12.7821, 94.9331, -62.1921, 40.2382
2.019, 4, 35.1, 50.5847, -12.7613, 94.9022, -62.2959, 40.2031
2.024, 4, 35.0896, 50.6042, -12.7403, 94.8712, -62.3998, 40.168
2.028, 4, 35.0791, 50.6236, -12.7191, 94.8401, -62.5035, 40.1329
2.031, 4, 35.0685, 50.6429, -12.6978, 94.809, -62.6073, 40.0979
2.036, 4, 35.0579, 50.6621, -12.6764, 94.7777, -62.7109, 40.0628
2.04, 4, 35.0472, 50.6812, -12.6547, 94.7463, -62.8146, 40.0279
2.044, 4, 35.0365, 50.7002, -12.6329, 94.7148, -62.9182, 39.9929
2.048, 4, 35.0257, 50.7191, -12.611, 94.6833, -63.0217, 39.958
2.051, 4, 35.0149, 50.7379, -12.5889, 94.6516, -63.1252, 39.9231
2.055, 4, 35.0041, 50.7566, -12.5667, 94.6199, -63.2286, 39.8883
2.06, 4, 34.9932, 50.7751, -12.5443, 94.588, -63.332, 39.8534
2.064, 4, 34.9824, 50.7936, -12.5217, 94.5561, -63.4353, 39.8186
2.068, 4, 34.9717, 50.8117, -12.499, 94.5241, -63.5386, 39.7839
2.071, 4, 34.9612, 50.8296, -12.4761, 94.492, -63.6417, 39.7492
2.076, 4, 34.951, 50.847, -12.4532, 94.4598, -63.7447, 39.7145
2.08, 4, 34.9411, 50.8639, -12.4301, 94.4277, -63.8474, 39.68
2.084, 4, 34.9317, 50.8801, -12.407, 94.3955, -63.9496, 39.6456
2.087, 4, 34.9226, 50.8954, -12.3839, 94.3636, -64.0511, 39.6115
2.092, 4, 34.914, 50.9099, -12.3609, 94.3318, -64.1515, 39.5778
2.096, 4, 34.9057, 50.9236, -12.3382, 94.3004, -64.2505, 39.5445
2.1, 4, 34.8977, 50.9364, -12.3157, 94.2696, -64.3475, 39.5119
2.104, 4, 34.89, 50.9486, -12.2937, 94.2394, -64.442, 39.4802
2.107, 4, 34.8827, 50.96, -12.2724, 94.2103, -64.5334, 39.4495
2.111, 4, 34.8758, 50.9709, -12.2518, 94.1822, -64.6209, 39.4201
2.116, 4, 34.8691, 50.9813, -12.2322, 94.1556, -64.7039, 39.3923
2.12, 4, 34.8627, 50.9912, -12.2138, 94.1306, -64.7816, 39.3662
2.124, 4, 34.8565, 51.0008, -12.1967, 94.1074, -64.8536, 39.342
2.127, 4, 34.8505, 51.01, -12.181, 94.0862, -64.9194, 39.32
2.132, 4, 34.8446, 51.019, -12.1668, 94.0671, -64.9785, 39.3001
2.136, 4, 34.8388, 51.0278, -12.1542, 94.0502, -65.0308, 39.2826
2.14, 4, 34.8331, 51.0362, -12.1432, 94.0354, -65.0763, 39.2673
2.143, 4, 34.8276, 51.0444, -12.1337, 94.0228, -65.1152, 39.2543
2.148, 4, 34.8224, 51.0522, -12.1258, 94.0123, -65.1478, 39.2434
2.152, 5, 34.8174, 51.0598, -12.1192, 94.0036, -65.1746, 39.2344
2.156, 5, 34.8127, 51.067, -12.1139, 93.9966, -65.1962, 39.2272
2.16, 5, 34.8081, 51.0739, -12.1097, 93.9911, -65.2131, 39.2215
2.163, 5, 34.8039, 51.0804, -12.1065, 93.9869, -65.226, 39.2172
2.168, 5, 34.7999, 51.0863, -12.1041, 93.9838, -65.2357, 39.214
2.172, 5, 34.7964, 51.0914, -12.1023, 93.9815, -65.2427, 39.2116
2.176, 5, 34.7933, 51.0956, -12.101, 93.9799, -65.2477, 39.21
2.179, 5, 34.7908, 51.099, -12.1001, 93.9788, -65.2512, 39.2088
2.184, 5, 34.7889, 51.1015, -12.0995, 93.978, -65.2536, 39.208
2.188, 5, 34.7874, 51.1033, -12.0991, 93.9775, -65.2552, 39.2075
2.192, 5, 34.7862, 51.1046, -12.0988, 93.9771, -65.2563, 39.2071
2.196, 5, 34.7852, 51.1058, -12.0986, 93.9769, -65.2571, 39.2068
2.199, 5, 34.7839, 51.107, -12.0985, 93.9767, -65.2578, 39.2066
2.204, 5, 34.7824, 51.1086, -12.0983, 93.9765, -65.2586, 39.2063
2.208, 5, 34.7804, 51.1105, -12.0981, 93.9762, -65.2598, 39.206
2.212, 5, 34.778, 51.1131, -12.0978, 93.9758, -65.2617, 39.2053
2.216, 5, 34.7752, 51.1163, -12.0972, 93.9751, -65.2648, 39.2042
2.219, 5, 34.772, 51.1201, -12.0964, 93.9739, -65.2696, 39.2026
2.224, 5, 34.7685, 51.1246, -12.0951, 93.9723, -65.2768, 39.2001
2.228, 5, 34.7647, 51.1297, -12.0934, 93.9699, -65.287, 39.1966
2.232, 5, 34.7606, 51.1355, -12.091, 93.9667, -65.301, 39.1918
2.235, 5, 34.7562, 51.1421, -12.0878, 93.9625, -65.3194, 39.1854
2.24, 5, 34.7514, 51.1494, -12.0836, 93.957, -65.343, 39.1773
2.244, 5, 34.7463, 51.1573, -12.0785, 93.9502, -65.3723, 39.1672
2.248, 5, 34.7411, 51.1657, -12.0722, 93.9419, -65.408, 39.1549
2.252, 5, 34.7356, 51.1744, -12.0647, 93.932, -65.4505, 39.1402
2.255, 5, 34.73, 51.1835, -12.0559, 93.9204, -65.5, 39.1231
2.259, 5, 34.7243, 51.1929, -12.0458, 93.9072, -65.5565, 39.1037
2.264, 5, 34.7184, 51.2027, -12.0345, 93.8923, -65.62, 39.0818
2.268, 5, 34.7123, 51.213, -12.0219, 93.8757, -65.6901, 39.0577
2.272, 5, 34.7059, 51.2238, -12.0081, 93.8577, -65.7663, 39.0314
2.275, 5, 34.6991, 51.2353, -11.9933, 93.8383, -65.8481, 39.0033
2.28, 5, 34.6919, 51.2475, -11.9774, 93.8176, -65.9349, 38.9734
2.284, 5, 34.6844, 51.2604, -11.9607, 93.7959, -66.026, 38.9421
2.288, 5, 34.6764, 51.2739, -11.9432, 93.7732, -66.1208, 38.9096
2.291, 5, 34.6681, 51.2881, -11.9251, 93.7497, -66.2184, 38.8761
2.296, 5, 34.6593, 51.3029, -11.9064, 93.7255, -66.3185, 38.8418
2.3, 5, 34.6501, 51.3183, -11.8873, 93.7008, -66.4203, 38.807
2.304, 5, 34.6403, 51.3344, -11.8677, 93.6757, -66.5234, 38.7717
2.308, 5, 34.63, 51.3509, -11.8479, 93.6502, -66.6275, 38.7361
2.311, 5, 34.6193, 51.3679, -11.8278, 93.6245, -66.7323, 38.7003
2.316, 5, 34.6082, 51.3851, -11.8075, 93.5986, -66.8374, 38.6645
2.32, 5, 34.5968, 51.4026, -11.7869, 93.5724, -66.9429, 38.6285
2.324, 5, 34.5852, 51.4201, -11.7662, 93.5462, -67.0485, 38.5926
2.328, 5, 34.5734, 51.4377, -11.7453, 93.5197, -67.1542, 38.5566
2.331, 5, 34.5616, 51.4553, -11.7242, 93.4932, -67.26, 38.5207
2.336, 5, 34.5496, 51.4728, -11.703, 93.4665, -67.3658, 38.4847
2.34, 5, 34.5375, 51.4903, -11.6816, 93.4396, -67.4716, 38.4488
2.344, 5, 34.5254, 51.5077, -11.6601, 93.4127, -67.5775, 38.413
2.347, 5, 34.5132, 51.5251, -11.6384, 93.3856, -67.6833, 38.3771
2.352, 5, 34.501, 51.5423, -11.6166, 93.3585, -67.789, 38.3413
2.356, 5, 34.4887, 51.5595, -11.5946, 93.3312, -67.8948, 38.3056
2.36, 5, 34.4763, 51.5765, -11.5724, 93.3038, -68.0005, 38.2699
2.364, 5, 34.464, 51.5935, -11.5502, 93.2763, -68.1062, 38.2342
2.367, 5, 34.4515, 51.6104, -11.5277, 93.2487, -68.2118, 38.1986
2.372, 5, 34.439, 51.6272, -11.5051, 93.221, -68.3174, 38.163
2.376, 5, 34.4265, 51.6439, -11.4824, 93.1931, -68.423, 38.1274
2.38, 5, 34.4139, 51.6605, -11.4595, 93.1652, -68.5285, 38.0919
2.383, 5, 34.4013, 51.677, -11.4364, 93.1371, -68.634, 38.0565
2.388, 5, 34.3886, 51.6934, -11.4132, 93.109, -68.7395, 38.021
2.392, 5, 34.3759, 51.7097, -11.3899, 93.0807, -68.8449, 37.9856
2.396, 5, 34.3632, 51.7259, -11.3664, 93.0524, -68.9503, 37.9503
2.4, 5, 34.3504, 51.742, -11.3427, 93.0239, -69.0556, 37.9149
2.403, 5, 34.3375, 51.758, -11.3189, 92.9953, -69.1609, 37.8797
2.408, 5, 34.3246, 51.7739, -11.295, 92.9666, -69.2662, 37.8444
2.412, 5, 34.3117, 51.7897, -11.2709, 92.9378, -69.3714, 37.8092
2.416, 5, 34.2987, 51.8054, -11.2466, 92.9089, -69.4766, 37.774
2.42, 5, 34.2857, 51.821, -11.2223, 92.8799, -69.5818, 37.7388
2.423, 5, 34.2726, 51.8365, -11.1977, 92.8508, -69.6869, 37.7037
2.428, 5, 34.2595, 51.8519, -11.173, 92.8216, -69.792, 37.6686
2.432, 5, 34.2463, 51.8672, -11.1482, 92.7923, -69.8971, 37.6336
2.436, 5, 34.2331, 51.8824, -11.1232, 92.7629, -70.0021, 37.5986
2.439, 5, 34.2199, 51.8975, -11.0981, 92.7334, -70.1071, 37.5636
2.444, 5, 34.2066, 51.9125, -11.0728, 92.7038, -70.212, 37.5286
2.448, 5, 34.1932, 51.9274, -11.0473, 92.6741, -70.3169, 37.4937
2.452, 5, 34.1798, 51.9422, -11.0218, 92.6442, -70.4218, 37.4588
2.456, 5, 34.1664, 51.9569, -10.996, 92.6143, -70.5266, 37.4239
2.459, 5, 34.1529, 51.9715, -10.9701, 92.5843, -70.6314, 37.3891
2.464, 5, 34.1394, 51.986, -10.9441, 92.5542, -70.7362, 37.3543
2.468, 5, 34.1259, 52.0004, -10.9179, 92.524, -70.8409, 37.3195
2.472, 5, 34.1122, 52.0147, -10.8916, 92.4936, -70.9456, 37.2847
2.476, 5, 34.0986, 52.0289, -10.8652, 92.4632, -71.0503, 37.25
2.479, 5, 34.0849, 52.043, -10.8385, 92.4327, -71.1549, 37.2153
2.484, 5, 34.0712, 52.057, -10.8118, 92.4021, -71.2595, 37.1806
2.488, 5, 34.0574, 52.0709, -10.7849, 92.3714, -71.364, 37.146
2.492, 5, 34.0435, 52.0847, -10.7578, 92.3405, -71.4685, 37.1113
2.495, 5, 34.0297, 52.0984, -10.7306, 92.3096, -71.573, 37.0767
2.5, 5, 34.0157, 52.112, -10.7033, 92.2786, -71.6775, 37.0421
2.504, 5, 34.0018, 52.1255, -10.6758, 92.2475, -71.7819, 37.0076
2.508, 5, 33.9878, 52.1389, -10.6481, 92.2163, -71.8862, 36.973
2.512, 5, 33.9737, 52.1522, -10.6203, 92.185, -71.9906, 36.9385
2.515, 5, 33.9596, 52.1654, -10.5924, 92.1536, -72.0949, 36.904
2.52, 5, 33.9455, 52.1785, -10.5643, 92.1221, -72.1991, 36.8696
2.524, 5, 33.9313, 52.1915, -10.5361, 92.0905, -72.3034, 36.8351
2.528, 5, 33.9171, 52.2044, -10.5077, 92.0588, -72.4076, 36.8007
2.531, 5, 33.9028, 52.2172, -10.4792, 92.027, -72.5117, 36.7663
2.536, 5, 33.8885, 52.2298, -10.4505, 91.9952, -72.6158, 36.7319
2.54, 5, 33.8742, 52.2424, -10.4217, 91.9632, -72.7199, 36.6975
2.544, 5, 33.8598, 52.2549, -10.3927, 91.9311, -72.824, 36.6631
2.548, 5, 33.8453, 52.2673, -10.3636, 91.899, -72.928, 36.6288
2.551, 5, 33.8308, 52.2795, -10.3344, 91.8667, -73.032, 36.5945
2.556, 5, 33.8163, 52.2917, -10.305, 91.8344, -73.1359, 36.5602
2.56, 5, 33.8017, 52.3038, -10.2754, 91.8019, -73.2399, 36.5259
2.564, 5, 33.7871, 52.3157, -10.2457, 91.7694, -73.3437, 36.4916
2.568, 5, 33.7725, 52.3276, -10.2159, 91.7368, -73.4476, 36.4573
2.571, 5, 33.7578, 52.3393, -10.1859, 91.704, -73.5514, 36.4231
2.576, 5, 33.743, 52.351, -10.1558, 91.6712, -73.6552, 36.3888
2.58, 5, 33.7282, 52.3625, -10.1255, 91.6383, -73.7589, 36.3546
2.584, 5, 33.7134, 52.374, -10.0951, 91.6053, -73.8626, 36.3204
2.587, 5, 33.6985, 52.3853, -10.0646, 91.5723, -73.9663, 36.2862
2.592, 5, 33.6836, 52.3966, -10.0338, 91.5391, -74.07, 36.252
2.596, 5, 33.6686, 52.4077, -10.003, 91.5058, -74.1736, 36.2179
2.6, 5, 33.6536, 52.4187, -9.97199, 91.4725, -74.2771, 36.1837
2.604, 5, 33.6386, 52.4296, -9.94085, 91.439, -74.3807, 36.1496
2.607, 5, 33.6235, 52.4404, -9.90956, 91.4055, -74.4842, 36.1154
2.612, 5, 33.6083, 52.4512, -9.87812, 91.3718, -74.5877, 36.0813
2.616, 5, 33.5931, 52.4618, -9.84654, 91.3381, -74.6911, 36.0472
2.62, 5, 33.5779, 52.4723, -9.81482, 91.3043, -74.7945, 36.013
2.624, 5, 33.5627, 52.4827, -9.78295, 91.2704, -74.8979, 35.9789
2.627, 5, 33.5473, 52.4929, -9.75093, 91.2364, -75.0012, 35.9448
2.632, 5, 33.532, 52.5031, -9.71877, 91.2024, -75.1045, 35.9107
2.636, 5, 33.5166, 52.5132, -9.68647, 91.1682, -75.2078, 35.8766
2.64, 5, 33.5012, 52.5232, -9.65402, 91.134, -75.311, 35.8426
2.643, 5, 33.4857, 52.533, -9.62142, 91.0996, -75.4142, 35.8085
2.648, 5, 33.4701, 52.5428, -9.58868, 91.0652, -75.5174, 35.7744
2.652, 5, 33.4546, 52.5524, -9.5558, 91.0307, -75.6206, 35.7403
2.656, 5, 33.439, 52.562, -9.52277, 90.9961, -75.7237, 35.7063
2.66, 5, 33.4233, 52.5714, -9.4896, 90.9614, -75.8267, 35.6722
2.663, 5, 33.4076, 52.5807, -9.45628, 90.9266, -75.9298, 35.6381
2.668, 5, 33.3919, 52.59, -9.42281, 90.8918, -76.0328, 35.6041
2.672, 5, 33.3761, 52.5991, -9.38921, 90.8568, -76.1358, 35.57
2.676, 5, 33.3603, 52.6081, -9.35546, 90.8218, -76.2387, 35.536
2.679, 5, 33.3444, 52.617, -9.32157, 90.7867, -76.3416, 35.5019
2.684, 5, 33.3285, 52.6258, -9.28753, 90.7515, -76.4445, 35.4679
2.688, 5, 33.3126, 52.6345, -9.25335, 90.7162, -76.5474, 35.4338
2.692, 5, 33.2966, 52.6431, -9.21903, 90.6808, -76.6502, 35.3997
2.696, 5, 33.2805, 52.6516, -9.18457, 90.6453, -76.753, 35.3657
2.699, 5, 33.2645, 52.6599, -9.14996, 90.6098, -76.8557, 35.3316
2.704, 5, 33.2484, 52.6682, -9.11522, 90.5742, -76.9584, 35.2976
2.708, 5, 33.2325, 52.6763, -9.08034, 90.5384, -77.0611, 35.2635
2.712, 5, 33.2166, 52.6842, -9.04533, 90.5026, -77.1637, 35.2294
2.716, 5, 33.2011, 52.6919, -9.0102, 90.4668, -77.2662, 35.1954
2.719, 5, 33.1859, 52.6993, -8.97499, 90.4309, -77.3686, 35.1614
2.724, 5, 33.1711, 52.7063, -8.93974, 90.395, -77.4706, 35.1275
2.728, 5, 33.1569, 52.7128, -8.90451, 90.3592, -77.5722, 35.0937
2.732, 5, 33.1432, 52.7187, -8.86941, 90.3236, -77.6731, 35.0601
2.735, 5, 33.1301, 52.7239, -8.83457, 90.2883, -77.7729, 35.0269
2.74, 5, 33.1176, 52.7283, -8.80016, 90.2534, -77.8711, 34.9942
2.744, 5, 33.1056, 52.7321, -8.7664, 90.2192, -77.9671, 34.9622
2.748, 5, 33.0943, 52.7352, -8.73353, 90.186, -78.0604, 34.9312
2.752, 5, 33.0835, 52.7378, -8.70182, 90.1539, -78.1501, 34.9012
2.755, 5, 33.0731, 52.7403, -8.67154, 90.1233, -78.2355, 34.8727
2.76, 5, 33.0632, 52.7427, -8.64298, 90.0945, -78.3158, 34.8459
2.764, 5, 33.0537, 52.7452, -8.61639, 90.0677, -78.3905, 34.821
2.768, 5, 33.0446, 52.7479, -8.592, 90.0432, -78.4588, 34.7982
2.772, 5, 33.0357, 52.751, -8.56995, 90.021, -78.5204, 34.7776
2.775, 5, 33.0272, 52.7544, -8.55036, 90.0014, -78.5749, 34.7594
2.78, 5, 33.019, 52.7582, -8.53326, 89.9843, -78.6224, 34.7436
2.784, 5, 33.0111, 52.7623, -8.51863, 89.9696, -78.663, 34.73
2.788, 5, 33.0037, 52.7668, -8.50635, 89.9574, -78.6969, 34.7187
