hehonglu123/ABB_Primitive_Study/execution/movec_smooth/curve_exe_v1000_z1.csv
timestamp, cmd_num, J1, J2, J3, J4, J5, J6
0, -1, 32.9528, 52.8019, -8.46502, 89.9168, -78.8096, 34.6812
0.003, -1, 32.9528, 52.8019, -8.46502, 89.9168, -78.8096, 34.6812
0.006, -1, 32.9528, 52.8019, -8.46502, 89.9168, -78.8096, 34.6812
0.008, -1, 32.9528, 52.8019, -8.46502, 89.9168, -78.8096, 34.6812
0.011, -1, 32.9528, 52.8019, -8.46502, 89.9168, -78.8096, 34.6812
0.016, -1, 32.9528, 52.8019, -8.46502, 89.9168, -78.8096, 34.6812
0.02, -1, 32.9528, 52.8019, -8.46502, 89.9168, -78.8096, 34.6812
0.024, -1, 32.9528, 52.8019, -8.46502, 89.9168, -78.8096, 34.6812
0.028, -1, 32.9528, 52.8019, -8.46502, 89.9168, -78.8096, 34.6812
0.032, -1, 32.9528, 52.8019, -8.46502, 89.9168, -78.8096, 34.6812
0.036, -1, 32.9529, 52.8019, -8.46502, 89.9168, -78.8096, 34.6812
0.04, -1, 32.9531, 52.8018, -8.46503, 89.9168, -78.8095, 34.6812
0.044, -1, 32.9535, 52.8014, -8.46504, 89.9169, -78.8095, 34.6812
0.048, -1, 32.9543, 52.8006, -8.46509, 89.9169, -78.8093, 34.6813
0.052, -1, 32.9556, 52.7993, -8.46521, 89.917, -78.8088, 34.6815
0.056, -1, 32.9574, 52.7971, -8.46543, 89.9173, -78.8079, 34.6818
0.06, -1, 32.9597, 52.794, -8.46584, 89.9178, -78.8061, 34.6824
0.064, -1, 32.9625, 52.7899, -8.46653, 89.9186, -78.803, 34.6835
0.068, -1, 32.9659, 52.7849, -8.46761, 89.92, -78.798, 34.6852
0.072, -1, 32.9697, 52.7789, -8.46923, 89.922, -78.7905, 34.6877
0.076, -1, 32.9741, 52.7719, -8.47155, 89.925, -78.7796, 34.6915
0.08, -1, 32.9791, 52.7639, -8.47475, 89.9292, -78.7644, 34.6967
0.084, -1, 32.9847, 52.7549, -8.47904, 89.9348, -78.744, 34.7037
0.088, -1, 32.991, 52.7451, -8.48461, 89.9421, -78.7174, 34.7128
0.092, -1, 32.9978, 52.7344, -8.49169, 89.9515, -78.6834, 34.7244
0.096, -1, 33.005, 52.7231, -8.50046, 89.9631, -78.6411, 34.7389
0.1, -1, 33.0126, 52.7112, -8.51109, 89.9773, -78.5897, 34.7566
0.104, -1, 33.0204, 52.699, -8.5237, 89.9942, -78.5285, 34.7775
0.108, -1, 33.0284, 52.6863, -8.53837, 90.0139, -78.4572, 34.802
0.112, -1, 33.0368, 52.673, -8.55512, 90.0364, -78.3757, 34.8299
0.116, -1, 33.0455, 52.6592, -8.57391, 90.0617, -78.2841, 34.8613
0.12, -1, 33.0546, 52.6447, -8.59467, 90.0896, -78.183, 34.896
0.124, -1, 33.0642, 52.6296, -8.61726, 90.12, -78.0728, 34.9337
0.128, -1, 33.0741, 52.6139, -8.64153, 90.1527, -77.9545, 34.9743
0.131, -1, 33.0844, 52.5977, -8.6673, 90.1875, -77.8288, 35.0174
0.136, -1, 33.0949, 52.5809, -8.69437, 90.2239, -77.6968, 35.0627
0.139, -1, 33.1058, 52.5633, -8.72251, 90.2618, -77.5596, 35.1097
0.144, -1, 33.1172, 52.5447, -8.75152, 90.3009, -77.4182, 35.1582
0.148, -1, 33.1293, 52.525, -8.7812, 90.3408, -77.2736, 35.2077
0.152, -1, 33.1421, 52.5041, -8.81138, 90.3814, -77.1267, 35.2581
0.156, -1, 33.1556, 52.4819, -8.8419, 90.4224, -76.9782, 35.309
0.16, -1, 33.17, 52.4586, -8.87265, 90.4637, -76.8286, 35.3603
0.164, -1, 33.1849, 52.4345, -8.90354, 90.5052, -76.6784, 35.4118
0.168, -1, 33.2004, 52.4098, -8.9345, 90.5467, -76.5279, 35.4634
0.172, -1, 33.2161, 52.3847, -8.9655, 90.5883, -76.3772, 35.515
0.176, -1, 33.2321, 52.3594, -8.9965, 90.6299, -76.2265, 35.5667
0.18, -1, 33.2481, 52.334, -9.02748, 90.6715, -76.076, 35.6183
0.184, -1, 33.2643, 52.3084, -9.05844, 90.713, -75.9256, 35.6699
0.188, -1, 33.2805, 52.2828, -9.08935, 90.7545, -75.7754, 35.7214
0.192, -1, 33.2967, 52.2573, -9.12022, 90.7959, -75.6254, 35.7728
0.196, -1, 33.3129, 52.2317, -9.15103, 90.8372, -75.4757, 35.8241
0.2, -1, 33.3291, 52.2061, -9.1818, 90.8785, -75.3262, 35.8753
0.204, -1, 33.3453, 52.1806, -9.21251, 90.9197, -75.177, 35.9265
0.208, -1, 33.3614, 52.1551, -9.24316, 90.9608, -75.028, 35.9775
0.212, -1, 33.3776, 52.1296, -9.27376, 91.0018, -74.8794, 36.0285
0.216, -1, 33.3937, 52.1042, -9.3043, 91.0428, -74.731, 36.0794
0.22, -1, 33.4098, 52.0788, -9.33479, 91.0837, -74.5829, 36.1302
0.224, -1, 33.4258, 52.0535, -9.36522, 91.1245, -74.435, 36.1808
0.228, -1, 33.4419, 52.0282, -9.3956, 91.1652, -74.2874, 36.2314
0.232, -1, 33.4579, 52.003, -9.42592, 91.2059, -74.1401, 36.2819
0.236, -1, 33.4738, 51.9778, -9.45618, 91.2465, -73.9931, 36.3323
0.24, -1, 33.4898, 51.9526, -9.48639, 91.287, -73.8463, 36.3826
0.244, -1, 33.5057, 51.9275, -9.51654, 91.3275, -73.6998, 36.4329
0.248, -1, 33.5216, 51.9025, -9.54664, 91.3678, -73.5536, 36.483
0.252, -1, 33.5374, 51.8774, -9.57668, 91.4081, -73.4076, 36.533
0.256, -1, 33.5533, 51.8525, -9.60667, 91.4483, -73.2619, 36.583
0.26, -1, 33.5691, 51.8276, -9.6366, 91.4885, -73.1165, 36.6328
0.264, -1, 33.5848, 51.8027, -9.66649, 91.5286, -72.9713, 36.6826
0.268, -1, 33.6006, 51.7778, -9.69631, 91.5686, -72.8264, 36.7323
0.272, -1, 33.6163, 51.7531, -9.72609, 91.6085, -72.6817, 36.7819
0.276, -1, 33.632, 51.7283, -9.75581, 91.6484, -72.5373, 36.8314
0.28, -1, 33.6476, 51.7036, -9.78547, 91.6882, -72.3932, 36.8808
0.284, -1, 33.6633, 51.679, -9.81509, 91.7279, -72.2493, 36.9301
0.288, -1, 33.6789, 51.6544, -9.84465, 91.7675, -72.1057, 36.9794
0.292, -1, 33.6945, 51.6298, -9.87416, 91.8071, -71.9623, 37.0285
0.296, -1, 33.71, 51.6053, -9.90362, 91.8466, -71.8191, 37.0776
0.3, -1, 33.7255, 51.5808, -9.93303, 91.8861, -71.6763, 37.1265
0.304, -1, 33.741, 51.5563, -9.96238, 91.9255, -71.5336, 37.1754
0.308, -1, 33.7565, 51.5319, -9.99169, 91.9648, -71.3913, 37.2243
0.312, -1, 33.7719, 51.5076, -10.0209, 92.004, -71.2491, 37.273
0.316, -1, 33.7873, 51.4833, -10.0501, 92.0432, -71.1073, 37.3216
0.32, -1, 33.8027, 51.459, -10.0793, 92.0823, -70.9656, 37.3702
0.324, -1, 33.8181, 51.4348, -10.1084, 92.1213, -70.8242, 37.4186
0.328, -1, 33.8334, 51.4106, -10.1374, 92.1603, -70.6831, 37.467
0.332, -1, 33.8487, 51.3864, -10.1665, 92.1992, -70.5422, 37.5153
0.336, -1, 33.864, 51.3623, -10.1954, 92.238, -70.4015, 37.5636
0.34, -1, 33.8793, 51.3383, -10.2243, 92.2768, -70.261, 37.6117
0.344, -1, 33.8945, 51.3142, -10.2532, 92.3155, -70.1209, 37.6598
0.348, -1, 33.9097, 51.2903, -10.282, 92.3541, -69.9809, 37.7077
0.352, -1, 33.9249, 51.2663, -10.3107, 92.3927, -69.8412, 37.7556
0.356, -1, 33.94, 51.2424, -10.3394, 92.4312, -69.7017, 37.8034
0.36, -1, 33.9552, 51.2186, -10.3681, 92.4696, -69.5624, 37.8512
0.364, -1, 33.9703, 51.1947, -10.3967, 92.508, -69.4234, 37.8988
0.368, -1, 33.9853, 51.171, -10.4253, 92.5463, -69.2846, 37.9464
0.372, -1, 34.0004, 51.1472, -10.4538, 92.5846, -69.1461, 37.9939
0.376, -1, 34.0154, 51.1235, -10.4823, 92.6228, -69.0078, 38.0413
0.38, -1, 34.0304, 51.0998, -10.5107, 92.6609, -68.8697, 38.0887
0.384, -1, 34.0454, 51.0762, -10.5391, 92.6989, -68.7318, 38.1359
0.388, -1, 34.0604, 51.0526, -10.5674, 92.7369, -68.5941, 38.1831
0.392, -1, 34.0753, 51.0291, -10.5957, 92.7749, -68.4567, 38.2302
0.396, -1, 34.0902, 51.0056, -10.6239, 92.8127, -68.3195, 38.2773
0.4, -1, 34.1051, 50.9821, -10.6521, 92.8506, -68.1826, 38.3242
0.404, -1, 34.1199, 50.9587, -10.6803, 92.8883, -68.0458, 38.3711
0.408, -1, 34.1348, 50.9353, -10.7084, 92.926, -67.9093, 38.4179
0.412, -1, 34.1496, 50.9119, -10.7364, 92.9636, -67.773, 38.4646
0.416, -1, 34.1643, 50.8886, -10.7644, 93.0012, -67.6369, 38.5113
0.42, -1, 34.1791, 50.8653, -10.7924, 93.0387, -67.501, 38.5579
0.424, -1, 34.1938, 50.8421, -10.8203, 93.0762, -67.3653, 38.6044
0.428, -1, 34.2086, 50.8189, -10.8482, 93.1136, -67.2299, 38.6508
0.432, -1, 34.2232, 50.7957, -10.876, 93.1509, -67.0947, 38.6971
0.436, -1, 34.2379, 50.7726, -10.9038, 93.1881, -66.9597, 38.7434
0.44, -1, 34.2526, 50.7495, -10.9315, 93.2254, -66.8249, 38.7896
0.444, -1, 34.2672, 50.7264, -10.9592, 93.2625, -66.6903, 38.8358
0.448, -1, 34.2818, 50.7034, -10.9869, 93.2996, -66.5559, 38.8818
0.452, -1, 34.2964, 50.6804, -11.0145, 93.3367, -66.4217, 38.9278
0.456, -1, 34.3109, 50.6574, -11.0421, 93.3736, -66.2878, 38.9738
0.46, -1, 34.3254, 50.6345, -11.0696, 93.4106, -66.154, 39.0196
0.464, -1, 34.3399, 50.6116, -11.0971, 93.4474, -66.0204, 39.0654
0.468, -1, 34.3544, 50.5888, -11.1246, 93.4842, -65.8871, 39.1111
0.472, -1, 34.3689, 50.566, -11.152, 93.521, -65.754, 39.1567
0.476, -1, 34.3833, 50.5432, -11.1793, 93.5577, -65.621, 39.2023
0.48, -1, 34.3978, 50.5204, -11.2066, 93.5943, -65.4883, 39.2478
0.484, -1, 34.4121, 50.4977, -11.2339, 93.6309, -65.3558, 39.2933
0.488, -1, 34.4265, 50.475, -11.2612, 93.6675, -65.2234, 39.3386
0.492, -1, 34.4409, 50.4524, -11.2883, 93.7039, -65.0913, 39.3839
0.496, -1, 34.4552, 50.4298, -11.3155, 93.7404, -64.9594, 39.4291
0.5, -1, 34.4695, 50.4072, -11.3426, 93.7767, -64.8276, 39.4743
0.504, -1, 34.4838, 50.3847, -11.3697, 93.813, -64.6961, 39.5194
0.508, -1, 34.4981, 50.3622, -11.3967, 93.8493, -64.5647, 39.5644
0.512, -1, 34.5123, 50.3397, -11.4237, 93.8855, -64.4336, 39.6094
0.516, -1, 34.5265, 50.3173, -11.4507, 93.9217, -64.3026, 39.6543
0.52, -1, 34.5408, 50.2949, -11.4776, 93.9578, -64.1719, 39.6991
0.524, -1, 34.5549, 50.2725, -11.5045, 93.9938, -64.0413, 39.7439
0.528, -1, 34.5691, 50.2501, -11.5313, 94.0298, -63.9109, 39.7886
0.532, -1, 34.5832, 50.2278, -11.5581, 94.0657, -63.7807, 39.8332
0.536, -1, 34.5974, 50.2056, -11.5848, 94.1016, -63.6507, 39.8777
0.54, -1, 34.6115, 50.1833, -11.6116, 94.1375, -63.5209, 39.9222
0.544, -1, 34.6255, 50.1611, -11.6382, 94.1732, -63.3913, 39.9667
0.548, -1, 34.6396, 50.1389, -11.6649, 94.209, -63.2619, 40.0111
0.552, -1, 34.6536, 50.1168, -11.6915, 94.2447, -63.1326, 40.0554
0.556, -1, 34.6677, 50.0947, -11.718, 94.2803, -63.0036, 40.0996
0.56, -1, 34.6817, 50.0726, -11.7446, 94.3159, -62.8747, 40.1438
0.564, -1, 34.6956, 50.0505, -11.7711, 94.3514, -62.746, 40.1879
0.568, -1, 34.7096, 50.0285, -11.7975, 94.3869, -62.6175, 40.2319
0.572, -1, 34.7235, 50.0065, -11.8239, 94.4223, -62.4892, 40.2759
0.576, -1, 34.7375, 49.9846, -11.8503, 94.4577, -62.361, 40.3199
0.58, -1, 34.7514, 49.9626, -11.8766, 94.493, -62.2331, 40.3637
0.584, -1, 34.7652, 49.9407, -11.9029, 94.5283, -62.1053, 40.4075
0.588, -1, 34.7791, 49.9189, -11.9292, 94.5635, -61.9777, 40.4513
0.592, -1, 34.7929, 49.897, -11.9554, 94.5987, -61.8503, 40.495
0.596, -1, 34.8068, 49.8752, -11.9816, 94.6338, -61.723, 40.5386
0.6, -1, 34.8206, 49.8535, -12.0078, 94.6689, -61.5959, 40.5821
0.604, -1, 34.8343, 49.8317, -12.0339, 94.7039, -61.4691, 40.6256
0.608, -1, 34.8481, 49.81, -12.0599, 94.7389, -61.3423, 40.6691
0.612, -1, 34.8618, 49.7883, -12.086, 94.7738, -61.2158, 40.7125
0.616, -1, 34.8756, 49.7667, -12.112, 94.8087, -61.0894, 40.7558
0.62, -1, 34.8893, 49.7451, -12.138, 94.8435, -60.9632, 40.799
0.624, -1, 34.903, 49.7235, -12.1639, 94.8783, -60.8372, 40.8422
0.628, -1, 34.9166, 49.7019, -12.1898, 94.9131, -60.7114, 40.8854
0.632, -1, 34.9303, 49.6804, -12.2157, 94.9478, -60.5857, 40.9284
0.636, -1, 34.9439, 49.6589, -12.2415, 94.9824, -60.4602, 40.9715
0.64, -1, 34.9575, 49.6374, -12.2673, 95.017, -60.3349, 41.0144
0.644, -1, 34.9711, 49.6159, -12.2931, 95.0516, -60.2097, 41.0573
0.648, -1, 34.9847, 49.5945, -12.3188, 95.0861, -60.0847, 41.1002
0.652, -1, 34.9983, 49.5731, -12.3445, 95.1205, -59.9599, 41.143
0.656, -1, 35.0118, 49.5518, -12.3701, 95.1549, -59.8352, 41.1857
0.66, -1, 35.0253, 49.5304, -12.3958, 95.1893, -59.7107, 41.2284
0.664, -1, 35.0388, 49.5091, -12.4214, 95.2236, -59.5864, 41.271
0.668, -1, 35.0523, 49.4879, -12.4469, 95.2579, -59.4622, 41.3136
0.672, -1, 35.0658, 49.4666, -12.4724, 95.2921, -59.3382, 41.3561
0.676, -1, 35.0792, 49.4454, -12.4979, 95.3263, -59.2144, 41.3985
0.68, -1, 35.0927, 49.4242, -12.5234, 95.3605, -59.0907, 41.4409
0.684, -1, 35.1061, 49.4031, -12.5488, 95.3946, -58.9672, 41.4833
0.688, -1, 35.1195, 49.3819, -12.5742, 95.4286, -58.8439, 41.5256
0.692, -1, 35.1329, 49.3608, -12.5995, 95.4626, -58.7207, 41.5678
0.696, -1, 35.1462, 49.3397, -12.6249, 95.4966, -58.5977, 41.61
0.7, -1, 35.1596, 49.3187, -12.6501, 95.5305, -58.4748, 41.6521
0.704, -1, 35.1729, 49.2977, -12.6754, 95.5644, -58.3521, 41.6941
0.708, -1, 35.1862, 49.2767, -12.7006, 95.5982, -58.2296, 41.7361
0.712, -1, 35.1995, 49.2557, -12.7258, 95.632, -58.1072, 41.7781
0.716, -1, 35.2128, 49.2347, -12.751, 95.6657, -57.985, 41.82
0.72, -1, 35.226, 49.2138, -12.7761, 95.6994, -57.8629, 41.8618
0.724, -1, 35.2393, 49.1929, -12.8012, 95.7331, -57.741, 41.9036
0.728, -1, 35.2525, 49.1721, -12.8262, 95.7667, -57.6192, 41.9454
0.732, -1, 35.2657, 49.1512, -12.8513, 95.8003, -57.4976, 41.9871
0.736, -1, 35.2789, 49.1304, -12.8763, 95.8338, -57.3762, 42.0287
0.74, -1, 35.2921, 49.1097, -12.9012, 95.8673, -57.2549, 42.0703
0.744, -1, 35.3052, 49.0889, -12.9262, 95.9007, -57.1338, 42.1118
0.748, -1, 35.3184, 49.0682, -12.9511, 95.9341, -57.0128, 42.1533
0.752, -1, 35.3315, 49.0475, -12.9759, 95.9675, -56.8919, 42.1947
0.756, -1, 35.3446, 49.0268, -13.0008, 96.0008, -56.7712, 42.2361
0.76, -1, 35.3577, 49.0061, -13.0256, 96.0341, -56.6507, 42.2774
0.764, -1, 35.3708, 48.9855, -13.0504, 96.0673, -56.5303, 42.3187
0.768, -1, 35.3838, 48.9649, -13.0751, 96.1005, -56.4101, 42.3599
0.772, -1, 35.3969, 48.9443, -13.0998, 96.1336, -56.29, 42.401
0.776, -1, 35.4099, 48.9238, -13.1245, 96.1667, -56.1701, 42.4422
0.78, -1, 35.4229, 48.9032, -13.1492, 96.1998, -56.0503, 42.4832
0.784, -1, 35.4359, 48.8827, -13.1738, 96.2328, -55.9307, 42.5242
0.788, -1, 35.4489, 48.8623, -13.1984, 96.2658, -55.8112, 42.5652
0.792, -1, 35.4619, 48.8418, -13.2229, 96.2988, -55.6918, 42.6061
0.796, -1, 35.4748, 48.8214, -13.2475, 96.3317, -55.5726, 42.647
0.8, -1, 35.4877, 48.801, -13.272, 96.3645, -55.4535, 42.6878
0.804, -1, 35.5006, 48.7806, -13.2965, 96.3974, -55.3346, 42.7285
0.808, -1, 35.5136, 48.7603, -13.3209, 96.4302, -55.2159, 42.7693
0.812, -1, 35.5264, 48.7399, -13.3453, 96.4629, -55.0972, 42.8099
0.816, -1, 35.5393, 48.7196, -13.3697, 96.4956, -54.9787, 42.8506
0.82, -1, 35.5522, 48.6994, -13.3941, 96.5283, -54.8604, 42.8911
0.824, -1, 35.565, 48.6791, -13.4184, 96.5609, -54.7422, 42.9316
0.828, -1, 35.5778, 48.6589, -13.4427, 96.5935, -54.6241, 42.9721
0.832, -1, 35.5906, 48.6387, -13.467, 96.6261, -54.5062, 43.0125
0.836, -1, 35.6034, 48.6185, -13.4912, 96.6586, -54.3884, 43.0529
0.84, -1, 35.6162, 48.5983, -13.5154, 96.6911, -54.2707, 43.0933
0.844, -1, 35.629, 48.5782, -13.5396, 96.7235, -54.1532, 43.1335
0.848, -1, 35.6417, 48.5581, -13.5638, 96.7559, -54.0358, 43.1738
0.852, -1, 35.6545, 48.538, -13.5879, 96.7883, -53.9186, 43.214
0.856, -1, 35.6672, 48.5179, -13.612, 96.8206, -53.8015, 43.2541
0.86, -1, 35.6799, 48.4979, -13.6361, 96.8529, -53.6845, 43.2942
0.864, -1, 35.6925, 48.4779, -13.6601, 96.8852, -53.5677, 43.3343
0.868, -1, 35.7051, 48.458, -13.6841, 96.9174, -53.451, 43.3743
0.872, -1, 35.7176, 48.4381, -13.7081, 96.9496, -53.3345, 43.4142
0.876, -1, 35.73, 48.4184, -13.7321, 96.9817, -53.2181, 43.4541
0.88, -1, 35.7419, 48.3992, -13.756, 97.0137, -53.102, 43.4939
0.884, -1, 35.7533, 48.3805, -13.7798, 97.0457, -52.9863, 43.5336
0.888, -1, 35.7641, 48.3627, -13.8035, 97.0775, -52.8712, 43.5731
0.892, -1, 35.7742, 48.3457, -13.8269, 97.109, -52.757, 43.6122
0.896, -1, 35.7836, 48.3297, -13.8501, 97.1401, -52.6444, 43.6508
0.9, -1, 35.7924, 48.3145, -13.8728, 97.1706, -52.534, 43.6887
0.904, -1, 35.8007, 48.3002, -13.895, 97.2003, -52.4264, 43.7256
0.908, -1, 35.8087, 48.2866, -13.9163, 97.229, -52.3226, 43.7613
0.912, -1, 35.8164, 48.2736, -13.9367, 97.2564, -52.2234, 43.7953
0.916, -1, 35.8238, 48.2613, -13.956, 97.2823, -52.1296, 43.8275
0.92, -1, 35.8309, 48.2497, -13.9741, 97.3065, -52.042, 43.8576
0.924, -1, 35.8377, 48.2387, -13.9907, 97.3288, -51.9612, 43.8853
0.928, -1, 35.8442, 48.2281, -14.0057, 97.3491, -51.888, 43.9104
0.932, -1, 35.8507, 48.2178, -14.0192, 97.3671, -51.8226, 43.9328
0.936, -1, 35.8571, 48.2077, -14.031, 97.3829, -51.7653, 43.9524
0.94, -1, 35.8634, 48.1979, -14.0412, 97.3966, -51.716, 43.9693
0.944, -1, 35.8695, 48.1884, -14.0498, 97.4081, -51.6743, 43.9836
0.948, -1, 35.8755, 48.1793, -14.0569, 97.4175, -51.6399, 43.9954
0.952, -1, 35.8812, 48.1708, -14.0626, 97.4252, -51.612, 44.0049
0.956, -1, 35.8865, 48.1631, -14.0672, 97.4313, -51.5899, 44.0124
0.96, -1, 35.8915, 48.1562, -14.0707, 97.436, -51.5728, 44.0183
0.964, -1, 35.896, 48.1502, -14.0734, 97.4396, -51.5598, 44.0227
0.968, -1, 35.9001, 48.145, -14.0754, 97.4422, -51.5503, 44.0259
0.972, -1, 35.9037, 48.1406, -14.0768, 97.4441, -51.5433, 44.0283
0.976, 2, 35.9067, 48.1371, -14.0778, 97.4454, -51.5385, 44.0299
0.98, 2, 35.9091, 48.1343, -14.0785, 97.4463, -51.5351, 44.0311
0.984, 2, 35.911, 48.1323, -14.079, 97.4469, -51.5327, 44.0319
0.988, 2, 35.9123, 48.1308, -14.0793, 97.4474, -51.5312, 44.0324
0.992, 2, 35.9132, 48.1299, -14.0796, 97.4477, -51.5301, 44.0328
0.996, 2, 35.9138, 48.1292, -14.0797, 97.4479, -51.5294, 44.033
1, 2, 35.9142, 48.1287, -14.0798, 97.448, -51.5289, 44.0332
1.004, 2, 35.9145, 48.1284, -14.0799, 97.4481, -51.5285, 44.0333
1.008, 2, 35.9147, 48.1282, -14.0799, 97.4482, -51.5283, 44.0334
1.012, 2, 35.9149, 48.1281, -14.08, 97.4482, -51.5282, 44.0334
1.016, 2, 35.9149, 48.128, -14.08, 97.4482, -51.5281, 44.0335
1.02, 2, 35.915, 48.1279, -14.08, 97.4482, -51.528, 44.0335
1.024, 2, 35.915, 48.1279, -14.08, 97.4483, -51.5279, 44.0335
1.027, 2, 35.9151, 48.1278, -14.08, 97.4483, -51.5279, 44.0335
1.032, 2, 35.9151, 48.1278, -14.08, 97.4483, -51.5279, 44.0335
1.036, 2, 35.9151, 48.1278, -14.08, 97.4483, -51.5279, 44.0335
1.04, 2, 35.9151, 48.1278, -14.08, 97.4483, -51.5279, 44.0335
1.044, 2, 35.9151, 48.1278, -14.08, 97.4483, -51.5279, 44.0335
1.048, 2, 35.9151, 48.1278, -14.08, 97.4483, -51.5279, 44.0335
1.052, 2, 35.9151, 48.1278, -14.08, 97.4483, -51.5278, 44.0335
1.055, 2, 35.9151, 48.1278, -14.08, 97.4483, -51.5278, 44.0335
1.06, 2, 35.9151, 48.1278, -14.08, 97.4483, -51.5278, 44.0335
1.064, 2, 35.9151, 48.1278, -14.08, 97.4483, -51.5278, 44.0335
1.068, 2, 35.9151, 48.1278, -14.08, 97.4483, -51.5278, 44.0335
1.072, 2, 35.9151, 48.1278, -14.08, 97.4483, -51.5278, 44.0335
1.076, 2, 35.9151, 48.1278, -14.08, 97.4483, -51.5278, 44.0335
1.08, 2, 35.9151, 48.1278, -14.08, 97.4483, -51.5278, 44.0335
1.084, 2, 35.9151, 48.1278, -14.08, 97.4483, -51.5278, 44.0335
1.088, 2, 35.9151, 48.1278, -14.08, 97.4483, -51.5278, 44.0335
1.091, 2, 35.9151, 48.1278, -14.08, 97.4483, -51.5278, 44.0335
1.096, 2, 35.9151, 48.1278, -14.08, 97.4483, -51.5278, 44.0335
1.1, 2, 35.9151, 48.1278, -14.08, 97.4483, -51.5278, 44.0335
1.104, 2, 35.9151, 48.1278, -14.08, 97.4483, -51.5278, 44.0335
1.108, 2, 35.9151, 48.1278, -14.08, 97.4483, -51.5278, 44.0335
1.112, 2, 35.9151, 48.1278, -14.08, 97.4483, -51.5278, 44.0335
1.116, 2, 35.9151, 48.1278, -14.08, 97.4483, -51.5278, 44.0335
1.119, 2, 35.9151, 48.1278, -14.08, 97.4483, -51.5278, 44.0335
1.124, 2, 35.9151, 48.1278, -14.08, 97.4483, -51.5278, 44.0335
1.128, 2, 35.9151, 48.1278, -14.08, 97.4483, -51.5278, 44.0335
1.132, 2, 35.9151, 48.1278, -14.08, 97.4483, -51.5278, 44.0335
1.136, 2, 35.9151, 48.1278, -14.08, 97.4483, -51.5278, 44.0335
1.14, 2, 35.9151, 48.1278, -14.08, 97.4483, -51.5278, 44.0335
1.144, 2, 35.9151, 48.1278, -14.08, 97.4483, -51.5278, 44.0335
1.147, 2, 35.9151, 48.1278, -14.08, 97.4483, -51.5278, 44.0335
1.152, 2, 35.9151, 48.1278, -14.08, 97.4483, -51.5278, 44.0335
1.156, 2, 35.9151, 48.1278, -14.08, 97.4483, -51.5278, 44.0335
1.16, 2, 35.9151, 48.1278, -14.08, 97.4483, -51.5278, 44.0335
1.164, 2, 35.9151, 48.1278, -14.08, 97.4483, -51.5278, 44.0335
1.168, 2, 35.9151, 48.1278, -14.08, 97.4483, -51.5278, 44.0335
1.172, 2, 35.9151, 48.1278, -14.08, 97.4483, -51.5278, 44.0335
1.175, 2, 35.9151, 48.1278, -14.08, 97.4483, -51.5278, 44.0335
1.18, 2, 35.9151, 48.1278, -14.08, 97.4483, -51.5278, 44.0335
1.184, 2, 35.9151, 48.1278, -14.08, 97.4483, -51.5278, 44.0335
1.188, 2, 35.9151, 48.1278, -14.08, 97.4483, -51.5278, 44.0335
1.192, 2, 35.9151, 48.1278, -14.08, 97.4483, -51.5278, 44.0335
1.196, 2, 35.9151, 48.1278, -14.08, 97.4483, -51.5278, 44.0335
1.2, 2, 35.9151, 48.1278, -14.08, 97.4483, -51.5278, 44.0335
1.204, 2, 35.9151, 48.1278, -14.08, 97.4483, -51.5278, 44.0335
1.208, 2, 35.9151, 48.1278, -14.08, 97.4483, -51.5278, 44.0335
1.212, 2, 35.9151, 48.1278, -14.08, 97.4483, -51.5278, 44.0335
1.216, 2, 35.9151, 48.1278, -14.08, 97.4483, -51.5278, 44.0335
1.22, 2, 35.9151, 48.1278, -14.08, 97.4483, -51.5278, 44.0335
1.224, 2, 35.9151, 48.1278, -14.08, 97.4483, -51.5278, 44.0335
1.228, 2, 35.9151, 48.1278, -14.08, 97.4483, -51.5278, 44.0335
1.232, 2, 35.9151, 48.1278, -14.08, 97.4483, -51.5278, 44.0335
1.236, 2, 35.9151, 48.1278, -14.08, 97.4483, -51.5278, 44.0335
1.24, 2, 35.9151, 48.1278, -14.08, 97.4483, -51.5278, 44.0335
1.244, 2, 35.9151, 48.1278, -14.08, 97.4483, -51.5278, 44.0335
1.248, 2, 35.9151, 48.1278, -14.08, 97.4483, -51.5278, 44.0335
1.252, 2, 35.9151, 48.1278, -14.08, 97.4483, -51.5278, 44.0335
1.256, 2, 35.9151, 48.1278, -14.08, 97.4483, -51.5278, 44.0335
1.26, 2, 35.9151, 48.1278, -14.08, 97.4483, -51.5278, 44.0335
1.264, 2, 35.9151, 48.1278, -14.08, 97.4483, -51.5278, 44.0335
1.267, 2, 35.9151, 48.1278, -14.08, 97.4483, -51.5278, 44.0335
1.272, 2, 35.9151, 48.1278, -14.08, 97.4483, -51.5278, 44.0335
1.276, 2, 35.9151, 48.1278, -14.08, 97.4483, -51.5278, 44.0335
1.28, 2, 35.9151, 48.1278, -14.08, 97.4483, -51.5278, 44.0335
1.284, 2, 35.9151, 48.1278, -14.08, 97.4483, -51.5278, 44.0335
1.288, 2, 35.9151, 48.1278, -14.08, 97.4483, -51.5278, 44.0335
1.292, 2, 35.9151, 48.1278, -14.08, 97.4483, -51.5278, 44.0335
1.295, 2, 35.9151, 48.1278, -14.08, 97.4483, -51.5278, 44.0335
1.3, 2, 35.9151, 48.1278, -14.08, 97.4483, -51.5278, 44.0335
1.304, 2, 35.9151, 48.1278, -14.08, 97.4483, -51.5278, 44.0335
1.308, 2, 35.9151, 48.1278, -14.08, 97.4483, -51.5278, 44.0335
1.312, 2, 35.9151, 48.1278, -14.08, 97.4483, -51.5278, 44.0335
1.316, 2, 35.9151, 48.1278, -14.08, 97.4483, -51.5278, 44.0335
1.32, 2, 35.9151, 48.1278, -14.08, 97.4483, -51.5278, 44.0335
1.324, 2, 35.9151, 48.1278, -14.08, 97.4483, -51.5278, 44.0335
1.328, 2, 35.9151, 48.1278, -14.08, 97.4483, -51.5278, 44.0335
1.332, 2, 35.9151, 48.1278, -14.08, 97.4483, -51.5278, 44.0335
1.336, 2, 35.9151, 48.1278, -14.08, 97.4483, -51.5278, 44.0335
1.34, 2, 35.9151, 48.1278, -14.08, 97.4483, -51.5278, 44.0335
1.344, 2, 35.9151, 48.1278, -14.08, 97.4483, -51.5278, 44.0335
1.348, 2, 35.9151, 48.1278, -14.08, 97.4483, -51.5278, 44.0335
1.352, 2, 35.9151, 48.1278, -14.08, 97.4483, -51.5278, 44.0335
1.356, 2, 35.9151, 48.1278, -14.08, 97.4483, -51.5278, 44.0335
1.36, 2, 35.9151, 48.1278, -14.08, 97.4483, -51.5278, 44.0335
1.364, 2, 35.9151, 48.1278, -14.08, 97.4483, -51.5278, 44.0335
1.368, 2, 35.9151, 48.1278, -14.08, 97.4483, -51.5278, 44.0335
1.372, 2, 35.9151, 48.1278, -14.08, 97.4483, -51.5278, 44.0335
1.376, 2, 35.9151, 48.1278, -14.08, 97.4483, -51.5278, 44.0335
1.38, 2, 35.9151, 48.1278, -14.08, 97.4483, -51.5278, 44.0335
1.384, 2, 35.9151, 48.1278, -14.08, 97.4483, -51.5278, 44.0335
1.388, 2, 35.9151, 48.1278, -14.08, 97.4483, -51.5278, 44.0335
1.392, 2, 35.9151, 48.1278, -14.08, 97.4483, -51.5278, 44.0335
1.396, 2, 35.9151, 48.1278, -14.08, 97.4483, -51.5278, 44.0335
1.4, 2, 35.9151, 48.1278, -14.08, 97.4483, -51.5278, 44.0335
1.404, 2, 35.9151, 48.1278, -14.08, 97.4483, -51.5278, 44.0335
1.408, 2, 35.9151, 48.1278, -14.08, 97.4483, -51.5278, 44.0335
1.412, 2, 35.9151, 48.1278, -14.08, 97.4483, -51.5278, 44.0335
1.416, 2, 35.9151, 48.1278, -14.08, 97.4483, -51.5278, 44.0335
1.42, 2, 35.9151, 48.1278, -14.08, 97.4483, -51.5278, 44.0335
1.424, 2, 35.9151, 48.1278, -14.08, 97.4483, -51.5278, 44.0335
1.428, 2, 35.9151, 48.1278, -14.08, 97.4483, -51.5278, 44.0335
1.432, 2, 35.9151, 48.1278, -14.08, 97.4483, -51.5278, 44.0335
1.436, 2, 35.9151, 48.1278, -14.08, 97.4483, -51.5278, 44.0335
1.44, 2, 35.9151, 48.1278, -14.08, 97.4483, -51.5278, 44.0335
1.444, 2, 35.9151, 48.1278, -14.08, 97.4483, -51.5278, 44.0335
1.448, 2, 35.9151, 48.1278, -14.08, 97.4483, -51.5278, 44.0335
1.452, 2, 35.9151, 48.1278, -14.08, 97.4483, -51.5278, 44.0335
1.456, 2, 35.9151, 48.1278, -14.08, 97.4483, -51.5278, 44.0335
1.46, 2, 35.9151, 48.1278, -14.08, 97.4483, -51.5278, 44.0335
1.464, 2, 35.9151, 48.1278, -14.08, 97.4483, -51.5278, 44.0335
1.468, 2, 35.9151, 48.1278, -14.08, 97.4483, -51.5278, 44.0335
1.472, 2, 35.9151, 48.1278, -14.08, 97.4483, -51.5278, 44.0335
1.476, 2, 35.9151, 48.1278, -14.08, 97.4483, -51.5278, 44.0335
1.48, 2, 35.9151, 48.1278, -14.08, 97.4483, -51.5278, 44.0335
1.484, 2, 35.9151, 48.1278, -14.08, 97.4483, -51.5278, 44.0335
1.488, 2, 35.9151, 48.1278, -14.08, 97.4483, -51.5278, 44.0335
1.492, 2, 35.9151, 48.1278, -14.08, 97.4483, -51.5278, 44.0335
1.496, 2, 35.9151, 48.1278, -14.08, 97.4483, -51.5278, 44.0335
1.5, 2, 35.9151, 48.1278, -14.08, 97.4483, -51.5278, 44.0335
1.504, 2, 35.9151, 48.1278, -14.08, 97.4483, -51.5278, 44.0335
1.508, 2, 35.9151, 48.1278, -14.08, 97.4483, -51.5278, 44.0335
1.512, 2, 35.9151, 48.1278, -14.08, 97.4483, -51.5278, 44.0335
1.516, 2, 35.9151, 48.1278, -14.08, 97.4483, -51.5278, 44.0335
1.52, 2, 35.9151, 48.1278, -14.08, 97.4483, -51.5278, 44.0335
1.524, 2, 35.9151, 48.1278, -14.08, 97.4483, -51.5278, 44.0335
1.528, 2, 35.9151, 48.1278, -14.08, 97.4483, -51.5278, 44.0335
1.532, 2, 35.9151, 48.1278, -14.08, 97.4483, -51.5278, 44.0335
1.536, 2, 35.9151, 48.1278, -14.08, 97.4483, -51.5278, 44.0335
1.54, 2, 35.9151, 48.1278, -14.08, 97.4483, -51.5278, 44.0335
1.544, 2, 35.9151, 48.1278, -14.08, 97.4483, -51.5278, 44.0335
1.548, 2, 35.9151, 48.1278, -14.08, 97.4483, -51.5278, 44.0335
1.552, 2, 35.9151, 48.1278, -14.08, 97.4483, -51.5278, 44.0335
1.556, 2, 35.9151, 48.1278, -14.08, 97.4483, -51.5278, 44.0335
1.56, 2, 35.9151, 48.1278, -14.08, 97.4483, -51.5278, 44.0335
1.564, 2, 35.9151, 48.1278, -14.08, 97.4483, -51.5278, 44.0335
1.568, 2, 35.9151, 48.1278, -14.08, 97.4483, -51.5278, 44.0335
1.572, 2, 35.9151, 48.1278, -14.08, 97.4483, -51.5278, 44.0335
1.576, 2, 35.9151, 48.1278, -14.08, 97.4483, -51.5278, 44.0335
1.58, 2, 35.9151, 48.1278, -14.08, 97.4483, -51.5278, 44.0335
1.584, 2, 35.9151, 48.1278, -14.08, 97.4483, -51.5278, 44.0335
1.588, 2, 35.9151, 48.1278, -14.08, 97.4483, -51.5278, 44.0335
1.592, 2, 35.9151, 48.1278, -14.08, 97.4483, -51.5278, 44.0335
1.596, 2, 35.9151, 48.1278, -14.08, 97.4483, -51.5278, 44.0335
1.6, 2, 35.9151, 48.1278, -14.08, 97.4483, -51.5278, 44.0335
1.604, 2, 35.9151, 48.1278, -14.08, 97.4483, -51.5278, 44.0335
1.608, 2, 35.9151, 48.1278, -14.08, 97.4483, -51.5278, 44.0335
1.612, 2, 35.9151, 48.1278, -14.08, 97.4483, -51.5278, 44.0335
1.616, 2, 35.9151, 48.1278, -14.08, 97.4483, -51.5278, 44.0335
1.62, 2, 35.9151, 48.1278, -14.08, 97.4483, -51.5278, 44.0335
1.624, 2, 35.9151, 48.1278, -14.08, 97.4483, -51.5278, 44.0335
1.628, 2, 35.9151, 48.1278, -14.08, 97.4483, -51.5278, 44.0335
1.632, 2, 35.9151, 48.1278, -14.08, 97.4483, -51.5278, 44.0335
1.636, 2, 35.9151, 48.1278, -14.08, 97.4483, -51.5278, 44.0335
1.64, 2, 35.9151, 48.1278, -14.08, 97.4483, -51.5278, 44.0335
1.644, 2, 35.9151, 48.1278, -14.08, 97.4483, -51.5278, 44.0335
1.648, 2, 35.9151, 48.1278, -14.08, 97.4483, -51.5278, 44.0335
1.652, 2, 35.9151, 48.1278, -14.08, 97.4483, -51.5278, 44.0335
1.656, 2, 35.9151, 48.1278, -14.08, 97.4483, -51.5278, 44.0335
1.66, 2, 35.9151, 48.1278, -14.08, 97.4483, -51.5278, 44.0335
1.664, 2, 35.9151, 48.1278, -14.08, 97.4483, -51.5278, 44.0335
1.668, 2, 35.9151, 48.1278, -14.08, 97.4483, -51.5278, 44.0335
1.672, 2, 35.9151, 48.1278, -14.08, 97.4483, -51.5278, 44.0335
1.676, 2, 35.9151, 48.1278, -14.08, 97.4483, -51.5278, 44.0335
1.68, 2, 35.9151, 48.1278, -14.08, 97.4483, -51.5278, 44.0335
1.684, 2, 35.9151, 48.1278, -14.08, 97.4483, -51.5278, 44.0335
1.688, 2, 35.9151, 48.1278, -14.08, 97.4483, -51.5278, 44.0335
1.692, 2, 35.9151, 48.1278, -14.08, 97.4483, -51.5278, 44.0335
1.696, 2, 35.9151, 48.1278, -14.08, 97.4483, -51.5278, 44.0335
1.7, 2, 35.9151, 48.1278, -14.08, 97.4483, -51.5278, 44.0335
1.704, 2, 35.9151, 48.1278, -14.08, 97.4483, -51.5278, 44.0335
1.708, 2, 35.9151, 48.1278, -14.08, 97.4483, -51.5278, 44.0335
1.712, 2, 35.9151, 48.1278, -14.08, 97.4483, -51.5278, 44.0335
1.716, 2, 35.9151, 48.1278, -14.08, 97.4483, -51.5278, 44.0335
1.72, 2, 35.9151, 48.1278, -14.08, 97.4483, -51.5278, 44.0335
1.724, 2, 35.9151, 48.1278, -14.08, 97.4483, -51.5278, 44.0335
1.728, 2, 35.9151, 48.1278, -14.08, 97.4483, -51.5278, 44.0335
1.732, 2, 35.9151, 48.1278, -14.08, 97.4483, -51.5278, 44.0335
1.736, 2, 35.9151, 48.1278, -14.08, 97.4483, -51.5278, 44.0335
1.74, 2, 35.9151, 48.1278, -14.08, 97.4483, -51.5278, 44.0335
1.744, 2, 35.9151, 48.1278, -14.08, 97.4483, -51.5278, 44.0335
1.748, 2, 35.9151, 48.1278, -14.08, 97.4483, -51.5278, 44.0335
1.752, 2, 35.9151, 48.1278, -14.08, 97.4483, -51.5278, 44.0335
1.756, 2, 35.9151, 48.1278, -14.08, 97.4483, -51.5278, 44.0335
1.76, 2, 35.9151, 48.1278, -14.08, 97.4483, -51.5278, 44.0335
1.764, 2, 35.9151, 48.1278, -14.08, 97.4483, -51.5278, 44.0335
1.768, 2, 35.9151, 48.1278, -14.08, 97.4483, -51.5278, 44.0335
1.772, 2, 35.9151, 48.1278, -14.08, 97.4483, -51.5278, 44.0335
1.776, 2, 35.9151, 48.1278, -14.08, 97.4483, -51.5278, 44.0335
1.78, 2, 35.9151, 48.1278, -14.08, 97.4483, -51.5278, 44.0335
1.784, 2, 35.9151, 48.1278, -14.08, 97.4483, -51.5278, 44.0335
1.788, 2, 35.9151, 48.1278, -14.08, 97.4483, -51.5278, 44.0335
1.792, 2, 35.9151, 48.1278, -14.08, 97.4483, -51.5278, 44.0335
1.796, 2, 35.9151, 48.1278, -14.08, 97.4483, -51.5278, 44.0335
1.8, 2, 35.9151, 48.1278, -14.08, 97.4483, -51.5278, 44.0335
1.804, 2, 35.9151, 48.1278, -14.08, 97.4483, -51.5278, 44.0335
1.808, 2, 35.9151, 48.1278, -14.08, 97.4483, -51.5278, 44.0335
1.812, 2, 35.9151, 48.1278, -14.08, 97.4483, -51.5278, 44.0335
1.816, 2, 35.9151, 48.1278, -14.08, 97.4483, -51.5278, 44.0335
1.82, 2, 35.9151, 48.1278, -14.08, 97.4483, -51.5278, 44.0335
1.824, 2, 35.9151, 48.1278, -14.08, 97.4483, -51.5278, 44.0335
1.828, 2, 35.9151, 48.1278, -14.08, 97.4483, -51.5278, 44.0335
1.832, 2, 35.9151, 48.1278, -14.08, 97.4483, -51.5278, 44.0335
1.836, 2, 35.9151, 48.1278, -14.08, 97.4483, -51.5278, 44.0335
1.84, 2, 35.9151, 48.1278, -14.08, 97.4483, -51.5278, 44.0335
1.844, 2, 35.9151, 48.1278, -14.08, 97.4483, -51.5278, 44.0335
1.848, 2, 35.9151, 48.1278, -14.08, 97.4483, -51.5278, 44.0335
1.852, 2, 35.9151, 48.1278, -14.08, 97.4483, -51.5278, 44.0335
1.856, 2, 35.9151, 48.1278, -14.08, 97.4483, -51.5278, 44.0335
1.86, 2, 35.9151, 48.1278, -14.08, 97.4483, -51.5278, 44.0335
1.864, 2, 35.9151, 48.1278, -14.08, 97.4483, -51.5278, 44.0335
1.868, 2, 35.9151, 48.1278, -14.08, 97.4483, -51.5278, 44.0335
1.872, 2, 35.9151, 48.1278, -14.08, 97.4483, -51.5278, 44.0335
1.876, 2, 35.9151, 48.1278, -14.08, 97.4483, -51.5278, 44.0335
1.88, 2, 35.9151, 48.1278, -14.08, 97.4483, -51.5278, 44.0335
1.884, 2, 35.9151, 48.1278, -14.08, 97.4483, -51.5278, 44.0335
1.888, 2, 35.9151, 48.1278, -14.08, 97.4483, -51.5278, 44.0335
1.892, 2, 35.9151, 48.1278, -14.08, 97.4483, -51.5278, 44.0335
1.896, 2, 35.9151, 48.1278, -14.08, 97.4483, -51.5278, 44.0335
1.9, 2, 35.9151, 48.1278, -14.08, 97.4483, -51.5278, 44.0335
1.904, 2, 35.9151, 48.1278, -14.08, 97.4483, -51.5278, 44.0335
1.908, 2, 35.9151, 48.1278, -14.08, 97.4483, -51.5278, 44.0335
1.912, 2, 35.9151, 48.1278, -14.08, 97.4483, -51.5278, 44.0335
1.916, 2, 35.9151, 48.1278, -14.08, 97.4483, -51.5278, 44.0335
1.92, 2, 35.9151, 48.1278, -14.08, 97.4483, -51.5278, 44.0335
1.924, 2, 35.9151, 48.1278, -14.08, 97.4483, -51.5278, 44.0335
1.928, 2, 35.9151, 48.1278, -14.08, 97.4483, -51.5278, 44.0335
1.932, 2, 35.9151, 48.1278, -14.08, 97.4483, -51.5278, 44.0335
1.936, 2, 35.9151, 48.1278, -14.08, 97.4483, -51.5278, 44.0335
1.94, 2, 35.9151, 48.1278, -14.08, 97.4483, -51.5278, 44.0335
1.944, 2, 35.9151, 48.1278, -14.08, 97.4483, -51.5278, 44.0335
1.948, 2, 35.9151, 48.1278, -14.08, 97.4483, -51.5278, 44.0335
1.952, 2, 35.9151, 48.1278, -14.08, 97.4483, -51.5278, 44.0335
1.956, 2, 35.9151, 48.1278, -14.08, 97.4483, -51.5278, 44.0335
1.96, 2, 35.9151, 48.1278, -14.08, 97.4483, -51.5278, 44.0335
1.964, 2, 35.9151, 48.1278, -14.08, 97.4483, -51.5278, 44.0335
1.968, 2, 35.9151, 48.1278, -14.08, 97.4483, -51.5278, 44.0335
1.972, 2, 35.9151, 48.1278, -14.08, 97.4483, -51.5278, 44.0335
1.976, 2, 35.9151, 48.1278, -14.08, 97.4483, -51.5278, 44.0335
1.98, 2, 35.9151, 48.1278, -14.08, 97.4483, -51.5278, 44.0335
1.984, 2, 35.9151, 48.1278, -14.08, 97.4483, -51.5278, 44.0335
1.988, 2, 35.9151, 48.1278, -14.08, 97.4483, -51.5278, 44.0335
1.992, 2, 35.9151, 48.1278, -14.08, 97.4483, -51.5278, 44.0335
1.996, 2, 35.9151, 48.1278, -14.08, 97.4483, -51.5278, 44.0335
1.999, 2, 35.9151, 48.1278, -14.08, 97.4483, -51.5278, 44.0335
2.004, 2, 35.9151, 48.1278, -14.08, 97.4483, -51.5278, 44.0335
2.008, 2, 35.9151, 48.1278, -14.08, 97.4483, -51.5278, 44.0335
2.012, 2, 35.9151, 48.1278, -14.08, 97.4483, -51.5278, 44.0335
2.015, 2, 35.9151, 48.1278, -14.08, 97.4483, -51.5278, 44.0335
2.019, 2, 35.9151, 48.1278, -14.08, 97.4483, -51.5278, 44.0335
2.024, 2, 35.9151, 48.1278, -14.08, 97.4483, -51.5278, 44.0335
2.028, 2, 35.9151, 48.1278, -14.08, 97.4483, -51.5278, 44.0335
2.031, 4, 35.9151, 48.1278, -14.08, 97.4483, -51.5278, 44.0335
2.036, 4, 35.9151, 48.1278, -14.08, 97.4483, -51.5278, 44.0335
2.04, 4, 35.9151, 48.1278, -14.08, 97.4483, -51.5278, 44.0335
2.044, 4, 35.9151, 48.1278, -14.08, 97.4483, -51.5278, 44.0335
2.048, 4, 35.9151, 48.1278, -14.08, 97.4483, -51.5278, 44.0335
2.051, 4, 35.9151, 48.1278, -14.08, 97.4483, -51.5278, 44.0335
2.055, 4, 35.9151, 48.1278, -14.08, 97.4483, -51.5278, 44.0335
2.06, 4, 35.9151, 48.1278, -14.08, 97.4483, -51.5278, 44.0335
2.064, 4, 35.9151, 48.1278, -14.08, 97.4483, -51.5278, 44.0335
2.068, 4, 35.9151, 48.1278, -14.08, 97.4483, -51.5278, 44.0335
2.071, 4, 35.9151, 48.1278, -14.08, 97.4483, -51.5278, 44.0335
2.076, 4, 35.9151, 48.1278, -14.08, 97.4483, -51.5278, 44.0335
2.08, 4, 35.9151, 48.1278, -14.08, 97.4483, -51.5278, 44.0335
2.084, 4, 35.9151, 48.1278, -14.08, 97.4483, -51.5278, 44.0335
2.087, 4, 35.9151, 48.1278, -14.08, 97.4483, -51.5278, 44.0335
2.092, 4, 35.9151, 48.1278, -14.08, 97.4483, -51.5278, 44.0335
2.096, 4, 35.9151, 48.1278, -14.08, 97.4483, -51.5278, 44.0335
2.1, 4, 35.9151, 48.1278, -14.08, 97.4483, -51.5278, 44.0335
2.104, 4, 35.9151, 48.1278, -14.08, 97.4483, -51.5278, 44.0335
2.107, 4, 35.9151, 48.1278, -14.08, 97.4483, -51.5278, 44.0335
2.111, 4, 35.9151, 48.1278, -14.08, 97.4483, -51.5278, 44.0335
2.116, 4, 35.9151, 48.1278, -14.08, 97.4483, -51.5278, 44.0335
2.12, 4, 35.9151, 48.1278, -14.08, 97.4483, -51.5278, 44.0335
2.124, 4, 35.9151, 48.1278, -14.08, 97.4483, -51.5278, 44.0335
2.127, 4, 35.9151, 48.1278, -14.08, 97.4483, -51.5278, 44.0335
2.132, 4, 35.9151, 48.1278, -14.08, 97.4483, -51.5278, 44.0335
2.138, 4, 35.9151, 48.1278, -14.08, 97.4483, -51.5278, 44.0335
2.142, 4, 35.9151, 48.1278, -14.08, 97.4483, -51.5278, 44.0335
2.146, 4, 35.9151, 48.1278, -14.08, 97.4483, -51.5278, 44.0335
2.147, 4, 35.9151, 48.1278, -14.08, 97.4483, -51.5278, 44.0335
2.152, 4, 35.9151, 48.1278, -14.08, 97.4483, -51.5278, 44.0335
2.156, 4, 35.9151, 48.1278, -14.08, 97.4483, -51.5278, 44.0335
2.16, 4, 35.9151, 48.1278, -14.08, 97.4483, -51.5278, 44.0335
2.163, 4, 35.9151, 48.1278, -14.08, 97.4483, -51.5278, 44.0335
2.168, 4, 35.9151, 48.1278, -14.08, 97.4483, -51.5278, 44.0335
2.172, 4, 35.9151, 48.1278, -14.08, 97.4483, -51.5278, 44.0335
2.176, 4, 35.9151, 48.1278, -14.08, 97.4483, -51.5278, 44.0335
2.179, 4, 35.9151, 48.1278, -14.08, 97.4483, -51.5278, 44.0335
2.184, 4, 35.9151, 48.1278, -14.08, 97.4483, -51.5278, 44.0335
2.188, 4, 35.915, 48.128, -14.08, 97.4483, -51.5279, 44.0335
2.192, 4, 35.9148, 48.1283, -14.08, 97.4483, -51.5279, 44.0335
2.196, 4, 35.9144, 48.1291, -14.08, 97.4483, -51.5281, 44.0334
2.199, 4, 35.9137, 48.1303, -14.08, 97.4482, -51.5284, 44.0333
2.204, 4, 35.9128, 48.1322, -14.0799, 97.4481, -51.5292, 44.033
2.208, 4, 35.9115, 48.1347, -14.0798, 97.4478, -51.5306, 44.0325
2.212, 4, 35.9099, 48.1381, -14.0797, 97.4474, -51.533, 44.0316
2.216, 4, 35.9081, 48.1424, -14.0795, 97.4468, -51.5369, 44.0301
2.219, 4, 35.9059, 48.1478, -14.0791, 97.4458, -51.5429, 44.0278
2.224, 4, 35.9034, 48.1545, -14.0787, 97.4444, -51.5515, 44.0245
2.228, 5, 35.9006, 48.1627, -14.078, 97.4423, -51.5637, 44.0199
2.232, 5, 35.8974, 48.1726, -14.0771, 97.4395, -51.5802, 44.0136
2.235, 5, 35.8938, 48.1843, -14.076, 97.4358, -51.6021, 44.0053
2.24, 5, 35.8899, 48.1979, -14.0744, 97.431, -51.6305, 43.9945
2.244, 5, 35.8855, 48.2135, -14.0725, 97.4248, -51.6663, 43.9809
2.248, 5, 35.8807, 48.2312, -14.07, 97.4171, -51.7108, 43.964
2.252, 5, 35.8755, 48.251, -14.0669, 97.4077, -51.765, 43.9434
2.255, 5, 35.8698, 48.2732, -14.063, 97.3963, -51.83, 43.9188
2.259, 5, 35.8637, 48.2977, -14.0584, 97.3828, -51.9067, 43.8898
2.264, 5, 35.857, 48.3247, -14.0529, 97.3669, -51.996, 43.8561
2.268, 5, 35.8499, 48.3542, -14.0466, 97.3485, -52.0986, 43.8174
2.272, 5, 35.8423, 48.3859, -14.0393, 97.3275, -52.215, 43.7736
2.275, 5, 35.8343, 48.42, -14.0311, 97.3036, -52.3456, 43.7246
2.28, 5, 35.8258, 48.4562, -14.0219, 97.2769, -52.4905, 43.6703
2.284, 5, 35.8169, 48.4945, -14.0116, 97.2472, -52.6496, 43.6108
2.288, 5, 35.8075, 48.5349, -14.0001, 97.2145, -52.8226, 43.5463
2.291, 5, 35.7976, 48.5774, -13.9873, 97.179, -53.0088, 43.477
2.296, 5, 35.7872, 48.622, -13.9732, 97.1406, -53.2075, 43.4033
2.3, 5, 35.7763, 48.6685, -13.9577, 97.0994, -53.4177, 43.3255
2.304, 5, 35.7648, 48.7168, -13.9407, 97.0557, -53.6383, 43.2441
2.308, 5, 35.7526, 48.767, -13.9224, 97.0095, -53.8683, 43.1596
2.311, 5, 35.7399, 48.8188, -13.9028, 96.9611, -54.1062, 43.0723
2.316, 5, 35.7265, 48.8721, -13.8818, 96.9106, -54.351, 42.9828
2.32, 5, 35.7125, 48.9267, -13.8596, 96.8583, -54.6014, 42.8915
2.324, 5, 35.6977, 48.9826, -13.8362, 96.8042, -54.8564, 42.7989
2.328, 5, 35.6823, 49.0396, -13.8116, 96.7487, -55.1148, 42.7053
2.331, 5, 35.6661, 49.0975, -13.7858, 96.6918, -55.3758, 42.611
2.336, 5, 35.6492, 49.1563, -13.759, 96.6337, -55.6386, 42.5164
2.34, 5, 35.6317, 49.2158, -13.731, 96.5744, -55.9027, 42.4217
2.344, 5, 35.6135, 49.2757, -13.7021, 96.5142, -56.1677, 42.327
2.347, 5, 35.5948, 49.3359, -13.6721, 96.4531, -56.433, 42.2324
2.352, 5, 35.5756, 49.3962, -13.6411, 96.391, -56.6986, 42.138
2.356, 5, 35.556, 49.4564, -13.6091, 96.3281, -56.9642, 42.044
2.36, 5, 35.536, 49.5164, -13.5761, 96.2644, -57.2297, 41.9502
2.364, 5, 35.5156, 49.576, -13.5422, 96.2, -57.495, 41.8567
2.367, 5, 35.4949, 49.6352, -13.5072, 96.1347, -57.7601, 41.7636
2.372, 5, 35.4738, 49.6939, -13.4713, 96.0687, -58.025, 41.6709
2.376, 5, 35.4524, 49.7521, -13.4344, 96.0019, -58.2896, 41.5785
2.38, 5, 35.4308, 49.8097, -13.3965, 95.9344, -58.5539, 41.4864
2.383, 5, 35.4088, 49.8668, -13.3577, 95.8662, -58.8179, 41.3947
2.388, 5, 35.3865, 49.9234, -13.3179, 95.7973, -59.0816, 41.3033
2.392, 5, 35.3638, 49.9793, -13.2771, 95.7276, -59.345, 41.2122
2.396, 5, 35.3409, 50.0347, -13.2354, 95.6573, -59.6081, 41.1214
2.4, 5, 35.3178, 50.0894, -13.1927, 95.5863, -59.8708, 41.031
2.403, 5, 35.2943, 50.1435, -13.149, 95.5146, -60.1333, 40.9408
2.408, 5, 35.2705, 50.197, -13.1044, 95.4422, -60.3954, 40.851
2.412, 5, 35.2465, 50.2498, -13.0588, 95.3692, -60.6571, 40.7614
2.416, 5, 35.2223, 50.3018, -13.0122, 95.2956, -60.9185, 40.6721
2.42, 5, 35.1981, 50.3528, -12.9647, 95.2213, -61.1795, 40.5832
2.423, 5, 35.1741, 50.4026, -12.9163, 95.1465, -61.4399, 40.4945
2.428, 5, 35.1506, 50.4509, -12.867, 95.0712, -61.6996, 40.4063
2.432, 5, 35.1278, 50.4976, -12.8169, 94.9955, -61.9582, 40.3185
2.436, 5, 35.1057, 50.5425, -12.7662, 94.9196, -62.2152, 40.2314
2.439, 5, 35.0844, 50.5858, -12.715, 94.8436, -62.4701, 40.1451
2.444, 5, 35.0638, 50.6273, -12.6636, 94.768, -62.7218, 40.06
2.448, 5, 35.0434, 50.6676, -12.6121, 94.6931, -62.9695, 39.9763
2.452, 5, 35.0231, 50.7069, -12.561, 94.6191, -63.2121, 39.8944
2.456, 5, 35.0025, 50.7457, -12.5105, 94.5467, -63.4487, 39.8146
2.459, 5, 34.9813, 50.7844, -12.461, 94.4761, -63.6785, 39.7372
2.464, 6, 34.9592, 50.8234, -12.4126, 94.4077, -63.9008, 39.6622
2.468, 6, 34.9362, 50.8631, -12.3656, 94.3418, -64.1157, 39.5898
2.472, 6, 34.9119, 50.9037, -12.3202, 94.2785, -64.3234, 39.5198
2.476, 6, 34.8863, 50.9453, -12.2763, 94.2178, -64.5246, 39.4519
2.479, 6, 34.8596, 50.9876, -12.2338, 94.1596, -64.7204, 39.3857
2.484, 6, 34.8322, 51.0303, -12.1925, 94.1036, -64.9124, 39.3208
2.488, 6, 34.8041, 51.0732, -12.1522, 94.0494, -65.1021, 39.2565
2.492, 6, 34.7759, 51.1159, -12.1126, 93.9965, -65.2914, 39.1923
2.495, 6, 34.7477, 51.1582, -12.0733, 93.9445, -65.4821, 39.1274
2.5, 6, 34.7199, 51.1998, -12.0339, 93.8927, -65.6761, 39.0614
2.504, 6, 34.6927, 51.2404, -11.994, 93.8407, -65.8748, 38.9937
2.508, 6, 34.666, 51.28, -11.9531, 93.788, -66.0795, 38.924
2.512, 6, 34.64, 51.3184, -11.9111, 93.734, -66.2912, 38.8518
2.515, 6, 34.6145, 51.3557, -11.8676, 93.6786, -66.5103, 38.7772
2.52, 6, 34.5895, 51.392, -11.8225, 93.6214, -66.7368, 38.7
2.524, 6, 34.5647, 51.4277, -11.7757, 93.5623, -66.9703, 38.6206
2.528, 6, 34.5397, 51.4632, -11.7272, 93.5014, -67.2101, 38.5391
2.531, 6, 34.5142, 51.4988, -11.677, 93.4387, -67.4554, 38.4559
2.536, 6, 34.488, 51.5349, -11.6253, 93.3744, -67.7053, 38.3713
2.54, 6, 34.4609, 51.5716, -11.572, 93.3087, -67.9587, 38.2856
2.544, 6, 34.4329, 51.6089, -11.5175, 93.2416, -68.2148, 38.1992
2.548, 6, 34.404, 51.6467, -11.4616, 93.1735, -68.4729, 38.1122
2.551, 6, 34.3743, 51.6848, -11.4046, 93.1043, -68.7325, 38.0249
2.556, 6, 34.3438, 51.723, -11.3465, 93.0341, -68.9931, 37.9374
2.56, 6, 34.3127, 51.7612, -11.2872, 92.9631, -69.2543, 37.8498
2.564, 6, 34.2811, 51.7992, -11.227, 92.8914, -69.516, 37.7622
2.568, 6, 34.249, 51.837, -11.1658, 92.8188, -69.7779, 37.6746
2.571, 6, 34.2165, 51.8744, -11.1036, 92.7456, -70.0399, 37.5872
2.576, 6, 34.1835, 51.9114, -11.0404, 92.6716, -70.3018, 37.4999
2.58, 6, 34.1502, 51.9479, -10.9763, 92.597, -70.5637, 37.4127
2.584, 6, 34.1165, 51.9839, -10.9113, 92.5218, -70.8254, 37.3256
2.587, 6, 34.0826, 52.0193, -10.8453, 92.4459, -71.087, 37.2387
2.592, 6, 34.0483, 52.0541, -10.7784, 92.3694, -71.3484, 37.152
2.596, 6, 34.0137, 52.0884, -10.7106, 92.2922, -71.6096, 37.0654
2.6, 6, 33.9789, 52.122, -10.6418, 92.2144, -71.8706, 36.9789
2.604, 6, 33.9437, 52.155, -10.5722, 92.1361, -72.1314, 36.8926
2.607, 6, 33.9083, 52.1873, -10.5016, 92.0571, -72.392, 36.8064
2.612, 6, 33.8726, 52.2191, -10.4301, 91.9775, -72.6524, 36.7203
2.616, 6, 33.8366, 52.2502, -10.3577, 91.8974, -72.9126, 36.6344
2.62, 6, 33.8004, 52.2806, -10.2843, 91.8166, -73.1725, 36.5485
2.624, 6, 33.7639, 52.3104, -10.2101, 91.7353, -73.4323, 36.4627
2.627, 6, 33.7274, 52.3393, -10.1349, 91.6534, -73.6917, 36.3771
2.632, 6, 33.691, 52.3673, -10.0589, 91.5709, -73.951, 36.2915
2.636, 6, 33.655, 52.3941, -9.98202, 91.488, -74.2098, 36.2061
2.64, 6, 33.6195, 52.4196, -9.90436, 91.4046, -74.468, 36.1208
2.643, 6, 33.5847, 52.4439, -9.82602, 91.3208, -74.7253, 36.0358
2.648, 6, 33.5505, 52.467, -9.74716, 91.2369, -74.9814, 35.9512
2.652, 6, 33.517, 52.4889, -9.66797, 91.153, -75.2357, 35.8672
2.656, 6, 33.484, 52.5096, -9.58868, 91.0693, -75.4875, 35.784
2.66, 6, 33.4515, 52.5293, -9.50958, 90.9862, -75.7361, 35.7018
2.663, 6, 33.4196, 52.548, -9.431, 90.9039, -75.9806, 35.6209
2.668, 6, 33.3885, 52.5655, -9.35332, 90.8228, -76.22, 35.5416
2.672, 6, 33.3583, 52.5819, -9.27697, 90.7434, -76.4532, 35.4644
2.676, 6, 33.329, 52.5972, -9.20239, 90.6661, -76.679, 35.3896
2.679, 6, 33.3006, 52.6117, -9.13007, 90.5914, -76.8962, 35.3176
2.684, 6, 33.2732, 52.6254, -9.06047, 90.5197, -77.1035, 35.2488
2.688, 6, 33.2466, 52.6384, -8.99403, 90.4514, -77.3, 35.1835
2.692, 6, 33.2209, 52.651, -8.93116, 90.387, -77.4846, 35.1222
2.696, 6, 33.1964, 52.6629, -8.87218, 90.3267, -77.6566, 35.065
2.699, 6, 33.1731, 52.6742, -8.81738, 90.2709, -77.8154, 35.0122
2.704, 6, 33.1511, 52.6849, -8.76696, 90.2196, -77.9607, 34.9639
2.708, 6, 33.1305, 52.695, -8.72107, 90.1731, -78.0922, 34.9201
2.712, 6, 33.1111, 52.7046, -8.67977, 90.1313, -78.2099, 34.8809
2.716, 6, 33.0929, 52.7138, -8.64306, 90.0942, -78.3141, 34.8462
2.719, 6, 33.0759, 52.7227, -8.61083, 90.0618, -78.4051, 34.8159
2.724, 6, 33.06, 52.7313, -8.58291, 90.0338, -78.4835, 34.7898
2.728, 6, 33.0454, 52.7395, -8.55906, 90.0098, -78.5503, 34.7675
2.732, 6, 33.0321, 52.7474, -8.53896, 89.9898, -78.6063, 34.7488
2.735, 6, 33.0203, 52.7548, -8.52227, 89.9732, -78.6527, 34.7334
2.74, 6, 33.0098, 52.7617, -8.50863, 89.9596, -78.6904, 34.7208
2.744, 6, 33.0006, 52.7682, -8.49768, 89.9487, -78.7206, 34.7107
2.748, 6, 32.9924, 52.7741, -8.48905, 89.9402, -78.7444, 34.7028
2.752, 6, 32.9851, 52.7796, -8.48239, 89.9337, -78.7626, 34.6968
2.755, 6, 32.9786, 52.7845, -8.47736, 89.9287, -78.7763, 34.6922
2.76, 6, 32.9729, 52.7888, -8.47366, 89.9251, -78.7863, 34.6889
2.764, 7, 32.9679, 52.7923, -8.47099, 89.9225, -78.7936, 34.6865
2.768, 7, 32.9639, 52.795, -8.46911, 89.9207, -78.7986, 34.6848
2.772, 7, 32.9606, 52.7971, -8.4678, 89.9195, -78.8021, 34.6837
2.775, 7, 32.9582, 52.7987, -8.46691, 89.9186, -78.8045, 34.6829
2.78, 7, 32.9565, 52.7997, -8.4663, 89.9181, -78.8061, 34.6823
2.784, 7, 32.9553, 52.8004, -8.46589, 89.9177, -78.8072, 34.682
2.788, 7, 32.9545, 52.8009, -8.46561, 89.9174, -78.808, 34.6817
2.791, 7, 32.954, 52.8013, -8.46542, 89.9172, -78.8085, 34.6816
2.796, 7, 32.9536, 52.8015, -8.46529, 89.9171, -78.8088, 34.6814
2.8, 7, 32.9534, 52.8016, -8.4652, 89.917, -78.8091, 34.6814
2.804, 7, 32.9532, 52.8017, -8.46514, 89.917, -78.8092, 34.6813
2.808, 7, 32.9531, 52.8018, -8.4651, 89.9169, -78.8093, 34.6813
2.811, 7, 32.953, 52.8018, -8.46508, 89.9169, -78.8094, 34.6813
2.816, 7, 32.9529, 52.8019, -8.46506, 89.9169, -78.8094, 34.6812
2.82, 7, 32.9529, 52.8019, -8.46504, 89.9169, -78.8095, 34.6812
2.824, 7, 32.9529, 52.8019, -8.46504, 89.9169, -78.8095, 34.6812
2.828, 7, 32.9529, 52.8019, -8.46503, 89.9168, -78.8095, 34.6812
2.831, 7, 32.9529, 52.8019, -8.46503, 89.9168, -78.8095, 34.6812
2.836, 7, 32.9529, 52.8019, -8.46502, 89.9168, -78.8095, 34.6812
2.84, 7, 32.9528, 52.8019, -8.46502, 89.9168, -78.8095, 34.6812
2.844, 7, 32.9528, 52.8019, -8.46502, 89.9168, -78.8095, 34.6812
2.847, 7, 32.9528, 52.8019, -8.46502, 89.9168, -78.8095, 34.6812
2.852, 7, 32.9528, 52.8019, -8.46502, 89.9168, -78.8095, 34.6812
2.856, 7, 32.9528, 52.8019, -8.46502, 89.9168, -78.8096, 34.6812
2.86, 7, 32.9528, 52.8019, -8.46502, 89.9168, -78.8096, 34.6812
2.864, 7, 32.9528, 52.8019, -8.46502, 89.9168, -78.8096, 34.6812
2.867, 7, 32.9528, 52.8019, -8.46502, 89.9168, -78.8096, 34.6812
2.872, 7, 32.9528, 52.8019, -8.46502, 89.9168, -78.8096, 34.6812
2.876, 7, 32.9528, 52.8019, -8.46502, 89.9168, -78.8096, 34.6812
2.88, 7, 32.9528, 52.8019, -8.46502, 89.9168, -78.8096, 34.6812
