hehonglu123/ABB_Primitive_Study/execution/movec_smooth/curve_exe_v100_z5.csv
timestamp, cmd_num, J1, J2, J3, J4, J5, J6
0, 1, 32.9528, 52.8019, -8.46502, 89.9168, -78.8096, 34.6812
0.002, 1, 32.9528, 52.8019, -8.46502, 89.9168, -78.8096, 34.6812
0.004, 1, 32.9528, 52.8019, -8.46502, 89.9168, -78.8096, 34.6812
0.008, 1, 32.9528, 52.8019, -8.46502, 89.9168, -78.8096, 34.6812
0.011, 1, 32.9528, 52.8019, -8.46502, 89.9168, -78.8096, 34.6812
0.016, 1, 32.9528, 52.8019, -8.46502, 89.9168, -78.8096, 34.6812
0.02, 1, 32.9528, 52.8019, -8.46502, 89.9168, -78.8096, 34.6812
0.024, 1, 32.9528, 52.8019, -8.46502, 89.9168, -78.8096, 34.6812
0.028, 1, 32.9528, 52.8019, -8.46502, 89.9168, -78.8096, 34.6812
0.032, 1, 32.9528, 52.8019, -8.46502, 89.9168, -78.8096, 34.6812
0.036, 1, 32.9528, 52.8019, -8.46502, 89.9168, -78.8096, 34.6812
0.04, 1, 32.9529, 52.8019, -8.46502, 89.9168, -78.8096, 34.6812
0.044, 1, 32.9531, 52.8018, -8.46503, 89.9168, -78.8095, 34.6812
0.048, 1, 32.9535, 52.8014, -8.46505, 89.9169, -78.8095, 34.6812
0.052, 1, 32.9543, 52.8006, -8.4651, 89.9169, -78.8093, 34.6813
0.056, 1, 32.9556, 52.7993, -8.46521, 89.917, -78.8088, 34.6814
0.06, 1, 32.9574, 52.7971, -8.46544, 89.9173, -78.8079, 34.6818
0.064, 1, 32.9597, 52.794, -8.46584, 89.9178, -78.8061, 34.6824
0.068, 1, 32.9625, 52.7899, -8.46653, 89.9186, -78.803, 34.6834
0.072, 1, 32.9659, 52.7849, -8.46761, 89.92, -78.798, 34.6852
0.076, 1, 32.9697, 52.7789, -8.46923, 89.922, -78.7905, 34.6877
0.08, 1, 32.9741, 52.7719, -8.47155, 89.925, -78.7796, 34.6915
0.084, 1, 32.9791, 52.7639, -8.47475, 89.9292, -78.7644, 34.6967
0.088, 1, 32.9847, 52.7549, -8.47904, 89.9348, -78.744, 34.7037
0.092, 1, 32.991, 52.7451, -8.48462, 89.9421, -78.7174, 34.7128
0.096, 1, 32.9978, 52.7344, -8.49169, 89.9515, -78.6834, 34.7244
0.1, 1, 33.005, 52.7231, -8.50046, 89.9631, -78.6411, 34.7389
0.104, 1, 33.0126, 52.7112, -8.51109, 89.9773, -78.5897, 34.7566
0.108, 1, 33.0204, 52.699, -8.5237, 89.9942, -78.5285, 34.7775
0.112, 1, 33.0284, 52.6863, -8.53837, 90.0139, -78.4572, 34.802
0.116, 1, 33.0368, 52.673, -8.55512, 90.0364, -78.3757, 34.8299
0.12, 1, 33.0455, 52.6592, -8.57391, 90.0617, -78.2841, 34.8613
0.124, 1, 33.0546, 52.6447, -8.59467, 90.0896, -78.183, 34.896
0.128, 1, 33.0642, 52.6296, -8.61726, 90.12, -78.0728, 34.9337
0.131, 1, 33.0741, 52.6139, -8.64154, 90.1527, -77.9545, 34.9743
0.136, 1, 33.0844, 52.5977, -8.66731, 90.1875, -77.8288, 35.0174
0.139, 1, 33.0949, 52.5809, -8.69437, 90.2239, -77.6968, 35.0627
0.144, 1, 33.1058, 52.5633, -8.72251, 90.2618, -77.5596, 35.1097
0.148, 1, 33.1172, 52.5447, -8.75152, 90.3009, -77.4182, 35.1582
0.152, 1, 33.1293, 52.525, -8.7812, 90.3408, -77.2736, 35.2077
0.156, 1, 33.1421, 52.5041, -8.81138, 90.3814, -77.1267, 35.2581
0.16, 1, 33.1556, 52.4819, -8.8419, 90.4224, -76.9782, 35.309
0.164, 1, 33.17, 52.4586, -8.87265, 90.4637, -76.8286, 35.3603
0.168, 1, 33.1849, 52.4345, -8.90354, 90.5052, -76.6784, 35.4118
0.172, 1, 33.2004, 52.4098, -8.93451, 90.5467, -76.5279, 35.4634
0.176, 1, 33.2161, 52.3847, -8.9655, 90.5883, -76.3772, 35.515
0.18, 1, 33.2321, 52.3594, -8.9965, 90.6299, -76.2265, 35.5667
0.184, 1, 33.2481, 52.334, -9.02749, 90.6715, -76.076, 35.6183
0.188, 1, 33.2643, 52.3084, -9.05844, 90.713, -75.9256, 35.6699
0.192, 1, 33.2805, 52.2828, -9.08935, 90.7545, -75.7754, 35.7214
0.196, 1, 33.2967, 52.2573, -9.12022, 90.7959, -75.6254, 35.7728
0.2, 1, 33.3129, 52.2317, -9.15104, 90.8372, -75.4757, 35.8241
0.204, 1, 33.3291, 52.2061, -9.1818, 90.8785, -75.3262, 35.8753
0.208, 1, 33.3453, 52.1806, -9.21251, 90.9197, -75.177, 35.9265
0.212, 1, 33.3614, 52.1551, -9.24316, 90.9608, -75.028, 35.9775
0.216, 1, 33.3776, 52.1296, -9.27376, 91.0018, -74.8794, 36.0285
0.22, 1, 33.3937, 52.1042, -9.30431, 91.0428, -74.731, 36.0794
0.224, 1, 33.4098, 52.0788, -9.33479, 91.0837, -74.5829, 36.1302
0.228, 1, 33.4258, 52.0535, -9.36522, 91.1245, -74.435, 36.1808
0.232, 1, 33.4419, 52.0282, -9.3956, 91.1652, -74.2874, 36.2314
0.236, 1, 33.4579, 52.003, -9.42592, 91.2059, -74.1401, 36.2819
0.24, 1, 33.4738, 51.9778, -9.45618, 91.2465, -73.9931, 36.3323
0.244, 1, 33.4898, 51.9526, -9.48639, 91.287, -73.8463, 36.3826
0.248, 1, 33.5057, 51.9275, -9.51654, 91.3275, -73.6998, 36.4329
0.252, 1, 33.5216, 51.9025, -9.54664, 91.3678, -73.5536, 36.483
0.256, 1, 33.5374, 51.8774, -9.57668, 91.4081, -73.4076, 36.533
0.26, 1, 33.5533, 51.8525, -9.60667, 91.4483, -73.2619, 36.583
0.264, 1, 33.5691, 51.8276, -9.63661, 91.4885, -73.1165, 36.6328
0.268, 1, 33.5848, 51.8027, -9.66649, 91.5286, -72.9713, 36.6826
0.272, 1, 33.6006, 51.7778, -9.69631, 91.5686, -72.8264, 36.7323
0.276, 1, 33.6163, 51.7531, -9.72609, 91.6085, -72.6817, 36.7819
0.28, 1, 33.632, 51.7283, -9.75581, 91.6484, -72.5373, 36.8314
0.284, 1, 33.6476, 51.7036, -9.78548, 91.6882, -72.3932, 36.8808
0.288, 1, 33.6633, 51.679, -9.81509, 91.7279, -72.2493, 36.9301
0.292, 1, 33.6789, 51.6544, -9.84465, 91.7675, -72.1057, 36.9794
0.296, 1, 33.6945, 51.6298, -9.87416, 91.8071, -71.9623, 37.0285
0.3, 1, 33.71, 51.6053, -9.90362, 91.8466, -71.8191, 37.0776
0.304, 1, 33.7255, 51.5808, -9.93303, 91.8861, -71.6763, 37.1265
0.308, 1, 33.741, 51.5563, -9.96238, 91.9255, -71.5336, 37.1754
0.312, 1, 33.7565, 51.5319, -9.99169, 91.9648, -71.3913, 37.2242
0.316, 1, 33.7719, 51.5076, -10.0209, 92.004, -71.2491, 37.273
0.32, 1, 33.7873, 51.4833, -10.0501, 92.0432, -71.1073, 37.3216
0.324, 1, 33.8027, 51.459, -10.0793, 92.0823, -70.9656, 37.3702
0.328, 1, 33.8181, 51.4348, -10.1084, 92.1213, -70.8242, 37.4186
0.332, 1, 33.8334, 51.4106, -10.1375, 92.1603, -70.6831, 37.467
0.336, 1, 33.8487, 51.3864, -10.1665, 92.1992, -70.5422, 37.5153
0.34, 1, 33.864, 51.3623, -10.1954, 92.238, -70.4015, 37.5636
0.344, 1, 33.8793, 51.3383, -10.2243, 92.2768, -70.261, 37.6117
0.348, 1, 33.8945, 51.3142, -10.2532, 92.3155, -70.1209, 37.6598
0.352, 1, 33.9097, 51.2903, -10.282, 92.3541, -69.9809, 37.7077
0.356, 1, 33.9249, 51.2663, -10.3107, 92.3927, -69.8412, 37.7556
0.36, 1, 33.94, 51.2424, -10.3394, 92.4312, -69.7017, 37.8034
0.364, 1, 33.9552, 51.2186, -10.3681, 92.4696, -69.5624, 37.8512
0.368, 1, 33.9703, 51.1947, -10.3967, 92.508, -69.4234, 37.8988
0.372, 1, 33.9853, 51.171, -10.4253, 92.5463, -69.2846, 37.9464
0.376, 1, 34.0004, 51.1472, -10.4538, 92.5846, -69.1461, 37.9939
0.38, 1, 34.0154, 51.1235, -10.4823, 92.6228, -69.0078, 38.0413
0.384, 1, 34.0304, 51.0998, -10.5107, 92.6609, -68.8697, 38.0887
0.388, 1, 34.0454, 51.0762, -10.5391, 92.6989, -68.7318, 38.1359
0.392, 1, 34.0604, 51.0526, -10.5674, 92.7369, -68.5941, 38.1831
0.396, 1, 34.0753, 51.0291, -10.5957, 92.7749, -68.4567, 38.2302
0.4, 1, 34.0902, 51.0056, -10.6239, 92.8127, -68.3195, 38.2773
0.404, 1, 34.1051, 50.9821, -10.6521, 92.8506, -68.1825, 38.3242
0.408, 1, 34.1199, 50.9587, -10.6803, 92.8883, -68.0458, 38.3711
0.412, 1, 34.1348, 50.9353, -10.7084, 92.926, -67.9093, 38.4179
0.416, 1, 34.1496, 50.9119, -10.7364, 92.9636, -67.773, 38.4646
0.42, 1, 34.1643, 50.8886, -10.7644, 93.0012, -67.6369, 38.5113
0.424, 1, 34.1791, 50.8653, -10.7924, 93.0387, -67.501, 38.5579
0.428, 1, 34.1938, 50.8421, -10.8203, 93.0762, -67.3653, 38.6044
0.432, 1, 34.2086, 50.8189, -10.8482, 93.1136, -67.2299, 38.6508
0.436, 1, 34.2232, 50.7957, -10.876, 93.1509, -67.0947, 38.6971
0.44, 1, 34.2379, 50.7726, -10.9038, 93.1881, -66.9597, 38.7434
0.444, 1, 34.2526, 50.7495, -10.9315, 93.2254, -66.8249, 38.7896
0.448, 1, 34.2672, 50.7264, -10.9592, 93.2625, -66.6903, 38.8358
0.452, 1, 34.2818, 50.7034, -10.9869, 93.2996, -66.5559, 38.8818
0.456, 1, 34.2964, 50.6804, -11.0145, 93.3367, -66.4217, 38.9278
0.46, 1, 34.3109, 50.6574, -11.0421, 93.3736, -66.2878, 38.9738
0.464, 1, 34.3254, 50.6345, -11.0696, 93.4106, -66.154, 39.0196
0.468, 1, 34.3399, 50.6116, -11.0971, 93.4474, -66.0204, 39.0654
0.472, 1, 34.3544, 50.5888, -11.1246, 93.4842, -65.8871, 39.1111
0.476, 1, 34.3689, 50.566, -11.152, 93.521, -65.754, 39.1567
0.48, 1, 34.3833, 50.5432, -11.1793, 93.5577, -65.621, 39.2023
0.484, 1, 34.3978, 50.5204, -11.2066, 93.5943, -65.4883, 39.2478
0.488, 1, 34.4121, 50.4977, -11.2339, 93.6309, -65.3558, 39.2933
0.492, 1, 34.4265, 50.475, -11.2612, 93.6675, -65.2234, 39.3386
0.496, 1, 34.4409, 50.4524, -11.2884, 93.7039, -65.0913, 39.3839
0.5, 1, 34.4552, 50.4298, -11.3155, 93.7404, -64.9594, 39.4291
0.504, 1, 34.4695, 50.4072, -11.3426, 93.7767, -64.8276, 39.4743
0.508, 1, 34.4838, 50.3847, -11.3697, 93.813, -64.6961, 39.5194
0.512, 1, 34.4981, 50.3622, -11.3967, 93.8493, -64.5647, 39.5644
0.516, 1, 34.5123, 50.3397, -11.4237, 93.8855, -64.4336, 39.6094
0.52, 1, 34.5265, 50.3173, -11.4507, 93.9217, -64.3026, 39.6543
0.524, 1, 34.5408, 50.2949, -11.4776, 93.9578, -64.1719, 39.6991
0.528, 1, 34.5549, 50.2725, -11.5045, 93.9938, -64.0413, 39.7439
0.532, 1, 34.5691, 50.2501, -11.5313, 94.0298, -63.9109, 39.7886
0.536, 1, 34.5832, 50.2278, -11.5581, 94.0657, -63.7807, 39.8332
0.54, 1, 34.5974, 50.2056, -11.5848, 94.1016, -63.6507, 39.8777
0.544, 1, 34.6115, 50.1833, -11.6116, 94.1375, -63.5209, 39.9222
0.548, 1, 34.6255, 50.1611, -11.6382, 94.1732, -63.3913, 39.9667
0.552, 1, 34.6396, 50.1389, -11.6649, 94.209, -63.2619, 40.0111
0.556, 1, 34.6536, 50.1168, -11.6915, 94.2447, -63.1326, 40.0554
0.56, 1, 34.6677, 50.0947, -11.718, 94.2803, -63.0036, 40.0996
0.564, 1, 34.6817, 50.0726, -11.7446, 94.3159, -62.8747, 40.1438
0.568, 1, 34.6956, 50.0505, -11.7711, 94.3514, -62.746, 40.1879
0.572, 1, 34.7096, 50.0285, -11.7975, 94.3869, -62.6175, 40.2319
0.576, 1, 34.7235, 50.0065, -11.8239, 94.4223, -62.4892, 40.2759
0.58, 1, 34.7375, 49.9846, -11.8503, 94.4577, -62.361, 40.3199
0.584, 1, 34.7514, 49.9626, -11.8766, 94.493, -62.2331, 40.3637
0.588, 1, 34.7652, 49.9407, -11.9029, 94.5283, -62.1053, 40.4075
0.592, 1, 34.7791, 49.9189, -11.9292, 94.5635, -61.9777, 40.4513
0.596, 1, 34.7929, 49.897, -11.9554, 94.5987, -61.8503, 40.495
0.6, 1, 34.8068, 49.8752, -11.9816, 94.6338, -61.723, 40.5386
0.604, 1, 34.8206, 49.8535, -12.0078, 94.6689, -61.5959, 40.5821
0.608, 1, 34.8343, 49.8317, -12.0339, 94.7039, -61.4691, 40.6256
0.612, 1, 34.8481, 49.81, -12.06, 94.7389, -61.3423, 40.6691
0.616, 1, 34.8618, 49.7883, -12.086, 94.7738, -61.2158, 40.7125
0.62, 1, 34.8756, 49.7667, -12.112, 94.8087, -61.0894, 40.7558
0.624, 1, 34.8893, 49.7451, -12.138, 94.8435, -60.9632, 40.799
0.628, 1, 34.903, 49.7235, -12.1639, 94.8783, -60.8372, 40.8422
0.632, 1, 34.9166, 49.7019, -12.1898, 94.9131, -60.7114, 40.8854
0.636, 1, 34.9303, 49.6804, -12.2157, 94.9478, -60.5857, 40.9284
0.64, 1, 34.9439, 49.6589, -12.2415, 94.9824, -60.4602, 40.9715
0.644, 1, 34.9575, 49.6374, -12.2673, 95.017, -60.3349, 41.0144
0.648, 1, 34.9711, 49.6159, -12.2931, 95.0516, -60.2097, 41.0573
0.652, 1, 34.9847, 49.5945, -12.3188, 95.0861, -60.0847, 41.1002
0.656, 1, 34.9983, 49.5731, -12.3445, 95.1205, -59.9599, 41.143
0.66, 1, 35.0118, 49.5518, -12.3701, 95.1549, -59.8352, 41.1857
0.664, 1, 35.0253, 49.5304, -12.3958, 95.1893, -59.7107, 41.2284
0.668, 1, 35.0388, 49.5091, -12.4214, 95.2236, -59.5864, 41.271
0.672, 1, 35.0523, 49.4879, -12.4469, 95.2579, -59.4622, 41.3136
0.676, 1, 35.0658, 49.4666, -12.4724, 95.2921, -59.3382, 41.3561
0.68, 1, 35.0792, 49.4454, -12.4979, 95.3263, -59.2144, 41.3985
0.684, 1, 35.0927, 49.4242, -12.5234, 95.3605, -59.0907, 41.4409
0.688, 1, 35.1061, 49.4031, -12.5488, 95.3946, -58.9672, 41.4833
0.692, 1, 35.1195, 49.3819, -12.5742, 95.4286, -58.8439, 41.5256
0.696, 1, 35.1329, 49.3608, -12.5995, 95.4626, -58.7207, 41.5678
0.7, 1, 35.1462, 49.3397, -12.6249, 95.4966, -58.5977, 41.61
0.704, 1, 35.1596, 49.3187, -12.6501, 95.5305, -58.4748, 41.6521
0.708, 1, 35.1729, 49.2977, -12.6754, 95.5644, -58.3521, 41.6941
0.712, 1, 35.1862, 49.2767, -12.7006, 95.5982, -58.2296, 41.7361
0.716, 1, 35.1995, 49.2557, -12.7258, 95.632, -58.1072, 41.7781
0.72, 1, 35.2128, 49.2347, -12.751, 95.6657, -57.985, 41.82
0.724, 1, 35.226, 49.2138, -12.7761, 95.6994, -57.8629, 41.8618
0.728, 1, 35.2393, 49.1929, -12.8012, 95.7331, -57.741, 41.9036
0.732, 1, 35.2525, 49.1721, -12.8262, 95.7667, -57.6192, 41.9454
0.736, 1, 35.2657, 49.1512, -12.8513, 95.8003, -57.4976, 41.9871
0.74, 1, 35.2789, 49.1304, -12.8763, 95.8338, -57.3762, 42.0287
0.744, 1, 35.2921, 49.1097, -12.9012, 95.8673, -57.2549, 42.0703
0.748, 1, 35.3052, 49.0889, -12.9262, 95.9007, -57.1338, 42.1118
0.752, 1, 35.3184, 49.0682, -12.9511, 95.9341, -57.0128, 42.1533
0.756, 1, 35.3315, 49.0475, -12.9759, 95.9675, -56.8919, 42.1947
0.76, 1, 35.3446, 49.0268, -13.0008, 96.0008, -56.7712, 42.2361
0.764, 1, 35.3577, 49.0061, -13.0256, 96.0341, -56.6507, 42.2774
0.768, 1, 35.3708, 48.9855, -13.0504, 96.0673, -56.5303, 42.3187
0.772, 1, 35.3838, 48.9649, -13.0751, 96.1005, -56.4101, 42.3599
0.776, 1, 35.3969, 48.9443, -13.0998, 96.1336, -56.29, 42.401
0.78, 1, 35.4099, 48.9238, -13.1245, 96.1667, -56.1701, 42.4422
0.784, 1, 35.4229, 48.9032, -13.1492, 96.1998, -56.0503, 42.4832
0.788, 1, 35.4359, 48.8827, -13.1738, 96.2328, -55.9306, 42.5242
0.792, 1, 35.4489, 48.8623, -13.1984, 96.2658, -55.8112, 42.5652
0.796, 1, 35.4619, 48.8418, -13.2229, 96.2988, -55.6918, 42.6061
0.8, 1, 35.4748, 48.8214, -13.2475, 96.3317, -55.5726, 42.647
0.804, 1, 35.4877, 48.801, -13.272, 96.3646, -55.4535, 42.6878
0.808, 1, 35.5006, 48.7806, -13.2965, 96.3974, -55.3346, 42.7285
0.812, 1, 35.5136, 48.7603, -13.3209, 96.4302, -55.2159, 42.7693
0.816, 1, 35.5264, 48.7399, -13.3453, 96.4629, -55.0972, 42.8099
0.82, 1, 35.5393, 48.7196, -13.3697, 96.4956, -54.9787, 42.8506
0.824, 1, 35.5522, 48.6994, -13.3941, 96.5283, -54.8604, 42.8911
0.828, 1, 35.565, 48.6791, -13.4184, 96.5609, -54.7422, 42.9316
0.832, 1, 35.5778, 48.6589, -13.4427, 96.5935, -54.6241, 42.9721
0.836, 1, 35.5906, 48.6387, -13.467, 96.6261, -54.5062, 43.0125
0.84, 1, 35.6034, 48.6185, -13.4912, 96.6586, -54.3884, 43.0529
0.844, 1, 35.6162, 48.5983, -13.5154, 96.6911, -54.2707, 43.0933
0.848, 1, 35.629, 48.5782, -13.5396, 96.7235, -54.1532, 43.1335
0.852, 1, 35.6417, 48.5581, -13.5638, 96.7559, -54.0358, 43.1738
0.856, 1, 35.6545, 48.538, -13.5879, 96.7883, -53.9186, 43.214
0.86, 1, 35.6672, 48.5179, -13.612, 96.8206, -53.8015, 43.2541
0.864, 1, 35.6799, 48.4979, -13.6361, 96.8529, -53.6845, 43.2942
0.868, 1, 35.6925, 48.4779, -13.6601, 96.8852, -53.5677, 43.3343
0.872, 1, 35.7051, 48.458, -13.6841, 96.9174, -53.451, 43.3743
0.876, 1, 35.7176, 48.4381, -13.7081, 96.9496, -53.3345, 43.4142
0.88, 1, 35.73, 48.4184, -13.7321, 96.9817, -53.2181, 43.4541
0.884, 1, 35.7419, 48.3992, -13.756, 97.0137, -53.102, 43.4939
0.888, 1, 35.7533, 48.3805, -13.7798, 97.0457, -52.9863, 43.5336
0.892, 1, 35.7641, 48.3627, -13.8035, 97.0775, -52.8712, 43.5731
0.896, 1, 35.7742, 48.3457, -13.8269, 97.109, -52.757, 43.6122
0.9, 1, 35.7836, 48.3297, -13.8501, 97.1401, -52.6444, 43.6508
0.904, 1, 35.7924, 48.3145, -13.8728, 97.1706, -52.534, 43.6887
0.908, 1, 35.8007, 48.3002, -13.895, 97.2003, -52.4264, 43.7256
0.912, 1, 35.8087, 48.2866, -13.9163, 97.229, -52.3226, 43.7613
0.916, 1, 35.8164, 48.2736, -13.9367, 97.2564, -52.2234, 43.7953
0.92, 1, 35.8238, 48.2613, -13.956, 97.2823, -52.1296, 43.8275
0.924, 1, 35.8309, 48.2497, -13.9741, 97.3065, -52.042, 43.8576
0.928, 1, 35.8377, 48.2387, -13.9907, 97.3288, -51.9612, 43.8853
0.932, 1, 35.8442, 48.2281, -14.0057, 97.3491, -51.888, 43.9104
0.936, 1, 35.8507, 48.2178, -14.0192, 97.3671, -51.8226, 43.9328
0.94, 1, 35.8571, 48.2077, -14.031, 97.3829, -51.7653, 43.9524
0.944, 1, 35.8634, 48.1979, -14.0412, 97.3966, -51.716, 43.9693
0.948, 1, 35.8695, 48.1884, -14.0498, 97.4081, -51.6743, 43.9836
0.952, 1, 35.8755, 48.1793, -14.0569, 97.4175, -51.6399, 43.9954
0.956, 2, 35.8812, 48.1708, -14.0626, 97.4252, -51.612, 44.0049
0.96, 2, 35.8865, 48.1631, -14.0672, 97.4313, -51.5899, 44.0124
0.964, 2, 35.8915, 48.1562, -14.0707, 97.436, -51.5728, 44.0183
0.968, 2, 35.896, 48.1502, -14.0734, 97.4396, -51.5598, 44.0227
0.972, 2, 35.9001, 48.145, -14.0754, 97.4422, -51.5503, 44.0259
0.976, 2, 35.9037, 48.1406, -14.0768, 97.4441, -51.5433, 44.0283
0.98, 2, 35.9067, 48.1371, -14.0778, 97.4454, -51.5385, 44.0299
0.984, 2, 35.9091, 48.1343, -14.0785, 97.4463, -51.5351, 44.0311
0.988, 2, 35.911, 48.1323, -14.079, 97.4469, -51.5327, 44.0319
0.992, 2, 35.9123, 48.1308, -14.0793, 97.4474, -51.5312, 44.0324
0.996, 2, 35.9132, 48.1299, -14.0796, 97.4477, -51.5301, 44.0328
1, 2, 35.9138, 48.1292, -14.0797, 97.4479, -51.5294, 44.033
1.004, 2, 35.9142, 48.1287, -14.0798, 97.448, -51.5289, 44.0332
1.008, 2, 35.9145, 48.1284, -14.0799, 97.4481, -51.5285, 44.0333
1.012, 2, 35.9147, 48.1282, -14.0799, 97.4482, -51.5283, 44.0334
1.016, 2, 35.9149, 48.1281, -14.08, 97.4482, -51.5282, 44.0334
1.02, 2, 35.9149, 48.128, -14.08, 97.4482, -51.5281, 44.0335
1.024, 2, 35.915, 48.1279, -14.08, 97.4482, -51.528, 44.0335
1.027, 2, 35.915, 48.1279, -14.08, 97.4483, -51.5279, 44.0335
1.032, 2, 35.9151, 48.1278, -14.08, 97.4483, -51.5279, 44.0335
1.036, 2, 35.9151, 48.1278, -14.08, 97.4483, -51.5279, 44.0335
1.04, 2, 35.9151, 48.1278, -14.08, 97.4483, -51.5279, 44.0335
1.044, 2, 35.9151, 48.1278, -14.08, 97.4483, -51.5279, 44.0335
1.048, 2, 35.9151, 48.1278, -14.08, 97.4483, -51.5279, 44.0335
1.052, 2, 35.9151, 48.1278, -14.08, 97.4483, -51.5279, 44.0335
1.055, 2, 35.9151, 48.1278, -14.08, 97.4483, -51.5278, 44.0335
1.06, 2, 35.9151, 48.1278, -14.08, 97.4483, -51.5278, 44.0335
1.064, 2, 35.9151, 48.1278, -14.08, 97.4483, -51.5278, 44.0335
1.068, 2, 35.9151, 48.1278, -14.08, 97.4483, -51.5278, 44.0335
1.072, 2, 35.9151, 48.1278, -14.08, 97.4483, -51.5278, 44.0335
1.076, 2, 35.9151, 48.1278, -14.08, 97.4483, -51.5278, 44.0335
1.08, 2, 35.9151, 48.1278, -14.08, 97.4483, -51.5278, 44.0335
1.084, 2, 35.9151, 48.1278, -14.08, 97.4483, -51.5278, 44.0335
1.088, 2, 35.9151, 48.1278, -14.08, 97.4483, -51.5278, 44.0335
1.091, 2, 35.9151, 48.1278, -14.08, 97.4483, -51.5278, 44.0335
1.096, 2, 35.9151, 48.1278, -14.08, 97.4483, -51.5278, 44.0335
1.1, 2, 35.9151, 48.1278, -14.08, 97.4483, -51.5278, 44.0335
1.104, 2, 35.9151, 48.1278, -14.08, 97.4483, -51.5278, 44.0335
1.108, 2, 35.9151, 48.1278, -14.08, 97.4483, -51.5278, 44.0335
1.112, 2, 35.9151, 48.1278, -14.08, 97.4483, -51.5278, 44.0335
1.116, 2, 35.9151, 48.1278, -14.08, 97.4483, -51.5278, 44.0335
1.119, 2, 35.9151, 48.1278, -14.08, 97.4483, -51.5278, 44.0335
1.124, 2, 35.9151, 48.1278, -14.08, 97.4483, -51.5278, 44.0335
1.128, 2, 35.9151, 48.1278, -14.08, 97.4483, -51.5278, 44.0335
1.132, 2, 35.9151, 48.1278, -14.08, 97.4483, -51.5278, 44.0335
1.136, 2, 35.9151, 48.1278, -14.08, 97.4483, -51.5278, 44.0335
1.14, 2, 35.9151, 48.1278, -14.08, 97.4483, -51.5278, 44.0335
1.144, 2, 35.9151, 48.1278, -14.08, 97.4483, -51.5278, 44.0335
1.147, 2, 35.9151, 48.1278, -14.08, 97.4483, -51.5278, 44.0335
1.152, 2, 35.9151, 48.1278, -14.08, 97.4483, -51.5278, 44.0335
1.156, 2, 35.9151, 48.1278, -14.08, 97.4483, -51.5278, 44.0335
1.16, 2, 35.9151, 48.1278, -14.08, 97.4483, -51.5278, 44.0335
1.164, 2, 35.9151, 48.1278, -14.08, 97.4483, -51.5278, 44.0335
1.168, 2, 35.9151, 48.1278, -14.08, 97.4483, -51.5278, 44.0335
1.172, 2, 35.9151, 48.1278, -14.08, 97.4483, -51.5278, 44.0335
1.175, 2, 35.9151, 48.1278, -14.08, 97.4483, -51.5278, 44.0335
1.18, 2, 35.9151, 48.1278, -14.08, 97.4483, -51.5278, 44.0335
1.184, 2, 35.9151, 48.1278, -14.08, 97.4483, -51.5278, 44.0335
1.188, 2, 35.9151, 48.1278, -14.08, 97.4483, -51.5278, 44.0335
1.192, 2, 35.9151, 48.1278, -14.08, 97.4483, -51.5278, 44.0335
1.196, 2, 35.9151, 48.1278, -14.08, 97.4483, -51.5278, 44.0335
1.2, 2, 35.9151, 48.1278, -14.08, 97.4483, -51.5278, 44.0335
1.204, 2, 35.9151, 48.1278, -14.08, 97.4483, -51.5278, 44.0335
1.208, 2, 35.9151, 48.1278, -14.08, 97.4483, -51.5278, 44.0335
1.212, 2, 35.9151, 48.1278, -14.08, 97.4483, -51.5278, 44.0335
1.216, 2, 35.9151, 48.1278, -14.08, 97.4483, -51.5278, 44.0335
1.22, 2, 35.9151, 48.1278, -14.08, 97.4483, -51.5278, 44.0335
1.224, 2, 35.9151, 48.1278, -14.08, 97.4483, -51.5278, 44.0335
1.228, 2, 35.9151, 48.1278, -14.08, 97.4483, -51.5278, 44.0335
1.232, 2, 35.9151, 48.1278, -14.08, 97.4483, -51.5278, 44.0335
1.236, 2, 35.9151, 48.1278, -14.08, 97.4483, -51.5278, 44.0335
1.24, 2, 35.9151, 48.1278, -14.08, 97.4483, -51.5278, 44.0335
1.244, 2, 35.9151, 48.1278, -14.08, 97.4483, -51.5278, 44.0335
1.248, 2, 35.9151, 48.1278, -14.08, 97.4483, -51.5278, 44.0335
1.252, 2, 35.9151, 48.1278, -14.08, 97.4483, -51.5278, 44.0335
1.256, 2, 35.9151, 48.1278, -14.08, 97.4483, -51.5278, 44.0335
1.26, 2, 35.9151, 48.1278, -14.08, 97.4483, -51.5278, 44.0335
1.264, 2, 35.9151, 48.1278, -14.08, 97.4483, -51.5278, 44.0335
1.267, 2, 35.9151, 48.1278, -14.08, 97.4483, -51.5278, 44.0335
1.272, 2, 35.9151, 48.1278, -14.08, 97.4483, -51.5278, 44.0335
1.276, 2, 35.9151, 48.1278, -14.08, 97.4483, -51.5278, 44.0335
1.28, 2, 35.9151, 48.1278, -14.08, 97.4483, -51.5278, 44.0335
1.284, 2, 35.9151, 48.1278, -14.08, 97.4483, -51.5278, 44.0335
1.288, 2, 35.9151, 48.1278, -14.08, 97.4483, -51.5278, 44.0335
1.292, 2, 35.9151, 48.1278, -14.08, 97.4483, -51.5278, 44.0335
1.295, 2, 35.9151, 48.1278, -14.08, 97.4483, -51.5278, 44.0335
1.3, 2, 35.9151, 48.1278, -14.08, 97.4483, -51.5278, 44.0335
1.304, 2, 35.9151, 48.1278, -14.08, 97.4483, -51.5278, 44.0335
1.308, 2, 35.9151, 48.1278, -14.08, 97.4483, -51.5278, 44.0335
1.312, 2, 35.9151, 48.1278, -14.08, 97.4483, -51.5278, 44.0335
1.316, 2, 35.9151, 48.1278, -14.08, 97.4483, -51.5278, 44.0335
1.32, 2, 35.9151, 48.1278, -14.08, 97.4483, -51.5278, 44.0335
1.324, 2, 35.9151, 48.1278, -14.08, 97.4483, -51.5278, 44.0335
1.328, 2, 35.9151, 48.1278, -14.08, 97.4483, -51.5278, 44.0335
1.332, 2, 35.9151, 48.1278, -14.08, 97.4483, -51.5278, 44.0335
1.336, 2, 35.9151, 48.1278, -14.08, 97.4483, -51.5278, 44.0335
1.34, 2, 35.9151, 48.1278, -14.08, 97.4483, -51.5278, 44.0335
1.344, 2, 35.9151, 48.1278, -14.08, 97.4483, -51.5278, 44.0335
1.348, 2, 35.9151, 48.1278, -14.08, 97.4483, -51.5278, 44.0335
1.352, 2, 35.9151, 48.1278, -14.08, 97.4483, -51.5278, 44.0335
1.356, 2, 35.9151, 48.1278, -14.08, 97.4483, -51.5278, 44.0335
1.36, 2, 35.9151, 48.1278, -14.08, 97.4483, -51.5278, 44.0335
1.364, 2, 35.9151, 48.1278, -14.08, 97.4483, -51.5278, 44.0335
1.368, 2, 35.9151, 48.1278, -14.08, 97.4483, -51.5278, 44.0335
1.372, 2, 35.9151, 48.1278, -14.08, 97.4483, -51.5278, 44.0335
1.376, 2, 35.9151, 48.1278, -14.08, 97.4483, -51.5278, 44.0335
1.38, 2, 35.9151, 48.1278, -14.08, 97.4483, -51.5278, 44.0335
1.384, 2, 35.9151, 48.1278, -14.08, 97.4483, -51.5278, 44.0335
1.388, 2, 35.9151, 48.1278, -14.08, 97.4483, -51.5278, 44.0335
1.392, 2, 35.9151, 48.1278, -14.08, 97.4483, -51.5278, 44.0335
1.396, 2, 35.9151, 48.1278, -14.08, 97.4483, -51.5278, 44.0335
1.4, 2, 35.9151, 48.1278, -14.08, 97.4483, -51.5278, 44.0335
1.404, 2, 35.9151, 48.1278, -14.08, 97.4483, -51.5278, 44.0335
1.408, 2, 35.9151, 48.1278, -14.08, 97.4483, -51.5278, 44.0335
1.412, 2, 35.9151, 48.1278, -14.08, 97.4483, -51.5278, 44.0335
1.416, 2, 35.9151, 48.1278, -14.08, 97.4483, -51.5278, 44.0335
1.42, 2, 35.9151, 48.1278, -14.08, 97.4483, -51.5278, 44.0335
1.424, 2, 35.9151, 48.1278, -14.08, 97.4483, -51.5278, 44.0335
1.428, 2, 35.9151, 48.1278, -14.08, 97.4483, -51.5278, 44.0335
1.432, 2, 35.9151, 48.1278, -14.08, 97.4483, -51.5278, 44.0335
1.436, 2, 35.9151, 48.1278, -14.08, 97.4483, -51.5278, 44.0335
1.44, 2, 35.9151, 48.1278, -14.08, 97.4483, -51.5278, 44.0335
1.444, 2, 35.9151, 48.1278, -14.08, 97.4483, -51.5278, 44.0335
1.448, 2, 35.9151, 48.1278, -14.08, 97.4483, -51.5278, 44.0335
1.452, 2, 35.9151, 48.1278, -14.08, 97.4483, -51.5278, 44.0335
1.456, 3, 35.9151, 48.1278, -14.08, 97.4483, -51.5278, 44.0335
1.46, 3, 35.9151, 48.1278, -14.08, 97.4483, -51.5278, 44.0335
1.464, 3, 35.9151, 48.1278, -14.08, 97.4483, -51.5278, 44.0335
1.468, 3, 35.9151, 48.1278, -14.08, 97.4483, -51.5278, 44.0335
1.472, 3, 35.9151, 48.1278, -14.08, 97.4483, -51.5278, 44.0335
1.476, 3, 35.9151, 48.1278, -14.08, 97.4483, -51.5278, 44.0335
1.48, 3, 35.9151, 48.1278, -14.08, 97.4483, -51.5278, 44.0335
1.484, 3, 35.9151, 48.1278, -14.08, 97.4483, -51.5278, 44.0335
1.488, 3, 35.9151, 48.1278, -14.08, 97.4483, -51.5278, 44.0335
1.492, 3, 35.9151, 48.1278, -14.08, 97.4483, -51.5278, 44.0335
1.496, 3, 35.9151, 48.1278, -14.08, 97.4483, -51.5278, 44.0335
1.5, 3, 35.9151, 48.1278, -14.08, 97.4483, -51.5278, 44.0335
1.504, 3, 35.9151, 48.1278, -14.08, 97.4483, -51.5278, 44.0335
1.508, 3, 35.9151, 48.1278, -14.08, 97.4483, -51.5278, 44.0335
1.512, 4, 35.9151, 48.1278, -14.08, 97.4483, -51.5278, 44.0335
1.516, 4, 35.9151, 48.1278, -14.08, 97.4483, -51.5278, 44.0335
1.52, 4, 35.9151, 48.1278, -14.08, 97.4483, -51.5278, 44.0335
1.524, 4, 35.9151, 48.1278, -14.08, 97.4483, -51.5278, 44.0335
1.528, 4, 35.9151, 48.1278, -14.08, 97.4483, -51.5278, 44.0335
1.532, 4, 35.9151, 48.1278, -14.08, 97.4483, -51.5278, 44.0335
1.536, 4, 35.9151, 48.1278, -14.08, 97.4483, -51.5278, 44.0335
1.54, 4, 35.9151, 48.1278, -14.08, 97.4483, -51.5278, 44.0335
1.544, 4, 35.9151, 48.1278, -14.08, 97.4483, -51.5278, 44.0335
1.548, 4, 35.9151, 48.1278, -14.08, 97.4483, -51.5278, 44.0335
1.552, 4, 35.9151, 48.1278, -14.08, 97.4483, -51.5278, 44.0335
1.556, 4, 35.915, 48.128, -14.08, 97.4483, -51.5279, 44.0335
1.56, 4, 35.9148, 48.1283, -14.08, 97.4483, -51.5279, 44.0335
1.564, 4, 35.9144, 48.1291, -14.08, 97.4483, -51.528, 44.0334
1.568, 4, 35.9138, 48.1302, -14.08, 97.4482, -51.5284, 44.0333
1.572, 4, 35.9129, 48.1318, -14.0799, 97.4481, -51.5291, 44.033
1.576, 4, 35.9119, 48.1339, -14.0799, 97.4479, -51.5304, 44.0326
1.58, 4, 35.9107, 48.1362, -14.0797, 97.4475, -51.5326, 44.0317
1.584, 4, 35.9096, 48.1388, -14.0796, 97.447, -51.5359, 44.0305
1.588, 4, 35.9085, 48.1415, -14.0793, 97.4462, -51.5405, 44.0287
1.592, 4, 35.9075, 48.1443, -14.079, 97.4451, -51.5468, 44.0263
1.596, 4, 35.9067, 48.1472, -14.0786, 97.4438, -51.555, 44.0232
1.6, 4, 35.9058, 48.1504, -14.0781, 97.442, -51.565, 44.0193
1.604, 4, 35.905, 48.1539, -14.0775, 97.44, -51.5772, 44.0147
1.608, 4, 35.9043, 48.1576, -14.0768, 97.4376, -51.5914, 44.0093
1.612, 4, 35.9037, 48.1614, -14.076, 97.4348, -51.6077, 44.0031
1.616, 4, 35.9032, 48.1654, -14.0751, 97.4317, -51.626, 43.9961
1.62, 4, 35.9029, 48.1694, -14.0741, 97.4283, -51.6462, 43.9884
1.624, 4, 35.9027, 48.1735, -14.073, 97.4245, -51.668, 43.98
1.628, 4, 35.9024, 48.1779, -14.0718, 97.4206, -51.6913, 43.9712
1.632, 4, 35.9021, 48.1825, -14.0706, 97.4164, -51.7156, 43.9619
1.636, 4, 35.9017, 48.1877, -14.0693, 97.4121, -51.7409, 43.9523
1.64, 4, 35.901, 48.1932, -14.068, 97.4077, -51.7667, 43.9424
1.644, 4, 35.9002, 48.1992, -14.0667, 97.4031, -51.793, 43.9324
1.648, 4, 35.8992, 48.2056, -14.0653, 97.3986, -51.8197, 43.9223
1.652, 4, 35.898, 48.2122, -14.0639, 97.3939, -51.8465, 43.9121
1.656, 4, 35.8968, 48.219, -14.0625, 97.3893, -51.8735, 43.9018
1.66, 4, 35.8955, 48.2258, -14.0611, 97.3846, -51.9005, 43.8915
1.664, 4, 35.8941, 48.2328, -14.0596, 97.3799, -51.9277, 43.8812
1.668, 4, 35.8927, 48.2398, -14.0582, 97.3752, -51.9548, 43.8709
1.672, 4, 35.8913, 48.2468, -14.0567, 97.3704, -51.982, 43.8606
1.676, 4, 35.8899, 48.2539, -14.0553, 97.3657, -52.0092, 43.8503
1.68, 4, 35.8885, 48.2609, -14.0538, 97.3609, -52.0365, 43.8399
1.684, 4, 35.8871, 48.268, -14.0523, 97.3561, -52.0637, 43.8296
1.688, 4, 35.8856, 48.2751, -14.0508, 97.3514, -52.0909, 43.8193
1.692, 4, 35.8842, 48.2822, -14.0493, 97.3466, -52.1181, 43.809
1.696, 4, 35.8827, 48.2892, -14.0477, 97.3418, -52.1454, 43.7987
1.7, 4, 35.8813, 48.2963, -14.0462, 97.337, -52.1726, 43.7884
1.704, 4, 35.8798, 48.3034, -14.0447, 97.3321, -52.1998, 43.7781
1.708, 4, 35.8784, 48.3104, -14.0431, 97.3273, -52.2271, 43.7678
1.712, 4, 35.8769, 48.3175, -14.0416, 97.3225, -52.2543, 43.7575
1.716, 4, 35.8754, 48.3245, -14.04, 97.3176, -52.2815, 43.7472
1.72, 4, 35.874, 48.3316, -14.0384, 97.3128, -52.3087, 43.737
1.724, 4, 35.8725, 48.3386, -14.0368, 97.3079, -52.3359, 43.7267
1.728, 4, 35.871, 48.3457, -14.0352, 97.303, -52.3631, 43.7164
1.732, 4, 35.8695, 48.3527, -14.0336, 97.2981, -52.3903, 43.7062
1.736, 4, 35.868, 48.3597, -14.032, 97.2932, -52.4175, 43.6959
1.74, 4, 35.8666, 48.3668, -14.0304, 97.2883, -52.4447, 43.6857
1.744, 4, 35.8651, 48.3738, -14.0288, 97.2834, -52.4719, 43.6755
1.748, 4, 35.8636, 48.3808, -14.0271, 97.2785, -52.4991, 43.6652
1.752, 4, 35.8621, 48.3878, -14.0255, 97.2735, -52.5263, 43.655
1.756, 4, 35.8606, 48.3948, -14.0238, 97.2686, -52.5535, 43.6448
1.76, 4, 35.8591, 48.4018, -14.0221, 97.2636, -52.5807, 43.6346
1.764, 4, 35.8576, 48.4088, -14.0204, 97.2587, -52.6079, 43.6244
1.768, 4, 35.8561, 48.4158, -14.0188, 97.2537, -52.635, 43.6142
1.772, 4, 35.8545, 48.4228, -14.0171, 97.2487, -52.6622, 43.604
1.776, 4, 35.853, 48.4298, -14.0154, 97.2437, -52.6894, 43.5938
1.78, 4, 35.8515, 48.4367, -14.0136, 97.2387, -52.7165, 43.5836
1.784, 4, 35.85, 48.4437, -14.0119, 97.2337, -52.7437, 43.5734
1.788, 4, 35.8485, 48.4507, -14.0102, 97.2287, -52.7709, 43.5633
1.792, 4, 35.8469, 48.4576, -14.0084, 97.2236, -52.798, 43.5531
1.796, 4, 35.8454, 48.4646, -14.0067, 97.2186, -52.8252, 43.5429
1.8, 4, 35.8439, 48.4715, -14.0049, 97.2136, -52.8523, 43.5328
1.804, 4, 35.8423, 48.4785, -14.0031, 97.2085, -52.8794, 43.5226
1.808, 4, 35.8408, 48.4854, -14.0013, 97.2034, -52.9066, 43.5125
1.812, 4, 35.8393, 48.4923, -13.9996, 97.1984, -52.9337, 43.5024
1.816, 4, 35.8377, 48.4993, -13.9978, 97.1933, -52.9608, 43.4922
1.82, 4, 35.8362, 48.5062, -13.9959, 97.1882, -52.988, 43.4821
1.824, 4, 35.8346, 48.5131, -13.9941, 97.1831, -53.0151, 43.472
1.828, 4, 35.8331, 48.52, -13.9923, 97.178, -53.0422, 43.4619
1.832, 4, 35.8315, 48.5269, -13.9904, 97.1728, -53.0693, 43.4518
1.836, 4, 35.8299, 48.5338, -13.9886, 97.1677, -53.0965, 43.4417
1.84, 4, 35.8284, 48.5407, -13.9867, 97.1626, -53.1236, 43.4316
1.844, 4, 35.8268, 48.5476, -13.9849, 97.1574, -53.1507, 43.4215
1.848, 4, 35.8252, 48.5545, -13.983, 97.1522, -53.1778, 43.4114
1.852, 4, 35.8237, 48.5613, -13.9811, 97.1471, -53.2049, 43.4013
1.856, 4, 35.8221, 48.5682, -13.9792, 97.1419, -53.232, 43.3912
1.86, 4, 35.8205, 48.5751, -13.9773, 97.1367, -53.2591, 43.3812
1.864, 4, 35.8189, 48.582, -13.9754, 97.1315, -53.2862, 43.3711
1.868, 4, 35.8173, 48.5888, -13.9735, 97.1263, -53.3132, 43.361
1.872, 4, 35.8157, 48.5957, -13.9715, 97.1211, -53.3403, 43.351
1.876, 4, 35.8141, 48.6025, -13.9696, 97.1159, -53.3674, 43.341
1.88, 4, 35.8126, 48.6094, -13.9676, 97.1106, -53.3945, 43.3309
1.884, 4, 35.811, 48.6162, -13.9657, 97.1054, -53.4215, 43.3209
1.888, 4, 35.8094, 48.623, -13.9637, 97.1002, -53.4486, 43.3109
1.892, 4, 35.8077, 48.6298, -13.9617, 97.0949, -53.4757, 43.3008
1.896, 4, 35.8061, 48.6367, -13.9597, 97.0896, -53.5027, 43.2908
1.9, 4, 35.8045, 48.6435, -13.9577, 97.0843, -53.5298, 43.2808
1.904, 4, 35.8029, 48.6503, -13.9557, 97.0791, -53.5569, 43.2708
1.908, 4, 35.8013, 48.6571, -13.9537, 97.0738, -53.5839, 43.2608
1.912, 4, 35.7997, 48.6639, -13.9517, 97.0684, -53.611, 43.2508
1.916, 4, 35.798, 48.6707, -13.9496, 97.0631, -53.638, 43.2408
1.92, 4, 35.7964, 48.6775, -13.9476, 97.0578, -53.665, 43.2308
1.924, 4, 35.7948, 48.6843, -13.9455, 97.0525, -53.6921, 43.2208
1.928, 4, 35.7932, 48.691, -13.9434, 97.0471, -53.7191, 43.2109
1.932, 4, 35.7915, 48.6978, -13.9414, 97.0418, -53.7461, 43.2009
1.936, 4, 35.7899, 48.7046, -13.9393, 97.0364, -53.7732, 43.1909
1.94, 4, 35.7882, 48.7113, -13.9372, 97.0311, -53.8002, 43.181
1.944, 4, 35.7866, 48.7181, -13.9351, 97.0257, -53.8272, 43.171
1.948, 4, 35.785, 48.7248, -13.933, 97.0203, -53.8542, 43.1611
1.952, 4, 35.7833, 48.7316, -13.9308, 97.0149, -53.8812, 43.1511
1.956, 4, 35.7816, 48.7383, -13.9287, 97.0095, -53.9082, 43.1412
1.96, 4, 35.78, 48.7451, -13.9265, 97.0041, -53.9352, 43.1313
1.964, 4, 35.7783, 48.7518, -13.9244, 96.9986, -53.9622, 43.1213
1.968, 4, 35.7767, 48.7585, -13.9222, 96.9932, -53.9892, 43.1114
1.972, 4, 35.775, 48.7652, -13.92, 96.9878, -54.0162, 43.1015
1.976, 4, 35.7733, 48.7719, -13.9179, 96.9823, -54.0432, 43.0916
1.98, 4, 35.7716, 48.7786, -13.9157, 96.9769, -54.0702, 43.0817
1.984, 4, 35.77, 48.7854, -13.9135, 96.9714, -54.0972, 43.0718
1.988, 4, 35.7683, 48.792, -13.9113, 96.9659, -54.1242, 43.0619
1.992, 4, 35.7666, 48.7987, -13.909, 96.9604, -54.1511, 43.052
1.996, 4, 35.7649, 48.8054, -13.9068, 96.9549, -54.1781, 43.0421
1.999, 4, 35.7632, 48.8121, -13.9046, 96.9494, -54.2051, 43.0323
2.004, 4, 35.7615, 48.8188, -13.9023, 96.9439, -54.2321, 43.0224
2.008, 4, 35.7598, 48.8254, -13.9, 96.9384, -54.259, 43.0125
2.012, 4, 35.7581, 48.8321, -13.8978, 96.9329, -54.286, 43.0027
2.015, 4, 35.7564, 48.8388, -13.8955, 96.9274, -54.3129, 42.9928
2.019, 4, 35.7547, 48.8454, -13.8932, 96.9218, -54.3399, 42.983
2.024, 4, 35.753, 48.8521, -13.8909, 96.9163, -54.3668, 42.9731
2.028, 4, 35.7513, 48.8587, -13.8886, 96.9107, -54.3938, 42.9633
2.031, 4, 35.7496, 48.8653, -13.8863, 96.9051, -54.4207, 42.9534
2.036, 4, 35.7479, 48.872, -13.8839, 96.8995, -54.4477, 42.9436
2.04, 4, 35.7462, 48.8786, -13.8816, 96.894, -54.4746, 42.9338
2.044, 4, 35.7444, 48.8852, -13.8793, 96.8884, -54.5015, 42.924
2.048, 4, 35.7427, 48.8918, -13.8769, 96.8827, -54.5285, 42.9141
2.051, 4, 35.741, 48.8984, -13.8745, 96.8771, -54.5554, 42.9043
2.055, 4, 35.7393, 48.905, -13.8722, 96.8715, -54.5823, 42.8945
2.06, 4, 35.7375, 48.9116, -13.8698, 96.8659, -54.6092, 42.8847
2.064, 4, 35.7358, 48.9182, -13.8674, 96.8602, -54.6361, 42.8749
2.068, 4, 35.734, 48.9248, -13.865, 96.8546, -54.663, 42.8651
2.071, 4, 35.7323, 48.9314, -13.8625, 96.8489, -54.6899, 42.8554
2.076, 4, 35.7305, 48.938, -13.8601, 96.8433, -54.7168, 42.8456
2.08, 4, 35.7288, 48.9445, -13.8577, 96.8376, -54.7437, 42.8358
2.084, 4, 35.727, 48.9511, -13.8552, 96.8319, -54.7706, 42.826
2.087, 4, 35.7253, 48.9577, -13.8528, 96.8262, -54.7975, 42.8163
2.092, 4, 35.7235, 48.9642, -13.8503, 96.8205, -54.8244, 42.8065
2.096, 4, 35.7217, 48.9708, -13.8478, 96.8148, -54.8513, 42.7967
2.1, 4, 35.72, 48.9773, -13.8453, 96.8091, -54.8782, 42.787
2.104, 4, 35.7182, 48.9838, -13.8428, 96.8033, -54.9051, 42.7772
2.107, 4, 35.7164, 48.9904, -13.8403, 96.7976, -54.9319, 42.7675
2.111, 4, 35.7147, 48.9969, -13.8378, 96.7919, -54.9588, 42.7578
2.116, 4, 35.7129, 49.0034, -13.8353, 96.7861, -54.9857, 42.748
2.12, 4, 35.7111, 49.0099, -13.8328, 96.7804, -55.0125, 42.7383
2.124, 4, 35.7093, 49.0164, -13.8302, 96.7746, -55.0394, 42.7286
2.127, 4, 35.7075, 49.0229, -13.8277, 96.7688, -55.0663, 42.7189
2.132, 4, 35.7057, 49.0294, -13.8251, 96.763, -55.0931, 42.7092
2.136, 4, 35.7039, 49.0359, -13.8225, 96.7572, -55.12, 42.6994
2.14, 4, 35.7021, 49.0424, -13.8199, 96.7514, -55.1468, 42.6897
2.143, 4, 35.7003, 49.0489, -13.8174, 96.7456, -55.1737, 42.68
2.148, 4, 35.6985, 49.0554, -13.8147, 96.7398, -55.2005, 42.6703
2.152, 4, 35.6967, 49.0618, -13.8121, 96.734, -55.2273, 42.6607
2.156, 4, 35.6949, 49.0683, -13.8095, 96.7281, -55.2542, 42.651
2.16, 4, 35.6931, 49.0748, -13.8069, 96.7223, -55.281, 42.6413
2.163, 4, 35.6913, 49.0812, -13.8042, 96.7164, -55.3078, 42.6316
2.168, 4, 35.6895, 49.0877, -13.8016, 96.7106, -55.3346, 42.6219
2.172, 4, 35.6876, 49.0941, -13.7989, 96.7047, -55.3615, 42.6123
2.176, 4, 35.6858, 49.1005, -13.7962, 96.6988, -55.3883, 42.6026
2.179, 4, 35.684, 49.107, -13.7936, 96.693, -55.4151, 42.593
2.184, 4, 35.6821, 49.1134, -13.7909, 96.6871, -55.4419, 42.5833
2.188, 4, 35.6803, 49.1198, -13.7882, 96.6812, -55.4687, 42.5737
2.192, 4, 35.6785, 49.1262, -13.7855, 96.6753, -55.4955, 42.564
2.196, 4, 35.6766, 49.1326, -13.7827, 96.6693, -55.5223, 42.5544
2.199, 4, 35.6748, 49.139, -13.78, 96.6634, -55.5491, 42.5447
2.204, 4, 35.6729, 49.1454, -13.7773, 96.6575, -55.5759, 42.5351
2.208, 4, 35.6711, 49.1518, -13.7745, 96.6515, -55.6027, 42.5255
2.212, 4, 35.6692, 49.1582, -13.7718, 96.6456, -55.6295, 42.5159
2.216, 4, 35.6674, 49.1646, -13.769, 96.6396, -55.6562, 42.5062
2.219, 4, 35.6655, 49.171, -13.7662, 96.6337, -55.683, 42.4966
2.224, 4, 35.6636, 49.1773, -13.7634, 96.6277, -55.7098, 42.487
2.228, 4, 35.6618, 49.1837, -13.7606, 96.6217, -55.7366, 42.4774
2.232, 4, 35.6599, 49.1901, -13.7578, 96.6157, -55.7633, 42.4678
2.235, 4, 35.658, 49.1964, -13.755, 96.6097, -55.7901, 42.4582
2.24, 4, 35.6562, 49.2028, -13.7522, 96.6037, -55.8169, 42.4486
2.244, 4, 35.6543, 49.2091, -13.7493, 96.5977, -55.8436, 42.4391
2.248, 4, 35.6524, 49.2154, -13.7465, 96.5917, -55.8704, 42.4295
2.252, 4, 35.6505, 49.2218, -13.7436, 96.5856, -55.8971, 42.4199
2.255, 4, 35.6486, 49.2281, -13.7408, 96.5796, -55.9239, 42.4103
2.259, 4, 35.6467, 49.2344, -13.7379, 96.5735, -55.9506, 42.4008
2.264, 4, 35.6448, 49.2407, -13.735, 96.5675, -55.9774, 42.3912
2.268, 4, 35.6429, 49.247, -13.7321, 96.5614, -56.0041, 42.3816
2.272, 4, 35.641, 49.2533, -13.7292, 96.5554, -56.0308, 42.3721
2.275, 4, 35.6391, 49.2596, -13.7263, 96.5493, -56.0576, 42.3625
2.28, 4, 35.6372, 49.2659, -13.7234, 96.5432, -56.0843, 42.353
2.284, 4, 35.6353, 49.2722, -13.7204, 96.5371, -56.111, 42.3435
2.288, 4, 35.6334, 49.2785, -13.7175, 96.531, -56.1377, 42.3339
2.291, 4, 35.6315, 49.2847, -13.7145, 96.5249, -56.1645, 42.3244
2.296, 4, 35.6296, 49.291, -13.7116, 96.5188, -56.1912, 42.3149
2.3, 4, 35.6276, 49.2973, -13.7086, 96.5126, -56.2179, 42.3053
2.304, 4, 35.6257, 49.3035, -13.7056, 96.5065, -56.2446, 42.2958
2.308, 4, 35.6238, 49.3098, -13.7026, 96.5004, -56.2713, 42.2863
2.311, 4, 35.6219, 49.316, -13.6996, 96.4942, -56.298, 42.2768
2.316, 4, 35.6199, 49.3223, -13.6966, 96.488, -56.3247, 42.2673
2.32, 4, 35.618, 49.3285, -13.6936, 96.4819, -56.3514, 42.2578
2.324, 4, 35.616, 49.3347, -13.6905, 96.4757, -56.3781, 42.2483
2.328, 4, 35.6141, 49.3409, -13.6875, 96.4695, -56.4048, 42.2388
2.331, 4, 35.6122, 49.3472, -13.6844, 96.4633, -56.4314, 42.2293
2.336, 4, 35.6102, 49.3534, -13.6814, 96.4571, -56.4581, 42.2198
2.34, 4, 35.6082, 49.3596, -13.6783, 96.4509, -56.4848, 42.2103
2.344, 4, 35.6063, 49.3658, -13.6752, 96.4447, -56.5115, 42.2009
2.347, 4, 35.6043, 49.372, -13.6721, 96.4385, -56.5381, 42.1914
2.352, 4, 35.6024, 49.3782, -13.669, 96.4323, -56.5648, 42.1819
2.356, 4, 35.6004, 49.3843, -13.6659, 96.426, -56.5915, 42.1725
2.36, 4, 35.5984, 49.3905, -13.6628, 96.4198, -56.6181, 42.163
2.364, 4, 35.5965, 49.3967, -13.6597, 96.4135, -56.6448, 42.1535
2.367, 4, 35.5945, 49.4029, -13.6565, 96.4072, -56.6714, 42.1441
2.372, 4, 35.5925, 49.409, -13.6534, 96.401, -56.6981, 42.1346
2.376, 4, 35.5905, 49.4152, -13.6502, 96.3947, -56.7247, 42.1252
2.38, 4, 35.5886, 49.4213, -13.6471, 96.3884, -56.7514, 42.1158
2.383, 4, 35.5866, 49.4275, -13.6439, 96.3821, -56.778, 42.1063
2.388, 4, 35.5846, 49.4336, -13.6407, 96.3758, -56.8047, 42.0969
2.392, 4, 35.5826, 49.4397, -13.6375, 96.3695, -56.8313, 42.0875
2.396, 4, 35.5806, 49.4458, -13.6343, 96.3632, -56.8579, 42.0781
2.4, 4, 35.5786, 49.452, -13.6311, 96.3569, -56.8845, 42.0686
2.403, 4, 35.5766, 49.4581, -13.6278, 96.3505, -56.9112, 42.0592
2.408, 4, 35.5746, 49.4642, -13.6246, 96.3442, -56.9378, 42.0498
2.412, 4, 35.5726, 49.4703, -13.6214, 96.3379, -56.9644, 42.0404
2.416, 4, 35.5706, 49.4764, -13.6181, 96.3315, -56.991, 42.031
2.42, 4, 35.5685, 49.4825, -13.6148, 96.3251, -57.0176, 42.0216
2.423, 4, 35.5665, 49.4886, -13.6116, 96.3188, -57.0442, 42.0122
2.428, 4, 35.5645, 49.4946, -13.6083, 96.3124, -57.0708, 42.0028
2.432, 4, 35.5625, 49.5007, -13.605, 96.306, -57.0974, 41.9934
2.436, 4, 35.5605, 49.5068, -13.6017, 96.2996, -57.124, 41.9841
2.439, 4, 35.5584, 49.5128, -13.5984, 96.2932, -57.1506, 41.9747
2.444, 4, 35.5564, 49.5189, -13.595, 96.2868, -57.1772, 41.9653
2.448, 4, 35.5544, 49.525, -13.5917, 96.2804, -57.2038, 41.9559
2.452, 4, 35.5523, 49.531, -13.5884, 96.274, -57.2304, 41.9466
2.456, 4, 35.5503, 49.537, -13.585, 96.2675, -57.257, 41.9372
2.459, 4, 35.5482, 49.5431, -13.5816, 96.2611, -57.2835, 41.9278
2.464, 4, 35.5462, 49.5491, -13.5783, 96.2546, -57.3101, 41.9185
2.468, 4, 35.5441, 49.5551, -13.5749, 96.2482, -57.3367, 41.9091
2.472, 4, 35.5421, 49.5611, -13.5715, 96.2417, -57.3632, 41.8998
2.476, 4, 35.54, 49.5672, -13.5681, 96.2353, -57.3898, 41.8904
2.479, 4, 35.538, 49.5732, -13.5647, 96.2288, -57.4164, 41.8811
2.484, 4, 35.5359, 49.5792, -13.5613, 96.2223, -57.4429, 41.8718
2.488, 4, 35.5338, 49.5852, -13.5578, 96.2158, -57.4695, 41.8624
2.492, 4, 35.5318, 49.5911, -13.5544, 96.2093, -57.496, 41.8531
2.495, 4, 35.5297, 49.5971, -13.5509, 96.2028, -57.5226, 41.8438
2.5, 4, 35.5276, 49.6031, -13.5475, 96.1963, -57.5491, 41.8345
2.504, 4, 35.5255, 49.6091, -13.544, 96.1898, -57.5757, 41.8251
2.508, 4, 35.5235, 49.615, -13.5405, 96.1833, -57.6022, 41.8158
2.512, 4, 35.5214, 49.621, -13.537, 96.1767, -57.6287, 41.8065
2.515, 4, 35.5193, 49.6269, -13.5335, 96.1702, -57.6553, 41.7972
2.52, 4, 35.5172, 49.6329, -13.53, 96.1636, -57.6818, 41.7879
2.524, 4, 35.5151, 49.6388, -13.5265, 96.1571, -57.7083, 41.7786
2.528, 4, 35.513, 49.6448, -13.523, 96.1505, -57.7348, 41.7693
2.531, 4, 35.5109, 49.6507, -13.5195, 96.1439, -57.7614, 41.76
2.536, 4, 35.5088, 49.6566, -13.5159, 96.1373, -57.7879, 41.7508
2.54, 4, 35.5067, 49.6625, -13.5124, 96.1308, -57.8144, 41.7415
2.544, 4, 35.5046, 49.6685, -13.5088, 96.1242, -57.8409, 41.7322
2.548, 4, 35.5025, 49.6744, -13.5052, 96.1176, -57.8674, 41.7229
2.551, 4, 35.5004, 49.6803, -13.5016, 96.1109, -57.8939, 41.7136
2.556, 4, 35.4983, 49.6862, -13.498, 96.1043, -57.9204, 41.7044
2.56, 4, 35.4961, 49.6921, -13.4944, 96.0977, -57.9469, 41.6951
2.564, 4, 35.494, 49.6979, -13.4908, 96.0911, -57.9734, 41.6859
2.568, 4, 35.4919, 49.7038, -13.4872, 96.0844, -57.9999, 41.6766
2.571, 4, 35.4898, 49.7097, -13.4835, 96.0778, -58.0263, 41.6673
2.576, 4, 35.4876, 49.7156, -13.4799, 96.0711, -58.0528, 41.6581
2.58, 4, 35.4855, 49.7214, -13.4763, 96.0645, -58.0793, 41.6489
2.584, 4, 35.4834, 49.7273, -13.4726, 96.0578, -58.1058, 41.6396
2.587, 4, 35.4812, 49.7331, -13.4689, 96.0511, -58.1322, 41.6304
2.592, 4, 35.4791, 49.739, -13.4652, 96.0444, -58.1587, 41.6211
2.596, 4, 35.4769, 49.7448, -13.4615, 96.0377, -58.1852, 41.6119
2.6, 4, 35.4748, 49.7506, -13.4578, 96.031, -58.2116, 41.6027
2.604, 4, 35.4726, 49.7565, -13.4541, 96.0243, -58.2381, 41.5935
2.607, 4, 35.4705, 49.7623, -13.4504, 96.0176, -58.2646, 41.5842
2.612, 4, 35.4683, 49.7681, -13.4467, 96.0109, -58.291, 41.575
2.616, 4, 35.4661, 49.7739, -13.4429, 96.0042, -58.3175, 41.5658
2.62, 4, 35.464, 49.7797, -13.4392, 95.9974, -58.3439, 41.5566
2.624, 4, 35.4618, 49.7855, -13.4354, 95.9907, -58.3703, 41.5474
2.627, 4, 35.4596, 49.7913, -13.4317, 95.9839, -58.3968, 41.5382
2.632, 4, 35.4575, 49.7971, -13.4279, 95.9772, -58.4232, 41.529
2.636, 4, 35.4553, 49.8029, -13.4241, 95.9704, -58.4497, 41.5198
2.64, 4, 35.4531, 49.8086, -13.4203, 95.9637, -58.4761, 41.5106
2.643, 4, 35.4509, 49.8144, -13.4165, 95.9569, -58.5025, 41.5014
2.648, 4, 35.4487, 49.8202, -13.4127, 95.9501, -58.5289, 41.4922
2.652, 4, 35.4466, 49.8259, -13.4088, 95.9433, -58.5554, 41.483
2.656, 4, 35.4444, 49.8317, -13.405, 95.9365, -58.5818, 41.4739
2.66, 4, 35.4422, 49.8374, -13.4011, 95.9297, -58.6082, 41.4647
2.663, 4, 35.44, 49.8432, -13.3973, 95.9229, -58.6346, 41.4555
2.668, 4, 35.4378, 49.8489, -13.3934, 95.9161, -58.661, 41.4464
2.672, 4, 35.4356, 49.8546, -13.3896, 95.9092, -58.6874, 41.4372
2.676, 4, 35.4334, 49.8603, -13.3857, 95.9024, -58.7138, 41.428
2.679, 4, 35.4311, 49.8661, -13.3818, 95.8956, -58.7402, 41.4189
2.684, 4, 35.4289, 49.8718, -13.3779, 95.8887, -58.7666, 41.4097
2.688, 4, 35.4267, 49.8775, -13.3739, 95.8819, -58.793, 41.4006
2.692, 4, 35.4245, 49.8832, -13.37, 95.875, -58.8194, 41.3914
2.696, 4, 35.4223, 49.8889, -13.3661, 95.8681, -58.8458, 41.3823
2.699, 4, 35.42, 49.8945, -13.3621, 95.8612, -58.8721, 41.3731
2.704, 4, 35.4178, 49.9002, -13.3582, 95.8544, -58.8985, 41.364
2.708, 4, 35.4156, 49.9059, -13.3542, 95.8475, -58.9249, 41.3549
2.712, 4, 35.4134, 49.9116, -13.3503, 95.8406, -58.9513, 41.3457
2.716, 4, 35.4111, 49.9172, -13.3463, 95.8337, -58.9776, 41.3366
2.719, 4, 35.4089, 49.9229, -13.3423, 95.8267, -59.004, 41.3275
2.724, 4, 35.4066, 49.9285, -13.3383, 95.8198, -59.0303, 41.3183
2.728, 4, 35.4044, 49.9342, -13.3343, 95.8129, -59.0567, 41.3092
2.732, 4, 35.4021, 49.9398, -13.3302, 95.806, -59.0831, 41.3001
2.735, 4, 35.3999, 49.9454, -13.3262, 95.799, -59.1094, 41.291
2.74, 4, 35.3976, 49.9511, -13.3222, 95.7921, -59.1358, 41.2819
2.744, 4, 35.3954, 49.9567, -13.3181, 95.7851, -59.1621, 41.2728
2.748, 4, 35.3931, 49.9623, -13.3141, 95.7782, -59.1884, 41.2637
2.752, 4, 35.3909, 49.9679, -13.31, 95.7712, -59.2148, 41.2546
2.755, 4, 35.3886, 49.9735, -13.3059, 95.7642, -59.2411, 41.2455
2.76, 4, 35.3863, 49.9791, -13.3018, 95.7572, -59.2675, 41.2364
2.764, 4, 35.384, 49.9847, -13.2977, 95.7502, -59.2938, 41.2273
2.768, 4, 35.3818, 49.9903, -13.2936, 95.7432, -59.3201, 41.2182
2.772, 4, 35.3795, 49.9959, -13.2895, 95.7362, -59.3464, 41.2091
2.775, 4, 35.3772, 50.0015, -13.2854, 95.7292, -59.3728, 41.2001
2.78, 4, 35.3749, 50.007, -13.2812, 95.7222, -59.3991, 41.191
2.784, 4, 35.3726, 50.0126, -13.2771, 95.7152, -59.4254, 41.1819
2.788, 4, 35.3703, 50.0181, -13.2729, 95.7082, -59.4517, 41.1728
2.791, 4, 35.3681, 50.0237, -13.2688, 95.7011, -59.478, 41.1638
2.796, 4, 35.3658, 50.0292, -13.2646, 95.6941, -59.5043, 41.1547
2.8, 4, 35.3635, 50.0348, -13.2604, 95.687, -59.5306, 41.1457
2.804, 4, 35.3612, 50.0403, -13.2562, 95.68, -59.5569, 41.1366
2.808, 4, 35.3589, 50.0458, -13.252, 95.6729, -59.5832, 41.1275
2.811, 4, 35.3565, 50.0514, -13.2478, 95.6658, -59.6095, 41.1185
2.816, 4, 35.3542, 50.0569, -13.2436, 95.6587, -59.6358, 41.1094
2.82, 4, 35.3519, 50.0624, -13.2393, 95.6517, -59.6621, 41.1004
2.824, 4, 35.3496, 50.0679, -13.2351, 95.6446, -59.6883, 41.0914
2.828, 4, 35.3473, 50.0734, -13.2308, 95.6375, -59.7146, 41.0823
2.831, 4, 35.345, 50.0789, -13.2266, 95.6304, -59.7409, 41.0733
2.836, 4, 35.3426, 50.0844, -13.2223, 95.6232, -59.7672, 41.0642
2.84, 4, 35.3403, 50.0898, -13.218, 95.6161, -59.7934, 41.0552
2.844, 4, 35.338, 50.0953, -13.2137, 95.609, -59.8197, 41.0462
2.847, 4, 35.3356, 50.1008, -13.2094, 95.6019, -59.846, 41.0372
2.852, 4, 35.3333, 50.1062, -13.2051, 95.5947, -59.8722, 41.0281
2.856, 4, 35.331, 50.1117, -13.2008, 95.5876, -59.8985, 41.0191
2.86, 4, 35.3286, 50.1171, -13.1964, 95.5804, -59.9247, 41.0101
2.864, 4, 35.3263, 50.1226, -13.1921, 95.5733, -59.951, 41.0011
2.867, 4, 35.3239, 50.128, -13.1878, 95.5661, -59.9772, 40.9921
2.872, 4, 35.3216, 50.1335, -13.1834, 95.5589, -60.0035, 40.9831
2.876, 4, 35.3192, 50.1389, -13.179, 95.5517, -60.0297, 40.9741
2.88, 4, 35.3168, 50.1443, -13.1746, 95.5445, -60.056, 40.9651
2.883, 4, 35.3145, 50.1497, -13.1703, 95.5374, -60.0822, 40.9561
2.888, 4, 35.3121, 50.1551, -13.1659, 95.5302, -60.1084, 40.9471
2.892, 4, 35.3098, 50.1605, -13.1614, 95.5229, -60.1346, 40.9381
2.896, 4, 35.3074, 50.1659, -13.157, 95.5157, -60.1609, 40.9291
2.9, 4, 35.305, 50.1713, -13.1526, 95.5085, -60.1871, 40.9201
2.903, 4, 35.3026, 50.1767, -13.1482, 95.5013, -60.2133, 40.9111
2.908, 4, 35.3003, 50.1821, -13.1437, 95.494, -60.2395, 40.9022
2.912, 4, 35.2979, 50.1874, -13.1393, 95.4868, -60.2657, 40.8932
2.916, 4, 35.2955, 50.1928, -13.1348, 95.4796, -60.2919, 40.8842
2.92, 4, 35.2931, 50.1982, -13.1303, 95.4723, -60.3182, 40.8752
2.923, 4, 35.2907, 50.2035, -13.1258, 95.465, -60.3444, 40.8663
2.928, 4, 35.2883, 50.2089, -13.1213, 95.4578, -60.3706, 40.8573
2.932, 4, 35.2859, 50.2142, -13.1168, 95.4505, -60.3967, 40.8483
2.936, 4, 35.2835, 50.2196, -13.1123, 95.4432, -60.4229, 40.8394
2.939, 4, 35.2811, 50.2249, -13.1078, 95.4359, -60.4491, 40.8304
2.944, 4, 35.2787, 50.2302, -13.1033, 95.4286, -60.4753, 40.8215
2.948, 4, 35.2763, 50.2355, -13.0987, 95.4213, -60.5015, 40.8125
2.952, 4, 35.2739, 50.2408, -13.0942, 95.414, -60.5277, 40.8036
2.956, 4, 35.2715, 50.2461, -13.0896, 95.4067, -60.5539, 40.7946
2.959, 4, 35.2691, 50.2514, -13.085, 95.3994, -60.58, 40.7857
2.964, 4, 35.2666, 50.2567, -13.0804, 95.3921, -60.6062, 40.7767
2.968, 4, 35.2642, 50.262, -13.0758, 95.3847, -60.6324, 40.7678
2.972, 4, 35.2618, 50.2673, -13.0712, 95.3774, -60.6585, 40.7589
2.976, 4, 35.2594, 50.2726, -13.0666, 95.37, -60.6847, 40.7499
2.98, 4, 35.2569, 50.2778, -13.062, 95.3627, -60.7109, 40.741
2.984, 4, 35.2545, 50.2831, -13.0574, 95.3553, -60.737, 40.7321
2.988, 4, 35.2521, 50.2884, -13.0527, 95.348, -60.7632, 40.7232
2.992, 4, 35.2496, 50.2936, -13.0481, 95.3406, -60.7893, 40.7142
2.995, 4, 35.2472, 50.2989, -13.0434, 95.3332, -60.8155, 40.7053
3, 4, 35.2447, 50.3041, -13.0387, 95.3258, -60.8416, 40.6964
3.004, 5, 35.2423, 50.3093, -13.0341, 95.3185, -60.8677, 40.6875
3.008, 5, 35.2398, 50.3146, -13.0294, 95.311, -60.8939, 40.6786
3.012, 5, 35.2374, 50.3198, -13.0247, 95.3036, -60.92, 40.6697
3.015, 5, 35.2349, 50.325, -13.02, 95.2962, -60.9461, 40.6608
3.02, 5, 35.2324, 50.3302, -13.0152, 95.2888, -60.9723, 40.6519
3.024, 5, 35.23, 50.3354, -13.0105, 95.2814, -60.9984, 40.643
3.028, 5, 35.2275, 50.3406, -13.0058, 95.274, -61.0245, 40.6341
3.031, 5, 35.225, 50.3458, -13.001, 95.2665, -61.0506, 40.6252
3.036, 5, 35.2226, 50.351, -12.9963, 95.2591, -61.0768, 40.6163
3.04, 5, 35.2201, 50.3562, -12.9915, 95.2516, -61.1029, 40.6074
3.044, 5, 35.2176, 50.3613, -12.9867, 95.2442, -61.129, 40.5985
3.048, 5, 35.2151, 50.3665, -12.9819, 95.2367, -61.1551, 40.5896
3.051, 5, 35.2126, 50.3717, -12.9771, 95.2292, -61.1812, 40.5807
3.056, 5, 35.2102, 50.3768, -12.9723, 95.2218, -61.2073, 40.5718
3.06, 5, 35.2077, 50.382, -12.9675, 95.2143, -61.2334, 40.563
3.064, 5, 35.2052, 50.3871, -12.9627, 95.2068, -61.2595, 40.5541
3.068, 5, 35.2027, 50.3922, -12.9578, 95.1993, -61.2856, 40.5452
3.071, 5, 35.2002, 50.3974, -12.953, 95.1918, -61.3116, 40.5364
3.076, 5, 35.1977, 50.4025, -12.9481, 95.1843, -61.3377, 40.5275
3.08, 5, 35.1952, 50.4076, -12.9433, 95.1768, -61.3638, 40.5186
3.084, 5, 35.1926, 50.4127, -12.9384, 95.1693, -61.3899, 40.5098
3.087, 5, 35.1901, 50.4178, -12.9335, 95.1617, -61.416, 40.5009
3.092, 5, 35.1876, 50.4229, -12.9286, 95.1542, -61.442, 40.492
3.096, 5, 35.1851, 50.428, -12.9237, 95.1467, -61.4681, 40.4832
3.1, 5, 35.1826, 50.4331, -12.9188, 95.1391, -61.4942, 40.4743
3.104, 5, 35.1801, 50.4382, -12.9139, 95.1316, -61.5202, 40.4655
3.107, 5, 35.1775, 50.4432, -12.9089, 95.124, -61.5463, 40.4566
3.112, 5, 35.175, 50.4483, -12.904, 95.1164, -61.5723, 40.4478
3.116, 5, 35.1725, 50.4534, -12.8991, 95.1089, -61.5984, 40.4389
3.12, 5, 35.1699, 50.4584, -12.8941, 95.1013, -61.6244, 40.4301
3.124, 5, 35.1674, 50.4635, -12.8891, 95.0937, -61.6505, 40.4213
3.128, 5, 35.1649, 50.4685, -12.8841, 95.0861, -61.6765, 40.4124
3.132, 5, 35.1623, 50.4736, -12.8791, 95.0785, -61.7026, 40.4036
3.136, 5, 35.1598, 50.4786, -12.8741, 95.0709, -61.7286, 40.3948
3.14, 5, 35.1572, 50.4836, -12.8691, 95.0633, -61.7546, 40.3859
3.143, 5, 35.1547, 50.4886, -12.8641, 95.0557, -61.7807, 40.3771
3.148, 5, 35.1521, 50.4937, -12.8591, 95.0481, -61.8067, 40.3683
3.152, 5, 35.1496, 50.4987, -12.854, 95.0405, -61.8327, 40.3595
3.156, 5, 35.147, 50.5037, -12.849, 95.0328, -61.8587, 40.3507
3.16, 5, 35.1444, 50.5087, -12.8439, 95.0252, -61.8848, 40.3418
3.163, 5, 35.1419, 50.5136, -12.8389, 95.0175, -61.9108, 40.333
3.168, 5, 35.1393, 50.5186, -12.8338, 95.0099, -61.9368, 40.3242
3.172, 5, 35.1367, 50.5236, -12.8287, 95.0022, -61.9628, 40.3154
3.176, 5, 35.1341, 50.5286, -12.8236, 94.9946, -61.9888, 40.3066
3.179, 5, 35.1316, 50.5335, -12.8185, 94.9869, -62.0148, 40.2978
3.184, 5, 35.129, 50.5385, -12.8134, 94.9792, -62.0408, 40.289
3.188, 5, 35.1264, 50.5434, -12.8082, 94.9715, -62.0668, 40.2802
3.192, 5, 35.1238, 50.5484, -12.8031, 94.9639, -62.0928, 40.2714
3.196, 5, 35.1212, 50.5533, -12.7979, 94.9562, -62.1188, 40.2626
3.199, 5, 35.1186, 50.5583, -12.7928, 94.9485, -62.1448, 40.2538
3.204, 5, 35.116, 50.5632, -12.7876, 94.9408, -62.1708, 40.245
3.208, 5, 35.1134, 50.5681, -12.7824, 94.933, -62.1967, 40.2362
3.212, 5, 35.1108, 50.573, -12.7773, 94.9253, -62.2227, 40.2274
3.216, 5, 35.1082, 50.5779, -12.7721, 94.9176, -62.2487, 40.2186
3.22, 5, 35.1056, 50.5828, -12.7668, 94.9099, -62.2747, 40.2099
3.224, 5, 35.103, 50.5877, -12.7616, 94.9021, -62.3006, 40.2011
3.228, 5, 35.1004, 50.5926, -12.7564, 94.8944, -62.3266, 40.1923
3.232, 5, 35.0978, 50.5975, -12.7512, 94.8866, -62.3526, 40.1835
3.235, 5, 35.0951, 50.6024, -12.7459, 94.8789, -62.3785, 40.1747
3.24, 5, 35.0925, 50.6072, -12.7407, 94.8711, -62.4045, 40.166
3.244, 5, 35.0899, 50.6121, -12.7354, 94.8633, -62.4304, 40.1572
3.248, 5, 35.0873, 50.617, -12.7301, 94.8556, -62.4564, 40.1484
3.252, 5, 35.0846, 50.6218, -12.7248, 94.8478, -62.4823, 40.1397
3.255, 5, 35.082, 50.6266, -12.7195, 94.84, -62.5083, 40.1309
3.26, 5, 35.0794, 50.6315, -12.7142, 94.8322, -62.5342, 40.1221
3.264, 5, 35.0767, 50.6363, -12.7089, 94.8244, -62.5602, 40.1134
3.268, 5, 35.0741, 50.6411, -12.7036, 94.8166, -62.5861, 40.1046
3.272, 5, 35.0714, 50.646, -12.6983, 94.8088, -62.612, 40.0959
3.276, 5, 35.0688, 50.6508, -12.6929, 94.801, -62.638, 40.0871
3.28, 5, 35.0661, 50.6556, -12.6876, 94.7932, -62.6639, 40.0784
3.284, 5, 35.0635, 50.6604, -12.6822, 94.7854, -62.6898, 40.0696
3.288, 5, 35.0608, 50.6652, -12.6768, 94.7775, -62.7157, 40.0609
3.291, 5, 35.0582, 50.67, -12.6714, 94.7697, -62.7416, 40.0521
3.296, 5, 35.0555, 50.6748, -12.6661, 94.7618, -62.7676, 40.0434
3.3, 5, 35.0528, 50.6795, -12.6607, 94.754, -62.7935, 40.0346
3.304, 5, 35.0502, 50.6843, -12.6552, 94.7461, -62.8194, 40.0259
3.308, 5, 35.0475, 50.6891, -12.6498, 94.7383, -62.8453, 40.0172
3.312, 5, 35.0448, 50.6938, -12.6444, 94.7304, -62.8712, 40.0084
3.316, 5, 35.0421, 50.6986, -12.6389, 94.7225, -62.8971, 39.9997
3.32, 5, 35.0394, 50.7033, -12.6335, 94.7146, -62.923, 39.991
3.324, 5, 35.0368, 50.7081, -12.628, 94.7068, -62.9489, 39.9822
3.328, 5, 35.0341, 50.7128, -12.6226, 94.6989, -62.9748, 39.9735
3.332, 5, 35.0314, 50.7175, -12.6171, 94.691, -63.0006, 39.9648
3.336, 5, 35.0287, 50.7222, -12.6116, 94.6831, -63.0265, 39.9561
3.34, 5, 35.026, 50.7269, -12.6061, 94.6752, -63.0524, 39.9473
3.344, 5, 35.0233, 50.7316, -12.6006, 94.6672, -63.0783, 39.9386
3.347, 5, 35.0206, 50.7363, -12.5951, 94.6593, -63.1042, 39.9299
3.352, 5, 35.0179, 50.741, -12.5895, 94.6514, -63.13, 39.9212
3.356, 5, 35.0152, 50.7457, -12.584, 94.6435, -63.1559, 39.9125
3.36, 5, 35.0125, 50.7504, -12.5784, 94.6355, -63.1818, 39.9038
3.364, 5, 35.0098, 50.7551, -12.5729, 94.6276, -63.2076, 39.8951
3.368, 5, 35.007, 50.7598, -12.5673, 94.6196, -63.2335, 39.8863
3.372, 5, 35.0043, 50.7644, -12.5617, 94.6117, -63.2593, 39.8776
3.376, 5, 35.0016, 50.7691, -12.5561, 94.6037, -63.2852, 39.8689
3.38, 5, 34.9989, 50.7737, -12.5505, 94.5957, -63.3111, 39.8602
3.383, 5, 34.9961, 50.7784, -12.5449, 94.5878, -63.3369, 39.8515
3.388, 5, 34.9934, 50.783, -12.5393, 94.5798, -63.3627, 39.8428
3.392, 5, 34.9907, 50.7876, -12.5337, 94.5718, -63.3886, 39.8341
3.396, 5, 34.9879, 50.7923, -12.528, 94.5638, -63.4144, 39.8254
3.4, 5, 34.9852, 50.7969, -12.5224, 94.5558, -63.4403, 39.8167
3.403, 5, 34.9825, 50.8015, -12.5167, 94.5478, -63.4661, 39.8081
3.408, 5, 34.9797, 50.8061, -12.5111, 94.5398, -63.4919, 39.7994
3.412, 5, 34.977, 50.8107, -12.5054, 94.5318, -63.5177, 39.7907
3.416, 5, 34.9742, 50.8153, -12.4997, 94.5238, -63.5436, 39.782
3.42, 5, 34.9715, 50.8199, -12.494, 94.5157, -63.5694, 39.7733
3.424, 5, 34.9687, 50.8244, -12.4883, 94.5077, -63.5952, 39.7646
3.428, 5, 34.9659, 50.829, -12.4826, 94.4997, -63.621, 39.7559
3.432, 5, 34.9632, 50.8336, -12.4768, 94.4916, -63.6468, 39.7473
3.436, 5, 34.9604, 50.8381, -12.4711, 94.4836, -63.6726, 39.7386
3.439, 5, 34.9576, 50.8427, -12.4654, 94.4755, -63.6984, 39.7299
3.444, 5, 34.9549, 50.8472, -12.4596, 94.4675, -63.7242, 39.7212
3.448, 5, 34.9521, 50.8518, -12.4538, 94.4594, -63.75, 39.7126
3.452, 5, 34.9493, 50.8563, -12.4481, 94.4513, -63.7758, 39.7039
3.456, 5, 34.9465, 50.8608, -12.4423, 94.4432, -63.8016, 39.6952
3.46, 5, 34.9438, 50.8654, -12.4365, 94.4352, -63.8274, 39.6866
3.464, 5, 34.941, 50.8699, -12.4307, 94.4271, -63.8532, 39.6779
3.468, 5, 34.9382, 50.8744, -12.4249, 94.419, -63.879, 39.6692
3.472, 5, 34.9354, 50.8789, -12.419, 94.4109, -63.9048, 39.6606
3.476, 5, 34.9326, 50.8834, -12.4132, 94.4028, -63.9305, 39.6519
3.48, 5, 34.9298, 50.8879, -12.4073, 94.3947, -63.9563, 39.6432
3.484, 5, 34.927, 50.8923, -12.4015, 94.3865, -63.9821, 39.6346
3.488, 5, 34.9242, 50.8968, -12.3956, 94.3784, -64.0078, 39.6259
3.492, 5, 34.9214, 50.9013, -12.3897, 94.3703, -64.0336, 39.6173
3.495, 5, 34.9186, 50.9058, -12.3839, 94.3622, -64.0594, 39.6086
3.5, 5, 34.9158, 50.9102, -12.378, 94.354, -64.0851, 39.6
3.504, 5, 34.9129, 50.9147, -12.3721, 94.3459, -64.1109, 39.5913
3.508, 5, 34.9101, 50.9191, -12.3661, 94.3377, -64.1366, 39.5827
3.512, 5, 34.9073, 50.9235, -12.3602, 94.3296, -64.1624, 39.574
3.516, 5, 34.9045, 50.928, -12.3543, 94.3214, -64.1881, 39.5654
3.52, 5, 34.9016, 50.9324, -12.3483, 94.3132, -64.2139, 39.5567
3.524, 5, 34.8988, 50.9368, -12.3424, 94.3051, -64.2396, 39.5481
3.528, 5, 34.896, 50.9412, -12.3364, 94.2969, -64.2654, 39.5395
3.531, 5, 34.8931, 50.9456, -12.3304, 94.2887, -64.2911, 39.5308
3.536, 5, 34.8903, 50.95, -12.3245, 94.2805, -64.3168, 39.5222
3.54, 5, 34.8875, 50.9544, -12.3185, 94.2723, -64.3426, 39.5135
3.544, 5, 34.8846, 50.9588, -12.3125, 94.2641, -64.3683, 39.5049
3.548, 5, 34.8818, 50.9632, -12.3064, 94.2559, -64.394, 39.4963
3.552, 5, 34.8789, 50.9676, -12.3004, 94.2477, -64.4197, 39.4876
3.556, 5, 34.8761, 50.9719, -12.2944, 94.2395, -64.4454, 39.479
3.56, 5, 34.8732, 50.9763, -12.2883, 94.2313, -64.4712, 39.4704
3.564, 5, 34.8703, 50.9806, -12.2823, 94.223, -64.4969, 39.4618
3.568, 5, 34.8675, 50.985, -12.2762, 94.2148, -64.5226, 39.4531
3.572, 5, 34.8646, 50.9893, -12.2701, 94.2066, -64.5483, 39.4445
3.576, 5, 34.8618, 50.9937, -12.2641, 94.1983, -64.574, 39.4359
3.58, 5, 34.8589, 50.998, -12.258, 94.1901, -64.5997, 39.4273
3.584, 5, 34.856, 51.0023, -12.2519, 94.1818, -64.6254, 39.4186
3.587, 5, 34.8532, 51.0067, -12.2458, 94.1736, -64.6511, 39.41
3.592, 5, 34.8503, 51.011, -12.2397, 94.1653, -64.6768, 39.4014
3.596, 5, 34.8474, 51.0153, -12.2336, 94.1571, -64.7025, 39.3928
3.6, 5, 34.8446, 51.0196, -12.2275, 94.1489, -64.7282, 39.3841
3.604, 5, 34.8417, 51.0239, -12.2214, 94.1407, -64.7539, 39.3755
3.608, 5, 34.8388, 51.0283, -12.2153, 94.1325, -64.7796, 39.3669
3.612, 5, 34.836, 51.0326, -12.2092, 94.1243, -64.8054, 39.3582
3.616, 5, 34.8331, 51.0369, -12.2031, 94.1161, -64.8311, 39.3496
3.62, 5, 34.8302, 51.0412, -12.1971, 94.108, -64.8568, 39.3409
3.624, 5, 34.8274, 51.0456, -12.1911, 94.0999, -64.8826, 39.3322
3.628, 5, 34.8245, 51.0499, -12.1851, 94.0919, -64.9084, 39.3236
3.632, 5, 34.8216, 51.0543, -12.1791, 94.0839, -64.9342, 39.3149
3.636, 5, 34.8188, 51.0586, -12.1732, 94.0759, -64.96, 39.3062
3.64, 5, 34.8159, 51.063, -12.1672, 94.068, -64.9859, 39.2974
3.644, 5, 34.813, 51.0674, -12.1614, 94.0601, -65.0118, 39.2887
3.648, 5, 34.8101, 51.0718, -12.1555, 94.0523, -65.0377, 39.2799
3.652, 5, 34.8073, 51.0762, -12.1497, 94.0446, -65.0636, 39.2712
3.656, 5, 34.8044, 51.0806, -12.144, 94.0369, -65.0895, 39.2624
3.66, 5, 34.8015, 51.085, -12.1382, 94.0293, -65.1155, 39.2536
3.664, 5, 34.7986, 51.0895, -12.1325, 94.0217, -65.1415, 39.2448
3.668, 5, 34.7957, 51.0939, -12.1269, 94.0142, -65.1676, 39.2359
3.672, 5, 34.7929, 51.0984, -12.1213, 94.0067, -65.1936, 39.2271
3.676, 5, 34.79, 51.1029, -12.1157, 93.9993, -65.2197, 39.2182
3.679, 5, 34.7871, 51.1074, -12.1102, 93.992, -65.2458, 39.2093
3.684, 5, 34.7842, 51.1119, -12.1047, 93.9847, -65.272, 39.2004
3.688, 5, 34.7814, 51.1164, -12.0993, 93.9775, -65.2982, 39.1915
3.692, 5, 34.7785, 51.121, -12.0939, 93.9703, -65.3244, 39.1826
3.696, 5, 34.7756, 51.1255, -12.0886, 93.9632, -65.3506, 39.1736
3.7, 5, 34.7728, 51.1301, -12.0833, 93.9562, -65.3769, 39.1646
3.704, 5, 34.7699, 51.1347, -12.078, 93.9492, -65.4032, 39.1556
3.708, 5, 34.767, 51.1393, -12.0728, 93.9423, -65.4295, 39.1466
3.712, 5, 34.7641, 51.1439, -12.0676, 93.9355, -65.4558, 39.1376
3.716, 5, 34.7613, 51.1486, -12.0624, 93.9287, -65.4822, 39.1286
3.72, 5, 34.7584, 51.1532, -12.0573, 93.9219, -65.5086, 39.1195
3.724, 5, 34.7555, 51.1579, -12.0523, 93.9152, -65.535, 39.1105
3.728, 5, 34.7527, 51.1625, -12.0472, 93.9086, -65.5615, 39.1014
3.732, 5, 34.7498, 51.1672, -12.0422, 93.902, -65.5879, 39.0923
3.735, 5, 34.7469, 51.1719, -12.0373, 93.8954, -65.6144, 39.0832
3.74, 5, 34.744, 51.1766, -12.0323, 93.8889, -65.6409, 39.0741
3.744, 5, 34.7412, 51.1813, -12.0274, 93.8825, -65.6675, 39.065
3.748, 5, 34.7383, 51.186, -12.0225, 93.876, -65.694, 39.0559
3.752, 5, 34.7354, 51.1907, -12.0176, 93.8696, -65.7206, 39.0467
3.756, 5, 34.7325, 51.1954, -12.0128, 93.8633, -65.7472, 39.0376
3.76, 5, 34.7296, 51.2002, -12.0079, 93.8569, -65.7737, 39.0284
3.764, 5, 34.7268, 51.2049, -12.0031, 93.8505, -65.8003, 39.0193
3.768, 5, 34.7239, 51.2096, -11.9983, 93.8442, -65.8269, 39.0101
3.772, 5, 34.721, 51.2143, -11.9934, 93.8379, -65.8535, 39.001
3.776, 5, 34.7181, 51.2191, -11.9886, 93.8316, -65.8801, 38.9918
3.78, 5, 34.7152, 51.2238, -11.9838, 93.8252, -65.9067, 38.9827
3.784, 5, 34.7124, 51.2285, -11.9789, 93.8189, -65.9334, 38.9735
3.788, 5, 34.7095, 51.2332, -11.9741, 93.8126, -65.96, 38.9644
3.792, 5, 34.7066, 51.2379, -11.9692, 93.8063, -65.9866, 38.9552
3.796, 5, 34.7037, 51.2426, -11.9644, 93.7999, -66.0132, 38.9461
3.8, 5, 34.7008, 51.2473, -11.9595, 93.7936, -66.0398, 38.937
3.804, 5, 34.6979, 51.252, -11.9546, 93.7872, -66.0664, 38.9278
3.808, 5, 34.695, 51.2567, -11.9497, 93.7809, -66.093, 38.9187
3.812, 5, 34.6922, 51.2614, -11.9449, 93.7745, -66.1196, 38.9096
3.816, 5, 34.6893, 51.2661, -11.94, 93.7682, -66.1462, 38.9004
3.82, 5, 34.6864, 51.2708, -11.9351, 93.7618, -66.1728, 38.8913
3.824, 5, 34.6835, 51.2755, -11.9301, 93.7554, -66.1994, 38.8822
3.828, 5, 34.6806, 51.2801, -11.9252, 93.749, -66.226, 38.8731
3.832, 5, 34.6777, 51.2848, -11.9203, 93.7426, -66.2526, 38.864
3.836, 5, 34.6747, 51.2894, -11.9153, 93.7362, -66.2791, 38.8548
3.84, 5, 34.6718, 51.2941, -11.9104, 93.7298, -66.3057, 38.8457
3.844, 5, 34.6689, 51.2987, -11.9054, 93.7234, -66.3323, 38.8366
3.848, 5, 34.666, 51.3033, -11.9004, 93.717, -66.3589, 38.8275
3.852, 5, 34.6631, 51.308, -11.8954, 93.7105, -66.3855, 38.8184
3.856, 5, 34.6602, 51.3126, -11.8904, 93.7041, -66.412, 38.8093
3.86, 5, 34.6572, 51.3172, -11.8854, 93.6977, -66.4386, 38.8002
3.864, 5, 34.6543, 51.3218, -11.8804, 93.6912, -66.4652, 38.7911
3.868, 5, 34.6514, 51.3264, -11.8754, 93.6847, -66.4917, 38.7821
3.872, 5, 34.6484, 51.331, -11.8704, 93.6783, -66.5183, 38.773
3.876, 5, 34.6455, 51.3356, -11.8653, 93.6718, -66.5449, 38.7639
3.88, 5, 34.6426, 51.3402, -11.8603, 93.6653, -66.5714, 38.7548
3.884, 5, 34.6396, 51.3448, -11.8552, 93.6588, -66.598, 38.7457
3.888, 5, 34.6367, 51.3494, -11.8502, 93.6523, -66.6245, 38.7367
3.892, 5, 34.6337, 51.3539, -11.8451, 93.6458, -66.6511, 38.7276
3.896, 5, 34.6308, 51.3585, -11.84, 93.6393, -66.6776, 38.7185
3.9, 5, 34.6278, 51.363, -11.8349, 93.6328, -66.7042, 38.7095
3.904, 5, 34.6249, 51.3676, -11.8298, 93.6263, -66.7307, 38.7004
3.908, 5, 34.6219, 51.3721, -11.8247, 93.6197, -66.7573, 38.6914
3.912, 5, 34.6189, 51.3767, -11.8196, 93.6132, -66.7838, 38.6823
3.916, 5, 34.616, 51.3812, -11.8144, 93.6067, -66.8103, 38.6733
3.92, 5, 34.613, 51.3857, -11.8093, 93.6001, -66.8369, 38.6642
3.924, 5, 34.61, 51.3903, -11.8041, 93.5935, -66.8634, 38.6552
3.928, 5, 34.607, 51.3948, -11.799, 93.587, -66.8899, 38.6461
3.932, 5, 34.6041, 51.3993, -11.7938, 93.5804, -66.9165, 38.6371
3.936, 5, 34.6011, 51.4038, -11.7886, 93.5738, -66.943, 38.628
3.94, 5, 34.5981, 51.4083, -11.7834, 93.5672, -66.9695, 38.619
3.944, 5, 34.5951, 51.4128, -11.7782, 93.5606, -66.996, 38.61
3.948, 5, 34.5921, 51.4172, -11.773, 93.554, -67.0226, 38.601
3.952, 5, 34.5891, 51.4217, -11.7678, 93.5474, -67.0491, 38.5919
3.956, 5, 34.5861, 51.4262, -11.7625, 93.5408, -67.0756, 38.5829
3.96, 5, 34.5831, 51.4307, -11.7573, 93.5342, -67.1021, 38.5739
3.964, 5, 34.5801, 51.4351, -11.7521, 93.5275, -67.1286, 38.5649
3.968, 5, 34.5771, 51.4396, -11.7468, 93.5209, -67.1551, 38.5559
3.972, 5, 34.5741, 51.444, -11.7415, 93.5143, -67.1816, 38.5469
3.976, 5, 34.5711, 51.4485, -11.7363, 93.5076, -67.2081, 38.5378
3.98, 5, 34.5681, 51.4529, -11.731, 93.5009, -67.2346, 38.5288
3.984, 5, 34.5651, 51.4573, -11.7257, 93.4943, -67.2611, 38.5198
3.988, 5, 34.5621, 51.4618, -11.7204, 93.4876, -67.2876, 38.5108
3.992, 5, 34.5591, 51.4662, -11.7151, 93.4809, -67.3141, 38.5018
3.996, 5, 34.556, 51.4706, -11.7097, 93.4742, -67.3406, 38.4929
3.999, 5, 34.553, 51.475, -11.7044, 93.4675, -67.3671, 38.4839
4.004, 5, 34.55, 51.4794, -11.6991, 93.4608, -67.3935, 38.4749
4.008, 5, 34.5469, 51.4838, -11.6937, 93.4541, -67.42, 38.4659
4.012, 5, 34.5439, 51.4882, -11.6884, 93.4474, -67.4465, 38.4569
4.016, 5, 34.5409, 51.4925, -11.683, 93.4407, -67.473, 38.4479
4.02, 5, 34.5378, 51.4969, -11.6776, 93.434, -67.4995, 38.439
4.024, 5, 34.5348, 51.5013, -11.6722, 93.4272, -67.5259, 38.43
4.028, 5, 34.5317, 51.5057, -11.6668, 93.4205, -67.5524, 38.421
4.032, 5, 34.5287, 51.51, -11.6614, 93.4137, -67.5789, 38.412
4.036, 5, 34.5256, 51.5144, -11.656, 93.407, -67.6053, 38.4031
4.04, 5, 34.5226, 51.5187, -11.6506, 93.4002, -67.6318, 38.3941
4.044, 5, 34.5195, 51.523, -11.6451, 93.3934, -67.6582, 38.3852
4.048, 5, 34.5165, 51.5274, -11.6397, 93.3867, -67.6847, 38.3762
4.052, 5, 34.5134, 51.5317, -11.6342, 93.3799, -67.7112, 38.3673
4.056, 5, 34.5103, 51.536, -11.6288, 93.3731, -67.7376, 38.3583
4.06, 5, 34.5073, 51.5403, -11.6233, 93.3663, -67.7641, 38.3493
4.064, 5, 34.5042, 51.5446, -11.6178, 93.3595, -67.7905, 38.3404
4.068, 5, 34.5011, 51.549, -11.6123, 93.3527, -67.817, 38.3315
4.072, 5, 34.498, 51.5532, -11.6068, 93.3459, -67.8434, 38.3225
4.076, 5, 34.495, 51.5575, -11.6013, 93.339, -67.8698, 38.3136
4.08, 5, 34.4919, 51.5618, -11.5958, 93.3322, -67.8963, 38.3046
4.084, 5, 34.4888, 51.5661, -11.5903, 93.3254, -67.9227, 38.2957
4.088, 5, 34.4857, 51.5704, -11.5847, 93.3185, -67.9492, 38.2868
4.092, 5, 34.4826, 51.5746, -11.5792, 93.3117, -67.9756, 38.2779
4.096, 5, 34.4795, 51.5789, -11.5736, 93.3048, -68.002, 38.2689
4.1, 5, 34.4764, 51.5831, -11.5681, 93.2979, -68.0284, 38.26
4.104, 5, 34.4733, 51.5874, -11.5625, 93.291, -68.0549, 38.2511
4.108, 5, 34.4702, 51.5916, -11.5569, 93.2842, -68.0813, 38.2422
4.112, 5, 34.4671, 51.5959, -11.5513, 93.2773, -68.1077, 38.2333
4.116, 5, 34.464, 51.6001, -11.5457, 93.2704, -68.1341, 38.2243
4.12, 5, 34.4609, 51.6043, -11.5401, 93.2635, -68.1605, 38.2154
4.124, 5, 34.4578, 51.6085, -11.5345, 93.2566, -68.187, 38.2065
4.128, 5, 34.4547, 51.6128, -11.5288, 93.2497, -68.2134, 38.1976
4.132, 5, 34.4515, 51.617, -11.5232, 93.2427, -68.2398, 38.1887
4.136, 5, 34.4484, 51.6212, -11.5175, 93.2358, -68.2662, 38.1798
4.14, 5, 34.4453, 51.6254, -11.5119, 93.2289, -68.2926, 38.1709
4.144, 5, 34.4422, 51.6295, -11.5062, 93.2219, -68.319, 38.162
4.148, 5, 34.439, 51.6337, -11.5005, 93.215, -68.3454, 38.1531
4.152, 5, 34.4359, 51.6379, -11.4949, 93.208, -68.3718, 38.1443
4.156, 5, 34.4328, 51.6421, -11.4892, 93.2011, -68.3982, 38.1354
4.16, 5, 34.4296, 51.6462, -11.4835, 93.1941, -68.4246, 38.1265
4.164, 5, 34.4265, 51.6504, -11.4777, 93.1871, -68.4509, 38.1176
4.168, 5, 34.4233, 51.6545, -11.472, 93.1801, -68.4773, 38.1087
4.172, 5, 34.4202, 51.6587, -11.4663, 93.1731, -68.5037, 38.0998
4.176, 5, 34.417, 51.6628, -11.4605, 93.1662, -68.5301, 38.091
4.18, 5, 34.4139, 51.6669, -11.4548, 93.1591, -68.5565, 38.0821
4.184, 5, 34.4107, 51.6711, -11.449, 93.1521, -68.5828, 38.0732
4.188, 5, 34.4076, 51.6752, -11.4433, 93.1451, -68.6092, 38.0644
4.192, 5, 34.4044, 51.6793, -11.4375, 93.1381, -68.6356, 38.0555
4.196, 5, 34.4012, 51.6834, -11.4317, 93.1311, -68.662, 38.0466
4.2, 5, 34.3981, 51.6875, -11.4259, 93.124, -68.6883, 38.0378
4.204, 5, 34.3949, 51.6916, -11.4201, 93.117, -68.7147, 38.0289
4.208, 5, 34.3917, 51.6957, -11.4143, 93.1099, -68.7411, 38.0201
4.212, 5, 34.3885, 51.6998, -11.4084, 93.1029, -68.7674, 38.0112
4.216, 5, 34.3854, 51.7039, -11.4026, 93.0958, -68.7938, 38.0024
4.22, 5, 34.3822, 51.7079, -11.3968, 93.0887, -68.8201, 37.9935
4.224, 5, 34.379, 51.712, -11.3909, 93.0817, -68.8465, 37.9847
4.228, 5, 34.3758, 51.7161, -11.385, 93.0746, -68.8728, 37.9758
4.232, 5, 34.3726, 51.7201, -11.3792, 93.0675, -68.8992, 37.967
4.236, 5, 34.3694, 51.7242, -11.3733, 93.0604, -68.9255, 37.9581
4.24, 5, 34.3662, 51.7282, -11.3674, 93.0533, -68.9519, 37.9493
4.244, 5, 34.363, 51.7322, -11.3615, 93.0462, -68.9782, 37.9405
4.248, 5, 34.3598, 51.7363, -11.3556, 93.0391, -69.0046, 37.9316
4.252, 5, 34.3566, 51.7403, -11.3497, 93.0319, -69.0309, 37.9228
4.256, 5, 34.3534, 51.7443, -11.3437, 93.0248, -69.0572, 37.914
4.26, 5, 34.3502, 51.7483, -11.3378, 93.0177, -69.0836, 37.9052
4.264, 5, 34.347, 51.7523, -11.3319, 93.0105, -69.1099, 37.8963
4.268, 5, 34.3438, 51.7563, -11.3259, 93.0034, -69.1362, 37.8875
4.272, 5, 34.3406, 51.7603, -11.3199, 92.9962, -69.1626, 37.8787
4.276, 5, 34.3373, 51.7643, -11.314, 92.9891, -69.1889, 37.8699
4.28, 5, 34.3341, 51.7683, -11.308, 92.9819, -69.2152, 37.8611
4.284, 5, 34.3309, 51.7722, -11.302, 92.9747, -69.2415, 37.8523
4.288, 5, 34.3277, 51.7762, -11.296, 92.9675, -69.2678, 37.8434
4.292, 5, 34.3244, 51.7802, -11.29, 92.9603, -69.2942, 37.8346
4.296, 5, 34.3212, 51.7841, -11.2839, 92.9532, -69.3205, 37.8258
4.3, 5, 34.318, 51.7881, -11.2779, 92.946, -69.3468, 37.817
4.304, 5, 34.3147, 51.792, -11.2719, 92.9387, -69.3731, 37.8082
4.308, 5, 34.3115, 51.7959, -11.2658, 92.9315, -69.3994, 37.7994
4.312, 5, 34.3082, 51.7999, -11.2598, 92.9243, -69.4257, 37.7906
4.316, 5, 34.305, 51.8038, -11.2537, 92.9171, -69.452, 37.7818
4.32, 5, 34.3017, 51.8077, -11.2476, 92.9098, -69.4783, 37.773
4.324, 5, 34.2985, 51.8116, -11.2415, 92.9026, -69.5046, 37.7643
4.328, 5, 34.2952, 51.8155, -11.2354, 92.8953, -69.5309, 37.7555
4.332, 5, 34.2919, 51.8194, -11.2293, 92.8881, -69.5572, 37.7467
4.336, 5, 34.2887, 51.8233, -11.2232, 92.8808, -69.5835, 37.7379
4.34, 5, 34.2854, 51.8272, -11.2171, 92.8736, -69.6097, 37.7291
4.344, 5, 34.2822, 51.8311, -11.211, 92.8663, -69.636, 37.7203
4.348, 5, 34.2789, 51.835, -11.2048, 92.859, -69.6623, 37.7116
4.352, 5, 34.2756, 51.8388, -11.1987, 92.8517, -69.6886, 37.7028
4.356, 5, 34.2723, 51.8427, -11.1925, 92.8444, -69.7149, 37.694
4.36, 5, 34.2691, 51.8465, -11.1864, 92.8371, -69.7411, 37.6852
4.364, 5, 34.2658, 51.8504, -11.1802, 92.8298, -69.7674, 37.6765
4.368, 5, 34.2625, 51.8542, -11.174, 92.8225, -69.7937, 37.6677
4.372, 5, 34.2592, 51.8581, -11.1678, 92.8152, -69.82, 37.6589
4.376, 5, 34.2559, 51.8619, -11.1616, 92.8079, -69.8462, 37.6502
4.38, 5, 34.2526, 51.8657, -11.1554, 92.8005, -69.8725, 37.6414
4.384, 5, 34.2493, 51.8695, -11.1491, 92.7932, -69.8987, 37.6327
4.388, 5, 34.246, 51.8734, -11.1429, 92.7859, -69.925, 37.6239
4.392, 5, 34.2427, 51.8772, -11.1367, 92.7785, -69.9513, 37.6152
4.396, 5, 34.2394, 51.881, -11.1304, 92.7711, -69.9775, 37.6064
4.4, 5, 34.2361, 51.8848, -11.1242, 92.7638, -70.0038, 37.5976
4.404, 5, 34.2328, 51.8885, -11.1179, 92.7564, -70.03, 37.5889
4.408, 5, 34.2295, 51.8923, -11.1116, 92.749, -70.0563, 37.5802
4.412, 5, 34.2262, 51.8961, -11.1053, 92.7416, -70.0825, 37.5714
4.416, 5, 34.2228, 51.8999, -11.099, 92.7343, -70.1088, 37.5627
4.42, 5, 34.2195, 51.9036, -11.0927, 92.7269, -70.135, 37.5539
4.424, 5, 34.2162, 51.9074, -11.0864, 92.7195, -70.1612, 37.5452
4.428, 5, 34.2129, 51.9111, -11.0801, 92.712, -70.1875, 37.5364
4.432, 5, 34.2095, 51.9149, -11.0737, 92.7046, -70.2137, 37.5277
4.436, 5, 34.2062, 51.9186, -11.0674, 92.6972, -70.2399, 37.519
4.44, 5, 34.2029, 51.9223, -11.061, 92.6898, -70.2662, 37.5102
4.444, 5, 34.1995, 51.9261, -11.0547, 92.6823, -70.2924, 37.5015
4.448, 5, 34.1962, 51.9298, -11.0483, 92.6749, -70.3186, 37.4928
4.452, 5, 34.1929, 51.9335, -11.0419, 92.6674, -70.3448, 37.4841
4.456, 5, 34.1895, 51.9372, -11.0355, 92.66, -70.3711, 37.4753
4.46, 5, 34.1862, 51.9409, -11.0291, 92.6525, -70.3973, 37.4666
4.464, 5, 34.1828, 51.9446, -11.0227, 92.6451, -70.4235, 37.4579
4.468, 5, 34.1795, 51.9483, -11.0163, 92.6376, -70.4497, 37.4492
4.472, 5, 34.1761, 51.952, -11.0099, 92.6301, -70.4759, 37.4405
4.476, 5, 34.1727, 51.9557, -11.0035, 92.6226, -70.5021, 37.4317
4.48, 5, 34.1694, 51.9593, -10.997, 92.6151, -70.5283, 37.423
4.484, 5, 34.166, 51.963, -10.9906, 92.6076, -70.5545, 37.4143
4.488, 5, 34.1626, 51.9666, -10.9841, 92.6001, -70.5807, 37.4056
4.492, 5, 34.1593, 51.9703, -10.9776, 92.5926, -70.6069, 37.3969
4.496, 5, 34.1559, 51.9739, -10.9711, 92.5851, -70.6331, 37.3882
4.5, 5, 34.1525, 51.9776, -10.9647, 92.5776, -70.6593, 37.3795
4.504, 5, 34.1491, 51.9812, -10.9581, 92.5701, -70.6855, 37.3708
4.508, 5, 34.1457, 51.9848, -10.9516, 92.5625, -70.7117, 37.3621
4.512, 5, 34.1424, 51.9885, -10.9451, 92.555, -70.7379, 37.3534
4.516, 5, 34.139, 51.9921, -10.9386, 92.5474, -70.7641, 37.3447
4.52, 5, 34.1356, 51.9957, -10.9321, 92.5399, -70.7903, 37.336
4.524, 5, 34.1322, 51.9993, -10.9255, 92.5323, -70.8165, 37.3273
4.528, 5, 34.1288, 52.0029, -10.919, 92.5247, -70.8426, 37.3186
4.532, 5, 34.1254, 52.0065, -10.9124, 92.5172, -70.8688, 37.3099
4.536, 5, 34.122, 52.01, -10.9058, 92.5096, -70.895, 37.3012
4.54, 5, 34.1186, 52.0136, -10.8992, 92.502, -70.9212, 37.2925
4.544, 5, 34.1152, 52.0172, -10.8926, 92.4944, -70.9473, 37.2839
4.548, 5, 34.1118, 52.0207, -10.886, 92.4868, -70.9735, 37.2752
4.552, 5, 34.1084, 52.0243, -10.8794, 92.4792, -70.9997, 37.2665
4.556, 5, 34.1049, 52.0279, -10.8728, 92.4716, -71.0258, 37.2578
4.56, 5, 34.1015, 52.0314, -10.8662, 92.464, -71.052, 37.2491
4.564, 5, 34.0981, 52.0349, -10.8595, 92.4564, -71.0782, 37.2405
4.568, 5, 34.0947, 52.0385, -10.8529, 92.4487, -71.1043, 37.2318
4.572, 5, 34.0913, 52.042, -10.8462, 92.4411, -71.1305, 37.2231
4.576, 5, 34.0878, 52.0455, -10.8396, 92.4335, -71.1566, 37.2144
4.58, 5, 34.0844, 52.049, -10.8329, 92.4258, -71.1828, 37.2058
4.584, 5, 34.081, 52.0525, -10.8262, 92.4182, -71.2089, 37.1971
4.588, 5, 34.0775, 52.056, -10.8195, 92.4105, -71.2351, 37.1884
4.592, 5, 34.0741, 52.0595, -10.8128, 92.4028, -71.2612, 37.1798
4.596, 5, 34.0706, 52.063, -10.8061, 92.3951, -71.2874, 37.1711
4.6, 5, 34.0672, 52.0665, -10.7994, 92.3875, -71.3135, 37.1624
4.604, 5, 34.0638, 52.07, -10.7927, 92.3798, -71.3396, 37.1538
4.608, 5, 34.0603, 52.0734, -10.7859, 92.3721, -71.3658, 37.1451
4.612, 5, 34.0568, 52.0769, -10.7792, 92.3644, -71.3919, 37.1365
4.616, 5, 34.0534, 52.0804, -10.7724, 92.3567, -71.418, 37.1278
4.62, 5, 34.0499, 52.0838, -10.7657, 92.349, -71.4442, 37.1192
4.624, 5, 34.0465, 52.0872, -10.7589, 92.3413, -71.4703, 37.1105
4.628, 5, 34.043, 52.0907, -10.7521, 92.3335, -71.4964, 37.1018
4.632, 5, 34.0395, 52.0941, -10.7453, 92.3258, -71.5225, 37.0932
4.636, 5, 34.0361, 52.0975, -10.7385, 92.3181, -71.5487, 37.0845
4.64, 5, 34.0326, 52.101, -10.7317, 92.3103, -71.5748, 37.0759
4.644, 5, 34.0291, 52.1044, -10.7249, 92.3026, -71.6009, 37.0673
4.648, 5, 34.0256, 52.1078, -10.718, 92.2948, -71.627, 37.0586
4.652, 5, 34.0222, 52.1112, -10.7112, 92.2871, -71.6531, 37.05
4.656, 5, 34.0187, 52.1146, -10.7044, 92.2793, -71.6792, 37.0413
4.66, 5, 34.0152, 52.118, -10.6975, 92.2716, -71.7053, 37.0327
4.664, 5, 34.0117, 52.1213, -10.6906, 92.2638, -71.7314, 37.024
4.668, 5, 34.0082, 52.1247, -10.6838, 92.256, -71.7575, 37.0154
4.672, 5, 34.0047, 52.1281, -10.6769, 92.2482, -71.7836, 37.0068
4.676, 5, 34.0012, 52.1314, -10.67, 92.2404, -71.8097, 36.9981
4.68, 5, 33.9977, 52.1348, -10.6631, 92.2326, -71.8358, 36.9895
4.684, 5, 33.9942, 52.1381, -10.6562, 92.2248, -71.8619, 36.9809
4.688, 5, 33.9907, 52.1415, -10.6492, 92.217, -71.888, 36.9722
4.692, 5, 33.9872, 52.1448, -10.6423, 92.2092, -71.9141, 36.9636
4.696, 5, 33.9837, 52.1481, -10.6354, 92.2013, -71.9402, 36.955
4.7, 5, 33.9802, 52.1515, -10.6284, 92.1935, -71.9663, 36.9464
4.704, 5, 33.9766, 52.1548, -10.6215, 92.1857, -71.9923, 36.9377
4.708, 5, 33.9731, 52.1581, -10.6145, 92.1778, -72.0184, 36.9291
4.712, 5, 33.9696, 52.1614, -10.6075, 92.17, -72.0445, 36.9205
4.716, 5, 33.9661, 52.1647, -10.6005, 92.1621, -72.0706, 36.9119
4.72, 5, 33.9626, 52.168, -10.5935, 92.1543, -72.0966, 36.9033
4.724, 5, 33.959, 52.1713, -10.5865, 92.1464, -72.1227, 36.8946
4.728, 5, 33.9555, 52.1746, -10.5795, 92.1385, -72.1488, 36.886
4.732, 5, 33.952, 52.1778, -10.5725, 92.1306, -72.1749, 36.8774
4.736, 5, 33.9484, 52.1811, -10.5655, 92.1228, -72.2009, 36.8688
4.74, 5, 33.9449, 52.1844, -10.5584, 92.1149, -72.227, 36.8602
4.744, 5, 33.9413, 52.1876, -10.5514, 92.107, -72.253, 36.8516
4.748, 5, 33.9378, 52.1909, -10.5443, 92.0991, -72.2791, 36.843
4.752, 5, 33.9342, 52.1941, -10.5372, 92.0912, -72.3051, 36.8343
4.756, 5, 33.9307, 52.1973, -10.5302, 92.0832, -72.3312, 36.8257
4.76, 5, 33.9271, 52.2006, -10.5231, 92.0753, -72.3573, 36.8171
4.764, 5, 33.9236, 52.2038, -10.516, 92.0674, -72.3833, 36.8085
4.768, 5, 33.92, 52.207, -10.5089, 92.0595, -72.4093, 36.7999
4.772, 5, 33.9164, 52.2102, -10.5018, 92.0515, -72.4354, 36.7913
4.776, 5, 33.9129, 52.2134, -10.4946, 92.0436, -72.4614, 36.7827
4.78, 5, 33.9093, 52.2166, -10.4875, 92.0356, -72.4875, 36.7741
4.784, 5, 33.9057, 52.2198, -10.4804, 92.0277, -72.5135, 36.7655
4.788, 5, 33.9022, 52.223, -10.4732, 92.0197, -72.5395, 36.7569
4.792, 5, 33.8986, 52.2261, -10.4661, 92.0117, -72.5656, 36.7483
4.796, 5, 33.895, 52.2293, -10.4589, 92.0038, -72.5916, 36.7397
4.8, 5, 33.8914, 52.2325, -10.4517, 91.9958, -72.6176, 36.7311
4.804, 5, 33.8878, 52.2356, -10.4445, 91.9878, -72.6437, 36.7225
4.808, 5, 33.8842, 52.2388, -10.4373, 91.9798, -72.6697, 36.7139
4.812, 5, 33.8807, 52.2419, -10.4301, 91.9718, -72.6957, 36.7054
4.816, 5, 33.8771, 52.2451, -10.4229, 91.9638, -72.7217, 36.6968
4.82, 5, 33.8735, 52.2482, -10.4157, 91.9558, -72.7477, 36.6882
4.824, 5, 33.8699, 52.2513, -10.4085, 91.9478, -72.7738, 36.6796
4.828, 5, 33.8663, 52.2544, -10.4012, 91.9398, -72.7998, 36.671
4.832, 5, 33.8627, 52.2576, -10.394, 91.9317, -72.8258, 36.6624
4.836, 5, 33.8591, 52.2607, -10.3867, 91.9237, -72.8518, 36.6538
4.84, 5, 33.8554, 52.2638, -10.3794, 91.9156, -72.8778, 36.6452
4.844, 5, 33.8518, 52.2668, -10.3722, 91.9076, -72.9038, 36.6367
4.848, 5, 33.8482, 52.2699, -10.3649, 91.8996, -72.9298, 36.6281
4.852, 5, 33.8446, 52.273, -10.3576, 91.8915, -72.9558, 36.6195
4.856, 5, 33.841, 52.2761, -10.3503, 91.8834, -72.9818, 36.6109
4.86, 5, 33.8373, 52.2792, -10.3429, 91.8754, -73.0078, 36.6023
4.864, 5, 33.8337, 52.2822, -10.3356, 91.8673, -73.0338, 36.5938
4.868, 5, 33.8301, 52.2853, -10.3283, 91.8592, -73.0598, 36.5852
4.872, 5, 33.8265, 52.2883, -10.3209, 91.8511, -73.0858, 36.5766
4.876, 5, 33.8228, 52.2914, -10.3136, 91.843, -73.1118, 36.568
4.88, 5, 33.8192, 52.2944, -10.3062, 91.8349, -73.1377, 36.5595
4.884, 5, 33.8156, 52.2974, -10.2989, 91.8268, -73.1637, 36.5509
4.888, 5, 33.8119, 52.3004, -10.2915, 91.8187, -73.1897, 36.5423
4.892, 5, 33.8083, 52.3035, -10.2841, 91.8106, -73.2157, 36.5338
4.896, 5, 33.8046, 52.3065, -10.2767, 91.8025, -73.2417, 36.5252
4.9, 5, 33.801, 52.3095, -10.2693, 91.7944, -73.2676, 36.5166
4.904, 5, 33.7973, 52.3125, -10.2619, 91.7862, -73.2936, 36.5081
4.908, 5, 33.7937, 52.3155, -10.2545, 91.7781, -73.3196, 36.4995
4.912, 5, 33.79, 52.3184, -10.247, 91.77, -73.3456, 36.4909
4.916, 5, 33.7863, 52.3214, -10.2396, 91.7618, -73.3715, 36.4824
4.92, 5, 33.7827, 52.3244, -10.2321, 91.7536, -73.3975, 36.4738
4.924, 5, 33.779, 52.3274, -10.2247, 91.7455, -73.4234, 36.4652
4.928, 5, 33.7753, 52.3303, -10.2172, 91.7373, -73.4494, 36.4567
4.932, 5, 33.7717, 52.3333, -10.2097, 91.7291, -73.4753, 36.4481
4.936, 5, 33.768, 52.3362, -10.2022, 91.721, -73.5013, 36.4395
4.94, 5, 33.7643, 52.3391, -10.1947, 91.7128, -73.5273, 36.431
4.944, 5, 33.7606, 52.3421, -10.1872, 91.7046, -73.5532, 36.4224
4.948, 5, 33.7569, 52.345, -10.1797, 91.6964, -73.5792, 36.4139
4.952, 5, 33.7533, 52.3479, -10.1722, 91.6882, -73.6051, 36.4053
4.956, 5, 33.7496, 52.3508, -10.1646, 91.68, -73.6311, 36.3968
4.96, 5, 33.7459, 52.3537, -10.1571, 91.6718, -73.657, 36.3882
4.964, 5, 33.7422, 52.3566, -10.1495, 91.6636, -73.6829, 36.3797
4.968, 5, 33.7385, 52.3595, -10.142, 91.6553, -73.7089, 36.3711
4.972, 5, 33.7348, 52.3624, -10.1344, 91.6471, -73.7348, 36.3625
4.976, 5, 33.7311, 52.3653, -10.1268, 91.6389, -73.7607, 36.354
4.98, 5, 33.7274, 52.3681, -10.1192, 91.6306, -73.7867, 36.3454
4.984, 5, 33.7237, 52.371, -10.1116, 91.6224, -73.8126, 36.3369
4.988, 5, 33.72, 52.3739, -10.104, 91.6141, -73.8385, 36.3283
4.992, 5, 33.7162, 52.3767, -10.0964, 91.6059, -73.8644, 36.3198
4.996, 5, 33.7125, 52.3796, -10.0888, 91.5976, -73.8904, 36.3112
5, 5, 33.7088, 52.3824, -10.0812, 91.5893, -73.9163, 36.3027
5.004, 5, 33.7051, 52.3852, -10.0735, 91.5811, -73.9422, 36.2942
5.008, 5, 33.7014, 52.3881, -10.0659, 91.5728, -73.9681, 36.2856
5.012, 5, 33.6976, 52.3909, -10.0582, 91.5645, -73.994, 36.2771
5.016, 5, 33.6939, 52.3937, -10.0505, 91.5562, -74.0199, 36.2685
5.02, 5, 33.6902, 52.3965, -10.0428, 91.5479, -74.0459, 36.26
5.024, 5, 33.6864, 52.3993, -10.0352, 91.5396, -74.0718, 36.2514
5.028, 5, 33.6827, 52.4021, -10.0275, 91.5313, -74.0977, 36.2429
5.032, 5, 33.679, 52.4049, -10.0198, 91.523, -74.1236, 36.2343
5.036, 5, 33.6752, 52.4077, -10.012, 91.5146, -74.1495, 36.2258
5.04, 5, 33.6715, 52.4104, -10.0043, 91.5063, -74.1754, 36.2173
5.044, 5, 33.6677, 52.4132, -9.99657, 91.498, -74.2013, 36.2087
5.048, 5, 33.664, 52.416, -9.98883, 91.4896, -74.2272, 36.2002
5.052, 5, 33.6602, 52.4187, -9.98107, 91.4813, -74.253, 36.1916
5.056, 5, 33.6565, 52.4215, -9.97331, 91.473, -74.2789, 36.1831
5.06, 5, 33.6527, 52.4242, -9.96554, 91.4646, -74.3048, 36.1746
5.064, 5, 33.6489, 52.4269, -9.95776, 91.4562, -74.3307, 36.166
5.068, 5, 33.6452, 52.4297, -9.94996, 91.4479, -74.3566, 36.1575
5.072, 5, 33.6414, 52.4324, -9.94216, 91.4395, -74.3825, 36.149
5.076, 5, 33.6376, 52.4351, -9.93436, 91.4311, -74.4083, 36.1404
5.08, 5, 33.6339, 52.4378, -9.92654, 91.4227, -74.4342, 36.1319
5.084, 5, 33.6301, 52.4405, -9.91871, 91.4144, -74.4601, 36.1234
5.088, 5, 33.6263, 52.4432, -9.91087, 91.406, -74.486, 36.1148
5.092, 5, 33.6225, 52.4459, -9.90303, 91.3976, -74.5118, 36.1063
5.096, 5, 33.6187, 52.4486, -9.89517, 91.3892, -74.5377, 36.0978
5.1, 5, 33.6149, 52.4513, -9.88731, 91.3808, -74.5636, 36.0892
5.104, 5, 33.6112, 52.4539, -9.87944, 91.3723, -74.5894, 36.0807
5.108, 5, 33.6074, 52.4566, -9.87155, 91.3639, -74.6153, 36.0722
5.112, 5, 33.6036, 52.4592, -9.86366, 91.3555, -74.6412, 36.0636
5.116, 5, 33.5998, 52.4619, -9.85576, 91.3471, -74.667, 36.0551
5.12, 5, 33.596, 52.4645, -9.84785, 91.3386, -74.6929, 36.0466
5.124, 5, 33.5922, 52.4672, -9.83993, 91.3302, -74.7187, 36.0381
5.128, 5, 33.5884, 52.4698, -9.83201, 91.3217, -74.7446, 36.0295
5.132, 5, 33.5846, 52.4724, -9.82407, 91.3133, -74.7704, 36.021
5.136, 5, 33.5807, 52.475, -9.81612, 91.3048, -74.7963, 36.0125
5.14, 5, 33.5769, 52.4776, -9.80817, 91.2963, -74.8221, 36.0039
5.144, 5, 33.5731, 52.4802, -9.8002, 91.2879, -74.848, 35.9954
5.148, 5, 33.5693, 52.4828, -9.79223, 91.2794, -74.8738, 35.9869
5.152, 5, 33.5655, 52.4854, -9.78425, 91.2709, -74.8996, 35.9784
5.156, 5, 33.5616, 52.488, -9.77625, 91.2624, -74.9255, 35.9698
5.16, 5, 33.5578, 52.4906, -9.76825, 91.2539, -74.9513, 35.9613
5.164, 5, 33.554, 52.4931, -9.76024, 91.2454, -74.9771, 35.9528
5.168, 5, 33.5502, 52.4957, -9.75222, 91.2369, -75.003, 35.9443
5.172, 5, 33.5463, 52.4983, -9.74419, 91.2284, -75.0288, 35.9358
5.176, 5, 33.5425, 52.5008, -9.73616, 91.2199, -75.0546, 35.9272
5.18, 5, 33.5386, 52.5033, -9.72811, 91.2114, -75.0805, 35.9187
5.184, 5, 33.5348, 52.5059, -9.72005, 91.2029, -75.1063, 35.9102
5.188, 5, 33.531, 52.5084, -9.71199, 91.1943, -75.1321, 35.9017
5.192, 5, 33.5271, 52.5109, -9.70391, 91.1858, -75.1579, 35.8931
5.196, 5, 33.5233, 52.5134, -9.69583, 91.1772, -75.1837, 35.8846
5.2, 5, 33.5194, 52.516, -9.68774, 91.1687, -75.2095, 35.8761
5.204, 5, 33.5155, 52.5185, -9.67964, 91.1601, -75.2354, 35.8676
5.208, 5, 33.5117, 52.521, -9.67153, 91.1516, -75.2612, 35.8591
5.212, 5, 33.5078, 52.5234, -9.66341, 91.143, -75.287, 35.8505
5.216, 5, 33.504, 52.5259, -9.65528, 91.1344, -75.3128, 35.842
5.22, 5, 33.5001, 52.5284, -9.64714, 91.1259, -75.3386, 35.8335
5.224, 5, 33.4962, 52.5309, -9.63899, 91.1173, -75.3644, 35.825
5.228, 5, 33.4923, 52.5333, -9.63084, 91.1087, -75.3902, 35.8165
5.232, 5, 33.4885, 52.5358, -9.62267, 91.1001, -75.416, 35.8079
5.236, 5, 33.4846, 52.5382, -9.6145, 91.0915, -75.4418, 35.7994
5.24, 5, 33.4807, 52.5407, -9.60632, 91.0829, -75.4676, 35.7909
5.244, 5, 33.4768, 52.5431, -9.59812, 91.0743, -75.4934, 35.7824
5.248, 5, 33.4729, 52.5455, -9.58992, 91.0657, -75.5191, 35.7739
5.252, 5, 33.469, 52.548, -9.58171, 91.0571, -75.5449, 35.7654
5.256, 5, 33.4651, 52.5504, -9.57349, 91.0484, -75.5707, 35.7568
5.26, 5, 33.4613, 52.5528, -9.56526, 91.0398, -75.5965, 35.7483
5.264, 5, 33.4574, 52.5552, -9.55703, 91.0312, -75.6223, 35.7398
5.268, 5, 33.4535, 52.5576, -9.54878, 91.0225, -75.6481, 35.7313
5.272, 5, 33.4496, 52.56, -9.54053, 91.0139, -75.6738, 35.7228
5.276, 5, 33.4456, 52.5623, -9.53226, 91.0052, -75.6996, 35.7143
5.28, 5, 33.4417, 52.5647, -9.52399, 90.9966, -75.7254, 35.7057
5.284, 5, 33.4378, 52.5671, -9.51571, 90.9879, -75.7512, 35.6972
5.288, 5, 33.4339, 52.5695, -9.50741, 90.9792, -75.7769, 35.6887
5.292, 5, 33.43, 52.5718, -9.49911, 90.9706, -75.8027, 35.6802
5.296, 5, 33.4261, 52.5742, -9.4908, 90.9619, -75.8285, 35.6717
5.3, 5, 33.4222, 52.5765, -9.48249, 90.9532, -75.8542, 35.6632
5.304, 5, 33.4182, 52.5788, -9.47416, 90.9445, -75.88, 35.6547
5.308, 5, 33.4143, 52.5812, -9.46582, 90.9358, -75.9057, 35.6461
5.312, 5, 33.4104, 52.5835, -9.45748, 90.9271, -75.9315, 35.6376
5.316, 5, 33.4064, 52.5858, -9.44912, 90.9184, -75.9572, 35.6291
5.32, 5, 33.4025, 52.5881, -9.44076, 90.9097, -75.983, 35.6206
5.324, 5, 33.3986, 52.5904, -9.43239, 90.901, -76.0088, 35.6121
5.328, 5, 33.3946, 52.5927, -9.424, 90.8922, -76.0345, 35.6036
5.332, 5, 33.3907, 52.595, -9.41562, 90.8835, -76.0602, 35.5951
5.336, 5, 33.3867, 52.5973, -9.40722, 90.8748, -76.086, 35.5865
5.34, 5, 33.3828, 52.5995, -9.39881, 90.866, -76.1117, 35.578
5.344, 5, 33.3788, 52.6018, -9.39039, 90.8573, -76.1375, 35.5695
5.348, 5, 33.3749, 52.6041, -9.38196, 90.8485, -76.1632, 35.561
5.352, 5, 33.3709, 52.6063, -9.37353, 90.8398, -76.1889, 35.5525
5.356, 5, 33.367, 52.6086, -9.36509, 90.831, -76.2147, 35.544
5.36, 5, 33.363, 52.6108, -9.35663, 90.8222, -76.2404, 35.5355
5.364, 5, 33.359, 52.6131, -9.34817, 90.8135, -76.2661, 35.527
5.368, 5, 33.3551, 52.6153, -9.3397, 90.8047, -76.2919, 35.5184
5.372, 5, 33.3511, 52.6175, -9.33122, 90.7959, -76.3176, 35.5099
5.376, 5, 33.3471, 52.6197, -9.32273, 90.7871, -76.3433, 35.5014
5.38, 5, 33.3432, 52.6219, -9.31424, 90.7783, -76.3691, 35.4929
5.384, 5, 33.3392, 52.6241, -9.30573, 90.7695, -76.3948, 35.4844
5.388, 5, 33.3352, 52.6263, -9.29721, 90.7607, -76.4205, 35.4759
5.392, 5, 33.3312, 52.6285, -9.28869, 90.7519, -76.4462, 35.4674
5.396, 5, 33.3272, 52.6307, -9.28016, 90.7431, -76.4719, 35.4589
5.4, 5, 33.3232, 52.6329, -9.27162, 90.7343, -76.4976, 35.4503
5.404, 5, 33.3193, 52.635, -9.26307, 90.7254, -76.5233, 35.4418
5.408, 5, 33.3153, 52.6372, -9.25451, 90.7166, -76.5491, 35.4333
5.412, 5, 33.3113, 52.6394, -9.24594, 90.7078, -76.5748, 35.4248
5.416, 5, 33.3073, 52.6415, -9.23736, 90.6989, -76.6005, 35.4163
5.42, 5, 33.3033, 52.6437, -9.22877, 90.6901, -76.6262, 35.4078
5.424, 5, 33.2993, 52.6458, -9.22018, 90.6812, -76.6519, 35.3993
5.428, 5, 33.2952, 52.6479, -9.21157, 90.6724, -76.6776, 35.3907
5.432, 5, 33.2912, 52.65, -9.20296, 90.6635, -76.7033, 35.3822
5.436, 5, 33.2872, 52.6522, -9.19434, 90.6546, -76.729, 35.3737
5.44, 5, 33.2832, 52.6543, -9.18571, 90.6458, -76.7547, 35.3652
5.444, 5, 33.2792, 52.6564, -9.17707, 90.6369, -76.7803, 35.3567
5.448, 5, 33.2752, 52.6585, -9.16842, 90.628, -76.806, 35.3482
5.452, 5, 33.2712, 52.6606, -9.15977, 90.6191, -76.8317, 35.3397
5.456, 5, 33.2671, 52.6626, -9.1511, 90.6102, -76.8574, 35.3312
5.46, 5, 33.2631, 52.6647, -9.14243, 90.6013, -76.8831, 35.3226
5.464, 5, 33.2591, 52.6668, -9.13374, 90.5924, -76.9088, 35.3141
5.468, 5, 33.255, 52.6688, -9.12505, 90.5835, -76.9344, 35.3056
5.472, 5, 33.251, 52.6709, -9.11635, 90.5746, -76.9601, 35.2971
5.476, 5, 33.247, 52.673, -9.10764, 90.5656, -76.9858, 35.2886
5.48, 5, 33.2429, 52.675, -9.09892, 90.5567, -77.0115, 35.2801
5.484, 5, 33.2389, 52.677, -9.09019, 90.5478, -77.0371, 35.2715
5.488, 5, 33.2348, 52.6791, -9.08146, 90.5388, -77.0628, 35.263
5.492, 5, 33.2308, 52.6811, -9.07271, 90.5299, -77.0885, 35.2545
5.496, 5, 33.2267, 52.6831, -9.06396, 90.5209, -77.1142, 35.246
5.5, 5, 33.2227, 52.6851, -9.0552, 90.512, -77.1398, 35.2375
5.504, 5, 33.2186, 52.6871, -9.04642, 90.503, -77.1655, 35.229
5.508, 5, 33.2146, 52.6891, -9.03764, 90.4941, -77.1911, 35.2205
5.512, 5, 33.2105, 52.6911, -9.02886, 90.4851, -77.2168, 35.2119
5.516, 5, 33.2064, 52.6931, -9.02006, 90.4761, -77.2425, 35.2034
5.52, 5, 33.2024, 52.6951, -9.01125, 90.4671, -77.2681, 35.1949
5.524, 5, 33.1983, 52.697, -9.00244, 90.4582, -77.2938, 35.1864
5.528, 5, 33.1942, 52.699, -8.99361, 90.4492, -77.3194, 35.1779
5.532, 5, 33.1901, 52.7009, -8.98478, 90.4402, -77.3451, 35.1693
5.536, 5, 33.1861, 52.7029, -8.97594, 90.4312, -77.3707, 35.1608
5.54, 5, 33.182, 52.7048, -8.96709, 90.4222, -77.3963, 35.1523
5.544, 5, 33.1779, 52.7068, -8.95823, 90.4132, -77.422, 35.1438
5.548, 5, 33.1738, 52.7087, -8.94936, 90.4041, -77.4476, 35.1353
5.552, 5, 33.1697, 52.7106, -8.94049, 90.3951, -77.4733, 35.1268
5.556, 5, 33.1656, 52.7125, -8.9316, 90.3861, -77.4989, 35.1182
5.56, 5, 33.1615, 52.7144, -8.92271, 90.3771, -77.5245, 35.1097
5.564, 5, 33.1575, 52.7164, -8.9138, 90.368, -77.5502, 35.1012
5.568, 5, 33.1534, 52.7182, -8.90489, 90.359, -77.5758, 35.0927
5.572, 5, 33.1493, 52.7201, -8.89597, 90.3499, -77.6014, 35.0841
5.576, 5, 33.1451, 52.722, -8.88704, 90.3409, -77.6271, 35.0756
5.58, 5, 33.141, 52.7239, -8.87811, 90.3318, -77.6527, 35.0671
5.584, 5, 33.1369, 52.7258, -8.86916, 90.3227, -77.6783, 35.0586
5.588, 5, 33.1328, 52.7276, -8.86021, 90.3137, -77.7039, 35.0501
5.592, 5, 33.1287, 52.7295, -8.85124, 90.3046, -77.7296, 35.0415
5.596, 5, 33.1246, 52.7313, -8.84227, 90.2955, -77.7552, 35.033
5.6, 5, 33.1205, 52.7332, -8.83329, 90.2864, -77.7808, 35.0245
5.604, 5, 33.1163, 52.735, -8.8243, 90.2773, -77.8064, 35.016
5.608, 5, 33.1122, 52.7368, -8.8153, 90.2682, -77.832, 35.0074
5.612, 5, 33.1081, 52.7387, -8.80629, 90.2591, -77.8576, 34.9989
5.616, 5, 33.104, 52.7405, -8.79728, 90.25, -77.8832, 34.9904
5.62, 5, 33.0998, 52.7423, -8.78825, 90.2409, -77.9088, 34.9819
5.624, 5, 33.0957, 52.7441, -8.77922, 90.2318, -77.9344, 34.9733
5.628, 5, 33.0916, 52.7459, -8.77018, 90.2227, -77.96, 34.9648
5.632, 5, 33.0874, 52.7477, -8.76113, 90.2136, -77.9856, 34.9563
5.636, 5, 33.0833, 52.7495, -8.75207, 90.2044, -78.0112, 34.9477
5.64, 5, 33.0791, 52.7512, -8.743, 90.1953, -78.0368, 34.9392
5.644, 5, 33.075, 52.753, -8.73393, 90.1862, -78.0624, 34.9307
5.648, 5, 33.0708, 52.7548, -8.72484, 90.177, -78.088, 34.9222
5.652, 5, 33.0667, 52.7565, -8.71575, 90.1679, -78.1136, 34.9136
5.656, 5, 33.0625, 52.7583, -8.70665, 90.1587, -78.1392, 34.9051
5.66, 5, 33.0584, 52.76, -8.69754, 90.1495, -78.1648, 34.8966
5.664, 5, 33.0542, 52.7618, -8.68842, 90.1404, -78.1904, 34.888
5.668, 5, 33.05, 52.7635, -8.67929, 90.1312, -78.216, 34.8795
5.672, 5, 33.0459, 52.7652, -8.67015, 90.122, -78.2415, 34.871
5.676, 5, 33.0417, 52.7669, -8.66101, 90.1128, -78.2671, 34.8624
5.68, 5, 33.0375, 52.7686, -8.65186, 90.1037, -78.2927, 34.8539
5.684, 5, 33.0334, 52.7703, -8.64269, 90.0945, -78.3183, 34.8454
5.688, 5, 33.0292, 52.772, -8.63352, 90.0853, -78.3438, 34.8368
5.692, 5, 33.025, 52.7737, -8.62434, 90.0761, -78.3694, 34.8283
5.696, 5, 33.0208, 52.7754, -8.61515, 90.0669, -78.395, 34.8198
5.7, 5, 33.0167, 52.7771, -8.60596, 90.0576, -78.4206, 34.8112
5.704, 5, 33.0125, 52.7787, -8.59676, 90.0484, -78.4461, 34.8027
5.708, 5, 33.0085, 52.7803, -8.58755, 90.0392, -78.4717, 34.7942
5.712, 5, 33.0047, 52.7819, -8.57835, 90.03, -78.4972, 34.7856
5.716, 5, 33.0012, 52.7832, -8.56917, 90.0208, -78.5226, 34.7771
5.72, 5, 32.998, 52.7845, -8.56003, 90.0117, -78.5479, 34.7687
5.724, 5, 32.9952, 52.7855, -8.551, 90.0026, -78.573, 34.7603
5.728, 5, 32.9927, 52.7864, -8.54211, 89.9937, -78.5976, 34.7521
5.732, 5, 32.9904, 52.7871, -8.53344, 89.985, -78.6215, 34.7441
5.736, 5, 32.9883, 52.7877, -8.52507, 89.9766, -78.6447, 34.7363
5.74, 5, 32.9862, 52.7882, -8.51708, 89.9686, -78.6668, 34.7289
5.744, 5, 32.9841, 52.7888, -8.50956, 89.9611, -78.6875, 34.722
5.748, 5, 32.982, 52.7894, -8.50258, 89.9541, -78.7068, 34.7155
5.752, 5, 32.9798, 52.79, -8.49621, 89.9477, -78.7243, 34.7097
