hehonglu123/ABB_Primitive_Study/execution/movec_smooth/curve_exe_v300_z10.csv
timestamp, cmd_num, J1, J2, J3, J4, J5, J6
0, -1, -17.7491, 35.9016, 27.5363, -15.3564, -94.4966, 7.85923
0.002, -1, -17.7491, 35.9016, 27.5363, -15.3564, -94.4966, 7.85923
0.004, -1, -17.7491, 35.9016, 27.5363, -15.3564, -94.4966, 7.85923
0.008, -1, -17.7491, 35.9016, 27.5363, -15.3564, -94.4966, 7.85923
0.011, -1, -17.7491, 35.9016, 27.5363, -15.3564, -94.4966, 7.85923
0.016, -1, -17.7491, 35.9016, 27.5363, -15.3564, -94.4966, 7.85923
0.02, -1, -17.7491, 35.9016, 27.5363, -15.3564, -94.4966, 7.85923
0.024, -1, -17.7491, 35.9016, 27.5363, -15.3564, -94.4966, 7.85923
0.028, -1, -17.7491, 35.9016, 27.5363, -15.3564, -94.4966, 7.85923
0.032, -1, -17.7491, 35.9016, 27.5363, -15.3564, -94.4966, 7.85923
0.036, -1, -17.749, 35.9016, 27.5363, -15.3564, -94.4966, 7.85923
0.04, -1, -17.7488, 35.9015, 27.5363, -15.3564, -94.4966, 7.85922
0.044, -1, -17.7482, 35.9013, 27.5363, -15.3564, -94.4966, 7.85921
0.048, -1, -17.7471, 35.9008, 27.5364, -15.3563, -94.4965, 7.85915
0.052, -1, -17.7453, 35.9, 27.5365, -15.3562, -94.4963, 7.85903
0.056, -1, -17.7428, 35.8988, 27.5367, -15.3558, -94.4958, 7.85875
0.06, -1, -17.7394, 35.8971, 27.5369, -15.3551, -94.4949, 7.85824
0.064, -1, -17.7351, 35.8948, 27.5372, -15.3539, -94.4934, 7.85735
0.068, -1, -17.7298, 35.892, 27.5374, -15.3519, -94.491, 7.85592
0.072, -1, -17.7233, 35.8884, 27.5377, -15.3489, -94.4872, 7.85373
0.076, -1, -17.7153, 35.884, 27.5379, -15.3445, -94.4817, 7.85055
0.08, -1, -17.7057, 35.8785, 27.5381, -15.3382, -94.474, 7.84608
0.084, -1, -17.6941, 35.8719, 27.5381, -15.3297, -94.4634, 7.83999
0.088, -1, -17.6802, 35.864, 27.538, -15.3184, -94.4494, 7.83193
0.092, -1, -17.6638, 35.8547, 27.5377, -15.3037, -94.4314, 7.82151
0.096, -1, -17.6449, 35.8439, 27.537, -15.2851, -94.4084, 7.80831
0.1, -1, -17.6232, 35.8316, 27.5359, -15.262, -94.3799, 7.79193
0.104, -1, -17.5984, 35.8175, 27.5344, -15.2337, -94.3452, 7.77197
0.108, -1, -17.5704, 35.8016, 27.5323, -15.1999, -94.3035, 7.74804
0.112, -1, -17.5389, 35.7838, 27.5296, -15.1599, -94.2544, 7.71981
0.116, -1, -17.504, 35.764, 27.5263, -15.1134, -94.1971, 7.68696
0.12, -1, -17.4656, 35.7423, 27.5223, -15.0599, -94.1314, 7.64925
0.124, -1, -17.4237, 35.7186, 27.5174, -14.9992, -94.0569, 7.60649
0.128, -1, -17.3785, 35.6931, 27.5118, -14.9313, -93.9734, 7.5586
0.131, -1, -17.3299, 35.6657, 27.5054, -14.856, -93.8809, 7.50556
0.136, -1, -17.2779, 35.6365, 27.4982, -14.7734, -93.7795, 7.44747
0.139, -1, -17.2225, 35.6054, 27.4903, -14.684, -93.6697, 7.38449
0.144, -1, -17.1638, 35.5724, 27.4817, -14.588, -93.5517, 7.3169
0.148, -1, -17.1017, 35.5375, 27.4724, -14.4858, -93.4263, 7.245
0.152, -1, -17.0365, 35.5009, 27.4626, -14.378, -93.2939, 7.16916
0.156, -1, -16.9683, 35.4626, 27.4524, -14.2653, -93.1554, 7.08978
0.16, -1, -16.8974, 35.4228, 27.4417, -14.1481, -93.0115, 7.0073
0.164, -1, -16.8239, 35.3815, 27.4308, -14.027, -92.8629, 6.92213
0.168, -1, -16.7481, 35.3389, 27.4196, -13.9028, -92.7103, 6.8347
0.172, -1, -16.6699, 35.2949, 27.4082, -13.776, -92.5546, 6.74543
0.176, -1, -16.5897, 35.2497, 27.3968, -13.6471, -92.3962, 6.65467
0.18, -1, -16.5077, 35.2034, 27.3854, -13.5166, -92.2358, 6.56273
0.184, -1, -16.424, 35.1561, 27.3739, -13.3847, -92.0739, 6.46989
0.188, -1, -16.3388, 35.1081, 27.3625, -13.2519, -91.9107, 6.37635
0.192, -1, -16.2526, 35.0593, 27.3511, -13.1184, -91.7466, 6.28227
0.196, -1, -16.1654, 35.0101, 27.3397, -12.9842, -91.5818, 6.18779
0.2, -1, -16.0774, 34.9604, 27.3284, -12.8497, -91.4165, 6.09298
0.204, -1, -15.9889, 34.9105, 27.317, -12.7147, -91.2507, 5.99793
0.208, -1, -15.8998, 34.8603, 27.3056, -12.5795, -91.0846, 5.90267
0.212, -1, -15.8104, 34.8099, 27.2943, -12.4441, -90.9181, 5.80723
0.216, -1, -15.7206, 34.7594, 27.2829, -12.3084, -90.7514, 5.71165
0.22, -1, -15.6306, 34.7087, 27.2715, -12.1726, -90.5845, 5.61595
0.224, -1, -15.5405, 34.658, 27.2601, -12.0366, -90.4174, 5.52012
0.228, -1, -15.4502, 34.6071, 27.2487, -11.9004, -90.2501, 5.42418
0.232, -1, -15.3598, 34.5563, 27.2373, -11.7641, -90.0826, 5.32814
0.236, -1, -15.2692, 34.5053, 27.2259, -11.6277, -89.9149, 5.23201
0.24, -1, -15.1786, 34.4543, 27.2145, -11.4911, -89.7471, 5.13578
0.244, -1, -15.0879, 34.4033, 27.2031, -11.3544, -89.5792, 5.03946
0.248, -1, -14.997, 34.3521, 27.1916, -11.2176, -89.411, 4.94306
0.252, -1, -14.9061, 34.301, 27.1802, -11.0806, -89.2428, 4.84657
0.256, -1, -14.8152, 34.2498, 27.1687, -10.9436, -89.0744, 4.75
0.26, -1, -14.7241, 34.1986, 27.1573, -10.8064, -88.9058, 4.65336
0.264, -1, -14.633, 34.1473, 27.1458, -10.6691, -88.7371, 4.55664
0.268, -1, -14.5418, 34.096, 27.1343, -10.5318, -88.5683, 4.45985
0.272, -1, -14.4505, 34.0446, 27.1228, -10.3943, -88.3994, 4.36298
0.276, -1, -14.3592, 33.9932, 27.1113, -10.2567, -88.2304, 4.26605
0.28, -1, -14.2678, 33.9418, 27.0998, -10.119, -88.0612, 4.16905
0.284, -1, -14.1763, 33.8904, 27.0883, -9.98128, -87.8919, 4.07199
0.288, -1, -14.0848, 33.8389, 27.0768, -9.84344, -87.7226, 3.97487
0.292, -1, -13.9933, 33.7873, 27.0652, -9.70552, -87.5531, 3.8777
0.296, -1, -13.9017, 33.7358, 27.0537, -9.56751, -87.3835, 3.78046
0.3, -1, -13.81, 33.6842, 27.0422, -9.42944, -87.2139, 3.68317
0.304, -1, -13.7183, 33.6326, 27.0306, -9.29129, -87.0441, 3.58584
0.308, -1, -13.6265, 33.581, 27.0191, -9.15307, -86.8743, 3.48845
0.312, -1, -13.5347, 33.5293, 27.0075, -9.01478, -86.7043, 3.39102
0.316, -1, -13.4429, 33.4776, 26.9959, -8.87644, -86.5343, 3.29354
0.32, -1, -13.351, 33.4259, 26.9844, -8.73803, -86.3643, 3.19602
0.324, -1, -13.2591, 33.3742, 26.9728, -8.59957, -86.1941, 3.09847
0.328, -1, -13.1672, 33.3225, 26.9612, -8.46107, -86.0239, 3.00088
0.332, -1, -13.0752, 33.2707, 26.9496, -8.32251, -85.8537, 2.90325
0.336, -1, -12.9832, 33.219, 26.938, -8.18391, -85.6834, 2.8056
0.34, -1, -12.8912, 33.1672, 26.9264, -8.04527, -85.513, 2.70792
0.344, -1, -12.7991, 33.1154, 26.9148, -7.9066, -85.3426, 2.61021
0.348, -1, -12.7071, 33.0636, 26.9032, -7.7679, -85.1722, 2.51248
0.352, -1, -12.615, 33.0118, 26.8916, -7.62917, -85.0017, 2.41474
0.356, -1, -12.5229, 32.9599, 26.88, -7.49042, -84.8312, 2.31698
0.36, -1, -12.4308, 32.9081, 26.8684, -7.35165, -84.6607, 2.2192
0.364, -1, -12.3387, 32.8563, 26.8568, -7.21286, -84.4902, 2.12142
0.368, -1, -12.2466, 32.8044, 26.8452, -7.07407, -84.3197, 2.02362
0.372, -1, -12.1545, 32.7526, 26.8336, -6.93527, -84.1491, 1.92583
0.376, -1, -12.0623, 32.7007, 26.822, -6.79647, -83.9786, 1.82803
0.38, -1, -11.9702, 32.6489, 26.8104, -6.65767, -83.808, 1.73024
0.384, -1, -11.8781, 32.5971, 26.7988, -6.51889, -83.6375, 1.63245
0.388, -1, -11.786, 32.5452, 26.7872, -6.38011, -83.4669, 1.53467
0.392, -1, -11.6939, 32.4934, 26.7756, -6.24135, -83.2964, 1.4369
0.396, -1, -11.6018, 32.4416, 26.764, -6.10261, -83.126, 1.33915
0.4, -1, -11.5097, 32.3898, 26.7524, -5.96389, -82.9555, 1.24141
0.404, -1, -11.4177, 32.338, 26.7408, -5.8252, -82.7851, 1.14369
0.408, -1, -11.3256, 32.2862, 26.7292, -5.68655, -82.6147, 1.046
0.412, -1, -11.2336, 32.2344, 26.7176, -5.54793, -82.4444, 0.948334
0.416, -1, -11.1416, 32.1826, 26.706, -5.40936, -82.2741, 0.850697
0.42, -1, -11.0497, 32.1309, 26.6945, -5.27083, -82.1039, 0.753093
0.424, -1, -10.9577, 32.0792, 26.6829, -5.13235, -81.9337, 0.655523
0.428, -1, -10.8658, 32.0275, 26.6713, -4.99393, -81.7636, 0.557993
0.432, -1, -10.774, 31.9758, 26.6597, -4.85556, -81.5936, 0.460503
0.436, -1, -10.6822, 31.9241, 26.6482, -4.71726, -81.4237, 0.363058
0.44, -1, -10.5904, 31.8725, 26.6366, -4.57903, -81.2538, 0.26566
0.444, -1, -10.4986, 31.8209, 26.625, -4.44086, -81.0841, 0.168312
0.448, -1, -10.4069, 31.7693, 26.6135, -4.30277, -80.9144, 0.0710176
0.452, -1, -10.3153, 31.7178, 26.602, -4.16477, -80.7448, -0.0262211
0.456, -1, -10.2237, 31.6662, 26.5904, -4.02684, -80.5753, -0.123401
0.46, -1, -10.1322, 31.6148, 26.5789, -3.889, -80.406, -0.220519
0.464, -1, -10.0407, 31.5633, 26.5674, -3.75126, -80.2367, -0.317573
0.468, -1, -9.9493, 31.5119, 26.5559, -3.61361, -80.0676, -0.41456
0.472, -1, -9.85796, 31.4605, 26.5444, -3.47605, -79.8985, -0.511477
0.476, -1, -9.76668, 31.4092, 26.5329, -3.3386, -79.7296, -0.60832
0.48, -1, -9.67548, 31.3579, 26.5214, -3.20126, -79.5609, -0.705089
0.484, -1, -9.58434, 31.3066, 26.5099, -3.06403, -79.3923, -0.801779
0.488, -1, -9.49329, 31.2554, 26.4984, -2.92692, -79.2238, -0.898388
0.492, -1, -9.4023, 31.2042, 26.487, -2.78992, -79.0554, -0.994913
0.496, -1, -9.31141, 31.1531, 26.4755, -2.65305, -78.8872, -1.09135
0.5, -1, -9.22059, 31.102, 26.4641, -2.5163, -78.7192, -1.1877
0.504, -1, -9.12986, 31.051, 26.4527, -2.37968, -78.5513, -1.28396
0.508, -1, -9.03921, 31, 26.4413, -2.2432, -78.3836, -1.38013
0.512, -1, -8.94865, 30.9491, 26.4299, -2.10685, -78.2161, -1.47619
0.516, -1, -8.85819, 30.8982, 26.4185, -1.97064, -78.0487, -1.57216
0.52, -1, -8.76782, 30.8474, 26.4071, -1.83458, -77.8815, -1.66803
0.524, -1, -8.67755, 30.7966, 26.3957, -1.69867, -77.7145, -1.7638
0.528, -1, -8.58737, 30.7459, 26.3844, -1.5629, -77.5477, -1.85945
0.532, -1, -8.4973, 30.6952, 26.373, -1.42729, -77.3811, -1.955
0.536, -1, -8.40733, 30.6446, 26.3617, -1.29183, -77.2146, -2.05044
0.54, -1, -8.31746, 30.5941, 26.3504, -1.15654, -77.0484, -2.14577
0.544, -1, -8.22771, 30.5436, 26.3391, -1.02141, -76.8823, -2.24098
0.548, -1, -8.13806, 30.4932, 26.3278, -0.886442, -76.7165, -2.33608
0.552, -1, -8.04852, 30.4428, 26.3165, -0.751646, -76.5509, -2.43105
0.556, -1, -7.9591, 30.3925, 26.3053, -0.617022, -76.3854, -2.5259
0.56, -1, -7.86979, 30.3423, 26.294, -0.482572, -76.2202, -2.62064
0.564, -1, -7.7806, 30.2921, 26.2828, -0.348301, -76.0552, -2.71524
0.568, -1, -7.69153, 30.2421, 26.2716, -0.21421, -75.8905, -2.80972
0.572, -1, -7.60258, 30.192, 26.2604, -0.0803022, -75.7259, -2.90407
0.576, -1, -7.51375, 30.1421, 26.2492, 0.0534192, -75.5616, -2.99829
0.58, -1, -7.42505, 30.0922, 26.2381, 0.186952, -75.3975, -3.09237
0.584, -1, -7.33647, 30.0424, 26.2269, 0.320293, -75.2337, -3.18632
0.588, -1, -7.24802, 29.9926, 26.2158, 0.45344, -75.0701, -3.28014
0.592, -1, -7.1597, 29.943, 26.2047, 0.58639, -74.9067, -3.37381
0.596, -1, -7.07152, 29.8934, 26.1936, 0.719142, -74.7436, -3.46735
0.6, -1, -6.98346, 29.8438, 26.1825, 0.851691, -74.5807, -3.56074
0.604, -1, -6.89554, 29.7944, 26.1714, 0.984037, -74.4181, -3.65399
0.608, -1, -6.80776, 29.745, 26.1604, 1.11618, -74.2557, -3.74709
0.612, -1, -6.72011, 29.6957, 26.1493, 1.24811, -74.0936, -3.84005
0.616, -1, -6.63261, 29.6465, 26.1383, 1.37983, -73.9318, -3.93285
0.62, -1, -6.54524, 29.5974, 26.1273, 1.51133, -73.7702, -4.02551
0.624, -1, -6.45802, 29.5484, 26.1163, 1.64262, -73.6089, -4.11802
0.628, -1, -6.37094, 29.4994, 26.1054, 1.7737, -73.4478, -4.21037
0.632, -1, -6.28401, 29.4505, 26.0944, 1.90455, -73.287, -4.30257
0.636, -1, -6.19722, 29.4017, 26.0835, 2.03518, -73.1265, -4.39461
0.64, -1, -6.11058, 29.353, 26.0726, 2.16559, -72.9663, -4.48649
0.644, -1, -6.02409, 29.3043, 26.0617, 2.29577, -72.8063, -4.57822
0.648, -1, -5.93775, 29.2558, 26.0509, 2.42572, -72.6466, -4.66978
0.652, -1, -5.85156, 29.2073, 26.04, 2.55545, -72.4872, -4.76118
0.656, -1, -5.76553, 29.1589, 26.0292, 2.68494, -72.3281, -4.85242
0.66, -1, -5.67965, 29.1106, 26.0184, 2.8142, -72.1693, -4.94349
0.664, -1, -5.59392, 29.0624, 26.0076, 2.94322, -72.0107, -5.0344
0.668, -1, -5.50836, 29.0143, 25.9968, 3.07201, -71.8525, -5.12514
0.672, -1, -5.42294, 28.9663, 25.9861, 3.20056, -71.6945, -5.21572
0.676, -1, -5.33769, 28.9183, 25.9753, 3.32887, -71.5368, -5.30612
0.68, -1, -5.2526, 28.8705, 25.9646, 3.45693, -71.3795, -5.39636
0.684, -1, -5.16767, 28.8227, 25.954, 3.58476, -71.2224, -5.48642
0.688, -1, -5.0829, 28.7751, 25.9433, 3.71233, -71.0657, -5.57631
0.692, -1, -4.9983, 28.7275, 25.9326, 3.83967, -70.9092, -5.66602
0.696, -1, -4.91386, 28.68, 25.922, 3.96675, -70.753, -5.75557
0.7, -1, -4.82958, 28.6326, 25.9114, 4.09359, -70.5972, -5.84493
0.704, -1, -4.74547, 28.5853, 25.9008, 4.22017, -70.4416, -5.93412
0.708, -1, -4.66153, 28.5381, 25.8903, 4.3465, -70.2864, -6.02313
0.712, -1, -4.57775, 28.491, 25.8797, 4.47258, -70.1315, -6.11197
0.716, -1, -4.49414, 28.444, 25.8692, 4.59841, -69.9769, -6.20062
0.72, -1, -4.4107, 28.3971, 25.8587, 4.72398, -69.8226, -6.2891
0.724, -1, -4.32743, 28.3502, 25.8482, 4.84929, -69.6686, -6.37739
0.728, -1, -4.24433, 28.3035, 25.8378, 4.97435, -69.5149, -6.4655
0.732, -1, -4.1614, 28.2569, 25.8273, 5.09914, -69.3616, -6.55343
0.736, -1, -4.07864, 28.2104, 25.8169, 5.22368, -69.2086, -6.64118
0.74, -1, -3.99605, 28.1639, 25.8065, 5.34796, -69.0559, -6.72874
0.744, -1, -3.91363, 28.1176, 25.7962, 5.47197, -68.9035, -6.81612
0.748, -1, -3.83139, 28.0713, 25.7858, 5.59573, -68.7514, -6.90332
0.752, -1, -3.74932, 28.0252, 25.7755, 5.71922, -68.5997, -6.99033
0.756, -1, -3.66742, 27.9791, 25.7652, 5.84245, -68.4482, -7.07716
0.76, -1, -3.58569, 27.9332, 25.7549, 5.96542, -68.2971, -7.1638
0.764, -1, -3.50414, 27.8873, 25.7447, 6.08812, -68.1464, -7.25026
0.768, -1, -3.42277, 27.8416, 25.7344, 6.21056, -67.9959, -7.33653
0.772, -1, -3.34156, 27.7959, 25.7242, 6.33274, -67.8458, -7.42261
0.776, -1, -3.26053, 27.7503, 25.714, 6.45465, -67.696, -7.50851
0.78, -1, -3.17968, 27.7049, 25.7038, 6.57631, -67.5465, -7.59423
0.784, -1, -3.099, 27.6595, 25.6937, 6.69769, -67.3973, -7.67975
0.788, -1, -3.0185, 27.6143, 25.6836, 6.81882, -67.2485, -7.7651
0.792, -1, -2.93816, 27.5691, 25.6735, 6.93968, -67.1, -7.85026
0.796, -1, -2.85801, 27.524, 25.6634, 7.06028, -66.9518, -7.93523
0.8, -1, -2.77803, 27.479, 25.6533, 7.18061, -66.8039, -8.02001
0.804, -1, -2.69822, 27.4342, 25.6433, 7.30068, -66.6564, -8.10461
0.808, -1, -2.61859, 27.3894, 25.6333, 7.42049, -66.5092, -8.18903
0.812, -1, -2.53913, 27.3447, 25.6233, 7.54004, -66.3623, -8.27326
0.816, -1, -2.45984, 27.3001, 25.6133, 7.65932, -66.2157, -8.35731
0.82, -1, -2.38073, 27.2557, 25.6034, 7.77834, -66.0695, -8.44117
0.824, -1, -2.3018, 27.2113, 25.5934, 7.8971, -65.9235, -8.52484
0.828, -1, -2.22303, 27.167, 25.5835, 8.0156, -65.7779, -8.60833
0.832, -1, -2.14444, 27.1228, 25.5736, 8.13383, -65.6327, -8.69164
0.836, -1, -2.06603, 27.0787, 25.5638, 8.25181, -65.4877, -8.77477
0.84, -1, -1.98779, 27.0347, 25.5539, 8.36952, -65.343, -8.8577
0.844, -1, -1.90972, 26.9908, 25.5441, 8.48697, -65.1987, -8.94046
0.848, -1, -1.83182, 26.947, 25.5343, 8.60416, -65.0547, -9.02303
0.852, -1, -1.7541, 26.9033, 25.5246, 8.7211, -64.911, -9.10542
0.856, -1, -1.67655, 26.8597, 25.5148, 8.83777, -64.7677, -9.18763
0.86, -1, -1.59917, 26.8162, 25.5051, 8.95418, -64.6246, -9.26965
0.864, -1, -1.52196, 26.7728, 25.4954, 9.07033, -64.4819, -9.35149
0.868, -1, -1.44493, 26.7295, 25.4857, 9.18623, -64.3395, -9.43315
0.872, -1, -1.36806, 26.6863, 25.476, 9.30186, -64.1974, -9.51462
0.876, -1, -1.29137, 26.6432, 25.4664, 9.41724, -64.0556, -9.59592
0.88, -1, -1.21485, 26.6001, 25.4567, 9.53236, -63.9142, -9.67703
0.884, -1, -1.1385, 26.5572, 25.4471, 9.64723, -63.773, -9.75796
0.888, -1, -1.06232, 26.5144, 25.4376, 9.76183, -63.6322, -9.83871
0.892, -1, -0.986311, 26.4716, 25.428, 9.87618, -63.4917, -9.91928
0.896, -1, -0.910471, 26.429, 25.4185, 9.99028, -63.3515, -9.99967
0.9, -1, -0.8348, 26.3864, 25.409, 10.1041, -63.2116, -10.0799
0.904, -1, -0.759299, 26.344, 25.3995, 10.2177, -63.0721, -10.1599
0.908, -1, -0.683967, 26.3016, 25.39, 10.331, -62.9328, -10.2398
0.912, -1, -0.608804, 26.2594, 25.3805, 10.4441, -62.7939, -10.3194
0.916, -1, -0.533808, 26.2172, 25.3711, 10.5569, -62.6552, -10.3989
0.92, -1, -0.458981, 26.1751, 25.3617, 10.6695, -62.5169, -10.4782
0.924, -1, -0.384322, 26.1332, 25.3523, 10.7818, -62.3789, -10.5574
0.928, -1, -0.30983, 26.0913, 25.3429, 10.8939, -62.2412, -10.6363
0.932, -1, -0.235505, 26.0495, 25.3336, 11.0057, -62.1038, -10.7151
0.936, -1, -0.161347, 26.0078, 25.3243, 11.1173, -61.9667, -10.7937
0.94, -1, -0.0873549, 25.9662, 25.315, 11.2286, -61.8299, -10.8722
0.944, -1, -0.013529, 25.9247, 25.3057, 11.3396, -61.6935, -10.9504
0.948, -1, 0.0601312, 25.8833, 25.2964, 11.4504, -61.5573, -11.0285
0.952, -1, 0.133626, 25.8419, 25.2872, 11.561, -61.4215, -11.1064
0.956, -1, 0.206956, 25.8007, 25.278, 11.6713, -61.2859, -11.1841
0.96, -1, 0.280122, 25.7596, 25.2688, 11.7814, -61.1507, -11.2617
0.964, -1, 0.353123, 25.7185, 25.2596, 11.8912, -61.0157, -11.339
0.968, -1, 0.42596, 25.6776, 25.2504, 12.0008, -60.8811, -11.4162
0.972, -1, 0.498634, 25.6367, 25.2413, 12.1101, -60.7467, -11.4933
0.976, -1, 0.571145, 25.5959, 25.2322, 12.2192, -60.6127, -11.5701
0.98, -1, 0.643494, 25.5553, 25.2231, 12.328, -60.479, -11.6468
0.984, -1, 0.71568, 25.5147, 25.214, 12.4366, -60.3455, -11.7233
0.988, -1, 0.787704, 25.4742, 25.2049, 12.545, -60.2124, -11.7997
0.992, -1, 0.859567, 25.4338, 25.1959, 12.6531, -60.0796, -11.8758
0.996, -1, 0.931268, 25.3935, 25.1869, 12.7609, -59.947, -11.9518
1, -1, 1.00281, 25.3532, 25.1779, 12.8686, -59.8148, -12.0277
1.004, -1, 1.07419, 25.3131, 25.1689, 12.9759, -59.6828, -12.1033
1.008, -1, 1.14541, 25.2731, 25.16, 13.0831, -59.5512, -12.1788
1.012, -1, 1.21647, 25.2331, 25.151, 13.19, -59.4198, -12.2541
1.016, -1, 1.28738, 25.1932, 25.1421, 13.2966, -59.2888, -12.3293
1.02, -1, 1.35813, 25.1535, 25.1332, 13.4031, -59.158, -12.4043
1.024, -1, 1.42871, 25.1138, 25.1243, 13.5092, -59.0275, -12.4791
1.027, -1, 1.49915, 25.0742, 25.1155, 13.6152, -58.8973, -12.5537
1.032, -1, 1.56942, 25.0347, 25.1067, 13.7209, -58.7674, -12.6282
1.036, -1, 1.63954, 24.9952, 25.0978, 13.8264, -58.6378, -12.7025
1.04, -1, 1.70951, 24.9559, 25.089, 13.9316, -58.5085, -12.7767
1.044, -1, 1.77932, 24.9167, 25.0803, 14.0366, -58.3795, -12.8507
1.048, -1, 1.84898, 24.8775, 25.0715, 14.1414, -58.2507, -12.9245
1.052, -1, 1.91848, 24.8384, 25.0628, 14.246, -58.1223, -12.9982
1.055, -1, 1.98783, 24.7994, 25.0541, 14.3503, -57.9941, -13.0717
1.06, -1, 2.05703, 24.7605, 25.0454, 14.4544, -57.8662, -13.145
1.064, -1, 2.12608, 24.7217, 25.0367, 14.5582, -57.7386, -13.2182
1.068, -1, 2.19497, 24.683, 25.028, 14.6618, -57.6112, -13.2912
1.072, -1, 2.26372, 24.6443, 25.0194, 14.7652, -57.4842, -13.3641
1.076, -1, 2.33231, 24.6057, 25.0107, 14.8684, -57.3574, -13.4368
1.08, -1, 2.40076, 24.5673, 25.0021, 14.9714, -57.2309, -13.5093
1.084, -1, 2.46906, 24.5289, 24.9936, 15.0741, -57.1047, -13.5817
1.088, -1, 2.53721, 24.4905, 24.985, 15.1766, -56.9787, -13.6539
1.091, -1, 2.60521, 24.4523, 24.9764, 15.2789, -56.853, -13.726
1.096, -1, 2.67306, 24.4142, 24.9679, 15.381, -56.7276, -13.7979
1.1, -1, 2.74078, 24.3761, 24.9594, 15.4828, -56.6024, -13.8697
1.104, -1, 2.80834, 24.3381, 24.9509, 15.5845, -56.4776, -13.9413
1.108, -1, 2.87576, 24.3002, 24.9424, 15.6859, -56.353, -14.0127
1.112, -1, 2.94304, 24.2624, 24.934, 15.7871, -56.2286, -14.084
1.116, -1, 3.01017, 24.2246, 24.9255, 15.888, -56.1045, -14.1552
1.119, -1, 3.07716, 24.187, 24.9171, 15.9888, -55.9807, -14.2262
1.124, -1, 3.14401, 24.1494, 24.9087, 16.0894, -55.8572, -14.297
1.128, -1, 3.21072, 24.1119, 24.9003, 16.1897, -55.7339, -14.3677
1.132, -1, 3.27729, 24.0744, 24.892, 16.2898, -55.6108, -14.4383
1.136, -1, 3.34372, 24.0371, 24.8836, 16.3898, -55.488, -14.5087
1.14, -1, 3.41001, 23.9998, 24.8753, 16.4895, -55.3655, -14.5789
1.144, -1, 3.47616, 23.9626, 24.867, 16.589, -55.2433, -14.649
1.147, -1, 3.54217, 23.9255, 24.8587, 16.6883, -55.1212, -14.719
1.152, -1, 3.60804, 23.8885, 24.8504, 16.7873, -54.9995, -14.7888
1.156, -1, 3.67378, 23.8515, 24.8421, 16.8862, -54.878, -14.8585
1.16, -1, 3.73938, 23.8146, 24.8339, 16.9849, -54.7567, -14.928
1.164, -1, 3.80485, 23.7778, 24.8256, 17.0834, -54.6357, -14.9974
1.168, -1, 3.87018, 23.7411, 24.8174, 17.1816, -54.515, -15.0666
1.172, -1, 3.93537, 23.7045, 24.8092, 17.2797, -54.3945, -15.1357
1.175, -1, 4.00044, 23.6679, 24.8011, 17.3776, -54.2742, -15.2047
1.18, -1, 4.06536, 23.6314, 24.7929, 17.4752, -54.1542, -15.2735
1.184, -1, 4.13016, 23.5949, 24.7847, 17.5727, -54.0345, -15.3422
1.188, -1, 4.19482, 23.5586, 24.7766, 17.67, -53.9149, -15.4107
1.192, -1, 4.25936, 23.5223, 24.7685, 17.767, -53.7957, -15.4791
1.196, -1, 4.32376, 23.4861, 24.7604, 17.8639, -53.6766, -15.5474
1.2, -1, 4.38803, 23.45, 24.7523, 17.9606, -53.5578, -15.6155
1.204, -1, 4.45217, 23.4139, 24.7443, 18.0571, -53.4393, -15.6835
1.208, -1, 4.51618, 23.3779, 24.7362, 18.1534, -53.321, -15.7513
1.212, -1, 4.58006, 23.342, 24.7282, 18.2495, -53.2029, -15.819
1.216, -1, 4.64382, 23.3061, 24.7202, 18.3454, -53.0851, -15.8866
1.22, -1, 4.70745, 23.2704, 24.7122, 18.4411, -52.9675, -15.954
1.224, -1, 4.77095, 23.2347, 24.7042, 18.5366, -52.8501, -16.0213
1.228, -1, 4.83432, 23.199, 24.6962, 18.6319, -52.733, -16.0885
1.232, -1, 4.89757, 23.1635, 24.6883, 18.727, -52.6161, -16.1555
1.236, -1, 4.96069, 23.128, 24.6803, 18.822, -52.4994, -16.2224
1.24, -1, 5.02369, 23.0926, 24.6724, 18.9168, -52.3829, -16.2892
1.244, -1, 5.08656, 23.0572, 24.6645, 19.0113, -52.2667, -16.3558
1.248, -1, 5.14931, 23.0219, 24.6566, 19.1057, -52.1508, -16.4223
1.252, -1, 5.21193, 22.9867, 24.6488, 19.1999, -52.035, -16.4887
1.256, -1, 5.27444, 22.9516, 24.6409, 19.2939, -51.9195, -16.5549
1.26, -1, 5.33682, 22.9165, 24.6331, 19.3878, -51.8042, -16.621
1.264, -1, 5.39908, 22.8815, 24.6252, 19.4814, -51.6891, -16.687
1.267, -1, 5.46121, 22.8466, 24.6174, 19.5749, -51.5742, -16.7529
1.272, -1, 5.52323, 22.8117, 24.6096, 19.6682, -51.4596, -16.8186
1.276, -1, 5.58513, 22.7769, 24.6018, 19.7613, -51.3452, -16.8842
1.28, -1, 5.6469, 22.7422, 24.5941, 19.8542, -51.231, -16.9497
1.284, -1, 5.70856, 22.7075, 24.5863, 19.947, -51.1171, -17.015
1.288, -1, 5.7701, 22.6729, 24.5786, 20.0395, -51.0033, -17.0803
1.292, -1, 5.83152, 22.6384, 24.5709, 20.1319, -50.8898, -17.1454
1.295, -1, 5.89282, 22.6039, 24.5632, 20.2241, -50.7765, -17.2103
1.3, -1, 5.95401, 22.5695, 24.5555, 20.3162, -50.6634, -17.2752
1.304, -1, 6.01508, 22.5352, 24.5478, 20.408, -50.5505, -17.3399
1.308, -1, 6.07603, 22.5009, 24.5401, 20.4997, -50.4379, -17.4045
1.312, -1, 6.13687, 22.4667, 24.5325, 20.5912, -50.3254, -17.469
1.316, -1, 6.19759, 22.4326, 24.5249, 20.6826, -50.2132, -17.5333
1.32, -1, 6.25819, 22.3985, 24.5172, 20.7737, -50.1012, -17.5976
1.324, -1, 6.31869, 22.3645, 24.5096, 20.8647, -49.9894, -17.6617
1.328, -1, 6.37907, 22.3305, 24.502, 20.9555, -49.8778, -17.7257
1.332, -1, 6.43933, 22.2966, 24.4945, 21.0462, -49.7664, -17.7895
1.336, -1, 6.49948, 22.2628, 24.4869, 21.1367, -49.6552, -17.8533
1.34, -1, 6.55952, 22.2291, 24.4794, 21.227, -49.5442, -17.9169
1.344, -1, 6.61945, 22.1954, 24.4718, 21.3171, -49.4335, -17.9804
1.348, -1, 6.67926, 22.1617, 24.4643, 21.4071, -49.3229, -18.0438
1.352, -1, 6.73897, 22.1282, 24.4568, 21.4969, -49.2125, -18.1071
1.356, -1, 6.79856, 22.0947, 24.4493, 21.5865, -49.1024, -18.1703
1.36, -1, 6.85805, 22.0612, 24.4418, 21.676, -48.9924, -18.2333
1.364, -1, 6.91742, 22.0278, 24.4344, 21.7653, -48.8827, -18.2962
1.368, -1, 6.97669, 21.9945, 24.4269, 21.8545, -48.7732, -18.3591
1.372, -1, 7.03584, 21.9613, 24.4195, 21.9435, -48.6638, -18.4218
1.376, -1, 7.09489, 21.9281, 24.4121, 22.0323, -48.5547, -18.4843
1.38, -1, 7.15383, 21.8949, 24.4046, 22.1209, -48.4457, -18.5468
1.384, -1, 7.21267, 21.8618, 24.3972, 22.2094, -48.337, -18.6092
1.388, -1, 7.2714, 21.8288, 24.3899, 22.2978, -48.2284, -18.6714
1.392, -1, 7.33002, 21.7959, 24.3825, 22.386, -48.1201, -18.7335
1.396, -1, 7.38854, 21.763, 24.3751, 22.474, -48.0119, -18.7956
1.4, -1, 7.44695, 21.7301, 24.3678, 22.5618, -47.904, -18.8575
1.404, -1, 7.50525, 21.6973, 24.3605, 22.6495, -47.7962, -18.9193
1.408, -1, 7.56346, 21.6646, 24.3532, 22.7371, -47.6886, -18.9809
1.412, -1, 7.62156, 21.6319, 24.3458, 22.8245, -47.5812, -19.0425
1.416, -1, 7.67955, 21.5993, 24.3386, 22.9117, -47.4741, -19.104
1.42, -1, 7.73745, 21.5668, 24.3313, 22.9988, -47.3671, -19.1653
1.424, -1, 7.79524, 21.5343, 24.324, 23.0857, -47.2602, -19.2266
1.428, -1, 7.85293, 21.5019, 24.3168, 23.1725, -47.1536, -19.2877
1.432, -1, 7.91053, 21.4695, 24.3095, 23.2591, -47.0472, -19.3488
1.436, -1, 7.96802, 21.4372, 24.3023, 23.3456, -46.9409, -19.4097
1.44, -1, 8.02541, 21.4049, 24.2951, 23.4319, -46.8348, -19.4705
1.444, -1, 8.0827, 21.3727, 24.2879, 23.5181, -46.729, -19.5312
1.448, -1, 8.1399, 21.3405, 24.2807, 23.6041, -46.6232, -19.5918
1.452, -1, 8.19699, 21.3084, 24.2735, 23.69, -46.5177, -19.6523
1.456, -1, 8.25399, 21.2764, 24.2664, 23.7757, -46.4124, -19.7128
1.46, -1, 8.31089, 21.2444, 24.2592, 23.8613, -46.3072, -19.7731
1.464, -1, 8.36769, 21.2125, 24.2521, 23.9468, -46.2022, -19.8333
1.468, -1, 8.4244, 21.1806, 24.2449, 24.032, -46.0975, -19.8933
1.472, -1, 8.48101, 21.1488, 24.2378, 24.1172, -45.9928, -19.9533
1.476, -1, 8.53752, 21.117, 24.2307, 24.2022, -45.8884, -20.0132
1.48, -1, 8.59394, 21.0853, 24.2236, 24.287, -45.7841, -20.073
1.484, -1, 8.65026, 21.0536, 24.2165, 24.3718, -45.68, -20.1327
1.488, -1, 8.70649, 21.022, 24.2095, 24.4563, -45.5761, -20.1923
1.492, -1, 8.76262, 20.9904, 24.2024, 24.5408, -45.4724, -20.2518
1.496, -1, 8.81866, 20.9589, 24.1954, 24.6251, -45.3688, -20.3112
1.5, -1, 8.87461, 20.9275, 24.1883, 24.7092, -45.2654, -20.3705
1.504, -1, 8.93046, 20.8961, 24.1813, 24.7932, -45.1621, -20.4297
1.508, -1, 8.98623, 20.8647, 24.1743, 24.8771, -45.0591, -20.4888
1.512, -1, 9.04189, 20.8334, 24.1673, 24.9608, -44.9562, -20.5478
1.516, -1, 9.09747, 20.8022, 24.1603, 25.0444, -44.8535, -20.6067
1.52, -1, 9.15296, 20.771, 24.1534, 25.1279, -44.7509, -20.6655
1.524, -1, 9.20836, 20.7398, 24.1464, 25.2112, -44.6485, -20.7242
1.528, -1, 9.26366, 20.7087, 24.1394, 25.2944, -44.5463, -20.7828
1.532, -1, 9.31888, 20.6777, 24.1325, 25.3774, -44.4443, -20.8413
1.536, -1, 9.37401, 20.6467, 24.1256, 25.4604, -44.3424, -20.8997
1.54, -1, 9.42904, 20.6158, 24.1187, 25.5431, -44.2407, -20.9581
1.544, -1, 9.48399, 20.5849, 24.1118, 25.6258, -44.1391, -21.0163
1.548, -1, 9.53885, 20.554, 24.1049, 25.7083, -44.0377, -21.0744
1.552, -1, 9.59363, 20.5232, 24.098, 25.7907, -43.9365, -21.1325
1.556, -1, 9.64831, 20.4925, 24.0911, 25.873, -43.8354, -21.1904
1.56, -1, 9.70291, 20.4618, 24.0842, 25.9551, -43.7345, -21.2483
1.564, -1, 9.75742, 20.4311, 24.0774, 26.0371, -43.6337, -21.3061
1.568, -1, 9.81184, 20.4005, 24.0705, 26.1189, -43.5331, -21.3637
1.572, -1, 9.86618, 20.37, 24.0637, 26.2007, -43.4327, -21.4213
1.576, -1, 9.92043, 20.3395, 24.0569, 26.2823, -43.3324, -21.4788
1.58, -1, 9.9746, 20.309, 24.0501, 26.3638, -43.2323, -21.5362
1.584, -1, 10.0287, 20.2786, 24.0433, 26.4451, -43.1324, -21.5936
1.588, -1, 10.0827, 20.2483, 24.0365, 26.5263, -43.0326, -21.6508
1.592, -1, 10.1366, 20.218, 24.0297, 26.6074, -42.9329, -21.7079
1.596, -1, 10.1904, 20.1877, 24.023, 26.6884, -42.8334, -21.765
1.6, -1, 10.2442, 20.1575, 24.0162, 26.7692, -42.7341, -21.8219
1.604, -1, 10.2978, 20.1273, 24.0095, 26.85, -42.6349, -21.8788
1.608, -1, 10.3514, 20.0972, 24.0027, 26.9306, -42.5359, -21.9356
1.612, -1, 10.4049, 20.0671, 23.996, 27.011, -42.437, -21.9923
1.616, -1, 10.4583, 20.0371, 23.9893, 27.0914, -42.3382, -22.0489
1.62, -1, 10.5117, 20.0071, 23.9826, 27.1716, -42.2397, -22.1054
1.624, -1, 10.5649, 19.9771, 23.9759, 27.2517, -42.1412, -22.1619
1.628, -1, 10.6181, 19.9472, 23.9692, 27.3317, -42.0429, -22.2182
1.632, -1, 10.6712, 19.9174, 23.9625, 27.4116, -41.9448, -22.2745
1.636, -1, 10.7242, 19.8876, 23.9559, 27.4913, -41.8468, -22.3307
1.64, -1, 10.7771, 19.8578, 23.9492, 27.5709, -41.749, -22.3868
1.644, -1, 10.83, 19.8281, 23.9426, 27.6504, -41.6513, -22.4428
1.648, -1, 10.8828, 19.7984, 23.9359, 27.7298, -41.5538, -22.4987
1.652, -1, 10.9355, 19.7688, 23.9293, 27.8091, -41.4564, -22.5546
1.656, -1, 10.9881, 19.7392, 23.9227, 27.8882, -41.3591, -22.6104
1.66, -1, 11.0406, 19.7097, 23.9161, 27.9672, -41.262, -22.666
1.664, -1, 11.0931, 19.6802, 23.9095, 28.0461, -41.1651, -22.7216
1.668, -1, 11.1455, 19.6507, 23.9029, 28.1249, -41.0682, -22.7772
1.672, -1, 11.1978, 19.6213, 23.8963, 28.2036, -40.9716, -22.8326
1.676, -1, 11.25, 19.592, 23.8898, 28.2822, -40.875, -22.8879
1.68, -1, 11.3022, 19.5627, 23.8832, 28.3606, -40.7786, -22.9432
1.684, -1, 11.3542, 19.5334, 23.8767, 28.439, -40.6824, -22.9984
1.688, -1, 11.4062, 19.5041, 23.8701, 28.5172, -40.5863, -23.0535
1.692, -1, 11.4582, 19.4749, 23.8636, 28.5953, -40.4903, -23.1085
1.696, -1, 11.51, 19.4458, 23.8571, 28.6733, -40.3945, -23.1635
1.7, -1, 11.5618, 19.4167, 23.8506, 28.7511, -40.2988, -23.2184
1.704, -1, 11.6135, 19.3876, 23.8441, 28.8289, -40.2032, -23.2732
1.708, -1, 11.6651, 19.3586, 23.8376, 28.9066, -40.1078, -23.3279
1.712, -1, 11.7166, 19.3296, 23.8311, 28.9841, -40.0125, -23.3825
1.716, -1, 11.7681, 19.3007, 23.8246, 29.0615, -39.9174, -23.4371
1.72, -1, 11.8195, 19.2718, 23.8182, 29.1388, -39.8224, -23.4915
1.724, -1, 11.8709, 19.2429, 23.8117, 29.2161, -39.7275, -23.5459
1.728, -1, 11.9221, 19.2141, 23.8053, 29.2931, -39.6328, -23.6003
1.732, -1, 11.9733, 19.1853, 23.7989, 29.3701, -39.5382, -23.6545
1.736, -1, 12.0244, 19.1566, 23.7924, 29.447, -39.4437, -23.7087
1.74, -1, 12.0754, 19.1279, 23.786, 29.5238, -39.3494, -23.7628
1.744, -1, 12.1264, 19.0992, 23.7796, 29.6004, -39.2552, -23.8168
1.748, -1, 12.1773, 19.0706, 23.7732, 29.677, -39.1611, -23.8707
1.752, -1, 12.2281, 19.0421, 23.7668, 29.7535, -39.0672, -23.9246
1.756, -1, 12.2789, 19.0135, 23.7604, 29.8298, -38.9734, -23.9784
1.76, -1, 12.3295, 18.985, 23.7541, 29.906, -38.8797, -24.0321
1.764, -1, 12.3802, 18.9566, 23.7477, 29.9822, -38.7861, -24.0857
1.768, -1, 12.4307, 18.9282, 23.7414, 30.0582, -38.6927, -24.1393
1.772, -1, 12.4812, 18.8998, 23.735, 30.1341, -38.5995, -24.1928
1.776, -1, 12.5316, 18.8714, 23.7287, 30.2099, -38.5063, -24.2462
1.78, -1, 12.5819, 18.8431, 23.7223, 30.2856, -38.4133, -24.2995
1.784, -1, 12.6322, 18.8149, 23.716, 30.3612, -38.3204, -24.3528
1.788, -1, 12.6824, 18.7867, 23.7097, 30.4367, -38.2276, -24.406
1.792, -1, 12.7325, 18.7585, 23.7034, 30.5121, -38.1349, -24.4591
1.796, -1, 12.7825, 18.7303, 23.6971, 30.5874, -38.0424, -24.5122
1.8, -1, 12.8325, 18.7022, 23.6908, 30.6626, -37.95, -24.5652
1.804, -1, 12.8825, 18.6742, 23.6846, 30.7377, -37.8578, -24.6181
1.808, -1, 12.9323, 18.6461, 23.6783, 30.8127, -37.7656, -24.6709
1.812, -1, 12.9821, 18.6181, 23.672, 30.8876, -37.6736, -24.7237
1.816, -1, 13.0318, 18.5902, 23.6658, 30.9624, -37.5817, -24.7764
1.82, -1, 13.0815, 18.5623, 23.6596, 31.0371, -37.4899, -24.829
1.824, -1, 13.1311, 18.5344, 23.6533, 31.1117, -37.3982, -24.8816
1.828, -1, 13.1806, 18.5065, 23.6471, 31.1862, -37.3067, -24.9341
1.832, -1, 13.23, 18.4787, 23.6409, 31.2606, -37.2153, -24.9865
1.836, -1, 13.2794, 18.451, 23.6347, 31.3349, -37.124, -25.0388
1.84, -1, 13.3288, 18.4232, 23.6285, 31.4091, -37.0328, -25.0911
1.844, -1, 13.378, 18.3955, 23.6223, 31.4832, -36.9418, -25.1433
1.848, -1, 13.4272, 18.3679, 23.6161, 31.5572, -36.8508, -25.1955
1.852, -1, 13.4764, 18.3402, 23.6099, 31.6311, -36.76, -25.2475
1.856, -1, 13.5254, 18.3127, 23.6037, 31.7049, -36.6693, -25.2995
1.86, -1, 13.5744, 18.2851, 23.5976, 31.7786, -36.5787, -25.3515
1.864, -1, 13.6234, 18.2576, 23.5914, 31.8522, -36.4883, -25.4034
1.868, -1, 13.6723, 18.2301, 23.5853, 31.9258, -36.3979, -25.4552
1.872, -1, 13.7211, 18.2027, 23.5792, 31.9992, -36.3077, -25.5069
1.876, -1, 13.7698, 18.1752, 23.573, 32.0725, -36.2176, -25.5586
1.88, -1, 13.8185, 18.1479, 23.5669, 32.1458, -36.1275, -25.6102
1.884, -1, 13.8672, 18.1205, 23.5608, 32.2189, -36.0377, -25.6617
1.888, -1, 13.9157, 18.0932, 23.5547, 32.292, -35.9479, -25.7132
1.892, -1, 13.9643, 18.0659, 23.5486, 32.365, -35.8582, -25.7646
1.896, -1, 14.0127, 18.0387, 23.5425, 32.4378, -35.7687, -25.816
1.9, -1, 14.0611, 18.0115, 23.5364, 32.5106, -35.6792, -25.8673
1.904, -1, 14.1094, 17.9843, 23.5303, 32.5833, -35.5899, -25.9185
1.908, -1, 14.1577, 17.9572, 23.5243, 32.6559, -35.5007, -25.9696
1.912, -1, 14.2059, 17.9301, 23.5182, 32.7284, -35.4116, -26.0207
1.916, -1, 14.254, 17.903, 23.5122, 32.8009, -35.3226, -26.0718
1.92, -1, 14.3021, 17.876, 23.5061, 32.8732, -35.2337, -26.1227
1.924, -1, 14.3501, 17.849, 23.5001, 32.9454, -35.145, -26.1736
1.928, -1, 14.3981, 17.822, 23.494, 33.0176, -35.0563, -26.2245
1.932, -1, 14.446, 17.7951, 23.488, 33.0897, -34.9677, -26.2752
1.936, -1, 14.4939, 17.7682, 23.482, 33.1616, -34.8793, -26.3259
1.94, -1, 14.5416, 17.7413, 23.476, 33.2335, -34.791, -26.3766
1.944, -1, 14.5894, 17.7145, 23.47, 33.3053, -34.7027, -26.4272
1.948, -1, 14.6371, 17.6877, 23.464, 33.377, -34.6146, -26.4777
1.952, -1, 14.6847, 17.6609, 23.458, 33.4487, -34.5266, -26.5282
1.956, -1, 14.7322, 17.6341, 23.452, 33.5202, -34.4387, -26.5786
1.96, -1, 14.7797, 17.6074, 23.4461, 33.5917, -34.3509, -26.6289
1.964, -1, 14.8272, 17.5808, 23.4401, 33.663, -34.2632, -26.6792
1.968, -1, 14.8745, 17.5541, 23.4342, 33.7343, -34.1756, -26.7294
1.972, -1, 14.9219, 17.5275, 23.4282, 33.8055, -34.0882, -26.7796
1.976, -1, 14.9692, 17.5009, 23.4223, 33.8766, -34.0008, -26.8297
1.98, -1, 15.0164, 17.4744, 23.4163, 33.9476, -33.9135, -26.8798
1.984, -1, 15.0635, 17.4479, 23.4104, 34.0186, -33.8263, -26.9297
1.988, -1, 15.1106, 17.4214, 23.4045, 34.0894, -33.7393, -26.9797
1.992, -1, 15.1577, 17.3949, 23.3986, 34.1602, -33.6523, -27.0295
1.996, -1, 15.2047, 17.3685, 23.3927, 34.2309, -33.5654, -27.0793
1.999, -1, 15.2516, 17.3421, 23.3868, 34.3015, -33.4787, -27.1291
2.004, -1, 15.2985, 17.3158, 23.3809, 34.372, -33.392, -27.1788
2.008, -1, 15.3453, 17.2894, 23.375, 34.4425, -33.3055, -27.2284
2.012, -1, 15.3921, 17.2631, 23.3691, 34.5128, -33.219, -27.278
2.015, -1, 15.4388, 17.2369, 23.3632, 34.5831, -33.1327, -27.3275
2.019, -1, 15.4855, 17.2106, 23.3574, 34.6533, -33.0464, -27.377
2.024, -1, 15.5321, 17.1844, 23.3515, 34.7234, -32.9602, -27.4264
2.028, -1, 15.5786, 17.1582, 23.3456, 34.7934, -32.8742, -27.4757
2.031, -1, 15.6251, 17.1321, 23.3398, 34.8634, -32.7882, -27.525
2.036, -1, 15.6716, 17.106, 23.334, 34.9333, -32.7024, -27.5742
2.04, -1, 15.718, 17.0799, 23.3281, 35.0031, -32.6166, -27.6234
2.044, -1, 15.7643, 17.0538, 23.3223, 35.0728, -32.531, -27.6725
2.048, -1, 15.8106, 17.0278, 23.3165, 35.1424, -32.4454, -27.7216
2.051, -1, 15.8568, 17.0018, 23.3107, 35.212, -32.3599, -27.7706
2.055, -1, 15.903, 16.9759, 23.3049, 35.2814, -32.2746, -27.8195
2.06, -1, 15.9491, 16.9499, 23.2991, 35.3508, -32.1893, -27.8684
2.064, -1, 15.9952, 16.924, 23.2933, 35.4201, -32.1041, -27.9173
2.068, -1, 16.0413, 16.8981, 23.2875, 35.4894, -32.019, -27.9661
2.071, -1, 16.0872, 16.8723, 23.2817, 35.5585, -31.9341, -28.0148
2.076, -1, 16.1331, 16.8465, 23.2759, 35.6276, -31.8492, -28.0635
2.08, -1, 16.179, 16.8207, 23.2702, 35.6966, -31.7644, -28.1121
2.084, -1, 16.2248, 16.7949, 23.2644, 35.7656, -31.6797, -28.1606
2.087, -1, 16.2706, 16.7692, 23.2587, 35.8344, -31.5951, -28.2092
2.092, -1, 16.3163, 16.7435, 23.2529, 35.9032, -31.5106, -28.2576
2.096, -1, 16.362, 16.7178, 23.2472, 35.9719, -31.4262, -28.306
2.1, -1, 16.4076, 16.6921, 23.2414, 36.0405, -31.3418, -28.3544
2.104, -1, 16.4532, 16.6665, 23.2357, 36.1091, -31.2576, -28.4027
2.107, -1, 16.4987, 16.6409, 23.23, 36.1775, -31.1735, -28.4509
2.111, -1, 16.5442, 16.6154, 23.2243, 36.2459, -31.0894, -28.4991
2.116, -1, 16.5896, 16.5898, 23.2186, 36.3143, -31.0055, -28.5472
2.12, -1, 16.635, 16.5643, 23.2129, 36.3825, -30.9216, -28.5953
2.124, -1, 16.6803, 16.5388, 23.2072, 36.4507, -30.8378, -28.6434
2.127, -1, 16.7255, 16.5134, 23.2015, 36.5188, -30.7542, -28.6913
2.132, -1, 16.7708, 16.488, 23.1958, 36.5868, -30.6706, -28.7393
2.136, -1, 16.8159, 16.4626, 23.1901, 36.6548, -30.5871, -28.7872
2.14, -1, 16.8611, 16.4372, 23.1844, 36.7226, -30.5037, -28.835
2.143, -1, 16.9061, 16.4118, 23.1788, 36.7904, -30.4204, -28.8828
2.148, -1, 16.9512, 16.3865, 23.1731, 36.8582, -30.3371, -28.9305
2.152, -1, 16.9961, 16.3612, 23.1675, 36.9258, -30.254, -28.9782
2.156, -1, 17.0411, 16.336, 23.1618, 36.9934, -30.1709, -29.0258
2.16, -1, 17.086, 16.3107, 23.1562, 37.061, -30.088, -29.0734
2.163, -1, 17.1307, 16.2856, 23.1505, 37.1284, -30.0051, -29.1209
2.168, -1, 17.1752, 16.2605, 23.1449, 37.1958, -29.9223, -29.1684
2.172, -1, 17.2191, 16.2357, 23.1392, 37.263, -29.8397, -29.2157
2.176, -1, 17.2623, 16.2112, 23.1335, 37.3301, -29.7572, -29.263
2.179, -1, 17.3045, 16.1873, 23.1277, 37.397, -29.6751, -29.3101
2.184, -1, 17.3456, 16.164, 23.1218, 37.4635, -29.5935, -29.357
2.188, -1, 17.3855, 16.1414, 23.116, 37.5293, -29.5126, -29.4033
2.192, -1, 17.4241, 16.1195, 23.1101, 37.5942, -29.433, -29.4491
2.196, -1, 17.4614, 16.0985, 23.1043, 37.6578, -29.3548, -29.4939
2.199, -1, 17.4974, 16.0784, 23.0986, 37.7198, -29.2788, -29.5376
2.204, -1, 17.532, 16.0593, 23.093, 37.7796, -29.2053, -29.5798
2.208, -1, 17.565, 16.0414, 23.0876, 37.837, -29.1349, -29.6202
2.212, -1, 17.5961, 16.0246, 23.0825, 37.8913, -29.0682, -29.6585
2.216, -1, 17.6255, 16.0089, 23.0778, 37.9423, -29.0056, -29.6944
2.219, -1, 17.6531, 15.9942, 23.0734, 37.9894, -28.9477, -29.7277
2.224, -1, 17.6791, 15.9802, 23.0695, 38.0325, -28.8949, -29.758
2.228, -1, 17.7034, 15.9668, 23.0661, 38.0711, -28.8475, -29.7852
2.232, -1, 17.7262, 15.9539, 23.0633, 38.1052, -28.8055, -29.8093
2.235, -1, 17.7475, 15.9416, 23.0609, 38.1349, -28.769, -29.8302
2.24, -1, 17.767, 15.9299, 23.0591, 38.1603, -28.7379, -29.848
2.244, -1, 17.7847, 15.9192, 23.0578, 38.1815, -28.7117, -29.863
2.248, -1, 17.8006, 15.9096, 23.0568, 38.1989, -28.6902, -29.8752
2.252, -1, 17.8146, 15.9012, 23.0561, 38.213, -28.6728, -29.8851
2.255, -1, 17.827, 15.8938, 23.0557, 38.2241, -28.6592, -29.8929
2.259, -1, 17.8379, 15.8875, 23.0556, 38.2326, -28.6486, -29.8989
2.264, -1, 17.8474, 15.8821, 23.0556, 38.239, -28.6407, -29.9034
2.268, -1, 17.8555, 15.8777, 23.0556, 38.2437, -28.6349, -29.9067
2.272, -1, 17.8622, 15.8741, 23.0558, 38.247, -28.6307, -29.9091
2.275, 2, 17.8677, 15.8713, 23.0559, 38.2493, -28.6278, -29.9107
2.28, 2, 17.8718, 15.8692, 23.0561, 38.2509, -28.6258, -29.9118
2.284, 2, 17.8749, 15.8678, 23.0562, 38.252, -28.6244, -29.9126
2.288, 2, 17.877, 15.8667, 23.0562, 38.2528, -28.6235, -29.9131
2.291, 2, 17.8785, 15.866, 23.0563, 38.2533, -28.6229, -29.9135
2.296, 2, 17.8795, 15.8655, 23.0563, 38.2536, -28.6224, -29.9137
2.3, 2, 17.8802, 15.8652, 23.0563, 38.2539, -28.6221, -29.9139
2.304, 2, 17.8806, 15.865, 23.0564, 38.254, -28.6219, -29.914
2.308, 2, 17.8809, 15.8649, 23.0564, 38.2541, -28.6218, -29.9141
2.311, 2, 17.8811, 15.8648, 23.0564, 38.2542, -28.6217, -29.9141
2.316, 2, 17.8813, 15.8647, 23.0564, 38.2543, -28.6216, -29.9142
2.32, 2, 17.8814, 15.8646, 23.0564, 38.2543, -28.6216, -29.9142
2.324, 2, 17.8814, 15.8646, 23.0564, 38.2543, -28.6216, -29.9142
2.328, 2, 17.8815, 15.8646, 23.0564, 38.2543, -28.6216, -29.9142
2.331, 2, 17.8815, 15.8646, 23.0564, 38.2543, -28.6215, -29.9142
2.336, 2, 17.8815, 15.8646, 23.0564, 38.2544, -28.6215, -29.9142
2.34, 2, 17.8815, 15.8646, 23.0564, 38.2544, -28.6215, -29.9142
2.344, 2, 17.8816, 15.8646, 23.0564, 38.2544, -28.6215, -29.9142
2.347, 2, 17.8816, 15.8646, 23.0564, 38.2544, -28.6215, -29.9142
2.352, 2, 17.8816, 15.8646, 23.0564, 38.2544, -28.6215, -29.9142
2.356, 2, 17.8816, 15.8646, 23.0564, 38.2544, -28.6215, -29.9142
2.36, 2, 17.8816, 15.8646, 23.0564, 38.2544, -28.6215, -29.9142
2.364, 2, 17.8816, 15.8645, 23.0564, 38.2544, -28.6215, -29.9142
2.367, 2, 17.8816, 15.8645, 23.0564, 38.2544, -28.6215, -29.9142
2.372, 2, 17.8816, 15.8645, 23.0564, 38.2544, -28.6215, -29.9142
2.376, 2, 17.8816, 15.8645, 23.0564, 38.2544, -28.6215, -29.9142
2.38, 2, 17.8816, 15.8645, 23.0564, 38.2544, -28.6215, -29.9142
2.383, 2, 17.8816, 15.8645, 23.0564, 38.2544, -28.6215, -29.9142
2.388, 2, 17.8816, 15.8645, 23.0564, 38.2544, -28.6215, -29.9142
2.392, 2, 17.8816, 15.8645, 23.0564, 38.2544, -28.6215, -29.9142
2.396, 2, 17.8816, 15.8645, 23.0564, 38.2544, -28.6215, -29.9142
2.4, 2, 17.8816, 15.8645, 23.0564, 38.2544, -28.6215, -29.9142
2.403, 2, 17.8816, 15.8645, 23.0564, 38.2544, -28.6215, -29.9142
2.408, 2, 17.8816, 15.8645, 23.0564, 38.2544, -28.6215, -29.9142
2.412, 2, 17.8816, 15.8645, 23.0564, 38.2544, -28.6215, -29.9142
2.416, 2, 17.8816, 15.8645, 23.0564, 38.2544, -28.6215, -29.9142
2.42, 2, 17.8816, 15.8645, 23.0564, 38.2544, -28.6215, -29.9142
2.423, 2, 17.8816, 15.8645, 23.0564, 38.2544, -28.6215, -29.9142
2.428, 2, 17.8816, 15.8645, 23.0564, 38.2544, -28.6215, -29.9142
2.432, 2, 17.8816, 15.8645, 23.0564, 38.2544, -28.6215, -29.9142
2.436, 2, 17.8816, 15.8645, 23.0564, 38.2544, -28.6215, -29.9142
2.439, 2, 17.8816, 15.8645, 23.0564, 38.2544, -28.6215, -29.9142
2.444, 2, 17.8816, 15.8645, 23.0564, 38.2544, -28.6215, -29.9142
2.448, 2, 17.8816, 15.8645, 23.0564, 38.2544, -28.6215, -29.9142
2.452, 2, 17.8816, 15.8645, 23.0564, 38.2544, -28.6215, -29.9142
2.456, 2, 17.8816, 15.8645, 23.0564, 38.2544, -28.6215, -29.9142
2.459, 2, 17.8816, 15.8645, 23.0564, 38.2544, -28.6215, -29.9142
2.464, 2, 17.8816, 15.8645, 23.0564, 38.2544, -28.6215, -29.9142
2.468, 2, 17.8816, 15.8645, 23.0564, 38.2544, -28.6215, -29.9142
2.472, 2, 17.8816, 15.8645, 23.0564, 38.2544, -28.6215, -29.9142
2.476, 2, 17.8816, 15.8645, 23.0564, 38.2544, -28.6215, -29.9142
2.479, 2, 17.8816, 15.8645, 23.0564, 38.2544, -28.6215, -29.9142
2.484, 2, 17.8816, 15.8645, 23.0564, 38.2544, -28.6215, -29.9142
2.488, 2, 17.8816, 15.8645, 23.0564, 38.2544, -28.6215, -29.9142
2.492, 2, 17.8816, 15.8645, 23.0564, 38.2544, -28.6215, -29.9142
2.495, 2, 17.8816, 15.8645, 23.0564, 38.2544, -28.6215, -29.9142
2.5, 2, 17.8816, 15.8645, 23.0564, 38.2544, -28.6215, -29.9142
2.504, 2, 17.8816, 15.8645, 23.0564, 38.2544, -28.6215, -29.9142
2.508, 2, 17.8816, 15.8645, 23.0564, 38.2544, -28.6215, -29.9142
2.512, 2, 17.8816, 15.8645, 23.0564, 38.2544, -28.6215, -29.9142
2.515, 2, 17.8816, 15.8645, 23.0564, 38.2544, -28.6215, -29.9142
2.52, 2, 17.8816, 15.8645, 23.0564, 38.2544, -28.6215, -29.9142
2.524, 2, 17.8816, 15.8645, 23.0564, 38.2544, -28.6215, -29.9142
2.528, 2, 17.8816, 15.8645, 23.0564, 38.2544, -28.6215, -29.9142
2.531, 2, 17.8816, 15.8645, 23.0564, 38.2544, -28.6215, -29.9142
2.536, 2, 17.8816, 15.8645, 23.0564, 38.2544, -28.6215, -29.9142
2.54, 2, 17.8816, 15.8645, 23.0564, 38.2544, -28.6215, -29.9142
2.544, 2, 17.8816, 15.8645, 23.0564, 38.2544, -28.6215, -29.9142
2.548, 2, 17.8816, 15.8645, 23.0564, 38.2544, -28.6215, -29.9142
2.551, 2, 17.8816, 15.8645, 23.0564, 38.2544, -28.6215, -29.9142
2.556, 2, 17.8816, 15.8645, 23.0564, 38.2544, -28.6215, -29.9142
2.56, 2, 17.8816, 15.8645, 23.0564, 38.2544, -28.6215, -29.9142
2.564, 2, 17.8816, 15.8645, 23.0564, 38.2544, -28.6215, -29.9142
2.568, 2, 17.8816, 15.8645, 23.0564, 38.2544, -28.6215, -29.9142
2.571, 2, 17.8816, 15.8645, 23.0564, 38.2544, -28.6215, -29.9142
2.576, 2, 17.8816, 15.8645, 23.0564, 38.2544, -28.6215, -29.9142
2.58, 2, 17.8816, 15.8645, 23.0564, 38.2544, -28.6215, -29.9142
2.584, 2, 17.8816, 15.8645, 23.0564, 38.2544, -28.6215, -29.9142
2.587, 2, 17.8816, 15.8645, 23.0564, 38.2544, -28.6215, -29.9142
2.592, 2, 17.8816, 15.8645, 23.0564, 38.2544, -28.6215, -29.9142
2.596, 2, 17.8816, 15.8645, 23.0564, 38.2544, -28.6215, -29.9142
2.6, 2, 17.8816, 15.8645, 23.0564, 38.2544, -28.6215, -29.9142
2.604, 2, 17.8816, 15.8645, 23.0564, 38.2544, -28.6215, -29.9142
2.607, 2, 17.8816, 15.8645, 23.0564, 38.2544, -28.6215, -29.9142
2.612, 2, 17.8816, 15.8645, 23.0564, 38.2544, -28.6215, -29.9142
2.616, 2, 17.8816, 15.8645, 23.0564, 38.2544, -28.6215, -29.9142
2.62, 2, 17.8816, 15.8645, 23.0564, 38.2544, -28.6215, -29.9142
2.624, 2, 17.8816, 15.8645, 23.0564, 38.2544, -28.6215, -29.9142
2.627, 2, 17.8816, 15.8645, 23.0564, 38.2544, -28.6215, -29.9142
2.632, 2, 17.8816, 15.8645, 23.0564, 38.2544, -28.6215, -29.9142
2.636, 2, 17.8816, 15.8645, 23.0564, 38.2544, -28.6215, -29.9142
2.64, 2, 17.8816, 15.8645, 23.0564, 38.2544, -28.6215, -29.9142
2.643, 2, 17.8816, 15.8645, 23.0564, 38.2544, -28.6215, -29.9142
2.648, 2, 17.8816, 15.8645, 23.0564, 38.2544, -28.6215, -29.9142
2.652, 2, 17.8816, 15.8645, 23.0564, 38.2544, -28.6215, -29.9142
2.656, 2, 17.8816, 15.8645, 23.0564, 38.2544, -28.6215, -29.9142
2.66, 2, 17.8816, 15.8645, 23.0564, 38.2544, -28.6215, -29.9142
2.663, 2, 17.8816, 15.8645, 23.0564, 38.2544, -28.6215, -29.9142
2.668, 2, 17.8816, 15.8645, 23.0564, 38.2544, -28.6215, -29.9142
2.672, 2, 17.8816, 15.8645, 23.0564, 38.2544, -28.6215, -29.9142
2.676, 2, 17.8816, 15.8645, 23.0564, 38.2544, -28.6215, -29.9142
2.679, 2, 17.8816, 15.8645, 23.0564, 38.2544, -28.6215, -29.9142
2.684, 2, 17.8816, 15.8645, 23.0564, 38.2544, -28.6215, -29.9142
2.688, 2, 17.8816, 15.8645, 23.0564, 38.2544, -28.6215, -29.9142
2.692, 2, 17.8816, 15.8645, 23.0564, 38.2544, -28.6215, -29.9142
2.696, 2, 17.8816, 15.8645, 23.0564, 38.2544, -28.6215, -29.9142
2.699, 2, 17.8816, 15.8645, 23.0564, 38.2544, -28.6215, -29.9142
2.704, 2, 17.8816, 15.8645, 23.0564, 38.2544, -28.6215, -29.9142
2.708, 2, 17.8816, 15.8645, 23.0564, 38.2544, -28.6215, -29.9142
2.712, 2, 17.8816, 15.8645, 23.0564, 38.2544, -28.6215, -29.9142
2.716, 2, 17.8816, 15.8645, 23.0564, 38.2544, -28.6215, -29.9142
2.719, 2, 17.8816, 15.8645, 23.0564, 38.2544, -28.6215, -29.9142
2.724, 2, 17.8816, 15.8645, 23.0564, 38.2544, -28.6215, -29.9142
2.728, 2, 17.8816, 15.8645, 23.0564, 38.2544, -28.6215, -29.9142
2.732, 2, 17.8816, 15.8645, 23.0564, 38.2544, -28.6215, -29.9142
2.735, 2, 17.8816, 15.8645, 23.0564, 38.2544, -28.6215, -29.9142
2.74, 2, 17.8816, 15.8645, 23.0564, 38.2544, -28.6215, -29.9142
2.744, 2, 17.8816, 15.8645, 23.0564, 38.2544, -28.6215, -29.9142
2.748, 2, 17.8816, 15.8645, 23.0564, 38.2544, -28.6215, -29.9142
2.752, 2, 17.8816, 15.8645, 23.0564, 38.2544, -28.6215, -29.9142
2.755, 2, 17.8816, 15.8645, 23.0564, 38.2544, -28.6215, -29.9142
2.76, 2, 17.8816, 15.8645, 23.0564, 38.2544, -28.6215, -29.9142
2.764, 2, 17.8816, 15.8645, 23.0564, 38.2544, -28.6215, -29.9142
2.768, 2, 17.8816, 15.8645, 23.0564, 38.2544, -28.6215, -29.9142
2.772, 2, 17.8816, 15.8645, 23.0564, 38.2544, -28.6215, -29.9142
2.775, 2, 17.8816, 15.8645, 23.0564, 38.2544, -28.6215, -29.9142
2.78, 2, 17.8816, 15.8645, 23.0564, 38.2544, -28.6215, -29.9142
2.784, 2, 17.8816, 15.8645, 23.0564, 38.2544, -28.6215, -29.9142
2.788, 2, 17.8816, 15.8645, 23.0564, 38.2544, -28.6215, -29.9142
2.791, 2, 17.8816, 15.8645, 23.0564, 38.2544, -28.6215, -29.9142
2.796, 2, 17.8816, 15.8645, 23.0564, 38.2544, -28.6215, -29.9142
2.8, 2, 17.8816, 15.8645, 23.0564, 38.2544, -28.6215, -29.9142
2.804, 2, 17.8816, 15.8645, 23.0564, 38.2544, -28.6215, -29.9142
2.808, 2, 17.8816, 15.8645, 23.0564, 38.2544, -28.6215, -29.9142
2.811, 2, 17.8816, 15.8645, 23.0564, 38.2544, -28.6215, -29.9142
2.816, 2, 17.8816, 15.8645, 23.0564, 38.2544, -28.6215, -29.9142
2.82, 2, 17.8816, 15.8645, 23.0564, 38.2544, -28.6215, -29.9142
2.824, 2, 17.8816, 15.8645, 23.0564, 38.2544, -28.6215, -29.9142
2.828, 2, 17.8816, 15.8645, 23.0564, 38.2544, -28.6215, -29.9142
2.831, 2, 17.8816, 15.8645, 23.0564, 38.2544, -28.6215, -29.9142
2.836, 2, 17.8816, 15.8645, 23.0564, 38.2544, -28.6215, -29.9142
2.84, 2, 17.8816, 15.8645, 23.0564, 38.2544, -28.6215, -29.9142
2.844, 2, 17.8816, 15.8645, 23.0564, 38.2544, -28.6215, -29.9142
2.847, 2, 17.8816, 15.8645, 23.0564, 38.2544, -28.6215, -29.9142
2.852, 2, 17.8816, 15.8645, 23.0564, 38.2544, -28.6215, -29.9142
2.856, 2, 17.8816, 15.8645, 23.0564, 38.2544, -28.6215, -29.9142
2.86, 2, 17.8816, 15.8645, 23.0564, 38.2544, -28.6215, -29.9142
2.864, 2, 17.8816, 15.8645, 23.0564, 38.2544, -28.6215, -29.9142
2.867, 2, 17.8816, 15.8645, 23.0564, 38.2544, -28.6215, -29.9142
2.872, 2, 17.8816, 15.8645, 23.0564, 38.2544, -28.6215, -29.9142
2.876, 2, 17.8816, 15.8645, 23.0564, 38.2544, -28.6215, -29.9142
2.88, 2, 17.8816, 15.8645, 23.0564, 38.2544, -28.6215, -29.9142
2.883, 2, 17.8816, 15.8645, 23.0564, 38.2544, -28.6215, -29.9142
2.888, 2, 17.8816, 15.8645, 23.0564, 38.2544, -28.6215, -29.9142
2.892, 2, 17.8816, 15.8645, 23.0564, 38.2544, -28.6215, -29.9142
2.896, 2, 17.8816, 15.8645, 23.0564, 38.2544, -28.6215, -29.9142
2.9, 2, 17.8816, 15.8645, 23.0564, 38.2544, -28.6215, -29.9142
2.903, 2, 17.8816, 15.8645, 23.0564, 38.2544, -28.6215, -29.9142
2.908, 2, 17.8816, 15.8645, 23.0564, 38.2544, -28.6215, -29.9142
2.912, 2, 17.8816, 15.8645, 23.0564, 38.2544, -28.6215, -29.9142
2.916, 2, 17.8816, 15.8645, 23.0564, 38.2544, -28.6215, -29.9142
2.92, 2, 17.8816, 15.8645, 23.0564, 38.2544, -28.6215, -29.9142
2.923, 2, 17.8816, 15.8645, 23.0564, 38.2544, -28.6215, -29.9142
2.928, 2, 17.8816, 15.8645, 23.0564, 38.2544, -28.6215, -29.9142
2.932, 2, 17.8816, 15.8645, 23.0564, 38.2544, -28.6215, -29.9142
2.936, 2, 17.8816, 15.8645, 23.0564, 38.2544, -28.6215, -29.9142
2.939, 2, 17.8816, 15.8645, 23.0564, 38.2544, -28.6215, -29.9142
2.944, 2, 17.8816, 15.8645, 23.0564, 38.2544, -28.6215, -29.9142
2.948, 2, 17.8816, 15.8645, 23.0564, 38.2544, -28.6215, -29.9142
2.952, 2, 17.8816, 15.8645, 23.0564, 38.2544, -28.6215, -29.9142
2.956, 2, 17.8816, 15.8645, 23.0564, 38.2544, -28.6215, -29.9142
2.959, 2, 17.8816, 15.8645, 23.0564, 38.2544, -28.6215, -29.9142
2.964, 2, 17.8816, 15.8645, 23.0564, 38.2544, -28.6215, -29.9142
2.968, 2, 17.8816, 15.8645, 23.0564, 38.2544, -28.6215, -29.9142
2.972, 2, 17.8816, 15.8645, 23.0564, 38.2544, -28.6215, -29.9142
2.976, 2, 17.8816, 15.8645, 23.0564, 38.2544, -28.6215, -29.9142
2.98, 2, 17.8816, 15.8645, 23.0564, 38.2544, -28.6215, -29.9142
2.984, 2, 17.8816, 15.8645, 23.0564, 38.2544, -28.6215, -29.9142
2.988, 2, 17.8816, 15.8645, 23.0564, 38.2544, -28.6215, -29.9142
2.992, 2, 17.8816, 15.8645, 23.0564, 38.2544, -28.6215, -29.9142
2.995, 2, 17.8816, 15.8645, 23.0564, 38.2544, -28.6215, -29.9142
3, 2, 17.8816, 15.8645, 23.0564, 38.2544, -28.6215, -29.9142
3.004, 2, 17.8816, 15.8645, 23.0564, 38.2544, -28.6215, -29.9142
3.008, 2, 17.8816, 15.8645, 23.0564, 38.2544, -28.6215, -29.9142
3.012, 2, 17.8816, 15.8645, 23.0564, 38.2544, -28.6215, -29.9142
3.015, 2, 17.8816, 15.8645, 23.0564, 38.2544, -28.6215, -29.9142
3.02, 2, 17.8816, 15.8645, 23.0564, 38.2544, -28.6215, -29.9142
3.024, 2, 17.8816, 15.8645, 23.0564, 38.2544, -28.6215, -29.9142
3.028, 2, 17.8816, 15.8645, 23.0564, 38.2544, -28.6215, -29.9142
3.031, 2, 17.8816, 15.8645, 23.0564, 38.2544, -28.6215, -29.9142
3.036, 2, 17.8816, 15.8645, 23.0564, 38.2544, -28.6215, -29.9142
3.04, 2, 17.8816, 15.8645, 23.0564, 38.2544, -28.6215, -29.9142
3.044, 2, 17.8816, 15.8645, 23.0564, 38.2544, -28.6215, -29.9142
3.048, 2, 17.8816, 15.8645, 23.0564, 38.2544, -28.6215, -29.9142
3.051, 2, 17.8816, 15.8645, 23.0564, 38.2544, -28.6215, -29.9142
3.056, 2, 17.8816, 15.8645, 23.0564, 38.2544, -28.6215, -29.9142
3.06, 2, 17.8816, 15.8645, 23.0564, 38.2544, -28.6215, -29.9142
3.064, 2, 17.8816, 15.8645, 23.0564, 38.2544, -28.6215, -29.9142
3.068, 2, 17.8816, 15.8645, 23.0564, 38.2544, -28.6215, -29.9142
3.071, 2, 17.8816, 15.8645, 23.0564, 38.2544, -28.6215, -29.9142
3.076, 2, 17.8816, 15.8645, 23.0564, 38.2544, -28.6215, -29.9142
3.08, 2, 17.8816, 15.8645, 23.0564, 38.2544, -28.6215, -29.9142
3.084, 2, 17.8816, 15.8645, 23.0564, 38.2544, -28.6215, -29.9142
3.087, 2, 17.8816, 15.8645, 23.0564, 38.2544, -28.6215, -29.9142
3.092, 2, 17.8816, 15.8645, 23.0564, 38.2544, -28.6215, -29.9142
3.096, 2, 17.8816, 15.8645, 23.0564, 38.2544, -28.6215, -29.9142
3.1, 2, 17.8816, 15.8645, 23.0564, 38.2544, -28.6215, -29.9142
3.104, 2, 17.8816, 15.8645, 23.0564, 38.2544, -28.6215, -29.9142
3.107, 2, 17.8816, 15.8645, 23.0564, 38.2544, -28.6215, -29.9142
3.112, 2, 17.8816, 15.8645, 23.0564, 38.2544, -28.6215, -29.9142
3.116, 2, 17.8816, 15.8645, 23.0564, 38.2544, -28.6215, -29.9142
3.12, 2, 17.8816, 15.8645, 23.0564, 38.2544, -28.6215, -29.9142
3.124, 2, 17.8816, 15.8645, 23.0564, 38.2544, -28.6215, -29.9142
3.128, 2, 17.8816, 15.8645, 23.0564, 38.2544, -28.6215, -29.9142
3.132, 2, 17.8816, 15.8645, 23.0564, 38.2544, -28.6215, -29.9142
3.136, 2, 17.8816, 15.8645, 23.0564, 38.2544, -28.6215, -29.9142
3.14, 2, 17.8816, 15.8645, 23.0564, 38.2544, -28.6215, -29.9142
3.143, 2, 17.8816, 15.8645, 23.0564, 38.2544, -28.6215, -29.9142
3.148, 2, 17.8816, 15.8645, 23.0564, 38.2544, -28.6215, -29.9142
3.152, 2, 17.8816, 15.8645, 23.0564, 38.2544, -28.6215, -29.9142
3.156, 2, 17.8816, 15.8645, 23.0564, 38.2544, -28.6215, -29.9142
3.16, 2, 17.8816, 15.8645, 23.0564, 38.2544, -28.6215, -29.9142
3.163, 2, 17.8816, 15.8645, 23.0564, 38.2544, -28.6215, -29.9142
3.168, 2, 17.8816, 15.8645, 23.0564, 38.2544, -28.6215, -29.9142
3.172, 2, 17.8816, 15.8645, 23.0564, 38.2544, -28.6215, -29.9142
3.176, 2, 17.8816, 15.8645, 23.0564, 38.2544, -28.6215, -29.9142
3.179, 2, 17.8816, 15.8645, 23.0564, 38.2544, -28.6215, -29.9142
3.184, 2, 17.8816, 15.8645, 23.0564, 38.2544, -28.6215, -29.9142
3.188, 2, 17.8816, 15.8645, 23.0564, 38.2544, -28.6215, -29.9142
3.192, 2, 17.8816, 15.8645, 23.0564, 38.2544, -28.6215, -29.9142
3.196, 2, 17.8816, 15.8645, 23.0564, 38.2544, -28.6215, -29.9142
3.199, 2, 17.8816, 15.8645, 23.0564, 38.2544, -28.6215, -29.9142
3.204, 2, 17.8816, 15.8645, 23.0564, 38.2544, -28.6215, -29.9142
3.208, 2, 17.8816, 15.8645, 23.0564, 38.2544, -28.6215, -29.9142
3.212, 2, 17.8816, 15.8645, 23.0564, 38.2544, -28.6215, -29.9142
3.216, 2, 17.8816, 15.8645, 23.0564, 38.2544, -28.6215, -29.9142
3.22, 2, 17.8816, 15.8645, 23.0564, 38.2544, -28.6215, -29.9142
3.224, 2, 17.8816, 15.8645, 23.0564, 38.2544, -28.6215, -29.9142
3.228, 2, 17.8816, 15.8645, 23.0564, 38.2544, -28.6215, -29.9142
3.232, 2, 17.8816, 15.8645, 23.0564, 38.2544, -28.6215, -29.9142
3.235, 2, 17.8816, 15.8645, 23.0564, 38.2544, -28.6215, -29.9142
3.24, 2, 17.8816, 15.8645, 23.0564, 38.2544, -28.6215, -29.9142
3.244, 2, 17.8816, 15.8645, 23.0564, 38.2544, -28.6215, -29.9142
3.248, 2, 17.8816, 15.8645, 23.0564, 38.2544, -28.6215, -29.9142
3.252, 2, 17.8816, 15.8645, 23.0564, 38.2544, -28.6215, -29.9142
3.255, 2, 17.8816, 15.8645, 23.0564, 38.2544, -28.6215, -29.9142
3.26, 2, 17.8816, 15.8645, 23.0564, 38.2544, -28.6215, -29.9142
3.264, 2, 17.8816, 15.8645, 23.0564, 38.2544, -28.6215, -29.9142
3.268, 2, 17.8816, 15.8645, 23.0564, 38.2544, -28.6215, -29.9142
3.272, 2, 17.8816, 15.8645, 23.0564, 38.2544, -28.6215, -29.9142
3.276, 2, 17.8816, 15.8645, 23.0564, 38.2544, -28.6215, -29.9142
3.28, 2, 17.8816, 15.8645, 23.0564, 38.2544, -28.6215, -29.9142
3.284, 2, 17.8816, 15.8645, 23.0564, 38.2544, -28.6215, -29.9142
3.288, 2, 17.8816, 15.8645, 23.0564, 38.2544, -28.6215, -29.9142
3.291, 2, 17.8816, 15.8645, 23.0564, 38.2544, -28.6215, -29.9142
3.296, 2, 17.8816, 15.8645, 23.0564, 38.2544, -28.6215, -29.9142
3.3, 2, 17.8816, 15.8645, 23.0564, 38.2544, -28.6215, -29.9142
3.304, 2, 17.8816, 15.8645, 23.0564, 38.2544, -28.6215, -29.9142
3.308, 2, 17.8816, 15.8645, 23.0564, 38.2544, -28.6215, -29.9142
3.312, 2, 17.8816, 15.8645, 23.0564, 38.2544, -28.6215, -29.9142
3.316, 2, 17.8816, 15.8645, 23.0564, 38.2544, -28.6215, -29.9142
3.32, 2, 17.8816, 15.8645, 23.0564, 38.2544, -28.6215, -29.9142
3.324, 2, 17.8816, 15.8645, 23.0564, 38.2544, -28.6215, -29.9142
3.328, 2, 17.8816, 15.8645, 23.0564, 38.2544, -28.6215, -29.9142
3.332, 2, 17.8816, 15.8645, 23.0564, 38.2544, -28.6215, -29.9142
3.336, 2, 17.8816, 15.8645, 23.0564, 38.2544, -28.6215, -29.9142
3.34, 2, 17.8816, 15.8645, 23.0564, 38.2544, -28.6215, -29.9142
3.344, 2, 17.8816, 15.8645, 23.0564, 38.2544, -28.6215, -29.9142
3.347, 2, 17.8816, 15.8645, 23.0564, 38.2544, -28.6215, -29.9142
3.352, 4, 17.8816, 15.8645, 23.0564, 38.2544, -28.6215, -29.9142
3.356, 4, 17.8816, 15.8645, 23.0564, 38.2544, -28.6215, -29.9142
3.36, 4, 17.8816, 15.8645, 23.0564, 38.2544, -28.6215, -29.9142
3.364, 4, 17.8816, 15.8645, 23.0564, 38.2544, -28.6215, -29.9142
3.368, 4, 17.8816, 15.8645, 23.0564, 38.2544, -28.6215, -29.9142
3.372, 4, 17.8816, 15.8645, 23.0564, 38.2544, -28.6215, -29.9142
3.376, 4, 17.8816, 15.8645, 23.0564, 38.2544, -28.6215, -29.9142
3.38, 4, 17.8816, 15.8645, 23.0564, 38.2544, -28.6215, -29.9142
3.383, 4, 17.8816, 15.8645, 23.0564, 38.2544, -28.6215, -29.9142
3.388, 4, 17.8816, 15.8645, 23.0564, 38.2544, -28.6215, -29.9142
3.392, 4, 17.8816, 15.8645, 23.0564, 38.2544, -28.6215, -29.9142
3.396, 4, 17.8816, 15.8645, 23.0564, 38.2544, -28.6215, -29.9142
3.4, 4, 17.8816, 15.8645, 23.0564, 38.2544, -28.6215, -29.9142
3.403, 4, 17.8816, 15.8645, 23.0564, 38.2544, -28.6215, -29.9142
3.408, 4, 17.8816, 15.8645, 23.0564, 38.2544, -28.6215, -29.9142
3.412, 4, 17.8816, 15.8645, 23.0564, 38.2544, -28.6215, -29.9142
3.416, 4, 17.8816, 15.8645, 23.0564, 38.2544, -28.6215, -29.9142
3.42, 4, 17.8816, 15.8645, 23.0564, 38.2544, -28.6215, -29.9142
3.424, 4, 17.8816, 15.8645, 23.0564, 38.2544, -28.6215, -29.9142
3.428, 4, 17.8816, 15.8645, 23.0564, 38.2544, -28.6215, -29.9142
3.432, 4, 17.8816, 15.8645, 23.0564, 38.2544, -28.6215, -29.9142
3.436, 4, 17.8816, 15.8645, 23.0564, 38.2544, -28.6215, -29.9142
3.439, 4, 17.8816, 15.8645, 23.0564, 38.2544, -28.6215, -29.9142
3.444, 4, 17.8816, 15.8645, 23.0564, 38.2544, -28.6215, -29.9142
3.448, 4, 17.8816, 15.8645, 23.0564, 38.2544, -28.6215, -29.9142
3.452, 4, 17.8816, 15.8645, 23.0564, 38.2544, -28.6215, -29.9142
3.458, 4, 17.8816, 15.8645, 23.0564, 38.2544, -28.6215, -29.9142
3.46, 4, 17.8816, 15.8645, 23.0564, 38.2544, -28.6215, -29.9142
3.464, 4, 17.8816, 15.8645, 23.0564, 38.2544, -28.6215, -29.9142
3.468, 4, 17.8816, 15.8645, 23.0564, 38.2544, -28.6215, -29.9142
3.472, 4, 17.8816, 15.8645, 23.0564, 38.2544, -28.6215, -29.9142
3.476, 4, 17.8816, 15.8645, 23.0564, 38.2544, -28.6215, -29.9142
3.48, 4, 17.8816, 15.8645, 23.0564, 38.2544, -28.6215, -29.9142
3.484, 4, 17.8816, 15.8646, 23.0564, 38.2544, -28.6215, -29.9142
3.488, 4, 17.8815, 15.8646, 23.0564, 38.2544, -28.6215, -29.9142
3.492, 4, 17.8813, 15.8647, 23.0563, 38.2543, -28.6215, -29.9142
3.495, 4, 17.8808, 15.8651, 23.0563, 38.2543, -28.6215, -29.9142
3.5, 4, 17.8799, 15.8658, 23.0561, 38.2541, -28.6216, -29.914
3.504, 4, 17.8784, 15.867, 23.0557, 38.2537, -28.6217, -29.9137
3.508, 4, 17.8763, 15.869, 23.0552, 38.2529, -28.622, -29.913
3.512, 4, 17.8734, 15.8717, 23.0543, 38.2514, -28.6225, -29.9118
3.516, 4, 17.8698, 15.8756, 23.053, 38.2488, -28.6234, -29.9096
3.52, 4, 17.8654, 15.8807, 23.0513, 38.2446, -28.6248, -29.9061
3.524, 5, 17.8602, 15.8872, 23.0489, 38.2383, -28.6268, -29.9008
3.528, 5, 17.8541, 15.8955, 23.0457, 38.2292, -28.6298, -29.8931
3.531, 5, 17.8471, 15.9056, 23.0416, 38.2168, -28.6339, -29.8825
3.536, 5, 17.8389, 15.9177, 23.0363, 38.2002, -28.6393, -29.8684
3.54, 5, 17.8297, 15.9317, 23.0298, 38.1786, -28.6464, -29.8502
3.544, 5, 17.8194, 15.9475, 23.022, 38.1515, -28.6553, -29.8271
3.548, 5, 17.808, 15.9649, 23.0127, 38.118, -28.6663, -29.7986
3.552, 5, 17.7958, 15.9837, 23.0018, 38.0778, -28.6795, -29.7643
3.556, 5, 17.7827, 16.004, 22.9893, 38.0302, -28.6952, -29.7238
3.56, 5, 17.7686, 16.0256, 22.9752, 37.9753, -28.7133, -29.677
3.564, 5, 17.7536, 16.0486, 22.9594, 37.913, -28.7339, -29.6239
3.568, 5, 17.7376, 16.0731, 22.942, 37.8435, -28.7568, -29.5647
3.572, 5, 17.7205, 16.0994, 22.923, 37.7673, -28.7821, -29.4997
3.576, 5, 17.7023, 16.1274, 22.9025, 37.6847, -28.8095, -29.4293
3.58, 5, 17.683, 16.1572, 22.8806, 37.5964, -28.8389, -29.3541
3.584, 5, 17.6627, 16.1888, 22.8575, 37.5031, -28.87, -29.2747
3.587, 5, 17.6415, 16.2222, 22.8333, 37.4055, -28.9026, -29.1916
3.592, 5, 17.6194, 16.2573, 22.8082, 37.3045, -28.9364, -29.1056
3.596, 5, 17.5963, 16.2941, 22.7822, 37.2006, -28.9713, -29.0172
3.6, 5, 17.5722, 16.3324, 22.7556, 37.0946, -29.007, -28.927
3.604, 5, 17.547, 16.372, 22.7285, 36.9871, -29.0434, -28.8356
3.608, 5, 17.5209, 16.4128, 22.7009, 36.8785, -29.0802, -28.7434
3.612, 5, 17.494, 16.4546, 22.6731, 36.7692, -29.1174, -28.6505
3.616, 5, 17.4664, 16.497, 22.645, 36.6595, -29.1548, -28.5574
3.62, 5, 17.4382, 16.5398, 22.6168, 36.5495, -29.1924, -28.4641
3.624, 5, 17.4097, 16.583, 22.5885, 36.4395, -29.2302, -28.3708
3.628, 5, 17.381, 16.6264, 22.5601, 36.3295, -29.2681, -28.2776
3.632, 5, 17.352, 16.6699, 22.5318, 36.2195, -29.3061, -28.1844
3.636, 5, 17.3229, 16.7134, 22.5035, 36.1097, -29.3442, -28.0913
3.64, 5, 17.2938, 16.757, 22.4751, 35.9999, -29.3824, -27.9984
3.644, 5, 17.2645, 16.8005, 22.4468, 35.8904, -29.4207, -27.9057
3.648, 5, 17.2351, 16.8441, 22.4186, 35.7809, -29.459, -27.8131
3.652, 5, 17.2057, 16.8876, 22.3903, 35.6717, -29.4974, -27.7207
3.656, 5, 17.1763, 16.9311, 22.3622, 35.5626, -29.5359, -27.6285
3.66, 5, 17.1467, 16.9745, 22.334, 35.4537, -29.5744, -27.5365
3.664, 5, 17.1172, 17.0179, 22.3059, 35.345, -29.6131, -27.4447
3.668, 5, 17.0875, 17.0612, 22.2778, 35.2365, -29.6517, -27.3531
3.672, 5, 17.0579, 17.1045, 22.2498, 35.1281, -29.6905, -27.2616
3.676, 5, 17.0282, 17.1478, 22.2218, 35.02, -29.7293, -27.1704
3.679, 5, 16.9985, 17.191, 22.1939, 34.912, -29.7681, -27.0793
3.684, 5, 16.9687, 17.2341, 22.166, 34.8042, -29.8071, -26.9884
3.688, 5, 16.9388, 17.2772, 22.1382, 34.6966, -29.8461, -26.8978
3.692, 5, 16.909, 17.3203, 22.1104, 34.5891, -29.8851, -26.8073
3.696, 5, 16.8791, 17.3633, 22.0826, 34.4819, -29.9243, -26.717
3.7, 5, 16.8491, 17.4062, 22.0549, 34.3748, -29.9634, -26.6269
3.704, 5, 16.8191, 17.4491, 22.0272, 34.268, -30.0027, -26.537
3.708, 5, 16.7891, 17.492, 21.9996, 34.1613, -30.042, -26.4472
3.712, 5, 16.759, 17.5348, 21.9721, 34.0547, -30.0814, -26.3577
3.716, 5, 16.7289, 17.5775, 21.9445, 33.9484, -30.1208, -26.2684
3.72, 5, 16.6988, 17.6202, 21.9171, 33.8422, -30.1603, -26.1792
3.724, 5, 16.6686, 17.6628, 21.8896, 33.7363, -30.1999, -26.0902
3.728, 5, 16.6384, 17.7054, 21.8622, 33.6305, -30.2395, -26.0014
3.732, 5, 16.6081, 17.748, 21.8349, 33.5249, -30.2792, -25.9129
3.735, 5, 16.5778, 17.7904, 21.8076, 33.4194, -30.319, -25.8244
3.74, 5, 16.5474, 17.8329, 21.7804, 33.3142, -30.3588, -25.7362
3.744, 5, 16.517, 17.8752, 21.7532, 33.2091, -30.3987, -25.6482
3.748, 5, 16.4866, 17.9176, 21.726, 33.1042, -30.4386, -25.5603
3.752, 5, 16.4562, 17.9598, 21.6989, 32.9995, -30.4786, -25.4727
3.756, 5, 16.4257, 18.0021, 21.6719, 32.895, -30.5187, -25.3852
3.76, 5, 16.3951, 18.0442, 21.6449, 32.7906, -30.5589, -25.2979
3.764, 5, 16.3645, 18.0863, 21.6179, 32.6865, -30.5991, -25.2108
3.768, 5, 16.3339, 18.1284, 21.591, 32.5825, -30.6393, -25.1239
3.772, 5, 16.3033, 18.1704, 21.5641, 32.4786, -30.6796, -25.0371
3.776, 5, 16.2726, 18.2124, 21.5373, 32.375, -30.72, -24.9506
3.78, 5, 16.2418, 18.2543, 21.5106, 32.2715, -30.7605, -24.8642
3.784, 5, 16.2111, 18.2961, 21.4839, 32.1683, -30.801, -24.778
3.788, 5, 16.1803, 18.3379, 21.4572, 32.0652, -30.8416, -24.692
3.792, 5, 16.1494, 18.3797, 21.4306, 31.9622, -30.8822, -24.6061
3.796, 5, 16.1185, 18.4214, 21.404, 31.8595, -30.923, -24.5205
3.8, 5, 16.0876, 18.463, 21.3775, 31.7569, -30.9637, -24.435
3.804, 5, 16.0567, 18.5046, 21.351, 31.6545, -31.0046, -24.3497
3.808, 5, 16.0257, 18.5461, 21.3246, 31.5523, -31.0455, -24.2646
3.812, 5, 15.9946, 18.5876, 21.2983, 31.4502, -31.0864, -24.1797
3.816, 5, 15.9636, 18.6291, 21.272, 31.3483, -31.1275, -24.095
3.82, 5, 15.9325, 18.6704, 21.2457, 31.2466, -31.1685, -24.0104
3.824, 5, 15.9013, 18.7118, 21.2195, 31.1451, -31.2097, -23.926
3.828, 5, 15.8702, 18.753, 21.1933, 31.0438, -31.2509, -23.8418
3.832, 5, 15.8389, 18.7942, 21.1672, 30.9426, -31.2922, -23.7578
3.836, 5, 15.8077, 18.8354, 21.1412, 30.8416, -31.3335, -23.6739
3.84, 5, 15.7764, 18.8765, 21.1152, 30.7408, -31.3749, -23.5902
3.844, 5, 15.7451, 18.9176, 21.0892, 30.6401, -31.4164, -23.5067
3.848, 5, 15.7137, 18.9586, 21.0633, 30.5396, -31.4579, -23.4234
3.852, 5, 15.6823, 18.9995, 21.0374, 30.4393, -31.4995, -23.3403
3.856, 5, 15.6509, 19.0405, 21.0116, 30.3392, -31.5412, -23.2573
3.86, 5, 15.6194, 19.0813, 20.9859, 30.2392, -31.5829, -23.1745
3.864, 5, 15.5879, 19.1221, 20.9602, 30.1394, -31.6247, -23.0919
3.868, 5, 15.5564, 19.1628, 20.9346, 30.0398, -31.6665, -23.0094
3.872, 5, 15.5248, 19.2035, 20.909, 29.9403, -31.7084, -22.9272
3.876, 5, 15.4932, 19.2442, 20.8834, 29.8411, -31.7504, -22.8451
3.88, 5, 15.4616, 19.2847, 20.8579, 29.7419, -31.7925, -22.7632
3.884, 5, 15.4299, 19.3253, 20.8325, 29.643, -31.8346, -22.6814
3.888, 5, 15.3982, 19.3658, 20.8071, 29.5442, -31.8767, -22.5998
3.892, 5, 15.3664, 19.4062, 20.7818, 29.4456, -31.9189, -22.5184
3.896, 5, 15.3347, 19.4465, 20.7565, 29.3472, -31.9612, -22.4372
3.9, 5, 15.3029, 19.4869, 20.7313, 29.2489, -32.0036, -22.3561
3.904, 5, 15.271, 19.5271, 20.7061, 29.1509, -32.046, -22.2752
3.908, 5, 15.2391, 19.5673, 20.681, 29.0529, -32.0885, -22.1945
3.912, 5, 15.2072, 19.6075, 20.6559, 28.9552, -32.131, -22.114
3.916, 5, 15.1753, 19.6476, 20.6309, 28.8576, -32.1736, -22.0336
3.92, 5, 15.1433, 19.6877, 20.606, 28.7602, -32.2163, -21.9534
3.924, 5, 15.1112, 19.7276, 20.5811, 28.6629, -32.259, -21.8734
3.928, 5, 15.0792, 19.7676, 20.5562, 28.5658, -32.3018, -21.7935
3.932, 5, 15.0471, 19.8075, 20.5314, 28.4689, -32.3446, -21.7138
3.936, 5, 15.015, 19.8473, 20.5067, 28.3722, -32.3875, -21.6343
3.94, 5, 14.9828, 19.8871, 20.482, 28.2756, -32.4305, -21.5549
3.944, 5, 14.9506, 19.9268, 20.4574, 28.1792, -32.4735, -21.4757
3.948, 5, 14.9184, 19.9665, 20.4328, 28.0829, -32.5166, -21.3967
3.952, 5, 14.8862, 20.0061, 20.4083, 27.9868, -32.5598, -21.3179
3.956, 5, 14.8539, 20.0457, 20.3838, 27.8909, -32.603, -21.2392
3.96, 5, 14.8216, 20.0852, 20.3594, 27.7952, -32.6463, -21.1607
3.964, 5, 14.7892, 20.1247, 20.335, 27.6996, -32.6896, -21.0823
3.968, 5, 14.7568, 20.1641, 20.3107, 27.6041, -32.7331, -21.0041
3.972, 5, 14.7244, 20.2035, 20.2865, 27.5089, -32.7765, -20.9261
3.976, 5, 14.692, 20.2428, 20.2623, 27.4138, -32.8201, -20.8482
3.98, 5, 14.6595, 20.282, 20.2381, 27.3188, -32.8637, -20.7705
3.984, 5, 14.627, 20.3212, 20.214, 27.2241, -32.9073, -20.693
3.988, 5, 14.5944, 20.3604, 20.19, 27.1295, -32.951, -20.6156
3.992, 5, 14.5619, 20.3995, 20.166, 27.035, -32.9948, -20.5384
3.996, 5, 14.5293, 20.4385, 20.1421, 26.9407, -33.0386, -20.4614
3.999, 5, 14.4966, 20.4775, 20.1182, 26.8466, -33.0825, -20.3845
4.004, 5, 14.4639, 20.5164, 20.0944, 26.7526, -33.1265, -20.3078
4.008, 5, 14.4312, 20.5553, 20.0707, 26.6588, -33.1705, -20.2313
4.012, 5, 14.3985, 20.5942, 20.047, 26.5652, -33.2146, -20.1549
4.016, 5, 14.3657, 20.6329, 20.0233, 26.4717, -33.2588, -20.0786
4.02, 5, 14.3329, 20.6716, 19.9997, 26.3784, -33.303, -20.0026
4.024, 5, 14.3001, 20.7103, 19.9762, 26.2853, -33.3472, -19.9267
4.028, 5, 14.2672, 20.7489, 19.9527, 26.1923, -33.3916, -19.8509
4.032, 5, 14.2343, 20.7875, 19.9293, 26.0994, -33.436, -19.7753
4.036, 5, 14.2014, 20.826, 19.9059, 26.0067, -33.4804, -19.6999
4.04, 5, 14.1685, 20.8645, 19.8826, 25.9142, -33.5249, -19.6246
4.044, 5, 14.1355, 20.9029, 19.8593, 25.8219, -33.5695, -19.5495
4.048, 5, 14.1025, 20.9412, 19.8361, 25.7297, -33.6142, -19.4746
4.052, 5, 14.0694, 20.9795, 19.813, 25.6376, -33.6589, -19.3998
4.056, 5, 14.0363, 21.0178, 19.7899, 25.5457, -33.7036, -19.3252
4.06, 5, 14.0032, 21.056, 19.7669, 25.454, -33.7484, -19.2507
4.064, 5, 13.9701, 21.0941, 19.7439, 25.3624, -33.7933, -19.1764
4.068, 5, 13.9369, 21.1322, 19.721, 25.271, -33.8383, -19.1022
4.072, 5, 13.9037, 21.1702, 19.6981, 25.1797, -33.8833, -19.0282
4.076, 5, 13.8705, 21.2082, 19.6753, 25.0886, -33.9283, -18.9544
4.08, 5, 13.8372, 21.2462, 19.6525, 24.9977, -33.9735, -18.8807
4.084, 5, 13.8039, 21.284, 19.6298, 24.9069, -34.0187, -18.8071
4.088, 5, 13.7706, 21.3219, 19.6072, 24.8163, -34.0639, -18.7338
4.092, 5, 13.7373, 21.3596, 19.5846, 24.7258, -34.1092, -18.6605
4.096, 5, 13.7039, 21.3973, 19.5621, 24.6355, -34.1546, -18.5875
4.1, 5, 13.6705, 21.435, 19.5396, 24.5453, -34.2001, -18.5145
4.104, 5, 13.637, 21.4726, 19.5172, 24.4553, -34.2456, -18.4418
4.108, 5, 13.6036, 21.5102, 19.4949, 24.3654, -34.2911, -18.3692
4.112, 5, 13.5701, 21.5477, 19.4726, 24.2757, -34.3368, -18.2967
4.116, 5, 13.5366, 21.5852, 19.4504, 24.1861, -34.3824, -18.2244
4.12, 5, 13.503, 21.6226, 19.4282, 24.0967, -34.4282, -18.1522
4.124, 5, 13.4694, 21.6599, 19.4061, 24.0075, -34.474, -18.0802
4.128, 5, 13.4358, 21.6972, 19.384, 23.9184, -34.5199, -18.0084
4.132, 5, 13.4022, 21.7344, 19.362, 23.8295, -34.5658, -17.9367
4.136, 5, 13.3685, 21.7716, 19.3401, 23.7407, -34.6118, -17.8652
4.14, 5, 13.3348, 21.8088, 19.3182, 23.652, -34.6579, -17.7938
4.144, 5, 13.3011, 21.8458, 19.2964, 23.5636, -34.704, -17.7225
4.148, 5, 13.2673, 21.8829, 19.2746, 23.4752, -34.7502, -17.6514
4.152, 5, 13.2335, 21.9198, 19.2529, 23.387, -34.7964, -17.5805
4.156, 5, 13.1997, 21.9568, 19.2313, 23.299, -34.8427, -17.5097
4.16, 5, 13.1659, 21.9936, 19.2097, 23.2111, -34.8891, -17.4391
4.164, 5, 13.132, 22.0305, 19.1882, 23.1234, -34.9355, -17.3686
4.168, 5, 13.0981, 22.0672, 19.1667, 23.0358, -34.982, -17.2982
4.172, 5, 13.0642, 22.1039, 19.1453, 22.9484, -35.0286, -17.2281
4.176, 5, 13.0302, 22.1406, 19.1239, 22.8611, -35.0752, -17.158
4.18, 5, 12.9962, 22.1772, 19.1027, 22.774, -35.1218, -17.0881
4.184, 5, 12.9622, 22.2137, 19.0814, 22.6871, -35.1686, -17.0184
4.188, 5, 12.9282, 22.2502, 19.0603, 22.6002, -35.2154, -16.9488
4.192, 5, 12.8941, 22.2867, 19.0392, 22.5136, -35.2622, -16.8793
4.196, 5, 12.8601, 22.3231, 19.0181, 22.427, -35.3092, -16.81
4.2, 5, 12.8259, 22.3594, 18.9972, 22.3407, -35.3562, -16.7409
4.204, 5, 12.7918, 22.3957, 18.9762, 22.2544, -35.4032, -16.6719
4.208, 5, 12.7576, 22.4319, 18.9554, 22.1684, -35.4503, -16.603
4.212, 5, 12.7234, 22.4681, 18.9346, 22.0824, -35.4975, -16.5343
4.216, 5, 12.6892, 22.5042, 18.9139, 21.9967, -35.5447, -16.4657
4.22, 5, 12.655, 22.5403, 18.8932, 21.911, -35.592, -16.3973
4.224, 5, 12.6207, 22.5763, 18.8726, 21.8256, -35.6394, -16.329
4.228, 5, 12.5864, 22.6122, 18.852, 21.7402, -35.6868, -16.2609
4.232, 5, 12.5521, 22.6481, 18.8316, 21.655, -35.7343, -16.1929
4.236, 5, 12.5177, 22.684, 18.8111, 21.57, -35.7818, -16.125
4.24, 5, 12.4833, 22.7198, 18.7908, 21.4851, -35.8294, -16.0573
4.244, 5, 12.4489, 22.7555, 18.7705, 21.4003, -35.8771, -15.9898
4.248, 5, 12.4145, 22.7912, 18.7503, 21.3158, -35.9248, -15.9224
4.252, 5, 12.3801, 22.8269, 18.7301, 21.2313, -35.9726, -15.8551
4.256, 5, 12.3456, 22.8624, 18.71, 21.147, -36.0204, -15.788
4.26, 5, 12.3111, 22.898, 18.6899, 21.0628, -36.0683, -15.721
4.264, 5, 12.2765, 22.9334, 18.6699, 20.9788, -36.1163, -15.6542
4.268, 5, 12.242, 22.9689, 18.65, 20.8949, -36.1643, -15.5875
4.272, 5, 12.2074, 23.0042, 18.6302, 20.8112, -36.2124, -15.5209
4.276, 5, 12.1728, 23.0395, 18.6104, 20.7276, -36.2606, -15.4545
4.28, 5, 12.1382, 23.0748, 18.5906, 20.6442, -36.3088, -15.3882
4.284, 5, 12.1035, 23.11, 18.571, 20.5609, -36.3571, -15.3221
4.288, 5, 12.0688, 23.1452, 18.5514, 20.4778, -36.4054, -15.2561
4.292, 5, 12.0341, 23.1803, 18.5318, 20.3948, -36.4538, -15.1903
4.296, 5, 11.9994, 23.2153, 18.5124, 20.3119, -36.5023, -15.1246
4.3, 5, 11.9646, 23.2503, 18.4929, 20.2292, -36.5508, -15.059
4.304, 5, 11.9299, 23.2852, 18.4736, 20.1466, -36.5994, -14.9936
4.308, 5, 11.8951, 23.3201, 18.4543, 20.0642, -36.648, -14.9283
4.312, 5, 11.8602, 23.3549, 18.4351, 19.9819, -36.6967, -14.8631
4.316, 5, 11.8254, 23.3897, 18.4159, 19.8998, -36.7455, -14.7981
4.32, 5, 11.7905, 23.4244, 18.3968, 19.8178, -36.7943, -14.7333
4.324, 5, 11.7556, 23.4591, 18.3778, 19.7359, -36.8432, -14.6685
4.328, 5, 11.7207, 23.4937, 18.3588, 19.6542, -36.8921, -14.6039
4.332, 5, 11.6858, 23.5283, 18.3399, 19.5727, -36.9412, -14.5395
4.336, 5, 11.6508, 23.5628, 18.3211, 19.4912, -36.9902, -14.4752
4.34, 5, 11.6158, 23.5972, 18.3023, 19.41, -37.0394, -14.411
4.344, 5, 11.5808, 23.6316, 18.2836, 19.3288, -37.0886, -14.3469
4.348, 5, 11.5457, 23.666, 18.265, 19.2478, -37.1378, -14.283
4.352, 5, 11.5107, 23.7003, 18.2464, 19.1669, -37.1871, -14.2193
4.356, 5, 11.4756, 23.7345, 18.2279, 19.0862, -37.2365, -14.1556
4.36, 5, 11.4405, 23.7687, 18.2095, 19.0056, -37.2859, -14.0922
4.364, 5, 11.4053, 23.8028, 18.1911, 18.9252, -37.3354, -14.0288
4.368, 5, 11.3702, 23.8369, 18.1728, 18.8449, -37.385, -13.9656
4.372, 5, 11.335, 23.8709, 18.1545, 18.7647, -37.4346, -13.9025
4.376, 5, 11.2998, 23.9049, 18.1363, 18.6847, -37.4843, -13.8395
4.38, 5, 11.2646, 23.9388, 18.1182, 18.6048, -37.534, -13.7767
4.384, 5, 11.2293, 23.9727, 18.1001, 18.5251, -37.5838, -13.714
4.388, 5, 11.1941, 24.0065, 18.0821, 18.4455, -37.6337, -13.6515
4.392, 5, 11.1588, 24.0402, 18.0642, 18.366, -37.6836, -13.5891
4.396, 5, 11.1235, 24.0739, 18.0464, 18.2867, -37.7336, -13.5268
4.4, 5, 11.0881, 24.1076, 18.0286, 18.2075, -37.7837, -13.4647
4.404, 5, 11.0528, 24.1412, 18.0108, 18.1285, -37.8338, -13.4027
4.408, 5, 11.0174, 24.1747, 17.9932, 18.0496, -37.8839, -13.3408
4.412, 5, 10.982, 24.2082, 17.9756, 17.9708, -37.9342, -13.279
4.416, 5, 10.9466, 24.2416, 17.958, 17.8922, -37.9844, -13.2174
4.42, 5, 10.9111, 24.275, 17.9406, 17.8137, -38.0348, -13.156
4.424, 5, 10.8757, 24.3084, 17.9232, 17.7353, -38.0852, -13.0946
4.428, 5, 10.8402, 24.3416, 17.9058, 17.6571, -38.1357, -13.0334
4.432, 5, 10.8047, 24.3748, 17.8886, 17.579, -38.1862, -12.9723
4.436, 5, 10.7691, 24.408, 17.8714, 17.5011, -38.2368, -12.9114
4.44, 5, 10.7336, 24.4411, 17.8542, 17.4233, -38.2874, -12.8505
4.444, 5, 10.698, 24.4742, 17.8372, 17.3456, -38.3381, -12.7899
4.448, 5, 10.6624, 24.5072, 17.8202, 17.268, -38.3889, -12.7293
4.452, 5, 10.6268, 24.5401, 17.8032, 17.1906, -38.4397, -12.6689
4.456, 5, 10.5912, 24.573, 17.7863, 17.1134, -38.4906, -12.6086
4.46, 5, 10.5555, 24.6059, 17.7695, 17.0362, -38.5416, -12.5484
4.464, 5, 10.5198, 24.6387, 17.7528, 16.9592, -38.5926, -12.4884
4.468, 5, 10.4841, 24.6714, 17.7361, 16.8824, -38.6436, -12.4285
4.472, 5, 10.4484, 24.7041, 17.7195, 16.8056, -38.6948, -12.3687
4.476, 5, 10.4127, 24.7367, 17.703, 16.7291, -38.7459, -12.309
4.48, 5, 10.3769, 24.7693, 17.6865, 16.6526, -38.7972, -12.2495
4.484, 5, 10.3411, 24.8018, 17.6701, 16.5763, -38.8485, -12.1901
4.488, 5, 10.3053, 24.8343, 17.6538, 16.5001, -38.8999, -12.1309
4.492, 5, 10.2695, 24.8667, 17.6375, 16.424, -38.9513, -12.0717
4.496, 5, 10.2336, 24.8991, 17.6213, 16.3481, -39.0028, -12.0127
4.5, 5, 10.1978, 24.9314, 17.6051, 16.2723, -39.0543, -11.9539
4.504, 5, 10.1619, 24.9636, 17.5891, 16.1967, -39.1059, -11.8951
4.508, 5, 10.126, 24.9958, 17.5731, 16.1211, -39.1576, -11.8365
4.512, 5, 10.0901, 25.028, 17.5571, 16.0457, -39.2093, -11.778
4.516, 5, 10.0541, 25.0601, 17.5413, 15.9705, -39.2611, -11.7196
4.52, 5, 10.0181, 25.0921, 17.5254, 15.8953, -39.313, -11.6614
4.524, 5, 9.98215, 25.1241, 17.5097, 15.8204, -39.3649, -11.6033
4.528, 5, 9.94615, 25.156, 17.494, 15.7455, -39.4169, -11.5453
4.532, 5, 9.91012, 25.1879, 17.4784, 15.6708, -39.4689, -11.4874
4.536, 5, 9.87407, 25.2198, 17.4629, 15.5962, -39.521, -11.4297
4.54, 5, 9.83801, 25.2515, 17.4475, 15.5217, -39.5732, -11.3721
4.544, 5, 9.80192, 25.2833, 17.4321, 15.4473, -39.6254, -11.3146
4.548, 5, 9.76581, 25.3149, 17.4167, 15.3731, -39.6777, -11.2572
4.552, 5, 9.72969, 25.3466, 17.4015, 15.2991, -39.73, -11.2
4.556, 5, 9.69354, 25.3781, 17.3863, 15.2251, -39.7824, -11.1429
4.56, 5, 9.65738, 25.4096, 17.3712, 15.1513, -39.8349, -11.0859
4.564, 5, 9.62119, 25.4411, 17.3561, 15.0776, -39.8874, -11.029
4.568, 5, 9.58499, 25.4725, 17.3411, 15.004, -39.94, -10.9723
4.572, 5, 9.54877, 25.5038, 17.3262, 14.9306, -39.9926, -10.9156
4.576, 5, 9.51253, 25.5351, 17.3114, 14.8573, -40.0453, -10.8591
4.58, 5, 9.47627, 25.5664, 17.2966, 14.7841, -40.0981, -10.8028
4.584, 5, 9.43999, 25.5976, 17.2819, 14.7111, -40.1509, -10.7465
4.588, 5, 9.40369, 25.6287, 17.2672, 14.6382, -40.2038, -10.6904
4.592, 5, 9.36738, 25.6598, 17.2527, 14.5654, -40.2567, -10.6344
4.596, 5, 9.33104, 25.6908, 17.2382, 14.4927, -40.3097, -10.5785
4.6, 5, 9.29469, 25.7218, 17.2237, 14.4202, -40.3628, -10.5227
4.604, 5, 9.25832, 25.7527, 17.2094, 14.3478, -40.4159, -10.4671
4.608, 5, 9.22193, 25.7836, 17.1951, 14.2755, -40.4691, -10.4115
4.612, 5, 9.18553, 25.8144, 17.1809, 14.2034, -40.5224, -10.3561
4.616, 5, 9.1491, 25.8452, 17.1667, 14.1313, -40.5757, -10.3009
4.62, 5, 9.11266, 25.8759, 17.1526, 14.0594, -40.629, -10.2457
4.624, 5, 9.0762, 25.9065, 17.1386, 13.9877, -40.6824, -10.1906
4.628, 5, 9.03972, 25.9372, 17.1247, 13.916, -40.7359, -10.1357
4.632, 5, 9.00323, 25.9677, 17.1108, 13.8445, -40.7895, -10.0809
4.636, 5, 8.96672, 25.9982, 17.097, 13.7731, -40.8431, -10.0262
4.64, 5, 8.93019, 26.0286, 17.0833, 13.7018, -40.8967, -9.97167
4.644, 5, 8.89364, 26.059, 17.0696, 13.6307, -40.9505, -9.91722
4.648, 5, 8.85708, 26.0894, 17.056, 13.5597, -41.0043, -9.86289
4.652, 5, 8.8205, 26.1197, 17.0425, 13.4888, -41.0581, -9.80868
4.656, 5, 8.7839, 26.1499, 17.0291, 13.418, -41.112, -9.75458
4.66, 5, 8.74729, 26.1801, 17.0157, 13.3474, -41.166, -9.70061
4.664, 5, 8.71066, 26.2102, 17.0024, 13.2769, -41.22, -9.64675
4.668, 5, 8.67401, 26.2403, 16.9891, 13.2065, -41.2741, -9.59301
4.672, 5, 8.63735, 26.2703, 16.976, 13.1362, -41.3282, -9.53939
4.676, 5, 8.60067, 26.3003, 16.9629, 13.066, -41.3824, -9.48588
4.68, 5, 8.56397, 26.3302, 16.9498, 12.996, -41.4367, -9.43249
4.684, 5, 8.52726, 26.36, 16.9369, 12.9261, -41.491, -9.37922
4.688, 5, 8.49053, 26.3898, 16.924, 12.8563, -41.5454, -9.32606
4.692, 5, 8.45378, 26.4196, 16.9112, 12.7867, -41.5998, -9.27302
4.696, 5, 8.41702, 26.4493, 16.8985, 12.7172, -41.6543, -9.2201
4.7, 5, 8.38025, 26.479, 16.8858, 12.6477, -41.7089, -9.16729
4.704, 5, 8.34345, 26.5085, 16.8732, 12.5785, -41.7635, -9.1146
4.708, 5, 8.30664, 26.5381, 16.8607, 12.5093, -41.8182, -9.06202
4.712, 5, 8.26982, 26.5676, 16.8482, 12.4402, -41.8729, -9.00956
4.716, 5, 8.23298, 26.597, 16.8358, 12.3713, -41.9277, -8.95721
4.72, 5, 8.19613, 26.6264, 16.8235, 12.3025, -41.9826, -8.90497
4.724, 5, 8.15926, 26.6557, 16.8113, 12.2338, -42.0375, -8.85286
4.728, 5, 8.12237, 26.685, 16.7991, 12.1653, -42.0924, -8.80085
4.732, 5, 8.08547, 26.7142, 16.787, 12.0969, -42.1475, -8.74896
4.736, 5, 8.04856, 26.7434, 16.775, 12.0285, -42.2026, -8.69718
4.74, 5, 8.01163, 26.7725, 16.763, 11.9603, -42.2577, -8.64552
4.744, 5, 7.97468, 26.8016, 16.7512, 11.8923, -42.3129, -8.59397
4.748, 5, 7.93773, 26.8306, 16.7393, 11.8243, -42.3682, -8.54253
4.752, 5, 7.90075, 26.8596, 16.7276, 11.7565, -42.4235, -8.49121
4.756, 5, 7.86376, 26.8885, 16.7159, 11.6888, -42.4789, -8.44
4.76, 5, 7.82676, 26.9173, 16.7044, 11.6212, -42.5343, -8.3889
4.764, 5, 7.78974, 26.9461, 16.6928, 11.5537, -42.5899, -8.33791
4.768, 5, 7.75271, 26.9749, 16.6814, 11.4864, -42.6454, -8.28704
4.772, 5, 7.71566, 27.0036, 16.67, 11.4191, -42.701, -8.23628
4.776, 5, 7.6786, 27.0322, 16.6587, 11.352, -42.7567, -8.18563
4.78, 5, 7.64153, 27.0608, 16.6475, 11.285, -42.8124, -8.13509
4.784, 5, 7.60444, 27.0893, 16.6363, 11.2181, -42.8682, -8.08467
4.788, 5, 7.56733, 27.1178, 16.6252, 11.1514, -42.9241, -8.03435
4.792, 5, 7.53022, 27.1462, 16.6142, 11.0847, -42.98, -7.98415
4.796, 5, 7.49309, 27.1746, 16.6033, 11.0182, -43.036, -7.93405
4.8, 5, 7.45594, 27.2029, 16.5924, 10.9518, -43.092, -7.88407
4.804, 5, 7.41878, 27.2312, 16.5816, 10.8855, -43.1481, -7.8342
4.808, 5, 7.38161, 27.2594, 16.5709, 10.8194, -43.2043, -7.78444
4.812, 5, 7.34443, 27.2876, 16.5603, 10.7533, -43.2605, -7.73479
4.816, 5, 7.30723, 27.3157, 16.5497, 10.6874, -43.3167, -7.68525
4.82, 5, 7.27002, 27.3438, 16.5392, 10.6216, -43.3731, -7.63582
4.824, 5, 7.23279, 27.3718, 16.5288, 10.5559, -43.4294, -7.58649
4.828, 5, 7.19555, 27.3997, 16.5184, 10.4903, -43.4859, -7.53728
4.832, 5, 7.1583, 27.4276, 16.5081, 10.4248, -43.5424, -7.48818
4.836, 5, 7.12104, 27.4555, 16.4979, 10.3595, -43.5989, -7.43919
4.84, 5, 7.08376, 27.4832, 16.4878, 10.2942, -43.6555, -7.3903
4.844, 5, 7.04647, 27.511, 16.4777, 10.2291, -43.7122, -7.34153
4.848, 5, 7.00916, 27.5387, 16.4678, 10.1641, -43.7689, -7.29286
4.852, 5, 6.97185, 27.5663, 16.4578, 10.0992, -43.8257, -7.2443
4.856, 5, 6.93452, 27.5939, 16.448, 10.0345, -43.8826, -7.19585
4.86, 5, 6.89718, 27.6214, 16.4382, 9.96982, -43.9395, -7.14751
4.864, 5, 6.85982, 27.6489, 16.4285, 9.90529, -43.9965, -7.09927
4.868, 5, 6.82246, 27.6763, 16.4189, 9.84087, -44.0535, -7.05115
4.872, 5, 6.78508, 27.7037, 16.4094, 9.77657, -44.1106, -7.00313
4.876, 5, 6.74769, 27.731, 16.3999, 9.71238, -44.1677, -6.95521
4.88, 5, 6.71029, 27.7583, 16.3905, 9.64831, -44.2249, -6.90741
4.884, 5, 6.67287, 27.7855, 16.3812, 9.58435, -44.2821, -6.85971
4.888, 5, 6.63544, 27.8127, 16.372, 9.5205, -44.3395, -6.81212
4.892, 5, 6.598, 27.8398, 16.3628, 9.45677, -44.3968, -6.76464
4.896, 5, 6.56055, 27.8668, 16.3537, 9.39316, -44.4542, -6.71726
4.9, 5, 6.52309, 27.8938, 16.3447, 9.32966, -44.5117, -6.66999
4.904, 5, 6.48561, 27.9208, 16.3357, 9.26627, -44.5693, -6.62283
4.908, 5, 6.44812, 27.9477, 16.3268, 9.203, -44.6269, -6.57577
4.912, 5, 6.41063, 27.9745, 16.318, 9.13984, -44.6845, -6.52882
4.916, 5, 6.37311, 28.0013, 16.3093, 9.0768, -44.7423, -6.48197
4.92, 5, 6.33559, 28.028, 16.3006, 9.01387, -44.8, -6.43523
4.924, 5, 6.29806, 28.0547, 16.2921, 8.95105, -44.8579, -6.38859
4.928, 5, 6.26051, 28.0814, 16.2836, 8.88835, -44.9157, -6.34206
4.932, 5, 6.22296, 28.1079, 16.2751, 8.82576, -44.9737, -6.29564
4.936, 5, 6.18539, 28.1345, 16.2668, 8.76328, -45.0317, -6.24932
4.94, 5, 6.14781, 28.1609, 16.2585, 8.70091, -45.0898, -6.2031
4.944, 5, 6.11022, 28.1874, 16.2503, 8.63866, -45.1479, -6.15699
4.95, 5, 6.07262, 28.2137, 16.2422, 8.57652, -45.2061, -6.11099
4.952, 5, 6.03501, 28.24, 16.2341, 8.51449, -45.2643, -6.06509
4.956, 5, 5.99738, 28.2663, 16.2261, 8.45258, -45.3226, -6.01929
4.96, 5, 5.95975, 28.2925, 16.2182, 8.39078, -45.3809, -5.9736
4.964, 5, 5.9221, 28.3187, 16.2104, 8.32909, -45.4393, -5.92801
4.968, 5, 5.88445, 28.3448, 16.2026, 8.26751, -45.4978, -5.88252
4.972, 5, 5.84678, 28.3708, 16.195, 8.20604, -45.5563, -5.83714
4.976, 5, 5.8091, 28.3968, 16.1874, 8.14469, -45.6149, -5.79186
4.98, 5, 5.77141, 28.4228, 16.1798, 8.08344, -45.6735, -5.74669
4.984, 5, 5.73371, 28.4487, 16.1724, 8.02231, -45.7322, -5.70162
4.988, 5, 5.696, 28.4745, 16.165, 7.96129, -45.791, -5.65665
4.992, 5, 5.65828, 28.5003, 16.1577, 7.90038, -45.8498, -5.61178
4.996, 5, 5.62055, 28.526, 16.1505, 7.83958, -45.9087, -5.56702
5, 5, 5.58281, 28.5517, 16.1433, 7.77889, -45.9676, -5.52236
5.004, 5, 5.54505, 28.5774, 16.1362, 7.71832, -46.0266, -5.4778
5.008, 5, 5.50729, 28.6029, 16.1292, 7.65785, -46.0856, -5.43335
5.012, 5, 5.46951, 28.6285, 16.1223, 7.59749, -46.1447, -5.38899
5.016, 5, 5.43173, 28.6539, 16.1155, 7.53725, -46.2039, -5.34474
5.02, 5, 5.39394, 28.6794, 16.1087, 7.47711, -46.2631, -5.30059
5.024, 5, 5.35613, 28.7047, 16.102, 7.41708, -46.3224, -5.25654
5.028, 5, 5.31832, 28.73, 16.0954, 7.35716, -46.3817, -5.21259
5.032, 5, 5.2805, 28.7553, 16.0888, 7.29736, -46.4411, -5.16874
5.036, 5, 5.24266, 28.7805, 16.0824, 7.23766, -46.5005, -5.125
5.04, 5, 5.20482, 28.8057, 16.076, 7.17806, -46.56, -5.08135
5.044, 5, 5.16697, 28.8308, 16.0697, 7.11858, -46.6196, -5.03781
5.048, 5, 5.12911, 28.8558, 16.0634, 7.05921, -46.6792, -4.99436
5.052, 5, 5.09124, 28.8808, 16.0573, 6.99994, -46.7389, -4.95101
5.056, 5, 5.05336, 28.9058, 16.0512, 6.94078, -46.7986, -4.90777
5.06, 5, 5.01547, 28.9307, 16.0452, 6.88173, -46.8584, -4.86462
5.064, 5, 4.97757, 28.9555, 16.0393, 6.82278, -46.9183, -4.82157
5.068, 5, 4.93966, 28.9803, 16.0334, 6.76394, -46.9782, -4.77862
5.072, 5, 4.90174, 29.005, 16.0276, 6.70521, -47.0382, -4.73577
5.076, 5, 4.86381, 29.0297, 16.0219, 6.64659, -47.0982, -4.69302
5.08, 5, 4.82587, 29.0544, 16.0163, 6.58807, -47.1583, -4.65036
5.084, 5, 4.78793, 29.079, 16.0108, 6.52966, -47.2184, -4.6078
5.088, 5, 4.74997, 29.1035, 16.0053, 6.47135, -47.2786, -4.56534
5.092, 5, 4.71201, 29.128, 15.9999, 6.41315, -47.3389, -4.52298
5.096, 5, 4.67404, 29.1524, 15.9946, 6.35505, -47.3992, -4.48072
5.1, 5, 4.63606, 29.1768, 15.9893, 6.29706, -47.4595, -4.43855
5.104, 5, 4.59807, 29.2011, 15.9842, 6.23917, -47.52, -4.39648
5.108, 5, 4.56007, 29.2254, 15.9791, 6.18139, -47.5805, -4.35451
5.112, 5, 4.52206, 29.2496, 15.9741, 6.12372, -47.641, -4.31263
5.116, 5, 4.48405, 29.2738, 15.9691, 6.06614, -47.7016, -4.27085
5.12, 5, 4.44603, 29.2979, 15.9643, 6.00867, -47.7622, -4.22917
5.124, 5, 4.408, 29.3219, 15.9595, 5.95131, -47.823, -4.18758
5.128, 5, 4.36996, 29.3459, 15.9548, 5.89405, -47.8837, -4.14608
5.132, 5, 4.33191, 29.3699, 15.9502, 5.83689, -47.9445, -4.10469
5.136, 5, 4.29386, 29.3938, 15.9456, 5.77984, -48.0054, -4.06338
5.14, 5, 4.25579, 29.4177, 15.9412, 5.72289, -48.0664, -4.02218
5.144, 5, 4.21772, 29.4415, 15.9368, 5.66604, -48.1274, -3.98106
5.148, 5, 4.17965, 29.4653, 15.9324, 5.60929, -48.1884, -3.94005
5.152, 5, 4.14156, 29.489, 15.9282, 5.55265, -48.2495, -3.89912
5.156, 5, 4.10347, 29.5126, 15.924, 5.49611, -48.3107, -3.85829
5.16, 5, 4.06537, 29.5362, 15.9199, 5.43967, -48.3719, -3.81756
5.164, 5, 4.02727, 29.5598, 15.9159, 5.38333, -48.4332, -3.77692
5.168, 5, 3.98915, 29.5833, 15.912, 5.32709, -48.4945, -3.73637
5.172, 5, 3.95103, 29.6067, 15.9081, 5.27096, -48.5559, -3.69592
5.176, 5, 3.91291, 29.6301, 15.9044, 5.21493, -48.6173, -3.65556
5.18, 5, 3.87477, 29.6535, 15.9007, 5.15899, -48.6788, -3.61529
5.184, 5, 3.83663, 29.6768, 15.897, 5.10316, -48.7404, -3.57511
5.188, 5, 3.79848, 29.7, 15.8935, 5.04743, -48.802, -3.53503
5.192, 5, 3.76033, 29.7232, 15.89, 4.9918, -48.8636, -3.49505
5.196, 5, 3.72217, 29.7463, 15.8866, 4.93627, -48.9253, -3.45515
5.2, 5, 3.684, 29.7694, 15.8833, 4.88084, -48.9871, -3.41535
5.204, 5, 3.64583, 29.7925, 15.88, 4.82551, -49.0489, -3.37563
5.208, 5, 3.60765, 29.8155, 15.8769, 4.77028, -49.1108, -3.33602
5.212, 5, 3.56946, 29.8384, 15.8738, 4.71515, -49.1728, -3.29649
5.216, 5, 3.53127, 29.8613, 15.8708, 4.66012, -49.2348, -3.25705
5.22, 5, 3.49308, 29.8841, 15.8678, 4.60519, -49.2968, -3.21771
5.224, 5, 3.45487, 29.9069, 15.865, 4.55036, -49.3589, -3.17846
5.228, 5, 3.41666, 29.9297, 15.8622, 4.49563, -49.4211, -3.13929
5.232, 5, 3.37845, 29.9523, 15.8595, 4.44099, -49.4833, -3.10022
5.236, 5, 3.34023, 29.975, 15.8569, 4.38646, -49.5456, -3.06124
5.24, 5, 3.302, 29.9976, 15.8543, 4.33202, -49.6079, -3.02235
5.244, 5, 3.26377, 30.0201, 15.8518, 4.27768, -49.6703, -2.98356
5.248, 5, 3.22553, 30.0426, 15.8494, 4.22344, -49.7327, -2.94485
5.252, 5, 3.18729, 30.065, 15.8471, 4.1693, -49.7952, -2.90623
5.256, 5, 3.14904, 30.0874, 15.8449, 4.11525, -49.8577, -2.8677
5.26, 5, 3.11079, 30.1097, 15.8427, 4.06131, -49.9203, -2.82926
5.264, 5, 3.07253, 30.132, 15.8406, 4.00746, -49.983, -2.79092
5.268, 5, 3.03427, 30.1542, 15.8386, 3.9537, -50.0457, -2.75266
5.272, 5, 2.996, 30.1764, 15.8367, 3.90005, -50.1084, -2.71449
5.276, 5, 2.95773, 30.1986, 15.8348, 3.84649, -50.1713, -2.67641
5.28, 5, 2.91945, 30.2206, 15.833, 3.79303, -50.2341, -2.63842
5.284, 5, 2.88117, 30.2427, 15.8313, 3.73966, -50.297, -2.60052
5.288, 5, 2.84288, 30.2646, 15.8297, 3.6864, -50.36, -2.56271
5.292, 5, 2.80459, 30.2866, 15.8282, 3.63322, -50.4231, -2.52498
5.296, 5, 2.76629, 30.3084, 15.8267, 3.58015, -50.4861, -2.48735
5.3, 5, 2.72799, 30.3303, 15.8253, 3.52717, -50.5493, -2.4498
5.304, 5, 2.68969, 30.3521, 15.824, 3.47429, -50.6125, -2.41234
5.308, 5, 2.65138, 30.3738, 15.8228, 3.4215, -50.6757, -2.37497
5.312, 5, 2.61307, 30.3955, 15.8216, 3.36881, -50.739, -2.33769
5.316, 5, 2.57475, 30.4171, 15.8205, 3.31621, -50.8024, -2.3005
5.32, 5, 2.53643, 30.4387, 15.8195, 3.26371, -50.8658, -2.26339
5.324, 5, 2.4981, 30.4602, 15.8186, 3.21131, -50.9293, -2.22637
5.328, 5, 2.45977, 30.4817, 15.8178, 3.159, -50.9928, -2.18944
5.332, 5, 2.42144, 30.5031, 15.817, 3.10678, -51.0563, -2.1526
5.336, 5, 2.3831, 30.5245, 15.8163, 3.05466, -51.12, -2.11585
5.34, 5, 2.34476, 30.5458, 15.8157, 3.00264, -51.1836, -2.07918
5.344, 5, 2.30642, 30.5671, 15.8151, 2.95071, -51.2474, -2.04259
5.348, 5, 2.26807, 30.5883, 15.8147, 2.89887, -51.3112, -2.0061
5.352, 5, 2.22972, 30.6095, 15.8143, 2.84713, -51.375, -1.96969
5.356, 5, 2.19137, 30.6306, 15.814, 2.79548, -51.4389, -1.93337
5.36, 5, 2.15301, 30.6517, 15.8138, 2.74393, -51.5028, -1.89714
5.364, 5, 2.11465, 30.6727, 15.8136, 2.69247, -51.5668, -1.86099
5.368, 5, 2.07628, 30.6937, 15.8136, 2.64111, -51.6309, -1.82493
5.372, 5, 2.03791, 30.7146, 15.8136, 2.58983, -51.695, -1.78895
5.376, 5, 1.99954, 30.7354, 15.8137, 2.53866, -51.7592, -1.75306
5.38, 5, 1.96117, 30.7563, 15.8138, 2.48757, -51.8234, -1.71726
5.384, 5, 1.92279, 30.777, 15.8141, 2.43658, -51.8876, -1.68154
5.388, 5, 1.88442, 30.7978, 15.8144, 2.38568, -51.952, -1.64591
5.392, 5, 1.84603, 30.8184, 15.8148, 2.33488, -52.0163, -1.61036
5.396, 5, 1.80765, 30.8391, 15.8153, 2.28417, -52.0808, -1.5749
5.4, 5, 1.76926, 30.8596, 15.8158, 2.23355, -52.1452, -1.53952
5.404, 5, 1.73087, 30.8802, 15.8165, 2.18302, -52.2098, -1.50423
5.408, 5, 1.69248, 30.9006, 15.8172, 2.13259, -52.2744, -1.46903
5.412, 5, 1.65409, 30.9211, 15.818, 2.08225, -52.339, -1.43391
5.416, 5, 1.61569, 30.9414, 15.8188, 2.032, -52.4037, -1.39887
5.42, 5, 1.57729, 30.9618, 15.8198, 1.98185, -52.4684, -1.36392
5.424, 5, 1.53889, 30.982, 15.8208, 1.93179, -52.5332, -1.32906
5.428, 5, 1.50048, 31.0023, 15.8219, 1.88181, -52.5981, -1.29428
5.432, 5, 1.46208, 31.0224, 15.8231, 1.83194, -52.663, -1.25958
5.436, 5, 1.42367, 31.0425, 15.8244, 1.78215, -52.7279, -1.22497
5.44, 5, 1.38526, 31.0626, 15.8257, 1.73245, -52.7929, -1.19044
5.444, 5, 1.34685, 31.0826, 15.8272, 1.68285, -52.858, -1.156
5.448, 5, 1.30843, 31.1026, 15.8287, 1.63334, -52.9231, -1.12164
5.452, 5, 1.27002, 31.1225, 15.8302, 1.58392, -52.9883, -1.08736
5.456, 5, 1.2316, 31.1424, 15.8319, 1.53459, -53.0535, -1.05317
5.46, 5, 1.19318, 31.1622, 15.8336, 1.48535, -53.1188, -1.01906
5.464, 5, 1.15476, 31.182, 15.8355, 1.4362, -53.1841, -0.985038
5.468, 5, 1.11634, 31.2017, 15.8373, 1.38715, -53.2495, -0.951098
5.472, 5, 1.07792, 31.2214, 15.8393, 1.33819, -53.3149, -0.917241
5.476, 5, 1.03949, 31.241, 15.8414, 1.28931, -53.3804, -0.883468
5.48, 5, 1.00107, 31.2606, 15.8435, 1.24053, -53.4459, -0.849778
5.484, 5, 0.962641, 31.2801, 15.8457, 1.19184, -53.5115, -0.816171
5.488, 5, 0.924213, 31.2996, 15.848, 1.14324, -53.5772, -0.782647
5.492, 5, 0.885784, 31.319, 15.8504, 1.09473, -53.6429, -0.749207
5.496, 5, 0.847353, 31.3384, 15.8529, 1.04631, -53.7086, -0.715849
5.5, 5, 0.808922, 31.3577, 15.8554, 0.997977, -53.7744, -0.682575
5.504, 5, 0.77049, 31.377, 15.858, 0.949737, -53.8403, -0.649383
5.508, 5, 0.732057, 31.3962, 15.8607, 0.901588, -53.9062, -0.616274
5.512, 5, 0.693623, 31.4154, 15.8635, 0.853528, -53.9721, -0.583247
5.516, 5, 0.655189, 31.4345, 15.8663, 0.805559, -54.0381, -0.550302
5.52, 5, 0.616753, 31.4536, 15.8692, 0.757679, -54.1042, -0.51744
5.524, 5, 0.578317, 31.4726, 15.8723, 0.709888, -54.1703, -0.48466
5.528, 5, 0.539881, 31.4916, 15.8753, 0.662186, -54.2365, -0.451962
5.532, 5, 0.501444, 31.5105, 15.8785, 0.614574, -54.3027, -0.419345
5.536, 5, 0.463006, 31.5294, 15.8818, 0.567049, -54.369, -0.386809
5.54, 5, 0.424569, 31.5482, 15.8851, 0.519613, -54.4353, -0.354355
5.544, 5, 0.386131, 31.567, 15.8885, 0.472265, -54.5017, -0.321981
5.548, 5, 0.347693, 31.5857, 15.892, 0.425005, -54.5681, -0.289688
5.552, 5, 0.309255, 31.6044, 15.8956, 0.377832, -54.6346, -0.257476
5.556, 6, 0.270816, 31.623, 15.8992, 0.330746, -54.7012, -0.225344
5.56, 6, 0.232378, 31.6416, 15.9029, 0.283747, -54.7677, -0.193291
5.564, 6, 0.19394, 31.6602, 15.9067, 0.236835, -54.8344, -0.161319
5.568, 6, 0.155503, 31.6786, 15.9106, 0.190009, -54.9011, -0.129426
5.572, 6, 0.117066, 31.6971, 15.9146, 0.143269, -54.9679, -0.0976127
5.576, 6, 0.0786288, 31.7155, 15.9186, 0.0966156, -55.0347, -0.0658786
5.58, 6, 0.0401925, 31.7338, 15.9227, 0.050048, -55.1015, -0.0342237
5.584, 6, 0.00175655, 31.7521, 15.9269, 0.00356619, -55.1685, -0.00264794
5.588, 6, -0.0366789, 31.7704, 15.9312, -0.04283, -55.2354, 0.0288489
5.592, 6, -0.0751138, 31.7886, 15.9356, -0.0891406, -55.3024, 0.060267
5.596, 6, -0.113548, 31.8067, 15.94, -0.135366, -55.3695, 0.0916063
5.6, 6, -0.151982, 31.8248, 15.9445, -0.181506, -55.4367, 0.122867
5.604, 6, -0.190416, 31.8429, 15.9491, -0.227561, -55.5038, 0.154049
5.608, 6, -0.228849, 31.8609, 15.9538, -0.273531, -55.5711, 0.185153
5.612, 6, -0.267281, 31.8788, 15.9586, -0.319416, -55.6384, 0.216179
5.616, 6, -0.305713, 31.8967, 15.9634, -0.365216, -55.7057, 0.247127
5.62, 6, -0.344144, 31.9146, 15.9683, -0.410932, -55.7731, 0.277996
5.624, 6, -0.382574, 31.9324, 15.9733, -0.456563, -55.8406, 0.308787
5.628, 6, -0.421003, 31.9502, 15.9784, -0.50211, -55.9081, 0.339501
5.632, 6, -0.459431, 31.9679, 15.9835, -0.547572, -55.9756, 0.370137
5.636, 6, -0.497857, 31.9856, 15.9888, -0.592951, -56.0432, 0.400695
5.64, 6, -0.536283, 32.0032, 15.9941, -0.638245, -56.1109, 0.431176
5.644, 6, -0.574707, 32.0208, 15.9995, -0.683455, -56.1786, 0.461579
5.648, 6, -0.613129, 32.0383, 16.0049, -0.728581, -56.2464, 0.491904
5.652, 6, -0.65155, 32.0558, 16.0105, -0.773623, -56.3142, 0.522153
5.656, 6, -0.689969, 32.0732, 16.0161, -0.818582, -56.3821, 0.552324
5.66, 6, -0.728386, 32.0906, 16.0219, -0.863458, -56.45, 0.582418
5.664, 6, -0.766802, 32.1079, 16.0276, -0.908249, -56.518, 0.612435
5.668, 6, -0.805216, 32.1252, 16.0335, -0.952958, -56.586, 0.642376
5.672, 6, -0.843628, 32.1424, 16.0395, -0.997584, -56.6541, 0.672239
5.676, 6, -0.882039, 32.1596, 16.0455, -1.04213, -56.7222, 0.702027
5.68, 6, -0.920447, 32.1767, 16.0516, -1.08659, -56.7904, 0.731737
5.684, 6, -0.958854, 32.1938, 16.0578, -1.13096, -56.8586, 0.761372
5.688, 6, -0.997259, 32.2109, 16.0641, -1.17526, -56.9269, 0.790931
5.692, 6, -1.03566, 32.2278, 16.0705, -1.21947, -56.9952, 0.820413
5.696, 6, -1.07406, 32.2448, 16.0769, -1.26361, -57.0636, 0.84982
5.7, 6, -1.11246, 32.2617, 16.0834, -1.30765, -57.1321, 0.879151
5.704, 6, -1.15086, 32.2785, 16.09, -1.35162, -57.2006, 0.908407
5.708, 6, -1.18925, 32.2953, 16.0967, -1.39551, -57.2691, 0.937587
5.712, 6, -1.22764, 32.3121, 16.1035, -1.43932, -57.3377, 0.966692
5.716, 6, -1.26603, 32.3288, 16.1103, -1.48304, -57.4063, 0.995722
5.72, 6, -1.30442, 32.3454, 16.1172, -1.52668, -57.475, 1.02468
5.724, 6, -1.3428, 32.3621, 16.1242, -1.57025, -57.5438, 1.05356
5.728, 6, -1.38118, 32.3786, 16.1313, -1.61373, -57.6126, 1.08236
5.732, 6, -1.41956, 32.3951, 16.1384, -1.65713, -57.6814, 1.11109
5.736, 6, -1.45794, 32.4116, 16.1457, -1.70045, -57.7503, 1.13975
5.74, 6, -1.49631, 32.428, 16.153, -1.7437, -57.8193, 1.16833
5.744, 6, -1.53468, 32.4444, 16.1604, -1.78686, -57.8883, 1.19684
5.748, 6, -1.57305, 32.4607, 16.1679, -1.82994, -57.9573, 1.22528
5.752, 6, -1.61141, 32.477, 16.1754, -1.87295, -58.0264, 1.25364
5.756, 6, -1.64977, 32.4932, 16.1831, -1.91587, -58.0955, 1.28193
5.76, 6, -1.68813, 32.5094, 16.1908, -1.95872, -58.1647, 1.31014
5.764, 6, -1.72648, 32.5255, 16.1986, -2.00148, -58.234, 1.33828
5.768, 6, -1.76483, 32.5416, 16.2064, -2.04417, -58.3033, 1.36635
5.772, 6, -1.80318, 32.5577, 16.2144, -2.08678, -58.3726, 1.39434
5.776, 6, -1.84152, 32.5737, 16.2224, -2.12931, -58.442, 1.42226
5.78, 6, -1.87986, 32.5896, 16.2305, -2.17176, -58.5115, 1.45011
5.784, 6, -1.9182, 32.6055, 16.2387, -2.21414, -58.581, 1.47789
5.788, 6, -1.95653, 32.6214, 16.247, -2.25643, -58.6505, 1.50559
5.792, 6, -1.99485, 32.6372, 16.2553, -2.29865, -58.7201, 1.53322
5.796, 6, -2.03318, 32.653, 16.2637, -2.34079, -58.7897, 1.56078
5.8, 6, -2.0715, 32.6687, 16.2722, -2.38286, -58.8594, 1.58827
5.804, 6, -2.10981, 32.6843, 16.2808, -2.42484, -58.9292, 1.61568
5.808, 6, -2.14812, 32.7, 16.2895, -2.46675, -58.999, 1.64302
5.812, 6, -2.18643, 32.7155, 16.2982, -2.50859, -59.0688, 1.67029
5.816, 6, -2.22473, 32.7311, 16.307, -2.55034, -59.1387, 1.69749
5.82, 6, -2.26303, 32.7466, 16.3159, -2.59202, -59.2086, 1.72462
5.824, 6, -2.30132, 32.762, 16.3249, -2.63363, -59.2786, 1.75167
5.828, 6, -2.33961, 32.7774, 16.3339, -2.67515, -59.3486, 1.77866
5.832, 6, -2.37789, 32.7928, 16.343, -2.7166, -59.4187, 1.80557
5.836, 6, -2.41617, 32.8081, 16.3522, -2.75798, -59.4888, 1.83241
5.84, 6, -2.45444, 32.8233, 16.3615, -2.79928, -59.559, 1.85918
5.844, 6, -2.49271, 32.8385, 16.3709, -2.8405, -59.6292, 1.88588
5.848, 6, -2.53097, 32.8537, 16.3803, -2.88165, -59.6995, 1.91251
5.852, 6, -2.56923, 32.8688, 16.3898, -2.92272, -59.7698, 1.93907
5.856, 6, -2.60749, 32.8839, 16.3994, -2.96372, -59.8402, 1.96556
5.86, 6, -2.64573, 32.8989, 16.4091, -3.00464, -59.9106, 1.99198
5.864, 6, -2.68398, 32.9139, 16.4189, -3.04548, -59.9811, 2.01832
5.868, 6, -2.72221, 32.9288, 16.4287, -3.08626, -60.0516, 2.0446
5.872, 6, -2.76044, 32.9437, 16.4386, -3.12695, -60.1221, 2.07081
5.876, 6, -2.79867, 32.9586, 16.4486, -3.16758, -60.1927, 2.09695
5.88, 6, -2.83689, 32.9734, 16.4586, -3.20813, -60.2634, 2.12301
5.884, 6, -2.8751, 32.9881, 16.4688, -3.2486, -60.3341, 2.14901
5.888, 6, -2.91331, 33.0029, 16.479, -3.289, -60.4048, 2.17494
5.892, 6, -2.95152, 33.0175, 16.4893, -3.32933, -60.4756, 2.2008
5.896, 6, -2.98971, 33.0321, 16.4997, -3.36958, -60.5465, 2.22659
5.9, 6, -3.0279, 33.0467, 16.5101, -3.40976, -60.6174, 2.25231
5.904, 6, -3.06609, 33.0613, 16.5206, -3.44987, -60.6883, 2.27796
5.908, 6, -3.10426, 33.0757, 16.5312, -3.4899, -60.7593, 2.30354
5.912, 6, -3.14244, 33.0902, 16.5419, -3.52986, -60.8303, 2.32906
5.916, 6, -3.1806, 33.1046, 16.5527, -3.56974, -60.9014, 2.3545
5.92, 6, -3.21876, 33.1189, 16.5635, -3.60956, -60.9725, 2.37988
5.924, 6, -3.25691, 33.1333, 16.5744, -3.6493, -61.0437, 2.40518
5.928, 6, -3.29506, 33.1475, 16.5854, -3.68896, -61.1149, 2.43042
5.932, 6, -3.3332, 33.1617, 16.5965, -3.72856, -61.1862, 2.45559
5.936, 6, -3.37133, 33.1759, 16.6076, -3.76808, -61.2575, 2.48069
5.94, 6, -3.40946, 33.19, 16.6188, -3.80753, -61.3288, 2.50573
5.944, 6, -3.44757, 33.2041, 16.6301, -3.84691, -61.4002, 2.53069
5.948, 6, -3.48569, 33.2182, 16.6415, -3.88622, -61.4717, 2.55559
5.952, 6, -3.52379, 33.2322, 16.653, -3.92545, -61.5432, 2.58042
