hehonglu123/ABB_Primitive_Study/execution/movec_smooth/curve_exe_v50_z20.csv
timestamp, cmd_num, J1, J2, J3, J4, J5, J6
0, 1, -0.804314, 64.433, 8.47718, 44.6, -96.4084, 169.856
0.002, 1, -0.804314, 64.433, 8.47718, 44.6, -96.4084, 169.856
0.004, 1, -0.804314, 64.433, 8.47718, 44.6, -96.4084, 169.856
0.008, 1, -0.804314, 64.433, 8.47718, 44.6, -96.4084, 169.856
0.011, 1, -0.804314, 64.433, 8.47718, 44.6, -96.4084, 169.856
0.016, 1, -0.804314, 64.433, 8.47718, 44.6, -96.4084, 169.856
0.02, 1, -0.804314, 64.433, 8.47718, 44.6, -96.4084, 169.856
0.024, 1, -0.804314, 64.433, 8.47718, 44.6, -96.4084, 169.856
0.028, 1, -0.804314, 64.433, 8.47718, 44.6, -96.4084, 169.856
0.032, 1, -0.804314, 64.433, 8.47718, 44.6, -96.4084, 169.856
0.036, 1, -0.804305, 64.433, 8.47718, 44.6, -96.4084, 169.856
0.04, 1, -0.804241, 64.433, 8.47718, 44.6, -96.4084, 169.856
0.044, 1, -0.804017, 64.4329, 8.47719, 44.6, -96.4084, 169.856
0.048, 1, -0.803489, 64.4328, 8.47721, 44.6, -96.4084, 169.856
0.052, 1, -0.802514, 64.4325, 8.47724, 44.6, -96.4083, 169.856
0.056, 1, -0.800982, 64.432, 8.47727, 44.6002, -96.4082, 169.856
0.06, 1, -0.798818, 64.4312, 8.47729, 44.6004, -96.408, 169.855
0.064, 1, -0.795973, 64.4301, 8.47726, 44.6009, -96.4077, 169.854
0.068, 1, -0.792414, 64.4287, 8.47713, 44.6016, -96.407, 169.852
0.072, 1, -0.788091, 64.4268, 8.47683, 44.6029, -96.4059, 169.849
0.076, 1, -0.782908, 64.4244, 8.47629, 44.6049, -96.4043, 169.844
0.08, 1, -0.776708, 64.4215, 8.47541, 44.6078, -96.4018, 169.837
0.084, 1, -0.769291, 64.4179, 8.47408, 44.6119, -96.3984, 169.827
0.088, 1, -0.760457, 64.4136, 8.47216, 44.6174, -96.3938, 169.814
0.092, 1, -0.750049, 64.4085, 8.46952, 44.6247, -96.3876, 169.796
0.096, 1, -0.737959, 64.4025, 8.46597, 44.6342, -96.3795, 169.774
0.1, 1, -0.724107, 64.3957, 8.46133, 44.6463, -96.3693, 169.745
0.104, 1, -0.708391, 64.3879, 8.45544, 44.6613, -96.3566, 169.709
0.108, 1, -0.690681, 64.3792, 8.44813, 44.6796, -96.3411, 169.665
0.112, 1, -0.670851, 64.3694, 8.43922, 44.7015, -96.3226, 169.613
0.116, 1, -0.648822, 64.3587, 8.42859, 44.7273, -96.3006, 169.551
0.12, 1, -0.624584, 64.347, 8.41608, 44.7574, -96.2751, 169.48
0.124, 1, -0.598175, 64.3346, 8.40159, 44.792, -96.2458, 169.397
0.128, 1, -0.569651, 64.3215, 8.38502, 44.8312, -96.2125, 169.304
0.131, 1, -0.53907, 64.3079, 8.36633, 44.8751, -96.1752, 169.2
0.136, 1, -0.506475, 64.2938, 8.34552, 44.9237, -96.1339, 169.084
0.139, 1, -0.471867, 64.2791, 8.32262, 44.9769, -96.0887, 168.957
0.144, 1, -0.435201, 64.2637, 8.29773, 45.0346, -96.0397, 168.82
0.148, 1, -0.396432, 64.2474, 8.27096, 45.0965, -95.9871, 168.673
0.152, 1, -0.35557, 64.2302, 8.24245, 45.1623, -95.9312, 168.516
0.156, 1, -0.312709, 64.212, 8.21238, 45.2317, -95.8723, 168.351
0.16, 1, -0.267988, 64.1929, 8.18091, 45.3043, -95.8106, 168.178
0.164, 1, -0.221531, 64.173, 8.14823, 45.3796, -95.7466, 167.999
0.168, 1, -0.17342, 64.1522, 8.11454, 45.4574, -95.6805, 167.814
0.172, 1, -0.123718, 64.1306, 8.08002, 45.5371, -95.6127, 167.624
0.176, 1, -0.0725107, 64.1082, 8.04485, 45.6185, -95.5436, 167.431
0.18, 1, -0.0199084, 64.0851, 8.0092, 45.7011, -95.4734, 167.234
0.184, 1, 0.0339655, 64.0612, 7.9732, 45.7847, -95.4024, 167.035
0.188, 1, 0.0889745, 64.0368, 7.93695, 45.869, -95.3308, 166.835
0.192, 1, 0.144957, 64.0118, 7.90054, 45.9538, -95.2587, 166.633
0.196, 1, 0.201743, 63.9864, 7.86402, 46.039, -95.1864, 166.43
0.2, 1, 0.259183, 63.9607, 7.82742, 46.1245, -95.1138, 166.226
0.204, 1, 0.317174, 63.9348, 7.79078, 46.2101, -95.041, 166.023
0.208, 1, 0.375626, 63.9087, 7.75412, 46.2959, -94.9682, 165.818
0.212, 1, 0.434444, 63.8825, 7.71746, 46.3817, -94.8953, 165.614
0.216, 1, 0.49353, 63.8561, 7.68079, 46.4675, -94.8224, 165.41
0.22, 1, 0.552793, 63.8298, 7.64413, 46.5534, -94.7495, 165.205
0.224, 1, 0.612168, 63.8034, 7.60748, 46.6392, -94.6767, 165.001
0.228, 1, 0.67161, 63.7769, 7.57084, 46.725, -94.6038, 164.797
0.232, 1, 0.731088, 63.7505, 7.53422, 46.8108, -94.5309, 164.593
0.236, 1, 0.790581, 63.7241, 7.49761, 46.8966, -94.4581, 164.388
0.24, 1, 0.850074, 63.6977, 7.46102, 46.9823, -94.3853, 164.184
0.244, 1, 0.909559, 63.6712, 7.42445, 47.068, -94.3125, 163.98
0.248, 1, 0.969029, 63.6448, 7.38789, 47.1536, -94.2398, 163.776
0.252, 1, 1.02848, 63.6184, 7.35135, 47.2392, -94.1671, 163.573
0.256, 1, 1.08791, 63.592, 7.31483, 47.3248, -94.0945, 163.369
0.26, 1, 1.14731, 63.5656, 7.27832, 47.4103, -94.0218, 163.165
0.264, 1, 1.20668, 63.5393, 7.24184, 47.4958, -93.9492, 162.962
0.268, 1, 1.26603, 63.5129, 7.20537, 47.5812, -93.8767, 162.758
0.272, 1, 1.32535, 63.4866, 7.16892, 47.6666, -93.8042, 162.555
0.276, 1, 1.38464, 63.4602, 7.13248, 47.752, -93.7317, 162.352
0.28, 1, 1.4439, 63.4339, 7.09607, 47.8373, -93.6592, 162.149
0.284, 1, 1.50313, 63.4076, 7.05968, 47.9225, -93.5868, 161.946
0.288, 1, 1.56233, 63.3813, 7.0233, 48.0078, -93.5145, 161.743
0.292, 1, 1.6215, 63.355, 6.98694, 48.0929, -93.4421, 161.54
0.296, 1, 1.68064, 63.3288, 6.9506, 48.1781, -93.3698, 161.337
0.3, 1, 1.73975, 63.3025, 6.91428, 48.2632, -93.2976, 161.135
0.304, 1, 1.79883, 63.2763, 6.87798, 48.3482, -93.2253, 160.932
0.308, 1, 1.85788, 63.2501, 6.8417, 48.4332, -93.1531, 160.73
0.312, 1, 1.91689, 63.2239, 6.80544, 48.5182, -93.081, 160.528
0.316, 1, 1.97588, 63.1977, 6.76919, 48.6031, -93.0089, 160.326
0.32, 1, 2.03483, 63.1715, 6.73297, 48.6879, -92.9368, 160.124
0.324, 1, 2.09375, 63.1453, 6.69677, 48.7727, -92.8648, 159.922
0.328, 1, 2.15264, 63.1192, 6.66058, 48.8575, -92.7928, 159.72
0.332, 1, 2.2115, 63.093, 6.62442, 48.9422, -92.7208, 159.518
0.336, 1, 2.27033, 63.0669, 6.58827, 49.0269, -92.6489, 159.316
0.34, 1, 2.32912, 63.0408, 6.55214, 49.1116, -92.577, 159.115
0.344, 1, 2.38788, 63.0147, 6.51604, 49.1962, -92.5052, 158.914
0.348, 1, 2.44661, 62.9886, 6.47995, 49.2807, -92.4334, 158.712
0.352, 1, 2.5053, 62.9625, 6.44389, 49.3652, -92.3617, 158.511
0.356, 1, 2.56397, 62.9365, 6.40784, 49.4496, -92.2899, 158.31
0.36, 1, 2.62259, 62.9105, 6.37181, 49.534, -92.2183, 158.109
0.364, 1, 2.68119, 62.8844, 6.33581, 49.6184, -92.1466, 157.908
0.368, 1, 2.73975, 62.8584, 6.29982, 49.7027, -92.075, 157.708
0.372, 1, 2.79828, 62.8324, 6.26386, 49.7869, -92.0035, 157.507
0.376, 1, 2.85678, 62.8065, 6.22791, 49.8712, -91.932, 157.306
0.38, 1, 2.91524, 62.7805, 6.19199, 49.9553, -91.8605, 157.106
0.384, 1, 2.97367, 62.7545, 6.15609, 50.0394, -91.7891, 156.906
0.388, 1, 3.03206, 62.7286, 6.12021, 50.1235, -91.7177, 156.706
0.392, 1, 3.09042, 62.7027, 6.08435, 50.2075, -91.6463, 156.506
0.396, 1, 3.14875, 62.6768, 6.04851, 50.2915, -91.575, 156.306
0.4, 1, 3.20704, 62.6509, 6.01269, 50.3754, -91.5038, 156.106
0.404, 1, 3.2653, 62.625, 5.97689, 50.4592, -91.4326, 155.906
0.408, 1, 3.32352, 62.5992, 5.94111, 50.5431, -91.3614, 155.707
0.412, 1, 3.38171, 62.5733, 5.90536, 50.6268, -91.2902, 155.507
0.416, 1, 3.43986, 62.5475, 5.86963, 50.7105, -91.2191, 155.308
0.42, 1, 3.49798, 62.5217, 5.83392, 50.7942, -91.1481, 155.109
0.424, 1, 3.55606, 62.4959, 5.79823, 50.8778, -91.0771, 154.91
0.428, 1, 3.6141, 62.4701, 5.76256, 50.9614, -91.0061, 154.711
0.432, 1, 3.67211, 62.4444, 5.72691, 51.0449, -90.9352, 154.512
0.436, 1, 3.73009, 62.4186, 5.69129, 51.1283, -90.8643, 154.313
0.44, 1, 3.78803, 62.3929, 5.65569, 51.2117, -90.7935, 154.115
0.444, 1, 3.84593, 62.3672, 5.62011, 51.2951, -90.7227, 153.916
0.448, 1, 3.9038, 62.3415, 5.58455, 51.3784, -90.652, 153.718
0.452, 1, 3.96163, 62.3158, 5.54902, 51.4617, -90.5813, 153.52
0.456, 1, 4.01942, 62.2901, 5.51351, 51.5448, -90.5106, 153.322
0.46, 1, 4.07718, 62.2645, 5.47802, 51.628, -90.44, 153.124
0.464, 1, 4.1349, 62.2388, 5.44255, 51.7111, -90.3695, 152.926
0.468, 1, 4.19258, 62.2132, 5.40711, 51.7941, -90.2989, 152.728
0.472, 1, 4.25023, 62.1876, 5.37169, 51.8771, -90.2285, 152.531
0.476, 1, 4.30784, 62.162, 5.33629, 51.96, -90.158, 152.333
0.48, 1, 4.36541, 62.1365, 5.30091, 52.0429, -90.0877, 152.136
0.484, 1, 4.42294, 62.1109, 5.26556, 52.1257, -90.0173, 151.939
0.488, 1, 4.48044, 62.0854, 5.23023, 52.2085, -89.947, 151.742
0.492, 1, 4.5379, 62.0599, 5.19493, 52.2912, -89.8768, 151.545
0.496, 1, 4.59532, 62.0344, 5.15964, 52.3739, -89.8066, 151.348
0.5, 1, 4.6527, 62.0089, 5.12438, 52.4565, -89.7364, 151.151
0.504, 1, 4.71004, 61.9834, 5.08915, 52.539, -89.6663, 150.955
0.508, 1, 4.76735, 61.958, 5.05394, 52.6215, -89.5963, 150.758
0.512, 1, 4.82462, 61.9325, 5.01875, 52.704, -89.5263, 150.562
0.516, 1, 4.88185, 61.9071, 4.98358, 52.7863, -89.4563, 150.366
0.52, 1, 4.93904, 61.8817, 4.94844, 52.8687, -89.3864, 150.17
0.524, 1, 4.99619, 61.8563, 4.91332, 52.9509, -89.3165, 149.974
0.528, 1, 5.05331, 61.831, 4.87823, 53.0331, -89.2467, 149.778
0.532, 1, 5.11038, 61.8056, 4.84316, 53.1153, -89.1769, 149.583
0.536, 1, 5.16742, 61.7803, 4.80811, 53.1974, -89.1072, 149.387
0.54, 1, 5.22441, 61.755, 4.77309, 53.2795, -89.0375, 149.192
0.544, 1, 5.28137, 61.7297, 4.7381, 53.3615, -88.9679, 148.997
0.548, 1, 5.33829, 61.7044, 4.70312, 53.4434, -88.8983, 148.802
0.552, 1, 5.39516, 61.6792, 4.66817, 53.5253, -88.8288, 148.607
0.556, 1, 5.452, 61.6539, 4.63325, 53.6071, -88.7593, 148.412
0.56, 1, 5.5088, 61.6287, 4.59835, 53.6888, -88.6899, 148.217
0.564, 1, 5.56556, 61.6035, 4.56348, 53.7705, -88.6205, 148.023
0.568, 1, 5.62227, 61.5783, 4.52863, 53.8522, -88.5511, 147.828
0.572, 1, 5.67895, 61.5531, 4.4938, 53.9338, -88.4819, 147.634
0.576, 1, 5.73559, 61.528, 4.459, 54.0153, -88.4126, 147.44
0.58, 1, 5.79218, 61.5028, 4.42422, 54.0968, -88.3434, 147.246
0.584, 1, 5.84874, 61.4777, 4.38947, 54.1782, -88.2743, 147.052
0.588, 1, 5.90525, 61.4526, 4.35474, 54.2596, -88.2052, 146.858
0.592, 1, 5.96173, 61.4275, 4.32004, 54.3408, -88.1362, 146.665
0.596, 1, 6.01816, 61.4025, 4.28537, 54.4221, -88.0672, 146.471
0.6, 1, 6.07455, 61.3774, 4.25072, 54.5033, -87.9982, 146.278
0.604, 1, 6.1309, 61.3524, 4.21609, 54.5844, -87.9294, 146.085
0.608, 1, 6.18721, 61.3274, 4.18149, 54.6654, -87.8605, 145.892
0.612, 1, 6.24348, 61.3024, 4.14692, 54.7464, -87.7917, 145.699
0.616, 1, 6.29971, 61.2774, 4.11237, 54.8274, -87.723, 145.507
0.62, 1, 6.35589, 61.2525, 4.07784, 54.9083, -87.6543, 145.314
0.624, 1, 6.41204, 61.2276, 4.04335, 54.9891, -87.5857, 145.122
0.628, 1, 6.46814, 61.2026, 4.00887, 55.0698, -87.5171, 144.929
0.632, 1, 6.5242, 61.1778, 3.97443, 55.1505, -87.4485, 144.737
0.636, 1, 6.58021, 61.1529, 3.94001, 55.2312, -87.3801, 144.545
0.64, 1, 6.63619, 61.128, 3.90561, 55.3117, -87.3116, 144.353
0.644, 1, 6.69212, 61.1032, 3.87125, 55.3923, -87.2433, 144.162
0.648, 1, 6.74801, 61.0784, 3.8369, 55.4727, -87.1749, 143.97
0.652, 1, 6.80386, 61.0536, 3.80259, 55.5531, -87.1067, 143.779
0.656, 1, 6.85967, 61.0288, 3.7683, 55.6334, -87.0384, 143.587
0.66, 1, 6.91543, 61.004, 3.73404, 55.7137, -86.9703, 143.396
0.664, 1, 6.97115, 60.9793, 3.6998, 55.7939, -86.9022, 143.205
0.668, 1, 7.02682, 60.9545, 3.66559, 55.8741, -86.8341, 143.015
0.672, 1, 7.08246, 60.9298, 3.63141, 55.9542, -86.7661, 142.824
0.676, 1, 7.13805, 60.9051, 3.59725, 56.0342, -86.6981, 142.633
0.68, 1, 7.19359, 60.8805, 3.56312, 56.1141, -86.6302, 142.443
0.684, 1, 7.2491, 60.8558, 3.52901, 56.194, -86.5624, 142.253
0.688, 1, 7.30456, 60.8312, 3.49494, 56.2739, -86.4946, 142.063
0.692, 1, 7.35997, 60.8066, 3.46089, 56.3536, -86.4268, 141.873
0.696, 1, 7.41535, 60.782, 3.42686, 56.4333, -86.3591, 141.683
0.7, 1, 7.47067, 60.7574, 3.39287, 56.513, -86.2915, 141.493
0.704, 1, 7.52596, 60.7329, 3.3589, 56.5926, -86.2239, 141.304
0.708, 1, 7.5812, 60.7083, 3.32495, 56.6721, -86.1564, 141.115
0.712, 1, 7.6364, 60.6838, 3.29104, 56.7515, -86.0889, 140.925
0.716, 1, 7.69155, 60.6593, 3.25715, 56.8309, -86.0215, 140.736
0.72, 1, 7.74666, 60.6349, 3.22329, 56.9103, -85.9541, 140.548
0.724, 1, 7.80172, 60.6104, 3.18946, 56.9895, -85.8868, 140.359
0.728, 1, 7.85674, 60.586, 3.15565, 57.0687, -85.8196, 140.17
0.732, 1, 7.91172, 60.5616, 3.12187, 57.1479, -85.7523, 139.982
0.736, 1, 7.96665, 60.5372, 3.08812, 57.2269, -85.6852, 139.794
0.74, 1, 8.02153, 60.5128, 3.0544, 57.3059, -85.6181, 139.605
0.744, 1, 8.07638, 60.4884, 3.0207, 57.3849, -85.5511, 139.418
0.748, 1, 8.13117, 60.4641, 2.98703, 57.4638, -85.4841, 139.23
0.752, 1, 8.18592, 60.4398, 2.95339, 57.5426, -85.4171, 139.042
0.756, 1, 8.24063, 60.4155, 2.91978, 57.6213, -85.3503, 138.855
0.76, 1, 8.29529, 60.3912, 2.88619, 57.7, -85.2834, 138.667
0.764, 1, 8.34991, 60.367, 2.85263, 57.7786, -85.2167, 138.48
0.768, 1, 8.40448, 60.3427, 2.8191, 57.8572, -85.15, 138.293
0.772, 1, 8.45901, 60.3185, 2.7856, 57.9357, -85.0833, 138.106
0.776, 1, 8.51348, 60.2943, 2.75213, 58.0141, -85.0167, 137.92
0.78, 1, 8.56792, 60.2702, 2.71868, 58.0924, -84.9502, 137.733
0.784, 1, 8.62231, 60.246, 2.68526, 58.1707, -84.8837, 137.547
0.788, 1, 8.67665, 60.2219, 2.65187, 58.249, -84.8173, 137.36
0.792, 1, 8.73095, 60.1978, 2.61851, 58.3271, -84.7509, 137.174
0.796, 1, 8.7852, 60.1737, 2.58518, 58.4052, -84.6846, 136.988
0.8, 1, 8.83941, 60.1496, 2.55187, 58.4832, -84.6183, 136.803
0.804, 1, 8.89357, 60.1255, 2.51859, 58.5612, -84.5521, 136.617
0.808, 1, 8.94769, 60.1015, 2.48534, 58.6391, -84.4859, 136.432
0.812, 1, 9.00175, 60.0775, 2.45212, 58.7169, -84.4198, 136.246
0.816, 1, 9.05578, 60.0535, 2.41893, 58.7947, -84.3538, 136.061
0.82, 1, 9.10976, 60.0295, 2.38577, 58.8724, -84.2878, 135.876
0.824, 1, 9.16369, 60.0056, 2.35263, 58.95, -84.2219, 135.691
0.828, 1, 9.21757, 59.9817, 2.31952, 59.0276, -84.156, 135.507
0.832, 1, 9.27141, 59.9578, 2.28644, 59.1051, -84.0902, 135.322
0.836, 1, 9.3252, 59.9339, 2.25339, 59.1825, -84.0245, 135.138
0.84, 1, 9.37895, 59.91, 2.22037, 59.2599, -83.9588, 134.954
0.844, 1, 9.43265, 59.8862, 2.18738, 59.3372, -83.8931, 134.77
0.848, 1, 9.4863, 59.8623, 2.15441, 59.4144, -83.8275, 134.586
0.852, 1, 9.5399, 59.8385, 2.12148, 59.4915, -83.762, 134.402
0.856, 1, 9.59346, 59.8147, 2.08857, 59.5686, -83.6965, 134.218
0.86, 1, 9.64698, 59.791, 2.05569, 59.6457, -83.6311, 134.035
0.864, 1, 9.70044, 59.7672, 2.02284, 59.7226, -83.5658, 133.852
0.868, 1, 9.75386, 59.7435, 1.99002, 59.7995, -83.5005, 133.669
0.872, 1, 9.80723, 59.7198, 1.95722, 59.8764, -83.4352, 133.486
0.876, 1, 9.86056, 59.6961, 1.92446, 59.9531, -83.37, 133.303
0.88, 1, 9.91384, 59.6725, 1.89172, 60.0298, -83.3049, 133.12
0.884, 1, 9.96707, 59.6488, 1.85902, 60.1064, -83.2398, 132.938
0.888, 1, 10.0203, 59.6252, 1.82634, 60.183, -83.1748, 132.756
0.892, 1, 10.0734, 59.6016, 1.79369, 60.2595, -83.1099, 132.574
0.896, 1, 10.1265, 59.578, 1.76107, 60.3359, -83.045, 132.392
0.9, 1, 10.1795, 59.5545, 1.72848, 60.4122, -82.9801, 132.21
0.904, 1, 10.2325, 59.5309, 1.69592, 60.4885, -82.9154, 132.028
0.908, 1, 10.2855, 59.5074, 1.66339, 60.5647, -82.8506, 131.847
0.912, 1, 10.3384, 59.4839, 1.63089, 60.6409, -82.786, 131.666
0.916, 1, 10.3912, 59.4605, 1.59841, 60.717, -82.7214, 131.484
0.92, 1, 10.444, 59.437, 1.56597, 60.793, -82.6568, 131.304
0.924, 1, 10.4968, 59.4136, 1.53355, 60.8689, -82.5923, 131.123
0.928, 1, 10.5495, 59.3902, 1.50116, 60.9448, -82.5279, 130.942
0.932, 1, 10.6022, 59.3668, 1.4688, 61.0206, -82.4635, 130.762
0.936, 1, 10.6548, 59.3434, 1.43648, 61.0963, -82.3992, 130.581
0.94, 1, 10.7074, 59.3201, 1.40418, 61.172, -82.3349, 130.401
0.944, 1, 10.7599, 59.2968, 1.37191, 61.2476, -82.2707, 130.221
0.948, 1, 10.8124, 59.2735, 1.33967, 61.3231, -82.2066, 130.041
0.952, 1, 10.8648, 59.2502, 1.30745, 61.3986, -82.1425, 129.862
0.956, 1, 10.9172, 59.2269, 1.27527, 61.474, -82.0784, 129.682
0.96, 1, 10.9695, 59.2037, 1.24312, 61.5493, -82.0145, 129.503
0.964, 1, 11.0218, 59.1805, 1.21099, 61.6246, -81.9506, 129.324
0.968, 1, 11.074, 59.1573, 1.1789, 61.6998, -81.8867, 129.145
0.972, 1, 11.1262, 59.1341, 1.14684, 61.7749, -81.8229, 128.966
0.976, 1, 11.1784, 59.1109, 1.1148, 61.8499, -81.7592, 128.787
0.98, 1, 11.2305, 59.0878, 1.08279, 61.9249, -81.6955, 128.609
0.984, 1, 11.2825, 59.0647, 1.05082, 61.9998, -81.6319, 128.43
0.988, 1, 11.3345, 59.0416, 1.01887, 62.0747, -81.5683, 128.252
0.992, 1, 11.3864, 59.0185, 0.986951, 62.1495, -81.5048, 128.074
0.996, 1, 11.4384, 58.9955, 0.955063, 62.2242, -81.4414, 127.896
1, 1, 11.4902, 58.9725, 0.923204, 62.2988, -81.378, 127.718
1.004, 1, 11.542, 58.9494, 0.891374, 62.3734, -81.3147, 127.541
1.008, 1, 11.5938, 58.9265, 0.859574, 62.4479, -81.2514, 127.363
1.012, 1, 11.6455, 58.9035, 0.827803, 62.5223, -81.1882, 127.186
1.016, 1, 11.6971, 58.8806, 0.796062, 62.5967, -81.125, 127.009
1.02, 1, 11.7488, 58.8576, 0.764351, 62.671, -81.062, 126.832
1.024, 1, 11.8003, 58.8347, 0.732669, 62.7452, -80.9989, 126.656
1.027, 1, 11.8518, 58.8119, 0.701016, 62.8193, -80.9359, 126.479
1.032, 1, 11.9033, 58.789, 0.669393, 62.8934, -80.873, 126.303
1.036, 1, 11.9547, 58.7662, 0.6378, 62.9674, -80.8102, 126.126
1.04, 1, 12.0061, 58.7434, 0.606236, 63.0414, -80.7474, 125.95
1.044, 1, 12.0574, 58.7206, 0.574702, 63.1153, -80.6846, 125.775
1.048, 1, 12.1087, 58.6978, 0.543197, 63.1891, -80.622, 125.599
1.052, 1, 12.16, 58.675, 0.511722, 63.2628, -80.5593, 125.423
1.055, 1, 12.2111, 58.6523, 0.480277, 63.3365, -80.4968, 125.248
1.06, 1, 12.2623, 58.6296, 0.448861, 63.4101, -80.4343, 125.073
1.064, 1, 12.3134, 58.6069, 0.417475, 63.4836, -80.3718, 124.898
1.068, 1, 12.3644, 58.5843, 0.386118, 63.5571, -80.3094, 124.723
1.072, 1, 12.4154, 58.5616, 0.354791, 63.6305, -80.2471, 124.548
1.076, 1, 12.4663, 58.539, 0.323494, 63.7038, -80.1848, 124.373
1.08, 1, 12.5172, 58.5164, 0.292226, 63.777, -80.1226, 124.199
1.084, 1, 12.5681, 58.4938, 0.260988, 63.8502, -80.0605, 124.025
1.088, 1, 12.6189, 58.4713, 0.229779, 63.9233, -79.9984, 123.851
1.091, 1, 12.6696, 58.4487, 0.1986, 63.9964, -79.9364, 123.677
1.096, 1, 12.7203, 58.4262, 0.167451, 64.0694, -79.8744, 123.503
1.1, 1, 12.771, 58.4037, 0.136331, 64.1423, -79.8125, 123.329
1.104, 1, 12.8216, 58.3812, 0.105241, 64.2151, -79.7506, 123.156
1.108, 1, 12.8721, 58.3588, 0.0741804, 64.2879, -79.6888, 122.983
1.112, 1, 12.9226, 58.3364, 0.0431494, 64.3606, -79.6271, 122.81
1.116, 1, 12.9731, 58.314, 0.012148, 64.4332, -79.5654, 122.637
1.119, 1, 13.0235, 58.2916, -0.0188239, 64.5058, -79.5038, 122.464
1.124, 1, 13.0739, 58.2692, -0.0497663, 64.5782, -79.4422, 122.291
1.128, 1, 13.1242, 58.2469, -0.0806792, 64.6507, -79.3807, 122.119
1.132, 1, 13.1745, 58.2245, -0.111563, 64.723, -79.3193, 121.947
1.136, 1, 13.2247, 58.2022, -0.142416, 64.7953, -79.2579, 121.775
1.14, 1, 13.2749, 58.18, -0.173241, 64.8675, -79.1966, 121.603
1.144, 1, 13.325, 58.1577, -0.204036, 64.9397, -79.1353, 121.431
1.147, 1, 13.3751, 58.1355, -0.234801, 65.0117, -79.0741, 121.259
1.152, 1, 13.4251, 58.1133, -0.265537, 65.0837, -79.0129, 121.088
1.156, 1, 13.4751, 58.0911, -0.296244, 65.1557, -78.9518, 120.917
1.16, 1, 13.525, 58.0689, -0.326921, 65.2275, -78.8908, 120.746
1.164, 1, 13.5749, 58.0467, -0.357569, 65.2993, -78.8298, 120.575
1.168, 1, 13.6248, 58.0246, -0.388187, 65.3711, -78.7689, 120.404
1.172, 1, 13.6745, 58.0025, -0.418776, 65.4427, -78.7081, 120.233
1.175, 1, 13.7243, 57.9804, -0.449336, 65.5143, -78.6473, 120.063
1.18, 1, 13.774, 57.9583, -0.479866, 65.5859, -78.5865, 119.892
1.184, 1, 13.8236, 57.9363, -0.510367, 65.6573, -78.5258, 119.722
1.188, 1, 13.8732, 57.9143, -0.540838, 65.7287, -78.4652, 119.552
1.192, 1, 13.9228, 57.8923, -0.571281, 65.8, -78.4046, 119.383
1.196, 1, 13.9723, 57.8703, -0.601694, 65.8713, -78.3441, 119.213
1.2, 1, 14.0217, 57.8483, -0.632078, 65.9425, -78.2837, 119.043
1.204, 1, 14.0712, 57.8264, -0.662432, 66.0136, -78.2233, 118.874
1.208, 1, 14.1205, 57.8045, -0.692758, 66.0846, -78.1629, 118.705
1.212, 1, 14.1698, 57.7826, -0.723054, 66.1556, -78.1027, 118.536
1.216, 1, 14.2191, 57.7607, -0.753321, 66.2265, -78.0425, 118.367
1.22, 1, 14.2683, 57.7388, -0.783558, 66.2973, -77.9823, 118.199
1.224, 1, 14.3175, 57.717, -0.813767, 66.3681, -77.9222, 118.03
1.228, 1, 14.3666, 57.6952, -0.843946, 66.4388, -77.8622, 117.862
1.232, 1, 14.4157, 57.6734, -0.874097, 66.5095, -77.8022, 117.694
1.236, 1, 14.4647, 57.6516, -0.904218, 66.58, -77.7422, 117.526
1.24, 1, 14.5137, 57.6299, -0.93431, 66.6505, -77.6824, 117.358
1.244, 1, 14.5626, 57.6081, -0.964373, 66.7209, -77.6226, 117.19
1.248, 1, 14.6115, 57.5864, -0.994407, 66.7913, -77.5628, 117.022
1.252, 1, 14.6604, 57.5647, -1.02441, 66.8616, -77.5031, 116.855
1.256, 1, 14.7092, 57.5431, -1.05439, 66.9318, -77.4435, 116.688
1.26, 1, 14.7579, 57.5214, -1.08434, 67.002, -77.3839, 116.521
1.264, 1, 14.8066, 57.4998, -1.11426, 67.0721, -77.3244, 116.354
1.267, 1, 14.8553, 57.4782, -1.14415, 67.1421, -77.2649, 116.187
1.272, 1, 14.9039, 57.4566, -1.17401, 67.2121, -77.2055, 116.021
1.276, 1, 14.9524, 57.4351, -1.20384, 67.282, -77.1461, 115.854
1.28, 1, 15.0009, 57.4135, -1.23364, 67.3518, -77.0868, 115.688
1.284, 1, 15.0494, 57.392, -1.26341, 67.4215, -77.0276, 115.522
1.288, 1, 15.0978, 57.3705, -1.29316, 67.4912, -76.9684, 115.356
1.292, 1, 15.1462, 57.349, -1.32287, 67.5608, -76.9093, 115.19
1.295, 1, 15.1945, 57.3276, -1.35256, 67.6304, -76.8502, 115.025
1.3, 1, 15.2428, 57.3061, -1.38222, 67.6999, -76.7912, 114.859
1.304, 1, 15.291, 57.2847, -1.41185, 67.7693, -76.7323, 114.694
1.308, 1, 15.3392, 57.2633, -1.44145, 67.8386, -76.6734, 114.529
1.312, 1, 15.3873, 57.2419, -1.47102, 67.9079, -76.6146, 114.364
1.316, 1, 15.4354, 57.2206, -1.50056, 67.9771, -76.5558, 114.199
1.32, 1, 15.4835, 57.1993, -1.53008, 68.0463, -76.4971, 114.035
1.324, 1, 15.5315, 57.1779, -1.55956, 68.1153, -76.4384, 113.87
1.328, 1, 15.5794, 57.1567, -1.58902, 68.1843, -76.3798, 113.706
1.332, 1, 15.6273, 57.1354, -1.61845, 68.2533, -76.3212, 113.542
1.336, 1, 15.6752, 57.1141, -1.64785, 68.3222, -76.2627, 113.378
1.34, 1, 15.723, 57.0929, -1.67722, 68.391, -76.2043, 113.214
1.344, 1, 15.7708, 57.0717, -1.70656, 68.4597, -76.1459, 113.05
1.348, 1, 15.8185, 57.0505, -1.73587, 68.5284, -76.0876, 112.887
1.352, 1, 15.8662, 57.0293, -1.76516, 68.597, -76.0293, 112.723
1.356, 1, 15.9138, 57.0082, -1.79442, 68.6656, -75.9711, 112.56
1.36, 1, 15.9614, 56.9871, -1.82365, 68.734, -75.913, 112.397
1.364, 1, 16.0089, 56.9659, -1.85285, 68.8024, -75.8549, 112.234
1.368, 1, 16.0564, 56.9449, -1.88202, 68.8708, -75.7968, 112.072
1.372, 1, 16.1038, 56.9238, -1.91116, 68.9391, -75.7389, 111.909
1.376, 1, 16.1512, 56.9027, -1.94028, 69.0073, -75.6809, 111.747
1.38, 1, 16.1986, 56.8817, -1.96936, 69.0754, -75.6231, 111.584
1.384, 1, 16.2459, 56.8607, -1.99842, 69.1435, -75.5652, 111.422
1.388, 1, 16.2931, 56.8397, -2.02745, 69.2115, -75.5075, 111.26
1.392, 1, 16.3403, 56.8188, -2.05646, 69.2795, -75.4498, 111.099
1.396, 1, 16.3875, 56.7978, -2.08543, 69.3473, -75.3921, 110.937
1.4, 1, 16.4346, 56.7769, -2.11438, 69.4152, -75.3345, 110.776
1.404, 1, 16.4817, 56.756, -2.14329, 69.4829, -75.277, 110.614
1.408, 1, 16.5287, 56.7351, -2.17218, 69.5506, -75.2195, 110.453
1.412, 1, 16.5757, 56.7143, -2.20105, 69.6182, -75.1621, 110.292
1.416, 1, 16.6226, 56.6934, -2.22988, 69.6858, -75.1047, 110.131
1.42, 1, 16.6695, 56.6726, -2.25869, 69.7532, -75.0474, 109.971
1.424, 1, 16.7164, 56.6518, -2.28746, 69.8207, -74.9902, 109.81
1.428, 1, 16.7632, 56.631, -2.31621, 69.888, -74.933, 109.65
1.432, 1, 16.8099, 56.6103, -2.34493, 69.9553, -74.8758, 109.49
1.436, 1, 16.8567, 56.5895, -2.37363, 70.0225, -74.8187, 109.33
1.44, 1, 16.9033, 56.5688, -2.4023, 70.0897, -74.7617, 109.17
1.444, 1, 16.9499, 56.5481, -2.43093, 70.1568, -74.7047, 109.01
1.448, 1, 16.9965, 56.5274, -2.45955, 70.2238, -74.6478, 108.85
1.452, 1, 17.043, 56.5067, -2.48813, 70.2908, -74.5909, 108.691
1.456, 1, 17.0895, 56.4861, -2.51669, 70.3577, -74.5341, 108.532
1.46, 1, 17.136, 56.4655, -2.54521, 70.4245, -74.4774, 108.372
1.464, 1, 17.1824, 56.4449, -2.57371, 70.4913, -74.4207, 108.213
1.468, 1, 17.2287, 56.4243, -2.60219, 70.558, -74.364, 108.055
1.472, 1, 17.275, 56.4037, -2.63063, 70.6246, -74.3074, 107.896
1.476, 1, 17.3213, 56.3832, -2.65905, 70.6912, -74.2509, 107.737
1.48, 1, 17.3675, 56.3627, -2.68744, 70.7577, -74.1944, 107.579
1.484, 1, 17.4137, 56.3422, -2.71581, 70.8242, -74.138, 107.421
1.488, 1, 17.4598, 56.3217, -2.74414, 70.8906, -74.0816, 107.263
1.492, 1, 17.5059, 56.3012, -2.77245, 70.9569, -74.0253, 107.105
1.496, 1, 17.5519, 56.2808, -2.80074, 71.0232, -73.969, 106.947
1.5, 1, 17.5979, 56.2604, -2.82899, 71.0893, -73.9128, 106.79
1.504, 1, 17.6439, 56.24, -2.85722, 71.1555, -73.8566, 106.632
1.508, 1, 17.6898, 56.2196, -2.88542, 71.2215, -73.8005, 106.475
1.512, 1, 17.7357, 56.1992, -2.9136, 71.2876, -73.7444, 106.318
1.516, 1, 17.7815, 56.1789, -2.94174, 71.3535, -73.6884, 106.161
1.52, 1, 17.8273, 56.1585, -2.96986, 71.4194, -73.6325, 106.004
1.524, 1, 17.873, 56.1382, -2.99796, 71.4852, -73.5766, 105.847
1.528, 1, 17.9187, 56.118, -3.02602, 71.5509, -73.5208, 105.691
1.532, 1, 17.9643, 56.0977, -3.05406, 71.6166, -73.465, 105.534
1.536, 1, 18.0099, 56.0774, -3.08208, 71.6823, -73.4092, 105.378
1.54, 1, 18.0555, 56.0572, -3.11006, 71.7478, -73.3536, 105.222
1.544, 1, 18.101, 56.037, -3.13802, 71.8133, -73.2979, 105.066
1.548, 1, 18.1465, 56.0168, -3.16596, 71.8788, -73.2424, 104.91
1.552, 1, 18.1919, 55.9966, -3.19386, 71.9441, -73.1868, 104.754
1.556, 1, 18.2373, 55.9765, -3.22174, 72.0095, -73.1314, 104.599
1.56, 1, 18.2826, 55.9564, -3.24959, 72.0747, -73.076, 104.444
1.564, 1, 18.3279, 55.9362, -3.27742, 72.1399, -73.0206, 104.288
1.568, 1, 18.3732, 55.9162, -3.30522, 72.205, -72.9653, 104.133
1.572, 1, 18.4184, 55.8961, -3.33299, 72.2701, -72.91, 103.978
1.576, 1, 18.4635, 55.876, -3.36074, 72.3351, -72.8548, 103.824
1.58, 1, 18.5087, 55.856, -3.38846, 72.4001, -72.7997, 103.669
1.584, 1, 18.5538, 55.836, -3.41616, 72.4649, -72.7446, 103.515
1.588, 1, 18.5988, 55.816, -3.44382, 72.5298, -72.6895, 103.36
1.592, 1, 18.6438, 55.796, -3.47147, 72.5945, -72.6345, 103.206
1.596, 1, 18.6888, 55.776, -3.49908, 72.6592, -72.5796, 103.052
1.6, 1, 18.7337, 55.7561, -3.52667, 72.7238, -72.5247, 102.898
1.604, 1, 18.7785, 55.7362, -3.55423, 72.7884, -72.4699, 102.744
1.608, 1, 18.8234, 55.7163, -3.58177, 72.8529, -72.4151, 102.591
1.612, 1, 18.8681, 55.6964, -3.60928, 72.9174, -72.3603, 102.437
1.616, 1, 18.9129, 55.6765, -3.63677, 72.9818, -72.3056, 102.284
1.62, 1, 18.9576, 55.6567, -3.66423, 73.0461, -72.251, 102.131
1.624, 1, 19.0023, 55.6368, -3.69166, 73.1104, -72.1964, 101.978
1.628, 1, 19.0469, 55.617, -3.71907, 73.1746, -72.1419, 101.825
1.632, 1, 19.0914, 55.5972, -3.74645, 73.2387, -72.0874, 101.672
1.636, 1, 19.136, 55.5774, -3.77381, 73.3028, -72.033, 101.52
1.64, 1, 19.1805, 55.5577, -3.80114, 73.3669, -71.9786, 101.367
1.644, 1, 19.2249, 55.538, -3.82844, 73.4308, -71.9243, 101.215
1.648, 1, 19.2693, 55.5182, -3.85572, 73.4947, -71.87, 101.063
1.652, 1, 19.3137, 55.4985, -3.88297, 73.5586, -71.8158, 100.911
1.656, 1, 19.358, 55.4789, -3.9102, 73.6224, -71.7616, 100.759
1.66, 1, 19.4023, 55.4592, -3.9374, 73.6861, -71.7075, 100.607
1.664, 1, 19.4465, 55.4396, -3.96458, 73.7498, -71.6534, 100.456
1.668, 1, 19.4907, 55.4199, -3.99173, 73.8134, -71.5994, 100.304
1.672, 1, 19.5349, 55.4003, -4.01886, 73.8769, -71.5455, 100.153
1.676, 1, 19.579, 55.3807, -4.04596, 73.9404, -71.4915, 100.002
1.68, 1, 19.6231, 55.3612, -4.07303, 74.0039, -71.4377, 99.8507
1.684, 1, 19.6671, 55.3416, -4.10008, 74.0672, -71.3839, 99.6998
1.688, 1, 19.7111, 55.3221, -4.1271, 74.1305, -71.3301, 99.549
1.692, 1, 19.7551, 55.3026, -4.1541, 74.1938, -71.2764, 99.3984
1.696, 1, 19.799, 55.2831, -4.18108, 74.257, -71.2227, 99.248
1.7, 1, 19.8428, 55.2636, -4.20803, 74.3201, -71.1691, 99.0977
1.704, 1, 19.8867, 55.2441, -4.23495, 74.3832, -71.1155, 98.9475
1.708, 1, 19.9305, 55.2247, -4.26185, 74.4462, -71.062, 98.7975
1.712, 1, 19.9742, 55.2053, -4.28872, 74.5092, -71.0085, 98.6476
1.716, 1, 20.0179, 55.1858, -4.31557, 74.5721, -70.9551, 98.4978
1.72, 1, 20.0616, 55.1665, -4.34239, 74.6349, -70.9017, 98.3482
1.724, 1, 20.1052, 55.1471, -4.36919, 74.6977, -70.8484, 98.1987
1.728, 1, 20.1488, 55.1277, -4.39597, 74.7604, -70.7952, 98.0494
1.732, 1, 20.1923, 55.1084, -4.42272, 74.8231, -70.7419, 97.9002
1.736, 1, 20.2358, 55.0891, -4.44944, 74.8857, -70.6888, 97.7511
1.74, 1, 20.2793, 55.0698, -4.47614, 74.9483, -70.6357, 97.6022
1.744, 1, 20.3227, 55.0505, -4.50281, 75.0107, -70.5826, 97.4534
1.748, 1, 20.3661, 55.0312, -4.52946, 75.0732, -70.5296, 97.3048
1.752, 1, 20.4095, 55.012, -4.55609, 75.1356, -70.4766, 97.1562
1.756, 1, 20.4528, 54.9928, -4.58269, 75.1979, -70.4237, 97.0079
1.76, 1, 20.496, 54.9736, -4.60927, 75.2601, -70.3708, 96.8596
1.764, 1, 20.5393, 54.9544, -4.63582, 75.3224, -70.318, 96.7115
1.768, 1, 20.5824, 54.9352, -4.66235, 75.3845, -70.2652, 96.5636
1.772, 1, 20.6256, 54.916, -4.68885, 75.4466, -70.2124, 96.4157
1.776, 1, 20.6687, 54.8969, -4.71533, 75.5086, -70.1598, 96.268
1.78, 1, 20.7118, 54.8778, -4.74178, 75.5706, -70.1071, 96.1205
1.784, 1, 20.7548, 54.8587, -4.76822, 75.6325, -70.0545, 95.9731
1.788, 1, 20.7978, 54.8396, -4.79462, 75.6944, -70.002, 95.8258
1.792, 1, 20.8407, 54.8205, -4.821, 75.7562, -69.9495, 95.6786
1.796, 1, 20.8836, 54.8015, -4.84736, 75.818, -69.8971, 95.5316
1.8, 1, 20.9265, 54.7824, -4.8737, 75.8797, -69.8447, 95.3847
1.804, 1, 20.9694, 54.7634, -4.90001, 75.9413, -69.7923, 95.2379
1.808, 1, 21.0121, 54.7444, -4.9263, 76.0029, -69.74, 95.0913
1.812, 1, 21.0549, 54.7254, -4.95256, 76.0644, -69.6878, 94.9448
1.816, 1, 21.0976, 54.7064, -4.9788, 76.1259, -69.6356, 94.7985
1.82, 1, 21.1403, 54.6875, -5.00501, 76.1873, -69.5834, 94.6522
1.824, 1, 21.1829, 54.6686, -5.03121, 76.2487, -69.5313, 94.5061
1.828, 1, 21.2255, 54.6497, -5.05737, 76.31, -69.4792, 94.3602
1.832, 1, 21.2681, 54.6308, -5.08352, 76.3712, -69.4272, 94.2144
1.836, 1, 21.3106, 54.6119, -5.10964, 76.4324, -69.3753, 94.0687
1.84, 1, 21.3531, 54.593, -5.13574, 76.4936, -69.3233, 93.9231
1.844, 1, 21.3956, 54.5742, -5.16181, 76.5546, -69.2714, 93.7776
1.848, 1, 21.438, 54.5553, -5.18786, 76.6157, -69.2196, 93.6323
1.852, 1, 21.4803, 54.5365, -5.21389, 76.6767, -69.1678, 93.4872
1.856, 1, 21.5227, 54.5177, -5.23989, 76.7376, -69.1161, 93.3421
1.86, 1, 21.565, 54.4989, -5.26587, 76.7985, -69.0644, 93.1972
1.864, 1, 21.6072, 54.4802, -5.29183, 76.8593, -69.0128, 93.0524
1.868, 1, 21.6494, 54.4614, -5.31777, 76.92, -68.9612, 92.9078
1.872, 1, 21.6916, 54.4427, -5.34368, 76.9807, -68.9096, 92.7632
1.876, 1, 21.7338, 54.424, -5.36957, 77.0414, -68.8581, 92.6188
1.88, 1, 21.7759, 54.4053, -5.39543, 77.102, -68.8066, 92.4746
1.884, 1, 21.8179, 54.3866, -5.42128, 77.1625, -68.7552, 92.3304
1.888, 1, 21.86, 54.368, -5.44709, 77.223, -68.7038, 92.1864
1.892, 1, 21.902, 54.3493, -5.47289, 77.2834, -68.6525, 92.0425
1.896, 1, 21.9439, 54.3307, -5.49866, 77.3438, -68.6012, 91.8987
1.9, 1, 21.9859, 54.3121, -5.52442, 77.4042, -68.55, 91.7551
1.904, 1, 22.0277, 54.2935, -5.55014, 77.4644, -68.4988, 91.6116
1.908, 1, 22.0696, 54.2749, -5.57585, 77.5247, -68.4477, 91.4682
1.912, 1, 22.1114, 54.2563, -5.60153, 77.5848, -68.3966, 91.325
1.916, 1, 22.1532, 54.2378, -5.62719, 77.645, -68.3455, 91.1818
1.92, 1, 22.1949, 54.2192, -5.65283, 77.705, -68.2945, 91.0388
1.924, 1, 22.2366, 54.2007, -5.67845, 77.765, -68.2436, 90.896
1.928, 1, 22.2783, 54.1822, -5.70404, 77.825, -68.1926, 90.7532
1.932, 1, 22.3199, 54.1637, -5.72961, 77.8849, -68.1418, 90.6106
1.936, 1, 22.3615, 54.1453, -5.75516, 77.9447, -68.0909, 90.4681
1.94, 1, 22.403, 54.1268, -5.78068, 78.0045, -68.0401, 90.3257
1.944, 1, 22.4446, 54.1084, -5.80619, 78.0643, -67.9894, 90.1834
1.948, 1, 22.486, 54.09, -5.83167, 78.124, -67.9387, 90.0413
1.952, 1, 22.5275, 54.0716, -5.85713, 78.1836, -67.8881, 89.8993
1.956, 1, 22.5689, 54.0532, -5.88256, 78.2432, -67.8374, 89.7574
1.96, 1, 22.6103, 54.0348, -5.90798, 78.3028, -67.7869, 89.6157
1.964, 1, 22.6516, 54.0164, -5.93337, 78.3623, -67.7364, 89.474
1.968, 1, 22.6929, 53.9981, -5.95874, 78.4217, -67.6859, 89.3325
1.972, 1, 22.7342, 53.9798, -5.98409, 78.4811, -67.6355, 89.1911
1.976, 1, 22.7754, 53.9615, -6.00942, 78.5404, -67.5851, 89.0499
1.98, 1, 22.8166, 53.9432, -6.03472, 78.5997, -67.5347, 88.9087
1.984, 1, 22.8578, 53.9249, -6.06, 78.6589, -67.4844, 88.7677
1.988, 1, 22.8989, 53.9067, -6.08526, 78.7181, -67.4342, 88.6268
1.992, 1, 22.94, 53.8884, -6.1105, 78.7772, -67.3839, 88.486
1.996, 1, 22.981, 53.8702, -6.13572, 78.8363, -67.3338, 88.3454
1.999, 1, 23.022, 53.852, -6.16092, 78.8954, -67.2836, 88.2048
2.004, 1, 23.063, 53.8338, -6.18609, 78.9543, -67.2336, 88.0644
2.008, 1, 23.104, 53.8156, -6.21124, 79.0133, -67.1835, 87.9241
2.012, 1, 23.1449, 53.7974, -6.23637, 79.0721, -67.1335, 87.7839
2.015, 1, 23.1858, 53.7793, -6.26148, 79.131, -67.0835, 87.6439
2.019, 1, 23.2266, 53.7611, -6.28657, 79.1897, -67.0336, 87.5039
2.024, 1, 23.2674, 53.743, -6.31164, 79.2485, -66.9838, 87.3641
2.028, 1, 23.3082, 53.7249, -6.33668, 79.3072, -66.9339, 87.2244
2.031, 1, 23.3489, 53.7068, -6.36171, 79.3658, -66.8841, 87.0848
2.036, 1, 23.3896, 53.6888, -6.38671, 79.4244, -66.8344, 86.9454
2.04, 1, 23.4303, 53.6707, -6.41169, 79.4829, -66.7847, 86.806
2.044, 1, 23.4709, 53.6527, -6.43665, 79.5414, -66.735, 86.6668
2.048, 1, 23.5115, 53.6346, -6.46159, 79.5998, -66.6854, 86.5277
2.051, 1, 23.5521, 53.6166, -6.48651, 79.6582, -66.6358, 86.3887
2.055, 1, 23.5926, 53.5986, -6.5114, 79.7165, -66.5863, 86.2499
2.06, 1, 23.6331, 53.5806, -6.53628, 79.7748, -66.5368, 86.1111
2.064, 1, 23.6736, 53.5627, -6.56114, 79.833, -66.4874, 85.9725
2.068, 1, 23.714, 53.5447, -6.58597, 79.8912, -66.438, 85.834
2.071, 1, 23.7544, 53.5268, -6.61078, 79.9493, -66.3886, 85.6956
2.076, 1, 23.7948, 53.5089, -6.63557, 80.0074, -66.3393, 85.5573
2.08, 1, 23.8351, 53.491, -6.66034, 80.0654, -66.29, 85.4191
2.084, 1, 23.8754, 53.4731, -6.68509, 80.1234, -66.2407, 85.2811
2.087, 1, 23.9156, 53.4552, -6.70982, 80.1813, -66.1915, 85.1431
2.092, 1, 23.9559, 53.4373, -6.73453, 80.2392, -66.1424, 85.0053
2.096, 1, 23.9961, 53.4195, -6.75922, 80.2971, -66.0933, 84.8676
2.1, 1, 24.0362, 53.4017, -6.78389, 80.3549, -66.0442, 84.73
2.104, 1, 24.0763, 53.3839, -6.80853, 80.4126, -65.9951, 84.5925
2.107, 1, 24.1164, 53.366, -6.83316, 80.4703, -65.9462, 84.4552
2.111, 1, 24.1565, 53.3483, -6.85776, 80.5279, -65.8972, 84.3179
2.116, 1, 24.1965, 53.3305, -6.88235, 80.5855, -65.8483, 84.1808
2.12, 1, 24.2365, 53.3127, -6.90691, 80.6431, -65.7994, 84.0438
2.124, 1, 24.2765, 53.295, -6.93146, 80.7006, -65.7506, 83.9069
2.127, 1, 24.3164, 53.2773, -6.95598, 80.7581, -65.7018, 83.7701
2.132, 1, 24.3563, 53.2596, -6.98049, 80.8155, -65.653, 83.6334
2.136, 1, 24.3961, 53.2419, -7.00497, 80.8728, -65.6043, 83.4968
2.14, 1, 24.436, 53.2242, -7.02943, 80.9301, -65.5556, 83.3604
2.143, 1, 24.4758, 53.2065, -7.05388, 80.9874, -65.507, 83.224
2.148, 1, 24.5155, 53.1889, -7.0783, 81.0446, -65.4584, 83.0878
2.152, 1, 24.5552, 53.1712, -7.1027, 81.1018, -65.4099, 82.9517
2.156, 1, 24.5949, 53.1536, -7.12709, 81.1589, -65.3614, 82.8157
2.16, 1, 24.6346, 53.136, -7.15145, 81.216, -65.3129, 82.6798
2.163, 1, 24.6742, 53.1184, -7.1758, 81.273, -65.2644, 82.544
2.168, 1, 24.7138, 53.1008, -7.20012, 81.33, -65.216, 82.4083
2.172, 1, 24.7534, 53.0832, -7.22442, 81.387, -65.1677, 82.2728
2.176, 1, 24.7929, 53.0657, -7.24871, 81.4439, -65.1194, 82.1373
2.179, 1, 24.8324, 53.0481, -7.27297, 81.5007, -65.0711, 82.002
2.184, 1, 24.8719, 53.0306, -7.29722, 81.5575, -65.0229, 81.8667
2.188, 1, 24.9113, 53.0131, -7.32144, 81.6143, -64.9747, 81.7316
2.192, 1, 24.9508, 52.9956, -7.34565, 81.671, -64.9265, 81.5966
2.196, 1, 24.9901, 52.9781, -7.36983, 81.7276, -64.8784, 81.4617
2.199, 1, 25.0295, 52.9606, -7.394, 81.7842, -64.8303, 81.3269
2.204, 1, 25.0688, 52.9432, -7.41815, 81.8408, -64.7822, 81.1922
2.208, 1, 25.1081, 52.9258, -7.44228, 81.8973, -64.7342, 81.0576
2.212, 1, 25.1473, 52.9083, -7.46639, 81.9538, -64.6863, 80.9231
2.216, 1, 25.1865, 52.8909, -7.49048, 82.0103, -64.6384, 80.7888
2.219, 1, 25.2257, 52.8735, -7.51455, 82.0667, -64.5905, 80.6545
2.224, 1, 25.2649, 52.8561, -7.5386, 82.123, -64.5426, 80.5203
2.228, 1, 25.304, 52.8388, -7.56263, 82.1793, -64.4948, 80.3863
2.232, 1, 25.3431, 52.8214, -7.58664, 82.2356, -64.447, 80.2524
2.235, 1, 25.3821, 52.8041, -7.61064, 82.2918, -64.3993, 80.1185
2.24, 1, 25.4212, 52.7867, -7.63461, 82.348, -64.3516, 79.9848
2.244, 1, 25.4602, 52.7694, -7.65857, 82.4041, -64.3039, 79.8512
2.248, 1, 25.4991, 52.7521, -7.6825, 82.4602, -64.2563, 79.7177
2.252, 1, 25.5381, 52.7348, -7.70642, 82.5162, -64.2087, 79.5842
2.255, 1, 25.577, 52.7175, -7.73032, 82.5722, -64.1612, 79.4509
2.259, 1, 25.6159, 52.7003, -7.7542, 82.6281, -64.1136, 79.3177
2.264, 1, 25.6547, 52.683, -7.77806, 82.684, -64.0662, 79.1846
2.268, 1, 25.6935, 52.6658, -7.80191, 82.7399, -64.0187, 79.0517
2.272, 1, 25.7323, 52.6486, -7.82573, 82.7957, -63.9713, 78.9188
2.275, 1, 25.7711, 52.6314, -7.84954, 82.8515, -63.924, 78.786
2.28, 1, 25.8098, 52.6142, -7.87332, 82.9072, -63.8766, 78.6533
2.284, 1, 25.8485, 52.597, -7.89709, 82.9629, -63.8293, 78.5207
2.288, 1, 25.8871, 52.5798, -7.92084, 83.0185, -63.7821, 78.3882
2.291, 1, 25.9258, 52.5627, -7.94457, 83.0741, -63.7349, 78.2559
2.296, 1, 25.9644, 52.5455, -7.96829, 83.1297, -63.6877, 78.1236
2.3, 1, 26.003, 52.5284, -7.99198, 83.1852, -63.6406, 77.9914
2.304, 1, 26.0415, 52.5113, -8.01566, 83.2407, -63.5934, 77.8594
2.308, 1, 26.08, 52.4942, -8.03932, 83.2961, -63.5464, 77.7274
2.311, 1, 26.1185, 52.4771, -8.06295, 83.3515, -63.4993, 77.5956
2.316, 1, 26.157, 52.46, -8.08658, 83.4068, -63.4523, 77.4638
2.32, 1, 26.1954, 52.443, -8.11018, 83.4621, -63.4054, 77.3321
2.324, 1, 26.2338, 52.4259, -8.13377, 83.5174, -63.3585, 77.2006
2.328, 1, 26.2721, 52.4089, -8.15733, 83.5726, -63.3116, 77.0691
2.331, 1, 26.3105, 52.3919, -8.18088, 83.6278, -63.2647, 76.9378
2.336, 1, 26.3488, 52.3749, -8.20441, 83.6829, -63.2179, 76.8065
2.34, 1, 26.3871, 52.3579, -8.22793, 83.738, -63.1711, 76.6754
2.344, 1, 26.4253, 52.3409, -8.25142, 83.793, -63.1244, 76.5443
2.347, 1, 26.4635, 52.3239, -8.2749, 83.848, -63.0777, 76.4134
2.352, 1, 26.5017, 52.3069, -8.29836, 83.903, -63.031, 76.2825
2.356, 1, 26.5399, 52.29, -8.3218, 83.9579, -62.9844, 76.1518
2.36, 1, 26.578, 52.2731, -8.34522, 84.0128, -62.9378, 76.0211
2.364, 1, 26.6161, 52.2561, -8.36863, 84.0676, -62.8912, 75.8906
2.367, 1, 26.6542, 52.2392, -8.39202, 84.1224, -62.8446, 75.7601
2.372, 1, 26.6922, 52.2224, -8.41539, 84.1772, -62.7982, 75.6298
2.376, 1, 26.7303, 52.2055, -8.43874, 84.2319, -62.7517, 75.4995
2.38, 1, 26.7683, 52.1886, -8.46207, 84.2865, -62.7053, 75.3693
2.383, 1, 26.8062, 52.1717, -8.48539, 84.3412, -62.6589, 75.2393
2.388, 1, 26.8441, 52.1549, -8.50869, 84.3958, -62.6125, 75.1093
2.392, 1, 26.882, 52.1381, -8.53197, 84.4503, -62.5662, 74.9795
2.396, 1, 26.9199, 52.1213, -8.55524, 84.5048, -62.5199, 74.8497
2.4, 1, 26.9578, 52.1045, -8.57849, 84.5593, -62.4736, 74.72
2.403, 1, 26.9956, 52.0877, -8.60172, 84.6137, -62.4274, 74.5904
2.408, 1, 27.0334, 52.0709, -8.62493, 84.6681, -62.3812, 74.461
2.412, 1, 27.0711, 52.0541, -8.64812, 84.7224, -62.3351, 74.3316
2.416, 1, 27.1089, 52.0374, -8.6713, 84.7767, -62.289, 74.2023
2.42, 1, 27.1466, 52.0206, -8.69446, 84.831, -62.2429, 74.0731
2.423, 1, 27.1842, 52.0039, -8.71761, 84.8852, -62.1968, 73.944
2.428, 1, 27.2219, 51.9872, -8.74073, 84.9394, -62.1508, 73.815
2.432, 1, 27.2595, 51.9705, -8.76384, 84.9935, -62.1049, 73.6861
2.436, 1, 27.2971, 51.9538, -8.78694, 85.0476, -62.0589, 73.5573
2.439, 1, 27.3347, 51.9371, -8.81001, 85.1017, -62.013, 73.4286
2.444, 1, 27.3722, 51.9204, -8.83307, 85.1557, -61.9671, 73.3
2.448, 1, 27.4097, 51.9038, -8.85611, 85.2097, -61.9213, 73.1715
2.452, 1, 27.4472, 51.8871, -8.87913, 85.2636, -61.8755, 73.043
2.456, 1, 27.4847, 51.8705, -8.90214, 85.3175, -61.8297, 72.9147
2.459, 1, 27.5221, 51.8539, -8.92513, 85.3714, -61.784, 72.7865
2.464, 1, 27.5595, 51.8373, -8.9481, 85.4252, -61.7383, 72.6583
2.468, 1, 27.5969, 51.8207, -8.97106, 85.479, -61.6926, 72.5303
2.472, 1, 27.6342, 51.8041, -8.994, 85.5328, -61.6469, 72.4023
2.476, 1, 27.6715, 51.7875, -9.01693, 85.5865, -61.6013, 72.2745
2.479, 1, 27.7088, 51.771, -9.03983, 85.6401, -61.5557, 72.1467
2.484, 1, 27.7461, 51.7544, -9.06272, 85.6938, -61.5102, 72.019
2.488, 1, 27.7833, 51.7379, -9.0856, 85.7473, -61.4647, 71.8914
2.492, 1, 27.8205, 51.7214, -9.10845, 85.8009, -61.4192, 71.7639
2.495, 1, 27.8577, 51.7049, -9.13129, 85.8544, -61.3738, 71.6365
2.5, 1, 27.8949, 51.6884, -9.15412, 85.9079, -61.3284, 71.5092
2.504, 1, 27.932, 51.6719, -9.17692, 85.9613, -61.283, 71.382
2.508, 1, 27.9691, 51.6554, -9.19972, 86.0147, -61.2376, 71.2549
2.512, 1, 28.0062, 51.6389, -9.22249, 86.0681, -61.1923, 71.1278
2.515, 1, 28.0432, 51.6225, -9.24525, 86.1214, -61.1471, 71.0009
2.52, 1, 28.0803, 51.606, -9.26799, 86.1747, -61.1018, 70.874
2.524, 1, 28.1173, 51.5896, -9.29072, 86.2279, -61.0566, 70.7473
2.528, 1, 28.1542, 51.5732, -9.31343, 86.2811, -61.0114, 70.6206
2.531, 1, 28.1912, 51.5568, -9.33612, 86.3343, -60.9663, 70.494
2.536, 1, 28.2281, 51.5404, -9.3588, 86.3874, -60.9211, 70.3675
2.54, 1, 28.265, 51.524, -9.38146, 86.4405, -60.876, 70.2411
2.544, 1, 28.3018, 51.5077, -9.4041, 86.4935, -60.831, 70.1148
2.548, 1, 28.3387, 51.4913, -9.42673, 86.5466, -60.786, 69.9886
2.551, 1, 28.3755, 51.475, -9.44934, 86.5995, -60.741, 69.8625
2.556, 1, 28.4123, 51.4586, -9.47194, 86.6525, -60.696, 69.7364
2.56, 1, 28.449, 51.4423, -9.49452, 86.7054, -60.6511, 69.6105
2.564, 1, 28.4858, 51.426, -9.51709, 86.7583, -60.6062, 69.4846
2.568, 1, 28.5225, 51.4097, -9.53964, 86.8111, -60.5613, 69.3588
2.571, 1, 28.5592, 51.3934, -9.56217, 86.8639, -60.5165, 69.2331
2.576, 1, 28.5958, 51.3771, -9.58469, 86.9166, -60.4717, 69.1075
2.58, 1, 28.6325, 51.3609, -9.60719, 86.9694, -60.4269, 68.982
2.584, 1, 28.6691, 51.3446, -9.62968, 87.022, -60.3822, 68.8566
2.587, 1, 28.7057, 51.3284, -9.65215, 87.0747, -60.3375, 68.7312
2.592, 1, 28.7422, 51.3121, -9.67461, 87.1273, -60.2928, 68.606
2.596, 1, 28.7788, 51.2959, -9.69705, 87.1799, -60.2481, 68.4808
2.6, 1, 28.8153, 51.2797, -9.71947, 87.2324, -60.2035, 68.3557
2.604, 1, 28.8517, 51.2635, -9.74188, 87.2849, -60.159, 68.2307
2.607, 1, 28.8882, 51.2473, -9.76427, 87.3374, -60.1144, 68.1058
2.612, 1, 28.9246, 51.2311, -9.78665, 87.3898, -60.0699, 67.981
2.616, 1, 28.961, 51.215, -9.80902, 87.4422, -60.0254, 67.8563
2.62, 1, 28.9974, 51.1988, -9.83136, 87.4946, -59.9809, 67.7316
2.624, 1, 29.0338, 51.1827, -9.85369, 87.5469, -59.9365, 67.6071
2.627, 1, 29.0701, 51.1665, -9.87601, 87.5992, -59.8921, 67.4826
2.632, 1, 29.1064, 51.1504, -9.89831, 87.6514, -59.8477, 67.3582
2.636, 1, 29.1427, 51.1343, -9.9206, 87.7036, -59.8034, 67.2339
2.64, 1, 29.1789, 51.1182, -9.94287, 87.7558, -59.7591, 67.1096
2.643, 1, 29.2152, 51.1021, -9.96513, 87.8079, -59.7148, 66.9855
2.648, 1, 29.2514, 51.086, -9.98737, 87.86, -59.6705, 66.8614
2.652, 1, 29.2876, 51.07, -10.0096, 87.9121, -59.6263, 66.7375
2.656, 1, 29.3237, 51.0539, -10.0318, 87.9641, -59.5821, 66.6136
2.66, 1, 29.3599, 51.0379, -10.054, 88.0162, -59.5379, 66.4898
2.663, 1, 29.396, 51.0218, -10.0762, 88.0681, -59.4938, 66.3661
2.668, 1, 29.4321, 51.0058, -10.0983, 88.1201, -59.4497, 66.2424
2.672, 1, 29.4681, 50.9898, -10.1205, 88.172, -59.4056, 66.1188
2.676, 1, 29.5042, 50.9738, -10.1426, 88.2238, -59.3616, 65.9954
2.679, 1, 29.5402, 50.9578, -10.1648, 88.2756, -59.3176, 65.872
2.684, 1, 29.5762, 50.9418, -10.1869, 88.3274, -59.2736, 65.7487
2.688, 1, 29.6121, 50.9259, -10.209, 88.3792, -59.2296, 65.6254
2.692, 1, 29.6481, 50.9099, -10.231, 88.4309, -59.1857, 65.5023
2.696, 1, 29.684, 50.894, -10.2531, 88.4826, -59.1418, 65.3792
2.699, 1, 29.7199, 50.878, -10.2751, 88.5343, -59.098, 65.2562
2.704, 1, 29.7558, 50.8621, -10.2972, 88.5859, -59.0541, 65.1333
2.708, 1, 29.7916, 50.8462, -10.3192, 88.6375, -59.0103, 65.0105
2.712, 1, 29.8274, 50.8303, -10.3412, 88.689, -58.9665, 64.8878
2.716, 1, 29.8632, 50.8144, -10.3632, 88.7405, -58.9228, 64.7651
2.719, 1, 29.899, 50.7985, -10.3852, 88.792, -58.8791, 64.6426
2.724, 1, 29.9347, 50.7826, -10.4071, 88.8435, -58.8354, 64.5201
2.728, 1, 29.9705, 50.7668, -10.4291, 88.8949, -58.7917, 64.3977
2.732, 1, 30.0062, 50.7509, -10.451, 88.9463, -58.7481, 64.2753
2.735, 1, 30.0419, 50.7351, -10.4729, 88.9976, -58.7044, 64.1531
2.74, 1, 30.0775, 50.7192, -10.4948, 89.0489, -58.6609, 64.0309
2.744, 1, 30.1132, 50.7034, -10.5167, 89.1002, -58.6173, 63.9088
2.748, 1, 30.1488, 50.6876, -10.5386, 89.1515, -58.5738, 63.7868
2.752, 1, 30.1844, 50.6718, -10.5605, 89.2027, -58.5303, 63.6648
2.755, 1, 30.2199, 50.656, -10.5823, 89.2539, -58.4868, 63.543
2.76, 1, 30.2555, 50.6402, -10.6041, 89.305, -58.4434, 63.4212
2.764, 1, 30.291, 50.6244, -10.626, 89.3561, -58.4, 63.2995
2.768, 1, 30.3265, 50.6087, -10.6478, 89.4072, -58.3566, 63.1779
2.772, 1, 30.3619, 50.5929, -10.6695, 89.4583, -58.3132, 63.0563
2.775, 1, 30.3974, 50.5772, -10.6913, 89.5093, -58.2699, 62.9349
2.78, 1, 30.4328, 50.5615, -10.7131, 89.5603, -58.2266, 62.8135
2.784, 1, 30.4682, 50.5457, -10.7348, 89.6112, -58.1833, 62.6922
2.788, 1, 30.5036, 50.53, -10.7566, 89.6622, -58.1401, 62.5709
2.791, 1, 30.539, 50.5143, -10.7783, 89.713, -58.0969, 62.4498
2.796, 1, 30.5743, 50.4986, -10.8, 89.7639, -58.0537, 62.3287
2.8, 1, 30.6096, 50.483, -10.8217, 89.8147, -58.0106, 62.2077
2.804, 1, 30.6449, 50.4673, -10.8434, 89.8655, -57.9674, 62.0868
2.808, 1, 30.6802, 50.4516, -10.865, 89.9163, -57.9243, 61.9659
2.811, 1, 30.7154, 50.436, -10.8867, 89.967, -57.8812, 61.8452
2.816, 1, 30.7507, 50.4203, -10.9083, 90.0177, -57.8382, 61.7245
2.82, 1, 30.7859, 50.4047, -10.9299, 90.0683, -57.7952, 61.6039
2.824, 1, 30.821, 50.3891, -10.9516, 90.119, -57.7522, 61.4833
2.828, 1, 30.8562, 50.3735, -10.9732, 90.1696, -57.7092, 61.3629
2.831, 1, 30.8913, 50.3579, -10.9947, 90.2201, -57.6663, 61.2425
2.836, 1, 30.9265, 50.3423, -11.0163, 90.2707, -57.6233, 61.1222
2.84, 1, 30.9615, 50.3267, -11.0379, 90.3212, -57.5805, 61.0019
2.844, 1, 30.9966, 50.3111, -11.0594, 90.3716, -57.5376, 60.8818
2.847, 1, 31.0317, 50.2956, -11.0809, 90.4221, -57.4948, 60.7617
2.852, 1, 31.0667, 50.28, -11.1024, 90.4725, -57.452, 60.6417
2.856, 1, 31.1017, 50.2645, -11.124, 90.5229, -57.4092, 60.5217
2.86, 1, 31.1367, 50.2489, -11.1454, 90.5732, -57.3664, 60.4019
2.864, 1, 31.1716, 50.2334, -11.1669, 90.6235, -57.3237, 60.2821
2.867, 1, 31.2066, 50.2179, -11.1884, 90.6738, -57.281, 60.1624
2.872, 1, 31.2415, 50.2024, -11.2098, 90.7241, -57.2383, 60.0427
2.876, 1, 31.2764, 50.1869, -11.2313, 90.7743, -57.1957, 59.9232
2.88, 1, 31.3113, 50.1714, -11.2527, 90.8245, -57.153, 59.8037
2.883, 1, 31.3461, 50.1559, -11.2741, 90.8746, -57.1105, 59.6843
2.888, 1, 31.3809, 50.1405, -11.2955, 90.9247, -57.0679, 59.5649
2.892, 1, 31.4157, 50.125, -11.3169, 90.9748, -57.0253, 59.4457
2.896, 1, 31.4505, 50.1096, -11.3382, 91.0249, -56.9828, 59.3265
2.9, 1, 31.4853, 50.0941, -11.3596, 91.0749, -56.9403, 59.2074
2.903, 1, 31.5201, 50.0787, -11.3809, 91.1249, -56.8979, 59.0883
2.908, 1, 31.5548, 50.0633, -11.4023, 91.1749, -56.8554, 58.9693
2.912, 1, 31.5895, 50.0479, -11.4236, 91.2249, -56.813, 58.8504
2.916, 1, 31.6242, 50.0325, -11.4449, 91.2748, -56.7706, 58.7316
2.92, 1, 31.6588, 50.0171, -11.4662, 91.3246, -56.7283, 58.6128
2.923, 1, 31.6935, 50.0017, -11.4875, 91.3745, -56.6859, 58.4942
2.928, 1, 31.7281, 49.9863, -11.5087, 91.4243, -56.6436, 58.3755
2.932, 1, 31.7627, 49.971, -11.53, 91.4741, -56.6013, 58.257
2.936, 1, 31.7973, 49.9556, -11.5512, 91.5239, -56.5591, 58.1385
2.939, 1, 31.8318, 49.9403, -11.5724, 91.5736, -56.5168, 58.0201
2.944, 1, 31.8664, 49.9249, -11.5937, 91.6233, -56.4746, 57.9018
2.948, 1, 31.9009, 49.9096, -11.6149, 91.673, -56.4325, 57.7835
2.952, 1, 31.9354, 49.8943, -11.636, 91.7226, -56.3903, 57.6653
2.956, 1, 31.9698, 49.879, -11.6572, 91.7722, -56.3482, 57.5472
2.959, 1, 32.0043, 49.8637, -11.6784, 91.8218, -56.3061, 57.4292
2.964, 1, 32.0387, 49.8484, -11.6995, 91.8714, -56.264, 57.3112
2.968, 1, 32.0731, 49.8331, -11.7207, 91.9209, -56.2219, 57.1933
2.972, 1, 32.1075, 49.8179, -11.7418, 91.9704, -56.1799, 57.0755
2.976, 1, 32.1419, 49.8026, -11.7629, 92.0198, -56.1379, 56.9577
2.98, 1, 32.1762, 49.7873, -11.784, 92.0693, -56.0959, 56.84
2.984, 1, 32.2106, 49.7721, -11.8051, 92.1187, -56.0539, 56.7224
2.988, 1, 32.2449, 49.7569, -11.8262, 92.1681, -56.012, 56.6048
2.992, 1, 32.2792, 49.7416, -11.8472, 92.2174, -55.9701, 56.4873
2.995, 1, 32.3134, 49.7264, -11.8683, 92.2667, -55.9282, 56.3699
3, 1, 32.3477, 49.7112, -11.8893, 92.316, -55.8864, 56.2525
3.004, 1, 32.3819, 49.696, -11.9104, 92.3653, -55.8445, 56.1353
3.008, 1, 32.4161, 49.6808, -11.9314, 92.4145, -55.8027, 56.018
3.012, 1, 32.4503, 49.6656, -11.9524, 92.4637, -55.7609, 55.9009
3.015, 1, 32.4845, 49.6505, -11.9734, 92.5129, -55.7192, 55.7838
3.02, 1, 32.5187, 49.6353, -11.9943, 92.562, -55.6774, 55.6668
3.024, 1, 32.5528, 49.6202, -12.0153, 92.6112, -55.6357, 55.5499
3.028, 1, 32.5869, 49.605, -12.0363, 92.6603, -55.594, 55.433
3.031, 1, 32.621, 49.5899, -12.0572, 92.7093, -55.5524, 55.3162
3.036, 1, 32.6551, 49.5747, -12.0781, 92.7584, -55.5107, 55.1994
3.04, 1, 32.6891, 49.5596, -12.0991, 92.8074, -55.4691, 55.0827
3.044, 1, 32.7231, 49.5445, -12.12, 92.8563, -55.4275, 54.9661
3.048, 1, 32.7572, 49.5294, -12.1408, 92.9053, -55.3859, 54.8496
3.051, 1, 32.7912, 49.5143, -12.1617, 92.9542, -55.3444, 54.7331
3.056, 1, 32.8251, 49.4992, -12.1826, 93.0031, -55.3029, 54.6167
3.06, 1, 32.8591, 49.4841, -12.2035, 93.052, -55.2614, 54.5004
3.064, 1, 32.893, 49.4691, -12.2243, 93.1008, -55.2199, 54.3841
3.068, 1, 32.9269, 49.454, -12.2451, 93.1496, -55.1784, 54.2679
3.071, 1, 32.9608, 49.439, -12.266, 93.1984, -55.137, 54.1517
3.076, 1, 32.9947, 49.4239, -12.2868, 93.2472, -55.0956, 54.0357
3.08, 1, 33.0286, 49.4089, -12.3076, 93.2959, -55.0542, 53.9197
3.084, 1, 33.0624, 49.3939, -12.3284, 93.3446, -55.0129, 53.8037
3.087, 1, 33.0962, 49.3788, -12.3491, 93.3933, -54.9715, 53.6878
3.092, 1, 33.13, 49.3638, -12.3699, 93.4419, -54.9302, 53.572
3.096, 1, 33.1638, 49.3488, -12.3906, 93.4905, -54.8889, 53.4563
3.1, 1, 33.1976, 49.3338, -12.4114, 93.5391, -54.8477, 53.3406
3.104, 1, 33.2313, 49.3189, -12.4321, 93.5877, -54.8064, 53.2249
3.107, 1, 33.265, 49.3039, -12.4528, 93.6362, -54.7652, 53.1094
3.112, 1, 33.2988, 49.2889, -12.4735, 93.6847, -54.724, 52.9939
3.116, 1, 33.3324, 49.274, -12.4942, 93.7332, -54.6828, 52.8785
3.12, 1, 33.3661, 49.259, -12.5149, 93.7817, -54.6417, 52.7631
3.124, 1, 33.3998, 49.2441, -12.5356, 93.8301, -54.6006, 52.6478
3.128, 1, 33.4334, 49.2291, -12.5562, 93.8785, -54.5595, 52.5326
3.132, 1, 33.467, 49.2142, -12.5769, 93.9269, -54.5184, 52.4174
3.136, 1, 33.5006, 49.1993, -12.5975, 93.9752, -54.4773, 52.3023
3.14, 1, 33.5342, 49.1844, -12.6182, 94.0235, -54.4363, 52.1872
3.143, 1, 33.5677, 49.1695, -12.6388, 94.0718, -54.3953, 52.0723
3.148, 1, 33.6013, 49.1546, -12.6594, 94.1201, -54.3543, 51.9573
3.152, 1, 33.6348, 49.1397, -12.68, 94.1684, -54.3133, 51.8425
3.156, 1, 33.6683, 49.1248, -12.7005, 94.2166, -54.2724, 51.7277
3.16, 1, 33.7018, 49.11, -12.7211, 94.2648, -54.2314, 51.613
3.163, 1, 33.7353, 49.0951, -12.7417, 94.3129, -54.1905, 51.4983
3.168, 1, 33.7687, 49.0802, -12.7622, 94.3611, -54.1497, 51.3837
3.172, 1, 33.8021, 49.0654, -12.7828, 94.4092, -54.1088, 51.2691
3.176, 1, 33.8356, 49.0506, -12.8033, 94.4572, -54.068, 51.1547
3.179, 1, 33.8689, 49.0357, -12.8238, 94.5053, -54.0271, 51.0402
3.184, 1, 33.9023, 49.0209, -12.8443, 94.5533, -53.9864, 50.9259
3.188, 1, 33.9357, 49.0061, -12.8648, 94.6013, -53.9456, 50.8116
3.192, 1, 33.969, 48.9913, -12.8853, 94.6493, -53.9048, 50.6973
3.196, 1, 34.0023, 48.9765, -12.9057, 94.6973, -53.8641, 50.5832
3.199, 1, 34.0356, 48.9617, -12.9262, 94.7452, -53.8234, 50.4691
3.204, 1, 34.0689, 48.9469, -12.9466, 94.7931, -53.7827, 50.355
3.208, 1, 34.1022, 48.9322, -12.9671, 94.841, -53.7421, 50.241
3.212, 1, 34.1354, 48.9174, -12.9875, 94.8888, -53.7014, 50.1271
3.216, 1, 34.1687, 48.9026, -13.0079, 94.9367, -53.6608, 50.0132
3.22, 1, 34.2019, 48.8879, -13.0283, 94.9845, -53.6202, 49.8994
3.224, 1, 34.2351, 48.8732, -13.0487, 95.0322, -53.5797, 49.7857
3.228, 1, 34.2683, 48.8584, -13.0691, 95.08, -53.5391, 49.672
3.232, 1, 34.3014, 48.8437, -13.0895, 95.1277, -53.4986, 49.5584
3.235, 1, 34.3346, 48.829, -13.1098, 95.1754, -53.4581, 49.4448
3.24, 1, 34.3677, 48.8143, -13.1302, 95.2231, -53.4176, 49.3313
3.244, 1, 34.4008, 48.7996, -13.1505, 95.2707, -53.3771, 49.2179
3.248, 1, 34.4339, 48.7849, -13.1708, 95.3184, -53.3367, 49.1045
3.252, 1, 34.467, 48.7702, -13.1911, 95.366, -53.2962, 48.9911
3.255, 1, 34.5, 48.7555, -13.2115, 95.4136, -53.2558, 48.8779
3.26, 1, 34.5331, 48.7408, -13.2318, 95.4611, -53.2155, 48.7647
3.264, 1, 34.5661, 48.7262, -13.252, 95.5086, -53.1751, 48.6515
3.268, 1, 34.5991, 48.7115, -13.2723, 95.5561, -53.1348, 48.5384
3.272, 1, 34.6321, 48.6969, -13.2926, 95.6036, -53.0944, 48.4254
3.276, 1, 34.6651, 48.6822, -13.3128, 95.651, -53.0541, 48.3124
3.28, 1, 34.698, 48.6676, -13.3331, 95.6985, -53.0139, 48.1995
3.284, 1, 34.731, 48.653, -13.3533, 95.7459, -52.9736, 48.0867
3.288, 1, 34.7639, 48.6384, -13.3735, 95.7933, -52.9334, 47.9739
3.291, 1, 34.7968, 48.6237, -13.3937, 95.8406, -52.8932, 47.8611
3.296, 1, 34.8297, 48.6091, -13.4139, 95.8879, -52.853, 47.7485
3.3, 1, 34.8625, 48.5946, -13.4341, 95.9352, -52.8128, 47.6358
3.304, 1, 34.8954, 48.58, -13.4543, 95.9825, -52.7727, 47.5233
3.308, 1, 34.9282, 48.5654, -13.4745, 96.0298, -52.7325, 47.4108
3.312, 1, 34.961, 48.5508, -13.4946, 96.077, -52.6924, 47.2983
3.316, 1, 34.9939, 48.5362, -13.5148, 96.1242, -52.6523, 47.1859
3.32, 1, 35.0266, 48.5217, -13.5349, 96.1714, -52.6123, 47.0736
3.324, 1, 35.0594, 48.5071, -13.5551, 96.2186, -52.5722, 46.9613
3.328, 1, 35.0922, 48.4926, -13.5752, 96.2657, -52.5322, 46.8491
3.332, 1, 35.1249, 48.4781, -13.5953, 96.3128, -52.4922, 46.7369
3.336, 1, 35.1576, 48.4635, -13.6154, 96.3599, -52.4522, 46.6248
3.34, 1, 35.1903, 48.449, -13.6355, 96.4069, -52.4122, 46.5128
3.344, 1, 35.2229, 48.4345, -13.6556, 96.454, -52.3723, 46.4008
3.347, 1, 35.2554, 48.4201, -13.6756, 96.501, -52.3323, 46.2888
3.352, 1, 35.2877, 48.4057, -13.6957, 96.548, -52.2924, 46.177
3.356, 1, 35.3197, 48.3914, -13.7158, 96.5949, -52.2526, 46.0652
3.36, 1, 35.3513, 48.3773, -13.7359, 96.6418, -52.2128, 45.9536
3.364, 1, 35.3824, 48.3634, -13.756, 96.6886, -52.1731, 45.8422
3.368, 1, 35.4132, 48.3497, -13.7761, 96.7352, -52.1335, 45.7311
3.372, 1, 35.4435, 48.3363, -13.7961, 96.7817, -52.0941, 45.6205
3.376, 1, 35.4731, 48.3232, -13.8161, 96.8279, -52.0549, 45.5105
3.38, 1, 35.502, 48.3105, -13.836, 96.8737, -52.016, 45.4014
3.383, 1, 35.53, 48.2984, -13.8559, 96.919, -51.9776, 45.2934
3.388, 1, 35.5569, 48.2868, -13.8755, 96.9636, -51.9398, 45.1871
3.392, 1, 35.5828, 48.2759, -13.8949, 97.0073, -51.9027, 45.0829
3.396, 1, 35.6076, 48.2654, -13.9138, 97.0499, -51.8666, 44.9813
3.4, 1, 35.6313, 48.2555, -13.9322, 97.0911, -51.8317, 44.883
3.403, 1, 35.6542, 48.246, -13.9499, 97.1307, -51.7982, 44.7886
3.408, 1, 35.6761, 48.2368, -13.9667, 97.1685, -51.7662, 44.6986
3.412, 1, 35.6969, 48.2281, -13.9825, 97.2041, -51.736, 44.6137
3.416, 1, 35.7167, 48.2197, -13.9973, 97.2373, -51.7079, 44.5345
3.42, 1, 35.7353, 48.2118, -14.0108, 97.2681, -51.6818, 44.4612
3.424, 1, 35.7529, 48.2043, -14.0231, 97.2961, -51.658, 44.3944
3.428, 1, 35.7696, 48.197, -14.0341, 97.3214, -51.6366, 44.3342
3.432, 1, 35.7855, 48.1899, -14.0436, 97.3438, -51.6175, 44.2807
3.436, 1, 35.8006, 48.183, -14.0518, 97.3635, -51.6008, 44.234
3.439, 1, 35.815, 48.1763, -14.0585, 97.3804, -51.5864, 44.1937
3.444, 1, 35.8285, 48.1698, -14.0641, 97.3948, -51.5741, 44.1597
3.448, 1, 35.8409, 48.1638, -14.0685, 97.4068, -51.5639, 44.1313
3.452, 2, 35.8522, 48.1582, -14.072, 97.4166, -51.5554, 44.108
3.456, 2, 35.8622, 48.1532, -14.0747, 97.4245, -51.5486, 44.0893
3.46, 2, 35.8712, 48.1487, -14.0766, 97.4307, -51.5432, 44.0746
3.464, 2, 35.8792, 48.1447, -14.078, 97.4356, -51.539, 44.0632
3.468, 2, 35.8863, 48.1412, -14.0789, 97.4392, -51.5359, 44.0546
3.472, 2, 35.8926, 48.1381, -14.0795, 97.4419, -51.5335, 44.0482
3.476, 2, 35.898, 48.1355, -14.0798, 97.4439, -51.5318, 44.0437
3.48, 2, 35.9026, 48.1334, -14.0799, 97.4453, -51.5305, 44.0405
3.484, 2, 35.9062, 48.1317, -14.08, 97.4462, -51.5297, 44.0383
3.488, 2, 35.9089, 48.1305, -14.08, 97.4469, -51.5291, 44.0367
3.492, 2, 35.9109, 48.1296, -14.08, 97.4473, -51.5287, 44.0357
3.495, 2, 35.9123, 48.129, -14.08, 97.4476, -51.5284, 44.035
3.5, 2, 35.9132, 48.1286, -14.08, 97.4479, -51.5282, 44.0345
3.504, 2, 35.9138, 48.1283, -14.08, 97.448, -51.5281, 44.0342
3.508, 2, 35.9142, 48.1282, -14.08, 97.4481, -51.528, 44.034
3.512, 2, 35.9145, 48.128, -14.08, 97.4482, -51.528, 44.0338
3.516, 2, 35.9147, 48.128, -14.08, 97.4482, -51.5279, 44.0337
3.52, 2, 35.9149, 48.1279, -14.08, 97.4482, -51.5279, 44.0337
3.524, 2, 35.9149, 48.1279, -14.08, 97.4482, -51.5279, 44.0336
3.528, 2, 35.915, 48.1278, -14.08, 97.4483, -51.5279, 44.0336
3.531, 2, 35.915, 48.1278, -14.08, 97.4483, -51.5279, 44.0336
3.536, 2, 35.9151, 48.1278, -14.08, 97.4483, -51.5279, 44.0336
3.54, 2, 35.9151, 48.1278, -14.08, 97.4483, -51.5279, 44.0335
3.544, 2, 35.9151, 48.1278, -14.08, 97.4483, -51.5278, 44.0335
3.548, 2, 35.9151, 48.1278, -14.08, 97.4483, -51.5278, 44.0335
3.552, 2, 35.9151, 48.1278, -14.08, 97.4483, -51.5278, 44.0335
3.556, 2, 35.9151, 48.1278, -14.08, 97.4483, -51.5278, 44.0335
3.56, 2, 35.9151, 48.1278, -14.08, 97.4483, -51.5278, 44.0335
3.564, 2, 35.9151, 48.1278, -14.08, 97.4483, -51.5278, 44.0335
3.568, 2, 35.9151, 48.1278, -14.08, 97.4483, -51.5278, 44.0335
3.572, 2, 35.9151, 48.1278, -14.08, 97.4483, -51.5278, 44.0335
3.576, 2, 35.9151, 48.1278, -14.08, 97.4483, -51.5278, 44.0335
3.58, 2, 35.9151, 48.1278, -14.08, 97.4483, -51.5278, 44.0335
3.584, 2, 35.9151, 48.1278, -14.08, 97.4483, -51.5278, 44.0335
3.587, 2, 35.9151, 48.1278, -14.08, 97.4483, -51.5278, 44.0335
3.592, 2, 35.9151, 48.1278, -14.08, 97.4483, -51.5278, 44.0335
3.596, 2, 35.9151, 48.1278, -14.08, 97.4483, -51.5278, 44.0335
3.6, 2, 35.9151, 48.1278, -14.08, 97.4483, -51.5278, 44.0335
3.604, 2, 35.9151, 48.1278, -14.08, 97.4483, -51.5278, 44.0335
3.608, 2, 35.9151, 48.1278, -14.08, 97.4483, -51.5278, 44.0335
3.612, 2, 35.9151, 48.1278, -14.08, 97.4483, -51.5278, 44.0335
3.616, 2, 35.9151, 48.1278, -14.08, 97.4483, -51.5278, 44.0335
3.62, 2, 35.9151, 48.1278, -14.08, 97.4483, -51.5278, 44.0335
3.624, 2, 35.9151, 48.1278, -14.08, 97.4483, -51.5278, 44.0335
3.628, 2, 35.9151, 48.1278, -14.08, 97.4483, -51.5278, 44.0335
3.632, 2, 35.9151, 48.1278, -14.08, 97.4483, -51.5278, 44.0335
3.636, 2, 35.9151, 48.1278, -14.08, 97.4483, -51.5278, 44.0335
3.64, 2, 35.9151, 48.1278, -14.08, 97.4483, -51.5278, 44.0335
3.644, 2, 35.9151, 48.1278, -14.08, 97.4483, -51.5278, 44.0335
3.648, 2, 35.9151, 48.1278, -14.08, 97.4483, -51.5278, 44.0335
3.652, 2, 35.9151, 48.1278, -14.08, 97.4483, -51.5278, 44.0335
3.656, 2, 35.9151, 48.1278, -14.08, 97.4483, -51.5278, 44.0335
3.66, 2, 35.9151, 48.1278, -14.08, 97.4483, -51.5278, 44.0335
3.664, 2, 35.9151, 48.1278, -14.08, 97.4483, -51.5278, 44.0335
3.668, 2, 35.9151, 48.1278, -14.08, 97.4483, -51.5278, 44.0335
3.672, 2, 35.9151, 48.1278, -14.08, 97.4483, -51.5278, 44.0335
3.676, 2, 35.9151, 48.1278, -14.08, 97.4483, -51.5278, 44.0335
3.679, 2, 35.9151, 48.1278, -14.08, 97.4483, -51.5278, 44.0335
3.684, 2, 35.9151, 48.1278, -14.08, 97.4483, -51.5278, 44.0335
3.688, 2, 35.9151, 48.1278, -14.08, 97.4483, -51.5278, 44.0335
3.692, 2, 35.9151, 48.1278, -14.08, 97.4483, -51.5278, 44.0335
3.696, 2, 35.9151, 48.1278, -14.08, 97.4483, -51.5278, 44.0335
3.7, 2, 35.9151, 48.1278, -14.08, 97.4483, -51.5278, 44.0335
3.704, 2, 35.9151, 48.1278, -14.08, 97.4483, -51.5278, 44.0335
3.708, 2, 35.9151, 48.1278, -14.08, 97.4483, -51.5278, 44.0335
3.712, 2, 35.9151, 48.1278, -14.08, 97.4483, -51.5278, 44.0335
3.716, 2, 35.9151, 48.1278, -14.08, 97.4483, -51.5278, 44.0335
3.72, 2, 35.9151, 48.1278, -14.08, 97.4483, -51.5278, 44.0335
3.724, 2, 35.9151, 48.1278, -14.08, 97.4483, -51.5278, 44.0335
3.728, 2, 35.9151, 48.1278, -14.08, 97.4483, -51.5278, 44.0335
3.732, 2, 35.9151, 48.1278, -14.08, 97.4483, -51.5278, 44.0335
3.735, 2, 35.9151, 48.1278, -14.08, 97.4483, -51.5278, 44.0335
3.74, 2, 35.9151, 48.1278, -14.08, 97.4483, -51.5278, 44.0335
3.744, 2, 35.9151, 48.1278, -14.08, 97.4483, -51.5278, 44.0335
3.748, 2, 35.9151, 48.1278, -14.08, 97.4483, -51.5278, 44.0335
3.752, 2, 35.9151, 48.1278, -14.08, 97.4483, -51.5278, 44.0335
3.756, 2, 35.9151, 48.1278, -14.08, 97.4483, -51.5278, 44.0335
3.76, 2, 35.9151, 48.1278, -14.08, 97.4483, -51.5278, 44.0335
3.764, 2, 35.9151, 48.1278, -14.08, 97.4483, -51.5278, 44.0335
3.768, 2, 35.9151, 48.1278, -14.08, 97.4483, -51.5278, 44.0335
3.772, 2, 35.9151, 48.1278, -14.08, 97.4483, -51.5278, 44.0335
3.776, 2, 35.9151, 48.1278, -14.08, 97.4483, -51.5278, 44.0335
3.78, 2, 35.9151, 48.1278, -14.08, 97.4483, -51.5278, 44.0335
3.784, 2, 35.9151, 48.1278, -14.08, 97.4483, -51.5278, 44.0335
3.788, 2, 35.9151, 48.1278, -14.08, 97.4483, -51.5278, 44.0335
3.792, 2, 35.9151, 48.1278, -14.08, 97.4483, -51.5278, 44.0335
3.796, 2, 35.9151, 48.1278, -14.08, 97.4483, -51.5278, 44.0335
3.8, 2, 35.9151, 48.1278, -14.08, 97.4483, -51.5278, 44.0335
3.804, 2, 35.9151, 48.1278, -14.08, 97.4483, -51.5278, 44.0335
3.808, 2, 35.9151, 48.1278, -14.08, 97.4483, -51.5278, 44.0335
3.812, 2, 35.9151, 48.1278, -14.08, 97.4483, -51.5278, 44.0335
3.816, 2, 35.9151, 48.1278, -14.08, 97.4483, -51.5278, 44.0335
3.82, 2, 35.9151, 48.1278, -14.08, 97.4483, -51.5278, 44.0335
3.824, 2, 35.9151, 48.1278, -14.08, 97.4483, -51.5278, 44.0335
3.828, 2, 35.9151, 48.1278, -14.08, 97.4483, -51.5278, 44.0335
3.832, 2, 35.9151, 48.1278, -14.08, 97.4483, -51.5278, 44.0335
3.836, 2, 35.9151, 48.1278, -14.08, 97.4483, -51.5278, 44.0335
3.84, 2, 35.9151, 48.1278, -14.08, 97.4483, -51.5278, 44.0335
3.844, 2, 35.9151, 48.1278, -14.08, 97.4483, -51.5278, 44.0335
3.848, 2, 35.9151, 48.1278, -14.08, 97.4483, -51.5278, 44.0335
3.852, 2, 35.9151, 48.1278, -14.08, 97.4483, -51.5278, 44.0335
3.856, 2, 35.9151, 48.1278, -14.08, 97.4483, -51.5278, 44.0335
3.86, 2, 35.9151, 48.1278, -14.08, 97.4483, -51.5278, 44.0335
3.864, 2, 35.9151, 48.1278, -14.08, 97.4483, -51.5278, 44.0335
3.868, 2, 35.9151, 48.1278, -14.08, 97.4483, -51.5278, 44.0335
3.872, 2, 35.9151, 48.1278, -14.08, 97.4483, -51.5278, 44.0335
3.876, 2, 35.9151, 48.1278, -14.08, 97.4483, -51.5278, 44.0335
3.88, 2, 35.9151, 48.1278, -14.08, 97.4483, -51.5278, 44.0335
3.884, 2, 35.9151, 48.1278, -14.08, 97.4483, -51.5278, 44.0335
3.888, 2, 35.9151, 48.1278, -14.08, 97.4483, -51.5278, 44.0335
3.892, 2, 35.9151, 48.1278, -14.08, 97.4483, -51.5278, 44.0335
3.896, 2, 35.9151, 48.1278, -14.08, 97.4483, -51.5278, 44.0335
3.9, 2, 35.9151, 48.1278, -14.08, 97.4483, -51.5278, 44.0335
3.904, 2, 35.9151, 48.1278, -14.08, 97.4483, -51.5278, 44.0335
3.908, 2, 35.9151, 48.1278, -14.08, 97.4483, -51.5278, 44.0335
3.912, 2, 35.9151, 48.1278, -14.08, 97.4483, -51.5278, 44.0335
3.916, 2, 35.9151, 48.1278, -14.08, 97.4483, -51.5278, 44.0335
3.92, 2, 35.9151, 48.1278, -14.08, 97.4483, -51.5278, 44.0335
3.924, 2, 35.9151, 48.1278, -14.08, 97.4483, -51.5278, 44.0335
3.928, 2, 35.9151, 48.1278, -14.08, 97.4483, -51.5278, 44.0335
3.932, 2, 35.9151, 48.1278, -14.08, 97.4483, -51.5278, 44.0335
3.936, 2, 35.9151, 48.1278, -14.08, 97.4483, -51.5278, 44.0335
3.94, 2, 35.9151, 48.1278, -14.08, 97.4483, -51.5278, 44.0335
3.944, 2, 35.9151, 48.1278, -14.08, 97.4483, -51.5278, 44.0335
3.948, 2, 35.9151, 48.1278, -14.08, 97.4483, -51.5278, 44.0335
3.952, 2, 35.9151, 48.1278, -14.08, 97.4483, -51.5278, 44.0335
3.956, 2, 35.9151, 48.1278, -14.08, 97.4483, -51.5278, 44.0335
3.96, 2, 35.9151, 48.1278, -14.08, 97.4483, -51.5278, 44.0335
3.964, 2, 35.9151, 48.1278, -14.08, 97.4483, -51.5278, 44.0335
3.968, 2, 35.9151, 48.1278, -14.08, 97.4483, -51.5278, 44.0335
3.972, 2, 35.9151, 48.1278, -14.08, 97.4483, -51.5278, 44.0335
3.976, 2, 35.9151, 48.1278, -14.08, 97.4483, -51.5278, 44.0335
3.98, 2, 35.9151, 48.1278, -14.08, 97.4483, -51.5278, 44.0335
3.984, 2, 35.9151, 48.1278, -14.08, 97.4483, -51.5278, 44.0335
3.988, 2, 35.9151, 48.1278, -14.08, 97.4483, -51.5278, 44.0335
3.992, 2, 35.9151, 48.1278, -14.08, 97.4483, -51.5278, 44.0335
3.996, 2, 35.9151, 48.1278, -14.08, 97.4483, -51.5278, 44.0335
3.999, 2, 35.9151, 48.1278, -14.08, 97.4483, -51.5278, 44.0335
4.004, 2, 35.9151, 48.1278, -14.08, 97.4483, -51.5278, 44.0335
4.008, 2, 35.9151, 48.1278, -14.08, 97.4483, -51.5278, 44.0335
4.012, 2, 35.9151, 48.1278, -14.08, 97.4483, -51.5278, 44.0335
4.016, 2, 35.9151, 48.1278, -14.08, 97.4483, -51.5278, 44.0335
4.02, 2, 35.9151, 48.1278, -14.08, 97.4483, -51.5278, 44.0335
4.024, 2, 35.9151, 48.1278, -14.08, 97.4483, -51.5278, 44.0335
4.028, 2, 35.9151, 48.1278, -14.08, 97.4483, -51.5278, 44.0335
4.032, 2, 35.9151, 48.1278, -14.08, 97.4483, -51.5278, 44.0335
4.036, 2, 35.9151, 48.1278, -14.08, 97.4483, -51.5278, 44.0335
4.04, 2, 35.9151, 48.1278, -14.08, 97.4483, -51.5278, 44.0335
4.044, 2, 35.9151, 48.1278, -14.08, 97.4483, -51.5278, 44.0335
4.048, 2, 35.9151, 48.1278, -14.08, 97.4483, -51.5278, 44.0335
4.052, 2, 35.9151, 48.1278, -14.08, 97.4483, -51.5278, 44.0335
4.056, 2, 35.9151, 48.1278, -14.08, 97.4483, -51.5278, 44.0335
4.06, 2, 35.9151, 48.1278, -14.08, 97.4483, -51.5278, 44.0335
4.064, 2, 35.9151, 48.1278, -14.08, 97.4483, -51.5278, 44.0335
4.068, 2, 35.9151, 48.1278, -14.08, 97.4483, -51.5278, 44.0335
4.072, 2, 35.9151, 48.1278, -14.08, 97.4483, -51.5278, 44.0335
4.076, 2, 35.9151, 48.1278, -14.08, 97.4483, -51.5278, 44.0335
4.08, 2, 35.9151, 48.1278, -14.08, 97.4483, -51.5278, 44.0335
4.084, 2, 35.9151, 48.1278, -14.08, 97.4483, -51.5278, 44.0335
4.088, 2, 35.9151, 48.1278, -14.08, 97.4483, -51.5278, 44.0335
4.092, 2, 35.9151, 48.1278, -14.08, 97.4483, -51.5278, 44.0335
4.096, 2, 35.9151, 48.1278, -14.08, 97.4483, -51.5278, 44.0335
4.1, 2, 35.9151, 48.1278, -14.08, 97.4483, -51.5278, 44.0335
4.104, 2, 35.9151, 48.1278, -14.08, 97.4483, -51.5278, 44.0335
4.108, 2, 35.9151, 48.1278, -14.08, 97.4483, -51.5278, 44.0335
4.112, 2, 35.9151, 48.1278, -14.08, 97.4483, -51.5278, 44.0335
4.116, 2, 35.9151, 48.1278, -14.08, 97.4483, -51.5278, 44.0335
4.12, 2, 35.9151, 48.1278, -14.08, 97.4483, -51.5278, 44.0335
4.124, 2, 35.9151, 48.1278, -14.08, 97.4483, -51.5278, 44.0335
4.128, 2, 35.9151, 48.1278, -14.08, 97.4483, -51.5278, 44.0335
4.132, 2, 35.9151, 48.1278, -14.08, 97.4483, -51.5278, 44.0335
4.136, 2, 35.9151, 48.1278, -14.08, 97.4483, -51.5278, 44.0335
4.14, 2, 35.9151, 48.1278, -14.08, 97.4483, -51.5278, 44.0335
4.144, 2, 35.9151, 48.1278, -14.08, 97.4483, -51.5278, 44.0335
4.148, 2, 35.9151, 48.1278, -14.08, 97.4483, -51.5278, 44.0335
4.152, 2, 35.9151, 48.1278, -14.08, 97.4483, -51.5278, 44.0335
4.156, 2, 35.9151, 48.1278, -14.08, 97.4483, -51.5278, 44.0335
4.16, 2, 35.9151, 48.1278, -14.08, 97.4483, -51.5278, 44.0335
4.164, 2, 35.9151, 48.1278, -14.08, 97.4483, -51.5278, 44.0335
4.168, 2, 35.9151, 48.1278, -14.08, 97.4483, -51.5278, 44.0335
4.172, 2, 35.9151, 48.1278, -14.08, 97.4483, -51.5278, 44.0335
4.176, 2, 35.9151, 48.1278, -14.08, 97.4483, -51.5278, 44.0335
4.18, 2, 35.9151, 48.1278, -14.08, 97.4483, -51.5278, 44.0335
4.184, 2, 35.9151, 48.1278, -14.08, 97.4483, -51.5278, 44.0335
4.188, 2, 35.9151, 48.1278, -14.08, 97.4483, -51.5278, 44.0335
4.192, 2, 35.9151, 48.1278, -14.08, 97.4483, -51.5278, 44.0335
4.196, 2, 35.9151, 48.1278, -14.08, 97.4483, -51.5278, 44.0335
4.2, 2, 35.9151, 48.1278, -14.08, 97.4483, -51.5278, 44.0335
4.204, 2, 35.9151, 48.1278, -14.08, 97.4483, -51.5278, 44.0335
4.208, 2, 35.9151, 48.1278, -14.08, 97.4483, -51.5278, 44.0335
4.212, 2, 35.9151, 48.1278, -14.08, 97.4483, -51.5278, 44.0335
4.216, 2, 35.9151, 48.1278, -14.08, 97.4483, -51.5278, 44.0335
4.22, 2, 35.9151, 48.1278, -14.08, 97.4483, -51.5278, 44.0335
4.224, 2, 35.9151, 48.1278, -14.08, 97.4483, -51.5278, 44.0335
4.228, 2, 35.9151, 48.1278, -14.08, 97.4483, -51.5278, 44.0335
4.232, 2, 35.9151, 48.1278, -14.08, 97.4483, -51.5278, 44.0335
4.236, 2, 35.9151, 48.1278, -14.08, 97.4483, -51.5278, 44.0335
4.24, 2, 35.9151, 48.1278, -14.08, 97.4483, -51.5278, 44.0335
4.244, 2, 35.9151, 48.1278, -14.08, 97.4483, -51.5278, 44.0335
4.248, 2, 35.9151, 48.1278, -14.08, 97.4483, -51.5278, 44.0335
4.252, 2, 35.9151, 48.1278, -14.08, 97.4483, -51.5278, 44.0335
4.256, 2, 35.9151, 48.1278, -14.08, 97.4483, -51.5278, 44.0335
4.26, 2, 35.9151, 48.1278, -14.08, 97.4483, -51.5278, 44.0335
4.264, 2, 35.9151, 48.1278, -14.08, 97.4483, -51.5278, 44.0335
4.268, 2, 35.9151, 48.1278, -14.08, 97.4483, -51.5278, 44.0335
4.272, 2, 35.9151, 48.1278, -14.08, 97.4483, -51.5278, 44.0335
4.276, 2, 35.9151, 48.1278, -14.08, 97.4483, -51.5278, 44.0335
4.28, 2, 35.9151, 48.1278, -14.08, 97.4483, -51.5278, 44.0335
4.284, 2, 35.9151, 48.1278, -14.08, 97.4483, -51.5278, 44.0335
4.288, 2, 35.9151, 48.1278, -14.08, 97.4483, -51.5278, 44.0335
4.292, 2, 35.9151, 48.1278, -14.08, 97.4483, -51.5278, 44.0335
4.296, 2, 35.9151, 48.1278, -14.08, 97.4483, -51.5278, 44.0335
4.3, 2, 35.9151, 48.1278, -14.08, 97.4483, -51.5278, 44.0335
4.304, 2, 35.9151, 48.1278, -14.08, 97.4483, -51.5278, 44.0335
4.308, 2, 35.9151, 48.1278, -14.08, 97.4483, -51.5278, 44.0335
4.312, 2, 35.9151, 48.1278, -14.08, 97.4483, -51.5278, 44.0335
4.316, 2, 35.9151, 48.1278, -14.08, 97.4483, -51.5278, 44.0335
4.32, 2, 35.9151, 48.1278, -14.08, 97.4483, -51.5278, 44.0335
4.324, 2, 35.9151, 48.1278, -14.08, 97.4483, -51.5278, 44.0335
4.328, 2, 35.9151, 48.1278, -14.08, 97.4483, -51.5278, 44.0335
4.332, 2, 35.9151, 48.1278, -14.08, 97.4483, -51.5278, 44.0335
4.336, 2, 35.9151, 48.1278, -14.08, 97.4483, -51.5278, 44.0335
4.34, 2, 35.9151, 48.1278, -14.08, 97.4483, -51.5278, 44.0335
4.344, 2, 35.9151, 48.1278, -14.08, 97.4483, -51.5278, 44.0335
4.348, 2, 35.9151, 48.1278, -14.08, 97.4483, -51.5278, 44.0335
4.352, 2, 35.9151, 48.1278, -14.08, 97.4483, -51.5278, 44.0335
4.356, 2, 35.9151, 48.1278, -14.08, 97.4483, -51.5278, 44.0335
4.36, 2, 35.9151, 48.1278, -14.08, 97.4483, -51.5278, 44.0335
4.364, 2, 35.9151, 48.1278, -14.08, 97.4483, -51.5278, 44.0335
4.368, 2, 35.9151, 48.1278, -14.08, 97.4483, -51.5278, 44.0335
4.372, 2, 35.9151, 48.1278, -14.08, 97.4483, -51.5278, 44.0335
4.376, 2, 35.9151, 48.1278, -14.08, 97.4483, -51.5278, 44.0335
4.38, 2, 35.9151, 48.1278, -14.08, 97.4483, -51.5278, 44.0335
4.384, 2, 35.9151, 48.1278, -14.08, 97.4483, -51.5278, 44.0335
4.388, 2, 35.9151, 48.1278, -14.08, 97.4483, -51.5278, 44.0335
4.392, 2, 35.9151, 48.1278, -14.08, 97.4483, -51.5278, 44.0335
4.396, 2, 35.9151, 48.1278, -14.08, 97.4483, -51.5278, 44.0335
4.4, 2, 35.9151, 48.1278, -14.08, 97.4483, -51.5278, 44.0335
4.404, 2, 35.9151, 48.1278, -14.08, 97.4483, -51.5278, 44.0335
4.408, 2, 35.9151, 48.1278, -14.08, 97.4483, -51.5278, 44.0335
4.412, 2, 35.9151, 48.1278, -14.08, 97.4483, -51.5278, 44.0335
4.416, 2, 35.9151, 48.1278, -14.08, 97.4483, -51.5278, 44.0335
4.42, 2, 35.9151, 48.1278, -14.08, 97.4483, -51.5278, 44.0335
4.424, 2, 35.9151, 48.1278, -14.08, 97.4483, -51.5278, 44.0335
4.428, 2, 35.9151, 48.1278, -14.08, 97.4483, -51.5278, 44.0335
4.432, 2, 35.9151, 48.1278, -14.08, 97.4483, -51.5278, 44.0335
4.436, 2, 35.9151, 48.1278, -14.08, 97.4483, -51.5278, 44.0335
4.44, 2, 35.9151, 48.1278, -14.08, 97.4483, -51.5278, 44.0335
4.444, 2, 35.9151, 48.1278, -14.08, 97.4483, -51.5278, 44.0335
4.448, 2, 35.9151, 48.1278, -14.08, 97.4483, -51.5278, 44.0335
4.452, 3, 35.9151, 48.1278, -14.08, 97.4483, -51.5278, 44.0335
4.456, 3, 35.9151, 48.1278, -14.08, 97.4483, -51.5278, 44.0335
4.46, 3, 35.9151, 48.1278, -14.08, 97.4483, -51.5278, 44.0335
4.464, 3, 35.9151, 48.1278, -14.08, 97.4483, -51.5278, 44.0335
4.468, 3, 35.9151, 48.1278, -14.08, 97.4483, -51.5278, 44.0335
4.472, 3, 35.9151, 48.1278, -14.08, 97.4483, -51.5278, 44.0335
4.476, 3, 35.9151, 48.1278, -14.08, 97.4483, -51.5278, 44.0335
4.48, 3, 35.9151, 48.1278, -14.08, 97.4483, -51.5278, 44.0335
4.484, 3, 35.9151, 48.1278, -14.08, 97.4483, -51.5278, 44.0335
4.488, 3, 35.9151, 48.1278, -14.08, 97.4483, -51.5278, 44.0335
4.492, 4, 35.9151, 48.1278, -14.08, 97.4483, -51.5278, 44.0335
4.496, 4, 35.9151, 48.1278, -14.08, 97.4483, -51.5278, 44.0335
4.5, 4, 35.9151, 48.1278, -14.08, 97.4483, -51.5278, 44.0335
4.504, 4, 35.9151, 48.1278, -14.08, 97.4483, -51.5278, 44.0335
4.508, 4, 35.9151, 48.1278, -14.08, 97.4483, -51.5278, 44.0335
4.512, 4, 35.9151, 48.1278, -14.08, 97.4483, -51.5278, 44.0335
4.516, 4, 35.9151, 48.1278, -14.08, 97.4483, -51.5278, 44.0335
4.52, 4, 35.9151, 48.1278, -14.08, 97.4483, -51.5278, 44.0335
4.524, 4, 35.9151, 48.1278, -14.08, 97.4483, -51.5278, 44.0335
4.528, 4, 35.9151, 48.1278, -14.08, 97.4483, -51.5278, 44.0335
4.532, 4, 35.9151, 48.1278, -14.08, 97.4483, -51.5278, 44.0335
4.536, 4, 35.9151, 48.1278, -14.08, 97.4483, -51.5278, 44.0335
4.54, 4, 35.9151, 48.1278, -14.08, 97.4483, -51.5278, 44.0335
4.544, 4, 35.9151, 48.1278, -14.08, 97.4483, -51.5278, 44.0335
4.548, 4, 35.9151, 48.1278, -14.08, 97.4483, -51.5278, 44.0335
4.552, 4, 35.9151, 48.1278, -14.08, 97.4483, -51.5278, 44.0335
4.556, 4, 35.9151, 48.1278, -14.08, 97.4483, -51.5278, 44.0335
4.56, 4, 35.9151, 48.1278, -14.08, 97.4483, -51.5278, 44.0335
4.564, 4, 35.9151, 48.1278, -14.08, 97.4483, -51.5278, 44.0335
4.568, 4, 35.9151, 48.1278, -14.08, 97.4483, -51.5278, 44.0335
4.572, 4, 35.9151, 48.1278, -14.08, 97.4483, -51.5278, 44.0335
4.576, 4, 35.9151, 48.1278, -14.08, 97.4483, -51.5278, 44.0335
4.58, 4, 35.9151, 48.1278, -14.08, 97.4483, -51.5278, 44.0335
4.584, 4, 35.9151, 48.1278, -14.08, 97.4483, -51.5278, 44.0335
4.588, 4, 35.9151, 48.1278, -14.08, 97.4483, -51.5278, 44.0335
4.592, 5, 35.9151, 48.1278, -14.08, 97.4483, -51.5278, 44.0335
4.596, 5, 35.9151, 48.1278, -14.08, 97.4483, -51.5278, 44.0335
4.6, 5, 35.9151, 48.1278, -14.08, 97.4483, -51.5278, 44.0335
4.604, 5, 35.9151, 48.1278, -14.08, 97.4483, -51.5278, 44.0335
4.608, 5, 35.9151, 48.1278, -14.08, 97.4483, -51.5278, 44.0335
4.612, 5, 35.9151, 48.1278, -14.08, 97.4483, -51.5278, 44.0335
4.616, 5, 35.9151, 48.1278, -14.08, 97.4483, -51.5278, 44.0335
4.62, 5, 35.9151, 48.1278, -14.08, 97.4483, -51.5278, 44.0335
4.624, 5, 35.9151, 48.1278, -14.08, 97.4483, -51.5278, 44.0335
4.628, 5, 35.9151, 48.1278, -14.08, 97.4483, -51.5278, 44.0335
4.632, 5, 35.9151, 48.1278, -14.08, 97.4483, -51.5278, 44.0335
4.636, 5, 35.9151, 48.1278, -14.08, 97.4483, -51.5278, 44.0335
4.64, 5, 35.915, 48.128, -14.08, 97.4483, -51.5279, 44.0335
4.644, 5, 35.9148, 48.1283, -14.08, 97.4483, -51.5279, 44.0335
4.648, 5, 35.9145, 48.1288, -14.08, 97.4482, -51.528, 44.0335
4.652, 5, 35.914, 48.1297, -14.08, 97.4482, -51.5283, 44.0334
4.656, 5, 35.9134, 48.1307, -14.0799, 97.4481, -51.5289, 44.0331
4.66, 5, 35.9127, 48.1319, -14.0798, 97.4479, -51.5298, 44.0328
4.664, 5, 35.912, 48.1333, -14.0797, 97.4476, -51.5313, 44.0322
4.668, 5, 35.9113, 48.1346, -14.0795, 97.4471, -51.5334, 44.0314
4.672, 5, 35.9107, 48.136, -14.0793, 97.4465, -51.5363, 44.0303
4.676, 5, 35.9102, 48.1375, -14.079, 97.4456, -51.5401, 44.0289
4.68, 5, 35.9098, 48.139, -14.0786, 97.4446, -51.5449, 44.0271
4.684, 5, 35.9093, 48.1407, -14.0781, 97.4433, -51.5507, 44.0249
4.688, 5, 35.9089, 48.1425, -14.0776, 97.4418, -51.5575, 44.0223
4.692, 5, 35.9086, 48.1443, -14.077, 97.4401, -51.5653, 44.0194
4.696, 5, 35.9084, 48.1461, -14.0763, 97.4382, -51.5742, 44.016
4.7, 5, 35.9083, 48.1479, -14.0755, 97.4361, -51.584, 44.0123
4.704, 5, 35.9083, 48.1498, -14.0747, 97.4338, -51.5946, 44.0083
4.708, 5, 35.9082, 48.1517, -14.0738, 97.4313, -51.6059, 44.004
4.712, 5, 35.9082, 48.1539, -14.0729, 97.4287, -51.6178, 43.9995
4.716, 5, 35.908, 48.1562, -14.0719, 97.426, -51.6301, 43.9949
4.72, 5, 35.9077, 48.1588, -14.0709, 97.4232, -51.6428, 43.9901
4.724, 5, 35.9073, 48.1616, -14.0699, 97.4204, -51.6557, 43.9852
4.728, 5, 35.9068, 48.1646, -14.0689, 97.4176, -51.6687, 43.9803
4.732, 5, 35.9062, 48.1678, -14.0678, 97.4147, -51.6819, 43.9753
4.736, 5, 35.9056, 48.171, -14.0668, 97.4118, -51.6951, 43.9703
4.74, 5, 35.9049, 48.1743, -14.0657, 97.4089, -51.7083, 43.9653
4.744, 5, 35.9042, 48.1776, -14.0647, 97.406, -51.7216, 43.9603
4.748, 5, 35.9035, 48.181, -14.0636, 97.4031, -51.7349, 43.9553
4.752, 5, 35.9027, 48.1844, -14.0625, 97.4002, -51.7482, 43.9503
4.756, 5, 35.902, 48.1878, -14.0615, 97.3973, -51.7616, 43.9453
4.76, 5, 35.9012, 48.1912, -14.0604, 97.3944, -51.7749, 43.9402
4.764, 5, 35.9005, 48.1946, -14.0593, 97.3914, -51.7883, 43.9352
4.768, 5, 35.8997, 48.198, -14.0582, 97.3885, -51.8016, 43.9302
4.772, 5, 35.899, 48.2014, -14.0572, 97.3856, -51.815, 43.9251
4.776, 5, 35.8982, 48.2048, -14.0561, 97.3827, -51.8283, 43.9201
4.78, 5, 35.8975, 48.2082, -14.055, 97.3797, -51.8417, 43.9151
4.784, 5, 35.8967, 48.2116, -14.0539, 97.3768, -51.855, 43.91
4.788, 5, 35.896, 48.215, -14.0528, 97.3739, -51.8684, 43.905
4.792, 5, 35.8952, 48.2185, -14.0517, 97.3709, -51.8817, 43.9
4.796, 5, 35.8945, 48.2219, -14.0507, 97.368, -51.8951, 43.895
4.8, 5, 35.8937, 48.2253, -14.0496, 97.3651, -51.9084, 43.8899
4.804, 5, 35.8929, 48.2287, -14.0485, 97.3621, -51.9218, 43.8849
4.808, 5, 35.8922, 48.2321, -14.0474, 97.3592, -51.9351, 43.8799
4.812, 5, 35.8914, 48.2355, -14.0463, 97.3563, -51.9485, 43.8749
4.816, 5, 35.8907, 48.2389, -14.0452, 97.3533, -51.9618, 43.8699
4.82, 5, 35.8899, 48.2423, -14.0441, 97.3504, -51.9752, 43.8648
4.824, 5, 35.8891, 48.2457, -14.043, 97.3475, -51.9885, 43.8598
4.828, 5, 35.8884, 48.2491, -14.0419, 97.3445, -52.0019, 43.8548
4.832, 5, 35.8876, 48.2525, -14.0408, 97.3416, -52.0152, 43.8498
4.836, 5, 35.8868, 48.2559, -14.0397, 97.3386, -52.0286, 43.8448
4.84, 5, 35.8861, 48.2593, -14.0386, 97.3357, -52.0419, 43.8398
4.844, 5, 35.8853, 48.2627, -14.0374, 97.3327, -52.0552, 43.8348
4.848, 5, 35.8845, 48.2661, -14.0363, 97.3298, -52.0686, 43.8297
4.852, 5, 35.8838, 48.2695, -14.0352, 97.3268, -52.0819, 43.8247
4.856, 5, 35.883, 48.2729, -14.0341, 97.3239, -52.0953, 43.8197
4.86, 5, 35.8822, 48.2763, -14.033, 97.3209, -52.1086, 43.8147
4.864, 5, 35.8815, 48.2797, -14.0319, 97.318, -52.122, 43.8097
4.868, 5, 35.8807, 48.2831, -14.0308, 97.315, -52.1353, 43.8047
4.872, 5, 35.8799, 48.2864, -14.0296, 97.3121, -52.1487, 43.7997
4.876, 5, 35.8791, 48.2898, -14.0285, 97.3091, -52.162, 43.7947
4.88, 5, 35.8784, 48.2932, -14.0274, 97.3062, -52.1754, 43.7897
4.884, 5, 35.8776, 48.2966, -14.0263, 97.3032, -52.1887, 43.7847
4.888, 5, 35.8768, 48.3, -14.0251, 97.3003, -52.202, 43.7797
4.892, 5, 35.876, 48.3034, -14.024, 97.2973, -52.2154, 43.7747
4.896, 5, 35.8753, 48.3068, -14.0229, 97.2943, -52.2287, 43.7697
4.9, 5, 35.8745, 48.3101, -14.0217, 97.2914, -52.2421, 43.7647
4.904, 5, 35.8737, 48.3135, -14.0206, 97.2884, -52.2554, 43.7597
4.908, 5, 35.8729, 48.3169, -14.0195, 97.2855, -52.2688, 43.7547
4.912, 5, 35.8722, 48.3203, -14.0183, 97.2825, -52.2821, 43.7497
4.916, 5, 35.8714, 48.3237, -14.0172, 97.2795, -52.2955, 43.7447
4.92, 5, 35.8706, 48.327, -14.016, 97.2766, -52.3088, 43.7397
4.924, 5, 35.8698, 48.3304, -14.0149, 97.2736, -52.3221, 43.7347
4.928, 5, 35.869, 48.3338, -14.0138, 97.2706, -52.3355, 43.7297
4.932, 5, 35.8683, 48.3372, -14.0126, 97.2677, -52.3488, 43.7247
4.936, 5, 35.8675, 48.3405, -14.0115, 97.2647, -52.3622, 43.7197
4.94, 5, 35.8667, 48.3439, -14.0103, 97.2617, -52.3755, 43.7148
4.944, 5, 35.8659, 48.3473, -14.0092, 97.2588, -52.3888, 43.7098
4.948, 5, 35.8651, 48.3507, -14.008, 97.2558, -52.4022, 43.7048
4.952, 5, 35.8643, 48.354, -14.0068, 97.2528, -52.4155, 43.6998
4.956, 5, 35.8636, 48.3574, -14.0057, 97.2498, -52.4289, 43.6948
4.96, 5, 35.8628, 48.3608, -14.0045, 97.2468, -52.4422, 43.6898
4.964, 5, 35.862, 48.3641, -14.0034, 97.2439, -52.4555, 43.6849
4.968, 5, 35.8612, 48.3675, -14.0022, 97.2409, -52.4689, 43.6799
4.972, 5, 35.8604, 48.3708, -14.001, 97.2379, -52.4822, 43.6749
4.976, 5, 35.8596, 48.3742, -13.9999, 97.2349, -52.4955, 43.6699
4.98, 5, 35.8588, 48.3776, -13.9987, 97.232, -52.5089, 43.6649
4.984, 5, 35.858, 48.3809, -13.9975, 97.229, -52.5222, 43.66
4.988, 5, 35.8572, 48.3843, -13.9964, 97.226, -52.5356, 43.655
4.992, 5, 35.8565, 48.3877, -13.9952, 97.223, -52.5489, 43.65
4.996, 5, 35.8557, 48.391, -13.994, 97.22, -52.5622, 43.645
5, 5, 35.8549, 48.3944, -13.9929, 97.217, -52.5756, 43.6401
5.004, 5, 35.8541, 48.3977, -13.9917, 97.2141, -52.5889, 43.6351
5.008, 5, 35.8533, 48.4011, -13.9905, 97.2111, -52.6022, 43.6301
5.012, 5, 35.8525, 48.4044, -13.9893, 97.2081, -52.6156, 43.6252
5.016, 5, 35.8517, 48.4078, -13.9881, 97.2051, -52.6289, 43.6202
5.02, 5, 35.8509, 48.4111, -13.9869, 97.2021, -52.6422, 43.6152
5.024, 5, 35.8501, 48.4145, -13.9858, 97.1991, -52.6556, 43.6103
5.028, 5, 35.8493, 48.4178, -13.9846, 97.1961, -52.6689, 43.6053
5.032, 5, 35.8485, 48.4212, -13.9834, 97.1931, -52.6822, 43.6003
5.036, 5, 35.8477, 48.4245, -13.9822, 97.1901, -52.6956, 43.5954
5.04, 5, 35.8469, 48.4279, -13.981, 97.1871, -52.7089, 43.5904
5.044, 5, 35.8461, 48.4312, -13.9798, 97.1841, -52.7222, 43.5854
5.048, 5, 35.8453, 48.4346, -13.9786, 97.1811, -52.7356, 43.5805
5.052, 5, 35.8445, 48.4379, -13.9774, 97.1781, -52.7489, 43.5755
5.056, 5, 35.8437, 48.4412, -13.9762, 97.1751, -52.7622, 43.5706
5.06, 5, 35.8429, 48.4446, -13.975, 97.1721, -52.7756, 43.5656
5.064, 5, 35.8421, 48.4479, -13.9738, 97.1691, -52.7889, 43.5606
5.068, 5, 35.8413, 48.4513, -13.9726, 97.1661, -52.8022, 43.5557
5.072, 5, 35.8405, 48.4546, -13.9714, 97.1631, -52.8156, 43.5507
5.076, 5, 35.8397, 48.4579, -13.9702, 97.1601, -52.8289, 43.5458
5.08, 5, 35.8389, 48.4613, -13.969, 97.1571, -52.8422, 43.5408
5.084, 5, 35.8381, 48.4646, -13.9678, 97.1541, -52.8555, 43.5359
5.088, 5, 35.8373, 48.4679, -13.9666, 97.1511, -52.8689, 43.5309
5.092, 5, 35.8364, 48.4713, -13.9654, 97.1481, -52.8822, 43.526
5.096, 5, 35.8356, 48.4746, -13.9641, 97.1451, -52.8955, 43.521
5.1, 5, 35.8348, 48.4779, -13.9629, 97.142, -52.9089, 43.5161
5.104, 5, 35.834, 48.4813, -13.9617, 97.139, -52.9222, 43.5111
5.108, 5, 35.8332, 48.4846, -13.9605, 97.136, -52.9355, 43.5062
5.112, 5, 35.8324, 48.4879, -13.9593, 97.133, -52.9488, 43.5013
5.116, 5, 35.8316, 48.4912, -13.958, 97.13, -52.9622, 43.4963
5.12, 5, 35.8308, 48.4946, -13.9568, 97.127, -52.9755, 43.4914
5.124, 5, 35.83, 48.4979, -13.9556, 97.124, -52.9888, 43.4864
5.128, 5, 35.8291, 48.5012, -13.9543, 97.1209, -53.0021, 43.4815
5.132, 5, 35.8283, 48.5045, -13.9531, 97.1179, -53.0155, 43.4765
5.136, 5, 35.8275, 48.5079, -13.9519, 97.1149, -53.0288, 43.4716
5.14, 5, 35.8267, 48.5112, -13.9506, 97.1119, -53.0421, 43.4667
5.144, 5, 35.8259, 48.5145, -13.9494, 97.1088, -53.0554, 43.4617
5.148, 5, 35.8251, 48.5178, -13.9482, 97.1058, -53.0688, 43.4568
5.152, 5, 35.8242, 48.5211, -13.9469, 97.1028, -53.0821, 43.4519
5.156, 5, 35.8234, 48.5244, -13.9457, 97.0998, -53.0954, 43.4469
5.16, 5, 35.8226, 48.5278, -13.9444, 97.0967, -53.1087, 43.442
5.164, 5, 35.8218, 48.5311, -13.9432, 97.0937, -53.1221, 43.4371
5.168, 5, 35.821, 48.5344, -13.942, 97.0907, -53.1354, 43.4321
5.172, 5, 35.8201, 48.5377, -13.9407, 97.0877, -53.1487, 43.4272
5.176, 5, 35.8193, 48.541, -13.9395, 97.0846, -53.162, 43.4223
5.18, 5, 35.8185, 48.5443, -13.9382, 97.0816, -53.1753, 43.4174
5.184, 5, 35.8177, 48.5476, -13.937, 97.0786, -53.1887, 43.4124
5.188, 5, 35.8168, 48.5509, -13.9357, 97.0755, -53.202, 43.4075
5.192, 5, 35.816, 48.5542, -13.9344, 97.0725, -53.2153, 43.4026
5.196, 5, 35.8152, 48.5575, -13.9332, 97.0695, -53.2286, 43.3977
5.2, 5, 35.8144, 48.5608, -13.9319, 97.0664, -53.2419, 43.3927
5.204, 5, 35.8135, 48.5641, -13.9307, 97.0634, -53.2553, 43.3878
5.208, 5, 35.8127, 48.5675, -13.9294, 97.0603, -53.2686, 43.3829
5.212, 5, 35.8119, 48.5708, -13.9281, 97.0573, -53.2819, 43.378
5.216, 5, 35.8111, 48.5741, -13.9269, 97.0543, -53.2952, 43.373
5.22, 5, 35.8102, 48.5773, -13.9256, 97.0512, -53.3085, 43.3681
5.224, 5, 35.8094, 48.5806, -13.9243, 97.0482, -53.3219, 43.3632
5.228, 5, 35.8086, 48.5839, -13.9231, 97.0452, -53.3352, 43.3583
5.232, 5, 35.8077, 48.5872, -13.9218, 97.0421, -53.3485, 43.3534
5.236, 5, 35.8069, 48.5905, -13.9205, 97.0391, -53.3618, 43.3485
5.24, 5, 35.8061, 48.5938, -13.9192, 97.036, -53.3751, 43.3436
5.244, 5, 35.8052, 48.5971, -13.918, 97.033, -53.3884, 43.3386
5.248, 5, 35.8044, 48.6004, -13.9167, 97.0299, -53.4018, 43.3337
5.252, 5, 35.8036, 48.6037, -13.9154, 97.0269, -53.4151, 43.3288
5.256, 5, 35.8027, 48.607, -13.9141, 97.0238, -53.4284, 43.3239
5.26, 5, 35.8019, 48.6103, -13.9128, 97.0208, -53.4417, 43.319
5.264, 5, 35.801, 48.6136, -13.9115, 97.0177, -53.455, 43.3141
5.268, 5, 35.8002, 48.6168, -13.9102, 97.0147, -53.4683, 43.3092
5.272, 5, 35.7994, 48.6201, -13.909, 97.0116, -53.4817, 43.3043
5.276, 5, 35.7985, 48.6234, -13.9077, 97.0086, -53.495, 43.2994
5.28, 5, 35.7977, 48.6267, -13.9064, 97.0055, -53.5083, 43.2945
5.284, 5, 35.7969, 48.63, -13.9051, 97.0024, -53.5216, 43.2896
5.288, 5, 35.796, 48.6333, -13.9038, 96.9994, -53.5349, 43.2847
5.292, 5, 35.7952, 48.6365, -13.9025, 96.9963, -53.5482, 43.2798
5.296, 5, 35.7943, 48.6398, -13.9012, 96.9933, -53.5615, 43.2749
5.3, 5, 35.7935, 48.6431, -13.8999, 96.9902, -53.5748, 43.27
5.304, 5, 35.7926, 48.6464, -13.8986, 96.9871, -53.5882, 43.2651
5.308, 5, 35.7918, 48.6496, -13.8973, 96.9841, -53.6015, 43.2602
5.312, 5, 35.7909, 48.6529, -13.896, 96.981, -53.6148, 43.2553
5.316, 5, 35.7901, 48.6562, -13.8947, 96.9779, -53.6281, 43.2504
5.32, 5, 35.7893, 48.6595, -13.8933, 96.9749, -53.6414, 43.2455
5.324, 5, 35.7884, 48.6627, -13.892, 96.9718, -53.6547, 43.2406
5.328, 5, 35.7876, 48.666, -13.8907, 96.9687, -53.668, 43.2357
5.332, 5, 35.7867, 48.6693, -13.8894, 96.9657, -53.6813, 43.2308
5.336, 5, 35.7859, 48.6725, -13.8881, 96.9626, -53.6946, 43.2259
5.34, 5, 35.785, 48.6758, -13.8868, 96.9595, -53.708, 43.221
5.344, 5, 35.7842, 48.6791, -13.8854, 96.9565, -53.7213, 43.2162
5.348, 5, 35.7833, 48.6823, -13.8841, 96.9534, -53.7346, 43.2113
5.352, 5, 35.7825, 48.6856, -13.8828, 96.9503, -53.7479, 43.2064
5.356, 5, 35.7816, 48.6889, -13.8815, 96.9472, -53.7612, 43.2015
5.36, 5, 35.7807, 48.6921, -13.8801, 96.9442, -53.7745, 43.1966
5.364, 5, 35.7799, 48.6954, -13.8788, 96.9411, -53.7878, 43.1917
5.368, 5, 35.779, 48.6986, -13.8775, 96.938, -53.8011, 43.1869
5.372, 5, 35.7782, 48.7019, -13.8761, 96.9349, -53.8144, 43.182
5.376, 5, 35.7773, 48.7052, -13.8748, 96.9319, -53.8277, 43.1771
5.38, 5, 35.7765, 48.7084, -13.8735, 96.9288, -53.841, 43.1722
5.384, 5, 35.7756, 48.7117, -13.8721, 96.9257, -53.8543, 43.1673
5.388, 5, 35.7747, 48.7149, -13.8708, 96.9226, -53.8676, 43.1625
5.392, 5, 35.7739, 48.7182, -13.8695, 96.9195, -53.881, 43.1576
5.396, 5, 35.773, 48.7214, -13.8681, 96.9164, -53.8943, 43.1527
5.4, 5, 35.7722, 48.7247, -13.8668, 96.9134, -53.9076, 43.1478
5.404, 5, 35.7713, 48.7279, -13.8654, 96.9103, -53.9209, 43.143
5.408, 5, 35.7704, 48.7312, -13.8641, 96.9072, -53.9342, 43.1381
5.412, 5, 35.7696, 48.7344, -13.8627, 96.9041, -53.9475, 43.1332
5.416, 5, 35.7687, 48.7377, -13.8614, 96.901, -53.9608, 43.1283
5.42, 5, 35.7679, 48.7409, -13.86, 96.8979, -53.9741, 43.1235
5.424, 5, 35.767, 48.7442, -13.8587, 96.8948, -53.9874, 43.1186
5.428, 5, 35.7661, 48.7474, -13.8573, 96.8917, -54.0007, 43.1137
5.432, 5, 35.7653, 48.7506, -13.856, 96.8886, -54.014, 43.1089
5.436, 5, 35.7644, 48.7539, -13.8546, 96.8855, -54.0273, 43.104
5.44, 5, 35.7635, 48.7571, -13.8532, 96.8824, -54.0406, 43.0991
5.444, 5, 35.7627, 48.7604, -13.8519, 96.8793, -54.0539, 43.0943
5.448, 5, 35.7618, 48.7636, -13.8505, 96.8763, -54.0672, 43.0894
5.452, 5, 35.7609, 48.7668, -13.8491, 96.8732, -54.0805, 43.0845
5.456, 5, 35.7601, 48.7701, -13.8478, 96.8701, -54.0938, 43.0797
5.46, 5, 35.7592, 48.7733, -13.8464, 96.867, -54.1071, 43.0748
5.464, 5, 35.7583, 48.7765, -13.845, 96.8639, -54.1204, 43.07
5.468, 5, 35.7574, 48.7798, -13.8436, 96.8608, -54.1337, 43.0651
5.472, 5, 35.7566, 48.783, -13.8423, 96.8577, -54.147, 43.0602
5.476, 5, 35.7557, 48.7862, -13.8409, 96.8546, -54.1603, 43.0554
5.48, 5, 35.7548, 48.7895, -13.8395, 96.8514, -54.1736, 43.0505
5.484, 5, 35.7539, 48.7927, -13.8381, 96.8483, -54.1869, 43.0457
5.488, 5, 35.7531, 48.7959, -13.8368, 96.8452, -54.2002, 43.0408
5.492, 5, 35.7522, 48.7991, -13.8354, 96.8421, -54.2135, 43.036
5.496, 5, 35.7513, 48.8024, -13.834, 96.839, -54.2268, 43.0311
5.5, 5, 35.7504, 48.8056, -13.8326, 96.8359, -54.2401, 43.0263
5.504, 5, 35.7496, 48.8088, -13.8312, 96.8328, -54.2534, 43.0214
5.508, 5, 35.7487, 48.812, -13.8298, 96.8297, -54.2667, 43.0166
5.512, 5, 35.7478, 48.8152, -13.8284, 96.8266, -54.28, 43.0117
5.516, 5, 35.7469, 48.8185, -13.827, 96.8235, -54.2933, 43.0069
5.52, 5, 35.746, 48.8217, -13.8256, 96.8204, -54.3066, 43.002
5.524, 5, 35.7452, 48.8249, -13.8242, 96.8172, -54.3199, 42.9972
5.528, 5, 35.7443, 48.8281, -13.8228, 96.8141, -54.3332, 42.9923
5.532, 5, 35.7434, 48.8313, -13.8214, 96.811, -54.3465, 42.9875
5.536, 5, 35.7425, 48.8345, -13.82, 96.8079, -54.3598, 42.9826
5.54, 5, 35.7416, 48.8378, -13.8186, 96.8048, -54.373, 42.9778
5.544, 5, 35.7407, 48.841, -13.8172, 96.8017, -54.3863, 42.9729
5.548, 5, 35.7399, 48.8442, -13.8158, 96.7985, -54.3996, 42.9681
5.552, 5, 35.739, 48.8474, -13.8144, 96.7954, -54.4129, 42.9633
5.556, 5, 35.7381, 48.8506, -13.813, 96.7923, -54.4262, 42.9584
5.56, 5, 35.7372, 48.8538, -13.8116, 96.7892, -54.4395, 42.9536
5.564, 5, 35.7363, 48.857, -13.8102, 96.786, -54.4528, 42.9488
5.568, 5, 35.7354, 48.8602, -13.8088, 96.7829, -54.4661, 42.9439
5.572, 5, 35.7345, 48.8634, -13.8073, 96.7798, -54.4794, 42.9391
5.576, 5, 35.7336, 48.8666, -13.8059, 96.7767, -54.4927, 42.9342
5.58, 5, 35.7327, 48.8698, -13.8045, 96.7735, -54.506, 42.9294
5.584, 5, 35.7319, 48.873, -13.8031, 96.7704, -54.5193, 42.9246
5.588, 5, 35.731, 48.8762, -13.8016, 96.7673, -54.5326, 42.9197
5.592, 5, 35.7301, 48.8794, -13.8002, 96.7642, -54.5458, 42.9149
5.596, 5, 35.7292, 48.8826, -13.7988, 96.761, -54.5591, 42.9101
5.6, 5, 35.7283, 48.8858, -13.7974, 96.7579, -54.5724, 42.9053
5.604, 5, 35.7274, 48.889, -13.7959, 96.7548, -54.5857, 42.9004
5.608, 5, 35.7265, 48.8922, -13.7945, 96.7516, -54.599, 42.8956
5.612, 5, 35.7256, 48.8954, -13.7931, 96.7485, -54.6123, 42.8908
5.616, 5, 35.7247, 48.8986, -13.7916, 96.7454, -54.6256, 42.8859
5.62, 5, 35.7238, 48.9018, -13.7902, 96.7422, -54.6389, 42.8811
5.624, 5, 35.7229, 48.905, -13.7887, 96.7391, -54.6522, 42.8763
5.628, 5, 35.722, 48.9082, -13.7873, 96.7359, -54.6655, 42.8715
5.632, 5, 35.7211, 48.9113, -13.7859, 96.7328, -54.6787, 42.8666
5.636, 5, 35.7202, 48.9145, -13.7844, 96.7297, -54.692, 42.8618
5.64, 5, 35.7193, 48.9177, -13.783, 96.7265, -54.7053, 42.857
5.644, 5, 35.7184, 48.9209, -13.7815, 96.7234, -54.7186, 42.8522
5.648, 5, 35.7175, 48.9241, -13.7801, 96.7202, -54.7319, 42.8474
5.652, 5, 35.7166, 48.9273, -13.7786, 96.7171, -54.7452, 42.8425
5.656, 5, 35.7157, 48.9304, -13.7772, 96.714, -54.7585, 42.8377
5.66, 5, 35.7148, 48.9336, -13.7757, 96.7108, -54.7717, 42.8329
5.664, 5, 35.7139, 48.9368, -13.7743, 96.7077, -54.785, 42.8281
5.668, 5, 35.713, 48.94, -13.7728, 96.7045, -54.7983, 42.8233
5.672, 5, 35.7121, 48.9432, -13.7713, 96.7014, -54.8116, 42.8185
5.676, 5, 35.7112, 48.9463, -13.7699, 96.6982, -54.8249, 42.8137
5.68, 5, 35.7102, 48.9495, -13.7684, 96.6951, -54.8382, 42.8088
5.684, 5, 35.7093, 48.9527, -13.7669, 96.6919, -54.8515, 42.804
5.688, 5, 35.7084, 48.9559, -13.7655, 96.6888, -54.8647, 42.7992
5.692, 5, 35.7075, 48.959, -13.764, 96.6856, -54.878, 42.7944
5.696, 5, 35.7066, 48.9622, -13.7625, 96.6825, -54.8913, 42.7896
5.7, 5, 35.7057, 48.9654, -13.7611, 96.6793, -54.9046, 42.7848
5.704, 5, 35.7048, 48.9685, -13.7596, 96.6762, -54.9179, 42.78
5.708, 5, 35.7039, 48.9717, -13.7581, 96.673, -54.9312, 42.7752
5.712, 5, 35.703, 48.9749, -13.7566, 96.6698, -54.9444, 42.7704
5.716, 5, 35.702, 48.978, -13.7552, 96.6667, -54.9577, 42.7656
5.72, 5, 35.7011, 48.9812, -13.7537, 96.6635, -54.971, 42.7608
5.724, 5, 35.7002, 48.9844, -13.7522, 96.6604, -54.9843, 42.756
5.728, 5, 35.6993, 48.9875, -13.7507, 96.6572, -54.9976, 42.7512
5.732, 5, 35.6984, 48.9907, -13.7492, 96.654, -55.0108, 42.7464
5.736, 5, 35.6975, 48.9938, -13.7477, 96.6509, -55.0241, 42.7416
5.74, 5, 35.6965, 48.997, -13.7462, 96.6477, -55.0374, 42.7368
5.744, 5, 35.6956, 49.0002, -13.7448, 96.6445, -55.0507, 42.732
5.748, 5, 35.6947, 49.0033, -13.7433, 96.6414, -55.064, 42.7272
5.752, 5, 35.6938, 49.0065, -13.7418, 96.6382, -55.0772, 42.7224
5.756, 5, 35.6929, 49.0096, -13.7403, 96.6351, -55.0905, 42.7176
5.76, 5, 35.6919, 49.0128, -13.7388, 96.6319, -55.1038, 42.7128
5.764, 5, 35.691, 49.0159, -13.7373, 96.6287, -55.1171, 42.708
5.768, 5, 35.6901, 49.0191, -13.7358, 96.6256, -55.1304, 42.7032
5.772, 5, 35.6892, 49.0222, -13.7343, 96.6224, -55.1436, 42.6984
5.776, 5, 35.6883, 49.0254, -13.7328, 96.6192, -55.1569, 42.6936
5.78, 5, 35.6873, 49.0285, -13.7313, 96.616, -55.1702, 42.6888
5.784, 5, 35.6864, 49.0317, -13.7298, 96.6129, -55.1835, 42.684
5.788, 5, 35.6855, 49.0348, -13.7282, 96.6097, -55.1968, 42.6792
5.792, 5, 35.6845, 49.038, -13.7267, 96.6065, -55.21, 42.6744
5.796, 5, 35.6836, 49.0411, -13.7252, 96.6033, -55.2233, 42.6696
5.8, 5, 35.6827, 49.0442, -13.7237, 96.6002, -55.2366, 42.6649
5.804, 5, 35.6818, 49.0474, -13.7222, 96.597, -55.2499, 42.6601
5.808, 5, 35.6808, 49.0505, -13.7207, 96.5938, -55.2631, 42.6553
5.812, 5, 35.6799, 49.0537, -13.7192, 96.5906, -55.2764, 42.6505
5.816, 5, 35.679, 49.0568, -13.7176, 96.5875, -55.2897, 42.6457
5.82, 5, 35.678, 49.0599, -13.7161, 96.5843, -55.303, 42.6409
5.824, 5, 35.6771, 49.0631, -13.7146, 96.5811, -55.3162, 42.6362
5.828, 5, 35.6762, 49.0662, -13.7131, 96.5779, -55.3295, 42.6314
5.832, 5, 35.6752, 49.0693, -13.7115, 96.5747, -55.3428, 42.6266
5.836, 5, 35.6743, 49.0725, -13.71, 96.5716, -55.3561, 42.6218
5.84, 5, 35.6734, 49.0756, -13.7085, 96.5684, -55.3693, 42.617
5.844, 5, 35.6724, 49.0787, -13.7069, 96.5652, -55.3826, 42.6122
5.848, 5, 35.6715, 49.0819, -13.7054, 96.562, -55.3959, 42.6075
5.852, 5, 35.6706, 49.085, -13.7039, 96.5588, -55.4091, 42.6027
5.856, 5, 35.6696, 49.0881, -13.7023, 96.5556, -55.4224, 42.5979
5.86, 5, 35.6687, 49.0912, -13.7008, 96.5524, -55.4357, 42.5931
5.864, 5, 35.6677, 49.0944, -13.6992, 96.5492, -55.449, 42.5884
5.868, 5, 35.6668, 49.0975, -13.6977, 96.5461, -55.4622, 42.5836
5.872, 5, 35.6659, 49.1006, -13.6962, 96.5429, -55.4755, 42.5788
5.876, 5, 35.6649, 49.1037, -13.6946, 96.5397, -55.4888, 42.574
5.88, 5, 35.664, 49.1068, -13.6931, 96.5365, -55.5021, 42.5693
5.884, 5, 35.663, 49.11, -13.6915, 96.5333, -55.5153, 42.5645
5.888, 5, 35.6621, 49.1131, -13.69, 96.5301, -55.5286, 42.5597
5.892, 5, 35.6612, 49.1162, -13.6884, 96.5269, -55.5419, 42.555
5.896, 5, 35.6602, 49.1193, -13.6868, 96.5237, -55.5551, 42.5502
5.9, 5, 35.6593, 49.1224, -13.6853, 96.5205, -55.5684, 42.5454
5.904, 5, 35.6583, 49.1255, -13.6837, 96.5173, -55.5817, 42.5407
5.908, 5, 35.6574, 49.1287, -13.6822, 96.5141, -55.5949, 42.5359
5.912, 5, 35.6564, 49.1318, -13.6806, 96.5109, -55.6082, 42.5311
5.916, 5, 35.6555, 49.1349, -13.679, 96.5077, -55.6215, 42.5264
5.92, 5, 35.6545, 49.138, -13.6775, 96.5045, -55.6347, 42.5216
5.924, 5, 35.6536, 49.1411, -13.6759, 96.5013, -55.648, 42.5168
5.928, 5, 35.6526, 49.1442, -13.6743, 96.4981, -55.6613, 42.5121
5.932, 5, 35.6517, 49.1473, -13.6728, 96.4949, -55.6745, 42.5073
5.936, 5, 35.6507, 49.1504, -13.6712, 96.4917, -55.6878, 42.5026
5.94, 5, 35.6498, 49.1535, -13.6696, 96.4885, -55.7011, 42.4978
5.944, 5, 35.6488, 49.1566, -13.6681, 96.4853, -55.7143, 42.493
5.948, 5, 35.6479, 49.1597, -13.6665, 96.4821, -55.7276, 42.4883
5.952, 5, 35.6469, 49.1628, -13.6649, 96.4789, -55.7409, 42.4835
5.956, 5, 35.646, 49.1659, -13.6633, 96.4756, -55.7541, 42.4788
5.96, 5, 35.645, 49.169, -13.6617, 96.4724, -55.7674, 42.474
5.964, 5, 35.6441, 49.1721, -13.6602, 96.4692, -55.7807, 42.4693
5.968, 5, 35.6431, 49.1752, -13.6586, 96.466, -55.7939, 42.4645
5.972, 5, 35.6421, 49.1783, -13.657, 96.4628, -55.8072, 42.4598
5.976, 5, 35.6412, 49.1814, -13.6554, 96.4596, -55.8205, 42.455
5.98, 5, 35.6402, 49.1845, -13.6538, 96.4564, -55.8337, 42.4503
5.984, 5, 35.6393, 49.1876, -13.6522, 96.4532, -55.847, 42.4455
5.988, 5, 35.6383, 49.1907, -13.6506, 96.4499, -55.8603, 42.4408
5.992, 5, 35.6373, 49.1938, -13.649, 96.4467, -55.8735, 42.436
5.996, 5, 35.6364, 49.1968, -13.6474, 96.4435, -55.8868, 42.4313
6, 5, 35.6354, 49.1999, -13.6458, 96.4403, -55.9001, 42.4265
6.004, 5, 35.6344, 49.203, -13.6442, 96.4371, -55.9133, 42.4218
6.008, 5, 35.6335, 49.2061, -13.6426, 96.4339, -55.9266, 42.417
6.012, 5, 35.6325, 49.2092, -13.641, 96.4306, -55.9398, 42.4123
6.016, 5, 35.6316, 49.2123, -13.6394, 96.4274, -55.9531, 42.4075
6.02, 5, 35.6306, 49.2154, -13.6378, 96.4242, -55.9664, 42.4028
6.024, 5, 35.6296, 49.2184, -13.6362, 96.421, -55.9796, 42.398
6.028, 5, 35.6287, 49.2215, -13.6346, 96.4177, -55.9929, 42.3933
6.032, 5, 35.6277, 49.2246, -13.633, 96.4145, -56.0061, 42.3886
6.036, 5, 35.6267, 49.2277, -13.6314, 96.4113, -56.0194, 42.3838
6.04, 5, 35.6258, 49.2307, -13.6297, 96.4081, -56.0327, 42.3791
6.044, 5, 35.6248, 49.2338, -13.6281, 96.4048, -56.0459, 42.3743
6.048, 5, 35.6238, 49.2369, -13.6265, 96.4016, -56.0592, 42.3696
6.052, 5, 35.6228, 49.24, -13.6249, 96.3984, -56.0724, 42.3649
6.056, 5, 35.6219, 49.243, -13.6233, 96.3951, -56.0857, 42.3601
6.06, 5, 35.6209, 49.2461, -13.6216, 96.3919, -56.099, 42.3554
6.064, 5, 35.6199, 49.2492, -13.62, 96.3887, -56.1122, 42.3507
6.068, 5, 35.619, 49.2523, -13.6184, 96.3855, -56.1255, 42.3459
6.072, 5, 35.618, 49.2553, -13.6168, 96.3822, -56.1387, 42.3412
