hehonglu123/ABB_Primitive_Study/execution/movec_smooth/curve_exe_v50_z20.csv
timestamp, cmd_num, J1, J2, J3, J4, J5, J6
0, -1, 32.9446, 52.7398, -8.49419, 90.0915, -78.6833, 34.4926
0.002, -1, 32.9446, 52.7398, -8.49419, 90.0915, -78.6833, 34.4926
0.006, -1, 32.9446, 52.7398, -8.49419, 90.0915, -78.6833, 34.4926
0.008, -1, 32.9446, 52.7398, -8.49419, 90.0915, -78.6833, 34.4926
0.011, -1, 32.9446, 52.7398, -8.49419, 90.0915, -78.6833, 34.4926
0.016, -1, 32.9446, 52.7398, -8.49419, 90.0915, -78.6833, 34.4926
0.02, -1, 32.9446, 52.7398, -8.49419, 90.0915, -78.6833, 34.4926
0.024, -1, 32.9446, 52.7398, -8.49419, 90.0915, -78.6833, 34.4926
0.028, -1, 32.9446, 52.7398, -8.49419, 90.0915, -78.6833, 34.4926
0.032, -1, 32.9447, 52.7398, -8.49419, 90.0915, -78.6833, 34.4926
0.036, -1, 32.9447, 52.7397, -8.49419, 90.0915, -78.6833, 34.4926
0.04, -1, 32.9449, 52.7396, -8.49419, 90.0915, -78.6833, 34.4926
0.044, -1, 32.9453, 52.7392, -8.49421, 90.0915, -78.6833, 34.4926
0.048, -1, 32.9461, 52.7385, -8.49426, 90.0915, -78.6831, 34.4927
0.052, -1, 32.9474, 52.7371, -8.49437, 90.0917, -78.6826, 34.4928
0.056, -1, 32.9492, 52.7349, -8.4946, 90.0919, -78.6817, 34.4931
0.06, -1, 32.9516, 52.7318, -8.49501, 90.0924, -78.6798, 34.4938
0.064, -1, 32.9544, 52.7277, -8.4957, 90.0932, -78.6767, 34.4949
0.068, -1, 32.9578, 52.7227, -8.49678, 90.0946, -78.6717, 34.4966
0.072, -1, 32.9617, 52.7167, -8.4984, 90.0966, -78.6641, 34.4993
0.076, -1, 32.9661, 52.7097, -8.50073, 90.0995, -78.6532, 34.5031
0.08, -1, 32.9711, 52.7018, -8.50394, 90.1037, -78.6379, 34.5085
0.084, -1, 32.9767, 52.6929, -8.50823, 90.1092, -78.6175, 34.5157
0.088, -1, 32.983, 52.6832, -8.51381, 90.1164, -78.5907, 34.5251
0.092, -1, 32.9898, 52.6726, -8.52089, 90.1256, -78.5567, 34.537
0.096, -1, 32.9971, 52.6615, -8.52966, 90.1371, -78.5143, 34.5519
0.1, -1, 33.0046, 52.6498, -8.54028, 90.151, -78.4629, 34.57
0.104, -1, 33.0124, 52.6377, -8.55288, 90.1675, -78.4018, 34.5915
0.108, -1, 33.0205, 52.6252, -8.56751, 90.1868, -78.3306, 34.6165
0.112, -1, 33.0288, 52.6121, -8.58421, 90.2088, -78.2493, 34.645
0.116, -1, 33.0376, 52.5985, -8.60294, 90.2336, -78.158, 34.6771
0.12, -1, 33.0467, 52.5842, -8.62361, 90.2609, -78.0572, 34.7125
0.124, -1, 33.0563, 52.5693, -8.6461, 90.2906, -77.9475, 34.7511
0.128, -1, 33.0663, 52.5539, -8.67024, 90.3226, -77.8297, 34.7924
0.131, -1, 33.0765, 52.5379, -8.69587, 90.3565, -77.7047, 34.8364
0.136, -1, 33.0871, 52.5214, -8.72276, 90.392, -77.5735, 34.8825
0.139, -1, 33.0981, 52.5041, -8.75072, 90.429, -77.4372, 34.9304
0.144, -1, 33.1095, 52.4858, -8.77954, 90.4671, -77.2967, 34.9797
0.148, -1, 33.1216, 52.4664, -8.80901, 90.506, -77.1531, 35.0302
0.152, -1, 33.1344, 52.4458, -8.83897, 90.5456, -77.0071, 35.0815
0.156, -1, 33.1481, 52.4239, -8.86926, 90.5855, -76.8596, 35.1333
0.16, -1, 33.1624, 52.4009, -8.89978, 90.6258, -76.7111, 35.1855
0.164, -1, 33.1774, 52.3772, -8.93044, 90.6662, -76.562, 35.2379
0.168, -1, 33.1929, 52.3529, -8.96117, 90.7067, -76.4125, 35.2904
0.172, -1, 33.2086, 52.3282, -8.99193, 90.7472, -76.2629, 35.343
0.176, -1, 33.2246, 52.3033, -9.0227, 90.7877, -76.1133, 35.3955
0.18, -1, 33.2406, 52.2782, -9.05345, 90.8282, -75.9638, 35.4481
0.184, -1, 33.2568, 52.2531, -9.08416, 90.8687, -75.8145, 35.5005
0.188, -1, 33.273, 52.2279, -9.11484, 90.9091, -75.6653, 35.5529
0.192, -1, 33.2892, 52.2027, -9.14548, 90.9495, -75.5164, 35.6053
0.196, -1, 33.3054, 52.1775, -9.17607, 90.9897, -75.3677, 35.6575
0.2, -1, 33.3216, 52.1524, -9.2066, 91.03, -75.2192, 35.7097
0.204, -1, 33.3378, 52.1272, -9.23709, 91.0701, -75.071, 35.7617
0.208, -1, 33.354, 52.1021, -9.26752, 91.1102, -74.9231, 35.8137
0.212, -1, 33.3702, 52.077, -9.29789, 91.1502, -74.7754, 35.8656
0.216, -1, 33.3863, 52.052, -9.32821, 91.1901, -74.628, 35.9174
0.22, -1, 33.4024, 52.027, -9.35848, 91.23, -74.4809, 35.9691
0.224, -1, 33.4184, 52.0021, -9.38869, 91.2698, -74.334, 36.0207
0.228, -1, 33.4345, 51.9772, -9.41885, 91.3095, -74.1874, 36.0722
0.232, -1, 33.4505, 51.9523, -9.44895, 91.3492, -74.0411, 36.1236
0.236, -1, 33.4665, 51.9275, -9.479, 91.3887, -73.895, 36.1749
0.24, -1, 33.4825, 51.9028, -9.509, 91.4282, -73.7492, 36.2262
0.244, -1, 33.4984, 51.878, -9.53894, 91.4677, -73.6036, 36.2773
0.248, -1, 33.5143, 51.8533, -9.56883, 91.507, -73.4583, 36.3284
0.252, -1, 33.5302, 51.8287, -9.59867, 91.5463, -73.3133, 36.3793
0.256, -1, 33.546, 51.8041, -9.62845, 91.5855, -73.1685, 36.4302
0.26, -1, 33.5618, 51.7796, -9.65818, 91.6247, -73.024, 36.481
0.264, -1, 33.5776, 51.7551, -9.68785, 91.6638, -72.8797, 36.5317
0.268, -1, 33.5934, 51.7306, -9.71748, 91.7028, -72.7357, 36.5823
0.272, -1, 33.6091, 51.7062, -9.74705, 91.7417, -72.5919, 36.6328
0.276, -1, 33.6248, 51.6818, -9.77657, 91.7806, -72.4484, 36.6832
0.28, -1, 33.6405, 51.6575, -9.80604, 91.8194, -72.3051, 36.7335
0.284, -1, 33.6561, 51.6332, -9.83546, 91.8582, -72.1621, 36.7838
0.288, -1, 33.6718, 51.6089, -9.86483, 91.8969, -72.0193, 36.8339
0.292, -1, 33.6874, 51.5847, -9.89415, 91.9355, -71.8768, 36.884
0.296, -1, 33.7029, 51.5605, -9.92341, 91.974, -71.7345, 36.934
0.3, -1, 33.7185, 51.5364, -9.95263, 92.0125, -71.5925, 36.9839
0.304, -1, 33.734, 51.5123, -9.9818, 92.0509, -71.4507, 37.0337
0.308, -1, 33.7495, 51.4883, -10.0109, 92.0893, -71.3092, 37.0835
0.312, -1, 33.765, 51.4643, -10.04, 92.1275, -71.1679, 37.1331
0.316, -1, 33.7804, 51.4403, -10.069, 92.1657, -71.0268, 37.1827
0.32, -1, 33.7958, 51.4164, -10.098, 92.2039, -70.886, 37.2321
0.324, -1, 33.8112, 51.3925, -10.1269, 92.242, -70.7454, 37.2815
0.328, -1, 33.8266, 51.3687, -10.1558, 92.28, -70.605, 37.3309
0.332, -1, 33.8419, 51.3449, -10.1846, 92.318, -70.4649, 37.3801
0.336, -1, 33.8572, 51.3211, -10.2134, 92.3559, -70.325, 37.4292
0.34, -1, 33.8725, 51.2974, -10.2421, 92.3937, -70.1854, 37.4783
0.344, -1, 33.8877, 51.2737, -10.2708, 92.4315, -70.046, 37.5273
0.348, -1, 33.903, 51.2501, -10.2994, 92.4692, -69.9068, 37.5762
0.352, -1, 33.9182, 51.2265, -10.328, 92.5068, -69.7678, 37.625
0.356, -1, 33.9334, 51.2029, -10.3565, 92.5444, -69.6291, 37.6737
0.36, -1, 33.9485, 51.1794, -10.385, 92.5819, -69.4906, 37.7224
0.364, -1, 33.9636, 51.1559, -10.4134, 92.6194, -69.3523, 37.771
0.368, -1, 33.9788, 51.1325, -10.4418, 92.6568, -69.2143, 37.8195
0.372, -1, 33.9938, 51.109, -10.4702, 92.6941, -69.0764, 37.8679
0.376, -1, 34.0089, 51.0857, -10.4985, 92.7314, -68.9389, 37.9163
0.38, -1, 34.0239, 51.0623, -10.5268, 92.7686, -68.8015, 37.9645
0.384, -1, 34.0389, 51.039, -10.555, 92.8058, -68.6643, 38.0127
0.388, -1, 34.0539, 51.0158, -10.5831, 92.8429, -68.5274, 38.0608
0.392, -1, 34.0689, 50.9926, -10.6113, 92.8799, -68.3907, 38.1089
0.396, -1, 34.0838, 50.9694, -10.6393, 92.9169, -68.2542, 38.1568
0.4, -1, 34.0987, 50.9462, -10.6674, 92.9538, -68.1179, 38.2047
0.404, -1, 34.1136, 50.9231, -10.6954, 92.9907, -67.9818, 38.2525
0.408, -1, 34.1285, 50.9, -10.7233, 93.0275, -67.846, 38.3002
0.412, -1, 34.1433, 50.877, -10.7512, 93.0642, -67.7104, 38.3479
0.416, -1, 34.1582, 50.854, -10.779, 93.1009, -67.575, 38.3955
0.42, -1, 34.173, 50.831, -10.8069, 93.1375, -67.4398, 38.443
0.424, -1, 34.1877, 50.8081, -10.8346, 93.1741, -67.3048, 38.4904
0.428, -1, 34.2025, 50.7852, -10.8624, 93.2106, -67.17, 38.5377
0.432, -1, 34.2172, 50.7623, -10.89, 93.2471, -67.0354, 38.585
0.436, -1, 34.2319, 50.7395, -10.9177, 93.2835, -66.901, 38.6322
0.44, -1, 34.2466, 50.7167, -10.9453, 93.3198, -66.7669, 38.6794
0.444, -1, 34.2613, 50.694, -10.9728, 93.3561, -66.6329, 38.7264
0.448, -1, 34.2759, 50.6713, -11.0003, 93.3923, -66.4992, 38.7734
0.452, -1, 34.2905, 50.6486, -11.0278, 93.4285, -66.3656, 38.8203
0.456, -1, 34.3051, 50.6259, -11.0552, 93.4647, -66.2323, 38.8672
0.46, -1, 34.3197, 50.6033, -11.0826, 93.5007, -66.0992, 38.914
0.464, -1, 34.3342, 50.5807, -11.11, 93.5367, -65.9662, 38.9607
0.468, -1, 34.3487, 50.5582, -11.1373, 93.5727, -65.8335, 39.0073
0.472, -1, 34.3632, 50.5357, -11.1645, 93.6086, -65.701, 39.0539
0.476, -1, 34.3777, 50.5132, -11.1918, 93.6445, -65.5686, 39.1004
0.48, -1, 34.3922, 50.4907, -11.2189, 93.6803, -65.4365, 39.1468
0.484, -1, 34.4066, 50.4683, -11.2461, 93.716, -65.3045, 39.1932
0.488, -1, 34.421, 50.446, -11.2732, 93.7517, -65.1728, 39.2394
0.492, -1, 34.4354, 50.4236, -11.3002, 93.7873, -65.0412, 39.2857
0.496, -1, 34.4498, 50.4013, -11.3273, 93.8229, -64.9099, 39.3318
0.5, -1, 34.4642, 50.379, -11.3542, 93.8584, -64.7787, 39.3779
0.504, -1, 34.4785, 50.3568, -11.3812, 93.8939, -64.6477, 39.4239
0.508, -1, 34.4928, 50.3346, -11.4081, 93.9294, -64.517, 39.4699
0.512, -1, 34.5071, 50.3124, -11.4349, 93.9647, -64.3864, 39.5158
0.516, -1, 34.5214, 50.2902, -11.4618, 94.0001, -64.256, 39.5616
0.52, -1, 34.5356, 50.2681, -11.4886, 94.0353, -64.1257, 39.6073
0.524, -1, 34.5499, 50.246, -11.5153, 94.0706, -63.9957, 39.653
0.528, -1, 34.5641, 50.224, -11.542, 94.1057, -63.8659, 39.6986
0.532, -1, 34.5783, 50.202, -11.5687, 94.1409, -63.7362, 39.7442
0.536, -1, 34.5924, 50.18, -11.5953, 94.1759, -63.6068, 39.7897
0.54, -1, 34.6066, 50.158, -11.6219, 94.211, -63.4775, 39.8351
0.544, -1, 34.6207, 50.1361, -11.6485, 94.2459, -63.3484, 39.8804
0.548, -1, 34.6348, 50.1142, -11.675, 94.2809, -63.2195, 39.9257
0.552, -1, 34.6489, 50.0923, -11.7015, 94.3157, -63.0908, 39.971
0.556, -1, 34.663, 50.0705, -11.7279, 94.3506, -62.9622, 40.0161
0.56, -1, 34.677, 50.0487, -11.7543, 94.3853, -62.8339, 40.0612
0.564, -1, 34.691, 50.0269, -11.7807, 94.4201, -62.7057, 40.1063
0.568, -1, 34.705, 50.0052, -11.807, 94.4547, -62.5777, 40.1512
0.572, -1, 34.719, 49.9834, -11.8333, 94.4894, -62.4498, 40.1961
0.576, -1, 34.733, 49.9618, -11.8596, 94.524, -62.3222, 40.241
0.58, -1, 34.7469, 49.9401, -11.8858, 94.5585, -62.1947, 40.2858
0.584, -1, 34.7609, 49.9185, -11.912, 94.593, -62.0674, 40.3305
0.588, -1, 34.7748, 49.8969, -11.9381, 94.6274, -61.9403, 40.3752
0.592, -1, 34.7887, 49.8753, -11.9642, 94.6618, -61.8133, 40.4198
0.596, -1, 34.8025, 49.8538, -11.9903, 94.6961, -61.6866, 40.4643
0.6, -1, 34.8164, 49.8323, -12.0163, 94.7304, -61.56, 40.5088
0.604, -1, 34.8302, 49.8108, -12.0423, 94.7647, -61.4336, 40.5532
0.608, -1, 34.844, 49.7894, -12.0683, 94.7989, -61.3073, 40.5976
0.612, -1, 34.8578, 49.768, -12.0942, 94.8331, -61.1812, 40.6419
0.616, -1, 34.8716, 49.7466, -12.1201, 94.8672, -61.0553, 40.6861
0.62, -1, 34.8854, 49.7252, -12.146, 94.9012, -60.9296, 40.7303
0.624, -1, 34.8991, 49.7039, -12.1718, 94.9352, -60.804, 40.7744
0.628, -1, 34.9128, 49.6826, -12.1976, 94.9692, -60.6786, 40.8185
0.632, -1, 34.9265, 49.6613, -12.2234, 95.0032, -60.5534, 40.8625
0.636, -1, 34.9402, 49.6401, -12.2491, 95.037, -60.4283, 40.9064
0.64, -1, 34.9539, 49.6189, -12.2748, 95.0709, -60.3034, 40.9503
0.644, -1, 34.9675, 49.5977, -12.3005, 95.1047, -60.1787, 40.9941
0.648, -1, 34.9812, 49.5765, -12.3261, 95.1384, -60.0541, 41.0379
0.652, -1, 34.9948, 49.5554, -12.3517, 95.1721, -59.9297, 41.0816
0.656, -1, 35.0084, 49.5343, -12.3772, 95.2058, -59.8055, 41.1252
0.66, -1, 35.022, 49.5132, -12.4028, 95.2394, -59.6814, 41.1688
0.664, -1, 35.0355, 49.4922, -12.4283, 95.273, -59.5575, 41.2124
0.668, -1, 35.0491, 49.4712, -12.4537, 95.3065, -59.4337, 41.2558
0.672, -1, 35.0626, 49.4502, -12.4791, 95.34, -59.3101, 41.2993
0.676, -1, 35.0761, 49.4292, -12.5045, 95.3734, -59.1867, 41.3426
0.68, -1, 35.0896, 49.4083, -12.5299, 95.4068, -59.0634, 41.3859
0.684, -1, 35.1031, 49.3874, -12.5552, 95.4401, -58.9403, 41.4292
0.688, -1, 35.1165, 49.3665, -12.5805, 95.4735, -58.8174, 41.4724
0.692, -1, 35.1299, 49.3456, -12.6058, 95.5067, -58.6946, 41.5155
0.696, -1, 35.1434, 49.3248, -12.631, 95.5399, -58.5719, 41.5586
0.7, -1, 35.1568, 49.304, -12.6562, 95.5731, -58.4495, 41.6017
0.704, -1, 35.1701, 49.2832, -12.6813, 95.6063, -58.3271, 41.6446
0.708, -1, 35.1835, 49.2625, -12.7065, 95.6394, -58.205, 41.6876
0.712, -1, 35.1969, 49.2417, -12.7316, 95.6724, -58.083, 41.7304
0.716, -1, 35.2102, 49.221, -12.7566, 95.7054, -57.9611, 41.7732
0.72, -1, 35.2235, 49.2004, -12.7817, 95.7384, -57.8394, 41.816
0.724, -1, 35.2368, 49.1797, -12.8067, 95.7713, -57.7178, 41.8587
0.728, -1, 35.2501, 49.1591, -12.8316, 95.8042, -57.5964, 41.9014
0.732, -1, 35.2634, 49.1385, -12.8566, 95.8371, -57.4752, 41.944
0.736, -1, 35.2766, 49.1179, -12.8815, 95.8699, -57.3541, 41.9865
0.74, -1, 35.2898, 49.0974, -12.9064, 95.9026, -57.2332, 42.029
0.744, -1, 35.3031, 49.0769, -12.9312, 95.9354, -57.1124, 42.0714
0.748, -1, 35.3163, 49.0564, -12.956, 95.968, -56.9917, 42.1138
0.752, -1, 35.3294, 49.0359, -12.9808, 96.0007, -56.8712, 42.1562
0.756, -1, 35.3426, 49.0155, -13.0056, 96.0333, -56.7509, 42.1984
0.76, -1, 35.3558, 48.9951, -13.0303, 96.0659, -56.6307, 42.2407
0.764, -1, 35.3689, 48.9747, -13.055, 96.0984, -56.5107, 42.2828
0.768, -1, 35.382, 48.9543, -13.0797, 96.1309, -56.3907, 42.325
0.772, -1, 35.3951, 48.934, -13.1043, 96.1633, -56.271, 42.3671
0.776, -1, 35.4082, 48.9137, -13.1289, 96.1957, -56.1514, 42.4091
0.78, -1, 35.4213, 48.8934, -13.1535, 96.2281, -56.0319, 42.451
0.784, -1, 35.4343, 48.8731, -13.178, 96.2604, -55.9126, 42.493
0.788, -1, 35.4474, 48.8528, -13.2025, 96.2927, -55.7934, 42.5348
0.792, -1, 35.4604, 48.8326, -13.227, 96.3249, -55.6744, 42.5767
0.796, -1, 35.4734, 48.8124, -13.2515, 96.3571, -55.5555, 42.6184
0.8, -1, 35.4864, 48.7923, -13.2759, 96.3893, -55.4367, 42.6602
0.804, -1, 35.4994, 48.7721, -13.3003, 96.4214, -55.3181, 42.7018
0.808, -1, 35.5124, 48.752, -13.3247, 96.4535, -55.1997, 42.7435
0.812, -1, 35.5253, 48.7319, -13.349, 96.4856, -55.0813, 42.785
0.816, -1, 35.5382, 48.7118, -13.3733, 96.5176, -54.9631, 42.8266
0.82, -1, 35.5512, 48.6918, -13.3976, 96.5496, -54.8451, 42.868
0.824, -1, 35.5641, 48.6717, -13.4219, 96.5816, -54.7272, 42.9095
0.828, -1, 35.577, 48.6517, -13.4461, 96.6134, -54.6094, 42.9508
0.832, -1, 35.5898, 48.6318, -13.4703, 96.6453, -54.4918, 42.9922
0.836, -1, 35.6027, 48.6118, -13.4944, 96.6772, -54.3743, 43.0335
0.84, -1, 35.6155, 48.5919, -13.5186, 96.709, -54.2569, 43.0747
0.844, -1, 35.6284, 48.5719, -13.5427, 96.7407, -54.1397, 43.1159
0.848, -1, 35.6412, 48.5521, -13.5668, 96.7724, -54.0226, 43.157
0.852, -1, 35.6539, 48.5322, -13.5909, 96.8041, -53.9056, 43.1981
0.856, -1, 35.6666, 48.5125, -13.6149, 96.8358, -53.7888, 43.2392
0.86, -1, 35.6791, 48.4928, -13.6389, 96.8674, -53.6721, 43.2802
0.864, -1, 35.6914, 48.4734, -13.6628, 96.8989, -53.5556, 43.3211
0.868, -1, 35.7035, 48.4543, -13.6867, 96.9304, -53.4394, 43.3619
0.872, -1, 35.7152, 48.4354, -13.7106, 96.9618, -53.3236, 43.4026
0.876, -1, 35.7267, 48.4169, -13.7343, 96.993, -53.2083, 43.4431
0.88, -1, 35.7378, 48.3988, -13.7579, 97.0241, -53.0937, 43.4834
0.884, -1, 35.7487, 48.3811, -13.7812, 97.0549, -52.9801, 43.5233
0.888, -1, 35.7593, 48.3638, -13.8043, 97.0853, -52.8677, 43.5628
0.892, -1, 35.7696, 48.347, -13.8271, 97.1153, -52.7571, 43.6017
0.896, -1, 35.7796, 48.3308, -13.8494, 97.1448, -52.6484, 43.6399
0.9, -1, 35.7891, 48.3154, -13.8713, 97.1735, -52.5423, 43.6772
0.904, -1, 35.7981, 48.3007, -13.8924, 97.2015, -52.4393, 43.7134
0.908, -1, 35.8067, 48.2868, -13.9129, 97.2284, -52.3399, 43.7484
0.912, -1, 35.8148, 48.2737, -13.9324, 97.2542, -52.2448, 43.7818
0.916, -1, 35.8225, 48.2613, -13.951, 97.2786, -52.1546, 43.8135
0.92, -1, 35.8299, 48.2495, -13.9684, 97.3016, -52.07, 43.8433
0.924, -1, 35.8369, 48.2384, -13.9846, 97.3229, -51.9913, 43.871
0.928, -1, 35.8436, 48.2277, -13.9994, 97.3424, -51.9192, 43.8963
0.932, -1, 35.8501, 48.2175, -14.0129, 97.3601, -51.8539, 43.9192
0.936, -1, 35.8564, 48.2078, -14.0248, 97.3759, -51.7957, 43.9397
0.94, -1, 35.8623, 48.1986, -14.0354, 97.3898, -51.7445, 43.9577
0.944, -1, 35.8681, 48.1898, -14.0445, 97.4018, -51.7003, 43.9732
0.948, -1, 35.8735, 48.1815, -14.0522, 97.4119, -51.6627, 43.9864
0.952, -1, 35.8787, 48.1738, -14.0587, 97.4204, -51.6314, 43.9974
0.956, -1, 35.8837, 48.1666, -14.0639, 97.4273, -51.6059, 44.0063
0.96, -1, 35.8884, 48.16, -14.0681, 97.4328, -51.5855, 44.0135
0.964, -1, 35.8928, 48.1539, -14.0714, 97.4371, -51.5697, 44.019
0.968, -1, 35.897, 48.1485, -14.0739, 97.4403, -51.5576, 44.0232
0.972, -1, 35.9008, 48.1437, -14.0757, 97.4427, -51.5487, 44.0263
0.976, -1, 35.9042, 48.1397, -14.077, 97.4444, -51.5423, 44.0285
0.98, 2, 35.9071, 48.1364, -14.078, 97.4456, -51.5377, 44.0301
0.984, 2, 35.9094, 48.1339, -14.0786, 97.4465, -51.5346, 44.0312
0.988, 2, 35.9112, 48.132, -14.0791, 97.4471, -51.5324, 44.0319
0.992, 2, 35.9124, 48.1306, -14.0794, 97.4475, -51.5309, 44.0325
0.996, 2, 35.9133, 48.1297, -14.0796, 97.4477, -51.5299, 44.0328
1, 2, 35.9139, 48.1291, -14.0797, 97.4479, -51.5293, 44.033
1.004, 2, 35.9143, 48.1287, -14.0798, 97.448, -51.5288, 44.0332
1.008, 2, 35.9146, 48.1284, -14.0799, 97.4481, -51.5285, 44.0333
1.012, 2, 35.9147, 48.1282, -14.0799, 97.4482, -51.5283, 44.0334
1.016, 2, 35.9149, 48.128, -14.08, 97.4482, -51.5281, 44.0334
1.02, 2, 35.915, 48.128, -14.08, 97.4482, -51.528, 44.0335
1.024, 2, 35.915, 48.1279, -14.08, 97.4482, -51.528, 44.0335
1.027, 2, 35.9151, 48.1279, -14.08, 97.4483, -51.5279, 44.0335
1.032, 2, 35.9151, 48.1278, -14.08, 97.4483, -51.5279, 44.0335
1.036, 2, 35.9151, 48.1278, -14.08, 97.4483, -51.5279, 44.0335
1.04, 2, 35.9151, 48.1278, -14.08, 97.4483, -51.5279, 44.0335
1.044, 2, 35.9151, 48.1278, -14.08, 97.4483, -51.5279, 44.0335
1.048, 2, 35.9151, 48.1278, -14.08, 97.4483, -51.5279, 44.0335
1.052, 2, 35.9151, 48.1278, -14.08, 97.4483, -51.5279, 44.0335
1.055, 2, 35.9151, 48.1278, -14.08, 97.4483, -51.5278, 44.0335
1.06, 2, 35.9151, 48.1278, -14.08, 97.4483, -51.5278, 44.0335
1.064, 2, 35.9151, 48.1278, -14.08, 97.4483, -51.5278, 44.0335
1.068, 2, 35.9151, 48.1278, -14.08, 97.4483, -51.5278, 44.0335
1.072, 2, 35.9151, 48.1278, -14.08, 97.4483, -51.5278, 44.0335
1.076, 2, 35.9151, 48.1278, -14.08, 97.4483, -51.5278, 44.0335
1.08, 2, 35.9151, 48.1278, -14.08, 97.4483, -51.5278, 44.0335
1.084, 2, 35.9151, 48.1278, -14.08, 97.4483, -51.5278, 44.0335
1.088, 2, 35.9151, 48.1278, -14.08, 97.4483, -51.5278, 44.0335
1.091, 2, 35.9151, 48.1278, -14.08, 97.4483, -51.5278, 44.0335
1.096, 2, 35.9151, 48.1278, -14.08, 97.4483, -51.5278, 44.0335
1.1, 2, 35.9151, 48.1278, -14.08, 97.4483, -51.5278, 44.0335
1.104, 2, 35.9151, 48.1278, -14.08, 97.4483, -51.5278, 44.0335
1.108, 2, 35.9151, 48.1278, -14.08, 97.4483, -51.5278, 44.0335
1.112, 2, 35.9151, 48.1278, -14.08, 97.4483, -51.5278, 44.0335
1.116, 2, 35.9151, 48.1278, -14.08, 97.4483, -51.5278, 44.0335
1.119, 2, 35.9151, 48.1278, -14.08, 97.4483, -51.5278, 44.0335
1.124, 2, 35.9151, 48.1278, -14.08, 97.4483, -51.5278, 44.0335
1.128, 2, 35.9151, 48.1278, -14.08, 97.4483, -51.5278, 44.0335
1.132, 2, 35.9151, 48.1278, -14.08, 97.4483, -51.5278, 44.0335
1.136, 2, 35.9151, 48.1278, -14.08, 97.4483, -51.5278, 44.0335
1.14, 2, 35.9151, 48.1278, -14.08, 97.4483, -51.5278, 44.0335
1.144, 2, 35.9151, 48.1278, -14.08, 97.4483, -51.5278, 44.0335
1.147, 2, 35.9151, 48.1278, -14.08, 97.4483, -51.5278, 44.0335
1.152, 2, 35.9151, 48.1278, -14.08, 97.4483, -51.5278, 44.0335
1.156, 2, 35.9151, 48.1278, -14.08, 97.4483, -51.5278, 44.0335
1.16, 2, 35.9151, 48.1278, -14.08, 97.4483, -51.5278, 44.0335
1.164, 2, 35.9151, 48.1278, -14.08, 97.4483, -51.5278, 44.0335
1.168, 2, 35.9151, 48.1278, -14.08, 97.4483, -51.5278, 44.0335
1.172, 2, 35.9151, 48.1278, -14.08, 97.4483, -51.5278, 44.0335
1.175, 2, 35.9151, 48.1278, -14.08, 97.4483, -51.5278, 44.0335
1.18, 2, 35.9151, 48.1278, -14.08, 97.4483, -51.5278, 44.0335
1.184, 2, 35.9151, 48.1278, -14.08, 97.4483, -51.5278, 44.0335
1.188, 2, 35.9151, 48.1278, -14.08, 97.4483, -51.5278, 44.0335
1.192, 2, 35.9151, 48.1278, -14.08, 97.4483, -51.5278, 44.0335
1.196, 2, 35.9151, 48.1278, -14.08, 97.4483, -51.5278, 44.0335
1.2, 2, 35.9151, 48.1278, -14.08, 97.4483, -51.5278, 44.0335
1.204, 2, 35.9151, 48.1278, -14.08, 97.4483, -51.5278, 44.0335
1.208, 2, 35.9151, 48.1278, -14.08, 97.4483, -51.5278, 44.0335
1.212, 2, 35.9151, 48.1278, -14.08, 97.4483, -51.5278, 44.0335
1.216, 2, 35.9151, 48.1278, -14.08, 97.4483, -51.5278, 44.0335
1.22, 2, 35.9151, 48.1278, -14.08, 97.4483, -51.5278, 44.0335
1.224, 2, 35.9151, 48.1278, -14.08, 97.4483, -51.5278, 44.0335
1.228, 2, 35.9151, 48.1278, -14.08, 97.4483, -51.5278, 44.0335
1.232, 2, 35.9151, 48.1278, -14.08, 97.4483, -51.5278, 44.0335
1.236, 2, 35.9151, 48.1278, -14.08, 97.4483, -51.5278, 44.0335
1.24, 2, 35.9151, 48.1278, -14.08, 97.4483, -51.5278, 44.0335
1.244, 2, 35.9151, 48.1278, -14.08, 97.4483, -51.5278, 44.0335
1.248, 2, 35.9151, 48.1278, -14.08, 97.4483, -51.5278, 44.0335
1.252, 2, 35.9151, 48.1278, -14.08, 97.4483, -51.5278, 44.0335
1.256, 2, 35.9151, 48.1278, -14.08, 97.4483, -51.5278, 44.0335
1.26, 2, 35.9151, 48.1278, -14.08, 97.4483, -51.5278, 44.0335
1.264, 2, 35.9151, 48.1278, -14.08, 97.4483, -51.5278, 44.0335
1.267, 2, 35.9151, 48.1278, -14.08, 97.4483, -51.5278, 44.0335
1.272, 2, 35.9151, 48.1278, -14.08, 97.4483, -51.5278, 44.0335
1.276, 2, 35.9151, 48.1278, -14.08, 97.4483, -51.5278, 44.0335
1.28, 2, 35.9151, 48.1278, -14.08, 97.4483, -51.5278, 44.0335
1.284, 2, 35.9151, 48.1278, -14.08, 97.4483, -51.5278, 44.0335
1.288, 2, 35.9151, 48.1278, -14.08, 97.4483, -51.5278, 44.0335
1.292, 2, 35.9151, 48.1278, -14.08, 97.4483, -51.5278, 44.0335
1.295, 2, 35.9151, 48.1278, -14.08, 97.4483, -51.5278, 44.0335
1.3, 2, 35.9151, 48.1278, -14.08, 97.4483, -51.5278, 44.0335
1.304, 2, 35.9151, 48.1278, -14.08, 97.4483, -51.5278, 44.0335
1.308, 2, 35.9151, 48.1278, -14.08, 97.4483, -51.5278, 44.0335
1.312, 2, 35.9151, 48.1278, -14.08, 97.4483, -51.5278, 44.0335
1.316, 2, 35.9151, 48.1278, -14.08, 97.4483, -51.5278, 44.0335
1.32, 2, 35.9151, 48.1278, -14.08, 97.4483, -51.5278, 44.0335
1.324, 2, 35.9151, 48.1278, -14.08, 97.4483, -51.5278, 44.0335
1.328, 2, 35.9151, 48.1278, -14.08, 97.4483, -51.5278, 44.0335
1.332, 2, 35.9151, 48.1278, -14.08, 97.4483, -51.5278, 44.0335
1.336, 2, 35.9151, 48.1278, -14.08, 97.4483, -51.5278, 44.0335
1.34, 2, 35.9151, 48.1278, -14.08, 97.4483, -51.5278, 44.0335
1.344, 2, 35.9151, 48.1278, -14.08, 97.4483, -51.5278, 44.0335
1.348, 2, 35.9151, 48.1278, -14.08, 97.4483, -51.5278, 44.0335
1.352, 2, 35.9151, 48.1278, -14.08, 97.4483, -51.5278, 44.0335
1.356, 2, 35.9151, 48.1278, -14.08, 97.4483, -51.5278, 44.0335
1.36, 2, 35.9151, 48.1278, -14.08, 97.4483, -51.5278, 44.0335
1.364, 2, 35.9151, 48.1278, -14.08, 97.4483, -51.5278, 44.0335
1.368, 2, 35.9151, 48.1278, -14.08, 97.4483, -51.5278, 44.0335
1.372, 2, 35.9151, 48.1278, -14.08, 97.4483, -51.5278, 44.0335
1.376, 2, 35.9151, 48.1278, -14.08, 97.4483, -51.5278, 44.0335
1.38, 2, 35.9151, 48.1278, -14.08, 97.4483, -51.5278, 44.0335
1.384, 2, 35.9151, 48.1278, -14.08, 97.4483, -51.5278, 44.0335
1.388, 2, 35.9151, 48.1278, -14.08, 97.4483, -51.5278, 44.0335
1.392, 2, 35.9151, 48.1278, -14.08, 97.4483, -51.5278, 44.0335
1.396, 2, 35.9151, 48.1278, -14.08, 97.4483, -51.5278, 44.0335
1.4, 2, 35.9151, 48.1278, -14.08, 97.4483, -51.5278, 44.0335
1.404, 2, 35.9151, 48.1278, -14.08, 97.4483, -51.5278, 44.0335
1.408, 2, 35.9151, 48.1278, -14.08, 97.4483, -51.5278, 44.0335
1.412, 2, 35.9151, 48.1278, -14.08, 97.4483, -51.5278, 44.0335
1.416, 2, 35.9151, 48.1278, -14.08, 97.4483, -51.5278, 44.0335
1.42, 2, 35.9151, 48.1278, -14.08, 97.4483, -51.5278, 44.0335
1.424, 2, 35.9151, 48.1278, -14.08, 97.4483, -51.5278, 44.0335
1.428, 2, 35.9151, 48.1278, -14.08, 97.4483, -51.5278, 44.0335
1.432, 2, 35.9151, 48.1278, -14.08, 97.4483, -51.5278, 44.0335
1.436, 2, 35.9151, 48.1278, -14.08, 97.4483, -51.5278, 44.0335
1.44, 2, 35.9151, 48.1278, -14.08, 97.4483, -51.5278, 44.0335
1.444, 2, 35.9151, 48.1278, -14.08, 97.4483, -51.5278, 44.0335
1.448, 2, 35.9151, 48.1278, -14.08, 97.4483, -51.5278, 44.0335
1.452, 2, 35.9151, 48.1278, -14.08, 97.4483, -51.5278, 44.0335
1.456, 2, 35.9151, 48.1278, -14.08, 97.4483, -51.5278, 44.0335
1.46, 2, 35.9151, 48.1278, -14.08, 97.4483, -51.5278, 44.0335
1.464, 2, 35.9151, 48.1278, -14.08, 97.4483, -51.5278, 44.0335
1.468, 2, 35.9151, 48.1278, -14.08, 97.4483, -51.5278, 44.0335
1.472, 2, 35.9151, 48.1278, -14.08, 97.4483, -51.5278, 44.0335
1.476, 2, 35.9151, 48.1278, -14.08, 97.4483, -51.5278, 44.0335
1.48, 2, 35.9151, 48.1278, -14.08, 97.4483, -51.5278, 44.0335
1.484, 2, 35.9151, 48.1278, -14.08, 97.4483, -51.5278, 44.0335
1.488, 2, 35.9151, 48.1278, -14.08, 97.4483, -51.5278, 44.0335
1.492, 2, 35.9151, 48.1278, -14.08, 97.4483, -51.5278, 44.0335
1.496, 2, 35.9151, 48.1278, -14.08, 97.4483, -51.5278, 44.0335
1.5, 2, 35.9151, 48.1278, -14.08, 97.4483, -51.5278, 44.0335
1.504, 2, 35.9151, 48.1278, -14.08, 97.4483, -51.5278, 44.0335
1.508, 2, 35.9151, 48.1278, -14.08, 97.4483, -51.5278, 44.0335
1.512, 2, 35.9151, 48.1278, -14.08, 97.4483, -51.5278, 44.0335
1.516, 2, 35.9151, 48.1278, -14.08, 97.4483, -51.5278, 44.0335
1.52, 2, 35.9151, 48.1278, -14.08, 97.4483, -51.5278, 44.0335
1.524, 2, 35.9151, 48.1278, -14.08, 97.4483, -51.5278, 44.0335
1.528, 2, 35.9151, 48.1278, -14.08, 97.4483, -51.5278, 44.0335
1.532, 2, 35.9151, 48.1278, -14.08, 97.4483, -51.5278, 44.0335
1.536, 2, 35.9151, 48.1278, -14.08, 97.4483, -51.5278, 44.0335
1.54, 2, 35.9151, 48.1278, -14.08, 97.4483, -51.5278, 44.0335
1.544, 2, 35.9151, 48.1278, -14.08, 97.4483, -51.5278, 44.0335
1.548, 2, 35.9151, 48.1278, -14.08, 97.4483, -51.5278, 44.0335
1.552, 2, 35.9151, 48.1278, -14.08, 97.4483, -51.5278, 44.0335
1.556, 2, 35.9151, 48.1278, -14.08, 97.4483, -51.5278, 44.0335
1.56, 2, 35.9151, 48.1278, -14.08, 97.4483, -51.5278, 44.0335
1.564, 2, 35.9151, 48.1278, -14.08, 97.4483, -51.5278, 44.0335
1.568, 2, 35.9151, 48.1278, -14.08, 97.4483, -51.5278, 44.0335
1.572, 2, 35.9151, 48.1278, -14.08, 97.4483, -51.5278, 44.0335
1.576, 2, 35.9151, 48.1278, -14.08, 97.4483, -51.5278, 44.0335
1.58, 2, 35.9151, 48.1278, -14.08, 97.4483, -51.5278, 44.0335
1.584, 2, 35.9151, 48.1278, -14.08, 97.4483, -51.5278, 44.0335
1.588, 2, 35.9151, 48.1278, -14.08, 97.4483, -51.5278, 44.0335
1.592, 2, 35.9151, 48.1278, -14.08, 97.4483, -51.5278, 44.0335
1.596, 2, 35.9151, 48.1278, -14.08, 97.4483, -51.5278, 44.0335
1.6, 2, 35.9151, 48.1278, -14.08, 97.4483, -51.5278, 44.0335
1.604, 2, 35.9151, 48.1278, -14.08, 97.4483, -51.5278, 44.0335
1.608, 2, 35.9151, 48.1278, -14.08, 97.4483, -51.5278, 44.0335
1.612, 2, 35.9151, 48.1278, -14.08, 97.4483, -51.5278, 44.0335
1.616, 2, 35.9151, 48.1278, -14.08, 97.4483, -51.5278, 44.0335
1.62, 2, 35.9151, 48.1278, -14.08, 97.4483, -51.5278, 44.0335
1.624, 2, 35.9151, 48.1278, -14.08, 97.4483, -51.5278, 44.0335
1.628, 2, 35.9151, 48.1278, -14.08, 97.4483, -51.5278, 44.0335
1.632, 2, 35.9151, 48.1278, -14.08, 97.4483, -51.5278, 44.0335
1.636, 2, 35.9151, 48.1278, -14.08, 97.4483, -51.5278, 44.0335
1.64, 2, 35.9151, 48.1278, -14.08, 97.4483, -51.5278, 44.0335
1.644, 2, 35.9151, 48.1278, -14.08, 97.4483, -51.5278, 44.0335
1.648, 2, 35.9151, 48.1278, -14.08, 97.4483, -51.5278, 44.0335
1.652, 2, 35.9151, 48.1278, -14.08, 97.4483, -51.5278, 44.0335
1.656, 2, 35.9151, 48.1278, -14.08, 97.4483, -51.5278, 44.0335
1.66, 2, 35.9151, 48.1278, -14.08, 97.4483, -51.5278, 44.0335
1.664, 2, 35.9151, 48.1278, -14.08, 97.4483, -51.5278, 44.0335
1.668, 2, 35.9151, 48.1278, -14.08, 97.4483, -51.5278, 44.0335
1.672, 2, 35.9151, 48.1278, -14.08, 97.4483, -51.5278, 44.0335
1.676, 2, 35.9151, 48.1278, -14.08, 97.4483, -51.5278, 44.0335
1.68, 2, 35.9151, 48.1278, -14.08, 97.4483, -51.5278, 44.0335
1.684, 2, 35.9151, 48.1278, -14.08, 97.4483, -51.5278, 44.0335
1.688, 2, 35.9151, 48.1278, -14.08, 97.4483, -51.5278, 44.0335
1.692, 2, 35.9151, 48.1278, -14.08, 97.4483, -51.5278, 44.0335
1.696, 2, 35.9151, 48.1278, -14.08, 97.4483, -51.5278, 44.0335
1.7, 2, 35.9151, 48.1278, -14.08, 97.4483, -51.5278, 44.0335
1.704, 2, 35.9151, 48.1278, -14.08, 97.4483, -51.5278, 44.0335
1.708, 2, 35.9151, 48.1278, -14.08, 97.4483, -51.5278, 44.0335
1.712, 2, 35.9151, 48.1278, -14.08, 97.4483, -51.5278, 44.0335
1.716, 2, 35.9151, 48.1278, -14.08, 97.4483, -51.5278, 44.0335
1.72, 2, 35.9151, 48.1278, -14.08, 97.4483, -51.5278, 44.0335
1.724, 2, 35.9151, 48.1278, -14.08, 97.4483, -51.5278, 44.0335
1.728, 2, 35.9151, 48.1278, -14.08, 97.4483, -51.5278, 44.0335
1.732, 2, 35.9151, 48.1278, -14.08, 97.4483, -51.5278, 44.0335
1.736, 2, 35.9151, 48.1278, -14.08, 97.4483, -51.5278, 44.0335
1.74, 2, 35.9151, 48.1278, -14.08, 97.4483, -51.5278, 44.0335
1.744, 2, 35.9151, 48.1278, -14.08, 97.4483, -51.5278, 44.0335
1.748, 2, 35.9151, 48.1278, -14.08, 97.4483, -51.5278, 44.0335
1.752, 2, 35.9151, 48.1278, -14.08, 97.4483, -51.5278, 44.0335
1.756, 2, 35.9151, 48.1278, -14.08, 97.4483, -51.5278, 44.0335
1.76, 2, 35.9151, 48.1278, -14.08, 97.4483, -51.5278, 44.0335
1.764, 2, 35.9151, 48.1278, -14.08, 97.4483, -51.5278, 44.0335
1.768, 2, 35.9151, 48.1278, -14.08, 97.4483, -51.5278, 44.0335
1.772, 2, 35.9151, 48.1278, -14.08, 97.4483, -51.5278, 44.0335
1.776, 2, 35.9151, 48.1278, -14.08, 97.4483, -51.5278, 44.0335
1.78, 2, 35.9151, 48.1278, -14.08, 97.4483, -51.5278, 44.0335
1.784, 2, 35.9151, 48.1278, -14.08, 97.4483, -51.5278, 44.0335
1.788, 2, 35.9151, 48.1278, -14.08, 97.4483, -51.5278, 44.0335
1.792, 2, 35.9151, 48.1278, -14.08, 97.4483, -51.5278, 44.0335
1.796, 2, 35.9151, 48.1278, -14.08, 97.4483, -51.5278, 44.0335
1.8, 2, 35.9151, 48.1278, -14.08, 97.4483, -51.5278, 44.0335
1.804, 2, 35.9151, 48.1278, -14.08, 97.4483, -51.5278, 44.0335
1.808, 2, 35.9151, 48.1278, -14.08, 97.4483, -51.5278, 44.0335
1.812, 2, 35.9151, 48.1278, -14.08, 97.4483, -51.5278, 44.0335
1.816, 2, 35.9151, 48.1278, -14.08, 97.4483, -51.5278, 44.0335
1.82, 2, 35.9151, 48.1278, -14.08, 97.4483, -51.5278, 44.0335
1.824, 2, 35.9151, 48.1278, -14.08, 97.4483, -51.5278, 44.0335
1.828, 2, 35.9151, 48.1278, -14.08, 97.4483, -51.5278, 44.0335
1.832, 2, 35.9151, 48.1278, -14.08, 97.4483, -51.5278, 44.0335
1.836, 2, 35.9151, 48.1278, -14.08, 97.4483, -51.5278, 44.0335
1.84, 2, 35.9151, 48.1278, -14.08, 97.4483, -51.5278, 44.0335
1.844, 2, 35.9151, 48.1278, -14.08, 97.4483, -51.5278, 44.0335
1.848, 2, 35.9151, 48.1278, -14.08, 97.4483, -51.5278, 44.0335
1.852, 2, 35.9151, 48.1278, -14.08, 97.4483, -51.5278, 44.0335
1.856, 2, 35.9151, 48.1278, -14.08, 97.4483, -51.5278, 44.0335
1.86, 2, 35.9151, 48.1278, -14.08, 97.4483, -51.5278, 44.0335
1.864, 2, 35.9151, 48.1278, -14.08, 97.4483, -51.5278, 44.0335
1.868, 2, 35.9151, 48.1278, -14.08, 97.4483, -51.5278, 44.0335
1.872, 2, 35.9151, 48.1278, -14.08, 97.4483, -51.5278, 44.0335
1.876, 2, 35.9151, 48.1278, -14.08, 97.4483, -51.5278, 44.0335
1.88, 2, 35.9151, 48.1278, -14.08, 97.4483, -51.5278, 44.0335
1.884, 2, 35.9151, 48.1278, -14.08, 97.4483, -51.5278, 44.0335
1.888, 2, 35.9151, 48.1278, -14.08, 97.4483, -51.5278, 44.0335
1.892, 2, 35.9151, 48.1278, -14.08, 97.4483, -51.5278, 44.0335
1.896, 2, 35.9151, 48.1278, -14.08, 97.4483, -51.5278, 44.0335
1.9, 2, 35.9151, 48.1278, -14.08, 97.4483, -51.5278, 44.0335
1.904, 2, 35.9151, 48.1278, -14.08, 97.4483, -51.5278, 44.0335
1.908, 2, 35.9151, 48.1278, -14.08, 97.4483, -51.5278, 44.0335
1.912, 2, 35.9151, 48.1278, -14.08, 97.4483, -51.5278, 44.0335
1.916, 2, 35.9151, 48.1278, -14.08, 97.4483, -51.5278, 44.0335
1.92, 2, 35.9151, 48.1278, -14.08, 97.4483, -51.5278, 44.0335
1.924, 2, 35.9151, 48.1278, -14.08, 97.4483, -51.5278, 44.0335
1.928, 2, 35.9151, 48.1278, -14.08, 97.4483, -51.5278, 44.0335
1.932, 2, 35.9151, 48.1278, -14.08, 97.4483, -51.5278, 44.0335
1.936, 2, 35.9151, 48.1278, -14.08, 97.4483, -51.5278, 44.0335
1.94, 2, 35.9151, 48.1278, -14.08, 97.4483, -51.5278, 44.0335
1.944, 2, 35.9151, 48.1278, -14.08, 97.4483, -51.5278, 44.0335
1.948, 2, 35.9151, 48.1278, -14.08, 97.4483, -51.5278, 44.0335
1.952, 2, 35.9151, 48.1278, -14.08, 97.4483, -51.5278, 44.0335
1.956, 2, 35.9151, 48.1278, -14.08, 97.4483, -51.5278, 44.0335
1.96, 2, 35.9151, 48.1278, -14.08, 97.4483, -51.5278, 44.0335
1.964, 2, 35.9151, 48.1278, -14.08, 97.4483, -51.5278, 44.0335
1.968, 2, 35.9151, 48.1278, -14.08, 97.4483, -51.5278, 44.0335
1.972, 2, 35.9151, 48.1278, -14.08, 97.4483, -51.5278, 44.0335
1.976, 2, 35.9151, 48.1278, -14.08, 97.4483, -51.5278, 44.0335
1.98, 2, 35.9151, 48.1278, -14.08, 97.4483, -51.5278, 44.0335
1.984, 2, 35.9151, 48.1278, -14.08, 97.4483, -51.5278, 44.0335
1.988, 2, 35.9151, 48.1278, -14.08, 97.4483, -51.5278, 44.0335
1.992, 2, 35.9151, 48.1278, -14.08, 97.4483, -51.5278, 44.0335
1.996, 2, 35.9151, 48.1278, -14.08, 97.4483, -51.5278, 44.0335
1.999, 2, 35.9151, 48.1278, -14.08, 97.4483, -51.5278, 44.0335
2.004, 2, 35.9151, 48.1278, -14.08, 97.4483, -51.5278, 44.0335
2.008, 2, 35.9151, 48.1278, -14.08, 97.4483, -51.5278, 44.0335
2.012, 2, 35.9151, 48.1278, -14.08, 97.4483, -51.5278, 44.0335
2.015, 2, 35.9151, 48.1278, -14.08, 97.4483, -51.5278, 44.0335
2.019, 2, 35.9151, 48.1278, -14.08, 97.4483, -51.5278, 44.0335
2.024, 2, 35.9151, 48.1278, -14.08, 97.4483, -51.5278, 44.0335
2.028, 2, 35.9151, 48.1278, -14.08, 97.4483, -51.5278, 44.0335
2.031, 2, 35.9151, 48.1278, -14.08, 97.4483, -51.5278, 44.0335
2.036, 4, 35.9151, 48.1278, -14.08, 97.4483, -51.5278, 44.0335
2.04, 4, 35.9151, 48.1278, -14.08, 97.4483, -51.5278, 44.0335
2.044, 4, 35.9151, 48.1278, -14.08, 97.4483, -51.5278, 44.0335
2.048, 4, 35.9151, 48.1278, -14.08, 97.4483, -51.5278, 44.0335
2.051, 4, 35.9151, 48.1278, -14.08, 97.4483, -51.5278, 44.0335
2.055, 4, 35.9151, 48.1278, -14.08, 97.4483, -51.5278, 44.0335
2.06, 4, 35.9151, 48.1278, -14.08, 97.4483, -51.5278, 44.0335
2.064, 4, 35.9151, 48.1278, -14.08, 97.4483, -51.5278, 44.0335
2.068, 4, 35.9151, 48.1278, -14.08, 97.4483, -51.5278, 44.0335
2.071, 4, 35.9151, 48.1278, -14.08, 97.4483, -51.5278, 44.0335
2.076, 4, 35.9151, 48.1278, -14.08, 97.4483, -51.5278, 44.0335
2.08, 4, 35.9151, 48.1278, -14.08, 97.4483, -51.5278, 44.0335
2.084, 4, 35.9151, 48.1278, -14.08, 97.4483, -51.5278, 44.0335
2.087, 4, 35.9151, 48.1278, -14.08, 97.4483, -51.5278, 44.0335
2.092, 4, 35.9151, 48.1278, -14.08, 97.4483, -51.5278, 44.0335
2.096, 4, 35.9151, 48.1278, -14.08, 97.4483, -51.5278, 44.0335
2.1, 4, 35.9151, 48.1278, -14.08, 97.4483, -51.5278, 44.0335
2.104, 4, 35.9151, 48.1278, -14.08, 97.4483, -51.5278, 44.0335
2.107, 4, 35.9151, 48.1278, -14.08, 97.4483, -51.5278, 44.0335
2.111, 4, 35.9151, 48.1278, -14.08, 97.4483, -51.5278, 44.0335
2.116, 4, 35.9151, 48.1278, -14.08, 97.4483, -51.5278, 44.0335
2.12, 4, 35.9151, 48.1278, -14.08, 97.4483, -51.5278, 44.0335
2.124, 4, 35.9151, 48.1278, -14.08, 97.4483, -51.5278, 44.0335
2.127, 4, 35.9151, 48.1278, -14.08, 97.4483, -51.5278, 44.0335
2.132, 4, 35.9151, 48.1278, -14.08, 97.4483, -51.5278, 44.0335
2.136, 4, 35.9151, 48.1278, -14.08, 97.4483, -51.5278, 44.0335
2.142, 4, 35.9151, 48.1278, -14.08, 97.4483, -51.5278, 44.0335
2.144, 4, 35.9151, 48.1278, -14.08, 97.4483, -51.5278, 44.0335
2.147, 4, 35.9151, 48.1278, -14.08, 97.4483, -51.5278, 44.0335
2.152, 4, 35.9151, 48.1278, -14.08, 97.4483, -51.5278, 44.0335
2.156, 4, 35.9151, 48.1278, -14.08, 97.4483, -51.5278, 44.0335
2.16, 4, 35.9151, 48.1278, -14.08, 97.4483, -51.5278, 44.0335
2.163, 4, 35.9151, 48.1278, -14.08, 97.4483, -51.5278, 44.0335
2.168, 4, 35.9151, 48.1278, -14.08, 97.4483, -51.5278, 44.0335
2.172, 4, 35.9151, 48.1278, -14.08, 97.4483, -51.5278, 44.0335
2.176, 4, 35.9151, 48.1278, -14.08, 97.4483, -51.5278, 44.0335
2.179, 4, 35.9151, 48.1278, -14.08, 97.4483, -51.5278, 44.0335
2.184, 4, 35.9151, 48.1278, -14.08, 97.4483, -51.5278, 44.0335
2.188, 4, 35.915, 48.128, -14.08, 97.4483, -51.5279, 44.0335
2.192, 4, 35.9148, 48.1283, -14.08, 97.4483, -51.5279, 44.0335
2.196, 4, 35.9145, 48.1288, -14.08, 97.4483, -51.528, 44.0335
2.199, 4, 35.9141, 48.1297, -14.08, 97.4482, -51.5283, 44.0333
2.204, 4, 35.9135, 48.1307, -14.08, 97.4481, -51.5289, 44.0331
2.208, 4, 35.9128, 48.132, -14.0799, 97.448, -51.5298, 44.0328
2.212, 4, 35.9122, 48.1333, -14.0798, 97.4477, -51.5313, 44.0322
2.216, 4, 35.9116, 48.1348, -14.0797, 97.4473, -51.5335, 44.0314
2.219, 4, 35.911, 48.1362, -14.0796, 97.4469, -51.5365, 44.0302
2.224, 4, 35.9105, 48.1377, -14.0794, 97.4462, -51.5403, 44.0288
2.228, 5, 35.9101, 48.1393, -14.0791, 97.4454, -51.5452, 44.0269
2.232, 5, 35.9096, 48.141, -14.0788, 97.4444, -51.5511, 44.0247
2.235, 5, 35.9093, 48.1429, -14.0785, 97.4432, -51.5581, 44.022
2.24, 5, 35.909, 48.1448, -14.0781, 97.4419, -51.5661, 44.0189
2.244, 5, 35.9088, 48.1467, -14.0777, 97.4403, -51.5751, 44.0155
2.248, 5, 35.9087, 48.1486, -14.0772, 97.4387, -51.5851, 44.0117
2.252, 5, 35.9087, 48.1506, -14.0767, 97.4368, -51.5959, 44.0075
2.255, 5, 35.9087, 48.1527, -14.0761, 97.4348, -51.6075, 44.0031
2.259, 5, 35.9086, 48.1549, -14.0755, 97.4328, -51.6196, 43.9985
2.264, 5, 35.9085, 48.1574, -14.0749, 97.4307, -51.6322, 43.9937
2.268, 5, 35.9082, 48.1601, -14.0743, 97.4285, -51.6452, 43.9887
2.272, 5, 35.9078, 48.1631, -14.0736, 97.4262, -51.6583, 43.9837
2.275, 5, 35.9073, 48.1663, -14.0729, 97.424, -51.6716, 43.9786
2.28, 5, 35.9068, 48.1696, -14.0723, 97.4217, -51.6851, 43.9735
2.284, 5, 35.9062, 48.1729, -14.0716, 97.4194, -51.6986, 43.9683
2.288, 5, 35.9055, 48.1764, -14.0709, 97.4171, -51.7121, 43.9632
2.291, 5, 35.9049, 48.1799, -14.0702, 97.4147, -51.7257, 43.958
2.296, 5, 35.9042, 48.1834, -14.0695, 97.4124, -51.7393, 43.9528
2.3, 5, 35.9035, 48.1869, -14.0688, 97.4101, -51.7529, 43.9476
2.304, 5, 35.9028, 48.1905, -14.0681, 97.4078, -51.7665, 43.9425
2.308, 5, 35.9021, 48.194, -14.0674, 97.4054, -51.7801, 43.9373
2.311, 5, 35.9014, 48.1976, -14.0667, 97.4031, -51.7938, 43.9321
2.316, 5, 35.9007, 48.2012, -14.066, 97.4007, -51.8074, 43.9269
2.32, 5, 35.9, 48.2047, -14.0653, 97.3984, -51.821, 43.9217
2.324, 5, 35.8993, 48.2083, -14.0646, 97.396, -51.8347, 43.9165
2.328, 5, 35.8986, 48.2119, -14.0639, 97.3937, -51.8483, 43.9113
2.331, 5, 35.8979, 48.2154, -14.0632, 97.3913, -51.8619, 43.9061
2.336, 5, 35.8972, 48.219, -14.0625, 97.389, -51.8756, 43.901
2.34, 5, 35.8965, 48.2225, -14.0618, 97.3866, -51.8892, 43.8958
2.344, 5, 35.8958, 48.2261, -14.061, 97.3843, -51.9028, 43.8906
2.347, 5, 35.895, 48.2297, -14.0603, 97.3819, -51.9165, 43.8854
2.352, 5, 35.8943, 48.2332, -14.0596, 97.3796, -51.9301, 43.8802
2.356, 5, 35.8936, 48.2368, -14.0589, 97.3772, -51.9437, 43.8751
2.36, 5, 35.8929, 48.2403, -14.0581, 97.3748, -51.9574, 43.8699
2.364, 5, 35.8922, 48.2439, -14.0574, 97.3724, -51.971, 43.8647
2.367, 5, 35.8915, 48.2475, -14.0567, 97.3701, -51.9846, 43.8595
2.372, 5, 35.8907, 48.251, -14.0559, 97.3677, -51.9982, 43.8544
2.376, 5, 35.89, 48.2546, -14.0552, 97.3653, -52.0119, 43.8492
2.38, 5, 35.8893, 48.2581, -14.0545, 97.3629, -52.0255, 43.844
2.383, 5, 35.8886, 48.2617, -14.0537, 97.3605, -52.0391, 43.8389
2.388, 5, 35.8879, 48.2652, -14.053, 97.3582, -52.0527, 43.8337
2.392, 5, 35.8871, 48.2688, -14.0522, 97.3558, -52.0664, 43.8286
2.396, 5, 35.8864, 48.2723, -14.0515, 97.3534, -52.08, 43.8234
2.4, 5, 35.8857, 48.2759, -14.0507, 97.351, -52.0936, 43.8182
2.403, 5, 35.885, 48.2794, -14.05, 97.3486, -52.1072, 43.8131
2.408, 5, 35.8842, 48.2829, -14.0492, 97.3462, -52.1209, 43.8079
2.412, 5, 35.8835, 48.2865, -14.0484, 97.3438, -52.1345, 43.8028
2.416, 5, 35.8828, 48.29, -14.0477, 97.3414, -52.1481, 43.7976
2.42, 5, 35.8821, 48.2936, -14.0469, 97.339, -52.1617, 43.7925
2.423, 5, 35.8813, 48.2971, -14.0461, 97.3366, -52.1753, 43.7873
2.428, 5, 35.8806, 48.3006, -14.0454, 97.3342, -52.1889, 43.7822
2.432, 5, 35.8799, 48.3042, -14.0446, 97.3317, -52.2026, 43.777
2.436, 5, 35.8791, 48.3077, -14.0438, 97.3293, -52.2162, 43.7719
2.439, 5, 35.8784, 48.3112, -14.0431, 97.3269, -52.2298, 43.7667
2.444, 5, 35.8777, 48.3148, -14.0423, 97.3245, -52.2434, 43.7616
2.448, 5, 35.8769, 48.3183, -14.0415, 97.3221, -52.257, 43.7564
2.452, 5, 35.8762, 48.3218, -14.0407, 97.3196, -52.2706, 43.7513
2.456, 5, 35.8755, 48.3253, -14.0399, 97.3172, -52.2842, 43.7462
2.459, 5, 35.8747, 48.3289, -14.0391, 97.3148, -52.2978, 43.741
2.464, 5, 35.874, 48.3324, -14.0383, 97.3124, -52.3114, 43.7359
2.468, 5, 35.8733, 48.3359, -14.0376, 97.3099, -52.3251, 43.7308
2.472, 5, 35.8725, 48.3394, -14.0368, 97.3075, -52.3387, 43.7256
2.476, 5, 35.8718, 48.343, -14.036, 97.305, -52.3523, 43.7205
2.479, 5, 35.871, 48.3465, -14.0352, 97.3026, -52.3659, 43.7154
2.484, 5, 35.8703, 48.35, -14.0344, 97.3002, -52.3795, 43.7102
2.488, 5, 35.8696, 48.3535, -14.0336, 97.2977, -52.3931, 43.7051
2.492, 5, 35.8688, 48.357, -14.0327, 97.2953, -52.4067, 43.7
2.495, 5, 35.8681, 48.3605, -14.0319, 97.2928, -52.4203, 43.6949
2.5, 5, 35.8673, 48.3641, -14.0311, 97.2904, -52.4339, 43.6898
2.504, 5, 35.8666, 48.3676, -14.0303, 97.2879, -52.4475, 43.6846
2.508, 5, 35.8658, 48.3711, -14.0295, 97.2855, -52.4611, 43.6795
2.512, 5, 35.8651, 48.3746, -14.0287, 97.283, -52.4747, 43.6744
2.515, 5, 35.8644, 48.3781, -14.0279, 97.2805, -52.4883, 43.6693
2.52, 5, 35.8636, 48.3816, -14.027, 97.2781, -52.5019, 43.6642
2.524, 5, 35.8629, 48.3851, -14.0262, 97.2756, -52.5154, 43.6591
2.528, 5, 35.8621, 48.3886, -14.0254, 97.2731, -52.529, 43.6539
2.531, 5, 35.8614, 48.3921, -14.0246, 97.2706, -52.5426, 43.6488
2.536, 5, 35.8606, 48.3956, -14.0237, 97.2682, -52.5562, 43.6437
2.54, 5, 35.8599, 48.3991, -14.0229, 97.2657, -52.5698, 43.6386
2.544, 5, 35.8591, 48.4026, -14.022, 97.2632, -52.5834, 43.6335
2.548, 5, 35.8584, 48.4061, -14.0212, 97.2607, -52.597, 43.6284
2.551, 5, 35.8576, 48.4096, -14.0204, 97.2582, -52.6106, 43.6233
2.556, 5, 35.8568, 48.4131, -14.0195, 97.2558, -52.6242, 43.6182
2.56, 5, 35.8561, 48.4166, -14.0187, 97.2533, -52.6378, 43.6131
2.564, 5, 35.8553, 48.4201, -14.0178, 97.2508, -52.6513, 43.608
2.568, 5, 35.8546, 48.4236, -14.017, 97.2483, -52.6649, 43.6029
2.571, 5, 35.8538, 48.4271, -14.0161, 97.2458, -52.6785, 43.5978
2.576, 5, 35.8531, 48.4306, -14.0153, 97.2433, -52.6921, 43.5927
2.58, 5, 35.8523, 48.434, -14.0144, 97.2408, -52.7057, 43.5876
2.584, 5, 35.8516, 48.4375, -14.0136, 97.2383, -52.7193, 43.5825
2.587, 5, 35.8508, 48.441, -14.0127, 97.2358, -52.7328, 43.5775
2.592, 5, 35.85, 48.4445, -14.0118, 97.2333, -52.7464, 43.5724
2.596, 5, 35.8493, 48.448, -14.011, 97.2308, -52.76, 43.5673
2.6, 5, 35.8485, 48.4515, -14.0101, 97.2283, -52.7736, 43.5622
2.604, 5, 35.8477, 48.4549, -14.0092, 97.2257, -52.7871, 43.5571
2.607, 5, 35.847, 48.4584, -14.0083, 97.2232, -52.8007, 43.552
2.612, 5, 35.8462, 48.4619, -14.0075, 97.2207, -52.8143, 43.547
2.616, 5, 35.8454, 48.4654, -14.0066, 97.2182, -52.8279, 43.5419
2.62, 5, 35.8447, 48.4688, -14.0057, 97.2157, -52.8414, 43.5368
2.624, 5, 35.8439, 48.4723, -14.0048, 97.2131, -52.855, 43.5317
2.627, 5, 35.8431, 48.4758, -14.0039, 97.2106, -52.8686, 43.5266
2.632, 5, 35.8424, 48.4793, -14.003, 97.2081, -52.8822, 43.5216
2.636, 5, 35.8416, 48.4827, -14.0022, 97.2055, -52.8957, 43.5165
2.64, 5, 35.8408, 48.4862, -14.0013, 97.203, -52.9093, 43.5114
2.643, 5, 35.8401, 48.4897, -14.0004, 97.2005, -52.9229, 43.5064
2.648, 5, 35.8393, 48.4931, -13.9995, 97.1979, -52.9364, 43.5013
2.652, 5, 35.8385, 48.4966, -13.9986, 97.1954, -52.95, 43.4962
2.656, 5, 35.8377, 48.5, -13.9977, 97.1928, -52.9636, 43.4912
2.66, 5, 35.837, 48.5035, -13.9968, 97.1903, -52.9771, 43.4861
2.663, 5, 35.8362, 48.507, -13.9959, 97.1878, -52.9907, 43.481
2.668, 5, 35.8354, 48.5104, -13.9949, 97.1852, -53.0043, 43.476
2.672, 5, 35.8346, 48.5139, -13.994, 97.1826, -53.0178, 43.4709
2.676, 5, 35.8339, 48.5173, -13.9931, 97.1801, -53.0314, 43.4659
2.679, 5, 35.8331, 48.5208, -13.9922, 97.1775, -53.0449, 43.4608
2.684, 5, 35.8323, 48.5242, -13.9913, 97.175, -53.0585, 43.4558
2.688, 5, 35.8315, 48.5277, -13.9904, 97.1724, -53.0721, 43.4507
2.692, 5, 35.8307, 48.5311, -13.9894, 97.1698, -53.0856, 43.4457
2.696, 5, 35.83, 48.5346, -13.9885, 97.1673, -53.0992, 43.4406
2.699, 5, 35.8292, 48.538, -13.9876, 97.1647, -53.1127, 43.4356
2.704, 5, 35.8284, 48.5415, -13.9866, 97.1621, -53.1263, 43.4305
2.708, 5, 35.8276, 48.5449, -13.9857, 97.1596, -53.1398, 43.4255
2.712, 5, 35.8268, 48.5484, -13.9848, 97.157, -53.1534, 43.4204
2.716, 5, 35.826, 48.5518, -13.9838, 97.1544, -53.1669, 43.4154
2.719, 5, 35.8253, 48.5553, -13.9829, 97.1518, -53.1805, 43.4103
2.724, 5, 35.8245, 48.5587, -13.982, 97.1492, -53.194, 43.4053
2.728, 5, 35.8237, 48.5621, -13.981, 97.1466, -53.2076, 43.4003
2.732, 5, 35.8229, 48.5656, -13.9801, 97.1441, -53.2211, 43.3952
2.735, 5, 35.8221, 48.569, -13.9791, 97.1415, -53.2347, 43.3902
2.74, 5, 35.8213, 48.5724, -13.9782, 97.1389, -53.2482, 43.3852
2.744, 5, 35.8205, 48.5759, -13.9772, 97.1363, -53.2618, 43.3801
2.748, 5, 35.8197, 48.5793, -13.9762, 97.1337, -53.2753, 43.3751
2.752, 5, 35.8189, 48.5827, -13.9753, 97.1311, -53.2889, 43.3701
2.755, 5, 35.8182, 48.5862, -13.9743, 97.1285, -53.3024, 43.365
2.76, 5, 35.8174, 48.5896, -13.9734, 97.1259, -53.316, 43.36
2.764, 5, 35.8166, 48.593, -13.9724, 97.1233, -53.3295, 43.355
2.768, 5, 35.8158, 48.5965, -13.9714, 97.1207, -53.343, 43.35
2.772, 5, 35.815, 48.5999, -13.9705, 97.1181, -53.3566, 43.3449
2.775, 5, 35.8142, 48.6033, -13.9695, 97.1154, -53.3701, 43.3399
2.78, 5, 35.8134, 48.6067, -13.9685, 97.1128, -53.3837, 43.3349
2.784, 5, 35.8126, 48.6101, -13.9675, 97.1102, -53.3972, 43.3299
2.788, 5, 35.8118, 48.6136, -13.9665, 97.1076, -53.4107, 43.3249
2.791, 5, 35.811, 48.617, -13.9656, 97.105, -53.4243, 43.3198
2.796, 5, 35.8102, 48.6204, -13.9646, 97.1023, -53.4378, 43.3148
2.8, 5, 35.8094, 48.6238, -13.9636, 97.0997, -53.4513, 43.3098
2.804, 5, 35.8086, 48.6272, -13.9626, 97.0971, -53.4649, 43.3048
2.808, 5, 35.8078, 48.6306, -13.9616, 97.0944, -53.4784, 43.2998
2.811, 5, 35.807, 48.634, -13.9606, 97.0918, -53.4919, 43.2948
2.816, 5, 35.8062, 48.6374, -13.9596, 97.0892, -53.5055, 43.2898
2.82, 5, 35.8054, 48.6409, -13.9586, 97.0865, -53.519, 43.2848
2.824, 5, 35.8046, 48.6443, -13.9576, 97.0839, -53.5325, 43.2798
2.828, 5, 35.8037, 48.6477, -13.9566, 97.0813, -53.546, 43.2748
2.831, 5, 35.8029, 48.6511, -13.9556, 97.0786, -53.5596, 43.2698
2.836, 5, 35.8021, 48.6545, -13.9546, 97.076, -53.5731, 43.2648
2.84, 5, 35.8013, 48.6579, -13.9536, 97.0733, -53.5866, 43.2598
2.844, 5, 35.8005, 48.6613, -13.9526, 97.0707, -53.6001, 43.2548
2.847, 5, 35.7997, 48.6647, -13.9515, 97.068, -53.6137, 43.2498
2.852, 5, 35.7989, 48.6681, -13.9505, 97.0653, -53.6272, 43.2448
2.856, 5, 35.7981, 48.6715, -13.9495, 97.0627, -53.6407, 43.2398
2.86, 5, 35.7973, 48.6749, -13.9485, 97.06, -53.6542, 43.2348
2.864, 5, 35.7965, 48.6783, -13.9475, 97.0574, -53.6677, 43.2298
2.867, 5, 35.7956, 48.6816, -13.9464, 97.0547, -53.6813, 43.2248
2.872, 5, 35.7948, 48.685, -13.9454, 97.052, -53.6948, 43.2198
2.876, 5, 35.794, 48.6884, -13.9444, 97.0494, -53.7083, 43.2148
2.88, 5, 35.7932, 48.6918, -13.9433, 97.0467, -53.7218, 43.2098
2.883, 5, 35.7924, 48.6952, -13.9423, 97.044, -53.7353, 43.2048
2.888, 5, 35.7915, 48.6986, -13.9412, 97.0413, -53.7488, 43.1999
2.892, 5, 35.7907, 48.702, -13.9402, 97.0387, -53.7624, 43.1949
2.896, 5, 35.7899, 48.7054, -13.9392, 97.036, -53.7759, 43.1899
2.9, 5, 35.7891, 48.7087, -13.9381, 97.0333, -53.7894, 43.1849
2.903, 5, 35.7883, 48.7121, -13.9371, 97.0306, -53.8029, 43.1799
2.908, 5, 35.7874, 48.7155, -13.936, 97.0279, -53.8164, 43.175
2.912, 5, 35.7866, 48.7189, -13.9349, 97.0252, -53.8299, 43.17
2.916, 5, 35.7858, 48.7222, -13.9339, 97.0225, -53.8434, 43.165
2.92, 5, 35.785, 48.7256, -13.9328, 97.0198, -53.8569, 43.16
2.923, 5, 35.7841, 48.729, -13.9318, 97.0171, -53.8704, 43.1551
2.928, 5, 35.7833, 48.7324, -13.9307, 97.0144, -53.8839, 43.1501
2.932, 5, 35.7825, 48.7357, -13.9296, 97.0117, -53.8974, 43.1451
2.936, 5, 35.7817, 48.7391, -13.9286, 97.009, -53.9109, 43.1402
2.939, 5, 35.7808, 48.7425, -13.9275, 97.0063, -53.9244, 43.1352
2.944, 5, 35.78, 48.7458, -13.9264, 97.0036, -53.938, 43.1302
2.948, 5, 35.7792, 48.7492, -13.9253, 97.0009, -53.9514, 43.1253
2.952, 5, 35.7783, 48.7526, -13.9243, 96.9982, -53.9649, 43.1203
2.956, 5, 35.7775, 48.7559, -13.9232, 96.9955, -53.9784, 43.1154
2.959, 5, 35.7767, 48.7593, -13.9221, 96.9928, -53.9919, 43.1104
2.964, 5, 35.7759, 48.7626, -13.921, 96.99, -54.0054, 43.1054
2.968, 5, 35.775, 48.766, -13.9199, 96.9873, -54.0189, 43.1005
2.972, 5, 35.7742, 48.7694, -13.9188, 96.9846, -54.0324, 43.0955
2.976, 5, 35.7733, 48.7727, -13.9177, 96.9819, -54.0459, 43.0906
2.98, 5, 35.7725, 48.7761, -13.9166, 96.9791, -54.0594, 43.0856
2.984, 5, 35.7717, 48.7794, -13.9155, 96.9764, -54.0729, 43.0807
2.988, 5, 35.7708, 48.7828, -13.9144, 96.9737, -54.0864, 43.0757
2.992, 5, 35.77, 48.7861, -13.9133, 96.9709, -54.0999, 43.0708
2.995, 5, 35.7692, 48.7895, -13.9122, 96.9682, -54.1134, 43.0658
3, 5, 35.7683, 48.7928, -13.9111, 96.9655, -54.1269, 43.0609
3.004, 5, 35.7675, 48.7962, -13.91, 96.9627, -54.1404, 43.0559
3.008, 5, 35.7666, 48.7995, -13.9089, 96.96, -54.1539, 43.051
3.012, 5, 35.7658, 48.8029, -13.9078, 96.9572, -54.1673, 43.0461
3.015, 5, 35.7649, 48.8062, -13.9067, 96.9545, -54.1808, 43.0411
3.02, 5, 35.7641, 48.8095, -13.9056, 96.9517, -54.1943, 43.0362
3.024, 5, 35.7633, 48.8129, -13.9044, 96.949, -54.2078, 43.0312
3.028, 5, 35.7624, 48.8162, -13.9033, 96.9462, -54.2213, 43.0263
3.031, 5, 35.7616, 48.8195, -13.9022, 96.9435, -54.2348, 43.0214
3.036, 5, 35.7607, 48.8229, -13.901, 96.9407, -54.2482, 43.0164
3.04, 5, 35.7599, 48.8262, -13.8999, 96.938, -54.2617, 43.0115
3.044, 5, 35.759, 48.8295, -13.8988, 96.9352, -54.2752, 43.0066
3.048, 5, 35.7582, 48.8329, -13.8976, 96.9324, -54.2887, 43.0016
3.051, 5, 35.7573, 48.8362, -13.8965, 96.9297, -54.3022, 42.9967
3.056, 5, 35.7565, 48.8395, -13.8954, 96.9269, -54.3156, 42.9918
3.06, 5, 35.7556, 48.8429, -13.8942, 96.9241, -54.3291, 42.9869
3.064, 5, 35.7548, 48.8462, -13.8931, 96.9213, -54.3426, 42.9819
3.068, 5, 35.7539, 48.8495, -13.8919, 96.9186, -54.3561, 42.977
3.071, 5, 35.7531, 48.8528, -13.8908, 96.9158, -54.3695, 42.9721
3.076, 5, 35.7522, 48.8562, -13.8896, 96.913, -54.383, 42.9672
3.08, 5, 35.7513, 48.8595, -13.8885, 96.9102, -54.3965, 42.9623
3.084, 5, 35.7505, 48.8628, -13.8873, 96.9074, -54.41, 42.9573
3.087, 5, 35.7496, 48.8661, -13.8861, 96.9046, -54.4234, 42.9524
3.092, 5, 35.7488, 48.8694, -13.885, 96.9019, -54.4369, 42.9475
3.096, 5, 35.7479, 48.8727, -13.8838, 96.8991, -54.4504, 42.9426
3.1, 5, 35.747, 48.8761, -13.8826, 96.8963, -54.4638, 42.9377
3.104, 5, 35.7462, 48.8794, -13.8815, 96.8935, -54.4773, 42.9328
3.107, 5, 35.7453, 48.8827, -13.8803, 96.8907, -54.4908, 42.9279
3.112, 5, 35.7445, 48.886, -13.8791, 96.8879, -54.5042, 42.9229
3.116, 5, 35.7436, 48.8893, -13.8779, 96.8851, -54.5177, 42.918
3.12, 5, 35.7427, 48.8926, -13.8768, 96.8823, -54.5311, 42.9131
3.124, 5, 35.7419, 48.8959, -13.8756, 96.8795, -54.5446, 42.9082
3.128, 5, 35.741, 48.8992, -13.8744, 96.8766, -54.5581, 42.9033
3.132, 5, 35.7401, 48.9025, -13.8732, 96.8738, -54.5715, 42.8984
3.136, 5, 35.7393, 48.9058, -13.872, 96.871, -54.585, 42.8935
3.14, 5, 35.7384, 48.9091, -13.8708, 96.8682, -54.5984, 42.8886
3.143, 5, 35.7375, 48.9124, -13.8696, 96.8654, -54.6119, 42.8837
3.148, 5, 35.7367, 48.9157, -13.8684, 96.8626, -54.6254, 42.8788
3.152, 5, 35.7358, 48.919, -13.8672, 96.8597, -54.6388, 42.8739
3.156, 5, 35.7349, 48.9223, -13.866, 96.8569, -54.6523, 42.869
3.16, 5, 35.7341, 48.9256, -13.8648, 96.8541, -54.6657, 42.8641
3.163, 5, 35.7332, 48.9289, -13.8636, 96.8513, -54.6792, 42.8592
3.168, 5, 35.7323, 48.9322, -13.8624, 96.8484, -54.6926, 42.8543
3.172, 5, 35.7314, 48.9355, -13.8612, 96.8456, -54.7061, 42.8495
3.176, 5, 35.7306, 48.9387, -13.86, 96.8428, -54.7195, 42.8446
3.179, 5, 35.7297, 48.942, -13.8588, 96.8399, -54.733, 42.8397
3.184, 5, 35.7288, 48.9453, -13.8575, 96.8371, -54.7464, 42.8348
3.188, 5, 35.7279, 48.9486, -13.8563, 96.8342, -54.7599, 42.8299
3.192, 5, 35.7271, 48.9519, -13.8551, 96.8314, -54.7733, 42.825
3.196, 5, 35.7262, 48.9552, -13.8539, 96.8286, -54.7868, 42.8201
3.199, 5, 35.7253, 48.9584, -13.8526, 96.8257, -54.8002, 42.8153
3.204, 5, 35.7244, 48.9617, -13.8514, 96.8229, -54.8137, 42.8104
3.208, 5, 35.7235, 48.965, -13.8502, 96.82, -54.8271, 42.8055
3.212, 5, 35.7226, 48.9683, -13.8489, 96.8172, -54.8405, 42.8006
3.216, 5, 35.7218, 48.9715, -13.8477, 96.8143, -54.854, 42.7957
3.22, 5, 35.7209, 48.9748, -13.8464, 96.8114, -54.8674, 42.7909
3.224, 5, 35.72, 48.9781, -13.8452, 96.8086, -54.8809, 42.786
3.228, 5, 35.7191, 48.9813, -13.844, 96.8057, -54.8943, 42.7811
3.232, 5, 35.7182, 48.9846, -13.8427, 96.8029, -54.9078, 42.7762
3.235, 5, 35.7173, 48.9879, -13.8415, 96.8, -54.9212, 42.7714
3.24, 5, 35.7165, 48.9911, -13.8402, 96.7971, -54.9346, 42.7665
3.244, 5, 35.7156, 48.9944, -13.8389, 96.7942, -54.9481, 42.7616
3.248, 5, 35.7147, 48.9977, -13.8377, 96.7914, -54.9615, 42.7568
3.252, 5, 35.7138, 49.0009, -13.8364, 96.7885, -54.9749, 42.7519
3.255, 5, 35.7129, 49.0042, -13.8352, 96.7856, -54.9884, 42.747
3.26, 5, 35.712, 49.0074, -13.8339, 96.7827, -55.0018, 42.7422
3.264, 5, 35.7111, 49.0107, -13.8326, 96.7799, -55.0152, 42.7373
3.268, 5, 35.7102, 49.014, -13.8314, 96.777, -55.0287, 42.7324
3.272, 5, 35.7093, 49.0172, -13.8301, 96.7741, -55.0421, 42.7276
3.276, 5, 35.7084, 49.0205, -13.8288, 96.7712, -55.0555, 42.7227
3.28, 5, 35.7075, 49.0237, -13.8275, 96.7683, -55.0689, 42.7179
3.284, 5, 35.7066, 49.027, -13.8262, 96.7654, -55.0824, 42.713
3.288, 5, 35.7057, 49.0302, -13.825, 96.7625, -55.0958, 42.7081
3.291, 5, 35.7048, 49.0335, -13.8237, 96.7596, -55.1092, 42.7033
3.296, 5, 35.7039, 49.0367, -13.8224, 96.7567, -55.1227, 42.6984
3.3, 5, 35.703, 49.0399, -13.8211, 96.7538, -55.1361, 42.6936
3.304, 5, 35.7022, 49.0432, -13.8198, 96.7509, -55.1495, 42.6887
3.308, 5, 35.7013, 49.0464, -13.8185, 96.748, -55.1629, 42.6839
3.312, 5, 35.7004, 49.0497, -13.8172, 96.7451, -55.1763, 42.679
3.316, 5, 35.6994, 49.0529, -13.8159, 96.7422, -55.1898, 42.6742
3.32, 5, 35.6985, 49.0561, -13.8146, 96.7393, -55.2032, 42.6693
3.324, 5, 35.6976, 49.0594, -13.8133, 96.7364, -55.2166, 42.6645
3.328, 5, 35.6967, 49.0626, -13.812, 96.7335, -55.23, 42.6597
3.332, 5, 35.6958, 49.0658, -13.8107, 96.7306, -55.2434, 42.6548
3.336, 5, 35.6949, 49.0691, -13.8094, 96.7276, -55.2569, 42.65
3.34, 5, 35.694, 49.0723, -13.8081, 96.7247, -55.2703, 42.6451
3.344, 5, 35.6931, 49.0755, -13.8067, 96.7218, -55.2837, 42.6403
3.347, 5, 35.6922, 49.0788, -13.8054, 96.7189, -55.2971, 42.6355
3.352, 5, 35.6913, 49.082, -13.8041, 96.7159, -55.3105, 42.6306
3.356, 5, 35.6904, 49.0852, -13.8028, 96.713, -55.3239, 42.6258
3.36, 5, 35.6895, 49.0884, -13.8015, 96.7101, -55.3373, 42.6209
3.364, 5, 35.6886, 49.0917, -13.8001, 96.7071, -55.3507, 42.6161
3.368, 5, 35.6876, 49.0949, -13.7988, 96.7042, -55.3641, 42.6113
3.372, 5, 35.6867, 49.0981, -13.7975, 96.7013, -55.3776, 42.6065
3.376, 5, 35.6858, 49.1013, -13.7961, 96.6983, -55.391, 42.6016
3.38, 5, 35.6849, 49.1045, -13.7948, 96.6954, -55.4044, 42.5968
3.383, 5, 35.684, 49.1077, -13.7934, 96.6924, -55.4178, 42.592
3.388, 5, 35.6831, 49.111, -13.7921, 96.6895, -55.4312, 42.5871
3.392, 5, 35.6822, 49.1142, -13.7907, 96.6865, -55.4446, 42.5823
3.396, 5, 35.6812, 49.1174, -13.7894, 96.6836, -55.458, 42.5775
3.4, 5, 35.6803, 49.1206, -13.788, 96.6806, -55.4714, 42.5727
3.403, 5, 35.6794, 49.1238, -13.7867, 96.6777, -55.4848, 42.5678
3.408, 5, 35.6785, 49.127, -13.7853, 96.6747, -55.4982, 42.563
3.412, 5, 35.6776, 49.1302, -13.784, 96.6718, -55.5116, 42.5582
3.416, 5, 35.6766, 49.1334, -13.7826, 96.6688, -55.525, 42.5534
3.42, 5, 35.6757, 49.1366, -13.7813, 96.6659, -55.5384, 42.5486
3.424, 5, 35.6748, 49.1398, -13.7799, 96.6629, -55.5518, 42.5438
3.428, 5, 35.6739, 49.143, -13.7785, 96.6599, -55.5652, 42.5389
3.432, 5, 35.673, 49.1462, -13.7772, 96.657, -55.5786, 42.5341
3.436, 5, 35.672, 49.1494, -13.7758, 96.654, -55.592, 42.5293
3.439, 5, 35.6711, 49.1526, -13.7744, 96.651, -55.6054, 42.5245
3.444, 5, 35.6702, 49.1558, -13.773, 96.648, -55.6188, 42.5197
3.448, 5, 35.6692, 49.159, -13.7716, 96.6451, -55.6322, 42.5149
3.452, 5, 35.6683, 49.1622, -13.7703, 96.6421, -55.6455, 42.5101
3.456, 5, 35.6674, 49.1654, -13.7689, 96.6391, -55.6589, 42.5053
3.46, 5, 35.6665, 49.1686, -13.7675, 96.6361, -55.6723, 42.5005
3.464, 5, 35.6655, 49.1717, -13.7661, 96.6331, -55.6857, 42.4957
3.468, 5, 35.6646, 49.1749, -13.7647, 96.6301, -55.6991, 42.4909
3.472, 5, 35.6637, 49.1781, -13.7633, 96.6272, -55.7125, 42.4861
3.476, 5, 35.6627, 49.1813, -13.7619, 96.6242, -55.7259, 42.4813
3.48, 5, 35.6618, 49.1845, -13.7605, 96.6212, -55.7393, 42.4765
3.484, 5, 35.6609, 49.1877, -13.7591, 96.6182, -55.7526, 42.4717
3.488, 5, 35.6599, 49.1908, -13.7577, 96.6152, -55.766, 42.4669
3.492, 5, 35.659, 49.194, -13.7563, 96.6122, -55.7794, 42.4621
3.495, 5, 35.6581, 49.1972, -13.7549, 96.6092, -55.7928, 42.4573
3.5, 5, 35.6571, 49.2004, -13.7535, 96.6062, -55.8062, 42.4525
3.504, 5, 35.6562, 49.2035, -13.7521, 96.6032, -55.8196, 42.4477
3.508, 5, 35.6552, 49.2067, -13.7506, 96.6002, -55.8329, 42.4429
3.512, 5, 35.6543, 49.2099, -13.7492, 96.5971, -55.8463, 42.4381
3.516, 5, 35.6534, 49.213, -13.7478, 96.5941, -55.8597, 42.4333
3.52, 5, 35.6524, 49.2162, -13.7464, 96.5911, -55.8731, 42.4285
3.524, 5, 35.6515, 49.2194, -13.745, 96.5881, -55.8864, 42.4237
3.528, 5, 35.6505, 49.2225, -13.7435, 96.5851, -55.8998, 42.4189
3.531, 5, 35.6496, 49.2257, -13.7421, 96.5821, -55.9132, 42.4142
3.536, 5, 35.6486, 49.2289, -13.7407, 96.579, -55.9266, 42.4094
3.54, 5, 35.6477, 49.232, -13.7392, 96.576, -55.9399, 42.4046
3.544, 5, 35.6467, 49.2352, -13.7378, 96.573, -55.9533, 42.3998
3.548, 5, 35.6458, 49.2383, -13.7363, 96.57, -55.9667, 42.395
3.552, 5, 35.6449, 49.2415, -13.7349, 96.5669, -55.9801, 42.3902
3.556, 5, 35.6439, 49.2447, -13.7335, 96.5639, -55.9934, 42.3855
3.56, 5, 35.643, 49.2478, -13.732, 96.5609, -56.0068, 42.3807
3.564, 5, 35.642, 49.251, -13.7306, 96.5578, -56.0202, 42.3759
3.568, 5, 35.6411, 49.2541, -13.7291, 96.5548, -56.0335, 42.3711
3.572, 5, 35.6401, 49.2573, -13.7276, 96.5518, -56.0469, 42.3664
3.576, 5, 35.6392, 49.2604, -13.7262, 96.5487, -56.0603, 42.3616
3.58, 5, 35.6382, 49.2636, -13.7247, 96.5457, -56.0736, 42.3568
3.584, 5, 35.6372, 49.2667, -13.7233, 96.5426, -56.087, 42.352
3.587, 5, 35.6363, 49.2698, -13.7218, 96.5396, -56.1003, 42.3473
3.592, 5, 35.6353, 49.273, -13.7203, 96.5365, -56.1137, 42.3425
3.596, 5, 35.6344, 49.2761, -13.7189, 96.5335, -56.1271, 42.3377
3.6, 5, 35.6334, 49.2793, -13.7174, 96.5304, -56.1404, 42.333
3.604, 5, 35.6325, 49.2824, -13.7159, 96.5274, -56.1538, 42.3282
3.608, 5, 35.6315, 49.2855, -13.7144, 96.5243, -56.1671, 42.3234
3.612, 5, 35.6305, 49.2887, -13.713, 96.5213, -56.1805, 42.3187
3.616, 5, 35.6296, 49.2918, -13.7115, 96.5182, -56.1939, 42.3139
3.62, 5, 35.6286, 49.2949, -13.71, 96.5151, -56.2072, 42.3092
3.624, 5, 35.6277, 49.2981, -13.7085, 96.5121, -56.2206, 42.3044
3.628, 5, 35.6267, 49.3012, -13.707, 96.509, -56.2339, 42.2996
3.632, 5, 35.6257, 49.3043, -13.7055, 96.5059, -56.2473, 42.2949
3.636, 5, 35.6248, 49.3074, -13.704, 96.5029, -56.2606, 42.2901
3.64, 5, 35.6238, 49.3106, -13.7025, 96.4998, -56.274, 42.2854
3.644, 5, 35.6228, 49.3137, -13.701, 96.4967, -56.2873, 42.2806
3.648, 5, 35.6219, 49.3168, -13.6995, 96.4936, -56.3007, 42.2759
3.652, 5, 35.6209, 49.3199, -13.698, 96.4906, -56.314, 42.2711
3.656, 5, 35.6199, 49.3231, -13.6965, 96.4875, -56.3274, 42.2663
3.66, 5, 35.619, 49.3262, -13.695, 96.4844, -56.3407, 42.2616
3.664, 5, 35.618, 49.3293, -13.6935, 96.4813, -56.3541, 42.2568
3.668, 5, 35.617, 49.3324, -13.692, 96.4782, -56.3674, 42.2521
3.672, 5, 35.6161, 49.3355, -13.6905, 96.4751, -56.3808, 42.2474
3.676, 5, 35.6151, 49.3386, -13.6889, 96.472, -56.3941, 42.2426
3.679, 5, 35.6141, 49.3417, -13.6874, 96.4689, -56.4074, 42.2379
3.684, 5, 35.6132, 49.3448, -13.6859, 96.4659, -56.4208, 42.2331
3.688, 5, 35.6122, 49.348, -13.6844, 96.4628, -56.4341, 42.2284
3.692, 5, 35.6112, 49.3511, -13.6828, 96.4597, -56.4475, 42.2236
3.696, 5, 35.6102, 49.3542, -13.6813, 96.4566, -56.4608, 42.2189
3.7, 5, 35.6093, 49.3573, -13.6798, 96.4535, -56.4741, 42.2141
3.704, 5, 35.6083, 49.3604, -13.6782, 96.4503, -56.4875, 42.2094
3.708, 5, 35.6073, 49.3635, -13.6767, 96.4472, -56.5008, 42.2047
3.712, 5, 35.6063, 49.3666, -13.6752, 96.4441, -56.5142, 42.1999
3.716, 5, 35.6053, 49.3697, -13.6736, 96.441, -56.5275, 42.1952
3.72, 5, 35.6044, 49.3728, -13.6721, 96.4379, -56.5408, 42.1905
3.724, 5, 35.6034, 49.3759, -13.6705, 96.4348, -56.5542, 42.1857
3.728, 5, 35.6024, 49.379, -13.669, 96.4317, -56.5675, 42.181
3.732, 5, 35.6014, 49.3821, -13.6674, 96.4286, -56.5808, 42.1763
3.735, 5, 35.6004, 49.3851, -13.6659, 96.4254, -56.5942, 42.1715
3.74, 5, 35.5994, 49.3882, -13.6643, 96.4223, -56.6075, 42.1668
3.744, 5, 35.5985, 49.3913, -13.6628, 96.4192, -56.6208, 42.1621
3.748, 5, 35.5975, 49.3944, -13.6612, 96.4161, -56.6341, 42.1573
3.752, 5, 35.5965, 49.3975, -13.6596, 96.4129, -56.6475, 42.1526
3.756, 5, 35.5955, 49.4006, -13.6581, 96.4098, -56.6608, 42.1479
3.76, 5, 35.5945, 49.4037, -13.6565, 96.4067, -56.6741, 42.1432
3.764, 5, 35.5935, 49.4067, -13.6549, 96.4035, -56.6875, 42.1385
3.768, 5, 35.5925, 49.4098, -13.6533, 96.4004, -56.7008, 42.1337
3.772, 5, 35.5916, 49.4129, -13.6518, 96.3973, -56.7141, 42.129
3.776, 5, 35.5906, 49.416, -13.6502, 96.3941, -56.7274, 42.1243
3.78, 5, 35.5896, 49.419, -13.6486, 96.391, -56.7407, 42.1196
3.784, 5, 35.5886, 49.4221, -13.647, 96.3878, -56.7541, 42.1148
3.788, 5, 35.5876, 49.4252, -13.6454, 96.3847, -56.7674, 42.1101
3.792, 5, 35.5866, 49.4283, -13.6438, 96.3815, -56.7807, 42.1054
3.796, 5, 35.5856, 49.4313, -13.6423, 96.3784, -56.794, 42.1007
3.8, 5, 35.5846, 49.4344, -13.6407, 96.3752, -56.8073, 42.096
3.804, 5, 35.5836, 49.4375, -13.6391, 96.3721, -56.8207, 42.0913
3.808, 5, 35.5826, 49.4405, -13.6375, 96.3689, -56.834, 42.0866
3.812, 5, 35.5816, 49.4436, -13.6359, 96.3658, -56.8473, 42.0819
3.816, 5, 35.5806, 49.4467, -13.6343, 96.3626, -56.8606, 42.0771
3.82, 5, 35.5796, 49.4497, -13.6327, 96.3594, -56.8739, 42.0724
3.824, 5, 35.5786, 49.4528, -13.631, 96.3563, -56.8872, 42.0677
3.828, 5, 35.5776, 49.4558, -13.6294, 96.3531, -56.9005, 42.063
3.832, 5, 35.5766, 49.4589, -13.6278, 96.35, -56.9139, 42.0583
3.836, 5, 35.5756, 49.462, -13.6262, 96.3468, -56.9272, 42.0536
3.84, 5, 35.5746, 49.465, -13.6246, 96.3436, -56.9405, 42.0489
3.844, 5, 35.5736, 49.4681, -13.623, 96.3404, -56.9538, 42.0442
3.848, 5, 35.5726, 49.4711, -13.6213, 96.3373, -56.9671, 42.0395
3.852, 5, 35.5716, 49.4742, -13.6197, 96.3341, -56.9804, 42.0348
3.856, 5, 35.5706, 49.4772, -13.6181, 96.3309, -56.9937, 42.0301
3.86, 5, 35.5696, 49.4803, -13.6165, 96.3277, -57.007, 42.0254
3.864, 5, 35.5686, 49.4833, -13.6148, 96.3245, -57.0203, 42.0207
3.868, 5, 35.5676, 49.4863, -13.6132, 96.3214, -57.0336, 42.016
3.872, 5, 35.5666, 49.4894, -13.6116, 96.3182, -57.0469, 42.0113
3.876, 5, 35.5656, 49.4924, -13.6099, 96.315, -57.0602, 42.0066
3.88, 5, 35.5645, 49.4955, -13.6083, 96.3118, -57.0735, 42.0019
3.884, 5, 35.5635, 49.4985, -13.6066, 96.3086, -57.0868, 41.9972
3.888, 5, 35.5625, 49.5015, -13.605, 96.3054, -57.1001, 41.9925
3.892, 5, 35.5615, 49.5046, -13.6033, 96.3022, -57.1134, 41.9878
3.896, 5, 35.5605, 49.5076, -13.6017, 96.299, -57.1267, 41.9832
3.9, 5, 35.5595, 49.5106, -13.6, 96.2958, -57.14, 41.9785
3.904, 5, 35.5585, 49.5137, -13.5984, 96.2926, -57.1533, 41.9738
3.908, 5, 35.5575, 49.5167, -13.5967, 96.2894, -57.1666, 41.9691
3.912, 5, 35.5564, 49.5197, -13.595, 96.2862, -57.1799, 41.9644
3.916, 5, 35.5554, 49.5228, -13.5934, 96.283, -57.1932, 41.9597
3.92, 5, 35.5544, 49.5258, -13.5917, 96.2798, -57.2065, 41.955
3.924, 5, 35.5534, 49.5288, -13.59, 96.2766, -57.2198, 41.9503
3.928, 5, 35.5524, 49.5318, -13.5884, 96.2734, -57.2331, 41.9457
3.932, 5, 35.5513, 49.5349, -13.5867, 96.2701, -57.2464, 41.941
3.936, 5, 35.5503, 49.5379, -13.585, 96.2669, -57.2597, 41.9363
3.94, 5, 35.5493, 49.5409, -13.5833, 96.2637, -57.2729, 41.9316
3.944, 5, 35.5483, 49.5439, -13.5817, 96.2605, -57.2862, 41.927
3.948, 5, 35.5473, 49.5469, -13.58, 96.2573, -57.2995, 41.9223
3.952, 5, 35.5462, 49.5499, -13.5783, 96.254, -57.3128, 41.9176
3.956, 5, 35.5452, 49.553, -13.5766, 96.2508, -57.3261, 41.9129
3.96, 5, 35.5442, 49.556, -13.5749, 96.2476, -57.3394, 41.9082
3.964, 5, 35.5432, 49.559, -13.5732, 96.2443, -57.3527, 41.9036
3.968, 5, 35.5421, 49.562, -13.5715, 96.2411, -57.3659, 41.8989
3.972, 5, 35.5411, 49.565, -13.5698, 96.2379, -57.3792, 41.8942
3.976, 5, 35.5401, 49.568, -13.5681, 96.2346, -57.3925, 41.8896
3.98, 5, 35.539, 49.571, -13.5664, 96.2314, -57.4058, 41.8849
3.984, 5, 35.538, 49.574, -13.5647, 96.2282, -57.4191, 41.8802
3.988, 5, 35.537, 49.577, -13.563, 96.2249, -57.4323, 41.8756
3.992, 5, 35.5359, 49.58, -13.5613, 96.2217, -57.4456, 41.8709
3.996, 5, 35.5349, 49.583, -13.5596, 96.2184, -57.4589, 41.8662
3.999, 5, 35.5339, 49.586, -13.5579, 96.2152, -57.4722, 41.8616
4.004, 5, 35.5329, 49.589, -13.5562, 96.212, -57.4854, 41.8569
4.008, 5, 35.5318, 49.592, -13.5544, 96.2087, -57.4987, 41.8522
4.012, 5, 35.5308, 49.595, -13.5527, 96.2054, -57.512, 41.8476
4.016, 5, 35.5297, 49.598, -13.551, 96.2022, -57.5253, 41.8429
4.02, 5, 35.5287, 49.601, -13.5493, 96.1989, -57.5385, 41.8383
4.024, 5, 35.5277, 49.6039, -13.5475, 96.1957, -57.5518, 41.8336
4.028, 5, 35.5266, 49.6069, -13.5458, 96.1924, -57.5651, 41.8289
4.032, 5, 35.5256, 49.6099, -13.5441, 96.1891, -57.5784, 41.8243
4.036, 5, 35.5246, 49.6129, -13.5423, 96.1859, -57.5916, 41.8196
4.04, 5, 35.5235, 49.6159, -13.5406, 96.1826, -57.6049, 41.815
4.044, 5, 35.5225, 49.6189, -13.5388, 96.1794, -57.6182, 41.8103
4.048, 5, 35.5214, 49.6218, -13.5371, 96.1761, -57.6314, 41.8057
4.052, 5, 35.5204, 49.6248, -13.5354, 96.1728, -57.6447, 41.801
4.056, 5, 35.5193, 49.6278, -13.5336, 96.1695, -57.658, 41.7964
4.06, 5, 35.5183, 49.6308, -13.5319, 96.1663, -57.6712, 41.7917
4.064, 5, 35.5173, 49.6338, -13.5301, 96.163, -57.6845, 41.7871
4.068, 5, 35.5162, 49.6367, -13.5283, 96.1597, -57.6977, 41.7824
4.072, 5, 35.5152, 49.6397, -13.5266, 96.1564, -57.711, 41.7778
4.076, 5, 35.5141, 49.6427, -13.5248, 96.1531, -57.7243, 41.7731
4.08, 5, 35.5131, 49.6456, -13.5231, 96.1499, -57.7375, 41.7685
4.084, 5, 35.512, 49.6486, -13.5213, 96.1466, -57.7508, 41.7638
4.088, 5, 35.511, 49.6516, -13.5195, 96.1433, -57.764, 41.7592
4.092, 5, 35.5099, 49.6545, -13.5178, 96.14, -57.7773, 41.7545
4.096, 5, 35.5089, 49.6575, -13.516, 96.1367, -57.7906, 41.7499
4.1, 5, 35.5078, 49.6604, -13.5142, 96.1334, -57.8038, 41.7453
4.104, 5, 35.5068, 49.6634, -13.5124, 96.1301, -57.8171, 41.7406
4.108, 5, 35.5057, 49.6664, -13.5107, 96.1268, -57.8303, 41.736
4.112, 5, 35.5047, 49.6693, -13.5089, 96.1235, -57.8436, 41.7313
4.116, 5, 35.5036, 49.6723, -13.5071, 96.1202, -57.8568, 41.7267
4.12, 5, 35.5025, 49.6752, -13.5053, 96.1169, -57.8701, 41.7221
4.124, 5, 35.5015, 49.6782, -13.5035, 96.1136, -57.8833, 41.7174
4.128, 5, 35.5004, 49.6811, -13.5017, 96.1103, -57.8966, 41.7128
4.132, 5, 35.4994, 49.6841, -13.4999, 96.107, -57.9098, 41.7082
4.136, 5, 35.4983, 49.687, -13.4981, 96.1037, -57.9231, 41.7035
4.14, 5, 35.4973, 49.69, -13.4963, 96.1004, -57.9363, 41.6989
4.144, 5, 35.4962, 49.6929, -13.4945, 96.097, -57.9496, 41.6943
4.148, 5, 35.4951, 49.6959, -13.4927, 96.0937, -57.9628, 41.6896
4.152, 5, 35.4941, 49.6988, -13.4909, 96.0904, -57.9761, 41.685
4.156, 5, 35.493, 49.7017, -13.4891, 96.0871, -57.9893, 41.6804
4.16, 5, 35.4919, 49.7047, -13.4873, 96.0838, -58.0025, 41.6758
4.164, 5, 35.4909, 49.7076, -13.4855, 96.0805, -58.0158, 41.6711
4.168, 5, 35.4898, 49.7106, -13.4837, 96.0771, -58.029, 41.6665
4.172, 5, 35.4888, 49.7135, -13.4818, 96.0738, -58.0423, 41.6619
4.176, 5, 35.4877, 49.7164, -13.48, 96.0705, -58.0555, 41.6573
4.18, 5, 35.4866, 49.7194, -13.4782, 96.0671, -58.0688, 41.6526
4.184, 5, 35.4855, 49.7223, -13.4764, 96.0638, -58.082, 41.648
4.188, 5, 35.4845, 49.7252, -13.4745, 96.0605, -58.0952, 41.6434
4.192, 5, 35.4834, 49.7281, -13.4727, 96.0571, -58.1085, 41.6388
4.196, 5, 35.4823, 49.7311, -13.4709, 96.0538, -58.1217, 41.6342
4.2, 5, 35.4813, 49.734, -13.469, 96.0505, -58.1349, 41.6295
4.204, 5, 35.4802, 49.7369, -13.4672, 96.0471, -58.1482, 41.6249
4.208, 5, 35.4791, 49.7398, -13.4654, 96.0438, -58.1614, 41.6203
4.212, 5, 35.4781, 49.7428, -13.4635, 96.0404, -58.1746, 41.6157
4.216, 5, 35.477, 49.7457, -13.4617, 96.0371, -58.1879, 41.6111
4.22, 5, 35.4759, 49.7486, -13.4598, 96.0337, -58.2011, 41.6065
4.224, 5, 35.4748, 49.7515, -13.458, 96.0304, -58.2143, 41.6018
4.228, 5, 35.4738, 49.7544, -13.4561, 96.027, -58.2276, 41.5972
4.232, 5, 35.4727, 49.7573, -13.4543, 96.0237, -58.2408, 41.5926
4.236, 5, 35.4716, 49.7603, -13.4524, 96.0203, -58.254, 41.588
4.24, 5, 35.4705, 49.7632, -13.4505, 96.017, -58.2672, 41.5834
4.244, 5, 35.4694, 49.7661, -13.4487, 96.0136, -58.2805, 41.5788
4.248, 5, 35.4684, 49.769, -13.4468, 96.0102, -58.2937, 41.5742
4.252, 5, 35.4673, 49.7719, -13.4449, 96.0069, -58.3069, 41.5696
4.256, 5, 35.4662, 49.7748, -13.4431, 96.0035, -58.3201, 41.565
4.26, 5, 35.4651, 49.7777, -13.4412, 96.0001, -58.3334, 41.5604
4.264, 5, 35.464, 49.7806, -13.4393, 95.9968, -58.3466, 41.5558
4.268, 5, 35.463, 49.7835, -13.4374, 95.9934, -58.3598, 41.5512
4.272, 5, 35.4619, 49.7864, -13.4356, 95.99, -58.373, 41.5466
4.276, 5, 35.4608, 49.7893, -13.4337, 95.9867, -58.3862, 41.542
4.28, 5, 35.4597, 49.7922, -13.4318, 95.9833, -58.3995, 41.5374
4.284, 5, 35.4586, 49.7951, -13.4299, 95.9799, -58.4127, 41.5328
4.288, 5, 35.4575, 49.798, -13.428, 95.9765, -58.4259, 41.5282
4.292, 5, 35.4564, 49.8009, -13.4261, 95.9731, -58.4391, 41.5236
4.296, 5, 35.4554, 49.8037, -13.4242, 95.9698, -58.4523, 41.519
4.3, 5, 35.4543, 49.8066, -13.4223, 95.9664, -58.4655, 41.5144
4.304, 5, 35.4532, 49.8095, -13.4204, 95.963, -58.4788, 41.5098
4.308, 5, 35.4521, 49.8124, -13.4185, 95.9596, -58.492, 41.5052
4.312, 5, 35.451, 49.8153, -13.4166, 95.9562, -58.5052, 41.5006
4.316, 5, 35.4499, 49.8182, -13.4147, 95.9528, -58.5184, 41.496
4.32, 5, 35.4488, 49.8211, -13.4128, 95.9494, -58.5316, 41.4914
4.324, 5, 35.4477, 49.8239, -13.4109, 95.946, -58.5448, 41.4868
4.328, 5, 35.4466, 49.8268, -13.409, 95.9426, -58.558, 41.4822
4.332, 5, 35.4455, 49.8297, -13.4071, 95.9392, -58.5712, 41.4776
4.336, 5, 35.4444, 49.8326, -13.4052, 95.9358, -58.5844, 41.4731
4.34, 5, 35.4433, 49.8354, -13.4032, 95.9324, -58.5976, 41.4685
4.344, 5, 35.4422, 49.8383, -13.4013, 95.929, -58.6109, 41.4639
4.348, 5, 35.4411, 49.8412, -13.3994, 95.9256, -58.6241, 41.4593
4.352, 5, 35.44, 49.844, -13.3975, 95.9222, -58.6373, 41.4547
4.356, 5, 35.4389, 49.8469, -13.3955, 95.9188, -58.6505, 41.4501
4.36, 5, 35.4378, 49.8498, -13.3936, 95.9154, -58.6637, 41.4455
4.364, 5, 35.4367, 49.8526, -13.3917, 95.912, -58.6769, 41.441
4.368, 5, 35.4356, 49.8555, -13.3897, 95.9085, -58.6901, 41.4364
4.372, 5, 35.4345, 49.8584, -13.3878, 95.9051, -58.7033, 41.4318
4.376, 5, 35.4334, 49.8612, -13.3858, 95.9017, -58.7165, 41.4272
4.38, 5, 35.4323, 49.8641, -13.3839, 95.8983, -58.7297, 41.4226
4.384, 5, 35.4312, 49.8669, -13.3819, 95.8949, -58.7429, 41.4181
4.388, 5, 35.4301, 49.8698, -13.38, 95.8914, -58.7561, 41.4135
4.392, 5, 35.429, 49.8727, -13.378, 95.888, -58.7693, 41.4089
4.396, 5, 35.4279, 49.8755, -13.3761, 95.8846, -58.7825, 41.4043
4.4, 5, 35.4268, 49.8784, -13.3741, 95.8812, -58.7957, 41.3998
4.404, 5, 35.4257, 49.8812, -13.3722, 95.8777, -58.8088, 41.3952
4.408, 5, 35.4246, 49.8841, -13.3702, 95.8743, -58.822, 41.3906
4.412, 5, 35.4235, 49.8869, -13.3682, 95.8709, -58.8352, 41.386
4.416, 5, 35.4223, 49.8898, -13.3663, 95.8674, -58.8484, 41.3815
4.42, 5, 35.4212, 49.8926, -13.3643, 95.864, -58.8616, 41.3769
4.424, 5, 35.4201, 49.8954, -13.3623, 95.8605, -58.8748, 41.3723
4.428, 5, 35.419, 49.8983, -13.3604, 95.8571, -58.888, 41.3678
4.432, 5, 35.4179, 49.9011, -13.3584, 95.8537, -58.9012, 41.3632
4.436, 5, 35.4168, 49.904, -13.3564, 95.8502, -58.9144, 41.3586
4.44, 5, 35.4157, 49.9068, -13.3544, 95.8468, -58.9276, 41.3541
4.444, 5, 35.4145, 49.9096, -13.3524, 95.8433, -58.9407, 41.3495
4.448, 5, 35.4134, 49.9125, -13.3505, 95.8399, -58.9539, 41.3449
4.452, 5, 35.4123, 49.9153, -13.3485, 95.8364, -58.9671, 41.3404
4.456, 5, 35.4112, 49.9181, -13.3465, 95.833, -58.9803, 41.3358
4.46, 5, 35.4101, 49.921, -13.3445, 95.8295, -58.9935, 41.3312
4.464, 5, 35.409, 49.9238, -13.3425, 95.826, -59.0067, 41.3267
4.468, 5, 35.4078, 49.9266, -13.3405, 95.8226, -59.0198, 41.3221
4.472, 5, 35.4067, 49.9294, -13.3385, 95.8191, -59.033, 41.3176
4.476, 5, 35.4056, 49.9323, -13.3365, 95.8157, -59.0462, 41.313
4.48, 5, 35.4045, 49.9351, -13.3345, 95.8122, -59.0594, 41.3084
4.484, 5, 35.4033, 49.9379, -13.3325, 95.8087, -59.0726, 41.3039
4.488, 5, 35.4022, 49.9407, -13.3305, 95.8053, -59.0857, 41.2993
4.492, 5, 35.4011, 49.9435, -13.3284, 95.8018, -59.0989, 41.2948
4.496, 5, 35.4, 49.9464, -13.3264, 95.7983, -59.1121, 41.2902
4.5, 5, 35.3988, 49.9492, -13.3244, 95.7948, -59.1253, 41.2857
4.504, 5, 35.3977, 49.952, -13.3224, 95.7914, -59.1384, 41.2811
4.508, 5, 35.3966, 49.9548, -13.3204, 95.7879, -59.1516, 41.2766
4.512, 5, 35.3955, 49.9576, -13.3183, 95.7844, -59.1648, 41.272
4.516, 5, 35.3943, 49.9604, -13.3163, 95.7809, -59.1779, 41.2675
4.52, 5, 35.3932, 49.9632, -13.3143, 95.7775, -59.1911, 41.2629
4.524, 5, 35.3921, 49.966, -13.3123, 95.774, -59.2043, 41.2584
4.528, 5, 35.3909, 49.9688, -13.3102, 95.7705, -59.2174, 41.2538
4.532, 5, 35.3898, 49.9716, -13.3082, 95.767, -59.2306, 41.2493
4.536, 5, 35.3887, 49.9744, -13.3061, 95.7635, -59.2438, 41.2447
4.54, 5, 35.3875, 49.9772, -13.3041, 95.76, -59.257, 41.2402
4.544, 5, 35.3864, 49.98, -13.3021, 95.7565, -59.2701, 41.2356
4.548, 5, 35.3853, 49.9828, -13.3, 95.753, -59.2833, 41.2311
4.552, 5, 35.3841, 49.9856, -13.298, 95.7495, -59.2964, 41.2265
4.556, 5, 35.383, 49.9884, -13.2959, 95.746, -59.3096, 41.222
4.56, 5, 35.3819, 49.9912, -13.2938, 95.7425, -59.3228, 41.2175
4.564, 5, 35.3807, 49.994, -13.2918, 95.739, -59.3359, 41.2129
4.568, 5, 35.3796, 49.9968, -13.2897, 95.7355, -59.3491, 41.2084
4.572, 5, 35.3784, 49.9996, -13.2877, 95.732, -59.3623, 41.2038
4.576, 5, 35.3773, 50.0024, -13.2856, 95.7285, -59.3754, 41.1993
4.58, 5, 35.3761, 50.0052, -13.2835, 95.725, -59.3886, 41.1948
4.584, 5, 35.375, 50.0079, -13.2815, 95.7215, -59.4017, 41.1902
4.588, 5, 35.3739, 50.0107, -13.2794, 95.718, -59.4149, 41.1857
4.592, 5, 35.3727, 50.0135, -13.2773, 95.7145, -59.428, 41.1812
4.596, 5, 35.3716, 50.0163, -13.2752, 95.711, -59.4412, 41.1766
4.6, 5, 35.3704, 50.0191, -13.2732, 95.7074, -59.4543, 41.1721
4.604, 5, 35.3693, 50.0218, -13.2711, 95.7039, -59.4675, 41.1676
4.608, 5, 35.3681, 50.0246, -13.269, 95.7004, -59.4807, 41.163
4.612, 5, 35.367, 50.0274, -13.2669, 95.6969, -59.4938, 41.1585
4.616, 5, 35.3658, 50.0302, -13.2648, 95.6934, -59.507, 41.154
4.62, 5, 35.3647, 50.0329, -13.2627, 95.6898, -59.5201, 41.1494
4.624, 5, 35.3635, 50.0357, -13.2606, 95.6863, -59.5333, 41.1449
4.628, 5, 35.3624, 50.0385, -13.2585, 95.6828, -59.5464, 41.1404
4.632, 5, 35.3612, 50.0412, -13.2565, 95.6792, -59.5596, 41.1358
4.636, 5, 35.3601, 50.044, -13.2544, 95.6757, -59.5727, 41.1313
4.64, 5, 35.3589, 50.0468, -13.2522, 95.6722, -59.5858, 41.1268
4.644, 5, 35.3578, 50.0495, -13.2501, 95.6686, -59.599, 41.1223
4.648, 5, 35.3566, 50.0523, -13.248, 95.6651, -59.6121, 41.1177
4.652, 5, 35.3555, 50.055, -13.2459, 95.6616, -59.6253, 41.1132
4.656, 5, 35.3543, 50.0578, -13.2438, 95.658, -59.6384, 41.1087
4.66, 5, 35.3532, 50.0606, -13.2417, 95.6545, -59.6516, 41.1042
4.664, 5, 35.352, 50.0633, -13.2396, 95.6509, -59.6647, 41.0997
4.668, 5, 35.3508, 50.0661, -13.2375, 95.6474, -59.6778, 41.0951
4.672, 5, 35.3497, 50.0688, -13.2353, 95.6438, -59.691, 41.0906
4.676, 5, 35.3485, 50.0716, -13.2332, 95.6403, -59.7041, 41.0861
4.68, 5, 35.3474, 50.0743, -13.2311, 95.6367, -59.7173, 41.0816
4.684, 5, 35.3462, 50.077, -13.229, 95.6332, -59.7304, 41.0771
4.688, 5, 35.345, 50.0798, -13.2268, 95.6296, -59.7435, 41.0725
4.692, 5, 35.3439, 50.0825, -13.2247, 95.6261, -59.7567, 41.068
4.696, 5, 35.3427, 50.0853, -13.2225, 95.6225, -59.7698, 41.0635
4.7, 5, 35.3416, 50.088, -13.2204, 95.619, -59.7829, 41.059
4.704, 5, 35.3404, 50.0908, -13.2183, 95.6154, -59.7961, 41.0545
4.708, 5, 35.3392, 50.0935, -13.2161, 95.6118, -59.8092, 41.05
4.712, 5, 35.3381, 50.0962, -13.214, 95.6083, -59.8223, 41.0455
4.716, 5, 35.3369, 50.099, -13.2118, 95.6047, -59.8355, 41.0409
4.72, 5, 35.3357, 50.1017, -13.2097, 95.6011, -59.8486, 41.0364
4.724, 5, 35.3346, 50.1044, -13.2075, 95.5976, -59.8617, 41.0319
4.728, 5, 35.3334, 50.1072, -13.2054, 95.594, -59.8749, 41.0274
4.732, 5, 35.3322, 50.1099, -13.2032, 95.5904, -59.888, 41.0229
4.736, 5, 35.331, 50.1126, -13.201, 95.5869, -59.9011, 41.0184
4.74, 5, 35.3299, 50.1153, -13.1989, 95.5833, -59.9142, 41.0139
4.744, 5, 35.3287, 50.1181, -13.1967, 95.5797, -59.9274, 41.0094
4.748, 5, 35.3275, 50.1208, -13.1945, 95.5761, -59.9405, 41.0049
4.752, 5, 35.3264, 50.1235, -13.1924, 95.5725, -59.9536, 41.0004
4.756, 5, 35.3252, 50.1262, -13.1902, 95.569, -59.9667, 40.9959
4.76, 5, 35.324, 50.1289, -13.188, 95.5654, -59.9799, 40.9914
4.764, 5, 35.3228, 50.1317, -13.1858, 95.5618, -59.993, 40.9869
4.768, 5, 35.3217, 50.1344, -13.1837, 95.5582, -60.0061, 40.9824
4.772, 5, 35.3205, 50.1371, -13.1815, 95.5546, -60.0192, 40.9779
4.776, 5, 35.3193, 50.1398, -13.1793, 95.551, -60.0323, 40.9734
4.78, 5, 35.3181, 50.1425, -13.1771, 95.5474, -60.0455, 40.9689
4.784, 5, 35.3169, 50.1452, -13.1749, 95.5438, -60.0586, 40.9644
4.788, 5, 35.3158, 50.1479, -13.1727, 95.5402, -60.0717, 40.9599
4.792, 5, 35.3146, 50.1506, -13.1705, 95.5366, -60.0848, 40.9554
4.796, 5, 35.3134, 50.1533, -13.1683, 95.533, -60.0979, 40.9509
4.8, 5, 35.3122, 50.156, -13.1661, 95.5294, -60.111, 40.9464
4.804, 5, 35.311, 50.1587, -13.1639, 95.5258, -60.1242, 40.9419
4.808, 5, 35.3098, 50.1614, -13.1617, 95.5222, -60.1373, 40.9374
4.812, 5, 35.3087, 50.1641, -13.1595, 95.5186, -60.1504, 40.9329
4.816, 5, 35.3075, 50.1668, -13.1573, 95.515, -60.1635, 40.9284
4.82, 5, 35.3063, 50.1695, -13.1551, 95.5114, -60.1766, 40.9239
4.824, 5, 35.3051, 50.1722, -13.1529, 95.5078, -60.1897, 40.9194
4.828, 5, 35.3039, 50.1749, -13.1507, 95.5042, -60.2028, 40.9149
4.832, 5, 35.3027, 50.1776, -13.1484, 95.5006, -60.2159, 40.9104
4.836, 5, 35.3015, 50.1803, -13.1462, 95.4969, -60.229, 40.9059
4.84, 5, 35.3003, 50.183, -13.144, 95.4933, -60.2421, 40.9014
4.844, 5, 35.2992, 50.1857, -13.1418, 95.4897, -60.2552, 40.897
4.848, 5, 35.298, 50.1884, -13.1395, 95.4861, -60.2683, 40.8925
4.852, 5, 35.2968, 50.1911, -13.1373, 95.4825, -60.2815, 40.888
4.856, 5, 35.2956, 50.1937, -13.1351, 95.4788, -60.2946, 40.8835
4.86, 5, 35.2944, 50.1964, -13.1328, 95.4752, -60.3077, 40.879
4.864, 5, 35.2932, 50.1991, -13.1306, 95.4716, -60.3208, 40.8745
4.868, 5, 35.292, 50.2018, -13.1284, 95.4679, -60.3339, 40.87
4.872, 5, 35.2908, 50.2044, -13.1261, 95.4643, -60.347, 40.8656
4.876, 5, 35.2896, 50.2071, -13.1239, 95.4607, -60.3601, 40.8611
4.88, 5, 35.2884, 50.2098, -13.1216, 95.457, -60.3732, 40.8566
4.884, 5, 35.2872, 50.2125, -13.1194, 95.4534, -60.3863, 40.8521
4.888, 5, 35.286, 50.2151, -13.1171, 95.4498, -60.3993, 40.8476
4.892, 5, 35.2848, 50.2178, -13.1149, 95.4461, -60.4124, 40.8432
4.896, 5, 35.2836, 50.2205, -13.1126, 95.4425, -60.4255, 40.8387
4.9, 5, 35.2824, 50.2231, -13.1103, 95.4388, -60.4386, 40.8342
4.904, 5, 35.2812, 50.2258, -13.1081, 95.4352, -60.4517, 40.8297
4.908, 5, 35.28, 50.2285, -13.1058, 95.4315, -60.4648, 40.8252
4.912, 5, 35.2788, 50.2311, -13.1035, 95.4279, -60.4779, 40.8208
4.916, 5, 35.2776, 50.2338, -13.1013, 95.4243, -60.491, 40.8163
4.92, 5, 35.2764, 50.2364, -13.099, 95.4206, -60.5041, 40.8118
4.924, 5, 35.2752, 50.2391, -13.0967, 95.417, -60.5172, 40.8073
4.928, 5, 35.274, 50.2417, -13.0944, 95.4133, -60.5303, 40.8029
4.932, 5, 35.2728, 50.2444, -13.0922, 95.4096, -60.5434, 40.7984
4.936, 5, 35.2716, 50.2471, -13.0899, 95.406, -60.5564, 40.7939
4.94, 5, 35.2704, 50.2497, -13.0876, 95.4023, -60.5695, 40.7895
4.944, 5, 35.2691, 50.2524, -13.0853, 95.3987, -60.5826, 40.785
4.948, 5, 35.2679, 50.255, -13.083, 95.395, -60.5957, 40.7805
4.952, 5, 35.2667, 50.2576, -13.0807, 95.3913, -60.6088, 40.776
4.956, 5, 35.2655, 50.2603, -13.0784, 95.3877, -60.6219, 40.7716
4.96, 5, 35.2643, 50.2629, -13.0761, 95.384, -60.635, 40.7671
4.964, 5, 35.2631, 50.2656, -13.0738, 95.3803, -60.648, 40.7626
4.968, 5, 35.2619, 50.2682, -13.0715, 95.3767, -60.6611, 40.7582
4.972, 5, 35.2607, 50.2709, -13.0692, 95.373, -60.6742, 40.7537
4.976, 5, 35.2594, 50.2735, -13.0669, 95.3693, -60.6873, 40.7492
4.98, 5, 35.2582, 50.2761, -13.0646, 95.3656, -60.7004, 40.7448
4.984, 5, 35.257, 50.2788, -13.0623, 95.362, -60.7134, 40.7403
4.988, 5, 35.2558, 50.2814, -13.06, 95.3583, -60.7265, 40.7358
4.992, 5, 35.2546, 50.284, -13.0576, 95.3546, -60.7396, 40.7314
4.996, 5, 35.2534, 50.2866, -13.0553, 95.3509, -60.7527, 40.7269
5, 5, 35.2521, 50.2893, -13.053, 95.3472, -60.7657, 40.7225
5.004, 5, 35.2509, 50.2919, -13.0507, 95.3436, -60.7788, 40.718
5.008, 5, 35.2497, 50.2945, -13.0484, 95.3399, -60.7919, 40.7135
5.012, 5, 35.2485, 50.2971, -13.046, 95.3362, -60.805, 40.7091
5.016, 5, 35.2473, 50.2998, -13.0437, 95.3325, -60.818, 40.7046
5.02, 5, 35.246, 50.3024, -13.0414, 95.3288, -60.8311, 40.7002
5.024, 5, 35.2448, 50.305, -13.039, 95.3251, -60.8442, 40.6957
5.028, 5, 35.2436, 50.3076, -13.0367, 95.3214, -60.8572, 40.6913
5.032, 5, 35.2424, 50.3102, -13.0343, 95.3177, -60.8703, 40.6868
5.036, 5, 35.2411, 50.3129, -13.032, 95.314, -60.8834, 40.6823
5.04, 5, 35.2399, 50.3155, -13.0296, 95.3103, -60.8964, 40.6779
5.044, 5, 35.2387, 50.3181, -13.0273, 95.3066, -60.9095, 40.6734
5.048, 5, 35.2374, 50.3207, -13.0249, 95.3029, -60.9226, 40.669
5.052, 5, 35.2362, 50.3233, -13.0226, 95.2992, -60.9356, 40.6645
5.056, 5, 35.235, 50.3259, -13.0202, 95.2955, -60.9487, 40.6601
5.06, 5, 35.2338, 50.3285, -13.0179, 95.2918, -60.9618, 40.6556
5.064, 5, 35.2325, 50.3311, -13.0155, 95.2881, -60.9748, 40.6512
5.068, 5, 35.2313, 50.3337, -13.0132, 95.2844, -60.9879, 40.6467
5.072, 5, 35.2301, 50.3363, -13.0108, 95.2807, -61.0009, 40.6423
5.076, 5, 35.2288, 50.3389, -13.0084, 95.2769, -61.014, 40.6378
5.08, 5, 35.2276, 50.3415, -13.006, 95.2732, -61.0271, 40.6334
5.084, 5, 35.2264, 50.3441, -13.0037, 95.2695, -61.0401, 40.6289
5.088, 5, 35.2251, 50.3467, -13.0013, 95.2658, -61.0532, 40.6245
5.092, 5, 35.2239, 50.3493, -12.9989, 95.2621, -61.0662, 40.62
5.096, 5, 35.2227, 50.3519, -12.9965, 95.2583, -61.0793, 40.6156
5.1, 5, 35.2214, 50.3545, -12.9942, 95.2546, -61.0924, 40.6111
5.104, 5, 35.2202, 50.3571, -12.9918, 95.2509, -61.1054, 40.6067
5.108, 5, 35.2189, 50.3596, -12.9894, 95.2472, -61.1185, 40.6023
5.112, 5, 35.2177, 50.3622, -12.987, 95.2434, -61.1315, 40.5978
5.116, 5, 35.2165, 50.3648, -12.9846, 95.2397, -61.1446, 40.5934
5.12, 5, 35.2152, 50.3674, -12.9822, 95.236, -61.1576, 40.5889
5.124, 5, 35.214, 50.37, -12.9798, 95.2322, -61.1707, 40.5845
5.128, 5, 35.2127, 50.3725, -12.9774, 95.2285, -61.1837, 40.58
5.132, 5, 35.2115, 50.3751, -12.975, 95.2248, -61.1968, 40.5756
5.136, 5, 35.2102, 50.3777, -12.9726, 95.221, -61.2098, 40.5712
5.14, 5, 35.209, 50.3803, -12.9702, 95.2173, -61.2229, 40.5667
5.144, 5, 35.2077, 50.3828, -12.9678, 95.2135, -61.2359, 40.5623
5.148, 5, 35.2065, 50.3854, -12.9654, 95.2098, -61.249, 40.5579
5.152, 5, 35.2053, 50.388, -12.9629, 95.2061, -61.262, 40.5534
5.156, 5, 35.204, 50.3906, -12.9605, 95.2023, -61.275, 40.549
5.16, 5, 35.2028, 50.3931, -12.9581, 95.1986, -61.2881, 40.5445
5.164, 5, 35.2015, 50.3957, -12.9557, 95.1948, -61.3011, 40.5401
5.168, 5, 35.2003, 50.3983, -12.9533, 95.1911, -61.3142, 40.5357
5.172, 5, 35.199, 50.4008, -12.9508, 95.1873, -61.3272, 40.5312
5.176, 5, 35.1978, 50.4034, -12.9484, 95.1836, -61.3402, 40.5268
5.18, 5, 35.1965, 50.4059, -12.946, 95.1798, -61.3533, 40.5224
5.184, 5, 35.1952, 50.4085, -12.9435, 95.176, -61.3663, 40.5179
5.188, 5, 35.194, 50.411, -12.9411, 95.1723, -61.3794, 40.5135
5.192, 5, 35.1927, 50.4136, -12.9387, 95.1685, -61.3924, 40.5091
5.196, 5, 35.1915, 50.4161, -12.9362, 95.1648, -61.4054, 40.5047
5.2, 5, 35.1902, 50.4187, -12.9338, 95.161, -61.4185, 40.5002
5.204, 5, 35.189, 50.4212, -12.9313, 95.1572, -61.4315, 40.4958
5.208, 5, 35.1877, 50.4238, -12.9289, 95.1535, -61.4445, 40.4914
5.212, 5, 35.1865, 50.4263, -12.9264, 95.1497, -61.4576, 40.4869
5.218, 5, 35.1839, 50.4314, -12.9215, 95.1422, -61.4836, 40.4781
5.22, 5, 35.1839, 50.4314, -12.9215, 95.1422, -61.4836, 40.4781
5.224, 5, 35.1827, 50.434, -12.9191, 95.1384, -61.4967, 40.4737
5.228, 5, 35.1814, 50.4365, -12.9166, 95.1346, -61.5097, 40.4692
5.232, 5, 35.1801, 50.439, -12.9141, 95.1308, -61.5227, 40.4648
5.236, 5, 35.1789, 50.4416, -12.9117, 95.1271, -61.5358, 40.4604
5.24, 5, 35.1776, 50.4441, -12.9092, 95.1233, -61.5488, 40.456
5.244, 5, 35.1764, 50.4467, -12.9067, 95.1195, -61.5618, 40.4515
5.248, 5, 35.1751, 50.4492, -12.9042, 95.1157, -61.5748, 40.4471
5.252, 5, 35.1738, 50.4517, -12.9018, 95.1119, -61.5879, 40.4427
5.256, 5, 35.1726, 50.4542, -12.8993, 95.1081, -61.6009, 40.4383
5.26, 5, 35.1713, 50.4568, -12.8968, 95.1044, -61.6139, 40.4339
5.264, 5, 35.17, 50.4593, -12.8943, 95.1006, -61.6269, 40.4294
5.268, 5, 35.1688, 50.4618, -12.8918, 95.0968, -61.6399, 40.425
5.272, 5, 35.1675, 50.4643, -12.8894, 95.093, -61.653, 40.4206
5.276, 5, 35.1662, 50.4669, -12.8869, 95.0892, -61.666, 40.4162
5.28, 5, 35.1649, 50.4694, -12.8844, 95.0854, -61.679, 40.4118
5.284, 5, 35.1637, 50.4719, -12.8819, 95.0816, -61.692, 40.4073
5.288, 5, 35.1624, 50.4744, -12.8794, 95.0778, -61.705, 40.4029
5.292, 5, 35.1611, 50.4769, -12.8769, 95.074, -61.7181, 40.3985
5.296, 5, 35.1598, 50.4795, -12.8744, 95.0702, -61.7311, 40.3941
5.3, 5, 35.1586, 50.482, -12.8719, 95.0664, -61.7441, 40.3897
5.304, 5, 35.1573, 50.4845, -12.8694, 95.0626, -61.7571, 40.3853
5.308, 5, 35.156, 50.487, -12.8668, 95.0588, -61.7701, 40.3809
5.312, 5, 35.1547, 50.4895, -12.8643, 95.055, -61.7831, 40.3764
5.316, 5, 35.1535, 50.492, -12.8618, 95.0512, -61.7962, 40.372
5.32, 5, 35.1522, 50.4945, -12.8593, 95.0474, -61.8092, 40.3676
5.324, 5, 35.1509, 50.497, -12.8568, 95.0435, -61.8222, 40.3632
5.328, 5, 35.1496, 50.4995, -12.8543, 95.0397, -61.8352, 40.3588
5.332, 5, 35.1483, 50.502, -12.8517, 95.0359, -61.8482, 40.3544
5.336, 5, 35.1471, 50.5045, -12.8492, 95.0321, -61.8612, 40.35
5.34, 5, 35.1458, 50.507, -12.8467, 95.0283, -61.8742, 40.3456
5.344, 5, 35.1445, 50.5095, -12.8441, 95.0245, -61.8872, 40.3412
5.348, 5, 35.1432, 50.512, -12.8416, 95.0206, -61.9002, 40.3368
5.352, 5, 35.1419, 50.5145, -12.8391, 95.0168, -61.9132, 40.3324
5.356, 5, 35.1406, 50.517, -12.8365, 95.013, -61.9262, 40.3279
5.36, 5, 35.1394, 50.5195, -12.834, 95.0092, -61.9392, 40.3235
5.364, 5, 35.1381, 50.522, -12.8314, 95.0053, -61.9522, 40.3191
5.368, 5, 35.1368, 50.5244, -12.8289, 95.0015, -61.9652, 40.3147
5.372, 5, 35.1355, 50.5269, -12.8263, 94.9977, -61.9782, 40.3103
5.376, 5, 35.1342, 50.5294, -12.8238, 94.9938, -61.9912, 40.3059
5.38, 5, 35.1329, 50.5319, -12.8212, 94.99, -62.0042, 40.3015
5.384, 5, 35.1316, 50.5344, -12.8187, 94.9862, -62.0172, 40.2971
5.388, 5, 35.1303, 50.5368, -12.8161, 94.9823, -62.0302, 40.2927
5.392, 5, 35.129, 50.5393, -12.8135, 94.9785, -62.0432, 40.2883
5.396, 5, 35.1278, 50.5418, -12.811, 94.9747, -62.0562, 40.2839
5.4, 5, 35.1265, 50.5443, -12.8084, 94.9708, -62.0692, 40.2795
5.404, 5, 35.1252, 50.5467, -12.8058, 94.967, -62.0822, 40.2751
5.408, 5, 35.1239, 50.5492, -12.8033, 94.9631, -62.0952, 40.2707
5.412, 5, 35.1226, 50.5517, -12.8007, 94.9593, -62.1082, 40.2663
5.416, 5, 35.1213, 50.5541, -12.7981, 94.9554, -62.1212, 40.2619
5.42, 5, 35.12, 50.5566, -12.7955, 94.9516, -62.1342, 40.2575
5.424, 5, 35.1187, 50.5591, -12.793, 94.9477, -62.1472, 40.2531
5.428, 5, 35.1174, 50.5615, -12.7904, 94.9439, -62.1602, 40.2487
5.432, 5, 35.1161, 50.564, -12.7878, 94.94, -62.1732, 40.2443
5.436, 5, 35.1148, 50.5665, -12.7852, 94.9362, -62.1862, 40.2399
5.44, 5, 35.1135, 50.5689, -12.7826, 94.9323, -62.1992, 40.2355
5.444, 5, 35.1122, 50.5714, -12.78, 94.9285, -62.2121, 40.2312
5.448, 5, 35.1109, 50.5738, -12.7774, 94.9246, -62.2251, 40.2268
5.452, 5, 35.1096, 50.5763, -12.7748, 94.9207, -62.2381, 40.2224
5.456, 5, 35.1083, 50.5787, -12.7722, 94.9169, -62.2511, 40.218
5.46, 5, 35.107, 50.5812, -12.7696, 94.913, -62.2641, 40.2136
5.464, 5, 35.1057, 50.5836, -12.767, 94.9092, -62.2771, 40.2092
5.468, 5, 35.1044, 50.5861, -12.7644, 94.9053, -62.2901, 40.2048
5.472, 5, 35.1031, 50.5885, -12.7618, 94.9014, -62.303, 40.2004
5.476, 5, 35.1017, 50.591, -12.7592, 94.8976, -62.316, 40.196
5.48, 5, 35.1004, 50.5934, -12.7565, 94.8937, -62.329, 40.1916
5.484, 5, 35.0991, 50.5958, -12.7539, 94.8898, -62.342, 40.1872
5.488, 5, 35.0978, 50.5983, -12.7513, 94.8859, -62.355, 40.1829
5.492, 5, 35.0965, 50.6007, -12.7487, 94.8821, -62.3679, 40.1785
5.496, 5, 35.0952, 50.6032, -12.7461, 94.8782, -62.3809, 40.1741
5.5, 5, 35.0939, 50.6056, -12.7434, 94.8743, -62.3939, 40.1697
5.504, 5, 35.0926, 50.608, -12.7408, 94.8704, -62.4069, 40.1653
5.508, 5, 35.0913, 50.6105, -12.7382, 94.8665, -62.4198, 40.1609
5.512, 5, 35.09, 50.6129, -12.7355, 94.8626, -62.4328, 40.1565
5.516, 5, 35.0886, 50.6153, -12.7329, 94.8588, -62.4458, 40.1522
5.52, 5, 35.0873, 50.6177, -12.7302, 94.8549, -62.4588, 40.1478
5.524, 5, 35.086, 50.6202, -12.7276, 94.851, -62.4717, 40.1434
5.528, 5, 35.0847, 50.6226, -12.725, 94.8471, -62.4847, 40.139
5.532, 5, 35.0834, 50.625, -12.7223, 94.8432, -62.4977, 40.1346
5.536, 5, 35.0821, 50.6274, -12.7197, 94.8393, -62.5106, 40.1302
5.54, 5, 35.0807, 50.6298, -12.717, 94.8354, -62.5236, 40.1259
5.544, 5, 35.0794, 50.6323, -12.7143, 94.8315, -62.5366, 40.1215
5.548, 5, 35.0781, 50.6347, -12.7117, 94.8276, -62.5496, 40.1171
5.552, 5, 35.0768, 50.6371, -12.709, 94.8237, -62.5625, 40.1127
5.556, 5, 35.0755, 50.6395, -12.7064, 94.8198, -62.5755, 40.1083
5.56, 5, 35.0741, 50.6419, -12.7037, 94.8159, -62.5885, 40.104
5.564, 5, 35.0728, 50.6443, -12.701, 94.812, -62.6014, 40.0996
5.568, 5, 35.0715, 50.6467, -12.6984, 94.8081, -62.6144, 40.0952
5.572, 5, 35.0702, 50.6491, -12.6957, 94.8042, -62.6273, 40.0908
5.576, 5, 35.0688, 50.6515, -12.693, 94.8003, -62.6403, 40.0865
5.58, 5, 35.0675, 50.6539, -12.6903, 94.7964, -62.6533, 40.0821
5.584, 5, 35.0662, 50.6563, -12.6876, 94.7925, -62.6662, 40.0777
5.588, 5, 35.0648, 50.6587, -12.685, 94.7886, -62.6792, 40.0733
5.592, 5, 35.0635, 50.6611, -12.6823, 94.7847, -62.6921, 40.069
5.596, 5, 35.0622, 50.6635, -12.6796, 94.7808, -62.7051, 40.0646
5.6, 5, 35.0609, 50.6659, -12.6769, 94.7768, -62.7181, 40.0602
5.604, 5, 35.0595, 50.6683, -12.6742, 94.7729, -62.731, 40.0558
5.608, 5, 35.0582, 50.6707, -12.6715, 94.769, -62.744, 40.0515
5.612, 5, 35.0569, 50.6731, -12.6688, 94.7651, -62.7569, 40.0471
5.616, 5, 35.0555, 50.6755, -12.6661, 94.7612, -62.7699, 40.0427
5.62, 5, 35.0542, 50.6779, -12.6634, 94.7572, -62.7828, 40.0383
5.624, 5, 35.0529, 50.6803, -12.6607, 94.7533, -62.7958, 40.034
5.628, 5, 35.0515, 50.6827, -12.658, 94.7494, -62.8087, 40.0296
5.632, 5, 35.0502, 50.685, -12.6553, 94.7454, -62.8217, 40.0252
5.636, 5, 35.0489, 50.6874, -12.6526, 94.7415, -62.8346, 40.0209
5.64, 5, 35.0475, 50.6898, -12.6499, 94.7376, -62.8476, 40.0165
5.644, 5, 35.0462, 50.6922, -12.6471, 94.7337, -62.8605, 40.0121
5.648, 5, 35.0448, 50.6945, -12.6444, 94.7297, -62.8735, 40.0078
5.652, 5, 35.0435, 50.6969, -12.6417, 94.7258, -62.8864, 40.0034
5.656, 5, 35.0422, 50.6993, -12.639, 94.7218, -62.8994, 39.999
5.66, 5, 35.0408, 50.7017, -12.6362, 94.7179, -62.9123, 39.9947
5.664, 5, 35.0395, 50.704, -12.6335, 94.714, -62.9253, 39.9903
5.668, 5, 35.0381, 50.7064, -12.6308, 94.71, -62.9382, 39.9859
5.672, 5, 35.0368, 50.7088, -12.628, 94.7061, -62.9512, 39.9816
5.676, 5, 35.0354, 50.7111, -12.6253, 94.7021, -62.9641, 39.9772
5.68, 5, 35.0341, 50.7135, -12.6226, 94.6982, -62.977, 39.9728
5.684, 5, 35.0328, 50.7159, -12.6198, 94.6942, -62.99, 39.9685
5.688, 5, 35.0314, 50.7182, -12.6171, 94.6903, -63.0029, 39.9641
5.692, 5, 35.0301, 50.7206, -12.6143, 94.6863, -63.0159, 39.9598
5.696, 5, 35.0287, 50.7229, -12.6116, 94.6824, -63.0288, 39.9554
5.7, 5, 35.0274, 50.7253, -12.6088, 94.6784, -63.0417, 39.951
5.704, 5, 35.026, 50.7276, -12.6061, 94.6745, -63.0547, 39.9467
5.708, 5, 35.0247, 50.73, -12.6033, 94.6705, -63.0676, 39.9423
5.712, 5, 35.0233, 50.7323, -12.6006, 94.6666, -63.0806, 39.938
5.716, 5, 35.022, 50.7347, -12.5978, 94.6626, -63.0935, 39.9336
5.72, 5, 35.0206, 50.737, -12.595, 94.6587, -63.1064, 39.9292
5.724, 5, 35.0193, 50.7394, -12.5923, 94.6547, -63.1194, 39.9249
5.728, 5, 35.0179, 50.7417, -12.5895, 94.6507, -63.1323, 39.9205
5.732, 5, 35.0166, 50.7441, -12.5867, 94.6468, -63.1452, 39.9162
5.736, 5, 35.0152, 50.7464, -12.5839, 94.6428, -63.1582, 39.9118
5.74, 5, 35.0138, 50.7487, -12.5812, 94.6388, -63.1711, 39.9074
5.744, 5, 35.0125, 50.7511, -12.5784, 94.6349, -63.184, 39.9031
5.748, 5, 35.0111, 50.7534, -12.5756, 94.6309, -63.1969, 39.8987
5.752, 5, 35.0098, 50.7557, -12.5728, 94.6269, -63.2099, 39.8944
5.756, 5, 35.0084, 50.7581, -12.57, 94.6229, -63.2228, 39.89
5.76, 5, 35.0071, 50.7604, -12.5672, 94.619, -63.2357, 39.8857
5.764, 5, 35.0057, 50.7627, -12.5644, 94.615, -63.2487, 39.8813
5.768, 5, 35.0043, 50.7651, -12.5616, 94.611, -63.2616, 39.877
5.772, 5, 35.003, 50.7674, -12.5588, 94.607, -63.2745, 39.8726
5.776, 5, 35.0016, 50.7697, -12.556, 94.6031, -63.2874, 39.8683
5.78, 5, 35.0002, 50.772, -12.5532, 94.5991, -63.3003, 39.8639
5.784, 5, 34.9989, 50.7744, -12.5504, 94.5951, -63.3133, 39.8596
5.788, 5, 34.9975, 50.7767, -12.5476, 94.5911, -63.3262, 39.8552
5.792, 5, 34.9962, 50.779, -12.5448, 94.5871, -63.3391, 39.8509
5.796, 5, 34.9948, 50.7813, -12.542, 94.5831, -63.352, 39.8465
5.8, 5, 34.9934, 50.7836, -12.5392, 94.5791, -63.365, 39.8422
5.804, 5, 34.9921, 50.786, -12.5364, 94.5752, -63.3779, 39.8378
5.808, 5, 34.9907, 50.7883, -12.5336, 94.5712, -63.3908, 39.8334
5.812, 5, 34.9893, 50.7906, -12.5308, 94.5672, -63.4037, 39.8291
5.816, 5, 34.988, 50.7929, -12.5279, 94.5632, -63.4166, 39.8247
5.82, 5, 34.9866, 50.7952, -12.5251, 94.5592, -63.4296, 39.8204
5.824, 5, 34.9852, 50.7975, -12.5223, 94.5552, -63.4425, 39.816
5.828, 5, 34.9838, 50.7998, -12.5195, 94.5513, -63.4554, 39.8117
5.832, 5, 34.9825, 50.8021, -12.5167, 94.5473, -63.4683, 39.8073
5.836, 5, 34.9811, 50.8044, -12.5138, 94.5433, -63.4812, 39.803
5.84, 5, 34.9797, 50.8067, -12.511, 94.5393, -63.4942, 39.7986
5.844, 5, 34.9784, 50.809, -12.5082, 94.5353, -63.5071, 39.7943
5.848, 5, 34.977, 50.8114, -12.5054, 94.5313, -63.52, 39.7899
5.852, 5, 34.9756, 50.8137, -12.5025, 94.5274, -63.5329, 39.7856
5.856, 5, 34.9742, 50.816, -12.4997, 94.5234, -63.5458, 39.7812
5.86, 5, 34.9729, 50.8183, -12.4969, 94.5194, -63.5588, 39.7769
5.864, 5, 34.9715, 50.8206, -12.4941, 94.5154, -63.5717, 39.7725
5.868, 5, 34.9701, 50.8229, -12.4912, 94.5115, -63.5846, 39.7682
5.872, 5, 34.9687, 50.8252, -12.4884, 94.5075, -63.5975, 39.7638
5.876, 5, 34.9673, 50.8274, -12.4856, 94.5035, -63.6105, 39.7594
5.88, 5, 34.966, 50.8297, -12.4827, 94.4995, -63.6234, 39.7551
5.884, 5, 34.9646, 50.832, -12.4799, 94.4956, -63.6363, 39.7507
5.888, 5, 34.9632, 50.8343, -12.4771, 94.4916, -63.6492, 39.7464
5.892, 5, 34.9618, 50.8366, -12.4742, 94.4876, -63.6621, 39.742
5.896, 5, 34.9604, 50.8389, -12.4714, 94.4836, -63.6751, 39.7377
5.9, 5, 34.9591, 50.8412, -12.4686, 94.4797, -63.688, 39.7333
5.904, 5, 34.9577, 50.8435, -12.4657, 94.4757, -63.7009, 39.729
5.908, 5, 34.9563, 50.8458, -12.4629, 94.4717, -63.7139, 39.7246
5.912, 5, 34.9549, 50.8481, -12.4601, 94.4678, -63.7268, 39.7202
5.916, 5, 34.9535, 50.8504, -12.4572, 94.4638, -63.7397, 39.7159
5.92, 5, 34.9522, 50.8527, -12.4544, 94.4598, -63.7526, 39.7115
5.924, 5, 34.9508, 50.855, -12.4516, 94.4559, -63.7656, 39.7072
5.928, 5, 34.9494, 50.8572, -12.4487, 94.4519, -63.7785, 39.7028
5.932, 5, 34.948, 50.8595, -12.4459, 94.448, -63.7914, 39.6984
5.936, 5, 34.9466, 50.8618, -12.4431, 94.444, -63.8043, 39.6941
5.94, 5, 34.9452, 50.8641, -12.4402, 94.44, -63.8173, 39.6897
5.944, 5, 34.9438, 50.8664, -12.4374, 94.4361, -63.8302, 39.6854
5.948, 5, 34.9424, 50.8687, -12.4345, 94.4321, -63.8431, 39.681
5.952, 5, 34.9411, 50.8709, -12.4317, 94.4282, -63.8561, 39.6766
5.956, 5, 34.9397, 50.8732, -12.4289, 94.4242, -63.869, 39.6723
5.96, 5, 34.9383, 50.8755, -12.426, 94.4203, -63.8819, 39.6679
5.964, 5, 34.9369, 50.8778, -12.4232, 94.4163, -63.8949, 39.6635
5.968, 5, 34.9355, 50.8801, -12.4204, 94.4124, -63.9078, 39.6592
5.972, 5, 34.9341, 50.8823, -12.4175, 94.4085, -63.9207, 39.6548
5.976, 5, 34.9327, 50.8846, -12.4147, 94.4045, -63.9337, 39.6504
5.98, 5, 34.9313, 50.8869, -12.4118, 94.4006, -63.9466, 39.6461
5.984, 5, 34.9299, 50.8892, -12.409, 94.3966, -63.9595, 39.6417
5.988, 5, 34.9285, 50.8915, -12.4062, 94.3927, -63.9725, 39.6373
5.992, 5, 34.9272, 50.8937, -12.4033, 94.3888, -63.9854, 39.633
5.996, 5, 34.9258, 50.896, -12.4005, 94.3848, -63.9984, 39.6286
6, 5, 34.9244, 50.8983, -12.3977, 94.3809, -64.0113, 39.6242
6.004, 5, 34.923, 50.9006, -12.3948, 94.377, -64.0243, 39.6199
6.008, 5, 34.9216, 50.9028, -12.392, 94.3731, -64.0372, 39.6155
6.012, 5, 34.9202, 50.9051, -12.3892, 94.3692, -64.0501, 39.6111
6.016, 5, 34.9188, 50.9074, -12.3863, 94.3652, -64.0631, 39.6067
6.02, 5, 34.9174, 50.9097, -12.3835, 94.3613, -64.076, 39.6024
6.024, 5, 34.916, 50.9119, -12.3807, 94.3574, -64.089, 39.598
6.028, 5, 34.9146, 50.9142, -12.3778, 94.3535, -64.1019, 39.5936
6.032, 5, 34.9132, 50.9165, -12.375, 94.3496, -64.1149, 39.5892
6.036, 5, 34.9118, 50.9188, -12.3722, 94.3457, -64.1278, 39.5849
6.04, 5, 34.9104, 50.921, -12.3693, 94.3418, -64.1408, 39.5805
6.044, 5, 34.909, 50.9233, -12.3665, 94.3379, -64.1538, 39.5761
6.048, 5, 34.9076, 50.9256, -12.3637, 94.334, -64.1667, 39.5717
6.052, 5, 34.9062, 50.9279, -12.3609, 94.3301, -64.1797, 39.5673
