hehonglu123/ABB_Primitive_Study/execution/movec_smooth/curve_exe_v500_fine.csv
timestamp, cmd_num, J1, J2, J3, J4, J5, J6
0, -1, 32.9528, 52.8019, -8.46502, 89.9168, -78.8096, 34.6812
0.002, -1, 32.9528, 52.8019, -8.46502, 89.9168, -78.8096, 34.6812
0.006, -1, 32.9528, 52.8019, -8.46502, 89.9168, -78.8096, 34.6812
0.008, -1, 32.9528, 52.8019, -8.46502, 89.9168, -78.8096, 34.6812
0.011, -1, 32.9528, 52.8019, -8.46502, 89.9168, -78.8096, 34.6812
0.016, -1, 32.9528, 52.8019, -8.46502, 89.9168, -78.8096, 34.6812
0.02, -1, 32.9528, 52.8019, -8.46502, 89.9168, -78.8096, 34.6812
0.024, -1, 32.9528, 52.8019, -8.46502, 89.9168, -78.8096, 34.6812
0.028, -1, 32.9528, 52.8019, -8.46502, 89.9168, -78.8096, 34.6812
0.032, -1, 32.9528, 52.8019, -8.46502, 89.9168, -78.8096, 34.6812
0.036, -1, 32.9529, 52.8019, -8.46502, 89.9168, -78.8096, 34.6812
0.04, -1, 32.9531, 52.8018, -8.46503, 89.9168, -78.8095, 34.6812
0.044, -1, 32.9535, 52.8014, -8.46504, 89.9169, -78.8095, 34.6812
0.048, -1, 32.9543, 52.8006, -8.46509, 89.9169, -78.8093, 34.6813
0.052, -1, 32.9556, 52.7993, -8.46521, 89.917, -78.8088, 34.6815
0.056, -1, 32.9574, 52.7971, -8.46543, 89.9173, -78.8079, 34.6818
0.06, -1, 32.9597, 52.794, -8.46584, 89.9178, -78.8061, 34.6824
0.064, -1, 32.9625, 52.7899, -8.46653, 89.9186, -78.803, 34.6835
0.068, -1, 32.9659, 52.7849, -8.46761, 89.92, -78.798, 34.6852
0.072, -1, 32.9697, 52.7789, -8.46923, 89.922, -78.7905, 34.6877
0.076, -1, 32.9741, 52.7719, -8.47155, 89.925, -78.7796, 34.6915
0.08, -1, 32.9791, 52.7639, -8.47475, 89.9292, -78.7644, 34.6967
0.084, -1, 32.9847, 52.7549, -8.47904, 89.9348, -78.744, 34.7037
0.088, -1, 32.991, 52.7451, -8.48461, 89.9421, -78.7174, 34.7128
0.092, -1, 32.9978, 52.7344, -8.49169, 89.9515, -78.6834, 34.7244
0.096, -1, 33.005, 52.7231, -8.50046, 89.9631, -78.6411, 34.7389
0.1, -1, 33.0126, 52.7112, -8.51109, 89.9773, -78.5897, 34.7566
0.104, -1, 33.0204, 52.699, -8.5237, 89.9942, -78.5285, 34.7775
0.108, -1, 33.0284, 52.6863, -8.53837, 90.0139, -78.4572, 34.802
0.112, -1, 33.0368, 52.673, -8.55512, 90.0364, -78.3757, 34.8299
0.116, -1, 33.0455, 52.6592, -8.57391, 90.0617, -78.2841, 34.8613
0.12, -1, 33.0546, 52.6447, -8.59467, 90.0896, -78.183, 34.896
0.124, -1, 33.0642, 52.6296, -8.61726, 90.12, -78.0728, 34.9337
0.128, -1, 33.0741, 52.6139, -8.64153, 90.1527, -77.9545, 34.9743
0.131, -1, 33.0844, 52.5977, -8.6673, 90.1875, -77.8288, 35.0174
0.136, -1, 33.0949, 52.5809, -8.69437, 90.2239, -77.6968, 35.0627
0.139, -1, 33.1058, 52.5633, -8.72251, 90.2618, -77.5596, 35.1097
0.144, -1, 33.1172, 52.5447, -8.75152, 90.3009, -77.4182, 35.1582
0.148, -1, 33.1293, 52.525, -8.7812, 90.3408, -77.2736, 35.2077
0.152, -1, 33.1421, 52.5041, -8.81138, 90.3814, -77.1267, 35.2581
0.156, -1, 33.1556, 52.4819, -8.8419, 90.4224, -76.9782, 35.309
0.16, -1, 33.17, 52.4586, -8.87265, 90.4637, -76.8286, 35.3603
0.164, -1, 33.1849, 52.4345, -8.90354, 90.5052, -76.6784, 35.4118
0.168, -1, 33.2004, 52.4098, -8.9345, 90.5467, -76.5279, 35.4634
0.172, -1, 33.2161, 52.3847, -8.9655, 90.5883, -76.3772, 35.515
0.176, -1, 33.2321, 52.3594, -8.9965, 90.6299, -76.2265, 35.5667
0.18, -1, 33.2481, 52.334, -9.02748, 90.6715, -76.076, 35.6183
0.184, -1, 33.2643, 52.3084, -9.05844, 90.713, -75.9256, 35.6699
0.188, -1, 33.2805, 52.2828, -9.08935, 90.7545, -75.7754, 35.7214
0.192, -1, 33.2967, 52.2573, -9.12022, 90.7959, -75.6254, 35.7728
0.196, -1, 33.3129, 52.2317, -9.15103, 90.8372, -75.4757, 35.8241
0.2, -1, 33.3291, 52.2061, -9.1818, 90.8785, -75.3262, 35.8753
0.204, -1, 33.3453, 52.1806, -9.21251, 90.9197, -75.177, 35.9265
0.208, -1, 33.3614, 52.1551, -9.24316, 90.9608, -75.028, 35.9775
0.212, -1, 33.3776, 52.1296, -9.27376, 91.0018, -74.8794, 36.0285
0.216, -1, 33.3937, 52.1042, -9.3043, 91.0428, -74.731, 36.0794
0.22, -1, 33.4098, 52.0788, -9.33479, 91.0837, -74.5829, 36.1302
0.224, -1, 33.4258, 52.0535, -9.36522, 91.1245, -74.435, 36.1808
0.228, -1, 33.4419, 52.0282, -9.3956, 91.1652, -74.2874, 36.2314
0.232, -1, 33.4579, 52.003, -9.42592, 91.2059, -74.1401, 36.2819
0.236, -1, 33.4738, 51.9778, -9.45618, 91.2465, -73.9931, 36.3323
0.24, -1, 33.4898, 51.9526, -9.48639, 91.287, -73.8463, 36.3826
0.244, -1, 33.5057, 51.9275, -9.51654, 91.3275, -73.6998, 36.4329
0.248, -1, 33.5216, 51.9025, -9.54664, 91.3678, -73.5536, 36.483
0.252, -1, 33.5374, 51.8774, -9.57668, 91.4081, -73.4076, 36.533
0.256, -1, 33.5533, 51.8525, -9.60667, 91.4483, -73.2619, 36.583
0.26, -1, 33.5691, 51.8276, -9.6366, 91.4885, -73.1165, 36.6328
0.264, -1, 33.5848, 51.8027, -9.66649, 91.5286, -72.9713, 36.6826
0.268, -1, 33.6006, 51.7778, -9.69631, 91.5686, -72.8264, 36.7323
0.272, -1, 33.6163, 51.7531, -9.72609, 91.6085, -72.6817, 36.7819
0.276, -1, 33.632, 51.7283, -9.75581, 91.6484, -72.5373, 36.8314
0.28, -1, 33.6476, 51.7036, -9.78547, 91.6882, -72.3932, 36.8808
0.284, -1, 33.6633, 51.679, -9.81509, 91.7279, -72.2493, 36.9301
0.288, -1, 33.6789, 51.6544, -9.84465, 91.7675, -72.1057, 36.9794
0.292, -1, 33.6945, 51.6298, -9.87416, 91.8071, -71.9623, 37.0285
0.296, -1, 33.71, 51.6053, -9.90362, 91.8466, -71.8191, 37.0776
0.3, -1, 33.7255, 51.5808, -9.93303, 91.8861, -71.6763, 37.1265
0.304, -1, 33.741, 51.5563, -9.96238, 91.9255, -71.5336, 37.1754
0.308, -1, 33.7565, 51.5319, -9.99169, 91.9648, -71.3913, 37.2243
0.312, -1, 33.7719, 51.5076, -10.0209, 92.004, -71.2491, 37.273
0.316, -1, 33.7873, 51.4833, -10.0501, 92.0432, -71.1073, 37.3216
0.32, -1, 33.8027, 51.459, -10.0793, 92.0823, -70.9656, 37.3702
0.324, -1, 33.8181, 51.4348, -10.1084, 92.1213, -70.8242, 37.4186
0.328, -1, 33.8334, 51.4106, -10.1374, 92.1603, -70.6831, 37.467
0.332, -1, 33.8487, 51.3864, -10.1665, 92.1992, -70.5422, 37.5153
0.336, -1, 33.864, 51.3623, -10.1954, 92.238, -70.4015, 37.5636
0.34, -1, 33.8793, 51.3383, -10.2243, 92.2768, -70.261, 37.6117
0.344, -1, 33.8945, 51.3142, -10.2532, 92.3155, -70.1209, 37.6598
0.348, -1, 33.9097, 51.2903, -10.282, 92.3541, -69.9809, 37.7077
0.352, -1, 33.9249, 51.2663, -10.3107, 92.3927, -69.8412, 37.7556
0.356, -1, 33.94, 51.2424, -10.3394, 92.4312, -69.7017, 37.8034
0.36, -1, 33.9552, 51.2186, -10.3681, 92.4696, -69.5624, 37.8512
0.364, -1, 33.9703, 51.1947, -10.3967, 92.508, -69.4234, 37.8988
0.368, -1, 33.9853, 51.171, -10.4253, 92.5463, -69.2846, 37.9464
0.372, -1, 34.0004, 51.1472, -10.4538, 92.5846, -69.1461, 37.9939
0.376, -1, 34.0154, 51.1235, -10.4823, 92.6228, -69.0078, 38.0413
0.38, -1, 34.0304, 51.0998, -10.5107, 92.6609, -68.8697, 38.0887
0.384, -1, 34.0454, 51.0762, -10.5391, 92.6989, -68.7318, 38.1359
0.388, -1, 34.0604, 51.0526, -10.5674, 92.7369, -68.5941, 38.1831
0.392, -1, 34.0753, 51.0291, -10.5957, 92.7749, -68.4567, 38.2302
0.396, -1, 34.0902, 51.0056, -10.6239, 92.8127, -68.3195, 38.2773
0.4, -1, 34.1051, 50.9821, -10.6521, 92.8506, -68.1826, 38.3242
0.404, -1, 34.1199, 50.9587, -10.6803, 92.8883, -68.0458, 38.3711
0.408, -1, 34.1348, 50.9353, -10.7084, 92.926, -67.9093, 38.4179
0.412, -1, 34.1496, 50.9119, -10.7364, 92.9636, -67.773, 38.4646
0.416, -1, 34.1643, 50.8886, -10.7644, 93.0012, -67.6369, 38.5113
0.42, -1, 34.1791, 50.8653, -10.7924, 93.0387, -67.501, 38.5579
0.424, -1, 34.1938, 50.8421, -10.8203, 93.0762, -67.3653, 38.6044
0.428, -1, 34.2086, 50.8189, -10.8482, 93.1136, -67.2299, 38.6508
0.432, -1, 34.2232, 50.7957, -10.876, 93.1509, -67.0947, 38.6971
0.436, -1, 34.2379, 50.7726, -10.9038, 93.1881, -66.9597, 38.7434
0.44, -1, 34.2526, 50.7495, -10.9315, 93.2254, -66.8249, 38.7896
0.444, -1, 34.2672, 50.7264, -10.9592, 93.2625, -66.6903, 38.8358
0.448, -1, 34.2818, 50.7034, -10.9869, 93.2996, -66.5559, 38.8818
0.452, -1, 34.2964, 50.6804, -11.0145, 93.3367, -66.4217, 38.9278
0.456, -1, 34.3109, 50.6574, -11.0421, 93.3736, -66.2878, 38.9738
0.46, -1, 34.3254, 50.6345, -11.0696, 93.4106, -66.154, 39.0196
0.464, -1, 34.3399, 50.6116, -11.0971, 93.4474, -66.0204, 39.0654
0.468, -1, 34.3544, 50.5888, -11.1246, 93.4842, -65.8871, 39.1111
0.472, -1, 34.3689, 50.566, -11.152, 93.521, -65.754, 39.1567
0.476, -1, 34.3833, 50.5432, -11.1793, 93.5577, -65.621, 39.2023
0.48, -1, 34.3978, 50.5204, -11.2066, 93.5943, -65.4883, 39.2478
0.484, -1, 34.4121, 50.4977, -11.2339, 93.6309, -65.3558, 39.2933
0.488, -1, 34.4265, 50.475, -11.2612, 93.6675, -65.2234, 39.3386
0.492, -1, 34.4409, 50.4524, -11.2883, 93.7039, -65.0913, 39.3839
0.496, -1, 34.4552, 50.4298, -11.3155, 93.7404, -64.9594, 39.4291
0.5, -1, 34.4695, 50.4072, -11.3426, 93.7767, -64.8276, 39.4743
0.504, -1, 34.4838, 50.3847, -11.3697, 93.813, -64.6961, 39.5194
0.508, -1, 34.4981, 50.3622, -11.3967, 93.8493, -64.5647, 39.5644
0.512, -1, 34.5123, 50.3397, -11.4237, 93.8855, -64.4336, 39.6094
0.516, -1, 34.5265, 50.3173, -11.4507, 93.9217, -64.3026, 39.6543
0.52, -1, 34.5408, 50.2949, -11.4776, 93.9578, -64.1719, 39.6991
0.524, -1, 34.5549, 50.2725, -11.5045, 93.9938, -64.0413, 39.7439
0.528, -1, 34.5691, 50.2501, -11.5313, 94.0298, -63.9109, 39.7886
0.532, -1, 34.5832, 50.2278, -11.5581, 94.0657, -63.7807, 39.8332
0.536, -1, 34.5974, 50.2056, -11.5848, 94.1016, -63.6507, 39.8777
0.54, -1, 34.6115, 50.1833, -11.6116, 94.1375, -63.5209, 39.9222
0.544, -1, 34.6255, 50.1611, -11.6382, 94.1732, -63.3913, 39.9667
0.548, -1, 34.6396, 50.1389, -11.6649, 94.209, -63.2619, 40.0111
0.552, -1, 34.6536, 50.1168, -11.6915, 94.2447, -63.1326, 40.0554
0.556, -1, 34.6677, 50.0947, -11.718, 94.2803, -63.0036, 40.0996
0.56, -1, 34.6817, 50.0726, -11.7446, 94.3159, -62.8747, 40.1438
0.564, -1, 34.6956, 50.0505, -11.7711, 94.3514, -62.746, 40.1879
0.568, -1, 34.7096, 50.0285, -11.7975, 94.3869, -62.6175, 40.2319
0.572, -1, 34.7235, 50.0065, -11.8239, 94.4223, -62.4892, 40.2759
0.576, -1, 34.7375, 49.9846, -11.8503, 94.4577, -62.361, 40.3199
0.58, -1, 34.7514, 49.9626, -11.8766, 94.493, -62.2331, 40.3637
0.584, -1, 34.7652, 49.9407, -11.9029, 94.5283, -62.1053, 40.4075
0.588, -1, 34.7791, 49.9189, -11.9292, 94.5635, -61.9777, 40.4513
0.592, -1, 34.7929, 49.897, -11.9554, 94.5987, -61.8503, 40.495
0.596, -1, 34.8068, 49.8752, -11.9816, 94.6338, -61.723, 40.5386
0.6, -1, 34.8206, 49.8535, -12.0078, 94.6689, -61.5959, 40.5821
0.604, -1, 34.8343, 49.8317, -12.0339, 94.7039, -61.4691, 40.6256
0.608, -1, 34.8481, 49.81, -12.0599, 94.7389, -61.3423, 40.6691
0.612, -1, 34.8618, 49.7883, -12.086, 94.7738, -61.2158, 40.7125
0.616, -1, 34.8756, 49.7667, -12.112, 94.8087, -61.0894, 40.7558
0.62, -1, 34.8893, 49.7451, -12.138, 94.8435, -60.9632, 40.799
0.624, -1, 34.903, 49.7235, -12.1639, 94.8783, -60.8372, 40.8422
0.628, -1, 34.9166, 49.7019, -12.1898, 94.9131, -60.7114, 40.8854
0.632, -1, 34.9303, 49.6804, -12.2157, 94.9478, -60.5857, 40.9284
0.636, -1, 34.9439, 49.6589, -12.2415, 94.9824, -60.4602, 40.9715
0.64, -1, 34.9575, 49.6374, -12.2673, 95.017, -60.3349, 41.0144
0.644, -1, 34.9711, 49.6159, -12.2931, 95.0516, -60.2097, 41.0573
0.648, -1, 34.9847, 49.5945, -12.3188, 95.0861, -60.0847, 41.1002
0.652, -1, 34.9983, 49.5731, -12.3445, 95.1205, -59.9599, 41.143
0.656, -1, 35.0118, 49.5518, -12.3701, 95.1549, -59.8352, 41.1857
0.66, -1, 35.0253, 49.5304, -12.3958, 95.1893, -59.7107, 41.2284
0.664, -1, 35.0388, 49.5091, -12.4214, 95.2236, -59.5864, 41.271
0.668, -1, 35.0523, 49.4879, -12.4469, 95.2579, -59.4622, 41.3136
0.672, -1, 35.0658, 49.4666, -12.4724, 95.2921, -59.3382, 41.3561
0.676, -1, 35.0792, 49.4454, -12.4979, 95.3263, -59.2144, 41.3985
0.68, -1, 35.0927, 49.4242, -12.5234, 95.3605, -59.0907, 41.4409
0.684, -1, 35.1061, 49.4031, -12.5488, 95.3946, -58.9672, 41.4833
0.688, -1, 35.1195, 49.3819, -12.5742, 95.4286, -58.8439, 41.5256
0.692, -1, 35.1329, 49.3608, -12.5995, 95.4626, -58.7207, 41.5678
0.696, -1, 35.1462, 49.3397, -12.6249, 95.4966, -58.5977, 41.61
0.7, -1, 35.1596, 49.3187, -12.6501, 95.5305, -58.4748, 41.6521
0.704, -1, 35.1729, 49.2977, -12.6754, 95.5644, -58.3521, 41.6941
0.708, -1, 35.1862, 49.2767, -12.7006, 95.5982, -58.2296, 41.7361
0.712, -1, 35.1995, 49.2557, -12.7258, 95.632, -58.1072, 41.7781
0.716, -1, 35.2128, 49.2347, -12.751, 95.6657, -57.985, 41.82
0.72, -1, 35.226, 49.2138, -12.7761, 95.6994, -57.8629, 41.8618
0.724, -1, 35.2393, 49.1929, -12.8012, 95.7331, -57.741, 41.9036
0.728, -1, 35.2525, 49.1721, -12.8262, 95.7667, -57.6192, 41.9454
0.732, -1, 35.2657, 49.1512, -12.8513, 95.8003, -57.4976, 41.9871
0.736, -1, 35.2789, 49.1304, -12.8763, 95.8338, -57.3762, 42.0287
0.74, -1, 35.2921, 49.1097, -12.9012, 95.8673, -57.2549, 42.0703
0.744, -1, 35.3052, 49.0889, -12.9262, 95.9007, -57.1338, 42.1118
0.748, -1, 35.3184, 49.0682, -12.9511, 95.9341, -57.0128, 42.1533
0.752, -1, 35.3315, 49.0475, -12.9759, 95.9675, -56.8919, 42.1947
0.756, -1, 35.3446, 49.0268, -13.0008, 96.0008, -56.7712, 42.2361
0.76, -1, 35.3577, 49.0061, -13.0256, 96.0341, -56.6507, 42.2774
0.764, -1, 35.3708, 48.9855, -13.0504, 96.0673, -56.5303, 42.3187
0.768, -1, 35.3838, 48.9649, -13.0751, 96.1005, -56.4101, 42.3599
0.772, -1, 35.3969, 48.9443, -13.0998, 96.1336, -56.29, 42.401
0.776, -1, 35.4099, 48.9238, -13.1245, 96.1667, -56.1701, 42.4422
0.78, -1, 35.4229, 48.9032, -13.1492, 96.1998, -56.0503, 42.4832
0.784, -1, 35.4359, 48.8827, -13.1738, 96.2328, -55.9307, 42.5242
0.788, -1, 35.4489, 48.8623, -13.1984, 96.2658, -55.8112, 42.5652
0.792, -1, 35.4619, 48.8418, -13.2229, 96.2988, -55.6918, 42.6061
0.796, -1, 35.4748, 48.8214, -13.2475, 96.3317, -55.5726, 42.647
0.8, -1, 35.4877, 48.801, -13.272, 96.3645, -55.4535, 42.6878
0.804, -1, 35.5006, 48.7806, -13.2965, 96.3974, -55.3346, 42.7285
0.808, -1, 35.5136, 48.7603, -13.3209, 96.4302, -55.2159, 42.7693
0.812, -1, 35.5264, 48.7399, -13.3453, 96.4629, -55.0972, 42.8099
0.816, -1, 35.5393, 48.7196, -13.3697, 96.4956, -54.9787, 42.8506
0.82, -1, 35.5522, 48.6994, -13.3941, 96.5283, -54.8604, 42.8911
0.824, -1, 35.565, 48.6791, -13.4184, 96.5609, -54.7422, 42.9316
0.828, -1, 35.5778, 48.6589, -13.4427, 96.5935, -54.6241, 42.9721
0.832, -1, 35.5906, 48.6387, -13.467, 96.6261, -54.5062, 43.0125
0.836, -1, 35.6034, 48.6185, -13.4912, 96.6586, -54.3884, 43.0529
0.84, -1, 35.6162, 48.5983, -13.5154, 96.6911, -54.2707, 43.0933
0.844, -1, 35.629, 48.5782, -13.5396, 96.7235, -54.1532, 43.1335
0.848, -1, 35.6417, 48.5581, -13.5638, 96.7559, -54.0358, 43.1738
0.852, -1, 35.6545, 48.538, -13.5879, 96.7883, -53.9186, 43.214
0.856, -1, 35.6672, 48.5179, -13.612, 96.8206, -53.8015, 43.2541
0.86, -1, 35.6799, 48.4979, -13.6361, 96.8529, -53.6845, 43.2942
0.864, -1, 35.6925, 48.4779, -13.6601, 96.8852, -53.5677, 43.3343
0.868, -1, 35.7051, 48.458, -13.6841, 96.9174, -53.451, 43.3743
0.872, -1, 35.7176, 48.4381, -13.7081, 96.9496, -53.3345, 43.4142
0.876, -1, 35.73, 48.4184, -13.7321, 96.9817, -53.2181, 43.4541
0.88, -1, 35.7419, 48.3992, -13.756, 97.0137, -53.102, 43.4939
0.884, -1, 35.7533, 48.3805, -13.7798, 97.0457, -52.9863, 43.5336
0.888, -1, 35.7641, 48.3627, -13.8035, 97.0775, -52.8712, 43.5731
0.892, -1, 35.7742, 48.3457, -13.8269, 97.109, -52.757, 43.6122
0.896, -1, 35.7836, 48.3297, -13.8501, 97.1401, -52.6444, 43.6508
0.9, -1, 35.7924, 48.3145, -13.8728, 97.1706, -52.534, 43.6887
0.904, -1, 35.8007, 48.3002, -13.895, 97.2003, -52.4264, 43.7256
0.908, -1, 35.8087, 48.2866, -13.9163, 97.229, -52.3226, 43.7613
0.912, -1, 35.8164, 48.2736, -13.9367, 97.2564, -52.2234, 43.7953
0.916, -1, 35.8238, 48.2613, -13.956, 97.2823, -52.1296, 43.8275
0.92, -1, 35.8309, 48.2497, -13.9741, 97.3065, -52.042, 43.8576
0.924, -1, 35.8377, 48.2387, -13.9907, 97.3288, -51.9612, 43.8853
0.928, -1, 35.8442, 48.2281, -14.0057, 97.3491, -51.888, 43.9104
0.932, -1, 35.8507, 48.2178, -14.0192, 97.3671, -51.8226, 43.9328
0.936, -1, 35.8571, 48.2077, -14.031, 97.3829, -51.7653, 43.9524
0.94, -1, 35.8634, 48.1979, -14.0412, 97.3966, -51.716, 43.9693
0.944, -1, 35.8695, 48.1884, -14.0498, 97.4081, -51.6743, 43.9836
0.948, -1, 35.8755, 48.1793, -14.0569, 97.4175, -51.6399, 43.9954
0.952, -1, 35.8812, 48.1708, -14.0626, 97.4252, -51.612, 44.0049
0.956, -1, 35.8865, 48.1631, -14.0672, 97.4313, -51.5899, 44.0124
0.96, -1, 35.8915, 48.1562, -14.0707, 97.436, -51.5728, 44.0183
0.964, -1, 35.896, 48.1502, -14.0734, 97.4396, -51.5598, 44.0227
0.968, -1, 35.9001, 48.145, -14.0754, 97.4422, -51.5503, 44.0259
0.972, -1, 35.9037, 48.1406, -14.0768, 97.4441, -51.5433, 44.0283
0.976, 2, 35.9067, 48.1371, -14.0778, 97.4454, -51.5385, 44.0299
0.98, 2, 35.9091, 48.1343, -14.0785, 97.4463, -51.5351, 44.0311
0.984, 2, 35.911, 48.1323, -14.079, 97.4469, -51.5327, 44.0319
0.988, 2, 35.9123, 48.1308, -14.0793, 97.4474, -51.5312, 44.0324
0.992, 2, 35.9132, 48.1299, -14.0796, 97.4477, -51.5301, 44.0328
0.996, 2, 35.9138, 48.1292, -14.0797, 97.4479, -51.5294, 44.033
1, 2, 35.9142, 48.1287, -14.0798, 97.448, -51.5289, 44.0332
1.004, 2, 35.9145, 48.1284, -14.0799, 97.4481, -51.5285, 44.0333
1.008, 2, 35.9147, 48.1282, -14.0799, 97.4482, -51.5283, 44.0334
1.012, 2, 35.9149, 48.1281, -14.08, 97.4482, -51.5282, 44.0334
1.016, 2, 35.9149, 48.128, -14.08, 97.4482, -51.5281, 44.0335
1.02, 2, 35.915, 48.1279, -14.08, 97.4482, -51.528, 44.0335
1.024, 2, 35.915, 48.1279, -14.08, 97.4483, -51.5279, 44.0335
1.027, 2, 35.9151, 48.1278, -14.08, 97.4483, -51.5279, 44.0335
1.032, 2, 35.9151, 48.1278, -14.08, 97.4483, -51.5279, 44.0335
1.036, 2, 35.9151, 48.1278, -14.08, 97.4483, -51.5279, 44.0335
1.04, 2, 35.9151, 48.1278, -14.08, 97.4483, -51.5279, 44.0335
1.044, 2, 35.9151, 48.1278, -14.08, 97.4483, -51.5279, 44.0335
1.048, 2, 35.9151, 48.1278, -14.08, 97.4483, -51.5279, 44.0335
1.052, 2, 35.9151, 48.1278, -14.08, 97.4483, -51.5278, 44.0335
1.055, 2, 35.9151, 48.1278, -14.08, 97.4483, -51.5278, 44.0335
1.06, 2, 35.9151, 48.1278, -14.08, 97.4483, -51.5278, 44.0335
1.064, 2, 35.9151, 48.1278, -14.08, 97.4483, -51.5278, 44.0335
1.068, 2, 35.9151, 48.1278, -14.08, 97.4483, -51.5278, 44.0335
1.072, 2, 35.9151, 48.1278, -14.08, 97.4483, -51.5278, 44.0335
1.076, 2, 35.9151, 48.1278, -14.08, 97.4483, -51.5278, 44.0335
1.08, 2, 35.9151, 48.1278, -14.08, 97.4483, -51.5278, 44.0335
1.084, 2, 35.9151, 48.1278, -14.08, 97.4483, -51.5278, 44.0335
1.088, 2, 35.9151, 48.1278, -14.08, 97.4483, -51.5278, 44.0335
1.091, 2, 35.9151, 48.1278, -14.08, 97.4483, -51.5278, 44.0335
1.096, 2, 35.9151, 48.1278, -14.08, 97.4483, -51.5278, 44.0335
1.1, 2, 35.9151, 48.1278, -14.08, 97.4483, -51.5278, 44.0335
1.104, 2, 35.9151, 48.1278, -14.08, 97.4483, -51.5278, 44.0335
1.108, 2, 35.9151, 48.1278, -14.08, 97.4483, -51.5278, 44.0335
1.112, 2, 35.9151, 48.1278, -14.08, 97.4483, -51.5278, 44.0335
1.116, 2, 35.9151, 48.1278, -14.08, 97.4483, -51.5278, 44.0335
1.119, 2, 35.9151, 48.1278, -14.08, 97.4483, -51.5278, 44.0335
1.124, 2, 35.9151, 48.1278, -14.08, 97.4483, -51.5278, 44.0335
1.128, 2, 35.9151, 48.1278, -14.08, 97.4483, -51.5278, 44.0335
1.132, 2, 35.9151, 48.1278, -14.08, 97.4483, -51.5278, 44.0335
1.136, 2, 35.9151, 48.1278, -14.08, 97.4483, -51.5278, 44.0335
1.14, 2, 35.9151, 48.1278, -14.08, 97.4483, -51.5278, 44.0335
1.144, 2, 35.9151, 48.1278, -14.08, 97.4483, -51.5278, 44.0335
1.147, 2, 35.9151, 48.1278, -14.08, 97.4483, -51.5278, 44.0335
1.152, 2, 35.9151, 48.1278, -14.08, 97.4483, -51.5278, 44.0335
1.156, 2, 35.9151, 48.1278, -14.08, 97.4483, -51.5278, 44.0335
1.16, 2, 35.9151, 48.1278, -14.08, 97.4483, -51.5278, 44.0335
1.164, 2, 35.9151, 48.1278, -14.08, 97.4483, -51.5278, 44.0335
1.168, 2, 35.9151, 48.1278, -14.08, 97.4483, -51.5278, 44.0335
1.172, 2, 35.9151, 48.1278, -14.08, 97.4483, -51.5278, 44.0335
1.175, 2, 35.9151, 48.1278, -14.08, 97.4483, -51.5278, 44.0335
1.18, 2, 35.9151, 48.1278, -14.08, 97.4483, -51.5278, 44.0335
1.184, 2, 35.9151, 48.1278, -14.08, 97.4483, -51.5278, 44.0335
1.188, 2, 35.9151, 48.1278, -14.08, 97.4483, -51.5278, 44.0335
1.192, 2, 35.9151, 48.1278, -14.08, 97.4483, -51.5278, 44.0335
1.196, 2, 35.9151, 48.1278, -14.08, 97.4483, -51.5278, 44.0335
1.2, 2, 35.9151, 48.1278, -14.08, 97.4483, -51.5278, 44.0335
1.204, 2, 35.9151, 48.1278, -14.08, 97.4483, -51.5278, 44.0335
1.208, 2, 35.9151, 48.1278, -14.08, 97.4483, -51.5278, 44.0335
1.212, 2, 35.9151, 48.1278, -14.08, 97.4483, -51.5278, 44.0335
1.216, 2, 35.9151, 48.1278, -14.08, 97.4483, -51.5278, 44.0335
1.22, 2, 35.9151, 48.1278, -14.08, 97.4483, -51.5278, 44.0335
1.224, 2, 35.9151, 48.1278, -14.08, 97.4483, -51.5278, 44.0335
1.228, 2, 35.9151, 48.1278, -14.08, 97.4483, -51.5278, 44.0335
1.232, 2, 35.9151, 48.1278, -14.08, 97.4483, -51.5278, 44.0335
1.236, 2, 35.9151, 48.1278, -14.08, 97.4483, -51.5278, 44.0335
1.24, 2, 35.9151, 48.1278, -14.08, 97.4483, -51.5278, 44.0335
1.244, 2, 35.9151, 48.1278, -14.08, 97.4483, -51.5278, 44.0335
1.248, 2, 35.9151, 48.1278, -14.08, 97.4483, -51.5278, 44.0335
1.252, 2, 35.9151, 48.1278, -14.08, 97.4483, -51.5278, 44.0335
1.256, 2, 35.9151, 48.1278, -14.08, 97.4483, -51.5278, 44.0335
1.26, 2, 35.9151, 48.1278, -14.08, 97.4483, -51.5278, 44.0335
1.264, 2, 35.9151, 48.1278, -14.08, 97.4483, -51.5278, 44.0335
1.267, 2, 35.9151, 48.1278, -14.08, 97.4483, -51.5278, 44.0335
1.272, 2, 35.9151, 48.1278, -14.08, 97.4483, -51.5278, 44.0335
1.276, 2, 35.9151, 48.1278, -14.08, 97.4483, -51.5278, 44.0335
1.28, 2, 35.9151, 48.1278, -14.08, 97.4483, -51.5278, 44.0335
1.284, 2, 35.9151, 48.1278, -14.08, 97.4483, -51.5278, 44.0335
1.288, 2, 35.9151, 48.1278, -14.08, 97.4483, -51.5278, 44.0335
1.292, 2, 35.9151, 48.1278, -14.08, 97.4483, -51.5278, 44.0335
1.295, 2, 35.9151, 48.1278, -14.08, 97.4483, -51.5278, 44.0335
1.3, 2, 35.9151, 48.1278, -14.08, 97.4483, -51.5278, 44.0335
1.304, 2, 35.9151, 48.1278, -14.08, 97.4483, -51.5278, 44.0335
1.308, 2, 35.9151, 48.1278, -14.08, 97.4483, -51.5278, 44.0335
1.312, 2, 35.9151, 48.1278, -14.08, 97.4483, -51.5278, 44.0335
1.316, 2, 35.9151, 48.1278, -14.08, 97.4483, -51.5278, 44.0335
1.32, 2, 35.9151, 48.1278, -14.08, 97.4483, -51.5278, 44.0335
1.324, 2, 35.9151, 48.1278, -14.08, 97.4483, -51.5278, 44.0335
1.328, 2, 35.9151, 48.1278, -14.08, 97.4483, -51.5278, 44.0335
1.332, 2, 35.9151, 48.1278, -14.08, 97.4483, -51.5278, 44.0335
1.336, 2, 35.9151, 48.1278, -14.08, 97.4483, -51.5278, 44.0335
1.34, 2, 35.9151, 48.1278, -14.08, 97.4483, -51.5278, 44.0335
1.344, 2, 35.9151, 48.1278, -14.08, 97.4483, -51.5278, 44.0335
1.348, 2, 35.9151, 48.1278, -14.08, 97.4483, -51.5278, 44.0335
1.352, 2, 35.9151, 48.1278, -14.08, 97.4483, -51.5278, 44.0335
1.356, 2, 35.9151, 48.1278, -14.08, 97.4483, -51.5278, 44.0335
1.36, 2, 35.9151, 48.1278, -14.08, 97.4483, -51.5278, 44.0335
1.364, 2, 35.9151, 48.1278, -14.08, 97.4483, -51.5278, 44.0335
1.368, 2, 35.9151, 48.1278, -14.08, 97.4483, -51.5278, 44.0335
1.372, 2, 35.9151, 48.1278, -14.08, 97.4483, -51.5278, 44.0335
1.376, 2, 35.9151, 48.1278, -14.08, 97.4483, -51.5278, 44.0335
1.38, 2, 35.9151, 48.1278, -14.08, 97.4483, -51.5278, 44.0335
1.384, 2, 35.9151, 48.1278, -14.08, 97.4483, -51.5278, 44.0335
1.388, 2, 35.9151, 48.1278, -14.08, 97.4483, -51.5278, 44.0335
1.392, 2, 35.9151, 48.1278, -14.08, 97.4483, -51.5278, 44.0335
1.396, 2, 35.9151, 48.1278, -14.08, 97.4483, -51.5278, 44.0335
1.4, 2, 35.9151, 48.1278, -14.08, 97.4483, -51.5278, 44.0335
1.404, 2, 35.9151, 48.1278, -14.08, 97.4483, -51.5278, 44.0335
1.408, 2, 35.9151, 48.1278, -14.08, 97.4483, -51.5278, 44.0335
1.412, 2, 35.9151, 48.1278, -14.08, 97.4483, -51.5278, 44.0335
1.416, 2, 35.9151, 48.1278, -14.08, 97.4483, -51.5278, 44.0335
1.42, 2, 35.9151, 48.1278, -14.08, 97.4483, -51.5278, 44.0335
1.424, 2, 35.9151, 48.1278, -14.08, 97.4483, -51.5278, 44.0335
1.428, 2, 35.9151, 48.1278, -14.08, 97.4483, -51.5278, 44.0335
1.432, 2, 35.9151, 48.1278, -14.08, 97.4483, -51.5278, 44.0335
1.436, 2, 35.9151, 48.1278, -14.08, 97.4483, -51.5278, 44.0335
1.44, 2, 35.9151, 48.1278, -14.08, 97.4483, -51.5278, 44.0335
1.444, 2, 35.9151, 48.1278, -14.08, 97.4483, -51.5278, 44.0335
1.448, 2, 35.9151, 48.1278, -14.08, 97.4483, -51.5278, 44.0335
1.452, 2, 35.9151, 48.1278, -14.08, 97.4483, -51.5278, 44.0335
1.456, 2, 35.9151, 48.1278, -14.08, 97.4483, -51.5278, 44.0335
1.46, 2, 35.9151, 48.1278, -14.08, 97.4483, -51.5278, 44.0335
1.464, 2, 35.9151, 48.1278, -14.08, 97.4483, -51.5278, 44.0335
1.468, 2, 35.9151, 48.1278, -14.08, 97.4483, -51.5278, 44.0335
1.472, 2, 35.9151, 48.1278, -14.08, 97.4483, -51.5278, 44.0335
1.476, 2, 35.9151, 48.1278, -14.08, 97.4483, -51.5278, 44.0335
1.48, 2, 35.9151, 48.1278, -14.08, 97.4483, -51.5278, 44.0335
1.484, 2, 35.9151, 48.1278, -14.08, 97.4483, -51.5278, 44.0335
1.488, 2, 35.9151, 48.1278, -14.08, 97.4483, -51.5278, 44.0335
1.492, 2, 35.9151, 48.1278, -14.08, 97.4483, -51.5278, 44.0335
1.496, 2, 35.9151, 48.1278, -14.08, 97.4483, -51.5278, 44.0335
1.5, 2, 35.9151, 48.1278, -14.08, 97.4483, -51.5278, 44.0335
1.504, 2, 35.9151, 48.1278, -14.08, 97.4483, -51.5278, 44.0335
1.508, 2, 35.9151, 48.1278, -14.08, 97.4483, -51.5278, 44.0335
1.512, 2, 35.9151, 48.1278, -14.08, 97.4483, -51.5278, 44.0335
1.516, 2, 35.9151, 48.1278, -14.08, 97.4483, -51.5278, 44.0335
1.52, 2, 35.9151, 48.1278, -14.08, 97.4483, -51.5278, 44.0335
1.524, 2, 35.9151, 48.1278, -14.08, 97.4483, -51.5278, 44.0335
1.528, 2, 35.9151, 48.1278, -14.08, 97.4483, -51.5278, 44.0335
1.532, 2, 35.9151, 48.1278, -14.08, 97.4483, -51.5278, 44.0335
1.536, 2, 35.9151, 48.1278, -14.08, 97.4483, -51.5278, 44.0335
1.54, 2, 35.9151, 48.1278, -14.08, 97.4483, -51.5278, 44.0335
1.544, 2, 35.9151, 48.1278, -14.08, 97.4483, -51.5278, 44.0335
1.548, 2, 35.9151, 48.1278, -14.08, 97.4483, -51.5278, 44.0335
1.552, 2, 35.9151, 48.1278, -14.08, 97.4483, -51.5278, 44.0335
1.556, 2, 35.9151, 48.1278, -14.08, 97.4483, -51.5278, 44.0335
1.56, 2, 35.9151, 48.1278, -14.08, 97.4483, -51.5278, 44.0335
1.564, 2, 35.9151, 48.1278, -14.08, 97.4483, -51.5278, 44.0335
1.568, 2, 35.9151, 48.1278, -14.08, 97.4483, -51.5278, 44.0335
1.572, 2, 35.9151, 48.1278, -14.08, 97.4483, -51.5278, 44.0335
1.576, 2, 35.9151, 48.1278, -14.08, 97.4483, -51.5278, 44.0335
1.58, 2, 35.9151, 48.1278, -14.08, 97.4483, -51.5278, 44.0335
1.584, 2, 35.9151, 48.1278, -14.08, 97.4483, -51.5278, 44.0335
1.588, 2, 35.9151, 48.1278, -14.08, 97.4483, -51.5278, 44.0335
1.592, 2, 35.9151, 48.1278, -14.08, 97.4483, -51.5278, 44.0335
1.596, 2, 35.9151, 48.1278, -14.08, 97.4483, -51.5278, 44.0335
1.6, 2, 35.9151, 48.1278, -14.08, 97.4483, -51.5278, 44.0335
1.604, 2, 35.9151, 48.1278, -14.08, 97.4483, -51.5278, 44.0335
1.608, 2, 35.9151, 48.1278, -14.08, 97.4483, -51.5278, 44.0335
1.612, 2, 35.9151, 48.1278, -14.08, 97.4483, -51.5278, 44.0335
1.616, 2, 35.9151, 48.1278, -14.08, 97.4483, -51.5278, 44.0335
1.62, 2, 35.9151, 48.1278, -14.08, 97.4483, -51.5278, 44.0335
1.624, 2, 35.9151, 48.1278, -14.08, 97.4483, -51.5278, 44.0335
1.628, 2, 35.9151, 48.1278, -14.08, 97.4483, -51.5278, 44.0335
1.632, 2, 35.9151, 48.1278, -14.08, 97.4483, -51.5278, 44.0335
1.636, 2, 35.9151, 48.1278, -14.08, 97.4483, -51.5278, 44.0335
1.64, 2, 35.9151, 48.1278, -14.08, 97.4483, -51.5278, 44.0335
1.644, 2, 35.9151, 48.1278, -14.08, 97.4483, -51.5278, 44.0335
1.648, 2, 35.9151, 48.1278, -14.08, 97.4483, -51.5278, 44.0335
1.652, 2, 35.9151, 48.1278, -14.08, 97.4483, -51.5278, 44.0335
1.656, 2, 35.9151, 48.1278, -14.08, 97.4483, -51.5278, 44.0335
1.66, 2, 35.9151, 48.1278, -14.08, 97.4483, -51.5278, 44.0335
1.664, 2, 35.9151, 48.1278, -14.08, 97.4483, -51.5278, 44.0335
1.668, 2, 35.9151, 48.1278, -14.08, 97.4483, -51.5278, 44.0335
1.672, 2, 35.9151, 48.1278, -14.08, 97.4483, -51.5278, 44.0335
1.676, 2, 35.9151, 48.1278, -14.08, 97.4483, -51.5278, 44.0335
1.68, 2, 35.9151, 48.1278, -14.08, 97.4483, -51.5278, 44.0335
1.684, 2, 35.9151, 48.1278, -14.08, 97.4483, -51.5278, 44.0335
1.688, 2, 35.9151, 48.1278, -14.08, 97.4483, -51.5278, 44.0335
1.692, 2, 35.9151, 48.1278, -14.08, 97.4483, -51.5278, 44.0335
1.696, 2, 35.9151, 48.1278, -14.08, 97.4483, -51.5278, 44.0335
1.7, 2, 35.9151, 48.1278, -14.08, 97.4483, -51.5278, 44.0335
1.704, 2, 35.9151, 48.1278, -14.08, 97.4483, -51.5278, 44.0335
1.708, 2, 35.9151, 48.1278, -14.08, 97.4483, -51.5278, 44.0335
1.712, 2, 35.9151, 48.1278, -14.08, 97.4483, -51.5278, 44.0335
1.716, 2, 35.9151, 48.1278, -14.08, 97.4483, -51.5278, 44.0335
1.72, 2, 35.9151, 48.1278, -14.08, 97.4483, -51.5278, 44.0335
1.724, 2, 35.9151, 48.1278, -14.08, 97.4483, -51.5278, 44.0335
1.728, 2, 35.9151, 48.1278, -14.08, 97.4483, -51.5278, 44.0335
1.732, 2, 35.9151, 48.1278, -14.08, 97.4483, -51.5278, 44.0335
1.736, 2, 35.9151, 48.1278, -14.08, 97.4483, -51.5278, 44.0335
1.74, 2, 35.9151, 48.1278, -14.08, 97.4483, -51.5278, 44.0335
1.744, 2, 35.9151, 48.1278, -14.08, 97.4483, -51.5278, 44.0335
1.748, 2, 35.9151, 48.1278, -14.08, 97.4483, -51.5278, 44.0335
1.752, 2, 35.9151, 48.1278, -14.08, 97.4483, -51.5278, 44.0335
1.756, 2, 35.9151, 48.1278, -14.08, 97.4483, -51.5278, 44.0335
1.76, 2, 35.9151, 48.1278, -14.08, 97.4483, -51.5278, 44.0335
1.764, 2, 35.9151, 48.1278, -14.08, 97.4483, -51.5278, 44.0335
1.768, 2, 35.9151, 48.1278, -14.08, 97.4483, -51.5278, 44.0335
1.772, 2, 35.9151, 48.1278, -14.08, 97.4483, -51.5278, 44.0335
1.776, 2, 35.9151, 48.1278, -14.08, 97.4483, -51.5278, 44.0335
1.78, 2, 35.9151, 48.1278, -14.08, 97.4483, -51.5278, 44.0335
1.784, 2, 35.9151, 48.1278, -14.08, 97.4483, -51.5278, 44.0335
1.788, 2, 35.9151, 48.1278, -14.08, 97.4483, -51.5278, 44.0335
1.792, 2, 35.9151, 48.1278, -14.08, 97.4483, -51.5278, 44.0335
1.796, 2, 35.9151, 48.1278, -14.08, 97.4483, -51.5278, 44.0335
1.8, 2, 35.9151, 48.1278, -14.08, 97.4483, -51.5278, 44.0335
1.804, 2, 35.9151, 48.1278, -14.08, 97.4483, -51.5278, 44.0335
1.808, 2, 35.9151, 48.1278, -14.08, 97.4483, -51.5278, 44.0335
1.812, 2, 35.9151, 48.1278, -14.08, 97.4483, -51.5278, 44.0335
1.816, 2, 35.9151, 48.1278, -14.08, 97.4483, -51.5278, 44.0335
1.82, 2, 35.9151, 48.1278, -14.08, 97.4483, -51.5278, 44.0335
1.824, 2, 35.9151, 48.1278, -14.08, 97.4483, -51.5278, 44.0335
1.828, 2, 35.9151, 48.1278, -14.08, 97.4483, -51.5278, 44.0335
1.832, 2, 35.9151, 48.1278, -14.08, 97.4483, -51.5278, 44.0335
1.836, 2, 35.9151, 48.1278, -14.08, 97.4483, -51.5278, 44.0335
1.84, 2, 35.9151, 48.1278, -14.08, 97.4483, -51.5278, 44.0335
1.844, 2, 35.9151, 48.1278, -14.08, 97.4483, -51.5278, 44.0335
1.848, 2, 35.9151, 48.1278, -14.08, 97.4483, -51.5278, 44.0335
1.852, 2, 35.9151, 48.1278, -14.08, 97.4483, -51.5278, 44.0335
1.856, 2, 35.9151, 48.1278, -14.08, 97.4483, -51.5278, 44.0335
1.86, 2, 35.9151, 48.1278, -14.08, 97.4483, -51.5278, 44.0335
1.864, 2, 35.9151, 48.1278, -14.08, 97.4483, -51.5278, 44.0335
1.868, 2, 35.9151, 48.1278, -14.08, 97.4483, -51.5278, 44.0335
1.872, 2, 35.9151, 48.1278, -14.08, 97.4483, -51.5278, 44.0335
1.876, 2, 35.9151, 48.1278, -14.08, 97.4483, -51.5278, 44.0335
1.88, 2, 35.9151, 48.1278, -14.08, 97.4483, -51.5278, 44.0335
1.884, 2, 35.9151, 48.1278, -14.08, 97.4483, -51.5278, 44.0335
1.888, 2, 35.9151, 48.1278, -14.08, 97.4483, -51.5278, 44.0335
1.892, 2, 35.9151, 48.1278, -14.08, 97.4483, -51.5278, 44.0335
1.896, 2, 35.9151, 48.1278, -14.08, 97.4483, -51.5278, 44.0335
1.9, 2, 35.9151, 48.1278, -14.08, 97.4483, -51.5278, 44.0335
1.904, 2, 35.9151, 48.1278, -14.08, 97.4483, -51.5278, 44.0335
1.908, 2, 35.9151, 48.1278, -14.08, 97.4483, -51.5278, 44.0335
1.912, 2, 35.9151, 48.1278, -14.08, 97.4483, -51.5278, 44.0335
1.916, 2, 35.9151, 48.1278, -14.08, 97.4483, -51.5278, 44.0335
1.92, 2, 35.9151, 48.1278, -14.08, 97.4483, -51.5278, 44.0335
1.924, 2, 35.9151, 48.1278, -14.08, 97.4483, -51.5278, 44.0335
1.928, 2, 35.9151, 48.1278, -14.08, 97.4483, -51.5278, 44.0335
1.932, 2, 35.9151, 48.1278, -14.08, 97.4483, -51.5278, 44.0335
1.936, 2, 35.9151, 48.1278, -14.08, 97.4483, -51.5278, 44.0335
1.94, 2, 35.9151, 48.1278, -14.08, 97.4483, -51.5278, 44.0335
1.944, 2, 35.9151, 48.1278, -14.08, 97.4483, -51.5278, 44.0335
1.948, 2, 35.9151, 48.1278, -14.08, 97.4483, -51.5278, 44.0335
1.952, 2, 35.9151, 48.1278, -14.08, 97.4483, -51.5278, 44.0335
1.956, 2, 35.9151, 48.1278, -14.08, 97.4483, -51.5278, 44.0335
1.96, 2, 35.9151, 48.1278, -14.08, 97.4483, -51.5278, 44.0335
1.964, 2, 35.9151, 48.1278, -14.08, 97.4483, -51.5278, 44.0335
1.968, 2, 35.9151, 48.1278, -14.08, 97.4483, -51.5278, 44.0335
1.972, 2, 35.9151, 48.1278, -14.08, 97.4483, -51.5278, 44.0335
1.976, 2, 35.9151, 48.1278, -14.08, 97.4483, -51.5278, 44.0335
1.98, 2, 35.9151, 48.1278, -14.08, 97.4483, -51.5278, 44.0335
1.984, 2, 35.9151, 48.1278, -14.08, 97.4483, -51.5278, 44.0335
1.988, 2, 35.9151, 48.1278, -14.08, 97.4483, -51.5278, 44.0335
1.992, 2, 35.9151, 48.1278, -14.08, 97.4483, -51.5278, 44.0335
1.996, 2, 35.9151, 48.1278, -14.08, 97.4483, -51.5278, 44.0335
1.999, 2, 35.9151, 48.1278, -14.08, 97.4483, -51.5278, 44.0335
2.004, 2, 35.9151, 48.1278, -14.08, 97.4483, -51.5278, 44.0335
2.008, 2, 35.9151, 48.1278, -14.08, 97.4483, -51.5278, 44.0335
2.012, 2, 35.9151, 48.1278, -14.08, 97.4483, -51.5278, 44.0335
2.015, 2, 35.9151, 48.1278, -14.08, 97.4483, -51.5278, 44.0335
2.019, 2, 35.9151, 48.1278, -14.08, 97.4483, -51.5278, 44.0335
2.024, 2, 35.9151, 48.1278, -14.08, 97.4483, -51.5278, 44.0335
2.028, 2, 35.9151, 48.1278, -14.08, 97.4483, -51.5278, 44.0335
2.031, 4, 35.9151, 48.1278, -14.08, 97.4483, -51.5278, 44.0335
2.036, 4, 35.9151, 48.1278, -14.08, 97.4483, -51.5278, 44.0335
2.04, 4, 35.9151, 48.1278, -14.08, 97.4483, -51.5278, 44.0335
2.044, 4, 35.9151, 48.1278, -14.08, 97.4483, -51.5278, 44.0335
2.048, 4, 35.9151, 48.1278, -14.08, 97.4483, -51.5278, 44.0335
2.051, 4, 35.9151, 48.1278, -14.08, 97.4483, -51.5278, 44.0335
2.055, 4, 35.9151, 48.1278, -14.08, 97.4483, -51.5278, 44.0335
2.06, 4, 35.9151, 48.1278, -14.08, 97.4483, -51.5278, 44.0335
2.064, 4, 35.9151, 48.1278, -14.08, 97.4483, -51.5278, 44.0335
2.068, 4, 35.9151, 48.1278, -14.08, 97.4483, -51.5278, 44.0335
2.071, 4, 35.9151, 48.1278, -14.08, 97.4483, -51.5278, 44.0335
2.076, 4, 35.9151, 48.1278, -14.08, 97.4483, -51.5278, 44.0335
2.08, 4, 35.9151, 48.1278, -14.08, 97.4483, -51.5278, 44.0335
2.084, 4, 35.9151, 48.1278, -14.08, 97.4483, -51.5278, 44.0335
2.087, 4, 35.9151, 48.1278, -14.08, 97.4483, -51.5278, 44.0335
2.092, 4, 35.9151, 48.1278, -14.08, 97.4483, -51.5278, 44.0335
2.096, 4, 35.9151, 48.1278, -14.08, 97.4483, -51.5278, 44.0335
2.1, 4, 35.9151, 48.1278, -14.08, 97.4483, -51.5278, 44.0335
2.104, 4, 35.9151, 48.1278, -14.08, 97.4483, -51.5278, 44.0335
2.107, 4, 35.9151, 48.1278, -14.08, 97.4483, -51.5278, 44.0335
2.111, 4, 35.9151, 48.1278, -14.08, 97.4483, -51.5278, 44.0335
2.116, 4, 35.9151, 48.1278, -14.08, 97.4483, -51.5278, 44.0335
2.12, 4, 35.9151, 48.1278, -14.08, 97.4483, -51.5278, 44.0335
2.124, 4, 35.9151, 48.1278, -14.08, 97.4483, -51.5278, 44.0335
2.127, 4, 35.9151, 48.1278, -14.08, 97.4483, -51.5278, 44.0335
2.132, 4, 35.9151, 48.1278, -14.08, 97.4483, -51.5278, 44.0335
2.138, 4, 35.9151, 48.1278, -14.08, 97.4483, -51.5278, 44.0335
2.14, 4, 35.9151, 48.1278, -14.08, 97.4483, -51.5278, 44.0335
2.143, 4, 35.9151, 48.1278, -14.08, 97.4483, -51.5278, 44.0335
2.148, 4, 35.9151, 48.1278, -14.08, 97.4483, -51.5278, 44.0335
2.152, 4, 35.9151, 48.1278, -14.08, 97.4483, -51.5278, 44.0335
2.156, 4, 35.9151, 48.1278, -14.08, 97.4483, -51.5278, 44.0335
2.16, 4, 35.9151, 48.1278, -14.08, 97.4483, -51.5278, 44.0335
2.163, 4, 35.9151, 48.1278, -14.08, 97.4483, -51.5278, 44.0335
2.168, 4, 35.9151, 48.1278, -14.08, 97.4483, -51.5278, 44.0335
2.172, 4, 35.915, 48.128, -14.08, 97.4483, -51.5279, 44.0335
2.176, 4, 35.9148, 48.1283, -14.08, 97.4483, -51.5279, 44.0335
2.179, 4, 35.9144, 48.1291, -14.08, 97.4483, -51.5281, 44.0334
2.184, 4, 35.9137, 48.1303, -14.08, 97.4482, -51.5284, 44.0333
2.188, 4, 35.9128, 48.1322, -14.0799, 97.4481, -51.5292, 44.033
2.192, 4, 35.9115, 48.1347, -14.0798, 97.4478, -51.5306, 44.0325
2.196, 4, 35.9099, 48.1381, -14.0797, 97.4474, -51.533, 44.0316
2.199, 4, 35.9081, 48.1423, -14.0795, 97.4468, -51.5369, 44.0301
2.204, 5, 35.906, 48.1476, -14.0792, 97.4458, -51.5428, 44.0278
2.208, 5, 35.9036, 48.1542, -14.0787, 97.4444, -51.5514, 44.0246
2.212, 5, 35.9009, 48.1621, -14.078, 97.4424, -51.5635, 44.02
2.216, 5, 35.8978, 48.1715, -14.0772, 97.4396, -51.5798, 44.0138
2.219, 5, 35.8945, 48.1824, -14.076, 97.4359, -51.6013, 44.0056
2.224, 5, 35.8909, 48.1948, -14.0746, 97.4312, -51.6288, 43.9951
2.228, 5, 35.8873, 48.2083, -14.0727, 97.4253, -51.6634, 43.982
2.232, 5, 35.8835, 48.2229, -14.0705, 97.418, -51.7058, 43.9659
2.235, 5, 35.8798, 48.2384, -14.0677, 97.4092, -51.7566, 43.9466
2.24, 5, 35.8761, 48.2549, -14.0645, 97.3988, -51.8163, 43.924
2.244, 5, 35.8724, 48.2724, -14.0607, 97.3867, -51.8849, 43.8979
2.248, 5, 35.8686, 48.2909, -14.0564, 97.373, -51.9625, 43.8686
2.252, 5, 35.8648, 48.3106, -14.0515, 97.3577, -52.0488, 43.8359
2.255, 5, 35.8608, 48.3315, -14.046, 97.3409, -52.1433, 43.8002
2.259, 5, 35.8567, 48.3535, -14.0401, 97.3225, -52.2454, 43.7617
2.264, 5, 35.8525, 48.3767, -14.0336, 97.3028, -52.3544, 43.7207
2.268, 5, 35.8481, 48.4009, -14.0266, 97.2819, -52.4693, 43.6775
2.272, 5, 35.8434, 48.4263, -14.0192, 97.2599, -52.5893, 43.6324
2.275, 5, 35.8385, 48.4528, -14.0113, 97.237, -52.7135, 43.5859
2.28, 5, 35.8331, 48.4806, -14.003, 97.2133, -52.8408, 43.5382
2.284, 5, 35.8273, 48.5097, -13.9944, 97.1889, -52.9706, 43.4898
2.288, 5, 35.8209, 48.5399, -13.9855, 97.1641, -53.1021, 43.4408
2.291, 5, 35.8142, 48.5712, -13.9762, 97.1387, -53.2348, 43.3914
2.296, 5, 35.807, 48.6033, -13.9667, 97.113, -53.3684, 43.3418
2.3, 5, 35.7995, 48.636, -13.9569, 97.087, -53.5024, 43.2921
2.304, 5, 35.7917, 48.669, -13.9469, 97.0607, -53.6368, 43.2424
2.308, 5, 35.7838, 48.7021, -13.9365, 97.0341, -53.7714, 43.1928
2.311, 5, 35.7757, 48.7354, -13.926, 97.0072, -53.9061, 43.1432
2.316, 5, 35.7675, 48.7687, -13.9152, 96.9801, -54.0408, 43.0937
2.32, 5, 35.7592, 48.802, -13.9041, 96.9528, -54.1755, 43.0443
2.324, 5, 35.7508, 48.8352, -13.8928, 96.9253, -54.3102, 42.9949
2.328, 5, 35.7423, 48.8683, -13.8813, 96.8975, -54.4449, 42.9457
2.331, 5, 35.7337, 48.9013, -13.8695, 96.8695, -54.5794, 42.8967
2.336, 5, 35.725, 48.9342, -13.8574, 96.8412, -54.714, 42.8477
2.34, 5, 35.7162, 48.9669, -13.8452, 96.8128, -54.8484, 42.7989
2.344, 5, 35.7073, 48.9995, -13.8327, 96.7841, -54.9828, 42.7501
2.347, 5, 35.6984, 49.032, -13.8199, 96.7553, -55.1171, 42.7015
2.352, 5, 35.6894, 49.0644, -13.8069, 96.7262, -55.2513, 42.6531
2.356, 5, 35.6803, 49.0966, -13.7937, 96.6969, -55.3854, 42.6047
2.36, 5, 35.6711, 49.1287, -13.7802, 96.6674, -55.5194, 42.5564
2.364, 5, 35.6619, 49.1607, -13.7665, 96.6377, -55.6534, 42.5083
2.367, 5, 35.6526, 49.1925, -13.7525, 96.6078, -55.7872, 42.4603
2.372, 5, 35.6432, 49.2242, -13.7383, 96.5777, -55.921, 42.4124
2.376, 5, 35.6337, 49.2557, -13.7238, 96.5474, -56.0547, 42.3646
2.38, 5, 35.6241, 49.2871, -13.7091, 96.5169, -56.1883, 42.3169
2.383, 5, 35.6145, 49.3184, -13.6942, 96.4862, -56.3218, 42.2693
2.388, 5, 35.6048, 49.3495, -13.679, 96.4553, -56.4553, 42.2218
2.392, 5, 35.595, 49.3805, -13.6636, 96.4242, -56.5886, 42.1745
2.396, 5, 35.5852, 49.4113, -13.6479, 96.3929, -56.7219, 42.1272
2.4, 5, 35.5752, 49.442, -13.632, 96.3614, -56.8551, 42.08
2.403, 5, 35.5652, 49.4725, -13.6159, 96.3297, -56.9882, 42.033
2.408, 5, 35.5551, 49.5029, -13.5995, 96.2979, -57.1212, 41.986
2.412, 5, 35.545, 49.5332, -13.5828, 96.2658, -57.2542, 41.9391
2.416, 5, 35.5347, 49.5633, -13.566, 96.2335, -57.387, 41.8924
2.42, 5, 35.5244, 49.5933, -13.5488, 96.2011, -57.5198, 41.8457
2.423, 5, 35.514, 49.6231, -13.5315, 96.1684, -57.6525, 41.7992
2.428, 5, 35.5036, 49.6528, -13.5139, 96.1356, -57.7851, 41.7527
2.432, 5, 35.493, 49.6824, -13.496, 96.1026, -57.9176, 41.7063
2.436, 5, 35.4824, 49.7118, -13.4779, 96.0694, -58.0501, 41.66
2.439, 5, 35.4717, 49.741, -13.4596, 96.0361, -58.1824, 41.6138
2.444, 5, 35.461, 49.7701, -13.441, 96.0025, -58.3147, 41.5677
2.448, 5, 35.4501, 49.7991, -13.4222, 95.9688, -58.4469, 41.5217
2.452, 5, 35.4392, 49.8279, -13.4032, 95.9349, -58.579, 41.4758
2.456, 5, 35.4282, 49.8566, -13.3839, 95.9008, -58.7111, 41.4299
2.459, 5, 35.4171, 49.8851, -13.3643, 95.8665, -58.843, 41.3841
2.464, 5, 35.406, 49.9135, -13.3445, 95.8321, -58.9749, 41.3385
2.468, 5, 35.3948, 49.9417, -13.3245, 95.7974, -59.1067, 41.2929
2.472, 5, 35.3835, 49.9698, -13.3042, 95.7626, -59.2384, 41.2474
2.476, 5, 35.3721, 49.9977, -13.2837, 95.7277, -59.37, 41.2019
2.479, 5, 35.3607, 50.0255, -13.2629, 95.6925, -59.5016, 41.1566
2.484, 5, 35.3492, 50.0531, -13.2419, 95.6572, -59.633, 41.1113
2.488, 5, 35.3376, 50.0806, -13.2207, 95.6217, -59.7644, 41.0661
2.492, 5, 35.3259, 50.1079, -13.1992, 95.5861, -59.8957, 41.021
2.495, 5, 35.3142, 50.1351, -13.1774, 95.5502, -60.027, 40.9759
2.5, 5, 35.3023, 50.1621, -13.1554, 95.5143, -60.1581, 40.9309
2.504, 5, 35.2905, 50.189, -13.1332, 95.4781, -60.2892, 40.886
2.508, 5, 35.2785, 50.2158, -13.1107, 95.4418, -60.4201, 40.8412
2.512, 5, 35.2665, 50.2423, -13.088, 95.4053, -60.5511, 40.7964
2.515, 5, 35.2543, 50.2688, -13.065, 95.3687, -60.6819, 40.7517
2.52, 5, 35.2422, 50.295, -13.0418, 95.3318, -60.8126, 40.7071
2.524, 5, 35.2299, 50.3211, -13.0184, 95.2949, -60.9433, 40.6625
2.528, 5, 35.2176, 50.3471, -12.9947, 95.2577, -61.0739, 40.618
2.531, 5, 35.2052, 50.3729, -12.9707, 95.2205, -61.2044, 40.5736
2.536, 5, 35.1927, 50.3986, -12.9465, 95.183, -61.3348, 40.5292
2.54, 5, 35.1801, 50.4241, -12.9221, 95.1454, -61.4652, 40.4849
2.544, 5, 35.1675, 50.4494, -12.8974, 95.1076, -61.5954, 40.4406
2.548, 5, 35.1548, 50.4746, -12.8725, 95.0697, -61.7256, 40.3964
2.551, 5, 35.142, 50.4996, -12.8473, 95.0316, -61.8557, 40.3523
2.556, 5, 35.1291, 50.5245, -12.8218, 94.9934, -61.9858, 40.3082
2.56, 5, 35.1162, 50.5493, -12.7962, 94.955, -62.1157, 40.2642
2.564, 5, 35.1032, 50.5738, -12.7702, 94.9165, -62.2456, 40.2203
2.568, 5, 35.0902, 50.5982, -12.7441, 94.8778, -62.3754, 40.1763
2.571, 5, 35.077, 50.6225, -12.7176, 94.839, -62.5051, 40.1325
2.576, 5, 35.0638, 50.6466, -12.691, 94.8, -62.6348, 40.0887
2.58, 5, 35.0505, 50.6705, -12.6641, 94.7608, -62.7644, 40.0449
2.584, 5, 35.0372, 50.6943, -12.6369, 94.7215, -62.8939, 40.0012
2.587, 5, 35.0238, 50.7178, -12.6095, 94.6821, -63.0233, 39.9576
2.592, 5, 35.0106, 50.7411, -12.5819, 94.6425, -63.1526, 39.914
2.596, 5, 34.9975, 50.764, -12.554, 94.6028, -63.2818, 39.8704
2.6, 5, 34.9847, 50.7863, -12.526, 94.563, -63.4108, 39.827
2.604, 5, 34.9724, 50.8079, -12.4977, 94.5231, -63.5394, 39.7837
2.607, 5, 34.9607, 50.8283, -12.4693, 94.4832, -63.6675, 39.7406
2.612, 5, 34.9497, 50.8476, -12.441, 94.4435, -63.7947, 39.6978
2.616, 5, 34.9392, 50.8657, -12.4127, 94.404, -63.9206, 39.6555
2.62, 5, 34.9293, 50.8827, -12.3846, 94.365, -64.0444, 39.6138
2.624, 5, 34.9199, 50.8987, -12.3569, 94.3267, -64.1656, 39.5731
2.627, 5, 34.9108, 50.9139, -12.3299, 94.2894, -64.2833, 39.5335
2.632, 5, 34.902, 50.9284, -12.3038, 94.2534, -64.3966, 39.4955
2.636, 5, 34.8934, 50.9423, -12.2787, 94.219, -64.5045, 39.4592
2.64, 5, 34.8852, 50.9555, -12.2549, 94.1865, -64.6064, 39.425
2.643, 5, 34.8773, 50.9681, -12.2326, 94.1561, -64.7012, 39.3932
2.648, 5, 34.8696, 50.9802, -12.212, 94.1281, -64.7884, 39.3639
2.652, 5, 34.8622, 50.9917, -12.1933, 94.1027, -64.8674, 39.3374
2.656, 5, 34.8549, 51.0029, -12.1765, 94.08, -64.9379, 39.3137
2.66, 5, 34.8478, 51.0139, -12.1617, 94.0601, -64.9996, 39.293
2.663, 5, 34.8408, 51.0245, -12.1489, 94.0429, -65.0528, 39.2752
2.668, 5, 34.8339, 51.0348, -12.138, 94.0284, -65.0977, 39.2601
2.672, 5, 34.8274, 51.0446, -12.1289, 94.0164, -65.135, 39.2476
2.676, 5, 34.8213, 51.0539, -12.1215, 94.0066, -65.1653, 39.2375
2.679, 5, 34.8156, 51.0626, -12.1156, 93.9987, -65.1895, 39.2294
2.685, 5, 34.8103, 51.0706, -12.1109, 93.9927, -65.2083, 39.2231
2.688, 5, 34.8055, 51.0779, -12.1074, 93.988, -65.2226, 39.2183
2.692, 5, 34.8012, 51.0844, -12.1047, 93.9846, -65.2333, 39.2148
2.696, 5, 34.7973, 51.09, -12.1027, 93.9821, -65.241, 39.2122
2.699, 5, 34.794, 51.0946, -12.1013, 93.9803, -65.2465, 39.2104
2.704, 5, 34.7913, 51.0983, -12.1004, 93.9791, -65.2504, 39.2091
2.708, 5, 34.7892, 51.101, -12.0997, 93.9782, -65.253, 39.2082
2.712, 5, 34.7877, 51.1029, -12.0992, 93.9776, -65.2548, 39.2076
2.716, 5, 34.7866, 51.1043, -12.0989, 93.9772, -65.2561, 39.2072
2.719, 5, 34.7857, 51.1053, -12.0987, 93.977, -65.2569, 39.2069
2.724, 5, 34.7848, 51.1063, -12.0985, 93.9768, -65.2575, 39.2067
2.728, 5, 34.7837, 51.1074, -12.0984, 93.9766, -65.2581, 39.2065
2.732, 5, 34.7822, 51.1088, -12.0983, 93.9764, -65.2588, 39.2063
2.735, 5, 34.7803, 51.1107, -12.0981, 93.9762, -65.2599, 39.2059
2.74, 5, 34.7779, 51.1132, -12.0977, 93.9757, -65.2617, 39.2053
2.744, 5, 34.7751, 51.1164, -12.0972, 93.975, -65.2648, 39.2042
2.748, 5, 34.7718, 51.1203, -12.0964, 93.9739, -65.2697, 39.2026
2.752, 6, 34.7681, 51.1251, -12.0951, 93.9723, -65.277, 39.2001
2.755, 6, 34.764, 51.1308, -12.0933, 93.9699, -65.2874, 39.1965
2.76, 6, 34.7594, 51.1374, -12.0908, 93.9666, -65.3018, 39.1915
2.764, 6, 34.7543, 51.145, -12.0875, 93.9621, -65.321, 39.1849
2.768, 6, 34.7486, 51.1536, -12.0831, 93.9564, -65.346, 39.1763
2.772, 6, 34.7426, 51.163, -12.0776, 93.949, -65.3775, 39.1654
2.775, 6, 34.7362, 51.1731, -12.0707, 93.94, -65.4165, 39.152
2.78, 6, 34.7295, 51.1837, -12.0624, 93.929, -65.4634, 39.1358
2.784, 6, 34.7227, 51.1947, -12.0525, 93.916, -65.519, 39.1166
2.788, 6, 34.7156, 51.2061, -12.041, 93.9008, -65.5833, 39.0945
2.791, 6, 34.7083, 51.2179, -12.0278, 93.8836, -65.6563, 39.0693
2.796, 6, 34.7007, 51.2303, -12.013, 93.8643, -65.738, 39.0413
2.8, 6, 34.6926, 51.2434, -11.9967, 93.8429, -65.8278, 39.0104
2.804, 6, 34.6842, 51.2572, -11.9789, 93.8197, -65.9251, 38.9769
2.808, 6, 34.6753, 51.2717, -11.9597, 93.7948, -66.0293, 38.9412
2.811, 6, 34.666, 51.287, -11.9392, 93.7683, -66.1396, 38.9033
2.816, 6, 34.6563, 51.3029, -11.9176, 93.7404, -66.2551, 38.8637
2.82, 6, 34.6461, 51.3197, -11.8951, 93.7113, -66.3749, 38.8227
2.824, 6, 34.6353, 51.3372, -11.8717, 93.6813, -66.4982, 38.7805
2.828, 6, 34.6238, 51.3556, -11.8477, 93.6505, -66.6242, 38.7375
2.831, 6, 34.6117, 51.3748, -11.823, 93.619, -66.7522, 38.6938
2.836, 6, 34.5989, 51.3947, -11.7979, 93.587, -66.8816, 38.6496
2.84, 6, 34.5854, 51.4153, -11.7724, 93.5546, -67.012, 38.6052
2.844, 6, 34.5715, 51.4363, -11.7465, 93.5218, -67.143, 38.5606
2.847, 6, 34.5571, 51.4576, -11.7203, 93.4888, -67.2745, 38.516
2.852, 6, 34.5425, 51.479, -11.6938, 93.4555, -67.4062, 38.4712
2.856, 6, 34.5276, 51.5005, -11.6671, 93.422, -67.5381, 38.4265
2.86, 6, 34.5126, 51.522, -11.64, 93.3882, -67.6701, 38.3818
2.864, 6, 34.4974, 51.5434, -11.6128, 93.3543, -67.8022, 38.3371
2.867, 6, 34.4821, 51.5647, -11.5853, 93.3202, -67.9342, 38.2925
2.872, 6, 34.4667, 51.5859, -11.5575, 93.2859, -68.0663, 38.2479
2.876, 6, 34.4512, 51.6069, -11.5295, 93.2514, -68.1983, 38.2034
2.88, 6, 34.4356, 51.6279, -11.5013, 93.2168, -68.3302, 38.1589
2.883, 6, 34.42, 51.6487, -11.4728, 93.182, -68.4622, 38.1144
2.888, 6, 34.4042, 51.6694, -11.4441, 93.147, -68.594, 38.0701
2.892, 6, 34.3884, 51.6899, -11.4151, 93.1118, -68.7259, 38.0258
2.896, 6, 34.3725, 51.7102, -11.3859, 93.0765, -68.8576, 37.9815
2.9, 6, 34.3566, 51.7304, -11.3565, 93.041, -68.9893, 37.9373
2.903, 6, 34.3405, 51.7505, -11.3269, 93.0054, -69.121, 37.8932
2.908, 6, 34.3244, 51.7704, -11.297, 92.9696, -69.2526, 37.8491
2.912, 6, 34.3083, 51.7901, -11.2669, 92.9336, -69.3842, 37.8051
2.916, 6, 34.292, 51.8097, -11.2365, 92.8974, -69.5156, 37.7611
2.92, 6, 34.2757, 51.8292, -11.2059, 92.8611, -69.6471, 37.7172
2.923, 6, 34.2593, 51.8485, -11.1751, 92.8247, -69.7785, 37.6733
2.928, 6, 34.2429, 51.8676, -11.1441, 92.788, -69.9098, 37.6295
2.932, 6, 34.2264, 51.8866, -11.1128, 92.7512, -70.041, 37.5857
2.936, 6, 34.2098, 51.9054, -11.0813, 92.7143, -70.1722, 37.542
2.939, 6, 34.1931, 51.924, -11.0495, 92.6772, -70.3034, 37.4983
2.944, 6, 34.1764, 51.9425, -11.0176, 92.6399, -70.4345, 37.4547
2.948, 6, 34.1596, 51.9609, -10.9854, 92.6025, -70.5655, 37.4111
2.952, 6, 34.1427, 51.9791, -10.9529, 92.5649, -70.6965, 37.3676
2.956, 6, 34.1258, 51.9971, -10.9202, 92.5271, -70.8274, 37.3241
2.959, 6, 34.1088, 52.015, -10.8873, 92.4893, -70.9583, 37.2806
2.964, 6, 34.0917, 52.0327, -10.8542, 92.4512, -71.0891, 37.2372
2.968, 6, 34.0745, 52.0503, -10.8209, 92.413, -71.2198, 37.1939
2.972, 6, 34.0573, 52.0677, -10.7873, 92.3746, -71.3505, 37.1505
2.976, 6, 34.04, 52.0849, -10.7534, 92.3361, -71.4812, 37.1072
2.98, 6, 34.0227, 52.102, -10.7194, 92.2974, -71.6118, 37.064
2.984, 6, 34.0053, 52.119, -10.6851, 92.2586, -71.7423, 37.0208
2.988, 6, 33.9878, 52.1357, -10.6506, 92.2196, -71.8728, 36.9776
2.992, 6, 33.9702, 52.1523, -10.6159, 92.1805, -72.0032, 36.9344
2.995, 6, 33.9526, 52.1688, -10.5809, 92.1412, -72.1336, 36.8913
3, 6, 33.9349, 52.1851, -10.5457, 92.1018, -72.2639, 36.8482
3.004, 6, 33.9171, 52.2012, -10.5103, 92.0622, -72.3941, 36.8052
3.008, 6, 33.8993, 52.2172, -10.4746, 92.0225, -72.5243, 36.7622
3.012, 6, 33.8814, 52.233, -10.4387, 91.9826, -72.6545, 36.7192
3.015, 6, 33.8634, 52.2487, -10.4026, 91.9426, -72.7846, 36.6762
3.02, 6, 33.8454, 52.2642, -10.3663, 91.9024, -72.9146, 36.6333
3.024, 6, 33.8273, 52.2795, -10.3297, 91.8621, -73.0446, 36.5904
3.028, 6, 33.8091, 52.2947, -10.2929, 91.8217, -73.1745, 36.5475
3.031, 6, 33.7909, 52.3097, -10.2559, 91.7811, -73.3044, 36.5046
3.036, 6, 33.7726, 52.3246, -10.2187, 91.7403, -73.4342, 36.4618
3.04, 6, 33.7542, 52.3392, -10.1812, 91.6994, -73.564, 36.419
3.044, 6, 33.7357, 52.3538, -10.1435, 91.6584, -73.6937, 36.3762
3.048, 6, 33.7172, 52.3681, -10.1056, 91.6172, -73.8234, 36.3334
3.051, 6, 33.6986, 52.3823, -10.0674, 91.5759, -73.953, 36.2906
3.056, 6, 33.68, 52.3964, -10.029, 91.5344, -74.0825, 36.2479
3.06, 6, 33.6613, 52.4102, -9.99041, 91.4928, -74.212, 36.2052
3.064, 6, 33.6425, 52.424, -9.95157, 91.451, -74.3415, 36.1625
3.068, 6, 33.6236, 52.4375, -9.91251, 91.4091, -74.4709, 36.1198
3.071, 6, 33.6047, 52.4509, -9.87321, 91.3671, -74.6002, 36.0771
3.076, 6, 33.5857, 52.4641, -9.83369, 91.3249, -74.7295, 36.0345
3.08, 6, 33.5667, 52.4772, -9.79395, 91.2826, -74.8587, 35.9918
3.084, 6, 33.5476, 52.49, -9.75397, 91.2402, -74.9879, 35.9492
3.087, 6, 33.5284, 52.5028, -9.71377, 91.1976, -75.1171, 35.9066
3.092, 6, 33.5091, 52.5153, -9.67335, 91.1549, -75.2461, 35.864
3.096, 6, 33.4898, 52.5277, -9.63269, 91.112, -75.3752, 35.8214
3.1, 6, 33.4704, 52.54, -9.59181, 91.069, -75.5042, 35.7788
3.104, 6, 33.451, 52.552, -9.55071, 91.0259, -75.6331, 35.7362
3.107, 6, 33.4314, 52.5639, -9.50938, 90.9826, -75.7619, 35.6936
3.112, 6, 33.4118, 52.5756, -9.46782, 90.9392, -75.8908, 35.651
3.116, 6, 33.3922, 52.5872, -9.42604, 90.8956, -76.0195, 35.6084
3.12, 6, 33.3725, 52.5986, -9.38404, 90.8519, -76.1483, 35.5658
3.124, 6, 33.3527, 52.6098, -9.34181, 90.8081, -76.2769, 35.5233
3.128, 6, 33.3329, 52.6209, -9.29935, 90.7642, -76.4056, 35.4807
3.132, 6, 33.3131, 52.6317, -9.25668, 90.7201, -76.5341, 35.4381
3.136, 6, 33.2936, 52.6423, -9.2138, 90.6759, -76.6626, 35.3956
3.14, 6, 33.2744, 52.6525, -9.17073, 90.6316, -76.791, 35.353
3.143, 6, 33.2557, 52.6623, -9.1275, 90.5872, -76.9191, 35.3105
3.148, 6, 33.2375, 52.6715, -9.08418, 90.5428, -77.0469, 35.2681
3.152, 6, 33.2198, 52.6801, -9.04084, 90.4984, -77.174, 35.2259
3.156, 6, 33.2028, 52.688, -8.99762, 90.4543, -77.3002, 35.184
3.16, 6, 33.1863, 52.6951, -8.95467, 90.4105, -77.4251, 35.1425
3.163, 6, 33.1702, 52.7015, -8.91218, 90.3672, -77.548, 35.1016
3.168, 6, 33.1547, 52.7072, -8.87038, 90.3247, -77.6685, 35.0616
3.172, 6, 33.1397, 52.7122, -8.82952, 90.2832, -77.7858, 35.0225
3.176, 6, 33.1253, 52.7168, -8.78989, 90.243, -77.8991, 34.9848
3.179, 6, 33.1116, 52.721, -8.7518, 90.2044, -78.0076, 34.9486
3.184, 6, 33.0986, 52.725, -8.71554, 90.1677, -78.1106, 34.9143
3.188, 6, 33.0862, 52.7289, -8.68141, 90.1332, -78.2071, 34.8821
3.192, 6, 33.0743, 52.7329, -8.64969, 90.1012, -78.2967, 34.8522
3.196, 6, 33.0629, 52.7369, -8.62059, 90.0718, -78.3785, 34.8249
3.199, 6, 33.0519, 52.7412, -8.5943, 90.0454, -78.4522, 34.8003
3.204, 6, 33.0414, 52.7457, -8.57089, 90.0219, -78.5177, 34.7785
3.208, 6, 33.0313, 52.7504, -8.55039, 90.0013, -78.5748, 34.7594
3.212, 6, 33.0218, 52.7554, -8.53274, 89.9837, -78.6239, 34.743
3.216, 6, 33.0128, 52.7606, -8.51782, 89.9688, -78.6652, 34.7293
3.22, 6, 33.0045, 52.7658, -8.50545, 89.9565, -78.6993, 34.7179
3.224, 6, 32.9968, 52.7711, -8.49541, 89.9465, -78.727, 34.7086
3.228, 6, 32.9897, 52.7763, -8.48743, 89.9386, -78.7489, 34.7014
3.232, 6, 32.9831, 52.7812, -8.48124, 89.9325, -78.7658, 34.6957
3.235, 6, 32.9771, 52.7857, -8.47655, 89.9279, -78.7785, 34.6915
3.24, 6, 32.9718, 52.7896, -8.47309, 89.9246, -78.7879, 34.6884
3.244, 7, 32.9671, 52.7929, -8.4706, 89.9222, -78.7946, 34.6861
3.248, 7, 32.9633, 52.7955, -8.46884, 89.9205, -78.7994, 34.6846
3.252, 7, 32.9602, 52.7974, -8.46762, 89.9193, -78.8026, 34.6835
3.255, 7, 32.9579, 52.7989, -8.46678, 89.9185, -78.8049, 34.6828
3.26, 7, 32.9563, 52.7999, -8.46621, 89.918, -78.8064, 34.6823
3.264, 7, 32.9552, 52.8005, -8.46583, 89.9176, -78.8074, 34.6819
3.268, 7, 32.9544, 52.801, -8.46557, 89.9174, -78.8081, 34.6817
3.272, 7, 32.9539, 52.8013, -8.46539, 89.9172, -78.8086, 34.6815
3.276, 7, 32.9536, 52.8015, -8.46527, 89.9171, -78.8089, 34.6814
3.28, 7, 32.9533, 52.8017, -8.46519, 89.917, -78.8091, 34.6814
3.284, 7, 32.9532, 52.8018, -8.46513, 89.9169, -78.8092, 34.6813
3.288, 7, 32.9531, 52.8018, -8.4651, 89.9169, -78.8093, 34.6813
3.291, 7, 32.953, 52.8019, -8.46507, 89.9169, -78.8094, 34.6813
3.296, 7, 32.9529, 52.8019, -8.46506, 89.9169, -78.8095, 34.6812
3.3, 7, 32.9529, 52.8019, -8.46504, 89.9169, -78.8095, 34.6812
3.304, 7, 32.9529, 52.8019, -8.46504, 89.9169, -78.8095, 34.6812
3.308, 7, 32.9529, 52.8019, -8.46503, 89.9168, -78.8095, 34.6812
3.312, 7, 32.9529, 52.8019, -8.46503, 89.9168, -78.8095, 34.6812
3.316, 7, 32.9529, 52.8019, -8.46502, 89.9168, -78.8095, 34.6812
3.32, 7, 32.9528, 52.8019, -8.46502, 89.9168, -78.8095, 34.6812
3.324, 7, 32.9528, 52.8019, -8.46502, 89.9168, -78.8095, 34.6812
3.328, 7, 32.9528, 52.8019, -8.46502, 89.9168, -78.8095, 34.6812
3.332, 7, 32.9528, 52.8019, -8.46502, 89.9168, -78.8095, 34.6812
3.336, 7, 32.9528, 52.8019, -8.46502, 89.9168, -78.8096, 34.6812
3.34, 7, 32.9528, 52.8019, -8.46502, 89.9168, -78.8096, 34.6812
3.344, 7, 32.9528, 52.8019, -8.46502, 89.9168, -78.8096, 34.6812
3.347, 7, 32.9528, 52.8019, -8.46502, 89.9168, -78.8096, 34.6812
3.352, 7, 32.9528, 52.8019, -8.46502, 89.9168, -78.8096, 34.6812
3.356, 7, 32.9528, 52.8019, -8.46502, 89.9168, -78.8096, 34.6812
3.36, 7, 32.9528, 52.8019, -8.46502, 89.9168, -78.8096, 34.6812
