hehonglu123/ABB_Primitive_Study/execution/movec_smooth/curve_exe_v100_z1.csv
timestamp, cmd_num, J1, J2, J3, J4, J5, J6
0, 1, 32.9528, 52.8019, -8.46502, 89.9168, -78.8096, 34.6812
0.002, 1, 32.9528, 52.8019, -8.46502, 89.9168, -78.8096, 34.6812
0.004, 1, 32.9528, 52.8019, -8.46502, 89.9168, -78.8096, 34.6812
0.01, 1, 32.9528, 52.8019, -8.46502, 89.9168, -78.8096, 34.6812
0.012, 1, 32.9528, 52.8019, -8.46502, 89.9168, -78.8096, 34.6812
0.016, 1, 32.9528, 52.8019, -8.46502, 89.9168, -78.8096, 34.6812
0.02, 1, 32.9528, 52.8019, -8.46502, 89.9168, -78.8096, 34.6812
0.024, 1, 32.9528, 52.8019, -8.46502, 89.9168, -78.8096, 34.6812
0.028, 1, 32.9528, 52.8019, -8.46502, 89.9168, -78.8096, 34.6812
0.032, 1, 32.9528, 52.8019, -8.46502, 89.9168, -78.8096, 34.6812
0.036, 1, 32.9529, 52.8019, -8.46502, 89.9168, -78.8096, 34.6812
0.04, 1, 32.9531, 52.8018, -8.46503, 89.9168, -78.8095, 34.6812
0.044, 1, 32.9535, 52.8014, -8.46505, 89.9169, -78.8095, 34.6812
0.048, 1, 32.9543, 52.8006, -8.4651, 89.9169, -78.8093, 34.6813
0.052, 1, 32.9556, 52.7993, -8.46521, 89.917, -78.8088, 34.6814
0.056, 1, 32.9574, 52.7971, -8.46544, 89.9173, -78.8079, 34.6818
0.06, 1, 32.9597, 52.794, -8.46584, 89.9178, -78.8061, 34.6824
0.064, 1, 32.9625, 52.7899, -8.46653, 89.9186, -78.803, 34.6834
0.068, 1, 32.9659, 52.7849, -8.46761, 89.92, -78.798, 34.6852
0.072, 1, 32.9697, 52.7789, -8.46923, 89.922, -78.7905, 34.6877
0.076, 1, 32.9741, 52.7719, -8.47155, 89.925, -78.7796, 34.6915
0.08, 1, 32.9791, 52.7639, -8.47475, 89.9292, -78.7644, 34.6967
0.084, 1, 32.9847, 52.7549, -8.47904, 89.9348, -78.744, 34.7037
0.088, 1, 32.991, 52.7451, -8.48462, 89.9421, -78.7174, 34.7128
0.092, 1, 32.9978, 52.7344, -8.49169, 89.9515, -78.6834, 34.7244
0.096, 1, 33.005, 52.7231, -8.50046, 89.9631, -78.6411, 34.7389
0.1, 1, 33.0126, 52.7112, -8.51109, 89.9773, -78.5897, 34.7566
0.104, 1, 33.0204, 52.699, -8.5237, 89.9942, -78.5285, 34.7775
0.108, 1, 33.0284, 52.6863, -8.53837, 90.0139, -78.4572, 34.802
0.112, 1, 33.0368, 52.673, -8.55512, 90.0364, -78.3757, 34.8299
0.116, 1, 33.0455, 52.6592, -8.57391, 90.0617, -78.2841, 34.8613
0.12, 1, 33.0546, 52.6447, -8.59467, 90.0896, -78.183, 34.896
0.124, 1, 33.0642, 52.6296, -8.61726, 90.12, -78.0728, 34.9337
0.128, 1, 33.0741, 52.6139, -8.64154, 90.1527, -77.9545, 34.9743
0.131, 1, 33.0844, 52.5977, -8.66731, 90.1875, -77.8288, 35.0174
0.136, 1, 33.0949, 52.5809, -8.69437, 90.2239, -77.6968, 35.0627
0.139, 1, 33.1058, 52.5633, -8.72251, 90.2618, -77.5596, 35.1097
0.144, 1, 33.1172, 52.5447, -8.75152, 90.3009, -77.4182, 35.1582
0.148, 1, 33.1293, 52.525, -8.78121, 90.3408, -77.2736, 35.2077
0.152, 1, 33.1421, 52.5041, -8.81138, 90.3814, -77.1267, 35.2581
0.156, 1, 33.1556, 52.4819, -8.8419, 90.4224, -76.9782, 35.309
0.16, 1, 33.17, 52.4586, -8.87265, 90.4637, -76.8286, 35.3603
0.164, 1, 33.1849, 52.4345, -8.90354, 90.5052, -76.6784, 35.4118
0.168, 1, 33.2004, 52.4098, -8.93451, 90.5467, -76.5279, 35.4634
0.172, 1, 33.2161, 52.3847, -8.9655, 90.5883, -76.3772, 35.515
0.176, 1, 33.2321, 52.3594, -8.9965, 90.6299, -76.2265, 35.5667
0.18, 1, 33.2481, 52.334, -9.02749, 90.6715, -76.076, 35.6183
0.184, 1, 33.2643, 52.3084, -9.05844, 90.713, -75.9256, 35.6699
0.188, 1, 33.2805, 52.2828, -9.08935, 90.7545, -75.7754, 35.7214
0.192, 1, 33.2967, 52.2573, -9.12022, 90.7959, -75.6254, 35.7728
0.196, 1, 33.3129, 52.2317, -9.15104, 90.8372, -75.4757, 35.8241
0.2, 1, 33.3291, 52.2061, -9.1818, 90.8785, -75.3262, 35.8753
0.204, 1, 33.3453, 52.1806, -9.21251, 90.9197, -75.177, 35.9265
0.208, 1, 33.3614, 52.1551, -9.24316, 90.9608, -75.028, 35.9775
0.212, 1, 33.3776, 52.1296, -9.27376, 91.0018, -74.8794, 36.0285
0.216, 1, 33.3937, 52.1042, -9.30431, 91.0428, -74.731, 36.0794
0.22, 1, 33.4098, 52.0788, -9.33479, 91.0837, -74.5829, 36.1302
0.224, 1, 33.4258, 52.0535, -9.36522, 91.1245, -74.435, 36.1808
0.228, 1, 33.4419, 52.0282, -9.3956, 91.1652, -74.2874, 36.2314
0.232, 1, 33.4579, 52.003, -9.42592, 91.2059, -74.1401, 36.2819
0.236, 1, 33.4738, 51.9778, -9.45618, 91.2465, -73.9931, 36.3323
0.24, 1, 33.4898, 51.9526, -9.48639, 91.287, -73.8463, 36.3826
0.244, 1, 33.5057, 51.9275, -9.51654, 91.3275, -73.6998, 36.4329
0.248, 1, 33.5216, 51.9025, -9.54664, 91.3678, -73.5536, 36.483
0.252, 1, 33.5374, 51.8774, -9.57668, 91.4081, -73.4076, 36.533
0.256, 1, 33.5533, 51.8525, -9.60667, 91.4483, -73.2619, 36.583
0.26, 1, 33.5691, 51.8276, -9.63661, 91.4885, -73.1165, 36.6328
0.264, 1, 33.5848, 51.8027, -9.66649, 91.5286, -72.9713, 36.6826
0.268, 1, 33.6006, 51.7778, -9.69631, 91.5686, -72.8264, 36.7323
0.272, 1, 33.6163, 51.7531, -9.72609, 91.6085, -72.6817, 36.7819
0.276, 1, 33.632, 51.7283, -9.75581, 91.6484, -72.5373, 36.8314
0.28, 1, 33.6476, 51.7036, -9.78548, 91.6882, -72.3932, 36.8808
0.284, 1, 33.6633, 51.679, -9.81509, 91.7279, -72.2493, 36.9301
0.288, 1, 33.6789, 51.6544, -9.84465, 91.7675, -72.1057, 36.9794
0.292, 1, 33.6945, 51.6298, -9.87416, 91.8071, -71.9623, 37.0285
0.296, 1, 33.71, 51.6053, -9.90362, 91.8466, -71.8191, 37.0776
0.3, 1, 33.7255, 51.5808, -9.93303, 91.8861, -71.6763, 37.1265
0.304, 1, 33.741, 51.5563, -9.96238, 91.9255, -71.5336, 37.1754
0.308, 1, 33.7565, 51.5319, -9.99169, 91.9648, -71.3913, 37.2242
0.312, 1, 33.7719, 51.5076, -10.0209, 92.004, -71.2491, 37.273
0.316, 1, 33.7873, 51.4833, -10.0501, 92.0432, -71.1073, 37.3216
0.32, 1, 33.8027, 51.459, -10.0793, 92.0823, -70.9656, 37.3702
0.324, 1, 33.8181, 51.4348, -10.1084, 92.1213, -70.8242, 37.4186
0.328, 1, 33.8334, 51.4106, -10.1375, 92.1603, -70.6831, 37.467
0.332, 1, 33.8487, 51.3864, -10.1665, 92.1992, -70.5422, 37.5153
0.336, 1, 33.864, 51.3623, -10.1954, 92.238, -70.4015, 37.5636
0.34, 1, 33.8793, 51.3383, -10.2243, 92.2768, -70.261, 37.6117
0.344, 1, 33.8945, 51.3142, -10.2532, 92.3155, -70.1209, 37.6598
0.348, 1, 33.9097, 51.2903, -10.282, 92.3541, -69.9809, 37.7077
0.352, 1, 33.9249, 51.2663, -10.3107, 92.3927, -69.8412, 37.7556
0.356, 1, 33.94, 51.2424, -10.3394, 92.4312, -69.7017, 37.8034
0.36, 1, 33.9552, 51.2186, -10.3681, 92.4696, -69.5624, 37.8512
0.364, 1, 33.9703, 51.1947, -10.3967, 92.508, -69.4234, 37.8988
0.368, 1, 33.9853, 51.171, -10.4253, 92.5463, -69.2846, 37.9464
0.372, 1, 34.0004, 51.1472, -10.4538, 92.5846, -69.1461, 37.9939
0.376, 1, 34.0154, 51.1235, -10.4823, 92.6228, -69.0078, 38.0413
0.38, 1, 34.0304, 51.0998, -10.5107, 92.6609, -68.8697, 38.0887
0.384, 1, 34.0454, 51.0762, -10.5391, 92.6989, -68.7318, 38.1359
0.388, 1, 34.0604, 51.0526, -10.5674, 92.7369, -68.5941, 38.1831
0.392, 1, 34.0753, 51.0291, -10.5957, 92.7749, -68.4567, 38.2302
0.396, 1, 34.0902, 51.0056, -10.6239, 92.8127, -68.3195, 38.2773
0.4, 1, 34.1051, 50.9821, -10.6521, 92.8506, -68.1825, 38.3242
0.404, 1, 34.1199, 50.9587, -10.6803, 92.8883, -68.0458, 38.3711
0.408, 1, 34.1348, 50.9353, -10.7084, 92.926, -67.9093, 38.4179
0.412, 1, 34.1496, 50.9119, -10.7364, 92.9636, -67.773, 38.4646
0.416, 1, 34.1643, 50.8886, -10.7644, 93.0012, -67.6369, 38.5113
0.42, 1, 34.1791, 50.8653, -10.7924, 93.0387, -67.501, 38.5579
0.424, 1, 34.1938, 50.8421, -10.8203, 93.0762, -67.3653, 38.6044
0.428, 1, 34.2086, 50.8189, -10.8482, 93.1136, -67.2299, 38.6508
0.432, 1, 34.2232, 50.7957, -10.876, 93.1509, -67.0947, 38.6971
0.436, 1, 34.2379, 50.7726, -10.9038, 93.1881, -66.9597, 38.7434
0.44, 1, 34.2526, 50.7495, -10.9315, 93.2254, -66.8249, 38.7896
0.444, 1, 34.2672, 50.7264, -10.9592, 93.2625, -66.6903, 38.8358
0.448, 1, 34.2818, 50.7034, -10.9869, 93.2996, -66.5559, 38.8818
0.452, 1, 34.2964, 50.6804, -11.0145, 93.3367, -66.4217, 38.9278
0.456, 1, 34.3109, 50.6574, -11.0421, 93.3736, -66.2878, 38.9738
0.46, 1, 34.3254, 50.6345, -11.0696, 93.4106, -66.154, 39.0196
0.464, 1, 34.3399, 50.6116, -11.0971, 93.4474, -66.0204, 39.0654
0.468, 1, 34.3544, 50.5888, -11.1246, 93.4842, -65.8871, 39.1111
0.472, 1, 34.3689, 50.566, -11.152, 93.521, -65.754, 39.1567
0.476, 1, 34.3833, 50.5432, -11.1793, 93.5577, -65.621, 39.2023
0.48, 1, 34.3978, 50.5204, -11.2066, 93.5943, -65.4883, 39.2478
0.484, 1, 34.4121, 50.4977, -11.2339, 93.6309, -65.3558, 39.2933
0.488, 1, 34.4265, 50.475, -11.2612, 93.6675, -65.2234, 39.3386
0.492, 1, 34.4409, 50.4524, -11.2884, 93.7039, -65.0913, 39.3839
0.496, 1, 34.4552, 50.4298, -11.3155, 93.7404, -64.9594, 39.4291
0.5, 1, 34.4695, 50.4072, -11.3426, 93.7767, -64.8276, 39.4743
0.504, 1, 34.4838, 50.3847, -11.3697, 93.813, -64.6961, 39.5194
0.508, 1, 34.4981, 50.3622, -11.3967, 93.8493, -64.5647, 39.5644
0.512, 1, 34.5123, 50.3397, -11.4237, 93.8855, -64.4336, 39.6094
0.516, 1, 34.5265, 50.3173, -11.4507, 93.9217, -64.3026, 39.6543
0.52, 1, 34.5408, 50.2949, -11.4776, 93.9578, -64.1719, 39.6991
0.524, 1, 34.5549, 50.2725, -11.5045, 93.9938, -64.0413, 39.7439
0.528, 1, 34.5691, 50.2501, -11.5313, 94.0298, -63.9109, 39.7886
0.532, 1, 34.5832, 50.2278, -11.5581, 94.0657, -63.7807, 39.8332
0.536, 1, 34.5974, 50.2056, -11.5848, 94.1016, -63.6507, 39.8777
0.54, 1, 34.6115, 50.1833, -11.6116, 94.1375, -63.5209, 39.9222
0.544, 1, 34.6255, 50.1611, -11.6382, 94.1732, -63.3913, 39.9667
0.548, 1, 34.6396, 50.1389, -11.6649, 94.209, -63.2619, 40.0111
0.552, 1, 34.6536, 50.1168, -11.6915, 94.2447, -63.1326, 40.0554
0.556, 1, 34.6677, 50.0947, -11.718, 94.2803, -63.0036, 40.0996
0.56, 1, 34.6817, 50.0726, -11.7446, 94.3159, -62.8747, 40.1438
0.564, 1, 34.6956, 50.0505, -11.7711, 94.3514, -62.746, 40.1879
0.568, 1, 34.7096, 50.0285, -11.7975, 94.3869, -62.6175, 40.2319
0.572, 1, 34.7235, 50.0065, -11.8239, 94.4223, -62.4892, 40.2759
0.576, 1, 34.7375, 49.9846, -11.8503, 94.4577, -62.361, 40.3199
0.58, 1, 34.7514, 49.9626, -11.8766, 94.493, -62.2331, 40.3637
0.584, 1, 34.7652, 49.9407, -11.9029, 94.5283, -62.1053, 40.4075
0.588, 1, 34.7791, 49.9189, -11.9292, 94.5635, -61.9777, 40.4513
0.592, 1, 34.7929, 49.897, -11.9554, 94.5987, -61.8503, 40.495
0.596, 1, 34.8068, 49.8752, -11.9816, 94.6338, -61.723, 40.5386
0.6, 1, 34.8206, 49.8535, -12.0078, 94.6689, -61.5959, 40.5821
0.604, 1, 34.8343, 49.8317, -12.0339, 94.7039, -61.4691, 40.6256
0.608, 1, 34.8481, 49.81, -12.06, 94.7389, -61.3423, 40.6691
0.612, 1, 34.8618, 49.7883, -12.086, 94.7738, -61.2158, 40.7125
0.616, 1, 34.8756, 49.7667, -12.112, 94.8087, -61.0894, 40.7558
0.62, 1, 34.8893, 49.7451, -12.138, 94.8435, -60.9632, 40.799
0.624, 1, 34.903, 49.7235, -12.1639, 94.8783, -60.8372, 40.8422
0.628, 1, 34.9166, 49.7019, -12.1898, 94.9131, -60.7114, 40.8854
0.632, 1, 34.9303, 49.6804, -12.2157, 94.9478, -60.5857, 40.9284
0.636, 1, 34.9439, 49.6589, -12.2415, 94.9824, -60.4602, 40.9715
0.64, 1, 34.9575, 49.6374, -12.2673, 95.017, -60.3349, 41.0144
0.644, 1, 34.9711, 49.6159, -12.2931, 95.0516, -60.2097, 41.0573
0.648, 1, 34.9847, 49.5945, -12.3188, 95.0861, -60.0847, 41.1002
0.652, 1, 34.9983, 49.5731, -12.3445, 95.1205, -59.9599, 41.143
0.656, 1, 35.0118, 49.5518, -12.3701, 95.1549, -59.8352, 41.1857
0.66, 1, 35.0253, 49.5304, -12.3958, 95.1893, -59.7107, 41.2284
0.664, 1, 35.0388, 49.5091, -12.4214, 95.2236, -59.5864, 41.271
0.668, 1, 35.0523, 49.4879, -12.4469, 95.2579, -59.4622, 41.3136
0.672, 1, 35.0658, 49.4666, -12.4724, 95.2921, -59.3382, 41.3561
0.676, 1, 35.0792, 49.4454, -12.4979, 95.3263, -59.2144, 41.3985
0.68, 1, 35.0927, 49.4242, -12.5234, 95.3605, -59.0907, 41.4409
0.684, 1, 35.1061, 49.4031, -12.5488, 95.3946, -58.9672, 41.4833
0.688, 1, 35.1195, 49.3819, -12.5742, 95.4286, -58.8439, 41.5256
0.692, 1, 35.1329, 49.3608, -12.5995, 95.4626, -58.7207, 41.5678
0.696, 1, 35.1462, 49.3397, -12.6249, 95.4966, -58.5977, 41.61
0.7, 1, 35.1596, 49.3187, -12.6501, 95.5305, -58.4748, 41.6521
0.704, 1, 35.1729, 49.2977, -12.6754, 95.5644, -58.3521, 41.6941
0.708, 1, 35.1862, 49.2767, -12.7006, 95.5982, -58.2296, 41.7361
0.712, 1, 35.1995, 49.2557, -12.7258, 95.632, -58.1072, 41.7781
0.716, 1, 35.2128, 49.2347, -12.751, 95.6657, -57.985, 41.82
0.72, 1, 35.226, 49.2138, -12.7761, 95.6994, -57.8629, 41.8618
0.724, 1, 35.2393, 49.1929, -12.8012, 95.7331, -57.741, 41.9036
0.728, 1, 35.2525, 49.1721, -12.8262, 95.7667, -57.6192, 41.9454
0.732, 1, 35.2657, 49.1512, -12.8513, 95.8003, -57.4976, 41.9871
0.736, 1, 35.2789, 49.1304, -12.8763, 95.8338, -57.3762, 42.0287
0.74, 1, 35.2921, 49.1097, -12.9012, 95.8673, -57.2549, 42.0703
0.744, 1, 35.3052, 49.0889, -12.9262, 95.9007, -57.1338, 42.1118
0.748, 1, 35.3184, 49.0682, -12.9511, 95.9341, -57.0128, 42.1533
0.752, 1, 35.3315, 49.0475, -12.9759, 95.9675, -56.8919, 42.1947
0.756, 1, 35.3446, 49.0268, -13.0008, 96.0008, -56.7712, 42.2361
0.76, 1, 35.3577, 49.0061, -13.0256, 96.0341, -56.6507, 42.2774
0.764, 1, 35.3708, 48.9855, -13.0504, 96.0673, -56.5303, 42.3187
0.768, 1, 35.3838, 48.9649, -13.0751, 96.1005, -56.4101, 42.3599
0.772, 1, 35.3969, 48.9443, -13.0998, 96.1336, -56.29, 42.401
0.776, 1, 35.4099, 48.9238, -13.1245, 96.1667, -56.1701, 42.4422
0.78, 1, 35.4229, 48.9032, -13.1492, 96.1998, -56.0503, 42.4832
0.784, 1, 35.4359, 48.8827, -13.1738, 96.2328, -55.9306, 42.5242
0.788, 1, 35.4489, 48.8623, -13.1984, 96.2658, -55.8112, 42.5652
0.792, 1, 35.4619, 48.8418, -13.2229, 96.2988, -55.6918, 42.6061
0.796, 1, 35.4748, 48.8214, -13.2475, 96.3317, -55.5726, 42.647
0.8, 1, 35.4877, 48.801, -13.272, 96.3646, -55.4535, 42.6878
0.804, 1, 35.5006, 48.7806, -13.2965, 96.3974, -55.3346, 42.7285
0.808, 1, 35.5136, 48.7603, -13.3209, 96.4302, -55.2159, 42.7693
0.812, 1, 35.5264, 48.7399, -13.3453, 96.4629, -55.0972, 42.8099
0.816, 1, 35.5393, 48.7196, -13.3697, 96.4956, -54.9787, 42.8506
0.82, 1, 35.5522, 48.6994, -13.3941, 96.5283, -54.8604, 42.8911
0.824, 1, 35.565, 48.6791, -13.4184, 96.5609, -54.7422, 42.9316
0.828, 1, 35.5778, 48.6589, -13.4427, 96.5935, -54.6241, 42.9721
0.832, 1, 35.5906, 48.6387, -13.467, 96.6261, -54.5062, 43.0125
0.836, 1, 35.6034, 48.6185, -13.4912, 96.6586, -54.3884, 43.0529
0.84, 1, 35.6162, 48.5983, -13.5154, 96.6911, -54.2707, 43.0933
0.844, 1, 35.629, 48.5782, -13.5396, 96.7235, -54.1532, 43.1335
0.848, 1, 35.6417, 48.5581, -13.5638, 96.7559, -54.0358, 43.1738
0.852, 1, 35.6545, 48.538, -13.5879, 96.7883, -53.9186, 43.214
0.856, 1, 35.6672, 48.5179, -13.612, 96.8206, -53.8015, 43.2541
0.86, 1, 35.6799, 48.4979, -13.6361, 96.8529, -53.6845, 43.2942
0.864, 1, 35.6925, 48.4779, -13.6601, 96.8852, -53.5677, 43.3343
0.868, 1, 35.7051, 48.458, -13.6841, 96.9174, -53.451, 43.3743
0.872, 1, 35.7176, 48.4381, -13.7081, 96.9496, -53.3345, 43.4142
0.876, 1, 35.73, 48.4184, -13.7321, 96.9817, -53.2181, 43.4541
0.88, 1, 35.7419, 48.3992, -13.756, 97.0137, -53.102, 43.4939
0.884, 1, 35.7533, 48.3805, -13.7798, 97.0457, -52.9863, 43.5336
0.888, 1, 35.7641, 48.3627, -13.8035, 97.0775, -52.8712, 43.5731
0.892, 1, 35.7742, 48.3457, -13.8269, 97.109, -52.757, 43.6122
0.896, 1, 35.7836, 48.3297, -13.8501, 97.1401, -52.6444, 43.6508
0.9, 1, 35.7924, 48.3145, -13.8728, 97.1706, -52.534, 43.6887
0.904, 1, 35.8007, 48.3002, -13.895, 97.2003, -52.4264, 43.7256
0.908, 1, 35.8087, 48.2866, -13.9163, 97.229, -52.3226, 43.7613
0.912, 1, 35.8164, 48.2736, -13.9367, 97.2564, -52.2234, 43.7953
0.916, 1, 35.8238, 48.2613, -13.956, 97.2823, -52.1296, 43.8275
0.92, 1, 35.8309, 48.2497, -13.9741, 97.3065, -52.042, 43.8576
0.924, 1, 35.8377, 48.2387, -13.9907, 97.3288, -51.9612, 43.8853
0.928, 1, 35.8442, 48.2281, -14.0057, 97.3491, -51.888, 43.9104
0.932, 1, 35.8507, 48.2178, -14.0192, 97.3671, -51.8226, 43.9328
0.936, 1, 35.8571, 48.2077, -14.031, 97.3829, -51.7653, 43.9524
0.94, 1, 35.8634, 48.1979, -14.0412, 97.3966, -51.716, 43.9693
0.944, 1, 35.8695, 48.1884, -14.0498, 97.4081, -51.6743, 43.9836
0.948, 1, 35.8755, 48.1793, -14.0569, 97.4175, -51.6399, 43.9954
0.952, 2, 35.8812, 48.1708, -14.0626, 97.4252, -51.612, 44.0049
0.956, 2, 35.8865, 48.1631, -14.0672, 97.4313, -51.5899, 44.0124
0.96, 2, 35.8915, 48.1562, -14.0707, 97.436, -51.5728, 44.0183
0.964, 2, 35.896, 48.1502, -14.0734, 97.4396, -51.5598, 44.0227
0.968, 2, 35.9001, 48.145, -14.0754, 97.4422, -51.5503, 44.0259
0.972, 2, 35.9037, 48.1406, -14.0768, 97.4441, -51.5433, 44.0283
0.976, 2, 35.9067, 48.1371, -14.0778, 97.4454, -51.5385, 44.0299
0.98, 2, 35.9091, 48.1343, -14.0785, 97.4463, -51.5351, 44.0311
0.984, 2, 35.911, 48.1323, -14.079, 97.4469, -51.5327, 44.0319
0.988, 2, 35.9123, 48.1308, -14.0793, 97.4474, -51.5312, 44.0324
0.992, 2, 35.9132, 48.1299, -14.0796, 97.4477, -51.5301, 44.0328
0.996, 2, 35.9138, 48.1292, -14.0797, 97.4479, -51.5294, 44.033
1, 2, 35.9142, 48.1287, -14.0798, 97.448, -51.5289, 44.0332
1.004, 2, 35.9145, 48.1284, -14.0799, 97.4481, -51.5285, 44.0333
1.008, 2, 35.9147, 48.1282, -14.0799, 97.4482, -51.5283, 44.0334
1.012, 2, 35.9149, 48.1281, -14.08, 97.4482, -51.5282, 44.0334
1.016, 2, 35.9149, 48.128, -14.08, 97.4482, -51.5281, 44.0335
1.02, 2, 35.915, 48.1279, -14.08, 97.4482, -51.528, 44.0335
1.024, 2, 35.915, 48.1279, -14.08, 97.4483, -51.5279, 44.0335
1.027, 2, 35.9151, 48.1278, -14.08, 97.4483, -51.5279, 44.0335
1.032, 2, 35.9151, 48.1278, -14.08, 97.4483, -51.5279, 44.0335
1.036, 2, 35.9151, 48.1278, -14.08, 97.4483, -51.5279, 44.0335
1.04, 2, 35.9151, 48.1278, -14.08, 97.4483, -51.5279, 44.0335
1.044, 2, 35.9151, 48.1278, -14.08, 97.4483, -51.5279, 44.0335
1.048, 2, 35.9151, 48.1278, -14.08, 97.4483, -51.5279, 44.0335
1.052, 2, 35.9151, 48.1278, -14.08, 97.4483, -51.5278, 44.0335
1.055, 2, 35.9151, 48.1278, -14.08, 97.4483, -51.5278, 44.0335
1.06, 2, 35.9151, 48.1278, -14.08, 97.4483, -51.5278, 44.0335
1.064, 2, 35.9151, 48.1278, -14.08, 97.4483, -51.5278, 44.0335
1.068, 2, 35.9151, 48.1278, -14.08, 97.4483, -51.5278, 44.0335
1.072, 2, 35.9151, 48.1278, -14.08, 97.4483, -51.5278, 44.0335
1.076, 2, 35.9151, 48.1278, -14.08, 97.4483, -51.5278, 44.0335
1.08, 2, 35.9151, 48.1278, -14.08, 97.4483, -51.5278, 44.0335
1.084, 2, 35.9151, 48.1278, -14.08, 97.4483, -51.5278, 44.0335
1.088, 2, 35.9151, 48.1278, -14.08, 97.4483, -51.5278, 44.0335
1.091, 2, 35.9151, 48.1278, -14.08, 97.4483, -51.5278, 44.0335
1.096, 2, 35.9151, 48.1278, -14.08, 97.4483, -51.5278, 44.0335
1.1, 2, 35.9151, 48.1278, -14.08, 97.4483, -51.5278, 44.0335
1.104, 2, 35.9151, 48.1278, -14.08, 97.4483, -51.5278, 44.0335
1.108, 2, 35.9151, 48.1278, -14.08, 97.4483, -51.5278, 44.0335
1.112, 2, 35.9151, 48.1278, -14.08, 97.4483, -51.5278, 44.0335
1.116, 2, 35.9151, 48.1278, -14.08, 97.4483, -51.5278, 44.0335
1.119, 2, 35.9151, 48.1278, -14.08, 97.4483, -51.5278, 44.0335
1.124, 2, 35.9151, 48.1278, -14.08, 97.4483, -51.5278, 44.0335
1.128, 2, 35.9151, 48.1278, -14.08, 97.4483, -51.5278, 44.0335
1.132, 2, 35.9151, 48.1278, -14.08, 97.4483, -51.5278, 44.0335
1.136, 2, 35.9151, 48.1278, -14.08, 97.4483, -51.5278, 44.0335
1.14, 2, 35.9151, 48.1278, -14.08, 97.4483, -51.5278, 44.0335
1.144, 2, 35.9151, 48.1278, -14.08, 97.4483, -51.5278, 44.0335
1.147, 2, 35.9151, 48.1278, -14.08, 97.4483, -51.5278, 44.0335
1.152, 2, 35.9151, 48.1278, -14.08, 97.4483, -51.5278, 44.0335
1.156, 2, 35.9151, 48.1278, -14.08, 97.4483, -51.5278, 44.0335
1.16, 2, 35.9151, 48.1278, -14.08, 97.4483, -51.5278, 44.0335
1.164, 2, 35.9151, 48.1278, -14.08, 97.4483, -51.5278, 44.0335
1.168, 2, 35.9151, 48.1278, -14.08, 97.4483, -51.5278, 44.0335
1.172, 2, 35.9151, 48.1278, -14.08, 97.4483, -51.5278, 44.0335
1.175, 2, 35.9151, 48.1278, -14.08, 97.4483, -51.5278, 44.0335
1.18, 2, 35.9151, 48.1278, -14.08, 97.4483, -51.5278, 44.0335
1.184, 2, 35.9151, 48.1278, -14.08, 97.4483, -51.5278, 44.0335
1.188, 2, 35.9151, 48.1278, -14.08, 97.4483, -51.5278, 44.0335
1.192, 2, 35.9151, 48.1278, -14.08, 97.4483, -51.5278, 44.0335
1.196, 2, 35.9151, 48.1278, -14.08, 97.4483, -51.5278, 44.0335
1.2, 2, 35.9151, 48.1278, -14.08, 97.4483, -51.5278, 44.0335
1.204, 2, 35.9151, 48.1278, -14.08, 97.4483, -51.5278, 44.0335
1.208, 2, 35.9151, 48.1278, -14.08, 97.4483, -51.5278, 44.0335
1.212, 2, 35.9151, 48.1278, -14.08, 97.4483, -51.5278, 44.0335
1.216, 2, 35.9151, 48.1278, -14.08, 97.4483, -51.5278, 44.0335
1.22, 2, 35.9151, 48.1278, -14.08, 97.4483, -51.5278, 44.0335
1.224, 2, 35.9151, 48.1278, -14.08, 97.4483, -51.5278, 44.0335
1.228, 2, 35.9151, 48.1278, -14.08, 97.4483, -51.5278, 44.0335
1.232, 2, 35.9151, 48.1278, -14.08, 97.4483, -51.5278, 44.0335
1.236, 2, 35.9151, 48.1278, -14.08, 97.4483, -51.5278, 44.0335
1.24, 2, 35.9151, 48.1278, -14.08, 97.4483, -51.5278, 44.0335
1.244, 2, 35.9151, 48.1278, -14.08, 97.4483, -51.5278, 44.0335
1.248, 2, 35.9151, 48.1278, -14.08, 97.4483, -51.5278, 44.0335
1.252, 2, 35.9151, 48.1278, -14.08, 97.4483, -51.5278, 44.0335
1.256, 2, 35.9151, 48.1278, -14.08, 97.4483, -51.5278, 44.0335
1.26, 2, 35.9151, 48.1278, -14.08, 97.4483, -51.5278, 44.0335
1.264, 2, 35.9151, 48.1278, -14.08, 97.4483, -51.5278, 44.0335
1.267, 2, 35.9151, 48.1278, -14.08, 97.4483, -51.5278, 44.0335
1.272, 2, 35.9151, 48.1278, -14.08, 97.4483, -51.5278, 44.0335
1.276, 2, 35.9151, 48.1278, -14.08, 97.4483, -51.5278, 44.0335
1.28, 2, 35.9151, 48.1278, -14.08, 97.4483, -51.5278, 44.0335
1.284, 2, 35.9151, 48.1278, -14.08, 97.4483, -51.5278, 44.0335
1.288, 2, 35.9151, 48.1278, -14.08, 97.4483, -51.5278, 44.0335
1.292, 2, 35.9151, 48.1278, -14.08, 97.4483, -51.5278, 44.0335
1.295, 2, 35.9151, 48.1278, -14.08, 97.4483, -51.5278, 44.0335
1.3, 2, 35.9151, 48.1278, -14.08, 97.4483, -51.5278, 44.0335
1.304, 2, 35.9151, 48.1278, -14.08, 97.4483, -51.5278, 44.0335
1.308, 2, 35.9151, 48.1278, -14.08, 97.4483, -51.5278, 44.0335
1.312, 2, 35.9151, 48.1278, -14.08, 97.4483, -51.5278, 44.0335
1.316, 2, 35.9151, 48.1278, -14.08, 97.4483, -51.5278, 44.0335
1.32, 2, 35.9151, 48.1278, -14.08, 97.4483, -51.5278, 44.0335
1.324, 2, 35.9151, 48.1278, -14.08, 97.4483, -51.5278, 44.0335
1.328, 2, 35.9151, 48.1278, -14.08, 97.4483, -51.5278, 44.0335
1.332, 2, 35.9151, 48.1278, -14.08, 97.4483, -51.5278, 44.0335
1.336, 2, 35.9151, 48.1278, -14.08, 97.4483, -51.5278, 44.0335
1.34, 2, 35.9151, 48.1278, -14.08, 97.4483, -51.5278, 44.0335
1.344, 2, 35.9151, 48.1278, -14.08, 97.4483, -51.5278, 44.0335
1.348, 2, 35.9151, 48.1278, -14.08, 97.4483, -51.5278, 44.0335
1.352, 2, 35.9151, 48.1278, -14.08, 97.4483, -51.5278, 44.0335
1.356, 2, 35.9151, 48.1278, -14.08, 97.4483, -51.5278, 44.0335
1.36, 2, 35.9151, 48.1278, -14.08, 97.4483, -51.5278, 44.0335
1.364, 2, 35.9151, 48.1278, -14.08, 97.4483, -51.5278, 44.0335
1.368, 2, 35.9151, 48.1278, -14.08, 97.4483, -51.5278, 44.0335
1.372, 2, 35.9151, 48.1278, -14.08, 97.4483, -51.5278, 44.0335
1.376, 2, 35.9151, 48.1278, -14.08, 97.4483, -51.5278, 44.0335
1.38, 2, 35.9151, 48.1278, -14.08, 97.4483, -51.5278, 44.0335
1.384, 2, 35.9151, 48.1278, -14.08, 97.4483, -51.5278, 44.0335
1.388, 2, 35.9151, 48.1278, -14.08, 97.4483, -51.5278, 44.0335
1.392, 2, 35.9151, 48.1278, -14.08, 97.4483, -51.5278, 44.0335
1.396, 2, 35.9151, 48.1278, -14.08, 97.4483, -51.5278, 44.0335
1.4, 2, 35.9151, 48.1278, -14.08, 97.4483, -51.5278, 44.0335
1.404, 2, 35.9151, 48.1278, -14.08, 97.4483, -51.5278, 44.0335
1.408, 2, 35.9151, 48.1278, -14.08, 97.4483, -51.5278, 44.0335
1.412, 2, 35.9151, 48.1278, -14.08, 97.4483, -51.5278, 44.0335
1.416, 2, 35.9151, 48.1278, -14.08, 97.4483, -51.5278, 44.0335
1.42, 2, 35.9151, 48.1278, -14.08, 97.4483, -51.5278, 44.0335
1.424, 2, 35.9151, 48.1278, -14.08, 97.4483, -51.5278, 44.0335
1.428, 2, 35.9151, 48.1278, -14.08, 97.4483, -51.5278, 44.0335
1.432, 2, 35.9151, 48.1278, -14.08, 97.4483, -51.5278, 44.0335
1.436, 2, 35.9151, 48.1278, -14.08, 97.4483, -51.5278, 44.0335
1.44, 2, 35.9151, 48.1278, -14.08, 97.4483, -51.5278, 44.0335
1.444, 2, 35.9151, 48.1278, -14.08, 97.4483, -51.5278, 44.0335
1.448, 2, 35.9151, 48.1278, -14.08, 97.4483, -51.5278, 44.0335
1.452, 3, 35.9151, 48.1278, -14.08, 97.4483, -51.5278, 44.0335
1.456, 3, 35.9151, 48.1278, -14.08, 97.4483, -51.5278, 44.0335
1.46, 3, 35.9151, 48.1278, -14.08, 97.4483, -51.5278, 44.0335
1.464, 3, 35.9151, 48.1278, -14.08, 97.4483, -51.5278, 44.0335
1.468, 3, 35.9151, 48.1278, -14.08, 97.4483, -51.5278, 44.0335
1.472, 3, 35.9151, 48.1278, -14.08, 97.4483, -51.5278, 44.0335
1.476, 3, 35.9151, 48.1278, -14.08, 97.4483, -51.5278, 44.0335
1.48, 3, 35.9151, 48.1278, -14.08, 97.4483, -51.5278, 44.0335
1.484, 3, 35.9151, 48.1278, -14.08, 97.4483, -51.5278, 44.0335
1.488, 3, 35.9151, 48.1278, -14.08, 97.4483, -51.5278, 44.0335
1.492, 3, 35.9151, 48.1278, -14.08, 97.4483, -51.5278, 44.0335
1.496, 3, 35.9151, 48.1278, -14.08, 97.4483, -51.5278, 44.0335
1.5, 3, 35.9151, 48.1278, -14.08, 97.4483, -51.5278, 44.0335
1.504, 3, 35.9151, 48.1278, -14.08, 97.4483, -51.5278, 44.0335
1.508, 4, 35.9151, 48.1278, -14.08, 97.4483, -51.5278, 44.0335
1.512, 4, 35.9151, 48.1278, -14.08, 97.4483, -51.5278, 44.0335
1.516, 4, 35.9151, 48.1278, -14.08, 97.4483, -51.5278, 44.0335
1.52, 4, 35.9151, 48.1278, -14.08, 97.4483, -51.5278, 44.0335
1.524, 4, 35.9151, 48.1278, -14.08, 97.4483, -51.5278, 44.0335
1.528, 4, 35.9151, 48.1278, -14.08, 97.4483, -51.5278, 44.0335
1.532, 4, 35.9151, 48.1278, -14.08, 97.4483, -51.5278, 44.0335
1.536, 4, 35.9151, 48.1278, -14.08, 97.4483, -51.5278, 44.0335
1.54, 4, 35.9151, 48.1278, -14.08, 97.4483, -51.5278, 44.0335
1.544, 4, 35.9151, 48.1278, -14.08, 97.4483, -51.5278, 44.0335
1.548, 4, 35.9151, 48.1278, -14.08, 97.4483, -51.5278, 44.0335
1.552, 4, 35.915, 48.128, -14.08, 97.4483, -51.5279, 44.0335
1.556, 4, 35.9148, 48.1283, -14.08, 97.4483, -51.5279, 44.0335
1.56, 4, 35.9144, 48.1291, -14.08, 97.4483, -51.528, 44.0334
1.564, 4, 35.9138, 48.1302, -14.08, 97.4482, -51.5284, 44.0333
1.568, 4, 35.9129, 48.1318, -14.0799, 97.4481, -51.5291, 44.033
1.572, 4, 35.9119, 48.1339, -14.0799, 97.4479, -51.5304, 44.0326
1.576, 4, 35.9107, 48.1362, -14.0797, 97.4475, -51.5326, 44.0317
1.58, 4, 35.9096, 48.1388, -14.0796, 97.447, -51.5359, 44.0305
1.584, 4, 35.9085, 48.1415, -14.0793, 97.4462, -51.5405, 44.0287
1.588, 4, 35.9075, 48.1443, -14.079, 97.4451, -51.5468, 44.0263
1.592, 4, 35.9067, 48.1472, -14.0786, 97.4438, -51.555, 44.0232
1.596, 4, 35.9058, 48.1504, -14.0781, 97.442, -51.565, 44.0193
1.6, 4, 35.905, 48.1539, -14.0775, 97.44, -51.5772, 44.0147
1.604, 4, 35.9043, 48.1576, -14.0768, 97.4376, -51.5914, 44.0093
1.608, 4, 35.9037, 48.1614, -14.076, 97.4348, -51.6077, 44.0031
1.612, 4, 35.9032, 48.1654, -14.0751, 97.4317, -51.626, 43.9961
1.616, 4, 35.9029, 48.1694, -14.0741, 97.4283, -51.6462, 43.9884
1.62, 4, 35.9027, 48.1735, -14.073, 97.4245, -51.668, 43.98
1.624, 4, 35.9024, 48.1779, -14.0718, 97.4206, -51.6913, 43.9712
1.628, 4, 35.9021, 48.1825, -14.0706, 97.4164, -51.7156, 43.9619
1.632, 4, 35.9017, 48.1877, -14.0693, 97.4121, -51.7409, 43.9523
1.636, 4, 35.901, 48.1932, -14.068, 97.4077, -51.7667, 43.9424
1.64, 4, 35.9002, 48.1992, -14.0667, 97.4031, -51.793, 43.9324
1.644, 4, 35.8992, 48.2056, -14.0653, 97.3986, -51.8197, 43.9223
1.648, 4, 35.898, 48.2122, -14.0639, 97.3939, -51.8465, 43.9121
1.652, 4, 35.8968, 48.219, -14.0625, 97.3893, -51.8735, 43.9018
1.656, 4, 35.8955, 48.2258, -14.0611, 97.3846, -51.9005, 43.8915
1.66, 4, 35.8941, 48.2328, -14.0596, 97.3799, -51.9277, 43.8812
1.664, 4, 35.8927, 48.2398, -14.0582, 97.3752, -51.9548, 43.8709
1.668, 4, 35.8913, 48.2468, -14.0567, 97.3704, -51.982, 43.8606
1.672, 4, 35.8899, 48.2539, -14.0553, 97.3657, -52.0092, 43.8503
1.676, 4, 35.8885, 48.2609, -14.0538, 97.3609, -52.0365, 43.8399
1.68, 4, 35.8871, 48.268, -14.0523, 97.3561, -52.0637, 43.8296
1.684, 4, 35.8856, 48.2751, -14.0508, 97.3514, -52.0909, 43.8193
1.688, 4, 35.8842, 48.2822, -14.0493, 97.3466, -52.1181, 43.809
1.692, 4, 35.8827, 48.2892, -14.0477, 97.3418, -52.1454, 43.7987
1.696, 4, 35.8813, 48.2963, -14.0462, 97.337, -52.1726, 43.7884
1.7, 4, 35.8798, 48.3034, -14.0447, 97.3321, -52.1998, 43.7781
1.704, 4, 35.8784, 48.3104, -14.0431, 97.3273, -52.2271, 43.7678
1.708, 4, 35.8769, 48.3175, -14.0416, 97.3225, -52.2543, 43.7575
1.712, 4, 35.8754, 48.3245, -14.04, 97.3176, -52.2815, 43.7472
1.716, 4, 35.874, 48.3316, -14.0384, 97.3128, -52.3087, 43.737
1.72, 4, 35.8725, 48.3386, -14.0368, 97.3079, -52.3359, 43.7267
1.724, 4, 35.871, 48.3457, -14.0352, 97.303, -52.3631, 43.7164
1.728, 4, 35.8695, 48.3527, -14.0336, 97.2981, -52.3903, 43.7062
1.732, 4, 35.868, 48.3597, -14.032, 97.2932, -52.4175, 43.6959
1.736, 4, 35.8666, 48.3668, -14.0304, 97.2883, -52.4447, 43.6857
1.74, 4, 35.8651, 48.3738, -14.0288, 97.2834, -52.4719, 43.6755
1.744, 4, 35.8636, 48.3808, -14.0271, 97.2785, -52.4991, 43.6652
1.748, 4, 35.8621, 48.3878, -14.0255, 97.2735, -52.5263, 43.655
1.752, 4, 35.8606, 48.3948, -14.0238, 97.2686, -52.5535, 43.6448
1.756, 4, 35.8591, 48.4018, -14.0221, 97.2636, -52.5807, 43.6346
1.76, 4, 35.8576, 48.4088, -14.0204, 97.2587, -52.6079, 43.6244
1.764, 4, 35.8561, 48.4158, -14.0188, 97.2537, -52.635, 43.6142
1.768, 4, 35.8545, 48.4228, -14.0171, 97.2487, -52.6622, 43.604
1.772, 4, 35.853, 48.4298, -14.0154, 97.2437, -52.6894, 43.5938
1.776, 4, 35.8515, 48.4367, -14.0136, 97.2387, -52.7165, 43.5836
1.78, 4, 35.85, 48.4437, -14.0119, 97.2337, -52.7437, 43.5734
1.784, 4, 35.8485, 48.4507, -14.0102, 97.2287, -52.7709, 43.5633
1.788, 4, 35.8469, 48.4576, -14.0084, 97.2236, -52.798, 43.5531
1.792, 4, 35.8454, 48.4646, -14.0067, 97.2186, -52.8252, 43.5429
1.796, 4, 35.8439, 48.4715, -14.0049, 97.2136, -52.8523, 43.5328
1.8, 4, 35.8423, 48.4785, -14.0031, 97.2085, -52.8794, 43.5226
1.804, 4, 35.8408, 48.4854, -14.0013, 97.2034, -52.9066, 43.5125
1.808, 4, 35.8393, 48.4923, -13.9996, 97.1984, -52.9337, 43.5024
1.812, 4, 35.8377, 48.4993, -13.9978, 97.1933, -52.9608, 43.4922
1.816, 4, 35.8362, 48.5062, -13.9959, 97.1882, -52.988, 43.4821
1.82, 4, 35.8346, 48.5131, -13.9941, 97.1831, -53.0151, 43.472
1.824, 4, 35.8331, 48.52, -13.9923, 97.178, -53.0422, 43.4619
1.828, 4, 35.8315, 48.5269, -13.9904, 97.1728, -53.0693, 43.4518
1.832, 4, 35.8299, 48.5338, -13.9886, 97.1677, -53.0965, 43.4417
1.836, 4, 35.8284, 48.5407, -13.9867, 97.1626, -53.1236, 43.4316
1.84, 4, 35.8268, 48.5476, -13.9849, 97.1574, -53.1507, 43.4215
1.844, 4, 35.8252, 48.5545, -13.983, 97.1522, -53.1778, 43.4114
1.848, 4, 35.8237, 48.5613, -13.9811, 97.1471, -53.2049, 43.4013
1.852, 4, 35.8221, 48.5682, -13.9792, 97.1419, -53.232, 43.3912
1.856, 4, 35.8205, 48.5751, -13.9773, 97.1367, -53.2591, 43.3812
1.86, 4, 35.8189, 48.582, -13.9754, 97.1315, -53.2862, 43.3711
1.864, 4, 35.8173, 48.5888, -13.9735, 97.1263, -53.3132, 43.361
1.868, 4, 35.8157, 48.5957, -13.9715, 97.1211, -53.3403, 43.351
1.872, 4, 35.8141, 48.6025, -13.9696, 97.1159, -53.3674, 43.341
1.876, 4, 35.8126, 48.6094, -13.9676, 97.1106, -53.3945, 43.3309
1.88, 4, 35.811, 48.6162, -13.9657, 97.1054, -53.4215, 43.3209
1.884, 4, 35.8094, 48.623, -13.9637, 97.1002, -53.4486, 43.3109
1.888, 4, 35.8077, 48.6298, -13.9617, 97.0949, -53.4757, 43.3008
1.892, 4, 35.8061, 48.6367, -13.9597, 97.0896, -53.5027, 43.2908
1.896, 4, 35.8045, 48.6435, -13.9577, 97.0843, -53.5298, 43.2808
1.9, 4, 35.8029, 48.6503, -13.9557, 97.0791, -53.5569, 43.2708
1.904, 4, 35.8013, 48.6571, -13.9537, 97.0738, -53.5839, 43.2608
1.908, 4, 35.7997, 48.6639, -13.9517, 97.0684, -53.611, 43.2508
1.912, 4, 35.798, 48.6707, -13.9496, 97.0631, -53.638, 43.2408
1.916, 4, 35.7964, 48.6775, -13.9476, 97.0578, -53.665, 43.2308
1.92, 4, 35.7948, 48.6843, -13.9455, 97.0525, -53.6921, 43.2208
1.924, 4, 35.7932, 48.691, -13.9434, 97.0471, -53.7191, 43.2109
1.928, 4, 35.7915, 48.6978, -13.9414, 97.0418, -53.7461, 43.2009
1.932, 4, 35.7899, 48.7046, -13.9393, 97.0364, -53.7732, 43.1909
1.936, 4, 35.7882, 48.7113, -13.9372, 97.0311, -53.8002, 43.181
1.94, 4, 35.7866, 48.7181, -13.9351, 97.0257, -53.8272, 43.171
1.944, 4, 35.785, 48.7248, -13.933, 97.0203, -53.8542, 43.1611
1.948, 4, 35.7833, 48.7316, -13.9308, 97.0149, -53.8812, 43.1511
1.952, 4, 35.7816, 48.7383, -13.9287, 97.0095, -53.9082, 43.1412
1.956, 4, 35.78, 48.7451, -13.9265, 97.0041, -53.9352, 43.1313
1.96, 4, 35.7783, 48.7518, -13.9244, 96.9986, -53.9622, 43.1213
1.964, 4, 35.7767, 48.7585, -13.9222, 96.9932, -53.9892, 43.1114
1.968, 4, 35.775, 48.7652, -13.92, 96.9878, -54.0162, 43.1015
1.972, 4, 35.7733, 48.7719, -13.9179, 96.9823, -54.0432, 43.0916
1.976, 4, 35.7716, 48.7786, -13.9157, 96.9769, -54.0702, 43.0817
1.98, 4, 35.77, 48.7854, -13.9135, 96.9714, -54.0972, 43.0718
1.984, 4, 35.7683, 48.792, -13.9113, 96.9659, -54.1242, 43.0619
1.988, 4, 35.7666, 48.7987, -13.909, 96.9604, -54.1511, 43.052
1.992, 4, 35.7649, 48.8054, -13.9068, 96.9549, -54.1781, 43.0421
1.996, 4, 35.7632, 48.8121, -13.9046, 96.9494, -54.2051, 43.0323
1.999, 4, 35.7615, 48.8188, -13.9023, 96.9439, -54.2321, 43.0224
2.004, 4, 35.7598, 48.8254, -13.9, 96.9384, -54.259, 43.0125
2.008, 4, 35.7581, 48.8321, -13.8978, 96.9329, -54.286, 43.0027
2.012, 4, 35.7564, 48.8388, -13.8955, 96.9274, -54.3129, 42.9928
2.015, 4, 35.7547, 48.8454, -13.8932, 96.9218, -54.3399, 42.983
2.019, 4, 35.753, 48.8521, -13.8909, 96.9163, -54.3668, 42.9731
2.024, 4, 35.7513, 48.8587, -13.8886, 96.9107, -54.3938, 42.9633
2.028, 4, 35.7496, 48.8653, -13.8863, 96.9051, -54.4207, 42.9534
2.031, 4, 35.7479, 48.872, -13.8839, 96.8995, -54.4477, 42.9436
2.036, 4, 35.7462, 48.8786, -13.8816, 96.894, -54.4746, 42.9338
2.04, 4, 35.7444, 48.8852, -13.8793, 96.8884, -54.5015, 42.924
2.044, 4, 35.7427, 48.8918, -13.8769, 96.8827, -54.5285, 42.9141
2.048, 4, 35.741, 48.8984, -13.8745, 96.8771, -54.5554, 42.9043
2.051, 4, 35.7393, 48.905, -13.8722, 96.8715, -54.5823, 42.8945
2.055, 4, 35.7375, 48.9116, -13.8698, 96.8659, -54.6092, 42.8847
2.06, 4, 35.7358, 48.9182, -13.8674, 96.8602, -54.6361, 42.8749
2.064, 4, 35.734, 48.9248, -13.865, 96.8546, -54.663, 42.8651
2.068, 4, 35.7323, 48.9314, -13.8625, 96.8489, -54.6899, 42.8554
2.071, 4, 35.7305, 48.938, -13.8601, 96.8433, -54.7168, 42.8456
2.076, 4, 35.7288, 48.9445, -13.8577, 96.8376, -54.7437, 42.8358
2.08, 4, 35.727, 48.9511, -13.8552, 96.8319, -54.7706, 42.826
2.084, 4, 35.7253, 48.9577, -13.8528, 96.8262, -54.7975, 42.8163
2.087, 4, 35.7235, 48.9642, -13.8503, 96.8205, -54.8244, 42.8065
2.092, 4, 35.7217, 48.9708, -13.8478, 96.8148, -54.8513, 42.7967
2.096, 4, 35.72, 48.9773, -13.8453, 96.8091, -54.8782, 42.787
2.1, 4, 35.7182, 48.9838, -13.8428, 96.8034, -54.9051, 42.7772
2.104, 4, 35.7164, 48.9904, -13.8403, 96.7976, -54.9319, 42.7675
2.107, 4, 35.7147, 48.9969, -13.8378, 96.7919, -54.9588, 42.7578
2.111, 4, 35.7129, 49.0034, -13.8353, 96.7861, -54.9857, 42.748
2.116, 4, 35.7111, 49.0099, -13.8328, 96.7804, -55.0125, 42.7383
2.12, 4, 35.7093, 49.0164, -13.8302, 96.7746, -55.0394, 42.7286
2.124, 4, 35.7075, 49.0229, -13.8277, 96.7688, -55.0663, 42.7189
2.127, 4, 35.7057, 49.0294, -13.8251, 96.763, -55.0931, 42.7091
2.132, 4, 35.7039, 49.0359, -13.8225, 96.7572, -55.12, 42.6994
2.136, 4, 35.7021, 49.0424, -13.8199, 96.7514, -55.1468, 42.6897
2.14, 4, 35.7003, 49.0489, -13.8173, 96.7456, -55.1737, 42.68
2.143, 4, 35.6985, 49.0554, -13.8147, 96.7398, -55.2005, 42.6703
2.148, 4, 35.6967, 49.0618, -13.8121, 96.734, -55.2273, 42.6607
2.152, 4, 35.6949, 49.0683, -13.8095, 96.7281, -55.2542, 42.651
2.156, 4, 35.6931, 49.0748, -13.8069, 96.7223, -55.281, 42.6413
2.16, 4, 35.6913, 49.0812, -13.8042, 96.7164, -55.3078, 42.6316
2.163, 4, 35.6895, 49.0877, -13.8016, 96.7106, -55.3346, 42.6219
2.168, 4, 35.6876, 49.0941, -13.7989, 96.7047, -55.3615, 42.6123
2.172, 4, 35.6858, 49.1005, -13.7962, 96.6988, -55.3883, 42.6026
2.176, 4, 35.684, 49.107, -13.7936, 96.693, -55.4151, 42.593
2.179, 4, 35.6821, 49.1134, -13.7909, 96.6871, -55.4419, 42.5833
2.184, 4, 35.6803, 49.1198, -13.7882, 96.6812, -55.4687, 42.5737
2.188, 4, 35.6785, 49.1262, -13.7854, 96.6753, -55.4955, 42.564
2.192, 4, 35.6766, 49.1326, -13.7827, 96.6693, -55.5223, 42.5544
2.196, 4, 35.6748, 49.139, -13.78, 96.6634, -55.5491, 42.5447
2.199, 4, 35.6729, 49.1454, -13.7773, 96.6575, -55.5759, 42.5351
2.204, 4, 35.6711, 49.1518, -13.7745, 96.6515, -55.6027, 42.5255
2.208, 4, 35.6692, 49.1582, -13.7717, 96.6456, -55.6295, 42.5159
2.212, 4, 35.6674, 49.1646, -13.769, 96.6396, -55.6562, 42.5062
2.216, 4, 35.6655, 49.171, -13.7662, 96.6337, -55.683, 42.4966
2.219, 4, 35.6636, 49.1773, -13.7634, 96.6277, -55.7098, 42.487
2.224, 4, 35.6618, 49.1837, -13.7606, 96.6217, -55.7366, 42.4774
2.228, 4, 35.6599, 49.19, -13.7578, 96.6157, -55.7633, 42.4678
2.232, 4, 35.658, 49.1964, -13.755, 96.6097, -55.7901, 42.4582
2.235, 4, 35.6562, 49.2027, -13.7521, 96.6037, -55.8169, 42.4486
2.24, 4, 35.6543, 49.2091, -13.7493, 96.5977, -55.8436, 42.4391
2.244, 4, 35.6524, 49.2154, -13.7465, 96.5917, -55.8704, 42.4295
2.248, 4, 35.6505, 49.2217, -13.7436, 96.5856, -55.8971, 42.4199
2.252, 4, 35.6486, 49.2281, -13.7407, 96.5796, -55.9239, 42.4103
2.255, 4, 35.6467, 49.2344, -13.7379, 96.5735, -55.9506, 42.4008
2.259, 4, 35.6448, 49.2407, -13.735, 96.5675, -55.9774, 42.3912
2.264, 4, 35.6429, 49.247, -13.7321, 96.5614, -56.0041, 42.3816
2.268, 4, 35.641, 49.2533, -13.7292, 96.5554, -56.0308, 42.3721
2.272, 4, 35.6391, 49.2596, -13.7262, 96.5493, -56.0576, 42.3625
2.275, 4, 35.6372, 49.2659, -13.7233, 96.5432, -56.0843, 42.353
2.28, 4, 35.6353, 49.2722, -13.7204, 96.5371, -56.111, 42.3434
2.284, 4, 35.6334, 49.2785, -13.7174, 96.531, -56.1377, 42.3339
2.288, 4, 35.6315, 49.2847, -13.7145, 96.5249, -56.1644, 42.3244
2.291, 4, 35.6296, 49.291, -13.7115, 96.5188, -56.1912, 42.3148
2.296, 4, 35.6276, 49.2972, -13.7085, 96.5126, -56.2179, 42.3053
2.3, 4, 35.6257, 49.3035, -13.7056, 96.5065, -56.2446, 42.2958
2.304, 4, 35.6238, 49.3098, -13.7026, 96.5004, -56.2713, 42.2863
2.308, 4, 35.6218, 49.316, -13.6996, 96.4942, -56.298, 42.2768
2.311, 4, 35.6199, 49.3222, -13.6965, 96.488, -56.3247, 42.2673
2.316, 4, 35.618, 49.3285, -13.6935, 96.4819, -56.3514, 42.2578
2.32, 4, 35.616, 49.3347, -13.6905, 96.4757, -56.3781, 42.2483
2.324, 4, 35.6141, 49.3409, -13.6874, 96.4695, -56.4047, 42.2388
2.328, 4, 35.6121, 49.3471, -13.6844, 96.4633, -56.4314, 42.2293
2.331, 4, 35.6102, 49.3533, -13.6813, 96.4571, -56.4581, 42.2198
2.336, 4, 35.6082, 49.3595, -13.6782, 96.4509, -56.4848, 42.2103
2.34, 4, 35.6063, 49.3657, -13.6752, 96.4447, -56.5115, 42.2009
2.344, 4, 35.6043, 49.3719, -13.6721, 96.4385, -56.5381, 42.1914
2.347, 4, 35.6024, 49.3781, -13.669, 96.4323, -56.5648, 42.1819
2.352, 4, 35.6004, 49.3843, -13.6659, 96.426, -56.5915, 42.1724
2.356, 4, 35.5984, 49.3905, -13.6627, 96.4198, -56.6181, 42.163
2.36, 4, 35.5965, 49.3967, -13.6596, 96.4135, -56.6448, 42.1535
2.364, 4, 35.5945, 49.4028, -13.6565, 96.4073, -56.6714, 42.1441
2.367, 4, 35.5925, 49.409, -13.6533, 96.401, -56.6981, 42.1346
2.372, 4, 35.5905, 49.4151, -13.6502, 96.3947, -56.7247, 42.1252
2.376, 4, 35.5885, 49.4213, -13.647, 96.3884, -56.7514, 42.1157
2.38, 4, 35.5865, 49.4274, -13.6438, 96.3821, -56.778, 42.1063
2.383, 4, 35.5846, 49.4336, -13.6406, 96.3758, -56.8046, 42.0969
2.388, 4, 35.5826, 49.4397, -13.6374, 96.3695, -56.8313, 42.0875
2.392, 4, 35.5806, 49.4458, -13.6342, 96.3632, -56.8579, 42.078
2.396, 4, 35.5786, 49.4519, -13.631, 96.3569, -56.8845, 42.0686
2.4, 4, 35.5766, 49.458, -13.6278, 96.3506, -56.9112, 42.0592
2.403, 4, 35.5746, 49.4641, -13.6245, 96.3442, -56.9378, 42.0498
2.408, 4, 35.5726, 49.4702, -13.6213, 96.3379, -56.9644, 42.0404
2.412, 4, 35.5705, 49.4763, -13.618, 96.3315, -56.991, 42.031
2.416, 4, 35.5685, 49.4824, -13.6148, 96.3252, -57.0176, 42.0216
2.42, 4, 35.5665, 49.4885, -13.6115, 96.3188, -57.0442, 42.0122
2.423, 4, 35.5645, 49.4946, -13.6082, 96.3124, -57.0708, 42.0028
2.428, 4, 35.5625, 49.5007, -13.6049, 96.306, -57.0974, 41.9934
2.432, 4, 35.5604, 49.5067, -13.6016, 96.2996, -57.124, 41.984
2.436, 4, 35.5584, 49.5128, -13.5983, 96.2932, -57.1506, 41.9746
2.439, 4, 35.5564, 49.5189, -13.5949, 96.2868, -57.1772, 41.9653
2.444, 4, 35.5543, 49.5249, -13.5916, 96.2804, -57.2038, 41.9559
2.448, 4, 35.5523, 49.531, -13.5883, 96.274, -57.2304, 41.9465
2.452, 4, 35.5503, 49.537, -13.5849, 96.2676, -57.257, 41.9372
2.456, 4, 35.5482, 49.543, -13.5815, 96.2611, -57.2835, 41.9278
2.459, 4, 35.5462, 49.5491, -13.5782, 96.2547, -57.3101, 41.9185
2.464, 4, 35.5441, 49.5551, -13.5748, 96.2482, -57.3367, 41.9091
2.468, 4, 35.5421, 49.5611, -13.5714, 96.2418, -57.3632, 41.8998
2.472, 4, 35.54, 49.5671, -13.568, 96.2353, -57.3898, 41.8904
2.476, 4, 35.5379, 49.5731, -13.5646, 96.2288, -57.4164, 41.8811
2.479, 4, 35.5359, 49.5791, -13.5612, 96.2223, -57.4429, 41.8717
2.484, 4, 35.5338, 49.5851, -13.5577, 96.2158, -57.4695, 41.8624
2.488, 4, 35.5317, 49.5911, -13.5543, 96.2093, -57.496, 41.8531
2.492, 4, 35.5297, 49.5971, -13.5508, 96.2028, -57.5226, 41.8438
2.495, 4, 35.5276, 49.603, -13.5474, 96.1963, -57.5491, 41.8344
2.5, 4, 35.5255, 49.609, -13.5439, 96.1898, -57.5756, 41.8251
2.504, 4, 35.5234, 49.615, -13.5404, 96.1833, -57.6022, 41.8158
2.508, 4, 35.5214, 49.6209, -13.5369, 96.1767, -57.6287, 41.8065
2.512, 4, 35.5193, 49.6269, -13.5334, 96.1702, -57.6552, 41.7972
2.515, 4, 35.5172, 49.6328, -13.5299, 96.1636, -57.6818, 41.7879
2.52, 4, 35.5151, 49.6388, -13.5264, 96.1571, -57.7083, 41.7786
2.524, 4, 35.513, 49.6447, -13.5229, 96.1505, -57.7348, 41.7693
2.528, 4, 35.5109, 49.6506, -13.5193, 96.1439, -57.7613, 41.76
2.531, 4, 35.5088, 49.6566, -13.5158, 96.1374, -57.7878, 41.7507
2.536, 4, 35.5067, 49.6625, -13.5122, 96.1308, -57.8144, 41.7414
2.54, 4, 35.5046, 49.6684, -13.5087, 96.1242, -57.8409, 41.7322
2.544, 4, 35.5025, 49.6743, -13.5051, 96.1176, -57.8674, 41.7229
2.548, 4, 35.5004, 49.6802, -13.5015, 96.111, -57.8939, 41.7136
2.551, 4, 35.4982, 49.6861, -13.4979, 96.1043, -57.9204, 41.7043
2.556, 4, 35.4961, 49.692, -13.4943, 96.0977, -57.9469, 41.6951
2.56, 4, 35.494, 49.6979, -13.4907, 96.0911, -57.9734, 41.6858
2.564, 4, 35.4919, 49.7038, -13.487, 96.0845, -57.9998, 41.6766
2.568, 4, 35.4897, 49.7096, -13.4834, 96.0778, -58.0263, 41.6673
2.571, 4, 35.4876, 49.7155, -13.4798, 96.0711, -58.0528, 41.6581
2.576, 4, 35.4855, 49.7214, -13.4761, 96.0645, -58.0793, 41.6488
2.58, 4, 35.4833, 49.7272, -13.4724, 96.0578, -58.1058, 41.6396
2.584, 4, 35.4812, 49.7331, -13.4688, 96.0511, -58.1322, 41.6303
2.587, 4, 35.479, 49.7389, -13.4651, 96.0445, -58.1587, 41.6211
2.592, 4, 35.4769, 49.7447, -13.4614, 96.0378, -58.1852, 41.6119
2.596, 4, 35.4747, 49.7506, -13.4577, 96.0311, -58.2116, 41.6026
2.6, 4, 35.4726, 49.7564, -13.454, 96.0244, -58.2381, 41.5934
2.604, 4, 35.4704, 49.7622, -13.4503, 96.0176, -58.2645, 41.5842
2.607, 4, 35.4683, 49.768, -13.4465, 96.0109, -58.291, 41.575
2.612, 4, 35.4661, 49.7738, -13.4428, 96.0042, -58.3174, 41.5658
2.616, 4, 35.4639, 49.7796, -13.439, 95.9975, -58.3439, 41.5565
2.62, 4, 35.4618, 49.7854, -13.4353, 95.9907, -58.3703, 41.5473
2.624, 4, 35.4596, 49.7912, -13.4315, 95.984, -58.3968, 41.5381
2.627, 4, 35.4574, 49.797, -13.4277, 95.9772, -58.4232, 41.5289
2.632, 4, 35.4553, 49.8028, -13.4239, 95.9705, -58.4496, 41.5197
2.636, 4, 35.4531, 49.8086, -13.4201, 95.9637, -58.4761, 41.5106
2.64, 4, 35.4509, 49.8143, -13.4163, 95.9569, -58.5025, 41.5014
2.643, 4, 35.4487, 49.8201, -13.4125, 95.9501, -58.5289, 41.4922
2.648, 4, 35.4465, 49.8258, -13.4087, 95.9433, -58.5553, 41.483
2.652, 4, 35.4443, 49.8316, -13.4048, 95.9365, -58.5818, 41.4738
2.656, 4, 35.4421, 49.8373, -13.401, 95.9297, -58.6082, 41.4646
2.66, 4, 35.4399, 49.8431, -13.3971, 95.9229, -58.6346, 41.4555
2.663, 4, 35.4377, 49.8488, -13.3933, 95.9161, -58.661, 41.4463
2.668, 4, 35.4355, 49.8545, -13.3894, 95.9093, -58.6874, 41.4371
2.672, 4, 35.4333, 49.8603, -13.3855, 95.9024, -58.7138, 41.428
2.676, 4, 35.4311, 49.866, -13.3816, 95.8956, -58.7402, 41.4188
2.679, 4, 35.4289, 49.8717, -13.3777, 95.8887, -58.7666, 41.4097
2.684, 4, 35.4267, 49.8774, -13.3738, 95.8819, -58.793, 41.4005
2.688, 4, 35.4245, 49.8831, -13.3698, 95.875, -58.8194, 41.3914
2.692, 4, 35.4222, 49.8888, -13.3659, 95.8681, -58.8457, 41.3822
2.696, 4, 35.42, 49.8945, -13.362, 95.8613, -58.8721, 41.3731
2.699, 4, 35.4178, 49.9001, -13.358, 95.8544, -58.8985, 41.3639
2.704, 4, 35.4156, 49.9058, -13.354, 95.8475, -58.9249, 41.3548
2.708, 4, 35.4133, 49.9115, -13.3501, 95.8406, -58.9512, 41.3457
2.712, 4, 35.4111, 49.9171, -13.3461, 95.8337, -58.9776, 41.3365
2.716, 4, 35.4088, 49.9228, -13.3421, 95.8268, -59.004, 41.3274
2.719, 4, 35.4066, 49.9284, -13.3381, 95.8199, -59.0303, 41.3183
2.724, 4, 35.4044, 49.9341, -13.3341, 95.8129, -59.0567, 41.3092
2.728, 4, 35.4021, 49.9397, -13.3301, 95.806, -59.083, 41.3001
2.732, 4, 35.3998, 49.9454, -13.326, 95.799, -59.1094, 41.2909
2.735, 4, 35.3976, 49.951, -13.322, 95.7921, -59.1357, 41.2818
2.74, 4, 35.3953, 49.9566, -13.3179, 95.7851, -59.1621, 41.2727
2.744, 4, 35.3931, 49.9622, -13.3139, 95.7782, -59.1884, 41.2636
2.748, 4, 35.3908, 49.9678, -13.3098, 95.7712, -59.2148, 41.2545
2.752, 4, 35.3885, 49.9734, -13.3057, 95.7642, -59.2411, 41.2454
2.755, 4, 35.3863, 49.979, -13.3016, 95.7573, -59.2674, 41.2363
2.76, 4, 35.384, 49.9846, -13.2975, 95.7503, -59.2938, 41.2273
2.764, 4, 35.3817, 49.9902, -13.2934, 95.7433, -59.3201, 41.2182
2.768, 4, 35.3794, 49.9958, -13.2893, 95.7363, -59.3464, 41.2091
2.772, 4, 35.3772, 50.0014, -13.2852, 95.7293, -59.3727, 41.2
2.775, 4, 35.3749, 50.0069, -13.281, 95.7222, -59.3991, 41.1909
2.78, 4, 35.3726, 50.0125, -13.2769, 95.7152, -59.4254, 41.1819
2.784, 4, 35.3703, 50.0181, -13.2727, 95.7082, -59.4517, 41.1728
2.788, 4, 35.368, 50.0236, -13.2686, 95.7011, -59.478, 41.1637
2.791, 4, 35.3657, 50.0291, -13.2644, 95.6941, -59.5043, 41.1547
2.796, 4, 35.3634, 50.0347, -13.2602, 95.687, -59.5306, 41.1456
2.8, 4, 35.3611, 50.0402, -13.256, 95.68, -59.5569, 41.1365
2.804, 4, 35.3588, 50.0457, -13.2518, 95.6729, -59.5832, 41.1275
2.808, 4, 35.3565, 50.0513, -13.2476, 95.6659, -59.6095, 41.1184
2.811, 4, 35.3542, 50.0568, -13.2433, 95.6588, -59.6358, 41.1094
2.816, 4, 35.3519, 50.0623, -13.2391, 95.6517, -59.6621, 41.1003
2.82, 4, 35.3496, 50.0678, -13.2349, 95.6446, -59.6883, 41.0913
2.824, 4, 35.3472, 50.0733, -13.2306, 95.6375, -59.7146, 41.0823
2.828, 4, 35.3449, 50.0788, -13.2263, 95.6304, -59.7409, 41.0732
2.831, 4, 35.3426, 50.0843, -13.2221, 95.6233, -59.7672, 41.0642
2.836, 4, 35.3403, 50.0897, -13.2178, 95.6162, -59.7934, 41.0552
2.84, 4, 35.3379, 50.0952, -13.2135, 95.609, -59.8197, 41.0461
2.844, 4, 35.3356, 50.1007, -13.2092, 95.6019, -59.846, 41.0371
2.847, 4, 35.3332, 50.1061, -13.2049, 95.5948, -59.8722, 41.0281
2.852, 4, 35.3309, 50.1116, -13.2006, 95.5876, -59.8985, 41.0191
2.856, 4, 35.3286, 50.117, -13.1962, 95.5805, -59.9247, 41.01
2.86, 4, 35.3262, 50.1225, -13.1919, 95.5733, -59.951, 41.001
2.864, 4, 35.3239, 50.1279, -13.1875, 95.5661, -59.9772, 40.992
2.867, 4, 35.3215, 50.1334, -13.1832, 95.559, -60.0035, 40.983
2.872, 4, 35.3192, 50.1388, -13.1788, 95.5518, -60.0297, 40.974
2.876, 4, 35.3168, 50.1442, -13.1744, 95.5446, -60.0559, 40.965
2.88, 4, 35.3144, 50.1496, -13.17, 95.5374, -60.0822, 40.956
2.883, 4, 35.3121, 50.155, -13.1656, 95.5302, -60.1084, 40.947
2.888, 4, 35.3097, 50.1604, -13.1612, 95.523, -60.1346, 40.938
2.892, 4, 35.3073, 50.1658, -13.1568, 95.5158, -60.1609, 40.929
2.896, 4, 35.305, 50.1712, -13.1524, 95.5085, -60.1871, 40.9201
2.9, 4, 35.3026, 50.1766, -13.1479, 95.5013, -60.2133, 40.9111
2.903, 4, 35.3002, 50.182, -13.1435, 95.4941, -60.2395, 40.9021
2.908, 4, 35.2978, 50.1873, -13.139, 95.4868, -60.2657, 40.8931
2.912, 4, 35.2954, 50.1927, -13.1345, 95.4796, -60.2919, 40.8841
2.916, 4, 35.293, 50.1981, -13.1301, 95.4723, -60.3181, 40.8752
2.92, 4, 35.2907, 50.2034, -13.1256, 95.4651, -60.3444, 40.8662
2.923, 4, 35.2883, 50.2088, -13.1211, 95.4578, -60.3706, 40.8572
2.928, 4, 35.2859, 50.2141, -13.1166, 95.4505, -60.3967, 40.8483
2.932, 4, 35.2835, 50.2194, -13.1121, 95.4433, -60.4229, 40.8393
2.936, 4, 35.2811, 50.2248, -13.1075, 95.436, -60.4491, 40.8304
2.939, 4, 35.2787, 50.2301, -13.103, 95.4287, -60.4753, 40.8214
2.944, 4, 35.2762, 50.2354, -13.0985, 95.4214, -60.5015, 40.8124
2.948, 4, 35.2738, 50.2407, -13.0939, 95.4141, -60.5277, 40.8035
2.952, 4, 35.2714, 50.246, -13.0893, 95.4068, -60.5539, 40.7946
2.956, 4, 35.269, 50.2513, -13.0848, 95.3994, -60.58, 40.7856
2.959, 4, 35.2666, 50.2566, -13.0802, 95.3921, -60.6062, 40.7767
2.964, 4, 35.2642, 50.2619, -13.0756, 95.3848, -60.6324, 40.7677
2.968, 4, 35.2617, 50.2672, -13.071, 95.3774, -60.6585, 40.7588
2.972, 4, 35.2593, 50.2725, -13.0664, 95.3701, -60.6847, 40.7499
2.976, 4, 35.2569, 50.2777, -13.0617, 95.3627, -60.7109, 40.7409
2.98, 4, 35.2544, 50.283, -13.0571, 95.3554, -60.737, 40.732
2.984, 4, 35.252, 50.2882, -13.0525, 95.348, -60.7632, 40.7231
2.988, 4, 35.2495, 50.2935, -13.0478, 95.3406, -60.7893, 40.7142
2.992, 4, 35.2471, 50.2987, -13.0432, 95.3333, -60.8155, 40.7052
2.995, 4, 35.2447, 50.304, -13.0385, 95.3259, -60.8416, 40.6963
3, 4, 35.2422, 50.3092, -13.0338, 95.3185, -60.8677, 40.6874
3.004, 4, 35.2398, 50.3144, -13.0291, 95.3111, -60.8939, 40.6785
3.008, 4, 35.2373, 50.3197, -13.0244, 95.3037, -60.92, 40.6696
3.012, 4, 35.2348, 50.3249, -13.0197, 95.2963, -60.9462, 40.6607
3.015, 4, 35.2324, 50.3301, -13.015, 95.2888, -60.9723, 40.6518
3.02, 4, 35.2299, 50.3353, -13.0102, 95.2814, -60.9984, 40.6429
3.024, 4, 35.2274, 50.3405, -13.0055, 95.274, -61.0245, 40.634
3.028, 4, 35.225, 50.3457, -13.0008, 95.2665, -61.0506, 40.6251
3.031, 4, 35.2225, 50.3509, -12.996, 95.2591, -61.0768, 40.6162
3.036, 4, 35.22, 50.356, -12.9912, 95.2517, -61.1029, 40.6073
3.04, 4, 35.2175, 50.3612, -12.9865, 95.2442, -61.129, 40.5984
3.044, 4, 35.2151, 50.3664, -12.9817, 95.2367, -61.1551, 40.5895
3.048, 4, 35.2126, 50.3715, -12.9769, 95.2293, -61.1812, 40.5806
3.051, 4, 35.2101, 50.3767, -12.9721, 95.2218, -61.2073, 40.5718
3.056, 4, 35.2076, 50.3818, -12.9672, 95.2143, -61.2334, 40.5629
3.06, 4, 35.2051, 50.387, -12.9624, 95.2068, -61.2595, 40.554
3.064, 4, 35.2026, 50.3921, -12.9576, 95.1993, -61.2856, 40.5451
3.068, 4, 35.2001, 50.3972, -12.9527, 95.1918, -61.3117, 40.5363
3.071, 4, 35.1976, 50.4024, -12.9479, 95.1843, -61.3377, 40.5274
3.076, 5, 35.1951, 50.4075, -12.943, 95.1768, -61.3638, 40.5185
3.08, 5, 35.1926, 50.4126, -12.9381, 95.1693, -61.3899, 40.5097
3.084, 5, 35.1901, 50.4177, -12.9333, 95.1618, -61.416, 40.5008
3.087, 5, 35.1876, 50.4228, -12.9284, 95.1542, -61.442, 40.492
3.092, 5, 35.185, 50.4279, -12.9235, 95.1467, -61.4681, 40.4831
3.096, 5, 35.1825, 50.433, -12.9185, 95.1391, -61.4942, 40.4742
3.1, 5, 35.18, 50.4381, -12.9136, 95.1316, -61.5202, 40.4654
3.104, 5, 35.1775, 50.4431, -12.9087, 95.124, -61.5463, 40.4566
3.107, 5, 35.1749, 50.4482, -12.9037, 95.1165, -61.5724, 40.4477
3.112, 5, 35.1724, 50.4533, -12.8988, 95.1089, -61.5984, 40.4389
3.116, 5, 35.1699, 50.4583, -12.8938, 95.1013, -61.6245, 40.43
3.12, 5, 35.1673, 50.4634, -12.8888, 95.0937, -61.6505, 40.4212
3.124, 5, 35.1648, 50.4684, -12.8839, 95.0862, -61.6766, 40.4123
3.128, 5, 35.1623, 50.4735, -12.8789, 95.0786, -61.7026, 40.4035
3.132, 5, 35.1597, 50.4785, -12.8739, 95.071, -61.7286, 40.3947
3.136, 5, 35.1572, 50.4835, -12.8689, 95.0633, -61.7547, 40.3859
3.14, 5, 35.1546, 50.4885, -12.8638, 95.0557, -61.7807, 40.377
3.143, 5, 35.152, 50.4935, -12.8588, 95.0481, -61.8067, 40.3682
3.148, 5, 35.1495, 50.4985, -12.8538, 95.0405, -61.8327, 40.3594
3.152, 5, 35.1469, 50.5035, -12.8487, 95.0329, -61.8588, 40.3506
3.156, 5, 35.1444, 50.5085, -12.8437, 95.0252, -61.8848, 40.3417
3.16, 5, 35.1418, 50.5135, -12.8386, 95.0176, -61.9108, 40.3329
3.163, 5, 35.1392, 50.5185, -12.8335, 95.0099, -61.9368, 40.3241
3.168, 5, 35.1367, 50.5235, -12.8284, 95.0023, -61.9628, 40.3153
3.172, 5, 35.1341, 50.5285, -12.8233, 94.9946, -61.9888, 40.3065
3.176, 5, 35.1315, 50.5334, -12.8182, 94.9869, -62.0148, 40.2977
3.179, 5, 35.1289, 50.5384, -12.8131, 94.9793, -62.0408, 40.2889
3.184, 5, 35.1263, 50.5433, -12.808, 94.9716, -62.0668, 40.2801
3.188, 5, 35.1237, 50.5483, -12.8028, 94.9639, -62.0928, 40.2713
3.192, 5, 35.1212, 50.5532, -12.7977, 94.9562, -62.1188, 40.2625
3.196, 5, 35.1186, 50.5581, -12.7925, 94.9485, -62.1448, 40.2537
3.199, 5, 35.116, 50.5631, -12.7873, 94.9408, -62.1708, 40.2449
3.204, 5, 35.1134, 50.568, -12.7822, 94.9331, -62.1968, 40.2361
3.208, 5, 35.1108, 50.5729, -12.777, 94.9253, -62.2228, 40.2273
3.212, 5, 35.1082, 50.5778, -12.7718, 94.9176, -62.2487, 40.2185
3.216, 5, 35.1055, 50.5827, -12.7666, 94.9099, -62.2747, 40.2098
3.22, 5, 35.1029, 50.5876, -12.7614, 94.9022, -62.3007, 40.201
3.224, 5, 35.1003, 50.5925, -12.7561, 94.8944, -62.3266, 40.1922
3.228, 5, 35.0977, 50.5974, -12.7509, 94.8867, -62.3526, 40.1834
3.232, 5, 35.0951, 50.6023, -12.7457, 94.8789, -62.3786, 40.1747
3.235, 5, 35.0925, 50.6071, -12.7404, 94.8711, -62.4045, 40.1659
3.24, 5, 35.0898, 50.612, -12.7351, 94.8634, -62.4305, 40.1571
3.244, 5, 35.0872, 50.6169, -12.7299, 94.8556, -62.4564, 40.1483
3.248, 5, 35.0846, 50.6217, -12.7246, 94.8478, -62.4824, 40.1396
3.252, 5, 35.0819, 50.6265, -12.7193, 94.84, -62.5083, 40.1308
3.255, 5, 35.0793, 50.6314, -12.714, 94.8322, -62.5343, 40.1221
3.26, 5, 35.0767, 50.6362, -12.7087, 94.8244, -62.5602, 40.1133
3.264, 5, 35.074, 50.641, -12.7033, 94.8166, -62.5862, 40.1045
3.268, 5, 35.0714, 50.6459, -12.698, 94.8088, -62.6121, 40.0958
3.272, 5, 35.0687, 50.6507, -12.6927, 94.801, -62.638, 40.087
3.276, 5, 35.0661, 50.6555, -12.6873, 94.7932, -62.6639, 40.0783
3.28, 5, 35.0634, 50.6603, -12.682, 94.7854, -62.6899, 40.0695
3.284, 5, 35.0608, 50.6651, -12.6766, 94.7775, -62.7158, 40.0608
3.288, 5, 35.0581, 50.6699, -12.6712, 94.7697, -62.7417, 40.052
3.291, 5, 35.0554, 50.6747, -12.6658, 94.7619, -62.7676, 40.0433
3.296, 5, 35.0528, 50.6794, -12.6604, 94.754, -62.7935, 40.0345
3.3, 5, 35.0501, 50.6842, -12.655, 94.7461, -62.8194, 40.0258
3.304, 5, 35.0474, 50.689, -12.6496, 94.7383, -62.8453, 40.0171
3.308, 5, 35.0447, 50.6937, -12.6441, 94.7304, -62.8713, 40.0083
3.312, 5, 35.0421, 50.6985, -12.6387, 94.7225, -62.8971, 39.9996
3.316, 5, 35.0394, 50.7032, -12.6332, 94.7147, -62.923, 39.9909
3.32, 5, 35.0367, 50.708, -12.6278, 94.7068, -62.9489, 39.9821
3.324, 5, 35.034, 50.7127, -12.6223, 94.6989, -62.9748, 39.9734
3.328, 5, 35.0313, 50.7174, -12.6168, 94.691, -63.0007, 39.9647
3.332, 5, 35.0286, 50.7221, -12.6113, 94.6831, -63.0266, 39.956
3.336, 5, 35.0259, 50.7269, -12.6058, 94.6752, -63.0525, 39.9472
3.34, 5, 35.0232, 50.7316, -12.6003, 94.6672, -63.0784, 39.9385
3.344, 5, 35.0205, 50.7363, -12.5948, 94.6593, -63.1042, 39.9298
3.347, 5, 35.0178, 50.741, -12.5893, 94.6514, -63.1301, 39.9211
3.352, 5, 35.0151, 50.7456, -12.5837, 94.6435, -63.156, 39.9124
3.356, 5, 35.0124, 50.7503, -12.5782, 94.6355, -63.1818, 39.9037
3.36, 5, 35.0097, 50.755, -12.5726, 94.6276, -63.2077, 39.895
3.364, 5, 35.007, 50.7597, -12.5671, 94.6196, -63.2336, 39.8863
3.368, 5, 35.0043, 50.7643, -12.5615, 94.6117, -63.2594, 39.8775
3.372, 5, 35.0015, 50.769, -12.5559, 94.6037, -63.2853, 39.8688
3.376, 5, 34.9988, 50.7736, -12.5503, 94.5957, -63.3111, 39.8601
3.38, 5, 34.9961, 50.7783, -12.5447, 94.5878, -63.337, 39.8514
3.383, 5, 34.9934, 50.7829, -12.5391, 94.5798, -63.3628, 39.8427
3.388, 5, 34.9906, 50.7876, -12.5335, 94.5718, -63.3887, 39.834
3.392, 5, 34.9879, 50.7922, -12.5278, 94.5638, -63.4145, 39.8253
3.396, 5, 34.9851, 50.7968, -12.5222, 94.5558, -63.4403, 39.8167
3.4, 5, 34.9824, 50.8014, -12.5165, 94.5478, -63.4662, 39.808
3.403, 5, 34.9797, 50.806, -12.5108, 94.5398, -63.492, 39.7993
3.408, 5, 34.9769, 50.8106, -12.5052, 94.5318, -63.5178, 39.7906
3.412, 5, 34.9742, 50.8152, -12.4995, 94.5238, -63.5437, 39.7819
3.416, 5, 34.9714, 50.8198, -12.4938, 94.5157, -63.5695, 39.7732
3.42, 5, 34.9686, 50.8244, -12.4881, 94.5077, -63.5953, 39.7645
3.424, 5, 34.9659, 50.8289, -12.4824, 94.4997, -63.6211, 39.7558
3.428, 5, 34.9631, 50.8335, -12.4766, 94.4916, -63.6469, 39.7472
3.432, 5, 34.9604, 50.8381, -12.4709, 94.4836, -63.6727, 39.7385
3.436, 5, 34.9576, 50.8426, -12.4652, 94.4755, -63.6985, 39.7298
3.439, 5, 34.9548, 50.8472, -12.4594, 94.4675, -63.7243, 39.7211
3.444, 5, 34.952, 50.8517, -12.4536, 94.4594, -63.7501, 39.7125
3.448, 5, 34.9493, 50.8563, -12.4479, 94.4513, -63.7759, 39.7038
3.452, 5, 34.9465, 50.8608, -12.4421, 94.4432, -63.8017, 39.6951
3.456, 5, 34.9437, 50.8653, -12.4363, 94.4351, -63.8275, 39.6865
3.46, 5, 34.9409, 50.8698, -12.4305, 94.4271, -63.8533, 39.6778
3.464, 5, 34.9381, 50.8743, -12.4247, 94.419, -63.8791, 39.6691
3.468, 5, 34.9353, 50.8788, -12.4188, 94.4109, -63.9049, 39.6605
3.472, 5, 34.9325, 50.8833, -12.413, 94.4028, -63.9307, 39.6518
3.476, 5, 34.9297, 50.8878, -12.4072, 94.3946, -63.9564, 39.6432
3.48, 5, 34.9269, 50.8923, -12.4013, 94.3865, -63.9822, 39.6345
3.484, 5, 34.9241, 50.8968, -12.3955, 94.3784, -64.008, 39.6258
3.488, 5, 34.9213, 50.9013, -12.3896, 94.3703, -64.0337, 39.6172
3.492, 5, 34.9185, 50.9057, -12.3837, 94.3621, -64.0595, 39.6085
3.495, 5, 34.9157, 50.9102, -12.3778, 94.354, -64.0853, 39.5999
3.5, 5, 34.9129, 50.9146, -12.3719, 94.3458, -64.111, 39.5912
3.504, 5, 34.9101, 50.9191, -12.366, 94.3377, -64.1368, 39.5826
3.508, 5, 34.9073, 50.9235, -12.3601, 94.3295, -64.1625, 39.5739
3.512, 5, 34.9044, 50.928, -12.3541, 94.3214, -64.1883, 39.5653
3.516, 5, 34.9016, 50.9324, -12.3482, 94.3132, -64.214, 39.5567
3.52, 5, 34.8988, 50.9368, -12.3422, 94.305, -64.2398, 39.548
3.524, 5, 34.8959, 50.9412, -12.3363, 94.2969, -64.2655, 39.5394
3.528, 5, 34.8931, 50.9456, -12.3303, 94.2887, -64.2912, 39.5307
3.531, 5, 34.8903, 50.95, -12.3243, 94.2805, -64.317, 39.5221
3.536, 5, 34.8874, 50.9544, -12.3183, 94.2723, -64.3427, 39.5135
3.54, 5, 34.8846, 50.9588, -12.3123, 94.2641, -64.3684, 39.5048
3.544, 5, 34.8817, 50.9632, -12.3063, 94.2559, -64.3942, 39.4962
3.548, 5, 34.8789, 50.9676, -12.3003, 94.2477, -64.4199, 39.4876
3.552, 5, 34.876, 50.9719, -12.2943, 94.2394, -64.4456, 39.4789
3.556, 5, 34.8732, 50.9763, -12.2882, 94.2312, -64.4713, 39.4703
3.56, 5, 34.8703, 50.9806, -12.2822, 94.223, -64.497, 39.4617
3.564, 5, 34.8675, 50.985, -12.2761, 94.2148, -64.5227, 39.4531
3.568, 5, 34.8646, 50.9893, -12.27, 94.2065, -64.5484, 39.4444
3.572, 5, 34.8617, 50.9937, -12.264, 94.1983, -64.5741, 39.4358
3.576, 5, 34.8588, 50.998, -12.2579, 94.19, -64.5998, 39.4272
3.58, 5, 34.856, 51.0023, -12.2518, 94.1818, -64.6255, 39.4186
3.584, 5, 34.8531, 51.0066, -12.2457, 94.1735, -64.6512, 39.41
3.587, 5, 34.8502, 51.0109, -12.2395, 94.1652, -64.6769, 39.4013
3.592, 5, 34.8473, 51.0152, -12.2334, 94.157, -64.7026, 39.3927
3.596, 5, 34.8445, 51.0195, -12.2273, 94.1487, -64.7283, 39.3841
3.6, 5, 34.8416, 51.0238, -12.2211, 94.1404, -64.754, 39.3755
3.604, 5, 34.8387, 51.0281, -12.2149, 94.1321, -64.7797, 39.3669
3.608, 5, 34.8358, 51.0324, -12.2088, 94.1238, -64.8053, 39.3583
3.612, 5, 34.8329, 51.0367, -12.2026, 94.1155, -64.831, 39.3497
3.616, 5, 34.83, 51.0409, -12.1964, 94.1072, -64.8567, 39.3411
3.62, 5, 34.8271, 51.0452, -12.1902, 94.0989, -64.8824, 39.3325
3.624, 5, 34.8242, 51.0494, -12.184, 94.0906, -64.908, 39.3239
3.628, 5, 34.8213, 51.0537, -12.1778, 94.0823, -64.9337, 39.3153
3.632, 5, 34.8184, 51.0579, -12.1716, 94.0739, -64.9593, 39.3066
3.636, 5, 34.8155, 51.0622, -12.1653, 94.0656, -64.985, 39.298
3.64, 5, 34.8126, 51.0664, -12.1591, 94.0573, -65.0107, 39.2894
3.644, 5, 34.8098, 51.0707, -12.1529, 94.049, -65.0363, 39.2808
3.648, 5, 34.807, 51.075, -12.1468, 94.0408, -65.062, 39.2722
3.652, 5, 34.8042, 51.0793, -12.1407, 94.0326, -65.0878, 39.2635
3.656, 5, 34.8014, 51.0837, -12.1346, 94.0245, -65.1135, 39.2549
3.66, 5, 34.7985, 51.088, -12.1286, 94.0165, -65.1393, 39.2462
3.664, 5, 34.7957, 51.0924, -12.1227, 94.0086, -65.1652, 39.2375
3.668, 5, 34.7929, 51.0968, -12.1169, 94.0008, -65.1911, 39.2287
3.672, 5, 34.79, 51.1013, -12.1112, 93.9933, -65.2171, 39.2199
3.676, 5, 34.7872, 51.1058, -12.1056, 93.9858, -65.2432, 39.211
3.679, 5, 34.7843, 51.1103, -12.1001, 93.9786, -65.2694, 39.2021
3.684, 5, 34.7814, 51.1148, -12.0948, 93.9714, -65.2956, 39.1931
3.688, 5, 34.7785, 51.1194, -12.0895, 93.9645, -65.3219, 39.1841
3.692, 5, 34.7756, 51.124, -12.0844, 93.9577, -65.3483, 39.1751
3.696, 5, 34.7727, 51.1287, -12.0793, 93.951, -65.3747, 39.166
3.7, 5, 34.7697, 51.1334, -12.0744, 93.9445, -65.4012, 39.1569
3.704, 5, 34.7668, 51.1381, -12.0695, 93.938, -65.4278, 39.1478
3.708, 5, 34.7639, 51.1428, -12.0646, 93.9317, -65.4544, 39.1386
3.712, 5, 34.7609, 51.1475, -12.0598, 93.9253, -65.481, 39.1294
3.716, 5, 34.7581, 51.1523, -12.0551, 93.9191, -65.5076, 39.1202
3.72, 5, 34.7552, 51.1571, -12.0503, 93.9128, -65.5342, 39.1111
3.724, 5, 34.7523, 51.1618, -12.0456, 93.9065, -65.5608, 39.1019
3.728, 5, 34.7495, 51.1666, -12.0408, 93.9003, -65.5875, 39.0927
3.732, 5, 34.7466, 51.1714, -12.0361, 93.8941, -65.6141, 39.0835
3.735, 5, 34.7438, 51.1762, -12.0314, 93.8878, -65.6407, 39.0743
3.74, 5, 34.7409, 51.181, -12.0266, 93.8816, -65.6674, 39.0651
3.744, 5, 34.738, 51.1858, -12.0219, 93.8753, -65.694, 39.0559
3.748, 5, 34.7352, 51.1905, -12.0171, 93.8691, -65.7207, 39.0468
3.752, 5, 34.7323, 51.1953, -12.0124, 93.8628, -65.7473, 39.0376
3.756, 5, 34.7295, 51.2001, -12.0076, 93.8566, -65.7739, 39.0284
3.76, 5, 34.7266, 51.2048, -12.0028, 93.8503, -65.8006, 39.0192
3.764, 5, 34.7238, 51.2096, -11.998, 93.844, -65.8272, 39.0101
3.768, 5, 34.7209, 51.2143, -11.9932, 93.8377, -65.8538, 39.0009
3.772, 5, 34.718, 51.2191, -11.9884, 93.8314, -65.8804, 38.9917
3.776, 5, 34.7152, 51.2238, -11.9836, 93.8251, -65.907, 38.9826
3.78, 5, 34.7123, 51.2285, -11.9788, 93.8188, -65.9337, 38.9734
3.784, 5, 34.7094, 51.2332, -11.974, 93.8125, -65.9603, 38.9643
3.788, 5, 34.7065, 51.238, -11.9691, 93.8062, -65.9869, 38.9551
3.792, 5, 34.7037, 51.2427, -11.9643, 93.7998, -66.0135, 38.946
3.796, 5, 34.7008, 51.2474, -11.9594, 93.7935, -66.0401, 38.9368
3.8, 5, 34.6979, 51.2521, -11.9545, 93.7872, -66.0667, 38.9277
3.804, 5, 34.695, 51.2568, -11.9496, 93.7808, -66.0933, 38.9186
3.808, 5, 34.6921, 51.2615, -11.9447, 93.7745, -66.1199, 38.9094
3.812, 5, 34.6892, 51.2661, -11.9398, 93.7681, -66.1465, 38.9003
3.816, 5, 34.6863, 51.2708, -11.9349, 93.7617, -66.1731, 38.8912
3.82, 5, 34.6834, 51.2755, -11.93, 93.7553, -66.1997, 38.8821
3.824, 5, 34.6805, 51.2801, -11.9251, 93.7489, -66.2263, 38.8729
3.828, 5, 34.6776, 51.2848, -11.9201, 93.7426, -66.2529, 38.8638
3.832, 5, 34.6747, 51.2894, -11.9152, 93.7362, -66.2795, 38.8547
3.836, 5, 34.6718, 51.2941, -11.9102, 93.7297, -66.306, 38.8456
3.84, 5, 34.6689, 51.2987, -11.9053, 93.7233, -66.3326, 38.8365
3.844, 5, 34.666, 51.3034, -11.9003, 93.7169, -66.3592, 38.8274
3.848, 5, 34.663, 51.308, -11.8953, 93.7105, -66.3858, 38.8183
3.852, 5, 34.6601, 51.3126, -11.8903, 93.704, -66.4124, 38.8092
3.856, 5, 34.6572, 51.3172, -11.8853, 93.6976, -66.4389, 38.8001
3.86, 5, 34.6542, 51.3218, -11.8803, 93.6911, -66.4655, 38.791
3.864, 5, 34.6513, 51.3264, -11.8753, 93.6847, -66.4921, 38.7819
3.868, 5, 34.6484, 51.331, -11.8702, 93.6782, -66.5186, 38.7728
3.872, 5, 34.6454, 51.3356, -11.8652, 93.6717, -66.5452, 38.7638
3.876, 5, 34.6425, 51.3402, -11.8601, 93.6653, -66.5717, 38.7547
3.88, 5, 34.6396, 51.3448, -11.8551, 93.6588, -66.5983, 38.7456
3.884, 5, 34.6366, 51.3494, -11.85, 93.6523, -66.6249, 38.7365
3.888, 5, 34.6337, 51.3539, -11.8449, 93.6458, -66.6514, 38.7275
3.892, 5, 34.6307, 51.3585, -11.8398, 93.6393, -66.678, 38.7184
3.896, 5, 34.6278, 51.363, -11.8347, 93.6327, -66.7045, 38.7093
3.9, 5, 34.6248, 51.3676, -11.8296, 93.6262, -66.731, 38.7003
3.904, 5, 34.6218, 51.3721, -11.8245, 93.6197, -66.7576, 38.6912
3.908, 5, 34.6189, 51.3767, -11.8194, 93.6131, -66.7841, 38.6822
3.912, 5, 34.6159, 51.3812, -11.8142, 93.6066, -66.8107, 38.6731
3.916, 5, 34.6129, 51.3857, -11.8091, 93.6, -66.8372, 38.6641
3.92, 5, 34.61, 51.3903, -11.8039, 93.5935, -66.8637, 38.655
3.924, 5, 34.607, 51.3948, -11.7988, 93.5869, -66.8903, 38.646
3.928, 5, 34.604, 51.3993, -11.7936, 93.5803, -66.9168, 38.6369
3.932, 5, 34.601, 51.4038, -11.7884, 93.5738, -66.9433, 38.6279
3.936, 5, 34.598, 51.4083, -11.7832, 93.5672, -66.9698, 38.6189
3.94, 5, 34.5951, 51.4128, -11.778, 93.5606, -66.9964, 38.6098
3.944, 5, 34.5921, 51.4172, -11.7728, 93.554, -67.0229, 38.6008
3.948, 5, 34.5891, 51.4217, -11.7676, 93.5474, -67.0494, 38.5918
3.952, 5, 34.5861, 51.4262, -11.7624, 93.5407, -67.0759, 38.5828
3.956, 5, 34.5831, 51.4307, -11.7571, 93.5341, -67.1024, 38.5737
3.96, 5, 34.5801, 51.4351, -11.7519, 93.5275, -67.1289, 38.5647
3.964, 5, 34.5771, 51.4396, -11.7466, 93.5208, -67.1554, 38.5557
3.968, 5, 34.5741, 51.444, -11.7414, 93.5142, -67.1819, 38.5467
3.972, 5, 34.5711, 51.4485, -11.7361, 93.5075, -67.2084, 38.5377
3.976, 5, 34.568, 51.4529, -11.7308, 93.5009, -67.2349, 38.5287
3.98, 5, 34.565, 51.4573, -11.7255, 93.4942, -67.2614, 38.5197
3.984, 5, 34.562, 51.4617, -11.7202, 93.4875, -67.2879, 38.5107
3.988, 5, 34.559, 51.4662, -11.7149, 93.4809, -67.3144, 38.5017
3.992, 5, 34.556, 51.4706, -11.7095, 93.4742, -67.3409, 38.4927
3.996, 5, 34.5529, 51.475, -11.7042, 93.4675, -67.3674, 38.4837
3.999, 5, 34.5499, 51.4794, -11.6989, 93.4608, -67.3939, 38.4747
4.004, 5, 34.5469, 51.4838, -11.6935, 93.4541, -67.4204, 38.4657
4.008, 5, 34.5438, 51.4882, -11.6882, 93.4474, -67.4468, 38.4568
4.012, 5, 34.5408, 51.4925, -11.6828, 93.4406, -67.4733, 38.4478
4.016, 5, 34.5378, 51.4969, -11.6774, 93.4339, -67.4998, 38.4388
4.02, 5, 34.5347, 51.5013, -11.672, 93.4272, -67.5263, 38.4298
4.024, 5, 34.5317, 51.5056, -11.6666, 93.4204, -67.5527, 38.4209
4.028, 5, 34.5286, 51.51, -11.6612, 93.4137, -67.5792, 38.4119
4.032, 5, 34.5256, 51.5144, -11.6558, 93.4069, -67.6057, 38.4029
4.036, 5, 34.5225, 51.5187, -11.6504, 93.4002, -67.6321, 38.394
4.04, 5, 34.5195, 51.523, -11.6449, 93.3934, -67.6586, 38.385
4.044, 5, 34.5164, 51.5274, -11.6395, 93.3866, -67.685, 38.3761
4.048, 5, 34.5133, 51.5317, -11.634, 93.3798, -67.7115, 38.3671
4.052, 5, 34.5103, 51.536, -11.6286, 93.373, -67.738, 38.3581
4.056, 5, 34.5072, 51.5403, -11.6231, 93.3662, -67.7644, 38.3492
4.06, 5, 34.5041, 51.5446, -11.6176, 93.3594, -67.7909, 38.3403
4.064, 5, 34.501, 51.5489, -11.6121, 93.3526, -67.8173, 38.3313
4.068, 5, 34.498, 51.5532, -11.6066, 93.3458, -67.8437, 38.3224
4.072, 5, 34.4949, 51.5575, -11.6011, 93.339, -67.8702, 38.3134
4.076, 5, 34.4918, 51.5618, -11.5956, 93.3321, -67.8966, 38.3045
4.08, 5, 34.4887, 51.5661, -11.5901, 93.3253, -67.9231, 38.2956
4.084, 5, 34.4856, 51.5704, -11.5845, 93.3184, -67.9495, 38.2866
4.088, 5, 34.4825, 51.5746, -11.579, 93.3116, -67.9759, 38.2777
4.092, 5, 34.4794, 51.5789, -11.5734, 93.3047, -68.0024, 38.2688
4.096, 5, 34.4763, 51.5831, -11.5679, 93.2979, -68.0288, 38.2599
4.1, 5, 34.4732, 51.5874, -11.5623, 93.291, -68.0552, 38.2509
4.104, 5, 34.4701, 51.5916, -11.5567, 93.2841, -68.0816, 38.242
4.108, 5, 34.467, 51.5959, -11.5511, 93.2772, -68.108, 38.2331
4.112, 5, 34.4639, 51.6001, -11.5455, 93.2703, -68.1345, 38.2242
4.116, 5, 34.4608, 51.6043, -11.5399, 93.2634, -68.1609, 38.2153
4.12, 5, 34.4577, 51.6085, -11.5343, 93.2565, -68.1873, 38.2064
4.124, 5, 34.4546, 51.6127, -11.5286, 93.2496, -68.2137, 38.1975
4.128, 5, 34.4515, 51.6169, -11.523, 93.2427, -68.2401, 38.1886
4.132, 5, 34.4483, 51.6211, -11.5173, 93.2357, -68.2665, 38.1797
4.136, 5, 34.4452, 51.6253, -11.5117, 93.2288, -68.2929, 38.1708
4.14, 5, 34.4421, 51.6295, -11.506, 93.2219, -68.3193, 38.1619
4.144, 5, 34.439, 51.6337, -11.5003, 93.2149, -68.3457, 38.153
4.148, 5, 34.4358, 51.6379, -11.4946, 93.208, -68.3721, 38.1441
4.152, 5, 34.4327, 51.642, -11.4889, 93.201, -68.3985, 38.1352
4.156, 5, 34.4295, 51.6462, -11.4832, 93.194, -68.4249, 38.1263
4.16, 5, 34.4264, 51.6504, -11.4775, 93.1871, -68.4513, 38.1174
4.164, 5, 34.4233, 51.6545, -11.4718, 93.1801, -68.4777, 38.1086
4.168, 5, 34.4201, 51.6587, -11.4661, 93.1731, -68.5041, 38.0997
4.172, 5, 34.417, 51.6628, -11.4603, 93.1661, -68.5304, 38.0908
4.176, 5, 34.4138, 51.6669, -11.4546, 93.1591, -68.5568, 38.0819
4.18, 5, 34.4106, 51.6711, -11.4488, 93.1521, -68.5832, 38.0731
4.184, 5, 34.4075, 51.6752, -11.443, 93.1451, -68.6096, 38.0642
4.188, 5, 34.4043, 51.6793, -11.4373, 93.138, -68.636, 38.0553
4.192, 5, 34.4012, 51.6834, -11.4315, 93.131, -68.6623, 38.0465
4.196, 5, 34.398, 51.6875, -11.4257, 93.124, -68.6887, 38.0376
4.2, 5, 34.3948, 51.6916, -11.4199, 93.1169, -68.7151, 38.0288
4.204, 5, 34.3916, 51.6957, -11.414, 93.1099, -68.7414, 38.0199
4.208, 5, 34.3885, 51.6998, -11.4082, 93.1028, -68.7678, 38.0111
4.212, 5, 34.3853, 51.7038, -11.4024, 93.0958, -68.7941, 38.0022
4.216, 5, 34.3821, 51.7079, -11.3965, 93.0887, -68.8205, 37.9934
4.22, 5, 34.3789, 51.712, -11.3907, 93.0816, -68.8469, 37.9845
4.224, 5, 34.3757, 51.716, -11.3848, 93.0745, -68.8732, 37.9757
4.228, 5, 34.3725, 51.7201, -11.3789, 93.0674, -68.8996, 37.9668
4.232, 5, 34.3694, 51.7241, -11.3731, 93.0603, -68.9259, 37.958
4.236, 5, 34.3662, 51.7282, -11.3672, 93.0532, -68.9522, 37.9491
4.24, 5, 34.363, 51.7322, -11.3613, 93.0461, -68.9786, 37.9403
4.244, 5, 34.3598, 51.7362, -11.3554, 93.039, -69.0049, 37.9315
4.248, 5, 34.3565, 51.7403, -11.3494, 93.0319, -69.0313, 37.9226
4.252, 5, 34.3533, 51.7443, -11.3435, 93.0247, -69.0576, 37.9138
4.256, 5, 34.3501, 51.7483, -11.3376, 93.0176, -69.0839, 37.905
4.26, 5, 34.3469, 51.7523, -11.3316, 93.0105, -69.1103, 37.8962
4.264, 5, 34.3437, 51.7563, -11.3257, 93.0033, -69.1366, 37.8874
4.268, 5, 34.3405, 51.7603, -11.3197, 92.9962, -69.1629, 37.8785
4.272, 5, 34.3373, 51.7643, -11.3137, 92.989, -69.1893, 37.8697
4.276, 5, 34.334, 51.7682, -11.3078, 92.9818, -69.2156, 37.8609
4.28, 5, 34.3308, 51.7722, -11.3018, 92.9746, -69.2419, 37.8521
4.284, 5, 34.3276, 51.7762, -11.2958, 92.9675, -69.2682, 37.8433
4.288, 5, 34.3243, 51.7801, -11.2898, 92.9603, -69.2945, 37.8345
4.292, 5, 34.3211, 51.7841, -11.2837, 92.9531, -69.3208, 37.8257
4.296, 5, 34.3179, 51.788, -11.2777, 92.9459, -69.3472, 37.8169
4.3, 5, 34.3146, 51.792, -11.2717, 92.9387, -69.3735, 37.8081
4.304, 5, 34.3114, 51.7959, -11.2656, 92.9314, -69.3998, 37.7993
4.308, 5, 34.3081, 51.7999, -11.2596, 92.9242, -69.4261, 37.7905
4.312, 5, 34.3049, 51.8038, -11.2535, 92.917, -69.4524, 37.7817
4.316, 5, 34.3016, 51.8077, -11.2474, 92.9098, -69.4787, 37.7729
4.32, 5, 34.2984, 51.8116, -11.2413, 92.9025, -69.505, 37.7641
4.324, 5, 34.2951, 51.8155, -11.2352, 92.8953, -69.5313, 37.7553
4.328, 5, 34.2919, 51.8194, -11.2291, 92.888, -69.5575, 37.7465
4.332, 5, 34.2886, 51.8233, -11.223, 92.8808, -69.5838, 37.7377
4.336, 5, 34.2853, 51.8272, -11.2169, 92.8735, -69.6101, 37.729
4.34, 5, 34.2821, 51.8311, -11.2108, 92.8662, -69.6364, 37.7202
4.344, 5, 34.2788, 51.8349, -11.2046, 92.8589, -69.6627, 37.7114
4.348, 5, 34.2755, 51.8388, -11.1985, 92.8516, -69.689, 37.7026
4.352, 5, 34.2723, 51.8427, -11.1923, 92.8444, -69.7153, 37.6939
4.356, 5, 34.269, 51.8465, -11.1861, 92.837, -69.7415, 37.6851
4.36, 5, 34.2657, 51.8504, -11.18, 92.8297, -69.7678, 37.6763
4.364, 5, 34.2624, 51.8542, -11.1738, 92.8224, -69.7941, 37.6675
4.368, 5, 34.2591, 51.8581, -11.1676, 92.8151, -69.8203, 37.6588
4.372, 5, 34.2558, 51.8619, -11.1614, 92.8078, -69.8466, 37.65
4.376, 5, 34.2525, 51.8657, -11.1552, 92.8005, -69.8729, 37.6413
4.38, 5, 34.2492, 51.8695, -11.1489, 92.7931, -69.8991, 37.6325
4.384, 5, 34.2459, 51.8734, -11.1427, 92.7858, -69.9254, 37.6237
4.388, 5, 34.2426, 51.8772, -11.1365, 92.7784, -69.9517, 37.615
4.392, 5, 34.2393, 51.881, -11.1302, 92.771, -69.9779, 37.6062
4.396, 5, 34.236, 51.8848, -11.124, 92.7637, -70.0042, 37.5975
4.4, 5, 34.2327, 51.8885, -11.1177, 92.7563, -70.0304, 37.5887
4.404, 5, 34.2294, 51.8923, -11.1114, 92.7489, -70.0567, 37.58
4.408, 5, 34.2261, 51.8961, -11.1051, 92.7415, -70.0829, 37.5712
4.412, 5, 34.2228, 51.8999, -11.0988, 92.7342, -70.1091, 37.5625
4.416, 5, 34.2194, 51.9036, -11.0925, 92.7268, -70.1354, 37.5538
4.42, 5, 34.2161, 51.9074, -11.0862, 92.7194, -70.1616, 37.545
4.424, 5, 34.2128, 51.9111, -11.0799, 92.712, -70.1879, 37.5363
4.428, 5, 34.2095, 51.9149, -11.0735, 92.7045, -70.2141, 37.5276
4.432, 5, 34.2061, 51.9186, -11.0672, 92.6971, -70.2403, 37.5188
4.436, 5, 34.2028, 51.9224, -11.0609, 92.6897, -70.2666, 37.5101
4.44, 5, 34.1995, 51.9261, -11.0545, 92.6822, -70.2928, 37.5014
4.444, 5, 34.1961, 51.9298, -11.0481, 92.6748, -70.319, 37.4926
4.448, 5, 34.1928, 51.9335, -11.0417, 92.6674, -70.3452, 37.4839
4.452, 5, 34.1894, 51.9372, -11.0354, 92.6599, -70.3715, 37.4752
4.456, 5, 34.1861, 51.9409, -11.029, 92.6525, -70.3977, 37.4665
4.46, 5, 34.1827, 51.9446, -11.0225, 92.645, -70.4239, 37.4577
4.464, 5, 34.1794, 51.9483, -11.0161, 92.6375, -70.4501, 37.449
4.468, 5, 34.176, 51.952, -11.0097, 92.63, -70.4763, 37.4403
4.472, 5, 34.1727, 51.9557, -11.0033, 92.6225, -70.5025, 37.4316
4.476, 5, 34.1693, 51.9593, -10.9968, 92.6151, -70.5287, 37.4229
4.48, 5, 34.1659, 51.963, -10.9904, 92.6075, -70.5549, 37.4142
4.484, 5, 34.1626, 51.9667, -10.9839, 92.6, -70.5811, 37.4055
4.488, 5, 34.1592, 51.9703, -10.9774, 92.5925, -70.6073, 37.3967
4.492, 5, 34.1558, 51.974, -10.971, 92.585, -70.6335, 37.388
4.496, 5, 34.1524, 51.9776, -10.9645, 92.5775, -70.6597, 37.3793
4.5, 5, 34.1491, 51.9812, -10.958, 92.57, -70.6859, 37.3706
4.504, 5, 34.1457, 51.9848, -10.9515, 92.5624, -70.7121, 37.3619
4.508, 5, 34.1423, 51.9885, -10.9449, 92.5549, -70.7383, 37.3532
4.512, 5, 34.1389, 51.9921, -10.9384, 92.5473, -70.7645, 37.3445
4.516, 5, 34.1355, 51.9957, -10.9319, 92.5398, -70.7907, 37.3358
4.52, 5, 34.1321, 51.9993, -10.9253, 92.5322, -70.8169, 37.3272
4.524, 5, 34.1287, 52.0029, -10.9188, 92.5246, -70.843, 37.3185
4.528, 5, 34.1253, 52.0065, -10.9122, 92.5171, -70.8692, 37.3098
4.532, 5, 34.1219, 52.0101, -10.9056, 92.5095, -70.8954, 37.3011
4.536, 5, 34.1185, 52.0136, -10.8991, 92.5019, -70.9216, 37.2924
4.54, 5, 34.1151, 52.0172, -10.8925, 92.4943, -70.9477, 37.2837
4.544, 5, 34.1117, 52.0208, -10.8859, 92.4867, -70.9739, 37.275
4.548, 5, 34.1083, 52.0243, -10.8793, 92.4791, -71.0001, 37.2663
4.552, 5, 34.1049, 52.0279, -10.8726, 92.4715, -71.0262, 37.2577
4.556, 5, 34.1015, 52.0314, -10.866, 92.4639, -71.0524, 37.249
4.56, 5, 34.098, 52.035, -10.8594, 92.4563, -71.0786, 37.2403
4.564, 5, 34.0946, 52.0385, -10.8527, 92.4486, -71.1047, 37.2316
4.568, 5, 34.0912, 52.042, -10.8461, 92.441, -71.1309, 37.223
4.572, 5, 34.0878, 52.0455, -10.8394, 92.4333, -71.157, 37.2143
4.576, 5, 34.0843, 52.049, -10.8327, 92.4257, -71.1832, 37.2056
4.58, 5, 34.0809, 52.0526, -10.8261, 92.418, -71.2093, 37.1969
4.584, 5, 34.0775, 52.0561, -10.8194, 92.4104, -71.2355, 37.1883
4.588, 5, 34.074, 52.0595, -10.8127, 92.4027, -71.2616, 37.1796
4.592, 5, 34.0706, 52.063, -10.806, 92.395, -71.2878, 37.171
4.596, 5, 34.0671, 52.0665, -10.7992, 92.3874, -71.3139, 37.1623
4.6, 5, 34.0637, 52.07, -10.7925, 92.3797, -71.34, 37.1536
4.604, 5, 34.0602, 52.0735, -10.7858, 92.372, -71.3662, 37.145
4.608, 5, 34.0568, 52.0769, -10.779, 92.3643, -71.3923, 37.1363
4.612, 5, 34.0533, 52.0804, -10.7723, 92.3566, -71.4184, 37.1277
4.616, 5, 34.0499, 52.0838, -10.7655, 92.3489, -71.4446, 37.119
4.62, 5, 34.0464, 52.0873, -10.7587, 92.3412, -71.4707, 37.1103
4.624, 5, 34.0429, 52.0907, -10.7519, 92.3334, -71.4968, 37.1017
4.628, 5, 34.0395, 52.0941, -10.7452, 92.3257, -71.5229, 37.093
4.632, 5, 34.036, 52.0976, -10.7383, 92.318, -71.5491, 37.0844
4.636, 5, 34.0325, 52.101, -10.7315, 92.3102, -71.5752, 37.0758
4.64, 5, 34.029, 52.1044, -10.7247, 92.3025, -71.6013, 37.0671
4.644, 5, 34.0256, 52.1078, -10.7179, 92.2947, -71.6274, 37.0585
4.648, 5, 34.0221, 52.1112, -10.7111, 92.287, -71.6535, 37.0498
4.652, 5, 34.0186, 52.1146, -10.7042, 92.2792, -71.6796, 37.0412
4.656, 5, 34.0151, 52.118, -10.6973, 92.2714, -71.7057, 37.0325
4.66, 5, 34.0116, 52.1214, -10.6905, 92.2637, -71.7318, 37.0239
4.664, 5, 34.0081, 52.1247, -10.6836, 92.2559, -71.7579, 37.0153
4.668, 5, 34.0046, 52.1281, -10.6767, 92.2481, -71.784, 37.0066
4.672, 5, 34.0011, 52.1315, -10.6698, 92.2403, -71.8101, 36.998
4.676, 5, 33.9976, 52.1348, -10.6629, 92.2325, -71.8362, 36.9894
4.68, 5, 33.9941, 52.1382, -10.656, 92.2247, -71.8623, 36.9807
4.684, 5, 33.9906, 52.1415, -10.6491, 92.2169, -71.8884, 36.9721
4.688, 5, 33.9871, 52.1449, -10.6422, 92.2091, -71.9145, 36.9635
4.692, 5, 33.9836, 52.1482, -10.6352, 92.2012, -71.9406, 36.9548
4.696, 5, 33.9801, 52.1515, -10.6283, 92.1934, -71.9667, 36.9462
4.7, 5, 33.9766, 52.1548, -10.6213, 92.1856, -71.9928, 36.9376
4.704, 5, 33.9731, 52.1581, -10.6144, 92.1777, -72.0188, 36.929
4.708, 5, 33.9695, 52.1614, -10.6074, 92.1699, -72.0449, 36.9203
4.712, 5, 33.966, 52.1647, -10.6004, 92.162, -72.071, 36.9117
4.716, 5, 33.9625, 52.168, -10.5934, 92.1541, -72.0971, 36.9031
4.72, 5, 33.959, 52.1713, -10.5864, 92.1463, -72.1231, 36.8945
4.724, 5, 33.9554, 52.1746, -10.5794, 92.1384, -72.1492, 36.8859
4.728, 5, 33.9519, 52.1779, -10.5724, 92.1305, -72.1753, 36.8773
4.732, 5, 33.9483, 52.1811, -10.5653, 92.1226, -72.2013, 36.8686
4.736, 5, 33.9448, 52.1844, -10.5583, 92.1147, -72.2274, 36.86
4.74, 5, 33.9413, 52.1877, -10.5512, 92.1068, -72.2535, 36.8514
4.744, 5, 33.9377, 52.1909, -10.5442, 92.0989, -72.2795, 36.8428
4.748, 5, 33.9342, 52.1941, -10.5371, 92.091, -72.3056, 36.8342
4.752, 5, 33.9306, 52.1974, -10.53, 92.0831, -72.3316, 36.8256
4.756, 5, 33.9271, 52.2006, -10.523, 92.0752, -72.3577, 36.817
4.76, 5, 33.9235, 52.2038, -10.5159, 92.0673, -72.3837, 36.8084
4.764, 5, 33.9199, 52.207, -10.5088, 92.0593, -72.4098, 36.7998
4.768, 5, 33.9164, 52.2102, -10.5016, 92.0514, -72.4358, 36.7912
4.772, 5, 33.9128, 52.2134, -10.4945, 92.0434, -72.4619, 36.7826
4.776, 5, 33.9092, 52.2166, -10.4874, 92.0355, -72.4879, 36.774
4.78, 5, 33.9057, 52.2198, -10.4802, 92.0275, -72.5139, 36.7654
4.784, 5, 33.9021, 52.223, -10.4731, 92.0196, -72.54, 36.7568
4.788, 5, 33.8985, 52.2262, -10.4659, 92.0116, -72.566, 36.7482
4.792, 5, 33.8949, 52.2294, -10.4588, 92.0036, -72.592, 36.7396
4.796, 5, 33.8914, 52.2325, -10.4516, 91.9957, -72.6181, 36.731
4.8, 5, 33.8878, 52.2357, -10.4444, 91.9877, -72.6441, 36.7224
4.804, 5, 33.8842, 52.2388, -10.4372, 91.9797, -72.6701, 36.7138
4.808, 5, 33.8806, 52.242, -10.43, 91.9717, -72.6961, 36.7052
4.812, 5, 33.877, 52.2451, -10.4228, 91.9637, -72.7221, 36.6966
4.816, 5, 33.8734, 52.2483, -10.4156, 91.9557, -72.7482, 36.688
4.82, 5, 33.8698, 52.2514, -10.4083, 91.9476, -72.7742, 36.6795
4.824, 5, 33.8662, 52.2545, -10.4011, 91.9396, -72.8002, 36.6709
4.828, 5, 33.8626, 52.2576, -10.3938, 91.9316, -72.8262, 36.6623
4.832, 5, 33.859, 52.2607, -10.3866, 91.9236, -72.8522, 36.6537
4.836, 5, 33.8554, 52.2638, -10.3793, 91.9155, -72.8782, 36.6451
4.84, 5, 33.8518, 52.2669, -10.372, 91.9075, -72.9042, 36.6365
4.844, 5, 33.8482, 52.27, -10.3647, 91.8994, -72.9302, 36.6279
4.848, 5, 33.8445, 52.2731, -10.3575, 91.8914, -72.9562, 36.6194
4.852, 5, 33.8409, 52.2761, -10.3501, 91.8833, -72.9822, 36.6108
4.856, 5, 33.8373, 52.2792, -10.3428, 91.8752, -73.0082, 36.6022
4.86, 5, 33.8337, 52.2823, -10.3355, 91.8672, -73.0342, 36.5936
4.864, 5, 33.83, 52.2853, -10.3282, 91.8591, -73.0602, 36.5851
4.868, 5, 33.8264, 52.2884, -10.3208, 91.851, -73.0862, 36.5765
4.872, 5, 33.8228, 52.2914, -10.3135, 91.8429, -73.1122, 36.5679
4.876, 5, 33.8191, 52.2944, -10.3061, 91.8348, -73.1382, 36.5593
4.88, 5, 33.8155, 52.2975, -10.2988, 91.8267, -73.1642, 36.5508
4.884, 5, 33.8119, 52.3005, -10.2914, 91.8186, -73.1901, 36.5422
4.888, 5, 33.8082, 52.3035, -10.284, 91.8105, -73.2161, 36.5336
4.892, 5, 33.8046, 52.3065, -10.2766, 91.8024, -73.2421, 36.5251
4.896, 5, 33.8009, 52.3095, -10.2692, 91.7942, -73.2681, 36.5165
4.9, 5, 33.7973, 52.3125, -10.2618, 91.7861, -73.294, 36.5079
4.904, 5, 33.7936, 52.3155, -10.2543, 91.778, -73.32, 36.4993
4.908, 5, 33.7899, 52.3185, -10.2469, 91.7698, -73.346, 36.4908
4.912, 5, 33.7863, 52.3215, -10.2395, 91.7617, -73.3719, 36.4822
4.916, 5, 33.7826, 52.3244, -10.232, 91.7535, -73.3979, 36.4737
4.92, 5, 33.7789, 52.3274, -10.2246, 91.7453, -73.4239, 36.4651
4.924, 5, 33.7753, 52.3304, -10.2171, 91.7372, -73.4498, 36.4565
4.928, 5, 33.7716, 52.3333, -10.2096, 91.729, -73.4758, 36.448
4.932, 5, 33.7679, 52.3363, -10.2021, 91.7208, -73.5017, 36.4394
4.936, 5, 33.7642, 52.3392, -10.1946, 91.7126, -73.5277, 36.4309
4.94, 5, 33.7606, 52.3421, -10.1871, 91.7045, -73.5536, 36.4223
4.944, 5, 33.7569, 52.345, -10.1796, 91.6963, -73.5796, 36.4137
4.948, 5, 33.7532, 52.348, -10.1721, 91.6881, -73.6055, 36.4052
4.952, 5, 33.7495, 52.3509, -10.1645, 91.6798, -73.6315, 36.3966
4.956, 5, 33.7458, 52.3538, -10.157, 91.6716, -73.6574, 36.3881
4.96, 5, 33.7421, 52.3567, -10.1494, 91.6634, -73.6833, 36.3795
4.964, 5, 33.7384, 52.3596, -10.1419, 91.6552, -73.7093, 36.371
4.968, 5, 33.7347, 52.3625, -10.1343, 91.647, -73.7352, 36.3624
4.972, 5, 33.731, 52.3653, -10.1267, 91.6387, -73.7612, 36.3539
4.976, 5, 33.7273, 52.3682, -10.1191, 91.6305, -73.7871, 36.3453
4.98, 5, 33.7236, 52.3711, -10.1115, 91.6222, -73.813, 36.3368
4.984, 5, 33.7199, 52.3739, -10.1039, 91.614, -73.8389, 36.3282
4.988, 5, 33.7162, 52.3768, -10.0963, 91.6057, -73.8649, 36.3197
4.992, 5, 33.7125, 52.3796, -10.0887, 91.5975, -73.8908, 36.3111
4.996, 5, 33.7087, 52.3825, -10.0811, 91.5892, -73.9167, 36.3026
5, 5, 33.705, 52.3853, -10.0734, 91.5809, -73.9426, 36.294
5.004, 5, 33.7013, 52.3881, -10.0658, 91.5726, -73.9685, 36.2855
5.008, 5, 33.6976, 52.3909, -10.0581, 91.5643, -73.9945, 36.2769
5.012, 5, 33.6938, 52.3938, -10.0504, 91.5561, -74.0204, 36.2684
5.016, 5, 33.6901, 52.3966, -10.0427, 91.5478, -74.0463, 36.2598
5.02, 5, 33.6864, 52.3994, -10.035, 91.5395, -74.0722, 36.2513
5.024, 5, 33.6826, 52.4022, -10.0273, 91.5311, -74.0981, 36.2428
5.028, 5, 33.6789, 52.4049, -10.0196, 91.5228, -74.124, 36.2342
5.032, 5, 33.6752, 52.4077, -10.0119, 91.5145, -74.1499, 36.2257
5.036, 5, 33.6714, 52.4105, -10.0042, 91.5062, -74.1758, 36.2171
5.04, 5, 33.6677, 52.4133, -9.99646, 91.4979, -74.2017, 36.2086
5.044, 5, 33.6639, 52.416, -9.98871, 91.4895, -74.2276, 36.2001
5.048, 5, 33.6602, 52.4188, -9.98096, 91.4812, -74.2535, 36.1915
5.052, 5, 33.6564, 52.4215, -9.9732, 91.4728, -74.2794, 36.183
5.056, 5, 33.6526, 52.4243, -9.96542, 91.4645, -74.3052, 36.1744
5.06, 5, 33.6489, 52.427, -9.95764, 91.4561, -74.3311, 36.1659
5.064, 5, 33.6451, 52.4297, -9.94985, 91.4477, -74.357, 36.1574
5.068, 5, 33.6413, 52.4324, -9.94205, 91.4394, -74.3829, 36.1488
5.072, 5, 33.6376, 52.4352, -9.93424, 91.431, -74.4088, 36.1403
5.076, 5, 33.6338, 52.4379, -9.92642, 91.4226, -74.4346, 36.1318
5.08, 5, 33.63, 52.4406, -9.9186, 91.4142, -74.4605, 36.1232
5.084, 5, 33.6262, 52.4433, -9.91076, 91.4058, -74.4864, 36.1147
5.088, 5, 33.6225, 52.4459, -9.90291, 91.3974, -74.5123, 36.1062
5.092, 5, 33.6187, 52.4486, -9.89506, 91.389, -74.5381, 36.0976
5.096, 5, 33.6149, 52.4513, -9.88719, 91.3806, -74.564, 36.0891
5.1, 5, 33.6111, 52.454, -9.87932, 91.3722, -74.5899, 36.0806
5.104, 5, 33.6073, 52.4566, -9.87144, 91.3638, -74.6157, 36.072
5.108, 5, 33.6035, 52.4593, -9.86354, 91.3553, -74.6416, 36.0635
5.112, 5, 33.5997, 52.4619, -9.85564, 91.3469, -74.6674, 36.055
5.116, 5, 33.5959, 52.4646, -9.84773, 91.3385, -74.6933, 36.0465
5.12, 5, 33.5921, 52.4672, -9.83981, 91.33, -74.7191, 36.0379
5.124, 5, 33.5883, 52.4698, -9.83189, 91.3216, -74.745, 36.0294
5.128, 5, 33.5845, 52.4725, -9.82395, 91.3131, -74.7708, 36.0209
5.132, 5, 33.5807, 52.4751, -9.816, 91.3047, -74.7967, 36.0123
5.136, 5, 33.5769, 52.4777, -9.80804, 91.2962, -74.8225, 36.0038
5.14, 5, 33.5731, 52.4803, -9.80008, 91.2877, -74.8484, 35.9953
5.144, 5, 33.5692, 52.4829, -9.7921, 91.2793, -74.8742, 35.9868
5.148, 5, 33.5654, 52.4855, -9.78412, 91.2708, -74.9001, 35.9782
5.152, 5, 33.5616, 52.488, -9.77613, 91.2623, -74.9259, 35.9697
5.156, 5, 33.5578, 52.4906, -9.76813, 91.2538, -74.9517, 35.9612
5.16, 5, 33.5539, 52.4932, -9.76011, 91.2453, -74.9776, 35.9527
5.164, 5, 33.5501, 52.4957, -9.75209, 91.2368, -75.0034, 35.9441
5.168, 5, 33.5463, 52.4983, -9.74407, 91.2283, -75.0292, 35.9356
5.172, 5, 33.5424, 52.5008, -9.73603, 91.2198, -75.055, 35.9271
5.176, 5, 33.5386, 52.5034, -9.72798, 91.2113, -75.0809, 35.9186
5.18, 5, 33.5347, 52.5059, -9.71992, 91.2027, -75.1067, 35.91
5.184, 5, 33.5309, 52.5084, -9.71186, 91.1942, -75.1325, 35.9015
5.188, 5, 33.527, 52.511, -9.70378, 91.1857, -75.1583, 35.893
5.192, 5, 33.5232, 52.5135, -9.6957, 91.1771, -75.1841, 35.8845
5.196, 5, 33.5193, 52.516, -9.6876, 91.1686, -75.21, 35.876
5.2, 5, 33.5155, 52.5185, -9.6795, 91.16, -75.2358, 35.8674
5.204, 5, 33.5116, 52.521, -9.67139, 91.1515, -75.2616, 35.8589
5.208, 5, 33.5078, 52.5235, -9.66327, 91.1429, -75.2874, 35.8504
5.212, 5, 33.5039, 52.526, -9.65514, 91.1343, -75.3132, 35.8419
5.216, 5, 33.5, 52.5284, -9.647, 91.1257, -75.339, 35.8334
5.22, 5, 33.4961, 52.5309, -9.63886, 91.1171, -75.3648, 35.8248
5.224, 5, 33.4923, 52.5334, -9.6307, 91.1086, -75.3906, 35.8163
5.228, 5, 33.4884, 52.5358, -9.62253, 91.1, -75.4164, 35.8078
5.232, 5, 33.4845, 52.5383, -9.61436, 91.0914, -75.4422, 35.7993
5.236, 5, 33.4806, 52.5407, -9.60618, 91.0828, -75.468, 35.7908
5.24, 5, 33.4768, 52.5431, -9.59798, 91.0742, -75.4938, 35.7823
5.244, 5, 33.4729, 52.5456, -9.58978, 91.0655, -75.5196, 35.7737
5.248, 5, 33.469, 52.548, -9.58157, 91.0569, -75.5453, 35.7652
5.252, 5, 33.4651, 52.5504, -9.57335, 91.0483, -75.5711, 35.7567
5.256, 5, 33.4612, 52.5528, -9.56512, 91.0397, -75.5969, 35.7482
5.26, 5, 33.4573, 52.5552, -9.55688, 91.031, -75.6227, 35.7397
5.264, 5, 33.4534, 52.5576, -9.54864, 91.0224, -75.6485, 35.7312
5.268, 5, 33.4495, 52.56, -9.54038, 91.0137, -75.6742, 35.7226
5.272, 5, 33.4456, 52.5624, -9.53212, 91.0051, -75.7, 35.7141
5.276, 5, 33.4417, 52.5647, -9.52384, 90.9964, -75.7258, 35.7056
5.28, 5, 33.4378, 52.5671, -9.51556, 90.9878, -75.7516, 35.6971
5.284, 5, 33.4338, 52.5695, -9.50727, 90.9791, -75.7773, 35.6886
5.288, 5, 33.4299, 52.5718, -9.49897, 90.9704, -75.8031, 35.6801
5.292, 5, 33.426, 52.5742, -9.49066, 90.9617, -75.8289, 35.6716
5.296, 5, 33.4221, 52.5765, -9.48234, 90.953, -75.8546, 35.663
5.3, 5, 33.4182, 52.5789, -9.47401, 90.9444, -75.8804, 35.6545
5.304, 5, 33.4142, 52.5812, -9.46567, 90.9357, -75.9061, 35.646
5.308, 5, 33.4103, 52.5835, -9.45733, 90.9269, -75.9319, 35.6375
5.312, 5, 33.4064, 52.5858, -9.44897, 90.9182, -75.9577, 35.629
5.316, 5, 33.4024, 52.5881, -9.44061, 90.9095, -75.9834, 35.6205
5.32, 5, 33.3985, 52.5904, -9.43224, 90.9008, -76.0092, 35.612
5.324, 5, 33.3946, 52.5927, -9.42386, 90.8921, -76.0349, 35.6034
5.328, 5, 33.3906, 52.595, -9.41547, 90.8834, -76.0607, 35.5949
5.332, 5, 33.3867, 52.5973, -9.40707, 90.8746, -76.0864, 35.5864
5.336, 5, 33.3827, 52.5996, -9.39866, 90.8659, -76.1121, 35.5779
5.34, 5, 33.3788, 52.6018, -9.39024, 90.8571, -76.1379, 35.5694
5.344, 5, 33.3748, 52.6041, -9.38181, 90.8484, -76.1636, 35.5609
5.348, 5, 33.3709, 52.6064, -9.37338, 90.8396, -76.1894, 35.5524
5.352, 5, 33.3669, 52.6086, -9.36493, 90.8309, -76.2151, 35.5438
5.356, 5, 33.3629, 52.6108, -9.35648, 90.8221, -76.2408, 35.5353
5.36, 5, 33.359, 52.6131, -9.34802, 90.8133, -76.2666, 35.5268
5.364, 5, 33.355, 52.6153, -9.33955, 90.8045, -76.2923, 35.5183
5.368, 5, 33.351, 52.6175, -9.33107, 90.7958, -76.318, 35.5098
5.372, 5, 33.3471, 52.6198, -9.32258, 90.787, -76.3437, 35.5013
5.376, 5, 33.3431, 52.622, -9.31408, 90.7782, -76.3695, 35.4928
5.38, 5, 33.3391, 52.6242, -9.30558, 90.7694, -76.3952, 35.4843
5.384, 5, 33.3351, 52.6264, -9.29706, 90.7606, -76.4209, 35.4757
5.388, 5, 33.3311, 52.6285, -9.28854, 90.7518, -76.4466, 35.4672
5.392, 5, 33.3272, 52.6307, -9.28001, 90.7429, -76.4723, 35.4587
5.396, 5, 33.3232, 52.6329, -9.27146, 90.7341, -76.498, 35.4502
5.4, 5, 33.3192, 52.6351, -9.26291, 90.7253, -76.5238, 35.4417
5.404, 5, 33.3152, 52.6372, -9.25435, 90.7165, -76.5495, 35.4332
5.408, 5, 33.3112, 52.6394, -9.24578, 90.7076, -76.5752, 35.4247
5.412, 5, 33.3072, 52.6415, -9.23721, 90.6988, -76.6009, 35.4162
5.416, 5, 33.3032, 52.6437, -9.22862, 90.6899, -76.6266, 35.4076
5.42, 5, 33.2992, 52.6458, -9.22002, 90.6811, -76.6523, 35.3991
5.424, 5, 33.2952, 52.6479, -9.21142, 90.6722, -76.678, 35.3906
5.428, 5, 33.2912, 52.6501, -9.20281, 90.6633, -76.7037, 35.3821
5.432, 5, 33.2872, 52.6522, -9.19419, 90.6545, -76.7294, 35.3736
5.436, 5, 33.2831, 52.6543, -9.18556, 90.6456, -76.7551, 35.3651
5.44, 5, 33.2791, 52.6564, -9.17692, 90.6367, -76.7808, 35.3566
5.444, 5, 33.2751, 52.6585, -9.16827, 90.6278, -76.8064, 35.348
5.448, 5, 33.2711, 52.6606, -9.15961, 90.6189, -76.8321, 35.3395
5.452, 5, 33.2671, 52.6627, -9.15094, 90.6101, -76.8578, 35.331
5.456, 5, 33.263, 52.6647, -9.14227, 90.6012, -76.8835, 35.3225
5.46, 5, 33.259, 52.6668, -9.13359, 90.5922, -76.9092, 35.314
5.464, 5, 33.255, 52.6689, -9.1249, 90.5833, -76.9349, 35.3055
5.468, 5, 33.2509, 52.6709, -9.11619, 90.5744, -76.9605, 35.297
5.472, 5, 33.2469, 52.673, -9.10748, 90.5655, -76.9862, 35.2884
5.476, 5, 33.2429, 52.675, -9.09877, 90.5566, -77.0119, 35.2799
5.48, 5, 33.2388, 52.6771, -9.09004, 90.5476, -77.0376, 35.2714
5.484, 5, 33.2348, 52.6791, -9.0813, 90.5387, -77.0632, 35.2629
5.488, 5, 33.2307, 52.6811, -9.07256, 90.5297, -77.0889, 35.2544
5.492, 5, 33.2267, 52.6831, -9.0638, 90.5208, -77.1146, 35.2459
5.496, 5, 33.2226, 52.6851, -9.05504, 90.5118, -77.1402, 35.2373
5.5, 5, 33.2185, 52.6871, -9.04627, 90.5029, -77.1659, 35.2288
5.504, 5, 33.2145, 52.6891, -9.03749, 90.4939, -77.1916, 35.2203
5.508, 5, 33.2104, 52.6911, -9.0287, 90.4849, -77.2172, 35.2118
5.512, 5, 33.2064, 52.6931, -9.0199, 90.476, -77.2429, 35.2033
5.516, 5, 33.2023, 52.6951, -9.0111, 90.467, -77.2685, 35.1948
5.52, 5, 33.1982, 52.697, -9.00228, 90.458, -77.2942, 35.1862
5.524, 5, 33.1942, 52.699, -8.99346, 90.449, -77.3198, 35.1777
5.528, 5, 33.1901, 52.701, -8.98462, 90.44, -77.3455, 35.1692
5.532, 5, 33.186, 52.7029, -8.97578, 90.431, -77.3711, 35.1607
5.536, 5, 33.1819, 52.7049, -8.96693, 90.422, -77.3968, 35.1522
5.54, 5, 33.1778, 52.7068, -8.95807, 90.413, -77.4224, 35.1437
5.544, 5, 33.1737, 52.7087, -8.94921, 90.404, -77.448, 35.1351
5.548, 5, 33.1697, 52.7106, -8.94033, 90.395, -77.4737, 35.1266
5.552, 5, 33.1656, 52.7126, -8.93145, 90.3859, -77.4993, 35.1181
5.556, 5, 33.1615, 52.7145, -8.92255, 90.3769, -77.525, 35.1096
5.56, 5, 33.1574, 52.7164, -8.91365, 90.3679, -77.5506, 35.101
5.564, 5, 33.1533, 52.7183, -8.90474, 90.3588, -77.5762, 35.0925
5.568, 5, 33.1492, 52.7202, -8.89582, 90.3498, -77.6018, 35.084
5.572, 5, 33.1451, 52.722, -8.88689, 90.3407, -77.6275, 35.0755
5.576, 5, 33.141, 52.7239, -8.87795, 90.3317, -77.6531, 35.067
5.58, 5, 33.1369, 52.7258, -8.86901, 90.3226, -77.6787, 35.0584
5.584, 5, 33.1328, 52.7276, -8.86005, 90.3135, -77.7043, 35.0499
5.588, 5, 33.1286, 52.7295, -8.85109, 90.3044, -77.73, 35.0414
5.592, 5, 33.1245, 52.7314, -8.84212, 90.2954, -77.7556, 35.0329
5.596, 5, 33.1204, 52.7332, -8.83313, 90.2863, -77.7812, 35.0243
5.6, 5, 33.1163, 52.735, -8.82414, 90.2772, -77.8068, 35.0158
5.604, 5, 33.1122, 52.7369, -8.81515, 90.2681, -77.8324, 35.0073
5.608, 5, 33.108, 52.7387, -8.80614, 90.259, -77.858, 34.9988
5.612, 5, 33.1039, 52.7405, -8.79712, 90.2499, -77.8836, 34.9902
5.616, 5, 33.0998, 52.7423, -8.7881, 90.2408, -77.9092, 34.9817
5.62, 5, 33.0956, 52.7441, -8.77907, 90.2317, -77.9349, 34.9732
5.624, 5, 33.0915, 52.7459, -8.77003, 90.2225, -77.9605, 34.9647
5.628, 5, 33.0874, 52.7477, -8.76098, 90.2134, -77.9861, 34.9561
5.632, 5, 33.0832, 52.7495, -8.75192, 90.2043, -78.0117, 34.9476
5.636, 5, 33.0791, 52.7513, -8.74285, 90.1952, -78.0372, 34.9391
5.64, 5, 33.0749, 52.753, -8.73377, 90.186, -78.0628, 34.9306
5.644, 5, 33.0708, 52.7548, -8.72469, 90.1769, -78.0884, 34.922
5.648, 5, 33.0666, 52.7565, -8.7156, 90.1677, -78.114, 34.9135
5.652, 5, 33.0625, 52.7583, -8.70649, 90.1586, -78.1396, 34.905
5.656, 5, 33.0583, 52.76, -8.69738, 90.1494, -78.1652, 34.8964
5.66, 5, 33.0541, 52.7618, -8.68826, 90.1402, -78.1908, 34.8879
5.664, 5, 33.05, 52.7635, -8.67914, 90.1311, -78.2164, 34.8794
5.668, 5, 33.0458, 52.7652, -8.67, 90.1219, -78.242, 34.8708
5.672, 5, 33.0416, 52.7669, -8.66086, 90.1127, -78.2675, 34.8623
5.676, 5, 33.0375, 52.7687, -8.6517, 90.1035, -78.2931, 34.8538
5.68, 5, 33.0333, 52.7704, -8.64254, 90.0943, -78.3187, 34.8452
5.684, 5, 33.0291, 52.7721, -8.63337, 90.0851, -78.3443, 34.8367
5.688, 5, 33.0249, 52.7737, -8.62419, 90.0759, -78.3698, 34.8282
5.692, 5, 33.0208, 52.7754, -8.615, 90.0667, -78.3954, 34.8196
5.696, 5, 33.0166, 52.7771, -8.60581, 90.0575, -78.421, 34.8111
5.7, 5, 33.0124, 52.7788, -8.5966, 90.0483, -78.4465, 34.8026
5.704, 5, 33.0084, 52.7804, -8.58739, 90.0391, -78.4721, 34.794
5.708, 5, 33.0045, 52.7819, -8.57819, 90.0298, -78.4976, 34.7855
5.712, 5, 33.001, 52.7833, -8.569, 90.0206, -78.5231, 34.777
5.716, 5, 32.9978, 52.7846, -8.55985, 90.0115, -78.5484, 34.7685
5.72, 5, 32.9949, 52.7856, -8.55079, 90.0024, -78.5735, 34.7601
5.724, 5, 32.9924, 52.7865, -8.54188, 89.9935, -78.5982, 34.7519
5.728, 5, 32.9902, 52.7871, -8.53319, 89.9848, -78.6222, 34.7438
5.732, 5, 32.9881, 52.7877, -8.52479, 89.9763, -78.6454, 34.7361
5.736, 5, 32.9861, 52.7882, -8.51678, 89.9683, -78.6676, 34.7286
5.74, 5, 32.984, 52.7888, -8.50924, 89.9608, -78.6884, 34.7217
5.744, 5, 32.9819, 52.7894, -8.50225, 89.9538, -78.7077, 34.7152
5.748, 5, 32.9798, 52.79, -8.49587, 89.9474, -78.7253, 34.7093
