hehonglu123/ABB_Primitive_Study/execution/movec_smooth/curve_exe_v200_fine.csv
timestamp, cmd_num, J1, J2, J3, J4, J5, J6
0, 1, 32.9528, 52.8019, -8.46502, 89.9168, -78.8096, 34.6812
0.002, 1, 32.9528, 52.8019, -8.46502, 89.9168, -78.8096, 34.6812
0.004, 1, 32.9528, 52.8019, -8.46502, 89.9168, -78.8096, 34.6812
0.01, 1, 32.9528, 52.8019, -8.46502, 89.9168, -78.8096, 34.6812
0.012, 1, 32.9528, 52.8019, -8.46502, 89.9168, -78.8096, 34.6812
0.016, 1, 32.9528, 52.8019, -8.46502, 89.9168, -78.8096, 34.6812
0.02, 1, 32.9528, 52.8019, -8.46502, 89.9168, -78.8096, 34.6812
0.024, 1, 32.9528, 52.8019, -8.46502, 89.9168, -78.8096, 34.6812
0.028, 1, 32.9528, 52.8019, -8.46502, 89.9168, -78.8096, 34.6812
0.032, 1, 32.9528, 52.8019, -8.46502, 89.9168, -78.8096, 34.6812
0.036, 1, 32.9529, 52.8019, -8.46502, 89.9168, -78.8096, 34.6812
0.04, 1, 32.9531, 52.8018, -8.46503, 89.9168, -78.8095, 34.6812
0.044, 1, 32.9535, 52.8014, -8.46505, 89.9169, -78.8095, 34.6812
0.048, 1, 32.9543, 52.8006, -8.4651, 89.9169, -78.8093, 34.6813
0.052, 1, 32.9556, 52.7993, -8.46521, 89.917, -78.8088, 34.6814
0.056, 1, 32.9574, 52.7971, -8.46544, 89.9173, -78.8079, 34.6818
0.06, 1, 32.9597, 52.794, -8.46584, 89.9178, -78.8061, 34.6824
0.064, 1, 32.9625, 52.7899, -8.46653, 89.9186, -78.803, 34.6834
0.068, 1, 32.9659, 52.7849, -8.46761, 89.92, -78.798, 34.6852
0.072, 1, 32.9697, 52.7789, -8.46923, 89.922, -78.7905, 34.6877
0.076, 1, 32.9741, 52.7719, -8.47155, 89.925, -78.7796, 34.6915
0.08, 1, 32.9791, 52.7639, -8.47475, 89.9292, -78.7644, 34.6967
0.084, 1, 32.9847, 52.7549, -8.47904, 89.9348, -78.744, 34.7037
0.088, 1, 32.991, 52.7451, -8.48462, 89.9421, -78.7174, 34.7128
0.092, 1, 32.9978, 52.7344, -8.49169, 89.9515, -78.6834, 34.7244
0.096, 1, 33.005, 52.7231, -8.50046, 89.9631, -78.6411, 34.7389
0.1, 1, 33.0126, 52.7112, -8.51109, 89.9773, -78.5897, 34.7566
0.104, 1, 33.0204, 52.699, -8.5237, 89.9942, -78.5285, 34.7775
0.108, 1, 33.0284, 52.6863, -8.53837, 90.0139, -78.4572, 34.802
0.112, 1, 33.0368, 52.673, -8.55512, 90.0364, -78.3757, 34.8299
0.116, 1, 33.0455, 52.6592, -8.57391, 90.0617, -78.2841, 34.8613
0.12, 1, 33.0546, 52.6447, -8.59467, 90.0896, -78.183, 34.896
0.124, 1, 33.0642, 52.6296, -8.61726, 90.12, -78.0728, 34.9337
0.128, 1, 33.0741, 52.6139, -8.64154, 90.1527, -77.9545, 34.9743
0.131, 1, 33.0844, 52.5977, -8.66731, 90.1875, -77.8288, 35.0174
0.136, 1, 33.0949, 52.5809, -8.69437, 90.2239, -77.6968, 35.0627
0.139, 1, 33.1058, 52.5633, -8.72251, 90.2618, -77.5596, 35.1097
0.144, 1, 33.1172, 52.5447, -8.75152, 90.3009, -77.4182, 35.1582
0.148, 1, 33.1293, 52.525, -8.78121, 90.3408, -77.2736, 35.2077
0.152, 1, 33.1421, 52.5041, -8.81138, 90.3814, -77.1267, 35.2581
0.156, 1, 33.1556, 52.4819, -8.8419, 90.4224, -76.9782, 35.309
0.16, 1, 33.17, 52.4586, -8.87265, 90.4637, -76.8286, 35.3603
0.164, 1, 33.1849, 52.4345, -8.90354, 90.5052, -76.6784, 35.4118
0.168, 1, 33.2004, 52.4098, -8.93451, 90.5467, -76.5279, 35.4634
0.172, 1, 33.2161, 52.3847, -8.9655, 90.5883, -76.3772, 35.515
0.176, 1, 33.2321, 52.3594, -8.9965, 90.6299, -76.2265, 35.5667
0.18, 1, 33.2481, 52.334, -9.02749, 90.6715, -76.076, 35.6183
0.184, 1, 33.2643, 52.3084, -9.05844, 90.713, -75.9256, 35.6699
0.188, 1, 33.2805, 52.2828, -9.08935, 90.7545, -75.7754, 35.7214
0.192, 1, 33.2967, 52.2573, -9.12022, 90.7959, -75.6254, 35.7728
0.196, 1, 33.3129, 52.2317, -9.15104, 90.8372, -75.4757, 35.8241
0.2, 1, 33.3291, 52.2061, -9.1818, 90.8785, -75.3262, 35.8753
0.204, 1, 33.3453, 52.1806, -9.21251, 90.9197, -75.177, 35.9265
0.208, 1, 33.3614, 52.1551, -9.24316, 90.9608, -75.028, 35.9775
0.212, 1, 33.3776, 52.1296, -9.27376, 91.0018, -74.8794, 36.0285
0.216, 1, 33.3937, 52.1042, -9.30431, 91.0428, -74.731, 36.0794
0.22, 1, 33.4098, 52.0788, -9.33479, 91.0837, -74.5829, 36.1302
0.224, 1, 33.4258, 52.0535, -9.36522, 91.1245, -74.435, 36.1808
0.228, 1, 33.4419, 52.0282, -9.3956, 91.1652, -74.2874, 36.2314
0.232, 1, 33.4579, 52.003, -9.42592, 91.2059, -74.1401, 36.2819
0.236, 1, 33.4738, 51.9778, -9.45618, 91.2465, -73.9931, 36.3323
0.24, 1, 33.4898, 51.9526, -9.48639, 91.287, -73.8463, 36.3826
0.244, 1, 33.5057, 51.9275, -9.51654, 91.3275, -73.6998, 36.4329
0.248, 1, 33.5216, 51.9025, -9.54664, 91.3678, -73.5536, 36.483
0.252, 1, 33.5374, 51.8774, -9.57668, 91.4081, -73.4076, 36.533
0.256, 1, 33.5533, 51.8525, -9.60667, 91.4483, -73.2619, 36.583
0.26, 1, 33.5691, 51.8276, -9.63661, 91.4885, -73.1165, 36.6328
0.264, 1, 33.5848, 51.8027, -9.66649, 91.5286, -72.9713, 36.6826
0.268, 1, 33.6006, 51.7778, -9.69631, 91.5686, -72.8264, 36.7323
0.272, 1, 33.6163, 51.7531, -9.72609, 91.6085, -72.6817, 36.7819
0.276, 1, 33.632, 51.7283, -9.75581, 91.6484, -72.5373, 36.8314
0.28, 1, 33.6476, 51.7036, -9.78548, 91.6882, -72.3932, 36.8808
0.284, 1, 33.6633, 51.679, -9.81509, 91.7279, -72.2493, 36.9301
0.288, 1, 33.6789, 51.6544, -9.84465, 91.7675, -72.1057, 36.9794
0.292, 1, 33.6945, 51.6298, -9.87416, 91.8071, -71.9623, 37.0285
0.296, 1, 33.71, 51.6053, -9.90362, 91.8466, -71.8191, 37.0776
0.3, 1, 33.7255, 51.5808, -9.93303, 91.8861, -71.6763, 37.1265
0.304, 1, 33.741, 51.5563, -9.96238, 91.9255, -71.5336, 37.1754
0.308, 1, 33.7565, 51.5319, -9.99169, 91.9648, -71.3913, 37.2242
0.312, 1, 33.7719, 51.5076, -10.0209, 92.004, -71.2491, 37.273
0.316, 1, 33.7873, 51.4833, -10.0501, 92.0432, -71.1073, 37.3216
0.32, 1, 33.8027, 51.459, -10.0793, 92.0823, -70.9656, 37.3702
0.324, 1, 33.8181, 51.4348, -10.1084, 92.1213, -70.8242, 37.4186
0.328, 1, 33.8334, 51.4106, -10.1375, 92.1603, -70.6831, 37.467
0.332, 1, 33.8487, 51.3864, -10.1665, 92.1992, -70.5422, 37.5153
0.336, 1, 33.864, 51.3623, -10.1954, 92.238, -70.4015, 37.5636
0.34, 1, 33.8793, 51.3383, -10.2243, 92.2768, -70.261, 37.6117
0.344, 1, 33.8945, 51.3142, -10.2532, 92.3155, -70.1209, 37.6598
0.348, 1, 33.9097, 51.2903, -10.282, 92.3541, -69.9809, 37.7077
0.352, 1, 33.9249, 51.2663, -10.3107, 92.3927, -69.8412, 37.7556
0.356, 1, 33.94, 51.2424, -10.3394, 92.4312, -69.7017, 37.8034
0.36, 1, 33.9552, 51.2186, -10.3681, 92.4696, -69.5624, 37.8512
0.364, 1, 33.9703, 51.1947, -10.3967, 92.508, -69.4234, 37.8988
0.368, 1, 33.9853, 51.171, -10.4253, 92.5463, -69.2846, 37.9464
0.372, 1, 34.0004, 51.1472, -10.4538, 92.5846, -69.1461, 37.9939
0.376, 1, 34.0154, 51.1235, -10.4823, 92.6228, -69.0078, 38.0413
0.38, 1, 34.0304, 51.0998, -10.5107, 92.6609, -68.8697, 38.0887
0.384, 1, 34.0454, 51.0762, -10.5391, 92.6989, -68.7318, 38.1359
0.388, 1, 34.0604, 51.0526, -10.5674, 92.7369, -68.5941, 38.1831
0.392, 1, 34.0753, 51.0291, -10.5957, 92.7749, -68.4567, 38.2302
0.396, 1, 34.0902, 51.0056, -10.6239, 92.8127, -68.3195, 38.2773
0.4, 1, 34.1051, 50.9821, -10.6521, 92.8506, -68.1825, 38.3242
0.404, 1, 34.1199, 50.9587, -10.6803, 92.8883, -68.0458, 38.3711
0.408, 1, 34.1348, 50.9353, -10.7084, 92.926, -67.9093, 38.4179
0.412, 1, 34.1496, 50.9119, -10.7364, 92.9636, -67.773, 38.4646
0.416, 1, 34.1643, 50.8886, -10.7644, 93.0012, -67.6369, 38.5113
0.42, 1, 34.1791, 50.8653, -10.7924, 93.0387, -67.501, 38.5579
0.424, 1, 34.1938, 50.8421, -10.8203, 93.0762, -67.3653, 38.6044
0.428, 1, 34.2086, 50.8189, -10.8482, 93.1136, -67.2299, 38.6508
0.432, 1, 34.2232, 50.7957, -10.876, 93.1509, -67.0947, 38.6971
0.436, 1, 34.2379, 50.7726, -10.9038, 93.1881, -66.9597, 38.7434
0.44, 1, 34.2526, 50.7495, -10.9315, 93.2254, -66.8249, 38.7896
0.444, 1, 34.2672, 50.7264, -10.9592, 93.2625, -66.6903, 38.8358
0.448, 1, 34.2818, 50.7034, -10.9869, 93.2996, -66.5559, 38.8818
0.452, 1, 34.2964, 50.6804, -11.0145, 93.3367, -66.4217, 38.9278
0.456, 1, 34.3109, 50.6574, -11.0421, 93.3736, -66.2878, 38.9738
0.46, 1, 34.3254, 50.6345, -11.0696, 93.4106, -66.154, 39.0196
0.464, 1, 34.3399, 50.6116, -11.0971, 93.4474, -66.0204, 39.0654
0.468, 1, 34.3544, 50.5888, -11.1246, 93.4842, -65.8871, 39.1111
0.472, 1, 34.3689, 50.566, -11.152, 93.521, -65.754, 39.1567
0.476, 1, 34.3833, 50.5432, -11.1793, 93.5577, -65.621, 39.2023
0.48, 1, 34.3978, 50.5204, -11.2066, 93.5943, -65.4883, 39.2478
0.484, 1, 34.4121, 50.4977, -11.2339, 93.6309, -65.3558, 39.2933
0.488, 1, 34.4265, 50.475, -11.2612, 93.6675, -65.2234, 39.3386
0.492, 1, 34.4409, 50.4524, -11.2884, 93.7039, -65.0913, 39.3839
0.496, 1, 34.4552, 50.4298, -11.3155, 93.7404, -64.9594, 39.4291
0.5, 1, 34.4695, 50.4072, -11.3426, 93.7767, -64.8276, 39.4743
0.504, 1, 34.4838, 50.3847, -11.3697, 93.813, -64.6961, 39.5194
0.508, 1, 34.4981, 50.3622, -11.3967, 93.8493, -64.5647, 39.5644
0.512, 1, 34.5123, 50.3397, -11.4237, 93.8855, -64.4336, 39.6094
0.516, 1, 34.5265, 50.3173, -11.4507, 93.9217, -64.3026, 39.6543
0.52, 1, 34.5408, 50.2949, -11.4776, 93.9578, -64.1719, 39.6991
0.524, 1, 34.5549, 50.2725, -11.5045, 93.9938, -64.0413, 39.7439
0.528, 1, 34.5691, 50.2501, -11.5313, 94.0298, -63.9109, 39.7886
0.532, 1, 34.5832, 50.2278, -11.5581, 94.0657, -63.7807, 39.8332
0.536, 1, 34.5974, 50.2056, -11.5848, 94.1016, -63.6507, 39.8777
0.54, 1, 34.6115, 50.1833, -11.6116, 94.1375, -63.5209, 39.9222
0.544, 1, 34.6255, 50.1611, -11.6382, 94.1732, -63.3913, 39.9667
0.548, 1, 34.6396, 50.1389, -11.6649, 94.209, -63.2619, 40.0111
0.552, 1, 34.6536, 50.1168, -11.6915, 94.2447, -63.1326, 40.0554
0.556, 1, 34.6677, 50.0947, -11.718, 94.2803, -63.0036, 40.0996
0.56, 1, 34.6817, 50.0726, -11.7446, 94.3159, -62.8747, 40.1438
0.564, 1, 34.6956, 50.0505, -11.7711, 94.3514, -62.746, 40.1879
0.568, 1, 34.7096, 50.0285, -11.7975, 94.3869, -62.6175, 40.2319
0.572, 1, 34.7235, 50.0065, -11.8239, 94.4223, -62.4892, 40.2759
0.576, 1, 34.7375, 49.9846, -11.8503, 94.4577, -62.361, 40.3199
0.58, 1, 34.7514, 49.9626, -11.8766, 94.493, -62.2331, 40.3637
0.584, 1, 34.7652, 49.9407, -11.9029, 94.5283, -62.1053, 40.4075
0.588, 1, 34.7791, 49.9189, -11.9292, 94.5635, -61.9777, 40.4513
0.592, 1, 34.7929, 49.897, -11.9554, 94.5987, -61.8503, 40.495
0.596, 1, 34.8068, 49.8752, -11.9816, 94.6338, -61.723, 40.5386
0.6, 1, 34.8206, 49.8535, -12.0078, 94.6689, -61.5959, 40.5821
0.604, 1, 34.8343, 49.8317, -12.0339, 94.7039, -61.4691, 40.6256
0.608, 1, 34.8481, 49.81, -12.06, 94.7389, -61.3423, 40.6691
0.612, 1, 34.8618, 49.7883, -12.086, 94.7738, -61.2158, 40.7125
0.616, 1, 34.8756, 49.7667, -12.112, 94.8087, -61.0894, 40.7558
0.62, 1, 34.8893, 49.7451, -12.138, 94.8435, -60.9632, 40.799
0.624, 1, 34.903, 49.7235, -12.1639, 94.8783, -60.8372, 40.8422
0.628, 1, 34.9166, 49.7019, -12.1898, 94.9131, -60.7114, 40.8854
0.632, 1, 34.9303, 49.6804, -12.2157, 94.9478, -60.5857, 40.9284
0.636, 1, 34.9439, 49.6589, -12.2415, 94.9824, -60.4602, 40.9715
0.64, 1, 34.9575, 49.6374, -12.2673, 95.017, -60.3349, 41.0144
0.644, 1, 34.9711, 49.6159, -12.2931, 95.0516, -60.2097, 41.0573
0.648, 1, 34.9847, 49.5945, -12.3188, 95.0861, -60.0847, 41.1002
0.652, 1, 34.9983, 49.5731, -12.3445, 95.1205, -59.9599, 41.143
0.656, 1, 35.0118, 49.5518, -12.3701, 95.1549, -59.8352, 41.1857
0.66, 1, 35.0253, 49.5304, -12.3958, 95.1893, -59.7107, 41.2284
0.664, 1, 35.0388, 49.5091, -12.4214, 95.2236, -59.5864, 41.271
0.668, 1, 35.0523, 49.4879, -12.4469, 95.2579, -59.4622, 41.3136
0.672, 1, 35.0658, 49.4666, -12.4724, 95.2921, -59.3382, 41.3561
0.676, 1, 35.0792, 49.4454, -12.4979, 95.3263, -59.2144, 41.3985
0.68, 1, 35.0927, 49.4242, -12.5234, 95.3605, -59.0907, 41.4409
0.684, 1, 35.1061, 49.4031, -12.5488, 95.3946, -58.9672, 41.4833
0.688, 1, 35.1195, 49.3819, -12.5742, 95.4286, -58.8439, 41.5256
0.692, 1, 35.1329, 49.3608, -12.5995, 95.4626, -58.7207, 41.5678
0.696, 1, 35.1462, 49.3397, -12.6249, 95.4966, -58.5977, 41.61
0.7, 1, 35.1596, 49.3187, -12.6501, 95.5305, -58.4748, 41.6521
0.704, 1, 35.1729, 49.2977, -12.6754, 95.5644, -58.3521, 41.6941
0.708, 1, 35.1862, 49.2767, -12.7006, 95.5982, -58.2296, 41.7361
0.712, 1, 35.1995, 49.2557, -12.7258, 95.632, -58.1072, 41.7781
0.716, 1, 35.2128, 49.2347, -12.751, 95.6657, -57.985, 41.82
0.72, 1, 35.226, 49.2138, -12.7761, 95.6994, -57.8629, 41.8618
0.724, 1, 35.2393, 49.1929, -12.8012, 95.7331, -57.741, 41.9036
0.728, 1, 35.2525, 49.1721, -12.8262, 95.7667, -57.6192, 41.9454
0.732, 1, 35.2657, 49.1512, -12.8513, 95.8003, -57.4976, 41.9871
0.736, 1, 35.2789, 49.1304, -12.8763, 95.8338, -57.3762, 42.0287
0.74, 1, 35.2921, 49.1097, -12.9012, 95.8673, -57.2549, 42.0703
0.744, 1, 35.3052, 49.0889, -12.9262, 95.9007, -57.1338, 42.1118
0.748, 1, 35.3184, 49.0682, -12.9511, 95.9341, -57.0128, 42.1533
0.752, 1, 35.3315, 49.0475, -12.9759, 95.9675, -56.8919, 42.1947
0.756, 1, 35.3446, 49.0268, -13.0008, 96.0008, -56.7712, 42.2361
0.76, 1, 35.3577, 49.0061, -13.0256, 96.0341, -56.6507, 42.2774
0.764, 1, 35.3708, 48.9855, -13.0504, 96.0673, -56.5303, 42.3187
0.768, 1, 35.3838, 48.9649, -13.0751, 96.1005, -56.4101, 42.3599
0.772, 1, 35.3969, 48.9443, -13.0998, 96.1336, -56.29, 42.401
0.776, 1, 35.4099, 48.9238, -13.1245, 96.1667, -56.1701, 42.4422
0.78, 1, 35.4229, 48.9032, -13.1492, 96.1998, -56.0503, 42.4832
0.784, 1, 35.4359, 48.8827, -13.1738, 96.2328, -55.9306, 42.5242
0.788, 1, 35.4489, 48.8623, -13.1984, 96.2658, -55.8112, 42.5652
0.792, 1, 35.4619, 48.8418, -13.2229, 96.2988, -55.6918, 42.6061
0.796, 1, 35.4748, 48.8214, -13.2475, 96.3317, -55.5726, 42.647
0.8, 1, 35.4877, 48.801, -13.272, 96.3646, -55.4535, 42.6878
0.804, 1, 35.5006, 48.7806, -13.2965, 96.3974, -55.3346, 42.7285
0.808, 1, 35.5136, 48.7603, -13.3209, 96.4302, -55.2159, 42.7693
0.812, 1, 35.5264, 48.7399, -13.3453, 96.4629, -55.0972, 42.8099
0.816, 1, 35.5393, 48.7196, -13.3697, 96.4956, -54.9787, 42.8506
0.82, 1, 35.5522, 48.6994, -13.3941, 96.5283, -54.8604, 42.8911
0.824, 1, 35.565, 48.6791, -13.4184, 96.5609, -54.7422, 42.9316
0.828, 1, 35.5778, 48.6589, -13.4427, 96.5935, -54.6241, 42.9721
0.832, 1, 35.5906, 48.6387, -13.467, 96.6261, -54.5062, 43.0125
0.836, 1, 35.6034, 48.6185, -13.4912, 96.6586, -54.3884, 43.0529
0.84, 1, 35.6162, 48.5983, -13.5154, 96.6911, -54.2707, 43.0933
0.844, 1, 35.629, 48.5782, -13.5396, 96.7235, -54.1532, 43.1335
0.848, 1, 35.6417, 48.5581, -13.5638, 96.7559, -54.0358, 43.1738
0.852, 1, 35.6545, 48.538, -13.5879, 96.7883, -53.9186, 43.214
0.856, 1, 35.6672, 48.5179, -13.612, 96.8206, -53.8015, 43.2541
0.86, 1, 35.6799, 48.4979, -13.6361, 96.8529, -53.6845, 43.2942
0.864, 1, 35.6925, 48.4779, -13.6601, 96.8852, -53.5677, 43.3343
0.868, 1, 35.7051, 48.458, -13.6841, 96.9174, -53.451, 43.3743
0.872, 1, 35.7176, 48.4381, -13.7081, 96.9496, -53.3345, 43.4142
0.876, 1, 35.73, 48.4184, -13.7321, 96.9817, -53.2181, 43.4541
0.88, 1, 35.7419, 48.3992, -13.756, 97.0137, -53.102, 43.4939
0.884, 1, 35.7533, 48.3805, -13.7798, 97.0457, -52.9863, 43.5336
0.888, 1, 35.7641, 48.3627, -13.8035, 97.0775, -52.8712, 43.5731
0.892, 1, 35.7742, 48.3457, -13.8269, 97.109, -52.757, 43.6122
0.896, 1, 35.7836, 48.3297, -13.8501, 97.1401, -52.6444, 43.6508
0.9, 1, 35.7924, 48.3145, -13.8728, 97.1706, -52.534, 43.6887
0.904, 1, 35.8007, 48.3002, -13.895, 97.2003, -52.4264, 43.7256
0.908, 1, 35.8087, 48.2866, -13.9163, 97.229, -52.3226, 43.7613
0.912, 1, 35.8164, 48.2736, -13.9367, 97.2564, -52.2234, 43.7953
0.916, 1, 35.8238, 48.2613, -13.956, 97.2823, -52.1296, 43.8275
0.92, 1, 35.8309, 48.2497, -13.9741, 97.3065, -52.042, 43.8576
0.924, 1, 35.8377, 48.2387, -13.9907, 97.3288, -51.9612, 43.8853
0.928, 1, 35.8442, 48.2281, -14.0057, 97.3491, -51.888, 43.9104
0.932, 1, 35.8507, 48.2178, -14.0192, 97.3671, -51.8226, 43.9328
0.936, 1, 35.8571, 48.2077, -14.031, 97.3829, -51.7653, 43.9524
0.94, 1, 35.8634, 48.1979, -14.0412, 97.3966, -51.716, 43.9693
0.944, 1, 35.8695, 48.1884, -14.0498, 97.4081, -51.6743, 43.9836
0.948, 1, 35.8755, 48.1793, -14.0569, 97.4175, -51.6399, 43.9954
0.952, 2, 35.8812, 48.1708, -14.0626, 97.4252, -51.612, 44.0049
0.956, 2, 35.8865, 48.1631, -14.0672, 97.4313, -51.5899, 44.0124
0.96, 2, 35.8915, 48.1562, -14.0707, 97.436, -51.5728, 44.0183
0.964, 2, 35.896, 48.1502, -14.0734, 97.4396, -51.5598, 44.0227
0.968, 2, 35.9001, 48.145, -14.0754, 97.4422, -51.5503, 44.0259
0.972, 2, 35.9037, 48.1406, -14.0768, 97.4441, -51.5433, 44.0283
0.976, 2, 35.9067, 48.1371, -14.0778, 97.4454, -51.5385, 44.0299
0.98, 2, 35.9091, 48.1343, -14.0785, 97.4463, -51.5351, 44.0311
0.984, 2, 35.911, 48.1323, -14.079, 97.4469, -51.5327, 44.0319
0.988, 2, 35.9123, 48.1308, -14.0793, 97.4474, -51.5312, 44.0324
0.992, 2, 35.9132, 48.1299, -14.0796, 97.4477, -51.5301, 44.0328
0.996, 2, 35.9138, 48.1292, -14.0797, 97.4479, -51.5294, 44.033
1, 2, 35.9142, 48.1287, -14.0798, 97.448, -51.5289, 44.0332
1.004, 2, 35.9145, 48.1284, -14.0799, 97.4481, -51.5285, 44.0333
1.008, 2, 35.9147, 48.1282, -14.0799, 97.4482, -51.5283, 44.0334
1.012, 2, 35.9149, 48.1281, -14.08, 97.4482, -51.5282, 44.0334
1.016, 2, 35.9149, 48.128, -14.08, 97.4482, -51.5281, 44.0335
1.02, 2, 35.915, 48.1279, -14.08, 97.4482, -51.528, 44.0335
1.024, 2, 35.915, 48.1279, -14.08, 97.4483, -51.5279, 44.0335
1.027, 2, 35.9151, 48.1278, -14.08, 97.4483, -51.5279, 44.0335
1.032, 2, 35.9151, 48.1278, -14.08, 97.4483, -51.5279, 44.0335
1.036, 2, 35.9151, 48.1278, -14.08, 97.4483, -51.5279, 44.0335
1.04, 2, 35.9151, 48.1278, -14.08, 97.4483, -51.5279, 44.0335
1.044, 2, 35.9151, 48.1278, -14.08, 97.4483, -51.5279, 44.0335
1.048, 2, 35.9151, 48.1278, -14.08, 97.4483, -51.5279, 44.0335
1.052, 2, 35.9151, 48.1278, -14.08, 97.4483, -51.5278, 44.0335
1.055, 2, 35.9151, 48.1278, -14.08, 97.4483, -51.5278, 44.0335
1.06, 2, 35.9151, 48.1278, -14.08, 97.4483, -51.5278, 44.0335
1.064, 2, 35.9151, 48.1278, -14.08, 97.4483, -51.5278, 44.0335
1.068, 2, 35.9151, 48.1278, -14.08, 97.4483, -51.5278, 44.0335
1.072, 2, 35.9151, 48.1278, -14.08, 97.4483, -51.5278, 44.0335
1.076, 2, 35.9151, 48.1278, -14.08, 97.4483, -51.5278, 44.0335
1.08, 2, 35.9151, 48.1278, -14.08, 97.4483, -51.5278, 44.0335
1.084, 2, 35.9151, 48.1278, -14.08, 97.4483, -51.5278, 44.0335
1.088, 2, 35.9151, 48.1278, -14.08, 97.4483, -51.5278, 44.0335
1.091, 2, 35.9151, 48.1278, -14.08, 97.4483, -51.5278, 44.0335
1.096, 2, 35.9151, 48.1278, -14.08, 97.4483, -51.5278, 44.0335
1.1, 2, 35.9151, 48.1278, -14.08, 97.4483, -51.5278, 44.0335
1.104, 2, 35.9151, 48.1278, -14.08, 97.4483, -51.5278, 44.0335
1.108, 2, 35.9151, 48.1278, -14.08, 97.4483, -51.5278, 44.0335
1.112, 2, 35.9151, 48.1278, -14.08, 97.4483, -51.5278, 44.0335
1.116, 2, 35.9151, 48.1278, -14.08, 97.4483, -51.5278, 44.0335
1.119, 2, 35.9151, 48.1278, -14.08, 97.4483, -51.5278, 44.0335
1.124, 2, 35.9151, 48.1278, -14.08, 97.4483, -51.5278, 44.0335
1.128, 2, 35.9151, 48.1278, -14.08, 97.4483, -51.5278, 44.0335
1.132, 2, 35.9151, 48.1278, -14.08, 97.4483, -51.5278, 44.0335
1.136, 2, 35.9151, 48.1278, -14.08, 97.4483, -51.5278, 44.0335
1.14, 2, 35.9151, 48.1278, -14.08, 97.4483, -51.5278, 44.0335
1.144, 2, 35.9151, 48.1278, -14.08, 97.4483, -51.5278, 44.0335
1.147, 2, 35.9151, 48.1278, -14.08, 97.4483, -51.5278, 44.0335
1.152, 2, 35.9151, 48.1278, -14.08, 97.4483, -51.5278, 44.0335
1.156, 2, 35.9151, 48.1278, -14.08, 97.4483, -51.5278, 44.0335
1.16, 2, 35.9151, 48.1278, -14.08, 97.4483, -51.5278, 44.0335
1.164, 2, 35.9151, 48.1278, -14.08, 97.4483, -51.5278, 44.0335
1.168, 2, 35.9151, 48.1278, -14.08, 97.4483, -51.5278, 44.0335
1.172, 2, 35.9151, 48.1278, -14.08, 97.4483, -51.5278, 44.0335
1.175, 2, 35.9151, 48.1278, -14.08, 97.4483, -51.5278, 44.0335
1.18, 2, 35.9151, 48.1278, -14.08, 97.4483, -51.5278, 44.0335
1.184, 2, 35.9151, 48.1278, -14.08, 97.4483, -51.5278, 44.0335
1.188, 2, 35.9151, 48.1278, -14.08, 97.4483, -51.5278, 44.0335
1.192, 2, 35.9151, 48.1278, -14.08, 97.4483, -51.5278, 44.0335
1.196, 2, 35.9151, 48.1278, -14.08, 97.4483, -51.5278, 44.0335
1.2, 2, 35.9151, 48.1278, -14.08, 97.4483, -51.5278, 44.0335
1.204, 2, 35.9151, 48.1278, -14.08, 97.4483, -51.5278, 44.0335
1.208, 2, 35.9151, 48.1278, -14.08, 97.4483, -51.5278, 44.0335
1.212, 2, 35.9151, 48.1278, -14.08, 97.4483, -51.5278, 44.0335
1.216, 2, 35.9151, 48.1278, -14.08, 97.4483, -51.5278, 44.0335
1.22, 2, 35.9151, 48.1278, -14.08, 97.4483, -51.5278, 44.0335
1.224, 2, 35.9151, 48.1278, -14.08, 97.4483, -51.5278, 44.0335
1.228, 2, 35.9151, 48.1278, -14.08, 97.4483, -51.5278, 44.0335
1.232, 2, 35.9151, 48.1278, -14.08, 97.4483, -51.5278, 44.0335
1.236, 2, 35.9151, 48.1278, -14.08, 97.4483, -51.5278, 44.0335
1.24, 2, 35.9151, 48.1278, -14.08, 97.4483, -51.5278, 44.0335
1.244, 2, 35.9151, 48.1278, -14.08, 97.4483, -51.5278, 44.0335
1.248, 2, 35.9151, 48.1278, -14.08, 97.4483, -51.5278, 44.0335
1.252, 2, 35.9151, 48.1278, -14.08, 97.4483, -51.5278, 44.0335
1.256, 2, 35.9151, 48.1278, -14.08, 97.4483, -51.5278, 44.0335
1.26, 2, 35.9151, 48.1278, -14.08, 97.4483, -51.5278, 44.0335
1.264, 2, 35.9151, 48.1278, -14.08, 97.4483, -51.5278, 44.0335
1.267, 2, 35.9151, 48.1278, -14.08, 97.4483, -51.5278, 44.0335
1.272, 2, 35.9151, 48.1278, -14.08, 97.4483, -51.5278, 44.0335
1.276, 2, 35.9151, 48.1278, -14.08, 97.4483, -51.5278, 44.0335
1.28, 2, 35.9151, 48.1278, -14.08, 97.4483, -51.5278, 44.0335
1.284, 2, 35.9151, 48.1278, -14.08, 97.4483, -51.5278, 44.0335
1.288, 2, 35.9151, 48.1278, -14.08, 97.4483, -51.5278, 44.0335
1.292, 2, 35.9151, 48.1278, -14.08, 97.4483, -51.5278, 44.0335
1.295, 2, 35.9151, 48.1278, -14.08, 97.4483, -51.5278, 44.0335
1.3, 2, 35.9151, 48.1278, -14.08, 97.4483, -51.5278, 44.0335
1.304, 2, 35.9151, 48.1278, -14.08, 97.4483, -51.5278, 44.0335
1.308, 2, 35.9151, 48.1278, -14.08, 97.4483, -51.5278, 44.0335
1.312, 2, 35.9151, 48.1278, -14.08, 97.4483, -51.5278, 44.0335
1.316, 2, 35.9151, 48.1278, -14.08, 97.4483, -51.5278, 44.0335
1.32, 2, 35.9151, 48.1278, -14.08, 97.4483, -51.5278, 44.0335
1.324, 2, 35.9151, 48.1278, -14.08, 97.4483, -51.5278, 44.0335
1.328, 2, 35.9151, 48.1278, -14.08, 97.4483, -51.5278, 44.0335
1.332, 2, 35.9151, 48.1278, -14.08, 97.4483, -51.5278, 44.0335
1.336, 2, 35.9151, 48.1278, -14.08, 97.4483, -51.5278, 44.0335
1.34, 2, 35.9151, 48.1278, -14.08, 97.4483, -51.5278, 44.0335
1.344, 2, 35.9151, 48.1278, -14.08, 97.4483, -51.5278, 44.0335
1.348, 2, 35.9151, 48.1278, -14.08, 97.4483, -51.5278, 44.0335
1.352, 2, 35.9151, 48.1278, -14.08, 97.4483, -51.5278, 44.0335
1.356, 2, 35.9151, 48.1278, -14.08, 97.4483, -51.5278, 44.0335
1.36, 2, 35.9151, 48.1278, -14.08, 97.4483, -51.5278, 44.0335
1.364, 2, 35.9151, 48.1278, -14.08, 97.4483, -51.5278, 44.0335
1.368, 2, 35.9151, 48.1278, -14.08, 97.4483, -51.5278, 44.0335
1.372, 2, 35.9151, 48.1278, -14.08, 97.4483, -51.5278, 44.0335
1.376, 2, 35.9151, 48.1278, -14.08, 97.4483, -51.5278, 44.0335
1.38, 2, 35.9151, 48.1278, -14.08, 97.4483, -51.5278, 44.0335
1.384, 2, 35.9151, 48.1278, -14.08, 97.4483, -51.5278, 44.0335
1.388, 2, 35.9151, 48.1278, -14.08, 97.4483, -51.5278, 44.0335
1.392, 2, 35.9151, 48.1278, -14.08, 97.4483, -51.5278, 44.0335
1.396, 2, 35.9151, 48.1278, -14.08, 97.4483, -51.5278, 44.0335
1.4, 2, 35.9151, 48.1278, -14.08, 97.4483, -51.5278, 44.0335
1.404, 2, 35.9151, 48.1278, -14.08, 97.4483, -51.5278, 44.0335
1.408, 2, 35.9151, 48.1278, -14.08, 97.4483, -51.5278, 44.0335
1.412, 2, 35.9151, 48.1278, -14.08, 97.4483, -51.5278, 44.0335
1.416, 2, 35.9151, 48.1278, -14.08, 97.4483, -51.5278, 44.0335
1.42, 2, 35.9151, 48.1278, -14.08, 97.4483, -51.5278, 44.0335
1.424, 2, 35.9151, 48.1278, -14.08, 97.4483, -51.5278, 44.0335
1.428, 2, 35.9151, 48.1278, -14.08, 97.4483, -51.5278, 44.0335
1.432, 2, 35.9151, 48.1278, -14.08, 97.4483, -51.5278, 44.0335
1.436, 2, 35.9151, 48.1278, -14.08, 97.4483, -51.5278, 44.0335
1.44, 2, 35.9151, 48.1278, -14.08, 97.4483, -51.5278, 44.0335
1.444, 2, 35.9151, 48.1278, -14.08, 97.4483, -51.5278, 44.0335
1.448, 2, 35.9151, 48.1278, -14.08, 97.4483, -51.5278, 44.0335
1.452, 3, 35.9151, 48.1278, -14.08, 97.4483, -51.5278, 44.0335
1.456, 3, 35.9151, 48.1278, -14.08, 97.4483, -51.5278, 44.0335
1.46, 3, 35.9151, 48.1278, -14.08, 97.4483, -51.5278, 44.0335
1.464, 3, 35.9151, 48.1278, -14.08, 97.4483, -51.5278, 44.0335
1.468, 3, 35.9151, 48.1278, -14.08, 97.4483, -51.5278, 44.0335
1.472, 3, 35.9151, 48.1278, -14.08, 97.4483, -51.5278, 44.0335
1.476, 3, 35.9151, 48.1278, -14.08, 97.4483, -51.5278, 44.0335
1.48, 3, 35.9151, 48.1278, -14.08, 97.4483, -51.5278, 44.0335
1.484, 3, 35.9151, 48.1278, -14.08, 97.4483, -51.5278, 44.0335
1.488, 3, 35.9151, 48.1278, -14.08, 97.4483, -51.5278, 44.0335
1.492, 3, 35.9151, 48.1278, -14.08, 97.4483, -51.5278, 44.0335
1.496, 3, 35.9151, 48.1278, -14.08, 97.4483, -51.5278, 44.0335
1.5, 3, 35.9151, 48.1278, -14.08, 97.4483, -51.5278, 44.0335
1.504, 3, 35.9151, 48.1278, -14.08, 97.4483, -51.5278, 44.0335
1.508, 4, 35.9151, 48.1278, -14.08, 97.4483, -51.5278, 44.0335
1.512, 4, 35.9151, 48.1278, -14.08, 97.4483, -51.5278, 44.0335
1.516, 4, 35.9151, 48.1278, -14.08, 97.4483, -51.5278, 44.0335
1.52, 4, 35.9151, 48.1278, -14.08, 97.4483, -51.5278, 44.0335
1.524, 4, 35.9151, 48.1278, -14.08, 97.4483, -51.5278, 44.0335
1.528, 4, 35.9151, 48.1278, -14.08, 97.4483, -51.5278, 44.0335
1.532, 4, 35.9151, 48.1278, -14.08, 97.4483, -51.5278, 44.0335
1.536, 4, 35.9151, 48.1278, -14.08, 97.4483, -51.5278, 44.0335
1.54, 4, 35.9151, 48.1278, -14.08, 97.4483, -51.5278, 44.0335
1.544, 4, 35.9151, 48.1278, -14.08, 97.4483, -51.5278, 44.0335
1.548, 4, 35.915, 48.128, -14.08, 97.4483, -51.5279, 44.0335
1.552, 4, 35.9148, 48.1283, -14.08, 97.4483, -51.5279, 44.0335
1.556, 4, 35.9144, 48.1291, -14.08, 97.4483, -51.5281, 44.0334
1.56, 4, 35.9137, 48.1303, -14.08, 97.4482, -51.5284, 44.0333
1.564, 4, 35.9128, 48.1322, -14.0799, 97.4481, -51.5292, 44.033
1.568, 4, 35.9115, 48.1347, -14.0798, 97.4478, -51.5306, 44.0325
1.572, 4, 35.91, 48.1378, -14.0797, 97.4474, -51.533, 44.0316
1.576, 4, 35.9084, 48.1415, -14.0795, 97.4468, -51.5368, 44.0301
1.58, 4, 35.9067, 48.1457, -14.0792, 97.4459, -51.5425, 44.028
1.584, 4, 35.905, 48.1504, -14.0788, 97.4445, -51.5505, 44.0249
1.588, 4, 35.9034, 48.1554, -14.0782, 97.4427, -51.5612, 44.0208
1.592, 4, 35.9018, 48.1609, -14.0775, 97.4404, -51.5751, 44.0155
1.596, 4, 35.9002, 48.1669, -14.0766, 97.4374, -51.5925, 44.0089
1.6, 4, 35.8987, 48.1732, -14.0756, 97.4338, -51.6135, 44.0009
1.604, 4, 35.8972, 48.18, -14.0743, 97.4296, -51.6384, 43.9914
1.608, 4, 35.8958, 48.1873, -14.0728, 97.4247, -51.6672, 43.9804
1.612, 4, 35.8945, 48.1948, -14.0712, 97.4191, -51.6998, 43.968
1.616, 4, 35.8933, 48.2027, -14.0693, 97.4128, -51.7361, 43.9542
1.62, 4, 35.8922, 48.211, -14.0673, 97.406, -51.7758, 43.9391
1.624, 4, 35.8911, 48.2197, -14.065, 97.3986, -51.8186, 43.9228
1.628, 4, 35.8899, 48.2289, -14.0627, 97.3908, -51.8639, 43.9056
1.632, 4, 35.8887, 48.2388, -14.0602, 97.3825, -51.9114, 43.8875
1.636, 4, 35.8872, 48.2494, -14.0575, 97.3739, -51.9606, 43.8689
1.64, 4, 35.8856, 48.2606, -14.0548, 97.3651, -52.0112, 43.8497
1.644, 4, 35.8837, 48.2725, -14.052, 97.356, -52.0629, 43.8301
1.648, 4, 35.8816, 48.2848, -14.0491, 97.3468, -52.1154, 43.8102
1.652, 4, 35.8793, 48.2976, -14.0461, 97.3374, -52.1684, 43.7901
1.656, 4, 35.8768, 48.3107, -14.0431, 97.3279, -52.2218, 43.7699
1.66, 4, 35.8742, 48.3241, -14.04, 97.3183, -52.2756, 43.7496
1.664, 4, 35.8715, 48.3376, -14.0369, 97.3087, -52.3295, 43.7293
1.668, 4, 35.8688, 48.3513, -14.0337, 97.299, -52.3836, 43.7089
1.672, 4, 35.8659, 48.3651, -14.0305, 97.2892, -52.4378, 43.6885
1.676, 4, 35.863, 48.3789, -14.0272, 97.2794, -52.4921, 43.6681
1.68, 4, 35.8601, 48.3928, -14.0239, 97.2695, -52.5463, 43.6477
1.684, 4, 35.8571, 48.4067, -14.0205, 97.2596, -52.6006, 43.6273
1.688, 4, 35.8541, 48.4206, -14.0172, 97.2497, -52.6549, 43.6069
1.692, 4, 35.8511, 48.4346, -14.0137, 97.2397, -52.7092, 43.5865
1.696, 4, 35.8481, 48.4485, -14.0103, 97.2297, -52.7635, 43.5662
1.7, 4, 35.845, 48.4624, -14.0068, 97.2196, -52.8178, 43.5458
1.704, 4, 35.842, 48.4762, -14.0033, 97.2095, -52.8721, 43.5255
1.708, 4, 35.8389, 48.4901, -13.9997, 97.1994, -52.9264, 43.5053
1.712, 4, 35.8358, 48.5039, -13.9961, 97.1892, -52.9806, 43.485
1.716, 4, 35.8327, 48.5178, -13.9924, 97.179, -53.0349, 43.4648
1.72, 4, 35.8296, 48.5316, -13.9887, 97.1687, -53.0891, 43.4446
1.724, 4, 35.8265, 48.5453, -13.985, 97.1585, -53.1433, 43.4244
1.728, 4, 35.8233, 48.5591, -13.9813, 97.1481, -53.1975, 43.4042
1.732, 4, 35.8202, 48.5728, -13.9775, 97.1378, -53.2517, 43.3841
1.736, 4, 35.817, 48.5866, -13.9736, 97.1274, -53.3059, 43.3639
1.74, 4, 35.8138, 48.6003, -13.9698, 97.117, -53.3601, 43.3438
1.744, 4, 35.8106, 48.614, -13.9658, 97.1065, -53.4142, 43.3238
1.748, 4, 35.8074, 48.6276, -13.9619, 97.096, -53.4683, 43.3037
1.752, 4, 35.8042, 48.6412, -13.9579, 97.0854, -53.5225, 43.2837
1.756, 4, 35.801, 48.6549, -13.9539, 97.0748, -53.5766, 43.2637
1.76, 4, 35.7977, 48.6685, -13.9498, 97.0642, -53.6307, 43.2437
1.764, 4, 35.7945, 48.682, -13.9457, 97.0536, -53.6847, 43.2237
1.768, 4, 35.7912, 48.6956, -13.9416, 97.0429, -53.7388, 43.2038
1.772, 4, 35.7879, 48.7091, -13.9374, 97.0322, -53.7928, 43.1838
1.776, 4, 35.7846, 48.7226, -13.9332, 97.0214, -53.8469, 43.1639
1.78, 4, 35.7813, 48.7361, -13.9289, 97.0106, -53.9009, 43.1441
1.784, 4, 35.778, 48.7496, -13.9246, 96.9998, -53.9549, 43.1242
1.788, 4, 35.7747, 48.763, -13.9203, 96.9889, -54.0089, 43.1044
1.792, 4, 35.7713, 48.7764, -13.9159, 96.978, -54.0629, 43.0845
1.796, 4, 35.768, 48.7898, -13.9115, 96.9671, -54.1169, 43.0647
1.8, 4, 35.7646, 48.8032, -13.907, 96.9561, -54.1708, 43.045
1.804, 4, 35.7612, 48.8166, -13.9026, 96.9451, -54.2247, 43.0252
1.808, 4, 35.7578, 48.8299, -13.898, 96.9341, -54.2787, 43.0055
1.812, 4, 35.7544, 48.8432, -13.8935, 96.923, -54.3326, 42.9858
1.816, 4, 35.751, 48.8565, -13.8889, 96.9119, -54.3865, 42.9661
1.82, 4, 35.7476, 48.8698, -13.8842, 96.9007, -54.4404, 42.9464
1.824, 4, 35.7441, 48.883, -13.8795, 96.8895, -54.4942, 42.9268
1.828, 4, 35.7407, 48.8963, -13.8748, 96.8783, -54.5481, 42.9071
1.832, 4, 35.7372, 48.9095, -13.8701, 96.8671, -54.6019, 42.8875
1.836, 4, 35.7337, 48.9226, -13.8653, 96.8558, -54.6557, 42.8679
1.84, 4, 35.7303, 48.9358, -13.8604, 96.8445, -54.7095, 42.8484
1.844, 4, 35.7267, 48.9489, -13.8555, 96.8331, -54.7633, 42.8288
1.848, 4, 35.7232, 48.9621, -13.8506, 96.8217, -54.8171, 42.8093
1.852, 4, 35.7197, 48.9752, -13.8457, 96.8103, -54.8709, 42.7898
1.856, 4, 35.7162, 48.9882, -13.8407, 96.7988, -54.9247, 42.7703
1.86, 4, 35.7126, 49.0013, -13.8356, 96.7873, -54.9784, 42.7508
1.864, 4, 35.709, 49.0143, -13.8306, 96.7758, -55.0321, 42.7314
1.868, 4, 35.7055, 49.0273, -13.8255, 96.7643, -55.0858, 42.7119
1.872, 4, 35.7019, 49.0403, -13.8203, 96.7527, -55.1395, 42.6925
1.876, 4, 35.6983, 49.0532, -13.8151, 96.7411, -55.1932, 42.6731
1.88, 4, 35.6947, 49.0662, -13.8099, 96.7294, -55.2469, 42.6537
1.884, 4, 35.691, 49.0791, -13.8046, 96.7177, -55.3006, 42.6344
1.888, 4, 35.6874, 49.092, -13.7993, 96.706, -55.3542, 42.615
1.892, 4, 35.6837, 49.1049, -13.794, 96.6942, -55.4078, 42.5957
1.896, 4, 35.6801, 49.1177, -13.7886, 96.6824, -55.4614, 42.5764
1.9, 4, 35.6764, 49.1305, -13.7832, 96.6706, -55.5151, 42.5571
1.904, 4, 35.6727, 49.1433, -13.7777, 96.6588, -55.5686, 42.5379
1.908, 4, 35.669, 49.1561, -13.7722, 96.6469, -55.6222, 42.5186
1.912, 4, 35.6653, 49.1689, -13.7667, 96.6349, -55.6758, 42.4994
1.916, 4, 35.6616, 49.1816, -13.7611, 96.623, -55.7293, 42.4802
1.92, 4, 35.6578, 49.1943, -13.7555, 96.611, -55.7829, 42.461
1.924, 4, 35.6541, 49.207, -13.7499, 96.599, -55.8364, 42.4418
1.928, 4, 35.6503, 49.2197, -13.7442, 96.5869, -55.8899, 42.4227
1.932, 4, 35.6465, 49.2324, -13.7385, 96.5748, -55.9434, 42.4035
1.936, 4, 35.6427, 49.245, -13.7327, 96.5627, -55.9969, 42.3844
1.94, 4, 35.6389, 49.2576, -13.7269, 96.5506, -56.0503, 42.3653
1.944, 4, 35.6351, 49.2702, -13.721, 96.5384, -56.1038, 42.3462
1.948, 4, 35.6313, 49.2827, -13.7152, 96.5262, -56.1572, 42.3271
1.952, 4, 35.6275, 49.2953, -13.7092, 96.5139, -56.2107, 42.3081
1.956, 4, 35.6236, 49.3078, -13.7033, 96.5017, -56.2641, 42.2891
1.96, 4, 35.6198, 49.3203, -13.6973, 96.4894, -56.3175, 42.27
1.964, 4, 35.6159, 49.3327, -13.6912, 96.477, -56.3709, 42.251
1.968, 4, 35.612, 49.3452, -13.6851, 96.4646, -56.4242, 42.2321
1.972, 4, 35.6081, 49.3576, -13.679, 96.4522, -56.4776, 42.2131
1.976, 4, 35.6042, 49.37, -13.6729, 96.4398, -56.5309, 42.1942
1.98, 4, 35.6003, 49.3824, -13.6667, 96.4273, -56.5843, 42.1752
1.984, 4, 35.5963, 49.3947, -13.6605, 96.4149, -56.6376, 42.1563
1.988, 4, 35.5924, 49.4071, -13.6542, 96.4023, -56.6909, 42.1374
1.992, 4, 35.5884, 49.4194, -13.6479, 96.3898, -56.7442, 42.1185
1.996, 4, 35.5844, 49.4317, -13.6415, 96.3772, -56.7975, 42.0997
1.999, 4, 35.5805, 49.4439, -13.6351, 96.3645, -56.8507, 42.0808
2.004, 4, 35.5765, 49.4562, -13.6287, 96.3519, -56.904, 42.062
2.008, 4, 35.5725, 49.4684, -13.6222, 96.3392, -56.9572, 42.0432
2.012, 4, 35.5684, 49.4806, -13.6157, 96.3265, -57.0105, 42.0244
2.015, 4, 35.5644, 49.4928, -13.6092, 96.3138, -57.0637, 42.0056
2.019, 4, 35.5604, 49.5049, -13.6026, 96.301, -57.1169, 41.9868
2.024, 4, 35.5563, 49.517, -13.596, 96.2882, -57.1701, 41.9681
2.028, 4, 35.5522, 49.5291, -13.5893, 96.2753, -57.2232, 41.9493
2.031, 4, 35.5482, 49.5412, -13.5826, 96.2625, -57.2764, 41.9306
2.036, 4, 35.5441, 49.5533, -13.5759, 96.2496, -57.3295, 41.9119
2.04, 4, 35.54, 49.5653, -13.5691, 96.2366, -57.3827, 41.8932
2.044, 4, 35.5358, 49.5773, -13.5623, 96.2237, -57.4358, 41.8745
2.048, 4, 35.5317, 49.5893, -13.5555, 96.2107, -57.4889, 41.8559
2.051, 4, 35.5276, 49.6013, -13.5486, 96.1977, -57.542, 41.8372
2.055, 4, 35.5234, 49.6132, -13.5416, 96.1846, -57.5951, 41.8186
2.06, 4, 35.5192, 49.6252, -13.5347, 96.1716, -57.6481, 41.8
2.064, 4, 35.5151, 49.6371, -13.5277, 96.1585, -57.7012, 41.7814
2.068, 4, 35.5109, 49.6489, -13.5206, 96.1453, -57.7542, 41.7628
2.071, 4, 35.5067, 49.6608, -13.5135, 96.1322, -57.8073, 41.7443
2.076, 4, 35.5025, 49.6726, -13.5064, 96.1189, -57.8603, 41.7257
2.08, 4, 35.4982, 49.6844, -13.4992, 96.1057, -57.9133, 41.7072
2.084, 4, 35.494, 49.6962, -13.492, 96.0925, -57.9663, 41.6886
2.087, 4, 35.4897, 49.708, -13.4848, 96.0792, -58.0192, 41.6701
2.092, 4, 35.4855, 49.7197, -13.4775, 96.0659, -58.0722, 41.6516
2.096, 4, 35.4812, 49.7314, -13.4702, 96.0525, -58.1251, 41.6332
2.1, 4, 35.4769, 49.7431, -13.4628, 96.0392, -58.1781, 41.6147
2.104, 4, 35.4726, 49.7548, -13.4554, 96.0258, -58.231, 41.5962
2.107, 4, 35.4683, 49.7664, -13.448, 96.0123, -58.2839, 41.5778
2.111, 4, 35.464, 49.778, -13.4405, 95.9989, -58.3368, 41.5594
2.116, 4, 35.4597, 49.7896, -13.433, 95.9854, -58.3897, 41.541
2.12, 4, 35.4553, 49.8012, -13.4255, 95.9719, -58.4425, 41.5226
2.124, 4, 35.451, 49.8127, -13.4179, 95.9583, -58.4954, 41.5042
2.127, 4, 35.4466, 49.8243, -13.4102, 95.9447, -58.5482, 41.4858
2.132, 4, 35.4422, 49.8358, -13.4026, 95.9311, -58.6011, 41.4675
2.136, 4, 35.4378, 49.8472, -13.3949, 95.9175, -58.6539, 41.4492
2.14, 4, 35.4334, 49.8587, -13.3871, 95.9039, -58.7067, 41.4308
2.143, 4, 35.429, 49.8701, -13.3793, 95.8902, -58.7595, 41.4125
2.148, 4, 35.4246, 49.8815, -13.3715, 95.8764, -58.8123, 41.3942
2.152, 4, 35.4201, 49.8929, -13.3637, 95.8627, -58.865, 41.3759
2.156, 4, 35.4157, 49.9043, -13.3558, 95.8489, -58.9178, 41.3577
2.16, 4, 35.4112, 49.9156, -13.3478, 95.8351, -58.9705, 41.3394
2.163, 4, 35.4067, 49.9269, -13.3398, 95.8213, -59.0232, 41.3212
2.168, 4, 35.4022, 49.9382, -13.3318, 95.8074, -59.076, 41.3029
2.172, 4, 35.3977, 49.9495, -13.3238, 95.7936, -59.1287, 41.2847
2.176, 4, 35.3932, 49.9607, -13.3157, 95.7796, -59.1813, 41.2665
2.179, 4, 35.3887, 49.972, -13.3075, 95.7657, -59.234, 41.2483
2.184, 4, 35.3841, 49.9832, -13.2994, 95.7517, -59.2867, 41.2301
2.188, 4, 35.3796, 49.9943, -13.2911, 95.7377, -59.3393, 41.212
2.192, 4, 35.375, 50.0055, -13.2829, 95.7237, -59.392, 41.1938
2.196, 4, 35.3705, 50.0166, -13.2746, 95.7097, -59.4446, 41.1757
2.199, 4, 35.3659, 50.0277, -13.2663, 95.6956, -59.4972, 41.1575
2.204, 4, 35.3613, 50.0388, -13.2579, 95.6815, -59.5498, 41.1394
2.208, 4, 35.3567, 50.0498, -13.2495, 95.6674, -59.6024, 41.1213
2.212, 4, 35.352, 50.0609, -13.241, 95.6532, -59.6549, 41.1032
2.216, 4, 35.3474, 50.0719, -13.2326, 95.639, -59.7075, 41.0851
2.219, 4, 35.3428, 50.0828, -13.224, 95.6248, -59.76, 41.0671
2.224, 4, 35.3381, 50.0938, -13.2155, 95.6105, -59.8126, 41.049
2.228, 4, 35.3334, 50.1047, -13.2069, 95.5963, -59.8651, 41.031
2.232, 4, 35.3288, 50.1156, -13.1982, 95.582, -59.9176, 41.0129
2.235, 4, 35.3241, 50.1265, -13.1895, 95.5677, -59.9701, 40.9949
2.24, 4, 35.3194, 50.1374, -13.1808, 95.5533, -60.0226, 40.9769
2.244, 4, 35.3146, 50.1482, -13.1721, 95.5389, -60.075, 40.9589
2.248, 4, 35.3099, 50.159, -13.1633, 95.5245, -60.1275, 40.9409
2.252, 4, 35.3052, 50.1698, -13.1544, 95.5101, -60.1799, 40.923
2.255, 4, 35.3004, 50.1806, -13.1455, 95.4956, -60.2324, 40.905
2.259, 4, 35.2956, 50.1913, -13.1366, 95.4812, -60.2848, 40.8871
2.264, 4, 35.2909, 50.202, -13.1277, 95.4666, -60.3372, 40.8691
2.268, 4, 35.2861, 50.2127, -13.1187, 95.4521, -60.3896, 40.8512
2.272, 4, 35.2813, 50.2234, -13.1096, 95.4376, -60.442, 40.8333
2.275, 4, 35.2765, 50.234, -13.1006, 95.423, -60.4943, 40.8154
2.28, 4, 35.2716, 50.2447, -13.0915, 95.4083, -60.5467, 40.7975
2.284, 4, 35.2668, 50.2552, -13.0823, 95.3937, -60.599, 40.7796
2.288, 4, 35.262, 50.2658, -13.0731, 95.379, -60.6513, 40.7617
2.291, 4, 35.2571, 50.2764, -13.0639, 95.3643, -60.7037, 40.7438
2.296, 4, 35.2522, 50.2869, -13.0546, 95.3496, -60.756, 40.726
2.3, 4, 35.2473, 50.2974, -13.0453, 95.3349, -60.8083, 40.7082
2.304, 4, 35.2425, 50.3078, -13.0359, 95.3201, -60.8605, 40.6903
2.308, 4, 35.2375, 50.3183, -13.0266, 95.3053, -60.9128, 40.6725
2.311, 4, 35.2326, 50.3287, -13.0171, 95.2905, -60.965, 40.6547
2.316, 4, 35.2277, 50.3391, -13.0077, 95.2757, -61.0173, 40.6369
2.32, 4, 35.2228, 50.3495, -12.9982, 95.2608, -61.0695, 40.6191
2.324, 4, 35.2178, 50.3598, -12.9886, 95.2459, -61.1217, 40.6013
2.328, 4, 35.2128, 50.3702, -12.979, 95.231, -61.1739, 40.5836
2.331, 4, 35.2079, 50.3805, -12.9694, 95.216, -61.2261, 40.5658
2.336, 4, 35.2029, 50.3907, -12.9597, 95.201, -61.2783, 40.548
2.34, 4, 35.1979, 50.401, -12.95, 95.186, -61.3304, 40.5303
2.344, 4, 35.1928, 50.4112, -12.9403, 95.171, -61.3826, 40.5126
2.347, 4, 35.1878, 50.4214, -12.9305, 95.156, -61.4347, 40.4949
2.352, 4, 35.1828, 50.4316, -12.9207, 95.1409, -61.4868, 40.4772
2.356, 4, 35.1777, 50.4417, -12.9108, 95.1258, -61.539, 40.4595
2.36, 4, 35.1727, 50.4519, -12.9009, 95.1107, -61.5911, 40.4418
2.364, 4, 35.1676, 50.462, -12.891, 95.0955, -61.6431, 40.4241
2.367, 4, 35.1625, 50.472, -12.881, 95.0803, -61.6952, 40.4064
2.372, 4, 35.1574, 50.4821, -12.871, 95.0651, -61.7473, 40.3888
2.376, 4, 35.1523, 50.4921, -12.8609, 95.0499, -61.7993, 40.3711
2.38, 4, 35.1472, 50.5021, -12.8508, 95.0347, -61.8514, 40.3535
2.383, 4, 35.1421, 50.5121, -12.8407, 95.0194, -61.9034, 40.3358
2.388, 4, 35.1369, 50.522, -12.8305, 95.0041, -61.9554, 40.3182
2.392, 4, 35.1318, 50.532, -12.8203, 94.9888, -62.0074, 40.3006
2.396, 4, 35.1266, 50.5419, -12.81, 94.9734, -62.0594, 40.283
2.4, 4, 35.1214, 50.5517, -12.7997, 94.958, -62.1113, 40.2654
2.403, 4, 35.1162, 50.5616, -12.7894, 94.9426, -62.1633, 40.2478
2.408, 4, 35.111, 50.5714, -12.779, 94.9272, -62.2153, 40.2302
2.412, 4, 35.1058, 50.5812, -12.7686, 94.9118, -62.2672, 40.2126
2.416, 4, 35.1006, 50.591, -12.7582, 94.8963, -62.3191, 40.1951
2.42, 4, 35.0953, 50.6007, -12.7477, 94.8808, -62.371, 40.1775
2.423, 4, 35.0901, 50.6105, -12.7371, 94.8653, -62.4229, 40.16
2.428, 4, 35.0848, 50.6202, -12.7266, 94.8497, -62.4748, 40.1424
2.432, 4, 35.0795, 50.6298, -12.7159, 94.8342, -62.5267, 40.1249
2.436, 4, 35.0743, 50.6395, -12.7053, 94.8186, -62.5785, 40.1074
2.439, 4, 35.069, 50.6491, -12.6946, 94.803, -62.6304, 40.0899
2.444, 4, 35.0637, 50.6587, -12.6839, 94.7873, -62.6822, 40.0724
2.448, 4, 35.0583, 50.6683, -12.6731, 94.7717, -62.7341, 40.0549
2.452, 4, 35.053, 50.6778, -12.6623, 94.756, -62.7859, 40.0374
2.456, 4, 35.0477, 50.6874, -12.6514, 94.7403, -62.8377, 40.0199
2.459, 4, 35.0423, 50.6969, -12.6405, 94.7245, -62.8895, 40.0024
2.464, 4, 35.0369, 50.7063, -12.6296, 94.7088, -62.9412, 39.985
2.468, 4, 35.0316, 50.7158, -12.6186, 94.693, -62.993, 39.9675
2.472, 4, 35.0262, 50.7252, -12.6076, 94.6772, -63.0448, 39.9501
2.476, 4, 35.0208, 50.7346, -12.5966, 94.6614, -63.0965, 39.9326
2.479, 4, 35.0153, 50.744, -12.5855, 94.6455, -63.1482, 39.9152
2.484, 4, 35.0099, 50.7533, -12.5744, 94.6296, -63.2, 39.8978
2.488, 4, 35.0045, 50.7626, -12.5632, 94.6137, -63.2517, 39.8804
2.492, 4, 34.999, 50.7719, -12.552, 94.5978, -63.3034, 39.8629
2.495, 4, 34.9936, 50.7812, -12.5408, 94.5819, -63.355, 39.8455
2.5, 4, 34.9881, 50.7905, -12.5295, 94.5659, -63.4067, 39.8281
2.504, 4, 34.9826, 50.7997, -12.5182, 94.5499, -63.4584, 39.8108
2.508, 4, 34.9771, 50.8089, -12.5068, 94.5339, -63.51, 39.7934
2.512, 4, 34.9716, 50.818, -12.4954, 94.5178, -63.5616, 39.776
2.515, 4, 34.9661, 50.8272, -12.484, 94.5018, -63.6133, 39.7586
2.52, 4, 34.9606, 50.8363, -12.4725, 94.4857, -63.6649, 39.7413
2.524, 4, 34.955, 50.8454, -12.461, 94.4696, -63.7165, 39.7239
2.528, 4, 34.9495, 50.8545, -12.4494, 94.4534, -63.7681, 39.7066
2.531, 4, 34.9439, 50.8635, -12.4379, 94.4373, -63.8196, 39.6892
2.536, 4, 34.9383, 50.8725, -12.4262, 94.4211, -63.8712, 39.6719
2.54, 4, 34.9327, 50.8815, -12.4146, 94.4049, -63.9228, 39.6546
2.544, 4, 34.9271, 50.8905, -12.4028, 94.3887, -63.9743, 39.6373
2.548, 4, 34.9215, 50.8994, -12.3911, 94.3725, -64.0258, 39.6199
2.551, 4, 34.9159, 50.9084, -12.3793, 94.3562, -64.0774, 39.6026
2.556, 4, 34.9103, 50.9173, -12.3675, 94.3399, -64.1289, 39.5853
2.56, 4, 34.9046, 50.9261, -12.3556, 94.3236, -64.1804, 39.568
2.564, 4, 34.899, 50.935, -12.3437, 94.3072, -64.2318, 39.5508
2.568, 4, 34.8933, 50.9438, -12.3318, 94.2909, -64.2833, 39.5335
2.571, 4, 34.8876, 50.9526, -12.3198, 94.2745, -64.3348, 39.5162
2.576, 4, 34.8819, 50.9613, -12.3078, 94.2581, -64.3862, 39.4989
2.58, 4, 34.8763, 50.9701, -12.2957, 94.2417, -64.4377, 39.4817
2.584, 4, 34.8706, 50.9787, -12.2836, 94.2252, -64.4891, 39.4644
2.587, 4, 34.8652, 50.9872, -12.2715, 94.2088, -64.5405, 39.4472
2.592, 4, 34.86, 50.9954, -12.2594, 94.1923, -64.5918, 39.43
2.596, 4, 34.8552, 51.0032, -12.2472, 94.1759, -64.6429, 39.4128
2.6, 4, 34.8507, 51.0105, -12.2351, 94.1595, -64.6938, 39.3957
2.604, 4, 34.8466, 51.0172, -12.2231, 94.1433, -64.7442, 39.3788
2.607, 4, 34.8428, 51.0233, -12.2112, 94.1272, -64.7938, 39.3622
2.612, 4, 34.8393, 51.0288, -12.1996, 94.1115, -64.8424, 39.3458
2.616, 4, 34.836, 51.0337, -12.1883, 94.0963, -64.8896, 39.33
2.62, 4, 34.8329, 51.0382, -12.1773, 94.0816, -64.935, 39.3148
2.624, 4, 34.8298, 51.0425, -12.1669, 94.0676, -64.9781, 39.3003
2.627, 4, 34.8268, 51.0466, -12.1571, 94.0544, -65.0186, 39.2867
2.632, 4, 34.8239, 51.0506, -12.1481, 94.0423, -65.056, 39.2742
2.636, 4, 34.821, 51.0547, -12.1398, 94.0312, -65.0902, 39.2627
2.64, 4, 34.8181, 51.0589, -12.1323, 94.0212, -65.1208, 39.2525
2.643, 4, 34.8151, 51.0632, -12.1257, 94.0124, -65.1478, 39.2434
2.648, 4, 34.8122, 51.0677, -12.12, 94.0049, -65.1711, 39.2356
2.652, 5, 34.8092, 51.0722, -12.1152, 93.9984, -65.1907, 39.229
2.656, 5, 34.8063, 51.0769, -12.1112, 93.9931, -65.207, 39.2236
2.66, 5, 34.8034, 51.0815, -12.1079, 93.9889, -65.2202, 39.2192
2.663, 5, 34.8005, 51.086, -12.1053, 93.9855, -65.2306, 39.2157
2.668, 5, 34.7977, 51.0903, -12.1034, 93.9829, -65.2385, 39.213
2.672, 5, 34.7951, 51.0941, -12.1019, 93.981, -65.2445, 39.2111
2.676, 5, 34.7927, 51.0973, -12.1008, 93.9796, -65.2488, 39.2096
2.679, 5, 34.7906, 51.1, -12.1, 93.9786, -65.2519, 39.2086
2.684, 5, 34.7888, 51.1021, -12.0994, 93.9779, -65.254, 39.2079
2.688, 5, 34.7875, 51.1036, -12.099, 93.9774, -65.2555, 39.2074
2.692, 5, 34.7864, 51.1048, -12.0988, 93.9771, -65.2565, 39.207
2.696, 5, 34.7856, 51.1056, -12.0986, 93.9769, -65.2572, 39.2068
2.699, 5, 34.7847, 51.1065, -12.0985, 93.9767, -65.2577, 39.2066
2.704, 5, 34.7836, 51.1075, -12.0984, 93.9766, -65.2582, 39.2065
2.708, 5, 34.7822, 51.1089, -12.0982, 93.9764, -65.2589, 39.2063
2.712, 5, 34.7803, 51.1107, -12.098, 93.9761, -65.2599, 39.2059
2.716, 5, 34.778, 51.1131, -12.0977, 93.9757, -65.2618, 39.2053
2.719, 5, 34.7753, 51.116, -12.0972, 93.975, -65.2648, 39.2042
2.724, 5, 34.7725, 51.1193, -12.0964, 93.974, -65.2695, 39.2026
2.728, 5, 34.7696, 51.123, -12.0952, 93.9724, -65.2764, 39.2003
2.732, 5, 34.7668, 51.1268, -12.0936, 93.9702, -65.2859, 39.197
2.735, 5, 34.7639, 51.1308, -12.0914, 93.9673, -65.2986, 39.1926
2.74, 5, 34.7611, 51.135, -12.0886, 93.9635, -65.3147, 39.187
2.744, 5, 34.7582, 51.1394, -12.0851, 93.9589, -65.3346, 39.1801
2.748, 5, 34.7554, 51.1441, -12.0809, 93.9534, -65.3585, 39.1719
2.752, 5, 34.7525, 51.1489, -12.076, 93.9469, -65.3863, 39.1623
2.755, 5, 34.7497, 51.1539, -12.0705, 93.9396, -65.4182, 39.1513
2.76, 5, 34.7469, 51.1591, -12.0642, 93.9313, -65.4538, 39.139
2.764, 5, 34.7442, 51.1643, -12.0573, 93.9221, -65.493, 39.1254
2.768, 5, 34.7416, 51.1698, -12.0498, 93.9122, -65.5353, 39.1108
2.772, 5, 34.739, 51.1755, -12.0418, 93.9017, -65.5803, 39.0953
2.775, 5, 34.7361, 51.1816, -12.0334, 93.8906, -65.6276, 39.079
2.78, 5, 34.7329, 51.1883, -12.0247, 93.8792, -65.6766, 39.0621
2.784, 5, 34.7293, 51.1956, -12.0157, 93.8673, -65.7268, 39.0448
2.788, 5, 34.7252, 51.2034, -12.0065, 93.8553, -65.778, 39.0271
2.791, 5, 34.7206, 51.2117, -11.9972, 93.8431, -65.8299, 39.0093
2.796, 5, 34.7157, 51.2203, -11.9877, 93.8307, -65.8822, 38.9913
2.8, 5, 34.7105, 51.2292, -11.9782, 93.8182, -65.9348, 38.9732
2.804, 5, 34.7051, 51.2383, -11.9686, 93.8057, -65.9876, 38.955
2.808, 5, 34.6996, 51.2474, -11.959, 93.7931, -66.0405, 38.9369
2.811, 5, 34.694, 51.2567, -11.9492, 93.7804, -66.0935, 38.9187
2.816, 5, 34.6883, 51.2659, -11.9395, 93.7677, -66.1465, 38.9004
2.82, 5, 34.6826, 51.2752, -11.9297, 93.755, -66.1996, 38.8822
2.824, 5, 34.6768, 51.2844, -11.9198, 93.7422, -66.2528, 38.864
2.828, 5, 34.6711, 51.2937, -11.9099, 93.7294, -66.3059, 38.8458
2.831, 5, 34.6652, 51.303, -11.9, 93.7166, -66.359, 38.8276
2.836, 5, 34.6594, 51.3122, -11.89, 93.7037, -66.4121, 38.8094
2.84, 5, 34.6536, 51.3214, -11.88, 93.6908, -66.4653, 38.7912
2.844, 5, 34.6477, 51.3306, -11.87, 93.6779, -66.5184, 38.7731
2.847, 5, 34.6418, 51.3398, -11.8599, 93.6649, -66.5715, 38.7549
2.852, 5, 34.636, 51.3489, -11.8498, 93.652, -66.6246, 38.7368
2.856, 5, 34.6301, 51.3581, -11.8396, 93.639, -66.6777, 38.7186
2.86, 5, 34.6242, 51.3672, -11.8294, 93.6259, -66.7308, 38.7005
2.864, 5, 34.6182, 51.3763, -11.8192, 93.6128, -66.7839, 38.6824
2.867, 5, 34.6123, 51.3853, -11.8089, 93.5997, -66.8369, 38.6643
2.872, 5, 34.6064, 51.3944, -11.7986, 93.5866, -66.89, 38.6462
2.876, 5, 34.6004, 51.4034, -11.7883, 93.5735, -66.9431, 38.6282
2.88, 5, 34.5944, 51.4124, -11.7779, 93.5603, -66.9961, 38.6101
2.883, 5, 34.5885, 51.4213, -11.7675, 93.5471, -67.0491, 38.592
2.888, 5, 34.5825, 51.4303, -11.757, 93.5338, -67.1021, 38.574
2.892, 5, 34.5765, 51.4392, -11.7466, 93.5206, -67.1552, 38.556
2.896, 5, 34.5705, 51.4481, -11.736, 93.5073, -67.2082, 38.538
2.9, 5, 34.5644, 51.457, -11.7255, 93.4939, -67.2612, 38.52
2.903, 5, 34.5584, 51.4658, -11.7149, 93.4806, -67.3141, 38.502
2.908, 5, 34.5524, 51.4746, -11.7042, 93.4672, -67.3671, 38.484
2.912, 5, 34.5463, 51.4834, -11.6935, 93.4538, -67.4201, 38.466
2.916, 5, 34.5402, 51.4922, -11.6828, 93.4403, -67.473, 38.4481
2.92, 5, 34.5341, 51.501, -11.6721, 93.4269, -67.526, 38.4301
2.923, 5, 34.5281, 51.5097, -11.6613, 93.4134, -67.5789, 38.4122
2.928, 5, 34.5219, 51.5184, -11.6504, 93.3999, -67.6318, 38.3943
2.932, 5, 34.5158, 51.5271, -11.6396, 93.3863, -67.6847, 38.3763
2.936, 5, 34.5097, 51.5357, -11.6287, 93.3727, -67.7377, 38.3584
2.939, 5, 34.5036, 51.5443, -11.6177, 93.3591, -67.7906, 38.3405
2.944, 5, 34.4974, 51.553, -11.6068, 93.3455, -67.8434, 38.3227
2.948, 5, 34.4913, 51.5615, -11.5957, 93.3318, -67.8963, 38.3048
2.952, 5, 34.4851, 51.5701, -11.5847, 93.3182, -67.9492, 38.2869
2.956, 5, 34.4789, 51.5786, -11.5736, 93.3044, -68.002, 38.2691
2.959, 5, 34.4727, 51.5871, -11.5625, 93.2907, -68.0549, 38.2513
2.964, 5, 34.4665, 51.5956, -11.5513, 93.2769, -68.1077, 38.2334
2.968, 5, 34.4603, 51.6041, -11.5401, 93.2631, -68.1606, 38.2156
2.972, 5, 34.4541, 51.6125, -11.5288, 93.2493, -68.2134, 38.1978
2.976, 5, 34.4478, 51.6209, -11.5176, 93.2355, -68.2662, 38.18
2.98, 5, 34.4416, 51.6293, -11.5062, 93.2216, -68.319, 38.1622
2.984, 5, 34.4353, 51.6376, -11.4949, 93.2077, -68.3718, 38.1444
2.988, 5, 34.429, 51.646, -11.4835, 93.1937, -68.4245, 38.1267
2.992, 5, 34.4227, 51.6543, -11.4721, 93.1798, -68.4773, 38.1089
2.995, 5, 34.4165, 51.6626, -11.4606, 93.1658, -68.5301, 38.0912
3, 5, 34.4101, 51.6708, -11.4491, 93.1518, -68.5828, 38.0734
3.004, 5, 34.4038, 51.6791, -11.4375, 93.1377, -68.6356, 38.0557
3.008, 5, 34.3975, 51.6873, -11.426, 93.1237, -68.6883, 38.038
3.012, 5, 34.3911, 51.6955, -11.4143, 93.1096, -68.741, 38.0203
3.015, 5, 34.3848, 51.7036, -11.4027, 93.0955, -68.7937, 38.0026
3.02, 5, 34.3784, 51.7118, -11.391, 93.0813, -68.8465, 37.9849
3.024, 5, 34.3721, 51.7199, -11.3793, 93.0671, -68.8991, 37.9672
3.028, 5, 34.3657, 51.728, -11.3675, 93.0529, -68.9518, 37.9495
3.031, 5, 34.3593, 51.736, -11.3557, 93.0387, -69.0045, 37.9319
3.036, 5, 34.3529, 51.7441, -11.3438, 93.0245, -69.0572, 37.9142
3.04, 5, 34.3464, 51.7521, -11.332, 93.0102, -69.1098, 37.8965
3.044, 5, 34.34, 51.7601, -11.32, 92.9959, -69.1625, 37.8789
3.048, 5, 34.3336, 51.768, -11.3081, 92.9816, -69.2151, 37.8613
3.051, 5, 34.3271, 51.776, -11.2961, 92.9672, -69.2678, 37.8437
3.056, 5, 34.3206, 51.7839, -11.2841, 92.9528, -69.3204, 37.826
3.06, 5, 34.3142, 51.7918, -11.272, 92.9384, -69.373, 37.8084
3.064, 5, 34.3077, 51.7996, -11.2599, 92.924, -69.4256, 37.7909
3.068, 5, 34.3012, 51.8075, -11.2478, 92.9095, -69.4782, 37.7733
3.071, 5, 34.2947, 51.8153, -11.2356, 92.895, -69.5308, 37.7557
3.076, 5, 34.2881, 51.8231, -11.2234, 92.8805, -69.5834, 37.7381
3.08, 5, 34.2816, 51.8308, -11.2111, 92.866, -69.6359, 37.7206
3.084, 5, 34.2751, 51.8386, -11.1988, 92.8514, -69.6885, 37.703
3.087, 5, 34.2685, 51.8463, -11.1865, 92.8368, -69.741, 37.6855
3.092, 5, 34.2619, 51.854, -11.1741, 92.8222, -69.7936, 37.6679
3.096, 5, 34.2554, 51.8617, -11.1617, 92.8075, -69.8461, 37.6504
3.1, 5, 34.2488, 51.8693, -11.1493, 92.7929, -69.8986, 37.6329
3.104, 5, 34.2422, 51.8769, -11.1368, 92.7782, -69.9511, 37.6154
3.107, 5, 34.2356, 51.8845, -11.1243, 92.7635, -70.0036, 37.5979
3.112, 5, 34.2289, 51.8921, -11.1117, 92.7487, -70.0561, 37.5804
3.116, 5, 34.2223, 51.8996, -11.0991, 92.7339, -70.1086, 37.5629
3.12, 5, 34.2157, 51.9071, -11.0865, 92.7191, -70.1611, 37.5454
3.124, 5, 34.209, 51.9146, -11.0739, 92.7043, -70.2135, 37.5279
3.128, 5, 34.2023, 51.9221, -11.0612, 92.6895, -70.266, 37.5105
3.132, 5, 34.1957, 51.9295, -11.0484, 92.6746, -70.3185, 37.493
3.136, 5, 34.189, 51.9369, -11.0356, 92.6597, -70.3709, 37.4756
3.14, 5, 34.1823, 51.9443, -11.0228, 92.6448, -70.4233, 37.4581
3.143, 5, 34.1756, 51.9517, -11.01, 92.6298, -70.4757, 37.4407
3.148, 5, 34.1688, 51.959, -10.9971, 92.6149, -70.5282, 37.4232
3.152, 5, 34.1621, 51.9664, -10.9842, 92.5999, -70.5806, 37.4058
3.156, 5, 34.1553, 51.9736, -10.9712, 92.5848, -70.633, 37.3884
3.16, 5, 34.1486, 51.9809, -10.9582, 92.5698, -70.6853, 37.371
3.163, 5, 34.1418, 51.9882, -10.9452, 92.5547, -70.7377, 37.3536
3.168, 5, 34.135, 51.9954, -10.9321, 92.5396, -70.7901, 37.3362
3.172, 5, 34.1283, 52.0026, -10.919, 92.5245, -70.8424, 37.3188
3.176, 5, 34.1215, 52.0097, -10.9059, 92.5093, -70.8948, 37.3014
3.179, 5, 34.1146, 52.0169, -10.8927, 92.4942, -70.9471, 37.2841
3.184, 5, 34.1078, 52.024, -10.8795, 92.479, -70.9995, 37.2667
3.188, 5, 34.101, 52.0311, -10.8662, 92.4637, -71.0518, 37.2493
3.192, 5, 34.0941, 52.0381, -10.8529, 92.4485, -71.1041, 37.232
3.196, 5, 34.0873, 52.0452, -10.8396, 92.4332, -71.1564, 37.2146
3.199, 5, 34.0804, 52.0522, -10.8262, 92.4179, -71.2087, 37.1973
3.204, 5, 34.0735, 52.0592, -10.8128, 92.4026, -71.261, 37.18
3.208, 5, 34.0667, 52.0661, -10.7994, 92.3872, -71.3133, 37.1626
3.212, 5, 34.0597, 52.0731, -10.7859, 92.3719, -71.3655, 37.1453
3.216, 5, 34.0528, 52.08, -10.7724, 92.3565, -71.4178, 37.128
3.22, 5, 34.0459, 52.0869, -10.7589, 92.341, -71.47, 37.1107
3.224, 5, 34.039, 52.0938, -10.7453, 92.3256, -71.5223, 37.0934
3.228, 5, 34.032, 52.1006, -10.7317, 92.3101, -71.5745, 37.0761
3.232, 5, 34.0251, 52.1074, -10.718, 92.2946, -71.6267, 37.0588
3.235, 5, 34.0181, 52.1142, -10.7043, 92.2791, -71.679, 37.0415
3.24, 5, 34.0111, 52.1209, -10.6906, 92.2636, -71.7312, 37.0242
3.244, 5, 34.0042, 52.1277, -10.6768, 92.248, -71.7834, 37.007
3.248, 5, 33.9972, 52.1344, -10.663, 92.2324, -71.8355, 36.9897
3.252, 5, 33.9901, 52.1411, -10.6492, 92.2168, -71.8877, 36.9724
3.255, 5, 33.9831, 52.1477, -10.6353, 92.2012, -71.9399, 36.9552
3.26, 5, 33.9761, 52.1544, -10.6214, 92.1855, -71.9921, 36.9379
3.264, 5, 33.969, 52.161, -10.6074, 92.1698, -72.0442, 36.9207
3.268, 5, 33.962, 52.1676, -10.5934, 92.1541, -72.0964, 36.9034
3.272, 5, 33.9549, 52.1741, -10.5794, 92.1384, -72.1485, 36.8862
3.276, 5, 33.9479, 52.1807, -10.5654, 92.1226, -72.2006, 36.869
3.28, 5, 33.9408, 52.1872, -10.5513, 92.1068, -72.2527, 36.8517
3.284, 5, 33.9337, 52.1936, -10.5371, 92.091, -72.3048, 36.8345
3.288, 5, 33.9266, 52.2001, -10.523, 92.0752, -72.3569, 36.8173
3.291, 5, 33.9194, 52.2065, -10.5087, 92.0593, -72.409, 36.8001
3.296, 5, 33.9123, 52.2129, -10.4945, 92.0434, -72.4611, 36.7829
3.3, 5, 33.9052, 52.2193, -10.4802, 92.0275, -72.5132, 36.7657
3.304, 5, 33.898, 52.2257, -10.4659, 92.0116, -72.5653, 36.7485
3.308, 5, 33.8909, 52.232, -10.4516, 91.9956, -72.6173, 36.7313
3.312, 5, 33.8837, 52.2383, -10.4372, 91.9797, -72.6694, 36.7141
3.316, 5, 33.8765, 52.2446, -10.4227, 91.9637, -72.7214, 36.6969
3.32, 5, 33.8693, 52.2508, -10.4083, 91.9476, -72.7734, 36.6797
3.324, 5, 33.8621, 52.2571, -10.3938, 91.9316, -72.8255, 36.6626
3.328, 5, 33.8549, 52.2633, -10.3792, 91.9155, -72.8775, 36.6454
3.332, 5, 33.8476, 52.2694, -10.3647, 91.8994, -72.9295, 36.6282
3.336, 5, 33.8404, 52.2756, -10.3501, 91.8833, -72.9815, 36.6111
3.34, 5, 33.8331, 52.2817, -10.3354, 91.8672, -73.0335, 36.5939
3.344, 5, 33.8259, 52.2878, -10.3207, 91.851, -73.0854, 36.5768
3.347, 5, 33.8186, 52.2939, -10.306, 91.8348, -73.1374, 36.5596
3.352, 5, 33.8113, 52.2999, -10.2913, 91.8186, -73.1894, 36.5425
3.356, 5, 33.804, 52.3059, -10.2765, 91.8024, -73.2413, 36.5253
3.36, 5, 33.7967, 52.3119, -10.2616, 91.7861, -73.2933, 36.5082
3.364, 5, 33.7894, 52.3179, -10.2468, 91.7698, -73.3452, 36.491
3.368, 5, 33.7821, 52.3239, -10.2319, 91.7535, -73.3971, 36.4739
3.372, 5, 33.7747, 52.3298, -10.2169, 91.7372, -73.4491, 36.4568
3.376, 5, 33.7674, 52.3357, -10.202, 91.7209, -73.501, 36.4397
3.38, 5, 33.76, 52.3415, -10.187, 91.7045, -73.5529, 36.4226
3.383, 5, 33.7527, 52.3474, -10.1719, 91.6881, -73.6048, 36.4054
3.388, 5, 33.7453, 52.3532, -10.1568, 91.6717, -73.6566, 36.3883
3.392, 5, 33.7379, 52.359, -10.1417, 91.6552, -73.7085, 36.3712
3.396, 5, 33.7305, 52.3647, -10.1266, 91.6388, -73.7604, 36.3541
3.4, 5, 33.7231, 52.3705, -10.1114, 91.6223, -73.8123, 36.337
3.403, 5, 33.7157, 52.3762, -10.0961, 91.6058, -73.8641, 36.3199
3.408, 5, 33.7082, 52.3819, -10.0809, 91.5892, -73.9159, 36.3028
3.412, 5, 33.7008, 52.3875, -10.0656, 91.5727, -73.9678, 36.2857
3.416, 5, 33.6933, 52.3931, -10.0502, 91.5561, -74.0196, 36.2686
3.42, 5, 33.6859, 52.3987, -10.0349, 91.5395, -74.0714, 36.2515
3.424, 5, 33.6784, 52.4043, -10.0195, 91.5229, -74.1232, 36.2345
3.428, 5, 33.6709, 52.4099, -10.004, 91.5062, -74.175, 36.2174
3.432, 5, 33.6634, 52.4154, -9.98853, 91.4896, -74.2268, 36.2003
3.436, 5, 33.6559, 52.4209, -9.97301, 91.4729, -74.2786, 36.1832
3.439, 5, 33.6483, 52.4264, -9.95745, 91.4562, -74.3304, 36.1661
3.444, 5, 33.6408, 52.4318, -9.94186, 91.4394, -74.3821, 36.1491
3.448, 5, 33.6333, 52.4372, -9.92623, 91.4227, -74.4339, 36.132
3.452, 5, 33.6257, 52.4426, -9.91057, 91.4059, -74.4856, 36.1149
3.456, 5, 33.6182, 52.448, -9.89487, 91.3891, -74.5374, 36.0979
3.46, 5, 33.6106, 52.4534, -9.87913, 91.3723, -74.5891, 36.0808
3.464, 5, 33.603, 52.4587, -9.86336, 91.3554, -74.6408, 36.0637
3.468, 5, 33.5954, 52.464, -9.84755, 91.3385, -74.6926, 36.0467
3.472, 5, 33.5878, 52.4692, -9.83171, 91.3216, -74.7443, 36.0296
3.476, 5, 33.5802, 52.4745, -9.81583, 91.3047, -74.796, 36.0126
3.48, 5, 33.5725, 52.4797, -9.79991, 91.2878, -74.8476, 35.9955
3.484, 5, 33.5649, 52.4849, -9.78396, 91.2708, -74.8993, 35.9785
3.488, 5, 33.5572, 52.49, -9.76797, 91.2538, -74.951, 35.9614
3.492, 5, 33.5496, 52.4951, -9.75194, 91.2368, -75.0027, 35.9444
3.495, 5, 33.5419, 52.5003, -9.73588, 91.2198, -75.0543, 35.9273
3.5, 5, 33.5342, 52.5053, -9.71978, 91.2028, -75.106, 35.9103
3.504, 5, 33.5265, 52.5104, -9.70364, 91.1857, -75.1576, 35.8932
3.508, 5, 33.5188, 52.5154, -9.68747, 91.1686, -75.2092, 35.8762
3.512, 5, 33.5111, 52.5204, -9.67126, 91.1515, -75.2609, 35.8592
3.516, 5, 33.5034, 52.5254, -9.65502, 91.1344, -75.3125, 35.8421
3.52, 5, 33.4956, 52.5303, -9.63874, 91.1172, -75.3641, 35.8251
3.524, 5, 33.4879, 52.5352, -9.62242, 91.1, -75.4157, 35.808
3.528, 5, 33.4801, 52.5401, -9.60607, 91.0828, -75.4673, 35.791
3.531, 5, 33.4724, 52.545, -9.58968, 91.0656, -75.5189, 35.774
3.536, 5, 33.4646, 52.5498, -9.57325, 91.0483, -75.5704, 35.7569
3.54, 5, 33.4568, 52.5547, -9.55679, 91.0311, -75.622, 35.7399
3.544, 5, 33.449, 52.5594, -9.5403, 91.0138, -75.6735, 35.7229
3.548, 5, 33.4412, 52.5642, -9.52376, 90.9965, -75.7251, 35.7058
3.552, 5, 33.4334, 52.5689, -9.50719, 90.9791, -75.7766, 35.6888
3.556, 5, 33.4255, 52.5736, -9.49059, 90.9618, -75.8282, 35.6718
3.56, 5, 33.4177, 52.5783, -9.47394, 90.9444, -75.8797, 35.6548
3.564, 5, 33.4098, 52.583, -9.45726, 90.927, -75.9312, 35.6377
3.568, 5, 33.402, 52.5876, -9.44055, 90.9096, -75.9827, 35.6207
3.572, 5, 33.3941, 52.5922, -9.4238, 90.8921, -76.0342, 35.6037
3.576, 5, 33.3862, 52.5968, -9.40701, 90.8747, -76.0857, 35.5866
3.58, 5, 33.3783, 52.6013, -9.39019, 90.8572, -76.1372, 35.5696
3.584, 5, 33.3704, 52.6058, -9.37333, 90.8397, -76.1887, 35.5526
3.587, 5, 33.3625, 52.6103, -9.35644, 90.8222, -76.2401, 35.5356
3.592, 5, 33.3545, 52.6148, -9.33951, 90.8046, -76.2916, 35.5185
3.596, 5, 33.3466, 52.6192, -9.32254, 90.787, -76.343, 35.5015
3.6, 5, 33.3386, 52.6236, -9.30554, 90.7694, -76.3945, 35.4845
3.604, 5, 33.3307, 52.628, -9.2885, 90.7518, -76.4459, 35.4675
3.608, 5, 33.3227, 52.6324, -9.27143, 90.7342, -76.4973, 35.4504
3.612, 5, 33.3147, 52.6367, -9.25432, 90.7165, -76.5488, 35.4334
3.616, 5, 33.3067, 52.641, -9.23717, 90.6989, -76.6002, 35.4164
3.62, 5, 33.2987, 52.6453, -9.21999, 90.6811, -76.6516, 35.3994
3.624, 5, 33.2907, 52.6496, -9.20278, 90.6634, -76.703, 35.3823
3.628, 5, 33.2827, 52.6538, -9.18553, 90.6457, -76.7544, 35.3653
3.632, 5, 33.2747, 52.658, -9.16824, 90.6279, -76.8057, 35.3483
3.636, 5, 33.2666, 52.6621, -9.15092, 90.6101, -76.8571, 35.3312
3.64, 5, 33.2585, 52.6663, -9.13356, 90.5923, -76.9085, 35.3142
3.644, 5, 33.2505, 52.6704, -9.11617, 90.5745, -76.9598, 35.2972
3.648, 5, 33.2424, 52.6745, -9.09874, 90.5566, -77.0112, 35.2802
3.652, 5, 33.2343, 52.6786, -9.08128, 90.5388, -77.0625, 35.2631
3.656, 5, 33.2262, 52.6826, -9.06378, 90.5209, -77.1139, 35.2461
3.66, 5, 33.2181, 52.6866, -9.04624, 90.503, -77.1652, 35.2291
3.664, 5, 33.21, 52.6906, -9.02867, 90.485, -77.2165, 35.212
3.668, 5, 33.2018, 52.6946, -9.01107, 90.4671, -77.2678, 35.195
3.672, 5, 33.1937, 52.6985, -8.99343, 90.4491, -77.3191, 35.1779
3.676, 5, 33.1856, 52.7024, -8.97575, 90.4311, -77.3704, 35.1609
3.679, 5, 33.1774, 52.7063, -8.95805, 90.4131, -77.4217, 35.1439
3.684, 5, 33.1692, 52.7101, -8.9403, 90.395, -77.473, 35.1268
3.688, 5, 33.161, 52.7139, -8.92252, 90.377, -77.5242, 35.1098
3.692, 5, 33.1528, 52.7177, -8.90471, 90.3589, -77.5755, 35.0928
3.696, 5, 33.1446, 52.7215, -8.88686, 90.3408, -77.6268, 35.0757
3.7, 5, 33.1364, 52.7253, -8.86897, 90.3227, -77.678, 35.0587
3.704, 5, 33.1282, 52.729, -8.85105, 90.3045, -77.7292, 35.0416
3.708, 5, 33.12, 52.7327, -8.8331, 90.2864, -77.7805, 35.0246
3.712, 5, 33.1117, 52.7363, -8.81511, 90.2682, -77.8317, 35.0075
3.716, 5, 33.1035, 52.74, -8.79708, 90.25, -77.8829, 34.9905
3.72, 5, 33.0952, 52.7436, -8.77903, 90.2318, -77.9341, 34.9734
3.724, 5, 33.087, 52.7472, -8.76093, 90.2135, -77.9853, 34.9564
3.728, 5, 33.0788, 52.7507, -8.74281, 90.1952, -78.0365, 34.9393
3.732, 5, 33.0708, 52.7541, -8.72466, 90.177, -78.0877, 34.9222
3.735, 5, 33.0631, 52.7573, -8.7065, 90.1587, -78.1388, 34.9052
3.74, 5, 33.0559, 52.7604, -8.68836, 90.1404, -78.1897, 34.8882
3.744, 5, 33.049, 52.7631, -8.67029, 90.1222, -78.2404, 34.8713
3.748, 5, 33.0427, 52.7656, -8.65235, 90.1042, -78.2906, 34.8545
3.752, 5, 33.0367, 52.7677, -8.63463, 90.0864, -78.3402, 34.838
3.756, 5, 33.0311, 52.7695, -8.61725, 90.0689, -78.3887, 34.8218
3.76, 5, 33.0258, 52.771, -8.60034, 90.0519, -78.4359, 34.806
3.764, 5, 33.0208, 52.7722, -8.58403, 90.0355, -78.4813, 34.7909
3.768, 5, 33.0159, 52.7732, -8.56849, 90.0199, -78.5245, 34.7764
3.772, 5, 33.0111, 52.7742, -8.55386, 90.0052, -78.5651, 34.7628
3.776, 5, 33.0066, 52.7752, -8.54028, 89.9916, -78.6028, 34.7502
3.78, 5, 33.0021, 52.7763, -8.52784, 89.9791, -78.6373, 34.7387
3.784, 5, 32.9978, 52.7777, -8.51665, 89.9679, -78.6682, 34.7284
3.788, 5, 32.9935, 52.7793, -8.50676, 89.958, -78.6956, 34.7192
3.792, 5, 32.9893, 52.7813, -8.49817, 89.9495, -78.7192, 34.7113
