hehonglu123/ABB_Primitive_Study/execution/movec_smooth/curve_exe_v200_z1.csv
timestamp, cmd_num, J1, J2, J3, J4, J5, J6
0, 1, 32.9528, 52.8019, -8.46502, 89.9168, -78.8096, 34.6812
0.002, 1, 32.9528, 52.8019, -8.46502, 89.9168, -78.8096, 34.6812
0.004, 1, 32.9528, 52.8019, -8.46502, 89.9168, -78.8096, 34.6812
0.01, 1, 32.9528, 52.8019, -8.46502, 89.9168, -78.8096, 34.6812
0.012, 1, 32.9528, 52.8019, -8.46502, 89.9168, -78.8096, 34.6812
0.016, 1, 32.9528, 52.8019, -8.46502, 89.9168, -78.8096, 34.6812
0.02, 1, 32.9528, 52.8019, -8.46502, 89.9168, -78.8096, 34.6812
0.024, 1, 32.9528, 52.8019, -8.46502, 89.9168, -78.8096, 34.6812
0.028, 1, 32.9528, 52.8019, -8.46502, 89.9168, -78.8096, 34.6812
0.032, 1, 32.9528, 52.8019, -8.46502, 89.9168, -78.8096, 34.6812
0.036, 1, 32.9529, 52.8019, -8.46502, 89.9168, -78.8096, 34.6812
0.04, 1, 32.9531, 52.8018, -8.46503, 89.9168, -78.8095, 34.6812
0.044, 1, 32.9535, 52.8014, -8.46505, 89.9169, -78.8095, 34.6812
0.048, 1, 32.9543, 52.8006, -8.4651, 89.9169, -78.8093, 34.6813
0.052, 1, 32.9556, 52.7993, -8.46521, 89.917, -78.8088, 34.6814
0.056, 1, 32.9574, 52.7971, -8.46544, 89.9173, -78.8079, 34.6818
0.06, 1, 32.9597, 52.794, -8.46584, 89.9178, -78.8061, 34.6824
0.064, 1, 32.9625, 52.7899, -8.46653, 89.9186, -78.803, 34.6834
0.068, 1, 32.9659, 52.7849, -8.46761, 89.92, -78.798, 34.6852
0.072, 1, 32.9697, 52.7789, -8.46923, 89.922, -78.7905, 34.6877
0.076, 1, 32.9741, 52.7719, -8.47155, 89.925, -78.7796, 34.6915
0.08, 1, 32.9791, 52.7639, -8.47475, 89.9292, -78.7644, 34.6967
0.084, 1, 32.9847, 52.7549, -8.47904, 89.9348, -78.744, 34.7037
0.088, 1, 32.991, 52.7451, -8.48462, 89.9421, -78.7174, 34.7128
0.092, 1, 32.9978, 52.7344, -8.49169, 89.9515, -78.6834, 34.7244
0.096, 1, 33.005, 52.7231, -8.50046, 89.9631, -78.6411, 34.7389
0.1, 1, 33.0126, 52.7112, -8.51109, 89.9773, -78.5897, 34.7566
0.104, 1, 33.0204, 52.699, -8.5237, 89.9942, -78.5285, 34.7775
0.108, 1, 33.0284, 52.6863, -8.53837, 90.0139, -78.4572, 34.802
0.112, 1, 33.0368, 52.673, -8.55512, 90.0364, -78.3757, 34.8299
0.116, 1, 33.0455, 52.6592, -8.57391, 90.0617, -78.2841, 34.8613
0.12, 1, 33.0546, 52.6447, -8.59467, 90.0896, -78.183, 34.896
0.124, 1, 33.0642, 52.6296, -8.61726, 90.12, -78.0728, 34.9337
0.128, 1, 33.0741, 52.6139, -8.64154, 90.1527, -77.9545, 34.9743
0.131, 1, 33.0844, 52.5977, -8.66731, 90.1875, -77.8288, 35.0174
0.136, 1, 33.0949, 52.5809, -8.69437, 90.2239, -77.6968, 35.0627
0.139, 1, 33.1058, 52.5633, -8.72251, 90.2618, -77.5596, 35.1097
0.144, 1, 33.1172, 52.5447, -8.75152, 90.3009, -77.4182, 35.1582
0.148, 1, 33.1293, 52.525, -8.78121, 90.3408, -77.2736, 35.2077
0.152, 1, 33.1421, 52.5041, -8.81138, 90.3814, -77.1267, 35.2581
0.156, 1, 33.1556, 52.4819, -8.8419, 90.4224, -76.9782, 35.309
0.16, 1, 33.17, 52.4586, -8.87265, 90.4637, -76.8286, 35.3603
0.164, 1, 33.1849, 52.4345, -8.90354, 90.5052, -76.6784, 35.4118
0.168, 1, 33.2004, 52.4098, -8.93451, 90.5467, -76.5279, 35.4634
0.172, 1, 33.2161, 52.3847, -8.9655, 90.5883, -76.3772, 35.515
0.176, 1, 33.2321, 52.3594, -8.9965, 90.6299, -76.2265, 35.5667
0.18, 1, 33.2481, 52.334, -9.02749, 90.6715, -76.076, 35.6183
0.184, 1, 33.2643, 52.3084, -9.05844, 90.713, -75.9256, 35.6699
0.188, 1, 33.2805, 52.2828, -9.08935, 90.7545, -75.7754, 35.7214
0.192, 1, 33.2967, 52.2573, -9.12022, 90.7959, -75.6254, 35.7728
0.196, 1, 33.3129, 52.2317, -9.15104, 90.8372, -75.4757, 35.8241
0.2, 1, 33.3291, 52.2061, -9.1818, 90.8785, -75.3262, 35.8753
0.204, 1, 33.3453, 52.1806, -9.21251, 90.9197, -75.177, 35.9265
0.208, 1, 33.3614, 52.1551, -9.24316, 90.9608, -75.028, 35.9775
0.212, 1, 33.3776, 52.1296, -9.27376, 91.0018, -74.8794, 36.0285
0.216, 1, 33.3937, 52.1042, -9.30431, 91.0428, -74.731, 36.0794
0.22, 1, 33.4098, 52.0788, -9.33479, 91.0837, -74.5829, 36.1302
0.224, 1, 33.4258, 52.0535, -9.36522, 91.1245, -74.435, 36.1808
0.228, 1, 33.4419, 52.0282, -9.3956, 91.1652, -74.2874, 36.2314
0.232, 1, 33.4579, 52.003, -9.42592, 91.2059, -74.1401, 36.2819
0.236, 1, 33.4738, 51.9778, -9.45618, 91.2465, -73.9931, 36.3323
0.24, 1, 33.4898, 51.9526, -9.48639, 91.287, -73.8463, 36.3826
0.244, 1, 33.5057, 51.9275, -9.51654, 91.3275, -73.6998, 36.4329
0.248, 1, 33.5216, 51.9025, -9.54664, 91.3678, -73.5536, 36.483
0.252, 1, 33.5374, 51.8774, -9.57668, 91.4081, -73.4076, 36.533
0.256, 1, 33.5533, 51.8525, -9.60667, 91.4483, -73.2619, 36.583
0.26, 1, 33.5691, 51.8276, -9.63661, 91.4885, -73.1165, 36.6328
0.264, 1, 33.5848, 51.8027, -9.66649, 91.5286, -72.9713, 36.6826
0.268, 1, 33.6006, 51.7778, -9.69631, 91.5686, -72.8264, 36.7323
0.272, 1, 33.6163, 51.7531, -9.72609, 91.6085, -72.6817, 36.7819
0.276, 1, 33.632, 51.7283, -9.75581, 91.6484, -72.5373, 36.8314
0.28, 1, 33.6476, 51.7036, -9.78548, 91.6882, -72.3932, 36.8808
0.284, 1, 33.6633, 51.679, -9.81509, 91.7279, -72.2493, 36.9301
0.288, 1, 33.6789, 51.6544, -9.84465, 91.7675, -72.1057, 36.9794
0.292, 1, 33.6945, 51.6298, -9.87416, 91.8071, -71.9623, 37.0285
0.296, 1, 33.71, 51.6053, -9.90362, 91.8466, -71.8191, 37.0776
0.3, 1, 33.7255, 51.5808, -9.93303, 91.8861, -71.6763, 37.1265
0.304, 1, 33.741, 51.5563, -9.96238, 91.9255, -71.5336, 37.1754
0.308, 1, 33.7565, 51.5319, -9.99169, 91.9648, -71.3913, 37.2242
0.312, 1, 33.7719, 51.5076, -10.0209, 92.004, -71.2491, 37.273
0.316, 1, 33.7873, 51.4833, -10.0501, 92.0432, -71.1073, 37.3216
0.32, 1, 33.8027, 51.459, -10.0793, 92.0823, -70.9656, 37.3702
0.324, 1, 33.8181, 51.4348, -10.1084, 92.1213, -70.8242, 37.4186
0.328, 1, 33.8334, 51.4106, -10.1375, 92.1603, -70.6831, 37.467
0.332, 1, 33.8487, 51.3864, -10.1665, 92.1992, -70.5422, 37.5153
0.336, 1, 33.864, 51.3623, -10.1954, 92.238, -70.4015, 37.5636
0.34, 1, 33.8793, 51.3383, -10.2243, 92.2768, -70.261, 37.6117
0.344, 1, 33.8945, 51.3142, -10.2532, 92.3155, -70.1209, 37.6598
0.348, 1, 33.9097, 51.2903, -10.282, 92.3541, -69.9809, 37.7077
0.352, 1, 33.9249, 51.2663, -10.3107, 92.3927, -69.8412, 37.7556
0.356, 1, 33.94, 51.2424, -10.3394, 92.4312, -69.7017, 37.8034
0.36, 1, 33.9552, 51.2186, -10.3681, 92.4696, -69.5624, 37.8512
0.364, 1, 33.9703, 51.1947, -10.3967, 92.508, -69.4234, 37.8988
0.368, 1, 33.9853, 51.171, -10.4253, 92.5463, -69.2846, 37.9464
0.372, 1, 34.0004, 51.1472, -10.4538, 92.5846, -69.1461, 37.9939
0.376, 1, 34.0154, 51.1235, -10.4823, 92.6228, -69.0078, 38.0413
0.38, 1, 34.0304, 51.0998, -10.5107, 92.6609, -68.8697, 38.0887
0.384, 1, 34.0454, 51.0762, -10.5391, 92.6989, -68.7318, 38.1359
0.388, 1, 34.0604, 51.0526, -10.5674, 92.7369, -68.5941, 38.1831
0.392, 1, 34.0753, 51.0291, -10.5957, 92.7749, -68.4567, 38.2302
0.396, 1, 34.0902, 51.0056, -10.6239, 92.8127, -68.3195, 38.2773
0.4, 1, 34.1051, 50.9821, -10.6521, 92.8506, -68.1825, 38.3242
0.404, 1, 34.1199, 50.9587, -10.6803, 92.8883, -68.0458, 38.3711
0.408, 1, 34.1348, 50.9353, -10.7084, 92.926, -67.9093, 38.4179
0.412, 1, 34.1496, 50.9119, -10.7364, 92.9636, -67.773, 38.4646
0.416, 1, 34.1643, 50.8886, -10.7644, 93.0012, -67.6369, 38.5113
0.42, 1, 34.1791, 50.8653, -10.7924, 93.0387, -67.501, 38.5579
0.424, 1, 34.1938, 50.8421, -10.8203, 93.0762, -67.3653, 38.6044
0.428, 1, 34.2086, 50.8189, -10.8482, 93.1136, -67.2299, 38.6508
0.432, 1, 34.2232, 50.7957, -10.876, 93.1509, -67.0947, 38.6971
0.436, 1, 34.2379, 50.7726, -10.9038, 93.1881, -66.9597, 38.7434
0.44, 1, 34.2526, 50.7495, -10.9315, 93.2254, -66.8249, 38.7896
0.444, 1, 34.2672, 50.7264, -10.9592, 93.2625, -66.6903, 38.8358
0.448, 1, 34.2818, 50.7034, -10.9869, 93.2996, -66.5559, 38.8818
0.452, 1, 34.2964, 50.6804, -11.0145, 93.3367, -66.4217, 38.9278
0.456, 1, 34.3109, 50.6574, -11.0421, 93.3736, -66.2878, 38.9738
0.46, 1, 34.3254, 50.6345, -11.0696, 93.4106, -66.154, 39.0196
0.464, 1, 34.3399, 50.6116, -11.0971, 93.4474, -66.0204, 39.0654
0.468, 1, 34.3544, 50.5888, -11.1246, 93.4842, -65.8871, 39.1111
0.472, 1, 34.3689, 50.566, -11.152, 93.521, -65.754, 39.1567
0.476, 1, 34.3833, 50.5432, -11.1793, 93.5577, -65.621, 39.2023
0.48, 1, 34.3978, 50.5204, -11.2066, 93.5943, -65.4883, 39.2478
0.484, 1, 34.4121, 50.4977, -11.2339, 93.6309, -65.3558, 39.2933
0.488, 1, 34.4265, 50.475, -11.2612, 93.6675, -65.2234, 39.3386
0.492, 1, 34.4409, 50.4524, -11.2884, 93.7039, -65.0913, 39.3839
0.496, 1, 34.4552, 50.4298, -11.3155, 93.7404, -64.9594, 39.4291
0.5, 1, 34.4695, 50.4072, -11.3426, 93.7767, -64.8276, 39.4743
0.504, 1, 34.4838, 50.3847, -11.3697, 93.813, -64.6961, 39.5194
0.508, 1, 34.4981, 50.3622, -11.3967, 93.8493, -64.5647, 39.5644
0.512, 1, 34.5123, 50.3397, -11.4237, 93.8855, -64.4336, 39.6094
0.516, 1, 34.5265, 50.3173, -11.4507, 93.9217, -64.3026, 39.6543
0.52, 1, 34.5408, 50.2949, -11.4776, 93.9578, -64.1719, 39.6991
0.524, 1, 34.5549, 50.2725, -11.5045, 93.9938, -64.0413, 39.7439
0.528, 1, 34.5691, 50.2501, -11.5313, 94.0298, -63.9109, 39.7886
0.532, 1, 34.5832, 50.2278, -11.5581, 94.0657, -63.7807, 39.8332
0.536, 1, 34.5974, 50.2056, -11.5848, 94.1016, -63.6507, 39.8777
0.54, 1, 34.6115, 50.1833, -11.6116, 94.1375, -63.5209, 39.9222
0.544, 1, 34.6255, 50.1611, -11.6382, 94.1732, -63.3913, 39.9667
0.548, 1, 34.6396, 50.1389, -11.6649, 94.209, -63.2619, 40.0111
0.552, 1, 34.6536, 50.1168, -11.6915, 94.2447, -63.1326, 40.0554
0.556, 1, 34.6677, 50.0947, -11.718, 94.2803, -63.0036, 40.0996
0.56, 1, 34.6817, 50.0726, -11.7446, 94.3159, -62.8747, 40.1438
0.564, 1, 34.6956, 50.0505, -11.7711, 94.3514, -62.746, 40.1879
0.568, 1, 34.7096, 50.0285, -11.7975, 94.3869, -62.6175, 40.2319
0.572, 1, 34.7235, 50.0065, -11.8239, 94.4223, -62.4892, 40.2759
0.576, 1, 34.7375, 49.9846, -11.8503, 94.4577, -62.361, 40.3199
0.58, 1, 34.7514, 49.9626, -11.8766, 94.493, -62.2331, 40.3637
0.584, 1, 34.7652, 49.9407, -11.9029, 94.5283, -62.1053, 40.4075
0.588, 1, 34.7791, 49.9189, -11.9292, 94.5635, -61.9777, 40.4513
0.592, 1, 34.7929, 49.897, -11.9554, 94.5987, -61.8503, 40.495
0.596, 1, 34.8068, 49.8752, -11.9816, 94.6338, -61.723, 40.5386
0.6, 1, 34.8206, 49.8535, -12.0078, 94.6689, -61.5959, 40.5821
0.604, 1, 34.8343, 49.8317, -12.0339, 94.7039, -61.4691, 40.6256
0.608, 1, 34.8481, 49.81, -12.06, 94.7389, -61.3423, 40.6691
0.612, 1, 34.8618, 49.7883, -12.086, 94.7738, -61.2158, 40.7125
0.616, 1, 34.8756, 49.7667, -12.112, 94.8087, -61.0894, 40.7558
0.62, 1, 34.8893, 49.7451, -12.138, 94.8435, -60.9632, 40.799
0.624, 1, 34.903, 49.7235, -12.1639, 94.8783, -60.8372, 40.8422
0.628, 1, 34.9166, 49.7019, -12.1898, 94.9131, -60.7114, 40.8854
0.632, 1, 34.9303, 49.6804, -12.2157, 94.9478, -60.5857, 40.9284
0.636, 1, 34.9439, 49.6589, -12.2415, 94.9824, -60.4602, 40.9715
0.64, 1, 34.9575, 49.6374, -12.2673, 95.017, -60.3349, 41.0144
0.644, 1, 34.9711, 49.6159, -12.2931, 95.0516, -60.2097, 41.0573
0.648, 1, 34.9847, 49.5945, -12.3188, 95.0861, -60.0847, 41.1002
0.652, 1, 34.9983, 49.5731, -12.3445, 95.1205, -59.9599, 41.143
0.656, 1, 35.0118, 49.5518, -12.3701, 95.1549, -59.8352, 41.1857
0.66, 1, 35.0253, 49.5304, -12.3958, 95.1893, -59.7107, 41.2284
0.664, 1, 35.0388, 49.5091, -12.4214, 95.2236, -59.5864, 41.271
0.668, 1, 35.0523, 49.4879, -12.4469, 95.2579, -59.4622, 41.3136
0.672, 1, 35.0658, 49.4666, -12.4724, 95.2921, -59.3382, 41.3561
0.676, 1, 35.0792, 49.4454, -12.4979, 95.3263, -59.2144, 41.3985
0.68, 1, 35.0927, 49.4242, -12.5234, 95.3605, -59.0907, 41.4409
0.684, 1, 35.1061, 49.4031, -12.5488, 95.3946, -58.9672, 41.4833
0.688, 1, 35.1195, 49.3819, -12.5742, 95.4286, -58.8439, 41.5256
0.692, 1, 35.1329, 49.3608, -12.5995, 95.4626, -58.7207, 41.5678
0.696, 1, 35.1462, 49.3397, -12.6249, 95.4966, -58.5977, 41.61
0.7, 1, 35.1596, 49.3187, -12.6501, 95.5305, -58.4748, 41.6521
0.704, 1, 35.1729, 49.2977, -12.6754, 95.5644, -58.3521, 41.6941
0.708, 1, 35.1862, 49.2767, -12.7006, 95.5982, -58.2296, 41.7361
0.712, 1, 35.1995, 49.2557, -12.7258, 95.632, -58.1072, 41.7781
0.716, 1, 35.2128, 49.2347, -12.751, 95.6657, -57.985, 41.82
0.72, 1, 35.226, 49.2138, -12.7761, 95.6994, -57.8629, 41.8618
0.724, 1, 35.2393, 49.1929, -12.8012, 95.7331, -57.741, 41.9036
0.728, 1, 35.2525, 49.1721, -12.8262, 95.7667, -57.6192, 41.9454
0.732, 1, 35.2657, 49.1512, -12.8513, 95.8003, -57.4976, 41.9871
0.736, 1, 35.2789, 49.1304, -12.8763, 95.8338, -57.3762, 42.0287
0.74, 1, 35.2921, 49.1097, -12.9012, 95.8673, -57.2549, 42.0703
0.744, 1, 35.3052, 49.0889, -12.9262, 95.9007, -57.1338, 42.1118
0.748, 1, 35.3184, 49.0682, -12.9511, 95.9341, -57.0128, 42.1533
0.752, 1, 35.3315, 49.0475, -12.9759, 95.9675, -56.8919, 42.1947
0.756, 1, 35.3446, 49.0268, -13.0008, 96.0008, -56.7712, 42.2361
0.76, 1, 35.3577, 49.0061, -13.0256, 96.0341, -56.6507, 42.2774
0.764, 1, 35.3708, 48.9855, -13.0504, 96.0673, -56.5303, 42.3187
0.768, 1, 35.3838, 48.9649, -13.0751, 96.1005, -56.4101, 42.3599
0.772, 1, 35.3969, 48.9443, -13.0998, 96.1336, -56.29, 42.401
0.776, 1, 35.4099, 48.9238, -13.1245, 96.1667, -56.1701, 42.4422
0.78, 1, 35.4229, 48.9032, -13.1492, 96.1998, -56.0503, 42.4832
0.784, 1, 35.4359, 48.8827, -13.1738, 96.2328, -55.9306, 42.5242
0.788, 1, 35.4489, 48.8623, -13.1984, 96.2658, -55.8112, 42.5652
0.792, 1, 35.4619, 48.8418, -13.2229, 96.2988, -55.6918, 42.6061
0.796, 1, 35.4748, 48.8214, -13.2475, 96.3317, -55.5726, 42.647
0.8, 1, 35.4877, 48.801, -13.272, 96.3646, -55.4535, 42.6878
0.804, 1, 35.5006, 48.7806, -13.2965, 96.3974, -55.3346, 42.7285
0.808, 1, 35.5136, 48.7603, -13.3209, 96.4302, -55.2159, 42.7693
0.812, 1, 35.5264, 48.7399, -13.3453, 96.4629, -55.0972, 42.8099
0.816, 1, 35.5393, 48.7196, -13.3697, 96.4956, -54.9787, 42.8506
0.82, 1, 35.5522, 48.6994, -13.3941, 96.5283, -54.8604, 42.8911
0.824, 1, 35.565, 48.6791, -13.4184, 96.5609, -54.7422, 42.9316
0.828, 1, 35.5778, 48.6589, -13.4427, 96.5935, -54.6241, 42.9721
0.832, 1, 35.5906, 48.6387, -13.467, 96.6261, -54.5062, 43.0125
0.836, 1, 35.6034, 48.6185, -13.4912, 96.6586, -54.3884, 43.0529
0.84, 1, 35.6162, 48.5983, -13.5154, 96.6911, -54.2707, 43.0933
0.844, 1, 35.629, 48.5782, -13.5396, 96.7235, -54.1532, 43.1335
0.848, 1, 35.6417, 48.5581, -13.5638, 96.7559, -54.0358, 43.1738
0.852, 1, 35.6545, 48.538, -13.5879, 96.7883, -53.9186, 43.214
0.856, 1, 35.6672, 48.5179, -13.612, 96.8206, -53.8015, 43.2541
0.86, 1, 35.6799, 48.4979, -13.6361, 96.8529, -53.6845, 43.2942
0.864, 1, 35.6925, 48.4779, -13.6601, 96.8852, -53.5677, 43.3343
0.868, 1, 35.7051, 48.458, -13.6841, 96.9174, -53.451, 43.3743
0.872, 1, 35.7176, 48.4381, -13.7081, 96.9496, -53.3345, 43.4142
0.876, 1, 35.73, 48.4184, -13.7321, 96.9817, -53.2181, 43.4541
0.88, 1, 35.7419, 48.3992, -13.756, 97.0137, -53.102, 43.4939
0.884, 1, 35.7533, 48.3805, -13.7798, 97.0457, -52.9863, 43.5336
0.888, 1, 35.7641, 48.3627, -13.8035, 97.0775, -52.8712, 43.5731
0.892, 1, 35.7742, 48.3457, -13.8269, 97.109, -52.757, 43.6122
0.896, 1, 35.7836, 48.3297, -13.8501, 97.1401, -52.6444, 43.6508
0.9, 1, 35.7924, 48.3145, -13.8728, 97.1706, -52.534, 43.6887
0.904, 1, 35.8007, 48.3002, -13.895, 97.2003, -52.4264, 43.7256
0.908, 1, 35.8087, 48.2866, -13.9163, 97.229, -52.3226, 43.7613
0.912, 1, 35.8164, 48.2736, -13.9367, 97.2564, -52.2234, 43.7953
0.916, 1, 35.8238, 48.2613, -13.956, 97.2823, -52.1296, 43.8275
0.92, 1, 35.8309, 48.2497, -13.9741, 97.3065, -52.042, 43.8576
0.924, 1, 35.8377, 48.2387, -13.9907, 97.3288, -51.9612, 43.8853
0.928, 1, 35.8442, 48.2281, -14.0057, 97.3491, -51.888, 43.9104
0.932, 1, 35.8507, 48.2178, -14.0192, 97.3671, -51.8226, 43.9328
0.936, 1, 35.8571, 48.2077, -14.031, 97.3829, -51.7653, 43.9524
0.94, 1, 35.8634, 48.1979, -14.0412, 97.3966, -51.716, 43.9693
0.944, 1, 35.8695, 48.1884, -14.0498, 97.4081, -51.6743, 43.9836
0.948, 1, 35.8755, 48.1793, -14.0569, 97.4175, -51.6399, 43.9954
0.952, 2, 35.8812, 48.1708, -14.0626, 97.4252, -51.612, 44.0049
0.956, 2, 35.8865, 48.1631, -14.0672, 97.4313, -51.5899, 44.0124
0.96, 2, 35.8915, 48.1562, -14.0707, 97.436, -51.5728, 44.0183
0.964, 2, 35.896, 48.1502, -14.0734, 97.4396, -51.5598, 44.0227
0.968, 2, 35.9001, 48.145, -14.0754, 97.4422, -51.5503, 44.0259
0.972, 2, 35.9037, 48.1406, -14.0768, 97.4441, -51.5433, 44.0283
0.976, 2, 35.9067, 48.1371, -14.0778, 97.4454, -51.5385, 44.0299
0.98, 2, 35.9091, 48.1343, -14.0785, 97.4463, -51.5351, 44.0311
0.984, 2, 35.911, 48.1323, -14.079, 97.4469, -51.5327, 44.0319
0.988, 2, 35.9123, 48.1308, -14.0793, 97.4474, -51.5312, 44.0324
0.992, 2, 35.9132, 48.1299, -14.0796, 97.4477, -51.5301, 44.0328
0.996, 2, 35.9138, 48.1292, -14.0797, 97.4479, -51.5294, 44.033
1, 2, 35.9142, 48.1287, -14.0798, 97.448, -51.5289, 44.0332
1.004, 2, 35.9145, 48.1284, -14.0799, 97.4481, -51.5285, 44.0333
1.008, 2, 35.9147, 48.1282, -14.0799, 97.4482, -51.5283, 44.0334
1.012, 2, 35.9149, 48.1281, -14.08, 97.4482, -51.5282, 44.0334
1.016, 2, 35.9149, 48.128, -14.08, 97.4482, -51.5281, 44.0335
1.02, 2, 35.915, 48.1279, -14.08, 97.4482, -51.528, 44.0335
1.024, 2, 35.915, 48.1279, -14.08, 97.4483, -51.5279, 44.0335
1.027, 2, 35.9151, 48.1278, -14.08, 97.4483, -51.5279, 44.0335
1.032, 2, 35.9151, 48.1278, -14.08, 97.4483, -51.5279, 44.0335
1.036, 2, 35.9151, 48.1278, -14.08, 97.4483, -51.5279, 44.0335
1.04, 2, 35.9151, 48.1278, -14.08, 97.4483, -51.5279, 44.0335
1.044, 2, 35.9151, 48.1278, -14.08, 97.4483, -51.5279, 44.0335
1.048, 2, 35.9151, 48.1278, -14.08, 97.4483, -51.5279, 44.0335
1.052, 2, 35.9151, 48.1278, -14.08, 97.4483, -51.5278, 44.0335
1.055, 2, 35.9151, 48.1278, -14.08, 97.4483, -51.5278, 44.0335
1.06, 2, 35.9151, 48.1278, -14.08, 97.4483, -51.5278, 44.0335
1.064, 2, 35.9151, 48.1278, -14.08, 97.4483, -51.5278, 44.0335
1.068, 2, 35.9151, 48.1278, -14.08, 97.4483, -51.5278, 44.0335
1.072, 2, 35.9151, 48.1278, -14.08, 97.4483, -51.5278, 44.0335
1.076, 2, 35.9151, 48.1278, -14.08, 97.4483, -51.5278, 44.0335
1.08, 2, 35.9151, 48.1278, -14.08, 97.4483, -51.5278, 44.0335
1.084, 2, 35.9151, 48.1278, -14.08, 97.4483, -51.5278, 44.0335
1.088, 2, 35.9151, 48.1278, -14.08, 97.4483, -51.5278, 44.0335
1.091, 2, 35.9151, 48.1278, -14.08, 97.4483, -51.5278, 44.0335
1.096, 2, 35.9151, 48.1278, -14.08, 97.4483, -51.5278, 44.0335
1.1, 2, 35.9151, 48.1278, -14.08, 97.4483, -51.5278, 44.0335
1.104, 2, 35.9151, 48.1278, -14.08, 97.4483, -51.5278, 44.0335
1.108, 2, 35.9151, 48.1278, -14.08, 97.4483, -51.5278, 44.0335
1.112, 2, 35.9151, 48.1278, -14.08, 97.4483, -51.5278, 44.0335
1.116, 2, 35.9151, 48.1278, -14.08, 97.4483, -51.5278, 44.0335
1.119, 2, 35.9151, 48.1278, -14.08, 97.4483, -51.5278, 44.0335
1.124, 2, 35.9151, 48.1278, -14.08, 97.4483, -51.5278, 44.0335
1.128, 2, 35.9151, 48.1278, -14.08, 97.4483, -51.5278, 44.0335
1.132, 2, 35.9151, 48.1278, -14.08, 97.4483, -51.5278, 44.0335
1.136, 2, 35.9151, 48.1278, -14.08, 97.4483, -51.5278, 44.0335
1.14, 2, 35.9151, 48.1278, -14.08, 97.4483, -51.5278, 44.0335
1.144, 2, 35.9151, 48.1278, -14.08, 97.4483, -51.5278, 44.0335
1.147, 2, 35.9151, 48.1278, -14.08, 97.4483, -51.5278, 44.0335
1.152, 2, 35.9151, 48.1278, -14.08, 97.4483, -51.5278, 44.0335
1.156, 2, 35.9151, 48.1278, -14.08, 97.4483, -51.5278, 44.0335
1.16, 2, 35.9151, 48.1278, -14.08, 97.4483, -51.5278, 44.0335
1.164, 2, 35.9151, 48.1278, -14.08, 97.4483, -51.5278, 44.0335
1.168, 2, 35.9151, 48.1278, -14.08, 97.4483, -51.5278, 44.0335
1.172, 2, 35.9151, 48.1278, -14.08, 97.4483, -51.5278, 44.0335
1.175, 2, 35.9151, 48.1278, -14.08, 97.4483, -51.5278, 44.0335
1.18, 2, 35.9151, 48.1278, -14.08, 97.4483, -51.5278, 44.0335
1.184, 2, 35.9151, 48.1278, -14.08, 97.4483, -51.5278, 44.0335
1.188, 2, 35.9151, 48.1278, -14.08, 97.4483, -51.5278, 44.0335
1.192, 2, 35.9151, 48.1278, -14.08, 97.4483, -51.5278, 44.0335
1.196, 2, 35.9151, 48.1278, -14.08, 97.4483, -51.5278, 44.0335
1.2, 2, 35.9151, 48.1278, -14.08, 97.4483, -51.5278, 44.0335
1.204, 2, 35.9151, 48.1278, -14.08, 97.4483, -51.5278, 44.0335
1.208, 2, 35.9151, 48.1278, -14.08, 97.4483, -51.5278, 44.0335
1.212, 2, 35.9151, 48.1278, -14.08, 97.4483, -51.5278, 44.0335
1.216, 2, 35.9151, 48.1278, -14.08, 97.4483, -51.5278, 44.0335
1.22, 2, 35.9151, 48.1278, -14.08, 97.4483, -51.5278, 44.0335
1.224, 2, 35.9151, 48.1278, -14.08, 97.4483, -51.5278, 44.0335
1.228, 2, 35.9151, 48.1278, -14.08, 97.4483, -51.5278, 44.0335
1.232, 2, 35.9151, 48.1278, -14.08, 97.4483, -51.5278, 44.0335
1.236, 2, 35.9151, 48.1278, -14.08, 97.4483, -51.5278, 44.0335
1.24, 2, 35.9151, 48.1278, -14.08, 97.4483, -51.5278, 44.0335
1.244, 2, 35.9151, 48.1278, -14.08, 97.4483, -51.5278, 44.0335
1.248, 2, 35.9151, 48.1278, -14.08, 97.4483, -51.5278, 44.0335
1.252, 2, 35.9151, 48.1278, -14.08, 97.4483, -51.5278, 44.0335
1.256, 2, 35.9151, 48.1278, -14.08, 97.4483, -51.5278, 44.0335
1.26, 2, 35.9151, 48.1278, -14.08, 97.4483, -51.5278, 44.0335
1.264, 2, 35.9151, 48.1278, -14.08, 97.4483, -51.5278, 44.0335
1.267, 2, 35.9151, 48.1278, -14.08, 97.4483, -51.5278, 44.0335
1.272, 2, 35.9151, 48.1278, -14.08, 97.4483, -51.5278, 44.0335
1.276, 2, 35.9151, 48.1278, -14.08, 97.4483, -51.5278, 44.0335
1.28, 2, 35.9151, 48.1278, -14.08, 97.4483, -51.5278, 44.0335
1.284, 2, 35.9151, 48.1278, -14.08, 97.4483, -51.5278, 44.0335
1.288, 2, 35.9151, 48.1278, -14.08, 97.4483, -51.5278, 44.0335
1.292, 2, 35.9151, 48.1278, -14.08, 97.4483, -51.5278, 44.0335
1.295, 2, 35.9151, 48.1278, -14.08, 97.4483, -51.5278, 44.0335
1.3, 2, 35.9151, 48.1278, -14.08, 97.4483, -51.5278, 44.0335
1.304, 2, 35.9151, 48.1278, -14.08, 97.4483, -51.5278, 44.0335
1.308, 2, 35.9151, 48.1278, -14.08, 97.4483, -51.5278, 44.0335
1.312, 2, 35.9151, 48.1278, -14.08, 97.4483, -51.5278, 44.0335
1.316, 2, 35.9151, 48.1278, -14.08, 97.4483, -51.5278, 44.0335
1.32, 2, 35.9151, 48.1278, -14.08, 97.4483, -51.5278, 44.0335
1.324, 2, 35.9151, 48.1278, -14.08, 97.4483, -51.5278, 44.0335
1.328, 2, 35.9151, 48.1278, -14.08, 97.4483, -51.5278, 44.0335
1.332, 2, 35.9151, 48.1278, -14.08, 97.4483, -51.5278, 44.0335
1.336, 2, 35.9151, 48.1278, -14.08, 97.4483, -51.5278, 44.0335
1.34, 2, 35.9151, 48.1278, -14.08, 97.4483, -51.5278, 44.0335
1.344, 2, 35.9151, 48.1278, -14.08, 97.4483, -51.5278, 44.0335
1.348, 2, 35.9151, 48.1278, -14.08, 97.4483, -51.5278, 44.0335
1.352, 2, 35.9151, 48.1278, -14.08, 97.4483, -51.5278, 44.0335
1.356, 2, 35.9151, 48.1278, -14.08, 97.4483, -51.5278, 44.0335
1.36, 2, 35.9151, 48.1278, -14.08, 97.4483, -51.5278, 44.0335
1.364, 2, 35.9151, 48.1278, -14.08, 97.4483, -51.5278, 44.0335
1.368, 2, 35.9151, 48.1278, -14.08, 97.4483, -51.5278, 44.0335
1.372, 2, 35.9151, 48.1278, -14.08, 97.4483, -51.5278, 44.0335
1.376, 2, 35.9151, 48.1278, -14.08, 97.4483, -51.5278, 44.0335
1.38, 2, 35.9151, 48.1278, -14.08, 97.4483, -51.5278, 44.0335
1.384, 2, 35.9151, 48.1278, -14.08, 97.4483, -51.5278, 44.0335
1.388, 2, 35.9151, 48.1278, -14.08, 97.4483, -51.5278, 44.0335
1.392, 2, 35.9151, 48.1278, -14.08, 97.4483, -51.5278, 44.0335
1.396, 2, 35.9151, 48.1278, -14.08, 97.4483, -51.5278, 44.0335
1.4, 2, 35.9151, 48.1278, -14.08, 97.4483, -51.5278, 44.0335
1.404, 2, 35.9151, 48.1278, -14.08, 97.4483, -51.5278, 44.0335
1.408, 2, 35.9151, 48.1278, -14.08, 97.4483, -51.5278, 44.0335
1.412, 2, 35.9151, 48.1278, -14.08, 97.4483, -51.5278, 44.0335
1.416, 2, 35.9151, 48.1278, -14.08, 97.4483, -51.5278, 44.0335
1.42, 2, 35.9151, 48.1278, -14.08, 97.4483, -51.5278, 44.0335
1.424, 2, 35.9151, 48.1278, -14.08, 97.4483, -51.5278, 44.0335
1.428, 2, 35.9151, 48.1278, -14.08, 97.4483, -51.5278, 44.0335
1.432, 2, 35.9151, 48.1278, -14.08, 97.4483, -51.5278, 44.0335
1.436, 2, 35.9151, 48.1278, -14.08, 97.4483, -51.5278, 44.0335
1.44, 2, 35.9151, 48.1278, -14.08, 97.4483, -51.5278, 44.0335
1.444, 2, 35.9151, 48.1278, -14.08, 97.4483, -51.5278, 44.0335
1.448, 2, 35.9151, 48.1278, -14.08, 97.4483, -51.5278, 44.0335
1.452, 3, 35.9151, 48.1278, -14.08, 97.4483, -51.5278, 44.0335
1.456, 3, 35.9151, 48.1278, -14.08, 97.4483, -51.5278, 44.0335
1.46, 3, 35.9151, 48.1278, -14.08, 97.4483, -51.5278, 44.0335
1.464, 3, 35.9151, 48.1278, -14.08, 97.4483, -51.5278, 44.0335
1.468, 3, 35.9151, 48.1278, -14.08, 97.4483, -51.5278, 44.0335
1.472, 3, 35.9151, 48.1278, -14.08, 97.4483, -51.5278, 44.0335
1.476, 3, 35.9151, 48.1278, -14.08, 97.4483, -51.5278, 44.0335
1.48, 3, 35.9151, 48.1278, -14.08, 97.4483, -51.5278, 44.0335
1.484, 3, 35.9151, 48.1278, -14.08, 97.4483, -51.5278, 44.0335
1.488, 3, 35.9151, 48.1278, -14.08, 97.4483, -51.5278, 44.0335
1.492, 3, 35.9151, 48.1278, -14.08, 97.4483, -51.5278, 44.0335
1.496, 3, 35.9151, 48.1278, -14.08, 97.4483, -51.5278, 44.0335
1.5, 3, 35.9151, 48.1278, -14.08, 97.4483, -51.5278, 44.0335
1.504, 3, 35.9151, 48.1278, -14.08, 97.4483, -51.5278, 44.0335
1.508, 4, 35.9151, 48.1278, -14.08, 97.4483, -51.5278, 44.0335
1.512, 4, 35.9151, 48.1278, -14.08, 97.4483, -51.5278, 44.0335
1.516, 4, 35.9151, 48.1278, -14.08, 97.4483, -51.5278, 44.0335
1.52, 4, 35.9151, 48.1278, -14.08, 97.4483, -51.5278, 44.0335
1.524, 4, 35.9151, 48.1278, -14.08, 97.4483, -51.5278, 44.0335
1.528, 4, 35.9151, 48.1278, -14.08, 97.4483, -51.5278, 44.0335
1.532, 4, 35.9151, 48.1278, -14.08, 97.4483, -51.5278, 44.0335
1.536, 4, 35.9151, 48.1278, -14.08, 97.4483, -51.5278, 44.0335
1.54, 4, 35.9151, 48.1278, -14.08, 97.4483, -51.5278, 44.0335
1.544, 4, 35.9151, 48.1278, -14.08, 97.4483, -51.5278, 44.0335
1.548, 4, 35.915, 48.128, -14.08, 97.4483, -51.5279, 44.0335
1.552, 4, 35.9148, 48.1283, -14.08, 97.4483, -51.5279, 44.0335
1.556, 4, 35.9144, 48.1291, -14.08, 97.4483, -51.5281, 44.0334
1.56, 4, 35.9137, 48.1303, -14.08, 97.4482, -51.5284, 44.0333
1.564, 4, 35.9128, 48.1322, -14.0799, 97.4481, -51.5292, 44.033
1.568, 4, 35.9115, 48.1347, -14.0798, 97.4478, -51.5306, 44.0325
1.572, 4, 35.91, 48.1378, -14.0797, 97.4474, -51.533, 44.0316
1.576, 4, 35.9084, 48.1415, -14.0795, 97.4468, -51.5368, 44.0301
1.58, 4, 35.9067, 48.1457, -14.0792, 97.4459, -51.5425, 44.028
1.584, 4, 35.905, 48.1504, -14.0788, 97.4445, -51.5505, 44.0249
1.588, 4, 35.9034, 48.1554, -14.0782, 97.4427, -51.5612, 44.0208
1.592, 4, 35.9018, 48.1609, -14.0775, 97.4404, -51.5751, 44.0155
1.596, 4, 35.9002, 48.1669, -14.0766, 97.4374, -51.5925, 44.0089
1.6, 4, 35.8987, 48.1732, -14.0756, 97.4338, -51.6135, 44.0009
1.604, 4, 35.8972, 48.18, -14.0743, 97.4296, -51.6384, 43.9914
1.608, 4, 35.8958, 48.1873, -14.0728, 97.4247, -51.6672, 43.9804
1.612, 4, 35.8945, 48.1948, -14.0712, 97.4191, -51.6998, 43.968
1.616, 4, 35.8933, 48.2027, -14.0693, 97.4128, -51.7361, 43.9542
1.62, 4, 35.8922, 48.211, -14.0673, 97.406, -51.7758, 43.9391
1.624, 4, 35.8911, 48.2197, -14.065, 97.3986, -51.8186, 43.9228
1.628, 4, 35.8899, 48.2289, -14.0627, 97.3908, -51.8639, 43.9056
1.632, 4, 35.8887, 48.2388, -14.0602, 97.3825, -51.9114, 43.8875
1.636, 4, 35.8872, 48.2494, -14.0575, 97.3739, -51.9606, 43.8689
1.64, 4, 35.8856, 48.2606, -14.0548, 97.3651, -52.0112, 43.8497
1.644, 4, 35.8837, 48.2725, -14.052, 97.356, -52.0629, 43.8301
1.648, 4, 35.8816, 48.2848, -14.0491, 97.3468, -52.1154, 43.8102
1.652, 4, 35.8793, 48.2976, -14.0461, 97.3374, -52.1684, 43.7901
1.656, 4, 35.8768, 48.3107, -14.0431, 97.3279, -52.2218, 43.7699
1.66, 4, 35.8742, 48.3241, -14.04, 97.3183, -52.2756, 43.7496
1.664, 4, 35.8715, 48.3376, -14.0369, 97.3087, -52.3295, 43.7293
1.668, 4, 35.8688, 48.3513, -14.0337, 97.299, -52.3836, 43.7089
1.672, 4, 35.8659, 48.3651, -14.0305, 97.2892, -52.4378, 43.6885
1.676, 4, 35.863, 48.3789, -14.0272, 97.2794, -52.4921, 43.6681
1.68, 4, 35.8601, 48.3928, -14.0239, 97.2695, -52.5463, 43.6477
1.684, 4, 35.8571, 48.4067, -14.0205, 97.2596, -52.6006, 43.6273
1.688, 4, 35.8541, 48.4206, -14.0172, 97.2497, -52.6549, 43.6069
1.692, 4, 35.8511, 48.4346, -14.0137, 97.2397, -52.7092, 43.5865
1.696, 4, 35.8481, 48.4485, -14.0103, 97.2297, -52.7635, 43.5662
1.7, 4, 35.845, 48.4624, -14.0068, 97.2196, -52.8178, 43.5458
1.704, 4, 35.842, 48.4762, -14.0033, 97.2095, -52.8721, 43.5255
1.708, 4, 35.8389, 48.4901, -13.9997, 97.1994, -52.9264, 43.5053
1.712, 4, 35.8358, 48.5039, -13.9961, 97.1892, -52.9806, 43.485
1.716, 4, 35.8327, 48.5178, -13.9924, 97.179, -53.0349, 43.4648
1.72, 4, 35.8296, 48.5316, -13.9887, 97.1687, -53.0891, 43.4446
1.724, 4, 35.8265, 48.5453, -13.985, 97.1585, -53.1433, 43.4244
1.728, 4, 35.8233, 48.5591, -13.9813, 97.1481, -53.1975, 43.4042
1.732, 4, 35.8202, 48.5728, -13.9775, 97.1378, -53.2517, 43.3841
1.736, 4, 35.817, 48.5866, -13.9736, 97.1274, -53.3059, 43.3639
1.74, 4, 35.8138, 48.6003, -13.9698, 97.117, -53.3601, 43.3438
1.744, 4, 35.8106, 48.614, -13.9658, 97.1065, -53.4142, 43.3238
1.748, 4, 35.8074, 48.6276, -13.9619, 97.096, -53.4683, 43.3037
1.752, 4, 35.8042, 48.6412, -13.9579, 97.0854, -53.5225, 43.2837
1.756, 4, 35.801, 48.6549, -13.9539, 97.0748, -53.5766, 43.2637
1.76, 4, 35.7977, 48.6685, -13.9498, 97.0642, -53.6307, 43.2437
1.764, 4, 35.7945, 48.682, -13.9457, 97.0536, -53.6847, 43.2237
1.768, 4, 35.7912, 48.6956, -13.9416, 97.0429, -53.7388, 43.2038
1.772, 4, 35.7879, 48.7091, -13.9374, 97.0322, -53.7928, 43.1838
1.776, 4, 35.7846, 48.7226, -13.9332, 97.0214, -53.8469, 43.1639
1.78, 4, 35.7813, 48.7361, -13.9289, 97.0106, -53.9009, 43.1441
1.784, 4, 35.778, 48.7496, -13.9246, 96.9998, -53.9549, 43.1242
1.788, 4, 35.7747, 48.763, -13.9203, 96.9889, -54.0089, 43.1044
1.792, 4, 35.7713, 48.7764, -13.9159, 96.978, -54.0629, 43.0845
1.796, 4, 35.768, 48.7898, -13.9115, 96.9671, -54.1169, 43.0647
1.8, 4, 35.7646, 48.8032, -13.907, 96.9561, -54.1708, 43.045
1.804, 4, 35.7612, 48.8166, -13.9026, 96.9451, -54.2247, 43.0252
1.808, 4, 35.7578, 48.8299, -13.898, 96.9341, -54.2787, 43.0055
1.812, 4, 35.7544, 48.8432, -13.8935, 96.923, -54.3326, 42.9858
1.816, 4, 35.751, 48.8565, -13.8889, 96.9119, -54.3865, 42.9661
1.82, 4, 35.7476, 48.8698, -13.8842, 96.9007, -54.4404, 42.9464
1.824, 4, 35.7441, 48.883, -13.8795, 96.8895, -54.4942, 42.9268
1.828, 4, 35.7407, 48.8963, -13.8748, 96.8783, -54.5481, 42.9071
1.832, 4, 35.7372, 48.9095, -13.87, 96.8671, -54.6019, 42.8875
1.836, 4, 35.7337, 48.9226, -13.8652, 96.8558, -54.6557, 42.8679
1.84, 4, 35.7302, 48.9358, -13.8604, 96.8445, -54.7095, 42.8484
1.844, 4, 35.7267, 48.9489, -13.8555, 96.8331, -54.7633, 42.8288
1.848, 4, 35.7232, 48.962, -13.8506, 96.8217, -54.8171, 42.8093
1.852, 4, 35.7197, 48.9751, -13.8456, 96.8103, -54.8709, 42.7898
1.856, 4, 35.7162, 48.9882, -13.8406, 96.7988, -54.9246, 42.7703
1.86, 4, 35.7126, 49.0013, -13.8356, 96.7874, -54.9784, 42.7508
1.864, 4, 35.709, 49.0143, -13.8305, 96.7758, -55.0321, 42.7313
1.868, 4, 35.7054, 49.0273, -13.8254, 96.7643, -55.0858, 42.7119
1.872, 4, 35.7019, 49.0403, -13.8203, 96.7527, -55.1395, 42.6925
1.876, 4, 35.6982, 49.0532, -13.8151, 96.7411, -55.1932, 42.6731
1.88, 4, 35.6946, 49.0662, -13.8098, 96.7294, -55.2469, 42.6537
1.884, 4, 35.691, 49.0791, -13.8046, 96.7177, -55.3005, 42.6344
1.888, 4, 35.6874, 49.092, -13.7993, 96.706, -55.3542, 42.615
1.892, 4, 35.6837, 49.1048, -13.7939, 96.6942, -55.4078, 42.5957
1.896, 4, 35.68, 49.1177, -13.7885, 96.6824, -55.4614, 42.5764
1.9, 4, 35.6764, 49.1305, -13.7831, 96.6706, -55.515, 42.5571
1.904, 4, 35.6727, 49.1433, -13.7776, 96.6588, -55.5686, 42.5378
1.908, 4, 35.669, 49.1561, -13.7721, 96.6469, -55.6222, 42.5186
1.912, 4, 35.6652, 49.1688, -13.7666, 96.635, -55.6758, 42.4994
1.916, 4, 35.6615, 49.1816, -13.761, 96.623, -55.7293, 42.4801
1.92, 4, 35.6578, 49.1943, -13.7554, 96.611, -55.7828, 42.4609
1.924, 4, 35.654, 49.207, -13.7497, 96.599, -55.8364, 42.4418
1.928, 4, 35.6503, 49.2196, -13.744, 96.587, -55.8899, 42.4226
1.932, 4, 35.6465, 49.2323, -13.7383, 96.5749, -55.9434, 42.4035
1.936, 4, 35.6427, 49.2449, -13.7325, 96.5628, -55.9968, 42.3843
1.94, 4, 35.6389, 49.2575, -13.7267, 96.5506, -56.0503, 42.3652
1.944, 4, 35.6351, 49.2701, -13.7208, 96.5384, -56.1038, 42.3461
1.948, 4, 35.6312, 49.2826, -13.7149, 96.5262, -56.1572, 42.3271
1.952, 4, 35.6274, 49.2951, -13.709, 96.514, -56.2106, 42.308
1.956, 4, 35.6235, 49.3077, -13.703, 96.5017, -56.264, 42.289
1.96, 4, 35.6197, 49.3201, -13.697, 96.4894, -56.3174, 42.27
1.964, 4, 35.6158, 49.3326, -13.6909, 96.4771, -56.3708, 42.251
1.968, 4, 35.6119, 49.345, -13.6848, 96.4647, -56.4242, 42.232
1.972, 4, 35.608, 49.3575, -13.6787, 96.4523, -56.4776, 42.213
1.976, 4, 35.6041, 49.3699, -13.6725, 96.4399, -56.5309, 42.1941
1.98, 4, 35.6002, 49.3822, -13.6663, 96.4274, -56.5842, 42.1751
1.984, 4, 35.5962, 49.3946, -13.6601, 96.4149, -56.6376, 42.1562
1.988, 4, 35.5923, 49.4069, -13.6538, 96.4024, -56.6909, 42.1373
1.992, 4, 35.5883, 49.4192, -13.6475, 96.3898, -56.7442, 42.1184
1.996, 4, 35.5844, 49.4315, -13.6411, 96.3772, -56.7974, 42.0995
1.999, 4, 35.5804, 49.4437, -13.6347, 96.3646, -56.8507, 42.0807
2.004, 4, 35.5764, 49.456, -13.6283, 96.352, -56.9039, 42.0619
2.008, 4, 35.5723, 49.4682, -13.6218, 96.3393, -56.9572, 42.043
2.012, 4, 35.5683, 49.4804, -13.6153, 96.3266, -57.0104, 42.0242
2.015, 4, 35.5643, 49.4925, -13.6087, 96.3138, -57.0636, 42.0054
2.019, 4, 35.5602, 49.5047, -13.6021, 96.3011, -57.1168, 41.9867
2.024, 4, 35.5562, 49.5168, -13.5955, 96.2883, -57.17, 41.9679
2.028, 4, 35.5521, 49.5289, -13.5888, 96.2754, -57.2232, 41.9492
2.031, 4, 35.548, 49.541, -13.5821, 96.2626, -57.2763, 41.9304
2.036, 4, 35.5439, 49.553, -13.5753, 96.2497, -57.3295, 41.9117
2.04, 4, 35.5398, 49.5651, -13.5685, 96.2367, -57.3826, 41.893
2.044, 4, 35.5357, 49.5771, -13.5617, 96.2238, -57.4357, 41.8744
2.048, 4, 35.5316, 49.5891, -13.5548, 96.2108, -57.4888, 41.8557
2.051, 4, 35.5274, 49.601, -13.5479, 96.1978, -57.5419, 41.8371
2.055, 4, 35.5233, 49.6129, -13.541, 96.1847, -57.595, 41.8184
2.06, 4, 35.5191, 49.6249, -13.534, 96.1717, -57.6481, 41.7998
2.065, 5, 35.5149, 49.6367, -13.527, 96.1586, -57.7011, 41.7812
2.068, 5, 35.5107, 49.6486, -13.5199, 96.1454, -57.7542, 41.7626
2.072, 5, 35.5065, 49.6605, -13.5128, 96.1323, -57.8072, 41.744
2.076, 5, 35.5023, 49.6723, -13.5057, 96.1191, -57.8602, 41.7255
2.08, 5, 35.4981, 49.6841, -13.4985, 96.1059, -57.9132, 41.7069
2.084, 5, 35.4938, 49.6959, -13.4913, 96.0926, -57.9662, 41.6884
2.087, 5, 35.4896, 49.7076, -13.484, 96.0793, -58.0192, 41.6699
2.092, 5, 35.4853, 49.7193, -13.4767, 96.066, -58.0721, 41.6514
2.096, 5, 35.481, 49.731, -13.4694, 96.0527, -58.1251, 41.6329
2.1, 5, 35.4767, 49.7427, -13.462, 96.0393, -58.178, 41.6145
2.104, 5, 35.4724, 49.7544, -13.4546, 96.0259, -58.2309, 41.596
2.107, 5, 35.4681, 49.766, -13.4472, 96.0125, -58.2838, 41.5776
2.111, 5, 35.4638, 49.7776, -13.4397, 95.999, -58.3367, 41.5591
2.116, 5, 35.4595, 49.7892, -13.4321, 95.9855, -58.3896, 41.5407
2.12, 5, 35.4551, 49.8008, -13.4246, 95.972, -58.4425, 41.5223
2.124, 5, 35.4507, 49.8123, -13.417, 95.9585, -58.4953, 41.5039
2.127, 5, 35.4464, 49.8239, -13.4093, 95.9449, -58.5482, 41.4856
2.132, 5, 35.442, 49.8354, -13.4017, 95.9313, -58.601, 41.4672
2.136, 5, 35.4376, 49.8468, -13.3939, 95.9177, -58.6538, 41.4489
2.14, 5, 35.4332, 49.8583, -13.3862, 95.904, -58.7066, 41.4305
2.143, 5, 35.4288, 49.8697, -13.3784, 95.8903, -58.7594, 41.4122
2.148, 5, 35.4243, 49.8811, -13.3705, 95.8766, -58.8122, 41.3939
2.152, 5, 35.4199, 49.8925, -13.3627, 95.8628, -58.865, 41.3756
2.156, 5, 35.4154, 49.9038, -13.3547, 95.8491, -58.9177, 41.3574
2.16, 5, 35.411, 49.9152, -13.3468, 95.8353, -58.9705, 41.3391
2.163, 5, 35.4065, 49.9265, -13.3388, 95.8214, -59.0232, 41.3208
2.168, 5, 35.402, 49.9378, -13.3308, 95.8076, -59.0759, 41.3026
2.172, 5, 35.3975, 49.949, -13.3227, 95.7937, -59.1286, 41.2844
2.176, 5, 35.393, 49.9603, -13.3146, 95.7798, -59.1813, 41.2662
2.179, 5, 35.3884, 49.9715, -13.3064, 95.7659, -59.234, 41.248
2.184, 5, 35.3839, 49.9827, -13.2983, 95.7519, -59.2867, 41.2298
2.188, 5, 35.3793, 49.9938, -13.29, 95.7379, -59.3393, 41.2116
2.192, 5, 35.3748, 50.005, -13.2818, 95.7239, -59.3919, 41.1935
2.196, 5, 35.3702, 50.0161, -13.2735, 95.7098, -59.4446, 41.1753
2.199, 5, 35.3656, 50.0272, -13.2651, 95.6957, -59.4972, 41.1572
2.204, 5, 35.361, 50.0383, -13.2568, 95.6816, -59.5498, 41.1391
2.208, 5, 35.3564, 50.0493, -13.2483, 95.6675, -59.6024, 41.121
2.212, 5, 35.3518, 50.0604, -13.2399, 95.6533, -59.6549, 41.1029
2.216, 5, 35.3471, 50.0714, -13.2314, 95.6392, -59.7075, 41.0848
2.219, 5, 35.3425, 50.0823, -13.2228, 95.6249, -59.7601, 41.0667
2.224, 5, 35.3378, 50.0933, -13.2143, 95.6107, -59.8126, 41.0486
2.228, 5, 35.3332, 50.1042, -13.2057, 95.5964, -59.8651, 41.0306
2.232, 5, 35.3285, 50.1151, -13.197, 95.5821, -59.9176, 41.0126
2.235, 5, 35.3238, 50.126, -13.1883, 95.5678, -59.9701, 40.9945
2.24, 5, 35.3191, 50.1369, -13.1796, 95.5535, -60.0226, 40.9765
2.244, 5, 35.3144, 50.1477, -13.1708, 95.5391, -60.0751, 40.9585
2.248, 5, 35.3096, 50.1585, -13.162, 95.5247, -60.1276, 40.9405
2.252, 5, 35.3049, 50.1693, -13.1532, 95.5102, -60.18, 40.9226
2.255, 5, 35.3001, 50.1801, -13.1443, 95.4958, -60.2324, 40.9046
2.259, 5, 35.2954, 50.1908, -13.1354, 95.4813, -60.2849, 40.8866
2.264, 5, 35.2906, 50.2015, -13.1264, 95.4668, -60.3373, 40.8687
2.268, 5, 35.2858, 50.2122, -13.1174, 95.4522, -60.3897, 40.8508
2.272, 5, 35.281, 50.2229, -13.1084, 95.4377, -60.4421, 40.8328
2.275, 5, 35.2762, 50.2335, -13.0993, 95.4231, -60.4944, 40.8149
2.28, 5, 35.2714, 50.2441, -13.0902, 95.4085, -60.5468, 40.797
2.284, 5, 35.2665, 50.2547, -13.081, 95.3938, -60.5991, 40.7791
2.288, 5, 35.2617, 50.2653, -13.0719, 95.3792, -60.6515, 40.7613
2.291, 5, 35.2568, 50.2759, -13.0626, 95.3645, -60.7038, 40.7434
2.296, 5, 35.2519, 50.2864, -13.0534, 95.3497, -60.7561, 40.7256
2.3, 5, 35.2471, 50.2969, -13.044, 95.335, -60.8084, 40.7077
2.304, 5, 35.2422, 50.3074, -13.0347, 95.3202, -60.8607, 40.6899
2.308, 5, 35.2372, 50.3178, -13.0253, 95.3054, -60.913, 40.6721
2.311, 5, 35.2323, 50.3282, -13.0159, 95.2906, -60.9652, 40.6542
2.316, 5, 35.2274, 50.3386, -13.0064, 95.2757, -61.0175, 40.6364
2.32, 5, 35.2225, 50.349, -12.9969, 95.2609, -61.0697, 40.6187
2.324, 5, 35.2175, 50.3594, -12.9874, 95.246, -61.1219, 40.6009
2.328, 5, 35.2125, 50.3697, -12.9778, 95.231, -61.1741, 40.5831
2.331, 5, 35.2076, 50.38, -12.9682, 95.2161, -61.2263, 40.5653
2.336, 5, 35.2026, 50.3903, -12.9585, 95.2011, -61.2785, 40.5476
2.34, 5, 35.1976, 50.4005, -12.9488, 95.1861, -61.3307, 40.5299
2.344, 5, 35.1926, 50.4108, -12.9391, 95.1711, -61.3829, 40.5121
2.347, 5, 35.1875, 50.421, -12.9293, 95.156, -61.435, 40.4944
2.352, 5, 35.1825, 50.4312, -12.9195, 95.1409, -61.4871, 40.4767
2.356, 5, 35.1774, 50.4413, -12.9096, 95.1258, -61.5393, 40.459
2.36, 5, 35.1724, 50.4514, -12.8997, 95.1107, -61.5914, 40.4413
2.364, 5, 35.1673, 50.4615, -12.8898, 95.0955, -61.6435, 40.4236
2.367, 5, 35.1622, 50.4716, -12.8798, 95.0804, -61.6956, 40.406
2.372, 5, 35.1571, 50.4817, -12.8698, 95.0652, -61.7476, 40.3883
2.376, 5, 35.152, 50.4917, -12.8598, 95.0499, -61.7997, 40.3706
2.38, 5, 35.1469, 50.5017, -12.8497, 95.0347, -61.8517, 40.353
2.383, 5, 35.1418, 50.5117, -12.8396, 95.0194, -61.9038, 40.3354
2.388, 5, 35.1366, 50.5217, -12.8294, 95.0041, -61.9558, 40.3177
2.392, 5, 35.1315, 50.5316, -12.8192, 94.9887, -62.0078, 40.3001
2.396, 5, 35.1263, 50.5415, -12.809, 94.9734, -62.0598, 40.2825
2.4, 5, 35.1211, 50.5514, -12.7987, 94.958, -62.1118, 40.2649
2.403, 5, 35.116, 50.5613, -12.7884, 94.9426, -62.1638, 40.2473
2.408, 5, 35.1108, 50.5711, -12.778, 94.9272, -62.2158, 40.2298
2.412, 5, 35.1055, 50.5809, -12.7676, 94.9117, -62.2677, 40.2122
2.416, 5, 35.1003, 50.5907, -12.7572, 94.8963, -62.3196, 40.1946
2.42, 5, 35.0951, 50.6005, -12.7467, 94.8808, -62.3716, 40.1771
2.423, 5, 35.0898, 50.6102, -12.7362, 94.8652, -62.4235, 40.1595
2.428, 5, 35.0846, 50.6199, -12.7256, 94.8497, -62.4754, 40.142
2.432, 5, 35.0793, 50.6296, -12.715, 94.8341, -62.5273, 40.1245
2.436, 5, 35.074, 50.6393, -12.7044, 94.8185, -62.5792, 40.1069
2.439, 5, 35.0687, 50.6489, -12.6937, 94.8029, -62.631, 40.0894
2.444, 5, 35.0634, 50.6585, -12.683, 94.7872, -62.6829, 40.0719
2.448, 5, 35.0581, 50.6681, -12.6723, 94.7716, -62.7347, 40.0544
2.452, 5, 35.0528, 50.6777, -12.6615, 94.7559, -62.7865, 40.0369
2.456, 5, 35.0474, 50.6872, -12.6506, 94.7402, -62.8384, 40.0195
2.459, 5, 35.0421, 50.6967, -12.6398, 94.7244, -62.8902, 40.002
2.464, 5, 35.0367, 50.7062, -12.6289, 94.7087, -62.942, 39.9845
2.468, 5, 35.0313, 50.7157, -12.6179, 94.6929, -62.9937, 39.9671
2.472, 5, 35.026, 50.7251, -12.6069, 94.6771, -63.0455, 39.9496
2.476, 5, 35.0206, 50.7345, -12.5959, 94.6612, -63.0973, 39.9322
2.479, 5, 35.0152, 50.7439, -12.5849, 94.6454, -63.149, 39.9148
2.484, 5, 35.0097, 50.7533, -12.5738, 94.6295, -63.2007, 39.8973
2.488, 5, 35.0043, 50.7626, -12.5626, 94.6136, -63.2525, 39.8799
2.492, 5, 34.9989, 50.7719, -12.5514, 94.5976, -63.3042, 39.8625
2.495, 5, 34.9934, 50.7812, -12.5402, 94.5817, -63.3559, 39.8451
2.5, 5, 34.9879, 50.7905, -12.529, 94.5657, -63.4075, 39.8277
2.504, 5, 34.9824, 50.7997, -12.5177, 94.5497, -63.4592, 39.8103
2.508, 5, 34.977, 50.8089, -12.5063, 94.5337, -63.5109, 39.793
2.512, 5, 34.9715, 50.8181, -12.4949, 94.5177, -63.5625, 39.7756
2.515, 5, 34.9659, 50.8272, -12.4835, 94.5016, -63.6142, 39.7582
2.52, 5, 34.9604, 50.8364, -12.4721, 94.4855, -63.6658, 39.7409
2.524, 5, 34.9549, 50.8455, -12.4606, 94.4694, -63.7174, 39.7235
2.528, 5, 34.9493, 50.8546, -12.449, 94.4533, -63.769, 39.7062
2.531, 5, 34.9438, 50.8636, -12.4375, 94.4371, -63.8206, 39.6888
2.536, 5, 34.9382, 50.8726, -12.4258, 94.4209, -63.8721, 39.6715
2.54, 5, 34.9326, 50.8816, -12.4142, 94.4047, -63.9237, 39.6542
2.544, 5, 34.927, 50.8906, -12.4025, 94.3885, -63.9753, 39.6369
2.548, 5, 34.9214, 50.8996, -12.3908, 94.3722, -64.0268, 39.6195
2.551, 5, 34.9158, 50.9085, -12.379, 94.356, -64.0783, 39.6022
2.556, 5, 34.9101, 50.9174, -12.3672, 94.3397, -64.1298, 39.5849
2.56, 5, 34.9045, 50.9263, -12.3553, 94.3234, -64.1813, 39.5677
2.564, 5, 34.8988, 50.9351, -12.3434, 94.307, -64.2328, 39.5504
2.568, 5, 34.8932, 50.9439, -12.3315, 94.2906, -64.2843, 39.5331
2.571, 5, 34.8875, 50.9527, -12.3196, 94.2743, -64.3358, 39.5158
2.576, 5, 34.8818, 50.9615, -12.3075, 94.2579, -64.3872, 39.4985
2.58, 5, 34.8761, 50.9702, -12.2955, 94.2414, -64.4387, 39.4813
2.584, 5, 34.8704, 50.979, -12.2834, 94.225, -64.4901, 39.464
2.587, 5, 34.8647, 50.9877, -12.2713, 94.2085, -64.5415, 39.4468
2.592, 5, 34.8589, 50.9963, -12.2591, 94.192, -64.5929, 39.4295
2.596, 5, 34.8532, 51.005, -12.2469, 94.1755, -64.6443, 39.4123
2.6, 5, 34.8475, 51.0136, -12.2347, 94.159, -64.6957, 39.3951
2.604, 5, 34.8418, 51.0223, -12.2225, 94.1425, -64.7471, 39.3778
2.607, 5, 34.8362, 51.031, -12.2102, 94.1259, -64.7985, 39.3606
2.612, 5, 34.8306, 51.0396, -12.198, 94.1095, -64.8499, 39.3433
2.616, 5, 34.825, 51.0484, -12.1859, 94.0931, -64.9013, 39.326
2.62, 5, 34.8194, 51.0571, -12.1738, 94.0769, -64.9528, 39.3087
2.624, 5, 34.8139, 51.0659, -12.1619, 94.0608, -65.0044, 39.2913
2.627, 5, 34.8082, 51.0747, -12.1501, 94.045, -65.0561, 39.2739
2.632, 5, 34.8026, 51.0835, -12.1385, 94.0295, -65.108, 39.2564
2.636, 5, 34.7969, 51.0924, -12.127, 94.0142, -65.1599, 39.2388
2.64, 5, 34.7912, 51.1014, -12.1158, 93.9992, -65.2121, 39.2211
2.643, 5, 34.7855, 51.1104, -12.1048, 93.9846, -65.2643, 39.2033
2.648, 5, 34.7797, 51.1195, -12.094, 93.9703, -65.3167, 39.1854
2.652, 5, 34.7739, 51.1286, -12.0834, 93.9563, -65.3693, 39.1675
2.656, 5, 34.7681, 51.1378, -12.0731, 93.9426, -65.422, 39.1494
2.66, 5, 34.7622, 51.1471, -12.0629, 93.9291, -65.4749, 39.1313
2.663, 5, 34.7563, 51.1564, -12.0528, 93.916, -65.5278, 39.1131
2.668, 5, 34.7503, 51.1657, -12.0429, 93.903, -65.5809, 39.0949
2.672, 5, 34.7444, 51.175, -12.0331, 93.8901, -65.634, 39.0766
2.676, 5, 34.7386, 51.1844, -12.0234, 93.8773, -65.6871, 39.0583
2.679, 5, 34.7327, 51.1939, -12.0137, 93.8646, -65.7403, 39.04
2.684, 5, 34.7269, 51.2033, -12.004, 93.852, -65.7935, 39.0217
2.688, 5, 34.7211, 51.2127, -11.9943, 93.8393, -65.8467, 39.0034
2.692, 5, 34.7153, 51.2222, -11.9847, 93.8267, -65.8999, 38.9851
2.696, 5, 34.7096, 51.2316, -11.975, 93.814, -65.9532, 38.9668
2.699, 5, 34.7038, 51.241, -11.9653, 93.8013, -66.0064, 38.9485
2.704, 5, 34.698, 51.2504, -11.9555, 93.7886, -66.0596, 38.9302
2.708, 5, 34.6922, 51.2598, -11.9457, 93.7759, -66.1128, 38.912
2.712, 5, 34.6864, 51.2691, -11.9359, 93.7632, -66.166, 38.8937
2.716, 5, 34.6806, 51.2785, -11.9261, 93.7504, -66.2192, 38.8755
2.719, 5, 34.6748, 51.2878, -11.9162, 93.7376, -66.2723, 38.8573
2.724, 5, 34.669, 51.297, -11.9062, 93.7248, -66.3255, 38.839
2.728, 5, 34.6631, 51.3063, -11.8963, 93.7119, -66.3786, 38.8208
2.732, 5, 34.6573, 51.3155, -11.8863, 93.6991, -66.4318, 38.8026
2.735, 5, 34.6514, 51.3248, -11.8763, 93.6861, -66.4849, 38.7845
2.74, 5, 34.6455, 51.334, -11.8662, 93.6732, -66.5381, 38.7663
2.744, 5, 34.6397, 51.3431, -11.8561, 93.6602, -66.5912, 38.7481
2.748, 5, 34.6338, 51.3523, -11.8459, 93.6472, -66.6443, 38.73
2.752, 5, 34.6279, 51.3614, -11.8357, 93.6342, -66.6974, 38.7119
2.755, 5, 34.6219, 51.3705, -11.8255, 93.6212, -66.7505, 38.6937
2.76, 5, 34.616, 51.3795, -11.8153, 93.6081, -66.8035, 38.6756
2.764, 5, 34.6101, 51.3886, -11.805, 93.595, -66.8566, 38.6575
2.768, 5, 34.6041, 51.3976, -11.7946, 93.5818, -66.9097, 38.6394
2.772, 5, 34.5982, 51.4066, -11.7843, 93.5687, -66.9627, 38.6214
2.775, 5, 34.5922, 51.4156, -11.7739, 93.5555, -67.0158, 38.6033
2.78, 5, 34.5862, 51.4245, -11.7634, 93.5423, -67.0688, 38.5853
2.784, 5, 34.5802, 51.4335, -11.7529, 93.529, -67.1218, 38.5672
2.788, 5, 34.5742, 51.4424, -11.7424, 93.5157, -67.1748, 38.5492
2.791, 5, 34.5682, 51.4513, -11.7318, 93.5024, -67.2278, 38.5312
2.796, 5, 34.5621, 51.4601, -11.7213, 93.4891, -67.2808, 38.5132
2.8, 5, 34.5561, 51.4689, -11.7106, 93.4757, -67.3338, 38.4952
2.804, 5, 34.55, 51.4777, -11.6999, 93.4623, -67.3868, 38.4772
2.808, 5, 34.544, 51.4865, -11.6892, 93.4489, -67.4397, 38.4593
2.811, 5, 34.5379, 51.4953, -11.6785, 93.4355, -67.4927, 38.4413
2.816, 5, 34.5318, 51.504, -11.6677, 93.422, -67.5456, 38.4233
2.82, 5, 34.5257, 51.5127, -11.6569, 93.4085, -67.5986, 38.4054
2.824, 5, 34.5196, 51.5214, -11.646, 93.395, -67.6515, 38.3875
2.828, 5, 34.5135, 51.5301, -11.6351, 93.3814, -67.7044, 38.3696
2.831, 5, 34.5073, 51.5387, -11.6242, 93.3678, -67.7573, 38.3517
2.836, 5, 34.5012, 51.5473, -11.6132, 93.3542, -67.8102, 38.3338
2.84, 5, 34.495, 51.5559, -11.6022, 93.3405, -67.8631, 38.3159
2.844, 5, 34.4889, 51.5645, -11.5912, 93.3269, -67.916, 38.298
2.847, 5, 34.4827, 51.573, -11.5801, 93.3132, -67.9688, 38.2802
2.852, 5, 34.4765, 51.5815, -11.569, 93.2995, -68.0217, 38.2623
2.856, 5, 34.4703, 51.59, -11.5578, 93.2857, -68.0745, 38.2445
2.86, 5, 34.4641, 51.5985, -11.5466, 93.2719, -68.1274, 38.2267
2.864, 5, 34.4579, 51.6069, -11.5354, 93.2581, -68.1802, 38.2088
2.867, 5, 34.4516, 51.6154, -11.5241, 93.2443, -68.233, 38.191
2.872, 5, 34.4454, 51.6238, -11.5128, 93.2304, -68.2858, 38.1732
2.876, 5, 34.4391, 51.6321, -11.5015, 93.2165, -68.3386, 38.1554
2.88, 5, 34.4329, 51.6405, -11.4901, 93.2026, -68.3914, 38.1377
2.883, 5, 34.4266, 51.6488, -11.4787, 93.1887, -68.4442, 38.1199
2.888, 5, 34.4203, 51.6571, -11.4672, 93.1747, -68.497, 38.1021
2.892, 5, 34.414, 51.6654, -11.4558, 93.1607, -68.5498, 38.0844
2.896, 5, 34.4077, 51.6736, -11.4442, 93.1467, -68.6025, 38.0666
2.9, 5, 34.4013, 51.6818, -11.4327, 93.1326, -68.6553, 38.0489
2.903, 5, 34.395, 51.69, -11.4211, 93.1186, -68.708, 38.0312
2.908, 5, 34.3887, 51.6982, -11.4094, 93.1045, -68.7607, 38.0135
2.912, 5, 34.3823, 51.7064, -11.3977, 93.0903, -68.8134, 37.9958
2.916, 5, 34.3759, 51.7145, -11.386, 93.0762, -68.8661, 37.9781
2.92, 5, 34.3695, 51.7226, -11.3743, 93.062, -68.9188, 37.9604
2.923, 5, 34.3631, 51.7307, -11.3625, 93.0478, -68.9715, 37.9427
2.928, 5, 34.3567, 51.7387, -11.3507, 93.0335, -69.0242, 37.9251
2.932, 5, 34.3503, 51.7468, -11.3388, 93.0193, -69.0769, 37.9074
2.936, 5, 34.3439, 51.7548, -11.3269, 93.005, -69.1295, 37.8898
2.939, 5, 34.3375, 51.7627, -11.315, 92.9907, -69.1822, 37.8721
2.944, 5, 34.331, 51.7707, -11.303, 92.9763, -69.2348, 37.8545
2.948, 5, 34.3246, 51.7786, -11.291, 92.962, -69.2875, 37.8369
2.952, 5, 34.3181, 51.7865, -11.279, 92.9476, -69.3401, 37.8193
2.956, 5, 34.3116, 51.7944, -11.2669, 92.9331, -69.3927, 37.8017
2.959, 5, 34.3051, 51.8023, -11.2548, 92.9187, -69.4453, 37.7841
2.964, 5, 34.2986, 51.8101, -11.2426, 92.9042, -69.4979, 37.7665
2.968, 5, 34.2921, 51.8179, -11.2304, 92.8897, -69.5505, 37.7489
2.972, 5, 34.2856, 51.8257, -11.2182, 92.8752, -69.6031, 37.7314
2.976, 5, 34.279, 51.8334, -11.2059, 92.8606, -69.6556, 37.7138
2.98, 5, 34.2725, 51.8412, -11.1936, 92.8461, -69.7082, 37.6963
2.984, 5, 34.2659, 51.8489, -11.1813, 92.8315, -69.7608, 37.6787
2.988, 5, 34.2593, 51.8566, -11.1689, 92.8168, -69.8133, 37.6612
2.992, 5, 34.2528, 51.8642, -11.1565, 92.8022, -69.8658, 37.6437
2.995, 5, 34.2462, 51.8719, -11.144, 92.7875, -69.9184, 37.6261
3, 5, 34.2396, 51.8795, -11.1315, 92.7728, -69.9709, 37.6086
3.004, 5, 34.2329, 51.8871, -11.119, 92.758, -70.0234, 37.5911
3.008, 5, 34.2263, 51.8946, -11.1064, 92.7433, -70.0759, 37.5736
3.012, 5, 34.2197, 51.9022, -11.0939, 92.7285, -70.1283, 37.5562
3.015, 5, 34.213, 51.9097, -11.0812, 92.7137, -70.1808, 37.5387
3.02, 5, 34.2064, 51.9171, -11.0685, 92.6989, -70.2333, 37.5212
3.024, 5, 34.1997, 51.9246, -11.0558, 92.684, -70.2858, 37.5037
3.028, 5, 34.193, 51.932, -11.0431, 92.6691, -70.3382, 37.4863
3.031, 5, 34.1863, 51.9395, -11.0303, 92.6542, -70.3906, 37.4688
3.036, 5, 34.1796, 51.9468, -11.0175, 92.6393, -70.4431, 37.4514
3.04, 5, 34.1729, 51.9542, -11.0046, 92.6243, -70.4955, 37.434
3.044, 5, 34.1662, 51.9615, -10.9917, 92.6093, -70.5479, 37.4165
3.048, 5, 34.1594, 51.9689, -10.9788, 92.5943, -70.6003, 37.3991
3.051, 5, 34.1527, 51.9761, -10.9659, 92.5793, -70.6527, 37.3817
3.056, 5, 34.1459, 51.9834, -10.9528, 92.5642, -70.7051, 37.3643
3.06, 5, 34.1392, 51.9906, -10.9398, 92.5491, -70.7575, 37.3469
3.064, 5, 34.1324, 51.9979, -10.9267, 92.534, -70.8099, 37.3295
3.068, 5, 34.1256, 52.005, -10.9136, 92.5189, -70.8622, 37.3121
3.071, 5, 34.1188, 52.0122, -10.9005, 92.5037, -70.9146, 37.2948
3.076, 5, 34.112, 52.0193, -10.8873, 92.4885, -70.9669, 37.2774
3.08, 5, 34.1051, 52.0264, -10.8741, 92.4733, -71.0192, 37.26
3.084, 5, 34.0983, 52.0335, -10.8608, 92.4581, -71.0716, 37.2427
3.087, 5, 34.0915, 52.0406, -10.8475, 92.4428, -71.1239, 37.2253
3.092, 5, 34.0846, 52.0476, -10.8342, 92.4275, -71.1762, 37.208
3.096, 5, 34.0777, 52.0546, -10.8208, 92.4122, -71.2285, 37.1906
3.1, 5, 34.0709, 52.0616, -10.8074, 92.3969, -71.2808, 37.1733
3.104, 5, 34.064, 52.0686, -10.794, 92.3815, -71.333, 37.156
3.107, 5, 34.0571, 52.0755, -10.7805, 92.3661, -71.3853, 37.1387
3.112, 5, 34.0501, 52.0824, -10.767, 92.3507, -71.4376, 37.1214
3.116, 5, 34.0432, 52.0893, -10.7534, 92.3353, -71.4898, 37.104
3.12, 5, 34.0363, 52.0962, -10.7398, 92.3198, -71.5421, 37.0868
3.124, 5, 34.0293, 52.103, -10.7262, 92.3043, -71.5943, 37.0695
3.128, 5, 34.0224, 52.1098, -10.7125, 92.2888, -71.6465, 37.0522
3.132, 5, 34.0154, 52.1166, -10.6988, 92.2733, -71.6987, 37.0349
3.136, 5, 34.0084, 52.1234, -10.6851, 92.2577, -71.751, 37.0176
3.14, 5, 34.0014, 52.1301, -10.6713, 92.2421, -71.8031, 37.0003
3.143, 5, 33.9944, 52.1368, -10.6575, 92.2265, -71.8553, 36.9831
3.148, 5, 33.9874, 52.1435, -10.6437, 92.2109, -71.9075, 36.9658
3.152, 5, 33.9804, 52.1501, -10.6298, 92.1953, -71.9597, 36.9486
3.156, 5, 33.9734, 52.1568, -10.6159, 92.1796, -72.0119, 36.9313
3.16, 5, 33.9663, 52.1634, -10.6019, 92.1639, -72.064, 36.9141
3.163, 5, 33.9593, 52.17, -10.5879, 92.1482, -72.1161, 36.8968
3.168, 5, 33.9522, 52.1765, -10.5739, 92.1324, -72.1683, 36.8796
3.172, 5, 33.9451, 52.183, -10.5598, 92.1166, -72.2204, 36.8624
3.176, 5, 33.938, 52.1895, -10.5457, 92.1008, -72.2725, 36.8451
3.179, 5, 33.9309, 52.196, -10.5316, 92.085, -72.3246, 36.8279
3.184, 5, 33.9238, 52.2025, -10.5174, 92.0692, -72.3767, 36.8107
3.188, 5, 33.9167, 52.2089, -10.5032, 92.0533, -72.4288, 36.7935
3.192, 5, 33.9096, 52.2153, -10.4889, 92.0374, -72.4809, 36.7763
3.196, 5, 33.9024, 52.2217, -10.4747, 92.0215, -72.533, 36.7591
3.199, 5, 33.8953, 52.228, -10.4603, 92.0055, -72.5851, 36.7419
3.204, 5, 33.8881, 52.2343, -10.446, 91.9896, -72.6371, 36.7247
3.208, 5, 33.8809, 52.2406, -10.4316, 91.9736, -72.6892, 36.7075
3.212, 5, 33.8737, 52.2469, -10.4171, 91.9576, -72.7412, 36.6904
3.216, 5, 33.8665, 52.2532, -10.4027, 91.9416, -72.7932, 36.6732
3.22, 5, 33.8593, 52.2594, -10.3882, 91.9255, -72.8453, 36.656
3.224, 5, 33.8521, 52.2656, -10.3736, 91.9094, -72.8973, 36.6388
3.228, 5, 33.8449, 52.2718, -10.359, 91.8933, -72.9493, 36.6217
3.232, 5, 33.8376, 52.2779, -10.3444, 91.8772, -73.0013, 36.6045
3.235, 5, 33.8304, 52.284, -10.3298, 91.861, -73.0533, 36.5874
3.24, 5, 33.8231, 52.2901, -10.3151, 91.8448, -73.1052, 36.5702
3.244, 5, 33.8158, 52.2962, -10.3004, 91.8286, -73.1572, 36.5531
3.248, 5, 33.8085, 52.3022, -10.2856, 91.8124, -73.2092, 36.5359
3.252, 5, 33.8012, 52.3082, -10.2708, 91.7962, -73.2611, 36.5188
3.255, 5, 33.7939, 52.3142, -10.256, 91.7799, -73.313, 36.5017
3.26, 5, 33.7866, 52.3202, -10.2411, 91.7636, -73.365, 36.4845
3.264, 5, 33.7793, 52.3261, -10.2262, 91.7473, -73.4169, 36.4674
3.268, 5, 33.7719, 52.332, -10.2112, 91.731, -73.4688, 36.4503
3.272, 5, 33.7646, 52.3379, -10.1963, 91.7146, -73.5207, 36.4332
3.276, 5, 33.7572, 52.3438, -10.1812, 91.6982, -73.5726, 36.416
3.28, 5, 33.7499, 52.3496, -10.1662, 91.6818, -73.6245, 36.3989
3.284, 5, 33.7425, 52.3554, -10.1511, 91.6654, -73.6764, 36.3818
3.288, 5, 33.7351, 52.3612, -10.136, 91.6489, -73.7283, 36.3647
3.291, 5, 33.7277, 52.3669, -10.1208, 91.6325, -73.7801, 36.3476
3.296, 5, 33.7203, 52.3727, -10.1056, 91.616, -73.832, 36.3305
3.3, 5, 33.7128, 52.3784, -10.0904, 91.5995, -73.8839, 36.3134
3.304, 5, 33.7054, 52.384, -10.0751, 91.5829, -73.9357, 36.2963
3.308, 5, 33.6979, 52.3897, -10.0598, 91.5664, -73.9875, 36.2792
3.312, 5, 33.6905, 52.3953, -10.0444, 91.5498, -74.0393, 36.2621
3.316, 5, 33.683, 52.4009, -10.0291, 91.5332, -74.0911, 36.245
3.32, 5, 33.6755, 52.4065, -10.0136, 91.5165, -74.143, 36.228
3.324, 5, 33.668, 52.412, -9.99817, 91.4999, -74.1947, 36.2109
3.328, 5, 33.6605, 52.4175, -9.98268, 91.4832, -74.2465, 36.1938
3.332, 5, 33.653, 52.423, -9.96715, 91.4665, -74.2983, 36.1767
3.336, 5, 33.6455, 52.4285, -9.95158, 91.4498, -74.3501, 36.1597
3.34, 5, 33.638, 52.4339, -9.93597, 91.433, -74.4018, 36.1426
3.344, 5, 33.6304, 52.4393, -9.92033, 91.4163, -74.4536, 36.1255
3.347, 5, 33.6228, 52.4447, -9.90465, 91.3995, -74.5053, 36.1084
3.352, 5, 33.6153, 52.4501, -9.88894, 91.3827, -74.5571, 36.0914
3.356, 5, 33.6077, 52.4554, -9.87319, 91.3658, -74.6088, 36.0743
3.36, 5, 33.6001, 52.4607, -9.8574, 91.349, -74.6605, 36.0573
3.364, 5, 33.5925, 52.466, -9.84157, 91.3321, -74.7122, 36.0402
3.368, 5, 33.5849, 52.4712, -9.82571, 91.3152, -74.7639, 36.0231
3.372, 5, 33.5773, 52.4765, -9.80981, 91.2983, -74.8156, 36.0061
3.376, 5, 33.5696, 52.4817, -9.79388, 91.2813, -74.8673, 35.989
3.38, 5, 33.562, 52.4868, -9.77791, 91.2644, -74.919, 35.972
3.383, 5, 33.5543, 52.492, -9.7619, 91.2474, -74.9706, 35.9549
3.388, 5, 33.5467, 52.4971, -9.74586, 91.2304, -75.0223, 35.9379
3.392, 5, 33.539, 52.5022, -9.72977, 91.2133, -75.074, 35.9208
3.396, 5, 33.5313, 52.5073, -9.71366, 91.1963, -75.1256, 35.9038
3.4, 5, 33.5236, 52.5123, -9.6975, 91.1792, -75.1772, 35.8868
3.403, 5, 33.5159, 52.5173, -9.68131, 91.1621, -75.2289, 35.8697
3.408, 5, 33.5082, 52.5223, -9.66509, 91.145, -75.2805, 35.8527
3.412, 5, 33.5004, 52.5273, -9.64882, 91.1278, -75.3321, 35.8356
3.416, 5, 33.4927, 52.5322, -9.63253, 91.1106, -75.3837, 35.8186
3.42, 5, 33.4849, 52.5371, -9.61619, 91.0935, -75.4353, 35.8016
3.424, 5, 33.4772, 52.542, -9.59982, 91.0762, -75.4869, 35.7845
3.428, 5, 33.4694, 52.5468, -9.58341, 91.059, -75.5384, 35.7675
3.432, 5, 33.4616, 52.5516, -9.56697, 91.0418, -75.59, 35.7505
3.436, 5, 33.4538, 52.5564, -9.55049, 91.0245, -75.6416, 35.7334
3.439, 5, 33.446, 52.5612, -9.53397, 91.0072, -75.6931, 35.7164
3.444, 5, 33.4382, 52.566, -9.51742, 90.9899, -75.7447, 35.6994
3.448, 5, 33.4304, 52.5707, -9.50083, 90.9725, -75.7962, 35.6823
3.452, 5, 33.4225, 52.5754, -9.48421, 90.9552, -75.8477, 35.6653
3.456, 5, 33.4147, 52.58, -9.46755, 90.9378, -75.8993, 35.6483
3.46, 5, 33.4068, 52.5847, -9.45086, 90.9204, -75.9508, 35.6312
3.464, 5, 33.399, 52.5893, -9.43412, 90.9029, -76.0023, 35.6142
3.468, 5, 33.3911, 52.5939, -9.41736, 90.8855, -76.0538, 35.5972
3.472, 5, 33.3832, 52.5984, -9.40055, 90.868, -76.1053, 35.5802
3.476, 5, 33.3753, 52.603, -9.38372, 90.8505, -76.1567, 35.5631
3.48, 5, 33.3674, 52.6075, -9.36684, 90.833, -76.2082, 35.5461
3.484, 5, 33.3594, 52.612, -9.34993, 90.8155, -76.2597, 35.5291
3.488, 5, 33.3515, 52.6164, -9.33299, 90.7979, -76.3111, 35.5121
3.492, 5, 33.3436, 52.6209, -9.316, 90.7803, -76.3626, 35.495
3.495, 5, 33.3356, 52.6253, -9.29899, 90.7627, -76.414, 35.478
3.5, 5, 33.3276, 52.6296, -9.28194, 90.7451, -76.4655, 35.461
3.504, 5, 33.3197, 52.634, -9.26485, 90.7274, -76.5169, 35.4439
3.508, 5, 33.3117, 52.6383, -9.24772, 90.7098, -76.5683, 35.4269
3.512, 5, 33.3037, 52.6426, -9.23057, 90.6921, -76.6197, 35.4099
3.516, 5, 33.2957, 52.6469, -9.21337, 90.6744, -76.6711, 35.3929
3.52, 5, 33.2876, 52.6511, -9.19614, 90.6566, -76.7225, 35.3758
3.524, 5, 33.2796, 52.6553, -9.17888, 90.6389, -76.7739, 35.3588
3.528, 5, 33.2716, 52.6595, -9.16158, 90.6211, -76.8253, 35.3418
3.531, 5, 33.2635, 52.6637, -9.14424, 90.6033, -76.8766, 35.3248
3.536, 5, 33.2555, 52.6678, -9.12687, 90.5855, -76.928, 35.3077
3.54, 5, 33.2474, 52.6719, -9.10946, 90.5677, -76.9794, 35.2907
3.544, 5, 33.2393, 52.676, -9.09202, 90.5498, -77.0307, 35.2737
3.548, 5, 33.2312, 52.68, -9.07455, 90.5319, -77.082, 35.2566
3.552, 5, 33.2231, 52.6841, -9.05704, 90.514, -77.1334, 35.2396
3.556, 5, 33.215, 52.6881, -9.03949, 90.4961, -77.1847, 35.2226
3.56, 5, 33.2069, 52.6921, -9.02191, 90.4782, -77.236, 35.2055
3.564, 5, 33.1987, 52.696, -9.00429, 90.4602, -77.2873, 35.1885
3.568, 5, 33.1906, 52.6999, -8.98664, 90.4422, -77.3386, 35.1715
3.572, 5, 33.1824, 52.7038, -8.96895, 90.4242, -77.3899, 35.1544
3.576, 5, 33.1743, 52.7077, -8.95123, 90.4062, -77.4412, 35.1374
3.58, 5, 33.1661, 52.7115, -8.93347, 90.3881, -77.4925, 35.1203
3.584, 5, 33.1579, 52.7153, -8.91568, 90.3701, -77.5437, 35.1033
3.587, 5, 33.1497, 52.7191, -8.89786, 90.352, -77.595, 35.0863
3.592, 5, 33.1415, 52.7229, -8.87999, 90.3339, -77.6463, 35.0692
3.596, 5, 33.1333, 52.7266, -8.8621, 90.3157, -77.6975, 35.0522
3.6, 5, 33.125, 52.7303, -8.84417, 90.2976, -77.7487, 35.0351
3.604, 5, 33.1168, 52.734, -8.8262, 90.2794, -77.8, 35.0181
3.608, 5, 33.1086, 52.7377, -8.8082, 90.2612, -77.8512, 35.001
3.612, 5, 33.1003, 52.7413, -8.79017, 90.243, -77.9024, 34.984
3.616, 5, 33.092, 52.7449, -8.7721, 90.2248, -77.9536, 34.9669
3.62, 5, 33.0838, 52.7485, -8.75399, 90.2065, -78.0048, 34.9499
3.624, 5, 33.0755, 52.752, -8.73586, 90.1882, -78.056, 34.9328
3.628, 5, 33.0674, 52.7555, -8.71769, 90.17, -78.1072, 34.9157
3.632, 5, 33.0595, 52.7588, -8.6995, 90.1517, -78.1583, 34.8987
3.636, 5, 33.052, 52.7619, -8.68132, 90.1334, -78.2094, 34.8817
3.64, 5, 33.0451, 52.7647, -8.66318, 90.1151, -78.2602, 34.8647
3.644, 5, 33.0387, 52.767, -8.64515, 90.097, -78.3106, 34.8479
3.648, 5, 33.033, 52.7689, -8.62734, 90.0791, -78.3604, 34.8312
3.652, 5, 33.0277, 52.7703, -8.60987, 90.0615, -78.4092, 34.815
3.656, 5, 33.0229, 52.7714, -8.5929, 90.0444, -78.4565, 34.7991
3.66, 5, 33.0182, 52.7723, -8.57659, 90.0281, -78.5019, 34.784
3.664, 5, 33.0135, 52.7731, -8.56112, 90.0125, -78.5449, 34.7696
3.668, 5, 33.009, 52.774, -8.54665, 89.998, -78.5851, 34.7561
3.672, 5, 33.0045, 52.775, -8.53332, 89.9846, -78.6221, 34.7438
3.676, 5, 33.0001, 52.7763, -8.52123, 89.9725, -78.6555, 34.7326
3.679, 5, 32.9958, 52.7777, -8.51047, 89.9617, -78.6853, 34.7226
3.684, 5, 32.9916, 52.7794, -8.50107, 89.9523, -78.7113, 34.714
