hehonglu123/ABB_Primitive_Study/execution/movel_30_car/curve_exe_v50_z20.csv
timestamp, cmd_num, J1, J2, J3, J4, J5, J6
0, -1, -17.7491, 35.9016, 27.5363, -15.3564, -94.4966, 7.85923
0.002, -1, -17.7491, 35.9016, 27.5363, -15.3564, -94.4966, 7.85923
0.006, -1, -17.7491, 35.9016, 27.5363, -15.3564, -94.4966, 7.85923
0.008, -1, -17.7491, 35.9016, 27.5363, -15.3564, -94.4966, 7.85923
0.011, -1, -17.7491, 35.9016, 27.5363, -15.3564, -94.4966, 7.85923
0.016, -1, -17.7491, 35.9016, 27.5363, -15.3564, -94.4966, 7.85923
0.02, -1, -17.7491, 35.9016, 27.5363, -15.3564, -94.4966, 7.85923
0.024, -1, -17.7491, 35.9016, 27.5363, -15.3564, -94.4966, 7.85923
0.028, -1, -17.7491, 35.9016, 27.5363, -15.3564, -94.4966, 7.85923
0.032, -1, -17.7491, 35.9016, 27.5363, -15.3564, -94.4966, 7.85923
0.036, -1, -17.749, 35.9016, 27.5363, -15.3564, -94.4966, 7.85923
0.04, -1, -17.7488, 35.9015, 27.5363, -15.3564, -94.4966, 7.85922
0.044, -1, -17.7482, 35.9013, 27.5363, -15.3564, -94.4966, 7.85921
0.048, -1, -17.7471, 35.9008, 27.5364, -15.3563, -94.4965, 7.85915
0.052, -1, -17.7453, 35.9, 27.5365, -15.3562, -94.4963, 7.85903
0.056, -1, -17.7428, 35.8988, 27.5367, -15.3558, -94.4958, 7.85875
0.06, -1, -17.7394, 35.8971, 27.5369, -15.3551, -94.4949, 7.85824
0.064, -1, -17.7351, 35.8948, 27.5372, -15.3539, -94.4934, 7.85735
0.068, -1, -17.7298, 35.892, 27.5374, -15.3519, -94.491, 7.85592
0.072, -1, -17.7233, 35.8884, 27.5377, -15.3489, -94.4872, 7.85373
0.076, -1, -17.7153, 35.884, 27.5379, -15.3445, -94.4817, 7.85055
0.08, -1, -17.7057, 35.8785, 27.5381, -15.3382, -94.474, 7.84608
0.084, -1, -17.6941, 35.8719, 27.5381, -15.3297, -94.4634, 7.83999
0.088, -1, -17.6802, 35.864, 27.538, -15.3184, -94.4494, 7.83193
0.092, -1, -17.6638, 35.8547, 27.5377, -15.3037, -94.4314, 7.82151
0.096, -1, -17.6449, 35.8439, 27.537, -15.2851, -94.4084, 7.80831
0.1, -1, -17.6232, 35.8316, 27.5359, -15.262, -94.3799, 7.79193
0.104, -1, -17.5984, 35.8175, 27.5344, -15.2337, -94.3452, 7.77197
0.108, -1, -17.5704, 35.8016, 27.5323, -15.1999, -94.3035, 7.74804
0.112, -1, -17.5389, 35.7838, 27.5296, -15.1599, -94.2544, 7.71981
0.116, -1, -17.504, 35.764, 27.5263, -15.1134, -94.1971, 7.68696
0.12, -1, -17.4656, 35.7423, 27.5223, -15.0599, -94.1314, 7.64925
0.124, -1, -17.4237, 35.7187, 27.5174, -14.9992, -94.0569, 7.60649
0.128, -1, -17.3785, 35.6931, 27.5118, -14.9313, -93.9734, 7.5586
0.131, -1, -17.3299, 35.6657, 27.5054, -14.856, -93.8809, 7.50556
0.136, -1, -17.2779, 35.6365, 27.4982, -14.7734, -93.7795, 7.44747
0.139, -1, -17.2225, 35.6054, 27.4903, -14.684, -93.6697, 7.38449
0.144, -1, -17.1638, 35.5724, 27.4817, -14.588, -93.5517, 7.3169
0.148, -1, -17.1017, 35.5375, 27.4724, -14.4858, -93.4263, 7.245
0.152, -1, -17.0365, 35.5009, 27.4626, -14.378, -93.2939, 7.16916
0.156, -1, -16.9683, 35.4626, 27.4524, -14.2653, -93.1554, 7.08978
0.16, -1, -16.8974, 35.4228, 27.4417, -14.1481, -93.0115, 7.0073
0.164, -1, -16.8239, 35.3815, 27.4308, -14.027, -92.8629, 6.92213
0.168, -1, -16.7481, 35.3389, 27.4196, -13.9028, -92.7103, 6.8347
0.172, -1, -16.6699, 35.2949, 27.4082, -13.776, -92.5546, 6.74543
0.176, -1, -16.5897, 35.2497, 27.3968, -13.6471, -92.3962, 6.65467
0.18, -1, -16.5077, 35.2034, 27.3854, -13.5166, -92.2358, 6.56273
0.184, -1, -16.424, 35.1561, 27.3739, -13.3847, -92.0739, 6.46989
0.188, -1, -16.3388, 35.1081, 27.3625, -13.2519, -91.9107, 6.37635
0.192, -1, -16.2526, 35.0593, 27.3511, -13.1184, -91.7466, 6.28227
0.196, -1, -16.1654, 35.0101, 27.3397, -12.9842, -91.5818, 6.18779
0.2, -1, -16.0774, 34.9604, 27.3284, -12.8497, -91.4165, 6.09298
0.204, -1, -15.9889, 34.9105, 27.317, -12.7147, -91.2507, 5.99793
0.208, -1, -15.8998, 34.8603, 27.3056, -12.5795, -91.0846, 5.90267
0.212, -1, -15.8104, 34.8099, 27.2943, -12.4441, -90.9181, 5.80723
0.216, -1, -15.7206, 34.7594, 27.2829, -12.3084, -90.7514, 5.71165
0.22, -1, -15.6306, 34.7087, 27.2715, -12.1726, -90.5845, 5.61595
0.224, -1, -15.5405, 34.658, 27.2601, -12.0366, -90.4174, 5.52012
0.228, -1, -15.4502, 34.6071, 27.2487, -11.9004, -90.2501, 5.42418
0.232, -1, -15.3598, 34.5563, 27.2373, -11.7641, -90.0826, 5.32814
0.236, -1, -15.2692, 34.5053, 27.2259, -11.6277, -89.9149, 5.23201
0.24, -1, -15.1786, 34.4543, 27.2145, -11.4911, -89.7471, 5.13578
0.244, -1, -15.0879, 34.4033, 27.2031, -11.3544, -89.5792, 5.03946
0.248, -1, -14.997, 34.3521, 27.1916, -11.2176, -89.411, 4.94306
0.252, -1, -14.9061, 34.301, 27.1802, -11.0806, -89.2428, 4.84657
0.256, -1, -14.8152, 34.2498, 27.1687, -10.9436, -89.0744, 4.75
0.26, -1, -14.7241, 34.1986, 27.1573, -10.8064, -88.9058, 4.65336
0.264, -1, -14.633, 34.1473, 27.1458, -10.6691, -88.7371, 4.55664
0.268, -1, -14.5418, 34.096, 27.1343, -10.5318, -88.5683, 4.45985
0.272, -1, -14.4505, 34.0446, 27.1228, -10.3943, -88.3994, 4.36298
0.276, -1, -14.3592, 33.9932, 27.1113, -10.2567, -88.2304, 4.26605
0.28, -1, -14.2678, 33.9418, 27.0998, -10.119, -88.0612, 4.16905
0.284, -1, -14.1763, 33.8904, 27.0883, -9.98128, -87.8919, 4.07199
0.288, -1, -14.0848, 33.8389, 27.0768, -9.84344, -87.7226, 3.97487
0.292, -1, -13.9933, 33.7873, 27.0652, -9.70552, -87.5531, 3.8777
0.296, -1, -13.9017, 33.7358, 27.0537, -9.56751, -87.3835, 3.78046
0.3, -1, -13.81, 33.6842, 27.0422, -9.42944, -87.2139, 3.68317
0.304, -1, -13.7183, 33.6326, 27.0306, -9.29129, -87.0441, 3.58584
0.308, -1, -13.6265, 33.581, 27.0191, -9.15307, -86.8743, 3.48845
0.312, -1, -13.5347, 33.5293, 27.0075, -9.01478, -86.7043, 3.39102
0.316, -1, -13.4429, 33.4776, 26.9959, -8.87644, -86.5343, 3.29354
0.32, -1, -13.351, 33.4259, 26.9844, -8.73803, -86.3643, 3.19602
0.324, -1, -13.2591, 33.3742, 26.9728, -8.59957, -86.1941, 3.09847
0.328, -1, -13.1672, 33.3225, 26.9612, -8.46107, -86.0239, 3.00088
0.332, -1, -13.0752, 33.2707, 26.9496, -8.32251, -85.8537, 2.90325
0.336, -1, -12.9832, 33.219, 26.938, -8.18391, -85.6834, 2.8056
0.34, -1, -12.8912, 33.1672, 26.9264, -8.04527, -85.513, 2.70792
0.344, -1, -12.7991, 33.1154, 26.9148, -7.9066, -85.3426, 2.61021
0.348, -1, -12.7071, 33.0636, 26.9032, -7.7679, -85.1722, 2.51248
0.352, -1, -12.615, 33.0118, 26.8916, -7.62917, -85.0017, 2.41474
0.356, -1, -12.5229, 32.9599, 26.88, -7.49042, -84.8312, 2.31698
0.36, -1, -12.4308, 32.9081, 26.8684, -7.35165, -84.6607, 2.2192
0.364, -1, -12.3387, 32.8563, 26.8568, -7.21286, -84.4902, 2.12142
0.368, -1, -12.2466, 32.8044, 26.8452, -7.07407, -84.3197, 2.02362
0.372, -1, -12.1545, 32.7526, 26.8336, -6.93527, -84.1491, 1.92583
0.376, -1, -12.0623, 32.7007, 26.822, -6.79647, -83.9786, 1.82803
0.38, -1, -11.9702, 32.6489, 26.8104, -6.65767, -83.808, 1.73024
0.384, -1, -11.8781, 32.5971, 26.7988, -6.51889, -83.6375, 1.63245
0.388, -1, -11.786, 32.5452, 26.7872, -6.38011, -83.4669, 1.53467
0.392, -1, -11.6939, 32.4934, 26.7756, -6.24135, -83.2964, 1.4369
0.396, -1, -11.6018, 32.4416, 26.764, -6.10261, -83.126, 1.33915
0.4, -1, -11.5097, 32.3898, 26.7524, -5.96389, -82.9555, 1.24141
0.404, -1, -11.4177, 32.338, 26.7408, -5.8252, -82.7851, 1.14369
0.408, -1, -11.3256, 32.2862, 26.7292, -5.68655, -82.6147, 1.046
0.412, -1, -11.2336, 32.2344, 26.7176, -5.54793, -82.4444, 0.948334
0.416, -1, -11.1416, 32.1826, 26.706, -5.40936, -82.2741, 0.850697
0.42, -1, -11.0497, 32.1309, 26.6945, -5.27083, -82.1039, 0.753093
0.424, -1, -10.9577, 32.0792, 26.6829, -5.13235, -81.9337, 0.655523
0.428, -1, -10.8658, 32.0275, 26.6713, -4.99393, -81.7636, 0.557993
0.432, -1, -10.774, 31.9758, 26.6597, -4.85556, -81.5936, 0.460503
0.436, -1, -10.6822, 31.9241, 26.6482, -4.71726, -81.4237, 0.363058
0.44, -1, -10.5904, 31.8725, 26.6366, -4.57903, -81.2538, 0.26566
0.444, -1, -10.4986, 31.8209, 26.625, -4.44086, -81.0841, 0.168312
0.448, -1, -10.4069, 31.7693, 26.6135, -4.30277, -80.9144, 0.0710176
0.452, -1, -10.3153, 31.7178, 26.602, -4.16477, -80.7448, -0.0262211
0.456, -1, -10.2237, 31.6662, 26.5904, -4.02684, -80.5753, -0.123401
0.46, -1, -10.1322, 31.6148, 26.5789, -3.889, -80.406, -0.220519
0.464, -1, -10.0407, 31.5633, 26.5674, -3.75126, -80.2367, -0.317573
0.468, -1, -9.9493, 31.5119, 26.5559, -3.61361, -80.0676, -0.41456
0.472, -1, -9.85796, 31.4605, 26.5444, -3.47605, -79.8985, -0.511477
0.476, -1, -9.76668, 31.4092, 26.5329, -3.3386, -79.7296, -0.60832
0.48, -1, -9.67548, 31.3579, 26.5214, -3.20126, -79.5609, -0.705089
0.484, -1, -9.58434, 31.3066, 26.5099, -3.06403, -79.3923, -0.801779
0.488, -1, -9.49329, 31.2554, 26.4984, -2.92692, -79.2238, -0.898388
0.492, -1, -9.4023, 31.2042, 26.487, -2.78992, -79.0554, -0.994913
0.496, -1, -9.31141, 31.1531, 26.4755, -2.65305, -78.8872, -1.09135
0.5, -1, -9.22059, 31.102, 26.4641, -2.5163, -78.7192, -1.1877
0.504, -1, -9.12986, 31.051, 26.4527, -2.37968, -78.5513, -1.28396
0.508, -1, -9.03921, 31, 26.4413, -2.2432, -78.3836, -1.38013
0.512, -1, -8.94865, 30.9491, 26.4299, -2.10685, -78.2161, -1.47619
0.516, -1, -8.85819, 30.8982, 26.4185, -1.97064, -78.0487, -1.57216
0.52, -1, -8.76782, 30.8474, 26.4071, -1.83458, -77.8815, -1.66803
0.524, -1, -8.67755, 30.7966, 26.3957, -1.69867, -77.7145, -1.7638
0.528, -1, -8.58737, 30.7459, 26.3844, -1.5629, -77.5477, -1.85945
0.532, -1, -8.4973, 30.6952, 26.373, -1.42729, -77.3811, -1.955
0.536, -1, -8.40733, 30.6446, 26.3617, -1.29183, -77.2146, -2.05044
0.54, -1, -8.31746, 30.5941, 26.3504, -1.15654, -77.0484, -2.14577
0.544, -1, -8.22771, 30.5436, 26.3391, -1.02141, -76.8823, -2.24098
0.548, -1, -8.13806, 30.4932, 26.3278, -0.886442, -76.7165, -2.33608
0.552, -1, -8.04852, 30.4428, 26.3165, -0.751646, -76.5509, -2.43105
0.556, -1, -7.9591, 30.3925, 26.3053, -0.617022, -76.3854, -2.5259
0.56, -1, -7.86979, 30.3423, 26.294, -0.482572, -76.2202, -2.62064
0.564, -1, -7.7806, 30.2921, 26.2828, -0.348301, -76.0552, -2.71524
0.568, -1, -7.69153, 30.2421, 26.2716, -0.21421, -75.8905, -2.80972
0.572, -1, -7.60258, 30.192, 26.2604, -0.0803022, -75.7259, -2.90407
0.576, -1, -7.51375, 30.1421, 26.2492, 0.0534192, -75.5616, -2.99829
0.58, -1, -7.42505, 30.0922, 26.2381, 0.186952, -75.3975, -3.09237
0.584, -1, -7.33647, 30.0424, 26.2269, 0.320293, -75.2337, -3.18632
0.588, -1, -7.24802, 29.9926, 26.2158, 0.45344, -75.0701, -3.28014
0.592, -1, -7.1597, 29.943, 26.2047, 0.58639, -74.9067, -3.37381
0.596, -1, -7.07152, 29.8934, 26.1936, 0.719142, -74.7436, -3.46735
0.6, -1, -6.98346, 29.8438, 26.1825, 0.851691, -74.5807, -3.56074
0.604, -1, -6.89554, 29.7944, 26.1714, 0.984037, -74.4181, -3.65399
0.608, -1, -6.80776, 29.745, 26.1604, 1.11618, -74.2557, -3.74709
0.612, -1, -6.72011, 29.6957, 26.1493, 1.24811, -74.0936, -3.84005
0.616, -1, -6.63261, 29.6465, 26.1383, 1.37983, -73.9318, -3.93285
0.62, -1, -6.54524, 29.5974, 26.1273, 1.51133, -73.7702, -4.02551
0.624, -1, -6.45802, 29.5484, 26.1163, 1.64262, -73.6089, -4.11802
0.628, -1, -6.37094, 29.4994, 26.1054, 1.7737, -73.4478, -4.21037
0.632, -1, -6.28401, 29.4505, 26.0944, 1.90455, -73.287, -4.30257
0.636, -1, -6.19722, 29.4017, 26.0835, 2.03518, -73.1265, -4.39461
0.64, -1, -6.11058, 29.353, 26.0726, 2.16559, -72.9663, -4.48649
0.644, -1, -6.02409, 29.3043, 26.0617, 2.29577, -72.8063, -4.57822
0.648, -1, -5.93775, 29.2558, 26.0509, 2.42572, -72.6466, -4.66978
0.652, -1, -5.85156, 29.2073, 26.04, 2.55545, -72.4872, -4.76118
0.656, -1, -5.76553, 29.1589, 26.0292, 2.68494, -72.3281, -4.85242
0.66, -1, -5.67965, 29.1106, 26.0184, 2.8142, -72.1693, -4.94349
0.664, -1, -5.59392, 29.0624, 26.0076, 2.94322, -72.0107, -5.0344
0.668, -1, -5.50836, 29.0143, 25.9968, 3.07201, -71.8525, -5.12514
0.672, -1, -5.42294, 28.9663, 25.9861, 3.20056, -71.6945, -5.21572
0.676, -1, -5.33769, 28.9183, 25.9753, 3.32887, -71.5368, -5.30612
0.68, -1, -5.2526, 28.8705, 25.9646, 3.45693, -71.3795, -5.39636
0.684, -1, -5.16767, 28.8227, 25.954, 3.58476, -71.2224, -5.48642
0.688, -1, -5.0829, 28.7751, 25.9433, 3.71233, -71.0657, -5.57631
0.692, -1, -4.9983, 28.7275, 25.9326, 3.83967, -70.9092, -5.66602
0.696, -1, -4.91386, 28.68, 25.922, 3.96675, -70.753, -5.75557
0.7, -1, -4.82958, 28.6326, 25.9114, 4.09359, -70.5972, -5.84493
0.704, -1, -4.74547, 28.5853, 25.9008, 4.22017, -70.4416, -5.93412
0.708, -1, -4.66153, 28.5381, 25.8903, 4.3465, -70.2864, -6.02313
0.712, -1, -4.57775, 28.491, 25.8797, 4.47258, -70.1315, -6.11197
0.716, -1, -4.49414, 28.444, 25.8692, 4.59841, -69.9769, -6.20062
0.72, -1, -4.4107, 28.3971, 25.8587, 4.72398, -69.8226, -6.2891
0.724, -1, -4.32743, 28.3502, 25.8482, 4.84929, -69.6686, -6.37739
0.728, -1, -4.24433, 28.3035, 25.8378, 4.97435, -69.5149, -6.4655
0.732, -1, -4.1614, 28.2569, 25.8273, 5.09914, -69.3616, -6.55343
0.736, -1, -4.07864, 28.2104, 25.8169, 5.22368, -69.2086, -6.64118
0.74, -1, -3.99605, 28.1639, 25.8065, 5.34796, -69.0559, -6.72874
0.744, -1, -3.91363, 28.1176, 25.7962, 5.47197, -68.9035, -6.81612
0.748, -1, -3.83139, 28.0713, 25.7858, 5.59573, -68.7514, -6.90332
0.752, -1, -3.74932, 28.0252, 25.7755, 5.71922, -68.5997, -6.99033
0.756, -1, -3.66742, 27.9791, 25.7652, 5.84245, -68.4482, -7.07716
0.76, -1, -3.58569, 27.9332, 25.7549, 5.96542, -68.2971, -7.1638
0.764, -1, -3.50414, 27.8873, 25.7447, 6.08812, -68.1464, -7.25026
0.768, -1, -3.42277, 27.8416, 25.7344, 6.21056, -67.9959, -7.33653
0.772, -1, -3.34156, 27.7959, 25.7242, 6.33274, -67.8458, -7.42261
0.776, -1, -3.26053, 27.7503, 25.714, 6.45465, -67.696, -7.50851
0.78, -1, -3.17968, 27.7049, 25.7038, 6.57631, -67.5465, -7.59423
0.784, -1, -3.099, 27.6595, 25.6937, 6.69769, -67.3973, -7.67975
0.788, -1, -3.0185, 27.6143, 25.6836, 6.81882, -67.2485, -7.7651
0.792, -1, -2.93816, 27.5691, 25.6735, 6.93968, -67.1, -7.85026
0.796, -1, -2.85801, 27.524, 25.6634, 7.06028, -66.9518, -7.93523
0.8, -1, -2.77803, 27.479, 25.6533, 7.18061, -66.8039, -8.02001
0.804, -1, -2.69822, 27.4342, 25.6433, 7.30068, -66.6564, -8.10461
0.808, -1, -2.61859, 27.3894, 25.6333, 7.42049, -66.5092, -8.18903
0.812, -1, -2.53913, 27.3447, 25.6233, 7.54004, -66.3623, -8.27326
0.816, -1, -2.45984, 27.3001, 25.6133, 7.65932, -66.2157, -8.35731
0.82, -1, -2.38073, 27.2557, 25.6034, 7.77834, -66.0695, -8.44117
0.824, -1, -2.3018, 27.2113, 25.5934, 7.8971, -65.9235, -8.52484
0.828, -1, -2.22303, 27.167, 25.5835, 8.0156, -65.7779, -8.60833
0.832, -1, -2.14444, 27.1228, 25.5736, 8.13383, -65.6327, -8.69164
0.836, -1, -2.06603, 27.0787, 25.5638, 8.25181, -65.4877, -8.77477
0.84, -1, -1.98779, 27.0347, 25.5539, 8.36952, -65.343, -8.8577
0.844, -1, -1.90972, 26.9908, 25.5441, 8.48697, -65.1987, -8.94046
0.848, -1, -1.83182, 26.947, 25.5343, 8.60416, -65.0547, -9.02303
0.852, -1, -1.7541, 26.9033, 25.5246, 8.7211, -64.911, -9.10542
0.856, -1, -1.67655, 26.8597, 25.5148, 8.83777, -64.7677, -9.18763
0.86, -1, -1.59917, 26.8162, 25.5051, 8.95418, -64.6246, -9.26965
0.864, -1, -1.52196, 26.7728, 25.4954, 9.07033, -64.4819, -9.35149
0.868, -1, -1.44493, 26.7295, 25.4857, 9.18623, -64.3395, -9.43315
0.872, -1, -1.36806, 26.6863, 25.476, 9.30186, -64.1974, -9.51462
0.876, -1, -1.29137, 26.6432, 25.4664, 9.41724, -64.0556, -9.59592
0.88, -1, -1.21485, 26.6001, 25.4567, 9.53236, -63.9142, -9.67703
0.884, -1, -1.1385, 26.5572, 25.4471, 9.64723, -63.773, -9.75796
0.888, -1, -1.06232, 26.5144, 25.4376, 9.76183, -63.6322, -9.83871
0.892, -1, -0.986311, 26.4716, 25.428, 9.87618, -63.4917, -9.91928
0.896, -1, -0.910471, 26.429, 25.4185, 9.99028, -63.3515, -9.99967
0.9, -1, -0.8348, 26.3864, 25.409, 10.1041, -63.2116, -10.0799
0.904, -1, -0.759299, 26.344, 25.3995, 10.2177, -63.0721, -10.1599
0.908, -1, -0.683967, 26.3016, 25.39, 10.331, -62.9328, -10.2398
0.912, -1, -0.608804, 26.2594, 25.3805, 10.4441, -62.7939, -10.3194
0.916, -1, -0.533808, 26.2172, 25.3711, 10.5569, -62.6552, -10.3989
0.92, -1, -0.458981, 26.1751, 25.3617, 10.6695, -62.5169, -10.4782
0.924, -1, -0.384322, 26.1332, 25.3523, 10.7818, -62.3789, -10.5574
0.928, -1, -0.30983, 26.0913, 25.3429, 10.8939, -62.2412, -10.6363
0.932, -1, -0.235505, 26.0495, 25.3336, 11.0057, -62.1038, -10.7151
0.936, -1, -0.161347, 26.0078, 25.3243, 11.1173, -61.9667, -10.7937
0.94, -1, -0.0873549, 25.9662, 25.315, 11.2286, -61.8299, -10.8722
0.944, -1, -0.013529, 25.9247, 25.3057, 11.3396, -61.6935, -10.9504
0.948, -1, 0.0601312, 25.8833, 25.2964, 11.4504, -61.5573, -11.0285
0.952, -1, 0.133626, 25.8419, 25.2872, 11.561, -61.4215, -11.1064
0.956, -1, 0.206956, 25.8007, 25.278, 11.6713, -61.2859, -11.1841
0.96, -1, 0.280122, 25.7596, 25.2688, 11.7814, -61.1507, -11.2617
0.964, -1, 0.353123, 25.7185, 25.2596, 11.8912, -61.0157, -11.339
0.968, -1, 0.42596, 25.6776, 25.2504, 12.0008, -60.8811, -11.4162
0.972, -1, 0.498634, 25.6367, 25.2413, 12.1101, -60.7467, -11.4933
0.976, -1, 0.571145, 25.5959, 25.2322, 12.2192, -60.6127, -11.5701
0.98, -1, 0.643494, 25.5553, 25.2231, 12.328, -60.479, -11.6468
0.984, -1, 0.71568, 25.5147, 25.214, 12.4366, -60.3455, -11.7233
0.988, -1, 0.787704, 25.4742, 25.2049, 12.545, -60.2124, -11.7997
0.992, -1, 0.859567, 25.4338, 25.1959, 12.6531, -60.0796, -11.8758
0.996, -1, 0.931268, 25.3935, 25.1869, 12.7609, -59.947, -11.9518
1, -1, 1.00281, 25.3532, 25.1779, 12.8686, -59.8148, -12.0277
1.004, -1, 1.07419, 25.3131, 25.1689, 12.9759, -59.6828, -12.1033
1.008, -1, 1.14541, 25.2731, 25.16, 13.0831, -59.5512, -12.1788
1.012, -1, 1.21647, 25.2331, 25.151, 13.19, -59.4198, -12.2541
1.016, -1, 1.28738, 25.1932, 25.1421, 13.2966, -59.2888, -12.3293
1.02, -1, 1.35813, 25.1535, 25.1332, 13.4031, -59.158, -12.4043
1.024, -1, 1.42871, 25.1138, 25.1243, 13.5092, -59.0275, -12.4791
1.027, -1, 1.49915, 25.0742, 25.1155, 13.6152, -58.8973, -12.5537
1.032, -1, 1.56942, 25.0347, 25.1067, 13.7209, -58.7674, -12.6282
1.036, -1, 1.63954, 24.9952, 25.0978, 13.8264, -58.6378, -12.7025
1.04, -1, 1.70951, 24.9559, 25.089, 13.9316, -58.5085, -12.7767
1.044, -1, 1.77932, 24.9167, 25.0803, 14.0366, -58.3795, -12.8507
1.048, -1, 1.84898, 24.8775, 25.0715, 14.1414, -58.2507, -12.9245
1.052, -1, 1.91848, 24.8384, 25.0628, 14.246, -58.1223, -12.9982
1.055, -1, 1.98783, 24.7994, 25.0541, 14.3503, -57.9941, -13.0717
1.06, -1, 2.05703, 24.7605, 25.0454, 14.4544, -57.8662, -13.145
1.064, -1, 2.12608, 24.7217, 25.0367, 14.5582, -57.7386, -13.2182
1.068, -1, 2.19497, 24.683, 25.028, 14.6618, -57.6112, -13.2912
1.072, -1, 2.26372, 24.6443, 25.0194, 14.7652, -57.4842, -13.3641
1.076, -1, 2.33231, 24.6057, 25.0107, 14.8684, -57.3574, -13.4368
1.08, -1, 2.40076, 24.5673, 25.0021, 14.9714, -57.2309, -13.5093
1.084, -1, 2.46906, 24.5289, 24.9936, 15.0741, -57.1047, -13.5817
1.088, -1, 2.53721, 24.4905, 24.985, 15.1766, -56.9787, -13.6539
1.091, -1, 2.60521, 24.4523, 24.9764, 15.2789, -56.853, -13.726
1.096, -1, 2.67306, 24.4142, 24.9679, 15.381, -56.7276, -13.7979
1.1, -1, 2.74078, 24.3761, 24.9594, 15.4828, -56.6024, -13.8697
1.104, -1, 2.80834, 24.3381, 24.9509, 15.5845, -56.4776, -13.9413
1.108, -1, 2.87576, 24.3002, 24.9424, 15.6859, -56.353, -14.0127
1.112, -1, 2.94304, 24.2624, 24.934, 15.7871, -56.2286, -14.084
1.116, -1, 3.01017, 24.2246, 24.9255, 15.888, -56.1045, -14.1552
1.119, -1, 3.07716, 24.187, 24.9171, 15.9888, -55.9807, -14.2262
1.124, -1, 3.14401, 24.1494, 24.9087, 16.0894, -55.8572, -14.297
1.128, -1, 3.21072, 24.1119, 24.9003, 16.1897, -55.7339, -14.3677
1.132, -1, 3.27729, 24.0744, 24.892, 16.2898, -55.6108, -14.4383
1.136, -1, 3.34372, 24.0371, 24.8836, 16.3898, -55.488, -14.5087
1.14, -1, 3.41001, 23.9998, 24.8753, 16.4895, -55.3655, -14.5789
1.144, -1, 3.47616, 23.9626, 24.867, 16.589, -55.2433, -14.649
1.147, -1, 3.54217, 23.9255, 24.8587, 16.6883, -55.1212, -14.719
1.152, -1, 3.60804, 23.8885, 24.8504, 16.7873, -54.9995, -14.7888
1.156, -1, 3.67378, 23.8515, 24.8421, 16.8862, -54.878, -14.8585
1.16, -1, 3.73938, 23.8146, 24.8339, 16.9849, -54.7567, -14.928
1.164, -1, 3.80485, 23.7778, 24.8256, 17.0834, -54.6357, -14.9974
1.168, -1, 3.87018, 23.7411, 24.8174, 17.1816, -54.515, -15.0666
1.172, -1, 3.93537, 23.7045, 24.8092, 17.2797, -54.3945, -15.1357
1.175, -1, 4.00044, 23.6679, 24.8011, 17.3776, -54.2742, -15.2047
1.18, -1, 4.06536, 23.6314, 24.7929, 17.4752, -54.1542, -15.2735
1.184, -1, 4.13016, 23.5949, 24.7847, 17.5727, -54.0345, -15.3422
1.188, -1, 4.19482, 23.5586, 24.7766, 17.67, -53.9149, -15.4107
1.192, -1, 4.25936, 23.5223, 24.7685, 17.767, -53.7957, -15.4791
1.196, -1, 4.32376, 23.4861, 24.7604, 17.8639, -53.6766, -15.5474
1.2, -1, 4.38803, 23.45, 24.7523, 17.9606, -53.5578, -15.6155
1.204, -1, 4.45217, 23.4139, 24.7443, 18.0571, -53.4393, -15.6835
1.208, -1, 4.51618, 23.3779, 24.7362, 18.1534, -53.321, -15.7513
1.212, -1, 4.58006, 23.342, 24.7282, 18.2495, -53.2029, -15.819
1.216, -1, 4.64382, 23.3061, 24.7202, 18.3454, -53.0851, -15.8866
1.22, -1, 4.70745, 23.2704, 24.7122, 18.4411, -52.9675, -15.954
1.224, -1, 4.77095, 23.2347, 24.7042, 18.5366, -52.8501, -16.0213
1.228, -1, 4.83432, 23.199, 24.6962, 18.6319, -52.733, -16.0885
1.232, -1, 4.89757, 23.1635, 24.6883, 18.727, -52.6161, -16.1555
1.236, -1, 4.96069, 23.128, 24.6803, 18.822, -52.4994, -16.2224
1.24, -1, 5.02369, 23.0926, 24.6724, 18.9168, -52.3829, -16.2892
1.244, -1, 5.08656, 23.0572, 24.6645, 19.0113, -52.2667, -16.3558
1.248, -1, 5.14931, 23.0219, 24.6566, 19.1057, -52.1508, -16.4223
1.252, -1, 5.21193, 22.9867, 24.6488, 19.1999, -52.035, -16.4887
1.256, -1, 5.27444, 22.9516, 24.6409, 19.2939, -51.9195, -16.5549
1.26, -1, 5.33682, 22.9165, 24.6331, 19.3878, -51.8042, -16.621
1.264, -1, 5.39908, 22.8815, 24.6252, 19.4814, -51.6891, -16.687
1.267, -1, 5.46121, 22.8466, 24.6174, 19.5749, -51.5742, -16.7529
1.272, -1, 5.52323, 22.8117, 24.6096, 19.6682, -51.4596, -16.8186
1.276, -1, 5.58513, 22.7769, 24.6018, 19.7613, -51.3452, -16.8842
1.28, -1, 5.6469, 22.7422, 24.5941, 19.8542, -51.231, -16.9497
1.284, -1, 5.70856, 22.7075, 24.5863, 19.947, -51.1171, -17.015
1.288, -1, 5.7701, 22.6729, 24.5786, 20.0395, -51.0033, -17.0803
1.292, -1, 5.83152, 22.6384, 24.5709, 20.1319, -50.8898, -17.1454
1.295, -1, 5.89282, 22.6039, 24.5632, 20.2241, -50.7765, -17.2103
1.3, -1, 5.95401, 22.5695, 24.5555, 20.3162, -50.6634, -17.2752
1.304, -1, 6.01508, 22.5352, 24.5478, 20.408, -50.5505, -17.3399
1.308, -1, 6.07603, 22.5009, 24.5401, 20.4997, -50.4379, -17.4045
1.312, -1, 6.13687, 22.4667, 24.5325, 20.5912, -50.3254, -17.469
1.316, -1, 6.19759, 22.4326, 24.5249, 20.6826, -50.2132, -17.5333
1.32, -1, 6.25819, 22.3985, 24.5172, 20.7737, -50.1012, -17.5976
1.324, -1, 6.31869, 22.3645, 24.5096, 20.8647, -49.9894, -17.6617
1.328, -1, 6.37907, 22.3305, 24.502, 20.9555, -49.8778, -17.7257
1.332, -1, 6.43933, 22.2966, 24.4945, 21.0462, -49.7664, -17.7895
1.336, -1, 6.49948, 22.2628, 24.4869, 21.1367, -49.6552, -17.8533
1.34, -1, 6.55952, 22.2291, 24.4794, 21.227, -49.5442, -17.9169
1.344, -1, 6.61945, 22.1954, 24.4718, 21.3171, -49.4335, -17.9804
1.348, -1, 6.67926, 22.1617, 24.4643, 21.4071, -49.3229, -18.0438
1.352, -1, 6.73897, 22.1282, 24.4568, 21.4969, -49.2125, -18.1071
1.356, -1, 6.79856, 22.0947, 24.4493, 21.5865, -49.1024, -18.1703
1.36, -1, 6.85805, 22.0612, 24.4418, 21.676, -48.9924, -18.2333
1.364, -1, 6.91742, 22.0278, 24.4344, 21.7653, -48.8827, -18.2962
1.368, -1, 6.97669, 21.9945, 24.4269, 21.8545, -48.7732, -18.3591
1.372, -1, 7.03584, 21.9613, 24.4195, 21.9435, -48.6638, -18.4218
1.376, -1, 7.09489, 21.9281, 24.4121, 22.0323, -48.5547, -18.4843
1.38, -1, 7.15383, 21.8949, 24.4046, 22.1209, -48.4457, -18.5468
1.384, -1, 7.21267, 21.8618, 24.3972, 22.2094, -48.337, -18.6092
1.388, -1, 7.2714, 21.8288, 24.3899, 22.2978, -48.2284, -18.6714
1.392, -1, 7.33002, 21.7959, 24.3825, 22.386, -48.1201, -18.7335
1.396, -1, 7.38854, 21.763, 24.3751, 22.474, -48.0119, -18.7956
1.4, -1, 7.44695, 21.7301, 24.3678, 22.5618, -47.904, -18.8575
1.404, -1, 7.50525, 21.6973, 24.3605, 22.6495, -47.7962, -18.9193
1.408, -1, 7.56346, 21.6646, 24.3532, 22.7371, -47.6886, -18.9809
1.412, -1, 7.62156, 21.6319, 24.3458, 22.8245, -47.5812, -19.0425
1.416, -1, 7.67955, 21.5993, 24.3386, 22.9117, -47.4741, -19.104
1.42, -1, 7.73745, 21.5668, 24.3313, 22.9988, -47.3671, -19.1653
1.424, -1, 7.79524, 21.5343, 24.324, 23.0857, -47.2602, -19.2266
1.428, -1, 7.85293, 21.5019, 24.3168, 23.1725, -47.1536, -19.2877
1.432, -1, 7.91053, 21.4695, 24.3095, 23.2591, -47.0472, -19.3488
1.436, -1, 7.96802, 21.4372, 24.3023, 23.3456, -46.9409, -19.4097
1.44, -1, 8.02541, 21.4049, 24.2951, 23.4319, -46.8348, -19.4705
1.444, -1, 8.0827, 21.3727, 24.2879, 23.5181, -46.729, -19.5312
1.448, -1, 8.1399, 21.3405, 24.2807, 23.6041, -46.6232, -19.5918
1.452, -1, 8.19699, 21.3084, 24.2735, 23.69, -46.5177, -19.6523
1.456, -1, 8.25399, 21.2764, 24.2664, 23.7757, -46.4124, -19.7128
1.46, -1, 8.31089, 21.2444, 24.2592, 23.8613, -46.3072, -19.7731
1.464, -1, 8.36769, 21.2125, 24.2521, 23.9468, -46.2022, -19.8333
1.468, -1, 8.4244, 21.1806, 24.2449, 24.032, -46.0975, -19.8933
1.472, -1, 8.48101, 21.1488, 24.2378, 24.1172, -45.9928, -19.9533
1.476, -1, 8.53752, 21.117, 24.2307, 24.2022, -45.8884, -20.0132
1.48, -1, 8.59394, 21.0853, 24.2236, 24.287, -45.7841, -20.073
1.484, -1, 8.65026, 21.0536, 24.2165, 24.3718, -45.68, -20.1327
1.488, -1, 8.70649, 21.022, 24.2095, 24.4563, -45.5761, -20.1923
1.492, -1, 8.76262, 20.9904, 24.2024, 24.5408, -45.4724, -20.2518
1.496, -1, 8.81866, 20.9589, 24.1954, 24.6251, -45.3688, -20.3112
1.5, -1, 8.87461, 20.9275, 24.1883, 24.7092, -45.2654, -20.3705
1.504, -1, 8.93046, 20.8961, 24.1813, 24.7932, -45.1621, -20.4297
1.508, -1, 8.98623, 20.8647, 24.1743, 24.8771, -45.0591, -20.4888
1.512, -1, 9.04189, 20.8334, 24.1673, 24.9608, -44.9562, -20.5478
1.516, -1, 9.09747, 20.8022, 24.1603, 25.0444, -44.8535, -20.6067
1.52, -1, 9.15296, 20.771, 24.1534, 25.1279, -44.7509, -20.6655
1.524, -1, 9.20836, 20.7398, 24.1464, 25.2112, -44.6485, -20.7242
1.528, -1, 9.26366, 20.7087, 24.1394, 25.2944, -44.5463, -20.7828
1.532, -1, 9.31888, 20.6777, 24.1325, 25.3774, -44.4443, -20.8413
1.536, -1, 9.37401, 20.6467, 24.1256, 25.4604, -44.3424, -20.8997
1.54, -1, 9.42904, 20.6158, 24.1187, 25.5431, -44.2407, -20.9581
1.544, -1, 9.48399, 20.5849, 24.1118, 25.6258, -44.1391, -21.0163
1.548, -1, 9.53885, 20.554, 24.1049, 25.7083, -44.0377, -21.0744
1.552, -1, 9.59363, 20.5232, 24.098, 25.7907, -43.9365, -21.1325
1.556, -1, 9.64831, 20.4925, 24.0911, 25.873, -43.8354, -21.1904
1.56, -1, 9.70291, 20.4618, 24.0842, 25.9551, -43.7345, -21.2483
1.564, -1, 9.75742, 20.4311, 24.0774, 26.0371, -43.6337, -21.3061
1.568, -1, 9.81184, 20.4005, 24.0705, 26.1189, -43.5331, -21.3637
1.572, -1, 9.86618, 20.37, 24.0637, 26.2007, -43.4327, -21.4213
1.576, -1, 9.92043, 20.3395, 24.0569, 26.2823, -43.3324, -21.4788
1.58, -1, 9.9746, 20.309, 24.0501, 26.3638, -43.2323, -21.5362
1.584, -1, 10.0287, 20.2786, 24.0433, 26.4451, -43.1324, -21.5936
1.588, -1, 10.0827, 20.2483, 24.0365, 26.5263, -43.0326, -21.6508
1.592, -1, 10.1366, 20.218, 24.0297, 26.6074, -42.9329, -21.7079
1.596, -1, 10.1904, 20.1877, 24.023, 26.6884, -42.8334, -21.765
1.6, -1, 10.2442, 20.1575, 24.0162, 26.7692, -42.7341, -21.8219
1.604, -1, 10.2978, 20.1273, 24.0095, 26.85, -42.6349, -21.8788
1.608, -1, 10.3514, 20.0972, 24.0027, 26.9306, -42.5359, -21.9356
1.612, -1, 10.4049, 20.0671, 23.996, 27.011, -42.437, -21.9923
1.616, -1, 10.4583, 20.0371, 23.9893, 27.0914, -42.3382, -22.0489
1.62, -1, 10.5117, 20.0071, 23.9826, 27.1716, -42.2397, -22.1054
1.624, -1, 10.5649, 19.9771, 23.9759, 27.2517, -42.1412, -22.1619
1.628, -1, 10.6181, 19.9472, 23.9692, 27.3317, -42.0429, -22.2182
1.632, -1, 10.6712, 19.9174, 23.9625, 27.4116, -41.9448, -22.2745
1.636, -1, 10.7242, 19.8876, 23.9559, 27.4913, -41.8468, -22.3307
1.64, -1, 10.7771, 19.8578, 23.9492, 27.5709, -41.749, -22.3868
1.644, -1, 10.83, 19.8281, 23.9426, 27.6504, -41.6513, -22.4428
1.648, -1, 10.8828, 19.7984, 23.9359, 27.7298, -41.5538, -22.4987
1.652, -1, 10.9355, 19.7688, 23.9293, 27.8091, -41.4564, -22.5546
1.656, -1, 10.9881, 19.7392, 23.9227, 27.8882, -41.3591, -22.6104
1.66, -1, 11.0406, 19.7097, 23.9161, 27.9672, -41.262, -22.666
1.664, -1, 11.0931, 19.6802, 23.9095, 28.0461, -41.1651, -22.7216
1.668, -1, 11.1455, 19.6507, 23.9029, 28.1249, -41.0682, -22.7772
1.672, -1, 11.1978, 19.6213, 23.8963, 28.2036, -40.9716, -22.8326
1.676, -1, 11.25, 19.592, 23.8898, 28.2822, -40.875, -22.8879
1.68, -1, 11.3022, 19.5627, 23.8832, 28.3606, -40.7786, -22.9432
1.684, -1, 11.3542, 19.5334, 23.8767, 28.439, -40.6824, -22.9984
1.688, -1, 11.4062, 19.5041, 23.8701, 28.5172, -40.5863, -23.0535
1.692, -1, 11.4582, 19.4749, 23.8636, 28.5953, -40.4903, -23.1085
1.696, -1, 11.51, 19.4458, 23.8571, 28.6733, -40.3945, -23.1635
1.7, -1, 11.5618, 19.4167, 23.8506, 28.7511, -40.2988, -23.2184
1.704, -1, 11.6135, 19.3876, 23.8441, 28.8289, -40.2032, -23.2732
1.708, -1, 11.6651, 19.3586, 23.8376, 28.9066, -40.1078, -23.3279
1.712, -1, 11.7166, 19.3296, 23.8311, 28.9841, -40.0125, -23.3825
1.716, -1, 11.7681, 19.3007, 23.8246, 29.0615, -39.9174, -23.4371
1.72, -1, 11.8195, 19.2718, 23.8182, 29.1388, -39.8224, -23.4915
1.724, -1, 11.8709, 19.2429, 23.8117, 29.2161, -39.7275, -23.5459
1.728, -1, 11.9221, 19.2141, 23.8053, 29.2931, -39.6328, -23.6003
1.732, -1, 11.9733, 19.1853, 23.7989, 29.3701, -39.5382, -23.6545
1.736, -1, 12.0244, 19.1566, 23.7924, 29.447, -39.4437, -23.7087
1.74, -1, 12.0754, 19.1279, 23.786, 29.5238, -39.3494, -23.7628
1.744, -1, 12.1264, 19.0992, 23.7796, 29.6004, -39.2552, -23.8168
1.748, -1, 12.1773, 19.0706, 23.7732, 29.677, -39.1611, -23.8707
1.752, -1, 12.2281, 19.0421, 23.7668, 29.7535, -39.0672, -23.9246
1.756, -1, 12.2789, 19.0135, 23.7604, 29.8298, -38.9734, -23.9784
1.76, -1, 12.3295, 18.985, 23.7541, 29.906, -38.8797, -24.0321
1.764, -1, 12.3802, 18.9566, 23.7477, 29.9822, -38.7861, -24.0857
1.768, -1, 12.4307, 18.9282, 23.7414, 30.0582, -38.6927, -24.1393
1.772, -1, 12.4812, 18.8998, 23.735, 30.1341, -38.5995, -24.1928
1.776, -1, 12.5316, 18.8714, 23.7287, 30.2099, -38.5063, -24.2462
1.78, -1, 12.5819, 18.8431, 23.7223, 30.2856, -38.4133, -24.2995
1.784, -1, 12.6322, 18.8149, 23.716, 30.3612, -38.3204, -24.3528
1.788, -1, 12.6824, 18.7867, 23.7097, 30.4367, -38.2276, -24.406
1.792, -1, 12.7325, 18.7585, 23.7034, 30.5121, -38.1349, -24.4591
1.796, -1, 12.7825, 18.7303, 23.6971, 30.5874, -38.0424, -24.5122
1.8, -1, 12.8325, 18.7022, 23.6908, 30.6626, -37.95, -24.5652
1.804, -1, 12.8825, 18.6742, 23.6846, 30.7377, -37.8578, -24.6181
1.808, -1, 12.9323, 18.6461, 23.6783, 30.8127, -37.7656, -24.6709
1.812, -1, 12.9821, 18.6181, 23.672, 30.8876, -37.6736, -24.7237
1.816, -1, 13.0318, 18.5902, 23.6658, 30.9624, -37.5817, -24.7764
1.82, -1, 13.0815, 18.5623, 23.6596, 31.0371, -37.4899, -24.829
1.824, -1, 13.1311, 18.5344, 23.6533, 31.1117, -37.3982, -24.8816
1.828, -1, 13.1806, 18.5065, 23.6471, 31.1862, -37.3067, -24.9341
1.832, -1, 13.23, 18.4787, 23.6409, 31.2606, -37.2153, -24.9865
1.836, -1, 13.2794, 18.451, 23.6347, 31.3349, -37.124, -25.0388
1.84, -1, 13.3288, 18.4232, 23.6285, 31.4091, -37.0328, -25.0911
1.844, -1, 13.378, 18.3955, 23.6223, 31.4832, -36.9418, -25.1433
1.848, -1, 13.4272, 18.3679, 23.6161, 31.5572, -36.8508, -25.1955
1.852, -1, 13.4764, 18.3402, 23.6099, 31.6311, -36.76, -25.2475
1.856, -1, 13.5254, 18.3127, 23.6037, 31.7049, -36.6693, -25.2995
1.86, -1, 13.5744, 18.2851, 23.5976, 31.7786, -36.5787, -25.3515
1.864, -1, 13.6234, 18.2576, 23.5914, 31.8522, -36.4883, -25.4034
1.868, -1, 13.6723, 18.2301, 23.5853, 31.9258, -36.3979, -25.4552
1.872, -1, 13.7211, 18.2027, 23.5792, 31.9992, -36.3077, -25.5069
1.876, -1, 13.7698, 18.1752, 23.573, 32.0725, -36.2176, -25.5586
1.88, -1, 13.8185, 18.1479, 23.5669, 32.1458, -36.1275, -25.6102
1.884, -1, 13.8672, 18.1205, 23.5608, 32.2189, -36.0377, -25.6617
1.888, -1, 13.9157, 18.0932, 23.5547, 32.292, -35.9479, -25.7132
1.892, -1, 13.9643, 18.0659, 23.5486, 32.365, -35.8582, -25.7646
1.896, -1, 14.0127, 18.0387, 23.5425, 32.4378, -35.7687, -25.816
1.9, -1, 14.0611, 18.0115, 23.5364, 32.5106, -35.6792, -25.8673
1.904, -1, 14.1094, 17.9843, 23.5303, 32.5833, -35.5899, -25.9185
1.908, -1, 14.1577, 17.9572, 23.5243, 32.6559, -35.5007, -25.9696
1.912, -1, 14.2059, 17.9301, 23.5182, 32.7284, -35.4116, -26.0207
1.916, -1, 14.254, 17.903, 23.5122, 32.8009, -35.3226, -26.0718
1.92, -1, 14.3021, 17.876, 23.5061, 32.8732, -35.2337, -26.1227
1.924, -1, 14.3501, 17.849, 23.5001, 32.9454, -35.145, -26.1736
1.928, -1, 14.3981, 17.822, 23.494, 33.0176, -35.0563, -26.2245
1.932, -1, 14.446, 17.7951, 23.488, 33.0897, -34.9677, -26.2752
1.936, -1, 14.4939, 17.7682, 23.482, 33.1616, -34.8793, -26.3259
1.94, -1, 14.5416, 17.7413, 23.476, 33.2335, -34.791, -26.3766
1.944, -1, 14.5894, 17.7145, 23.47, 33.3053, -34.7027, -26.4272
1.948, -1, 14.6371, 17.6877, 23.464, 33.377, -34.6146, -26.4777
1.952, -1, 14.6847, 17.6609, 23.458, 33.4487, -34.5266, -26.5282
1.956, -1, 14.7322, 17.6341, 23.452, 33.5202, -34.4387, -26.5786
1.96, -1, 14.7797, 17.6074, 23.4461, 33.5917, -34.3509, -26.6289
1.964, -1, 14.8272, 17.5808, 23.4401, 33.663, -34.2632, -26.6792
1.968, -1, 14.8745, 17.5541, 23.4342, 33.7343, -34.1756, -26.7294
1.972, -1, 14.9219, 17.5275, 23.4282, 33.8055, -34.0882, -26.7796
1.976, -1, 14.9692, 17.5009, 23.4223, 33.8766, -34.0008, -26.8297
1.98, -1, 15.0164, 17.4744, 23.4163, 33.9476, -33.9135, -26.8798
1.984, -1, 15.0635, 17.4479, 23.4104, 34.0186, -33.8263, -26.9297
1.988, -1, 15.1106, 17.4214, 23.4045, 34.0894, -33.7393, -26.9797
1.992, -1, 15.1577, 17.3949, 23.3986, 34.1602, -33.6523, -27.0295
1.996, -1, 15.2047, 17.3685, 23.3927, 34.2309, -33.5654, -27.0793
1.999, -1, 15.2516, 17.3421, 23.3868, 34.3015, -33.4787, -27.1291
2.004, -1, 15.2985, 17.3158, 23.3809, 34.372, -33.392, -27.1788
2.008, -1, 15.3453, 17.2894, 23.375, 34.4425, -33.3055, -27.2284
2.012, -1, 15.3921, 17.2631, 23.3691, 34.5128, -33.219, -27.278
2.015, -1, 15.4388, 17.2369, 23.3632, 34.5831, -33.1327, -27.3275
2.019, -1, 15.4855, 17.2106, 23.3574, 34.6533, -33.0464, -27.377
2.024, -1, 15.5321, 17.1844, 23.3515, 34.7234, -32.9602, -27.4264
2.028, -1, 15.5786, 17.1582, 23.3456, 34.7934, -32.8742, -27.4757
2.031, -1, 15.6251, 17.1321, 23.3398, 34.8634, -32.7882, -27.525
2.036, -1, 15.6716, 17.106, 23.334, 34.9333, -32.7024, -27.5742
2.04, -1, 15.718, 17.0799, 23.3281, 35.0031, -32.6166, -27.6234
2.044, -1, 15.7643, 17.0538, 23.3223, 35.0728, -32.531, -27.6725
2.048, -1, 15.8106, 17.0278, 23.3165, 35.1424, -32.4454, -27.7216
2.051, -1, 15.8568, 17.0018, 23.3107, 35.212, -32.3599, -27.7706
2.055, -1, 15.903, 16.9759, 23.3049, 35.2814, -32.2746, -27.8195
2.06, -1, 15.9491, 16.9499, 23.2991, 35.3508, -32.1893, -27.8684
2.064, -1, 15.9952, 16.924, 23.2933, 35.4201, -32.1041, -27.9173
2.068, -1, 16.0413, 16.8981, 23.2875, 35.4894, -32.019, -27.9661
2.071, -1, 16.0872, 16.8723, 23.2817, 35.5585, -31.9341, -28.0148
2.076, -1, 16.1331, 16.8465, 23.2759, 35.6276, -31.8492, -28.0635
2.08, -1, 16.179, 16.8207, 23.2702, 35.6966, -31.7644, -28.1121
2.084, -1, 16.2248, 16.7949, 23.2644, 35.7656, -31.6797, -28.1606
2.087, -1, 16.2706, 16.7692, 23.2587, 35.8344, -31.5951, -28.2092
2.092, -1, 16.3163, 16.7435, 23.2529, 35.9032, -31.5106, -28.2576
2.096, -1, 16.362, 16.7178, 23.2472, 35.9719, -31.4262, -28.306
2.1, -1, 16.4076, 16.6921, 23.2414, 36.0405, -31.3418, -28.3544
2.104, -1, 16.4532, 16.6665, 23.2357, 36.1091, -31.2576, -28.4027
2.107, -1, 16.4987, 16.6409, 23.23, 36.1775, -31.1735, -28.4509
2.111, -1, 16.5442, 16.6154, 23.2243, 36.2459, -31.0894, -28.4991
2.116, -1, 16.5896, 16.5898, 23.2186, 36.3143, -31.0055, -28.5472
2.12, -1, 16.635, 16.5643, 23.2129, 36.3825, -30.9216, -28.5953
2.124, -1, 16.6803, 16.5388, 23.2072, 36.4507, -30.8378, -28.6434
2.127, -1, 16.7255, 16.5134, 23.2015, 36.5188, -30.7542, -28.6913
2.132, -1, 16.7708, 16.488, 23.1958, 36.5868, -30.6706, -28.7393
2.136, -1, 16.8159, 16.4626, 23.1901, 36.6548, -30.5871, -28.7872
2.14, -1, 16.8611, 16.4372, 23.1844, 36.7226, -30.5037, -28.835
2.143, -1, 16.9061, 16.4118, 23.1788, 36.7904, -30.4204, -28.8828
2.148, -1, 16.9512, 16.3865, 23.1731, 36.8582, -30.3371, -28.9305
2.152, -1, 16.9961, 16.3612, 23.1675, 36.9258, -30.254, -28.9782
2.156, -1, 17.0411, 16.336, 23.1618, 36.9934, -30.1709, -29.0258
2.16, -1, 17.086, 16.3107, 23.1562, 37.061, -30.088, -29.0734
2.163, -1, 17.1307, 16.2856, 23.1505, 37.1284, -30.0051, -29.1209
2.168, -1, 17.1752, 16.2605, 23.1449, 37.1958, -29.9223, -29.1684
2.172, -1, 17.2191, 16.2357, 23.1392, 37.263, -29.8397, -29.2157
2.176, -1, 17.2623, 16.2112, 23.1335, 37.3301, -29.7572, -29.263
2.179, -1, 17.3045, 16.1873, 23.1277, 37.397, -29.6751, -29.3101
2.184, -1, 17.3456, 16.164, 23.1218, 37.4635, -29.5935, -29.357
2.188, -1, 17.3855, 16.1414, 23.116, 37.5293, -29.5126, -29.4033
2.192, -1, 17.4241, 16.1195, 23.1101, 37.5942, -29.433, -29.4491
2.196, -1, 17.4614, 16.0985, 23.1043, 37.6578, -29.3548, -29.4939
2.199, -1, 17.4974, 16.0784, 23.0986, 37.7198, -29.2788, -29.5376
2.204, -1, 17.532, 16.0593, 23.093, 37.7796, -29.2053, -29.5798
2.208, -1, 17.565, 16.0414, 23.0876, 37.837, -29.1349, -29.6202
2.212, -1, 17.5961, 16.0246, 23.0825, 37.8913, -29.0682, -29.6585
2.216, -1, 17.6255, 16.0089, 23.0778, 37.9423, -29.0056, -29.6944
2.219, -1, 17.6531, 15.9942, 23.0734, 37.9894, -28.9477, -29.7277
2.224, -1, 17.6791, 15.9802, 23.0695, 38.0325, -28.8949, -29.758
2.228, -1, 17.7034, 15.9668, 23.0661, 38.0711, -28.8475, -29.7852
2.232, -1, 17.7262, 15.9539, 23.0633, 38.1052, -28.8055, -29.8093
2.235, -1, 17.7475, 15.9416, 23.0609, 38.1349, -28.769, -29.8302
2.24, -1, 17.767, 15.9299, 23.0591, 38.1603, -28.7379, -29.848
2.244, -1, 17.7847, 15.9192, 23.0578, 38.1815, -28.7117, -29.863
2.248, -1, 17.8006, 15.9096, 23.0568, 38.1989, -28.6902, -29.8752
2.252, -1, 17.8146, 15.9012, 23.0561, 38.213, -28.6728, -29.8851
2.255, -1, 17.827, 15.8938, 23.0557, 38.2241, -28.6592, -29.8929
2.259, -1, 17.8379, 15.8875, 23.0556, 38.2326, -28.6486, -29.8989
2.264, -1, 17.8474, 15.8821, 23.0556, 38.239, -28.6407, -29.9034
2.268, -1, 17.8555, 15.8777, 23.0556, 38.2437, -28.6349, -29.9067
2.272, -1, 17.8622, 15.8741, 23.0558, 38.247, -28.6307, -29.9091
2.275, 2, 17.8677, 15.8713, 23.0559, 38.2493, -28.6278, -29.9107
2.28, 2, 17.8718, 15.8692, 23.0561, 38.2509, -28.6258, -29.9118
2.284, 2, 17.8749, 15.8678, 23.0562, 38.252, -28.6244, -29.9126
2.288, 2, 17.877, 15.8667, 23.0562, 38.2528, -28.6235, -29.9131
2.291, 2, 17.8785, 15.866, 23.0563, 38.2533, -28.6229, -29.9135
2.296, 2, 17.8795, 15.8655, 23.0563, 38.2536, -28.6224, -29.9137
2.3, 2, 17.8802, 15.8652, 23.0563, 38.2539, -28.6221, -29.9139
2.304, 2, 17.8806, 15.865, 23.0564, 38.254, -28.6219, -29.914
2.308, 2, 17.8809, 15.8649, 23.0564, 38.2541, -28.6218, -29.9141
2.311, 2, 17.8811, 15.8648, 23.0564, 38.2542, -28.6217, -29.9141
2.316, 2, 17.8813, 15.8647, 23.0564, 38.2543, -28.6216, -29.9142
2.32, 2, 17.8814, 15.8646, 23.0564, 38.2543, -28.6216, -29.9142
2.324, 2, 17.8814, 15.8646, 23.0564, 38.2543, -28.6216, -29.9142
2.328, 2, 17.8815, 15.8646, 23.0564, 38.2543, -28.6216, -29.9142
2.331, 2, 17.8815, 15.8646, 23.0564, 38.2543, -28.6215, -29.9142
2.336, 2, 17.8815, 15.8646, 23.0564, 38.2544, -28.6215, -29.9142
2.34, 2, 17.8815, 15.8646, 23.0564, 38.2544, -28.6215, -29.9142
2.344, 2, 17.8816, 15.8646, 23.0564, 38.2544, -28.6215, -29.9142
2.347, 2, 17.8816, 15.8646, 23.0564, 38.2544, -28.6215, -29.9142
2.352, 2, 17.8816, 15.8646, 23.0564, 38.2544, -28.6215, -29.9142
2.356, 2, 17.8816, 15.8646, 23.0564, 38.2544, -28.6215, -29.9142
2.36, 2, 17.8816, 15.8646, 23.0564, 38.2544, -28.6215, -29.9142
2.364, 2, 17.8816, 15.8645, 23.0564, 38.2544, -28.6215, -29.9142
2.367, 2, 17.8816, 15.8645, 23.0564, 38.2544, -28.6215, -29.9142
2.372, 2, 17.8816, 15.8645, 23.0564, 38.2544, -28.6215, -29.9142
2.376, 2, 17.8816, 15.8645, 23.0564, 38.2544, -28.6215, -29.9142
2.38, 2, 17.8816, 15.8645, 23.0564, 38.2544, -28.6215, -29.9142
2.383, 2, 17.8816, 15.8645, 23.0564, 38.2544, -28.6215, -29.9142
2.388, 2, 17.8816, 15.8645, 23.0564, 38.2544, -28.6215, -29.9142
2.392, 2, 17.8816, 15.8645, 23.0564, 38.2544, -28.6215, -29.9142
2.396, 2, 17.8816, 15.8645, 23.0564, 38.2544, -28.6215, -29.9142
2.4, 2, 17.8816, 15.8645, 23.0564, 38.2544, -28.6215, -29.9142
2.403, 2, 17.8816, 15.8645, 23.0564, 38.2544, -28.6215, -29.9142
2.408, 2, 17.8816, 15.8645, 23.0564, 38.2544, -28.6215, -29.9142
2.412, 2, 17.8816, 15.8645, 23.0564, 38.2544, -28.6215, -29.9142
2.416, 2, 17.8816, 15.8645, 23.0564, 38.2544, -28.6215, -29.9142
2.42, 2, 17.8816, 15.8645, 23.0564, 38.2544, -28.6215, -29.9142
2.423, 2, 17.8816, 15.8645, 23.0564, 38.2544, -28.6215, -29.9142
2.428, 2, 17.8816, 15.8645, 23.0564, 38.2544, -28.6215, -29.9142
2.432, 2, 17.8816, 15.8645, 23.0564, 38.2544, -28.6215, -29.9142
2.436, 2, 17.8816, 15.8645, 23.0564, 38.2544, -28.6215, -29.9142
2.439, 2, 17.8816, 15.8645, 23.0564, 38.2544, -28.6215, -29.9142
2.444, 2, 17.8816, 15.8645, 23.0564, 38.2544, -28.6215, -29.9142
2.448, 2, 17.8816, 15.8645, 23.0564, 38.2544, -28.6215, -29.9142
2.452, 2, 17.8816, 15.8645, 23.0564, 38.2544, -28.6215, -29.9142
2.456, 2, 17.8816, 15.8645, 23.0564, 38.2544, -28.6215, -29.9142
2.459, 2, 17.8816, 15.8645, 23.0564, 38.2544, -28.6215, -29.9142
2.464, 2, 17.8816, 15.8645, 23.0564, 38.2544, -28.6215, -29.9142
2.468, 2, 17.8816, 15.8645, 23.0564, 38.2544, -28.6215, -29.9142
2.472, 2, 17.8816, 15.8645, 23.0564, 38.2544, -28.6215, -29.9142
2.476, 2, 17.8816, 15.8645, 23.0564, 38.2544, -28.6215, -29.9142
2.479, 2, 17.8816, 15.8645, 23.0564, 38.2544, -28.6215, -29.9142
2.484, 2, 17.8816, 15.8645, 23.0564, 38.2544, -28.6215, -29.9142
2.488, 2, 17.8816, 15.8645, 23.0564, 38.2544, -28.6215, -29.9142
2.492, 2, 17.8816, 15.8645, 23.0564, 38.2544, -28.6215, -29.9142
2.495, 2, 17.8816, 15.8645, 23.0564, 38.2544, -28.6215, -29.9142
2.5, 2, 17.8816, 15.8645, 23.0564, 38.2544, -28.6215, -29.9142
2.504, 2, 17.8816, 15.8645, 23.0564, 38.2544, -28.6215, -29.9142
2.508, 2, 17.8816, 15.8645, 23.0564, 38.2544, -28.6215, -29.9142
2.512, 2, 17.8816, 15.8645, 23.0564, 38.2544, -28.6215, -29.9142
2.515, 2, 17.8816, 15.8645, 23.0564, 38.2544, -28.6215, -29.9142
2.52, 2, 17.8816, 15.8645, 23.0564, 38.2544, -28.6215, -29.9142
2.524, 2, 17.8816, 15.8645, 23.0564, 38.2544, -28.6215, -29.9142
2.528, 2, 17.8816, 15.8645, 23.0564, 38.2544, -28.6215, -29.9142
2.531, 2, 17.8816, 15.8645, 23.0564, 38.2544, -28.6215, -29.9142
2.536, 2, 17.8816, 15.8645, 23.0564, 38.2544, -28.6215, -29.9142
2.54, 2, 17.8816, 15.8645, 23.0564, 38.2544, -28.6215, -29.9142
2.544, 2, 17.8816, 15.8645, 23.0564, 38.2544, -28.6215, -29.9142
2.548, 2, 17.8816, 15.8645, 23.0564, 38.2544, -28.6215, -29.9142
2.551, 2, 17.8816, 15.8645, 23.0564, 38.2544, -28.6215, -29.9142
2.556, 2, 17.8816, 15.8645, 23.0564, 38.2544, -28.6215, -29.9142
2.56, 2, 17.8816, 15.8645, 23.0564, 38.2544, -28.6215, -29.9142
2.564, 2, 17.8816, 15.8645, 23.0564, 38.2544, -28.6215, -29.9142
2.568, 2, 17.8816, 15.8645, 23.0564, 38.2544, -28.6215, -29.9142
2.571, 2, 17.8816, 15.8645, 23.0564, 38.2544, -28.6215, -29.9142
2.576, 2, 17.8816, 15.8645, 23.0564, 38.2544, -28.6215, -29.9142
2.58, 2, 17.8816, 15.8645, 23.0564, 38.2544, -28.6215, -29.9142
2.584, 2, 17.8816, 15.8645, 23.0564, 38.2544, -28.6215, -29.9142
2.587, 2, 17.8816, 15.8645, 23.0564, 38.2544, -28.6215, -29.9142
2.592, 2, 17.8816, 15.8645, 23.0564, 38.2544, -28.6215, -29.9142
2.596, 2, 17.8816, 15.8645, 23.0564, 38.2544, -28.6215, -29.9142
2.6, 2, 17.8816, 15.8645, 23.0564, 38.2544, -28.6215, -29.9142
2.604, 2, 17.8816, 15.8645, 23.0564, 38.2544, -28.6215, -29.9142
2.607, 2, 17.8816, 15.8645, 23.0564, 38.2544, -28.6215, -29.9142
2.612, 2, 17.8816, 15.8645, 23.0564, 38.2544, -28.6215, -29.9142
2.616, 2, 17.8816, 15.8645, 23.0564, 38.2544, -28.6215, -29.9142
2.62, 2, 17.8816, 15.8645, 23.0564, 38.2544, -28.6215, -29.9142
2.624, 2, 17.8816, 15.8645, 23.0564, 38.2544, -28.6215, -29.9142
2.627, 2, 17.8816, 15.8645, 23.0564, 38.2544, -28.6215, -29.9142
2.632, 2, 17.8816, 15.8645, 23.0564, 38.2544, -28.6215, -29.9142
2.636, 2, 17.8816, 15.8645, 23.0564, 38.2544, -28.6215, -29.9142
2.64, 2, 17.8816, 15.8645, 23.0564, 38.2544, -28.6215, -29.9142
2.643, 2, 17.8816, 15.8645, 23.0564, 38.2544, -28.6215, -29.9142
2.648, 2, 17.8816, 15.8645, 23.0564, 38.2544, -28.6215, -29.9142
2.652, 2, 17.8816, 15.8645, 23.0564, 38.2544, -28.6215, -29.9142
2.656, 2, 17.8816, 15.8645, 23.0564, 38.2544, -28.6215, -29.9142
2.66, 2, 17.8816, 15.8645, 23.0564, 38.2544, -28.6215, -29.9142
2.663, 2, 17.8816, 15.8645, 23.0564, 38.2544, -28.6215, -29.9142
2.668, 2, 17.8816, 15.8645, 23.0564, 38.2544, -28.6215, -29.9142
2.672, 2, 17.8816, 15.8645, 23.0564, 38.2544, -28.6215, -29.9142
2.676, 2, 17.8816, 15.8645, 23.0564, 38.2544, -28.6215, -29.9142
2.679, 2, 17.8816, 15.8645, 23.0564, 38.2544, -28.6215, -29.9142
2.684, 2, 17.8816, 15.8645, 23.0564, 38.2544, -28.6215, -29.9142
2.688, 2, 17.8816, 15.8645, 23.0564, 38.2544, -28.6215, -29.9142
2.692, 2, 17.8816, 15.8645, 23.0564, 38.2544, -28.6215, -29.9142
2.696, 2, 17.8816, 15.8645, 23.0564, 38.2544, -28.6215, -29.9142
2.699, 2, 17.8816, 15.8645, 23.0564, 38.2544, -28.6215, -29.9142
2.704, 2, 17.8816, 15.8645, 23.0564, 38.2544, -28.6215, -29.9142
2.708, 2, 17.8816, 15.8645, 23.0564, 38.2544, -28.6215, -29.9142
2.712, 2, 17.8816, 15.8645, 23.0564, 38.2544, -28.6215, -29.9142
2.716, 2, 17.8816, 15.8645, 23.0564, 38.2544, -28.6215, -29.9142
2.719, 2, 17.8816, 15.8645, 23.0564, 38.2544, -28.6215, -29.9142
2.724, 2, 17.8816, 15.8645, 23.0564, 38.2544, -28.6215, -29.9142
2.728, 2, 17.8816, 15.8645, 23.0564, 38.2544, -28.6215, -29.9142
2.732, 2, 17.8816, 15.8645, 23.0564, 38.2544, -28.6215, -29.9142
2.735, 2, 17.8816, 15.8645, 23.0564, 38.2544, -28.6215, -29.9142
2.74, 2, 17.8816, 15.8645, 23.0564, 38.2544, -28.6215, -29.9142
2.744, 2, 17.8816, 15.8645, 23.0564, 38.2544, -28.6215, -29.9142
2.748, 2, 17.8816, 15.8645, 23.0564, 38.2544, -28.6215, -29.9142
2.752, 2, 17.8816, 15.8645, 23.0564, 38.2544, -28.6215, -29.9142
2.755, 2, 17.8816, 15.8645, 23.0564, 38.2544, -28.6215, -29.9142
2.76, 2, 17.8816, 15.8645, 23.0564, 38.2544, -28.6215, -29.9142
2.764, 2, 17.8816, 15.8645, 23.0564, 38.2544, -28.6215, -29.9142
2.768, 2, 17.8816, 15.8645, 23.0564, 38.2544, -28.6215, -29.9142
2.772, 2, 17.8816, 15.8645, 23.0564, 38.2544, -28.6215, -29.9142
2.775, 2, 17.8816, 15.8645, 23.0564, 38.2544, -28.6215, -29.9142
2.78, 2, 17.8816, 15.8645, 23.0564, 38.2544, -28.6215, -29.9142
2.784, 2, 17.8816, 15.8645, 23.0564, 38.2544, -28.6215, -29.9142
2.788, 2, 17.8816, 15.8645, 23.0564, 38.2544, -28.6215, -29.9142
2.791, 2, 17.8816, 15.8645, 23.0564, 38.2544, -28.6215, -29.9142
2.796, 2, 17.8816, 15.8645, 23.0564, 38.2544, -28.6215, -29.9142
2.8, 2, 17.8816, 15.8645, 23.0564, 38.2544, -28.6215, -29.9142
2.804, 2, 17.8816, 15.8645, 23.0564, 38.2544, -28.6215, -29.9142
2.808, 2, 17.8816, 15.8645, 23.0564, 38.2544, -28.6215, -29.9142
2.811, 2, 17.8816, 15.8645, 23.0564, 38.2544, -28.6215, -29.9142
2.816, 2, 17.8816, 15.8645, 23.0564, 38.2544, -28.6215, -29.9142
2.82, 2, 17.8816, 15.8645, 23.0564, 38.2544, -28.6215, -29.9142
2.824, 2, 17.8816, 15.8645, 23.0564, 38.2544, -28.6215, -29.9142
2.828, 2, 17.8816, 15.8645, 23.0564, 38.2544, -28.6215, -29.9142
2.831, 2, 17.8816, 15.8645, 23.0564, 38.2544, -28.6215, -29.9142
2.836, 2, 17.8816, 15.8645, 23.0564, 38.2544, -28.6215, -29.9142
2.84, 2, 17.8816, 15.8645, 23.0564, 38.2544, -28.6215, -29.9142
2.844, 2, 17.8816, 15.8645, 23.0564, 38.2544, -28.6215, -29.9142
2.847, 2, 17.8816, 15.8645, 23.0564, 38.2544, -28.6215, -29.9142
2.852, 2, 17.8816, 15.8645, 23.0564, 38.2544, -28.6215, -29.9142
2.856, 2, 17.8816, 15.8645, 23.0564, 38.2544, -28.6215, -29.9142
2.86, 2, 17.8816, 15.8645, 23.0564, 38.2544, -28.6215, -29.9142
2.864, 2, 17.8816, 15.8645, 23.0564, 38.2544, -28.6215, -29.9142
2.867, 2, 17.8816, 15.8645, 23.0564, 38.2544, -28.6215, -29.9142
2.872, 2, 17.8816, 15.8645, 23.0564, 38.2544, -28.6215, -29.9142
2.876, 2, 17.8816, 15.8645, 23.0564, 38.2544, -28.6215, -29.9142
2.88, 2, 17.8816, 15.8645, 23.0564, 38.2544, -28.6215, -29.9142
2.883, 2, 17.8816, 15.8645, 23.0564, 38.2544, -28.6215, -29.9142
2.888, 2, 17.8816, 15.8645, 23.0564, 38.2544, -28.6215, -29.9142
2.892, 2, 17.8816, 15.8645, 23.0564, 38.2544, -28.6215, -29.9142
2.896, 2, 17.8816, 15.8645, 23.0564, 38.2544, -28.6215, -29.9142
2.9, 2, 17.8816, 15.8645, 23.0564, 38.2544, -28.6215, -29.9142
2.903, 2, 17.8816, 15.8645, 23.0564, 38.2544, -28.6215, -29.9142
2.908, 2, 17.8816, 15.8645, 23.0564, 38.2544, -28.6215, -29.9142
2.912, 2, 17.8816, 15.8645, 23.0564, 38.2544, -28.6215, -29.9142
2.916, 2, 17.8816, 15.8645, 23.0564, 38.2544, -28.6215, -29.9142
2.92, 2, 17.8816, 15.8645, 23.0564, 38.2544, -28.6215, -29.9142
2.923, 2, 17.8816, 15.8645, 23.0564, 38.2544, -28.6215, -29.9142
2.928, 2, 17.8816, 15.8645, 23.0564, 38.2544, -28.6215, -29.9142
2.932, 2, 17.8816, 15.8645, 23.0564, 38.2544, -28.6215, -29.9142
2.936, 2, 17.8816, 15.8645, 23.0564, 38.2544, -28.6215, -29.9142
2.939, 2, 17.8816, 15.8645, 23.0564, 38.2544, -28.6215, -29.9142
2.944, 2, 17.8816, 15.8645, 23.0564, 38.2544, -28.6215, -29.9142
2.948, 2, 17.8816, 15.8645, 23.0564, 38.2544, -28.6215, -29.9142
2.952, 2, 17.8816, 15.8645, 23.0564, 38.2544, -28.6215, -29.9142
2.956, 2, 17.8816, 15.8645, 23.0564, 38.2544, -28.6215, -29.9142
2.959, 2, 17.8816, 15.8645, 23.0564, 38.2544, -28.6215, -29.9142
2.964, 2, 17.8816, 15.8645, 23.0564, 38.2544, -28.6215, -29.9142
2.968, 2, 17.8816, 15.8645, 23.0564, 38.2544, -28.6215, -29.9142
2.972, 2, 17.8816, 15.8645, 23.0564, 38.2544, -28.6215, -29.9142
2.976, 2, 17.8816, 15.8645, 23.0564, 38.2544, -28.6215, -29.9142
2.98, 2, 17.8816, 15.8645, 23.0564, 38.2544, -28.6215, -29.9142
2.984, 2, 17.8816, 15.8645, 23.0564, 38.2544, -28.6215, -29.9142
2.988, 2, 17.8816, 15.8645, 23.0564, 38.2544, -28.6215, -29.9142
2.992, 2, 17.8816, 15.8645, 23.0564, 38.2544, -28.6215, -29.9142
2.995, 2, 17.8816, 15.8645, 23.0564, 38.2544, -28.6215, -29.9142
3, 2, 17.8816, 15.8645, 23.0564, 38.2544, -28.6215, -29.9142
3.004, 2, 17.8816, 15.8645, 23.0564, 38.2544, -28.6215, -29.9142
3.008, 2, 17.8816, 15.8645, 23.0564, 38.2544, -28.6215, -29.9142
3.012, 2, 17.8816, 15.8645, 23.0564, 38.2544, -28.6215, -29.9142
3.015, 2, 17.8816, 15.8645, 23.0564, 38.2544, -28.6215, -29.9142
3.02, 2, 17.8816, 15.8645, 23.0564, 38.2544, -28.6215, -29.9142
3.024, 2, 17.8816, 15.8645, 23.0564, 38.2544, -28.6215, -29.9142
3.028, 2, 17.8816, 15.8645, 23.0564, 38.2544, -28.6215, -29.9142
3.031, 2, 17.8816, 15.8645, 23.0564, 38.2544, -28.6215, -29.9142
3.036, 2, 17.8816, 15.8645, 23.0564, 38.2544, -28.6215, -29.9142
3.04, 2, 17.8816, 15.8645, 23.0564, 38.2544, -28.6215, -29.9142
3.044, 2, 17.8816, 15.8645, 23.0564, 38.2544, -28.6215, -29.9142
3.048, 2, 17.8816, 15.8645, 23.0564, 38.2544, -28.6215, -29.9142
3.051, 2, 17.8816, 15.8645, 23.0564, 38.2544, -28.6215, -29.9142
3.056, 2, 17.8816, 15.8645, 23.0564, 38.2544, -28.6215, -29.9142
3.06, 2, 17.8816, 15.8645, 23.0564, 38.2544, -28.6215, -29.9142
3.064, 2, 17.8816, 15.8645, 23.0564, 38.2544, -28.6215, -29.9142
3.068, 2, 17.8816, 15.8645, 23.0564, 38.2544, -28.6215, -29.9142
3.071, 2, 17.8816, 15.8645, 23.0564, 38.2544, -28.6215, -29.9142
3.076, 2, 17.8816, 15.8645, 23.0564, 38.2544, -28.6215, -29.9142
3.08, 2, 17.8816, 15.8645, 23.0564, 38.2544, -28.6215, -29.9142
3.084, 2, 17.8816, 15.8645, 23.0564, 38.2544, -28.6215, -29.9142
3.087, 2, 17.8816, 15.8645, 23.0564, 38.2544, -28.6215, -29.9142
3.092, 2, 17.8816, 15.8645, 23.0564, 38.2544, -28.6215, -29.9142
3.096, 2, 17.8816, 15.8645, 23.0564, 38.2544, -28.6215, -29.9142
3.1, 2, 17.8816, 15.8645, 23.0564, 38.2544, -28.6215, -29.9142
3.104, 2, 17.8816, 15.8645, 23.0564, 38.2544, -28.6215, -29.9142
3.107, 2, 17.8816, 15.8645, 23.0564, 38.2544, -28.6215, -29.9142
3.112, 2, 17.8816, 15.8645, 23.0564, 38.2544, -28.6215, -29.9142
3.116, 2, 17.8816, 15.8645, 23.0564, 38.2544, -28.6215, -29.9142
3.12, 2, 17.8816, 15.8645, 23.0564, 38.2544, -28.6215, -29.9142
3.124, 2, 17.8816, 15.8645, 23.0564, 38.2544, -28.6215, -29.9142
3.128, 2, 17.8816, 15.8645, 23.0564, 38.2544, -28.6215, -29.9142
3.132, 2, 17.8816, 15.8645, 23.0564, 38.2544, -28.6215, -29.9142
3.136, 2, 17.8816, 15.8645, 23.0564, 38.2544, -28.6215, -29.9142
3.14, 2, 17.8816, 15.8645, 23.0564, 38.2544, -28.6215, -29.9142
3.143, 2, 17.8816, 15.8645, 23.0564, 38.2544, -28.6215, -29.9142
3.148, 2, 17.8816, 15.8645, 23.0564, 38.2544, -28.6215, -29.9142
3.152, 2, 17.8816, 15.8645, 23.0564, 38.2544, -28.6215, -29.9142
3.156, 2, 17.8816, 15.8645, 23.0564, 38.2544, -28.6215, -29.9142
3.16, 2, 17.8816, 15.8645, 23.0564, 38.2544, -28.6215, -29.9142
3.163, 2, 17.8816, 15.8645, 23.0564, 38.2544, -28.6215, -29.9142
3.168, 2, 17.8816, 15.8645, 23.0564, 38.2544, -28.6215, -29.9142
3.172, 2, 17.8816, 15.8645, 23.0564, 38.2544, -28.6215, -29.9142
3.176, 2, 17.8816, 15.8645, 23.0564, 38.2544, -28.6215, -29.9142
3.179, 2, 17.8816, 15.8645, 23.0564, 38.2544, -28.6215, -29.9142
3.184, 2, 17.8816, 15.8645, 23.0564, 38.2544, -28.6215, -29.9142
3.188, 2, 17.8816, 15.8645, 23.0564, 38.2544, -28.6215, -29.9142
3.192, 2, 17.8816, 15.8645, 23.0564, 38.2544, -28.6215, -29.9142
3.196, 2, 17.8816, 15.8645, 23.0564, 38.2544, -28.6215, -29.9142
3.199, 2, 17.8816, 15.8645, 23.0564, 38.2544, -28.6215, -29.9142
3.204, 2, 17.8816, 15.8645, 23.0564, 38.2544, -28.6215, -29.9142
3.208, 2, 17.8816, 15.8645, 23.0564, 38.2544, -28.6215, -29.9142
3.212, 2, 17.8816, 15.8645, 23.0564, 38.2544, -28.6215, -29.9142
3.216, 2, 17.8816, 15.8645, 23.0564, 38.2544, -28.6215, -29.9142
3.22, 2, 17.8816, 15.8645, 23.0564, 38.2544, -28.6215, -29.9142
3.224, 2, 17.8816, 15.8645, 23.0564, 38.2544, -28.6215, -29.9142
3.228, 2, 17.8816, 15.8645, 23.0564, 38.2544, -28.6215, -29.9142
3.232, 2, 17.8816, 15.8645, 23.0564, 38.2544, -28.6215, -29.9142
3.235, 2, 17.8816, 15.8645, 23.0564, 38.2544, -28.6215, -29.9142
3.24, 2, 17.8816, 15.8645, 23.0564, 38.2544, -28.6215, -29.9142
3.244, 2, 17.8816, 15.8645, 23.0564, 38.2544, -28.6215, -29.9142
3.248, 2, 17.8816, 15.8645, 23.0564, 38.2544, -28.6215, -29.9142
3.252, 2, 17.8816, 15.8645, 23.0564, 38.2544, -28.6215, -29.9142
3.255, 2, 17.8816, 15.8645, 23.0564, 38.2544, -28.6215, -29.9142
3.26, 2, 17.8816, 15.8645, 23.0564, 38.2544, -28.6215, -29.9142
3.264, 2, 17.8816, 15.8645, 23.0564, 38.2544, -28.6215, -29.9142
3.268, 2, 17.8816, 15.8645, 23.0564, 38.2544, -28.6215, -29.9142
3.272, 2, 17.8816, 15.8645, 23.0564, 38.2544, -28.6215, -29.9142
3.276, 2, 17.8816, 15.8645, 23.0564, 38.2544, -28.6215, -29.9142
3.28, 2, 17.8816, 15.8645, 23.0564, 38.2544, -28.6215, -29.9142
3.284, 2, 17.8816, 15.8645, 23.0564, 38.2544, -28.6215, -29.9142
3.288, 2, 17.8816, 15.8645, 23.0564, 38.2544, -28.6215, -29.9142
3.291, 2, 17.8816, 15.8645, 23.0564, 38.2544, -28.6215, -29.9142
3.296, 2, 17.8816, 15.8645, 23.0564, 38.2544, -28.6215, -29.9142
3.3, 2, 17.8816, 15.8645, 23.0564, 38.2544, -28.6215, -29.9142
3.304, 2, 17.8816, 15.8645, 23.0564, 38.2544, -28.6215, -29.9142
3.308, 2, 17.8816, 15.8645, 23.0564, 38.2544, -28.6215, -29.9142
3.312, 2, 17.8816, 15.8645, 23.0564, 38.2544, -28.6215, -29.9142
3.316, 2, 17.8816, 15.8645, 23.0564, 38.2544, -28.6215, -29.9142
3.32, 2, 17.8816, 15.8645, 23.0564, 38.2544, -28.6215, -29.9142
3.324, 2, 17.8816, 15.8645, 23.0564, 38.2544, -28.6215, -29.9142
3.328, 2, 17.8816, 15.8645, 23.0564, 38.2544, -28.6215, -29.9142
3.332, 2, 17.8816, 15.8645, 23.0564, 38.2544, -28.6215, -29.9142
3.336, 2, 17.8816, 15.8645, 23.0564, 38.2544, -28.6215, -29.9142
3.34, 2, 17.8816, 15.8645, 23.0564, 38.2544, -28.6215, -29.9142
3.344, 2, 17.8816, 15.8645, 23.0564, 38.2544, -28.6215, -29.9142
3.347, 2, 17.8816, 15.8645, 23.0564, 38.2544, -28.6215, -29.9142
3.352, 4, 17.8816, 15.8645, 23.0564, 38.2544, -28.6215, -29.9142
3.356, 4, 17.8816, 15.8645, 23.0564, 38.2544, -28.6215, -29.9142
3.36, 4, 17.8816, 15.8645, 23.0564, 38.2544, -28.6215, -29.9142
3.364, 4, 17.8816, 15.8645, 23.0564, 38.2544, -28.6215, -29.9142
3.368, 4, 17.8816, 15.8645, 23.0564, 38.2544, -28.6215, -29.9142
3.372, 4, 17.8816, 15.8645, 23.0564, 38.2544, -28.6215, -29.9142
3.376, 4, 17.8816, 15.8645, 23.0564, 38.2544, -28.6215, -29.9142
3.38, 4, 17.8816, 15.8645, 23.0564, 38.2544, -28.6215, -29.9142
3.383, 4, 17.8816, 15.8645, 23.0564, 38.2544, -28.6215, -29.9142
3.388, 4, 17.8816, 15.8645, 23.0564, 38.2544, -28.6215, -29.9142
3.392, 4, 17.8816, 15.8645, 23.0564, 38.2544, -28.6215, -29.9142
3.396, 4, 17.8816, 15.8645, 23.0564, 38.2544, -28.6215, -29.9142
3.4, 4, 17.8816, 15.8645, 23.0564, 38.2544, -28.6215, -29.9142
3.403, 4, 17.8816, 15.8645, 23.0564, 38.2544, -28.6215, -29.9142
3.408, 4, 17.8816, 15.8645, 23.0564, 38.2544, -28.6215, -29.9142
3.412, 4, 17.8816, 15.8645, 23.0564, 38.2544, -28.6215, -29.9142
3.416, 4, 17.8816, 15.8645, 23.0564, 38.2544, -28.6215, -29.9142
3.42, 4, 17.8816, 15.8645, 23.0564, 38.2544, -28.6215, -29.9142
3.424, 4, 17.8816, 15.8645, 23.0564, 38.2544, -28.6215, -29.9142
3.428, 4, 17.8816, 15.8645, 23.0564, 38.2544, -28.6215, -29.9142
3.432, 4, 17.8816, 15.8645, 23.0564, 38.2544, -28.6215, -29.9142
3.436, 4, 17.8816, 15.8645, 23.0564, 38.2544, -28.6215, -29.9142
3.439, 4, 17.8816, 15.8645, 23.0564, 38.2544, -28.6215, -29.9142
3.444, 4, 17.8816, 15.8645, 23.0564, 38.2544, -28.6215, -29.9142
3.448, 4, 17.8816, 15.8645, 23.0564, 38.2544, -28.6215, -29.9142
3.452, 4, 17.8816, 15.8645, 23.0564, 38.2544, -28.6215, -29.9142
3.456, 4, 17.8816, 15.8645, 23.0564, 38.2544, -28.6215, -29.9142
3.46, 4, 17.8816, 15.8645, 23.0564, 38.2544, -28.6215, -29.9142
3.464, 4, 17.8816, 15.8645, 23.0564, 38.2544, -28.6215, -29.9142
3.468, 4, 17.8816, 15.8645, 23.0564, 38.2544, -28.6215, -29.9142
3.472, 4, 17.8816, 15.8645, 23.0564, 38.2544, -28.6215, -29.9142
3.476, 4, 17.8816, 15.8645, 23.0564, 38.2544, -28.6215, -29.9142
3.48, 4, 17.8816, 15.8645, 23.0564, 38.2544, -28.6215, -29.9142
3.484, 4, 17.8816, 15.8645, 23.0564, 38.2544, -28.6215, -29.9142
3.488, 4, 17.8816, 15.8645, 23.0564, 38.2544, -28.6215, -29.9142
3.492, 4, 17.8816, 15.8645, 23.0564, 38.2544, -28.6215, -29.9142
3.495, 4, 17.8816, 15.8645, 23.0564, 38.2544, -28.6215, -29.9142
3.5, 4, 17.8815, 15.8645, 23.0564, 38.2544, -28.6215, -29.9142
3.504, 4, 17.8812, 15.8645, 23.0564, 38.2543, -28.6215, -29.9142
3.508, 4, 17.8806, 15.8645, 23.0565, 38.2542, -28.6216, -29.9141
3.512, 4, 17.8796, 15.8645, 23.0566, 38.254, -28.6217, -29.9139
3.516, 4, 17.8782, 15.8644, 23.0568, 38.2534, -28.6219, -29.9134
3.52, 4, 17.8763, 15.8643, 23.0573, 38.2523, -28.6223, -29.9124
3.524, 4, 17.8742, 15.8642, 23.0579, 38.2504, -28.623, -29.9107
3.528, 4, 17.8719, 15.8639, 23.0589, 38.2474, -28.624, -29.9081
3.531, 4, 17.8695, 15.8636, 23.0603, 38.243, -28.6256, -29.9042
3.536, 4, 17.867, 15.8631, 23.0622, 38.2369, -28.6278, -29.8989
3.54, 4, 17.8644, 15.8626, 23.0647, 38.2291, -28.6306, -29.8919
3.544, 5, 17.8617, 15.8618, 23.0677, 38.2193, -28.6341, -29.8832
3.548, 5, 17.8586, 15.8609, 23.0713, 38.2074, -28.6383, -29.8726
3.552, 5, 17.8554, 15.8599, 23.0756, 38.1933, -28.6433, -29.8602
3.556, 5, 17.852, 15.8587, 23.0805, 38.1771, -28.6491, -29.8458
3.56, 5, 17.8485, 15.8574, 23.0861, 38.1589, -28.6556, -29.8296
3.564, 5, 17.845, 15.8559, 23.0922, 38.1387, -28.6628, -29.8117
3.568, 5, 17.8415, 15.8543, 23.0988, 38.1168, -28.6706, -29.7923
3.572, 5, 17.8378, 15.8526, 23.1058, 38.0934, -28.679, -29.7715
3.576, 5, 17.8338, 15.8509, 23.1132, 38.0689, -28.6877, -29.7497
3.58, 5, 17.8294, 15.849, 23.1209, 38.0434, -28.6969, -29.7271
3.584, 5, 17.8246, 15.8471, 23.1289, 38.0172, -28.7062, -29.7039
3.587, 5, 17.8194, 15.8452, 23.1369, 37.9906, -28.7158, -29.6804
3.592, 5, 17.8138, 15.8432, 23.1451, 37.9637, -28.7254, -29.6565
3.596, 5, 17.808, 15.8412, 23.1534, 37.9366, -28.7352, -29.6325
3.6, 5, 17.802, 15.8392, 23.1617, 37.9094, -28.745, -29.6083
3.604, 5, 17.7959, 15.8373, 23.17, 37.8821, -28.7548, -29.5841
3.608, 5, 17.7897, 15.8353, 23.1784, 37.8547, -28.7647, -29.5598
3.612, 5, 17.7835, 15.8333, 23.1868, 37.8273, -28.7746, -29.5355
3.616, 5, 17.7772, 15.8313, 23.1952, 37.7998, -28.7845, -29.5112
3.62, 5, 17.771, 15.8293, 23.2036, 37.7724, -28.7944, -29.4869
3.624, 5, 17.7646, 15.8273, 23.2119, 37.745, -28.8043, -29.4626
3.628, 5, 17.7583, 15.8253, 23.2203, 37.7176, -28.8143, -29.4383
3.632, 5, 17.752, 15.8233, 23.2287, 37.6901, -28.8242, -29.414
3.636, 5, 17.7457, 15.8213, 23.2371, 37.6627, -28.8342, -29.3898
3.64, 5, 17.7393, 15.8193, 23.2455, 37.6353, -28.8442, -29.3655
3.644, 5, 17.733, 15.8173, 23.2539, 37.608, -28.8541, -29.3412
3.648, 5, 17.7267, 15.8153, 23.2623, 37.5806, -28.8641, -29.317
3.652, 5, 17.7203, 15.8133, 23.2707, 37.5532, -28.8741, -29.2928
3.656, 5, 17.714, 15.8114, 23.2791, 37.5259, -28.8841, -29.2686
3.66, 5, 17.7076, 15.8094, 23.2874, 37.4986, -28.8941, -29.2444
3.664, 5, 17.7013, 15.8074, 23.2958, 37.4713, -28.9041, -29.2202
3.668, 5, 17.6949, 15.8054, 23.3042, 37.444, -28.9141, -29.1961
3.672, 5, 17.6886, 15.8035, 23.3126, 37.4167, -28.9241, -29.1719
3.676, 5, 17.6822, 15.8015, 23.3209, 37.3895, -28.9341, -29.1478
3.679, 5, 17.6759, 15.7995, 23.3293, 37.3622, -28.9441, -29.1237
3.684, 5, 17.6695, 15.7976, 23.3377, 37.335, -28.9541, -29.0996
3.688, 5, 17.6632, 15.7956, 23.346, 37.3078, -28.9642, -29.0755
3.692, 5, 17.6568, 15.7937, 23.3544, 37.2806, -28.9742, -29.0515
3.696, 5, 17.6505, 15.7917, 23.3627, 37.2534, -28.9842, -29.0274
3.7, 5, 17.6441, 15.7898, 23.3711, 37.2262, -28.9943, -29.0034
3.704, 5, 17.6378, 15.7878, 23.3794, 37.1991, -29.0043, -28.9794
3.708, 5, 17.6314, 15.7859, 23.3878, 37.172, -29.0144, -28.9554
3.712, 5, 17.6251, 15.7839, 23.3961, 37.1448, -29.0245, -28.9314
3.716, 5, 17.6187, 15.782, 23.4045, 37.1177, -29.0345, -28.9074
3.72, 5, 17.6123, 15.7801, 23.4128, 37.0907, -29.0446, -28.8835
3.724, 5, 17.606, 15.7781, 23.4211, 37.0636, -29.0547, -28.8596
3.728, 5, 17.5996, 15.7762, 23.4295, 37.0365, -29.0648, -28.8356
3.732, 5, 17.5932, 15.7743, 23.4378, 37.0095, -29.0748, -28.8117
3.735, 5, 17.5869, 15.7723, 23.4461, 36.9825, -29.0849, -28.7879
3.74, 5, 17.5805, 15.7704, 23.4545, 36.9555, -29.095, -28.764
3.744, 5, 17.5742, 15.7685, 23.4628, 36.9285, -29.1051, -28.7401
3.748, 5, 17.5678, 15.7666, 23.4711, 36.9015, -29.1153, -28.7163
3.752, 5, 17.5614, 15.7647, 23.4794, 36.8745, -29.1254, -28.6925
3.756, 5, 17.555, 15.7627, 23.4877, 36.8476, -29.1355, -28.6687
3.76, 5, 17.5487, 15.7608, 23.4961, 36.8207, -29.1456, -28.6449
3.764, 5, 17.5423, 15.7589, 23.5044, 36.7938, -29.1557, -28.6211
3.768, 5, 17.5359, 15.757, 23.5127, 36.7669, -29.1659, -28.5973
3.772, 5, 17.5296, 15.7551, 23.521, 36.74, -29.176, -28.5736
3.776, 5, 17.5232, 15.7532, 23.5293, 36.7131, -29.1862, -28.5499
3.78, 5, 17.5168, 15.7513, 23.5376, 36.6863, -29.1963, -28.5262
3.784, 5, 17.5104, 15.7494, 23.5459, 36.6594, -29.2065, -28.5025
3.788, 5, 17.5041, 15.7475, 23.5542, 36.6326, -29.2166, -28.4788
3.792, 5, 17.4977, 15.7456, 23.5625, 36.6058, -29.2268, -28.4551
3.796, 5, 17.4913, 15.7438, 23.5707, 36.579, -29.237, -28.4315
3.8, 5, 17.4849, 15.7419, 23.579, 36.5523, -29.2471, -28.4078
3.804, 5, 17.4786, 15.74, 23.5873, 36.5255, -29.2573, -28.3842
3.808, 5, 17.4722, 15.7381, 23.5956, 36.4988, -29.2675, -28.3606
3.812, 5, 17.4658, 15.7362, 23.6039, 36.472, -29.2777, -28.337
3.816, 5, 17.4594, 15.7344, 23.6121, 36.4453, -29.2879, -28.3135
3.82, 5, 17.453, 15.7325, 23.6204, 36.4186, -29.2981, -28.2899
3.824, 5, 17.4466, 15.7306, 23.6287, 36.392, -29.3083, -28.2664
3.828, 5, 17.4403, 15.7288, 23.6369, 36.3653, -29.3185, -28.2429
3.832, 5, 17.4339, 15.7269, 23.6452, 36.3387, -29.3287, -28.2194
3.836, 5, 17.4275, 15.725, 23.6535, 36.312, -29.3389, -28.1959
3.84, 5, 17.4211, 15.7232, 23.6617, 36.2854, -29.3492, -28.1724
3.844, 5, 17.4147, 15.7213, 23.67, 36.2588, -29.3594, -28.1489
3.848, 5, 17.4083, 15.7195, 23.6782, 36.2322, -29.3696, -28.1255
3.852, 5, 17.4019, 15.7176, 23.6865, 36.2057, -29.3799, -28.1021
3.856, 5, 17.3955, 15.7158, 23.6947, 36.1791, -29.3901, -28.0786
3.86, 5, 17.3891, 15.7139, 23.703, 36.1526, -29.4004, -28.0553
3.864, 5, 17.3827, 15.7121, 23.7112, 36.126, -29.4106, -28.0319
3.868, 5, 17.3763, 15.7102, 23.7195, 36.0995, -29.4209, -28.0085
3.872, 5, 17.37, 15.7084, 23.7277, 36.0731, -29.4312, -27.9852
3.876, 5, 17.3636, 15.7066, 23.7359, 36.0466, -29.4415, -27.9618
3.88, 5, 17.3572, 15.7047, 23.7442, 36.0201, -29.4517, -27.9385
3.884, 5, 17.3508, 15.7029, 23.7524, 35.9937, -29.462, -27.9152
3.888, 5, 17.3444, 15.7011, 23.7606, 35.9672, -29.4723, -27.8919
3.892, 5, 17.338, 15.6993, 23.7688, 35.9408, -29.4826, -27.8687
3.896, 5, 17.3316, 15.6974, 23.777, 35.9144, -29.4929, -27.8454
3.9, 5, 17.3252, 15.6956, 23.7853, 35.8881, -29.5032, -27.8222
3.904, 5, 17.3188, 15.6938, 23.7935, 35.8617, -29.5135, -27.7989
3.908, 5, 17.3123, 15.692, 23.8017, 35.8353, -29.5238, -27.7757
3.912, 5, 17.3059, 15.6902, 23.8099, 35.809, -29.5341, -27.7525
3.916, 5, 17.2995, 15.6884, 23.8181, 35.7827, -29.5445, -27.7294
3.92, 5, 17.2931, 15.6866, 23.8263, 35.7564, -29.5548, -27.7062
3.924, 5, 17.2867, 15.6848, 23.8345, 35.7301, -29.5651, -27.6831
3.928, 5, 17.2803, 15.683, 23.8427, 35.7038, -29.5755, -27.6599
3.932, 5, 17.2739, 15.6812, 23.8509, 35.6776, -29.5858, -27.6368
3.936, 5, 17.2675, 15.6794, 23.8591, 35.6513, -29.5962, -27.6137
3.94, 5, 17.2611, 15.6776, 23.8673, 35.6251, -29.6065, -27.5907
3.944, 5, 17.2547, 15.6758, 23.8755, 35.5989, -29.6169, -27.5676
3.948, 5, 17.2483, 15.674, 23.8837, 35.5727, -29.6272, -27.5445
3.952, 5, 17.2418, 15.6722, 23.8918, 35.5465, -29.6376, -27.5215
3.956, 5, 17.2354, 15.6705, 23.9, 35.5203, -29.648, -27.4985
3.96, 5, 17.229, 15.6687, 23.9082, 35.4942, -29.6584, -27.4755
3.964, 5, 17.2226, 15.6669, 23.9164, 35.4681, -29.6688, -27.4525
3.968, 5, 17.2162, 15.6651, 23.9245, 35.4419, -29.6791, -27.4295
3.972, 5, 17.2098, 15.6634, 23.9327, 35.4158, -29.6895, -27.4066
3.976, 5, 17.2033, 15.6616, 23.9409, 35.3898, -29.6999, -27.3836
3.98, 5, 17.1969, 15.6598, 23.949, 35.3637, -29.7103, -27.3607
3.984, 5, 17.1905, 15.6581, 23.9572, 35.3376, -29.7208, -27.3378
3.988, 5, 17.1841, 15.6563, 23.9653, 35.3116, -29.7312, -27.3149
3.992, 5, 17.1776, 15.6546, 23.9735, 35.2856, -29.7416, -27.292
3.996, 5, 17.1712, 15.6528, 23.9816, 35.2595, -29.752, -27.2692
3.999, 5, 17.1648, 15.651, 23.9898, 35.2336, -29.7624, -27.2463
4.004, 5, 17.1584, 15.6493, 23.9979, 35.2076, -29.7729, -27.2235
4.008, 5, 17.1519, 15.6476, 24.0061, 35.1816, -29.7833, -27.2007
4.012, 5, 17.1455, 15.6458, 24.0142, 35.1557, -29.7938, -27.1779
4.016, 5, 17.1391, 15.6441, 24.0224, 35.1297, -29.8042, -27.1551
4.02, 5, 17.1326, 15.6423, 24.0305, 35.1038, -29.8147, -27.1323
4.024, 5, 17.1262, 15.6406, 24.0386, 35.0779, -29.8251, -27.1096
4.028, 5, 17.1198, 15.6389, 24.0468, 35.052, -29.8356, -27.0868
4.032, 5, 17.1133, 15.6371, 24.0549, 35.0261, -29.8461, -27.0641
4.036, 5, 17.1069, 15.6354, 24.063, 35.0003, -29.8565, -27.0414
4.04, 5, 17.1005, 15.6337, 24.0711, 34.9744, -29.867, -27.0187
4.044, 5, 17.094, 15.632, 24.0792, 34.9486, -29.8775, -26.996
4.048, 5, 17.0876, 15.6302, 24.0874, 34.9228, -29.888, -26.9734
4.052, 5, 17.0812, 15.6285, 24.0955, 34.897, -29.8985, -26.9507
4.056, 5, 17.0747, 15.6268, 24.1036, 34.8712, -29.909, -26.9281
4.06, 5, 17.0683, 15.6251, 24.1117, 34.8455, -29.9195, -26.9055
4.064, 5, 17.0618, 15.6234, 24.1198, 34.8197, -29.93, -26.8829
4.068, 5, 17.0554, 15.6217, 24.1279, 34.794, -29.9405, -26.8603
4.072, 5, 17.049, 15.62, 24.136, 34.7683, -29.951, -26.8377
4.076, 5, 17.0425, 15.6183, 24.1441, 34.7426, -29.9616, -26.8152
4.08, 5, 17.0361, 15.6166, 24.1522, 34.7169, -29.9721, -26.7926
4.084, 5, 17.0296, 15.6149, 24.1603, 34.6912, -29.9826, -26.7701
4.088, 5, 17.0232, 15.6132, 24.1684, 34.6655, -29.9932, -26.7476
4.092, 5, 17.0167, 15.6115, 24.1765, 34.6399, -30.0037, -26.7251
4.096, 5, 17.0103, 15.6098, 24.1845, 34.6143, -30.0142, -26.7026
4.1, 5, 17.0038, 15.6081, 24.1926, 34.5886, -30.0248, -26.6802
4.104, 5, 16.9974, 15.6064, 24.2007, 34.563, -30.0354, -26.6577
4.108, 5, 16.9909, 15.6048, 24.2088, 34.5375, -30.0459, -26.6353
4.112, 5, 16.9845, 15.6031, 24.2168, 34.5119, -30.0565, -26.6129
4.116, 5, 16.978, 15.6014, 24.2249, 34.4863, -30.0671, -26.5905
4.12, 5, 16.9716, 15.5997, 24.233, 34.4608, -30.0776, -26.5681
4.124, 5, 16.9651, 15.5981, 24.241, 34.4353, -30.0882, -26.5457
4.128, 5, 16.9587, 15.5964, 24.2491, 34.4098, -30.0988, -26.5234
4.132, 5, 16.9522, 15.5947, 24.2572, 34.3843, -30.1094, -26.501
4.136, 5, 16.9458, 15.5931, 24.2652, 34.3588, -30.12, -26.4787
4.14, 5, 16.9393, 15.5914, 24.2733, 34.3333, -30.1306, -26.4564
4.144, 5, 16.9328, 15.5898, 24.2813, 34.3079, -30.1412, -26.4341
4.148, 5, 16.9264, 15.5881, 24.2894, 34.2825, -30.1518, -26.4118
4.152, 5, 16.9199, 15.5865, 24.2974, 34.257, -30.1624, -26.3896
4.156, 5, 16.9135, 15.5848, 24.3055, 34.2316, -30.173, -26.3673
4.16, 5, 16.907, 15.5832, 24.3135, 34.2062, -30.1837, -26.3451
4.164, 5, 16.9005, 15.5815, 24.3215, 34.1809, -30.1943, -26.3229
4.168, 5, 16.8941, 15.5799, 24.3296, 34.1555, -30.2049, -26.3007
4.172, 5, 16.8876, 15.5782, 24.3376, 34.1302, -30.2156, -26.2785
4.176, 5, 16.8811, 15.5766, 24.3456, 34.1048, -30.2262, -26.2563
4.18, 5, 16.8747, 15.575, 24.3537, 34.0795, -30.2369, -26.2341
4.184, 5, 16.8682, 15.5733, 24.3617, 34.0542, -30.2475, -26.212
4.188, 5, 16.8617, 15.5717, 24.3697, 34.0289, -30.2582, -26.1899
4.192, 5, 16.8553, 15.5701, 24.3777, 34.0037, -30.2688, -26.1678
4.196, 5, 16.8488, 15.5685, 24.3857, 33.9784, -30.2795, -26.1457
4.2, 5, 16.8423, 15.5668, 24.3938, 33.9532, -30.2902, -26.1236
4.204, 5, 16.8358, 15.5652, 24.4018, 33.928, -30.3009, -26.1015
4.208, 5, 16.8294, 15.5636, 24.4098, 33.9027, -30.3115, -26.0795
4.212, 5, 16.8229, 15.562, 24.4178, 33.8775, -30.3222, -26.0574
4.216, 5, 16.8164, 15.5604, 24.4258, 33.8524, -30.3329, -26.0354
4.22, 5, 16.8099, 15.5588, 24.4338, 33.8272, -30.3436, -26.0134
4.224, 5, 16.8035, 15.5572, 24.4418, 33.8021, -30.3543, -25.9914
4.228, 5, 16.797, 15.5556, 24.4498, 33.7769, -30.365, -25.9694
4.232, 5, 16.7905, 15.554, 24.4578, 33.7518, -30.3757, -25.9475
4.236, 5, 16.784, 15.5524, 24.4658, 33.7267, -30.3864, -25.9255
4.24, 5, 16.7775, 15.5508, 24.4738, 33.7016, -30.3972, -25.9036
4.244, 5, 16.7711, 15.5492, 24.4817, 33.6765, -30.4079, -25.8817
4.248, 5, 16.7646, 15.5476, 24.4897, 33.6515, -30.4186, -25.8598
4.252, 5, 16.7581, 15.546, 24.4977, 33.6264, -30.4294, -25.8379
4.256, 5, 16.7516, 15.5444, 24.5057, 33.6014, -30.4401, -25.816
4.26, 5, 16.7451, 15.5429, 24.5136, 33.5764, -30.4508, -25.7942
4.264, 5, 16.7386, 15.5413, 24.5216, 33.5514, -30.4616, -25.7723
4.268, 5, 16.7322, 15.5397, 24.5296, 33.5264, -30.4723, -25.7505
4.272, 5, 16.7257, 15.5381, 24.5375, 33.5014, -30.4831, -25.7287
4.276, 5, 16.7192, 15.5366, 24.5455, 33.4764, -30.4939, -25.7069
4.28, 5, 16.7127, 15.535, 24.5535, 33.4515, -30.5046, -25.6851
4.284, 5, 16.7062, 15.5334, 24.5614, 33.4266, -30.5154, -25.6633
4.288, 5, 16.6997, 15.5319, 24.5694, 33.4017, -30.5262, -25.6416
4.292, 5, 16.6932, 15.5303, 24.5773, 33.3768, -30.537, -25.6198
4.296, 5, 16.6867, 15.5288, 24.5853, 33.3519, -30.5477, -25.5981
4.3, 5, 16.6802, 15.5272, 24.5932, 33.327, -30.5585, -25.5764
4.304, 5, 16.6737, 15.5257, 24.6012, 33.3022, -30.5693, -25.5547
4.308, 5, 16.6672, 15.5241, 24.6091, 33.2773, -30.5801, -25.533
4.312, 5, 16.6607, 15.5226, 24.617, 33.2525, -30.5909, -25.5114
4.316, 5, 16.6542, 15.521, 24.625, 33.2277, -30.6017, -25.4897
4.32, 5, 16.6477, 15.5195, 24.6329, 33.2029, -30.6125, -25.4681
4.324, 5, 16.6412, 15.5179, 24.6408, 33.1781, -30.6234, -25.4465
4.328, 5, 16.6347, 15.5164, 24.6488, 33.1533, -30.6342, -25.4249
4.332, 5, 16.6282, 15.5149, 24.6567, 33.1286, -30.645, -25.4033
4.336, 5, 16.6217, 15.5134, 24.6646, 33.1038, -30.6558, -25.3817
4.34, 5, 16.6152, 15.5118, 24.6725, 33.0791, -30.6667, -25.3601
4.344, 5, 16.6087, 15.5103, 24.6804, 33.0544, -30.6775, -25.3386
4.348, 5, 16.6022, 15.5088, 24.6884, 33.0297, -30.6884, -25.3171
4.352, 5, 16.5957, 15.5073, 24.6963, 33.005, -30.6992, -25.2955
4.356, 5, 16.5892, 15.5057, 24.7042, 32.9804, -30.7101, -25.274
4.36, 5, 16.5827, 15.5042, 24.7121, 32.9557, -30.7209, -25.2526
4.364, 5, 16.5762, 15.5027, 24.72, 32.9311, -30.7318, -25.2311
4.368, 5, 16.5697, 15.5012, 24.7279, 32.9064, -30.7427, -25.2096
4.372, 5, 16.5632, 15.4997, 24.7358, 32.8818, -30.7535, -25.1882
4.376, 5, 16.5566, 15.4982, 24.7437, 32.8572, -30.7644, -25.1668
4.38, 5, 16.5501, 15.4967, 24.7516, 32.8327, -30.7753, -25.1453
4.384, 5, 16.5436, 15.4952, 24.7594, 32.8081, -30.7862, -25.1239
4.388, 5, 16.5371, 15.4937, 24.7673, 32.7836, -30.7971, -25.1026
4.392, 5, 16.5306, 15.4922, 24.7752, 32.759, -30.808, -25.0812
4.396, 5, 16.5241, 15.4907, 24.7831, 32.7345, -30.8189, -25.0598
4.4, 5, 16.5175, 15.4892, 24.791, 32.71, -30.8298, -25.0385
4.404, 5, 16.511, 15.4878, 24.7988, 32.6855, -30.8407, -25.0172
4.408, 5, 16.5045, 15.4863, 24.8067, 32.661, -30.8516, -24.9959
4.412, 5, 16.498, 15.4848, 24.8146, 32.6366, -30.8625, -24.9746
4.416, 5, 16.4915, 15.4833, 24.8225, 32.6121, -30.8734, -24.9533
4.42, 5, 16.4849, 15.4819, 24.8303, 32.5877, -30.8843, -24.932
4.424, 5, 16.4784, 15.4804, 24.8382, 32.5632, -30.8953, -24.9108
4.428, 5, 16.4719, 15.4789, 24.846, 32.5388, -30.9062, -24.8895
4.432, 5, 16.4654, 15.4775, 24.8539, 32.5145, -30.9172, -24.8683
4.436, 5, 16.4588, 15.476, 24.8617, 32.4901, -30.9281, -24.8471
4.44, 5, 16.4523, 15.4745, 24.8696, 32.4657, -30.939, -24.8259
4.444, 5, 16.4458, 15.4731, 24.8774, 32.4414, -30.95, -24.8047
4.448, 5, 16.4393, 15.4716, 24.8853, 32.417, -30.961, -24.7835
4.452, 5, 16.4327, 15.4702, 24.8931, 32.3927, -30.9719, -24.7624
4.456, 5, 16.4262, 15.4687, 24.901, 32.3684, -30.9829, -24.7413
4.46, 5, 16.4197, 15.4673, 24.9088, 32.3441, -30.9939, -24.7201
4.464, 5, 16.4131, 15.4658, 24.9166, 32.3198, -31.0048, -24.699
4.468, 5, 16.4066, 15.4644, 24.9245, 32.2956, -31.0158, -24.6779
4.472, 5, 16.4001, 15.463, 24.9323, 32.2713, -31.0268, -24.6569
4.476, 5, 16.3935, 15.4615, 24.9401, 32.2471, -31.0378, -24.6358
4.48, 5, 16.387, 15.4601, 24.9479, 32.2229, -31.0488, -24.6147
4.484, 5, 16.3805, 15.4587, 24.9557, 32.1987, -31.0598, -24.5937
4.488, 5, 16.3739, 15.4572, 24.9636, 32.1745, -31.0708, -24.5727
4.492, 5, 16.3674, 15.4558, 24.9714, 32.1503, -31.0818, -24.5517
4.496, 5, 16.3608, 15.4544, 24.9792, 32.1261, -31.0928, -24.5307
4.5, 5, 16.3543, 15.453, 24.987, 32.102, -31.1038, -24.5097
4.504, 5, 16.3478, 15.4516, 24.9948, 32.0778, -31.1148, -24.4887
4.508, 5, 16.3412, 15.4501, 25.0026, 32.0537, -31.1259, -24.4678
4.512, 5, 16.3347, 15.4487, 25.0104, 32.0296, -31.1369, -24.4469
4.516, 5, 16.3281, 15.4473, 25.0182, 32.0055, -31.1479, -24.4259
4.52, 5, 16.3216, 15.4459, 25.026, 31.9814, -31.159, -24.405
4.524, 5, 16.315, 15.4445, 25.0338, 31.9574, -31.17, -24.3841
4.528, 5, 16.3085, 15.4431, 25.0416, 31.9333, -31.1811, -24.3633
4.532, 5, 16.3019, 15.4417, 25.0494, 31.9093, -31.1921, -24.3424
4.536, 5, 16.2954, 15.4403, 25.0571, 31.8853, -31.2032, -24.3215
4.54, 5, 16.2888, 15.4389, 25.0649, 31.8613, -31.2142, -24.3007
4.544, 5, 16.2823, 15.4375, 25.0727, 31.8373, -31.2253, -24.2799
4.548, 5, 16.2757, 15.4362, 25.0805, 31.8133, -31.2364, -24.2591
4.552, 5, 16.2692, 15.4348, 25.0882, 31.7893, -31.2474, -24.2383
4.556, 5, 16.2626, 15.4334, 25.096, 31.7654, -31.2585, -24.2175
4.56, 5, 16.2561, 15.432, 25.1038, 31.7414, -31.2696, -24.1968
4.564, 5, 16.2495, 15.4306, 25.1115, 31.7175, -31.2807, -24.176
4.568, 5, 16.243, 15.4293, 25.1193, 31.6936, -31.2918, -24.1553
4.572, 5, 16.2364, 15.4279, 25.1271, 31.6697, -31.3029, -24.1345
4.576, 5, 16.2299, 15.4265, 25.1348, 31.6458, -31.314, -24.1138
4.58, 5, 16.2233, 15.4252, 25.1426, 31.622, -31.3251, -24.0931
4.584, 5, 16.2167, 15.4238, 25.1503, 31.5981, -31.3362, -24.0725
4.588, 5, 16.2102, 15.4224, 25.1581, 31.5743, -31.3473, -24.0518
4.592, 5, 16.2036, 15.4211, 25.1658, 31.5504, -31.3584, -24.0312
4.596, 5, 16.1971, 15.4197, 25.1735, 31.5266, -31.3695, -24.0105
4.6, 5, 16.1905, 15.4184, 25.1813, 31.5028, -31.3806, -23.9899
4.604, 5, 16.1839, 15.417, 25.189, 31.479, -31.3918, -23.9693
4.608, 5, 16.1774, 15.4157, 25.1967, 31.4553, -31.4029, -23.9487
4.612, 5, 16.1708, 15.4143, 25.2045, 31.4315, -31.414, -23.9281
4.616, 5, 16.1642, 15.413, 25.2122, 31.4078, -31.4252, -23.9076
4.62, 5, 16.1577, 15.4117, 25.2199, 31.384, -31.4363, -23.887
4.624, 5, 16.1511, 15.4103, 25.2277, 31.3603, -31.4475, -23.8665
4.628, 5, 16.1445, 15.409, 25.2354, 31.3366, -31.4586, -23.8459
4.632, 5, 16.1379, 15.4077, 25.2431, 31.3129, -31.4698, -23.8254
4.636, 5, 16.1314, 15.4064, 25.2508, 31.2893, -31.481, -23.8049
4.64, 5, 16.1248, 15.405, 25.2585, 31.2656, -31.4921, -23.7845
4.644, 5, 16.1182, 15.4037, 25.2662, 31.242, -31.5033, -23.764
4.648, 5, 16.1117, 15.4024, 25.2739, 31.2183, -31.5145, -23.7435
4.652, 5, 16.1051, 15.4011, 25.2816, 31.1947, -31.5257, -23.7231
4.656, 5, 16.0985, 15.3998, 25.2893, 31.1711, -31.5368, -23.7027
4.66, 5, 16.0919, 15.3985, 25.297, 31.1475, -31.548, -23.6823
4.664, 5, 16.0853, 15.3971, 25.3047, 31.124, -31.5592, -23.6619
4.668, 5, 16.0788, 15.3958, 25.3124, 31.1004, -31.5704, -23.6415
4.672, 5, 16.0722, 15.3945, 25.3201, 31.0768, -31.5816, -23.6211
4.676, 5, 16.0656, 15.3932, 25.3278, 31.0533, -31.5928, -23.6008
4.68, 5, 16.059, 15.3919, 25.3355, 31.0298, -31.604, -23.5804
4.684, 5, 16.0524, 15.3907, 25.3431, 31.0063, -31.6152, -23.5601
4.688, 5, 16.0459, 15.3894, 25.3508, 30.9828, -31.6265, -23.5398
4.692, 5, 16.0393, 15.3881, 25.3585, 30.9593, -31.6377, -23.5195
4.696, 5, 16.0327, 15.3868, 25.3662, 30.9358, -31.6489, -23.4992
4.7, 5, 16.0261, 15.3855, 25.3738, 30.9124, -31.6602, -23.4789
4.704, 5, 16.0195, 15.3842, 25.3815, 30.889, -31.6714, -23.4587
4.708, 5, 16.0129, 15.3829, 25.3891, 30.8655, -31.6826, -23.4384
4.712, 5, 16.0063, 15.3817, 25.3968, 30.8421, -31.6939, -23.4182
4.716, 5, 15.9998, 15.3804, 25.4045, 30.8187, -31.7051, -23.398
4.72, 5, 15.9932, 15.3791, 25.4121, 30.7953, -31.7164, -23.3778
4.724, 5, 15.9866, 15.3779, 25.4198, 30.772, -31.7276, -23.3576
4.728, 5, 15.98, 15.3766, 25.4274, 30.7486, -31.7389, -23.3374
4.732, 5, 15.9734, 15.3753, 25.4351, 30.7253, -31.7502, -23.3173
4.736, 5, 15.9668, 15.3741, 25.4427, 30.7019, -31.7614, -23.2971
4.74, 5, 15.9602, 15.3728, 25.4503, 30.6786, -31.7727, -23.277
4.744, 5, 15.9536, 15.3716, 25.458, 30.6553, -31.784, -23.2569
4.748, 5, 15.947, 15.3703, 25.4656, 30.632, -31.7953, -23.2368
4.752, 5, 15.9404, 15.3691, 25.4732, 30.6088, -31.8065, -23.2167
4.756, 5, 15.9338, 15.3678, 25.4809, 30.5855, -31.8178, -23.1966
4.76, 5, 15.9272, 15.3666, 25.4885, 30.5623, -31.8291, -23.1765
4.764, 5, 15.9206, 15.3654, 25.4961, 30.539, -31.8404, -23.1565
4.768, 5, 15.914, 15.3641, 25.5037, 30.5158, -31.8517, -23.1364
4.772, 5, 15.9074, 15.3629, 25.5114, 30.4926, -31.863, -23.1164
4.776, 5, 15.9008, 15.3617, 25.519, 30.4694, -31.8743, -23.0964
4.78, 5, 15.8942, 15.3604, 25.5266, 30.4462, -31.8857, -23.0764
4.784, 5, 15.8876, 15.3592, 25.5342, 30.4231, -31.897, -23.0564
4.788, 5, 15.881, 15.358, 25.5418, 30.3999, -31.9083, -23.0365
4.792, 5, 15.8744, 15.3568, 25.5494, 30.3768, -31.9196, -23.0165
4.796, 5, 15.8678, 15.3556, 25.557, 30.3536, -31.931, -22.9966
4.8, 5, 15.8612, 15.3543, 25.5646, 30.3305, -31.9423, -22.9767
4.804, 5, 15.8545, 15.3531, 25.5722, 30.3074, -31.9536, -22.9567
4.808, 5, 15.8479, 15.3519, 25.5798, 30.2844, -31.965, -22.9368
4.812, 5, 15.8413, 15.3507, 25.5874, 30.2613, -31.9763, -22.917
4.816, 5, 15.8347, 15.3495, 25.595, 30.2382, -31.9877, -22.8971
4.82, 5, 15.8281, 15.3483, 25.6026, 30.2152, -31.999, -22.8772
4.824, 5, 15.8215, 15.3471, 25.6101, 30.1922, -32.0104, -22.8574
4.828, 5, 15.8149, 15.3459, 25.6177, 30.1691, -32.0218, -22.8376
4.832, 5, 15.8083, 15.3447, 25.6253, 30.1461, -32.0331, -22.8177
4.836, 5, 15.8016, 15.3435, 25.6329, 30.1231, -32.0445, -22.7979
4.84, 5, 15.795, 15.3424, 25.6404, 30.1002, -32.0559, -22.7782
4.844, 5, 15.7884, 15.3412, 25.648, 30.0772, -32.0673, -22.7584
4.848, 5, 15.7818, 15.34, 25.6556, 30.0542, -32.0787, -22.7386
4.852, 5, 15.7752, 15.3388, 25.6631, 30.0313, -32.09, -22.7189
4.856, 5, 15.7685, 15.3376, 25.6707, 30.0084, -32.1014, -22.6991
4.86, 5, 15.7619, 15.3365, 25.6782, 29.9855, -32.1128, -22.6794
4.864, 5, 15.7553, 15.3353, 25.6858, 29.9626, -32.1242, -22.6597
4.868, 5, 15.7487, 15.3341, 25.6933, 29.9397, -32.1356, -22.64
4.872, 5, 15.742, 15.333, 25.7009, 29.9168, -32.147, -22.6203
4.876, 5, 15.7354, 15.3318, 25.7084, 29.894, -32.1585, -22.6007
4.88, 5, 15.7288, 15.3307, 25.716, 29.8711, -32.1699, -22.581
4.884, 5, 15.7222, 15.3295, 25.7235, 29.8483, -32.1813, -22.5614
4.888, 5, 15.7155, 15.3283, 25.7311, 29.8255, -32.1927, -22.5417
4.892, 5, 15.7089, 15.3272, 25.7386, 29.8027, -32.2042, -22.5221
4.896, 5, 15.7023, 15.326, 25.7461, 29.7799, -32.2156, -22.5025
4.9, 5, 15.6957, 15.3249, 25.7536, 29.7571, -32.227, -22.4829
4.904, 5, 15.689, 15.3238, 25.7612, 29.7344, -32.2385, -22.4634
4.908, 5, 15.6824, 15.3226, 25.7687, 29.7116, -32.2499, -22.4438
4.912, 5, 15.6758, 15.3215, 25.7762, 29.6889, -32.2614, -22.4243
4.916, 5, 15.6691, 15.3203, 25.7837, 29.6661, -32.2728, -22.4047
4.92, 5, 15.6625, 15.3192, 25.7912, 29.6434, -32.2843, -22.3852
4.924, 5, 15.6558, 15.3181, 25.7987, 29.6207, -32.2957, -22.3657
4.928, 5, 15.6492, 15.317, 25.8063, 29.598, -32.3072, -22.3462
4.932, 5, 15.6426, 15.3158, 25.8138, 29.5754, -32.3187, -22.3267
4.936, 5, 15.6359, 15.3147, 25.8213, 29.5527, -32.3301, -22.3073
4.94, 5, 15.6293, 15.3136, 25.8288, 29.5301, -32.3416, -22.2878
4.944, 5, 15.6227, 15.3125, 25.8363, 29.5074, -32.3531, -22.2684
4.948, 5, 15.616, 15.3114, 25.8438, 29.4848, -32.3646, -22.2489
4.952, 5, 15.6094, 15.3103, 25.8512, 29.4622, -32.3761, -22.2295
4.956, 5, 15.6027, 15.3092, 25.8587, 29.4396, -32.3876, -22.2101
4.96, 5, 15.5961, 15.3081, 25.8662, 29.417, -32.3991, -22.1908
4.964, 5, 15.5894, 15.307, 25.8737, 29.3945, -32.4106, -22.1714
4.968, 5, 15.5828, 15.3059, 25.8812, 29.3719, -32.4221, -22.152
4.972, 5, 15.5761, 15.3048, 25.8887, 29.3494, -32.4336, -22.1327
4.976, 5, 15.5695, 15.3037, 25.8961, 29.3269, -32.4451, -22.1133
4.98, 5, 15.5628, 15.3026, 25.9036, 29.3043, -32.4566, -22.094
4.984, 5, 15.5562, 15.3015, 25.9111, 29.2818, -32.4681, -22.0747
4.988, 5, 15.5495, 15.3004, 25.9185, 29.2594, -32.4797, -22.0554
4.992, 5, 15.5429, 15.2993, 25.926, 29.2369, -32.4912, -22.0361
4.996, 5, 15.5362, 15.2983, 25.9335, 29.2144, -32.5027, -22.0169
5, 5, 15.5296, 15.2972, 25.9409, 29.192, -32.5143, -21.9976
5.004, 5, 15.5229, 15.2961, 25.9484, 29.1695, -32.5258, -21.9784
5.008, 5, 15.5163, 15.295, 25.9558, 29.1471, -32.5373, -21.9592
5.012, 5, 15.5096, 15.294, 25.9633, 29.1247, -32.5489, -21.9399
5.016, 5, 15.503, 15.2929, 25.9707, 29.1023, -32.5605, -21.9207
5.02, 5, 15.4963, 15.2918, 25.9782, 29.0799, -32.572, -21.9016
5.024, 5, 15.4896, 15.2908, 25.9856, 29.0576, -32.5836, -21.8824
5.028, 5, 15.483, 15.2897, 25.993, 29.0352, -32.5951, -21.8632
5.032, 5, 15.4763, 15.2887, 26.0005, 29.0129, -32.6067, -21.8441
5.036, 5, 15.4697, 15.2876, 26.0079, 28.9905, -32.6183, -21.8249
5.04, 5, 15.463, 15.2866, 26.0153, 28.9682, -32.6298, -21.8058
5.044, 5, 15.4563, 15.2855, 26.0228, 28.9459, -32.6414, -21.7867
5.048, 5, 15.4497, 15.2845, 26.0302, 28.9236, -32.653, -21.7676
5.052, 5, 15.443, 15.2834, 26.0376, 28.9013, -32.6646, -21.7485
5.056, 5, 15.4363, 15.2824, 26.045, 28.8791, -32.6762, -21.7295
5.06, 5, 15.4297, 15.2814, 26.0524, 28.8568, -32.6878, -21.7104
5.064, 5, 15.423, 15.2803, 26.0598, 28.8346, -32.6994, -21.6914
5.068, 5, 15.4163, 15.2793, 26.0673, 28.8124, -32.711, -21.6723
5.072, 5, 15.4097, 15.2783, 26.0747, 28.7901, -32.7226, -21.6533
5.076, 5, 15.403, 15.2773, 26.0821, 28.7679, -32.7342, -21.6343
5.08, 5, 15.3963, 15.2762, 26.0895, 28.7457, -32.7458, -21.6153
5.084, 5, 15.3897, 15.2752, 26.0969, 28.7236, -32.7574, -21.5964
5.088, 5, 15.383, 15.2742, 26.1043, 28.7014, -32.7691, -21.5774
5.092, 5, 15.3763, 15.2732, 26.1116, 28.6793, -32.7807, -21.5584
5.096, 5, 15.3696, 15.2722, 26.119, 28.6571, -32.7923, -21.5395
5.1, 5, 15.363, 15.2712, 26.1264, 28.635, -32.804, -21.5206
5.104, 5, 15.3563, 15.2702, 26.1338, 28.6129, -32.8156, -21.5017
5.108, 5, 15.3496, 15.2692, 26.1412, 28.5908, -32.8272, -21.4828
5.112, 5, 15.3429, 15.2682, 26.1486, 28.5687, -32.8389, -21.4639
5.116, 5, 15.3363, 15.2672, 26.1559, 28.5466, -32.8505, -21.445
5.12, 5, 15.3296, 15.2662, 26.1633, 28.5246, -32.8622, -21.4262
5.124, 5, 15.3229, 15.2652, 26.1707, 28.5025, -32.8738, -21.4073
5.128, 5, 15.3162, 15.2642, 26.1781, 28.4805, -32.8855, -21.3885
5.132, 5, 15.3095, 15.2632, 26.1854, 28.4585, -32.8972, -21.3697
5.136, 5, 15.3028, 15.2622, 26.1928, 28.4364, -32.9088, -21.3508
5.14, 5, 15.2962, 15.2613, 26.2001, 28.4144, -32.9205, -21.3321
5.144, 5, 15.2895, 15.2603, 26.2075, 28.3925, -32.9322, -21.3133
5.148, 5, 15.2828, 15.2593, 26.2148, 28.3705, -32.9439, -21.2945
5.152, 5, 15.2761, 15.2583, 26.2222, 28.3485, -32.9556, -21.2757
5.156, 5, 15.2694, 15.2574, 26.2295, 28.3266, -32.9672, -21.257
5.16, 5, 15.2627, 15.2564, 26.2369, 28.3047, -32.9789, -21.2383
5.164, 5, 15.256, 15.2554, 26.2442, 28.2827, -32.9906, -21.2196
5.168, 5, 15.2493, 15.2545, 26.2516, 28.2608, -33.0023, -21.2008
5.172, 5, 15.2427, 15.2535, 26.2589, 28.2389, -33.014, -21.1822
5.176, 5, 15.236, 15.2526, 26.2662, 28.217, -33.0257, -21.1635
5.18, 5, 15.2293, 15.2516, 26.2736, 28.1952, -33.0374, -21.1448
5.184, 5, 15.2226, 15.2507, 26.2809, 28.1733, -33.0492, -21.1262
5.188, 5, 15.2159, 15.2497, 26.2882, 28.1515, -33.0609, -21.1075
5.192, 5, 15.2092, 15.2488, 26.2955, 28.1296, -33.0726, -21.0889
5.196, 5, 15.2025, 15.2478, 26.3029, 28.1078, -33.0843, -21.0703
5.2, 5, 15.1958, 15.2469, 26.3102, 28.086, -33.0961, -21.0517
5.204, 5, 15.1891, 15.246, 26.3175, 28.0642, -33.1078, -21.0331
5.208, 5, 15.1824, 15.245, 26.3248, 28.0424, -33.1195, -21.0145
5.212, 5, 15.1757, 15.2441, 26.3321, 28.0207, -33.1313, -20.9959
5.216, 5, 15.169, 15.2432, 26.3394, 27.9989, -33.143, -20.9774
5.22, 5, 15.1623, 15.2422, 26.3467, 27.9772, -33.1548, -20.9589
5.224, 5, 15.1556, 15.2413, 26.354, 27.9554, -33.1665, -20.9403
5.228, 5, 15.1489, 15.2404, 26.3613, 27.9337, -33.1783, -20.9218
5.232, 5, 15.1422, 15.2395, 26.3686, 27.912, -33.19, -20.9033
5.236, 5, 15.1355, 15.2386, 26.3759, 27.8903, -33.2018, -20.8848
5.24, 5, 15.1288, 15.2377, 26.3832, 27.8686, -33.2136, -20.8664
5.244, 5, 15.1221, 15.2368, 26.3905, 27.847, -33.2253, -20.8479
5.248, 5, 15.1154, 15.2358, 26.3978, 27.8253, -33.2371, -20.8294
5.252, 5, 15.1086, 15.2349, 26.405, 27.8037, -33.2489, -20.811
5.256, 5, 15.1019, 15.234, 26.4123, 27.782, -33.2607, -20.7926
5.26, 5, 15.0952, 15.2331, 26.4196, 27.7604, -33.2724, -20.7742
5.264, 5, 15.0885, 15.2323, 26.4269, 27.7388, -33.2842, -20.7558
5.268, 5, 15.0818, 15.2314, 26.4341, 27.7172, -33.296, -20.7374
5.272, 5, 15.0751, 15.2305, 26.4414, 27.6956, -33.3078, -20.719
5.276, 5, 15.0684, 15.2296, 26.4487, 27.6741, -33.3196, -20.7007
5.28, 5, 15.0617, 15.2287, 26.4559, 27.6525, -33.3314, -20.6823
5.284, 5, 15.0549, 15.2278, 26.4632, 27.631, -33.3432, -20.664
5.288, 5, 15.0482, 15.2269, 26.4704, 27.6094, -33.355, -20.6456
5.292, 5, 15.0415, 15.2261, 26.4777, 27.5879, -33.3669, -20.6273
5.296, 5, 15.0348, 15.2252, 26.4849, 27.5664, -33.3787, -20.609
5.3, 5, 15.0281, 15.2243, 26.4922, 27.5449, -33.3905, -20.5908
5.304, 5, 15.0214, 15.2235, 26.4994, 27.5234, -33.4023, -20.5725
5.308, 5, 15.0146, 15.2226, 26.5067, 27.502, -33.4142, -20.5542
5.312, 5, 15.0079, 15.2217, 26.5139, 27.4805, -33.426, -20.536
5.316, 5, 15.0012, 15.2209, 26.5211, 27.4591, -33.4378, -20.5177
5.32, 5, 14.9945, 15.22, 26.5284, 27.4376, -33.4497, -20.4995
5.324, 5, 14.9877, 15.2192, 26.5356, 27.4162, -33.4615, -20.4813
5.328, 5, 14.981, 15.2183, 26.5428, 27.3948, -33.4734, -20.4631
5.332, 5, 14.9743, 15.2175, 26.55, 27.3734, -33.4852, -20.4449
5.336, 5, 14.9676, 15.2166, 26.5573, 27.352, -33.4971, -20.4268
5.34, 5, 14.9608, 15.2158, 26.5645, 27.3306, -33.5089, -20.4086
5.344, 5, 14.9541, 15.2149, 26.5717, 27.3093, -33.5208, -20.3904
5.348, 5, 14.9474, 15.2141, 26.5789, 27.2879, -33.5326, -20.3723
5.352, 5, 14.9406, 15.2133, 26.5861, 27.2666, -33.5445, -20.3542
5.356, 5, 14.9339, 15.2124, 26.5933, 27.2453, -33.5564, -20.3361
5.36, 5, 14.9272, 15.2116, 26.6005, 27.224, -33.5683, -20.318
5.364, 5, 14.9205, 15.2108, 26.6077, 27.2027, -33.5802, -20.2999
5.368, 5, 14.9137, 15.21, 26.6149, 27.1814, -33.592, -20.2818
5.372, 5, 14.907, 15.2091, 26.6221, 27.1601, -33.6039, -20.2638
5.376, 5, 14.9003, 15.2083, 26.6293, 27.1389, -33.6158, -20.2457
5.38, 5, 14.8935, 15.2075, 26.6365, 27.1176, -33.6277, -20.2277
5.384, 5, 14.8868, 15.2067, 26.6437, 27.0964, -33.6396, -20.2097
5.388, 5, 14.88, 15.2059, 26.6509, 27.0751, -33.6515, -20.1916
5.392, 5, 14.8733, 15.2051, 26.6581, 27.0539, -33.6634, -20.1736
5.396, 5, 14.8666, 15.2043, 26.6652, 27.0327, -33.6753, -20.1557
5.4, 5, 14.8598, 15.2035, 26.6724, 27.0115, -33.6872, -20.1377
5.404, 5, 14.8531, 15.2027, 26.6796, 26.9904, -33.6992, -20.1197
5.408, 5, 14.8463, 15.2019, 26.6868, 26.9692, -33.7111, -20.1018
5.412, 5, 14.8396, 15.2011, 26.6939, 26.9481, -33.723, -20.0838
5.416, 5, 14.8329, 15.2003, 26.7011, 26.9269, -33.7349, -20.0659
5.42, 5, 14.8261, 15.1995, 26.7083, 26.9058, -33.7469, -20.048
5.424, 5, 14.8194, 15.1987, 26.7154, 26.8847, -33.7588, -20.0301
5.428, 5, 14.8126, 15.1979, 26.7226, 26.8636, -33.7707, -20.0122
5.432, 5, 14.8059, 15.1972, 26.7297, 26.8425, -33.7827, -19.9943
5.436, 5, 14.7991, 15.1964, 26.7369, 26.8214, -33.7946, -19.9765
5.44, 5, 14.7924, 15.1956, 26.744, 26.8003, -33.8066, -19.9586
5.444, 5, 14.7856, 15.1948, 26.7512, 26.7793, -33.8185, -19.9408
5.448, 5, 14.7789, 15.1941, 26.7583, 26.7582, -33.8305, -19.923
5.452, 5, 14.7721, 15.1933, 26.7655, 26.7372, -33.8424, -19.9052
5.456, 5, 14.7654, 15.1925, 26.7726, 26.7162, -33.8544, -19.8874
5.46, 5, 14.7586, 15.1918, 26.7797, 26.6952, -33.8664, -19.8696
5.464, 5, 14.7519, 15.191, 26.7869, 26.6742, -33.8783, -19.8518
5.468, 5, 14.7451, 15.1903, 26.794, 26.6532, -33.8903, -19.834
5.472, 5, 14.7383, 15.1895, 26.8011, 26.6322, -33.9023, -19.8163
5.476, 5, 14.7316, 15.1888, 26.8082, 26.6113, -33.9143, -19.7985
5.48, 5, 14.7248, 15.188, 26.8154, 26.5903, -33.9262, -19.7808
5.484, 5, 14.7181, 15.1873, 26.8225, 26.5694, -33.9382, -19.7631
5.488, 5, 14.7113, 15.1865, 26.8296, 26.5485, -33.9502, -19.7454
5.492, 5, 14.7045, 15.1858, 26.8367, 26.5276, -33.9622, -19.7277
5.496, 5, 14.6978, 15.1851, 26.8438, 26.5067, -33.9742, -19.71
5.5, 5, 14.691, 15.1843, 26.8509, 26.4858, -33.9862, -19.6923
5.504, 5, 14.6843, 15.1836, 26.858, 26.4649, -33.9982, -19.6747
5.508, 5, 14.6775, 15.1829, 26.8651, 26.444, -34.0102, -19.6571
5.512, 5, 14.6707, 15.1822, 26.8722, 26.4232, -34.0222, -19.6394
5.516, 5, 14.664, 15.1814, 26.8793, 26.4024, -34.0343, -19.6218
5.52, 5, 14.6572, 15.1807, 26.8864, 26.3815, -34.0463, -19.6042
5.524, 5, 14.6504, 15.18, 26.8935, 26.3607, -34.0583, -19.5866
5.528, 5, 14.6437, 15.1793, 26.9006, 26.3399, -34.0703, -19.569
5.532, 5, 14.6369, 15.1786, 26.9077, 26.3191, -34.0824, -19.5514
5.536, 5, 14.6301, 15.1779, 26.9148, 26.2983, -34.0944, -19.5339
5.54, 5, 14.6234, 15.1772, 26.9218, 26.2776, -34.1064, -19.5163
5.544, 5, 14.6166, 15.1764, 26.9289, 26.2568, -34.1185, -19.4988
5.548, 5, 14.6098, 15.1757, 26.936, 26.2361, -34.1305, -19.4813
5.552, 5, 14.603, 15.1751, 26.9431, 26.2153, -34.1426, -19.4638
5.556, 5, 14.5963, 15.1744, 26.9501, 26.1946, -34.1546, -19.4463
5.56, 5, 14.5895, 15.1737, 26.9572, 26.1739, -34.1667, -19.4288
5.564, 5, 14.5827, 15.173, 26.9643, 26.1532, -34.1787, -19.4113
5.568, 5, 14.5759, 15.1723, 26.9713, 26.1325, -34.1908, -19.3939
5.572, 5, 14.5692, 15.1716, 26.9784, 26.1119, -34.2028, -19.3764
5.576, 5, 14.5624, 15.1709, 26.9854, 26.0912, -34.2149, -19.359
5.58, 5, 14.5556, 15.1702, 26.9925, 26.0706, -34.227, -19.3415
5.584, 5, 14.5488, 15.1696, 26.9995, 26.0499, -34.2391, -19.3241
5.588, 5, 14.542, 15.1689, 27.0066, 26.0293, -34.2511, -19.3067
5.592, 5, 14.5353, 15.1682, 27.0136, 26.0087, -34.2632, -19.2893
5.596, 5, 14.5285, 15.1676, 27.0207, 25.9881, -34.2753, -19.272
5.6, 5, 14.5217, 15.1669, 27.0277, 25.9675, -34.2874, -19.2546
5.604, 5, 14.5149, 15.1662, 27.0347, 25.9469, -34.2995, -19.2372
5.608, 5, 14.5081, 15.1656, 27.0418, 25.9263, -34.3116, -19.2199
5.612, 5, 14.5013, 15.1649, 27.0488, 25.9058, -34.3237, -19.2026
5.616, 5, 14.4946, 15.1643, 27.0558, 25.8852, -34.3358, -19.1852
5.62, 5, 14.4878, 15.1636, 27.0628, 25.8647, -34.3479, -19.1679
5.624, 5, 14.481, 15.163, 27.0699, 25.8442, -34.36, -19.1507
5.628, 5, 14.4742, 15.1623, 27.0769, 25.8237, -34.3721, -19.1334
5.632, 5, 14.4674, 15.1617, 27.0839, 25.8032, -34.3842, -19.1161
5.636, 5, 14.4606, 15.161, 27.0909, 25.7827, -34.3963, -19.0988
5.64, 5, 14.4538, 15.1604, 27.0979, 25.7622, -34.4085, -19.0816
5.644, 5, 14.447, 15.1598, 27.1049, 25.7418, -34.4206, -19.0644
5.648, 5, 14.4402, 15.1591, 27.1119, 25.7213, -34.4327, -19.0471
5.652, 5, 14.4334, 15.1585, 27.1189, 25.7009, -34.4449, -19.0299
5.656, 5, 14.4267, 15.1579, 27.1259, 25.6805, -34.457, -19.0127
5.66, 5, 14.4199, 15.1572, 27.1329, 25.66, -34.4691, -18.9955
5.664, 5, 14.4131, 15.1566, 27.1399, 25.6396, -34.4813, -18.9784
5.668, 5, 14.4063, 15.156, 27.1469, 25.6192, -34.4934, -18.9612
5.672, 5, 14.3995, 15.1554, 27.1539, 25.5989, -34.5056, -18.944
5.676, 5, 14.3927, 15.1548, 27.1609, 25.5785, -34.5177, -18.9269
5.68, 5, 14.3859, 15.1542, 27.1679, 25.5581, -34.5299, -18.9098
5.684, 5, 14.3791, 15.1536, 27.1748, 25.5378, -34.542, -18.8927
5.688, 5, 14.3723, 15.1529, 27.1818, 25.5175, -34.5542, -18.8755
5.692, 5, 14.3655, 15.1523, 27.1888, 25.4971, -34.5664, -18.8585
5.696, 5, 14.3587, 15.1517, 27.1958, 25.4768, -34.5785, -18.8414
5.7, 5, 14.3519, 15.1511, 27.2027, 25.4565, -34.5907, -18.8243
5.704, 5, 14.345, 15.1506, 27.2097, 25.4362, -34.6029, -18.8072
5.708, 5, 14.3382, 15.15, 27.2167, 25.416, -34.6151, -18.7902
5.712, 5, 14.3314, 15.1494, 27.2236, 25.3957, -34.6272, -18.7732
5.716, 5, 14.3246, 15.1488, 27.2306, 25.3755, -34.6394, -18.7561
5.72, 5, 14.3178, 15.1482, 27.2375, 25.3552, -34.6516, -18.7391
5.724, 5, 14.311, 15.1476, 27.2445, 25.335, -34.6638, -18.7221
5.728, 5, 14.3042, 15.147, 27.2514, 25.3148, -34.676, -18.7051
5.732, 5, 14.2974, 15.1465, 27.2584, 25.2946, -34.6882, -18.6882
5.736, 5, 14.2906, 15.1459, 27.2653, 25.2744, -34.7004, -18.6712
5.74, 5, 14.2838, 15.1453, 27.2723, 25.2542, -34.7126, -18.6543
5.744, 5, 14.277, 15.1448, 27.2792, 25.234, -34.7248, -18.6373
5.748, 5, 14.2701, 15.1442, 27.2861, 25.2139, -34.737, -18.6204
5.752, 5, 14.2633, 15.1436, 27.2931, 25.1937, -34.7493, -18.6035
5.756, 5, 14.2565, 15.1431, 27.3, 25.1736, -34.7615, -18.5866
5.76, 5, 14.2497, 15.1425, 27.3069, 25.1534, -34.7737, -18.5697
5.764, 5, 14.2429, 15.142, 27.3138, 25.1333, -34.7859, -18.5528
5.768, 5, 14.2361, 15.1414, 27.3208, 25.1132, -34.7982, -18.5359
5.772, 5, 14.2292, 15.1409, 27.3277, 25.0931, -34.8104, -18.5191
5.776, 5, 14.2224, 15.1403, 27.3346, 25.0731, -34.8226, -18.5022
5.78, 5, 14.2156, 15.1398, 27.3415, 25.053, -34.8349, -18.4854
5.784, 5, 14.2088, 15.1392, 27.3484, 25.0329, -34.8471, -18.4686
5.788, 5, 14.202, 15.1387, 27.3553, 25.0129, -34.8594, -18.4517
5.792, 5, 14.1951, 15.1382, 27.3622, 24.9929, -34.8716, -18.435
5.796, 5, 14.1883, 15.1376, 27.3691, 24.9728, -34.8839, -18.4182
5.8, 5, 14.1815, 15.1371, 27.376, 24.9528, -34.8961, -18.4014
5.804, 5, 14.1747, 15.1366, 27.3829, 24.9328, -34.9084, -18.3846
5.808, 5, 14.1678, 15.1361, 27.3898, 24.9128, -34.9207, -18.3679
5.812, 5, 14.161, 15.1355, 27.3967, 24.8929, -34.9329, -18.3511
5.816, 5, 14.1542, 15.135, 27.4036, 24.8729, -34.9452, -18.3344
5.82, 5, 14.1473, 15.1345, 27.4105, 24.8529, -34.9575, -18.3177
5.824, 5, 14.1405, 15.134, 27.4174, 24.833, -34.9697, -18.301
5.828, 5, 14.1337, 15.1335, 27.4242, 24.8131, -34.982, -18.2843
5.832, 5, 14.1268, 15.133, 27.4311, 24.7932, -34.9943, -18.2676
5.836, 5, 14.12, 15.1325, 27.438, 24.7732, -35.0066, -18.2509
5.84, 5, 14.1132, 15.132, 27.4449, 24.7534, -35.0189, -18.2343
5.844, 5, 14.1063, 15.1315, 27.4517, 24.7335, -35.0312, -18.2176
5.848, 5, 14.0995, 15.131, 27.4586, 24.7136, -35.0435, -18.201
5.852, 5, 14.0927, 15.1305, 27.4655, 24.6937, -35.0558, -18.1843
5.856, 5, 14.0858, 15.13, 27.4723, 24.6739, -35.0681, -18.1677
5.86, 5, 14.079, 15.1295, 27.4792, 24.654, -35.0804, -18.1511
5.864, 5, 14.0722, 15.129, 27.486, 24.6342, -35.0927, -18.1345
5.868, 5, 14.0653, 15.1285, 27.4929, 24.6144, -35.105, -18.118
5.872, 5, 14.0585, 15.128, 27.4997, 24.5946, -35.1173, -18.1014
5.876, 5, 14.0516, 15.1276, 27.5066, 24.5748, -35.1296, -18.0848
5.88, 5, 14.0448, 15.1271, 27.5134, 24.555, -35.142, -18.0683
5.884, 5, 14.038, 15.1266, 27.5203, 24.5352, -35.1543, -18.0517
5.888, 5, 14.0311, 15.1262, 27.5271, 24.5155, -35.1666, -18.0352
5.892, 5, 14.0243, 15.1257, 27.5339, 24.4957, -35.179, -18.0187
5.896, 5, 14.0174, 15.1252, 27.5408, 24.476, -35.1913, -18.0022
5.9, 5, 14.0106, 15.1248, 27.5476, 24.4563, -35.2036, -17.9857
5.904, 5, 14.0037, 15.1243, 27.5544, 24.4365, -35.216, -17.9692
5.908, 5, 13.9969, 15.1239, 27.5612, 24.4168, -35.2283, -17.9528
5.912, 5, 13.99, 15.1234, 27.5681, 24.3971, -35.2407, -17.9363
5.916, 5, 13.9832, 15.123, 27.5749, 24.3775, -35.253, -17.9199
5.92, 5, 13.9763, 15.1225, 27.5817, 24.3578, -35.2654, -17.9034
5.924, 5, 13.9695, 15.1221, 27.5885, 24.3381, -35.2777, -17.887
5.928, 5, 13.9626, 15.1216, 27.5953, 24.3185, -35.2901, -17.8706
5.932, 5, 13.9558, 15.1212, 27.6021, 24.2988, -35.3025, -17.8542
5.936, 5, 13.9489, 15.1208, 27.6089, 24.2792, -35.3148, -17.8378
5.94, 5, 13.9421, 15.1203, 27.6157, 24.2596, -35.3272, -17.8214
5.944, 5, 13.9352, 15.1199, 27.6225, 24.24, -35.3396, -17.8051
5.948, 5, 13.9284, 15.1195, 27.6293, 24.2204, -35.3519, -17.7887
5.952, 5, 13.9215, 15.119, 27.6361, 24.2008, -35.3643, -17.7724
5.956, 5, 13.9146, 15.1186, 27.6429, 24.1812, -35.3767, -17.7561
5.96, 5, 13.9078, 15.1182, 27.6497, 24.1617, -35.3891, -17.7397
5.964, 5, 13.9009, 15.1178, 27.6565, 24.1421, -35.4015, -17.7234
5.968, 5, 13.8941, 15.1174, 27.6632, 24.1226, -35.4139, -17.7071
