hehonglu123/ABB_Primitive_Study/execution/movel_30_car/curve_exe_v500_z10.csv
timestamp, cmd_num, J1, J2, J3, J4, J5, J6
0, -1, -13.4393, 43.6787, 12.5946, -11.6275, -87.029, 7.42441
0.002, -1, -13.4393, 43.6787, 12.5946, -11.6275, -87.029, 7.42441
0.006, -1, -13.4393, 43.6787, 12.5946, -11.6275, -87.029, 7.42441
0.008, -1, -13.4393, 43.6787, 12.5946, -11.6275, -87.029, 7.42441
0.011, -1, -13.4393, 43.6787, 12.5946, -11.6275, -87.029, 7.42441
0.016, -1, -13.4393, 43.6787, 12.5946, -11.6275, -87.029, 7.42441
0.02, -1, -13.4393, 43.6787, 12.5946, -11.6275, -87.029, 7.42441
0.024, -1, -13.4393, 43.6787, 12.5946, -11.6275, -87.029, 7.42441
0.028, -1, -13.4393, 43.6787, 12.5946, -11.6275, -87.029, 7.42441
0.032, -1, -13.4393, 43.6787, 12.5946, -11.6275, -87.029, 7.42441
0.036, -1, -13.4392, 43.6786, 12.5946, -11.6275, -87.029, 7.42441
0.04, -1, -13.439, 43.6785, 12.5946, -11.6275, -87.029, 7.42441
0.044, -1, -13.4384, 43.678, 12.5947, -11.6275, -87.029, 7.42439
0.048, -1, -13.4372, 43.6772, 12.5949, -11.6274, -87.0289, 7.42434
0.052, -1, -13.4355, 43.6758, 12.5951, -11.6273, -87.0287, 7.42422
0.056, -1, -13.433, 43.6738, 12.5955, -11.627, -87.0284, 7.42397
0.06, -1, -13.4296, 43.671, 12.5961, -11.6264, -87.0277, 7.42349
0.064, -1, -13.4254, 43.6675, 12.5969, -11.6253, -87.0264, 7.42266
0.068, -1, -13.4203, 43.6631, 12.598, -11.6236, -87.0244, 7.42132
0.072, -1, -13.4141, 43.6579, 12.5994, -11.6209, -87.0213, 7.41928
0.076, -1, -13.4066, 43.6516, 12.6011, -11.617, -87.0167, 7.4163
0.08, -1, -13.3977, 43.6442, 12.6034, -11.6115, -87.0103, 7.41213
0.084, -1, -13.3869, 43.6352, 12.6062, -11.604, -87.0016, 7.40644
0.088, -1, -13.3743, 43.6247, 12.6097, -11.5941, -86.9899, 7.39892
0.092, -1, -13.3596, 43.6124, 12.6138, -11.5812, -86.9748, 7.38918
0.096, -1, -13.3427, 43.5982, 12.6186, -11.5648, -86.9557, 7.37685
0.1, -1, -13.3235, 43.582, 12.6243, -11.5444, -86.9319, 7.36155
0.104, -1, -13.3019, 43.5636, 12.6308, -11.5196, -86.9029, 7.3429
0.108, -1, -13.2776, 43.5427, 12.6382, -11.4899, -86.868, 7.32054
0.112, -1, -13.2505, 43.5193, 12.6467, -11.4547, -86.8269, 7.29416
0.116, -1, -13.2206, 43.4932, 12.6562, -11.4137, -86.7789, 7.26346
0.12, -1, -13.1877, 43.4644, 12.6669, -11.3667, -86.7238, 7.22818
0.124, -1, -13.1519, 43.4328, 12.6786, -11.3132, -86.6612, 7.18814
0.128, -1, -13.113, 43.3984, 12.6916, -11.2532, -86.591, 7.14319
0.131, -1, -13.071, 43.3611, 12.7056, -11.1865, -86.5129, 7.09326
0.136, -1, -13.026, 43.321, 12.7209, -11.1131, -86.4269, 7.03835
0.139, -1, -12.9779, 43.2779, 12.7373, -11.0331, -86.3333, 6.9785
0.144, -1, -12.9267, 43.232, 12.7548, -10.9467, -86.2321, 6.91384
0.148, -1, -12.8726, 43.1833, 12.7734, -10.854, -86.1236, 6.84454
0.152, -1, -12.8155, 43.132, 12.7932, -10.7555, -86.0082, 6.77084
0.156, -1, -12.7557, 43.0781, 12.8139, -10.6514, -85.8863, 6.69301
0.16, -1, -12.6932, 43.0219, 12.8355, -10.5422, -85.7585, 6.61137
0.164, -1, -12.6282, 42.9633, 12.8581, -10.4284, -85.6253, 6.52627
0.168, -1, -12.5607, 42.9025, 12.8815, -10.3105, -85.4872, 6.43809
0.172, -1, -12.4909, 42.8396, 12.9056, -10.189, -85.3449, 6.34721
0.176, -1, -12.4189, 42.7749, 12.9305, -10.0644, -85.1989, 6.25399
0.18, -1, -12.345, 42.7085, 12.956, -9.93711, -85.0499, 6.15879
0.184, -1, -12.2694, 42.6406, 12.9821, -9.80765, -84.8983, 6.06194
0.188, -1, -12.1925, 42.5714, 13.0086, -9.6764, -84.7446, 5.96375
0.192, -1, -12.1142, 42.5011, 13.0356, -9.54373, -84.5892, 5.86449
0.196, -1, -12.0348, 42.4297, 13.0629, -9.40995, -84.4326, 5.76439
0.2, -1, -11.9542, 42.3573, 13.0906, -9.27534, -84.2749, 5.66366
0.204, -1, -11.8724, 42.2841, 13.1185, -9.14011, -84.1166, 5.56246
0.208, -1, -11.7897, 42.21, 13.1466, -9.00443, -83.9577, 5.46092
0.212, -1, -11.7061, 42.1354, 13.1749, -8.86843, -83.7985, 5.35913
0.216, -1, -11.6218, 42.0602, 13.2033, -8.7322, -83.6389, 5.25717
0.22, -1, -11.5371, 41.9847, 13.2318, -8.5958, -83.4792, 5.15507
0.224, -1, -11.452, 41.909, 13.2603, -8.45928, -83.3194, 5.05288
0.228, -1, -11.3667, 41.8332, 13.2889, -8.32266, -83.1594, 4.95062
0.232, -1, -11.2813, 41.7572, 13.3176, -8.18597, -82.9993, 4.8483
0.236, -1, -11.1957, 41.6811, 13.3462, -8.04922, -82.8392, 4.74595
0.24, -1, -11.11, 41.605, 13.3749, -7.91243, -82.679, 4.64355
0.244, -1, -11.0243, 41.5288, 13.4035, -7.77561, -82.5188, 4.54114
0.248, -1, -10.9386, 41.4526, 13.4322, -7.63876, -82.3586, 4.4387
0.252, -1, -10.8528, 41.3764, 13.4609, -7.50189, -82.1983, 4.33625
0.256, -1, -10.767, 41.3002, 13.4896, -7.36501, -82.0381, 4.2338
0.26, -1, -10.6811, 41.2239, 13.5183, -7.22813, -81.8778, 4.13133
0.264, -1, -10.5953, 41.1477, 13.547, -7.09125, -81.7175, 4.02887
0.268, -1, -10.5094, 41.0714, 13.5757, -6.95436, -81.5572, 3.92641
0.272, -1, -10.4236, 40.9952, 13.6044, -6.81749, -81.397, 3.82396
0.276, -1, -10.3378, 40.9189, 13.6331, -6.68063, -81.2367, 3.72151
0.28, -1, -10.252, 40.8427, 13.6618, -6.54379, -81.0765, 3.61908
0.284, -1, -10.1661, 40.7665, 13.6904, -6.40697, -80.9163, 3.51666
0.288, -1, -10.0803, 40.6903, 13.7191, -6.27017, -80.7561, 3.41427
0.292, -1, -9.99456, 40.6141, 13.7478, -6.13341, -80.596, 3.31189
0.296, -1, -9.9088, 40.538, 13.7764, -5.99668, -80.4359, 3.20955
0.3, -1, -9.82306, 40.4618, 13.8051, -5.85999, -80.2758, 3.10723
0.304, -1, -9.73734, 40.3857, 13.8337, -5.72334, -80.1158, 3.00494
0.308, -1, -9.65166, 40.3096, 13.8624, -5.58674, -79.9558, 2.90269
0.312, -1, -9.566, 40.2336, 13.891, -5.45019, -79.796, 2.80048
0.316, -1, -9.48038, 40.1575, 13.9196, -5.31369, -79.6361, 2.69831
0.32, -1, -9.3948, 40.0815, 13.9482, -5.17726, -79.4764, 2.59618
0.324, -1, -9.30925, 40.0055, 13.9768, -5.04089, -79.3167, 2.4941
0.328, -1, -9.22375, 39.9296, 14.0054, -4.90458, -79.1571, 2.39207
0.332, -1, -9.13829, 39.8537, 14.0339, -4.76835, -78.9976, 2.2901
0.336, -1, -9.05287, 39.7778, 14.0625, -4.63219, -78.8382, 2.18818
0.34, -1, -8.9675, 39.702, 14.091, -4.49612, -78.6788, 2.08632
0.344, -1, -8.88219, 39.6262, 14.1195, -4.36012, -78.5196, 1.98452
0.348, -1, -8.79692, 39.5505, 14.148, -4.22421, -78.3604, 1.88279
0.352, -1, -8.71172, 39.4748, 14.1765, -4.0884, -78.2014, 1.78113
0.356, -1, -8.62657, 39.3992, 14.2049, -3.95267, -78.0425, 1.67953
0.36, -1, -8.54148, 39.3236, 14.2334, -3.81705, -77.8837, 1.57801
0.364, -1, -8.45646, 39.2481, 14.2618, -3.68152, -77.725, 1.47657
0.368, -1, -8.3715, 39.1727, 14.2902, -3.54611, -77.5664, 1.3752
0.372, -1, -8.28661, 39.0973, 14.3185, -3.4108, -77.408, 1.27392
0.376, -1, -8.20179, 39.0219, 14.3469, -3.2756, -77.2497, 1.17272
0.38, -1, -8.11704, 38.9467, 14.3752, -3.14052, -77.0915, 1.07161
0.384, -1, -8.03237, 38.8715, 14.4035, -3.00557, -76.9335, 0.970588
0.388, -1, -7.94777, 38.7963, 14.4318, -2.87073, -76.7756, 0.869659
0.392, -1, -7.86325, 38.7212, 14.46, -2.73602, -76.6179, 0.768825
0.396, -1, -7.77881, 38.6463, 14.4882, -2.60145, -76.4603, 0.668089
0.4, -1, -7.69446, 38.5713, 14.5164, -2.467, -76.3029, 0.567454
0.404, -1, -7.61019, 38.4965, 14.5446, -2.3327, -76.1456, 0.466921
0.408, -1, -7.526, 38.4217, 14.5727, -2.19854, -75.9885, 0.366494
0.412, -1, -7.44191, 38.347, 14.6008, -2.06452, -75.8316, 0.266176
0.416, -1, -7.35791, 38.2724, 14.6288, -1.93064, -75.6748, 0.165968
0.42, -1, -7.274, 38.1979, 14.6569, -1.79692, -75.5183, 0.0658724
0.424, -1, -7.19019, 38.1235, 14.6849, -1.66336, -75.3619, -0.0341072
0.428, -1, -7.10648, 38.0491, 14.7128, -1.52995, -75.2057, -0.133969
0.432, -1, -7.02287, 37.9748, 14.7408, -1.3967, -75.0496, -0.233711
0.436, -1, -6.93935, 37.9007, 14.7687, -1.26362, -74.8938, -0.33333
0.44, -1, -6.85595, 37.8266, 14.7965, -1.1307, -74.7382, -0.432824
0.444, -1, -6.77264, 37.7526, 14.8244, -0.99795, -74.5827, -0.532191
0.448, -1, -6.68945, 37.6787, 14.8522, -0.865375, -74.4275, -0.631429
0.452, -1, -6.60636, 37.6049, 14.8799, -0.732975, -74.2725, -0.730535
0.456, -1, -6.52339, 37.5312, 14.9077, -0.600755, -74.1176, -0.829507
0.46, -1, -6.44053, 37.4576, 14.9353, -0.468716, -73.963, -0.928344
0.464, -1, -6.35778, 37.3842, 14.963, -0.336861, -73.8086, -1.02704
0.468, -1, -6.27515, 37.3108, 14.9906, -0.205193, -73.6545, -1.1256
0.472, -1, -6.19264, 37.2375, 15.0181, -0.0737153, -73.5005, -1.22402
0.476, -1, -6.11024, 37.1643, 15.0457, 0.0575699, -73.3468, -1.32229
0.48, -1, -6.02797, 37.0912, 15.0732, 0.18866, -73.1933, -1.42042
0.484, -1, -5.94582, 37.0183, 15.1006, 0.319552, -73.04, -1.51839
0.488, -1, -5.8638, 36.9454, 15.128, 0.450244, -72.887, -1.61622
0.492, -1, -5.7819, 36.8727, 15.1554, 0.580734, -72.7342, -1.7139
0.496, -1, -5.70012, 36.8001, 15.1827, 0.711018, -72.5817, -1.81142
0.5, -1, -5.61848, 36.7276, 15.2099, 0.841096, -72.4294, -1.90879
0.504, -1, -5.53697, 36.6552, 15.2372, 0.970964, -72.2773, -2.006
0.508, -1, -5.45558, 36.5829, 15.2644, 1.10062, -72.1255, -2.10306
0.512, -1, -5.37433, 36.5108, 15.2915, 1.23006, -71.9739, -2.19995
0.516, -1, -5.29321, 36.4387, 15.3186, 1.35929, -71.8226, -2.29668
0.52, -1, -5.21223, 36.3668, 15.3456, 1.4883, -71.6715, -2.39325
0.524, -1, -5.13138, 36.295, 15.3726, 1.6171, -71.5207, -2.48966
0.528, -1, -5.05067, 36.2233, 15.3996, 1.74567, -71.3702, -2.5859
0.532, -1, -4.97009, 36.1518, 15.4265, 1.87402, -71.2199, -2.68198
0.536, -1, -4.88966, 36.0803, 15.4534, 2.00215, -71.0698, -2.77789
0.54, -1, -4.80936, 36.009, 15.4802, 2.13005, -70.9201, -2.87363
0.544, -1, -4.7292, 35.9378, 15.507, 2.25773, -70.7706, -2.9692
0.548, -1, -4.64919, 35.8668, 15.5337, 2.38518, -70.6213, -3.0646
0.552, -1, -4.56931, 35.7959, 15.5604, 2.51241, -70.4724, -3.15984
0.556, -1, -4.48958, 35.725, 15.587, 2.6394, -70.3237, -3.2549
0.56, -1, -4.41, 35.6544, 15.6136, 2.76617, -70.1752, -3.34979
0.564, -1, -4.33056, 35.5838, 15.6401, 2.8927, -70.0271, -3.44451
0.568, -1, -4.25126, 35.5134, 15.6666, 3.01901, -69.8792, -3.53905
0.572, -1, -4.17211, 35.4431, 15.693, 3.14508, -69.7316, -3.63342
0.576, -1, -4.0931, 35.373, 15.7194, 3.27092, -69.5842, -3.72761
0.58, -1, -4.01424, 35.3029, 15.7458, 3.39652, -69.4372, -3.82163
0.584, -1, -3.93553, 35.233, 15.772, 3.52189, -69.2904, -3.91547
0.588, -1, -3.85696, 35.1633, 15.7983, 3.64702, -69.1438, -4.00914
0.592, -1, -3.77855, 35.0936, 15.8245, 3.77191, -68.9976, -4.10263
0.596, -1, -3.70028, 35.0241, 15.8506, 3.89657, -68.8516, -4.19594
0.6, -1, -3.62216, 34.9548, 15.8767, 4.02099, -68.7059, -4.28908
0.604, -1, -3.54419, 34.8855, 15.9027, 4.14517, -68.5605, -4.38203
0.608, -1, -3.46637, 34.8164, 15.9287, 4.26911, -68.4154, -4.47481
0.612, -1, -3.3887, 34.7474, 15.9547, 4.39281, -68.2706, -4.5674
0.616, -1, -3.31118, 34.6786, 15.9806, 4.51628, -68.126, -4.65982
0.62, -1, -3.23382, 34.6099, 16.0064, 4.63949, -67.9817, -4.75205
0.624, -1, -3.1566, 34.5413, 16.0322, 4.76247, -67.8377, -4.84411
0.628, -1, -3.07954, 34.4729, 16.0579, 4.88521, -67.694, -4.93598
0.632, -1, -3.00262, 34.4046, 16.0836, 5.0077, -67.5506, -5.02767
0.636, -1, -2.92586, 34.3364, 16.1092, 5.12995, -67.4074, -5.11918
0.64, -1, -2.84926, 34.2684, 16.1348, 5.25195, -67.2646, -5.2105
0.644, -1, -2.7728, 34.2005, 16.1604, 5.37371, -67.122, -5.30165
0.648, -1, -2.6965, 34.1328, 16.1858, 5.49523, -66.9797, -5.39261
0.652, -1, -2.62035, 34.0652, 16.2113, 5.6165, -66.8377, -5.48338
0.656, -1, -2.54436, 33.9977, 16.2366, 5.73753, -66.696, -5.57398
0.66, -1, -2.46852, 33.9303, 16.262, 5.85831, -66.5546, -5.66439
0.664, -1, -2.39283, 33.8631, 16.2872, 5.97884, -66.4135, -5.75461
0.668, -1, -2.3173, 33.7961, 16.3125, 6.09913, -66.2726, -5.84465
0.672, -1, -2.24192, 33.7291, 16.3376, 6.21917, -66.1321, -5.93451
0.676, -1, -2.1667, 33.6623, 16.3628, 6.33897, -65.9918, -6.02418
0.68, -1, -2.09163, 33.5957, 16.3878, 6.45851, -65.8518, -6.11367
0.684, -1, -2.01672, 33.5292, 16.4129, 6.57781, -65.7121, -6.20297
0.688, -1, -1.94196, 33.4628, 16.4378, 6.69687, -65.5727, -6.29208
0.692, -1, -1.86736, 33.3965, 16.4627, 6.81567, -65.4336, -6.38101
0.696, -1, -1.79291, 33.3304, 16.4876, 6.93423, -65.2948, -6.46976
0.7, -1, -1.71862, 33.2645, 16.5124, 7.05254, -65.1562, -6.55832
0.704, -1, -1.64448, 33.1986, 16.5372, 7.1706, -65.018, -6.64669
0.708, -1, -1.5705, 33.1329, 16.5619, 7.28841, -64.8801, -6.73488
0.712, -1, -1.49668, 33.0674, 16.5865, 7.40597, -64.7424, -6.82288
0.716, -1, -1.42301, 33.002, 16.6111, 7.52329, -64.605, -6.9107
0.72, -1, -1.34949, 32.9367, 16.6357, 7.64036, -64.468, -6.99833
0.724, -1, -1.27614, 32.8715, 16.6602, 7.75718, -64.3312, -7.08577
0.728, -1, -1.20293, 32.8065, 16.6846, 7.87375, -64.1947, -7.17303
0.732, -1, -1.12989, 32.7417, 16.709, 7.99007, -64.0585, -7.2601
0.736, -1, -1.057, 32.677, 16.7333, 8.10615, -63.9226, -7.34699
0.74, -1, -0.984259, 32.6124, 16.7576, 8.22197, -63.7869, -7.43369
0.744, -1, -0.911678, 32.5479, 16.7819, 8.33755, -63.6516, -7.52021
0.748, -1, -0.839252, 32.4836, 16.8061, 8.45288, -63.5166, -7.60653
0.752, -1, -0.766981, 32.4194, 16.8302, 8.56796, -63.3818, -7.69268
0.756, -1, -0.694864, 32.3554, 16.8543, 8.6828, -63.2474, -7.77864
0.76, -1, -0.622901, 32.2915, 16.8783, 8.79738, -63.1132, -7.86441
0.764, -1, -0.551092, 32.2277, 16.9023, 8.91172, -62.9793, -7.95
0.768, -1, -0.479437, 32.1641, 16.9262, 9.02582, -62.8457, -8.0354
0.772, -1, -0.407935, 32.1006, 16.9501, 9.13966, -62.7124, -8.12062
0.776, -1, -0.336586, 32.0373, 16.9739, 9.25326, -62.5794, -8.20566
0.78, -1, -0.26539, 31.9741, 16.9977, 9.36662, -62.4467, -8.29051
0.784, -1, -0.194346, 31.911, 17.0214, 9.47973, -62.3142, -8.37518
0.788, -1, -0.123455, 31.848, 17.0451, 9.5926, -62.182, -8.45966
0.792, -1, -0.0527154, 31.7852, 17.0687, 9.70522, -62.0502, -8.54397
0.796, -1, 0.0178725, 31.7226, 17.0923, 9.81761, -61.9186, -8.62809
0.8, -1, 0.0883091, 31.66, 17.1158, 9.92975, -61.7873, -8.71204
0.804, -1, 0.158595, 31.5976, 17.1393, 10.0417, -61.6562, -8.7958
0.808, -1, 0.22873, 31.5353, 17.1627, 10.1533, -61.5255, -8.87938
0.812, -1, 0.298716, 31.4732, 17.186, 10.2647, -61.395, -8.96279
0.816, -1, 0.368552, 31.4112, 17.2094, 10.3759, -61.2648, -9.04602
0.82, -1, 0.438239, 31.3493, 17.2326, 10.4869, -61.1349, -9.12907
0.824, -1, 0.507778, 31.2876, 17.2559, 10.5976, -61.0053, -9.21194
0.828, -1, 0.577169, 31.226, 17.279, 10.7081, -60.8759, -9.29464
0.832, -1, 0.646413, 31.1645, 17.3021, 10.8183, -60.7468, -9.37716
0.836, -1, 0.71551, 31.1031, 17.3252, 10.9283, -60.618, -9.45951
0.84, -1, 0.78446, 31.0419, 17.3482, 11.0381, -60.4895, -9.54168
0.844, -1, 0.853265, 30.9808, 17.3712, 11.1476, -60.3612, -9.62368
0.848, -1, 0.921925, 30.9199, 17.3941, 11.2569, -60.2332, -9.7055
0.852, -1, 0.990441, 30.859, 17.417, 11.366, -60.1055, -9.78716
0.856, -1, 1.05881, 30.7983, 17.4398, 11.4749, -59.9781, -9.86864
0.86, -1, 1.12704, 30.7378, 17.4626, 11.5835, -59.8509, -9.94995
0.864, -1, 1.19512, 30.6773, 17.4854, 11.6919, -59.7239, -10.0311
0.868, -1, 1.26307, 30.617, 17.508, 11.8001, -59.5973, -10.1121
0.872, -1, 1.33087, 30.5568, 17.5307, 11.908, -59.4709, -10.1929
0.876, -1, 1.39853, 30.4967, 17.5533, 12.0157, -59.3448, -10.2735
0.88, -1, 1.46604, 30.4368, 17.5758, 12.1232, -59.2189, -10.354
0.884, -1, 1.53342, 30.377, 17.5983, 12.2305, -59.0933, -10.4343
0.888, -1, 1.60066, 30.3173, 17.6208, 12.3375, -58.9679, -10.5144
0.892, -1, 1.66775, 30.2577, 17.6432, 12.4444, -58.8429, -10.5943
0.896, -1, 1.73471, 30.1982, 17.6655, 12.551, -58.718, -10.6741
0.9, -1, 1.80153, 30.1389, 17.6878, 12.6574, -58.5935, -10.7538
0.904, -1, 1.86821, 30.0797, 17.7101, 12.7635, -58.4692, -10.8332
0.908, -1, 1.93476, 30.0206, 17.7323, 12.8695, -58.3451, -10.9125
0.912, -1, 2.00117, 29.9617, 17.7545, 12.9752, -58.2213, -10.9917
0.916, -1, 2.06744, 29.9028, 17.7766, 13.0807, -58.0978, -11.0707
0.92, -1, 2.13357, 29.8441, 17.7987, 13.186, -57.9745, -11.1495
0.924, -1, 2.19957, 29.7855, 17.8207, 13.2911, -57.8514, -11.2281
0.928, -1, 2.26543, 29.727, 17.8427, 13.3959, -57.7287, -11.3066
0.932, -1, 2.33116, 29.6687, 17.8647, 13.5006, -57.6061, -11.385
0.936, -1, 2.39676, 29.6104, 17.8866, 13.605, -57.4838, -11.4631
0.94, -1, 2.46222, 29.5523, 17.9084, 13.7092, -57.3618, -11.5412
0.944, -1, 2.52755, 29.4943, 17.9303, 13.8133, -57.24, -11.619
0.948, -1, 2.59275, 29.4364, 17.952, 13.9171, -57.1185, -11.6967
0.952, -1, 2.65781, 29.3787, 17.9738, 14.0206, -56.9972, -11.7743
0.956, -1, 2.72274, 29.321, 17.9954, 14.124, -56.8761, -11.8516
0.96, -1, 2.78755, 29.2635, 18.0171, 14.2272, -56.7553, -11.9289
0.964, -1, 2.85222, 29.2061, 18.0387, 14.3302, -56.6348, -12.0059
0.968, -1, 2.91676, 29.1488, 18.0602, 14.4329, -56.5144, -12.0829
0.972, -1, 2.98117, 29.0916, 18.0817, 14.5355, -56.3944, -12.1596
0.976, -1, 3.04545, 29.0345, 18.1032, 14.6378, -56.2745, -12.2362
0.98, -1, 3.10961, 28.9775, 18.1246, 14.7399, -56.1549, -12.3127
0.984, -1, 3.17363, 28.9207, 18.146, 14.8419, -56.0356, -12.389
0.988, -1, 3.23753, 28.864, 18.1673, 14.9436, -55.9165, -12.4651
0.992, -1, 3.3013, 28.8074, 18.1886, 15.0451, -55.7976, -12.5411
0.996, -1, 3.36494, 28.7508, 18.2099, 15.1465, -55.6789, -12.617
1, -1, 3.42846, 28.6945, 18.2311, 15.2476, -55.5605, -12.6927
1.004, -1, 3.49185, 28.6382, 18.2523, 15.3485, -55.4423, -12.7682
1.008, -1, 3.55512, 28.582, 18.2734, 15.4492, -55.3244, -12.8436
1.012, -1, 3.61826, 28.5259, 18.2945, 15.5498, -55.2067, -12.9189
1.016, -1, 3.68127, 28.47, 18.3155, 15.6501, -55.0892, -12.994
1.02, -1, 3.74416, 28.4142, 18.3365, 15.7502, -54.972, -13.0689
1.024, -1, 3.80693, 28.3584, 18.3575, 15.8502, -54.855, -13.1437
1.027, -1, 3.86958, 28.3028, 18.3784, 15.9499, -54.7382, -13.2184
1.032, -1, 3.9321, 28.2473, 18.3993, 16.0494, -54.6216, -13.2929
1.036, -1, 3.9945, 28.1919, 18.4201, 16.1488, -54.5053, -13.3673
1.04, -1, 4.05678, 28.1366, 18.4409, 16.2479, -54.3892, -13.4415
1.044, -1, 4.11893, 28.0814, 18.4616, 16.3469, -54.2733, -13.5156
1.048, -1, 4.18097, 28.0263, 18.4824, 16.4457, -54.1577, -13.5895
1.052, -1, 4.24289, 27.9714, 18.503, 16.5442, -54.0422, -13.6633
1.055, -1, 4.30468, 27.9165, 18.5237, 16.6426, -53.927, -13.7369
1.06, -1, 4.36636, 27.8617, 18.5443, 16.7408, -53.8121, -13.8104
1.064, -1, 4.42792, 27.8071, 18.5648, 16.8388, -53.6973, -13.8838
1.068, -1, 4.48936, 27.7525, 18.5853, 16.9366, -53.5828, -13.957
1.072, -1, 4.55068, 27.6981, 18.6058, 17.0343, -53.4685, -14.0301
1.076, -1, 4.61188, 27.6438, 18.6262, 17.1317, -53.3544, -14.103
1.08, -1, 4.67297, 27.5895, 18.6466, 17.229, -53.2405, -14.1758
1.084, -1, 4.73394, 27.5354, 18.667, 17.326, -53.1268, -14.2485
1.088, -1, 4.7948, 27.4814, 18.6873, 17.4229, -53.0134, -14.321
1.091, -1, 4.85554, 27.4274, 18.7076, 17.5196, -52.9002, -14.3934
1.096, -1, 4.91617, 27.3736, 18.7278, 17.6161, -52.7871, -14.4656
1.1, -1, 4.97668, 27.3199, 18.7481, 17.7125, -52.6743, -14.5378
1.104, -1, 5.03708, 27.2663, 18.7682, 17.8086, -52.5618, -14.6097
1.108, -1, 5.09737, 27.2127, 18.7883, 17.9046, -52.4494, -14.6816
1.112, -1, 5.15754, 27.1593, 18.8084, 18.0004, -52.3372, -14.7533
1.116, -1, 5.2176, 27.106, 18.8285, 18.096, -52.2253, -14.8249
1.119, -1, 5.27755, 27.0528, 18.8485, 18.1915, -52.1135, -14.8963
1.124, -1, 5.33739, 26.9996, 18.8685, 18.2867, -52.0019, -14.9676
1.128, -1, 5.39712, 26.9466, 18.8884, 18.3818, -51.8906, -15.0388
1.132, -1, 5.45673, 26.8937, 18.9083, 18.4767, -51.7795, -15.1098
1.136, -1, 5.51624, 26.8408, 18.9282, 18.5715, -51.6685, -15.1807
1.14, -1, 5.57564, 26.7881, 18.948, 18.666, -51.5578, -15.2515
1.144, -1, 5.63493, 26.7355, 18.9678, 18.7604, -51.4473, -15.3222
1.147, -1, 5.69412, 26.6829, 18.9876, 18.8547, -51.337, -15.3927
1.152, -1, 5.75319, 26.6305, 19.0073, 18.9487, -51.2268, -15.4631
1.156, -1, 5.81216, 26.5781, 19.027, 19.0426, -51.1169, -15.5334
1.16, -1, 5.87103, 26.5259, 19.0467, 19.1363, -51.0072, -15.6035
1.164, -1, 5.92979, 26.4737, 19.0663, 19.2298, -50.8976, -15.6736
1.168, -1, 5.98844, 26.4216, 19.0859, 19.3232, -50.7883, -15.7435
1.172, -1, 6.04699, 26.3696, 19.1054, 19.4164, -50.6792, -15.8132
1.175, -1, 6.10543, 26.3177, 19.1249, 19.5095, -50.5702, -15.8829
1.18, -1, 6.16377, 26.266, 19.1444, 19.6024, -50.4614, -15.9524
1.184, -1, 6.22201, 26.2142, 19.1639, 19.6951, -50.3529, -16.0218
1.188, -1, 6.28015, 26.1626, 19.1833, 19.7876, -50.2445, -16.0911
1.192, -1, 6.33818, 26.1111, 19.2027, 19.88, -50.1363, -16.1603
1.196, -1, 6.39611, 26.0597, 19.222, 19.9723, -50.0283, -16.2293
1.2, -1, 6.45394, 26.0083, 19.2413, 20.0643, -49.9205, -16.2982
1.204, -1, 6.51167, 25.9571, 19.2606, 20.1562, -49.8129, -16.367
1.208, -1, 6.5693, 25.9059, 19.2798, 20.248, -49.7055, -16.4357
1.212, -1, 6.62683, 25.8548, 19.299, 20.3396, -49.5982, -16.5042
1.216, -1, 6.68426, 25.8038, 19.3182, 20.431, -49.4912, -16.5727
1.22, -1, 6.74159, 25.7529, 19.3374, 20.5223, -49.3843, -16.641
1.224, -1, 6.79882, 25.7021, 19.3565, 20.6134, -49.2776, -16.7092
1.228, -1, 6.85596, 25.6514, 19.3756, 20.7044, -49.1711, -16.7773
1.232, -1, 6.91299, 25.6008, 19.3946, 20.7952, -49.0648, -16.8453
1.236, -1, 6.96993, 25.5502, 19.4136, 20.8858, -48.9586, -16.9131
1.24, -1, 7.02678, 25.4997, 19.4326, 20.9763, -48.8526, -16.9809
1.244, -1, 7.08352, 25.4494, 19.4515, 21.0667, -48.7469, -17.0485
1.248, -1, 7.14018, 25.3991, 19.4705, 21.1569, -48.6413, -17.116
1.252, -1, 7.19673, 25.3488, 19.4893, 21.2469, -48.5358, -17.1834
1.256, -1, 7.25319, 25.2987, 19.5082, 21.3368, -48.4306, -17.2507
1.26, -1, 7.30956, 25.2487, 19.527, 21.4266, -48.3255, -17.3179
1.264, -1, 7.36583, 25.1987, 19.5458, 21.5161, -48.2206, -17.385
1.267, -1, 7.42201, 25.1488, 19.5646, 21.6056, -48.1158, -17.4519
1.272, -1, 7.4781, 25.099, 19.5833, 21.6949, -48.0113, -17.5188
1.276, -1, 7.53409, 25.0493, 19.602, 21.784, -47.9069, -17.5855
1.28, -1, 7.58999, 24.9997, 19.6207, 21.873, -47.8027, -17.6521
1.284, -1, 7.6458, 24.9501, 19.6393, 21.9619, -47.6986, -17.7186
1.288, -1, 7.70152, 24.9007, 19.6579, 22.0506, -47.5948, -17.785
1.292, -1, 7.75715, 24.8513, 19.6765, 22.1392, -47.4911, -17.8513
1.295, -1, 7.81268, 24.802, 19.695, 22.2276, -47.3875, -17.9175
1.3, -1, 7.86813, 24.7528, 19.7135, 22.3159, -47.2842, -17.9836
1.304, -1, 7.92348, 24.7036, 19.732, 22.404, -47.181, -18.0496
1.308, -1, 7.97875, 24.6545, 19.7505, 22.492, -47.0779, -18.1154
1.312, -1, 8.03393, 24.6055, 19.7689, 22.5798, -46.9751, -18.1812
1.316, -1, 8.08901, 24.5566, 19.7873, 22.6675, -46.8724, -18.2468
1.32, -1, 8.14401, 24.5078, 19.8057, 22.7551, -46.7699, -18.3124
1.324, -1, 8.19893, 24.4591, 19.824, 22.8425, -46.6675, -18.3778
1.328, -1, 8.25375, 24.4104, 19.8423, 22.9298, -46.5653, -18.4432
1.332, -1, 8.30849, 24.3618, 19.8606, 23.017, -46.4632, -18.5084
1.336, -1, 8.36314, 24.3133, 19.8788, 23.104, -46.3614, -18.5735
1.34, -1, 8.4177, 24.2648, 19.8971, 23.1909, -46.2596, -18.6386
1.344, -1, 8.47218, 24.2165, 19.9153, 23.2776, -46.1581, -18.7035
1.348, -1, 8.52657, 24.1682, 19.9334, 23.3642, -46.0567, -18.7683
1.352, -1, 8.58088, 24.1199, 19.9515, 23.4507, -45.9554, -18.833
1.356, -1, 8.6351, 24.0718, 19.9697, 23.537, -45.8543, -18.8976
1.36, -1, 8.68923, 24.0237, 19.9877, 23.6232, -45.7534, -18.9622
1.364, -1, 8.74328, 23.9757, 20.0058, 23.7092, -45.6526, -19.0266
1.368, -1, 8.79725, 23.9278, 20.0238, 23.7952, -45.552, -19.0909
1.372, -1, 8.85114, 23.88, 20.0418, 23.881, -45.4516, -19.1551
1.376, -1, 8.90494, 23.8322, 20.0598, 23.9666, -45.3513, -19.2192
1.38, -1, 8.95866, 23.7845, 20.0777, 24.0521, -45.2511, -19.2833
1.384, -1, 9.01229, 23.7369, 20.0956, 24.1375, -45.1511, -19.3472
1.388, -1, 9.06584, 23.6894, 20.1135, 24.2228, -45.0513, -19.411
1.392, -1, 9.11932, 23.6419, 20.1314, 24.3079, -44.9516, -19.4747
1.396, -1, 9.1727, 23.5945, 20.1492, 24.393, -44.8521, -19.5384
1.4, -1, 9.22601, 23.5472, 20.167, 24.4778, -44.7527, -19.6019
1.404, -1, 9.27924, 23.4999, 20.1848, 24.5626, -44.6535, -19.6653
1.408, -1, 9.33239, 23.4527, 20.2025, 24.6472, -44.5544, -19.7287
1.412, -1, 9.38546, 23.4056, 20.2202, 24.7317, -44.4554, -19.7919
1.416, -1, 9.43844, 23.3585, 20.2379, 24.8161, -44.3567, -19.8551
1.42, -1, 9.49135, 23.3116, 20.2556, 24.9003, -44.258, -19.9181
1.424, -1, 9.54418, 23.2647, 20.2732, 24.9844, -44.1595, -19.9811
1.428, -1, 9.59693, 23.2178, 20.2908, 25.0684, -44.0612, -20.044
1.432, -1, 9.6496, 23.1711, 20.3084, 25.1523, -43.963, -20.1067
1.436, -1, 9.7022, 23.1244, 20.326, 25.236, -43.865, -20.1694
1.44, -1, 9.75472, 23.0777, 20.3435, 25.3196, -43.767, -20.232
1.444, -1, 9.80716, 23.0312, 20.361, 25.4031, -43.6693, -20.2945
1.448, -1, 9.85952, 22.9847, 20.3785, 25.4865, -43.5717, -20.3569
1.452, -1, 9.91181, 22.9383, 20.396, 25.5697, -43.4742, -20.4192
1.456, -1, 9.96403, 22.8919, 20.4134, 25.6528, -43.3769, -20.4814
1.46, -1, 10.0162, 22.8456, 20.4308, 25.7358, -43.2797, -20.5436
1.464, -1, 10.0682, 22.7994, 20.4482, 25.8187, -43.1826, -20.6056
1.468, -1, 10.1202, 22.7533, 20.4656, 25.9015, -43.0857, -20.6676
1.472, -1, 10.1721, 22.7072, 20.4829, 25.9841, -42.989, -20.7294
1.476, -1, 10.224, 22.6612, 20.5002, 26.0666, -42.8923, -20.7912
1.48, -1, 10.2757, 22.6152, 20.5175, 26.149, -42.7958, -20.8529
1.484, -1, 10.3274, 22.5693, 20.5348, 26.2313, -42.6995, -20.9145
1.488, -1, 10.379, 22.5235, 20.552, 26.3135, -42.6033, -20.976
1.492, -1, 10.4306, 22.4777, 20.5692, 26.3956, -42.5072, -21.0374
1.496, -1, 10.482, 22.432, 20.5864, 26.4775, -42.4113, -21.0987
1.5, -1, 10.5334, 22.3864, 20.6035, 26.5593, -42.3154, -21.16
1.504, -1, 10.5848, 22.3408, 20.6207, 26.641, -42.2198, -21.2212
1.508, -1, 10.636, 22.2953, 20.6378, 26.7226, -42.1242, -21.2822
1.512, -1, 10.6872, 22.2499, 20.6549, 26.8041, -42.0288, -21.3432
1.516, -1, 10.7383, 22.2045, 20.6719, 26.8855, -41.9336, -21.4041
1.52, -1, 10.7893, 22.1592, 20.689, 26.9667, -41.8384, -21.4649
1.524, -1, 10.8403, 22.114, 20.706, 27.0479, -41.7434, -21.5257
1.528, -1, 10.8912, 22.0688, 20.723, 27.1289, -41.6485, -21.5863
1.532, -1, 10.942, 22.0237, 20.74, 27.2098, -41.5538, -21.6469
1.536, -1, 10.9928, 21.9786, 20.7569, 27.2906, -41.4592, -21.7074
1.54, -1, 11.0435, 21.9336, 20.7738, 27.3713, -41.3647, -21.7678
1.544, -1, 11.0941, 21.8887, 20.7908, 27.4519, -41.2703, -21.8281
1.548, -1, 11.1446, 21.8438, 20.8076, 27.5324, -41.1761, -21.8884
1.552, -1, 11.1951, 21.799, 20.8245, 27.6127, -41.082, -21.9485
1.556, -1, 11.2455, 21.7542, 20.8413, 27.693, -40.988, -22.0086
1.56, -1, 11.2959, 21.7095, 20.8581, 27.7732, -40.8941, -22.0686
1.564, -1, 11.3462, 21.6649, 20.8749, 27.8532, -40.8004, -22.1285
1.568, -1, 11.3964, 21.6203, 20.8917, 27.9331, -40.7068, -22.1884
1.572, -1, 11.4465, 21.5758, 20.9084, 28.013, -40.6133, -22.2481
1.576, -1, 11.4966, 21.5313, 20.9251, 28.0927, -40.52, -22.3078
1.58, -1, 11.5466, 21.4869, 20.9418, 28.1723, -40.4268, -22.3674
1.584, -1, 11.5965, 21.4426, 20.9585, 28.2518, -40.3336, -22.4269
1.588, -1, 11.6464, 21.3983, 20.9752, 28.3313, -40.2407, -22.4864
1.592, -1, 11.6962, 21.3541, 20.9918, 28.4106, -40.1478, -22.5457
1.596, -1, 11.746, 21.3099, 21.0084, 28.4898, -40.0551, -22.605
1.6, -1, 11.7957, 21.2658, 21.025, 28.5689, -39.9624, -22.6642
1.604, -1, 11.8453, 21.2217, 21.0416, 28.6479, -39.8699, -22.7234
1.608, -1, 11.8948, 21.1778, 21.0581, 28.7268, -39.7776, -22.7824
1.612, -1, 11.9443, 21.1338, 21.0747, 28.8055, -39.6853, -22.8414
1.616, -1, 11.9938, 21.0899, 21.0912, 28.8842, -39.5932, -22.9003
1.62, -1, 12.0431, 21.0461, 21.1076, 28.9628, -39.5011, -22.9591
1.624, -1, 12.0924, 21.0023, 21.1241, 29.0413, -39.4092, -23.0179
1.628, -1, 12.1417, 20.9586, 21.1405, 29.1197, -39.3174, -23.0765
1.632, -1, 12.1908, 20.915, 21.157, 29.198, -39.2258, -23.1352
1.636, -1, 12.2399, 20.8714, 21.1734, 29.2762, -39.1342, -23.1937
1.64, -1, 12.289, 20.8278, 21.1897, 29.3543, -39.0428, -23.2521
1.644, -1, 12.338, 20.7843, 21.2061, 29.4323, -38.9515, -23.3105
1.648, -1, 12.3869, 20.7409, 21.2224, 29.5102, -38.8603, -23.3688
1.652, -1, 12.4358, 20.6975, 21.2388, 29.588, -38.7692, -23.4271
1.656, -1, 12.4846, 20.6542, 21.2551, 29.6657, -38.6782, -23.4852
1.66, -1, 12.5333, 20.6109, 21.2713, 29.7433, -38.5873, -23.5433
1.664, -1, 12.582, 20.5677, 21.2876, 29.8208, -38.4966, -23.6013
1.668, -1, 12.6306, 20.5245, 21.3038, 29.8982, -38.4059, -23.6593
1.672, -1, 12.6792, 20.4814, 21.32, 29.9755, -38.3154, -23.7171
1.676, -1, 12.7277, 20.4384, 21.3362, 30.0527, -38.225, -23.7749
1.68, -1, 12.7761, 20.3953, 21.3524, 30.1298, -38.1347, -23.8327
1.684, -1, 12.8245, 20.3524, 21.3686, 30.2069, -38.0445, -23.8903
1.688, -1, 12.8728, 20.3095, 21.3847, 30.2838, -37.9544, -23.9479
1.692, -1, 12.9211, 20.2666, 21.4008, 30.3606, -37.8644, -24.0054
1.696, -1, 12.9693, 20.2238, 21.4169, 30.4374, -37.7746, -24.0629
1.7, -1, 13.0174, 20.1811, 21.433, 30.514, -37.6848, -24.1203
1.704, -1, 13.0655, 20.1384, 21.449, 30.5906, -37.5951, -24.1776
1.708, -1, 13.1136, 20.0958, 21.4651, 30.6671, -37.5056, -24.2348
1.712, -1, 13.1615, 20.0532, 21.4811, 30.7435, -37.4162, -24.292
1.716, -1, 13.2094, 20.0106, 21.4971, 30.8197, -37.3269, -24.3491
1.72, -1, 13.2573, 19.9681, 21.5131, 30.8959, -37.2376, -24.4061
1.724, -1, 13.3051, 19.9257, 21.529, 30.972, -37.1485, -24.4631
1.728, -1, 13.3528, 19.8833, 21.545, 31.0481, -37.0595, -24.52
1.732, -1, 13.4005, 19.841, 21.5609, 31.124, -36.9706, -24.5768
1.736, -1, 13.4482, 19.7987, 21.5768, 31.1998, -36.8818, -24.6336
1.74, -1, 13.4957, 19.7565, 21.5927, 31.2756, -36.7931, -24.6903
1.744, -1, 13.5433, 19.7143, 21.6086, 31.3512, -36.7045, -24.7469
1.748, -1, 13.5907, 19.6721, 21.6244, 31.4268, -36.6161, -24.8035
1.752, -1, 13.6381, 19.63, 21.6402, 31.5023, -36.5277, -24.86
1.756, -1, 13.6855, 19.588, 21.6561, 31.5776, -36.4394, -24.9164
1.76, -1, 13.7328, 19.546, 21.6719, 31.6529, -36.3512, -24.9728
1.764, -1, 13.78, 19.5041, 21.6876, 31.7282, -36.2632, -25.0291
1.768, -1, 13.8272, 19.4622, 21.7034, 31.8033, -36.1752, -25.0853
1.772, -1, 13.8743, 19.4203, 21.7191, 31.8783, -36.0873, -25.1415
1.776, -1, 13.9214, 19.3785, 21.7348, 31.9533, -35.9996, -25.1976
1.78, -1, 13.9684, 19.3368, 21.7505, 32.0281, -35.9119, -25.2536
1.784, -1, 14.0154, 19.2951, 21.7662, 32.1029, -35.8243, -25.3096
1.788, -1, 14.0623, 19.2534, 21.7819, 32.1776, -35.7369, -25.3655
1.792, -1, 14.1092, 19.2118, 21.7975, 32.2522, -35.6495, -25.4214
1.796, -1, 14.156, 19.1703, 21.8132, 32.3268, -35.5622, -25.4772
1.8, -1, 14.2027, 19.1288, 21.8288, 32.4012, -35.4751, -25.5329
1.804, -1, 14.2494, 19.0873, 21.8444, 32.4756, -35.388, -25.5886
1.808, -1, 14.2961, 19.0459, 21.86, 32.5498, -35.301, -25.6442
1.812, -1, 14.3427, 19.0045, 21.8755, 32.624, -35.2142, -25.6997
1.816, -1, 14.3892, 18.9632, 21.8911, 32.6981, -35.1274, -25.7552
1.82, -1, 14.4357, 18.9219, 21.9066, 32.7722, -35.0407, -25.8106
1.824, -1, 14.4822, 18.8807, 21.9221, 32.8461, -34.9541, -25.8659
1.828, -1, 14.5286, 18.8395, 21.9376, 32.92, -34.8676, -25.9212
1.832, -1, 14.5749, 18.7983, 21.9531, 32.9938, -34.7813, -25.9764
1.836, -1, 14.6212, 18.7572, 21.9685, 33.0675, -34.695, -26.0316
1.84, -1, 14.6674, 18.7162, 21.984, 33.1411, -34.6088, -26.0867
1.844, -1, 14.7136, 18.6752, 21.9994, 33.2146, -34.5227, -26.1418
1.848, -1, 14.7598, 18.6342, 22.0148, 33.2881, -34.4367, -26.1967
1.852, -1, 14.8058, 18.5933, 22.0302, 33.3614, -34.3507, -26.2517
1.856, -1, 14.8519, 18.5524, 22.0456, 33.4347, -34.2649, -26.3065
1.86, -1, 14.8979, 18.5116, 22.0609, 33.5079, -34.1792, -26.3613
1.864, -1, 14.9438, 18.4708, 22.0762, 33.5811, -34.0936, -26.4161
1.868, -1, 14.9897, 18.4301, 22.0916, 33.6541, -34.008, -26.4708
1.872, -1, 15.0355, 18.3894, 22.1069, 33.7271, -33.9226, -26.5254
1.876, -1, 15.0813, 18.3487, 22.1222, 33.8, -33.8372, -26.58
1.88, -1, 15.127, 18.3081, 22.1374, 33.8728, -33.7519, -26.6345
1.884, -1, 15.1727, 18.2676, 22.1527, 33.9456, -33.6668, -26.6889
1.888, -1, 15.2184, 18.227, 22.1679, 34.0182, -33.5817, -26.7433
1.892, -1, 15.264, 18.1866, 22.1832, 34.0908, -33.4967, -26.7976
1.896, -1, 15.3095, 18.1461, 22.1984, 34.1633, -33.4118, -26.8519
1.9, -1, 15.355, 18.1057, 22.2136, 34.2358, -33.3269, -26.9062
1.904, -1, 15.4004, 18.0654, 22.2287, 34.3081, -33.2422, -26.9603
1.908, -1, 15.4458, 18.0251, 22.2439, 34.3804, -33.1576, -27.0144
1.912, -1, 15.4912, 17.9848, 22.259, 34.4526, -33.073, -27.0685
1.916, -1, 15.5365, 17.9446, 22.2742, 34.5248, -32.9886, -27.1225
1.92, -1, 15.5818, 17.9044, 22.2893, 34.5968, -32.9042, -27.1764
1.924, -1, 15.627, 17.8643, 22.3044, 34.6688, -32.8199, -27.2303
1.928, -1, 15.6721, 17.8242, 22.3195, 34.7407, -32.7357, -27.2841
1.932, -1, 15.7173, 17.7841, 22.3345, 34.8126, -32.6516, -27.3379
1.936, -1, 15.7623, 17.7441, 22.3496, 34.8843, -32.5676, -27.3916
1.94, -1, 15.8073, 17.7041, 22.3646, 34.956, -32.4836, -27.4453
1.944, -1, 15.8523, 17.6642, 22.3796, 35.0276, -32.3997, -27.4989
1.948, -1, 15.8973, 17.6243, 22.3946, 35.0992, -32.316, -27.5524
1.952, -1, 15.9422, 17.5844, 22.4096, 35.1707, -32.2323, -27.6059
1.956, -1, 15.987, 17.5446, 22.4246, 35.2421, -32.1487, -27.6594
1.96, -1, 16.0318, 17.5048, 22.4396, 35.3134, -32.0652, -27.7128
1.964, -1, 16.0765, 17.4651, 22.4545, 35.3846, -31.9817, -27.7661
1.968, -1, 16.1212, 17.4254, 22.4694, 35.4558, -31.8984, -27.8194
1.972, -1, 16.1659, 17.3858, 22.4844, 35.5269, -31.8151, -27.8726
1.976, -1, 16.2105, 17.3461, 22.4993, 35.598, -31.7319, -27.9258
1.98, -1, 16.2551, 17.3066, 22.5141, 35.6689, -31.6488, -27.9789
1.984, -1, 16.2996, 17.267, 22.529, 35.7398, -31.5658, -28.032
1.988, -1, 16.3441, 17.2275, 22.5439, 35.8107, -31.4829, -28.085
1.992, -1, 16.3886, 17.1881, 22.5587, 35.8814, -31.4, -28.138
1.996, -1, 16.433, 17.1487, 22.5735, 35.9521, -31.3173, -28.1909
1.999, -1, 16.4773, 17.1093, 22.5883, 36.0228, -31.2346, -28.2438
2.004, -1, 16.5216, 17.0699, 22.6031, 36.0933, -31.1519, -28.2966
2.008, -1, 16.5659, 17.0306, 22.6179, 36.1638, -31.0694, -28.3493
2.012, -1, 16.6101, 16.9914, 22.6327, 36.2342, -30.987, -28.4021
2.015, -1, 16.6543, 16.9521, 22.6474, 36.3046, -30.9046, -28.4547
2.019, -1, 16.6984, 16.9129, 22.6622, 36.3748, -30.8223, -28.5073
2.024, -1, 16.7425, 16.8738, 22.6769, 36.445, -30.7401, -28.5599
2.028, -1, 16.7866, 16.8347, 22.6916, 36.5152, -30.658, -28.6124
2.031, -1, 16.8306, 16.7956, 22.7063, 36.5853, -30.5759, -28.6648
2.036, -1, 16.8746, 16.7566, 22.721, 36.6553, -30.4939, -28.7172
2.04, -1, 16.9185, 16.7176, 22.7357, 36.7252, -30.412, -28.7696
2.044, -1, 16.9624, 16.6786, 22.7503, 36.7951, -30.3302, -28.8219
2.048, -1, 17.0062, 16.6397, 22.765, 36.8649, -30.2485, -28.8742
2.051, -1, 17.05, 16.6008, 22.7796, 36.9346, -30.1668, -28.9264
2.055, -1, 17.0938, 16.5619, 22.7942, 37.0043, -30.0852, -28.9785
2.06, -1, 17.1375, 16.5231, 22.8088, 37.0739, -30.0037, -29.0306
2.064, -1, 17.1811, 16.4844, 22.8234, 37.1435, -29.9223, -29.0827
2.068, -1, 17.2244, 16.4458, 22.8379, 37.2129, -29.841, -29.1347
2.071, -1, 17.2671, 16.4077, 22.8523, 37.2823, -29.7597, -29.1866
2.076, -1, 17.3088, 16.3701, 22.8666, 37.3515, -29.6787, -29.2384
2.08, -1, 17.3495, 16.3335, 22.8807, 37.4204, -29.5981, -29.29
2.084, -1, 17.3888, 16.2979, 22.8945, 37.4888, -29.518, -29.3412
2.087, -1, 17.4267, 16.2635, 22.9079, 37.5564, -29.4389, -29.3918
2.092, -1, 17.4632, 16.2306, 22.921, 37.6229, -29.3611, -29.4417
2.096, -1, 17.4983, 16.1992, 22.9337, 37.6879, -29.2851, -29.4903
2.1, -1, 17.5321, 16.1694, 22.9459, 37.7508, -29.2115, -29.5374
2.104, -1, 17.5644, 16.1411, 22.9576, 37.8112, -29.1408, -29.5827
2.107, -1, 17.5951, 16.1145, 22.9686, 37.8686, -29.0737, -29.6257
2.111, -1, 17.624, 16.0896, 22.9791, 37.9226, -29.0106, -29.6661
2.116, -1, 17.6513, 16.0662, 22.9888, 37.9726, -28.9521, -29.7035
2.12, -1, 17.6768, 16.044, 22.9978, 38.0183, -28.8986, -29.7378
2.124, -1, 17.7009, 16.023, 23.0061, 38.0595, -28.8504, -29.7686
2.127, -1, 17.7234, 16.0029, 23.0136, 38.0959, -28.8078, -29.7958
2.132, -1, 17.7446, 15.9838, 23.0205, 38.1275, -28.7707, -29.8195
2.136, -1, 17.7642, 15.9657, 23.0267, 38.1546, -28.739, -29.8397
2.14, -1, 17.7823, 15.9489, 23.0321, 38.1772, -28.7125, -29.8566
2.143, -1, 17.7986, 15.9337, 23.0368, 38.1957, -28.6907, -29.8705
2.148, -1, 17.8131, 15.9202, 23.0409, 38.2106, -28.6732, -29.8816
2.152, -1, 17.8259, 15.9085, 23.0443, 38.2223, -28.6594, -29.8904
2.156, -1, 17.8371, 15.8987, 23.0471, 38.2313, -28.6488, -29.8971
2.16, -1, 17.8467, 15.8905, 23.0494, 38.2381, -28.6409, -29.9021
2.163, -1, 17.855, 15.8838, 23.0513, 38.243, -28.635, -29.9058
2.168, -1, 17.8619, 15.8785, 23.0527, 38.2465, -28.6308, -29.9084
2.172, -1, 17.8674, 15.8744, 23.0538, 38.249, -28.6279, -29.9103
2.176, 2, 17.8716, 15.8714, 23.0546, 38.2507, -28.6258, -29.9115
2.179, 2, 17.8747, 15.8692, 23.0552, 38.2519, -28.6245, -29.9124
2.184, 2, 17.8769, 15.8677, 23.0556, 38.2527, -28.6235, -29.913
2.188, 2, 17.8784, 15.8667, 23.0558, 38.2532, -28.6229, -29.9134
2.192, 2, 17.8794, 15.866, 23.056, 38.2536, -28.6224, -29.9137
2.196, 2, 17.8801, 15.8655, 23.0561, 38.2538, -28.6221, -29.9138
2.199, 2, 17.8806, 15.8652, 23.0562, 38.254, -28.6219, -29.914
2.204, 2, 17.8809, 15.865, 23.0563, 38.2541, -28.6218, -29.9141
2.208, 2, 17.8811, 15.8649, 23.0563, 38.2542, -28.6217, -29.9141
2.212, 2, 17.8813, 15.8648, 23.0563, 38.2543, -28.6217, -29.9141
2.216, 2, 17.8814, 15.8647, 23.0564, 38.2543, -28.6216, -29.9142
2.219, 2, 17.8814, 15.8646, 23.0564, 38.2543, -28.6216, -29.9142
2.224, 2, 17.8815, 15.8646, 23.0564, 38.2543, -28.6216, -29.9142
2.228, 2, 17.8815, 15.8646, 23.0564, 38.2543, -28.6215, -29.9142
2.232, 2, 17.8815, 15.8646, 23.0564, 38.2543, -28.6215, -29.9142
2.235, 2, 17.8815, 15.8646, 23.0564, 38.2544, -28.6215, -29.9142
2.24, 2, 17.8815, 15.8646, 23.0564, 38.2544, -28.6215, -29.9142
2.244, 2, 17.8816, 15.8646, 23.0564, 38.2544, -28.6215, -29.9142
2.248, 2, 17.8816, 15.8646, 23.0564, 38.2544, -28.6215, -29.9142
2.252, 2, 17.8816, 15.8646, 23.0564, 38.2544, -28.6215, -29.9142
2.255, 2, 17.8816, 15.8646, 23.0564, 38.2544, -28.6215, -29.9142
2.259, 2, 17.8816, 15.8646, 23.0564, 38.2544, -28.6215, -29.9142
2.264, 2, 17.8816, 15.8645, 23.0564, 38.2544, -28.6215, -29.9142
2.268, 2, 17.8816, 15.8645, 23.0564, 38.2544, -28.6215, -29.9142
2.272, 2, 17.8816, 15.8645, 23.0564, 38.2544, -28.6215, -29.9142
2.275, 2, 17.8816, 15.8645, 23.0564, 38.2544, -28.6215, -29.9142
2.28, 2, 17.8816, 15.8645, 23.0564, 38.2544, -28.6215, -29.9142
2.284, 2, 17.8816, 15.8645, 23.0564, 38.2544, -28.6215, -29.9142
2.288, 2, 17.8816, 15.8645, 23.0564, 38.2544, -28.6215, -29.9142
2.291, 2, 17.8816, 15.8645, 23.0564, 38.2544, -28.6215, -29.9142
2.296, 2, 17.8816, 15.8645, 23.0564, 38.2544, -28.6215, -29.9142
2.3, 2, 17.8816, 15.8645, 23.0564, 38.2544, -28.6215, -29.9142
2.304, 2, 17.8816, 15.8645, 23.0564, 38.2544, -28.6215, -29.9142
2.308, 2, 17.8816, 15.8645, 23.0564, 38.2544, -28.6215, -29.9142
2.311, 2, 17.8816, 15.8645, 23.0564, 38.2544, -28.6215, -29.9142
2.316, 2, 17.8816, 15.8645, 23.0564, 38.2544, -28.6215, -29.9142
2.32, 2, 17.8816, 15.8645, 23.0564, 38.2544, -28.6215, -29.9142
2.324, 2, 17.8816, 15.8645, 23.0564, 38.2544, -28.6215, -29.9142
2.328, 2, 17.8816, 15.8645, 23.0564, 38.2544, -28.6215, -29.9142
2.331, 2, 17.8816, 15.8645, 23.0564, 38.2544, -28.6215, -29.9142
2.336, 2, 17.8816, 15.8645, 23.0564, 38.2544, -28.6215, -29.9142
2.34, 2, 17.8816, 15.8645, 23.0564, 38.2544, -28.6215, -29.9142
2.344, 2, 17.8816, 15.8645, 23.0564, 38.2544, -28.6215, -29.9142
2.347, 2, 17.8816, 15.8645, 23.0564, 38.2544, -28.6215, -29.9142
2.352, 2, 17.8816, 15.8645, 23.0564, 38.2544, -28.6215, -29.9142
2.356, 2, 17.8816, 15.8645, 23.0564, 38.2544, -28.6215, -29.9142
2.36, 2, 17.8816, 15.8645, 23.0564, 38.2544, -28.6215, -29.9142
2.364, 2, 17.8816, 15.8645, 23.0564, 38.2544, -28.6215, -29.9142
2.367, 2, 17.8816, 15.8645, 23.0564, 38.2544, -28.6215, -29.9142
2.372, 2, 17.8816, 15.8645, 23.0564, 38.2544, -28.6215, -29.9142
2.376, 2, 17.8816, 15.8645, 23.0564, 38.2544, -28.6215, -29.9142
2.38, 2, 17.8816, 15.8645, 23.0564, 38.2544, -28.6215, -29.9142
2.383, 2, 17.8816, 15.8645, 23.0564, 38.2544, -28.6215, -29.9142
2.388, 2, 17.8816, 15.8645, 23.0564, 38.2544, -28.6215, -29.9142
2.392, 2, 17.8816, 15.8645, 23.0564, 38.2544, -28.6215, -29.9142
2.396, 2, 17.8816, 15.8645, 23.0564, 38.2544, -28.6215, -29.9142
2.4, 2, 17.8816, 15.8645, 23.0564, 38.2544, -28.6215, -29.9142
2.403, 2, 17.8816, 15.8645, 23.0564, 38.2544, -28.6215, -29.9142
2.408, 2, 17.8816, 15.8645, 23.0564, 38.2544, -28.6215, -29.9142
2.412, 2, 17.8816, 15.8645, 23.0564, 38.2544, -28.6215, -29.9142
2.416, 2, 17.8816, 15.8645, 23.0564, 38.2544, -28.6215, -29.9142
2.42, 2, 17.8816, 15.8645, 23.0564, 38.2544, -28.6215, -29.9142
2.423, 2, 17.8816, 15.8645, 23.0564, 38.2544, -28.6215, -29.9142
2.428, 2, 17.8816, 15.8645, 23.0564, 38.2544, -28.6215, -29.9142
2.432, 2, 17.8816, 15.8645, 23.0564, 38.2544, -28.6215, -29.9142
2.436, 2, 17.8816, 15.8645, 23.0564, 38.2544, -28.6215, -29.9142
2.439, 2, 17.8816, 15.8645, 23.0564, 38.2544, -28.6215, -29.9142
2.444, 2, 17.8816, 15.8645, 23.0564, 38.2544, -28.6215, -29.9142
2.448, 2, 17.8816, 15.8645, 23.0564, 38.2544, -28.6215, -29.9142
2.452, 2, 17.8816, 15.8645, 23.0564, 38.2544, -28.6215, -29.9142
2.456, 2, 17.8816, 15.8645, 23.0564, 38.2544, -28.6215, -29.9142
2.459, 2, 17.8816, 15.8645, 23.0564, 38.2544, -28.6215, -29.9142
2.464, 2, 17.8816, 15.8645, 23.0564, 38.2544, -28.6215, -29.9142
2.468, 2, 17.8816, 15.8645, 23.0564, 38.2544, -28.6215, -29.9142
2.472, 2, 17.8816, 15.8645, 23.0564, 38.2544, -28.6215, -29.9142
2.476, 2, 17.8816, 15.8645, 23.0564, 38.2544, -28.6215, -29.9142
2.479, 2, 17.8816, 15.8645, 23.0564, 38.2544, -28.6215, -29.9142
2.484, 2, 17.8816, 15.8645, 23.0564, 38.2544, -28.6215, -29.9142
2.488, 2, 17.8816, 15.8645, 23.0564, 38.2544, -28.6215, -29.9142
2.492, 2, 17.8816, 15.8645, 23.0564, 38.2544, -28.6215, -29.9142
2.495, 2, 17.8816, 15.8645, 23.0564, 38.2544, -28.6215, -29.9142
2.5, 2, 17.8816, 15.8645, 23.0564, 38.2544, -28.6215, -29.9142
2.504, 2, 17.8816, 15.8645, 23.0564, 38.2544, -28.6215, -29.9142
2.508, 2, 17.8816, 15.8645, 23.0564, 38.2544, -28.6215, -29.9142
2.512, 2, 17.8816, 15.8645, 23.0564, 38.2544, -28.6215, -29.9142
2.515, 2, 17.8816, 15.8645, 23.0564, 38.2544, -28.6215, -29.9142
2.52, 2, 17.8816, 15.8645, 23.0564, 38.2544, -28.6215, -29.9142
2.524, 2, 17.8816, 15.8645, 23.0564, 38.2544, -28.6215, -29.9142
2.528, 2, 17.8816, 15.8645, 23.0564, 38.2544, -28.6215, -29.9142
2.531, 2, 17.8816, 15.8645, 23.0564, 38.2544, -28.6215, -29.9142
2.536, 2, 17.8816, 15.8645, 23.0564, 38.2544, -28.6215, -29.9142
2.54, 2, 17.8816, 15.8645, 23.0564, 38.2544, -28.6215, -29.9142
2.544, 2, 17.8816, 15.8645, 23.0564, 38.2544, -28.6215, -29.9142
2.548, 2, 17.8816, 15.8645, 23.0564, 38.2544, -28.6215, -29.9142
2.551, 2, 17.8816, 15.8645, 23.0564, 38.2544, -28.6215, -29.9142
2.556, 2, 17.8816, 15.8645, 23.0564, 38.2544, -28.6215, -29.9142
2.56, 2, 17.8816, 15.8645, 23.0564, 38.2544, -28.6215, -29.9142
2.564, 2, 17.8816, 15.8645, 23.0564, 38.2544, -28.6215, -29.9142
2.568, 2, 17.8816, 15.8645, 23.0564, 38.2544, -28.6215, -29.9142
2.571, 2, 17.8816, 15.8645, 23.0564, 38.2544, -28.6215, -29.9142
2.576, 2, 17.8816, 15.8645, 23.0564, 38.2544, -28.6215, -29.9142
2.58, 2, 17.8816, 15.8645, 23.0564, 38.2544, -28.6215, -29.9142
2.584, 2, 17.8816, 15.8645, 23.0564, 38.2544, -28.6215, -29.9142
2.587, 2, 17.8816, 15.8645, 23.0564, 38.2544, -28.6215, -29.9142
2.592, 2, 17.8816, 15.8645, 23.0564, 38.2544, -28.6215, -29.9142
2.596, 2, 17.8816, 15.8645, 23.0564, 38.2544, -28.6215, -29.9142
2.6, 2, 17.8816, 15.8645, 23.0564, 38.2544, -28.6215, -29.9142
2.604, 2, 17.8816, 15.8645, 23.0564, 38.2544, -28.6215, -29.9142
2.607, 2, 17.8816, 15.8645, 23.0564, 38.2544, -28.6215, -29.9142
2.612, 2, 17.8816, 15.8645, 23.0564, 38.2544, -28.6215, -29.9142
2.616, 2, 17.8816, 15.8645, 23.0564, 38.2544, -28.6215, -29.9142
2.62, 2, 17.8816, 15.8645, 23.0564, 38.2544, -28.6215, -29.9142
2.624, 2, 17.8816, 15.8645, 23.0564, 38.2544, -28.6215, -29.9142
2.627, 2, 17.8816, 15.8645, 23.0564, 38.2544, -28.6215, -29.9142
2.632, 2, 17.8816, 15.8645, 23.0564, 38.2544, -28.6215, -29.9142
2.636, 2, 17.8816, 15.8645, 23.0564, 38.2544, -28.6215, -29.9142
2.64, 2, 17.8816, 15.8645, 23.0564, 38.2544, -28.6215, -29.9142
2.643, 2, 17.8816, 15.8645, 23.0564, 38.2544, -28.6215, -29.9142
2.648, 2, 17.8816, 15.8645, 23.0564, 38.2544, -28.6215, -29.9142
2.652, 2, 17.8816, 15.8645, 23.0564, 38.2544, -28.6215, -29.9142
2.656, 2, 17.8816, 15.8645, 23.0564, 38.2544, -28.6215, -29.9142
2.66, 2, 17.8816, 15.8645, 23.0564, 38.2544, -28.6215, -29.9142
2.663, 2, 17.8816, 15.8645, 23.0564, 38.2544, -28.6215, -29.9142
2.668, 2, 17.8816, 15.8645, 23.0564, 38.2544, -28.6215, -29.9142
2.672, 2, 17.8816, 15.8645, 23.0564, 38.2544, -28.6215, -29.9142
2.676, 2, 17.8816, 15.8645, 23.0564, 38.2544, -28.6215, -29.9142
2.679, 2, 17.8816, 15.8645, 23.0564, 38.2544, -28.6215, -29.9142
2.684, 2, 17.8816, 15.8645, 23.0564, 38.2544, -28.6215, -29.9142
2.688, 2, 17.8816, 15.8645, 23.0564, 38.2544, -28.6215, -29.9142
2.692, 2, 17.8816, 15.8645, 23.0564, 38.2544, -28.6215, -29.9142
2.696, 2, 17.8816, 15.8645, 23.0564, 38.2544, -28.6215, -29.9142
2.699, 2, 17.8816, 15.8645, 23.0564, 38.2544, -28.6215, -29.9142
2.704, 2, 17.8816, 15.8645, 23.0564, 38.2544, -28.6215, -29.9142
2.708, 2, 17.8816, 15.8645, 23.0564, 38.2544, -28.6215, -29.9142
2.712, 2, 17.8816, 15.8645, 23.0564, 38.2544, -28.6215, -29.9142
2.716, 2, 17.8816, 15.8645, 23.0564, 38.2544, -28.6215, -29.9142
2.719, 2, 17.8816, 15.8645, 23.0564, 38.2544, -28.6215, -29.9142
2.724, 2, 17.8816, 15.8645, 23.0564, 38.2544, -28.6215, -29.9142
2.728, 2, 17.8816, 15.8645, 23.0564, 38.2544, -28.6215, -29.9142
2.732, 2, 17.8816, 15.8645, 23.0564, 38.2544, -28.6215, -29.9142
2.735, 2, 17.8816, 15.8645, 23.0564, 38.2544, -28.6215, -29.9142
2.74, 2, 17.8816, 15.8645, 23.0564, 38.2544, -28.6215, -29.9142
2.744, 2, 17.8816, 15.8645, 23.0564, 38.2544, -28.6215, -29.9142
2.748, 2, 17.8816, 15.8645, 23.0564, 38.2544, -28.6215, -29.9142
2.752, 2, 17.8816, 15.8645, 23.0564, 38.2544, -28.6215, -29.9142
2.755, 2, 17.8816, 15.8645, 23.0564, 38.2544, -28.6215, -29.9142
2.76, 2, 17.8816, 15.8645, 23.0564, 38.2544, -28.6215, -29.9142
2.764, 2, 17.8816, 15.8645, 23.0564, 38.2544, -28.6215, -29.9142
2.768, 2, 17.8816, 15.8645, 23.0564, 38.2544, -28.6215, -29.9142
2.772, 2, 17.8816, 15.8645, 23.0564, 38.2544, -28.6215, -29.9142
2.775, 2, 17.8816, 15.8645, 23.0564, 38.2544, -28.6215, -29.9142
2.78, 2, 17.8816, 15.8645, 23.0564, 38.2544, -28.6215, -29.9142
2.784, 2, 17.8816, 15.8645, 23.0564, 38.2544, -28.6215, -29.9142
2.788, 2, 17.8816, 15.8645, 23.0564, 38.2544, -28.6215, -29.9142
2.791, 2, 17.8816, 15.8645, 23.0564, 38.2544, -28.6215, -29.9142
2.796, 2, 17.8816, 15.8645, 23.0564, 38.2544, -28.6215, -29.9142
2.8, 2, 17.8816, 15.8645, 23.0564, 38.2544, -28.6215, -29.9142
2.804, 2, 17.8816, 15.8645, 23.0564, 38.2544, -28.6215, -29.9142
2.808, 2, 17.8816, 15.8645, 23.0564, 38.2544, -28.6215, -29.9142
2.811, 2, 17.8816, 15.8645, 23.0564, 38.2544, -28.6215, -29.9142
2.816, 2, 17.8816, 15.8645, 23.0564, 38.2544, -28.6215, -29.9142
2.82, 2, 17.8816, 15.8645, 23.0564, 38.2544, -28.6215, -29.9142
2.824, 2, 17.8816, 15.8645, 23.0564, 38.2544, -28.6215, -29.9142
2.828, 2, 17.8816, 15.8645, 23.0564, 38.2544, -28.6215, -29.9142
2.831, 2, 17.8816, 15.8645, 23.0564, 38.2544, -28.6215, -29.9142
2.836, 2, 17.8816, 15.8645, 23.0564, 38.2544, -28.6215, -29.9142
2.84, 2, 17.8816, 15.8645, 23.0564, 38.2544, -28.6215, -29.9142
2.844, 2, 17.8816, 15.8645, 23.0564, 38.2544, -28.6215, -29.9142
2.847, 2, 17.8816, 15.8645, 23.0564, 38.2544, -28.6215, -29.9142
2.852, 2, 17.8816, 15.8645, 23.0564, 38.2544, -28.6215, -29.9142
2.856, 2, 17.8816, 15.8645, 23.0564, 38.2544, -28.6215, -29.9142
2.86, 2, 17.8816, 15.8645, 23.0564, 38.2544, -28.6215, -29.9142
2.864, 2, 17.8816, 15.8645, 23.0564, 38.2544, -28.6215, -29.9142
2.867, 2, 17.8816, 15.8645, 23.0564, 38.2544, -28.6215, -29.9142
2.872, 2, 17.8816, 15.8645, 23.0564, 38.2544, -28.6215, -29.9142
2.876, 2, 17.8816, 15.8645, 23.0564, 38.2544, -28.6215, -29.9142
2.88, 2, 17.8816, 15.8645, 23.0564, 38.2544, -28.6215, -29.9142
2.883, 2, 17.8816, 15.8645, 23.0564, 38.2544, -28.6215, -29.9142
2.888, 2, 17.8816, 15.8645, 23.0564, 38.2544, -28.6215, -29.9142
2.892, 2, 17.8816, 15.8645, 23.0564, 38.2544, -28.6215, -29.9142
2.896, 2, 17.8816, 15.8645, 23.0564, 38.2544, -28.6215, -29.9142
2.9, 2, 17.8816, 15.8645, 23.0564, 38.2544, -28.6215, -29.9142
2.903, 2, 17.8816, 15.8645, 23.0564, 38.2544, -28.6215, -29.9142
2.908, 2, 17.8816, 15.8645, 23.0564, 38.2544, -28.6215, -29.9142
2.912, 2, 17.8816, 15.8645, 23.0564, 38.2544, -28.6215, -29.9142
2.916, 2, 17.8816, 15.8645, 23.0564, 38.2544, -28.6215, -29.9142
2.92, 2, 17.8816, 15.8645, 23.0564, 38.2544, -28.6215, -29.9142
2.923, 2, 17.8816, 15.8645, 23.0564, 38.2544, -28.6215, -29.9142
2.928, 2, 17.8816, 15.8645, 23.0564, 38.2544, -28.6215, -29.9142
2.932, 2, 17.8816, 15.8645, 23.0564, 38.2544, -28.6215, -29.9142
2.936, 2, 17.8816, 15.8645, 23.0564, 38.2544, -28.6215, -29.9142
2.939, 2, 17.8816, 15.8645, 23.0564, 38.2544, -28.6215, -29.9142
2.944, 2, 17.8816, 15.8645, 23.0564, 38.2544, -28.6215, -29.9142
2.948, 2, 17.8816, 15.8645, 23.0564, 38.2544, -28.6215, -29.9142
2.952, 2, 17.8816, 15.8645, 23.0564, 38.2544, -28.6215, -29.9142
2.956, 2, 17.8816, 15.8645, 23.0564, 38.2544, -28.6215, -29.9142
2.959, 2, 17.8816, 15.8645, 23.0564, 38.2544, -28.6215, -29.9142
2.964, 2, 17.8816, 15.8645, 23.0564, 38.2544, -28.6215, -29.9142
2.968, 2, 17.8816, 15.8645, 23.0564, 38.2544, -28.6215, -29.9142
2.972, 2, 17.8816, 15.8645, 23.0564, 38.2544, -28.6215, -29.9142
2.976, 2, 17.8816, 15.8645, 23.0564, 38.2544, -28.6215, -29.9142
2.98, 2, 17.8816, 15.8645, 23.0564, 38.2544, -28.6215, -29.9142
2.984, 2, 17.8816, 15.8645, 23.0564, 38.2544, -28.6215, -29.9142
2.988, 2, 17.8816, 15.8645, 23.0564, 38.2544, -28.6215, -29.9142
2.992, 2, 17.8816, 15.8645, 23.0564, 38.2544, -28.6215, -29.9142
2.995, 2, 17.8816, 15.8645, 23.0564, 38.2544, -28.6215, -29.9142
3, 2, 17.8816, 15.8645, 23.0564, 38.2544, -28.6215, -29.9142
3.004, 2, 17.8816, 15.8645, 23.0564, 38.2544, -28.6215, -29.9142
3.008, 2, 17.8816, 15.8645, 23.0564, 38.2544, -28.6215, -29.9142
3.012, 2, 17.8816, 15.8645, 23.0564, 38.2544, -28.6215, -29.9142
3.015, 2, 17.8816, 15.8645, 23.0564, 38.2544, -28.6215, -29.9142
3.02, 2, 17.8816, 15.8645, 23.0564, 38.2544, -28.6215, -29.9142
3.024, 2, 17.8816, 15.8645, 23.0564, 38.2544, -28.6215, -29.9142
3.028, 2, 17.8816, 15.8645, 23.0564, 38.2544, -28.6215, -29.9142
3.031, 2, 17.8816, 15.8645, 23.0564, 38.2544, -28.6215, -29.9142
3.036, 2, 17.8816, 15.8645, 23.0564, 38.2544, -28.6215, -29.9142
3.04, 2, 17.8816, 15.8645, 23.0564, 38.2544, -28.6215, -29.9142
3.044, 2, 17.8816, 15.8645, 23.0564, 38.2544, -28.6215, -29.9142
3.048, 2, 17.8816, 15.8645, 23.0564, 38.2544, -28.6215, -29.9142
3.051, 2, 17.8816, 15.8645, 23.0564, 38.2544, -28.6215, -29.9142
3.056, 2, 17.8816, 15.8645, 23.0564, 38.2544, -28.6215, -29.9142
3.06, 2, 17.8816, 15.8645, 23.0564, 38.2544, -28.6215, -29.9142
3.064, 2, 17.8816, 15.8645, 23.0564, 38.2544, -28.6215, -29.9142
3.068, 2, 17.8816, 15.8645, 23.0564, 38.2544, -28.6215, -29.9142
3.071, 2, 17.8816, 15.8645, 23.0564, 38.2544, -28.6215, -29.9142
3.076, 2, 17.8816, 15.8645, 23.0564, 38.2544, -28.6215, -29.9142
3.08, 2, 17.8816, 15.8645, 23.0564, 38.2544, -28.6215, -29.9142
3.084, 2, 17.8816, 15.8645, 23.0564, 38.2544, -28.6215, -29.9142
3.087, 2, 17.8816, 15.8645, 23.0564, 38.2544, -28.6215, -29.9142
3.092, 2, 17.8816, 15.8645, 23.0564, 38.2544, -28.6215, -29.9142
3.096, 2, 17.8816, 15.8645, 23.0564, 38.2544, -28.6215, -29.9142
3.1, 2, 17.8816, 15.8645, 23.0564, 38.2544, -28.6215, -29.9142
3.104, 2, 17.8816, 15.8645, 23.0564, 38.2544, -28.6215, -29.9142
3.107, 2, 17.8816, 15.8645, 23.0564, 38.2544, -28.6215, -29.9142
3.112, 2, 17.8816, 15.8645, 23.0564, 38.2544, -28.6215, -29.9142
3.116, 2, 17.8816, 15.8645, 23.0564, 38.2544, -28.6215, -29.9142
3.12, 2, 17.8816, 15.8645, 23.0564, 38.2544, -28.6215, -29.9142
3.124, 2, 17.8816, 15.8645, 23.0564, 38.2544, -28.6215, -29.9142
3.128, 2, 17.8816, 15.8645, 23.0564, 38.2544, -28.6215, -29.9142
3.132, 2, 17.8816, 15.8645, 23.0564, 38.2544, -28.6215, -29.9142
3.136, 2, 17.8816, 15.8645, 23.0564, 38.2544, -28.6215, -29.9142
3.14, 2, 17.8816, 15.8645, 23.0564, 38.2544, -28.6215, -29.9142
3.143, 2, 17.8816, 15.8645, 23.0564, 38.2544, -28.6215, -29.9142
3.148, 2, 17.8816, 15.8645, 23.0564, 38.2544, -28.6215, -29.9142
3.152, 2, 17.8816, 15.8645, 23.0564, 38.2544, -28.6215, -29.9142
3.156, 2, 17.8816, 15.8645, 23.0564, 38.2544, -28.6215, -29.9142
3.16, 2, 17.8816, 15.8645, 23.0564, 38.2544, -28.6215, -29.9142
3.163, 2, 17.8816, 15.8645, 23.0564, 38.2544, -28.6215, -29.9142
3.168, 2, 17.8816, 15.8645, 23.0564, 38.2544, -28.6215, -29.9142
3.172, 2, 17.8816, 15.8645, 23.0564, 38.2544, -28.6215, -29.9142
3.176, 2, 17.8816, 15.8645, 23.0564, 38.2544, -28.6215, -29.9142
3.179, 2, 17.8816, 15.8645, 23.0564, 38.2544, -28.6215, -29.9142
3.184, 2, 17.8816, 15.8645, 23.0564, 38.2544, -28.6215, -29.9142
3.188, 2, 17.8816, 15.8645, 23.0564, 38.2544, -28.6215, -29.9142
3.192, 2, 17.8816, 15.8645, 23.0564, 38.2544, -28.6215, -29.9142
3.196, 2, 17.8816, 15.8645, 23.0564, 38.2544, -28.6215, -29.9142
3.199, 2, 17.8816, 15.8645, 23.0564, 38.2544, -28.6215, -29.9142
3.204, 2, 17.8816, 15.8645, 23.0564, 38.2544, -28.6215, -29.9142
3.208, 2, 17.8816, 15.8645, 23.0564, 38.2544, -28.6215, -29.9142
3.212, 2, 17.8816, 15.8645, 23.0564, 38.2544, -28.6215, -29.9142
3.216, 2, 17.8816, 15.8645, 23.0564, 38.2544, -28.6215, -29.9142
3.22, 2, 17.8816, 15.8645, 23.0564, 38.2544, -28.6215, -29.9142
3.224, 2, 17.8816, 15.8645, 23.0564, 38.2544, -28.6215, -29.9142
3.228, 2, 17.8816, 15.8645, 23.0564, 38.2544, -28.6215, -29.9142
3.232, 2, 17.8816, 15.8645, 23.0564, 38.2544, -28.6215, -29.9142
3.235, 2, 17.8816, 15.8645, 23.0564, 38.2544, -28.6215, -29.9142
3.24, 2, 17.8816, 15.8645, 23.0564, 38.2544, -28.6215, -29.9142
3.244, 2, 17.8816, 15.8645, 23.0564, 38.2544, -28.6215, -29.9142
3.248, 4, 17.8816, 15.8645, 23.0564, 38.2544, -28.6215, -29.9142
3.252, 4, 17.8816, 15.8645, 23.0564, 38.2544, -28.6215, -29.9142
3.255, 4, 17.8816, 15.8645, 23.0564, 38.2544, -28.6215, -29.9142
3.26, 4, 17.8816, 15.8645, 23.0564, 38.2544, -28.6215, -29.9142
3.264, 4, 17.8816, 15.8645, 23.0564, 38.2544, -28.6215, -29.9142
3.268, 4, 17.8816, 15.8645, 23.0564, 38.2544, -28.6215, -29.9142
3.272, 4, 17.8816, 15.8645, 23.0564, 38.2544, -28.6215, -29.9142
3.276, 4, 17.8816, 15.8645, 23.0564, 38.2544, -28.6215, -29.9142
3.28, 4, 17.8816, 15.8645, 23.0564, 38.2544, -28.6215, -29.9142
3.284, 4, 17.8816, 15.8645, 23.0564, 38.2544, -28.6215, -29.9142
3.288, 4, 17.8816, 15.8645, 23.0564, 38.2544, -28.6215, -29.9142
3.291, 4, 17.8816, 15.8645, 23.0564, 38.2544, -28.6215, -29.9142
3.296, 4, 17.8816, 15.8645, 23.0564, 38.2544, -28.6215, -29.9142
3.3, 4, 17.8816, 15.8645, 23.0564, 38.2544, -28.6215, -29.9142
3.304, 4, 17.8816, 15.8645, 23.0564, 38.2544, -28.6215, -29.9142
3.308, 4, 17.8816, 15.8645, 23.0564, 38.2544, -28.6215, -29.9142
3.312, 4, 17.8816, 15.8645, 23.0564, 38.2544, -28.6215, -29.9142
3.316, 4, 17.8816, 15.8645, 23.0564, 38.2544, -28.6215, -29.9142
3.32, 4, 17.8816, 15.8645, 23.0564, 38.2544, -28.6215, -29.9142
3.324, 4, 17.8816, 15.8645, 23.0564, 38.2544, -28.6215, -29.9142
3.328, 4, 17.8816, 15.8645, 23.0564, 38.2544, -28.6215, -29.9142
3.332, 4, 17.8816, 15.8645, 23.0564, 38.2544, -28.6215, -29.9142
3.336, 4, 17.8816, 15.8645, 23.0564, 38.2544, -28.6215, -29.9142
3.34, 4, 17.8816, 15.8645, 23.0564, 38.2544, -28.6215, -29.9142
3.344, 4, 17.8816, 15.8645, 23.0564, 38.2544, -28.6215, -29.9142
3.347, 4, 17.8816, 15.8645, 23.0564, 38.2544, -28.6215, -29.9142
3.352, 4, 17.8816, 15.8645, 23.0564, 38.2544, -28.6215, -29.9142
3.356, 4, 17.8816, 15.8645, 23.0564, 38.2544, -28.6215, -29.9142
3.36, 4, 17.8816, 15.8645, 23.0564, 38.2544, -28.6215, -29.9142
3.364, 4, 17.8816, 15.8645, 23.0564, 38.2544, -28.6215, -29.9142
3.368, 4, 17.8816, 15.8645, 23.0564, 38.2544, -28.6215, -29.9142
3.372, 4, 17.8816, 15.8645, 23.0564, 38.2544, -28.6215, -29.9142
3.376, 4, 17.8816, 15.8645, 23.0564, 38.2544, -28.6215, -29.9142
3.38, 4, 17.8815, 15.8645, 23.0564, 38.2544, -28.6215, -29.9142
3.383, 4, 17.8812, 15.8645, 23.0564, 38.2543, -28.6215, -29.9142
3.388, 4, 17.8806, 15.8645, 23.0565, 38.2542, -28.6216, -29.9141
3.392, 4, 17.8793, 15.8645, 23.0566, 38.2539, -28.6217, -29.9139
3.396, 4, 17.8773, 15.8644, 23.0569, 38.2532, -28.6219, -29.9133
3.4, 4, 17.8745, 15.8643, 23.0576, 38.2517, -28.6225, -29.912
3.403, 4, 17.8706, 15.864, 23.0586, 38.2489, -28.6235, -29.9095
3.408, 4, 17.8657, 15.8636, 23.0603, 38.2441, -28.6252, -29.9053
3.412, 4, 17.8595, 15.863, 23.063, 38.2364, -28.628, -29.8984
3.416, 4, 17.8519, 15.862, 23.067, 38.2246, -28.6322, -29.8881
3.42, 5, 17.8425, 15.8607, 23.0726, 38.2075, -28.6384, -29.873
3.424, 5, 17.8311, 15.8589, 23.0804, 38.1837, -28.647, -29.852
3.428, 5, 17.8174, 15.8565, 23.0908, 38.1514, -28.6586, -29.8234
3.432, 5, 17.801, 15.8534, 23.1043, 38.1089, -28.674, -29.7859
3.436, 5, 17.7821, 15.8494, 23.1215, 38.0544, -28.6938, -29.7376
3.439, 5, 17.7607, 15.8444, 23.143, 37.986, -28.7187, -29.6771
3.444, 5, 17.7368, 15.8385, 23.169, 37.9022, -28.7493, -29.603
3.448, 5, 17.7105, 15.8313, 23.2001, 37.8019, -28.7861, -29.5142
3.452, 5, 17.6816, 15.823, 23.2363, 37.6842, -28.8295, -29.4101
3.456, 5, 17.6501, 15.8135, 23.2779, 37.5489, -28.8796, -29.2903
3.46, 5, 17.6158, 15.8028, 23.3248, 37.3961, -28.9365, -29.1552
3.464, 5, 17.5787, 15.791, 23.3769, 37.2264, -29.0001, -29.0052
3.468, 5, 17.5387, 15.7781, 23.4338, 37.0409, -29.07, -28.8413
3.472, 5, 17.4961, 15.7643, 23.4952, 36.8409, -29.1458, -28.6647
3.476, 5, 17.4511, 15.7496, 23.5606, 36.628, -29.2271, -28.4767
3.48, 5, 17.4038, 15.7342, 23.6296, 36.404, -29.3132, -28.279
3.484, 5, 17.3544, 15.7183, 23.7015, 36.1707, -29.4036, -28.0734
3.488, 5, 17.3028, 15.7019, 23.7759, 35.9303, -29.4976, -27.8615
3.492, 5, 17.249, 15.6853, 23.8521, 35.6844, -29.5945, -27.645
3.495, 5, 17.1931, 15.6685, 23.9298, 35.4348, -29.6937, -27.4254
3.5, 5, 17.1353, 15.6516, 24.0084, 35.183, -29.7948, -27.204
3.504, 5, 17.0757, 15.6348, 24.0877, 34.9299, -29.8974, -26.9817
3.508, 5, 17.0145, 15.6181, 24.1673, 34.6764, -30.0011, -26.7593
3.512, 5, 16.9523, 15.6015, 24.2471, 34.4232, -30.1058, -26.5374
3.516, 5, 16.8892, 15.5851, 24.327, 34.1706, -30.2112, -26.3161
3.52, 5, 16.8255, 15.569, 24.4068, 33.919, -30.3173, -26.0959
3.524, 5, 16.7614, 15.5531, 24.4864, 33.6684, -30.4241, -25.8768
3.528, 5, 16.697, 15.5374, 24.5659, 33.419, -30.5314, -25.6589
3.531, 5, 16.6323, 15.522, 24.6451, 33.1709, -30.6392, -25.4424
3.536, 5, 16.5675, 15.5068, 24.7241, 32.9241, -30.7476, -25.2273
3.54, 5, 16.5024, 15.4919, 24.8029, 32.6787, -30.8564, -25.0135
3.544, 5, 16.4373, 15.4773, 24.8814, 32.4347, -30.9657, -24.8012
3.548, 5, 16.372, 15.4629, 24.9597, 32.1921, -31.0754, -24.5902
3.552, 5, 16.3066, 15.4488, 25.0377, 31.9509, -31.1857, -24.3807
3.556, 5, 16.2411, 15.435, 25.1154, 31.711, -31.2963, -24.1726
3.56, 5, 16.1755, 15.4214, 25.1928, 31.4726, -31.4074, -23.9659
3.564, 5, 16.1098, 15.4081, 25.27, 31.2355, -31.5189, -23.7607
3.568, 5, 16.044, 15.3951, 25.3469, 30.9998, -31.6309, -23.5568
3.572, 5, 15.9781, 15.3823, 25.4235, 30.7655, -31.7433, -23.3543
3.576, 5, 15.9121, 15.3699, 25.4998, 30.5326, -31.8561, -23.1532
3.58, 5, 15.846, 15.3577, 25.5759, 30.301, -31.9693, -22.9535
3.584, 5, 15.7798, 15.3457, 25.6517, 30.0708, -32.083, -22.7551
3.587, 5, 15.7136, 15.3341, 25.7272, 29.8419, -32.197, -22.5581
3.592, 5, 15.6472, 15.3227, 25.8024, 29.6143, -32.3114, -22.3624
3.596, 5, 15.5808, 15.3116, 25.8773, 29.388, -32.4263, -22.1681
3.6, 5, 15.5143, 15.3008, 25.952, 29.1631, -32.5415, -21.9751
3.604, 5, 15.4477, 15.2902, 26.0263, 28.9394, -32.6572, -21.7834
3.608, 5, 15.381, 15.2799, 26.1004, 28.7171, -32.7732, -21.5931
3.612, 5, 15.3142, 15.2699, 26.1742, 28.496, -32.8896, -21.404
3.616, 5, 15.2473, 15.2602, 26.2477, 28.2763, -33.0064, -21.2163
3.62, 5, 15.1803, 15.2507, 26.321, 28.0577, -33.1236, -21.0298
3.624, 5, 15.1133, 15.2415, 26.394, 27.8405, -33.2411, -20.8446
3.628, 5, 15.0462, 15.2326, 26.4666, 27.6245, -33.359, -20.6607
3.632, 5, 14.9789, 15.224, 26.539, 27.4097, -33.4773, -20.478
3.636, 5, 14.9116, 15.2156, 26.6112, 27.1962, -33.596, -20.2966
3.64, 5, 14.8442, 15.2075, 26.683, 26.9839, -33.715, -20.1165
3.644, 5, 14.7767, 15.1997, 26.7546, 26.7728, -33.8344, -19.9375
3.648, 5, 14.7092, 15.1922, 26.8259, 26.5629, -33.9541, -19.7598
3.652, 5, 14.6415, 15.1849, 26.8969, 26.3542, -34.0742, -19.5833
3.656, 5, 14.5738, 15.1779, 26.9676, 26.1467, -34.1946, -19.4081
3.66, 5, 14.506, 15.1712, 27.0381, 25.9404, -34.3154, -19.234
3.664, 5, 14.438, 15.1647, 27.1082, 25.7353, -34.4365, -19.0611
3.668, 5, 14.3701, 15.1586, 27.1781, 25.5313, -34.558, -18.8894
3.672, 5, 14.302, 15.1527, 27.2477, 25.3285, -34.6798, -18.7189
3.676, 5, 14.2338, 15.147, 27.3171, 25.1268, -34.8019, -18.5496
3.679, 5, 14.1656, 15.1417, 27.3861, 24.9263, -34.9244, -18.3814
3.684, 5, 14.0972, 15.1366, 27.4549, 24.7269, -35.0472, -18.2144
3.688, 5, 14.0288, 15.1318, 27.5234, 24.5287, -35.1703, -18.0485
3.692, 5, 13.9603, 15.1273, 27.5916, 24.3315, -35.2937, -17.8838
3.696, 5, 13.8918, 15.1231, 27.6596, 24.1355, -35.4175, -17.7201
3.7, 5, 13.8231, 15.1191, 27.7272, 23.9406, -35.5416, -17.5576
3.704, 5, 13.7544, 15.1154, 27.7946, 23.7467, -35.666, -17.3962
3.708, 5, 13.6855, 15.112, 27.8617, 23.5539, -35.7907, -17.2359
3.712, 5, 13.6166, 15.1088, 27.9285, 23.3622, -35.9157, -17.0767
3.716, 5, 13.5477, 15.106, 27.995, 23.1716, -36.041, -16.9186
3.72, 5, 13.4786, 15.1034, 28.0612, 22.982, -36.1666, -16.7616
3.724, 5, 13.4095, 15.1011, 28.1271, 22.7935, -36.2925, -16.6056
3.728, 5, 13.3402, 15.099, 28.1928, 22.606, -36.4187, -16.4506
3.732, 5, 13.2709, 15.0973, 28.2582, 22.4195, -36.5452, -16.2967
3.735, 5, 13.2016, 15.0958, 28.3232, 22.234, -36.672, -16.1439
3.74, 5, 13.1321, 15.0946, 28.388, 22.0496, -36.7991, -15.9921
3.744, 5, 13.0626, 15.0937, 28.4525, 21.8661, -36.9264, -15.8413
3.748, 5, 12.9929, 15.0931, 28.5168, 21.6836, -37.054, -15.6915
3.752, 5, 12.9232, 15.0927, 28.5807, 21.5022, -37.1819, -15.5427
3.756, 5, 12.8535, 15.0927, 28.6443, 21.3217, -37.3101, -15.3949
3.76, 5, 12.7836, 15.0929, 28.7077, 21.1421, -37.4386, -15.2481
3.764, 5, 12.7137, 15.0934, 28.7707, 20.9636, -37.5673, -15.1023
3.768, 5, 12.6437, 15.0941, 28.8335, 20.7859, -37.6963, -14.9574
3.772, 5, 12.5736, 15.0952, 28.896, 20.6093, -37.8255, -14.8136
3.776, 5, 12.5035, 15.0965, 28.9582, 20.4336, -37.955, -14.6706
3.78, 5, 12.4332, 15.0981, 29.02, 20.2588, -38.0848, -14.5287
3.784, 5, 12.3629, 15.1, 29.0816, 20.0849, -38.2148, -14.3877
3.788, 5, 12.2925, 15.1022, 29.143, 19.9119, -38.3451, -14.2476
3.792, 5, 12.2221, 15.1047, 29.204, 19.7399, -38.4756, -14.1084
3.796, 5, 12.1516, 15.1074, 29.2647, 19.5687, -38.6064, -13.9702
3.8, 5, 12.081, 15.1104, 29.3251, 19.3985, -38.7374, -13.8329
3.804, 5, 12.0103, 15.1137, 29.3853, 19.2292, -38.8687, -13.6965
3.808, 5, 11.9395, 15.1173, 29.4451, 19.0607, -39.0002, -13.561
3.812, 5, 11.8687, 15.1212, 29.5047, 18.8931, -39.132, -13.4264
3.816, 5, 11.7978, 15.1253, 29.564, 18.7264, -39.264, -13.2927
3.82, 5, 11.7268, 15.1298, 29.6229, 18.5605, -39.3962, -13.1599
3.824, 5, 11.6558, 15.1345, 29.6816, 18.3956, -39.5287, -13.0279
3.828, 5, 11.5847, 15.1394, 29.74, 18.2314, -39.6614, -12.8969
3.832, 5, 11.5135, 15.1447, 29.7981, 18.0681, -39.7943, -12.7667
3.836, 5, 11.4422, 15.1503, 29.8559, 17.9057, -39.9274, -12.6374
3.84, 5, 11.3709, 15.1561, 29.9135, 17.7441, -40.0608, -12.5089
3.844, 5, 11.2995, 15.1622, 29.9707, 17.5833, -40.1945, -12.3813
3.848, 5, 11.228, 15.1686, 30.0276, 17.4234, -40.3283, -12.2545
3.852, 5, 11.1565, 15.1753, 30.0842, 17.2642, -40.4623, -12.1285
3.856, 5, 11.0849, 15.1823, 30.1406, 17.1059, -40.5966, -12.0034
3.86, 5, 11.0132, 15.1895, 30.1966, 16.9484, -40.7311, -11.8792
3.864, 5, 10.9414, 15.197, 30.2524, 16.7917, -40.8658, -11.7557
3.868, 5, 10.8696, 15.2048, 30.3079, 16.6358, -41.0008, -11.6331
3.872, 5, 10.7977, 15.2129, 30.363, 16.4807, -41.1359, -11.5113
3.876, 5, 10.7258, 15.2213, 30.4179, 16.3263, -41.2712, -11.3902
3.88, 5, 10.6538, 15.2299, 30.4725, 16.1728, -41.4068, -11.27
3.884, 5, 10.5817, 15.2389, 30.5268, 16.02, -41.5426, -11.1506
3.888, 5, 10.5095, 15.2481, 30.5807, 15.868, -41.6785, -11.032
3.892, 5, 10.4373, 15.2576, 30.6344, 15.7168, -41.8147, -10.9141
3.896, 5, 10.365, 15.2674, 30.6878, 15.5663, -41.9511, -10.797
3.9, 5, 10.2926, 15.2774, 30.7409, 15.4165, -42.0876, -10.6807
3.904, 5, 10.2202, 15.2878, 30.7937, 15.2675, -42.2244, -10.5652
3.908, 5, 10.1477, 15.2984, 30.8462, 15.1192, -42.3613, -10.4504
3.912, 5, 10.0752, 15.3093, 30.8984, 14.9717, -42.4985, -10.3363
3.916, 5, 10.0026, 15.3205, 30.9503, 14.8248, -42.6358, -10.223
3.92, 5, 9.92991, 15.332, 31.0019, 14.6787, -42.7733, -10.1104
3.924, 5, 9.85717, 15.3438, 31.0532, 14.5333, -42.911, -9.99858
3.928, 5, 9.78437, 15.3558, 31.1042, 14.3886, -43.0488, -9.88745
3.932, 5, 9.71151, 15.3681, 31.1549, 14.2446, -43.1869, -9.77703
3.936, 5, 9.63859, 15.3807, 31.2053, 14.1013, -43.3251, -9.66732
3.94, 5, 9.5656, 15.3936, 31.2554, 13.9586, -43.4635, -9.55832
3.944, 5, 9.49256, 15.4068, 31.3052, 13.8166, -43.602, -9.45001
3.948, 5, 9.41945, 15.4202, 31.3547, 13.6753, -43.7408, -9.34239
3.952, 5, 9.34629, 15.434, 31.4039, 13.5347, -43.8797, -9.23545
3.956, 5, 9.27307, 15.448, 31.4527, 13.3947, -44.0187, -9.1292
3.96, 5, 9.19979, 15.4622, 31.5013, 13.2554, -44.158, -9.02362
3.964, 5, 9.12645, 15.4768, 31.5496, 13.1167, -44.2973, -8.9187
3.968, 5, 9.05306, 15.4917, 31.5976, 12.9787, -44.4369, -8.81446
3.972, 5, 8.9796, 15.5068, 31.6453, 12.8413, -44.5766, -8.71087
3.976, 5, 8.9061, 15.5222, 31.6927, 12.7046, -44.7164, -8.60793
3.98, 5, 8.83253, 15.5379, 31.7398, 12.5685, -44.8565, -8.50564
3.984, 5, 8.75891, 15.5538, 31.7865, 12.433, -44.9966, -8.40399
3.988, 5, 8.68524, 15.5701, 31.833, 12.2981, -45.1369, -8.30299
3.992, 5, 8.61151, 15.5866, 31.8792, 12.1638, -45.2774, -8.20261
3.996, 5, 8.53773, 15.6034, 31.9251, 12.0301, -45.418, -8.10287
3.999, 5, 8.46389, 15.6205, 31.9706, 11.8971, -45.5587, -8.00375
4.004, 5, 8.39, 15.6378, 32.0159, 11.7646, -45.6996, -7.90525
4.008, 5, 8.31606, 15.6555, 32.0608, 11.6328, -45.8406, -7.80736
4.012, 5, 8.24206, 15.6734, 32.1055, 11.5015, -45.9818, -7.71009
4.016, 5, 8.16801, 15.6916, 32.1498, 11.3708, -46.1231, -7.61343
4.02, 5, 8.09391, 15.71, 32.1939, 11.2407, -46.2646, -7.51736
4.024, 5, 8.01976, 15.7288, 32.2376, 11.1112, -46.4061, -7.4219
4.028, 5, 7.94556, 15.7478, 32.281, 10.9823, -46.5478, -7.32703
4.032, 5, 7.87131, 15.7671, 32.3241, 10.8539, -46.6897, -7.23275
4.036, 5, 7.79701, 15.7867, 32.3669, 10.7261, -46.8316, -7.13905
4.04, 5, 7.72265, 15.8066, 32.4094, 10.5988, -46.9737, -7.04594
4.044, 5, 7.64825, 15.8267, 32.4516, 10.4722, -47.116, -6.95341
4.048, 5, 7.5738, 15.8471, 32.4935, 10.346, -47.2583, -6.86146
4.052, 5, 7.4993, 15.8678, 32.5351, 10.2205, -47.4008, -6.77007
4.056, 5, 7.42475, 15.8888, 32.5764, 10.0954, -47.5434, -6.67926
4.06, 5, 7.35015, 15.9101, 32.6173, 9.97097, -47.6861, -6.589
4.064, 5, 7.27551, 15.9316, 32.658, 9.84703, -47.8289, -6.49931
4.068, 5, 7.20082, 15.9534, 32.6983, 9.72363, -47.9719, -6.41018
4.072, 5, 7.12608, 15.9755, 32.7384, 9.60076, -48.1149, -6.3216
4.076, 5, 7.05129, 15.9978, 32.7781, 9.47843, -48.2581, -6.23357
4.08, 5, 6.97646, 16.0205, 32.8175, 9.35662, -48.4014, -6.14608
4.084, 5, 6.90159, 16.0434, 32.8566, 9.23534, -48.5448, -6.05915
4.088, 5, 6.82666, 16.0666, 32.8954, 9.11458, -48.6884, -5.97275
4.092, 5, 6.7517, 16.0901, 32.9339, 8.99434, -48.832, -5.88688
4.096, 5, 6.67669, 16.1138, 32.9721, 8.87461, -48.9758, -5.80155
4.1, 5, 6.60164, 16.1379, 33.0099, 8.75538, -49.1196, -5.71675
4.104, 5, 6.52654, 16.1622, 33.0475, 8.63667, -49.2636, -5.63248
4.108, 5, 6.4514, 16.1868, 33.0847, 8.51846, -49.4076, -5.54873
4.112, 5, 6.37622, 16.2116, 33.1216, 8.40074, -49.5518, -5.46549
4.116, 5, 6.301, 16.2367, 33.1582, 8.28352, -49.6961, -5.38276
4.12, 5, 6.22574, 16.2622, 33.1945, 8.16679, -49.8404, -5.30055
4.124, 5, 6.15044, 16.2878, 33.2305, 8.05055, -49.9849, -5.21884
4.128, 5, 6.07509, 16.3138, 33.2661, 7.93479, -50.1294, -5.13763
4.132, 5, 5.99971, 16.34, 33.3015, 7.81951, -50.2741, -5.05692
4.136, 5, 5.92429, 16.3666, 33.3365, 7.7047, -50.4188, -4.9767
4.14, 5, 5.84882, 16.3933, 33.3713, 7.59036, -50.5637, -4.89696
4.144, 5, 5.77332, 16.4204, 33.4057, 7.47649, -50.7086, -4.81772
4.148, 5, 5.69778, 16.4477, 33.4398, 7.36308, -50.8536, -4.73895
4.152, 5, 5.62221, 16.4753, 33.4735, 7.25012, -50.9987, -4.66066
4.156, 5, 5.5466, 16.5032, 33.507, 7.13763, -51.1438, -4.58285
4.16, 5, 5.47095, 16.5313, 33.5401, 7.02559, -51.2891, -4.5055
4.164, 5, 5.39527, 16.5598, 33.573, 6.91399, -51.4344, -4.42862
4.168, 5, 5.31955, 16.5885, 33.6055, 6.80285, -51.5798, -4.3522
4.172, 5, 5.24379, 16.6174, 33.6377, 6.69214, -51.7253, -4.27624
4.176, 5, 5.16801, 16.6466, 33.6696, 6.58187, -51.8708, -4.20074
4.18, 5, 5.09219, 16.6761, 33.7011, 6.47204, -52.0164, -4.1257
4.184, 5, 5.01634, 16.7059, 33.7324, 6.36264, -52.1621, -4.0511
4.188, 5, 4.94045, 16.7359, 33.7633, 6.25367, -52.3079, -3.97694
4.192, 5, 4.86453, 16.7662, 33.7939, 6.14513, -52.4537, -3.90323
4.196, 5, 4.78859, 16.7968, 33.8242, 6.03701, -52.5996, -3.82996
4.2, 5, 4.71261, 16.8276, 33.8542, 5.92931, -52.7456, -3.75713
4.204, 5, 4.6366, 16.8587, 33.8839, 5.82203, -52.8916, -3.68473
4.208, 5, 4.56056, 16.8901, 33.9132, 5.71516, -53.0377, -3.61276
4.212, 5, 4.48449, 16.9218, 33.9423, 5.60871, -53.1838, -3.54122
4.216, 5, 4.40839, 16.9537, 33.971, 5.50266, -53.33, -3.47011
4.22, 5, 4.33227, 16.9858, 33.9994, 5.39702, -53.4763, -3.39942
4.224, 5, 4.25611, 17.0183, 34.0274, 5.29178, -53.6226, -3.32914
4.228, 5, 4.17993, 17.051, 34.0552, 5.18694, -53.769, -3.25928
4.232, 5, 4.10373, 17.0839, 34.0826, 5.0825, -53.9154, -3.18984
4.236, 5, 4.0275, 17.1172, 34.1097, 4.97845, -54.0619, -3.1208
4.24, 5, 3.95124, 17.1507, 34.1365, 4.8748, -54.2084, -3.05218
4.244, 5, 3.87496, 17.1844, 34.163, 4.77154, -54.355, -2.98395
4.248, 5, 3.79865, 17.2184, 34.1892, 4.66866, -54.5016, -2.91614
4.252, 5, 3.72232, 17.2527, 34.215, 4.56617, -54.6483, -2.84872
4.256, 5, 3.64597, 17.2873, 34.2405, 4.46406, -54.795, -2.7817
4.26, 5, 3.56959, 17.3221, 34.2657, 4.36233, -54.9418, -2.71507
4.264, 5, 3.49319, 17.3571, 34.2906, 4.26097, -55.0886, -2.64883
4.268, 5, 3.41677, 17.3925, 34.3151, 4.15999, -55.2354, -2.58299
4.272, 5, 3.34033, 17.4281, 34.3393, 4.05939, -55.3823, -2.51753
4.276, 5, 3.26386, 17.4639, 34.3632, 3.95915, -55.5292, -2.45245
4.28, 5, 3.18738, 17.5, 34.3868, 3.85928, -55.6761, -2.38775
4.284, 5, 3.11087, 17.5364, 34.4101, 3.75977, -55.8231, -2.32343
4.288, 5, 3.03435, 17.573, 34.433, 3.66062, -55.9701, -2.25949
4.292, 5, 2.9578, 17.6099, 34.4556, 3.56183, -56.1171, -2.19592
4.296, 5, 2.88124, 17.6471, 34.4779, 3.4634, -56.2642, -2.13272
4.3, 5, 2.80467, 17.6845, 34.4998, 3.36532, -56.4113, -2.06988
4.304, 5, 2.72807, 17.7221, 34.5215, 3.2676, -56.5584, -2.00741
4.308, 5, 2.65146, 17.76, 34.5428, 3.17022, -56.7056, -1.9453
4.312, 5, 2.57483, 17.7982, 34.5638, 3.07319, -56.8527, -1.88356
4.316, 5, 2.49819, 17.8366, 34.5845, 2.9765, -56.9999, -1.82216
4.32, 5, 2.42153, 17.8753, 34.6048, 2.88016, -57.1471, -1.76112
4.324, 5, 2.34486, 17.9143, 34.6248, 2.78415, -57.2944, -1.70044
4.328, 5, 2.26818, 17.9534, 34.6445, 2.68849, -57.4416, -1.6401
4.332, 5, 2.19148, 17.9929, 34.6639, 2.59315, -57.5889, -1.5801
4.336, 5, 2.11476, 18.0326, 34.6829, 2.49815, -57.7361, -1.52046
4.34, 5, 2.03804, 18.0725, 34.7017, 2.40348, -57.8834, -1.46115
4.344, 5, 1.96131, 18.1127, 34.7201, 2.30914, -58.0307, -1.40218
4.348, 5, 1.88456, 18.1531, 34.7381, 2.21513, -58.178, -1.34355
4.352, 5, 1.8078, 18.1938, 34.7559, 2.12144, -58.3253, -1.28526
4.356, 5, 1.73103, 18.2348, 34.7733, 2.02807, -58.4727, -1.22729
4.36, 5, 1.65425, 18.2759, 34.7904, 1.93502, -58.62, -1.16966
4.364, 5, 1.57747, 18.3174, 34.8072, 1.84229, -58.7673, -1.11235
4.368, 5, 1.50067, 18.3591, 34.8236, 1.74988, -58.9146, -1.05537
4.372, 5, 1.42387, 18.401, 34.8397, 1.65778, -59.062, -0.998713
4.376, 5, 1.34706, 18.4432, 34.8555, 1.56599, -59.2093, -0.942375
4.38, 5, 1.27024, 18.4856, 34.871, 1.4745, -59.3566, -0.886356
4.384, 5, 1.19341, 18.5284, 34.8861, 1.38333, -59.504, -0.830654
4.388, 5, 1.11659, 18.5716, 34.9008, 1.29246, -59.6513, -0.775266
4.392, 5, 1.03978, 18.6154, 34.915, 1.20189, -59.7986, -0.720191
4.396, 5, 0.963054, 18.6601, 34.9286, 1.11162, -59.9459, -0.665429
4.4, 5, 0.886451, 18.7059, 34.9414, 1.02165, -60.0932, -0.610982
4.404, 5, 0.810033, 18.7531, 34.9532, 0.932002, -60.2404, -0.556857
4.408, 5, 0.733855, 18.8021, 34.9638, 0.842688, -60.3875, -0.503067
4.412, 5, 0.657966, 18.8528, 34.9728, 0.753753, -60.5345, -0.449635
4.416, 6, 0.582408, 18.9055, 34.9798, 0.665255, -60.6812, -0.396593
4.42, 6, 0.507202, 18.96, 34.9846, 0.577273, -60.8276, -0.343981
4.424, 6, 0.432357, 19.0165, 34.9867, 0.489899, -60.9734, -0.291849
4.428, 6, 0.35789, 19.0748, 34.9857, 0.40324, -61.1187, -0.240253
4.432, 6, 0.283834, 19.135, 34.9812, 0.317402, -61.2631, -0.18925
4.436, 6, 0.210238, 19.197, 34.9729, 0.232488, -61.4065, -0.138893
4.44, 6, 0.137159, 19.261, 34.9606, 0.148588, -61.5487, -0.0892273
4.444, 6, 0.0646488, 19.3269, 34.944, 0.0657764, -61.6898, -0.0402906
4.448, 6, -0.00725305, 19.3947, 34.9232, -0.0158967, -61.8294, 0.00789315
4.452, 6, -0.0785271, 19.4644, 34.8981, -0.0964036, -61.9677, 0.0553132
4.456, 6, -0.14919, 19.5359, 34.8689, -0.175741, -62.1046, 0.101972
4.46, 6, -0.219303, 19.6092, 34.8357, -0.253933, -62.24, 0.147888
4.464, 6, -0.288961, 19.6846, 34.799, -0.331024, -62.3741, 0.193091
4.468, 6, -0.358253, 19.762, 34.7589, -0.407085, -62.5069, 0.237623
4.472, 6, -0.427228, 19.8414, 34.7159, -0.482204, -62.6385, 0.281539
4.476, 6, -0.495879, 19.9229, 34.6703, -0.556484, -62.7692, 0.324897
4.48, 6, -0.564166, 20.0064, 34.6225, -0.630028, -62.899, 0.367761
4.484, 6, -0.63204, 20.0915, 34.573, -0.702937, -63.028, 0.410189
4.488, 6, -0.699456, 20.1781, 34.522, -0.7753, -63.1565, 0.452234
4.492, 6, -0.766386, 20.2658, 34.4698, -0.847189, -63.2845, 0.493943
4.496, 6, -0.832848, 20.3544, 34.4166, -0.918662, -63.4122, 0.53535
4.5, 6, -0.898904, 20.4437, 34.3627, -0.989759, -63.5395, 0.576481
4.504, 6, -0.964635, 20.5335, 34.3082, -1.06051, -63.6666, 0.617357
4.508, 6, -1.03011, 20.6237, 34.2531, -1.13093, -63.7934, 0.657992
4.512, 6, -1.09538, 20.7141, 34.1976, -1.20104, -63.92, 0.698395
4.516, 6, -1.16049, 20.8048, 34.1416, -1.27084, -64.0464, 0.738573
4.52, 6, -1.22545, 20.8957, 34.0853, -1.34035, -64.1726, 0.778534
4.524, 6, -1.29028, 20.9868, 34.0286, -1.40957, -64.2987, 0.818281
4.528, 6, -1.35499, 21.0779, 33.9715, -1.4785, -64.4245, 0.857817
4.532, 6, -1.4196, 21.1693, 33.9141, -1.54714, -64.5502, 0.897147
4.536, 6, -1.48409, 21.2607, 33.8564, -1.6155, -64.6757, 0.936273
4.54, 6, -1.54848, 21.3523, 33.7983, -1.68359, -64.801, 0.975197
4.544, 6, -1.61277, 21.444, 33.7399, -1.7514, -64.9261, 1.01392
4.548, 6, -1.67697, 21.5357, 33.6812, -1.81893, -65.051, 1.05245
4.552, 6, -1.74106, 21.6276, 33.6222, -1.88618, -65.1758, 1.09078
4.556, 6, -1.80506, 21.7196, 33.5628, -1.95317, -65.3004, 1.12892
4.56, 6, -1.86895, 21.8117, 33.5031, -2.01988, -65.4248, 1.16687
4.564, 6, -1.93275, 21.9039, 33.4431, -2.08633, -65.549, 1.20463
4.568, 6, -1.99646, 21.9963, 33.3828, -2.15251, -65.673, 1.2422
4.572, 6, -2.06006, 22.0887, 33.3221, -2.21842, -65.7968, 1.27959
4.576, 6, -2.12357, 22.1812, 33.2611, -2.28406, -65.9205, 1.3168
4.58, 6, -2.18698, 22.2738, 33.1998, -2.34945, -66.044, 1.35382
4.584, 6, -2.25029, 22.3665, 33.1382, -2.41457, -66.1673, 1.39067
4.588, 6, -2.31351, 22.4593, 33.0763, -2.47943, -66.2903, 1.42733
4.592, 6, -2.37662, 22.5522, 33.014, -2.54403, -66.4132, 1.46383
4.596, 6, -2.43964, 22.6452, 32.9514, -2.60837, -66.5359, 1.50014
4.6, 6, -2.50256, 22.7382, 32.8885, -2.67245, -66.6585, 1.53629
4.604, 6, -2.56538, 22.8314, 32.8253, -2.73628, -66.7808, 1.57227
4.608, 6, -2.62811, 22.9247, 32.7617, -2.79985, -66.9029, 1.60807
4.612, 6, -2.69073, 23.0181, 32.6979, -2.86317, -67.0248, 1.64371
4.616, 6, -2.75326, 23.1115, 32.6337, -2.92624, -67.1466, 1.67919
4.62, 6, -2.81569, 23.2051, 32.5692, -2.98906, -67.2681, 1.7145
4.624, 6, -2.87801, 23.2987, 32.5043, -3.05163, -67.3894, 1.74966
4.628, 6, -2.94024, 23.3924, 32.4392, -3.11395, -67.5106, 1.78465
4.632, 6, -3.00237, 23.4862, 32.3737, -3.17602, -67.6315, 1.81949
4.636, 6, -3.0644, 23.5802, 32.3079, -3.23785, -67.7522, 1.85416
4.64, 6, -3.12634, 23.6742, 32.2418, -3.29943, -67.8728, 1.88869
4.644, 6, -3.18817, 23.7682, 32.1753, -3.36077, -67.9931, 1.92306
4.648, 6, -3.2499, 23.8624, 32.1086, -3.42187, -68.1132, 1.95729
4.652, 6, -3.31153, 23.9567, 32.0415, -3.48273, -68.2331, 1.99136
4.656, 6, -3.37306, 24.051, 31.9741, -3.54334, -68.3528, 2.02529
4.66, 6, -3.43449, 24.1454, 31.9064, -3.60372, -68.4723, 2.05907
4.664, 6, -3.49582, 24.2399, 31.8383, -3.66386, -68.5916, 2.0927
4.668, 6, -3.55705, 24.3345, 31.77, -3.72377, -68.7107, 2.1262
4.672, 6, -3.61817, 24.4292, 31.7013, -3.78344, -68.8295, 2.15955
4.676, 6, -3.6792, 24.524, 31.6323, -3.84288, -68.9482, 2.19277
4.68, 6, -3.74012, 24.6188, 31.5629, -3.90208, -69.0666, 2.22585
4.684, 6, -3.80094, 24.7137, 31.4933, -3.96105, -69.1849, 2.25879
4.688, 6, -3.86165, 24.8087, 31.4233, -4.01979, -69.3029, 2.2916
4.692, 6, -3.92227, 24.9038, 31.353, -4.0783, -69.4207, 2.32428
4.696, 6, -3.98278, 24.999, 31.2824, -4.13658, -69.5382, 2.35683
4.7, 6, -4.0432, 25.0942, 31.2114, -4.19464, -69.6556, 2.38924
4.704, 6, -4.10351, 25.1895, 31.1402, -4.25247, -69.7727, 2.42154
4.708, 6, -4.16372, 25.2849, 31.0686, -4.31007, -69.8896, 2.4537
4.712, 6, -4.22382, 25.3804, 30.9967, -4.36745, -70.0063, 2.48575
4.716, 6, -4.28383, 25.476, 30.9244, -4.4246, -70.1228, 2.51767
4.72, 6, -4.34373, 25.5716, 30.8519, -4.48153, -70.239, 2.54946
4.724, 6, -4.40354, 25.6673, 30.779, -4.53824, -70.355, 2.58114
4.728, 6, -4.46324, 25.7631, 30.7058, -4.59473, -70.4708, 2.61271
4.732, 6, -4.52283, 25.8589, 30.6323, -4.651, -70.5864, 2.64415
4.736, 6, -4.58233, 25.9548, 30.5584, -4.70704, -70.7017, 2.67548
4.74, 6, -4.64172, 26.0508, 30.4842, -4.76287, -70.8168, 2.7067
4.744, 6, -4.70101, 26.1469, 30.4098, -4.81848, -70.9317, 2.7378
4.748, 6, -4.7602, 26.2431, 30.335, -4.87388, -71.0464, 2.7688
4.752, 6, -4.81928, 26.3393, 30.2598, -4.92905, -71.1608, 2.79968
4.756, 6, -4.87826, 26.4356, 30.1844, -4.98402, -71.275, 2.83045
4.76, 6, -4.93714, 26.5319, 30.1086, -5.03876, -71.389, 2.86112
4.764, 6, -4.99592, 26.6283, 30.0325, -5.0933, -71.5028, 2.89168
4.768, 6, -5.05459, 26.7248, 29.9561, -5.14762, -71.6163, 2.92214
4.772, 6, -5.11316, 26.8214, 29.8794, -5.20172, -71.7296, 2.9525
4.776, 6, -5.17163, 26.918, 29.8023, -5.25562, -71.8426, 2.98275
4.78, 6, -5.22999, 27.0148, 29.7249, -5.3093, -71.9554, 3.0129
4.784, 6, -5.28826, 27.1115, 29.6472, -5.36277, -72.068, 3.04296
4.788, 6, -5.34642, 27.2084, 29.5692, -5.41604, -72.1804, 3.07291
4.792, 6, -5.40448, 27.3053, 29.4909, -5.46909, -72.2925, 3.10277
4.796, 6, -5.46243, 27.4023, 29.4122, -5.52193, -72.4044, 3.13254
4.8, 6, -5.52028, 27.4993, 29.3333, -5.57457, -72.5161, 3.16221
4.804, 6, -5.57803, 27.5964, 29.254, -5.627, -72.6275, 3.19179
4.808, 6, -5.63568, 27.6936, 29.1744, -5.67923, -72.7387, 3.22127
4.812, 6, -5.69323, 27.7909, 29.0944, -5.73125, -72.8497, 3.25067
4.816, 6, -5.75067, 27.8882, 29.0142, -5.78306, -72.9604, 3.27998
4.82, 6, -5.80801, 27.9855, 28.9336, -5.83467, -73.0709, 3.3092
4.824, 6, -5.86525, 28.083, 28.8527, -5.88608, -73.1812, 3.33833
4.828, 6, -5.92239, 28.1805, 28.7715, -5.93728, -73.2912, 3.36738
4.832, 6, -5.97942, 28.2781, 28.69, -5.98828, -73.401, 3.39634
4.836, 6, -6.03635, 28.3757, 28.6081, -6.03908, -73.5106, 3.42523
4.84, 6, -6.09318, 28.4734, 28.526, -6.08968, -73.6199, 3.45403
4.844, 6, -6.14991, 28.5712, 28.4435, -6.14007, -73.7289, 3.48275
4.848, 6, -6.20653, 28.669, 28.3607, -6.19027, -73.8378, 3.51139
4.852, 6, -6.26305, 28.7669, 28.2775, -6.24027, -73.9464, 3.53995
4.856, 6, -6.31947, 28.8648, 28.1941, -6.29007, -74.0547, 3.56844
4.86, 6, -6.37579, 28.9628, 28.1103, -6.33967, -74.1628, 3.59685
4.864, 6, -6.432, 29.0609, 28.0263, -6.38908, -74.2707, 3.62519
4.868, 6, -6.48811, 29.1591, 27.9418, -6.43828, -74.3783, 3.65346
4.872, 6, -6.54412, 29.2573, 27.8571, -6.48729, -74.4857, 3.68165
4.876, 6, -6.60003, 29.3555, 27.7721, -6.53611, -74.5929, 3.70977
4.88, 6, -6.65583, 29.4538, 27.6867, -6.58473, -74.6998, 3.73783
4.884, 6, -6.71153, 29.5522, 27.601, -6.63316, -74.8064, 3.76581
4.888, 6, -6.76713, 29.6506, 27.515, -6.68139, -74.9128, 3.79373
4.892, 6, -6.82263, 29.7491, 27.4287, -6.72943, -75.019, 3.82158
4.896, 6, -6.87802, 29.8477, 27.3421, -6.77727, -75.1249, 3.84937
4.9, 6, -6.93331, 29.9463, 27.2551, -6.82493, -75.2306, 3.8771
4.904, 6, -6.9885, 30.045, 27.1679, -6.87239, -75.336, 3.90476
4.908, 6, -7.04358, 30.1437, 27.0803, -6.91966, -75.4412, 3.93236
4.912, 6, -7.09856, 30.2425, 26.9923, -6.96674, -75.5462, 3.95991
4.916, 6, -7.15344, 30.3413, 26.9041, -7.01363, -75.6509, 3.98739
4.92, 6, -7.20822, 30.4402, 26.8155, -7.06033, -75.7553, 4.01482
4.924, 6, -7.26289, 30.5392, 26.7267, -7.10684, -75.8595, 4.04219
4.928, 6, -7.31746, 30.6382, 26.6375, -7.15316, -75.9634, 4.0695
4.932, 6, -7.37192, 30.7373, 26.5479, -7.1993, -76.0671, 4.09676
4.936, 6, -7.42629, 30.8364, 26.4581, -7.24525, -76.1705, 4.12397
4.94, 6, -7.48055, 30.9356, 26.3679, -7.29101, -76.2737, 4.15113
4.944, 6, -7.5347, 31.0348, 26.2774, -7.33658, -76.3767, 4.17823
4.948, 6, -7.58876, 31.1341, 26.1866, -7.38197, -76.4793, 4.20529
4.952, 6, -7.64271, 31.2335, 26.0955, -7.42717, -76.5818, 4.2323
4.956, 6, -7.69655, 31.3329, 26.0041, -7.47219, -76.6839, 4.25926
4.96, 6, -7.75029, 31.4323, 25.9123, -7.51702, -76.7859, 4.28617
4.964, 6, -7.80393, 31.5318, 25.8202, -7.56167, -76.8875, 4.31304
4.968, 6, -7.85747, 31.6314, 25.7278, -7.60614, -76.9889, 4.33987
4.972, 6, -7.9109, 31.731, 25.6351, -7.65042, -77.0901, 4.36665
4.976, 6, -7.96422, 31.8307, 25.542, -7.69452, -77.191, 4.39339
4.98, 6, -8.01744, 31.9304, 25.4486, -7.73844, -77.2916, 4.42009
4.984, 6, -8.07056, 32.0302, 25.3549, -7.78218, -77.392, 4.44676
4.988, 6, -8.12357, 32.13, 25.2609, -7.82573, -77.4921, 4.47338
4.992, 6, -8.17649, 32.2299, 25.1665, -7.86911, -77.5919, 4.49997
4.996, 6, -8.22929, 32.3298, 25.0718, -7.9123, -77.6915, 4.52652
5, 6, -8.282, 32.4298, 24.9768, -7.95531, -77.7908, 4.55304
5.004, 6, -8.3346, 32.5298, 24.8815, -7.99815, -77.8899, 4.57952
5.008, 6, -8.38709, 32.6299, 24.7859, -8.0408, -77.9887, 4.60597
5.012, 6, -8.43948, 32.73, 24.6899, -8.08328, -78.0872, 4.63239
5.016, 6, -8.49177, 32.8302, 24.5936, -8.12557, -78.1855, 4.65877
5.02, 6, -8.54395, 32.9304, 24.497, -8.16769, -78.2835, 4.68513
5.024, 6, -8.59603, 33.0307, 24.4, -8.20963, -78.3813, 4.71146
5.028, 6, -8.64801, 33.1311, 24.3027, -8.25139, -78.4788, 4.73777
5.032, 6, -8.69988, 33.2314, 24.2051, -8.29298, -78.576, 4.76404
5.036, 6, -8.75165, 33.3319, 24.1072, -8.33438, -78.673, 4.79029
5.04, 6, -8.80332, 33.4324, 24.009, -8.37561, -78.7696, 4.81652
5.044, 6, -8.85488, 33.5329, 23.9104, -8.41667, -78.8661, 4.84272
5.048, 6, -8.90634, 33.6335, 23.8115, -8.45754, -78.9622, 4.86889
5.052, 6, -8.9577, 33.7341, 23.7123, -8.49824, -79.0581, 4.89505
5.056, 6, -9.00895, 33.8348, 23.6127, -8.53876, -79.1537, 4.92118
5.06, 6, -9.0601, 33.9355, 23.5128, -8.57911, -79.2491, 4.9473
5.064, 6, -9.11115, 34.0363, 23.4126, -8.61928, -79.3442, 4.97339
5.068, 6, -9.1621, 34.1372, 23.3121, -8.65928, -79.439, 4.99946
5.072, 6, -9.21294, 34.2381, 23.2112, -8.6991, -79.5336, 5.02552
5.076, 6, -9.26368, 34.339, 23.1101, -8.73875, -79.6279, 5.05155
5.08, 6, -9.31431, 34.44, 23.0085, -8.77822, -79.722, 5.07757
5.084, 6, -9.36485, 34.541, 22.9067, -8.81752, -79.8157, 5.10358
5.088, 6, -9.41528, 34.6421, 22.8046, -8.85664, -79.9092, 5.12956
5.092, 6, -9.46561, 34.7432, 22.7021, -8.89559, -80.0025, 5.15554
5.096, 6, -9.51584, 34.8444, 22.5993, -8.93437, -80.0954, 5.18149
5.1, 6, -9.56597, 34.9457, 22.4961, -8.97298, -80.1882, 5.20744
5.104, 6, -9.61599, 35.047, 22.3927, -9.01141, -80.2806, 5.23337
5.108, 6, -9.66592, 35.1483, 22.2889, -9.04967, -80.3728, 5.25929
5.112, 6, -9.71574, 35.2497, 22.1848, -9.08776, -80.4647, 5.2852
5.116, 6, -9.76546, 35.3511, 22.0803, -9.12567, -80.5563, 5.3111
5.12, 6, -9.81508, 35.4526, 21.9756, -9.16341, -80.6477, 5.33699
5.124, 6, -9.8646, 35.5542, 21.8705, -9.20099, -80.7388, 5.36287
5.128, 6, -9.91401, 35.6558, 21.765, -9.23839, -80.8296, 5.38874
5.132, 6, -9.96333, 35.7574, 21.6593, -9.27562, -80.9202, 5.41461
5.136, 6, -10.0125, 35.8591, 21.5532, -9.31268, -81.0105, 5.44047
5.14, 6, -10.0617, 35.9608, 21.4468, -9.34957, -81.1006, 5.46632
5.144, 6, -10.1107, 36.0626, 21.3401, -9.38629, -81.1903, 5.49217
5.148, 6, -10.1596, 36.1645, 21.233, -9.42284, -81.2799, 5.51801
5.152, 6, -10.2084, 36.2664, 21.1256, -9.45922, -81.3691, 5.54385
5.156, 6, -10.2571, 36.3683, 21.0179, -9.49543, -81.4581, 5.56969
5.16, 6, -10.3057, 36.4703, 20.9099, -9.53147, -81.5468, 5.59553
5.164, 6, -10.3543, 36.5724, 20.8015, -9.56734, -81.6352, 5.62136
5.168, 6, -10.4027, 36.6745, 20.6928, -9.60305, -81.7234, 5.64719
5.172, 6, -10.451, 36.7767, 20.5838, -9.63858, -81.8112, 5.67303
5.176, 6, -10.4992, 36.8789, 20.4744, -9.67395, -81.8989, 5.69886
5.18, 6, -10.5473, 36.9811, 20.3647, -9.70914, -81.9862, 5.7247
5.184, 6, -10.5953, 37.0834, 20.2547, -9.74417, -82.0733, 5.75053
5.188, 6, -10.6432, 37.1858, 20.1443, -9.77903, -82.1601, 5.77638
5.192, 6, -10.6911, 37.2882, 20.0337, -9.81373, -82.2467, 5.80222
5.196, 6, -10.7388, 37.3907, 19.9226, -9.84825, -82.3329, 5.82807
5.2, 6, -10.7864, 37.4932, 19.8113, -9.88261, -82.4189, 5.85393
5.204, 6, -10.8339, 37.5958, 19.6996, -9.9168, -82.5047, 5.87979
5.208, 6, -10.8813, 37.6984, 19.5876, -9.95082, -82.5901, 5.90566
5.212, 6, -10.9287, 37.8011, 19.4753, -9.98468, -82.6753, 5.93153
5.216, 6, -10.9759, 37.9038, 19.3626, -10.0184, -82.7602, 5.95742
5.22, 6, -11.023, 38.0066, 19.2496, -10.0519, -82.8449, 5.98331
5.224, 6, -11.07, 38.1094, 19.1362, -10.0852, -82.9292, 6.00922
5.228, 6, -11.1169, 38.2123, 19.0226, -10.1184, -83.0133, 6.03513
5.232, 6, -11.1638, 38.3153, 18.9086, -10.1515, -83.0971, 6.06106
5.236, 6, -11.2105, 38.4183, 18.7942, -10.1843, -83.1807, 6.087
5.24, 6, -11.2571, 38.5213, 18.6795, -10.217, -83.2639, 6.11295
5.244, 6, -11.3036, 38.6244, 18.5645, -10.2495, -83.3469, 6.13892
5.248, 6, -11.3501, 38.7276, 18.4491, -10.2819, -83.4297, 6.1649
5.252, 6, -11.3964, 38.8308, 18.3335, -10.3141, -83.5121, 6.1909
5.256, 6, -11.4426, 38.9341, 18.2174, -10.3461, -83.5943, 6.21691
5.26, 6, -11.4888, 39.0374, 18.101, -10.378, -83.6761, 6.24294
5.264, 6, -11.5348, 39.1408, 17.9843, -10.4096, -83.7578, 6.26899
5.268, 6, -11.5807, 39.2442, 17.8673, -10.4412, -83.8391, 6.29505
5.272, 6, -11.6266, 39.3477, 17.7499, -10.4725, -83.9201, 6.32114
5.276, 6, -11.6723, 39.4512, 17.6322, -10.5037, -84.0009, 6.34725
5.28, 6, -11.718, 39.5548, 17.5141, -10.5348, -84.0814, 6.37338
5.284, 6, -11.7635, 39.6585, 17.3957, -10.5656, -84.1616, 6.39953
5.288, 6, -11.8089, 39.7622, 17.2769, -10.5963, -84.2416, 6.4257
5.292, 6, -11.8543, 39.8659, 17.1578, -10.6269, -84.3212, 6.45189
5.296, 6, -11.8995, 39.9697, 17.0384, -10.6572, -84.4006, 6.47811
5.3, 6, -11.9447, 40.0736, 16.9186, -10.6874, -84.4797, 6.50436
5.304, 6, -11.9897, 40.1775, 16.7985, -10.7175, -84.5585, 6.53063
5.308, 6, -12.0347, 40.2815, 16.678, -10.7473, -84.637, 6.55692
5.312, 6, -12.0795, 40.3856, 16.5572, -10.777, -84.7153, 6.58324
5.316, 6, -12.1243, 40.4897, 16.436, -10.8066, -84.7932, 6.60959
5.32, 6, -12.169, 40.5938, 16.3145, -10.836, -84.8709, 6.63597
5.324, 6, -12.2135, 40.6981, 16.1926, -10.8652, -84.9483, 6.66237
5.328, 6, -12.258, 40.8023, 16.0704, -10.8942, -85.0254, 6.6888
5.332, 6, -12.3024, 40.9067, 15.9479, -10.9231, -85.1022, 6.71526
5.336, 6, -12.3466, 41.0111, 15.825, -10.9518, -85.1788, 6.74175
5.34, 6, -12.3908, 41.1155, 15.7017, -10.9804, -85.2551, 6.76827
5.344, 6, -12.4348, 41.22, 15.5781, -11.0087, -85.331, 6.79482
5.348, 6, -12.4787, 41.3244, 15.4542, -11.037, -85.4067, 6.8214
5.352, 6, -12.5223, 41.4288, 15.33, -11.065, -85.4821, 6.84801
5.356, 6, -12.5658, 41.533, 15.2054, -11.0929, -85.5573, 6.87465
5.36, 6, -12.6089, 41.6371, 15.0806, -11.1206, -85.6321, 6.9013
5.364, 6, -12.6518, 41.741, 14.9556, -11.1482, -85.7066, 6.92798
5.368, 6, -12.6942, 41.8443, 14.8305, -11.1755, -85.7807, 6.95466
5.372, 6, -12.736, 41.947, 14.7054, -11.2027, -85.8545, 6.98133
5.376, 6, -12.777, 42.0486, 14.5806, -11.2296, -85.9278, 7.00796
5.38, 6, -12.8172, 42.1489, 14.4562, -11.2563, -86.0006, 7.03452
5.384, 6, -12.8562, 42.2477, 14.3327, -11.2826, -86.0727, 7.06095
5.388, 6, -12.8941, 42.3447, 14.2103, -11.3086, -86.1439, 7.08717
5.392, 6, -12.9309, 42.4397, 14.0895, -11.3342, -86.214, 7.11309
5.396, 6, -12.9666, 42.5324, 13.9707, -11.3591, -86.2827, 7.13859
5.4, 6, -13.001, 42.6227, 13.8546, -11.3834, -86.3497, 7.16356
5.404, 6, -13.0342, 42.7102, 13.7415, -11.4069, -86.4147, 7.18786
5.408, 6, -13.0661, 42.7945, 13.6323, -11.4295, -86.4772, 7.21134
5.412, 6, -13.0966, 42.8753, 13.5273, -11.4511, -86.537, 7.23388
5.416, 6, -13.1257, 42.9524, 13.4273, -11.4715, -86.5936, 7.25534
5.42, 6, -13.1536, 43.0257, 13.3326, -11.4906, -86.6469, 7.27559
5.424, 6, -13.1801, 43.0949, 13.2437, -11.5085, -86.6965, 7.29452
5.428, 6, -13.2053, 43.1601, 13.161, -11.5249, -86.7423, 7.31204
5.432, 6, -13.2293, 43.221, 13.0847, -11.5399, -86.7841, 7.3281
5.436, 6, -13.252, 43.2776, 13.015, -11.5534, -86.8218, 7.34267
5.44, 6, -13.2732, 43.3296, 12.9519, -11.5654, -86.8556, 7.35574
5.444, 6, -13.293, 43.3771, 12.8954, -11.5761, -86.8854, 7.36734
5.448, 6, -13.3112, 43.4202, 12.8453, -11.5854, -86.9114, 7.3775
5.452, 6, -13.328, 43.4588, 12.8014, -11.5934, -86.9339, 7.38631
5.456, 6, -13.3433, 43.4932, 12.7634, -11.6003, -86.953, 7.39385
5.46, 6, -13.3572, 43.5236, 12.7307, -11.606, -86.9691, 7.40021
5.464, 6, -13.3696, 43.5501, 12.7031, -11.6108, -86.9824, 7.40551
5.468, 6, -13.3806, 43.5729, 12.68, -11.6147, -86.9934, 7.40986
5.472, 6, -13.3903, 43.5924, 12.6609, -11.6178, -87.0022, 7.41339
5.476, 6, -13.3987, 43.6088, 12.6455, -11.6203, -87.0091, 7.41619
5.48, 6, -13.4059, 43.6226, 12.633, -11.6223, -87.0145, 7.41839
5.484, 6, -13.4123, 43.6343, 12.6232, -11.6238, -87.0187, 7.42007
5.488, 6, -13.4178, 43.6442, 12.6156, -11.6249, -87.0217, 7.42133
5.492, 6, -13.4227, 43.6524, 12.6098, -11.6257, -87.024, 7.42226
5.496, 6, -13.4267, 43.6591, 12.6054, -11.6263, -87.0255, 7.42293
5.5, 6, -13.4301, 43.6646, 12.6021, -11.6267, -87.0266, 7.4234
5.504, 7, -13.4328, 43.6688, 12.5998, -11.6269, -87.0274, 7.42372
5.508, 7, -13.4348, 43.6719, 12.5981, -11.6271, -87.0279, 7.42394
5.512, 7, -13.4362, 43.674, 12.597, -11.6272, -87.0283, 7.42409
5.516, 7, -13.4372, 43.6755, 12.5962, -11.6273, -87.0285, 7.4242
5.52, 7, -13.4379, 43.6765, 12.5957, -11.6274, -87.0286, 7.42427
5.524, 7, -13.4383, 43.6772, 12.5953, -11.6274, -87.0288, 7.42431
5.528, 7, -13.4387, 43.6777, 12.5951, -11.6275, -87.0288, 7.42434
5.532, 7, -13.4389, 43.678, 12.5949, -11.6275, -87.0289, 7.42437
5.536, 7, -13.439, 43.6782, 12.5948, -11.6275, -87.0289, 7.42438
5.54, 7, -13.4391, 43.6784, 12.5948, -11.6275, -87.0289, 7.42439
5.544, 7, -13.4392, 43.6785, 12.5947, -11.6275, -87.029, 7.4244
5.548, 7, -13.4392, 43.6785, 12.5947, -11.6275, -87.029, 7.4244
5.552, 7, -13.4392, 43.6786, 12.5947, -11.6275, -87.029, 7.4244
5.556, 7, -13.4393, 43.6786, 12.5946, -11.6275, -87.029, 7.42441
5.56, 7, -13.4393, 43.6786, 12.5946, -11.6275, -87.029, 7.42441
5.564, 7, -13.4393, 43.6786, 12.5946, -11.6275, -87.029, 7.42441
5.568, 7, -13.4393, 43.6786, 12.5946, -11.6275, -87.029, 7.42441
5.572, 7, -13.4393, 43.6786, 12.5946, -11.6275, -87.029, 7.42441
5.576, 7, -13.4393, 43.6786, 12.5946, -11.6275, -87.029, 7.42441
5.58, 7, -13.4393, 43.6786, 12.5946, -11.6275, -87.029, 7.42441
5.584, 7, -13.4393, 43.6787, 12.5946, -11.6275, -87.029, 7.42441
5.588, 7, -13.4393, 43.6787, 12.5946, -11.6275, -87.029, 7.42441
5.592, 7, -13.4393, 43.6787, 12.5946, -11.6275, -87.029, 7.42441
5.596, 7, -13.4393, 43.6787, 12.5946, -11.6275, -87.029, 7.42441
5.6, 7, -13.4393, 43.6787, 12.5946, -11.6275, -87.029, 7.42441
5.604, 7, -13.4393, 43.6787, 12.5946, -11.6275, -87.029, 7.42441
5.608, 7, -13.4393, 43.6787, 12.5946, -11.6275, -87.029, 7.42441
5.612, 7, -13.4393, 43.6787, 12.5946, -11.6275, -87.029, 7.42441
5.616, 7, -13.4393, 43.6787, 12.5946, -11.6275, -87.029, 7.42441
5.62, 7, -13.4393, 43.6787, 12.5946, -11.6275, -87.029, 7.42441
