hehonglu123/ABB_Primitive_Study/execution/movel_30_car/curve_exe_v500_z500.csv
timestamp, cmd_num, J1, J2, J3, J4, J5, J6
0, -1, -13.4393, 43.6787, 12.5946, -11.6275, -87.029, 7.42441
0.002, -1, -13.4393, 43.6787, 12.5946, -11.6275, -87.029, 7.42441
0.006, -1, -13.4393, 43.6787, 12.5946, -11.6275, -87.029, 7.42441
0.008, -1, -13.4393, 43.6787, 12.5946, -11.6275, -87.029, 7.42441
0.011, -1, -13.4393, 43.6787, 12.5946, -11.6275, -87.029, 7.42441
0.016, -1, -13.4393, 43.6787, 12.5946, -11.6275, -87.029, 7.42441
0.02, -1, -13.4393, 43.6787, 12.5946, -11.6275, -87.029, 7.42441
0.024, -1, -13.4393, 43.6787, 12.5946, -11.6275, -87.029, 7.42441
0.028, -1, -13.4393, 43.6787, 12.5946, -11.6275, -87.029, 7.42441
0.032, -1, -13.4393, 43.6787, 12.5946, -11.6275, -87.029, 7.42441
0.036, -1, -13.4392, 43.6786, 12.5946, -11.6275, -87.029, 7.42441
0.04, -1, -13.439, 43.6785, 12.5946, -11.6275, -87.029, 7.42441
0.044, -1, -13.4384, 43.678, 12.5947, -11.6275, -87.029, 7.42439
0.048, -1, -13.4372, 43.6772, 12.5949, -11.6274, -87.0289, 7.42434
0.052, -1, -13.4355, 43.6758, 12.5951, -11.6273, -87.0287, 7.42422
0.056, -1, -13.433, 43.6738, 12.5955, -11.627, -87.0284, 7.42397
0.06, -1, -13.4296, 43.671, 12.5961, -11.6264, -87.0277, 7.42349
0.064, -1, -13.4254, 43.6675, 12.5969, -11.6253, -87.0264, 7.42266
0.068, -1, -13.4203, 43.6631, 12.598, -11.6236, -87.0244, 7.42132
0.072, -1, -13.4141, 43.6579, 12.5994, -11.6209, -87.0213, 7.41928
0.076, -1, -13.4066, 43.6516, 12.6011, -11.617, -87.0167, 7.4163
0.08, -1, -13.3977, 43.6442, 12.6034, -11.6115, -87.0103, 7.41213
0.084, -1, -13.3869, 43.6352, 12.6062, -11.604, -87.0016, 7.40644
0.088, -1, -13.3743, 43.6247, 12.6097, -11.5941, -86.9899, 7.39892
0.092, -1, -13.3596, 43.6124, 12.6138, -11.5812, -86.9748, 7.38918
0.096, -1, -13.3427, 43.5982, 12.6186, -11.5648, -86.9557, 7.37685
0.1, -1, -13.3235, 43.582, 12.6243, -11.5444, -86.9319, 7.36155
0.104, -1, -13.3019, 43.5636, 12.6308, -11.5196, -86.9029, 7.3429
0.108, -1, -13.2776, 43.5427, 12.6382, -11.4899, -86.868, 7.32054
0.112, -1, -13.2505, 43.5193, 12.6467, -11.4547, -86.8269, 7.29416
0.116, -1, -13.2206, 43.4932, 12.6562, -11.4137, -86.7789, 7.26346
0.12, -1, -13.1877, 43.4644, 12.6669, -11.3667, -86.7238, 7.22818
0.124, -1, -13.1519, 43.4328, 12.6786, -11.3132, -86.6612, 7.18814
0.128, -1, -13.113, 43.3984, 12.6916, -11.2532, -86.591, 7.14319
0.131, -1, -13.071, 43.3611, 12.7056, -11.1865, -86.5129, 7.09326
0.136, -1, -13.026, 43.321, 12.7209, -11.1131, -86.4269, 7.03835
0.139, -1, -12.9779, 43.2779, 12.7373, -11.0331, -86.3333, 6.9785
0.144, -1, -12.9267, 43.232, 12.7548, -10.9467, -86.2321, 6.91384
0.148, -1, -12.8726, 43.1833, 12.7734, -10.854, -86.1236, 6.84454
0.152, -1, -12.8155, 43.132, 12.7932, -10.7555, -86.0082, 6.77084
0.156, -1, -12.7557, 43.0781, 12.8139, -10.6514, -85.8863, 6.69301
0.16, -1, -12.6932, 43.0219, 12.8355, -10.5422, -85.7585, 6.61137
0.164, -1, -12.6282, 42.9633, 12.8581, -10.4284, -85.6253, 6.52627
0.168, -1, -12.5607, 42.9025, 12.8815, -10.3105, -85.4872, 6.43809
0.172, -1, -12.4909, 42.8396, 12.9056, -10.189, -85.3449, 6.34721
0.176, -1, -12.4189, 42.7749, 12.9305, -10.0644, -85.1989, 6.25399
0.18, -1, -12.345, 42.7085, 12.956, -9.93711, -85.0499, 6.15879
0.184, -1, -12.2694, 42.6406, 12.9821, -9.80765, -84.8983, 6.06194
0.188, -1, -12.1925, 42.5714, 13.0086, -9.6764, -84.7446, 5.96375
0.192, -1, -12.1142, 42.5011, 13.0356, -9.54373, -84.5892, 5.86449
0.196, -1, -12.0348, 42.4297, 13.0629, -9.40995, -84.4326, 5.76439
0.2, -1, -11.9542, 42.3573, 13.0906, -9.27534, -84.2749, 5.66366
0.204, -1, -11.8724, 42.2841, 13.1185, -9.14011, -84.1166, 5.56246
0.208, -1, -11.7897, 42.21, 13.1466, -9.00443, -83.9577, 5.46092
0.212, -1, -11.7061, 42.1354, 13.1749, -8.86843, -83.7985, 5.35913
0.216, -1, -11.6218, 42.0602, 13.2033, -8.7322, -83.6389, 5.25717
0.22, -1, -11.5371, 41.9847, 13.2318, -8.5958, -83.4792, 5.15507
0.224, -1, -11.452, 41.909, 13.2603, -8.45928, -83.3194, 5.05288
0.228, -1, -11.3667, 41.8332, 13.2889, -8.32266, -83.1594, 4.95062
0.232, -1, -11.2813, 41.7572, 13.3176, -8.18597, -82.9993, 4.8483
0.236, -1, -11.1957, 41.6811, 13.3462, -8.04922, -82.8392, 4.74595
0.24, -1, -11.11, 41.605, 13.3749, -7.91243, -82.679, 4.64355
0.244, -1, -11.0243, 41.5288, 13.4035, -7.77561, -82.5188, 4.54114
0.248, -1, -10.9386, 41.4526, 13.4322, -7.63876, -82.3586, 4.4387
0.252, -1, -10.8528, 41.3764, 13.4609, -7.50189, -82.1983, 4.33625
0.256, -1, -10.767, 41.3002, 13.4896, -7.36501, -82.0381, 4.2338
0.26, -1, -10.6811, 41.2239, 13.5183, -7.22813, -81.8778, 4.13133
0.264, -1, -10.5953, 41.1477, 13.547, -7.09125, -81.7175, 4.02887
0.268, -1, -10.5094, 41.0714, 13.5757, -6.95436, -81.5572, 3.92641
0.272, -1, -10.4236, 40.9952, 13.6044, -6.81749, -81.397, 3.82396
0.276, -1, -10.3378, 40.9189, 13.6331, -6.68063, -81.2367, 3.72151
0.28, -1, -10.252, 40.8427, 13.6618, -6.54379, -81.0765, 3.61908
0.284, -1, -10.1661, 40.7665, 13.6904, -6.40697, -80.9163, 3.51666
0.288, -1, -10.0803, 40.6903, 13.7191, -6.27017, -80.7561, 3.41427
0.292, -1, -9.99456, 40.6141, 13.7478, -6.13341, -80.596, 3.31189
0.296, -1, -9.9088, 40.538, 13.7764, -5.99668, -80.4359, 3.20955
0.3, -1, -9.82306, 40.4618, 13.8051, -5.85999, -80.2758, 3.10723
0.304, -1, -9.73734, 40.3857, 13.8337, -5.72334, -80.1158, 3.00494
0.308, -1, -9.65166, 40.3096, 13.8624, -5.58674, -79.9558, 2.90269
0.312, -1, -9.566, 40.2336, 13.891, -5.45019, -79.796, 2.80048
0.316, -1, -9.48038, 40.1575, 13.9196, -5.31369, -79.6361, 2.69831
0.32, -1, -9.3948, 40.0815, 13.9482, -5.17726, -79.4764, 2.59618
0.324, -1, -9.30925, 40.0055, 13.9768, -5.04089, -79.3167, 2.4941
0.328, -1, -9.22375, 39.9296, 14.0054, -4.90458, -79.1571, 2.39207
0.332, -1, -9.13829, 39.8537, 14.0339, -4.76835, -78.9976, 2.2901
0.336, -1, -9.05287, 39.7778, 14.0625, -4.63219, -78.8382, 2.18818
0.34, -1, -8.9675, 39.702, 14.091, -4.49612, -78.6788, 2.08632
0.344, -1, -8.88219, 39.6262, 14.1195, -4.36012, -78.5196, 1.98452
0.348, -1, -8.79692, 39.5505, 14.148, -4.22421, -78.3604, 1.88279
0.352, -1, -8.71172, 39.4748, 14.1765, -4.0884, -78.2014, 1.78113
0.356, -1, -8.62657, 39.3992, 14.2049, -3.95267, -78.0425, 1.67953
0.36, -1, -8.54148, 39.3236, 14.2334, -3.81705, -77.8837, 1.57801
0.364, -1, -8.45646, 39.2481, 14.2618, -3.68152, -77.725, 1.47657
0.368, -1, -8.3715, 39.1727, 14.2902, -3.54611, -77.5664, 1.3752
0.372, -1, -8.28661, 39.0973, 14.3185, -3.4108, -77.408, 1.27392
0.376, -1, -8.20179, 39.0219, 14.3469, -3.2756, -77.2497, 1.17272
0.38, -1, -8.11704, 38.9467, 14.3752, -3.14052, -77.0915, 1.07161
0.384, -1, -8.03237, 38.8715, 14.4035, -3.00557, -76.9335, 0.970588
0.388, -1, -7.94777, 38.7963, 14.4318, -2.87073, -76.7756, 0.869659
0.392, -1, -7.86325, 38.7212, 14.46, -2.73602, -76.6179, 0.768825
0.396, -1, -7.77881, 38.6463, 14.4882, -2.60145, -76.4603, 0.668089
0.4, -1, -7.69446, 38.5713, 14.5164, -2.467, -76.3029, 0.567454
0.404, -1, -7.61019, 38.4965, 14.5446, -2.3327, -76.1456, 0.466921
0.408, -1, -7.526, 38.4217, 14.5727, -2.19854, -75.9885, 0.366494
0.412, -1, -7.44191, 38.347, 14.6008, -2.06452, -75.8316, 0.266176
0.416, -1, -7.35791, 38.2724, 14.6288, -1.93064, -75.6748, 0.165968
0.42, -1, -7.274, 38.1979, 14.6569, -1.79692, -75.5183, 0.0658724
0.424, -1, -7.19019, 38.1235, 14.6849, -1.66336, -75.3619, -0.0341072
0.428, -1, -7.10648, 38.0491, 14.7128, -1.52995, -75.2057, -0.133969
0.432, -1, -7.02287, 37.9748, 14.7408, -1.3967, -75.0496, -0.233711
0.436, -1, -6.93935, 37.9007, 14.7687, -1.26362, -74.8938, -0.33333
0.44, -1, -6.85595, 37.8266, 14.7965, -1.1307, -74.7382, -0.432824
0.444, -1, -6.77264, 37.7526, 14.8244, -0.99795, -74.5827, -0.532191
0.448, -1, -6.68945, 37.6787, 14.8522, -0.865375, -74.4275, -0.631429
0.452, -1, -6.60636, 37.6049, 14.8799, -0.732975, -74.2725, -0.730535
0.456, -1, -6.52339, 37.5312, 14.9077, -0.600755, -74.1176, -0.829507
0.46, -1, -6.44053, 37.4576, 14.9353, -0.468716, -73.963, -0.928344
0.464, -1, -6.35778, 37.3842, 14.963, -0.336861, -73.8086, -1.02704
0.468, -1, -6.27515, 37.3108, 14.9906, -0.205193, -73.6545, -1.1256
0.472, -1, -6.19264, 37.2375, 15.0181, -0.0737153, -73.5005, -1.22402
0.476, -1, -6.11024, 37.1643, 15.0457, 0.0575699, -73.3468, -1.32229
0.48, -1, -6.02797, 37.0912, 15.0732, 0.18866, -73.1933, -1.42042
0.484, -1, -5.94582, 37.0183, 15.1006, 0.319552, -73.04, -1.51839
0.488, -1, -5.8638, 36.9454, 15.128, 0.450244, -72.887, -1.61622
0.492, -1, -5.7819, 36.8727, 15.1554, 0.580734, -72.7342, -1.7139
0.496, -1, -5.70012, 36.8001, 15.1827, 0.711018, -72.5817, -1.81142
0.5, -1, -5.61848, 36.7276, 15.2099, 0.841096, -72.4294, -1.90879
0.504, -1, -5.53697, 36.6552, 15.2372, 0.970964, -72.2773, -2.006
0.508, -1, -5.45558, 36.5829, 15.2644, 1.10062, -72.1255, -2.10306
0.512, -1, -5.37433, 36.5108, 15.2915, 1.23006, -71.9739, -2.19995
0.516, -1, -5.29321, 36.4387, 15.3186, 1.35929, -71.8226, -2.29668
0.52, -1, -5.21223, 36.3668, 15.3456, 1.4883, -71.6715, -2.39325
0.524, -1, -5.13138, 36.295, 15.3726, 1.6171, -71.5207, -2.48966
0.528, -1, -5.05067, 36.2233, 15.3996, 1.74567, -71.3702, -2.5859
0.532, -1, -4.97009, 36.1518, 15.4265, 1.87402, -71.2199, -2.68198
0.536, -1, -4.88966, 36.0803, 15.4534, 2.00215, -71.0698, -2.77789
0.54, -1, -4.80936, 36.009, 15.4802, 2.13005, -70.9201, -2.87363
0.544, -1, -4.7292, 35.9378, 15.507, 2.25773, -70.7706, -2.9692
0.548, -1, -4.64919, 35.8668, 15.5337, 2.38518, -70.6213, -3.0646
0.552, -1, -4.56931, 35.7959, 15.5604, 2.51241, -70.4724, -3.15984
0.556, -1, -4.48958, 35.725, 15.587, 2.6394, -70.3237, -3.2549
0.56, -1, -4.41, 35.6544, 15.6136, 2.76617, -70.1752, -3.34979
0.564, -1, -4.33056, 35.5838, 15.6401, 2.8927, -70.0271, -3.44451
0.568, -1, -4.25126, 35.5134, 15.6666, 3.01901, -69.8792, -3.53905
0.572, -1, -4.17211, 35.4431, 15.693, 3.14508, -69.7316, -3.63342
0.576, -1, -4.0931, 35.373, 15.7194, 3.27092, -69.5842, -3.72761
0.58, -1, -4.01424, 35.3029, 15.7458, 3.39652, -69.4372, -3.82163
0.584, -1, -3.93553, 35.233, 15.772, 3.52189, -69.2904, -3.91547
0.588, -1, -3.85696, 35.1633, 15.7983, 3.64702, -69.1438, -4.00914
0.592, -1, -3.77855, 35.0936, 15.8245, 3.77191, -68.9976, -4.10263
0.596, -1, -3.70028, 35.0241, 15.8506, 3.89657, -68.8516, -4.19594
0.6, -1, -3.62216, 34.9548, 15.8767, 4.02099, -68.7059, -4.28908
0.604, -1, -3.54419, 34.8855, 15.9027, 4.14517, -68.5605, -4.38203
0.608, -1, -3.46637, 34.8164, 15.9287, 4.26911, -68.4154, -4.47481
0.612, -1, -3.3887, 34.7474, 15.9547, 4.39281, -68.2706, -4.5674
0.616, -1, -3.31118, 34.6786, 15.9806, 4.51628, -68.126, -4.65982
0.62, -1, -3.23382, 34.6099, 16.0064, 4.63949, -67.9817, -4.75205
0.624, -1, -3.1566, 34.5413, 16.0322, 4.76247, -67.8377, -4.84411
0.628, -1, -3.07954, 34.4729, 16.0579, 4.88521, -67.694, -4.93598
0.632, -1, -3.00262, 34.4046, 16.0836, 5.0077, -67.5506, -5.02767
0.636, -1, -2.92586, 34.3364, 16.1092, 5.12995, -67.4074, -5.11918
0.64, -1, -2.84926, 34.2684, 16.1348, 5.25195, -67.2646, -5.2105
0.644, -1, -2.7728, 34.2005, 16.1604, 5.37371, -67.122, -5.30165
0.648, -1, -2.6965, 34.1328, 16.1858, 5.49523, -66.9797, -5.39261
0.652, -1, -2.62035, 34.0652, 16.2113, 5.6165, -66.8377, -5.48338
0.656, -1, -2.54436, 33.9977, 16.2366, 5.73753, -66.696, -5.57398
0.66, -1, -2.46852, 33.9303, 16.262, 5.85831, -66.5546, -5.66439
0.664, -1, -2.39283, 33.8631, 16.2872, 5.97884, -66.4135, -5.75461
0.668, -1, -2.3173, 33.7961, 16.3125, 6.09913, -66.2726, -5.84465
0.672, -1, -2.24192, 33.7291, 16.3376, 6.21917, -66.1321, -5.93451
0.676, -1, -2.1667, 33.6623, 16.3628, 6.33897, -65.9918, -6.02418
0.68, -1, -2.09163, 33.5957, 16.3878, 6.45851, -65.8518, -6.11367
0.684, -1, -2.01672, 33.5292, 16.4129, 6.57781, -65.7121, -6.20297
0.688, -1, -1.94196, 33.4628, 16.4378, 6.69687, -65.5727, -6.29208
0.692, -1, -1.86736, 33.3965, 16.4627, 6.81567, -65.4336, -6.38101
0.696, -1, -1.79291, 33.3304, 16.4876, 6.93423, -65.2948, -6.46976
0.7, -1, -1.71862, 33.2645, 16.5124, 7.05254, -65.1562, -6.55832
0.704, -1, -1.64448, 33.1986, 16.5372, 7.1706, -65.018, -6.64669
0.708, -1, -1.5705, 33.1329, 16.5619, 7.28841, -64.8801, -6.73488
0.712, -1, -1.49668, 33.0674, 16.5865, 7.40597, -64.7424, -6.82288
0.716, -1, -1.42301, 33.002, 16.6111, 7.52329, -64.605, -6.9107
0.72, -1, -1.34949, 32.9367, 16.6357, 7.64036, -64.468, -6.99833
0.724, -1, -1.27614, 32.8715, 16.6602, 7.75718, -64.3312, -7.08577
0.728, -1, -1.20293, 32.8065, 16.6846, 7.87375, -64.1947, -7.17303
0.732, -1, -1.12989, 32.7417, 16.709, 7.99007, -64.0585, -7.2601
0.736, -1, -1.057, 32.677, 16.7333, 8.10615, -63.9226, -7.34699
0.74, -1, -0.984259, 32.6124, 16.7576, 8.22197, -63.7869, -7.43369
0.744, -1, -0.911678, 32.5479, 16.7819, 8.33755, -63.6516, -7.52021
0.748, -1, -0.839252, 32.4836, 16.8061, 8.45288, -63.5166, -7.60653
0.752, -1, -0.766981, 32.4194, 16.8302, 8.56796, -63.3818, -7.69268
0.756, -1, -0.694864, 32.3554, 16.8543, 8.6828, -63.2474, -7.77864
0.76, -1, -0.622901, 32.2915, 16.8783, 8.79738, -63.1132, -7.86441
0.764, -1, -0.551092, 32.2277, 16.9023, 8.91172, -62.9793, -7.95
0.768, -1, -0.479437, 32.1641, 16.9262, 9.02582, -62.8457, -8.0354
0.772, -1, -0.407935, 32.1006, 16.9501, 9.13966, -62.7124, -8.12062
0.776, -1, -0.336586, 32.0373, 16.9739, 9.25326, -62.5794, -8.20566
0.78, -1, -0.26539, 31.9741, 16.9977, 9.36662, -62.4467, -8.29051
0.784, -1, -0.194346, 31.911, 17.0214, 9.47973, -62.3142, -8.37518
0.788, -1, -0.123455, 31.848, 17.0451, 9.5926, -62.182, -8.45966
0.792, -1, -0.0527154, 31.7852, 17.0687, 9.70522, -62.0502, -8.54397
0.796, -1, 0.0178725, 31.7226, 17.0923, 9.81761, -61.9186, -8.62809
0.8, -1, 0.0883091, 31.66, 17.1158, 9.92975, -61.7873, -8.71204
0.804, -1, 0.158595, 31.5976, 17.1393, 10.0417, -61.6562, -8.7958
0.808, -1, 0.22873, 31.5353, 17.1627, 10.1533, -61.5255, -8.87938
0.812, -1, 0.298716, 31.4732, 17.186, 10.2647, -61.395, -8.96279
0.816, -1, 0.368552, 31.4112, 17.2094, 10.3759, -61.2648, -9.04602
0.82, -1, 0.438239, 31.3493, 17.2326, 10.4869, -61.1349, -9.12907
0.824, -1, 0.507778, 31.2876, 17.2559, 10.5976, -61.0053, -9.21194
0.828, -1, 0.577169, 31.226, 17.279, 10.7081, -60.8759, -9.29464
0.832, -1, 0.646413, 31.1645, 17.3021, 10.8183, -60.7468, -9.37716
0.836, -1, 0.71551, 31.1031, 17.3252, 10.9283, -60.618, -9.45951
0.84, -1, 0.78446, 31.0419, 17.3482, 11.0381, -60.4895, -9.54168
0.844, -1, 0.853266, 30.9808, 17.3712, 11.1476, -60.3612, -9.62368
0.848, -1, 0.921925, 30.9199, 17.3941, 11.2569, -60.2332, -9.7055
0.852, -1, 0.990441, 30.859, 17.417, 11.366, -60.1055, -9.78716
0.856, -1, 1.05881, 30.7983, 17.4398, 11.4749, -59.9781, -9.86864
0.86, -1, 1.12704, 30.7378, 17.4626, 11.5835, -59.8509, -9.94995
0.864, -1, 1.19512, 30.6773, 17.4854, 11.6919, -59.7239, -10.0311
0.868, -1, 1.26307, 30.617, 17.508, 11.8001, -59.5973, -10.1121
0.872, -1, 1.33087, 30.5568, 17.5307, 11.908, -59.4709, -10.1929
0.876, -1, 1.39853, 30.4967, 17.5533, 12.0157, -59.3448, -10.2735
0.88, -1, 1.46604, 30.4368, 17.5758, 12.1232, -59.2189, -10.354
0.884, -1, 1.53342, 30.377, 17.5983, 12.2305, -59.0933, -10.4343
0.888, -1, 1.60066, 30.3173, 17.6208, 12.3375, -58.9679, -10.5144
0.892, -1, 1.66775, 30.2577, 17.6432, 12.4444, -58.8429, -10.5943
0.896, -1, 1.73471, 30.1982, 17.6655, 12.551, -58.718, -10.6741
0.9, -1, 1.80153, 30.1389, 17.6878, 12.6574, -58.5935, -10.7538
0.904, -1, 1.86821, 30.0797, 17.7101, 12.7635, -58.4692, -10.8332
0.908, -1, 1.93476, 30.0206, 17.7323, 12.8695, -58.3451, -10.9125
0.912, -1, 2.00117, 29.9617, 17.7545, 12.9752, -58.2213, -10.9917
0.916, -1, 2.06744, 29.9028, 17.7766, 13.0807, -58.0978, -11.0707
0.92, -1, 2.13357, 29.8441, 17.7987, 13.186, -57.9745, -11.1495
0.924, -1, 2.19957, 29.7855, 17.8207, 13.2911, -57.8514, -11.2281
0.928, -1, 2.26543, 29.727, 17.8427, 13.3959, -57.7287, -11.3066
0.932, -1, 2.33116, 29.6687, 17.8647, 13.5006, -57.6061, -11.385
0.936, -1, 2.39676, 29.6104, 17.8866, 13.605, -57.4838, -11.4631
0.94, -1, 2.46222, 29.5523, 17.9084, 13.7092, -57.3618, -11.5412
0.944, -1, 2.52755, 29.4943, 17.9303, 13.8133, -57.24, -11.619
0.948, -1, 2.59275, 29.4364, 17.952, 13.9171, -57.1185, -11.6967
0.952, -1, 2.65781, 29.3787, 17.9738, 14.0206, -56.9972, -11.7743
0.956, -1, 2.72274, 29.321, 17.9954, 14.124, -56.8761, -11.8516
0.96, -1, 2.78755, 29.2635, 18.0171, 14.2272, -56.7553, -11.9289
0.964, -1, 2.85222, 29.2061, 18.0387, 14.3302, -56.6348, -12.0059
0.968, -1, 2.91676, 29.1488, 18.0602, 14.4329, -56.5144, -12.0829
0.972, -1, 2.98117, 29.0916, 18.0817, 14.5355, -56.3944, -12.1596
0.976, -1, 3.04545, 29.0345, 18.1032, 14.6378, -56.2745, -12.2362
0.98, -1, 3.10961, 28.9775, 18.1246, 14.7399, -56.1549, -12.3127
0.984, -1, 3.17363, 28.9207, 18.146, 14.8419, -56.0356, -12.389
0.988, -1, 3.23753, 28.864, 18.1673, 14.9436, -55.9165, -12.4651
0.992, -1, 3.3013, 28.8074, 18.1886, 15.0451, -55.7976, -12.5411
0.996, -1, 3.36494, 28.7508, 18.2099, 15.1465, -55.6789, -12.617
1, -1, 3.42846, 28.6945, 18.2311, 15.2476, -55.5605, -12.6927
1.004, -1, 3.49185, 28.6382, 18.2523, 15.3485, -55.4423, -12.7682
1.008, -1, 3.55512, 28.582, 18.2734, 15.4492, -55.3244, -12.8436
1.012, -1, 3.61826, 28.5259, 18.2945, 15.5498, -55.2067, -12.9189
1.016, -1, 3.68127, 28.47, 18.3155, 15.6501, -55.0892, -12.994
1.02, -1, 3.74416, 28.4142, 18.3365, 15.7502, -54.972, -13.0689
1.024, -1, 3.80693, 28.3584, 18.3575, 15.8502, -54.855, -13.1437
1.027, -1, 3.86958, 28.3028, 18.3784, 15.9499, -54.7382, -13.2184
1.032, -1, 3.9321, 28.2473, 18.3993, 16.0494, -54.6216, -13.2929
1.036, -1, 3.9945, 28.1919, 18.4201, 16.1488, -54.5053, -13.3673
1.04, -1, 4.05678, 28.1366, 18.4409, 16.2479, -54.3892, -13.4415
1.044, -1, 4.11893, 28.0814, 18.4616, 16.3469, -54.2733, -13.5156
1.048, -1, 4.18097, 28.0263, 18.4824, 16.4457, -54.1577, -13.5895
1.052, -1, 4.24289, 27.9714, 18.503, 16.5442, -54.0422, -13.6633
1.055, -1, 4.30468, 27.9165, 18.5237, 16.6426, -53.927, -13.7369
1.06, -1, 4.36636, 27.8617, 18.5443, 16.7408, -53.8121, -13.8104
1.064, -1, 4.42792, 27.8071, 18.5648, 16.8388, -53.6973, -13.8838
1.068, -1, 4.48936, 27.7525, 18.5853, 16.9366, -53.5828, -13.957
1.072, -1, 4.55068, 27.6981, 18.6058, 17.0343, -53.4685, -14.0301
1.076, -1, 4.61188, 27.6438, 18.6262, 17.1317, -53.3544, -14.103
1.08, -1, 4.67297, 27.5895, 18.6466, 17.229, -53.2405, -14.1758
1.084, -1, 4.73394, 27.5354, 18.667, 17.326, -53.1268, -14.2485
1.088, -1, 4.7948, 27.4814, 18.6873, 17.4229, -53.0134, -14.321
1.091, -1, 4.85554, 27.4274, 18.7076, 17.5196, -52.9002, -14.3934
1.096, -1, 4.91617, 27.3736, 18.7278, 17.6161, -52.7871, -14.4656
1.1, -1, 4.97668, 27.3199, 18.7481, 17.7125, -52.6743, -14.5378
1.104, -1, 5.03708, 27.2663, 18.7682, 17.8086, -52.5618, -14.6097
1.108, -1, 5.09737, 27.2127, 18.7883, 17.9046, -52.4494, -14.6816
1.112, -1, 5.15754, 27.1593, 18.8084, 18.0004, -52.3372, -14.7533
1.116, -1, 5.2176, 27.106, 18.8285, 18.096, -52.2253, -14.8249
1.119, -1, 5.27755, 27.0528, 18.8485, 18.1915, -52.1135, -14.8963
1.124, -1, 5.33739, 26.9996, 18.8685, 18.2867, -52.0019, -14.9676
1.128, -1, 5.39712, 26.9466, 18.8884, 18.3818, -51.8906, -15.0388
1.132, -1, 5.45673, 26.8937, 18.9083, 18.4767, -51.7795, -15.1098
1.136, -1, 5.51624, 26.8408, 18.9282, 18.5715, -51.6685, -15.1807
1.14, -1, 5.57564, 26.7881, 18.948, 18.666, -51.5578, -15.2515
1.144, -1, 5.63493, 26.7355, 18.9678, 18.7604, -51.4473, -15.3222
1.147, -1, 5.69412, 26.6829, 18.9876, 18.8547, -51.337, -15.3927
1.152, -1, 5.75319, 26.6305, 19.0073, 18.9487, -51.2268, -15.4631
1.156, -1, 5.81216, 26.5781, 19.027, 19.0426, -51.1169, -15.5334
1.16, -1, 5.87103, 26.5259, 19.0467, 19.1363, -51.0072, -15.6035
1.164, -1, 5.92979, 26.4737, 19.0663, 19.2298, -50.8976, -15.6736
1.168, -1, 5.98844, 26.4216, 19.0859, 19.3232, -50.7883, -15.7435
1.172, -1, 6.04699, 26.3696, 19.1054, 19.4164, -50.6792, -15.8132
1.175, -1, 6.10543, 26.3177, 19.1249, 19.5095, -50.5702, -15.8829
1.18, -1, 6.16377, 26.266, 19.1444, 19.6024, -50.4614, -15.9524
1.184, -1, 6.22201, 26.2142, 19.1639, 19.6951, -50.3529, -16.0218
1.188, -1, 6.28015, 26.1626, 19.1833, 19.7876, -50.2445, -16.0911
1.192, -1, 6.33818, 26.1111, 19.2027, 19.88, -50.1363, -16.1603
1.196, -1, 6.39611, 26.0597, 19.222, 19.9723, -50.0283, -16.2293
1.2, -1, 6.45394, 26.0083, 19.2413, 20.0643, -49.9205, -16.2982
1.204, -1, 6.51167, 25.9571, 19.2606, 20.1562, -49.8129, -16.367
1.208, -1, 6.5693, 25.9059, 19.2798, 20.248, -49.7055, -16.4357
1.212, -1, 6.62683, 25.8548, 19.299, 20.3396, -49.5982, -16.5042
1.216, -1, 6.68426, 25.8038, 19.3182, 20.431, -49.4912, -16.5727
1.22, -1, 6.74159, 25.7529, 19.3374, 20.5223, -49.3843, -16.641
1.224, -1, 6.79882, 25.7021, 19.3565, 20.6134, -49.2776, -16.7092
1.228, -1, 6.85596, 25.6514, 19.3756, 20.7044, -49.1711, -16.7773
1.232, -1, 6.91299, 25.6008, 19.3946, 20.7952, -49.0648, -16.8453
1.236, -1, 6.96993, 25.5502, 19.4136, 20.8858, -48.9586, -16.9131
1.24, -1, 7.02678, 25.4997, 19.4326, 20.9763, -48.8526, -16.9809
1.244, -1, 7.08352, 25.4494, 19.4515, 21.0667, -48.7469, -17.0485
1.248, -1, 7.14018, 25.3991, 19.4705, 21.1569, -48.6413, -17.116
1.252, -1, 7.19673, 25.3488, 19.4893, 21.2469, -48.5358, -17.1834
1.256, -1, 7.25319, 25.2987, 19.5082, 21.3368, -48.4306, -17.2507
1.26, -1, 7.30956, 25.2487, 19.527, 21.4266, -48.3255, -17.3179
1.264, -1, 7.36583, 25.1987, 19.5458, 21.5161, -48.2206, -17.385
1.267, -1, 7.42201, 25.1488, 19.5646, 21.6056, -48.1158, -17.4519
1.272, -1, 7.4781, 25.099, 19.5833, 21.6949, -48.0113, -17.5188
1.276, -1, 7.53409, 25.0493, 19.602, 21.784, -47.9069, -17.5855
1.28, -1, 7.58999, 24.9997, 19.6207, 21.873, -47.8027, -17.6521
1.284, -1, 7.6458, 24.9501, 19.6393, 21.9619, -47.6986, -17.7186
1.288, -1, 7.70152, 24.9007, 19.6579, 22.0506, -47.5948, -17.785
1.292, -1, 7.75715, 24.8513, 19.6765, 22.1392, -47.4911, -17.8513
1.295, -1, 7.81268, 24.802, 19.695, 22.2276, -47.3875, -17.9175
1.3, -1, 7.86813, 24.7528, 19.7135, 22.3159, -47.2842, -17.9836
1.304, -1, 7.92348, 24.7036, 19.732, 22.404, -47.181, -18.0496
1.308, -1, 7.97875, 24.6545, 19.7505, 22.492, -47.0779, -18.1154
1.312, -1, 8.03393, 24.6055, 19.7689, 22.5798, -46.9751, -18.1812
1.316, -1, 8.08901, 24.5566, 19.7873, 22.6675, -46.8724, -18.2468
1.32, -1, 8.14401, 24.5078, 19.8057, 22.7551, -46.7699, -18.3124
1.324, -1, 8.19893, 24.4591, 19.824, 22.8425, -46.6675, -18.3778
1.328, -1, 8.25375, 24.4104, 19.8423, 22.9298, -46.5653, -18.4432
1.332, -1, 8.30849, 24.3618, 19.8606, 23.017, -46.4632, -18.5084
1.336, -1, 8.36314, 24.3133, 19.8788, 23.104, -46.3614, -18.5735
1.34, -1, 8.4177, 24.2648, 19.8971, 23.1909, -46.2596, -18.6386
1.344, -1, 8.47218, 24.2165, 19.9153, 23.2776, -46.1581, -18.7035
1.348, -1, 8.52657, 24.1682, 19.9334, 23.3642, -46.0567, -18.7683
1.352, -1, 8.58088, 24.1199, 19.9515, 23.4507, -45.9554, -18.833
1.356, -1, 8.6351, 24.0718, 19.9697, 23.537, -45.8543, -18.8976
1.36, -1, 8.68923, 24.0237, 19.9877, 23.6232, -45.7534, -18.9622
1.364, -1, 8.74328, 23.9757, 20.0058, 23.7092, -45.6526, -19.0266
1.368, -1, 8.79725, 23.9278, 20.0238, 23.7952, -45.552, -19.0909
1.372, -1, 8.85114, 23.88, 20.0418, 23.881, -45.4516, -19.1551
1.376, -1, 8.90494, 23.8322, 20.0598, 23.9666, -45.3513, -19.2192
1.38, -1, 8.95866, 23.7845, 20.0777, 24.0521, -45.2511, -19.2833
1.384, -1, 9.01229, 23.7369, 20.0956, 24.1375, -45.1511, -19.3472
1.388, -1, 9.06584, 23.6894, 20.1135, 24.2228, -45.0513, -19.411
1.392, -1, 9.11932, 23.6419, 20.1314, 24.3079, -44.9516, -19.4747
1.396, -1, 9.1727, 23.5945, 20.1492, 24.393, -44.8521, -19.5384
1.4, -1, 9.22601, 23.5472, 20.167, 24.4778, -44.7527, -19.6019
1.404, -1, 9.27924, 23.4999, 20.1848, 24.5626, -44.6535, -19.6653
1.408, -1, 9.33239, 23.4527, 20.2025, 24.6472, -44.5544, -19.7287
1.412, -1, 9.38546, 23.4056, 20.2202, 24.7317, -44.4554, -19.7919
1.416, -1, 9.43844, 23.3585, 20.2379, 24.8161, -44.3567, -19.8551
1.42, -1, 9.49135, 23.3116, 20.2556, 24.9003, -44.258, -19.9181
1.424, -1, 9.54418, 23.2647, 20.2732, 24.9844, -44.1595, -19.9811
1.428, -1, 9.59693, 23.2178, 20.2908, 25.0684, -44.0612, -20.044
1.432, -1, 9.6496, 23.1711, 20.3084, 25.1523, -43.963, -20.1067
1.436, -1, 9.7022, 23.1244, 20.326, 25.236, -43.865, -20.1694
1.44, -1, 9.75472, 23.0777, 20.3435, 25.3196, -43.767, -20.232
1.444, -1, 9.80716, 23.0312, 20.361, 25.4031, -43.6693, -20.2945
1.448, -1, 9.85952, 22.9847, 20.3785, 25.4865, -43.5717, -20.3569
1.452, -1, 9.91181, 22.9383, 20.396, 25.5697, -43.4742, -20.4192
1.456, -1, 9.96403, 22.8919, 20.4134, 25.6528, -43.3769, -20.4814
1.46, -1, 10.0162, 22.8456, 20.4308, 25.7358, -43.2797, -20.5436
1.464, -1, 10.0682, 22.7994, 20.4482, 25.8187, -43.1826, -20.6056
1.468, -1, 10.1202, 22.7533, 20.4656, 25.9015, -43.0857, -20.6676
1.472, -1, 10.1721, 22.7072, 20.4829, 25.9841, -42.989, -20.7294
1.476, -1, 10.224, 22.6612, 20.5002, 26.0666, -42.8923, -20.7912
1.48, -1, 10.2757, 22.6152, 20.5175, 26.149, -42.7958, -20.8529
1.484, -1, 10.3274, 22.5693, 20.5348, 26.2313, -42.6995, -20.9145
1.488, -1, 10.379, 22.5235, 20.552, 26.3135, -42.6033, -20.976
1.492, -1, 10.4306, 22.4777, 20.5692, 26.3956, -42.5072, -21.0374
1.496, -1, 10.482, 22.432, 20.5864, 26.4775, -42.4113, -21.0987
1.5, -1, 10.5334, 22.3864, 20.6035, 26.5593, -42.3154, -21.16
1.504, -1, 10.5848, 22.3408, 20.6207, 26.641, -42.2198, -21.2212
1.508, -1, 10.636, 22.2953, 20.6378, 26.7226, -42.1242, -21.2822
1.512, -1, 10.6872, 22.2499, 20.6549, 26.8041, -42.0288, -21.3432
1.516, -1, 10.7383, 22.2045, 20.6719, 26.8855, -41.9336, -21.4041
1.52, -1, 10.7893, 22.1592, 20.689, 26.9667, -41.8384, -21.4649
1.524, -1, 10.8403, 22.114, 20.706, 27.0479, -41.7434, -21.5257
1.528, -1, 10.8912, 22.0688, 20.723, 27.1289, -41.6485, -21.5863
1.532, -1, 10.942, 22.0237, 20.74, 27.2098, -41.5538, -21.6469
1.536, -1, 10.9928, 21.9786, 20.7569, 27.2906, -41.4592, -21.7074
1.54, -1, 11.0435, 21.9336, 20.7738, 27.3713, -41.3647, -21.7678
1.544, -1, 11.0941, 21.8887, 20.7908, 27.4519, -41.2703, -21.8281
1.548, -1, 11.1446, 21.8438, 20.8076, 27.5324, -41.1761, -21.8884
1.552, -1, 11.1951, 21.799, 20.8245, 27.6127, -41.082, -21.9485
1.556, -1, 11.2455, 21.7542, 20.8413, 27.693, -40.988, -22.0086
1.56, -1, 11.2959, 21.7095, 20.8581, 27.7732, -40.8941, -22.0686
1.564, -1, 11.3462, 21.6649, 20.8749, 27.8532, -40.8004, -22.1285
1.568, -1, 11.3964, 21.6203, 20.8917, 27.9331, -40.7068, -22.1884
1.572, -1, 11.4465, 21.5758, 20.9084, 28.013, -40.6133, -22.2481
1.576, -1, 11.4966, 21.5313, 20.9251, 28.0927, -40.52, -22.3078
1.58, -1, 11.5466, 21.4869, 20.9418, 28.1723, -40.4268, -22.3674
1.584, -1, 11.5965, 21.4426, 20.9585, 28.2518, -40.3336, -22.4269
1.588, -1, 11.6464, 21.3983, 20.9752, 28.3313, -40.2407, -22.4864
1.592, -1, 11.6962, 21.3541, 20.9918, 28.4106, -40.1478, -22.5457
1.596, -1, 11.746, 21.3099, 21.0084, 28.4898, -40.0551, -22.605
1.6, -1, 11.7957, 21.2658, 21.025, 28.5689, -39.9624, -22.6642
1.604, -1, 11.8453, 21.2217, 21.0416, 28.6479, -39.8699, -22.7234
1.608, -1, 11.8948, 21.1778, 21.0581, 28.7268, -39.7776, -22.7824
1.612, -1, 11.9443, 21.1338, 21.0747, 28.8055, -39.6853, -22.8414
1.616, -1, 11.9938, 21.0899, 21.0912, 28.8842, -39.5932, -22.9003
1.62, -1, 12.0431, 21.0461, 21.1076, 28.9628, -39.5011, -22.9591
1.624, -1, 12.0924, 21.0023, 21.1241, 29.0413, -39.4092, -23.0179
1.628, -1, 12.1417, 20.9586, 21.1405, 29.1197, -39.3174, -23.0765
1.632, -1, 12.1908, 20.915, 21.157, 29.198, -39.2258, -23.1352
1.636, -1, 12.2399, 20.8714, 21.1734, 29.2762, -39.1342, -23.1937
1.64, -1, 12.289, 20.8278, 21.1897, 29.3543, -39.0428, -23.2521
1.644, -1, 12.338, 20.7843, 21.2061, 29.4323, -38.9515, -23.3105
1.648, -1, 12.3869, 20.7409, 21.2224, 29.5102, -38.8603, -23.3688
1.652, -1, 12.4358, 20.6975, 21.2388, 29.588, -38.7692, -23.4271
1.656, -1, 12.4846, 20.6542, 21.2551, 29.6657, -38.6782, -23.4852
1.66, -1, 12.5333, 20.6109, 21.2713, 29.7433, -38.5873, -23.5433
1.664, -1, 12.582, 20.5677, 21.2876, 29.8208, -38.4966, -23.6013
1.668, -1, 12.6306, 20.5245, 21.3038, 29.8982, -38.4059, -23.6593
1.672, -1, 12.6792, 20.4814, 21.32, 29.9755, -38.3154, -23.7171
1.676, -1, 12.7277, 20.4384, 21.3362, 30.0527, -38.225, -23.7749
1.68, -1, 12.7761, 20.3953, 21.3524, 30.1298, -38.1347, -23.8327
1.684, -1, 12.8245, 20.3524, 21.3686, 30.2069, -38.0445, -23.8903
1.688, -1, 12.8728, 20.3095, 21.3847, 30.2838, -37.9544, -23.9479
1.692, -1, 12.9211, 20.2666, 21.4008, 30.3606, -37.8644, -24.0054
1.696, -1, 12.9693, 20.2238, 21.4169, 30.4374, -37.7746, -24.0629
1.7, -1, 13.0174, 20.1811, 21.433, 30.514, -37.6848, -24.1203
1.704, -1, 13.0655, 20.1384, 21.449, 30.5906, -37.5951, -24.1776
1.708, -1, 13.1136, 20.0958, 21.4651, 30.6671, -37.5056, -24.2348
1.712, -1, 13.1615, 20.0532, 21.4811, 30.7435, -37.4162, -24.292
1.716, -1, 13.2094, 20.0106, 21.4971, 30.8197, -37.3269, -24.3491
1.72, -1, 13.2573, 19.9681, 21.5131, 30.8959, -37.2376, -24.4061
1.724, -1, 13.3051, 19.9257, 21.529, 30.972, -37.1485, -24.4631
1.728, -1, 13.3528, 19.8833, 21.545, 31.0481, -37.0595, -24.52
1.732, -1, 13.4005, 19.841, 21.5609, 31.124, -36.9706, -24.5768
1.736, -1, 13.4482, 19.7987, 21.5768, 31.1998, -36.8818, -24.6336
1.74, -1, 13.4957, 19.7565, 21.5927, 31.2756, -36.7931, -24.6903
1.744, -1, 13.5433, 19.7143, 21.6086, 31.3512, -36.7045, -24.7469
1.748, -1, 13.5907, 19.6721, 21.6244, 31.4268, -36.6161, -24.8035
1.752, -1, 13.6381, 19.63, 21.6402, 31.5023, -36.5277, -24.86
1.756, -1, 13.6855, 19.588, 21.6561, 31.5776, -36.4394, -24.9164
1.76, -1, 13.7328, 19.546, 21.6719, 31.6529, -36.3512, -24.9728
1.764, -1, 13.78, 19.5041, 21.6876, 31.7282, -36.2632, -25.0291
1.768, -1, 13.8272, 19.4622, 21.7034, 31.8033, -36.1752, -25.0853
1.772, -1, 13.8743, 19.4203, 21.7191, 31.8783, -36.0873, -25.1415
1.776, -1, 13.9214, 19.3785, 21.7348, 31.9533, -35.9996, -25.1976
1.78, -1, 13.9684, 19.3368, 21.7505, 32.0281, -35.9119, -25.2536
1.784, -1, 14.0154, 19.2951, 21.7662, 32.1029, -35.8243, -25.3096
1.788, -1, 14.0623, 19.2534, 21.7819, 32.1776, -35.7369, -25.3655
1.792, -1, 14.1092, 19.2118, 21.7975, 32.2522, -35.6495, -25.4214
1.796, -1, 14.156, 19.1703, 21.8132, 32.3268, -35.5622, -25.4772
1.8, -1, 14.2027, 19.1288, 21.8288, 32.4012, -35.4751, -25.5329
1.804, -1, 14.2494, 19.0873, 21.8444, 32.4756, -35.388, -25.5886
1.808, -1, 14.2961, 19.0459, 21.86, 32.5498, -35.301, -25.6442
1.812, -1, 14.3427, 19.0045, 21.8755, 32.624, -35.2142, -25.6997
1.816, -1, 14.3892, 18.9632, 21.8911, 32.6981, -35.1274, -25.7552
1.82, -1, 14.4357, 18.9219, 21.9066, 32.7722, -35.0407, -25.8106
1.824, -1, 14.4822, 18.8807, 21.9221, 32.8461, -34.9541, -25.8659
1.828, -1, 14.5286, 18.8395, 21.9376, 32.92, -34.8676, -25.9212
1.832, -1, 14.5749, 18.7983, 21.9531, 32.9938, -34.7813, -25.9764
1.836, -1, 14.6212, 18.7572, 21.9685, 33.0675, -34.695, -26.0316
1.84, -1, 14.6674, 18.7162, 21.984, 33.1411, -34.6088, -26.0867
1.844, -1, 14.7136, 18.6752, 21.9994, 33.2146, -34.5227, -26.1418
1.848, -1, 14.7598, 18.6342, 22.0148, 33.2881, -34.4367, -26.1967
1.852, -1, 14.8058, 18.5933, 22.0302, 33.3614, -34.3507, -26.2517
1.856, -1, 14.8519, 18.5524, 22.0456, 33.4347, -34.2649, -26.3065
1.86, -1, 14.8979, 18.5116, 22.0609, 33.5079, -34.1792, -26.3613
1.864, -1, 14.9438, 18.4708, 22.0762, 33.5811, -34.0936, -26.4161
1.868, -1, 14.9897, 18.4301, 22.0916, 33.6541, -34.008, -26.4708
1.872, -1, 15.0355, 18.3894, 22.1069, 33.7271, -33.9226, -26.5254
1.876, -1, 15.0813, 18.3487, 22.1222, 33.8, -33.8372, -26.58
1.88, -1, 15.127, 18.3081, 22.1374, 33.8728, -33.7519, -26.6345
1.884, -1, 15.1727, 18.2676, 22.1527, 33.9456, -33.6668, -26.6889
1.888, -1, 15.2184, 18.227, 22.1679, 34.0182, -33.5817, -26.7433
1.892, -1, 15.264, 18.1866, 22.1832, 34.0908, -33.4967, -26.7976
1.896, -1, 15.3095, 18.1461, 22.1984, 34.1633, -33.4118, -26.8519
1.9, -1, 15.355, 18.1057, 22.2136, 34.2358, -33.3269, -26.9062
1.904, -1, 15.4004, 18.0654, 22.2287, 34.3081, -33.2422, -26.9603
1.908, -1, 15.4458, 18.0251, 22.2439, 34.3804, -33.1576, -27.0144
1.912, -1, 15.4912, 17.9848, 22.259, 34.4526, -33.073, -27.0685
1.916, -1, 15.5365, 17.9446, 22.2742, 34.5248, -32.9886, -27.1225
1.92, -1, 15.5818, 17.9044, 22.2893, 34.5968, -32.9042, -27.1764
1.924, -1, 15.627, 17.8643, 22.3044, 34.6688, -32.8199, -27.2303
1.928, -1, 15.6721, 17.8242, 22.3195, 34.7407, -32.7357, -27.2841
1.932, -1, 15.7173, 17.7841, 22.3345, 34.8126, -32.6516, -27.3379
1.936, -1, 15.7623, 17.7441, 22.3496, 34.8843, -32.5676, -27.3916
1.94, -1, 15.8073, 17.7041, 22.3646, 34.956, -32.4836, -27.4453
1.944, -1, 15.8523, 17.6642, 22.3796, 35.0276, -32.3997, -27.4989
1.948, -1, 15.8973, 17.6243, 22.3946, 35.0992, -32.316, -27.5524
1.952, -1, 15.9422, 17.5844, 22.4096, 35.1707, -32.2323, -27.6059
1.956, -1, 15.987, 17.5446, 22.4246, 35.2421, -32.1487, -27.6594
1.96, -1, 16.0318, 17.5048, 22.4396, 35.3134, -32.0652, -27.7128
1.964, -1, 16.0765, 17.4651, 22.4545, 35.3846, -31.9817, -27.7661
1.968, -1, 16.1212, 17.4254, 22.4694, 35.4558, -31.8984, -27.8194
1.972, -1, 16.1659, 17.3858, 22.4844, 35.5269, -31.8151, -27.8726
1.976, -1, 16.2105, 17.3461, 22.4993, 35.598, -31.7319, -27.9258
1.98, -1, 16.2551, 17.3066, 22.5141, 35.6689, -31.6488, -27.9789
1.984, -1, 16.2996, 17.267, 22.529, 35.7398, -31.5658, -28.032
1.988, -1, 16.3441, 17.2275, 22.5439, 35.8107, -31.4829, -28.085
1.992, -1, 16.3886, 17.1881, 22.5587, 35.8814, -31.4, -28.138
1.996, -1, 16.433, 17.1487, 22.5735, 35.9521, -31.3173, -28.1909
1.999, -1, 16.4773, 17.1093, 22.5883, 36.0228, -31.2346, -28.2438
2.004, -1, 16.5216, 17.0699, 22.6031, 36.0933, -31.1519, -28.2966
2.008, -1, 16.5659, 17.0306, 22.6179, 36.1638, -31.0694, -28.3493
2.012, -1, 16.6101, 16.9914, 22.6327, 36.2342, -30.987, -28.4021
2.015, -1, 16.6543, 16.9521, 22.6474, 36.3046, -30.9046, -28.4547
2.019, -1, 16.6984, 16.9129, 22.6622, 36.3748, -30.8223, -28.5073
2.024, -1, 16.7425, 16.8738, 22.6769, 36.445, -30.7401, -28.5599
2.028, -1, 16.7866, 16.8347, 22.6916, 36.5152, -30.658, -28.6124
2.031, -1, 16.8306, 16.7956, 22.7063, 36.5853, -30.5759, -28.6648
2.036, -1, 16.8746, 16.7566, 22.721, 36.6553, -30.4939, -28.7172
2.04, -1, 16.9185, 16.7176, 22.7357, 36.7252, -30.412, -28.7696
2.044, -1, 16.9624, 16.6786, 22.7503, 36.7951, -30.3302, -28.8219
2.048, -1, 17.0062, 16.6397, 22.765, 36.8649, -30.2485, -28.8742
2.051, -1, 17.05, 16.6008, 22.7796, 36.9346, -30.1668, -28.9264
2.055, -1, 17.0938, 16.5619, 22.7942, 37.0043, -30.0852, -28.9785
2.06, -1, 17.1375, 16.5231, 22.8088, 37.0739, -30.0037, -29.0306
2.064, -1, 17.1811, 16.4844, 22.8234, 37.1435, -29.9223, -29.0827
2.068, -1, 17.2244, 16.4458, 22.8379, 37.2129, -29.841, -29.1347
2.071, -1, 17.2671, 16.4077, 22.8523, 37.2823, -29.7597, -29.1866
2.076, -1, 17.3088, 16.3701, 22.8666, 37.3515, -29.6787, -29.2384
2.08, -1, 17.3495, 16.3335, 22.8807, 37.4204, -29.5981, -29.29
2.084, -1, 17.3888, 16.2979, 22.8945, 37.4888, -29.518, -29.3412
2.087, -1, 17.4267, 16.2635, 22.9079, 37.5564, -29.4389, -29.3918
2.092, -1, 17.4632, 16.2306, 22.921, 37.6229, -29.3611, -29.4417
2.096, -1, 17.4983, 16.1992, 22.9337, 37.6879, -29.2851, -29.4903
2.1, -1, 17.5321, 16.1694, 22.9459, 37.7508, -29.2115, -29.5374
2.104, -1, 17.5644, 16.1411, 22.9576, 37.8112, -29.1408, -29.5827
2.107, -1, 17.5951, 16.1145, 22.9686, 37.8686, -29.0737, -29.6257
2.111, -1, 17.624, 16.0896, 22.9791, 37.9226, -29.0106, -29.6661
2.116, -1, 17.6513, 16.0662, 22.9888, 37.9726, -28.9521, -29.7035
2.12, -1, 17.6768, 16.044, 22.9978, 38.0183, -28.8986, -29.7378
2.124, -1, 17.7009, 16.023, 23.0061, 38.0595, -28.8504, -29.7686
2.127, -1, 17.7234, 16.0029, 23.0136, 38.0959, -28.8078, -29.7958
2.132, -1, 17.7446, 15.9838, 23.0205, 38.1275, -28.7707, -29.8195
2.136, -1, 17.7642, 15.9657, 23.0267, 38.1546, -28.739, -29.8397
2.14, -1, 17.7823, 15.9489, 23.0321, 38.1772, -28.7125, -29.8566
2.143, -1, 17.7986, 15.9337, 23.0368, 38.1957, -28.6907, -29.8705
2.148, -1, 17.8131, 15.9202, 23.0409, 38.2106, -28.6732, -29.8816
2.152, -1, 17.8259, 15.9085, 23.0443, 38.2223, -28.6594, -29.8904
2.156, -1, 17.8371, 15.8987, 23.0471, 38.2313, -28.6488, -29.8971
2.16, -1, 17.8467, 15.8905, 23.0494, 38.2381, -28.6409, -29.9021
2.163, -1, 17.855, 15.8838, 23.0513, 38.243, -28.635, -29.9058
2.168, -1, 17.8619, 15.8785, 23.0527, 38.2465, -28.6308, -29.9084
2.172, -1, 17.8674, 15.8744, 23.0538, 38.249, -28.6279, -29.9103
2.176, 2, 17.8716, 15.8714, 23.0546, 38.2507, -28.6258, -29.9115
2.179, 2, 17.8747, 15.8692, 23.0552, 38.2519, -28.6245, -29.9124
2.184, 2, 17.8769, 15.8677, 23.0556, 38.2527, -28.6235, -29.913
2.188, 2, 17.8784, 15.8667, 23.0558, 38.2532, -28.6229, -29.9134
2.192, 2, 17.8794, 15.866, 23.056, 38.2536, -28.6224, -29.9137
2.196, 2, 17.8801, 15.8655, 23.0561, 38.2538, -28.6221, -29.9138
2.199, 2, 17.8806, 15.8652, 23.0562, 38.254, -28.6219, -29.914
2.204, 2, 17.8809, 15.865, 23.0563, 38.2541, -28.6218, -29.9141
2.208, 2, 17.8811, 15.8649, 23.0563, 38.2542, -28.6217, -29.9141
2.212, 2, 17.8813, 15.8648, 23.0563, 38.2543, -28.6217, -29.9141
2.216, 2, 17.8814, 15.8647, 23.0564, 38.2543, -28.6216, -29.9142
2.219, 2, 17.8814, 15.8646, 23.0564, 38.2543, -28.6216, -29.9142
2.224, 2, 17.8815, 15.8646, 23.0564, 38.2543, -28.6216, -29.9142
2.228, 2, 17.8815, 15.8646, 23.0564, 38.2543, -28.6215, -29.9142
2.232, 2, 17.8815, 15.8646, 23.0564, 38.2543, -28.6215, -29.9142
2.235, 2, 17.8815, 15.8646, 23.0564, 38.2544, -28.6215, -29.9142
2.24, 2, 17.8815, 15.8646, 23.0564, 38.2544, -28.6215, -29.9142
2.244, 2, 17.8816, 15.8646, 23.0564, 38.2544, -28.6215, -29.9142
2.248, 2, 17.8816, 15.8646, 23.0564, 38.2544, -28.6215, -29.9142
2.252, 2, 17.8816, 15.8646, 23.0564, 38.2544, -28.6215, -29.9142
2.255, 2, 17.8816, 15.8646, 23.0564, 38.2544, -28.6215, -29.9142
2.259, 2, 17.8816, 15.8646, 23.0564, 38.2544, -28.6215, -29.9142
2.264, 2, 17.8816, 15.8645, 23.0564, 38.2544, -28.6215, -29.9142
2.268, 2, 17.8816, 15.8645, 23.0564, 38.2544, -28.6215, -29.9142
2.272, 2, 17.8816, 15.8645, 23.0564, 38.2544, -28.6215, -29.9142
2.275, 2, 17.8816, 15.8645, 23.0564, 38.2544, -28.6215, -29.9142
2.28, 2, 17.8816, 15.8645, 23.0564, 38.2544, -28.6215, -29.9142
2.284, 2, 17.8816, 15.8645, 23.0564, 38.2544, -28.6215, -29.9142
2.288, 2, 17.8816, 15.8645, 23.0564, 38.2544, -28.6215, -29.9142
2.291, 2, 17.8816, 15.8645, 23.0564, 38.2544, -28.6215, -29.9142
2.296, 2, 17.8816, 15.8645, 23.0564, 38.2544, -28.6215, -29.9142
2.3, 2, 17.8816, 15.8645, 23.0564, 38.2544, -28.6215, -29.9142
2.304, 2, 17.8816, 15.8645, 23.0564, 38.2544, -28.6215, -29.9142
2.308, 2, 17.8816, 15.8645, 23.0564, 38.2544, -28.6215, -29.9142
2.311, 2, 17.8816, 15.8645, 23.0564, 38.2544, -28.6215, -29.9142
2.316, 2, 17.8816, 15.8645, 23.0564, 38.2544, -28.6215, -29.9142
2.32, 2, 17.8816, 15.8645, 23.0564, 38.2544, -28.6215, -29.9142
2.324, 2, 17.8816, 15.8645, 23.0564, 38.2544, -28.6215, -29.9142
2.328, 2, 17.8816, 15.8645, 23.0564, 38.2544, -28.6215, -29.9142
2.331, 2, 17.8816, 15.8645, 23.0564, 38.2544, -28.6215, -29.9142
2.336, 2, 17.8816, 15.8645, 23.0564, 38.2544, -28.6215, -29.9142
2.34, 2, 17.8816, 15.8645, 23.0564, 38.2544, -28.6215, -29.9142
2.344, 2, 17.8816, 15.8645, 23.0564, 38.2544, -28.6215, -29.9142
2.347, 2, 17.8816, 15.8645, 23.0564, 38.2544, -28.6215, -29.9142
2.352, 2, 17.8816, 15.8645, 23.0564, 38.2544, -28.6215, -29.9142
2.356, 2, 17.8816, 15.8645, 23.0564, 38.2544, -28.6215, -29.9142
2.36, 2, 17.8816, 15.8645, 23.0564, 38.2544, -28.6215, -29.9142
2.364, 2, 17.8816, 15.8645, 23.0564, 38.2544, -28.6215, -29.9142
2.367, 2, 17.8816, 15.8645, 23.0564, 38.2544, -28.6215, -29.9142
2.372, 2, 17.8816, 15.8645, 23.0564, 38.2544, -28.6215, -29.9142
2.376, 2, 17.8816, 15.8645, 23.0564, 38.2544, -28.6215, -29.9142
2.38, 2, 17.8816, 15.8645, 23.0564, 38.2544, -28.6215, -29.9142
2.383, 2, 17.8816, 15.8645, 23.0564, 38.2544, -28.6215, -29.9142
2.388, 2, 17.8816, 15.8645, 23.0564, 38.2544, -28.6215, -29.9142
2.392, 2, 17.8816, 15.8645, 23.0564, 38.2544, -28.6215, -29.9142
2.396, 2, 17.8816, 15.8645, 23.0564, 38.2544, -28.6215, -29.9142
2.4, 2, 17.8816, 15.8645, 23.0564, 38.2544, -28.6215, -29.9142
2.403, 2, 17.8816, 15.8645, 23.0564, 38.2544, -28.6215, -29.9142
2.408, 2, 17.8816, 15.8645, 23.0564, 38.2544, -28.6215, -29.9142
2.412, 2, 17.8816, 15.8645, 23.0564, 38.2544, -28.6215, -29.9142
2.416, 2, 17.8816, 15.8645, 23.0564, 38.2544, -28.6215, -29.9142
2.42, 2, 17.8816, 15.8645, 23.0564, 38.2544, -28.6215, -29.9142
2.423, 2, 17.8816, 15.8645, 23.0564, 38.2544, -28.6215, -29.9142
2.428, 2, 17.8816, 15.8645, 23.0564, 38.2544, -28.6215, -29.9142
2.432, 2, 17.8816, 15.8645, 23.0564, 38.2544, -28.6215, -29.9142
2.436, 2, 17.8816, 15.8645, 23.0564, 38.2544, -28.6215, -29.9142
2.439, 2, 17.8816, 15.8645, 23.0564, 38.2544, -28.6215, -29.9142
2.444, 2, 17.8816, 15.8645, 23.0564, 38.2544, -28.6215, -29.9142
2.448, 2, 17.8816, 15.8645, 23.0564, 38.2544, -28.6215, -29.9142
2.452, 2, 17.8816, 15.8645, 23.0564, 38.2544, -28.6215, -29.9142
2.456, 2, 17.8816, 15.8645, 23.0564, 38.2544, -28.6215, -29.9142
2.459, 2, 17.8816, 15.8645, 23.0564, 38.2544, -28.6215, -29.9142
2.464, 2, 17.8816, 15.8645, 23.0564, 38.2544, -28.6215, -29.9142
2.468, 2, 17.8816, 15.8645, 23.0564, 38.2544, -28.6215, -29.9142
2.472, 2, 17.8816, 15.8645, 23.0564, 38.2544, -28.6215, -29.9142
2.476, 2, 17.8816, 15.8645, 23.0564, 38.2544, -28.6215, -29.9142
2.479, 2, 17.8816, 15.8645, 23.0564, 38.2544, -28.6215, -29.9142
2.484, 2, 17.8816, 15.8645, 23.0564, 38.2544, -28.6215, -29.9142
2.488, 2, 17.8816, 15.8645, 23.0564, 38.2544, -28.6215, -29.9142
2.492, 2, 17.8816, 15.8645, 23.0564, 38.2544, -28.6215, -29.9142
2.495, 2, 17.8816, 15.8645, 23.0564, 38.2544, -28.6215, -29.9142
2.5, 2, 17.8816, 15.8645, 23.0564, 38.2544, -28.6215, -29.9142
2.504, 2, 17.8816, 15.8645, 23.0564, 38.2544, -28.6215, -29.9142
2.508, 2, 17.8816, 15.8645, 23.0564, 38.2544, -28.6215, -29.9142
2.512, 2, 17.8816, 15.8645, 23.0564, 38.2544, -28.6215, -29.9142
2.515, 2, 17.8816, 15.8645, 23.0564, 38.2544, -28.6215, -29.9142
2.52, 2, 17.8816, 15.8645, 23.0564, 38.2544, -28.6215, -29.9142
2.524, 2, 17.8816, 15.8645, 23.0564, 38.2544, -28.6215, -29.9142
2.528, 2, 17.8816, 15.8645, 23.0564, 38.2544, -28.6215, -29.9142
2.531, 2, 17.8816, 15.8645, 23.0564, 38.2544, -28.6215, -29.9142
2.536, 2, 17.8816, 15.8645, 23.0564, 38.2544, -28.6215, -29.9142
2.54, 2, 17.8816, 15.8645, 23.0564, 38.2544, -28.6215, -29.9142
2.544, 2, 17.8816, 15.8645, 23.0564, 38.2544, -28.6215, -29.9142
2.548, 2, 17.8816, 15.8645, 23.0564, 38.2544, -28.6215, -29.9142
2.551, 2, 17.8816, 15.8645, 23.0564, 38.2544, -28.6215, -29.9142
2.556, 2, 17.8816, 15.8645, 23.0564, 38.2544, -28.6215, -29.9142
2.56, 2, 17.8816, 15.8645, 23.0564, 38.2544, -28.6215, -29.9142
2.564, 2, 17.8816, 15.8645, 23.0564, 38.2544, -28.6215, -29.9142
2.568, 2, 17.8816, 15.8645, 23.0564, 38.2544, -28.6215, -29.9142
2.571, 2, 17.8816, 15.8645, 23.0564, 38.2544, -28.6215, -29.9142
2.576, 2, 17.8816, 15.8645, 23.0564, 38.2544, -28.6215, -29.9142
2.58, 2, 17.8816, 15.8645, 23.0564, 38.2544, -28.6215, -29.9142
2.584, 2, 17.8816, 15.8645, 23.0564, 38.2544, -28.6215, -29.9142
2.587, 2, 17.8816, 15.8645, 23.0564, 38.2544, -28.6215, -29.9142
2.592, 2, 17.8816, 15.8645, 23.0564, 38.2544, -28.6215, -29.9142
2.596, 2, 17.8816, 15.8645, 23.0564, 38.2544, -28.6215, -29.9142
2.6, 2, 17.8816, 15.8645, 23.0564, 38.2544, -28.6215, -29.9142
2.604, 2, 17.8816, 15.8645, 23.0564, 38.2544, -28.6215, -29.9142
2.607, 2, 17.8816, 15.8645, 23.0564, 38.2544, -28.6215, -29.9142
2.612, 2, 17.8816, 15.8645, 23.0564, 38.2544, -28.6215, -29.9142
2.616, 2, 17.8816, 15.8645, 23.0564, 38.2544, -28.6215, -29.9142
2.62, 2, 17.8816, 15.8645, 23.0564, 38.2544, -28.6215, -29.9142
2.624, 2, 17.8816, 15.8645, 23.0564, 38.2544, -28.6215, -29.9142
2.627, 2, 17.8816, 15.8645, 23.0564, 38.2544, -28.6215, -29.9142
2.632, 2, 17.8816, 15.8645, 23.0564, 38.2544, -28.6215, -29.9142
2.636, 2, 17.8816, 15.8645, 23.0564, 38.2544, -28.6215, -29.9142
2.64, 2, 17.8816, 15.8645, 23.0564, 38.2544, -28.6215, -29.9142
2.643, 2, 17.8816, 15.8645, 23.0564, 38.2544, -28.6215, -29.9142
2.648, 2, 17.8816, 15.8645, 23.0564, 38.2544, -28.6215, -29.9142
2.652, 2, 17.8816, 15.8645, 23.0564, 38.2544, -28.6215, -29.9142
2.656, 2, 17.8816, 15.8645, 23.0564, 38.2544, -28.6215, -29.9142
2.66, 2, 17.8816, 15.8645, 23.0564, 38.2544, -28.6215, -29.9142
2.663, 2, 17.8816, 15.8645, 23.0564, 38.2544, -28.6215, -29.9142
2.668, 2, 17.8816, 15.8645, 23.0564, 38.2544, -28.6215, -29.9142
2.672, 2, 17.8816, 15.8645, 23.0564, 38.2544, -28.6215, -29.9142
2.676, 2, 17.8816, 15.8645, 23.0564, 38.2544, -28.6215, -29.9142
2.679, 2, 17.8816, 15.8645, 23.0564, 38.2544, -28.6215, -29.9142
2.684, 2, 17.8816, 15.8645, 23.0564, 38.2544, -28.6215, -29.9142
2.688, 2, 17.8816, 15.8645, 23.0564, 38.2544, -28.6215, -29.9142
2.692, 2, 17.8816, 15.8645, 23.0564, 38.2544, -28.6215, -29.9142
2.696, 2, 17.8816, 15.8645, 23.0564, 38.2544, -28.6215, -29.9142
2.699, 2, 17.8816, 15.8645, 23.0564, 38.2544, -28.6215, -29.9142
2.704, 2, 17.8816, 15.8645, 23.0564, 38.2544, -28.6215, -29.9142
2.708, 2, 17.8816, 15.8645, 23.0564, 38.2544, -28.6215, -29.9142
2.712, 2, 17.8816, 15.8645, 23.0564, 38.2544, -28.6215, -29.9142
2.716, 2, 17.8816, 15.8645, 23.0564, 38.2544, -28.6215, -29.9142
2.719, 2, 17.8816, 15.8645, 23.0564, 38.2544, -28.6215, -29.9142
2.724, 2, 17.8816, 15.8645, 23.0564, 38.2544, -28.6215, -29.9142
2.728, 2, 17.8816, 15.8645, 23.0564, 38.2544, -28.6215, -29.9142
2.732, 2, 17.8816, 15.8645, 23.0564, 38.2544, -28.6215, -29.9142
2.735, 2, 17.8816, 15.8645, 23.0564, 38.2544, -28.6215, -29.9142
2.74, 2, 17.8816, 15.8645, 23.0564, 38.2544, -28.6215, -29.9142
2.744, 2, 17.8816, 15.8645, 23.0564, 38.2544, -28.6215, -29.9142
2.748, 2, 17.8816, 15.8645, 23.0564, 38.2544, -28.6215, -29.9142
2.752, 2, 17.8816, 15.8645, 23.0564, 38.2544, -28.6215, -29.9142
2.755, 2, 17.8816, 15.8645, 23.0564, 38.2544, -28.6215, -29.9142
2.76, 2, 17.8816, 15.8645, 23.0564, 38.2544, -28.6215, -29.9142
2.764, 2, 17.8816, 15.8645, 23.0564, 38.2544, -28.6215, -29.9142
2.768, 2, 17.8816, 15.8645, 23.0564, 38.2544, -28.6215, -29.9142
2.772, 2, 17.8816, 15.8645, 23.0564, 38.2544, -28.6215, -29.9142
2.775, 2, 17.8816, 15.8645, 23.0564, 38.2544, -28.6215, -29.9142
2.78, 2, 17.8816, 15.8645, 23.0564, 38.2544, -28.6215, -29.9142
2.784, 2, 17.8816, 15.8645, 23.0564, 38.2544, -28.6215, -29.9142
2.788, 2, 17.8816, 15.8645, 23.0564, 38.2544, -28.6215, -29.9142
2.791, 2, 17.8816, 15.8645, 23.0564, 38.2544, -28.6215, -29.9142
2.796, 2, 17.8816, 15.8645, 23.0564, 38.2544, -28.6215, -29.9142
2.8, 2, 17.8816, 15.8645, 23.0564, 38.2544, -28.6215, -29.9142
2.804, 2, 17.8816, 15.8645, 23.0564, 38.2544, -28.6215, -29.9142
2.808, 2, 17.8816, 15.8645, 23.0564, 38.2544, -28.6215, -29.9142
2.811, 2, 17.8816, 15.8645, 23.0564, 38.2544, -28.6215, -29.9142
2.816, 2, 17.8816, 15.8645, 23.0564, 38.2544, -28.6215, -29.9142
2.82, 2, 17.8816, 15.8645, 23.0564, 38.2544, -28.6215, -29.9142
2.824, 2, 17.8816, 15.8645, 23.0564, 38.2544, -28.6215, -29.9142
2.828, 2, 17.8816, 15.8645, 23.0564, 38.2544, -28.6215, -29.9142
2.831, 2, 17.8816, 15.8645, 23.0564, 38.2544, -28.6215, -29.9142
2.836, 2, 17.8816, 15.8645, 23.0564, 38.2544, -28.6215, -29.9142
2.84, 2, 17.8816, 15.8645, 23.0564, 38.2544, -28.6215, -29.9142
2.844, 2, 17.8816, 15.8645, 23.0564, 38.2544, -28.6215, -29.9142
2.847, 2, 17.8816, 15.8645, 23.0564, 38.2544, -28.6215, -29.9142
2.852, 2, 17.8816, 15.8645, 23.0564, 38.2544, -28.6215, -29.9142
2.856, 2, 17.8816, 15.8645, 23.0564, 38.2544, -28.6215, -29.9142
2.86, 2, 17.8816, 15.8645, 23.0564, 38.2544, -28.6215, -29.9142
2.864, 2, 17.8816, 15.8645, 23.0564, 38.2544, -28.6215, -29.9142
2.867, 2, 17.8816, 15.8645, 23.0564, 38.2544, -28.6215, -29.9142
2.872, 2, 17.8816, 15.8645, 23.0564, 38.2544, -28.6215, -29.9142
2.876, 2, 17.8816, 15.8645, 23.0564, 38.2544, -28.6215, -29.9142
2.88, 2, 17.8816, 15.8645, 23.0564, 38.2544, -28.6215, -29.9142
2.883, 2, 17.8816, 15.8645, 23.0564, 38.2544, -28.6215, -29.9142
2.888, 2, 17.8816, 15.8645, 23.0564, 38.2544, -28.6215, -29.9142
2.892, 2, 17.8816, 15.8645, 23.0564, 38.2544, -28.6215, -29.9142
2.896, 2, 17.8816, 15.8645, 23.0564, 38.2544, -28.6215, -29.9142
2.9, 2, 17.8816, 15.8645, 23.0564, 38.2544, -28.6215, -29.9142
2.903, 2, 17.8816, 15.8645, 23.0564, 38.2544, -28.6215, -29.9142
2.908, 2, 17.8816, 15.8645, 23.0564, 38.2544, -28.6215, -29.9142
2.912, 2, 17.8816, 15.8645, 23.0564, 38.2544, -28.6215, -29.9142
2.916, 2, 17.8816, 15.8645, 23.0564, 38.2544, -28.6215, -29.9142
2.92, 2, 17.8816, 15.8645, 23.0564, 38.2544, -28.6215, -29.9142
2.923, 2, 17.8816, 15.8645, 23.0564, 38.2544, -28.6215, -29.9142
2.928, 2, 17.8816, 15.8645, 23.0564, 38.2544, -28.6215, -29.9142
2.932, 2, 17.8816, 15.8645, 23.0564, 38.2544, -28.6215, -29.9142
2.936, 2, 17.8816, 15.8645, 23.0564, 38.2544, -28.6215, -29.9142
2.939, 2, 17.8816, 15.8645, 23.0564, 38.2544, -28.6215, -29.9142
2.944, 2, 17.8816, 15.8645, 23.0564, 38.2544, -28.6215, -29.9142
2.948, 2, 17.8816, 15.8645, 23.0564, 38.2544, -28.6215, -29.9142
2.952, 2, 17.8816, 15.8645, 23.0564, 38.2544, -28.6215, -29.9142
2.956, 2, 17.8816, 15.8645, 23.0564, 38.2544, -28.6215, -29.9142
2.959, 2, 17.8816, 15.8645, 23.0564, 38.2544, -28.6215, -29.9142
2.964, 2, 17.8816, 15.8645, 23.0564, 38.2544, -28.6215, -29.9142
2.968, 2, 17.8816, 15.8645, 23.0564, 38.2544, -28.6215, -29.9142
2.972, 2, 17.8816, 15.8645, 23.0564, 38.2544, -28.6215, -29.9142
2.976, 2, 17.8816, 15.8645, 23.0564, 38.2544, -28.6215, -29.9142
2.98, 2, 17.8816, 15.8645, 23.0564, 38.2544, -28.6215, -29.9142
2.984, 2, 17.8816, 15.8645, 23.0564, 38.2544, -28.6215, -29.9142
2.988, 2, 17.8816, 15.8645, 23.0564, 38.2544, -28.6215, -29.9142
2.992, 2, 17.8816, 15.8645, 23.0564, 38.2544, -28.6215, -29.9142
2.995, 2, 17.8816, 15.8645, 23.0564, 38.2544, -28.6215, -29.9142
3, 2, 17.8816, 15.8645, 23.0564, 38.2544, -28.6215, -29.9142
3.004, 2, 17.8816, 15.8645, 23.0564, 38.2544, -28.6215, -29.9142
3.008, 2, 17.8816, 15.8645, 23.0564, 38.2544, -28.6215, -29.9142
3.012, 2, 17.8816, 15.8645, 23.0564, 38.2544, -28.6215, -29.9142
3.015, 2, 17.8816, 15.8645, 23.0564, 38.2544, -28.6215, -29.9142
3.02, 2, 17.8816, 15.8645, 23.0564, 38.2544, -28.6215, -29.9142
3.024, 2, 17.8816, 15.8645, 23.0564, 38.2544, -28.6215, -29.9142
3.028, 2, 17.8816, 15.8645, 23.0564, 38.2544, -28.6215, -29.9142
3.031, 2, 17.8816, 15.8645, 23.0564, 38.2544, -28.6215, -29.9142
3.036, 2, 17.8816, 15.8645, 23.0564, 38.2544, -28.6215, -29.9142
3.04, 2, 17.8816, 15.8645, 23.0564, 38.2544, -28.6215, -29.9142
3.044, 2, 17.8816, 15.8645, 23.0564, 38.2544, -28.6215, -29.9142
3.048, 2, 17.8816, 15.8645, 23.0564, 38.2544, -28.6215, -29.9142
3.051, 2, 17.8816, 15.8645, 23.0564, 38.2544, -28.6215, -29.9142
3.056, 2, 17.8816, 15.8645, 23.0564, 38.2544, -28.6215, -29.9142
3.06, 2, 17.8816, 15.8645, 23.0564, 38.2544, -28.6215, -29.9142
3.064, 2, 17.8816, 15.8645, 23.0564, 38.2544, -28.6215, -29.9142
3.068, 2, 17.8816, 15.8645, 23.0564, 38.2544, -28.6215, -29.9142
3.071, 2, 17.8816, 15.8645, 23.0564, 38.2544, -28.6215, -29.9142
3.076, 2, 17.8816, 15.8645, 23.0564, 38.2544, -28.6215, -29.9142
3.08, 2, 17.8816, 15.8645, 23.0564, 38.2544, -28.6215, -29.9142
3.084, 2, 17.8816, 15.8645, 23.0564, 38.2544, -28.6215, -29.9142
3.087, 2, 17.8816, 15.8645, 23.0564, 38.2544, -28.6215, -29.9142
3.092, 2, 17.8816, 15.8645, 23.0564, 38.2544, -28.6215, -29.9142
3.096, 2, 17.8816, 15.8645, 23.0564, 38.2544, -28.6215, -29.9142
3.1, 2, 17.8816, 15.8645, 23.0564, 38.2544, -28.6215, -29.9142
3.104, 2, 17.8816, 15.8645, 23.0564, 38.2544, -28.6215, -29.9142
3.107, 2, 17.8816, 15.8645, 23.0564, 38.2544, -28.6215, -29.9142
3.112, 2, 17.8816, 15.8645, 23.0564, 38.2544, -28.6215, -29.9142
3.116, 2, 17.8816, 15.8645, 23.0564, 38.2544, -28.6215, -29.9142
3.12, 2, 17.8816, 15.8645, 23.0564, 38.2544, -28.6215, -29.9142
3.124, 2, 17.8816, 15.8645, 23.0564, 38.2544, -28.6215, -29.9142
3.128, 2, 17.8816, 15.8645, 23.0564, 38.2544, -28.6215, -29.9142
3.132, 2, 17.8816, 15.8645, 23.0564, 38.2544, -28.6215, -29.9142
3.136, 2, 17.8816, 15.8645, 23.0564, 38.2544, -28.6215, -29.9142
3.14, 2, 17.8816, 15.8645, 23.0564, 38.2544, -28.6215, -29.9142
3.143, 2, 17.8816, 15.8645, 23.0564, 38.2544, -28.6215, -29.9142
3.148, 2, 17.8816, 15.8645, 23.0564, 38.2544, -28.6215, -29.9142
3.152, 2, 17.8816, 15.8645, 23.0564, 38.2544, -28.6215, -29.9142
3.156, 2, 17.8816, 15.8645, 23.0564, 38.2544, -28.6215, -29.9142
3.16, 2, 17.8816, 15.8645, 23.0564, 38.2544, -28.6215, -29.9142
3.163, 2, 17.8816, 15.8645, 23.0564, 38.2544, -28.6215, -29.9142
3.168, 2, 17.8816, 15.8645, 23.0564, 38.2544, -28.6215, -29.9142
3.172, 2, 17.8816, 15.8645, 23.0564, 38.2544, -28.6215, -29.9142
3.176, 2, 17.8816, 15.8645, 23.0564, 38.2544, -28.6215, -29.9142
3.179, 2, 17.8816, 15.8645, 23.0564, 38.2544, -28.6215, -29.9142
3.184, 2, 17.8816, 15.8645, 23.0564, 38.2544, -28.6215, -29.9142
3.188, 2, 17.8816, 15.8645, 23.0564, 38.2544, -28.6215, -29.9142
3.192, 2, 17.8816, 15.8645, 23.0564, 38.2544, -28.6215, -29.9142
3.196, 2, 17.8816, 15.8645, 23.0564, 38.2544, -28.6215, -29.9142
3.199, 2, 17.8816, 15.8645, 23.0564, 38.2544, -28.6215, -29.9142
3.204, 2, 17.8816, 15.8645, 23.0564, 38.2544, -28.6215, -29.9142
3.208, 2, 17.8816, 15.8645, 23.0564, 38.2544, -28.6215, -29.9142
3.212, 2, 17.8816, 15.8645, 23.0564, 38.2544, -28.6215, -29.9142
3.216, 2, 17.8816, 15.8645, 23.0564, 38.2544, -28.6215, -29.9142
3.22, 2, 17.8816, 15.8645, 23.0564, 38.2544, -28.6215, -29.9142
3.224, 2, 17.8816, 15.8645, 23.0564, 38.2544, -28.6215, -29.9142
3.228, 2, 17.8816, 15.8645, 23.0564, 38.2544, -28.6215, -29.9142
3.232, 2, 17.8816, 15.8645, 23.0564, 38.2544, -28.6215, -29.9142
3.235, 2, 17.8816, 15.8645, 23.0564, 38.2544, -28.6215, -29.9142
3.24, 2, 17.8816, 15.8645, 23.0564, 38.2544, -28.6215, -29.9142
3.244, 2, 17.8816, 15.8645, 23.0564, 38.2544, -28.6215, -29.9142
3.248, 4, 17.8816, 15.8645, 23.0564, 38.2544, -28.6215, -29.9142
3.252, 4, 17.8816, 15.8645, 23.0564, 38.2544, -28.6215, -29.9142
3.255, 4, 17.8816, 15.8645, 23.0564, 38.2544, -28.6215, -29.9142
3.26, 4, 17.8816, 15.8645, 23.0564, 38.2544, -28.6215, -29.9142
3.264, 4, 17.8816, 15.8645, 23.0564, 38.2544, -28.6215, -29.9142
3.268, 4, 17.8816, 15.8645, 23.0564, 38.2544, -28.6215, -29.9142
3.272, 4, 17.8816, 15.8645, 23.0564, 38.2544, -28.6215, -29.9142
3.276, 4, 17.8816, 15.8645, 23.0564, 38.2544, -28.6215, -29.9142
3.28, 4, 17.8816, 15.8645, 23.0564, 38.2544, -28.6215, -29.9142
3.284, 4, 17.8816, 15.8645, 23.0564, 38.2544, -28.6215, -29.9142
3.288, 4, 17.8816, 15.8645, 23.0564, 38.2544, -28.6215, -29.9142
3.291, 4, 17.8816, 15.8645, 23.0564, 38.2544, -28.6215, -29.9142
3.296, 4, 17.8816, 15.8645, 23.0564, 38.2544, -28.6215, -29.9142
3.3, 4, 17.8816, 15.8645, 23.0564, 38.2544, -28.6215, -29.9142
3.304, 4, 17.8816, 15.8645, 23.0564, 38.2544, -28.6215, -29.9142
3.308, 4, 17.8816, 15.8645, 23.0564, 38.2544, -28.6215, -29.9142
3.312, 4, 17.8816, 15.8645, 23.0564, 38.2544, -28.6215, -29.9142
3.316, 4, 17.8816, 15.8645, 23.0564, 38.2544, -28.6215, -29.9142
3.32, 4, 17.8816, 15.8645, 23.0564, 38.2544, -28.6215, -29.9142
3.324, 4, 17.8816, 15.8645, 23.0564, 38.2544, -28.6215, -29.9142
3.328, 4, 17.8816, 15.8645, 23.0564, 38.2544, -28.6215, -29.9142
3.332, 4, 17.8816, 15.8645, 23.0564, 38.2544, -28.6215, -29.9142
3.336, 4, 17.8816, 15.8645, 23.0564, 38.2544, -28.6215, -29.9142
3.34, 4, 17.8816, 15.8645, 23.0564, 38.2544, -28.6215, -29.9142
3.344, 4, 17.8816, 15.8645, 23.0564, 38.2544, -28.6215, -29.9142
3.347, 4, 17.8816, 15.8645, 23.0564, 38.2544, -28.6215, -29.9142
3.354, 4, 17.8816, 15.8645, 23.0564, 38.2544, -28.6215, -29.9142
3.356, 4, 17.8816, 15.8645, 23.0564, 38.2544, -28.6215, -29.9142
3.36, 4, 17.8816, 15.8645, 23.0564, 38.2544, -28.6215, -29.9142
3.364, 4, 17.8816, 15.8645, 23.0564, 38.2544, -28.6215, -29.9142
3.368, 4, 17.8816, 15.8645, 23.0564, 38.2544, -28.6215, -29.9142
3.372, 4, 17.8816, 15.8645, 23.0564, 38.2544, -28.6215, -29.9142
3.376, 4, 17.8816, 15.8645, 23.0564, 38.2544, -28.6215, -29.9142
3.38, 4, 17.8815, 15.8645, 23.0564, 38.2544, -28.6215, -29.9142
3.383, 4, 17.8812, 15.8645, 23.0564, 38.2543, -28.6215, -29.9142
3.388, 4, 17.8806, 15.8645, 23.0565, 38.2542, -28.6216, -29.9141
3.392, 4, 17.8793, 15.8645, 23.0566, 38.2539, -28.6217, -29.9139
3.396, 4, 17.8773, 15.8644, 23.0569, 38.2532, -28.6219, -29.9133
3.4, 4, 17.8745, 15.8643, 23.0576, 38.2517, -28.6225, -29.912
3.403, 4, 17.8706, 15.864, 23.0586, 38.2489, -28.6235, -29.9095
3.408, 4, 17.8657, 15.8636, 23.0603, 38.2441, -28.6252, -29.9053
3.412, 4, 17.8595, 15.863, 23.063, 38.2364, -28.628, -29.8984
3.416, 4, 17.8519, 15.862, 23.067, 38.2246, -28.6322, -29.8881
3.42, 5, 17.8425, 15.8607, 23.0726, 38.2075, -28.6384, -29.873
3.424, 5, 17.8311, 15.8589, 23.0804, 38.1837, -28.647, -29.852
3.428, 5, 17.8174, 15.8565, 23.0908, 38.1514, -28.6586, -29.8234
3.432, 5, 17.801, 15.8534, 23.1043, 38.1089, -28.674, -29.7859
3.436, 5, 17.7821, 15.8494, 23.1215, 38.0544, -28.6938, -29.7376
3.439, 5, 17.7607, 15.8444, 23.143, 37.986, -28.7187, -29.6771
3.444, 5, 17.7368, 15.8385, 23.169, 37.9022, -28.7493, -29.603
3.448, 5, 17.7105, 15.8313, 23.2001, 37.8019, -28.7861, -29.5142
3.452, 5, 17.6816, 15.823, 23.2363, 37.6842, -28.8295, -29.4101
3.456, 5, 17.6501, 15.8135, 23.2779, 37.5489, -28.8796, -29.2903
3.46, 5, 17.6158, 15.8028, 23.3248, 37.3961, -28.9365, -29.1552
3.464, 5, 17.5787, 15.791, 23.3769, 37.2264, -29.0001, -29.0052
3.468, 5, 17.5387, 15.7781, 23.4338, 37.0409, -29.07, -28.8413
3.472, 5, 17.4961, 15.7643, 23.4952, 36.8409, -29.1458, -28.6647
3.476, 5, 17.4511, 15.7496, 23.5606, 36.628, -29.2271, -28.4767
3.48, 5, 17.4038, 15.7342, 23.6296, 36.404, -29.3132, -28.279
3.484, 5, 17.3544, 15.7183, 23.7015, 36.1707, -29.4036, -28.0734
3.488, 5, 17.3028, 15.7019, 23.7759, 35.9303, -29.4976, -27.8615
3.492, 5, 17.249, 15.6853, 23.8521, 35.6844, -29.5945, -27.645
3.495, 5, 17.1931, 15.6685, 23.9298, 35.4348, -29.6937, -27.4254
3.5, 5, 17.1353, 15.6516, 24.0084, 35.183, -29.7948, -27.204
3.504, 5, 17.0757, 15.6348, 24.0877, 34.9299, -29.8974, -26.9817
3.508, 5, 17.0145, 15.6181, 24.1673, 34.6764, -30.0011, -26.7593
3.512, 5, 16.9523, 15.6015, 24.2471, 34.4232, -30.1058, -26.5374
3.516, 5, 16.8892, 15.5851, 24.327, 34.1706, -30.2112, -26.3161
3.52, 5, 16.8255, 15.569, 24.4068, 33.919, -30.3173, -26.0959
3.524, 5, 16.7614, 15.5531, 24.4864, 33.6684, -30.4241, -25.8768
3.528, 5, 16.697, 15.5374, 24.5659, 33.419, -30.5314, -25.6589
3.531, 5, 16.6323, 15.522, 24.6451, 33.1709, -30.6392, -25.4424
3.536, 5, 16.5675, 15.5068, 24.7241, 32.9241, -30.7476, -25.2273
3.54, 5, 16.5024, 15.4919, 24.8029, 32.6787, -30.8564, -25.0135
3.544, 5, 16.4373, 15.4773, 24.8814, 32.4347, -30.9657, -24.8012
3.548, 5, 16.372, 15.4629, 24.9597, 32.1921, -31.0754, -24.5902
3.552, 5, 16.3066, 15.4488, 25.0377, 31.9509, -31.1857, -24.3807
3.556, 5, 16.2411, 15.435, 25.1154, 31.711, -31.2963, -24.1726
3.56, 5, 16.1755, 15.4214, 25.1928, 31.4726, -31.4074, -23.9659
3.564, 5, 16.1098, 15.4081, 25.27, 31.2355, -31.5189, -23.7607
3.568, 5, 16.044, 15.3951, 25.3469, 30.9998, -31.6309, -23.5568
3.572, 5, 15.9781, 15.3823, 25.4235, 30.7655, -31.7433, -23.3543
3.576, 5, 15.9121, 15.3699, 25.4998, 30.5326, -31.8561, -23.1532
3.58, 5, 15.846, 15.3577, 25.5759, 30.301, -31.9693, -22.9535
3.584, 5, 15.7798, 15.3457, 25.6517, 30.0708, -32.083, -22.7551
3.587, 5, 15.7136, 15.3341, 25.7272, 29.8419, -32.197, -22.5581
3.592, 5, 15.6472, 15.3227, 25.8024, 29.6143, -32.3114, -22.3624
3.596, 5, 15.5808, 15.3116, 25.8773, 29.388, -32.4263, -22.1681
3.6, 5, 15.5143, 15.3008, 25.952, 29.1631, -32.5415, -21.9751
3.604, 5, 15.4477, 15.2902, 26.0263, 28.9394, -32.6572, -21.7834
3.608, 5, 15.381, 15.2799, 26.1004, 28.7171, -32.7732, -21.5931
3.612, 5, 15.3142, 15.2699, 26.1742, 28.496, -32.8896, -21.404
3.616, 5, 15.2473, 15.2602, 26.2477, 28.2763, -33.0064, -21.2163
3.62, 5, 15.1803, 15.2507, 26.321, 28.0577, -33.1236, -21.0298
3.624, 5, 15.1133, 15.2415, 26.394, 27.8405, -33.2411, -20.8446
3.628, 5, 15.0462, 15.2326, 26.4666, 27.6245, -33.359, -20.6607
3.632, 5, 14.9789, 15.224, 26.539, 27.4097, -33.4773, -20.478
3.636, 5, 14.9116, 15.2156, 26.6112, 27.1962, -33.596, -20.2966
3.64, 5, 14.8442, 15.2075, 26.683, 26.9839, -33.715, -20.1165
3.644, 5, 14.7767, 15.1997, 26.7546, 26.7728, -33.8344, -19.9375
3.648, 5, 14.7092, 15.1922, 26.8259, 26.5629, -33.9541, -19.7598
3.652, 5, 14.6415, 15.1849, 26.8969, 26.3542, -34.0742, -19.5833
3.656, 5, 14.5738, 15.1779, 26.9676, 26.1467, -34.1946, -19.4081
3.66, 5, 14.506, 15.1712, 27.0381, 25.9404, -34.3154, -19.234
3.664, 5, 14.4381, 15.1648, 27.1082, 25.7352, -34.4365, -19.0611
3.668, 5, 14.3701, 15.1586, 27.1781, 25.5313, -34.5579, -18.8894
3.672, 5, 14.302, 15.1527, 27.2477, 25.3284, -34.6797, -18.7189
3.676, 5, 14.2338, 15.1471, 27.3171, 25.1268, -34.8019, -18.5495
3.679, 5, 14.1656, 15.1417, 27.3861, 24.9262, -34.9243, -18.3813
3.684, 5, 14.0973, 15.1366, 27.4549, 24.7268, -35.0471, -18.2143
3.688, 5, 14.0289, 15.1319, 27.5234, 24.5285, -35.1702, -18.0484
3.692, 5, 13.9604, 15.1273, 27.5916, 24.3314, -35.2937, -17.8836
3.696, 5, 13.8918, 15.1231, 27.6595, 24.1353, -35.4174, -17.7199
3.7, 5, 13.8231, 15.1191, 27.7271, 23.9403, -35.5415, -17.5574
3.704, 5, 13.7544, 15.1154, 27.7945, 23.7464, -35.6659, -17.396
3.708, 5, 13.6856, 15.112, 27.8616, 23.5536, -35.7905, -17.2356
3.712, 5, 13.6167, 15.1089, 27.9284, 23.3619, -35.9155, -17.0764
3.716, 5, 13.5477, 15.106, 27.9949, 23.1712, -36.0408, -16.9182
3.72, 5, 13.4787, 15.1034, 28.0611, 22.9815, -36.1664, -16.7611
3.724, 5, 13.4095, 15.1011, 28.127, 22.793, -36.2923, -16.6051
3.728, 5, 13.3403, 15.0991, 28.1926, 22.6054, -36.4185, -16.4501
3.732, 5, 13.271, 15.0974, 28.258, 22.4189, -36.545, -16.2962
3.735, 5, 13.2016, 15.0959, 28.3231, 22.2334, -36.6717, -16.1433
3.74, 5, 13.1322, 15.0947, 28.3878, 22.0489, -36.7988, -15.9914
3.744, 5, 13.0626, 15.0938, 28.4523, 21.8654, -36.9261, -15.8406
3.748, 5, 12.993, 15.0932, 28.5165, 21.6829, -37.0537, -15.6907
3.752, 5, 12.9233, 15.0929, 28.5805, 21.5014, -37.1816, -15.5419
3.756, 5, 12.8535, 15.0928, 28.6441, 21.3209, -37.3098, -15.3941
3.76, 5, 12.7837, 15.093, 28.7074, 21.1413, -37.4382, -15.2473
3.764, 5, 12.7138, 15.0935, 28.7705, 20.9627, -37.567, -15.1014
3.768, 5, 12.6438, 15.0943, 28.8332, 20.7851, -37.6959, -14.9566
3.772, 5, 12.5737, 15.0953, 28.8957, 20.6084, -37.8252, -14.8127
3.776, 5, 12.5035, 15.0967, 28.9579, 20.4327, -37.9547, -14.6698
3.78, 5, 12.4333, 15.0983, 29.0198, 20.2579, -38.0844, -14.5278
3.784, 5, 12.363, 15.1002, 29.0814, 20.084, -38.2145, -14.3868
3.788, 5, 12.2926, 15.1023, 29.1427, 19.9111, -38.3448, -14.2468
3.792, 5, 12.2222, 15.1048, 29.2037, 19.7391, -38.4753, -14.1076
3.796, 5, 12.1516, 15.1075, 29.2645, 19.568, -38.6061, -13.9694
3.8, 5, 12.081, 15.1106, 29.3249, 19.3978, -38.7371, -13.8322
3.804, 5, 12.0103, 15.1139, 29.3851, 19.2285, -38.8684, -13.6958
3.808, 5, 11.9396, 15.1174, 29.4449, 19.0601, -38.9999, -13.5604
3.812, 5, 11.8688, 15.1213, 29.5045, 18.8925, -39.1317, -13.4258
3.816, 5, 11.7979, 15.1254, 29.5638, 18.7259, -39.2637, -13.2922
3.82, 5, 11.7269, 15.1298, 29.6228, 18.5601, -39.396, -13.1594
3.824, 5, 11.6559, 15.1345, 29.6815, 18.3952, -39.5285, -13.0276
3.828, 5, 11.5847, 15.1395, 29.7399, 18.2311, -39.6612, -12.8966
3.832, 5, 11.5135, 15.1448, 29.798, 18.0679, -39.7941, -12.7664
3.836, 5, 11.4423, 15.1503, 29.8558, 17.9055, -39.9273, -12.6372
3.84, 5, 11.371, 15.1562, 29.9134, 17.744, -40.0607, -12.5088
3.844, 5, 11.2996, 15.1623, 29.9706, 17.5833, -40.1944, -12.3812
3.848, 5, 11.2281, 15.1687, 30.0275, 17.4234, -40.3282, -12.2545
3.852, 5, 11.1566, 15.1753, 30.0842, 17.2643, -40.4623, -12.1286
3.856, 5, 11.085, 15.1823, 30.1405, 17.106, -40.5966, -12.0035
3.86, 5, 11.0133, 15.1895, 30.1966, 16.9485, -40.7311, -11.8793
3.864, 5, 10.9415, 15.197, 30.2524, 16.7919, -40.8658, -11.7559
3.868, 5, 10.8697, 15.2048, 30.3078, 16.636, -41.0007, -11.6332
3.872, 5, 10.7978, 15.2129, 30.363, 16.4809, -41.1358, -11.5114
3.876, 5, 10.7259, 15.2213, 30.4179, 16.3265, -41.2712, -11.3904
3.88, 5, 10.6539, 15.2299, 30.4725, 16.1729, -41.4067, -11.2702
3.884, 5, 10.5818, 15.2388, 30.5267, 16.0201, -41.5425, -11.1507
3.888, 5, 10.5096, 15.248, 30.5807, 15.8681, -41.6784, -11.032
3.892, 5, 10.4374, 15.2575, 30.6344, 15.7168, -41.8145, -10.9141
3.896, 5, 10.3651, 15.2673, 30.6878, 15.5662, -41.9509, -10.797
3.9, 5, 10.2928, 15.2773, 30.7409, 15.4164, -42.0874, -10.6806
3.904, 5, 10.2204, 15.2877, 30.7937, 15.2673, -42.2241, -10.565
3.908, 5, 10.1479, 15.2983, 30.8462, 15.119, -42.361, -10.4501
3.912, 5, 10.0754, 15.3092, 30.8984, 14.9714, -42.4981, -10.336
3.916, 5, 10.0028, 15.3204, 30.9503, 14.8244, -42.6354, -10.2226
3.92, 5, 9.93009, 15.3319, 31.0019, 14.6782, -42.7728, -10.1099
3.924, 5, 9.85734, 15.3437, 31.0531, 14.5328, -42.9105, -9.99796
3.928, 5, 9.78452, 15.3557, 31.1041, 14.388, -43.0483, -9.88674
3.932, 5, 9.71164, 15.3682, 31.1548, 14.2439, -43.1863, -9.77625
3.936, 5, 9.63868, 15.3809, 31.2051, 14.1005, -43.3245, -9.66646
3.94, 5, 9.56566, 15.3939, 31.2551, 13.9577, -43.4629, -9.55737
3.944, 5, 9.49257, 15.4073, 31.3047, 13.8157, -43.6014, -9.44899
3.948, 5, 9.41941, 15.4209, 31.354, 13.6743, -43.7401, -9.3413
3.952, 5, 9.34619, 15.435, 31.403, 13.5336, -43.879, -9.23429
3.956, 5, 9.2729, 15.4493, 31.4516, 13.3935, -44.0181, -9.12796
3.96, 5, 9.19955, 15.464, 31.4998, 13.2541, -44.1573, -9.02232
3.964, 5, 9.12614, 15.4791, 31.5476, 13.1153, -44.2967, -8.91733
3.968, 5, 9.05266, 15.4945, 31.595, 12.9772, -44.4363, -8.81302
3.972, 5, 8.97913, 15.5103, 31.642, 12.8397, -44.5761, -8.70935
3.976, 5, 8.90553, 15.5264, 31.6886, 12.7028, -44.716, -8.60635
3.98, 5, 8.83187, 15.5429, 31.7348, 12.5665, -44.8561, -8.50398
3.984, 5, 8.75814, 15.5598, 31.7806, 12.4309, -44.9964, -8.40226
3.988, 5, 8.68436, 15.5771, 31.8259, 12.2959, -45.1368, -8.30118
3.992, 5, 8.61051, 15.5947, 31.8708, 12.1614, -45.2774, -8.20073
3.996, 5, 8.53659, 15.6128, 31.9153, 12.0276, -45.4181, -8.1009
3.999, 5, 8.46262, 15.6313, 31.9593, 11.8944, -45.559, -8.0017
4.004, 5, 8.38858, 15.6501, 32.0029, 11.7617, -45.7, -7.90311
4.008, 5, 8.31448, 15.6694, 32.046, 11.6297, -45.8412, -7.80514
4.012, 5, 8.24031, 15.6891, 32.0887, 11.4982, -45.9826, -7.70778
4.016, 5, 8.16609, 15.7092, 32.1309, 11.3673, -46.124, -7.61103
4.02, 5, 8.0918, 15.7297, 32.1726, 11.237, -46.2657, -7.51487
4.024, 5, 8.01746, 15.7506, 32.2139, 11.1072, -46.4075, -7.41931
4.028, 5, 7.94306, 15.7719, 32.2547, 10.978, -46.5494, -7.32435
4.032, 5, 7.8686, 15.7937, 32.2951, 10.8494, -46.6914, -7.22997
4.036, 5, 7.79408, 15.8159, 32.3349, 10.7214, -46.8336, -7.13618
4.04, 5, 7.7195, 15.8385, 32.3743, 10.5939, -46.976, -7.04297
4.044, 5, 7.64487, 15.8615, 32.4132, 10.4669, -47.1184, -6.95034
4.048, 5, 7.57019, 15.8849, 32.4517, 10.3405, -47.261, -6.85828
4.052, 5, 7.49545, 15.9088, 32.4896, 10.2147, -47.4037, -6.7668
4.056, 5, 7.42066, 15.9331, 32.527, 10.0894, -47.5466, -6.67587
4.06, 5, 7.34581, 15.9579, 32.564, 9.96462, -47.6895, -6.58552
4.064, 5, 7.27092, 15.983, 32.6005, 9.84039, -47.8326, -6.49572
4.068, 5, 7.19597, 16.0086, 32.6364, 9.71669, -47.9759, -6.40648
4.072, 5, 7.12098, 16.0347, 32.6719, 9.59352, -48.1192, -6.31779
4.076, 5, 7.04593, 16.0612, 32.7068, 9.47088, -48.2627, -6.22965
4.08, 5, 6.97084, 16.0881, 32.7413, 9.34877, -48.4062, -6.14206
4.084, 5, 6.8957, 16.1155, 32.7752, 9.22717, -48.5499, -6.05501
4.088, 5, 6.82051, 16.1433, 32.8087, 9.10609, -48.6937, -5.9685
4.092, 5, 6.74528, 16.1716, 32.8416, 8.98553, -48.8376, -5.88253
4.096, 5, 6.67001, 16.2003, 32.874, 8.86548, -48.9817, -5.79709
4.1, 5, 6.5947, 16.2294, 32.9059, 8.74594, -49.1258, -5.71218
4.104, 5, 6.51935, 16.259, 32.9372, 8.6269, -49.27, -5.6278
4.108, 5, 6.44395, 16.2891, 32.968, 8.50837, -49.4143, -5.54395
4.112, 5, 6.36852, 16.3196, 32.9983, 8.39034, -49.5588, -5.46061
4.116, 5, 6.29306, 16.3506, 33.0281, 8.27281, -49.7033, -5.37779
4.12, 5, 6.21756, 16.382, 33.0573, 8.15577, -49.8479, -5.29549
4.124, 5, 6.14202, 16.4139, 33.086, 8.03923, -49.9926, -5.2137
4.128, 5, 6.06645, 16.4462, 33.1141, 7.92317, -50.1374, -5.13241
4.132, 5, 5.99085, 16.479, 33.1417, 7.80761, -50.2823, -5.05163
4.136, 5, 5.91522, 16.5123, 33.1688, 7.69253, -50.4273, -4.97135
4.14, 5, 5.83956, 16.546, 33.1953, 7.57793, -50.5723, -4.89157
4.144, 5, 5.76388, 16.5802, 33.2212, 7.46381, -50.7175, -4.81229
4.148, 5, 5.68816, 16.6149, 33.2466, 7.35018, -50.8627, -4.73349
4.152, 5, 5.61242, 16.65, 33.2714, 7.23702, -51.0079, -4.65519
4.156, 5, 5.53666, 16.6856, 33.2957, 7.12433, -51.1532, -4.57737
4.16, 5, 5.46088, 16.7216, 33.3194, 7.01211, -51.2986, -4.50004
4.164, 5, 5.38507, 16.7582, 33.3425, 6.90037, -51.444, -4.42318
4.168, 5, 5.30925, 16.7951, 33.3651, 6.78909, -51.5895, -4.34681
4.172, 5, 5.23341, 16.8326, 33.387, 6.67828, -51.7351, -4.2709
4.176, 5, 5.15756, 16.8705, 33.4084, 6.56793, -51.8807, -4.19547
4.18, 5, 5.08169, 16.9089, 33.4293, 6.45805, -52.0263, -4.12051
4.184, 5, 5.00581, 16.9478, 33.4495, 6.34862, -52.172, -4.04602
4.188, 5, 4.92992, 16.9871, 33.4692, 6.23965, -52.3177, -3.97199
4.192, 5, 4.85402, 17.0269, 33.4882, 6.13114, -52.4635, -3.89842
4.196, 5, 4.77811, 17.0672, 33.5067, 6.02309, -52.6093, -3.82531
4.2, 5, 4.7022, 17.108, 33.5246, 5.91548, -52.7551, -3.75266
4.204, 5, 4.62629, 17.1492, 33.5419, 5.80833, -52.9009, -3.68046
4.208, 5, 4.55037, 17.1909, 33.5586, 5.70162, -53.0468, -3.60871
4.212, 5, 4.47445, 17.2331, 33.5746, 5.59537, -53.1927, -3.53741
4.216, 5, 4.39853, 17.2758, 33.5901, 5.48956, -53.3386, -3.46656
4.22, 5, 4.32261, 17.3189, 33.605, 5.38419, -53.4845, -3.39615
4.224, 5, 4.2467, 17.3626, 33.6193, 5.27926, -53.6305, -3.32618
4.228, 5, 4.17079, 17.4067, 33.6329, 5.17478, -53.7764, -3.25665
4.232, 5, 4.09488, 17.4513, 33.646, 5.07073, -53.9223, -3.18756
4.236, 5, 4.01899, 17.4963, 33.6584, 4.96713, -54.0683, -3.1189
4.24, 5, 3.94311, 17.5419, 33.6702, 4.86396, -54.2143, -3.05068
4.244, 5, 3.86724, 17.5879, 33.6814, 4.76122, -54.3602, -2.98289
4.248, 5, 3.79138, 17.6344, 33.6919, 4.65891, -54.5062, -2.91552
4.252, 5, 3.71554, 17.6814, 33.7019, 4.55704, -54.6521, -2.84858
4.256, 5, 3.63971, 17.7289, 33.7112, 4.4556, -54.798, -2.78207
4.26, 5, 3.56391, 17.7769, 33.7198, 4.35458, -54.9439, -2.71598
4.264, 5, 3.48813, 17.8254, 33.7278, 4.254, -55.0898, -2.65031
4.268, 5, 3.41237, 17.8743, 33.7352, 4.15384, -55.2357, -2.58506
4.272, 5, 3.33664, 17.9238, 33.7419, 4.05411, -55.3816, -2.52022
4.276, 5, 3.26093, 17.9737, 33.748, 3.9548, -55.5274, -2.4558
4.28, 5, 3.18525, 18.0241, 33.7535, 3.85591, -55.6732, -2.39179
4.284, 5, 3.10961, 18.075, 33.7582, 3.75744, -55.819, -2.32819
4.288, 5, 3.03399, 18.1264, 33.7624, 3.6594, -55.9647, -2.265
4.292, 5, 2.95841, 18.1783, 33.7658, 3.56177, -56.1104, -2.20221
4.296, 5, 2.88287, 18.2307, 33.7687, 3.46457, -56.256, -2.13982
4.3, 5, 2.80736, 18.2835, 33.7708, 3.36778, -56.4016, -2.07784
4.304, 5, 2.73189, 18.3369, 33.7723, 3.2714, -56.5471, -2.01625
4.308, 5, 2.65647, 18.3907, 33.7732, 3.17544, -56.6926, -1.95505
4.312, 5, 2.58109, 18.445, 33.7733, 3.07989, -56.838, -1.89425
4.316, 5, 2.50575, 18.4997, 33.7729, 2.98476, -56.9833, -1.83384
4.32, 5, 2.43047, 18.555, 33.7717, 2.89003, -57.1286, -1.77381
4.324, 5, 2.35523, 18.6107, 33.7699, 2.79572, -57.2738, -1.71417
4.328, 5, 2.28004, 18.6669, 33.7674, 2.70181, -57.4189, -1.6549
4.332, 5, 2.20491, 18.7236, 33.7643, 2.60831, -57.5639, -1.59602
4.336, 5, 2.12984, 18.7808, 33.7605, 2.51522, -57.7088, -1.53752
4.34, 5, 2.05482, 18.8384, 33.7561, 2.42253, -57.8536, -1.47938
4.344, 5, 1.97986, 18.8964, 33.7509, 2.33025, -57.9984, -1.42162
4.348, 5, 1.90497, 18.955, 33.7451, 2.23837, -58.143, -1.36423
4.352, 5, 1.83014, 19.014, 33.7387, 2.14688, -58.2875, -1.30721
4.356, 5, 1.75537, 19.0734, 33.7316, 2.0558, -58.4319, -1.25054
4.36, 5, 1.68068, 19.1334, 33.7238, 1.96512, -58.5762, -1.19425
4.364, 5, 1.60605, 19.1937, 33.7153, 1.87484, -58.7204, -1.1383
4.368, 5, 1.5315, 19.2546, 33.7062, 1.78496, -58.8645, -1.08272
4.372, 5, 1.45702, 19.3158, 33.6964, 1.69547, -59.0084, -1.02749
4.376, 5, 1.38261, 19.3776, 33.686, 1.60637, -59.1522, -0.972615
4.38, 5, 1.30829, 19.4397, 33.6749, 1.51767, -59.2959, -0.918089
4.384, 5, 1.23404, 19.5024, 33.6631, 1.42937, -59.4394, -0.863909
4.388, 5, 1.15988, 19.5654, 33.6507, 1.34145, -59.5828, -0.810076
4.392, 5, 1.0858, 19.6289, 33.6375, 1.25393, -59.7261, -0.756585
4.396, 5, 1.0118, 19.6929, 33.6238, 1.1668, -59.8692, -0.703435
4.4, 5, 0.937895, 19.7573, 33.6093, 1.08006, -60.0121, -0.650624
4.404, 5, 0.864078, 19.8221, 33.5942, 0.993703, -60.1549, -0.59815
4.408, 6, 0.790351, 19.8873, 33.5784, 0.907736, -60.2975, -0.54601
4.412, 6, 0.716717, 19.953, 33.5619, 0.822156, -60.44, -0.494202
4.416, 6, 0.643179, 20.0191, 33.5448, 0.736961, -60.5822, -0.442725
4.42, 6, 0.569737, 20.0857, 33.527, 0.652152, -60.7244, -0.391575
4.424, 6, 0.496393, 20.1526, 33.5085, 0.567727, -60.8663, -0.340751
4.428, 6, 0.423151, 20.22, 33.4893, 0.483684, -61.0081, -0.290251
4.432, 6, 0.35001, 20.2879, 33.4695, 0.400024, -61.1496, -0.240073
4.436, 6, 0.276973, 20.3561, 33.449, 0.316746, -61.291, -0.190215
4.44, 6, 0.204042, 20.4248, 33.4278, 0.233848, -61.4322, -0.140675
4.444, 6, 0.131218, 20.4938, 33.406, 0.15133, -61.5732, -0.0914498
4.448, 6, 0.0585041, 20.5633, 33.3835, 0.0691914, -61.7141, -0.0425388
4.452, 6, -0.0140991, 20.6333, 33.3603, -0.0125692, -61.8547, 0.00606048
4.456, 6, -0.0865895, 20.7036, 33.3364, -0.0939524, -61.9951, 0.0543499
4.46, 6, -0.158965, 20.7743, 33.3119, -0.174959, -62.1353, 0.102331
4.464, 6, -0.231225, 20.8455, 33.2866, -0.255589, -62.2752, 0.150007
4.468, 6, -0.303366, 20.917, 33.2607, -0.335845, -62.415, 0.197378
4.472, 6, -0.375388, 20.989, 33.2341, -0.415725, -62.5546, 0.244448
4.476, 6, -0.447287, 21.0614, 33.2069, -0.495233, -62.6939, 0.291217
4.48, 6, -0.519063, 21.1342, 33.1789, -0.574367, -62.833, 0.337687
4.484, 6, -0.590713, 21.2073, 33.1503, -0.653128, -62.9719, 0.383861
4.488, 6, -0.662237, 21.2809, 33.121, -0.731519, -63.1105, 0.42974
4.492, 6, -0.733632, 21.3549, 33.0911, -0.809538, -63.2489, 0.475326
4.496, 6, -0.804896, 21.4293, 33.0604, -0.887187, -63.3871, 0.520622
4.5, 6, -0.876028, 21.504, 33.0291, -0.964467, -63.525, 0.565629
4.504, 6, -0.947026, 21.5792, 32.997, -1.04138, -63.6627, 0.610348
4.508, 6, -1.01789, 21.6547, 32.9643, -1.11792, -63.8001, 0.654784
4.512, 6, -1.08861, 21.7306, 32.931, -1.1941, -63.9372, 0.698937
4.516, 6, -1.1592, 21.8069, 32.8969, -1.26991, -64.0742, 0.74281
4.52, 6, -1.22965, 21.8836, 32.8622, -1.34535, -64.2108, 0.786405
4.524, 6, -1.29996, 21.9607, 32.8268, -1.42044, -64.3472, 0.829725
4.528, 6, -1.37013, 22.0381, 32.7907, -1.49516, -64.4833, 0.872773
4.532, 6, -1.44016, 22.1159, 32.7539, -1.56952, -64.6191, 0.915551
4.536, 6, -1.51005, 22.1941, 32.7165, -1.64351, -64.7547, 0.958061
4.54, 6, -1.57979, 22.2726, 32.6784, -1.71715, -64.89, 1.00031
4.544, 6, -1.64939, 22.3515, 32.6397, -1.79044, -65.025, 1.04229
4.548, 6, -1.71884, 22.4308, 32.6003, -1.86336, -65.1598, 1.08401
4.552, 6, -1.78814, 22.5104, 32.5602, -1.93594, -65.2942, 1.12548
4.556, 6, -1.8573, 22.5903, 32.5195, -2.00816, -65.4284, 1.1667
4.56, 6, -1.9263, 22.6706, 32.4781, -2.08002, -65.5622, 1.20766
4.564, 6, -1.99516, 22.7513, 32.4361, -2.15154, -65.6958, 1.24837
4.568, 6, -2.06386, 22.8322, 32.3934, -2.22271, -65.8291, 1.28884
4.572, 6, -2.13241, 22.9135, 32.3501, -2.29354, -65.9621, 1.32906
4.576, 6, -2.2008, 22.9952, 32.3061, -2.36401, -66.0948, 1.36904
4.58, 6, -2.26904, 23.0771, 32.2615, -2.43415, -66.2272, 1.40878
4.584, 6, -2.33713, 23.1594, 32.2163, -2.50394, -66.3593, 1.44828
4.588, 6, -2.40506, 23.242, 32.1704, -2.57339, -66.4911, 1.48755
4.592, 6, -2.47283, 23.3249, 32.1239, -2.6425, -66.6226, 1.52659
4.596, 6, -2.54044, 23.4081, 32.0768, -2.71127, -66.7538, 1.5654
4.6, 6, -2.6079, 23.4917, 32.029, -2.7797, -66.8847, 1.60398
4.604, 6, -2.6752, 23.5755, 31.9806, -2.8478, -67.0152, 1.64233
4.608, 6, -2.74234, 23.6597, 31.9316, -2.91556, -67.1455, 1.68046
4.612, 6, -2.80931, 23.7441, 31.882, -2.98299, -67.2754, 1.71838
4.616, 6, -2.87613, 23.8289, 31.8317, -3.05009, -67.4051, 1.75607
4.62, 6, -2.94279, 23.9139, 31.7808, -3.11686, -67.5344, 1.79355
4.624, 6, -3.00928, 23.9992, 31.7294, -3.1833, -67.6634, 1.83081
4.628, 6, -3.07561, 24.0848, 31.6773, -3.24941, -67.7921, 1.86787
4.632, 6, -3.14178, 24.1707, 31.6246, -3.31519, -67.9204, 1.90471
4.636, 6, -3.20778, 24.2569, 31.5712, -3.38065, -68.0484, 1.94135
4.64, 6, -3.27362, 24.3433, 31.5173, -3.44579, -68.1761, 1.97778
4.644, 6, -3.3393, 24.43, 31.4628, -3.5106, -68.3035, 2.01401
4.648, 6, -3.40481, 24.517, 31.4077, -3.57509, -68.4306, 2.05004
4.652, 6, -3.47015, 24.6043, 31.352, -3.63926, -68.5573, 2.08587
4.656, 6, -3.53532, 24.6918, 31.2957, -3.70311, -68.6837, 2.12151
4.66, 6, -3.60033, 24.7796, 31.2388, -3.76664, -68.8097, 2.15695
4.664, 6, -3.66517, 24.8676, 31.1813, -3.82985, -68.9354, 2.1922
4.668, 6, -3.72984, 24.9559, 31.1232, -3.89275, -69.0608, 2.22726
4.672, 6, -3.79435, 25.0445, 31.0645, -3.95534, -69.1858, 2.26213
4.676, 6, -3.85868, 25.1333, 31.0052, -4.01761, -69.3105, 2.29682
4.68, 6, -3.92284, 25.2224, 30.9454, -4.07957, -69.4348, 2.33133
4.684, 6, -3.98683, 25.3116, 30.885, -4.14121, -69.5588, 2.36565
4.688, 6, -4.05065, 25.4012, 30.824, -4.20255, -69.6825, 2.39979
4.692, 6, -4.11429, 25.4909, 30.7624, -4.26358, -69.8058, 2.43376
4.696, 6, -4.17777, 25.581, 30.7002, -4.3243, -69.9287, 2.46755
4.7, 6, -4.24107, 25.6712, 30.6375, -4.38472, -70.0513, 2.50117
4.704, 6, -4.3042, 25.7617, 30.5742, -4.44483, -70.1736, 2.53462
4.708, 6, -4.36716, 25.8524, 30.5103, -4.50463, -70.2955, 2.5679
4.712, 6, -4.42995, 25.9433, 30.4459, -4.56413, -70.417, 2.60102
4.716, 6, -4.49257, 26.0344, 30.3809, -4.62334, -70.5382, 2.63397
4.72, 6, -4.55501, 26.1258, 30.3153, -4.68224, -70.659, 2.66676
4.724, 6, -4.61729, 26.2173, 30.2492, -4.74084, -70.7795, 2.69939
4.728, 6, -4.67939, 26.3091, 30.1826, -4.79915, -70.8996, 2.73186
4.732, 6, -4.74133, 26.4011, 30.1153, -4.85716, -71.0193, 2.76418
4.736, 6, -4.80309, 26.4933, 30.0476, -4.91488, -71.1387, 2.79634
4.74, 6, -4.86469, 26.5857, 29.9793, -4.97231, -71.2577, 2.82835
4.744, 6, -4.92611, 26.6783, 29.9104, -5.02945, -71.3764, 2.86022
4.748, 6, -4.98736, 26.7711, 29.841, -5.0863, -71.4947, 2.89193
4.752, 6, -5.04844, 26.8641, 29.7711, -5.14286, -71.6126, 2.92351
4.756, 6, -5.10935, 26.9572, 29.7006, -5.19914, -71.7302, 2.95494
4.76, 6, -5.17008, 27.0506, 29.6296, -5.25513, -71.8475, 2.98623
4.764, 6, -5.23065, 27.1442, 29.5581, -5.31085, -71.9643, 3.01738
4.768, 6, -5.29105, 27.2379, 29.4861, -5.36628, -72.0809, 3.0484
4.772, 6, -5.35128, 27.3318, 29.4135, -5.42144, -72.197, 3.07928
4.776, 6, -5.41134, 27.4259, 29.3404, -5.47631, -72.3128, 3.11003
4.78, 6, -5.47123, 27.5202, 29.2669, -5.53092, -72.4283, 3.14064
4.784, 6, -5.53096, 27.6147, 29.1927, -5.58525, -72.5434, 3.17113
4.788, 6, -5.59051, 27.7093, 29.1181, -5.6393, -72.6582, 3.2015
4.792, 6, -5.64991, 27.8041, 29.043, -5.69309, -72.7726, 3.23173
4.796, 6, -5.70913, 27.8991, 28.9674, -5.7466, -72.8866, 3.26185
4.8, 6, -5.76819, 27.9942, 28.8913, -5.79985, -73.0003, 3.29184
4.804, 6, -5.82709, 28.0895, 28.8146, -5.85284, -73.1136, 3.32172
4.808, 6, -5.88582, 28.1849, 28.7375, -5.90555, -73.2266, 3.35148
4.812, 6, -5.94439, 28.2805, 28.6599, -5.95801, -73.3393, 3.38112
4.816, 6, -6.0028, 28.3763, 28.5818, -6.0102, -73.4516, 3.41065
4.82, 6, -6.06105, 28.4722, 28.5032, -6.06214, -73.5635, 3.44006
4.824, 6, -6.11913, 28.5683, 28.4242, -6.11381, -73.6751, 3.46937
4.828, 6, -6.17705, 28.6645, 28.3446, -6.16523, -73.7864, 3.49857
4.832, 6, -6.23481, 28.7609, 28.2646, -6.21639, -73.8973, 3.52766
4.836, 6, -6.29241, 28.8574, 28.1841, -6.26729, -74.0078, 3.55665
4.84, 6, -6.34985, 28.9541, 28.1031, -6.31795, -74.118, 3.58554
4.844, 6, -6.40713, 29.0509, 28.0216, -6.36835, -74.2279, 3.61432
4.848, 6, -6.46425, 29.1478, 27.9397, -6.4185, -74.3374, 3.64301
4.852, 6, -6.52122, 29.2449, 27.8573, -6.4684, -74.4466, 3.6716
4.856, 6, -6.57802, 29.3421, 27.7744, -6.51806, -74.5554, 3.70009
4.86, 6, -6.63467, 29.4394, 27.6911, -6.56746, -74.6638, 3.72849
4.864, 6, -6.69117, 29.5369, 27.6073, -6.61663, -74.772, 3.7568
4.868, 6, -6.7475, 29.6345, 27.5231, -6.66555, -74.8797, 3.78502
4.872, 6, -6.80369, 29.7322, 27.4384, -6.71422, -74.9872, 3.81315
4.876, 6, -6.85972, 29.8301, 27.3533, -6.76266, -75.0943, 3.84119
4.88, 6, -6.91559, 29.928, 27.2677, -6.81085, -75.201, 3.86915
4.884, 6, -6.97132, 30.0261, 27.1817, -6.85881, -75.3074, 3.89703
4.888, 6, -7.0269, 30.1243, 27.0952, -6.90653, -75.4135, 3.92482
4.892, 6, -7.08235, 30.2226, 27.0083, -6.95402, -75.5192, 3.95254
4.896, 6, -7.13766, 30.321, 26.9209, -7.00127, -75.6246, 3.98018
4.9, 6, -7.19284, 30.4196, 26.8331, -7.04829, -75.7296, 4.00775
4.904, 6, -7.2479, 30.5182, 26.7449, -7.09509, -75.8343, 4.03524
4.908, 6, -7.30283, 30.6169, 26.6563, -7.14166, -75.9387, 4.06266
4.912, 6, -7.35762, 30.7157, 26.5673, -7.188, -76.0428, 4.09002
4.916, 6, -7.41229, 30.8146, 26.4779, -7.23414, -76.1465, 4.11731
4.92, 6, -7.46683, 30.9136, 26.3881, -7.28005, -76.25, 4.14454
4.924, 6, -7.52124, 31.0127, 26.2979, -7.32576, -76.3531, 4.17171
4.928, 6, -7.57553, 31.1118, 26.2073, -7.37126, -76.4559, 4.19882
4.932, 6, -7.62968, 31.211, 26.1163, -7.41656, -76.5584, 4.22588
4.936, 6, -7.68371, 31.3103, 26.025, -7.46167, -76.6607, 4.25289
4.94, 6, -7.7376, 31.4097, 25.9334, -7.50658, -76.7627, 4.27985
4.944, 6, -7.79136, 31.5091, 25.8414, -7.55129, -76.8644, 4.30676
4.948, 6, -7.84499, 31.6086, 25.7491, -7.59582, -76.9658, 4.33363
4.952, 6, -7.89849, 31.7082, 25.6564, -7.64016, -77.0669, 4.36045
4.956, 6, -7.95187, 31.8078, 25.5634, -7.68431, -77.1678, 4.38724
4.96, 6, -8.00513, 31.9075, 25.4701, -7.72828, -77.2685, 4.41398
4.964, 6, -8.05827, 32.0072, 25.3764, -7.77206, -77.3688, 4.44068
4.968, 6, -8.11131, 32.107, 25.2824, -7.81567, -77.4689, 4.46734
4.972, 6, -8.16423, 32.2068, 25.1881, -7.85909, -77.5688, 4.49397
4.976, 6, -8.21705, 32.3067, 25.0935, -7.90232, -77.6684, 4.52056
4.98, 6, -8.26976, 32.4067, 24.9985, -7.94538, -77.7677, 4.54711
4.984, 6, -8.32237, 32.5067, 24.9032, -7.98826, -77.8668, 4.57363
4.988, 6, -8.37488, 32.6067, 24.8076, -8.03096, -77.9656, 4.60012
4.992, 6, -8.42727, 32.7068, 24.7117, -8.07347, -78.0641, 4.62657
4.996, 6, -8.47957, 32.807, 24.6154, -8.11581, -78.1624, 4.65299
5, 6, -8.53176, 32.9072, 24.5189, -8.15797, -78.2604, 4.67938
5.004, 6, -8.58385, 33.0074, 24.422, -8.19995, -78.3582, 4.70574
5.008, 6, -8.63584, 33.1078, 24.3247, -8.24175, -78.4557, 4.73206
5.012, 6, -8.68772, 33.2081, 24.2272, -8.28337, -78.5529, 4.75836
5.016, 6, -8.7395, 33.3085, 24.1293, -8.32482, -78.6499, 4.78464
5.02, 6, -8.79118, 33.409, 24.0311, -8.36609, -78.7466, 4.81088
5.024, 6, -8.84276, 33.5095, 23.9326, -8.40718, -78.8431, 4.8371
5.028, 6, -8.89424, 33.6101, 23.8338, -8.4481, -78.9393, 4.86329
5.032, 6, -8.94561, 33.7107, 23.7346, -8.48884, -79.0352, 4.88946
5.036, 6, -8.99688, 33.8114, 23.6351, -8.5294, -79.1309, 4.91561
5.04, 6, -9.04805, 33.9121, 23.5353, -8.56979, -79.2263, 4.94173
5.044, 6, -9.09912, 34.0129, 23.4352, -8.61, -79.3215, 4.96783
5.048, 6, -9.15008, 34.1137, 23.3347, -8.65004, -79.4164, 4.99391
5.052, 6, -9.20095, 34.2146, 23.234, -8.6899, -79.511, 5.01996
5.056, 6, -9.25171, 34.3155, 23.1329, -8.72959, -79.6054, 5.046
5.06, 6, -9.30237, 34.4165, 23.0314, -8.7691, -79.6995, 5.07202
5.064, 6, -9.35293, 34.5175, 22.9297, -8.80844, -79.7933, 5.09802
5.068, 6, -9.40339, 34.6186, 22.8276, -8.84761, -79.8869, 5.12401
5.072, 6, -9.45375, 34.7197, 22.7252, -8.8866, -79.9802, 5.14998
5.076, 6, -9.504, 34.8209, 22.6225, -8.92542, -80.0733, 5.17593
5.08, 6, -9.55416, 34.9221, 22.5194, -8.96407, -80.1661, 5.20187
5.084, 6, -9.60422, 35.0234, 22.416, -9.00255, -80.2586, 5.22779
5.088, 6, -9.65417, 35.1247, 22.3123, -9.04085, -80.3509, 5.2537
5.092, 6, -9.70402, 35.2261, 22.2083, -9.07898, -80.4428, 5.2796
5.096, 6, -9.75378, 35.3276, 22.104, -9.11694, -80.5346, 5.30549
5.1, 6, -9.80343, 35.429, 21.9993, -9.15473, -80.626, 5.33136
5.104, 6, -9.85298, 35.5306, 21.8943, -9.19234, -80.7172, 5.35723
5.108, 6, -9.90243, 35.6322, 21.789, -9.22979, -80.8082, 5.38309
5.112, 6, -9.95179, 35.7338, 21.6833, -9.26706, -80.8988, 5.40894
5.116, 6, -10.001, 35.8355, 21.5773, -9.30417, -80.9893, 5.43478
5.12, 6, -10.0502, 35.9373, 21.471, -9.3411, -81.0794, 5.46062
5.124, 6, -10.0992, 36.0391, 21.3644, -9.37786, -81.1693, 5.48645
5.128, 6, -10.1482, 36.1409, 21.2574, -9.41446, -81.2589, 5.51227
5.132, 6, -10.197, 36.2428, 21.1501, -9.45088, -81.3482, 5.5381
5.136, 6, -10.2458, 36.3448, 21.0425, -9.48713, -81.4373, 5.56391
5.14, 6, -10.2944, 36.4468, 20.9346, -9.52322, -81.5261, 5.58973
5.144, 6, -10.343, 36.5488, 20.8263, -9.55913, -81.6146, 5.61555
5.148, 6, -10.3914, 36.6509, 20.7177, -9.59488, -81.7029, 5.64136
5.152, 6, -10.4398, 36.7531, 20.6088, -9.63045, -81.7909, 5.66718
5.156, 6, -10.488, 36.8553, 20.4995, -9.66586, -81.8786, 5.69299
5.16, 6, -10.5362, 36.9575, 20.3899, -9.7011, -81.966, 5.71881
5.164, 6, -10.5842, 37.0599, 20.28, -9.73617, -82.0532, 5.74463
5.168, 6, -10.6322, 37.1622, 20.1697, -9.77107, -82.1401, 5.77045
5.172, 6, -10.68, 37.2646, 20.0591, -9.80581, -82.2267, 5.79628
5.176, 6, -10.7278, 37.3671, 19.9482, -9.84037, -82.3131, 5.82212
5.18, 6, -10.7754, 37.4696, 19.8369, -9.87477, -82.3992, 5.84796
5.184, 6, -10.823, 37.5722, 19.7254, -9.909, -82.485, 5.8738
5.188, 6, -10.8704, 37.6748, 19.6134, -9.94307, -82.5706, 5.89966
5.192, 6, -10.9178, 37.7775, 19.5012, -9.97696, -82.6558, 5.92552
5.196, 6, -10.965, 37.8802, 19.3886, -10.0107, -82.7408, 5.95139
5.2, 6, -11.0122, 37.983, 19.2757, -10.0443, -82.8256, 5.97727
5.204, 6, -11.0592, 38.0858, 19.1624, -10.0776, -82.91, 6.00317
5.208, 6, -11.1062, 38.1887, 19.0488, -10.1109, -82.9942, 6.02907
5.212, 6, -11.153, 38.2916, 18.9349, -10.1439, -83.0781, 6.05499
5.216, 6, -11.1998, 38.3946, 18.8206, -10.1768, -83.1617, 6.08092
5.22, 6, -11.2464, 38.4977, 18.706, -10.2096, -83.245, 6.10687
5.224, 6, -11.293, 38.6008, 18.5911, -10.2421, -83.3281, 6.13283
5.228, 6, -11.3394, 38.7039, 18.4758, -10.2745, -83.4109, 6.15881
5.232, 6, -11.3858, 38.8071, 18.3602, -10.3067, -83.4934, 6.18481
5.236, 6, -11.432, 38.9104, 18.2442, -10.3388, -83.5756, 6.21082
5.24, 6, -11.4782, 39.0137, 18.1279, -10.3707, -83.6575, 6.23685
5.244, 6, -11.5243, 39.117, 18.0113, -10.4024, -83.7392, 6.2629
5.248, 6, -11.5702, 39.2204, 17.8943, -10.434, -83.8206, 6.28897
5.252, 6, -11.6161, 39.3239, 17.777, -10.4654, -83.9017, 6.31506
5.256, 6, -11.6618, 39.4274, 17.6593, -10.4966, -83.9825, 6.34117
5.26, 6, -11.7075, 39.531, 17.5413, -10.5277, -84.063, 6.36731
5.264, 6, -11.753, 39.6347, 17.423, -10.5586, -84.1433, 6.39346
5.268, 6, -11.7985, 39.7384, 17.3043, -10.5893, -84.2233, 6.41964
5.272, 6, -11.8439, 39.8421, 17.1852, -10.6198, -84.303, 6.44584
5.276, 6, -11.8891, 39.9459, 17.0658, -10.6502, -84.3824, 6.47207
5.28, 6, -11.9343, 40.0498, 16.9461, -10.6805, -84.4615, 6.49832
5.284, 6, -11.9794, 40.1537, 16.826, -10.7105, -84.5404, 6.52459
5.288, 6, -12.0244, 40.2577, 16.7056, -10.7404, -84.6189, 6.55089
5.292, 6, -12.0692, 40.3617, 16.5849, -10.7702, -84.6972, 6.57721
5.296, 6, -12.114, 40.4658, 16.4638, -10.7997, -84.7752, 6.60356
5.3, 6, -12.1587, 40.5699, 16.3423, -10.8291, -84.8529, 6.62993
5.304, 6, -12.2033, 40.6741, 16.2205, -10.8584, -84.9304, 6.65634
5.308, 6, -12.2478, 40.7784, 16.0984, -10.8875, -85.0075, 6.68277
5.312, 6, -12.2922, 40.8827, 15.9759, -10.9164, -85.0844, 6.70923
5.316, 6, -12.3364, 40.9871, 15.853, -10.9451, -85.161, 6.73571
5.32, 6, -12.3806, 41.0916, 15.7299, -10.9737, -85.2374, 6.76223
5.324, 6, -12.4247, 41.196, 15.6063, -11.0021, -85.3134, 6.78877
5.328, 6, -12.4687, 41.3006, 15.4825, -11.0304, -85.3892, 6.81535
5.332, 6, -12.5125, 41.4051, 15.3583, -11.0585, -85.4646, 6.84195
5.336, 6, -12.556, 41.5093, 15.2338, -11.0864, -85.5398, 6.86858
5.34, 6, -12.599, 41.6131, 15.1091, -11.1142, -85.6147, 6.89524
5.344, 6, -12.6415, 41.7163, 14.9843, -11.1418, -85.6893, 6.92191
5.348, 6, -12.6832, 41.8187, 14.8596, -11.1692, -85.7635, 6.94857
5.352, 6, -12.7243, 41.9203, 14.735, -11.1963, -85.8373, 6.9752
5.356, 6, -12.7646, 42.0208, 14.6108, -11.2232, -85.9105, 7.00175
5.36, 6, -12.8042, 42.1203, 14.4873, -11.2498, -85.9831, 7.02818
5.364, 6, -12.8431, 42.2185, 14.3646, -11.2761, -86.0548, 7.05442
5.368, 6, -12.8812, 42.3153, 14.2432, -11.3019, -86.1255, 7.0804
5.372, 6, -12.9183, 42.4102, 14.1235, -11.3272, -86.1949, 7.10603
5.376, 6, -12.9542, 42.503, 14.0059, -11.3519, -86.2629, 7.13122
5.38, 6, -12.989, 42.5931, 13.891, -11.3759, -86.3291, 7.15587
5.384, 6, -13.0224, 42.6803, 13.7791, -11.3992, -86.3933, 7.17986
5.388, 6, -13.0545, 42.7644, 13.6709, -11.4216, -86.4552, 7.20307
5.392, 6, -13.0854, 42.8452, 13.5668, -11.443, -86.5144, 7.22537
5.396, 6, -13.115, 42.9227, 13.4673, -11.4632, -86.5707, 7.24665
5.4, 6, -13.1434, 42.9965, 13.3727, -11.4824, -86.6238, 7.26681
5.404, 6, -13.1705, 43.0666, 13.2836, -11.5002, -86.6735, 7.28574
5.408, 6, -13.1962, 43.1327, 13.2002, -11.5168, -86.7196, 7.30339
5.412, 6, -13.2205, 43.1944, 13.1228, -11.532, -86.7621, 7.31969
5.416, 6, -13.2433, 43.2518, 13.0515, -11.5459, -86.8008, 7.33462
5.42, 6, -13.2646, 43.3046, 12.9866, -11.5584, -86.8359, 7.34816
5.424, 6, -13.2843, 43.353, 12.928, -11.5696, -86.8672, 7.3603
5.428, 6, -13.3026, 43.3971, 12.8754, -11.5795, -86.8949, 7.37109
5.432, 6, -13.3196, 43.4371, 12.8289, -11.5882, -86.9191, 7.38055
5.436, 6, -13.3352, 43.473, 12.788, -11.5956, -86.94, 7.38875
5.44, 6, -13.3495, 43.5051, 12.7525, -11.602, -86.9578, 7.39578
5.444, 6, -13.3624, 43.5334, 12.722, -11.6074, -86.9728, 7.40171
5.448, 6, -13.374, 43.5581, 12.6962, -11.6118, -86.9853, 7.40667
5.452, 6, -13.3842, 43.5793, 12.6746, -11.6155, -86.9955, 7.41075
5.456, 6, -13.3931, 43.5974, 12.6568, -11.6184, -87.0038, 7.41405
5.46, 6, -13.4009, 43.6127, 12.6424, -11.6208, -87.0103, 7.41669
5.464, 6, -13.4076, 43.6257, 12.6307, -11.6226, -87.0154, 7.41875
5.468, 6, -13.4136, 43.6366, 12.6215, -11.624, -87.0193, 7.42034
5.472, 6, -13.4189, 43.646, 12.6143, -11.625, -87.0222, 7.42153
5.476, 6, -13.4235, 43.6538, 12.6088, -11.6258, -87.0243, 7.4224
5.48, 6, -13.4274, 43.6602, 12.6047, -11.6263, -87.0258, 7.42303
5.484, 7, -13.4306, 43.6654, 12.6016, -11.6267, -87.0268, 7.42346
5.488, 7, -13.4332, 43.6694, 12.5994, -11.627, -87.0275, 7.42377
5.492, 7, -13.4351, 43.6723, 12.5979, -11.6271, -87.028, 7.42397
5.496, 7, -13.4364, 43.6743, 12.5968, -11.6273, -87.0283, 7.42412
5.5, 7, -13.4374, 43.6757, 12.5961, -11.6273, -87.0285, 7.42421
5.504, 7, -13.438, 43.6767, 12.5956, -11.6274, -87.0287, 7.42427
5.508, 7, -13.4384, 43.6773, 12.5953, -11.6274, -87.0288, 7.42432
5.512, 7, -13.4387, 43.6777, 12.5951, -11.6275, -87.0288, 7.42435
5.516, 7, -13.4389, 43.678, 12.5949, -11.6275, -87.0289, 7.42437
5.52, 7, -13.439, 43.6782, 12.5948, -11.6275, -87.0289, 7.42438
5.524, 7, -13.4391, 43.6784, 12.5948, -11.6275, -87.0289, 7.42439
5.528, 7, -13.4392, 43.6785, 12.5947, -11.6275, -87.029, 7.4244
5.532, 7, -13.4392, 43.6785, 12.5947, -11.6275, -87.029, 7.4244
5.536, 7, -13.4392, 43.6786, 12.5947, -11.6275, -87.029, 7.4244
5.54, 7, -13.4393, 43.6786, 12.5946, -11.6275, -87.029, 7.42441
5.544, 7, -13.4393, 43.6786, 12.5946, -11.6275, -87.029, 7.42441
5.548, 7, -13.4393, 43.6786, 12.5946, -11.6275, -87.029, 7.42441
5.552, 7, -13.4393, 43.6786, 12.5946, -11.6275, -87.029, 7.42441
5.556, 7, -13.4393, 43.6786, 12.5946, -11.6275, -87.029, 7.42441
5.56, 7, -13.4393, 43.6786, 12.5946, -11.6275, -87.029, 7.42441
5.564, 7, -13.4393, 43.6787, 12.5946, -11.6275, -87.029, 7.42441
5.568, 7, -13.4393, 43.6787, 12.5946, -11.6275, -87.029, 7.42441
5.572, 7, -13.4393, 43.6787, 12.5946, -11.6275, -87.029, 7.42441
5.576, 7, -13.4393, 43.6787, 12.5946, -11.6275, -87.029, 7.42441
5.58, 7, -13.4393, 43.6787, 12.5946, -11.6275, -87.029, 7.42441
5.584, 7, -13.4393, 43.6787, 12.5946, -11.6275, -87.029, 7.42441
5.588, 7, -13.4393, 43.6787, 12.5946, -11.6275, -87.029, 7.42441
5.592, 7, -13.4393, 43.6787, 12.5946, -11.6275, -87.029, 7.42441
5.596, 7, -13.4393, 43.6787, 12.5946, -11.6275, -87.029, 7.42441
5.6, 7, -13.4393, 43.6787, 12.5946, -11.6275, -87.029, 7.42441
