hehonglu123/ABB_Primitive_Study/execution/movel_30_car/curve_exe_v500_fine.csv
timestamp, cmd_num, J1, J2, J3, J4, J5, J6
0, -1, -13.4393, 43.6787, 12.5946, -11.6275, -87.029, 7.42441
0.002, -1, -13.4393, 43.6787, 12.5946, -11.6275, -87.029, 7.42441
0.006, -1, -13.4393, 43.6787, 12.5946, -11.6275, -87.029, 7.42441
0.008, -1, -13.4393, 43.6787, 12.5946, -11.6275, -87.029, 7.42441
0.011, -1, -13.4393, 43.6787, 12.5946, -11.6275, -87.029, 7.42441
0.016, -1, -13.4393, 43.6787, 12.5946, -11.6275, -87.029, 7.42441
0.02, -1, -13.4393, 43.6787, 12.5946, -11.6275, -87.029, 7.42441
0.024, -1, -13.4393, 43.6787, 12.5946, -11.6275, -87.029, 7.42441
0.028, -1, -13.4393, 43.6787, 12.5946, -11.6275, -87.029, 7.42441
0.032, -1, -13.4393, 43.6787, 12.5946, -11.6275, -87.029, 7.42441
0.036, -1, -13.4392, 43.6786, 12.5946, -11.6275, -87.029, 7.42441
0.04, -1, -13.439, 43.6785, 12.5946, -11.6275, -87.029, 7.42441
0.044, -1, -13.4384, 43.678, 12.5947, -11.6275, -87.029, 7.42439
0.048, -1, -13.4372, 43.6772, 12.5949, -11.6274, -87.0289, 7.42434
0.052, -1, -13.4355, 43.6758, 12.5951, -11.6273, -87.0287, 7.42422
0.056, -1, -13.433, 43.6738, 12.5955, -11.627, -87.0284, 7.42397
0.06, -1, -13.4296, 43.671, 12.5961, -11.6264, -87.0277, 7.42349
0.064, -1, -13.4254, 43.6675, 12.5969, -11.6253, -87.0264, 7.42266
0.068, -1, -13.4203, 43.6631, 12.598, -11.6236, -87.0244, 7.42132
0.072, -1, -13.4141, 43.6579, 12.5994, -11.6209, -87.0213, 7.41928
0.076, -1, -13.4066, 43.6516, 12.6011, -11.617, -87.0167, 7.4163
0.08, -1, -13.3977, 43.6442, 12.6034, -11.6115, -87.0103, 7.41213
0.084, -1, -13.3869, 43.6352, 12.6062, -11.604, -87.0016, 7.40644
0.088, -1, -13.3743, 43.6247, 12.6097, -11.5941, -86.9899, 7.39892
0.092, -1, -13.3596, 43.6124, 12.6138, -11.5812, -86.9748, 7.38918
0.096, -1, -13.3427, 43.5982, 12.6186, -11.5648, -86.9557, 7.37685
0.1, -1, -13.3235, 43.582, 12.6243, -11.5444, -86.9319, 7.36155
0.104, -1, -13.3019, 43.5636, 12.6308, -11.5196, -86.9029, 7.3429
0.108, -1, -13.2776, 43.5427, 12.6382, -11.4899, -86.868, 7.32054
0.112, -1, -13.2505, 43.5193, 12.6467, -11.4547, -86.8269, 7.29416
0.116, -1, -13.2206, 43.4932, 12.6562, -11.4137, -86.7789, 7.26346
0.12, -1, -13.1877, 43.4644, 12.6669, -11.3667, -86.7238, 7.22818
0.124, -1, -13.1519, 43.4328, 12.6786, -11.3132, -86.6612, 7.18814
0.128, -1, -13.113, 43.3984, 12.6916, -11.2532, -86.591, 7.14319
0.131, -1, -13.071, 43.3611, 12.7056, -11.1865, -86.5129, 7.09326
0.136, -1, -13.026, 43.321, 12.7209, -11.1131, -86.4269, 7.03835
0.139, -1, -12.9779, 43.2779, 12.7373, -11.0331, -86.3333, 6.9785
0.144, -1, -12.9267, 43.232, 12.7548, -10.9467, -86.2321, 6.91384
0.148, -1, -12.8726, 43.1833, 12.7734, -10.854, -86.1236, 6.84454
0.152, -1, -12.8155, 43.132, 12.7932, -10.7555, -86.0082, 6.77084
0.156, -1, -12.7557, 43.0781, 12.8139, -10.6514, -85.8863, 6.69301
0.16, -1, -12.6932, 43.0219, 12.8355, -10.5422, -85.7585, 6.61137
0.164, -1, -12.6282, 42.9633, 12.8581, -10.4284, -85.6253, 6.52627
0.168, -1, -12.5607, 42.9025, 12.8815, -10.3105, -85.4872, 6.43809
0.172, -1, -12.4909, 42.8396, 12.9056, -10.189, -85.3449, 6.34721
0.176, -1, -12.4189, 42.7749, 12.9305, -10.0644, -85.1989, 6.25399
0.18, -1, -12.345, 42.7085, 12.956, -9.93711, -85.0499, 6.15879
0.184, -1, -12.2694, 42.6406, 12.9821, -9.80765, -84.8983, 6.06194
0.188, -1, -12.1925, 42.5714, 13.0086, -9.6764, -84.7446, 5.96375
0.192, -1, -12.1142, 42.5011, 13.0356, -9.54373, -84.5892, 5.86449
0.196, -1, -12.0348, 42.4297, 13.0629, -9.40995, -84.4326, 5.76439
0.2, -1, -11.9542, 42.3573, 13.0906, -9.27534, -84.2749, 5.66366
0.204, -1, -11.8724, 42.2841, 13.1185, -9.14011, -84.1166, 5.56246
0.208, -1, -11.7897, 42.21, 13.1466, -9.00443, -83.9577, 5.46092
0.212, -1, -11.7061, 42.1354, 13.1749, -8.86843, -83.7985, 5.35913
0.216, -1, -11.6218, 42.0602, 13.2033, -8.7322, -83.6389, 5.25717
0.22, -1, -11.5371, 41.9847, 13.2318, -8.5958, -83.4792, 5.15507
0.224, -1, -11.452, 41.909, 13.2603, -8.45928, -83.3194, 5.05288
0.228, -1, -11.3667, 41.8332, 13.2889, -8.32266, -83.1594, 4.95062
0.232, -1, -11.2813, 41.7572, 13.3176, -8.18597, -82.9993, 4.8483
0.236, -1, -11.1957, 41.6811, 13.3462, -8.04922, -82.8392, 4.74595
0.24, -1, -11.11, 41.605, 13.3749, -7.91243, -82.679, 4.64355
0.244, -1, -11.0243, 41.5288, 13.4035, -7.77561, -82.5188, 4.54114
0.248, -1, -10.9386, 41.4526, 13.4322, -7.63876, -82.3586, 4.4387
0.252, -1, -10.8528, 41.3764, 13.4609, -7.50189, -82.1983, 4.33625
0.256, -1, -10.767, 41.3002, 13.4896, -7.36501, -82.0381, 4.2338
0.26, -1, -10.6811, 41.2239, 13.5183, -7.22813, -81.8778, 4.13133
0.264, -1, -10.5953, 41.1477, 13.547, -7.09125, -81.7175, 4.02887
0.268, -1, -10.5094, 41.0714, 13.5757, -6.95436, -81.5572, 3.92641
0.272, -1, -10.4236, 40.9952, 13.6044, -6.81749, -81.397, 3.82396
0.276, -1, -10.3378, 40.9189, 13.6331, -6.68063, -81.2367, 3.72151
0.28, -1, -10.252, 40.8427, 13.6618, -6.54379, -81.0765, 3.61908
0.284, -1, -10.1661, 40.7665, 13.6904, -6.40697, -80.9163, 3.51666
0.288, -1, -10.0803, 40.6903, 13.7191, -6.27017, -80.7561, 3.41427
0.292, -1, -9.99456, 40.6141, 13.7478, -6.13341, -80.596, 3.31189
0.296, -1, -9.9088, 40.538, 13.7764, -5.99668, -80.4359, 3.20955
0.3, -1, -9.82306, 40.4618, 13.8051, -5.85999, -80.2758, 3.10723
0.304, -1, -9.73734, 40.3857, 13.8337, -5.72334, -80.1158, 3.00494
0.308, -1, -9.65166, 40.3096, 13.8624, -5.58674, -79.9558, 2.90269
0.312, -1, -9.566, 40.2336, 13.891, -5.45019, -79.796, 2.80048
0.316, -1, -9.48038, 40.1575, 13.9196, -5.31369, -79.6361, 2.69831
0.32, -1, -9.3948, 40.0815, 13.9482, -5.17726, -79.4764, 2.59618
0.324, -1, -9.30925, 40.0055, 13.9768, -5.04089, -79.3167, 2.4941
0.328, -1, -9.22375, 39.9296, 14.0054, -4.90458, -79.1571, 2.39207
0.332, -1, -9.13829, 39.8537, 14.0339, -4.76835, -78.9976, 2.2901
0.336, -1, -9.05287, 39.7778, 14.0625, -4.63219, -78.8382, 2.18818
0.34, -1, -8.9675, 39.702, 14.091, -4.49612, -78.6788, 2.08632
0.344, -1, -8.88219, 39.6262, 14.1195, -4.36012, -78.5196, 1.98452
0.348, -1, -8.79692, 39.5505, 14.148, -4.22421, -78.3604, 1.88279
0.352, -1, -8.71172, 39.4748, 14.1765, -4.0884, -78.2014, 1.78113
0.356, -1, -8.62657, 39.3992, 14.2049, -3.95267, -78.0425, 1.67953
0.36, -1, -8.54148, 39.3236, 14.2334, -3.81705, -77.8837, 1.57801
0.364, -1, -8.45646, 39.2481, 14.2618, -3.68152, -77.725, 1.47657
0.368, -1, -8.3715, 39.1727, 14.2902, -3.54611, -77.5664, 1.3752
0.372, -1, -8.28661, 39.0973, 14.3185, -3.4108, -77.408, 1.27392
0.376, -1, -8.20179, 39.0219, 14.3469, -3.2756, -77.2497, 1.17272
0.38, -1, -8.11704, 38.9467, 14.3752, -3.14052, -77.0915, 1.07161
0.384, -1, -8.03237, 38.8715, 14.4035, -3.00557, -76.9335, 0.970588
0.388, -1, -7.94777, 38.7963, 14.4318, -2.87073, -76.7756, 0.869659
0.392, -1, -7.86325, 38.7212, 14.46, -2.73602, -76.6179, 0.768825
0.396, -1, -7.77881, 38.6463, 14.4882, -2.60145, -76.4603, 0.668089
0.4, -1, -7.69446, 38.5713, 14.5164, -2.467, -76.3029, 0.567454
0.404, -1, -7.61019, 38.4965, 14.5446, -2.3327, -76.1456, 0.466921
0.408, -1, -7.526, 38.4217, 14.5727, -2.19854, -75.9885, 0.366494
0.412, -1, -7.44191, 38.347, 14.6008, -2.06452, -75.8316, 0.266176
0.416, -1, -7.35791, 38.2724, 14.6288, -1.93064, -75.6748, 0.165968
0.42, -1, -7.274, 38.1979, 14.6569, -1.79692, -75.5183, 0.0658724
0.424, -1, -7.19019, 38.1235, 14.6849, -1.66336, -75.3619, -0.0341072
0.428, -1, -7.10648, 38.0491, 14.7128, -1.52995, -75.2057, -0.133969
0.432, -1, -7.02287, 37.9748, 14.7408, -1.3967, -75.0496, -0.233711
0.436, -1, -6.93935, 37.9007, 14.7687, -1.26362, -74.8938, -0.33333
0.44, -1, -6.85595, 37.8266, 14.7965, -1.1307, -74.7382, -0.432824
0.444, -1, -6.77264, 37.7526, 14.8244, -0.99795, -74.5827, -0.532191
0.448, -1, -6.68945, 37.6787, 14.8522, -0.865375, -74.4275, -0.631429
0.452, -1, -6.60636, 37.6049, 14.8799, -0.732975, -74.2725, -0.730535
0.456, -1, -6.52339, 37.5312, 14.9077, -0.600755, -74.1176, -0.829507
0.46, -1, -6.44053, 37.4576, 14.9353, -0.468716, -73.963, -0.928344
0.464, -1, -6.35778, 37.3842, 14.963, -0.336861, -73.8086, -1.02704
0.468, -1, -6.27515, 37.3108, 14.9906, -0.205193, -73.6545, -1.1256
0.472, -1, -6.19264, 37.2375, 15.0181, -0.0737153, -73.5005, -1.22402
0.476, -1, -6.11024, 37.1643, 15.0457, 0.0575699, -73.3468, -1.32229
0.48, -1, -6.02797, 37.0912, 15.0732, 0.18866, -73.1933, -1.42042
0.484, -1, -5.94582, 37.0183, 15.1006, 0.319552, -73.04, -1.51839
0.488, -1, -5.8638, 36.9454, 15.128, 0.450244, -72.887, -1.61622
0.492, -1, -5.7819, 36.8727, 15.1554, 0.580734, -72.7342, -1.7139
0.496, -1, -5.70012, 36.8001, 15.1827, 0.711018, -72.5817, -1.81142
0.5, -1, -5.61848, 36.7276, 15.2099, 0.841096, -72.4294, -1.90879
0.504, -1, -5.53697, 36.6552, 15.2372, 0.970964, -72.2773, -2.006
0.508, -1, -5.45558, 36.5829, 15.2644, 1.10062, -72.1255, -2.10306
0.512, -1, -5.37433, 36.5108, 15.2915, 1.23006, -71.9739, -2.19995
0.516, -1, -5.29321, 36.4387, 15.3186, 1.35929, -71.8226, -2.29668
0.52, -1, -5.21223, 36.3668, 15.3456, 1.4883, -71.6715, -2.39325
0.524, -1, -5.13138, 36.295, 15.3726, 1.6171, -71.5207, -2.48966
0.528, -1, -5.05067, 36.2233, 15.3996, 1.74567, -71.3702, -2.5859
0.532, -1, -4.97009, 36.1518, 15.4265, 1.87402, -71.2199, -2.68198
0.536, -1, -4.88966, 36.0803, 15.4534, 2.00215, -71.0698, -2.77789
0.54, -1, -4.80936, 36.009, 15.4802, 2.13005, -70.9201, -2.87363
0.544, -1, -4.7292, 35.9378, 15.507, 2.25773, -70.7706, -2.9692
0.548, -1, -4.64919, 35.8668, 15.5337, 2.38518, -70.6213, -3.0646
0.552, -1, -4.56931, 35.7959, 15.5604, 2.51241, -70.4724, -3.15984
0.556, -1, -4.48958, 35.725, 15.587, 2.6394, -70.3237, -3.2549
0.56, -1, -4.41, 35.6544, 15.6136, 2.76617, -70.1752, -3.34979
0.564, -1, -4.33056, 35.5838, 15.6401, 2.8927, -70.0271, -3.44451
0.568, -1, -4.25126, 35.5134, 15.6666, 3.01901, -69.8792, -3.53905
0.572, -1, -4.17211, 35.4431, 15.693, 3.14508, -69.7316, -3.63342
0.576, -1, -4.0931, 35.373, 15.7194, 3.27092, -69.5842, -3.72761
0.58, -1, -4.01424, 35.3029, 15.7458, 3.39652, -69.4372, -3.82163
0.584, -1, -3.93553, 35.233, 15.772, 3.52189, -69.2904, -3.91547
0.588, -1, -3.85696, 35.1633, 15.7983, 3.64702, -69.1438, -4.00914
0.592, -1, -3.77855, 35.0936, 15.8245, 3.77191, -68.9976, -4.10263
0.596, -1, -3.70028, 35.0241, 15.8506, 3.89657, -68.8516, -4.19594
0.6, -1, -3.62216, 34.9548, 15.8767, 4.02099, -68.7059, -4.28908
0.604, -1, -3.54419, 34.8855, 15.9027, 4.14517, -68.5605, -4.38203
0.608, -1, -3.46637, 34.8164, 15.9287, 4.26911, -68.4154, -4.47481
0.612, -1, -3.3887, 34.7474, 15.9547, 4.39281, -68.2706, -4.5674
0.616, -1, -3.31118, 34.6786, 15.9806, 4.51628, -68.126, -4.65982
0.62, -1, -3.23382, 34.6099, 16.0064, 4.63949, -67.9817, -4.75205
0.624, -1, -3.1566, 34.5413, 16.0322, 4.76247, -67.8377, -4.84411
0.628, -1, -3.07954, 34.4729, 16.0579, 4.88521, -67.694, -4.93598
0.632, -1, -3.00262, 34.4046, 16.0836, 5.0077, -67.5506, -5.02767
0.636, -1, -2.92586, 34.3364, 16.1092, 5.12995, -67.4074, -5.11918
0.64, -1, -2.84926, 34.2684, 16.1348, 5.25195, -67.2646, -5.2105
0.644, -1, -2.7728, 34.2005, 16.1604, 5.37371, -67.122, -5.30165
0.648, -1, -2.6965, 34.1328, 16.1858, 5.49523, -66.9797, -5.39261
0.652, -1, -2.62035, 34.0652, 16.2113, 5.6165, -66.8377, -5.48338
0.656, -1, -2.54436, 33.9977, 16.2366, 5.73753, -66.696, -5.57398
0.66, -1, -2.46852, 33.9303, 16.262, 5.85831, -66.5546, -5.66439
0.664, -1, -2.39283, 33.8631, 16.2872, 5.97884, -66.4135, -5.75461
0.668, -1, -2.3173, 33.7961, 16.3125, 6.09913, -66.2726, -5.84465
0.672, -1, -2.24192, 33.7291, 16.3376, 6.21917, -66.1321, -5.93451
0.676, -1, -2.1667, 33.6623, 16.3628, 6.33897, -65.9918, -6.02418
0.68, -1, -2.09163, 33.5957, 16.3878, 6.45851, -65.8518, -6.11367
0.684, -1, -2.01672, 33.5292, 16.4129, 6.57781, -65.7121, -6.20297
0.688, -1, -1.94196, 33.4628, 16.4378, 6.69687, -65.5727, -6.29208
0.692, -1, -1.86736, 33.3965, 16.4627, 6.81567, -65.4336, -6.38101
0.696, -1, -1.79291, 33.3304, 16.4876, 6.93423, -65.2948, -6.46976
0.7, -1, -1.71862, 33.2645, 16.5124, 7.05254, -65.1562, -6.55832
0.704, -1, -1.64448, 33.1986, 16.5372, 7.1706, -65.018, -6.64669
0.708, -1, -1.5705, 33.1329, 16.5619, 7.28841, -64.8801, -6.73488
0.712, -1, -1.49668, 33.0674, 16.5865, 7.40597, -64.7424, -6.82288
0.716, -1, -1.42301, 33.002, 16.6111, 7.52329, -64.605, -6.9107
0.72, -1, -1.34949, 32.9367, 16.6357, 7.64036, -64.468, -6.99833
0.724, -1, -1.27614, 32.8715, 16.6602, 7.75718, -64.3312, -7.08577
0.728, -1, -1.20293, 32.8065, 16.6846, 7.87375, -64.1947, -7.17303
0.732, -1, -1.12989, 32.7417, 16.709, 7.99007, -64.0585, -7.2601
0.736, -1, -1.057, 32.677, 16.7333, 8.10615, -63.9226, -7.34699
0.74, -1, -0.984259, 32.6124, 16.7576, 8.22197, -63.7869, -7.43369
0.744, -1, -0.911678, 32.5479, 16.7819, 8.33755, -63.6516, -7.52021
0.748, -1, -0.839252, 32.4836, 16.8061, 8.45288, -63.5166, -7.60653
0.752, -1, -0.766981, 32.4194, 16.8302, 8.56796, -63.3818, -7.69268
0.756, -1, -0.694864, 32.3554, 16.8543, 8.6828, -63.2474, -7.77864
0.76, -1, -0.622901, 32.2915, 16.8783, 8.79738, -63.1132, -7.86441
0.764, -1, -0.551092, 32.2277, 16.9023, 8.91172, -62.9793, -7.95
0.768, -1, -0.479437, 32.1641, 16.9262, 9.02582, -62.8457, -8.0354
0.772, -1, -0.407935, 32.1006, 16.9501, 9.13966, -62.7124, -8.12062
0.776, -1, -0.336586, 32.0373, 16.9739, 9.25326, -62.5794, -8.20566
0.78, -1, -0.26539, 31.9741, 16.9977, 9.36662, -62.4467, -8.29051
0.784, -1, -0.194346, 31.911, 17.0214, 9.47973, -62.3142, -8.37518
0.788, -1, -0.123455, 31.848, 17.0451, 9.5926, -62.182, -8.45966
0.792, -1, -0.0527154, 31.7852, 17.0687, 9.70522, -62.0502, -8.54397
0.796, -1, 0.0178725, 31.7226, 17.0923, 9.81761, -61.9186, -8.62809
0.8, -1, 0.0883091, 31.66, 17.1158, 9.92975, -61.7873, -8.71204
0.804, -1, 0.158595, 31.5976, 17.1393, 10.0417, -61.6562, -8.7958
0.808, -1, 0.22873, 31.5353, 17.1627, 10.1533, -61.5255, -8.87938
0.812, -1, 0.298716, 31.4732, 17.186, 10.2647, -61.395, -8.96279
0.816, -1, 0.368552, 31.4112, 17.2094, 10.3759, -61.2648, -9.04602
0.82, -1, 0.438239, 31.3493, 17.2326, 10.4869, -61.1349, -9.12907
0.824, -1, 0.507778, 31.2876, 17.2559, 10.5976, -61.0053, -9.21194
0.828, -1, 0.577169, 31.226, 17.279, 10.7081, -60.8759, -9.29464
0.832, -1, 0.646413, 31.1645, 17.3021, 10.8183, -60.7468, -9.37716
0.836, -1, 0.71551, 31.1031, 17.3252, 10.9283, -60.618, -9.45951
0.84, -1, 0.78446, 31.0419, 17.3482, 11.0381, -60.4895, -9.54168
0.844, -1, 0.853266, 30.9808, 17.3712, 11.1476, -60.3612, -9.62368
0.848, -1, 0.921925, 30.9199, 17.3941, 11.2569, -60.2332, -9.7055
0.852, -1, 0.990441, 30.859, 17.417, 11.366, -60.1055, -9.78716
0.856, -1, 1.05881, 30.7983, 17.4398, 11.4749, -59.9781, -9.86864
0.86, -1, 1.12704, 30.7378, 17.4626, 11.5835, -59.8509, -9.94995
0.864, -1, 1.19512, 30.6773, 17.4854, 11.6919, -59.7239, -10.0311
0.868, -1, 1.26307, 30.617, 17.508, 11.8001, -59.5973, -10.1121
0.872, -1, 1.33087, 30.5568, 17.5307, 11.908, -59.4709, -10.1929
0.876, -1, 1.39853, 30.4967, 17.5533, 12.0157, -59.3448, -10.2735
0.88, -1, 1.46604, 30.4368, 17.5758, 12.1232, -59.2189, -10.354
0.884, -1, 1.53342, 30.377, 17.5983, 12.2305, -59.0933, -10.4343
0.888, -1, 1.60066, 30.3173, 17.6208, 12.3375, -58.9679, -10.5144
0.892, -1, 1.66775, 30.2577, 17.6432, 12.4444, -58.8429, -10.5943
0.896, -1, 1.73471, 30.1982, 17.6655, 12.551, -58.718, -10.6741
0.9, -1, 1.80153, 30.1389, 17.6878, 12.6574, -58.5935, -10.7538
0.904, -1, 1.86821, 30.0797, 17.7101, 12.7635, -58.4692, -10.8332
0.908, -1, 1.93476, 30.0206, 17.7323, 12.8695, -58.3451, -10.9125
0.912, -1, 2.00117, 29.9617, 17.7545, 12.9752, -58.2213, -10.9917
0.916, -1, 2.06744, 29.9028, 17.7766, 13.0807, -58.0978, -11.0707
0.92, -1, 2.13357, 29.8441, 17.7987, 13.186, -57.9745, -11.1495
0.924, -1, 2.19957, 29.7855, 17.8207, 13.2911, -57.8514, -11.2281
0.928, -1, 2.26543, 29.727, 17.8427, 13.3959, -57.7287, -11.3066
0.932, -1, 2.33116, 29.6687, 17.8647, 13.5006, -57.6061, -11.385
0.936, -1, 2.39676, 29.6104, 17.8866, 13.605, -57.4838, -11.4631
0.94, -1, 2.46222, 29.5523, 17.9084, 13.7092, -57.3618, -11.5412
0.944, -1, 2.52755, 29.4943, 17.9303, 13.8133, -57.24, -11.619
0.948, -1, 2.59275, 29.4364, 17.952, 13.9171, -57.1185, -11.6967
0.952, -1, 2.65781, 29.3787, 17.9738, 14.0206, -56.9972, -11.7743
0.956, -1, 2.72274, 29.321, 17.9954, 14.124, -56.8761, -11.8516
0.96, -1, 2.78755, 29.2635, 18.0171, 14.2272, -56.7553, -11.9289
0.964, -1, 2.85222, 29.2061, 18.0387, 14.3302, -56.6348, -12.0059
0.968, -1, 2.91676, 29.1488, 18.0602, 14.4329, -56.5144, -12.0829
0.972, -1, 2.98117, 29.0916, 18.0817, 14.5355, -56.3944, -12.1596
0.976, -1, 3.04545, 29.0345, 18.1032, 14.6378, -56.2745, -12.2362
0.98, -1, 3.10961, 28.9775, 18.1246, 14.7399, -56.1549, -12.3127
0.984, -1, 3.17363, 28.9207, 18.146, 14.8419, -56.0356, -12.389
0.988, -1, 3.23753, 28.864, 18.1673, 14.9436, -55.9165, -12.4651
0.992, -1, 3.3013, 28.8074, 18.1886, 15.0451, -55.7976, -12.5411
0.996, -1, 3.36494, 28.7508, 18.2099, 15.1465, -55.6789, -12.617
1, -1, 3.42846, 28.6945, 18.2311, 15.2476, -55.5605, -12.6927
1.004, -1, 3.49185, 28.6382, 18.2523, 15.3485, -55.4423, -12.7682
1.008, -1, 3.55512, 28.582, 18.2734, 15.4492, -55.3244, -12.8436
1.012, -1, 3.61826, 28.5259, 18.2945, 15.5498, -55.2067, -12.9189
1.016, -1, 3.68127, 28.47, 18.3155, 15.6501, -55.0892, -12.994
1.02, -1, 3.74416, 28.4142, 18.3365, 15.7502, -54.972, -13.0689
1.024, -1, 3.80693, 28.3584, 18.3575, 15.8502, -54.855, -13.1437
1.027, -1, 3.86958, 28.3028, 18.3784, 15.9499, -54.7382, -13.2184
1.032, -1, 3.9321, 28.2473, 18.3993, 16.0494, -54.6216, -13.2929
1.036, -1, 3.9945, 28.1919, 18.4201, 16.1488, -54.5053, -13.3673
1.04, -1, 4.05678, 28.1366, 18.4409, 16.2479, -54.3892, -13.4415
1.044, -1, 4.11893, 28.0814, 18.4616, 16.3469, -54.2733, -13.5156
1.048, -1, 4.18097, 28.0263, 18.4824, 16.4457, -54.1577, -13.5895
1.052, -1, 4.24289, 27.9714, 18.503, 16.5442, -54.0422, -13.6633
1.055, -1, 4.30468, 27.9165, 18.5237, 16.6426, -53.927, -13.7369
1.06, -1, 4.36636, 27.8617, 18.5443, 16.7408, -53.8121, -13.8104
1.064, -1, 4.42792, 27.8071, 18.5648, 16.8388, -53.6973, -13.8838
1.068, -1, 4.48936, 27.7525, 18.5853, 16.9366, -53.5828, -13.957
1.072, -1, 4.55068, 27.6981, 18.6058, 17.0343, -53.4685, -14.0301
1.076, -1, 4.61188, 27.6438, 18.6262, 17.1317, -53.3544, -14.103
1.08, -1, 4.67297, 27.5895, 18.6466, 17.229, -53.2405, -14.1758
1.084, -1, 4.73394, 27.5354, 18.667, 17.326, -53.1268, -14.2485
1.088, -1, 4.7948, 27.4814, 18.6873, 17.4229, -53.0134, -14.321
1.091, -1, 4.85554, 27.4274, 18.7076, 17.5196, -52.9002, -14.3934
1.096, -1, 4.91617, 27.3736, 18.7278, 17.6161, -52.7871, -14.4656
1.1, -1, 4.97668, 27.3199, 18.7481, 17.7125, -52.6743, -14.5378
1.104, -1, 5.03708, 27.2663, 18.7682, 17.8086, -52.5618, -14.6097
1.108, -1, 5.09737, 27.2127, 18.7883, 17.9046, -52.4494, -14.6816
1.112, -1, 5.15754, 27.1593, 18.8084, 18.0004, -52.3372, -14.7533
1.116, -1, 5.2176, 27.106, 18.8285, 18.096, -52.2253, -14.8249
1.119, -1, 5.27755, 27.0528, 18.8485, 18.1915, -52.1135, -14.8963
1.124, -1, 5.33739, 26.9996, 18.8685, 18.2867, -52.0019, -14.9676
1.128, -1, 5.39712, 26.9466, 18.8884, 18.3818, -51.8906, -15.0388
1.132, -1, 5.45673, 26.8937, 18.9083, 18.4767, -51.7795, -15.1098
1.136, -1, 5.51624, 26.8408, 18.9282, 18.5715, -51.6685, -15.1807
1.14, -1, 5.57564, 26.7881, 18.948, 18.666, -51.5578, -15.2515
1.144, -1, 5.63493, 26.7355, 18.9678, 18.7604, -51.4473, -15.3222
1.147, -1, 5.69412, 26.6829, 18.9876, 18.8547, -51.337, -15.3927
1.152, -1, 5.75319, 26.6305, 19.0073, 18.9487, -51.2268, -15.4631
1.156, -1, 5.81216, 26.5781, 19.027, 19.0426, -51.1169, -15.5334
1.16, -1, 5.87103, 26.5259, 19.0467, 19.1363, -51.0072, -15.6035
1.164, -1, 5.92979, 26.4737, 19.0663, 19.2298, -50.8976, -15.6736
1.168, -1, 5.98844, 26.4216, 19.0859, 19.3232, -50.7883, -15.7435
1.172, -1, 6.04699, 26.3696, 19.1054, 19.4164, -50.6792, -15.8132
1.175, -1, 6.10543, 26.3177, 19.1249, 19.5095, -50.5702, -15.8829
1.18, -1, 6.16377, 26.266, 19.1444, 19.6024, -50.4614, -15.9524
1.184, -1, 6.22201, 26.2142, 19.1639, 19.6951, -50.3529, -16.0218
1.188, -1, 6.28015, 26.1626, 19.1833, 19.7876, -50.2445, -16.0911
1.192, -1, 6.33818, 26.1111, 19.2027, 19.88, -50.1363, -16.1603
1.196, -1, 6.39611, 26.0597, 19.222, 19.9723, -50.0283, -16.2293
1.2, -1, 6.45394, 26.0083, 19.2413, 20.0643, -49.9205, -16.2982
1.204, -1, 6.51167, 25.9571, 19.2606, 20.1562, -49.8129, -16.367
1.208, -1, 6.5693, 25.9059, 19.2798, 20.248, -49.7055, -16.4357
1.212, -1, 6.62683, 25.8548, 19.299, 20.3396, -49.5982, -16.5042
1.216, -1, 6.68426, 25.8038, 19.3182, 20.431, -49.4912, -16.5727
1.22, -1, 6.74159, 25.7529, 19.3374, 20.5223, -49.3843, -16.641
1.224, -1, 6.79882, 25.7021, 19.3565, 20.6134, -49.2776, -16.7092
1.228, -1, 6.85596, 25.6514, 19.3756, 20.7044, -49.1711, -16.7773
1.232, -1, 6.91299, 25.6008, 19.3946, 20.7952, -49.0648, -16.8453
1.236, -1, 6.96993, 25.5502, 19.4136, 20.8858, -48.9586, -16.9131
1.24, -1, 7.02678, 25.4997, 19.4326, 20.9763, -48.8526, -16.9809
1.244, -1, 7.08352, 25.4494, 19.4515, 21.0667, -48.7469, -17.0485
1.248, -1, 7.14018, 25.3991, 19.4705, 21.1569, -48.6413, -17.116
1.252, -1, 7.19673, 25.3488, 19.4893, 21.2469, -48.5358, -17.1834
1.256, -1, 7.25319, 25.2987, 19.5082, 21.3368, -48.4306, -17.2507
1.26, -1, 7.30956, 25.2487, 19.527, 21.4266, -48.3255, -17.3179
1.264, -1, 7.36583, 25.1987, 19.5458, 21.5161, -48.2206, -17.385
1.267, -1, 7.42201, 25.1488, 19.5646, 21.6056, -48.1158, -17.4519
1.272, -1, 7.4781, 25.099, 19.5833, 21.6949, -48.0113, -17.5188
1.276, -1, 7.53409, 25.0493, 19.602, 21.784, -47.9069, -17.5855
1.28, -1, 7.58999, 24.9997, 19.6207, 21.873, -47.8027, -17.6521
1.284, -1, 7.6458, 24.9501, 19.6393, 21.9619, -47.6986, -17.7186
1.288, -1, 7.70152, 24.9007, 19.6579, 22.0506, -47.5948, -17.785
1.292, -1, 7.75715, 24.8513, 19.6765, 22.1392, -47.4911, -17.8513
1.295, -1, 7.81268, 24.802, 19.695, 22.2276, -47.3875, -17.9175
1.3, -1, 7.86813, 24.7528, 19.7135, 22.3159, -47.2842, -17.9836
1.304, -1, 7.92348, 24.7036, 19.732, 22.404, -47.181, -18.0496
1.308, -1, 7.97875, 24.6545, 19.7505, 22.492, -47.0779, -18.1154
1.312, -1, 8.03393, 24.6055, 19.7689, 22.5798, -46.9751, -18.1812
1.316, -1, 8.08901, 24.5566, 19.7873, 22.6675, -46.8724, -18.2468
1.32, -1, 8.14401, 24.5078, 19.8057, 22.7551, -46.7699, -18.3124
1.324, -1, 8.19893, 24.4591, 19.824, 22.8425, -46.6675, -18.3778
1.328, -1, 8.25375, 24.4104, 19.8423, 22.9298, -46.5653, -18.4432
1.332, -1, 8.30849, 24.3618, 19.8606, 23.017, -46.4632, -18.5084
1.336, -1, 8.36314, 24.3133, 19.8788, 23.104, -46.3614, -18.5735
1.34, -1, 8.4177, 24.2648, 19.8971, 23.1909, -46.2596, -18.6386
1.344, -1, 8.47218, 24.2165, 19.9153, 23.2776, -46.1581, -18.7035
1.348, -1, 8.52657, 24.1682, 19.9334, 23.3642, -46.0567, -18.7683
1.352, -1, 8.58088, 24.1199, 19.9515, 23.4507, -45.9554, -18.833
1.356, -1, 8.6351, 24.0718, 19.9697, 23.537, -45.8543, -18.8976
1.36, -1, 8.68923, 24.0237, 19.9877, 23.6232, -45.7534, -18.9622
1.364, -1, 8.74328, 23.9757, 20.0058, 23.7092, -45.6526, -19.0266
1.368, -1, 8.79725, 23.9278, 20.0238, 23.7952, -45.552, -19.0909
1.372, -1, 8.85114, 23.88, 20.0418, 23.881, -45.4516, -19.1551
1.376, -1, 8.90494, 23.8322, 20.0598, 23.9666, -45.3513, -19.2192
1.38, -1, 8.95866, 23.7845, 20.0777, 24.0521, -45.2511, -19.2833
1.384, -1, 9.01229, 23.7369, 20.0956, 24.1375, -45.1511, -19.3472
1.388, -1, 9.06584, 23.6894, 20.1135, 24.2228, -45.0513, -19.411
1.392, -1, 9.11932, 23.6419, 20.1314, 24.3079, -44.9516, -19.4747
1.396, -1, 9.1727, 23.5945, 20.1492, 24.393, -44.8521, -19.5384
1.4, -1, 9.22601, 23.5472, 20.167, 24.4778, -44.7527, -19.6019
1.404, -1, 9.27924, 23.4999, 20.1848, 24.5626, -44.6535, -19.6653
1.408, -1, 9.33239, 23.4527, 20.2025, 24.6472, -44.5544, -19.7287
1.412, -1, 9.38546, 23.4056, 20.2202, 24.7317, -44.4554, -19.7919
1.416, -1, 9.43844, 23.3585, 20.2379, 24.8161, -44.3567, -19.8551
1.42, -1, 9.49135, 23.3116, 20.2556, 24.9003, -44.258, -19.9181
1.424, -1, 9.54418, 23.2647, 20.2732, 24.9844, -44.1595, -19.9811
1.428, -1, 9.59693, 23.2178, 20.2908, 25.0684, -44.0612, -20.044
1.432, -1, 9.6496, 23.1711, 20.3084, 25.1523, -43.963, -20.1067
1.436, -1, 9.7022, 23.1244, 20.326, 25.236, -43.865, -20.1694
1.44, -1, 9.75472, 23.0777, 20.3435, 25.3196, -43.767, -20.232
1.444, -1, 9.80716, 23.0312, 20.361, 25.4031, -43.6693, -20.2945
1.448, -1, 9.85952, 22.9847, 20.3785, 25.4865, -43.5717, -20.3569
1.452, -1, 9.91181, 22.9383, 20.396, 25.5697, -43.4742, -20.4192
1.456, -1, 9.96403, 22.8919, 20.4134, 25.6528, -43.3769, -20.4814
1.46, -1, 10.0162, 22.8456, 20.4308, 25.7358, -43.2797, -20.5436
1.464, -1, 10.0682, 22.7994, 20.4482, 25.8187, -43.1826, -20.6056
1.468, -1, 10.1202, 22.7533, 20.4656, 25.9015, -43.0857, -20.6676
1.472, -1, 10.1721, 22.7072, 20.4829, 25.9841, -42.989, -20.7294
1.476, -1, 10.224, 22.6612, 20.5002, 26.0666, -42.8923, -20.7912
1.48, -1, 10.2757, 22.6152, 20.5175, 26.149, -42.7958, -20.8529
1.484, -1, 10.3274, 22.5693, 20.5348, 26.2313, -42.6995, -20.9145
1.488, -1, 10.379, 22.5235, 20.552, 26.3135, -42.6033, -20.976
1.492, -1, 10.4306, 22.4777, 20.5692, 26.3956, -42.5072, -21.0374
1.496, -1, 10.482, 22.432, 20.5864, 26.4775, -42.4113, -21.0987
1.5, -1, 10.5334, 22.3864, 20.6035, 26.5593, -42.3154, -21.16
1.504, -1, 10.5848, 22.3408, 20.6207, 26.641, -42.2198, -21.2212
1.508, -1, 10.636, 22.2953, 20.6378, 26.7226, -42.1242, -21.2822
1.512, -1, 10.6872, 22.2499, 20.6549, 26.8041, -42.0288, -21.3432
1.516, -1, 10.7383, 22.2045, 20.6719, 26.8855, -41.9336, -21.4041
1.52, -1, 10.7893, 22.1592, 20.689, 26.9667, -41.8384, -21.4649
1.524, -1, 10.8403, 22.114, 20.706, 27.0479, -41.7434, -21.5257
1.528, -1, 10.8912, 22.0688, 20.723, 27.1289, -41.6485, -21.5863
1.532, -1, 10.942, 22.0237, 20.74, 27.2098, -41.5538, -21.6469
1.536, -1, 10.9928, 21.9786, 20.7569, 27.2906, -41.4592, -21.7074
1.54, -1, 11.0435, 21.9336, 20.7738, 27.3713, -41.3647, -21.7678
1.544, -1, 11.0941, 21.8887, 20.7908, 27.4519, -41.2703, -21.8281
1.548, -1, 11.1446, 21.8438, 20.8076, 27.5324, -41.1761, -21.8884
1.552, -1, 11.1951, 21.799, 20.8245, 27.6127, -41.082, -21.9485
1.556, -1, 11.2455, 21.7542, 20.8413, 27.693, -40.988, -22.0086
1.56, -1, 11.2959, 21.7095, 20.8581, 27.7732, -40.8941, -22.0686
1.564, -1, 11.3462, 21.6649, 20.8749, 27.8532, -40.8004, -22.1285
1.568, -1, 11.3964, 21.6203, 20.8917, 27.9331, -40.7068, -22.1884
1.572, -1, 11.4465, 21.5758, 20.9084, 28.013, -40.6133, -22.2481
1.576, -1, 11.4966, 21.5313, 20.9251, 28.0927, -40.52, -22.3078
1.58, -1, 11.5466, 21.4869, 20.9418, 28.1723, -40.4268, -22.3674
1.584, -1, 11.5965, 21.4426, 20.9585, 28.2518, -40.3336, -22.4269
1.588, -1, 11.6464, 21.3983, 20.9752, 28.3313, -40.2407, -22.4864
1.592, -1, 11.6962, 21.3541, 20.9918, 28.4106, -40.1478, -22.5457
1.596, -1, 11.746, 21.3099, 21.0084, 28.4898, -40.0551, -22.605
1.6, -1, 11.7957, 21.2658, 21.025, 28.5689, -39.9624, -22.6642
1.604, -1, 11.8453, 21.2217, 21.0416, 28.6479, -39.8699, -22.7234
1.608, -1, 11.8948, 21.1778, 21.0581, 28.7268, -39.7776, -22.7824
1.612, -1, 11.9443, 21.1338, 21.0747, 28.8055, -39.6853, -22.8414
1.616, -1, 11.9938, 21.0899, 21.0912, 28.8842, -39.5932, -22.9003
1.62, -1, 12.0431, 21.0461, 21.1076, 28.9628, -39.5011, -22.9591
1.624, -1, 12.0924, 21.0023, 21.1241, 29.0413, -39.4092, -23.0179
1.628, -1, 12.1417, 20.9586, 21.1405, 29.1197, -39.3174, -23.0765
1.632, -1, 12.1908, 20.915, 21.157, 29.198, -39.2258, -23.1352
1.636, -1, 12.2399, 20.8714, 21.1734, 29.2762, -39.1342, -23.1937
1.64, -1, 12.289, 20.8278, 21.1897, 29.3543, -39.0428, -23.2521
1.644, -1, 12.338, 20.7843, 21.2061, 29.4323, -38.9515, -23.3105
1.648, -1, 12.3869, 20.7409, 21.2224, 29.5102, -38.8603, -23.3688
1.652, -1, 12.4358, 20.6975, 21.2388, 29.588, -38.7692, -23.4271
1.656, -1, 12.4846, 20.6542, 21.2551, 29.6657, -38.6782, -23.4852
1.66, -1, 12.5333, 20.6109, 21.2713, 29.7433, -38.5873, -23.5433
1.664, -1, 12.582, 20.5677, 21.2876, 29.8208, -38.4966, -23.6013
1.668, -1, 12.6306, 20.5245, 21.3038, 29.8982, -38.4059, -23.6593
1.672, -1, 12.6792, 20.4814, 21.32, 29.9755, -38.3154, -23.7171
1.676, -1, 12.7277, 20.4384, 21.3362, 30.0527, -38.225, -23.7749
1.68, -1, 12.7761, 20.3953, 21.3524, 30.1298, -38.1347, -23.8327
1.684, -1, 12.8245, 20.3524, 21.3686, 30.2069, -38.0445, -23.8903
1.688, -1, 12.8728, 20.3095, 21.3847, 30.2838, -37.9544, -23.9479
1.692, -1, 12.9211, 20.2666, 21.4008, 30.3606, -37.8644, -24.0054
1.696, -1, 12.9693, 20.2238, 21.4169, 30.4374, -37.7746, -24.0629
1.7, -1, 13.0174, 20.1811, 21.433, 30.514, -37.6848, -24.1203
1.704, -1, 13.0655, 20.1384, 21.449, 30.5906, -37.5951, -24.1776
1.708, -1, 13.1136, 20.0958, 21.4651, 30.6671, -37.5056, -24.2348
1.712, -1, 13.1615, 20.0532, 21.4811, 30.7435, -37.4162, -24.292
1.716, -1, 13.2094, 20.0106, 21.4971, 30.8197, -37.3269, -24.3491
1.72, -1, 13.2573, 19.9681, 21.5131, 30.8959, -37.2376, -24.4061
1.724, -1, 13.3051, 19.9257, 21.529, 30.972, -37.1485, -24.4631
1.728, -1, 13.3528, 19.8833, 21.545, 31.0481, -37.0595, -24.52
1.732, -1, 13.4005, 19.841, 21.5609, 31.124, -36.9706, -24.5768
1.736, -1, 13.4482, 19.7987, 21.5768, 31.1998, -36.8818, -24.6336
1.74, -1, 13.4957, 19.7565, 21.5927, 31.2756, -36.7931, -24.6903
1.744, -1, 13.5433, 19.7143, 21.6086, 31.3512, -36.7045, -24.7469
1.748, -1, 13.5907, 19.6721, 21.6244, 31.4268, -36.6161, -24.8035
1.752, -1, 13.6381, 19.63, 21.6402, 31.5023, -36.5277, -24.86
1.756, -1, 13.6855, 19.588, 21.6561, 31.5776, -36.4394, -24.9164
1.76, -1, 13.7328, 19.546, 21.6719, 31.6529, -36.3512, -24.9728
1.764, -1, 13.78, 19.5041, 21.6876, 31.7282, -36.2632, -25.0291
1.768, -1, 13.8272, 19.4622, 21.7034, 31.8033, -36.1752, -25.0853
1.772, -1, 13.8743, 19.4203, 21.7191, 31.8783, -36.0873, -25.1415
1.776, -1, 13.9214, 19.3785, 21.7348, 31.9533, -35.9996, -25.1976
1.78, -1, 13.9684, 19.3368, 21.7505, 32.0281, -35.9119, -25.2536
1.784, -1, 14.0154, 19.2951, 21.7662, 32.1029, -35.8243, -25.3096
1.788, -1, 14.0623, 19.2534, 21.7819, 32.1776, -35.7369, -25.3655
1.792, -1, 14.1092, 19.2118, 21.7975, 32.2522, -35.6495, -25.4214
1.796, -1, 14.156, 19.1703, 21.8132, 32.3268, -35.5622, -25.4772
1.8, -1, 14.2027, 19.1288, 21.8288, 32.4012, -35.4751, -25.5329
1.804, -1, 14.2494, 19.0873, 21.8444, 32.4756, -35.388, -25.5886
1.808, -1, 14.2961, 19.0459, 21.86, 32.5498, -35.301, -25.6442
1.812, -1, 14.3427, 19.0045, 21.8755, 32.624, -35.2142, -25.6997
1.816, -1, 14.3892, 18.9632, 21.8911, 32.6981, -35.1274, -25.7552
1.82, -1, 14.4357, 18.9219, 21.9066, 32.7722, -35.0407, -25.8106
1.824, -1, 14.4822, 18.8807, 21.9221, 32.8461, -34.9541, -25.8659
1.828, -1, 14.5286, 18.8395, 21.9376, 32.92, -34.8676, -25.9212
1.832, -1, 14.5749, 18.7983, 21.9531, 32.9938, -34.7813, -25.9764
1.836, -1, 14.6212, 18.7572, 21.9685, 33.0675, -34.695, -26.0316
1.84, -1, 14.6674, 18.7162, 21.984, 33.1411, -34.6088, -26.0867
1.844, -1, 14.7136, 18.6752, 21.9994, 33.2146, -34.5227, -26.1418
1.848, -1, 14.7598, 18.6342, 22.0148, 33.2881, -34.4367, -26.1967
1.852, -1, 14.8058, 18.5933, 22.0302, 33.3614, -34.3507, -26.2517
1.856, -1, 14.8519, 18.5524, 22.0456, 33.4347, -34.2649, -26.3065
1.86, -1, 14.8979, 18.5116, 22.0609, 33.5079, -34.1792, -26.3613
1.864, -1, 14.9438, 18.4708, 22.0762, 33.5811, -34.0936, -26.4161
1.868, -1, 14.9897, 18.4301, 22.0916, 33.6541, -34.008, -26.4708
1.872, -1, 15.0355, 18.3894, 22.1069, 33.7271, -33.9226, -26.5254
1.876, -1, 15.0813, 18.3487, 22.1222, 33.8, -33.8372, -26.58
1.88, -1, 15.127, 18.3081, 22.1374, 33.8728, -33.7519, -26.6345
1.884, -1, 15.1727, 18.2676, 22.1527, 33.9456, -33.6668, -26.6889
1.888, -1, 15.2184, 18.227, 22.1679, 34.0182, -33.5817, -26.7433
1.892, -1, 15.264, 18.1866, 22.1832, 34.0908, -33.4967, -26.7976
1.896, -1, 15.3095, 18.1461, 22.1984, 34.1633, -33.4118, -26.8519
1.9, -1, 15.355, 18.1057, 22.2136, 34.2358, -33.3269, -26.9062
1.904, -1, 15.4004, 18.0654, 22.2287, 34.3081, -33.2422, -26.9603
1.908, -1, 15.4458, 18.0251, 22.2439, 34.3804, -33.1576, -27.0144
1.912, -1, 15.4912, 17.9848, 22.259, 34.4526, -33.073, -27.0685
1.916, -1, 15.5365, 17.9446, 22.2742, 34.5248, -32.9886, -27.1225
1.92, -1, 15.5818, 17.9044, 22.2893, 34.5968, -32.9042, -27.1764
1.924, -1, 15.627, 17.8643, 22.3044, 34.6688, -32.8199, -27.2303
1.928, -1, 15.6721, 17.8242, 22.3195, 34.7407, -32.7357, -27.2841
1.932, -1, 15.7173, 17.7841, 22.3345, 34.8126, -32.6516, -27.3379
1.936, -1, 15.7623, 17.7441, 22.3496, 34.8843, -32.5676, -27.3916
1.94, -1, 15.8073, 17.7041, 22.3646, 34.956, -32.4836, -27.4453
1.944, -1, 15.8523, 17.6642, 22.3796, 35.0276, -32.3997, -27.4989
1.948, -1, 15.8973, 17.6243, 22.3946, 35.0992, -32.316, -27.5524
1.952, -1, 15.9422, 17.5844, 22.4096, 35.1707, -32.2323, -27.6059
1.956, -1, 15.987, 17.5446, 22.4246, 35.2421, -32.1487, -27.6594
1.96, -1, 16.0318, 17.5048, 22.4396, 35.3134, -32.0652, -27.7128
1.964, -1, 16.0765, 17.4651, 22.4545, 35.3846, -31.9817, -27.7661
1.968, -1, 16.1212, 17.4254, 22.4694, 35.4558, -31.8984, -27.8194
1.972, -1, 16.1659, 17.3858, 22.4844, 35.5269, -31.8151, -27.8726
1.976, -1, 16.2105, 17.3461, 22.4993, 35.598, -31.7319, -27.9258
1.98, -1, 16.2551, 17.3066, 22.5141, 35.6689, -31.6488, -27.9789
1.984, -1, 16.2996, 17.267, 22.529, 35.7398, -31.5658, -28.032
1.988, -1, 16.3441, 17.2275, 22.5439, 35.8107, -31.4829, -28.085
1.992, -1, 16.3886, 17.1881, 22.5587, 35.8814, -31.4, -28.138
1.996, -1, 16.433, 17.1487, 22.5735, 35.9521, -31.3173, -28.1909
1.999, -1, 16.4773, 17.1093, 22.5883, 36.0228, -31.2346, -28.2438
2.004, -1, 16.5216, 17.0699, 22.6031, 36.0933, -31.1519, -28.2966
2.008, -1, 16.5659, 17.0306, 22.6179, 36.1638, -31.0694, -28.3493
2.012, -1, 16.6101, 16.9914, 22.6327, 36.2342, -30.987, -28.4021
2.015, -1, 16.6543, 16.9521, 22.6474, 36.3046, -30.9046, -28.4547
2.019, -1, 16.6984, 16.9129, 22.6622, 36.3748, -30.8223, -28.5073
2.024, -1, 16.7425, 16.8738, 22.6769, 36.445, -30.7401, -28.5599
2.028, -1, 16.7866, 16.8347, 22.6916, 36.5152, -30.658, -28.6124
2.031, -1, 16.8306, 16.7956, 22.7063, 36.5853, -30.5759, -28.6648
2.036, -1, 16.8746, 16.7566, 22.721, 36.6553, -30.4939, -28.7172
2.04, -1, 16.9185, 16.7176, 22.7357, 36.7252, -30.412, -28.7696
2.044, -1, 16.9624, 16.6786, 22.7503, 36.7951, -30.3302, -28.8219
2.048, -1, 17.0062, 16.6397, 22.765, 36.8649, -30.2485, -28.8742
2.051, -1, 17.05, 16.6008, 22.7796, 36.9346, -30.1668, -28.9264
2.055, -1, 17.0938, 16.5619, 22.7942, 37.0043, -30.0852, -28.9785
2.06, -1, 17.1375, 16.5231, 22.8088, 37.0739, -30.0037, -29.0306
2.064, -1, 17.1811, 16.4844, 22.8234, 37.1435, -29.9223, -29.0827
2.068, -1, 17.2244, 16.4458, 22.8379, 37.2129, -29.841, -29.1347
2.071, -1, 17.2671, 16.4077, 22.8523, 37.2823, -29.7597, -29.1866
2.076, -1, 17.3088, 16.3701, 22.8666, 37.3515, -29.6787, -29.2384
2.08, -1, 17.3495, 16.3335, 22.8807, 37.4204, -29.5981, -29.29
2.084, -1, 17.3888, 16.2979, 22.8945, 37.4888, -29.518, -29.3412
2.087, -1, 17.4267, 16.2635, 22.9079, 37.5564, -29.4389, -29.3918
2.092, -1, 17.4632, 16.2306, 22.921, 37.6229, -29.3611, -29.4417
2.096, -1, 17.4983, 16.1992, 22.9337, 37.6879, -29.2851, -29.4903
2.1, -1, 17.5321, 16.1694, 22.9459, 37.7508, -29.2115, -29.5374
2.104, -1, 17.5644, 16.1411, 22.9576, 37.8112, -29.1408, -29.5827
2.107, -1, 17.5951, 16.1145, 22.9686, 37.8686, -29.0737, -29.6257
2.111, -1, 17.624, 16.0896, 22.9791, 37.9226, -29.0106, -29.6661
2.116, -1, 17.6513, 16.0662, 22.9888, 37.9726, -28.9521, -29.7035
2.12, -1, 17.6768, 16.044, 22.9978, 38.0183, -28.8986, -29.7378
2.124, -1, 17.7009, 16.023, 23.0061, 38.0595, -28.8504, -29.7686
2.127, -1, 17.7234, 16.0029, 23.0137, 38.0959, -28.8078, -29.7958
2.132, -1, 17.7446, 15.9838, 23.0205, 38.1275, -28.7707, -29.8195
2.136, -1, 17.7642, 15.9657, 23.0267, 38.1546, -28.739, -29.8397
2.14, -1, 17.7823, 15.9489, 23.0321, 38.1772, -28.7125, -29.8566
2.143, -1, 17.7986, 15.9337, 23.0368, 38.1957, -28.6907, -29.8705
2.148, -1, 17.8131, 15.9202, 23.0409, 38.2106, -28.6732, -29.8816
2.152, -1, 17.8259, 15.9085, 23.0443, 38.2223, -28.6594, -29.8904
2.156, -1, 17.8371, 15.8987, 23.0471, 38.2313, -28.6488, -29.8971
2.16, -1, 17.8467, 15.8905, 23.0494, 38.2381, -28.6409, -29.9021
2.163, -1, 17.855, 15.8838, 23.0513, 38.243, -28.635, -29.9058
2.168, -1, 17.8619, 15.8785, 23.0527, 38.2465, -28.6308, -29.9084
2.172, -1, 17.8674, 15.8744, 23.0538, 38.249, -28.6279, -29.9103
2.176, 2, 17.8716, 15.8714, 23.0546, 38.2507, -28.6258, -29.9115
2.179, 2, 17.8747, 15.8692, 23.0552, 38.2519, -28.6245, -29.9124
2.184, 2, 17.8769, 15.8677, 23.0556, 38.2527, -28.6235, -29.913
2.188, 2, 17.8784, 15.8667, 23.0558, 38.2532, -28.6229, -29.9134
2.192, 2, 17.8794, 15.866, 23.056, 38.2536, -28.6224, -29.9137
2.196, 2, 17.8801, 15.8655, 23.0561, 38.2538, -28.6221, -29.9138
2.199, 2, 17.8806, 15.8652, 23.0562, 38.254, -28.6219, -29.914
2.204, 2, 17.8809, 15.865, 23.0563, 38.2541, -28.6218, -29.9141
2.208, 2, 17.8811, 15.8649, 23.0563, 38.2542, -28.6217, -29.9141
2.212, 2, 17.8813, 15.8648, 23.0563, 38.2543, -28.6217, -29.9141
2.216, 2, 17.8814, 15.8647, 23.0564, 38.2543, -28.6216, -29.9142
2.219, 2, 17.8814, 15.8646, 23.0564, 38.2543, -28.6216, -29.9142
2.224, 2, 17.8815, 15.8646, 23.0564, 38.2543, -28.6216, -29.9142
2.228, 2, 17.8815, 15.8646, 23.0564, 38.2543, -28.6215, -29.9142
2.232, 2, 17.8815, 15.8646, 23.0564, 38.2543, -28.6215, -29.9142
2.235, 2, 17.8815, 15.8646, 23.0564, 38.2544, -28.6215, -29.9142
2.24, 2, 17.8815, 15.8646, 23.0564, 38.2544, -28.6215, -29.9142
2.244, 2, 17.8816, 15.8646, 23.0564, 38.2544, -28.6215, -29.9142
2.248, 2, 17.8816, 15.8646, 23.0564, 38.2544, -28.6215, -29.9142
2.252, 2, 17.8816, 15.8646, 23.0564, 38.2544, -28.6215, -29.9142
2.255, 2, 17.8816, 15.8646, 23.0564, 38.2544, -28.6215, -29.9142
2.259, 2, 17.8816, 15.8646, 23.0564, 38.2544, -28.6215, -29.9142
2.264, 2, 17.8816, 15.8645, 23.0564, 38.2544, -28.6215, -29.9142
2.268, 2, 17.8816, 15.8645, 23.0564, 38.2544, -28.6215, -29.9142
2.272, 2, 17.8816, 15.8645, 23.0564, 38.2544, -28.6215, -29.9142
2.275, 2, 17.8816, 15.8645, 23.0564, 38.2544, -28.6215, -29.9142
2.28, 2, 17.8816, 15.8645, 23.0564, 38.2544, -28.6215, -29.9142
2.284, 2, 17.8816, 15.8645, 23.0564, 38.2544, -28.6215, -29.9142
2.288, 2, 17.8816, 15.8645, 23.0564, 38.2544, -28.6215, -29.9142
2.291, 2, 17.8816, 15.8645, 23.0564, 38.2544, -28.6215, -29.9142
2.296, 2, 17.8816, 15.8645, 23.0564, 38.2544, -28.6215, -29.9142
2.3, 2, 17.8816, 15.8645, 23.0564, 38.2544, -28.6215, -29.9142
2.304, 2, 17.8816, 15.8645, 23.0564, 38.2544, -28.6215, -29.9142
2.308, 2, 17.8816, 15.8645, 23.0564, 38.2544, -28.6215, -29.9142
2.311, 2, 17.8816, 15.8645, 23.0564, 38.2544, -28.6215, -29.9142
2.316, 2, 17.8816, 15.8645, 23.0564, 38.2544, -28.6215, -29.9142
2.32, 2, 17.8816, 15.8645, 23.0564, 38.2544, -28.6215, -29.9142
2.324, 2, 17.8816, 15.8645, 23.0564, 38.2544, -28.6215, -29.9142
2.328, 2, 17.8816, 15.8645, 23.0564, 38.2544, -28.6215, -29.9142
2.331, 2, 17.8816, 15.8645, 23.0564, 38.2544, -28.6215, -29.9142
2.336, 2, 17.8816, 15.8645, 23.0564, 38.2544, -28.6215, -29.9142
2.34, 2, 17.8816, 15.8645, 23.0564, 38.2544, -28.6215, -29.9142
2.344, 2, 17.8816, 15.8645, 23.0564, 38.2544, -28.6215, -29.9142
2.347, 2, 17.8816, 15.8645, 23.0564, 38.2544, -28.6215, -29.9142
2.352, 2, 17.8816, 15.8645, 23.0564, 38.2544, -28.6215, -29.9142
2.356, 2, 17.8816, 15.8645, 23.0564, 38.2544, -28.6215, -29.9142
2.36, 2, 17.8816, 15.8645, 23.0564, 38.2544, -28.6215, -29.9142
2.364, 2, 17.8816, 15.8645, 23.0564, 38.2544, -28.6215, -29.9142
2.367, 2, 17.8816, 15.8645, 23.0564, 38.2544, -28.6215, -29.9142
2.372, 2, 17.8816, 15.8645, 23.0564, 38.2544, -28.6215, -29.9142
2.376, 2, 17.8816, 15.8645, 23.0564, 38.2544, -28.6215, -29.9142
2.38, 2, 17.8816, 15.8645, 23.0564, 38.2544, -28.6215, -29.9142
2.383, 2, 17.8816, 15.8645, 23.0564, 38.2544, -28.6215, -29.9142
2.388, 2, 17.8816, 15.8645, 23.0564, 38.2544, -28.6215, -29.9142
2.392, 2, 17.8816, 15.8645, 23.0564, 38.2544, -28.6215, -29.9142
2.396, 2, 17.8816, 15.8645, 23.0564, 38.2544, -28.6215, -29.9142
2.4, 2, 17.8816, 15.8645, 23.0564, 38.2544, -28.6215, -29.9142
2.403, 2, 17.8816, 15.8645, 23.0564, 38.2544, -28.6215, -29.9142
2.408, 2, 17.8816, 15.8645, 23.0564, 38.2544, -28.6215, -29.9142
2.412, 2, 17.8816, 15.8645, 23.0564, 38.2544, -28.6215, -29.9142
2.416, 2, 17.8816, 15.8645, 23.0564, 38.2544, -28.6215, -29.9142
2.42, 2, 17.8816, 15.8645, 23.0564, 38.2544, -28.6215, -29.9142
2.423, 2, 17.8816, 15.8645, 23.0564, 38.2544, -28.6215, -29.9142
2.428, 2, 17.8816, 15.8645, 23.0564, 38.2544, -28.6215, -29.9142
2.432, 2, 17.8816, 15.8645, 23.0564, 38.2544, -28.6215, -29.9142
2.436, 2, 17.8816, 15.8645, 23.0564, 38.2544, -28.6215, -29.9142
2.439, 2, 17.8816, 15.8645, 23.0564, 38.2544, -28.6215, -29.9142
2.444, 2, 17.8816, 15.8645, 23.0564, 38.2544, -28.6215, -29.9142
2.448, 2, 17.8816, 15.8645, 23.0564, 38.2544, -28.6215, -29.9142
2.452, 2, 17.8816, 15.8645, 23.0564, 38.2544, -28.6215, -29.9142
2.456, 2, 17.8816, 15.8645, 23.0564, 38.2544, -28.6215, -29.9142
2.459, 2, 17.8816, 15.8645, 23.0564, 38.2544, -28.6215, -29.9142
2.464, 2, 17.8816, 15.8645, 23.0564, 38.2544, -28.6215, -29.9142
2.468, 2, 17.8816, 15.8645, 23.0564, 38.2544, -28.6215, -29.9142
2.472, 2, 17.8816, 15.8645, 23.0564, 38.2544, -28.6215, -29.9142
2.476, 2, 17.8816, 15.8645, 23.0564, 38.2544, -28.6215, -29.9142
2.479, 2, 17.8816, 15.8645, 23.0564, 38.2544, -28.6215, -29.9142
2.484, 2, 17.8816, 15.8645, 23.0564, 38.2544, -28.6215, -29.9142
2.488, 2, 17.8816, 15.8645, 23.0564, 38.2544, -28.6215, -29.9142
2.492, 2, 17.8816, 15.8645, 23.0564, 38.2544, -28.6215, -29.9142
2.495, 2, 17.8816, 15.8645, 23.0564, 38.2544, -28.6215, -29.9142
2.5, 2, 17.8816, 15.8645, 23.0564, 38.2544, -28.6215, -29.9142
2.504, 2, 17.8816, 15.8645, 23.0564, 38.2544, -28.6215, -29.9142
2.508, 2, 17.8816, 15.8645, 23.0564, 38.2544, -28.6215, -29.9142
2.512, 2, 17.8816, 15.8645, 23.0564, 38.2544, -28.6215, -29.9142
2.515, 2, 17.8816, 15.8645, 23.0564, 38.2544, -28.6215, -29.9142
2.52, 2, 17.8816, 15.8645, 23.0564, 38.2544, -28.6215, -29.9142
2.524, 2, 17.8816, 15.8645, 23.0564, 38.2544, -28.6215, -29.9142
2.528, 2, 17.8816, 15.8645, 23.0564, 38.2544, -28.6215, -29.9142
2.531, 2, 17.8816, 15.8645, 23.0564, 38.2544, -28.6215, -29.9142
2.536, 2, 17.8816, 15.8645, 23.0564, 38.2544, -28.6215, -29.9142
2.54, 2, 17.8816, 15.8645, 23.0564, 38.2544, -28.6215, -29.9142
2.544, 2, 17.8816, 15.8645, 23.0564, 38.2544, -28.6215, -29.9142
2.548, 2, 17.8816, 15.8645, 23.0564, 38.2544, -28.6215, -29.9142
2.551, 2, 17.8816, 15.8645, 23.0564, 38.2544, -28.6215, -29.9142
2.556, 2, 17.8816, 15.8645, 23.0564, 38.2544, -28.6215, -29.9142
2.56, 2, 17.8816, 15.8645, 23.0564, 38.2544, -28.6215, -29.9142
2.564, 2, 17.8816, 15.8645, 23.0564, 38.2544, -28.6215, -29.9142
2.568, 2, 17.8816, 15.8645, 23.0564, 38.2544, -28.6215, -29.9142
2.571, 2, 17.8816, 15.8645, 23.0564, 38.2544, -28.6215, -29.9142
2.576, 2, 17.8816, 15.8645, 23.0564, 38.2544, -28.6215, -29.9142
2.58, 2, 17.8816, 15.8645, 23.0564, 38.2544, -28.6215, -29.9142
2.584, 2, 17.8816, 15.8645, 23.0564, 38.2544, -28.6215, -29.9142
2.587, 2, 17.8816, 15.8645, 23.0564, 38.2544, -28.6215, -29.9142
2.592, 2, 17.8816, 15.8645, 23.0564, 38.2544, -28.6215, -29.9142
2.596, 2, 17.8816, 15.8645, 23.0564, 38.2544, -28.6215, -29.9142
2.6, 2, 17.8816, 15.8645, 23.0564, 38.2544, -28.6215, -29.9142
2.604, 2, 17.8816, 15.8645, 23.0564, 38.2544, -28.6215, -29.9142
2.607, 2, 17.8816, 15.8645, 23.0564, 38.2544, -28.6215, -29.9142
2.612, 2, 17.8816, 15.8645, 23.0564, 38.2544, -28.6215, -29.9142
2.616, 2, 17.8816, 15.8645, 23.0564, 38.2544, -28.6215, -29.9142
2.62, 2, 17.8816, 15.8645, 23.0564, 38.2544, -28.6215, -29.9142
2.624, 2, 17.8816, 15.8645, 23.0564, 38.2544, -28.6215, -29.9142
2.627, 2, 17.8816, 15.8645, 23.0564, 38.2544, -28.6215, -29.9142
2.632, 2, 17.8816, 15.8645, 23.0564, 38.2544, -28.6215, -29.9142
2.636, 2, 17.8816, 15.8645, 23.0564, 38.2544, -28.6215, -29.9142
2.64, 2, 17.8816, 15.8645, 23.0564, 38.2544, -28.6215, -29.9142
2.643, 2, 17.8816, 15.8645, 23.0564, 38.2544, -28.6215, -29.9142
2.648, 2, 17.8816, 15.8645, 23.0564, 38.2544, -28.6215, -29.9142
2.652, 2, 17.8816, 15.8645, 23.0564, 38.2544, -28.6215, -29.9142
2.656, 2, 17.8816, 15.8645, 23.0564, 38.2544, -28.6215, -29.9142
2.66, 2, 17.8816, 15.8645, 23.0564, 38.2544, -28.6215, -29.9142
2.663, 2, 17.8816, 15.8645, 23.0564, 38.2544, -28.6215, -29.9142
2.668, 2, 17.8816, 15.8645, 23.0564, 38.2544, -28.6215, -29.9142
2.672, 2, 17.8816, 15.8645, 23.0564, 38.2544, -28.6215, -29.9142
2.676, 2, 17.8816, 15.8645, 23.0564, 38.2544, -28.6215, -29.9142
2.679, 2, 17.8816, 15.8645, 23.0564, 38.2544, -28.6215, -29.9142
2.684, 2, 17.8816, 15.8645, 23.0564, 38.2544, -28.6215, -29.9142
2.688, 2, 17.8816, 15.8645, 23.0564, 38.2544, -28.6215, -29.9142
2.692, 2, 17.8816, 15.8645, 23.0564, 38.2544, -28.6215, -29.9142
2.696, 2, 17.8816, 15.8645, 23.0564, 38.2544, -28.6215, -29.9142
2.699, 2, 17.8816, 15.8645, 23.0564, 38.2544, -28.6215, -29.9142
2.704, 2, 17.8816, 15.8645, 23.0564, 38.2544, -28.6215, -29.9142
2.708, 2, 17.8816, 15.8645, 23.0564, 38.2544, -28.6215, -29.9142
2.712, 2, 17.8816, 15.8645, 23.0564, 38.2544, -28.6215, -29.9142
2.716, 2, 17.8816, 15.8645, 23.0564, 38.2544, -28.6215, -29.9142
2.719, 2, 17.8816, 15.8645, 23.0564, 38.2544, -28.6215, -29.9142
2.724, 2, 17.8816, 15.8645, 23.0564, 38.2544, -28.6215, -29.9142
2.728, 2, 17.8816, 15.8645, 23.0564, 38.2544, -28.6215, -29.9142
2.732, 2, 17.8816, 15.8645, 23.0564, 38.2544, -28.6215, -29.9142
2.735, 2, 17.8816, 15.8645, 23.0564, 38.2544, -28.6215, -29.9142
2.74, 2, 17.8816, 15.8645, 23.0564, 38.2544, -28.6215, -29.9142
2.744, 2, 17.8816, 15.8645, 23.0564, 38.2544, -28.6215, -29.9142
2.748, 2, 17.8816, 15.8645, 23.0564, 38.2544, -28.6215, -29.9142
2.752, 2, 17.8816, 15.8645, 23.0564, 38.2544, -28.6215, -29.9142
2.755, 2, 17.8816, 15.8645, 23.0564, 38.2544, -28.6215, -29.9142
2.76, 2, 17.8816, 15.8645, 23.0564, 38.2544, -28.6215, -29.9142
2.764, 2, 17.8816, 15.8645, 23.0564, 38.2544, -28.6215, -29.9142
2.768, 2, 17.8816, 15.8645, 23.0564, 38.2544, -28.6215, -29.9142
2.772, 2, 17.8816, 15.8645, 23.0564, 38.2544, -28.6215, -29.9142
2.775, 2, 17.8816, 15.8645, 23.0564, 38.2544, -28.6215, -29.9142
2.78, 2, 17.8816, 15.8645, 23.0564, 38.2544, -28.6215, -29.9142
2.784, 2, 17.8816, 15.8645, 23.0564, 38.2544, -28.6215, -29.9142
2.788, 2, 17.8816, 15.8645, 23.0564, 38.2544, -28.6215, -29.9142
2.791, 2, 17.8816, 15.8645, 23.0564, 38.2544, -28.6215, -29.9142
2.796, 2, 17.8816, 15.8645, 23.0564, 38.2544, -28.6215, -29.9142
2.8, 2, 17.8816, 15.8645, 23.0564, 38.2544, -28.6215, -29.9142
2.804, 2, 17.8816, 15.8645, 23.0564, 38.2544, -28.6215, -29.9142
2.808, 2, 17.8816, 15.8645, 23.0564, 38.2544, -28.6215, -29.9142
2.811, 2, 17.8816, 15.8645, 23.0564, 38.2544, -28.6215, -29.9142
2.816, 2, 17.8816, 15.8645, 23.0564, 38.2544, -28.6215, -29.9142
2.82, 2, 17.8816, 15.8645, 23.0564, 38.2544, -28.6215, -29.9142
2.824, 2, 17.8816, 15.8645, 23.0564, 38.2544, -28.6215, -29.9142
2.828, 2, 17.8816, 15.8645, 23.0564, 38.2544, -28.6215, -29.9142
2.831, 2, 17.8816, 15.8645, 23.0564, 38.2544, -28.6215, -29.9142
2.836, 2, 17.8816, 15.8645, 23.0564, 38.2544, -28.6215, -29.9142
2.84, 2, 17.8816, 15.8645, 23.0564, 38.2544, -28.6215, -29.9142
2.844, 2, 17.8816, 15.8645, 23.0564, 38.2544, -28.6215, -29.9142
2.847, 2, 17.8816, 15.8645, 23.0564, 38.2544, -28.6215, -29.9142
2.852, 2, 17.8816, 15.8645, 23.0564, 38.2544, -28.6215, -29.9142
2.856, 2, 17.8816, 15.8645, 23.0564, 38.2544, -28.6215, -29.9142
2.86, 2, 17.8816, 15.8645, 23.0564, 38.2544, -28.6215, -29.9142
2.864, 2, 17.8816, 15.8645, 23.0564, 38.2544, -28.6215, -29.9142
2.867, 2, 17.8816, 15.8645, 23.0564, 38.2544, -28.6215, -29.9142
2.872, 2, 17.8816, 15.8645, 23.0564, 38.2544, -28.6215, -29.9142
2.876, 2, 17.8816, 15.8645, 23.0564, 38.2544, -28.6215, -29.9142
2.88, 2, 17.8816, 15.8645, 23.0564, 38.2544, -28.6215, -29.9142
2.883, 2, 17.8816, 15.8645, 23.0564, 38.2544, -28.6215, -29.9142
2.888, 2, 17.8816, 15.8645, 23.0564, 38.2544, -28.6215, -29.9142
2.892, 2, 17.8816, 15.8645, 23.0564, 38.2544, -28.6215, -29.9142
2.896, 2, 17.8816, 15.8645, 23.0564, 38.2544, -28.6215, -29.9142
2.9, 2, 17.8816, 15.8645, 23.0564, 38.2544, -28.6215, -29.9142
2.903, 2, 17.8816, 15.8645, 23.0564, 38.2544, -28.6215, -29.9142
2.908, 2, 17.8816, 15.8645, 23.0564, 38.2544, -28.6215, -29.9142
2.912, 2, 17.8816, 15.8645, 23.0564, 38.2544, -28.6215, -29.9142
2.916, 2, 17.8816, 15.8645, 23.0564, 38.2544, -28.6215, -29.9142
2.92, 2, 17.8816, 15.8645, 23.0564, 38.2544, -28.6215, -29.9142
2.923, 2, 17.8816, 15.8645, 23.0564, 38.2544, -28.6215, -29.9142
2.928, 2, 17.8816, 15.8645, 23.0564, 38.2544, -28.6215, -29.9142
2.932, 2, 17.8816, 15.8645, 23.0564, 38.2544, -28.6215, -29.9142
2.936, 2, 17.8816, 15.8645, 23.0564, 38.2544, -28.6215, -29.9142
2.939, 2, 17.8816, 15.8645, 23.0564, 38.2544, -28.6215, -29.9142
2.944, 2, 17.8816, 15.8645, 23.0564, 38.2544, -28.6215, -29.9142
2.948, 2, 17.8816, 15.8645, 23.0564, 38.2544, -28.6215, -29.9142
2.952, 2, 17.8816, 15.8645, 23.0564, 38.2544, -28.6215, -29.9142
2.956, 2, 17.8816, 15.8645, 23.0564, 38.2544, -28.6215, -29.9142
2.959, 2, 17.8816, 15.8645, 23.0564, 38.2544, -28.6215, -29.9142
2.964, 2, 17.8816, 15.8645, 23.0564, 38.2544, -28.6215, -29.9142
2.968, 2, 17.8816, 15.8645, 23.0564, 38.2544, -28.6215, -29.9142
2.972, 2, 17.8816, 15.8645, 23.0564, 38.2544, -28.6215, -29.9142
2.976, 2, 17.8816, 15.8645, 23.0564, 38.2544, -28.6215, -29.9142
2.98, 2, 17.8816, 15.8645, 23.0564, 38.2544, -28.6215, -29.9142
2.984, 2, 17.8816, 15.8645, 23.0564, 38.2544, -28.6215, -29.9142
2.988, 2, 17.8816, 15.8645, 23.0564, 38.2544, -28.6215, -29.9142
2.992, 2, 17.8816, 15.8645, 23.0564, 38.2544, -28.6215, -29.9142
2.995, 2, 17.8816, 15.8645, 23.0564, 38.2544, -28.6215, -29.9142
3, 2, 17.8816, 15.8645, 23.0564, 38.2544, -28.6215, -29.9142
3.004, 2, 17.8816, 15.8645, 23.0564, 38.2544, -28.6215, -29.9142
3.008, 2, 17.8816, 15.8645, 23.0564, 38.2544, -28.6215, -29.9142
3.012, 2, 17.8816, 15.8645, 23.0564, 38.2544, -28.6215, -29.9142
3.015, 2, 17.8816, 15.8645, 23.0564, 38.2544, -28.6215, -29.9142
3.02, 2, 17.8816, 15.8645, 23.0564, 38.2544, -28.6215, -29.9142
3.024, 2, 17.8816, 15.8645, 23.0564, 38.2544, -28.6215, -29.9142
3.028, 2, 17.8816, 15.8645, 23.0564, 38.2544, -28.6215, -29.9142
3.031, 2, 17.8816, 15.8645, 23.0564, 38.2544, -28.6215, -29.9142
3.036, 2, 17.8816, 15.8645, 23.0564, 38.2544, -28.6215, -29.9142
3.04, 2, 17.8816, 15.8645, 23.0564, 38.2544, -28.6215, -29.9142
3.044, 2, 17.8816, 15.8645, 23.0564, 38.2544, -28.6215, -29.9142
3.048, 2, 17.8816, 15.8645, 23.0564, 38.2544, -28.6215, -29.9142
3.051, 2, 17.8816, 15.8645, 23.0564, 38.2544, -28.6215, -29.9142
3.056, 2, 17.8816, 15.8645, 23.0564, 38.2544, -28.6215, -29.9142
3.06, 2, 17.8816, 15.8645, 23.0564, 38.2544, -28.6215, -29.9142
3.064, 2, 17.8816, 15.8645, 23.0564, 38.2544, -28.6215, -29.9142
3.068, 2, 17.8816, 15.8645, 23.0564, 38.2544, -28.6215, -29.9142
3.071, 2, 17.8816, 15.8645, 23.0564, 38.2544, -28.6215, -29.9142
3.076, 2, 17.8816, 15.8645, 23.0564, 38.2544, -28.6215, -29.9142
3.08, 2, 17.8816, 15.8645, 23.0564, 38.2544, -28.6215, -29.9142
3.084, 2, 17.8816, 15.8645, 23.0564, 38.2544, -28.6215, -29.9142
3.087, 2, 17.8816, 15.8645, 23.0564, 38.2544, -28.6215, -29.9142
3.092, 2, 17.8816, 15.8645, 23.0564, 38.2544, -28.6215, -29.9142
3.096, 2, 17.8816, 15.8645, 23.0564, 38.2544, -28.6215, -29.9142
3.1, 2, 17.8816, 15.8645, 23.0564, 38.2544, -28.6215, -29.9142
3.104, 2, 17.8816, 15.8645, 23.0564, 38.2544, -28.6215, -29.9142
3.107, 2, 17.8816, 15.8645, 23.0564, 38.2544, -28.6215, -29.9142
3.112, 2, 17.8816, 15.8645, 23.0564, 38.2544, -28.6215, -29.9142
3.116, 2, 17.8816, 15.8645, 23.0564, 38.2544, -28.6215, -29.9142
3.12, 2, 17.8816, 15.8645, 23.0564, 38.2544, -28.6215, -29.9142
3.124, 2, 17.8816, 15.8645, 23.0564, 38.2544, -28.6215, -29.9142
3.128, 2, 17.8816, 15.8645, 23.0564, 38.2544, -28.6215, -29.9142
3.132, 2, 17.8816, 15.8645, 23.0564, 38.2544, -28.6215, -29.9142
3.136, 2, 17.8816, 15.8645, 23.0564, 38.2544, -28.6215, -29.9142
3.14, 2, 17.8816, 15.8645, 23.0564, 38.2544, -28.6215, -29.9142
3.143, 2, 17.8816, 15.8645, 23.0564, 38.2544, -28.6215, -29.9142
3.148, 2, 17.8816, 15.8645, 23.0564, 38.2544, -28.6215, -29.9142
3.152, 2, 17.8816, 15.8645, 23.0564, 38.2544, -28.6215, -29.9142
3.156, 2, 17.8816, 15.8645, 23.0564, 38.2544, -28.6215, -29.9142
3.16, 2, 17.8816, 15.8645, 23.0564, 38.2544, -28.6215, -29.9142
3.163, 2, 17.8816, 15.8645, 23.0564, 38.2544, -28.6215, -29.9142
3.168, 2, 17.8816, 15.8645, 23.0564, 38.2544, -28.6215, -29.9142
3.172, 2, 17.8816, 15.8645, 23.0564, 38.2544, -28.6215, -29.9142
3.176, 2, 17.8816, 15.8645, 23.0564, 38.2544, -28.6215, -29.9142
3.179, 2, 17.8816, 15.8645, 23.0564, 38.2544, -28.6215, -29.9142
3.184, 2, 17.8816, 15.8645, 23.0564, 38.2544, -28.6215, -29.9142
3.188, 2, 17.8816, 15.8645, 23.0564, 38.2544, -28.6215, -29.9142
3.192, 2, 17.8816, 15.8645, 23.0564, 38.2544, -28.6215, -29.9142
3.196, 2, 17.8816, 15.8645, 23.0564, 38.2544, -28.6215, -29.9142
3.199, 2, 17.8816, 15.8645, 23.0564, 38.2544, -28.6215, -29.9142
3.204, 2, 17.8816, 15.8645, 23.0564, 38.2544, -28.6215, -29.9142
3.208, 2, 17.8816, 15.8645, 23.0564, 38.2544, -28.6215, -29.9142
3.212, 2, 17.8816, 15.8645, 23.0564, 38.2544, -28.6215, -29.9142
3.216, 2, 17.8816, 15.8645, 23.0564, 38.2544, -28.6215, -29.9142
3.22, 2, 17.8816, 15.8645, 23.0564, 38.2544, -28.6215, -29.9142
3.224, 2, 17.8816, 15.8645, 23.0564, 38.2544, -28.6215, -29.9142
3.228, 2, 17.8816, 15.8645, 23.0564, 38.2544, -28.6215, -29.9142
3.232, 2, 17.8816, 15.8645, 23.0564, 38.2544, -28.6215, -29.9142
3.235, 2, 17.8816, 15.8645, 23.0564, 38.2544, -28.6215, -29.9142
3.24, 2, 17.8816, 15.8645, 23.0564, 38.2544, -28.6215, -29.9142
3.244, 2, 17.8816, 15.8645, 23.0564, 38.2544, -28.6215, -29.9142
3.248, 4, 17.8816, 15.8645, 23.0564, 38.2544, -28.6215, -29.9142
3.252, 4, 17.8816, 15.8645, 23.0564, 38.2544, -28.6215, -29.9142
3.255, 4, 17.8816, 15.8645, 23.0564, 38.2544, -28.6215, -29.9142
3.26, 4, 17.8816, 15.8645, 23.0564, 38.2544, -28.6215, -29.9142
3.264, 4, 17.8816, 15.8645, 23.0564, 38.2544, -28.6215, -29.9142
3.268, 4, 17.8816, 15.8645, 23.0564, 38.2544, -28.6215, -29.9142
3.272, 4, 17.8816, 15.8645, 23.0564, 38.2544, -28.6215, -29.9142
3.276, 4, 17.8816, 15.8645, 23.0564, 38.2544, -28.6215, -29.9142
3.28, 4, 17.8816, 15.8645, 23.0564, 38.2544, -28.6215, -29.9142
3.284, 4, 17.8816, 15.8645, 23.0564, 38.2544, -28.6215, -29.9142
3.288, 4, 17.8816, 15.8645, 23.0564, 38.2544, -28.6215, -29.9142
3.291, 4, 17.8816, 15.8645, 23.0564, 38.2544, -28.6215, -29.9142
3.296, 4, 17.8816, 15.8645, 23.0564, 38.2544, -28.6215, -29.9142
3.3, 4, 17.8816, 15.8645, 23.0564, 38.2544, -28.6215, -29.9142
3.304, 4, 17.8816, 15.8645, 23.0564, 38.2544, -28.6215, -29.9142
3.308, 4, 17.8816, 15.8645, 23.0564, 38.2544, -28.6215, -29.9142
3.312, 4, 17.8816, 15.8645, 23.0564, 38.2544, -28.6215, -29.9142
3.316, 4, 17.8816, 15.8645, 23.0564, 38.2544, -28.6215, -29.9142
3.32, 4, 17.8816, 15.8645, 23.0564, 38.2544, -28.6215, -29.9142
3.324, 4, 17.8816, 15.8645, 23.0564, 38.2544, -28.6215, -29.9142
3.328, 4, 17.8816, 15.8645, 23.0564, 38.2544, -28.6215, -29.9142
3.332, 4, 17.8816, 15.8645, 23.0564, 38.2544, -28.6215, -29.9142
3.336, 4, 17.8816, 15.8645, 23.0564, 38.2544, -28.6215, -29.9142
3.34, 4, 17.8816, 15.8645, 23.0564, 38.2544, -28.6215, -29.9142
3.344, 4, 17.8816, 15.8645, 23.0564, 38.2544, -28.6215, -29.9142
3.347, 4, 17.8816, 15.8645, 23.0564, 38.2544, -28.6215, -29.9142
3.352, 4, 17.8816, 15.8645, 23.0564, 38.2544, -28.6215, -29.9142
3.356, 4, 17.8816, 15.8645, 23.0564, 38.2544, -28.6215, -29.9142
3.36, 4, 17.8816, 15.8645, 23.0564, 38.2544, -28.6215, -29.9142
3.364, 4, 17.8816, 15.8645, 23.0564, 38.2544, -28.6215, -29.9142
3.368, 4, 17.8816, 15.8645, 23.0564, 38.2544, -28.6215, -29.9142
3.372, 4, 17.8816, 15.8645, 23.0564, 38.2544, -28.6215, -29.9142
3.376, 4, 17.8816, 15.8645, 23.0564, 38.2544, -28.6215, -29.9142
3.38, 4, 17.8815, 15.8645, 23.0564, 38.2544, -28.6215, -29.9142
3.383, 4, 17.8812, 15.8645, 23.0564, 38.2543, -28.6215, -29.9142
3.388, 4, 17.8806, 15.8645, 23.0565, 38.2542, -28.6216, -29.9141
3.392, 4, 17.8793, 15.8645, 23.0566, 38.2539, -28.6217, -29.9139
3.396, 4, 17.8773, 15.8644, 23.0569, 38.2532, -28.6219, -29.9133
3.4, 4, 17.8745, 15.8643, 23.0576, 38.2517, -28.6225, -29.912
3.403, 4, 17.8706, 15.864, 23.0586, 38.2489, -28.6235, -29.9095
3.408, 4, 17.8657, 15.8636, 23.0603, 38.2441, -28.6252, -29.9053
3.412, 4, 17.8595, 15.863, 23.063, 38.2364, -28.628, -29.8984
3.416, 4, 17.8519, 15.862, 23.067, 38.2246, -28.6322, -29.8881
3.42, 5, 17.8425, 15.8607, 23.0726, 38.2075, -28.6384, -29.873
3.424, 5, 17.8311, 15.8589, 23.0804, 38.1837, -28.647, -29.852
3.428, 5, 17.8174, 15.8565, 23.0908, 38.1514, -28.6586, -29.8234
3.432, 5, 17.801, 15.8534, 23.1043, 38.1089, -28.674, -29.7859
3.436, 5, 17.7821, 15.8494, 23.1215, 38.0544, -28.6938, -29.7376
3.439, 5, 17.7607, 15.8444, 23.143, 37.986, -28.7187, -29.6771
3.444, 5, 17.7368, 15.8385, 23.169, 37.9022, -28.7493, -29.603
3.448, 5, 17.7105, 15.8313, 23.2001, 37.8019, -28.7861, -29.5142
3.452, 5, 17.6816, 15.823, 23.2363, 37.6842, -28.8295, -29.4101
3.456, 5, 17.6501, 15.8135, 23.2779, 37.5489, -28.8796, -29.2903
3.46, 5, 17.6158, 15.8028, 23.3248, 37.3961, -28.9365, -29.1552
3.464, 5, 17.5787, 15.791, 23.3769, 37.2264, -29.0001, -29.0052
3.468, 5, 17.5387, 15.7781, 23.4338, 37.0409, -29.07, -28.8413
3.472, 5, 17.4961, 15.7643, 23.4952, 36.8409, -29.1458, -28.6647
3.476, 5, 17.4511, 15.7496, 23.5606, 36.628, -29.2271, -28.4767
3.48, 5, 17.4038, 15.7342, 23.6296, 36.404, -29.3132, -28.279
3.484, 5, 17.3544, 15.7183, 23.7015, 36.1707, -29.4036, -28.0734
3.488, 5, 17.3028, 15.7019, 23.7759, 35.9303, -29.4976, -27.8615
3.492, 5, 17.249, 15.6853, 23.8521, 35.6844, -29.5945, -27.645
3.495, 5, 17.1931, 15.6685, 23.9298, 35.4348, -29.6937, -27.4254
3.5, 5, 17.1353, 15.6516, 24.0084, 35.183, -29.7948, -27.204
3.504, 5, 17.0757, 15.6348, 24.0877, 34.9299, -29.8974, -26.9817
3.508, 5, 17.0145, 15.6181, 24.1673, 34.6764, -30.0011, -26.7593
3.512, 5, 16.9523, 15.6015, 24.2471, 34.4232, -30.1058, -26.5374
3.516, 5, 16.8892, 15.5851, 24.327, 34.1706, -30.2112, -26.3161
3.52, 5, 16.8255, 15.569, 24.4068, 33.919, -30.3173, -26.0959
3.524, 5, 16.7614, 15.5531, 24.4864, 33.6684, -30.4241, -25.8768
3.528, 5, 16.697, 15.5374, 24.5659, 33.419, -30.5314, -25.6589
3.531, 5, 16.6323, 15.522, 24.6451, 33.1709, -30.6392, -25.4424
3.536, 5, 16.5675, 15.5068, 24.7241, 32.9241, -30.7476, -25.2273
3.54, 5, 16.5024, 15.4919, 24.8029, 32.6787, -30.8564, -25.0135
3.544, 5, 16.4373, 15.4773, 24.8814, 32.4347, -30.9657, -24.8012
3.548, 5, 16.372, 15.4629, 24.9597, 32.1921, -31.0754, -24.5902
3.552, 5, 16.3066, 15.4488, 25.0377, 31.9509, -31.1857, -24.3807
3.556, 5, 16.2411, 15.435, 25.1154, 31.711, -31.2963, -24.1726
3.56, 5, 16.1755, 15.4214, 25.1928, 31.4726, -31.4074, -23.9659
3.564, 5, 16.1098, 15.4081, 25.27, 31.2355, -31.5189, -23.7607
3.568, 5, 16.044, 15.3951, 25.3469, 30.9998, -31.6309, -23.5568
3.572, 5, 15.9781, 15.3823, 25.4235, 30.7655, -31.7433, -23.3543
3.576, 5, 15.9121, 15.3699, 25.4998, 30.5326, -31.8561, -23.1532
3.58, 5, 15.846, 15.3577, 25.5759, 30.301, -31.9693, -22.9535
3.584, 5, 15.7798, 15.3457, 25.6517, 30.0708, -32.083, -22.7551
3.587, 5, 15.7136, 15.3341, 25.7272, 29.8419, -32.197, -22.5581
3.592, 5, 15.6472, 15.3227, 25.8024, 29.6143, -32.3114, -22.3624
3.596, 5, 15.5808, 15.3116, 25.8773, 29.388, -32.4263, -22.1681
3.6, 5, 15.5143, 15.3008, 25.952, 29.1631, -32.5415, -21.9751
3.604, 5, 15.4477, 15.2902, 26.0263, 28.9394, -32.6572, -21.7834
3.608, 5, 15.381, 15.2799, 26.1004, 28.7171, -32.7732, -21.5931
3.612, 5, 15.3142, 15.2699, 26.1742, 28.496, -32.8896, -21.404
3.616, 5, 15.2473, 15.2602, 26.2477, 28.2763, -33.0064, -21.2163
3.62, 5, 15.1803, 15.2507, 26.321, 28.0577, -33.1236, -21.0298
3.624, 5, 15.1133, 15.2415, 26.394, 27.8405, -33.2411, -20.8446
3.628, 5, 15.0462, 15.2326, 26.4666, 27.6245, -33.359, -20.6607
3.632, 5, 14.9789, 15.224, 26.539, 27.4097, -33.4773, -20.478
3.636, 5, 14.9116, 15.2156, 26.6112, 27.1962, -33.596, -20.2966
3.64, 5, 14.8442, 15.2075, 26.683, 26.9839, -33.715, -20.1165
3.644, 5, 14.7767, 15.1997, 26.7546, 26.7728, -33.8344, -19.9375
3.648, 5, 14.7092, 15.1922, 26.8259, 26.5629, -33.9541, -19.7598
3.652, 5, 14.6415, 15.1849, 26.8969, 26.3542, -34.0742, -19.5833
3.656, 5, 14.5738, 15.1779, 26.9676, 26.1467, -34.1946, -19.4081
3.66, 5, 14.506, 15.1712, 27.0381, 25.9404, -34.3154, -19.234
3.664, 5, 14.438, 15.1647, 27.1082, 25.7353, -34.4365, -19.0611
3.668, 5, 14.3701, 15.1586, 27.1781, 25.5313, -34.558, -18.8894
3.672, 5, 14.302, 15.1527, 27.2477, 25.3285, -34.6798, -18.7189
3.676, 5, 14.2338, 15.147, 27.3171, 25.1268, -34.8019, -18.5496
3.679, 5, 14.1656, 15.1417, 27.3861, 24.9263, -34.9244, -18.3814
3.684, 5, 14.0972, 15.1366, 27.4549, 24.7269, -35.0472, -18.2144
3.688, 5, 14.0288, 15.1318, 27.5234, 24.5287, -35.1703, -18.0485
3.692, 5, 13.9603, 15.1273, 27.5916, 24.3315, -35.2937, -17.8838
3.696, 5, 13.8918, 15.1231, 27.6596, 24.1355, -35.4175, -17.7201
3.7, 5, 13.8231, 15.1191, 27.7272, 23.9406, -35.5416, -17.5576
3.704, 5, 13.7544, 15.1154, 27.7946, 23.7467, -35.666, -17.3962
3.708, 5, 13.6855, 15.112, 27.8617, 23.5539, -35.7907, -17.2359
3.712, 5, 13.6166, 15.1088, 27.9285, 23.3622, -35.9157, -17.0767
3.716, 5, 13.5477, 15.106, 27.995, 23.1716, -36.041, -16.9186
3.72, 5, 13.4786, 15.1034, 28.0612, 22.982, -36.1666, -16.7616
3.724, 5, 13.4095, 15.1011, 28.1271, 22.7935, -36.2925, -16.6056
3.728, 5, 13.3402, 15.099, 28.1928, 22.606, -36.4187, -16.4506
3.732, 5, 13.2709, 15.0973, 28.2582, 22.4195, -36.5452, -16.2967
3.735, 5, 13.2016, 15.0958, 28.3232, 22.234, -36.672, -16.1439
3.74, 5, 13.1321, 15.0946, 28.388, 22.0496, -36.7991, -15.9921
3.744, 5, 13.0626, 15.0937, 28.4525, 21.8661, -36.9264, -15.8413
3.748, 5, 12.9929, 15.0931, 28.5168, 21.6836, -37.054, -15.6915
3.752, 5, 12.9232, 15.0927, 28.5807, 21.5022, -37.1819, -15.5427
3.756, 5, 12.8535, 15.0927, 28.6443, 21.3217, -37.3101, -15.3949
3.76, 5, 12.7836, 15.0929, 28.7077, 21.1421, -37.4386, -15.2481
3.764, 5, 12.7137, 15.0934, 28.7707, 20.9636, -37.5673, -15.1023
3.768, 5, 12.6437, 15.0941, 28.8335, 20.7859, -37.6963, -14.9574
3.772, 5, 12.5736, 15.0952, 28.896, 20.6093, -37.8255, -14.8136
3.776, 5, 12.5035, 15.0965, 28.9582, 20.4336, -37.955, -14.6706
3.78, 5, 12.4332, 15.0981, 29.02, 20.2588, -38.0848, -14.5287
3.784, 5, 12.3629, 15.1, 29.0816, 20.0849, -38.2148, -14.3877
3.788, 5, 12.2925, 15.1022, 29.143, 19.9119, -38.3451, -14.2476
3.792, 5, 12.2221, 15.1047, 29.204, 19.7399, -38.4756, -14.1084
3.796, 5, 12.1516, 15.1074, 29.2647, 19.5687, -38.6064, -13.9702
3.8, 5, 12.081, 15.1104, 29.3251, 19.3985, -38.7374, -13.8329
3.804, 5, 12.0103, 15.1137, 29.3853, 19.2292, -38.8687, -13.6965
3.808, 5, 11.9395, 15.1173, 29.4451, 19.0607, -39.0002, -13.561
3.812, 5, 11.8687, 15.1212, 29.5047, 18.8931, -39.132, -13.4264
3.816, 5, 11.7978, 15.1253, 29.564, 18.7264, -39.264, -13.2927
3.82, 5, 11.7268, 15.1298, 29.6229, 18.5605, -39.3962, -13.1599
3.824, 5, 11.6558, 15.1345, 29.6816, 18.3956, -39.5287, -13.0279
3.828, 5, 11.5847, 15.1394, 29.74, 18.2314, -39.6614, -12.8969
3.832, 5, 11.5135, 15.1447, 29.7981, 18.0681, -39.7943, -12.7667
3.836, 5, 11.4422, 15.1503, 29.8559, 17.9057, -39.9274, -12.6374
3.84, 5, 11.3709, 15.1561, 29.9135, 17.7441, -40.0608, -12.5089
3.844, 5, 11.2995, 15.1622, 29.9707, 17.5833, -40.1945, -12.3813
3.848, 5, 11.228, 15.1686, 30.0276, 17.4234, -40.3283, -12.2545
3.852, 5, 11.1565, 15.1753, 30.0842, 17.2642, -40.4623, -12.1285
3.856, 5, 11.0849, 15.1823, 30.1406, 17.1059, -40.5966, -12.0034
3.86, 5, 11.0132, 15.1895, 30.1966, 16.9484, -40.7311, -11.8792
3.864, 5, 10.9414, 15.197, 30.2524, 16.7917, -40.8658, -11.7557
3.868, 5, 10.8696, 15.2048, 30.3079, 16.6358, -41.0008, -11.6331
3.872, 5, 10.7977, 15.2129, 30.363, 16.4807, -41.1359, -11.5113
3.876, 5, 10.7258, 15.2213, 30.4179, 16.3263, -41.2712, -11.3902
3.88, 5, 10.6538, 15.2299, 30.4725, 16.1728, -41.4068, -11.27
3.884, 5, 10.5817, 15.2389, 30.5268, 16.02, -41.5426, -11.1506
3.888, 5, 10.5095, 15.2481, 30.5807, 15.868, -41.6785, -11.032
3.892, 5, 10.4373, 15.2576, 30.6344, 15.7168, -41.8147, -10.9141
3.896, 5, 10.365, 15.2674, 30.6878, 15.5663, -41.9511, -10.797
3.9, 5, 10.2926, 15.2774, 30.7409, 15.4165, -42.0876, -10.6807
3.904, 5, 10.2202, 15.2878, 30.7937, 15.2675, -42.2244, -10.5652
3.908, 5, 10.1477, 15.2984, 30.8462, 15.1192, -42.3613, -10.4504
3.912, 5, 10.0752, 15.3093, 30.8984, 14.9717, -42.4985, -10.3363
3.916, 5, 10.0026, 15.3205, 30.9503, 14.8248, -42.6358, -10.223
3.92, 5, 9.92991, 15.332, 31.0019, 14.6787, -42.7733, -10.1104
3.924, 5, 9.85717, 15.3438, 31.0532, 14.5333, -42.911, -9.99858
3.928, 5, 9.78437, 15.3558, 31.1042, 14.3886, -43.0488, -9.88745
3.932, 5, 9.71151, 15.3681, 31.1549, 14.2446, -43.1869, -9.77703
3.936, 5, 9.63859, 15.3807, 31.2053, 14.1013, -43.3251, -9.66732
3.94, 5, 9.5656, 15.3936, 31.2554, 13.9586, -43.4635, -9.55832
3.944, 5, 9.49256, 15.4068, 31.3052, 13.8166, -43.602, -9.45001
3.948, 5, 9.41945, 15.4202, 31.3547, 13.6753, -43.7408, -9.34239
3.952, 5, 9.34629, 15.434, 31.4039, 13.5347, -43.8797, -9.23545
3.956, 5, 9.27307, 15.448, 31.4527, 13.3947, -44.0187, -9.1292
3.96, 5, 9.19979, 15.4622, 31.5013, 13.2554, -44.158, -9.02362
3.964, 5, 9.12645, 15.4768, 31.5496, 13.1167, -44.2973, -8.9187
3.968, 5, 9.05306, 15.4917, 31.5976, 12.9787, -44.4369, -8.81446
3.972, 5, 8.9796, 15.5068, 31.6453, 12.8413, -44.5766, -8.71087
3.976, 5, 8.9061, 15.5222, 31.6927, 12.7046, -44.7164, -8.60793
3.98, 5, 8.83253, 15.5379, 31.7398, 12.5685, -44.8565, -8.50564
3.984, 5, 8.75891, 15.5538, 31.7865, 12.433, -44.9966, -8.40399
3.988, 5, 8.68524, 15.5701, 31.833, 12.2981, -45.1369, -8.30299
3.992, 5, 8.61151, 15.5866, 31.8792, 12.1638, -45.2774, -8.20261
3.996, 5, 8.53773, 15.6034, 31.9251, 12.0301, -45.418, -8.10287
3.999, 5, 8.46389, 15.6205, 31.9706, 11.8971, -45.5587, -8.00375
4.004, 5, 8.39, 15.6378, 32.0159, 11.7646, -45.6996, -7.90525
4.008, 5, 8.31606, 15.6555, 32.0608, 11.6328, -45.8406, -7.80736
4.012, 5, 8.24206, 15.6734, 32.1055, 11.5015, -45.9818, -7.71009
4.016, 5, 8.16801, 15.6916, 32.1498, 11.3708, -46.1231, -7.61343
4.02, 5, 8.09391, 15.71, 32.1939, 11.2407, -46.2646, -7.51736
4.024, 5, 8.01976, 15.7288, 32.2376, 11.1112, -46.4061, -7.4219
4.028, 5, 7.94556, 15.7478, 32.281, 10.9823, -46.5478, -7.32703
4.032, 5, 7.87131, 15.7671, 32.3241, 10.8539, -46.6897, -7.23275
4.036, 5, 7.79701, 15.7867, 32.3669, 10.7261, -46.8316, -7.13905
4.04, 5, 7.72265, 15.8066, 32.4094, 10.5988, -46.9737, -7.04594
4.044, 5, 7.64825, 15.8267, 32.4516, 10.4722, -47.116, -6.95341
4.048, 5, 7.5738, 15.8471, 32.4935, 10.346, -47.2583, -6.86146
4.052, 5, 7.4993, 15.8678, 32.5351, 10.2205, -47.4008, -6.77007
4.056, 5, 7.42475, 15.8888, 32.5764, 10.0954, -47.5434, -6.67926
4.06, 5, 7.35015, 15.9101, 32.6173, 9.97097, -47.6861, -6.589
4.064, 5, 7.27551, 15.9316, 32.658, 9.84703, -47.8289, -6.49931
4.068, 5, 7.20082, 15.9534, 32.6983, 9.72363, -47.9719, -6.41018
4.072, 5, 7.12608, 15.9755, 32.7384, 9.60076, -48.1149, -6.3216
4.076, 5, 7.05129, 15.9978, 32.7781, 9.47843, -48.2581, -6.23357
4.08, 5, 6.97646, 16.0205, 32.8175, 9.35662, -48.4014, -6.14608
4.084, 5, 6.90158, 16.0434, 32.8566, 9.23534, -48.5448, -6.05915
4.088, 5, 6.82666, 16.0666, 32.8954, 9.11458, -48.6884, -5.97275
4.092, 5, 6.75169, 16.0901, 32.9339, 8.99434, -48.832, -5.88689
4.096, 5, 6.67668, 16.1138, 32.9721, 8.87461, -48.9758, -5.80156
4.1, 5, 6.60163, 16.1379, 33.0099, 8.75539, -49.1196, -5.71676
4.104, 5, 6.52653, 16.1622, 33.0475, 8.63667, -49.2636, -5.63248
4.108, 5, 6.45139, 16.1868, 33.0847, 8.51846, -49.4076, -5.54873
4.112, 5, 6.3762, 16.2116, 33.1216, 8.40075, -49.5518, -5.4655
4.116, 5, 6.30098, 16.2368, 33.1582, 8.28354, -49.6961, -5.38278
4.12, 5, 6.22571, 16.2622, 33.1945, 8.16681, -49.8404, -5.30057
4.124, 5, 6.1504, 16.2879, 33.2305, 8.05057, -49.9849, -5.21887
4.128, 5, 6.07506, 16.3139, 33.2661, 7.93482, -50.1295, -5.13767
4.132, 5, 5.99967, 16.3401, 33.3015, 7.81954, -50.2741, -5.05696
4.136, 5, 5.92424, 16.3666, 33.3365, 7.70474, -50.4189, -4.97675
4.14, 5, 5.84878, 16.3934, 33.3712, 7.5904, -50.5637, -4.89703
4.144, 5, 5.77327, 16.4205, 33.4056, 7.47654, -50.7086, -4.8178
4.148, 5, 5.69773, 16.4478, 33.4397, 7.36314, -50.8536, -4.73904
4.152, 5, 5.62215, 16.4755, 33.4735, 7.2502, -50.9987, -4.66077
4.156, 5, 5.54653, 16.5034, 33.5069, 7.13772, -51.1439, -4.58297
4.16, 5, 5.47088, 16.5315, 33.54, 7.02568, -51.2892, -4.50564
4.164, 5, 5.39519, 16.56, 33.5729, 6.9141, -51.4345, -4.42877
4.168, 5, 5.31947, 16.5887, 33.6054, 6.80297, -51.5799, -4.35237
4.172, 5, 5.24371, 16.6176, 33.6376, 6.69227, -51.7254, -4.27643
4.176, 5, 5.16792, 16.6469, 33.6694, 6.58202, -51.871, -4.20095
4.18, 5, 5.09209, 16.6764, 33.701, 6.4722, -52.0166, -4.12592
4.184, 5, 5.01624, 16.7062, 33.7322, 6.36281, -52.1623, -4.05133
4.188, 5, 4.94035, 16.7362, 33.7631, 6.25385, -52.3081, -3.9772
4.192, 5, 4.86443, 16.7665, 33.7938, 6.14532, -52.4539, -3.9035
4.196, 5, 4.78848, 16.7971, 33.824, 6.03721, -52.5999, -3.83025
4.2, 5, 4.71249, 16.828, 33.854, 5.92952, -52.7458, -3.75743
4.204, 5, 4.63648, 16.8591, 33.8837, 5.82225, -52.8919, -3.68505
4.208, 5, 4.56044, 16.8905, 33.913, 5.71539, -53.038, -3.61309
4.212, 5, 4.48437, 16.9221, 33.942, 5.60894, -53.1841, -3.54156
4.216, 5, 4.40827, 16.9541, 33.9707, 5.5029, -53.3303, -3.47046
4.22, 5, 4.33215, 16.9862, 33.9991, 5.39727, -53.4766, -3.39977
4.224, 5, 4.256, 17.0187, 34.0272, 5.29204, -53.6229, -3.3295
4.228, 5, 4.17982, 17.0514, 34.0549, 5.1872, -53.7693, -3.25965
4.232, 5, 4.10361, 17.0843, 34.0824, 5.08277, -53.9157, -3.19021
4.236, 5, 4.02738, 17.1176, 34.1095, 4.97872, -54.0622, -3.12118
4.24, 5, 3.95113, 17.1511, 34.1363, 4.87507, -54.2087, -3.05255
4.244, 5, 3.87485, 17.1848, 34.1628, 4.77181, -54.3553, -2.98433
4.248, 5, 3.79854, 17.2188, 34.1889, 4.66893, -54.5019, -2.91651
4.252, 5, 3.72221, 17.2531, 34.2147, 4.56643, -54.6486, -2.84908
4.256, 5, 3.64586, 17.2876, 34.2403, 4.46432, -54.7953, -2.78205
4.26, 5, 3.56949, 17.3224, 34.2655, 4.36258, -54.942, -2.71541
4.264, 5, 3.4931, 17.3575, 34.2903, 4.26122, -55.0888, -2.64917
4.268, 5, 3.41668, 17.3928, 34.3149, 4.16023, -55.2356, -2.58331
4.272, 5, 3.34024, 17.4284, 34.3391, 4.05961, -55.3825, -2.51783
4.276, 5, 3.26378, 17.4642, 34.363, 3.95936, -55.5294, -2.45273
4.28, 5, 3.1873, 17.5003, 34.3866, 3.85948, -55.6763, -2.38802
4.284, 5, 3.11081, 17.5367, 34.4099, 3.75996, -55.8232, -2.32368
4.288, 5, 3.03429, 17.5733, 34.4328, 3.6608, -55.9702, -2.25972
4.292, 5, 2.95775, 17.6101, 34.4555, 3.562, -56.1172, -2.19612
4.296, 5, 2.8812, 17.6473, 34.4778, 3.46355, -56.2643, -2.1329
4.3, 5, 2.80463, 17.6846, 34.4997, 3.36546, -56.4114, -2.07004
4.304, 5, 2.72804, 17.7223, 34.5214, 3.26772, -56.5585, -2.00755
4.308, 5, 2.65143, 17.7602, 34.5427, 3.17033, -56.7056, -1.94542
4.312, 5, 2.57481, 17.7983, 34.5637, 3.07329, -56.8528, -1.88366
4.316, 5, 2.49817, 17.8367, 34.5844, 2.97659, -56.9999, -1.82225
4.32, 5, 2.42151, 17.8754, 34.6048, 2.88023, -57.1471, -1.76119
4.324, 5, 2.34485, 17.9143, 34.6248, 2.78422, -57.2943, -1.70049
4.328, 5, 2.26817, 17.9535, 34.6445, 2.68854, -57.4416, -1.64014
4.332, 5, 2.19147, 17.9929, 34.6639, 2.5932, -57.5888, -1.58014
4.336, 5, 2.11476, 18.0326, 34.6829, 2.4982, -57.7361, -1.52048
4.34, 5, 2.03804, 18.0725, 34.7017, 2.40353, -57.8834, -1.46117
4.344, 5, 1.96131, 18.1127, 34.7201, 2.30919, -58.0307, -1.4022
4.348, 5, 1.88457, 18.1531, 34.7381, 2.21517, -58.178, -1.34357
4.352, 5, 1.80781, 18.1938, 34.7559, 2.12148, -58.3253, -1.28527
4.356, 5, 1.73105, 18.2347, 34.7733, 2.02812, -58.4726, -1.22731
4.36, 5, 1.65428, 18.2759, 34.7904, 1.93508, -58.6199, -1.16969
4.364, 5, 1.57749, 18.3174, 34.8072, 1.84235, -58.7672, -1.11239
4.368, 5, 1.50072, 18.359, 34.8236, 1.74994, -58.9146, -1.05541
4.372, 5, 1.42405, 18.4009, 34.8397, 1.65785, -59.0619, -0.998767
4.376, 5, 1.34767, 18.443, 34.8555, 1.56608, -59.2092, -0.942446
4.38, 5, 1.27183, 18.485, 34.871, 1.47464, -59.3565, -0.886462
4.384, 5, 1.19679, 18.5269, 34.8863, 1.38357, -59.5037, -0.83084
4.388, 5, 1.12279, 18.5685, 34.9012, 1.29296, -59.6505, -0.775629
4.392, 5, 1.05005, 18.6097, 34.9159, 1.20294, -59.7969, -0.720907
4.396, 5, 0.97879, 18.6502, 34.9303, 1.11371, -59.9425, -0.666794
4.4, 5, 0.909166, 18.6898, 34.9444, 1.02554, -60.0867, -0.613447
4.404, 5, 0.84127, 18.7286, 34.9582, 0.938776, -60.2291, -0.56107
4.408, 5, 0.775202, 18.7663, 34.9715, 0.853832, -60.3688, -0.509901
4.412, 5, 0.711119, 18.8029, 34.9843, 0.771167, -60.5051, -0.460204
4.416, 5, 0.649229, 18.8383, 34.9966, 0.691269, -60.6372, -0.41226
4.42, 5, 0.589742, 18.8723, 35.0081, 0.614634, -60.7642, -0.366353
4.424, 5, 0.532846, 18.905, 35.019, 0.541743, -60.8853, -0.322758
4.428, 5, 0.478723, 18.9362, 35.029, 0.473041, -60.9996, -0.281728
4.432, 5, 0.427565, 18.9658, 35.0382, 0.408923, -61.1065, -0.243485
4.436, 5, 0.379529, 18.9937, 35.0466, 0.349712, -61.2055, -0.20821
4.44, 5, 0.334665, 19.0199, 35.054, 0.295655, -61.296, -0.176037
4.444, 5, 0.292931, 19.0444, 35.0605, 0.246902, -61.3777, -0.147042
4.448, 5, 0.254269, 19.0673, 35.066, 0.203497, -61.4506, -0.121243
4.452, 5, 0.218674, 19.0885, 35.0706, 0.165369, -61.5148, -0.0985854
4.456, 5, 0.186181, 19.1079, 35.0744, 0.132331, -61.5704, -0.0789547
4.46, 5, 0.156832, 19.1256, 35.0775, 0.1041, -61.6181, -0.0621783
4.464, 5, 0.130655, 19.1415, 35.0799, 0.0803168, -61.6583, -0.0480403
4.468, 5, 0.107642, 19.1556, 35.0817, 0.0605684, -61.6917, -0.0362957
4.472, 5, 0.0877021, 19.1678, 35.083, 0.044419, -61.719, -0.0266859
4.476, 5, 0.0706074, 19.1782, 35.084, 0.0314307, -61.741, -0.0189507
4.48, 5, 0.0560075, 19.1872, 35.0847, 0.0211777, -61.7584, -0.0128371
4.484, 5, 0.0435228, 19.1947, 35.0851, 0.0132511, -61.7719, -0.00810213
4.488, 5, 0.0328507, 19.201, 35.0853, 0.00726146, -61.7821, -0.00451523
4.492, 5, 0.0237993, 19.2063, 35.0853, 0.00284255, -61.7896, -0.00186055
4.496, 5, 0.0162468, 19.2105, 35.0852, -0.000340546, -61.7951, 5.89153E-5
4.5, 5, 0.0100958, 19.2139, 35.0851, -0.00258326, -61.7989, 0.00141688
4.504, 5, 0.00525597, 19.2165, 35.085, -0.00413492, -61.8016, 0.00236013
4.508, 5, 0.00161558, 19.2183, 35.0849, -0.00519526, -61.8034, 0.0030067
4.512, 5, -0.00100321, 19.2197, 35.0849, -0.00591532, -61.8046, 0.00344656
4.516, 5, -0.00286827, 19.2206, 35.0848, -0.00640372, -61.8055, 0.00374525
4.52, 5, -0.0043129, 19.2214, 35.0847, -0.00673763, -61.806, 0.00394994
4.524, 5, -0.00567669, 19.2221, 35.0846, -0.0069763, -61.8064, 0.00409722
4.528, 5, -0.00725277, 19.2231, 35.0844, -0.00717513, -61.8068, 0.00422111
4.532, 5, -0.00926669, 19.2246, 35.084, -0.00739832, -61.8071, 0.00436048
4.536, 5, -0.0118874, 19.2267, 35.0834, -0.00772913, -61.8077, 0.00456509
4.54, 5, -0.015246, 19.2298, 35.0825, -0.00827711, -61.8086, 0.00489989
4.544, 5, -0.0194521, 19.2341, 35.0812, -0.00918312, -61.8102, 0.00544807
4.548, 5, -0.0246205, 19.2399, 35.0793, -0.0106225, -61.8126, 0.0063129
4.552, 6, -0.0309067, 19.2476, 35.0768, -0.012807, -61.8164, 0.007619
4.556, 6, -0.0385254, 19.2573, 35.0734, -0.0159863, -61.8218, 0.00951296
4.56, 6, -0.0477366, 19.2693, 35.0689, -0.020448, -61.8295, 0.0121637
4.564, 6, -0.0587931, 19.2839, 35.0632, -0.0265177, -61.84, 0.0157617
4.568, 6, -0.0718783, 19.3011, 35.0561, -0.0345539, -61.8538, 0.0205162
4.572, 6, -0.0870879, 19.3211, 35.0472, -0.0449375, -61.8718, 0.0266484
4.576, 6, -0.104475, 19.3438, 35.0366, -0.0580533, -61.8945, 0.0343812
4.58, 6, -0.124115, 19.3696, 35.0239, -0.0742693, -61.9226, 0.0439273
4.584, 6, -0.146122, 19.3986, 35.009, -0.0939174, -61.9566, 0.0554783
4.588, 6, -0.170622, 19.431, 34.9917, -0.11728, -61.9972, 0.0691966
4.592, 6, -0.197714, 19.4671, 34.9718, -0.144578, -62.0447, 0.0852086
4.596, 6, -0.227455, 19.507, 34.9494, -0.175967, -62.0994, 0.103601
4.6, 6, -0.259854, 19.5507, 34.9242, -0.211526, -62.1614, 0.124417
4.604, 6, -0.294868, 19.5983, 34.8962, -0.251259, -62.2308, 0.147653
4.608, 6, -0.332412, 19.6495, 34.8656, -0.295085, -62.3075, 0.173258
4.612, 6, -0.372385, 19.7044, 34.8323, -0.342845, -62.3913, 0.201134
4.616, 6, -0.414734, 19.7627, 34.7965, -0.394298, -62.4816, 0.231136
4.62, 6, -0.459462, 19.8243, 34.7581, -0.449138, -62.5781, 0.263083
4.624, 6, -0.506575, 19.8891, 34.7174, -0.507009, -62.6802, 0.296765
4.628, 6, -0.556006, 19.9571, 34.6745, -0.567529, -62.7871, 0.331957
4.632, 6, -0.607592, 20.0281, 34.6296, -0.63031, -62.8982, 0.368429
4.636, 6, -0.661114, 20.1019, 34.5828, -0.694971, -63.0129, 0.405958
4.64, 6, -0.716343, 20.1784, 34.5344, -0.761147, -63.1306, 0.44433
4.644, 6, -0.773083, 20.2574, 34.4846, -0.828501, -63.2507, 0.483346
4.648, 6, -0.83118, 20.3386, 34.4335, -0.896727, -63.3726, 0.522829
4.652, 6, -0.890509, 20.422, 34.3813, -0.965559, -63.4959, 0.56262
4.656, 6, -0.950967, 20.5071, 34.3281, -1.03477, -63.6201, 0.602588
4.66, 6, -1.01245, 20.5938, 34.2741, -1.10417, -63.7451, 0.642626
4.664, 6, -1.07483, 20.6818, 34.2194, -1.17362, -63.8704, 0.682651
4.668, 6, -1.13791, 20.7707, 34.164, -1.24302, -63.996, 0.722601
4.672, 6, -1.2015, 20.8604, 34.1081, -1.31229, -64.1217, 0.762435
4.676, 6, -1.26542, 20.9506, 34.0518, -1.38138, -64.2474, 0.802124
4.68, 6, -1.32952, 21.0412, 33.995, -1.45027, -64.373, 0.841649
4.684, 6, -1.39372, 21.1321, 33.9378, -1.51892, -64.4985, 0.880999
4.688, 6, -1.45796, 21.2233, 33.8803, -1.58733, -64.6239, 0.920166
4.692, 6, -1.52218, 21.3146, 33.8224, -1.65548, -64.7492, 0.959146
4.696, 6, -1.58637, 21.4061, 33.7641, -1.72337, -64.8744, 0.997936
4.7, 6, -1.65051, 21.4978, 33.7056, -1.791, -64.9993, 1.03654
4.704, 6, -1.71457, 21.5896, 33.6466, -1.85837, -65.1241, 1.07495
4.708, 6, -1.77856, 21.6815, 33.5874, -1.92546, -65.2487, 1.11316
4.712, 6, -1.84246, 21.7735, 33.5278, -1.99229, -65.3732, 1.15119
4.716, 6, -1.90628, 21.8657, 33.468, -2.05886, -65.4974, 1.18904
4.72, 6, -1.97, 21.9579, 33.4077, -2.12516, -65.6215, 1.22669
4.724, 6, -2.03363, 22.0503, 33.3472, -2.19119, -65.7454, 1.26416
4.728, 6, -2.09716, 22.1427, 33.2863, -2.25696, -65.8691, 1.30145
4.732, 6, -2.1606, 22.2353, 33.2252, -2.32246, -65.9926, 1.33856
4.736, 6, -2.22394, 22.328, 33.1637, -2.38771, -66.1159, 1.37549
4.74, 6, -2.28718, 22.4207, 33.1018, -2.45269, -66.2391, 1.41224
4.744, 6, -2.35032, 22.5136, 33.0397, -2.51741, -66.362, 1.44881
4.748, 6, -2.41337, 22.6065, 32.9772, -2.58188, -66.4847, 1.48521
4.752, 6, -2.47632, 22.6995, 32.9144, -2.64608, -66.6073, 1.52143
4.756, 6, -2.53917, 22.7927, 32.8513, -2.71004, -66.7297, 1.55749
4.76, 6, -2.60193, 22.8859, 32.7879, -2.77373, -66.8518, 1.59338
4.764, 6, -2.66458, 22.9792, 32.7241, -2.83717, -66.9738, 1.6291
4.768, 6, -2.72714, 23.0726, 32.66, -2.90036, -67.0956, 1.66465
4.772, 6, -2.7896, 23.1662, 32.5956, -2.9633, -67.2172, 1.70004
4.776, 6, -2.85196, 23.2598, 32.5309, -3.02599, -67.3386, 1.73527
4.78, 6, -2.91422, 23.3534, 32.4659, -3.08843, -67.4598, 1.77034
4.784, 6, -2.97638, 23.4472, 32.4005, -3.15062, -67.5807, 1.80524
4.788, 6, -3.03844, 23.5411, 32.3348, -3.21256, -67.7015, 1.84
4.792, 6, -3.1004, 23.635, 32.2688, -3.27426, -67.8221, 1.87459
4.796, 6, -3.16227, 23.7291, 32.2025, -3.33572, -67.9425, 1.90904
4.8, 6, -3.22403, 23.8232, 32.1359, -3.39692, -68.0627, 1.94333
4.804, 6, -3.2857, 23.9174, 32.0689, -3.45789, -68.1827, 1.97747
4.808, 6, -3.34727, 24.0117, 32.0016, -3.51862, -68.3024, 2.01146
4.812, 6, -3.40873, 24.1061, 31.934, -3.5791, -68.422, 2.04531
4.816, 6, -3.4701, 24.2006, 31.8661, -3.63935, -68.5414, 2.07901
4.82, 6, -3.53137, 24.2952, 31.7979, -3.69936, -68.6605, 2.11257
4.824, 6, -3.59254, 24.3898, 31.7293, -3.75913, -68.7794, 2.14598
4.828, 6, -3.65361, 24.4845, 31.6604, -3.81867, -68.8982, 2.17925
4.832, 6, -3.71457, 24.5793, 31.5912, -3.87797, -69.0167, 2.21239
4.836, 6, -3.77544, 24.6742, 31.5217, -3.93703, -69.135, 2.24539
4.84, 6, -3.83621, 24.7692, 31.4519, -3.99587, -69.2531, 2.27825
4.844, 6, -3.89688, 24.8643, 31.3817, -4.05447, -69.371, 2.31098
4.848, 6, -3.95744, 24.9594, 31.3112, -4.11284, -69.4887, 2.34358
4.852, 6, -4.01791, 25.0546, 31.2404, -4.17098, -69.6062, 2.37604
4.856, 6, -4.07828, 25.1499, 31.1693, -4.2289, -69.7234, 2.40838
4.86, 6, -4.13854, 25.2453, 31.0979, -4.28658, -69.8404, 2.44059
4.864, 6, -4.1987, 25.3407, 31.0261, -4.34404, -69.9572, 2.47267
4.868, 6, -4.25877, 25.4362, 30.9541, -4.40127, -70.0738, 2.50463
4.872, 6, -4.31873, 25.5318, 30.8817, -4.45827, -70.1902, 2.53647
4.876, 6, -4.37859, 25.6275, 30.8089, -4.51506, -70.3064, 2.56818
4.88, 6, -4.43835, 25.7233, 30.7359, -4.57162, -70.4223, 2.59978
4.884, 6, -4.49801, 25.8191, 30.6625, -4.62795, -70.538, 2.63125
4.888, 6, -4.55756, 25.915, 30.5889, -4.68407, -70.6535, 2.66261
4.892, 6, -4.61702, 26.011, 30.5149, -4.73997, -70.7688, 2.69385
4.896, 6, -4.67637, 26.1071, 30.4405, -4.79564, -70.8839, 2.72498
4.9, 6, -4.73562, 26.2032, 30.3659, -4.8511, -70.9987, 2.756
4.904, 6, -4.79477, 26.2994, 30.2909, -4.90634, -71.1133, 2.78691
4.908, 6, -4.85382, 26.3957, 30.2157, -4.96137, -71.2276, 2.8177
4.912, 6, -4.91276, 26.492, 30.1401, -5.01618, -71.3418, 2.84839
4.916, 6, -4.9716, 26.5884, 30.0641, -5.07078, -71.4557, 2.87897
4.92, 6, -5.03034, 26.6849, 29.9879, -5.12516, -71.5694, 2.90945
4.924, 6, -5.08898, 26.7815, 29.9113, -5.17933, -71.6829, 2.93982
4.928, 6, -5.14751, 26.8781, 29.8345, -5.23328, -71.7961, 2.9701
4.932, 6, -5.20594, 26.9748, 29.7572, -5.28703, -71.9091, 3.00027
4.936, 6, -5.26427, 27.0716, 29.6797, -5.34056, -72.0218, 3.03034
4.94, 6, -5.3225, 27.1684, 29.6019, -5.39389, -72.1344, 3.06031
4.944, 6, -5.38062, 27.2653, 29.5237, -5.44701, -72.2467, 3.09019
4.948, 6, -5.43863, 27.3623, 29.4452, -5.49992, -72.3587, 3.11997
4.952, 6, -5.49655, 27.4593, 29.3664, -5.55262, -72.4705, 3.14966
4.956, 6, -5.55436, 27.5564, 29.2873, -5.60512, -72.5821, 3.17926
4.96, 6, -5.61206, 27.6536, 29.2078, -5.65742, -72.6935, 3.20877
4.964, 6, -5.66966, 27.7508, 29.128, -5.70951, -72.8046, 3.23819
4.968, 6, -5.72716, 27.8481, 29.0479, -5.76139, -72.9154, 3.26752
4.972, 6, -5.78455, 27.9454, 28.9675, -5.81307, -73.0261, 3.29676
4.976, 6, -5.84183, 28.0429, 28.8868, -5.86455, -73.1365, 3.32592
4.98, 6, -5.89901, 28.1403, 28.8057, -5.91583, -73.2466, 3.355
4.984, 6, -5.95609, 28.2379, 28.7243, -5.96691, -73.3565, 3.38399
4.988, 6, -6.01307, 28.3355, 28.6426, -6.01779, -73.4662, 3.4129
4.992, 6, -6.06994, 28.4332, 28.5606, -6.06846, -73.5756, 3.44174
4.996, 6, -6.1267, 28.5309, 28.4782, -6.11894, -73.6847, 3.47049
5, 6, -6.18337, 28.6287, 28.3955, -6.16922, -73.7937, 3.49917
5.004, 6, -6.23992, 28.7266, 28.3125, -6.2193, -73.9024, 3.52777
5.008, 6, -6.29638, 28.8245, 28.2292, -6.26918, -74.0108, 3.5563
5.012, 6, -6.35273, 28.9225, 28.1456, -6.31887, -74.119, 3.58475
5.016, 6, -6.40898, 29.0205, 28.0616, -6.36836, -74.2269, 3.61313
5.02, 6, -6.46512, 29.1186, 27.9773, -6.41765, -74.3346, 3.64144
5.024, 6, -6.52116, 29.2168, 27.8927, -6.46675, -74.4421, 3.66968
5.028, 6, -6.57709, 29.315, 27.8078, -6.51565, -74.5492, 3.69785
5.032, 6, -6.63292, 29.4133, 27.7225, -6.56436, -74.6562, 3.72595
5.036, 6, -6.68865, 29.5116, 27.6369, -6.61287, -74.7629, 3.75399
5.04, 6, -6.74427, 29.61, 27.551, -6.66119, -74.8694, 3.78196
5.044, 6, -6.79979, 29.7084, 27.4648, -6.70931, -74.9756, 3.80986
5.048, 6, -6.8552, 29.807, 27.3783, -6.75725, -75.0815, 3.8377
5.052, 6, -6.91051, 29.9055, 27.2914, -6.80499, -75.1872, 3.86548
5.056, 6, -6.96572, 30.0041, 27.2042, -6.85254, -75.2927, 3.8932
5.06, 6, -7.02082, 30.1028, 27.1167, -6.8999, -75.3979, 3.92085
5.064, 6, -7.07582, 30.2016, 27.0289, -6.94707, -75.5029, 3.94845
5.068, 6, -7.13072, 30.3004, 26.9408, -6.99405, -75.6076, 3.97598
5.072, 6, -7.18551, 30.3992, 26.8523, -7.04084, -75.7121, 4.00346
5.076, 6, -7.2402, 30.4981, 26.7635, -7.08744, -75.8163, 4.03089
5.08, 6, -7.29479, 30.5971, 26.6744, -7.13385, -75.9202, 4.05825
5.084, 6, -7.34927, 30.6961, 26.585, -7.18008, -76.024, 4.08557
5.088, 6, -7.40366, 30.7952, 26.4952, -7.22611, -76.1274, 4.11283
5.092, 6, -7.45793, 30.8943, 26.4052, -7.27196, -76.2306, 4.14003
5.096, 6, -7.51211, 30.9935, 26.3148, -7.31762, -76.3336, 4.16719
5.1, 6, -7.56618, 31.0928, 26.2241, -7.3631, -76.4363, 4.19429
5.104, 6, -7.62015, 31.1921, 26.133, -7.40839, -76.5388, 4.22135
5.108, 6, -7.67402, 31.2914, 26.0417, -7.4535, -76.641, 4.24836
5.112, 6, -7.72778, 31.3908, 25.95, -7.49842, -76.743, 4.27532
5.116, 6, -7.78144, 31.4903, 25.858, -7.54315, -76.8447, 4.30223
5.12, 6, -7.835, 31.5898, 25.7657, -7.5877, -76.9461, 4.3291
5.124, 6, -7.88846, 31.6894, 25.6731, -7.63207, -77.0473, 4.35592
5.128, 6, -7.94182, 31.789, 25.5801, -7.67626, -77.1482, 4.3827
5.132, 6, -7.99507, 31.8887, 25.4869, -7.72026, -77.2489, 4.40944
5.136, 6, -8.04822, 31.9884, 25.3933, -7.76408, -77.3494, 4.43613
5.14, 6, -8.10127, 32.0882, 25.2994, -7.80771, -77.4496, 4.46279
5.144, 6, -8.15421, 32.1881, 25.2051, -7.85117, -77.5495, 4.4894
5.148, 6, -8.20706, 32.288, 25.1106, -7.89444, -77.6492, 4.51598
5.152, 6, -8.2598, 32.3879, 25.0157, -7.93754, -77.7486, 4.54252
5.156, 6, -8.31244, 32.4879, 24.9205, -7.98045, -77.8477, 4.56902
5.16, 6, -8.36497, 32.588, 24.825, -8.02318, -77.9466, 4.59549
5.164, 6, -8.41741, 32.6881, 24.7291, -8.06574, -78.0453, 4.62192
5.168, 6, -8.46974, 32.7883, 24.633, -8.10811, -78.1437, 4.64832
5.172, 6, -8.52197, 32.8885, 24.5365, -8.1503, -78.2418, 4.67469
5.176, 6, -8.5741, 32.9887, 24.4397, -8.19232, -78.3397, 4.70102
5.18, 6, -8.62613, 33.0891, 24.3426, -8.23416, -78.4373, 4.72733
5.184, 6, -8.67805, 33.1894, 24.2451, -8.27582, -78.5347, 4.7536
5.188, 6, -8.72988, 33.2899, 24.1473, -8.3173, -78.6318, 4.77985
5.192, 6, -8.7816, 33.3904, 24.0492, -8.3586, -78.7286, 4.80607
5.196, 6, -8.83322, 33.4909, 23.9508, -8.39973, -78.8252, 4.83226
5.2, 6, -8.88474, 33.5915, 23.8521, -8.44068, -78.9215, 4.85842
5.204, 6, -8.93615, 33.6921, 23.753, -8.48145, -79.0175, 4.88456
5.208, 6, -8.98746, 33.7928, 23.6536, -8.52205, -79.1133, 4.91068
5.212, 6, -9.03868, 33.8935, 23.5539, -8.56247, -79.2089, 4.93677
5.216, 6, -9.08978, 33.9943, 23.4539, -8.60272, -79.3042, 4.96284
5.22, 6, -9.14079, 34.0951, 23.3535, -8.64279, -79.3992, 4.98889
5.224, 6, -9.1917, 34.196, 23.2528, -8.68268, -79.4939, 5.01492
5.228, 6, -9.2425, 34.297, 23.1518, -8.7224, -79.5884, 5.04094
5.232, 6, -9.2932, 34.398, 23.0505, -8.76195, -79.6826, 5.06693
5.236, 6, -9.3438, 34.499, 22.9488, -8.80132, -79.7766, 5.0929
5.24, 6, -9.3943, 34.6001, 22.8468, -8.84052, -79.8702, 5.11886
5.244, 6, -9.44469, 34.7012, 22.7445, -8.87955, -79.9637, 5.14481
5.248, 6, -9.49499, 34.8024, 22.6419, -8.9184, -80.0568, 5.17074
5.252, 6, -9.54518, 34.9037, 22.5389, -8.95708, -80.1497, 5.19665
5.256, 6, -9.59527, 35.005, 22.4356, -8.99559, -80.2423, 5.22256
5.26, 6, -9.64525, 35.1063, 22.332, -9.03392, -80.3347, 5.24845
5.264, 6, -9.69514, 35.2077, 22.2281, -9.07208, -80.4268, 5.27433
5.268, 6, -9.74492, 35.3091, 22.1238, -9.11007, -80.5186, 5.30021
5.272, 6, -9.79459, 35.4106, 22.0192, -9.14789, -80.6101, 5.32607
5.276, 6, -9.84417, 35.5121, 21.9143, -9.18554, -80.7014, 5.35193
5.28, 6, -9.89364, 35.6137, 21.809, -9.22301, -80.7924, 5.37778
5.284, 6, -9.94302, 35.7154, 21.7034, -9.26031, -80.8832, 5.40362
5.288, 6, -9.99229, 35.8171, 21.5975, -9.29745, -80.9736, 5.42946
5.292, 6, -10.0415, 35.9188, 21.4913, -9.33441, -81.0638, 5.4553
5.296, 6, -10.0905, 36.0206, 21.3847, -9.3712, -81.1537, 5.48113
5.3, 6, -10.1395, 36.1224, 21.2778, -9.40782, -81.2434, 5.50696
5.304, 6, -10.1884, 36.2243, 21.1706, -9.44427, -81.3327, 5.53279
5.308, 6, -10.2371, 36.3263, 21.063, -9.48056, -81.4218, 5.55862
5.312, 6, -10.2858, 36.4282, 20.9551, -9.51667, -81.5107, 5.58444
5.316, 6, -10.3344, 36.5303, 20.8469, -9.55261, -81.5992, 5.61027
5.32, 6, -10.3828, 36.6324, 20.7383, -9.58838, -81.6875, 5.63611
5.324, 6, -10.4312, 36.7345, 20.6294, -9.62399, -81.7755, 5.66194
5.328, 6, -10.4794, 36.8367, 20.5202, -9.65942, -81.8632, 5.68777
5.332, 6, -10.5276, 36.9389, 20.4106, -9.69468, -81.9507, 5.71361
5.336, 6, -10.5756, 37.0412, 20.3007, -9.72978, -82.0379, 5.73946
5.34, 6, -10.6236, 37.1436, 20.1905, -9.76471, -82.1248, 5.7653
5.344, 6, -10.6715, 37.246, 20.08, -9.79947, -82.2114, 5.79116
5.348, 6, -10.7192, 37.3484, 19.9691, -9.83406, -82.2978, 5.81702
5.352, 6, -10.7669, 37.4509, 19.8578, -9.86848, -82.3839, 5.84288
5.356, 6, -10.8144, 37.5534, 19.7463, -9.90274, -82.4697, 5.86875
5.36, 6, -10.8619, 37.656, 19.6344, -9.93683, -82.5553, 5.89463
5.364, 6, -10.9092, 37.7587, 19.5222, -9.97075, -82.6405, 5.92052
5.368, 6, -10.9565, 37.8614, 19.4096, -10.0045, -82.7255, 5.94642
5.372, 6, -11.0036, 37.9641, 19.2967, -10.0381, -82.8102, 5.97233
5.376, 6, -11.0507, 38.067, 19.1835, -10.0715, -82.8947, 5.99824
5.38, 6, -11.0976, 38.1698, 19.07, -10.1048, -82.9789, 6.02417
5.384, 6, -11.1445, 38.2727, 18.9561, -10.1378, -83.0628, 6.05011
5.388, 6, -11.1913, 38.3757, 18.8418, -10.1708, -83.1464, 6.07606
5.392, 6, -11.2379, 38.4787, 18.7273, -10.2035, -83.2297, 6.10203
5.396, 6, -11.2845, 38.5818, 18.6124, -10.2361, -83.3128, 6.12801
5.4, 6, -11.3309, 38.6849, 18.4972, -10.2685, -83.3956, 6.154
5.404, 6, -11.3773, 38.7881, 18.3816, -10.3008, -83.4781, 6.18001
5.408, 6, -11.4236, 38.8913, 18.2657, -10.3329, -83.5604, 6.20603
5.412, 6, -11.4697, 38.9946, 18.1494, -10.3648, -83.6424, 6.23207
5.416, 6, -11.5158, 39.098, 18.0328, -10.3965, -83.7241, 6.25813
5.42, 6, -11.5618, 39.2014, 17.9159, -10.4281, -83.8055, 6.2842
5.424, 6, -11.6076, 39.3048, 17.7987, -10.4596, -83.8866, 6.31029
5.428, 6, -11.6534, 39.4083, 17.6811, -10.4908, -83.9675, 6.3364
5.432, 6, -11.6991, 39.5119, 17.5631, -10.5219, -84.0481, 6.36253
5.436, 6, -11.7447, 39.6155, 17.4448, -10.5528, -84.1284, 6.38868
5.44, 6, -11.7901, 39.7192, 17.3262, -10.5836, -84.2085, 6.41485
5.444, 6, -11.8355, 39.8229, 17.2073, -10.6142, -84.2882, 6.44104
5.448, 6, -11.8808, 39.9267, 17.088, -10.6446, -84.3677, 6.46726
5.452, 6, -11.926, 40.0306, 16.9683, -10.6749, -84.4469, 6.49349
5.456, 6, -11.9711, 40.1345, 16.8483, -10.705, -84.5258, 6.51975
5.46, 6, -12.0161, 40.2384, 16.728, -10.735, -84.6045, 6.54604
5.464, 6, -12.061, 40.3424, 16.6073, -10.7647, -84.6828, 6.57235
5.468, 6, -12.1058, 40.4465, 16.4863, -10.7943, -84.7609, 6.59868
5.472, 6, -12.1505, 40.5506, 16.3649, -10.8238, -84.8387, 6.62505
5.476, 6, -12.1951, 40.6548, 16.2432, -10.8531, -84.9162, 6.65143
5.48, 6, -12.2396, 40.7591, 16.1212, -10.8822, -84.9935, 6.67785
5.484, 6, -12.284, 40.8634, 15.9988, -10.9112, -85.0704, 6.70429
5.488, 6, -12.3283, 40.9678, 15.876, -10.9399, -85.1471, 6.73077
5.492, 6, -12.3725, 41.0722, 15.7529, -10.9686, -85.2235, 6.75727
5.496, 6, -12.4167, 41.1767, 15.6295, -10.997, -85.2996, 6.7838
5.5, 6, -12.4607, 41.2812, 15.5057, -11.0253, -85.3755, 6.81037
5.504, 6, -12.5046, 41.3858, 15.3815, -11.0535, -85.451, 6.83696
5.508, 6, -12.5484, 41.4904, 15.2571, -11.0814, -85.5263, 6.86359
5.512, 6, -12.5919, 41.5949, 15.1323, -11.1092, -85.6012, 6.89025
5.516, 6, -12.6351, 41.6991, 15.0072, -11.1369, -85.6759, 6.91693
5.52, 6, -12.6776, 41.8025, 14.8821, -11.1643, -85.7503, 6.94364
5.524, 6, -12.7193, 41.9051, 14.757, -11.1916, -85.8243, 6.97035
5.528, 6, -12.7601, 42.0064, 14.6322, -11.2187, -85.898, 6.99703
5.532, 6, -12.7999, 42.1064, 14.5078, -11.2455, -85.971, 7.02363
5.536, 6, -12.8387, 42.205, 14.3843, -11.272, -86.0434, 7.0501
5.54, 6, -12.8765, 42.3018, 14.2619, -11.298, -86.1148, 7.07634
5.544, 6, -12.9134, 42.397, 14.1412, -11.3237, -86.1851, 7.10226
5.548, 6, -12.9492, 42.49, 14.0224, -11.3487, -86.254, 7.12776
5.552, 6, -12.9839, 42.5807, 13.9062, -11.373, -86.321, 7.15271
5.556, 6, -13.0174, 42.6685, 13.7932, -11.3966, -86.386, 7.17699
5.56, 6, -13.0497, 42.7532, 13.6839, -11.4192, -86.4486, 7.20047
5.564, 6, -13.0806, 42.8345, 13.5788, -11.4408, -86.5085, 7.22302
5.568, 6, -13.1102, 42.9124, 13.4784, -11.4613, -86.5654, 7.24451
5.572, 6, -13.1387, 42.9866, 13.3831, -11.4806, -86.6189, 7.26482
5.576, 6, -13.166, 43.0572, 13.2934, -11.4986, -86.6689, 7.28388
5.58, 6, -13.1921, 43.1238, 13.2095, -11.5152, -86.7152, 7.3016
5.584, 6, -13.217, 43.1864, 13.1317, -11.5305, -86.7578, 7.31793
5.588, 6, -13.2404, 43.2446, 13.0601, -11.5443, -86.7965, 7.33287
5.592, 6, -13.2622, 43.2983, 12.9949, -11.5569, -86.8315, 7.34641
5.596, 6, -13.2825, 43.3474, 12.9359, -11.5681, -86.8628, 7.35856
5.6, 6, -13.3011, 43.3921, 12.8831, -11.578, -86.8905, 7.36937
5.604, 6, -13.3182, 43.4323, 12.8362, -11.5867, -86.9149, 7.37889
5.608, 6, -13.3339, 43.4685, 12.795, -11.5942, -86.936, 7.38718
5.612, 6, -13.3481, 43.5007, 12.7591, -11.6007, -86.9541, 7.39432
5.616, 6, -13.3609, 43.5292, 12.7281, -11.6062, -86.9695, 7.4004
5.62, 6, -13.3724, 43.554, 12.7017, -11.6108, -86.9824, 7.40551
5.624, 6, -13.3826, 43.5755, 12.6795, -11.6146, -86.993, 7.40974
5.628, 6, -13.3915, 43.5938, 12.661, -11.6177, -87.0017, 7.41321
5.632, 6, -13.3993, 43.6093, 12.6459, -11.6202, -87.0086, 7.416
5.636, 6, -13.4061, 43.6226, 12.6337, -11.6221, -87.0141, 7.41821
5.64, 6, -13.4121, 43.6339, 12.6239, -11.6236, -87.0183, 7.41992
5.644, 6, -13.4175, 43.6435, 12.6162, -11.6248, -87.0214, 7.42121
5.648, 6, -13.4222, 43.6516, 12.6103, -11.6256, -87.0237, 7.42217
5.652, 6, -13.4263, 43.6584, 12.6058, -11.6262, -87.0254, 7.42286
5.656, 6, -13.4297, 43.664, 12.6025, -11.6266, -87.0265, 7.42335
5.66, 7, -13.4325, 43.6683, 12.6, -11.6269, -87.0273, 7.42369
5.664, 7, -13.4346, 43.6715, 12.5983, -11.6271, -87.0279, 7.42392
5.668, 7, -13.4361, 43.6738, 12.5971, -11.6272, -87.0282, 7.42408
5.672, 7, -13.4371, 43.6753, 12.5963, -11.6273, -87.0285, 7.42419
5.676, 7, -13.4378, 43.6764, 12.5958, -11.6274, -87.0286, 7.42426
5.68, 7, -13.4383, 43.6771, 12.5954, -11.6274, -87.0287, 7.42431
5.684, 7, -13.4386, 43.6776, 12.5951, -11.6274, -87.0288, 7.42434
5.688, 7, -13.4388, 43.678, 12.595, -11.6275, -87.0289, 7.42436
5.692, 7, -13.439, 43.6782, 12.5948, -11.6275, -87.0289, 7.42438
5.696, 7, -13.4391, 43.6783, 12.5948, -11.6275, -87.0289, 7.42439
5.7, 7, -13.4392, 43.6784, 12.5947, -11.6275, -87.0289, 7.4244
5.704, 7, -13.4392, 43.6785, 12.5947, -11.6275, -87.029, 7.4244
5.708, 7, -13.4392, 43.6786, 12.5947, -11.6275, -87.029, 7.4244
5.712, 7, -13.4393, 43.6786, 12.5946, -11.6275, -87.029, 7.42441
5.716, 7, -13.4393, 43.6786, 12.5946, -11.6275, -87.029, 7.42441
5.72, 7, -13.4393, 43.6786, 12.5946, -11.6275, -87.029, 7.42441
5.724, 7, -13.4393, 43.6786, 12.5946, -11.6275, -87.029, 7.42441
5.728, 7, -13.4393, 43.6786, 12.5946, -11.6275, -87.029, 7.42441
5.732, 7, -13.4393, 43.6786, 12.5946, -11.6275, -87.029, 7.42441
5.736, 7, -13.4393, 43.6786, 12.5946, -11.6275, -87.029, 7.42441
5.74, 7, -13.4393, 43.6787, 12.5946, -11.6275, -87.029, 7.42441
5.744, 7, -13.4393, 43.6787, 12.5946, -11.6275, -87.029, 7.42441
5.748, 7, -13.4393, 43.6787, 12.5946, -11.6275, -87.029, 7.42441
5.752, 7, -13.4393, 43.6787, 12.5946, -11.6275, -87.029, 7.42441
5.756, 7, -13.4393, 43.6787, 12.5946, -11.6275, -87.029, 7.42441
5.76, 7, -13.4393, 43.6787, 12.5946, -11.6275, -87.029, 7.42441
5.764, 7, -13.4393, 43.6787, 12.5946, -11.6275, -87.029, 7.42441
5.768, 7, -13.4393, 43.6787, 12.5946, -11.6275, -87.029, 7.42441
5.772, 7, -13.4393, 43.6787, 12.5946, -11.6275, -87.029, 7.42441
5.776, 7, -13.4393, 43.6787, 12.5946, -11.6275, -87.029, 7.42441
