hehonglu123/ABB_Primitive_Study/execution/movel_30_car/curve_exe_v500_z1.csv
timestamp, cmd_num, J1, J2, J3, J4, J5, J6
0, -1, -13.4393, 43.6787, 12.5946, -11.6275, -87.029, 7.42441
0.002, -1, -13.4393, 43.6787, 12.5946, -11.6275, -87.029, 7.42441
0.006, -1, -13.4393, 43.6787, 12.5946, -11.6275, -87.029, 7.42441
0.008, -1, -13.4393, 43.6787, 12.5946, -11.6275, -87.029, 7.42441
0.011, -1, -13.4393, 43.6787, 12.5946, -11.6275, -87.029, 7.42441
0.016, -1, -13.4393, 43.6787, 12.5946, -11.6275, -87.029, 7.42441
0.02, -1, -13.4393, 43.6787, 12.5946, -11.6275, -87.029, 7.42441
0.024, -1, -13.4393, 43.6787, 12.5946, -11.6275, -87.029, 7.42441
0.028, -1, -13.4393, 43.6787, 12.5946, -11.6275, -87.029, 7.42441
0.032, -1, -13.4393, 43.6787, 12.5946, -11.6275, -87.029, 7.42441
0.036, -1, -13.4392, 43.6786, 12.5946, -11.6275, -87.029, 7.42441
0.04, -1, -13.439, 43.6785, 12.5946, -11.6275, -87.029, 7.42441
0.044, -1, -13.4384, 43.678, 12.5947, -11.6275, -87.029, 7.42439
0.048, -1, -13.4372, 43.6772, 12.5949, -11.6274, -87.0289, 7.42434
0.052, -1, -13.4355, 43.6758, 12.5951, -11.6273, -87.0287, 7.42422
0.056, -1, -13.433, 43.6738, 12.5955, -11.627, -87.0284, 7.42397
0.06, -1, -13.4296, 43.671, 12.5961, -11.6264, -87.0277, 7.42349
0.064, -1, -13.4254, 43.6675, 12.5969, -11.6253, -87.0264, 7.42266
0.068, -1, -13.4203, 43.6631, 12.598, -11.6236, -87.0244, 7.42132
0.072, -1, -13.4141, 43.6579, 12.5994, -11.6209, -87.0213, 7.41928
0.076, -1, -13.4066, 43.6516, 12.6011, -11.617, -87.0167, 7.4163
0.08, -1, -13.3977, 43.6442, 12.6034, -11.6115, -87.0103, 7.41213
0.084, -1, -13.3869, 43.6352, 12.6062, -11.604, -87.0016, 7.40644
0.088, -1, -13.3743, 43.6247, 12.6097, -11.5941, -86.9899, 7.39892
0.092, -1, -13.3596, 43.6124, 12.6138, -11.5812, -86.9748, 7.38918
0.096, -1, -13.3427, 43.5982, 12.6186, -11.5648, -86.9557, 7.37685
0.1, -1, -13.3235, 43.582, 12.6243, -11.5444, -86.9319, 7.36155
0.104, -1, -13.3019, 43.5636, 12.6308, -11.5196, -86.9029, 7.3429
0.108, -1, -13.2776, 43.5427, 12.6382, -11.4899, -86.868, 7.32054
0.112, -1, -13.2505, 43.5193, 12.6467, -11.4547, -86.8269, 7.29416
0.116, -1, -13.2206, 43.4932, 12.6562, -11.4137, -86.7789, 7.26346
0.12, -1, -13.1877, 43.4644, 12.6669, -11.3667, -86.7238, 7.22818
0.124, -1, -13.1519, 43.4328, 12.6786, -11.3132, -86.6612, 7.18814
0.128, -1, -13.113, 43.3984, 12.6916, -11.2532, -86.591, 7.14319
0.131, -1, -13.071, 43.3611, 12.7056, -11.1865, -86.5129, 7.09326
0.136, -1, -13.026, 43.321, 12.7209, -11.1131, -86.4269, 7.03835
0.139, -1, -12.9779, 43.2779, 12.7373, -11.0331, -86.3333, 6.9785
0.144, -1, -12.9267, 43.232, 12.7548, -10.9467, -86.2321, 6.91384
0.148, -1, -12.8726, 43.1833, 12.7734, -10.854, -86.1236, 6.84454
0.152, -1, -12.8155, 43.132, 12.7932, -10.7555, -86.0082, 6.77084
0.156, -1, -12.7557, 43.0781, 12.8139, -10.6514, -85.8863, 6.69301
0.16, -1, -12.6932, 43.0219, 12.8355, -10.5422, -85.7585, 6.61137
0.164, -1, -12.6282, 42.9633, 12.8581, -10.4284, -85.6253, 6.52627
0.168, -1, -12.5607, 42.9025, 12.8815, -10.3105, -85.4872, 6.43809
0.172, -1, -12.4909, 42.8396, 12.9056, -10.189, -85.3449, 6.34721
0.176, -1, -12.4189, 42.7749, 12.9305, -10.0644, -85.1989, 6.25399
0.18, -1, -12.345, 42.7085, 12.956, -9.93711, -85.0499, 6.15879
0.184, -1, -12.2694, 42.6406, 12.9821, -9.80765, -84.8983, 6.06194
0.188, -1, -12.1925, 42.5714, 13.0086, -9.6764, -84.7446, 5.96375
0.192, -1, -12.1142, 42.5011, 13.0356, -9.54373, -84.5892, 5.86449
0.196, -1, -12.0348, 42.4297, 13.0629, -9.40995, -84.4326, 5.76439
0.2, -1, -11.9542, 42.3573, 13.0906, -9.27534, -84.2749, 5.66366
0.204, -1, -11.8724, 42.2841, 13.1185, -9.14011, -84.1166, 5.56246
0.208, -1, -11.7897, 42.21, 13.1466, -9.00443, -83.9577, 5.46092
0.212, -1, -11.7061, 42.1354, 13.1749, -8.86843, -83.7985, 5.35913
0.216, -1, -11.6218, 42.0602, 13.2033, -8.7322, -83.6389, 5.25717
0.22, -1, -11.5371, 41.9847, 13.2318, -8.5958, -83.4792, 5.15507
0.224, -1, -11.452, 41.909, 13.2603, -8.45928, -83.3194, 5.05288
0.228, -1, -11.3667, 41.8332, 13.2889, -8.32266, -83.1594, 4.95062
0.232, -1, -11.2813, 41.7572, 13.3176, -8.18597, -82.9993, 4.8483
0.236, -1, -11.1957, 41.6811, 13.3462, -8.04922, -82.8392, 4.74595
0.24, -1, -11.11, 41.605, 13.3749, -7.91243, -82.679, 4.64355
0.244, -1, -11.0243, 41.5288, 13.4035, -7.77561, -82.5188, 4.54114
0.248, -1, -10.9386, 41.4526, 13.4322, -7.63876, -82.3586, 4.4387
0.252, -1, -10.8528, 41.3764, 13.4609, -7.50189, -82.1983, 4.33625
0.256, -1, -10.767, 41.3002, 13.4896, -7.36501, -82.0381, 4.2338
0.26, -1, -10.6811, 41.2239, 13.5183, -7.22813, -81.8778, 4.13133
0.264, -1, -10.5953, 41.1477, 13.547, -7.09125, -81.7175, 4.02887
0.268, -1, -10.5094, 41.0714, 13.5757, -6.95436, -81.5572, 3.92641
0.272, -1, -10.4236, 40.9952, 13.6044, -6.81749, -81.397, 3.82396
0.276, -1, -10.3378, 40.9189, 13.6331, -6.68063, -81.2367, 3.72151
0.28, -1, -10.252, 40.8427, 13.6618, -6.54379, -81.0765, 3.61908
0.284, -1, -10.1661, 40.7665, 13.6904, -6.40697, -80.9163, 3.51666
0.288, -1, -10.0803, 40.6903, 13.7191, -6.27017, -80.7561, 3.41427
0.292, -1, -9.99456, 40.6141, 13.7478, -6.13341, -80.596, 3.31189
0.296, -1, -9.9088, 40.538, 13.7764, -5.99668, -80.4359, 3.20955
0.3, -1, -9.82306, 40.4618, 13.8051, -5.85999, -80.2758, 3.10723
0.304, -1, -9.73734, 40.3857, 13.8337, -5.72334, -80.1158, 3.00494
0.308, -1, -9.65166, 40.3096, 13.8624, -5.58674, -79.9558, 2.90269
0.312, -1, -9.566, 40.2336, 13.891, -5.45019, -79.796, 2.80048
0.316, -1, -9.48038, 40.1575, 13.9196, -5.31369, -79.6361, 2.69831
0.32, -1, -9.3948, 40.0815, 13.9482, -5.17726, -79.4764, 2.59618
0.324, -1, -9.30925, 40.0055, 13.9768, -5.04089, -79.3167, 2.4941
0.328, -1, -9.22375, 39.9296, 14.0054, -4.90458, -79.1571, 2.39207
0.332, -1, -9.13829, 39.8537, 14.0339, -4.76835, -78.9976, 2.2901
0.336, -1, -9.05287, 39.7778, 14.0625, -4.63219, -78.8382, 2.18818
0.34, -1, -8.9675, 39.702, 14.091, -4.49612, -78.6788, 2.08632
0.344, -1, -8.88219, 39.6262, 14.1195, -4.36012, -78.5196, 1.98452
0.348, -1, -8.79693, 39.5505, 14.148, -4.22421, -78.3604, 1.88279
0.352, -1, -8.71172, 39.4748, 14.1765, -4.0884, -78.2014, 1.78113
0.356, -1, -8.62657, 39.3992, 14.2049, -3.95267, -78.0425, 1.67953
0.36, -1, -8.54148, 39.3236, 14.2334, -3.81705, -77.8837, 1.57801
0.364, -1, -8.45646, 39.2481, 14.2618, -3.68152, -77.725, 1.47657
0.368, -1, -8.3715, 39.1727, 14.2902, -3.54611, -77.5664, 1.3752
0.372, -1, -8.28661, 39.0973, 14.3185, -3.4108, -77.408, 1.27392
0.376, -1, -8.20179, 39.0219, 14.3469, -3.2756, -77.2497, 1.17272
0.38, -1, -8.11704, 38.9467, 14.3752, -3.14052, -77.0915, 1.07161
0.384, -1, -8.03237, 38.8715, 14.4035, -3.00557, -76.9335, 0.970588
0.388, -1, -7.94777, 38.7963, 14.4318, -2.87073, -76.7756, 0.869659
0.392, -1, -7.86325, 38.7212, 14.46, -2.73602, -76.6179, 0.768825
0.396, -1, -7.77881, 38.6463, 14.4882, -2.60145, -76.4603, 0.668089
0.4, -1, -7.69446, 38.5713, 14.5164, -2.467, -76.3029, 0.567454
0.404, -1, -7.61019, 38.4965, 14.5446, -2.3327, -76.1456, 0.466921
0.408, -1, -7.526, 38.4217, 14.5727, -2.19854, -75.9885, 0.366494
0.412, -1, -7.44191, 38.347, 14.6008, -2.06452, -75.8316, 0.266176
0.416, -1, -7.35791, 38.2724, 14.6288, -1.93064, -75.6748, 0.165968
0.42, -1, -7.274, 38.1979, 14.6569, -1.79692, -75.5183, 0.0658724
0.424, -1, -7.19019, 38.1235, 14.6849, -1.66336, -75.3619, -0.0341072
0.428, -1, -7.10648, 38.0491, 14.7128, -1.52995, -75.2057, -0.133969
0.432, -1, -7.02287, 37.9748, 14.7408, -1.3967, -75.0496, -0.233711
0.436, -1, -6.93935, 37.9007, 14.7687, -1.26362, -74.8938, -0.33333
0.44, -1, -6.85595, 37.8266, 14.7965, -1.1307, -74.7382, -0.432824
0.444, -1, -6.77264, 37.7526, 14.8244, -0.99795, -74.5827, -0.532191
0.448, -1, -6.68945, 37.6787, 14.8522, -0.865375, -74.4275, -0.631429
0.452, -1, -6.60636, 37.6049, 14.8799, -0.732975, -74.2725, -0.730535
0.456, -1, -6.52339, 37.5312, 14.9077, -0.600755, -74.1176, -0.829507
0.46, -1, -6.44053, 37.4576, 14.9353, -0.468716, -73.963, -0.928344
0.464, -1, -6.35778, 37.3842, 14.963, -0.336861, -73.8086, -1.02704
0.468, -1, -6.27515, 37.3108, 14.9906, -0.205193, -73.6545, -1.1256
0.472, -1, -6.19264, 37.2375, 15.0181, -0.0737153, -73.5005, -1.22402
0.476, -1, -6.11024, 37.1643, 15.0457, 0.0575699, -73.3468, -1.32229
0.48, -1, -6.02797, 37.0912, 15.0732, 0.18866, -73.1933, -1.42042
0.484, -1, -5.94582, 37.0183, 15.1006, 0.319552, -73.04, -1.51839
0.488, -1, -5.8638, 36.9454, 15.128, 0.450244, -72.887, -1.61622
0.492, -1, -5.7819, 36.8727, 15.1554, 0.580734, -72.7342, -1.7139
0.496, -1, -5.70012, 36.8001, 15.1827, 0.711018, -72.5817, -1.81142
0.5, -1, -5.61848, 36.7276, 15.2099, 0.841096, -72.4294, -1.90879
0.504, -1, -5.53697, 36.6552, 15.2372, 0.970964, -72.2773, -2.006
0.508, -1, -5.45558, 36.5829, 15.2644, 1.10062, -72.1255, -2.10306
0.512, -1, -5.37433, 36.5108, 15.2915, 1.23006, -71.9739, -2.19995
0.516, -1, -5.29321, 36.4387, 15.3186, 1.35929, -71.8226, -2.29668
0.52, -1, -5.21223, 36.3668, 15.3456, 1.4883, -71.6715, -2.39325
0.524, -1, -5.13138, 36.295, 15.3726, 1.6171, -71.5207, -2.48966
0.528, -1, -5.05067, 36.2233, 15.3996, 1.74567, -71.3702, -2.5859
0.532, -1, -4.97009, 36.1518, 15.4265, 1.87402, -71.2199, -2.68198
0.536, -1, -4.88966, 36.0803, 15.4534, 2.00215, -71.0698, -2.77789
0.54, -1, -4.80936, 36.009, 15.4802, 2.13005, -70.9201, -2.87363
0.544, -1, -4.7292, 35.9378, 15.507, 2.25773, -70.7706, -2.9692
0.548, -1, -4.64919, 35.8668, 15.5337, 2.38518, -70.6213, -3.0646
0.552, -1, -4.56931, 35.7959, 15.5604, 2.51241, -70.4724, -3.15984
0.556, -1, -4.48958, 35.725, 15.587, 2.6394, -70.3237, -3.2549
0.56, -1, -4.41, 35.6544, 15.6136, 2.76617, -70.1752, -3.34979
0.564, -1, -4.33056, 35.5838, 15.6401, 2.8927, -70.0271, -3.44451
0.568, -1, -4.25126, 35.5134, 15.6666, 3.01901, -69.8792, -3.53905
0.572, -1, -4.17211, 35.4431, 15.693, 3.14508, -69.7316, -3.63342
0.576, -1, -4.0931, 35.373, 15.7194, 3.27092, -69.5842, -3.72761
0.58, -1, -4.01424, 35.3029, 15.7458, 3.39652, -69.4372, -3.82163
0.584, -1, -3.93553, 35.233, 15.772, 3.52189, -69.2904, -3.91547
0.588, -1, -3.85696, 35.1633, 15.7983, 3.64702, -69.1438, -4.00914
0.592, -1, -3.77855, 35.0936, 15.8245, 3.77191, -68.9976, -4.10263
0.596, -1, -3.70028, 35.0241, 15.8506, 3.89657, -68.8516, -4.19594
0.6, -1, -3.62216, 34.9548, 15.8767, 4.02099, -68.7059, -4.28908
0.604, -1, -3.54419, 34.8855, 15.9027, 4.14517, -68.5605, -4.38203
0.608, -1, -3.46637, 34.8164, 15.9287, 4.26911, -68.4154, -4.47481
0.612, -1, -3.3887, 34.7474, 15.9547, 4.39281, -68.2706, -4.5674
0.616, -1, -3.31118, 34.6786, 15.9806, 4.51628, -68.126, -4.65982
0.62, -1, -3.23382, 34.6099, 16.0064, 4.63949, -67.9817, -4.75205
0.624, -1, -3.1566, 34.5413, 16.0322, 4.76247, -67.8377, -4.84411
0.628, -1, -3.07954, 34.4729, 16.0579, 4.88521, -67.694, -4.93598
0.632, -1, -3.00262, 34.4046, 16.0836, 5.0077, -67.5506, -5.02767
0.636, -1, -2.92586, 34.3364, 16.1092, 5.12995, -67.4074, -5.11918
0.64, -1, -2.84926, 34.2684, 16.1348, 5.25195, -67.2646, -5.2105
0.644, -1, -2.7728, 34.2005, 16.1604, 5.37371, -67.122, -5.30165
0.648, -1, -2.6965, 34.1328, 16.1858, 5.49523, -66.9797, -5.39261
0.652, -1, -2.62035, 34.0652, 16.2113, 5.6165, -66.8377, -5.48338
0.656, -1, -2.54436, 33.9977, 16.2366, 5.73753, -66.696, -5.57398
0.66, -1, -2.46852, 33.9303, 16.262, 5.85831, -66.5546, -5.66439
0.664, -1, -2.39283, 33.8631, 16.2872, 5.97884, -66.4135, -5.75461
0.668, -1, -2.3173, 33.7961, 16.3125, 6.09913, -66.2726, -5.84465
0.672, -1, -2.24192, 33.7291, 16.3376, 6.21917, -66.1321, -5.93451
0.676, -1, -2.1667, 33.6623, 16.3628, 6.33897, -65.9918, -6.02418
0.68, -1, -2.09163, 33.5957, 16.3878, 6.45851, -65.8518, -6.11367
0.684, -1, -2.01672, 33.5292, 16.4129, 6.57781, -65.7121, -6.20297
0.688, -1, -1.94196, 33.4628, 16.4378, 6.69687, -65.5727, -6.29208
0.692, -1, -1.86736, 33.3965, 16.4627, 6.81567, -65.4336, -6.38101
0.696, -1, -1.79291, 33.3304, 16.4876, 6.93423, -65.2948, -6.46976
0.7, -1, -1.71862, 33.2645, 16.5124, 7.05254, -65.1562, -6.55832
0.704, -1, -1.64448, 33.1986, 16.5372, 7.1706, -65.018, -6.64669
0.708, -1, -1.5705, 33.1329, 16.5619, 7.28841, -64.8801, -6.73488
0.712, -1, -1.49668, 33.0674, 16.5865, 7.40597, -64.7424, -6.82288
0.716, -1, -1.42301, 33.002, 16.6111, 7.52329, -64.605, -6.9107
0.72, -1, -1.34949, 32.9367, 16.6357, 7.64036, -64.468, -6.99833
0.724, -1, -1.27614, 32.8715, 16.6602, 7.75718, -64.3312, -7.08577
0.728, -1, -1.20293, 32.8065, 16.6846, 7.87375, -64.1947, -7.17303
0.732, -1, -1.12989, 32.7417, 16.709, 7.99007, -64.0585, -7.2601
0.736, -1, -1.057, 32.677, 16.7333, 8.10615, -63.9226, -7.34699
0.74, -1, -0.984259, 32.6124, 16.7576, 8.22197, -63.7869, -7.43369
0.744, -1, -0.911678, 32.5479, 16.7819, 8.33755, -63.6516, -7.52021
0.748, -1, -0.839252, 32.4836, 16.8061, 8.45288, -63.5166, -7.60653
0.752, -1, -0.766981, 32.4194, 16.8302, 8.56796, -63.3818, -7.69268
0.756, -1, -0.694864, 32.3554, 16.8543, 8.6828, -63.2474, -7.77864
0.76, -1, -0.622901, 32.2915, 16.8783, 8.79738, -63.1132, -7.86441
0.764, -1, -0.551092, 32.2277, 16.9023, 8.91172, -62.9793, -7.95
0.768, -1, -0.479437, 32.1641, 16.9262, 9.02582, -62.8457, -8.0354
0.772, -1, -0.407935, 32.1006, 16.9501, 9.13966, -62.7124, -8.12062
0.776, -1, -0.336586, 32.0373, 16.9739, 9.25326, -62.5794, -8.20566
0.78, -1, -0.26539, 31.9741, 16.9977, 9.36662, -62.4467, -8.29051
0.784, -1, -0.194346, 31.911, 17.0214, 9.47973, -62.3142, -8.37518
0.788, -1, -0.123455, 31.848, 17.0451, 9.5926, -62.182, -8.45966
0.792, -1, -0.0527154, 31.7852, 17.0687, 9.70522, -62.0502, -8.54397
0.796, -1, 0.0178725, 31.7226, 17.0923, 9.81761, -61.9186, -8.62809
0.8, -1, 0.0883091, 31.66, 17.1158, 9.92975, -61.7873, -8.71204
0.804, -1, 0.158595, 31.5976, 17.1393, 10.0417, -61.6562, -8.7958
0.808, -1, 0.22873, 31.5353, 17.1627, 10.1533, -61.5255, -8.87938
0.812, -1, 0.298716, 31.4732, 17.186, 10.2647, -61.395, -8.96279
0.816, -1, 0.368552, 31.4112, 17.2094, 10.3759, -61.2648, -9.04602
0.82, -1, 0.438239, 31.3493, 17.2326, 10.4869, -61.1349, -9.12907
0.824, -1, 0.507778, 31.2876, 17.2559, 10.5976, -61.0053, -9.21194
0.828, -1, 0.577169, 31.226, 17.279, 10.7081, -60.8759, -9.29464
0.832, -1, 0.646413, 31.1645, 17.3021, 10.8183, -60.7468, -9.37716
0.836, -1, 0.71551, 31.1031, 17.3252, 10.9283, -60.618, -9.45951
0.84, -1, 0.78446, 31.0419, 17.3482, 11.0381, -60.4895, -9.54168
0.844, -1, 0.853266, 30.9808, 17.3712, 11.1476, -60.3612, -9.62368
0.848, -1, 0.921925, 30.9199, 17.3941, 11.2569, -60.2332, -9.7055
0.852, -1, 0.990441, 30.859, 17.417, 11.366, -60.1055, -9.78716
0.856, -1, 1.05881, 30.7983, 17.4398, 11.4749, -59.9781, -9.86864
0.86, -1, 1.12704, 30.7378, 17.4626, 11.5835, -59.8509, -9.94995
0.864, -1, 1.19512, 30.6773, 17.4854, 11.6919, -59.7239, -10.0311
0.868, -1, 1.26307, 30.617, 17.508, 11.8001, -59.5973, -10.1121
0.872, -1, 1.33087, 30.5568, 17.5307, 11.908, -59.4709, -10.1929
0.876, -1, 1.39853, 30.4967, 17.5533, 12.0157, -59.3448, -10.2735
0.88, -1, 1.46604, 30.4368, 17.5758, 12.1232, -59.2189, -10.354
0.884, -1, 1.53342, 30.377, 17.5983, 12.2305, -59.0933, -10.4343
0.888, -1, 1.60066, 30.3173, 17.6208, 12.3375, -58.9679, -10.5144
0.892, -1, 1.66775, 30.2577, 17.6432, 12.4444, -58.8429, -10.5943
0.896, -1, 1.73471, 30.1982, 17.6655, 12.551, -58.718, -10.6741
0.9, -1, 1.80153, 30.1389, 17.6878, 12.6574, -58.5935, -10.7538
0.904, -1, 1.86821, 30.0797, 17.7101, 12.7635, -58.4692, -10.8332
0.908, -1, 1.93476, 30.0206, 17.7323, 12.8695, -58.3451, -10.9125
0.912, -1, 2.00117, 29.9617, 17.7545, 12.9752, -58.2213, -10.9917
0.916, -1, 2.06744, 29.9028, 17.7766, 13.0807, -58.0978, -11.0707
0.92, -1, 2.13357, 29.8441, 17.7987, 13.186, -57.9745, -11.1495
0.924, -1, 2.19957, 29.7855, 17.8207, 13.2911, -57.8514, -11.2281
0.928, -1, 2.26543, 29.727, 17.8427, 13.3959, -57.7287, -11.3066
0.932, -1, 2.33116, 29.6687, 17.8647, 13.5006, -57.6061, -11.385
0.936, -1, 2.39676, 29.6104, 17.8866, 13.605, -57.4838, -11.4631
0.94, -1, 2.46222, 29.5523, 17.9084, 13.7092, -57.3618, -11.5412
0.944, -1, 2.52755, 29.4943, 17.9303, 13.8133, -57.24, -11.619
0.948, -1, 2.59275, 29.4364, 17.952, 13.9171, -57.1185, -11.6967
0.952, -1, 2.65781, 29.3787, 17.9738, 14.0206, -56.9972, -11.7743
0.956, -1, 2.72274, 29.321, 17.9954, 14.124, -56.8761, -11.8516
0.96, -1, 2.78755, 29.2635, 18.0171, 14.2272, -56.7553, -11.9289
0.964, -1, 2.85222, 29.2061, 18.0387, 14.3302, -56.6348, -12.0059
0.968, -1, 2.91676, 29.1488, 18.0602, 14.4329, -56.5144, -12.0829
0.972, -1, 2.98117, 29.0916, 18.0817, 14.5355, -56.3944, -12.1596
0.976, -1, 3.04545, 29.0345, 18.1032, 14.6378, -56.2745, -12.2362
0.98, -1, 3.10961, 28.9775, 18.1246, 14.7399, -56.1549, -12.3127
0.984, -1, 3.17363, 28.9207, 18.146, 14.8419, -56.0356, -12.389
0.988, -1, 3.23753, 28.864, 18.1673, 14.9436, -55.9165, -12.4651
0.992, -1, 3.3013, 28.8074, 18.1886, 15.0451, -55.7976, -12.5411
0.996, -1, 3.36494, 28.7508, 18.2099, 15.1465, -55.6789, -12.617
1, -1, 3.42846, 28.6945, 18.2311, 15.2476, -55.5605, -12.6927
1.004, -1, 3.49185, 28.6382, 18.2523, 15.3485, -55.4423, -12.7682
1.008, -1, 3.55512, 28.582, 18.2734, 15.4492, -55.3244, -12.8436
1.012, -1, 3.61826, 28.5259, 18.2945, 15.5498, -55.2067, -12.9189
1.016, -1, 3.68127, 28.47, 18.3155, 15.6501, -55.0892, -12.994
1.02, -1, 3.74416, 28.4142, 18.3365, 15.7502, -54.972, -13.0689
1.024, -1, 3.80693, 28.3584, 18.3575, 15.8502, -54.855, -13.1437
1.027, -1, 3.86958, 28.3028, 18.3784, 15.9499, -54.7382, -13.2184
1.032, -1, 3.9321, 28.2473, 18.3993, 16.0494, -54.6216, -13.2929
1.036, -1, 3.9945, 28.1919, 18.4201, 16.1488, -54.5053, -13.3673
1.04, -1, 4.05678, 28.1366, 18.4409, 16.2479, -54.3892, -13.4415
1.044, -1, 4.11893, 28.0814, 18.4616, 16.3469, -54.2733, -13.5156
1.048, -1, 4.18097, 28.0263, 18.4824, 16.4457, -54.1577, -13.5895
1.052, -1, 4.24289, 27.9714, 18.503, 16.5442, -54.0422, -13.6633
1.055, -1, 4.30468, 27.9165, 18.5237, 16.6426, -53.927, -13.7369
1.06, -1, 4.36636, 27.8617, 18.5443, 16.7408, -53.8121, -13.8104
1.064, -1, 4.42792, 27.8071, 18.5648, 16.8388, -53.6973, -13.8838
1.068, -1, 4.48936, 27.7525, 18.5853, 16.9366, -53.5828, -13.957
1.072, -1, 4.55068, 27.6981, 18.6058, 17.0343, -53.4685, -14.0301
1.076, -1, 4.61188, 27.6438, 18.6262, 17.1317, -53.3544, -14.103
1.08, -1, 4.67297, 27.5895, 18.6466, 17.229, -53.2405, -14.1758
1.084, -1, 4.73394, 27.5354, 18.667, 17.326, -53.1268, -14.2485
1.088, -1, 4.7948, 27.4814, 18.6873, 17.4229, -53.0134, -14.321
1.091, -1, 4.85554, 27.4274, 18.7076, 17.5196, -52.9002, -14.3934
1.096, -1, 4.91617, 27.3736, 18.7278, 17.6161, -52.7871, -14.4656
1.1, -1, 4.97668, 27.3199, 18.7481, 17.7125, -52.6743, -14.5378
1.104, -1, 5.03708, 27.2663, 18.7682, 17.8086, -52.5618, -14.6097
1.108, -1, 5.09737, 27.2127, 18.7883, 17.9046, -52.4494, -14.6816
1.112, -1, 5.15754, 27.1593, 18.8084, 18.0004, -52.3372, -14.7533
1.116, -1, 5.2176, 27.106, 18.8285, 18.096, -52.2253, -14.8249
1.119, -1, 5.27755, 27.0528, 18.8485, 18.1915, -52.1135, -14.8963
1.124, -1, 5.33739, 26.9996, 18.8685, 18.2867, -52.0019, -14.9676
1.128, -1, 5.39712, 26.9466, 18.8884, 18.3818, -51.8906, -15.0388
1.132, -1, 5.45673, 26.8937, 18.9083, 18.4767, -51.7795, -15.1098
1.136, -1, 5.51624, 26.8408, 18.9282, 18.5715, -51.6685, -15.1807
1.14, -1, 5.57564, 26.7881, 18.948, 18.666, -51.5578, -15.2515
1.144, -1, 5.63493, 26.7355, 18.9678, 18.7604, -51.4473, -15.3222
1.147, -1, 5.69412, 26.6829, 18.9876, 18.8547, -51.337, -15.3927
1.152, -1, 5.75319, 26.6305, 19.0073, 18.9487, -51.2268, -15.4631
1.156, -1, 5.81216, 26.5781, 19.027, 19.0426, -51.1169, -15.5334
1.16, -1, 5.87103, 26.5259, 19.0467, 19.1363, -51.0072, -15.6035
1.164, -1, 5.92979, 26.4737, 19.0663, 19.2298, -50.8976, -15.6736
1.168, -1, 5.98844, 26.4216, 19.0859, 19.3232, -50.7883, -15.7435
1.172, -1, 6.04699, 26.3696, 19.1054, 19.4164, -50.6792, -15.8132
1.175, -1, 6.10543, 26.3177, 19.1249, 19.5095, -50.5702, -15.8829
1.18, -1, 6.16377, 26.266, 19.1444, 19.6024, -50.4614, -15.9524
1.184, -1, 6.22201, 26.2142, 19.1639, 19.6951, -50.3529, -16.0218
1.188, -1, 6.28015, 26.1626, 19.1833, 19.7876, -50.2445, -16.0911
1.192, -1, 6.33818, 26.1111, 19.2027, 19.88, -50.1363, -16.1603
1.196, -1, 6.39611, 26.0597, 19.222, 19.9723, -50.0283, -16.2293
1.2, -1, 6.45394, 26.0083, 19.2413, 20.0643, -49.9205, -16.2982
1.204, -1, 6.51167, 25.9571, 19.2606, 20.1562, -49.8129, -16.367
1.208, -1, 6.5693, 25.9059, 19.2798, 20.248, -49.7055, -16.4357
1.212, -1, 6.62683, 25.8548, 19.299, 20.3396, -49.5982, -16.5042
1.216, -1, 6.68426, 25.8038, 19.3182, 20.431, -49.4912, -16.5727
1.22, -1, 6.74159, 25.7529, 19.3374, 20.5223, -49.3843, -16.641
1.224, -1, 6.79882, 25.7021, 19.3565, 20.6134, -49.2776, -16.7092
1.228, -1, 6.85596, 25.6514, 19.3756, 20.7044, -49.1711, -16.7773
1.232, -1, 6.91299, 25.6008, 19.3946, 20.7952, -49.0648, -16.8453
1.236, -1, 6.96993, 25.5502, 19.4136, 20.8858, -48.9586, -16.9131
1.24, -1, 7.02678, 25.4997, 19.4326, 20.9763, -48.8526, -16.9809
1.244, -1, 7.08352, 25.4494, 19.4515, 21.0667, -48.7469, -17.0485
1.248, -1, 7.14018, 25.3991, 19.4705, 21.1569, -48.6413, -17.116
1.252, -1, 7.19673, 25.3488, 19.4893, 21.2469, -48.5358, -17.1834
1.256, -1, 7.25319, 25.2987, 19.5082, 21.3368, -48.4306, -17.2507
1.26, -1, 7.30956, 25.2487, 19.527, 21.4266, -48.3255, -17.3179
1.264, -1, 7.36583, 25.1987, 19.5458, 21.5161, -48.2206, -17.385
1.267, -1, 7.42201, 25.1488, 19.5646, 21.6056, -48.1158, -17.4519
1.272, -1, 7.4781, 25.099, 19.5833, 21.6949, -48.0113, -17.5188
1.276, -1, 7.53409, 25.0493, 19.602, 21.784, -47.9069, -17.5855
1.28, -1, 7.58999, 24.9997, 19.6207, 21.873, -47.8027, -17.6521
1.284, -1, 7.6458, 24.9501, 19.6393, 21.9619, -47.6986, -17.7186
1.288, -1, 7.70152, 24.9007, 19.6579, 22.0506, -47.5948, -17.785
1.292, -1, 7.75715, 24.8513, 19.6765, 22.1392, -47.4911, -17.8513
1.295, -1, 7.81268, 24.802, 19.695, 22.2276, -47.3875, -17.9175
1.3, -1, 7.86813, 24.7528, 19.7135, 22.3159, -47.2842, -17.9836
1.304, -1, 7.92348, 24.7036, 19.732, 22.404, -47.181, -18.0496
1.308, -1, 7.97875, 24.6545, 19.7505, 22.492, -47.0779, -18.1154
1.312, -1, 8.03393, 24.6055, 19.7689, 22.5798, -46.9751, -18.1812
1.316, -1, 8.08901, 24.5566, 19.7873, 22.6675, -46.8724, -18.2468
1.32, -1, 8.14401, 24.5078, 19.8057, 22.7551, -46.7699, -18.3124
1.324, -1, 8.19893, 24.4591, 19.824, 22.8425, -46.6675, -18.3778
1.328, -1, 8.25375, 24.4104, 19.8423, 22.9298, -46.5653, -18.4432
1.332, -1, 8.30849, 24.3618, 19.8606, 23.017, -46.4632, -18.5084
1.336, -1, 8.36314, 24.3133, 19.8788, 23.104, -46.3614, -18.5735
1.34, -1, 8.4177, 24.2648, 19.8971, 23.1909, -46.2596, -18.6386
1.344, -1, 8.47218, 24.2165, 19.9153, 23.2776, -46.1581, -18.7035
1.348, -1, 8.52657, 24.1682, 19.9334, 23.3642, -46.0567, -18.7683
1.352, -1, 8.58088, 24.1199, 19.9515, 23.4507, -45.9554, -18.833
1.356, -1, 8.6351, 24.0718, 19.9697, 23.537, -45.8543, -18.8976
1.36, -1, 8.68923, 24.0237, 19.9877, 23.6232, -45.7534, -18.9622
1.364, -1, 8.74328, 23.9757, 20.0058, 23.7092, -45.6526, -19.0266
1.368, -1, 8.79725, 23.9278, 20.0238, 23.7952, -45.552, -19.0909
1.372, -1, 8.85114, 23.88, 20.0418, 23.881, -45.4516, -19.1551
1.376, -1, 8.90494, 23.8322, 20.0598, 23.9666, -45.3513, -19.2192
1.38, -1, 8.95866, 23.7845, 20.0777, 24.0521, -45.2511, -19.2833
1.384, -1, 9.01229, 23.7369, 20.0956, 24.1375, -45.1511, -19.3472
1.388, -1, 9.06584, 23.6894, 20.1135, 24.2228, -45.0513, -19.411
1.392, -1, 9.11932, 23.6419, 20.1314, 24.3079, -44.9516, -19.4747
1.396, -1, 9.1727, 23.5945, 20.1492, 24.393, -44.8521, -19.5384
1.4, -1, 9.22601, 23.5472, 20.167, 24.4778, -44.7527, -19.6019
1.404, -1, 9.27924, 23.4999, 20.1848, 24.5626, -44.6535, -19.6653
1.408, -1, 9.33239, 23.4527, 20.2025, 24.6472, -44.5544, -19.7287
1.412, -1, 9.38546, 23.4056, 20.2202, 24.7317, -44.4554, -19.7919
1.416, -1, 9.43844, 23.3585, 20.2379, 24.8161, -44.3567, -19.8551
1.42, -1, 9.49135, 23.3116, 20.2556, 24.9003, -44.258, -19.9181
1.424, -1, 9.54418, 23.2647, 20.2732, 24.9844, -44.1595, -19.9811
1.428, -1, 9.59693, 23.2178, 20.2908, 25.0684, -44.0612, -20.044
1.432, -1, 9.6496, 23.1711, 20.3084, 25.1523, -43.963, -20.1067
1.436, -1, 9.7022, 23.1244, 20.326, 25.236, -43.865, -20.1694
1.44, -1, 9.75472, 23.0777, 20.3435, 25.3196, -43.767, -20.232
1.444, -1, 9.80716, 23.0312, 20.361, 25.4031, -43.6693, -20.2945
1.448, -1, 9.85952, 22.9847, 20.3785, 25.4865, -43.5717, -20.3569
1.452, -1, 9.91181, 22.9383, 20.396, 25.5697, -43.4742, -20.4192
1.456, -1, 9.96403, 22.8919, 20.4134, 25.6528, -43.3769, -20.4814
1.46, -1, 10.0162, 22.8456, 20.4308, 25.7358, -43.2797, -20.5436
1.464, -1, 10.0682, 22.7994, 20.4482, 25.8187, -43.1826, -20.6056
1.468, -1, 10.1202, 22.7533, 20.4656, 25.9015, -43.0857, -20.6676
1.472, -1, 10.1721, 22.7072, 20.4829, 25.9841, -42.989, -20.7294
1.476, -1, 10.224, 22.6612, 20.5002, 26.0666, -42.8923, -20.7912
1.48, -1, 10.2757, 22.6152, 20.5175, 26.149, -42.7958, -20.8529
1.484, -1, 10.3274, 22.5693, 20.5348, 26.2313, -42.6995, -20.9145
1.488, -1, 10.379, 22.5235, 20.552, 26.3135, -42.6033, -20.976
1.492, -1, 10.4306, 22.4777, 20.5692, 26.3956, -42.5072, -21.0374
1.496, -1, 10.482, 22.432, 20.5864, 26.4775, -42.4113, -21.0987
1.5, -1, 10.5334, 22.3864, 20.6035, 26.5593, -42.3154, -21.16
1.504, -1, 10.5848, 22.3408, 20.6207, 26.641, -42.2198, -21.2212
1.508, -1, 10.636, 22.2953, 20.6378, 26.7226, -42.1242, -21.2822
1.512, -1, 10.6872, 22.2499, 20.6549, 26.8041, -42.0288, -21.3432
1.516, -1, 10.7383, 22.2045, 20.6719, 26.8855, -41.9336, -21.4041
1.52, -1, 10.7893, 22.1592, 20.689, 26.9667, -41.8384, -21.4649
1.524, -1, 10.8403, 22.114, 20.706, 27.0479, -41.7434, -21.5257
1.528, -1, 10.8912, 22.0688, 20.723, 27.1289, -41.6485, -21.5863
1.532, -1, 10.942, 22.0237, 20.74, 27.2098, -41.5538, -21.6469
1.536, -1, 10.9928, 21.9786, 20.7569, 27.2906, -41.4592, -21.7074
1.54, -1, 11.0435, 21.9336, 20.7738, 27.3713, -41.3647, -21.7678
1.544, -1, 11.0941, 21.8887, 20.7908, 27.4519, -41.2703, -21.8281
1.548, -1, 11.1446, 21.8438, 20.8076, 27.5324, -41.1761, -21.8884
1.552, -1, 11.1951, 21.799, 20.8245, 27.6127, -41.082, -21.9485
1.556, -1, 11.2455, 21.7542, 20.8413, 27.693, -40.988, -22.0086
1.56, -1, 11.2959, 21.7095, 20.8581, 27.7732, -40.8941, -22.0686
1.564, -1, 11.3462, 21.6649, 20.8749, 27.8532, -40.8004, -22.1285
1.568, -1, 11.3964, 21.6203, 20.8917, 27.9331, -40.7068, -22.1884
1.572, -1, 11.4465, 21.5758, 20.9084, 28.013, -40.6133, -22.2481
1.576, -1, 11.4966, 21.5313, 20.9251, 28.0927, -40.52, -22.3078
1.58, -1, 11.5466, 21.4869, 20.9418, 28.1723, -40.4268, -22.3674
1.584, -1, 11.5965, 21.4426, 20.9585, 28.2518, -40.3336, -22.4269
1.588, -1, 11.6464, 21.3983, 20.9752, 28.3313, -40.2407, -22.4864
1.592, -1, 11.6962, 21.3541, 20.9918, 28.4106, -40.1478, -22.5457
1.596, -1, 11.746, 21.3099, 21.0084, 28.4898, -40.0551, -22.605
1.6, -1, 11.7957, 21.2658, 21.025, 28.5689, -39.9624, -22.6642
1.604, -1, 11.8453, 21.2217, 21.0416, 28.6479, -39.8699, -22.7234
1.608, -1, 11.8948, 21.1778, 21.0581, 28.7268, -39.7776, -22.7824
1.612, -1, 11.9443, 21.1338, 21.0747, 28.8055, -39.6853, -22.8414
1.616, -1, 11.9938, 21.0899, 21.0912, 28.8842, -39.5932, -22.9003
1.62, -1, 12.0431, 21.0461, 21.1076, 28.9628, -39.5011, -22.9591
1.624, -1, 12.0924, 21.0023, 21.1241, 29.0413, -39.4092, -23.0179
1.628, -1, 12.1417, 20.9586, 21.1405, 29.1197, -39.3174, -23.0765
1.632, -1, 12.1908, 20.915, 21.157, 29.198, -39.2258, -23.1352
1.636, -1, 12.2399, 20.8714, 21.1734, 29.2762, -39.1342, -23.1937
1.64, -1, 12.289, 20.8278, 21.1897, 29.3543, -39.0428, -23.2521
1.644, -1, 12.338, 20.7843, 21.2061, 29.4323, -38.9515, -23.3105
1.648, -1, 12.3869, 20.7409, 21.2224, 29.5102, -38.8603, -23.3688
1.652, -1, 12.4358, 20.6975, 21.2388, 29.588, -38.7692, -23.4271
1.656, -1, 12.4846, 20.6542, 21.2551, 29.6657, -38.6782, -23.4852
1.66, -1, 12.5333, 20.6109, 21.2713, 29.7433, -38.5873, -23.5433
1.664, -1, 12.582, 20.5677, 21.2876, 29.8208, -38.4966, -23.6013
1.668, -1, 12.6306, 20.5245, 21.3038, 29.8982, -38.4059, -23.6593
1.672, -1, 12.6792, 20.4814, 21.32, 29.9755, -38.3154, -23.7171
1.676, -1, 12.7277, 20.4384, 21.3362, 30.0527, -38.225, -23.7749
1.68, -1, 12.7761, 20.3953, 21.3524, 30.1298, -38.1347, -23.8327
1.684, -1, 12.8245, 20.3524, 21.3686, 30.2069, -38.0445, -23.8903
1.688, -1, 12.8728, 20.3095, 21.3847, 30.2838, -37.9544, -23.9479
1.692, -1, 12.9211, 20.2666, 21.4008, 30.3606, -37.8644, -24.0054
1.696, -1, 12.9693, 20.2238, 21.4169, 30.4374, -37.7746, -24.0629
1.7, -1, 13.0174, 20.1811, 21.433, 30.514, -37.6848, -24.1203
1.704, -1, 13.0655, 20.1384, 21.449, 30.5906, -37.5951, -24.1776
1.708, -1, 13.1136, 20.0958, 21.4651, 30.6671, -37.5056, -24.2348
1.712, -1, 13.1615, 20.0532, 21.4811, 30.7435, -37.4162, -24.292
1.716, -1, 13.2094, 20.0106, 21.4971, 30.8197, -37.3269, -24.3491
1.72, -1, 13.2573, 19.9681, 21.5131, 30.8959, -37.2376, -24.4061
1.724, -1, 13.3051, 19.9257, 21.529, 30.972, -37.1485, -24.4631
1.728, -1, 13.3528, 19.8833, 21.545, 31.0481, -37.0595, -24.52
1.732, -1, 13.4005, 19.841, 21.5609, 31.124, -36.9706, -24.5768
1.736, -1, 13.4482, 19.7987, 21.5768, 31.1998, -36.8818, -24.6336
1.74, -1, 13.4957, 19.7565, 21.5927, 31.2756, -36.7931, -24.6903
1.744, -1, 13.5433, 19.7143, 21.6086, 31.3512, -36.7045, -24.7469
1.748, -1, 13.5907, 19.6721, 21.6244, 31.4268, -36.6161, -24.8035
1.752, -1, 13.6381, 19.63, 21.6402, 31.5023, -36.5277, -24.86
1.756, -1, 13.6855, 19.588, 21.6561, 31.5776, -36.4394, -24.9164
1.76, -1, 13.7328, 19.546, 21.6719, 31.6529, -36.3512, -24.9728
1.764, -1, 13.78, 19.5041, 21.6876, 31.7282, -36.2632, -25.0291
1.768, -1, 13.8272, 19.4622, 21.7034, 31.8033, -36.1752, -25.0853
1.772, -1, 13.8743, 19.4203, 21.7191, 31.8783, -36.0873, -25.1415
1.776, -1, 13.9214, 19.3785, 21.7348, 31.9533, -35.9996, -25.1976
1.78, -1, 13.9684, 19.3368, 21.7505, 32.0281, -35.9119, -25.2536
1.784, -1, 14.0154, 19.2951, 21.7662, 32.1029, -35.8243, -25.3096
1.788, -1, 14.0623, 19.2534, 21.7819, 32.1776, -35.7369, -25.3655
1.792, -1, 14.1092, 19.2118, 21.7975, 32.2522, -35.6495, -25.4214
1.796, -1, 14.156, 19.1703, 21.8132, 32.3268, -35.5622, -25.4772
1.8, -1, 14.2027, 19.1288, 21.8288, 32.4012, -35.4751, -25.5329
1.804, -1, 14.2494, 19.0873, 21.8444, 32.4756, -35.388, -25.5886
1.808, -1, 14.2961, 19.0459, 21.86, 32.5498, -35.301, -25.6442
1.812, -1, 14.3427, 19.0045, 21.8755, 32.624, -35.2142, -25.6997
1.816, -1, 14.3892, 18.9632, 21.8911, 32.6981, -35.1274, -25.7552
1.82, -1, 14.4357, 18.9219, 21.9066, 32.7722, -35.0407, -25.8106
1.824, -1, 14.4822, 18.8807, 21.9221, 32.8461, -34.9541, -25.8659
1.828, -1, 14.5286, 18.8395, 21.9376, 32.92, -34.8676, -25.9212
1.832, -1, 14.5749, 18.7983, 21.9531, 32.9938, -34.7813, -25.9764
1.836, -1, 14.6212, 18.7572, 21.9685, 33.0675, -34.695, -26.0316
1.84, -1, 14.6674, 18.7162, 21.984, 33.1411, -34.6088, -26.0867
1.844, -1, 14.7136, 18.6752, 21.9994, 33.2146, -34.5227, -26.1418
1.848, -1, 14.7598, 18.6342, 22.0148, 33.2881, -34.4367, -26.1967
1.852, -1, 14.8058, 18.5933, 22.0302, 33.3614, -34.3507, -26.2517
1.856, -1, 14.8519, 18.5524, 22.0456, 33.4347, -34.2649, -26.3065
1.86, -1, 14.8979, 18.5116, 22.0609, 33.5079, -34.1792, -26.3613
1.864, -1, 14.9438, 18.4708, 22.0762, 33.5811, -34.0936, -26.4161
1.868, -1, 14.9897, 18.4301, 22.0916, 33.6541, -34.008, -26.4708
1.872, -1, 15.0355, 18.3894, 22.1069, 33.7271, -33.9226, -26.5254
1.876, -1, 15.0813, 18.3487, 22.1222, 33.8, -33.8372, -26.58
1.88, -1, 15.127, 18.3081, 22.1374, 33.8728, -33.7519, -26.6345
1.884, -1, 15.1727, 18.2676, 22.1527, 33.9456, -33.6668, -26.6889
1.888, -1, 15.2184, 18.227, 22.1679, 34.0182, -33.5817, -26.7433
1.892, -1, 15.264, 18.1866, 22.1832, 34.0908, -33.4967, -26.7976
1.896, -1, 15.3095, 18.1461, 22.1984, 34.1633, -33.4118, -26.8519
1.9, -1, 15.355, 18.1057, 22.2136, 34.2358, -33.3269, -26.9062
1.904, -1, 15.4004, 18.0654, 22.2287, 34.3081, -33.2422, -26.9603
1.908, -1, 15.4458, 18.0251, 22.2439, 34.3804, -33.1576, -27.0144
1.912, -1, 15.4912, 17.9848, 22.259, 34.4526, -33.073, -27.0685
1.916, -1, 15.5365, 17.9446, 22.2742, 34.5248, -32.9886, -27.1225
1.92, -1, 15.5818, 17.9044, 22.2893, 34.5968, -32.9042, -27.1764
1.924, -1, 15.627, 17.8643, 22.3044, 34.6688, -32.8199, -27.2303
1.928, -1, 15.6721, 17.8242, 22.3195, 34.7407, -32.7357, -27.2841
1.932, -1, 15.7173, 17.7841, 22.3345, 34.8126, -32.6516, -27.3379
1.936, -1, 15.7623, 17.7441, 22.3496, 34.8843, -32.5676, -27.3916
1.94, -1, 15.8073, 17.7041, 22.3646, 34.956, -32.4836, -27.4453
1.944, -1, 15.8523, 17.6642, 22.3796, 35.0276, -32.3997, -27.4989
1.948, -1, 15.8973, 17.6243, 22.3946, 35.0992, -32.316, -27.5524
1.952, -1, 15.9422, 17.5844, 22.4096, 35.1707, -32.2323, -27.6059
1.956, -1, 15.987, 17.5446, 22.4246, 35.2421, -32.1487, -27.6594
1.96, -1, 16.0318, 17.5048, 22.4396, 35.3134, -32.0652, -27.7128
1.964, -1, 16.0765, 17.4651, 22.4545, 35.3846, -31.9817, -27.7661
1.968, -1, 16.1212, 17.4254, 22.4694, 35.4558, -31.8984, -27.8194
1.972, -1, 16.1659, 17.3858, 22.4844, 35.5269, -31.8151, -27.8726
1.976, -1, 16.2105, 17.3461, 22.4993, 35.598, -31.7319, -27.9258
1.98, -1, 16.2551, 17.3066, 22.5141, 35.6689, -31.6488, -27.9789
1.984, -1, 16.2996, 17.267, 22.529, 35.7398, -31.5658, -28.032
1.988, -1, 16.3441, 17.2275, 22.5439, 35.8107, -31.4829, -28.085
1.992, -1, 16.3886, 17.1881, 22.5587, 35.8814, -31.4, -28.138
1.996, -1, 16.433, 17.1487, 22.5735, 35.9521, -31.3173, -28.1909
1.999, -1, 16.4773, 17.1093, 22.5883, 36.0228, -31.2346, -28.2438
2.004, -1, 16.5216, 17.0699, 22.6031, 36.0933, -31.1519, -28.2966
2.008, -1, 16.5659, 17.0306, 22.6179, 36.1638, -31.0694, -28.3493
2.012, -1, 16.6101, 16.9914, 22.6327, 36.2342, -30.987, -28.4021
2.015, -1, 16.6543, 16.9521, 22.6474, 36.3046, -30.9046, -28.4547
2.019, -1, 16.6984, 16.9129, 22.6622, 36.3748, -30.8223, -28.5073
2.024, -1, 16.7425, 16.8738, 22.6769, 36.445, -30.7401, -28.5599
2.028, -1, 16.7866, 16.8347, 22.6916, 36.5152, -30.658, -28.6124
2.031, -1, 16.8306, 16.7956, 22.7063, 36.5853, -30.5759, -28.6648
2.036, -1, 16.8746, 16.7566, 22.721, 36.6553, -30.4939, -28.7172
2.04, -1, 16.9185, 16.7176, 22.7357, 36.7252, -30.412, -28.7696
2.044, -1, 16.9624, 16.6786, 22.7503, 36.7951, -30.3302, -28.8219
2.048, -1, 17.0062, 16.6397, 22.765, 36.8649, -30.2485, -28.8742
2.051, -1, 17.05, 16.6008, 22.7796, 36.9346, -30.1668, -28.9264
2.055, -1, 17.0938, 16.5619, 22.7942, 37.0043, -30.0852, -28.9785
2.06, -1, 17.1375, 16.5231, 22.8088, 37.0739, -30.0037, -29.0306
2.064, -1, 17.1811, 16.4844, 22.8234, 37.1435, -29.9223, -29.0827
2.068, -1, 17.2244, 16.4458, 22.8379, 37.2129, -29.841, -29.1347
2.071, -1, 17.2671, 16.4077, 22.8523, 37.2823, -29.7597, -29.1866
2.076, -1, 17.3088, 16.3701, 22.8666, 37.3515, -29.6787, -29.2384
2.08, -1, 17.3495, 16.3335, 22.8807, 37.4204, -29.5981, -29.29
2.084, -1, 17.3888, 16.2979, 22.8945, 37.4888, -29.518, -29.3412
2.087, -1, 17.4267, 16.2635, 22.9079, 37.5564, -29.4389, -29.3918
2.092, -1, 17.4632, 16.2306, 22.921, 37.6229, -29.3611, -29.4417
2.096, -1, 17.4983, 16.1992, 22.9337, 37.6879, -29.2851, -29.4903
2.1, -1, 17.5321, 16.1694, 22.9459, 37.7508, -29.2115, -29.5374
2.104, -1, 17.5644, 16.1411, 22.9576, 37.8112, -29.1408, -29.5827
2.107, -1, 17.5951, 16.1145, 22.9686, 37.8686, -29.0737, -29.6257
2.111, -1, 17.624, 16.0896, 22.9791, 37.9226, -29.0106, -29.6661
2.116, -1, 17.6513, 16.0662, 22.9888, 37.9726, -28.9521, -29.7035
2.12, -1, 17.6768, 16.044, 22.9978, 38.0183, -28.8986, -29.7378
2.124, -1, 17.7009, 16.023, 23.0061, 38.0595, -28.8504, -29.7686
2.127, -1, 17.7234, 16.0029, 23.0136, 38.0959, -28.8078, -29.7958
2.132, -1, 17.7446, 15.9838, 23.0205, 38.1275, -28.7707, -29.8195
2.136, -1, 17.7642, 15.9657, 23.0267, 38.1546, -28.739, -29.8397
2.14, -1, 17.7823, 15.9489, 23.0321, 38.1772, -28.7125, -29.8566
2.143, -1, 17.7986, 15.9337, 23.0368, 38.1957, -28.6907, -29.8705
2.148, -1, 17.8131, 15.9202, 23.0409, 38.2106, -28.6732, -29.8816
2.152, -1, 17.8259, 15.9085, 23.0443, 38.2223, -28.6594, -29.8904
2.156, -1, 17.8371, 15.8987, 23.0471, 38.2313, -28.6488, -29.8971
2.16, -1, 17.8467, 15.8905, 23.0494, 38.2381, -28.6409, -29.9021
2.163, -1, 17.855, 15.8838, 23.0513, 38.243, -28.635, -29.9058
2.168, -1, 17.8619, 15.8785, 23.0527, 38.2465, -28.6308, -29.9084
2.172, -1, 17.8674, 15.8744, 23.0538, 38.249, -28.6279, -29.9103
2.176, 2, 17.8716, 15.8714, 23.0546, 38.2507, -28.6258, -29.9115
2.179, 2, 17.8747, 15.8692, 23.0552, 38.2519, -28.6245, -29.9124
2.184, 2, 17.8769, 15.8677, 23.0556, 38.2527, -28.6235, -29.913
2.188, 2, 17.8784, 15.8667, 23.0558, 38.2532, -28.6229, -29.9134
2.192, 2, 17.8794, 15.866, 23.056, 38.2536, -28.6224, -29.9137
2.196, 2, 17.8801, 15.8655, 23.0561, 38.2538, -28.6221, -29.9138
2.199, 2, 17.8806, 15.8652, 23.0562, 38.254, -28.6219, -29.914
2.204, 2, 17.8809, 15.865, 23.0563, 38.2541, -28.6218, -29.9141
2.208, 2, 17.8811, 15.8649, 23.0563, 38.2542, -28.6217, -29.9141
2.212, 2, 17.8813, 15.8648, 23.0563, 38.2543, -28.6217, -29.9141
2.216, 2, 17.8814, 15.8647, 23.0564, 38.2543, -28.6216, -29.9142
2.219, 2, 17.8814, 15.8646, 23.0564, 38.2543, -28.6216, -29.9142
2.224, 2, 17.8815, 15.8646, 23.0564, 38.2543, -28.6216, -29.9142
2.228, 2, 17.8815, 15.8646, 23.0564, 38.2543, -28.6215, -29.9142
2.232, 2, 17.8815, 15.8646, 23.0564, 38.2543, -28.6215, -29.9142
2.235, 2, 17.8815, 15.8646, 23.0564, 38.2544, -28.6215, -29.9142
2.24, 2, 17.8815, 15.8646, 23.0564, 38.2544, -28.6215, -29.9142
2.244, 2, 17.8816, 15.8646, 23.0564, 38.2544, -28.6215, -29.9142
2.248, 2, 17.8816, 15.8646, 23.0564, 38.2544, -28.6215, -29.9142
2.252, 2, 17.8816, 15.8646, 23.0564, 38.2544, -28.6215, -29.9142
2.255, 2, 17.8816, 15.8646, 23.0564, 38.2544, -28.6215, -29.9142
2.259, 2, 17.8816, 15.8646, 23.0564, 38.2544, -28.6215, -29.9142
2.264, 2, 17.8816, 15.8645, 23.0564, 38.2544, -28.6215, -29.9142
2.268, 2, 17.8816, 15.8645, 23.0564, 38.2544, -28.6215, -29.9142
2.272, 2, 17.8816, 15.8645, 23.0564, 38.2544, -28.6215, -29.9142
2.275, 2, 17.8816, 15.8645, 23.0564, 38.2544, -28.6215, -29.9142
2.28, 2, 17.8816, 15.8645, 23.0564, 38.2544, -28.6215, -29.9142
2.284, 2, 17.8816, 15.8645, 23.0564, 38.2544, -28.6215, -29.9142
2.288, 2, 17.8816, 15.8645, 23.0564, 38.2544, -28.6215, -29.9142
2.291, 2, 17.8816, 15.8645, 23.0564, 38.2544, -28.6215, -29.9142
2.296, 2, 17.8816, 15.8645, 23.0564, 38.2544, -28.6215, -29.9142
2.3, 2, 17.8816, 15.8645, 23.0564, 38.2544, -28.6215, -29.9142
2.304, 2, 17.8816, 15.8645, 23.0564, 38.2544, -28.6215, -29.9142
2.308, 2, 17.8816, 15.8645, 23.0564, 38.2544, -28.6215, -29.9142
2.311, 2, 17.8816, 15.8645, 23.0564, 38.2544, -28.6215, -29.9142
2.316, 2, 17.8816, 15.8645, 23.0564, 38.2544, -28.6215, -29.9142
2.32, 2, 17.8816, 15.8645, 23.0564, 38.2544, -28.6215, -29.9142
2.324, 2, 17.8816, 15.8645, 23.0564, 38.2544, -28.6215, -29.9142
2.328, 2, 17.8816, 15.8645, 23.0564, 38.2544, -28.6215, -29.9142
2.331, 2, 17.8816, 15.8645, 23.0564, 38.2544, -28.6215, -29.9142
2.336, 2, 17.8816, 15.8645, 23.0564, 38.2544, -28.6215, -29.9142
2.34, 2, 17.8816, 15.8645, 23.0564, 38.2544, -28.6215, -29.9142
2.344, 2, 17.8816, 15.8645, 23.0564, 38.2544, -28.6215, -29.9142
2.347, 2, 17.8816, 15.8645, 23.0564, 38.2544, -28.6215, -29.9142
2.352, 2, 17.8816, 15.8645, 23.0564, 38.2544, -28.6215, -29.9142
2.356, 2, 17.8816, 15.8645, 23.0564, 38.2544, -28.6215, -29.9142
2.36, 2, 17.8816, 15.8645, 23.0564, 38.2544, -28.6215, -29.9142
2.364, 2, 17.8816, 15.8645, 23.0564, 38.2544, -28.6215, -29.9142
2.367, 2, 17.8816, 15.8645, 23.0564, 38.2544, -28.6215, -29.9142
2.372, 2, 17.8816, 15.8645, 23.0564, 38.2544, -28.6215, -29.9142
2.376, 2, 17.8816, 15.8645, 23.0564, 38.2544, -28.6215, -29.9142
2.38, 2, 17.8816, 15.8645, 23.0564, 38.2544, -28.6215, -29.9142
2.383, 2, 17.8816, 15.8645, 23.0564, 38.2544, -28.6215, -29.9142
2.388, 2, 17.8816, 15.8645, 23.0564, 38.2544, -28.6215, -29.9142
2.392, 2, 17.8816, 15.8645, 23.0564, 38.2544, -28.6215, -29.9142
2.396, 2, 17.8816, 15.8645, 23.0564, 38.2544, -28.6215, -29.9142
2.4, 2, 17.8816, 15.8645, 23.0564, 38.2544, -28.6215, -29.9142
2.403, 2, 17.8816, 15.8645, 23.0564, 38.2544, -28.6215, -29.9142
2.408, 2, 17.8816, 15.8645, 23.0564, 38.2544, -28.6215, -29.9142
2.412, 2, 17.8816, 15.8645, 23.0564, 38.2544, -28.6215, -29.9142
2.416, 2, 17.8816, 15.8645, 23.0564, 38.2544, -28.6215, -29.9142
2.42, 2, 17.8816, 15.8645, 23.0564, 38.2544, -28.6215, -29.9142
2.423, 2, 17.8816, 15.8645, 23.0564, 38.2544, -28.6215, -29.9142
2.428, 2, 17.8816, 15.8645, 23.0564, 38.2544, -28.6215, -29.9142
2.432, 2, 17.8816, 15.8645, 23.0564, 38.2544, -28.6215, -29.9142
2.436, 2, 17.8816, 15.8645, 23.0564, 38.2544, -28.6215, -29.9142
2.439, 2, 17.8816, 15.8645, 23.0564, 38.2544, -28.6215, -29.9142
2.444, 2, 17.8816, 15.8645, 23.0564, 38.2544, -28.6215, -29.9142
2.448, 2, 17.8816, 15.8645, 23.0564, 38.2544, -28.6215, -29.9142
2.452, 2, 17.8816, 15.8645, 23.0564, 38.2544, -28.6215, -29.9142
2.456, 2, 17.8816, 15.8645, 23.0564, 38.2544, -28.6215, -29.9142
2.459, 2, 17.8816, 15.8645, 23.0564, 38.2544, -28.6215, -29.9142
2.464, 2, 17.8816, 15.8645, 23.0564, 38.2544, -28.6215, -29.9142
2.468, 2, 17.8816, 15.8645, 23.0564, 38.2544, -28.6215, -29.9142
2.472, 2, 17.8816, 15.8645, 23.0564, 38.2544, -28.6215, -29.9142
2.476, 2, 17.8816, 15.8645, 23.0564, 38.2544, -28.6215, -29.9142
2.479, 2, 17.8816, 15.8645, 23.0564, 38.2544, -28.6215, -29.9142
2.484, 2, 17.8816, 15.8645, 23.0564, 38.2544, -28.6215, -29.9142
2.488, 2, 17.8816, 15.8645, 23.0564, 38.2544, -28.6215, -29.9142
2.492, 2, 17.8816, 15.8645, 23.0564, 38.2544, -28.6215, -29.9142
2.495, 2, 17.8816, 15.8645, 23.0564, 38.2544, -28.6215, -29.9142
2.5, 2, 17.8816, 15.8645, 23.0564, 38.2544, -28.6215, -29.9142
2.504, 2, 17.8816, 15.8645, 23.0564, 38.2544, -28.6215, -29.9142
2.508, 2, 17.8816, 15.8645, 23.0564, 38.2544, -28.6215, -29.9142
2.512, 2, 17.8816, 15.8645, 23.0564, 38.2544, -28.6215, -29.9142
2.515, 2, 17.8816, 15.8645, 23.0564, 38.2544, -28.6215, -29.9142
2.52, 2, 17.8816, 15.8645, 23.0564, 38.2544, -28.6215, -29.9142
2.524, 2, 17.8816, 15.8645, 23.0564, 38.2544, -28.6215, -29.9142
2.528, 2, 17.8816, 15.8645, 23.0564, 38.2544, -28.6215, -29.9142
2.531, 2, 17.8816, 15.8645, 23.0564, 38.2544, -28.6215, -29.9142
2.536, 2, 17.8816, 15.8645, 23.0564, 38.2544, -28.6215, -29.9142
2.54, 2, 17.8816, 15.8645, 23.0564, 38.2544, -28.6215, -29.9142
2.544, 2, 17.8816, 15.8645, 23.0564, 38.2544, -28.6215, -29.9142
2.548, 2, 17.8816, 15.8645, 23.0564, 38.2544, -28.6215, -29.9142
2.551, 2, 17.8816, 15.8645, 23.0564, 38.2544, -28.6215, -29.9142
2.556, 2, 17.8816, 15.8645, 23.0564, 38.2544, -28.6215, -29.9142
2.56, 2, 17.8816, 15.8645, 23.0564, 38.2544, -28.6215, -29.9142
2.564, 2, 17.8816, 15.8645, 23.0564, 38.2544, -28.6215, -29.9142
2.568, 2, 17.8816, 15.8645, 23.0564, 38.2544, -28.6215, -29.9142
2.571, 2, 17.8816, 15.8645, 23.0564, 38.2544, -28.6215, -29.9142
2.576, 2, 17.8816, 15.8645, 23.0564, 38.2544, -28.6215, -29.9142
2.58, 2, 17.8816, 15.8645, 23.0564, 38.2544, -28.6215, -29.9142
2.584, 2, 17.8816, 15.8645, 23.0564, 38.2544, -28.6215, -29.9142
2.587, 2, 17.8816, 15.8645, 23.0564, 38.2544, -28.6215, -29.9142
2.592, 2, 17.8816, 15.8645, 23.0564, 38.2544, -28.6215, -29.9142
2.596, 2, 17.8816, 15.8645, 23.0564, 38.2544, -28.6215, -29.9142
2.6, 2, 17.8816, 15.8645, 23.0564, 38.2544, -28.6215, -29.9142
2.604, 2, 17.8816, 15.8645, 23.0564, 38.2544, -28.6215, -29.9142
2.607, 2, 17.8816, 15.8645, 23.0564, 38.2544, -28.6215, -29.9142
2.612, 2, 17.8816, 15.8645, 23.0564, 38.2544, -28.6215, -29.9142
2.616, 2, 17.8816, 15.8645, 23.0564, 38.2544, -28.6215, -29.9142
2.62, 2, 17.8816, 15.8645, 23.0564, 38.2544, -28.6215, -29.9142
2.624, 2, 17.8816, 15.8645, 23.0564, 38.2544, -28.6215, -29.9142
2.627, 2, 17.8816, 15.8645, 23.0564, 38.2544, -28.6215, -29.9142
2.632, 2, 17.8816, 15.8645, 23.0564, 38.2544, -28.6215, -29.9142
2.636, 2, 17.8816, 15.8645, 23.0564, 38.2544, -28.6215, -29.9142
2.64, 2, 17.8816, 15.8645, 23.0564, 38.2544, -28.6215, -29.9142
2.643, 2, 17.8816, 15.8645, 23.0564, 38.2544, -28.6215, -29.9142
2.648, 2, 17.8816, 15.8645, 23.0564, 38.2544, -28.6215, -29.9142
2.652, 2, 17.8816, 15.8645, 23.0564, 38.2544, -28.6215, -29.9142
2.656, 2, 17.8816, 15.8645, 23.0564, 38.2544, -28.6215, -29.9142
2.66, 2, 17.8816, 15.8645, 23.0564, 38.2544, -28.6215, -29.9142
2.663, 2, 17.8816, 15.8645, 23.0564, 38.2544, -28.6215, -29.9142
2.668, 2, 17.8816, 15.8645, 23.0564, 38.2544, -28.6215, -29.9142
2.672, 2, 17.8816, 15.8645, 23.0564, 38.2544, -28.6215, -29.9142
2.676, 2, 17.8816, 15.8645, 23.0564, 38.2544, -28.6215, -29.9142
2.679, 2, 17.8816, 15.8645, 23.0564, 38.2544, -28.6215, -29.9142
2.684, 2, 17.8816, 15.8645, 23.0564, 38.2544, -28.6215, -29.9142
2.688, 2, 17.8816, 15.8645, 23.0564, 38.2544, -28.6215, -29.9142
2.692, 2, 17.8816, 15.8645, 23.0564, 38.2544, -28.6215, -29.9142
2.696, 2, 17.8816, 15.8645, 23.0564, 38.2544, -28.6215, -29.9142
2.699, 2, 17.8816, 15.8645, 23.0564, 38.2544, -28.6215, -29.9142
2.704, 2, 17.8816, 15.8645, 23.0564, 38.2544, -28.6215, -29.9142
2.708, 2, 17.8816, 15.8645, 23.0564, 38.2544, -28.6215, -29.9142
2.712, 2, 17.8816, 15.8645, 23.0564, 38.2544, -28.6215, -29.9142
2.716, 2, 17.8816, 15.8645, 23.0564, 38.2544, -28.6215, -29.9142
2.719, 2, 17.8816, 15.8645, 23.0564, 38.2544, -28.6215, -29.9142
2.724, 2, 17.8816, 15.8645, 23.0564, 38.2544, -28.6215, -29.9142
2.728, 2, 17.8816, 15.8645, 23.0564, 38.2544, -28.6215, -29.9142
2.732, 2, 17.8816, 15.8645, 23.0564, 38.2544, -28.6215, -29.9142
2.735, 2, 17.8816, 15.8645, 23.0564, 38.2544, -28.6215, -29.9142
2.74, 2, 17.8816, 15.8645, 23.0564, 38.2544, -28.6215, -29.9142
2.744, 2, 17.8816, 15.8645, 23.0564, 38.2544, -28.6215, -29.9142
2.748, 2, 17.8816, 15.8645, 23.0564, 38.2544, -28.6215, -29.9142
2.752, 2, 17.8816, 15.8645, 23.0564, 38.2544, -28.6215, -29.9142
2.755, 2, 17.8816, 15.8645, 23.0564, 38.2544, -28.6215, -29.9142
2.76, 2, 17.8816, 15.8645, 23.0564, 38.2544, -28.6215, -29.9142
2.764, 2, 17.8816, 15.8645, 23.0564, 38.2544, -28.6215, -29.9142
2.768, 2, 17.8816, 15.8645, 23.0564, 38.2544, -28.6215, -29.9142
2.772, 2, 17.8816, 15.8645, 23.0564, 38.2544, -28.6215, -29.9142
2.775, 2, 17.8816, 15.8645, 23.0564, 38.2544, -28.6215, -29.9142
2.78, 2, 17.8816, 15.8645, 23.0564, 38.2544, -28.6215, -29.9142
2.784, 2, 17.8816, 15.8645, 23.0564, 38.2544, -28.6215, -29.9142
2.788, 2, 17.8816, 15.8645, 23.0564, 38.2544, -28.6215, -29.9142
2.791, 2, 17.8816, 15.8645, 23.0564, 38.2544, -28.6215, -29.9142
2.796, 2, 17.8816, 15.8645, 23.0564, 38.2544, -28.6215, -29.9142
2.8, 2, 17.8816, 15.8645, 23.0564, 38.2544, -28.6215, -29.9142
2.804, 2, 17.8816, 15.8645, 23.0564, 38.2544, -28.6215, -29.9142
2.808, 2, 17.8816, 15.8645, 23.0564, 38.2544, -28.6215, -29.9142
2.811, 2, 17.8816, 15.8645, 23.0564, 38.2544, -28.6215, -29.9142
2.816, 2, 17.8816, 15.8645, 23.0564, 38.2544, -28.6215, -29.9142
2.82, 2, 17.8816, 15.8645, 23.0564, 38.2544, -28.6215, -29.9142
2.824, 2, 17.8816, 15.8645, 23.0564, 38.2544, -28.6215, -29.9142
2.828, 2, 17.8816, 15.8645, 23.0564, 38.2544, -28.6215, -29.9142
2.831, 2, 17.8816, 15.8645, 23.0564, 38.2544, -28.6215, -29.9142
2.836, 2, 17.8816, 15.8645, 23.0564, 38.2544, -28.6215, -29.9142
2.84, 2, 17.8816, 15.8645, 23.0564, 38.2544, -28.6215, -29.9142
2.844, 2, 17.8816, 15.8645, 23.0564, 38.2544, -28.6215, -29.9142
2.847, 2, 17.8816, 15.8645, 23.0564, 38.2544, -28.6215, -29.9142
2.852, 2, 17.8816, 15.8645, 23.0564, 38.2544, -28.6215, -29.9142
2.856, 2, 17.8816, 15.8645, 23.0564, 38.2544, -28.6215, -29.9142
2.86, 2, 17.8816, 15.8645, 23.0564, 38.2544, -28.6215, -29.9142
2.864, 2, 17.8816, 15.8645, 23.0564, 38.2544, -28.6215, -29.9142
2.867, 2, 17.8816, 15.8645, 23.0564, 38.2544, -28.6215, -29.9142
2.872, 2, 17.8816, 15.8645, 23.0564, 38.2544, -28.6215, -29.9142
2.876, 2, 17.8816, 15.8645, 23.0564, 38.2544, -28.6215, -29.9142
2.88, 2, 17.8816, 15.8645, 23.0564, 38.2544, -28.6215, -29.9142
2.883, 2, 17.8816, 15.8645, 23.0564, 38.2544, -28.6215, -29.9142
2.888, 2, 17.8816, 15.8645, 23.0564, 38.2544, -28.6215, -29.9142
2.892, 2, 17.8816, 15.8645, 23.0564, 38.2544, -28.6215, -29.9142
2.896, 2, 17.8816, 15.8645, 23.0564, 38.2544, -28.6215, -29.9142
2.9, 2, 17.8816, 15.8645, 23.0564, 38.2544, -28.6215, -29.9142
2.903, 2, 17.8816, 15.8645, 23.0564, 38.2544, -28.6215, -29.9142
2.908, 2, 17.8816, 15.8645, 23.0564, 38.2544, -28.6215, -29.9142
2.912, 2, 17.8816, 15.8645, 23.0564, 38.2544, -28.6215, -29.9142
2.916, 2, 17.8816, 15.8645, 23.0564, 38.2544, -28.6215, -29.9142
2.92, 2, 17.8816, 15.8645, 23.0564, 38.2544, -28.6215, -29.9142
2.923, 2, 17.8816, 15.8645, 23.0564, 38.2544, -28.6215, -29.9142
2.928, 2, 17.8816, 15.8645, 23.0564, 38.2544, -28.6215, -29.9142
2.932, 2, 17.8816, 15.8645, 23.0564, 38.2544, -28.6215, -29.9142
2.936, 2, 17.8816, 15.8645, 23.0564, 38.2544, -28.6215, -29.9142
2.939, 2, 17.8816, 15.8645, 23.0564, 38.2544, -28.6215, -29.9142
2.944, 2, 17.8816, 15.8645, 23.0564, 38.2544, -28.6215, -29.9142
2.948, 2, 17.8816, 15.8645, 23.0564, 38.2544, -28.6215, -29.9142
2.952, 2, 17.8816, 15.8645, 23.0564, 38.2544, -28.6215, -29.9142
2.956, 2, 17.8816, 15.8645, 23.0564, 38.2544, -28.6215, -29.9142
2.959, 2, 17.8816, 15.8645, 23.0564, 38.2544, -28.6215, -29.9142
2.964, 2, 17.8816, 15.8645, 23.0564, 38.2544, -28.6215, -29.9142
2.968, 2, 17.8816, 15.8645, 23.0564, 38.2544, -28.6215, -29.9142
2.972, 2, 17.8816, 15.8645, 23.0564, 38.2544, -28.6215, -29.9142
2.976, 2, 17.8816, 15.8645, 23.0564, 38.2544, -28.6215, -29.9142
2.98, 2, 17.8816, 15.8645, 23.0564, 38.2544, -28.6215, -29.9142
2.984, 2, 17.8816, 15.8645, 23.0564, 38.2544, -28.6215, -29.9142
2.988, 2, 17.8816, 15.8645, 23.0564, 38.2544, -28.6215, -29.9142
2.992, 2, 17.8816, 15.8645, 23.0564, 38.2544, -28.6215, -29.9142
2.995, 2, 17.8816, 15.8645, 23.0564, 38.2544, -28.6215, -29.9142
3, 2, 17.8816, 15.8645, 23.0564, 38.2544, -28.6215, -29.9142
3.004, 2, 17.8816, 15.8645, 23.0564, 38.2544, -28.6215, -29.9142
3.008, 2, 17.8816, 15.8645, 23.0564, 38.2544, -28.6215, -29.9142
3.012, 2, 17.8816, 15.8645, 23.0564, 38.2544, -28.6215, -29.9142
3.015, 2, 17.8816, 15.8645, 23.0564, 38.2544, -28.6215, -29.9142
3.02, 2, 17.8816, 15.8645, 23.0564, 38.2544, -28.6215, -29.9142
3.024, 2, 17.8816, 15.8645, 23.0564, 38.2544, -28.6215, -29.9142
3.028, 2, 17.8816, 15.8645, 23.0564, 38.2544, -28.6215, -29.9142
3.031, 2, 17.8816, 15.8645, 23.0564, 38.2544, -28.6215, -29.9142
3.036, 2, 17.8816, 15.8645, 23.0564, 38.2544, -28.6215, -29.9142
3.04, 2, 17.8816, 15.8645, 23.0564, 38.2544, -28.6215, -29.9142
3.044, 2, 17.8816, 15.8645, 23.0564, 38.2544, -28.6215, -29.9142
3.048, 2, 17.8816, 15.8645, 23.0564, 38.2544, -28.6215, -29.9142
3.051, 2, 17.8816, 15.8645, 23.0564, 38.2544, -28.6215, -29.9142
3.056, 2, 17.8816, 15.8645, 23.0564, 38.2544, -28.6215, -29.9142
3.06, 2, 17.8816, 15.8645, 23.0564, 38.2544, -28.6215, -29.9142
3.064, 2, 17.8816, 15.8645, 23.0564, 38.2544, -28.6215, -29.9142
3.068, 2, 17.8816, 15.8645, 23.0564, 38.2544, -28.6215, -29.9142
3.071, 2, 17.8816, 15.8645, 23.0564, 38.2544, -28.6215, -29.9142
3.076, 2, 17.8816, 15.8645, 23.0564, 38.2544, -28.6215, -29.9142
3.08, 2, 17.8816, 15.8645, 23.0564, 38.2544, -28.6215, -29.9142
3.084, 2, 17.8816, 15.8645, 23.0564, 38.2544, -28.6215, -29.9142
3.087, 2, 17.8816, 15.8645, 23.0564, 38.2544, -28.6215, -29.9142
3.092, 2, 17.8816, 15.8645, 23.0564, 38.2544, -28.6215, -29.9142
3.096, 2, 17.8816, 15.8645, 23.0564, 38.2544, -28.6215, -29.9142
3.1, 2, 17.8816, 15.8645, 23.0564, 38.2544, -28.6215, -29.9142
3.104, 2, 17.8816, 15.8645, 23.0564, 38.2544, -28.6215, -29.9142
3.107, 2, 17.8816, 15.8645, 23.0564, 38.2544, -28.6215, -29.9142
3.112, 2, 17.8816, 15.8645, 23.0564, 38.2544, -28.6215, -29.9142
3.116, 2, 17.8816, 15.8645, 23.0564, 38.2544, -28.6215, -29.9142
3.12, 2, 17.8816, 15.8645, 23.0564, 38.2544, -28.6215, -29.9142
3.124, 2, 17.8816, 15.8645, 23.0564, 38.2544, -28.6215, -29.9142
3.128, 2, 17.8816, 15.8645, 23.0564, 38.2544, -28.6215, -29.9142
3.132, 2, 17.8816, 15.8645, 23.0564, 38.2544, -28.6215, -29.9142
3.136, 2, 17.8816, 15.8645, 23.0564, 38.2544, -28.6215, -29.9142
3.14, 2, 17.8816, 15.8645, 23.0564, 38.2544, -28.6215, -29.9142
3.143, 2, 17.8816, 15.8645, 23.0564, 38.2544, -28.6215, -29.9142
3.148, 2, 17.8816, 15.8645, 23.0564, 38.2544, -28.6215, -29.9142
3.152, 2, 17.8816, 15.8645, 23.0564, 38.2544, -28.6215, -29.9142
3.156, 2, 17.8816, 15.8645, 23.0564, 38.2544, -28.6215, -29.9142
3.16, 2, 17.8816, 15.8645, 23.0564, 38.2544, -28.6215, -29.9142
3.163, 2, 17.8816, 15.8645, 23.0564, 38.2544, -28.6215, -29.9142
3.168, 2, 17.8816, 15.8645, 23.0564, 38.2544, -28.6215, -29.9142
3.172, 2, 17.8816, 15.8645, 23.0564, 38.2544, -28.6215, -29.9142
3.176, 2, 17.8816, 15.8645, 23.0564, 38.2544, -28.6215, -29.9142
3.179, 2, 17.8816, 15.8645, 23.0564, 38.2544, -28.6215, -29.9142
3.184, 2, 17.8816, 15.8645, 23.0564, 38.2544, -28.6215, -29.9142
3.188, 2, 17.8816, 15.8645, 23.0564, 38.2544, -28.6215, -29.9142
3.192, 2, 17.8816, 15.8645, 23.0564, 38.2544, -28.6215, -29.9142
3.196, 2, 17.8816, 15.8645, 23.0564, 38.2544, -28.6215, -29.9142
3.199, 2, 17.8816, 15.8645, 23.0564, 38.2544, -28.6215, -29.9142
3.204, 2, 17.8816, 15.8645, 23.0564, 38.2544, -28.6215, -29.9142
3.208, 2, 17.8816, 15.8645, 23.0564, 38.2544, -28.6215, -29.9142
3.212, 2, 17.8816, 15.8645, 23.0564, 38.2544, -28.6215, -29.9142
3.216, 2, 17.8816, 15.8645, 23.0564, 38.2544, -28.6215, -29.9142
3.22, 2, 17.8816, 15.8645, 23.0564, 38.2544, -28.6215, -29.9142
3.224, 2, 17.8816, 15.8645, 23.0564, 38.2544, -28.6215, -29.9142
3.228, 2, 17.8816, 15.8645, 23.0564, 38.2544, -28.6215, -29.9142
3.232, 2, 17.8816, 15.8645, 23.0564, 38.2544, -28.6215, -29.9142
3.235, 2, 17.8816, 15.8645, 23.0564, 38.2544, -28.6215, -29.9142
3.24, 2, 17.8816, 15.8645, 23.0564, 38.2544, -28.6215, -29.9142
3.244, 2, 17.8816, 15.8645, 23.0564, 38.2544, -28.6215, -29.9142
3.248, 4, 17.8816, 15.8645, 23.0564, 38.2544, -28.6215, -29.9142
3.252, 4, 17.8816, 15.8645, 23.0564, 38.2544, -28.6215, -29.9142
3.255, 4, 17.8816, 15.8645, 23.0564, 38.2544, -28.6215, -29.9142
3.26, 4, 17.8816, 15.8645, 23.0564, 38.2544, -28.6215, -29.9142
3.264, 4, 17.8816, 15.8645, 23.0564, 38.2544, -28.6215, -29.9142
3.268, 4, 17.8816, 15.8645, 23.0564, 38.2544, -28.6215, -29.9142
3.272, 4, 17.8816, 15.8645, 23.0564, 38.2544, -28.6215, -29.9142
3.276, 4, 17.8816, 15.8645, 23.0564, 38.2544, -28.6215, -29.9142
3.28, 4, 17.8816, 15.8645, 23.0564, 38.2544, -28.6215, -29.9142
3.284, 4, 17.8816, 15.8645, 23.0564, 38.2544, -28.6215, -29.9142
3.288, 4, 17.8816, 15.8645, 23.0564, 38.2544, -28.6215, -29.9142
3.291, 4, 17.8816, 15.8645, 23.0564, 38.2544, -28.6215, -29.9142
3.296, 4, 17.8816, 15.8645, 23.0564, 38.2544, -28.6215, -29.9142
3.3, 4, 17.8816, 15.8645, 23.0564, 38.2544, -28.6215, -29.9142
3.304, 4, 17.8816, 15.8645, 23.0564, 38.2544, -28.6215, -29.9142
3.308, 4, 17.8816, 15.8645, 23.0564, 38.2544, -28.6215, -29.9142
3.312, 4, 17.8816, 15.8645, 23.0564, 38.2544, -28.6215, -29.9142
3.316, 4, 17.8816, 15.8645, 23.0564, 38.2544, -28.6215, -29.9142
3.32, 4, 17.8816, 15.8645, 23.0564, 38.2544, -28.6215, -29.9142
3.324, 4, 17.8816, 15.8645, 23.0564, 38.2544, -28.6215, -29.9142
3.328, 4, 17.8816, 15.8645, 23.0564, 38.2544, -28.6215, -29.9142
3.332, 4, 17.8816, 15.8645, 23.0564, 38.2544, -28.6215, -29.9142
3.336, 4, 17.8816, 15.8645, 23.0564, 38.2544, -28.6215, -29.9142
3.34, 4, 17.8816, 15.8645, 23.0564, 38.2544, -28.6215, -29.9142
3.344, 4, 17.8816, 15.8645, 23.0564, 38.2544, -28.6215, -29.9142
3.347, 4, 17.8816, 15.8645, 23.0564, 38.2544, -28.6215, -29.9142
3.352, 4, 17.8816, 15.8645, 23.0564, 38.2544, -28.6215, -29.9142
3.356, 4, 17.8816, 15.8645, 23.0564, 38.2544, -28.6215, -29.9142
3.36, 4, 17.8816, 15.8645, 23.0564, 38.2544, -28.6215, -29.9142
3.364, 4, 17.8816, 15.8645, 23.0564, 38.2544, -28.6215, -29.9142
3.368, 4, 17.8816, 15.8645, 23.0564, 38.2544, -28.6215, -29.9142
3.372, 4, 17.8816, 15.8645, 23.0564, 38.2544, -28.6215, -29.9142
3.376, 4, 17.8816, 15.8645, 23.0564, 38.2544, -28.6215, -29.9142
3.38, 4, 17.8815, 15.8645, 23.0564, 38.2544, -28.6215, -29.9142
3.383, 4, 17.8812, 15.8645, 23.0564, 38.2543, -28.6215, -29.9142
3.388, 4, 17.8806, 15.8645, 23.0565, 38.2542, -28.6216, -29.9141
3.392, 4, 17.8793, 15.8645, 23.0566, 38.2539, -28.6217, -29.9139
3.396, 4, 17.8773, 15.8644, 23.0569, 38.2532, -28.6219, -29.9133
3.4, 4, 17.8745, 15.8643, 23.0576, 38.2517, -28.6225, -29.912
3.403, 4, 17.8706, 15.864, 23.0586, 38.2489, -28.6235, -29.9095
3.408, 4, 17.8657, 15.8636, 23.0603, 38.2441, -28.6252, -29.9053
3.412, 4, 17.8595, 15.863, 23.063, 38.2364, -28.628, -29.8984
3.416, 4, 17.8519, 15.862, 23.067, 38.2246, -28.6322, -29.8881
3.42, 5, 17.8425, 15.8607, 23.0726, 38.2075, -28.6384, -29.873
3.424, 5, 17.8311, 15.8589, 23.0804, 38.1837, -28.647, -29.852
3.428, 5, 17.8174, 15.8565, 23.0908, 38.1514, -28.6586, -29.8234
3.432, 5, 17.801, 15.8534, 23.1043, 38.1089, -28.674, -29.7859
3.436, 5, 17.7821, 15.8494, 23.1215, 38.0544, -28.6938, -29.7376
3.439, 5, 17.7607, 15.8444, 23.143, 37.986, -28.7187, -29.6771
3.444, 5, 17.7368, 15.8385, 23.169, 37.9022, -28.7493, -29.603
3.448, 5, 17.7105, 15.8313, 23.2001, 37.8019, -28.7861, -29.5142
3.452, 5, 17.6816, 15.823, 23.2363, 37.6842, -28.8295, -29.4101
3.456, 5, 17.6501, 15.8135, 23.2779, 37.5489, -28.8796, -29.2903
3.46, 5, 17.6158, 15.8028, 23.3248, 37.3961, -28.9365, -29.1552
3.464, 5, 17.5787, 15.791, 23.3769, 37.2264, -29.0001, -29.0052
3.468, 5, 17.5387, 15.7781, 23.4338, 37.0409, -29.07, -28.8413
3.472, 5, 17.4961, 15.7643, 23.4952, 36.8409, -29.1458, -28.6647
3.476, 5, 17.4511, 15.7496, 23.5606, 36.628, -29.2271, -28.4767
3.48, 5, 17.4038, 15.7342, 23.6296, 36.404, -29.3132, -28.279
3.484, 5, 17.3544, 15.7183, 23.7015, 36.1707, -29.4036, -28.0734
3.488, 5, 17.3028, 15.7019, 23.7759, 35.9303, -29.4976, -27.8615
3.492, 5, 17.249, 15.6853, 23.8521, 35.6844, -29.5945, -27.645
3.495, 5, 17.1931, 15.6685, 23.9298, 35.4348, -29.6937, -27.4254
3.5, 5, 17.1353, 15.6516, 24.0084, 35.183, -29.7948, -27.204
3.504, 5, 17.0757, 15.6348, 24.0877, 34.9299, -29.8974, -26.9817
3.508, 5, 17.0145, 15.6181, 24.1673, 34.6764, -30.0011, -26.7593
3.512, 5, 16.9523, 15.6015, 24.2471, 34.4232, -30.1058, -26.5374
3.516, 5, 16.8892, 15.5851, 24.327, 34.1706, -30.2112, -26.3161
3.52, 5, 16.8255, 15.569, 24.4068, 33.919, -30.3173, -26.0959
3.524, 5, 16.7614, 15.5531, 24.4864, 33.6684, -30.4241, -25.8768
3.528, 5, 16.697, 15.5374, 24.5659, 33.419, -30.5314, -25.6589
3.531, 5, 16.6323, 15.522, 24.6451, 33.1709, -30.6392, -25.4424
3.536, 5, 16.5675, 15.5068, 24.7241, 32.9241, -30.7476, -25.2273
3.54, 5, 16.5024, 15.4919, 24.8029, 32.6787, -30.8564, -25.0135
3.544, 5, 16.4373, 15.4773, 24.8814, 32.4347, -30.9657, -24.8012
3.548, 5, 16.372, 15.4629, 24.9597, 32.1921, -31.0754, -24.5902
3.552, 5, 16.3066, 15.4488, 25.0377, 31.9509, -31.1857, -24.3807
3.556, 5, 16.2411, 15.435, 25.1154, 31.711, -31.2963, -24.1726
3.56, 5, 16.1755, 15.4214, 25.1928, 31.4726, -31.4074, -23.9659
3.564, 5, 16.1098, 15.4081, 25.27, 31.2355, -31.5189, -23.7607
3.568, 5, 16.044, 15.3951, 25.3469, 30.9998, -31.6309, -23.5568
3.572, 5, 15.9781, 15.3823, 25.4235, 30.7655, -31.7433, -23.3543
3.576, 5, 15.9121, 15.3699, 25.4998, 30.5326, -31.8561, -23.1532
3.58, 5, 15.846, 15.3577, 25.5759, 30.301, -31.9693, -22.9535
3.584, 5, 15.7798, 15.3457, 25.6517, 30.0708, -32.083, -22.7551
3.587, 5, 15.7136, 15.3341, 25.7272, 29.8419, -32.197, -22.5581
3.592, 5, 15.6472, 15.3227, 25.8024, 29.6143, -32.3114, -22.3624
3.596, 5, 15.5808, 15.3116, 25.8773, 29.388, -32.4263, -22.1681
3.6, 5, 15.5143, 15.3008, 25.952, 29.1631, -32.5415, -21.9751
3.604, 5, 15.4477, 15.2902, 26.0263, 28.9394, -32.6572, -21.7834
3.608, 5, 15.381, 15.2799, 26.1004, 28.7171, -32.7732, -21.5931
3.612, 5, 15.3142, 15.2699, 26.1742, 28.496, -32.8896, -21.404
3.616, 5, 15.2473, 15.2602, 26.2477, 28.2763, -33.0064, -21.2163
3.62, 5, 15.1803, 15.2507, 26.321, 28.0577, -33.1236, -21.0298
3.624, 5, 15.1133, 15.2415, 26.394, 27.8405, -33.2411, -20.8446
3.628, 5, 15.0462, 15.2326, 26.4666, 27.6245, -33.359, -20.6607
3.632, 5, 14.9789, 15.224, 26.539, 27.4097, -33.4773, -20.478
3.636, 5, 14.9116, 15.2156, 26.6112, 27.1962, -33.596, -20.2966
3.64, 5, 14.8442, 15.2075, 26.683, 26.9839, -33.715, -20.1165
3.644, 5, 14.7767, 15.1997, 26.7546, 26.7728, -33.8344, -19.9375
3.648, 5, 14.7092, 15.1922, 26.8259, 26.5629, -33.9541, -19.7598
3.652, 5, 14.6415, 15.1849, 26.8969, 26.3542, -34.0742, -19.5833
3.656, 5, 14.5738, 15.1779, 26.9676, 26.1467, -34.1946, -19.4081
3.66, 5, 14.506, 15.1712, 27.0381, 25.9404, -34.3154, -19.234
3.664, 5, 14.438, 15.1647, 27.1082, 25.7353, -34.4365, -19.0611
3.668, 5, 14.3701, 15.1586, 27.1781, 25.5313, -34.558, -18.8894
3.672, 5, 14.302, 15.1527, 27.2477, 25.3285, -34.6798, -18.7189
3.676, 5, 14.2338, 15.147, 27.3171, 25.1268, -34.8019, -18.5496
3.679, 5, 14.1656, 15.1417, 27.3861, 24.9263, -34.9244, -18.3814
3.684, 5, 14.0972, 15.1366, 27.4549, 24.7269, -35.0472, -18.2144
3.688, 5, 14.0288, 15.1318, 27.5234, 24.5287, -35.1703, -18.0485
3.692, 5, 13.9603, 15.1273, 27.5916, 24.3315, -35.2937, -17.8838
3.696, 5, 13.8918, 15.1231, 27.6596, 24.1355, -35.4175, -17.7201
3.7, 5, 13.8231, 15.1191, 27.7272, 23.9406, -35.5416, -17.5576
3.704, 5, 13.7544, 15.1154, 27.7946, 23.7467, -35.666, -17.3962
3.708, 5, 13.6855, 15.112, 27.8617, 23.5539, -35.7907, -17.2359
3.712, 5, 13.6166, 15.1088, 27.9285, 23.3622, -35.9157, -17.0767
3.716, 5, 13.5477, 15.106, 27.995, 23.1716, -36.041, -16.9186
3.72, 5, 13.4786, 15.1034, 28.0612, 22.982, -36.1666, -16.7616
3.724, 5, 13.4095, 15.1011, 28.1271, 22.7935, -36.2925, -16.6056
3.728, 5, 13.3402, 15.099, 28.1928, 22.606, -36.4187, -16.4506
3.732, 5, 13.2709, 15.0973, 28.2582, 22.4195, -36.5452, -16.2967
3.735, 5, 13.2016, 15.0958, 28.3232, 22.234, -36.672, -16.1439
3.74, 5, 13.1321, 15.0946, 28.388, 22.0496, -36.7991, -15.9921
3.744, 5, 13.0626, 15.0937, 28.4525, 21.8661, -36.9264, -15.8413
3.748, 5, 12.9929, 15.0931, 28.5168, 21.6836, -37.054, -15.6915
3.752, 5, 12.9232, 15.0927, 28.5807, 21.5022, -37.1819, -15.5427
3.756, 5, 12.8535, 15.0927, 28.6443, 21.3217, -37.3101, -15.3949
3.76, 5, 12.7836, 15.0929, 28.7077, 21.1421, -37.4386, -15.2481
3.764, 5, 12.7137, 15.0934, 28.7707, 20.9636, -37.5673, -15.1023
3.768, 5, 12.6437, 15.0941, 28.8335, 20.7859, -37.6963, -14.9574
3.772, 5, 12.5736, 15.0952, 28.896, 20.6093, -37.8255, -14.8136
3.776, 5, 12.5035, 15.0965, 28.9582, 20.4336, -37.955, -14.6706
3.78, 5, 12.4332, 15.0981, 29.02, 20.2588, -38.0848, -14.5287
3.784, 5, 12.3629, 15.1, 29.0816, 20.0849, -38.2148, -14.3877
3.788, 5, 12.2925, 15.1022, 29.143, 19.9119, -38.3451, -14.2476
3.792, 5, 12.2221, 15.1047, 29.204, 19.7399, -38.4756, -14.1084
3.796, 5, 12.1516, 15.1074, 29.2647, 19.5687, -38.6064, -13.9702
3.8, 5, 12.081, 15.1104, 29.3251, 19.3985, -38.7374, -13.8329
3.804, 5, 12.0103, 15.1137, 29.3853, 19.2292, -38.8687, -13.6965
3.808, 5, 11.9395, 15.1173, 29.4451, 19.0607, -39.0002, -13.561
3.812, 5, 11.8687, 15.1212, 29.5047, 18.8931, -39.132, -13.4264
3.816, 5, 11.7978, 15.1253, 29.564, 18.7264, -39.264, -13.2927
3.82, 5, 11.7268, 15.1298, 29.6229, 18.5605, -39.3962, -13.1599
3.824, 5, 11.6558, 15.1345, 29.6816, 18.3956, -39.5287, -13.0279
3.828, 5, 11.5847, 15.1394, 29.74, 18.2314, -39.6614, -12.8969
3.832, 5, 11.5135, 15.1447, 29.7981, 18.0681, -39.7943, -12.7667
3.836, 5, 11.4422, 15.1503, 29.8559, 17.9057, -39.9274, -12.6374
3.84, 5, 11.3709, 15.1561, 29.9135, 17.7441, -40.0608, -12.5089
3.844, 5, 11.2995, 15.1622, 29.9707, 17.5833, -40.1945, -12.3813
3.848, 5, 11.228, 15.1686, 30.0276, 17.4234, -40.3283, -12.2545
3.852, 5, 11.1565, 15.1753, 30.0842, 17.2642, -40.4623, -12.1285
3.856, 5, 11.0849, 15.1823, 30.1406, 17.1059, -40.5966, -12.0034
3.86, 5, 11.0132, 15.1895, 30.1966, 16.9484, -40.7311, -11.8792
3.864, 5, 10.9414, 15.197, 30.2524, 16.7917, -40.8658, -11.7557
3.868, 5, 10.8696, 15.2048, 30.3079, 16.6358, -41.0008, -11.6331
3.872, 5, 10.7977, 15.2129, 30.363, 16.4807, -41.1359, -11.5113
3.876, 5, 10.7258, 15.2213, 30.4179, 16.3263, -41.2712, -11.3902
3.88, 5, 10.6538, 15.2299, 30.4725, 16.1728, -41.4068, -11.27
3.884, 5, 10.5817, 15.2389, 30.5268, 16.02, -41.5426, -11.1506
3.888, 5, 10.5095, 15.2481, 30.5807, 15.868, -41.6785, -11.032
3.892, 5, 10.4373, 15.2576, 30.6344, 15.7168, -41.8147, -10.9141
3.896, 5, 10.365, 15.2674, 30.6878, 15.5663, -41.9511, -10.797
3.9, 5, 10.2926, 15.2774, 30.7409, 15.4165, -42.0876, -10.6807
3.904, 5, 10.2202, 15.2878, 30.7937, 15.2675, -42.2244, -10.5652
3.908, 5, 10.1477, 15.2984, 30.8462, 15.1192, -42.3613, -10.4504
3.912, 5, 10.0752, 15.3093, 30.8984, 14.9717, -42.4985, -10.3363
3.916, 5, 10.0026, 15.3205, 30.9503, 14.8248, -42.6358, -10.223
3.92, 5, 9.92991, 15.332, 31.0019, 14.6787, -42.7733, -10.1104
3.924, 5, 9.85717, 15.3438, 31.0532, 14.5333, -42.911, -9.99858
3.928, 5, 9.78437, 15.3558, 31.1042, 14.3886, -43.0488, -9.88745
3.932, 5, 9.71151, 15.3681, 31.1549, 14.2446, -43.1869, -9.77703
3.936, 5, 9.63859, 15.3807, 31.2053, 14.1013, -43.3251, -9.66732
3.94, 5, 9.5656, 15.3936, 31.2554, 13.9586, -43.4635, -9.55832
3.944, 5, 9.49256, 15.4068, 31.3052, 13.8166, -43.602, -9.45001
3.948, 5, 9.41945, 15.4202, 31.3547, 13.6753, -43.7408, -9.34239
3.952, 5, 9.34629, 15.434, 31.4039, 13.5347, -43.8797, -9.23545
3.956, 5, 9.27307, 15.448, 31.4527, 13.3947, -44.0187, -9.1292
3.96, 5, 9.19979, 15.4622, 31.5013, 13.2554, -44.158, -9.02362
3.964, 5, 9.12645, 15.4768, 31.5496, 13.1167, -44.2973, -8.9187
3.968, 5, 9.05306, 15.4917, 31.5976, 12.9787, -44.4369, -8.81446
3.972, 5, 8.9796, 15.5068, 31.6453, 12.8413, -44.5766, -8.71087
3.976, 5, 8.9061, 15.5222, 31.6927, 12.7046, -44.7164, -8.60793
3.98, 5, 8.83253, 15.5379, 31.7398, 12.5685, -44.8565, -8.50564
3.984, 5, 8.75891, 15.5538, 31.7865, 12.433, -44.9966, -8.40399
3.988, 5, 8.68524, 15.5701, 31.833, 12.2981, -45.1369, -8.30299
3.992, 5, 8.61151, 15.5866, 31.8792, 12.1638, -45.2774, -8.20261
3.996, 5, 8.53773, 15.6034, 31.9251, 12.0301, -45.418, -8.10287
3.999, 5, 8.46389, 15.6205, 31.9706, 11.8971, -45.5587, -8.00375
4.004, 5, 8.39, 15.6378, 32.0159, 11.7646, -45.6996, -7.90525
4.008, 5, 8.31606, 15.6555, 32.0608, 11.6328, -45.8406, -7.80736
4.012, 5, 8.24206, 15.6734, 32.1055, 11.5015, -45.9818, -7.71009
4.016, 5, 8.16801, 15.6916, 32.1498, 11.3708, -46.1231, -7.61343
4.02, 5, 8.09391, 15.71, 32.1939, 11.2407, -46.2646, -7.51736
4.024, 5, 8.01976, 15.7288, 32.2376, 11.1112, -46.4061, -7.4219
4.028, 5, 7.94556, 15.7478, 32.281, 10.9823, -46.5478, -7.32703
4.032, 5, 7.87131, 15.7671, 32.3241, 10.8539, -46.6897, -7.23275
4.036, 5, 7.79701, 15.7867, 32.3669, 10.7261, -46.8316, -7.13905
4.04, 5, 7.72265, 15.8066, 32.4094, 10.5988, -46.9737, -7.04594
4.044, 5, 7.64825, 15.8267, 32.4516, 10.4722, -47.116, -6.95341
4.048, 5, 7.5738, 15.8471, 32.4935, 10.346, -47.2583, -6.86146
4.052, 5, 7.4993, 15.8678, 32.5351, 10.2205, -47.4008, -6.77007
4.056, 5, 7.42475, 15.8888, 32.5764, 10.0954, -47.5434, -6.67926
4.06, 5, 7.35015, 15.9101, 32.6173, 9.97097, -47.6861, -6.589
4.064, 5, 7.27551, 15.9316, 32.658, 9.84703, -47.8289, -6.49931
4.068, 5, 7.20082, 15.9534, 32.6983, 9.72363, -47.9719, -6.41018
4.072, 5, 7.12608, 15.9755, 32.7384, 9.60076, -48.1149, -6.3216
4.076, 5, 7.05129, 15.9978, 32.7781, 9.47843, -48.2581, -6.23357
4.08, 5, 6.97646, 16.0205, 32.8175, 9.35662, -48.4014, -6.14608
4.084, 5, 6.90159, 16.0434, 32.8566, 9.23534, -48.5448, -6.05915
4.088, 5, 6.82666, 16.0666, 32.8954, 9.11458, -48.6884, -5.97275
4.092, 5, 6.7517, 16.0901, 32.9339, 8.99434, -48.832, -5.88688
4.096, 5, 6.67669, 16.1138, 32.9721, 8.87461, -48.9758, -5.80156
4.1, 5, 6.60164, 16.1379, 33.0099, 8.75538, -49.1196, -5.71675
4.104, 5, 6.52654, 16.1622, 33.0475, 8.63667, -49.2636, -5.63248
4.108, 5, 6.4514, 16.1868, 33.0847, 8.51846, -49.4076, -5.54873
4.112, 5, 6.37622, 16.2116, 33.1216, 8.40074, -49.5518, -5.46549
4.116, 5, 6.301, 16.2368, 33.1582, 8.28353, -49.6961, -5.38277
4.12, 5, 6.22574, 16.2622, 33.1945, 8.1668, -49.8404, -5.30055
4.124, 5, 6.15043, 16.2879, 33.2305, 8.05055, -49.9849, -5.21884
4.128, 5, 6.07509, 16.3138, 33.2661, 7.93479, -50.1294, -5.13764
4.132, 5, 5.9997, 16.3401, 33.3015, 7.81951, -50.2741, -5.05692
4.136, 5, 5.92428, 16.3666, 33.3365, 7.7047, -50.4188, -4.97671
4.14, 5, 5.84882, 16.3933, 33.3712, 7.59037, -50.5637, -4.89697
4.144, 5, 5.77332, 16.4204, 33.4057, 7.47649, -50.7086, -4.81773
4.148, 5, 5.69778, 16.4477, 33.4397, 7.36309, -50.8536, -4.73896
4.152, 5, 5.6222, 16.4753, 33.4735, 7.25014, -50.9987, -4.66068
4.156, 5, 5.54659, 16.5032, 33.507, 7.13764, -51.1438, -4.58286
4.16, 5, 5.47094, 16.5314, 33.5401, 7.0256, -51.2891, -4.50552
4.164, 5, 5.39526, 16.5598, 33.573, 6.91401, -51.4344, -4.42864
4.168, 5, 5.31954, 16.5885, 33.6055, 6.80286, -51.5798, -4.35223
4.172, 5, 5.24378, 16.6174, 33.6377, 6.69216, -51.7253, -4.27627
4.176, 5, 5.168, 16.6467, 33.6695, 6.58189, -51.8708, -4.20077
4.18, 5, 5.09218, 16.6762, 33.7011, 6.47206, -52.0165, -4.12572
4.184, 5, 5.01632, 16.7059, 33.7324, 6.36267, -52.1622, -4.05113
4.188, 5, 4.94044, 16.736, 33.7633, 6.2537, -52.3079, -3.97698
4.192, 5, 4.86452, 16.7663, 33.7939, 6.14516, -52.4538, -3.90327
4.196, 5, 4.78858, 16.7968, 33.8242, 6.03704, -52.5997, -3.83
4.2, 5, 4.7126, 16.8277, 33.8542, 5.92934, -52.7456, -3.75717
4.204, 5, 4.63659, 16.8588, 33.8839, 5.82206, -52.8916, -3.68477
4.208, 5, 4.56055, 16.8902, 33.9132, 5.71519, -53.0377, -3.6128
4.212, 5, 4.48448, 16.9218, 33.9422, 5.60874, -53.1839, -3.54126
4.216, 5, 4.40839, 16.9537, 33.9709, 5.50269, -53.3301, -3.47015
4.22, 5, 4.33227, 16.9859, 33.9993, 5.39705, -53.4763, -3.39946
4.224, 5, 4.25611, 17.0183, 34.0274, 5.29181, -53.6226, -3.32918
4.228, 5, 4.17994, 17.051, 34.0552, 5.18697, -53.769, -3.25932
4.232, 5, 4.10373, 17.084, 34.0826, 5.08253, -53.9154, -3.18988
4.236, 5, 4.0275, 17.1172, 34.1097, 4.97849, -54.0619, -3.12084
4.24, 5, 3.95124, 17.1507, 34.1365, 4.87483, -54.2084, -3.05221
4.244, 5, 3.87496, 17.1844, 34.163, 4.77157, -54.355, -2.98399
4.248, 5, 3.79866, 17.2185, 34.1891, 4.66869, -54.5016, -2.91617
4.252, 5, 3.72233, 17.2527, 34.215, 4.5662, -54.6483, -2.84875
4.256, 5, 3.64597, 17.2873, 34.2405, 4.46409, -54.795, -2.78173
4.26, 5, 3.5696, 17.3221, 34.2657, 4.36236, -54.9417, -2.7151
4.264, 5, 3.4932, 17.3572, 34.2905, 4.26101, -55.0885, -2.64886
4.268, 5, 3.41678, 17.3925, 34.3151, 4.16003, -55.2354, -2.58301
4.272, 5, 3.34033, 17.4281, 34.3393, 4.05942, -55.3822, -2.51755
4.276, 5, 3.26387, 17.4639, 34.3632, 3.95918, -55.5291, -2.45247
4.28, 5, 3.18739, 17.5, 34.3868, 3.85931, -55.6761, -2.38777
4.284, 5, 3.11088, 17.5364, 34.41, 3.7598, -55.823, -2.32345
4.288, 5, 3.03436, 17.573, 34.433, 3.66065, -55.9701, -2.25951
4.292, 5, 2.95782, 17.6099, 34.4556, 3.56186, -56.1171, -2.19593
4.296, 5, 2.88126, 17.6471, 34.4779, 3.46343, -56.2642, -2.13273
4.3, 5, 2.80469, 17.6845, 34.4998, 3.36535, -56.4113, -2.0699
4.304, 5, 2.72809, 17.7221, 34.5215, 3.26763, -56.5584, -2.00743
4.308, 5, 2.65148, 17.76, 34.5428, 3.17025, -56.7055, -1.94532
4.312, 5, 2.57485, 17.7982, 34.5638, 3.07322, -56.8527, -1.88357
4.316, 5, 2.49821, 17.8366, 34.5844, 2.97653, -56.9999, -1.82218
4.32, 5, 2.42155, 17.8753, 34.6048, 2.88019, -57.1471, -1.76114
4.324, 5, 2.34488, 17.9142, 34.6248, 2.78418, -57.2943, -1.70045
4.328, 5, 2.2682, 17.9534, 34.6445, 2.68851, -57.4416, -1.64012
4.332, 5, 2.1915, 17.9929, 34.6639, 2.59318, -57.5888, -1.58012
4.336, 5, 2.11478, 18.0326, 34.6829, 2.49818, -57.7361, -1.52048
4.34, 5, 2.03806, 18.0725, 34.7016, 2.40351, -57.8834, -1.46117
4.344, 5, 1.96132, 18.1127, 34.72, 2.30917, -58.0307, -1.40221
4.348, 5, 1.88458, 18.1531, 34.7381, 2.21516, -58.178, -1.34358
4.352, 5, 1.80782, 18.1938, 34.7559, 2.12147, -58.3253, -1.28528
4.356, 5, 1.73105, 18.2348, 34.7733, 2.0281, -58.4726, -1.22732
4.36, 5, 1.65428, 18.276, 34.7904, 1.93505, -58.62, -1.16969
4.364, 5, 1.57749, 18.3174, 34.8072, 1.84232, -58.7673, -1.11238
4.368, 5, 1.5007, 18.3591, 34.8236, 1.74991, -58.9146, -1.05541
4.372, 5, 1.42392, 18.401, 34.8397, 1.65781, -59.062, -0.998748
4.376, 5, 1.34725, 18.4431, 34.8555, 1.56602, -59.2093, -0.942414
4.38, 5, 1.27091, 18.4854, 34.871, 1.47455, -59.3566, -0.886404
4.384, 5, 1.19519, 18.5276, 34.8862, 1.38341, -59.5039, -0.83073
4.388, 5, 1.12035, 18.5696, 34.9012, 1.29266, -59.651, -0.775423
4.392, 5, 1.04664, 18.6113, 34.9158, 1.20238, -59.7978, -0.720539
4.396, 5, 0.974258, 18.6524, 34.9302, 1.11274, -59.944, -0.666167
4.4, 5, 0.903343, 18.6929, 34.9443, 1.02394, -60.0893, -0.612435
4.404, 5, 0.833964, 18.7327, 34.9581, 0.936275, -60.2332, -0.559512
4.408, 5, 0.766135, 18.7717, 34.9715, 0.850095, -60.375, -0.507599
4.412, 5, 0.699866, 18.81, 34.9843, 0.765795, -60.5141, -0.456926
4.416, 5, 0.635181, 18.8479, 34.9963, 0.683796, -60.6497, -0.407735
4.42, 5, 0.572089, 18.8856, 35.0075, 0.604523, -60.7812, -0.360268
4.424, 5, 0.510515, 18.9235, 35.0173, 0.528371, -60.9077, -0.314749
4.428, 5, 0.45028, 18.9618, 35.0257, 0.455675, -61.0288, -0.271364
4.432, 6, 0.391135, 19.001, 35.0322, 0.38667, -61.144, -0.230238
4.436, 6, 0.332818, 19.0414, 35.0366, 0.321454, -61.2532, -0.191416
4.44, 6, 0.275065, 19.0835, 35.0385, 0.259962, -61.3564, -0.154849
4.444, 6, 0.217661, 19.1272, 35.0376, 0.201952, -61.4541, -0.120384
4.448, 6, 0.160524, 19.1728, 35.0337, 0.147016, -61.5469, -0.0877755
4.452, 6, 0.103723, 19.2203, 35.0266, 0.0945984, -61.6358, -0.0566953
4.456, 6, 0.0474076, 19.2697, 35.0161, 0.0440458, -61.7219, -0.0267568
4.46, 6, -0.00828464, 19.3209, 35.002, -0.00535275, -61.8063, 0.00245842
4.464, 6, -0.063233, 19.3738, 34.9843, -0.054318, -61.8904, 0.0313744
4.468, 6, -0.117349, 19.4284, 34.9631, -0.103542, -61.9752, 0.0603973
4.472, 6, -0.170629, 19.4848, 34.9384, -0.153653, -62.0619, 0.0898944
4.476, 6, -0.223187, 19.5431, 34.9103, -0.205185, -62.1514, 0.120176
4.48, 6, -0.275227, 19.6033, 34.879, -0.258551, -62.2444, 0.151482
4.484, 6, -0.326998, 19.6656, 34.8446, -0.314028, -62.3414, 0.183969
4.488, 6, -0.37877, 19.73, 34.8075, -0.371743, -62.4425, 0.217711
4.492, 6, -0.430849, 19.7966, 34.7677, -0.431685, -62.5478, 0.2527
4.496, 6, -0.48359, 19.8656, 34.7256, -0.49372, -62.6569, 0.288858
4.5, 6, -0.53734, 19.937, 34.6813, -0.557624, -62.7697, 0.326056
4.504, 6, -0.59235, 20.0111, 34.6351, -0.623119, -62.8855, 0.364134
4.508, 6, -0.648733, 20.0877, 34.5872, -0.68991, -63.0038, 0.402922
4.512, 6, -0.706476, 20.1669, 34.5378, -0.757711, -63.1243, 0.442255
4.516, 6, -0.765481, 20.2485, 34.487, -0.826265, -63.2464, 0.481981
4.52, 6, -0.82559, 20.3321, 34.4351, -0.895346, -63.3697, 0.521969
4.524, 6, -0.886626, 20.4174, 34.3823, -0.964765, -63.4939, 0.562109
4.528, 6, -0.948426, 20.5041, 34.3287, -1.03437, -63.6188, 0.602313
4.532, 6, -1.01086, 20.5919, 34.2743, -1.10404, -63.7442, 0.642507
4.536, 6, -1.07385, 20.6806, 34.2194, -1.17367, -63.8698, 0.682636
4.54, 6, -1.13729, 20.77, 34.1639, -1.24319, -63.9955, 0.722657
4.544, 6, -1.20109, 20.86, 34.1079, -1.31254, -64.1213, 0.76254
4.548, 6, -1.26513, 20.9504, 34.0514, -1.3817, -64.247, 0.802264
4.552, 6, -1.32932, 21.0411, 33.9946, -1.45063, -64.3727, 0.841814
4.556, 6, -1.39358, 21.1321, 33.9374, -1.51932, -64.4982, 0.881181
4.56, 6, -1.45785, 21.2233, 33.8798, -1.58775, -64.6237, 0.920361
4.564, 6, -1.5221, 21.3147, 33.8219, -1.65592, -64.7489, 0.95935
4.568, 6, -1.58631, 21.4063, 33.7636, -1.72383, -64.8741, 0.998146
4.572, 6, -1.65045, 21.498, 33.7051, -1.79147, -64.999, 1.03675
4.576, 6, -1.71452, 21.5898, 33.6461, -1.85884, -65.1238, 1.07516
4.58, 6, -1.77851, 21.6817, 33.5869, -1.92594, -65.2484, 1.11338
4.584, 6, -1.84242, 21.7737, 33.5273, -1.99277, -65.3729, 1.15141
4.588, 6, -1.90623, 21.8659, 33.4674, -2.05934, -65.4971, 1.18925
4.592, 6, -1.96996, 21.9582, 33.4072, -2.12563, -65.6212, 1.22691
4.596, 6, -2.03359, 22.0505, 33.3467, -2.19166, -65.7451, 1.26438
4.6, 6, -2.09712, 22.143, 33.2858, -2.25743, -65.8688, 1.30166
4.604, 6, -2.16056, 22.2355, 33.2247, -2.32293, -65.9923, 1.33877
4.608, 6, -2.22391, 22.3282, 33.1632, -2.38817, -66.1157, 1.37569
4.612, 6, -2.28716, 22.4209, 33.1013, -2.45314, -66.2388, 1.41243
4.616, 6, -2.35031, 22.5138, 33.0392, -2.51786, -66.3618, 1.449
4.62, 6, -2.41336, 22.6067, 32.9767, -2.58231, -66.4846, 1.4854
4.624, 6, -2.47632, 22.6998, 32.914, -2.64651, -66.6071, 1.52162
4.628, 6, -2.53918, 22.7929, 32.8508, -2.71045, -66.7295, 1.55766
4.632, 6, -2.60194, 22.8862, 32.7874, -2.77413, -66.8517, 1.59354
4.636, 6, -2.6646, 22.9795, 32.7237, -2.83756, -66.9737, 1.62926
4.64, 6, -2.72716, 23.0729, 32.6596, -2.90074, -67.0955, 1.6648
4.644, 6, -2.78963, 23.1664, 32.5952, -2.96366, -67.2172, 1.70019
4.648, 6, -2.852, 23.26, 32.5305, -3.02633, -67.3386, 1.73541
4.652, 6, -2.91427, 23.3537, 32.4655, -3.08876, -67.4598, 1.77047
4.656, 6, -2.97644, 23.4475, 32.4002, -3.15093, -67.5808, 1.80537
4.66, 6, -3.03851, 23.5413, 32.3345, -3.21286, -67.7016, 1.84011
4.664, 6, -3.10049, 23.6353, 32.2685, -3.27454, -67.8222, 1.8747
4.668, 6, -3.16236, 23.7294, 32.2022, -3.33598, -67.9426, 1.90913
4.672, 6, -3.22414, 23.8235, 32.1356, -3.39717, -68.0629, 1.94342
4.676, 6, -3.28581, 23.9177, 32.0687, -3.45812, -68.1829, 1.97755
4.68, 6, -3.34739, 24.012, 32.0014, -3.51883, -68.3027, 2.01153
4.684, 6, -3.40887, 24.1064, 31.9338, -3.5793, -68.4223, 2.04537
4.688, 6, -3.47025, 24.2009, 31.8659, -3.63953, -68.5416, 2.07906
4.692, 6, -3.53152, 24.2955, 31.7977, -3.69952, -68.6608, 2.11261
4.696, 6, -3.5927, 24.3901, 31.7292, -3.75928, -68.7798, 2.14602
4.7, 6, -3.65378, 24.4848, 31.6603, -3.8188, -68.8986, 2.17929
4.704, 6, -3.71476, 24.5796, 31.5911, -3.87808, -69.0171, 2.21241
4.708, 6, -3.77563, 24.6745, 31.5216, -3.93714, -69.1355, 2.24541
4.712, 6, -3.83641, 24.7695, 31.4518, -3.99596, -69.2536, 2.27826
4.716, 6, -3.89708, 24.8646, 31.3816, -4.05454, -69.3715, 2.31098
4.72, 6, -3.95766, 24.9597, 31.3112, -4.1129, -69.4892, 2.34358
4.724, 6, -4.01813, 25.0549, 31.2404, -4.17103, -69.6067, 2.37604
4.728, 6, -4.0785, 25.1502, 31.1693, -4.22893, -69.7239, 2.40837
4.732, 6, -4.13877, 25.2456, 31.0978, -4.2866, -69.841, 2.44057
4.736, 6, -4.19894, 25.341, 31.0261, -4.34405, -69.9578, 2.47265
4.74, 6, -4.25901, 25.4366, 30.954, -4.40127, -70.0744, 2.5046
4.744, 6, -4.31898, 25.5322, 30.8816, -4.45827, -70.1908, 2.53644
4.748, 6, -4.37884, 25.6278, 30.8089, -4.51504, -70.307, 2.56815
4.752, 6, -4.4386, 25.7236, 30.7359, -4.5716, -70.4229, 2.59974
4.756, 6, -4.49826, 25.8194, 30.6625, -4.62793, -70.5387, 2.63121
4.76, 6, -4.55782, 25.9153, 30.5889, -4.68404, -70.6542, 2.66257
4.764, 6, -4.61728, 26.0113, 30.5149, -4.73993, -70.7694, 2.69381
4.768, 6, -4.67663, 26.1074, 30.4405, -4.79561, -70.8845, 2.72494
4.772, 6, -4.73588, 26.2035, 30.3659, -4.85107, -70.9993, 2.75596
4.776, 6, -4.79502, 26.2997, 30.2909, -4.90631, -71.1139, 2.78687
4.78, 6, -4.85406, 26.396, 30.2157, -4.96134, -71.2283, 2.81767
4.784, 6, -4.913, 26.4923, 30.1401, -5.01616, -71.3424, 2.84836
4.788, 6, -4.97183, 26.5887, 30.0641, -5.07076, -71.4563, 2.87895
4.792, 6, -5.03056, 26.6852, 29.9879, -5.12514, -71.57, 2.90943
4.796, 6, -5.08919, 26.7817, 29.9113, -5.17932, -71.6834, 2.93981
4.8, 6, -5.14771, 26.8784, 29.8344, -5.23329, -71.7966, 2.97009
4.804, 6, -5.20613, 26.9751, 29.7572, -5.28705, -71.9096, 3.00027
4.808, 6, -5.26444, 27.0718, 29.6796, -5.34059, -72.0223, 3.03036
4.812, 6, -5.32265, 27.1686, 29.6018, -5.39393, -72.1348, 3.06034
4.816, 6, -5.38076, 27.2655, 29.5236, -5.44706, -72.247, 3.09023
4.82, 6, -5.43877, 27.3625, 29.4451, -5.49999, -72.3591, 3.12003
4.824, 6, -5.49667, 27.4595, 29.3662, -5.5527, -72.4708, 3.14973
4.828, 6, -5.55446, 27.5566, 29.2871, -5.60521, -72.5824, 3.17934
4.832, 6, -5.61216, 27.6538, 29.2076, -5.65752, -72.6937, 3.20886
4.836, 6, -5.66975, 27.751, 29.1278, -5.70962, -72.8048, 3.2383
4.84, 6, -5.72723, 27.8483, 29.0477, -5.76151, -72.9156, 3.26764
4.844, 6, -5.78462, 27.9456, 28.9672, -5.81321, -73.0262, 3.2969
4.848, 6, -5.8419, 28.043, 28.8865, -5.86469, -73.1365, 3.32607
4.852, 6, -5.89907, 28.1405, 28.8054, -5.91598, -73.2466, 3.35516
4.856, 6, -5.95614, 28.238, 28.724, -5.96707, -73.3565, 3.38417
4.86, 6, -6.01311, 28.3356, 28.6423, -6.01795, -73.4661, 3.41309
4.864, 6, -6.06997, 28.4333, 28.5602, -6.06863, -73.5755, 3.44194
4.868, 6, -6.12673, 28.531, 28.4778, -6.11912, -73.6846, 3.4707
4.872, 6, -6.18338, 28.6288, 28.3951, -6.1694, -73.7935, 3.49939
4.876, 6, -6.23994, 28.7267, 28.3121, -6.21948, -73.9022, 3.528
4.88, 6, -6.29639, 28.8246, 28.2288, -6.26937, -74.0106, 3.55653
4.884, 6, -6.35273, 28.9226, 28.1451, -6.31906, -74.1188, 3.58499
4.888, 6, -6.40897, 29.0206, 28.0612, -6.36855, -74.2267, 3.61338
4.892, 6, -6.46511, 29.1187, 27.9769, -6.41784, -74.3344, 3.64169
4.896, 6, -6.52114, 29.2169, 27.8923, -6.46694, -74.4418, 3.66993
4.9, 6, -6.57708, 29.3151, 27.8073, -6.51585, -74.549, 3.6981
4.904, 6, -6.63291, 29.4133, 27.7221, -6.56456, -74.656, 3.7262
4.908, 6, -6.68863, 29.5117, 27.6365, -6.61307, -74.7627, 3.75424
4.912, 6, -6.74425, 29.6101, 27.5506, -6.66139, -74.8691, 3.7822
4.916, 6, -6.79977, 29.7085, 27.4644, -6.70952, -74.9753, 3.8101
4.92, 6, -6.85519, 29.807, 27.3778, -6.75745, -75.0813, 3.83794
4.924, 6, -6.9105, 29.9056, 27.291, -6.8052, -75.187, 3.86571
4.928, 6, -6.96572, 30.0042, 27.2038, -6.85275, -75.2925, 3.89342
4.932, 6, -7.02082, 30.1029, 27.1163, -6.90011, -75.3978, 3.92107
4.936, 6, -7.07583, 30.2017, 27.0285, -6.94727, -75.5027, 3.94866
4.94, 6, -7.13073, 30.3005, 26.9404, -6.99425, -75.6075, 3.97619
4.944, 6, -7.18553, 30.3993, 26.8519, -7.04104, -75.712, 4.00366
4.948, 6, -7.24023, 30.4983, 26.7631, -7.08764, -75.8162, 4.03107
4.952, 6, -7.29483, 30.5972, 26.6741, -7.13405, -75.9202, 4.05842
4.956, 6, -7.34932, 30.6963, 26.5846, -7.18027, -76.0239, 4.08573
4.96, 6, -7.40371, 30.7953, 26.4949, -7.22631, -76.1274, 4.11297
4.964, 6, -7.458, 30.8945, 26.4049, -7.27216, -76.2307, 4.14017
4.968, 6, -7.51218, 30.9937, 26.3145, -7.31782, -76.3337, 4.16731
4.972, 6, -7.56627, 31.093, 26.2238, -7.36329, -76.4364, 4.1944
4.976, 6, -7.62024, 31.1923, 26.1328, -7.40858, -76.5389, 4.22145
4.98, 6, -7.67412, 31.2916, 26.0414, -7.45368, -76.6411, 4.24844
4.984, 6, -7.7279, 31.3911, 25.9498, -7.4986, -76.7431, 4.27538
4.988, 6, -7.78157, 31.4905, 25.8578, -7.54333, -76.8449, 4.30228
4.992, 6, -7.83514, 31.5901, 25.7655, -7.58788, -76.9464, 4.32914
4.996, 6, -7.88861, 31.6896, 25.6729, -7.63225, -77.0476, 4.35595
5, 6, -7.94198, 31.7893, 25.58, -7.67643, -77.1486, 4.38271
5.004, 6, -7.99524, 31.889, 25.4867, -7.72043, -77.2493, 4.40944
5.008, 6, -8.0484, 31.9887, 25.3931, -7.76424, -77.3498, 4.43612
5.012, 6, -8.10146, 32.0885, 25.2992, -7.80787, -77.45, 4.46276
5.016, 6, -8.15442, 32.1884, 25.205, -7.85133, -77.5499, 4.48936
5.02, 6, -8.20727, 32.2883, 25.1105, -7.8946, -77.6496, 4.51593
5.024, 6, -8.26002, 32.3883, 25.0156, -7.93769, -77.7491, 4.54246
5.028, 6, -8.31267, 32.4883, 24.9204, -7.9806, -77.8483, 4.56895
5.032, 6, -8.36521, 32.5883, 24.8249, -8.02332, -77.9472, 4.5954
5.036, 6, -8.41766, 32.6885, 24.7291, -8.06587, -78.0459, 4.62182
5.04, 6, -8.47, 32.7886, 24.6329, -8.10824, -78.1443, 4.64821
5.044, 6, -8.52224, 32.8889, 24.5365, -8.15043, -78.2424, 4.67457
5.048, 6, -8.57437, 32.9891, 24.4397, -8.19244, -78.3403, 4.7009
5.052, 6, -8.62641, 33.0895, 24.3426, -8.23428, -78.438, 4.72719
5.056, 6, -8.67834, 33.1898, 24.2451, -8.27593, -78.5353, 4.75346
5.06, 6, -8.73016, 33.2903, 24.1473, -8.31741, -78.6325, 4.7797
5.064, 6, -8.78189, 33.3908, 24.0493, -8.35871, -78.7293, 4.80591
5.068, 6, -8.83351, 33.4913, 23.9508, -8.39983, -78.8259, 4.83209
5.072, 6, -8.88503, 33.5919, 23.8521, -8.44078, -78.9222, 4.85825
5.076, 6, -8.93645, 33.6925, 23.753, -8.48155, -79.0183, 4.88439
5.08, 6, -8.98776, 33.7932, 23.6537, -8.52215, -79.1141, 4.91051
5.084, 6, -9.03897, 33.8939, 23.5539, -8.56256, -79.2096, 4.9366
5.088, 6, -9.09008, 33.9947, 23.4539, -8.60281, -79.3049, 4.96267
5.092, 6, -9.14108, 34.0956, 23.3535, -8.64288, -79.3999, 4.98872
5.096, 6, -9.19198, 34.1964, 23.2529, -8.68277, -79.4947, 5.01475
5.1, 6, -9.24278, 34.2974, 23.1518, -8.72249, -79.5891, 5.04077
5.104, 6, -9.29347, 34.3984, 23.0505, -8.76204, -79.6833, 5.06677
5.108, 6, -9.34407, 34.4994, 22.9488, -8.80141, -79.7773, 5.09275
5.112, 6, -9.39456, 34.6005, 22.8468, -8.8406, -79.8709, 5.11872
5.116, 6, -9.44495, 34.7016, 22.7445, -8.87963, -79.9643, 5.14467
5.12, 6, -9.49523, 34.8028, 22.6419, -8.91848, -80.0575, 5.17061
5.124, 6, -9.54542, 34.904, 22.5389, -8.95716, -80.1503, 5.19654
5.128, 6, -9.5955, 35.0053, 22.4356, -8.99566, -80.2429, 5.22246
5.132, 6, -9.64548, 35.1066, 22.332, -9.034, -80.3353, 5.24836
5.136, 6, -9.69535, 35.208, 22.228, -9.07216, -80.4273, 5.27426
5.14, 6, -9.74513, 35.3095, 22.1237, -9.11015, -80.5191, 5.30015
5.144, 6, -9.7948, 35.4109, 22.0191, -9.14797, -80.6106, 5.32603
5.148, 6, -9.84437, 35.5125, 21.9141, -9.18561, -80.7018, 5.35191
5.152, 6, -9.89384, 35.6141, 21.8089, -9.22309, -80.7928, 5.37777
5.156, 6, -9.9432, 35.7157, 21.7033, -9.26039, -80.8835, 5.40363
5.16, 6, -9.99247, 35.8174, 21.5973, -9.29752, -80.9739, 5.42949
5.164, 6, -10.0416, 35.9191, 21.4911, -9.33448, -81.0641, 5.45534
5.168, 6, -10.0907, 36.0209, 21.3845, -9.37127, -81.154, 5.48119
5.172, 6, -10.1396, 36.1227, 21.2775, -9.40789, -81.2436, 5.50704
5.176, 6, -10.1885, 36.2246, 21.1703, -9.44434, -81.3329, 5.53288
5.18, 6, -10.2373, 36.3265, 21.0627, -9.48062, -81.422, 5.55872
5.184, 6, -10.2859, 36.4285, 20.9548, -9.51673, -81.5108, 5.58456
5.188, 6, -10.3345, 36.5305, 20.8465, -9.55267, -81.5993, 5.6104
5.192, 6, -10.3829, 36.6326, 20.738, -9.58844, -81.6876, 5.63624
5.196, 6, -10.4313, 36.7347, 20.6291, -9.62404, -81.7756, 5.66208
5.2, 6, -10.4795, 36.8369, 20.5198, -9.65947, -81.8633, 5.68792
5.204, 6, -10.5277, 36.9391, 20.4103, -9.69473, -81.9508, 5.71376
5.208, 6, -10.5757, 37.0414, 20.3004, -9.72983, -82.0379, 5.73961
5.212, 6, -10.6237, 37.1438, 20.1901, -9.76475, -82.1248, 5.76546
5.216, 6, -10.6715, 37.2462, 20.0796, -9.79951, -82.2115, 5.79132
5.22, 6, -10.7193, 37.3486, 19.9687, -9.8341, -82.2978, 5.81718
5.224, 6, -10.7669, 37.4511, 19.8575, -9.86853, -82.3839, 5.84304
5.228, 6, -10.8145, 37.5536, 19.7459, -9.90278, -82.4697, 5.86892
5.232, 6, -10.8619, 37.6562, 19.634, -9.93687, -82.5553, 5.8948
5.236, 6, -10.9093, 37.7589, 19.5218, -9.97079, -82.6406, 5.92068
5.24, 6, -10.9565, 37.8616, 19.4093, -10.0045, -82.7256, 5.94658
5.244, 6, -11.0037, 37.9643, 19.2964, -10.0381, -82.8103, 5.97248
5.248, 6, -11.0508, 38.0672, 19.1832, -10.0715, -82.8947, 5.9984
5.252, 6, -11.0977, 38.17, 19.0696, -10.1048, -82.9789, 6.02432
5.256, 6, -11.1446, 38.2729, 18.9557, -10.1379, -83.0628, 6.05026
5.26, 6, -11.1913, 38.3759, 18.8415, -10.1708, -83.1464, 6.07621
5.264, 6, -11.238, 38.4789, 18.7269, -10.2036, -83.2298, 6.10217
5.268, 6, -11.2845, 38.582, 18.612, -10.2361, -83.3129, 6.12814
5.272, 6, -11.331, 38.6851, 18.4968, -10.2686, -83.3957, 6.15413
5.276, 6, -11.3774, 38.7883, 18.3812, -10.3008, -83.4782, 6.18013
5.28, 6, -11.4236, 38.8915, 18.2653, -10.3329, -83.5605, 6.20615
5.284, 6, -11.4698, 38.9948, 18.1491, -10.3648, -83.6425, 6.23218
5.288, 6, -11.5159, 39.0982, 18.0325, -10.3966, -83.7242, 6.25823
5.292, 6, -11.5619, 39.2016, 17.9156, -10.4282, -83.8056, 6.2843
5.296, 6, -11.6077, 39.305, 17.7983, -10.4596, -83.8868, 6.31039
5.3, 6, -11.6535, 39.4086, 17.6807, -10.4909, -83.9676, 6.33649
5.304, 6, -11.6992, 39.5121, 17.5628, -10.522, -84.0482, 6.36262
5.308, 6, -11.7448, 39.6157, 17.4445, -10.5529, -84.1286, 6.38876
5.312, 6, -11.7902, 39.7194, 17.3259, -10.5837, -84.2086, 6.41493
5.316, 6, -11.8356, 39.8232, 17.207, -10.6143, -84.2884, 6.44112
5.32, 6, -11.8809, 39.9269, 17.0877, -10.6447, -84.3679, 6.46733
5.324, 6, -11.9261, 40.0308, 16.968, -10.675, -84.4471, 6.49356
5.328, 6, -11.9712, 40.1347, 16.848, -10.7051, -84.526, 6.51982
5.332, 6, -12.0162, 40.2386, 16.7277, -10.735, -84.6046, 6.5461
5.336, 6, -12.0611, 40.3427, 16.607, -10.7648, -84.683, 6.57241
5.34, 6, -12.1059, 40.4467, 16.486, -10.7944, -84.7611, 6.59874
5.344, 6, -12.1506, 40.5509, 16.3647, -10.8239, -84.8389, 6.6251
5.348, 6, -12.1952, 40.6551, 16.2429, -10.8532, -84.9164, 6.65149
5.352, 6, -12.2397, 40.7593, 16.1209, -10.8823, -84.9937, 6.67791
5.356, 6, -12.2841, 40.8636, 15.9985, -10.9112, -85.0706, 6.70435
5.36, 6, -12.3284, 40.968, 15.8757, -10.94, -85.1473, 6.73083
5.364, 6, -12.3726, 41.0724, 15.7526, -10.9686, -85.2237, 6.75733
5.368, 6, -12.4167, 41.1769, 15.6292, -10.9971, -85.2998, 6.78386
5.372, 6, -12.4606, 41.2813, 15.5054, -11.0254, -85.3756, 6.81043
5.376, 6, -12.5043, 41.3856, 15.3813, -11.0535, -85.4512, 6.83702
5.38, 6, -12.5476, 41.4897, 15.257, -11.0815, -85.5264, 6.86364
5.384, 6, -12.5907, 41.5935, 15.1324, -11.1093, -85.6013, 6.89028
5.388, 6, -12.6333, 41.6969, 15.0077, -11.1369, -85.6759, 6.91693
5.392, 6, -12.6755, 41.7999, 14.8828, -11.1643, -85.7502, 6.94358
5.396, 6, -12.7173, 41.9023, 14.758, -11.1915, -85.824, 6.97021
5.4, 6, -12.7585, 42.004, 14.6334, -11.2184, -85.8973, 6.9968
5.404, 6, -12.7989, 42.1046, 14.5092, -11.2451, -85.9701, 7.0233
5.408, 6, -12.8385, 42.204, 14.3857, -11.2715, -86.0422, 7.04968
5.412, 6, -12.8771, 42.3018, 14.2633, -11.2975, -86.1134, 7.07586
5.416, 6, -12.9145, 42.3976, 14.1423, -11.3231, -86.1837, 7.10177
5.42, 6, -12.9508, 42.4913, 14.0232, -11.3482, -86.2526, 7.12732
5.424, 6, -12.9859, 42.5826, 13.9064, -11.3726, -86.32, 7.15238
5.428, 6, -13.0197, 42.6712, 13.7925, -11.3964, -86.3854, 7.17685
5.432, 6, -13.0522, 42.7568, 13.682, -11.4192, -86.4487, 7.20058
5.436, 6, -13.0834, 42.8392, 13.5755, -11.4412, -86.5094, 7.22345
5.44, 6, -13.1132, 42.9179, 13.4735, -11.462, -86.5673, 7.24532
5.444, 6, -13.1416, 42.9928, 13.3766, -11.4817, -86.622, 7.26607
5.448, 6, -13.1687, 43.0638, 13.2851, -11.5001, -86.6732, 7.28558
5.452, 6, -13.1944, 43.1307, 13.1996, -11.5172, -86.7207, 7.30377
5.456, 6, -13.2188, 43.1933, 13.1203, -11.5328, -86.7645, 7.32054
5.46, 6, -13.2418, 43.2517, 13.0474, -11.5471, -86.8042, 7.33585
5.464, 6, -13.2634, 43.3056, 12.9811, -11.5599, -86.8399, 7.34967
5.468, 6, -13.2837, 43.3551, 12.9214, -11.5712, -86.8717, 7.36202
5.472, 6, -13.3026, 43.4002, 12.8682, -11.5812, -86.8997, 7.3729
5.476, 6, -13.32, 43.4408, 12.8212, -11.5899, -86.9239, 7.38239
5.48, 6, -13.336, 43.4773, 12.7803, -11.5973, -86.9447, 7.39055
5.484, 6, -13.3506, 43.5096, 12.7451, -11.6036, -86.9622, 7.39748
5.488, 6, -13.3638, 43.538, 12.715, -11.6088, -86.9769, 7.40328
5.492, 6, -13.3755, 43.5627, 12.6898, -11.6131, -86.9889, 7.40807
5.496, 6, -13.3859, 43.5838, 12.6689, -11.6166, -86.9986, 7.41196
5.5, 6, -13.3949, 43.6017, 12.6518, -11.6194, -87.0064, 7.41508
5.504, 6, -13.4028, 43.6168, 12.6381, -11.6215, -87.0124, 7.41753
5.508, 6, -13.4096, 43.6295, 12.6271, -11.6232, -87.0171, 7.41942
5.512, 6, -13.4156, 43.6402, 12.6186, -11.6245, -87.0206, 7.42085
5.516, 6, -13.4207, 43.6491, 12.612, -11.6254, -87.0231, 7.42192
5.52, 6, -13.4252, 43.6565, 12.607, -11.626, -87.025, 7.42268
5.524, 6, -13.4288, 43.6625, 12.6033, -11.6265, -87.0262, 7.42323
5.528, 7, -13.4318, 43.6672, 12.6006, -11.6268, -87.0271, 7.4236
5.532, 7, -13.4341, 43.6707, 12.5987, -11.627, -87.0277, 7.42386
5.536, 7, -13.4357, 43.6732, 12.5974, -11.6272, -87.0281, 7.42404
5.54, 7, -13.4369, 43.675, 12.5965, -11.6273, -87.0284, 7.42416
5.544, 7, -13.4377, 43.6762, 12.5959, -11.6274, -87.0286, 7.42424
5.548, 7, -13.4382, 43.677, 12.5955, -11.6274, -87.0287, 7.4243
5.552, 7, -13.4385, 43.6775, 12.5952, -11.6274, -87.0288, 7.42433
5.556, 7, -13.4388, 43.6779, 12.595, -11.6275, -87.0289, 7.42436
5.56, 7, -13.439, 43.6781, 12.5949, -11.6275, -87.0289, 7.42437
5.564, 7, -13.4391, 43.6783, 12.5948, -11.6275, -87.0289, 7.42439
5.568, 7, -13.4391, 43.6784, 12.5947, -11.6275, -87.0289, 7.42439
5.572, 7, -13.4392, 43.6785, 12.5947, -11.6275, -87.029, 7.4244
5.576, 7, -13.4392, 43.6785, 12.5947, -11.6275, -87.029, 7.4244
5.58, 7, -13.4392, 43.6786, 12.5946, -11.6275, -87.029, 7.42441
5.584, 7, -13.4393, 43.6786, 12.5946, -11.6275, -87.029, 7.42441
5.588, 7, -13.4393, 43.6786, 12.5946, -11.6275, -87.029, 7.42441
5.592, 7, -13.4393, 43.6786, 12.5946, -11.6275, -87.029, 7.42441
5.596, 7, -13.4393, 43.6786, 12.5946, -11.6275, -87.029, 7.42441
5.6, 7, -13.4393, 43.6786, 12.5946, -11.6275, -87.029, 7.42441
5.604, 7, -13.4393, 43.6786, 12.5946, -11.6275, -87.029, 7.42441
5.608, 7, -13.4393, 43.6787, 12.5946, -11.6275, -87.029, 7.42441
5.612, 7, -13.4393, 43.6787, 12.5946, -11.6275, -87.029, 7.42441
5.616, 7, -13.4393, 43.6787, 12.5946, -11.6275, -87.029, 7.42441
5.62, 7, -13.4393, 43.6787, 12.5946, -11.6275, -87.029, 7.42441
5.624, 7, -13.4393, 43.6787, 12.5946, -11.6275, -87.029, 7.42441
5.628, 7, -13.4393, 43.6787, 12.5946, -11.6275, -87.029, 7.42441
5.632, 7, -13.4393, 43.6787, 12.5946, -11.6275, -87.029, 7.42441
5.636, 7, -13.4393, 43.6787, 12.5946, -11.6275, -87.029, 7.42441
5.64, 7, -13.4393, 43.6787, 12.5946, -11.6275, -87.029, 7.42441
5.644, 7, -13.4393, 43.6787, 12.5946, -11.6275, -87.029, 7.42441
