hehonglu123/ABB_Primitive_Study/execution/movel_30_car/curve_exe_v300_z500.csv
timestamp, cmd_num, J1, J2, J3, J4, J5, J6
0, -1, -13.4393, 43.6787, 12.5946, -11.6275, -87.029, 7.42441
0.003, -1, -13.4393, 43.6787, 12.5946, -11.6275, -87.029, 7.42441
0.006, -1, -13.4393, 43.6787, 12.5946, -11.6275, -87.029, 7.42441
0.008, -1, -13.4393, 43.6787, 12.5946, -11.6275, -87.029, 7.42441
0.011, -1, -13.4393, 43.6787, 12.5946, -11.6275, -87.029, 7.42441
0.016, -1, -13.4393, 43.6787, 12.5946, -11.6275, -87.029, 7.42441
0.02, -1, -13.4393, 43.6787, 12.5946, -11.6275, -87.029, 7.42441
0.024, -1, -13.4393, 43.6787, 12.5946, -11.6275, -87.029, 7.42441
0.028, -1, -13.4393, 43.6787, 12.5946, -11.6275, -87.029, 7.42441
0.032, -1, -13.4393, 43.6787, 12.5946, -11.6275, -87.029, 7.42441
0.036, -1, -13.4392, 43.6786, 12.5946, -11.6275, -87.029, 7.42441
0.04, -1, -13.439, 43.6785, 12.5946, -11.6275, -87.029, 7.42441
0.044, -1, -13.4384, 43.678, 12.5947, -11.6275, -87.029, 7.42439
0.048, -1, -13.4372, 43.6772, 12.5949, -11.6274, -87.0289, 7.42434
0.052, -1, -13.4355, 43.6758, 12.5951, -11.6273, -87.0287, 7.42422
0.056, -1, -13.433, 43.6738, 12.5955, -11.627, -87.0284, 7.42397
0.06, -1, -13.4296, 43.671, 12.5961, -11.6264, -87.0277, 7.42349
0.064, -1, -13.4254, 43.6675, 12.5969, -11.6253, -87.0264, 7.42266
0.068, -1, -13.4203, 43.6631, 12.598, -11.6236, -87.0244, 7.42132
0.072, -1, -13.4141, 43.6579, 12.5994, -11.6209, -87.0213, 7.41928
0.076, -1, -13.4066, 43.6516, 12.6011, -11.617, -87.0167, 7.4163
0.08, -1, -13.3977, 43.6442, 12.6034, -11.6115, -87.0103, 7.41213
0.084, -1, -13.3869, 43.6352, 12.6062, -11.604, -87.0016, 7.40644
0.088, -1, -13.3743, 43.6247, 12.6097, -11.5941, -86.9899, 7.39892
0.092, -1, -13.3596, 43.6124, 12.6138, -11.5812, -86.9748, 7.38918
0.096, -1, -13.3427, 43.5982, 12.6186, -11.5648, -86.9557, 7.37685
0.1, -1, -13.3235, 43.582, 12.6243, -11.5444, -86.9319, 7.36155
0.104, -1, -13.3019, 43.5636, 12.6308, -11.5196, -86.9029, 7.3429
0.108, -1, -13.2776, 43.5427, 12.6382, -11.4899, -86.868, 7.32054
0.112, -1, -13.2505, 43.5193, 12.6467, -11.4547, -86.8269, 7.29416
0.116, -1, -13.2206, 43.4932, 12.6562, -11.4137, -86.7789, 7.26346
0.12, -1, -13.1877, 43.4644, 12.6669, -11.3667, -86.7238, 7.22818
0.124, -1, -13.1519, 43.4328, 12.6786, -11.3132, -86.6612, 7.18814
0.128, -1, -13.113, 43.3984, 12.6916, -11.2532, -86.591, 7.14319
0.131, -1, -13.071, 43.3611, 12.7056, -11.1865, -86.5129, 7.09326
0.136, -1, -13.026, 43.321, 12.7209, -11.1131, -86.4269, 7.03835
0.139, -1, -12.9779, 43.2779, 12.7373, -11.0331, -86.3333, 6.9785
0.144, -1, -12.9267, 43.232, 12.7548, -10.9467, -86.2321, 6.91384
0.148, -1, -12.8726, 43.1833, 12.7734, -10.854, -86.1236, 6.84454
0.152, -1, -12.8155, 43.132, 12.7932, -10.7555, -86.0082, 6.77084
0.156, -1, -12.7557, 43.0781, 12.8139, -10.6514, -85.8863, 6.69301
0.16, -1, -12.6932, 43.0219, 12.8355, -10.5422, -85.7585, 6.61137
0.164, -1, -12.6282, 42.9633, 12.8581, -10.4284, -85.6253, 6.52627
0.168, -1, -12.5607, 42.9025, 12.8815, -10.3105, -85.4872, 6.43809
0.172, -1, -12.4909, 42.8396, 12.9056, -10.189, -85.3449, 6.34721
0.176, -1, -12.4189, 42.7749, 12.9305, -10.0644, -85.1989, 6.25399
0.18, -1, -12.345, 42.7085, 12.956, -9.93711, -85.0499, 6.15879
0.184, -1, -12.2694, 42.6406, 12.9821, -9.80765, -84.8983, 6.06194
0.188, -1, -12.1925, 42.5714, 13.0086, -9.6764, -84.7446, 5.96375
0.192, -1, -12.1142, 42.5011, 13.0356, -9.54373, -84.5892, 5.86449
0.196, -1, -12.0348, 42.4297, 13.0629, -9.40995, -84.4326, 5.76439
0.2, -1, -11.9542, 42.3573, 13.0906, -9.27534, -84.2749, 5.66366
0.204, -1, -11.8724, 42.2841, 13.1185, -9.14011, -84.1166, 5.56246
0.208, -1, -11.7897, 42.21, 13.1466, -9.00443, -83.9577, 5.46092
0.212, -1, -11.7061, 42.1354, 13.1749, -8.86843, -83.7985, 5.35913
0.216, -1, -11.6218, 42.0602, 13.2033, -8.7322, -83.6389, 5.25717
0.22, -1, -11.5371, 41.9847, 13.2318, -8.5958, -83.4792, 5.15507
0.224, -1, -11.452, 41.909, 13.2603, -8.45928, -83.3194, 5.05288
0.228, -1, -11.3667, 41.8332, 13.2889, -8.32266, -83.1594, 4.95062
0.232, -1, -11.2813, 41.7572, 13.3176, -8.18597, -82.9993, 4.8483
0.236, -1, -11.1957, 41.6811, 13.3462, -8.04922, -82.8392, 4.74595
0.24, -1, -11.11, 41.605, 13.3749, -7.91243, -82.679, 4.64355
0.244, -1, -11.0243, 41.5288, 13.4035, -7.77561, -82.5188, 4.54114
0.248, -1, -10.9386, 41.4526, 13.4322, -7.63876, -82.3586, 4.4387
0.252, -1, -10.8528, 41.3764, 13.4609, -7.50189, -82.1983, 4.33625
0.256, -1, -10.767, 41.3002, 13.4896, -7.36501, -82.0381, 4.2338
0.26, -1, -10.6811, 41.2239, 13.5183, -7.22813, -81.8778, 4.13133
0.264, -1, -10.5953, 41.1477, 13.547, -7.09125, -81.7175, 4.02887
0.268, -1, -10.5094, 41.0714, 13.5757, -6.95436, -81.5572, 3.92641
0.272, -1, -10.4236, 40.9952, 13.6044, -6.81749, -81.397, 3.82396
0.276, -1, -10.3378, 40.9189, 13.6331, -6.68063, -81.2367, 3.72151
0.28, -1, -10.252, 40.8427, 13.6618, -6.54379, -81.0765, 3.61908
0.284, -1, -10.1661, 40.7665, 13.6904, -6.40697, -80.9163, 3.51666
0.288, -1, -10.0803, 40.6903, 13.7191, -6.27017, -80.7561, 3.41427
0.292, -1, -9.99456, 40.6141, 13.7478, -6.13341, -80.596, 3.31189
0.296, -1, -9.9088, 40.538, 13.7764, -5.99668, -80.4359, 3.20955
0.3, -1, -9.82306, 40.4618, 13.8051, -5.85999, -80.2758, 3.10723
0.304, -1, -9.73734, 40.3857, 13.8337, -5.72334, -80.1158, 3.00494
0.308, -1, -9.65166, 40.3096, 13.8624, -5.58674, -79.9558, 2.90269
0.312, -1, -9.566, 40.2336, 13.891, -5.45019, -79.796, 2.80048
0.316, -1, -9.48038, 40.1575, 13.9196, -5.31369, -79.6361, 2.69831
0.32, -1, -9.3948, 40.0815, 13.9482, -5.17726, -79.4764, 2.59618
0.324, -1, -9.30925, 40.0055, 13.9768, -5.04089, -79.3167, 2.4941
0.328, -1, -9.22375, 39.9296, 14.0054, -4.90458, -79.1571, 2.39207
0.332, -1, -9.13829, 39.8537, 14.0339, -4.76835, -78.9976, 2.2901
0.336, -1, -9.05287, 39.7778, 14.0625, -4.63219, -78.8382, 2.18818
0.34, -1, -8.9675, 39.702, 14.091, -4.49612, -78.6788, 2.08632
0.344, -1, -8.88219, 39.6262, 14.1195, -4.36012, -78.5196, 1.98452
0.348, -1, -8.79692, 39.5505, 14.148, -4.22421, -78.3604, 1.88279
0.352, -1, -8.71172, 39.4748, 14.1765, -4.0884, -78.2014, 1.78113
0.356, -1, -8.62657, 39.3992, 14.2049, -3.95267, -78.0425, 1.67953
0.36, -1, -8.54148, 39.3236, 14.2334, -3.81705, -77.8837, 1.57801
0.364, -1, -8.45646, 39.2481, 14.2618, -3.68152, -77.725, 1.47657
0.368, -1, -8.3715, 39.1727, 14.2902, -3.54611, -77.5664, 1.3752
0.372, -1, -8.28661, 39.0973, 14.3185, -3.4108, -77.408, 1.27392
0.376, -1, -8.20179, 39.0219, 14.3469, -3.2756, -77.2497, 1.17272
0.38, -1, -8.11704, 38.9467, 14.3752, -3.14052, -77.0915, 1.07161
0.384, -1, -8.03237, 38.8715, 14.4035, -3.00557, -76.9335, 0.970588
0.388, -1, -7.94777, 38.7963, 14.4318, -2.87073, -76.7756, 0.869659
0.392, -1, -7.86325, 38.7212, 14.46, -2.73602, -76.6179, 0.768825
0.396, -1, -7.77881, 38.6463, 14.4882, -2.60145, -76.4603, 0.668089
0.4, -1, -7.69446, 38.5713, 14.5164, -2.467, -76.3029, 0.567454
0.404, -1, -7.61019, 38.4965, 14.5446, -2.3327, -76.1456, 0.466921
0.408, -1, -7.526, 38.4217, 14.5727, -2.19854, -75.9885, 0.366494
0.412, -1, -7.44191, 38.347, 14.6008, -2.06452, -75.8316, 0.266176
0.416, -1, -7.35791, 38.2724, 14.6288, -1.93064, -75.6748, 0.165968
0.42, -1, -7.274, 38.1979, 14.6569, -1.79692, -75.5183, 0.0658724
0.424, -1, -7.19019, 38.1235, 14.6849, -1.66336, -75.3619, -0.0341072
0.428, -1, -7.10648, 38.0491, 14.7128, -1.52995, -75.2057, -0.133969
0.432, -1, -7.02287, 37.9748, 14.7408, -1.3967, -75.0496, -0.233711
0.436, -1, -6.93935, 37.9007, 14.7687, -1.26362, -74.8938, -0.33333
0.44, -1, -6.85595, 37.8266, 14.7965, -1.1307, -74.7382, -0.432824
0.444, -1, -6.77264, 37.7526, 14.8244, -0.99795, -74.5827, -0.532191
0.448, -1, -6.68945, 37.6787, 14.8522, -0.865375, -74.4275, -0.631429
0.452, -1, -6.60636, 37.6049, 14.8799, -0.732975, -74.2725, -0.730535
0.456, -1, -6.52339, 37.5312, 14.9077, -0.600755, -74.1176, -0.829507
0.46, -1, -6.44053, 37.4576, 14.9353, -0.468716, -73.963, -0.928344
0.464, -1, -6.35778, 37.3842, 14.963, -0.336861, -73.8086, -1.02704
0.468, -1, -6.27515, 37.3108, 14.9906, -0.205193, -73.6545, -1.1256
0.472, -1, -6.19264, 37.2375, 15.0181, -0.0737153, -73.5005, -1.22402
0.476, -1, -6.11024, 37.1643, 15.0457, 0.0575699, -73.3468, -1.32229
0.48, -1, -6.02797, 37.0912, 15.0732, 0.18866, -73.1933, -1.42042
0.484, -1, -5.94582, 37.0183, 15.1006, 0.319552, -73.04, -1.51839
0.488, -1, -5.8638, 36.9454, 15.128, 0.450244, -72.887, -1.61622
0.492, -1, -5.7819, 36.8727, 15.1554, 0.580734, -72.7342, -1.7139
0.496, -1, -5.70012, 36.8001, 15.1827, 0.711018, -72.5817, -1.81142
0.5, -1, -5.61848, 36.7276, 15.2099, 0.841096, -72.4294, -1.90879
0.504, -1, -5.53697, 36.6552, 15.2372, 0.970964, -72.2773, -2.006
0.508, -1, -5.45558, 36.5829, 15.2644, 1.10062, -72.1255, -2.10306
0.512, -1, -5.37433, 36.5108, 15.2915, 1.23006, -71.9739, -2.19995
0.516, -1, -5.29321, 36.4387, 15.3186, 1.35929, -71.8226, -2.29668
0.52, -1, -5.21223, 36.3668, 15.3456, 1.4883, -71.6715, -2.39325
0.524, -1, -5.13138, 36.295, 15.3726, 1.6171, -71.5207, -2.48966
0.528, -1, -5.05067, 36.2233, 15.3996, 1.74567, -71.3702, -2.5859
0.532, -1, -4.97009, 36.1518, 15.4265, 1.87402, -71.2199, -2.68198
0.536, -1, -4.88966, 36.0803, 15.4534, 2.00215, -71.0698, -2.77789
0.54, -1, -4.80936, 36.009, 15.4802, 2.13005, -70.9201, -2.87363
0.544, -1, -4.7292, 35.9378, 15.507, 2.25773, -70.7706, -2.9692
0.548, -1, -4.64919, 35.8668, 15.5337, 2.38518, -70.6213, -3.0646
0.552, -1, -4.56931, 35.7959, 15.5604, 2.51241, -70.4724, -3.15984
0.556, -1, -4.48958, 35.725, 15.587, 2.6394, -70.3237, -3.2549
0.56, -1, -4.41, 35.6544, 15.6136, 2.76617, -70.1752, -3.34979
0.564, -1, -4.33056, 35.5838, 15.6401, 2.8927, -70.0271, -3.44451
0.568, -1, -4.25126, 35.5134, 15.6666, 3.01901, -69.8792, -3.53905
0.572, -1, -4.17211, 35.4431, 15.693, 3.14508, -69.7316, -3.63342
0.576, -1, -4.0931, 35.373, 15.7194, 3.27092, -69.5842, -3.72761
0.58, -1, -4.01424, 35.3029, 15.7458, 3.39652, -69.4372, -3.82163
0.584, -1, -3.93553, 35.233, 15.772, 3.52189, -69.2904, -3.91547
0.588, -1, -3.85696, 35.1633, 15.7983, 3.64702, -69.1438, -4.00914
0.592, -1, -3.77855, 35.0936, 15.8245, 3.77191, -68.9976, -4.10263
0.596, -1, -3.70028, 35.0241, 15.8506, 3.89657, -68.8516, -4.19594
0.6, -1, -3.62216, 34.9548, 15.8767, 4.02099, -68.7059, -4.28908
0.604, -1, -3.54419, 34.8855, 15.9027, 4.14517, -68.5605, -4.38203
0.608, -1, -3.46637, 34.8164, 15.9287, 4.26911, -68.4154, -4.47481
0.612, -1, -3.3887, 34.7474, 15.9547, 4.39281, -68.2706, -4.5674
0.616, -1, -3.31118, 34.6786, 15.9806, 4.51628, -68.126, -4.65982
0.62, -1, -3.23382, 34.6099, 16.0064, 4.63949, -67.9817, -4.75205
0.624, -1, -3.1566, 34.5413, 16.0322, 4.76247, -67.8377, -4.84411
0.628, -1, -3.07954, 34.4729, 16.0579, 4.88521, -67.694, -4.93598
0.632, -1, -3.00262, 34.4046, 16.0836, 5.0077, -67.5506, -5.02767
0.636, -1, -2.92586, 34.3364, 16.1092, 5.12995, -67.4074, -5.11918
0.64, -1, -2.84926, 34.2684, 16.1348, 5.25195, -67.2646, -5.2105
0.644, -1, -2.7728, 34.2005, 16.1604, 5.37371, -67.122, -5.30165
0.648, -1, -2.6965, 34.1328, 16.1858, 5.49523, -66.9797, -5.39261
0.652, -1, -2.62035, 34.0652, 16.2113, 5.6165, -66.8377, -5.48338
0.656, -1, -2.54436, 33.9977, 16.2366, 5.73753, -66.696, -5.57398
0.66, -1, -2.46852, 33.9303, 16.262, 5.85831, -66.5546, -5.66439
0.664, -1, -2.39283, 33.8631, 16.2872, 5.97884, -66.4135, -5.75461
0.668, -1, -2.3173, 33.7961, 16.3125, 6.09913, -66.2726, -5.84465
0.672, -1, -2.24192, 33.7291, 16.3376, 6.21917, -66.1321, -5.93451
0.676, -1, -2.1667, 33.6623, 16.3628, 6.33897, -65.9918, -6.02418
0.68, -1, -2.09163, 33.5957, 16.3878, 6.45851, -65.8518, -6.11367
0.684, -1, -2.01672, 33.5292, 16.4129, 6.57781, -65.7121, -6.20297
0.688, -1, -1.94196, 33.4628, 16.4378, 6.69687, -65.5727, -6.29208
0.692, -1, -1.86736, 33.3965, 16.4627, 6.81567, -65.4336, -6.38101
0.696, -1, -1.79291, 33.3304, 16.4876, 6.93423, -65.2948, -6.46976
0.7, -1, -1.71862, 33.2645, 16.5124, 7.05254, -65.1562, -6.55832
0.704, -1, -1.64448, 33.1986, 16.5372, 7.1706, -65.018, -6.64669
0.708, -1, -1.5705, 33.1329, 16.5619, 7.28841, -64.8801, -6.73488
0.712, -1, -1.49668, 33.0674, 16.5865, 7.40597, -64.7424, -6.82288
0.716, -1, -1.42301, 33.002, 16.6111, 7.52329, -64.605, -6.9107
0.72, -1, -1.34949, 32.9367, 16.6357, 7.64036, -64.468, -6.99833
0.724, -1, -1.27614, 32.8715, 16.6602, 7.75718, -64.3312, -7.08577
0.728, -1, -1.20293, 32.8065, 16.6846, 7.87375, -64.1947, -7.17303
0.732, -1, -1.12989, 32.7417, 16.709, 7.99007, -64.0585, -7.2601
0.736, -1, -1.057, 32.677, 16.7333, 8.10615, -63.9226, -7.34699
0.74, -1, -0.984259, 32.6124, 16.7576, 8.22197, -63.7869, -7.43369
0.744, -1, -0.911678, 32.5479, 16.7819, 8.33755, -63.6516, -7.52021
0.748, -1, -0.839252, 32.4836, 16.8061, 8.45288, -63.5166, -7.60653
0.752, -1, -0.766981, 32.4194, 16.8302, 8.56796, -63.3818, -7.69268
0.756, -1, -0.694864, 32.3554, 16.8543, 8.6828, -63.2474, -7.77864
0.76, -1, -0.622901, 32.2915, 16.8783, 8.79738, -63.1132, -7.86441
0.764, -1, -0.551092, 32.2277, 16.9023, 8.91172, -62.9793, -7.95
0.768, -1, -0.479437, 32.1641, 16.9262, 9.02582, -62.8457, -8.0354
0.772, -1, -0.407935, 32.1006, 16.9501, 9.13966, -62.7124, -8.12062
0.776, -1, -0.336586, 32.0373, 16.9739, 9.25326, -62.5794, -8.20566
0.78, -1, -0.26539, 31.9741, 16.9977, 9.36662, -62.4467, -8.29051
0.784, -1, -0.194346, 31.911, 17.0214, 9.47973, -62.3142, -8.37518
0.788, -1, -0.123455, 31.848, 17.0451, 9.5926, -62.182, -8.45966
0.792, -1, -0.0527154, 31.7852, 17.0687, 9.70522, -62.0502, -8.54397
0.796, -1, 0.0178725, 31.7226, 17.0923, 9.81761, -61.9186, -8.62809
0.8, -1, 0.0883091, 31.66, 17.1158, 9.92975, -61.7873, -8.71204
0.804, -1, 0.158595, 31.5976, 17.1393, 10.0417, -61.6562, -8.7958
0.808, -1, 0.22873, 31.5353, 17.1627, 10.1533, -61.5255, -8.87938
0.812, -1, 0.298716, 31.4732, 17.186, 10.2647, -61.395, -8.96279
0.816, -1, 0.368552, 31.4112, 17.2094, 10.3759, -61.2648, -9.04602
0.82, -1, 0.438239, 31.3493, 17.2326, 10.4869, -61.1349, -9.12907
0.824, -1, 0.507778, 31.2876, 17.2559, 10.5976, -61.0053, -9.21194
0.828, -1, 0.577169, 31.226, 17.279, 10.7081, -60.8759, -9.29464
0.832, -1, 0.646413, 31.1645, 17.3021, 10.8183, -60.7468, -9.37716
0.836, -1, 0.71551, 31.1031, 17.3252, 10.9283, -60.618, -9.45951
0.84, -1, 0.78446, 31.0419, 17.3482, 11.0381, -60.4895, -9.54168
0.844, -1, 0.853265, 30.9808, 17.3712, 11.1476, -60.3612, -9.62368
0.848, -1, 0.921925, 30.9199, 17.3941, 11.2569, -60.2332, -9.7055
0.852, -1, 0.990441, 30.859, 17.417, 11.366, -60.1055, -9.78716
0.856, -1, 1.05881, 30.7983, 17.4398, 11.4749, -59.9781, -9.86864
0.86, -1, 1.12704, 30.7378, 17.4626, 11.5835, -59.8509, -9.94995
0.864, -1, 1.19512, 30.6773, 17.4854, 11.6919, -59.7239, -10.0311
0.868, -1, 1.26307, 30.617, 17.508, 11.8001, -59.5973, -10.1121
0.872, -1, 1.33087, 30.5568, 17.5307, 11.908, -59.4709, -10.1929
0.876, -1, 1.39853, 30.4967, 17.5533, 12.0157, -59.3448, -10.2735
0.88, -1, 1.46604, 30.4368, 17.5758, 12.1232, -59.2189, -10.354
0.884, -1, 1.53342, 30.377, 17.5983, 12.2305, -59.0933, -10.4343
0.888, -1, 1.60066, 30.3173, 17.6208, 12.3375, -58.9679, -10.5144
0.892, -1, 1.66775, 30.2577, 17.6432, 12.4444, -58.8429, -10.5943
0.896, -1, 1.73471, 30.1982, 17.6655, 12.551, -58.718, -10.6741
0.9, -1, 1.80153, 30.1389, 17.6878, 12.6574, -58.5935, -10.7538
0.904, -1, 1.86821, 30.0797, 17.7101, 12.7635, -58.4692, -10.8332
0.908, -1, 1.93476, 30.0206, 17.7323, 12.8695, -58.3451, -10.9125
0.912, -1, 2.00117, 29.9617, 17.7545, 12.9752, -58.2213, -10.9917
0.916, -1, 2.06744, 29.9028, 17.7766, 13.0807, -58.0978, -11.0707
0.92, -1, 2.13357, 29.8441, 17.7987, 13.186, -57.9745, -11.1495
0.924, -1, 2.19957, 29.7855, 17.8207, 13.2911, -57.8514, -11.2281
0.928, -1, 2.26543, 29.727, 17.8427, 13.3959, -57.7287, -11.3066
0.932, -1, 2.33116, 29.6687, 17.8647, 13.5006, -57.6061, -11.385
0.936, -1, 2.39676, 29.6104, 17.8866, 13.605, -57.4838, -11.4631
0.94, -1, 2.46222, 29.5523, 17.9084, 13.7092, -57.3618, -11.5412
0.944, -1, 2.52755, 29.4943, 17.9303, 13.8133, -57.24, -11.619
0.948, -1, 2.59275, 29.4364, 17.952, 13.9171, -57.1185, -11.6967
0.952, -1, 2.65781, 29.3787, 17.9738, 14.0206, -56.9972, -11.7743
0.956, -1, 2.72274, 29.321, 17.9954, 14.124, -56.8761, -11.8516
0.96, -1, 2.78755, 29.2635, 18.0171, 14.2272, -56.7553, -11.9289
0.964, -1, 2.85222, 29.2061, 18.0387, 14.3302, -56.6348, -12.0059
0.968, -1, 2.91676, 29.1488, 18.0602, 14.4329, -56.5144, -12.0829
0.972, -1, 2.98117, 29.0916, 18.0817, 14.5355, -56.3944, -12.1596
0.976, -1, 3.04545, 29.0345, 18.1032, 14.6378, -56.2745, -12.2362
0.98, -1, 3.10961, 28.9775, 18.1246, 14.7399, -56.1549, -12.3127
0.984, -1, 3.17363, 28.9207, 18.146, 14.8419, -56.0356, -12.389
0.988, -1, 3.23753, 28.864, 18.1673, 14.9436, -55.9165, -12.4651
0.992, -1, 3.3013, 28.8074, 18.1886, 15.0451, -55.7976, -12.5411
0.996, -1, 3.36494, 28.7508, 18.2099, 15.1465, -55.6789, -12.617
1, -1, 3.42846, 28.6945, 18.2311, 15.2476, -55.5605, -12.6927
1.004, -1, 3.49185, 28.6382, 18.2523, 15.3485, -55.4423, -12.7682
1.008, -1, 3.55512, 28.582, 18.2734, 15.4492, -55.3244, -12.8436
1.012, -1, 3.61826, 28.5259, 18.2945, 15.5498, -55.2067, -12.9189
1.016, -1, 3.68127, 28.47, 18.3155, 15.6501, -55.0892, -12.994
1.02, -1, 3.74416, 28.4142, 18.3365, 15.7502, -54.972, -13.0689
1.024, -1, 3.80693, 28.3584, 18.3575, 15.8502, -54.855, -13.1437
1.027, -1, 3.86958, 28.3028, 18.3784, 15.9499, -54.7382, -13.2184
1.032, -1, 3.9321, 28.2473, 18.3993, 16.0494, -54.6216, -13.2929
1.036, -1, 3.9945, 28.1919, 18.4201, 16.1488, -54.5053, -13.3673
1.04, -1, 4.05678, 28.1366, 18.4409, 16.2479, -54.3892, -13.4415
1.044, -1, 4.11893, 28.0814, 18.4616, 16.3469, -54.2733, -13.5156
1.048, -1, 4.18097, 28.0263, 18.4824, 16.4457, -54.1577, -13.5895
1.052, -1, 4.24289, 27.9714, 18.503, 16.5442, -54.0422, -13.6633
1.055, -1, 4.30468, 27.9165, 18.5237, 16.6426, -53.927, -13.7369
1.06, -1, 4.36636, 27.8617, 18.5443, 16.7408, -53.8121, -13.8104
1.064, -1, 4.42792, 27.8071, 18.5648, 16.8388, -53.6973, -13.8838
1.068, -1, 4.48936, 27.7525, 18.5853, 16.9366, -53.5828, -13.957
1.072, -1, 4.55068, 27.6981, 18.6058, 17.0343, -53.4685, -14.0301
1.076, -1, 4.61188, 27.6438, 18.6262, 17.1317, -53.3544, -14.103
1.08, -1, 4.67297, 27.5895, 18.6466, 17.229, -53.2405, -14.1758
1.084, -1, 4.73394, 27.5354, 18.667, 17.326, -53.1268, -14.2485
1.088, -1, 4.7948, 27.4814, 18.6873, 17.4229, -53.0134, -14.321
1.091, -1, 4.85554, 27.4274, 18.7076, 17.5196, -52.9002, -14.3934
1.096, -1, 4.91617, 27.3736, 18.7278, 17.6161, -52.7871, -14.4656
1.1, -1, 4.97668, 27.3199, 18.7481, 17.7125, -52.6743, -14.5378
1.104, -1, 5.03708, 27.2663, 18.7682, 17.8086, -52.5618, -14.6097
1.108, -1, 5.09737, 27.2127, 18.7883, 17.9046, -52.4494, -14.6816
1.112, -1, 5.15754, 27.1593, 18.8084, 18.0004, -52.3372, -14.7533
1.116, -1, 5.2176, 27.106, 18.8285, 18.096, -52.2253, -14.8249
1.119, -1, 5.27755, 27.0528, 18.8485, 18.1915, -52.1135, -14.8963
1.124, -1, 5.33739, 26.9996, 18.8685, 18.2867, -52.0019, -14.9676
1.128, -1, 5.39712, 26.9466, 18.8884, 18.3818, -51.8906, -15.0388
1.132, -1, 5.45673, 26.8937, 18.9083, 18.4767, -51.7795, -15.1098
1.136, -1, 5.51624, 26.8408, 18.9282, 18.5715, -51.6685, -15.1807
1.14, -1, 5.57564, 26.7881, 18.948, 18.666, -51.5578, -15.2515
1.144, -1, 5.63493, 26.7355, 18.9678, 18.7604, -51.4473, -15.3222
1.147, -1, 5.69412, 26.6829, 18.9876, 18.8547, -51.337, -15.3927
1.152, -1, 5.75319, 26.6305, 19.0073, 18.9487, -51.2268, -15.4631
1.156, -1, 5.81216, 26.5781, 19.027, 19.0426, -51.1169, -15.5334
1.16, -1, 5.87103, 26.5259, 19.0467, 19.1363, -51.0072, -15.6035
1.164, -1, 5.92979, 26.4737, 19.0663, 19.2298, -50.8976, -15.6736
1.168, -1, 5.98844, 26.4216, 19.0859, 19.3232, -50.7883, -15.7435
1.172, -1, 6.04699, 26.3696, 19.1054, 19.4164, -50.6792, -15.8132
1.175, -1, 6.10543, 26.3177, 19.1249, 19.5095, -50.5702, -15.8829
1.18, -1, 6.16377, 26.266, 19.1444, 19.6024, -50.4614, -15.9524
1.184, -1, 6.22201, 26.2142, 19.1639, 19.6951, -50.3529, -16.0218
1.188, -1, 6.28015, 26.1626, 19.1833, 19.7876, -50.2445, -16.0911
1.192, -1, 6.33818, 26.1111, 19.2027, 19.88, -50.1363, -16.1603
1.196, -1, 6.39611, 26.0597, 19.222, 19.9723, -50.0283, -16.2293
1.2, -1, 6.45394, 26.0083, 19.2413, 20.0643, -49.9205, -16.2982
1.204, -1, 6.51167, 25.9571, 19.2606, 20.1562, -49.8129, -16.367
1.208, -1, 6.5693, 25.9059, 19.2798, 20.248, -49.7055, -16.4357
1.212, -1, 6.62683, 25.8548, 19.299, 20.3396, -49.5982, -16.5042
1.216, -1, 6.68426, 25.8038, 19.3182, 20.431, -49.4912, -16.5727
1.22, -1, 6.74159, 25.7529, 19.3374, 20.5223, -49.3843, -16.641
1.224, -1, 6.79882, 25.7021, 19.3565, 20.6134, -49.2776, -16.7092
1.228, -1, 6.85596, 25.6514, 19.3756, 20.7044, -49.1711, -16.7773
1.232, -1, 6.91299, 25.6008, 19.3946, 20.7952, -49.0648, -16.8453
1.236, -1, 6.96993, 25.5502, 19.4136, 20.8858, -48.9586, -16.9131
1.24, -1, 7.02678, 25.4997, 19.4326, 20.9763, -48.8526, -16.9809
1.244, -1, 7.08352, 25.4494, 19.4515, 21.0667, -48.7469, -17.0485
1.248, -1, 7.14018, 25.3991, 19.4705, 21.1569, -48.6413, -17.116
1.252, -1, 7.19673, 25.3488, 19.4893, 21.2469, -48.5358, -17.1834
1.256, -1, 7.25319, 25.2987, 19.5082, 21.3368, -48.4306, -17.2507
1.26, -1, 7.30956, 25.2487, 19.527, 21.4266, -48.3255, -17.3179
1.264, -1, 7.36583, 25.1987, 19.5458, 21.5161, -48.2206, -17.385
1.267, -1, 7.42201, 25.1488, 19.5646, 21.6056, -48.1158, -17.4519
1.272, -1, 7.4781, 25.099, 19.5833, 21.6949, -48.0113, -17.5188
1.276, -1, 7.53409, 25.0493, 19.602, 21.784, -47.9069, -17.5855
1.28, -1, 7.58999, 24.9997, 19.6207, 21.873, -47.8027, -17.6521
1.284, -1, 7.6458, 24.9501, 19.6393, 21.9619, -47.6986, -17.7186
1.288, -1, 7.70152, 24.9007, 19.6579, 22.0506, -47.5948, -17.785
1.292, -1, 7.75715, 24.8513, 19.6765, 22.1392, -47.4911, -17.8513
1.295, -1, 7.81268, 24.802, 19.695, 22.2276, -47.3875, -17.9175
1.3, -1, 7.86813, 24.7528, 19.7135, 22.3159, -47.2842, -17.9836
1.304, -1, 7.92348, 24.7036, 19.732, 22.404, -47.181, -18.0496
1.308, -1, 7.97875, 24.6545, 19.7505, 22.492, -47.0779, -18.1154
1.312, -1, 8.03393, 24.6055, 19.7689, 22.5798, -46.9751, -18.1812
1.316, -1, 8.08901, 24.5566, 19.7873, 22.6675, -46.8724, -18.2468
1.32, -1, 8.14401, 24.5078, 19.8057, 22.7551, -46.7699, -18.3124
1.324, -1, 8.19893, 24.4591, 19.824, 22.8425, -46.6675, -18.3778
1.328, -1, 8.25375, 24.4104, 19.8423, 22.9298, -46.5653, -18.4432
1.332, -1, 8.30849, 24.3618, 19.8606, 23.017, -46.4632, -18.5084
1.336, -1, 8.36314, 24.3133, 19.8788, 23.104, -46.3614, -18.5735
1.34, -1, 8.4177, 24.2648, 19.8971, 23.1909, -46.2596, -18.6386
1.344, -1, 8.47218, 24.2165, 19.9153, 23.2776, -46.1581, -18.7035
1.348, -1, 8.52657, 24.1682, 19.9334, 23.3642, -46.0567, -18.7683
1.352, -1, 8.58088, 24.1199, 19.9515, 23.4507, -45.9554, -18.833
1.356, -1, 8.6351, 24.0718, 19.9697, 23.537, -45.8543, -18.8976
1.36, -1, 8.68923, 24.0237, 19.9877, 23.6232, -45.7534, -18.9622
1.364, -1, 8.74328, 23.9757, 20.0058, 23.7092, -45.6526, -19.0266
1.368, -1, 8.79725, 23.9278, 20.0238, 23.7952, -45.552, -19.0909
1.372, -1, 8.85114, 23.88, 20.0418, 23.881, -45.4516, -19.1551
1.376, -1, 8.90494, 23.8322, 20.0598, 23.9666, -45.3513, -19.2192
1.38, -1, 8.95866, 23.7845, 20.0777, 24.0521, -45.2511, -19.2833
1.384, -1, 9.01229, 23.7369, 20.0956, 24.1375, -45.1511, -19.3472
1.388, -1, 9.06584, 23.6894, 20.1135, 24.2228, -45.0513, -19.411
1.392, -1, 9.11932, 23.6419, 20.1314, 24.3079, -44.9516, -19.4747
1.396, -1, 9.1727, 23.5945, 20.1492, 24.393, -44.8521, -19.5384
1.4, -1, 9.22601, 23.5472, 20.167, 24.4778, -44.7527, -19.6019
1.404, -1, 9.27924, 23.4999, 20.1848, 24.5626, -44.6535, -19.6653
1.408, -1, 9.33239, 23.4527, 20.2025, 24.6472, -44.5544, -19.7287
1.412, -1, 9.38546, 23.4056, 20.2202, 24.7317, -44.4554, -19.7919
1.416, -1, 9.43844, 23.3585, 20.2379, 24.8161, -44.3567, -19.8551
1.42, -1, 9.49135, 23.3116, 20.2556, 24.9003, -44.258, -19.9181
1.424, -1, 9.54418, 23.2647, 20.2732, 24.9844, -44.1595, -19.9811
1.428, -1, 9.59693, 23.2178, 20.2908, 25.0684, -44.0612, -20.044
1.432, -1, 9.6496, 23.1711, 20.3084, 25.1523, -43.963, -20.1067
1.436, -1, 9.7022, 23.1244, 20.326, 25.236, -43.865, -20.1694
1.44, -1, 9.75472, 23.0777, 20.3435, 25.3196, -43.767, -20.232
1.444, -1, 9.80716, 23.0312, 20.361, 25.4031, -43.6693, -20.2945
1.448, -1, 9.85952, 22.9847, 20.3785, 25.4865, -43.5717, -20.3569
1.452, -1, 9.91181, 22.9383, 20.396, 25.5697, -43.4742, -20.4192
1.456, -1, 9.96403, 22.8919, 20.4134, 25.6528, -43.3769, -20.4814
1.46, -1, 10.0162, 22.8456, 20.4308, 25.7358, -43.2797, -20.5436
1.464, -1, 10.0682, 22.7994, 20.4482, 25.8187, -43.1826, -20.6056
1.468, -1, 10.1202, 22.7533, 20.4656, 25.9015, -43.0857, -20.6676
1.472, -1, 10.1721, 22.7072, 20.4829, 25.9841, -42.989, -20.7294
1.476, -1, 10.224, 22.6612, 20.5002, 26.0666, -42.8923, -20.7912
1.48, -1, 10.2757, 22.6152, 20.5175, 26.149, -42.7958, -20.8529
1.484, -1, 10.3274, 22.5693, 20.5348, 26.2313, -42.6995, -20.9145
1.488, -1, 10.379, 22.5235, 20.552, 26.3135, -42.6033, -20.976
1.492, -1, 10.4306, 22.4777, 20.5692, 26.3956, -42.5072, -21.0374
1.496, -1, 10.482, 22.432, 20.5864, 26.4775, -42.4113, -21.0987
1.5, -1, 10.5334, 22.3864, 20.6035, 26.5593, -42.3154, -21.16
1.504, -1, 10.5848, 22.3408, 20.6207, 26.641, -42.2198, -21.2212
1.508, -1, 10.636, 22.2953, 20.6378, 26.7226, -42.1242, -21.2822
1.512, -1, 10.6872, 22.2499, 20.6549, 26.8041, -42.0288, -21.3432
1.516, -1, 10.7383, 22.2045, 20.6719, 26.8855, -41.9336, -21.4041
1.52, -1, 10.7893, 22.1592, 20.689, 26.9667, -41.8384, -21.4649
1.524, -1, 10.8403, 22.114, 20.706, 27.0479, -41.7434, -21.5257
1.528, -1, 10.8912, 22.0688, 20.723, 27.1289, -41.6485, -21.5863
1.532, -1, 10.942, 22.0237, 20.74, 27.2098, -41.5538, -21.6469
1.536, -1, 10.9928, 21.9786, 20.7569, 27.2906, -41.4592, -21.7074
1.54, -1, 11.0435, 21.9336, 20.7738, 27.3713, -41.3647, -21.7678
1.544, -1, 11.0941, 21.8887, 20.7908, 27.4519, -41.2703, -21.8281
1.548, -1, 11.1446, 21.8438, 20.8076, 27.5324, -41.1761, -21.8884
1.552, -1, 11.1951, 21.799, 20.8245, 27.6127, -41.082, -21.9485
1.556, -1, 11.2455, 21.7542, 20.8413, 27.693, -40.988, -22.0086
1.56, -1, 11.2959, 21.7095, 20.8581, 27.7732, -40.8941, -22.0686
1.564, -1, 11.3462, 21.6649, 20.8749, 27.8532, -40.8004, -22.1285
1.568, -1, 11.3964, 21.6203, 20.8917, 27.9331, -40.7068, -22.1884
1.572, -1, 11.4465, 21.5758, 20.9084, 28.013, -40.6133, -22.2481
1.576, -1, 11.4966, 21.5313, 20.9251, 28.0927, -40.52, -22.3078
1.58, -1, 11.5466, 21.4869, 20.9418, 28.1723, -40.4268, -22.3674
1.584, -1, 11.5965, 21.4426, 20.9585, 28.2518, -40.3336, -22.4269
1.588, -1, 11.6464, 21.3983, 20.9752, 28.3313, -40.2407, -22.4864
1.592, -1, 11.6962, 21.3541, 20.9918, 28.4106, -40.1478, -22.5457
1.596, -1, 11.746, 21.3099, 21.0084, 28.4898, -40.0551, -22.605
1.6, -1, 11.7957, 21.2658, 21.025, 28.5689, -39.9624, -22.6642
1.604, -1, 11.8453, 21.2217, 21.0416, 28.6479, -39.8699, -22.7234
1.608, -1, 11.8948, 21.1778, 21.0581, 28.7268, -39.7776, -22.7824
1.612, -1, 11.9443, 21.1338, 21.0747, 28.8055, -39.6853, -22.8414
1.616, -1, 11.9938, 21.0899, 21.0912, 28.8842, -39.5932, -22.9003
1.62, -1, 12.0431, 21.0461, 21.1076, 28.9628, -39.5011, -22.9591
1.624, -1, 12.0924, 21.0023, 21.1241, 29.0413, -39.4092, -23.0179
1.628, -1, 12.1417, 20.9586, 21.1405, 29.1197, -39.3174, -23.0765
1.632, -1, 12.1908, 20.915, 21.157, 29.198, -39.2258, -23.1352
1.636, -1, 12.2399, 20.8714, 21.1734, 29.2762, -39.1342, -23.1937
1.64, -1, 12.289, 20.8278, 21.1897, 29.3543, -39.0428, -23.2521
1.644, -1, 12.338, 20.7843, 21.2061, 29.4323, -38.9515, -23.3105
1.648, -1, 12.3869, 20.7409, 21.2224, 29.5102, -38.8603, -23.3688
1.652, -1, 12.4358, 20.6975, 21.2388, 29.588, -38.7692, -23.4271
1.656, -1, 12.4846, 20.6542, 21.2551, 29.6657, -38.6782, -23.4852
1.66, -1, 12.5333, 20.6109, 21.2713, 29.7433, -38.5873, -23.5433
1.664, -1, 12.582, 20.5677, 21.2876, 29.8208, -38.4966, -23.6013
1.668, -1, 12.6306, 20.5245, 21.3038, 29.8982, -38.4059, -23.6593
1.672, -1, 12.6792, 20.4814, 21.32, 29.9755, -38.3154, -23.7171
1.676, -1, 12.7277, 20.4384, 21.3362, 30.0527, -38.225, -23.7749
1.68, -1, 12.7761, 20.3953, 21.3524, 30.1298, -38.1347, -23.8327
1.684, -1, 12.8245, 20.3524, 21.3686, 30.2069, -38.0445, -23.8903
1.688, -1, 12.8728, 20.3095, 21.3847, 30.2838, -37.9544, -23.9479
1.692, -1, 12.9211, 20.2666, 21.4008, 30.3606, -37.8644, -24.0054
1.696, -1, 12.9693, 20.2238, 21.4169, 30.4374, -37.7746, -24.0629
1.7, -1, 13.0174, 20.1811, 21.433, 30.514, -37.6848, -24.1203
1.704, -1, 13.0655, 20.1384, 21.449, 30.5906, -37.5951, -24.1776
1.708, -1, 13.1136, 20.0958, 21.4651, 30.6671, -37.5056, -24.2348
1.712, -1, 13.1615, 20.0532, 21.4811, 30.7435, -37.4162, -24.292
1.716, -1, 13.2094, 20.0106, 21.4971, 30.8197, -37.3269, -24.3491
1.72, -1, 13.2573, 19.9681, 21.5131, 30.8959, -37.2376, -24.4061
1.724, -1, 13.3051, 19.9257, 21.529, 30.972, -37.1485, -24.4631
1.728, -1, 13.3528, 19.8833, 21.545, 31.0481, -37.0595, -24.52
1.732, -1, 13.4005, 19.841, 21.5609, 31.124, -36.9706, -24.5768
1.736, -1, 13.4482, 19.7987, 21.5768, 31.1998, -36.8818, -24.6336
1.74, -1, 13.4957, 19.7565, 21.5927, 31.2756, -36.7931, -24.6903
1.744, -1, 13.5433, 19.7143, 21.6086, 31.3512, -36.7045, -24.7469
1.748, -1, 13.5907, 19.6721, 21.6244, 31.4268, -36.6161, -24.8035
1.752, -1, 13.6381, 19.63, 21.6402, 31.5023, -36.5277, -24.86
1.756, -1, 13.6855, 19.588, 21.6561, 31.5776, -36.4394, -24.9164
1.76, -1, 13.7328, 19.546, 21.6719, 31.6529, -36.3512, -24.9728
1.764, -1, 13.78, 19.5041, 21.6876, 31.7282, -36.2632, -25.0291
1.768, -1, 13.8272, 19.4622, 21.7034, 31.8033, -36.1752, -25.0853
1.772, -1, 13.8743, 19.4203, 21.7191, 31.8783, -36.0873, -25.1415
1.776, -1, 13.9214, 19.3785, 21.7348, 31.9533, -35.9996, -25.1976
1.78, -1, 13.9684, 19.3368, 21.7505, 32.0281, -35.9119, -25.2536
1.784, -1, 14.0154, 19.2951, 21.7662, 32.1029, -35.8243, -25.3096
1.788, -1, 14.0623, 19.2534, 21.7819, 32.1776, -35.7369, -25.3655
1.792, -1, 14.1092, 19.2118, 21.7975, 32.2522, -35.6495, -25.4214
1.796, -1, 14.156, 19.1703, 21.8132, 32.3268, -35.5622, -25.4772
1.8, -1, 14.2027, 19.1288, 21.8288, 32.4012, -35.4751, -25.5329
1.804, -1, 14.2494, 19.0873, 21.8444, 32.4756, -35.388, -25.5886
1.808, -1, 14.2961, 19.0459, 21.86, 32.5498, -35.301, -25.6442
1.812, -1, 14.3427, 19.0045, 21.8755, 32.624, -35.2142, -25.6997
1.816, -1, 14.3892, 18.9632, 21.8911, 32.6981, -35.1274, -25.7552
1.82, -1, 14.4357, 18.9219, 21.9066, 32.7722, -35.0407, -25.8106
1.824, -1, 14.4822, 18.8807, 21.9221, 32.8461, -34.9541, -25.8659
1.828, -1, 14.5286, 18.8395, 21.9376, 32.92, -34.8676, -25.9212
1.832, -1, 14.5749, 18.7983, 21.9531, 32.9938, -34.7813, -25.9764
1.836, -1, 14.6212, 18.7572, 21.9685, 33.0675, -34.695, -26.0316
1.84, -1, 14.6674, 18.7162, 21.984, 33.1411, -34.6088, -26.0867
1.844, -1, 14.7136, 18.6752, 21.9994, 33.2146, -34.5227, -26.1418
1.848, -1, 14.7598, 18.6342, 22.0148, 33.2881, -34.4367, -26.1967
1.852, -1, 14.8058, 18.5933, 22.0302, 33.3614, -34.3507, -26.2517
1.856, -1, 14.8519, 18.5524, 22.0456, 33.4347, -34.2649, -26.3065
1.86, -1, 14.8979, 18.5116, 22.0609, 33.5079, -34.1792, -26.3613
1.864, -1, 14.9438, 18.4708, 22.0762, 33.5811, -34.0936, -26.4161
1.868, -1, 14.9897, 18.4301, 22.0916, 33.6541, -34.008, -26.4708
1.872, -1, 15.0355, 18.3894, 22.1069, 33.7271, -33.9226, -26.5254
1.876, -1, 15.0813, 18.3487, 22.1222, 33.8, -33.8372, -26.58
1.88, -1, 15.127, 18.3081, 22.1374, 33.8728, -33.7519, -26.6345
1.884, -1, 15.1727, 18.2676, 22.1527, 33.9456, -33.6668, -26.6889
1.888, -1, 15.2184, 18.227, 22.1679, 34.0182, -33.5817, -26.7433
1.892, -1, 15.264, 18.1866, 22.1832, 34.0908, -33.4967, -26.7976
1.896, -1, 15.3095, 18.1461, 22.1984, 34.1633, -33.4118, -26.8519
1.9, -1, 15.355, 18.1057, 22.2136, 34.2358, -33.3269, -26.9062
1.904, -1, 15.4004, 18.0654, 22.2287, 34.3081, -33.2422, -26.9603
1.908, -1, 15.4458, 18.0251, 22.2439, 34.3804, -33.1576, -27.0144
1.912, -1, 15.4912, 17.9848, 22.259, 34.4526, -33.073, -27.0685
1.916, -1, 15.5365, 17.9446, 22.2742, 34.5248, -32.9886, -27.1225
1.92, -1, 15.5818, 17.9044, 22.2893, 34.5968, -32.9042, -27.1764
1.924, -1, 15.627, 17.8643, 22.3044, 34.6688, -32.8199, -27.2303
1.928, -1, 15.6721, 17.8242, 22.3195, 34.7407, -32.7357, -27.2841
1.932, -1, 15.7173, 17.7841, 22.3345, 34.8126, -32.6516, -27.3379
1.936, -1, 15.7623, 17.7441, 22.3496, 34.8843, -32.5676, -27.3916
1.94, -1, 15.8073, 17.7041, 22.3646, 34.956, -32.4836, -27.4453
1.944, -1, 15.8523, 17.6642, 22.3796, 35.0276, -32.3997, -27.4989
1.948, -1, 15.8973, 17.6243, 22.3946, 35.0992, -32.316, -27.5524
1.952, -1, 15.9422, 17.5844, 22.4096, 35.1707, -32.2323, -27.6059
1.956, -1, 15.987, 17.5446, 22.4246, 35.2421, -32.1487, -27.6594
1.96, -1, 16.0318, 17.5048, 22.4396, 35.3134, -32.0652, -27.7128
1.964, -1, 16.0765, 17.4651, 22.4545, 35.3846, -31.9817, -27.7661
1.968, -1, 16.1212, 17.4254, 22.4694, 35.4558, -31.8984, -27.8194
1.972, -1, 16.1659, 17.3858, 22.4844, 35.5269, -31.8151, -27.8726
1.976, -1, 16.2105, 17.3461, 22.4993, 35.598, -31.7319, -27.9258
1.98, -1, 16.2551, 17.3066, 22.5141, 35.6689, -31.6488, -27.9789
1.984, -1, 16.2996, 17.267, 22.529, 35.7398, -31.5658, -28.032
1.988, -1, 16.3441, 17.2275, 22.5439, 35.8107, -31.4829, -28.085
1.992, -1, 16.3886, 17.1881, 22.5587, 35.8814, -31.4, -28.138
1.996, -1, 16.433, 17.1487, 22.5735, 35.9521, -31.3173, -28.1909
1.999, -1, 16.4773, 17.1093, 22.5883, 36.0228, -31.2346, -28.2438
2.004, -1, 16.5216, 17.0699, 22.6031, 36.0933, -31.1519, -28.2966
2.008, -1, 16.5659, 17.0306, 22.6179, 36.1638, -31.0694, -28.3493
2.012, -1, 16.6101, 16.9914, 22.6327, 36.2342, -30.987, -28.4021
2.015, -1, 16.6543, 16.9521, 22.6474, 36.3046, -30.9046, -28.4547
2.019, -1, 16.6984, 16.9129, 22.6622, 36.3748, -30.8223, -28.5073
2.024, -1, 16.7425, 16.8738, 22.6769, 36.445, -30.7401, -28.5599
2.028, -1, 16.7866, 16.8347, 22.6916, 36.5152, -30.658, -28.6124
2.031, -1, 16.8306, 16.7956, 22.7063, 36.5853, -30.5759, -28.6648
2.036, -1, 16.8746, 16.7566, 22.721, 36.6553, -30.4939, -28.7172
2.04, -1, 16.9185, 16.7176, 22.7357, 36.7252, -30.412, -28.7696
2.044, -1, 16.9624, 16.6786, 22.7503, 36.7951, -30.3302, -28.8219
2.048, -1, 17.0062, 16.6397, 22.765, 36.8649, -30.2485, -28.8742
2.051, -1, 17.05, 16.6008, 22.7796, 36.9346, -30.1668, -28.9264
2.055, -1, 17.0938, 16.5619, 22.7942, 37.0043, -30.0852, -28.9785
2.06, -1, 17.1375, 16.5231, 22.8088, 37.0739, -30.0037, -29.0306
2.064, -1, 17.1811, 16.4844, 22.8234, 37.1435, -29.9223, -29.0827
2.068, -1, 17.2244, 16.4458, 22.8379, 37.2129, -29.841, -29.1347
2.071, -1, 17.2671, 16.4077, 22.8523, 37.2823, -29.7597, -29.1866
2.076, -1, 17.3088, 16.3701, 22.8666, 37.3515, -29.6787, -29.2384
2.08, -1, 17.3495, 16.3335, 22.8807, 37.4204, -29.5981, -29.29
2.084, -1, 17.3888, 16.2979, 22.8945, 37.4888, -29.518, -29.3412
2.087, -1, 17.4267, 16.2635, 22.9079, 37.5564, -29.4389, -29.3918
2.092, -1, 17.4632, 16.2306, 22.921, 37.6229, -29.3611, -29.4417
2.096, -1, 17.4983, 16.1992, 22.9337, 37.6879, -29.2851, -29.4903
2.1, -1, 17.5321, 16.1694, 22.9459, 37.7508, -29.2115, -29.5374
2.104, -1, 17.5644, 16.1411, 22.9576, 37.8112, -29.1408, -29.5827
2.107, -1, 17.5951, 16.1145, 22.9686, 37.8686, -29.0737, -29.6257
2.111, -1, 17.624, 16.0896, 22.9791, 37.9226, -29.0106, -29.6661
2.116, -1, 17.6513, 16.0662, 22.9888, 37.9726, -28.9521, -29.7035
2.12, -1, 17.6768, 16.044, 22.9978, 38.0183, -28.8986, -29.7378
2.124, -1, 17.7009, 16.023, 23.0061, 38.0595, -28.8504, -29.7686
2.127, -1, 17.7234, 16.0029, 23.0136, 38.0959, -28.8078, -29.7958
2.132, -1, 17.7446, 15.9838, 23.0205, 38.1275, -28.7707, -29.8195
2.136, -1, 17.7642, 15.9657, 23.0267, 38.1546, -28.739, -29.8397
2.14, -1, 17.7823, 15.9489, 23.0321, 38.1772, -28.7125, -29.8566
2.143, -1, 17.7986, 15.9337, 23.0368, 38.1957, -28.6907, -29.8705
2.148, -1, 17.8131, 15.9202, 23.0409, 38.2106, -28.6732, -29.8816
2.152, -1, 17.8259, 15.9085, 23.0443, 38.2223, -28.6594, -29.8904
2.156, -1, 17.8371, 15.8987, 23.0471, 38.2313, -28.6488, -29.8971
2.16, -1, 17.8467, 15.8905, 23.0494, 38.2381, -28.6409, -29.9021
2.163, -1, 17.855, 15.8838, 23.0513, 38.243, -28.635, -29.9058
2.168, -1, 17.8619, 15.8785, 23.0527, 38.2465, -28.6308, -29.9084
2.172, -1, 17.8674, 15.8744, 23.0538, 38.249, -28.6279, -29.9103
2.176, 2, 17.8716, 15.8714, 23.0546, 38.2507, -28.6258, -29.9115
2.179, 2, 17.8747, 15.8692, 23.0552, 38.2519, -28.6245, -29.9124
2.184, 2, 17.8769, 15.8677, 23.0556, 38.2527, -28.6235, -29.913
2.188, 2, 17.8784, 15.8667, 23.0558, 38.2532, -28.6229, -29.9134
2.192, 2, 17.8794, 15.866, 23.056, 38.2536, -28.6224, -29.9137
2.196, 2, 17.8801, 15.8655, 23.0561, 38.2538, -28.6221, -29.9138
2.199, 2, 17.8806, 15.8652, 23.0562, 38.254, -28.6219, -29.914
2.204, 2, 17.8809, 15.865, 23.0563, 38.2541, -28.6218, -29.9141
2.208, 2, 17.8811, 15.8649, 23.0563, 38.2542, -28.6217, -29.9141
2.212, 2, 17.8813, 15.8648, 23.0563, 38.2543, -28.6217, -29.9141
2.216, 2, 17.8814, 15.8647, 23.0564, 38.2543, -28.6216, -29.9142
2.219, 2, 17.8814, 15.8646, 23.0564, 38.2543, -28.6216, -29.9142
2.224, 2, 17.8815, 15.8646, 23.0564, 38.2543, -28.6216, -29.9142
2.228, 2, 17.8815, 15.8646, 23.0564, 38.2543, -28.6215, -29.9142
2.232, 2, 17.8815, 15.8646, 23.0564, 38.2543, -28.6215, -29.9142
2.235, 2, 17.8815, 15.8646, 23.0564, 38.2544, -28.6215, -29.9142
2.24, 2, 17.8815, 15.8646, 23.0564, 38.2544, -28.6215, -29.9142
2.244, 2, 17.8816, 15.8646, 23.0564, 38.2544, -28.6215, -29.9142
2.248, 2, 17.8816, 15.8646, 23.0564, 38.2544, -28.6215, -29.9142
2.252, 2, 17.8816, 15.8646, 23.0564, 38.2544, -28.6215, -29.9142
2.255, 2, 17.8816, 15.8646, 23.0564, 38.2544, -28.6215, -29.9142
2.259, 2, 17.8816, 15.8646, 23.0564, 38.2544, -28.6215, -29.9142
2.264, 2, 17.8816, 15.8645, 23.0564, 38.2544, -28.6215, -29.9142
2.268, 2, 17.8816, 15.8645, 23.0564, 38.2544, -28.6215, -29.9142
2.272, 2, 17.8816, 15.8645, 23.0564, 38.2544, -28.6215, -29.9142
2.275, 2, 17.8816, 15.8645, 23.0564, 38.2544, -28.6215, -29.9142
2.28, 2, 17.8816, 15.8645, 23.0564, 38.2544, -28.6215, -29.9142
2.284, 2, 17.8816, 15.8645, 23.0564, 38.2544, -28.6215, -29.9142
2.288, 2, 17.8816, 15.8645, 23.0564, 38.2544, -28.6215, -29.9142
2.291, 2, 17.8816, 15.8645, 23.0564, 38.2544, -28.6215, -29.9142
2.296, 2, 17.8816, 15.8645, 23.0564, 38.2544, -28.6215, -29.9142
2.3, 2, 17.8816, 15.8645, 23.0564, 38.2544, -28.6215, -29.9142
2.304, 2, 17.8816, 15.8645, 23.0564, 38.2544, -28.6215, -29.9142
2.308, 2, 17.8816, 15.8645, 23.0564, 38.2544, -28.6215, -29.9142
2.311, 2, 17.8816, 15.8645, 23.0564, 38.2544, -28.6215, -29.9142
2.316, 2, 17.8816, 15.8645, 23.0564, 38.2544, -28.6215, -29.9142
2.32, 2, 17.8816, 15.8645, 23.0564, 38.2544, -28.6215, -29.9142
2.324, 2, 17.8816, 15.8645, 23.0564, 38.2544, -28.6215, -29.9142
2.328, 2, 17.8816, 15.8645, 23.0564, 38.2544, -28.6215, -29.9142
2.331, 2, 17.8816, 15.8645, 23.0564, 38.2544, -28.6215, -29.9142
2.336, 2, 17.8816, 15.8645, 23.0564, 38.2544, -28.6215, -29.9142
2.34, 2, 17.8816, 15.8645, 23.0564, 38.2544, -28.6215, -29.9142
2.344, 2, 17.8816, 15.8645, 23.0564, 38.2544, -28.6215, -29.9142
2.347, 2, 17.8816, 15.8645, 23.0564, 38.2544, -28.6215, -29.9142
2.352, 2, 17.8816, 15.8645, 23.0564, 38.2544, -28.6215, -29.9142
2.356, 2, 17.8816, 15.8645, 23.0564, 38.2544, -28.6215, -29.9142
2.36, 2, 17.8816, 15.8645, 23.0564, 38.2544, -28.6215, -29.9142
2.364, 2, 17.8816, 15.8645, 23.0564, 38.2544, -28.6215, -29.9142
2.367, 2, 17.8816, 15.8645, 23.0564, 38.2544, -28.6215, -29.9142
2.372, 2, 17.8816, 15.8645, 23.0564, 38.2544, -28.6215, -29.9142
2.376, 2, 17.8816, 15.8645, 23.0564, 38.2544, -28.6215, -29.9142
2.38, 2, 17.8816, 15.8645, 23.0564, 38.2544, -28.6215, -29.9142
2.383, 2, 17.8816, 15.8645, 23.0564, 38.2544, -28.6215, -29.9142
2.388, 2, 17.8816, 15.8645, 23.0564, 38.2544, -28.6215, -29.9142
2.392, 2, 17.8816, 15.8645, 23.0564, 38.2544, -28.6215, -29.9142
2.396, 2, 17.8816, 15.8645, 23.0564, 38.2544, -28.6215, -29.9142
2.4, 2, 17.8816, 15.8645, 23.0564, 38.2544, -28.6215, -29.9142
2.403, 2, 17.8816, 15.8645, 23.0564, 38.2544, -28.6215, -29.9142
2.408, 2, 17.8816, 15.8645, 23.0564, 38.2544, -28.6215, -29.9142
2.412, 2, 17.8816, 15.8645, 23.0564, 38.2544, -28.6215, -29.9142
2.416, 2, 17.8816, 15.8645, 23.0564, 38.2544, -28.6215, -29.9142
2.42, 2, 17.8816, 15.8645, 23.0564, 38.2544, -28.6215, -29.9142
2.423, 2, 17.8816, 15.8645, 23.0564, 38.2544, -28.6215, -29.9142
2.428, 2, 17.8816, 15.8645, 23.0564, 38.2544, -28.6215, -29.9142
2.432, 2, 17.8816, 15.8645, 23.0564, 38.2544, -28.6215, -29.9142
2.436, 2, 17.8816, 15.8645, 23.0564, 38.2544, -28.6215, -29.9142
2.439, 2, 17.8816, 15.8645, 23.0564, 38.2544, -28.6215, -29.9142
2.444, 2, 17.8816, 15.8645, 23.0564, 38.2544, -28.6215, -29.9142
2.448, 2, 17.8816, 15.8645, 23.0564, 38.2544, -28.6215, -29.9142
2.452, 2, 17.8816, 15.8645, 23.0564, 38.2544, -28.6215, -29.9142
2.456, 2, 17.8816, 15.8645, 23.0564, 38.2544, -28.6215, -29.9142
2.459, 2, 17.8816, 15.8645, 23.0564, 38.2544, -28.6215, -29.9142
2.464, 2, 17.8816, 15.8645, 23.0564, 38.2544, -28.6215, -29.9142
2.468, 2, 17.8816, 15.8645, 23.0564, 38.2544, -28.6215, -29.9142
2.472, 2, 17.8816, 15.8645, 23.0564, 38.2544, -28.6215, -29.9142
2.476, 2, 17.8816, 15.8645, 23.0564, 38.2544, -28.6215, -29.9142
2.479, 2, 17.8816, 15.8645, 23.0564, 38.2544, -28.6215, -29.9142
2.484, 2, 17.8816, 15.8645, 23.0564, 38.2544, -28.6215, -29.9142
2.488, 2, 17.8816, 15.8645, 23.0564, 38.2544, -28.6215, -29.9142
2.492, 2, 17.8816, 15.8645, 23.0564, 38.2544, -28.6215, -29.9142
2.495, 2, 17.8816, 15.8645, 23.0564, 38.2544, -28.6215, -29.9142
2.5, 2, 17.8816, 15.8645, 23.0564, 38.2544, -28.6215, -29.9142
2.504, 2, 17.8816, 15.8645, 23.0564, 38.2544, -28.6215, -29.9142
2.508, 2, 17.8816, 15.8645, 23.0564, 38.2544, -28.6215, -29.9142
2.512, 2, 17.8816, 15.8645, 23.0564, 38.2544, -28.6215, -29.9142
2.515, 2, 17.8816, 15.8645, 23.0564, 38.2544, -28.6215, -29.9142
2.52, 2, 17.8816, 15.8645, 23.0564, 38.2544, -28.6215, -29.9142
2.524, 2, 17.8816, 15.8645, 23.0564, 38.2544, -28.6215, -29.9142
2.528, 2, 17.8816, 15.8645, 23.0564, 38.2544, -28.6215, -29.9142
2.531, 2, 17.8816, 15.8645, 23.0564, 38.2544, -28.6215, -29.9142
2.536, 2, 17.8816, 15.8645, 23.0564, 38.2544, -28.6215, -29.9142
2.54, 2, 17.8816, 15.8645, 23.0564, 38.2544, -28.6215, -29.9142
2.544, 2, 17.8816, 15.8645, 23.0564, 38.2544, -28.6215, -29.9142
2.548, 2, 17.8816, 15.8645, 23.0564, 38.2544, -28.6215, -29.9142
2.551, 2, 17.8816, 15.8645, 23.0564, 38.2544, -28.6215, -29.9142
2.556, 2, 17.8816, 15.8645, 23.0564, 38.2544, -28.6215, -29.9142
2.56, 2, 17.8816, 15.8645, 23.0564, 38.2544, -28.6215, -29.9142
2.564, 2, 17.8816, 15.8645, 23.0564, 38.2544, -28.6215, -29.9142
2.568, 2, 17.8816, 15.8645, 23.0564, 38.2544, -28.6215, -29.9142
2.571, 2, 17.8816, 15.8645, 23.0564, 38.2544, -28.6215, -29.9142
2.576, 2, 17.8816, 15.8645, 23.0564, 38.2544, -28.6215, -29.9142
2.58, 2, 17.8816, 15.8645, 23.0564, 38.2544, -28.6215, -29.9142
2.584, 2, 17.8816, 15.8645, 23.0564, 38.2544, -28.6215, -29.9142
2.587, 2, 17.8816, 15.8645, 23.0564, 38.2544, -28.6215, -29.9142
2.592, 2, 17.8816, 15.8645, 23.0564, 38.2544, -28.6215, -29.9142
2.596, 2, 17.8816, 15.8645, 23.0564, 38.2544, -28.6215, -29.9142
2.6, 2, 17.8816, 15.8645, 23.0564, 38.2544, -28.6215, -29.9142
2.604, 2, 17.8816, 15.8645, 23.0564, 38.2544, -28.6215, -29.9142
2.607, 2, 17.8816, 15.8645, 23.0564, 38.2544, -28.6215, -29.9142
2.612, 2, 17.8816, 15.8645, 23.0564, 38.2544, -28.6215, -29.9142
2.616, 2, 17.8816, 15.8645, 23.0564, 38.2544, -28.6215, -29.9142
2.62, 2, 17.8816, 15.8645, 23.0564, 38.2544, -28.6215, -29.9142
2.624, 2, 17.8816, 15.8645, 23.0564, 38.2544, -28.6215, -29.9142
2.627, 2, 17.8816, 15.8645, 23.0564, 38.2544, -28.6215, -29.9142
2.632, 2, 17.8816, 15.8645, 23.0564, 38.2544, -28.6215, -29.9142
2.636, 2, 17.8816, 15.8645, 23.0564, 38.2544, -28.6215, -29.9142
2.64, 2, 17.8816, 15.8645, 23.0564, 38.2544, -28.6215, -29.9142
2.643, 2, 17.8816, 15.8645, 23.0564, 38.2544, -28.6215, -29.9142
2.648, 2, 17.8816, 15.8645, 23.0564, 38.2544, -28.6215, -29.9142
2.652, 2, 17.8816, 15.8645, 23.0564, 38.2544, -28.6215, -29.9142
2.656, 2, 17.8816, 15.8645, 23.0564, 38.2544, -28.6215, -29.9142
2.66, 2, 17.8816, 15.8645, 23.0564, 38.2544, -28.6215, -29.9142
2.663, 2, 17.8816, 15.8645, 23.0564, 38.2544, -28.6215, -29.9142
2.668, 2, 17.8816, 15.8645, 23.0564, 38.2544, -28.6215, -29.9142
2.672, 2, 17.8816, 15.8645, 23.0564, 38.2544, -28.6215, -29.9142
2.676, 2, 17.8816, 15.8645, 23.0564, 38.2544, -28.6215, -29.9142
2.679, 2, 17.8816, 15.8645, 23.0564, 38.2544, -28.6215, -29.9142
2.684, 2, 17.8816, 15.8645, 23.0564, 38.2544, -28.6215, -29.9142
2.688, 2, 17.8816, 15.8645, 23.0564, 38.2544, -28.6215, -29.9142
2.692, 2, 17.8816, 15.8645, 23.0564, 38.2544, -28.6215, -29.9142
2.696, 2, 17.8816, 15.8645, 23.0564, 38.2544, -28.6215, -29.9142
2.699, 2, 17.8816, 15.8645, 23.0564, 38.2544, -28.6215, -29.9142
2.704, 2, 17.8816, 15.8645, 23.0564, 38.2544, -28.6215, -29.9142
2.708, 2, 17.8816, 15.8645, 23.0564, 38.2544, -28.6215, -29.9142
2.712, 2, 17.8816, 15.8645, 23.0564, 38.2544, -28.6215, -29.9142
2.716, 2, 17.8816, 15.8645, 23.0564, 38.2544, -28.6215, -29.9142
2.719, 2, 17.8816, 15.8645, 23.0564, 38.2544, -28.6215, -29.9142
2.724, 2, 17.8816, 15.8645, 23.0564, 38.2544, -28.6215, -29.9142
2.728, 2, 17.8816, 15.8645, 23.0564, 38.2544, -28.6215, -29.9142
2.732, 2, 17.8816, 15.8645, 23.0564, 38.2544, -28.6215, -29.9142
2.735, 2, 17.8816, 15.8645, 23.0564, 38.2544, -28.6215, -29.9142
2.74, 2, 17.8816, 15.8645, 23.0564, 38.2544, -28.6215, -29.9142
2.744, 2, 17.8816, 15.8645, 23.0564, 38.2544, -28.6215, -29.9142
2.748, 2, 17.8816, 15.8645, 23.0564, 38.2544, -28.6215, -29.9142
2.752, 2, 17.8816, 15.8645, 23.0564, 38.2544, -28.6215, -29.9142
2.755, 2, 17.8816, 15.8645, 23.0564, 38.2544, -28.6215, -29.9142
2.76, 2, 17.8816, 15.8645, 23.0564, 38.2544, -28.6215, -29.9142
2.764, 2, 17.8816, 15.8645, 23.0564, 38.2544, -28.6215, -29.9142
2.768, 2, 17.8816, 15.8645, 23.0564, 38.2544, -28.6215, -29.9142
2.772, 2, 17.8816, 15.8645, 23.0564, 38.2544, -28.6215, -29.9142
2.775, 2, 17.8816, 15.8645, 23.0564, 38.2544, -28.6215, -29.9142
2.78, 2, 17.8816, 15.8645, 23.0564, 38.2544, -28.6215, -29.9142
2.784, 2, 17.8816, 15.8645, 23.0564, 38.2544, -28.6215, -29.9142
2.788, 2, 17.8816, 15.8645, 23.0564, 38.2544, -28.6215, -29.9142
2.791, 2, 17.8816, 15.8645, 23.0564, 38.2544, -28.6215, -29.9142
2.796, 2, 17.8816, 15.8645, 23.0564, 38.2544, -28.6215, -29.9142
2.8, 2, 17.8816, 15.8645, 23.0564, 38.2544, -28.6215, -29.9142
2.804, 2, 17.8816, 15.8645, 23.0564, 38.2544, -28.6215, -29.9142
2.808, 2, 17.8816, 15.8645, 23.0564, 38.2544, -28.6215, -29.9142
2.811, 2, 17.8816, 15.8645, 23.0564, 38.2544, -28.6215, -29.9142
2.816, 2, 17.8816, 15.8645, 23.0564, 38.2544, -28.6215, -29.9142
2.82, 2, 17.8816, 15.8645, 23.0564, 38.2544, -28.6215, -29.9142
2.824, 2, 17.8816, 15.8645, 23.0564, 38.2544, -28.6215, -29.9142
2.828, 2, 17.8816, 15.8645, 23.0564, 38.2544, -28.6215, -29.9142
2.831, 2, 17.8816, 15.8645, 23.0564, 38.2544, -28.6215, -29.9142
2.836, 2, 17.8816, 15.8645, 23.0564, 38.2544, -28.6215, -29.9142
2.84, 2, 17.8816, 15.8645, 23.0564, 38.2544, -28.6215, -29.9142
2.844, 2, 17.8816, 15.8645, 23.0564, 38.2544, -28.6215, -29.9142
2.847, 2, 17.8816, 15.8645, 23.0564, 38.2544, -28.6215, -29.9142
2.852, 2, 17.8816, 15.8645, 23.0564, 38.2544, -28.6215, -29.9142
2.856, 2, 17.8816, 15.8645, 23.0564, 38.2544, -28.6215, -29.9142
2.86, 2, 17.8816, 15.8645, 23.0564, 38.2544, -28.6215, -29.9142
2.864, 2, 17.8816, 15.8645, 23.0564, 38.2544, -28.6215, -29.9142
2.867, 2, 17.8816, 15.8645, 23.0564, 38.2544, -28.6215, -29.9142
2.872, 2, 17.8816, 15.8645, 23.0564, 38.2544, -28.6215, -29.9142
2.876, 2, 17.8816, 15.8645, 23.0564, 38.2544, -28.6215, -29.9142
2.88, 2, 17.8816, 15.8645, 23.0564, 38.2544, -28.6215, -29.9142
2.883, 2, 17.8816, 15.8645, 23.0564, 38.2544, -28.6215, -29.9142
2.888, 2, 17.8816, 15.8645, 23.0564, 38.2544, -28.6215, -29.9142
2.892, 2, 17.8816, 15.8645, 23.0564, 38.2544, -28.6215, -29.9142
2.896, 2, 17.8816, 15.8645, 23.0564, 38.2544, -28.6215, -29.9142
2.9, 2, 17.8816, 15.8645, 23.0564, 38.2544, -28.6215, -29.9142
2.903, 2, 17.8816, 15.8645, 23.0564, 38.2544, -28.6215, -29.9142
2.908, 2, 17.8816, 15.8645, 23.0564, 38.2544, -28.6215, -29.9142
2.912, 2, 17.8816, 15.8645, 23.0564, 38.2544, -28.6215, -29.9142
2.916, 2, 17.8816, 15.8645, 23.0564, 38.2544, -28.6215, -29.9142
2.92, 2, 17.8816, 15.8645, 23.0564, 38.2544, -28.6215, -29.9142
2.923, 2, 17.8816, 15.8645, 23.0564, 38.2544, -28.6215, -29.9142
2.928, 2, 17.8816, 15.8645, 23.0564, 38.2544, -28.6215, -29.9142
2.932, 2, 17.8816, 15.8645, 23.0564, 38.2544, -28.6215, -29.9142
2.936, 2, 17.8816, 15.8645, 23.0564, 38.2544, -28.6215, -29.9142
2.939, 2, 17.8816, 15.8645, 23.0564, 38.2544, -28.6215, -29.9142
2.944, 2, 17.8816, 15.8645, 23.0564, 38.2544, -28.6215, -29.9142
2.948, 2, 17.8816, 15.8645, 23.0564, 38.2544, -28.6215, -29.9142
2.952, 2, 17.8816, 15.8645, 23.0564, 38.2544, -28.6215, -29.9142
2.956, 2, 17.8816, 15.8645, 23.0564, 38.2544, -28.6215, -29.9142
2.959, 2, 17.8816, 15.8645, 23.0564, 38.2544, -28.6215, -29.9142
2.964, 2, 17.8816, 15.8645, 23.0564, 38.2544, -28.6215, -29.9142
2.968, 2, 17.8816, 15.8645, 23.0564, 38.2544, -28.6215, -29.9142
2.972, 2, 17.8816, 15.8645, 23.0564, 38.2544, -28.6215, -29.9142
2.976, 2, 17.8816, 15.8645, 23.0564, 38.2544, -28.6215, -29.9142
2.98, 2, 17.8816, 15.8645, 23.0564, 38.2544, -28.6215, -29.9142
2.984, 2, 17.8816, 15.8645, 23.0564, 38.2544, -28.6215, -29.9142
2.988, 2, 17.8816, 15.8645, 23.0564, 38.2544, -28.6215, -29.9142
2.992, 2, 17.8816, 15.8645, 23.0564, 38.2544, -28.6215, -29.9142
2.995, 2, 17.8816, 15.8645, 23.0564, 38.2544, -28.6215, -29.9142
3, 2, 17.8816, 15.8645, 23.0564, 38.2544, -28.6215, -29.9142
3.004, 2, 17.8816, 15.8645, 23.0564, 38.2544, -28.6215, -29.9142
3.008, 2, 17.8816, 15.8645, 23.0564, 38.2544, -28.6215, -29.9142
3.012, 2, 17.8816, 15.8645, 23.0564, 38.2544, -28.6215, -29.9142
3.015, 2, 17.8816, 15.8645, 23.0564, 38.2544, -28.6215, -29.9142
3.02, 2, 17.8816, 15.8645, 23.0564, 38.2544, -28.6215, -29.9142
3.024, 2, 17.8816, 15.8645, 23.0564, 38.2544, -28.6215, -29.9142
3.028, 2, 17.8816, 15.8645, 23.0564, 38.2544, -28.6215, -29.9142
3.031, 2, 17.8816, 15.8645, 23.0564, 38.2544, -28.6215, -29.9142
3.036, 2, 17.8816, 15.8645, 23.0564, 38.2544, -28.6215, -29.9142
3.04, 2, 17.8816, 15.8645, 23.0564, 38.2544, -28.6215, -29.9142
3.044, 2, 17.8816, 15.8645, 23.0564, 38.2544, -28.6215, -29.9142
3.048, 2, 17.8816, 15.8645, 23.0564, 38.2544, -28.6215, -29.9142
3.051, 2, 17.8816, 15.8645, 23.0564, 38.2544, -28.6215, -29.9142
3.056, 2, 17.8816, 15.8645, 23.0564, 38.2544, -28.6215, -29.9142
3.06, 2, 17.8816, 15.8645, 23.0564, 38.2544, -28.6215, -29.9142
3.064, 2, 17.8816, 15.8645, 23.0564, 38.2544, -28.6215, -29.9142
3.068, 2, 17.8816, 15.8645, 23.0564, 38.2544, -28.6215, -29.9142
3.071, 2, 17.8816, 15.8645, 23.0564, 38.2544, -28.6215, -29.9142
3.076, 2, 17.8816, 15.8645, 23.0564, 38.2544, -28.6215, -29.9142
3.08, 2, 17.8816, 15.8645, 23.0564, 38.2544, -28.6215, -29.9142
3.084, 2, 17.8816, 15.8645, 23.0564, 38.2544, -28.6215, -29.9142
3.087, 2, 17.8816, 15.8645, 23.0564, 38.2544, -28.6215, -29.9142
3.092, 2, 17.8816, 15.8645, 23.0564, 38.2544, -28.6215, -29.9142
3.096, 2, 17.8816, 15.8645, 23.0564, 38.2544, -28.6215, -29.9142
3.1, 2, 17.8816, 15.8645, 23.0564, 38.2544, -28.6215, -29.9142
3.104, 2, 17.8816, 15.8645, 23.0564, 38.2544, -28.6215, -29.9142
3.107, 2, 17.8816, 15.8645, 23.0564, 38.2544, -28.6215, -29.9142
3.112, 2, 17.8816, 15.8645, 23.0564, 38.2544, -28.6215, -29.9142
3.116, 2, 17.8816, 15.8645, 23.0564, 38.2544, -28.6215, -29.9142
3.12, 2, 17.8816, 15.8645, 23.0564, 38.2544, -28.6215, -29.9142
3.124, 2, 17.8816, 15.8645, 23.0564, 38.2544, -28.6215, -29.9142
3.128, 2, 17.8816, 15.8645, 23.0564, 38.2544, -28.6215, -29.9142
3.132, 2, 17.8816, 15.8645, 23.0564, 38.2544, -28.6215, -29.9142
3.136, 2, 17.8816, 15.8645, 23.0564, 38.2544, -28.6215, -29.9142
3.14, 2, 17.8816, 15.8645, 23.0564, 38.2544, -28.6215, -29.9142
3.143, 2, 17.8816, 15.8645, 23.0564, 38.2544, -28.6215, -29.9142
3.148, 2, 17.8816, 15.8645, 23.0564, 38.2544, -28.6215, -29.9142
3.152, 2, 17.8816, 15.8645, 23.0564, 38.2544, -28.6215, -29.9142
3.156, 2, 17.8816, 15.8645, 23.0564, 38.2544, -28.6215, -29.9142
3.16, 2, 17.8816, 15.8645, 23.0564, 38.2544, -28.6215, -29.9142
3.163, 2, 17.8816, 15.8645, 23.0564, 38.2544, -28.6215, -29.9142
3.168, 2, 17.8816, 15.8645, 23.0564, 38.2544, -28.6215, -29.9142
3.172, 2, 17.8816, 15.8645, 23.0564, 38.2544, -28.6215, -29.9142
3.176, 2, 17.8816, 15.8645, 23.0564, 38.2544, -28.6215, -29.9142
3.179, 2, 17.8816, 15.8645, 23.0564, 38.2544, -28.6215, -29.9142
3.184, 2, 17.8816, 15.8645, 23.0564, 38.2544, -28.6215, -29.9142
3.188, 2, 17.8816, 15.8645, 23.0564, 38.2544, -28.6215, -29.9142
3.192, 2, 17.8816, 15.8645, 23.0564, 38.2544, -28.6215, -29.9142
3.196, 2, 17.8816, 15.8645, 23.0564, 38.2544, -28.6215, -29.9142
3.199, 2, 17.8816, 15.8645, 23.0564, 38.2544, -28.6215, -29.9142
3.204, 2, 17.8816, 15.8645, 23.0564, 38.2544, -28.6215, -29.9142
3.208, 2, 17.8816, 15.8645, 23.0564, 38.2544, -28.6215, -29.9142
3.212, 2, 17.8816, 15.8645, 23.0564, 38.2544, -28.6215, -29.9142
3.216, 2, 17.8816, 15.8645, 23.0564, 38.2544, -28.6215, -29.9142
3.22, 2, 17.8816, 15.8645, 23.0564, 38.2544, -28.6215, -29.9142
3.224, 2, 17.8816, 15.8645, 23.0564, 38.2544, -28.6215, -29.9142
3.228, 2, 17.8816, 15.8645, 23.0564, 38.2544, -28.6215, -29.9142
3.232, 2, 17.8816, 15.8645, 23.0564, 38.2544, -28.6215, -29.9142
3.235, 2, 17.8816, 15.8645, 23.0564, 38.2544, -28.6215, -29.9142
3.24, 2, 17.8816, 15.8645, 23.0564, 38.2544, -28.6215, -29.9142
3.244, 2, 17.8816, 15.8645, 23.0564, 38.2544, -28.6215, -29.9142
3.248, 4, 17.8816, 15.8645, 23.0564, 38.2544, -28.6215, -29.9142
3.252, 4, 17.8816, 15.8645, 23.0564, 38.2544, -28.6215, -29.9142
3.255, 4, 17.8816, 15.8645, 23.0564, 38.2544, -28.6215, -29.9142
3.26, 4, 17.8816, 15.8645, 23.0564, 38.2544, -28.6215, -29.9142
3.264, 4, 17.8816, 15.8645, 23.0564, 38.2544, -28.6215, -29.9142
3.268, 4, 17.8816, 15.8645, 23.0564, 38.2544, -28.6215, -29.9142
3.272, 4, 17.8816, 15.8645, 23.0564, 38.2544, -28.6215, -29.9142
3.276, 4, 17.8816, 15.8645, 23.0564, 38.2544, -28.6215, -29.9142
3.28, 4, 17.8816, 15.8645, 23.0564, 38.2544, -28.6215, -29.9142
3.284, 4, 17.8816, 15.8645, 23.0564, 38.2544, -28.6215, -29.9142
3.288, 4, 17.8816, 15.8645, 23.0564, 38.2544, -28.6215, -29.9142
3.291, 4, 17.8816, 15.8645, 23.0564, 38.2544, -28.6215, -29.9142
3.296, 4, 17.8816, 15.8645, 23.0564, 38.2544, -28.6215, -29.9142
3.3, 4, 17.8816, 15.8645, 23.0564, 38.2544, -28.6215, -29.9142
3.304, 4, 17.8816, 15.8645, 23.0564, 38.2544, -28.6215, -29.9142
3.308, 4, 17.8816, 15.8645, 23.0564, 38.2544, -28.6215, -29.9142
3.312, 4, 17.8816, 15.8645, 23.0564, 38.2544, -28.6215, -29.9142
3.316, 4, 17.8816, 15.8645, 23.0564, 38.2544, -28.6215, -29.9142
3.32, 4, 17.8816, 15.8645, 23.0564, 38.2544, -28.6215, -29.9142
3.324, 4, 17.8816, 15.8645, 23.0564, 38.2544, -28.6215, -29.9142
3.328, 4, 17.8816, 15.8645, 23.0564, 38.2544, -28.6215, -29.9142
3.332, 4, 17.8816, 15.8645, 23.0564, 38.2544, -28.6215, -29.9142
3.336, 4, 17.8816, 15.8645, 23.0564, 38.2544, -28.6215, -29.9142
3.34, 4, 17.8816, 15.8645, 23.0564, 38.2544, -28.6215, -29.9142
3.344, 4, 17.8816, 15.8645, 23.0564, 38.2544, -28.6215, -29.9142
3.347, 4, 17.8816, 15.8645, 23.0564, 38.2544, -28.6215, -29.9142
3.352, 4, 17.8816, 15.8645, 23.0564, 38.2544, -28.6215, -29.9142
3.356, 4, 17.8816, 15.8645, 23.0564, 38.2544, -28.6215, -29.9142
3.36, 4, 17.8816, 15.8645, 23.0564, 38.2544, -28.6215, -29.9142
3.364, 4, 17.8816, 15.8645, 23.0564, 38.2544, -28.6215, -29.9142
3.368, 4, 17.8816, 15.8645, 23.0564, 38.2544, -28.6215, -29.9142
3.372, 4, 17.8816, 15.8645, 23.0564, 38.2544, -28.6215, -29.9142
3.376, 4, 17.8816, 15.8645, 23.0564, 38.2544, -28.6215, -29.9142
3.38, 4, 17.8815, 15.8645, 23.0564, 38.2544, -28.6215, -29.9142
3.383, 4, 17.8812, 15.8645, 23.0564, 38.2543, -28.6215, -29.9142
3.388, 4, 17.8806, 15.8645, 23.0565, 38.2542, -28.6216, -29.9141
3.392, 4, 17.8793, 15.8645, 23.0566, 38.2539, -28.6217, -29.9139
3.396, 4, 17.8773, 15.8644, 23.0569, 38.2532, -28.6219, -29.9133
3.4, 4, 17.8745, 15.8643, 23.0576, 38.2517, -28.6225, -29.912
3.403, 4, 17.8707, 15.864, 23.0586, 38.2489, -28.6235, -29.9095
3.408, 4, 17.8659, 15.8636, 23.0603, 38.2441, -28.6252, -29.9053
3.412, 4, 17.8601, 15.863, 23.0629, 38.2365, -28.628, -29.8986
3.416, 4, 17.8533, 15.8621, 23.0667, 38.225, -28.6321, -29.8885
3.42, 4, 17.8454, 15.8608, 23.072, 38.2087, -28.6379, -29.874
3.424, 5, 17.8363, 15.8592, 23.0791, 38.1865, -28.6459, -29.8544
3.428, 5, 17.8257, 15.857, 23.0884, 38.1572, -28.6565, -29.8284
3.432, 5, 17.8136, 15.8542, 23.1001, 38.1198, -28.6699, -29.7953
3.436, 5, 17.8, 15.8508, 23.1146, 38.0734, -28.6867, -29.7542
3.439, 5, 17.7848, 15.8467, 23.132, 38.0171, -28.7071, -29.7044
3.444, 5, 17.7681, 15.8419, 23.1525, 37.9503, -28.7313, -29.6453
3.448, 5, 17.7499, 15.8363, 23.1762, 37.8728, -28.7594, -29.5766
3.452, 5, 17.7303, 15.83, 23.2032, 37.7845, -28.7916, -29.4984
3.456, 5, 17.7091, 15.823, 23.2334, 37.6858, -28.8278, -29.4109
3.46, 5, 17.6863, 15.8153, 23.2665, 37.577, -28.8677, -29.3147
3.464, 5, 17.6618, 15.8069, 23.3025, 37.4592, -28.9111, -29.2103
3.468, 5, 17.6357, 15.798, 23.3409, 37.3331, -28.9578, -29.0987
3.472, 5, 17.6082, 15.7886, 23.3817, 37.1998, -29.0073, -28.9808
3.476, 5, 17.5792, 15.7787, 23.4243, 37.0604, -29.0593, -28.8576
3.48, 5, 17.549, 15.7686, 23.4686, 36.916, -29.1135, -28.7299
3.484, 5, 17.5176, 15.7582, 23.5142, 36.7675, -29.1695, -28.5987
3.488, 5, 17.4851, 15.7476, 23.5608, 36.616, -29.227, -28.4649
3.492, 5, 17.4516, 15.7368, 23.6082, 36.4622, -29.2856, -28.3291
3.495, 5, 17.417, 15.726, 23.6562, 36.3069, -29.3452, -28.1921
3.5, 5, 17.3816, 15.7152, 23.7046, 36.1507, -29.4055, -28.0544
3.504, 5, 17.3452, 15.7044, 23.7532, 35.994, -29.4663, -27.9163
3.508, 5, 17.3083, 15.6936, 23.802, 35.8372, -29.5276, -27.7781
3.512, 5, 17.2708, 15.6829, 23.8509, 35.6804, -29.5892, -27.6401
3.516, 5, 17.233, 15.6722, 23.8997, 35.5239, -29.6511, -27.5024
3.52, 5, 17.1949, 15.6616, 23.9486, 35.3676, -29.7133, -27.365
3.524, 5, 17.1567, 15.6511, 23.9974, 35.2118, -29.7757, -27.228
3.528, 5, 17.1183, 15.6407, 24.0461, 35.0565, -29.8383, -27.0915
3.531, 5, 17.0798, 15.6304, 24.0948, 34.9016, -29.9012, -26.9555
3.536, 5, 17.0412, 15.6201, 24.1434, 34.7472, -29.9642, -26.82
3.54, 5, 17.0026, 15.61, 24.1919, 34.5933, -30.0274, -26.6851
3.544, 5, 16.964, 15.5999, 24.2403, 34.44, -30.0908, -26.5506
3.548, 5, 16.9252, 15.59, 24.2886, 34.2872, -30.1544, -26.4167
3.552, 5, 16.8865, 15.5801, 24.3369, 34.1349, -30.2181, -26.2834
3.556, 5, 16.8477, 15.5703, 24.385, 33.9831, -30.2821, -26.1506
3.56, 5, 16.8088, 15.5606, 24.433, 33.8319, -30.3462, -26.0183
3.564, 5, 16.77, 15.5511, 24.481, 33.6812, -30.4104, -25.8865
3.568, 5, 16.731, 15.5416, 24.5288, 33.531, -30.4749, -25.7553
3.572, 5, 16.6921, 15.5322, 24.5766, 33.3814, -30.5395, -25.6247
3.576, 5, 16.6531, 15.5229, 24.6242, 33.2323, -30.6042, -25.4945
3.58, 5, 16.6141, 15.5137, 24.6717, 33.0837, -30.6692, -25.3649
3.584, 5, 16.575, 15.5046, 24.7192, 32.9356, -30.7343, -25.2358
3.587, 5, 16.536, 15.4956, 24.7665, 32.7881, -30.7996, -25.1073
3.592, 5, 16.4969, 15.4867, 24.8138, 32.6411, -30.865, -24.9793
3.596, 5, 16.4577, 15.4779, 24.861, 32.4945, -30.9306, -24.8518
3.6, 5, 16.4185, 15.4692, 24.908, 32.3486, -30.9963, -24.7248
3.604, 5, 16.3793, 15.4606, 24.955, 32.2031, -31.0623, -24.5983
3.608, 5, 16.3401, 15.4521, 25.0018, 32.0581, -31.1283, -24.4724
3.612, 5, 16.3008, 15.4436, 25.0486, 31.9137, -31.1946, -24.347
3.616, 5, 16.2615, 15.4353, 25.0952, 31.7697, -31.261, -24.2221
3.62, 5, 16.2221, 15.4271, 25.1418, 31.6263, -31.3275, -24.0977
3.624, 5, 16.1828, 15.419, 25.1882, 31.4833, -31.3942, -23.9738
3.628, 5, 16.1433, 15.4109, 25.2346, 31.3409, -31.4611, -23.8504
3.632, 5, 16.1039, 15.403, 25.2808, 31.199, -31.5281, -23.7276
3.636, 5, 16.0644, 15.3952, 25.327, 31.0575, -31.5953, -23.6052
3.64, 5, 16.0249, 15.3874, 25.373, 30.9166, -31.6626, -23.4834
3.644, 5, 15.9854, 15.3798, 25.419, 30.7762, -31.73, -23.362
3.648, 5, 15.9458, 15.3723, 25.4648, 30.6362, -31.7977, -23.2412
3.652, 5, 15.9062, 15.3648, 25.5106, 30.4967, -31.8654, -23.1208
3.656, 5, 15.8666, 15.3575, 25.5562, 30.3578, -31.9334, -23.0009
3.66, 5, 15.8269, 15.3503, 25.6018, 30.2193, -32.0014, -22.8816
3.664, 5, 15.7872, 15.3431, 25.6472, 30.0813, -32.0697, -22.7627
3.668, 5, 15.7475, 15.3361, 25.6925, 29.9437, -32.138, -22.6443
3.672, 5, 15.7077, 15.3291, 25.7378, 29.8067, -32.2065, -22.5264
3.676, 5, 15.6679, 15.3223, 25.7829, 29.6701, -32.2752, -22.409
3.679, 5, 15.6281, 15.3156, 25.828, 29.534, -32.344, -22.292
3.684, 5, 15.5882, 15.3089, 25.8729, 29.3984, -32.4129, -22.1756
3.688, 5, 15.5483, 15.3024, 25.9177, 29.2633, -32.482, -22.0596
3.692, 5, 15.5084, 15.2959, 25.9625, 29.1286, -32.5513, -21.9441
3.696, 5, 15.4684, 15.2896, 26.0071, 28.9944, -32.6206, -21.8291
3.7, 5, 15.4284, 15.2833, 26.0516, 28.8607, -32.6901, -21.7145
3.704, 5, 15.3884, 15.2772, 26.0961, 28.7274, -32.7598, -21.6004
3.708, 5, 15.3484, 15.2711, 26.1404, 28.5946, -32.8296, -21.4868
3.712, 5, 15.3083, 15.2652, 26.1846, 28.4622, -32.8995, -21.3737
3.716, 5, 15.2682, 15.2593, 26.2288, 28.3304, -32.9696, -21.261
3.72, 5, 15.228, 15.2536, 26.2728, 28.1989, -33.0398, -21.1488
3.724, 5, 15.1878, 15.2479, 26.3167, 28.0679, -33.1101, -21.0371
3.728, 5, 15.1476, 15.2424, 26.3605, 27.9374, -33.1806, -20.9258
3.732, 5, 15.1074, 15.2369, 26.4043, 27.8074, -33.2512, -20.8149
3.735, 5, 15.0671, 15.2315, 26.4479, 27.6777, -33.3219, -20.7046
3.74, 5, 15.0268, 15.2263, 26.4914, 27.5486, -33.3928, -20.5946
3.744, 5, 14.9865, 15.2211, 26.5348, 27.4198, -33.4638, -20.4852
3.748, 5, 14.9461, 15.2161, 26.5781, 27.2915, -33.535, -20.3762
3.752, 5, 14.9057, 15.2111, 26.6214, 27.1637, -33.6062, -20.2676
3.756, 5, 14.8653, 15.2062, 26.6645, 27.0363, -33.6776, -20.1595
3.76, 5, 14.8248, 15.2015, 26.7075, 26.9093, -33.7491, -20.0518
3.764, 5, 14.7843, 15.1968, 26.7504, 26.7828, -33.8208, -19.9446
3.768, 5, 14.7438, 15.1922, 26.7932, 26.6567, -33.8926, -19.8378
3.772, 5, 14.7033, 15.1877, 26.8359, 26.531, -33.9645, -19.7314
3.776, 5, 14.6627, 15.1834, 26.8786, 26.4058, -34.0365, -19.6255
3.78, 5, 14.6221, 15.1791, 26.9211, 26.281, -34.1087, -19.52
3.784, 5, 14.5814, 15.1749, 26.9635, 26.1566, -34.181, -19.415
3.788, 5, 14.5408, 15.1708, 27.0058, 26.0327, -34.2534, -19.3104
3.792, 5, 14.5001, 15.1669, 27.048, 25.9092, -34.3259, -19.2062
3.796, 5, 14.4593, 15.163, 27.0901, 25.7861, -34.3986, -19.1025
3.8, 5, 14.4186, 15.1592, 27.1322, 25.6634, -34.4714, -18.9991
3.804, 5, 14.3778, 15.1555, 27.1741, 25.5411, -34.5443, -18.8962
3.808, 5, 14.3369, 15.1519, 27.2159, 25.4193, -34.6173, -18.7938
3.812, 5, 14.2961, 15.1484, 27.2576, 25.2978, -34.6905, -18.6917
3.816, 5, 14.2552, 15.145, 27.2992, 25.1768, -34.7637, -18.5901
3.82, 5, 14.2143, 15.1417, 27.3407, 25.0562, -34.8371, -18.4889
3.824, 5, 14.1733, 15.1385, 27.3821, 24.936, -34.9106, -18.3881
3.828, 5, 14.1324, 15.1355, 27.4235, 24.8162, -34.9842, -18.2877
3.832, 5, 14.0914, 15.1325, 27.4647, 24.6968, -35.058, -18.1877
3.836, 5, 14.0503, 15.1296, 27.5058, 24.5778, -35.1318, -18.0882
3.84, 5, 14.0093, 15.1268, 27.5468, 24.4593, -35.2058, -17.989
3.844, 5, 13.9682, 15.1241, 27.5877, 24.3411, -35.2799, -17.8903
3.848, 5, 13.927, 15.1215, 27.6285, 24.2233, -35.3541, -17.7919
3.852, 5, 13.8859, 15.119, 27.6692, 24.1059, -35.4284, -17.694
3.856, 5, 13.8447, 15.1166, 27.7098, 23.9889, -35.5029, -17.5964
3.86, 5, 13.8035, 15.1143, 27.7503, 23.8723, -35.5774, -17.4993
3.864, 5, 13.7622, 15.1121, 27.7907, 23.7561, -35.6521, -17.4026
3.868, 5, 13.721, 15.11, 27.831, 23.6403, -35.7268, -17.3062
3.872, 5, 13.6797, 15.108, 27.8712, 23.5248, -35.8017, -17.2103
3.876, 5, 13.6383, 15.1061, 27.9113, 23.4098, -35.8767, -17.1147
3.88, 5, 13.597, 15.1043, 27.9512, 23.2951, -35.9518, -17.0195
3.884, 5, 13.5556, 15.1026, 27.9911, 23.1808, -36.027, -16.9247
3.888, 5, 13.5142, 15.101, 28.0309, 23.0669, -36.1023, -16.8303
3.892, 5, 13.4727, 15.0995, 28.0706, 22.9533, -36.1777, -16.7363
3.896, 5, 13.4313, 15.0981, 28.1101, 22.8402, -36.2532, -16.6427
3.9, 5, 13.3898, 15.0968, 28.1496, 22.7274, -36.3289, -16.5494
3.904, 5, 13.3482, 15.0956, 28.189, 22.615, -36.4046, -16.4566
3.908, 5, 13.3067, 15.0945, 28.2282, 22.5029, -36.4804, -16.3641
3.912, 5, 13.2651, 15.0935, 28.2674, 22.3912, -36.5564, -16.2719
3.916, 5, 13.2235, 15.0926, 28.3065, 22.2799, -36.6324, -16.1802
3.92, 5, 13.1818, 15.0918, 28.3454, 22.169, -36.7086, -16.0888
3.924, 5, 13.1401, 15.0911, 28.3843, 22.0584, -36.7849, -15.9978
3.928, 5, 13.0984, 15.0905, 28.423, 21.9482, -36.8612, -15.9071
3.932, 5, 13.0567, 15.09, 28.4616, 21.8383, -36.9377, -15.8169
3.936, 5, 13.0149, 15.0897, 28.5002, 21.7288, -37.0142, -15.727
3.94, 5, 12.9731, 15.0894, 28.5386, 21.6196, -37.0909, -15.6374
3.944, 5, 12.9313, 15.0892, 28.5769, 21.5108, -37.1676, -15.5482
3.948, 5, 12.8895, 15.0891, 28.6152, 21.4024, -37.2445, -15.4594
3.952, 5, 12.8476, 15.0891, 28.6533, 21.2943, -37.3215, -15.3709
3.956, 5, 12.8057, 15.0892, 28.6913, 21.1865, -37.3985, -15.2828
3.96, 5, 12.7638, 15.0894, 28.7292, 21.0791, -37.4757, -15.1951
3.964, 5, 12.7218, 15.0897, 28.767, 20.9721, -37.5529, -15.1077
3.968, 5, 12.6799, 15.0902, 28.8047, 20.8654, -37.6303, -15.0206
3.972, 5, 12.6378, 15.0907, 28.8423, 20.759, -37.7077, -14.9339
3.976, 5, 12.5958, 15.0913, 28.8798, 20.653, -37.7852, -14.8476
3.98, 5, 12.5537, 15.092, 28.9172, 20.5473, -37.8629, -14.7616
3.984, 5, 12.5116, 15.0928, 28.9545, 20.442, -37.9406, -14.6759
3.988, 5, 12.4695, 15.0937, 28.9917, 20.337, -38.0184, -14.5906
3.992, 5, 12.4274, 15.0948, 29.0288, 20.2323, -38.0963, -14.5057
3.996, 5, 12.3852, 15.0959, 29.0658, 20.128, -38.1743, -14.421
3.999, 5, 12.343, 15.0971, 29.1026, 20.024, -38.2524, -14.3368
4.004, 5, 12.3008, 15.0984, 29.1394, 19.9203, -38.3306, -14.2528
4.008, 5, 12.2585, 15.0999, 29.1761, 19.817, -38.4089, -14.1692
4.012, 5, 12.2162, 15.1014, 29.2126, 19.714, -38.4873, -14.0859
4.016, 5, 12.1739, 15.103, 29.2491, 19.6113, -38.5657, -14.003
4.02, 5, 12.1316, 15.1047, 29.2854, 19.509, -38.6443, -13.9204
4.024, 5, 12.0892, 15.1066, 29.3217, 19.4069, -38.7229, -13.8381
4.028, 5, 12.0468, 15.1085, 29.3578, 19.3052, -38.8017, -13.7562
4.032, 5, 12.0044, 15.1105, 29.3939, 19.2039, -38.8805, -13.6746
4.036, 5, 11.962, 15.1127, 29.4298, 19.1028, -38.9594, -13.5933
4.04, 5, 11.9195, 15.1149, 29.4656, 19.0021, -39.0384, -13.5124
4.044, 5, 11.877, 15.1172, 29.5014, 18.9016, -39.1175, -13.4317
4.048, 5, 11.8345, 15.1197, 29.537, 18.8015, -39.1967, -13.3514
4.052, 5, 11.7919, 15.1222, 29.5725, 18.7017, -39.2759, -13.2714
4.056, 5, 11.7494, 15.1248, 29.6079, 18.6023, -39.3553, -13.1918
4.06, 5, 11.7068, 15.1276, 29.6432, 18.5031, -39.4347, -13.1124
4.064, 5, 11.6641, 15.1304, 29.6784, 18.4042, -39.5142, -13.0334
4.068, 5, 11.6215, 15.1333, 29.7135, 18.3057, -39.5938, -12.9547
4.072, 5, 11.5788, 15.1364, 29.7485, 18.2074, -39.6735, -12.8763
4.076, 5, 11.5361, 15.1395, 29.7834, 18.1095, -39.7532, -12.7982
4.08, 5, 11.4934, 15.1428, 29.8182, 18.0119, -39.8331, -12.7204
4.084, 5, 11.4506, 15.1461, 29.8528, 17.9145, -39.913, -12.6429
4.088, 5, 11.4078, 15.1495, 29.8874, 17.8175, -39.993, -12.5658
4.092, 5, 11.365, 15.1531, 29.9219, 17.7208, -40.0731, -12.4889
4.096, 5, 11.3222, 15.1567, 29.9562, 17.6243, -40.1533, -12.4124
4.1, 5, 11.2793, 15.1605, 29.9905, 17.5282, -40.2335, -12.3361
4.104, 5, 11.2364, 15.1643, 30.0246, 17.4323, -40.3139, -12.2602
4.108, 5, 11.1935, 15.1683, 30.0587, 17.3368, -40.3943, -12.1846
4.112, 5, 11.1506, 15.1723, 30.0926, 17.2415, -40.4748, -12.1092
4.116, 5, 11.1076, 15.1765, 30.1264, 17.1465, -40.5553, -12.0342
4.12, 5, 11.0647, 15.1808, 30.1602, 17.0519, -40.636, -11.9594
4.124, 5, 11.0216, 15.1851, 30.1938, 16.9575, -40.7167, -11.8849
4.128, 5, 10.9786, 15.1896, 30.2273, 16.8633, -40.7975, -11.8108
4.132, 5, 10.9356, 15.1941, 30.2607, 16.7695, -40.8784, -11.7369
4.136, 5, 10.8925, 15.1988, 30.294, 16.676, -40.9593, -11.6633
4.14, 5, 10.8494, 15.2036, 30.3272, 16.5827, -41.0403, -11.59
4.144, 5, 10.8062, 15.2084, 30.3603, 16.4897, -41.1214, -11.517
4.148, 5, 10.7631, 15.2134, 30.3932, 16.397, -41.2026, -11.4443
4.152, 5, 10.7199, 15.2185, 30.4261, 16.3046, -41.2838, -11.3719
4.156, 5, 10.6767, 15.2236, 30.4589, 16.2124, -41.3652, -11.2997
4.16, 5, 10.6335, 15.2289, 30.4915, 16.1206, -41.4465, -11.2278
4.164, 5, 10.5902, 15.2343, 30.5241, 16.029, -41.528, -11.1562
4.168, 5, 10.547, 15.2397, 30.5565, 15.9376, -41.6095, -11.0849
4.172, 5, 10.5037, 15.2453, 30.5889, 15.8466, -41.6911, -11.0139
4.176, 5, 10.4603, 15.251, 30.6211, 15.7558, -41.7728, -10.9431
4.18, 5, 10.417, 15.2568, 30.6532, 15.6653, -41.8546, -10.8727
4.184, 5, 10.3736, 15.2626, 30.6852, 15.575, -41.9364, -10.8024
4.188, 5, 10.3302, 15.2686, 30.7172, 15.485, -42.0182, -10.7325
4.192, 5, 10.2868, 15.2747, 30.749, 15.3953, -42.1002, -10.6629
4.196, 5, 10.2434, 15.2809, 30.7806, 15.3058, -42.1822, -10.5935
4.2, 5, 10.1999, 15.2872, 30.8122, 15.2166, -42.2643, -10.5243
4.204, 5, 10.1564, 15.2936, 30.8437, 15.1277, -42.3465, -10.4555
4.208, 5, 10.1129, 15.3, 30.8751, 15.039, -42.4287, -10.3869
4.212, 5, 10.0694, 15.3066, 30.9064, 14.9506, -42.511, -10.3186
4.216, 5, 10.0258, 15.3133, 30.9375, 14.8624, -42.5934, -10.2505
4.22, 5, 9.98226, 15.3201, 30.9686, 14.7745, -42.6758, -10.1827
4.224, 5, 9.93866, 15.327, 30.9995, 14.6869, -42.7583, -10.1152
4.228, 5, 9.89504, 15.334, 31.0303, 14.5995, -42.8408, -10.048
4.232, 5, 9.8514, 15.3411, 31.0611, 14.5124, -42.9235, -9.98095
4.236, 5, 9.80773, 15.3483, 31.0917, 14.4255, -43.0061, -9.9142
4.24, 5, 9.76404, 15.3556, 31.1222, 14.3388, -43.0889, -9.84772
4.244, 5, 9.72032, 15.363, 31.1526, 14.2525, -43.1717, -9.78149
4.248, 5, 9.67658, 15.3705, 31.1829, 14.1663, -43.2546, -9.71552
4.252, 5, 9.63282, 15.3782, 31.213, 14.0804, -43.3375, -9.64981
4.256, 5, 9.58903, 15.3859, 31.2431, 13.9948, -43.4205, -9.58435
4.26, 5, 9.54521, 15.3937, 31.2731, 13.9094, -43.5036, -9.51914
4.264, 5, 9.50137, 15.4017, 31.3029, 13.8242, -43.5868, -9.45418
4.268, 5, 9.45751, 15.4098, 31.3326, 13.7393, -43.6699, -9.38947
4.272, 5, 9.41362, 15.418, 31.3622, 13.6547, -43.7532, -9.32502
4.276, 5, 9.36971, 15.4263, 31.3916, 13.5702, -43.8365, -9.26081
4.28, 5, 9.32578, 15.4347, 31.4209, 13.486, -43.9199, -9.19684
4.284, 5, 9.28182, 15.4433, 31.4501, 13.4021, -44.0034, -9.13312
4.288, 5, 9.23784, 15.452, 31.4792, 13.3183, -44.0869, -9.06964
4.292, 5, 9.19383, 15.4608, 31.5081, 13.2348, -44.1705, -9.0064
4.296, 5, 9.1498, 15.4697, 31.5369, 13.1516, -44.2541, -8.94341
4.3, 5, 9.10575, 15.4788, 31.5655, 13.0685, -44.3378, -8.88065
4.304, 5, 9.06168, 15.488, 31.594, 12.9857, -44.4216, -8.81813
4.308, 5, 9.01758, 15.4973, 31.6223, 12.9031, -44.5054, -8.75584
4.312, 5, 8.97346, 15.5068, 31.6505, 12.8208, -44.5893, -8.69379
4.316, 5, 8.92932, 15.5164, 31.6785, 12.7387, -44.6732, -8.63198
4.32, 5, 8.88515, 15.5261, 31.7064, 12.6567, -44.7573, -8.57039
4.324, 5, 8.84096, 15.536, 31.7341, 12.5751, -44.8413, -8.50904
4.328, 5, 8.79674, 15.546, 31.7617, 12.4936, -44.9254, -8.44792
4.332, 5, 8.7525, 15.5562, 31.7891, 12.4123, -45.0096, -8.38703
4.336, 5, 8.70823, 15.5665, 31.8164, 12.3313, -45.0939, -8.32637
4.34, 5, 8.66394, 15.577, 31.8435, 12.2505, -45.1782, -8.26593
4.344, 5, 8.61963, 15.5876, 31.8704, 12.1699, -45.2626, -8.20573
4.348, 5, 8.5753, 15.5983, 31.8972, 12.0895, -45.347, -8.14574
4.352, 5, 8.53094, 15.6092, 31.9238, 12.0093, -45.4314, -8.08599
4.356, 5, 8.48655, 15.6202, 31.9503, 11.9294, -45.516, -8.02645
4.36, 5, 8.44215, 15.6314, 31.9766, 11.8497, -45.6006, -7.96714
4.364, 5, 8.39772, 15.6427, 32.0027, 11.7701, -45.6852, -7.90805
4.368, 5, 8.35327, 15.6542, 32.0287, 11.6908, -45.7699, -7.84918
4.372, 5, 8.3088, 15.6658, 32.0545, 11.6117, -45.8546, -7.79053
4.376, 5, 8.2643, 15.6776, 32.0801, 11.5328, -45.9394, -7.7321
4.38, 5, 8.21979, 15.6895, 32.1056, 11.4541, -46.0243, -7.67389
4.384, 5, 8.17525, 15.7016, 32.1309, 11.3756, -46.1092, -7.61589
4.388, 5, 8.13069, 15.7138, 32.1561, 11.2974, -46.1942, -7.55812
4.392, 5, 8.08611, 15.7261, 32.181, 11.2193, -46.2792, -7.50055
4.396, 5, 8.0415, 15.7387, 32.2058, 11.1414, -46.3642, -7.4432
4.4, 5, 7.99688, 15.7513, 32.2305, 11.0638, -46.4494, -7.38607
4.404, 5, 7.95224, 15.7641, 32.255, 10.9863, -46.5345, -7.32915
4.408, 5, 7.90757, 15.7771, 32.2793, 10.9091, -46.6197, -7.27244
4.412, 5, 7.86288, 15.7902, 32.3034, 10.832, -46.705, -7.21594
4.416, 5, 7.81818, 15.8035, 32.3274, 10.7552, -46.7903, -7.15965
4.42, 5, 7.77345, 15.8169, 32.3511, 10.6785, -46.8757, -7.10357
4.424, 5, 7.7287, 15.8304, 32.3748, 10.6021, -46.9611, -7.0477
4.428, 5, 7.68394, 15.8442, 32.3982, 10.5259, -47.0466, -6.99204
4.432, 5, 7.63915, 15.858, 32.4215, 10.4498, -47.1321, -6.93658
4.436, 5, 7.59435, 15.8721, 32.4446, 10.374, -47.2176, -6.88133
4.44, 5, 7.54952, 15.8862, 32.4675, 10.2983, -47.3032, -6.82629
4.444, 5, 7.50468, 15.9006, 32.4903, 10.2229, -47.3889, -6.77145
4.448, 5, 7.45981, 15.9151, 32.5128, 10.1476, -47.4745, -6.71681
4.452, 5, 7.41493, 15.9297, 32.5352, 10.0725, -47.5603, -6.66238
4.456, 5, 7.37003, 15.9445, 32.5574, 9.99765, -47.6461, -6.60815
4.46, 5, 7.32511, 15.9595, 32.5795, 9.92297, -47.7319, -6.55412
4.464, 5, 7.28017, 15.9746, 32.6013, 9.84848, -47.8178, -6.5003
4.468, 5, 7.23522, 15.9899, 32.623, 9.77419, -47.9037, -6.44667
4.472, 5, 7.19024, 16.0053, 32.6445, 9.70009, -47.9896, -6.39325
4.476, 5, 7.14525, 16.0209, 32.6658, 9.62617, -48.0756, -6.34002
4.48, 5, 7.10024, 16.0366, 32.687, 9.55245, -48.1617, -6.28699
4.484, 5, 7.05521, 16.0525, 32.7079, 9.47891, -48.2478, -6.23416
4.488, 5, 7.01016, 16.0686, 32.7287, 9.40557, -48.3339, -6.18152
4.492, 5, 6.9651, 16.0848, 32.7493, 9.33241, -48.42, -6.12908
4.496, 5, 6.92002, 16.1012, 32.7697, 9.25944, -48.5063, -6.07684
4.5, 5, 6.87492, 16.1177, 32.79, 9.18666, -48.5925, -6.02479
4.504, 5, 6.82981, 16.1344, 32.81, 9.11406, -48.6788, -5.97293
4.508, 5, 6.78468, 16.1513, 32.8299, 9.04165, -48.7651, -5.92127
4.512, 5, 6.73953, 16.1683, 32.8495, 8.96942, -48.8515, -5.8698
4.516, 5, 6.69437, 16.1855, 32.869, 8.89738, -48.9379, -5.81852
4.52, 5, 6.64919, 16.2028, 32.8883, 8.82551, -49.0244, -5.76743
4.524, 5, 6.604, 16.2203, 32.9074, 8.75384, -49.1109, -5.71654
4.528, 5, 6.55879, 16.238, 32.9264, 8.68234, -49.1974, -5.66583
4.532, 5, 6.51356, 16.2558, 32.9451, 8.61103, -49.2839, -5.61532
4.536, 5, 6.46832, 16.2738, 32.9636, 8.5399, -49.3705, -5.56499
4.54, 5, 6.42307, 16.292, 32.982, 8.46894, -49.4572, -5.51485
4.544, 5, 6.3778, 16.3103, 33.0001, 8.39817, -49.5439, -5.4649
4.548, 5, 6.33252, 16.3288, 33.0181, 8.32758, -49.6306, -5.41513
4.552, 5, 6.28723, 16.3475, 33.0359, 8.25716, -49.7173, -5.36555
4.556, 5, 6.24192, 16.3663, 33.0535, 8.18693, -49.8041, -5.31615
4.56, 5, 6.1966, 16.3853, 33.0709, 8.11687, -49.8909, -5.26694
4.564, 5, 6.15126, 16.4044, 33.0881, 8.04699, -49.9778, -5.21791
4.568, 5, 6.10592, 16.4237, 33.1051, 7.97728, -50.0646, -5.16907
4.572, 5, 6.06056, 16.4432, 33.1219, 7.90775, -50.1515, -5.1204
4.576, 5, 6.01518, 16.4628, 33.1385, 7.8384, -50.2385, -5.07192
4.58, 5, 5.9698, 16.4827, 33.1549, 7.76922, -50.3254, -5.02362
4.584, 5, 5.92441, 16.5026, 33.1711, 7.70021, -50.4124, -4.9755
4.588, 5, 5.879, 16.5228, 33.1871, 7.63138, -50.4995, -4.92756
4.592, 5, 5.83359, 16.5431, 33.2029, 7.56272, -50.5865, -4.8798
4.596, 5, 5.78816, 16.5636, 33.2185, 7.49423, -50.6736, -4.83221
4.6, 5, 5.74273, 16.5842, 33.2339, 7.42592, -50.7607, -4.7848
4.604, 5, 5.69729, 16.605, 33.2491, 7.35778, -50.8478, -4.73757
4.608, 5, 5.65183, 16.626, 33.2641, 7.28981, -50.935, -4.69052
4.612, 5, 5.60637, 16.6472, 33.2789, 7.22201, -51.0222, -4.64364
4.616, 5, 5.5609, 16.6685, 33.2935, 7.15438, -51.1094, -4.59693
4.62, 5, 5.51542, 16.69, 33.3079, 7.08692, -51.1966, -4.5504
4.624, 5, 5.46994, 16.7116, 33.3221, 7.01963, -51.2838, -4.50405
4.628, 5, 5.42445, 16.7335, 33.3361, 6.95252, -51.3711, -4.45786
4.632, 5, 5.37895, 16.7554, 33.3499, 6.88556, -51.4584, -4.41185
4.636, 5, 5.33344, 16.7776, 33.3635, 6.81878, -51.5457, -4.36601
4.64, 5, 5.28793, 16.7999, 33.3769, 6.75217, -51.633, -4.32034
4.644, 5, 5.24241, 16.8224, 33.39, 6.68572, -51.7204, -4.27484
4.648, 5, 5.19689, 16.8451, 33.403, 6.61944, -51.8077, -4.22951
4.652, 5, 5.15136, 16.8679, 33.4158, 6.55333, -51.8951, -4.18435
4.656, 5, 5.10583, 16.8909, 33.4283, 6.48738, -51.9825, -4.13936
4.66, 5, 5.06029, 16.9141, 33.4406, 6.4216, -52.0699, -4.09454
4.664, 5, 5.01475, 16.9374, 33.4528, 6.35598, -52.1573, -4.04989
4.668, 5, 4.96921, 16.961, 33.4647, 6.29053, -52.2447, -4.0054
4.672, 5, 4.92366, 16.9846, 33.4764, 6.22524, -52.3322, -3.96108
4.676, 5, 4.87811, 17.0085, 33.4879, 6.16012, -52.4197, -3.91692
4.68, 5, 4.83256, 17.0325, 33.4991, 6.09516, -52.5071, -3.87293
4.684, 5, 4.787, 17.0567, 33.5102, 6.03037, -52.5946, -3.82911
4.688, 5, 4.74145, 17.0811, 33.521, 5.96573, -52.6821, -3.78544
4.692, 5, 4.69589, 17.1056, 33.5317, 5.90126, -52.7696, -3.74195
4.696, 5, 4.65033, 17.1303, 33.5421, 5.83695, -52.8571, -3.69861
4.7, 5, 4.60476, 17.1552, 33.5523, 5.77281, -52.9447, -3.65544
4.704, 5, 4.5592, 17.1802, 33.5623, 5.70882, -53.0322, -3.61243
4.708, 5, 4.51364, 17.2055, 33.5721, 5.645, -53.1197, -3.56958
4.712, 5, 4.46808, 17.2309, 33.5816, 5.58133, -53.2073, -3.5269
4.716, 5, 4.42252, 17.2564, 33.591, 5.51783, -53.2948, -3.48437
4.72, 5, 4.37696, 17.2821, 33.6001, 5.45449, -53.3824, -3.442
4.724, 5, 4.3314, 17.3081, 33.609, 5.3913, -53.47, -3.3998
4.728, 5, 4.28584, 17.3341, 33.6177, 5.32828, -53.5575, -3.35775
4.732, 5, 4.24028, 17.3604, 33.6262, 5.26541, -53.6451, -3.31586
4.736, 5, 4.19472, 17.3868, 33.6344, 5.2027, -53.7327, -3.27413
4.74, 5, 4.14917, 17.4134, 33.6424, 5.14015, -53.8203, -3.23255
4.744, 5, 4.10362, 17.4402, 33.6502, 5.07776, -53.9078, -3.19114
4.748, 5, 4.05807, 17.4671, 33.6578, 5.01553, -53.9954, -3.14988
4.752, 5, 4.01253, 17.4942, 33.6652, 4.95345, -54.083, -3.10877
4.756, 5, 3.96699, 17.5215, 33.6723, 4.89153, -54.1706, -3.06782
4.76, 5, 3.92145, 17.549, 33.6792, 4.82977, -54.2582, -3.02703
4.764, 5, 3.87592, 17.5766, 33.6859, 4.76816, -54.3458, -2.98639
4.768, 5, 3.83039, 17.6045, 33.6924, 4.70671, -54.4333, -2.9459
4.772, 5, 3.78486, 17.6324, 33.6986, 4.64541, -54.5209, -2.90557
4.776, 5, 3.73934, 17.6606, 33.7046, 4.58427, -54.6085, -2.8654
4.78, 5, 3.69383, 17.689, 33.7104, 4.52328, -54.6961, -2.82537
4.784, 5, 3.64832, 17.7175, 33.7159, 4.46245, -54.7836, -2.7855
4.788, 5, 3.60282, 17.7462, 33.7213, 4.40178, -54.8712, -2.74578
4.792, 5, 3.55733, 17.775, 33.7264, 4.34125, -54.9587, -2.70621
4.796, 5, 3.51184, 17.8041, 33.7312, 4.28088, -55.0463, -2.66679
4.8, 5, 3.46636, 17.8333, 33.7359, 4.22067, -55.1338, -2.62753
4.804, 5, 3.42089, 17.8627, 33.7403, 4.16061, -55.2214, -2.58841
4.808, 5, 3.37543, 17.8923, 33.7444, 4.1007, -55.3089, -2.54944
4.812, 5, 3.32998, 17.922, 33.7484, 4.04094, -55.3964, -2.51063
4.816, 5, 3.28453, 17.9519, 33.7521, 3.98134, -55.484, -2.47196
4.82, 5, 3.2391, 17.982, 33.7556, 3.92188, -55.5715, -2.43344
4.824, 5, 3.19367, 18.0123, 33.7588, 3.86259, -55.6589, -2.39507
4.828, 5, 3.14826, 18.0428, 33.7618, 3.80344, -55.7464, -2.35685
4.832, 5, 3.10286, 18.0734, 33.7645, 3.74444, -55.8339, -2.31877
4.836, 5, 3.05746, 18.1042, 33.7671, 3.6856, -55.9213, -2.28085
4.84, 5, 3.01208, 18.1352, 33.7694, 3.6269, -56.0088, -2.24306
4.844, 5, 2.96672, 18.1664, 33.7714, 3.56836, -56.0962, -2.20543
4.848, 5, 2.92136, 18.1977, 33.7732, 3.50997, -56.1836, -2.16794
4.852, 5, 2.87602, 18.2293, 33.7748, 3.45173, -56.271, -2.13059
4.856, 5, 2.83069, 18.261, 33.7761, 3.39364, -56.3584, -2.09338
4.86, 5, 2.78537, 18.2928, 33.7772, 3.33569, -56.4457, -2.05632
4.864, 5, 2.74007, 18.3249, 33.7781, 3.2779, -56.5331, -2.01941
4.868, 5, 2.69479, 18.3571, 33.7787, 3.22026, -56.6204, -1.98263
4.872, 5, 2.64951, 18.3895, 33.7791, 3.16276, -56.7076, -1.946
4.876, 5, 2.60426, 18.4221, 33.7793, 3.10542, -56.7949, -1.90951
4.88, 5, 2.55902, 18.4548, 33.7792, 3.04822, -56.8821, -1.87315
4.884, 5, 2.5138, 18.4877, 33.7788, 2.99117, -56.9694, -1.83694
4.888, 5, 2.46859, 18.5208, 33.7783, 2.93426, -57.0565, -1.80087
4.892, 5, 2.42341, 18.5541, 33.7775, 2.87751, -57.1437, -1.76493
4.896, 5, 2.37824, 18.5875, 33.7764, 2.8209, -57.2308, -1.72914
4.9, 5, 2.33309, 18.6211, 33.7751, 2.76444, -57.3179, -1.69348
4.904, 5, 2.28796, 18.6549, 33.7736, 2.70813, -57.405, -1.65796
4.908, 5, 2.24284, 18.6888, 33.7719, 2.65196, -57.4921, -1.62257
4.912, 5, 2.19775, 18.7229, 33.7699, 2.59594, -57.5791, -1.58732
4.916, 5, 2.15268, 18.7572, 33.7676, 2.54007, -57.666, -1.55221
4.92, 5, 2.10763, 18.7916, 33.7652, 2.48434, -57.753, -1.51723
4.924, 5, 2.0626, 18.8263, 33.7624, 2.42876, -57.8399, -1.48238
4.928, 5, 2.01759, 18.861, 33.7595, 2.37332, -57.9268, -1.44767
4.932, 5, 1.9726, 18.896, 33.7563, 2.31803, -58.0136, -1.41309
4.936, 5, 1.92764, 18.9311, 33.7529, 2.26288, -58.1004, -1.37865
4.94, 5, 1.8827, 18.9664, 33.7492, 2.20788, -58.1872, -1.34434
4.944, 5, 1.83778, 19.0018, 33.7453, 2.15302, -58.2739, -1.31015
4.948, 5, 1.79289, 19.0374, 33.7411, 2.09831, -58.3606, -1.2761
4.952, 5, 1.74802, 19.0732, 33.7367, 2.04374, -58.4473, -1.24218
4.956, 5, 1.70317, 19.1092, 33.7321, 1.98931, -58.5339, -1.20839
4.96, 5, 1.65835, 19.1453, 33.7272, 1.93503, -58.6204, -1.17473
4.964, 5, 1.61356, 19.1815, 33.7221, 1.88089, -58.7069, -1.1412
4.968, 5, 1.56879, 19.218, 33.7168, 1.82689, -58.7934, -1.1078
4.972, 5, 1.52405, 19.2546, 33.7112, 1.77304, -58.8798, -1.07452
4.976, 5, 1.47933, 19.2913, 33.7054, 1.71932, -58.9662, -1.04138
4.98, 5, 1.43465, 19.3282, 33.6993, 1.66576, -59.0526, -1.00836
4.984, 5, 1.38999, 19.3653, 33.693, 1.61233, -59.1389, -0.975461
4.988, 5, 1.34535, 19.4026, 33.6864, 1.55904, -59.2251, -0.942693
4.992, 5, 1.30075, 19.44, 33.6797, 1.5059, -59.3113, -0.91005
4.996, 5, 1.25617, 19.4775, 33.6726, 1.4529, -59.3974, -0.877533
5, 5, 1.21163, 19.5153, 33.6654, 1.40004, -59.4835, -0.84514
5.004, 5, 1.16711, 19.5531, 33.6578, 1.34732, -59.5696, -0.812871
5.008, 5, 1.12263, 19.5912, 33.6501, 1.29474, -59.6556, -0.780725
5.012, 5, 1.07817, 19.6294, 33.6421, 1.2423, -59.7415, -0.748703
5.016, 5, 1.03375, 19.6677, 33.6339, 1.19, -59.8274, -0.716803
5.02, 5, 0.989355, 19.7062, 33.6254, 1.13785, -59.9132, -0.685026
5.024, 5, 0.944994, 19.7449, 33.6167, 1.08583, -59.999, -0.65337
5.028, 5, 0.900664, 19.7837, 33.6077, 1.03395, -60.0847, -0.621835
5.032, 5, 0.856368, 19.8227, 33.5985, 0.982216, -60.1703, -0.590421
5.036, 5, 0.812104, 19.8619, 33.5891, 0.930617, -60.2559, -0.559127
5.04, 5, 0.767874, 19.9012, 33.5794, 0.879158, -60.3415, -0.527953
5.044, 5, 0.723677, 19.9406, 33.5695, 0.827839, -60.427, -0.496898
5.048, 5, 0.679515, 19.9802, 33.5594, 0.776658, -60.5124, -0.465962
5.052, 5, 0.635387, 20.02, 33.549, 0.725615, -60.5977, -0.435145
5.056, 5, 0.591294, 20.0599, 33.5383, 0.674711, -60.683, -0.404445
5.06, 6, 0.547236, 20.1, 33.5274, 0.623946, -60.7683, -0.373863
5.064, 6, 0.503214, 20.1402, 33.5163, 0.573318, -60.8534, -0.343398
5.068, 6, 0.459228, 20.1806, 33.5049, 0.522829, -60.9385, -0.31305
5.072, 6, 0.415278, 20.2211, 33.4933, 0.472477, -61.0236, -0.282818
5.076, 6, 0.371366, 20.2618, 33.4815, 0.422263, -61.1086, -0.252701
5.08, 6, 0.32749, 20.3026, 33.4694, 0.372186, -61.1935, -0.2227
5.084, 6, 0.283653, 20.3436, 33.457, 0.322247, -61.2783, -0.192814
5.088, 6, 0.239853, 20.3847, 33.4445, 0.272444, -61.3631, -0.163042
5.092, 6, 0.196092, 20.426, 33.4316, 0.222778, -61.4478, -0.133384
5.096, 6, 0.152369, 20.4675, 33.4186, 0.173249, -61.5324, -0.103839
5.1, 6, 0.108686, 20.5091, 33.4053, 0.123857, -61.617, -0.0744081
5.104, 6, 0.0650421, 20.5508, 33.3917, 0.0746007, -61.7015, -0.0450895
5.108, 6, 0.0214382, 20.5927, 33.3779, 0.0254807, -61.7859, -0.0158831
5.112, 6, -0.0221254, 20.6347, 33.3639, -0.0235033, -61.8702, 0.0132114
5.116, 6, -0.0656483, 20.6769, 33.3496, -0.0723515, -61.9545, 0.0421944
5.12, 6, -0.10913, 20.7192, 33.3351, -0.121064, -62.0387, 0.0710665
5.124, 6, -0.152571, 20.7617, 33.3203, -0.169641, -62.1228, 0.0998279
5.128, 6, -0.195969, 20.8043, 33.3053, -0.218083, -62.2068, 0.128479
5.132, 6, -0.239326, 20.8471, 33.29, -0.266389, -62.2908, 0.157021
5.136, 6, -0.282639, 20.89, 33.2745, -0.314561, -62.3747, 0.185453
5.14, 6, -0.32591, 20.9331, 33.2588, -0.362597, -62.4585, 0.213776
5.144, 6, -0.369138, 20.9763, 33.2428, -0.410499, -62.5422, 0.241991
5.148, 6, -0.412322, 21.0197, 33.2266, -0.458267, -62.6259, 0.270097
5.152, 6, -0.455462, 21.0632, 33.2101, -0.5059, -62.7094, 0.298096
5.156, 6, -0.498558, 21.1069, 33.1934, -0.553399, -62.7929, 0.325988
5.16, 6, -0.541608, 21.1507, 33.1764, -0.600764, -62.8763, 0.353772
5.164, 6, -0.584614, 21.1946, 33.1592, -0.647994, -62.9597, 0.38145
5.168, 6, -0.627574, 21.2387, 33.1417, -0.695091, -63.0429, 0.409022
5.172, 6, -0.670489, 21.2829, 33.124, -0.742055, -63.1261, 0.436488
5.176, 6, -0.713357, 21.3273, 33.1061, -0.788885, -63.2091, 0.463849
5.18, 6, -0.756178, 21.3718, 33.0879, -0.835582, -63.2921, 0.491105
5.184, 6, -0.798953, 21.4165, 33.0695, -0.882145, -63.375, 0.518256
5.188, 6, -0.84168, 21.4613, 33.0508, -0.928576, -63.4578, 0.545303
5.192, 6, -0.884359, 21.5062, 33.0319, -0.974873, -63.5406, 0.572246
5.196, 6, -0.926989, 21.5513, 33.0127, -1.02104, -63.6232, 0.599086
5.2, 6, -0.969572, 21.5966, 32.9933, -1.06707, -63.7057, 0.625823
5.204, 6, -1.0121, 21.6419, 32.9736, -1.11297, -63.7882, 0.652458
5.208, 6, -1.05459, 21.6874, 32.9537, -1.15874, -63.8705, 0.67899
5.212, 6, -1.09702, 21.7331, 32.9335, -1.20437, -63.9528, 0.70542
5.216, 6, -1.1394, 21.7789, 32.9131, -1.24988, -64.035, 0.73175
5.22, 6, -1.18174, 21.8248, 32.8925, -1.29525, -64.1171, 0.757979
5.224, 6, -1.22402, 21.8709, 32.8716, -1.34049, -64.1991, 0.784108
5.228, 6, -1.26625, 21.9171, 32.8505, -1.3856, -64.281, 0.810138
5.232, 6, -1.30843, 21.9634, 32.8291, -1.43058, -64.3628, 0.836068
5.236, 6, -1.35056, 22.0099, 32.8075, -1.47542, -64.4445, 0.861901
5.24, 6, -1.39264, 22.0565, 32.7856, -1.52014, -64.5261, 0.887636
5.244, 6, -1.43467, 22.1032, 32.7635, -1.56473, -64.6076, 0.913274
5.248, 6, -1.47664, 22.1501, 32.7412, -1.60919, -64.689, 0.938816
5.252, 6, -1.51856, 22.1971, 32.7186, -1.65351, -64.7703, 0.964262
5.256, 6, -1.56043, 22.2442, 32.6958, -1.69771, -64.8515, 0.989613
5.26, 6, -1.60225, 22.2915, 32.6727, -1.74178, -64.9326, 1.01487
5.264, 6, -1.64402, 22.3389, 32.6494, -1.78572, -65.0136, 1.04003
5.268, 6, -1.68573, 22.3864, 32.6258, -1.82954, -65.0945, 1.0651
5.272, 6, -1.72738, 22.4341, 32.6021, -1.87322, -65.1753, 1.09008
5.276, 6, -1.76899, 22.4818, 32.578, -1.91678, -65.256, 1.11496
5.28, 6, -1.81054, 22.5297, 32.5538, -1.96021, -65.3366, 1.13975
5.284, 6, -1.85203, 22.5777, 32.5293, -2.00351, -65.4171, 1.16445
5.288, 6, -1.89347, 22.6259, 32.5046, -2.04669, -65.4974, 1.18906
5.292, 6, -1.93486, 22.6742, 32.4796, -2.08974, -65.5777, 1.21358
5.296, 6, -1.97619, 22.7225, 32.4544, -2.13267, -65.6579, 1.23802
5.3, 6, -2.01747, 22.7711, 32.429, -2.17546, -65.738, 1.26236
5.304, 6, -2.05869, 22.8197, 32.4033, -2.21814, -65.8179, 1.28661
5.308, 6, -2.09985, 22.8684, 32.3774, -2.26069, -65.8978, 1.31078
5.312, 6, -2.14097, 22.9173, 32.3513, -2.30311, -65.9775, 1.33485
5.316, 6, -2.18202, 22.9663, 32.325, -2.34541, -66.0572, 1.35885
5.32, 6, -2.22302, 23.0154, 32.2984, -2.38759, -66.1367, 1.38275
5.324, 6, -2.26396, 23.0646, 32.2716, -2.42964, -66.2162, 1.40657
5.328, 6, -2.30485, 23.114, 32.2445, -2.47157, -66.2955, 1.4303
5.332, 6, -2.34568, 23.1634, 32.2172, -2.51338, -66.3747, 1.45395
5.336, 6, -2.38646, 23.213, 32.1897, -2.55506, -66.4538, 1.47752
5.34, 6, -2.42718, 23.2627, 32.162, -2.59662, -66.5328, 1.501
5.344, 6, -2.46784, 23.3125, 32.1341, -2.63806, -66.6117, 1.52439
5.348, 6, -2.50845, 23.3624, 32.1059, -2.67938, -66.6904, 1.54771
5.352, 6, -2.549, 23.4124, 32.0775, -2.72057, -66.7691, 1.57094
5.356, 6, -2.58949, 23.4625, 32.0488, -2.76165, -66.8477, 1.59409
5.36, 6, -2.62993, 23.5128, 32.02, -2.8026, -66.9261, 1.61716
5.364, 6, -2.6703, 23.5631, 31.9909, -2.84343, -67.0044, 1.64015
5.368, 6, -2.71063, 23.6136, 31.9616, -2.88414, -67.0826, 1.66306
5.372, 6, -2.75089, 23.6641, 31.932, -2.92473, -67.1608, 1.68589
5.376, 6, -2.7911, 23.7148, 31.9023, -2.96521, -67.2388, 1.70864
5.38, 6, -2.83125, 23.7656, 31.8723, -3.00556, -67.3166, 1.73131
5.384, 6, -2.87134, 23.8165, 31.8421, -3.04579, -67.3944, 1.7539
5.388, 6, -2.91137, 23.8675, 31.8117, -3.0859, -67.4721, 1.77642
5.392, 6, -2.95134, 23.9186, 31.781, -3.1259, -67.5496, 1.79886
5.396, 6, -2.99126, 23.9698, 31.7501, -3.16578, -67.627, 1.82122
5.4, 6, -3.03112, 24.0211, 31.7191, -3.20554, -67.7043, 1.8435
5.404, 6, -3.07092, 24.0725, 31.6878, -3.24518, -67.7815, 1.86571
5.408, 6, -3.11066, 24.124, 31.6562, -3.2847, -67.8586, 1.88785
5.412, 6, -3.15034, 24.1756, 31.6245, -3.3241, -67.9356, 1.9099
5.416, 6, -3.18997, 24.2273, 31.5925, -3.36339, -68.0124, 1.93189
5.42, 6, -3.22953, 24.2791, 31.5603, -3.40257, -68.0891, 1.9538
5.424, 6, -3.26903, 24.331, 31.5279, -3.44162, -68.1657, 1.97564
5.428, 6, -3.30848, 24.3831, 31.4953, -3.48056, -68.2422, 1.9974
5.432, 6, -3.34787, 24.4352, 31.4625, -3.51938, -68.3186, 2.01909
5.436, 6, -3.38719, 24.4874, 31.4294, -3.55809, -68.3949, 2.04071
5.44, 6, -3.42646, 24.5397, 31.3962, -3.59668, -68.471, 2.06226
5.444, 6, -3.46567, 24.5921, 31.3627, -3.63516, -68.547, 2.08374
5.448, 6, -3.50481, 24.6446, 31.329, -3.67352, -68.6229, 2.10515
5.452, 6, -3.5439, 24.6971, 31.2951, -3.71177, -68.6987, 2.12648
5.456, 6, -3.58293, 24.7498, 31.261, -3.7499, -68.7743, 2.14775
5.46, 6, -3.62189, 24.8026, 31.2267, -3.78792, -68.8499, 2.16895
5.464, 6, -3.6608, 24.8555, 31.1921, -3.82582, -68.9253, 2.19008
5.468, 6, -3.69964, 24.9084, 31.1573, -3.86361, -69.0006, 2.21114
5.472, 6, -3.73843, 24.9615, 31.1224, -3.90129, -69.0757, 2.23213
5.476, 6, -3.77715, 25.0146, 31.0872, -3.93885, -69.1508, 2.25306
5.48, 6, -3.81581, 25.0679, 31.0518, -3.97631, -69.2257, 2.27391
5.484, 6, -3.85441, 25.1212, 31.0162, -4.01364, -69.3005, 2.29471
5.488, 6, -3.89295, 25.1746, 30.9804, -4.05087, -69.3752, 2.31543
5.492, 6, -3.93143, 25.2281, 30.9444, -4.08798, -69.4497, 2.33609
5.496, 6, -3.96984, 25.2817, 30.9081, -4.12498, -69.5242, 2.35669
5.5, 6, -4.0082, 25.3353, 30.8717, -4.16187, -69.5985, 2.37722
5.504, 6, -4.04649, 25.3891, 30.835, -4.19865, -69.6726, 2.39769
5.508, 6, -4.08472, 25.443, 30.7982, -4.23532, -69.7467, 2.41809
5.512, 6, -4.12288, 25.4969, 30.7611, -4.27188, -69.8206, 2.43843
5.516, 6, -4.16099, 25.5509, 30.7239, -4.30832, -69.8944, 2.4587
5.52, 6, -4.19903, 25.605, 30.6864, -4.34466, -69.9681, 2.47892
5.524, 6, -4.23701, 25.6592, 30.6487, -4.38088, -70.0416, 2.49907
5.528, 6, -4.27493, 25.7134, 30.6108, -4.417, -70.115, 2.51916
5.532, 6, -4.31278, 25.7678, 30.5727, -4.453, -70.1883, 2.53919
5.536, 6, -4.35058, 25.8222, 30.5344, -4.4889, -70.2615, 2.55916
5.54, 6, -4.38831, 25.8767, 30.4959, -4.52468, -70.3345, 2.57907
5.544, 6, -4.42598, 25.9313, 30.4572, -4.56036, -70.4074, 2.59891
5.548, 6, -4.46358, 25.986, 30.4183, -4.59593, -70.4802, 2.6187
5.552, 6, -4.50112, 26.0407, 30.3792, -4.63139, -70.5528, 2.63843
5.556, 6, -4.53861, 26.0955, 30.3398, -4.66674, -70.6254, 2.65811
5.56, 6, -4.57602, 26.1505, 30.3003, -4.70198, -70.6977, 2.67772
5.564, 6, -4.61338, 26.2054, 30.2606, -4.73712, -70.77, 2.69728
5.568, 6, -4.65067, 26.2605, 30.2207, -4.77215, -70.8421, 2.71678
5.572, 6, -4.6879, 26.3156, 30.1806, -4.80708, -70.9141, 2.73622
5.576, 6, -4.72507, 26.3708, 30.1403, -4.84189, -70.986, 2.75561
5.58, 6, -4.76218, 26.4261, 30.0997, -4.8766, -71.0577, 2.77495
5.584, 6, -4.79922, 26.4814, 30.059, -4.91121, -71.1293, 2.79423
5.588, 6, -4.8362, 26.5369, 30.0181, -4.94571, -71.2008, 2.81345
5.592, 6, -4.87312, 26.5924, 29.977, -4.98011, -71.2721, 2.83262
5.596, 6, -4.90998, 26.6479, 29.9357, -5.0144, -71.3434, 2.85174
5.6, 6, -4.94677, 26.7036, 29.8942, -5.04859, -71.4144, 2.8708
5.604, 6, -4.9835, 26.7593, 29.8526, -5.08267, -71.4854, 2.88982
5.608, 6, -5.02018, 26.8151, 29.8107, -5.11666, -71.5562, 2.90878
5.612, 6, -5.05678, 26.8709, 29.7686, -5.15053, -71.6269, 2.92769
5.616, 6, -5.09333, 26.9268, 29.7263, -5.18431, -71.6975, 2.94654
5.62, 6, -5.12982, 26.9828, 29.6839, -5.21798, -71.768, 2.96535
5.624, 6, -5.16624, 27.0389, 29.6413, -5.25156, -71.8383, 2.98411
5.628, 6, -5.2026, 27.095, 29.5984, -5.28503, -71.9085, 3.00281
5.632, 6, -5.23891, 27.1512, 29.5554, -5.3184, -71.9785, 3.02147
5.636, 6, -5.27515, 27.2074, 29.5122, -5.35167, -72.0485, 3.04008
5.64, 6, -5.31133, 27.2637, 29.4688, -5.38484, -72.1183, 3.05864
5.644, 6, -5.34745, 27.3201, 29.4252, -5.41791, -72.1879, 3.07715
5.648, 6, -5.3835, 27.3766, 29.3814, -5.45087, -72.2575, 3.09561
5.652, 6, -5.4195, 27.4331, 29.3375, -5.48374, -72.3269, 3.11403
5.656, 6, -5.45544, 27.4897, 29.2933, -5.51652, -72.3962, 3.1324
5.66, 6, -5.49132, 27.5463, 29.249, -5.54919, -72.4654, 3.15072
5.664, 6, -5.52713, 27.603, 29.2045, -5.58176, -72.5344, 3.169
5.668, 6, -5.56289, 27.6598, 29.1598, -5.61424, -72.6033, 3.18723
5.672, 6, -5.59859, 27.7166, 29.1149, -5.64662, -72.6721, 3.20542
5.676, 6, -5.63423, 27.7735, 29.0699, -5.6789, -72.7408, 3.22356
5.68, 6, -5.66981, 27.8304, 29.0246, -5.71108, -72.8093, 3.24166
5.684, 6, -5.70532, 27.8874, 28.9792, -5.74317, -72.8777, 3.25971
5.688, 6, -5.74078, 27.9445, 28.9336, -5.77516, -72.946, 3.27772
5.692, 6, -5.77618, 28.0016, 28.8878, -5.80705, -73.0141, 3.29569
5.696, 6, -5.81153, 28.0588, 28.8419, -5.83885, -73.0821, 3.31361
5.7, 6, -5.84681, 28.116, 28.7958, -5.87056, -73.15, 3.33149
5.704, 6, -5.88203, 28.1733, 28.7494, -5.90216, -73.2178, 3.34933
5.708, 6, -5.9172, 28.2307, 28.7029, -5.93368, -73.2855, 3.36713
5.712, 6, -5.9523, 28.2881, 28.6563, -5.9651, -73.353, 3.38488
5.716, 6, -5.98735, 28.3456, 28.6094, -5.99642, -73.4204, 3.4026
5.72, 6, -6.02234, 28.4031, 28.5624, -6.02765, -73.4876, 3.42027
5.724, 6, -6.05727, 28.4607, 28.5152, -6.05879, -73.5548, 3.43791
5.728, 6, -6.09214, 28.5183, 28.4678, -6.08983, -73.6218, 3.4555
5.732, 6, -6.12696, 28.576, 28.4203, -6.12079, -73.6887, 3.47306
5.736, 6, -6.16171, 28.6337, 28.3726, -6.15165, -73.7555, 3.49058
5.74, 6, -6.19641, 28.6915, 28.3247, -6.18241, -73.8221, 3.50806
5.744, 6, -6.23105, 28.7494, 28.2766, -6.21309, -73.8886, 3.5255
5.748, 6, -6.26563, 28.8073, 28.2284, -6.24367, -73.955, 3.5429
5.752, 6, -6.30016, 28.8652, 28.18, -6.27416, -74.0213, 3.56027
5.756, 6, -6.33463, 28.9232, 28.1314, -6.30456, -74.0874, 3.5776
5.76, 6, -6.36904, 28.9813, 28.0827, -6.33487, -74.1534, 3.59489
5.764, 6, -6.40339, 29.0394, 28.0338, -6.36509, -74.2193, 3.61215
5.768, 6, -6.43769, 29.0975, 27.9847, -6.39522, -74.2851, 3.62937
5.772, 6, -6.47193, 29.1558, 27.9354, -6.42526, -74.3507, 3.64656
5.776, 6, -6.50611, 29.214, 27.886, -6.45521, -74.4163, 3.66371
5.78, 6, -6.54023, 29.2723, 27.8364, -6.48507, -74.4816, 3.68082
5.784, 6, -6.5743, 29.3307, 27.7867, -6.51484, -74.5469, 3.69791
5.788, 6, -6.60831, 29.3891, 27.7367, -6.54453, -74.6121, 3.71495
5.792, 6, -6.64227, 29.4475, 27.6866, -6.57412, -74.6771, 3.73197
5.796, 6, -6.67617, 29.506, 27.6364, -6.60363, -74.742, 3.74895
5.8, 6, -6.71001, 29.5645, 27.586, -6.63304, -74.8067, 3.7659
5.804, 6, -6.7438, 29.6231, 27.5354, -6.66237, -74.8714, 3.78282
5.808, 6, -6.77753, 29.6817, 27.4847, -6.69162, -74.9359, 3.79971
5.812, 6, -6.81121, 29.7404, 27.4338, -6.72078, -75.0003, 3.81656
5.816, 6, -6.84483, 29.7991, 27.3827, -6.74984, -75.0646, 3.83338
5.82, 6, -6.87839, 29.8579, 27.3314, -6.77883, -75.1287, 3.85018
5.824, 6, -6.9119, 29.9167, 27.2801, -6.80772, -75.1927, 3.86694
5.828, 6, -6.94535, 29.9755, 27.2285, -6.83654, -75.2566, 3.88367
5.832, 6, -6.97874, 30.0344, 27.1768, -6.86526, -75.3204, 3.90037
5.836, 6, -7.01209, 30.0934, 27.1249, -6.8939, -75.3841, 3.91705
5.84, 6, -7.04537, 30.1523, 27.0729, -6.92246, -75.4476, 3.93369
5.844, 6, -7.0786, 30.2114, 27.0207, -6.95093, -75.511, 3.95031
5.848, 6, -7.11178, 30.2704, 26.9683, -6.97931, -75.5743, 3.9669
5.852, 6, -7.1449, 30.3295, 26.9158, -7.00762, -75.6375, 3.98346
5.856, 6, -7.17797, 30.3886, 26.8632, -7.03583, -75.7005, 3.99999
5.86, 6, -7.21099, 30.4478, 26.8103, -7.06397, -75.7634, 4.0165
5.864, 6, -7.24396, 30.507, 26.7574, -7.09202, -75.8262, 4.03298
5.868, 6, -7.27688, 30.5663, 26.7042, -7.11999, -75.8889, 4.04943
5.872, 6, -7.30975, 30.6256, 26.6509, -7.14787, -75.9514, 4.06586
5.876, 6, -7.34258, 30.6849, 26.5975, -7.17568, -76.0138, 4.08226
5.88, 6, -7.37537, 30.7442, 26.5439, -7.2034, -76.0761, 4.09864
5.884, 6, -7.4081, 30.8036, 26.4902, -7.23105, -76.1383, 4.115
5.888, 6, -7.44079, 30.863, 26.4363, -7.25862, -76.2004, 4.13134
5.892, 6, -7.47344, 30.9225, 26.3823, -7.28611, -76.2624, 4.14765
5.896, 6, -7.50604, 30.982, 26.3281, -7.31352, -76.3242, 4.16394
5.9, 6, -7.53859, 31.0415, 26.2739, -7.34086, -76.386, 4.18021
5.904, 6, -7.5711, 31.101, 26.2194, -7.36813, -76.4476, 4.19646
5.908, 6, -7.60356, 31.1605, 26.1649, -7.39533, -76.5091, 4.21269
5.912, 6, -7.63597, 31.2201, 26.1102, -7.42245, -76.5706, 4.22891
5.916, 6, -7.66833, 31.2797, 26.0554, -7.44951, -76.6319, 4.2451
5.92, 6, -7.70065, 31.3393, 26.0005, -7.4765, -76.6932, 4.26128
5.924, 6, -7.73292, 31.399, 25.9455, -7.50342, -76.7543, 4.27745
5.928, 6, -7.76515, 31.4587, 25.8903, -7.53027, -76.8154, 4.29359
5.932, 6, -7.79733, 31.5184, 25.835, -7.55706, -76.8763, 4.30972
5.936, 6, -7.82947, 31.5781, 25.7796, -7.58378, -76.9372, 4.32584
5.94, 6, -7.86157, 31.6378, 25.7241, -7.61043, -76.9979, 4.34194
5.944, 6, -7.89363, 31.6976, 25.6685, -7.63702, -77.0586, 4.35803
5.948, 6, -7.92565, 31.7573, 25.6127, -7.66354, -77.1192, 4.3741
5.952, 6, -7.95764, 31.8171, 25.5568, -7.68999, -77.1796, 4.39015
5.956, 6, -7.98958, 31.8769, 25.5008, -7.71638, -77.24, 4.4062
