hehonglu123/ABB_Primitive_Study/execution/movel_30_car/curve_exe_v50_z200.csv
timestamp, cmd_num, J1, J2, J3, J4, J5, J6
0, -1, -13.4393, 43.6787, 12.5946, -11.6275, -87.029, 7.42441
0.002, -1, -13.4393, 43.6787, 12.5946, -11.6275, -87.029, 7.42441
0.006, -1, -13.4393, 43.6787, 12.5946, -11.6275, -87.029, 7.42441
0.008, -1, -13.4393, 43.6787, 12.5946, -11.6275, -87.029, 7.42441
0.011, -1, -13.4393, 43.6787, 12.5946, -11.6275, -87.029, 7.42441
0.016, -1, -13.4393, 43.6787, 12.5946, -11.6275, -87.029, 7.42441
0.02, -1, -13.4393, 43.6787, 12.5946, -11.6275, -87.029, 7.42441
0.024, -1, -13.4393, 43.6787, 12.5946, -11.6275, -87.029, 7.42441
0.028, -1, -13.4393, 43.6787, 12.5946, -11.6275, -87.029, 7.42441
0.032, -1, -13.4393, 43.6787, 12.5946, -11.6275, -87.029, 7.42441
0.036, -1, -13.4392, 43.6786, 12.5946, -11.6275, -87.029, 7.42441
0.04, -1, -13.439, 43.6785, 12.5946, -11.6275, -87.029, 7.42441
0.044, -1, -13.4384, 43.678, 12.5947, -11.6275, -87.029, 7.42439
0.048, -1, -13.4372, 43.6772, 12.5949, -11.6274, -87.0289, 7.42434
0.052, -1, -13.4355, 43.6758, 12.5951, -11.6273, -87.0287, 7.42422
0.056, -1, -13.433, 43.6738, 12.5955, -11.627, -87.0284, 7.42397
0.06, -1, -13.4296, 43.671, 12.5961, -11.6264, -87.0277, 7.42349
0.064, -1, -13.4254, 43.6675, 12.5969, -11.6253, -87.0264, 7.42266
0.068, -1, -13.4203, 43.6631, 12.598, -11.6236, -87.0244, 7.42132
0.072, -1, -13.4141, 43.6579, 12.5994, -11.6209, -87.0213, 7.41928
0.076, -1, -13.4066, 43.6516, 12.6011, -11.617, -87.0167, 7.4163
0.08, -1, -13.3977, 43.6442, 12.6034, -11.6115, -87.0103, 7.41213
0.084, -1, -13.3869, 43.6352, 12.6062, -11.604, -87.0016, 7.40644
0.088, -1, -13.3743, 43.6247, 12.6097, -11.5941, -86.9899, 7.39892
0.092, -1, -13.3596, 43.6124, 12.6138, -11.5812, -86.9748, 7.38918
0.096, -1, -13.3427, 43.5982, 12.6186, -11.5648, -86.9557, 7.37685
0.1, -1, -13.3235, 43.582, 12.6243, -11.5444, -86.9319, 7.36155
0.104, -1, -13.3019, 43.5636, 12.6308, -11.5196, -86.9029, 7.3429
0.108, -1, -13.2776, 43.5427, 12.6382, -11.4899, -86.868, 7.32054
0.112, -1, -13.2505, 43.5193, 12.6467, -11.4547, -86.8269, 7.29416
0.116, -1, -13.2206, 43.4932, 12.6562, -11.4137, -86.7789, 7.26346
0.12, -1, -13.1877, 43.4644, 12.6669, -11.3667, -86.7238, 7.22818
0.124, -1, -13.1519, 43.4328, 12.6786, -11.3132, -86.6612, 7.18814
0.128, -1, -13.113, 43.3984, 12.6916, -11.2532, -86.591, 7.14319
0.131, -1, -13.071, 43.3611, 12.7056, -11.1865, -86.5129, 7.09326
0.136, -1, -13.026, 43.321, 12.7209, -11.1131, -86.4269, 7.03835
0.139, -1, -12.9779, 43.2779, 12.7373, -11.0331, -86.3333, 6.9785
0.144, -1, -12.9267, 43.232, 12.7548, -10.9467, -86.2321, 6.91384
0.148, -1, -12.8726, 43.1833, 12.7734, -10.854, -86.1236, 6.84454
0.152, -1, -12.8155, 43.132, 12.7932, -10.7555, -86.0082, 6.77084
0.156, -1, -12.7557, 43.0781, 12.8139, -10.6514, -85.8863, 6.69301
0.16, -1, -12.6932, 43.0219, 12.8355, -10.5422, -85.7585, 6.61137
0.164, -1, -12.6282, 42.9633, 12.8581, -10.4284, -85.6253, 6.52627
0.168, -1, -12.5607, 42.9025, 12.8815, -10.3105, -85.4872, 6.43809
0.172, -1, -12.4909, 42.8396, 12.9056, -10.189, -85.3449, 6.34721
0.176, -1, -12.4189, 42.7749, 12.9305, -10.0644, -85.1989, 6.25399
0.18, -1, -12.345, 42.7085, 12.956, -9.93711, -85.0499, 6.15879
0.184, -1, -12.2694, 42.6406, 12.9821, -9.80765, -84.8983, 6.06194
0.188, -1, -12.1925, 42.5714, 13.0086, -9.6764, -84.7446, 5.96375
0.192, -1, -12.1142, 42.5011, 13.0356, -9.54373, -84.5892, 5.86449
0.196, -1, -12.0348, 42.4297, 13.0629, -9.40995, -84.4326, 5.76439
0.2, -1, -11.9542, 42.3573, 13.0906, -9.27534, -84.2749, 5.66366
0.204, -1, -11.8724, 42.2841, 13.1185, -9.14011, -84.1166, 5.56246
0.208, -1, -11.7897, 42.21, 13.1466, -9.00443, -83.9577, 5.46092
0.212, -1, -11.7061, 42.1354, 13.1749, -8.86843, -83.7985, 5.35913
0.216, -1, -11.6218, 42.0602, 13.2033, -8.7322, -83.6389, 5.25717
0.22, -1, -11.5371, 41.9847, 13.2318, -8.5958, -83.4792, 5.15507
0.224, -1, -11.452, 41.909, 13.2603, -8.45928, -83.3194, 5.05288
0.228, -1, -11.3667, 41.8332, 13.2889, -8.32266, -83.1594, 4.95062
0.232, -1, -11.2813, 41.7572, 13.3176, -8.18597, -82.9993, 4.8483
0.236, -1, -11.1957, 41.6811, 13.3462, -8.04922, -82.8392, 4.74595
0.24, -1, -11.11, 41.605, 13.3749, -7.91243, -82.679, 4.64355
0.244, -1, -11.0243, 41.5288, 13.4035, -7.77561, -82.5188, 4.54114
0.248, -1, -10.9386, 41.4526, 13.4322, -7.63876, -82.3586, 4.4387
0.252, -1, -10.8528, 41.3764, 13.4609, -7.50189, -82.1983, 4.33625
0.256, -1, -10.767, 41.3002, 13.4896, -7.36501, -82.0381, 4.2338
0.26, -1, -10.6811, 41.2239, 13.5183, -7.22813, -81.8778, 4.13133
0.264, -1, -10.5953, 41.1477, 13.547, -7.09125, -81.7175, 4.02887
0.268, -1, -10.5094, 41.0714, 13.5757, -6.95436, -81.5572, 3.92641
0.272, -1, -10.4236, 40.9952, 13.6044, -6.81749, -81.397, 3.82396
0.276, -1, -10.3378, 40.9189, 13.6331, -6.68063, -81.2367, 3.72151
0.28, -1, -10.252, 40.8427, 13.6618, -6.54379, -81.0765, 3.61908
0.284, -1, -10.1661, 40.7665, 13.6904, -6.40697, -80.9163, 3.51666
0.288, -1, -10.0803, 40.6903, 13.7191, -6.27017, -80.7561, 3.41427
0.292, -1, -9.99456, 40.6141, 13.7478, -6.13341, -80.596, 3.31189
0.296, -1, -9.9088, 40.538, 13.7764, -5.99668, -80.4359, 3.20955
0.3, -1, -9.82306, 40.4618, 13.8051, -5.85999, -80.2758, 3.10723
0.304, -1, -9.73734, 40.3857, 13.8337, -5.72334, -80.1158, 3.00494
0.308, -1, -9.65166, 40.3096, 13.8624, -5.58674, -79.9558, 2.90269
0.312, -1, -9.566, 40.2336, 13.891, -5.45019, -79.796, 2.80048
0.316, -1, -9.48038, 40.1575, 13.9196, -5.31369, -79.6361, 2.69831
0.32, -1, -9.3948, 40.0815, 13.9482, -5.17726, -79.4764, 2.59618
0.324, -1, -9.30925, 40.0055, 13.9768, -5.04089, -79.3167, 2.4941
0.328, -1, -9.22375, 39.9296, 14.0054, -4.90458, -79.1571, 2.39207
0.332, -1, -9.13829, 39.8537, 14.0339, -4.76835, -78.9976, 2.2901
0.336, -1, -9.05287, 39.7778, 14.0625, -4.63219, -78.8382, 2.18818
0.34, -1, -8.9675, 39.702, 14.091, -4.49612, -78.6788, 2.08632
0.344, -1, -8.88219, 39.6262, 14.1195, -4.36012, -78.5196, 1.98452
0.348, -1, -8.79692, 39.5505, 14.148, -4.22421, -78.3604, 1.88279
0.352, -1, -8.71172, 39.4748, 14.1765, -4.0884, -78.2014, 1.78113
0.356, -1, -8.62657, 39.3992, 14.2049, -3.95267, -78.0425, 1.67953
0.36, -1, -8.54148, 39.3236, 14.2334, -3.81705, -77.8837, 1.57801
0.364, -1, -8.45646, 39.2481, 14.2618, -3.68152, -77.725, 1.47657
0.368, -1, -8.3715, 39.1727, 14.2902, -3.54611, -77.5664, 1.3752
0.372, -1, -8.28661, 39.0973, 14.3185, -3.4108, -77.408, 1.27392
0.376, -1, -8.20179, 39.0219, 14.3469, -3.2756, -77.2497, 1.17272
0.38, -1, -8.11704, 38.9467, 14.3752, -3.14052, -77.0915, 1.07161
0.384, -1, -8.03237, 38.8715, 14.4035, -3.00557, -76.9335, 0.970588
0.388, -1, -7.94777, 38.7963, 14.4318, -2.87073, -76.7756, 0.869659
0.392, -1, -7.86325, 38.7212, 14.46, -2.73602, -76.6179, 0.768825
0.396, -1, -7.77881, 38.6463, 14.4882, -2.60145, -76.4603, 0.668089
0.4, -1, -7.69446, 38.5713, 14.5164, -2.467, -76.3029, 0.567454
0.404, -1, -7.61019, 38.4965, 14.5446, -2.3327, -76.1456, 0.466921
0.408, -1, -7.526, 38.4217, 14.5727, -2.19854, -75.9885, 0.366494
0.412, -1, -7.44191, 38.347, 14.6008, -2.06452, -75.8316, 0.266176
0.416, -1, -7.35791, 38.2724, 14.6288, -1.93064, -75.6748, 0.165968
0.42, -1, -7.274, 38.1979, 14.6569, -1.79692, -75.5183, 0.0658724
0.424, -1, -7.19019, 38.1235, 14.6849, -1.66336, -75.3619, -0.0341072
0.428, -1, -7.10648, 38.0491, 14.7128, -1.52995, -75.2057, -0.133969
0.432, -1, -7.02287, 37.9748, 14.7408, -1.3967, -75.0496, -0.233711
0.436, -1, -6.93935, 37.9007, 14.7687, -1.26362, -74.8938, -0.33333
0.44, -1, -6.85595, 37.8266, 14.7965, -1.1307, -74.7382, -0.432824
0.444, -1, -6.77264, 37.7526, 14.8244, -0.99795, -74.5827, -0.532191
0.448, -1, -6.68945, 37.6787, 14.8522, -0.865375, -74.4275, -0.631429
0.452, -1, -6.60636, 37.6049, 14.8799, -0.732975, -74.2725, -0.730535
0.456, -1, -6.52339, 37.5312, 14.9077, -0.600755, -74.1176, -0.829507
0.46, -1, -6.44053, 37.4576, 14.9353, -0.468716, -73.963, -0.928344
0.464, -1, -6.35778, 37.3842, 14.963, -0.336861, -73.8086, -1.02704
0.468, -1, -6.27515, 37.3108, 14.9906, -0.205193, -73.6545, -1.1256
0.472, -1, -6.19264, 37.2375, 15.0181, -0.0737153, -73.5005, -1.22402
0.476, -1, -6.11024, 37.1643, 15.0457, 0.0575699, -73.3468, -1.32229
0.48, -1, -6.02797, 37.0912, 15.0732, 0.18866, -73.1933, -1.42042
0.484, -1, -5.94582, 37.0183, 15.1006, 0.319552, -73.04, -1.51839
0.488, -1, -5.8638, 36.9454, 15.128, 0.450244, -72.887, -1.61622
0.492, -1, -5.7819, 36.8727, 15.1554, 0.580734, -72.7342, -1.7139
0.496, -1, -5.70012, 36.8001, 15.1827, 0.711018, -72.5817, -1.81142
0.5, -1, -5.61848, 36.7276, 15.2099, 0.841096, -72.4294, -1.90879
0.504, -1, -5.53697, 36.6552, 15.2372, 0.970964, -72.2773, -2.006
0.508, -1, -5.45558, 36.5829, 15.2644, 1.10062, -72.1255, -2.10306
0.512, -1, -5.37433, 36.5108, 15.2915, 1.23006, -71.9739, -2.19995
0.516, -1, -5.29321, 36.4387, 15.3186, 1.35929, -71.8226, -2.29668
0.52, -1, -5.21223, 36.3668, 15.3456, 1.4883, -71.6715, -2.39325
0.524, -1, -5.13138, 36.295, 15.3726, 1.6171, -71.5207, -2.48966
0.528, -1, -5.05067, 36.2233, 15.3996, 1.74567, -71.3702, -2.5859
0.532, -1, -4.97009, 36.1518, 15.4265, 1.87402, -71.2199, -2.68198
0.536, -1, -4.88966, 36.0803, 15.4534, 2.00215, -71.0698, -2.77789
0.54, -1, -4.80936, 36.009, 15.4802, 2.13005, -70.9201, -2.87363
0.544, -1, -4.7292, 35.9378, 15.507, 2.25773, -70.7706, -2.9692
0.548, -1, -4.64919, 35.8668, 15.5337, 2.38518, -70.6213, -3.0646
0.552, -1, -4.56931, 35.7959, 15.5604, 2.51241, -70.4724, -3.15984
0.556, -1, -4.48958, 35.725, 15.587, 2.6394, -70.3237, -3.2549
0.56, -1, -4.41, 35.6544, 15.6136, 2.76617, -70.1752, -3.34979
0.564, -1, -4.33056, 35.5838, 15.6401, 2.8927, -70.0271, -3.44451
0.568, -1, -4.25126, 35.5134, 15.6666, 3.01901, -69.8792, -3.53905
0.572, -1, -4.17211, 35.4431, 15.693, 3.14508, -69.7316, -3.63342
0.576, -1, -4.0931, 35.373, 15.7194, 3.27092, -69.5842, -3.72761
0.58, -1, -4.01424, 35.3029, 15.7458, 3.39652, -69.4372, -3.82163
0.584, -1, -3.93553, 35.233, 15.772, 3.52189, -69.2904, -3.91547
0.588, -1, -3.85696, 35.1633, 15.7983, 3.64702, -69.1438, -4.00914
0.592, -1, -3.77855, 35.0936, 15.8245, 3.77191, -68.9976, -4.10263
0.596, -1, -3.70028, 35.0241, 15.8506, 3.89657, -68.8516, -4.19594
0.6, -1, -3.62216, 34.9548, 15.8767, 4.02099, -68.7059, -4.28908
0.604, -1, -3.54419, 34.8855, 15.9027, 4.14517, -68.5605, -4.38203
0.608, -1, -3.46637, 34.8164, 15.9287, 4.26911, -68.4154, -4.47481
0.612, -1, -3.3887, 34.7474, 15.9547, 4.39281, -68.2706, -4.5674
0.616, -1, -3.31118, 34.6786, 15.9806, 4.51628, -68.126, -4.65982
0.62, -1, -3.23382, 34.6099, 16.0064, 4.63949, -67.9817, -4.75205
0.624, -1, -3.1566, 34.5413, 16.0322, 4.76247, -67.8377, -4.84411
0.628, -1, -3.07954, 34.4729, 16.0579, 4.88521, -67.694, -4.93598
0.632, -1, -3.00262, 34.4046, 16.0836, 5.0077, -67.5506, -5.02767
0.636, -1, -2.92586, 34.3364, 16.1092, 5.12995, -67.4074, -5.11918
0.64, -1, -2.84926, 34.2684, 16.1348, 5.25195, -67.2646, -5.2105
0.644, -1, -2.7728, 34.2005, 16.1604, 5.37371, -67.122, -5.30165
0.648, -1, -2.6965, 34.1328, 16.1858, 5.49523, -66.9797, -5.39261
0.652, -1, -2.62035, 34.0652, 16.2113, 5.6165, -66.8377, -5.48338
0.656, -1, -2.54436, 33.9977, 16.2366, 5.73753, -66.696, -5.57398
0.66, -1, -2.46852, 33.9303, 16.262, 5.85831, -66.5546, -5.66439
0.664, -1, -2.39283, 33.8631, 16.2872, 5.97884, -66.4135, -5.75461
0.668, -1, -2.3173, 33.7961, 16.3125, 6.09913, -66.2726, -5.84465
0.672, -1, -2.24192, 33.7291, 16.3376, 6.21917, -66.1321, -5.93451
0.676, -1, -2.1667, 33.6623, 16.3628, 6.33897, -65.9918, -6.02418
0.68, -1, -2.09163, 33.5957, 16.3878, 6.45851, -65.8518, -6.11367
0.684, -1, -2.01672, 33.5292, 16.4129, 6.57781, -65.7121, -6.20297
0.688, -1, -1.94196, 33.4628, 16.4378, 6.69687, -65.5727, -6.29208
0.692, -1, -1.86736, 33.3965, 16.4627, 6.81567, -65.4336, -6.38101
0.696, -1, -1.79291, 33.3304, 16.4876, 6.93423, -65.2948, -6.46976
0.7, -1, -1.71862, 33.2645, 16.5124, 7.05254, -65.1562, -6.55832
0.704, -1, -1.64448, 33.1986, 16.5372, 7.1706, -65.018, -6.64669
0.708, -1, -1.5705, 33.1329, 16.5619, 7.28841, -64.8801, -6.73488
0.712, -1, -1.49668, 33.0674, 16.5865, 7.40597, -64.7424, -6.82288
0.716, -1, -1.42301, 33.002, 16.6111, 7.52329, -64.605, -6.9107
0.72, -1, -1.34949, 32.9367, 16.6357, 7.64036, -64.468, -6.99833
0.724, -1, -1.27614, 32.8715, 16.6602, 7.75718, -64.3312, -7.08577
0.728, -1, -1.20293, 32.8065, 16.6846, 7.87375, -64.1947, -7.17303
0.732, -1, -1.12989, 32.7417, 16.709, 7.99007, -64.0585, -7.2601
0.736, -1, -1.057, 32.677, 16.7333, 8.10615, -63.9226, -7.34699
0.74, -1, -0.984259, 32.6124, 16.7576, 8.22197, -63.7869, -7.43369
0.744, -1, -0.911678, 32.5479, 16.7819, 8.33755, -63.6516, -7.52021
0.748, -1, -0.839252, 32.4836, 16.8061, 8.45288, -63.5166, -7.60653
0.752, -1, -0.766981, 32.4194, 16.8302, 8.56796, -63.3818, -7.69268
0.756, -1, -0.694864, 32.3554, 16.8543, 8.6828, -63.2474, -7.77864
0.76, -1, -0.622901, 32.2915, 16.8783, 8.79738, -63.1132, -7.86441
0.764, -1, -0.551092, 32.2277, 16.9023, 8.91172, -62.9793, -7.95
0.768, -1, -0.479437, 32.1641, 16.9262, 9.02582, -62.8457, -8.0354
0.772, -1, -0.407935, 32.1006, 16.9501, 9.13966, -62.7124, -8.12062
0.776, -1, -0.336586, 32.0373, 16.9739, 9.25326, -62.5794, -8.20566
0.78, -1, -0.26539, 31.9741, 16.9977, 9.36662, -62.4467, -8.29051
0.784, -1, -0.194346, 31.911, 17.0214, 9.47973, -62.3142, -8.37518
0.788, -1, -0.123455, 31.848, 17.0451, 9.5926, -62.182, -8.45966
0.792, -1, -0.0527154, 31.7852, 17.0687, 9.70522, -62.0502, -8.54397
0.796, -1, 0.0178725, 31.7226, 17.0923, 9.81761, -61.9186, -8.62809
0.8, -1, 0.0883091, 31.66, 17.1158, 9.92975, -61.7873, -8.71204
0.804, -1, 0.158595, 31.5976, 17.1393, 10.0417, -61.6562, -8.7958
0.808, -1, 0.22873, 31.5353, 17.1627, 10.1533, -61.5255, -8.87938
0.812, -1, 0.298716, 31.4732, 17.186, 10.2647, -61.395, -8.96279
0.816, -1, 0.368552, 31.4112, 17.2094, 10.3759, -61.2648, -9.04602
0.82, -1, 0.438239, 31.3493, 17.2326, 10.4869, -61.1349, -9.12907
0.824, -1, 0.507778, 31.2876, 17.2559, 10.5976, -61.0053, -9.21194
0.828, -1, 0.577169, 31.226, 17.279, 10.7081, -60.8759, -9.29464
0.832, -1, 0.646413, 31.1645, 17.3021, 10.8183, -60.7468, -9.37716
0.836, -1, 0.71551, 31.1031, 17.3252, 10.9283, -60.618, -9.45951
0.84, -1, 0.78446, 31.0419, 17.3482, 11.0381, -60.4895, -9.54168
0.844, -1, 0.853265, 30.9808, 17.3712, 11.1476, -60.3612, -9.62368
0.848, -1, 0.921925, 30.9199, 17.3941, 11.2569, -60.2332, -9.7055
0.852, -1, 0.990441, 30.859, 17.417, 11.366, -60.1055, -9.78716
0.856, -1, 1.05881, 30.7983, 17.4398, 11.4749, -59.9781, -9.86864
0.86, -1, 1.12704, 30.7378, 17.4626, 11.5835, -59.8509, -9.94995
0.864, -1, 1.19512, 30.6773, 17.4854, 11.6919, -59.7239, -10.0311
0.868, -1, 1.26307, 30.617, 17.508, 11.8001, -59.5973, -10.1121
0.872, -1, 1.33087, 30.5568, 17.5307, 11.908, -59.4709, -10.1929
0.876, -1, 1.39853, 30.4967, 17.5533, 12.0157, -59.3448, -10.2735
0.88, -1, 1.46604, 30.4368, 17.5758, 12.1232, -59.2189, -10.354
0.884, -1, 1.53342, 30.377, 17.5983, 12.2305, -59.0933, -10.4343
0.888, -1, 1.60066, 30.3173, 17.6208, 12.3375, -58.9679, -10.5144
0.892, -1, 1.66775, 30.2577, 17.6432, 12.4444, -58.8429, -10.5943
0.896, -1, 1.73471, 30.1982, 17.6655, 12.551, -58.718, -10.6741
0.9, -1, 1.80153, 30.1389, 17.6878, 12.6574, -58.5935, -10.7538
0.904, -1, 1.86821, 30.0797, 17.7101, 12.7635, -58.4692, -10.8332
0.908, -1, 1.93476, 30.0206, 17.7323, 12.8695, -58.3451, -10.9125
0.912, -1, 2.00117, 29.9617, 17.7545, 12.9752, -58.2213, -10.9917
0.916, -1, 2.06744, 29.9028, 17.7766, 13.0807, -58.0978, -11.0707
0.92, -1, 2.13357, 29.8441, 17.7987, 13.186, -57.9745, -11.1495
0.924, -1, 2.19957, 29.7855, 17.8207, 13.2911, -57.8514, -11.2281
0.928, -1, 2.26543, 29.727, 17.8427, 13.3959, -57.7287, -11.3066
0.932, -1, 2.33116, 29.6687, 17.8647, 13.5006, -57.6061, -11.385
0.936, -1, 2.39676, 29.6104, 17.8866, 13.605, -57.4838, -11.4631
0.94, -1, 2.46222, 29.5523, 17.9084, 13.7092, -57.3618, -11.5412
0.944, -1, 2.52755, 29.4943, 17.9303, 13.8133, -57.24, -11.619
0.948, -1, 2.59275, 29.4364, 17.952, 13.9171, -57.1185, -11.6967
0.952, -1, 2.65781, 29.3787, 17.9738, 14.0206, -56.9972, -11.7743
0.956, -1, 2.72274, 29.321, 17.9954, 14.124, -56.8761, -11.8516
0.96, -1, 2.78755, 29.2635, 18.0171, 14.2272, -56.7553, -11.9289
0.964, -1, 2.85222, 29.2061, 18.0387, 14.3302, -56.6348, -12.0059
0.968, -1, 2.91676, 29.1488, 18.0602, 14.4329, -56.5144, -12.0829
0.972, -1, 2.98117, 29.0916, 18.0817, 14.5355, -56.3944, -12.1596
0.976, -1, 3.04545, 29.0345, 18.1032, 14.6378, -56.2745, -12.2362
0.98, -1, 3.10961, 28.9775, 18.1246, 14.7399, -56.1549, -12.3127
0.984, -1, 3.17363, 28.9207, 18.146, 14.8419, -56.0356, -12.389
0.988, -1, 3.23753, 28.864, 18.1673, 14.9436, -55.9165, -12.4651
0.992, -1, 3.3013, 28.8074, 18.1886, 15.0451, -55.7976, -12.5411
0.996, -1, 3.36494, 28.7508, 18.2099, 15.1465, -55.6789, -12.617
1, -1, 3.42846, 28.6945, 18.2311, 15.2476, -55.5605, -12.6927
1.004, -1, 3.49185, 28.6382, 18.2523, 15.3485, -55.4423, -12.7682
1.008, -1, 3.55512, 28.582, 18.2734, 15.4492, -55.3244, -12.8436
1.012, -1, 3.61826, 28.5259, 18.2945, 15.5498, -55.2067, -12.9189
1.016, -1, 3.68127, 28.47, 18.3155, 15.6501, -55.0892, -12.994
1.02, -1, 3.74416, 28.4142, 18.3365, 15.7502, -54.972, -13.0689
1.024, -1, 3.80693, 28.3584, 18.3575, 15.8502, -54.855, -13.1437
1.027, -1, 3.86958, 28.3028, 18.3784, 15.9499, -54.7382, -13.2184
1.032, -1, 3.9321, 28.2473, 18.3993, 16.0494, -54.6216, -13.2929
1.036, -1, 3.9945, 28.1919, 18.4201, 16.1488, -54.5053, -13.3673
1.04, -1, 4.05678, 28.1366, 18.4409, 16.2479, -54.3892, -13.4415
1.044, -1, 4.11893, 28.0814, 18.4616, 16.3469, -54.2733, -13.5156
1.048, -1, 4.18097, 28.0263, 18.4824, 16.4457, -54.1577, -13.5895
1.052, -1, 4.24289, 27.9714, 18.503, 16.5442, -54.0422, -13.6633
1.055, -1, 4.30468, 27.9165, 18.5237, 16.6426, -53.927, -13.7369
1.06, -1, 4.36636, 27.8617, 18.5443, 16.7408, -53.8121, -13.8104
1.064, -1, 4.42792, 27.8071, 18.5648, 16.8388, -53.6973, -13.8838
1.068, -1, 4.48936, 27.7525, 18.5853, 16.9366, -53.5828, -13.957
1.072, -1, 4.55068, 27.6981, 18.6058, 17.0343, -53.4685, -14.0301
1.076, -1, 4.61188, 27.6438, 18.6262, 17.1317, -53.3544, -14.103
1.08, -1, 4.67297, 27.5895, 18.6466, 17.229, -53.2405, -14.1758
1.084, -1, 4.73394, 27.5354, 18.667, 17.326, -53.1268, -14.2485
1.088, -1, 4.7948, 27.4814, 18.6873, 17.4229, -53.0134, -14.321
1.091, -1, 4.85554, 27.4274, 18.7076, 17.5196, -52.9002, -14.3934
1.096, -1, 4.91617, 27.3736, 18.7278, 17.6161, -52.7871, -14.4656
1.1, -1, 4.97668, 27.3199, 18.7481, 17.7125, -52.6743, -14.5378
1.104, -1, 5.03708, 27.2663, 18.7682, 17.8086, -52.5618, -14.6097
1.108, -1, 5.09737, 27.2127, 18.7883, 17.9046, -52.4494, -14.6816
1.112, -1, 5.15754, 27.1593, 18.8084, 18.0004, -52.3372, -14.7533
1.116, -1, 5.2176, 27.106, 18.8285, 18.096, -52.2253, -14.8249
1.119, -1, 5.27755, 27.0528, 18.8485, 18.1915, -52.1135, -14.8963
1.124, -1, 5.33739, 26.9996, 18.8685, 18.2867, -52.0019, -14.9676
1.128, -1, 5.39712, 26.9466, 18.8884, 18.3818, -51.8906, -15.0388
1.132, -1, 5.45673, 26.8937, 18.9083, 18.4767, -51.7795, -15.1098
1.136, -1, 5.51624, 26.8408, 18.9282, 18.5715, -51.6685, -15.1807
1.14, -1, 5.57564, 26.7881, 18.948, 18.666, -51.5578, -15.2515
1.144, -1, 5.63493, 26.7355, 18.9678, 18.7604, -51.4473, -15.3222
1.147, -1, 5.69412, 26.6829, 18.9876, 18.8547, -51.337, -15.3927
1.152, -1, 5.75319, 26.6305, 19.0073, 18.9487, -51.2268, -15.4631
1.156, -1, 5.81216, 26.5781, 19.027, 19.0426, -51.1169, -15.5334
1.16, -1, 5.87103, 26.5259, 19.0467, 19.1363, -51.0072, -15.6035
1.164, -1, 5.92979, 26.4737, 19.0663, 19.2298, -50.8976, -15.6736
1.168, -1, 5.98844, 26.4216, 19.0859, 19.3232, -50.7883, -15.7435
1.172, -1, 6.04699, 26.3696, 19.1054, 19.4164, -50.6792, -15.8132
1.175, -1, 6.10543, 26.3177, 19.1249, 19.5095, -50.5702, -15.8829
1.18, -1, 6.16377, 26.266, 19.1444, 19.6024, -50.4614, -15.9524
1.184, -1, 6.22201, 26.2142, 19.1639, 19.6951, -50.3529, -16.0218
1.188, -1, 6.28015, 26.1626, 19.1833, 19.7876, -50.2445, -16.0911
1.192, -1, 6.33818, 26.1111, 19.2027, 19.88, -50.1363, -16.1603
1.196, -1, 6.39611, 26.0597, 19.222, 19.9723, -50.0283, -16.2293
1.2, -1, 6.45394, 26.0083, 19.2413, 20.0643, -49.9205, -16.2982
1.204, -1, 6.51167, 25.9571, 19.2606, 20.1562, -49.8129, -16.367
1.208, -1, 6.5693, 25.9059, 19.2798, 20.248, -49.7055, -16.4357
1.212, -1, 6.62683, 25.8548, 19.299, 20.3396, -49.5982, -16.5042
1.216, -1, 6.68426, 25.8038, 19.3182, 20.431, -49.4912, -16.5727
1.22, -1, 6.74159, 25.7529, 19.3374, 20.5223, -49.3843, -16.641
1.224, -1, 6.79882, 25.7021, 19.3565, 20.6134, -49.2776, -16.7092
1.228, -1, 6.85596, 25.6514, 19.3756, 20.7044, -49.1711, -16.7773
1.232, -1, 6.91299, 25.6008, 19.3946, 20.7952, -49.0648, -16.8453
1.236, -1, 6.96993, 25.5502, 19.4136, 20.8858, -48.9586, -16.9131
1.24, -1, 7.02678, 25.4997, 19.4326, 20.9763, -48.8526, -16.9809
1.244, -1, 7.08352, 25.4494, 19.4515, 21.0667, -48.7469, -17.0485
1.248, -1, 7.14018, 25.3991, 19.4705, 21.1569, -48.6413, -17.116
1.252, -1, 7.19673, 25.3488, 19.4893, 21.2469, -48.5358, -17.1834
1.256, -1, 7.25319, 25.2987, 19.5082, 21.3368, -48.4306, -17.2507
1.26, -1, 7.30956, 25.2487, 19.527, 21.4266, -48.3255, -17.3179
1.264, -1, 7.36583, 25.1987, 19.5458, 21.5161, -48.2206, -17.385
1.267, -1, 7.42201, 25.1488, 19.5646, 21.6056, -48.1158, -17.4519
1.272, -1, 7.4781, 25.099, 19.5833, 21.6949, -48.0113, -17.5188
1.276, -1, 7.53409, 25.0493, 19.602, 21.784, -47.9069, -17.5855
1.28, -1, 7.58999, 24.9997, 19.6207, 21.873, -47.8027, -17.6521
1.284, -1, 7.6458, 24.9501, 19.6393, 21.9619, -47.6986, -17.7186
1.288, -1, 7.70152, 24.9007, 19.6579, 22.0506, -47.5948, -17.785
1.292, -1, 7.75715, 24.8513, 19.6765, 22.1392, -47.4911, -17.8513
1.295, -1, 7.81268, 24.802, 19.695, 22.2276, -47.3875, -17.9175
1.3, -1, 7.86813, 24.7528, 19.7135, 22.3159, -47.2842, -17.9836
1.304, -1, 7.92348, 24.7036, 19.732, 22.404, -47.181, -18.0496
1.308, -1, 7.97875, 24.6545, 19.7505, 22.492, -47.0779, -18.1154
1.312, -1, 8.03393, 24.6055, 19.7689, 22.5798, -46.9751, -18.1812
1.316, -1, 8.08901, 24.5566, 19.7873, 22.6675, -46.8724, -18.2468
1.32, -1, 8.14401, 24.5078, 19.8057, 22.7551, -46.7699, -18.3124
1.324, -1, 8.19893, 24.4591, 19.824, 22.8425, -46.6675, -18.3778
1.328, -1, 8.25375, 24.4104, 19.8423, 22.9298, -46.5653, -18.4432
1.332, -1, 8.30849, 24.3618, 19.8606, 23.017, -46.4632, -18.5084
1.336, -1, 8.36314, 24.3133, 19.8788, 23.104, -46.3614, -18.5735
1.34, -1, 8.4177, 24.2648, 19.8971, 23.1909, -46.2596, -18.6386
1.344, -1, 8.47218, 24.2165, 19.9153, 23.2776, -46.1581, -18.7035
1.348, -1, 8.52657, 24.1682, 19.9334, 23.3642, -46.0567, -18.7683
1.352, -1, 8.58088, 24.1199, 19.9515, 23.4507, -45.9554, -18.833
1.356, -1, 8.6351, 24.0718, 19.9697, 23.537, -45.8543, -18.8976
1.36, -1, 8.68923, 24.0237, 19.9877, 23.6232, -45.7534, -18.9622
1.364, -1, 8.74328, 23.9757, 20.0058, 23.7092, -45.6526, -19.0266
1.368, -1, 8.79725, 23.9278, 20.0238, 23.7952, -45.552, -19.0909
1.372, -1, 8.85114, 23.88, 20.0418, 23.881, -45.4516, -19.1551
1.376, -1, 8.90494, 23.8322, 20.0598, 23.9666, -45.3513, -19.2192
1.38, -1, 8.95866, 23.7845, 20.0777, 24.0521, -45.2511, -19.2833
1.384, -1, 9.01229, 23.7369, 20.0956, 24.1375, -45.1511, -19.3472
1.388, -1, 9.06584, 23.6894, 20.1135, 24.2228, -45.0513, -19.411
1.392, -1, 9.11932, 23.6419, 20.1314, 24.3079, -44.9516, -19.4747
1.396, -1, 9.1727, 23.5945, 20.1492, 24.393, -44.8521, -19.5384
1.4, -1, 9.22601, 23.5472, 20.167, 24.4778, -44.7527, -19.6019
1.404, -1, 9.27924, 23.4999, 20.1848, 24.5626, -44.6535, -19.6653
1.408, -1, 9.33239, 23.4527, 20.2025, 24.6472, -44.5544, -19.7287
1.412, -1, 9.38546, 23.4056, 20.2202, 24.7317, -44.4554, -19.7919
1.416, -1, 9.43844, 23.3585, 20.2379, 24.8161, -44.3567, -19.8551
1.42, -1, 9.49135, 23.3116, 20.2556, 24.9003, -44.258, -19.9181
1.424, -1, 9.54418, 23.2647, 20.2732, 24.9844, -44.1595, -19.9811
1.428, -1, 9.59693, 23.2178, 20.2908, 25.0684, -44.0612, -20.044
1.432, -1, 9.6496, 23.1711, 20.3084, 25.1523, -43.963, -20.1067
1.436, -1, 9.7022, 23.1244, 20.326, 25.236, -43.865, -20.1694
1.44, -1, 9.75472, 23.0777, 20.3435, 25.3196, -43.767, -20.232
1.444, -1, 9.80716, 23.0312, 20.361, 25.4031, -43.6693, -20.2945
1.448, -1, 9.85952, 22.9847, 20.3785, 25.4865, -43.5717, -20.3569
1.452, -1, 9.91181, 22.9383, 20.396, 25.5697, -43.4742, -20.4192
1.456, -1, 9.96403, 22.8919, 20.4134, 25.6528, -43.3769, -20.4814
1.46, -1, 10.0162, 22.8456, 20.4308, 25.7358, -43.2797, -20.5436
1.464, -1, 10.0682, 22.7994, 20.4482, 25.8187, -43.1826, -20.6056
1.468, -1, 10.1202, 22.7533, 20.4656, 25.9015, -43.0857, -20.6676
1.472, -1, 10.1721, 22.7072, 20.4829, 25.9841, -42.989, -20.7294
1.476, -1, 10.224, 22.6612, 20.5002, 26.0666, -42.8923, -20.7912
1.48, -1, 10.2757, 22.6152, 20.5175, 26.149, -42.7958, -20.8529
1.484, -1, 10.3274, 22.5693, 20.5348, 26.2313, -42.6995, -20.9145
1.488, -1, 10.379, 22.5235, 20.552, 26.3135, -42.6033, -20.976
1.492, -1, 10.4306, 22.4777, 20.5692, 26.3956, -42.5072, -21.0374
1.496, -1, 10.482, 22.432, 20.5864, 26.4775, -42.4113, -21.0987
1.5, -1, 10.5334, 22.3864, 20.6035, 26.5593, -42.3154, -21.16
1.504, -1, 10.5848, 22.3408, 20.6207, 26.641, -42.2198, -21.2212
1.508, -1, 10.636, 22.2953, 20.6378, 26.7226, -42.1242, -21.2822
1.512, -1, 10.6872, 22.2499, 20.6549, 26.8041, -42.0288, -21.3432
1.516, -1, 10.7383, 22.2045, 20.6719, 26.8855, -41.9336, -21.4041
1.52, -1, 10.7893, 22.1592, 20.689, 26.9667, -41.8384, -21.4649
1.524, -1, 10.8403, 22.114, 20.706, 27.0479, -41.7434, -21.5257
1.528, -1, 10.8912, 22.0688, 20.723, 27.1289, -41.6485, -21.5863
1.532, -1, 10.942, 22.0237, 20.74, 27.2098, -41.5538, -21.6469
1.536, -1, 10.9928, 21.9786, 20.7569, 27.2906, -41.4592, -21.7074
1.54, -1, 11.0435, 21.9336, 20.7738, 27.3713, -41.3647, -21.7678
1.544, -1, 11.0941, 21.8887, 20.7908, 27.4519, -41.2703, -21.8281
1.548, -1, 11.1446, 21.8438, 20.8076, 27.5324, -41.1761, -21.8884
1.552, -1, 11.1951, 21.799, 20.8245, 27.6127, -41.082, -21.9485
1.556, -1, 11.2455, 21.7542, 20.8413, 27.693, -40.988, -22.0086
1.56, -1, 11.2959, 21.7095, 20.8581, 27.7732, -40.8941, -22.0686
1.564, -1, 11.3462, 21.6649, 20.8749, 27.8532, -40.8004, -22.1285
1.568, -1, 11.3964, 21.6203, 20.8917, 27.9331, -40.7068, -22.1884
1.572, -1, 11.4465, 21.5758, 20.9084, 28.013, -40.6133, -22.2481
1.576, -1, 11.4966, 21.5313, 20.9251, 28.0927, -40.52, -22.3078
1.58, -1, 11.5466, 21.4869, 20.9418, 28.1723, -40.4268, -22.3674
1.584, -1, 11.5965, 21.4426, 20.9585, 28.2518, -40.3336, -22.4269
1.588, -1, 11.6464, 21.3983, 20.9752, 28.3313, -40.2407, -22.4864
1.592, -1, 11.6962, 21.3541, 20.9918, 28.4106, -40.1478, -22.5457
1.596, -1, 11.746, 21.3099, 21.0084, 28.4898, -40.0551, -22.605
1.6, -1, 11.7957, 21.2658, 21.025, 28.5689, -39.9624, -22.6642
1.604, -1, 11.8453, 21.2217, 21.0416, 28.6479, -39.8699, -22.7234
1.608, -1, 11.8948, 21.1778, 21.0581, 28.7268, -39.7776, -22.7824
1.612, -1, 11.9443, 21.1338, 21.0747, 28.8055, -39.6853, -22.8414
1.616, -1, 11.9938, 21.0899, 21.0912, 28.8842, -39.5932, -22.9003
1.62, -1, 12.0431, 21.0461, 21.1076, 28.9628, -39.5011, -22.9591
1.624, -1, 12.0924, 21.0023, 21.1241, 29.0413, -39.4092, -23.0179
1.628, -1, 12.1417, 20.9586, 21.1405, 29.1197, -39.3174, -23.0765
1.632, -1, 12.1908, 20.915, 21.157, 29.198, -39.2258, -23.1352
1.636, -1, 12.2399, 20.8714, 21.1734, 29.2762, -39.1342, -23.1937
1.64, -1, 12.289, 20.8278, 21.1897, 29.3543, -39.0428, -23.2521
1.644, -1, 12.338, 20.7843, 21.2061, 29.4323, -38.9515, -23.3105
1.648, -1, 12.3869, 20.7409, 21.2224, 29.5102, -38.8603, -23.3688
1.652, -1, 12.4358, 20.6975, 21.2388, 29.588, -38.7692, -23.4271
1.656, -1, 12.4846, 20.6542, 21.2551, 29.6657, -38.6782, -23.4852
1.66, -1, 12.5333, 20.6109, 21.2713, 29.7433, -38.5873, -23.5433
1.664, -1, 12.582, 20.5677, 21.2876, 29.8208, -38.4966, -23.6013
1.668, -1, 12.6306, 20.5245, 21.3038, 29.8982, -38.4059, -23.6593
1.672, -1, 12.6792, 20.4814, 21.32, 29.9755, -38.3154, -23.7171
1.676, -1, 12.7277, 20.4384, 21.3362, 30.0527, -38.225, -23.7749
1.68, -1, 12.7761, 20.3953, 21.3524, 30.1298, -38.1347, -23.8327
1.684, -1, 12.8245, 20.3524, 21.3686, 30.2069, -38.0445, -23.8903
1.688, -1, 12.8728, 20.3095, 21.3847, 30.2838, -37.9544, -23.9479
1.692, -1, 12.9211, 20.2666, 21.4008, 30.3606, -37.8644, -24.0054
1.696, -1, 12.9693, 20.2238, 21.4169, 30.4374, -37.7746, -24.0629
1.7, -1, 13.0174, 20.1811, 21.433, 30.514, -37.6848, -24.1203
1.704, -1, 13.0655, 20.1384, 21.449, 30.5906, -37.5951, -24.1776
1.708, -1, 13.1136, 20.0958, 21.4651, 30.6671, -37.5056, -24.2348
1.712, -1, 13.1615, 20.0532, 21.4811, 30.7435, -37.4162, -24.292
1.716, -1, 13.2094, 20.0106, 21.4971, 30.8197, -37.3269, -24.3491
1.72, -1, 13.2573, 19.9681, 21.5131, 30.8959, -37.2376, -24.4061
1.724, -1, 13.3051, 19.9257, 21.529, 30.972, -37.1485, -24.4631
1.728, -1, 13.3528, 19.8833, 21.545, 31.0481, -37.0595, -24.52
1.732, -1, 13.4005, 19.841, 21.5609, 31.124, -36.9706, -24.5768
1.736, -1, 13.4482, 19.7987, 21.5768, 31.1998, -36.8818, -24.6336
1.74, -1, 13.4957, 19.7565, 21.5927, 31.2756, -36.7931, -24.6903
1.744, -1, 13.5433, 19.7143, 21.6086, 31.3512, -36.7045, -24.7469
1.748, -1, 13.5907, 19.6721, 21.6244, 31.4268, -36.6161, -24.8035
1.752, -1, 13.6381, 19.63, 21.6402, 31.5023, -36.5277, -24.86
1.756, -1, 13.6855, 19.588, 21.6561, 31.5776, -36.4394, -24.9164
1.76, -1, 13.7328, 19.546, 21.6719, 31.6529, -36.3512, -24.9728
1.764, -1, 13.78, 19.5041, 21.6876, 31.7282, -36.2632, -25.0291
1.768, -1, 13.8272, 19.4622, 21.7034, 31.8033, -36.1752, -25.0853
1.772, -1, 13.8743, 19.4203, 21.7191, 31.8783, -36.0873, -25.1415
1.776, -1, 13.9214, 19.3785, 21.7348, 31.9533, -35.9996, -25.1976
1.78, -1, 13.9684, 19.3368, 21.7505, 32.0281, -35.9119, -25.2536
1.784, -1, 14.0154, 19.2951, 21.7662, 32.1029, -35.8243, -25.3096
1.788, -1, 14.0623, 19.2534, 21.7819, 32.1776, -35.7369, -25.3655
1.792, -1, 14.1092, 19.2118, 21.7975, 32.2522, -35.6495, -25.4214
1.796, -1, 14.156, 19.1703, 21.8132, 32.3268, -35.5622, -25.4772
1.8, -1, 14.2027, 19.1288, 21.8288, 32.4012, -35.4751, -25.5329
1.804, -1, 14.2494, 19.0873, 21.8444, 32.4756, -35.388, -25.5886
1.808, -1, 14.2961, 19.0459, 21.86, 32.5498, -35.301, -25.6442
1.812, -1, 14.3427, 19.0045, 21.8755, 32.624, -35.2142, -25.6997
1.816, -1, 14.3892, 18.9632, 21.8911, 32.6981, -35.1274, -25.7552
1.82, -1, 14.4357, 18.9219, 21.9066, 32.7722, -35.0407, -25.8106
1.824, -1, 14.4822, 18.8807, 21.9221, 32.8461, -34.9541, -25.8659
1.828, -1, 14.5286, 18.8395, 21.9376, 32.92, -34.8676, -25.9212
1.832, -1, 14.5749, 18.7983, 21.9531, 32.9938, -34.7813, -25.9764
1.836, -1, 14.6212, 18.7572, 21.9685, 33.0675, -34.695, -26.0316
1.84, -1, 14.6674, 18.7162, 21.984, 33.1411, -34.6088, -26.0867
1.844, -1, 14.7136, 18.6752, 21.9994, 33.2146, -34.5227, -26.1418
1.848, -1, 14.7598, 18.6342, 22.0148, 33.2881, -34.4367, -26.1967
1.852, -1, 14.8058, 18.5933, 22.0302, 33.3614, -34.3507, -26.2517
1.856, -1, 14.8519, 18.5524, 22.0456, 33.4347, -34.2649, -26.3065
1.86, -1, 14.8979, 18.5116, 22.0609, 33.5079, -34.1792, -26.3613
1.864, -1, 14.9438, 18.4708, 22.0762, 33.5811, -34.0936, -26.4161
1.868, -1, 14.9897, 18.4301, 22.0916, 33.6541, -34.008, -26.4708
1.872, -1, 15.0355, 18.3894, 22.1069, 33.7271, -33.9226, -26.5254
1.876, -1, 15.0813, 18.3487, 22.1222, 33.8, -33.8372, -26.58
1.88, -1, 15.127, 18.3081, 22.1374, 33.8728, -33.7519, -26.6345
1.884, -1, 15.1727, 18.2676, 22.1527, 33.9456, -33.6668, -26.6889
1.888, -1, 15.2184, 18.227, 22.1679, 34.0182, -33.5817, -26.7433
1.892, -1, 15.264, 18.1866, 22.1832, 34.0908, -33.4967, -26.7976
1.896, -1, 15.3095, 18.1461, 22.1984, 34.1633, -33.4118, -26.8519
1.9, -1, 15.355, 18.1057, 22.2136, 34.2358, -33.3269, -26.9062
1.904, -1, 15.4004, 18.0654, 22.2287, 34.3081, -33.2422, -26.9603
1.908, -1, 15.4458, 18.0251, 22.2439, 34.3804, -33.1576, -27.0144
1.912, -1, 15.4912, 17.9848, 22.259, 34.4526, -33.073, -27.0685
1.916, -1, 15.5365, 17.9446, 22.2742, 34.5248, -32.9886, -27.1225
1.92, -1, 15.5818, 17.9044, 22.2893, 34.5968, -32.9042, -27.1764
1.924, -1, 15.627, 17.8643, 22.3044, 34.6688, -32.8199, -27.2303
1.928, -1, 15.6721, 17.8242, 22.3195, 34.7407, -32.7357, -27.2841
1.932, -1, 15.7173, 17.7841, 22.3345, 34.8126, -32.6516, -27.3379
1.936, -1, 15.7623, 17.7441, 22.3496, 34.8843, -32.5676, -27.3916
1.94, -1, 15.8073, 17.7041, 22.3646, 34.956, -32.4836, -27.4453
1.944, -1, 15.8523, 17.6642, 22.3796, 35.0276, -32.3997, -27.4989
1.948, -1, 15.8973, 17.6243, 22.3946, 35.0992, -32.316, -27.5524
1.952, -1, 15.9422, 17.5844, 22.4096, 35.1707, -32.2323, -27.6059
1.956, -1, 15.987, 17.5446, 22.4246, 35.2421, -32.1487, -27.6594
1.96, -1, 16.0318, 17.5048, 22.4396, 35.3134, -32.0652, -27.7128
1.964, -1, 16.0765, 17.4651, 22.4545, 35.3846, -31.9817, -27.7661
1.968, -1, 16.1212, 17.4254, 22.4694, 35.4558, -31.8984, -27.8194
1.972, -1, 16.1659, 17.3858, 22.4844, 35.5269, -31.8151, -27.8726
1.976, -1, 16.2105, 17.3461, 22.4993, 35.598, -31.7319, -27.9258
1.98, -1, 16.2551, 17.3066, 22.5141, 35.6689, -31.6488, -27.9789
1.984, -1, 16.2996, 17.267, 22.529, 35.7398, -31.5658, -28.032
1.988, -1, 16.3441, 17.2275, 22.5439, 35.8107, -31.4829, -28.085
1.992, -1, 16.3886, 17.1881, 22.5587, 35.8814, -31.4, -28.138
1.996, -1, 16.433, 17.1487, 22.5735, 35.9521, -31.3173, -28.1909
1.999, -1, 16.4773, 17.1093, 22.5883, 36.0228, -31.2346, -28.2438
2.004, -1, 16.5216, 17.0699, 22.6031, 36.0933, -31.1519, -28.2966
2.008, -1, 16.5659, 17.0306, 22.6179, 36.1638, -31.0694, -28.3493
2.012, -1, 16.6101, 16.9914, 22.6327, 36.2342, -30.987, -28.4021
2.015, -1, 16.6543, 16.9521, 22.6474, 36.3046, -30.9046, -28.4547
2.019, -1, 16.6984, 16.9129, 22.6622, 36.3748, -30.8223, -28.5073
2.024, -1, 16.7425, 16.8738, 22.6769, 36.445, -30.7401, -28.5599
2.028, -1, 16.7866, 16.8347, 22.6916, 36.5152, -30.658, -28.6124
2.031, -1, 16.8306, 16.7956, 22.7063, 36.5853, -30.5759, -28.6648
2.036, -1, 16.8746, 16.7566, 22.721, 36.6553, -30.4939, -28.7172
2.04, -1, 16.9185, 16.7176, 22.7357, 36.7252, -30.412, -28.7696
2.044, -1, 16.9624, 16.6786, 22.7503, 36.7951, -30.3302, -28.8219
2.048, -1, 17.0062, 16.6397, 22.765, 36.8649, -30.2485, -28.8742
2.051, -1, 17.05, 16.6008, 22.7796, 36.9346, -30.1668, -28.9264
2.055, -1, 17.0938, 16.5619, 22.7942, 37.0043, -30.0852, -28.9785
2.06, -1, 17.1375, 16.5231, 22.8088, 37.0739, -30.0037, -29.0306
2.064, -1, 17.1811, 16.4844, 22.8234, 37.1435, -29.9223, -29.0827
2.068, -1, 17.2244, 16.4458, 22.8379, 37.2129, -29.841, -29.1347
2.071, -1, 17.2671, 16.4077, 22.8523, 37.2823, -29.7597, -29.1866
2.076, -1, 17.3088, 16.3701, 22.8666, 37.3515, -29.6787, -29.2384
2.08, -1, 17.3495, 16.3335, 22.8807, 37.4204, -29.5981, -29.29
2.084, -1, 17.3888, 16.2979, 22.8945, 37.4888, -29.518, -29.3412
2.087, -1, 17.4267, 16.2635, 22.9079, 37.5564, -29.4389, -29.3918
2.092, -1, 17.4632, 16.2306, 22.921, 37.6229, -29.3611, -29.4417
2.096, -1, 17.4983, 16.1992, 22.9337, 37.6879, -29.2851, -29.4903
2.1, -1, 17.5321, 16.1694, 22.9459, 37.7508, -29.2115, -29.5374
2.104, -1, 17.5644, 16.1411, 22.9576, 37.8112, -29.1408, -29.5827
2.107, -1, 17.5951, 16.1145, 22.9686, 37.8686, -29.0737, -29.6257
2.111, -1, 17.624, 16.0896, 22.9791, 37.9226, -29.0106, -29.6661
2.116, -1, 17.6513, 16.0662, 22.9888, 37.9726, -28.9521, -29.7035
2.12, -1, 17.6768, 16.044, 22.9978, 38.0183, -28.8986, -29.7378
2.124, -1, 17.7009, 16.023, 23.0061, 38.0595, -28.8504, -29.7686
2.127, -1, 17.7234, 16.0029, 23.0136, 38.0959, -28.8078, -29.7958
2.132, -1, 17.7446, 15.9838, 23.0205, 38.1275, -28.7707, -29.8195
2.136, -1, 17.7642, 15.9657, 23.0267, 38.1546, -28.739, -29.8397
2.14, -1, 17.7823, 15.9489, 23.0321, 38.1772, -28.7125, -29.8566
2.143, -1, 17.7986, 15.9337, 23.0368, 38.1957, -28.6907, -29.8705
2.148, -1, 17.8131, 15.9202, 23.0409, 38.2106, -28.6732, -29.8816
2.152, -1, 17.8259, 15.9085, 23.0443, 38.2223, -28.6594, -29.8904
2.156, -1, 17.8371, 15.8987, 23.0471, 38.2313, -28.6488, -29.8971
2.16, -1, 17.8467, 15.8905, 23.0494, 38.2381, -28.6409, -29.9021
2.163, -1, 17.855, 15.8838, 23.0513, 38.243, -28.635, -29.9058
2.168, -1, 17.8619, 15.8785, 23.0527, 38.2465, -28.6308, -29.9084
2.172, -1, 17.8674, 15.8744, 23.0538, 38.249, -28.6279, -29.9103
2.176, 2, 17.8716, 15.8714, 23.0546, 38.2507, -28.6258, -29.9115
2.179, 2, 17.8747, 15.8692, 23.0552, 38.2519, -28.6245, -29.9124
2.184, 2, 17.8769, 15.8677, 23.0556, 38.2527, -28.6235, -29.913
2.188, 2, 17.8784, 15.8667, 23.0558, 38.2532, -28.6229, -29.9134
2.192, 2, 17.8794, 15.866, 23.056, 38.2536, -28.6224, -29.9137
2.196, 2, 17.8801, 15.8655, 23.0561, 38.2538, -28.6221, -29.9138
2.199, 2, 17.8806, 15.8652, 23.0562, 38.254, -28.6219, -29.914
2.204, 2, 17.8809, 15.865, 23.0563, 38.2541, -28.6218, -29.9141
2.208, 2, 17.8811, 15.8649, 23.0563, 38.2542, -28.6217, -29.9141
2.212, 2, 17.8813, 15.8648, 23.0563, 38.2543, -28.6217, -29.9141
2.216, 2, 17.8814, 15.8647, 23.0564, 38.2543, -28.6216, -29.9142
2.219, 2, 17.8814, 15.8646, 23.0564, 38.2543, -28.6216, -29.9142
2.224, 2, 17.8815, 15.8646, 23.0564, 38.2543, -28.6216, -29.9142
2.228, 2, 17.8815, 15.8646, 23.0564, 38.2543, -28.6215, -29.9142
2.232, 2, 17.8815, 15.8646, 23.0564, 38.2543, -28.6215, -29.9142
2.235, 2, 17.8815, 15.8646, 23.0564, 38.2544, -28.6215, -29.9142
2.24, 2, 17.8815, 15.8646, 23.0564, 38.2544, -28.6215, -29.9142
2.244, 2, 17.8816, 15.8646, 23.0564, 38.2544, -28.6215, -29.9142
2.248, 2, 17.8816, 15.8646, 23.0564, 38.2544, -28.6215, -29.9142
2.252, 2, 17.8816, 15.8646, 23.0564, 38.2544, -28.6215, -29.9142
2.255, 2, 17.8816, 15.8646, 23.0564, 38.2544, -28.6215, -29.9142
2.259, 2, 17.8816, 15.8646, 23.0564, 38.2544, -28.6215, -29.9142
2.264, 2, 17.8816, 15.8645, 23.0564, 38.2544, -28.6215, -29.9142
2.268, 2, 17.8816, 15.8645, 23.0564, 38.2544, -28.6215, -29.9142
2.272, 2, 17.8816, 15.8645, 23.0564, 38.2544, -28.6215, -29.9142
2.275, 2, 17.8816, 15.8645, 23.0564, 38.2544, -28.6215, -29.9142
2.28, 2, 17.8816, 15.8645, 23.0564, 38.2544, -28.6215, -29.9142
2.284, 2, 17.8816, 15.8645, 23.0564, 38.2544, -28.6215, -29.9142
2.288, 2, 17.8816, 15.8645, 23.0564, 38.2544, -28.6215, -29.9142
2.291, 2, 17.8816, 15.8645, 23.0564, 38.2544, -28.6215, -29.9142
2.296, 2, 17.8816, 15.8645, 23.0564, 38.2544, -28.6215, -29.9142
2.3, 2, 17.8816, 15.8645, 23.0564, 38.2544, -28.6215, -29.9142
2.304, 2, 17.8816, 15.8645, 23.0564, 38.2544, -28.6215, -29.9142
2.308, 2, 17.8816, 15.8645, 23.0564, 38.2544, -28.6215, -29.9142
2.311, 2, 17.8816, 15.8645, 23.0564, 38.2544, -28.6215, -29.9142
2.316, 2, 17.8816, 15.8645, 23.0564, 38.2544, -28.6215, -29.9142
2.32, 2, 17.8816, 15.8645, 23.0564, 38.2544, -28.6215, -29.9142
2.324, 2, 17.8816, 15.8645, 23.0564, 38.2544, -28.6215, -29.9142
2.328, 2, 17.8816, 15.8645, 23.0564, 38.2544, -28.6215, -29.9142
2.331, 2, 17.8816, 15.8645, 23.0564, 38.2544, -28.6215, -29.9142
2.336, 2, 17.8816, 15.8645, 23.0564, 38.2544, -28.6215, -29.9142
2.34, 2, 17.8816, 15.8645, 23.0564, 38.2544, -28.6215, -29.9142
2.344, 2, 17.8816, 15.8645, 23.0564, 38.2544, -28.6215, -29.9142
2.347, 2, 17.8816, 15.8645, 23.0564, 38.2544, -28.6215, -29.9142
2.352, 2, 17.8816, 15.8645, 23.0564, 38.2544, -28.6215, -29.9142
2.356, 2, 17.8816, 15.8645, 23.0564, 38.2544, -28.6215, -29.9142
2.36, 2, 17.8816, 15.8645, 23.0564, 38.2544, -28.6215, -29.9142
2.364, 2, 17.8816, 15.8645, 23.0564, 38.2544, -28.6215, -29.9142
2.367, 2, 17.8816, 15.8645, 23.0564, 38.2544, -28.6215, -29.9142
2.372, 2, 17.8816, 15.8645, 23.0564, 38.2544, -28.6215, -29.9142
2.376, 2, 17.8816, 15.8645, 23.0564, 38.2544, -28.6215, -29.9142
2.38, 2, 17.8816, 15.8645, 23.0564, 38.2544, -28.6215, -29.9142
2.383, 2, 17.8816, 15.8645, 23.0564, 38.2544, -28.6215, -29.9142
2.388, 2, 17.8816, 15.8645, 23.0564, 38.2544, -28.6215, -29.9142
2.392, 2, 17.8816, 15.8645, 23.0564, 38.2544, -28.6215, -29.9142
2.396, 2, 17.8816, 15.8645, 23.0564, 38.2544, -28.6215, -29.9142
2.4, 2, 17.8816, 15.8645, 23.0564, 38.2544, -28.6215, -29.9142
2.403, 2, 17.8816, 15.8645, 23.0564, 38.2544, -28.6215, -29.9142
2.408, 2, 17.8816, 15.8645, 23.0564, 38.2544, -28.6215, -29.9142
2.412, 2, 17.8816, 15.8645, 23.0564, 38.2544, -28.6215, -29.9142
2.416, 2, 17.8816, 15.8645, 23.0564, 38.2544, -28.6215, -29.9142
2.42, 2, 17.8816, 15.8645, 23.0564, 38.2544, -28.6215, -29.9142
2.423, 2, 17.8816, 15.8645, 23.0564, 38.2544, -28.6215, -29.9142
2.428, 2, 17.8816, 15.8645, 23.0564, 38.2544, -28.6215, -29.9142
2.432, 2, 17.8816, 15.8645, 23.0564, 38.2544, -28.6215, -29.9142
2.436, 2, 17.8816, 15.8645, 23.0564, 38.2544, -28.6215, -29.9142
2.439, 2, 17.8816, 15.8645, 23.0564, 38.2544, -28.6215, -29.9142
2.444, 2, 17.8816, 15.8645, 23.0564, 38.2544, -28.6215, -29.9142
2.448, 2, 17.8816, 15.8645, 23.0564, 38.2544, -28.6215, -29.9142
2.452, 2, 17.8816, 15.8645, 23.0564, 38.2544, -28.6215, -29.9142
2.456, 2, 17.8816, 15.8645, 23.0564, 38.2544, -28.6215, -29.9142
2.459, 2, 17.8816, 15.8645, 23.0564, 38.2544, -28.6215, -29.9142
2.464, 2, 17.8816, 15.8645, 23.0564, 38.2544, -28.6215, -29.9142
2.468, 2, 17.8816, 15.8645, 23.0564, 38.2544, -28.6215, -29.9142
2.472, 2, 17.8816, 15.8645, 23.0564, 38.2544, -28.6215, -29.9142
2.476, 2, 17.8816, 15.8645, 23.0564, 38.2544, -28.6215, -29.9142
2.479, 2, 17.8816, 15.8645, 23.0564, 38.2544, -28.6215, -29.9142
2.484, 2, 17.8816, 15.8645, 23.0564, 38.2544, -28.6215, -29.9142
2.488, 2, 17.8816, 15.8645, 23.0564, 38.2544, -28.6215, -29.9142
2.492, 2, 17.8816, 15.8645, 23.0564, 38.2544, -28.6215, -29.9142
2.495, 2, 17.8816, 15.8645, 23.0564, 38.2544, -28.6215, -29.9142
2.5, 2, 17.8816, 15.8645, 23.0564, 38.2544, -28.6215, -29.9142
2.504, 2, 17.8816, 15.8645, 23.0564, 38.2544, -28.6215, -29.9142
2.508, 2, 17.8816, 15.8645, 23.0564, 38.2544, -28.6215, -29.9142
2.512, 2, 17.8816, 15.8645, 23.0564, 38.2544, -28.6215, -29.9142
2.515, 2, 17.8816, 15.8645, 23.0564, 38.2544, -28.6215, -29.9142
2.52, 2, 17.8816, 15.8645, 23.0564, 38.2544, -28.6215, -29.9142
2.524, 2, 17.8816, 15.8645, 23.0564, 38.2544, -28.6215, -29.9142
2.528, 2, 17.8816, 15.8645, 23.0564, 38.2544, -28.6215, -29.9142
2.531, 2, 17.8816, 15.8645, 23.0564, 38.2544, -28.6215, -29.9142
2.536, 2, 17.8816, 15.8645, 23.0564, 38.2544, -28.6215, -29.9142
2.54, 2, 17.8816, 15.8645, 23.0564, 38.2544, -28.6215, -29.9142
2.544, 2, 17.8816, 15.8645, 23.0564, 38.2544, -28.6215, -29.9142
2.548, 2, 17.8816, 15.8645, 23.0564, 38.2544, -28.6215, -29.9142
2.551, 2, 17.8816, 15.8645, 23.0564, 38.2544, -28.6215, -29.9142
2.556, 2, 17.8816, 15.8645, 23.0564, 38.2544, -28.6215, -29.9142
2.56, 2, 17.8816, 15.8645, 23.0564, 38.2544, -28.6215, -29.9142
2.564, 2, 17.8816, 15.8645, 23.0564, 38.2544, -28.6215, -29.9142
2.568, 2, 17.8816, 15.8645, 23.0564, 38.2544, -28.6215, -29.9142
2.571, 2, 17.8816, 15.8645, 23.0564, 38.2544, -28.6215, -29.9142
2.576, 2, 17.8816, 15.8645, 23.0564, 38.2544, -28.6215, -29.9142
2.58, 2, 17.8816, 15.8645, 23.0564, 38.2544, -28.6215, -29.9142
2.584, 2, 17.8816, 15.8645, 23.0564, 38.2544, -28.6215, -29.9142
2.587, 2, 17.8816, 15.8645, 23.0564, 38.2544, -28.6215, -29.9142
2.592, 2, 17.8816, 15.8645, 23.0564, 38.2544, -28.6215, -29.9142
2.596, 2, 17.8816, 15.8645, 23.0564, 38.2544, -28.6215, -29.9142
2.6, 2, 17.8816, 15.8645, 23.0564, 38.2544, -28.6215, -29.9142
2.604, 2, 17.8816, 15.8645, 23.0564, 38.2544, -28.6215, -29.9142
2.607, 2, 17.8816, 15.8645, 23.0564, 38.2544, -28.6215, -29.9142
2.612, 2, 17.8816, 15.8645, 23.0564, 38.2544, -28.6215, -29.9142
2.616, 2, 17.8816, 15.8645, 23.0564, 38.2544, -28.6215, -29.9142
2.62, 2, 17.8816, 15.8645, 23.0564, 38.2544, -28.6215, -29.9142
2.624, 2, 17.8816, 15.8645, 23.0564, 38.2544, -28.6215, -29.9142
2.627, 2, 17.8816, 15.8645, 23.0564, 38.2544, -28.6215, -29.9142
2.632, 2, 17.8816, 15.8645, 23.0564, 38.2544, -28.6215, -29.9142
2.636, 2, 17.8816, 15.8645, 23.0564, 38.2544, -28.6215, -29.9142
2.64, 2, 17.8816, 15.8645, 23.0564, 38.2544, -28.6215, -29.9142
2.643, 2, 17.8816, 15.8645, 23.0564, 38.2544, -28.6215, -29.9142
2.648, 2, 17.8816, 15.8645, 23.0564, 38.2544, -28.6215, -29.9142
2.652, 2, 17.8816, 15.8645, 23.0564, 38.2544, -28.6215, -29.9142
2.656, 2, 17.8816, 15.8645, 23.0564, 38.2544, -28.6215, -29.9142
2.66, 2, 17.8816, 15.8645, 23.0564, 38.2544, -28.6215, -29.9142
2.663, 2, 17.8816, 15.8645, 23.0564, 38.2544, -28.6215, -29.9142
2.668, 2, 17.8816, 15.8645, 23.0564, 38.2544, -28.6215, -29.9142
2.672, 2, 17.8816, 15.8645, 23.0564, 38.2544, -28.6215, -29.9142
2.676, 2, 17.8816, 15.8645, 23.0564, 38.2544, -28.6215, -29.9142
2.679, 2, 17.8816, 15.8645, 23.0564, 38.2544, -28.6215, -29.9142
2.684, 2, 17.8816, 15.8645, 23.0564, 38.2544, -28.6215, -29.9142
2.688, 2, 17.8816, 15.8645, 23.0564, 38.2544, -28.6215, -29.9142
2.692, 2, 17.8816, 15.8645, 23.0564, 38.2544, -28.6215, -29.9142
2.696, 2, 17.8816, 15.8645, 23.0564, 38.2544, -28.6215, -29.9142
2.699, 2, 17.8816, 15.8645, 23.0564, 38.2544, -28.6215, -29.9142
2.704, 2, 17.8816, 15.8645, 23.0564, 38.2544, -28.6215, -29.9142
2.708, 2, 17.8816, 15.8645, 23.0564, 38.2544, -28.6215, -29.9142
2.712, 2, 17.8816, 15.8645, 23.0564, 38.2544, -28.6215, -29.9142
2.716, 2, 17.8816, 15.8645, 23.0564, 38.2544, -28.6215, -29.9142
2.719, 2, 17.8816, 15.8645, 23.0564, 38.2544, -28.6215, -29.9142
2.724, 2, 17.8816, 15.8645, 23.0564, 38.2544, -28.6215, -29.9142
2.728, 2, 17.8816, 15.8645, 23.0564, 38.2544, -28.6215, -29.9142
2.732, 2, 17.8816, 15.8645, 23.0564, 38.2544, -28.6215, -29.9142
2.735, 2, 17.8816, 15.8645, 23.0564, 38.2544, -28.6215, -29.9142
2.74, 2, 17.8816, 15.8645, 23.0564, 38.2544, -28.6215, -29.9142
2.744, 2, 17.8816, 15.8645, 23.0564, 38.2544, -28.6215, -29.9142
2.748, 2, 17.8816, 15.8645, 23.0564, 38.2544, -28.6215, -29.9142
2.752, 2, 17.8816, 15.8645, 23.0564, 38.2544, -28.6215, -29.9142
2.755, 2, 17.8816, 15.8645, 23.0564, 38.2544, -28.6215, -29.9142
2.76, 2, 17.8816, 15.8645, 23.0564, 38.2544, -28.6215, -29.9142
2.764, 2, 17.8816, 15.8645, 23.0564, 38.2544, -28.6215, -29.9142
2.768, 2, 17.8816, 15.8645, 23.0564, 38.2544, -28.6215, -29.9142
2.772, 2, 17.8816, 15.8645, 23.0564, 38.2544, -28.6215, -29.9142
2.775, 2, 17.8816, 15.8645, 23.0564, 38.2544, -28.6215, -29.9142
2.78, 2, 17.8816, 15.8645, 23.0564, 38.2544, -28.6215, -29.9142
2.784, 2, 17.8816, 15.8645, 23.0564, 38.2544, -28.6215, -29.9142
2.788, 2, 17.8816, 15.8645, 23.0564, 38.2544, -28.6215, -29.9142
2.791, 2, 17.8816, 15.8645, 23.0564, 38.2544, -28.6215, -29.9142
2.796, 2, 17.8816, 15.8645, 23.0564, 38.2544, -28.6215, -29.9142
2.8, 2, 17.8816, 15.8645, 23.0564, 38.2544, -28.6215, -29.9142
2.804, 2, 17.8816, 15.8645, 23.0564, 38.2544, -28.6215, -29.9142
2.808, 2, 17.8816, 15.8645, 23.0564, 38.2544, -28.6215, -29.9142
2.811, 2, 17.8816, 15.8645, 23.0564, 38.2544, -28.6215, -29.9142
2.816, 2, 17.8816, 15.8645, 23.0564, 38.2544, -28.6215, -29.9142
2.82, 2, 17.8816, 15.8645, 23.0564, 38.2544, -28.6215, -29.9142
2.824, 2, 17.8816, 15.8645, 23.0564, 38.2544, -28.6215, -29.9142
2.828, 2, 17.8816, 15.8645, 23.0564, 38.2544, -28.6215, -29.9142
2.831, 2, 17.8816, 15.8645, 23.0564, 38.2544, -28.6215, -29.9142
2.836, 2, 17.8816, 15.8645, 23.0564, 38.2544, -28.6215, -29.9142
2.84, 2, 17.8816, 15.8645, 23.0564, 38.2544, -28.6215, -29.9142
2.844, 2, 17.8816, 15.8645, 23.0564, 38.2544, -28.6215, -29.9142
2.847, 2, 17.8816, 15.8645, 23.0564, 38.2544, -28.6215, -29.9142
2.852, 2, 17.8816, 15.8645, 23.0564, 38.2544, -28.6215, -29.9142
2.856, 2, 17.8816, 15.8645, 23.0564, 38.2544, -28.6215, -29.9142
2.86, 2, 17.8816, 15.8645, 23.0564, 38.2544, -28.6215, -29.9142
2.864, 2, 17.8816, 15.8645, 23.0564, 38.2544, -28.6215, -29.9142
2.867, 2, 17.8816, 15.8645, 23.0564, 38.2544, -28.6215, -29.9142
2.872, 2, 17.8816, 15.8645, 23.0564, 38.2544, -28.6215, -29.9142
2.876, 2, 17.8816, 15.8645, 23.0564, 38.2544, -28.6215, -29.9142
2.88, 2, 17.8816, 15.8645, 23.0564, 38.2544, -28.6215, -29.9142
2.883, 2, 17.8816, 15.8645, 23.0564, 38.2544, -28.6215, -29.9142
2.888, 2, 17.8816, 15.8645, 23.0564, 38.2544, -28.6215, -29.9142
2.892, 2, 17.8816, 15.8645, 23.0564, 38.2544, -28.6215, -29.9142
2.896, 2, 17.8816, 15.8645, 23.0564, 38.2544, -28.6215, -29.9142
2.9, 2, 17.8816, 15.8645, 23.0564, 38.2544, -28.6215, -29.9142
2.903, 2, 17.8816, 15.8645, 23.0564, 38.2544, -28.6215, -29.9142
2.908, 2, 17.8816, 15.8645, 23.0564, 38.2544, -28.6215, -29.9142
2.912, 2, 17.8816, 15.8645, 23.0564, 38.2544, -28.6215, -29.9142
2.916, 2, 17.8816, 15.8645, 23.0564, 38.2544, -28.6215, -29.9142
2.92, 2, 17.8816, 15.8645, 23.0564, 38.2544, -28.6215, -29.9142
2.923, 2, 17.8816, 15.8645, 23.0564, 38.2544, -28.6215, -29.9142
2.928, 2, 17.8816, 15.8645, 23.0564, 38.2544, -28.6215, -29.9142
2.932, 2, 17.8816, 15.8645, 23.0564, 38.2544, -28.6215, -29.9142
2.936, 2, 17.8816, 15.8645, 23.0564, 38.2544, -28.6215, -29.9142
2.939, 2, 17.8816, 15.8645, 23.0564, 38.2544, -28.6215, -29.9142
2.944, 2, 17.8816, 15.8645, 23.0564, 38.2544, -28.6215, -29.9142
2.948, 2, 17.8816, 15.8645, 23.0564, 38.2544, -28.6215, -29.9142
2.952, 2, 17.8816, 15.8645, 23.0564, 38.2544, -28.6215, -29.9142
2.956, 2, 17.8816, 15.8645, 23.0564, 38.2544, -28.6215, -29.9142
2.959, 2, 17.8816, 15.8645, 23.0564, 38.2544, -28.6215, -29.9142
2.964, 2, 17.8816, 15.8645, 23.0564, 38.2544, -28.6215, -29.9142
2.968, 2, 17.8816, 15.8645, 23.0564, 38.2544, -28.6215, -29.9142
2.972, 2, 17.8816, 15.8645, 23.0564, 38.2544, -28.6215, -29.9142
2.976, 2, 17.8816, 15.8645, 23.0564, 38.2544, -28.6215, -29.9142
2.98, 2, 17.8816, 15.8645, 23.0564, 38.2544, -28.6215, -29.9142
2.984, 2, 17.8816, 15.8645, 23.0564, 38.2544, -28.6215, -29.9142
2.988, 2, 17.8816, 15.8645, 23.0564, 38.2544, -28.6215, -29.9142
2.992, 2, 17.8816, 15.8645, 23.0564, 38.2544, -28.6215, -29.9142
2.995, 2, 17.8816, 15.8645, 23.0564, 38.2544, -28.6215, -29.9142
3, 2, 17.8816, 15.8645, 23.0564, 38.2544, -28.6215, -29.9142
3.004, 2, 17.8816, 15.8645, 23.0564, 38.2544, -28.6215, -29.9142
3.008, 2, 17.8816, 15.8645, 23.0564, 38.2544, -28.6215, -29.9142
3.012, 2, 17.8816, 15.8645, 23.0564, 38.2544, -28.6215, -29.9142
3.015, 2, 17.8816, 15.8645, 23.0564, 38.2544, -28.6215, -29.9142
3.02, 2, 17.8816, 15.8645, 23.0564, 38.2544, -28.6215, -29.9142
3.024, 2, 17.8816, 15.8645, 23.0564, 38.2544, -28.6215, -29.9142
3.028, 2, 17.8816, 15.8645, 23.0564, 38.2544, -28.6215, -29.9142
3.031, 2, 17.8816, 15.8645, 23.0564, 38.2544, -28.6215, -29.9142
3.036, 2, 17.8816, 15.8645, 23.0564, 38.2544, -28.6215, -29.9142
3.04, 2, 17.8816, 15.8645, 23.0564, 38.2544, -28.6215, -29.9142
3.044, 2, 17.8816, 15.8645, 23.0564, 38.2544, -28.6215, -29.9142
3.048, 2, 17.8816, 15.8645, 23.0564, 38.2544, -28.6215, -29.9142
3.051, 2, 17.8816, 15.8645, 23.0564, 38.2544, -28.6215, -29.9142
3.056, 2, 17.8816, 15.8645, 23.0564, 38.2544, -28.6215, -29.9142
3.06, 2, 17.8816, 15.8645, 23.0564, 38.2544, -28.6215, -29.9142
3.064, 2, 17.8816, 15.8645, 23.0564, 38.2544, -28.6215, -29.9142
3.068, 2, 17.8816, 15.8645, 23.0564, 38.2544, -28.6215, -29.9142
3.071, 2, 17.8816, 15.8645, 23.0564, 38.2544, -28.6215, -29.9142
3.076, 2, 17.8816, 15.8645, 23.0564, 38.2544, -28.6215, -29.9142
3.08, 2, 17.8816, 15.8645, 23.0564, 38.2544, -28.6215, -29.9142
3.084, 2, 17.8816, 15.8645, 23.0564, 38.2544, -28.6215, -29.9142
3.087, 2, 17.8816, 15.8645, 23.0564, 38.2544, -28.6215, -29.9142
3.092, 2, 17.8816, 15.8645, 23.0564, 38.2544, -28.6215, -29.9142
3.096, 2, 17.8816, 15.8645, 23.0564, 38.2544, -28.6215, -29.9142
3.1, 2, 17.8816, 15.8645, 23.0564, 38.2544, -28.6215, -29.9142
3.104, 2, 17.8816, 15.8645, 23.0564, 38.2544, -28.6215, -29.9142
3.107, 2, 17.8816, 15.8645, 23.0564, 38.2544, -28.6215, -29.9142
3.112, 2, 17.8816, 15.8645, 23.0564, 38.2544, -28.6215, -29.9142
3.116, 2, 17.8816, 15.8645, 23.0564, 38.2544, -28.6215, -29.9142
3.12, 2, 17.8816, 15.8645, 23.0564, 38.2544, -28.6215, -29.9142
3.124, 2, 17.8816, 15.8645, 23.0564, 38.2544, -28.6215, -29.9142
3.128, 2, 17.8816, 15.8645, 23.0564, 38.2544, -28.6215, -29.9142
3.132, 2, 17.8816, 15.8645, 23.0564, 38.2544, -28.6215, -29.9142
3.136, 2, 17.8816, 15.8645, 23.0564, 38.2544, -28.6215, -29.9142
3.14, 2, 17.8816, 15.8645, 23.0564, 38.2544, -28.6215, -29.9142
3.143, 2, 17.8816, 15.8645, 23.0564, 38.2544, -28.6215, -29.9142
3.148, 2, 17.8816, 15.8645, 23.0564, 38.2544, -28.6215, -29.9142
3.152, 2, 17.8816, 15.8645, 23.0564, 38.2544, -28.6215, -29.9142
3.156, 2, 17.8816, 15.8645, 23.0564, 38.2544, -28.6215, -29.9142
3.16, 2, 17.8816, 15.8645, 23.0564, 38.2544, -28.6215, -29.9142
3.163, 2, 17.8816, 15.8645, 23.0564, 38.2544, -28.6215, -29.9142
3.168, 2, 17.8816, 15.8645, 23.0564, 38.2544, -28.6215, -29.9142
3.172, 2, 17.8816, 15.8645, 23.0564, 38.2544, -28.6215, -29.9142
3.176, 2, 17.8816, 15.8645, 23.0564, 38.2544, -28.6215, -29.9142
3.179, 2, 17.8816, 15.8645, 23.0564, 38.2544, -28.6215, -29.9142
3.184, 2, 17.8816, 15.8645, 23.0564, 38.2544, -28.6215, -29.9142
3.188, 2, 17.8816, 15.8645, 23.0564, 38.2544, -28.6215, -29.9142
3.192, 2, 17.8816, 15.8645, 23.0564, 38.2544, -28.6215, -29.9142
3.196, 2, 17.8816, 15.8645, 23.0564, 38.2544, -28.6215, -29.9142
3.199, 2, 17.8816, 15.8645, 23.0564, 38.2544, -28.6215, -29.9142
3.204, 2, 17.8816, 15.8645, 23.0564, 38.2544, -28.6215, -29.9142
3.208, 2, 17.8816, 15.8645, 23.0564, 38.2544, -28.6215, -29.9142
3.212, 2, 17.8816, 15.8645, 23.0564, 38.2544, -28.6215, -29.9142
3.216, 2, 17.8816, 15.8645, 23.0564, 38.2544, -28.6215, -29.9142
3.22, 2, 17.8816, 15.8645, 23.0564, 38.2544, -28.6215, -29.9142
3.224, 2, 17.8816, 15.8645, 23.0564, 38.2544, -28.6215, -29.9142
3.228, 2, 17.8816, 15.8645, 23.0564, 38.2544, -28.6215, -29.9142
3.232, 2, 17.8816, 15.8645, 23.0564, 38.2544, -28.6215, -29.9142
3.235, 2, 17.8816, 15.8645, 23.0564, 38.2544, -28.6215, -29.9142
3.24, 2, 17.8816, 15.8645, 23.0564, 38.2544, -28.6215, -29.9142
3.244, 2, 17.8816, 15.8645, 23.0564, 38.2544, -28.6215, -29.9142
3.248, 4, 17.8816, 15.8645, 23.0564, 38.2544, -28.6215, -29.9142
3.252, 4, 17.8816, 15.8645, 23.0564, 38.2544, -28.6215, -29.9142
3.255, 4, 17.8816, 15.8645, 23.0564, 38.2544, -28.6215, -29.9142
3.26, 4, 17.8816, 15.8645, 23.0564, 38.2544, -28.6215, -29.9142
3.264, 4, 17.8816, 15.8645, 23.0564, 38.2544, -28.6215, -29.9142
3.268, 4, 17.8816, 15.8645, 23.0564, 38.2544, -28.6215, -29.9142
3.272, 4, 17.8816, 15.8645, 23.0564, 38.2544, -28.6215, -29.9142
3.276, 4, 17.8816, 15.8645, 23.0564, 38.2544, -28.6215, -29.9142
3.28, 4, 17.8816, 15.8645, 23.0564, 38.2544, -28.6215, -29.9142
3.284, 4, 17.8816, 15.8645, 23.0564, 38.2544, -28.6215, -29.9142
3.288, 4, 17.8816, 15.8645, 23.0564, 38.2544, -28.6215, -29.9142
3.291, 4, 17.8816, 15.8645, 23.0564, 38.2544, -28.6215, -29.9142
3.296, 4, 17.8816, 15.8645, 23.0564, 38.2544, -28.6215, -29.9142
3.3, 4, 17.8816, 15.8645, 23.0564, 38.2544, -28.6215, -29.9142
3.304, 4, 17.8816, 15.8645, 23.0564, 38.2544, -28.6215, -29.9142
3.308, 4, 17.8816, 15.8645, 23.0564, 38.2544, -28.6215, -29.9142
3.312, 4, 17.8816, 15.8645, 23.0564, 38.2544, -28.6215, -29.9142
3.316, 4, 17.8816, 15.8645, 23.0564, 38.2544, -28.6215, -29.9142
3.32, 4, 17.8816, 15.8645, 23.0564, 38.2544, -28.6215, -29.9142
3.324, 4, 17.8816, 15.8645, 23.0564, 38.2544, -28.6215, -29.9142
3.328, 4, 17.8816, 15.8645, 23.0564, 38.2544, -28.6215, -29.9142
3.332, 4, 17.8816, 15.8645, 23.0564, 38.2544, -28.6215, -29.9142
3.336, 4, 17.8816, 15.8645, 23.0564, 38.2544, -28.6215, -29.9142
3.34, 4, 17.8816, 15.8645, 23.0564, 38.2544, -28.6215, -29.9142
3.344, 4, 17.8816, 15.8645, 23.0564, 38.2544, -28.6215, -29.9142
3.347, 4, 17.8816, 15.8645, 23.0564, 38.2544, -28.6215, -29.9142
3.352, 4, 17.8816, 15.8645, 23.0564, 38.2544, -28.6215, -29.9142
3.356, 4, 17.8816, 15.8645, 23.0564, 38.2544, -28.6215, -29.9142
3.36, 4, 17.8816, 15.8645, 23.0564, 38.2544, -28.6215, -29.9142
3.364, 4, 17.8816, 15.8645, 23.0564, 38.2544, -28.6215, -29.9142
3.368, 4, 17.8816, 15.8645, 23.0564, 38.2544, -28.6215, -29.9142
3.372, 4, 17.8816, 15.8645, 23.0564, 38.2544, -28.6215, -29.9142
3.376, 4, 17.8816, 15.8645, 23.0564, 38.2544, -28.6215, -29.9142
3.38, 4, 17.8816, 15.8645, 23.0564, 38.2544, -28.6215, -29.9142
3.383, 4, 17.8816, 15.8645, 23.0564, 38.2544, -28.6215, -29.9142
3.388, 4, 17.8816, 15.8645, 23.0564, 38.2544, -28.6215, -29.9142
3.392, 4, 17.8816, 15.8645, 23.0564, 38.2544, -28.6215, -29.9142
3.396, 4, 17.8815, 15.8645, 23.0564, 38.2544, -28.6215, -29.9142
3.4, 4, 17.8812, 15.8645, 23.0564, 38.2543, -28.6215, -29.9142
3.403, 4, 17.8806, 15.8645, 23.0565, 38.2542, -28.6216, -29.9141
3.408, 4, 17.8796, 15.8645, 23.0566, 38.254, -28.6217, -29.9139
3.412, 4, 17.8782, 15.8644, 23.0568, 38.2534, -28.6219, -29.9134
3.416, 4, 17.8763, 15.8643, 23.0573, 38.2523, -28.6223, -29.9124
3.42, 4, 17.8742, 15.8642, 23.0579, 38.2504, -28.623, -29.9107
3.424, 4, 17.8719, 15.8639, 23.0589, 38.2474, -28.624, -29.9081
3.428, 4, 17.8695, 15.8636, 23.0603, 38.243, -28.6256, -29.9042
3.432, 4, 17.867, 15.8631, 23.0622, 38.2369, -28.6278, -29.8989
3.436, 4, 17.8644, 15.8626, 23.0647, 38.2291, -28.6306, -29.8919
3.439, 5, 17.8617, 15.8618, 23.0677, 38.2193, -28.6341, -29.8832
3.444, 5, 17.8586, 15.8609, 23.0713, 38.2074, -28.6383, -29.8726
3.448, 5, 17.8554, 15.8599, 23.0756, 38.1933, -28.6433, -29.8602
3.452, 5, 17.852, 15.8587, 23.0805, 38.1771, -28.6491, -29.8458
3.456, 5, 17.8485, 15.8574, 23.0861, 38.1589, -28.6556, -29.8296
3.46, 5, 17.845, 15.8559, 23.0922, 38.1387, -28.6628, -29.8117
3.464, 5, 17.8415, 15.8543, 23.0988, 38.1168, -28.6706, -29.7923
3.468, 5, 17.8378, 15.8526, 23.1058, 38.0934, -28.679, -29.7715
3.472, 5, 17.8338, 15.8509, 23.1132, 38.0689, -28.6877, -29.7497
3.476, 5, 17.8294, 15.849, 23.1209, 38.0434, -28.6969, -29.7271
3.48, 5, 17.8246, 15.8471, 23.1289, 38.0172, -28.7062, -29.7039
3.484, 5, 17.8194, 15.8452, 23.1369, 37.9906, -28.7158, -29.6804
3.488, 5, 17.8138, 15.8432, 23.1451, 37.9637, -28.7254, -29.6565
3.492, 5, 17.808, 15.8412, 23.1534, 37.9366, -28.7352, -29.6325
3.495, 5, 17.802, 15.8392, 23.1617, 37.9094, -28.745, -29.6083
3.5, 5, 17.7959, 15.8373, 23.17, 37.8821, -28.7548, -29.5841
3.504, 5, 17.7897, 15.8353, 23.1784, 37.8547, -28.7647, -29.5598
3.508, 5, 17.7835, 15.8333, 23.1868, 37.8273, -28.7746, -29.5355
3.512, 5, 17.7772, 15.8313, 23.1952, 37.7998, -28.7845, -29.5112
3.516, 5, 17.771, 15.8293, 23.2036, 37.7724, -28.7944, -29.4869
3.52, 5, 17.7646, 15.8273, 23.2119, 37.745, -28.8043, -29.4626
3.524, 5, 17.7583, 15.8253, 23.2203, 37.7176, -28.8143, -29.4383
3.528, 5, 17.752, 15.8233, 23.2287, 37.6901, -28.8242, -29.414
3.531, 5, 17.7457, 15.8213, 23.2371, 37.6627, -28.8342, -29.3898
3.536, 5, 17.7393, 15.8193, 23.2455, 37.6353, -28.8442, -29.3655
3.54, 5, 17.733, 15.8173, 23.2539, 37.608, -28.8541, -29.3412
3.544, 5, 17.7267, 15.8153, 23.2623, 37.5806, -28.8641, -29.317
3.548, 5, 17.7203, 15.8133, 23.2707, 37.5532, -28.8741, -29.2928
3.552, 5, 17.714, 15.8114, 23.2791, 37.5259, -28.8841, -29.2686
3.556, 5, 17.7076, 15.8094, 23.2874, 37.4986, -28.8941, -29.2444
3.56, 5, 17.7013, 15.8074, 23.2958, 37.4713, -28.9041, -29.2202
3.564, 5, 17.6949, 15.8054, 23.3042, 37.444, -28.9141, -29.1961
3.568, 5, 17.6886, 15.8035, 23.3126, 37.4167, -28.9241, -29.1719
3.572, 5, 17.6822, 15.8015, 23.3209, 37.3895, -28.9341, -29.1478
3.576, 5, 17.6759, 15.7995, 23.3293, 37.3622, -28.9441, -29.1237
3.58, 5, 17.6695, 15.7976, 23.3377, 37.335, -28.9541, -29.0996
3.584, 5, 17.6632, 15.7956, 23.346, 37.3078, -28.9642, -29.0755
3.587, 5, 17.6568, 15.7937, 23.3544, 37.2806, -28.9742, -29.0515
3.592, 5, 17.6505, 15.7917, 23.3627, 37.2534, -28.9842, -29.0274
3.596, 5, 17.6441, 15.7898, 23.3711, 37.2262, -28.9943, -29.0034
3.6, 5, 17.6378, 15.7878, 23.3794, 37.1991, -29.0043, -28.9794
3.604, 5, 17.6314, 15.7859, 23.3878, 37.172, -29.0144, -28.9554
3.608, 5, 17.6251, 15.7839, 23.3961, 37.1448, -29.0245, -28.9314
3.612, 5, 17.6187, 15.782, 23.4045, 37.1177, -29.0345, -28.9074
3.616, 5, 17.6123, 15.7801, 23.4128, 37.0907, -29.0446, -28.8835
3.62, 5, 17.606, 15.7781, 23.4211, 37.0636, -29.0547, -28.8596
3.624, 5, 17.5996, 15.7762, 23.4295, 37.0365, -29.0648, -28.8356
3.628, 5, 17.5932, 15.7743, 23.4378, 37.0095, -29.0748, -28.8117
3.632, 5, 17.5869, 15.7723, 23.4461, 36.9825, -29.0849, -28.7879
3.636, 5, 17.5805, 15.7704, 23.4545, 36.9555, -29.095, -28.764
3.64, 5, 17.5742, 15.7685, 23.4628, 36.9285, -29.1051, -28.7401
3.644, 5, 17.5678, 15.7666, 23.4711, 36.9015, -29.1153, -28.7163
3.648, 5, 17.5614, 15.7647, 23.4794, 36.8745, -29.1254, -28.6925
3.652, 5, 17.555, 15.7627, 23.4877, 36.8476, -29.1355, -28.6687
3.656, 5, 17.5487, 15.7608, 23.4961, 36.8207, -29.1456, -28.6449
3.66, 5, 17.5423, 15.7589, 23.5044, 36.7938, -29.1557, -28.6211
3.664, 5, 17.5359, 15.757, 23.5127, 36.7669, -29.1659, -28.5973
3.668, 5, 17.5296, 15.7551, 23.521, 36.74, -29.176, -28.5736
3.672, 5, 17.5232, 15.7532, 23.5293, 36.7131, -29.1862, -28.5499
3.676, 5, 17.5168, 15.7513, 23.5376, 36.6863, -29.1963, -28.5262
3.679, 5, 17.5104, 15.7494, 23.5459, 36.6594, -29.2065, -28.5025
3.684, 5, 17.5041, 15.7475, 23.5542, 36.6326, -29.2166, -28.4788
3.688, 5, 17.4977, 15.7456, 23.5625, 36.6058, -29.2268, -28.4551
3.692, 5, 17.4913, 15.7438, 23.5707, 36.579, -29.237, -28.4315
3.696, 5, 17.4849, 15.7419, 23.579, 36.5523, -29.2471, -28.4078
3.7, 5, 17.4786, 15.74, 23.5873, 36.5255, -29.2573, -28.3842
3.704, 5, 17.4722, 15.7381, 23.5956, 36.4988, -29.2675, -28.3606
3.708, 5, 17.4658, 15.7362, 23.6039, 36.472, -29.2777, -28.337
3.712, 5, 17.4594, 15.7344, 23.6121, 36.4453, -29.2879, -28.3135
3.716, 5, 17.453, 15.7325, 23.6204, 36.4186, -29.2981, -28.2899
3.72, 5, 17.4466, 15.7306, 23.6287, 36.392, -29.3083, -28.2664
3.724, 5, 17.4403, 15.7288, 23.6369, 36.3653, -29.3185, -28.2429
3.728, 5, 17.4339, 15.7269, 23.6452, 36.3387, -29.3287, -28.2194
3.732, 5, 17.4275, 15.725, 23.6535, 36.312, -29.3389, -28.1959
3.735, 5, 17.4211, 15.7232, 23.6617, 36.2854, -29.3492, -28.1724
3.74, 5, 17.4147, 15.7213, 23.67, 36.2588, -29.3594, -28.1489
3.744, 5, 17.4083, 15.7195, 23.6782, 36.2322, -29.3696, -28.1255
3.748, 5, 17.4019, 15.7176, 23.6865, 36.2057, -29.3799, -28.1021
3.752, 5, 17.3955, 15.7158, 23.6947, 36.1791, -29.3901, -28.0786
3.756, 5, 17.3891, 15.7139, 23.703, 36.1526, -29.4004, -28.0553
3.76, 5, 17.3827, 15.7121, 23.7112, 36.126, -29.4106, -28.0319
3.764, 5, 17.3763, 15.7102, 23.7195, 36.0995, -29.4209, -28.0085
3.768, 5, 17.37, 15.7084, 23.7277, 36.0731, -29.4312, -27.9852
3.772, 5, 17.3636, 15.7066, 23.7359, 36.0466, -29.4415, -27.9618
3.776, 5, 17.3572, 15.7047, 23.7442, 36.0201, -29.4517, -27.9385
3.78, 5, 17.3508, 15.7029, 23.7524, 35.9937, -29.462, -27.9152
3.784, 5, 17.3444, 15.7011, 23.7606, 35.9672, -29.4723, -27.8919
3.788, 5, 17.338, 15.6993, 23.7688, 35.9408, -29.4826, -27.8687
3.792, 5, 17.3316, 15.6974, 23.777, 35.9144, -29.4929, -27.8454
3.796, 5, 17.3252, 15.6956, 23.7853, 35.8881, -29.5032, -27.8222
3.8, 5, 17.3188, 15.6938, 23.7935, 35.8617, -29.5135, -27.7989
3.804, 5, 17.3123, 15.692, 23.8017, 35.8353, -29.5238, -27.7757
3.808, 5, 17.3059, 15.6902, 23.8099, 35.809, -29.5341, -27.7525
3.812, 5, 17.2995, 15.6884, 23.8181, 35.7827, -29.5445, -27.7294
3.816, 5, 17.2931, 15.6866, 23.8263, 35.7564, -29.5548, -27.7062
3.82, 5, 17.2867, 15.6848, 23.8345, 35.7301, -29.5651, -27.6831
3.824, 5, 17.2803, 15.683, 23.8427, 35.7038, -29.5755, -27.6599
3.828, 5, 17.2739, 15.6812, 23.8509, 35.6776, -29.5858, -27.6368
3.832, 5, 17.2675, 15.6794, 23.8591, 35.6513, -29.5962, -27.6137
3.836, 5, 17.2611, 15.6776, 23.8673, 35.6251, -29.6065, -27.5907
3.84, 5, 17.2547, 15.6758, 23.8755, 35.5989, -29.6169, -27.5676
3.844, 5, 17.2483, 15.674, 23.8837, 35.5727, -29.6272, -27.5445
3.848, 5, 17.2418, 15.6722, 23.8918, 35.5465, -29.6376, -27.5215
3.852, 5, 17.2354, 15.6705, 23.9, 35.5203, -29.648, -27.4985
3.856, 5, 17.229, 15.6687, 23.9082, 35.4942, -29.6584, -27.4755
3.86, 5, 17.2226, 15.6669, 23.9164, 35.4681, -29.6688, -27.4525
3.864, 5, 17.2162, 15.6651, 23.9245, 35.4419, -29.6791, -27.4295
3.868, 5, 17.2098, 15.6634, 23.9327, 35.4158, -29.6895, -27.4066
3.872, 5, 17.2033, 15.6616, 23.9409, 35.3898, -29.6999, -27.3836
3.876, 5, 17.1969, 15.6598, 23.949, 35.3637, -29.7103, -27.3607
3.88, 5, 17.1905, 15.6581, 23.9572, 35.3376, -29.7208, -27.3378
3.884, 5, 17.1841, 15.6563, 23.9653, 35.3116, -29.7312, -27.3149
3.888, 5, 17.1776, 15.6546, 23.9735, 35.2856, -29.7416, -27.292
3.892, 5, 17.1712, 15.6528, 23.9816, 35.2595, -29.752, -27.2692
3.896, 5, 17.1648, 15.651, 23.9898, 35.2336, -29.7624, -27.2463
3.9, 5, 17.1584, 15.6493, 23.9979, 35.2076, -29.7729, -27.2235
3.904, 5, 17.1519, 15.6476, 24.0061, 35.1816, -29.7833, -27.2007
3.908, 5, 17.1455, 15.6458, 24.0142, 35.1557, -29.7938, -27.1779
3.912, 5, 17.1391, 15.6441, 24.0224, 35.1297, -29.8042, -27.1551
3.916, 5, 17.1326, 15.6423, 24.0305, 35.1038, -29.8147, -27.1323
3.92, 5, 17.1262, 15.6406, 24.0386, 35.0779, -29.8251, -27.1096
3.924, 5, 17.1198, 15.6389, 24.0468, 35.052, -29.8356, -27.0868
3.928, 5, 17.1133, 15.6371, 24.0549, 35.0261, -29.8461, -27.0641
3.932, 5, 17.1069, 15.6354, 24.063, 35.0003, -29.8565, -27.0414
3.936, 5, 17.1005, 15.6337, 24.0711, 34.9744, -29.867, -27.0187
3.94, 5, 17.094, 15.632, 24.0792, 34.9486, -29.8775, -26.996
3.944, 5, 17.0876, 15.6302, 24.0874, 34.9228, -29.888, -26.9734
3.948, 5, 17.0812, 15.6285, 24.0955, 34.897, -29.8985, -26.9507
3.952, 5, 17.0747, 15.6268, 24.1036, 34.8712, -29.909, -26.9281
3.956, 5, 17.0683, 15.6251, 24.1117, 34.8455, -29.9195, -26.9055
3.96, 5, 17.0618, 15.6234, 24.1198, 34.8197, -29.93, -26.8829
3.964, 5, 17.0554, 15.6217, 24.1279, 34.794, -29.9405, -26.8603
3.968, 5, 17.049, 15.62, 24.136, 34.7683, -29.951, -26.8377
3.972, 5, 17.0425, 15.6183, 24.1441, 34.7426, -29.9616, -26.8152
3.976, 5, 17.0361, 15.6166, 24.1522, 34.7169, -29.9721, -26.7926
3.98, 5, 17.0296, 15.6149, 24.1603, 34.6912, -29.9826, -26.7701
3.984, 5, 17.0232, 15.6132, 24.1684, 34.6655, -29.9932, -26.7476
3.988, 5, 17.0167, 15.6115, 24.1765, 34.6399, -30.0037, -26.7251
3.992, 5, 17.0103, 15.6098, 24.1845, 34.6143, -30.0142, -26.7026
3.996, 5, 17.0038, 15.6081, 24.1926, 34.5886, -30.0248, -26.6802
3.999, 5, 16.9974, 15.6064, 24.2007, 34.563, -30.0354, -26.6577
4.004, 5, 16.9909, 15.6048, 24.2088, 34.5375, -30.0459, -26.6353
4.008, 5, 16.9845, 15.6031, 24.2168, 34.5119, -30.0565, -26.6129
4.012, 5, 16.978, 15.6014, 24.2249, 34.4863, -30.0671, -26.5905
4.016, 5, 16.9716, 15.5997, 24.233, 34.4608, -30.0776, -26.5681
4.02, 5, 16.9651, 15.5981, 24.241, 34.4353, -30.0882, -26.5457
4.024, 5, 16.9587, 15.5964, 24.2491, 34.4098, -30.0988, -26.5234
4.028, 5, 16.9522, 15.5947, 24.2572, 34.3843, -30.1094, -26.501
4.032, 5, 16.9458, 15.5931, 24.2652, 34.3588, -30.12, -26.4787
4.036, 5, 16.9393, 15.5914, 24.2733, 34.3333, -30.1306, -26.4564
4.04, 5, 16.9328, 15.5898, 24.2813, 34.3079, -30.1412, -26.4341
4.044, 5, 16.9264, 15.5881, 24.2894, 34.2825, -30.1518, -26.4118
4.048, 5, 16.9199, 15.5865, 24.2974, 34.257, -30.1624, -26.3896
4.052, 5, 16.9135, 15.5848, 24.3055, 34.2316, -30.173, -26.3673
4.056, 5, 16.907, 15.5832, 24.3135, 34.2062, -30.1837, -26.3451
4.06, 5, 16.9005, 15.5815, 24.3215, 34.1809, -30.1943, -26.3229
4.064, 5, 16.8941, 15.5799, 24.3296, 34.1555, -30.2049, -26.3007
4.068, 5, 16.8876, 15.5782, 24.3376, 34.1302, -30.2156, -26.2785
4.072, 5, 16.8811, 15.5766, 24.3456, 34.1048, -30.2262, -26.2563
4.076, 5, 16.8747, 15.575, 24.3537, 34.0795, -30.2369, -26.2341
4.08, 5, 16.8682, 15.5733, 24.3617, 34.0542, -30.2475, -26.212
4.084, 5, 16.8617, 15.5717, 24.3697, 34.0289, -30.2582, -26.1899
4.088, 5, 16.8553, 15.5701, 24.3777, 34.0037, -30.2688, -26.1678
4.092, 5, 16.8488, 15.5685, 24.3857, 33.9784, -30.2795, -26.1457
4.096, 5, 16.8423, 15.5668, 24.3938, 33.9532, -30.2902, -26.1236
4.1, 5, 16.8358, 15.5652, 24.4018, 33.928, -30.3009, -26.1015
4.104, 5, 16.8294, 15.5636, 24.4098, 33.9027, -30.3115, -26.0795
4.108, 5, 16.8229, 15.562, 24.4178, 33.8775, -30.3222, -26.0574
4.112, 5, 16.8164, 15.5604, 24.4258, 33.8524, -30.3329, -26.0354
4.116, 5, 16.8099, 15.5588, 24.4338, 33.8272, -30.3436, -26.0134
4.12, 5, 16.8035, 15.5572, 24.4418, 33.8021, -30.3543, -25.9914
4.124, 5, 16.797, 15.5556, 24.4498, 33.7769, -30.365, -25.9694
4.128, 5, 16.7905, 15.554, 24.4578, 33.7518, -30.3757, -25.9475
4.132, 5, 16.784, 15.5524, 24.4658, 33.7267, -30.3864, -25.9255
4.136, 5, 16.7775, 15.5508, 24.4738, 33.7016, -30.3972, -25.9036
4.14, 5, 16.7711, 15.5492, 24.4817, 33.6765, -30.4079, -25.8817
4.144, 5, 16.7646, 15.5476, 24.4897, 33.6515, -30.4186, -25.8598
4.148, 5, 16.7581, 15.546, 24.4977, 33.6264, -30.4294, -25.8379
4.152, 5, 16.7516, 15.5444, 24.5057, 33.6014, -30.4401, -25.816
4.156, 5, 16.7451, 15.5429, 24.5136, 33.5764, -30.4508, -25.7942
4.16, 5, 16.7386, 15.5413, 24.5216, 33.5514, -30.4616, -25.7723
4.164, 5, 16.7322, 15.5397, 24.5296, 33.5264, -30.4723, -25.7505
4.168, 5, 16.7257, 15.5381, 24.5375, 33.5014, -30.4831, -25.7287
4.172, 5, 16.7192, 15.5366, 24.5455, 33.4764, -30.4939, -25.7069
4.176, 5, 16.7127, 15.535, 24.5535, 33.4515, -30.5046, -25.6851
4.18, 5, 16.7062, 15.5334, 24.5614, 33.4266, -30.5154, -25.6633
4.184, 5, 16.6997, 15.5319, 24.5694, 33.4017, -30.5262, -25.6416
4.188, 5, 16.6932, 15.5303, 24.5773, 33.3768, -30.537, -25.6198
4.192, 5, 16.6867, 15.5288, 24.5853, 33.3519, -30.5477, -25.5981
4.196, 5, 16.6802, 15.5272, 24.5932, 33.327, -30.5585, -25.5764
4.2, 5, 16.6737, 15.5257, 24.6012, 33.3022, -30.5693, -25.5547
4.204, 5, 16.6672, 15.5241, 24.6091, 33.2773, -30.5801, -25.533
4.208, 5, 16.6607, 15.5226, 24.617, 33.2525, -30.5909, -25.5114
4.212, 5, 16.6542, 15.521, 24.625, 33.2277, -30.6017, -25.4897
4.216, 5, 16.6477, 15.5195, 24.6329, 33.2029, -30.6125, -25.4681
4.22, 5, 16.6412, 15.5179, 24.6408, 33.1781, -30.6234, -25.4465
4.224, 5, 16.6347, 15.5164, 24.6488, 33.1533, -30.6342, -25.4249
4.228, 5, 16.6282, 15.5149, 24.6567, 33.1286, -30.645, -25.4033
4.232, 5, 16.6217, 15.5134, 24.6646, 33.1038, -30.6558, -25.3817
4.236, 5, 16.6152, 15.5118, 24.6725, 33.0791, -30.6667, -25.3601
4.24, 5, 16.6087, 15.5103, 24.6804, 33.0544, -30.6775, -25.3386
4.244, 5, 16.6022, 15.5088, 24.6884, 33.0297, -30.6884, -25.3171
4.248, 5, 16.5957, 15.5073, 24.6963, 33.005, -30.6992, -25.2955
4.252, 5, 16.5892, 15.5057, 24.7042, 32.9804, -30.7101, -25.274
4.256, 5, 16.5827, 15.5042, 24.7121, 32.9557, -30.7209, -25.2526
4.26, 5, 16.5762, 15.5027, 24.72, 32.9311, -30.7318, -25.2311
4.264, 5, 16.5697, 15.5012, 24.7279, 32.9064, -30.7427, -25.2096
4.268, 5, 16.5632, 15.4997, 24.7358, 32.8818, -30.7535, -25.1882
4.272, 5, 16.5566, 15.4982, 24.7437, 32.8572, -30.7644, -25.1668
4.276, 5, 16.5501, 15.4967, 24.7516, 32.8327, -30.7753, -25.1453
4.28, 5, 16.5436, 15.4952, 24.7594, 32.8081, -30.7862, -25.1239
4.284, 5, 16.5371, 15.4937, 24.7673, 32.7836, -30.7971, -25.1026
4.288, 5, 16.5306, 15.4922, 24.7752, 32.759, -30.808, -25.0812
4.292, 5, 16.5241, 15.4907, 24.7831, 32.7345, -30.8189, -25.0598
4.296, 5, 16.5175, 15.4892, 24.791, 32.71, -30.8298, -25.0385
4.3, 5, 16.511, 15.4878, 24.7988, 32.6855, -30.8407, -25.0172
4.304, 5, 16.5045, 15.4863, 24.8067, 32.661, -30.8516, -24.9959
4.308, 5, 16.498, 15.4848, 24.8146, 32.6366, -30.8625, -24.9746
4.312, 5, 16.4915, 15.4833, 24.8225, 32.6121, -30.8734, -24.9533
4.316, 5, 16.4849, 15.4819, 24.8303, 32.5877, -30.8843, -24.932
4.32, 5, 16.4784, 15.4804, 24.8382, 32.5632, -30.8953, -24.9108
4.324, 5, 16.4719, 15.4789, 24.846, 32.5388, -30.9062, -24.8895
4.328, 5, 16.4654, 15.4775, 24.8539, 32.5145, -30.9172, -24.8683
4.332, 5, 16.4588, 15.476, 24.8617, 32.4901, -30.9281, -24.8471
4.336, 5, 16.4523, 15.4745, 24.8696, 32.4657, -30.939, -24.8259
4.34, 5, 16.4458, 15.4731, 24.8774, 32.4414, -30.95, -24.8047
4.344, 5, 16.4393, 15.4716, 24.8853, 32.417, -30.961, -24.7835
4.348, 5, 16.4327, 15.4702, 24.8931, 32.3927, -30.9719, -24.7624
4.352, 5, 16.4262, 15.4687, 24.901, 32.3684, -30.9829, -24.7413
4.356, 5, 16.4197, 15.4673, 24.9088, 32.3441, -30.9939, -24.7201
4.36, 5, 16.4131, 15.4658, 24.9166, 32.3198, -31.0048, -24.699
4.364, 5, 16.4066, 15.4644, 24.9245, 32.2956, -31.0158, -24.6779
4.368, 5, 16.4001, 15.463, 24.9323, 32.2713, -31.0268, -24.6569
4.372, 5, 16.3935, 15.4615, 24.9401, 32.2471, -31.0378, -24.6358
4.376, 5, 16.387, 15.4601, 24.9479, 32.2229, -31.0488, -24.6147
4.38, 5, 16.3805, 15.4587, 24.9557, 32.1987, -31.0598, -24.5937
4.384, 5, 16.3739, 15.4572, 24.9636, 32.1745, -31.0708, -24.5727
4.388, 5, 16.3674, 15.4558, 24.9714, 32.1503, -31.0818, -24.5517
4.392, 5, 16.3608, 15.4544, 24.9792, 32.1261, -31.0928, -24.5307
4.396, 5, 16.3543, 15.453, 24.987, 32.102, -31.1038, -24.5097
4.4, 5, 16.3478, 15.4516, 24.9948, 32.0778, -31.1148, -24.4887
4.404, 5, 16.3412, 15.4501, 25.0026, 32.0537, -31.1259, -24.4678
4.408, 5, 16.3347, 15.4487, 25.0104, 32.0296, -31.1369, -24.4469
4.412, 5, 16.3281, 15.4473, 25.0182, 32.0055, -31.1479, -24.4259
4.416, 5, 16.3216, 15.4459, 25.026, 31.9814, -31.159, -24.405
4.42, 5, 16.315, 15.4445, 25.0338, 31.9574, -31.17, -24.3841
4.424, 5, 16.3085, 15.4431, 25.0416, 31.9333, -31.1811, -24.3633
4.428, 5, 16.3019, 15.4417, 25.0494, 31.9093, -31.1921, -24.3424
4.432, 5, 16.2954, 15.4403, 25.0571, 31.8853, -31.2032, -24.3215
4.436, 5, 16.2888, 15.4389, 25.0649, 31.8613, -31.2142, -24.3007
4.44, 5, 16.2823, 15.4375, 25.0727, 31.8373, -31.2253, -24.2799
4.444, 5, 16.2757, 15.4362, 25.0805, 31.8133, -31.2364, -24.2591
4.448, 5, 16.2692, 15.4348, 25.0882, 31.7893, -31.2474, -24.2383
4.452, 5, 16.2626, 15.4334, 25.096, 31.7654, -31.2585, -24.2175
4.456, 5, 16.2561, 15.432, 25.1038, 31.7414, -31.2696, -24.1968
4.46, 5, 16.2495, 15.4306, 25.1115, 31.7175, -31.2807, -24.176
4.464, 5, 16.243, 15.4293, 25.1193, 31.6936, -31.2918, -24.1553
4.468, 5, 16.2364, 15.4279, 25.1271, 31.6697, -31.3029, -24.1345
4.472, 5, 16.2299, 15.4265, 25.1348, 31.6458, -31.314, -24.1138
4.476, 5, 16.2233, 15.4252, 25.1426, 31.622, -31.3251, -24.0931
4.48, 5, 16.2167, 15.4238, 25.1503, 31.5981, -31.3362, -24.0725
4.484, 5, 16.2102, 15.4224, 25.1581, 31.5743, -31.3473, -24.0518
4.488, 5, 16.2036, 15.4211, 25.1658, 31.5504, -31.3584, -24.0312
4.492, 5, 16.1971, 15.4197, 25.1735, 31.5266, -31.3695, -24.0105
4.496, 5, 16.1905, 15.4184, 25.1813, 31.5028, -31.3806, -23.9899
4.5, 5, 16.1839, 15.417, 25.189, 31.479, -31.3918, -23.9693
4.504, 5, 16.1774, 15.4157, 25.1967, 31.4553, -31.4029, -23.9487
4.508, 5, 16.1708, 15.4143, 25.2045, 31.4315, -31.414, -23.9281
4.512, 5, 16.1642, 15.413, 25.2122, 31.4078, -31.4252, -23.9076
4.516, 5, 16.1577, 15.4117, 25.2199, 31.384, -31.4363, -23.887
4.52, 5, 16.1511, 15.4103, 25.2277, 31.3603, -31.4475, -23.8665
4.524, 5, 16.1445, 15.409, 25.2354, 31.3366, -31.4586, -23.8459
4.528, 5, 16.1379, 15.4077, 25.2431, 31.3129, -31.4698, -23.8254
4.532, 5, 16.1314, 15.4064, 25.2508, 31.2893, -31.481, -23.8049
4.536, 5, 16.1248, 15.405, 25.2585, 31.2656, -31.4921, -23.7845
4.54, 5, 16.1182, 15.4037, 25.2662, 31.242, -31.5033, -23.764
4.544, 5, 16.1117, 15.4024, 25.2739, 31.2183, -31.5145, -23.7435
4.548, 5, 16.1051, 15.4011, 25.2816, 31.1947, -31.5257, -23.7231
4.552, 5, 16.0985, 15.3998, 25.2893, 31.1711, -31.5368, -23.7027
4.556, 5, 16.0919, 15.3985, 25.297, 31.1475, -31.548, -23.6823
4.56, 5, 16.0853, 15.3971, 25.3047, 31.124, -31.5592, -23.6619
4.564, 5, 16.0788, 15.3958, 25.3124, 31.1004, -31.5704, -23.6415
4.568, 5, 16.0722, 15.3945, 25.3201, 31.0768, -31.5816, -23.6211
4.572, 5, 16.0656, 15.3932, 25.3278, 31.0533, -31.5928, -23.6008
4.576, 5, 16.059, 15.3919, 25.3355, 31.0298, -31.604, -23.5804
4.58, 5, 16.0524, 15.3907, 25.3431, 31.0063, -31.6152, -23.5601
4.584, 5, 16.0459, 15.3894, 25.3508, 30.9828, -31.6265, -23.5398
4.588, 5, 16.0393, 15.3881, 25.3585, 30.9593, -31.6377, -23.5195
4.592, 5, 16.0327, 15.3868, 25.3662, 30.9358, -31.6489, -23.4992
4.596, 5, 16.0261, 15.3855, 25.3738, 30.9124, -31.6602, -23.4789
4.6, 5, 16.0195, 15.3842, 25.3815, 30.889, -31.6714, -23.4587
4.604, 5, 16.0129, 15.3829, 25.3891, 30.8655, -31.6826, -23.4384
4.608, 5, 16.0063, 15.3817, 25.3968, 30.8421, -31.6939, -23.4182
4.612, 5, 15.9998, 15.3804, 25.4045, 30.8187, -31.7051, -23.398
4.616, 5, 15.9932, 15.3791, 25.4121, 30.7953, -31.7164, -23.3778
4.62, 5, 15.9866, 15.3779, 25.4198, 30.772, -31.7276, -23.3576
4.624, 5, 15.98, 15.3766, 25.4274, 30.7486, -31.7389, -23.3374
4.628, 5, 15.9734, 15.3753, 25.4351, 30.7253, -31.7502, -23.3173
4.632, 5, 15.9668, 15.3741, 25.4427, 30.7019, -31.7614, -23.2971
4.636, 5, 15.9602, 15.3728, 25.4503, 30.6786, -31.7727, -23.277
4.64, 5, 15.9536, 15.3716, 25.458, 30.6553, -31.784, -23.2569
4.644, 5, 15.947, 15.3703, 25.4656, 30.632, -31.7953, -23.2368
4.648, 5, 15.9404, 15.3691, 25.4732, 30.6088, -31.8065, -23.2167
4.652, 5, 15.9338, 15.3678, 25.4809, 30.5855, -31.8178, -23.1966
4.656, 5, 15.9272, 15.3666, 25.4885, 30.5623, -31.8291, -23.1765
4.66, 5, 15.9206, 15.3654, 25.4961, 30.539, -31.8404, -23.1565
4.664, 5, 15.914, 15.3641, 25.5037, 30.5158, -31.8517, -23.1364
4.668, 5, 15.9074, 15.3629, 25.5114, 30.4926, -31.863, -23.1164
4.672, 5, 15.9008, 15.3617, 25.519, 30.4694, -31.8743, -23.0964
4.676, 5, 15.8942, 15.3604, 25.5266, 30.4462, -31.8857, -23.0764
4.68, 5, 15.8876, 15.3592, 25.5342, 30.4231, -31.897, -23.0564
4.684, 5, 15.881, 15.358, 25.5418, 30.3999, -31.9083, -23.0365
4.688, 5, 15.8744, 15.3568, 25.5494, 30.3768, -31.9196, -23.0165
4.692, 5, 15.8678, 15.3556, 25.557, 30.3536, -31.931, -22.9966
4.696, 5, 15.8612, 15.3543, 25.5646, 30.3305, -31.9423, -22.9767
4.7, 5, 15.8545, 15.3531, 25.5722, 30.3074, -31.9536, -22.9567
4.704, 5, 15.8479, 15.3519, 25.5798, 30.2844, -31.965, -22.9368
4.708, 5, 15.8413, 15.3507, 25.5874, 30.2613, -31.9763, -22.917
4.712, 5, 15.8347, 15.3495, 25.595, 30.2382, -31.9877, -22.8971
4.716, 5, 15.8281, 15.3483, 25.6026, 30.2152, -31.999, -22.8772
4.72, 5, 15.8215, 15.3471, 25.6101, 30.1922, -32.0104, -22.8574
4.724, 5, 15.8149, 15.3459, 25.6177, 30.1691, -32.0218, -22.8376
4.728, 5, 15.8083, 15.3447, 25.6253, 30.1461, -32.0331, -22.8177
4.732, 5, 15.8016, 15.3435, 25.6329, 30.1231, -32.0445, -22.7979
4.736, 5, 15.795, 15.3424, 25.6404, 30.1002, -32.0559, -22.7782
4.74, 5, 15.7884, 15.3412, 25.648, 30.0772, -32.0673, -22.7584
4.744, 5, 15.7818, 15.34, 25.6556, 30.0542, -32.0787, -22.7386
4.748, 5, 15.7752, 15.3388, 25.6631, 30.0313, -32.09, -22.7189
4.752, 5, 15.7685, 15.3376, 25.6707, 30.0084, -32.1014, -22.6991
4.756, 5, 15.7619, 15.3365, 25.6782, 29.9855, -32.1128, -22.6794
4.76, 5, 15.7553, 15.3353, 25.6858, 29.9626, -32.1242, -22.6597
4.764, 5, 15.7487, 15.3341, 25.6933, 29.9397, -32.1356, -22.64
4.768, 5, 15.742, 15.333, 25.7009, 29.9168, -32.147, -22.6203
4.772, 5, 15.7354, 15.3318, 25.7084, 29.894, -32.1585, -22.6007
4.776, 5, 15.7288, 15.3307, 25.716, 29.8711, -32.1699, -22.581
4.78, 5, 15.7222, 15.3295, 25.7235, 29.8483, -32.1813, -22.5614
4.784, 5, 15.7155, 15.3283, 25.7311, 29.8255, -32.1927, -22.5417
4.788, 5, 15.7089, 15.3272, 25.7386, 29.8027, -32.2042, -22.5221
4.792, 5, 15.7023, 15.326, 25.7461, 29.7799, -32.2156, -22.5025
4.796, 5, 15.6957, 15.3249, 25.7536, 29.7571, -32.227, -22.4829
4.8, 5, 15.689, 15.3238, 25.7612, 29.7344, -32.2385, -22.4634
4.804, 5, 15.6824, 15.3226, 25.7687, 29.7116, -32.2499, -22.4438
4.808, 5, 15.6758, 15.3215, 25.7762, 29.6889, -32.2614, -22.4243
4.812, 5, 15.6691, 15.3203, 25.7837, 29.6661, -32.2728, -22.4047
4.816, 5, 15.6625, 15.3192, 25.7912, 29.6434, -32.2843, -22.3852
4.82, 5, 15.6558, 15.3181, 25.7987, 29.6207, -32.2957, -22.3657
4.824, 5, 15.6492, 15.317, 25.8063, 29.598, -32.3072, -22.3462
4.828, 5, 15.6426, 15.3158, 25.8138, 29.5754, -32.3187, -22.3267
4.832, 5, 15.6359, 15.3147, 25.8213, 29.5527, -32.3301, -22.3073
4.836, 5, 15.6293, 15.3136, 25.8288, 29.5301, -32.3416, -22.2878
4.84, 5, 15.6227, 15.3125, 25.8363, 29.5074, -32.3531, -22.2684
4.844, 5, 15.616, 15.3114, 25.8438, 29.4848, -32.3646, -22.2489
4.848, 5, 15.6094, 15.3103, 25.8512, 29.4622, -32.3761, -22.2295
4.852, 5, 15.6027, 15.3092, 25.8587, 29.4396, -32.3876, -22.2101
4.856, 5, 15.5961, 15.3081, 25.8662, 29.417, -32.3991, -22.1908
4.86, 5, 15.5894, 15.307, 25.8737, 29.3945, -32.4106, -22.1714
4.864, 5, 15.5828, 15.3059, 25.8812, 29.3719, -32.4221, -22.152
4.868, 5, 15.5761, 15.3048, 25.8887, 29.3494, -32.4336, -22.1327
4.872, 5, 15.5695, 15.3037, 25.8961, 29.3269, -32.4451, -22.1133
4.876, 5, 15.5628, 15.3026, 25.9036, 29.3043, -32.4566, -22.094
4.88, 5, 15.5562, 15.3015, 25.9111, 29.2818, -32.4681, -22.0747
4.884, 5, 15.5495, 15.3004, 25.9185, 29.2594, -32.4797, -22.0554
4.888, 5, 15.5429, 15.2993, 25.926, 29.2369, -32.4912, -22.0361
4.892, 5, 15.5362, 15.2983, 25.9335, 29.2144, -32.5027, -22.0169
4.896, 5, 15.5296, 15.2972, 25.9409, 29.192, -32.5143, -21.9976
4.9, 5, 15.5229, 15.2961, 25.9484, 29.1695, -32.5258, -21.9784
4.904, 5, 15.5163, 15.295, 25.9558, 29.1471, -32.5373, -21.9592
4.908, 5, 15.5096, 15.294, 25.9633, 29.1247, -32.5489, -21.9399
4.912, 5, 15.503, 15.2929, 25.9707, 29.1023, -32.5605, -21.9207
4.916, 5, 15.4963, 15.2918, 25.9782, 29.0799, -32.572, -21.9016
4.92, 5, 15.4896, 15.2908, 25.9856, 29.0576, -32.5836, -21.8824
4.924, 5, 15.483, 15.2897, 25.993, 29.0352, -32.5951, -21.8632
4.928, 5, 15.4763, 15.2887, 26.0005, 29.0129, -32.6067, -21.8441
4.932, 5, 15.4697, 15.2876, 26.0079, 28.9905, -32.6183, -21.8249
4.936, 5, 15.463, 15.2866, 26.0153, 28.9682, -32.6298, -21.8058
4.94, 5, 15.4563, 15.2855, 26.0228, 28.9459, -32.6414, -21.7867
4.944, 5, 15.4497, 15.2845, 26.0302, 28.9236, -32.653, -21.7676
4.948, 5, 15.443, 15.2834, 26.0376, 28.9013, -32.6646, -21.7485
4.952, 5, 15.4363, 15.2824, 26.045, 28.8791, -32.6762, -21.7295
4.956, 5, 15.4297, 15.2814, 26.0524, 28.8568, -32.6878, -21.7104
4.96, 5, 15.423, 15.2803, 26.0598, 28.8346, -32.6994, -21.6914
4.964, 5, 15.4163, 15.2793, 26.0673, 28.8124, -32.711, -21.6723
4.968, 5, 15.4097, 15.2783, 26.0747, 28.7901, -32.7226, -21.6533
4.972, 5, 15.403, 15.2773, 26.0821, 28.7679, -32.7342, -21.6343
4.976, 5, 15.3963, 15.2762, 26.0895, 28.7457, -32.7458, -21.6153
4.98, 5, 15.3897, 15.2752, 26.0969, 28.7236, -32.7574, -21.5964
4.984, 5, 15.383, 15.2742, 26.1043, 28.7014, -32.7691, -21.5774
4.988, 5, 15.3763, 15.2732, 26.1116, 28.6793, -32.7807, -21.5584
4.992, 5, 15.3696, 15.2722, 26.119, 28.6571, -32.7923, -21.5395
4.996, 5, 15.363, 15.2712, 26.1264, 28.635, -32.804, -21.5206
5, 5, 15.3563, 15.2702, 26.1338, 28.6129, -32.8156, -21.5017
5.004, 5, 15.3496, 15.2692, 26.1412, 28.5908, -32.8272, -21.4828
5.008, 5, 15.3429, 15.2682, 26.1486, 28.5687, -32.8389, -21.4639
5.012, 5, 15.3363, 15.2672, 26.1559, 28.5466, -32.8505, -21.445
5.016, 5, 15.3296, 15.2662, 26.1633, 28.5246, -32.8622, -21.4262
5.02, 5, 15.3229, 15.2652, 26.1707, 28.5025, -32.8738, -21.4073
5.024, 5, 15.3162, 15.2642, 26.1781, 28.4805, -32.8855, -21.3885
5.028, 5, 15.3095, 15.2632, 26.1854, 28.4585, -32.8972, -21.3697
5.032, 5, 15.3028, 15.2622, 26.1928, 28.4364, -32.9088, -21.3508
5.036, 5, 15.2962, 15.2613, 26.2001, 28.4144, -32.9205, -21.3321
5.04, 5, 15.2895, 15.2603, 26.2075, 28.3925, -32.9322, -21.3133
5.044, 5, 15.2828, 15.2593, 26.2148, 28.3705, -32.9439, -21.2945
5.048, 5, 15.2761, 15.2583, 26.2222, 28.3485, -32.9556, -21.2757
5.052, 5, 15.2694, 15.2574, 26.2295, 28.3266, -32.9672, -21.257
5.056, 5, 15.2627, 15.2564, 26.2369, 28.3047, -32.9789, -21.2383
5.06, 5, 15.256, 15.2554, 26.2442, 28.2827, -32.9906, -21.2196
5.064, 5, 15.2493, 15.2545, 26.2516, 28.2608, -33.0023, -21.2008
5.068, 5, 15.2427, 15.2535, 26.2589, 28.2389, -33.014, -21.1822
5.072, 5, 15.236, 15.2526, 26.2662, 28.217, -33.0257, -21.1635
5.076, 5, 15.2293, 15.2516, 26.2736, 28.1952, -33.0374, -21.1448
5.08, 5, 15.2226, 15.2507, 26.2809, 28.1733, -33.0492, -21.1262
5.084, 5, 15.2159, 15.2497, 26.2882, 28.1515, -33.0609, -21.1075
5.088, 5, 15.2092, 15.2488, 26.2955, 28.1296, -33.0726, -21.0889
5.092, 5, 15.2025, 15.2478, 26.3029, 28.1078, -33.0843, -21.0703
5.096, 5, 15.1958, 15.2469, 26.3102, 28.086, -33.0961, -21.0517
5.1, 5, 15.1891, 15.246, 26.3175, 28.0642, -33.1078, -21.0331
5.104, 5, 15.1824, 15.245, 26.3248, 28.0424, -33.1195, -21.0145
5.108, 5, 15.1757, 15.2441, 26.3321, 28.0207, -33.1313, -20.9959
5.112, 5, 15.169, 15.2432, 26.3394, 27.9989, -33.143, -20.9774
5.116, 5, 15.1623, 15.2422, 26.3467, 27.9772, -33.1548, -20.9589
5.12, 5, 15.1556, 15.2413, 26.354, 27.9554, -33.1665, -20.9403
5.124, 5, 15.1489, 15.2404, 26.3613, 27.9337, -33.1783, -20.9218
5.128, 5, 15.1422, 15.2395, 26.3686, 27.912, -33.19, -20.9033
5.132, 5, 15.1355, 15.2386, 26.3759, 27.8903, -33.2018, -20.8848
5.136, 5, 15.1288, 15.2377, 26.3832, 27.8686, -33.2136, -20.8664
5.14, 5, 15.1221, 15.2368, 26.3905, 27.847, -33.2253, -20.8479
5.144, 5, 15.1154, 15.2358, 26.3978, 27.8253, -33.2371, -20.8294
5.148, 5, 15.1086, 15.2349, 26.405, 27.8037, -33.2489, -20.811
5.152, 5, 15.1019, 15.234, 26.4123, 27.782, -33.2607, -20.7926
5.156, 5, 15.0952, 15.2331, 26.4196, 27.7604, -33.2724, -20.7742
5.16, 5, 15.0885, 15.2323, 26.4269, 27.7388, -33.2842, -20.7558
5.164, 5, 15.0818, 15.2314, 26.4341, 27.7172, -33.296, -20.7374
5.168, 5, 15.0751, 15.2305, 26.4414, 27.6956, -33.3078, -20.719
5.172, 5, 15.0684, 15.2296, 26.4487, 27.6741, -33.3196, -20.7007
5.176, 5, 15.0617, 15.2287, 26.4559, 27.6525, -33.3314, -20.6823
5.18, 5, 15.0549, 15.2278, 26.4632, 27.631, -33.3432, -20.664
5.184, 5, 15.0482, 15.2269, 26.4704, 27.6094, -33.355, -20.6456
5.188, 5, 15.0415, 15.2261, 26.4777, 27.5879, -33.3669, -20.6273
5.192, 5, 15.0348, 15.2252, 26.4849, 27.5664, -33.3787, -20.609
5.196, 5, 15.0281, 15.2243, 26.4922, 27.5449, -33.3905, -20.5908
5.2, 5, 15.0214, 15.2235, 26.4994, 27.5234, -33.4023, -20.5725
5.204, 5, 15.0146, 15.2226, 26.5067, 27.502, -33.4142, -20.5542
5.208, 5, 15.0079, 15.2217, 26.5139, 27.4805, -33.426, -20.536
5.212, 5, 15.0012, 15.2209, 26.5211, 27.4591, -33.4378, -20.5177
5.216, 5, 14.9945, 15.22, 26.5284, 27.4376, -33.4497, -20.4995
5.22, 5, 14.9877, 15.2192, 26.5356, 27.4162, -33.4615, -20.4813
5.224, 5, 14.981, 15.2183, 26.5428, 27.3948, -33.4734, -20.4631
5.228, 5, 14.9743, 15.2175, 26.55, 27.3734, -33.4852, -20.4449
5.232, 5, 14.9676, 15.2166, 26.5573, 27.352, -33.4971, -20.4268
5.236, 5, 14.9608, 15.2158, 26.5645, 27.3306, -33.5089, -20.4086
5.24, 5, 14.9541, 15.2149, 26.5717, 27.3093, -33.5208, -20.3904
5.244, 5, 14.9474, 15.2141, 26.5789, 27.2879, -33.5326, -20.3723
5.248, 5, 14.9406, 15.2133, 26.5861, 27.2666, -33.5445, -20.3542
5.252, 5, 14.9339, 15.2124, 26.5933, 27.2453, -33.5564, -20.3361
5.256, 5, 14.9272, 15.2116, 26.6005, 27.224, -33.5683, -20.318
5.26, 5, 14.9205, 15.2108, 26.6077, 27.2027, -33.5802, -20.2999
5.264, 5, 14.9137, 15.21, 26.6149, 27.1814, -33.592, -20.2818
5.268, 5, 14.907, 15.2091, 26.6221, 27.1601, -33.6039, -20.2638
5.272, 5, 14.9003, 15.2083, 26.6293, 27.1389, -33.6158, -20.2457
5.276, 5, 14.8935, 15.2075, 26.6365, 27.1176, -33.6277, -20.2277
5.28, 5, 14.8868, 15.2067, 26.6437, 27.0964, -33.6396, -20.2097
5.284, 5, 14.88, 15.2059, 26.6509, 27.0751, -33.6515, -20.1916
5.288, 5, 14.8733, 15.2051, 26.6581, 27.0539, -33.6634, -20.1736
5.292, 5, 14.8666, 15.2043, 26.6652, 27.0327, -33.6753, -20.1557
5.296, 5, 14.8598, 15.2035, 26.6724, 27.0115, -33.6872, -20.1377
5.3, 5, 14.8531, 15.2027, 26.6796, 26.9904, -33.6992, -20.1197
5.304, 5, 14.8463, 15.2019, 26.6868, 26.9692, -33.7111, -20.1018
5.308, 5, 14.8396, 15.2011, 26.6939, 26.9481, -33.723, -20.0838
5.312, 5, 14.8329, 15.2003, 26.7011, 26.9269, -33.7349, -20.0659
5.316, 5, 14.8261, 15.1995, 26.7083, 26.9058, -33.7469, -20.048
5.32, 5, 14.8194, 15.1987, 26.7154, 26.8847, -33.7588, -20.0301
5.324, 5, 14.8126, 15.1979, 26.7226, 26.8636, -33.7707, -20.0122
5.328, 5, 14.8059, 15.1972, 26.7297, 26.8425, -33.7827, -19.9943
5.332, 5, 14.7991, 15.1964, 26.7369, 26.8214, -33.7946, -19.9765
5.336, 5, 14.7924, 15.1956, 26.744, 26.8003, -33.8066, -19.9586
5.34, 5, 14.7856, 15.1948, 26.7512, 26.7793, -33.8185, -19.9408
5.344, 5, 14.7789, 15.1941, 26.7583, 26.7582, -33.8305, -19.923
5.348, 5, 14.7721, 15.1933, 26.7655, 26.7372, -33.8424, -19.9052
5.352, 5, 14.7654, 15.1925, 26.7726, 26.7162, -33.8544, -19.8874
5.356, 5, 14.7586, 15.1918, 26.7797, 26.6952, -33.8664, -19.8696
5.36, 5, 14.7519, 15.191, 26.7869, 26.6742, -33.8783, -19.8518
5.364, 5, 14.7451, 15.1903, 26.794, 26.6532, -33.8903, -19.834
5.368, 5, 14.7383, 15.1895, 26.8011, 26.6322, -33.9023, -19.8163
5.372, 5, 14.7316, 15.1888, 26.8082, 26.6113, -33.9143, -19.7985
5.376, 5, 14.7248, 15.188, 26.8154, 26.5903, -33.9262, -19.7808
5.38, 5, 14.7181, 15.1873, 26.8225, 26.5694, -33.9382, -19.7631
5.384, 5, 14.7113, 15.1865, 26.8296, 26.5485, -33.9502, -19.7454
5.388, 5, 14.7045, 15.1858, 26.8367, 26.5276, -33.9622, -19.7277
5.392, 5, 14.6978, 15.1851, 26.8438, 26.5067, -33.9742, -19.71
5.396, 5, 14.691, 15.1843, 26.8509, 26.4858, -33.9862, -19.6923
5.4, 5, 14.6843, 15.1836, 26.858, 26.4649, -33.9982, -19.6747
5.404, 5, 14.6775, 15.1829, 26.8651, 26.444, -34.0102, -19.6571
5.408, 5, 14.6707, 15.1822, 26.8722, 26.4232, -34.0222, -19.6394
5.412, 5, 14.664, 15.1814, 26.8793, 26.4024, -34.0343, -19.6218
5.416, 5, 14.6572, 15.1807, 26.8864, 26.3815, -34.0463, -19.6042
5.42, 5, 14.6504, 15.18, 26.8935, 26.3607, -34.0583, -19.5866
5.424, 5, 14.6437, 15.1793, 26.9006, 26.3399, -34.0703, -19.569
5.428, 5, 14.6369, 15.1786, 26.9077, 26.3191, -34.0824, -19.5514
5.432, 5, 14.6301, 15.1779, 26.9148, 26.2983, -34.0944, -19.5339
5.436, 5, 14.6234, 15.1772, 26.9218, 26.2776, -34.1064, -19.5163
5.44, 5, 14.6166, 15.1764, 26.9289, 26.2568, -34.1185, -19.4988
5.444, 5, 14.6098, 15.1757, 26.936, 26.2361, -34.1305, -19.4813
5.448, 5, 14.603, 15.1751, 26.9431, 26.2153, -34.1426, -19.4638
5.452, 5, 14.5963, 15.1744, 26.9501, 26.1946, -34.1546, -19.4463
5.456, 5, 14.5895, 15.1737, 26.9572, 26.1739, -34.1667, -19.4288
5.46, 5, 14.5827, 15.173, 26.9643, 26.1532, -34.1787, -19.4113
5.464, 5, 14.5759, 15.1723, 26.9713, 26.1325, -34.1908, -19.3939
5.468, 5, 14.5692, 15.1716, 26.9784, 26.1119, -34.2028, -19.3764
5.472, 5, 14.5624, 15.1709, 26.9854, 26.0912, -34.2149, -19.359
5.476, 5, 14.5556, 15.1702, 26.9925, 26.0706, -34.227, -19.3415
5.48, 5, 14.5488, 15.1696, 26.9995, 26.0499, -34.2391, -19.3241
5.484, 5, 14.542, 15.1689, 27.0066, 26.0293, -34.2511, -19.3067
5.488, 5, 14.5353, 15.1682, 27.0136, 26.0087, -34.2632, -19.2893
5.492, 5, 14.5285, 15.1676, 27.0207, 25.9881, -34.2753, -19.272
5.496, 5, 14.5217, 15.1669, 27.0277, 25.9675, -34.2874, -19.2546
5.5, 5, 14.5149, 15.1662, 27.0347, 25.9469, -34.2995, -19.2372
5.504, 5, 14.5081, 15.1656, 27.0418, 25.9263, -34.3116, -19.2199
5.508, 5, 14.5013, 15.1649, 27.0488, 25.9058, -34.3237, -19.2026
5.512, 5, 14.4946, 15.1643, 27.0558, 25.8852, -34.3358, -19.1852
5.516, 5, 14.4878, 15.1636, 27.0628, 25.8647, -34.3479, -19.1679
5.52, 5, 14.481, 15.163, 27.0699, 25.8442, -34.36, -19.1507
5.524, 5, 14.4742, 15.1623, 27.0769, 25.8237, -34.3721, -19.1334
5.528, 5, 14.4674, 15.1617, 27.0839, 25.8032, -34.3842, -19.1161
5.532, 5, 14.4606, 15.161, 27.0909, 25.7827, -34.3963, -19.0988
5.536, 5, 14.4538, 15.1604, 27.0979, 25.7622, -34.4085, -19.0816
5.54, 5, 14.447, 15.1598, 27.1049, 25.7418, -34.4206, -19.0644
5.544, 5, 14.4402, 15.1591, 27.1119, 25.7213, -34.4327, -19.0471
5.548, 5, 14.4334, 15.1585, 27.1189, 25.7009, -34.4449, -19.0299
5.552, 5, 14.4267, 15.1579, 27.1259, 25.6805, -34.457, -19.0127
5.556, 5, 14.4199, 15.1572, 27.1329, 25.66, -34.4691, -18.9955
5.56, 5, 14.4131, 15.1566, 27.1399, 25.6396, -34.4813, -18.9784
5.564, 5, 14.4063, 15.156, 27.1469, 25.6192, -34.4934, -18.9612
5.568, 5, 14.3995, 15.1554, 27.1539, 25.5989, -34.5056, -18.944
5.572, 5, 14.3927, 15.1548, 27.1609, 25.5785, -34.5177, -18.9269
5.576, 5, 14.3859, 15.1542, 27.1679, 25.5581, -34.5299, -18.9098
5.58, 5, 14.3791, 15.1536, 27.1748, 25.5378, -34.542, -18.8927
5.584, 5, 14.3723, 15.1529, 27.1818, 25.5175, -34.5542, -18.8755
5.588, 5, 14.3655, 15.1523, 27.1888, 25.4971, -34.5664, -18.8585
5.592, 5, 14.3587, 15.1517, 27.1958, 25.4768, -34.5785, -18.8414
5.596, 5, 14.3519, 15.1511, 27.2027, 25.4565, -34.5907, -18.8243
5.6, 5, 14.345, 15.1506, 27.2097, 25.4362, -34.6029, -18.8072
5.604, 5, 14.3382, 15.15, 27.2167, 25.416, -34.6151, -18.7902
5.608, 5, 14.3314, 15.1494, 27.2236, 25.3957, -34.6272, -18.7732
5.612, 5, 14.3246, 15.1488, 27.2306, 25.3754, -34.6394, -18.7561
5.616, 5, 14.3178, 15.1482, 27.2375, 25.3552, -34.6516, -18.7391
5.62, 5, 14.311, 15.1476, 27.2445, 25.335, -34.6638, -18.7221
5.624, 5, 14.3042, 15.147, 27.2514, 25.3148, -34.676, -18.7051
5.628, 5, 14.2974, 15.1465, 27.2584, 25.2946, -34.6882, -18.6882
5.632, 5, 14.2906, 15.1459, 27.2653, 25.2744, -34.7004, -18.6712
5.636, 5, 14.2838, 15.1453, 27.2723, 25.2542, -34.7126, -18.6542
5.64, 5, 14.277, 15.1448, 27.2792, 25.234, -34.7248, -18.6373
5.644, 5, 14.2701, 15.1442, 27.2861, 25.2138, -34.737, -18.6204
5.648, 5, 14.2633, 15.1436, 27.2931, 25.1937, -34.7493, -18.6035
5.652, 5, 14.2565, 15.1431, 27.3, 25.1736, -34.7615, -18.5866
5.656, 5, 14.2497, 15.1425, 27.3069, 25.1534, -34.7737, -18.5697
5.66, 5, 14.2429, 15.142, 27.3138, 25.1333, -34.7859, -18.5528
5.664, 5, 14.2361, 15.1414, 27.3208, 25.1132, -34.7982, -18.5359
5.668, 5, 14.2292, 15.1409, 27.3277, 25.0931, -34.8104, -18.519
5.672, 5, 14.2224, 15.1403, 27.3346, 25.073, -34.8226, -18.5022
5.676, 5, 14.2156, 15.1398, 27.3415, 25.053, -34.8349, -18.4854
5.68, 5, 14.2088, 15.1392, 27.3484, 25.0329, -34.8471, -18.4685
5.684, 5, 14.202, 15.1387, 27.3553, 25.0129, -34.8594, -18.4517
5.688, 5, 14.1951, 15.1382, 27.3622, 24.9928, -34.8716, -18.4349
5.692, 5, 14.1883, 15.1376, 27.3691, 24.9728, -34.8839, -18.4181
5.696, 5, 14.1815, 15.1371, 27.376, 24.9528, -34.8961, -18.4014
5.7, 5, 14.1747, 15.1366, 27.3829, 24.9328, -34.9084, -18.3846
5.704, 5, 14.1678, 15.1361, 27.3898, 24.9128, -34.9206, -18.3678
5.708, 5, 14.161, 15.1355, 27.3967, 24.8928, -34.9329, -18.3511
5.712, 5, 14.1542, 15.135, 27.4036, 24.8729, -34.9452, -18.3344
5.716, 5, 14.1473, 15.1345, 27.4105, 24.8529, -34.9575, -18.3176
5.72, 5, 14.1405, 15.134, 27.4174, 24.833, -34.9697, -18.3009
5.724, 5, 14.1337, 15.1335, 27.4242, 24.813, -34.982, -18.2842
5.728, 5, 14.1269, 15.133, 27.4311, 24.7931, -34.9943, -18.2675
5.732, 5, 14.12, 15.1325, 27.438, 24.7732, -35.0066, -18.2509
5.736, 5, 14.1132, 15.132, 27.4449, 24.7533, -35.0189, -18.2342
5.74, 5, 14.1064, 15.1315, 27.4517, 24.7334, -35.0312, -18.2175
5.744, 5, 14.0995, 15.131, 27.4586, 24.7135, -35.0435, -18.2009
5.748, 5, 14.0927, 15.1305, 27.4655, 24.6937, -35.0558, -18.1843
5.752, 5, 14.0858, 15.13, 27.4723, 24.6738, -35.0681, -18.1677
5.756, 5, 14.079, 15.1295, 27.4792, 24.654, -35.0804, -18.1511
5.76, 5, 14.0722, 15.129, 27.486, 24.6341, -35.0927, -18.1345
5.764, 5, 14.0653, 15.1285, 27.4929, 24.6143, -35.105, -18.1179
5.768, 5, 14.0585, 15.1281, 27.4997, 24.5945, -35.1173, -18.1013
5.772, 5, 14.0517, 15.1276, 27.5066, 24.5747, -35.1296, -18.0847
5.776, 5, 14.0448, 15.1271, 27.5134, 24.5549, -35.1419, -18.0682
5.78, 5, 14.038, 15.1266, 27.5202, 24.5351, -35.1543, -18.0517
5.784, 5, 14.0311, 15.1262, 27.5271, 24.5154, -35.1666, -18.0351
5.788, 5, 14.0243, 15.1257, 27.5339, 24.4956, -35.1789, -18.0186
5.792, 5, 14.0174, 15.1252, 27.5407, 24.4759, -35.1912, -18.0021
5.796, 5, 14.0106, 15.1248, 27.5476, 24.4561, -35.2036, -17.9856
5.8, 5, 14.0037, 15.1243, 27.5544, 24.4364, -35.2159, -17.9691
5.804, 5, 13.9969, 15.1239, 27.5612, 24.4167, -35.2283, -17.9527
5.808, 5, 13.99, 15.1234, 27.568, 24.397, -35.2406, -17.9362
5.812, 5, 13.9832, 15.123, 27.5749, 24.3773, -35.253, -17.9198
5.816, 5, 13.9763, 15.1225, 27.5817, 24.3577, -35.2653, -17.9033
5.82, 5, 13.9695, 15.1221, 27.5885, 24.338, -35.2777, -17.8869
5.824, 5, 13.9626, 15.1216, 27.5953, 24.3183, -35.29, -17.8705
5.828, 5, 13.9558, 15.1212, 27.6021, 24.2987, -35.3024, -17.8541
5.832, 5, 13.9489, 15.1208, 27.6089, 24.2791, -35.3148, -17.8377
5.836, 5, 13.9421, 15.1203, 27.6157, 24.2594, -35.3271, -17.8213
5.84, 5, 13.9352, 15.1199, 27.6225, 24.2398, -35.3395, -17.8049
5.844, 5, 13.9284, 15.1195, 27.6293, 24.2202, -35.3519, -17.7886
5.848, 5, 13.9215, 15.1191, 27.6361, 24.2006, -35.3643, -17.7722
5.852, 5, 13.9147, 15.1186, 27.6429, 24.1811, -35.3766, -17.7559
5.856, 5, 13.9078, 15.1182, 27.6496, 24.1615, -35.389, -17.7396
5.86, 5, 13.9009, 15.1178, 27.6564, 24.1419, -35.4014, -17.7232
5.864, 5, 13.8941, 15.1174, 27.6632, 24.1224, -35.4138, -17.7069
5.868, 5, 13.8872, 15.117, 27.67, 24.1029, -35.4262, -17.6907
5.872, 5, 13.8804, 15.1166, 27.6768, 24.0833, -35.4386, -17.6744
5.876, 5, 13.8735, 15.1162, 27.6835, 24.0638, -35.451, -17.6581
5.88, 5, 13.8666, 15.1158, 27.6903, 24.0443, -35.4634, -17.6418
5.884, 5, 13.8598, 15.1154, 27.6971, 24.0248, -35.4758, -17.6256
5.888, 5, 13.8529, 15.115, 27.7038, 24.0054, -35.4882, -17.6094
5.892, 5, 13.846, 15.1146, 27.7106, 23.9859, -35.5006, -17.5931
5.896, 5, 13.8392, 15.1142, 27.7173, 23.9664, -35.5131, -17.5769
5.9, 5, 13.8323, 15.1138, 27.7241, 23.947, -35.5255, -17.5607
5.904, 5, 13.8254, 15.1134, 27.7308, 23.9275, -35.5379, -17.5445
5.908, 5, 13.8186, 15.113, 27.7376, 23.9081, -35.5503, -17.5283
5.912, 5, 13.8117, 15.1127, 27.7443, 23.8887, -35.5628, -17.5122
5.916, 5, 13.8048, 15.1123, 27.7511, 23.8693, -35.5752, -17.496
5.92, 5, 13.798, 15.1119, 27.7578, 23.8499, -35.5876, -17.4799
5.924, 5, 13.7911, 15.1115, 27.7646, 23.8305, -35.6001, -17.4637
5.928, 5, 13.7842, 15.1112, 27.7713, 23.8112, -35.6125, -17.4476
5.932, 5, 13.7773, 15.1108, 27.778, 23.7918, -35.6249, -17.4315
5.936, 5, 13.7705, 15.1104, 27.7848, 23.7725, -35.6374, -17.4154
5.94, 5, 13.7636, 15.1101, 27.7915, 23.7531, -35.6498, -17.3993
5.944, 5, 13.7567, 15.1097, 27.7982, 23.7338, -35.6623, -17.3832
5.948, 5, 13.7498, 15.1094, 27.8049, 23.7145, -35.6748, -17.3671
5.952, 5, 13.743, 15.109, 27.8116, 23.6952, -35.6872, -17.3511
5.956, 5, 13.7361, 15.1087, 27.8183, 23.6759, -35.6997, -17.335
5.96, 5, 13.7292, 15.1083, 27.8251, 23.6566, -35.7121, -17.319
5.964, 5, 13.7223, 15.108, 27.8318, 23.6373, -35.7246, -17.303
5.968, 5, 13.7154, 15.1076, 27.8385, 23.618, -35.7371, -17.287
5.972, 5, 13.7086, 15.1073, 27.8452, 23.5988, -35.7496, -17.271
5.976, 5, 13.7017, 15.107, 27.8519, 23.5796, -35.762, -17.255
