hehonglu123/ABB_Primitive_Study/execution/movel_30_car/curve_exe_v300_z10.csv
timestamp, cmd_num, J1, J2, J3, J4, J5, J6
0, -1, -13.4393, 43.6787, 12.5946, -11.6275, -87.029, 7.42441
0.002, -1, -13.4393, 43.6787, 12.5946, -11.6275, -87.029, 7.42441
0.006, -1, -13.4393, 43.6787, 12.5946, -11.6275, -87.029, 7.42441
0.008, -1, -13.4393, 43.6787, 12.5946, -11.6275, -87.029, 7.42441
0.011, -1, -13.4393, 43.6787, 12.5946, -11.6275, -87.029, 7.42441
0.016, -1, -13.4393, 43.6787, 12.5946, -11.6275, -87.029, 7.42441
0.02, -1, -13.4393, 43.6787, 12.5946, -11.6275, -87.029, 7.42441
0.024, -1, -13.4393, 43.6787, 12.5946, -11.6275, -87.029, 7.42441
0.028, -1, -13.4393, 43.6787, 12.5946, -11.6275, -87.029, 7.42441
0.032, -1, -13.4393, 43.6787, 12.5946, -11.6275, -87.029, 7.42441
0.036, -1, -13.4392, 43.6786, 12.5946, -11.6275, -87.029, 7.42441
0.04, -1, -13.439, 43.6785, 12.5946, -11.6275, -87.029, 7.42441
0.044, -1, -13.4384, 43.678, 12.5947, -11.6275, -87.029, 7.42439
0.048, -1, -13.4372, 43.6772, 12.5949, -11.6274, -87.0289, 7.42434
0.052, -1, -13.4355, 43.6758, 12.5951, -11.6273, -87.0287, 7.42422
0.056, -1, -13.433, 43.6738, 12.5955, -11.627, -87.0284, 7.42397
0.06, -1, -13.4296, 43.671, 12.5961, -11.6264, -87.0277, 7.42349
0.064, -1, -13.4254, 43.6675, 12.5969, -11.6253, -87.0264, 7.42266
0.068, -1, -13.4203, 43.6631, 12.598, -11.6236, -87.0244, 7.42132
0.072, -1, -13.4141, 43.6579, 12.5994, -11.6209, -87.0213, 7.41928
0.076, -1, -13.4066, 43.6516, 12.6011, -11.617, -87.0167, 7.4163
0.08, -1, -13.3977, 43.6442, 12.6034, -11.6115, -87.0103, 7.41213
0.084, -1, -13.3869, 43.6352, 12.6062, -11.604, -87.0016, 7.40644
0.088, -1, -13.3743, 43.6247, 12.6097, -11.5941, -86.9899, 7.39892
0.092, -1, -13.3596, 43.6124, 12.6138, -11.5812, -86.9748, 7.38918
0.096, -1, -13.3427, 43.5982, 12.6186, -11.5648, -86.9557, 7.37685
0.1, -1, -13.3235, 43.582, 12.6243, -11.5444, -86.9319, 7.36155
0.104, -1, -13.3019, 43.5636, 12.6308, -11.5196, -86.9029, 7.3429
0.108, -1, -13.2776, 43.5427, 12.6382, -11.4899, -86.868, 7.32054
0.112, -1, -13.2505, 43.5193, 12.6467, -11.4547, -86.8269, 7.29416
0.116, -1, -13.2206, 43.4932, 12.6562, -11.4137, -86.7789, 7.26346
0.12, -1, -13.1877, 43.4644, 12.6669, -11.3667, -86.7238, 7.22818
0.124, -1, -13.1519, 43.4328, 12.6786, -11.3132, -86.6612, 7.18814
0.128, -1, -13.113, 43.3984, 12.6916, -11.2532, -86.591, 7.14319
0.131, -1, -13.071, 43.3611, 12.7056, -11.1865, -86.5129, 7.09326
0.136, -1, -13.026, 43.321, 12.7209, -11.1131, -86.4269, 7.03835
0.139, -1, -12.9779, 43.2779, 12.7373, -11.0331, -86.3333, 6.9785
0.144, -1, -12.9267, 43.232, 12.7548, -10.9467, -86.2321, 6.91384
0.148, -1, -12.8726, 43.1833, 12.7734, -10.854, -86.1236, 6.84454
0.152, -1, -12.8155, 43.132, 12.7932, -10.7555, -86.0082, 6.77084
0.156, -1, -12.7557, 43.0781, 12.8139, -10.6514, -85.8863, 6.69301
0.16, -1, -12.6932, 43.0219, 12.8355, -10.5422, -85.7585, 6.61137
0.164, -1, -12.6282, 42.9633, 12.8581, -10.4284, -85.6253, 6.52627
0.168, -1, -12.5607, 42.9025, 12.8815, -10.3105, -85.4872, 6.43809
0.172, -1, -12.4909, 42.8396, 12.9056, -10.189, -85.3449, 6.34721
0.176, -1, -12.4189, 42.7749, 12.9305, -10.0644, -85.1989, 6.25399
0.18, -1, -12.345, 42.7085, 12.956, -9.93711, -85.0499, 6.15879
0.184, -1, -12.2694, 42.6406, 12.9821, -9.80765, -84.8983, 6.06194
0.188, -1, -12.1925, 42.5714, 13.0086, -9.6764, -84.7446, 5.96375
0.192, -1, -12.1142, 42.5011, 13.0356, -9.54373, -84.5892, 5.86449
0.196, -1, -12.0348, 42.4297, 13.0629, -9.40995, -84.4326, 5.76439
0.2, -1, -11.9542, 42.3573, 13.0906, -9.27534, -84.2749, 5.66366
0.204, -1, -11.8724, 42.2841, 13.1185, -9.14011, -84.1166, 5.56246
0.208, -1, -11.7897, 42.21, 13.1466, -9.00443, -83.9577, 5.46092
0.212, -1, -11.7061, 42.1354, 13.1749, -8.86843, -83.7985, 5.35913
0.216, -1, -11.6218, 42.0602, 13.2033, -8.7322, -83.6389, 5.25717
0.22, -1, -11.5371, 41.9847, 13.2318, -8.5958, -83.4792, 5.15507
0.224, -1, -11.452, 41.909, 13.2603, -8.45928, -83.3194, 5.05288
0.228, -1, -11.3667, 41.8332, 13.2889, -8.32266, -83.1594, 4.95062
0.232, -1, -11.2813, 41.7572, 13.3176, -8.18597, -82.9993, 4.8483
0.236, -1, -11.1957, 41.6811, 13.3462, -8.04922, -82.8392, 4.74595
0.24, -1, -11.11, 41.605, 13.3749, -7.91243, -82.679, 4.64355
0.244, -1, -11.0243, 41.5288, 13.4035, -7.77561, -82.5188, 4.54114
0.248, -1, -10.9386, 41.4526, 13.4322, -7.63876, -82.3586, 4.4387
0.252, -1, -10.8528, 41.3764, 13.4609, -7.50189, -82.1983, 4.33625
0.256, -1, -10.767, 41.3002, 13.4896, -7.36501, -82.0381, 4.2338
0.26, -1, -10.6811, 41.2239, 13.5183, -7.22813, -81.8778, 4.13133
0.264, -1, -10.5953, 41.1477, 13.547, -7.09125, -81.7175, 4.02887
0.268, -1, -10.5094, 41.0714, 13.5757, -6.95436, -81.5572, 3.92641
0.272, -1, -10.4236, 40.9952, 13.6044, -6.81749, -81.397, 3.82396
0.276, -1, -10.3378, 40.9189, 13.6331, -6.68063, -81.2367, 3.72151
0.28, -1, -10.252, 40.8427, 13.6618, -6.54379, -81.0765, 3.61908
0.284, -1, -10.1661, 40.7665, 13.6904, -6.40697, -80.9163, 3.51666
0.288, -1, -10.0803, 40.6903, 13.7191, -6.27017, -80.7561, 3.41427
0.292, -1, -9.99456, 40.6141, 13.7478, -6.13341, -80.596, 3.31189
0.296, -1, -9.9088, 40.538, 13.7764, -5.99668, -80.4359, 3.20955
0.3, -1, -9.82306, 40.4618, 13.8051, -5.85999, -80.2758, 3.10723
0.304, -1, -9.73734, 40.3857, 13.8337, -5.72334, -80.1158, 3.00494
0.308, -1, -9.65166, 40.3096, 13.8624, -5.58674, -79.9558, 2.90269
0.312, -1, -9.566, 40.2336, 13.891, -5.45019, -79.796, 2.80048
0.316, -1, -9.48038, 40.1575, 13.9196, -5.31369, -79.6361, 2.69831
0.32, -1, -9.3948, 40.0815, 13.9482, -5.17726, -79.4764, 2.59618
0.324, -1, -9.30925, 40.0055, 13.9768, -5.04089, -79.3167, 2.4941
0.328, -1, -9.22375, 39.9296, 14.0054, -4.90458, -79.1571, 2.39207
0.332, -1, -9.13829, 39.8537, 14.0339, -4.76835, -78.9976, 2.2901
0.336, -1, -9.05287, 39.7778, 14.0625, -4.63219, -78.8382, 2.18818
0.34, -1, -8.9675, 39.702, 14.091, -4.49612, -78.6788, 2.08632
0.344, -1, -8.88219, 39.6262, 14.1195, -4.36012, -78.5196, 1.98452
0.348, -1, -8.79692, 39.5505, 14.148, -4.22421, -78.3604, 1.88279
0.352, -1, -8.71172, 39.4748, 14.1765, -4.0884, -78.2014, 1.78113
0.356, -1, -8.62657, 39.3992, 14.2049, -3.95267, -78.0425, 1.67953
0.36, -1, -8.54148, 39.3236, 14.2334, -3.81705, -77.8837, 1.57801
0.364, -1, -8.45646, 39.2481, 14.2618, -3.68152, -77.725, 1.47657
0.368, -1, -8.3715, 39.1727, 14.2902, -3.54611, -77.5664, 1.3752
0.372, -1, -8.28661, 39.0973, 14.3185, -3.4108, -77.408, 1.27392
0.376, -1, -8.20179, 39.0219, 14.3469, -3.2756, -77.2497, 1.17272
0.38, -1, -8.11704, 38.9467, 14.3752, -3.14052, -77.0915, 1.07161
0.384, -1, -8.03237, 38.8715, 14.4035, -3.00557, -76.9335, 0.970588
0.388, -1, -7.94777, 38.7963, 14.4318, -2.87073, -76.7756, 0.869659
0.392, -1, -7.86325, 38.7212, 14.46, -2.73602, -76.6179, 0.768825
0.396, -1, -7.77881, 38.6463, 14.4882, -2.60145, -76.4603, 0.668089
0.4, -1, -7.69446, 38.5713, 14.5164, -2.467, -76.3029, 0.567454
0.404, -1, -7.61019, 38.4965, 14.5446, -2.3327, -76.1456, 0.466921
0.408, -1, -7.526, 38.4217, 14.5727, -2.19854, -75.9885, 0.366494
0.412, -1, -7.44191, 38.347, 14.6008, -2.06452, -75.8316, 0.266176
0.416, -1, -7.35791, 38.2724, 14.6288, -1.93064, -75.6748, 0.165968
0.42, -1, -7.274, 38.1979, 14.6569, -1.79692, -75.5183, 0.0658724
0.424, -1, -7.19019, 38.1235, 14.6849, -1.66336, -75.3619, -0.0341072
0.428, -1, -7.10648, 38.0491, 14.7128, -1.52995, -75.2057, -0.133969
0.432, -1, -7.02287, 37.9748, 14.7408, -1.3967, -75.0496, -0.233711
0.436, -1, -6.93935, 37.9007, 14.7687, -1.26362, -74.8938, -0.33333
0.44, -1, -6.85595, 37.8266, 14.7965, -1.1307, -74.7382, -0.432824
0.444, -1, -6.77264, 37.7526, 14.8244, -0.99795, -74.5827, -0.532191
0.448, -1, -6.68945, 37.6787, 14.8522, -0.865375, -74.4275, -0.631429
0.452, -1, -6.60636, 37.6049, 14.8799, -0.732975, -74.2725, -0.730535
0.456, -1, -6.52339, 37.5312, 14.9077, -0.600755, -74.1176, -0.829507
0.46, -1, -6.44053, 37.4576, 14.9353, -0.468716, -73.963, -0.928344
0.464, -1, -6.35778, 37.3842, 14.963, -0.336861, -73.8086, -1.02704
0.468, -1, -6.27515, 37.3108, 14.9906, -0.205193, -73.6545, -1.1256
0.472, -1, -6.19264, 37.2375, 15.0181, -0.0737153, -73.5005, -1.22402
0.476, -1, -6.11024, 37.1643, 15.0457, 0.0575699, -73.3468, -1.32229
0.48, -1, -6.02797, 37.0912, 15.0732, 0.18866, -73.1933, -1.42042
0.484, -1, -5.94582, 37.0183, 15.1006, 0.319552, -73.04, -1.51839
0.488, -1, -5.8638, 36.9454, 15.128, 0.450244, -72.887, -1.61622
0.492, -1, -5.7819, 36.8727, 15.1554, 0.580734, -72.7342, -1.7139
0.496, -1, -5.70012, 36.8001, 15.1827, 0.711018, -72.5817, -1.81142
0.5, -1, -5.61848, 36.7276, 15.2099, 0.841096, -72.4294, -1.90879
0.504, -1, -5.53697, 36.6552, 15.2372, 0.970964, -72.2773, -2.006
0.508, -1, -5.45558, 36.5829, 15.2644, 1.10062, -72.1255, -2.10306
0.512, -1, -5.37433, 36.5108, 15.2915, 1.23006, -71.9739, -2.19995
0.516, -1, -5.29321, 36.4387, 15.3186, 1.35929, -71.8226, -2.29668
0.52, -1, -5.21223, 36.3668, 15.3456, 1.4883, -71.6715, -2.39325
0.524, -1, -5.13138, 36.295, 15.3726, 1.6171, -71.5207, -2.48966
0.528, -1, -5.05067, 36.2233, 15.3996, 1.74567, -71.3702, -2.5859
0.532, -1, -4.97009, 36.1518, 15.4265, 1.87402, -71.2199, -2.68198
0.536, -1, -4.88966, 36.0803, 15.4534, 2.00215, -71.0698, -2.77789
0.54, -1, -4.80936, 36.009, 15.4802, 2.13005, -70.9201, -2.87363
0.544, -1, -4.7292, 35.9378, 15.507, 2.25773, -70.7706, -2.9692
0.548, -1, -4.64919, 35.8668, 15.5337, 2.38518, -70.6213, -3.0646
0.552, -1, -4.56931, 35.7959, 15.5604, 2.51241, -70.4724, -3.15984
0.556, -1, -4.48958, 35.725, 15.587, 2.6394, -70.3237, -3.2549
0.56, -1, -4.41, 35.6544, 15.6136, 2.76617, -70.1752, -3.34979
0.564, -1, -4.33056, 35.5838, 15.6401, 2.8927, -70.0271, -3.44451
0.568, -1, -4.25126, 35.5134, 15.6666, 3.01901, -69.8792, -3.53905
0.572, -1, -4.17211, 35.4431, 15.693, 3.14508, -69.7316, -3.63342
0.576, -1, -4.0931, 35.373, 15.7194, 3.27092, -69.5842, -3.72761
0.58, -1, -4.01424, 35.3029, 15.7458, 3.39652, -69.4372, -3.82163
0.584, -1, -3.93553, 35.233, 15.772, 3.52189, -69.2904, -3.91547
0.588, -1, -3.85696, 35.1633, 15.7983, 3.64702, -69.1438, -4.00914
0.592, -1, -3.77855, 35.0936, 15.8245, 3.77191, -68.9976, -4.10263
0.596, -1, -3.70028, 35.0241, 15.8506, 3.89657, -68.8516, -4.19594
0.6, -1, -3.62216, 34.9548, 15.8767, 4.02099, -68.7059, -4.28908
0.604, -1, -3.54419, 34.8855, 15.9027, 4.14517, -68.5605, -4.38203
0.608, -1, -3.46637, 34.8164, 15.9287, 4.26911, -68.4154, -4.47481
0.612, -1, -3.3887, 34.7474, 15.9547, 4.39281, -68.2706, -4.5674
0.616, -1, -3.31118, 34.6786, 15.9806, 4.51628, -68.126, -4.65982
0.62, -1, -3.23382, 34.6099, 16.0064, 4.63949, -67.9817, -4.75205
0.624, -1, -3.1566, 34.5413, 16.0322, 4.76247, -67.8377, -4.84411
0.628, -1, -3.07954, 34.4729, 16.0579, 4.88521, -67.694, -4.93598
0.632, -1, -3.00262, 34.4046, 16.0836, 5.0077, -67.5506, -5.02767
0.636, -1, -2.92586, 34.3364, 16.1092, 5.12995, -67.4074, -5.11918
0.64, -1, -2.84926, 34.2684, 16.1348, 5.25195, -67.2646, -5.2105
0.644, -1, -2.7728, 34.2005, 16.1604, 5.37371, -67.122, -5.30165
0.648, -1, -2.6965, 34.1328, 16.1858, 5.49523, -66.9797, -5.39261
0.652, -1, -2.62035, 34.0652, 16.2113, 5.6165, -66.8377, -5.48338
0.656, -1, -2.54436, 33.9977, 16.2366, 5.73753, -66.696, -5.57398
0.66, -1, -2.46852, 33.9303, 16.262, 5.85831, -66.5546, -5.66439
0.664, -1, -2.39283, 33.8631, 16.2872, 5.97884, -66.4135, -5.75461
0.668, -1, -2.3173, 33.7961, 16.3125, 6.09913, -66.2726, -5.84465
0.672, -1, -2.24192, 33.7291, 16.3376, 6.21917, -66.1321, -5.93451
0.676, -1, -2.1667, 33.6623, 16.3628, 6.33897, -65.9918, -6.02418
0.68, -1, -2.09163, 33.5957, 16.3878, 6.45851, -65.8518, -6.11367
0.684, -1, -2.01672, 33.5292, 16.4129, 6.57781, -65.7121, -6.20297
0.688, -1, -1.94196, 33.4628, 16.4378, 6.69687, -65.5727, -6.29208
0.692, -1, -1.86736, 33.3965, 16.4627, 6.81567, -65.4336, -6.38101
0.696, -1, -1.79291, 33.3304, 16.4876, 6.93423, -65.2948, -6.46976
0.7, -1, -1.71862, 33.2645, 16.5124, 7.05254, -65.1562, -6.55832
0.704, -1, -1.64448, 33.1986, 16.5372, 7.1706, -65.018, -6.64669
0.708, -1, -1.5705, 33.1329, 16.5619, 7.28841, -64.8801, -6.73488
0.712, -1, -1.49668, 33.0674, 16.5865, 7.40597, -64.7424, -6.82288
0.716, -1, -1.42301, 33.002, 16.6111, 7.52329, -64.605, -6.9107
0.72, -1, -1.34949, 32.9367, 16.6357, 7.64036, -64.468, -6.99833
0.724, -1, -1.27614, 32.8715, 16.6602, 7.75718, -64.3312, -7.08577
0.728, -1, -1.20293, 32.8065, 16.6846, 7.87375, -64.1947, -7.17303
0.732, -1, -1.12989, 32.7417, 16.709, 7.99007, -64.0585, -7.2601
0.736, -1, -1.057, 32.677, 16.7333, 8.10615, -63.9226, -7.34699
0.74, -1, -0.984259, 32.6124, 16.7576, 8.22197, -63.7869, -7.43369
0.744, -1, -0.911678, 32.5479, 16.7819, 8.33755, -63.6516, -7.52021
0.748, -1, -0.839252, 32.4836, 16.8061, 8.45288, -63.5166, -7.60653
0.752, -1, -0.766981, 32.4194, 16.8302, 8.56796, -63.3818, -7.69268
0.756, -1, -0.694864, 32.3554, 16.8543, 8.6828, -63.2474, -7.77864
0.76, -1, -0.622901, 32.2915, 16.8783, 8.79738, -63.1132, -7.86441
0.764, -1, -0.551092, 32.2277, 16.9023, 8.91172, -62.9793, -7.95
0.768, -1, -0.479437, 32.1641, 16.9262, 9.02582, -62.8457, -8.0354
0.772, -1, -0.407935, 32.1006, 16.9501, 9.13966, -62.7124, -8.12062
0.776, -1, -0.336586, 32.0373, 16.9739, 9.25326, -62.5794, -8.20566
0.78, -1, -0.26539, 31.9741, 16.9977, 9.36662, -62.4467, -8.29051
0.784, -1, -0.194346, 31.911, 17.0214, 9.47973, -62.3142, -8.37518
0.788, -1, -0.123455, 31.848, 17.0451, 9.5926, -62.182, -8.45966
0.792, -1, -0.0527154, 31.7852, 17.0687, 9.70522, -62.0502, -8.54397
0.796, -1, 0.0178725, 31.7226, 17.0923, 9.81761, -61.9186, -8.62809
0.8, -1, 0.0883091, 31.66, 17.1158, 9.92975, -61.7873, -8.71204
0.804, -1, 0.158595, 31.5976, 17.1393, 10.0417, -61.6562, -8.7958
0.808, -1, 0.22873, 31.5353, 17.1627, 10.1533, -61.5255, -8.87938
0.812, -1, 0.298716, 31.4732, 17.186, 10.2647, -61.395, -8.96279
0.816, -1, 0.368552, 31.4112, 17.2094, 10.3759, -61.2648, -9.04602
0.82, -1, 0.438239, 31.3493, 17.2326, 10.4869, -61.1349, -9.12907
0.824, -1, 0.507778, 31.2876, 17.2559, 10.5976, -61.0053, -9.21194
0.828, -1, 0.577169, 31.226, 17.279, 10.7081, -60.8759, -9.29464
0.832, -1, 0.646413, 31.1645, 17.3021, 10.8183, -60.7468, -9.37716
0.836, -1, 0.71551, 31.1031, 17.3252, 10.9283, -60.618, -9.45951
0.84, -1, 0.78446, 31.0419, 17.3482, 11.0381, -60.4895, -9.54168
0.844, -1, 0.853266, 30.9808, 17.3712, 11.1476, -60.3612, -9.62368
0.848, -1, 0.921925, 30.9199, 17.3941, 11.2569, -60.2332, -9.7055
0.852, -1, 0.990441, 30.859, 17.417, 11.366, -60.1055, -9.78716
0.856, -1, 1.05881, 30.7983, 17.4398, 11.4749, -59.9781, -9.86864
0.86, -1, 1.12704, 30.7378, 17.4626, 11.5835, -59.8509, -9.94995
0.864, -1, 1.19512, 30.6773, 17.4854, 11.6919, -59.7239, -10.0311
0.868, -1, 1.26307, 30.617, 17.508, 11.8001, -59.5973, -10.1121
0.872, -1, 1.33087, 30.5568, 17.5307, 11.908, -59.4709, -10.1929
0.876, -1, 1.39853, 30.4967, 17.5533, 12.0157, -59.3448, -10.2735
0.88, -1, 1.46604, 30.4368, 17.5758, 12.1232, -59.2189, -10.354
0.884, -1, 1.53342, 30.377, 17.5983, 12.2305, -59.0933, -10.4343
0.888, -1, 1.60066, 30.3173, 17.6208, 12.3375, -58.9679, -10.5144
0.892, -1, 1.66775, 30.2577, 17.6432, 12.4444, -58.8429, -10.5943
0.896, -1, 1.73471, 30.1982, 17.6655, 12.551, -58.718, -10.6741
0.9, -1, 1.80153, 30.1389, 17.6878, 12.6574, -58.5935, -10.7538
0.904, -1, 1.86821, 30.0797, 17.7101, 12.7635, -58.4692, -10.8332
0.908, -1, 1.93476, 30.0206, 17.7323, 12.8695, -58.3451, -10.9125
0.912, -1, 2.00117, 29.9617, 17.7545, 12.9752, -58.2213, -10.9917
0.916, -1, 2.06744, 29.9028, 17.7766, 13.0807, -58.0978, -11.0707
0.92, -1, 2.13357, 29.8441, 17.7987, 13.186, -57.9745, -11.1495
0.924, -1, 2.19957, 29.7855, 17.8207, 13.2911, -57.8514, -11.2281
0.928, -1, 2.26543, 29.727, 17.8427, 13.3959, -57.7287, -11.3066
0.932, -1, 2.33116, 29.6687, 17.8647, 13.5006, -57.6061, -11.385
0.936, -1, 2.39676, 29.6104, 17.8866, 13.605, -57.4838, -11.4631
0.94, -1, 2.46222, 29.5523, 17.9084, 13.7092, -57.3618, -11.5412
0.944, -1, 2.52755, 29.4943, 17.9303, 13.8133, -57.24, -11.619
0.948, -1, 2.59275, 29.4364, 17.952, 13.9171, -57.1185, -11.6967
0.952, -1, 2.65781, 29.3787, 17.9738, 14.0206, -56.9972, -11.7743
0.956, -1, 2.72274, 29.321, 17.9954, 14.124, -56.8761, -11.8516
0.96, -1, 2.78755, 29.2635, 18.0171, 14.2272, -56.7553, -11.9289
0.964, -1, 2.85222, 29.2061, 18.0387, 14.3302, -56.6348, -12.0059
0.968, -1, 2.91676, 29.1488, 18.0602, 14.4329, -56.5144, -12.0829
0.972, -1, 2.98117, 29.0916, 18.0817, 14.5355, -56.3944, -12.1596
0.976, -1, 3.04545, 29.0345, 18.1032, 14.6378, -56.2745, -12.2362
0.98, -1, 3.10961, 28.9775, 18.1246, 14.7399, -56.1549, -12.3127
0.984, -1, 3.17363, 28.9207, 18.146, 14.8419, -56.0356, -12.389
0.988, -1, 3.23753, 28.864, 18.1673, 14.9436, -55.9165, -12.4651
0.992, -1, 3.3013, 28.8074, 18.1886, 15.0451, -55.7976, -12.5411
0.996, -1, 3.36494, 28.7508, 18.2099, 15.1465, -55.6789, -12.617
1, -1, 3.42846, 28.6945, 18.2311, 15.2476, -55.5605, -12.6927
1.004, -1, 3.49185, 28.6382, 18.2523, 15.3485, -55.4423, -12.7682
1.008, -1, 3.55512, 28.582, 18.2734, 15.4492, -55.3244, -12.8436
1.012, -1, 3.61826, 28.5259, 18.2945, 15.5498, -55.2067, -12.9189
1.016, -1, 3.68127, 28.47, 18.3155, 15.6501, -55.0892, -12.994
1.02, -1, 3.74416, 28.4142, 18.3365, 15.7502, -54.972, -13.0689
1.024, -1, 3.80693, 28.3584, 18.3575, 15.8502, -54.855, -13.1437
1.027, -1, 3.86958, 28.3028, 18.3784, 15.9499, -54.7382, -13.2184
1.032, -1, 3.9321, 28.2473, 18.3993, 16.0494, -54.6216, -13.2929
1.036, -1, 3.9945, 28.1919, 18.4201, 16.1488, -54.5053, -13.3673
1.04, -1, 4.05678, 28.1366, 18.4409, 16.2479, -54.3892, -13.4415
1.044, -1, 4.11893, 28.0814, 18.4616, 16.3469, -54.2733, -13.5156
1.048, -1, 4.18097, 28.0263, 18.4824, 16.4457, -54.1577, -13.5895
1.052, -1, 4.24289, 27.9714, 18.503, 16.5442, -54.0422, -13.6633
1.055, -1, 4.30468, 27.9165, 18.5237, 16.6426, -53.927, -13.7369
1.06, -1, 4.36636, 27.8617, 18.5443, 16.7408, -53.8121, -13.8104
1.064, -1, 4.42792, 27.8071, 18.5648, 16.8388, -53.6973, -13.8838
1.068, -1, 4.48936, 27.7525, 18.5853, 16.9366, -53.5828, -13.957
1.072, -1, 4.55068, 27.6981, 18.6058, 17.0343, -53.4685, -14.0301
1.076, -1, 4.61188, 27.6438, 18.6262, 17.1317, -53.3544, -14.103
1.08, -1, 4.67297, 27.5895, 18.6466, 17.229, -53.2405, -14.1758
1.084, -1, 4.73394, 27.5354, 18.667, 17.326, -53.1268, -14.2485
1.088, -1, 4.7948, 27.4814, 18.6873, 17.4229, -53.0134, -14.321
1.091, -1, 4.85554, 27.4274, 18.7076, 17.5196, -52.9002, -14.3934
1.096, -1, 4.91617, 27.3736, 18.7278, 17.6161, -52.7871, -14.4656
1.1, -1, 4.97668, 27.3199, 18.7481, 17.7125, -52.6743, -14.5378
1.104, -1, 5.03708, 27.2663, 18.7682, 17.8086, -52.5618, -14.6097
1.108, -1, 5.09737, 27.2127, 18.7883, 17.9046, -52.4494, -14.6816
1.112, -1, 5.15754, 27.1593, 18.8084, 18.0004, -52.3372, -14.7533
1.116, -1, 5.2176, 27.106, 18.8285, 18.096, -52.2253, -14.8249
1.119, -1, 5.27755, 27.0528, 18.8485, 18.1915, -52.1135, -14.8963
1.124, -1, 5.33739, 26.9996, 18.8685, 18.2867, -52.0019, -14.9676
1.128, -1, 5.39712, 26.9466, 18.8884, 18.3818, -51.8906, -15.0388
1.132, -1, 5.45673, 26.8937, 18.9083, 18.4767, -51.7795, -15.1098
1.136, -1, 5.51624, 26.8408, 18.9282, 18.5715, -51.6685, -15.1807
1.14, -1, 5.57564, 26.7881, 18.948, 18.666, -51.5578, -15.2515
1.144, -1, 5.63493, 26.7355, 18.9678, 18.7604, -51.4473, -15.3222
1.147, -1, 5.69412, 26.6829, 18.9876, 18.8547, -51.337, -15.3927
1.152, -1, 5.75319, 26.6305, 19.0073, 18.9487, -51.2268, -15.4631
1.156, -1, 5.81216, 26.5781, 19.027, 19.0426, -51.1169, -15.5334
1.16, -1, 5.87103, 26.5259, 19.0467, 19.1363, -51.0072, -15.6035
1.164, -1, 5.92979, 26.4737, 19.0663, 19.2298, -50.8976, -15.6736
1.168, -1, 5.98844, 26.4216, 19.0859, 19.3232, -50.7883, -15.7435
1.172, -1, 6.04699, 26.3696, 19.1054, 19.4164, -50.6792, -15.8132
1.175, -1, 6.10543, 26.3177, 19.1249, 19.5095, -50.5702, -15.8829
1.18, -1, 6.16377, 26.266, 19.1444, 19.6024, -50.4614, -15.9524
1.184, -1, 6.22201, 26.2142, 19.1639, 19.6951, -50.3529, -16.0218
1.188, -1, 6.28015, 26.1626, 19.1833, 19.7876, -50.2445, -16.0911
1.192, -1, 6.33818, 26.1111, 19.2027, 19.88, -50.1363, -16.1603
1.196, -1, 6.39611, 26.0597, 19.222, 19.9723, -50.0283, -16.2293
1.2, -1, 6.45394, 26.0083, 19.2413, 20.0643, -49.9205, -16.2982
1.204, -1, 6.51167, 25.9571, 19.2606, 20.1562, -49.8129, -16.367
1.208, -1, 6.5693, 25.9059, 19.2798, 20.248, -49.7055, -16.4357
1.212, -1, 6.62683, 25.8548, 19.299, 20.3396, -49.5982, -16.5042
1.216, -1, 6.68426, 25.8038, 19.3182, 20.431, -49.4912, -16.5727
1.22, -1, 6.74159, 25.7529, 19.3374, 20.5223, -49.3843, -16.641
1.224, -1, 6.79882, 25.7021, 19.3565, 20.6134, -49.2776, -16.7092
1.228, -1, 6.85596, 25.6514, 19.3756, 20.7044, -49.1711, -16.7773
1.232, -1, 6.91299, 25.6008, 19.3946, 20.7952, -49.0648, -16.8453
1.236, -1, 6.96993, 25.5502, 19.4136, 20.8858, -48.9586, -16.9131
1.24, -1, 7.02678, 25.4997, 19.4326, 20.9763, -48.8526, -16.9809
1.244, -1, 7.08352, 25.4494, 19.4515, 21.0667, -48.7469, -17.0485
1.248, -1, 7.14018, 25.3991, 19.4705, 21.1569, -48.6413, -17.116
1.252, -1, 7.19673, 25.3488, 19.4893, 21.2469, -48.5358, -17.1834
1.256, -1, 7.25319, 25.2987, 19.5082, 21.3368, -48.4306, -17.2507
1.26, -1, 7.30956, 25.2487, 19.527, 21.4266, -48.3255, -17.3179
1.264, -1, 7.36583, 25.1987, 19.5458, 21.5161, -48.2206, -17.385
1.267, -1, 7.42201, 25.1488, 19.5646, 21.6056, -48.1158, -17.4519
1.272, -1, 7.4781, 25.099, 19.5833, 21.6949, -48.0113, -17.5188
1.276, -1, 7.53409, 25.0493, 19.602, 21.784, -47.9069, -17.5855
1.28, -1, 7.58999, 24.9997, 19.6207, 21.873, -47.8027, -17.6521
1.284, -1, 7.6458, 24.9501, 19.6393, 21.9619, -47.6986, -17.7186
1.288, -1, 7.70152, 24.9007, 19.6579, 22.0506, -47.5948, -17.785
1.292, -1, 7.75715, 24.8513, 19.6765, 22.1392, -47.4911, -17.8513
1.295, -1, 7.81268, 24.802, 19.695, 22.2276, -47.3875, -17.9175
1.3, -1, 7.86813, 24.7528, 19.7135, 22.3159, -47.2842, -17.9836
1.304, -1, 7.92348, 24.7036, 19.732, 22.404, -47.181, -18.0496
1.308, -1, 7.97875, 24.6545, 19.7505, 22.492, -47.0779, -18.1154
1.312, -1, 8.03393, 24.6055, 19.7689, 22.5798, -46.9751, -18.1812
1.316, -1, 8.08901, 24.5566, 19.7873, 22.6675, -46.8724, -18.2468
1.32, -1, 8.14401, 24.5078, 19.8057, 22.7551, -46.7699, -18.3124
1.324, -1, 8.19893, 24.4591, 19.824, 22.8425, -46.6675, -18.3778
1.328, -1, 8.25375, 24.4104, 19.8423, 22.9298, -46.5653, -18.4432
1.332, -1, 8.30849, 24.3618, 19.8606, 23.017, -46.4632, -18.5084
1.336, -1, 8.36314, 24.3133, 19.8788, 23.104, -46.3614, -18.5735
1.34, -1, 8.4177, 24.2648, 19.8971, 23.1909, -46.2596, -18.6386
1.344, -1, 8.47218, 24.2165, 19.9153, 23.2776, -46.1581, -18.7035
1.348, -1, 8.52657, 24.1682, 19.9334, 23.3642, -46.0567, -18.7683
1.352, -1, 8.58088, 24.1199, 19.9515, 23.4507, -45.9554, -18.833
1.356, -1, 8.6351, 24.0718, 19.9697, 23.537, -45.8543, -18.8976
1.36, -1, 8.68923, 24.0237, 19.9877, 23.6232, -45.7534, -18.9622
1.364, -1, 8.74328, 23.9757, 20.0058, 23.7092, -45.6526, -19.0266
1.368, -1, 8.79725, 23.9278, 20.0238, 23.7952, -45.552, -19.0909
1.372, -1, 8.85114, 23.88, 20.0418, 23.881, -45.4516, -19.1551
1.376, -1, 8.90494, 23.8322, 20.0598, 23.9666, -45.3513, -19.2192
1.38, -1, 8.95866, 23.7845, 20.0777, 24.0521, -45.2511, -19.2833
1.384, -1, 9.01229, 23.7369, 20.0956, 24.1375, -45.1511, -19.3472
1.388, -1, 9.06584, 23.6894, 20.1135, 24.2228, -45.0513, -19.411
1.392, -1, 9.11932, 23.6419, 20.1314, 24.3079, -44.9516, -19.4747
1.396, -1, 9.1727, 23.5945, 20.1492, 24.393, -44.8521, -19.5384
1.4, -1, 9.22601, 23.5472, 20.167, 24.4778, -44.7527, -19.6019
1.404, -1, 9.27924, 23.4999, 20.1848, 24.5626, -44.6535, -19.6653
1.408, -1, 9.33239, 23.4527, 20.2025, 24.6472, -44.5544, -19.7287
1.412, -1, 9.38546, 23.4056, 20.2202, 24.7317, -44.4554, -19.7919
1.416, -1, 9.43844, 23.3585, 20.2379, 24.8161, -44.3567, -19.8551
1.42, -1, 9.49135, 23.3116, 20.2556, 24.9003, -44.258, -19.9181
1.424, -1, 9.54418, 23.2647, 20.2732, 24.9844, -44.1595, -19.9811
1.428, -1, 9.59693, 23.2178, 20.2908, 25.0684, -44.0612, -20.044
1.432, -1, 9.6496, 23.1711, 20.3084, 25.1523, -43.963, -20.1067
1.436, -1, 9.7022, 23.1244, 20.326, 25.236, -43.865, -20.1694
1.44, -1, 9.75472, 23.0777, 20.3435, 25.3196, -43.767, -20.232
1.444, -1, 9.80716, 23.0312, 20.361, 25.4031, -43.6693, -20.2945
1.448, -1, 9.85952, 22.9847, 20.3785, 25.4865, -43.5717, -20.3569
1.452, -1, 9.91181, 22.9383, 20.396, 25.5697, -43.4742, -20.4192
1.456, -1, 9.96403, 22.8919, 20.4134, 25.6528, -43.3769, -20.4814
1.46, -1, 10.0162, 22.8456, 20.4308, 25.7358, -43.2797, -20.5436
1.464, -1, 10.0682, 22.7994, 20.4482, 25.8187, -43.1826, -20.6056
1.468, -1, 10.1202, 22.7533, 20.4656, 25.9015, -43.0857, -20.6676
1.472, -1, 10.1721, 22.7072, 20.4829, 25.9841, -42.989, -20.7294
1.476, -1, 10.224, 22.6612, 20.5002, 26.0666, -42.8923, -20.7912
1.48, -1, 10.2757, 22.6152, 20.5175, 26.149, -42.7958, -20.8529
1.484, -1, 10.3274, 22.5693, 20.5348, 26.2313, -42.6995, -20.9145
1.488, -1, 10.379, 22.5235, 20.552, 26.3135, -42.6033, -20.976
1.492, -1, 10.4306, 22.4777, 20.5692, 26.3956, -42.5072, -21.0374
1.496, -1, 10.482, 22.432, 20.5864, 26.4775, -42.4113, -21.0987
1.5, -1, 10.5334, 22.3864, 20.6035, 26.5593, -42.3154, -21.16
1.504, -1, 10.5848, 22.3408, 20.6207, 26.641, -42.2198, -21.2212
1.508, -1, 10.636, 22.2953, 20.6378, 26.7226, -42.1242, -21.2822
1.512, -1, 10.6872, 22.2499, 20.6549, 26.8041, -42.0288, -21.3432
1.516, -1, 10.7383, 22.2045, 20.6719, 26.8855, -41.9336, -21.4041
1.52, -1, 10.7893, 22.1592, 20.689, 26.9667, -41.8384, -21.4649
1.524, -1, 10.8403, 22.114, 20.706, 27.0479, -41.7434, -21.5257
1.528, -1, 10.8912, 22.0688, 20.723, 27.1289, -41.6485, -21.5863
1.532, -1, 10.942, 22.0237, 20.74, 27.2098, -41.5538, -21.6469
1.536, -1, 10.9928, 21.9786, 20.7569, 27.2906, -41.4592, -21.7074
1.54, -1, 11.0435, 21.9336, 20.7738, 27.3713, -41.3647, -21.7678
1.544, -1, 11.0941, 21.8887, 20.7908, 27.4519, -41.2703, -21.8281
1.548, -1, 11.1446, 21.8438, 20.8076, 27.5324, -41.1761, -21.8884
1.552, -1, 11.1951, 21.799, 20.8245, 27.6127, -41.082, -21.9485
1.556, -1, 11.2455, 21.7542, 20.8413, 27.693, -40.988, -22.0086
1.56, -1, 11.2959, 21.7095, 20.8581, 27.7732, -40.8941, -22.0686
1.564, -1, 11.3462, 21.6649, 20.8749, 27.8532, -40.8004, -22.1285
1.568, -1, 11.3964, 21.6203, 20.8917, 27.9331, -40.7068, -22.1884
1.572, -1, 11.4465, 21.5758, 20.9084, 28.013, -40.6133, -22.2481
1.576, -1, 11.4966, 21.5313, 20.9251, 28.0927, -40.52, -22.3078
1.58, -1, 11.5466, 21.4869, 20.9418, 28.1723, -40.4268, -22.3674
1.584, -1, 11.5965, 21.4426, 20.9585, 28.2518, -40.3336, -22.4269
1.588, -1, 11.6464, 21.3983, 20.9752, 28.3313, -40.2407, -22.4864
1.592, -1, 11.6962, 21.3541, 20.9918, 28.4106, -40.1478, -22.5457
1.596, -1, 11.746, 21.3099, 21.0084, 28.4898, -40.0551, -22.605
1.6, -1, 11.7957, 21.2658, 21.025, 28.5689, -39.9624, -22.6642
1.604, -1, 11.8453, 21.2217, 21.0416, 28.6479, -39.8699, -22.7234
1.608, -1, 11.8948, 21.1778, 21.0581, 28.7268, -39.7776, -22.7824
1.612, -1, 11.9443, 21.1338, 21.0747, 28.8055, -39.6853, -22.8414
1.616, -1, 11.9938, 21.0899, 21.0912, 28.8842, -39.5932, -22.9003
1.62, -1, 12.0431, 21.0461, 21.1076, 28.9628, -39.5011, -22.9591
1.624, -1, 12.0924, 21.0023, 21.1241, 29.0413, -39.4092, -23.0179
1.628, -1, 12.1417, 20.9586, 21.1405, 29.1197, -39.3174, -23.0765
1.632, -1, 12.1908, 20.915, 21.157, 29.198, -39.2258, -23.1352
1.636, -1, 12.2399, 20.8714, 21.1734, 29.2762, -39.1342, -23.1937
1.64, -1, 12.289, 20.8278, 21.1897, 29.3543, -39.0428, -23.2521
1.644, -1, 12.338, 20.7843, 21.2061, 29.4323, -38.9515, -23.3105
1.648, -1, 12.3869, 20.7409, 21.2224, 29.5102, -38.8603, -23.3688
1.652, -1, 12.4358, 20.6975, 21.2388, 29.588, -38.7692, -23.4271
1.656, -1, 12.4846, 20.6542, 21.2551, 29.6657, -38.6782, -23.4852
1.66, -1, 12.5333, 20.6109, 21.2713, 29.7433, -38.5873, -23.5433
1.664, -1, 12.582, 20.5677, 21.2876, 29.8208, -38.4966, -23.6013
1.668, -1, 12.6306, 20.5245, 21.3038, 29.8982, -38.4059, -23.6593
1.672, -1, 12.6792, 20.4814, 21.32, 29.9755, -38.3154, -23.7171
1.676, -1, 12.7277, 20.4384, 21.3362, 30.0527, -38.225, -23.7749
1.68, -1, 12.7761, 20.3953, 21.3524, 30.1298, -38.1347, -23.8327
1.684, -1, 12.8245, 20.3524, 21.3686, 30.2069, -38.0445, -23.8903
1.688, -1, 12.8728, 20.3095, 21.3847, 30.2838, -37.9544, -23.9479
1.692, -1, 12.9211, 20.2666, 21.4008, 30.3606, -37.8644, -24.0054
1.696, -1, 12.9693, 20.2238, 21.4169, 30.4374, -37.7746, -24.0629
1.7, -1, 13.0174, 20.1811, 21.433, 30.514, -37.6848, -24.1203
1.704, -1, 13.0655, 20.1384, 21.449, 30.5906, -37.5951, -24.1776
1.708, -1, 13.1136, 20.0958, 21.4651, 30.6671, -37.5056, -24.2348
1.712, -1, 13.1615, 20.0532, 21.4811, 30.7435, -37.4162, -24.292
1.716, -1, 13.2094, 20.0106, 21.4971, 30.8197, -37.3269, -24.3491
1.72, -1, 13.2573, 19.9681, 21.5131, 30.8959, -37.2376, -24.4061
1.724, -1, 13.3051, 19.9257, 21.529, 30.972, -37.1485, -24.4631
1.728, -1, 13.3528, 19.8833, 21.545, 31.0481, -37.0595, -24.52
1.732, -1, 13.4005, 19.841, 21.5609, 31.124, -36.9706, -24.5768
1.736, -1, 13.4482, 19.7987, 21.5768, 31.1998, -36.8818, -24.6336
1.74, -1, 13.4957, 19.7565, 21.5927, 31.2756, -36.7931, -24.6903
1.744, -1, 13.5433, 19.7143, 21.6086, 31.3512, -36.7045, -24.7469
1.748, -1, 13.5907, 19.6721, 21.6244, 31.4268, -36.6161, -24.8035
1.752, -1, 13.6381, 19.63, 21.6402, 31.5023, -36.5277, -24.86
1.756, -1, 13.6855, 19.588, 21.6561, 31.5776, -36.4394, -24.9164
1.76, -1, 13.7328, 19.546, 21.6719, 31.6529, -36.3512, -24.9728
1.764, -1, 13.78, 19.5041, 21.6876, 31.7282, -36.2632, -25.0291
1.768, -1, 13.8272, 19.4622, 21.7034, 31.8033, -36.1752, -25.0853
1.772, -1, 13.8743, 19.4203, 21.7191, 31.8783, -36.0873, -25.1415
1.776, -1, 13.9214, 19.3785, 21.7348, 31.9533, -35.9996, -25.1976
1.78, -1, 13.9684, 19.3368, 21.7505, 32.0281, -35.9119, -25.2536
1.784, -1, 14.0154, 19.2951, 21.7662, 32.1029, -35.8243, -25.3096
1.788, -1, 14.0623, 19.2534, 21.7819, 32.1776, -35.7369, -25.3655
1.792, -1, 14.1092, 19.2118, 21.7975, 32.2522, -35.6495, -25.4214
1.796, -1, 14.156, 19.1703, 21.8132, 32.3268, -35.5622, -25.4772
1.8, -1, 14.2027, 19.1288, 21.8288, 32.4012, -35.4751, -25.5329
1.804, -1, 14.2494, 19.0873, 21.8444, 32.4756, -35.388, -25.5886
1.808, -1, 14.2961, 19.0459, 21.86, 32.5498, -35.301, -25.6442
1.812, -1, 14.3427, 19.0045, 21.8755, 32.624, -35.2142, -25.6997
1.816, -1, 14.3892, 18.9632, 21.8911, 32.6981, -35.1274, -25.7552
1.82, -1, 14.4357, 18.9219, 21.9066, 32.7722, -35.0407, -25.8106
1.824, -1, 14.4822, 18.8807, 21.9221, 32.8461, -34.9541, -25.8659
1.828, -1, 14.5286, 18.8395, 21.9376, 32.92, -34.8676, -25.9212
1.832, -1, 14.5749, 18.7983, 21.9531, 32.9938, -34.7813, -25.9764
1.836, -1, 14.6212, 18.7572, 21.9685, 33.0675, -34.695, -26.0316
1.84, -1, 14.6674, 18.7162, 21.984, 33.1411, -34.6088, -26.0867
1.844, -1, 14.7136, 18.6752, 21.9994, 33.2146, -34.5227, -26.1418
1.848, -1, 14.7598, 18.6342, 22.0148, 33.2881, -34.4367, -26.1967
1.852, -1, 14.8058, 18.5933, 22.0302, 33.3614, -34.3507, -26.2517
1.856, -1, 14.8519, 18.5524, 22.0456, 33.4347, -34.2649, -26.3065
1.86, -1, 14.8979, 18.5116, 22.0609, 33.5079, -34.1792, -26.3613
1.864, -1, 14.9438, 18.4708, 22.0762, 33.5811, -34.0936, -26.4161
1.868, -1, 14.9897, 18.4301, 22.0916, 33.6541, -34.008, -26.4708
1.872, -1, 15.0355, 18.3894, 22.1069, 33.7271, -33.9226, -26.5254
1.876, -1, 15.0813, 18.3487, 22.1222, 33.8, -33.8372, -26.58
1.88, -1, 15.127, 18.3081, 22.1374, 33.8728, -33.7519, -26.6345
1.884, -1, 15.1727, 18.2676, 22.1527, 33.9456, -33.6668, -26.6889
1.888, -1, 15.2184, 18.227, 22.1679, 34.0182, -33.5817, -26.7433
1.892, -1, 15.264, 18.1866, 22.1832, 34.0908, -33.4967, -26.7976
1.896, -1, 15.3095, 18.1461, 22.1984, 34.1633, -33.4118, -26.8519
1.9, -1, 15.355, 18.1057, 22.2136, 34.2358, -33.3269, -26.9062
1.904, -1, 15.4004, 18.0654, 22.2287, 34.3081, -33.2422, -26.9603
1.908, -1, 15.4458, 18.0251, 22.2439, 34.3804, -33.1576, -27.0144
1.912, -1, 15.4912, 17.9848, 22.259, 34.4526, -33.073, -27.0685
1.916, -1, 15.5365, 17.9446, 22.2742, 34.5248, -32.9886, -27.1225
1.92, -1, 15.5818, 17.9044, 22.2893, 34.5968, -32.9042, -27.1764
1.924, -1, 15.627, 17.8643, 22.3044, 34.6688, -32.8199, -27.2303
1.928, -1, 15.6721, 17.8242, 22.3195, 34.7407, -32.7357, -27.2841
1.932, -1, 15.7173, 17.7841, 22.3345, 34.8126, -32.6516, -27.3379
1.936, -1, 15.7623, 17.7441, 22.3496, 34.8843, -32.5676, -27.3916
1.94, -1, 15.8073, 17.7041, 22.3646, 34.956, -32.4836, -27.4453
1.944, -1, 15.8523, 17.6642, 22.3796, 35.0276, -32.3997, -27.4989
1.948, -1, 15.8973, 17.6243, 22.3946, 35.0992, -32.316, -27.5524
1.952, -1, 15.9422, 17.5844, 22.4096, 35.1707, -32.2323, -27.6059
1.956, -1, 15.987, 17.5446, 22.4246, 35.2421, -32.1487, -27.6594
1.96, -1, 16.0318, 17.5048, 22.4396, 35.3134, -32.0652, -27.7128
1.964, -1, 16.0765, 17.4651, 22.4545, 35.3846, -31.9817, -27.7661
1.968, -1, 16.1212, 17.4254, 22.4694, 35.4558, -31.8984, -27.8194
1.972, -1, 16.1659, 17.3858, 22.4844, 35.5269, -31.8151, -27.8726
1.976, -1, 16.2105, 17.3461, 22.4993, 35.598, -31.7319, -27.9258
1.98, -1, 16.2551, 17.3066, 22.5141, 35.6689, -31.6488, -27.9789
1.984, -1, 16.2996, 17.267, 22.529, 35.7398, -31.5658, -28.032
1.988, -1, 16.3441, 17.2275, 22.5439, 35.8107, -31.4829, -28.085
1.992, -1, 16.3886, 17.1881, 22.5587, 35.8814, -31.4, -28.138
1.996, -1, 16.433, 17.1487, 22.5735, 35.9521, -31.3173, -28.1909
1.999, -1, 16.4773, 17.1093, 22.5883, 36.0228, -31.2346, -28.2438
2.004, -1, 16.5216, 17.0699, 22.6031, 36.0933, -31.1519, -28.2966
2.008, -1, 16.5659, 17.0306, 22.6179, 36.1638, -31.0694, -28.3493
2.012, -1, 16.6101, 16.9914, 22.6327, 36.2342, -30.987, -28.4021
2.015, -1, 16.6543, 16.9521, 22.6474, 36.3046, -30.9046, -28.4547
2.019, -1, 16.6984, 16.9129, 22.6622, 36.3748, -30.8223, -28.5073
2.024, -1, 16.7425, 16.8738, 22.6769, 36.445, -30.7401, -28.5599
2.028, -1, 16.7866, 16.8347, 22.6916, 36.5152, -30.658, -28.6124
2.031, -1, 16.8306, 16.7956, 22.7063, 36.5853, -30.5759, -28.6648
2.036, -1, 16.8746, 16.7566, 22.721, 36.6553, -30.4939, -28.7172
2.04, -1, 16.9185, 16.7176, 22.7357, 36.7252, -30.412, -28.7696
2.044, -1, 16.9624, 16.6786, 22.7503, 36.7951, -30.3302, -28.8219
2.048, -1, 17.0062, 16.6397, 22.765, 36.8649, -30.2485, -28.8742
2.051, -1, 17.05, 16.6008, 22.7796, 36.9346, -30.1668, -28.9264
2.055, -1, 17.0938, 16.5619, 22.7942, 37.0043, -30.0852, -28.9785
2.06, -1, 17.1375, 16.5231, 22.8088, 37.0739, -30.0037, -29.0306
2.064, -1, 17.1811, 16.4844, 22.8234, 37.1435, -29.9223, -29.0827
2.068, -1, 17.2244, 16.4458, 22.8379, 37.2129, -29.841, -29.1347
2.071, -1, 17.2671, 16.4077, 22.8523, 37.2823, -29.7597, -29.1866
2.076, -1, 17.3088, 16.3701, 22.8666, 37.3515, -29.6787, -29.2384
2.08, -1, 17.3495, 16.3335, 22.8807, 37.4204, -29.5981, -29.29
2.084, -1, 17.3888, 16.2979, 22.8945, 37.4888, -29.518, -29.3412
2.087, -1, 17.4267, 16.2635, 22.9079, 37.5564, -29.4389, -29.3918
2.092, -1, 17.4632, 16.2306, 22.921, 37.6229, -29.3611, -29.4417
2.096, -1, 17.4983, 16.1992, 22.9337, 37.6879, -29.2851, -29.4903
2.1, -1, 17.5321, 16.1694, 22.9459, 37.7508, -29.2115, -29.5374
2.104, -1, 17.5644, 16.1411, 22.9576, 37.8112, -29.1408, -29.5827
2.107, -1, 17.5951, 16.1145, 22.9686, 37.8686, -29.0737, -29.6257
2.111, -1, 17.624, 16.0896, 22.9791, 37.9226, -29.0106, -29.6661
2.116, -1, 17.6513, 16.0662, 22.9888, 37.9726, -28.9521, -29.7035
2.12, -1, 17.6768, 16.044, 22.9978, 38.0183, -28.8986, -29.7378
2.124, -1, 17.7009, 16.023, 23.0061, 38.0595, -28.8504, -29.7686
2.127, -1, 17.7234, 16.0029, 23.0137, 38.0959, -28.8078, -29.7958
2.132, -1, 17.7446, 15.9838, 23.0205, 38.1275, -28.7707, -29.8195
2.136, -1, 17.7642, 15.9657, 23.0267, 38.1546, -28.739, -29.8397
2.14, -1, 17.7823, 15.9489, 23.0321, 38.1772, -28.7125, -29.8566
2.143, -1, 17.7986, 15.9337, 23.0368, 38.1957, -28.6907, -29.8705
2.148, -1, 17.8131, 15.9202, 23.0409, 38.2106, -28.6732, -29.8816
2.152, -1, 17.8259, 15.9085, 23.0443, 38.2223, -28.6594, -29.8904
2.156, -1, 17.8371, 15.8987, 23.0471, 38.2313, -28.6488, -29.8971
2.16, -1, 17.8467, 15.8905, 23.0494, 38.2381, -28.6409, -29.9021
2.163, -1, 17.855, 15.8838, 23.0513, 38.243, -28.635, -29.9058
2.168, -1, 17.8619, 15.8785, 23.0527, 38.2465, -28.6308, -29.9084
2.172, -1, 17.8674, 15.8744, 23.0538, 38.249, -28.6279, -29.9103
2.176, 2, 17.8716, 15.8714, 23.0546, 38.2507, -28.6258, -29.9115
2.179, 2, 17.8747, 15.8692, 23.0552, 38.2519, -28.6245, -29.9124
2.184, 2, 17.8769, 15.8677, 23.0556, 38.2527, -28.6235, -29.913
2.188, 2, 17.8784, 15.8667, 23.0558, 38.2532, -28.6229, -29.9134
2.192, 2, 17.8794, 15.866, 23.056, 38.2536, -28.6224, -29.9137
2.196, 2, 17.8801, 15.8655, 23.0561, 38.2538, -28.6221, -29.9138
2.199, 2, 17.8806, 15.8652, 23.0562, 38.254, -28.6219, -29.914
2.204, 2, 17.8809, 15.865, 23.0563, 38.2541, -28.6218, -29.9141
2.208, 2, 17.8811, 15.8649, 23.0563, 38.2542, -28.6217, -29.9141
2.212, 2, 17.8813, 15.8648, 23.0563, 38.2543, -28.6217, -29.9141
2.216, 2, 17.8814, 15.8647, 23.0564, 38.2543, -28.6216, -29.9142
2.219, 2, 17.8814, 15.8646, 23.0564, 38.2543, -28.6216, -29.9142
2.224, 2, 17.8815, 15.8646, 23.0564, 38.2543, -28.6216, -29.9142
2.228, 2, 17.8815, 15.8646, 23.0564, 38.2543, -28.6215, -29.9142
2.232, 2, 17.8815, 15.8646, 23.0564, 38.2543, -28.6215, -29.9142
2.235, 2, 17.8815, 15.8646, 23.0564, 38.2544, -28.6215, -29.9142
2.24, 2, 17.8815, 15.8646, 23.0564, 38.2544, -28.6215, -29.9142
2.244, 2, 17.8816, 15.8646, 23.0564, 38.2544, -28.6215, -29.9142
2.248, 2, 17.8816, 15.8646, 23.0564, 38.2544, -28.6215, -29.9142
2.252, 2, 17.8816, 15.8646, 23.0564, 38.2544, -28.6215, -29.9142
2.255, 2, 17.8816, 15.8646, 23.0564, 38.2544, -28.6215, -29.9142
2.259, 2, 17.8816, 15.8646, 23.0564, 38.2544, -28.6215, -29.9142
2.264, 2, 17.8816, 15.8645, 23.0564, 38.2544, -28.6215, -29.9142
2.268, 2, 17.8816, 15.8645, 23.0564, 38.2544, -28.6215, -29.9142
2.272, 2, 17.8816, 15.8645, 23.0564, 38.2544, -28.6215, -29.9142
2.275, 2, 17.8816, 15.8645, 23.0564, 38.2544, -28.6215, -29.9142
2.28, 2, 17.8816, 15.8645, 23.0564, 38.2544, -28.6215, -29.9142
2.284, 2, 17.8816, 15.8645, 23.0564, 38.2544, -28.6215, -29.9142
2.288, 2, 17.8816, 15.8645, 23.0564, 38.2544, -28.6215, -29.9142
2.291, 2, 17.8816, 15.8645, 23.0564, 38.2544, -28.6215, -29.9142
2.296, 2, 17.8816, 15.8645, 23.0564, 38.2544, -28.6215, -29.9142
2.3, 2, 17.8816, 15.8645, 23.0564, 38.2544, -28.6215, -29.9142
2.304, 2, 17.8816, 15.8645, 23.0564, 38.2544, -28.6215, -29.9142
2.308, 2, 17.8816, 15.8645, 23.0564, 38.2544, -28.6215, -29.9142
2.311, 2, 17.8816, 15.8645, 23.0564, 38.2544, -28.6215, -29.9142
2.316, 2, 17.8816, 15.8645, 23.0564, 38.2544, -28.6215, -29.9142
2.32, 2, 17.8816, 15.8645, 23.0564, 38.2544, -28.6215, -29.9142
2.324, 2, 17.8816, 15.8645, 23.0564, 38.2544, -28.6215, -29.9142
2.328, 2, 17.8816, 15.8645, 23.0564, 38.2544, -28.6215, -29.9142
2.331, 2, 17.8816, 15.8645, 23.0564, 38.2544, -28.6215, -29.9142
2.336, 2, 17.8816, 15.8645, 23.0564, 38.2544, -28.6215, -29.9142
2.34, 2, 17.8816, 15.8645, 23.0564, 38.2544, -28.6215, -29.9142
2.344, 2, 17.8816, 15.8645, 23.0564, 38.2544, -28.6215, -29.9142
2.347, 2, 17.8816, 15.8645, 23.0564, 38.2544, -28.6215, -29.9142
2.352, 2, 17.8816, 15.8645, 23.0564, 38.2544, -28.6215, -29.9142
2.356, 2, 17.8816, 15.8645, 23.0564, 38.2544, -28.6215, -29.9142
2.36, 2, 17.8816, 15.8645, 23.0564, 38.2544, -28.6215, -29.9142
2.364, 2, 17.8816, 15.8645, 23.0564, 38.2544, -28.6215, -29.9142
2.367, 2, 17.8816, 15.8645, 23.0564, 38.2544, -28.6215, -29.9142
2.372, 2, 17.8816, 15.8645, 23.0564, 38.2544, -28.6215, -29.9142
2.376, 2, 17.8816, 15.8645, 23.0564, 38.2544, -28.6215, -29.9142
2.38, 2, 17.8816, 15.8645, 23.0564, 38.2544, -28.6215, -29.9142
2.383, 2, 17.8816, 15.8645, 23.0564, 38.2544, -28.6215, -29.9142
2.388, 2, 17.8816, 15.8645, 23.0564, 38.2544, -28.6215, -29.9142
2.392, 2, 17.8816, 15.8645, 23.0564, 38.2544, -28.6215, -29.9142
2.396, 2, 17.8816, 15.8645, 23.0564, 38.2544, -28.6215, -29.9142
2.4, 2, 17.8816, 15.8645, 23.0564, 38.2544, -28.6215, -29.9142
2.403, 2, 17.8816, 15.8645, 23.0564, 38.2544, -28.6215, -29.9142
2.408, 2, 17.8816, 15.8645, 23.0564, 38.2544, -28.6215, -29.9142
2.412, 2, 17.8816, 15.8645, 23.0564, 38.2544, -28.6215, -29.9142
2.416, 2, 17.8816, 15.8645, 23.0564, 38.2544, -28.6215, -29.9142
2.42, 2, 17.8816, 15.8645, 23.0564, 38.2544, -28.6215, -29.9142
2.423, 2, 17.8816, 15.8645, 23.0564, 38.2544, -28.6215, -29.9142
2.428, 2, 17.8816, 15.8645, 23.0564, 38.2544, -28.6215, -29.9142
2.432, 2, 17.8816, 15.8645, 23.0564, 38.2544, -28.6215, -29.9142
2.436, 2, 17.8816, 15.8645, 23.0564, 38.2544, -28.6215, -29.9142
2.439, 2, 17.8816, 15.8645, 23.0564, 38.2544, -28.6215, -29.9142
2.444, 2, 17.8816, 15.8645, 23.0564, 38.2544, -28.6215, -29.9142
2.448, 2, 17.8816, 15.8645, 23.0564, 38.2544, -28.6215, -29.9142
2.452, 2, 17.8816, 15.8645, 23.0564, 38.2544, -28.6215, -29.9142
2.456, 2, 17.8816, 15.8645, 23.0564, 38.2544, -28.6215, -29.9142
2.459, 2, 17.8816, 15.8645, 23.0564, 38.2544, -28.6215, -29.9142
2.464, 2, 17.8816, 15.8645, 23.0564, 38.2544, -28.6215, -29.9142
2.468, 2, 17.8816, 15.8645, 23.0564, 38.2544, -28.6215, -29.9142
2.472, 2, 17.8816, 15.8645, 23.0564, 38.2544, -28.6215, -29.9142
2.476, 2, 17.8816, 15.8645, 23.0564, 38.2544, -28.6215, -29.9142
2.479, 2, 17.8816, 15.8645, 23.0564, 38.2544, -28.6215, -29.9142
2.484, 2, 17.8816, 15.8645, 23.0564, 38.2544, -28.6215, -29.9142
2.488, 2, 17.8816, 15.8645, 23.0564, 38.2544, -28.6215, -29.9142
2.492, 2, 17.8816, 15.8645, 23.0564, 38.2544, -28.6215, -29.9142
2.495, 2, 17.8816, 15.8645, 23.0564, 38.2544, -28.6215, -29.9142
2.5, 2, 17.8816, 15.8645, 23.0564, 38.2544, -28.6215, -29.9142
2.504, 2, 17.8816, 15.8645, 23.0564, 38.2544, -28.6215, -29.9142
2.508, 2, 17.8816, 15.8645, 23.0564, 38.2544, -28.6215, -29.9142
2.512, 2, 17.8816, 15.8645, 23.0564, 38.2544, -28.6215, -29.9142
2.515, 2, 17.8816, 15.8645, 23.0564, 38.2544, -28.6215, -29.9142
2.52, 2, 17.8816, 15.8645, 23.0564, 38.2544, -28.6215, -29.9142
2.524, 2, 17.8816, 15.8645, 23.0564, 38.2544, -28.6215, -29.9142
2.528, 2, 17.8816, 15.8645, 23.0564, 38.2544, -28.6215, -29.9142
2.531, 2, 17.8816, 15.8645, 23.0564, 38.2544, -28.6215, -29.9142
2.536, 2, 17.8816, 15.8645, 23.0564, 38.2544, -28.6215, -29.9142
2.54, 2, 17.8816, 15.8645, 23.0564, 38.2544, -28.6215, -29.9142
2.544, 2, 17.8816, 15.8645, 23.0564, 38.2544, -28.6215, -29.9142
2.548, 2, 17.8816, 15.8645, 23.0564, 38.2544, -28.6215, -29.9142
2.551, 2, 17.8816, 15.8645, 23.0564, 38.2544, -28.6215, -29.9142
2.556, 2, 17.8816, 15.8645, 23.0564, 38.2544, -28.6215, -29.9142
2.56, 2, 17.8816, 15.8645, 23.0564, 38.2544, -28.6215, -29.9142
2.564, 2, 17.8816, 15.8645, 23.0564, 38.2544, -28.6215, -29.9142
2.568, 2, 17.8816, 15.8645, 23.0564, 38.2544, -28.6215, -29.9142
2.571, 2, 17.8816, 15.8645, 23.0564, 38.2544, -28.6215, -29.9142
2.576, 2, 17.8816, 15.8645, 23.0564, 38.2544, -28.6215, -29.9142
2.58, 2, 17.8816, 15.8645, 23.0564, 38.2544, -28.6215, -29.9142
2.584, 2, 17.8816, 15.8645, 23.0564, 38.2544, -28.6215, -29.9142
2.587, 2, 17.8816, 15.8645, 23.0564, 38.2544, -28.6215, -29.9142
2.592, 2, 17.8816, 15.8645, 23.0564, 38.2544, -28.6215, -29.9142
2.596, 2, 17.8816, 15.8645, 23.0564, 38.2544, -28.6215, -29.9142
2.6, 2, 17.8816, 15.8645, 23.0564, 38.2544, -28.6215, -29.9142
2.604, 2, 17.8816, 15.8645, 23.0564, 38.2544, -28.6215, -29.9142
2.607, 2, 17.8816, 15.8645, 23.0564, 38.2544, -28.6215, -29.9142
2.612, 2, 17.8816, 15.8645, 23.0564, 38.2544, -28.6215, -29.9142
2.616, 2, 17.8816, 15.8645, 23.0564, 38.2544, -28.6215, -29.9142
2.62, 2, 17.8816, 15.8645, 23.0564, 38.2544, -28.6215, -29.9142
2.624, 2, 17.8816, 15.8645, 23.0564, 38.2544, -28.6215, -29.9142
2.627, 2, 17.8816, 15.8645, 23.0564, 38.2544, -28.6215, -29.9142
2.632, 2, 17.8816, 15.8645, 23.0564, 38.2544, -28.6215, -29.9142
2.636, 2, 17.8816, 15.8645, 23.0564, 38.2544, -28.6215, -29.9142
2.64, 2, 17.8816, 15.8645, 23.0564, 38.2544, -28.6215, -29.9142
2.643, 2, 17.8816, 15.8645, 23.0564, 38.2544, -28.6215, -29.9142
2.648, 2, 17.8816, 15.8645, 23.0564, 38.2544, -28.6215, -29.9142
2.652, 2, 17.8816, 15.8645, 23.0564, 38.2544, -28.6215, -29.9142
2.656, 2, 17.8816, 15.8645, 23.0564, 38.2544, -28.6215, -29.9142
2.66, 2, 17.8816, 15.8645, 23.0564, 38.2544, -28.6215, -29.9142
2.663, 2, 17.8816, 15.8645, 23.0564, 38.2544, -28.6215, -29.9142
2.668, 2, 17.8816, 15.8645, 23.0564, 38.2544, -28.6215, -29.9142
2.672, 2, 17.8816, 15.8645, 23.0564, 38.2544, -28.6215, -29.9142
2.676, 2, 17.8816, 15.8645, 23.0564, 38.2544, -28.6215, -29.9142
2.679, 2, 17.8816, 15.8645, 23.0564, 38.2544, -28.6215, -29.9142
2.684, 2, 17.8816, 15.8645, 23.0564, 38.2544, -28.6215, -29.9142
2.688, 2, 17.8816, 15.8645, 23.0564, 38.2544, -28.6215, -29.9142
2.692, 2, 17.8816, 15.8645, 23.0564, 38.2544, -28.6215, -29.9142
2.696, 2, 17.8816, 15.8645, 23.0564, 38.2544, -28.6215, -29.9142
2.699, 2, 17.8816, 15.8645, 23.0564, 38.2544, -28.6215, -29.9142
2.704, 2, 17.8816, 15.8645, 23.0564, 38.2544, -28.6215, -29.9142
2.708, 2, 17.8816, 15.8645, 23.0564, 38.2544, -28.6215, -29.9142
2.712, 2, 17.8816, 15.8645, 23.0564, 38.2544, -28.6215, -29.9142
2.716, 2, 17.8816, 15.8645, 23.0564, 38.2544, -28.6215, -29.9142
2.719, 2, 17.8816, 15.8645, 23.0564, 38.2544, -28.6215, -29.9142
2.724, 2, 17.8816, 15.8645, 23.0564, 38.2544, -28.6215, -29.9142
2.728, 2, 17.8816, 15.8645, 23.0564, 38.2544, -28.6215, -29.9142
2.732, 2, 17.8816, 15.8645, 23.0564, 38.2544, -28.6215, -29.9142
2.735, 2, 17.8816, 15.8645, 23.0564, 38.2544, -28.6215, -29.9142
2.74, 2, 17.8816, 15.8645, 23.0564, 38.2544, -28.6215, -29.9142
2.744, 2, 17.8816, 15.8645, 23.0564, 38.2544, -28.6215, -29.9142
2.748, 2, 17.8816, 15.8645, 23.0564, 38.2544, -28.6215, -29.9142
2.752, 2, 17.8816, 15.8645, 23.0564, 38.2544, -28.6215, -29.9142
2.755, 2, 17.8816, 15.8645, 23.0564, 38.2544, -28.6215, -29.9142
2.76, 2, 17.8816, 15.8645, 23.0564, 38.2544, -28.6215, -29.9142
2.764, 2, 17.8816, 15.8645, 23.0564, 38.2544, -28.6215, -29.9142
2.768, 2, 17.8816, 15.8645, 23.0564, 38.2544, -28.6215, -29.9142
2.772, 2, 17.8816, 15.8645, 23.0564, 38.2544, -28.6215, -29.9142
2.775, 2, 17.8816, 15.8645, 23.0564, 38.2544, -28.6215, -29.9142
2.78, 2, 17.8816, 15.8645, 23.0564, 38.2544, -28.6215, -29.9142
2.784, 2, 17.8816, 15.8645, 23.0564, 38.2544, -28.6215, -29.9142
2.788, 2, 17.8816, 15.8645, 23.0564, 38.2544, -28.6215, -29.9142
2.791, 2, 17.8816, 15.8645, 23.0564, 38.2544, -28.6215, -29.9142
2.796, 2, 17.8816, 15.8645, 23.0564, 38.2544, -28.6215, -29.9142
2.8, 2, 17.8816, 15.8645, 23.0564, 38.2544, -28.6215, -29.9142
2.804, 2, 17.8816, 15.8645, 23.0564, 38.2544, -28.6215, -29.9142
2.808, 2, 17.8816, 15.8645, 23.0564, 38.2544, -28.6215, -29.9142
2.811, 2, 17.8816, 15.8645, 23.0564, 38.2544, -28.6215, -29.9142
2.816, 2, 17.8816, 15.8645, 23.0564, 38.2544, -28.6215, -29.9142
2.82, 2, 17.8816, 15.8645, 23.0564, 38.2544, -28.6215, -29.9142
2.824, 2, 17.8816, 15.8645, 23.0564, 38.2544, -28.6215, -29.9142
2.828, 2, 17.8816, 15.8645, 23.0564, 38.2544, -28.6215, -29.9142
2.831, 2, 17.8816, 15.8645, 23.0564, 38.2544, -28.6215, -29.9142
2.836, 2, 17.8816, 15.8645, 23.0564, 38.2544, -28.6215, -29.9142
2.84, 2, 17.8816, 15.8645, 23.0564, 38.2544, -28.6215, -29.9142
2.844, 2, 17.8816, 15.8645, 23.0564, 38.2544, -28.6215, -29.9142
2.847, 2, 17.8816, 15.8645, 23.0564, 38.2544, -28.6215, -29.9142
2.852, 2, 17.8816, 15.8645, 23.0564, 38.2544, -28.6215, -29.9142
2.856, 2, 17.8816, 15.8645, 23.0564, 38.2544, -28.6215, -29.9142
2.86, 2, 17.8816, 15.8645, 23.0564, 38.2544, -28.6215, -29.9142
2.864, 2, 17.8816, 15.8645, 23.0564, 38.2544, -28.6215, -29.9142
2.867, 2, 17.8816, 15.8645, 23.0564, 38.2544, -28.6215, -29.9142
2.872, 2, 17.8816, 15.8645, 23.0564, 38.2544, -28.6215, -29.9142
2.876, 2, 17.8816, 15.8645, 23.0564, 38.2544, -28.6215, -29.9142
2.88, 2, 17.8816, 15.8645, 23.0564, 38.2544, -28.6215, -29.9142
2.883, 2, 17.8816, 15.8645, 23.0564, 38.2544, -28.6215, -29.9142
2.888, 2, 17.8816, 15.8645, 23.0564, 38.2544, -28.6215, -29.9142
2.892, 2, 17.8816, 15.8645, 23.0564, 38.2544, -28.6215, -29.9142
2.896, 2, 17.8816, 15.8645, 23.0564, 38.2544, -28.6215, -29.9142
2.9, 2, 17.8816, 15.8645, 23.0564, 38.2544, -28.6215, -29.9142
2.903, 2, 17.8816, 15.8645, 23.0564, 38.2544, -28.6215, -29.9142
2.908, 2, 17.8816, 15.8645, 23.0564, 38.2544, -28.6215, -29.9142
2.912, 2, 17.8816, 15.8645, 23.0564, 38.2544, -28.6215, -29.9142
2.916, 2, 17.8816, 15.8645, 23.0564, 38.2544, -28.6215, -29.9142
2.92, 2, 17.8816, 15.8645, 23.0564, 38.2544, -28.6215, -29.9142
2.923, 2, 17.8816, 15.8645, 23.0564, 38.2544, -28.6215, -29.9142
2.928, 2, 17.8816, 15.8645, 23.0564, 38.2544, -28.6215, -29.9142
2.932, 2, 17.8816, 15.8645, 23.0564, 38.2544, -28.6215, -29.9142
2.936, 2, 17.8816, 15.8645, 23.0564, 38.2544, -28.6215, -29.9142
2.939, 2, 17.8816, 15.8645, 23.0564, 38.2544, -28.6215, -29.9142
2.944, 2, 17.8816, 15.8645, 23.0564, 38.2544, -28.6215, -29.9142
2.948, 2, 17.8816, 15.8645, 23.0564, 38.2544, -28.6215, -29.9142
2.952, 2, 17.8816, 15.8645, 23.0564, 38.2544, -28.6215, -29.9142
2.956, 2, 17.8816, 15.8645, 23.0564, 38.2544, -28.6215, -29.9142
2.959, 2, 17.8816, 15.8645, 23.0564, 38.2544, -28.6215, -29.9142
2.964, 2, 17.8816, 15.8645, 23.0564, 38.2544, -28.6215, -29.9142
2.968, 2, 17.8816, 15.8645, 23.0564, 38.2544, -28.6215, -29.9142
2.972, 2, 17.8816, 15.8645, 23.0564, 38.2544, -28.6215, -29.9142
2.976, 2, 17.8816, 15.8645, 23.0564, 38.2544, -28.6215, -29.9142
2.98, 2, 17.8816, 15.8645, 23.0564, 38.2544, -28.6215, -29.9142
2.984, 2, 17.8816, 15.8645, 23.0564, 38.2544, -28.6215, -29.9142
2.988, 2, 17.8816, 15.8645, 23.0564, 38.2544, -28.6215, -29.9142
2.992, 2, 17.8816, 15.8645, 23.0564, 38.2544, -28.6215, -29.9142
2.995, 2, 17.8816, 15.8645, 23.0564, 38.2544, -28.6215, -29.9142
3, 2, 17.8816, 15.8645, 23.0564, 38.2544, -28.6215, -29.9142
3.004, 2, 17.8816, 15.8645, 23.0564, 38.2544, -28.6215, -29.9142
3.008, 2, 17.8816, 15.8645, 23.0564, 38.2544, -28.6215, -29.9142
3.012, 2, 17.8816, 15.8645, 23.0564, 38.2544, -28.6215, -29.9142
3.015, 2, 17.8816, 15.8645, 23.0564, 38.2544, -28.6215, -29.9142
3.02, 2, 17.8816, 15.8645, 23.0564, 38.2544, -28.6215, -29.9142
3.024, 2, 17.8816, 15.8645, 23.0564, 38.2544, -28.6215, -29.9142
3.028, 2, 17.8816, 15.8645, 23.0564, 38.2544, -28.6215, -29.9142
3.031, 2, 17.8816, 15.8645, 23.0564, 38.2544, -28.6215, -29.9142
3.036, 2, 17.8816, 15.8645, 23.0564, 38.2544, -28.6215, -29.9142
3.04, 2, 17.8816, 15.8645, 23.0564, 38.2544, -28.6215, -29.9142
3.044, 2, 17.8816, 15.8645, 23.0564, 38.2544, -28.6215, -29.9142
3.048, 2, 17.8816, 15.8645, 23.0564, 38.2544, -28.6215, -29.9142
3.051, 2, 17.8816, 15.8645, 23.0564, 38.2544, -28.6215, -29.9142
3.056, 2, 17.8816, 15.8645, 23.0564, 38.2544, -28.6215, -29.9142
3.06, 2, 17.8816, 15.8645, 23.0564, 38.2544, -28.6215, -29.9142
3.064, 2, 17.8816, 15.8645, 23.0564, 38.2544, -28.6215, -29.9142
3.068, 2, 17.8816, 15.8645, 23.0564, 38.2544, -28.6215, -29.9142
3.071, 2, 17.8816, 15.8645, 23.0564, 38.2544, -28.6215, -29.9142
3.076, 2, 17.8816, 15.8645, 23.0564, 38.2544, -28.6215, -29.9142
3.08, 2, 17.8816, 15.8645, 23.0564, 38.2544, -28.6215, -29.9142
3.084, 2, 17.8816, 15.8645, 23.0564, 38.2544, -28.6215, -29.9142
3.087, 2, 17.8816, 15.8645, 23.0564, 38.2544, -28.6215, -29.9142
3.092, 2, 17.8816, 15.8645, 23.0564, 38.2544, -28.6215, -29.9142
3.096, 2, 17.8816, 15.8645, 23.0564, 38.2544, -28.6215, -29.9142
3.1, 2, 17.8816, 15.8645, 23.0564, 38.2544, -28.6215, -29.9142
3.104, 2, 17.8816, 15.8645, 23.0564, 38.2544, -28.6215, -29.9142
3.107, 2, 17.8816, 15.8645, 23.0564, 38.2544, -28.6215, -29.9142
3.112, 2, 17.8816, 15.8645, 23.0564, 38.2544, -28.6215, -29.9142
3.116, 2, 17.8816, 15.8645, 23.0564, 38.2544, -28.6215, -29.9142
3.12, 2, 17.8816, 15.8645, 23.0564, 38.2544, -28.6215, -29.9142
3.124, 2, 17.8816, 15.8645, 23.0564, 38.2544, -28.6215, -29.9142
3.128, 2, 17.8816, 15.8645, 23.0564, 38.2544, -28.6215, -29.9142
3.132, 2, 17.8816, 15.8645, 23.0564, 38.2544, -28.6215, -29.9142
3.136, 2, 17.8816, 15.8645, 23.0564, 38.2544, -28.6215, -29.9142
3.14, 2, 17.8816, 15.8645, 23.0564, 38.2544, -28.6215, -29.9142
3.143, 2, 17.8816, 15.8645, 23.0564, 38.2544, -28.6215, -29.9142
3.148, 2, 17.8816, 15.8645, 23.0564, 38.2544, -28.6215, -29.9142
3.152, 2, 17.8816, 15.8645, 23.0564, 38.2544, -28.6215, -29.9142
3.156, 2, 17.8816, 15.8645, 23.0564, 38.2544, -28.6215, -29.9142
3.16, 2, 17.8816, 15.8645, 23.0564, 38.2544, -28.6215, -29.9142
3.163, 2, 17.8816, 15.8645, 23.0564, 38.2544, -28.6215, -29.9142
3.168, 2, 17.8816, 15.8645, 23.0564, 38.2544, -28.6215, -29.9142
3.172, 2, 17.8816, 15.8645, 23.0564, 38.2544, -28.6215, -29.9142
3.176, 2, 17.8816, 15.8645, 23.0564, 38.2544, -28.6215, -29.9142
3.179, 2, 17.8816, 15.8645, 23.0564, 38.2544, -28.6215, -29.9142
3.184, 2, 17.8816, 15.8645, 23.0564, 38.2544, -28.6215, -29.9142
3.188, 2, 17.8816, 15.8645, 23.0564, 38.2544, -28.6215, -29.9142
3.192, 2, 17.8816, 15.8645, 23.0564, 38.2544, -28.6215, -29.9142
3.196, 2, 17.8816, 15.8645, 23.0564, 38.2544, -28.6215, -29.9142
3.199, 2, 17.8816, 15.8645, 23.0564, 38.2544, -28.6215, -29.9142
3.204, 2, 17.8816, 15.8645, 23.0564, 38.2544, -28.6215, -29.9142
3.208, 2, 17.8816, 15.8645, 23.0564, 38.2544, -28.6215, -29.9142
3.212, 2, 17.8816, 15.8645, 23.0564, 38.2544, -28.6215, -29.9142
3.216, 2, 17.8816, 15.8645, 23.0564, 38.2544, -28.6215, -29.9142
3.22, 2, 17.8816, 15.8645, 23.0564, 38.2544, -28.6215, -29.9142
3.224, 2, 17.8816, 15.8645, 23.0564, 38.2544, -28.6215, -29.9142
3.228, 2, 17.8816, 15.8645, 23.0564, 38.2544, -28.6215, -29.9142
3.232, 2, 17.8816, 15.8645, 23.0564, 38.2544, -28.6215, -29.9142
3.235, 2, 17.8816, 15.8645, 23.0564, 38.2544, -28.6215, -29.9142
3.24, 2, 17.8816, 15.8645, 23.0564, 38.2544, -28.6215, -29.9142
3.244, 2, 17.8816, 15.8645, 23.0564, 38.2544, -28.6215, -29.9142
3.248, 4, 17.8816, 15.8645, 23.0564, 38.2544, -28.6215, -29.9142
3.252, 4, 17.8816, 15.8645, 23.0564, 38.2544, -28.6215, -29.9142
3.255, 4, 17.8816, 15.8645, 23.0564, 38.2544, -28.6215, -29.9142
3.26, 4, 17.8816, 15.8645, 23.0564, 38.2544, -28.6215, -29.9142
3.264, 4, 17.8816, 15.8645, 23.0564, 38.2544, -28.6215, -29.9142
3.268, 4, 17.8816, 15.8645, 23.0564, 38.2544, -28.6215, -29.9142
3.272, 4, 17.8816, 15.8645, 23.0564, 38.2544, -28.6215, -29.9142
3.276, 4, 17.8816, 15.8645, 23.0564, 38.2544, -28.6215, -29.9142
3.28, 4, 17.8816, 15.8645, 23.0564, 38.2544, -28.6215, -29.9142
3.284, 4, 17.8816, 15.8645, 23.0564, 38.2544, -28.6215, -29.9142
3.288, 4, 17.8816, 15.8645, 23.0564, 38.2544, -28.6215, -29.9142
3.291, 4, 17.8816, 15.8645, 23.0564, 38.2544, -28.6215, -29.9142
3.296, 4, 17.8816, 15.8645, 23.0564, 38.2544, -28.6215, -29.9142
3.3, 4, 17.8816, 15.8645, 23.0564, 38.2544, -28.6215, -29.9142
3.304, 4, 17.8816, 15.8645, 23.0564, 38.2544, -28.6215, -29.9142
3.308, 4, 17.8816, 15.8645, 23.0564, 38.2544, -28.6215, -29.9142
3.312, 4, 17.8816, 15.8645, 23.0564, 38.2544, -28.6215, -29.9142
3.316, 4, 17.8816, 15.8645, 23.0564, 38.2544, -28.6215, -29.9142
3.32, 4, 17.8816, 15.8645, 23.0564, 38.2544, -28.6215, -29.9142
3.324, 4, 17.8816, 15.8645, 23.0564, 38.2544, -28.6215, -29.9142
3.328, 4, 17.8816, 15.8645, 23.0564, 38.2544, -28.6215, -29.9142
3.332, 4, 17.8816, 15.8645, 23.0564, 38.2544, -28.6215, -29.9142
3.336, 4, 17.8816, 15.8645, 23.0564, 38.2544, -28.6215, -29.9142
3.34, 4, 17.8816, 15.8645, 23.0564, 38.2544, -28.6215, -29.9142
3.344, 4, 17.8816, 15.8645, 23.0564, 38.2544, -28.6215, -29.9142
3.347, 4, 17.8816, 15.8645, 23.0564, 38.2544, -28.6215, -29.9142
3.352, 4, 17.8816, 15.8645, 23.0564, 38.2544, -28.6215, -29.9142
3.356, 4, 17.8816, 15.8645, 23.0564, 38.2544, -28.6215, -29.9142
3.36, 4, 17.8816, 15.8645, 23.0564, 38.2544, -28.6215, -29.9142
3.364, 4, 17.8816, 15.8645, 23.0564, 38.2544, -28.6215, -29.9142
3.368, 4, 17.8816, 15.8645, 23.0564, 38.2544, -28.6215, -29.9142
3.372, 4, 17.8816, 15.8645, 23.0564, 38.2544, -28.6215, -29.9142
3.376, 4, 17.8816, 15.8645, 23.0564, 38.2544, -28.6215, -29.9142
3.38, 4, 17.8815, 15.8645, 23.0564, 38.2544, -28.6215, -29.9142
3.383, 4, 17.8812, 15.8645, 23.0564, 38.2543, -28.6215, -29.9142
3.388, 4, 17.8806, 15.8645, 23.0565, 38.2542, -28.6216, -29.9141
3.392, 4, 17.8793, 15.8645, 23.0566, 38.2539, -28.6217, -29.9139
3.396, 4, 17.8773, 15.8644, 23.0569, 38.2532, -28.6219, -29.9133
3.4, 4, 17.8745, 15.8643, 23.0576, 38.2517, -28.6225, -29.912
3.403, 4, 17.8707, 15.864, 23.0586, 38.2489, -28.6235, -29.9095
3.408, 4, 17.8659, 15.8636, 23.0603, 38.2441, -28.6252, -29.9053
3.412, 4, 17.8601, 15.863, 23.0629, 38.2365, -28.628, -29.8986
3.416, 4, 17.8533, 15.8621, 23.0667, 38.225, -28.6321, -29.8885
3.42, 5, 17.8454, 15.8608, 23.072, 38.2087, -28.6379, -29.874
3.424, 5, 17.8363, 15.8592, 23.0791, 38.1865, -28.6459, -29.8544
3.428, 5, 17.8257, 15.857, 23.0884, 38.1572, -28.6565, -29.8284
3.432, 5, 17.8136, 15.8542, 23.1001, 38.1198, -28.6699, -29.7953
3.436, 5, 17.8, 15.8508, 23.1146, 38.0734, -28.6867, -29.7542
3.439, 5, 17.7848, 15.8467, 23.132, 38.0171, -28.7071, -29.7044
3.444, 5, 17.7681, 15.8419, 23.1525, 37.9503, -28.7313, -29.6453
3.448, 5, 17.7499, 15.8363, 23.1762, 37.8728, -28.7594, -29.5766
3.452, 5, 17.7303, 15.83, 23.2032, 37.7845, -28.7916, -29.4984
3.456, 5, 17.7091, 15.823, 23.2334, 37.6858, -28.8278, -29.4109
3.46, 5, 17.6863, 15.8153, 23.2665, 37.577, -28.8677, -29.3147
3.464, 5, 17.6618, 15.8069, 23.3025, 37.4592, -28.9111, -29.2103
3.468, 5, 17.6357, 15.798, 23.3409, 37.3331, -28.9578, -29.0987
3.472, 5, 17.6082, 15.7886, 23.3817, 37.1998, -29.0073, -28.9808
3.476, 5, 17.5792, 15.7787, 23.4243, 37.0604, -29.0593, -28.8576
3.48, 5, 17.549, 15.7686, 23.4686, 36.916, -29.1135, -28.7299
3.484, 5, 17.5176, 15.7582, 23.5142, 36.7675, -29.1695, -28.5987
3.488, 5, 17.4851, 15.7476, 23.5608, 36.616, -29.227, -28.4649
3.492, 5, 17.4516, 15.7368, 23.6082, 36.4622, -29.2856, -28.3291
3.495, 5, 17.4171, 15.726, 23.6562, 36.3069, -29.3452, -28.1921
3.5, 5, 17.3816, 15.7152, 23.7046, 36.1507, -29.4055, -28.0544
3.504, 5, 17.3452, 15.7044, 23.7532, 35.994, -29.4663, -27.9163
3.508, 5, 17.3083, 15.6936, 23.802, 35.8372, -29.5276, -27.7781
3.512, 5, 17.2708, 15.6829, 23.8509, 35.6804, -29.5892, -27.6401
3.516, 5, 17.233, 15.6722, 23.8997, 35.5239, -29.6511, -27.5024
3.52, 5, 17.1949, 15.6616, 23.9486, 35.3676, -29.7133, -27.365
3.524, 5, 17.1567, 15.6511, 23.9974, 35.2118, -29.7757, -27.228
3.528, 5, 17.1183, 15.6407, 24.0461, 35.0565, -29.8383, -27.0915
3.531, 5, 17.0798, 15.6304, 24.0948, 34.9016, -29.9012, -26.9555
3.536, 5, 17.0412, 15.6201, 24.1434, 34.7472, -29.9642, -26.82
3.54, 5, 17.0026, 15.61, 24.1919, 34.5933, -30.0274, -26.6851
3.544, 5, 16.964, 15.5999, 24.2403, 34.44, -30.0908, -26.5506
3.548, 5, 16.9252, 15.59, 24.2886, 34.2872, -30.1544, -26.4167
3.552, 5, 16.8865, 15.5801, 24.3369, 34.1349, -30.2181, -26.2834
3.556, 5, 16.8477, 15.5703, 24.385, 33.9831, -30.2821, -26.1506
3.56, 5, 16.8088, 15.5606, 24.433, 33.8319, -30.3462, -26.0183
3.564, 5, 16.77, 15.5511, 24.481, 33.6812, -30.4104, -25.8865
3.568, 5, 16.731, 15.5416, 24.5288, 33.531, -30.4749, -25.7553
3.572, 5, 16.6921, 15.5322, 24.5766, 33.3814, -30.5395, -25.6247
3.576, 5, 16.6531, 15.5229, 24.6242, 33.2323, -30.6042, -25.4945
3.58, 5, 16.6141, 15.5137, 24.6717, 33.0837, -30.6692, -25.3649
3.584, 5, 16.575, 15.5046, 24.7192, 32.9356, -30.7343, -25.2358
3.587, 5, 16.536, 15.4956, 24.7665, 32.7881, -30.7996, -25.1073
3.592, 5, 16.4969, 15.4867, 24.8138, 32.6411, -30.865, -24.9793
3.596, 5, 16.4577, 15.4779, 24.861, 32.4945, -30.9306, -24.8518
3.6, 5, 16.4185, 15.4692, 24.908, 32.3486, -30.9963, -24.7248
3.604, 5, 16.3793, 15.4606, 24.955, 32.2031, -31.0623, -24.5983
3.608, 5, 16.3401, 15.4521, 25.0018, 32.0581, -31.1283, -24.4724
3.612, 5, 16.3008, 15.4436, 25.0486, 31.9137, -31.1946, -24.347
3.616, 5, 16.2615, 15.4353, 25.0952, 31.7697, -31.261, -24.2221
3.62, 5, 16.2221, 15.4271, 25.1418, 31.6263, -31.3275, -24.0977
3.624, 5, 16.1828, 15.419, 25.1882, 31.4833, -31.3942, -23.9738
3.628, 5, 16.1433, 15.4109, 25.2346, 31.3409, -31.4611, -23.8504
3.632, 5, 16.1039, 15.403, 25.2808, 31.199, -31.5281, -23.7276
3.636, 5, 16.0644, 15.3952, 25.327, 31.0575, -31.5953, -23.6052
3.64, 5, 16.0249, 15.3874, 25.373, 30.9166, -31.6626, -23.4834
3.644, 5, 15.9854, 15.3798, 25.419, 30.7762, -31.73, -23.362
3.648, 5, 15.9458, 15.3723, 25.4648, 30.6362, -31.7977, -23.2412
3.652, 5, 15.9062, 15.3648, 25.5106, 30.4967, -31.8654, -23.1208
3.656, 5, 15.8666, 15.3575, 25.5562, 30.3578, -31.9334, -23.0009
3.66, 5, 15.8269, 15.3503, 25.6018, 30.2193, -32.0014, -22.8816
3.664, 5, 15.7872, 15.3431, 25.6472, 30.0813, -32.0697, -22.7627
3.668, 5, 15.7475, 15.3361, 25.6925, 29.9437, -32.138, -22.6443
3.672, 5, 15.7077, 15.3291, 25.7378, 29.8067, -32.2065, -22.5264
3.676, 5, 15.6679, 15.3223, 25.7829, 29.6701, -32.2752, -22.409
3.679, 5, 15.6281, 15.3156, 25.828, 29.534, -32.344, -22.292
3.684, 5, 15.5882, 15.3089, 25.8729, 29.3984, -32.4129, -22.1756
3.688, 5, 15.5483, 15.3024, 25.9177, 29.2633, -32.482, -22.0596
3.692, 5, 15.5084, 15.2959, 25.9625, 29.1286, -32.5513, -21.9441
3.696, 5, 15.4684, 15.2896, 26.0071, 28.9944, -32.6206, -21.8291
3.7, 5, 15.4284, 15.2833, 26.0516, 28.8607, -32.6901, -21.7145
3.704, 5, 15.3884, 15.2772, 26.0961, 28.7274, -32.7598, -21.6004
3.708, 5, 15.3484, 15.2711, 26.1404, 28.5946, -32.8296, -21.4868
3.712, 5, 15.3083, 15.2652, 26.1846, 28.4622, -32.8995, -21.3737
3.716, 5, 15.2682, 15.2593, 26.2288, 28.3304, -32.9696, -21.261
3.72, 5, 15.228, 15.2536, 26.2728, 28.1989, -33.0398, -21.1488
3.724, 5, 15.1878, 15.2479, 26.3167, 28.0679, -33.1101, -21.0371
3.728, 5, 15.1476, 15.2424, 26.3605, 27.9374, -33.1806, -20.9258
3.732, 5, 15.1074, 15.2369, 26.4043, 27.8074, -33.2512, -20.8149
3.735, 5, 15.0671, 15.2315, 26.4479, 27.6777, -33.3219, -20.7046
3.74, 5, 15.0268, 15.2263, 26.4914, 27.5486, -33.3928, -20.5946
3.744, 5, 14.9865, 15.2211, 26.5348, 27.4198, -33.4638, -20.4852
3.748, 5, 14.9461, 15.2161, 26.5781, 27.2915, -33.535, -20.3762
3.752, 5, 14.9057, 15.2111, 26.6214, 27.1637, -33.6062, -20.2676
3.756, 5, 14.8653, 15.2062, 26.6645, 27.0363, -33.6776, -20.1595
3.76, 5, 14.8248, 15.2015, 26.7075, 26.9093, -33.7491, -20.0518
3.764, 5, 14.7843, 15.1968, 26.7504, 26.7828, -33.8208, -19.9446
3.768, 5, 14.7438, 15.1922, 26.7932, 26.6567, -33.8926, -19.8378
3.772, 5, 14.7033, 15.1877, 26.8359, 26.531, -33.9645, -19.7314
3.776, 5, 14.6627, 15.1834, 26.8786, 26.4058, -34.0365, -19.6255
3.78, 5, 14.6221, 15.1791, 26.9211, 26.281, -34.1087, -19.52
3.784, 5, 14.5814, 15.1749, 26.9635, 26.1566, -34.181, -19.415
3.788, 5, 14.5408, 15.1708, 27.0058, 26.0327, -34.2534, -19.3104
3.792, 5, 14.5001, 15.1669, 27.048, 25.9092, -34.3259, -19.2062
3.796, 5, 14.4593, 15.163, 27.0901, 25.7861, -34.3986, -19.1025
3.8, 5, 14.4186, 15.1592, 27.1322, 25.6634, -34.4714, -18.9991
3.804, 5, 14.3778, 15.1555, 27.1741, 25.5411, -34.5443, -18.8962
3.808, 5, 14.3369, 15.1519, 27.2159, 25.4193, -34.6173, -18.7938
3.812, 5, 14.2961, 15.1484, 27.2576, 25.2979, -34.6905, -18.6917
3.816, 5, 14.2552, 15.145, 27.2992, 25.1768, -34.7637, -18.5901
3.82, 5, 14.2143, 15.1417, 27.3407, 25.0562, -34.8371, -18.4889
3.824, 5, 14.1733, 15.1385, 27.3822, 24.9361, -34.9106, -18.3881
3.828, 5, 14.1323, 15.1354, 27.4235, 24.8163, -34.9843, -18.2878
3.832, 5, 14.0913, 15.1324, 27.4647, 24.6969, -35.058, -18.1878
3.836, 5, 14.0503, 15.1295, 27.5058, 24.5779, -35.1319, -18.0883
3.84, 5, 14.0092, 15.1267, 27.5468, 24.4594, -35.2059, -17.9891
3.844, 5, 13.9681, 15.124, 27.5877, 24.3412, -35.28, -17.8904
3.848, 5, 13.927, 15.1214, 27.6285, 24.2235, -35.3542, -17.7921
3.852, 5, 13.8859, 15.1189, 27.6692, 24.1061, -35.4285, -17.6942
3.856, 5, 13.8447, 15.1165, 27.7098, 23.9891, -35.5029, -17.5967
3.86, 5, 13.8035, 15.1142, 27.7504, 23.8725, -35.5775, -17.4995
3.864, 5, 13.7622, 15.112, 27.7908, 23.7564, -35.6522, -17.4028
3.868, 5, 13.7209, 15.1099, 27.8311, 23.6406, -35.7269, -17.3065
3.872, 5, 13.6796, 15.1079, 27.8713, 23.5252, -35.8018, -17.2106
3.876, 5, 13.6383, 15.106, 27.9113, 23.4101, -35.8768, -17.1151
3.88, 5, 13.5969, 15.1042, 27.9513, 23.2955, -35.9519, -17.0199
3.884, 5, 13.5556, 15.1025, 27.9912, 23.1812, -36.0271, -16.9252
3.888, 5, 13.5141, 15.1009, 28.031, 23.0673, -36.1025, -16.8308
3.892, 5, 13.4727, 15.0994, 28.0707, 22.9538, -36.1779, -16.7368
3.896, 5, 13.4312, 15.098, 28.1103, 22.8407, -36.2534, -16.6432
3.9, 5, 13.3897, 15.0967, 28.1498, 22.7279, -36.3291, -16.55
3.904, 5, 13.3482, 15.0955, 28.1891, 22.6156, -36.4048, -16.4571
3.908, 5, 13.3066, 15.0944, 28.2284, 22.5035, -36.4807, -16.3647
3.912, 5, 13.265, 15.0934, 28.2676, 22.3919, -36.5566, -16.2726
3.916, 5, 13.2234, 15.0925, 28.3066, 22.2806, -36.6327, -16.1808
3.92, 5, 13.1817, 15.0917, 28.3456, 22.1697, -36.7088, -16.0895
3.924, 5, 13.1401, 15.091, 28.3844, 22.0591, -36.7851, -15.9985
3.928, 5, 13.0984, 15.0904, 28.4232, 21.9489, -36.8615, -15.9079
3.932, 5, 13.0566, 15.0899, 28.4618, 21.8391, -36.9379, -15.8176
3.936, 5, 13.0149, 15.0895, 28.5004, 21.7296, -37.0145, -15.7277
3.94, 5, 12.9731, 15.0892, 28.5388, 21.6204, -37.0912, -15.6382
3.944, 5, 12.9313, 15.089, 28.5772, 21.5117, -37.1679, -15.5491
3.948, 5, 12.8894, 15.089, 28.6154, 21.4032, -37.2448, -15.4602
3.952, 5, 12.8475, 15.089, 28.6535, 21.2952, -37.3218, -15.3718
3.956, 5, 12.8056, 15.0891, 28.6916, 21.1874, -37.3988, -15.2837
3.96, 5, 12.7637, 15.0893, 28.7295, 21.08, -37.476, -15.196
3.964, 5, 12.7218, 15.0896, 28.7673, 20.973, -37.5532, -15.1086
3.968, 5, 12.6798, 15.09, 28.805, 20.8663, -37.6306, -15.0215
3.972, 5, 12.6378, 15.0905, 28.8426, 20.76, -37.708, -14.9348
3.976, 5, 12.5957, 15.0911, 28.8801, 20.6539, -37.7856, -14.8485
3.98, 5, 12.5537, 15.0919, 28.9175, 20.5483, -37.8632, -14.7625
3.984, 5, 12.5116, 15.0927, 28.9548, 20.4429, -37.9409, -14.6769
3.988, 5, 12.4694, 15.0936, 28.992, 20.3379, -38.0188, -14.5915
3.992, 5, 12.4273, 15.0946, 29.0291, 20.2333, -38.0967, -14.5066
3.996, 5, 12.3851, 15.0957, 29.066, 20.1289, -38.1747, -14.422
3.999, 5, 12.3429, 15.097, 29.1029, 20.0249, -38.2528, -14.3377
4.004, 5, 12.3007, 15.0983, 29.1397, 19.9212, -38.331, -14.2537
4.008, 5, 12.2584, 15.0997, 29.1763, 19.8179, -38.4092, -14.1701
4.012, 5, 12.2162, 15.1012, 29.2129, 19.7149, -38.4876, -14.0868
4.016, 5, 12.1738, 15.1029, 29.2493, 19.6122, -38.5661, -14.0038
4.02, 5, 12.1315, 15.1046, 29.2857, 19.5098, -38.6446, -13.9212
4.024, 5, 12.0891, 15.1064, 29.3219, 19.4077, -38.7232, -13.8389
4.028, 5, 12.0468, 15.1084, 29.3581, 19.306, -38.802, -13.757
4.032, 5, 12.0043, 15.1104, 29.3941, 19.2046, -38.8808, -13.6753
4.036, 5, 11.9619, 15.1125, 29.43, 19.1035, -38.9597, -13.594
4.04, 5, 11.9194, 15.1148, 29.4658, 19.0027, -39.0387, -13.513
4.044, 5, 11.8769, 15.1171, 29.5016, 18.9023, -39.1177, -13.4324
4.048, 5, 11.8344, 15.1195, 29.5372, 18.8021, -39.1969, -13.352
4.052, 5, 11.7919, 15.1221, 29.5727, 18.7023, -39.2761, -13.272
4.056, 5, 11.7493, 15.1247, 29.6081, 18.6028, -39.3555, -13.1923
4.06, 5, 11.7067, 15.1275, 29.6434, 18.5036, -39.4349, -13.1129
4.064, 5, 11.6641, 15.1303, 29.6786, 18.4047, -39.5144, -13.0338
4.068, 5, 11.6214, 15.1332, 29.7137, 18.3061, -39.594, -12.9551
4.072, 5, 11.5788, 15.1363, 29.7486, 18.2078, -39.6736, -12.8766
4.076, 5, 11.5361, 15.1394, 29.7835, 18.1098, -39.7534, -12.7985
4.08, 5, 11.4933, 15.1427, 29.8183, 18.0121, -39.8332, -12.7207
4.084, 5, 11.4506, 15.146, 29.8529, 17.9147, -39.9131, -12.6432
4.088, 5, 11.4078, 15.1495, 29.8875, 17.8177, -39.9931, -12.566
4.092, 5, 11.365, 15.153, 29.922, 17.7209, -40.0732, -12.4891
4.096, 5, 11.3222, 15.1567, 29.9563, 17.6244, -40.1533, -12.4125
4.1, 5, 11.2793, 15.1604, 29.9905, 17.5282, -40.2336, -12.3362
4.104, 5, 11.2364, 15.1643, 30.0247, 17.4323, -40.3139, -12.2602
4.108, 5, 11.1935, 15.1683, 30.0587, 17.3367, -40.3943, -12.1845
4.112, 5, 11.1506, 15.1723, 30.0926, 17.2415, -40.4747, -12.1091
4.116, 5, 11.1076, 15.1765, 30.1265, 17.1465, -40.5553, -12.0341
4.12, 5, 11.0647, 15.1807, 30.1602, 17.0517, -40.6359, -11.9593
4.124, 5, 11.0216, 15.1851, 30.1938, 16.9573, -40.7166, -11.8848
4.128, 5, 10.9786, 15.1896, 30.2273, 16.8632, -40.7974, -11.8106
4.132, 5, 10.9356, 15.1941, 30.2607, 16.7694, -40.8783, -11.7367
4.136, 5, 10.8925, 15.1988, 30.294, 16.6758, -40.9592, -11.6632
4.14, 5, 10.8494, 15.2036, 30.3272, 16.5825, -41.0403, -11.5899
4.144, 5, 10.8062, 15.2084, 30.3603, 16.4896, -41.1214, -11.5168
4.148, 5, 10.7631, 15.2134, 30.3932, 16.3969, -41.2025, -11.4441
4.152, 5, 10.7199, 15.2185, 30.4261, 16.3044, -41.2838, -11.3717
4.156, 5, 10.6767, 15.2236, 30.4589, 16.2123, -41.3651, -11.2996
4.16, 5, 10.6335, 15.2289, 30.4915, 16.1204, -41.4465, -11.2277
4.164, 5, 10.5902, 15.2343, 30.5241, 16.0289, -41.528, -11.1561
4.168, 5, 10.5469, 15.2398, 30.5565, 15.9376, -41.6095, -11.0849
4.172, 5, 10.5036, 15.2454, 30.5888, 15.8465, -41.6911, -11.0139
4.176, 5, 10.4603, 15.251, 30.6211, 15.7558, -41.7728, -10.9431
4.18, 5, 10.4169, 15.2568, 30.6532, 15.6653, -41.8546, -10.8727
4.184, 5, 10.3736, 15.2627, 30.6852, 15.5751, -41.9364, -10.8025
4.188, 5, 10.3302, 15.2687, 30.7171, 15.4851, -42.0183, -10.7326
4.192, 5, 10.2867, 15.2748, 30.7489, 15.3955, -42.1003, -10.663
4.196, 5, 10.2433, 15.281, 30.7806, 15.306, -42.1824, -10.5937
4.2, 5, 10.1998, 15.2873, 30.8122, 15.2169, -42.2645, -10.5246
4.204, 5, 10.1563, 15.2937, 30.8437, 15.128, -42.3467, -10.4558
4.208, 5, 10.1128, 15.3002, 30.875, 15.0394, -42.4289, -10.3873
4.212, 5, 10.0693, 15.3068, 30.9063, 14.951, -42.5112, -10.319
4.216, 5, 10.0257, 15.3135, 30.9375, 14.8629, -42.5936, -10.251
4.22, 5, 9.98213, 15.3203, 30.9685, 14.7751, -42.6761, -10.1833
4.224, 5, 9.93852, 15.3272, 30.9994, 14.6875, -42.7586, -10.1158
4.228, 5, 9.89489, 15.3342, 31.0303, 14.6001, -42.8412, -10.0486
4.232, 5, 9.85124, 15.3413, 31.061, 14.5131, -42.9238, -9.98169
4.236, 5, 9.80756, 15.3485, 31.0916, 14.4262, -43.0065, -9.915
4.24, 5, 9.76386, 15.3558, 31.1221, 14.3396, -43.0893, -9.84857
4.244, 5, 9.72014, 15.3633, 31.1525, 14.2533, -43.1722, -9.78239
4.248, 5, 9.6764, 15.3708, 31.1828, 14.1672, -43.2551, -9.71647
4.252, 5, 9.63264, 15.3784, 31.213, 14.0814, -43.338, -9.65081
4.256, 5, 9.58885, 15.3861, 31.2431, 13.9958, -43.4211, -9.58539
4.26, 5, 9.54504, 15.3939, 31.273, 13.9104, -43.5042, -9.52023
4.264, 5, 9.50121, 15.4018, 31.3029, 13.8253, -43.5873, -9.45532
4.268, 5, 9.45736, 15.4099, 31.3326, 13.7405, -43.6705, -9.39065
4.272, 5, 9.41349, 15.418, 31.3623, 13.6558, -43.7538, -9.32623
4.276, 5, 9.3696, 15.4262, 31.3918, 13.5714, -43.8371, -9.26206
4.28, 5, 9.32568, 15.4345, 31.4212, 13.4873, -43.9205, -9.19814
4.284, 5, 9.28174, 15.4429, 31.4506, 13.4034, -44.004, -9.13445
4.288, 5, 9.23779, 15.4515, 31.4798, 13.3197, -44.0875, -9.07101
4.292, 5, 9.19381, 15.4601, 31.5089, 13.2363, -44.1711, -9.00781
4.296, 5, 9.14981, 15.4688, 31.5379, 13.153, -44.2547, -8.94485
4.3, 5, 9.10579, 15.4776, 31.5667, 13.0701, -44.3384, -8.88214
4.304, 5, 9.06176, 15.4866, 31.5955, 12.9873, -44.4221, -8.81965
4.308, 5, 9.0177, 15.4956, 31.6242, 12.9048, -44.5059, -8.75741
4.312, 5, 8.97362, 15.5047, 31.6527, 12.8225, -44.5898, -8.6954
4.316, 5, 8.92952, 15.514, 31.6812, 12.7404, -44.6737, -8.63363
4.32, 5, 8.8854, 15.5233, 31.7095, 12.6586, -44.7576, -8.57208
4.324, 5, 8.84126, 15.5327, 31.7378, 12.577, -44.8416, -8.51078
4.328, 5, 8.7971, 15.5422, 31.7659, 12.4956, -44.9257, -8.4497
4.332, 5, 8.75292, 15.5519, 31.7939, 12.4145, -45.0098, -8.38885
4.336, 5, 8.70872, 15.5616, 31.8218, 12.3335, -45.094, -8.32824
4.34, 5, 8.6645, 15.5714, 31.8496, 12.2528, -45.1783, -8.26785
4.344, 5, 8.62026, 15.5814, 31.8773, 12.1723, -45.2625, -8.20769
4.348, 5, 8.576, 15.5914, 31.9049, 12.092, -45.3469, -8.14775
4.352, 5, 8.53172, 15.6015, 31.9323, 12.012, -45.4313, -8.08804
4.356, 5, 8.48743, 15.6118, 31.9597, 11.9321, -45.5157, -8.02856
4.36, 5, 8.44311, 15.6221, 31.9869, 11.8525, -45.6002, -7.9693
4.364, 5, 8.39878, 15.6325, 32.0141, 11.7731, -45.6847, -7.91026
4.368, 5, 8.35442, 15.6431, 32.0411, 11.6939, -45.7693, -7.85144
4.372, 5, 8.31005, 15.6537, 32.068, 11.6149, -45.854, -7.79284
4.376, 5, 8.26566, 15.6644, 32.0948, 11.5361, -45.9387, -7.73446
4.38, 5, 8.22125, 15.6753, 32.1215, 11.4576, -46.0234, -7.6763
4.384, 5, 8.17682, 15.6862, 32.1481, 11.3792, -46.1082, -7.61836
4.388, 5, 8.13237, 15.6972, 32.1746, 11.3011, -46.1931, -7.56064
4.392, 5, 8.08791, 15.7084, 32.2009, 11.2231, -46.278, -7.50313
4.396, 5, 8.04342, 15.7196, 32.2272, 11.1454, -46.3629, -7.44584
4.4, 5, 7.99892, 15.7309, 32.2533, 11.0679, -46.4479, -7.38876
4.404, 5, 7.9544, 15.7424, 32.2794, 10.9906, -46.5329, -7.33189
4.408, 5, 7.90986, 15.7539, 32.3053, 10.9135, -46.618, -7.27524
4.412, 5, 7.8653, 15.7655, 32.3311, 10.8366, -46.7031, -7.2188
4.416, 5, 7.82073, 15.7773, 32.3568, 10.7599, -46.7883, -7.16257
4.42, 5, 7.77613, 15.7891, 32.3824, 10.6834, -46.8735, -7.10655
4.424, 5, 7.73152, 15.801, 32.4079, 10.6071, -46.9588, -7.05074
4.428, 5, 7.68689, 15.8131, 32.4333, 10.531, -47.0441, -6.99514
4.432, 5, 7.64225, 15.8252, 32.4585, 10.4551, -47.1295, -6.93974
4.436, 5, 7.59758, 15.8374, 32.4837, 10.3794, -47.2149, -6.88455
4.44, 5, 7.5529, 15.8498, 32.5087, 10.304, -47.3003, -6.82957
4.444, 5, 7.5082, 15.8622, 32.5337, 10.2287, -47.3858, -6.77479
4.448, 5, 7.46349, 15.8747, 32.5585, 10.1536, -47.4714, -6.72022
4.452, 5, 7.41875, 15.8874, 32.5832, 10.0787, -47.5569, -6.66585
4.456, 5, 7.374, 15.9001, 32.6078, 10.004, -47.6426, -6.61168
4.46, 5, 7.32923, 15.9129, 32.6323, 9.92947, -47.7282, -6.55772
4.464, 5, 7.28445, 15.9259, 32.6566, 9.85516, -47.8139, -6.50396
4.468, 5, 7.23964, 15.9389, 32.6809, 9.78104, -47.8997, -6.45039
4.472, 5, 7.19482, 15.952, 32.7051, 9.70712, -47.9855, -6.39703
4.476, 5, 7.14999, 15.9653, 32.7291, 9.63339, -48.0713, -6.34387
4.48, 5, 7.10513, 15.9786, 32.753, 9.55984, -48.1572, -6.2909
4.484, 5, 7.06026, 15.992, 32.7768, 9.48649, -48.2431, -6.23813
4.488, 5, 7.01538, 16.0056, 32.8005, 9.41333, -48.3291, -6.18556
4.492, 5, 6.97047, 16.0192, 32.8241, 9.34036, -48.4151, -6.13319
4.496, 5, 6.92555, 16.033, 32.8476, 9.26758, -48.5011, -6.08101
4.5, 5, 6.88062, 16.0468, 32.871, 9.19499, -48.5872, -6.02903
4.504, 5, 6.83566, 16.0607, 32.8943, 9.12258, -48.6734, -5.97724
4.508, 5, 6.79069, 16.0748, 32.9174, 9.05036, -48.7595, -5.92564
4.512, 5, 6.74571, 16.0889, 32.9404, 8.97833, -48.8457, -5.87424
4.516, 5, 6.70071, 16.1031, 32.9633, 8.90648, -48.932, -5.82303
4.52, 5, 6.65569, 16.1175, 32.9862, 8.83481, -49.0182, -5.77201
4.524, 5, 6.61065, 16.1319, 33.0089, 8.76333, -49.1046, -5.72118
4.528, 5, 6.56561, 16.1464, 33.0314, 8.69203, -49.1909, -5.67054
4.532, 5, 6.52054, 16.1611, 33.0539, 8.62092, -49.2773, -5.62009
4.536, 5, 6.47546, 16.1758, 33.0763, 8.54998, -49.3638, -5.56983
4.54, 5, 6.43037, 16.1907, 33.0985, 8.47923, -49.4502, -5.51975
4.544, 5, 6.38526, 16.2056, 33.1206, 8.40865, -49.5367, -5.46986
4.548, 5, 6.34013, 16.2206, 33.1427, 8.33825, -49.6233, -5.42016
4.552, 5, 6.29499, 16.2358, 33.1646, 8.26803, -49.7099, -5.37064
4.556, 5, 6.24983, 16.251, 33.1864, 8.19799, -49.7965, -5.3213
4.56, 5, 6.20466, 16.2663, 33.208, 8.12812, -49.8831, -5.27215
4.564, 5, 6.15948, 16.2818, 33.2296, 8.05842, -49.9698, -5.22317
4.568, 5, 6.11428, 16.2973, 33.2511, 7.9889, -50.0565, -5.17438
4.572, 5, 6.06906, 16.3129, 33.2724, 7.91955, -50.1433, -5.12576
4.576, 5, 6.02383, 16.3287, 33.2936, 7.85037, -50.2301, -5.07732
4.58, 5, 5.97859, 16.3445, 33.3147, 7.78137, -50.3169, -5.02907
4.584, 5, 5.93333, 16.3604, 33.3358, 7.71253, -50.4038, -4.98098
4.588, 5, 5.88806, 16.3764, 33.3566, 7.64386, -50.4907, -4.93307
4.592, 5, 5.84277, 16.3926, 33.3774, 7.57536, -50.5776, -4.88534
4.596, 5, 5.79747, 16.4088, 33.3981, 7.50703, -50.6645, -4.83778
4.6, 5, 5.75216, 16.4251, 33.4186, 7.43886, -50.7515, -4.7904
4.604, 5, 5.70684, 16.4415, 33.4391, 7.37086, -50.8385, -4.74319
4.608, 5, 5.6615, 16.458, 33.4594, 7.30303, -50.9256, -4.69615
4.612, 5, 5.61614, 16.4747, 33.4796, 7.23536, -51.0126, -4.64928
4.616, 5, 5.57078, 16.4914, 33.4997, 7.16786, -51.0997, -4.60258
4.62, 5, 5.5254, 16.5082, 33.5197, 7.10051, -51.1868, -4.55605
4.624, 5, 5.48001, 16.5251, 33.5395, 7.03333, -51.274, -4.50968
4.628, 5, 5.4346, 16.5421, 33.5593, 6.96631, -51.3612, -4.46349
4.632, 5, 5.38918, 16.5592, 33.5789, 6.89945, -51.4484, -4.41746
4.636, 5, 5.34376, 16.5764, 33.5985, 6.83276, -51.5356, -4.3716
4.64, 5, 5.29831, 16.5937, 33.6179, 6.76622, -51.6229, -4.32591
4.644, 5, 5.25286, 16.6111, 33.6372, 6.69984, -51.7102, -4.28038
4.648, 5, 5.20739, 16.6286, 33.6564, 6.63362, -51.7975, -4.23501
4.652, 5, 5.16192, 16.6462, 33.6754, 6.56755, -51.8849, -4.18981
4.656, 5, 5.11643, 16.6639, 33.6944, 6.50164, -51.9723, -4.14477
4.66, 5, 5.07092, 16.6816, 33.7132, 6.43589, -52.0597, -4.09989
4.664, 5, 5.02541, 16.6995, 33.732, 6.37029, -52.1471, -4.05517
4.668, 5, 4.97989, 16.7175, 33.7506, 6.30485, -52.2345, -4.01062
4.672, 5, 4.93435, 16.7356, 33.7691, 6.23956, -52.322, -3.96622
4.676, 5, 4.8888, 16.7537, 33.7875, 6.17443, -52.4095, -3.92198
4.68, 5, 4.84324, 16.772, 33.8058, 6.10944, -52.497, -3.87791
4.684, 5, 4.79767, 16.7904, 33.8239, 6.04461, -52.5846, -3.83399
4.688, 5, 4.75209, 16.8088, 33.842, 5.97993, -52.6721, -3.79022
4.692, 5, 4.7065, 16.8274, 33.8599, 5.9154, -52.7597, -3.74662
4.696, 5, 4.6609, 16.846, 33.8777, 5.85103, -52.8473, -3.70317
4.7, 5, 4.61528, 16.8648, 33.8954, 5.7868, -52.935, -3.65987
4.704, 5, 4.56966, 16.8836, 33.913, 5.72272, -53.0226, -3.61673
4.708, 5, 4.52402, 16.9025, 33.9305, 5.65878, -53.1103, -3.57375
4.712, 5, 4.47838, 16.9216, 33.9479, 5.595, -53.198, -3.53091
4.716, 5, 4.43272, 16.9407, 33.9651, 5.53136, -53.2857, -3.48823
4.72, 5, 4.38706, 16.9599, 33.9822, 5.46787, -53.3735, -3.4457
4.724, 5, 4.34138, 16.9792, 33.9993, 5.40452, -53.4612, -3.40333
4.728, 5, 4.2957, 16.9987, 34.0162, 5.34132, -53.549, -3.3611
4.732, 5, 4.25, 17.0182, 34.0329, 5.27827, -53.6368, -3.31903
4.736, 5, 4.2043, 17.0378, 34.0496, 5.21536, -53.7247, -3.2771
4.74, 5, 4.15858, 17.0575, 34.0662, 5.15259, -53.8125, -3.23532
4.744, 5, 4.11286, 17.0773, 34.0826, 5.08996, -53.9004, -3.1937
4.748, 5, 4.06713, 17.0972, 34.0989, 5.02748, -53.9882, -3.15222
4.752, 5, 4.02138, 17.1172, 34.1152, 4.96514, -54.0761, -3.11088
4.756, 5, 3.97563, 17.1372, 34.1313, 4.90294, -54.164, -3.0697
4.76, 5, 3.92987, 17.1574, 34.1472, 4.84088, -54.252, -3.02866
4.764, 5, 3.8841, 17.1777, 34.1631, 4.77895, -54.3399, -2.98776
4.768, 5, 3.83832, 17.1981, 34.1788, 4.71717, -54.4279, -2.94701
4.772, 5, 3.79253, 17.2185, 34.1945, 4.65553, -54.5159, -2.90641
4.776, 5, 3.74673, 17.2391, 34.21, 4.59403, -54.6039, -2.86595
4.78, 5, 3.70093, 17.2597, 34.2254, 4.53266, -54.6919, -2.82563
4.784, 5, 3.65512, 17.2805, 34.2407, 4.47144, -54.7799, -2.78546
4.788, 5, 3.60929, 17.3013, 34.2559, 4.41034, -54.868, -2.74542
4.792, 5, 3.56346, 17.3223, 34.2709, 4.34939, -54.956, -2.70553
4.796, 5, 3.51762, 17.3433, 34.2859, 4.28857, -55.0441, -2.66578
4.8, 5, 3.47178, 17.3644, 34.3007, 4.22788, -55.1322, -2.62617
4.804, 5, 3.42592, 17.3856, 34.3154, 4.16733, -55.2203, -2.5867
4.808, 5, 3.38006, 17.4069, 34.33, 4.10692, -55.3084, -2.54737
4.812, 5, 3.33419, 17.4284, 34.3445, 4.04663, -55.3966, -2.50817
4.816, 5, 3.28831, 17.4499, 34.3588, 3.98648, -55.4847, -2.46912
4.82, 5, 3.24243, 17.4714, 34.3731, 3.92646, -55.5729, -2.4302
4.824, 5, 3.19654, 17.4931, 34.3872, 3.86657, -55.6611, -2.39142
4.828, 5, 3.15064, 17.5149, 34.4012, 3.80682, -55.7492, -2.35277
4.832, 5, 3.10473, 17.5368, 34.4151, 3.74719, -55.8374, -2.31426
4.836, 5, 3.05882, 17.5588, 34.4289, 3.68769, -55.9257, -2.27589
4.84, 5, 3.01289, 17.5808, 34.4425, 3.62833, -56.0139, -2.23765
4.844, 5, 2.96697, 17.603, 34.4561, 3.56909, -56.1021, -2.19954
4.848, 5, 2.92103, 17.6252, 34.4695, 3.50998, -56.1903, -2.16157
4.852, 5, 2.87509, 17.6476, 34.4828, 3.45099, -56.2786, -2.12372
4.856, 5, 2.82915, 17.67, 34.496, 3.39214, -56.3669, -2.08601
4.86, 5, 2.78319, 17.6925, 34.5091, 3.33341, -56.4551, -2.04843
4.864, 5, 2.73723, 17.7151, 34.5221, 3.27481, -56.5434, -2.01099
4.868, 5, 2.69127, 17.7378, 34.5349, 3.21633, -56.6317, -1.97367
4.872, 5, 2.6453, 17.7606, 34.5476, 3.15798, -56.72, -1.93648
4.876, 5, 2.59932, 17.7835, 34.5603, 3.09975, -56.8083, -1.89942
4.88, 5, 2.55334, 17.8065, 34.5728, 3.04165, -56.8966, -1.86249
4.884, 5, 2.50735, 17.8296, 34.5851, 2.98367, -56.9849, -1.82569
4.888, 5, 2.46136, 17.8528, 34.5974, 2.92581, -57.0733, -1.78901
4.892, 5, 2.41536, 17.876, 34.6096, 2.86808, -57.1616, -1.75247
4.896, 5, 2.36936, 17.8994, 34.6216, 2.81046, -57.2499, -1.71604
4.9, 5, 2.32335, 17.9228, 34.6335, 2.75297, -57.3383, -1.67975
4.904, 5, 2.27733, 17.9463, 34.6453, 2.69561, -57.4266, -1.64358
4.908, 5, 2.23131, 17.97, 34.657, 2.63836, -57.515, -1.60753
4.912, 5, 2.18529, 17.9937, 34.6686, 2.58123, -57.6033, -1.57161
4.916, 5, 2.13926, 18.0175, 34.68, 2.52422, -57.6917, -1.53581
4.92, 5, 2.09323, 18.0414, 34.6913, 2.46733, -57.7801, -1.50014
4.924, 5, 2.0472, 18.0653, 34.7025, 2.41056, -57.8685, -1.46458
4.928, 5, 2.00115, 18.0894, 34.7136, 2.35391, -57.9568, -1.42915
4.932, 5, 1.95511, 18.1136, 34.7246, 2.29737, -58.0452, -1.39385
4.936, 5, 1.90906, 18.1378, 34.7355, 2.24095, -58.1336, -1.35866
4.94, 5, 1.86301, 18.1622, 34.7462, 2.18465, -58.222, -1.32359
4.944, 5, 1.81695, 18.1866, 34.7569, 2.12847, -58.3104, -1.28865
4.948, 5, 1.77089, 18.2111, 34.7674, 2.0724, -58.3988, -1.25382
4.952, 5, 1.72483, 18.2357, 34.7778, 2.01645, -58.4872, -1.21911
4.956, 5, 1.67876, 18.2604, 34.7881, 1.96061, -58.5756, -1.18452
4.96, 5, 1.63269, 18.2852, 34.7982, 1.90489, -58.664, -1.15005
4.964, 5, 1.58662, 18.3101, 34.8083, 1.84928, -58.7524, -1.1157
4.968, 5, 1.54054, 18.3351, 34.8182, 1.79378, -58.8408, -1.08146
4.972, 5, 1.49447, 18.3601, 34.828, 1.7384, -58.9292, -1.04734
4.976, 5, 1.44838, 18.3853, 34.8377, 1.68313, -59.0176, -1.01334
4.98, 5, 1.4023, 18.4105, 34.8473, 1.62797, -59.106, -0.979448
4.984, 5, 1.35621, 18.4358, 34.8567, 1.57293, -59.1944, -0.945675
4.988, 5, 1.31012, 18.4613, 34.8661, 1.51799, -59.2828, -0.912018
4.992, 5, 1.26403, 18.4867, 34.8753, 1.46317, -59.3712, -0.878474
4.996, 5, 1.21794, 18.5123, 34.8844, 1.40846, -59.4596, -0.845044
5, 5, 1.17184, 18.538, 34.8934, 1.35386, -59.548, -0.811727
5.004, 5, 1.12574, 18.5638, 34.9023, 1.29937, -59.6364, -0.778524
5.008, 5, 1.07964, 18.5896, 34.911, 1.24499, -59.7248, -0.745432
5.012, 5, 1.03354, 18.6156, 34.9196, 1.19071, -59.8132, -0.712453
5.016, 5, 0.987434, 18.6416, 34.9282, 1.13655, -59.9016, -0.679585
5.02, 5, 0.941328, 18.6677, 34.9366, 1.08249, -59.99, -0.646828
5.024, 5, 0.895219, 18.6939, 34.9448, 1.02854, -60.0784, -0.614182
5.028, 5, 0.849106, 18.7203, 34.953, 0.9747, -60.1667, -0.581646
5.032, 5, 0.80299, 18.7468, 34.961, 0.920964, -60.2551, -0.549219
5.036, 5, 0.756874, 18.7735, 34.9688, 0.867333, -60.3435, -0.516902
5.04, 5, 0.710767, 18.8005, 34.9764, 0.813807, -60.4318, -0.484694
5.044, 5, 0.664687, 18.8279, 34.9837, 0.760386, -60.5202, -0.452596
5.048, 5, 0.61866, 18.8557, 34.9906, 0.707071, -60.6085, -0.420608
5.052, 5, 0.572716, 18.884, 34.9971, 0.653868, -60.6969, -0.388734
5.056, 5, 0.52688, 18.913, 35.0031, 0.600783, -60.7852, -0.356977
5.06, 5, 0.481171, 18.9426, 35.0083, 0.54783, -60.8734, -0.325345
5.064, 5, 0.435601, 18.973, 35.0127, 0.495026, -60.9616, -0.293848
5.068, 5, 0.390177, 19.0042, 35.0161, 0.442394, -61.0497, -0.262498
5.072, 6, 0.344907, 19.0364, 35.0184, 0.389965, -61.1376, -0.231313
5.076, 6, 0.299803, 19.0697, 35.0192, 0.337772, -61.2253, -0.20031
5.08, 6, 0.254888, 19.104, 35.0185, 0.285858, -61.3128, -0.169514
5.084, 6, 0.21019, 19.1395, 35.016, 0.234265, -61.3999, -0.138948
5.088, 6, 0.165743, 19.1761, 35.0117, 0.183043, -61.4867, -0.108638
5.092, 6, 0.12157, 19.2139, 35.0054, 0.132239, -61.5729, -0.0786107
5.096, 6, 0.0776836, 19.2527, 34.997, 0.0819006, -61.6586, -0.0488907
5.1, 6, 0.0340885, 19.2927, 34.9864, 0.0320694, -61.7437, -0.0195004
5.104, 6, -0.00921736, 19.3338, 34.9736, -0.0172211, -61.828, 0.00954256
5.108, 6, -0.0522382, 19.3761, 34.9586, -0.0659479, -61.9117, 0.0382264
5.112, 6, -0.0949799, 19.4196, 34.9415, -0.1141, -61.9946, 0.0665461
5.116, 6, -0.137449, 19.4643, 34.9223, -0.161679, -62.0767, 0.0945036
5.12, 6, -0.179656, 19.5101, 34.9013, -0.208699, -62.1581, 0.122108
5.124, 6, -0.221616, 19.5571, 34.8784, -0.255183, -62.2388, 0.149373
5.128, 6, -0.263356, 19.6052, 34.854, -0.301163, -62.3188, 0.176319
5.132, 6, -0.304906, 19.6543, 34.8281, -0.34668, -62.3981, 0.202969
5.136, 6, -0.346289, 19.7042, 34.801, -0.391777, -62.477, 0.229349
5.14, 6, -0.387508, 19.7549, 34.7728, -0.436499, -62.5553, 0.255487
5.144, 6, -0.42855, 19.8063, 34.7437, -0.480896, -62.6333, 0.281411
5.148, 6, -0.469389, 19.8583, 34.7138, -0.525012, -62.7108, 0.307146
5.152, 6, -0.510003, 19.9108, 34.6834, -0.568887, -62.7882, 0.332718
5.156, 6, -0.550377, 19.9637, 34.6524, -0.612557, -62.8653, 0.358146
5.16, 6, -0.59051, 20.0169, 34.621, -0.65605, -62.9422, 0.383449
5.164, 6, -0.630423, 20.0704, 34.5893, -0.699387, -63.019, 0.408638
5.168, 6, -0.670154, 20.1242, 34.5574, -0.742585, -63.0956, 0.433725
5.172, 6, -0.709741, 20.178, 34.5252, -0.785654, -63.1722, 0.458717
5.176, 6, -0.74922, 20.232, 34.4928, -0.828601, -63.2487, 0.483618
5.18, 6, -0.788613, 20.2861, 34.4603, -0.871432, -63.3251, 0.508432
5.184, 6, -0.827938, 20.3403, 34.4276, -0.914151, -63.4014, 0.533161
5.188, 6, -0.867205, 20.3945, 34.3948, -0.956759, -63.4777, 0.557808
5.192, 6, -0.906423, 20.4488, 34.3618, -0.999259, -63.5539, 0.582374
5.196, 6, -0.945596, 20.5032, 34.3288, -1.04165, -63.63, 0.60686
5.2, 6, -0.984727, 20.5576, 34.2956, -1.08394, -63.7061, 0.631266
5.204, 6, -1.02382, 20.612, 34.2623, -1.12612, -63.7821, 0.655594
5.208, 6, -1.06287, 20.6665, 34.2288, -1.1682, -63.858, 0.679845
5.212, 6, -1.10189, 20.721, 34.1953, -1.21018, -63.9339, 0.704018
5.216, 6, -1.14087, 20.7756, 34.1616, -1.25205, -64.0097, 0.728114
5.22, 6, -1.17982, 20.8302, 34.1278, -1.29382, -64.0855, 0.752135
5.224, 6, -1.21873, 20.8848, 34.0939, -1.33548, -64.1612, 0.77608
5.228, 6, -1.25761, 20.9395, 34.0599, -1.37705, -64.2368, 0.79995
5.232, 6, -1.29645, 20.9942, 34.0258, -1.41851, -64.3124, 0.823745
5.236, 6, -1.33526, 21.049, 33.9915, -1.45987, -64.3879, 0.847465
5.24, 6, -1.37404, 21.1038, 33.9571, -1.50113, -64.4634, 0.871112
5.244, 6, -1.41277, 21.1586, 33.9227, -1.54229, -64.5387, 0.894686
5.248, 6, -1.45148, 21.2135, 33.8881, -1.58334, -64.6141, 0.918186
5.252, 6, -1.49015, 21.2684, 33.8533, -1.6243, -64.6893, 0.941615
5.256, 6, -1.52878, 21.3234, 33.8185, -1.66516, -64.7645, 0.964971
5.26, 6, -1.56738, 21.3784, 33.7836, -1.70592, -64.8396, 0.988255
5.264, 6, -1.60595, 21.4334, 33.7485, -1.74658, -64.9147, 1.01147
5.268, 6, -1.64448, 21.4885, 33.7133, -1.78714, -64.9897, 1.03461
5.272, 6, -1.68298, 21.5436, 33.678, -1.8276, -65.0646, 1.05768
5.276, 6, -1.72144, 21.5987, 33.6426, -1.86796, -65.1395, 1.08068
5.28, 6, -1.75987, 21.6539, 33.6071, -1.90823, -65.2143, 1.10362
5.284, 6, -1.79826, 21.7091, 33.5714, -1.9484, -65.2891, 1.12648
5.288, 6, -1.83662, 21.7644, 33.5357, -1.98847, -65.3637, 1.14928
5.292, 6, -1.87494, 21.8197, 33.4998, -2.02844, -65.4383, 1.172
5.296, 6, -1.91323, 21.875, 33.4638, -2.06832, -65.5129, 1.19466
5.3, 6, -1.95148, 21.9303, 33.4277, -2.1081, -65.5874, 1.21725
5.304, 6, -1.9897, 21.9857, 33.3915, -2.14778, -65.6618, 1.23978
5.308, 6, -2.02789, 22.0412, 33.3552, -2.18737, -65.7361, 1.26223
5.312, 6, -2.06603, 22.0966, 33.3187, -2.22686, -65.8104, 1.28462
5.316, 6, -2.10415, 22.1521, 33.2821, -2.26626, -65.8846, 1.30695
5.32, 6, -2.14223, 22.2077, 33.2454, -2.30556, -65.9587, 1.32921
5.324, 6, -2.18027, 22.2633, 33.2086, -2.34477, -66.0328, 1.35141
5.328, 6, -2.21828, 22.3189, 33.1717, -2.38388, -66.1068, 1.37354
5.332, 6, -2.25625, 22.3745, 33.1347, -2.4229, -66.1808, 1.3956
5.336, 6, -2.29419, 22.4302, 33.0976, -2.46183, -66.2546, 1.41761
5.34, 6, -2.33209, 22.4859, 33.0603, -2.50066, -66.3284, 1.43954
5.344, 6, -2.36996, 22.5416, 33.0229, -2.5394, -66.4022, 1.46142
5.348, 6, -2.40779, 22.5974, 32.9854, -2.57804, -66.4758, 1.48323
5.352, 6, -2.44559, 22.6532, 32.9478, -2.61659, -66.5494, 1.50499
5.356, 6, -2.48335, 22.7091, 32.9101, -2.65505, -66.6229, 1.52667
5.36, 6, -2.52108, 22.765, 32.8722, -2.69342, -66.6964, 1.5483
5.364, 6, -2.55877, 22.8209, 32.8343, -2.7317, -66.7698, 1.56987
5.368, 6, -2.59643, 22.8768, 32.7962, -2.76988, -66.8431, 1.59138
5.372, 6, -2.63405, 22.9328, 32.758, -2.80797, -66.9163, 1.61282
5.376, 6, -2.67163, 22.9889, 32.7197, -2.84597, -66.9895, 1.63421
5.38, 6, -2.70918, 23.0449, 32.6813, -2.88389, -67.0626, 1.65554
5.384, 6, -2.74669, 23.101, 32.6428, -2.92171, -67.1356, 1.6768
5.388, 6, -2.78417, 23.1571, 32.6041, -2.95944, -67.2086, 1.69801
5.392, 6, -2.82162, 23.2133, 32.5654, -2.99708, -67.2815, 1.71916
5.396, 6, -2.85902, 23.2694, 32.5265, -3.03463, -67.3543, 1.74026
5.4, 6, -2.89639, 23.3257, 32.4875, -3.07209, -67.427, 1.76129
5.404, 6, -2.93373, 23.3819, 32.4484, -3.10946, -67.4997, 1.78227
5.408, 6, -2.97103, 23.4382, 32.4092, -3.14674, -67.5723, 1.80319
5.412, 6, -3.00829, 23.4945, 32.3698, -3.18393, -67.6448, 1.82406
5.416, 6, -3.04552, 23.5508, 32.3304, -3.22104, -67.7173, 1.84487
5.42, 6, -3.08272, 23.6072, 32.2908, -3.25806, -67.7897, 1.86562
5.424, 6, -3.11987, 23.6636, 32.2511, -3.29499, -67.862, 1.88632
5.428, 6, -3.15699, 23.7201, 32.2113, -3.33183, -67.9342, 1.90696
5.432, 6, -3.19408, 23.7765, 32.1714, -3.36858, -68.0064, 1.92755
5.436, 6, -3.23113, 23.833, 32.1313, -3.40525, -68.0785, 1.94809
5.44, 6, -3.26814, 23.8896, 32.0912, -3.44183, -68.1505, 1.96857
5.444, 6, -3.30512, 23.9461, 32.0509, -3.47833, -68.2224, 1.989
5.448, 6, -3.34206, 24.0027, 32.0105, -3.51473, -68.2943, 2.00937
5.452, 6, -3.37896, 24.0594, 31.97, -3.55106, -68.3661, 2.02969
5.456, 6, -3.41583, 24.116, 31.9294, -3.58729, -68.4378, 2.04996
5.46, 6, -3.45266, 24.1727, 31.8887, -3.62344, -68.5094, 2.07018
5.464, 6, -3.48946, 24.2294, 31.8478, -3.65951, -68.581, 2.09034
5.468, 6, -3.52622, 24.2862, 31.8069, -3.69549, -68.6525, 2.11046
5.472, 6, -3.56294, 24.3429, 31.7658, -3.73138, -68.7239, 2.13052
5.476, 6, -3.59963, 24.3997, 31.7246, -3.76719, -68.7952, 2.15054
5.48, 6, -3.63628, 24.4566, 31.6833, -3.80292, -68.8665, 2.1705
5.484, 6, -3.6729, 24.5134, 31.6419, -3.83856, -68.9377, 2.19041
5.488, 6, -3.70947, 24.5703, 31.6003, -3.87412, -69.0088, 2.21028
5.492, 6, -3.74601, 24.6273, 31.5587, -3.90959, -69.0798, 2.23009
5.496, 6, -3.78252, 24.6842, 31.5169, -3.94498, -69.1508, 2.24986
5.5, 6, -3.81898, 24.7412, 31.475, -3.98029, -69.2216, 2.26958
5.504, 6, -3.85542, 24.7982, 31.433, -4.01552, -69.2924, 2.28925
5.508, 6, -3.89181, 24.8553, 31.3909, -4.05066, -69.3632, 2.30887
5.512, 6, -3.92817, 24.9123, 31.3486, -4.08572, -69.4338, 2.32844
5.516, 6, -3.96449, 24.9694, 31.3063, -4.1207, -69.5043, 2.34797
5.52, 6, -4.00077, 25.0265, 31.2638, -4.1556, -69.5748, 2.36746
5.524, 6, -4.03702, 25.0837, 31.2212, -4.19041, -69.6452, 2.38689
5.528, 6, -4.07323, 25.1409, 31.1785, -4.22514, -69.7156, 2.40628
5.532, 6, -4.1094, 25.1981, 31.1357, -4.2598, -69.7858, 2.42563
5.536, 6, -4.14554, 25.2553, 31.0928, -4.29437, -69.856, 2.44493
5.54, 6, -4.18164, 25.3126, 31.0497, -4.32886, -69.926, 2.46418
5.544, 6, -4.2177, 25.3699, 31.0066, -4.36327, -69.996, 2.48339
5.548, 6, -4.25372, 25.4272, 30.9633, -4.39759, -70.066, 2.50256
5.552, 6, -4.28971, 25.4846, 30.9199, -4.43184, -70.1358, 2.52169
5.556, 6, -4.32567, 25.5419, 30.8764, -4.46601, -70.2056, 2.54077
5.56, 6, -4.36158, 25.5993, 30.8327, -4.5001, -70.2752, 2.5598
5.564, 6, -4.39746, 25.6568, 30.789, -4.53411, -70.3448, 2.5788
5.568, 6, -4.4333, 25.7142, 30.7451, -4.56803, -70.4144, 2.59775
5.572, 6, -4.4691, 25.7717, 30.7012, -4.60188, -70.4838, 2.61666
5.576, 6, -4.50487, 25.8292, 30.6571, -4.63565, -70.5532, 2.63553
5.58, 6, -4.5406, 25.8867, 30.6129, -4.66934, -70.6224, 2.65435
5.584, 6, -4.5763, 25.9443, 30.5685, -4.70296, -70.6916, 2.67314
5.588, 6, -4.61195, 26.0019, 30.5241, -4.73649, -70.7607, 2.69188
5.592, 6, -4.64757, 26.0595, 30.4795, -4.76994, -70.8298, 2.71058
5.596, 6, -4.68315, 26.1171, 30.4349, -4.80332, -70.8987, 2.72925
5.6, 6, -4.7187, 26.1748, 30.3901, -4.83662, -70.9676, 2.74787
5.604, 6, -4.75421, 26.2325, 30.3452, -4.86984, -71.0364, 2.76645
5.608, 6, -4.78968, 26.2902, 30.3001, -4.90298, -71.1051, 2.785
5.612, 6, -4.82511, 26.348, 30.255, -4.93604, -71.1737, 2.8035
5.616, 6, -4.86051, 26.4057, 30.2097, -4.96903, -71.2422, 2.82197
5.62, 6, -4.89587, 26.4635, 30.1644, -5.00194, -71.3107, 2.84039
5.624, 6, -4.93119, 26.5214, 30.1189, -5.03477, -71.3791, 2.85878
5.628, 6, -4.96648, 26.5792, 30.0733, -5.06752, -71.4473, 2.87713
5.632, 6, -5.00173, 26.6371, 30.0276, -5.1002, -71.5156, 2.89544
5.636, 6, -5.03694, 26.695, 29.9818, -5.1328, -71.5837, 2.91372
5.64, 6, -5.07212, 26.7529, 29.9358, -5.16533, -71.6517, 2.93196
5.644, 6, -5.10725, 26.8108, 29.8898, -5.19777, -71.7197, 2.95016
5.648, 6, -5.14236, 26.8688, 29.8436, -5.23015, -71.7876, 2.96832
5.652, 6, -5.17742, 26.9268, 29.7973, -5.26244, -71.8554, 2.98645
5.656, 6, -5.21245, 26.9848, 29.7509, -5.29466, -71.9231, 3.00454
5.66, 6, -5.24744, 27.0429, 29.7044, -5.3268, -71.9907, 3.0226
5.664, 6, -5.28239, 27.101, 29.6577, -5.35887, -72.0582, 3.04062
5.668, 6, -5.31731, 27.1591, 29.611, -5.39086, -72.1257, 3.0586
5.672, 6, -5.35219, 27.2172, 29.5641, -5.42278, -72.1931, 3.07655
5.676, 6, -5.38703, 27.2753, 29.5171, -5.45462, -72.2604, 3.09447
5.68, 6, -5.42184, 27.3335, 29.47, -5.48639, -72.3276, 3.11235
5.684, 6, -5.45661, 27.3917, 29.4228, -5.51808, -72.3947, 3.1302
5.688, 6, -5.49134, 27.4499, 29.3755, -5.5497, -72.4618, 3.14801
5.692, 6, -5.52604, 27.5081, 29.3281, -5.58124, -72.5287, 3.16579
5.696, 6, -5.5607, 27.5664, 29.2805, -5.61271, -72.5956, 3.18354
5.7, 6, -5.59532, 27.6247, 29.2328, -5.6441, -72.6624, 3.20125
5.704, 6, -5.62991, 27.683, 29.185, -5.67542, -72.7291, 3.21893
5.708, 6, -5.66446, 27.7414, 29.1371, -5.70667, -72.7957, 3.23658
5.712, 6, -5.69897, 27.7997, 29.0891, -5.73784, -72.8623, 3.2542
5.716, 6, -5.73344, 27.8581, 29.041, -5.76894, -72.9287, 3.27178
5.72, 6, -5.76788, 27.9165, 28.9927, -5.79996, -72.9951, 3.28933
5.724, 6, -5.80228, 27.9749, 28.9444, -5.83091, -73.0614, 3.30685
5.728, 6, -5.83665, 28.0334, 28.8959, -5.86179, -73.1276, 3.32434
5.732, 6, -5.87098, 28.0919, 28.8473, -5.89259, -73.1937, 3.3418
5.736, 6, -5.90527, 28.1504, 28.7986, -5.92332, -73.2597, 3.35923
5.74, 6, -5.93952, 28.2089, 28.7498, -5.95398, -73.3257, 3.37663
5.744, 6, -5.97374, 28.2675, 28.7008, -5.98457, -73.3915, 3.394
5.748, 6, -6.00792, 28.326, 28.6518, -6.01508, -73.4573, 3.41134
5.752, 6, -6.04206, 28.3846, 28.6026, -6.04552, -73.523, 3.42865
5.756, 6, -6.07617, 28.4432, 28.5534, -6.07589, -73.5886, 3.44593
5.76, 6, -6.11024, 28.5019, 28.504, -6.10618, -73.6541, 3.46318
5.764, 6, -6.14427, 28.5605, 28.4544, -6.1364, -73.7195, 3.4804
5.768, 6, -6.17827, 28.6192, 28.4048, -6.16656, -73.7849, 3.49759
5.772, 6, -6.21223, 28.6779, 28.3551, -6.19664, -73.8501, 3.51476
5.776, 6, -6.24615, 28.7367, 28.3052, -6.22664, -73.9153, 3.53189
5.78, 6, -6.28004, 28.7954, 28.2553, -6.25658, -73.9804, 3.549
5.784, 6, -6.31389, 28.8542, 28.2052, -6.28645, -74.0454, 3.56609
5.788, 6, -6.3477, 28.913, 28.155, -6.31624, -74.1103, 3.58314
5.792, 6, -6.38147, 28.9718, 28.1047, -6.34596, -74.1751, 3.60017
5.796, 6, -6.41521, 29.0307, 28.0542, -6.37561, -74.2399, 3.61717
5.8, 6, -6.44892, 29.0895, 28.0037, -6.4052, -74.3045, 3.63415
5.804, 6, -6.48258, 29.1484, 27.953, -6.43471, -74.3691, 3.6511
5.808, 6, -6.51621, 29.2073, 27.9022, -6.46414, -74.4336, 3.66802
5.812, 6, -6.5498, 29.2663, 27.8514, -6.49351, -74.498, 3.68492
5.816, 6, -6.58335, 29.3252, 27.8004, -6.52281, -74.5623, 3.70179
5.82, 6, -6.61687, 29.3842, 27.7492, -6.55204, -74.6265, 3.71864
5.824, 6, -6.65035, 29.4432, 27.698, -6.5812, -74.6906, 3.73546
5.828, 6, -6.68379, 29.5022, 27.6466, -6.61029, -74.7547, 3.75226
5.832, 6, -6.7172, 29.5612, 27.5952, -6.6393, -74.8186, 3.76903
5.836, 6, -6.75057, 29.6203, 27.5436, -6.66825, -74.8825, 3.78578
5.84, 6, -6.7839, 29.6794, 27.4919, -6.69713, -74.9463, 3.80251
5.844, 6, -6.8172, 29.7385, 27.4401, -6.72594, -75.0099, 3.81921
5.848, 6, -6.85045, 29.7976, 27.3882, -6.75468, -75.0735, 3.83589
5.852, 6, -6.88368, 29.8568, 27.3361, -6.78335, -75.1371, 3.85255
5.856, 6, -6.91686, 29.9159, 27.284, -6.81195, -75.2005, 3.86918
5.86, 6, -6.95001, 29.9751, 27.2317, -6.84048, -75.2638, 3.88579
5.864, 6, -6.98312, 30.0343, 27.1793, -6.86895, -75.3271, 3.90238
5.868, 6, -7.01619, 30.0936, 27.1268, -6.89734, -75.3902, 3.91895
5.872, 6, -7.04923, 30.1528, 27.0742, -6.92567, -75.4533, 3.93549
5.876, 6, -7.08223, 30.2121, 27.0215, -6.95392, -75.5163, 3.95202
5.88, 6, -7.11519, 30.2714, 26.9686, -6.98211, -75.5791, 3.96852
5.884, 6, -7.14811, 30.3307, 26.9157, -7.01023, -75.642, 3.985
5.888, 6, -7.181, 30.39, 26.8626, -7.03829, -75.7047, 4.00146
5.892, 6, -7.21385, 30.4494, 26.8094, -7.06627, -75.7673, 4.0179
5.896, 6, -7.24667, 30.5087, 26.7561, -7.09419, -75.8298, 4.03432
5.9, 6, -7.27944, 30.5681, 26.7027, -7.12203, -75.8923, 4.05072
5.904, 6, -7.31218, 30.6275, 26.6491, -7.14981, -75.9546, 4.0671
5.908, 6, -7.34489, 30.687, 26.5955, -7.17753, -76.0169, 4.08346
5.912, 6, -7.37755, 30.7464, 26.5417, -7.20517, -76.079, 4.09981
5.916, 6, -7.41018, 30.8059, 26.4878, -7.23275, -76.1411, 4.11613
5.92, 6, -7.44277, 30.8654, 26.4338, -7.26026, -76.2031, 4.13243
5.924, 6, -7.47533, 30.9249, 26.3797, -7.2877, -76.265, 4.14872
5.928, 6, -7.50784, 30.9845, 26.3255, -7.31508, -76.3268, 4.16499
5.932, 6, -7.54033, 31.044, 26.2711, -7.34239, -76.3885, 4.18123
5.936, 6, -7.57277, 31.1036, 26.2167, -7.36963, -76.4502, 4.19747
5.94, 6, -7.60517, 31.1632, 26.1621, -7.3968, -76.5117, 4.21368
5.944, 6, -7.63754, 31.2228, 26.1074, -7.42391, -76.5731, 4.22988
5.948, 6, -7.66987, 31.2824, 26.0526, -7.45095, -76.6345, 4.24606
5.952, 6, -7.70217, 31.3421, 25.9977, -7.47793, -76.6957, 4.26222
