hehonglu123/ABB_Primitive_Study/execution/movec+movel_smooth/curve_exe_v400_z10.csv
timestamp, cmd_num, J1, J2, J3, J4, J5, J6
0, 1, 32.7465, 54.2623, -9.50115, 89.6875, -78.664, 35.1143
0.002, 1, 32.7465, 54.2623, -9.50115, 89.6875, -78.664, 35.1143
0.004, 1, 32.7465, 54.2623, -9.50115, 89.6875, -78.664, 35.1143
0.008, 1, 32.7465, 54.2623, -9.50115, 89.6875, -78.664, 35.1143
0.011, 1, 32.7465, 54.2623, -9.50115, 89.6875, -78.664, 35.1143
0.016, 1, 32.7465, 54.2623, -9.50115, 89.6875, -78.664, 35.1143
0.02, 1, 32.7465, 54.2623, -9.50115, 89.6875, -78.664, 35.1143
0.024, 1, 32.7465, 54.2623, -9.50115, 89.6875, -78.664, 35.1143
0.028, 1, 32.7465, 54.2623, -9.50115, 89.6875, -78.664, 35.1143
0.032, 1, 32.7465, 54.2623, -9.50115, 89.6875, -78.664, 35.1143
0.036, 1, 32.7465, 54.2623, -9.50115, 89.6875, -78.664, 35.1143
0.04, 1, 32.7466, 54.2623, -9.50115, 89.6875, -78.664, 35.1143
0.044, 1, 32.7467, 54.2621, -9.50116, 89.6875, -78.664, 35.1143
0.048, 1, 32.7471, 54.2618, -9.50116, 89.6875, -78.6639, 35.1143
0.052, 1, 32.7479, 54.2611, -9.50118, 89.6876, -78.6638, 35.1144
0.056, 1, 32.7491, 54.2598, -9.50124, 89.6877, -78.6634, 35.1145
0.06, 1, 32.7507, 54.2577, -9.50136, 89.6879, -78.6626, 35.1147
0.064, 1, 32.7529, 54.2547, -9.50159, 89.6883, -78.6611, 35.1152
0.068, 1, 32.7556, 54.2507, -9.502, 89.689, -78.6586, 35.1161
0.072, 1, 32.7588, 54.2455, -9.50267, 89.6902, -78.6545, 35.1174
0.076, 1, 32.7625, 54.2391, -9.5037, 89.692, -78.6482, 35.1195
0.08, 1, 32.7668, 54.2314, -9.50521, 89.6946, -78.6391, 35.1225
0.084, 1, 32.7718, 54.2224, -9.50734, 89.6982, -78.6262, 35.1267
0.088, 1, 32.7776, 54.212, -9.51024, 89.7032, -78.6088, 35.1325
0.092, 1, 32.784, 54.2002, -9.5141, 89.7098, -78.5857, 35.1401
0.096, 1, 32.7912, 54.1873, -9.51908, 89.7183, -78.5559, 35.1499
0.1, 1, 32.7988, 54.1733, -9.52538, 89.729, -78.5183, 35.1622
0.104, 1, 32.8067, 54.1585, -9.53315, 89.7422, -78.472, 35.1774
0.108, 1, 32.815, 54.143, -9.54252, 89.7581, -78.4163, 35.1957
0.112, 1, 32.8235, 54.1267, -9.55357, 89.7769, -78.3507, 35.2173
0.116, 1, 32.8324, 54.1096, -9.56636, 89.7986, -78.2748, 35.2423
0.12, 1, 32.8415, 54.0916, -9.58087, 89.8232, -78.1888, 35.2705
0.124, 1, 32.8511, 54.0725, -9.59706, 89.8507, -78.0929, 35.3021
0.128, 1, 32.8611, 54.0525, -9.61485, 89.8808, -77.9875, 35.3367
0.131, 1, 32.8716, 54.0317, -9.63411, 89.9134, -77.8735, 35.3742
0.136, 1, 32.8823, 54.0101, -9.65471, 89.9483, -77.7516, 35.4142
0.139, 1, 32.8932, 53.9877, -9.67648, 89.9852, -77.6227, 35.4566
0.144, 1, 32.9045, 53.9644, -9.69923, 90.0237, -77.4881, 35.5008
0.148, 1, 32.9163, 53.9399, -9.72278, 90.0636, -77.3487, 35.5466
0.152, 1, 32.9288, 53.914, -9.74695, 90.1045, -77.2057, 35.5936
0.156, 1, 32.942, 53.8866, -9.77157, 90.1462, -77.0599, 35.6415
0.16, 1, 32.9561, 53.8575, -9.79651, 90.1885, -76.9123, 35.6901
0.164, 1, 32.9711, 53.8271, -9.82165, 90.231, -76.7634, 35.739
0.168, 1, 32.9869, 53.7955, -9.84692, 90.2739, -76.6137, 35.7882
0.172, 1, 33.0032, 53.7631, -9.87226, 90.3168, -76.4636, 35.8375
0.176, 1, 33.02, 53.7302, -9.89762, 90.3598, -76.3133, 35.8869
0.18, 1, 33.037, 53.6969, -9.92299, 90.4028, -76.163, 35.9363
0.184, 1, 33.0541, 53.6634, -9.94833, 90.4457, -76.0128, 35.9857
0.188, 1, 33.0714, 53.6298, -9.97365, 90.4886, -75.8628, 36.035
0.192, 1, 33.0888, 53.5962, -9.99894, 90.5315, -75.713, 36.0842
0.196, 1, 33.1061, 53.5625, -10.0242, 90.5743, -75.5634, 36.1334
0.2, 1, 33.1235, 53.5289, -10.0494, 90.617, -75.4141, 36.1825
0.204, 1, 33.1409, 53.4952, -10.0745, 90.6596, -75.265, 36.2315
0.208, 1, 33.1582, 53.4616, -10.0996, 90.7021, -75.1163, 36.2804
0.212, 1, 33.1755, 53.4281, -10.1247, 90.7446, -74.9678, 36.3292
0.216, 1, 33.1928, 53.3946, -10.1497, 90.787, -74.8197, 36.3779
0.22, 1, 33.2101, 53.3612, -10.1746, 90.8292, -74.6718, 36.4265
0.224, 1, 33.2273, 53.3278, -10.1995, 90.8714, -74.5242, 36.475
0.228, 1, 33.2446, 53.2945, -10.2244, 90.9136, -74.377, 36.5234
0.232, 1, 33.2617, 53.2613, -10.2492, 90.9556, -74.23, 36.5717
0.236, 1, 33.2789, 53.2282, -10.2739, 90.9975, -74.0834, 36.6199
0.24, 1, 33.296, 53.1951, -10.2986, 91.0394, -73.937, 36.668
0.244, 1, 33.313, 53.162, -10.3233, 91.0812, -73.7909, 36.716
0.248, 1, 33.3301, 53.1291, -10.3479, 91.1229, -73.6451, 36.7639
0.252, 1, 33.3471, 53.0962, -10.3724, 91.1645, -73.4996, 36.8117
0.256, 1, 33.364, 53.0633, -10.3969, 91.206, -73.3544, 36.8595
0.26, 1, 33.381, 53.0306, -10.4214, 91.2474, -73.2095, 36.9071
0.264, 1, 33.3979, 52.9979, -10.4458, 91.2888, -73.0649, 36.9546
0.268, 1, 33.4147, 52.9652, -10.4701, 91.3301, -72.9206, 37.0021
0.272, 1, 33.4316, 52.9327, -10.4944, 91.3713, -72.7765, 37.0494
0.276, 1, 33.4484, 52.9002, -10.5187, 91.4124, -72.6327, 37.0967
0.28, 1, 33.4651, 52.8677, -10.5429, 91.4534, -72.4893, 37.1438
0.284, 1, 33.4819, 52.8353, -10.5671, 91.4944, -72.346, 37.1909
0.288, 1, 33.4986, 52.803, -10.5912, 91.5353, -72.2031, 37.2379
0.292, 1, 33.5152, 52.7708, -10.6153, 91.5761, -72.0604, 37.2848
0.296, 1, 33.5319, 52.7386, -10.6393, 91.6168, -71.9181, 37.3316
0.3, 1, 33.5485, 52.7065, -10.6633, 91.6574, -71.776, 37.3783
0.304, 1, 33.5651, 52.6744, -10.6872, 91.698, -71.6341, 37.4249
0.308, 1, 33.5816, 52.6424, -10.7111, 91.7385, -71.4925, 37.4714
0.312, 1, 33.5981, 52.6104, -10.7349, 91.7789, -71.3513, 37.5179
0.316, 1, 33.6146, 52.5785, -10.7587, 91.8192, -71.2102, 37.5642
0.32, 1, 33.631, 52.5467, -10.7825, 91.8595, -71.0695, 37.6105
0.324, 1, 33.6474, 52.5149, -10.8062, 91.8997, -70.929, 37.6567
0.328, 1, 33.6638, 52.4832, -10.8299, 91.9398, -70.7887, 37.7028
0.332, 1, 33.6802, 52.4516, -10.8535, 91.9798, -70.6488, 37.7488
0.336, 1, 33.6965, 52.42, -10.8771, 92.0198, -70.509, 37.7947
0.34, 1, 33.7128, 52.3885, -10.9006, 92.0597, -70.3696, 37.8405
0.344, 1, 33.7291, 52.357, -10.9241, 92.0995, -70.2304, 37.8863
0.348, 1, 33.7453, 52.3256, -10.9475, 92.1392, -70.0914, 37.9319
0.352, 1, 33.7615, 52.2942, -10.9709, 92.1789, -69.9528, 37.9775
0.356, 1, 33.7777, 52.2629, -10.9943, 92.2185, -69.8143, 38.023
0.36, 1, 33.7938, 52.2317, -11.0176, 92.258, -69.6762, 38.0685
0.364, 1, 33.8099, 52.2005, -11.0409, 92.2974, -69.5382, 38.1138
0.368, 1, 33.826, 52.1694, -11.0641, 92.3368, -69.4006, 38.159
0.372, 1, 33.8421, 52.1383, -11.0873, 92.3761, -69.2631, 38.2042
0.376, 1, 33.8581, 52.1073, -11.1104, 92.4153, -69.126, 38.2493
0.38, 1, 33.8741, 52.0763, -11.1336, 92.4545, -68.989, 38.2943
0.384, 1, 33.8901, 52.0454, -11.1566, 92.4936, -68.8523, 38.3392
0.388, 1, 33.906, 52.0146, -11.1796, 92.5326, -68.7159, 38.3841
0.392, 1, 33.9219, 51.9838, -11.2026, 92.5716, -68.5797, 38.4288
0.396, 1, 33.9378, 51.953, -11.2256, 92.6104, -68.4437, 38.4735
0.4, 1, 33.9537, 51.9224, -11.2485, 92.6493, -68.308, 38.5181
0.404, 1, 33.9695, 51.8917, -11.2713, 92.688, -68.1725, 38.5627
0.408, 1, 33.9853, 51.8611, -11.2942, 92.7267, -68.0373, 38.6071
0.412, 1, 34.0011, 51.8306, -11.3169, 92.7653, -67.9023, 38.6515
0.416, 1, 34.0168, 51.8002, -11.3397, 92.8038, -67.7675, 38.6958
0.42, 1, 34.0326, 51.7697, -11.3624, 92.8423, -67.633, 38.74
0.424, 1, 34.0483, 51.7394, -11.385, 92.8807, -67.4987, 38.7842
0.428, 1, 34.0639, 51.7091, -11.4077, 92.9191, -67.3646, 38.8282
0.432, 1, 34.0796, 51.6788, -11.4302, 92.9574, -67.2307, 38.8722
0.436, 1, 34.0952, 51.6486, -11.4528, 92.9956, -67.0971, 38.9161
0.44, 1, 34.1108, 51.6184, -11.4753, 93.0337, -66.9637, 38.96
0.444, 1, 34.1263, 51.5883, -11.4978, 93.0718, -66.8306, 39.0038
0.448, 1, 34.1418, 51.5583, -11.5202, 93.1098, -66.6976, 39.0474
0.452, 1, 34.1573, 51.5282, -11.5426, 93.1478, -66.5649, 39.0911
0.456, 1, 34.1728, 51.4983, -11.565, 93.1857, -66.4324, 39.1346
0.46, 1, 34.1883, 51.4684, -11.5873, 93.2235, -66.3002, 39.1781
0.464, 1, 34.2037, 51.4385, -11.6096, 93.2613, -66.1681, 39.2215
0.468, 1, 34.2191, 51.4087, -11.6318, 93.299, -66.0363, 39.2648
0.472, 1, 34.2345, 51.379, -11.654, 93.3366, -65.9047, 39.3081
0.476, 1, 34.2498, 51.3493, -11.6762, 93.3742, -65.7733, 39.3513
0.48, 1, 34.2652, 51.3196, -11.6983, 93.4117, -65.6421, 39.3944
0.484, 1, 34.2805, 51.29, -11.7204, 93.4492, -65.5111, 39.4374
0.488, 1, 34.2957, 51.2604, -11.7425, 93.4865, -65.3804, 39.4804
0.492, 1, 34.311, 51.2309, -11.7645, 93.5239, -65.2498, 39.5233
0.496, 1, 34.3262, 51.2014, -11.7865, 93.5611, -65.1195, 39.5662
0.5, 1, 34.3414, 51.172, -11.8085, 93.5984, -64.9894, 39.6089
0.504, 1, 34.3566, 51.1426, -11.8304, 93.6355, -64.8595, 39.6516
0.508, 1, 34.3718, 51.1133, -11.8523, 93.6726, -64.7298, 39.6943
0.512, 1, 34.3869, 51.084, -11.8741, 93.7096, -64.6003, 39.7368
0.516, 1, 34.402, 51.0548, -11.8959, 93.7466, -64.471, 39.7793
0.52, 1, 34.4171, 51.0256, -11.9177, 93.7835, -64.3419, 39.8217
0.524, 1, 34.4321, 50.9965, -11.9395, 93.8204, -64.213, 39.8641
0.528, 1, 34.4472, 50.9674, -11.9612, 93.8572, -64.0844, 39.9064
0.532, 1, 34.4622, 50.9384, -11.9828, 93.8939, -63.9559, 39.9486
0.536, 1, 34.4771, 50.9094, -12.0045, 93.9306, -63.8276, 39.9908
0.54, 1, 34.4921, 50.8804, -12.0261, 93.9672, -63.6996, 40.0329
0.544, 1, 34.507, 50.8515, -12.0477, 94.0038, -63.5717, 40.0749
0.548, 1, 34.522, 50.8226, -12.0692, 94.0403, -63.444, 40.1169
0.552, 1, 34.5369, 50.7938, -12.0907, 94.0768, -63.3166, 40.1588
0.556, 1, 34.5517, 50.765, -12.1122, 94.1132, -63.1893, 40.2006
0.56, 1, 34.5666, 50.7363, -12.1337, 94.1495, -63.0622, 40.2424
0.564, 1, 34.5814, 50.7076, -12.1551, 94.1858, -62.9353, 40.2841
0.568, 1, 34.5962, 50.679, -12.1764, 94.2221, -62.8086, 40.3257
0.572, 1, 34.611, 50.6504, -12.1978, 94.2582, -62.6821, 40.3673
0.576, 1, 34.6257, 50.6218, -12.2191, 94.2943, -62.5558, 40.4088
0.58, 1, 34.6405, 50.5933, -12.2404, 94.3304, -62.4297, 40.4502
0.584, 1, 34.6552, 50.5648, -12.2616, 94.3664, -62.3038, 40.4916
0.588, 1, 34.6699, 50.5364, -12.2828, 94.4024, -62.1781, 40.533
0.592, 1, 34.6845, 50.508, -12.304, 94.4383, -62.0525, 40.5742
0.596, 1, 34.6992, 50.4797, -12.3252, 94.4741, -61.9272, 40.6154
0.6, 1, 34.7138, 50.4514, -12.3463, 94.5099, -61.802, 40.6566
0.604, 1, 34.7284, 50.4231, -12.3674, 94.5457, -61.677, 40.6977
0.608, 1, 34.743, 50.3949, -12.3884, 94.5814, -61.5522, 40.7387
0.612, 1, 34.7575, 50.3667, -12.4095, 94.617, -61.4276, 40.7796
0.616, 1, 34.7721, 50.3386, -12.4305, 94.6526, -61.3032, 40.8205
0.62, 1, 34.7866, 50.3105, -12.4514, 94.6881, -61.1789, 40.8614
0.624, 1, 34.8011, 50.2824, -12.4724, 94.7236, -61.0548, 40.9022
0.628, 1, 34.8155, 50.2544, -12.4933, 94.7591, -60.931, 40.9429
0.632, 1, 34.83, 50.2265, -12.5142, 94.7944, -60.8073, 40.9835
0.636, 1, 34.8444, 50.1985, -12.535, 94.8298, -60.6837, 41.0241
0.64, 1, 34.8588, 50.1707, -12.5558, 94.865, -60.5604, 41.0647
0.644, 1, 34.8732, 50.1428, -12.5766, 94.9003, -60.4372, 41.1052
0.648, 1, 34.8876, 50.115, -12.5973, 94.9354, -60.3142, 41.1456
0.652, 1, 34.9019, 50.0872, -12.6181, 94.9706, -60.1914, 41.1859
0.656, 1, 34.9163, 50.0595, -12.6388, 95.0056, -60.0688, 41.2263
0.66, 1, 34.9306, 50.0318, -12.6594, 95.0407, -59.9463, 41.2665
0.664, 1, 34.9449, 50.0042, -12.6801, 95.0756, -59.824, 41.3067
0.668, 1, 34.9591, 49.9766, -12.7007, 95.1106, -59.7019, 41.3468
0.672, 1, 34.9734, 49.949, -12.7212, 95.1454, -59.58, 41.3869
0.676, 1, 34.9876, 49.9215, -12.7418, 95.1803, -59.4582, 41.427
0.68, 1, 35.0018, 49.894, -12.7623, 95.215, -59.3366, 41.4669
0.684, 1, 35.016, 49.8665, -12.7828, 95.2498, -59.2151, 41.5068
0.688, 1, 35.0301, 49.8391, -12.8033, 95.2844, -59.0939, 41.5467
0.692, 1, 35.0443, 49.8117, -12.8237, 95.3191, -58.9728, 41.5865
0.696, 1, 35.0584, 49.7844, -12.8441, 95.3537, -58.8519, 41.6262
0.7, 1, 35.0725, 49.7571, -12.8645, 95.3882, -58.7311, 41.6659
0.704, 1, 35.0866, 49.7298, -12.8848, 95.4227, -58.6105, 41.7056
0.708, 1, 35.1007, 49.7026, -12.9051, 95.4571, -58.4901, 41.7451
0.712, 1, 35.1147, 49.6754, -12.9254, 95.4915, -58.3698, 41.7847
0.716, 1, 35.1288, 49.6482, -12.9457, 95.5259, -58.2497, 41.8241
0.72, 1, 35.1428, 49.6211, -12.9659, 95.5602, -58.1298, 41.8636
0.724, 1, 35.1568, 49.5941, -12.9862, 95.5944, -58.01, 41.9029
0.728, 1, 35.1707, 49.567, -13.0063, 95.6286, -57.8904, 41.9422
0.732, 1, 35.1847, 49.54, -13.0265, 95.6628, -57.771, 41.9815
0.736, 1, 35.1986, 49.513, -13.0466, 95.6969, -57.6517, 42.0207
0.74, 1, 35.2125, 49.4861, -13.0667, 95.731, -57.5326, 42.0599
0.744, 1, 35.2264, 49.4592, -13.0868, 95.765, -57.4136, 42.099
0.748, 1, 35.2403, 49.4324, -13.1068, 95.799, -57.2948, 42.138
0.752, 1, 35.2542, 49.4055, -13.1269, 95.8329, -57.1762, 42.177
0.756, 1, 35.268, 49.3787, -13.1468, 95.8668, -57.0577, 42.2159
0.76, 1, 35.2818, 49.352, -13.1668, 95.9006, -56.9394, 42.2548
0.764, 1, 35.2956, 49.3253, -13.1868, 95.9344, -56.8212, 42.2937
0.768, 1, 35.3094, 49.2986, -13.2067, 95.9682, -56.7032, 42.3325
0.772, 1, 35.3232, 49.272, -13.2266, 96.0019, -56.5854, 42.3712
0.776, 1, 35.3369, 49.2453, -13.2464, 96.0355, -56.4676, 42.4099
0.78, 1, 35.3507, 49.2188, -13.2663, 96.0692, -56.3501, 42.4485
0.784, 1, 35.3644, 49.1922, -13.2861, 96.1027, -56.2327, 42.4871
0.788, 1, 35.3781, 49.1657, -13.3058, 96.1363, -56.1155, 42.5257
0.792, 1, 35.3917, 49.1392, -13.3256, 96.1698, -55.9984, 42.5641
0.796, 1, 35.4054, 49.1128, -13.3453, 96.2032, -55.8814, 42.6026
0.8, 1, 35.4191, 49.0864, -13.365, 96.2366, -55.7646, 42.641
0.804, 1, 35.4327, 49.06, -13.3847, 96.27, -55.648, 42.6793
0.808, 1, 35.4463, 49.0337, -13.4044, 96.3033, -55.5315, 42.7176
0.812, 1, 35.4599, 49.0074, -13.424, 96.3365, -55.4151, 42.7558
0.816, 1, 35.4734, 48.9811, -13.4436, 96.3698, -55.2989, 42.794
0.82, 1, 35.487, 48.9549, -13.4632, 96.403, -55.1829, 42.8322
0.824, 1, 35.5005, 48.9287, -13.4828, 96.4361, -55.067, 42.8703
0.828, 1, 35.5141, 48.9025, -13.5023, 96.4692, -54.9512, 42.9083
0.832, 1, 35.5276, 48.8764, -13.5218, 96.5023, -54.8356, 42.9463
0.836, 1, 35.5411, 48.8503, -13.5413, 96.5353, -54.7201, 42.9843
0.84, 1, 35.5545, 48.8242, -13.5608, 96.5683, -54.6048, 43.0222
0.844, 1, 35.568, 48.7981, -13.5802, 96.6012, -54.4896, 43.06
0.848, 1, 35.5814, 48.7721, -13.5996, 96.6341, -54.3746, 43.0979
0.852, 1, 35.5949, 48.7461, -13.619, 96.667, -54.2597, 43.1356
0.856, 1, 35.6083, 48.7202, -13.6384, 96.6998, -54.1449, 43.1733
0.86, 1, 35.6216, 48.6943, -13.6577, 96.7326, -54.0303, 43.211
0.864, 1, 35.635, 48.6684, -13.677, 96.7654, -53.9158, 43.2486
0.868, 1, 35.6483, 48.6426, -13.6963, 96.798, -53.8015, 43.2862
0.872, 1, 35.6616, 48.6169, -13.7156, 96.8307, -53.6873, 43.3238
0.876, 1, 35.6747, 48.5912, -13.7348, 96.8633, -53.5732, 43.3612
0.88, 1, 35.6878, 48.5656, -13.754, 96.8959, -53.4594, 43.3987
0.884, 1, 35.7008, 48.5402, -13.7732, 96.9284, -53.3457, 43.436
0.888, 1, 35.7135, 48.515, -13.7924, 96.9608, -53.2323, 43.4733
0.892, 1, 35.726, 48.4902, -13.8115, 96.9932, -53.1192, 43.5105
0.896, 1, 35.738, 48.466, -13.8305, 97.0254, -53.0066, 43.5475
0.9, 1, 35.7494, 48.4426, -13.8494, 97.0574, -52.8946, 43.5843
0.904, 1, 35.7603, 48.4201, -13.8682, 97.0892, -52.7836, 43.6208
0.908, 1, 35.7705, 48.3986, -13.8867, 97.1205, -52.6741, 43.6568
0.912, 1, 35.7802, 48.3781, -13.9049, 97.1513, -52.5665, 43.6922
0.916, 1, 35.7894, 48.3586, -13.9227, 97.1813, -52.4615, 43.7267
0.92, 1, 35.7982, 48.3399, -13.9399, 97.2104, -52.3599, 43.7602
0.924, 1, 35.8067, 48.3221, -13.9564, 97.2383, -52.2624, 43.7923
0.928, 1, 35.8148, 48.3051, -13.9721, 97.2649, -52.1697, 43.8228
0.932, 1, 35.8225, 48.2891, -13.9869, 97.2898, -52.0824, 43.8514
0.936, 1, 35.8299, 48.274, -14.0006, 97.313, -52.0014, 43.8781
0.94, 1, 35.837, 48.2597, -14.0132, 97.3343, -51.927, 43.9026
0.944, 1, 35.8438, 48.2461, -14.0246, 97.3535, -51.8598, 43.9247
0.948, 1, 35.8505, 48.233, -14.0347, 97.3706, -51.8, 43.9443
0.952, 1, 35.8571, 48.2204, -14.0435, 97.3856, -51.7476, 43.9615
0.956, 1, 35.8636, 48.2083, -14.0511, 97.3985, -51.7026, 43.9763
0.96, 1, 35.8699, 48.1968, -14.0574, 97.4093, -51.6646, 43.9888
0.964, 1, 35.8759, 48.1861, -14.0627, 97.4183, -51.633, 43.9991
0.968, 2, 35.8815, 48.1763, -14.067, 97.4257, -51.6074, 44.0075
0.972, 2, 35.8866, 48.1676, -14.0704, 97.4315, -51.5869, 44.0143
0.976, 2, 35.8914, 48.16, -14.073, 97.436, -51.5709, 44.0195
0.98, 2, 35.8957, 48.1533, -14.075, 97.4395, -51.5587, 44.0235
0.984, 2, 35.8997, 48.1475, -14.0765, 97.4421, -51.5496, 44.0264
0.988, 2, 35.9032, 48.1427, -14.0776, 97.444, -51.543, 44.0286
0.992, 2, 35.9062, 48.1387, -14.0784, 97.4453, -51.5382, 44.0302
0.996, 2, 35.9087, 48.1355, -14.0789, 97.4463, -51.5349, 44.0312
1, 2, 35.9106, 48.1332, -14.0793, 97.4469, -51.5327, 44.032
1.004, 2, 35.912, 48.1315, -14.0795, 97.4474, -51.5311, 44.0325
1.008, 2, 35.913, 48.1303, -14.0797, 97.4477, -51.5301, 44.0328
1.012, 2, 35.9137, 48.1295, -14.0798, 97.4479, -51.5293, 44.033
1.016, 2, 35.9142, 48.1289, -14.0799, 97.448, -51.5289, 44.0332
1.02, 2, 35.9145, 48.1286, -14.0799, 97.4481, -51.5285, 44.0333
1.024, 2, 35.9147, 48.1283, -14.08, 97.4482, -51.5283, 44.0334
1.027, 2, 35.9148, 48.1281, -14.08, 97.4482, -51.5282, 44.0334
1.032, 2, 35.9149, 48.128, -14.08, 97.4482, -51.5281, 44.0335
1.036, 2, 35.915, 48.1279, -14.08, 97.4482, -51.528, 44.0335
1.04, 2, 35.915, 48.1279, -14.08, 97.4483, -51.5279, 44.0335
1.044, 2, 35.9151, 48.1279, -14.08, 97.4483, -51.5279, 44.0335
1.048, 2, 35.9151, 48.1278, -14.08, 97.4483, -51.5279, 44.0335
1.052, 2, 35.9151, 48.1278, -14.08, 97.4483, -51.5279, 44.0335
1.055, 2, 35.9151, 48.1278, -14.08, 97.4483, -51.5279, 44.0335
1.06, 2, 35.9151, 48.1278, -14.08, 97.4483, -51.5279, 44.0335
1.064, 2, 35.9151, 48.1278, -14.08, 97.4483, -51.5279, 44.0335
1.068, 2, 35.9151, 48.1278, -14.08, 97.4483, -51.5278, 44.0335
1.072, 2, 35.9151, 48.1278, -14.08, 97.4483, -51.5278, 44.0335
1.076, 2, 35.9151, 48.1278, -14.08, 97.4483, -51.5278, 44.0335
1.08, 2, 35.9151, 48.1278, -14.08, 97.4483, -51.5278, 44.0335
1.084, 2, 35.9151, 48.1278, -14.08, 97.4483, -51.5278, 44.0335
1.088, 2, 35.9151, 48.1278, -14.08, 97.4483, -51.5278, 44.0335
1.091, 2, 35.9151, 48.1278, -14.08, 97.4483, -51.5278, 44.0335
1.096, 2, 35.9151, 48.1278, -14.08, 97.4483, -51.5278, 44.0335
1.1, 2, 35.9151, 48.1278, -14.08, 97.4483, -51.5278, 44.0335
1.104, 2, 35.9151, 48.1278, -14.08, 97.4483, -51.5278, 44.0335
1.108, 2, 35.9151, 48.1278, -14.08, 97.4483, -51.5278, 44.0335
1.112, 2, 35.9151, 48.1278, -14.08, 97.4483, -51.5278, 44.0335
1.116, 2, 35.9151, 48.1278, -14.08, 97.4483, -51.5278, 44.0335
1.119, 2, 35.9151, 48.1278, -14.08, 97.4483, -51.5278, 44.0335
1.124, 2, 35.9151, 48.1278, -14.08, 97.4483, -51.5278, 44.0335
1.128, 2, 35.9151, 48.1278, -14.08, 97.4483, -51.5278, 44.0335
1.132, 2, 35.9151, 48.1278, -14.08, 97.4483, -51.5278, 44.0335
1.136, 2, 35.9151, 48.1278, -14.08, 97.4483, -51.5278, 44.0335
1.14, 2, 35.9151, 48.1278, -14.08, 97.4483, -51.5278, 44.0335
1.144, 2, 35.9151, 48.1278, -14.08, 97.4483, -51.5278, 44.0335
1.147, 2, 35.9151, 48.1278, -14.08, 97.4483, -51.5278, 44.0335
1.152, 2, 35.9151, 48.1278, -14.08, 97.4483, -51.5278, 44.0335
1.156, 2, 35.9151, 48.1278, -14.08, 97.4483, -51.5278, 44.0335
1.16, 2, 35.9151, 48.1278, -14.08, 97.4483, -51.5278, 44.0335
1.164, 2, 35.9151, 48.1278, -14.08, 97.4483, -51.5278, 44.0335
1.168, 2, 35.9151, 48.1278, -14.08, 97.4483, -51.5278, 44.0335
1.172, 2, 35.9151, 48.1278, -14.08, 97.4483, -51.5278, 44.0335
1.175, 2, 35.9151, 48.1278, -14.08, 97.4483, -51.5278, 44.0335
1.18, 2, 35.9151, 48.1278, -14.08, 97.4483, -51.5278, 44.0335
1.184, 2, 35.9151, 48.1278, -14.08, 97.4483, -51.5278, 44.0335
1.188, 2, 35.9151, 48.1278, -14.08, 97.4483, -51.5278, 44.0335
1.192, 2, 35.9151, 48.1278, -14.08, 97.4483, -51.5278, 44.0335
1.196, 2, 35.9151, 48.1278, -14.08, 97.4483, -51.5278, 44.0335
1.2, 2, 35.9151, 48.1278, -14.08, 97.4483, -51.5278, 44.0335
1.204, 2, 35.9151, 48.1278, -14.08, 97.4483, -51.5278, 44.0335
1.208, 2, 35.9151, 48.1278, -14.08, 97.4483, -51.5278, 44.0335
1.212, 2, 35.9151, 48.1278, -14.08, 97.4483, -51.5278, 44.0335
1.216, 2, 35.9151, 48.1278, -14.08, 97.4483, -51.5278, 44.0335
1.22, 2, 35.9151, 48.1278, -14.08, 97.4483, -51.5278, 44.0335
1.224, 2, 35.9151, 48.1278, -14.08, 97.4483, -51.5278, 44.0335
1.228, 2, 35.9151, 48.1278, -14.08, 97.4483, -51.5278, 44.0335
1.232, 2, 35.9151, 48.1278, -14.08, 97.4483, -51.5278, 44.0335
1.236, 2, 35.9151, 48.1278, -14.08, 97.4483, -51.5278, 44.0335
1.24, 2, 35.9151, 48.1278, -14.08, 97.4483, -51.5278, 44.0335
1.244, 2, 35.9151, 48.1278, -14.08, 97.4483, -51.5278, 44.0335
1.248, 2, 35.9151, 48.1278, -14.08, 97.4483, -51.5278, 44.0335
1.252, 2, 35.9151, 48.1278, -14.08, 97.4483, -51.5278, 44.0335
1.256, 2, 35.9151, 48.1278, -14.08, 97.4483, -51.5278, 44.0335
1.26, 2, 35.9151, 48.1278, -14.08, 97.4483, -51.5278, 44.0335
1.264, 2, 35.9151, 48.1278, -14.08, 97.4483, -51.5278, 44.0335
1.267, 2, 35.9151, 48.1278, -14.08, 97.4483, -51.5278, 44.0335
1.272, 2, 35.9151, 48.1278, -14.08, 97.4483, -51.5278, 44.0335
1.276, 2, 35.9151, 48.1278, -14.08, 97.4483, -51.5278, 44.0335
1.28, 2, 35.9151, 48.1278, -14.08, 97.4483, -51.5278, 44.0335
1.284, 2, 35.9151, 48.1278, -14.08, 97.4483, -51.5278, 44.0335
1.288, 2, 35.9151, 48.1278, -14.08, 97.4483, -51.5278, 44.0335
1.292, 2, 35.9151, 48.1278, -14.08, 97.4483, -51.5278, 44.0335
1.295, 2, 35.9151, 48.1278, -14.08, 97.4483, -51.5278, 44.0335
1.3, 2, 35.9151, 48.1278, -14.08, 97.4483, -51.5278, 44.0335
1.304, 2, 35.9151, 48.1278, -14.08, 97.4483, -51.5278, 44.0335
1.308, 2, 35.9151, 48.1278, -14.08, 97.4483, -51.5278, 44.0335
1.312, 2, 35.9151, 48.1278, -14.08, 97.4483, -51.5278, 44.0335
1.316, 2, 35.9151, 48.1278, -14.08, 97.4483, -51.5278, 44.0335
1.32, 2, 35.9151, 48.1278, -14.08, 97.4483, -51.5278, 44.0335
1.324, 2, 35.9151, 48.1278, -14.08, 97.4483, -51.5278, 44.0335
1.328, 2, 35.9151, 48.1278, -14.08, 97.4483, -51.5278, 44.0335
1.332, 2, 35.9151, 48.1278, -14.08, 97.4483, -51.5278, 44.0335
1.336, 2, 35.9151, 48.1278, -14.08, 97.4483, -51.5278, 44.0335
1.34, 2, 35.9151, 48.1278, -14.08, 97.4483, -51.5278, 44.0335
1.344, 2, 35.9151, 48.1278, -14.08, 97.4483, -51.5278, 44.0335
1.348, 2, 35.9151, 48.1278, -14.08, 97.4483, -51.5278, 44.0335
1.352, 2, 35.9151, 48.1278, -14.08, 97.4483, -51.5278, 44.0335
1.356, 2, 35.9151, 48.1278, -14.08, 97.4483, -51.5278, 44.0335
1.36, 2, 35.9151, 48.1278, -14.08, 97.4483, -51.5278, 44.0335
1.364, 2, 35.9151, 48.1278, -14.08, 97.4483, -51.5278, 44.0335
1.368, 2, 35.9151, 48.1278, -14.08, 97.4483, -51.5278, 44.0335
1.372, 2, 35.9151, 48.1278, -14.08, 97.4483, -51.5278, 44.0335
1.376, 2, 35.9151, 48.1278, -14.08, 97.4483, -51.5278, 44.0335
1.38, 2, 35.9151, 48.1278, -14.08, 97.4483, -51.5278, 44.0335
1.384, 2, 35.9151, 48.1278, -14.08, 97.4483, -51.5278, 44.0335
1.388, 2, 35.9151, 48.1278, -14.08, 97.4483, -51.5278, 44.0335
1.392, 2, 35.9151, 48.1278, -14.08, 97.4483, -51.5278, 44.0335
1.396, 2, 35.9151, 48.1278, -14.08, 97.4483, -51.5278, 44.0335
1.4, 2, 35.9151, 48.1278, -14.08, 97.4483, -51.5278, 44.0335
1.404, 2, 35.9151, 48.1278, -14.08, 97.4483, -51.5278, 44.0335
1.408, 2, 35.9151, 48.1278, -14.08, 97.4483, -51.5278, 44.0335
1.412, 2, 35.9151, 48.1278, -14.08, 97.4483, -51.5278, 44.0335
1.416, 2, 35.9151, 48.1278, -14.08, 97.4483, -51.5278, 44.0335
1.42, 2, 35.9151, 48.1278, -14.08, 97.4483, -51.5278, 44.0335
1.424, 2, 35.9151, 48.1278, -14.08, 97.4483, -51.5278, 44.0335
1.428, 2, 35.9151, 48.1278, -14.08, 97.4483, -51.5278, 44.0335
1.432, 2, 35.9151, 48.1278, -14.08, 97.4483, -51.5278, 44.0335
1.436, 2, 35.9151, 48.1278, -14.08, 97.4483, -51.5278, 44.0335
1.44, 2, 35.9151, 48.1278, -14.08, 97.4483, -51.5278, 44.0335
1.444, 2, 35.9151, 48.1278, -14.08, 97.4483, -51.5278, 44.0335
1.448, 2, 35.9151, 48.1278, -14.08, 97.4483, -51.5278, 44.0335
1.452, 2, 35.9151, 48.1278, -14.08, 97.4483, -51.5278, 44.0335
1.456, 2, 35.9151, 48.1278, -14.08, 97.4483, -51.5278, 44.0335
1.46, 2, 35.9151, 48.1278, -14.08, 97.4483, -51.5278, 44.0335
1.464, 2, 35.9151, 48.1278, -14.08, 97.4483, -51.5278, 44.0335
1.468, 2, 35.9151, 48.1278, -14.08, 97.4483, -51.5278, 44.0335
1.472, 2, 35.9151, 48.1278, -14.08, 97.4483, -51.5278, 44.0335
1.476, 2, 35.9151, 48.1278, -14.08, 97.4483, -51.5278, 44.0335
1.48, 2, 35.9151, 48.1278, -14.08, 97.4483, -51.5278, 44.0335
1.484, 2, 35.9151, 48.1278, -14.08, 97.4483, -51.5278, 44.0335
1.488, 2, 35.9151, 48.1278, -14.08, 97.4483, -51.5278, 44.0335
1.492, 2, 35.9151, 48.1278, -14.08, 97.4483, -51.5278, 44.0335
1.496, 2, 35.9151, 48.1278, -14.08, 97.4483, -51.5278, 44.0335
1.5, 2, 35.9151, 48.1278, -14.08, 97.4483, -51.5278, 44.0335
1.504, 2, 35.9151, 48.1278, -14.08, 97.4483, -51.5278, 44.0335
1.508, 2, 35.9151, 48.1278, -14.08, 97.4483, -51.5278, 44.0335
1.512, 2, 35.9151, 48.1278, -14.08, 97.4483, -51.5278, 44.0335
1.516, 2, 35.9151, 48.1278, -14.08, 97.4483, -51.5278, 44.0335
1.52, 2, 35.9151, 48.1278, -14.08, 97.4483, -51.5278, 44.0335
1.524, 2, 35.9151, 48.1278, -14.08, 97.4483, -51.5278, 44.0335
1.528, 2, 35.9151, 48.1278, -14.08, 97.4483, -51.5278, 44.0335
1.532, 2, 35.9151, 48.1278, -14.08, 97.4483, -51.5278, 44.0335
1.536, 2, 35.9151, 48.1278, -14.08, 97.4483, -51.5278, 44.0335
1.54, 2, 35.9151, 48.1278, -14.08, 97.4483, -51.5278, 44.0335
1.544, 2, 35.9151, 48.1278, -14.08, 97.4483, -51.5278, 44.0335
1.548, 2, 35.9151, 48.1278, -14.08, 97.4483, -51.5278, 44.0335
1.552, 2, 35.9151, 48.1278, -14.08, 97.4483, -51.5278, 44.0335
1.556, 2, 35.9151, 48.1278, -14.08, 97.4483, -51.5278, 44.0335
1.56, 2, 35.9151, 48.1278, -14.08, 97.4483, -51.5278, 44.0335
1.564, 2, 35.9151, 48.1278, -14.08, 97.4483, -51.5278, 44.0335
1.568, 2, 35.9151, 48.1278, -14.08, 97.4483, -51.5278, 44.0335
1.572, 2, 35.9151, 48.1278, -14.08, 97.4483, -51.5278, 44.0335
1.576, 2, 35.9151, 48.1278, -14.08, 97.4483, -51.5278, 44.0335
1.58, 2, 35.9151, 48.1278, -14.08, 97.4483, -51.5278, 44.0335
1.584, 2, 35.9151, 48.1278, -14.08, 97.4483, -51.5278, 44.0335
1.588, 2, 35.9151, 48.1278, -14.08, 97.4483, -51.5278, 44.0335
1.592, 2, 35.9151, 48.1278, -14.08, 97.4483, -51.5278, 44.0335
1.596, 2, 35.9151, 48.1278, -14.08, 97.4483, -51.5278, 44.0335
1.6, 2, 35.9151, 48.1278, -14.08, 97.4483, -51.5278, 44.0335
1.604, 2, 35.9151, 48.1278, -14.08, 97.4483, -51.5278, 44.0335
1.608, 2, 35.9151, 48.1278, -14.08, 97.4483, -51.5278, 44.0335
1.612, 2, 35.9151, 48.1278, -14.08, 97.4483, -51.5278, 44.0335
1.616, 2, 35.9151, 48.1278, -14.08, 97.4483, -51.5278, 44.0335
1.62, 2, 35.9151, 48.1278, -14.08, 97.4483, -51.5278, 44.0335
1.624, 2, 35.9151, 48.1278, -14.08, 97.4483, -51.5278, 44.0335
1.628, 2, 35.9151, 48.1278, -14.08, 97.4483, -51.5278, 44.0335
1.632, 2, 35.9151, 48.1278, -14.08, 97.4483, -51.5278, 44.0335
1.636, 2, 35.9151, 48.1278, -14.08, 97.4483, -51.5278, 44.0335
1.64, 2, 35.9151, 48.1278, -14.08, 97.4483, -51.5278, 44.0335
1.644, 2, 35.9151, 48.1278, -14.08, 97.4483, -51.5278, 44.0335
1.648, 2, 35.9151, 48.1278, -14.08, 97.4483, -51.5278, 44.0335
1.652, 2, 35.9151, 48.1278, -14.08, 97.4483, -51.5278, 44.0335
1.656, 2, 35.9151, 48.1278, -14.08, 97.4483, -51.5278, 44.0335
1.66, 2, 35.9151, 48.1278, -14.08, 97.4483, -51.5278, 44.0335
1.664, 2, 35.9151, 48.1278, -14.08, 97.4483, -51.5278, 44.0335
1.668, 2, 35.9151, 48.1278, -14.08, 97.4483, -51.5278, 44.0335
1.672, 2, 35.9151, 48.1278, -14.08, 97.4483, -51.5278, 44.0335
1.676, 2, 35.9151, 48.1278, -14.08, 97.4483, -51.5278, 44.0335
1.68, 2, 35.9151, 48.1278, -14.08, 97.4483, -51.5278, 44.0335
1.684, 2, 35.9151, 48.1278, -14.08, 97.4483, -51.5278, 44.0335
1.688, 2, 35.9151, 48.1278, -14.08, 97.4483, -51.5278, 44.0335
1.692, 2, 35.9151, 48.1278, -14.08, 97.4483, -51.5278, 44.0335
1.696, 2, 35.9151, 48.1278, -14.08, 97.4483, -51.5278, 44.0335
1.7, 2, 35.9151, 48.1278, -14.08, 97.4483, -51.5278, 44.0335
1.704, 2, 35.9151, 48.1278, -14.08, 97.4483, -51.5278, 44.0335
1.708, 2, 35.9151, 48.1278, -14.08, 97.4483, -51.5278, 44.0335
1.712, 2, 35.9151, 48.1278, -14.08, 97.4483, -51.5278, 44.0335
1.716, 2, 35.9151, 48.1278, -14.08, 97.4483, -51.5278, 44.0335
1.72, 2, 35.9151, 48.1278, -14.08, 97.4483, -51.5278, 44.0335
1.724, 2, 35.9151, 48.1278, -14.08, 97.4483, -51.5278, 44.0335
1.728, 2, 35.9151, 48.1278, -14.08, 97.4483, -51.5278, 44.0335
1.732, 2, 35.9151, 48.1278, -14.08, 97.4483, -51.5278, 44.0335
1.736, 2, 35.9151, 48.1278, -14.08, 97.4483, -51.5278, 44.0335
1.74, 2, 35.9151, 48.1278, -14.08, 97.4483, -51.5278, 44.0335
1.744, 2, 35.9151, 48.1278, -14.08, 97.4483, -51.5278, 44.0335
1.748, 2, 35.9151, 48.1278, -14.08, 97.4483, -51.5278, 44.0335
1.752, 2, 35.9151, 48.1278, -14.08, 97.4483, -51.5278, 44.0335
1.756, 2, 35.9151, 48.1278, -14.08, 97.4483, -51.5278, 44.0335
1.76, 2, 35.9151, 48.1278, -14.08, 97.4483, -51.5278, 44.0335
1.764, 2, 35.9151, 48.1278, -14.08, 97.4483, -51.5278, 44.0335
1.768, 2, 35.9151, 48.1278, -14.08, 97.4483, -51.5278, 44.0335
1.772, 2, 35.9151, 48.1278, -14.08, 97.4483, -51.5278, 44.0335
1.776, 2, 35.9151, 48.1278, -14.08, 97.4483, -51.5278, 44.0335
1.78, 2, 35.9151, 48.1278, -14.08, 97.4483, -51.5278, 44.0335
1.784, 2, 35.9151, 48.1278, -14.08, 97.4483, -51.5278, 44.0335
1.788, 2, 35.9151, 48.1278, -14.08, 97.4483, -51.5278, 44.0335
1.792, 2, 35.9151, 48.1278, -14.08, 97.4483, -51.5278, 44.0335
1.796, 2, 35.9151, 48.1278, -14.08, 97.4483, -51.5278, 44.0335
1.8, 2, 35.9151, 48.1278, -14.08, 97.4483, -51.5278, 44.0335
1.804, 2, 35.9151, 48.1278, -14.08, 97.4483, -51.5278, 44.0335
1.808, 2, 35.9151, 48.1278, -14.08, 97.4483, -51.5278, 44.0335
1.812, 2, 35.9151, 48.1278, -14.08, 97.4483, -51.5278, 44.0335
1.816, 2, 35.9151, 48.1278, -14.08, 97.4483, -51.5278, 44.0335
1.82, 2, 35.9151, 48.1278, -14.08, 97.4483, -51.5278, 44.0335
1.824, 2, 35.9151, 48.1278, -14.08, 97.4483, -51.5278, 44.0335
1.828, 2, 35.9151, 48.1278, -14.08, 97.4483, -51.5278, 44.0335
1.832, 2, 35.9151, 48.1278, -14.08, 97.4483, -51.5278, 44.0335
1.836, 2, 35.9151, 48.1278, -14.08, 97.4483, -51.5278, 44.0335
1.84, 2, 35.9151, 48.1278, -14.08, 97.4483, -51.5278, 44.0335
1.844, 2, 35.9151, 48.1278, -14.08, 97.4483, -51.5278, 44.0335
1.848, 2, 35.9151, 48.1278, -14.08, 97.4483, -51.5278, 44.0335
1.852, 2, 35.9151, 48.1278, -14.08, 97.4483, -51.5278, 44.0335
1.856, 2, 35.9151, 48.1278, -14.08, 97.4483, -51.5278, 44.0335
1.86, 2, 35.9151, 48.1278, -14.08, 97.4483, -51.5278, 44.0335
1.864, 2, 35.9151, 48.1278, -14.08, 97.4483, -51.5278, 44.0335
1.868, 2, 35.9151, 48.1278, -14.08, 97.4483, -51.5278, 44.0335
1.872, 2, 35.9151, 48.1278, -14.08, 97.4483, -51.5278, 44.0335
1.876, 2, 35.9151, 48.1278, -14.08, 97.4483, -51.5278, 44.0335
1.88, 2, 35.9151, 48.1278, -14.08, 97.4483, -51.5278, 44.0335
1.884, 2, 35.9151, 48.1278, -14.08, 97.4483, -51.5278, 44.0335
1.888, 2, 35.9151, 48.1278, -14.08, 97.4483, -51.5278, 44.0335
1.892, 2, 35.9151, 48.1278, -14.08, 97.4483, -51.5278, 44.0335
1.896, 2, 35.9151, 48.1278, -14.08, 97.4483, -51.5278, 44.0335
1.9, 2, 35.9151, 48.1278, -14.08, 97.4483, -51.5278, 44.0335
1.904, 2, 35.9151, 48.1278, -14.08, 97.4483, -51.5278, 44.0335
1.908, 2, 35.9151, 48.1278, -14.08, 97.4483, -51.5278, 44.0335
1.912, 2, 35.9151, 48.1278, -14.08, 97.4483, -51.5278, 44.0335
1.916, 2, 35.9151, 48.1278, -14.08, 97.4483, -51.5278, 44.0335
1.92, 2, 35.9151, 48.1278, -14.08, 97.4483, -51.5278, 44.0335
1.924, 2, 35.9151, 48.1278, -14.08, 97.4483, -51.5278, 44.0335
1.928, 2, 35.9151, 48.1278, -14.08, 97.4483, -51.5278, 44.0335
1.932, 2, 35.9151, 48.1278, -14.08, 97.4483, -51.5278, 44.0335
1.936, 2, 35.9151, 48.1278, -14.08, 97.4483, -51.5278, 44.0335
1.94, 2, 35.9151, 48.1278, -14.08, 97.4483, -51.5278, 44.0335
1.944, 2, 35.9151, 48.1278, -14.08, 97.4483, -51.5278, 44.0335
1.948, 2, 35.9151, 48.1278, -14.08, 97.4483, -51.5278, 44.0335
1.952, 2, 35.9151, 48.1278, -14.08, 97.4483, -51.5278, 44.0335
1.956, 2, 35.9151, 48.1278, -14.08, 97.4483, -51.5278, 44.0335
1.96, 2, 35.9151, 48.1278, -14.08, 97.4483, -51.5278, 44.0335
1.964, 2, 35.9151, 48.1278, -14.08, 97.4483, -51.5278, 44.0335
1.968, 3, 35.9151, 48.1278, -14.08, 97.4483, -51.5278, 44.0335
1.972, 3, 35.9151, 48.1278, -14.08, 97.4483, -51.5278, 44.0335
1.976, 3, 35.9151, 48.1278, -14.08, 97.4483, -51.5278, 44.0335
1.98, 3, 35.9151, 48.1278, -14.08, 97.4483, -51.5278, 44.0335
1.984, 3, 35.9151, 48.1278, -14.08, 97.4483, -51.5278, 44.0335
1.988, 3, 35.9151, 48.1278, -14.08, 97.4483, -51.5278, 44.0335
1.992, 3, 35.9151, 48.1278, -14.08, 97.4483, -51.5278, 44.0335
1.996, 3, 35.9151, 48.1278, -14.08, 97.4483, -51.5278, 44.0335
1.999, 3, 35.9151, 48.1278, -14.08, 97.4483, -51.5278, 44.0335
2.004, 4, 35.9151, 48.1278, -14.08, 97.4483, -51.5278, 44.0335
2.008, 4, 35.9151, 48.1278, -14.08, 97.4483, -51.5278, 44.0335
2.012, 4, 35.9151, 48.1278, -14.08, 97.4483, -51.5278, 44.0335
2.015, 4, 35.9151, 48.1278, -14.08, 97.4483, -51.5278, 44.0335
2.019, 4, 35.9151, 48.1278, -14.08, 97.4483, -51.5278, 44.0335
2.024, 4, 35.9151, 48.1278, -14.08, 97.4483, -51.5278, 44.0335
2.028, 4, 35.9151, 48.1278, -14.08, 97.4483, -51.5278, 44.0335
2.031, 4, 35.9151, 48.1278, -14.08, 97.4483, -51.5278, 44.0335
2.036, 4, 35.9151, 48.1278, -14.08, 97.4483, -51.5278, 44.0335
2.04, 4, 35.9151, 48.1278, -14.08, 97.4483, -51.5278, 44.0335
2.044, 4, 35.9151, 48.1278, -14.08, 97.4483, -51.5278, 44.0335
2.048, 4, 35.9151, 48.1278, -14.08, 97.4483, -51.5278, 44.0335
2.051, 4, 35.9151, 48.1278, -14.08, 97.4483, -51.5278, 44.0335
2.055, 4, 35.9151, 48.1278, -14.08, 97.4483, -51.5278, 44.0335
2.06, 4, 35.9151, 48.1278, -14.08, 97.4483, -51.5278, 44.0335
2.064, 4, 35.9151, 48.1278, -14.08, 97.4483, -51.5278, 44.0335
2.068, 4, 35.9151, 48.1278, -14.08, 97.4483, -51.5278, 44.0335
2.071, 4, 35.9151, 48.1278, -14.08, 97.4483, -51.5278, 44.0335
2.076, 4, 35.9151, 48.1278, -14.08, 97.4483, -51.5278, 44.0335
2.08, 4, 35.9151, 48.1278, -14.08, 97.4483, -51.5278, 44.0335
2.084, 4, 35.9151, 48.1278, -14.08, 97.4483, -51.5278, 44.0335
2.087, 4, 35.9151, 48.1278, -14.08, 97.4483, -51.5278, 44.0335
2.092, 4, 35.9151, 48.1278, -14.08, 97.4483, -51.5278, 44.0335
2.096, 4, 35.9151, 48.1278, -14.08, 97.4483, -51.5278, 44.0335
2.1, 4, 35.9151, 48.1278, -14.08, 97.4483, -51.5278, 44.0335
2.104, 5, 35.9151, 48.1278, -14.08, 97.4483, -51.5278, 44.0335
2.107, 6, 35.9151, 48.1278, -14.08, 97.4483, -51.5278, 44.0335
2.112, 6, 35.9151, 48.1278, -14.08, 97.4483, -51.5278, 44.0335
2.116, 6, 35.9151, 48.1278, -14.08, 97.4483, -51.5278, 44.0335
2.12, 6, 35.9151, 48.1278, -14.08, 97.4483, -51.5278, 44.0335
2.124, 6, 35.9151, 48.1278, -14.08, 97.4483, -51.5278, 44.0335
2.127, 6, 35.9151, 48.1278, -14.08, 97.4483, -51.5278, 44.0335
2.132, 6, 35.9151, 48.1278, -14.08, 97.4483, -51.5278, 44.0335
2.136, 6, 35.9151, 48.1278, -14.08, 97.4483, -51.5278, 44.0335
2.14, 6, 35.9151, 48.1278, -14.08, 97.4483, -51.5278, 44.0335
2.143, 6, 35.915, 48.128, -14.08, 97.4483, -51.5279, 44.0335
2.148, 6, 35.9148, 48.1283, -14.08, 97.4483, -51.5279, 44.0335
2.152, 6, 35.9144, 48.1291, -14.08, 97.4483, -51.5281, 44.0334
2.156, 6, 35.9137, 48.1303, -14.08, 97.4482, -51.5284, 44.0333
2.16, 6, 35.9128, 48.1322, -14.0799, 97.4481, -51.5292, 44.033
2.163, 6, 35.9115, 48.1347, -14.0798, 97.4478, -51.5306, 44.0325
2.168, 6, 35.91, 48.138, -14.0797, 97.4474, -51.533, 44.0316
2.172, 6, 35.9082, 48.1421, -14.0795, 97.4468, -51.5369, 44.0301
2.176, 6, 35.9062, 48.1471, -14.0792, 97.4458, -51.5427, 44.0279
2.179, 6, 35.904, 48.1531, -14.0787, 97.4444, -51.5512, 44.0247
2.184, 6, 35.9016, 48.1601, -14.0781, 97.4425, -51.5628, 44.0202
2.188, 6, 35.899, 48.1684, -14.0773, 97.4398, -51.5784, 44.0143
2.192, 6, 35.8962, 48.1778, -14.0762, 97.4364, -51.5987, 44.0066
2.196, 6, 35.8932, 48.1883, -14.0749, 97.432, -51.6243, 43.9968
2.199, 6, 35.8903, 48.1997, -14.0732, 97.4266, -51.656, 43.9847
2.204, 6, 35.8873, 48.2119, -14.0712, 97.42, -51.6942, 43.9702
2.208, 6, 35.8843, 48.2248, -14.0688, 97.4122, -51.7395, 43.953
2.212, 6, 35.8814, 48.2385, -14.0661, 97.4031, -51.7919, 43.9331
2.216, 6, 35.8785, 48.253, -14.0629, 97.3928, -51.8515, 43.9104
2.219, 6, 35.8756, 48.2684, -14.0593, 97.3811, -51.9182, 43.8851
2.224, 6, 35.8726, 48.2848, -14.0552, 97.3682, -51.9915, 43.8573
2.228, 6, 35.8695, 48.3022, -14.0508, 97.3541, -52.0711, 43.8272
2.232, 6, 35.8663, 48.3205, -14.046, 97.339, -52.1563, 43.795
2.235, 6, 35.863, 48.3398, -14.0408, 97.3229, -52.2465, 43.7609
2.24, 6, 35.8595, 48.3601, -14.0353, 97.3059, -52.341, 43.7253
2.244, 6, 35.8558, 48.3812, -14.0295, 97.2882, -52.4391, 43.6883
2.248, 6, 35.8518, 48.4033, -14.0233, 97.2698, -52.54, 43.6504
2.252, 6, 35.8476, 48.4264, -14.017, 97.2509, -52.6432, 43.6116
2.255, 6, 35.8429, 48.4504, -14.0104, 97.2316, -52.748, 43.5723
2.259, 6, 35.8379, 48.4753, -14.0035, 97.2119, -52.8539, 43.5326
2.264, 6, 35.8326, 48.501, -13.9965, 97.192, -52.9607, 43.4927
2.268, 6, 35.8269, 48.5272, -13.9893, 97.1718, -53.068, 43.4527
2.272, 6, 35.821, 48.5538, -13.982, 97.1513, -53.1757, 43.4126
2.275, 6, 35.815, 48.5807, -13.9744, 97.1307, -53.2835, 43.3725
2.28, 6, 35.8088, 48.6076, -13.9667, 97.1099, -53.3915, 43.3324
2.284, 6, 35.8025, 48.6346, -13.9589, 97.089, -53.4996, 43.2923
2.288, 6, 35.7961, 48.6617, -13.9508, 97.0679, -53.6077, 43.2523
2.291, 6, 35.7897, 48.6887, -13.9427, 97.0466, -53.7158, 43.2124
2.296, 6, 35.7832, 48.7157, -13.9343, 97.0252, -53.8238, 43.1725
2.3, 6, 35.7766, 48.7426, -13.9258, 97.0036, -53.9319, 43.1327
2.304, 6, 35.77, 48.7695, -13.9172, 96.9819, -54.0399, 43.093
2.308, 6, 35.7633, 48.7963, -13.9084, 96.96, -54.1478, 43.0534
2.311, 6, 35.7565, 48.823, -13.8995, 96.938, -54.2557, 43.0138
2.316, 6, 35.7497, 48.8496, -13.8904, 96.9159, -54.3636, 42.9744
2.32, 6, 35.7429, 48.8761, -13.8811, 96.8936, -54.4714, 42.935
2.324, 6, 35.736, 48.9026, -13.8717, 96.8712, -54.5792, 42.8957
2.328, 6, 35.729, 48.929, -13.8621, 96.8486, -54.6869, 42.8564
2.331, 6, 35.722, 48.9553, -13.8524, 96.826, -54.7945, 42.8173
2.336, 6, 35.715, 48.9815, -13.8425, 96.8031, -54.9021, 42.7782
2.34, 6, 35.7079, 49.0076, -13.8325, 96.7802, -55.0096, 42.7392
2.344, 6, 35.7007, 49.0336, -13.8223, 96.757, -55.1171, 42.7003
2.347, 6, 35.6935, 49.0595, -13.8119, 96.7338, -55.2245, 42.6615
2.352, 6, 35.6863, 49.0854, -13.8014, 96.7104, -55.3319, 42.6227
2.356, 6, 35.679, 49.1111, -13.7907, 96.6869, -55.4392, 42.584
2.36, 6, 35.6716, 49.1368, -13.7799, 96.6633, -55.5465, 42.5454
2.364, 6, 35.6642, 49.1624, -13.7689, 96.6395, -55.6537, 42.5069
2.367, 6, 35.6568, 49.1879, -13.7578, 96.6157, -55.7608, 42.4684
2.372, 6, 35.6493, 49.2133, -13.7465, 96.5916, -55.8679, 42.43
2.376, 6, 35.6418, 49.2386, -13.7351, 96.5675, -55.975, 42.3917
2.38, 6, 35.6342, 49.2638, -13.7235, 96.5432, -56.082, 42.3534
2.383, 6, 35.6265, 49.2889, -13.7117, 96.5188, -56.1889, 42.3152
2.388, 6, 35.6188, 49.314, -13.6998, 96.4942, -56.2958, 42.2771
2.392, 6, 35.6111, 49.3389, -13.6877, 96.4696, -56.4026, 42.2391
2.396, 6, 35.6033, 49.3638, -13.6755, 96.4448, -56.5094, 42.2011
2.4, 6, 35.5955, 49.3886, -13.6631, 96.4199, -56.6161, 42.1632
2.403, 6, 35.5876, 49.4132, -13.6506, 96.3948, -56.7228, 42.1253
2.408, 6, 35.5796, 49.4378, -13.6379, 96.3696, -56.8294, 42.0875
2.412, 6, 35.5716, 49.4623, -13.6251, 96.3443, -56.9359, 42.0498
2.416, 6, 35.5636, 49.4867, -13.6121, 96.3189, -57.0424, 42.0122
2.42, 6, 35.5555, 49.511, -13.5989, 96.2934, -57.1489, 41.9746
2.423, 6, 35.5474, 49.5353, -13.5856, 96.2677, -57.2553, 41.9371
2.428, 6, 35.5392, 49.5594, -13.5721, 96.2419, -57.3616, 41.8996
2.432, 6, 35.531, 49.5834, -13.5585, 96.216, -57.4679, 41.8622
2.436, 6, 35.5227, 49.6074, -13.5448, 96.19, -57.5742, 41.8249
2.439, 6, 35.5144, 49.6312, -13.5308, 96.1639, -57.6803, 41.7876
2.444, 6, 35.506, 49.655, -13.5167, 96.1376, -57.7865, 41.7504
2.448, 6, 35.4976, 49.6787, -13.5025, 96.1112, -57.8926, 41.7132
2.452, 6, 35.4891, 49.7022, -13.4881, 96.0847, -57.9986, 41.6761
2.456, 6, 35.4806, 49.7257, -13.4736, 96.0581, -58.1046, 41.6391
2.459, 6, 35.472, 49.7491, -13.4588, 96.0314, -58.2105, 41.6021
2.464, 6, 35.4634, 49.7724, -13.444, 96.0045, -58.3164, 41.5652
2.468, 6, 35.4547, 49.7956, -13.429, 95.9775, -58.4222, 41.5283
2.472, 6, 35.446, 49.8187, -13.4138, 95.9505, -58.5279, 41.4915
2.476, 6, 35.4373, 49.8417, -13.3985, 95.9232, -58.6336, 41.4548
2.479, 6, 35.4285, 49.8647, -13.383, 95.8959, -58.7393, 41.4181
2.484, 6, 35.4196, 49.8875, -13.3674, 95.8685, -58.8449, 41.3814
2.488, 6, 35.4107, 49.9102, -13.3516, 95.841, -58.9505, 41.3449
2.492, 6, 35.4017, 49.9329, -13.3356, 95.8133, -59.056, 41.3083
2.495, 6, 35.3927, 49.9554, -13.3195, 95.7855, -59.1614, 41.2718
2.5, 6, 35.3837, 49.9779, -13.3033, 95.7577, -59.2668, 41.2354
2.504, 6, 35.3746, 50.0003, -13.2869, 95.7297, -59.3722, 41.199
2.508, 6, 35.3655, 50.0225, -13.2703, 95.7016, -59.4775, 41.1627
2.512, 6, 35.3563, 50.0447, -13.2536, 95.6734, -59.5828, 41.1264
2.515, 6, 35.347, 50.0668, -13.2367, 95.6451, -59.688, 41.0902
2.52, 6, 35.3377, 50.0887, -13.2197, 95.6166, -59.7931, 41.054
2.524, 6, 35.3284, 50.1106, -13.2025, 95.5881, -59.8982, 41.0179
2.528, 6, 35.319, 50.1324, -13.1851, 95.5594, -60.0033, 40.9818
2.531, 6, 35.3096, 50.1541, -13.1676, 95.5307, -60.1082, 40.9457
2.536, 6, 35.3001, 50.1757, -13.15, 95.5018, -60.2132, 40.9097
2.54, 6, 35.2906, 50.1972, -13.1322, 95.4729, -60.3181, 40.8738
2.544, 6, 35.281, 50.2186, -13.1142, 95.4438, -60.4229, 40.8379
2.548, 6, 35.2714, 50.2399, -13.0961, 95.4146, -60.5277, 40.802
2.551, 6, 35.2618, 50.2611, -13.0778, 95.3853, -60.6325, 40.7662
2.556, 6, 35.252, 50.2823, -13.0594, 95.3559, -60.7372, 40.7305
2.56, 6, 35.2423, 50.3033, -13.0408, 95.3264, -60.8418, 40.6947
2.564, 6, 35.2325, 50.3242, -13.022, 95.2968, -60.9464, 40.6591
2.568, 6, 35.2226, 50.345, -13.0031, 95.2671, -61.0509, 40.6234
2.571, 6, 35.2127, 50.3658, -12.9841, 95.2373, -61.1554, 40.5878
2.576, 6, 35.2028, 50.3864, -12.9649, 95.2074, -61.2599, 40.5523
2.58, 6, 35.1928, 50.4069, -12.9455, 95.1774, -61.3643, 40.5168
2.584, 6, 35.1827, 50.4273, -12.926, 95.1473, -61.4686, 40.4813
2.587, 6, 35.1726, 50.4477, -12.9063, 95.1171, -61.5729, 40.4458
2.592, 6, 35.1625, 50.4679, -12.8865, 95.0868, -61.6771, 40.4104
2.596, 6, 35.1523, 50.4881, -12.8665, 95.0564, -61.7813, 40.3751
2.6, 6, 35.1421, 50.5081, -12.8463, 95.0259, -61.8855, 40.3398
2.604, 6, 35.1318, 50.528, -12.826, 94.9953, -61.9896, 40.3045
2.607, 6, 35.1215, 50.5479, -12.8056, 94.9646, -62.0936, 40.2692
2.612, 6, 35.1111, 50.5676, -12.785, 94.9338, -62.1976, 40.234
2.616, 6, 35.1007, 50.5872, -12.7642, 94.9029, -62.3015, 40.1988
2.62, 6, 35.0902, 50.6068, -12.7432, 94.8719, -62.4054, 40.1637
2.624, 6, 35.0797, 50.6262, -12.7222, 94.8408, -62.5093, 40.1286
2.627, 6, 35.0692, 50.6456, -12.7009, 94.8096, -62.6131, 40.0935
2.632, 6, 35.0586, 50.6648, -12.6795, 94.7783, -62.7168, 40.0584
2.636, 6, 35.0479, 50.6839, -12.6579, 94.7469, -62.8205, 40.0234
2.64, 6, 35.0372, 50.703, -12.6362, 94.7154, -62.9242, 39.9885
2.643, 6, 35.0264, 50.7219, -12.6143, 94.6839, -63.0278, 39.9535
2.648, 6, 35.0157, 50.7408, -12.5923, 94.6522, -63.1313, 39.9186
2.652, 6, 35.0048, 50.7595, -12.5701, 94.6204, -63.2348, 39.8837
2.656, 6, 34.9939, 50.7781, -12.5478, 94.5886, -63.3383, 39.8489
2.66, 6, 34.983, 50.7967, -12.5253, 94.5566, -63.4417, 39.814
2.663, 6, 34.9721, 50.8151, -12.5026, 94.5246, -63.545, 39.7792
2.668, 6, 34.9611, 50.8335, -12.4798, 94.4925, -63.6484, 39.7444
2.672, 6, 34.95, 50.8517, -12.4569, 94.4603, -63.7516, 39.7097
2.676, 6, 34.939, 50.8699, -12.4338, 94.428, -63.8549, 39.675
2.679, 6, 34.9279, 50.888, -12.4106, 94.3957, -63.9581, 39.6403
2.684, 6, 34.9168, 50.906, -12.3872, 94.3634, -64.0613, 39.6056
2.688, 6, 34.9056, 50.924, -12.3638, 94.331, -64.1644, 39.5709
2.692, 6, 34.8945, 50.9419, -12.3403, 94.2986, -64.2676, 39.5362
2.696, 6, 34.8832, 50.9598, -12.3167, 94.2662, -64.3708, 39.5016
2.699, 6, 34.872, 50.9776, -12.2931, 94.2338, -64.474, 39.4669
2.704, 6, 34.8606, 50.9955, -12.2695, 94.2016, -64.5772, 39.4323
2.708, 6, 34.8493, 51.0133, -12.2458, 94.1693, -64.6805, 39.3976
2.712, 6, 34.8378, 51.0312, -12.2222, 94.1372, -64.7839, 39.363
2.716, 6, 34.8264, 51.0491, -12.1986, 94.1052, -64.8873, 39.3283
2.719, 6, 34.8148, 51.067, -12.175, 94.0733, -64.9908, 39.2936
2.724, 6, 34.8032, 51.085, -12.1516, 94.0415, -65.0943, 39.259
2.728, 6, 34.7915, 51.103, -12.1283, 94.0099, -65.198, 39.2243
2.732, 6, 34.7798, 51.1211, -12.105, 93.9785, -65.3018, 39.1896
2.735, 6, 34.768, 51.1393, -12.0819, 93.9472, -65.4056, 39.155
2.74, 6, 34.7562, 51.1576, -12.059, 93.916, -65.5096, 39.1203
2.744, 6, 34.7443, 51.1759, -12.0362, 93.885, -65.6136, 39.0857
2.748, 6, 34.7323, 51.1943, -12.0135, 93.8541, -65.7177, 39.051
2.752, 6, 34.7203, 51.2128, -11.991, 93.8234, -65.822, 39.0164
2.755, 6, 34.7083, 51.2315, -11.9686, 93.7928, -65.9262, 38.9818
2.76, 6, 34.6962, 51.2502, -11.9464, 93.7622, -66.0306, 38.9473
2.764, 6, 34.6841, 51.269, -11.9242, 93.7317, -66.135, 38.9128
2.768, 6, 34.672, 51.288, -11.9022, 93.7013, -66.2394, 38.8783
2.772, 6, 34.6598, 51.307, -11.8804, 93.6709, -66.3439, 38.8439
2.775, 6, 34.6475, 51.3262, -11.8586, 93.6406, -66.4484, 38.8095
2.78, 6, 34.6352, 51.3455, -11.8368, 93.6102, -66.5529, 38.7752
2.784, 6, 34.6229, 51.3649, -11.8152, 93.5799, -66.6574, 38.741
2.788, 6, 34.6105, 51.3844, -11.7936, 93.5495, -66.7619, 38.7068
2.791, 6, 34.5981, 51.404, -11.7721, 93.519, -66.8663, 38.6726
2.796, 6, 34.5857, 51.4238, -11.7506, 93.4886, -66.9708, 38.6385
2.8, 6, 34.5731, 51.4436, -11.7292, 93.458, -67.0752, 38.6045
2.804, 6, 34.5606, 51.4636, -11.7077, 93.4275, -67.1797, 38.5705
2.808, 6, 34.5479, 51.4836, -11.6864, 93.3968, -67.284, 38.5366
2.811, 6, 34.5352, 51.5038, -11.665, 93.3662, -67.3884, 38.5028
2.816, 6, 34.5225, 51.524, -11.6437, 93.3354, -67.4928, 38.469
2.82, 6, 34.5097, 51.5443, -11.6224, 93.3046, -67.5971, 38.4353
2.824, 6, 34.4968, 51.5648, -11.6012, 93.2738, -67.7013, 38.4016
2.828, 6, 34.4839, 51.5853, -11.58, 93.2428, -67.8056, 38.3681
2.831, 6, 34.4709, 51.606, -11.5588, 93.2119, -67.9098, 38.3345
2.836, 6, 34.4578, 51.6267, -11.5376, 93.1808, -68.014, 38.3011
2.84, 6, 34.4447, 51.6475, -11.5165, 93.1497, -68.1182, 38.2676
2.844, 6, 34.4315, 51.6684, -11.4953, 93.1186, -68.2224, 38.2343
2.847, 6, 34.4182, 51.6895, -11.4743, 93.0874, -68.3265, 38.201
2.852, 6, 34.4049, 51.7106, -11.4532, 93.0561, -68.4306, 38.1678
2.856, 6, 34.3915, 51.7318, -11.4322, 93.0248, -68.5347, 38.1346
2.86, 6, 34.3781, 51.7531, -11.4112, 92.9934, -68.6387, 38.1015
2.864, 6, 34.3646, 51.7745, -11.3902, 92.962, -68.7427, 38.0684
2.867, 6, 34.351, 51.796, -11.3692, 92.9305, -68.8467, 38.0354
2.872, 6, 34.3373, 51.8176, -11.3483, 92.8989, -68.9507, 38.0025
2.876, 6, 34.3236, 51.8392, -11.3274, 92.8673, -69.0546, 37.9696
2.88, 6, 34.3099, 51.861, -11.3066, 92.8356, -69.1585, 37.9368
2.883, 6, 34.296, 51.8829, -11.2857, 92.8039, -69.2624, 37.904
2.888, 6, 34.2821, 51.9048, -11.2649, 92.7721, -69.3663, 37.8713
2.892, 6, 34.2682, 51.9269, -11.2441, 92.7403, -69.4701, 37.8387
2.896, 6, 34.2541, 51.949, -11.2234, 92.7084, -69.5739, 37.8061
2.9, 6, 34.24, 51.9713, -11.2027, 92.6764, -69.6777, 37.7736
2.903, 6, 34.2259, 51.9936, -11.182, 92.6444, -69.7814, 37.7411
2.908, 6, 34.2116, 52.016, -11.1613, 92.6124, -69.8852, 37.7087
2.912, 6, 34.1973, 52.0386, -11.1407, 92.5802, -69.9889, 37.6763
2.916, 6, 34.183, 52.0612, -11.12, 92.5481, -70.0926, 37.644
2.92, 6, 34.1685, 52.0839, -11.0995, 92.5158, -70.1962, 37.6117
2.923, 6, 34.1541, 52.1067, -11.0789, 92.4835, -70.2998, 37.5795
2.928, 6, 34.1395, 52.1296, -11.0584, 92.4512, -70.4034, 37.5474
2.932, 6, 34.1249, 52.1525, -11.0379, 92.4188, -70.507, 37.5153
2.936, 6, 34.1102, 52.1756, -11.0174, 92.3864, -70.6106, 37.4832
2.939, 6, 34.0954, 52.1988, -10.9969, 92.3539, -70.7141, 37.4512
2.944, 6, 34.0806, 52.222, -10.9765, 92.3213, -70.8176, 37.4193
2.948, 6, 34.0657, 52.2454, -10.9561, 92.2887, -70.9211, 37.3874
2.952, 6, 34.0507, 52.2688, -10.9358, 92.256, -71.0245, 37.3556
2.956, 6, 34.0357, 52.2924, -10.9154, 92.2233, -71.128, 37.3238
2.959, 6, 34.0206, 52.316, -10.8951, 92.1906, -71.2314, 37.2921
2.964, 6, 34.0054, 52.3397, -10.8749, 92.1577, -71.3347, 37.2604
2.968, 6, 33.9902, 52.3635, -10.8546, 92.1249, -71.4381, 37.2288
2.972, 6, 33.9749, 52.3874, -10.8344, 92.0919, -71.5414, 37.1972
2.976, 6, 33.9596, 52.4114, -10.8142, 92.059, -71.6447, 37.1657
2.98, 6, 33.9441, 52.4355, -10.794, 92.0259, -71.748, 37.1342
2.984, 6, 33.9286, 52.4597, -10.7739, 91.9928, -71.8513, 37.1028
2.988, 6, 33.9131, 52.4839, -10.7538, 91.9597, -71.9545, 37.0715
2.992, 6, 33.8974, 52.5083, -10.7337, 91.9265, -72.0577, 37.0401
2.995, 6, 33.8817, 52.5327, -10.7137, 91.8933, -72.1609, 37.0089
3, 6, 33.8659, 52.5573, -10.6936, 91.86, -72.2641, 36.9776
3.004, 6, 33.8501, 52.5819, -10.6736, 91.8267, -72.3672, 36.9465
3.008, 6, 33.8342, 52.6066, -10.6537, 91.7933, -72.4703, 36.9154
3.012, 6, 33.8182, 52.6314, -10.6337, 91.7598, -72.5734, 36.8843
3.015, 6, 33.8022, 52.6563, -10.6138, 91.7263, -72.6765, 36.8533
3.02, 6, 33.786, 52.6813, -10.5939, 91.6928, -72.7795, 36.8223
3.024, 6, 33.7699, 52.7064, -10.5741, 91.6592, -72.8826, 36.7914
3.028, 6, 33.7536, 52.7316, -10.5543, 91.6256, -72.9856, 36.7605
3.031, 6, 33.7373, 52.7568, -10.5345, 91.5919, -73.0885, 36.7296
3.036, 6, 33.7209, 52.7822, -10.5147, 91.5581, -73.1915, 36.6989
3.04, 6, 33.7044, 52.8076, -10.495, 91.5244, -73.2944, 36.6681
3.044, 6, 33.6879, 52.8331, -10.4753, 91.4905, -73.3973, 36.6374
3.048, 6, 33.6713, 52.8588, -10.4556, 91.4566, -73.5002, 36.6068
3.051, 6, 33.6546, 52.8845, -10.4359, 91.4227, -73.6031, 36.5762
3.056, 6, 33.6379, 52.9103, -10.4163, 91.3887, -73.7059, 36.5456
3.06, 6, 33.621, 52.9361, -10.3967, 91.3547, -73.8087, 36.5151
3.064, 6, 33.6042, 52.9621, -10.3772, 91.3206, -73.9115, 36.4847
3.068, 6, 33.5872, 52.9882, -10.3576, 91.2865, -74.0143, 36.4542
3.071, 6, 33.5702, 53.0143, -10.3381, 91.2523, -74.1171, 36.4239
3.076, 6, 33.5531, 53.0406, -10.3187, 91.2181, -74.2198, 36.3935
3.08, 6, 33.5359, 53.0669, -10.2992, 91.1838, -74.3225, 36.3632
3.084, 6, 33.5187, 53.0933, -10.2798, 91.1495, -74.4252, 36.333
3.087, 6, 33.5014, 53.1198, -10.2604, 91.1151, -74.5279, 36.3028
3.092, 6, 33.484, 53.1464, -10.241, 91.0807, -74.6305, 36.2726
3.096, 6, 33.4665, 53.1731, -10.2217, 91.0463, -74.7331, 36.2425
3.1, 6, 33.449, 53.1999, -10.2024, 91.0118, -74.8357, 36.2125
3.104, 6, 33.4314, 53.2267, -10.1831, 90.9772, -74.9383, 36.1824
3.107, 6, 33.4138, 53.2537, -10.1639, 90.9426, -75.0409, 36.1524
3.112, 6, 33.396, 53.2807, -10.1447, 90.908, -75.1434, 36.1225
3.116, 6, 33.3782, 53.3078, -10.1255, 90.8733, -75.2459, 36.0926
3.12, 6, 33.3603, 53.3351, -10.1064, 90.8385, -75.3484, 36.0627
3.124, 6, 33.3424, 53.3624, -10.0872, 90.8038, -75.4509, 36.0329
3.128, 6, 33.3244, 53.3897, -10.0682, 90.7689, -75.5533, 36.0031
3.132, 6, 33.3063, 53.4172, -10.0491, 90.734, -75.6558, 35.9734
3.136, 6, 33.2881, 53.4448, -10.0301, 90.6991, -75.7582, 35.9437
3.14, 6, 33.2698, 53.4724, -10.0111, 90.6642, -75.8606, 35.9141
3.143, 6, 33.2515, 53.5002, -9.9921, 90.6292, -75.9629, 35.8844
3.148, 6, 33.2331, 53.528, -9.97317, 90.5941, -76.0653, 35.8549
3.152, 6, 33.2147, 53.5559, -9.95426, 90.559, -76.1676, 35.8253
3.156, 6, 33.1962, 53.5839, -9.93538, 90.5238, -76.2699, 35.7958
3.16, 6, 33.1775, 53.612, -9.91654, 90.4886, -76.3722, 35.7664
3.163, 6, 33.1589, 53.6401, -9.89773, 90.4534, -76.4745, 35.7369
3.168, 6, 33.1401, 53.6684, -9.87895, 90.4181, -76.5768, 35.7076
3.172, 6, 33.1213, 53.6967, -9.8602, 90.3828, -76.679, 35.6782
3.176, 6, 33.1024, 53.7251, -9.84148, 90.3474, -76.7812, 35.6489
3.179, 6, 33.0835, 53.7536, -9.82279, 90.312, -76.8834, 35.6196
3.184, 6, 33.0648, 53.782, -9.80412, 90.2765, -76.9856, 35.5904
3.188, 6, 33.0464, 53.8103, -9.78549, 90.2411, -77.0877, 35.5612
3.192, 6, 33.0284, 53.8381, -9.76688, 90.2056, -77.1897, 35.5321
3.196, 6, 33.0111, 53.8654, -9.74831, 90.1701, -77.2914, 35.5031
3.199, 6, 32.9945, 53.8917, -9.7298, 90.1347, -77.3928, 35.4742
3.204, 6, 32.9786, 53.9169, -9.71139, 90.0996, -77.4934, 35.4456
3.208, 6, 32.9635, 53.9409, -9.69316, 90.0647, -77.593, 35.4173
3.212, 6, 32.9491, 53.9636, -9.6752, 90.0304, -77.691, 35.3895
3.216, 6, 32.9351, 53.9853, -9.65762, 89.9968, -77.7868, 35.3623
3.22, 6, 32.9216, 54.006, -9.64055, 89.9641, -77.8799, 35.3359
3.224, 6, 32.9086, 54.0259, -9.62411, 89.9326, -77.9695, 35.3105
3.228, 6, 32.8961, 54.045, -9.60844, 89.9026, -78.055, 35.2863
3.232, 6, 32.8841, 54.0634, -9.59367, 89.8742, -78.1356, 35.2635
3.235, 6, 32.8726, 54.081, -9.57991, 89.8476, -78.2109, 35.2422
3.24, 6, 32.8616, 54.0977, -9.56728, 89.8232, -78.2802, 35.2226
3.244, 6, 32.851, 54.1138, -9.55585, 89.801, -78.3431, 35.2048
3.248, 6, 32.8408, 54.1291, -9.5457, 89.7811, -78.3995, 35.1889
3.252, 6, 32.8309, 54.1439, -9.53684, 89.7636, -78.449, 35.175
3.255, 6, 32.8212, 54.1581, -9.52925, 89.7484, -78.4919, 35.1628
3.26, 6, 32.812, 54.1717, -9.52289, 89.7355, -78.5284, 35.1526
3.264, 6, 32.8032, 54.1845, -9.51765, 89.7247, -78.5589, 35.144
3.268, 6, 32.7951, 54.1965, -9.51343, 89.7159, -78.5838, 35.1369
3.272, 6, 32.7876, 54.2075, -9.5101, 89.7088, -78.6039, 35.1312
3.276, 7, 32.7809, 54.2176, -9.50753, 89.7032, -78.6198, 35.1268
3.28, 7, 32.7748, 54.2266, -9.5056, 89.6988, -78.632, 35.1233
3.284, 7, 32.7693, 54.2345, -9.50419, 89.6955, -78.6413, 35.1207
3.288, 7, 32.7644, 54.2412, -9.50319, 89.6931, -78.6481, 35.1188
3.291, 7, 32.7601, 54.2468, -9.50251, 89.6914, -78.653, 35.1174
3.296, 7, 32.7566, 54.2512, -9.50205, 89.6902, -78.6565, 35.1164
3.3, 7, 32.7537, 54.2545, -9.50175, 89.6893, -78.6589, 35.1157
3.304, 7, 32.7515, 54.257, -9.50156, 89.6887, -78.6605, 35.1153
3.308, 7, 32.7499, 54.2587, -9.50143, 89.6883, -78.6616, 35.1149
3.312, 7, 32.7488, 54.2598, -9.50134, 89.6881, -78.6624, 35.1147
3.316, 7, 32.7481, 54.2606, -9.50128, 89.6879, -78.6629, 35.1146
3.32, 7, 32.7476, 54.2612, -9.50124, 89.6878, -78.6632, 35.1145
3.324, 7, 32.7472, 54.2615, -9.50121, 89.6877, -78.6635, 35.1144
3.328, 7, 32.747, 54.2618, -9.50119, 89.6876, -78.6636, 35.1144
3.332, 7, 32.7468, 54.262, -9.50118, 89.6876, -78.6637, 35.1143
3.336, 7, 32.7467, 54.2621, -9.50117, 89.6876, -78.6638, 35.1143
3.34, 7, 32.7467, 54.2622, -9.50117, 89.6875, -78.6639, 35.1143
3.344, 7, 32.7466, 54.2622, -9.50116, 89.6875, -78.6639, 35.1143
3.347, 7, 32.7466, 54.2622, -9.50116, 89.6875, -78.6639, 35.1143
3.352, 7, 32.7465, 54.2623, -9.50116, 89.6875, -78.6639, 35.1143
3.356, 7, 32.7465, 54.2623, -9.50116, 89.6875, -78.6639, 35.1143
3.36, 7, 32.7465, 54.2623, -9.50116, 89.6875, -78.664, 35.1143
3.364, 7, 32.7465, 54.2623, -9.50116, 89.6875, -78.664, 35.1143
3.368, 7, 32.7465, 54.2623, -9.50116, 89.6875, -78.664, 35.1143
3.372, 7, 32.7465, 54.2623, -9.50116, 89.6875, -78.664, 35.1143
