hehonglu123/ABB_Primitive_Study/execution/movec+movel_smooth/curve_exe_vmax_z20.csv
timestamp, cmd_num, J1, J2, J3, J4, J5, J6
0, -1, -18.207, 47.3635, 5.48559, -15.7778, -84.3589, 10.9302
0.003, -1, -18.207, 47.3635, 5.48559, -15.7778, -84.3589, 10.9302
0.006, -1, -18.207, 47.3635, 5.48559, -15.7778, -84.3589, 10.9302
0.008, -1, -18.207, 47.3635, 5.48559, -15.7778, -84.3589, 10.9302
0.011, -1, -18.207, 47.3635, 5.48559, -15.7778, -84.3589, 10.9302
0.016, -1, -18.207, 47.3635, 5.48559, -15.7778, -84.3589, 10.9302
0.02, -1, -18.207, 47.3635, 5.48559, -15.7778, -84.3589, 10.9302
0.024, -1, -18.207, 47.3635, 5.48559, -15.7778, -84.3589, 10.9302
0.028, -1, -18.207, 47.3635, 5.48559, -15.7778, -84.3589, 10.9302
0.032, -1, -18.207, 47.3635, 5.48559, -15.7778, -84.3589, 10.9302
0.036, -1, -18.207, 47.3635, 5.4856, -15.7778, -84.3589, 10.9302
0.04, -1, -18.2067, 47.3634, 5.48563, -15.7778, -84.3589, 10.9302
0.044, -1, -18.2061, 47.3631, 5.48571, -15.7778, -84.3588, 10.9302
0.048, -1, -18.205, 47.3624, 5.48588, -15.7778, -84.3588, 10.9301
0.052, -1, -18.2032, 47.3613, 5.48617, -15.7776, -84.3587, 10.93
0.056, -1, -18.2007, 47.3595, 5.48662, -15.7774, -84.3584, 10.9298
0.06, -1, -18.1974, 47.357, 5.48729, -15.7769, -84.3579, 10.9294
0.064, -1, -18.1933, 47.3537, 5.48823, -15.7759, -84.3569, 10.9287
0.068, -1, -18.1882, 47.3495, 5.4895, -15.7744, -84.3554, 10.9275
0.072, -1, -18.1822, 47.3444, 5.49118, -15.7721, -84.3531, 10.9257
0.076, -1, -18.1749, 47.3383, 5.49337, -15.7688, -84.3496, 10.9231
0.08, -1, -18.1662, 47.331, 5.49615, -15.764, -84.3447, 10.9194
0.084, -1, -18.1559, 47.3226, 5.49964, -15.7575, -84.3381, 10.9145
0.088, -1, -18.1438, 47.3127, 5.50393, -15.7489, -84.3292, 10.9079
0.092, -1, -18.1297, 47.3013, 5.50913, -15.7378, -84.3177, 10.8994
0.096, -1, -18.1137, 47.2882, 5.5153, -15.7236, -84.3032, 10.8886
0.1, -1, -18.0955, 47.2733, 5.52256, -15.706, -84.285, 10.8752
0.104, -1, -18.0752, 47.2564, 5.531, -15.6845, -84.2629, 10.8589
0.108, -1, -18.0524, 47.2375, 5.54073, -15.6587, -84.2363, 10.8393
0.112, -1, -18.0272, 47.2162, 5.55183, -15.6283, -84.2049, 10.8163
0.116, -1, -17.9995, 47.1926, 5.56437, -15.5928, -84.1684, 10.7894
0.12, -1, -17.9692, 47.1667, 5.57839, -15.5521, -84.1264, 10.7586
0.124, -1, -17.9365, 47.1384, 5.59391, -15.5058, -84.0787, 10.7236
0.128, -1, -17.9013, 47.1077, 5.61096, -15.454, -84.0252, 10.6844
0.131, -1, -17.8637, 47.0746, 5.62953, -15.3964, -83.9658, 10.6409
0.136, -1, -17.8236, 47.0392, 5.64964, -15.3333, -83.9007, 10.5932
0.139, -1, -17.7808, 47.0012, 5.67128, -15.2646, -83.8298, 10.5413
0.144, -1, -17.7353, 46.9608, 5.69444, -15.1907, -83.7536, 10.4855
0.148, -1, -17.687, 46.9179, 5.71908, -15.1117, -83.6721, 10.4258
0.152, -1, -17.6362, 46.8726, 5.74513, -15.0281, -83.5858, 10.3627
0.156, -1, -17.5829, 46.8251, 5.7725, -14.9401, -83.495, 10.2962
0.16, -1, -17.5272, 46.7755, 5.80108, -14.848, -83.4, 10.2267
0.164, -1, -17.4693, 46.724, 5.8308, -14.7524, -83.3014, 10.1545
0.168, -1, -17.4092, 46.6706, 5.86157, -14.6536, -83.1994, 10.0799
0.172, -1, -17.347, 46.6155, 5.8933, -14.552, -83.0945, 10.0031
0.176, -1, -17.2829, 46.5588, 5.92591, -14.4479, -82.9872, 9.92453
0.18, -1, -17.2168, 46.5007, 5.95933, -14.3418, -82.8777, 9.84438
0.184, -1, -17.1491, 46.4412, 5.99344, -14.234, -82.7664, 9.7629
0.188, -1, -17.0801, 46.3807, 6.02814, -14.1246, -82.6537, 9.68032
0.192, -1, -17.0101, 46.3193, 6.06334, -14.0141, -82.5396, 9.5968
0.196, -1, -16.9392, 46.257, 6.09894, -13.9026, -82.4246, 9.51254
0.2, -1, -16.8676, 46.1941, 6.13488, -13.7903, -82.3087, 9.42765
0.204, -1, -16.7953, 46.1305, 6.17111, -13.6773, -82.1922, 9.34228
0.208, -1, -16.7223, 46.0663, 6.20759, -13.5638, -82.0751, 9.25654
0.212, -1, -16.6486, 46.0014, 6.24427, -13.45, -81.9577, 9.17052
0.216, -1, -16.5742, 45.936, 6.28112, -13.3359, -81.84, 9.08428
0.22, -1, -16.4992, 45.8702, 6.3181, -13.2216, -81.7221, 8.9979
0.224, -1, -16.4238, 45.8041, 6.35519, -13.1072, -81.604, 8.9114
0.228, -1, -16.3479, 45.7377, 6.39235, -12.9927, -81.4859, 8.82482
0.232, -1, -16.2719, 45.6711, 6.42957, -12.878, -81.3676, 8.73817
0.236, -1, -16.1956, 45.6044, 6.46682, -12.7633, -81.2493, 8.65147
0.24, -1, -16.1192, 45.5377, 6.5041, -12.6486, -81.1309, 8.56473
0.244, -1, -16.0428, 45.4708, 6.54141, -12.5338, -81.0125, 8.47795
0.248, -1, -15.9662, 45.404, 6.57873, -12.419, -80.8941, 8.39115
0.252, -1, -15.8896, 45.337, 6.61607, -12.3041, -80.7756, 8.30432
0.256, -1, -15.813, 45.2701, 6.65342, -12.1892, -80.6571, 8.21747
0.26, -1, -15.7363, 45.2031, 6.69079, -12.0743, -80.5385, 8.1306
0.264, -1, -15.6596, 45.1362, 6.72816, -11.9593, -80.4199, 8.04371
0.268, -1, -15.5829, 45.0692, 6.76553, -11.8444, -80.3013, 7.95681
0.272, -1, -15.5062, 45.0022, 6.80292, -11.7294, -80.1827, 7.86989
0.276, -1, -15.4295, 44.9351, 6.8403, -11.6144, -80.0641, 7.78296
0.28, -1, -15.3527, 44.8681, 6.8777, -11.4994, -79.9455, 7.69602
0.284, -1, -15.276, 44.8011, 6.9151, -11.3843, -79.8268, 7.60907
0.288, -1, -15.1992, 44.734, 6.9525, -11.2693, -79.7081, 7.52211
0.292, -1, -15.1224, 44.667, 6.98991, -11.1543, -79.5895, 7.43514
0.296, -1, -15.0456, 44.5999, 7.02731, -11.0392, -79.4708, 7.34817
0.3, -1, -14.9688, 44.5328, 7.06472, -10.9241, -79.3521, 7.26119
0.304, -1, -14.8921, 44.4658, 7.10214, -10.8091, -79.2334, 7.17421
0.308, -1, -14.8153, 44.3987, 7.13955, -10.694, -79.1147, 7.08723
0.312, -1, -14.7385, 44.3316, 7.17696, -10.5789, -78.996, 7.00025
0.316, -1, -14.6617, 44.2646, 7.21437, -10.4639, -78.8773, 6.91327
0.32, -1, -14.5849, 44.1975, 7.25178, -10.3488, -78.7586, 6.82628
0.324, -1, -14.5081, 44.1304, 7.28919, -10.2338, -78.6399, 6.73931
0.328, -1, -14.4313, 44.0634, 7.3266, -10.1187, -78.5212, 6.65234
0.332, -1, -14.3545, 43.9963, 7.36401, -10.0037, -78.4025, 6.56537
0.336, -1, -14.2777, 43.9293, 7.40141, -9.88862, -78.2839, 6.47841
0.34, -1, -14.2009, 43.8623, 7.43881, -9.77359, -78.1652, 6.39146
0.344, -1, -14.1242, 43.7952, 7.47621, -9.65857, -78.0466, 6.30451
0.348, -1, -14.0474, 43.7282, 7.5136, -9.54357, -77.9279, 6.21758
0.352, -1, -13.9706, 43.6612, 7.55098, -9.42859, -77.8093, 6.13066
0.356, -1, -13.8939, 43.5942, 7.58836, -9.31362, -77.6907, 6.04375
0.36, -1, -13.8172, 43.5272, 7.62574, -9.19866, -77.5721, 5.95686
0.364, -1, -13.7404, 43.4602, 7.66311, -9.08373, -77.4536, 5.86998
0.368, -1, -13.6637, 43.3933, 7.70047, -8.96882, -77.335, 5.78311
0.372, -1, -13.587, 43.3263, 7.73782, -8.85394, -77.2165, 5.69627
0.376, -1, -13.5104, 43.2594, 7.77517, -8.73907, -77.098, 5.60944
0.38, -1, -13.4337, 43.1925, 7.81251, -8.62424, -76.9796, 5.52263
0.384, -1, -13.357, 43.1256, 7.84983, -8.50943, -76.8611, 5.43584
0.388, -1, -13.2804, 43.0587, 7.88715, -8.39465, -76.7427, 5.34908
0.392, -1, -13.2038, 42.9918, 7.92446, -8.2799, -76.6244, 5.26234
0.396, -1, -13.1272, 42.925, 7.96176, -8.16518, -76.506, 5.17562
0.4, -1, -13.0507, 42.8582, 7.99905, -8.05049, -76.3877, 5.08893
0.404, -1, -12.9741, 42.7913, 8.03633, -7.93585, -76.2695, 5.00226
0.408, -1, -12.8976, 42.7246, 8.07359, -7.82123, -76.1512, 4.91562
0.412, -1, -12.8211, 42.6578, 8.11084, -7.70666, -76.033, 4.82901
0.416, -1, -12.7447, 42.591, 8.14808, -7.59213, -75.9149, 4.74243
0.42, -1, -12.6683, 42.5243, 8.18531, -7.47763, -75.7968, 4.65589
0.424, -1, -12.5918, 42.4576, 8.22252, -7.36318, -75.6787, 4.56937
0.428, -1, -12.5155, 42.391, 8.25971, -7.24878, -75.5607, 4.48289
0.432, -1, -12.4391, 42.3243, 8.2969, -7.13442, -75.4427, 4.39644
0.436, -1, -12.3628, 42.2577, 8.33406, -7.02011, -75.3248, 4.31003
0.44, -1, -12.2865, 42.1911, 8.37121, -6.90585, -75.2069, 4.22366
0.444, -1, -12.2103, 42.1246, 8.40835, -6.79164, -75.0891, 4.13732
0.448, -1, -12.1341, 42.0581, 8.44546, -6.67748, -74.9714, 4.05103
0.452, -1, -12.0579, 41.9916, 8.48256, -6.56337, -74.8537, 3.96477
0.456, -1, -11.9818, 41.9251, 8.51965, -6.44932, -74.736, 3.87856
0.46, -1, -11.9056, 41.8587, 8.55671, -6.33533, -74.6184, 3.79239
0.464, -1, -11.8296, 41.7923, 8.59375, -6.22139, -74.5009, 3.70626
0.468, -1, -11.7536, 41.7259, 8.63078, -6.10751, -74.3834, 3.62018
0.472, -1, -11.6776, 41.6596, 8.66779, -5.9937, -74.266, 3.53414
0.476, -1, -11.6016, 41.5933, 8.70477, -5.87994, -74.1487, 3.44815
0.48, -1, -11.5257, 41.5271, 8.74174, -5.76625, -74.0314, 3.36221
0.484, -1, -11.4499, 41.4608, 8.77868, -5.65263, -73.9142, 3.27632
0.488, -1, -11.3741, 41.3947, 8.8156, -5.53907, -73.797, 3.19048
0.492, -1, -11.2983, 41.3285, 8.8525, -5.42558, -73.68, 3.10469
0.496, -1, -11.2226, 41.2624, 8.88938, -5.31216, -73.563, 3.01895
0.5, -1, -11.1469, 41.1964, 8.92623, -5.19881, -73.446, 2.93327
0.504, -1, -11.0713, 41.1304, 8.96306, -5.08554, -73.3292, 2.84764
0.508, -1, -10.9957, 41.0644, 8.99987, -4.97233, -73.2124, 2.76206
0.512, -1, -10.9201, 40.9985, 9.03665, -4.8592, -73.0957, 2.67655
0.516, -1, -10.8447, 40.9326, 9.07341, -4.74615, -72.9791, 2.59109
0.52, -1, -10.7692, 40.8667, 9.11014, -4.63318, -72.8626, 2.50569
0.524, -1, -10.6939, 40.8009, 9.14685, -4.52028, -72.7461, 2.42035
0.528, -1, -10.6185, 40.7352, 9.18353, -4.40747, -72.6297, 2.33507
0.532, -1, -10.5433, 40.6695, 9.22018, -4.29474, -72.5134, 2.24985
0.536, -1, -10.4681, 40.6038, 9.25681, -4.18209, -72.3972, 2.1647
0.54, -1, -10.3929, 40.5382, 9.29341, -4.06952, -72.2811, 2.07961
0.544, -1, -10.3178, 40.4727, 9.32998, -3.95704, -72.1651, 1.99458
0.548, -1, -10.2428, 40.4072, 9.36652, -3.84465, -72.0491, 1.90962
0.552, -1, -10.1678, 40.3417, 9.40304, -3.73235, -71.9333, 1.82473
0.556, -1, -10.0929, 40.2763, 9.43952, -3.62013, -71.8175, 1.7399
0.56, -1, -10.018, 40.211, 9.47598, -3.50801, -71.7019, 1.65514
0.564, -1, -9.94319, 40.1457, 9.5124, -3.39597, -71.5863, 1.57045
0.568, -1, -9.86845, 40.0804, 9.5488, -3.28403, -71.4708, 1.48583
0.572, -1, -9.79377, 40.0153, 9.58517, -3.17219, -71.3555, 1.40129
0.576, -1, -9.71915, 39.9501, 9.6215, -3.06044, -71.2402, 1.31681
0.58, -1, -9.6446, 39.885, 9.6578, -2.94878, -71.125, 1.23241
0.584, -1, -9.57011, 39.82, 9.69408, -2.83723, -71.0099, 1.14808
0.588, -1, -9.49568, 39.7551, 9.73032, -2.72577, -70.8949, 1.06383
0.592, -1, -9.42132, 39.6902, 9.76652, -2.61441, -70.7801, 0.979649
0.596, -1, -9.34703, 39.6253, 9.8027, -2.50315, -70.6653, 0.895546
0.6, -1, -9.27281, 39.5605, 9.83884, -2.392, -70.5506, 0.811521
0.604, -1, -9.19865, 39.4958, 9.87495, -2.28094, -70.4361, 0.727572
0.608, -1, -9.12456, 39.4311, 9.91103, -2.16999, -70.3216, 0.643702
0.612, -1, -9.05054, 39.3665, 9.94707, -2.05915, -70.2073, 0.55991
0.616, -1, -8.97659, 39.302, 9.98308, -1.94841, -70.093, 0.476198
0.62, -1, -8.90271, 39.2375, 10.019, -1.83777, -69.9789, 0.392566
0.624, -1, -8.82889, 39.1731, 10.055, -1.72724, -69.8649, 0.309014
0.628, -1, -8.75516, 39.1087, 10.0909, -1.61682, -69.751, 0.225543
0.632, -1, -8.68149, 39.0444, 10.1268, -1.50651, -69.6372, 0.142154
0.636, -1, -8.60789, 38.9802, 10.1626, -1.3963, -69.5235, 0.0588477
0.64, -1, -8.53437, 38.916, 10.1984, -1.28621, -69.41, -0.0243762
0.644, -1, -8.46092, 38.8519, 10.2342, -1.17622, -69.2965, -0.107517
0.648, -1, -8.38755, 38.7878, 10.2699, -1.06635, -69.1832, -0.190573
0.652, -1, -8.31425, 38.7238, 10.3056, -0.956587, -69.0699, -0.273545
0.656, -1, -8.24102, 38.6599, 10.3412, -0.846937, -68.9568, -0.356432
0.66, -1, -8.16787, 38.5961, 10.3768, -0.737401, -68.8438, -0.439234
0.664, -1, -8.0948, 38.5323, 10.4124, -0.627978, -68.7309, -0.52195
0.668, -1, -8.0218, 38.4686, 10.448, -0.51867, -68.6182, -0.604579
0.672, -1, -7.94888, 38.4049, 10.4835, -0.409477, -68.5055, -0.687121
0.676, -1, -7.87604, 38.3414, 10.5189, -0.300399, -68.393, -0.769575
0.68, -1, -7.80327, 38.2778, 10.5544, -0.191438, -68.2806, -0.851942
0.684, -1, -7.73058, 38.2144, 10.5898, -0.0825946, -68.1684, -0.93422
0.688, -1, -7.65797, 38.151, 10.6251, 0.0261317, -68.0562, -1.01641
0.692, -1, -7.58544, 38.0877, 10.6604, 0.13474, -67.9442, -1.09851
0.696, -1, -7.51299, 38.0245, 10.6957, 0.243229, -67.8322, -1.18052
0.7, -1, -7.44061, 37.9613, 10.7309, 0.351598, -67.7205, -1.26244
0.704, -1, -7.36832, 37.8982, 10.7661, 0.459848, -67.6088, -1.34427
0.708, -1, -7.29611, 37.8352, 10.8013, 0.567976, -67.4972, -1.426
0.712, -1, -7.22398, 37.7722, 10.8364, 0.675984, -67.3858, -1.50765
0.716, -1, -7.15193, 37.7093, 10.8715, 0.78387, -67.2745, -1.5892
0.72, -1, -7.07996, 37.6465, 10.9065, 0.891633, -67.1634, -1.67067
0.724, -1, -7.00807, 37.5838, 10.9415, 0.999274, -67.0523, -1.75203
0.728, -1, -6.93627, 37.5211, 10.9765, 1.10679, -66.9414, -1.83331
0.732, -1, -6.86454, 37.4585, 11.0114, 1.21418, -66.8306, -1.91449
0.736, -1, -6.7929, 37.396, 11.0463, 1.32145, -66.72, -1.99558
0.74, -1, -6.72135, 37.3335, 11.0811, 1.4286, -66.6095, -2.07657
0.744, -1, -6.64988, 37.2711, 11.1159, 1.53561, -66.4991, -2.15747
0.748, -1, -6.57849, 37.2088, 11.1507, 1.64251, -66.3888, -2.23827
0.752, -1, -6.50718, 37.1466, 11.1854, 1.74927, -66.2787, -2.31898
0.756, -1, -6.43596, 37.0844, 11.2201, 1.85591, -66.1687, -2.39959
0.76, -1, -6.36483, 37.0223, 11.2547, 1.96242, -66.0588, -2.4801
0.764, -1, -6.29378, 36.9603, 11.2893, 2.0688, -65.9491, -2.56052
0.768, -1, -6.22282, 36.8984, 11.3238, 2.17506, -65.8394, -2.64084
0.772, -1, -6.15194, 36.8365, 11.3584, 2.28118, -65.73, -2.72107
0.776, -1, -6.08115, 36.7747, 11.3928, 2.38718, -65.6206, -2.80119
0.78, -1, -6.01044, 36.713, 11.4272, 2.49305, -65.5114, -2.88122
0.784, -1, -5.93982, 36.6514, 11.4616, 2.59878, -65.4023, -2.96115
0.788, -1, -5.86929, 36.5898, 11.496, 2.70439, -65.2934, -3.04098
0.792, -1, -5.79885, 36.5283, 11.5303, 2.80986, -65.1846, -3.12071
0.796, -1, -5.72849, 36.4669, 11.5645, 2.91521, -65.0759, -3.20034
0.8, -1, -5.65822, 36.4056, 11.5987, 3.02042, -64.9674, -3.27988
0.804, -1, -5.58804, 36.3443, 11.6329, 3.1255, -64.859, -3.35931
0.808, -1, -5.51795, 36.2832, 11.667, 3.23045, -64.7507, -3.43864
0.812, -1, -5.44794, 36.2221, 11.7011, 3.33526, -64.6426, -3.51787
0.816, -1, -5.37803, 36.161, 11.7351, 3.43994, -64.5346, -3.59701
0.82, -1, -5.3082, 36.1001, 11.7691, 3.54449, -64.4268, -3.67604
0.824, -1, -5.23846, 36.0392, 11.8031, 3.6489, -64.3191, -3.75497
0.828, -1, -5.16882, 35.9784, 11.837, 3.75318, -64.2115, -3.83379
0.832, -1, -5.09926, 35.9177, 11.8709, 3.85733, -64.1041, -3.91252
0.836, -1, -5.02979, 35.8571, 11.9047, 3.96134, -63.9968, -3.99114
0.84, -1, -4.96041, 35.7965, 11.9385, 4.06521, -63.8896, -4.06967
0.844, -1, -4.89112, 35.7361, 11.9722, 4.16895, -63.7826, -4.14809
0.848, -1, -4.82193, 35.6757, 12.0059, 4.27256, -63.6757, -4.2264
0.852, -1, -4.75282, 35.6154, 12.0395, 4.37602, -63.569, -4.30462
0.856, -1, -4.6838, 35.5551, 12.0731, 4.47936, -63.4624, -4.38273
0.86, -1, -4.61488, 35.495, 12.1067, 4.58255, -63.356, -4.46073
0.864, -1, -4.54605, 35.4349, 12.1402, 4.68561, -63.2497, -4.53864
0.868, -1, -4.4773, 35.3749, 12.1737, 4.78853, -63.1435, -4.61644
0.872, -1, -4.40865, 35.315, 12.2071, 4.89131, -63.0375, -4.69414
0.876, -1, -4.34009, 35.2551, 12.2405, 4.99396, -62.9316, -4.77173
0.88, -1, -4.27163, 35.1954, 12.2738, 5.09646, -62.8258, -4.84922
0.884, -1, -4.20325, 35.1357, 12.3071, 5.19883, -62.7202, -4.9266
0.888, -1, -4.13496, 35.0761, 12.3403, 5.30107, -62.6148, -5.00388
0.892, -1, -4.06677, 35.0166, 12.3735, 5.40316, -62.5095, -5.08106
0.896, -1, -3.99867, 34.9572, 12.4067, 5.50512, -62.4043, -5.15813
0.9, -1, -3.93065, 34.8978, 12.4398, 5.60693, -62.2993, -5.23509
0.904, -1, -3.86273, 34.8385, 12.4728, 5.70861, -62.1944, -5.31196
0.908, -1, -3.79491, 34.7793, 12.5059, 5.81015, -62.0896, -5.38872
0.912, -1, -3.72717, 34.7202, 12.5388, 5.91156, -61.985, -5.46537
0.916, -1, -3.65952, 34.6612, 12.5718, 6.01282, -61.8806, -5.54192
0.92, -1, -3.59197, 34.6022, 12.6046, 6.11395, -61.7762, -5.61837
0.924, -1, -3.52451, 34.5433, 12.6375, 6.21494, -61.6721, -5.69471
0.928, -1, -3.45714, 34.4845, 12.6703, 6.3158, -61.568, -5.77095
0.932, -1, -3.38986, 34.4258, 12.703, 6.41651, -61.4641, -5.84708
0.936, -1, -3.32267, 34.3672, 12.7357, 6.5171, -61.3604, -5.92311
0.94, -1, -3.25558, 34.3086, 12.7684, 6.61754, -61.2568, -5.99904
0.944, -1, -3.18857, 34.2502, 12.801, 6.71784, -61.1533, -6.07486
0.948, -1, -3.12166, 34.1918, 12.8336, 6.81801, -61.05, -6.15059
0.952, -1, -3.05484, 34.1334, 12.8661, 6.91805, -60.9468, -6.2262
0.956, -1, -2.98811, 34.0752, 12.8986, 7.01794, -60.8437, -6.30172
0.96, -1, -2.92147, 34.0171, 12.931, 7.1177, -60.7408, -6.37713
0.964, -1, -2.85492, 33.959, 12.9634, 7.21733, -60.638, -6.45244
0.968, -1, -2.78846, 33.901, 12.9958, 7.31682, -60.5354, -6.52765
0.972, -1, -2.72209, 33.843, 13.0281, 7.41617, -60.4329, -6.60275
0.976, -1, -2.65581, 33.7852, 13.0604, 7.51539, -60.3306, -6.67775
0.98, -1, -2.58963, 33.7274, 13.0926, 7.61447, -60.2284, -6.75265
0.984, -1, -2.52353, 33.6698, 13.1248, 7.71342, -60.1263, -6.82745
0.988, -1, -2.45752, 33.6122, 13.1569, 7.81223, -60.0244, -6.90214
0.992, -1, -2.3916, 33.5546, 13.189, 7.91091, -59.9226, -6.97674
0.996, -1, -2.32578, 33.4972, 13.221, 8.00945, -59.8209, -7.05123
1, -1, -2.26004, 33.4398, 13.253, 8.10786, -59.7194, -7.12562
1.004, -1, -2.19439, 33.3825, 13.285, 8.20613, -59.618, -7.19991
1.008, -1, -2.12884, 33.3253, 13.3169, 8.30427, -59.5168, -7.27409
1.012, -1, -2.06337, 33.2682, 13.3488, 8.40228, -59.4157, -7.34818
1.016, -1, -1.99799, 33.2111, 13.3806, 8.50015, -59.3147, -7.42216
1.02, -1, -1.9327, 33.1541, 13.4124, 8.59789, -59.2139, -7.49605
1.024, -1, -1.8675, 33.0972, 13.4441, 8.69549, -59.1132, -7.56983
1.027, -1, -1.80239, 33.0404, 13.4758, 8.79297, -59.0127, -7.64351
1.032, -1, -1.73736, 32.9837, 13.5075, 8.89031, -58.9123, -7.71709
1.036, -1, -1.67243, 32.927, 13.5391, 8.98751, -58.812, -7.79057
1.04, -1, -1.60758, 32.8704, 13.5706, 9.08458, -58.7119, -7.86395
1.044, -1, -1.54283, 32.8139, 13.6022, 9.18152, -58.6119, -7.93723
1.048, -1, -1.47816, 32.7574, 13.6336, 9.27833, -58.512, -8.01041
1.052, -1, -1.41358, 32.7011, 13.6651, 9.37501, -58.4123, -8.08349
1.055, -1, -1.34909, 32.6448, 13.6965, 9.47155, -58.3127, -8.15647
1.06, -1, -1.28468, 32.5886, 13.7278, 9.56796, -58.2132, -8.22935
1.064, -1, -1.22037, 32.5325, 13.7591, 9.66424, -58.1139, -8.30213
1.068, -1, -1.15614, 32.4764, 13.7904, 9.76039, -58.0147, -8.37481
1.072, -1, -1.092, 32.4204, 13.8216, 9.85641, -57.9157, -8.4474
1.076, -1, -1.02795, 32.3645, 13.8528, 9.95229, -57.8168, -8.51988
1.08, -1, -0.963982, 32.3087, 13.8839, 10.048, -57.718, -8.59226
1.084, -1, -0.900104, 32.253, 13.915, 10.1437, -57.6193, -8.66455
1.088, -1, -0.836313, 32.1973, 13.9461, 10.2392, -57.5208, -8.73674
1.091, -1, -0.772609, 32.1417, 13.9771, 10.3345, -57.4225, -8.80882
1.096, -1, -0.708992, 32.0862, 14.0081, 10.4298, -57.3242, -8.88081
1.1, -1, -0.645461, 32.0307, 14.039, 10.5249, -57.2261, -8.95271
1.104, -1, -0.582018, 31.9753, 14.0699, 10.6198, -57.1281, -9.0245
1.108, -1, -0.518661, 31.9201, 14.1007, 10.7147, -57.0303, -9.0962
1.112, -1, -0.45539, 31.8648, 14.1315, 10.8094, -56.9326, -9.16779
1.116, -1, -0.392205, 31.8097, 14.1623, 10.904, -56.835, -9.23929
1.119, -1, -0.329107, 31.7546, 14.193, 10.9984, -56.7376, -9.3107
1.124, -1, -0.266094, 31.6996, 14.2237, 11.0928, -56.6403, -9.382
1.128, -1, -0.203168, 31.6447, 14.2543, 11.187, -56.5431, -9.45321
1.132, -1, -0.140327, 31.5899, 14.2849, 11.281, -56.4461, -9.52432
1.136, -1, -0.0775713, 31.5351, 14.3154, 11.375, -56.3492, -9.59534
1.14, -1, -0.0149012, 31.4804, 14.346, 11.4688, -56.2524, -9.66626
1.144, -1, 0.0476836, 31.4258, 14.3764, 11.5625, -56.1557, -9.73708
1.147, -1, 0.110183, 31.3712, 14.4068, 11.6561, -56.0592, -9.8078
1.152, -1, 0.172598, 31.3168, 14.4372, 11.7495, -55.9628, -9.87843
1.156, -1, 0.234928, 31.2624, 14.4676, 11.8428, -55.8666, -9.94897
1.16, -1, 0.297173, 31.2081, 14.4979, 11.936, -55.7705, -10.0194
1.164, -1, 0.359334, 31.1538, 14.5281, 12.029, -55.6745, -10.0897
1.168, -1, 0.42141, 31.0996, 14.5583, 12.122, -55.5786, -10.16
1.172, -1, 0.483402, 31.0455, 14.5885, 12.2148, -55.4829, -10.2301
1.175, -1, 0.54531, 30.9915, 14.6187, 12.3074, -55.3873, -10.3002
1.18, -1, 0.607133, 30.9376, 14.6488, 12.4, -55.2918, -10.3702
1.184, -1, 0.668873, 30.8837, 14.6788, 12.4924, -55.1965, -10.44
1.188, -1, 0.73053, 30.8299, 14.7088, 12.5847, -55.1013, -10.5098
1.192, -1, 0.792102, 30.7761, 14.7388, 12.6769, -55.0062, -10.5795
1.196, -1, 0.853591, 30.7225, 14.7687, 12.7689, -54.9112, -10.649
1.2, -1, 0.914997, 30.6689, 14.7986, 12.8608, -54.8164, -10.7185
1.204, -1, 0.97632, 30.6154, 14.8285, 12.9526, -54.7217, -10.7879
1.208, -1, 1.03756, 30.5619, 14.8583, 13.0443, -54.6272, -10.8572
1.212, -1, 1.09872, 30.5085, 14.8881, 13.1359, -54.5327, -10.9264
1.216, -1, 1.15979, 30.4552, 14.9178, 13.2273, -54.4384, -10.9955
1.22, -1, 1.22079, 30.402, 14.9475, 13.3186, -54.3442, -11.0646
1.224, -1, 1.2817, 30.3489, 14.9771, 13.4098, -54.2502, -11.1335
1.228, -1, 1.34253, 30.2958, 15.0067, 13.5008, -54.1562, -11.2023
1.232, -1, 1.40328, 30.2428, 15.0363, 13.5918, -54.0624, -11.2711
1.236, -1, 1.46394, 30.1898, 15.0658, 13.6826, -53.9688, -11.3397
1.24, -1, 1.52453, 30.1369, 15.0953, 13.7733, -53.8752, -11.4083
1.244, -1, 1.58503, 30.0841, 15.1248, 13.8638, -53.7818, -11.4767
1.248, -1, 1.64545, 30.0314, 15.1542, 13.9543, -53.6885, -11.5451
1.252, -1, 1.7058, 29.9788, 15.1836, 14.0446, -53.5953, -11.6134
1.256, -1, 1.76606, 29.9262, 15.2129, 14.1348, -53.5022, -11.6816
1.26, -1, 1.82624, 29.8736, 15.2422, 14.2249, -53.4093, -11.7497
1.264, -1, 1.88635, 29.8212, 15.2715, 14.3149, -53.3165, -11.8177
1.267, -1, 1.94637, 29.7688, 15.3007, 14.4047, -53.2238, -11.8856
1.272, -1, 2.00631, 29.7165, 15.3298, 14.4944, -53.1313, -11.9534
1.276, -1, 2.06617, 29.6643, 15.359, 14.584, -53.0388, -12.0212
1.28, -1, 2.12596, 29.6121, 15.3881, 14.6735, -52.9465, -12.0888
1.284, -1, 2.18567, 29.56, 15.4172, 14.7629, -52.8543, -12.1564
1.288, -1, 2.24529, 29.5079, 15.4462, 14.8522, -52.7623, -12.2238
1.292, -1, 2.30484, 29.456, 15.4752, 14.9413, -52.6703, -12.2912
1.295, -1, 2.36431, 29.4041, 15.5041, 15.0303, -52.5785, -12.3585
1.3, -1, 2.42371, 29.3523, 15.533, 15.1192, -52.4868, -12.4257
1.304, -1, 2.48302, 29.3005, 15.5619, 15.208, -52.3952, -12.4928
1.308, -1, 2.54226, 29.2488, 15.5907, 15.2967, -52.3037, -12.5599
1.312, -1, 2.60142, 29.1972, 15.6195, 15.3853, -52.2123, -12.6268
1.316, -1, 2.66051, 29.1456, 15.6483, 15.4737, -52.1211, -12.6937
1.32, -1, 2.71952, 29.0941, 15.677, 15.562, -52.03, -12.7604
1.324, -1, 2.77845, 29.0427, 15.7057, 15.6502, -51.939, -12.8271
1.328, -1, 2.83731, 28.9913, 15.7344, 15.7383, -51.8481, -12.8937
1.332, -1, 2.89609, 28.94, 15.763, 15.8263, -51.7573, -12.9602
1.336, -1, 2.95479, 28.8888, 15.7915, 15.9142, -51.6667, -13.0267
1.34, -1, 3.01342, 28.8376, 15.8201, 16.002, -51.5762, -13.093
1.344, -1, 3.07198, 28.7865, 15.8486, 16.0896, -51.4857, -13.1593
1.348, -1, 3.13046, 28.7355, 15.8771, 16.1772, -51.3954, -13.2254
1.352, -1, 3.18887, 28.6845, 15.9055, 16.2646, -51.3053, -13.2915
1.356, -1, 3.2472, 28.6336, 15.9339, 16.3519, -51.2152, -13.3575
1.36, -1, 3.30545, 28.5828, 15.9622, 16.4391, -51.1252, -13.4235
1.364, -1, 3.36364, 28.532, 15.9906, 16.5262, -51.0354, -13.4893
1.368, -1, 3.42175, 28.4813, 16.0189, 16.6132, -50.9457, -13.5551
1.372, -1, 3.47978, 28.4306, 16.0471, 16.7001, -50.856, -13.6207
1.376, -1, 3.53775, 28.38, 16.0753, 16.7868, -50.7665, -13.6863
1.38, -1, 3.59564, 28.3295, 16.1035, 16.8735, -50.6771, -13.7518
1.384, -1, 3.65346, 28.2791, 16.1316, 16.96, -50.5879, -13.8172
1.388, -1, 3.7112, 28.2287, 16.1598, 17.0465, -50.4987, -13.8826
1.392, -1, 3.76887, 28.1783, 16.1878, 17.1328, -50.4096, -13.9478
1.396, -1, 3.82648, 28.1281, 16.2159, 17.219, -50.3207, -14.013
1.4, -1, 3.884, 28.0779, 16.2439, 17.3052, -50.2319, -14.0781
1.404, -1, 3.94146, 28.0277, 16.2718, 17.3912, -50.1431, -14.1431
1.408, -1, 3.99885, 27.9776, 16.2998, 17.4771, -50.0545, -14.2081
1.412, -1, 4.05616, 27.9276, 16.3277, 17.5629, -49.966, -14.2729
1.416, -1, 4.11341, 27.8777, 16.3555, 17.6485, -49.8776, -14.3377
1.42, -1, 4.17058, 27.8278, 16.3834, 17.7341, -49.7893, -14.4024
1.424, -1, 4.22768, 27.7779, 16.4112, 17.8196, -49.7012, -14.467
1.428, -1, 4.28471, 27.7282, 16.4389, 17.905, -49.6131, -14.5315
1.432, -1, 4.34168, 27.6785, 16.4667, 17.9902, -49.5251, -14.596
1.436, -1, 4.39857, 27.6288, 16.4944, 18.0754, -49.4373, -14.6604
1.44, -1, 4.45539, 27.5792, 16.522, 18.1605, -49.3495, -14.7247
1.444, -1, 4.51214, 27.5297, 16.5496, 18.2454, -49.2619, -14.7889
1.448, -1, 4.56883, 27.4802, 16.5772, 18.3303, -49.1744, -14.853
1.452, -1, 4.62544, 27.4308, 16.6048, 18.415, -49.087, -14.9171
1.456, -1, 4.68199, 27.3815, 16.6323, 18.4997, -48.9996, -14.9811
1.46, -1, 4.73846, 27.3322, 16.6598, 18.5842, -48.9124, -15.045
1.464, -1, 4.79487, 27.283, 16.6873, 18.6686, -48.8253, -15.1088
1.468, -1, 4.85121, 27.2338, 16.7147, 18.753, -48.7383, -15.1726
1.472, -1, 4.90749, 27.1847, 16.7421, 18.8372, -48.6514, -15.2363
1.476, -1, 4.96369, 27.1356, 16.7694, 18.9214, -48.5647, -15.2999
1.48, -1, 5.01983, 27.0866, 16.7968, 19.0054, -48.478, -15.3634
1.484, -1, 5.0759, 27.0377, 16.8241, 19.0893, -48.3914, -15.4268
1.488, -1, 5.1319, 26.9888, 16.8513, 19.1732, -48.3049, -15.4902
1.492, -1, 5.18783, 26.94, 16.8786, 19.2569, -48.2185, -15.5535
1.496, -1, 5.2437, 26.8913, 16.9058, 19.3405, -48.1323, -15.6167
1.5, -1, 5.2995, 26.8426, 16.9329, 19.424, -48.0461, -15.6798
1.504, -1, 5.35524, 26.7939, 16.96, 19.5075, -47.96, -15.7429
1.508, -1, 5.41091, 26.7453, 16.9871, 19.5908, -47.8741, -15.8059
1.512, -1, 5.46651, 26.6968, 17.0142, 19.674, -47.7882, -15.8688
1.516, -1, 5.52205, 26.6484, 17.0412, 19.7572, -47.7025, -15.9317
1.52, -1, 5.57752, 26.5999, 17.0682, 19.8402, -47.6168, -15.9944
1.524, -1, 5.63292, 26.5516, 17.0952, 19.9232, -47.5312, -16.0571
1.528, -1, 5.68826, 26.5033, 17.1222, 20.006, -47.4458, -16.1198
1.532, -1, 5.74354, 26.4551, 17.1491, 20.0887, -47.3604, -16.1823
1.536, -1, 5.79875, 26.4069, 17.1759, 20.1714, -47.2752, -16.2448
1.54, -1, 5.85389, 26.3587, 17.2028, 20.2539, -47.19, -16.3072
1.544, -1, 5.90897, 26.3107, 17.2296, 20.3364, -47.105, -16.3695
1.548, -1, 5.96399, 26.2627, 17.2564, 20.4187, -47.02, -16.4318
1.552, -1, 6.01894, 26.2147, 17.2831, 20.501, -46.9352, -16.494
1.556, -1, 6.07383, 26.1668, 17.3099, 20.5832, -46.8504, -16.5561
1.56, -1, 6.12866, 26.119, 17.3365, 20.6652, -46.7657, -16.6181
1.564, -1, 6.18342, 26.0712, 17.3632, 20.7472, -46.6812, -16.6801
1.568, -1, 6.23812, 26.0234, 17.3898, 20.8291, -46.5967, -16.742
1.572, -1, 6.29276, 25.9758, 17.4164, 20.9109, -46.5123, -16.8038
1.576, -1, 6.34733, 25.9281, 17.443, 20.9926, -46.4281, -16.8655
1.58, -1, 6.40184, 25.8806, 17.4695, 21.0742, -46.3439, -16.9272
1.584, -1, 6.45629, 25.833, 17.496, 21.1557, -46.2598, -16.9888
1.588, -1, 6.51068, 25.7856, 17.5225, 21.2371, -46.1758, -17.0504
1.592, -1, 6.565, 25.7382, 17.5489, 21.3184, -46.092, -17.1118
1.596, -1, 6.61926, 25.6908, 17.5754, 21.3996, -46.0082, -17.1732
1.6, -1, 6.67346, 25.6435, 17.6017, 21.4807, -45.9245, -17.2346
1.604, -1, 6.7276, 25.5963, 17.6281, 21.5618, -45.8409, -17.2958
1.608, -1, 6.78168, 25.5491, 17.6544, 21.6427, -45.7574, -17.357
1.612, -1, 6.8357, 25.502, 17.6807, 21.7236, -45.674, -17.4181
1.616, -1, 6.88965, 25.4549, 17.707, 21.8043, -45.5907, -17.4792
1.62, -1, 6.94354, 25.4078, 17.7332, 21.885, -45.5075, -17.5402
1.624, -1, 6.99738, 25.3609, 17.7594, 21.9656, -45.4244, -17.6011
1.628, -1, 7.05115, 25.3139, 17.7856, 22.0461, -45.3413, -17.6619
1.632, -1, 7.10486, 25.2671, 17.8117, 22.1265, -45.2584, -17.7227
1.636, -1, 7.15851, 25.2203, 17.8378, 22.2068, -45.1755, -17.7834
1.64, -1, 7.21211, 25.1735, 17.8639, 22.287, -45.0928, -17.844
1.644, -1, 7.26564, 25.1268, 17.89, 22.3671, -45.0101, -17.9046
1.648, -1, 7.31911, 25.0801, 17.916, 22.4472, -44.9276, -17.9651
1.652, -1, 7.37253, 25.0335, 17.942, 22.5271, -44.8451, -18.0255
1.656, -1, 7.42588, 24.9869, 17.968, 22.607, -44.7627, -18.0859
1.66, -1, 7.47918, 24.9404, 17.9939, 22.6867, -44.6804, -18.1462
1.664, -1, 7.53241, 24.894, 18.0198, 22.7664, -44.5982, -18.2065
1.668, -1, 7.58559, 24.8476, 18.0457, 22.846, -44.5161, -18.2666
1.672, -1, 7.63871, 24.8012, 18.0716, 22.9255, -44.4341, -18.3267
1.676, -1, 7.69177, 24.7549, 18.0974, 23.005, -44.3522, -18.3868
1.68, -1, 7.74478, 24.7087, 18.1232, 23.0843, -44.2703, -18.4467
1.684, -1, 7.79772, 24.6625, 18.149, 23.1636, -44.1886, -18.5067
1.688, -1, 7.85061, 24.6163, 18.1747, 23.2427, -44.1069, -18.5665
1.692, -1, 7.90344, 24.5702, 18.2004, 23.3218, -44.0253, -18.6263
1.696, -1, 7.95622, 24.5242, 18.2261, 23.4008, -43.9439, -18.686
1.7, -1, 8.00894, 24.4782, 18.2518, 23.4797, -43.8624, -18.7456
1.704, -1, 8.0616, 24.4322, 18.2774, 23.5585, -43.7811, -18.8052
1.708, -1, 8.1142, 24.3863, 18.303, 23.6373, -43.6999, -18.8648
1.712, -1, 8.16675, 24.3404, 18.3286, 23.7159, -43.6188, -18.9242
1.716, -1, 8.21924, 24.2946, 18.3542, 23.7945, -43.5377, -18.9836
1.72, -1, 8.27168, 24.2489, 18.3797, 23.873, -43.4567, -19.0429
1.724, -1, 8.32406, 24.2032, 18.4052, 23.9514, -43.3759, -19.1022
1.728, -1, 8.37639, 24.1575, 18.4306, 24.0297, -43.2951, -19.1614
1.732, -1, 8.42866, 24.1119, 18.4561, 24.108, -43.2144, -19.2206
1.736, -1, 8.48087, 24.0663, 18.4815, 24.1861, -43.1337, -19.2796
1.74, -1, 8.53303, 24.0208, 18.5069, 24.2642, -43.0532, -19.3387
1.744, -1, 8.58514, 23.9753, 18.5323, 24.3422, -42.9727, -19.3976
1.748, -1, 8.63719, 23.9299, 18.5576, 24.4201, -42.8924, -19.4565
1.752, -1, 8.68919, 23.8845, 18.5829, 24.4979, -42.8121, -19.5154
1.756, -1, 8.74113, 23.8392, 18.6082, 24.5757, -42.7319, -19.5741
1.76, -1, 8.79302, 23.7939, 18.6334, 24.6534, -42.6518, -19.6328
1.764, -1, 8.84485, 23.7487, 18.6587, 24.731, -42.5717, -19.6915
1.768, -1, 8.89663, 23.7035, 18.6839, 24.8085, -42.4918, -19.7501
1.772, -1, 8.94836, 23.6584, 18.7091, 24.8859, -42.4119, -19.8086
1.776, -1, 9.00004, 23.6133, 18.7342, 24.9632, -42.3321, -19.8671
1.78, -1, 9.05166, 23.5682, 18.7593, 25.0405, -42.2524, -19.9255
1.784, -1, 9.10323, 23.5232, 18.7845, 25.1177, -42.1728, -19.9839
1.788, -1, 9.15475, 23.4783, 18.8095, 25.1948, -42.0932, -20.0421
1.792, -1, 9.20621, 23.4333, 18.8346, 25.2719, -42.0137, -20.1004
1.796, -1, 9.25762, 23.3885, 18.8596, 25.3488, -41.9344, -20.1586
1.8, -1, 9.30898, 23.3437, 18.8846, 25.4257, -41.8551, -20.2167
1.804, -1, 9.36029, 23.2989, 18.9096, 25.5025, -41.7758, -20.2747
1.808, -1, 9.41155, 23.2542, 18.9345, 25.5792, -41.6967, -20.3327
1.812, -1, 9.46275, 23.2095, 18.9595, 25.6559, -41.6176, -20.3907
1.816, -1, 9.51391, 23.1648, 18.9844, 25.7324, -41.5386, -20.4485
1.82, -1, 9.56501, 23.1202, 19.0092, 25.8089, -41.4597, -20.5064
1.824, -1, 9.61606, 23.0757, 19.0341, 25.8853, -41.3809, -20.5641
1.828, -1, 9.66706, 23.0312, 19.0589, 25.9617, -41.3021, -20.6218
1.832, -1, 9.71801, 22.9867, 19.0837, 26.038, -41.2235, -20.6795
1.836, -1, 9.76891, 22.9423, 19.1085, 26.1141, -41.1449, -20.7371
1.84, -1, 9.81976, 22.8979, 19.1332, 26.1903, -41.0664, -20.7946
1.844, -1, 9.87056, 22.8536, 19.158, 26.2663, -40.9879, -20.8521
1.848, -1, 9.92131, 22.8093, 19.1827, 26.3423, -40.9096, -20.9095
1.852, -1, 9.97201, 22.7651, 19.2073, 26.4181, -40.8313, -20.9669
1.856, -1, 10.0227, 22.7209, 19.232, 26.494, -40.7531, -21.0242
1.86, -1, 10.0733, 22.6767, 19.2566, 26.5697, -40.6749, -21.0815
1.864, -1, 10.1238, 22.6326, 19.2812, 26.6454, -40.5969, -21.1387
1.868, -1, 10.1743, 22.5885, 19.3058, 26.721, -40.5189, -21.1958
1.872, -1, 10.2248, 22.5445, 19.3304, 26.7965, -40.441, -21.2529
1.876, -1, 10.2752, 22.5005, 19.3549, 26.8719, -40.3632, -21.3099
1.88, -1, 10.3255, 22.4566, 19.3794, 26.9473, -40.2854, -21.3669
1.884, -1, 10.3758, 22.4127, 19.4039, 27.0226, -40.2078, -21.4238
1.888, -1, 10.4261, 22.3688, 19.4284, 27.0978, -40.1301, -21.4807
1.892, -1, 10.4763, 22.325, 19.4528, 27.173, -40.0526, -21.5375
1.896, -1, 10.5265, 22.2812, 19.4772, 27.2481, -39.9752, -21.5943
1.9, -1, 10.5766, 22.2375, 19.5016, 27.3231, -39.8978, -21.651
1.904, -1, 10.6266, 22.1938, 19.526, 27.398, -39.8205, -21.7076
1.908, -1, 10.6767, 22.1502, 19.5503, 27.4729, -39.7432, -21.7642
1.912, -1, 10.7266, 22.1066, 19.5747, 27.5477, -39.6661, -21.8207
1.916, -1, 10.7765, 22.063, 19.599, 27.6224, -39.589, -21.8772
1.92, -1, 10.8264, 22.0195, 19.6232, 27.6971, -39.512, -21.9337
1.924, -1, 10.8763, 21.976, 19.6475, 27.7717, -39.4351, -21.9901
1.928, -1, 10.926, 21.9325, 19.6717, 27.8462, -39.3582, -22.0464
1.932, -1, 10.9758, 21.8891, 19.6959, 27.9206, -39.2814, -22.1027
1.936, -1, 11.0255, 21.8458, 19.7201, 27.995, -39.2047, -22.1589
1.94, -1, 11.0751, 21.8025, 19.7443, 28.0693, -39.128, -22.215
1.944, -1, 11.1247, 21.7592, 19.7684, 28.1435, -39.0514, -22.2712
1.948, -1, 11.1742, 21.7159, 19.7926, 28.2177, -38.9749, -22.3272
1.952, -1, 11.2237, 21.6727, 19.8166, 28.2918, -38.8985, -22.3832
1.956, -1, 11.2732, 21.6296, 19.8407, 28.3658, -38.8221, -22.4392
1.96, -1, 11.3226, 21.5865, 19.8648, 28.4398, -38.7458, -22.4951
1.964, -1, 11.372, 21.5434, 19.8888, 28.5137, -38.6696, -22.551
1.968, -1, 11.4213, 21.5004, 19.9128, 28.5875, -38.5935, -22.6068
1.972, -1, 11.4706, 21.4574, 19.9368, 28.6613, -38.5174, -22.6625
1.976, -1, 11.5198, 21.4144, 19.9608, 28.735, -38.4414, -22.7182
1.98, -1, 11.569, 21.3715, 19.9847, 28.8086, -38.3654, -22.7739
1.984, -1, 11.6181, 21.3286, 20.0086, 28.8821, -38.2895, -22.8295
1.988, -1, 11.6672, 21.2858, 20.0325, 28.9556, -38.2137, -22.885
1.992, -1, 11.7163, 21.2429, 20.0564, 29.029, -38.138, -22.9405
1.996, -1, 11.7653, 21.2002, 20.0802, 29.1024, -38.0623, -22.996
1.999, -1, 11.8142, 21.1575, 20.1041, 29.1757, -37.9867, -23.0514
2.004, -1, 11.8631, 21.1148, 20.1279, 29.2489, -37.9112, -23.1067
2.008, -1, 11.912, 21.0721, 20.1517, 29.3221, -37.8357, -23.162
2.012, -1, 11.9608, 21.0295, 20.1754, 29.3952, -37.7603, -23.2173
2.015, -1, 12.0096, 20.9869, 20.1992, 29.4682, -37.685, -23.2725
2.019, -1, 12.0584, 20.9444, 20.2229, 29.5411, -37.6097, -23.3276
2.024, -1, 12.1071, 20.9019, 20.2466, 29.614, -37.5345, -23.3827
2.028, -1, 12.1557, 20.8595, 20.2703, 29.6869, -37.4594, -23.4378
2.031, -1, 12.2043, 20.817, 20.294, 29.7596, -37.3844, -23.4928
2.036, -1, 12.2529, 20.7747, 20.3176, 29.8323, -37.3094, -23.5478
2.04, -1, 12.3014, 20.7323, 20.3412, 29.905, -37.2344, -23.6027
2.044, -1, 12.3499, 20.69, 20.3648, 29.9775, -37.1596, -23.6575
2.048, -1, 12.3983, 20.6477, 20.3884, 30.05, -37.0848, -23.7123
2.051, -1, 12.4467, 20.6055, 20.412, 30.1225, -37.0101, -23.7671
2.055, -1, 12.4951, 20.5633, 20.4355, 30.1948, -36.9354, -23.8218
2.06, -1, 12.5434, 20.5211, 20.459, 30.2672, -36.8608, -23.8765
2.064, -1, 12.5917, 20.479, 20.4825, 30.3394, -36.7863, -23.9311
2.068, -1, 12.6399, 20.4369, 20.506, 30.4116, -36.7118, -23.9857
2.071, -1, 12.6881, 20.3949, 20.5294, 30.4837, -36.6374, -24.0402
2.076, -1, 12.7362, 20.3529, 20.5529, 30.5558, -36.5631, -24.0947
2.08, -1, 12.7843, 20.3109, 20.5763, 30.6278, -36.4888, -24.1491
2.084, -1, 12.8324, 20.269, 20.5997, 30.6997, -36.4146, -24.2035
2.087, -1, 12.8804, 20.2271, 20.6231, 30.7716, -36.3404, -24.2578
2.092, -1, 12.9284, 20.1852, 20.6464, 30.8434, -36.2663, -24.3121
2.096, -1, 12.9763, 20.1434, 20.6698, 30.9152, -36.1923, -24.3663
2.1, -1, 13.0242, 20.1016, 20.6931, 30.9869, -36.1184, -24.4205
2.104, -1, 13.0721, 20.0598, 20.7164, 31.0585, -36.0445, -24.4747
2.107, -1, 13.1199, 20.0181, 20.7396, 31.1301, -35.9706, -24.5288
2.111, -1, 13.1676, 19.9764, 20.7629, 31.2016, -35.8969, -24.5828
2.116, -1, 13.2154, 19.9347, 20.7861, 31.273, -35.8232, -24.6368
2.12, -1, 13.2631, 19.8931, 20.8093, 31.3444, -35.7495, -24.6908
2.124, -1, 13.3107, 19.8515, 20.8325, 31.4158, -35.6759, -24.7447
2.127, -1, 13.3583, 19.81, 20.8557, 31.487, -35.6024, -24.7986
2.132, -1, 13.4059, 19.7685, 20.8789, 31.5583, -35.529, -24.8524
2.136, -1, 13.4534, 19.727, 20.902, 31.6294, -35.4556, -24.9062
2.14, -1, 13.5009, 19.6855, 20.9251, 31.7005, -35.3822, -24.96
2.143, -1, 13.5484, 19.6441, 20.9482, 31.7715, -35.3089, -25.0137
2.148, -1, 13.5958, 19.6027, 20.9713, 31.8425, -35.2357, -25.0673
2.152, -1, 13.6432, 19.5614, 20.9944, 31.9134, -35.1626, -25.1209
2.156, -1, 13.6905, 19.5201, 21.0174, 31.9843, -35.0895, -25.1745
2.16, -1, 13.7378, 19.4788, 21.0404, 32.0551, -35.0164, -25.228
2.163, -1, 13.7851, 19.4376, 21.0634, 32.1258, -34.9435, -25.2815
2.168, -1, 13.8323, 19.3963, 21.0864, 32.1965, -34.8705, -25.3349
2.172, -1, 13.8795, 19.3552, 21.1094, 32.2672, -34.7977, -25.3883
2.176, -1, 13.9266, 19.314, 21.1324, 32.3377, -34.7249, -25.4417
2.179, -1, 13.9737, 19.2729, 21.1553, 32.4082, -34.6521, -25.495
2.184, -1, 14.0208, 19.2318, 21.1782, 32.4787, -34.5795, -25.5482
2.188, -1, 14.0678, 19.1908, 21.2011, 32.5491, -34.5068, -25.6015
2.192, -1, 14.1148, 19.1498, 21.224, 32.6194, -34.4343, -25.6546
2.196, -1, 14.1618, 19.1088, 21.2468, 32.6897, -34.3618, -25.7078
2.199, -1, 14.2087, 19.0679, 21.2697, 32.76, -34.2893, -25.7609
2.204, -1, 14.2556, 19.027, 21.2925, 32.8301, -34.2169, -25.8139
2.208, -1, 14.3024, 18.9861, 21.3153, 32.9003, -34.1446, -25.8669
2.212, -1, 14.3492, 18.9452, 21.3381, 32.9703, -34.0723, -25.9199
2.216, -1, 14.396, 18.9044, 21.3608, 33.0403, -34.0001, -25.9728
2.219, -1, 14.4427, 18.8636, 21.3836, 33.1103, -33.9279, -26.0257
2.224, -1, 14.4894, 18.8229, 21.4063, 33.1802, -33.8558, -26.0785
2.228, -1, 14.5361, 18.7822, 21.429, 33.25, -33.7838, -26.1313
2.232, -1, 14.5827, 18.7415, 21.4517, 33.3198, -33.7118, -26.1841
2.235, -1, 14.6293, 18.7008, 21.4744, 33.3896, -33.6399, -26.2368
2.24, -1, 14.6758, 18.6602, 21.4971, 33.4592, -33.568, -26.2894
2.244, -1, 14.7223, 18.6196, 21.5197, 33.5289, -33.4962, -26.3421
2.248, -1, 14.7688, 18.5791, 21.5423, 33.5984, -33.4244, -26.3947
2.252, -1, 14.8153, 18.5385, 21.5649, 33.6679, -33.3527, -26.4472
2.255, -1, 14.8617, 18.498, 21.5875, 33.7374, -33.281, -26.4997
2.259, -1, 14.908, 18.4576, 21.6101, 33.8068, -33.2094, -26.5522
2.264, -1, 14.9544, 18.4171, 21.6326, 33.8762, -33.1379, -26.6046
2.268, -1, 15.0007, 18.3767, 21.6552, 33.9455, -33.0664, -26.657
2.272, -1, 15.0469, 18.3364, 21.6777, 34.0147, -32.995, -26.7094
2.275, -1, 15.0931, 18.296, 21.7002, 34.0839, -32.9236, -26.7617
2.28, -1, 15.1393, 18.2557, 21.7227, 34.1531, -32.8522, -26.8139
2.284, -1, 15.1855, 18.2154, 21.7452, 34.2222, -32.781, -26.8662
2.288, -1, 15.2316, 18.1752, 21.7676, 34.2912, -32.7098, -26.9184
2.291, -1, 15.2777, 18.135, 21.79, 34.3602, -32.6386, -26.9705
2.296, -1, 15.3237, 18.0948, 21.8125, 34.4291, -32.5675, -27.0226
2.3, -1, 15.3698, 18.0546, 21.8349, 34.498, -32.4964, -27.0747
2.304, -1, 15.4157, 18.0145, 21.8572, 34.5668, -32.4254, -27.1267
2.308, -1, 15.4617, 17.9744, 21.8796, 34.6356, -32.3545, -27.1787
2.311, -1, 15.5076, 17.9343, 21.902, 34.7044, -32.2836, -27.2307
2.316, -1, 15.5535, 17.8943, 21.9243, 34.773, -32.2127, -27.2826
2.32, -1, 15.5993, 17.8543, 21.9466, 34.8417, -32.1419, -27.3345
2.324, -1, 15.6451, 17.8143, 21.9689, 34.9102, -32.0712, -27.3863
2.328, -1, 15.6909, 17.7744, 21.9912, 34.9788, -32.0005, -27.4381
2.331, -1, 15.7367, 17.7344, 22.0135, 35.0472, -31.9299, -27.4899
2.336, -1, 15.7824, 17.6945, 22.0357, 35.1157, -31.8593, -27.5416
2.34, -1, 15.828, 17.6547, 22.0579, 35.184, -31.7888, -27.5933
2.344, -1, 15.8737, 17.6149, 22.0802, 35.2523, -31.7183, -27.6449
2.347, -1, 15.9193, 17.5751, 22.1024, 35.3206, -31.6479, -27.6965
2.352, -1, 15.9649, 17.5353, 22.1246, 35.3888, -31.5775, -27.7481
2.356, -1, 16.0104, 17.4955, 22.1467, 35.457, -31.5072, -27.7996
2.36, -1, 16.0559, 17.4558, 22.1689, 35.5251, -31.4369, -27.8511
2.364, -1, 16.1014, 17.4161, 22.191, 35.5932, -31.3667, -27.9026
2.367, -1, 16.1468, 17.3765, 22.2131, 35.6612, -31.2965, -27.954
2.372, -1, 16.1922, 17.3369, 22.2352, 35.7292, -31.2264, -28.0054
2.376, -1, 16.2376, 17.2972, 22.2573, 35.7971, -31.1563, -28.0567
2.38, -1, 16.283, 17.2577, 22.2794, 35.865, -31.0863, -28.1081
2.383, -1, 16.3283, 17.2181, 22.3015, 35.9328, -31.0163, -28.1593
2.388, -1, 16.3735, 17.1786, 22.3235, 36.0006, -30.9464, -28.2106
2.392, -1, 16.4188, 17.1391, 22.3455, 36.0684, -30.8765, -28.2618
2.396, -1, 16.464, 17.0997, 22.3675, 36.136, -30.8067, -28.3129
2.4, -1, 16.5092, 17.0602, 22.3895, 36.2037, -30.7369, -28.3641
2.403, -1, 16.5543, 17.0208, 22.4115, 36.2713, -30.6672, -28.4151
2.408, -1, 16.5995, 16.9815, 22.4335, 36.3388, -30.5975, -28.4662
2.412, -1, 16.6445, 16.9421, 22.4554, 36.4063, -30.5279, -28.5172
2.416, -1, 16.6896, 16.9028, 22.4774, 36.4737, -30.4583, -28.5682
2.42, -1, 16.7346, 16.8635, 22.4993, 36.5411, -30.3888, -28.6192
2.423, -1, 16.7796, 16.8242, 22.5212, 36.6085, -30.3193, -28.6701
2.428, -1, 16.8246, 16.785, 22.5431, 36.6758, -30.2499, -28.7209
2.432, -1, 16.8695, 16.7458, 22.5649, 36.7431, -30.1805, -28.7718
2.436, -1, 16.9144, 16.7066, 22.5868, 36.8103, -30.1112, -28.8226
2.439, -1, 16.9593, 16.6675, 22.6086, 36.8774, -30.0419, -28.8734
2.444, -1, 17.0041, 16.6283, 22.6305, 36.9445, -29.9727, -28.9241
2.448, -1, 17.0489, 16.5892, 22.6523, 37.0116, -29.9035, -28.9748
2.452, -1, 17.0937, 16.5502, 22.6741, 37.0786, -29.8344, -29.0255
2.456, -1, 17.1382, 16.5112, 22.6958, 37.1456, -29.7653, -29.0761
2.459, -1, 17.1825, 16.4724, 22.7175, 37.2125, -29.6962, -29.1267
2.464, -1, 17.2262, 16.434, 22.7391, 37.2794, -29.6273, -29.1772
2.468, -1, 17.2691, 16.3961, 22.7605, 37.346, -29.5586, -29.2276
2.472, -1, 17.311, 16.3588, 22.7817, 37.4124, -29.4901, -29.2778
2.476, -1, 17.3517, 16.3225, 22.8026, 37.4784, -29.4221, -29.3277
2.479, -1, 17.3912, 16.2871, 22.8231, 37.5437, -29.3548, -29.3771
2.484, -1, 17.4295, 16.253, 22.8431, 37.608, -29.2885, -29.4257
2.488, -1, 17.4665, 16.2202, 22.8626, 37.671, -29.2236, -29.4734
2.492, -1, 17.5021, 16.1888, 22.8815, 37.7323, -29.1605, -29.5197
2.495, -1, 17.5362, 16.1591, 22.8996, 37.7914, -29.0996, -29.5644
2.5, -1, 17.5687, 16.1312, 22.9169, 37.848, -29.0413, -29.6072
2.504, -1, 17.5994, 16.105, 22.9332, 37.9015, -28.9862, -29.6477
2.508, -1, 17.6283, 16.0805, 22.9486, 37.9516, -28.9346, -29.6856
2.512, -1, 17.6555, 16.0574, 22.9628, 37.9978, -28.887, -29.7205
2.515, -1, 17.6812, 16.0355, 22.976, 38.0399, -28.8436, -29.7524
2.52, -1, 17.7053, 16.0146, 22.988, 38.0776, -28.8048, -29.7809
2.524, -1, 17.7278, 15.9948, 22.9989, 38.1108, -28.7704, -29.806
2.528, -1, 17.7489, 15.976, 23.0086, 38.1396, -28.7407, -29.8278
2.531, -1, 17.7682, 15.9585, 23.0172, 38.1642, -28.7153, -29.8463
2.536, -1, 17.7858, 15.9425, 23.0247, 38.1847, -28.6941, -29.8618
2.54, -1, 17.8015, 15.9283, 23.0311, 38.2015, -28.6766, -29.8745
2.544, -1, 17.8154, 15.9158, 23.0365, 38.2151, -28.6626, -29.8847
2.548, -1, 17.8278, 15.905, 23.041, 38.2257, -28.6516, -29.8927
2.551, -1, 17.8387, 15.8958, 23.0447, 38.2338, -28.6431, -29.8988
2.556, -1, 17.8481, 15.8883, 23.0477, 38.2399, -28.6368, -29.9034
2.56, -1, 17.8562, 15.8821, 23.0501, 38.2443, -28.6322, -29.9067
2.564, -1, 17.8629, 15.8772, 23.0519, 38.2474, -28.6288, -29.909
2.568, -1, 17.8682, 15.8735, 23.0532, 38.2496, -28.6265, -29.9107
2.571, 2, 17.8723, 15.8707, 23.0542, 38.2512, -28.6249, -29.9118
2.576, 2, 17.8752, 15.8687, 23.0549, 38.2522, -28.6238, -29.9126
2.58, 2, 17.8773, 15.8674, 23.0554, 38.2529, -28.6231, -29.9131
2.584, 2, 17.8786, 15.8665, 23.0557, 38.2534, -28.6226, -29.9135
2.587, 2, 17.8796, 15.8659, 23.0559, 38.2537, -28.6222, -29.9137
2.592, 2, 17.8802, 15.8654, 23.0561, 38.2539, -28.622, -29.9139
2.596, 2, 17.8807, 15.8651, 23.0562, 38.2541, -28.6218, -29.914
2.6, 2, 17.881, 15.865, 23.0562, 38.2542, -28.6217, -29.9141
2.604, 2, 17.8812, 15.8648, 23.0563, 38.2542, -28.6217, -29.9141
2.607, 2, 17.8813, 15.8647, 23.0563, 38.2543, -28.6216, -29.9142
2.612, 2, 17.8814, 15.8647, 23.0563, 38.2543, -28.6216, -29.9142
2.616, 2, 17.8814, 15.8646, 23.0564, 38.2543, -28.6216, -29.9142
2.62, 2, 17.8815, 15.8646, 23.0564, 38.2543, -28.6215, -29.9142
2.624, 2, 17.8815, 15.8646, 23.0564, 38.2543, -28.6215, -29.9142
2.627, 2, 17.8815, 15.8646, 23.0564, 38.2544, -28.6215, -29.9142
2.632, 2, 17.8815, 15.8646, 23.0564, 38.2544, -28.6215, -29.9142
2.636, 2, 17.8816, 15.8646, 23.0564, 38.2544, -28.6215, -29.9142
2.64, 2, 17.8816, 15.8646, 23.0564, 38.2544, -28.6215, -29.9142
2.643, 2, 17.8816, 15.8646, 23.0564, 38.2544, -28.6215, -29.9142
2.648, 2, 17.8816, 15.8646, 23.0564, 38.2544, -28.6215, -29.9142
2.652, 2, 17.8816, 15.8646, 23.0564, 38.2544, -28.6215, -29.9142
2.656, 2, 17.8816, 15.8646, 23.0564, 38.2544, -28.6215, -29.9142
2.66, 2, 17.8816, 15.8645, 23.0564, 38.2544, -28.6215, -29.9142
2.663, 2, 17.8816, 15.8645, 23.0564, 38.2544, -28.6215, -29.9142
2.668, 2, 17.8816, 15.8645, 23.0564, 38.2544, -28.6215, -29.9142
2.672, 2, 17.8816, 15.8645, 23.0564, 38.2544, -28.6215, -29.9142
2.676, 2, 17.8816, 15.8645, 23.0564, 38.2544, -28.6215, -29.9142
2.679, 2, 17.8816, 15.8645, 23.0564, 38.2544, -28.6215, -29.9142
2.684, 2, 17.8816, 15.8645, 23.0564, 38.2544, -28.6215, -29.9142
2.688, 2, 17.8816, 15.8645, 23.0564, 38.2544, -28.6215, -29.9142
2.692, 2, 17.8816, 15.8645, 23.0564, 38.2544, -28.6215, -29.9142
2.696, 2, 17.8816, 15.8645, 23.0564, 38.2544, -28.6215, -29.9142
2.699, 2, 17.8816, 15.8645, 23.0564, 38.2544, -28.6215, -29.9142
2.704, 2, 17.8816, 15.8645, 23.0564, 38.2544, -28.6215, -29.9142
2.708, 2, 17.8816, 15.8645, 23.0564, 38.2544, -28.6215, -29.9142
2.712, 2, 17.8816, 15.8645, 23.0564, 38.2544, -28.6215, -29.9142
2.716, 2, 17.8816, 15.8645, 23.0564, 38.2544, -28.6215, -29.9142
2.719, 2, 17.8816, 15.8645, 23.0564, 38.2544, -28.6215, -29.9142
2.724, 2, 17.8816, 15.8645, 23.0564, 38.2544, -28.6215, -29.9142
2.728, 2, 17.8816, 15.8645, 23.0564, 38.2544, -28.6215, -29.9142
2.732, 2, 17.8816, 15.8645, 23.0564, 38.2544, -28.6215, -29.9142
2.735, 2, 17.8816, 15.8645, 23.0564, 38.2544, -28.6215, -29.9142
2.74, 2, 17.8816, 15.8645, 23.0564, 38.2544, -28.6215, -29.9142
2.744, 2, 17.8816, 15.8645, 23.0564, 38.2544, -28.6215, -29.9142
2.748, 2, 17.8816, 15.8645, 23.0564, 38.2544, -28.6215, -29.9142
2.752, 2, 17.8816, 15.8645, 23.0564, 38.2544, -28.6215, -29.9142
2.755, 2, 17.8816, 15.8645, 23.0564, 38.2544, -28.6215, -29.9142
2.76, 2, 17.8816, 15.8645, 23.0564, 38.2544, -28.6215, -29.9142
2.764, 2, 17.8816, 15.8645, 23.0564, 38.2544, -28.6215, -29.9142
2.768, 2, 17.8816, 15.8645, 23.0564, 38.2544, -28.6215, -29.9142
2.772, 2, 17.8816, 15.8645, 23.0564, 38.2544, -28.6215, -29.9142
2.775, 2, 17.8816, 15.8645, 23.0564, 38.2544, -28.6215, -29.9142
2.78, 2, 17.8816, 15.8645, 23.0564, 38.2544, -28.6215, -29.9142
2.784, 2, 17.8816, 15.8645, 23.0564, 38.2544, -28.6215, -29.9142
2.788, 2, 17.8816, 15.8645, 23.0564, 38.2544, -28.6215, -29.9142
2.791, 2, 17.8816, 15.8645, 23.0564, 38.2544, -28.6215, -29.9142
2.796, 2, 17.8816, 15.8645, 23.0564, 38.2544, -28.6215, -29.9142
2.8, 2, 17.8816, 15.8645, 23.0564, 38.2544, -28.6215, -29.9142
2.804, 2, 17.8816, 15.8645, 23.0564, 38.2544, -28.6215, -29.9142
2.808, 2, 17.8816, 15.8645, 23.0564, 38.2544, -28.6215, -29.9142
2.811, 2, 17.8816, 15.8645, 23.0564, 38.2544, -28.6215, -29.9142
2.816, 2, 17.8816, 15.8645, 23.0564, 38.2544, -28.6215, -29.9142
2.82, 2, 17.8816, 15.8645, 23.0564, 38.2544, -28.6215, -29.9142
2.824, 2, 17.8816, 15.8645, 23.0564, 38.2544, -28.6215, -29.9142
2.828, 2, 17.8816, 15.8645, 23.0564, 38.2544, -28.6215, -29.9142
2.831, 2, 17.8816, 15.8645, 23.0564, 38.2544, -28.6215, -29.9142
2.836, 2, 17.8816, 15.8645, 23.0564, 38.2544, -28.6215, -29.9142
2.84, 2, 17.8816, 15.8645, 23.0564, 38.2544, -28.6215, -29.9142
2.844, 2, 17.8816, 15.8645, 23.0564, 38.2544, -28.6215, -29.9142
2.847, 2, 17.8816, 15.8645, 23.0564, 38.2544, -28.6215, -29.9142
2.852, 2, 17.8816, 15.8645, 23.0564, 38.2544, -28.6215, -29.9142
2.856, 2, 17.8816, 15.8645, 23.0564, 38.2544, -28.6215, -29.9142
2.86, 2, 17.8816, 15.8645, 23.0564, 38.2544, -28.6215, -29.9142
2.864, 2, 17.8816, 15.8645, 23.0564, 38.2544, -28.6215, -29.9142
2.867, 2, 17.8816, 15.8645, 23.0564, 38.2544, -28.6215, -29.9142
2.872, 2, 17.8816, 15.8645, 23.0564, 38.2544, -28.6215, -29.9142
2.876, 2, 17.8816, 15.8645, 23.0564, 38.2544, -28.6215, -29.9142
2.88, 2, 17.8816, 15.8645, 23.0564, 38.2544, -28.6215, -29.9142
2.883, 2, 17.8816, 15.8645, 23.0564, 38.2544, -28.6215, -29.9142
2.888, 2, 17.8816, 15.8645, 23.0564, 38.2544, -28.6215, -29.9142
2.892, 2, 17.8816, 15.8645, 23.0564, 38.2544, -28.6215, -29.9142
2.896, 2, 17.8816, 15.8645, 23.0564, 38.2544, -28.6215, -29.9142
2.9, 2, 17.8816, 15.8645, 23.0564, 38.2544, -28.6215, -29.9142
2.903, 2, 17.8816, 15.8645, 23.0564, 38.2544, -28.6215, -29.9142
2.908, 2, 17.8816, 15.8645, 23.0564, 38.2544, -28.6215, -29.9142
2.912, 2, 17.8816, 15.8645, 23.0564, 38.2544, -28.6215, -29.9142
2.916, 2, 17.8816, 15.8645, 23.0564, 38.2544, -28.6215, -29.9142
2.92, 2, 17.8816, 15.8645, 23.0564, 38.2544, -28.6215, -29.9142
2.923, 2, 17.8816, 15.8645, 23.0564, 38.2544, -28.6215, -29.9142
2.928, 2, 17.8816, 15.8645, 23.0564, 38.2544, -28.6215, -29.9142
2.932, 2, 17.8816, 15.8645, 23.0564, 38.2544, -28.6215, -29.9142
2.936, 2, 17.8816, 15.8645, 23.0564, 38.2544, -28.6215, -29.9142
2.939, 2, 17.8816, 15.8645, 23.0564, 38.2544, -28.6215, -29.9142
2.944, 2, 17.8816, 15.8645, 23.0564, 38.2544, -28.6215, -29.9142
2.948, 2, 17.8816, 15.8645, 23.0564, 38.2544, -28.6215, -29.9142
2.952, 2, 17.8816, 15.8645, 23.0564, 38.2544, -28.6215, -29.9142
2.956, 2, 17.8816, 15.8645, 23.0564, 38.2544, -28.6215, -29.9142
2.959, 2, 17.8816, 15.8645, 23.0564, 38.2544, -28.6215, -29.9142
2.964, 2, 17.8816, 15.8645, 23.0564, 38.2544, -28.6215, -29.9142
2.968, 2, 17.8816, 15.8645, 23.0564, 38.2544, -28.6215, -29.9142
2.972, 2, 17.8816, 15.8645, 23.0564, 38.2544, -28.6215, -29.9142
2.976, 2, 17.8816, 15.8645, 23.0564, 38.2544, -28.6215, -29.9142
2.98, 2, 17.8816, 15.8645, 23.0564, 38.2544, -28.6215, -29.9142
2.984, 2, 17.8816, 15.8645, 23.0564, 38.2544, -28.6215, -29.9142
2.988, 2, 17.8816, 15.8645, 23.0564, 38.2544, -28.6215, -29.9142
2.992, 2, 17.8816, 15.8645, 23.0564, 38.2544, -28.6215, -29.9142
2.995, 2, 17.8816, 15.8645, 23.0564, 38.2544, -28.6215, -29.9142
3, 2, 17.8816, 15.8645, 23.0564, 38.2544, -28.6215, -29.9142
3.004, 2, 17.8816, 15.8645, 23.0564, 38.2544, -28.6215, -29.9142
3.008, 2, 17.8816, 15.8645, 23.0564, 38.2544, -28.6215, -29.9142
3.012, 2, 17.8816, 15.8645, 23.0564, 38.2544, -28.6215, -29.9142
3.015, 2, 17.8816, 15.8645, 23.0564, 38.2544, -28.6215, -29.9142
3.02, 2, 17.8816, 15.8645, 23.0564, 38.2544, -28.6215, -29.9142
3.024, 2, 17.8816, 15.8645, 23.0564, 38.2544, -28.6215, -29.9142
3.028, 2, 17.8816, 15.8645, 23.0564, 38.2544, -28.6215, -29.9142
3.031, 2, 17.8816, 15.8645, 23.0564, 38.2544, -28.6215, -29.9142
3.036, 2, 17.8816, 15.8645, 23.0564, 38.2544, -28.6215, -29.9142
3.04, 2, 17.8816, 15.8645, 23.0564, 38.2544, -28.6215, -29.9142
3.044, 2, 17.8816, 15.8645, 23.0564, 38.2544, -28.6215, -29.9142
3.048, 2, 17.8816, 15.8645, 23.0564, 38.2544, -28.6215, -29.9142
3.051, 2, 17.8816, 15.8645, 23.0564, 38.2544, -28.6215, -29.9142
3.056, 2, 17.8816, 15.8645, 23.0564, 38.2544, -28.6215, -29.9142
3.06, 2, 17.8816, 15.8645, 23.0564, 38.2544, -28.6215, -29.9142
3.064, 2, 17.8816, 15.8645, 23.0564, 38.2544, -28.6215, -29.9142
3.068, 2, 17.8816, 15.8645, 23.0564, 38.2544, -28.6215, -29.9142
3.071, 2, 17.8816, 15.8645, 23.0564, 38.2544, -28.6215, -29.9142
3.076, 2, 17.8816, 15.8645, 23.0564, 38.2544, -28.6215, -29.9142
3.08, 2, 17.8816, 15.8645, 23.0564, 38.2544, -28.6215, -29.9142
3.084, 2, 17.8816, 15.8645, 23.0564, 38.2544, -28.6215, -29.9142
3.087, 2, 17.8816, 15.8645, 23.0564, 38.2544, -28.6215, -29.9142
3.092, 2, 17.8816, 15.8645, 23.0564, 38.2544, -28.6215, -29.9142
3.096, 2, 17.8816, 15.8645, 23.0564, 38.2544, -28.6215, -29.9142
3.1, 2, 17.8816, 15.8645, 23.0564, 38.2544, -28.6215, -29.9142
3.104, 2, 17.8816, 15.8645, 23.0564, 38.2544, -28.6215, -29.9142
3.107, 2, 17.8816, 15.8645, 23.0564, 38.2544, -28.6215, -29.9142
3.112, 2, 17.8816, 15.8645, 23.0564, 38.2544, -28.6215, -29.9142
3.116, 2, 17.8816, 15.8645, 23.0564, 38.2544, -28.6215, -29.9142
3.12, 2, 17.8816, 15.8645, 23.0564, 38.2544, -28.6215, -29.9142
3.124, 2, 17.8816, 15.8645, 23.0564, 38.2544, -28.6215, -29.9142
3.128, 2, 17.8816, 15.8645, 23.0564, 38.2544, -28.6215, -29.9142
3.132, 2, 17.8816, 15.8645, 23.0564, 38.2544, -28.6215, -29.9142
3.136, 2, 17.8816, 15.8645, 23.0564, 38.2544, -28.6215, -29.9142
3.14, 2, 17.8816, 15.8645, 23.0564, 38.2544, -28.6215, -29.9142
3.143, 2, 17.8816, 15.8645, 23.0564, 38.2544, -28.6215, -29.9142
3.148, 2, 17.8816, 15.8645, 23.0564, 38.2544, -28.6215, -29.9142
3.152, 2, 17.8816, 15.8645, 23.0564, 38.2544, -28.6215, -29.9142
3.156, 2, 17.8816, 15.8645, 23.0564, 38.2544, -28.6215, -29.9142
3.16, 2, 17.8816, 15.8645, 23.0564, 38.2544, -28.6215, -29.9142
3.163, 2, 17.8816, 15.8645, 23.0564, 38.2544, -28.6215, -29.9142
3.168, 2, 17.8816, 15.8645, 23.0564, 38.2544, -28.6215, -29.9142
3.172, 2, 17.8816, 15.8645, 23.0564, 38.2544, -28.6215, -29.9142
3.176, 2, 17.8816, 15.8645, 23.0564, 38.2544, -28.6215, -29.9142
3.179, 2, 17.8816, 15.8645, 23.0564, 38.2544, -28.6215, -29.9142
3.184, 2, 17.8816, 15.8645, 23.0564, 38.2544, -28.6215, -29.9142
3.188, 2, 17.8816, 15.8645, 23.0564, 38.2544, -28.6215, -29.9142
3.192, 2, 17.8816, 15.8645, 23.0564, 38.2544, -28.6215, -29.9142
3.196, 2, 17.8816, 15.8645, 23.0564, 38.2544, -28.6215, -29.9142
3.199, 2, 17.8816, 15.8645, 23.0564, 38.2544, -28.6215, -29.9142
3.204, 2, 17.8816, 15.8645, 23.0564, 38.2544, -28.6215, -29.9142
3.208, 2, 17.8816, 15.8645, 23.0564, 38.2544, -28.6215, -29.9142
3.212, 2, 17.8816, 15.8645, 23.0564, 38.2544, -28.6215, -29.9142
3.216, 2, 17.8816, 15.8645, 23.0564, 38.2544, -28.6215, -29.9142
3.22, 2, 17.8816, 15.8645, 23.0564, 38.2544, -28.6215, -29.9142
3.224, 2, 17.8816, 15.8645, 23.0564, 38.2544, -28.6215, -29.9142
3.228, 2, 17.8816, 15.8645, 23.0564, 38.2544, -28.6215, -29.9142
3.232, 2, 17.8816, 15.8645, 23.0564, 38.2544, -28.6215, -29.9142
3.235, 2, 17.8816, 15.8645, 23.0564, 38.2544, -28.6215, -29.9142
3.24, 2, 17.8816, 15.8645, 23.0564, 38.2544, -28.6215, -29.9142
3.244, 2, 17.8816, 15.8645, 23.0564, 38.2544, -28.6215, -29.9142
3.248, 2, 17.8816, 15.8645, 23.0564, 38.2544, -28.6215, -29.9142
3.252, 2, 17.8816, 15.8645, 23.0564, 38.2544, -28.6215, -29.9142
3.255, 2, 17.8816, 15.8645, 23.0564, 38.2544, -28.6215, -29.9142
3.26, 2, 17.8816, 15.8645, 23.0564, 38.2544, -28.6215, -29.9142
3.264, 2, 17.8816, 15.8645, 23.0564, 38.2544, -28.6215, -29.9142
3.268, 2, 17.8816, 15.8645, 23.0564, 38.2544, -28.6215, -29.9142
3.272, 2, 17.8816, 15.8645, 23.0564, 38.2544, -28.6215, -29.9142
3.276, 2, 17.8816, 15.8645, 23.0564, 38.2544, -28.6215, -29.9142
3.28, 2, 17.8816, 15.8645, 23.0564, 38.2544, -28.6215, -29.9142
3.284, 2, 17.8816, 15.8645, 23.0564, 38.2544, -28.6215, -29.9142
3.288, 2, 17.8816, 15.8645, 23.0564, 38.2544, -28.6215, -29.9142
3.291, 2, 17.8816, 15.8645, 23.0564, 38.2544, -28.6215, -29.9142
3.296, 2, 17.8816, 15.8645, 23.0564, 38.2544, -28.6215, -29.9142
3.3, 2, 17.8816, 15.8645, 23.0564, 38.2544, -28.6215, -29.9142
3.304, 2, 17.8816, 15.8645, 23.0564, 38.2544, -28.6215, -29.9142
3.308, 2, 17.8816, 15.8645, 23.0564, 38.2544, -28.6215, -29.9142
3.312, 2, 17.8816, 15.8645, 23.0564, 38.2544, -28.6215, -29.9142
3.316, 2, 17.8816, 15.8645, 23.0564, 38.2544, -28.6215, -29.9142
3.32, 2, 17.8816, 15.8645, 23.0564, 38.2544, -28.6215, -29.9142
3.324, 2, 17.8816, 15.8645, 23.0564, 38.2544, -28.6215, -29.9142
3.328, 2, 17.8816, 15.8645, 23.0564, 38.2544, -28.6215, -29.9142
3.332, 2, 17.8816, 15.8645, 23.0564, 38.2544, -28.6215, -29.9142
3.336, 2, 17.8816, 15.8645, 23.0564, 38.2544, -28.6215, -29.9142
3.34, 2, 17.8816, 15.8645, 23.0564, 38.2544, -28.6215, -29.9142
3.344, 2, 17.8816, 15.8645, 23.0564, 38.2544, -28.6215, -29.9142
3.347, 2, 17.8816, 15.8645, 23.0564, 38.2544, -28.6215, -29.9142
3.352, 2, 17.8816, 15.8645, 23.0564, 38.2544, -28.6215, -29.9142
3.356, 2, 17.8816, 15.8645, 23.0564, 38.2544, -28.6215, -29.9142
3.36, 2, 17.8816, 15.8645, 23.0564, 38.2544, -28.6215, -29.9142
3.364, 2, 17.8816, 15.8645, 23.0564, 38.2544, -28.6215, -29.9142
3.368, 2, 17.8816, 15.8645, 23.0564, 38.2544, -28.6215, -29.9142
3.372, 2, 17.8816, 15.8645, 23.0564, 38.2544, -28.6215, -29.9142
3.376, 2, 17.8816, 15.8645, 23.0564, 38.2544, -28.6215, -29.9142
3.38, 2, 17.8816, 15.8645, 23.0564, 38.2544, -28.6215, -29.9142
3.383, 2, 17.8816, 15.8645, 23.0564, 38.2544, -28.6215, -29.9142
3.388, 2, 17.8816, 15.8645, 23.0564, 38.2544, -28.6215, -29.9142
3.392, 2, 17.8816, 15.8645, 23.0564, 38.2544, -28.6215, -29.9142
3.396, 2, 17.8816, 15.8645, 23.0564, 38.2544, -28.6215, -29.9142
3.4, 2, 17.8816, 15.8645, 23.0564, 38.2544, -28.6215, -29.9142
3.403, 2, 17.8816, 15.8645, 23.0564, 38.2544, -28.6215, -29.9142
3.408, 2, 17.8816, 15.8645, 23.0564, 38.2544, -28.6215, -29.9142
3.412, 2, 17.8816, 15.8645, 23.0564, 38.2544, -28.6215, -29.9142
3.416, 2, 17.8816, 15.8645, 23.0564, 38.2544, -28.6215, -29.9142
3.42, 2, 17.8816, 15.8645, 23.0564, 38.2544, -28.6215, -29.9142
3.424, 2, 17.8816, 15.8645, 23.0564, 38.2544, -28.6215, -29.9142
3.428, 2, 17.8816, 15.8645, 23.0564, 38.2544, -28.6215, -29.9142
3.432, 2, 17.8816, 15.8645, 23.0564, 38.2544, -28.6215, -29.9142
3.436, 2, 17.8816, 15.8645, 23.0564, 38.2544, -28.6215, -29.9142
3.439, 2, 17.8816, 15.8645, 23.0564, 38.2544, -28.6215, -29.9142
3.444, 2, 17.8816, 15.8645, 23.0564, 38.2544, -28.6215, -29.9142
3.448, 2, 17.8816, 15.8645, 23.0564, 38.2544, -28.6215, -29.9142
3.452, 2, 17.8816, 15.8645, 23.0564, 38.2544, -28.6215, -29.9142
3.456, 2, 17.8816, 15.8645, 23.0564, 38.2544, -28.6215, -29.9142
3.46, 2, 17.8816, 15.8645, 23.0564, 38.2544, -28.6215, -29.9142
3.464, 2, 17.8816, 15.8645, 23.0564, 38.2544, -28.6215, -29.9142
3.468, 2, 17.8816, 15.8645, 23.0564, 38.2544, -28.6215, -29.9142
3.472, 2, 17.8816, 15.8645, 23.0564, 38.2544, -28.6215, -29.9142
3.476, 2, 17.8816, 15.8645, 23.0564, 38.2544, -28.6215, -29.9142
3.48, 2, 17.8816, 15.8645, 23.0564, 38.2544, -28.6215, -29.9142
3.484, 2, 17.8816, 15.8645, 23.0564, 38.2544, -28.6215, -29.9142
3.488, 2, 17.8816, 15.8645, 23.0564, 38.2544, -28.6215, -29.9142
3.492, 2, 17.8816, 15.8645, 23.0564, 38.2544, -28.6215, -29.9142
3.495, 2, 17.8816, 15.8645, 23.0564, 38.2544, -28.6215, -29.9142
3.5, 2, 17.8816, 15.8645, 23.0564, 38.2544, -28.6215, -29.9142
3.504, 2, 17.8816, 15.8645, 23.0564, 38.2544, -28.6215, -29.9142
3.508, 2, 17.8816, 15.8645, 23.0564, 38.2544, -28.6215, -29.9142
3.512, 2, 17.8816, 15.8645, 23.0564, 38.2544, -28.6215, -29.9142
3.516, 2, 17.8816, 15.8645, 23.0564, 38.2544, -28.6215, -29.9142
3.52, 2, 17.8816, 15.8645, 23.0564, 38.2544, -28.6215, -29.9142
3.524, 2, 17.8816, 15.8645, 23.0564, 38.2544, -28.6215, -29.9142
3.528, 2, 17.8816, 15.8645, 23.0564, 38.2544, -28.6215, -29.9142
3.531, 2, 17.8816, 15.8645, 23.0564, 38.2544, -28.6215, -29.9142
3.536, 2, 17.8816, 15.8645, 23.0564, 38.2544, -28.6215, -29.9142
3.54, 2, 17.8816, 15.8645, 23.0564, 38.2544, -28.6215, -29.9142
3.544, 2, 17.8816, 15.8645, 23.0564, 38.2544, -28.6215, -29.9142
3.548, 2, 17.8816, 15.8645, 23.0564, 38.2544, -28.6215, -29.9142
3.552, 2, 17.8816, 15.8645, 23.0564, 38.2544, -28.6215, -29.9142
3.556, 2, 17.8816, 15.8645, 23.0564, 38.2544, -28.6215, -29.9142
3.56, 2, 17.8816, 15.8645, 23.0564, 38.2544, -28.6215, -29.9142
3.564, 2, 17.8816, 15.8645, 23.0564, 38.2544, -28.6215, -29.9142
3.568, 2, 17.8816, 15.8645, 23.0564, 38.2544, -28.6215, -29.9142
3.572, 2, 17.8816, 15.8645, 23.0564, 38.2544, -28.6215, -29.9142
3.576, 2, 17.8816, 15.8645, 23.0564, 38.2544, -28.6215, -29.9142
3.58, 2, 17.8816, 15.8645, 23.0564, 38.2544, -28.6215, -29.9142
3.584, 2, 17.8816, 15.8645, 23.0564, 38.2544, -28.6215, -29.9142
3.587, 2, 17.8816, 15.8645, 23.0564, 38.2544, -28.6215, -29.9142
3.592, 2, 17.8816, 15.8645, 23.0564, 38.2544, -28.6215, -29.9142
3.596, 2, 17.8816, 15.8645, 23.0564, 38.2544, -28.6215, -29.9142
3.6, 2, 17.8816, 15.8645, 23.0564, 38.2544, -28.6215, -29.9142
3.604, 2, 17.8816, 15.8645, 23.0564, 38.2544, -28.6215, -29.9142
3.608, 2, 17.8816, 15.8645, 23.0564, 38.2544, -28.6215, -29.9142
3.612, 2, 17.8816, 15.8645, 23.0564, 38.2544, -28.6215, -29.9142
3.616, 2, 17.8816, 15.8645, 23.0564, 38.2544, -28.6215, -29.9142
3.62, 2, 17.8816, 15.8645, 23.0564, 38.2544, -28.6215, -29.9142
3.624, 2, 17.8816, 15.8645, 23.0564, 38.2544, -28.6215, -29.9142
3.628, 2, 17.8816, 15.8645, 23.0564, 38.2544, -28.6215, -29.9142
3.632, 2, 17.8816, 15.8645, 23.0564, 38.2544, -28.6215, -29.9142
3.636, 2, 17.8816, 15.8645, 23.0564, 38.2544, -28.6215, -29.9142
3.64, 2, 17.8816, 15.8645, 23.0564, 38.2544, -28.6215, -29.9142
3.644, 4, 17.8816, 15.8645, 23.0564, 38.2544, -28.6215, -29.9142
3.648, 4, 17.8816, 15.8645, 23.0564, 38.2544, -28.6215, -29.9142
3.652, 4, 17.8816, 15.8645, 23.0564, 38.2544, -28.6215, -29.9142
3.656, 4, 17.8816, 15.8645, 23.0564, 38.2544, -28.6215, -29.9142
3.66, 4, 17.8816, 15.8645, 23.0564, 38.2544, -28.6215, -29.9142
3.664, 4, 17.8816, 15.8645, 23.0564, 38.2544, -28.6215, -29.9142
3.668, 4, 17.8816, 15.8645, 23.0564, 38.2544, -28.6215, -29.9142
3.672, 4, 17.8816, 15.8645, 23.0564, 38.2544, -28.6215, -29.9142
3.676, 4, 17.8816, 15.8645, 23.0564, 38.2544, -28.6215, -29.9142
3.679, 4, 17.8816, 15.8645, 23.0564, 38.2544, -28.6215, -29.9142
3.684, 4, 17.8816, 15.8645, 23.0564, 38.2544, -28.6215, -29.9142
3.688, 4, 17.8816, 15.8645, 23.0564, 38.2544, -28.6215, -29.9142
3.692, 4, 17.8816, 15.8645, 23.0564, 38.2544, -28.6215, -29.9142
3.696, 4, 17.8816, 15.8645, 23.0564, 38.2544, -28.6215, -29.9142
3.7, 4, 17.8816, 15.8645, 23.0564, 38.2544, -28.6215, -29.9142
3.704, 4, 17.8816, 15.8645, 23.0564, 38.2544, -28.6215, -29.9142
3.708, 4, 17.8816, 15.8645, 23.0564, 38.2544, -28.6215, -29.9142
3.712, 4, 17.8816, 15.8645, 23.0564, 38.2544, -28.6215, -29.9142
3.716, 4, 17.8816, 15.8645, 23.0564, 38.2544, -28.6215, -29.9142
3.72, 4, 17.8816, 15.8645, 23.0564, 38.2544, -28.6215, -29.9142
3.724, 4, 17.8816, 15.8645, 23.0564, 38.2544, -28.6215, -29.9142
3.728, 4, 17.8816, 15.8645, 23.0564, 38.2544, -28.6215, -29.9142
3.732, 4, 17.8816, 15.8645, 23.0564, 38.2544, -28.6215, -29.9142
3.735, 4, 17.8816, 15.8645, 23.0564, 38.2544, -28.6215, -29.9142
3.74, 4, 17.8816, 15.8645, 23.0564, 38.2544, -28.6215, -29.9142
3.744, 4, 17.8816, 15.8645, 23.0564, 38.2544, -28.6215, -29.9142
3.75, 4, 17.8816, 15.8645, 23.0564, 38.2544, -28.6215, -29.9142
3.754, 4, 17.8816, 15.8645, 23.0564, 38.2544, -28.6215, -29.9142
3.756, 4, 17.8816, 15.8645, 23.0564, 38.2544, -28.6215, -29.9142
3.76, 4, 17.8816, 15.8645, 23.0564, 38.2544, -28.6215, -29.9142
3.764, 4, 17.8816, 15.8645, 23.0564, 38.2544, -28.6215, -29.9142
3.768, 4, 17.8816, 15.8645, 23.0564, 38.2544, -28.6215, -29.9142
3.772, 4, 17.8816, 15.8645, 23.0564, 38.2544, -28.6215, -29.9142
3.776, 4, 17.8816, 15.8646, 23.0564, 38.2544, -28.6215, -29.9142
3.78, 4, 17.8815, 15.8646, 23.0564, 38.2544, -28.6215, -29.9142
3.784, 4, 17.8813, 15.8647, 23.0563, 38.2543, -28.6215, -29.9142
3.788, 4, 17.8808, 15.8651, 23.0563, 38.2543, -28.6215, -29.9142
3.792, 4, 17.8799, 15.8658, 23.0561, 38.2541, -28.6216, -29.914
3.796, 4, 17.8784, 15.867, 23.0557, 38.2537, -28.6217, -29.9137
3.8, 4, 17.8763, 15.869, 23.0552, 38.2529, -28.622, -29.913
3.804, 4, 17.8734, 15.8718, 23.0543, 38.2514, -28.6225, -29.9118
3.808, 4, 17.8697, 15.8758, 23.053, 38.2487, -28.6234, -29.9096
3.812, 4, 17.8651, 15.8812, 23.0512, 38.2445, -28.6248, -29.906
3.816, 5, 17.8594, 15.8885, 23.0486, 38.2381, -28.6269, -29.9006
3.82, 5, 17.8526, 15.8978, 23.0452, 38.2288, -28.6299, -29.8927
3.824, 5, 17.8445, 15.9095, 23.0407, 38.2157, -28.6342, -29.8817
3.828, 5, 17.8347, 15.9237, 23.0348, 38.198, -28.6401, -29.8667
3.832, 5, 17.8231, 15.9407, 23.0273, 38.1745, -28.6478, -29.8468
3.836, 5, 17.8096, 15.9606, 23.018, 38.1442, -28.6578, -29.821
3.84, 5, 17.7941, 15.9834, 23.0067, 38.1059, -28.6704, -29.7885
3.844, 5, 17.7763, 16.0093, 22.993, 38.0584, -28.6861, -29.7481
3.848, 5, 17.7562, 16.0389, 22.9767, 38.0006, -28.7052, -29.699
3.852, 5, 17.7334, 16.0723, 22.9576, 37.9314, -28.7281, -29.6401
3.856, 5, 17.7078, 16.11, 22.9354, 37.8498, -28.7552, -29.5707
3.86, 5, 17.6791, 16.1524, 22.9099, 37.7549, -28.7868, -29.49
3.864, 5, 17.647, 16.1997, 22.8808, 37.6459, -28.8233, -29.3973
3.868, 5, 17.6115, 16.2522, 22.8481, 37.5221, -28.8648, -29.2921
3.872, 5, 17.5722, 16.3102, 22.8116, 37.383, -28.9117, -29.174
3.876, 5, 17.5291, 16.3738, 22.7711, 37.2281, -28.9642, -29.0424
3.88, 5, 17.4819, 16.4434, 22.7266, 37.0571, -29.0224, -28.8972
3.884, 5, 17.4305, 16.519, 22.6779, 36.8697, -29.0866, -28.7382
3.888, 5, 17.3746, 16.6008, 22.625, 36.6657, -29.1569, -28.5653
3.892, 5, 17.3139, 16.6892, 22.5678, 36.4451, -29.2334, -28.3784
3.896, 5, 17.2485, 16.7841, 22.5063, 36.2079, -29.3163, -28.1776
3.9, 5, 17.1781, 16.8856, 22.4406, 35.954, -29.4057, -27.9629
3.904, 5, 17.1025, 16.9938, 22.3705, 35.6835, -29.5017, -27.7344
3.908, 5, 17.0218, 17.1087, 22.2962, 35.3964, -29.6045, -27.4921
3.912, 5, 16.9358, 17.2302, 22.2176, 35.0929, -29.7142, -27.2362
3.916, 5, 16.8445, 17.3584, 22.1348, 34.7729, -29.831, -26.9667
3.92, 5, 16.7478, 17.493, 22.0478, 34.4367, -29.955, -26.6839
3.924, 5, 16.6457, 17.6341, 21.9567, 34.0843, -30.0863, -26.3879
3.928, 5, 16.5383, 17.7814, 21.8616, 33.716, -30.2252, -26.079
3.932, 5, 16.4256, 17.9348, 21.7626, 33.3322, -30.3716, -25.7574
3.936, 5, 16.3074, 18.0941, 21.6598, 32.9331, -30.5258, -25.4236
3.94, 5, 16.1838, 18.2594, 21.5533, 32.5191, -30.6877, -25.0779
3.944, 5, 16.0548, 18.4304, 21.4432, 32.0909, -30.8574, -24.7208
3.948, 5, 15.9202, 18.6069, 21.3298, 31.6489, -31.035, -24.3528
3.952, 5, 15.7801, 18.7888, 21.2133, 31.1937, -31.2205, -23.9745
3.956, 5, 15.6347, 18.9759, 21.0937, 30.7261, -31.4138, -23.5865
3.96, 5, 15.4839, 19.1677, 20.9714, 30.2467, -31.615, -23.1895
3.964, 5, 15.3279, 19.3642, 20.8465, 29.7562, -31.824, -22.7841
3.968, 5, 15.1668, 19.565, 20.7193, 29.2555, -32.0408, -22.3711
3.972, 5, 15.0005, 19.77, 20.59, 28.7454, -32.2652, -21.9511
3.976, 5, 14.829, 19.9787, 20.4588, 28.2267, -32.4972, -21.525
3.98, 5, 14.6524, 20.191, 20.326, 27.7003, -32.7367, -21.0934
3.984, 5, 14.4707, 20.4065, 20.1919, 27.1668, -32.9835, -20.657
3.988, 5, 14.284, 20.6249, 20.0567, 26.6272, -33.2375, -20.2165
3.992, 5, 14.0925, 20.846, 19.9206, 26.0821, -33.4988, -19.7725
3.996, 5, 13.8962, 21.0694, 19.7839, 25.5322, -33.7671, -19.3257
3.999, 5, 13.6954, 21.2952, 19.6468, 24.9782, -34.0425, -18.8766
4.004, 5, 13.49, 21.5231, 19.5095, 24.4207, -34.3247, -18.4257
4.008, 5, 13.2801, 21.753, 19.3723, 23.8603, -34.6138, -17.9737
4.012, 5, 13.0658, 21.9847, 19.2354, 23.2976, -34.9097, -17.5208
4.016, 5, 12.8471, 22.218, 19.099, 22.7332, -35.2124, -17.0677
4.02, 5, 12.6241, 22.4526, 18.9632, 22.1674, -35.5217, -16.6147
4.024, 5, 12.3969, 22.6883, 18.8283, 21.6007, -35.8377, -16.1622
4.028, 5, 12.1656, 22.9249, 18.6945, 21.0336, -36.1604, -15.7105
4.032, 5, 11.9303, 23.1621, 18.5619, 20.4662, -36.4898, -15.2598
4.036, 5, 11.691, 23.3997, 18.4307, 19.899, -36.8259, -14.8105
4.04, 5, 11.4478, 23.6376, 18.3011, 19.3323, -37.1687, -14.3628
4.044, 5, 11.2008, 23.8756, 18.1732, 18.7662, -37.5182, -13.9168
4.048, 5, 10.95, 24.1136, 18.0472, 18.2012, -37.8745, -13.4729
4.052, 5, 10.6954, 24.3514, 17.9233, 17.6373, -38.2376, -13.0312
4.056, 5, 10.437, 24.5889, 17.8017, 17.0747, -38.6076, -12.5919
4.06, 5, 10.175, 24.8259, 17.6823, 16.5138, -38.9845, -12.1551
4.064, 5, 9.90931, 25.0625, 17.5655, 15.9546, -39.3684, -11.721
4.068, 5, 9.63998, 25.2983, 17.4514, 15.3974, -39.7593, -11.2897
4.072, 5, 9.36705, 25.5334, 17.3401, 14.8423, -40.1573, -10.8613
4.076, 5, 9.09054, 25.7677, 17.2318, 14.2894, -40.5624, -10.4361
4.08, 5, 8.81049, 26.001, 17.1266, 13.7389, -40.9748, -10.014
4.084, 5, 8.52692, 26.2332, 17.0247, 13.1909, -41.3945, -9.5952
4.088, 5, 8.23987, 26.4642, 16.9261, 12.6457, -41.8215, -9.17983
4.092, 5, 7.9494, 26.6941, 16.8312, 12.1032, -42.256, -8.76798
4.096, 5, 7.65555, 26.9225, 16.74, 11.5636, -42.698, -8.35974
4.1, 5, 7.35841, 27.1495, 16.6527, 11.0271, -43.1475, -7.95522
4.104, 5, 7.05812, 27.3748, 16.5695, 10.4938, -43.6047, -7.55452
4.108, 5, 6.75485, 27.5984, 16.4905, 9.96385, -44.0695, -7.15776
4.112, 5, 6.44878, 27.82, 16.4159, 9.43737, -44.542, -6.76506
4.116, 5, 6.1401, 28.0394, 16.3459, 8.91458, -45.022, -6.37656
4.12, 5, 5.82899, 28.2566, 16.2807, 8.39569, -45.5097, -5.99242
4.124, 5, 5.51559, 28.4713, 16.2204, 7.88095, -46.0047, -5.61283
4.128, 5, 5.20008, 28.6836, 16.165, 7.37065, -46.507, -5.238
4.132, 5, 4.88261, 28.8931, 16.1148, 6.8651, -47.0162, -4.86814
4.136, 5, 4.5634, 29.0999, 16.0699, 6.36464, -47.5321, -4.5035
4.14, 5, 4.24271, 29.3037, 16.0304, 5.86962, -48.0543, -4.14433
4.144, 5, 3.92082, 29.5044, 15.9964, 5.3804, -48.5825, -3.79087
4.148, 5, 3.59792, 29.7021, 15.9678, 4.89736, -49.1161, -3.44339
4.152, 5, 3.27409, 29.8968, 15.9446, 4.42086, -49.6547, -3.10212
4.156, 5, 2.94928, 30.0889, 15.9267, 3.95127, -50.1978, -2.76731
4.16, 5, 2.62337, 30.2786, 15.9138, 3.48889, -50.7448, -2.43915
4.164, 6, 2.2963, 30.4662, 15.9056, 3.03397, -51.2952, -2.11779
4.168, 6, 1.96802, 30.6521, 15.9017, 2.58667, -51.8485, -1.80332
4.172, 6, 1.63864, 30.8365, 15.9016, 2.14709, -52.4043, -1.49577
4.176, 6, 1.30831, 31.0195, 15.9046, 1.71521, -52.9621, -1.1951
4.18, 6, 0.977279, 31.2014, 15.9101, 1.29094, -53.5215, -0.901194
4.184, 6, 0.64573, 31.3826, 15.9174, 0.874106, -54.0823, -0.613912
4.188, 6, 0.313769, 31.5636, 15.9256, 0.464498, -54.6441, -0.33305
4.192, 6, -0.0185555, 31.745, 15.9337, 0.0618468, -55.2068, -0.058373
4.196, 6, -0.35119, 31.927, 15.9409, -0.334156, -55.77, 0.210387
4.2, 6, -0.684029, 32.1102, 15.9461, -0.723847, -56.3337, 0.47352
4.204, 6, -1.0169, 32.2946, 15.9487, -1.10758, -56.8977, 0.731332
4.208, 6, -1.34961, 32.4804, 15.9477, -1.48571, -57.4619, 0.984132
4.212, 6, -1.68198, 32.6678, 15.9425, -1.85859, -58.0264, 1.23222
4.216, 6, -2.0139, 32.8569, 15.9324, -2.2265, -58.5909, 1.47587
4.22, 6, -2.34537, 33.0483, 15.9168, -2.5897, -59.1554, 1.71534
4.224, 6, -2.67647, 33.2424, 15.8953, -2.9484, -59.7198, 1.95083
4.228, 6, -3.00726, 33.4396, 15.8674, -3.30276, -60.2841, 2.18254
4.232, 6, -3.33771, 33.6403, 15.8329, -3.65287, -60.8479, 2.41061
4.236, 6, -3.66764, 33.8446, 15.7914, -3.99881, -61.4113, 2.63517
4.24, 6, -3.9967, 34.0525, 15.7428, -4.3406, -61.9738, 2.85632
4.244, 6, -4.32454, 34.2638, 15.6872, -4.6782, -62.5352, 3.07413
4.248, 6, -4.65086, 34.4785, 15.6244, -5.01156, -63.0951, 3.28863
4.252, 6, -4.97549, 34.6962, 15.5545, -5.34055, -63.6531, 3.49983
4.256, 6, -5.29835, 34.9168, 15.4774, -5.66499, -64.2086, 3.70771
4.26, 6, -5.6195, 35.1403, 15.3933, -5.98469, -64.761, 3.91222
4.264, 6, -5.93899, 35.3666, 15.3021, -6.29941, -65.3097, 4.11331
4.268, 6, -6.25684, 35.5957, 15.2041, -6.60893, -65.854, 4.31091
4.272, 6, -6.57289, 35.8274, 15.0994, -6.913, -66.3932, 4.50495
4.276, 6, -6.88688, 36.0616, 14.9881, -7.21139, -66.9268, 4.69537
4.28, 6, -7.19851, 36.298, 14.8705, -7.50389, -67.454, 4.88211
4.284, 6, -7.50751, 36.5363, 14.7468, -7.79032, -67.9744, 5.06513
4.288, 6, -7.81366, 36.7764, 14.6172, -8.07051, -68.4873, 5.2444
4.292, 6, -8.11675, 37.0178, 14.4821, -8.34435, -68.9923, 5.4199
4.296, 6, -8.41662, 37.2603, 14.3416, -8.61174, -69.489, 5.59166
4.3, 6, -8.71308, 37.5036, 14.1961, -8.87265, -69.9772, 5.7597
4.304, 6, -9.00591, 37.7474, 14.0459, -9.12709, -70.4566, 5.92407
4.308, 6, -9.29488, 37.9914, 13.8913, -9.37509, -70.927, 6.08486
4.312, 6, -9.57972, 38.2352, 13.7326, -9.61674, -71.3884, 6.24215
4.316, 6, -9.86019, 38.4786, 13.57, -9.85212, -71.8408, 6.39603
4.32, 6, -10.1361, 38.7212, 13.404, -10.0814, -72.2842, 6.5466
4.324, 6, -10.4073, 38.9629, 13.2347, -10.3045, -72.7185, 6.69396
4.328, 6, -10.6737, 39.2034, 13.0625, -10.5218, -73.1438, 6.8382
4.332, 6, -10.9353, 39.4426, 12.8875, -10.7332, -73.5602, 6.97941
4.336, 6, -11.192, 39.6802, 12.7102, -10.9389, -73.9677, 7.11767
4.34, 6, -11.444, 39.9163, 12.5306, -11.1391, -74.3663, 7.25306
4.344, 6, -11.6911, 40.1505, 12.349, -11.3337, -74.7561, 7.38564
4.348, 6, -11.9335, 40.3828, 12.1658, -11.5229, -75.1371, 7.51549
4.352, 6, -12.171, 40.6131, 11.981, -11.7068, -75.5093, 7.64265
4.356, 6, -12.4038, 40.8413, 11.7951, -11.8855, -75.8729, 7.7672
4.36, 6, -12.6317, 41.0671, 11.6082, -12.0591, -76.2279, 7.88917
4.364, 6, -12.8548, 41.2905, 11.4205, -12.2276, -76.5743, 8.00861
4.368, 6, -13.0731, 41.5114, 11.2324, -12.3913, -76.9122, 8.12556
4.372, 6, -13.2865, 41.7295, 11.044, -12.55, -77.2417, 8.24004
4.376, 6, -13.4951, 41.9449, 10.8557, -12.704, -77.5628, 8.35209
4.38, 6, -13.6989, 42.1572, 10.6676, -12.8534, -77.8756, 8.46174
4.384, 6, -13.8979, 42.3666, 10.48, -12.998, -78.18, 8.56898
4.388, 6, -14.092, 42.5727, 10.2931, -13.1382, -78.4763, 8.67385
4.392, 6, -14.2813, 42.7755, 10.1072, -13.2739, -78.7643, 8.77635
4.396, 6, -14.4658, 42.9748, 9.92253, -13.4051, -79.0442, 8.87648
4.4, 6, -14.6454, 43.1706, 9.7393, -13.532, -79.316, 8.97425
4.404, 6, -14.8203, 43.3628, 9.55777, -13.6547, -79.5798, 9.06966
4.408, 6, -14.9903, 43.5511, 9.37814, -13.7731, -79.8355, 9.1627
4.412, 6, -15.1555, 43.7356, 9.20066, -13.8873, -80.0834, 9.25337
4.416, 6, -15.316, 43.9161, 9.02553, -13.9975, -80.3233, 9.34166
4.42, 6, -15.4717, 44.0925, 8.85298, -14.1037, -80.5554, 9.42758
4.424, 6, -15.6226, 44.2647, 8.68321, -14.2059, -80.7797, 9.5111
4.428, 6, -15.7688, 44.4326, 8.51642, -14.3042, -80.9963, 9.59224
4.432, 6, -15.9103, 44.5962, 8.35282, -14.3986, -81.2052, 9.67097
4.436, 6, -16.0471, 44.7554, 8.19258, -14.4893, -81.4065, 9.74729
4.44, 6, -16.1792, 44.91, 8.03589, -14.5764, -81.6004, 9.82121
4.444, 6, -16.3066, 45.06, 7.88292, -14.6597, -81.7868, 9.8927
4.448, 6, -16.4292, 45.2053, 7.73384, -14.7395, -81.9658, 9.96177
4.452, 6, -16.5472, 45.3458, 7.5888, -14.8159, -82.1376, 10.0284
4.456, 6, -16.6605, 45.4815, 7.44796, -14.8887, -82.3022, 10.0926
4.46, 6, -16.7692, 45.6123, 7.31147, -14.9582, -82.4596, 10.1544
4.464, 6, -16.8732, 45.7382, 7.17948, -15.0244, -82.61, 10.2137
4.468, 6, -16.9726, 45.8591, 7.05211, -15.0874, -82.7535, 10.2706
4.472, 6, -17.0675, 45.9749, 6.92951, -15.1471, -82.89, 10.325
4.476, 6, -17.1577, 46.0857, 6.81178, -15.2037, -83.0197, 10.3769
4.48, 6, -17.2435, 46.1913, 6.69905, -15.2572, -83.1427, 10.4264
4.484, 6, -17.3247, 46.2917, 6.59144, -15.3076, -83.2589, 10.4734
4.488, 6, -17.4014, 46.3869, 6.48905, -15.3551, -83.3686, 10.5179
4.492, 6, -17.4736, 46.4769, 6.39197, -15.3996, -83.4716, 10.5599
4.496, 6, -17.5414, 46.5616, 6.3003, -15.4412, -83.5682, 10.5994
4.5, 6, -17.6048, 46.641, 6.2141, -15.48, -83.6582, 10.6364
4.504, 6, -17.664, 46.7153, 6.13342, -15.5159, -83.7419, 10.6709
4.508, 6, -17.7191, 46.7844, 6.05827, -15.549, -83.8191, 10.7029
4.512, 6, -17.7702, 46.8486, 5.98865, -15.5794, -83.8901, 10.7324
4.516, 6, -17.8176, 46.9079, 5.92452, -15.607, -83.9549, 10.7593
4.52, 6, -17.8612, 46.9624, 5.86583, -15.6321, -84.0137, 10.7839
4.524, 6, -17.9014, 47.0123, 5.81251, -15.6546, -84.0666, 10.806
4.528, 6, -17.9381, 47.0576, 5.76443, -15.6746, -84.1137, 10.8258
4.532, 6, -17.9716, 47.0986, 5.72141, -15.6923, -84.1554, 10.8433
4.536, 6, -18.002, 47.1354, 5.68325, -15.7078, -84.1919, 10.8587
4.54, 6, -18.0295, 47.1684, 5.64969, -15.7211, -84.2234, 10.8721
4.544, 6, -18.0545, 47.1978, 5.62044, -15.7325, -84.2504, 10.8835
4.548, 6, -18.077, 47.2239, 5.5952, -15.7421, -84.2731, 10.8932
4.552, 6, -18.0971, 47.2468, 5.57366, -15.75, -84.292, 10.9013
4.556, 6, -18.1149, 47.2667, 5.5555, -15.7565, -84.3075, 10.9079
4.56, 6, -18.1304, 47.2839, 5.54039, -15.7617, -84.32, 10.9133
4.564, 6, -18.1439, 47.2987, 5.528, -15.7659, -84.33, 10.9175
4.568, 6, -18.1555, 47.3114, 5.51796, -15.7691, -84.3377, 10.9209
4.572, 6, -18.1655, 47.3222, 5.50996, -15.7716, -84.3437, 10.9235
4.576, 6, -18.1741, 47.3314, 5.50365, -15.7734, -84.3481, 10.9254
4.58, 6, -18.1815, 47.3391, 5.49876, -15.7748, -84.3514, 10.9268
4.584, 6, -18.1877, 47.3454, 5.49503, -15.7757, -84.3537, 10.9279
4.588, 7, -18.1928, 47.3505, 5.49224, -15.7764, -84.3553, 10.9286
4.592, 7, -18.1969, 47.3544, 5.4902, -15.7769, -84.3565, 10.9291
4.596, 7, -18.2, 47.3572, 5.48875, -15.7772, -84.3572, 10.9295
4.6, 7, -18.2022, 47.3592, 5.48774, -15.7774, -84.3577, 10.9297
4.604, 7, -18.2038, 47.3606, 5.48705, -15.7775, -84.3581, 10.9299
4.608, 7, -18.2048, 47.3616, 5.48658, -15.7776, -84.3584, 10.93
4.612, 7, -18.2055, 47.3622, 5.48626, -15.7777, -84.3585, 10.93
4.616, 7, -18.206, 47.3626, 5.48604, -15.7777, -84.3586, 10.9301
4.62, 7, -18.2064, 47.3629, 5.4859, -15.7778, -84.3587, 10.9301
4.624, 7, -18.2066, 47.3631, 5.4858, -15.7778, -84.3587, 10.9301
4.628, 7, -18.2067, 47.3632, 5.48573, -15.7778, -84.3588, 10.9302
4.632, 7, -18.2068, 47.3633, 5.48569, -15.7778, -84.3588, 10.9302
4.636, 7, -18.2069, 47.3634, 5.48566, -15.7778, -84.3588, 10.9302
4.64, 7, -18.2069, 47.3634, 5.48564, -15.7778, -84.3588, 10.9302
4.644, 7, -18.207, 47.3635, 5.48562, -15.7778, -84.3588, 10.9302
4.648, 7, -18.207, 47.3635, 5.48561, -15.7778, -84.3588, 10.9302
4.652, 7, -18.207, 47.3635, 5.48561, -15.7778, -84.3588, 10.9302
4.656, 7, -18.207, 47.3635, 5.4856, -15.7778, -84.3589, 10.9302
4.66, 7, -18.207, 47.3635, 5.4856, -15.7778, -84.3589, 10.9302
4.664, 7, -18.207, 47.3635, 5.4856, -15.7778, -84.3589, 10.9302
4.668, 7, -18.207, 47.3635, 5.48559, -15.7778, -84.3589, 10.9302
4.672, 7, -18.207, 47.3635, 5.48559, -15.7778, -84.3589, 10.9302
4.676, 7, -18.207, 47.3635, 5.48559, -15.7778, -84.3589, 10.9302
4.68, 7, -18.207, 47.3635, 5.48559, -15.7778, -84.3589, 10.9302
4.684, 7, -18.207, 47.3635, 5.48559, -15.7778, -84.3589, 10.9302
4.688, 7, -18.207, 47.3635, 5.48559, -15.7778, -84.3589, 10.9302
4.692, 7, -18.207, 47.3635, 5.48559, -15.7778, -84.3589, 10.9302
4.696, 7, -18.207, 47.3635, 5.48559, -15.7778, -84.3589, 10.9302
4.7, 7, -18.207, 47.3635, 5.48559, -15.7778, -84.3589, 10.9302
4.704, 7, -18.207, 47.3635, 5.48559, -15.7778, -84.3589, 10.9302
