hehonglu123/ABB_Primitive_Study/execution/movec+movel_smooth/curve_exe_v300_fine.csv
timestamp, cmd_num, J1, J2, J3, J4, J5, J6
0, -1, 32.7465, 54.2623, -9.50115, 89.6875, -78.664, 35.1143
0.002, -1, 32.7465, 54.2623, -9.50115, 89.6875, -78.664, 35.1143
0.006, -1, 32.7465, 54.2623, -9.50115, 89.6875, -78.664, 35.1143
0.008, -1, 32.7465, 54.2623, -9.50115, 89.6875, -78.664, 35.1143
0.011, -1, 32.7465, 54.2623, -9.50115, 89.6875, -78.664, 35.1143
0.016, -1, 32.7465, 54.2623, -9.50115, 89.6875, -78.664, 35.1143
0.02, -1, 32.7465, 54.2623, -9.50115, 89.6875, -78.664, 35.1143
0.024, -1, 32.7465, 54.2623, -9.50115, 89.6875, -78.664, 35.1143
0.028, -1, 32.7465, 54.2623, -9.50115, 89.6875, -78.664, 35.1143
0.032, -1, 32.7465, 54.2623, -9.50115, 89.6875, -78.664, 35.1143
0.036, -1, 32.7466, 54.2623, -9.50115, 89.6875, -78.664, 35.1143
0.04, -1, 32.7467, 54.2621, -9.50116, 89.6875, -78.664, 35.1143
0.044, -1, 32.7471, 54.2618, -9.50116, 89.6875, -78.6639, 35.1143
0.048, -1, 32.7479, 54.2611, -9.50118, 89.6876, -78.6638, 35.1144
0.052, -1, 32.7491, 54.2598, -9.50124, 89.6877, -78.6634, 35.1145
0.056, -1, 32.7507, 54.2577, -9.50136, 89.6879, -78.6626, 35.1147
0.06, -1, 32.7529, 54.2547, -9.50159, 89.6883, -78.6611, 35.1152
0.064, -1, 32.7556, 54.2507, -9.502, 89.689, -78.6586, 35.1161
0.068, -1, 32.7588, 54.2455, -9.50267, 89.6902, -78.6545, 35.1174
0.072, -1, 32.7625, 54.2391, -9.5037, 89.692, -78.6482, 35.1195
0.076, -1, 32.7668, 54.2314, -9.50521, 89.6946, -78.6391, 35.1225
0.08, -1, 32.7718, 54.2224, -9.50734, 89.6982, -78.6262, 35.1267
0.084, -1, 32.7776, 54.212, -9.51024, 89.7032, -78.6088, 35.1325
0.088, -1, 32.784, 54.2002, -9.5141, 89.7098, -78.5857, 35.1401
0.092, -1, 32.7912, 54.1873, -9.51908, 89.7183, -78.5559, 35.1499
0.096, -1, 32.7988, 54.1733, -9.52538, 89.729, -78.5183, 35.1622
0.1, -1, 32.8067, 54.1585, -9.53315, 89.7422, -78.472, 35.1774
0.104, -1, 32.815, 54.143, -9.54252, 89.7581, -78.4163, 35.1957
0.108, -1, 32.8235, 54.1267, -9.55357, 89.7769, -78.3507, 35.2173
0.112, -1, 32.8324, 54.1096, -9.56636, 89.7986, -78.2748, 35.2423
0.116, -1, 32.8415, 54.0916, -9.58087, 89.8232, -78.1888, 35.2705
0.12, -1, 32.8511, 54.0725, -9.59706, 89.8507, -78.0929, 35.3021
0.124, -1, 32.8611, 54.0525, -9.61485, 89.8808, -77.9875, 35.3367
0.128, -1, 32.8716, 54.0317, -9.63411, 89.9134, -77.8735, 35.3742
0.131, -1, 32.8823, 54.0101, -9.65471, 89.9483, -77.7516, 35.4142
0.136, -1, 32.8932, 53.9877, -9.67648, 89.9852, -77.6227, 35.4566
0.139, -1, 32.9045, 53.9644, -9.69923, 90.0237, -77.4881, 35.5008
0.144, -1, 32.9163, 53.9399, -9.72278, 90.0636, -77.3487, 35.5466
0.148, -1, 32.9288, 53.914, -9.74695, 90.1045, -77.2057, 35.5936
0.152, -1, 32.942, 53.8866, -9.77157, 90.1462, -77.0599, 35.6415
0.156, -1, 32.9561, 53.8575, -9.79651, 90.1885, -76.9123, 35.6901
0.16, -1, 32.9711, 53.8271, -9.82165, 90.231, -76.7634, 35.739
0.164, -1, 32.9869, 53.7955, -9.84692, 90.2739, -76.6137, 35.7882
0.168, -1, 33.0032, 53.7631, -9.87226, 90.3168, -76.4636, 35.8375
0.172, -1, 33.02, 53.7302, -9.89762, 90.3598, -76.3133, 35.8869
0.176, -1, 33.037, 53.6969, -9.92299, 90.4028, -76.163, 35.9363
0.18, -1, 33.0541, 53.6634, -9.94833, 90.4457, -76.0128, 35.9857
0.184, -1, 33.0714, 53.6298, -9.97365, 90.4886, -75.8628, 36.035
0.188, -1, 33.0888, 53.5962, -9.99894, 90.5315, -75.713, 36.0842
0.192, -1, 33.1061, 53.5625, -10.0242, 90.5743, -75.5634, 36.1334
0.196, -1, 33.1235, 53.5289, -10.0494, 90.617, -75.4141, 36.1825
0.2, -1, 33.1409, 53.4952, -10.0745, 90.6596, -75.265, 36.2315
0.204, -1, 33.1582, 53.4616, -10.0996, 90.7021, -75.1163, 36.2804
0.208, -1, 33.1755, 53.4281, -10.1247, 90.7446, -74.9678, 36.3292
0.212, -1, 33.1928, 53.3946, -10.1497, 90.787, -74.8197, 36.3779
0.216, -1, 33.2101, 53.3612, -10.1746, 90.8292, -74.6718, 36.4265
0.22, -1, 33.2273, 53.3278, -10.1995, 90.8714, -74.5242, 36.475
0.224, -1, 33.2446, 53.2945, -10.2244, 90.9136, -74.377, 36.5234
0.228, -1, 33.2617, 53.2613, -10.2492, 90.9556, -74.23, 36.5717
0.232, -1, 33.2789, 53.2282, -10.2739, 90.9975, -74.0834, 36.6199
0.236, -1, 33.296, 53.1951, -10.2986, 91.0394, -73.937, 36.668
0.24, -1, 33.313, 53.162, -10.3233, 91.0812, -73.7909, 36.716
0.244, -1, 33.3301, 53.1291, -10.3479, 91.1229, -73.6451, 36.7639
0.248, -1, 33.3471, 53.0962, -10.3724, 91.1645, -73.4996, 36.8117
0.252, -1, 33.364, 53.0633, -10.3969, 91.206, -73.3544, 36.8595
0.256, -1, 33.381, 53.0306, -10.4214, 91.2474, -73.2095, 36.9071
0.26, -1, 33.3979, 52.9979, -10.4458, 91.2888, -73.0649, 36.9546
0.264, -1, 33.4147, 52.9652, -10.4701, 91.3301, -72.9206, 37.0021
0.268, -1, 33.4316, 52.9327, -10.4944, 91.3713, -72.7765, 37.0494
0.272, -1, 33.4484, 52.9002, -10.5187, 91.4124, -72.6327, 37.0967
0.276, -1, 33.4651, 52.8677, -10.5429, 91.4534, -72.4893, 37.1438
0.28, -1, 33.4819, 52.8353, -10.5671, 91.4944, -72.346, 37.1909
0.284, -1, 33.4986, 52.803, -10.5912, 91.5353, -72.2031, 37.2379
0.288, -1, 33.5152, 52.7708, -10.6153, 91.5761, -72.0604, 37.2848
0.292, -1, 33.5319, 52.7386, -10.6393, 91.6168, -71.9181, 37.3316
0.296, -1, 33.5485, 52.7065, -10.6633, 91.6574, -71.776, 37.3783
0.3, -1, 33.5651, 52.6744, -10.6872, 91.698, -71.6341, 37.4249
0.304, -1, 33.5816, 52.6424, -10.7111, 91.7385, -71.4925, 37.4714
0.308, -1, 33.5981, 52.6104, -10.7349, 91.7789, -71.3513, 37.5179
0.312, -1, 33.6146, 52.5785, -10.7587, 91.8192, -71.2102, 37.5642
0.316, -1, 33.631, 52.5467, -10.7825, 91.8595, -71.0695, 37.6105
0.32, -1, 33.6474, 52.5149, -10.8062, 91.8997, -70.929, 37.6567
0.324, -1, 33.6638, 52.4832, -10.8299, 91.9398, -70.7887, 37.7028
0.328, -1, 33.6802, 52.4516, -10.8535, 91.9798, -70.6488, 37.7488
0.332, -1, 33.6965, 52.42, -10.8771, 92.0198, -70.509, 37.7947
0.336, -1, 33.7128, 52.3885, -10.9006, 92.0597, -70.3696, 37.8405
0.34, -1, 33.7291, 52.357, -10.9241, 92.0995, -70.2304, 37.8863
0.344, -1, 33.7453, 52.3256, -10.9475, 92.1392, -70.0914, 37.9319
0.348, -1, 33.7615, 52.2942, -10.9709, 92.1789, -69.9528, 37.9775
0.352, -1, 33.7777, 52.2629, -10.9943, 92.2185, -69.8143, 38.023
0.356, -1, 33.7938, 52.2317, -11.0176, 92.258, -69.6762, 38.0685
0.36, -1, 33.8099, 52.2005, -11.0409, 92.2974, -69.5382, 38.1138
0.364, -1, 33.826, 52.1694, -11.0641, 92.3368, -69.4006, 38.159
0.368, -1, 33.8421, 52.1383, -11.0873, 92.3761, -69.2631, 38.2042
0.372, -1, 33.8581, 52.1073, -11.1104, 92.4153, -69.126, 38.2493
0.376, -1, 33.8741, 52.0763, -11.1336, 92.4545, -68.989, 38.2943
0.38, -1, 33.8901, 52.0454, -11.1566, 92.4936, -68.8523, 38.3392
0.384, -1, 33.906, 52.0146, -11.1796, 92.5326, -68.7159, 38.3841
0.388, -1, 33.9219, 51.9838, -11.2026, 92.5716, -68.5797, 38.4288
0.392, -1, 33.9378, 51.953, -11.2256, 92.6104, -68.4437, 38.4735
0.396, -1, 33.9537, 51.9224, -11.2485, 92.6493, -68.308, 38.5181
0.4, -1, 33.9695, 51.8917, -11.2713, 92.688, -68.1725, 38.5627
0.404, -1, 33.9853, 51.8611, -11.2942, 92.7267, -68.0373, 38.6071
0.408, -1, 34.0011, 51.8306, -11.3169, 92.7653, -67.9023, 38.6515
0.412, -1, 34.0168, 51.8002, -11.3397, 92.8038, -67.7675, 38.6958
0.416, -1, 34.0326, 51.7697, -11.3624, 92.8423, -67.633, 38.74
0.42, -1, 34.0483, 51.7394, -11.385, 92.8807, -67.4987, 38.7842
0.424, -1, 34.0639, 51.7091, -11.4077, 92.9191, -67.3646, 38.8282
0.428, -1, 34.0796, 51.6788, -11.4302, 92.9574, -67.2307, 38.8722
0.432, -1, 34.0952, 51.6486, -11.4528, 92.9956, -67.0971, 38.9161
0.436, -1, 34.1108, 51.6184, -11.4753, 93.0337, -66.9637, 38.96
0.44, -1, 34.1263, 51.5883, -11.4978, 93.0718, -66.8306, 39.0038
0.444, -1, 34.1418, 51.5583, -11.5202, 93.1098, -66.6976, 39.0474
0.448, -1, 34.1573, 51.5282, -11.5426, 93.1478, -66.5649, 39.0911
0.452, -1, 34.1728, 51.4983, -11.565, 93.1857, -66.4324, 39.1346
0.456, -1, 34.1883, 51.4684, -11.5873, 93.2235, -66.3002, 39.1781
0.46, -1, 34.2037, 51.4385, -11.6096, 93.2613, -66.1681, 39.2215
0.464, -1, 34.2191, 51.4087, -11.6318, 93.299, -66.0363, 39.2648
0.468, -1, 34.2345, 51.379, -11.654, 93.3366, -65.9047, 39.3081
0.472, -1, 34.2498, 51.3493, -11.6762, 93.3742, -65.7733, 39.3513
0.476, -1, 34.2652, 51.3196, -11.6983, 93.4117, -65.6421, 39.3944
0.48, -1, 34.2805, 51.29, -11.7204, 93.4492, -65.5111, 39.4374
0.484, -1, 34.2957, 51.2604, -11.7425, 93.4865, -65.3804, 39.4804
0.488, -1, 34.311, 51.2309, -11.7645, 93.5239, -65.2498, 39.5233
0.492, -1, 34.3262, 51.2014, -11.7865, 93.5611, -65.1195, 39.5662
0.496, -1, 34.3414, 51.172, -11.8085, 93.5984, -64.9894, 39.6089
0.5, -1, 34.3566, 51.1426, -11.8304, 93.6355, -64.8595, 39.6516
0.504, -1, 34.3718, 51.1133, -11.8523, 93.6726, -64.7298, 39.6943
0.508, -1, 34.3869, 51.084, -11.8741, 93.7096, -64.6003, 39.7368
0.512, -1, 34.402, 51.0548, -11.8959, 93.7466, -64.471, 39.7793
0.516, -1, 34.4171, 51.0256, -11.9177, 93.7835, -64.3419, 39.8217
0.52, -1, 34.4321, 50.9965, -11.9395, 93.8204, -64.213, 39.8641
0.524, -1, 34.4472, 50.9674, -11.9612, 93.8572, -64.0844, 39.9064
0.528, -1, 34.4622, 50.9384, -11.9828, 93.8939, -63.9559, 39.9486
0.532, -1, 34.4771, 50.9094, -12.0045, 93.9306, -63.8276, 39.9908
0.536, -1, 34.4921, 50.8804, -12.0261, 93.9672, -63.6996, 40.0329
0.54, -1, 34.507, 50.8515, -12.0477, 94.0038, -63.5717, 40.0749
0.544, -1, 34.522, 50.8226, -12.0692, 94.0403, -63.444, 40.1169
0.548, -1, 34.5369, 50.7938, -12.0907, 94.0768, -63.3166, 40.1588
0.552, -1, 34.5517, 50.765, -12.1122, 94.1132, -63.1893, 40.2006
0.556, -1, 34.5666, 50.7363, -12.1337, 94.1495, -63.0622, 40.2424
0.56, -1, 34.5814, 50.7076, -12.1551, 94.1858, -62.9353, 40.2841
0.564, -1, 34.5962, 50.679, -12.1764, 94.2221, -62.8086, 40.3257
0.568, -1, 34.611, 50.6504, -12.1978, 94.2582, -62.6821, 40.3673
0.572, -1, 34.6257, 50.6218, -12.2191, 94.2943, -62.5558, 40.4088
0.576, -1, 34.6405, 50.5933, -12.2404, 94.3304, -62.4297, 40.4502
0.58, -1, 34.6552, 50.5648, -12.2616, 94.3664, -62.3038, 40.4916
0.584, -1, 34.6699, 50.5364, -12.2828, 94.4024, -62.1781, 40.533
0.588, -1, 34.6845, 50.508, -12.304, 94.4383, -62.0525, 40.5742
0.592, -1, 34.6992, 50.4797, -12.3252, 94.4741, -61.9272, 40.6154
0.596, -1, 34.7138, 50.4514, -12.3463, 94.5099, -61.802, 40.6566
0.6, -1, 34.7284, 50.4231, -12.3674, 94.5457, -61.677, 40.6977
0.604, -1, 34.743, 50.3949, -12.3884, 94.5814, -61.5522, 40.7387
0.608, -1, 34.7575, 50.3667, -12.4095, 94.617, -61.4276, 40.7796
0.612, -1, 34.7721, 50.3386, -12.4305, 94.6526, -61.3032, 40.8205
0.616, -1, 34.7866, 50.3105, -12.4514, 94.6881, -61.1789, 40.8614
0.62, -1, 34.8011, 50.2824, -12.4724, 94.7236, -61.0548, 40.9022
0.624, -1, 34.8155, 50.2544, -12.4933, 94.7591, -60.931, 40.9429
0.628, -1, 34.83, 50.2265, -12.5142, 94.7944, -60.8073, 40.9835
0.632, -1, 34.8444, 50.1985, -12.535, 94.8298, -60.6837, 41.0241
0.636, -1, 34.8588, 50.1707, -12.5558, 94.865, -60.5604, 41.0647
0.64, -1, 34.8732, 50.1428, -12.5766, 94.9003, -60.4372, 41.1052
0.644, -1, 34.8876, 50.115, -12.5973, 94.9354, -60.3142, 41.1456
0.648, -1, 34.9019, 50.0872, -12.6181, 94.9706, -60.1914, 41.1859
0.652, -1, 34.9163, 50.0595, -12.6388, 95.0056, -60.0688, 41.2263
0.656, -1, 34.9306, 50.0318, -12.6594, 95.0407, -59.9463, 41.2665
0.66, -1, 34.9449, 50.0042, -12.6801, 95.0756, -59.824, 41.3067
0.664, -1, 34.9591, 49.9766, -12.7007, 95.1106, -59.7019, 41.3468
0.668, -1, 34.9734, 49.949, -12.7212, 95.1454, -59.58, 41.3869
0.672, -1, 34.9876, 49.9215, -12.7418, 95.1803, -59.4582, 41.427
0.676, -1, 35.0018, 49.894, -12.7623, 95.215, -59.3366, 41.4669
0.68, -1, 35.016, 49.8665, -12.7828, 95.2498, -59.2151, 41.5068
0.684, -1, 35.0301, 49.8391, -12.8033, 95.2844, -59.0939, 41.5467
0.688, -1, 35.0443, 49.8117, -12.8237, 95.3191, -58.9728, 41.5865
0.692, -1, 35.0584, 49.7844, -12.8441, 95.3537, -58.8519, 41.6262
0.696, -1, 35.0725, 49.7571, -12.8645, 95.3882, -58.7311, 41.6659
0.7, -1, 35.0866, 49.7298, -12.8848, 95.4227, -58.6105, 41.7056
0.704, -1, 35.1007, 49.7026, -12.9051, 95.4571, -58.4901, 41.7451
0.708, -1, 35.1147, 49.6754, -12.9254, 95.4915, -58.3698, 41.7847
0.712, -1, 35.1288, 49.6482, -12.9457, 95.5259, -58.2497, 41.8241
0.716, -1, 35.1428, 49.6211, -12.9659, 95.5602, -58.1298, 41.8636
0.72, -1, 35.1568, 49.5941, -12.9862, 95.5944, -58.01, 41.9029
0.724, -1, 35.1707, 49.567, -13.0063, 95.6286, -57.8904, 41.9422
0.728, -1, 35.1847, 49.54, -13.0265, 95.6628, -57.771, 41.9815
0.732, -1, 35.1986, 49.513, -13.0466, 95.6969, -57.6517, 42.0207
0.736, -1, 35.2125, 49.4861, -13.0667, 95.731, -57.5326, 42.0599
0.74, -1, 35.2264, 49.4592, -13.0868, 95.765, -57.4136, 42.099
0.744, -1, 35.2403, 49.4324, -13.1068, 95.799, -57.2948, 42.138
0.748, -1, 35.2542, 49.4055, -13.1269, 95.8329, -57.1762, 42.177
0.752, -1, 35.268, 49.3787, -13.1468, 95.8668, -57.0577, 42.2159
0.756, -1, 35.2818, 49.352, -13.1668, 95.9006, -56.9394, 42.2548
0.76, -1, 35.2956, 49.3253, -13.1868, 95.9344, -56.8212, 42.2937
0.764, -1, 35.3094, 49.2986, -13.2067, 95.9682, -56.7032, 42.3325
0.768, -1, 35.3232, 49.272, -13.2266, 96.0019, -56.5854, 42.3712
0.772, -1, 35.3369, 49.2453, -13.2464, 96.0355, -56.4676, 42.4099
0.776, -1, 35.3507, 49.2188, -13.2663, 96.0692, -56.3501, 42.4485
0.78, -1, 35.3644, 49.1922, -13.2861, 96.1027, -56.2327, 42.4871
0.784, -1, 35.3781, 49.1657, -13.3058, 96.1363, -56.1155, 42.5257
0.788, -1, 35.3917, 49.1392, -13.3256, 96.1698, -55.9984, 42.5641
0.792, -1, 35.4054, 49.1128, -13.3453, 96.2032, -55.8814, 42.6026
0.796, -1, 35.4191, 49.0864, -13.365, 96.2366, -55.7646, 42.641
0.8, -1, 35.4327, 49.06, -13.3847, 96.27, -55.648, 42.6793
0.804, -1, 35.4463, 49.0337, -13.4044, 96.3033, -55.5315, 42.7176
0.808, -1, 35.4599, 49.0074, -13.424, 96.3365, -55.4151, 42.7558
0.812, -1, 35.4734, 48.9811, -13.4436, 96.3698, -55.2989, 42.794
0.816, -1, 35.487, 48.9549, -13.4632, 96.403, -55.1829, 42.8322
0.82, -1, 35.5005, 48.9287, -13.4828, 96.4361, -55.067, 42.8703
0.824, -1, 35.5141, 48.9025, -13.5023, 96.4692, -54.9512, 42.9083
0.828, -1, 35.5276, 48.8764, -13.5218, 96.5023, -54.8356, 42.9463
0.832, -1, 35.5411, 48.8503, -13.5413, 96.5353, -54.7201, 42.9843
0.836, -1, 35.5545, 48.8242, -13.5608, 96.5683, -54.6048, 43.0222
0.84, -1, 35.568, 48.7981, -13.5802, 96.6012, -54.4896, 43.06
0.844, -1, 35.5814, 48.7721, -13.5996, 96.6341, -54.3746, 43.0979
0.848, -1, 35.5949, 48.7461, -13.619, 96.667, -54.2597, 43.1356
0.852, -1, 35.6083, 48.7202, -13.6384, 96.6998, -54.1449, 43.1733
0.856, -1, 35.6216, 48.6943, -13.6577, 96.7326, -54.0303, 43.211
0.86, -1, 35.635, 48.6684, -13.677, 96.7654, -53.9158, 43.2486
0.864, -1, 35.6483, 48.6426, -13.6963, 96.798, -53.8015, 43.2862
0.868, -1, 35.6616, 48.6169, -13.7156, 96.8307, -53.6873, 43.3238
0.872, -1, 35.6747, 48.5912, -13.7348, 96.8633, -53.5732, 43.3612
0.876, -1, 35.6878, 48.5656, -13.754, 96.8959, -53.4594, 43.3987
0.88, -1, 35.7008, 48.5402, -13.7732, 96.9284, -53.3457, 43.436
0.884, -1, 35.7135, 48.515, -13.7924, 96.9608, -53.2323, 43.4733
0.888, -1, 35.726, 48.4902, -13.8115, 96.9932, -53.1192, 43.5105
0.892, -1, 35.738, 48.466, -13.8305, 97.0254, -53.0066, 43.5475
0.896, -1, 35.7494, 48.4426, -13.8494, 97.0574, -52.8946, 43.5843
0.9, -1, 35.7603, 48.4201, -13.8682, 97.0892, -52.7836, 43.6208
0.904, -1, 35.7705, 48.3986, -13.8867, 97.1205, -52.6741, 43.6568
0.908, -1, 35.7802, 48.3781, -13.9049, 97.1513, -52.5665, 43.6922
0.912, -1, 35.7894, 48.3586, -13.9227, 97.1813, -52.4615, 43.7267
0.916, -1, 35.7982, 48.3399, -13.9399, 97.2104, -52.3599, 43.7602
0.92, -1, 35.8067, 48.3221, -13.9564, 97.2383, -52.2624, 43.7923
0.924, -1, 35.8148, 48.3051, -13.9721, 97.2649, -52.1697, 43.8228
0.928, -1, 35.8225, 48.2891, -13.9869, 97.2898, -52.0824, 43.8514
0.932, -1, 35.8299, 48.274, -14.0006, 97.313, -52.0014, 43.8781
0.936, -1, 35.837, 48.2597, -14.0132, 97.3343, -51.927, 43.9026
0.94, -1, 35.8438, 48.2461, -14.0246, 97.3535, -51.8598, 43.9247
0.944, -1, 35.8505, 48.233, -14.0347, 97.3706, -51.8, 43.9443
0.948, -1, 35.8571, 48.2204, -14.0435, 97.3856, -51.7476, 43.9615
0.952, -1, 35.8636, 48.2083, -14.0511, 97.3985, -51.7026, 43.9763
0.956, -1, 35.8699, 48.1968, -14.0574, 97.4093, -51.6646, 43.9888
0.96, -1, 35.8759, 48.1861, -14.0627, 97.4183, -51.633, 43.9991
0.964, -1, 35.8815, 48.1763, -14.067, 97.4257, -51.6074, 44.0075
0.968, -1, 35.8866, 48.1676, -14.0704, 97.4315, -51.5869, 44.0143
0.972, -1, 35.8914, 48.16, -14.073, 97.436, -51.5709, 44.0195
0.976, -1, 35.8957, 48.1533, -14.075, 97.4395, -51.5587, 44.0235
0.98, -1, 35.8997, 48.1475, -14.0765, 97.4421, -51.5496, 44.0264
0.984, -1, 35.9032, 48.1427, -14.0776, 97.444, -51.543, 44.0286
0.988, 2, 35.9062, 48.1387, -14.0784, 97.4453, -51.5382, 44.0302
0.992, 2, 35.9087, 48.1355, -14.0789, 97.4463, -51.5349, 44.0312
0.996, 2, 35.9106, 48.1332, -14.0793, 97.4469, -51.5327, 44.032
1, 2, 35.912, 48.1315, -14.0795, 97.4474, -51.5311, 44.0325
1.004, 2, 35.913, 48.1303, -14.0797, 97.4477, -51.5301, 44.0328
1.008, 2, 35.9137, 48.1295, -14.0798, 97.4479, -51.5293, 44.033
1.012, 2, 35.9142, 48.1289, -14.0799, 97.448, -51.5289, 44.0332
1.016, 2, 35.9145, 48.1286, -14.0799, 97.4481, -51.5285, 44.0333
1.02, 2, 35.9147, 48.1283, -14.08, 97.4482, -51.5283, 44.0334
1.024, 2, 35.9148, 48.1281, -14.08, 97.4482, -51.5282, 44.0334
1.027, 2, 35.9149, 48.128, -14.08, 97.4482, -51.5281, 44.0335
1.032, 2, 35.915, 48.1279, -14.08, 97.4482, -51.528, 44.0335
1.036, 2, 35.915, 48.1279, -14.08, 97.4483, -51.5279, 44.0335
1.04, 2, 35.9151, 48.1279, -14.08, 97.4483, -51.5279, 44.0335
1.044, 2, 35.9151, 48.1278, -14.08, 97.4483, -51.5279, 44.0335
1.048, 2, 35.9151, 48.1278, -14.08, 97.4483, -51.5279, 44.0335
1.052, 2, 35.9151, 48.1278, -14.08, 97.4483, -51.5279, 44.0335
1.055, 2, 35.9151, 48.1278, -14.08, 97.4483, -51.5279, 44.0335
1.06, 2, 35.9151, 48.1278, -14.08, 97.4483, -51.5279, 44.0335
1.064, 2, 35.9151, 48.1278, -14.08, 97.4483, -51.5278, 44.0335
1.068, 2, 35.9151, 48.1278, -14.08, 97.4483, -51.5278, 44.0335
1.072, 2, 35.9151, 48.1278, -14.08, 97.4483, -51.5278, 44.0335
1.076, 2, 35.9151, 48.1278, -14.08, 97.4483, -51.5278, 44.0335
1.08, 2, 35.9151, 48.1278, -14.08, 97.4483, -51.5278, 44.0335
1.084, 2, 35.9151, 48.1278, -14.08, 97.4483, -51.5278, 44.0335
1.088, 2, 35.9151, 48.1278, -14.08, 97.4483, -51.5278, 44.0335
1.091, 2, 35.9151, 48.1278, -14.08, 97.4483, -51.5278, 44.0335
1.096, 2, 35.9151, 48.1278, -14.08, 97.4483, -51.5278, 44.0335
1.1, 2, 35.9151, 48.1278, -14.08, 97.4483, -51.5278, 44.0335
1.104, 2, 35.9151, 48.1278, -14.08, 97.4483, -51.5278, 44.0335
1.108, 2, 35.9151, 48.1278, -14.08, 97.4483, -51.5278, 44.0335
1.112, 2, 35.9151, 48.1278, -14.08, 97.4483, -51.5278, 44.0335
1.116, 2, 35.9151, 48.1278, -14.08, 97.4483, -51.5278, 44.0335
1.119, 2, 35.9151, 48.1278, -14.08, 97.4483, -51.5278, 44.0335
1.124, 2, 35.9151, 48.1278, -14.08, 97.4483, -51.5278, 44.0335
1.128, 2, 35.9151, 48.1278, -14.08, 97.4483, -51.5278, 44.0335
1.132, 2, 35.9151, 48.1278, -14.08, 97.4483, -51.5278, 44.0335
1.136, 2, 35.9151, 48.1278, -14.08, 97.4483, -51.5278, 44.0335
1.14, 2, 35.9151, 48.1278, -14.08, 97.4483, -51.5278, 44.0335
1.144, 2, 35.9151, 48.1278, -14.08, 97.4483, -51.5278, 44.0335
1.147, 2, 35.9151, 48.1278, -14.08, 97.4483, -51.5278, 44.0335
1.152, 2, 35.9151, 48.1278, -14.08, 97.4483, -51.5278, 44.0335
1.156, 2, 35.9151, 48.1278, -14.08, 97.4483, -51.5278, 44.0335
1.16, 2, 35.9151, 48.1278, -14.08, 97.4483, -51.5278, 44.0335
1.164, 2, 35.9151, 48.1278, -14.08, 97.4483, -51.5278, 44.0335
1.168, 2, 35.9151, 48.1278, -14.08, 97.4483, -51.5278, 44.0335
1.172, 2, 35.9151, 48.1278, -14.08, 97.4483, -51.5278, 44.0335
1.175, 2, 35.9151, 48.1278, -14.08, 97.4483, -51.5278, 44.0335
1.18, 2, 35.9151, 48.1278, -14.08, 97.4483, -51.5278, 44.0335
1.184, 2, 35.9151, 48.1278, -14.08, 97.4483, -51.5278, 44.0335
1.188, 2, 35.9151, 48.1278, -14.08, 97.4483, -51.5278, 44.0335
1.192, 2, 35.9151, 48.1278, -14.08, 97.4483, -51.5278, 44.0335
1.196, 2, 35.9151, 48.1278, -14.08, 97.4483, -51.5278, 44.0335
1.2, 2, 35.9151, 48.1278, -14.08, 97.4483, -51.5278, 44.0335
1.204, 2, 35.9151, 48.1278, -14.08, 97.4483, -51.5278, 44.0335
1.208, 2, 35.9151, 48.1278, -14.08, 97.4483, -51.5278, 44.0335
1.212, 2, 35.9151, 48.1278, -14.08, 97.4483, -51.5278, 44.0335
1.216, 2, 35.9151, 48.1278, -14.08, 97.4483, -51.5278, 44.0335
1.22, 2, 35.9151, 48.1278, -14.08, 97.4483, -51.5278, 44.0335
1.224, 2, 35.9151, 48.1278, -14.08, 97.4483, -51.5278, 44.0335
1.228, 2, 35.9151, 48.1278, -14.08, 97.4483, -51.5278, 44.0335
1.232, 2, 35.9151, 48.1278, -14.08, 97.4483, -51.5278, 44.0335
1.236, 2, 35.9151, 48.1278, -14.08, 97.4483, -51.5278, 44.0335
1.24, 2, 35.9151, 48.1278, -14.08, 97.4483, -51.5278, 44.0335
1.244, 2, 35.9151, 48.1278, -14.08, 97.4483, -51.5278, 44.0335
1.248, 2, 35.9151, 48.1278, -14.08, 97.4483, -51.5278, 44.0335
1.252, 2, 35.9151, 48.1278, -14.08, 97.4483, -51.5278, 44.0335
1.256, 2, 35.9151, 48.1278, -14.08, 97.4483, -51.5278, 44.0335
1.26, 2, 35.9151, 48.1278, -14.08, 97.4483, -51.5278, 44.0335
1.264, 2, 35.9151, 48.1278, -14.08, 97.4483, -51.5278, 44.0335
1.267, 2, 35.9151, 48.1278, -14.08, 97.4483, -51.5278, 44.0335
1.272, 2, 35.9151, 48.1278, -14.08, 97.4483, -51.5278, 44.0335
1.276, 2, 35.9151, 48.1278, -14.08, 97.4483, -51.5278, 44.0335
1.28, 2, 35.9151, 48.1278, -14.08, 97.4483, -51.5278, 44.0335
1.284, 2, 35.9151, 48.1278, -14.08, 97.4483, -51.5278, 44.0335
1.288, 2, 35.9151, 48.1278, -14.08, 97.4483, -51.5278, 44.0335
1.292, 2, 35.9151, 48.1278, -14.08, 97.4483, -51.5278, 44.0335
1.295, 2, 35.9151, 48.1278, -14.08, 97.4483, -51.5278, 44.0335
1.3, 2, 35.9151, 48.1278, -14.08, 97.4483, -51.5278, 44.0335
1.304, 2, 35.9151, 48.1278, -14.08, 97.4483, -51.5278, 44.0335
1.308, 2, 35.9151, 48.1278, -14.08, 97.4483, -51.5278, 44.0335
1.312, 2, 35.9151, 48.1278, -14.08, 97.4483, -51.5278, 44.0335
1.316, 2, 35.9151, 48.1278, -14.08, 97.4483, -51.5278, 44.0335
1.32, 2, 35.9151, 48.1278, -14.08, 97.4483, -51.5278, 44.0335
1.324, 2, 35.9151, 48.1278, -14.08, 97.4483, -51.5278, 44.0335
1.328, 2, 35.9151, 48.1278, -14.08, 97.4483, -51.5278, 44.0335
1.332, 2, 35.9151, 48.1278, -14.08, 97.4483, -51.5278, 44.0335
1.336, 2, 35.9151, 48.1278, -14.08, 97.4483, -51.5278, 44.0335
1.34, 2, 35.9151, 48.1278, -14.08, 97.4483, -51.5278, 44.0335
1.344, 2, 35.9151, 48.1278, -14.08, 97.4483, -51.5278, 44.0335
1.348, 2, 35.9151, 48.1278, -14.08, 97.4483, -51.5278, 44.0335
1.352, 2, 35.9151, 48.1278, -14.08, 97.4483, -51.5278, 44.0335
1.356, 2, 35.9151, 48.1278, -14.08, 97.4483, -51.5278, 44.0335
1.36, 2, 35.9151, 48.1278, -14.08, 97.4483, -51.5278, 44.0335
1.364, 2, 35.9151, 48.1278, -14.08, 97.4483, -51.5278, 44.0335
1.368, 2, 35.9151, 48.1278, -14.08, 97.4483, -51.5278, 44.0335
1.372, 2, 35.9151, 48.1278, -14.08, 97.4483, -51.5278, 44.0335
1.376, 2, 35.9151, 48.1278, -14.08, 97.4483, -51.5278, 44.0335
1.38, 2, 35.9151, 48.1278, -14.08, 97.4483, -51.5278, 44.0335
1.384, 2, 35.9151, 48.1278, -14.08, 97.4483, -51.5278, 44.0335
1.388, 2, 35.9151, 48.1278, -14.08, 97.4483, -51.5278, 44.0335
1.392, 2, 35.9151, 48.1278, -14.08, 97.4483, -51.5278, 44.0335
1.396, 2, 35.9151, 48.1278, -14.08, 97.4483, -51.5278, 44.0335
1.4, 2, 35.9151, 48.1278, -14.08, 97.4483, -51.5278, 44.0335
1.404, 2, 35.9151, 48.1278, -14.08, 97.4483, -51.5278, 44.0335
1.408, 2, 35.9151, 48.1278, -14.08, 97.4483, -51.5278, 44.0335
1.412, 2, 35.9151, 48.1278, -14.08, 97.4483, -51.5278, 44.0335
1.416, 2, 35.9151, 48.1278, -14.08, 97.4483, -51.5278, 44.0335
1.42, 2, 35.9151, 48.1278, -14.08, 97.4483, -51.5278, 44.0335
1.424, 2, 35.9151, 48.1278, -14.08, 97.4483, -51.5278, 44.0335
1.428, 2, 35.9151, 48.1278, -14.08, 97.4483, -51.5278, 44.0335
1.432, 2, 35.9151, 48.1278, -14.08, 97.4483, -51.5278, 44.0335
1.436, 2, 35.9151, 48.1278, -14.08, 97.4483, -51.5278, 44.0335
1.44, 2, 35.9151, 48.1278, -14.08, 97.4483, -51.5278, 44.0335
1.444, 2, 35.9151, 48.1278, -14.08, 97.4483, -51.5278, 44.0335
1.448, 2, 35.9151, 48.1278, -14.08, 97.4483, -51.5278, 44.0335
1.452, 2, 35.9151, 48.1278, -14.08, 97.4483, -51.5278, 44.0335
1.456, 2, 35.9151, 48.1278, -14.08, 97.4483, -51.5278, 44.0335
1.46, 2, 35.9151, 48.1278, -14.08, 97.4483, -51.5278, 44.0335
1.464, 2, 35.9151, 48.1278, -14.08, 97.4483, -51.5278, 44.0335
1.468, 2, 35.9151, 48.1278, -14.08, 97.4483, -51.5278, 44.0335
1.472, 2, 35.9151, 48.1278, -14.08, 97.4483, -51.5278, 44.0335
1.476, 2, 35.9151, 48.1278, -14.08, 97.4483, -51.5278, 44.0335
1.48, 2, 35.9151, 48.1278, -14.08, 97.4483, -51.5278, 44.0335
1.484, 2, 35.9151, 48.1278, -14.08, 97.4483, -51.5278, 44.0335
1.488, 2, 35.9151, 48.1278, -14.08, 97.4483, -51.5278, 44.0335
1.492, 2, 35.9151, 48.1278, -14.08, 97.4483, -51.5278, 44.0335
1.496, 2, 35.9151, 48.1278, -14.08, 97.4483, -51.5278, 44.0335
1.5, 2, 35.9151, 48.1278, -14.08, 97.4483, -51.5278, 44.0335
1.504, 2, 35.9151, 48.1278, -14.08, 97.4483, -51.5278, 44.0335
1.508, 2, 35.9151, 48.1278, -14.08, 97.4483, -51.5278, 44.0335
1.512, 2, 35.9151, 48.1278, -14.08, 97.4483, -51.5278, 44.0335
1.516, 2, 35.9151, 48.1278, -14.08, 97.4483, -51.5278, 44.0335
1.52, 2, 35.9151, 48.1278, -14.08, 97.4483, -51.5278, 44.0335
1.524, 2, 35.9151, 48.1278, -14.08, 97.4483, -51.5278, 44.0335
1.528, 2, 35.9151, 48.1278, -14.08, 97.4483, -51.5278, 44.0335
1.532, 2, 35.9151, 48.1278, -14.08, 97.4483, -51.5278, 44.0335
1.536, 2, 35.9151, 48.1278, -14.08, 97.4483, -51.5278, 44.0335
1.54, 2, 35.9151, 48.1278, -14.08, 97.4483, -51.5278, 44.0335
1.544, 2, 35.9151, 48.1278, -14.08, 97.4483, -51.5278, 44.0335
1.548, 2, 35.9151, 48.1278, -14.08, 97.4483, -51.5278, 44.0335
1.552, 2, 35.9151, 48.1278, -14.08, 97.4483, -51.5278, 44.0335
1.556, 2, 35.9151, 48.1278, -14.08, 97.4483, -51.5278, 44.0335
1.56, 2, 35.9151, 48.1278, -14.08, 97.4483, -51.5278, 44.0335
1.564, 2, 35.9151, 48.1278, -14.08, 97.4483, -51.5278, 44.0335
1.568, 2, 35.9151, 48.1278, -14.08, 97.4483, -51.5278, 44.0335
1.572, 2, 35.9151, 48.1278, -14.08, 97.4483, -51.5278, 44.0335
1.576, 2, 35.9151, 48.1278, -14.08, 97.4483, -51.5278, 44.0335
1.58, 2, 35.9151, 48.1278, -14.08, 97.4483, -51.5278, 44.0335
1.584, 2, 35.9151, 48.1278, -14.08, 97.4483, -51.5278, 44.0335
1.588, 2, 35.9151, 48.1278, -14.08, 97.4483, -51.5278, 44.0335
1.592, 2, 35.9151, 48.1278, -14.08, 97.4483, -51.5278, 44.0335
1.596, 2, 35.9151, 48.1278, -14.08, 97.4483, -51.5278, 44.0335
1.6, 2, 35.9151, 48.1278, -14.08, 97.4483, -51.5278, 44.0335
1.604, 2, 35.9151, 48.1278, -14.08, 97.4483, -51.5278, 44.0335
1.608, 2, 35.9151, 48.1278, -14.08, 97.4483, -51.5278, 44.0335
1.612, 2, 35.9151, 48.1278, -14.08, 97.4483, -51.5278, 44.0335
1.616, 2, 35.9151, 48.1278, -14.08, 97.4483, -51.5278, 44.0335
1.62, 2, 35.9151, 48.1278, -14.08, 97.4483, -51.5278, 44.0335
1.624, 2, 35.9151, 48.1278, -14.08, 97.4483, -51.5278, 44.0335
1.628, 2, 35.9151, 48.1278, -14.08, 97.4483, -51.5278, 44.0335
1.632, 2, 35.9151, 48.1278, -14.08, 97.4483, -51.5278, 44.0335
1.636, 2, 35.9151, 48.1278, -14.08, 97.4483, -51.5278, 44.0335
1.64, 2, 35.9151, 48.1278, -14.08, 97.4483, -51.5278, 44.0335
1.644, 2, 35.9151, 48.1278, -14.08, 97.4483, -51.5278, 44.0335
1.648, 2, 35.9151, 48.1278, -14.08, 97.4483, -51.5278, 44.0335
1.652, 2, 35.9151, 48.1278, -14.08, 97.4483, -51.5278, 44.0335
1.656, 2, 35.9151, 48.1278, -14.08, 97.4483, -51.5278, 44.0335
1.66, 2, 35.9151, 48.1278, -14.08, 97.4483, -51.5278, 44.0335
1.664, 2, 35.9151, 48.1278, -14.08, 97.4483, -51.5278, 44.0335
1.668, 2, 35.9151, 48.1278, -14.08, 97.4483, -51.5278, 44.0335
1.672, 2, 35.9151, 48.1278, -14.08, 97.4483, -51.5278, 44.0335
1.676, 2, 35.9151, 48.1278, -14.08, 97.4483, -51.5278, 44.0335
1.68, 2, 35.9151, 48.1278, -14.08, 97.4483, -51.5278, 44.0335
1.684, 2, 35.9151, 48.1278, -14.08, 97.4483, -51.5278, 44.0335
1.688, 2, 35.9151, 48.1278, -14.08, 97.4483, -51.5278, 44.0335
1.692, 2, 35.9151, 48.1278, -14.08, 97.4483, -51.5278, 44.0335
1.696, 2, 35.9151, 48.1278, -14.08, 97.4483, -51.5278, 44.0335
1.7, 2, 35.9151, 48.1278, -14.08, 97.4483, -51.5278, 44.0335
1.704, 2, 35.9151, 48.1278, -14.08, 97.4483, -51.5278, 44.0335
1.708, 2, 35.9151, 48.1278, -14.08, 97.4483, -51.5278, 44.0335
1.712, 2, 35.9151, 48.1278, -14.08, 97.4483, -51.5278, 44.0335
1.716, 2, 35.9151, 48.1278, -14.08, 97.4483, -51.5278, 44.0335
1.72, 2, 35.9151, 48.1278, -14.08, 97.4483, -51.5278, 44.0335
1.724, 2, 35.9151, 48.1278, -14.08, 97.4483, -51.5278, 44.0335
1.728, 2, 35.9151, 48.1278, -14.08, 97.4483, -51.5278, 44.0335
1.732, 2, 35.9151, 48.1278, -14.08, 97.4483, -51.5278, 44.0335
1.736, 2, 35.9151, 48.1278, -14.08, 97.4483, -51.5278, 44.0335
1.74, 2, 35.9151, 48.1278, -14.08, 97.4483, -51.5278, 44.0335
1.744, 2, 35.9151, 48.1278, -14.08, 97.4483, -51.5278, 44.0335
1.748, 2, 35.9151, 48.1278, -14.08, 97.4483, -51.5278, 44.0335
1.752, 2, 35.9151, 48.1278, -14.08, 97.4483, -51.5278, 44.0335
1.756, 2, 35.9151, 48.1278, -14.08, 97.4483, -51.5278, 44.0335
1.76, 2, 35.9151, 48.1278, -14.08, 97.4483, -51.5278, 44.0335
1.764, 2, 35.9151, 48.1278, -14.08, 97.4483, -51.5278, 44.0335
1.768, 2, 35.9151, 48.1278, -14.08, 97.4483, -51.5278, 44.0335
1.772, 2, 35.9151, 48.1278, -14.08, 97.4483, -51.5278, 44.0335
1.776, 2, 35.9151, 48.1278, -14.08, 97.4483, -51.5278, 44.0335
1.78, 2, 35.9151, 48.1278, -14.08, 97.4483, -51.5278, 44.0335
1.784, 2, 35.9151, 48.1278, -14.08, 97.4483, -51.5278, 44.0335
1.788, 2, 35.9151, 48.1278, -14.08, 97.4483, -51.5278, 44.0335
1.792, 2, 35.9151, 48.1278, -14.08, 97.4483, -51.5278, 44.0335
1.796, 2, 35.9151, 48.1278, -14.08, 97.4483, -51.5278, 44.0335
1.8, 2, 35.9151, 48.1278, -14.08, 97.4483, -51.5278, 44.0335
1.804, 2, 35.9151, 48.1278, -14.08, 97.4483, -51.5278, 44.0335
1.808, 2, 35.9151, 48.1278, -14.08, 97.4483, -51.5278, 44.0335
1.812, 2, 35.9151, 48.1278, -14.08, 97.4483, -51.5278, 44.0335
1.816, 2, 35.9151, 48.1278, -14.08, 97.4483, -51.5278, 44.0335
1.82, 2, 35.9151, 48.1278, -14.08, 97.4483, -51.5278, 44.0335
1.824, 2, 35.9151, 48.1278, -14.08, 97.4483, -51.5278, 44.0335
1.828, 2, 35.9151, 48.1278, -14.08, 97.4483, -51.5278, 44.0335
1.832, 2, 35.9151, 48.1278, -14.08, 97.4483, -51.5278, 44.0335
1.836, 2, 35.9151, 48.1278, -14.08, 97.4483, -51.5278, 44.0335
1.84, 2, 35.9151, 48.1278, -14.08, 97.4483, -51.5278, 44.0335
1.844, 2, 35.9151, 48.1278, -14.08, 97.4483, -51.5278, 44.0335
1.848, 2, 35.9151, 48.1278, -14.08, 97.4483, -51.5278, 44.0335
1.852, 2, 35.9151, 48.1278, -14.08, 97.4483, -51.5278, 44.0335
1.856, 2, 35.9151, 48.1278, -14.08, 97.4483, -51.5278, 44.0335
1.86, 2, 35.9151, 48.1278, -14.08, 97.4483, -51.5278, 44.0335
1.864, 2, 35.9151, 48.1278, -14.08, 97.4483, -51.5278, 44.0335
1.868, 2, 35.9151, 48.1278, -14.08, 97.4483, -51.5278, 44.0335
1.872, 2, 35.9151, 48.1278, -14.08, 97.4483, -51.5278, 44.0335
1.876, 2, 35.9151, 48.1278, -14.08, 97.4483, -51.5278, 44.0335
1.88, 2, 35.9151, 48.1278, -14.08, 97.4483, -51.5278, 44.0335
1.884, 2, 35.9151, 48.1278, -14.08, 97.4483, -51.5278, 44.0335
1.888, 2, 35.9151, 48.1278, -14.08, 97.4483, -51.5278, 44.0335
1.892, 2, 35.9151, 48.1278, -14.08, 97.4483, -51.5278, 44.0335
1.896, 2, 35.9151, 48.1278, -14.08, 97.4483, -51.5278, 44.0335
1.9, 2, 35.9151, 48.1278, -14.08, 97.4483, -51.5278, 44.0335
1.904, 2, 35.9151, 48.1278, -14.08, 97.4483, -51.5278, 44.0335
1.908, 2, 35.9151, 48.1278, -14.08, 97.4483, -51.5278, 44.0335
1.912, 2, 35.9151, 48.1278, -14.08, 97.4483, -51.5278, 44.0335
1.916, 2, 35.9151, 48.1278, -14.08, 97.4483, -51.5278, 44.0335
1.92, 2, 35.9151, 48.1278, -14.08, 97.4483, -51.5278, 44.0335
1.924, 2, 35.9151, 48.1278, -14.08, 97.4483, -51.5278, 44.0335
1.928, 2, 35.9151, 48.1278, -14.08, 97.4483, -51.5278, 44.0335
1.932, 2, 35.9151, 48.1278, -14.08, 97.4483, -51.5278, 44.0335
1.936, 2, 35.9151, 48.1278, -14.08, 97.4483, -51.5278, 44.0335
1.94, 2, 35.9151, 48.1278, -14.08, 97.4483, -51.5278, 44.0335
1.944, 2, 35.9151, 48.1278, -14.08, 97.4483, -51.5278, 44.0335
1.948, 2, 35.9151, 48.1278, -14.08, 97.4483, -51.5278, 44.0335
1.952, 2, 35.9151, 48.1278, -14.08, 97.4483, -51.5278, 44.0335
1.956, 2, 35.9151, 48.1278, -14.08, 97.4483, -51.5278, 44.0335
1.96, 2, 35.9151, 48.1278, -14.08, 97.4483, -51.5278, 44.0335
1.964, 2, 35.9151, 48.1278, -14.08, 97.4483, -51.5278, 44.0335
1.968, 2, 35.9151, 48.1278, -14.08, 97.4483, -51.5278, 44.0335
1.972, 2, 35.9151, 48.1278, -14.08, 97.4483, -51.5278, 44.0335
1.976, 2, 35.9151, 48.1278, -14.08, 97.4483, -51.5278, 44.0335
1.98, 2, 35.9151, 48.1278, -14.08, 97.4483, -51.5278, 44.0335
1.984, 2, 35.9151, 48.1278, -14.08, 97.4483, -51.5278, 44.0335
1.988, 2, 35.9151, 48.1278, -14.08, 97.4483, -51.5278, 44.0335
1.992, 2, 35.9151, 48.1278, -14.08, 97.4483, -51.5278, 44.0335
1.996, 2, 35.9151, 48.1278, -14.08, 97.4483, -51.5278, 44.0335
1.999, 2, 35.9151, 48.1278, -14.08, 97.4483, -51.5278, 44.0335
2.004, 2, 35.9151, 48.1278, -14.08, 97.4483, -51.5278, 44.0335
2.008, 2, 35.9151, 48.1278, -14.08, 97.4483, -51.5278, 44.0335
2.012, 2, 35.9151, 48.1278, -14.08, 97.4483, -51.5278, 44.0335
2.015, 2, 35.9151, 48.1278, -14.08, 97.4483, -51.5278, 44.0335
2.019, 2, 35.9151, 48.1278, -14.08, 97.4483, -51.5278, 44.0335
2.024, 2, 35.9151, 48.1278, -14.08, 97.4483, -51.5278, 44.0335
2.028, 2, 35.9151, 48.1278, -14.08, 97.4483, -51.5278, 44.0335
2.031, 2, 35.9151, 48.1278, -14.08, 97.4483, -51.5278, 44.0335
2.036, 2, 35.9151, 48.1278, -14.08, 97.4483, -51.5278, 44.0335
2.04, 2, 35.9151, 48.1278, -14.08, 97.4483, -51.5278, 44.0335
2.044, 4, 35.9151, 48.1278, -14.08, 97.4483, -51.5278, 44.0335
2.048, 4, 35.9151, 48.1278, -14.08, 97.4483, -51.5278, 44.0335
2.051, 4, 35.9151, 48.1278, -14.08, 97.4483, -51.5278, 44.0335
2.055, 4, 35.9151, 48.1278, -14.08, 97.4483, -51.5278, 44.0335
2.06, 4, 35.9151, 48.1278, -14.08, 97.4483, -51.5278, 44.0335
2.064, 4, 35.9151, 48.1278, -14.08, 97.4483, -51.5278, 44.0335
2.068, 4, 35.9151, 48.1278, -14.08, 97.4483, -51.5278, 44.0335
2.071, 4, 35.9151, 48.1278, -14.08, 97.4483, -51.5278, 44.0335
2.076, 4, 35.9151, 48.1278, -14.08, 97.4483, -51.5278, 44.0335
2.08, 4, 35.9151, 48.1278, -14.08, 97.4483, -51.5278, 44.0335
2.084, 4, 35.9151, 48.1278, -14.08, 97.4483, -51.5278, 44.0335
2.087, 4, 35.9151, 48.1278, -14.08, 97.4483, -51.5278, 44.0335
2.092, 4, 35.9151, 48.1278, -14.08, 97.4483, -51.5278, 44.0335
2.096, 4, 35.9151, 48.1278, -14.08, 97.4483, -51.5278, 44.0335
2.1, 4, 35.9151, 48.1278, -14.08, 97.4483, -51.5278, 44.0335
2.104, 4, 35.9151, 48.1278, -14.08, 97.4483, -51.5278, 44.0335
2.107, 4, 35.9151, 48.1278, -14.08, 97.4483, -51.5278, 44.0335
2.111, 4, 35.9151, 48.1278, -14.08, 97.4483, -51.5278, 44.0335
2.116, 4, 35.9151, 48.1278, -14.08, 97.4483, -51.5278, 44.0335
2.12, 4, 35.9151, 48.1278, -14.08, 97.4483, -51.5278, 44.0335
2.124, 4, 35.9151, 48.1278, -14.08, 97.4483, -51.5278, 44.0335
2.127, 4, 35.9151, 48.1278, -14.08, 97.4483, -51.5278, 44.0335
2.132, 4, 35.9151, 48.1278, -14.08, 97.4483, -51.5278, 44.0335
2.136, 4, 35.9151, 48.1278, -14.08, 97.4483, -51.5278, 44.0335
2.14, 4, 35.9151, 48.1278, -14.08, 97.4483, -51.5278, 44.0335
2.143, 4, 35.9151, 48.1278, -14.08, 97.4483, -51.5278, 44.0335
2.149, 4, 35.9151, 48.1278, -14.08, 97.4483, -51.5278, 44.0335
2.152, 4, 35.9151, 48.1278, -14.08, 97.4483, -51.5278, 44.0335
2.156, 4, 35.9151, 48.1278, -14.08, 97.4483, -51.5278, 44.0335
2.16, 4, 35.9151, 48.1278, -14.08, 97.4483, -51.5278, 44.0335
2.163, 4, 35.9151, 48.1278, -14.08, 97.4483, -51.5278, 44.0335
2.168, 4, 35.9151, 48.1278, -14.08, 97.4483, -51.5278, 44.0335
2.172, 4, 35.9151, 48.1278, -14.08, 97.4483, -51.5278, 44.0335
2.176, 4, 35.9151, 48.1278, -14.08, 97.4483, -51.5278, 44.0335
2.179, 4, 35.9151, 48.1278, -14.08, 97.4483, -51.5278, 44.0335
2.184, 4, 35.915, 48.128, -14.08, 97.4483, -51.5279, 44.0335
2.188, 4, 35.9148, 48.1283, -14.08, 97.4483, -51.5279, 44.0335
2.192, 4, 35.9144, 48.1291, -14.08, 97.4483, -51.5281, 44.0334
2.196, 4, 35.9137, 48.1303, -14.08, 97.4482, -51.5284, 44.0333
2.199, 4, 35.9128, 48.1322, -14.0799, 97.4481, -51.5292, 44.033
2.204, 4, 35.9115, 48.1347, -14.0798, 97.4478, -51.5306, 44.0325
2.208, 4, 35.91, 48.1379, -14.0797, 97.4474, -51.533, 44.0316
2.212, 4, 35.9083, 48.1418, -14.0795, 97.4468, -51.5368, 44.0301
2.216, 5, 35.9064, 48.1464, -14.0792, 97.4459, -51.5426, 44.0279
2.219, 5, 35.9045, 48.1518, -14.0787, 97.4445, -51.5508, 44.0248
2.224, 5, 35.9025, 48.1578, -14.0782, 97.4426, -51.562, 44.0205
2.228, 5, 35.9003, 48.1647, -14.0774, 97.4401, -51.5768, 44.0149
2.232, 5, 35.8981, 48.1724, -14.0764, 97.4369, -51.5956, 44.0077
2.235, 5, 35.8959, 48.1809, -14.0752, 97.4329, -51.619, 43.9988
2.24, 5, 35.8936, 48.19, -14.0738, 97.4281, -51.6474, 43.988
2.244, 5, 35.8914, 48.1997, -14.072, 97.4223, -51.681, 43.9752
2.248, 5, 35.8893, 48.21, -14.07, 97.4156, -51.72, 43.9603
2.252, 5, 35.8872, 48.2208, -14.0677, 97.408, -51.7645, 43.9434
2.255, 5, 35.8851, 48.2323, -14.0651, 97.3993, -51.8142, 43.9245
2.259, 5, 35.8831, 48.2443, -14.0622, 97.3898, -51.869, 43.9037
2.264, 5, 35.8809, 48.2572, -14.059, 97.3794, -51.9285, 43.8811
2.268, 5, 35.8787, 48.271, -14.0556, 97.3683, -51.9921, 43.857
2.272, 5, 35.8763, 48.2855, -14.0519, 97.3565, -52.0595, 43.8314
2.275, 5, 35.8738, 48.3008, -14.048, 97.344, -52.13, 43.8047
2.28, 5, 35.8712, 48.3169, -14.0439, 97.331, -52.2033, 43.777
2.284, 5, 35.8684, 48.3337, -14.0395, 97.3175, -52.2786, 43.7486
2.288, 5, 35.8654, 48.3512, -14.0351, 97.3037, -52.3557, 43.7195
2.291, 5, 35.8621, 48.3693, -14.0304, 97.2896, -52.4341, 43.6899
2.296, 5, 35.8587, 48.388, -14.0257, 97.2752, -52.5135, 43.66
2.3, 5, 35.8549, 48.4073, -14.0208, 97.2606, -52.5935, 43.6299
2.304, 5, 35.8509, 48.427, -14.0158, 97.2459, -52.674, 43.5997
2.308, 5, 35.8468, 48.4471, -14.0107, 97.231, -52.7548, 43.5694
2.311, 5, 35.8424, 48.4674, -14.0055, 97.216, -52.8358, 43.5391
2.316, 5, 35.838, 48.4878, -14.0002, 97.2009, -52.917, 43.5087
2.32, 5, 35.8335, 48.5083, -13.9948, 97.1857, -52.9982, 43.4784
2.324, 5, 35.8289, 48.5289, -13.9894, 97.1704, -53.0794, 43.4481
2.328, 5, 35.8243, 48.5495, -13.9838, 97.155, -53.1607, 43.4178
2.331, 5, 35.8196, 48.57, -13.9782, 97.1395, -53.242, 43.3876
2.336, 5, 35.8149, 48.5906, -13.9724, 97.1239, -53.3232, 43.3574
2.34, 5, 35.8101, 48.6111, -13.9666, 97.1082, -53.4044, 43.3272
2.344, 5, 35.8053, 48.6316, -13.9607, 97.0925, -53.4857, 43.2971
2.347, 5, 35.8005, 48.652, -13.9547, 97.0766, -53.5669, 43.267
2.352, 5, 35.7956, 48.6724, -13.9486, 97.0607, -53.648, 43.237
2.356, 5, 35.7908, 48.6927, -13.9425, 97.0447, -53.7292, 43.2071
2.36, 5, 35.7858, 48.7131, -13.9362, 97.0287, -53.8103, 43.1771
2.364, 5, 35.7809, 48.7333, -13.9299, 97.0125, -53.8914, 43.1473
2.367, 5, 35.7759, 48.7535, -13.9235, 96.9963, -53.9724, 43.1175
2.372, 5, 35.7709, 48.7737, -13.917, 96.9799, -54.0534, 43.0877
2.376, 5, 35.7659, 48.7938, -13.9104, 96.9635, -54.1344, 43.058
2.38, 5, 35.7609, 48.8139, -13.9037, 96.9471, -54.2154, 43.0283
2.383, 5, 35.7558, 48.8339, -13.8969, 96.9305, -54.2963, 42.9986
2.388, 5, 35.7507, 48.8539, -13.8901, 96.9139, -54.3772, 42.9691
2.392, 5, 35.7455, 48.8738, -13.8831, 96.8972, -54.4581, 42.9395
2.396, 5, 35.7404, 48.8936, -13.8761, 96.8804, -54.5389, 42.91
2.4, 5, 35.7352, 48.9135, -13.869, 96.8635, -54.6197, 42.8806
2.403, 5, 35.7299, 48.9332, -13.8618, 96.8466, -54.7005, 42.8512
2.408, 5, 35.7247, 48.953, -13.8545, 96.8295, -54.7812, 42.8218
2.412, 5, 35.7194, 48.9726, -13.8471, 96.8124, -54.8619, 42.7925
2.416, 5, 35.7141, 48.9923, -13.8396, 96.7952, -54.9426, 42.7632
2.42, 5, 35.7088, 49.0118, -13.8321, 96.778, -55.0232, 42.734
2.423, 5, 35.7034, 49.0314, -13.8244, 96.7607, -55.1038, 42.7048
2.428, 5, 35.698, 49.0508, -13.8167, 96.7433, -55.1844, 42.6757
2.432, 5, 35.6926, 49.0703, -13.8089, 96.7258, -55.265, 42.6466
2.436, 5, 35.6872, 49.0896, -13.801, 96.7082, -55.3455, 42.6175
2.439, 5, 35.6817, 49.109, -13.793, 96.6906, -55.426, 42.5885
2.444, 5, 35.6762, 49.1282, -13.7849, 96.6729, -55.5064, 42.5596
2.448, 5, 35.6707, 49.1474, -13.7768, 96.6551, -55.5868, 42.5306
2.452, 5, 35.6651, 49.1666, -13.7685, 96.6373, -55.6672, 42.5017
2.456, 5, 35.6595, 49.1857, -13.7602, 96.6193, -55.7476, 42.4729
2.459, 5, 35.6539, 49.2048, -13.7517, 96.6013, -55.8279, 42.4441
2.464, 5, 35.6483, 49.2238, -13.7432, 96.5833, -55.9082, 42.4153
2.468, 5, 35.6426, 49.2428, -13.7346, 96.5651, -55.9885, 42.3866
2.472, 5, 35.6369, 49.2617, -13.7259, 96.5469, -56.0687, 42.3579
2.476, 5, 35.6312, 49.2806, -13.7172, 96.5286, -56.149, 42.3293
2.479, 5, 35.6254, 49.2994, -13.7083, 96.5102, -56.2291, 42.3007
2.484, 5, 35.6197, 49.3182, -13.6993, 96.4918, -56.3093, 42.2721
2.488, 5, 35.6138, 49.3369, -13.6903, 96.4733, -56.3894, 42.2436
2.492, 5, 35.608, 49.3556, -13.6812, 96.4547, -56.4695, 42.2151
2.495, 5, 35.6022, 49.3742, -13.672, 96.4361, -56.5496, 42.1866
2.5, 5, 35.5963, 49.3928, -13.6627, 96.4174, -56.6296, 42.1582
2.504, 5, 35.5904, 49.4113, -13.6533, 96.3986, -56.7096, 42.1298
2.508, 5, 35.5844, 49.4297, -13.6438, 96.3797, -56.7896, 42.1015
2.512, 5, 35.5784, 49.4482, -13.6343, 96.3608, -56.8695, 42.0732
2.515, 5, 35.5724, 49.4665, -13.6246, 96.3418, -56.9494, 42.0449
2.52, 5, 35.5664, 49.4848, -13.6149, 96.3227, -57.0293, 42.0167
2.524, 5, 35.5604, 49.5031, -13.6051, 96.3036, -57.1091, 41.9885
2.528, 5, 35.5543, 49.5213, -13.5951, 96.2844, -57.1889, 41.9603
2.531, 5, 35.5482, 49.5395, -13.5852, 96.2651, -57.2687, 41.9322
2.536, 5, 35.542, 49.5576, -13.5751, 96.2458, -57.3485, 41.9041
2.54, 5, 35.5359, 49.5756, -13.5649, 96.2264, -57.4282, 41.8761
2.544, 5, 35.5297, 49.5936, -13.5546, 96.2069, -57.5079, 41.8481
2.548, 5, 35.5235, 49.6116, -13.5443, 96.1873, -57.5876, 41.8201
2.551, 5, 35.5172, 49.6295, -13.5339, 96.1677, -57.6672, 41.7921
2.556, 5, 35.511, 49.6473, -13.5233, 96.148, -57.7468, 41.7642
2.56, 5, 35.5047, 49.6651, -13.5127, 96.1283, -57.8264, 41.7363
2.564, 5, 35.4983, 49.6828, -13.502, 96.1085, -57.906, 41.7085
2.568, 5, 35.492, 49.7005, -13.4913, 96.0886, -57.9855, 41.6807
2.571, 5, 35.4856, 49.7182, -13.4804, 96.0687, -58.065, 41.6529
2.576, 5, 35.4792, 49.7358, -13.4694, 96.0486, -58.1444, 41.6251
2.58, 5, 35.4728, 49.7533, -13.4584, 96.0286, -58.2239, 41.5974
2.584, 5, 35.4663, 49.7708, -13.4473, 96.0084, -58.3033, 41.5697
2.587, 5, 35.4598, 49.7882, -13.436, 95.9882, -58.3826, 41.5421
2.592, 5, 35.4533, 49.8056, -13.4247, 95.9679, -58.462, 41.5145
2.596, 5, 35.4468, 49.8229, -13.4133, 95.9476, -58.5413, 41.4869
2.6, 5, 35.4402, 49.8402, -13.4019, 95.9272, -58.6206, 41.4593
2.604, 5, 35.4336, 49.8574, -13.3903, 95.9067, -58.6998, 41.4318
2.607, 5, 35.427, 49.8746, -13.3786, 95.8862, -58.779, 41.4043
2.612, 5, 35.4203, 49.8917, -13.3669, 95.8656, -58.8582, 41.3768
2.616, 5, 35.4137, 49.9087, -13.3551, 95.845, -58.9374, 41.3494
2.62, 5, 35.4069, 49.9257, -13.3431, 95.8242, -59.0165, 41.322
2.624, 5, 35.4002, 49.9427, -13.3311, 95.8034, -59.0956, 41.2946
2.627, 5, 35.3935, 49.9596, -13.319, 95.7826, -59.1747, 41.2673
2.632, 5, 35.3867, 49.9764, -13.3069, 95.7617, -59.2538, 41.24
2.636, 5, 35.3799, 49.9932, -13.2946, 95.7407, -59.3328, 41.2127
2.64, 5, 35.373, 50.01, -13.2822, 95.7197, -59.4118, 41.1854
2.643, 5, 35.3662, 50.0266, -13.2698, 95.6986, -59.4907, 41.1582
2.648, 5, 35.3593, 50.0433, -13.2573, 95.6774, -59.5697, 41.131
2.652, 5, 35.3523, 50.0599, -13.2446, 95.6562, -59.6486, 41.1038
2.656, 5, 35.3454, 50.0764, -13.2319, 95.6349, -59.7274, 41.0767
2.66, 5, 35.3384, 50.0928, -13.2191, 95.6136, -59.8063, 41.0495
2.663, 5, 35.3314, 50.1093, -13.2062, 95.5922, -59.8851, 41.0224
2.668, 5, 35.3244, 50.1256, -13.1933, 95.5707, -59.9639, 40.9954
2.672, 5, 35.3173, 50.1419, -13.1802, 95.5492, -60.0427, 40.9683
2.676, 5, 35.3103, 50.1582, -13.1671, 95.5276, -60.1214, 40.9413
2.679, 5, 35.3032, 50.1744, -13.1538, 95.506, -60.2001, 40.9143
2.684, 5, 35.296, 50.1905, -13.1405, 95.4843, -60.2788, 40.8874
2.688, 5, 35.2889, 50.2066, -13.1271, 95.4625, -60.3574, 40.8604
2.692, 5, 35.2817, 50.2227, -13.1136, 95.4407, -60.436, 40.8335
2.696, 5, 35.2745, 50.2386, -13.1, 95.4188, -60.5146, 40.8066
2.699, 5, 35.2672, 50.2546, -13.0863, 95.3968, -60.5932, 40.7798
2.704, 5, 35.26, 50.2704, -13.0725, 95.3748, -60.6717, 40.7529
2.708, 5, 35.2527, 50.2863, -13.0587, 95.3528, -60.7502, 40.7261
2.712, 5, 35.2453, 50.302, -13.0448, 95.3307, -60.8286, 40.6993
2.716, 5, 35.238, 50.3177, -13.0307, 95.3085, -60.9071, 40.6726
2.719, 5, 35.2306, 50.3334, -13.0166, 95.2863, -60.9855, 40.6458
2.724, 5, 35.2232, 50.349, -13.0024, 95.264, -61.0639, 40.6191
2.728, 5, 35.2158, 50.3645, -12.9881, 95.2416, -61.1422, 40.5924
2.732, 5, 35.2083, 50.38, -12.9737, 95.2192, -61.2206, 40.5657
2.735, 5, 35.2009, 50.3954, -12.9592, 95.1967, -61.2989, 40.5391
2.74, 5, 35.1933, 50.4108, -12.9447, 95.1742, -61.3771, 40.5125
2.744, 5, 35.1858, 50.4261, -12.93, 95.1516, -61.4554, 40.4858
2.748, 5, 35.1782, 50.4414, -12.9153, 95.129, -61.5336, 40.4593
2.752, 5, 35.1707, 50.4566, -12.9004, 95.1063, -61.6118, 40.4327
2.755, 5, 35.163, 50.4717, -12.8855, 95.0836, -61.6899, 40.4062
2.76, 5, 35.1554, 50.4868, -12.8705, 95.0608, -61.7681, 40.3796
2.764, 5, 35.1477, 50.5019, -12.8554, 95.0379, -61.8462, 40.3531
2.768, 5, 35.14, 50.5168, -12.8402, 95.015, -61.9242, 40.3267
2.772, 5, 35.1323, 50.5318, -12.8249, 94.992, -62.0023, 40.3002
2.775, 5, 35.1246, 50.5466, -12.8096, 94.969, -62.0803, 40.2738
2.78, 5, 35.1168, 50.5614, -12.7941, 94.9459, -62.1583, 40.2474
2.784, 5, 35.109, 50.5762, -12.7786, 94.9228, -62.2362, 40.221
2.788, 5, 35.1012, 50.5909, -12.763, 94.8996, -62.3142, 40.1946
2.791, 5, 35.0933, 50.6055, -12.7472, 94.8764, -62.3921, 40.1682
2.796, 5, 35.0854, 50.6201, -12.7314, 94.8531, -62.4699, 40.1419
2.8, 5, 35.0775, 50.6347, -12.7155, 94.8297, -62.5478, 40.1156
2.804, 5, 35.0696, 50.6491, -12.6995, 94.8063, -62.6256, 40.0893
2.808, 5, 35.0616, 50.6636, -12.6835, 94.7828, -62.7034, 40.063
2.811, 5, 35.0536, 50.6779, -12.6673, 94.7593, -62.7812, 40.0367
2.816, 5, 35.0456, 50.6922, -12.651, 94.7358, -62.8589, 40.0105
2.82, 5, 35.0376, 50.7065, -12.6347, 94.7121, -62.9366, 39.9842
2.824, 5, 35.0295, 50.7207, -12.6183, 94.6885, -63.0143, 39.958
2.828, 5, 35.0214, 50.7348, -12.6017, 94.6647, -63.092, 39.9318
2.831, 5, 35.0133, 50.7489, -12.5851, 94.6409, -63.1696, 39.9057
2.836, 5, 35.0052, 50.7629, -12.5684, 94.6171, -63.2472, 39.8795
2.84, 5, 34.997, 50.7768, -12.5517, 94.5932, -63.3248, 39.8534
2.844, 5, 34.9888, 50.7908, -12.5348, 94.5693, -63.4023, 39.8272
2.847, 5, 34.9806, 50.8046, -12.5178, 94.5453, -63.4799, 39.8011
2.852, 5, 34.9724, 50.8184, -12.5008, 94.5212, -63.5574, 39.775
2.856, 5, 34.9641, 50.8321, -12.4836, 94.4971, -63.6348, 39.749
2.86, 5, 34.9558, 50.8458, -12.4664, 94.473, -63.7123, 39.7229
2.864, 5, 34.9475, 50.8594, -12.4491, 94.4488, -63.7897, 39.6968
2.867, 5, 34.9391, 50.873, -12.4317, 94.4245, -63.8671, 39.6708
2.872, 5, 34.9308, 50.8865, -12.4142, 94.4002, -63.9444, 39.6448
2.876, 5, 34.9225, 50.8999, -12.3967, 94.3759, -64.0218, 39.6188
2.88, 5, 34.9143, 50.9131, -12.379, 94.3515, -64.0991, 39.5928
2.883, 5, 34.9063, 50.926, -12.3613, 94.3271, -64.1763, 39.5669
2.888, 5, 34.8987, 50.9386, -12.3435, 94.3026, -64.2533, 39.541
2.892, 5, 34.8914, 50.9505, -12.3257, 94.2782, -64.3301, 39.5152
2.896, 5, 34.8846, 50.9617, -12.308, 94.2539, -64.4064, 39.4896
2.9, 5, 34.8783, 50.9721, -12.2903, 94.2298, -64.482, 39.4642
2.903, 5, 34.8724, 50.9816, -12.2728, 94.2059, -64.5565, 39.4392
2.908, 5, 34.8668, 50.9903, -12.2556, 94.1825, -64.6294, 39.4147
2.912, 5, 34.8616, 50.9983, -12.2389, 94.1597, -64.7003, 39.3909
2.916, 5, 34.8567, 51.0058, -12.2227, 94.1378, -64.7685, 39.368
2.92, 5, 34.8519, 51.0129, -12.2073, 94.1168, -64.8334, 39.3462
2.923, 5, 34.8473, 51.0198, -12.1927, 94.0971, -64.8944, 39.3257
2.928, 5, 34.8428, 51.0266, -12.1792, 94.0788, -64.9509, 39.3067
2.932, 5, 34.8383, 51.0332, -12.1668, 94.0621, -65.0026, 39.2894
2.936, 5, 34.8339, 51.0398, -12.1556, 94.0471, -65.049, 39.2738
2.939, 5, 34.8295, 51.0463, -12.1457, 94.0338, -65.0899, 39.2601
2.944, 5, 34.8252, 51.0528, -12.1371, 94.0223, -65.1254, 39.2482
2.948, 5, 34.8209, 51.0592, -12.1297, 94.0126, -65.1555, 39.2381
2.952, 5, 34.8167, 51.0655, -12.1236, 94.0045, -65.1804, 39.2297
2.956, 5, 34.8126, 51.0719, -12.1187, 93.9979, -65.2007, 39.2229
2.959, 5, 34.8085, 51.0781, -12.1147, 93.9927, -65.2166, 39.2176
2.964, 5, 34.8046, 51.0841, -12.1117, 93.9887, -65.2289, 39.2135
2.968, 5, 34.8008, 51.0897, -12.1094, 93.9858, -65.2381, 39.2104
2.972, 5, 34.7975, 51.0945, -12.1077, 93.9836, -65.2448, 39.2082
2.976, 5, 34.7945, 51.0986, -12.1065, 93.9821, -65.2496, 39.2066
2.98, 5, 34.7921, 51.1019, -12.1056, 93.981, -65.2529, 39.2055
2.984, 5, 34.7902, 51.1043, -12.105, 93.9802, -65.2552, 39.2047
2.988, 5, 34.7888, 51.106, -12.1046, 93.9798, -65.2567, 39.2042
2.992, 5, 34.7877, 51.1073, -12.1043, 93.9794, -65.2578, 39.2039
2.995, 5, 34.7866, 51.1084, -12.1041, 93.9792, -65.2586, 39.2036
3, 5, 34.7854, 51.1096, -12.104, 93.979, -65.2592, 39.2034
3.004, 5, 34.7838, 51.1111, -12.1038, 93.9787, -65.26, 39.2031
3.008, 5, 34.7818, 51.113, -12.1035, 93.9784, -65.2611, 39.2028
3.012, 5, 34.7794, 51.1155, -12.1031, 93.9779, -65.263, 39.2022
3.015, 5, 34.7766, 51.1186, -12.1025, 93.9771, -65.266, 39.2012
3.02, 5, 34.7735, 51.1222, -12.1015, 93.9758, -65.2707, 39.1996
3.024, 5, 34.7702, 51.1262, -12.1, 93.9738, -65.2777, 39.1973
3.028, 6, 34.7667, 51.1307, -12.098, 93.9711, -65.2875, 39.194
3.031, 6, 34.7631, 51.1357, -12.0952, 93.9674, -65.3007, 39.1896
3.036, 6, 34.7593, 51.141, -12.0916, 93.9625, -65.3179, 39.1839
3.04, 6, 34.7554, 51.1468, -12.0871, 93.9564, -65.3395, 39.1767
3.044, 6, 34.7513, 51.153, -12.0816, 93.949, -65.366, 39.1678
3.048, 6, 34.747, 51.1595, -12.075, 93.9401, -65.3977, 39.1573
3.051, 6, 34.7427, 51.1662, -12.0673, 93.9296, -65.4347, 39.1449
3.056, 6, 34.7383, 51.1733, -12.0585, 93.9176, -65.477, 39.1308
3.06, 6, 34.7339, 51.1805, -12.0487, 93.9042, -65.5246, 39.115
3.064, 6, 34.7293, 51.188, -12.0378, 93.8893, -65.5772, 39.0975
3.068, 6, 34.7246, 51.196, -12.0259, 93.8731, -65.6344, 39.0785
3.071, 6, 34.7197, 51.2044, -12.0132, 93.8557, -65.6956, 39.0581
3.076, 6, 34.7144, 51.2135, -11.9998, 93.8372, -65.7605, 39.0365
3.08, 6, 34.7087, 51.2233, -11.9858, 93.8179, -65.8284, 39.014
3.084, 6, 34.7026, 51.2337, -11.9712, 93.7978, -65.8987, 38.9907
3.087, 6, 34.6962, 51.2448, -11.9562, 93.7772, -65.9712, 38.9667
3.092, 6, 34.6893, 51.2565, -11.9409, 93.756, -66.0452, 38.9422
3.096, 6, 34.6822, 51.2688, -11.9254, 93.7345, -66.1205, 38.9173
3.1, 6, 34.6747, 51.2815, -11.9096, 93.7126, -66.1967, 38.8922
3.104, 6, 34.6668, 51.2946, -11.8937, 93.6906, -66.2736, 38.8668
3.107, 6, 34.6587, 51.3082, -11.8778, 93.6683, -66.351, 38.8413
3.112, 6, 34.6503, 51.322, -11.8618, 93.6459, -66.4287, 38.8158
3.116, 6, 34.6416, 51.336, -11.8457, 93.6235, -66.5066, 38.7902
3.12, 6, 34.6328, 51.3503, -11.8296, 93.6009, -66.5847, 38.7645
3.124, 6, 34.6238, 51.3647, -11.8135, 93.5783, -66.6629, 38.7389
3.128, 6, 34.6148, 51.3793, -11.7974, 93.5556, -66.7412, 38.7133
3.132, 6, 34.6056, 51.3939, -11.7813, 93.5329, -66.8195, 38.6877
3.136, 6, 34.5964, 51.4086, -11.7653, 93.5101, -66.8978, 38.6621
3.14, 6, 34.5871, 51.4234, -11.7492, 93.4873, -66.9761, 38.6366
3.143, 6, 34.5778, 51.4383, -11.7332, 93.4644, -67.0544, 38.611
3.148, 6, 34.5684, 51.4532, -11.7171, 93.4415, -67.1327, 38.5856
3.152, 6, 34.559, 51.4682, -11.7011, 93.4186, -67.211, 38.5601
3.156, 6, 34.5495, 51.4833, -11.6851, 93.3956, -67.2893, 38.5347
3.16, 6, 34.54, 51.4984, -11.6691, 93.3726, -67.3675, 38.5093
3.163, 6, 34.5305, 51.5135, -11.6531, 93.3496, -67.4458, 38.484
3.168, 6, 34.5209, 51.5287, -11.6371, 93.3265, -67.5241, 38.4587
3.172, 6, 34.5113, 51.544, -11.6212, 93.3034, -67.6023, 38.4334
3.176, 6, 34.5016, 51.5593, -11.6052, 93.2803, -67.6805, 38.4081
3.179, 6, 34.492, 51.5747, -11.5893, 93.2571, -67.7587, 38.3829
3.184, 6, 34.4823, 51.5902, -11.5734, 93.2339, -67.8369, 38.3577
3.188, 6, 34.4725, 51.6056, -11.5575, 93.2106, -67.9151, 38.3326
3.192, 6, 34.4627, 51.6212, -11.5417, 93.1873, -67.9932, 38.3075
3.196, 6, 34.4529, 51.6368, -11.5258, 93.164, -68.0714, 38.2824
3.199, 6, 34.443, 51.6524, -11.51, 93.1407, -68.1495, 38.2574
3.204, 6, 34.4331, 51.6681, -11.4941, 93.1173, -68.2276, 38.2324
3.208, 6, 34.4232, 51.6839, -11.4783, 93.0939, -68.3057, 38.2074
3.212, 6, 34.4132, 51.6997, -11.4625, 93.0705, -68.3838, 38.1825
3.216, 6, 34.4032, 51.7156, -11.4467, 93.047, -68.4618, 38.1576
3.22, 6, 34.3932, 51.7315, -11.431, 93.0235, -68.5399, 38.1327
3.224, 6, 34.3831, 51.7475, -11.4152, 93, -68.6179, 38.1079
3.228, 6, 34.373, 51.7635, -11.3995, 92.9764, -68.6959, 38.0831
3.232, 6, 34.3628, 51.7796, -11.3838, 92.9528, -68.774, 38.0583
3.235, 6, 34.3526, 51.7957, -11.368, 92.9292, -68.8519, 38.0336
3.24, 6, 34.3424, 51.8119, -11.3524, 92.9055, -68.9299, 38.0089
3.244, 6, 34.3322, 51.8281, -11.3367, 92.8818, -69.0079, 37.9842
3.248, 6, 34.3219, 51.8444, -11.321, 92.8581, -69.0858, 37.9595
3.252, 6, 34.3115, 51.8608, -11.3054, 92.8343, -69.1637, 37.9349
3.255, 6, 34.3012, 51.8771, -11.2898, 92.8105, -69.2417, 37.9104
3.26, 6, 34.2907, 51.8936, -11.2741, 92.7867, -69.3196, 37.8858
3.264, 6, 34.2803, 51.9101, -11.2585, 92.7628, -69.3975, 37.8613
3.268, 6, 34.2698, 51.9267, -11.243, 92.7389, -69.4753, 37.8368
3.272, 6, 34.2593, 51.9433, -11.2274, 92.715, -69.5532, 37.8124
3.276, 6, 34.2487, 51.9599, -11.2118, 92.6911, -69.631, 37.788
3.28, 6, 34.2382, 51.9766, -11.1963, 92.6671, -69.7088, 37.7636
3.284, 6, 34.2275, 51.9934, -11.1808, 92.6431, -69.7867, 37.7392
3.288, 6, 34.2169, 52.0102, -11.1653, 92.619, -69.8645, 37.7149
3.291, 6, 34.2062, 52.0271, -11.1498, 92.595, -69.9422, 37.6906
3.296, 6, 34.1954, 52.044, -11.1343, 92.5708, -70.02, 37.6664
3.3, 6, 34.1846, 52.061, -11.1189, 92.5467, -70.0978, 37.6421
3.304, 6, 34.1738, 52.078, -11.1034, 92.5225, -70.1755, 37.618
3.308, 6, 34.163, 52.0951, -11.088, 92.4983, -70.2532, 37.5938
3.312, 6, 34.1521, 52.1122, -11.0726, 92.4741, -70.3309, 37.5696
3.316, 6, 34.1411, 52.1294, -11.0572, 92.4498, -70.4086, 37.5455
3.32, 6, 34.1302, 52.1466, -11.0418, 92.4256, -70.4863, 37.5215
3.324, 6, 34.1192, 52.1639, -11.0264, 92.4012, -70.564, 37.4974
3.328, 6, 34.1081, 52.1813, -11.0111, 92.3769, -70.6416, 37.4734
3.332, 6, 34.0971, 52.1986, -10.9958, 92.3525, -70.7193, 37.4494
3.336, 6, 34.0859, 52.2161, -10.9804, 92.3281, -70.7969, 37.4255
3.34, 6, 34.0748, 52.2336, -10.9651, 92.3036, -70.8745, 37.4016
3.344, 6, 34.0636, 52.2511, -10.9499, 92.2792, -70.9521, 37.3777
3.347, 6, 34.0524, 52.2687, -10.9346, 92.2547, -71.0297, 37.3538
3.352, 6, 34.0411, 52.2864, -10.9193, 92.2301, -71.1073, 37.33
3.356, 6, 34.0298, 52.3041, -10.9041, 92.2056, -71.1848, 37.3062
3.36, 6, 34.0185, 52.3218, -10.8889, 92.181, -71.2624, 37.2824
3.364, 6, 34.0071, 52.3396, -10.8737, 92.1564, -71.3399, 37.2586
3.368, 6, 33.9957, 52.3575, -10.8585, 92.1317, -71.4174, 37.2349
3.372, 6, 33.9842, 52.3754, -10.8433, 92.107, -71.4949, 37.2112
3.376, 6, 33.9727, 52.3933, -10.8281, 92.0823, -71.5724, 37.1876
3.38, 6, 33.9612, 52.4114, -10.813, 92.0576, -71.6499, 37.1639
3.383, 6, 33.9496, 52.4294, -10.7979, 92.0328, -71.7273, 37.1403
3.388, 6, 33.938, 52.4475, -10.7828, 92.008, -71.8048, 37.1168
3.392, 6, 33.9264, 52.4657, -10.7677, 91.9832, -71.8822, 37.0932
3.396, 6, 33.9147, 52.4839, -10.7526, 91.9583, -71.9596, 37.0697
3.4, 6, 33.903, 52.5022, -10.7375, 91.9335, -72.037, 37.0462
3.403, 6, 33.8912, 52.5205, -10.7225, 91.9085, -72.1144, 37.0227
3.408, 6, 33.8794, 52.5389, -10.7074, 91.8836, -72.1918, 36.9993
3.412, 6, 33.8676, 52.5573, -10.6924, 91.8586, -72.2692, 36.9759
3.416, 6, 33.8557, 52.5757, -10.6774, 91.8336, -72.3465, 36.9525
3.42, 6, 33.8438, 52.5943, -10.6624, 91.8086, -72.4239, 36.9292
3.424, 6, 33.8318, 52.6128, -10.6475, 91.7835, -72.5012, 36.9058
3.428, 6, 33.8198, 52.6314, -10.6325, 91.7585, -72.5785, 36.8825
3.432, 6, 33.8078, 52.6501, -10.6176, 91.7333, -72.6558, 36.8593
3.436, 6, 33.7957, 52.6688, -10.6027, 91.7082, -72.7331, 36.836
3.439, 6, 33.7836, 52.6876, -10.5878, 91.683, -72.8104, 36.8128
3.444, 6, 33.7715, 52.7064, -10.5729, 91.6578, -72.8877, 36.7896
3.448, 6, 33.7593, 52.7253, -10.558, 91.6326, -72.9649, 36.7665
3.452, 6, 33.7471, 52.7442, -10.5432, 91.6074, -73.0421, 36.7433
3.456, 6, 33.7348, 52.7632, -10.5283, 91.5821, -73.1194, 36.7202
3.46, 6, 33.7225, 52.7822, -10.5135, 91.5568, -73.1966, 36.6971
3.464, 6, 33.7102, 52.8013, -10.4987, 91.5314, -73.2738, 36.6741
3.468, 6, 33.6978, 52.8204, -10.4839, 91.5061, -73.351, 36.6511
3.472, 6, 33.6854, 52.8396, -10.4691, 91.4807, -73.4281, 36.6281
3.476, 6, 33.6729, 52.8588, -10.4544, 91.4553, -73.5053, 36.6051
3.48, 6, 33.6604, 52.8781, -10.4396, 91.4298, -73.5824, 36.5821
3.484, 6, 33.6479, 52.8974, -10.4249, 91.4043, -73.6596, 36.5592
3.488, 6, 33.6353, 52.9168, -10.4102, 91.3788, -73.7367, 36.5363
3.492, 6, 33.6227, 52.9362, -10.3955, 91.3533, -73.8138, 36.5134
3.495, 6, 33.61, 52.9557, -10.3808, 91.3278, -73.8909, 36.4906
3.5, 6, 33.5973, 52.9752, -10.3662, 91.3022, -73.968, 36.4677
3.504, 6, 33.5846, 52.9948, -10.3515, 91.2766, -74.0451, 36.4449
3.508, 6, 33.5718, 53.0144, -10.3369, 91.2509, -74.1221, 36.4222
3.512, 6, 33.559, 53.0341, -10.3223, 91.2253, -74.1992, 36.3994
3.516, 6, 33.5461, 53.0538, -10.3077, 91.1996, -74.2762, 36.3767
3.52, 6, 33.5332, 53.0736, -10.2931, 91.1738, -74.3532, 36.354
3.524, 6, 33.5203, 53.0934, -10.2786, 91.1481, -74.4302, 36.3313
3.528, 6, 33.5073, 53.1133, -10.264, 91.1223, -74.5072, 36.3087
3.531, 6, 33.4943, 53.1332, -10.2495, 91.0965, -74.5842, 36.286
3.536, 6, 33.4812, 53.1532, -10.235, 91.0707, -74.6612, 36.2634
3.54, 6, 33.4681, 53.1732, -10.2205, 91.0449, -74.7382, 36.2409
3.544, 6, 33.455, 53.1933, -10.206, 91.019, -74.8151, 36.2183
3.548, 6, 33.4418, 53.2134, -10.1916, 90.9931, -74.8921, 36.1958
3.552, 6, 33.4286, 53.2336, -10.1771, 90.9671, -74.969, 36.1733
3.556, 6, 33.4154, 53.2538, -10.1627, 90.9412, -75.0459, 36.1508
3.56, 6, 33.4021, 53.2741, -10.1483, 90.9152, -75.1228, 36.1283
3.564, 6, 33.3887, 53.2944, -10.1339, 90.8892, -75.1997, 36.1059
3.568, 6, 33.3753, 53.3148, -10.1195, 90.8632, -75.2766, 36.0835
3.572, 6, 33.3619, 53.3352, -10.1052, 90.8371, -75.3534, 36.0611
3.576, 6, 33.3485, 53.3557, -10.0908, 90.811, -75.4303, 36.0387
3.58, 6, 33.335, 53.3762, -10.0765, 90.7849, -75.5071, 36.0164
3.584, 6, 33.3214, 53.3968, -10.0622, 90.7588, -75.584, 35.9941
3.587, 6, 33.3078, 53.4174, -10.0479, 90.7326, -75.6608, 35.9718
3.592, 6, 33.2942, 53.4381, -10.0336, 90.7064, -75.7376, 35.9495
3.596, 6, 33.2806, 53.4588, -10.0194, 90.6802, -75.8144, 35.9272
3.6, 6, 33.2669, 53.4795, -10.0051, 90.654, -75.8912, 35.905
3.604, 6, 33.2531, 53.5004, -9.9909, 90.6277, -75.968, 35.8828
3.608, 6, 33.2393, 53.5212, -9.97669, 90.6014, -76.0447, 35.8606
3.612, 6, 33.2255, 53.5421, -9.9625, 90.5751, -76.1215, 35.8385
3.616, 6, 33.2116, 53.5631, -9.94833, 90.5488, -76.1982, 35.8163
3.62, 6, 33.1977, 53.5841, -9.93418, 90.5224, -76.275, 35.7942
3.624, 6, 33.1838, 53.6052, -9.92005, 90.496, -76.3517, 35.7721
3.628, 6, 33.1698, 53.6263, -9.90593, 90.4696, -76.4284, 35.75
3.632, 6, 33.1558, 53.6474, -9.89183, 90.4431, -76.5051, 35.728
3.636, 6, 33.1417, 53.6686, -9.87775, 90.4167, -76.5818, 35.7059
3.64, 6, 33.1276, 53.6899, -9.86368, 90.3902, -76.6585, 35.6839
3.644, 6, 33.1134, 53.7112, -9.84963, 90.3637, -76.7351, 35.6619
3.648, 6, 33.0992, 53.7325, -9.8356, 90.3371, -76.8118, 35.64
3.652, 6, 33.085, 53.7539, -9.82159, 90.3105, -76.8884, 35.618
3.656, 6, 33.0707, 53.7753, -9.8076, 90.2839, -76.9651, 35.5961
3.66, 6, 33.0564, 53.7968, -9.79362, 90.2573, -77.0417, 35.5742
3.664, 6, 33.042, 53.8184, -9.77966, 90.2307, -77.1183, 35.5523
3.668, 6, 33.0276, 53.84, -9.76572, 90.204, -77.1949, 35.5305
3.672, 6, 33.0132, 53.8616, -9.7518, 90.1773, -77.2715, 35.5086
3.676, 6, 32.9988, 53.8833, -9.73789, 90.1506, -77.3481, 35.4868
3.679, 6, 32.9844, 53.9049, -9.724, 90.1239, -77.4247, 35.465
3.684, 6, 32.9704, 53.9263, -9.71012, 90.0971, -77.5012, 35.4432
3.688, 6, 32.9568, 53.9474, -9.69625, 90.0704, -77.5776, 35.4215
3.692, 6, 32.9438, 53.9679, -9.6824, 90.0436, -77.6539, 35.3998
3.696, 6, 32.9313, 53.9878, -9.6686, 90.017, -77.7298, 35.3783
3.7, 6, 32.9195, 54.0067, -9.65489, 89.9906, -77.8051, 35.3569
3.704, 6, 32.9082, 54.0246, -9.64131, 89.9644, -77.8796, 35.3358
3.708, 6, 32.8974, 54.0417, -9.62794, 89.9386, -77.9529, 35.3151
3.712, 6, 32.887, 54.0578, -9.61486, 89.9134, -78.0245, 35.2948
3.716, 6, 32.8769, 54.0731, -9.60217, 89.889, -78.0939, 35.2752
3.72, 6, 32.8673, 54.0877, -9.58995, 89.8655, -78.1607, 35.2563
3.724, 6, 32.8581, 54.1015, -9.57832, 89.843, -78.2243, 35.2383
3.728, 6, 32.8493, 54.1148, -9.56736, 89.8219, -78.2843, 35.2214
3.732, 6, 32.841, 54.1275, -9.55718, 89.8022, -78.34, 35.2057
3.735, 6, 32.8329, 54.1397, -9.54788, 89.7841, -78.3912, 35.1912
3.74, 6, 32.825, 54.1515, -9.53951, 89.7677, -78.4375, 35.1782
3.744, 6, 32.8173, 54.163, -9.53211, 89.7532, -78.4787, 35.1666
3.748, 6, 32.8098, 54.1741, -9.5257, 89.7404, -78.5147, 35.1564
3.752, 6, 32.8025, 54.1848, -9.52026, 89.7294, -78.5457, 35.1477
3.756, 6, 32.7956, 54.1951, -9.51572, 89.7202, -78.5718, 35.1403
3.76, 6, 32.7891, 54.2048, -9.51202, 89.7125, -78.5935, 35.1342
3.764, 6, 32.783, 54.214, -9.50907, 89.7063, -78.6111, 35.1292
3.768, 6, 32.7773, 54.2226, -9.50679, 89.7013, -78.625, 35.1253
3.772, 6, 32.7721, 54.2304, -9.50507, 89.6975, -78.6358, 35.1222
3.776, 6, 32.7672, 54.2374, -9.50382, 89.6946, -78.644, 35.1199
3.78, 6, 32.7627, 54.2434, -9.50294, 89.6925, -78.65, 35.1182
3.784, 6, 32.7589, 54.2484, -9.50234, 89.6909, -78.6543, 35.117
3.788, 7, 32.7556, 54.2524, -9.50194, 89.6898, -78.6574, 35.1161
3.792, 7, 32.753, 54.2554, -9.50168, 89.6891, -78.6595, 35.1155
3.796, 7, 32.751, 54.2576, -9.50151, 89.6886, -78.6609, 35.1151
3.8, 7, 32.7495, 54.2591, -9.50139, 89.6882, -78.6619, 35.1149
3.804, 7, 32.7486, 54.2601, -9.50132, 89.688, -78.6626, 35.1147
3.808, 7, 32.7479, 54.2608, -9.50126, 89.6878, -78.663, 35.1145
3.812, 7, 32.7474, 54.2613, -9.50123, 89.6877, -78.6633, 35.1145
3.816, 7, 32.7471, 54.2616, -9.50121, 89.6877, -78.6635, 35.1144
3.82, 7, 32.7469, 54.2619, -9.50119, 89.6876, -78.6637, 35.1144
3.824, 7, 32.7468, 54.262, -9.50118, 89.6876, -78.6638, 35.1143
3.828, 7, 32.7467, 54.2621, -9.50117, 89.6875, -78.6638, 35.1143
3.832, 7, 32.7466, 54.2622, -9.50117, 89.6875, -78.6639, 35.1143
3.836, 7, 32.7466, 54.2622, -9.50116, 89.6875, -78.6639, 35.1143
3.84, 7, 32.7466, 54.2622, -9.50116, 89.6875, -78.6639, 35.1143
3.844, 7, 32.7465, 54.2623, -9.50116, 89.6875, -78.6639, 35.1143
3.848, 7, 32.7465, 54.2623, -9.50116, 89.6875, -78.664, 35.1143
3.852, 7, 32.7465, 54.2623, -9.50116, 89.6875, -78.664, 35.1143
3.856, 7, 32.7465, 54.2623, -9.50116, 89.6875, -78.664, 35.1143
3.86, 7, 32.7465, 54.2623, -9.50116, 89.6875, -78.664, 35.1143
3.864, 7, 32.7465, 54.2623, -9.50116, 89.6875, -78.664, 35.1143
3.868, 7, 32.7465, 54.2623, -9.50115, 89.6875, -78.664, 35.1143
3.872, 7, 32.7465, 54.2623, -9.50115, 89.6875, -78.664, 35.1143
3.876, 7, 32.7465, 54.2623, -9.50115, 89.6875, -78.664, 35.1143
3.88, 7, 32.7465, 54.2623, -9.50115, 89.6875, -78.664, 35.1143
3.884, 7, 32.7465, 54.2623, -9.50115, 89.6875, -78.664, 35.1143
3.888, 7, 32.7465, 54.2623, -9.50115, 89.6875, -78.664, 35.1143
3.892, 7, 32.7465, 54.2623, -9.50115, 89.6875, -78.664, 35.1143
3.896, 7, 32.7465, 54.2623, -9.50115, 89.6875, -78.664, 35.1143
3.9, 7, 32.7465, 54.2623, -9.50115, 89.6875, -78.664, 35.1143
3.904, 7, 32.7465, 54.2623, -9.50115, 89.6875, -78.664, 35.1143
