hehonglu123/ABB_Primitive_Study/execution/movec+movel_smooth/curve_exe_v500_fine.csv
timestamp, cmd_num, J1, J2, J3, J4, J5, J6
0, -1, 32.7465, 54.2623, -9.50115, 89.6875, -78.664, 35.1143
0.002, -1, 32.7465, 54.2623, -9.50115, 89.6875, -78.664, 35.1143
0.006, -1, 32.7465, 54.2623, -9.50115, 89.6875, -78.664, 35.1143
0.008, -1, 32.7465, 54.2623, -9.50115, 89.6875, -78.664, 35.1143
0.011, -1, 32.7465, 54.2623, -9.50115, 89.6875, -78.664, 35.1143
0.016, -1, 32.7465, 54.2623, -9.50115, 89.6875, -78.664, 35.1143
0.02, -1, 32.7465, 54.2623, -9.50115, 89.6875, -78.664, 35.1143
0.024, -1, 32.7465, 54.2623, -9.50115, 89.6875, -78.664, 35.1143
0.028, -1, 32.7465, 54.2623, -9.50115, 89.6875, -78.664, 35.1143
0.032, -1, 32.7465, 54.2623, -9.50115, 89.6875, -78.664, 35.1143
0.036, -1, 32.7466, 54.2623, -9.50115, 89.6875, -78.664, 35.1143
0.04, -1, 32.7467, 54.2621, -9.50116, 89.6875, -78.664, 35.1143
0.044, -1, 32.7471, 54.2618, -9.50116, 89.6875, -78.6639, 35.1143
0.048, -1, 32.7479, 54.2611, -9.50118, 89.6876, -78.6638, 35.1144
0.052, -1, 32.7491, 54.2598, -9.50124, 89.6877, -78.6634, 35.1145
0.056, -1, 32.7507, 54.2577, -9.50136, 89.6879, -78.6626, 35.1147
0.06, -1, 32.7529, 54.2547, -9.50159, 89.6883, -78.6611, 35.1152
0.064, -1, 32.7556, 54.2507, -9.502, 89.689, -78.6586, 35.1161
0.068, -1, 32.7588, 54.2455, -9.50267, 89.6902, -78.6545, 35.1174
0.072, -1, 32.7625, 54.2391, -9.5037, 89.692, -78.6482, 35.1195
0.076, -1, 32.7668, 54.2314, -9.50521, 89.6946, -78.6391, 35.1225
0.08, -1, 32.7718, 54.2224, -9.50734, 89.6982, -78.6262, 35.1267
0.084, -1, 32.7776, 54.212, -9.51024, 89.7032, -78.6088, 35.1325
0.088, -1, 32.784, 54.2002, -9.5141, 89.7098, -78.5857, 35.1401
0.092, -1, 32.7912, 54.1873, -9.51908, 89.7183, -78.5559, 35.1499
0.096, -1, 32.7988, 54.1733, -9.52538, 89.729, -78.5183, 35.1622
0.1, -1, 32.8067, 54.1585, -9.53315, 89.7422, -78.472, 35.1774
0.104, -1, 32.815, 54.143, -9.54252, 89.7581, -78.4163, 35.1957
0.108, -1, 32.8235, 54.1267, -9.55357, 89.7769, -78.3507, 35.2173
0.112, -1, 32.8324, 54.1096, -9.56636, 89.7986, -78.2748, 35.2423
0.116, -1, 32.8415, 54.0916, -9.58087, 89.8232, -78.1888, 35.2705
0.12, -1, 32.8511, 54.0725, -9.59706, 89.8507, -78.0929, 35.3021
0.124, -1, 32.8611, 54.0525, -9.61485, 89.8808, -77.9875, 35.3367
0.128, -1, 32.8716, 54.0317, -9.63411, 89.9134, -77.8735, 35.3742
0.131, -1, 32.8823, 54.0101, -9.65471, 89.9483, -77.7516, 35.4142
0.136, -1, 32.8932, 53.9877, -9.67648, 89.9852, -77.6227, 35.4566
0.139, -1, 32.9045, 53.9644, -9.69923, 90.0237, -77.4881, 35.5008
0.144, -1, 32.9163, 53.9399, -9.72278, 90.0636, -77.3487, 35.5466
0.148, -1, 32.9288, 53.914, -9.74695, 90.1045, -77.2057, 35.5936
0.152, -1, 32.942, 53.8866, -9.77157, 90.1462, -77.0599, 35.6415
0.156, -1, 32.9561, 53.8575, -9.79651, 90.1885, -76.9123, 35.6901
0.16, -1, 32.9711, 53.8271, -9.82165, 90.231, -76.7634, 35.739
0.164, -1, 32.9869, 53.7955, -9.84692, 90.2739, -76.6137, 35.7882
0.168, -1, 33.0032, 53.7631, -9.87226, 90.3168, -76.4636, 35.8375
0.172, -1, 33.02, 53.7302, -9.89762, 90.3598, -76.3133, 35.8869
0.176, -1, 33.037, 53.6969, -9.92299, 90.4028, -76.163, 35.9363
0.18, -1, 33.0541, 53.6634, -9.94833, 90.4457, -76.0128, 35.9857
0.184, -1, 33.0714, 53.6298, -9.97365, 90.4886, -75.8628, 36.035
0.188, -1, 33.0888, 53.5962, -9.99894, 90.5315, -75.713, 36.0842
0.192, -1, 33.1061, 53.5625, -10.0242, 90.5743, -75.5634, 36.1334
0.196, -1, 33.1235, 53.5289, -10.0494, 90.617, -75.4141, 36.1825
0.2, -1, 33.1409, 53.4952, -10.0745, 90.6596, -75.265, 36.2315
0.204, -1, 33.1582, 53.4616, -10.0996, 90.7021, -75.1163, 36.2804
0.208, -1, 33.1755, 53.4281, -10.1247, 90.7446, -74.9678, 36.3292
0.212, -1, 33.1928, 53.3946, -10.1497, 90.787, -74.8197, 36.3779
0.216, -1, 33.2101, 53.3612, -10.1746, 90.8292, -74.6718, 36.4265
0.22, -1, 33.2273, 53.3278, -10.1995, 90.8714, -74.5242, 36.475
0.224, -1, 33.2446, 53.2945, -10.2244, 90.9136, -74.377, 36.5234
0.228, -1, 33.2617, 53.2613, -10.2492, 90.9556, -74.23, 36.5717
0.232, -1, 33.2789, 53.2282, -10.2739, 90.9975, -74.0834, 36.6199
0.236, -1, 33.296, 53.1951, -10.2986, 91.0394, -73.937, 36.668
0.24, -1, 33.313, 53.162, -10.3233, 91.0812, -73.7909, 36.716
0.244, -1, 33.3301, 53.1291, -10.3479, 91.1229, -73.6451, 36.7639
0.248, -1, 33.3471, 53.0962, -10.3724, 91.1645, -73.4996, 36.8117
0.252, -1, 33.364, 53.0633, -10.3969, 91.206, -73.3544, 36.8595
0.256, -1, 33.381, 53.0306, -10.4214, 91.2474, -73.2095, 36.9071
0.26, -1, 33.3979, 52.9979, -10.4458, 91.2888, -73.0649, 36.9546
0.264, -1, 33.4147, 52.9652, -10.4701, 91.3301, -72.9206, 37.0021
0.268, -1, 33.4316, 52.9327, -10.4944, 91.3713, -72.7765, 37.0494
0.272, -1, 33.4484, 52.9002, -10.5187, 91.4124, -72.6327, 37.0967
0.276, -1, 33.4651, 52.8677, -10.5429, 91.4534, -72.4893, 37.1438
0.28, -1, 33.4819, 52.8353, -10.5671, 91.4944, -72.346, 37.1909
0.284, -1, 33.4986, 52.803, -10.5912, 91.5353, -72.2031, 37.2379
0.288, -1, 33.5152, 52.7708, -10.6153, 91.5761, -72.0604, 37.2848
0.292, -1, 33.5319, 52.7386, -10.6393, 91.6168, -71.9181, 37.3316
0.296, -1, 33.5485, 52.7065, -10.6633, 91.6574, -71.776, 37.3783
0.3, -1, 33.5651, 52.6744, -10.6872, 91.698, -71.6341, 37.4249
0.304, -1, 33.5816, 52.6424, -10.7111, 91.7385, -71.4925, 37.4714
0.308, -1, 33.5981, 52.6104, -10.7349, 91.7789, -71.3513, 37.5179
0.312, -1, 33.6146, 52.5785, -10.7587, 91.8192, -71.2102, 37.5642
0.316, -1, 33.631, 52.5467, -10.7825, 91.8595, -71.0695, 37.6105
0.32, -1, 33.6474, 52.5149, -10.8062, 91.8997, -70.929, 37.6567
0.324, -1, 33.6638, 52.4832, -10.8299, 91.9398, -70.7887, 37.7028
0.328, -1, 33.6802, 52.4516, -10.8535, 91.9798, -70.6488, 37.7488
0.332, -1, 33.6965, 52.42, -10.8771, 92.0198, -70.509, 37.7947
0.336, -1, 33.7128, 52.3885, -10.9006, 92.0597, -70.3696, 37.8405
0.34, -1, 33.7291, 52.357, -10.9241, 92.0995, -70.2304, 37.8863
0.344, -1, 33.7453, 52.3256, -10.9475, 92.1392, -70.0914, 37.9319
0.348, -1, 33.7615, 52.2942, -10.9709, 92.1789, -69.9528, 37.9775
0.352, -1, 33.7777, 52.2629, -10.9943, 92.2185, -69.8143, 38.023
0.356, -1, 33.7938, 52.2317, -11.0176, 92.258, -69.6762, 38.0685
0.36, -1, 33.8099, 52.2005, -11.0409, 92.2974, -69.5382, 38.1138
0.364, -1, 33.826, 52.1694, -11.0641, 92.3368, -69.4006, 38.159
0.368, -1, 33.8421, 52.1383, -11.0873, 92.3761, -69.2631, 38.2042
0.372, -1, 33.8581, 52.1073, -11.1104, 92.4153, -69.126, 38.2493
0.376, -1, 33.8741, 52.0763, -11.1336, 92.4545, -68.989, 38.2943
0.38, -1, 33.8901, 52.0454, -11.1566, 92.4936, -68.8523, 38.3392
0.384, -1, 33.906, 52.0146, -11.1796, 92.5326, -68.7159, 38.3841
0.388, -1, 33.9219, 51.9838, -11.2026, 92.5716, -68.5797, 38.4288
0.392, -1, 33.9378, 51.953, -11.2256, 92.6104, -68.4437, 38.4735
0.396, -1, 33.9537, 51.9224, -11.2485, 92.6493, -68.308, 38.5181
0.4, -1, 33.9695, 51.8917, -11.2713, 92.688, -68.1725, 38.5627
0.404, -1, 33.9853, 51.8611, -11.2942, 92.7267, -68.0373, 38.6071
0.408, -1, 34.0011, 51.8306, -11.3169, 92.7653, -67.9023, 38.6515
0.412, -1, 34.0168, 51.8002, -11.3397, 92.8038, -67.7675, 38.6958
0.416, -1, 34.0326, 51.7697, -11.3624, 92.8423, -67.633, 38.74
0.42, -1, 34.0483, 51.7394, -11.385, 92.8807, -67.4987, 38.7842
0.424, -1, 34.0639, 51.7091, -11.4077, 92.9191, -67.3646, 38.8282
0.428, -1, 34.0796, 51.6788, -11.4302, 92.9574, -67.2307, 38.8722
0.432, -1, 34.0952, 51.6486, -11.4528, 92.9956, -67.0971, 38.9161
0.436, -1, 34.1108, 51.6184, -11.4753, 93.0337, -66.9637, 38.96
0.44, -1, 34.1263, 51.5883, -11.4978, 93.0718, -66.8306, 39.0038
0.444, -1, 34.1418, 51.5583, -11.5202, 93.1098, -66.6976, 39.0474
0.448, -1, 34.1573, 51.5282, -11.5426, 93.1478, -66.5649, 39.0911
0.452, -1, 34.1728, 51.4983, -11.565, 93.1857, -66.4324, 39.1346
0.456, -1, 34.1883, 51.4684, -11.5873, 93.2235, -66.3002, 39.1781
0.46, -1, 34.2037, 51.4385, -11.6096, 93.2613, -66.1681, 39.2215
0.464, -1, 34.2191, 51.4087, -11.6318, 93.299, -66.0363, 39.2648
0.468, -1, 34.2345, 51.379, -11.654, 93.3366, -65.9047, 39.3081
0.472, -1, 34.2498, 51.3493, -11.6762, 93.3742, -65.7733, 39.3513
0.476, -1, 34.2652, 51.3196, -11.6983, 93.4117, -65.6421, 39.3944
0.48, -1, 34.2805, 51.29, -11.7204, 93.4492, -65.5111, 39.4374
0.484, -1, 34.2957, 51.2604, -11.7425, 93.4865, -65.3804, 39.4804
0.488, -1, 34.311, 51.2309, -11.7645, 93.5239, -65.2498, 39.5233
0.492, -1, 34.3262, 51.2014, -11.7865, 93.5611, -65.1195, 39.5662
0.496, -1, 34.3414, 51.172, -11.8085, 93.5984, -64.9894, 39.6089
0.5, -1, 34.3566, 51.1426, -11.8304, 93.6355, -64.8595, 39.6516
0.504, -1, 34.3718, 51.1133, -11.8523, 93.6726, -64.7298, 39.6943
0.508, -1, 34.3869, 51.084, -11.8741, 93.7096, -64.6003, 39.7368
0.512, -1, 34.402, 51.0548, -11.8959, 93.7466, -64.471, 39.7793
0.516, -1, 34.4171, 51.0256, -11.9177, 93.7835, -64.3419, 39.8217
0.52, -1, 34.4321, 50.9965, -11.9395, 93.8204, -64.213, 39.8641
0.524, -1, 34.4472, 50.9674, -11.9612, 93.8572, -64.0844, 39.9064
0.528, -1, 34.4622, 50.9384, -11.9828, 93.8939, -63.9559, 39.9486
0.532, -1, 34.4771, 50.9094, -12.0045, 93.9306, -63.8276, 39.9908
0.536, -1, 34.4921, 50.8804, -12.0261, 93.9672, -63.6996, 40.0329
0.54, -1, 34.507, 50.8515, -12.0477, 94.0038, -63.5717, 40.0749
0.544, -1, 34.522, 50.8226, -12.0692, 94.0403, -63.444, 40.1169
0.548, -1, 34.5369, 50.7938, -12.0907, 94.0768, -63.3166, 40.1588
0.552, -1, 34.5517, 50.765, -12.1122, 94.1132, -63.1893, 40.2006
0.556, -1, 34.5666, 50.7363, -12.1337, 94.1495, -63.0622, 40.2424
0.56, -1, 34.5814, 50.7076, -12.1551, 94.1858, -62.9353, 40.2841
0.564, -1, 34.5962, 50.679, -12.1764, 94.2221, -62.8086, 40.3257
0.568, -1, 34.611, 50.6504, -12.1978, 94.2582, -62.6821, 40.3673
0.572, -1, 34.6257, 50.6218, -12.2191, 94.2943, -62.5558, 40.4088
0.576, -1, 34.6405, 50.5933, -12.2404, 94.3304, -62.4297, 40.4502
0.58, -1, 34.6552, 50.5648, -12.2616, 94.3664, -62.3038, 40.4916
0.584, -1, 34.6699, 50.5364, -12.2828, 94.4024, -62.1781, 40.533
0.588, -1, 34.6845, 50.508, -12.304, 94.4383, -62.0525, 40.5742
0.592, -1, 34.6992, 50.4797, -12.3252, 94.4741, -61.9272, 40.6154
0.596, -1, 34.7138, 50.4514, -12.3463, 94.5099, -61.802, 40.6566
0.6, -1, 34.7284, 50.4231, -12.3674, 94.5457, -61.677, 40.6977
0.604, -1, 34.743, 50.3949, -12.3884, 94.5814, -61.5522, 40.7387
0.608, -1, 34.7575, 50.3667, -12.4095, 94.617, -61.4276, 40.7796
0.612, -1, 34.7721, 50.3386, -12.4305, 94.6526, -61.3032, 40.8205
0.616, -1, 34.7866, 50.3105, -12.4514, 94.6881, -61.1789, 40.8614
0.62, -1, 34.8011, 50.2824, -12.4724, 94.7236, -61.0548, 40.9022
0.624, -1, 34.8155, 50.2544, -12.4933, 94.7591, -60.931, 40.9429
0.628, -1, 34.83, 50.2265, -12.5142, 94.7944, -60.8073, 40.9835
0.632, -1, 34.8444, 50.1985, -12.535, 94.8298, -60.6837, 41.0241
0.636, -1, 34.8588, 50.1707, -12.5558, 94.865, -60.5604, 41.0647
0.64, -1, 34.8732, 50.1428, -12.5766, 94.9003, -60.4372, 41.1052
0.644, -1, 34.8876, 50.115, -12.5973, 94.9354, -60.3142, 41.1456
0.648, -1, 34.9019, 50.0872, -12.6181, 94.9706, -60.1914, 41.1859
0.652, -1, 34.9163, 50.0595, -12.6388, 95.0056, -60.0688, 41.2263
0.656, -1, 34.9306, 50.0318, -12.6594, 95.0407, -59.9463, 41.2665
0.66, -1, 34.9449, 50.0042, -12.6801, 95.0756, -59.824, 41.3067
0.664, -1, 34.9591, 49.9766, -12.7007, 95.1106, -59.7019, 41.3468
0.668, -1, 34.9734, 49.949, -12.7212, 95.1454, -59.58, 41.3869
0.672, -1, 34.9876, 49.9215, -12.7418, 95.1803, -59.4582, 41.427
0.676, -1, 35.0018, 49.894, -12.7623, 95.215, -59.3366, 41.4669
0.68, -1, 35.016, 49.8665, -12.7828, 95.2498, -59.2151, 41.5068
0.684, -1, 35.0301, 49.8391, -12.8033, 95.2844, -59.0939, 41.5467
0.688, -1, 35.0443, 49.8117, -12.8237, 95.3191, -58.9728, 41.5865
0.692, -1, 35.0584, 49.7844, -12.8441, 95.3537, -58.8519, 41.6262
0.696, -1, 35.0725, 49.7571, -12.8645, 95.3882, -58.7311, 41.6659
0.7, -1, 35.0866, 49.7298, -12.8848, 95.4227, -58.6105, 41.7056
0.704, -1, 35.1007, 49.7026, -12.9051, 95.4571, -58.4901, 41.7451
0.708, -1, 35.1147, 49.6754, -12.9254, 95.4915, -58.3698, 41.7847
0.712, -1, 35.1288, 49.6482, -12.9457, 95.5259, -58.2497, 41.8241
0.716, -1, 35.1428, 49.6211, -12.9659, 95.5602, -58.1298, 41.8636
0.72, -1, 35.1568, 49.5941, -12.9862, 95.5944, -58.01, 41.9029
0.724, -1, 35.1707, 49.567, -13.0063, 95.6286, -57.8904, 41.9422
0.728, -1, 35.1847, 49.54, -13.0265, 95.6628, -57.771, 41.9815
0.732, -1, 35.1986, 49.513, -13.0466, 95.6969, -57.6517, 42.0207
0.736, -1, 35.2125, 49.4861, -13.0667, 95.731, -57.5326, 42.0599
0.74, -1, 35.2264, 49.4592, -13.0868, 95.765, -57.4136, 42.099
0.744, -1, 35.2403, 49.4324, -13.1068, 95.799, -57.2948, 42.138
0.748, -1, 35.2542, 49.4055, -13.1269, 95.8329, -57.1762, 42.177
0.752, -1, 35.268, 49.3787, -13.1468, 95.8668, -57.0577, 42.2159
0.756, -1, 35.2818, 49.352, -13.1668, 95.9006, -56.9394, 42.2548
0.76, -1, 35.2956, 49.3253, -13.1868, 95.9344, -56.8212, 42.2937
0.764, -1, 35.3094, 49.2986, -13.2067, 95.9682, -56.7032, 42.3325
0.768, -1, 35.3232, 49.272, -13.2266, 96.0019, -56.5854, 42.3712
0.772, -1, 35.3369, 49.2453, -13.2464, 96.0355, -56.4676, 42.4099
0.776, -1, 35.3507, 49.2188, -13.2663, 96.0692, -56.3501, 42.4485
0.78, -1, 35.3644, 49.1922, -13.2861, 96.1027, -56.2327, 42.4871
0.784, -1, 35.3781, 49.1657, -13.3058, 96.1363, -56.1155, 42.5257
0.788, -1, 35.3917, 49.1392, -13.3256, 96.1698, -55.9984, 42.5641
0.792, -1, 35.4054, 49.1128, -13.3453, 96.2032, -55.8814, 42.6026
0.796, -1, 35.4191, 49.0864, -13.365, 96.2366, -55.7646, 42.641
0.8, -1, 35.4327, 49.06, -13.3847, 96.27, -55.648, 42.6793
0.804, -1, 35.4463, 49.0337, -13.4044, 96.3033, -55.5315, 42.7176
0.808, -1, 35.4599, 49.0074, -13.424, 96.3365, -55.4151, 42.7558
0.812, -1, 35.4734, 48.9811, -13.4436, 96.3698, -55.2989, 42.794
0.816, -1, 35.487, 48.9549, -13.4632, 96.403, -55.1829, 42.8322
0.82, -1, 35.5005, 48.9287, -13.4828, 96.4361, -55.067, 42.8703
0.824, -1, 35.5141, 48.9025, -13.5023, 96.4692, -54.9512, 42.9083
0.828, -1, 35.5276, 48.8764, -13.5218, 96.5023, -54.8356, 42.9463
0.832, -1, 35.5411, 48.8503, -13.5413, 96.5353, -54.7201, 42.9843
0.836, -1, 35.5545, 48.8242, -13.5608, 96.5683, -54.6048, 43.0222
0.84, -1, 35.568, 48.7981, -13.5802, 96.6012, -54.4896, 43.06
0.844, -1, 35.5814, 48.7721, -13.5996, 96.6341, -54.3746, 43.0979
0.848, -1, 35.5949, 48.7461, -13.619, 96.667, -54.2597, 43.1356
0.852, -1, 35.6083, 48.7202, -13.6384, 96.6998, -54.1449, 43.1733
0.856, -1, 35.6216, 48.6943, -13.6577, 96.7326, -54.0303, 43.211
0.86, -1, 35.635, 48.6684, -13.677, 96.7654, -53.9158, 43.2486
0.864, -1, 35.6483, 48.6426, -13.6963, 96.798, -53.8015, 43.2862
0.868, -1, 35.6616, 48.6169, -13.7156, 96.8307, -53.6873, 43.3238
0.872, -1, 35.6747, 48.5912, -13.7348, 96.8633, -53.5732, 43.3612
0.876, -1, 35.6878, 48.5656, -13.754, 96.8959, -53.4594, 43.3987
0.88, -1, 35.7008, 48.5402, -13.7732, 96.9284, -53.3457, 43.436
0.884, -1, 35.7135, 48.515, -13.7924, 96.9608, -53.2323, 43.4733
0.888, -1, 35.726, 48.4902, -13.8115, 96.9932, -53.1192, 43.5105
0.892, -1, 35.738, 48.466, -13.8305, 97.0254, -53.0066, 43.5475
0.896, -1, 35.7494, 48.4426, -13.8494, 97.0574, -52.8946, 43.5843
0.9, -1, 35.7603, 48.4201, -13.8682, 97.0892, -52.7836, 43.6208
0.904, -1, 35.7705, 48.3986, -13.8867, 97.1205, -52.6741, 43.6568
0.908, -1, 35.7802, 48.3781, -13.9049, 97.1513, -52.5665, 43.6922
0.912, -1, 35.7894, 48.3586, -13.9227, 97.1813, -52.4615, 43.7267
0.916, -1, 35.7982, 48.3399, -13.9399, 97.2104, -52.3599, 43.7602
0.92, -1, 35.8067, 48.3221, -13.9564, 97.2383, -52.2624, 43.7923
0.924, -1, 35.8148, 48.3051, -13.9721, 97.2649, -52.1697, 43.8228
0.928, -1, 35.8225, 48.2891, -13.9869, 97.2898, -52.0824, 43.8514
0.932, -1, 35.8299, 48.274, -14.0006, 97.313, -52.0014, 43.8781
0.936, -1, 35.837, 48.2597, -14.0132, 97.3343, -51.927, 43.9026
0.94, -1, 35.8438, 48.2461, -14.0246, 97.3535, -51.8598, 43.9247
0.944, -1, 35.8505, 48.233, -14.0347, 97.3706, -51.8, 43.9443
0.948, -1, 35.8571, 48.2204, -14.0435, 97.3856, -51.7476, 43.9615
0.952, -1, 35.8636, 48.2083, -14.0511, 97.3985, -51.7026, 43.9763
0.956, -1, 35.8699, 48.1968, -14.0574, 97.4093, -51.6646, 43.9888
0.96, -1, 35.8759, 48.1861, -14.0627, 97.4183, -51.633, 43.9991
0.964, -1, 35.8815, 48.1763, -14.067, 97.4257, -51.6074, 44.0075
0.968, -1, 35.8866, 48.1676, -14.0704, 97.4315, -51.5869, 44.0143
0.972, -1, 35.8914, 48.16, -14.073, 97.436, -51.5709, 44.0195
0.976, -1, 35.8957, 48.1533, -14.075, 97.4395, -51.5587, 44.0235
0.98, -1, 35.8997, 48.1475, -14.0765, 97.4421, -51.5496, 44.0264
0.984, -1, 35.9032, 48.1427, -14.0776, 97.444, -51.543, 44.0286
0.988, 2, 35.9062, 48.1387, -14.0784, 97.4453, -51.5382, 44.0302
0.992, 2, 35.9087, 48.1355, -14.0789, 97.4463, -51.5349, 44.0312
0.996, 2, 35.9106, 48.1332, -14.0793, 97.4469, -51.5327, 44.032
1, 2, 35.912, 48.1315, -14.0795, 97.4474, -51.5311, 44.0325
1.004, 2, 35.913, 48.1303, -14.0797, 97.4477, -51.5301, 44.0328
1.008, 2, 35.9137, 48.1295, -14.0798, 97.4479, -51.5293, 44.033
1.012, 2, 35.9142, 48.1289, -14.0799, 97.448, -51.5289, 44.0332
1.016, 2, 35.9145, 48.1286, -14.0799, 97.4481, -51.5285, 44.0333
1.02, 2, 35.9147, 48.1283, -14.08, 97.4482, -51.5283, 44.0334
1.024, 2, 35.9148, 48.1281, -14.08, 97.4482, -51.5282, 44.0334
1.027, 2, 35.9149, 48.128, -14.08, 97.4482, -51.5281, 44.0335
1.032, 2, 35.915, 48.1279, -14.08, 97.4482, -51.528, 44.0335
1.036, 2, 35.915, 48.1279, -14.08, 97.4483, -51.5279, 44.0335
1.04, 2, 35.9151, 48.1279, -14.08, 97.4483, -51.5279, 44.0335
1.044, 2, 35.9151, 48.1278, -14.08, 97.4483, -51.5279, 44.0335
1.048, 2, 35.9151, 48.1278, -14.08, 97.4483, -51.5279, 44.0335
1.052, 2, 35.9151, 48.1278, -14.08, 97.4483, -51.5279, 44.0335
1.055, 2, 35.9151, 48.1278, -14.08, 97.4483, -51.5279, 44.0335
1.06, 2, 35.9151, 48.1278, -14.08, 97.4483, -51.5279, 44.0335
1.064, 2, 35.9151, 48.1278, -14.08, 97.4483, -51.5278, 44.0335
1.068, 2, 35.9151, 48.1278, -14.08, 97.4483, -51.5278, 44.0335
1.072, 2, 35.9151, 48.1278, -14.08, 97.4483, -51.5278, 44.0335
1.076, 2, 35.9151, 48.1278, -14.08, 97.4483, -51.5278, 44.0335
1.08, 2, 35.9151, 48.1278, -14.08, 97.4483, -51.5278, 44.0335
1.084, 2, 35.9151, 48.1278, -14.08, 97.4483, -51.5278, 44.0335
1.088, 2, 35.9151, 48.1278, -14.08, 97.4483, -51.5278, 44.0335
1.091, 2, 35.9151, 48.1278, -14.08, 97.4483, -51.5278, 44.0335
1.096, 2, 35.9151, 48.1278, -14.08, 97.4483, -51.5278, 44.0335
1.1, 2, 35.9151, 48.1278, -14.08, 97.4483, -51.5278, 44.0335
1.104, 2, 35.9151, 48.1278, -14.08, 97.4483, -51.5278, 44.0335
1.108, 2, 35.9151, 48.1278, -14.08, 97.4483, -51.5278, 44.0335
1.112, 2, 35.9151, 48.1278, -14.08, 97.4483, -51.5278, 44.0335
1.116, 2, 35.9151, 48.1278, -14.08, 97.4483, -51.5278, 44.0335
1.119, 2, 35.9151, 48.1278, -14.08, 97.4483, -51.5278, 44.0335
1.124, 2, 35.9151, 48.1278, -14.08, 97.4483, -51.5278, 44.0335
1.128, 2, 35.9151, 48.1278, -14.08, 97.4483, -51.5278, 44.0335
1.132, 2, 35.9151, 48.1278, -14.08, 97.4483, -51.5278, 44.0335
1.136, 2, 35.9151, 48.1278, -14.08, 97.4483, -51.5278, 44.0335
1.14, 2, 35.9151, 48.1278, -14.08, 97.4483, -51.5278, 44.0335
1.144, 2, 35.9151, 48.1278, -14.08, 97.4483, -51.5278, 44.0335
1.147, 2, 35.9151, 48.1278, -14.08, 97.4483, -51.5278, 44.0335
1.152, 2, 35.9151, 48.1278, -14.08, 97.4483, -51.5278, 44.0335
1.156, 2, 35.9151, 48.1278, -14.08, 97.4483, -51.5278, 44.0335
1.16, 2, 35.9151, 48.1278, -14.08, 97.4483, -51.5278, 44.0335
1.164, 2, 35.9151, 48.1278, -14.08, 97.4483, -51.5278, 44.0335
1.168, 2, 35.9151, 48.1278, -14.08, 97.4483, -51.5278, 44.0335
1.172, 2, 35.9151, 48.1278, -14.08, 97.4483, -51.5278, 44.0335
1.175, 2, 35.9151, 48.1278, -14.08, 97.4483, -51.5278, 44.0335
1.18, 2, 35.9151, 48.1278, -14.08, 97.4483, -51.5278, 44.0335
1.184, 2, 35.9151, 48.1278, -14.08, 97.4483, -51.5278, 44.0335
1.188, 2, 35.9151, 48.1278, -14.08, 97.4483, -51.5278, 44.0335
1.192, 2, 35.9151, 48.1278, -14.08, 97.4483, -51.5278, 44.0335
1.196, 2, 35.9151, 48.1278, -14.08, 97.4483, -51.5278, 44.0335
1.2, 2, 35.9151, 48.1278, -14.08, 97.4483, -51.5278, 44.0335
1.204, 2, 35.9151, 48.1278, -14.08, 97.4483, -51.5278, 44.0335
1.208, 2, 35.9151, 48.1278, -14.08, 97.4483, -51.5278, 44.0335
1.212, 2, 35.9151, 48.1278, -14.08, 97.4483, -51.5278, 44.0335
1.216, 2, 35.9151, 48.1278, -14.08, 97.4483, -51.5278, 44.0335
1.22, 2, 35.9151, 48.1278, -14.08, 97.4483, -51.5278, 44.0335
1.224, 2, 35.9151, 48.1278, -14.08, 97.4483, -51.5278, 44.0335
1.228, 2, 35.9151, 48.1278, -14.08, 97.4483, -51.5278, 44.0335
1.232, 2, 35.9151, 48.1278, -14.08, 97.4483, -51.5278, 44.0335
1.236, 2, 35.9151, 48.1278, -14.08, 97.4483, -51.5278, 44.0335
1.24, 2, 35.9151, 48.1278, -14.08, 97.4483, -51.5278, 44.0335
1.244, 2, 35.9151, 48.1278, -14.08, 97.4483, -51.5278, 44.0335
1.248, 2, 35.9151, 48.1278, -14.08, 97.4483, -51.5278, 44.0335
1.252, 2, 35.9151, 48.1278, -14.08, 97.4483, -51.5278, 44.0335
1.256, 2, 35.9151, 48.1278, -14.08, 97.4483, -51.5278, 44.0335
1.26, 2, 35.9151, 48.1278, -14.08, 97.4483, -51.5278, 44.0335
1.264, 2, 35.9151, 48.1278, -14.08, 97.4483, -51.5278, 44.0335
1.267, 2, 35.9151, 48.1278, -14.08, 97.4483, -51.5278, 44.0335
1.272, 2, 35.9151, 48.1278, -14.08, 97.4483, -51.5278, 44.0335
1.276, 2, 35.9151, 48.1278, -14.08, 97.4483, -51.5278, 44.0335
1.28, 2, 35.9151, 48.1278, -14.08, 97.4483, -51.5278, 44.0335
1.284, 2, 35.9151, 48.1278, -14.08, 97.4483, -51.5278, 44.0335
1.288, 2, 35.9151, 48.1278, -14.08, 97.4483, -51.5278, 44.0335
1.292, 2, 35.9151, 48.1278, -14.08, 97.4483, -51.5278, 44.0335
1.295, 2, 35.9151, 48.1278, -14.08, 97.4483, -51.5278, 44.0335
1.3, 2, 35.9151, 48.1278, -14.08, 97.4483, -51.5278, 44.0335
1.304, 2, 35.9151, 48.1278, -14.08, 97.4483, -51.5278, 44.0335
1.308, 2, 35.9151, 48.1278, -14.08, 97.4483, -51.5278, 44.0335
1.312, 2, 35.9151, 48.1278, -14.08, 97.4483, -51.5278, 44.0335
1.316, 2, 35.9151, 48.1278, -14.08, 97.4483, -51.5278, 44.0335
1.32, 2, 35.9151, 48.1278, -14.08, 97.4483, -51.5278, 44.0335
1.324, 2, 35.9151, 48.1278, -14.08, 97.4483, -51.5278, 44.0335
1.328, 2, 35.9151, 48.1278, -14.08, 97.4483, -51.5278, 44.0335
1.332, 2, 35.9151, 48.1278, -14.08, 97.4483, -51.5278, 44.0335
1.336, 2, 35.9151, 48.1278, -14.08, 97.4483, -51.5278, 44.0335
1.34, 2, 35.9151, 48.1278, -14.08, 97.4483, -51.5278, 44.0335
1.344, 2, 35.9151, 48.1278, -14.08, 97.4483, -51.5278, 44.0335
1.348, 2, 35.9151, 48.1278, -14.08, 97.4483, -51.5278, 44.0335
1.352, 2, 35.9151, 48.1278, -14.08, 97.4483, -51.5278, 44.0335
1.356, 2, 35.9151, 48.1278, -14.08, 97.4483, -51.5278, 44.0335
1.36, 2, 35.9151, 48.1278, -14.08, 97.4483, -51.5278, 44.0335
1.364, 2, 35.9151, 48.1278, -14.08, 97.4483, -51.5278, 44.0335
1.368, 2, 35.9151, 48.1278, -14.08, 97.4483, -51.5278, 44.0335
1.372, 2, 35.9151, 48.1278, -14.08, 97.4483, -51.5278, 44.0335
1.376, 2, 35.9151, 48.1278, -14.08, 97.4483, -51.5278, 44.0335
1.38, 2, 35.9151, 48.1278, -14.08, 97.4483, -51.5278, 44.0335
1.384, 2, 35.9151, 48.1278, -14.08, 97.4483, -51.5278, 44.0335
1.388, 2, 35.9151, 48.1278, -14.08, 97.4483, -51.5278, 44.0335
1.392, 2, 35.9151, 48.1278, -14.08, 97.4483, -51.5278, 44.0335
1.396, 2, 35.9151, 48.1278, -14.08, 97.4483, -51.5278, 44.0335
1.4, 2, 35.9151, 48.1278, -14.08, 97.4483, -51.5278, 44.0335
1.404, 2, 35.9151, 48.1278, -14.08, 97.4483, -51.5278, 44.0335
1.408, 2, 35.9151, 48.1278, -14.08, 97.4483, -51.5278, 44.0335
1.412, 2, 35.9151, 48.1278, -14.08, 97.4483, -51.5278, 44.0335
1.416, 2, 35.9151, 48.1278, -14.08, 97.4483, -51.5278, 44.0335
1.42, 2, 35.9151, 48.1278, -14.08, 97.4483, -51.5278, 44.0335
1.424, 2, 35.9151, 48.1278, -14.08, 97.4483, -51.5278, 44.0335
1.428, 2, 35.9151, 48.1278, -14.08, 97.4483, -51.5278, 44.0335
1.432, 2, 35.9151, 48.1278, -14.08, 97.4483, -51.5278, 44.0335
1.436, 2, 35.9151, 48.1278, -14.08, 97.4483, -51.5278, 44.0335
1.44, 2, 35.9151, 48.1278, -14.08, 97.4483, -51.5278, 44.0335
1.444, 2, 35.9151, 48.1278, -14.08, 97.4483, -51.5278, 44.0335
1.448, 2, 35.9151, 48.1278, -14.08, 97.4483, -51.5278, 44.0335
1.452, 2, 35.9151, 48.1278, -14.08, 97.4483, -51.5278, 44.0335
1.456, 2, 35.9151, 48.1278, -14.08, 97.4483, -51.5278, 44.0335
1.46, 2, 35.9151, 48.1278, -14.08, 97.4483, -51.5278, 44.0335
1.464, 2, 35.9151, 48.1278, -14.08, 97.4483, -51.5278, 44.0335
1.468, 2, 35.9151, 48.1278, -14.08, 97.4483, -51.5278, 44.0335
1.472, 2, 35.9151, 48.1278, -14.08, 97.4483, -51.5278, 44.0335
1.476, 2, 35.9151, 48.1278, -14.08, 97.4483, -51.5278, 44.0335
1.48, 2, 35.9151, 48.1278, -14.08, 97.4483, -51.5278, 44.0335
1.484, 2, 35.9151, 48.1278, -14.08, 97.4483, -51.5278, 44.0335
1.488, 2, 35.9151, 48.1278, -14.08, 97.4483, -51.5278, 44.0335
1.492, 2, 35.9151, 48.1278, -14.08, 97.4483, -51.5278, 44.0335
1.496, 2, 35.9151, 48.1278, -14.08, 97.4483, -51.5278, 44.0335
1.5, 2, 35.9151, 48.1278, -14.08, 97.4483, -51.5278, 44.0335
1.504, 2, 35.9151, 48.1278, -14.08, 97.4483, -51.5278, 44.0335
1.508, 2, 35.9151, 48.1278, -14.08, 97.4483, -51.5278, 44.0335
1.512, 2, 35.9151, 48.1278, -14.08, 97.4483, -51.5278, 44.0335
1.516, 2, 35.9151, 48.1278, -14.08, 97.4483, -51.5278, 44.0335
1.52, 2, 35.9151, 48.1278, -14.08, 97.4483, -51.5278, 44.0335
1.524, 2, 35.9151, 48.1278, -14.08, 97.4483, -51.5278, 44.0335
1.528, 2, 35.9151, 48.1278, -14.08, 97.4483, -51.5278, 44.0335
1.532, 2, 35.9151, 48.1278, -14.08, 97.4483, -51.5278, 44.0335
1.536, 2, 35.9151, 48.1278, -14.08, 97.4483, -51.5278, 44.0335
1.54, 2, 35.9151, 48.1278, -14.08, 97.4483, -51.5278, 44.0335
1.544, 2, 35.9151, 48.1278, -14.08, 97.4483, -51.5278, 44.0335
1.548, 2, 35.9151, 48.1278, -14.08, 97.4483, -51.5278, 44.0335
1.552, 2, 35.9151, 48.1278, -14.08, 97.4483, -51.5278, 44.0335
1.556, 2, 35.9151, 48.1278, -14.08, 97.4483, -51.5278, 44.0335
1.56, 2, 35.9151, 48.1278, -14.08, 97.4483, -51.5278, 44.0335
1.564, 2, 35.9151, 48.1278, -14.08, 97.4483, -51.5278, 44.0335
1.568, 2, 35.9151, 48.1278, -14.08, 97.4483, -51.5278, 44.0335
1.572, 2, 35.9151, 48.1278, -14.08, 97.4483, -51.5278, 44.0335
1.576, 2, 35.9151, 48.1278, -14.08, 97.4483, -51.5278, 44.0335
1.58, 2, 35.9151, 48.1278, -14.08, 97.4483, -51.5278, 44.0335
1.584, 2, 35.9151, 48.1278, -14.08, 97.4483, -51.5278, 44.0335
1.588, 2, 35.9151, 48.1278, -14.08, 97.4483, -51.5278, 44.0335
1.592, 2, 35.9151, 48.1278, -14.08, 97.4483, -51.5278, 44.0335
1.596, 2, 35.9151, 48.1278, -14.08, 97.4483, -51.5278, 44.0335
1.6, 2, 35.9151, 48.1278, -14.08, 97.4483, -51.5278, 44.0335
1.604, 2, 35.9151, 48.1278, -14.08, 97.4483, -51.5278, 44.0335
1.608, 2, 35.9151, 48.1278, -14.08, 97.4483, -51.5278, 44.0335
1.612, 2, 35.9151, 48.1278, -14.08, 97.4483, -51.5278, 44.0335
1.616, 2, 35.9151, 48.1278, -14.08, 97.4483, -51.5278, 44.0335
1.62, 2, 35.9151, 48.1278, -14.08, 97.4483, -51.5278, 44.0335
1.624, 2, 35.9151, 48.1278, -14.08, 97.4483, -51.5278, 44.0335
1.628, 2, 35.9151, 48.1278, -14.08, 97.4483, -51.5278, 44.0335
1.632, 2, 35.9151, 48.1278, -14.08, 97.4483, -51.5278, 44.0335
1.636, 2, 35.9151, 48.1278, -14.08, 97.4483, -51.5278, 44.0335
1.64, 2, 35.9151, 48.1278, -14.08, 97.4483, -51.5278, 44.0335
1.644, 2, 35.9151, 48.1278, -14.08, 97.4483, -51.5278, 44.0335
1.648, 2, 35.9151, 48.1278, -14.08, 97.4483, -51.5278, 44.0335
1.652, 2, 35.9151, 48.1278, -14.08, 97.4483, -51.5278, 44.0335
1.656, 2, 35.9151, 48.1278, -14.08, 97.4483, -51.5278, 44.0335
1.66, 2, 35.9151, 48.1278, -14.08, 97.4483, -51.5278, 44.0335
1.664, 2, 35.9151, 48.1278, -14.08, 97.4483, -51.5278, 44.0335
1.668, 2, 35.9151, 48.1278, -14.08, 97.4483, -51.5278, 44.0335
1.672, 2, 35.9151, 48.1278, -14.08, 97.4483, -51.5278, 44.0335
1.676, 2, 35.9151, 48.1278, -14.08, 97.4483, -51.5278, 44.0335
1.68, 2, 35.9151, 48.1278, -14.08, 97.4483, -51.5278, 44.0335
1.684, 2, 35.9151, 48.1278, -14.08, 97.4483, -51.5278, 44.0335
1.688, 2, 35.9151, 48.1278, -14.08, 97.4483, -51.5278, 44.0335
1.692, 2, 35.9151, 48.1278, -14.08, 97.4483, -51.5278, 44.0335
1.696, 2, 35.9151, 48.1278, -14.08, 97.4483, -51.5278, 44.0335
1.7, 2, 35.9151, 48.1278, -14.08, 97.4483, -51.5278, 44.0335
1.704, 2, 35.9151, 48.1278, -14.08, 97.4483, -51.5278, 44.0335
1.708, 2, 35.9151, 48.1278, -14.08, 97.4483, -51.5278, 44.0335
1.712, 2, 35.9151, 48.1278, -14.08, 97.4483, -51.5278, 44.0335
1.716, 2, 35.9151, 48.1278, -14.08, 97.4483, -51.5278, 44.0335
1.72, 2, 35.9151, 48.1278, -14.08, 97.4483, -51.5278, 44.0335
1.724, 2, 35.9151, 48.1278, -14.08, 97.4483, -51.5278, 44.0335
1.728, 2, 35.9151, 48.1278, -14.08, 97.4483, -51.5278, 44.0335
1.732, 2, 35.9151, 48.1278, -14.08, 97.4483, -51.5278, 44.0335
1.736, 2, 35.9151, 48.1278, -14.08, 97.4483, -51.5278, 44.0335
1.74, 2, 35.9151, 48.1278, -14.08, 97.4483, -51.5278, 44.0335
1.744, 2, 35.9151, 48.1278, -14.08, 97.4483, -51.5278, 44.0335
1.748, 2, 35.9151, 48.1278, -14.08, 97.4483, -51.5278, 44.0335
1.752, 2, 35.9151, 48.1278, -14.08, 97.4483, -51.5278, 44.0335
1.756, 2, 35.9151, 48.1278, -14.08, 97.4483, -51.5278, 44.0335
1.76, 2, 35.9151, 48.1278, -14.08, 97.4483, -51.5278, 44.0335
1.764, 2, 35.9151, 48.1278, -14.08, 97.4483, -51.5278, 44.0335
1.768, 2, 35.9151, 48.1278, -14.08, 97.4483, -51.5278, 44.0335
1.772, 2, 35.9151, 48.1278, -14.08, 97.4483, -51.5278, 44.0335
1.776, 2, 35.9151, 48.1278, -14.08, 97.4483, -51.5278, 44.0335
1.78, 2, 35.9151, 48.1278, -14.08, 97.4483, -51.5278, 44.0335
1.784, 2, 35.9151, 48.1278, -14.08, 97.4483, -51.5278, 44.0335
1.788, 2, 35.9151, 48.1278, -14.08, 97.4483, -51.5278, 44.0335
1.792, 2, 35.9151, 48.1278, -14.08, 97.4483, -51.5278, 44.0335
1.796, 2, 35.9151, 48.1278, -14.08, 97.4483, -51.5278, 44.0335
1.8, 2, 35.9151, 48.1278, -14.08, 97.4483, -51.5278, 44.0335
1.804, 2, 35.9151, 48.1278, -14.08, 97.4483, -51.5278, 44.0335
1.808, 2, 35.9151, 48.1278, -14.08, 97.4483, -51.5278, 44.0335
1.812, 2, 35.9151, 48.1278, -14.08, 97.4483, -51.5278, 44.0335
1.816, 2, 35.9151, 48.1278, -14.08, 97.4483, -51.5278, 44.0335
1.82, 2, 35.9151, 48.1278, -14.08, 97.4483, -51.5278, 44.0335
1.824, 2, 35.9151, 48.1278, -14.08, 97.4483, -51.5278, 44.0335
1.828, 2, 35.9151, 48.1278, -14.08, 97.4483, -51.5278, 44.0335
1.832, 2, 35.9151, 48.1278, -14.08, 97.4483, -51.5278, 44.0335
1.836, 2, 35.9151, 48.1278, -14.08, 97.4483, -51.5278, 44.0335
1.84, 2, 35.9151, 48.1278, -14.08, 97.4483, -51.5278, 44.0335
1.844, 2, 35.9151, 48.1278, -14.08, 97.4483, -51.5278, 44.0335
1.848, 2, 35.9151, 48.1278, -14.08, 97.4483, -51.5278, 44.0335
1.852, 2, 35.9151, 48.1278, -14.08, 97.4483, -51.5278, 44.0335
1.856, 2, 35.9151, 48.1278, -14.08, 97.4483, -51.5278, 44.0335
1.86, 2, 35.9151, 48.1278, -14.08, 97.4483, -51.5278, 44.0335
1.864, 2, 35.9151, 48.1278, -14.08, 97.4483, -51.5278, 44.0335
1.868, 2, 35.9151, 48.1278, -14.08, 97.4483, -51.5278, 44.0335
1.872, 2, 35.9151, 48.1278, -14.08, 97.4483, -51.5278, 44.0335
1.876, 2, 35.9151, 48.1278, -14.08, 97.4483, -51.5278, 44.0335
1.88, 2, 35.9151, 48.1278, -14.08, 97.4483, -51.5278, 44.0335
1.884, 2, 35.9151, 48.1278, -14.08, 97.4483, -51.5278, 44.0335
1.888, 2, 35.9151, 48.1278, -14.08, 97.4483, -51.5278, 44.0335
1.892, 2, 35.9151, 48.1278, -14.08, 97.4483, -51.5278, 44.0335
1.896, 2, 35.9151, 48.1278, -14.08, 97.4483, -51.5278, 44.0335
1.9, 2, 35.9151, 48.1278, -14.08, 97.4483, -51.5278, 44.0335
1.904, 2, 35.9151, 48.1278, -14.08, 97.4483, -51.5278, 44.0335
1.908, 2, 35.9151, 48.1278, -14.08, 97.4483, -51.5278, 44.0335
1.912, 2, 35.9151, 48.1278, -14.08, 97.4483, -51.5278, 44.0335
1.916, 2, 35.9151, 48.1278, -14.08, 97.4483, -51.5278, 44.0335
1.92, 2, 35.9151, 48.1278, -14.08, 97.4483, -51.5278, 44.0335
1.924, 2, 35.9151, 48.1278, -14.08, 97.4483, -51.5278, 44.0335
1.928, 2, 35.9151, 48.1278, -14.08, 97.4483, -51.5278, 44.0335
1.932, 2, 35.9151, 48.1278, -14.08, 97.4483, -51.5278, 44.0335
1.936, 2, 35.9151, 48.1278, -14.08, 97.4483, -51.5278, 44.0335
1.94, 2, 35.9151, 48.1278, -14.08, 97.4483, -51.5278, 44.0335
1.944, 2, 35.9151, 48.1278, -14.08, 97.4483, -51.5278, 44.0335
1.948, 2, 35.9151, 48.1278, -14.08, 97.4483, -51.5278, 44.0335
1.952, 2, 35.9151, 48.1278, -14.08, 97.4483, -51.5278, 44.0335
1.956, 2, 35.9151, 48.1278, -14.08, 97.4483, -51.5278, 44.0335
1.96, 2, 35.9151, 48.1278, -14.08, 97.4483, -51.5278, 44.0335
1.964, 2, 35.9151, 48.1278, -14.08, 97.4483, -51.5278, 44.0335
1.968, 2, 35.9151, 48.1278, -14.08, 97.4483, -51.5278, 44.0335
1.972, 2, 35.9151, 48.1278, -14.08, 97.4483, -51.5278, 44.0335
1.976, 2, 35.9151, 48.1278, -14.08, 97.4483, -51.5278, 44.0335
1.98, 2, 35.9151, 48.1278, -14.08, 97.4483, -51.5278, 44.0335
1.984, 2, 35.9151, 48.1278, -14.08, 97.4483, -51.5278, 44.0335
1.988, 2, 35.9151, 48.1278, -14.08, 97.4483, -51.5278, 44.0335
1.992, 2, 35.9151, 48.1278, -14.08, 97.4483, -51.5278, 44.0335
1.996, 2, 35.9151, 48.1278, -14.08, 97.4483, -51.5278, 44.0335
1.999, 2, 35.9151, 48.1278, -14.08, 97.4483, -51.5278, 44.0335
2.004, 2, 35.9151, 48.1278, -14.08, 97.4483, -51.5278, 44.0335
2.008, 2, 35.9151, 48.1278, -14.08, 97.4483, -51.5278, 44.0335
2.012, 2, 35.9151, 48.1278, -14.08, 97.4483, -51.5278, 44.0335
2.015, 2, 35.9151, 48.1278, -14.08, 97.4483, -51.5278, 44.0335
2.019, 2, 35.9151, 48.1278, -14.08, 97.4483, -51.5278, 44.0335
2.024, 2, 35.9151, 48.1278, -14.08, 97.4483, -51.5278, 44.0335
2.028, 2, 35.9151, 48.1278, -14.08, 97.4483, -51.5278, 44.0335
2.031, 2, 35.9151, 48.1278, -14.08, 97.4483, -51.5278, 44.0335
2.036, 2, 35.9151, 48.1278, -14.08, 97.4483, -51.5278, 44.0335
2.04, 2, 35.9151, 48.1278, -14.08, 97.4483, -51.5278, 44.0335
2.044, 4, 35.9151, 48.1278, -14.08, 97.4483, -51.5278, 44.0335
2.048, 4, 35.9151, 48.1278, -14.08, 97.4483, -51.5278, 44.0335
2.051, 4, 35.9151, 48.1278, -14.08, 97.4483, -51.5278, 44.0335
2.055, 4, 35.9151, 48.1278, -14.08, 97.4483, -51.5278, 44.0335
2.06, 4, 35.9151, 48.1278, -14.08, 97.4483, -51.5278, 44.0335
2.064, 4, 35.9151, 48.1278, -14.08, 97.4483, -51.5278, 44.0335
2.068, 4, 35.9151, 48.1278, -14.08, 97.4483, -51.5278, 44.0335
2.071, 4, 35.9151, 48.1278, -14.08, 97.4483, -51.5278, 44.0335
2.076, 4, 35.9151, 48.1278, -14.08, 97.4483, -51.5278, 44.0335
2.08, 4, 35.9151, 48.1278, -14.08, 97.4483, -51.5278, 44.0335
2.084, 4, 35.9151, 48.1278, -14.08, 97.4483, -51.5278, 44.0335
2.087, 4, 35.9151, 48.1278, -14.08, 97.4483, -51.5278, 44.0335
2.092, 4, 35.9151, 48.1278, -14.08, 97.4483, -51.5278, 44.0335
2.096, 4, 35.9151, 48.1278, -14.08, 97.4483, -51.5278, 44.0335
2.1, 4, 35.9151, 48.1278, -14.08, 97.4483, -51.5278, 44.0335
2.104, 4, 35.9151, 48.1278, -14.08, 97.4483, -51.5278, 44.0335
2.107, 4, 35.9151, 48.1278, -14.08, 97.4483, -51.5278, 44.0335
2.111, 4, 35.9151, 48.1278, -14.08, 97.4483, -51.5278, 44.0335
2.116, 4, 35.9151, 48.1278, -14.08, 97.4483, -51.5278, 44.0335
2.12, 4, 35.9151, 48.1278, -14.08, 97.4483, -51.5278, 44.0335
2.124, 4, 35.9151, 48.1278, -14.08, 97.4483, -51.5278, 44.0335
2.127, 4, 35.9151, 48.1278, -14.08, 97.4483, -51.5278, 44.0335
2.132, 4, 35.9151, 48.1278, -14.08, 97.4483, -51.5278, 44.0335
2.136, 4, 35.9151, 48.1278, -14.08, 97.4483, -51.5278, 44.0335
2.14, 4, 35.9151, 48.1278, -14.08, 97.4483, -51.5278, 44.0335
2.143, 4, 35.9151, 48.1278, -14.08, 97.4483, -51.5278, 44.0335
2.149, 4, 35.9151, 48.1278, -14.08, 97.4483, -51.5278, 44.0335
2.152, 4, 35.9151, 48.1278, -14.08, 97.4483, -51.5278, 44.0335
2.156, 4, 35.9151, 48.1278, -14.08, 97.4483, -51.5278, 44.0335
2.16, 4, 35.9151, 48.1278, -14.08, 97.4483, -51.5278, 44.0335
2.163, 4, 35.9151, 48.1278, -14.08, 97.4483, -51.5278, 44.0335
2.168, 4, 35.9151, 48.1278, -14.08, 97.4483, -51.5278, 44.0335
2.172, 4, 35.9151, 48.1278, -14.08, 97.4483, -51.5278, 44.0335
2.176, 4, 35.9151, 48.1278, -14.08, 97.4483, -51.5278, 44.0335
2.179, 4, 35.9151, 48.1278, -14.08, 97.4483, -51.5278, 44.0335
2.184, 4, 35.915, 48.128, -14.08, 97.4483, -51.5279, 44.0335
2.188, 4, 35.9148, 48.1283, -14.08, 97.4483, -51.5279, 44.0335
2.192, 4, 35.9144, 48.1291, -14.08, 97.4483, -51.5281, 44.0334
2.196, 4, 35.9137, 48.1303, -14.08, 97.4482, -51.5284, 44.0333
2.199, 4, 35.9128, 48.1322, -14.0799, 97.4481, -51.5292, 44.033
2.204, 4, 35.9115, 48.1347, -14.0798, 97.4478, -51.5306, 44.0325
2.208, 4, 35.9099, 48.1381, -14.0797, 97.4474, -51.533, 44.0316
2.212, 4, 35.9081, 48.1423, -14.0795, 97.4468, -51.5369, 44.0301
2.216, 5, 35.906, 48.1477, -14.0792, 97.4458, -51.5428, 44.0278
2.219, 5, 35.9036, 48.1542, -14.0787, 97.4444, -51.5514, 44.0246
2.224, 5, 35.9009, 48.1621, -14.0781, 97.4424, -51.5635, 44.02
2.228, 5, 35.8978, 48.1715, -14.0772, 97.4396, -51.5798, 44.0138
2.232, 5, 35.8945, 48.1825, -14.0761, 97.436, -51.6013, 44.0056
2.235, 5, 35.891, 48.1948, -14.0746, 97.4313, -51.6289, 43.9951
2.24, 5, 35.8873, 48.2084, -14.0728, 97.4253, -51.6635, 43.9819
2.244, 5, 35.8836, 48.2229, -14.0705, 97.418, -51.7058, 43.9658
2.248, 5, 35.8799, 48.2385, -14.0678, 97.4092, -51.7567, 43.9465
2.252, 5, 35.8762, 48.255, -14.0646, 97.3988, -51.8163, 43.9239
2.255, 5, 35.8725, 48.2724, -14.0608, 97.3868, -51.885, 43.8978
2.259, 5, 35.8687, 48.291, -14.0565, 97.3731, -51.9626, 43.8684
2.264, 5, 35.8648, 48.3107, -14.0516, 97.3578, -52.049, 43.8358
2.268, 5, 35.8609, 48.3316, -14.0462, 97.341, -52.1435, 43.8
2.272, 5, 35.8568, 48.3537, -14.0403, 97.3227, -52.2457, 43.7615
2.275, 5, 35.8526, 48.3769, -14.0338, 97.303, -52.3547, 43.7204
2.28, 5, 35.8482, 48.4011, -14.0269, 97.2821, -52.4697, 43.6771
2.284, 5, 35.8435, 48.4265, -14.0195, 97.2601, -52.5897, 43.632
2.288, 5, 35.8386, 48.453, -14.0117, 97.2372, -52.7139, 43.5855
2.291, 5, 35.8332, 48.4809, -14.0035, 97.2135, -52.8413, 43.5378
2.296, 5, 35.8274, 48.51, -13.9949, 97.1892, -52.9711, 43.4892
2.3, 5, 35.8211, 48.5402, -13.986, 97.1643, -53.1027, 43.4402
2.304, 5, 35.8143, 48.5715, -13.9768, 97.139, -53.2355, 43.3907
2.308, 5, 35.8071, 48.6037, -13.9673, 97.1133, -53.3691, 43.3411
2.311, 5, 35.7997, 48.6364, -13.9575, 97.0873, -53.5033, 43.2914
2.316, 5, 35.7919, 48.6694, -13.9475, 97.061, -53.6377, 43.2416
2.32, 5, 35.784, 48.7026, -13.9373, 97.0344, -53.7724, 43.1919
2.324, 5, 35.7759, 48.7359, -13.9267, 97.0076, -53.9071, 43.1423
2.328, 5, 35.7677, 48.7692, -13.916, 96.9805, -54.0419, 43.0927
2.331, 5, 35.7594, 48.8025, -13.905, 96.9532, -54.1767, 43.0432
2.336, 5, 35.751, 48.8357, -13.8937, 96.9256, -54.3115, 42.9939
2.34, 5, 35.7425, 48.8689, -13.8822, 96.8979, -54.4462, 42.9446
2.344, 5, 35.7339, 48.9019, -13.8705, 96.8699, -54.5808, 42.8955
2.347, 5, 35.7252, 48.9348, -13.8585, 96.8417, -54.7154, 42.8465
2.352, 5, 35.7165, 48.9676, -13.8462, 96.8132, -54.8499, 42.7976
2.356, 5, 35.7076, 49.0003, -13.8338, 96.7846, -54.9843, 42.7488
2.36, 5, 35.6987, 49.0328, -13.821, 96.7557, -55.1187, 42.7001
2.364, 5, 35.6897, 49.0652, -13.8081, 96.7267, -55.253, 42.6516
2.367, 5, 35.6806, 49.0975, -13.7949, 96.6974, -55.3871, 42.6032
2.372, 5, 35.6715, 49.1296, -13.7815, 96.6679, -55.5212, 42.5549
2.376, 5, 35.6622, 49.1616, -13.7678, 96.6382, -55.6553, 42.5067
2.38, 5, 35.6529, 49.1934, -13.7538, 96.6083, -55.7892, 42.4586
2.383, 5, 35.6435, 49.2251, -13.7397, 96.5783, -55.923, 42.4107
2.388, 5, 35.6341, 49.2567, -13.7253, 96.548, -56.0568, 42.3628
2.392, 5, 35.6245, 49.2881, -13.7106, 96.5175, -56.1905, 42.3151
2.396, 5, 35.6149, 49.3194, -13.6957, 96.4868, -56.3241, 42.2674
2.4, 5, 35.6052, 49.3506, -13.6806, 96.4559, -56.4576, 42.2199
2.403, 5, 35.5954, 49.3816, -13.6652, 96.4248, -56.591, 42.1725
2.408, 5, 35.5856, 49.4124, -13.6496, 96.3935, -56.7243, 42.1252
2.412, 5, 35.5757, 49.4432, -13.6337, 96.362, -56.8576, 42.078
2.416, 5, 35.5657, 49.4738, -13.6176, 96.3303, -56.9908, 42.0309
2.42, 5, 35.5556, 49.5042, -13.6013, 96.2985, -57.1239, 41.9838
2.423, 5, 35.5454, 49.5345, -13.5847, 96.2664, -57.2569, 41.9369
2.428, 5, 35.5352, 49.5646, -13.5678, 96.2342, -57.3898, 41.8901
2.432, 5, 35.5249, 49.5947, -13.5507, 96.2017, -57.5226, 41.8434
2.436, 5, 35.5145, 49.6245, -13.5334, 96.1691, -57.6554, 41.7968
2.439, 5, 35.5041, 49.6542, -13.5159, 96.1363, -57.7881, 41.7503
2.444, 5, 35.4935, 49.6838, -13.4981, 96.1033, -57.9207, 41.7038
2.448, 5, 35.4829, 49.7132, -13.48, 96.0701, -58.0532, 41.6575
2.452, 5, 35.4722, 49.7425, -13.4617, 96.0367, -58.1856, 41.6113
2.456, 5, 35.4615, 49.7717, -13.4432, 96.0032, -58.3179, 41.5651
2.459, 5, 35.4507, 49.8007, -13.4244, 95.9694, -58.4502, 41.519
2.464, 5, 35.4397, 49.8295, -13.4054, 95.9355, -58.5824, 41.4731
2.468, 5, 35.4288, 49.8582, -13.3861, 95.9015, -58.7145, 41.4272
2.472, 5, 35.4177, 49.8868, -13.3666, 95.8672, -58.8465, 41.3814
2.476, 5, 35.4066, 49.9152, -13.3469, 95.8327, -58.9784, 41.3356
2.479, 5, 35.3954, 49.9434, -13.3269, 95.7981, -59.1103, 41.29
2.484, 5, 35.3841, 49.9716, -13.3067, 95.7633, -59.2421, 41.2444
2.488, 5, 35.3727, 49.9995, -13.2862, 95.7284, -59.3738, 41.1989
2.492, 5, 35.3613, 50.0273, -13.2655, 95.6932, -59.5054, 41.1535
2.495, 5, 35.3498, 50.055, -13.2445, 95.6579, -59.6369, 41.1082
2.5, 5, 35.3382, 50.0825, -13.2233, 95.6224, -59.7684, 41.063
2.504, 5, 35.3265, 50.1099, -13.2018, 95.5868, -59.8997, 41.0178
2.508, 5, 35.3148, 50.1371, -13.1801, 95.551, -60.031, 40.9727
2.512, 5, 35.303, 50.1642, -13.1582, 95.515, -60.1622, 40.9277
2.515, 5, 35.2911, 50.1911, -13.136, 95.4788, -60.2934, 40.8827
2.52, 5, 35.2792, 50.2178, -13.1135, 95.4425, -60.4244, 40.8378
2.524, 5, 35.2671, 50.2445, -13.0909, 95.406, -60.5554, 40.793
2.528, 5, 35.255, 50.2709, -13.0679, 95.3694, -60.6863, 40.7483
2.531, 5, 35.2428, 50.2972, -13.0448, 95.3326, -60.8171, 40.7036
2.536, 5, 35.2306, 50.3234, -13.0214, 95.2956, -60.9478, 40.659
2.54, 5, 35.2183, 50.3494, -12.9977, 95.2585, -61.0784, 40.6144
2.544, 5, 35.2059, 50.3752, -12.9738, 95.2212, -61.209, 40.57
2.548, 5, 35.1934, 50.4009, -12.9496, 95.1837, -61.3395, 40.5255
2.551, 5, 35.1808, 50.4264, -12.9252, 95.1461, -61.4699, 40.4812
2.556, 5, 35.1682, 50.4518, -12.9006, 95.1083, -61.6003, 40.4369
2.56, 5, 35.1555, 50.4771, -12.8757, 95.0704, -61.7305, 40.3927
2.564, 5, 35.1427, 50.5021, -12.8505, 95.0323, -61.8607, 40.3485
2.568, 5, 35.1299, 50.527, -12.8251, 94.9941, -61.9908, 40.3044
2.571, 5, 35.117, 50.5518, -12.7995, 94.9557, -62.1208, 40.2603
2.576, 5, 35.104, 50.5764, -12.7736, 94.9172, -62.2507, 40.2163
2.58, 5, 35.0909, 50.6008, -12.7475, 94.8785, -62.3806, 40.1723
2.584, 5, 35.0778, 50.6251, -12.7211, 94.8396, -62.5104, 40.1284
2.587, 5, 35.0646, 50.6493, -12.6945, 94.8007, -62.6401, 40.0846
2.592, 5, 35.0513, 50.6732, -12.6676, 94.7615, -62.7697, 40.0408
2.596, 5, 35.038, 50.697, -12.6405, 94.7222, -62.8993, 39.9971
2.6, 5, 35.0246, 50.7206, -12.6131, 94.6828, -63.0288, 39.9534
2.604, 5, 35.0114, 50.7439, -12.5855, 94.6432, -63.1582, 39.9097
2.607, 5, 34.9983, 50.7668, -12.5577, 94.6035, -63.2874, 39.8661
2.612, 5, 34.9856, 50.7892, -12.5297, 94.5637, -63.4164, 39.8227
2.616, 5, 34.9733, 50.8107, -12.5015, 94.5238, -63.5451, 39.7793
2.62, 5, 34.9617, 50.8312, -12.4732, 94.4839, -63.6732, 39.7362
2.624, 5, 34.9506, 50.8504, -12.4448, 94.4442, -63.8005, 39.6934
2.627, 5, 34.9402, 50.8685, -12.4166, 94.4047, -63.9263, 39.651
2.632, 5, 34.9304, 50.8855, -12.3886, 94.3658, -64.0502, 39.6093
2.636, 5, 34.9209, 50.9015, -12.361, 94.3275, -64.1713, 39.5686
2.64, 5, 34.9118, 50.9167, -12.3341, 94.2903, -64.2888, 39.5291
2.643, 5, 34.9031, 50.9312, -12.308, 94.2543, -64.4019, 39.4911
2.648, 5, 34.8946, 50.9451, -12.283, 94.22, -64.5097, 39.4548
2.652, 5, 34.8863, 50.9583, -12.2593, 94.1875, -64.6113, 39.4207
2.656, 5, 34.8784, 50.971, -12.2371, 94.1572, -64.7059, 39.3889
2.66, 5, 34.8708, 50.983, -12.2166, 94.1294, -64.7928, 39.3597
2.663, 5, 34.8634, 50.9946, -12.198, 94.104, -64.8715, 39.3333
2.668, 5, 34.8561, 51.0058, -12.1813, 94.0815, -64.9417, 39.3098
2.672, 5, 34.849, 51.0167, -12.1666, 94.0617, -65.0031, 39.2891
2.676, 5, 34.842, 51.0274, -12.1539, 94.0446, -65.056, 39.2714
2.679, 5, 34.8352, 51.0376, -12.1431, 94.0302, -65.1006, 39.2564
2.684, 5, 34.8287, 51.0474, -12.1341, 94.0182, -65.1376, 39.244
2.688, 5, 34.8225, 51.0567, -12.1268, 94.0085, -65.1677, 39.234
2.692, 5, 34.8169, 51.0654, -12.1209, 94.0008, -65.1916, 39.226
2.696, 5, 34.8116, 51.0734, -12.1163, 93.9947, -65.2102, 39.2197
2.699, 5, 34.8068, 51.0807, -12.1128, 93.9902, -65.2244, 39.215
2.704, 5, 34.8025, 51.0872, -12.1101, 93.9868, -65.235, 39.2115
2.708, 5, 34.7987, 51.0927, -12.1082, 93.9843, -65.2426, 39.2089
2.712, 5, 34.7954, 51.0973, -12.1068, 93.9825, -65.2481, 39.2071
2.716, 5, 34.7928, 51.1009, -12.1059, 93.9813, -65.2519, 39.2058
2.719, 5, 34.7907, 51.1036, -12.1052, 93.9805, -65.2545, 39.205
2.724, 5, 34.7891, 51.1055, -12.1047, 93.9799, -65.2562, 39.2044
2.728, 5, 34.7879, 51.107, -12.1044, 93.9795, -65.2575, 39.204
2.732, 5, 34.7867, 51.1082, -12.1042, 93.9792, -65.2583, 39.2037
2.735, 5, 34.7855, 51.1095, -12.104, 93.979, -65.2591, 39.2034
2.74, 5, 34.7839, 51.111, -12.1038, 93.9788, -65.2599, 39.2032
2.744, 5, 34.7819, 51.113, -12.1036, 93.9784, -65.2611, 39.2028
2.748, 5, 34.7794, 51.1155, -12.1031, 93.9779, -65.2629, 39.2022
2.752, 5, 34.7766, 51.1187, -12.1025, 93.9771, -65.266, 39.2012
2.755, 5, 34.7732, 51.1226, -12.1015, 93.9757, -65.2708, 39.1996
2.76, 5, 34.7695, 51.1273, -12.1, 93.9737, -65.2779, 39.1972
2.764, 6, 34.7653, 51.1328, -12.0978, 93.9709, -65.2881, 39.1938
2.768, 6, 34.7606, 51.1393, -12.0949, 93.967, -65.3022, 39.1891
2.772, 6, 34.7554, 51.1469, -12.0909, 93.9617, -65.3209, 39.1829
2.775, 6, 34.7496, 51.1554, -12.0859, 93.9548, -65.3453, 39.1748
2.78, 6, 34.7434, 51.1647, -12.0795, 93.9462, -65.3761, 39.1645
2.784, 6, 34.7369, 51.1748, -12.0716, 93.9354, -65.4142, 39.1518
2.788, 6, 34.73, 51.1854, -12.062, 93.9224, -65.4601, 39.1366
2.791, 6, 34.7229, 51.1964, -12.0508, 93.9071, -65.5144, 39.1185
2.796, 6, 34.7156, 51.2079, -12.0378, 93.8892, -65.5773, 39.0976
2.8, 6, 34.708, 51.22, -12.023, 93.8689, -65.6488, 39.0739
2.804, 6, 34.7, 51.2326, -12.0064, 93.8461, -65.7288, 39.0473
2.808, 6, 34.6917, 51.246, -11.9883, 93.821, -65.8167, 39.0182
2.811, 6, 34.6828, 51.2603, -11.9686, 93.7938, -65.9122, 38.9866
2.816, 6, 34.6736, 51.2754, -11.9475, 93.7645, -66.0144, 38.9528
2.82, 6, 34.6638, 51.2913, -11.9251, 93.7335, -66.1227, 38.9171
2.824, 6, 34.6537, 51.3082, -11.9018, 93.7009, -66.2361, 38.8797
2.828, 6, 34.643, 51.326, -11.8775, 93.667, -66.3538, 38.8409
2.831, 6, 34.6317, 51.3448, -11.8526, 93.632, -66.475, 38.8011
2.836, 6, 34.6197, 51.3647, -11.8271, 93.5961, -66.5989, 38.7604
2.84, 6, 34.607, 51.3856, -11.8012, 93.5596, -66.7249, 38.7192
2.844, 6, 34.5936, 51.4076, -11.7751, 93.5226, -66.8522, 38.6776
2.847, 6, 34.5796, 51.4304, -11.7488, 93.4852, -66.9806, 38.6357
2.852, 6, 34.565, 51.454, -11.7223, 93.4475, -67.1096, 38.5937
2.856, 6, 34.5499, 51.4781, -11.6958, 93.4095, -67.2391, 38.5516
2.86, 6, 34.5346, 51.5026, -11.6693, 93.3714, -67.3689, 38.5095
2.864, 6, 34.519, 51.5275, -11.6428, 93.3331, -67.4989, 38.4674
2.867, 6, 34.5032, 51.5527, -11.6163, 93.2947, -67.629, 38.4254
2.872, 6, 34.4872, 51.5781, -11.5898, 93.2562, -67.7591, 38.3834
2.876, 6, 34.4711, 51.6038, -11.5633, 93.2175, -67.8893, 38.3415
2.88, 6, 34.4548, 51.6296, -11.5369, 93.1787, -68.0194, 38.2997
2.883, 6, 34.4384, 51.6556, -11.5105, 93.1399, -68.1496, 38.258
2.888, 6, 34.4219, 51.6817, -11.4841, 93.1009, -68.2797, 38.2163
2.892, 6, 34.4053, 51.708, -11.4578, 93.0619, -68.4098, 38.1748
2.896, 6, 34.3886, 51.7345, -11.4315, 93.0227, -68.5399, 38.1333
2.9, 6, 34.3718, 51.7611, -11.4053, 92.9835, -68.6699, 38.0919
2.903, 6, 34.3549, 51.7879, -11.3791, 92.9441, -68.7999, 38.0506
2.908, 6, 34.3379, 51.8148, -11.3529, 92.9047, -68.9299, 38.0094
2.912, 6, 34.3208, 51.8419, -11.3268, 92.8652, -69.0598, 37.9683
2.916, 6, 34.3035, 51.8692, -11.3007, 92.8256, -69.1897, 37.9273
2.92, 6, 34.2862, 51.8965, -11.2747, 92.7859, -69.3195, 37.8864
2.923, 6, 34.2688, 51.924, -11.2487, 92.7461, -69.4493, 37.8456
2.928, 6, 34.2512, 51.9517, -11.2228, 92.7063, -69.5791, 37.8048
2.932, 6, 34.2336, 51.9795, -11.1969, 92.6663, -69.7088, 37.7642
2.936, 6, 34.2158, 52.0075, -11.171, 92.6263, -69.8385, 37.7236
2.939, 6, 34.198, 52.0356, -11.1452, 92.5862, -69.9681, 37.6831
2.944, 6, 34.1801, 52.0639, -11.1194, 92.546, -70.0977, 37.6427
2.948, 6, 34.162, 52.0923, -11.0937, 92.5057, -70.2273, 37.6024
2.952, 6, 34.1439, 52.1208, -11.068, 92.4653, -70.3568, 37.5622
2.956, 6, 34.1256, 52.1495, -11.0424, 92.4248, -70.4863, 37.522
2.959, 6, 34.1072, 52.1783, -11.0168, 92.3843, -70.6157, 37.482
2.964, 6, 34.0888, 52.2073, -10.9912, 92.3436, -70.7451, 37.442
2.968, 6, 34.0702, 52.2364, -10.9657, 92.3029, -70.8745, 37.4021
2.972, 6, 34.0515, 52.2657, -10.9402, 92.2621, -71.0038, 37.3623
2.976, 6, 34.0327, 52.2951, -10.9148, 92.2212, -71.1331, 37.3225
2.98, 6, 34.0139, 52.3246, -10.8894, 92.1803, -71.2624, 37.2829
2.984, 6, 33.9949, 52.3543, -10.8641, 92.1392, -71.3916, 37.2433
2.988, 6, 33.9758, 52.3842, -10.8388, 92.0981, -71.5207, 37.2038
2.992, 6, 33.9566, 52.4142, -10.8136, 92.0569, -71.6499, 37.1644
2.995, 6, 33.9373, 52.4443, -10.7884, 92.0156, -71.779, 37.1251
3, 6, 33.9178, 52.4746, -10.7632, 91.9742, -71.908, 37.0859
3.004, 6, 33.8983, 52.505, -10.7381, 91.9327, -72.0371, 37.0467
3.008, 6, 33.8787, 52.5355, -10.713, 91.8912, -72.166, 37.0076
3.012, 6, 33.859, 52.5662, -10.688, 91.8496, -72.295, 36.9686
3.015, 6, 33.8391, 52.597, -10.663, 91.8079, -72.4239, 36.9296
3.02, 6, 33.8192, 52.628, -10.6381, 91.7661, -72.5528, 36.8908
3.024, 6, 33.7991, 52.6591, -10.6132, 91.7243, -72.6816, 36.852
3.028, 6, 33.7789, 52.6904, -10.5883, 91.6823, -72.8104, 36.8133
3.031, 6, 33.7587, 52.7218, -10.5635, 91.6403, -72.9392, 36.7747
3.036, 6, 33.7383, 52.7533, -10.5388, 91.5982, -73.0679, 36.7361
3.04, 6, 33.7178, 52.785, -10.5141, 91.5561, -73.1966, 36.6976
3.044, 6, 33.6972, 52.8168, -10.4894, 91.5138, -73.3253, 36.6592
3.048, 6, 33.6765, 52.8487, -10.4648, 91.4715, -73.4539, 36.6208
3.051, 6, 33.6557, 52.8808, -10.4402, 91.4291, -73.5825, 36.5826
3.056, 6, 33.6348, 52.9131, -10.4157, 91.3867, -73.711, 36.5444
3.06, 6, 33.6137, 52.9454, -10.3912, 91.3441, -73.8395, 36.5062
3.064, 6, 33.5926, 52.978, -10.3668, 91.3015, -73.968, 36.4682
3.068, 6, 33.5713, 53.0106, -10.3424, 91.2588, -74.0965, 36.4302
3.071, 6, 33.5499, 53.0434, -10.318, 91.216, -74.2249, 36.3923
3.076, 6, 33.5285, 53.0763, -10.2937, 91.1732, -74.3533, 36.3544
3.08, 6, 33.5069, 53.1094, -10.2695, 91.1302, -74.4816, 36.3166
3.084, 6, 33.4852, 53.1426, -10.2452, 91.0873, -74.6099, 36.2789
3.087, 6, 33.4634, 53.1759, -10.2211, 91.0442, -74.7382, 36.2413
3.092, 6, 33.4414, 53.2094, -10.197, 91.0011, -74.8665, 36.2037
3.096, 6, 33.4194, 53.243, -10.1729, 90.9578, -74.9947, 36.1662
3.1, 6, 33.3973, 53.2768, -10.1489, 90.9146, -75.1229, 36.1287
3.104, 6, 33.375, 53.3107, -10.1249, 90.8712, -75.251, 36.0913
3.107, 6, 33.3526, 53.3447, -10.101, 90.8278, -75.3791, 36.054
3.112, 6, 33.3302, 53.3789, -10.0771, 90.7843, -75.5072, 36.0168
3.116, 6, 33.3076, 53.4132, -10.0532, 90.7407, -75.6353, 35.9796
3.12, 6, 33.2849, 53.4476, -10.0295, 90.697, -75.7633, 35.9424
3.124, 6, 33.262, 53.4822, -10.0057, 90.6533, -75.8913, 35.9054
3.128, 6, 33.2391, 53.5169, -9.98203, 90.6095, -76.0192, 35.8684
3.132, 6, 33.2161, 53.5517, -9.95838, 90.5657, -76.1472, 35.8314
3.136, 6, 33.1929, 53.5867, -9.93478, 90.5217, -76.275, 35.7946
3.14, 6, 33.1699, 53.6217, -9.91123, 90.4777, -76.4029, 35.7577
3.143, 6, 33.147, 53.6566, -9.88772, 90.4337, -76.5307, 35.721
3.148, 6, 33.1246, 53.6912, -9.86425, 90.3896, -76.6584, 35.6843
3.152, 6, 33.1028, 53.7252, -9.84083, 90.3455, -76.7859, 35.6478
3.156, 6, 33.0817, 53.7584, -9.81749, 90.3014, -76.9129, 35.6114
3.16, 6, 33.0614, 53.7905, -9.79426, 90.2576, -77.0394, 35.5752
3.163, 6, 33.0419, 53.8214, -9.77122, 90.2139, -77.1647, 35.5394
3.168, 6, 33.0232, 53.851, -9.74844, 90.1708, -77.2886, 35.5041
3.172, 6, 33.005, 53.8794, -9.72604, 90.1283, -77.4103, 35.4694
3.176, 6, 32.9874, 53.9067, -9.70416, 90.0868, -77.5292, 35.4356
3.179, 6, 32.9702, 53.9331, -9.68294, 90.0465, -77.6446, 35.4028
3.184, 6, 32.9536, 53.9586, -9.66253, 90.0075, -77.7556, 35.3713
3.188, 6, 32.9376, 53.9832, -9.64308, 89.9704, -77.8616, 35.3412
3.192, 6, 32.9221, 54.0069, -9.62471, 89.9352, -77.9619, 35.3128
3.196, 6, 32.9073, 54.0296, -9.60755, 89.9022, -78.0557, 35.2862
3.199, 6, 32.8931, 54.0512, -9.59172, 89.8717, -78.1425, 35.2616
3.204, 6, 32.8796, 54.0717, -9.57729, 89.8437, -78.2219, 35.2391
3.208, 6, 32.8666, 54.0913, -9.56433, 89.8184, -78.2936, 35.2189
3.212, 6, 32.8541, 54.1099, -9.55286, 89.7959, -78.3575, 35.2008
3.216, 6, 32.8421, 54.1277, -9.54288, 89.7761, -78.4136, 35.185
3.22, 6, 32.8307, 54.1445, -9.53433, 89.759, -78.4621, 35.1713
3.224, 6, 32.8199, 54.1601, -9.52712, 89.7443, -78.5035, 35.1596
3.228, 6, 32.8099, 54.1746, -9.52114, 89.732, -78.5382, 35.1498
3.232, 6, 32.8008, 54.1879, -9.51626, 89.7219, -78.567, 35.1417
3.235, 6, 32.7927, 54.2, -9.51235, 89.7136, -78.5904, 35.1351
3.24, 6, 32.7854, 54.2108, -9.50928, 89.707, -78.6091, 35.1298
3.244, 6, 32.7789, 54.2205, -9.50691, 89.7018, -78.6238, 35.1256
3.248, 6, 32.773, 54.2291, -9.50515, 89.6978, -78.635, 35.1225
3.252, 6, 32.7677, 54.2366, -9.50387, 89.6948, -78.6435, 35.1201
3.255, 6, 32.7631, 54.243, -9.50297, 89.6926, -78.6497, 35.1183
3.26, 6, 32.7591, 54.2481, -9.50236, 89.691, -78.6541, 35.1171
3.264, 7, 32.7557, 54.2522, -9.50195, 89.6899, -78.6573, 35.1162
3.268, 7, 32.753, 54.2553, -9.50169, 89.6891, -78.6594, 35.1156
3.272, 7, 32.751, 54.2575, -9.50151, 89.6886, -78.6609, 35.1152
3.276, 7, 32.7496, 54.2591, -9.5014, 89.6882, -78.6619, 35.1149
3.28, 7, 32.7486, 54.2601, -9.50132, 89.688, -78.6626, 35.1147
3.284, 7, 32.7479, 54.2608, -9.50127, 89.6878, -78.663, 35.1146
3.288, 7, 32.7475, 54.2613, -9.50123, 89.6877, -78.6633, 35.1145
3.291, 7, 32.7471, 54.2616, -9.50121, 89.6877, -78.6635, 35.1144
3.296, 7, 32.7469, 54.2618, -9.50119, 89.6876, -78.6637, 35.1144
3.3, 7, 32.7468, 54.262, -9.50118, 89.6876, -78.6638, 35.1143
3.304, 7, 32.7467, 54.2621, -9.50117, 89.6875, -78.6638, 35.1143
3.308, 7, 32.7466, 54.2622, -9.50117, 89.6875, -78.6639, 35.1143
3.312, 7, 32.7466, 54.2622, -9.50116, 89.6875, -78.6639, 35.1143
3.316, 7, 32.7466, 54.2622, -9.50116, 89.6875, -78.6639, 35.1143
3.32, 7, 32.7465, 54.2623, -9.50116, 89.6875, -78.6639, 35.1143
3.324, 7, 32.7465, 54.2623, -9.50116, 89.6875, -78.664, 35.1143
3.328, 7, 32.7465, 54.2623, -9.50116, 89.6875, -78.664, 35.1143
3.332, 7, 32.7465, 54.2623, -9.50116, 89.6875, -78.664, 35.1143
3.336, 7, 32.7465, 54.2623, -9.50116, 89.6875, -78.664, 35.1143
3.34, 7, 32.7465, 54.2623, -9.50116, 89.6875, -78.664, 35.1143
3.344, 7, 32.7465, 54.2623, -9.50115, 89.6875, -78.664, 35.1143
3.347, 7, 32.7465, 54.2623, -9.50115, 89.6875, -78.664, 35.1143
3.352, 7, 32.7465, 54.2623, -9.50115, 89.6875, -78.664, 35.1143
3.356, 7, 32.7465, 54.2623, -9.50115, 89.6875, -78.664, 35.1143
3.36, 7, 32.7465, 54.2623, -9.50115, 89.6875, -78.664, 35.1143
3.364, 7, 32.7465, 54.2623, -9.50115, 89.6875, -78.664, 35.1143
3.368, 7, 32.7465, 54.2623, -9.50115, 89.6875, -78.664, 35.1143
3.372, 7, 32.7465, 54.2623, -9.50115, 89.6875, -78.664, 35.1143
3.376, 7, 32.7465, 54.2623, -9.50115, 89.6875, -78.664, 35.1143
3.38, 7, 32.7465, 54.2623, -9.50115, 89.6875, -78.664, 35.1143
