hehonglu123/ABB_Primitive_Study/execution/movec+movel_smooth/curve_exe_v300_z10.csv
timestamp, cmd_num, J1, J2, J3, J4, J5, J6
0.002, -1, -18.207, 47.3635, 5.48559, -15.7778, -84.3589, 10.9302
0.004, -1, -18.207, 47.3635, 5.48559, -15.7778, -84.3589, 10.9302
0.006, -1, -18.207, 47.3635, 5.48559, -15.7778, -84.3589, 10.9302
0.008, -1, -18.207, 47.3635, 5.48559, -15.7778, -84.3589, 10.9302
0.011, -1, -18.207, 47.3635, 5.48559, -15.7778, -84.3589, 10.9302
0.016, -1, -18.207, 47.3635, 5.48559, -15.7778, -84.3589, 10.9302
0.02, -1, -18.207, 47.3635, 5.48559, -15.7778, -84.3589, 10.9302
0.024, -1, -18.207, 47.3635, 5.48559, -15.7778, -84.3589, 10.9302
0.028, -1, -18.207, 47.3635, 5.48559, -15.7778, -84.3589, 10.9302
0.032, -1, -18.207, 47.3635, 5.48559, -15.7778, -84.3589, 10.9302
0.036, -1, -18.207, 47.3635, 5.4856, -15.7778, -84.3589, 10.9302
0.04, -1, -18.2067, 47.3634, 5.48563, -15.7778, -84.3589, 10.9302
0.044, -1, -18.2061, 47.3631, 5.48571, -15.7778, -84.3588, 10.9302
0.048, -1, -18.205, 47.3624, 5.48588, -15.7778, -84.3588, 10.9301
0.052, -1, -18.2032, 47.3613, 5.48617, -15.7776, -84.3587, 10.93
0.056, -1, -18.2007, 47.3595, 5.48662, -15.7774, -84.3584, 10.9298
0.06, -1, -18.1974, 47.357, 5.48729, -15.7769, -84.3579, 10.9294
0.064, -1, -18.1933, 47.3537, 5.48823, -15.7759, -84.3569, 10.9287
0.068, -1, -18.1882, 47.3495, 5.4895, -15.7744, -84.3554, 10.9275
0.072, -1, -18.1822, 47.3444, 5.49118, -15.7721, -84.3531, 10.9257
0.076, -1, -18.1749, 47.3383, 5.49337, -15.7688, -84.3496, 10.9231
0.08, -1, -18.1662, 47.331, 5.49615, -15.764, -84.3447, 10.9194
0.084, -1, -18.1559, 47.3226, 5.49964, -15.7575, -84.3381, 10.9145
0.088, -1, -18.1438, 47.3127, 5.50393, -15.7489, -84.3292, 10.9079
0.092, -1, -18.1297, 47.3013, 5.50913, -15.7378, -84.3177, 10.8994
0.096, -1, -18.1137, 47.2882, 5.5153, -15.7236, -84.3032, 10.8886
0.1, -1, -18.0955, 47.2733, 5.52256, -15.706, -84.285, 10.8752
0.104, -1, -18.0752, 47.2564, 5.531, -15.6845, -84.2629, 10.8589
0.108, -1, -18.0524, 47.2375, 5.54073, -15.6587, -84.2363, 10.8393
0.112, -1, -18.0272, 47.2162, 5.55183, -15.6283, -84.2049, 10.8163
0.116, -1, -17.9995, 47.1926, 5.56437, -15.5928, -84.1684, 10.7894
0.12, -1, -17.9692, 47.1667, 5.57839, -15.5521, -84.1264, 10.7586
0.124, -1, -17.9365, 47.1384, 5.59391, -15.5058, -84.0787, 10.7236
0.128, -1, -17.9013, 47.1077, 5.61096, -15.454, -84.0252, 10.6844
0.131, -1, -17.8637, 47.0746, 5.62953, -15.3964, -83.9658, 10.6409
0.136, -1, -17.8236, 47.0392, 5.64964, -15.3333, -83.9007, 10.5932
0.139, -1, -17.7808, 47.0012, 5.67128, -15.2646, -83.8298, 10.5413
0.144, -1, -17.7353, 46.9608, 5.69444, -15.1907, -83.7536, 10.4855
0.148, -1, -17.687, 46.9179, 5.71908, -15.1117, -83.6721, 10.4258
0.152, -1, -17.6362, 46.8726, 5.74513, -15.0281, -83.5858, 10.3627
0.156, -1, -17.5829, 46.8251, 5.7725, -14.9401, -83.495, 10.2962
0.16, -1, -17.5272, 46.7755, 5.80108, -14.848, -83.4, 10.2267
0.164, -1, -17.4693, 46.724, 5.8308, -14.7524, -83.3014, 10.1545
0.168, -1, -17.4092, 46.6706, 5.86157, -14.6536, -83.1994, 10.0799
0.172, -1, -17.347, 46.6155, 5.8933, -14.552, -83.0945, 10.0031
0.176, -1, -17.2829, 46.5588, 5.92592, -14.4479, -82.9872, 9.92453
0.18, -1, -17.2168, 46.5007, 5.95933, -14.3418, -82.8777, 9.84438
0.184, -1, -17.1491, 46.4412, 5.99344, -14.234, -82.7664, 9.7629
0.188, -1, -17.0801, 46.3807, 6.02814, -14.1246, -82.6537, 9.68032
0.192, -1, -17.0101, 46.3193, 6.06334, -14.0141, -82.5396, 9.5968
0.196, -1, -16.9392, 46.257, 6.09894, -13.9026, -82.4246, 9.51254
0.2, -1, -16.8676, 46.1941, 6.13488, -13.7903, -82.3087, 9.42765
0.204, -1, -16.7953, 46.1305, 6.17111, -13.6773, -82.1922, 9.34228
0.208, -1, -16.7223, 46.0663, 6.20759, -13.5638, -82.0751, 9.25654
0.212, -1, -16.6486, 46.0014, 6.24427, -13.45, -81.9577, 9.17052
0.216, -1, -16.5742, 45.936, 6.28112, -13.3359, -81.84, 9.08428
0.22, -1, -16.4992, 45.8702, 6.3181, -13.2216, -81.7221, 8.9979
0.224, -1, -16.4238, 45.8041, 6.35519, -13.1072, -81.604, 8.9114
0.228, -1, -16.3479, 45.7377, 6.39235, -12.9927, -81.4859, 8.82482
0.232, -1, -16.2719, 45.6711, 6.42957, -12.878, -81.3676, 8.73817
0.236, -1, -16.1956, 45.6044, 6.46682, -12.7633, -81.2493, 8.65147
0.24, -1, -16.1192, 45.5377, 6.5041, -12.6486, -81.1309, 8.56473
0.244, -1, -16.0428, 45.4708, 6.54141, -12.5338, -81.0125, 8.47795
0.248, -1, -15.9662, 45.404, 6.57873, -12.419, -80.8941, 8.39115
0.252, -1, -15.8896, 45.337, 6.61607, -12.3041, -80.7756, 8.30432
0.256, -1, -15.813, 45.2701, 6.65342, -12.1892, -80.6571, 8.21747
0.26, -1, -15.7363, 45.2031, 6.69079, -12.0743, -80.5385, 8.1306
0.264, -1, -15.6596, 45.1362, 6.72816, -11.9593, -80.4199, 8.04371
0.268, -1, -15.5829, 45.0692, 6.76553, -11.8444, -80.3013, 7.95681
0.272, -1, -15.5062, 45.0022, 6.80292, -11.7294, -80.1827, 7.86989
0.276, -1, -15.4295, 44.9351, 6.8403, -11.6144, -80.0641, 7.78296
0.28, -1, -15.3527, 44.8681, 6.8777, -11.4994, -79.9455, 7.69602
0.284, -1, -15.276, 44.8011, 6.9151, -11.3843, -79.8268, 7.60907
0.288, -1, -15.1992, 44.734, 6.9525, -11.2693, -79.7081, 7.52211
0.292, -1, -15.1224, 44.667, 6.98991, -11.1543, -79.5895, 7.43514
0.296, -1, -15.0456, 44.5999, 7.02731, -11.0392, -79.4708, 7.34817
0.3, -1, -14.9688, 44.5328, 7.06472, -10.9241, -79.3521, 7.26119
0.304, -1, -14.8921, 44.4658, 7.10214, -10.8091, -79.2334, 7.17421
0.308, -1, -14.8153, 44.3987, 7.13955, -10.694, -79.1147, 7.08723
0.312, -1, -14.7385, 44.3316, 7.17696, -10.5789, -78.996, 7.00025
0.316, -1, -14.6617, 44.2646, 7.21437, -10.4639, -78.8773, 6.91327
0.32, -1, -14.5849, 44.1975, 7.25178, -10.3488, -78.7586, 6.82628
0.324, -1, -14.5081, 44.1304, 7.28919, -10.2338, -78.6399, 6.73931
0.328, -1, -14.4313, 44.0634, 7.3266, -10.1187, -78.5212, 6.65234
0.332, -1, -14.3545, 43.9963, 7.36401, -10.0037, -78.4025, 6.56537
0.336, -1, -14.2777, 43.9293, 7.40141, -9.88862, -78.2839, 6.47841
0.34, -1, -14.2009, 43.8623, 7.43881, -9.77359, -78.1652, 6.39146
0.344, -1, -14.1242, 43.7952, 7.47621, -9.65857, -78.0466, 6.30451
0.348, -1, -14.0474, 43.7282, 7.5136, -9.54357, -77.9279, 6.21758
0.352, -1, -13.9706, 43.6612, 7.55098, -9.42859, -77.8093, 6.13066
0.356, -1, -13.8939, 43.5942, 7.58836, -9.31362, -77.6907, 6.04375
0.36, -1, -13.8172, 43.5272, 7.62574, -9.19866, -77.5721, 5.95686
0.364, -1, -13.7404, 43.4602, 7.66311, -9.08373, -77.4536, 5.86998
0.368, -1, -13.6637, 43.3933, 7.70047, -8.96882, -77.335, 5.78311
0.372, -1, -13.587, 43.3263, 7.73782, -8.85394, -77.2165, 5.69627
0.376, -1, -13.5104, 43.2594, 7.77517, -8.73907, -77.098, 5.60944
0.38, -1, -13.4337, 43.1925, 7.81251, -8.62424, -76.9796, 5.52263
0.384, -1, -13.357, 43.1256, 7.84983, -8.50943, -76.8611, 5.43584
0.388, -1, -13.2804, 43.0587, 7.88715, -8.39465, -76.7427, 5.34908
0.392, -1, -13.2038, 42.9918, 7.92446, -8.2799, -76.6244, 5.26234
0.396, -1, -13.1272, 42.925, 7.96176, -8.16518, -76.506, 5.17562
0.4, -1, -13.0507, 42.8582, 7.99905, -8.05049, -76.3877, 5.08893
0.404, -1, -12.9741, 42.7913, 8.03633, -7.93585, -76.2695, 5.00226
0.408, -1, -12.8976, 42.7246, 8.07359, -7.82123, -76.1512, 4.91562
0.412, -1, -12.8211, 42.6578, 8.11084, -7.70666, -76.033, 4.82901
0.416, -1, -12.7447, 42.591, 8.14808, -7.59213, -75.9149, 4.74243
0.42, -1, -12.6683, 42.5243, 8.18531, -7.47763, -75.7968, 4.65589
0.424, -1, -12.5918, 42.4576, 8.22252, -7.36318, -75.6787, 4.56937
0.428, -1, -12.5155, 42.391, 8.25971, -7.24878, -75.5607, 4.48289
0.432, -1, -12.4391, 42.3243, 8.2969, -7.13442, -75.4427, 4.39644
0.436, -1, -12.3628, 42.2577, 8.33406, -7.02011, -75.3248, 4.31003
0.44, -1, -12.2865, 42.1911, 8.37121, -6.90585, -75.2069, 4.22366
0.444, -1, -12.2103, 42.1246, 8.40835, -6.79164, -75.0891, 4.13732
0.448, -1, -12.1341, 42.0581, 8.44546, -6.67748, -74.9714, 4.05103
0.452, -1, -12.0579, 41.9916, 8.48256, -6.56337, -74.8537, 3.96477
0.456, -1, -11.9818, 41.9251, 8.51965, -6.44932, -74.736, 3.87856
0.46, -1, -11.9056, 41.8587, 8.55671, -6.33533, -74.6184, 3.79239
0.464, -1, -11.8296, 41.7923, 8.59375, -6.22139, -74.5009, 3.70626
0.468, -1, -11.7536, 41.7259, 8.63078, -6.10751, -74.3834, 3.62018
0.472, -1, -11.6776, 41.6596, 8.66779, -5.9937, -74.266, 3.53414
0.476, -1, -11.6016, 41.5933, 8.70477, -5.87994, -74.1487, 3.44815
0.48, -1, -11.5257, 41.5271, 8.74174, -5.76625, -74.0314, 3.36221
0.484, -1, -11.4499, 41.4608, 8.77868, -5.65263, -73.9142, 3.27632
0.488, -1, -11.3741, 41.3947, 8.8156, -5.53907, -73.797, 3.19048
0.492, -1, -11.2983, 41.3285, 8.8525, -5.42558, -73.68, 3.10469
0.496, -1, -11.2226, 41.2624, 8.88938, -5.31216, -73.563, 3.01895
0.5, -1, -11.1469, 41.1964, 8.92623, -5.19881, -73.446, 2.93327
0.504, -1, -11.0713, 41.1304, 8.96306, -5.08554, -73.3292, 2.84764
0.508, -1, -10.9957, 41.0644, 8.99987, -4.97233, -73.2124, 2.76206
0.512, -1, -10.9201, 40.9985, 9.03665, -4.8592, -73.0957, 2.67655
0.516, -1, -10.8447, 40.9326, 9.07341, -4.74615, -72.9791, 2.59109
0.52, -1, -10.7692, 40.8667, 9.11014, -4.63318, -72.8626, 2.50569
0.524, -1, -10.6939, 40.8009, 9.14685, -4.52028, -72.7461, 2.42035
0.528, -1, -10.6185, 40.7352, 9.18353, -4.40747, -72.6297, 2.33507
0.532, -1, -10.5433, 40.6695, 9.22018, -4.29474, -72.5134, 2.24985
0.536, -1, -10.4681, 40.6038, 9.25681, -4.18209, -72.3972, 2.1647
0.54, -1, -10.3929, 40.5382, 9.29341, -4.06952, -72.2811, 2.07961
0.544, -1, -10.3178, 40.4727, 9.32998, -3.95704, -72.1651, 1.99458
0.548, -1, -10.2428, 40.4072, 9.36652, -3.84465, -72.0491, 1.90962
0.552, -1, -10.1678, 40.3417, 9.40304, -3.73235, -71.9333, 1.82473
0.556, -1, -10.0929, 40.2763, 9.43952, -3.62013, -71.8175, 1.7399
0.56, -1, -10.018, 40.211, 9.47598, -3.50801, -71.7019, 1.65514
0.564, -1, -9.94319, 40.1457, 9.5124, -3.39597, -71.5863, 1.57045
0.568, -1, -9.86845, 40.0804, 9.5488, -3.28403, -71.4708, 1.48583
0.572, -1, -9.79377, 40.0153, 9.58517, -3.17219, -71.3555, 1.40129
0.576, -1, -9.71915, 39.9501, 9.6215, -3.06044, -71.2402, 1.31681
0.58, -1, -9.6446, 39.885, 9.6578, -2.94878, -71.125, 1.23241
0.584, -1, -9.57011, 39.82, 9.69408, -2.83723, -71.0099, 1.14808
0.588, -1, -9.49568, 39.7551, 9.73032, -2.72577, -70.8949, 1.06383
0.592, -1, -9.42132, 39.6902, 9.76652, -2.61441, -70.7801, 0.979649
0.596, -1, -9.34703, 39.6253, 9.8027, -2.50315, -70.6653, 0.895546
0.6, -1, -9.27281, 39.5605, 9.83884, -2.392, -70.5506, 0.811521
0.604, -1, -9.19865, 39.4958, 9.87495, -2.28094, -70.4361, 0.727572
0.608, -1, -9.12456, 39.4311, 9.91103, -2.16999, -70.3216, 0.643702
0.612, -1, -9.05054, 39.3665, 9.94707, -2.05915, -70.2073, 0.55991
0.616, -1, -8.97659, 39.302, 9.98308, -1.94841, -70.093, 0.476198
0.62, -1, -8.90271, 39.2375, 10.019, -1.83777, -69.9789, 0.392566
0.624, -1, -8.82889, 39.1731, 10.055, -1.72724, -69.8649, 0.309014
0.628, -1, -8.75516, 39.1087, 10.0909, -1.61682, -69.751, 0.225543
0.632, -1, -8.68149, 39.0444, 10.1268, -1.50651, -69.6372, 0.142154
0.636, -1, -8.60789, 38.9802, 10.1626, -1.3963, -69.5235, 0.0588477
0.64, -1, -8.53437, 38.916, 10.1984, -1.28621, -69.41, -0.0243762
0.644, -1, -8.46092, 38.8519, 10.2342, -1.17622, -69.2965, -0.107517
0.648, -1, -8.38755, 38.7878, 10.2699, -1.06635, -69.1832, -0.190573
0.652, -1, -8.31425, 38.7238, 10.3056, -0.956587, -69.0699, -0.273545
0.656, -1, -8.24102, 38.6599, 10.3412, -0.846937, -68.9568, -0.356432
0.66, -1, -8.16787, 38.5961, 10.3768, -0.737401, -68.8438, -0.439234
0.664, -1, -8.0948, 38.5323, 10.4124, -0.627978, -68.7309, -0.52195
0.668, -1, -8.0218, 38.4686, 10.448, -0.51867, -68.6182, -0.604579
0.672, -1, -7.94888, 38.4049, 10.4835, -0.409477, -68.5055, -0.687121
0.676, -1, -7.87604, 38.3414, 10.5189, -0.300399, -68.393, -0.769575
0.68, -1, -7.80327, 38.2778, 10.5544, -0.191438, -68.2806, -0.851942
0.684, -1, -7.73058, 38.2144, 10.5898, -0.0825946, -68.1684, -0.93422
0.688, -1, -7.65797, 38.151, 10.6251, 0.0261317, -68.0562, -1.01641
0.692, -1, -7.58544, 38.0877, 10.6604, 0.13474, -67.9442, -1.09851
0.696, -1, -7.51299, 38.0245, 10.6957, 0.243229, -67.8322, -1.18052
0.7, -1, -7.44061, 37.9613, 10.7309, 0.351598, -67.7205, -1.26244
0.704, -1, -7.36832, 37.8982, 10.7661, 0.459848, -67.6088, -1.34427
0.708, -1, -7.29611, 37.8352, 10.8013, 0.567976, -67.4972, -1.426
0.712, -1, -7.22398, 37.7722, 10.8364, 0.675984, -67.3858, -1.50765
0.716, -1, -7.15193, 37.7093, 10.8715, 0.78387, -67.2745, -1.5892
0.72, -1, -7.07996, 37.6465, 10.9065, 0.891633, -67.1634, -1.67067
0.724, -1, -7.00807, 37.5838, 10.9415, 0.999274, -67.0523, -1.75203
0.728, -1, -6.93627, 37.5211, 10.9765, 1.10679, -66.9414, -1.83331
0.732, -1, -6.86454, 37.4585, 11.0114, 1.21418, -66.8306, -1.91449
0.736, -1, -6.7929, 37.396, 11.0463, 1.32145, -66.72, -1.99558
0.74, -1, -6.72135, 37.3335, 11.0811, 1.4286, -66.6095, -2.07657
0.744, -1, -6.64988, 37.2711, 11.1159, 1.53561, -66.4991, -2.15747
0.748, -1, -6.57849, 37.2088, 11.1507, 1.64251, -66.3888, -2.23827
0.752, -1, -6.50718, 37.1466, 11.1854, 1.74927, -66.2787, -2.31898
0.756, -1, -6.43596, 37.0844, 11.2201, 1.85591, -66.1687, -2.39959
0.76, -1, -6.36483, 37.0223, 11.2547, 1.96242, -66.0588, -2.4801
0.764, -1, -6.29378, 36.9603, 11.2893, 2.0688, -65.9491, -2.56052
0.768, -1, -6.22282, 36.8984, 11.3238, 2.17506, -65.8394, -2.64084
0.772, -1, -6.15194, 36.8365, 11.3584, 2.28118, -65.73, -2.72107
0.776, -1, -6.08115, 36.7747, 11.3928, 2.38718, -65.6206, -2.80119
0.78, -1, -6.01044, 36.713, 11.4272, 2.49305, -65.5114, -2.88122
0.784, -1, -5.93982, 36.6514, 11.4616, 2.59878, -65.4023, -2.96115
0.788, -1, -5.86929, 36.5898, 11.496, 2.70439, -65.2934, -3.04098
0.792, -1, -5.79885, 36.5283, 11.5303, 2.80986, -65.1846, -3.12071
0.796, -1, -5.72849, 36.4669, 11.5645, 2.91521, -65.0759, -3.20034
0.8, -1, -5.65822, 36.4056, 11.5987, 3.02042, -64.9674, -3.27988
0.804, -1, -5.58804, 36.3443, 11.6329, 3.1255, -64.859, -3.35931
0.808, -1, -5.51795, 36.2832, 11.667, 3.23045, -64.7507, -3.43864
0.812, -1, -5.44794, 36.2221, 11.7011, 3.33526, -64.6426, -3.51787
0.816, -1, -5.37803, 36.161, 11.7351, 3.43994, -64.5346, -3.59701
0.82, -1, -5.3082, 36.1001, 11.7691, 3.54449, -64.4268, -3.67604
0.824, -1, -5.23846, 36.0392, 11.8031, 3.6489, -64.3191, -3.75497
0.828, -1, -5.16882, 35.9784, 11.837, 3.75318, -64.2115, -3.83379
0.832, -1, -5.09926, 35.9177, 11.8709, 3.85733, -64.1041, -3.91252
0.836, -1, -5.02979, 35.8571, 11.9047, 3.96134, -63.9968, -3.99114
0.84, -1, -4.96041, 35.7965, 11.9385, 4.06521, -63.8896, -4.06967
0.844, -1, -4.89112, 35.7361, 11.9722, 4.16895, -63.7826, -4.14809
0.848, -1, -4.82193, 35.6757, 12.0059, 4.27256, -63.6757, -4.2264
0.852, -1, -4.75282, 35.6154, 12.0395, 4.37602, -63.569, -4.30462
0.856, -1, -4.6838, 35.5551, 12.0731, 4.47936, -63.4624, -4.38273
0.86, -1, -4.61488, 35.495, 12.1067, 4.58255, -63.356, -4.46073
0.864, -1, -4.54605, 35.4349, 12.1402, 4.68561, -63.2497, -4.53864
0.868, -1, -4.4773, 35.3749, 12.1737, 4.78853, -63.1435, -4.61644
0.872, -1, -4.40865, 35.315, 12.2071, 4.89131, -63.0375, -4.69414
0.876, -1, -4.34009, 35.2551, 12.2405, 4.99396, -62.9316, -4.77173
0.88, -1, -4.27163, 35.1954, 12.2738, 5.09646, -62.8258, -4.84922
0.884, -1, -4.20325, 35.1357, 12.3071, 5.19883, -62.7202, -4.9266
0.888, -1, -4.13496, 35.0761, 12.3403, 5.30107, -62.6148, -5.00388
0.892, -1, -4.06677, 35.0166, 12.3735, 5.40316, -62.5095, -5.08106
0.896, -1, -3.99867, 34.9572, 12.4067, 5.50512, -62.4043, -5.15813
0.9, -1, -3.93065, 34.8978, 12.4398, 5.60693, -62.2993, -5.23509
0.904, -1, -3.86273, 34.8385, 12.4728, 5.70861, -62.1944, -5.31196
0.908, -1, -3.79491, 34.7793, 12.5059, 5.81015, -62.0896, -5.38872
0.912, -1, -3.72717, 34.7202, 12.5388, 5.91156, -61.985, -5.46537
0.916, -1, -3.65952, 34.6612, 12.5718, 6.01282, -61.8806, -5.54192
0.92, -1, -3.59197, 34.6022, 12.6046, 6.11395, -61.7762, -5.61837
0.924, -1, -3.52451, 34.5433, 12.6375, 6.21494, -61.6721, -5.69471
0.928, -1, -3.45714, 34.4845, 12.6703, 6.3158, -61.568, -5.77095
0.932, -1, -3.38986, 34.4258, 12.703, 6.41651, -61.4641, -5.84708
0.936, -1, -3.32267, 34.3672, 12.7357, 6.5171, -61.3604, -5.92311
0.94, -1, -3.25558, 34.3086, 12.7684, 6.61754, -61.2568, -5.99904
0.944, -1, -3.18857, 34.2502, 12.801, 6.71784, -61.1533, -6.07486
0.948, -1, -3.12166, 34.1918, 12.8336, 6.81801, -61.05, -6.15059
0.952, -1, -3.05484, 34.1334, 12.8661, 6.91805, -60.9468, -6.2262
0.956, -1, -2.98811, 34.0752, 12.8986, 7.01794, -60.8437, -6.30172
0.96, -1, -2.92147, 34.0171, 12.931, 7.1177, -60.7408, -6.37713
0.964, -1, -2.85492, 33.959, 12.9634, 7.21733, -60.638, -6.45244
0.968, -1, -2.78846, 33.901, 12.9958, 7.31682, -60.5354, -6.52765
0.972, -1, -2.72209, 33.843, 13.0281, 7.41617, -60.4329, -6.60275
0.976, -1, -2.65581, 33.7852, 13.0604, 7.51539, -60.3306, -6.67775
0.98, -1, -2.58963, 33.7274, 13.0926, 7.61447, -60.2284, -6.75265
0.984, -1, -2.52353, 33.6698, 13.1248, 7.71342, -60.1263, -6.82745
0.988, -1, -2.45752, 33.6122, 13.1569, 7.81223, -60.0244, -6.90214
0.992, -1, -2.3916, 33.5546, 13.189, 7.91091, -59.9226, -6.97674
0.996, -1, -2.32578, 33.4972, 13.221, 8.00945, -59.8209, -7.05123
1, -1, -2.26004, 33.4398, 13.253, 8.10786, -59.7194, -7.12562
1.004, -1, -2.19439, 33.3825, 13.285, 8.20613, -59.618, -7.19991
1.008, -1, -2.12884, 33.3253, 13.3169, 8.30427, -59.5168, -7.27409
1.012, -1, -2.06337, 33.2682, 13.3488, 8.40228, -59.4157, -7.34818
1.016, -1, -1.99799, 33.2111, 13.3806, 8.50015, -59.3147, -7.42216
1.02, -1, -1.9327, 33.1541, 13.4124, 8.59789, -59.2139, -7.49605
1.024, -1, -1.8675, 33.0972, 13.4441, 8.69549, -59.1132, -7.56983
1.027, -1, -1.80239, 33.0404, 13.4758, 8.79297, -59.0127, -7.64351
1.032, -1, -1.73736, 32.9837, 13.5075, 8.89031, -58.9123, -7.71709
1.036, -1, -1.67243, 32.927, 13.5391, 8.98751, -58.812, -7.79057
1.04, -1, -1.60758, 32.8704, 13.5706, 9.08458, -58.7119, -7.86395
1.044, -1, -1.54283, 32.8139, 13.6022, 9.18152, -58.6119, -7.93723
1.048, -1, -1.47816, 32.7574, 13.6336, 9.27833, -58.512, -8.01041
1.052, -1, -1.41358, 32.7011, 13.6651, 9.37501, -58.4123, -8.08349
1.055, -1, -1.34909, 32.6448, 13.6965, 9.47155, -58.3127, -8.15647
1.06, -1, -1.28468, 32.5886, 13.7278, 9.56796, -58.2132, -8.22935
1.064, -1, -1.22037, 32.5325, 13.7591, 9.66424, -58.1139, -8.30213
1.068, -1, -1.15614, 32.4764, 13.7904, 9.76039, -58.0147, -8.37481
1.072, -1, -1.092, 32.4204, 13.8216, 9.85641, -57.9157, -8.4474
1.076, -1, -1.02795, 32.3645, 13.8528, 9.95229, -57.8168, -8.51988
1.08, -1, -0.963982, 32.3087, 13.8839, 10.048, -57.718, -8.59226
1.084, -1, -0.900104, 32.253, 13.915, 10.1437, -57.6193, -8.66455
1.088, -1, -0.836313, 32.1973, 13.9461, 10.2392, -57.5208, -8.73674
1.091, -1, -0.772609, 32.1417, 13.9771, 10.3345, -57.4225, -8.80882
1.096, -1, -0.708992, 32.0862, 14.0081, 10.4298, -57.3242, -8.88081
1.1, -1, -0.645461, 32.0307, 14.039, 10.5249, -57.2261, -8.95271
1.104, -1, -0.582018, 31.9753, 14.0699, 10.6198, -57.1281, -9.0245
1.108, -1, -0.518661, 31.9201, 14.1007, 10.7147, -57.0303, -9.0962
1.112, -1, -0.45539, 31.8648, 14.1315, 10.8094, -56.9326, -9.16779
1.116, -1, -0.392205, 31.8097, 14.1623, 10.904, -56.835, -9.23929
1.119, -1, -0.329107, 31.7546, 14.193, 10.9984, -56.7376, -9.3107
1.124, -1, -0.266094, 31.6996, 14.2237, 11.0928, -56.6403, -9.382
1.128, -1, -0.203168, 31.6447, 14.2543, 11.187, -56.5431, -9.45321
1.132, -1, -0.140327, 31.5899, 14.2849, 11.281, -56.4461, -9.52432
1.136, -1, -0.0775713, 31.5351, 14.3154, 11.375, -56.3492, -9.59534
1.14, -1, -0.0149012, 31.4804, 14.346, 11.4688, -56.2524, -9.66626
1.144, -1, 0.0476836, 31.4258, 14.3764, 11.5625, -56.1557, -9.73708
1.147, -1, 0.110183, 31.3712, 14.4068, 11.6561, -56.0592, -9.8078
1.152, -1, 0.172598, 31.3168, 14.4372, 11.7495, -55.9628, -9.87843
1.156, -1, 0.234928, 31.2624, 14.4676, 11.8428, -55.8666, -9.94897
1.16, -1, 0.297173, 31.2081, 14.4979, 11.936, -55.7705, -10.0194
1.164, -1, 0.359334, 31.1538, 14.5281, 12.029, -55.6745, -10.0897
1.168, -1, 0.42141, 31.0996, 14.5583, 12.122, -55.5786, -10.16
1.172, -1, 0.483402, 31.0455, 14.5885, 12.2148, -55.4829, -10.2301
1.175, -1, 0.54531, 30.9915, 14.6187, 12.3074, -55.3873, -10.3002
1.18, -1, 0.607133, 30.9376, 14.6488, 12.4, -55.2918, -10.3702
1.184, -1, 0.668873, 30.8837, 14.6788, 12.4924, -55.1965, -10.44
1.188, -1, 0.73053, 30.8299, 14.7088, 12.5847, -55.1013, -10.5098
1.192, -1, 0.792102, 30.7761, 14.7388, 12.6769, -55.0062, -10.5795
1.196, -1, 0.853591, 30.7225, 14.7687, 12.7689, -54.9112, -10.649
1.2, -1, 0.914997, 30.6689, 14.7986, 12.8608, -54.8164, -10.7185
1.204, -1, 0.97632, 30.6154, 14.8285, 12.9526, -54.7217, -10.7879
1.208, -1, 1.03756, 30.5619, 14.8583, 13.0443, -54.6272, -10.8572
1.212, -1, 1.09872, 30.5085, 14.8881, 13.1359, -54.5327, -10.9264
1.216, -1, 1.15979, 30.4552, 14.9178, 13.2273, -54.4384, -10.9955
1.22, -1, 1.22079, 30.402, 14.9475, 13.3186, -54.3442, -11.0646
1.224, -1, 1.2817, 30.3489, 14.9771, 13.4098, -54.2502, -11.1335
1.228, -1, 1.34253, 30.2958, 15.0067, 13.5008, -54.1562, -11.2023
1.232, -1, 1.40328, 30.2428, 15.0363, 13.5918, -54.0624, -11.2711
1.236, -1, 1.46394, 30.1898, 15.0658, 13.6826, -53.9688, -11.3397
1.24, -1, 1.52453, 30.1369, 15.0953, 13.7733, -53.8752, -11.4083
1.244, -1, 1.58503, 30.0841, 15.1248, 13.8638, -53.7818, -11.4767
1.248, -1, 1.64545, 30.0314, 15.1542, 13.9543, -53.6885, -11.5451
1.252, -1, 1.7058, 29.9788, 15.1836, 14.0446, -53.5953, -11.6134
1.256, -1, 1.76606, 29.9262, 15.2129, 14.1348, -53.5022, -11.6816
1.26, -1, 1.82624, 29.8736, 15.2422, 14.2249, -53.4093, -11.7497
1.264, -1, 1.88635, 29.8212, 15.2715, 14.3149, -53.3165, -11.8177
1.267, -1, 1.94637, 29.7688, 15.3007, 14.4047, -53.2238, -11.8856
1.272, -1, 2.00631, 29.7165, 15.3298, 14.4944, -53.1313, -11.9534
1.276, -1, 2.06617, 29.6643, 15.359, 14.584, -53.0388, -12.0212
1.28, -1, 2.12596, 29.6121, 15.3881, 14.6735, -52.9465, -12.0888
1.284, -1, 2.18567, 29.56, 15.4172, 14.7629, -52.8543, -12.1564
1.288, -1, 2.24529, 29.5079, 15.4462, 14.8522, -52.7623, -12.2238
1.292, -1, 2.30484, 29.456, 15.4752, 14.9413, -52.6703, -12.2912
1.295, -1, 2.36431, 29.4041, 15.5041, 15.0303, -52.5785, -12.3585
1.3, -1, 2.42371, 29.3523, 15.533, 15.1192, -52.4868, -12.4257
1.304, -1, 2.48302, 29.3005, 15.5619, 15.208, -52.3952, -12.4928
1.308, -1, 2.54226, 29.2488, 15.5907, 15.2967, -52.3037, -12.5599
1.312, -1, 2.60142, 29.1972, 15.6195, 15.3853, -52.2123, -12.6268
1.316, -1, 2.66051, 29.1456, 15.6483, 15.4737, -52.1211, -12.6937
1.32, -1, 2.71952, 29.0941, 15.677, 15.562, -52.03, -12.7604
1.324, -1, 2.77845, 29.0427, 15.7057, 15.6502, -51.939, -12.8271
1.328, -1, 2.83731, 28.9913, 15.7344, 15.7383, -51.8481, -12.8937
1.332, -1, 2.89609, 28.94, 15.763, 15.8263, -51.7573, -12.9602
1.336, -1, 2.95479, 28.8888, 15.7915, 15.9142, -51.6667, -13.0267
1.34, -1, 3.01342, 28.8376, 15.8201, 16.002, -51.5762, -13.093
1.344, -1, 3.07198, 28.7865, 15.8486, 16.0896, -51.4857, -13.1593
1.348, -1, 3.13046, 28.7355, 15.8771, 16.1772, -51.3954, -13.2254
1.352, -1, 3.18887, 28.6845, 15.9055, 16.2646, -51.3053, -13.2915
1.356, -1, 3.2472, 28.6336, 15.9339, 16.3519, -51.2152, -13.3575
1.36, -1, 3.30545, 28.5828, 15.9622, 16.4391, -51.1252, -13.4235
1.364, -1, 3.36364, 28.532, 15.9906, 16.5262, -51.0354, -13.4893
1.368, -1, 3.42175, 28.4813, 16.0189, 16.6132, -50.9457, -13.5551
1.372, -1, 3.47978, 28.4306, 16.0471, 16.7001, -50.856, -13.6207
1.376, -1, 3.53775, 28.38, 16.0753, 16.7868, -50.7665, -13.6863
1.38, -1, 3.59564, 28.3295, 16.1035, 16.8735, -50.6771, -13.7518
1.384, -1, 3.65346, 28.2791, 16.1316, 16.96, -50.5879, -13.8172
1.388, -1, 3.7112, 28.2287, 16.1598, 17.0465, -50.4987, -13.8826
1.392, -1, 3.76887, 28.1783, 16.1878, 17.1328, -50.4096, -13.9478
1.396, -1, 3.82648, 28.1281, 16.2159, 17.219, -50.3207, -14.013
1.4, -1, 3.884, 28.0779, 16.2439, 17.3052, -50.2319, -14.0781
1.404, -1, 3.94146, 28.0277, 16.2718, 17.3912, -50.1431, -14.1431
1.408, -1, 3.99885, 27.9776, 16.2998, 17.4771, -50.0545, -14.2081
1.412, -1, 4.05616, 27.9276, 16.3277, 17.5629, -49.966, -14.2729
1.416, -1, 4.11341, 27.8777, 16.3555, 17.6485, -49.8776, -14.3377
1.42, -1, 4.17058, 27.8278, 16.3834, 17.7341, -49.7893, -14.4024
1.424, -1, 4.22768, 27.7779, 16.4112, 17.8196, -49.7012, -14.467
1.428, -1, 4.28471, 27.7282, 16.4389, 17.905, -49.6131, -14.5315
1.432, -1, 4.34168, 27.6785, 16.4667, 17.9902, -49.5251, -14.596
1.436, -1, 4.39857, 27.6288, 16.4944, 18.0754, -49.4373, -14.6604
1.44, -1, 4.45539, 27.5792, 16.522, 18.1605, -49.3495, -14.7247
1.444, -1, 4.51214, 27.5297, 16.5496, 18.2454, -49.2619, -14.7889
1.448, -1, 4.56883, 27.4802, 16.5772, 18.3303, -49.1744, -14.853
1.452, -1, 4.62544, 27.4308, 16.6048, 18.415, -49.087, -14.9171
1.456, -1, 4.68199, 27.3815, 16.6323, 18.4997, -48.9996, -14.9811
1.46, -1, 4.73846, 27.3322, 16.6598, 18.5842, -48.9124, -15.045
1.464, -1, 4.79487, 27.283, 16.6873, 18.6686, -48.8253, -15.1088
1.468, -1, 4.85121, 27.2338, 16.7147, 18.753, -48.7383, -15.1726
1.472, -1, 4.90749, 27.1847, 16.7421, 18.8372, -48.6514, -15.2363
1.476, -1, 4.96369, 27.1356, 16.7694, 18.9214, -48.5647, -15.2999
1.48, -1, 5.01983, 27.0866, 16.7968, 19.0054, -48.478, -15.3634
1.484, -1, 5.0759, 27.0377, 16.8241, 19.0893, -48.3914, -15.4268
1.488, -1, 5.1319, 26.9888, 16.8513, 19.1732, -48.3049, -15.4902
1.492, -1, 5.18783, 26.94, 16.8786, 19.2569, -48.2185, -15.5535
1.496, -1, 5.2437, 26.8913, 16.9058, 19.3405, -48.1323, -15.6167
1.5, -1, 5.2995, 26.8426, 16.9329, 19.424, -48.0461, -15.6798
1.504, -1, 5.35524, 26.7939, 16.96, 19.5075, -47.96, -15.7429
1.508, -1, 5.41091, 26.7453, 16.9871, 19.5908, -47.8741, -15.8059
1.512, -1, 5.46651, 26.6968, 17.0142, 19.674, -47.7882, -15.8688
1.516, -1, 5.52205, 26.6484, 17.0412, 19.7572, -47.7025, -15.9317
1.52, -1, 5.57752, 26.5999, 17.0682, 19.8402, -47.6168, -15.9944
1.524, -1, 5.63292, 26.5516, 17.0952, 19.9232, -47.5312, -16.0571
1.528, -1, 5.68826, 26.5033, 17.1222, 20.006, -47.4458, -16.1198
1.532, -1, 5.74354, 26.4551, 17.1491, 20.0887, -47.3604, -16.1823
1.536, -1, 5.79875, 26.4069, 17.1759, 20.1714, -47.2752, -16.2448
1.54, -1, 5.85389, 26.3587, 17.2028, 20.2539, -47.19, -16.3072
1.544, -1, 5.90897, 26.3107, 17.2296, 20.3364, -47.105, -16.3695
1.548, -1, 5.96399, 26.2627, 17.2564, 20.4187, -47.02, -16.4318
1.552, -1, 6.01894, 26.2147, 17.2831, 20.501, -46.9352, -16.494
1.556, -1, 6.07383, 26.1668, 17.3099, 20.5832, -46.8504, -16.5561
1.56, -1, 6.12866, 26.119, 17.3365, 20.6652, -46.7657, -16.6181
1.564, -1, 6.18342, 26.0712, 17.3632, 20.7472, -46.6812, -16.6801
1.568, -1, 6.23812, 26.0234, 17.3898, 20.8291, -46.5967, -16.742
1.572, -1, 6.29276, 25.9758, 17.4164, 20.9109, -46.5123, -16.8038
1.576, -1, 6.34733, 25.9281, 17.443, 20.9926, -46.4281, -16.8655
1.58, -1, 6.40184, 25.8806, 17.4695, 21.0742, -46.3439, -16.9272
1.584, -1, 6.45629, 25.833, 17.496, 21.1557, -46.2598, -16.9888
1.588, -1, 6.51068, 25.7856, 17.5225, 21.2371, -46.1758, -17.0504
1.592, -1, 6.565, 25.7382, 17.5489, 21.3184, -46.092, -17.1118
1.596, -1, 6.61926, 25.6908, 17.5754, 21.3996, -46.0082, -17.1732
1.6, -1, 6.67346, 25.6435, 17.6017, 21.4807, -45.9245, -17.2346
1.604, -1, 6.7276, 25.5963, 17.6281, 21.5618, -45.8409, -17.2958
1.608, -1, 6.78168, 25.5491, 17.6544, 21.6427, -45.7574, -17.357
1.612, -1, 6.8357, 25.502, 17.6807, 21.7236, -45.674, -17.4181
1.616, -1, 6.88965, 25.4549, 17.707, 21.8043, -45.5907, -17.4792
1.62, -1, 6.94354, 25.4078, 17.7332, 21.885, -45.5075, -17.5402
1.624, -1, 6.99738, 25.3609, 17.7594, 21.9656, -45.4244, -17.6011
1.628, -1, 7.05115, 25.3139, 17.7856, 22.0461, -45.3413, -17.6619
1.632, -1, 7.10486, 25.2671, 17.8117, 22.1265, -45.2584, -17.7227
1.636, -1, 7.15851, 25.2203, 17.8378, 22.2068, -45.1755, -17.7834
1.64, -1, 7.21211, 25.1735, 17.8639, 22.287, -45.0928, -17.844
1.644, -1, 7.26564, 25.1268, 17.89, 22.3671, -45.0101, -17.9046
1.648, -1, 7.31911, 25.0801, 17.916, 22.4472, -44.9276, -17.9651
1.652, -1, 7.37253, 25.0335, 17.942, 22.5271, -44.8451, -18.0255
1.656, -1, 7.42588, 24.9869, 17.968, 22.607, -44.7627, -18.0859
1.66, -1, 7.47918, 24.9404, 17.9939, 22.6867, -44.6804, -18.1462
1.664, -1, 7.53241, 24.894, 18.0198, 22.7664, -44.5982, -18.2065
1.668, -1, 7.58559, 24.8476, 18.0457, 22.846, -44.5161, -18.2666
1.672, -1, 7.63871, 24.8012, 18.0716, 22.9255, -44.4341, -18.3267
1.676, -1, 7.69177, 24.7549, 18.0974, 23.005, -44.3522, -18.3868
1.68, -1, 7.74478, 24.7087, 18.1232, 23.0843, -44.2703, -18.4467
1.684, -1, 7.79772, 24.6625, 18.149, 23.1636, -44.1886, -18.5067
1.688, -1, 7.85061, 24.6163, 18.1747, 23.2427, -44.1069, -18.5665
1.692, -1, 7.90344, 24.5702, 18.2004, 23.3218, -44.0253, -18.6263
1.696, -1, 7.95622, 24.5242, 18.2261, 23.4008, -43.9439, -18.686
1.7, -1, 8.00894, 24.4782, 18.2518, 23.4797, -43.8624, -18.7456
1.704, -1, 8.0616, 24.4322, 18.2774, 23.5585, -43.7811, -18.8052
1.708, -1, 8.1142, 24.3863, 18.303, 23.6373, -43.6999, -18.8648
1.712, -1, 8.16675, 24.3404, 18.3286, 23.7159, -43.6188, -18.9242
1.716, -1, 8.21924, 24.2946, 18.3542, 23.7945, -43.5377, -18.9836
1.72, -1, 8.27168, 24.2489, 18.3797, 23.873, -43.4567, -19.0429
1.724, -1, 8.32406, 24.2032, 18.4052, 23.9514, -43.3759, -19.1022
1.728, -1, 8.37639, 24.1575, 18.4306, 24.0297, -43.2951, -19.1614
1.732, -1, 8.42866, 24.1119, 18.4561, 24.108, -43.2144, -19.2206
1.736, -1, 8.48087, 24.0663, 18.4815, 24.1861, -43.1337, -19.2796
1.74, -1, 8.53303, 24.0208, 18.5069, 24.2642, -43.0532, -19.3387
1.744, -1, 8.58514, 23.9753, 18.5323, 24.3422, -42.9727, -19.3976
1.748, -1, 8.63719, 23.9299, 18.5576, 24.4201, -42.8924, -19.4565
1.752, -1, 8.68919, 23.8845, 18.5829, 24.4979, -42.8121, -19.5154
1.756, -1, 8.74113, 23.8392, 18.6082, 24.5757, -42.7319, -19.5741
1.76, -1, 8.79302, 23.7939, 18.6334, 24.6534, -42.6518, -19.6328
1.764, -1, 8.84485, 23.7487, 18.6587, 24.731, -42.5717, -19.6915
1.768, -1, 8.89663, 23.7035, 18.6839, 24.8085, -42.4918, -19.7501
1.772, -1, 8.94836, 23.6584, 18.7091, 24.8859, -42.4119, -19.8086
1.776, -1, 9.00004, 23.6133, 18.7342, 24.9632, -42.3321, -19.8671
1.78, -1, 9.05166, 23.5682, 18.7593, 25.0405, -42.2524, -19.9255
1.784, -1, 9.10323, 23.5232, 18.7845, 25.1177, -42.1728, -19.9839
1.788, -1, 9.15475, 23.4783, 18.8095, 25.1948, -42.0932, -20.0421
1.792, -1, 9.20621, 23.4333, 18.8346, 25.2719, -42.0137, -20.1004
1.796, -1, 9.25762, 23.3885, 18.8596, 25.3488, -41.9344, -20.1586
1.8, -1, 9.30898, 23.3437, 18.8846, 25.4257, -41.8551, -20.2167
1.804, -1, 9.36029, 23.2989, 18.9096, 25.5025, -41.7758, -20.2747
1.808, -1, 9.41155, 23.2542, 18.9345, 25.5792, -41.6967, -20.3327
1.812, -1, 9.46275, 23.2095, 18.9595, 25.6559, -41.6176, -20.3907
1.816, -1, 9.51391, 23.1648, 18.9844, 25.7324, -41.5386, -20.4485
1.82, -1, 9.56501, 23.1202, 19.0092, 25.8089, -41.4597, -20.5064
1.824, -1, 9.61606, 23.0757, 19.0341, 25.8853, -41.3809, -20.5641
1.828, -1, 9.66706, 23.0312, 19.0589, 25.9617, -41.3021, -20.6218
1.832, -1, 9.71801, 22.9867, 19.0837, 26.038, -41.2235, -20.6795
1.836, -1, 9.76891, 22.9423, 19.1085, 26.1141, -41.1449, -20.7371
1.84, -1, 9.81976, 22.8979, 19.1332, 26.1903, -41.0664, -20.7946
1.844, -1, 9.87056, 22.8536, 19.158, 26.2663, -40.9879, -20.8521
1.848, -1, 9.92131, 22.8093, 19.1827, 26.3423, -40.9096, -20.9095
1.852, -1, 9.97201, 22.7651, 19.2073, 26.4181, -40.8313, -20.9669
1.856, -1, 10.0227, 22.7209, 19.232, 26.494, -40.7531, -21.0242
1.86, -1, 10.0733, 22.6767, 19.2566, 26.5697, -40.6749, -21.0815
1.864, -1, 10.1238, 22.6326, 19.2812, 26.6454, -40.5969, -21.1387
1.868, -1, 10.1743, 22.5885, 19.3058, 26.721, -40.5189, -21.1958
1.872, -1, 10.2248, 22.5445, 19.3304, 26.7965, -40.441, -21.2529
1.876, -1, 10.2752, 22.5005, 19.3549, 26.8719, -40.3632, -21.3099
1.88, -1, 10.3255, 22.4566, 19.3794, 26.9473, -40.2854, -21.3669
1.884, -1, 10.3758, 22.4127, 19.4039, 27.0226, -40.2078, -21.4238
1.888, -1, 10.4261, 22.3688, 19.4284, 27.0978, -40.1301, -21.4807
1.892, -1, 10.4763, 22.325, 19.4528, 27.173, -40.0526, -21.5375
1.896, -1, 10.5265, 22.2812, 19.4772, 27.2481, -39.9752, -21.5943
1.9, -1, 10.5766, 22.2375, 19.5016, 27.3231, -39.8978, -21.651
1.904, -1, 10.6266, 22.1938, 19.526, 27.398, -39.8205, -21.7076
1.908, -1, 10.6767, 22.1502, 19.5503, 27.4729, -39.7432, -21.7642
1.912, -1, 10.7266, 22.1066, 19.5747, 27.5477, -39.6661, -21.8207
1.916, -1, 10.7765, 22.063, 19.599, 27.6224, -39.589, -21.8772
1.92, -1, 10.8264, 22.0195, 19.6232, 27.6971, -39.512, -21.9337
1.924, -1, 10.8763, 21.976, 19.6475, 27.7717, -39.4351, -21.9901
1.928, -1, 10.926, 21.9325, 19.6717, 27.8462, -39.3582, -22.0464
1.932, -1, 10.9758, 21.8891, 19.6959, 27.9206, -39.2814, -22.1027
1.936, -1, 11.0255, 21.8458, 19.7201, 27.995, -39.2047, -22.1589
1.94, -1, 11.0751, 21.8025, 19.7443, 28.0693, -39.128, -22.215
1.944, -1, 11.1247, 21.7592, 19.7684, 28.1435, -39.0514, -22.2712
1.948, -1, 11.1742, 21.7159, 19.7926, 28.2177, -38.9749, -22.3272
1.952, -1, 11.2237, 21.6727, 19.8166, 28.2918, -38.8985, -22.3832
1.956, -1, 11.2732, 21.6296, 19.8407, 28.3658, -38.8221, -22.4392
1.96, -1, 11.3226, 21.5865, 19.8648, 28.4398, -38.7458, -22.4951
1.964, -1, 11.372, 21.5434, 19.8888, 28.5137, -38.6696, -22.551
1.968, -1, 11.4213, 21.5004, 19.9128, 28.5875, -38.5935, -22.6068
1.972, -1, 11.4706, 21.4574, 19.9368, 28.6613, -38.5174, -22.6625
1.976, -1, 11.5198, 21.4144, 19.9608, 28.735, -38.4414, -22.7182
1.98, -1, 11.569, 21.3715, 19.9847, 28.8086, -38.3654, -22.7739
1.984, -1, 11.6181, 21.3286, 20.0086, 28.8821, -38.2895, -22.8295
1.988, -1, 11.6672, 21.2858, 20.0325, 28.9556, -38.2137, -22.885
1.992, -1, 11.7163, 21.2429, 20.0564, 29.029, -38.138, -22.9405
1.996, -1, 11.7653, 21.2002, 20.0802, 29.1024, -38.0623, -22.996
1.999, -1, 11.8142, 21.1575, 20.1041, 29.1757, -37.9867, -23.0514
2.004, -1, 11.8631, 21.1148, 20.1279, 29.2489, -37.9112, -23.1067
2.008, -1, 11.912, 21.0721, 20.1517, 29.3221, -37.8357, -23.162
2.012, -1, 11.9608, 21.0295, 20.1754, 29.3952, -37.7603, -23.2173
2.015, -1, 12.0096, 20.9869, 20.1992, 29.4682, -37.685, -23.2725
2.019, -1, 12.0584, 20.9444, 20.2229, 29.5411, -37.6097, -23.3276
2.024, -1, 12.1071, 20.9019, 20.2466, 29.614, -37.5345, -23.3827
2.028, -1, 12.1557, 20.8595, 20.2703, 29.6869, -37.4594, -23.4378
2.031, -1, 12.2043, 20.817, 20.294, 29.7596, -37.3844, -23.4928
2.036, -1, 12.2529, 20.7747, 20.3176, 29.8323, -37.3094, -23.5478
2.04, -1, 12.3014, 20.7323, 20.3412, 29.905, -37.2344, -23.6027
2.044, -1, 12.3499, 20.69, 20.3648, 29.9775, -37.1596, -23.6575
2.048, -1, 12.3983, 20.6477, 20.3884, 30.05, -37.0848, -23.7123
2.051, -1, 12.4467, 20.6055, 20.412, 30.1225, -37.0101, -23.7671
2.055, -1, 12.4951, 20.5633, 20.4355, 30.1948, -36.9354, -23.8218
2.06, -1, 12.5434, 20.5211, 20.459, 30.2672, -36.8608, -23.8765
2.064, -1, 12.5917, 20.479, 20.4825, 30.3394, -36.7863, -23.9311
2.068, -1, 12.6399, 20.4369, 20.506, 30.4116, -36.7118, -23.9857
2.071, -1, 12.6881, 20.3949, 20.5294, 30.4837, -36.6374, -24.0402
2.076, -1, 12.7362, 20.3529, 20.5529, 30.5558, -36.5631, -24.0947
2.08, -1, 12.7843, 20.3109, 20.5763, 30.6278, -36.4888, -24.1491
2.084, -1, 12.8324, 20.269, 20.5997, 30.6997, -36.4146, -24.2035
2.087, -1, 12.8804, 20.2271, 20.6231, 30.7716, -36.3404, -24.2578
2.092, -1, 12.9284, 20.1852, 20.6464, 30.8434, -36.2663, -24.3121
2.096, -1, 12.9763, 20.1434, 20.6698, 30.9152, -36.1923, -24.3663
2.1, -1, 13.0242, 20.1016, 20.6931, 30.9869, -36.1184, -24.4205
2.104, -1, 13.0721, 20.0598, 20.7164, 31.0585, -36.0445, -24.4747
2.107, -1, 13.1199, 20.0181, 20.7396, 31.1301, -35.9706, -24.5288
2.111, -1, 13.1676, 19.9764, 20.7629, 31.2016, -35.8969, -24.5828
2.116, -1, 13.2154, 19.9347, 20.7861, 31.273, -35.8232, -24.6368
2.12, -1, 13.2631, 19.8931, 20.8093, 31.3444, -35.7495, -24.6908
2.124, -1, 13.3107, 19.8515, 20.8325, 31.4158, -35.6759, -24.7447
2.127, -1, 13.3583, 19.81, 20.8557, 31.487, -35.6024, -24.7986
2.132, -1, 13.4059, 19.7685, 20.8789, 31.5583, -35.529, -24.8524
2.136, -1, 13.4534, 19.727, 20.902, 31.6294, -35.4556, -24.9062
2.14, -1, 13.5009, 19.6855, 20.9251, 31.7005, -35.3822, -24.96
2.143, -1, 13.5484, 19.6441, 20.9482, 31.7715, -35.3089, -25.0137
2.148, -1, 13.5958, 19.6027, 20.9713, 31.8425, -35.2357, -25.0673
2.152, -1, 13.6432, 19.5614, 20.9944, 31.9134, -35.1626, -25.1209
2.156, -1, 13.6905, 19.5201, 21.0174, 31.9843, -35.0895, -25.1745
2.16, -1, 13.7378, 19.4788, 21.0404, 32.0551, -35.0164, -25.228
2.163, -1, 13.7851, 19.4376, 21.0634, 32.1258, -34.9435, -25.2815
2.168, -1, 13.8323, 19.3963, 21.0864, 32.1965, -34.8705, -25.3349
2.172, -1, 13.8795, 19.3552, 21.1094, 32.2672, -34.7977, -25.3883
2.176, -1, 13.9266, 19.314, 21.1324, 32.3377, -34.7249, -25.4417
2.179, -1, 13.9737, 19.2729, 21.1553, 32.4082, -34.6521, -25.495
2.184, -1, 14.0208, 19.2318, 21.1782, 32.4787, -34.5795, -25.5482
2.188, -1, 14.0678, 19.1908, 21.2011, 32.5491, -34.5068, -25.6015
2.192, -1, 14.1148, 19.1498, 21.224, 32.6194, -34.4343, -25.6546
2.196, -1, 14.1618, 19.1088, 21.2468, 32.6897, -34.3618, -25.7078
2.199, -1, 14.2087, 19.0679, 21.2697, 32.76, -34.2893, -25.7609
2.204, -1, 14.2556, 19.027, 21.2925, 32.8301, -34.2169, -25.8139
2.208, -1, 14.3024, 18.9861, 21.3153, 32.9003, -34.1446, -25.8669
2.212, -1, 14.3492, 18.9452, 21.3381, 32.9703, -34.0723, -25.9199
2.216, -1, 14.396, 18.9044, 21.3608, 33.0403, -34.0001, -25.9728
2.219, -1, 14.4427, 18.8636, 21.3836, 33.1103, -33.9279, -26.0257
2.224, -1, 14.4894, 18.8229, 21.4063, 33.1802, -33.8558, -26.0785
2.228, -1, 14.5361, 18.7822, 21.429, 33.25, -33.7838, -26.1313
2.232, -1, 14.5827, 18.7415, 21.4517, 33.3198, -33.7118, -26.1841
2.235, -1, 14.6293, 18.7008, 21.4744, 33.3896, -33.6399, -26.2368
2.24, -1, 14.6758, 18.6602, 21.4971, 33.4592, -33.568, -26.2894
2.244, -1, 14.7223, 18.6196, 21.5197, 33.5289, -33.4962, -26.3421
2.248, -1, 14.7688, 18.5791, 21.5423, 33.5984, -33.4244, -26.3947
2.252, -1, 14.8153, 18.5385, 21.5649, 33.6679, -33.3527, -26.4472
2.255, -1, 14.8617, 18.498, 21.5875, 33.7374, -33.281, -26.4997
2.259, -1, 14.908, 18.4576, 21.6101, 33.8068, -33.2094, -26.5522
2.264, -1, 14.9544, 18.4171, 21.6326, 33.8762, -33.1379, -26.6046
2.268, -1, 15.0007, 18.3767, 21.6552, 33.9455, -33.0664, -26.657
2.272, -1, 15.0469, 18.3364, 21.6777, 34.0147, -32.995, -26.7094
2.275, -1, 15.0931, 18.296, 21.7002, 34.0839, -32.9236, -26.7617
2.28, -1, 15.1393, 18.2557, 21.7227, 34.1531, -32.8522, -26.8139
2.284, -1, 15.1855, 18.2154, 21.7452, 34.2222, -32.781, -26.8662
2.288, -1, 15.2316, 18.1752, 21.7676, 34.2912, -32.7098, -26.9184
2.291, -1, 15.2777, 18.135, 21.79, 34.3602, -32.6386, -26.9705
2.296, -1, 15.3237, 18.0948, 21.8125, 34.4291, -32.5675, -27.0226
2.3, -1, 15.3698, 18.0546, 21.8349, 34.498, -32.4964, -27.0747
2.304, -1, 15.4157, 18.0145, 21.8572, 34.5668, -32.4254, -27.1267
2.308, -1, 15.4617, 17.9744, 21.8796, 34.6356, -32.3545, -27.1787
2.311, -1, 15.5076, 17.9343, 21.902, 34.7044, -32.2836, -27.2307
2.316, -1, 15.5535, 17.8943, 21.9243, 34.773, -32.2127, -27.2826
2.32, -1, 15.5993, 17.8543, 21.9466, 34.8417, -32.1419, -27.3345
2.324, -1, 15.6451, 17.8143, 21.9689, 34.9102, -32.0712, -27.3863
2.328, -1, 15.6909, 17.7744, 21.9912, 34.9788, -32.0005, -27.4381
2.331, -1, 15.7367, 17.7344, 22.0135, 35.0472, -31.9299, -27.4899
2.336, -1, 15.7824, 17.6945, 22.0357, 35.1157, -31.8593, -27.5416
2.34, -1, 15.828, 17.6547, 22.0579, 35.184, -31.7888, -27.5933
2.344, -1, 15.8737, 17.6149, 22.0802, 35.2523, -31.7183, -27.6449
2.347, -1, 15.9193, 17.5751, 22.1024, 35.3206, -31.6479, -27.6965
2.352, -1, 15.9649, 17.5353, 22.1246, 35.3888, -31.5775, -27.7481
2.356, -1, 16.0104, 17.4955, 22.1467, 35.457, -31.5072, -27.7996
2.36, -1, 16.0559, 17.4558, 22.1689, 35.5251, -31.4369, -27.8511
2.364, -1, 16.1014, 17.4161, 22.191, 35.5932, -31.3667, -27.9026
2.367, -1, 16.1468, 17.3765, 22.2131, 35.6612, -31.2965, -27.954
2.372, -1, 16.1922, 17.3369, 22.2352, 35.7292, -31.2264, -28.0054
2.376, -1, 16.2376, 17.2972, 22.2573, 35.7971, -31.1563, -28.0567
2.38, -1, 16.283, 17.2577, 22.2794, 35.865, -31.0863, -28.1081
2.383, -1, 16.3283, 17.2181, 22.3015, 35.9328, -31.0163, -28.1593
2.388, -1, 16.3735, 17.1786, 22.3235, 36.0006, -30.9464, -28.2106
2.392, -1, 16.4188, 17.1391, 22.3455, 36.0684, -30.8765, -28.2618
2.396, -1, 16.464, 17.0997, 22.3675, 36.136, -30.8067, -28.3129
2.4, -1, 16.5092, 17.0602, 22.3895, 36.2037, -30.7369, -28.3641
2.403, -1, 16.5543, 17.0208, 22.4115, 36.2713, -30.6672, -28.4151
2.408, -1, 16.5995, 16.9815, 22.4335, 36.3388, -30.5975, -28.4662
2.412, -1, 16.6445, 16.9421, 22.4554, 36.4063, -30.5279, -28.5172
2.416, -1, 16.6896, 16.9028, 22.4774, 36.4737, -30.4583, -28.5682
2.42, -1, 16.7346, 16.8635, 22.4993, 36.5411, -30.3888, -28.6192
2.423, -1, 16.7796, 16.8242, 22.5212, 36.6085, -30.3193, -28.6701
2.428, -1, 16.8246, 16.785, 22.5431, 36.6758, -30.2499, -28.7209
2.432, -1, 16.8695, 16.7458, 22.5649, 36.7431, -30.1805, -28.7718
2.436, -1, 16.9144, 16.7066, 22.5868, 36.8103, -30.1112, -28.8226
2.439, -1, 16.9593, 16.6675, 22.6086, 36.8774, -30.0419, -28.8734
2.444, -1, 17.0041, 16.6283, 22.6305, 36.9445, -29.9727, -28.9241
2.448, -1, 17.0489, 16.5892, 22.6523, 37.0116, -29.9035, -28.9748
2.452, -1, 17.0937, 16.5502, 22.6741, 37.0786, -29.8344, -29.0255
2.456, -1, 17.1382, 16.5112, 22.6958, 37.1456, -29.7653, -29.0761
2.459, -1, 17.1825, 16.4724, 22.7175, 37.2125, -29.6962, -29.1267
2.464, -1, 17.2262, 16.434, 22.7391, 37.2794, -29.6273, -29.1772
2.468, -1, 17.2691, 16.3961, 22.7605, 37.346, -29.5586, -29.2276
2.472, -1, 17.311, 16.3588, 22.7817, 37.4124, -29.4901, -29.2778
2.476, -1, 17.3517, 16.3225, 22.8026, 37.4784, -29.4221, -29.3277
2.479, -1, 17.3912, 16.2871, 22.8231, 37.5437, -29.3548, -29.3771
2.484, -1, 17.4295, 16.253, 22.8431, 37.608, -29.2885, -29.4257
2.488, -1, 17.4665, 16.2202, 22.8626, 37.671, -29.2236, -29.4734
2.492, -1, 17.5021, 16.1888, 22.8815, 37.7323, -29.1605, -29.5197
2.495, -1, 17.5362, 16.1591, 22.8996, 37.7914, -29.0996, -29.5644
2.5, -1, 17.5687, 16.1312, 22.9169, 37.848, -29.0413, -29.6072
2.504, -1, 17.5994, 16.105, 22.9332, 37.9015, -28.9862, -29.6477
2.508, -1, 17.6283, 16.0805, 22.9486, 37.9516, -28.9346, -29.6856
2.512, -1, 17.6555, 16.0574, 22.9628, 37.9978, -28.887, -29.7205
2.515, -1, 17.6812, 16.0355, 22.9759, 38.0399, -28.8436, -29.7524
2.52, -1, 17.7053, 16.0146, 22.988, 38.0776, -28.8048, -29.7809
2.524, -1, 17.7278, 15.9948, 22.9989, 38.1108, -28.7704, -29.806
2.528, -1, 17.7489, 15.976, 23.0086, 38.1396, -28.7407, -29.8278
2.531, -1, 17.7682, 15.9585, 23.0172, 38.1642, -28.7153, -29.8463
2.536, -1, 17.7858, 15.9425, 23.0247, 38.1847, -28.6941, -29.8618
2.54, -1, 17.8015, 15.9283, 23.0311, 38.2015, -28.6766, -29.8745
2.544, -1, 17.8154, 15.9158, 23.0365, 38.2151, -28.6626, -29.8847
2.548, -1, 17.8278, 15.905, 23.041, 38.2257, -28.6516, -29.8927
2.551, -1, 17.8387, 15.8958, 23.0447, 38.2338, -28.6431, -29.8988
2.556, -1, 17.8481, 15.8883, 23.0477, 38.2399, -28.6368, -29.9034
2.56, -1, 17.8562, 15.8821, 23.0501, 38.2443, -28.6322, -29.9067
2.564, -1, 17.8629, 15.8772, 23.0519, 38.2474, -28.6288, -29.909
2.568, -1, 17.8682, 15.8735, 23.0532, 38.2496, -28.6265, -29.9107
2.571, 2, 17.8723, 15.8707, 23.0542, 38.2512, -28.6249, -29.9118
2.576, 2, 17.8752, 15.8687, 23.0549, 38.2522, -28.6238, -29.9126
2.58, 2, 17.8773, 15.8674, 23.0554, 38.2529, -28.6231, -29.9131
2.584, 2, 17.8786, 15.8665, 23.0557, 38.2534, -28.6226, -29.9135
2.587, 2, 17.8796, 15.8659, 23.0559, 38.2537, -28.6222, -29.9137
2.592, 2, 17.8802, 15.8654, 23.0561, 38.2539, -28.622, -29.9139
2.596, 2, 17.8807, 15.8651, 23.0562, 38.2541, -28.6218, -29.914
2.6, 2, 17.881, 15.865, 23.0562, 38.2542, -28.6217, -29.9141
2.604, 2, 17.8812, 15.8648, 23.0563, 38.2542, -28.6217, -29.9141
2.607, 2, 17.8813, 15.8647, 23.0563, 38.2543, -28.6216, -29.9142
2.612, 2, 17.8814, 15.8647, 23.0563, 38.2543, -28.6216, -29.9142
2.616, 2, 17.8814, 15.8646, 23.0564, 38.2543, -28.6216, -29.9142
2.62, 2, 17.8815, 15.8646, 23.0564, 38.2543, -28.6215, -29.9142
2.624, 2, 17.8815, 15.8646, 23.0564, 38.2543, -28.6215, -29.9142
2.627, 2, 17.8815, 15.8646, 23.0564, 38.2544, -28.6215, -29.9142
2.632, 2, 17.8815, 15.8646, 23.0564, 38.2544, -28.6215, -29.9142
2.636, 2, 17.8816, 15.8646, 23.0564, 38.2544, -28.6215, -29.9142
2.64, 2, 17.8816, 15.8646, 23.0564, 38.2544, -28.6215, -29.9142
2.643, 2, 17.8816, 15.8646, 23.0564, 38.2544, -28.6215, -29.9142
2.648, 2, 17.8816, 15.8646, 23.0564, 38.2544, -28.6215, -29.9142
2.652, 2, 17.8816, 15.8646, 23.0564, 38.2544, -28.6215, -29.9142
2.656, 2, 17.8816, 15.8646, 23.0564, 38.2544, -28.6215, -29.9142
2.66, 2, 17.8816, 15.8645, 23.0564, 38.2544, -28.6215, -29.9142
2.663, 2, 17.8816, 15.8645, 23.0564, 38.2544, -28.6215, -29.9142
2.668, 2, 17.8816, 15.8645, 23.0564, 38.2544, -28.6215, -29.9142
2.672, 2, 17.8816, 15.8645, 23.0564, 38.2544, -28.6215, -29.9142
2.676, 2, 17.8816, 15.8645, 23.0564, 38.2544, -28.6215, -29.9142
2.679, 2, 17.8816, 15.8645, 23.0564, 38.2544, -28.6215, -29.9142
2.684, 2, 17.8816, 15.8645, 23.0564, 38.2544, -28.6215, -29.9142
2.688, 2, 17.8816, 15.8645, 23.0564, 38.2544, -28.6215, -29.9142
2.692, 2, 17.8816, 15.8645, 23.0564, 38.2544, -28.6215, -29.9142
2.696, 2, 17.8816, 15.8645, 23.0564, 38.2544, -28.6215, -29.9142
2.699, 2, 17.8816, 15.8645, 23.0564, 38.2544, -28.6215, -29.9142
2.704, 2, 17.8816, 15.8645, 23.0564, 38.2544, -28.6215, -29.9142
2.708, 2, 17.8816, 15.8645, 23.0564, 38.2544, -28.6215, -29.9142
2.712, 2, 17.8816, 15.8645, 23.0564, 38.2544, -28.6215, -29.9142
2.716, 2, 17.8816, 15.8645, 23.0564, 38.2544, -28.6215, -29.9142
2.719, 2, 17.8816, 15.8645, 23.0564, 38.2544, -28.6215, -29.9142
2.724, 2, 17.8816, 15.8645, 23.0564, 38.2544, -28.6215, -29.9142
2.728, 2, 17.8816, 15.8645, 23.0564, 38.2544, -28.6215, -29.9142
2.732, 2, 17.8816, 15.8645, 23.0564, 38.2544, -28.6215, -29.9142
2.735, 2, 17.8816, 15.8645, 23.0564, 38.2544, -28.6215, -29.9142
2.74, 2, 17.8816, 15.8645, 23.0564, 38.2544, -28.6215, -29.9142
2.744, 2, 17.8816, 15.8645, 23.0564, 38.2544, -28.6215, -29.9142
2.748, 2, 17.8816, 15.8645, 23.0564, 38.2544, -28.6215, -29.9142
2.752, 2, 17.8816, 15.8645, 23.0564, 38.2544, -28.6215, -29.9142
2.755, 2, 17.8816, 15.8645, 23.0564, 38.2544, -28.6215, -29.9142
2.76, 2, 17.8816, 15.8645, 23.0564, 38.2544, -28.6215, -29.9142
2.764, 2, 17.8816, 15.8645, 23.0564, 38.2544, -28.6215, -29.9142
2.768, 2, 17.8816, 15.8645, 23.0564, 38.2544, -28.6215, -29.9142
2.772, 2, 17.8816, 15.8645, 23.0564, 38.2544, -28.6215, -29.9142
2.775, 2, 17.8816, 15.8645, 23.0564, 38.2544, -28.6215, -29.9142
2.78, 2, 17.8816, 15.8645, 23.0564, 38.2544, -28.6215, -29.9142
2.784, 2, 17.8816, 15.8645, 23.0564, 38.2544, -28.6215, -29.9142
2.788, 2, 17.8816, 15.8645, 23.0564, 38.2544, -28.6215, -29.9142
2.791, 2, 17.8816, 15.8645, 23.0564, 38.2544, -28.6215, -29.9142
2.796, 2, 17.8816, 15.8645, 23.0564, 38.2544, -28.6215, -29.9142
2.8, 2, 17.8816, 15.8645, 23.0564, 38.2544, -28.6215, -29.9142
2.804, 2, 17.8816, 15.8645, 23.0564, 38.2544, -28.6215, -29.9142
2.808, 2, 17.8816, 15.8645, 23.0564, 38.2544, -28.6215, -29.9142
2.811, 2, 17.8816, 15.8645, 23.0564, 38.2544, -28.6215, -29.9142
2.816, 2, 17.8816, 15.8645, 23.0564, 38.2544, -28.6215, -29.9142
2.82, 2, 17.8816, 15.8645, 23.0564, 38.2544, -28.6215, -29.9142
2.824, 2, 17.8816, 15.8645, 23.0564, 38.2544, -28.6215, -29.9142
2.828, 2, 17.8816, 15.8645, 23.0564, 38.2544, -28.6215, -29.9142
2.831, 2, 17.8816, 15.8645, 23.0564, 38.2544, -28.6215, -29.9142
2.836, 2, 17.8816, 15.8645, 23.0564, 38.2544, -28.6215, -29.9142
2.84, 2, 17.8816, 15.8645, 23.0564, 38.2544, -28.6215, -29.9142
2.844, 2, 17.8816, 15.8645, 23.0564, 38.2544, -28.6215, -29.9142
2.847, 2, 17.8816, 15.8645, 23.0564, 38.2544, -28.6215, -29.9142
2.852, 2, 17.8816, 15.8645, 23.0564, 38.2544, -28.6215, -29.9142
2.856, 2, 17.8816, 15.8645, 23.0564, 38.2544, -28.6215, -29.9142
2.86, 2, 17.8816, 15.8645, 23.0564, 38.2544, -28.6215, -29.9142
2.864, 2, 17.8816, 15.8645, 23.0564, 38.2544, -28.6215, -29.9142
2.867, 2, 17.8816, 15.8645, 23.0564, 38.2544, -28.6215, -29.9142
2.872, 2, 17.8816, 15.8645, 23.0564, 38.2544, -28.6215, -29.9142
2.876, 2, 17.8816, 15.8645, 23.0564, 38.2544, -28.6215, -29.9142
2.88, 2, 17.8816, 15.8645, 23.0564, 38.2544, -28.6215, -29.9142
2.883, 2, 17.8816, 15.8645, 23.0564, 38.2544, -28.6215, -29.9142
2.888, 2, 17.8816, 15.8645, 23.0564, 38.2544, -28.6215, -29.9142
2.892, 2, 17.8816, 15.8645, 23.0564, 38.2544, -28.6215, -29.9142
2.896, 2, 17.8816, 15.8645, 23.0564, 38.2544, -28.6215, -29.9142
2.9, 2, 17.8816, 15.8645, 23.0564, 38.2544, -28.6215, -29.9142
2.903, 2, 17.8816, 15.8645, 23.0564, 38.2544, -28.6215, -29.9142
2.908, 2, 17.8816, 15.8645, 23.0564, 38.2544, -28.6215, -29.9142
2.912, 2, 17.8816, 15.8645, 23.0564, 38.2544, -28.6215, -29.9142
2.916, 2, 17.8816, 15.8645, 23.0564, 38.2544, -28.6215, -29.9142
2.92, 2, 17.8816, 15.8645, 23.0564, 38.2544, -28.6215, -29.9142
2.923, 2, 17.8816, 15.8645, 23.0564, 38.2544, -28.6215, -29.9142
2.928, 2, 17.8816, 15.8645, 23.0564, 38.2544, -28.6215, -29.9142
2.932, 2, 17.8816, 15.8645, 23.0564, 38.2544, -28.6215, -29.9142
2.936, 2, 17.8816, 15.8645, 23.0564, 38.2544, -28.6215, -29.9142
2.939, 2, 17.8816, 15.8645, 23.0564, 38.2544, -28.6215, -29.9142
2.944, 2, 17.8816, 15.8645, 23.0564, 38.2544, -28.6215, -29.9142
2.948, 2, 17.8816, 15.8645, 23.0564, 38.2544, -28.6215, -29.9142
2.952, 2, 17.8816, 15.8645, 23.0564, 38.2544, -28.6215, -29.9142
2.956, 2, 17.8816, 15.8645, 23.0564, 38.2544, -28.6215, -29.9142
2.959, 2, 17.8816, 15.8645, 23.0564, 38.2544, -28.6215, -29.9142
2.964, 2, 17.8816, 15.8645, 23.0564, 38.2544, -28.6215, -29.9142
2.968, 2, 17.8816, 15.8645, 23.0564, 38.2544, -28.6215, -29.9142
2.972, 2, 17.8816, 15.8645, 23.0564, 38.2544, -28.6215, -29.9142
2.976, 2, 17.8816, 15.8645, 23.0564, 38.2544, -28.6215, -29.9142
2.98, 2, 17.8816, 15.8645, 23.0564, 38.2544, -28.6215, -29.9142
2.984, 2, 17.8816, 15.8645, 23.0564, 38.2544, -28.6215, -29.9142
2.988, 2, 17.8816, 15.8645, 23.0564, 38.2544, -28.6215, -29.9142
2.992, 2, 17.8816, 15.8645, 23.0564, 38.2544, -28.6215, -29.9142
2.995, 2, 17.8816, 15.8645, 23.0564, 38.2544, -28.6215, -29.9142
3, 2, 17.8816, 15.8645, 23.0564, 38.2544, -28.6215, -29.9142
3.004, 2, 17.8816, 15.8645, 23.0564, 38.2544, -28.6215, -29.9142
3.008, 2, 17.8816, 15.8645, 23.0564, 38.2544, -28.6215, -29.9142
3.012, 2, 17.8816, 15.8645, 23.0564, 38.2544, -28.6215, -29.9142
3.015, 2, 17.8816, 15.8645, 23.0564, 38.2544, -28.6215, -29.9142
3.02, 2, 17.8816, 15.8645, 23.0564, 38.2544, -28.6215, -29.9142
3.024, 2, 17.8816, 15.8645, 23.0564, 38.2544, -28.6215, -29.9142
3.028, 2, 17.8816, 15.8645, 23.0564, 38.2544, -28.6215, -29.9142
3.031, 2, 17.8816, 15.8645, 23.0564, 38.2544, -28.6215, -29.9142
3.036, 2, 17.8816, 15.8645, 23.0564, 38.2544, -28.6215, -29.9142
3.04, 2, 17.8816, 15.8645, 23.0564, 38.2544, -28.6215, -29.9142
3.044, 2, 17.8816, 15.8645, 23.0564, 38.2544, -28.6215, -29.9142
3.048, 2, 17.8816, 15.8645, 23.0564, 38.2544, -28.6215, -29.9142
3.051, 2, 17.8816, 15.8645, 23.0564, 38.2544, -28.6215, -29.9142
3.056, 2, 17.8816, 15.8645, 23.0564, 38.2544, -28.6215, -29.9142
3.06, 2, 17.8816, 15.8645, 23.0564, 38.2544, -28.6215, -29.9142
3.064, 2, 17.8816, 15.8645, 23.0564, 38.2544, -28.6215, -29.9142
3.068, 2, 17.8816, 15.8645, 23.0564, 38.2544, -28.6215, -29.9142
3.071, 2, 17.8816, 15.8645, 23.0564, 38.2544, -28.6215, -29.9142
3.076, 2, 17.8816, 15.8645, 23.0564, 38.2544, -28.6215, -29.9142
3.08, 2, 17.8816, 15.8645, 23.0564, 38.2544, -28.6215, -29.9142
3.084, 2, 17.8816, 15.8645, 23.0564, 38.2544, -28.6215, -29.9142
3.087, 2, 17.8816, 15.8645, 23.0564, 38.2544, -28.6215, -29.9142
3.092, 2, 17.8816, 15.8645, 23.0564, 38.2544, -28.6215, -29.9142
3.096, 2, 17.8816, 15.8645, 23.0564, 38.2544, -28.6215, -29.9142
3.1, 2, 17.8816, 15.8645, 23.0564, 38.2544, -28.6215, -29.9142
3.104, 2, 17.8816, 15.8645, 23.0564, 38.2544, -28.6215, -29.9142
3.107, 2, 17.8816, 15.8645, 23.0564, 38.2544, -28.6215, -29.9142
3.112, 2, 17.8816, 15.8645, 23.0564, 38.2544, -28.6215, -29.9142
3.116, 2, 17.8816, 15.8645, 23.0564, 38.2544, -28.6215, -29.9142
3.12, 2, 17.8816, 15.8645, 23.0564, 38.2544, -28.6215, -29.9142
3.124, 2, 17.8816, 15.8645, 23.0564, 38.2544, -28.6215, -29.9142
3.128, 2, 17.8816, 15.8645, 23.0564, 38.2544, -28.6215, -29.9142
3.132, 2, 17.8816, 15.8645, 23.0564, 38.2544, -28.6215, -29.9142
3.136, 2, 17.8816, 15.8645, 23.0564, 38.2544, -28.6215, -29.9142
3.14, 2, 17.8816, 15.8645, 23.0564, 38.2544, -28.6215, -29.9142
3.143, 2, 17.8816, 15.8645, 23.0564, 38.2544, -28.6215, -29.9142
3.148, 2, 17.8816, 15.8645, 23.0564, 38.2544, -28.6215, -29.9142
3.152, 2, 17.8816, 15.8645, 23.0564, 38.2544, -28.6215, -29.9142
3.156, 2, 17.8816, 15.8645, 23.0564, 38.2544, -28.6215, -29.9142
3.16, 2, 17.8816, 15.8645, 23.0564, 38.2544, -28.6215, -29.9142
3.163, 2, 17.8816, 15.8645, 23.0564, 38.2544, -28.6215, -29.9142
3.168, 2, 17.8816, 15.8645, 23.0564, 38.2544, -28.6215, -29.9142
3.172, 2, 17.8816, 15.8645, 23.0564, 38.2544, -28.6215, -29.9142
3.176, 2, 17.8816, 15.8645, 23.0564, 38.2544, -28.6215, -29.9142
3.179, 2, 17.8816, 15.8645, 23.0564, 38.2544, -28.6215, -29.9142
3.184, 2, 17.8816, 15.8645, 23.0564, 38.2544, -28.6215, -29.9142
3.188, 2, 17.8816, 15.8645, 23.0564, 38.2544, -28.6215, -29.9142
3.192, 2, 17.8816, 15.8645, 23.0564, 38.2544, -28.6215, -29.9142
3.196, 2, 17.8816, 15.8645, 23.0564, 38.2544, -28.6215, -29.9142
3.199, 2, 17.8816, 15.8645, 23.0564, 38.2544, -28.6215, -29.9142
3.204, 2, 17.8816, 15.8645, 23.0564, 38.2544, -28.6215, -29.9142
3.208, 2, 17.8816, 15.8645, 23.0564, 38.2544, -28.6215, -29.9142
3.212, 2, 17.8816, 15.8645, 23.0564, 38.2544, -28.6215, -29.9142
3.216, 2, 17.8816, 15.8645, 23.0564, 38.2544, -28.6215, -29.9142
3.22, 2, 17.8816, 15.8645, 23.0564, 38.2544, -28.6215, -29.9142
3.224, 2, 17.8816, 15.8645, 23.0564, 38.2544, -28.6215, -29.9142
3.228, 2, 17.8816, 15.8645, 23.0564, 38.2544, -28.6215, -29.9142
3.232, 2, 17.8816, 15.8645, 23.0564, 38.2544, -28.6215, -29.9142
3.235, 2, 17.8816, 15.8645, 23.0564, 38.2544, -28.6215, -29.9142
3.24, 2, 17.8816, 15.8645, 23.0564, 38.2544, -28.6215, -29.9142
3.244, 2, 17.8816, 15.8645, 23.0564, 38.2544, -28.6215, -29.9142
3.248, 2, 17.8816, 15.8645, 23.0564, 38.2544, -28.6215, -29.9142
3.252, 2, 17.8816, 15.8645, 23.0564, 38.2544, -28.6215, -29.9142
3.255, 2, 17.8816, 15.8645, 23.0564, 38.2544, -28.6215, -29.9142
3.26, 2, 17.8816, 15.8645, 23.0564, 38.2544, -28.6215, -29.9142
3.264, 2, 17.8816, 15.8645, 23.0564, 38.2544, -28.6215, -29.9142
3.268, 2, 17.8816, 15.8645, 23.0564, 38.2544, -28.6215, -29.9142
3.272, 2, 17.8816, 15.8645, 23.0564, 38.2544, -28.6215, -29.9142
3.276, 2, 17.8816, 15.8645, 23.0564, 38.2544, -28.6215, -29.9142
3.28, 2, 17.8816, 15.8645, 23.0564, 38.2544, -28.6215, -29.9142
3.284, 2, 17.8816, 15.8645, 23.0564, 38.2544, -28.6215, -29.9142
3.288, 2, 17.8816, 15.8645, 23.0564, 38.2544, -28.6215, -29.9142
3.291, 2, 17.8816, 15.8645, 23.0564, 38.2544, -28.6215, -29.9142
3.296, 2, 17.8816, 15.8645, 23.0564, 38.2544, -28.6215, -29.9142
3.3, 2, 17.8816, 15.8645, 23.0564, 38.2544, -28.6215, -29.9142
3.304, 2, 17.8816, 15.8645, 23.0564, 38.2544, -28.6215, -29.9142
3.308, 2, 17.8816, 15.8645, 23.0564, 38.2544, -28.6215, -29.9142
3.312, 2, 17.8816, 15.8645, 23.0564, 38.2544, -28.6215, -29.9142
3.316, 2, 17.8816, 15.8645, 23.0564, 38.2544, -28.6215, -29.9142
3.32, 2, 17.8816, 15.8645, 23.0564, 38.2544, -28.6215, -29.9142
3.324, 2, 17.8816, 15.8645, 23.0564, 38.2544, -28.6215, -29.9142
3.328, 2, 17.8816, 15.8645, 23.0564, 38.2544, -28.6215, -29.9142
3.332, 2, 17.8816, 15.8645, 23.0564, 38.2544, -28.6215, -29.9142
3.336, 2, 17.8816, 15.8645, 23.0564, 38.2544, -28.6215, -29.9142
3.34, 2, 17.8816, 15.8645, 23.0564, 38.2544, -28.6215, -29.9142
3.344, 2, 17.8816, 15.8645, 23.0564, 38.2544, -28.6215, -29.9142
3.347, 2, 17.8816, 15.8645, 23.0564, 38.2544, -28.6215, -29.9142
3.352, 2, 17.8816, 15.8645, 23.0564, 38.2544, -28.6215, -29.9142
3.356, 2, 17.8816, 15.8645, 23.0564, 38.2544, -28.6215, -29.9142
3.36, 2, 17.8816, 15.8645, 23.0564, 38.2544, -28.6215, -29.9142
3.364, 2, 17.8816, 15.8645, 23.0564, 38.2544, -28.6215, -29.9142
3.368, 2, 17.8816, 15.8645, 23.0564, 38.2544, -28.6215, -29.9142
3.372, 2, 17.8816, 15.8645, 23.0564, 38.2544, -28.6215, -29.9142
3.376, 2, 17.8816, 15.8645, 23.0564, 38.2544, -28.6215, -29.9142
3.38, 2, 17.8816, 15.8645, 23.0564, 38.2544, -28.6215, -29.9142
3.383, 2, 17.8816, 15.8645, 23.0564, 38.2544, -28.6215, -29.9142
3.388, 2, 17.8816, 15.8645, 23.0564, 38.2544, -28.6215, -29.9142
3.392, 2, 17.8816, 15.8645, 23.0564, 38.2544, -28.6215, -29.9142
3.396, 2, 17.8816, 15.8645, 23.0564, 38.2544, -28.6215, -29.9142
3.4, 2, 17.8816, 15.8645, 23.0564, 38.2544, -28.6215, -29.9142
3.403, 2, 17.8816, 15.8645, 23.0564, 38.2544, -28.6215, -29.9142
3.408, 2, 17.8816, 15.8645, 23.0564, 38.2544, -28.6215, -29.9142
3.412, 2, 17.8816, 15.8645, 23.0564, 38.2544, -28.6215, -29.9142
3.416, 2, 17.8816, 15.8645, 23.0564, 38.2544, -28.6215, -29.9142
3.42, 2, 17.8816, 15.8645, 23.0564, 38.2544, -28.6215, -29.9142
3.424, 2, 17.8816, 15.8645, 23.0564, 38.2544, -28.6215, -29.9142
3.428, 2, 17.8816, 15.8645, 23.0564, 38.2544, -28.6215, -29.9142
3.432, 2, 17.8816, 15.8645, 23.0564, 38.2544, -28.6215, -29.9142
3.436, 2, 17.8816, 15.8645, 23.0564, 38.2544, -28.6215, -29.9142
3.439, 2, 17.8816, 15.8645, 23.0564, 38.2544, -28.6215, -29.9142
3.444, 2, 17.8816, 15.8645, 23.0564, 38.2544, -28.6215, -29.9142
3.448, 2, 17.8816, 15.8645, 23.0564, 38.2544, -28.6215, -29.9142
3.452, 2, 17.8816, 15.8645, 23.0564, 38.2544, -28.6215, -29.9142
3.456, 2, 17.8816, 15.8645, 23.0564, 38.2544, -28.6215, -29.9142
3.46, 2, 17.8816, 15.8645, 23.0564, 38.2544, -28.6215, -29.9142
3.464, 2, 17.8816, 15.8645, 23.0564, 38.2544, -28.6215, -29.9142
3.468, 2, 17.8816, 15.8645, 23.0564, 38.2544, -28.6215, -29.9142
3.472, 2, 17.8816, 15.8645, 23.0564, 38.2544, -28.6215, -29.9142
3.476, 2, 17.8816, 15.8645, 23.0564, 38.2544, -28.6215, -29.9142
3.48, 2, 17.8816, 15.8645, 23.0564, 38.2544, -28.6215, -29.9142
3.484, 2, 17.8816, 15.8645, 23.0564, 38.2544, -28.6215, -29.9142
3.488, 2, 17.8816, 15.8645, 23.0564, 38.2544, -28.6215, -29.9142
3.492, 2, 17.8816, 15.8645, 23.0564, 38.2544, -28.6215, -29.9142
3.495, 2, 17.8816, 15.8645, 23.0564, 38.2544, -28.6215, -29.9142
3.5, 2, 17.8816, 15.8645, 23.0564, 38.2544, -28.6215, -29.9142
3.504, 2, 17.8816, 15.8645, 23.0564, 38.2544, -28.6215, -29.9142
3.508, 2, 17.8816, 15.8645, 23.0564, 38.2544, -28.6215, -29.9142
3.512, 2, 17.8816, 15.8645, 23.0564, 38.2544, -28.6215, -29.9142
3.516, 2, 17.8816, 15.8645, 23.0564, 38.2544, -28.6215, -29.9142
3.52, 2, 17.8816, 15.8645, 23.0564, 38.2544, -28.6215, -29.9142
3.524, 2, 17.8816, 15.8645, 23.0564, 38.2544, -28.6215, -29.9142
3.528, 2, 17.8816, 15.8645, 23.0564, 38.2544, -28.6215, -29.9142
3.531, 2, 17.8816, 15.8645, 23.0564, 38.2544, -28.6215, -29.9142
3.536, 2, 17.8816, 15.8645, 23.0564, 38.2544, -28.6215, -29.9142
3.54, 2, 17.8816, 15.8645, 23.0564, 38.2544, -28.6215, -29.9142
3.544, 2, 17.8816, 15.8645, 23.0564, 38.2544, -28.6215, -29.9142
3.548, 2, 17.8816, 15.8645, 23.0564, 38.2544, -28.6215, -29.9142
3.552, 2, 17.8816, 15.8645, 23.0564, 38.2544, -28.6215, -29.9142
3.556, 2, 17.8816, 15.8645, 23.0564, 38.2544, -28.6215, -29.9142
3.56, 2, 17.8816, 15.8645, 23.0564, 38.2544, -28.6215, -29.9142
3.564, 2, 17.8816, 15.8645, 23.0564, 38.2544, -28.6215, -29.9142
3.568, 2, 17.8816, 15.8645, 23.0564, 38.2544, -28.6215, -29.9142
3.572, 2, 17.8816, 15.8645, 23.0564, 38.2544, -28.6215, -29.9142
3.576, 2, 17.8816, 15.8645, 23.0564, 38.2544, -28.6215, -29.9142
3.58, 2, 17.8816, 15.8645, 23.0564, 38.2544, -28.6215, -29.9142
3.584, 2, 17.8816, 15.8645, 23.0564, 38.2544, -28.6215, -29.9142
3.587, 2, 17.8816, 15.8645, 23.0564, 38.2544, -28.6215, -29.9142
3.592, 2, 17.8816, 15.8645, 23.0564, 38.2544, -28.6215, -29.9142
3.596, 2, 17.8816, 15.8645, 23.0564, 38.2544, -28.6215, -29.9142
3.6, 2, 17.8816, 15.8645, 23.0564, 38.2544, -28.6215, -29.9142
3.604, 2, 17.8816, 15.8645, 23.0564, 38.2544, -28.6215, -29.9142
3.608, 2, 17.8816, 15.8645, 23.0564, 38.2544, -28.6215, -29.9142
3.612, 2, 17.8816, 15.8645, 23.0564, 38.2544, -28.6215, -29.9142
3.616, 2, 17.8816, 15.8645, 23.0564, 38.2544, -28.6215, -29.9142
3.62, 2, 17.8816, 15.8645, 23.0564, 38.2544, -28.6215, -29.9142
3.624, 2, 17.8816, 15.8645, 23.0564, 38.2544, -28.6215, -29.9142
3.628, 2, 17.8816, 15.8645, 23.0564, 38.2544, -28.6215, -29.9142
3.632, 2, 17.8816, 15.8645, 23.0564, 38.2544, -28.6215, -29.9142
3.636, 2, 17.8816, 15.8645, 23.0564, 38.2544, -28.6215, -29.9142
3.64, 2, 17.8816, 15.8645, 23.0564, 38.2544, -28.6215, -29.9142
3.644, 4, 17.8816, 15.8645, 23.0564, 38.2544, -28.6215, -29.9142
3.648, 4, 17.8816, 15.8645, 23.0564, 38.2544, -28.6215, -29.9142
3.652, 4, 17.8816, 15.8645, 23.0564, 38.2544, -28.6215, -29.9142
3.656, 4, 17.8816, 15.8645, 23.0564, 38.2544, -28.6215, -29.9142
3.66, 4, 17.8816, 15.8645, 23.0564, 38.2544, -28.6215, -29.9142
3.664, 4, 17.8816, 15.8645, 23.0564, 38.2544, -28.6215, -29.9142
3.668, 4, 17.8816, 15.8645, 23.0564, 38.2544, -28.6215, -29.9142
3.672, 4, 17.8816, 15.8645, 23.0564, 38.2544, -28.6215, -29.9142
3.676, 4, 17.8816, 15.8645, 23.0564, 38.2544, -28.6215, -29.9142
3.679, 4, 17.8816, 15.8645, 23.0564, 38.2544, -28.6215, -29.9142
3.684, 4, 17.8816, 15.8645, 23.0564, 38.2544, -28.6215, -29.9142
3.688, 4, 17.8816, 15.8645, 23.0564, 38.2544, -28.6215, -29.9142
3.692, 4, 17.8816, 15.8645, 23.0564, 38.2544, -28.6215, -29.9142
3.696, 4, 17.8816, 15.8645, 23.0564, 38.2544, -28.6215, -29.9142
3.7, 4, 17.8816, 15.8645, 23.0564, 38.2544, -28.6215, -29.9142
3.704, 4, 17.8816, 15.8645, 23.0564, 38.2544, -28.6215, -29.9142
3.708, 4, 17.8816, 15.8645, 23.0564, 38.2544, -28.6215, -29.9142
3.712, 4, 17.8816, 15.8645, 23.0564, 38.2544, -28.6215, -29.9142
3.716, 4, 17.8816, 15.8645, 23.0564, 38.2544, -28.6215, -29.9142
3.72, 4, 17.8816, 15.8645, 23.0564, 38.2544, -28.6215, -29.9142
3.724, 4, 17.8816, 15.8645, 23.0564, 38.2544, -28.6215, -29.9142
3.728, 4, 17.8816, 15.8645, 23.0564, 38.2544, -28.6215, -29.9142
3.732, 4, 17.8816, 15.8645, 23.0564, 38.2544, -28.6215, -29.9142
3.735, 4, 17.8816, 15.8645, 23.0564, 38.2544, -28.6215, -29.9142
3.74, 4, 17.8816, 15.8645, 23.0564, 38.2544, -28.6215, -29.9142
3.744, 4, 17.8816, 15.8645, 23.0564, 38.2544, -28.6215, -29.9142
3.75, 4, 17.8816, 15.8645, 23.0564, 38.2544, -28.6215, -29.9142
3.752, 4, 17.8816, 15.8645, 23.0564, 38.2544, -28.6215, -29.9142
3.756, 4, 17.8816, 15.8645, 23.0564, 38.2544, -28.6215, -29.9142
3.76, 4, 17.8816, 15.8645, 23.0564, 38.2544, -28.6215, -29.9142
3.764, 4, 17.8816, 15.8645, 23.0564, 38.2544, -28.6215, -29.9142
3.768, 4, 17.8816, 15.8645, 23.0564, 38.2544, -28.6215, -29.9142
3.772, 4, 17.8816, 15.8645, 23.0564, 38.2544, -28.6215, -29.9142
3.776, 4, 17.8816, 15.8646, 23.0564, 38.2544, -28.6215, -29.9142
3.78, 4, 17.8815, 15.8646, 23.0564, 38.2544, -28.6215, -29.9142
3.784, 4, 17.8813, 15.8647, 23.0563, 38.2543, -28.6215, -29.9142
3.788, 4, 17.8808, 15.8651, 23.0563, 38.2543, -28.6215, -29.9142
3.792, 4, 17.8799, 15.8658, 23.0561, 38.2541, -28.6216, -29.914
3.796, 4, 17.8784, 15.867, 23.0557, 38.2537, -28.6217, -29.9137
3.8, 4, 17.8763, 15.869, 23.0552, 38.2529, -28.622, -29.913
3.804, 4, 17.8734, 15.8717, 23.0543, 38.2514, -28.6225, -29.9118
3.808, 4, 17.8698, 15.8756, 23.053, 38.2488, -28.6234, -29.9096
3.812, 4, 17.8654, 15.8807, 23.0513, 38.2446, -28.6248, -29.9061
3.816, 5, 17.8602, 15.8872, 23.0489, 38.2383, -28.6268, -29.9008
3.82, 5, 17.8541, 15.8955, 23.0457, 38.2292, -28.6298, -29.8931
3.824, 5, 17.8471, 15.9056, 23.0416, 38.2168, -28.6339, -29.8825
3.828, 5, 17.8389, 15.9177, 23.0363, 38.2002, -28.6393, -29.8684
3.832, 5, 17.8297, 15.9317, 23.0298, 38.1786, -28.6464, -29.8502
3.836, 5, 17.8194, 15.9475, 23.022, 38.1515, -28.6553, -29.8271
3.84, 5, 17.808, 15.9649, 23.0127, 38.118, -28.6663, -29.7986
3.844, 5, 17.7958, 15.9837, 23.0018, 38.0778, -28.6795, -29.7643
3.848, 5, 17.7827, 16.004, 22.9893, 38.0302, -28.6952, -29.7238
3.852, 5, 17.7686, 16.0256, 22.9752, 37.9753, -28.7133, -29.677
3.856, 5, 17.7536, 16.0486, 22.9594, 37.913, -28.7339, -29.6239
3.86, 5, 17.7376, 16.0731, 22.942, 37.8435, -28.7568, -29.5647
3.864, 5, 17.7205, 16.0994, 22.923, 37.7673, -28.7821, -29.4997
3.868, 5, 17.7023, 16.1274, 22.9025, 37.6847, -28.8095, -29.4293
3.872, 5, 17.683, 16.1572, 22.8806, 37.5964, -28.8389, -29.3541
3.876, 5, 17.6627, 16.1888, 22.8575, 37.5031, -28.87, -29.2747
3.88, 5, 17.6415, 16.2222, 22.8333, 37.4055, -28.9026, -29.1916
3.884, 5, 17.6194, 16.2573, 22.8082, 37.3045, -28.9364, -29.1056
3.888, 5, 17.5963, 16.2941, 22.7822, 37.2006, -28.9713, -29.0172
3.892, 5, 17.5722, 16.3324, 22.7556, 37.0946, -29.007, -28.927
3.896, 5, 17.547, 16.372, 22.7285, 36.9871, -29.0434, -28.8356
3.9, 5, 17.5209, 16.4128, 22.7009, 36.8785, -29.0802, -28.7434
3.904, 5, 17.494, 16.4546, 22.6731, 36.7692, -29.1174, -28.6505
3.908, 5, 17.4664, 16.497, 22.645, 36.6595, -29.1548, -28.5574
3.912, 5, 17.4382, 16.5398, 22.6168, 36.5495, -29.1924, -28.4641
3.916, 5, 17.4097, 16.583, 22.5885, 36.4395, -29.2302, -28.3708
3.92, 5, 17.381, 16.6264, 22.5601, 36.3295, -29.2681, -28.2776
3.924, 5, 17.352, 16.6699, 22.5318, 36.2195, -29.3061, -28.1844
3.928, 5, 17.3229, 16.7134, 22.5035, 36.1097, -29.3442, -28.0913
3.932, 5, 17.2938, 16.757, 22.4751, 35.9999, -29.3824, -27.9984
3.936, 5, 17.2645, 16.8005, 22.4468, 35.8904, -29.4207, -27.9057
3.94, 5, 17.2351, 16.8441, 22.4186, 35.7809, -29.459, -27.8131
3.944, 5, 17.2057, 16.8876, 22.3903, 35.6717, -29.4974, -27.7207
3.948, 5, 17.1763, 16.9311, 22.3622, 35.5626, -29.5359, -27.6285
3.952, 5, 17.1467, 16.9745, 22.334, 35.4537, -29.5744, -27.5365
3.956, 5, 17.1172, 17.0179, 22.3059, 35.345, -29.6131, -27.4447
3.96, 5, 17.0875, 17.0612, 22.2778, 35.2365, -29.6517, -27.3531
3.964, 5, 17.0579, 17.1045, 22.2498, 35.1281, -29.6905, -27.2616
3.968, 5, 17.0282, 17.1478, 22.2218, 35.02, -29.7293, -27.1704
3.972, 5, 16.9985, 17.191, 22.1939, 34.912, -29.7681, -27.0793
3.976, 5, 16.9687, 17.2341, 22.166, 34.8042, -29.8071, -26.9884
3.98, 5, 16.9388, 17.2772, 22.1382, 34.6966, -29.8461, -26.8978
3.984, 5, 16.909, 17.3203, 22.1104, 34.5891, -29.8851, -26.8073
3.988, 5, 16.8791, 17.3633, 22.0826, 34.4819, -29.9243, -26.717
3.992, 5, 16.8491, 17.4062, 22.0549, 34.3748, -29.9634, -26.6269
3.996, 5, 16.8191, 17.4491, 22.0272, 34.268, -30.0027, -26.537
3.999, 5, 16.7891, 17.492, 21.9996, 34.1613, -30.042, -26.4472
4.004, 5, 16.759, 17.5348, 21.9721, 34.0547, -30.0814, -26.3577
4.008, 5, 16.7289, 17.5775, 21.9445, 33.9484, -30.1208, -26.2684
4.012, 5, 16.6988, 17.6202, 21.9171, 33.8422, -30.1603, -26.1792
4.016, 5, 16.6686, 17.6628, 21.8896, 33.7363, -30.1999, -26.0902
4.02, 5, 16.6384, 17.7054, 21.8622, 33.6305, -30.2395, -26.0014
4.024, 5, 16.6081, 17.748, 21.8349, 33.5249, -30.2792, -25.9129
4.028, 5, 16.5778, 17.7904, 21.8076, 33.4194, -30.319, -25.8244
4.032, 5, 16.5474, 17.8329, 21.7804, 33.3142, -30.3588, -25.7362
4.036, 5, 16.517, 17.8752, 21.7532, 33.2091, -30.3987, -25.6482
4.04, 5, 16.4866, 17.9176, 21.726, 33.1042, -30.4386, -25.5603
4.044, 5, 16.4562, 17.9598, 21.6989, 32.9995, -30.4786, -25.4727
4.048, 5, 16.4257, 18.0021, 21.6719, 32.895, -30.5187, -25.3852
4.052, 5, 16.3951, 18.0442, 21.6449, 32.7906, -30.5589, -25.2979
4.056, 5, 16.3645, 18.0863, 21.6179, 32.6865, -30.5991, -25.2108
4.06, 5, 16.3339, 18.1284, 21.591, 32.5825, -30.6393, -25.1239
4.064, 5, 16.3033, 18.1704, 21.5641, 32.4786, -30.6796, -25.0371
4.068, 5, 16.2726, 18.2124, 21.5373, 32.375, -30.72, -24.9506
4.072, 5, 16.2418, 18.2543, 21.5106, 32.2715, -30.7605, -24.8642
4.076, 5, 16.2111, 18.2961, 21.4839, 32.1683, -30.801, -24.778
4.08, 5, 16.1803, 18.3379, 21.4572, 32.0652, -30.8416, -24.692
4.084, 5, 16.1494, 18.3797, 21.4306, 31.9622, -30.8822, -24.6061
4.088, 5, 16.1185, 18.4214, 21.404, 31.8595, -30.923, -24.5205
4.092, 5, 16.0876, 18.463, 21.3775, 31.7569, -30.9637, -24.435
4.096, 5, 16.0567, 18.5046, 21.351, 31.6545, -31.0046, -24.3497
4.1, 5, 16.0257, 18.5461, 21.3246, 31.5523, -31.0455, -24.2646
4.104, 5, 15.9946, 18.5876, 21.2983, 31.4502, -31.0864, -24.1797
4.108, 5, 15.9636, 18.6291, 21.272, 31.3483, -31.1275, -24.095
4.112, 5, 15.9325, 18.6704, 21.2457, 31.2466, -31.1685, -24.0104
4.116, 5, 15.9013, 18.7118, 21.2195, 31.1451, -31.2097, -23.926
4.12, 5, 15.8702, 18.753, 21.1933, 31.0438, -31.2509, -23.8418
4.124, 5, 15.8389, 18.7942, 21.1672, 30.9426, -31.2922, -23.7578
4.128, 5, 15.8077, 18.8354, 21.1412, 30.8416, -31.3335, -23.6739
4.132, 5, 15.7764, 18.8765, 21.1152, 30.7408, -31.3749, -23.5902
4.136, 5, 15.7451, 18.9176, 21.0892, 30.6401, -31.4164, -23.5067
4.14, 5, 15.7137, 18.9586, 21.0633, 30.5396, -31.4579, -23.4234
4.144, 5, 15.6823, 18.9995, 21.0374, 30.4393, -31.4995, -23.3403
4.148, 5, 15.6509, 19.0405, 21.0116, 30.3392, -31.5412, -23.2573
4.152, 5, 15.6194, 19.0813, 20.9859, 30.2392, -31.5829, -23.1745
4.156, 5, 15.5879, 19.1221, 20.9602, 30.1394, -31.6247, -23.0919
4.16, 5, 15.5564, 19.1628, 20.9346, 30.0398, -31.6665, -23.0094
4.164, 5, 15.5248, 19.2035, 20.909, 29.9403, -31.7084, -22.9272
4.168, 5, 15.4932, 19.2442, 20.8834, 29.8411, -31.7504, -22.8451
4.172, 5, 15.4616, 19.2847, 20.8579, 29.7419, -31.7925, -22.7632
4.176, 5, 15.4299, 19.3253, 20.8325, 29.643, -31.8346, -22.6814
4.18, 5, 15.3982, 19.3658, 20.8071, 29.5442, -31.8767, -22.5998
4.184, 5, 15.3664, 19.4062, 20.7818, 29.4456, -31.9189, -22.5184
4.188, 5, 15.3347, 19.4465, 20.7565, 29.3472, -31.9612, -22.4372
4.192, 5, 15.3029, 19.4869, 20.7313, 29.2489, -32.0036, -22.3561
4.196, 5, 15.271, 19.5271, 20.7061, 29.1509, -32.046, -22.2752
4.2, 5, 15.2391, 19.5673, 20.681, 29.0529, -32.0885, -22.1945
4.204, 5, 15.2072, 19.6075, 20.6559, 28.9552, -32.131, -22.114
4.208, 5, 15.1753, 19.6476, 20.6309, 28.8576, -32.1736, -22.0336
4.212, 5, 15.1433, 19.6877, 20.606, 28.7602, -32.2163, -21.9534
4.216, 5, 15.1112, 19.7276, 20.5811, 28.6629, -32.259, -21.8734
4.22, 5, 15.0792, 19.7676, 20.5562, 28.5658, -32.3018, -21.7935
4.224, 5, 15.0471, 19.8075, 20.5314, 28.4689, -32.3446, -21.7138
4.228, 5, 15.015, 19.8473, 20.5067, 28.3722, -32.3875, -21.6343
4.232, 5, 14.9828, 19.8871, 20.482, 28.2756, -32.4305, -21.5549
4.236, 5, 14.9506, 19.9268, 20.4574, 28.1792, -32.4735, -21.4757
4.24, 5, 14.9184, 19.9665, 20.4328, 28.0829, -32.5166, -21.3967
4.244, 5, 14.8862, 20.0061, 20.4083, 27.9868, -32.5598, -21.3179
4.248, 5, 14.8539, 20.0457, 20.3838, 27.8909, -32.603, -21.2392
4.252, 5, 14.8216, 20.0852, 20.3594, 27.7952, -32.6463, -21.1607
4.256, 5, 14.7892, 20.1247, 20.335, 27.6996, -32.6896, -21.0823
4.26, 5, 14.7568, 20.1641, 20.3107, 27.6041, -32.7331, -21.0041
4.264, 5, 14.7244, 20.2035, 20.2865, 27.5089, -32.7765, -20.9261
4.268, 5, 14.692, 20.2428, 20.2623, 27.4138, -32.8201, -20.8482
4.272, 5, 14.6595, 20.282, 20.2381, 27.3188, -32.8637, -20.7705
4.276, 5, 14.627, 20.3212, 20.214, 27.2241, -32.9073, -20.693
4.28, 5, 14.5944, 20.3604, 20.19, 27.1295, -32.951, -20.6156
4.284, 5, 14.5619, 20.3995, 20.166, 27.035, -32.9948, -20.5384
4.288, 5, 14.5293, 20.4385, 20.1421, 26.9407, -33.0386, -20.4614
4.292, 5, 14.4966, 20.4775, 20.1182, 26.8466, -33.0825, -20.3845
4.296, 5, 14.4639, 20.5164, 20.0944, 26.7526, -33.1265, -20.3078
4.3, 5, 14.4312, 20.5553, 20.0707, 26.6588, -33.1705, -20.2313
4.304, 5, 14.3985, 20.5942, 20.047, 26.5652, -33.2146, -20.1549
4.308, 5, 14.3657, 20.6329, 20.0233, 26.4717, -33.2588, -20.0786
4.312, 5, 14.3329, 20.6716, 19.9997, 26.3784, -33.303, -20.0026
4.316, 5, 14.3001, 20.7103, 19.9762, 26.2853, -33.3472, -19.9267
4.32, 5, 14.2672, 20.7489, 19.9527, 26.1923, -33.3916, -19.8509
4.324, 5, 14.2343, 20.7875, 19.9293, 26.0994, -33.436, -19.7753
4.328, 5, 14.2014, 20.826, 19.9059, 26.0067, -33.4804, -19.6999
4.332, 5, 14.1685, 20.8645, 19.8826, 25.9142, -33.5249, -19.6246
4.336, 5, 14.1355, 20.9029, 19.8593, 25.8219, -33.5695, -19.5495
4.34, 5, 14.1025, 20.9412, 19.8361, 25.7297, -33.6142, -19.4746
4.344, 5, 14.0694, 20.9795, 19.813, 25.6376, -33.6589, -19.3998
4.348, 5, 14.0363, 21.0178, 19.7899, 25.5457, -33.7036, -19.3252
4.352, 5, 14.0032, 21.056, 19.7669, 25.454, -33.7484, -19.2507
4.356, 5, 13.9701, 21.0941, 19.7439, 25.3624, -33.7933, -19.1764
4.36, 5, 13.9369, 21.1322, 19.721, 25.271, -33.8383, -19.1022
4.364, 5, 13.9037, 21.1702, 19.6981, 25.1797, -33.8833, -19.0282
4.368, 5, 13.8705, 21.2082, 19.6753, 25.0886, -33.9283, -18.9544
4.372, 5, 13.8372, 21.2462, 19.6525, 24.9977, -33.9735, -18.8807
4.376, 5, 13.8039, 21.284, 19.6298, 24.9069, -34.0187, -18.8071
4.38, 5, 13.7706, 21.3219, 19.6072, 24.8163, -34.0639, -18.7338
4.384, 5, 13.7373, 21.3596, 19.5846, 24.7258, -34.1092, -18.6605
4.388, 5, 13.7039, 21.3973, 19.5621, 24.6355, -34.1546, -18.5875
4.392, 5, 13.6705, 21.435, 19.5396, 24.5453, -34.2001, -18.5145
4.396, 5, 13.637, 21.4726, 19.5172, 24.4553, -34.2456, -18.4418
4.4, 5, 13.6036, 21.5102, 19.4949, 24.3654, -34.2911, -18.3692
4.404, 5, 13.5701, 21.5477, 19.4726, 24.2757, -34.3368, -18.2967
4.408, 5, 13.5366, 21.5852, 19.4504, 24.1861, -34.3824, -18.2244
4.412, 5, 13.503, 21.6226, 19.4282, 24.0967, -34.4282, -18.1522
4.416, 5, 13.4694, 21.6599, 19.4061, 24.0075, -34.474, -18.0802
4.42, 5, 13.4358, 21.6972, 19.384, 23.9184, -34.5199, -18.0084
4.424, 5, 13.4022, 21.7344, 19.362, 23.8295, -34.5658, -17.9367
4.428, 5, 13.3685, 21.7716, 19.3401, 23.7407, -34.6118, -17.8652
4.432, 5, 13.3348, 21.8088, 19.3182, 23.652, -34.6579, -17.7938
4.436, 5, 13.3011, 21.8458, 19.2964, 23.5636, -34.704, -17.7225
4.44, 5, 13.2673, 21.8829, 19.2746, 23.4752, -34.7502, -17.6514
4.444, 5, 13.2335, 21.9198, 19.2529, 23.387, -34.7964, -17.5805
4.448, 5, 13.1997, 21.9568, 19.2313, 23.299, -34.8427, -17.5097
4.452, 5, 13.1659, 21.9936, 19.2097, 23.2111, -34.8891, -17.4391
4.456, 5, 13.132, 22.0305, 19.1882, 23.1234, -34.9355, -17.3686
4.46, 5, 13.0981, 22.0672, 19.1667, 23.0358, -34.982, -17.2982
4.464, 5, 13.0642, 22.1039, 19.1453, 22.9484, -35.0286, -17.2281
4.468, 5, 13.0302, 22.1406, 19.1239, 22.8611, -35.0752, -17.158
4.472, 5, 12.9962, 22.1772, 19.1027, 22.774, -35.1218, -17.0881
4.476, 5, 12.9622, 22.2137, 19.0814, 22.6871, -35.1686, -17.0184
4.48, 5, 12.9282, 22.2502, 19.0603, 22.6002, -35.2154, -16.9488
4.484, 5, 12.8941, 22.2867, 19.0392, 22.5136, -35.2622, -16.8793
4.488, 5, 12.8601, 22.3231, 19.0181, 22.427, -35.3092, -16.81
4.492, 5, 12.8259, 22.3594, 18.9972, 22.3407, -35.3562, -16.7409
4.496, 5, 12.7918, 22.3957, 18.9762, 22.2544, -35.4032, -16.6719
4.5, 5, 12.7576, 22.4319, 18.9554, 22.1684, -35.4503, -16.603
4.504, 5, 12.7234, 22.4681, 18.9346, 22.0824, -35.4975, -16.5343
4.508, 5, 12.6892, 22.5042, 18.9139, 21.9967, -35.5447, -16.4657
4.512, 5, 12.655, 22.5403, 18.8932, 21.911, -35.592, -16.3973
4.516, 5, 12.6207, 22.5763, 18.8726, 21.8256, -35.6394, -16.329
4.52, 5, 12.5864, 22.6122, 18.852, 21.7402, -35.6868, -16.2609
4.524, 5, 12.5521, 22.6481, 18.8316, 21.655, -35.7343, -16.1929
4.528, 5, 12.5177, 22.684, 18.8111, 21.57, -35.7818, -16.125
4.532, 5, 12.4833, 22.7198, 18.7908, 21.4851, -35.8294, -16.0573
4.536, 5, 12.4489, 22.7555, 18.7705, 21.4003, -35.8771, -15.9898
4.54, 5, 12.4145, 22.7912, 18.7503, 21.3158, -35.9248, -15.9224
4.544, 5, 12.3801, 22.8269, 18.7301, 21.2313, -35.9726, -15.8551
4.548, 5, 12.3456, 22.8624, 18.71, 21.147, -36.0204, -15.788
4.552, 5, 12.3111, 22.898, 18.6899, 21.0628, -36.0683, -15.721
4.556, 5, 12.2765, 22.9334, 18.6699, 20.9788, -36.1163, -15.6542
4.56, 5, 12.242, 22.9689, 18.65, 20.8949, -36.1643, -15.5875
4.564, 5, 12.2074, 23.0042, 18.6302, 20.8112, -36.2124, -15.5209
4.568, 5, 12.1728, 23.0395, 18.6104, 20.7276, -36.2606, -15.4545
4.572, 5, 12.1382, 23.0748, 18.5906, 20.6442, -36.3088, -15.3882
4.576, 5, 12.1035, 23.11, 18.571, 20.5609, -36.3571, -15.3221
4.58, 5, 12.0688, 23.1452, 18.5514, 20.4778, -36.4054, -15.2561
4.584, 5, 12.0341, 23.1803, 18.5318, 20.3948, -36.4538, -15.1903
4.588, 5, 11.9994, 23.2153, 18.5124, 20.3119, -36.5023, -15.1246
4.592, 5, 11.9646, 23.2503, 18.4929, 20.2292, -36.5508, -15.059
4.596, 5, 11.9299, 23.2852, 18.4736, 20.1466, -36.5994, -14.9936
4.6, 5, 11.8951, 23.3201, 18.4543, 20.0642, -36.648, -14.9283
4.604, 5, 11.8602, 23.3549, 18.4351, 19.9819, -36.6967, -14.8631
4.608, 5, 11.8254, 23.3897, 18.4159, 19.8998, -36.7455, -14.7981
4.612, 5, 11.7905, 23.4244, 18.3968, 19.8178, -36.7943, -14.7333
4.616, 5, 11.7556, 23.4591, 18.3778, 19.7359, -36.8432, -14.6685
4.62, 5, 11.7207, 23.4937, 18.3588, 19.6542, -36.8921, -14.6039
4.624, 5, 11.6858, 23.5283, 18.3399, 19.5727, -36.9412, -14.5395
4.628, 5, 11.6508, 23.5628, 18.3211, 19.4912, -36.9902, -14.4752
4.632, 5, 11.6158, 23.5972, 18.3023, 19.41, -37.0394, -14.411
4.636, 5, 11.5808, 23.6316, 18.2836, 19.3288, -37.0886, -14.3469
4.64, 5, 11.5457, 23.666, 18.265, 19.2478, -37.1378, -14.283
4.644, 5, 11.5107, 23.7003, 18.2464, 19.1669, -37.1871, -14.2193
4.648, 5, 11.4756, 23.7345, 18.2279, 19.0862, -37.2365, -14.1556
4.652, 5, 11.4405, 23.7687, 18.2095, 19.0056, -37.2859, -14.0922
4.656, 5, 11.4053, 23.8028, 18.1911, 18.9252, -37.3354, -14.0288
4.66, 5, 11.3702, 23.8369, 18.1728, 18.8449, -37.385, -13.9656
4.664, 5, 11.335, 23.8709, 18.1545, 18.7647, -37.4346, -13.9025
4.668, 5, 11.2998, 23.9049, 18.1363, 18.6847, -37.4843, -13.8395
4.672, 5, 11.2646, 23.9388, 18.1182, 18.6048, -37.534, -13.7767
4.676, 5, 11.2293, 23.9727, 18.1001, 18.5251, -37.5838, -13.714
4.68, 5, 11.1941, 24.0065, 18.0821, 18.4455, -37.6337, -13.6515
4.684, 5, 11.1588, 24.0402, 18.0642, 18.366, -37.6836, -13.5891
4.688, 5, 11.1235, 24.0739, 18.0464, 18.2867, -37.7336, -13.5268
4.692, 5, 11.0881, 24.1076, 18.0286, 18.2075, -37.7837, -13.4647
4.696, 5, 11.0528, 24.1412, 18.0108, 18.1285, -37.8338, -13.4027
4.7, 5, 11.0174, 24.1747, 17.9932, 18.0496, -37.8839, -13.3408
4.704, 5, 10.982, 24.2082, 17.9756, 17.9708, -37.9342, -13.279
4.708, 5, 10.9466, 24.2416, 17.958, 17.8922, -37.9844, -13.2174
4.712, 5, 10.9111, 24.275, 17.9406, 17.8137, -38.0348, -13.156
4.716, 5, 10.8757, 24.3084, 17.9232, 17.7353, -38.0852, -13.0946
4.72, 5, 10.8402, 24.3416, 17.9058, 17.6571, -38.1357, -13.0334
4.724, 5, 10.8047, 24.3748, 17.8886, 17.579, -38.1862, -12.9723
4.728, 5, 10.7691, 24.408, 17.8714, 17.5011, -38.2368, -12.9114
4.732, 5, 10.7336, 24.4411, 17.8542, 17.4233, -38.2874, -12.8505
4.736, 5, 10.698, 24.4742, 17.8372, 17.3456, -38.3381, -12.7899
4.74, 5, 10.6624, 24.5072, 17.8202, 17.268, -38.3889, -12.7293
4.744, 5, 10.6268, 24.5401, 17.8032, 17.1906, -38.4397, -12.6689
4.748, 5, 10.5912, 24.573, 17.7863, 17.1134, -38.4906, -12.6086
4.752, 5, 10.5555, 24.6059, 17.7695, 17.0362, -38.5416, -12.5484
4.756, 5, 10.5198, 24.6387, 17.7528, 16.9592, -38.5926, -12.4884
4.76, 5, 10.4841, 24.6714, 17.7361, 16.8824, -38.6436, -12.4285
4.764, 5, 10.4484, 24.7041, 17.7195, 16.8056, -38.6948, -12.3687
4.768, 5, 10.4127, 24.7367, 17.703, 16.7291, -38.7459, -12.309
4.772, 5, 10.3769, 24.7693, 17.6865, 16.6526, -38.7972, -12.2495
4.776, 5, 10.3411, 24.8018, 17.6701, 16.5763, -38.8485, -12.1901
4.78, 5, 10.3053, 24.8343, 17.6538, 16.5001, -38.8999, -12.1309
4.784, 5, 10.2695, 24.8667, 17.6375, 16.424, -38.9513, -12.0717
4.788, 5, 10.2336, 24.8991, 17.6213, 16.3481, -39.0028, -12.0127
4.792, 5, 10.1978, 24.9314, 17.6051, 16.2723, -39.0543, -11.9539
4.796, 5, 10.1619, 24.9636, 17.5891, 16.1967, -39.1059, -11.8951
4.8, 5, 10.126, 24.9958, 17.5731, 16.1211, -39.1576, -11.8365
4.804, 5, 10.0901, 25.028, 17.5571, 16.0457, -39.2093, -11.778
4.808, 5, 10.0541, 25.0601, 17.5413, 15.9705, -39.2611, -11.7196
4.812, 5, 10.0181, 25.0921, 17.5254, 15.8953, -39.313, -11.6614
4.816, 5, 9.98215, 25.1241, 17.5097, 15.8204, -39.3649, -11.6033
4.82, 5, 9.94615, 25.156, 17.494, 15.7455, -39.4169, -11.5453
4.824, 5, 9.91012, 25.1879, 17.4784, 15.6708, -39.4689, -11.4874
4.828, 5, 9.87407, 25.2198, 17.4629, 15.5962, -39.521, -11.4297
4.832, 5, 9.83801, 25.2515, 17.4475, 15.5217, -39.5732, -11.3721
4.836, 5, 9.80192, 25.2833, 17.4321, 15.4473, -39.6254, -11.3146
4.84, 5, 9.76581, 25.3149, 17.4167, 15.3731, -39.6777, -11.2572
4.844, 5, 9.72969, 25.3466, 17.4015, 15.2991, -39.73, -11.2
4.848, 5, 9.69354, 25.3781, 17.3863, 15.2251, -39.7824, -11.1429
4.852, 5, 9.65738, 25.4096, 17.3712, 15.1513, -39.8349, -11.0859
4.856, 5, 9.62119, 25.4411, 17.3561, 15.0776, -39.8874, -11.029
4.86, 5, 9.58499, 25.4725, 17.3411, 15.004, -39.94, -10.9723
4.864, 5, 9.54877, 25.5038, 17.3262, 14.9306, -39.9926, -10.9156
4.868, 5, 9.51253, 25.5351, 17.3114, 14.8573, -40.0453, -10.8591
4.872, 5, 9.47627, 25.5664, 17.2966, 14.7841, -40.0981, -10.8028
4.876, 5, 9.43999, 25.5976, 17.2819, 14.7111, -40.1509, -10.7465
4.88, 5, 9.40369, 25.6287, 17.2672, 14.6382, -40.2038, -10.6904
4.884, 5, 9.36738, 25.6598, 17.2527, 14.5654, -40.2567, -10.6344
4.888, 5, 9.33104, 25.6908, 17.2382, 14.4927, -40.3097, -10.5785
4.892, 5, 9.29469, 25.7218, 17.2237, 14.4202, -40.3628, -10.5227
4.896, 5, 9.25832, 25.7527, 17.2094, 14.3478, -40.4159, -10.4671
4.9, 5, 9.22193, 25.7836, 17.1951, 14.2755, -40.4691, -10.4115
4.904, 5, 9.18553, 25.8144, 17.1809, 14.2034, -40.5224, -10.3561
4.908, 5, 9.1491, 25.8452, 17.1667, 14.1313, -40.5757, -10.3009
4.912, 5, 9.11266, 25.8759, 17.1526, 14.0594, -40.629, -10.2457
4.916, 5, 9.0762, 25.9065, 17.1386, 13.9877, -40.6824, -10.1906
4.92, 5, 9.03972, 25.9372, 17.1247, 13.916, -40.7359, -10.1357
4.924, 5, 9.00323, 25.9677, 17.1108, 13.8445, -40.7895, -10.0809
4.928, 5, 8.96672, 25.9982, 17.097, 13.7731, -40.8431, -10.0262
4.932, 5, 8.93019, 26.0286, 17.0833, 13.7018, -40.8967, -9.97167
4.936, 5, 8.89364, 26.059, 17.0696, 13.6307, -40.9505, -9.91722
4.94, 5, 8.85708, 26.0894, 17.056, 13.5597, -41.0043, -9.86289
4.944, 5, 8.8205, 26.1197, 17.0425, 13.4888, -41.0581, -9.80868
4.948, 5, 8.7839, 26.1499, 17.0291, 13.418, -41.112, -9.75458
4.952, 5, 8.74729, 26.1801, 17.0157, 13.3474, -41.166, -9.70061
4.956, 5, 8.71066, 26.2102, 17.0024, 13.2769, -41.22, -9.64675
4.96, 5, 8.67401, 26.2403, 16.9891, 13.2065, -41.2741, -9.59301
4.964, 5, 8.63735, 26.2703, 16.976, 13.1362, -41.3282, -9.53939
4.968, 5, 8.60067, 26.3003, 16.9629, 13.066, -41.3824, -9.48588
4.972, 5, 8.56397, 26.3302, 16.9498, 12.996, -41.4367, -9.43249
4.976, 5, 8.52726, 26.36, 16.9369, 12.9261, -41.491, -9.37922
4.98, 5, 8.49053, 26.3898, 16.924, 12.8563, -41.5454, -9.32606
4.984, 5, 8.45378, 26.4196, 16.9112, 12.7867, -41.5998, -9.27302
4.988, 5, 8.41702, 26.4493, 16.8985, 12.7172, -41.6543, -9.2201
4.992, 5, 8.38025, 26.479, 16.8858, 12.6477, -41.7089, -9.16729
4.996, 5, 8.34345, 26.5085, 16.8732, 12.5785, -41.7635, -9.1146
5, 5, 8.30664, 26.5381, 16.8607, 12.5093, -41.8182, -9.06202
5.004, 5, 8.26982, 26.5676, 16.8482, 12.4402, -41.8729, -9.00956
5.008, 5, 8.23298, 26.597, 16.8358, 12.3713, -41.9277, -8.95721
5.012, 5, 8.19613, 26.6264, 16.8235, 12.3025, -41.9826, -8.90497
5.016, 5, 8.15926, 26.6557, 16.8113, 12.2338, -42.0375, -8.85286
5.02, 5, 8.12237, 26.685, 16.7991, 12.1653, -42.0924, -8.80085
5.024, 5, 8.08547, 26.7142, 16.787, 12.0969, -42.1475, -8.74896
5.028, 5, 8.04856, 26.7434, 16.775, 12.0285, -42.2026, -8.69718
5.032, 5, 8.01163, 26.7725, 16.763, 11.9603, -42.2577, -8.64552
5.036, 5, 7.97468, 26.8016, 16.7512, 11.8923, -42.3129, -8.59397
5.04, 5, 7.93773, 26.8306, 16.7393, 11.8243, -42.3682, -8.54253
5.044, 5, 7.90075, 26.8596, 16.7276, 11.7565, -42.4235, -8.49121
5.048, 5, 7.86376, 26.8885, 16.7159, 11.6888, -42.4789, -8.44
5.052, 5, 7.82676, 26.9173, 16.7044, 11.6212, -42.5343, -8.3889
5.056, 5, 7.78974, 26.9461, 16.6928, 11.5537, -42.5899, -8.33791
5.06, 5, 7.75271, 26.9749, 16.6814, 11.4864, -42.6454, -8.28704
5.064, 5, 7.71566, 27.0036, 16.67, 11.4191, -42.701, -8.23628
5.068, 5, 7.6786, 27.0322, 16.6587, 11.352, -42.7567, -8.18563
5.072, 5, 7.64153, 27.0608, 16.6475, 11.285, -42.8124, -8.13509
5.076, 5, 7.60444, 27.0893, 16.6363, 11.2181, -42.8682, -8.08467
5.08, 5, 7.56733, 27.1178, 16.6252, 11.1514, -42.9241, -8.03435
5.084, 5, 7.53022, 27.1462, 16.6142, 11.0847, -42.98, -7.98415
5.088, 5, 7.49309, 27.1746, 16.6033, 11.0182, -43.036, -7.93405
5.092, 5, 7.45594, 27.2029, 16.5924, 10.9518, -43.092, -7.88407
5.096, 5, 7.41878, 27.2312, 16.5816, 10.8855, -43.1481, -7.8342
5.1, 5, 7.38161, 27.2594, 16.5709, 10.8194, -43.2043, -7.78444
5.104, 5, 7.34443, 27.2876, 16.5603, 10.7533, -43.2605, -7.73479
5.108, 5, 7.30723, 27.3157, 16.5497, 10.6874, -43.3167, -7.68525
5.112, 5, 7.27002, 27.3438, 16.5392, 10.6216, -43.3731, -7.63582
5.116, 5, 7.23279, 27.3718, 16.5288, 10.5559, -43.4294, -7.58649
5.12, 5, 7.19555, 27.3997, 16.5184, 10.4903, -43.4859, -7.53728
5.124, 5, 7.1583, 27.4276, 16.5081, 10.4248, -43.5424, -7.48818
5.128, 5, 7.12104, 27.4555, 16.4979, 10.3595, -43.5989, -7.43919
5.132, 5, 7.08376, 27.4832, 16.4878, 10.2942, -43.6555, -7.3903
5.136, 5, 7.04647, 27.511, 16.4777, 10.2291, -43.7122, -7.34153
5.14, 5, 7.00916, 27.5387, 16.4678, 10.1641, -43.7689, -7.29286
5.144, 5, 6.97185, 27.5663, 16.4578, 10.0992, -43.8257, -7.2443
5.148, 5, 6.93452, 27.5939, 16.448, 10.0345, -43.8826, -7.19585
5.152, 5, 6.89718, 27.6214, 16.4382, 9.96982, -43.9395, -7.14751
5.156, 5, 6.85982, 27.6489, 16.4285, 9.90529, -43.9965, -7.09927
5.16, 5, 6.82246, 27.6763, 16.4189, 9.84087, -44.0535, -7.05115
5.164, 5, 6.78508, 27.7037, 16.4094, 9.77657, -44.1106, -7.00313
5.168, 5, 6.74769, 27.731, 16.3999, 9.71238, -44.1677, -6.95521
5.172, 5, 6.71029, 27.7583, 16.3905, 9.64831, -44.2249, -6.90741
5.176, 5, 6.67287, 27.7855, 16.3812, 9.58435, -44.2821, -6.85971
5.18, 5, 6.63544, 27.8127, 16.372, 9.5205, -44.3395, -6.81212
5.184, 5, 6.598, 27.8398, 16.3628, 9.45677, -44.3968, -6.76464
5.188, 5, 6.56055, 27.8668, 16.3537, 9.39316, -44.4542, -6.71726
5.192, 5, 6.52309, 27.8938, 16.3447, 9.32966, -44.5117, -6.66999
5.196, 5, 6.48561, 27.9208, 16.3357, 9.26627, -44.5693, -6.62283
5.2, 5, 6.44812, 27.9477, 16.3268, 9.203, -44.6269, -6.57577
5.204, 5, 6.41063, 27.9745, 16.318, 9.13984, -44.6845, -6.52882
5.208, 5, 6.37311, 28.0013, 16.3093, 9.0768, -44.7423, -6.48197
5.212, 5, 6.33559, 28.028, 16.3006, 9.01387, -44.8, -6.43523
5.216, 5, 6.29806, 28.0547, 16.2921, 8.95105, -44.8579, -6.38859
5.22, 5, 6.26051, 28.0814, 16.2836, 8.88835, -44.9157, -6.34206
5.224, 5, 6.22296, 28.1079, 16.2751, 8.82576, -44.9737, -6.29564
5.228, 5, 6.18539, 28.1345, 16.2668, 8.76328, -45.0317, -6.24932
5.232, 5, 6.14781, 28.1609, 16.2585, 8.70091, -45.0898, -6.2031
5.236, 5, 6.11022, 28.1874, 16.2503, 8.63866, -45.1479, -6.15699
5.24, 5, 6.07262, 28.2137, 16.2422, 8.57652, -45.2061, -6.11099
5.244, 5, 6.03501, 28.24, 16.2341, 8.51449, -45.2643, -6.06509
5.248, 5, 5.99738, 28.2663, 16.2261, 8.45258, -45.3226, -6.01929
5.252, 5, 5.95975, 28.2925, 16.2182, 8.39078, -45.3809, -5.9736
5.256, 5, 5.9221, 28.3187, 16.2104, 8.32909, -45.4393, -5.92801
5.26, 5, 5.88445, 28.3448, 16.2026, 8.26751, -45.4978, -5.88252
5.264, 5, 5.84678, 28.3708, 16.195, 8.20604, -45.5563, -5.83714
5.268, 5, 5.8091, 28.3968, 16.1874, 8.14469, -45.6149, -5.79186
5.272, 5, 5.77141, 28.4228, 16.1798, 8.08344, -45.6735, -5.74669
5.276, 5, 5.73371, 28.4487, 16.1724, 8.02231, -45.7322, -5.70162
5.28, 5, 5.696, 28.4745, 16.165, 7.96129, -45.791, -5.65665
5.284, 5, 5.65828, 28.5003, 16.1577, 7.90038, -45.8498, -5.61178
5.288, 5, 5.62055, 28.526, 16.1505, 7.83958, -45.9087, -5.56702
5.292, 5, 5.58281, 28.5517, 16.1433, 7.77889, -45.9676, -5.52236
5.296, 5, 5.54505, 28.5774, 16.1362, 7.71832, -46.0266, -5.4778
5.3, 5, 5.50729, 28.6029, 16.1292, 7.65785, -46.0856, -5.43335
5.304, 5, 5.46951, 28.6285, 16.1223, 7.59749, -46.1447, -5.38899
5.308, 5, 5.43173, 28.6539, 16.1155, 7.53725, -46.2039, -5.34474
5.312, 5, 5.39394, 28.6794, 16.1087, 7.47711, -46.2631, -5.30059
5.316, 5, 5.35613, 28.7047, 16.102, 7.41708, -46.3224, -5.25654
5.32, 5, 5.31832, 28.73, 16.0954, 7.35716, -46.3817, -5.21259
5.324, 5, 5.2805, 28.7553, 16.0888, 7.29736, -46.4411, -5.16874
5.328, 5, 5.24266, 28.7805, 16.0824, 7.23766, -46.5005, -5.125
5.332, 5, 5.20482, 28.8057, 16.076, 7.17806, -46.56, -5.08135
5.336, 5, 5.16697, 28.8308, 16.0697, 7.11858, -46.6196, -5.03781
5.34, 5, 5.12911, 28.8558, 16.0634, 7.05921, -46.6792, -4.99436
5.344, 5, 5.09124, 28.8808, 16.0573, 6.99994, -46.7389, -4.95101
5.348, 5, 5.05336, 28.9058, 16.0512, 6.94078, -46.7986, -4.90777
5.352, 5, 5.01547, 28.9307, 16.0452, 6.88173, -46.8584, -4.86462
5.356, 5, 4.97757, 28.9555, 16.0393, 6.82278, -46.9183, -4.82157
5.36, 5, 4.93966, 28.9803, 16.0334, 6.76394, -46.9782, -4.77862
5.364, 5, 4.90174, 29.005, 16.0276, 6.70521, -47.0382, -4.73577
5.368, 5, 4.86381, 29.0297, 16.0219, 6.64659, -47.0982, -4.69302
5.372, 5, 4.82587, 29.0544, 16.0163, 6.58807, -47.1583, -4.65036
5.376, 5, 4.78793, 29.079, 16.0108, 6.52966, -47.2184, -4.6078
5.38, 5, 4.74997, 29.1035, 16.0053, 6.47135, -47.2786, -4.56534
5.384, 5, 4.71201, 29.128, 15.9999, 6.41315, -47.3389, -4.52298
5.388, 5, 4.67404, 29.1524, 15.9946, 6.35505, -47.3992, -4.48072
5.392, 5, 4.63606, 29.1768, 15.9893, 6.29706, -47.4595, -4.43855
5.396, 5, 4.59807, 29.2011, 15.9842, 6.23917, -47.52, -4.39648
5.4, 5, 4.56007, 29.2254, 15.9791, 6.18139, -47.5805, -4.35451
5.404, 5, 4.52206, 29.2496, 15.9741, 6.12372, -47.641, -4.31263
5.408, 5, 4.48405, 29.2738, 15.9691, 6.06614, -47.7016, -4.27085
5.412, 5, 4.44603, 29.2979, 15.9643, 6.00867, -47.7622, -4.22917
5.416, 5, 4.408, 29.3219, 15.9595, 5.95131, -47.823, -4.18758
5.42, 5, 4.36996, 29.3459, 15.9548, 5.89405, -47.8837, -4.14608
5.424, 5, 4.33191, 29.3699, 15.9502, 5.83689, -47.9445, -4.10469
5.428, 5, 4.29386, 29.3938, 15.9456, 5.77984, -48.0054, -4.06338
5.432, 5, 4.25579, 29.4177, 15.9412, 5.72289, -48.0664, -4.02218
5.436, 5, 4.21772, 29.4415, 15.9368, 5.66604, -48.1274, -3.98106
5.44, 5, 4.17965, 29.4653, 15.9324, 5.60929, -48.1884, -3.94005
5.444, 5, 4.14156, 29.489, 15.9282, 5.55265, -48.2495, -3.89912
5.448, 5, 4.10347, 29.5126, 15.924, 5.49611, -48.3107, -3.85829
5.452, 5, 4.06537, 29.5362, 15.9199, 5.43967, -48.3719, -3.81756
5.456, 5, 4.02727, 29.5598, 15.9159, 5.38333, -48.4332, -3.77692
5.46, 5, 3.98915, 29.5833, 15.912, 5.32709, -48.4945, -3.73637
5.464, 5, 3.95103, 29.6067, 15.9081, 5.27096, -48.5559, -3.69592
5.468, 5, 3.91291, 29.6301, 15.9044, 5.21493, -48.6173, -3.65556
5.472, 5, 3.87477, 29.6535, 15.9007, 5.15899, -48.6788, -3.61529
5.476, 5, 3.83663, 29.6768, 15.897, 5.10316, -48.7404, -3.57511
5.48, 5, 3.79848, 29.7, 15.8935, 5.04743, -48.802, -3.53503
5.484, 5, 3.76033, 29.7232, 15.89, 4.9918, -48.8636, -3.49505
5.488, 5, 3.72217, 29.7463, 15.8866, 4.93627, -48.9253, -3.45515
5.492, 5, 3.684, 29.7694, 15.8833, 4.88084, -48.9871, -3.41535
5.496, 5, 3.64583, 29.7925, 15.88, 4.82551, -49.0489, -3.37563
5.5, 5, 3.60765, 29.8155, 15.8769, 4.77028, -49.1108, -3.33602
5.504, 5, 3.56946, 29.8384, 15.8738, 4.71515, -49.1728, -3.29649
5.508, 5, 3.53127, 29.8613, 15.8708, 4.66012, -49.2348, -3.25705
5.512, 5, 3.49308, 29.8841, 15.8678, 4.60519, -49.2968, -3.21771
5.516, 5, 3.45487, 29.9069, 15.865, 4.55036, -49.3589, -3.17846
5.52, 5, 3.41666, 29.9297, 15.8622, 4.49563, -49.4211, -3.13929
5.524, 5, 3.37845, 29.9523, 15.8595, 4.44099, -49.4833, -3.10022
5.528, 5, 3.34023, 29.975, 15.8569, 4.38646, -49.5456, -3.06124
5.532, 5, 3.302, 29.9976, 15.8543, 4.33202, -49.6079, -3.02235
5.536, 5, 3.26377, 30.0201, 15.8518, 4.27768, -49.6703, -2.98356
5.54, 5, 3.22553, 30.0426, 15.8494, 4.22344, -49.7327, -2.94485
5.544, 5, 3.18729, 30.065, 15.8471, 4.1693, -49.7952, -2.90623
5.548, 5, 3.14904, 30.0874, 15.8449, 4.11525, -49.8577, -2.8677
5.552, 5, 3.11079, 30.1097, 15.8427, 4.06131, -49.9203, -2.82926
5.556, 5, 3.07253, 30.132, 15.8406, 4.00746, -49.983, -2.79092
5.56, 5, 3.03427, 30.1542, 15.8386, 3.9537, -50.0457, -2.75266
5.564, 5, 2.996, 30.1764, 15.8367, 3.90005, -50.1084, -2.71449
5.568, 5, 2.95773, 30.1986, 15.8348, 3.84649, -50.1713, -2.67641
5.572, 5, 2.91945, 30.2206, 15.833, 3.79303, -50.2341, -2.63842
5.576, 5, 2.88117, 30.2427, 15.8313, 3.73966, -50.297, -2.60052
5.58, 5, 2.84288, 30.2646, 15.8297, 3.6864, -50.36, -2.56271
5.584, 5, 2.80459, 30.2866, 15.8282, 3.63322, -50.4231, -2.52498
5.588, 5, 2.76629, 30.3084, 15.8267, 3.58015, -50.4861, -2.48735
5.592, 5, 2.72799, 30.3303, 15.8253, 3.52717, -50.5493, -2.4498
5.596, 5, 2.68969, 30.3521, 15.824, 3.47429, -50.6125, -2.41234
5.6, 5, 2.65138, 30.3738, 15.8228, 3.4215, -50.6757, -2.37497
5.604, 5, 2.61307, 30.3955, 15.8216, 3.36881, -50.739, -2.33769
5.608, 5, 2.57475, 30.4171, 15.8205, 3.31621, -50.8024, -2.3005
5.612, 5, 2.53643, 30.4387, 15.8195, 3.26371, -50.8658, -2.26339
5.616, 5, 2.4981, 30.4602, 15.8186, 3.21131, -50.9293, -2.22637
5.62, 5, 2.45977, 30.4817, 15.8178, 3.159, -50.9928, -2.18944
5.624, 5, 2.42144, 30.5031, 15.817, 3.10678, -51.0563, -2.1526
5.628, 5, 2.3831, 30.5245, 15.8163, 3.05466, -51.12, -2.11585
5.632, 5, 2.34476, 30.5458, 15.8157, 3.00264, -51.1836, -2.07918
5.636, 5, 2.30642, 30.5671, 15.8151, 2.95071, -51.2474, -2.04259
5.64, 5, 2.26807, 30.5883, 15.8147, 2.89887, -51.3112, -2.0061
5.644, 5, 2.22972, 30.6095, 15.8143, 2.84713, -51.375, -1.96969
5.648, 5, 2.19137, 30.6306, 15.814, 2.79548, -51.4389, -1.93337
5.652, 5, 2.15301, 30.6517, 15.8138, 2.74393, -51.5028, -1.89714
5.656, 5, 2.11465, 30.6727, 15.8136, 2.69247, -51.5668, -1.86099
5.66, 5, 2.07628, 30.6937, 15.8136, 2.64111, -51.6309, -1.82493
5.664, 5, 2.03791, 30.7146, 15.8136, 2.58983, -51.695, -1.78895
5.668, 5, 1.99954, 30.7354, 15.8137, 2.53866, -51.7592, -1.75306
5.672, 5, 1.96117, 30.7563, 15.8138, 2.48757, -51.8234, -1.71726
5.676, 5, 1.92279, 30.777, 15.8141, 2.43658, -51.8876, -1.68154
5.68, 5, 1.88442, 30.7978, 15.8144, 2.38568, -51.952, -1.64591
5.684, 5, 1.84603, 30.8184, 15.8148, 2.33488, -52.0163, -1.61036
5.688, 5, 1.80765, 30.8391, 15.8153, 2.28417, -52.0808, -1.5749
5.692, 5, 1.76926, 30.8596, 15.8158, 2.23355, -52.1452, -1.53952
5.696, 5, 1.73087, 30.8802, 15.8165, 2.18302, -52.2098, -1.50423
5.7, 5, 1.69248, 30.9006, 15.8172, 2.13259, -52.2744, -1.46903
5.704, 5, 1.65409, 30.9211, 15.818, 2.08225, -52.339, -1.43391
5.708, 5, 1.61569, 30.9414, 15.8188, 2.032, -52.4037, -1.39887
5.712, 5, 1.57729, 30.9618, 15.8198, 1.98185, -52.4684, -1.36392
5.716, 5, 1.53889, 30.982, 15.8208, 1.93179, -52.5332, -1.32906
5.72, 5, 1.50048, 31.0023, 15.8219, 1.88181, -52.5981, -1.29428
5.724, 5, 1.46208, 31.0224, 15.8231, 1.83194, -52.663, -1.25958
5.728, 5, 1.42367, 31.0425, 15.8244, 1.78215, -52.7279, -1.22497
5.732, 5, 1.38526, 31.0626, 15.8257, 1.73245, -52.7929, -1.19044
5.736, 5, 1.34685, 31.0826, 15.8272, 1.68285, -52.858, -1.156
5.74, 5, 1.30843, 31.1026, 15.8287, 1.63334, -52.9231, -1.12164
5.744, 5, 1.27002, 31.1225, 15.8302, 1.58392, -52.9883, -1.08736
5.748, 5, 1.2316, 31.1424, 15.8319, 1.53459, -53.0535, -1.05317
5.752, 5, 1.19318, 31.1622, 15.8336, 1.48535, -53.1188, -1.01906
5.756, 5, 1.15476, 31.182, 15.8355, 1.4362, -53.1841, -0.985038
5.76, 5, 1.11634, 31.2017, 15.8373, 1.38715, -53.2495, -0.951098
5.764, 5, 1.07792, 31.2214, 15.8393, 1.33819, -53.3149, -0.917241
5.768, 5, 1.03949, 31.241, 15.8414, 1.28931, -53.3804, -0.883468
5.772, 5, 1.00107, 31.2606, 15.8435, 1.24053, -53.4459, -0.849778
5.776, 5, 0.962641, 31.2801, 15.8457, 1.19184, -53.5115, -0.816171
5.78, 5, 0.924213, 31.2996, 15.848, 1.14324, -53.5772, -0.782647
5.784, 5, 0.885784, 31.319, 15.8504, 1.09473, -53.6429, -0.749207
5.788, 5, 0.847353, 31.3384, 15.8529, 1.04631, -53.7086, -0.715849
5.792, 5, 0.808922, 31.3577, 15.8554, 0.997977, -53.7744, -0.682575
5.796, 5, 0.77049, 31.377, 15.858, 0.949737, -53.8403, -0.649383
5.8, 5, 0.732057, 31.3962, 15.8607, 0.901588, -53.9062, -0.616274
5.804, 5, 0.693624, 31.4154, 15.8635, 0.853528, -53.9721, -0.583247
5.808, 5, 0.655191, 31.4345, 15.8663, 0.805559, -54.0381, -0.550303
5.812, 5, 0.616758, 31.4536, 15.8692, 0.757679, -54.1042, -0.51744
5.816, 5, 0.578324, 31.4726, 15.8723, 0.709889, -54.1703, -0.48466
5.82, 5, 0.539891, 31.4916, 15.8754, 0.662187, -54.2365, -0.451962
5.824, 5, 0.501456, 31.5105, 15.8785, 0.614575, -54.3027, -0.419346
5.828, 5, 0.463021, 31.5294, 15.8818, 0.567051, -54.369, -0.386811
5.832, 5, 0.424585, 31.5482, 15.8851, 0.519616, -54.4353, -0.354357
5.836, 5, 0.386148, 31.567, 15.8885, 0.47227, -54.5017, -0.321985
5.84, 5, 0.347711, 31.5857, 15.892, 0.425011, -54.5681, -0.289693
5.844, 5, 0.309273, 31.6045, 15.8956, 0.37784, -54.6346, -0.257483
5.848, 6, 0.270834, 31.6231, 15.8992, 0.330756, -54.7011, -0.225352
5.852, 6, 0.232394, 31.6418, 15.9029, 0.283759, -54.7677, -0.193302
5.856, 6, 0.193952, 31.6604, 15.9066, 0.23685, -54.8344, -0.161332
5.86, 6, 0.15551, 31.679, 15.9104, 0.190026, -54.901, -0.129442
5.864, 6, 0.117066, 31.6976, 15.9142, 0.143289, -54.9677, -0.0976306
5.868, 6, 0.0786222, 31.7162, 15.918, 0.0966384, -55.0345, -0.0658989
5.872, 6, 0.040178, 31.7348, 15.9219, 0.0500733, -55.1012, -0.0342462
5.876, 6, 0.00173409, 31.7533, 15.9257, 0.00359372, -55.168, -0.0026722
5.88, 6, -0.0367093, 31.7719, 15.9296, -0.0428006, -55.2348, 0.0288234
5.884, 6, -0.0751521, 31.7905, 15.9334, -0.0891098, -55.3017, 0.0602409
5.888, 6, -0.113594, 31.8091, 15.9372, -0.135334, -55.3685, 0.0915804
5.892, 6, -0.152035, 31.8278, 15.9409, -0.181474, -55.4353, 0.122842
5.896, 6, -0.190476, 31.8464, 15.9446, -0.22753, -55.5022, 0.154027
5.9, 6, -0.228915, 31.8651, 15.9483, -0.273501, -55.569, 0.185135
5.904, 6, -0.267353, 31.8838, 15.9518, -0.319389, -55.6359, 0.216166
5.908, 6, -0.305789, 31.9026, 15.9553, -0.365193, -55.7027, 0.24712
5.912, 6, -0.344224, 31.9214, 15.9587, -0.410914, -55.7695, 0.277998
5.916, 6, -0.382658, 31.9403, 15.962, -0.456552, -55.8363, 0.308801
5.92, 6, -0.421091, 31.9592, 15.9652, -0.502107, -55.9031, 0.339527
5.924, 6, -0.459522, 31.9782, 15.9683, -0.547579, -55.9699, 0.370178
5.928, 6, -0.497952, 31.9972, 15.9713, -0.59297, -56.0366, 0.400755
5.932, 6, -0.53638, 32.0163, 15.9743, -0.638278, -56.1034, 0.431256
5.936, 6, -0.574807, 32.0355, 15.9771, -0.683505, -56.1701, 0.461682
5.94, 6, -0.613233, 32.0547, 15.9798, -0.72865, -56.2368, 0.492034
5.944, 6, -0.651658, 32.0739, 15.9825, -0.773714, -56.3035, 0.522312
5.948, 6, -0.690081, 32.0933, 15.985, -0.818697, -56.3701, 0.552517
5.952, 6, -0.728504, 32.1127, 15.9874, -0.863599, -56.4368, 0.582648
