hehonglu123/ABB_Primitive_Study/execution/movec+movel_smooth/curve_exe_v50_z5.csv
timestamp, cmd_num, J1, J2, J3, J4, J5, J6
0, 1, 32.7465, 54.2623, -9.50115, 89.6875, -78.664, 35.1143
0.003, 1, 32.7465, 54.2623, -9.50115, 89.6875, -78.664, 35.1143
0.004, 1, 32.7465, 54.2623, -9.50115, 89.6875, -78.664, 35.1143
0.008, 1, 32.7465, 54.2623, -9.50115, 89.6875, -78.664, 35.1143
0.011, 1, 32.7465, 54.2623, -9.50115, 89.6875, -78.664, 35.1143
0.016, 1, 32.7465, 54.2623, -9.50115, 89.6875, -78.664, 35.1143
0.02, 1, 32.7465, 54.2623, -9.50115, 89.6875, -78.664, 35.1143
0.024, 1, 32.7465, 54.2623, -9.50115, 89.6875, -78.664, 35.1143
0.028, 1, 32.7465, 54.2623, -9.50115, 89.6875, -78.664, 35.1143
0.032, 1, 32.7465, 54.2623, -9.50115, 89.6875, -78.664, 35.1143
0.036, 1, 32.7466, 54.2623, -9.50115, 89.6875, -78.664, 35.1143
0.04, 1, 32.7467, 54.2621, -9.50116, 89.6875, -78.664, 35.1143
0.044, 1, 32.7471, 54.2618, -9.50116, 89.6875, -78.6639, 35.1143
0.048, 1, 32.7479, 54.2611, -9.50118, 89.6876, -78.6638, 35.1144
0.052, 1, 32.7491, 54.2598, -9.50124, 89.6877, -78.6634, 35.1145
0.056, 1, 32.7507, 54.2577, -9.50136, 89.6879, -78.6626, 35.1147
0.06, 1, 32.7529, 54.2547, -9.50159, 89.6883, -78.6611, 35.1152
0.064, 1, 32.7556, 54.2507, -9.502, 89.689, -78.6586, 35.1161
0.068, 1, 32.7588, 54.2455, -9.50267, 89.6902, -78.6545, 35.1174
0.072, 1, 32.7625, 54.2391, -9.5037, 89.692, -78.6482, 35.1195
0.076, 1, 32.7668, 54.2314, -9.50521, 89.6946, -78.6391, 35.1225
0.08, 1, 32.7718, 54.2224, -9.50734, 89.6982, -78.6262, 35.1267
0.084, 1, 32.7776, 54.212, -9.51024, 89.7032, -78.6088, 35.1325
0.088, 1, 32.784, 54.2002, -9.5141, 89.7098, -78.5857, 35.1401
0.092, 1, 32.7912, 54.1873, -9.51908, 89.7183, -78.5559, 35.1499
0.096, 1, 32.7988, 54.1733, -9.52538, 89.729, -78.5183, 35.1622
0.1, 1, 32.8067, 54.1585, -9.53315, 89.7422, -78.472, 35.1774
0.104, 1, 32.815, 54.143, -9.54252, 89.7581, -78.4163, 35.1957
0.108, 1, 32.8235, 54.1267, -9.55357, 89.7769, -78.3507, 35.2173
0.112, 1, 32.8324, 54.1096, -9.56636, 89.7986, -78.2748, 35.2423
0.116, 1, 32.8415, 54.0916, -9.58087, 89.8232, -78.1888, 35.2705
0.12, 1, 32.8511, 54.0725, -9.59706, 89.8507, -78.0929, 35.3021
0.124, 1, 32.8611, 54.0525, -9.61485, 89.8808, -77.9875, 35.3367
0.128, 1, 32.8716, 54.0317, -9.63411, 89.9134, -77.8735, 35.3742
0.131, 1, 32.8823, 54.0101, -9.65471, 89.9483, -77.7516, 35.4142
0.136, 1, 32.8932, 53.9877, -9.67648, 89.9852, -77.6227, 35.4566
0.139, 1, 32.9045, 53.9644, -9.69923, 90.0237, -77.4881, 35.5008
0.144, 1, 32.9163, 53.9399, -9.72278, 90.0636, -77.3487, 35.5466
0.148, 1, 32.9288, 53.914, -9.74695, 90.1045, -77.2057, 35.5936
0.152, 1, 32.942, 53.8866, -9.77157, 90.1462, -77.0599, 35.6415
0.156, 1, 32.9561, 53.8575, -9.79651, 90.1885, -76.9123, 35.6901
0.16, 1, 32.9711, 53.8271, -9.82165, 90.231, -76.7634, 35.739
0.164, 1, 32.9869, 53.7955, -9.84692, 90.2739, -76.6137, 35.7882
0.168, 1, 33.0032, 53.7631, -9.87226, 90.3168, -76.4636, 35.8375
0.172, 1, 33.02, 53.7302, -9.89762, 90.3598, -76.3133, 35.8869
0.176, 1, 33.037, 53.6969, -9.92299, 90.4028, -76.163, 35.9363
0.18, 1, 33.0541, 53.6634, -9.94833, 90.4457, -76.0128, 35.9857
0.184, 1, 33.0714, 53.6298, -9.97365, 90.4886, -75.8628, 36.035
0.188, 1, 33.0888, 53.5962, -9.99894, 90.5315, -75.713, 36.0842
0.192, 1, 33.1061, 53.5625, -10.0242, 90.5743, -75.5634, 36.1334
0.196, 1, 33.1235, 53.5289, -10.0494, 90.617, -75.4141, 36.1825
0.2, 1, 33.1409, 53.4952, -10.0745, 90.6596, -75.265, 36.2315
0.204, 1, 33.1582, 53.4616, -10.0996, 90.7021, -75.1163, 36.2804
0.208, 1, 33.1755, 53.4281, -10.1247, 90.7446, -74.9678, 36.3292
0.212, 1, 33.1928, 53.3946, -10.1497, 90.787, -74.8197, 36.3779
0.216, 1, 33.2101, 53.3612, -10.1746, 90.8292, -74.6718, 36.4265
0.22, 1, 33.2273, 53.3278, -10.1995, 90.8714, -74.5242, 36.475
0.224, 1, 33.2446, 53.2945, -10.2244, 90.9136, -74.377, 36.5234
0.228, 1, 33.2617, 53.2613, -10.2492, 90.9556, -74.23, 36.5717
0.232, 1, 33.2789, 53.2282, -10.2739, 90.9975, -74.0834, 36.6199
0.236, 1, 33.296, 53.1951, -10.2986, 91.0394, -73.937, 36.668
0.24, 1, 33.313, 53.162, -10.3233, 91.0812, -73.7909, 36.716
0.244, 1, 33.3301, 53.1291, -10.3479, 91.1229, -73.6451, 36.7639
0.248, 1, 33.3471, 53.0962, -10.3724, 91.1645, -73.4996, 36.8117
0.252, 1, 33.364, 53.0633, -10.3969, 91.206, -73.3544, 36.8595
0.256, 1, 33.381, 53.0306, -10.4214, 91.2474, -73.2095, 36.9071
0.26, 1, 33.3979, 52.9979, -10.4458, 91.2888, -73.0649, 36.9546
0.264, 1, 33.4147, 52.9652, -10.4701, 91.3301, -72.9206, 37.0021
0.268, 1, 33.4316, 52.9327, -10.4944, 91.3713, -72.7765, 37.0494
0.272, 1, 33.4484, 52.9002, -10.5187, 91.4124, -72.6327, 37.0967
0.276, 1, 33.4651, 52.8677, -10.5429, 91.4534, -72.4893, 37.1438
0.28, 1, 33.4819, 52.8353, -10.5671, 91.4944, -72.346, 37.1909
0.284, 1, 33.4986, 52.803, -10.5912, 91.5353, -72.2031, 37.2379
0.288, 1, 33.5152, 52.7708, -10.6153, 91.5761, -72.0604, 37.2848
0.292, 1, 33.5319, 52.7386, -10.6393, 91.6168, -71.9181, 37.3316
0.296, 1, 33.5485, 52.7065, -10.6633, 91.6574, -71.776, 37.3783
0.3, 1, 33.5651, 52.6744, -10.6872, 91.698, -71.6341, 37.4249
0.304, 1, 33.5816, 52.6424, -10.7111, 91.7385, -71.4925, 37.4714
0.308, 1, 33.5981, 52.6104, -10.7349, 91.7789, -71.3513, 37.5179
0.312, 1, 33.6146, 52.5785, -10.7587, 91.8192, -71.2102, 37.5642
0.316, 1, 33.631, 52.5467, -10.7825, 91.8595, -71.0695, 37.6105
0.32, 1, 33.6474, 52.5149, -10.8062, 91.8997, -70.929, 37.6567
0.324, 1, 33.6638, 52.4832, -10.8299, 91.9398, -70.7887, 37.7028
0.328, 1, 33.6802, 52.4516, -10.8535, 91.9798, -70.6488, 37.7488
0.332, 1, 33.6965, 52.42, -10.8771, 92.0198, -70.509, 37.7947
0.336, 1, 33.7128, 52.3885, -10.9006, 92.0597, -70.3696, 37.8405
0.34, 1, 33.7291, 52.357, -10.9241, 92.0995, -70.2304, 37.8863
0.344, 1, 33.7453, 52.3256, -10.9475, 92.1392, -70.0914, 37.9319
0.348, 1, 33.7615, 52.2942, -10.9709, 92.1789, -69.9528, 37.9775
0.352, 1, 33.7777, 52.2629, -10.9943, 92.2185, -69.8143, 38.023
0.356, 1, 33.7938, 52.2317, -11.0176, 92.258, -69.6762, 38.0685
0.36, 1, 33.8099, 52.2005, -11.0409, 92.2974, -69.5382, 38.1138
0.364, 1, 33.826, 52.1694, -11.0641, 92.3368, -69.4006, 38.159
0.368, 1, 33.8421, 52.1383, -11.0873, 92.3761, -69.2631, 38.2042
0.372, 1, 33.8581, 52.1073, -11.1104, 92.4153, -69.126, 38.2493
0.376, 1, 33.8741, 52.0763, -11.1336, 92.4545, -68.989, 38.2943
0.38, 1, 33.8901, 52.0454, -11.1566, 92.4936, -68.8523, 38.3392
0.384, 1, 33.906, 52.0146, -11.1796, 92.5326, -68.7159, 38.3841
0.388, 1, 33.9219, 51.9838, -11.2026, 92.5716, -68.5797, 38.4288
0.392, 1, 33.9378, 51.953, -11.2256, 92.6104, -68.4437, 38.4735
0.396, 1, 33.9537, 51.9224, -11.2485, 92.6493, -68.308, 38.5181
0.4, 1, 33.9695, 51.8917, -11.2713, 92.688, -68.1725, 38.5627
0.404, 1, 33.9853, 51.8611, -11.2942, 92.7267, -68.0373, 38.6071
0.408, 1, 34.0011, 51.8306, -11.3169, 92.7653, -67.9023, 38.6515
0.412, 1, 34.0168, 51.8002, -11.3397, 92.8038, -67.7675, 38.6958
0.416, 1, 34.0326, 51.7697, -11.3624, 92.8423, -67.633, 38.74
0.42, 1, 34.0483, 51.7394, -11.385, 92.8807, -67.4987, 38.7842
0.424, 1, 34.0639, 51.7091, -11.4077, 92.9191, -67.3646, 38.8282
0.428, 1, 34.0796, 51.6788, -11.4302, 92.9574, -67.2307, 38.8722
0.432, 1, 34.0952, 51.6486, -11.4528, 92.9956, -67.0971, 38.9161
0.436, 1, 34.1108, 51.6184, -11.4753, 93.0337, -66.9637, 38.96
0.44, 1, 34.1263, 51.5883, -11.4978, 93.0718, -66.8306, 39.0038
0.444, 1, 34.1418, 51.5583, -11.5202, 93.1098, -66.6976, 39.0474
0.448, 1, 34.1573, 51.5282, -11.5426, 93.1478, -66.5649, 39.0911
0.452, 1, 34.1728, 51.4983, -11.565, 93.1857, -66.4324, 39.1346
0.456, 1, 34.1883, 51.4684, -11.5873, 93.2235, -66.3002, 39.1781
0.46, 1, 34.2037, 51.4385, -11.6096, 93.2613, -66.1681, 39.2215
0.464, 1, 34.2191, 51.4087, -11.6318, 93.299, -66.0363, 39.2648
0.468, 1, 34.2345, 51.379, -11.654, 93.3366, -65.9047, 39.3081
0.472, 1, 34.2498, 51.3493, -11.6762, 93.3742, -65.7733, 39.3513
0.476, 1, 34.2652, 51.3196, -11.6983, 93.4117, -65.6421, 39.3944
0.48, 1, 34.2805, 51.29, -11.7204, 93.4492, -65.5111, 39.4374
0.484, 1, 34.2957, 51.2604, -11.7425, 93.4865, -65.3804, 39.4804
0.488, 1, 34.311, 51.2309, -11.7645, 93.5239, -65.2498, 39.5233
0.492, 1, 34.3262, 51.2014, -11.7865, 93.5611, -65.1195, 39.5662
0.496, 1, 34.3414, 51.172, -11.8085, 93.5984, -64.9894, 39.6089
0.5, 1, 34.3566, 51.1426, -11.8304, 93.6355, -64.8595, 39.6516
0.504, 1, 34.3718, 51.1133, -11.8523, 93.6726, -64.7298, 39.6943
0.508, 1, 34.3869, 51.084, -11.8741, 93.7096, -64.6003, 39.7368
0.512, 1, 34.402, 51.0548, -11.8959, 93.7466, -64.471, 39.7793
0.516, 1, 34.4171, 51.0256, -11.9177, 93.7835, -64.3419, 39.8217
0.52, 1, 34.4321, 50.9965, -11.9395, 93.8204, -64.213, 39.8641
0.524, 1, 34.4472, 50.9674, -11.9612, 93.8572, -64.0844, 39.9064
0.528, 1, 34.4622, 50.9384, -11.9828, 93.8939, -63.9559, 39.9486
0.532, 1, 34.4771, 50.9094, -12.0045, 93.9306, -63.8276, 39.9908
0.536, 1, 34.4921, 50.8804, -12.0261, 93.9672, -63.6996, 40.0329
0.54, 1, 34.507, 50.8515, -12.0477, 94.0038, -63.5717, 40.0749
0.544, 1, 34.522, 50.8226, -12.0692, 94.0403, -63.444, 40.1169
0.548, 1, 34.5369, 50.7938, -12.0907, 94.0768, -63.3166, 40.1588
0.552, 1, 34.5517, 50.765, -12.1122, 94.1132, -63.1893, 40.2006
0.556, 1, 34.5666, 50.7363, -12.1337, 94.1495, -63.0622, 40.2424
0.56, 1, 34.5814, 50.7076, -12.1551, 94.1858, -62.9353, 40.2841
0.564, 1, 34.5962, 50.679, -12.1764, 94.2221, -62.8086, 40.3257
0.568, 1, 34.611, 50.6504, -12.1978, 94.2582, -62.6821, 40.3673
0.572, 1, 34.6257, 50.6218, -12.2191, 94.2943, -62.5558, 40.4088
0.576, 1, 34.6405, 50.5933, -12.2404, 94.3304, -62.4297, 40.4502
0.58, 1, 34.6552, 50.5648, -12.2616, 94.3664, -62.3038, 40.4916
0.584, 1, 34.6699, 50.5364, -12.2828, 94.4024, -62.1781, 40.533
0.588, 1, 34.6845, 50.508, -12.304, 94.4383, -62.0525, 40.5742
0.592, 1, 34.6992, 50.4797, -12.3252, 94.4741, -61.9272, 40.6154
0.596, 1, 34.7138, 50.4514, -12.3463, 94.5099, -61.802, 40.6566
0.6, 1, 34.7284, 50.4231, -12.3674, 94.5457, -61.677, 40.6977
0.604, 1, 34.743, 50.3949, -12.3884, 94.5814, -61.5522, 40.7387
0.608, 1, 34.7575, 50.3667, -12.4095, 94.617, -61.4276, 40.7796
0.612, 1, 34.7721, 50.3386, -12.4305, 94.6526, -61.3032, 40.8205
0.616, 1, 34.7866, 50.3105, -12.4514, 94.6881, -61.1789, 40.8614
0.62, 1, 34.8011, 50.2824, -12.4724, 94.7236, -61.0548, 40.9022
0.624, 1, 34.8155, 50.2544, -12.4933, 94.7591, -60.931, 40.9429
0.628, 1, 34.83, 50.2265, -12.5142, 94.7944, -60.8073, 40.9835
0.632, 1, 34.8444, 50.1985, -12.535, 94.8298, -60.6837, 41.0241
0.636, 1, 34.8588, 50.1707, -12.5558, 94.865, -60.5604, 41.0647
0.64, 1, 34.8732, 50.1428, -12.5766, 94.9003, -60.4372, 41.1052
0.644, 1, 34.8876, 50.115, -12.5973, 94.9354, -60.3142, 41.1456
0.648, 1, 34.9019, 50.0872, -12.6181, 94.9706, -60.1914, 41.1859
0.652, 1, 34.9163, 50.0595, -12.6388, 95.0056, -60.0688, 41.2263
0.656, 1, 34.9306, 50.0318, -12.6594, 95.0407, -59.9463, 41.2665
0.66, 1, 34.9449, 50.0042, -12.6801, 95.0756, -59.824, 41.3067
0.664, 1, 34.9591, 49.9766, -12.7007, 95.1106, -59.7019, 41.3468
0.668, 1, 34.9734, 49.949, -12.7212, 95.1454, -59.58, 41.3869
0.672, 1, 34.9876, 49.9215, -12.7418, 95.1803, -59.4582, 41.427
0.676, 1, 35.0018, 49.894, -12.7623, 95.215, -59.3366, 41.4669
0.68, 1, 35.016, 49.8665, -12.7828, 95.2498, -59.2151, 41.5068
0.684, 1, 35.0301, 49.8391, -12.8033, 95.2844, -59.0939, 41.5467
0.688, 1, 35.0443, 49.8117, -12.8237, 95.3191, -58.9728, 41.5865
0.692, 1, 35.0584, 49.7844, -12.8441, 95.3537, -58.8519, 41.6262
0.696, 1, 35.0725, 49.7571, -12.8645, 95.3882, -58.7311, 41.6659
0.7, 1, 35.0866, 49.7298, -12.8848, 95.4227, -58.6105, 41.7056
0.704, 1, 35.1007, 49.7026, -12.9051, 95.4571, -58.4901, 41.7451
0.708, 1, 35.1147, 49.6754, -12.9254, 95.4915, -58.3698, 41.7847
0.712, 1, 35.1288, 49.6482, -12.9457, 95.5259, -58.2497, 41.8241
0.716, 1, 35.1428, 49.6211, -12.9659, 95.5602, -58.1298, 41.8636
0.72, 1, 35.1568, 49.5941, -12.9862, 95.5944, -58.01, 41.9029
0.724, 1, 35.1707, 49.567, -13.0063, 95.6286, -57.8904, 41.9422
0.728, 1, 35.1847, 49.54, -13.0265, 95.6628, -57.771, 41.9815
0.732, 1, 35.1986, 49.513, -13.0466, 95.6969, -57.6517, 42.0207
0.736, 1, 35.2125, 49.4861, -13.0667, 95.731, -57.5326, 42.0599
0.74, 1, 35.2264, 49.4592, -13.0868, 95.765, -57.4136, 42.099
0.744, 1, 35.2403, 49.4324, -13.1068, 95.799, -57.2948, 42.138
0.748, 1, 35.2542, 49.4055, -13.1269, 95.8329, -57.1762, 42.177
0.752, 1, 35.268, 49.3787, -13.1468, 95.8668, -57.0577, 42.2159
0.756, 1, 35.2818, 49.352, -13.1668, 95.9006, -56.9394, 42.2548
0.76, 1, 35.2956, 49.3253, -13.1868, 95.9344, -56.8212, 42.2937
0.764, 1, 35.3094, 49.2986, -13.2067, 95.9682, -56.7032, 42.3325
0.768, 1, 35.3232, 49.272, -13.2266, 96.0019, -56.5854, 42.3712
0.772, 1, 35.3369, 49.2453, -13.2464, 96.0355, -56.4676, 42.4099
0.776, 1, 35.3507, 49.2188, -13.2663, 96.0692, -56.3501, 42.4485
0.78, 1, 35.3644, 49.1922, -13.2861, 96.1027, -56.2327, 42.4871
0.784, 1, 35.3781, 49.1657, -13.3058, 96.1363, -56.1155, 42.5257
0.788, 1, 35.3917, 49.1392, -13.3256, 96.1698, -55.9984, 42.5641
0.792, 1, 35.4054, 49.1128, -13.3453, 96.2032, -55.8814, 42.6026
0.796, 1, 35.4191, 49.0864, -13.365, 96.2366, -55.7646, 42.641
0.8, 1, 35.4327, 49.06, -13.3847, 96.27, -55.648, 42.6793
0.804, 1, 35.4463, 49.0337, -13.4044, 96.3033, -55.5315, 42.7176
0.808, 1, 35.4599, 49.0074, -13.424, 96.3365, -55.4151, 42.7558
0.812, 1, 35.4734, 48.9811, -13.4436, 96.3698, -55.2989, 42.794
0.816, 1, 35.487, 48.9549, -13.4632, 96.403, -55.1829, 42.8322
0.82, 1, 35.5005, 48.9287, -13.4828, 96.4361, -55.067, 42.8703
0.824, 1, 35.5141, 48.9025, -13.5023, 96.4692, -54.9512, 42.9083
0.828, 1, 35.5276, 48.8764, -13.5218, 96.5023, -54.8356, 42.9463
0.832, 1, 35.5411, 48.8503, -13.5413, 96.5353, -54.7201, 42.9843
0.836, 1, 35.5545, 48.8242, -13.5608, 96.5683, -54.6048, 43.0222
0.84, 1, 35.568, 48.7981, -13.5802, 96.6012, -54.4896, 43.06
0.844, 1, 35.5814, 48.7721, -13.5996, 96.6341, -54.3746, 43.0979
0.848, 1, 35.5949, 48.7461, -13.619, 96.667, -54.2597, 43.1356
0.852, 1, 35.6083, 48.7202, -13.6384, 96.6998, -54.1449, 43.1733
0.856, 1, 35.6216, 48.6943, -13.6577, 96.7326, -54.0303, 43.211
0.86, 1, 35.635, 48.6684, -13.677, 96.7654, -53.9158, 43.2486
0.864, 1, 35.6483, 48.6426, -13.6963, 96.798, -53.8015, 43.2862
0.868, 1, 35.6616, 48.6169, -13.7156, 96.8307, -53.6873, 43.3238
0.872, 1, 35.6747, 48.5912, -13.7348, 96.8633, -53.5732, 43.3612
0.876, 1, 35.6878, 48.5656, -13.754, 96.8959, -53.4594, 43.3987
0.88, 1, 35.7008, 48.5402, -13.7732, 96.9284, -53.3457, 43.436
0.884, 1, 35.7135, 48.515, -13.7924, 96.9608, -53.2323, 43.4733
0.888, 1, 35.726, 48.4902, -13.8115, 96.9932, -53.1192, 43.5105
0.892, 1, 35.738, 48.466, -13.8305, 97.0254, -53.0066, 43.5475
0.896, 1, 35.7494, 48.4426, -13.8494, 97.0574, -52.8946, 43.5843
0.9, 1, 35.7603, 48.4201, -13.8682, 97.0892, -52.7836, 43.6208
0.904, 1, 35.7705, 48.3986, -13.8867, 97.1205, -52.6741, 43.6568
0.908, 1, 35.7802, 48.3781, -13.9049, 97.1513, -52.5665, 43.6922
0.912, 1, 35.7894, 48.3586, -13.9227, 97.1813, -52.4615, 43.7267
0.916, 1, 35.7982, 48.3399, -13.9399, 97.2104, -52.3599, 43.7602
0.92, 1, 35.8067, 48.3221, -13.9564, 97.2383, -52.2624, 43.7923
0.924, 1, 35.8148, 48.3051, -13.9721, 97.2649, -52.1697, 43.8228
0.928, 1, 35.8225, 48.2891, -13.9869, 97.2898, -52.0824, 43.8514
0.932, 1, 35.8299, 48.274, -14.0006, 97.313, -52.0014, 43.8781
0.936, 1, 35.837, 48.2597, -14.0132, 97.3343, -51.927, 43.9026
0.94, 1, 35.8438, 48.2461, -14.0246, 97.3535, -51.8598, 43.9247
0.944, 1, 35.8505, 48.233, -14.0347, 97.3706, -51.8, 43.9443
0.948, 1, 35.8571, 48.2204, -14.0435, 97.3856, -51.7476, 43.9615
0.952, 1, 35.8636, 48.2083, -14.0511, 97.3985, -51.7026, 43.9763
0.956, 1, 35.8699, 48.1968, -14.0574, 97.4093, -51.6646, 43.9888
0.96, 1, 35.8759, 48.1861, -14.0627, 97.4183, -51.633, 43.9991
0.964, 2, 35.8815, 48.1763, -14.067, 97.4257, -51.6074, 44.0075
0.968, 2, 35.8866, 48.1676, -14.0704, 97.4315, -51.5869, 44.0143
0.972, 2, 35.8914, 48.16, -14.073, 97.436, -51.5709, 44.0195
0.976, 2, 35.8957, 48.1533, -14.075, 97.4395, -51.5587, 44.0235
0.98, 2, 35.8997, 48.1475, -14.0765, 97.4421, -51.5496, 44.0264
0.984, 2, 35.9032, 48.1427, -14.0776, 97.444, -51.543, 44.0286
0.988, 2, 35.9062, 48.1387, -14.0784, 97.4453, -51.5382, 44.0302
0.992, 2, 35.9087, 48.1355, -14.0789, 97.4463, -51.5349, 44.0312
0.996, 2, 35.9106, 48.1332, -14.0793, 97.4469, -51.5327, 44.032
1, 2, 35.912, 48.1315, -14.0795, 97.4474, -51.5311, 44.0325
1.004, 2, 35.913, 48.1303, -14.0797, 97.4477, -51.5301, 44.0328
1.008, 2, 35.9137, 48.1295, -14.0798, 97.4479, -51.5293, 44.033
1.012, 2, 35.9142, 48.1289, -14.0799, 97.448, -51.5289, 44.0332
1.016, 2, 35.9145, 48.1286, -14.0799, 97.4481, -51.5285, 44.0333
1.02, 2, 35.9147, 48.1283, -14.08, 97.4482, -51.5283, 44.0334
1.024, 2, 35.9148, 48.1281, -14.08, 97.4482, -51.5282, 44.0334
1.027, 2, 35.9149, 48.128, -14.08, 97.4482, -51.5281, 44.0335
1.032, 2, 35.915, 48.1279, -14.08, 97.4482, -51.528, 44.0335
1.036, 2, 35.915, 48.1279, -14.08, 97.4483, -51.5279, 44.0335
1.04, 2, 35.9151, 48.1279, -14.08, 97.4483, -51.5279, 44.0335
1.044, 2, 35.9151, 48.1278, -14.08, 97.4483, -51.5279, 44.0335
1.048, 2, 35.9151, 48.1278, -14.08, 97.4483, -51.5279, 44.0335
1.052, 2, 35.9151, 48.1278, -14.08, 97.4483, -51.5279, 44.0335
1.055, 2, 35.9151, 48.1278, -14.08, 97.4483, -51.5279, 44.0335
1.06, 2, 35.9151, 48.1278, -14.08, 97.4483, -51.5279, 44.0335
1.064, 2, 35.9151, 48.1278, -14.08, 97.4483, -51.5278, 44.0335
1.068, 2, 35.9151, 48.1278, -14.08, 97.4483, -51.5278, 44.0335
1.072, 2, 35.9151, 48.1278, -14.08, 97.4483, -51.5278, 44.0335
1.076, 2, 35.9151, 48.1278, -14.08, 97.4483, -51.5278, 44.0335
1.08, 2, 35.9151, 48.1278, -14.08, 97.4483, -51.5278, 44.0335
1.084, 2, 35.9151, 48.1278, -14.08, 97.4483, -51.5278, 44.0335
1.088, 2, 35.9151, 48.1278, -14.08, 97.4483, -51.5278, 44.0335
1.091, 2, 35.9151, 48.1278, -14.08, 97.4483, -51.5278, 44.0335
1.096, 2, 35.9151, 48.1278, -14.08, 97.4483, -51.5278, 44.0335
1.1, 2, 35.9151, 48.1278, -14.08, 97.4483, -51.5278, 44.0335
1.104, 2, 35.9151, 48.1278, -14.08, 97.4483, -51.5278, 44.0335
1.108, 2, 35.9151, 48.1278, -14.08, 97.4483, -51.5278, 44.0335
1.112, 2, 35.9151, 48.1278, -14.08, 97.4483, -51.5278, 44.0335
1.116, 2, 35.9151, 48.1278, -14.08, 97.4483, -51.5278, 44.0335
1.119, 2, 35.9151, 48.1278, -14.08, 97.4483, -51.5278, 44.0335
1.124, 2, 35.9151, 48.1278, -14.08, 97.4483, -51.5278, 44.0335
1.128, 2, 35.9151, 48.1278, -14.08, 97.4483, -51.5278, 44.0335
1.132, 2, 35.9151, 48.1278, -14.08, 97.4483, -51.5278, 44.0335
1.136, 2, 35.9151, 48.1278, -14.08, 97.4483, -51.5278, 44.0335
1.14, 2, 35.9151, 48.1278, -14.08, 97.4483, -51.5278, 44.0335
1.144, 2, 35.9151, 48.1278, -14.08, 97.4483, -51.5278, 44.0335
1.147, 2, 35.9151, 48.1278, -14.08, 97.4483, -51.5278, 44.0335
1.152, 2, 35.9151, 48.1278, -14.08, 97.4483, -51.5278, 44.0335
1.156, 2, 35.9151, 48.1278, -14.08, 97.4483, -51.5278, 44.0335
1.16, 2, 35.9151, 48.1278, -14.08, 97.4483, -51.5278, 44.0335
1.164, 2, 35.9151, 48.1278, -14.08, 97.4483, -51.5278, 44.0335
1.168, 2, 35.9151, 48.1278, -14.08, 97.4483, -51.5278, 44.0335
1.172, 2, 35.9151, 48.1278, -14.08, 97.4483, -51.5278, 44.0335
1.175, 2, 35.9151, 48.1278, -14.08, 97.4483, -51.5278, 44.0335
1.18, 2, 35.9151, 48.1278, -14.08, 97.4483, -51.5278, 44.0335
1.184, 2, 35.9151, 48.1278, -14.08, 97.4483, -51.5278, 44.0335
1.188, 2, 35.9151, 48.1278, -14.08, 97.4483, -51.5278, 44.0335
1.192, 2, 35.9151, 48.1278, -14.08, 97.4483, -51.5278, 44.0335
1.196, 2, 35.9151, 48.1278, -14.08, 97.4483, -51.5278, 44.0335
1.2, 2, 35.9151, 48.1278, -14.08, 97.4483, -51.5278, 44.0335
1.204, 2, 35.9151, 48.1278, -14.08, 97.4483, -51.5278, 44.0335
1.208, 2, 35.9151, 48.1278, -14.08, 97.4483, -51.5278, 44.0335
1.212, 2, 35.9151, 48.1278, -14.08, 97.4483, -51.5278, 44.0335
1.216, 2, 35.9151, 48.1278, -14.08, 97.4483, -51.5278, 44.0335
1.22, 2, 35.9151, 48.1278, -14.08, 97.4483, -51.5278, 44.0335
1.224, 2, 35.9151, 48.1278, -14.08, 97.4483, -51.5278, 44.0335
1.228, 2, 35.9151, 48.1278, -14.08, 97.4483, -51.5278, 44.0335
1.232, 2, 35.9151, 48.1278, -14.08, 97.4483, -51.5278, 44.0335
1.236, 2, 35.9151, 48.1278, -14.08, 97.4483, -51.5278, 44.0335
1.24, 2, 35.9151, 48.1278, -14.08, 97.4483, -51.5278, 44.0335
1.244, 2, 35.9151, 48.1278, -14.08, 97.4483, -51.5278, 44.0335
1.248, 2, 35.9151, 48.1278, -14.08, 97.4483, -51.5278, 44.0335
1.252, 2, 35.9151, 48.1278, -14.08, 97.4483, -51.5278, 44.0335
1.256, 2, 35.9151, 48.1278, -14.08, 97.4483, -51.5278, 44.0335
1.26, 2, 35.9151, 48.1278, -14.08, 97.4483, -51.5278, 44.0335
1.264, 2, 35.9151, 48.1278, -14.08, 97.4483, -51.5278, 44.0335
1.267, 2, 35.9151, 48.1278, -14.08, 97.4483, -51.5278, 44.0335
1.272, 2, 35.9151, 48.1278, -14.08, 97.4483, -51.5278, 44.0335
1.276, 2, 35.9151, 48.1278, -14.08, 97.4483, -51.5278, 44.0335
1.28, 2, 35.9151, 48.1278, -14.08, 97.4483, -51.5278, 44.0335
1.284, 2, 35.9151, 48.1278, -14.08, 97.4483, -51.5278, 44.0335
1.288, 2, 35.9151, 48.1278, -14.08, 97.4483, -51.5278, 44.0335
1.292, 2, 35.9151, 48.1278, -14.08, 97.4483, -51.5278, 44.0335
1.295, 2, 35.9151, 48.1278, -14.08, 97.4483, -51.5278, 44.0335
1.3, 2, 35.9151, 48.1278, -14.08, 97.4483, -51.5278, 44.0335
1.304, 2, 35.9151, 48.1278, -14.08, 97.4483, -51.5278, 44.0335
1.308, 2, 35.9151, 48.1278, -14.08, 97.4483, -51.5278, 44.0335
1.312, 2, 35.9151, 48.1278, -14.08, 97.4483, -51.5278, 44.0335
1.316, 2, 35.9151, 48.1278, -14.08, 97.4483, -51.5278, 44.0335
1.32, 2, 35.9151, 48.1278, -14.08, 97.4483, -51.5278, 44.0335
1.324, 2, 35.9151, 48.1278, -14.08, 97.4483, -51.5278, 44.0335
1.328, 2, 35.9151, 48.1278, -14.08, 97.4483, -51.5278, 44.0335
1.332, 2, 35.9151, 48.1278, -14.08, 97.4483, -51.5278, 44.0335
1.336, 2, 35.9151, 48.1278, -14.08, 97.4483, -51.5278, 44.0335
1.34, 2, 35.9151, 48.1278, -14.08, 97.4483, -51.5278, 44.0335
1.344, 2, 35.9151, 48.1278, -14.08, 97.4483, -51.5278, 44.0335
1.348, 2, 35.9151, 48.1278, -14.08, 97.4483, -51.5278, 44.0335
1.352, 2, 35.9151, 48.1278, -14.08, 97.4483, -51.5278, 44.0335
1.356, 2, 35.9151, 48.1278, -14.08, 97.4483, -51.5278, 44.0335
1.36, 2, 35.9151, 48.1278, -14.08, 97.4483, -51.5278, 44.0335
1.364, 2, 35.9151, 48.1278, -14.08, 97.4483, -51.5278, 44.0335
1.368, 2, 35.9151, 48.1278, -14.08, 97.4483, -51.5278, 44.0335
1.372, 2, 35.9151, 48.1278, -14.08, 97.4483, -51.5278, 44.0335
1.376, 2, 35.9151, 48.1278, -14.08, 97.4483, -51.5278, 44.0335
1.38, 2, 35.9151, 48.1278, -14.08, 97.4483, -51.5278, 44.0335
1.384, 2, 35.9151, 48.1278, -14.08, 97.4483, -51.5278, 44.0335
1.388, 2, 35.9151, 48.1278, -14.08, 97.4483, -51.5278, 44.0335
1.392, 2, 35.9151, 48.1278, -14.08, 97.4483, -51.5278, 44.0335
1.396, 2, 35.9151, 48.1278, -14.08, 97.4483, -51.5278, 44.0335
1.4, 2, 35.9151, 48.1278, -14.08, 97.4483, -51.5278, 44.0335
1.404, 2, 35.9151, 48.1278, -14.08, 97.4483, -51.5278, 44.0335
1.408, 2, 35.9151, 48.1278, -14.08, 97.4483, -51.5278, 44.0335
1.412, 2, 35.9151, 48.1278, -14.08, 97.4483, -51.5278, 44.0335
1.416, 2, 35.9151, 48.1278, -14.08, 97.4483, -51.5278, 44.0335
1.42, 2, 35.9151, 48.1278, -14.08, 97.4483, -51.5278, 44.0335
1.424, 2, 35.9151, 48.1278, -14.08, 97.4483, -51.5278, 44.0335
1.428, 2, 35.9151, 48.1278, -14.08, 97.4483, -51.5278, 44.0335
1.432, 2, 35.9151, 48.1278, -14.08, 97.4483, -51.5278, 44.0335
1.436, 2, 35.9151, 48.1278, -14.08, 97.4483, -51.5278, 44.0335
1.44, 2, 35.9151, 48.1278, -14.08, 97.4483, -51.5278, 44.0335
1.444, 2, 35.9151, 48.1278, -14.08, 97.4483, -51.5278, 44.0335
1.448, 2, 35.9151, 48.1278, -14.08, 97.4483, -51.5278, 44.0335
1.452, 2, 35.9151, 48.1278, -14.08, 97.4483, -51.5278, 44.0335
1.456, 2, 35.9151, 48.1278, -14.08, 97.4483, -51.5278, 44.0335
1.46, 2, 35.9151, 48.1278, -14.08, 97.4483, -51.5278, 44.0335
1.464, 2, 35.9151, 48.1278, -14.08, 97.4483, -51.5278, 44.0335
1.468, 2, 35.9151, 48.1278, -14.08, 97.4483, -51.5278, 44.0335
1.472, 2, 35.9151, 48.1278, -14.08, 97.4483, -51.5278, 44.0335
1.476, 2, 35.9151, 48.1278, -14.08, 97.4483, -51.5278, 44.0335
1.48, 2, 35.9151, 48.1278, -14.08, 97.4483, -51.5278, 44.0335
1.484, 2, 35.9151, 48.1278, -14.08, 97.4483, -51.5278, 44.0335
1.488, 2, 35.9151, 48.1278, -14.08, 97.4483, -51.5278, 44.0335
1.492, 2, 35.9151, 48.1278, -14.08, 97.4483, -51.5278, 44.0335
1.496, 2, 35.9151, 48.1278, -14.08, 97.4483, -51.5278, 44.0335
1.5, 2, 35.9151, 48.1278, -14.08, 97.4483, -51.5278, 44.0335
1.504, 2, 35.9151, 48.1278, -14.08, 97.4483, -51.5278, 44.0335
1.508, 2, 35.9151, 48.1278, -14.08, 97.4483, -51.5278, 44.0335
1.512, 2, 35.9151, 48.1278, -14.08, 97.4483, -51.5278, 44.0335
1.516, 2, 35.9151, 48.1278, -14.08, 97.4483, -51.5278, 44.0335
1.52, 2, 35.9151, 48.1278, -14.08, 97.4483, -51.5278, 44.0335
1.524, 2, 35.9151, 48.1278, -14.08, 97.4483, -51.5278, 44.0335
1.528, 2, 35.9151, 48.1278, -14.08, 97.4483, -51.5278, 44.0335
1.532, 2, 35.9151, 48.1278, -14.08, 97.4483, -51.5278, 44.0335
1.536, 2, 35.9151, 48.1278, -14.08, 97.4483, -51.5278, 44.0335
1.54, 2, 35.9151, 48.1278, -14.08, 97.4483, -51.5278, 44.0335
1.544, 2, 35.9151, 48.1278, -14.08, 97.4483, -51.5278, 44.0335
1.548, 2, 35.9151, 48.1278, -14.08, 97.4483, -51.5278, 44.0335
1.552, 2, 35.9151, 48.1278, -14.08, 97.4483, -51.5278, 44.0335
1.556, 2, 35.9151, 48.1278, -14.08, 97.4483, -51.5278, 44.0335
1.56, 2, 35.9151, 48.1278, -14.08, 97.4483, -51.5278, 44.0335
1.564, 2, 35.9151, 48.1278, -14.08, 97.4483, -51.5278, 44.0335
1.568, 2, 35.9151, 48.1278, -14.08, 97.4483, -51.5278, 44.0335
1.572, 2, 35.9151, 48.1278, -14.08, 97.4483, -51.5278, 44.0335
1.576, 2, 35.9151, 48.1278, -14.08, 97.4483, -51.5278, 44.0335
1.58, 2, 35.9151, 48.1278, -14.08, 97.4483, -51.5278, 44.0335
1.584, 2, 35.9151, 48.1278, -14.08, 97.4483, -51.5278, 44.0335
1.588, 2, 35.9151, 48.1278, -14.08, 97.4483, -51.5278, 44.0335
1.592, 2, 35.9151, 48.1278, -14.08, 97.4483, -51.5278, 44.0335
1.596, 2, 35.9151, 48.1278, -14.08, 97.4483, -51.5278, 44.0335
1.6, 2, 35.9151, 48.1278, -14.08, 97.4483, -51.5278, 44.0335
1.604, 2, 35.9151, 48.1278, -14.08, 97.4483, -51.5278, 44.0335
1.608, 2, 35.9151, 48.1278, -14.08, 97.4483, -51.5278, 44.0335
1.612, 2, 35.9151, 48.1278, -14.08, 97.4483, -51.5278, 44.0335
1.616, 2, 35.9151, 48.1278, -14.08, 97.4483, -51.5278, 44.0335
1.62, 2, 35.9151, 48.1278, -14.08, 97.4483, -51.5278, 44.0335
1.624, 2, 35.9151, 48.1278, -14.08, 97.4483, -51.5278, 44.0335
1.628, 2, 35.9151, 48.1278, -14.08, 97.4483, -51.5278, 44.0335
1.632, 2, 35.9151, 48.1278, -14.08, 97.4483, -51.5278, 44.0335
1.636, 2, 35.9151, 48.1278, -14.08, 97.4483, -51.5278, 44.0335
1.64, 2, 35.9151, 48.1278, -14.08, 97.4483, -51.5278, 44.0335
1.644, 2, 35.9151, 48.1278, -14.08, 97.4483, -51.5278, 44.0335
1.648, 2, 35.9151, 48.1278, -14.08, 97.4483, -51.5278, 44.0335
1.652, 2, 35.9151, 48.1278, -14.08, 97.4483, -51.5278, 44.0335
1.656, 2, 35.9151, 48.1278, -14.08, 97.4483, -51.5278, 44.0335
1.66, 2, 35.9151, 48.1278, -14.08, 97.4483, -51.5278, 44.0335
1.664, 2, 35.9151, 48.1278, -14.08, 97.4483, -51.5278, 44.0335
1.668, 2, 35.9151, 48.1278, -14.08, 97.4483, -51.5278, 44.0335
1.672, 2, 35.9151, 48.1278, -14.08, 97.4483, -51.5278, 44.0335
1.676, 2, 35.9151, 48.1278, -14.08, 97.4483, -51.5278, 44.0335
1.68, 2, 35.9151, 48.1278, -14.08, 97.4483, -51.5278, 44.0335
1.684, 2, 35.9151, 48.1278, -14.08, 97.4483, -51.5278, 44.0335
1.688, 2, 35.9151, 48.1278, -14.08, 97.4483, -51.5278, 44.0335
1.692, 2, 35.9151, 48.1278, -14.08, 97.4483, -51.5278, 44.0335
1.696, 2, 35.9151, 48.1278, -14.08, 97.4483, -51.5278, 44.0335
1.7, 2, 35.9151, 48.1278, -14.08, 97.4483, -51.5278, 44.0335
1.704, 2, 35.9151, 48.1278, -14.08, 97.4483, -51.5278, 44.0335
1.708, 2, 35.9151, 48.1278, -14.08, 97.4483, -51.5278, 44.0335
1.712, 2, 35.9151, 48.1278, -14.08, 97.4483, -51.5278, 44.0335
1.716, 2, 35.9151, 48.1278, -14.08, 97.4483, -51.5278, 44.0335
1.72, 2, 35.9151, 48.1278, -14.08, 97.4483, -51.5278, 44.0335
1.724, 2, 35.9151, 48.1278, -14.08, 97.4483, -51.5278, 44.0335
1.728, 2, 35.9151, 48.1278, -14.08, 97.4483, -51.5278, 44.0335
1.732, 2, 35.9151, 48.1278, -14.08, 97.4483, -51.5278, 44.0335
1.736, 2, 35.9151, 48.1278, -14.08, 97.4483, -51.5278, 44.0335
1.74, 2, 35.9151, 48.1278, -14.08, 97.4483, -51.5278, 44.0335
1.744, 2, 35.9151, 48.1278, -14.08, 97.4483, -51.5278, 44.0335
1.748, 2, 35.9151, 48.1278, -14.08, 97.4483, -51.5278, 44.0335
1.752, 2, 35.9151, 48.1278, -14.08, 97.4483, -51.5278, 44.0335
1.756, 2, 35.9151, 48.1278, -14.08, 97.4483, -51.5278, 44.0335
1.76, 2, 35.9151, 48.1278, -14.08, 97.4483, -51.5278, 44.0335
1.764, 2, 35.9151, 48.1278, -14.08, 97.4483, -51.5278, 44.0335
1.768, 2, 35.9151, 48.1278, -14.08, 97.4483, -51.5278, 44.0335
1.772, 2, 35.9151, 48.1278, -14.08, 97.4483, -51.5278, 44.0335
1.776, 2, 35.9151, 48.1278, -14.08, 97.4483, -51.5278, 44.0335
1.78, 2, 35.9151, 48.1278, -14.08, 97.4483, -51.5278, 44.0335
1.784, 2, 35.9151, 48.1278, -14.08, 97.4483, -51.5278, 44.0335
1.788, 2, 35.9151, 48.1278, -14.08, 97.4483, -51.5278, 44.0335
1.792, 2, 35.9151, 48.1278, -14.08, 97.4483, -51.5278, 44.0335
1.796, 2, 35.9151, 48.1278, -14.08, 97.4483, -51.5278, 44.0335
1.8, 2, 35.9151, 48.1278, -14.08, 97.4483, -51.5278, 44.0335
1.804, 2, 35.9151, 48.1278, -14.08, 97.4483, -51.5278, 44.0335
1.808, 2, 35.9151, 48.1278, -14.08, 97.4483, -51.5278, 44.0335
1.812, 2, 35.9151, 48.1278, -14.08, 97.4483, -51.5278, 44.0335
1.816, 2, 35.9151, 48.1278, -14.08, 97.4483, -51.5278, 44.0335
1.82, 2, 35.9151, 48.1278, -14.08, 97.4483, -51.5278, 44.0335
1.824, 2, 35.9151, 48.1278, -14.08, 97.4483, -51.5278, 44.0335
1.828, 2, 35.9151, 48.1278, -14.08, 97.4483, -51.5278, 44.0335
1.832, 2, 35.9151, 48.1278, -14.08, 97.4483, -51.5278, 44.0335
1.836, 2, 35.9151, 48.1278, -14.08, 97.4483, -51.5278, 44.0335
1.84, 2, 35.9151, 48.1278, -14.08, 97.4483, -51.5278, 44.0335
1.844, 2, 35.9151, 48.1278, -14.08, 97.4483, -51.5278, 44.0335
1.848, 2, 35.9151, 48.1278, -14.08, 97.4483, -51.5278, 44.0335
1.852, 2, 35.9151, 48.1278, -14.08, 97.4483, -51.5278, 44.0335
1.856, 2, 35.9151, 48.1278, -14.08, 97.4483, -51.5278, 44.0335
1.86, 2, 35.9151, 48.1278, -14.08, 97.4483, -51.5278, 44.0335
1.864, 2, 35.9151, 48.1278, -14.08, 97.4483, -51.5278, 44.0335
1.868, 2, 35.9151, 48.1278, -14.08, 97.4483, -51.5278, 44.0335
1.872, 2, 35.9151, 48.1278, -14.08, 97.4483, -51.5278, 44.0335
1.876, 2, 35.9151, 48.1278, -14.08, 97.4483, -51.5278, 44.0335
1.88, 2, 35.9151, 48.1278, -14.08, 97.4483, -51.5278, 44.0335
1.884, 2, 35.9151, 48.1278, -14.08, 97.4483, -51.5278, 44.0335
1.888, 2, 35.9151, 48.1278, -14.08, 97.4483, -51.5278, 44.0335
1.892, 2, 35.9151, 48.1278, -14.08, 97.4483, -51.5278, 44.0335
1.896, 2, 35.9151, 48.1278, -14.08, 97.4483, -51.5278, 44.0335
1.9, 2, 35.9151, 48.1278, -14.08, 97.4483, -51.5278, 44.0335
1.904, 2, 35.9151, 48.1278, -14.08, 97.4483, -51.5278, 44.0335
1.908, 2, 35.9151, 48.1278, -14.08, 97.4483, -51.5278, 44.0335
1.912, 2, 35.9151, 48.1278, -14.08, 97.4483, -51.5278, 44.0335
1.916, 2, 35.9151, 48.1278, -14.08, 97.4483, -51.5278, 44.0335
1.92, 2, 35.9151, 48.1278, -14.08, 97.4483, -51.5278, 44.0335
1.924, 2, 35.9151, 48.1278, -14.08, 97.4483, -51.5278, 44.0335
1.928, 2, 35.9151, 48.1278, -14.08, 97.4483, -51.5278, 44.0335
1.932, 2, 35.9151, 48.1278, -14.08, 97.4483, -51.5278, 44.0335
1.936, 2, 35.9151, 48.1278, -14.08, 97.4483, -51.5278, 44.0335
1.94, 2, 35.9151, 48.1278, -14.08, 97.4483, -51.5278, 44.0335
1.944, 2, 35.9151, 48.1278, -14.08, 97.4483, -51.5278, 44.0335
1.948, 2, 35.9151, 48.1278, -14.08, 97.4483, -51.5278, 44.0335
1.952, 2, 35.9151, 48.1278, -14.08, 97.4483, -51.5278, 44.0335
1.956, 2, 35.9151, 48.1278, -14.08, 97.4483, -51.5278, 44.0335
1.96, 2, 35.9151, 48.1278, -14.08, 97.4483, -51.5278, 44.0335
1.964, 3, 35.9151, 48.1278, -14.08, 97.4483, -51.5278, 44.0335
1.968, 3, 35.9151, 48.1278, -14.08, 97.4483, -51.5278, 44.0335
1.972, 3, 35.9151, 48.1278, -14.08, 97.4483, -51.5278, 44.0335
1.976, 3, 35.9151, 48.1278, -14.08, 97.4483, -51.5278, 44.0335
1.98, 3, 35.9151, 48.1278, -14.08, 97.4483, -51.5278, 44.0335
1.984, 3, 35.9151, 48.1278, -14.08, 97.4483, -51.5278, 44.0335
1.988, 3, 35.9151, 48.1278, -14.08, 97.4483, -51.5278, 44.0335
1.992, 3, 35.9151, 48.1278, -14.08, 97.4483, -51.5278, 44.0335
1.996, 3, 35.9151, 48.1278, -14.08, 97.4483, -51.5278, 44.0335
1.999, 4, 35.9151, 48.1278, -14.08, 97.4483, -51.5278, 44.0335
2.004, 4, 35.9151, 48.1278, -14.08, 97.4483, -51.5278, 44.0335
2.008, 4, 35.9151, 48.1278, -14.08, 97.4483, -51.5278, 44.0335
2.012, 4, 35.9151, 48.1278, -14.08, 97.4483, -51.5278, 44.0335
2.015, 4, 35.9151, 48.1278, -14.08, 97.4483, -51.5278, 44.0335
2.019, 4, 35.9151, 48.1278, -14.08, 97.4483, -51.5278, 44.0335
2.024, 4, 35.9151, 48.1278, -14.08, 97.4483, -51.5278, 44.0335
2.028, 4, 35.9151, 48.1278, -14.08, 97.4483, -51.5278, 44.0335
2.031, 4, 35.9151, 48.1278, -14.08, 97.4483, -51.5278, 44.0335
2.036, 4, 35.9151, 48.1278, -14.08, 97.4483, -51.5278, 44.0335
2.04, 4, 35.9151, 48.1278, -14.08, 97.4483, -51.5278, 44.0335
2.044, 4, 35.9151, 48.1278, -14.08, 97.4483, -51.5278, 44.0335
2.048, 4, 35.9151, 48.1278, -14.08, 97.4483, -51.5278, 44.0335
2.051, 4, 35.9151, 48.1278, -14.08, 97.4483, -51.5278, 44.0335
2.055, 4, 35.9151, 48.1278, -14.08, 97.4483, -51.5278, 44.0335
2.06, 4, 35.9151, 48.1278, -14.08, 97.4483, -51.5278, 44.0335
2.064, 4, 35.9151, 48.1278, -14.08, 97.4483, -51.5278, 44.0335
2.068, 4, 35.9151, 48.1278, -14.08, 97.4483, -51.5278, 44.0335
2.071, 4, 35.9151, 48.1278, -14.08, 97.4483, -51.5278, 44.0335
2.076, 4, 35.9151, 48.1278, -14.08, 97.4483, -51.5278, 44.0335
2.08, 4, 35.9151, 48.1278, -14.08, 97.4483, -51.5278, 44.0335
2.084, 4, 35.9151, 48.1278, -14.08, 97.4483, -51.5278, 44.0335
2.087, 4, 35.9151, 48.1278, -14.08, 97.4483, -51.5278, 44.0335
2.092, 4, 35.9151, 48.1278, -14.08, 97.4483, -51.5278, 44.0335
2.096, 4, 35.9151, 48.1278, -14.08, 97.4483, -51.5278, 44.0335
2.1, 5, 35.9151, 48.1278, -14.08, 97.4483, -51.5278, 44.0335
2.104, 5, 35.9151, 48.1278, -14.08, 97.4483, -51.5278, 44.0335
2.107, 5, 35.9151, 48.1278, -14.08, 97.4483, -51.5278, 44.0335
2.111, 5, 35.9151, 48.1278, -14.08, 97.4483, -51.5278, 44.0335
2.116, 5, 35.9151, 48.1278, -14.08, 97.4483, -51.5278, 44.0335
2.12, 5, 35.9151, 48.1278, -14.08, 97.4483, -51.5278, 44.0335
2.124, 5, 35.9151, 48.1278, -14.08, 97.4483, -51.5278, 44.0335
2.127, 5, 35.9151, 48.1278, -14.08, 97.4483, -51.5278, 44.0335
2.132, 5, 35.9151, 48.1278, -14.08, 97.4483, -51.5278, 44.0335
2.136, 5, 35.9151, 48.1278, -14.08, 97.4483, -51.5278, 44.0335
2.14, 5, 35.9151, 48.1278, -14.08, 97.4483, -51.5278, 44.0335
2.143, 5, 35.9151, 48.1278, -14.08, 97.4483, -51.5278, 44.0335
2.148, 5, 35.915, 48.128, -14.08, 97.4483, -51.5279, 44.0335
2.152, 5, 35.9148, 48.1283, -14.08, 97.4483, -51.5279, 44.0335
2.156, 5, 35.9145, 48.1288, -14.08, 97.4483, -51.528, 44.0335
2.16, 5, 35.9141, 48.1297, -14.08, 97.4482, -51.5283, 44.0333
2.163, 5, 35.9135, 48.1307, -14.08, 97.4481, -51.5289, 44.0331
2.168, 5, 35.9128, 48.132, -14.0799, 97.448, -51.5298, 44.0328
2.172, 5, 35.9122, 48.1333, -14.0798, 97.4477, -51.5313, 44.0322
2.176, 5, 35.9116, 48.1348, -14.0797, 97.4473, -51.5335, 44.0314
2.179, 5, 35.911, 48.1362, -14.0796, 97.4469, -51.5365, 44.0302
2.184, 5, 35.9105, 48.1377, -14.0794, 97.4462, -51.5404, 44.0288
2.188, 5, 35.9101, 48.1393, -14.0791, 97.4454, -51.5452, 44.0269
2.192, 5, 35.9097, 48.141, -14.0788, 97.4444, -51.5511, 44.0246
2.196, 5, 35.9093, 48.1429, -14.0785, 97.4432, -51.5581, 44.022
2.199, 5, 35.909, 48.1448, -14.0781, 97.4419, -51.5661, 44.0189
2.204, 5, 35.9088, 48.1467, -14.0777, 97.4403, -51.5751, 44.0155
2.208, 5, 35.9087, 48.1487, -14.0772, 97.4387, -51.5851, 44.0117
2.212, 5, 35.9087, 48.1506, -14.0767, 97.4368, -51.5959, 44.0075
2.216, 5, 35.9087, 48.1527, -14.0761, 97.4349, -51.6075, 44.0031
2.219, 5, 35.9086, 48.1549, -14.0755, 97.4328, -51.6197, 43.9984
2.224, 5, 35.9085, 48.1574, -14.0749, 97.4307, -51.6323, 43.9936
2.228, 5, 35.9082, 48.1601, -14.0743, 97.4285, -51.6452, 43.9887
2.232, 5, 35.9078, 48.1631, -14.0736, 97.4262, -51.6584, 43.9836
2.235, 5, 35.9073, 48.1663, -14.073, 97.424, -51.6717, 43.9786
2.24, 5, 35.9068, 48.1696, -14.0723, 97.4217, -51.6851, 43.9734
2.244, 5, 35.9062, 48.173, -14.0716, 97.4194, -51.6986, 43.9683
2.248, 5, 35.9055, 48.1764, -14.071, 97.4171, -51.7122, 43.9631
2.252, 5, 35.9049, 48.1799, -14.0703, 97.4148, -51.7258, 43.9579
2.255, 5, 35.9042, 48.1835, -14.0696, 97.4125, -51.7394, 43.9527
2.259, 5, 35.9035, 48.187, -14.0689, 97.4101, -51.753, 43.9476
2.264, 5, 35.9028, 48.1905, -14.0682, 97.4078, -51.7666, 43.9424
2.268, 5, 35.9021, 48.1941, -14.0675, 97.4055, -51.7803, 43.9372
2.272, 5, 35.9014, 48.1977, -14.0668, 97.4031, -51.7939, 43.932
2.275, 5, 35.9007, 48.2012, -14.0661, 97.4008, -51.8075, 43.9268
2.28, 5, 35.9, 48.2048, -14.0654, 97.3984, -51.8212, 43.9216
2.284, 5, 35.8993, 48.2084, -14.0647, 97.3961, -51.8348, 43.9164
2.288, 5, 35.8986, 48.2119, -14.064, 97.3937, -51.8485, 43.9112
2.291, 5, 35.8979, 48.2155, -14.0633, 97.3914, -51.8621, 43.906
2.296, 5, 35.8972, 48.2191, -14.0626, 97.389, -51.8757, 43.9008
2.3, 5, 35.8965, 48.2226, -14.0619, 97.3867, -51.8894, 43.8956
2.304, 5, 35.8958, 48.2262, -14.0612, 97.3843, -51.903, 43.8904
2.308, 5, 35.8951, 48.2298, -14.0604, 97.382, -51.9167, 43.8853
2.311, 5, 35.8944, 48.2333, -14.0597, 97.3796, -51.9303, 43.8801
2.316, 5, 35.8936, 48.2369, -14.059, 97.3772, -51.9439, 43.8749
2.32, 5, 35.8929, 48.2404, -14.0583, 97.3749, -51.9576, 43.8697
2.324, 5, 35.8922, 48.244, -14.0575, 97.3725, -51.9712, 43.8645
2.328, 5, 35.8915, 48.2476, -14.0568, 97.3701, -51.9849, 43.8594
2.331, 5, 35.8908, 48.2511, -14.0561, 97.3678, -51.9985, 43.8542
2.336, 5, 35.8901, 48.2547, -14.0553, 97.3654, -52.0121, 43.849
2.34, 5, 35.8893, 48.2582, -14.0546, 97.363, -52.0258, 43.8438
2.344, 5, 35.8886, 48.2618, -14.0539, 97.3606, -52.0394, 43.8387
2.347, 5, 35.8879, 48.2653, -14.0531, 97.3582, -52.053, 43.8335
2.352, 5, 35.8872, 48.2689, -14.0524, 97.3558, -52.0666, 43.8283
2.356, 5, 35.8865, 48.2724, -14.0516, 97.3535, -52.0803, 43.8232
2.36, 5, 35.8857, 48.276, -14.0509, 97.3511, -52.0939, 43.818
2.364, 5, 35.885, 48.2795, -14.0501, 97.3487, -52.1075, 43.8128
2.367, 5, 35.8843, 48.2831, -14.0494, 97.3463, -52.1212, 43.8077
2.372, 5, 35.8836, 48.2866, -14.0486, 97.3439, -52.1348, 43.8025
2.376, 5, 35.8828, 48.2902, -14.0479, 97.3415, -52.1484, 43.7974
2.38, 5, 35.8821, 48.2937, -14.0471, 97.3391, -52.162, 43.7922
2.383, 5, 35.8814, 48.2972, -14.0463, 97.3367, -52.1757, 43.787
2.388, 5, 35.8807, 48.3008, -14.0456, 97.3343, -52.1893, 43.7819
2.392, 5, 35.8799, 48.3043, -14.0448, 97.3318, -52.2029, 43.7767
2.396, 5, 35.8792, 48.3078, -14.044, 97.3294, -52.2165, 43.7716
2.4, 5, 35.8785, 48.3114, -14.0433, 97.327, -52.2301, 43.7664
2.403, 5, 35.8777, 48.3149, -14.0425, 97.3246, -52.2438, 43.7613
2.408, 5, 35.877, 48.3185, -14.0417, 97.3222, -52.2574, 43.7561
2.412, 5, 35.8763, 48.322, -14.0409, 97.3197, -52.271, 43.751
2.416, 5, 35.8755, 48.3255, -14.0402, 97.3173, -52.2846, 43.7458
2.42, 5, 35.8748, 48.329, -14.0394, 97.3149, -52.2982, 43.7407
2.423, 5, 35.8741, 48.3326, -14.0386, 97.3125, -52.3118, 43.7356
2.428, 5, 35.8733, 48.3361, -14.0378, 97.31, -52.3255, 43.7304
2.432, 5, 35.8726, 48.3396, -14.037, 97.3076, -52.3391, 43.7253
2.436, 5, 35.8719, 48.3431, -14.0362, 97.3052, -52.3527, 43.7202
2.439, 5, 35.8711, 48.3467, -14.0354, 97.3027, -52.3663, 43.715
2.444, 5, 35.8704, 48.3502, -14.0346, 97.3003, -52.3799, 43.7099
2.448, 5, 35.8696, 48.3537, -14.0338, 97.2978, -52.3935, 43.7048
2.452, 5, 35.8689, 48.3572, -14.033, 97.2954, -52.4071, 43.6996
2.456, 5, 35.8682, 48.3607, -14.0322, 97.2929, -52.4207, 43.6945
2.459, 5, 35.8674, 48.3643, -14.0314, 97.2905, -52.4343, 43.6894
2.464, 5, 35.8667, 48.3678, -14.0306, 97.288, -52.4479, 43.6842
2.468, 5, 35.8659, 48.3713, -14.0298, 97.2856, -52.4615, 43.6791
2.472, 5, 35.8652, 48.3748, -14.029, 97.2831, -52.4751, 43.674
2.476, 5, 35.8644, 48.3783, -14.0282, 97.2807, -52.4887, 43.6689
2.479, 5, 35.8637, 48.3818, -14.0273, 97.2782, -52.5023, 43.6638
2.484, 5, 35.8629, 48.3853, -14.0265, 97.2757, -52.5159, 43.6586
2.488, 5, 35.8622, 48.3888, -14.0257, 97.2733, -52.5295, 43.6535
2.492, 5, 35.8615, 48.3923, -14.0249, 97.2708, -52.5431, 43.6484
2.495, 5, 35.8607, 48.3958, -14.024, 97.2683, -52.5567, 43.6433
2.5, 5, 35.86, 48.3993, -14.0232, 97.2658, -52.5703, 43.6382
2.504, 5, 35.8592, 48.4028, -14.0224, 97.2634, -52.5839, 43.6331
2.508, 5, 35.8584, 48.4063, -14.0215, 97.2609, -52.5975, 43.628
2.512, 5, 35.8577, 48.4098, -14.0207, 97.2584, -52.6111, 43.6229
2.515, 5, 35.8569, 48.4133, -14.0199, 97.2559, -52.6247, 43.6177
2.52, 5, 35.8562, 48.4168, -14.019, 97.2534, -52.6383, 43.6126
2.524, 5, 35.8554, 48.4203, -14.0182, 97.2509, -52.6519, 43.6075
2.528, 5, 35.8547, 48.4238, -14.0173, 97.2485, -52.6655, 43.6024
2.531, 5, 35.8539, 48.4273, -14.0165, 97.2459, -52.6791, 43.5973
2.536, 5, 35.8532, 48.4308, -14.0156, 97.2435, -52.6927, 43.5922
2.54, 5, 35.8524, 48.4343, -14.0148, 97.241, -52.7063, 43.5871
2.544, 5, 35.8517, 48.4378, -14.0139, 97.2385, -52.7199, 43.582
2.548, 5, 35.8509, 48.4413, -14.0131, 97.236, -52.7334, 43.577
2.551, 5, 35.8501, 48.4448, -14.0122, 97.2335, -52.747, 43.5719
2.556, 5, 35.8494, 48.4482, -14.0113, 97.2309, -52.7606, 43.5668
2.56, 5, 35.8486, 48.4517, -14.0105, 97.2284, -52.7742, 43.5617
2.564, 5, 35.8478, 48.4552, -14.0096, 97.2259, -52.7878, 43.5566
2.568, 5, 35.8471, 48.4587, -14.0087, 97.2234, -52.8014, 43.5515
2.571, 5, 35.8463, 48.4622, -14.0079, 97.2209, -52.8149, 43.5464
2.576, 5, 35.8456, 48.4656, -14.007, 97.2184, -52.8285, 43.5413
2.58, 5, 35.8448, 48.4691, -14.0061, 97.2158, -52.8421, 43.5363
2.584, 5, 35.844, 48.4726, -14.0052, 97.2133, -52.8557, 43.5312
2.587, 5, 35.8433, 48.4761, -14.0044, 97.2108, -52.8693, 43.5261
2.592, 5, 35.8425, 48.4795, -14.0035, 97.2083, -52.8828, 43.521
2.596, 5, 35.8417, 48.483, -14.0026, 97.2057, -52.8964, 43.5159
2.6, 5, 35.841, 48.4865, -14.0017, 97.2032, -52.91, 43.5109
2.604, 5, 35.8402, 48.49, -14.0008, 97.2007, -52.9236, 43.5058
2.607, 5, 35.8394, 48.4934, -13.9999, 97.1981, -52.9371, 43.5007
2.612, 5, 35.8386, 48.4969, -13.999, 97.1956, -52.9507, 43.4956
2.616, 5, 35.8379, 48.5004, -13.9981, 97.193, -52.9643, 43.4906
2.62, 5, 35.8371, 48.5038, -13.9972, 97.1905, -52.9779, 43.4855
2.624, 5, 35.8363, 48.5073, -13.9963, 97.188, -52.9914, 43.4804
2.627, 5, 35.8355, 48.5107, -13.9954, 97.1854, -53.005, 43.4754
2.632, 5, 35.8348, 48.5142, -13.9945, 97.1828, -53.0186, 43.4703
2.636, 5, 35.834, 48.5177, -13.9936, 97.1803, -53.0321, 43.4652
2.64, 5, 35.8332, 48.5211, -13.9927, 97.1777, -53.0457, 43.4602
2.643, 5, 35.8324, 48.5246, -13.9918, 97.1752, -53.0593, 43.4551
2.648, 5, 35.8317, 48.528, -13.9908, 97.1726, -53.0728, 43.4501
2.652, 5, 35.8309, 48.5315, -13.9899, 97.1701, -53.0864, 43.445
2.656, 5, 35.8301, 48.5349, -13.989, 97.1675, -53.1, 43.44
2.66, 5, 35.8293, 48.5384, -13.9881, 97.1649, -53.1135, 43.4349
2.663, 5, 35.8285, 48.5418, -13.9871, 97.1623, -53.1271, 43.4298
2.668, 5, 35.8278, 48.5453, -13.9862, 97.1598, -53.1406, 43.4248
2.672, 5, 35.827, 48.5487, -13.9853, 97.1572, -53.1542, 43.4197
2.676, 5, 35.8262, 48.5522, -13.9844, 97.1546, -53.1678, 43.4147
2.679, 5, 35.8254, 48.5556, -13.9834, 97.152, -53.1813, 43.4096
2.684, 5, 35.8246, 48.5591, -13.9825, 97.1495, -53.1949, 43.4046
2.688, 5, 35.8238, 48.5625, -13.9815, 97.1469, -53.2084, 43.3996
2.692, 5, 35.823, 48.5659, -13.9806, 97.1443, -53.222, 43.3945
2.696, 5, 35.8223, 48.5694, -13.9796, 97.1417, -53.2355, 43.3895
2.699, 5, 35.8215, 48.5728, -13.9787, 97.1391, -53.2491, 43.3844
2.704, 5, 35.8207, 48.5763, -13.9777, 97.1365, -53.2627, 43.3794
2.708, 5, 35.8199, 48.5797, -13.9768, 97.1339, -53.2762, 43.3744
2.712, 5, 35.8191, 48.5831, -13.9758, 97.1313, -53.2898, 43.3693
2.716, 5, 35.8183, 48.5866, -13.9749, 97.1287, -53.3033, 43.3643
2.719, 5, 35.8175, 48.59, -13.9739, 97.1261, -53.3169, 43.3593
2.724, 5, 35.8167, 48.5934, -13.973, 97.1235, -53.3304, 43.3542
2.728, 5, 35.8159, 48.5968, -13.972, 97.1209, -53.3439, 43.3492
2.732, 5, 35.8151, 48.6003, -13.971, 97.1183, -53.3575, 43.3442
2.735, 5, 35.8143, 48.6037, -13.9701, 97.1157, -53.371, 43.3391
2.74, 5, 35.8135, 48.6071, -13.9691, 97.1131, -53.3846, 43.3341
2.744, 5, 35.8127, 48.6105, -13.9681, 97.1105, -53.3981, 43.3291
2.748, 5, 35.8119, 48.614, -13.9671, 97.1078, -53.4117, 43.3241
2.752, 5, 35.8111, 48.6174, -13.9662, 97.1052, -53.4252, 43.319
2.755, 5, 35.8103, 48.6208, -13.9652, 97.1026, -53.4388, 43.314
2.76, 5, 35.8095, 48.6242, -13.9642, 97.1, -53.4523, 43.309
2.764, 5, 35.8087, 48.6276, -13.9632, 97.0973, -53.4658, 43.304
2.768, 5, 35.8079, 48.6311, -13.9622, 97.0947, -53.4794, 43.299
2.772, 5, 35.8071, 48.6345, -13.9612, 97.0921, -53.4929, 43.294
2.775, 5, 35.8063, 48.6379, -13.9602, 97.0894, -53.5065, 43.2889
2.78, 5, 35.8055, 48.6413, -13.9592, 97.0868, -53.52, 43.2839
2.784, 5, 35.8047, 48.6447, -13.9582, 97.0842, -53.5335, 43.2789
2.788, 5, 35.8039, 48.6481, -13.9572, 97.0815, -53.5471, 43.2739
2.791, 5, 35.8031, 48.6515, -13.9562, 97.0789, -53.5606, 43.2689
2.796, 5, 35.8023, 48.6549, -13.9552, 97.0762, -53.5741, 43.2639
2.8, 5, 35.8015, 48.6583, -13.9542, 97.0736, -53.5877, 43.2589
2.804, 5, 35.8007, 48.6617, -13.9532, 97.0709, -53.6012, 43.2539
2.808, 5, 35.7999, 48.6651, -13.9522, 97.0683, -53.6147, 43.2489
2.811, 5, 35.7991, 48.6685, -13.9512, 97.0656, -53.6282, 43.2439
2.816, 5, 35.7983, 48.6719, -13.9502, 97.063, -53.6418, 43.2389
2.82, 5, 35.7974, 48.6753, -13.9491, 97.0603, -53.6553, 43.2339
2.824, 5, 35.7966, 48.6787, -13.9481, 97.0576, -53.6688, 43.2289
2.828, 5, 35.7958, 48.6821, -13.9471, 97.055, -53.6824, 43.2239
2.831, 5, 35.795, 48.6855, -13.9461, 97.0523, -53.6959, 43.2189
2.836, 5, 35.7942, 48.6889, -13.945, 97.0496, -53.7094, 43.2139
2.84, 5, 35.7934, 48.6923, -13.944, 97.047, -53.7229, 43.2089
2.844, 5, 35.7926, 48.6957, -13.943, 97.0443, -53.7364, 43.2039
2.847, 5, 35.7917, 48.6991, -13.9419, 97.0416, -53.75, 43.1989
2.852, 5, 35.7909, 48.7025, -13.9409, 97.0389, -53.7635, 43.194
2.856, 5, 35.7901, 48.7058, -13.9399, 97.0363, -53.777, 43.189
2.86, 5, 35.7893, 48.7092, -13.9388, 97.0336, -53.7905, 43.184
2.864, 5, 35.7885, 48.7126, -13.9378, 97.0309, -53.804, 43.179
2.867, 5, 35.7876, 48.716, -13.9367, 97.0282, -53.8176, 43.174
2.872, 5, 35.7868, 48.7194, -13.9357, 97.0255, -53.8311, 43.169
2.876, 5, 35.786, 48.7228, -13.9346, 97.0228, -53.8446, 43.1641
2.88, 5, 35.7852, 48.7261, -13.9336, 97.0201, -53.8581, 43.1591
2.883, 5, 35.7843, 48.7295, -13.9325, 97.0174, -53.8716, 43.1541
2.888, 5, 35.7835, 48.7329, -13.9314, 97.0147, -53.8851, 43.1491
2.892, 5, 35.7827, 48.7363, -13.9304, 97.012, -53.8986, 43.1442
2.896, 5, 35.7819, 48.7396, -13.9293, 97.0093, -53.9121, 43.1392
2.9, 5, 35.781, 48.743, -13.9282, 97.0066, -53.9257, 43.1342
2.903, 5, 35.7802, 48.7464, -13.9272, 97.0039, -53.9392, 43.1292
2.908, 5, 35.7794, 48.7497, -13.9261, 97.0012, -53.9527, 43.1243
2.912, 5, 35.7785, 48.7531, -13.925, 96.9985, -53.9662, 43.1193
2.916, 5, 35.7777, 48.7565, -13.924, 96.9958, -53.9797, 43.1143
2.92, 5, 35.7769, 48.7598, -13.9229, 96.9931, -53.9932, 43.1094
2.923, 5, 35.7761, 48.7632, -13.9218, 96.9904, -54.0067, 43.1044
2.928, 5, 35.7752, 48.7666, -13.9207, 96.9876, -54.0202, 43.0995
2.932, 5, 35.7744, 48.7699, -13.9196, 96.9849, -54.0337, 43.0945
2.936, 5, 35.7736, 48.7733, -13.9185, 96.9822, -54.0472, 43.0895
2.939, 5, 35.7727, 48.7766, -13.9174, 96.9795, -54.0607, 43.0846
2.944, 5, 35.7719, 48.78, -13.9163, 96.9767, -54.0742, 43.0796
2.948, 5, 35.771, 48.7833, -13.9152, 96.974, -54.0877, 43.0747
2.952, 5, 35.7702, 48.7867, -13.9141, 96.9713, -54.1012, 43.0697
2.956, 5, 35.7694, 48.79, -13.913, 96.9685, -54.1147, 43.0648
2.959, 5, 35.7685, 48.7934, -13.9119, 96.9658, -54.1282, 43.0598
2.964, 5, 35.7677, 48.7967, -13.9108, 96.9631, -54.1417, 43.0549
2.968, 5, 35.7668, 48.8001, -13.9097, 96.9603, -54.1552, 43.0499
2.972, 5, 35.766, 48.8034, -13.9086, 96.9576, -54.1687, 43.045
2.976, 5, 35.7652, 48.8068, -13.9075, 96.9548, -54.1822, 43.04
2.98, 5, 35.7643, 48.8101, -13.9064, 96.9521, -54.1957, 43.0351
2.984, 5, 35.7635, 48.8135, -13.9053, 96.9493, -54.2091, 43.0301
2.988, 5, 35.7626, 48.8168, -13.9042, 96.9466, -54.2226, 43.0252
2.992, 5, 35.7618, 48.8201, -13.903, 96.9438, -54.2361, 43.0203
2.995, 5, 35.7609, 48.8235, -13.9019, 96.941, -54.2496, 43.0153
3, 5, 35.7601, 48.8268, -13.9008, 96.9383, -54.2631, 43.0104
3.004, 5, 35.7592, 48.8302, -13.8996, 96.9355, -54.2766, 43.0054
3.008, 5, 35.7584, 48.8335, -13.8985, 96.9328, -54.2901, 43.0005
3.012, 5, 35.7575, 48.8368, -13.8974, 96.93, -54.3036, 42.9956
3.015, 5, 35.7567, 48.8402, -13.8962, 96.9272, -54.317, 42.9906
3.02, 5, 35.7558, 48.8435, -13.8951, 96.9245, -54.3305, 42.9857
3.024, 5, 35.755, 48.8468, -13.894, 96.9217, -54.344, 42.9808
3.028, 5, 35.7541, 48.8501, -13.8928, 96.9189, -54.3575, 42.9759
3.031, 5, 35.7533, 48.8535, -13.8917, 96.9161, -54.371, 42.9709
3.036, 5, 35.7524, 48.8568, -13.8905, 96.9134, -54.3844, 42.966
3.04, 5, 35.7516, 48.8601, -13.8894, 96.9106, -54.3979, 42.9611
3.044, 5, 35.7507, 48.8634, -13.8882, 96.9078, -54.4114, 42.9562
3.048, 5, 35.7499, 48.8668, -13.887, 96.905, -54.4249, 42.9512
3.051, 5, 35.749, 48.8701, -13.8859, 96.9022, -54.4384, 42.9463
3.056, 5, 35.7481, 48.8734, -13.8847, 96.8994, -54.4518, 42.9414
3.06, 5, 35.7473, 48.8767, -13.8836, 96.8966, -54.4653, 42.9365
3.064, 5, 35.7464, 48.88, -13.8824, 96.8938, -54.4788, 42.9316
3.068, 5, 35.7456, 48.8833, -13.8812, 96.891, -54.4922, 42.9266
3.071, 5, 35.7447, 48.8866, -13.8801, 96.8882, -54.5057, 42.9217
3.076, 5, 35.7438, 48.89, -13.8789, 96.8854, -54.5192, 42.9168
3.08, 5, 35.743, 48.8933, -13.8777, 96.8826, -54.5327, 42.9119
3.084, 5, 35.7421, 48.8966, -13.8765, 96.8798, -54.5461, 42.907
3.087, 5, 35.7413, 48.8999, -13.8753, 96.877, -54.5596, 42.9021
3.092, 5, 35.7404, 48.9032, -13.8742, 96.8742, -54.5731, 42.8972
3.096, 5, 35.7395, 48.9065, -13.873, 96.8714, -54.5865, 42.8923
3.1, 5, 35.7387, 48.9098, -13.8718, 96.8686, -54.6, 42.8874
3.104, 5, 35.7378, 48.9131, -13.8706, 96.8658, -54.6135, 42.8824
3.107, 5, 35.7369, 48.9164, -13.8694, 96.8629, -54.6269, 42.8775
3.112, 5, 35.736, 48.9197, -13.8682, 96.8601, -54.6404, 42.8726
3.116, 5, 35.7352, 48.923, -13.867, 96.8573, -54.6539, 42.8677
3.12, 5, 35.7343, 48.9263, -13.8658, 96.8545, -54.6673, 42.8628
3.124, 5, 35.7334, 48.9296, -13.8646, 96.8517, -54.6808, 42.8579
3.128, 5, 35.7326, 48.9329, -13.8634, 96.8488, -54.6942, 42.853
3.132, 5, 35.7317, 48.9362, -13.8622, 96.846, -54.7077, 42.8482
3.136, 5, 35.7308, 48.9394, -13.861, 96.8432, -54.7211, 42.8433
3.14, 5, 35.7299, 48.9427, -13.8598, 96.8403, -54.7346, 42.8384
3.143, 5, 35.7291, 48.946, -13.8585, 96.8375, -54.7481, 42.8335
3.148, 5, 35.7282, 48.9493, -13.8573, 96.8346, -54.7615, 42.8286
3.152, 5, 35.7273, 48.9526, -13.8561, 96.8318, -54.775, 42.8237
3.156, 5, 35.7264, 48.9559, -13.8549, 96.8289, -54.7884, 42.8188
3.16, 5, 35.7256, 48.9592, -13.8537, 96.8261, -54.8019, 42.8139
3.163, 5, 35.7247, 48.9624, -13.8524, 96.8233, -54.8153, 42.809
3.168, 5, 35.7238, 48.9657, -13.8512, 96.8204, -54.8288, 42.8041
3.172, 5, 35.7229, 48.969, -13.85, 96.8176, -54.8422, 42.7993
3.176, 5, 35.722, 48.9723, -13.8487, 96.8147, -54.8557, 42.7944
3.179, 5, 35.7212, 48.9755, -13.8475, 96.8118, -54.8691, 42.7895
3.184, 5, 35.7203, 48.9788, -13.8462, 96.809, -54.8826, 42.7846
3.188, 5, 35.7194, 48.9821, -13.845, 96.8061, -54.896, 42.7797
3.192, 5, 35.7185, 48.9854, -13.8438, 96.8033, -54.9095, 42.7749
3.196, 5, 35.7176, 48.9886, -13.8425, 96.8004, -54.9229, 42.77
3.199, 5, 35.7167, 48.9919, -13.8413, 96.7975, -54.9363, 42.7651
3.204, 5, 35.7158, 48.9952, -13.84, 96.7946, -54.9498, 42.7602
3.208, 5, 35.715, 48.9984, -13.8388, 96.7918, -54.9632, 42.7554
3.212, 5, 35.7141, 49.0017, -13.8375, 96.7889, -54.9767, 42.7505
3.216, 5, 35.7132, 49.005, -13.8362, 96.786, -54.9901, 42.7456
3.22, 5, 35.7123, 49.0082, -13.835, 96.7831, -55.0035, 42.7407
3.224, 5, 35.7114, 49.0115, -13.8337, 96.7803, -55.017, 42.7359
3.228, 5, 35.7105, 49.0147, -13.8324, 96.7774, -55.0304, 42.731
3.232, 5, 35.7096, 49.018, -13.8312, 96.7745, -55.0439, 42.7261
3.235, 5, 35.7087, 49.0212, -13.8299, 96.7716, -55.0573, 42.7213
3.24, 5, 35.7078, 49.0245, -13.8286, 96.7687, -55.0707, 42.7164
3.244, 5, 35.7069, 49.0277, -13.8273, 96.7658, -55.0842, 42.7116
3.248, 5, 35.706, 49.031, -13.8261, 96.763, -55.0976, 42.7067
3.252, 5, 35.7051, 49.0343, -13.8248, 96.7601, -55.111, 42.7018
3.255, 5, 35.7042, 49.0375, -13.8235, 96.7572, -55.1245, 42.697
3.26, 5, 35.7033, 49.0407, -13.8222, 96.7543, -55.1379, 42.6921
3.264, 5, 35.7024, 49.044, -13.8209, 96.7514, -55.1513, 42.6873
3.268, 5, 35.7015, 49.0472, -13.8196, 96.7485, -55.1647, 42.6824
3.272, 5, 35.7006, 49.0505, -13.8183, 96.7455, -55.1782, 42.6776
3.276, 5, 35.6997, 49.0537, -13.817, 96.7426, -55.1916, 42.6727
3.28, 5, 35.6988, 49.057, -13.8157, 96.7397, -55.205, 42.6678
3.284, 5, 35.6979, 49.0602, -13.8144, 96.7368, -55.2185, 42.663
3.288, 5, 35.697, 49.0634, -13.8131, 96.7339, -55.2319, 42.6581
3.291, 5, 35.6961, 49.0667, -13.8118, 96.731, -55.2453, 42.6533
3.296, 5, 35.6952, 49.0699, -13.8105, 96.7281, -55.2587, 42.6484
3.3, 5, 35.6943, 49.0731, -13.8092, 96.7252, -55.2721, 42.6436
3.304, 5, 35.6934, 49.0764, -13.8079, 96.7222, -55.2856, 42.6388
3.308, 5, 35.6925, 49.0796, -13.8066, 96.7193, -55.299, 42.6339
3.312, 5, 35.6916, 49.0828, -13.8053, 96.7164, -55.3124, 42.6291
3.316, 5, 35.6907, 49.0861, -13.8039, 96.7135, -55.3258, 42.6242
3.32, 5, 35.6898, 49.0893, -13.8026, 96.7105, -55.3392, 42.6194
3.324, 5, 35.6889, 49.0925, -13.8013, 96.7076, -55.3527, 42.6146
3.328, 5, 35.688, 49.0957, -13.8, 96.7047, -55.3661, 42.6097
3.332, 5, 35.687, 49.0989, -13.7986, 96.7017, -55.3795, 42.6049
3.336, 5, 35.6861, 49.1022, -13.7973, 96.6988, -55.3929, 42.6
3.34, 5, 35.6852, 49.1054, -13.796, 96.6958, -55.4063, 42.5952
3.344, 5, 35.6843, 49.1086, -13.7946, 96.6929, -55.4197, 42.5904
3.347, 5, 35.6834, 49.1118, -13.7933, 96.6899, -55.4331, 42.5855
3.352, 5, 35.6825, 49.115, -13.7919, 96.687, -55.4465, 42.5807
3.356, 5, 35.6815, 49.1182, -13.7906, 96.6841, -55.46, 42.5759
3.36, 5, 35.6806, 49.1215, -13.7892, 96.6811, -55.4734, 42.5711
3.364, 5, 35.6797, 49.1247, -13.7879, 96.6781, -55.4868, 42.5662
3.368, 5, 35.6788, 49.1279, -13.7865, 96.6752, -55.5002, 42.5614
3.372, 5, 35.6779, 49.1311, -13.7852, 96.6722, -55.5136, 42.5566
3.376, 5, 35.677, 49.1343, -13.7838, 96.6693, -55.527, 42.5518
3.38, 5, 35.676, 49.1375, -13.7825, 96.6663, -55.5404, 42.5469
3.383, 5, 35.6751, 49.1407, -13.7811, 96.6634, -55.5538, 42.5421
3.388, 5, 35.6742, 49.1439, -13.7797, 96.6604, -55.5672, 42.5373
3.392, 5, 35.6733, 49.1471, -13.7784, 96.6574, -55.5806, 42.5325
3.396, 5, 35.6723, 49.1503, -13.777, 96.6545, -55.594, 42.5277
3.4, 5, 35.6714, 49.1535, -13.7756, 96.6515, -55.6074, 42.5228
3.403, 5, 35.6705, 49.1567, -13.7743, 96.6485, -55.6208, 42.518
3.408, 5, 35.6696, 49.1599, -13.7729, 96.6455, -55.6342, 42.5132
3.412, 5, 35.6686, 49.1631, -13.7715, 96.6426, -55.6476, 42.5084
3.416, 5, 35.6677, 49.1663, -13.7701, 96.6396, -55.661, 42.5036
3.42, 5, 35.6668, 49.1695, -13.7687, 96.6366, -55.6744, 42.4988
3.424, 5, 35.6658, 49.1727, -13.7673, 96.6336, -55.6878, 42.494
3.428, 5, 35.6649, 49.1758, -13.766, 96.6306, -55.7012, 42.4892
3.432, 5, 35.664, 49.179, -13.7646, 96.6276, -55.7146, 42.4843
3.436, 5, 35.663, 49.1822, -13.7632, 96.6246, -55.728, 42.4795
3.439, 5, 35.6621, 49.1854, -13.7618, 96.6217, -55.7414, 42.4747
3.444, 5, 35.6612, 49.1886, -13.7604, 96.6187, -55.7548, 42.4699
3.448, 5, 35.6603, 49.1918, -13.759, 96.6157, -55.7681, 42.4651
3.452, 5, 35.6593, 49.1949, -13.7576, 96.6127, -55.7815, 42.4603
3.456, 5, 35.6584, 49.1981, -13.7562, 96.6097, -55.7949, 42.4555
3.46, 5, 35.6574, 49.2013, -13.7547, 96.6067, -55.8083, 42.4507
3.464, 5, 35.6565, 49.2045, -13.7533, 96.6037, -55.8217, 42.4459
3.468, 5, 35.6556, 49.2076, -13.7519, 96.6007, -55.8351, 42.4411
3.472, 5, 35.6546, 49.2108, -13.7505, 96.5976, -55.8485, 42.4363
3.476, 5, 35.6537, 49.214, -13.7491, 96.5946, -55.8619, 42.4315
3.48, 5, 35.6527, 49.2172, -13.7477, 96.5916, -55.8752, 42.4267
3.484, 5, 35.6518, 49.2203, -13.7462, 96.5886, -55.8886, 42.4219
3.488, 5, 35.6509, 49.2235, -13.7448, 96.5856, -55.902, 42.4172
3.492, 5, 35.6499, 49.2267, -13.7434, 96.5826, -55.9154, 42.4124
3.495, 5, 35.649, 49.2298, -13.742, 96.5796, -55.9288, 42.4076
3.5, 5, 35.648, 49.233, -13.7405, 96.5765, -55.9421, 42.4028
3.504, 5, 35.6471, 49.2361, -13.7391, 96.5735, -55.9555, 42.398
3.508, 5, 35.6461, 49.2393, -13.7376, 96.5705, -55.9689, 42.3932
3.512, 5, 35.6452, 49.2425, -13.7362, 96.5675, -55.9823, 42.3884
3.516, 5, 35.6442, 49.2456, -13.7348, 96.5644, -55.9956, 42.3836
3.52, 5, 35.6433, 49.2488, -13.7333, 96.5614, -56.009, 42.3789
3.524, 5, 35.6423, 49.2519, -13.7319, 96.5583, -56.0224, 42.3741
3.528, 5, 35.6414, 49.2551, -13.7304, 96.5553, -56.0358, 42.3693
3.531, 5, 35.6404, 49.2582, -13.729, 96.5523, -56.0491, 42.3645
3.536, 5, 35.6395, 49.2614, -13.7275, 96.5492, -56.0625, 42.3597
3.54, 5, 35.6385, 49.2645, -13.7261, 96.5462, -56.0759, 42.355
3.544, 5, 35.6376, 49.2677, -13.7246, 96.5432, -56.0893, 42.3502
3.548, 5, 35.6366, 49.2708, -13.7231, 96.5401, -56.1026, 42.3454
3.552, 5, 35.6357, 49.274, -13.7217, 96.5371, -56.116, 42.3406
3.556, 5, 35.6347, 49.2771, -13.7202, 96.534, -56.1294, 42.3359
3.56, 5, 35.6338, 49.2803, -13.7187, 96.531, -56.1427, 42.3311
3.564, 5, 35.6328, 49.2834, -13.7173, 96.5279, -56.1561, 42.3263
3.568, 5, 35.6319, 49.2865, -13.7158, 96.5248, -56.1695, 42.3215
3.572, 5, 35.6309, 49.2897, -13.7143, 96.5218, -56.1828, 42.3168
3.576, 5, 35.6299, 49.2928, -13.7128, 96.5187, -56.1962, 42.312
3.58, 5, 35.629, 49.2959, -13.7113, 96.5157, -56.2095, 42.3072
3.584, 5, 35.628, 49.2991, -13.7099, 96.5126, -56.2229, 42.3025
3.587, 5, 35.627, 49.3022, -13.7084, 96.5095, -56.2363, 42.2977
3.592, 5, 35.6261, 49.3053, -13.7069, 96.5065, -56.2496, 42.2929
3.596, 5, 35.6251, 49.3085, -13.7054, 96.5034, -56.263, 42.2882
3.6, 5, 35.6242, 49.3116, -13.7039, 96.5003, -56.2763, 42.2834
3.604, 5, 35.6232, 49.3147, -13.7024, 96.4973, -56.2897, 42.2787
3.608, 5, 35.6222, 49.3178, -13.7009, 96.4942, -56.3031, 42.2739
3.612, 5, 35.6213, 49.321, -13.6994, 96.4911, -56.3164, 42.2691
3.616, 5, 35.6203, 49.3241, -13.6979, 96.488, -56.3298, 42.2644
3.62, 5, 35.6193, 49.3272, -13.6964, 96.4849, -56.3431, 42.2596
3.624, 5, 35.6184, 49.3303, -13.6949, 96.4818, -56.3565, 42.2549
3.628, 5, 35.6174, 49.3334, -13.6934, 96.4788, -56.3698, 42.2501
3.632, 5, 35.6164, 49.3366, -13.6918, 96.4757, -56.3832, 42.2454
3.636, 5, 35.6155, 49.3397, -13.6903, 96.4726, -56.3965, 42.2406
3.64, 5, 35.6145, 49.3428, -13.6888, 96.4695, -56.4099, 42.2359
3.644, 5, 35.6135, 49.3459, -13.6873, 96.4664, -56.4232, 42.2311
3.648, 5, 35.6125, 49.349, -13.6858, 96.4633, -56.4366, 42.2264
3.652, 5, 35.6116, 49.3521, -13.6842, 96.4602, -56.4499, 42.2216
3.656, 5, 35.6106, 49.3552, -13.6827, 96.4571, -56.4633, 42.2169
3.66, 5, 35.6096, 49.3583, -13.6812, 96.454, -56.4766, 42.2121
3.664, 5, 35.6086, 49.3614, -13.6797, 96.4509, -56.4899, 42.2074
3.668, 5, 35.6077, 49.3645, -13.6781, 96.4478, -56.5033, 42.2026
3.672, 5, 35.6067, 49.3676, -13.6766, 96.4447, -56.5166, 42.1979
3.676, 5, 35.6057, 49.3707, -13.675, 96.4416, -56.53, 42.1932
3.679, 5, 35.6047, 49.3738, -13.6735, 96.4385, -56.5433, 42.1884
3.684, 5, 35.6037, 49.3769, -13.672, 96.4354, -56.5567, 42.1837
3.688, 5, 35.6028, 49.38, -13.6704, 96.4322, -56.57, 42.1789
3.692, 5, 35.6018, 49.3831, -13.6689, 96.4291, -56.5833, 42.1742
3.696, 5, 35.6008, 49.3862, -13.6673, 96.426, -56.5967, 42.1695
3.7, 5, 35.5998, 49.3893, -13.6657, 96.4229, -56.61, 42.1647
3.704, 5, 35.5988, 49.3924, -13.6642, 96.4198, -56.6233, 42.16
3.708, 5, 35.5978, 49.3955, -13.6626, 96.4166, -56.6367, 42.1553
3.712, 5, 35.5969, 49.3986, -13.6611, 96.4135, -56.65, 42.1505
3.716, 5, 35.5959, 49.4017, -13.6595, 96.4104, -56.6634, 42.1458
3.72, 5, 35.5949, 49.4048, -13.6579, 96.4072, -56.6767, 42.1411
3.724, 5, 35.5939, 49.4078, -13.6564, 96.4041, -56.69, 42.1363
3.728, 5, 35.5929, 49.4109, -13.6548, 96.401, -56.7033, 42.1316
3.732, 5, 35.5919, 49.414, -13.6532, 96.3978, -56.7167, 42.1269
3.735, 5, 35.5909, 49.4171, -13.6516, 96.3947, -56.73, 42.1222
3.74, 5, 35.5899, 49.4202, -13.6501, 96.3916, -56.7433, 42.1174
3.744, 5, 35.589, 49.4232, -13.6485, 96.3884, -56.7567, 42.1127
3.748, 5, 35.588, 49.4263, -13.6469, 96.3853, -56.77, 42.108
3.752, 5, 35.587, 49.4294, -13.6453, 96.3821, -56.7833, 42.1033
3.756, 5, 35.586, 49.4325, -13.6437, 96.379, -56.7966, 42.0985
3.76, 5, 35.585, 49.4355, -13.6421, 96.3758, -56.81, 42.0938
3.764, 5, 35.584, 49.4386, -13.6405, 96.3727, -56.8233, 42.0891
3.768, 5, 35.583, 49.4417, -13.6389, 96.3695, -56.8366, 42.0844
3.772, 5, 35.582, 49.4447, -13.6373, 96.3664, -56.8499, 42.0797
3.776, 5, 35.581, 49.4478, -13.6357, 96.3632, -56.8633, 42.075
3.78, 5, 35.58, 49.4509, -13.6341, 96.36, -56.8766, 42.0702
3.784, 5, 35.579, 49.4539, -13.6325, 96.3569, -56.8899, 42.0655
3.788, 5, 35.578, 49.457, -13.6309, 96.3537, -56.9032, 42.0608
3.792, 5, 35.577, 49.46, -13.6293, 96.3505, -56.9165, 42.0561
3.796, 5, 35.576, 49.4631, -13.6277, 96.3474, -56.9298, 42.0514
3.8, 5, 35.575, 49.4662, -13.6261, 96.3442, -56.9432, 42.0467
3.804, 5, 35.574, 49.4692, -13.6245, 96.341, -56.9565, 42.042
3.808, 5, 35.573, 49.4723, -13.6228, 96.3379, -56.9698, 42.0373
3.812, 5, 35.572, 49.4753, -13.6212, 96.3347, -56.9831, 42.0326
3.816, 5, 35.571, 49.4784, -13.6196, 96.3315, -56.9964, 42.0279
3.82, 5, 35.57, 49.4814, -13.618, 96.3283, -57.0097, 42.0232
3.824, 5, 35.569, 49.4845, -13.6163, 96.3251, -57.023, 42.0184
3.828, 5, 35.568, 49.4875, -13.6147, 96.322, -57.0363, 42.0137
3.832, 5, 35.5669, 49.4906, -13.6131, 96.3188, -57.0497, 42.009
3.836, 5, 35.5659, 49.4936, -13.6114, 96.3156, -57.063, 42.0043
3.84, 5, 35.5649, 49.4966, -13.6098, 96.3124, -57.0763, 41.9996
3.844, 5, 35.5639, 49.4997, -13.6081, 96.3092, -57.0896, 41.9949
3.848, 5, 35.5629, 49.5027, -13.6065, 96.306, -57.1029, 41.9903
3.852, 5, 35.5619, 49.5058, -13.6049, 96.3028, -57.1162, 41.9856
3.856, 5, 35.5609, 49.5088, -13.6032, 96.2996, -57.1295, 41.9809
3.86, 5, 35.5599, 49.5118, -13.6016, 96.2964, -57.1428, 41.9762
3.864, 5, 35.5589, 49.5149, -13.5999, 96.2932, -57.1561, 41.9715
3.868, 5, 35.5578, 49.5179, -13.5982, 96.29, -57.1694, 41.9668
3.872, 5, 35.5568, 49.5209, -13.5966, 96.2868, -57.1827, 41.9621
3.876, 5, 35.5558, 49.524, -13.5949, 96.2836, -57.196, 41.9574
3.88, 5, 35.5548, 49.527, -13.5933, 96.2804, -57.2093, 41.9527
3.884, 5, 35.5538, 49.53, -13.5916, 96.2772, -57.2226, 41.948
3.888, 5, 35.5527, 49.533, -13.5899, 96.274, -57.2359, 41.9433
3.892, 5, 35.5517, 49.5361, -13.5882, 96.2708, -57.2492, 41.9386
3.896, 5, 35.5507, 49.5391, -13.5866, 96.2675, -57.2625, 41.934
3.9, 5, 35.5497, 49.5421, -13.5849, 96.2643, -57.2758, 41.9293
3.904, 5, 35.5487, 49.5451, -13.5832, 96.2611, -57.2891, 41.9246
3.908, 5, 35.5476, 49.5481, -13.5815, 96.2579, -57.3024, 41.9199
3.912, 5, 35.5466, 49.5512, -13.5799, 96.2547, -57.3157, 41.9152
3.916, 5, 35.5456, 49.5542, -13.5782, 96.2514, -57.329, 41.9105
3.92, 5, 35.5446, 49.5572, -13.5765, 96.2482, -57.3423, 41.9059
3.924, 5, 35.5435, 49.5602, -13.5748, 96.245, -57.3555, 41.9012
3.928, 5, 35.5425, 49.5632, -13.5731, 96.2417, -57.3688, 41.8965
3.932, 5, 35.5415, 49.5662, -13.5714, 96.2385, -57.3821, 41.8918
3.936, 5, 35.5405, 49.5692, -13.5697, 96.2353, -57.3954, 41.8872
3.94, 5, 35.5394, 49.5722, -13.568, 96.232, -57.4087, 41.8825
3.944, 5, 35.5384, 49.5752, -13.5663, 96.2288, -57.422, 41.8778
3.948, 5, 35.5374, 49.5782, -13.5646, 96.2256, -57.4353, 41.8731
3.952, 5, 35.5363, 49.5812, -13.5629, 96.2223, -57.4485, 41.8685
3.956, 5, 35.5353, 49.5842, -13.5612, 96.2191, -57.4618, 41.8638
3.96, 5, 35.5343, 49.5872, -13.5595, 96.2158, -57.4751, 41.8591
3.964, 5, 35.5332, 49.5902, -13.5577, 96.2126, -57.4884, 41.8545
3.968, 5, 35.5322, 49.5932, -13.556, 96.2093, -57.5017, 41.8498
3.972, 5, 35.5312, 49.5962, -13.5543, 96.2061, -57.515, 41.8451
3.976, 5, 35.5301, 49.5992, -13.5526, 96.2028, -57.5282, 41.8405
3.98, 5, 35.5291, 49.6022, -13.5509, 96.1996, -57.5415, 41.8358
3.984, 5, 35.5281, 49.6052, -13.5491, 96.1963, -57.5548, 41.8311
3.988, 5, 35.527, 49.6082, -13.5474, 96.1931, -57.5681, 41.8265
3.992, 5, 35.526, 49.6112, -13.5457, 96.1898, -57.5813, 41.8218
3.996, 5, 35.525, 49.6142, -13.5439, 96.1865, -57.5946, 41.8171
3.999, 5, 35.5239, 49.6171, -13.5422, 96.1833, -57.6079, 41.8125
4.004, 5, 35.5229, 49.6201, -13.5405, 96.18, -57.6212, 41.8078
4.008, 5, 35.5218, 49.6231, -13.5387, 96.1767, -57.6344, 41.8032
4.012, 5, 35.5208, 49.6261, -13.537, 96.1735, -57.6477, 41.7985
4.016, 5, 35.5197, 49.6291, -13.5352, 96.1702, -57.661, 41.7938
4.02, 5, 35.5187, 49.632, -13.5335, 96.1669, -57.6743, 41.7892
4.024, 5, 35.5177, 49.635, -13.5317, 96.1636, -57.6875, 41.7845
4.028, 5, 35.5166, 49.638, -13.53, 96.1604, -57.7008, 41.7799
4.032, 5, 35.5156, 49.641, -13.5282, 96.1571, -57.7141, 41.7752
4.036, 5, 35.5145, 49.6439, -13.5265, 96.1538, -57.7273, 41.7706
4.04, 5, 35.5135, 49.6469, -13.5247, 96.1505, -57.7406, 41.7659
4.044, 5, 35.5124, 49.6499, -13.5229, 96.1472, -57.7539, 41.7613
4.048, 5, 35.5114, 49.6529, -13.5212, 96.1439, -57.7671, 41.7566
4.052, 5, 35.5103, 49.6558, -13.5194, 96.1406, -57.7804, 41.752
4.056, 5, 35.5093, 49.6588, -13.5176, 96.1374, -57.7937, 41.7473
4.06, 5, 35.5082, 49.6617, -13.5159, 96.1341, -57.8069, 41.7427
4.064, 5, 35.5072, 49.6647, -13.5141, 96.1308, -57.8202, 41.738
4.068, 5, 35.5061, 49.6677, -13.5123, 96.1275, -57.8334, 41.7334
4.072, 5, 35.5051, 49.6706, -13.5105, 96.1242, -57.8467, 41.7288
4.076, 5, 35.504, 49.6736, -13.5087, 96.1209, -57.86, 41.7241
4.08, 5, 35.503, 49.6765, -13.5069, 96.1176, -57.8732, 41.7195
4.084, 5, 35.5019, 49.6795, -13.5052, 96.1143, -57.8865, 41.7148
4.088, 5, 35.5008, 49.6824, -13.5034, 96.111, -57.8997, 41.7102
4.092, 5, 35.4998, 49.6854, -13.5016, 96.1077, -57.913, 41.7056
4.096, 5, 35.4987, 49.6884, -13.4998, 96.1043, -57.9262, 41.7009
4.1, 5, 35.4977, 49.6913, -13.498, 96.101, -57.9395, 41.6963
4.104, 5, 35.4966, 49.6942, -13.4962, 96.0977, -57.9527, 41.6916
4.108, 5, 35.4955, 49.6972, -13.4944, 96.0944, -57.966, 41.687
4.112, 5, 35.4945, 49.7001, -13.4926, 96.0911, -57.9792, 41.6824
4.116, 5, 35.4934, 49.7031, -13.4908, 96.0878, -57.9925, 41.6777
4.12, 5, 35.4924, 49.706, -13.489, 96.0844, -58.0057, 41.6731
4.124, 5, 35.4913, 49.709, -13.4871, 96.0811, -58.019, 41.6685
4.128, 5, 35.4902, 49.7119, -13.4853, 96.0778, -58.0322, 41.6638
4.132, 5, 35.4892, 49.7148, -13.4835, 96.0745, -58.0455, 41.6592
4.136, 5, 35.4881, 49.7178, -13.4817, 96.0711, -58.0587, 41.6546
4.14, 5, 35.487, 49.7207, -13.4799, 96.0678, -58.072, 41.65
4.144, 5, 35.486, 49.7236, -13.478, 96.0645, -58.0852, 41.6453
4.148, 5, 35.4849, 49.7266, -13.4762, 96.0611, -58.0985, 41.6407
4.152, 5, 35.4838, 49.7295, -13.4744, 96.0578, -58.1117, 41.6361
4.156, 5, 35.4828, 49.7324, -13.4726, 96.0545, -58.125, 41.6315
4.16, 5, 35.4817, 49.7354, -13.4707, 96.0511, -58.1382, 41.6268
4.164, 5, 35.4806, 49.7383, -13.4689, 96.0478, -58.1514, 41.6222
4.168, 5, 35.4796, 49.7412, -13.4671, 96.0444, -58.1647, 41.6176
4.172, 5, 35.4785, 49.7441, -13.4652, 96.0411, -58.1779, 41.613
4.176, 5, 35.4774, 49.7471, -13.4634, 96.0378, -58.1912, 41.6083
4.18, 5, 35.4763, 49.75, -13.4615, 96.0344, -58.2044, 41.6037
4.184, 5, 35.4753, 49.7529, -13.4597, 96.0311, -58.2176, 41.5991
4.188, 5, 35.4742, 49.7558, -13.4578, 96.0277, -58.2309, 41.5945
4.192, 5, 35.4731, 49.7587, -13.456, 96.0244, -58.2441, 41.5899
4.196, 5, 35.472, 49.7616, -13.4541, 96.021, -58.2573, 41.5853
4.2, 5, 35.471, 49.7645, -13.4523, 96.0176, -58.2706, 41.5806
4.204, 5, 35.4699, 49.7675, -13.4504, 96.0143, -58.2838, 41.576
4.208, 5, 35.4688, 49.7704, -13.4485, 96.0109, -58.297, 41.5714
4.212, 5, 35.4677, 49.7733, -13.4467, 96.0076, -58.3103, 41.5668
4.216, 5, 35.4666, 49.7762, -13.4448, 96.0042, -58.3235, 41.5622
4.22, 5, 35.4656, 49.7791, -13.4429, 96.0008, -58.3367, 41.5576
4.224, 5, 35.4645, 49.782, -13.4411, 95.9975, -58.35, 41.553
4.228, 5, 35.4634, 49.7849, -13.4392, 95.9941, -58.3632, 41.5484
4.232, 5, 35.4623, 49.7878, -13.4373, 95.9907, -58.3764, 41.5438
4.236, 5, 35.4612, 49.7907, -13.4354, 95.9874, -58.3896, 41.5392
4.24, 5, 35.4601, 49.7936, -13.4335, 95.984, -58.4029, 41.5345
4.244, 5, 35.459, 49.7965, -13.4317, 95.9806, -58.4161, 41.5299
4.248, 5, 35.458, 49.7994, -13.4298, 95.9772, -58.4293, 41.5253
4.252, 5, 35.4569, 49.8023, -13.4279, 95.9738, -58.4425, 41.5207
4.256, 5, 35.4558, 49.8052, -13.426, 95.9705, -58.4558, 41.5161
4.26, 5, 35.4547, 49.8081, -13.4241, 95.9671, -58.469, 41.5115
4.264, 5, 35.4536, 49.811, -13.4222, 95.9637, -58.4822, 41.5069
4.268, 5, 35.4525, 49.8138, -13.4203, 95.9603, -58.4954, 41.5023
4.272, 5, 35.4514, 49.8167, -13.4184, 95.9569, -58.5086, 41.4977
4.276, 5, 35.4503, 49.8196, -13.4165, 95.9535, -58.5219, 41.4931
4.28, 5, 35.4492, 49.8225, -13.4146, 95.9501, -58.5351, 41.4885
4.284, 5, 35.4481, 49.8254, -13.4127, 95.9467, -58.5483, 41.484
4.288, 5, 35.4471, 49.8283, -13.4108, 95.9433, -58.5615, 41.4794
4.292, 5, 35.446, 49.8311, -13.4089, 95.9399, -58.5747, 41.4748
4.296, 5, 35.4449, 49.834, -13.4069, 95.9365, -58.5879, 41.4702
4.3, 5, 35.4438, 49.8369, -13.405, 95.9331, -58.6011, 41.4656
4.304, 5, 35.4427, 49.8398, -13.4031, 95.9297, -58.6144, 41.461
4.308, 5, 35.4416, 49.8426, -13.4012, 95.9263, -58.6276, 41.4564
4.312, 5, 35.4405, 49.8455, -13.3992, 95.9229, -58.6408, 41.4518
4.316, 5, 35.4394, 49.8484, -13.3973, 95.9195, -58.654, 41.4472
4.32, 5, 35.4383, 49.8512, -13.3954, 95.9161, -58.6672, 41.4426
4.324, 5, 35.4372, 49.8541, -13.3935, 95.9127, -58.6804, 41.438
4.328, 5, 35.4361, 49.857, -13.3915, 95.9093, -58.6936, 41.4334
4.332, 5, 35.435, 49.8598, -13.3896, 95.9058, -58.7068, 41.4289
4.336, 5, 35.4339, 49.8627, -13.3876, 95.9024, -58.72, 41.4243
4.34, 5, 35.4328, 49.8656, -13.3857, 95.899, -58.7332, 41.4197
4.344, 5, 35.4317, 49.8684, -13.3837, 95.8956, -58.7464, 41.4151
4.348, 5, 35.4305, 49.8713, -13.3818, 95.8922, -58.7596, 41.4105
4.352, 5, 35.4294, 49.8741, -13.3799, 95.8887, -58.7728, 41.4059
4.356, 5, 35.4283, 49.877, -13.3779, 95.8853, -58.786, 41.4014
4.36, 5, 35.4272, 49.8799, -13.3759, 95.8819, -58.7992, 41.3968
4.364, 5, 35.4261, 49.8827, -13.374, 95.8784, -58.8124, 41.3922
4.368, 5, 35.425, 49.8856, -13.372, 95.875, -58.8256, 41.3876
4.372, 5, 35.4239, 49.8884, -13.3701, 95.8716, -58.8388, 41.3831
4.376, 5, 35.4228, 49.8913, -13.3681, 95.8681, -58.852, 41.3785
4.38, 5, 35.4217, 49.8941, -13.3661, 95.8647, -58.8652, 41.3739
4.384, 5, 35.4206, 49.8969, -13.3642, 95.8613, -58.8784, 41.3693
4.388, 5, 35.4195, 49.8998, -13.3622, 95.8578, -58.8916, 41.3648
4.392, 5, 35.4183, 49.9026, -13.3602, 95.8544, -58.9048, 41.3602
4.396, 5, 35.4172, 49.9055, -13.3582, 95.8509, -58.918, 41.3556
4.4, 5, 35.4161, 49.9083, -13.3563, 95.8475, -58.9312, 41.351
4.404, 5, 35.415, 49.9112, -13.3543, 95.844, -58.9444, 41.3465
4.408, 5, 35.4139, 49.914, -13.3523, 95.8406, -58.9576, 41.3419
4.412, 5, 35.4128, 49.9168, -13.3503, 95.8371, -58.9708, 41.3373
4.416, 5, 35.4116, 49.9197, -13.3483, 95.8337, -58.984, 41.3328
4.42, 5, 35.4105, 49.9225, -13.3463, 95.8302, -58.9972, 41.3282
4.424, 5, 35.4094, 49.9253, -13.3443, 95.8268, -59.0104, 41.3236
4.428, 5, 35.4083, 49.9282, -13.3423, 95.8233, -59.0235, 41.3191
4.432, 5, 35.4072, 49.931, -13.3403, 95.8198, -59.0367, 41.3145
4.436, 5, 35.406, 49.9338, -13.3383, 95.8164, -59.0499, 41.3099
4.44, 5, 35.4049, 49.9366, -13.3363, 95.8129, -59.0631, 41.3054
4.444, 5, 35.4038, 49.9395, -13.3343, 95.8095, -59.0763, 41.3008
4.448, 5, 35.4027, 49.9423, -13.3323, 95.806, -59.0895, 41.2962
4.452, 5, 35.4015, 49.9451, -13.3303, 95.8025, -59.1026, 41.2917
4.456, 5, 35.4004, 49.9479, -13.3283, 95.799, -59.1158, 41.2871
4.46, 5, 35.3993, 49.9507, -13.3263, 95.7956, -59.129, 41.2826
4.464, 5, 35.3982, 49.9535, -13.3243, 95.7921, -59.1422, 41.278
4.468, 5, 35.397, 49.9564, -13.3222, 95.7886, -59.1554, 41.2735
4.472, 5, 35.3959, 49.9592, -13.3202, 95.7851, -59.1685, 41.2689
4.476, 5, 35.3948, 49.962, -13.3182, 95.7817, -59.1817, 41.2643
4.48, 5, 35.3937, 49.9648, -13.3162, 95.7782, -59.1949, 41.2598
4.484, 5, 35.3925, 49.9676, -13.3141, 95.7747, -59.2081, 41.2552
4.488, 5, 35.3914, 49.9704, -13.3121, 95.7712, -59.2213, 41.2507
4.492, 5, 35.3903, 49.9732, -13.3101, 95.7677, -59.2344, 41.2461
4.496, 5, 35.3891, 49.976, -13.308, 95.7642, -59.2476, 41.2416
4.5, 5, 35.388, 49.9788, -13.306, 95.7607, -59.2608, 41.237
4.504, 5, 35.3869, 49.9816, -13.304, 95.7572, -59.2739, 41.2325
4.508, 5, 35.3857, 49.9844, -13.3019, 95.7538, -59.2871, 41.2279
4.512, 5, 35.3846, 49.9872, -13.2999, 95.7503, -59.3003, 41.2234
4.516, 5, 35.3834, 49.99, -13.2978, 95.7468, -59.3135, 41.2188
4.52, 5, 35.3823, 49.9928, -13.2958, 95.7433, -59.3266, 41.2143
4.524, 5, 35.3812, 49.9956, -13.2937, 95.7398, -59.3398, 41.2097
4.528, 5, 35.38, 49.9984, -13.2916, 95.7363, -59.353, 41.2052
4.532, 5, 35.3789, 50.0012, -13.2896, 95.7328, -59.3661, 41.2006
4.536, 5, 35.3778, 50.004, -13.2875, 95.7292, -59.3793, 41.1961
4.54, 5, 35.3766, 50.0068, -13.2855, 95.7257, -59.3925, 41.1916
4.544, 5, 35.3755, 50.0096, -13.2834, 95.7222, -59.4056, 41.187
4.548, 5, 35.3743, 50.0123, -13.2813, 95.7187, -59.4188, 41.1825
4.552, 5, 35.3732, 50.0151, -13.2793, 95.7152, -59.4319, 41.1779
4.556, 5, 35.372, 50.0179, -13.2772, 95.7117, -59.4451, 41.1734
4.56, 5, 35.3709, 50.0207, -13.2751, 95.7082, -59.4583, 41.1689
4.564, 5, 35.3698, 50.0235, -13.273, 95.7047, -59.4714, 41.1643
4.568, 5, 35.3686, 50.0262, -13.2709, 95.7011, -59.4846, 41.1598
4.572, 5, 35.3675, 50.029, -13.2689, 95.6976, -59.4978, 41.1552
4.576, 5, 35.3663, 50.0318, -13.2668, 95.6941, -59.5109, 41.1507
4.58, 5, 35.3652, 50.0346, -13.2647, 95.6906, -59.5241, 41.1462
4.584, 5, 35.364, 50.0373, -13.2626, 95.687, -59.5372, 41.1416
4.588, 5, 35.3629, 50.0401, -13.2605, 95.6835, -59.5504, 41.1371
4.592, 5, 35.3617, 50.0429, -13.2584, 95.68, -59.5635, 41.1326
4.596, 5, 35.3606, 50.0457, -13.2563, 95.6764, -59.5767, 41.128
4.6, 5, 35.3594, 50.0484, -13.2542, 95.6729, -59.5898, 41.1235
4.604, 5, 35.3583, 50.0512, -13.2521, 95.6694, -59.603, 41.119
4.608, 5, 35.3571, 50.0539, -13.25, 95.6658, -59.6161, 41.1144
4.612, 5, 35.3559, 50.0567, -13.2479, 95.6623, -59.6293, 41.1099
4.616, 5, 35.3548, 50.0595, -13.2458, 95.6588, -59.6424, 41.1054
4.62, 5, 35.3536, 50.0622, -13.2437, 95.6552, -59.6556, 41.1009
4.624, 5, 35.3525, 50.065, -13.2416, 95.6517, -59.6687, 41.0963
4.628, 5, 35.3513, 50.0677, -13.2394, 95.6481, -59.6819, 41.0918
4.632, 5, 35.3502, 50.0705, -13.2373, 95.6446, -59.695, 41.0873
4.636, 5, 35.349, 50.0732, -13.2352, 95.641, -59.7082, 41.0828
4.64, 5, 35.3478, 50.076, -13.2331, 95.6375, -59.7213, 41.0782
4.644, 5, 35.3467, 50.0787, -13.231, 95.6339, -59.7345, 41.0737
4.648, 5, 35.3455, 50.0815, -13.2288, 95.6304, -59.7476, 41.0692
4.652, 5, 35.3444, 50.0842, -13.2267, 95.6268, -59.7608, 41.0647
4.656, 5, 35.3432, 50.087, -13.2246, 95.6233, -59.7739, 41.0602
4.66, 5, 35.342, 50.0897, -13.2224, 95.6197, -59.787, 41.0556
4.664, 5, 35.3409, 50.0925, -13.2203, 95.6161, -59.8002, 41.0511
4.668, 5, 35.3397, 50.0952, -13.2181, 95.6126, -59.8133, 41.0466
4.672, 5, 35.3385, 50.0979, -13.216, 95.609, -59.8265, 41.0421
4.676, 5, 35.3374, 50.1007, -13.2138, 95.6054, -59.8396, 41.0376
4.68, 5, 35.3362, 50.1034, -13.2117, 95.6019, -59.8527, 41.033
4.684, 5, 35.335, 50.1062, -13.2095, 95.5983, -59.8659, 41.0285
4.688, 5, 35.3339, 50.1089, -13.2074, 95.5947, -59.879, 41.024
4.692, 5, 35.3327, 50.1116, -13.2052, 95.5912, -59.8921, 41.0195
4.696, 5, 35.3315, 50.1143, -13.2031, 95.5876, -59.9053, 41.015
4.7, 5, 35.3304, 50.1171, -13.2009, 95.584, -59.9184, 41.0105
4.704, 5, 35.3292, 50.1198, -13.1988, 95.5804, -59.9315, 41.006
4.708, 5, 35.328, 50.1225, -13.1966, 95.5769, -59.9447, 41.0015
4.712, 5, 35.3268, 50.1253, -13.1944, 95.5733, -59.9578, 40.9969
4.716, 5, 35.3257, 50.128, -13.1923, 95.5697, -59.9709, 40.9924
4.72, 5, 35.3245, 50.1307, -13.1901, 95.5661, -59.9841, 40.9879
4.724, 5, 35.3233, 50.1334, -13.1879, 95.5625, -59.9972, 40.9834
4.728, 5, 35.3221, 50.1361, -13.1857, 95.5589, -60.0103, 40.9789
4.732, 5, 35.321, 50.1389, -13.1835, 95.5553, -60.0234, 40.9744
4.736, 5, 35.3198, 50.1416, -13.1814, 95.5518, -60.0366, 40.9699
4.74, 5, 35.3186, 50.1443, -13.1792, 95.5482, -60.0497, 40.9654
4.744, 5, 35.3174, 50.147, -13.177, 95.5446, -60.0628, 40.9609
4.748, 5, 35.3162, 50.1497, -13.1748, 95.541, -60.0759, 40.9564
4.752, 5, 35.3151, 50.1524, -13.1726, 95.5374, -60.0891, 40.9519
4.756, 5, 35.3139, 50.1551, -13.1704, 95.5338, -60.1022, 40.9474
4.76, 5, 35.3127, 50.1578, -13.1682, 95.5302, -60.1153, 40.9429
4.764, 5, 35.3115, 50.1605, -13.166, 95.5266, -60.1284, 40.9384
4.768, 5, 35.3103, 50.1632, -13.1638, 95.523, -60.1415, 40.9339
4.772, 5, 35.3092, 50.1659, -13.1616, 95.5193, -60.1547, 40.9294
4.776, 5, 35.308, 50.1686, -13.1594, 95.5157, -60.1678, 40.9249
4.78, 5, 35.3068, 50.1713, -13.1572, 95.5121, -60.1809, 40.9204
4.784, 5, 35.3056, 50.174, -13.155, 95.5085, -60.194, 40.9159
4.788, 5, 35.3044, 50.1767, -13.1528, 95.5049, -60.2071, 40.9114
4.792, 5, 35.3032, 50.1794, -13.1506, 95.5013, -60.2202, 40.9069
4.796, 5, 35.302, 50.1821, -13.1483, 95.4977, -60.2334, 40.9024
4.8, 5, 35.3008, 50.1848, -13.1461, 95.4941, -60.2465, 40.8979
4.804, 5, 35.2997, 50.1875, -13.1439, 95.4904, -60.2596, 40.8934
4.808, 5, 35.2985, 50.1902, -13.1417, 95.4868, -60.2727, 40.8889
4.812, 5, 35.2973, 50.1929, -13.1394, 95.4832, -60.2858, 40.8844
4.816, 5, 35.2961, 50.1956, -13.1372, 95.4796, -60.2989, 40.8799
4.82, 5, 35.2949, 50.1982, -13.135, 95.4759, -60.312, 40.8755
4.824, 5, 35.2937, 50.2009, -13.1327, 95.4723, -60.3251, 40.871
4.828, 5, 35.2925, 50.2036, -13.1305, 95.4687, -60.3382, 40.8665
4.832, 5, 35.2913, 50.2063, -13.1283, 95.4651, -60.3514, 40.862
4.836, 5, 35.2901, 50.209, -13.126, 95.4614, -60.3645, 40.8575
4.84, 5, 35.2889, 50.2116, -13.1238, 95.4578, -60.3776, 40.853
4.844, 5, 35.2877, 50.2143, -13.1215, 95.4541, -60.3907, 40.8485
4.848, 5, 35.2865, 50.217, -13.1193, 95.4505, -60.4038, 40.844
4.852, 5, 35.2853, 50.2197, -13.117, 95.4469, -60.4169, 40.8396
4.856, 5, 35.2841, 50.2223, -13.1148, 95.4432, -60.43, 40.8351
4.86, 5, 35.2829, 50.225, -13.1125, 95.4396, -60.4431, 40.8306
4.864, 5, 35.2817, 50.2277, -13.1102, 95.4359, -60.4562, 40.8261
4.868, 5, 35.2805, 50.2303, -13.108, 95.4323, -60.4693, 40.8216
4.872, 5, 35.2793, 50.233, -13.1057, 95.4286, -60.4824, 40.8171
4.876, 5, 35.2781, 50.2357, -13.1034, 95.425, -60.4955, 40.8127
4.88, 5, 35.2769, 50.2383, -13.1012, 95.4213, -60.5086, 40.8082
4.884, 5, 35.2757, 50.241, -13.0989, 95.4177, -60.5217, 40.8037
4.888, 5, 35.2745, 50.2436, -13.0966, 95.414, -60.5348, 40.7992
4.892, 5, 35.2733, 50.2463, -13.0943, 95.4104, -60.5479, 40.7947
4.896, 5, 35.2721, 50.2489, -13.0921, 95.4067, -60.561, 40.7903
4.9, 5, 35.2709, 50.2516, -13.0898, 95.4031, -60.5741, 40.7858
4.904, 5, 35.2697, 50.2542, -13.0875, 95.3994, -60.5871, 40.7813
4.908, 5, 35.2684, 50.2569, -13.0852, 95.3957, -60.6002, 40.7768
4.912, 5, 35.2672, 50.2595, -13.0829, 95.3921, -60.6133, 40.7724
4.916, 5, 35.266, 50.2622, -13.0806, 95.3884, -60.6264, 40.7679
4.92, 5, 35.2648, 50.2648, -13.0783, 95.3847, -60.6395, 40.7634
4.924, 5, 35.2636, 50.2675, -13.076, 95.3811, -60.6526, 40.7589
4.928, 5, 35.2624, 50.2701, -13.0737, 95.3774, -60.6657, 40.7545
4.932, 5, 35.2612, 50.2728, -13.0714, 95.3737, -60.6788, 40.75
4.936, 5, 35.26, 50.2754, -13.0691, 95.3701, -60.6919, 40.7455
4.94, 5, 35.2587, 50.2781, -13.0668, 95.3664, -60.7049, 40.7411
4.944, 5, 35.2575, 50.2807, -13.0645, 95.3627, -60.718, 40.7366
4.948, 5, 35.2563, 50.2833, -13.0622, 95.359, -60.7311, 40.7321
4.952, 5, 35.2551, 50.286, -13.0599, 95.3553, -60.7442, 40.7277
4.956, 5, 35.2539, 50.2886, -13.0576, 95.3517, -60.7573, 40.7232
4.96, 5, 35.2527, 50.2912, -13.0553, 95.348, -60.7704, 40.7187
4.964, 5, 35.2514, 50.2939, -13.0529, 95.3443, -60.7834, 40.7143
4.968, 5, 35.2502, 50.2965, -13.0506, 95.3406, -60.7965, 40.7098
4.972, 5, 35.249, 50.2991, -13.0483, 95.3369, -60.8096, 40.7053
4.976, 5, 35.2478, 50.3017, -13.046, 95.3332, -60.8227, 40.7009
4.98, 5, 35.2466, 50.3044, -13.0436, 95.3295, -60.8358, 40.6964
4.984, 5, 35.2453, 50.307, -13.0413, 95.3258, -60.8488, 40.6919
4.988, 5, 35.2441, 50.3096, -13.039, 95.3221, -60.8619, 40.6875
4.992, 5, 35.2429, 50.3122, -13.0366, 95.3184, -60.875, 40.683
4.996, 5, 35.2417, 50.3148, -13.0343, 95.3147, -60.8881, 40.6786
5, 5, 35.2404, 50.3175, -13.0319, 95.311, -60.9011, 40.6741
5.004, 5, 35.2392, 50.3201, -13.0296, 95.3073, -60.9142, 40.6696
5.008, 5, 35.238, 50.3227, -13.0273, 95.3036, -60.9273, 40.6652
5.012, 5, 35.2367, 50.3253, -13.0249, 95.2999, -60.9403, 40.6607
5.016, 5, 35.2355, 50.3279, -13.0225, 95.2962, -60.9534, 40.6563
5.02, 5, 35.2343, 50.3305, -13.0202, 95.2925, -60.9665, 40.6518
5.024, 5, 35.2331, 50.3331, -13.0178, 95.2888, -60.9796, 40.6474
5.028, 5, 35.2318, 50.3357, -13.0155, 95.2851, -60.9926, 40.6429
5.032, 5, 35.2306, 50.3383, -13.0131, 95.2814, -61.0057, 40.6385
5.036, 5, 35.2294, 50.3409, -13.0107, 95.2777, -61.0188, 40.634
5.04, 5, 35.2281, 50.3435, -13.0084, 95.2739, -61.0318, 40.6295
5.044, 5, 35.2269, 50.3461, -13.006, 95.2702, -61.0449, 40.6251
5.048, 5, 35.2257, 50.3487, -13.0036, 95.2665, -61.058, 40.6206
5.052, 5, 35.2244, 50.3513, -13.0013, 95.2628, -61.071, 40.6162
5.056, 5, 35.2232, 50.3539, -12.9989, 95.2591, -61.0841, 40.6117
5.06, 5, 35.222, 50.3565, -12.9965, 95.2553, -61.0972, 40.6073
5.064, 5, 35.2207, 50.3591, -12.9941, 95.2516, -61.1102, 40.6028
5.068, 5, 35.2195, 50.3617, -12.9917, 95.2479, -61.1233, 40.5984
5.072, 5, 35.2182, 50.3643, -12.9894, 95.2442, -61.1363, 40.5939
5.076, 5, 35.217, 50.3669, -12.987, 95.2404, -61.1494, 40.5895
5.08, 5, 35.2158, 50.3694, -12.9846, 95.2367, -61.1625, 40.5851
5.084, 5, 35.2145, 50.372, -12.9822, 95.233, -61.1755, 40.5806
5.088, 5, 35.2133, 50.3746, -12.9798, 95.2292, -61.1886, 40.5762
5.092, 5, 35.212, 50.3772, -12.9774, 95.2255, -61.2016, 40.5717
5.096, 5, 35.2108, 50.3798, -12.975, 95.2217, -61.2147, 40.5673
5.1, 5, 35.2095, 50.3824, -12.9726, 95.218, -61.2277, 40.5628
5.104, 5, 35.2083, 50.3849, -12.9702, 95.2143, -61.2408, 40.5584
5.108, 5, 35.207, 50.3875, -12.9678, 95.2105, -61.2538, 40.5539
5.112, 5, 35.2058, 50.3901, -12.9654, 95.2068, -61.2669, 40.5495
5.116, 5, 35.2045, 50.3926, -12.9629, 95.203, -61.2799, 40.5451
5.12, 5, 35.2033, 50.3952, -12.9605, 95.1993, -61.293, 40.5406
5.124, 5, 35.202, 50.3978, -12.9581, 95.1955, -61.306, 40.5362
5.128, 5, 35.2008, 50.4004, -12.9557, 95.1918, -61.3191, 40.5317
5.132, 5, 35.1996, 50.4029, -12.9533, 95.188, -61.3321, 40.5273
5.136, 5, 35.1983, 50.4055, -12.9508, 95.1843, -61.3452, 40.5229
5.14, 5, 35.197, 50.408, -12.9484, 95.1805, -61.3582, 40.5184
5.144, 5, 35.1958, 50.4106, -12.946, 95.1768, -61.3713, 40.514
5.148, 5, 35.1945, 50.4132, -12.9435, 95.173, -61.3843, 40.5096
5.152, 5, 35.1933, 50.4157, -12.9411, 95.1692, -61.3974, 40.5051
5.156, 5, 35.192, 50.4183, -12.9387, 95.1655, -61.4104, 40.5007
5.16, 5, 35.1908, 50.4208, -12.9362, 95.1617, -61.4235, 40.4963
5.164, 5, 35.1895, 50.4234, -12.9338, 95.1579, -61.4365, 40.4918
5.168, 5, 35.1883, 50.4259, -12.9313, 95.1542, -61.4495, 40.4874
5.172, 5, 35.187, 50.4285, -12.9289, 95.1504, -61.4626, 40.483
5.176, 5, 35.1857, 50.431, -12.9264, 95.1466, -61.4756, 40.4785
5.18, 5, 35.1845, 50.4336, -12.924, 95.1429, -61.4887, 40.4741
5.184, 5, 35.1832, 50.4361, -12.9215, 95.1391, -61.5017, 40.4697
5.188, 5, 35.182, 50.4387, -12.9191, 95.1353, -61.5147, 40.4652
5.192, 5, 35.1807, 50.4412, -12.9166, 95.1315, -61.5278, 40.4608
5.196, 5, 35.1794, 50.4438, -12.9142, 95.1278, -61.5408, 40.4564
5.2, 5, 35.1782, 50.4463, -12.9117, 95.124, -61.5538, 40.452
5.204, 5, 35.1769, 50.4488, -12.9092, 95.1202, -61.5669, 40.4475
5.208, 5, 35.1757, 50.4514, -12.9068, 95.1164, -61.5799, 40.4431
5.212, 5, 35.1744, 50.4539, -12.9043, 95.1126, -61.5929, 40.4387
5.216, 5, 35.1731, 50.4564, -12.9018, 95.1088, -61.606, 40.4342
5.22, 5, 35.1719, 50.459, -12.8993, 95.1051, -61.619, 40.4298
5.224, 5, 35.1706, 50.4615, -12.8969, 95.1013, -61.632, 40.4254
5.228, 5, 35.1693, 50.464, -12.8944, 95.0975, -61.6451, 40.421
5.232, 5, 35.168, 50.4666, -12.8919, 95.0937, -61.6581, 40.4166
5.236, 5, 35.1668, 50.4691, -12.8894, 95.0899, -61.6711, 40.4121
5.24, 5, 35.1655, 50.4716, -12.8869, 95.0861, -61.6842, 40.4077
5.244, 5, 35.1642, 50.4741, -12.8844, 95.0823, -61.6972, 40.4033
5.248, 5, 35.163, 50.4767, -12.8819, 95.0785, -61.7102, 40.3989
5.252, 5, 35.1617, 50.4792, -12.8794, 95.0747, -61.7232, 40.3945
5.256, 5, 35.1604, 50.4817, -12.8769, 95.0709, -61.7363, 40.39
5.26, 5, 35.1591, 50.4842, -12.8744, 95.0671, -61.7493, 40.3856
5.264, 5, 35.1579, 50.4867, -12.8719, 95.0633, -61.7623, 40.3812
5.268, 5, 35.1566, 50.4892, -12.8694, 95.0595, -61.7753, 40.3768
5.272, 5, 35.1553, 50.4917, -12.8669, 95.0557, -61.7883, 40.3724
5.276, 5, 35.154, 50.4943, -12.8644, 95.0519, -61.8014, 40.3679
5.28, 5, 35.1528, 50.4968, -12.8619, 95.0481, -61.8144, 40.3635
5.284, 5, 35.1515, 50.4993, -12.8594, 95.0442, -61.8274, 40.3591
5.288, 5, 35.1502, 50.5018, -12.8569, 95.0404, -61.8404, 40.3547
5.292, 5, 35.1489, 50.5043, -12.8543, 95.0366, -61.8534, 40.3503
5.296, 5, 35.1476, 50.5068, -12.8518, 95.0328, -61.8665, 40.3459
5.3, 5, 35.1464, 50.5093, -12.8493, 95.029, -61.8795, 40.3415
5.304, 5, 35.1451, 50.5118, -12.8468, 95.0251, -61.8925, 40.337
5.308, 5, 35.1438, 50.5143, -12.8442, 95.0213, -61.9055, 40.3326
5.312, 5, 35.1425, 50.5168, -12.8417, 95.0175, -61.9185, 40.3282
5.316, 5, 35.1412, 50.5193, -12.8392, 95.0137, -61.9315, 40.3238
5.32, 5, 35.1399, 50.5218, -12.8366, 95.0099, -61.9445, 40.3194
5.324, 5, 35.1387, 50.5243, -12.8341, 95.006, -61.9575, 40.315
5.328, 5, 35.1374, 50.5267, -12.8315, 95.0022, -61.9706, 40.3106
5.332, 5, 35.1361, 50.5292, -12.829, 94.9984, -61.9836, 40.3062
5.336, 5, 35.1348, 50.5317, -12.8265, 94.9945, -61.9966, 40.3018
5.34, 5, 35.1335, 50.5342, -12.8239, 94.9907, -62.0096, 40.2974
5.344, 5, 35.1322, 50.5367, -12.8214, 94.9869, -62.0226, 40.2929
5.348, 5, 35.1309, 50.5392, -12.8188, 94.983, -62.0356, 40.2885
5.352, 5, 35.1296, 50.5417, -12.8162, 94.9792, -62.0486, 40.2841
5.356, 5, 35.1283, 50.5441, -12.8137, 94.9753, -62.0616, 40.2797
5.36, 5, 35.1271, 50.5466, -12.8111, 94.9715, -62.0746, 40.2753
5.364, 5, 35.1258, 50.5491, -12.8086, 94.9677, -62.0876, 40.2709
5.368, 5, 35.1245, 50.5516, -12.806, 94.9638, -62.1006, 40.2665
5.372, 5, 35.1232, 50.554, -12.8034, 94.96, -62.1136, 40.2621
5.376, 5, 35.1219, 50.5565, -12.8008, 94.9561, -62.1266, 40.2577
5.38, 5, 35.1206, 50.559, -12.7983, 94.9523, -62.1396, 40.2533
5.384, 5, 35.1193, 50.5615, -12.7957, 94.9484, -62.1526, 40.2489
5.388, 5, 35.118, 50.5639, -12.7931, 94.9446, -62.1656, 40.2445
5.392, 5, 35.1167, 50.5664, -12.7905, 94.9407, -62.1786, 40.2401
5.396, 5, 35.1154, 50.5688, -12.7879, 94.9369, -62.1916, 40.2357
5.4, 5, 35.1141, 50.5713, -12.7854, 94.933, -62.2046, 40.2313
5.404, 5, 35.1128, 50.5738, -12.7828, 94.9291, -62.2176, 40.2269
5.408, 5, 35.1115, 50.5762, -12.7802, 94.9253, -62.2306, 40.2225
5.412, 5, 35.1102, 50.5787, -12.7776, 94.9214, -62.2436, 40.2181
5.416, 5, 35.1089, 50.5811, -12.775, 94.9176, -62.2566, 40.2137
5.42, 5, 35.1076, 50.5836, -12.7724, 94.9137, -62.2696, 40.2093
5.424, 5, 35.1063, 50.586, -12.7698, 94.9098, -62.2826, 40.2049
5.428, 5, 35.105, 50.5885, -12.7672, 94.906, -62.2956, 40.2005
5.432, 5, 35.1037, 50.591, -12.7646, 94.9021, -62.3085, 40.1961
5.436, 5, 35.1024, 50.5934, -12.762, 94.8982, -62.3215, 40.1918
5.44, 5, 35.1011, 50.5958, -12.7594, 94.8943, -62.3345, 40.1874
5.444, 5, 35.0997, 50.5983, -12.7567, 94.8905, -62.3475, 40.183
5.448, 5, 35.0984, 50.6007, -12.7541, 94.8866, -62.3605, 40.1786
5.452, 5, 35.0971, 50.6032, -12.7515, 94.8827, -62.3735, 40.1742
5.456, 5, 35.0958, 50.6056, -12.7489, 94.8788, -62.3865, 40.1698
5.46, 5, 35.0945, 50.6081, -12.7463, 94.8749, -62.3995, 40.1654
5.464, 5, 35.0932, 50.6105, -12.7436, 94.8711, -62.4124, 40.161
5.468, 5, 35.0919, 50.6129, -12.741, 94.8672, -62.4254, 40.1566
5.472, 5, 35.0906, 50.6154, -12.7384, 94.8633, -62.4384, 40.1522
5.476, 5, 35.0893, 50.6178, -12.7358, 94.8594, -62.4514, 40.1478
5.48, 5, 35.0879, 50.6202, -12.7331, 94.8555, -62.4644, 40.1435
5.484, 5, 35.0866, 50.6227, -12.7305, 94.8516, -62.4773, 40.1391
5.488, 5, 35.0853, 50.6251, -12.7278, 94.8477, -62.4903, 40.1347
5.492, 5, 35.084, 50.6275, -12.7252, 94.8439, -62.5033, 40.1303
5.496, 5, 35.0827, 50.6299, -12.7225, 94.84, -62.5163, 40.1259
5.5, 5, 35.0814, 50.6324, -12.7199, 94.8361, -62.5293, 40.1215
5.504, 5, 35.08, 50.6348, -12.7173, 94.8322, -62.5422, 40.1171
5.508, 5, 35.0787, 50.6372, -12.7146, 94.8283, -62.5552, 40.1128
5.512, 5, 35.0774, 50.6396, -12.7119, 94.8244, -62.5682, 40.1084
5.516, 5, 35.0761, 50.642, -12.7093, 94.8205, -62.5812, 40.104
5.52, 5, 35.0748, 50.6444, -12.7066, 94.8166, -62.5941, 40.0996
5.524, 5, 35.0734, 50.6469, -12.704, 94.8127, -62.6071, 40.0952
5.528, 5, 35.0721, 50.6493, -12.7013, 94.8088, -62.6201, 40.0908
5.532, 5, 35.0708, 50.6517, -12.6986, 94.8048, -62.6331, 40.0865
5.536, 5, 35.0695, 50.6541, -12.696, 94.8009, -62.646, 40.0821
5.54, 5, 35.0681, 50.6565, -12.6933, 94.797, -62.659, 40.0777
5.544, 5, 35.0668, 50.6589, -12.6906, 94.7931, -62.672, 40.0733
5.548, 5, 35.0655, 50.6613, -12.6879, 94.7892, -62.6849, 40.0689
5.552, 5, 35.0642, 50.6637, -12.6853, 94.7853, -62.6979, 40.0646
5.556, 5, 35.0628, 50.6661, -12.6826, 94.7814, -62.7109, 40.0602
5.56, 5, 35.0615, 50.6685, -12.6799, 94.7775, -62.7238, 40.0558
5.564, 5, 35.0602, 50.6709, -12.6772, 94.7735, -62.7368, 40.0514
5.568, 5, 35.0588, 50.6733, -12.6745, 94.7696, -62.7498, 40.0471
5.572, 5, 35.0575, 50.6757, -12.6718, 94.7657, -62.7627, 40.0427
5.576, 5, 35.0562, 50.6781, -12.6691, 94.7618, -62.7757, 40.0383
5.58, 5, 35.0548, 50.6805, -12.6664, 94.7578, -62.7886, 40.0339
5.584, 5, 35.0535, 50.6829, -12.6637, 94.7539, -62.8016, 40.0296
5.588, 5, 35.0522, 50.6853, -12.661, 94.75, -62.8146, 40.0252
5.592, 5, 35.0508, 50.6877, -12.6583, 94.7461, -62.8275, 40.0208
5.596, 5, 35.0495, 50.69, -12.6556, 94.7421, -62.8405, 40.0164
5.6, 5, 35.0482, 50.6924, -12.6529, 94.7382, -62.8534, 40.0121
5.604, 5, 35.0468, 50.6948, -12.6502, 94.7343, -62.8664, 40.0077
5.608, 6, 35.0455, 50.6972, -12.6475, 94.7303, -62.8794, 40.0033
5.612, 6, 35.0442, 50.6996, -12.6448, 94.7264, -62.8923, 39.9989
5.616, 6, 35.0428, 50.702, -12.642, 94.7225, -62.9053, 39.9946
5.62, 6, 35.0415, 50.7043, -12.6393, 94.7185, -62.9182, 39.9902
5.624, 6, 35.0401, 50.7067, -12.6366, 94.7146, -62.9312, 39.9858
5.628, 6, 35.0388, 50.7091, -12.6339, 94.7106, -62.9441, 39.9815
5.632, 6, 35.0375, 50.7114, -12.6311, 94.7067, -62.9571, 39.9771
5.636, 6, 35.0361, 50.7138, -12.6284, 94.7027, -62.97, 39.9727
5.64, 6, 35.0348, 50.7162, -12.6257, 94.6988, -62.983, 39.9684
5.644, 6, 35.0334, 50.7185, -12.6229, 94.6948, -62.9959, 39.964
5.648, 6, 35.0321, 50.7209, -12.6202, 94.6909, -63.0089, 39.9596
5.652, 6, 35.0307, 50.7233, -12.6175, 94.6869, -63.0218, 39.9553
5.656, 6, 35.0294, 50.7256, -12.6147, 94.683, -63.0348, 39.9509
5.66, 6, 35.028, 50.728, -12.612, 94.679, -63.0477, 39.9465
5.664, 6, 35.0267, 50.7304, -12.6092, 94.6751, -63.0607, 39.9422
5.668, 6, 35.0253, 50.7327, -12.6065, 94.6711, -63.0736, 39.9378
5.672, 6, 35.024, 50.7351, -12.6037, 94.6672, -63.0866, 39.9334
5.676, 6, 35.0226, 50.7374, -12.601, 94.6632, -63.0995, 39.9291
5.68, 6, 35.0213, 50.7398, -12.5982, 94.6592, -63.1124, 39.9247
5.684, 6, 35.0199, 50.7421, -12.5955, 94.6553, -63.1254, 39.9204
5.688, 6, 35.0186, 50.7445, -12.5927, 94.6513, -63.1383, 39.916
5.692, 6, 35.0172, 50.7468, -12.5899, 94.6473, -63.1513, 39.9116
5.696, 6, 35.0159, 50.7492, -12.5872, 94.6434, -63.1642, 39.9073
5.7, 6, 35.0145, 50.7515, -12.5844, 94.6394, -63.1771, 39.9029
5.704, 6, 35.0132, 50.7539, -12.5816, 94.6354, -63.1901, 39.8986
5.708, 6, 35.0118, 50.7562, -12.5788, 94.6314, -63.203, 39.8942
5.712, 6, 35.0105, 50.7585, -12.5761, 94.6275, -63.216, 39.8898
5.716, 6, 35.0091, 50.7609, -12.5733, 94.6235, -63.2289, 39.8855
5.72, 6, 35.0077, 50.7632, -12.5705, 94.6195, -63.2418, 39.8811
5.724, 6, 35.0064, 50.7655, -12.5677, 94.6155, -63.2548, 39.8768
5.728, 6, 35.005, 50.7679, -12.5649, 94.6116, -63.2677, 39.8724
5.732, 6, 35.0037, 50.7702, -12.5621, 94.6076, -63.2806, 39.868
5.736, 6, 35.0023, 50.7725, -12.5593, 94.6036, -63.2936, 39.8637
5.74, 6, 35.0009, 50.7749, -12.5565, 94.5996, -63.3065, 39.8593
5.744, 6, 34.9996, 50.7772, -12.5537, 94.5956, -63.3194, 39.855
5.748, 6, 34.9982, 50.7795, -12.5509, 94.5917, -63.3324, 39.8506
5.752, 6, 34.9969, 50.7818, -12.5481, 94.5877, -63.3453, 39.8463
5.756, 6, 34.9955, 50.7842, -12.5453, 94.5837, -63.3582, 39.8419
5.76, 6, 34.9941, 50.7865, -12.5425, 94.5797, -63.3711, 39.8376
5.764, 6, 34.9928, 50.7888, -12.5397, 94.5757, -63.3841, 39.8332
5.768, 6, 34.9914, 50.7911, -12.5369, 94.5717, -63.397, 39.8289
5.772, 6, 34.99, 50.7934, -12.5341, 94.5677, -63.4099, 39.8245
5.776, 6, 34.9887, 50.7958, -12.5313, 94.5637, -63.4228, 39.8202
5.78, 6, 34.9873, 50.7981, -12.5285, 94.5597, -63.4358, 39.8158
5.784, 6, 34.9859, 50.8004, -12.5256, 94.5557, -63.4487, 39.8115
5.788, 6, 34.9845, 50.8027, -12.5228, 94.5517, -63.4616, 39.8071
5.792, 6, 34.9832, 50.805, -12.52, 94.5477, -63.4745, 39.8028
5.796, 6, 34.9818, 50.8073, -12.5172, 94.5437, -63.4874, 39.7984
5.8, 6, 34.9804, 50.8096, -12.5143, 94.5397, -63.5004, 39.7941
5.804, 6, 34.9791, 50.8119, -12.5115, 94.5357, -63.5133, 39.7897
5.808, 6, 34.9777, 50.8142, -12.5087, 94.5317, -63.5262, 39.7854
5.812, 6, 34.9763, 50.8165, -12.5058, 94.5277, -63.5391, 39.781
5.816, 6, 34.9749, 50.8188, -12.503, 94.5236, -63.552, 39.7767
5.82, 6, 34.9736, 50.8211, -12.5001, 94.5196, -63.565, 39.7723
5.824, 6, 34.9722, 50.8234, -12.4973, 94.5156, -63.5779, 39.768
5.828, 6, 34.9708, 50.8257, -12.4944, 94.5116, -63.5908, 39.7636
5.832, 6, 34.9694, 50.828, -12.4916, 94.5076, -63.6037, 39.7593
5.836, 6, 34.968, 50.8303, -12.4887, 94.5036, -63.6166, 39.7549
5.84, 6, 34.9667, 50.8326, -12.4859, 94.4995, -63.6295, 39.7506
5.844, 6, 34.9653, 50.8349, -12.483, 94.4955, -63.6424, 39.7462
5.848, 6, 34.9639, 50.8371, -12.4801, 94.4915, -63.6553, 39.7419
5.852, 6, 34.9625, 50.8394, -12.4773, 94.4875, -63.6683, 39.7376
5.856, 6, 34.9611, 50.8417, -12.4744, 94.4835, -63.6812, 39.7332
5.86, 6, 34.9597, 50.844, -12.4715, 94.4794, -63.6941, 39.7289
5.864, 6, 34.9584, 50.8463, -12.4687, 94.4754, -63.707, 39.7245
5.868, 6, 34.957, 50.8485, -12.4658, 94.4714, -63.7199, 39.7202
5.872, 6, 34.9556, 50.8508, -12.4629, 94.4673, -63.7328, 39.7159
5.876, 6, 34.9542, 50.8531, -12.46, 94.4633, -63.7457, 39.7115
5.88, 6, 34.9528, 50.8554, -12.4572, 94.4593, -63.7586, 39.7072
5.884, 6, 34.9514, 50.8576, -12.4543, 94.4552, -63.7715, 39.7028
5.888, 6, 34.95, 50.8599, -12.4514, 94.4512, -63.7844, 39.6985
5.892, 6, 34.9487, 50.8622, -12.4485, 94.4472, -63.7973, 39.6942
5.896, 6, 34.9473, 50.8644, -12.4456, 94.4431, -63.8102, 39.6898
5.9, 6, 34.9459, 50.8667, -12.4427, 94.4391, -63.8231, 39.6855
5.904, 6, 34.9445, 50.869, -12.4398, 94.435, -63.836, 39.6811
5.908, 6, 34.9431, 50.8712, -12.4369, 94.431, -63.8489, 39.6768
5.912, 6, 34.9417, 50.8735, -12.434, 94.4269, -63.8618, 39.6725
5.916, 6, 34.9403, 50.8757, -12.4311, 94.4229, -63.8747, 39.6681
5.92, 6, 34.9389, 50.878, -12.4282, 94.4188, -63.8876, 39.6638
5.924, 6, 34.9375, 50.8803, -12.4253, 94.4148, -63.9005, 39.6595
5.928, 6, 34.9361, 50.8825, -12.4224, 94.4107, -63.9134, 39.6551
5.932, 6, 34.9347, 50.8848, -12.4195, 94.4067, -63.9263, 39.6508
5.936, 6, 34.9333, 50.887, -12.4166, 94.4026, -63.9392, 39.6465
5.94, 6, 34.9319, 50.8893, -12.4136, 94.3986, -63.9521, 39.6421
5.944, 6, 34.9305, 50.8915, -12.4107, 94.3945, -63.965, 39.6378
5.948, 6, 34.9291, 50.8938, -12.4078, 94.3905, -63.9779, 39.6335
5.952, 6, 34.9277, 50.896, -12.4049, 94.3864, -63.9908, 39.6291
5.956, 6, 34.9263, 50.8982, -12.4019, 94.3823, -64.0036, 39.6248
5.96, 6, 34.9249, 50.9005, -12.399, 94.3783, -64.0165, 39.6205
5.964, 6, 34.9235, 50.9027, -12.3961, 94.3742, -64.0294, 39.6161
5.968, 6, 34.9221, 50.905, -12.3931, 94.3701, -64.0423, 39.6118
5.972, 6, 34.9207, 50.9072, -12.3902, 94.3661, -64.0552, 39.6075
5.976, 6, 34.9193, 50.9094, -12.3873, 94.362, -64.0681, 39.6031
5.98, 6, 34.9179, 50.9117, -12.3843, 94.3579, -64.081, 39.5988
5.984, 6, 34.9165, 50.9139, -12.3814, 94.3539, -64.0939, 39.5945
5.988, 6, 34.9151, 50.9161, -12.3784, 94.3498, -64.1067, 39.5901
5.992, 6, 34.9137, 50.9183, -12.3755, 94.3457, -64.1196, 39.5858
5.996, 6, 34.9123, 50.9206, -12.3725, 94.3417, -64.1325, 39.5815
6, 6, 34.9109, 50.9228, -12.3696, 94.3376, -64.1454, 39.5772
6.004, 6, 34.9094, 50.925, -12.3666, 94.3335, -64.1583, 39.5728
6.008, 6, 34.908, 50.9272, -12.3636, 94.3294, -64.1712, 39.5685
6.012, 6, 34.9066, 50.9295, -12.3607, 94.3253, -64.184, 39.5642
6.016, 6, 34.9052, 50.9317, -12.3577, 94.3213, -64.1969, 39.5599
6.02, 6, 34.9038, 50.9339, -12.3548, 94.3172, -64.2098, 39.5555
6.024, 6, 34.9024, 50.9361, -12.3518, 94.3131, -64.2227, 39.5512
6.028, 6, 34.901, 50.9383, -12.3488, 94.309, -64.2355, 39.5469
6.032, 6, 34.8996, 50.9405, -12.3458, 94.3049, -64.2484, 39.5426
6.036, 6, 34.8981, 50.9427, -12.3429, 94.3008, -64.2613, 39.5382
6.04, 6, 34.8967, 50.945, -12.3399, 94.2967, -64.2742, 39.5339
6.044, 6, 34.8953, 50.9472, -12.3369, 94.2926, -64.287, 39.5296
6.048, 6, 34.8939, 50.9494, -12.3339, 94.2885, -64.2999, 39.5253
6.052, 6, 34.8925, 50.9516, -12.3309, 94.2844, -64.3128, 39.5209
6.056, 6, 34.891, 50.9538, -12.3279, 94.2803, -64.3257, 39.5166
6.06, 6, 34.8896, 50.956, -12.3249, 94.2763, -64.3385, 39.5123
6.064, 6, 34.8882, 50.9582, -12.3219, 94.2721, -64.3514, 39.508
