hehonglu123/ABB_Primitive_Study/execution/movec+movel_smooth/curve_exe_v50_z20.csv
timestamp, cmd_num, J1, J2, J3, J4, J5, J6
0, -1, 32.9528, 52.8019, -8.46502, 89.9168, -78.8096, 34.6812
0.002, -1, 32.9528, 52.8019, -8.46502, 89.9168, -78.8096, 34.6812
0.006, -1, 32.9528, 52.8019, -8.46502, 89.9168, -78.8096, 34.6812
0.008, -1, 32.9528, 52.8019, -8.46502, 89.9168, -78.8096, 34.6812
0.011, -1, 32.9528, 52.8019, -8.46502, 89.9168, -78.8096, 34.6812
0.016, -1, 32.9528, 52.8019, -8.46502, 89.9168, -78.8096, 34.6812
0.02, -1, 32.9528, 52.8019, -8.46502, 89.9168, -78.8096, 34.6812
0.024, -1, 32.9528, 52.8019, -8.46502, 89.9168, -78.8096, 34.6812
0.028, -1, 32.9528, 52.8019, -8.46502, 89.9168, -78.8096, 34.6812
0.032, -1, 32.9528, 52.8019, -8.46502, 89.9168, -78.8096, 34.6812
0.036, -1, 32.9529, 52.8019, -8.46502, 89.9168, -78.8096, 34.6812
0.04, -1, 32.9531, 52.8018, -8.46503, 89.9168, -78.8095, 34.6812
0.044, -1, 32.9535, 52.8014, -8.46504, 89.9169, -78.8095, 34.6812
0.048, -1, 32.9543, 52.8006, -8.46509, 89.9169, -78.8093, 34.6813
0.052, -1, 32.9556, 52.7993, -8.46521, 89.917, -78.8088, 34.6815
0.056, -1, 32.9574, 52.7971, -8.46543, 89.9173, -78.8079, 34.6818
0.06, -1, 32.9597, 52.794, -8.46584, 89.9178, -78.8061, 34.6824
0.064, -1, 32.9625, 52.7899, -8.46653, 89.9186, -78.803, 34.6835
0.068, -1, 32.9659, 52.7849, -8.46761, 89.92, -78.798, 34.6852
0.072, -1, 32.9697, 52.7789, -8.46923, 89.922, -78.7905, 34.6877
0.076, -1, 32.9741, 52.7719, -8.47155, 89.925, -78.7796, 34.6915
0.08, -1, 32.9791, 52.7639, -8.47475, 89.9292, -78.7644, 34.6967
0.084, -1, 32.9847, 52.7549, -8.47904, 89.9348, -78.744, 34.7037
0.088, -1, 32.991, 52.7451, -8.48461, 89.9421, -78.7174, 34.7128
0.092, -1, 32.9978, 52.7344, -8.49169, 89.9515, -78.6834, 34.7244
0.096, -1, 33.005, 52.7231, -8.50046, 89.9631, -78.6411, 34.7389
0.1, -1, 33.0126, 52.7112, -8.51109, 89.9773, -78.5897, 34.7566
0.104, -1, 33.0204, 52.699, -8.5237, 89.9942, -78.5285, 34.7775
0.108, -1, 33.0284, 52.6863, -8.53837, 90.0139, -78.4572, 34.802
0.112, -1, 33.0368, 52.673, -8.55512, 90.0364, -78.3757, 34.8299
0.116, -1, 33.0455, 52.6592, -8.57391, 90.0617, -78.2841, 34.8613
0.12, -1, 33.0546, 52.6447, -8.59467, 90.0896, -78.183, 34.896
0.124, -1, 33.0642, 52.6296, -8.61726, 90.12, -78.0728, 34.9337
0.128, -1, 33.0741, 52.6139, -8.64153, 90.1527, -77.9545, 34.9743
0.131, -1, 33.0844, 52.5977, -8.6673, 90.1875, -77.8288, 35.0174
0.136, -1, 33.0949, 52.5809, -8.69437, 90.2239, -77.6968, 35.0627
0.139, -1, 33.1058, 52.5633, -8.72251, 90.2618, -77.5596, 35.1097
0.144, -1, 33.1172, 52.5447, -8.75152, 90.3009, -77.4182, 35.1582
0.148, -1, 33.1293, 52.525, -8.7812, 90.3408, -77.2736, 35.2077
0.152, -1, 33.1421, 52.5041, -8.81138, 90.3814, -77.1267, 35.2581
0.156, -1, 33.1556, 52.4819, -8.8419, 90.4224, -76.9782, 35.309
0.16, -1, 33.17, 52.4586, -8.87265, 90.4637, -76.8286, 35.3603
0.164, -1, 33.1849, 52.4345, -8.90354, 90.5052, -76.6784, 35.4118
0.168, -1, 33.2004, 52.4098, -8.9345, 90.5467, -76.5279, 35.4634
0.172, -1, 33.2161, 52.3847, -8.9655, 90.5883, -76.3772, 35.515
0.176, -1, 33.2321, 52.3594, -8.9965, 90.6299, -76.2265, 35.5667
0.18, -1, 33.2481, 52.334, -9.02748, 90.6715, -76.076, 35.6183
0.184, -1, 33.2643, 52.3084, -9.05844, 90.713, -75.9256, 35.6699
0.188, -1, 33.2805, 52.2828, -9.08935, 90.7545, -75.7754, 35.7214
0.192, -1, 33.2967, 52.2573, -9.12022, 90.7959, -75.6254, 35.7728
0.196, -1, 33.3129, 52.2317, -9.15103, 90.8372, -75.4757, 35.8241
0.2, -1, 33.3291, 52.2061, -9.1818, 90.8785, -75.3262, 35.8753
0.204, -1, 33.3453, 52.1806, -9.21251, 90.9197, -75.177, 35.9265
0.208, -1, 33.3614, 52.1551, -9.24316, 90.9608, -75.028, 35.9775
0.212, -1, 33.3776, 52.1296, -9.27376, 91.0018, -74.8794, 36.0285
0.216, -1, 33.3937, 52.1042, -9.3043, 91.0428, -74.731, 36.0794
0.22, -1, 33.4098, 52.0788, -9.33479, 91.0837, -74.5829, 36.1302
0.224, -1, 33.4258, 52.0535, -9.36522, 91.1245, -74.435, 36.1808
0.228, -1, 33.4419, 52.0282, -9.3956, 91.1652, -74.2874, 36.2314
0.232, -1, 33.4579, 52.003, -9.42592, 91.2059, -74.1401, 36.2819
0.236, -1, 33.4738, 51.9778, -9.45618, 91.2465, -73.9931, 36.3323
0.24, -1, 33.4898, 51.9526, -9.48639, 91.287, -73.8463, 36.3826
0.244, -1, 33.5057, 51.9275, -9.51654, 91.3275, -73.6998, 36.4329
0.248, -1, 33.5216, 51.9025, -9.54664, 91.3678, -73.5536, 36.483
0.252, -1, 33.5374, 51.8774, -9.57668, 91.4081, -73.4076, 36.533
0.256, -1, 33.5533, 51.8525, -9.60667, 91.4483, -73.2619, 36.583
0.26, -1, 33.5691, 51.8276, -9.6366, 91.4885, -73.1165, 36.6328
0.264, -1, 33.5848, 51.8027, -9.66649, 91.5286, -72.9713, 36.6826
0.268, -1, 33.6006, 51.7778, -9.69631, 91.5686, -72.8264, 36.7323
0.272, -1, 33.6163, 51.7531, -9.72609, 91.6085, -72.6817, 36.7819
0.276, -1, 33.632, 51.7283, -9.75581, 91.6484, -72.5373, 36.8314
0.28, -1, 33.6476, 51.7036, -9.78547, 91.6882, -72.3932, 36.8808
0.284, -1, 33.6633, 51.679, -9.81509, 91.7279, -72.2493, 36.9301
0.288, -1, 33.6789, 51.6544, -9.84465, 91.7675, -72.1057, 36.9794
0.292, -1, 33.6945, 51.6298, -9.87416, 91.8071, -71.9623, 37.0285
0.296, -1, 33.71, 51.6053, -9.90362, 91.8466, -71.8191, 37.0776
0.3, -1, 33.7255, 51.5808, -9.93303, 91.8861, -71.6763, 37.1265
0.304, -1, 33.741, 51.5563, -9.96238, 91.9255, -71.5336, 37.1754
0.308, -1, 33.7565, 51.5319, -9.99169, 91.9648, -71.3913, 37.2243
0.312, -1, 33.7719, 51.5076, -10.0209, 92.004, -71.2491, 37.273
0.316, -1, 33.7873, 51.4833, -10.0501, 92.0432, -71.1073, 37.3216
0.32, -1, 33.8027, 51.459, -10.0793, 92.0823, -70.9656, 37.3702
0.324, -1, 33.8181, 51.4348, -10.1084, 92.1213, -70.8242, 37.4186
0.328, -1, 33.8334, 51.4106, -10.1374, 92.1603, -70.6831, 37.467
0.332, -1, 33.8487, 51.3864, -10.1665, 92.1992, -70.5422, 37.5153
0.336, -1, 33.864, 51.3623, -10.1954, 92.238, -70.4015, 37.5636
0.34, -1, 33.8793, 51.3383, -10.2243, 92.2768, -70.261, 37.6117
0.344, -1, 33.8945, 51.3142, -10.2532, 92.3155, -70.1209, 37.6598
0.348, -1, 33.9097, 51.2903, -10.282, 92.3541, -69.9809, 37.7077
0.352, -1, 33.9249, 51.2663, -10.3107, 92.3927, -69.8412, 37.7556
0.356, -1, 33.94, 51.2424, -10.3394, 92.4312, -69.7017, 37.8034
0.36, -1, 33.9552, 51.2186, -10.3681, 92.4696, -69.5624, 37.8512
0.364, -1, 33.9703, 51.1947, -10.3967, 92.508, -69.4234, 37.8988
0.368, -1, 33.9853, 51.171, -10.4253, 92.5463, -69.2846, 37.9464
0.372, -1, 34.0004, 51.1472, -10.4538, 92.5846, -69.1461, 37.9939
0.376, -1, 34.0154, 51.1235, -10.4823, 92.6228, -69.0078, 38.0413
0.38, -1, 34.0304, 51.0998, -10.5107, 92.6609, -68.8697, 38.0887
0.384, -1, 34.0454, 51.0762, -10.5391, 92.6989, -68.7318, 38.1359
0.388, -1, 34.0604, 51.0526, -10.5674, 92.7369, -68.5941, 38.1831
0.392, -1, 34.0753, 51.0291, -10.5957, 92.7749, -68.4567, 38.2302
0.396, -1, 34.0902, 51.0056, -10.6239, 92.8127, -68.3195, 38.2773
0.4, -1, 34.1051, 50.9821, -10.6521, 92.8506, -68.1826, 38.3242
0.404, -1, 34.1199, 50.9587, -10.6803, 92.8883, -68.0458, 38.3711
0.408, -1, 34.1348, 50.9353, -10.7084, 92.926, -67.9093, 38.4179
0.412, -1, 34.1496, 50.9119, -10.7364, 92.9636, -67.773, 38.4646
0.416, -1, 34.1643, 50.8886, -10.7644, 93.0012, -67.6369, 38.5113
0.42, -1, 34.1791, 50.8653, -10.7924, 93.0387, -67.501, 38.5579
0.424, -1, 34.1938, 50.8421, -10.8203, 93.0762, -67.3653, 38.6044
0.428, -1, 34.2086, 50.8189, -10.8482, 93.1136, -67.2299, 38.6508
0.432, -1, 34.2232, 50.7957, -10.876, 93.1509, -67.0947, 38.6971
0.436, -1, 34.2379, 50.7726, -10.9038, 93.1881, -66.9597, 38.7434
0.44, -1, 34.2526, 50.7495, -10.9315, 93.2254, -66.8249, 38.7896
0.444, -1, 34.2672, 50.7264, -10.9592, 93.2625, -66.6903, 38.8358
0.448, -1, 34.2818, 50.7034, -10.9869, 93.2996, -66.5559, 38.8818
0.452, -1, 34.2964, 50.6804, -11.0145, 93.3367, -66.4217, 38.9278
0.456, -1, 34.3109, 50.6574, -11.0421, 93.3736, -66.2878, 38.9738
0.46, -1, 34.3254, 50.6345, -11.0696, 93.4106, -66.154, 39.0196
0.464, -1, 34.3399, 50.6116, -11.0971, 93.4474, -66.0204, 39.0654
0.468, -1, 34.3544, 50.5888, -11.1246, 93.4842, -65.8871, 39.1111
0.472, -1, 34.3689, 50.566, -11.152, 93.521, -65.754, 39.1567
0.476, -1, 34.3833, 50.5432, -11.1793, 93.5577, -65.621, 39.2023
0.48, -1, 34.3978, 50.5204, -11.2066, 93.5943, -65.4883, 39.2478
0.484, -1, 34.4121, 50.4977, -11.2339, 93.6309, -65.3558, 39.2933
0.488, -1, 34.4265, 50.475, -11.2612, 93.6675, -65.2234, 39.3386
0.492, -1, 34.4409, 50.4524, -11.2883, 93.7039, -65.0913, 39.3839
0.496, -1, 34.4552, 50.4298, -11.3155, 93.7404, -64.9594, 39.4291
0.5, -1, 34.4695, 50.4072, -11.3426, 93.7767, -64.8276, 39.4743
0.504, -1, 34.4838, 50.3847, -11.3697, 93.813, -64.6961, 39.5194
0.508, -1, 34.4981, 50.3622, -11.3967, 93.8493, -64.5647, 39.5644
0.512, -1, 34.5123, 50.3397, -11.4237, 93.8855, -64.4336, 39.6094
0.516, -1, 34.5265, 50.3173, -11.4507, 93.9217, -64.3026, 39.6543
0.52, -1, 34.5408, 50.2949, -11.4776, 93.9578, -64.1719, 39.6991
0.524, -1, 34.5549, 50.2725, -11.5045, 93.9938, -64.0413, 39.7439
0.528, -1, 34.5691, 50.2501, -11.5313, 94.0298, -63.9109, 39.7886
0.532, -1, 34.5832, 50.2278, -11.5581, 94.0657, -63.7807, 39.8332
0.536, -1, 34.5974, 50.2056, -11.5848, 94.1016, -63.6507, 39.8777
0.54, -1, 34.6115, 50.1833, -11.6116, 94.1375, -63.5209, 39.9222
0.544, -1, 34.6255, 50.1611, -11.6382, 94.1732, -63.3913, 39.9667
0.548, -1, 34.6396, 50.1389, -11.6649, 94.209, -63.2619, 40.0111
0.552, -1, 34.6536, 50.1168, -11.6915, 94.2447, -63.1326, 40.0554
0.556, -1, 34.6677, 50.0947, -11.718, 94.2803, -63.0036, 40.0996
0.56, -1, 34.6817, 50.0726, -11.7446, 94.3159, -62.8747, 40.1438
0.564, -1, 34.6956, 50.0505, -11.7711, 94.3514, -62.746, 40.1879
0.568, -1, 34.7096, 50.0285, -11.7975, 94.3869, -62.6175, 40.2319
0.572, -1, 34.7235, 50.0065, -11.8239, 94.4223, -62.4892, 40.2759
0.576, -1, 34.7375, 49.9846, -11.8503, 94.4577, -62.361, 40.3199
0.58, -1, 34.7514, 49.9626, -11.8766, 94.493, -62.2331, 40.3637
0.584, -1, 34.7652, 49.9407, -11.9029, 94.5283, -62.1053, 40.4075
0.588, -1, 34.7791, 49.9189, -11.9292, 94.5635, -61.9777, 40.4513
0.592, -1, 34.7929, 49.897, -11.9554, 94.5987, -61.8503, 40.495
0.596, -1, 34.8068, 49.8752, -11.9816, 94.6338, -61.723, 40.5386
0.6, -1, 34.8206, 49.8535, -12.0078, 94.6689, -61.5959, 40.5821
0.604, -1, 34.8343, 49.8317, -12.0339, 94.7039, -61.4691, 40.6256
0.608, -1, 34.8481, 49.81, -12.0599, 94.7389, -61.3423, 40.6691
0.612, -1, 34.8618, 49.7883, -12.086, 94.7738, -61.2158, 40.7125
0.616, -1, 34.8756, 49.7667, -12.112, 94.8087, -61.0894, 40.7558
0.62, -1, 34.8893, 49.7451, -12.138, 94.8435, -60.9632, 40.799
0.624, -1, 34.903, 49.7235, -12.1639, 94.8783, -60.8372, 40.8422
0.628, -1, 34.9166, 49.7019, -12.1898, 94.9131, -60.7114, 40.8854
0.632, -1, 34.9303, 49.6804, -12.2157, 94.9478, -60.5857, 40.9284
0.636, -1, 34.9439, 49.6589, -12.2415, 94.9824, -60.4602, 40.9715
0.64, -1, 34.9575, 49.6374, -12.2673, 95.017, -60.3349, 41.0144
0.644, -1, 34.9711, 49.6159, -12.2931, 95.0516, -60.2097, 41.0573
0.648, -1, 34.9847, 49.5945, -12.3188, 95.0861, -60.0847, 41.1002
0.652, -1, 34.9983, 49.5731, -12.3445, 95.1205, -59.9599, 41.143
0.656, -1, 35.0118, 49.5518, -12.3701, 95.1549, -59.8352, 41.1857
0.66, -1, 35.0253, 49.5304, -12.3958, 95.1893, -59.7107, 41.2284
0.664, -1, 35.0388, 49.5091, -12.4214, 95.2236, -59.5864, 41.271
0.668, -1, 35.0523, 49.4879, -12.4469, 95.2579, -59.4622, 41.3136
0.672, -1, 35.0658, 49.4666, -12.4724, 95.2921, -59.3382, 41.3561
0.676, -1, 35.0792, 49.4454, -12.4979, 95.3263, -59.2144, 41.3985
0.68, -1, 35.0927, 49.4242, -12.5234, 95.3605, -59.0907, 41.4409
0.684, -1, 35.1061, 49.4031, -12.5488, 95.3946, -58.9672, 41.4833
0.688, -1, 35.1195, 49.3819, -12.5742, 95.4286, -58.8439, 41.5256
0.692, -1, 35.1329, 49.3608, -12.5995, 95.4626, -58.7207, 41.5678
0.696, -1, 35.1462, 49.3397, -12.6249, 95.4966, -58.5977, 41.61
0.7, -1, 35.1596, 49.3187, -12.6501, 95.5305, -58.4748, 41.6521
0.704, -1, 35.1729, 49.2977, -12.6754, 95.5644, -58.3521, 41.6941
0.708, -1, 35.1862, 49.2767, -12.7006, 95.5982, -58.2296, 41.7361
0.712, -1, 35.1995, 49.2557, -12.7258, 95.632, -58.1072, 41.7781
0.716, -1, 35.2128, 49.2347, -12.751, 95.6657, -57.985, 41.82
0.72, -1, 35.226, 49.2138, -12.7761, 95.6994, -57.8629, 41.8618
0.724, -1, 35.2393, 49.1929, -12.8012, 95.7331, -57.741, 41.9036
0.728, -1, 35.2525, 49.1721, -12.8262, 95.7667, -57.6192, 41.9454
0.732, -1, 35.2657, 49.1512, -12.8513, 95.8003, -57.4976, 41.9871
0.736, -1, 35.2789, 49.1304, -12.8763, 95.8338, -57.3762, 42.0287
0.74, -1, 35.2921, 49.1097, -12.9012, 95.8673, -57.2549, 42.0703
0.744, -1, 35.3052, 49.0889, -12.9262, 95.9007, -57.1338, 42.1118
0.748, -1, 35.3184, 49.0682, -12.9511, 95.9341, -57.0128, 42.1533
0.752, -1, 35.3315, 49.0475, -12.9759, 95.9675, -56.8919, 42.1947
0.756, -1, 35.3446, 49.0268, -13.0008, 96.0008, -56.7712, 42.2361
0.76, -1, 35.3577, 49.0061, -13.0256, 96.0341, -56.6507, 42.2774
0.764, -1, 35.3708, 48.9855, -13.0504, 96.0673, -56.5303, 42.3187
0.768, -1, 35.3838, 48.9649, -13.0751, 96.1005, -56.4101, 42.3599
0.772, -1, 35.3969, 48.9443, -13.0998, 96.1336, -56.29, 42.401
0.776, -1, 35.4099, 48.9238, -13.1245, 96.1667, -56.1701, 42.4422
0.78, -1, 35.4229, 48.9032, -13.1492, 96.1998, -56.0503, 42.4832
0.784, -1, 35.4359, 48.8827, -13.1738, 96.2328, -55.9307, 42.5242
0.788, -1, 35.4489, 48.8623, -13.1984, 96.2658, -55.8112, 42.5652
0.792, -1, 35.4619, 48.8418, -13.2229, 96.2988, -55.6918, 42.6061
0.796, -1, 35.4748, 48.8214, -13.2475, 96.3317, -55.5726, 42.647
0.8, -1, 35.4877, 48.801, -13.272, 96.3645, -55.4535, 42.6878
0.804, -1, 35.5006, 48.7806, -13.2965, 96.3974, -55.3346, 42.7285
0.808, -1, 35.5136, 48.7603, -13.3209, 96.4302, -55.2159, 42.7693
0.812, -1, 35.5264, 48.7399, -13.3453, 96.4629, -55.0972, 42.8099
0.816, -1, 35.5393, 48.7196, -13.3697, 96.4956, -54.9787, 42.8506
0.82, -1, 35.5522, 48.6994, -13.3941, 96.5283, -54.8604, 42.8911
0.824, -1, 35.565, 48.6791, -13.4184, 96.5609, -54.7422, 42.9316
0.828, -1, 35.5778, 48.6589, -13.4427, 96.5935, -54.6241, 42.9721
0.832, -1, 35.5906, 48.6387, -13.467, 96.6261, -54.5062, 43.0125
0.836, -1, 35.6034, 48.6185, -13.4912, 96.6586, -54.3884, 43.0529
0.84, -1, 35.6162, 48.5983, -13.5154, 96.6911, -54.2707, 43.0933
0.844, -1, 35.629, 48.5782, -13.5396, 96.7235, -54.1532, 43.1335
0.848, -1, 35.6417, 48.5581, -13.5638, 96.7559, -54.0358, 43.1738
0.852, -1, 35.6545, 48.538, -13.5879, 96.7883, -53.9186, 43.214
0.856, -1, 35.6672, 48.5179, -13.612, 96.8206, -53.8015, 43.2541
0.86, -1, 35.6799, 48.4979, -13.6361, 96.8529, -53.6845, 43.2942
0.864, -1, 35.6925, 48.4779, -13.6601, 96.8852, -53.5677, 43.3343
0.868, -1, 35.7051, 48.458, -13.6841, 96.9174, -53.451, 43.3743
0.872, -1, 35.7176, 48.4381, -13.7081, 96.9496, -53.3345, 43.4142
0.876, -1, 35.73, 48.4184, -13.7321, 96.9817, -53.2181, 43.4541
0.88, -1, 35.7419, 48.3992, -13.756, 97.0137, -53.102, 43.4939
0.884, -1, 35.7533, 48.3805, -13.7798, 97.0457, -52.9863, 43.5336
0.888, -1, 35.7641, 48.3627, -13.8035, 97.0775, -52.8712, 43.5731
0.892, -1, 35.7742, 48.3457, -13.8269, 97.109, -52.757, 43.6122
0.896, -1, 35.7836, 48.3297, -13.8501, 97.1401, -52.6444, 43.6508
0.9, -1, 35.7924, 48.3145, -13.8728, 97.1706, -52.534, 43.6887
0.904, -1, 35.8007, 48.3002, -13.895, 97.2003, -52.4264, 43.7256
0.908, -1, 35.8087, 48.2866, -13.9163, 97.229, -52.3226, 43.7613
0.912, -1, 35.8164, 48.2736, -13.9367, 97.2564, -52.2234, 43.7953
0.916, -1, 35.8238, 48.2613, -13.956, 97.2823, -52.1296, 43.8275
0.92, -1, 35.8309, 48.2497, -13.9741, 97.3065, -52.042, 43.8576
0.924, -1, 35.8377, 48.2387, -13.9907, 97.3288, -51.9612, 43.8853
0.928, -1, 35.8442, 48.2281, -14.0057, 97.3491, -51.888, 43.9104
0.932, -1, 35.8507, 48.2178, -14.0192, 97.3671, -51.8226, 43.9328
0.936, -1, 35.8571, 48.2077, -14.031, 97.3829, -51.7653, 43.9524
0.94, -1, 35.8634, 48.1979, -14.0412, 97.3966, -51.716, 43.9693
0.944, -1, 35.8695, 48.1884, -14.0498, 97.4081, -51.6743, 43.9836
0.948, -1, 35.8755, 48.1793, -14.0569, 97.4175, -51.6399, 43.9954
0.952, -1, 35.8812, 48.1708, -14.0626, 97.4252, -51.612, 44.0049
0.956, -1, 35.8865, 48.1631, -14.0672, 97.4313, -51.5899, 44.0124
0.96, -1, 35.8915, 48.1562, -14.0707, 97.436, -51.5728, 44.0183
0.964, -1, 35.896, 48.1502, -14.0734, 97.4396, -51.5598, 44.0227
0.968, -1, 35.9001, 48.145, -14.0754, 97.4422, -51.5503, 44.0259
0.972, -1, 35.9037, 48.1406, -14.0768, 97.4441, -51.5433, 44.0283
0.976, 2, 35.9067, 48.1371, -14.0778, 97.4454, -51.5385, 44.0299
0.98, 2, 35.9091, 48.1343, -14.0785, 97.4463, -51.5351, 44.0311
0.984, 2, 35.911, 48.1323, -14.079, 97.4469, -51.5327, 44.0319
0.988, 2, 35.9123, 48.1308, -14.0793, 97.4474, -51.5312, 44.0324
0.992, 2, 35.9132, 48.1299, -14.0796, 97.4477, -51.5301, 44.0328
0.996, 2, 35.9138, 48.1292, -14.0797, 97.4479, -51.5294, 44.033
1, 2, 35.9142, 48.1287, -14.0798, 97.448, -51.5289, 44.0332
1.004, 2, 35.9145, 48.1284, -14.0799, 97.4481, -51.5285, 44.0333
1.008, 2, 35.9147, 48.1282, -14.0799, 97.4482, -51.5283, 44.0334
1.012, 2, 35.9149, 48.1281, -14.08, 97.4482, -51.5282, 44.0334
1.016, 2, 35.9149, 48.128, -14.08, 97.4482, -51.5281, 44.0335
1.02, 2, 35.915, 48.1279, -14.08, 97.4482, -51.528, 44.0335
1.024, 2, 35.915, 48.1279, -14.08, 97.4483, -51.5279, 44.0335
1.027, 2, 35.9151, 48.1278, -14.08, 97.4483, -51.5279, 44.0335
1.032, 2, 35.9151, 48.1278, -14.08, 97.4483, -51.5279, 44.0335
1.036, 2, 35.9151, 48.1278, -14.08, 97.4483, -51.5279, 44.0335
1.04, 2, 35.9151, 48.1278, -14.08, 97.4483, -51.5279, 44.0335
1.044, 2, 35.9151, 48.1278, -14.08, 97.4483, -51.5279, 44.0335
1.048, 2, 35.9151, 48.1278, -14.08, 97.4483, -51.5279, 44.0335
1.052, 2, 35.9151, 48.1278, -14.08, 97.4483, -51.5278, 44.0335
1.055, 2, 35.9151, 48.1278, -14.08, 97.4483, -51.5278, 44.0335
1.06, 2, 35.9151, 48.1278, -14.08, 97.4483, -51.5278, 44.0335
1.064, 2, 35.9151, 48.1278, -14.08, 97.4483, -51.5278, 44.0335
1.068, 2, 35.9151, 48.1278, -14.08, 97.4483, -51.5278, 44.0335
1.072, 2, 35.9151, 48.1278, -14.08, 97.4483, -51.5278, 44.0335
1.076, 2, 35.9151, 48.1278, -14.08, 97.4483, -51.5278, 44.0335
1.08, 2, 35.9151, 48.1278, -14.08, 97.4483, -51.5278, 44.0335
1.084, 2, 35.9151, 48.1278, -14.08, 97.4483, -51.5278, 44.0335
1.088, 2, 35.9151, 48.1278, -14.08, 97.4483, -51.5278, 44.0335
1.091, 2, 35.9151, 48.1278, -14.08, 97.4483, -51.5278, 44.0335
1.096, 2, 35.9151, 48.1278, -14.08, 97.4483, -51.5278, 44.0335
1.1, 2, 35.9151, 48.1278, -14.08, 97.4483, -51.5278, 44.0335
1.104, 2, 35.9151, 48.1278, -14.08, 97.4483, -51.5278, 44.0335
1.108, 2, 35.9151, 48.1278, -14.08, 97.4483, -51.5278, 44.0335
1.112, 2, 35.9151, 48.1278, -14.08, 97.4483, -51.5278, 44.0335
1.116, 2, 35.9151, 48.1278, -14.08, 97.4483, -51.5278, 44.0335
1.119, 2, 35.9151, 48.1278, -14.08, 97.4483, -51.5278, 44.0335
1.124, 2, 35.9151, 48.1278, -14.08, 97.4483, -51.5278, 44.0335
1.128, 2, 35.9151, 48.1278, -14.08, 97.4483, -51.5278, 44.0335
1.132, 2, 35.9151, 48.1278, -14.08, 97.4483, -51.5278, 44.0335
1.136, 2, 35.9151, 48.1278, -14.08, 97.4483, -51.5278, 44.0335
1.14, 2, 35.9151, 48.1278, -14.08, 97.4483, -51.5278, 44.0335
1.144, 2, 35.9151, 48.1278, -14.08, 97.4483, -51.5278, 44.0335
1.147, 2, 35.9151, 48.1278, -14.08, 97.4483, -51.5278, 44.0335
1.152, 2, 35.9151, 48.1278, -14.08, 97.4483, -51.5278, 44.0335
1.156, 2, 35.9151, 48.1278, -14.08, 97.4483, -51.5278, 44.0335
1.16, 2, 35.9151, 48.1278, -14.08, 97.4483, -51.5278, 44.0335
1.164, 2, 35.9151, 48.1278, -14.08, 97.4483, -51.5278, 44.0335
1.168, 2, 35.9151, 48.1278, -14.08, 97.4483, -51.5278, 44.0335
1.172, 2, 35.9151, 48.1278, -14.08, 97.4483, -51.5278, 44.0335
1.175, 2, 35.9151, 48.1278, -14.08, 97.4483, -51.5278, 44.0335
1.18, 2, 35.9151, 48.1278, -14.08, 97.4483, -51.5278, 44.0335
1.184, 2, 35.9151, 48.1278, -14.08, 97.4483, -51.5278, 44.0335
1.188, 2, 35.9151, 48.1278, -14.08, 97.4483, -51.5278, 44.0335
1.192, 2, 35.9151, 48.1278, -14.08, 97.4483, -51.5278, 44.0335
1.196, 2, 35.9151, 48.1278, -14.08, 97.4483, -51.5278, 44.0335
1.2, 2, 35.9151, 48.1278, -14.08, 97.4483, -51.5278, 44.0335
1.204, 2, 35.9151, 48.1278, -14.08, 97.4483, -51.5278, 44.0335
1.208, 2, 35.9151, 48.1278, -14.08, 97.4483, -51.5278, 44.0335
1.212, 2, 35.9151, 48.1278, -14.08, 97.4483, -51.5278, 44.0335
1.216, 2, 35.9151, 48.1278, -14.08, 97.4483, -51.5278, 44.0335
1.22, 2, 35.9151, 48.1278, -14.08, 97.4483, -51.5278, 44.0335
1.224, 2, 35.9151, 48.1278, -14.08, 97.4483, -51.5278, 44.0335
1.228, 2, 35.9151, 48.1278, -14.08, 97.4483, -51.5278, 44.0335
1.232, 2, 35.9151, 48.1278, -14.08, 97.4483, -51.5278, 44.0335
1.236, 2, 35.9151, 48.1278, -14.08, 97.4483, -51.5278, 44.0335
1.24, 2, 35.9151, 48.1278, -14.08, 97.4483, -51.5278, 44.0335
1.244, 2, 35.9151, 48.1278, -14.08, 97.4483, -51.5278, 44.0335
1.248, 2, 35.9151, 48.1278, -14.08, 97.4483, -51.5278, 44.0335
1.252, 2, 35.9151, 48.1278, -14.08, 97.4483, -51.5278, 44.0335
1.256, 2, 35.9151, 48.1278, -14.08, 97.4483, -51.5278, 44.0335
1.26, 2, 35.9151, 48.1278, -14.08, 97.4483, -51.5278, 44.0335
1.264, 2, 35.9151, 48.1278, -14.08, 97.4483, -51.5278, 44.0335
1.267, 2, 35.9151, 48.1278, -14.08, 97.4483, -51.5278, 44.0335
1.272, 2, 35.9151, 48.1278, -14.08, 97.4483, -51.5278, 44.0335
1.276, 2, 35.9151, 48.1278, -14.08, 97.4483, -51.5278, 44.0335
1.28, 2, 35.9151, 48.1278, -14.08, 97.4483, -51.5278, 44.0335
1.284, 2, 35.9151, 48.1278, -14.08, 97.4483, -51.5278, 44.0335
1.288, 2, 35.9151, 48.1278, -14.08, 97.4483, -51.5278, 44.0335
1.292, 2, 35.9151, 48.1278, -14.08, 97.4483, -51.5278, 44.0335
1.295, 2, 35.9151, 48.1278, -14.08, 97.4483, -51.5278, 44.0335
1.3, 2, 35.9151, 48.1278, -14.08, 97.4483, -51.5278, 44.0335
1.304, 2, 35.9151, 48.1278, -14.08, 97.4483, -51.5278, 44.0335
1.308, 2, 35.9151, 48.1278, -14.08, 97.4483, -51.5278, 44.0335
1.312, 2, 35.9151, 48.1278, -14.08, 97.4483, -51.5278, 44.0335
1.316, 2, 35.9151, 48.1278, -14.08, 97.4483, -51.5278, 44.0335
1.32, 2, 35.9151, 48.1278, -14.08, 97.4483, -51.5278, 44.0335
1.324, 2, 35.9151, 48.1278, -14.08, 97.4483, -51.5278, 44.0335
1.328, 2, 35.9151, 48.1278, -14.08, 97.4483, -51.5278, 44.0335
1.332, 2, 35.9151, 48.1278, -14.08, 97.4483, -51.5278, 44.0335
1.336, 2, 35.9151, 48.1278, -14.08, 97.4483, -51.5278, 44.0335
1.34, 2, 35.9151, 48.1278, -14.08, 97.4483, -51.5278, 44.0335
1.344, 2, 35.9151, 48.1278, -14.08, 97.4483, -51.5278, 44.0335
1.348, 2, 35.9151, 48.1278, -14.08, 97.4483, -51.5278, 44.0335
1.352, 2, 35.9151, 48.1278, -14.08, 97.4483, -51.5278, 44.0335
1.356, 2, 35.9151, 48.1278, -14.08, 97.4483, -51.5278, 44.0335
1.36, 2, 35.9151, 48.1278, -14.08, 97.4483, -51.5278, 44.0335
1.364, 2, 35.9151, 48.1278, -14.08, 97.4483, -51.5278, 44.0335
1.368, 2, 35.9151, 48.1278, -14.08, 97.4483, -51.5278, 44.0335
1.372, 2, 35.9151, 48.1278, -14.08, 97.4483, -51.5278, 44.0335
1.376, 2, 35.9151, 48.1278, -14.08, 97.4483, -51.5278, 44.0335
1.38, 2, 35.9151, 48.1278, -14.08, 97.4483, -51.5278, 44.0335
1.384, 2, 35.9151, 48.1278, -14.08, 97.4483, -51.5278, 44.0335
1.388, 2, 35.9151, 48.1278, -14.08, 97.4483, -51.5278, 44.0335
1.392, 2, 35.9151, 48.1278, -14.08, 97.4483, -51.5278, 44.0335
1.396, 2, 35.9151, 48.1278, -14.08, 97.4483, -51.5278, 44.0335
1.4, 2, 35.9151, 48.1278, -14.08, 97.4483, -51.5278, 44.0335
1.404, 2, 35.9151, 48.1278, -14.08, 97.4483, -51.5278, 44.0335
1.408, 2, 35.9151, 48.1278, -14.08, 97.4483, -51.5278, 44.0335
1.412, 2, 35.9151, 48.1278, -14.08, 97.4483, -51.5278, 44.0335
1.416, 2, 35.9151, 48.1278, -14.08, 97.4483, -51.5278, 44.0335
1.42, 2, 35.9151, 48.1278, -14.08, 97.4483, -51.5278, 44.0335
1.424, 2, 35.9151, 48.1278, -14.08, 97.4483, -51.5278, 44.0335
1.428, 2, 35.9151, 48.1278, -14.08, 97.4483, -51.5278, 44.0335
1.432, 2, 35.9151, 48.1278, -14.08, 97.4483, -51.5278, 44.0335
1.436, 2, 35.9151, 48.1278, -14.08, 97.4483, -51.5278, 44.0335
1.44, 2, 35.9151, 48.1278, -14.08, 97.4483, -51.5278, 44.0335
1.444, 2, 35.9151, 48.1278, -14.08, 97.4483, -51.5278, 44.0335
1.448, 2, 35.9151, 48.1278, -14.08, 97.4483, -51.5278, 44.0335
1.452, 2, 35.9151, 48.1278, -14.08, 97.4483, -51.5278, 44.0335
1.456, 2, 35.9151, 48.1278, -14.08, 97.4483, -51.5278, 44.0335
1.46, 2, 35.9151, 48.1278, -14.08, 97.4483, -51.5278, 44.0335
1.464, 2, 35.9151, 48.1278, -14.08, 97.4483, -51.5278, 44.0335
1.468, 2, 35.9151, 48.1278, -14.08, 97.4483, -51.5278, 44.0335
1.472, 2, 35.9151, 48.1278, -14.08, 97.4483, -51.5278, 44.0335
1.476, 2, 35.9151, 48.1278, -14.08, 97.4483, -51.5278, 44.0335
1.48, 2, 35.9151, 48.1278, -14.08, 97.4483, -51.5278, 44.0335
1.484, 2, 35.9151, 48.1278, -14.08, 97.4483, -51.5278, 44.0335
1.488, 2, 35.9151, 48.1278, -14.08, 97.4483, -51.5278, 44.0335
1.492, 2, 35.9151, 48.1278, -14.08, 97.4483, -51.5278, 44.0335
1.496, 2, 35.9151, 48.1278, -14.08, 97.4483, -51.5278, 44.0335
1.5, 2, 35.9151, 48.1278, -14.08, 97.4483, -51.5278, 44.0335
1.504, 2, 35.9151, 48.1278, -14.08, 97.4483, -51.5278, 44.0335
1.508, 2, 35.9151, 48.1278, -14.08, 97.4483, -51.5278, 44.0335
1.512, 2, 35.9151, 48.1278, -14.08, 97.4483, -51.5278, 44.0335
1.516, 2, 35.9151, 48.1278, -14.08, 97.4483, -51.5278, 44.0335
1.52, 2, 35.9151, 48.1278, -14.08, 97.4483, -51.5278, 44.0335
1.524, 2, 35.9151, 48.1278, -14.08, 97.4483, -51.5278, 44.0335
1.528, 2, 35.9151, 48.1278, -14.08, 97.4483, -51.5278, 44.0335
1.532, 2, 35.9151, 48.1278, -14.08, 97.4483, -51.5278, 44.0335
1.536, 2, 35.9151, 48.1278, -14.08, 97.4483, -51.5278, 44.0335
1.54, 2, 35.9151, 48.1278, -14.08, 97.4483, -51.5278, 44.0335
1.544, 2, 35.9151, 48.1278, -14.08, 97.4483, -51.5278, 44.0335
1.548, 2, 35.9151, 48.1278, -14.08, 97.4483, -51.5278, 44.0335
1.552, 2, 35.9151, 48.1278, -14.08, 97.4483, -51.5278, 44.0335
1.556, 2, 35.9151, 48.1278, -14.08, 97.4483, -51.5278, 44.0335
1.56, 2, 35.9151, 48.1278, -14.08, 97.4483, -51.5278, 44.0335
1.564, 2, 35.9151, 48.1278, -14.08, 97.4483, -51.5278, 44.0335
1.568, 2, 35.9151, 48.1278, -14.08, 97.4483, -51.5278, 44.0335
1.572, 2, 35.9151, 48.1278, -14.08, 97.4483, -51.5278, 44.0335
1.576, 2, 35.9151, 48.1278, -14.08, 97.4483, -51.5278, 44.0335
1.58, 2, 35.9151, 48.1278, -14.08, 97.4483, -51.5278, 44.0335
1.584, 2, 35.9151, 48.1278, -14.08, 97.4483, -51.5278, 44.0335
1.588, 2, 35.9151, 48.1278, -14.08, 97.4483, -51.5278, 44.0335
1.592, 2, 35.9151, 48.1278, -14.08, 97.4483, -51.5278, 44.0335
1.596, 2, 35.9151, 48.1278, -14.08, 97.4483, -51.5278, 44.0335
1.6, 2, 35.9151, 48.1278, -14.08, 97.4483, -51.5278, 44.0335
1.604, 2, 35.9151, 48.1278, -14.08, 97.4483, -51.5278, 44.0335
1.608, 2, 35.9151, 48.1278, -14.08, 97.4483, -51.5278, 44.0335
1.612, 2, 35.9151, 48.1278, -14.08, 97.4483, -51.5278, 44.0335
1.616, 2, 35.9151, 48.1278, -14.08, 97.4483, -51.5278, 44.0335
1.62, 2, 35.9151, 48.1278, -14.08, 97.4483, -51.5278, 44.0335
1.624, 2, 35.9151, 48.1278, -14.08, 97.4483, -51.5278, 44.0335
1.628, 2, 35.9151, 48.1278, -14.08, 97.4483, -51.5278, 44.0335
1.632, 2, 35.9151, 48.1278, -14.08, 97.4483, -51.5278, 44.0335
1.636, 2, 35.9151, 48.1278, -14.08, 97.4483, -51.5278, 44.0335
1.64, 2, 35.9151, 48.1278, -14.08, 97.4483, -51.5278, 44.0335
1.644, 2, 35.9151, 48.1278, -14.08, 97.4483, -51.5278, 44.0335
1.648, 2, 35.9151, 48.1278, -14.08, 97.4483, -51.5278, 44.0335
1.652, 2, 35.9151, 48.1278, -14.08, 97.4483, -51.5278, 44.0335
1.656, 2, 35.9151, 48.1278, -14.08, 97.4483, -51.5278, 44.0335
1.66, 2, 35.9151, 48.1278, -14.08, 97.4483, -51.5278, 44.0335
1.664, 2, 35.9151, 48.1278, -14.08, 97.4483, -51.5278, 44.0335
1.668, 2, 35.9151, 48.1278, -14.08, 97.4483, -51.5278, 44.0335
1.672, 2, 35.9151, 48.1278, -14.08, 97.4483, -51.5278, 44.0335
1.676, 2, 35.9151, 48.1278, -14.08, 97.4483, -51.5278, 44.0335
1.68, 2, 35.9151, 48.1278, -14.08, 97.4483, -51.5278, 44.0335
1.684, 2, 35.9151, 48.1278, -14.08, 97.4483, -51.5278, 44.0335
1.688, 2, 35.9151, 48.1278, -14.08, 97.4483, -51.5278, 44.0335
1.692, 2, 35.9151, 48.1278, -14.08, 97.4483, -51.5278, 44.0335
1.696, 2, 35.9151, 48.1278, -14.08, 97.4483, -51.5278, 44.0335
1.7, 2, 35.9151, 48.1278, -14.08, 97.4483, -51.5278, 44.0335
1.704, 2, 35.9151, 48.1278, -14.08, 97.4483, -51.5278, 44.0335
1.708, 2, 35.9151, 48.1278, -14.08, 97.4483, -51.5278, 44.0335
1.712, 2, 35.9151, 48.1278, -14.08, 97.4483, -51.5278, 44.0335
1.716, 2, 35.9151, 48.1278, -14.08, 97.4483, -51.5278, 44.0335
1.72, 2, 35.9151, 48.1278, -14.08, 97.4483, -51.5278, 44.0335
1.724, 2, 35.9151, 48.1278, -14.08, 97.4483, -51.5278, 44.0335
1.728, 2, 35.9151, 48.1278, -14.08, 97.4483, -51.5278, 44.0335
1.732, 2, 35.9151, 48.1278, -14.08, 97.4483, -51.5278, 44.0335
1.736, 2, 35.9151, 48.1278, -14.08, 97.4483, -51.5278, 44.0335
1.74, 2, 35.9151, 48.1278, -14.08, 97.4483, -51.5278, 44.0335
1.744, 2, 35.9151, 48.1278, -14.08, 97.4483, -51.5278, 44.0335
1.748, 2, 35.9151, 48.1278, -14.08, 97.4483, -51.5278, 44.0335
1.752, 2, 35.9151, 48.1278, -14.08, 97.4483, -51.5278, 44.0335
1.756, 2, 35.9151, 48.1278, -14.08, 97.4483, -51.5278, 44.0335
1.76, 2, 35.9151, 48.1278, -14.08, 97.4483, -51.5278, 44.0335
1.764, 2, 35.9151, 48.1278, -14.08, 97.4483, -51.5278, 44.0335
1.768, 2, 35.9151, 48.1278, -14.08, 97.4483, -51.5278, 44.0335
1.772, 2, 35.9151, 48.1278, -14.08, 97.4483, -51.5278, 44.0335
1.776, 2, 35.9151, 48.1278, -14.08, 97.4483, -51.5278, 44.0335
1.78, 2, 35.9151, 48.1278, -14.08, 97.4483, -51.5278, 44.0335
1.784, 2, 35.9151, 48.1278, -14.08, 97.4483, -51.5278, 44.0335
1.788, 2, 35.9151, 48.1278, -14.08, 97.4483, -51.5278, 44.0335
1.792, 2, 35.9151, 48.1278, -14.08, 97.4483, -51.5278, 44.0335
1.796, 2, 35.9151, 48.1278, -14.08, 97.4483, -51.5278, 44.0335
1.8, 2, 35.9151, 48.1278, -14.08, 97.4483, -51.5278, 44.0335
1.804, 2, 35.9151, 48.1278, -14.08, 97.4483, -51.5278, 44.0335
1.808, 2, 35.9151, 48.1278, -14.08, 97.4483, -51.5278, 44.0335
1.812, 2, 35.9151, 48.1278, -14.08, 97.4483, -51.5278, 44.0335
1.816, 2, 35.9151, 48.1278, -14.08, 97.4483, -51.5278, 44.0335
1.82, 2, 35.9151, 48.1278, -14.08, 97.4483, -51.5278, 44.0335
1.824, 2, 35.9151, 48.1278, -14.08, 97.4483, -51.5278, 44.0335
1.828, 2, 35.9151, 48.1278, -14.08, 97.4483, -51.5278, 44.0335
1.832, 2, 35.9151, 48.1278, -14.08, 97.4483, -51.5278, 44.0335
1.836, 2, 35.9151, 48.1278, -14.08, 97.4483, -51.5278, 44.0335
1.84, 2, 35.9151, 48.1278, -14.08, 97.4483, -51.5278, 44.0335
1.844, 2, 35.9151, 48.1278, -14.08, 97.4483, -51.5278, 44.0335
1.848, 2, 35.9151, 48.1278, -14.08, 97.4483, -51.5278, 44.0335
1.852, 2, 35.9151, 48.1278, -14.08, 97.4483, -51.5278, 44.0335
1.856, 2, 35.9151, 48.1278, -14.08, 97.4483, -51.5278, 44.0335
1.86, 2, 35.9151, 48.1278, -14.08, 97.4483, -51.5278, 44.0335
1.864, 2, 35.9151, 48.1278, -14.08, 97.4483, -51.5278, 44.0335
1.868, 2, 35.9151, 48.1278, -14.08, 97.4483, -51.5278, 44.0335
1.872, 2, 35.9151, 48.1278, -14.08, 97.4483, -51.5278, 44.0335
1.876, 2, 35.9151, 48.1278, -14.08, 97.4483, -51.5278, 44.0335
1.88, 2, 35.9151, 48.1278, -14.08, 97.4483, -51.5278, 44.0335
1.884, 2, 35.9151, 48.1278, -14.08, 97.4483, -51.5278, 44.0335
1.888, 2, 35.9151, 48.1278, -14.08, 97.4483, -51.5278, 44.0335
1.892, 2, 35.9151, 48.1278, -14.08, 97.4483, -51.5278, 44.0335
1.896, 2, 35.9151, 48.1278, -14.08, 97.4483, -51.5278, 44.0335
1.9, 2, 35.9151, 48.1278, -14.08, 97.4483, -51.5278, 44.0335
1.904, 2, 35.9151, 48.1278, -14.08, 97.4483, -51.5278, 44.0335
1.908, 2, 35.9151, 48.1278, -14.08, 97.4483, -51.5278, 44.0335
1.912, 2, 35.9151, 48.1278, -14.08, 97.4483, -51.5278, 44.0335
1.916, 2, 35.9151, 48.1278, -14.08, 97.4483, -51.5278, 44.0335
1.92, 2, 35.9151, 48.1278, -14.08, 97.4483, -51.5278, 44.0335
1.924, 2, 35.9151, 48.1278, -14.08, 97.4483, -51.5278, 44.0335
1.928, 2, 35.9151, 48.1278, -14.08, 97.4483, -51.5278, 44.0335
1.932, 2, 35.9151, 48.1278, -14.08, 97.4483, -51.5278, 44.0335
1.936, 2, 35.9151, 48.1278, -14.08, 97.4483, -51.5278, 44.0335
1.94, 2, 35.9151, 48.1278, -14.08, 97.4483, -51.5278, 44.0335
1.944, 2, 35.9151, 48.1278, -14.08, 97.4483, -51.5278, 44.0335
1.948, 2, 35.9151, 48.1278, -14.08, 97.4483, -51.5278, 44.0335
1.952, 2, 35.9151, 48.1278, -14.08, 97.4483, -51.5278, 44.0335
1.956, 2, 35.9151, 48.1278, -14.08, 97.4483, -51.5278, 44.0335
1.96, 2, 35.9151, 48.1278, -14.08, 97.4483, -51.5278, 44.0335
1.964, 2, 35.9151, 48.1278, -14.08, 97.4483, -51.5278, 44.0335
1.968, 2, 35.9151, 48.1278, -14.08, 97.4483, -51.5278, 44.0335
1.972, 2, 35.9151, 48.1278, -14.08, 97.4483, -51.5278, 44.0335
1.976, 2, 35.9151, 48.1278, -14.08, 97.4483, -51.5278, 44.0335
1.98, 2, 35.9151, 48.1278, -14.08, 97.4483, -51.5278, 44.0335
1.984, 2, 35.9151, 48.1278, -14.08, 97.4483, -51.5278, 44.0335
1.988, 2, 35.9151, 48.1278, -14.08, 97.4483, -51.5278, 44.0335
1.992, 2, 35.9151, 48.1278, -14.08, 97.4483, -51.5278, 44.0335
1.996, 2, 35.9151, 48.1278, -14.08, 97.4483, -51.5278, 44.0335
1.999, 2, 35.9151, 48.1278, -14.08, 97.4483, -51.5278, 44.0335
2.004, 2, 35.9151, 48.1278, -14.08, 97.4483, -51.5278, 44.0335
2.008, 2, 35.9151, 48.1278, -14.08, 97.4483, -51.5278, 44.0335
2.012, 2, 35.9151, 48.1278, -14.08, 97.4483, -51.5278, 44.0335
2.015, 2, 35.9151, 48.1278, -14.08, 97.4483, -51.5278, 44.0335
2.019, 2, 35.9151, 48.1278, -14.08, 97.4483, -51.5278, 44.0335
2.024, 2, 35.9151, 48.1278, -14.08, 97.4483, -51.5278, 44.0335
2.028, 2, 35.9151, 48.1278, -14.08, 97.4483, -51.5278, 44.0335
2.031, 4, 35.9151, 48.1278, -14.08, 97.4483, -51.5278, 44.0335
2.036, 4, 35.9151, 48.1278, -14.08, 97.4483, -51.5278, 44.0335
2.04, 4, 35.9151, 48.1278, -14.08, 97.4483, -51.5278, 44.0335
2.044, 4, 35.9151, 48.1278, -14.08, 97.4483, -51.5278, 44.0335
2.048, 4, 35.9151, 48.1278, -14.08, 97.4483, -51.5278, 44.0335
2.051, 4, 35.9151, 48.1278, -14.08, 97.4483, -51.5278, 44.0335
2.055, 4, 35.9151, 48.1278, -14.08, 97.4483, -51.5278, 44.0335
2.06, 4, 35.9151, 48.1278, -14.08, 97.4483, -51.5278, 44.0335
2.064, 4, 35.9151, 48.1278, -14.08, 97.4483, -51.5278, 44.0335
2.068, 4, 35.9151, 48.1278, -14.08, 97.4483, -51.5278, 44.0335
2.071, 4, 35.9151, 48.1278, -14.08, 97.4483, -51.5278, 44.0335
2.076, 4, 35.9151, 48.1278, -14.08, 97.4483, -51.5278, 44.0335
2.08, 4, 35.9151, 48.1278, -14.08, 97.4483, -51.5278, 44.0335
2.084, 4, 35.9151, 48.1278, -14.08, 97.4483, -51.5278, 44.0335
2.087, 4, 35.9151, 48.1278, -14.08, 97.4483, -51.5278, 44.0335
2.092, 4, 35.9151, 48.1278, -14.08, 97.4483, -51.5278, 44.0335
2.096, 4, 35.9151, 48.1278, -14.08, 97.4483, -51.5278, 44.0335
2.1, 4, 35.9151, 48.1278, -14.08, 97.4483, -51.5278, 44.0335
2.104, 4, 35.9151, 48.1278, -14.08, 97.4483, -51.5278, 44.0335
2.107, 4, 35.9151, 48.1278, -14.08, 97.4483, -51.5278, 44.0335
2.111, 4, 35.9151, 48.1278, -14.08, 97.4483, -51.5278, 44.0335
2.116, 4, 35.9151, 48.1278, -14.08, 97.4483, -51.5278, 44.0335
2.12, 4, 35.9151, 48.1278, -14.08, 97.4483, -51.5278, 44.0335
2.124, 4, 35.9151, 48.1278, -14.08, 97.4483, -51.5278, 44.0335
2.127, 4, 35.9151, 48.1278, -14.08, 97.4483, -51.5278, 44.0335
2.132, 4, 35.9151, 48.1278, -14.08, 97.4483, -51.5278, 44.0335
2.138, 4, 35.9151, 48.1278, -14.08, 97.4483, -51.5278, 44.0335
2.14, 4, 35.9151, 48.1278, -14.08, 97.4483, -51.5278, 44.0335
2.143, 4, 35.9151, 48.1278, -14.08, 97.4483, -51.5278, 44.0335
2.148, 4, 35.9151, 48.1278, -14.08, 97.4483, -51.5278, 44.0335
2.152, 4, 35.9151, 48.1278, -14.08, 97.4483, -51.5278, 44.0335
2.156, 4, 35.9151, 48.1278, -14.08, 97.4483, -51.5278, 44.0335
2.16, 4, 35.9151, 48.1278, -14.08, 97.4483, -51.5278, 44.0335
2.163, 4, 35.9151, 48.1278, -14.08, 97.4483, -51.5278, 44.0335
2.168, 4, 35.9151, 48.1278, -14.08, 97.4483, -51.5278, 44.0335
2.172, 4, 35.9151, 48.1278, -14.08, 97.4483, -51.5278, 44.0335
2.176, 4, 35.9151, 48.1278, -14.08, 97.4483, -51.5278, 44.0335
2.179, 4, 35.9151, 48.1278, -14.08, 97.4483, -51.5278, 44.0335
2.184, 4, 35.915, 48.128, -14.08, 97.4483, -51.5279, 44.0335
2.188, 4, 35.9148, 48.1283, -14.08, 97.4483, -51.5279, 44.0335
2.192, 4, 35.9145, 48.1288, -14.08, 97.4483, -51.528, 44.0335
2.196, 4, 35.9141, 48.1297, -14.08, 97.4482, -51.5283, 44.0333
2.199, 4, 35.9135, 48.1307, -14.08, 97.4481, -51.5289, 44.0331
2.204, 4, 35.9128, 48.132, -14.0799, 97.448, -51.5298, 44.0328
2.208, 4, 35.9122, 48.1333, -14.0798, 97.4477, -51.5313, 44.0322
2.212, 4, 35.9116, 48.1348, -14.0797, 97.4473, -51.5335, 44.0314
2.216, 4, 35.911, 48.1362, -14.0796, 97.4469, -51.5365, 44.0302
2.219, 4, 35.9105, 48.1377, -14.0794, 97.4462, -51.5404, 44.0288
2.224, 5, 35.9101, 48.1393, -14.0791, 97.4454, -51.5452, 44.0269
2.228, 5, 35.9097, 48.141, -14.0788, 97.4444, -51.5511, 44.0246
2.232, 5, 35.9093, 48.1429, -14.0785, 97.4432, -51.5581, 44.022
2.235, 5, 35.909, 48.1448, -14.0781, 97.4419, -51.5661, 44.0189
2.24, 5, 35.9088, 48.1467, -14.0777, 97.4403, -51.5751, 44.0155
2.244, 5, 35.9087, 48.1487, -14.0772, 97.4387, -51.5851, 44.0117
2.248, 5, 35.9087, 48.1506, -14.0767, 97.4368, -51.5959, 44.0075
2.252, 5, 35.9087, 48.1527, -14.0761, 97.4349, -51.6075, 44.0031
2.255, 5, 35.9086, 48.1549, -14.0755, 97.4328, -51.6197, 43.9984
2.259, 5, 35.9085, 48.1574, -14.0749, 97.4307, -51.6323, 43.9936
2.264, 5, 35.9082, 48.1601, -14.0743, 97.4285, -51.6452, 43.9887
2.268, 5, 35.9078, 48.1631, -14.0736, 97.4262, -51.6584, 43.9836
2.272, 5, 35.9073, 48.1663, -14.073, 97.424, -51.6717, 43.9786
2.275, 5, 35.9068, 48.1696, -14.0723, 97.4217, -51.6851, 43.9734
2.28, 5, 35.9062, 48.173, -14.0716, 97.4194, -51.6986, 43.9683
2.284, 5, 35.9055, 48.1764, -14.071, 97.4171, -51.7122, 43.9631
2.288, 5, 35.9049, 48.1799, -14.0703, 97.4148, -51.7258, 43.9579
2.291, 5, 35.9042, 48.1835, -14.0696, 97.4125, -51.7394, 43.9527
2.296, 5, 35.9035, 48.187, -14.0689, 97.4101, -51.753, 43.9476
2.3, 5, 35.9028, 48.1905, -14.0682, 97.4078, -51.7666, 43.9424
2.304, 5, 35.9021, 48.1941, -14.0675, 97.4055, -51.7803, 43.9372
2.308, 5, 35.9014, 48.1977, -14.0668, 97.4031, -51.7939, 43.932
2.311, 5, 35.9007, 48.2012, -14.0661, 97.4008, -51.8075, 43.9268
2.316, 5, 35.9, 48.2048, -14.0654, 97.3984, -51.8212, 43.9216
2.32, 5, 35.8993, 48.2084, -14.0647, 97.3961, -51.8348, 43.9164
2.324, 5, 35.8986, 48.2119, -14.064, 97.3937, -51.8485, 43.9112
2.328, 5, 35.8979, 48.2155, -14.0633, 97.3914, -51.8621, 43.906
2.331, 5, 35.8972, 48.2191, -14.0626, 97.389, -51.8757, 43.9008
2.336, 5, 35.8965, 48.2226, -14.0619, 97.3867, -51.8894, 43.8956
2.34, 5, 35.8958, 48.2262, -14.0612, 97.3843, -51.903, 43.8904
2.344, 5, 35.8951, 48.2298, -14.0604, 97.382, -51.9167, 43.8853
2.347, 5, 35.8944, 48.2333, -14.0597, 97.3796, -51.9303, 43.8801
2.352, 5, 35.8936, 48.2369, -14.059, 97.3772, -51.9439, 43.8749
2.356, 5, 35.8929, 48.2404, -14.0583, 97.3749, -51.9576, 43.8697
2.36, 5, 35.8922, 48.244, -14.0575, 97.3725, -51.9712, 43.8645
2.364, 5, 35.8915, 48.2476, -14.0568, 97.3701, -51.9849, 43.8594
2.367, 5, 35.8908, 48.2511, -14.0561, 97.3678, -51.9985, 43.8542
2.372, 5, 35.8901, 48.2547, -14.0553, 97.3654, -52.0121, 43.849
2.376, 5, 35.8893, 48.2582, -14.0546, 97.363, -52.0258, 43.8438
2.38, 5, 35.8886, 48.2618, -14.0539, 97.3606, -52.0394, 43.8387
2.383, 5, 35.8879, 48.2653, -14.0531, 97.3582, -52.053, 43.8335
2.388, 5, 35.8872, 48.2689, -14.0524, 97.3558, -52.0666, 43.8283
2.392, 5, 35.8865, 48.2724, -14.0516, 97.3535, -52.0803, 43.8232
2.396, 5, 35.8857, 48.276, -14.0509, 97.3511, -52.0939, 43.818
2.4, 5, 35.885, 48.2795, -14.0501, 97.3487, -52.1075, 43.8128
2.403, 5, 35.8843, 48.2831, -14.0494, 97.3463, -52.1212, 43.8077
2.408, 5, 35.8836, 48.2866, -14.0486, 97.3439, -52.1348, 43.8025
2.412, 5, 35.8828, 48.2902, -14.0479, 97.3415, -52.1484, 43.7974
2.416, 5, 35.8821, 48.2937, -14.0471, 97.3391, -52.162, 43.7922
2.42, 5, 35.8814, 48.2972, -14.0463, 97.3367, -52.1757, 43.787
2.423, 5, 35.8807, 48.3008, -14.0456, 97.3343, -52.1893, 43.7819
2.428, 5, 35.8799, 48.3043, -14.0448, 97.3318, -52.2029, 43.7767
2.432, 5, 35.8792, 48.3078, -14.044, 97.3294, -52.2165, 43.7716
2.436, 5, 35.8785, 48.3114, -14.0433, 97.327, -52.2301, 43.7664
2.439, 5, 35.8777, 48.3149, -14.0425, 97.3246, -52.2438, 43.7613
2.444, 5, 35.877, 48.3185, -14.0417, 97.3222, -52.2574, 43.7561
2.448, 5, 35.8763, 48.322, -14.0409, 97.3197, -52.271, 43.751
2.452, 5, 35.8755, 48.3255, -14.0402, 97.3173, -52.2846, 43.7458
2.456, 5, 35.8748, 48.329, -14.0394, 97.3149, -52.2982, 43.7407
2.459, 5, 35.8741, 48.3326, -14.0386, 97.3125, -52.3118, 43.7356
2.464, 5, 35.8733, 48.3361, -14.0378, 97.31, -52.3255, 43.7304
2.468, 5, 35.8726, 48.3396, -14.037, 97.3076, -52.3391, 43.7253
2.472, 5, 35.8719, 48.3431, -14.0362, 97.3052, -52.3527, 43.7202
2.476, 5, 35.8711, 48.3467, -14.0354, 97.3027, -52.3663, 43.715
2.479, 5, 35.8704, 48.3502, -14.0346, 97.3003, -52.3799, 43.7099
2.484, 5, 35.8696, 48.3537, -14.0338, 97.2978, -52.3935, 43.7048
2.488, 5, 35.8689, 48.3572, -14.033, 97.2954, -52.4071, 43.6996
2.492, 5, 35.8682, 48.3607, -14.0322, 97.2929, -52.4207, 43.6945
2.495, 5, 35.8674, 48.3643, -14.0314, 97.2905, -52.4343, 43.6894
2.5, 5, 35.8667, 48.3678, -14.0306, 97.288, -52.4479, 43.6842
2.504, 5, 35.8659, 48.3713, -14.0298, 97.2856, -52.4615, 43.6791
2.508, 5, 35.8652, 48.3748, -14.029, 97.2831, -52.4751, 43.674
2.512, 5, 35.8644, 48.3783, -14.0282, 97.2807, -52.4887, 43.6689
2.515, 5, 35.8637, 48.3818, -14.0273, 97.2782, -52.5023, 43.6638
2.52, 5, 35.8629, 48.3853, -14.0265, 97.2757, -52.5159, 43.6586
2.524, 5, 35.8622, 48.3888, -14.0257, 97.2733, -52.5295, 43.6535
2.528, 5, 35.8615, 48.3923, -14.0249, 97.2708, -52.5431, 43.6484
2.531, 5, 35.8607, 48.3958, -14.024, 97.2683, -52.5567, 43.6433
2.536, 5, 35.86, 48.3993, -14.0232, 97.2658, -52.5703, 43.6382
2.54, 5, 35.8592, 48.4028, -14.0224, 97.2634, -52.5839, 43.6331
2.544, 5, 35.8584, 48.4063, -14.0215, 97.2609, -52.5975, 43.628
2.548, 5, 35.8577, 48.4098, -14.0207, 97.2584, -52.6111, 43.6229
2.551, 5, 35.8569, 48.4133, -14.0199, 97.2559, -52.6247, 43.6177
2.556, 5, 35.8562, 48.4168, -14.019, 97.2534, -52.6383, 43.6126
2.56, 5, 35.8554, 48.4203, -14.0182, 97.2509, -52.6519, 43.6075
2.564, 5, 35.8547, 48.4238, -14.0173, 97.2485, -52.6655, 43.6024
2.568, 5, 35.8539, 48.4273, -14.0165, 97.2459, -52.6791, 43.5973
2.571, 5, 35.8532, 48.4308, -14.0156, 97.2435, -52.6927, 43.5922
2.576, 5, 35.8524, 48.4343, -14.0148, 97.241, -52.7063, 43.5871
2.58, 5, 35.8517, 48.4378, -14.0139, 97.2385, -52.7199, 43.582
2.584, 5, 35.8509, 48.4413, -14.0131, 97.236, -52.7334, 43.577
2.587, 5, 35.8501, 48.4448, -14.0122, 97.2335, -52.747, 43.5719
2.592, 5, 35.8494, 48.4482, -14.0113, 97.2309, -52.7606, 43.5668
2.596, 5, 35.8486, 48.4517, -14.0105, 97.2284, -52.7742, 43.5617
2.6, 5, 35.8478, 48.4552, -14.0096, 97.2259, -52.7878, 43.5566
2.604, 5, 35.8471, 48.4587, -14.0087, 97.2234, -52.8014, 43.5515
2.607, 5, 35.8463, 48.4622, -14.0079, 97.2209, -52.8149, 43.5464
2.612, 5, 35.8456, 48.4656, -14.007, 97.2184, -52.8285, 43.5413
2.616, 5, 35.8448, 48.4691, -14.0061, 97.2158, -52.8421, 43.5363
2.62, 5, 35.844, 48.4726, -14.0052, 97.2133, -52.8557, 43.5312
2.624, 5, 35.8433, 48.4761, -14.0044, 97.2108, -52.8693, 43.5261
2.627, 5, 35.8425, 48.4795, -14.0035, 97.2083, -52.8828, 43.521
2.632, 5, 35.8417, 48.483, -14.0026, 97.2057, -52.8964, 43.5159
2.636, 5, 35.841, 48.4865, -14.0017, 97.2032, -52.91, 43.5109
2.64, 5, 35.8402, 48.49, -14.0008, 97.2007, -52.9236, 43.5058
2.643, 5, 35.8394, 48.4934, -13.9999, 97.1981, -52.9371, 43.5007
2.648, 5, 35.8386, 48.4969, -13.999, 97.1956, -52.9507, 43.4956
2.652, 5, 35.8379, 48.5004, -13.9981, 97.193, -52.9643, 43.4906
2.656, 5, 35.8371, 48.5038, -13.9972, 97.1905, -52.9779, 43.4855
2.66, 5, 35.8363, 48.5073, -13.9963, 97.188, -52.9914, 43.4804
2.663, 5, 35.8355, 48.5107, -13.9954, 97.1854, -53.005, 43.4754
2.668, 5, 35.8348, 48.5142, -13.9945, 97.1828, -53.0186, 43.4703
2.672, 5, 35.834, 48.5177, -13.9936, 97.1803, -53.0321, 43.4652
2.676, 5, 35.8332, 48.5211, -13.9927, 97.1777, -53.0457, 43.4602
2.679, 5, 35.8324, 48.5246, -13.9918, 97.1752, -53.0593, 43.4551
2.684, 5, 35.8317, 48.528, -13.9908, 97.1726, -53.0728, 43.4501
2.688, 5, 35.8309, 48.5315, -13.9899, 97.1701, -53.0864, 43.445
2.692, 5, 35.8301, 48.5349, -13.989, 97.1675, -53.1, 43.44
2.696, 5, 35.8293, 48.5384, -13.9881, 97.1649, -53.1135, 43.4349
2.699, 5, 35.8285, 48.5418, -13.9871, 97.1623, -53.1271, 43.4298
2.704, 5, 35.8278, 48.5453, -13.9862, 97.1598, -53.1406, 43.4248
2.708, 5, 35.827, 48.5487, -13.9853, 97.1572, -53.1542, 43.4197
2.712, 5, 35.8262, 48.5522, -13.9844, 97.1546, -53.1678, 43.4147
2.716, 5, 35.8254, 48.5556, -13.9834, 97.152, -53.1813, 43.4096
2.719, 5, 35.8246, 48.5591, -13.9825, 97.1495, -53.1949, 43.4046
2.724, 5, 35.8238, 48.5625, -13.9815, 97.1469, -53.2084, 43.3996
2.728, 5, 35.823, 48.5659, -13.9806, 97.1443, -53.222, 43.3945
2.732, 5, 35.8223, 48.5694, -13.9796, 97.1417, -53.2355, 43.3895
2.735, 5, 35.8215, 48.5728, -13.9787, 97.1391, -53.2491, 43.3844
2.74, 5, 35.8207, 48.5763, -13.9777, 97.1365, -53.2627, 43.3794
2.744, 5, 35.8199, 48.5797, -13.9768, 97.1339, -53.2762, 43.3744
2.748, 5, 35.8191, 48.5831, -13.9758, 97.1313, -53.2898, 43.3693
2.752, 5, 35.8183, 48.5866, -13.9749, 97.1287, -53.3033, 43.3643
2.755, 5, 35.8175, 48.59, -13.9739, 97.1261, -53.3169, 43.3593
2.76, 5, 35.8167, 48.5934, -13.973, 97.1235, -53.3304, 43.3542
2.764, 5, 35.8159, 48.5968, -13.972, 97.1209, -53.3439, 43.3492
2.768, 5, 35.8151, 48.6003, -13.971, 97.1183, -53.3575, 43.3442
2.772, 5, 35.8143, 48.6037, -13.9701, 97.1157, -53.371, 43.3391
2.775, 5, 35.8135, 48.6071, -13.9691, 97.1131, -53.3846, 43.3341
2.78, 5, 35.8127, 48.6105, -13.9681, 97.1105, -53.3981, 43.3291
2.784, 5, 35.8119, 48.614, -13.9671, 97.1078, -53.4117, 43.3241
2.788, 5, 35.8111, 48.6174, -13.9662, 97.1052, -53.4252, 43.319
2.791, 5, 35.8103, 48.6208, -13.9652, 97.1026, -53.4388, 43.314
2.796, 5, 35.8095, 48.6242, -13.9642, 97.1, -53.4523, 43.309
2.8, 5, 35.8087, 48.6276, -13.9632, 97.0973, -53.4658, 43.304
2.804, 5, 35.8079, 48.6311, -13.9622, 97.0947, -53.4794, 43.299
2.808, 5, 35.8071, 48.6345, -13.9612, 97.0921, -53.4929, 43.294
2.811, 5, 35.8063, 48.6379, -13.9602, 97.0894, -53.5065, 43.2889
2.816, 5, 35.8055, 48.6413, -13.9592, 97.0868, -53.52, 43.2839
2.82, 5, 35.8047, 48.6447, -13.9582, 97.0842, -53.5335, 43.2789
2.824, 5, 35.8039, 48.6481, -13.9572, 97.0815, -53.5471, 43.2739
2.828, 5, 35.8031, 48.6515, -13.9562, 97.0789, -53.5606, 43.2689
2.831, 5, 35.8023, 48.6549, -13.9552, 97.0762, -53.5741, 43.2639
2.836, 5, 35.8015, 48.6583, -13.9542, 97.0736, -53.5877, 43.2589
2.84, 5, 35.8007, 48.6617, -13.9532, 97.0709, -53.6012, 43.2539
2.844, 5, 35.7999, 48.6651, -13.9522, 97.0683, -53.6147, 43.2489
2.847, 5, 35.7991, 48.6685, -13.9512, 97.0656, -53.6282, 43.2439
2.852, 5, 35.7983, 48.6719, -13.9502, 97.063, -53.6418, 43.2389
2.856, 5, 35.7974, 48.6753, -13.9491, 97.0603, -53.6553, 43.2339
2.86, 5, 35.7966, 48.6787, -13.9481, 97.0576, -53.6688, 43.2289
2.864, 5, 35.7958, 48.6821, -13.9471, 97.055, -53.6824, 43.2239
2.867, 5, 35.795, 48.6855, -13.9461, 97.0523, -53.6959, 43.2189
2.872, 5, 35.7942, 48.6889, -13.945, 97.0496, -53.7094, 43.2139
2.876, 5, 35.7934, 48.6923, -13.944, 97.047, -53.7229, 43.2089
2.88, 5, 35.7926, 48.6957, -13.943, 97.0443, -53.7364, 43.2039
2.883, 5, 35.7917, 48.6991, -13.9419, 97.0416, -53.75, 43.1989
2.888, 5, 35.7909, 48.7025, -13.9409, 97.0389, -53.7635, 43.194
2.892, 5, 35.7901, 48.7058, -13.9399, 97.0363, -53.777, 43.189
2.896, 5, 35.7893, 48.7092, -13.9388, 97.0336, -53.7905, 43.184
2.9, 5, 35.7885, 48.7126, -13.9378, 97.0309, -53.804, 43.179
2.903, 5, 35.7876, 48.716, -13.9367, 97.0282, -53.8176, 43.174
2.908, 5, 35.7868, 48.7194, -13.9357, 97.0255, -53.8311, 43.169
2.912, 5, 35.786, 48.7228, -13.9346, 97.0228, -53.8446, 43.1641
2.916, 5, 35.7852, 48.7261, -13.9336, 97.0201, -53.8581, 43.1591
2.92, 5, 35.7843, 48.7295, -13.9325, 97.0174, -53.8716, 43.1541
2.923, 5, 35.7835, 48.7329, -13.9314, 97.0147, -53.8851, 43.1491
2.928, 5, 35.7827, 48.7363, -13.9304, 97.012, -53.8986, 43.1442
2.932, 5, 35.7819, 48.7396, -13.9293, 97.0093, -53.9121, 43.1392
2.936, 5, 35.781, 48.743, -13.9282, 97.0066, -53.9257, 43.1342
2.939, 5, 35.7802, 48.7464, -13.9272, 97.0039, -53.9392, 43.1292
2.944, 5, 35.7794, 48.7497, -13.9261, 97.0012, -53.9527, 43.1243
2.948, 5, 35.7785, 48.7531, -13.925, 96.9985, -53.9662, 43.1193
2.952, 5, 35.7777, 48.7565, -13.924, 96.9958, -53.9797, 43.1143
2.956, 5, 35.7769, 48.7598, -13.9229, 96.9931, -53.9932, 43.1094
2.959, 5, 35.7761, 48.7632, -13.9218, 96.9904, -54.0067, 43.1044
2.964, 5, 35.7752, 48.7666, -13.9207, 96.9876, -54.0202, 43.0995
2.968, 5, 35.7744, 48.7699, -13.9196, 96.9849, -54.0337, 43.0945
2.972, 5, 35.7736, 48.7733, -13.9185, 96.9822, -54.0472, 43.0895
2.976, 5, 35.7727, 48.7766, -13.9174, 96.9795, -54.0607, 43.0846
2.98, 5, 35.7719, 48.78, -13.9163, 96.9767, -54.0742, 43.0796
2.984, 5, 35.771, 48.7833, -13.9152, 96.974, -54.0877, 43.0747
2.988, 5, 35.7702, 48.7867, -13.9141, 96.9713, -54.1012, 43.0697
2.992, 5, 35.7694, 48.79, -13.913, 96.9685, -54.1147, 43.0648
2.995, 5, 35.7685, 48.7934, -13.9119, 96.9658, -54.1282, 43.0598
3, 5, 35.7677, 48.7967, -13.9108, 96.9631, -54.1417, 43.0549
3.004, 5, 35.7668, 48.8001, -13.9097, 96.9603, -54.1552, 43.0499
3.008, 5, 35.766, 48.8034, -13.9086, 96.9576, -54.1687, 43.045
3.012, 5, 35.7652, 48.8068, -13.9075, 96.9548, -54.1822, 43.04
3.015, 5, 35.7643, 48.8101, -13.9064, 96.9521, -54.1957, 43.0351
3.02, 5, 35.7635, 48.8135, -13.9053, 96.9493, -54.2091, 43.0301
3.024, 5, 35.7626, 48.8168, -13.9042, 96.9466, -54.2226, 43.0252
3.028, 5, 35.7618, 48.8201, -13.903, 96.9438, -54.2361, 43.0203
3.031, 5, 35.7609, 48.8235, -13.9019, 96.941, -54.2496, 43.0153
3.036, 5, 35.7601, 48.8268, -13.9008, 96.9383, -54.2631, 43.0104
3.04, 5, 35.7592, 48.8302, -13.8996, 96.9355, -54.2766, 43.0054
3.044, 5, 35.7584, 48.8335, -13.8985, 96.9328, -54.2901, 43.0005
3.048, 5, 35.7575, 48.8368, -13.8974, 96.93, -54.3036, 42.9956
3.051, 5, 35.7567, 48.8402, -13.8962, 96.9272, -54.317, 42.9906
3.056, 5, 35.7558, 48.8435, -13.8951, 96.9245, -54.3305, 42.9857
3.06, 5, 35.755, 48.8468, -13.894, 96.9217, -54.344, 42.9808
3.064, 5, 35.7541, 48.8501, -13.8928, 96.9189, -54.3575, 42.9759
3.068, 5, 35.7533, 48.8535, -13.8917, 96.9161, -54.371, 42.9709
3.071, 5, 35.7524, 48.8568, -13.8905, 96.9134, -54.3844, 42.966
3.076, 5, 35.7516, 48.8601, -13.8894, 96.9106, -54.3979, 42.9611
3.08, 5, 35.7507, 48.8634, -13.8882, 96.9078, -54.4114, 42.9562
3.084, 5, 35.7499, 48.8668, -13.8871, 96.905, -54.4249, 42.9512
3.087, 5, 35.749, 48.8701, -13.8859, 96.9022, -54.4384, 42.9463
3.092, 5, 35.7481, 48.8734, -13.8847, 96.8994, -54.4518, 42.9414
3.096, 5, 35.7473, 48.8767, -13.8836, 96.8966, -54.4653, 42.9365
3.1, 5, 35.7464, 48.88, -13.8824, 96.8938, -54.4788, 42.9316
3.104, 5, 35.7456, 48.8833, -13.8812, 96.891, -54.4922, 42.9266
3.107, 5, 35.7447, 48.8866, -13.8801, 96.8882, -54.5057, 42.9217
3.112, 5, 35.7438, 48.89, -13.8789, 96.8854, -54.5192, 42.9168
3.116, 5, 35.743, 48.8933, -13.8777, 96.8826, -54.5327, 42.9119
3.12, 5, 35.7421, 48.8966, -13.8765, 96.8798, -54.5461, 42.907
3.124, 5, 35.7413, 48.8999, -13.8753, 96.877, -54.5596, 42.9021
3.128, 5, 35.7404, 48.9032, -13.8742, 96.8742, -54.5731, 42.8972
3.132, 5, 35.7395, 48.9065, -13.873, 96.8714, -54.5865, 42.8923
3.136, 5, 35.7387, 48.9098, -13.8718, 96.8686, -54.6, 42.8874
3.14, 5, 35.7378, 48.9131, -13.8706, 96.8658, -54.6135, 42.8825
3.143, 5, 35.7369, 48.9164, -13.8694, 96.8629, -54.6269, 42.8775
3.148, 5, 35.736, 48.9197, -13.8682, 96.8601, -54.6404, 42.8726
3.152, 5, 35.7352, 48.923, -13.867, 96.8573, -54.6539, 42.8677
3.156, 5, 35.7343, 48.9263, -13.8658, 96.8545, -54.6673, 42.8628
3.16, 5, 35.7334, 48.9296, -13.8646, 96.8517, -54.6808, 42.8579
3.163, 5, 35.7326, 48.9329, -13.8634, 96.8488, -54.6942, 42.8531
3.168, 5, 35.7317, 48.9362, -13.8622, 96.846, -54.7077, 42.8482
3.172, 5, 35.7308, 48.9395, -13.861, 96.8431, -54.7211, 42.8433
3.176, 5, 35.7299, 48.9427, -13.8598, 96.8403, -54.7346, 42.8384
3.179, 5, 35.7291, 48.946, -13.8585, 96.8375, -54.7481, 42.8335
3.184, 5, 35.7282, 48.9493, -13.8573, 96.8346, -54.7615, 42.8286
3.188, 5, 35.7273, 48.9526, -13.8561, 96.8318, -54.775, 42.8237
3.192, 5, 35.7264, 48.9559, -13.8549, 96.8289, -54.7884, 42.8188
3.196, 5, 35.7256, 48.9592, -13.8537, 96.8261, -54.8019, 42.8139
3.199, 5, 35.7247, 48.9624, -13.8524, 96.8233, -54.8153, 42.809
3.204, 5, 35.7238, 48.9657, -13.8512, 96.8204, -54.8288, 42.8041
3.208, 5, 35.7229, 48.969, -13.85, 96.8176, -54.8422, 42.7993
3.212, 5, 35.722, 48.9723, -13.8487, 96.8147, -54.8557, 42.7944
3.216, 5, 35.7212, 48.9756, -13.8475, 96.8118, -54.8691, 42.7895
3.22, 5, 35.7203, 48.9788, -13.8463, 96.809, -54.8826, 42.7846
3.224, 5, 35.7194, 48.9821, -13.845, 96.8061, -54.896, 42.7797
3.228, 5, 35.7185, 48.9854, -13.8438, 96.8033, -54.9095, 42.7749
3.232, 5, 35.7176, 48.9886, -13.8425, 96.8004, -54.9229, 42.77
3.235, 5, 35.7167, 48.9919, -13.8413, 96.7975, -54.9363, 42.7651
3.24, 5, 35.7158, 48.9952, -13.84, 96.7946, -54.9498, 42.7602
3.244, 5, 35.715, 48.9984, -13.8388, 96.7918, -54.9632, 42.7554
3.248, 5, 35.7141, 49.0017, -13.8375, 96.7889, -54.9767, 42.7505
3.252, 5, 35.7132, 49.005, -13.8363, 96.786, -54.9901, 42.7456
3.255, 5, 35.7123, 49.0082, -13.835, 96.7831, -55.0035, 42.7407
3.26, 5, 35.7114, 49.0115, -13.8337, 96.7803, -55.017, 42.7359
3.264, 5, 35.7105, 49.0147, -13.8325, 96.7774, -55.0304, 42.731
3.268, 5, 35.7096, 49.018, -13.8312, 96.7745, -55.0439, 42.7261
3.272, 5, 35.7087, 49.0213, -13.8299, 96.7716, -55.0573, 42.7213
3.276, 5, 35.7078, 49.0245, -13.8286, 96.7687, -55.0707, 42.7164
3.28, 5, 35.7069, 49.0278, -13.8274, 96.7658, -55.0842, 42.7116
3.284, 5, 35.706, 49.031, -13.8261, 96.7629, -55.0976, 42.7067
3.288, 5, 35.7051, 49.0343, -13.8248, 96.76, -55.111, 42.7018
3.291, 5, 35.7042, 49.0375, -13.8235, 96.7572, -55.1245, 42.697
3.296, 5, 35.7033, 49.0408, -13.8222, 96.7542, -55.1379, 42.6921
3.3, 5, 35.7024, 49.044, -13.8209, 96.7514, -55.1513, 42.6873
3.304, 5, 35.7015, 49.0472, -13.8197, 96.7484, -55.1648, 42.6824
3.308, 5, 35.7006, 49.0505, -13.8184, 96.7455, -55.1782, 42.6776
3.312, 5, 35.6997, 49.0537, -13.8171, 96.7426, -55.1916, 42.6727
3.316, 5, 35.6988, 49.057, -13.8158, 96.7397, -55.205, 42.6679
3.32, 5, 35.6979, 49.0602, -13.8145, 96.7368, -55.2185, 42.663
3.324, 5, 35.697, 49.0634, -13.8132, 96.7339, -55.2319, 42.6582
3.328, 5, 35.6961, 49.0667, -13.8119, 96.731, -55.2453, 42.6533
3.332, 5, 35.6952, 49.0699, -13.8106, 96.7281, -55.2587, 42.6485
3.336, 5, 35.6943, 49.0732, -13.8092, 96.7252, -55.2722, 42.6436
3.34, 5, 35.6934, 49.0764, -13.8079, 96.7222, -55.2856, 42.6388
3.344, 5, 35.6925, 49.0796, -13.8066, 96.7193, -55.299, 42.6339
3.347, 5, 35.6916, 49.0828, -13.8053, 96.7164, -55.3124, 42.6291
3.352, 5, 35.6907, 49.0861, -13.804, 96.7134, -55.3258, 42.6242
3.356, 5, 35.6898, 49.0893, -13.8027, 96.7105, -55.3392, 42.6194
3.36, 5, 35.6889, 49.0925, -13.8013, 96.7076, -55.3527, 42.6146
3.364, 5, 35.688, 49.0957, -13.8, 96.7047, -55.3661, 42.6097
3.368, 5, 35.687, 49.099, -13.7987, 96.7017, -55.3795, 42.6049
3.372, 5, 35.6861, 49.1022, -13.7973, 96.6988, -55.3929, 42.6001
3.376, 5, 35.6852, 49.1054, -13.796, 96.6958, -55.4063, 42.5952
3.38, 5, 35.6843, 49.1086, -13.7947, 96.6929, -55.4197, 42.5904
3.383, 5, 35.6834, 49.1118, -13.7933, 96.6899, -55.4331, 42.5856
3.388, 5, 35.6825, 49.1151, -13.792, 96.687, -55.4466, 42.5807
3.392, 5, 35.6816, 49.1183, -13.7906, 96.6841, -55.46, 42.5759
3.396, 5, 35.6806, 49.1215, -13.7893, 96.6811, -55.4734, 42.5711
3.4, 5, 35.6797, 49.1247, -13.7879, 96.6781, -55.4868, 42.5662
3.403, 5, 35.6788, 49.1279, -13.7866, 96.6752, -55.5002, 42.5614
3.408, 5, 35.6779, 49.1311, -13.7852, 96.6722, -55.5136, 42.5566
3.412, 5, 35.677, 49.1343, -13.7839, 96.6693, -55.527, 42.5518
3.416, 5, 35.676, 49.1375, -13.7825, 96.6663, -55.5404, 42.5469
3.42, 5, 35.6751, 49.1407, -13.7812, 96.6633, -55.5538, 42.5421
3.424, 5, 35.6742, 49.1439, -13.7798, 96.6604, -55.5672, 42.5373
3.428, 5, 35.6733, 49.1471, -13.7784, 96.6574, -55.5806, 42.5325
3.432, 5, 35.6724, 49.1503, -13.7771, 96.6544, -55.594, 42.5277
3.436, 5, 35.6714, 49.1535, -13.7757, 96.6515, -55.6074, 42.5229
3.439, 5, 35.6705, 49.1567, -13.7743, 96.6485, -55.6208, 42.518
3.444, 5, 35.6696, 49.1599, -13.7729, 96.6455, -55.6342, 42.5132
3.448, 5, 35.6686, 49.1631, -13.7716, 96.6425, -55.6476, 42.5084
3.452, 5, 35.6677, 49.1663, -13.7702, 96.6396, -55.661, 42.5036
3.456, 5, 35.6668, 49.1695, -13.7688, 96.6366, -55.6744, 42.4988
3.46, 5, 35.6659, 49.1727, -13.7674, 96.6336, -55.6878, 42.494
3.464, 5, 35.6649, 49.1759, -13.766, 96.6306, -55.7012, 42.4892
3.468, 5, 35.664, 49.1791, -13.7646, 96.6276, -55.7146, 42.4844
3.472, 5, 35.6631, 49.1822, -13.7632, 96.6246, -55.728, 42.4796
3.476, 5, 35.6621, 49.1854, -13.7618, 96.6216, -55.7414, 42.4748
3.48, 5, 35.6612, 49.1886, -13.7604, 96.6187, -55.7548, 42.4699
3.484, 5, 35.6603, 49.1918, -13.759, 96.6157, -55.7682, 42.4651
3.488, 5, 35.6593, 49.195, -13.7576, 96.6127, -55.7816, 42.4603
3.492, 5, 35.6584, 49.1982, -13.7562, 96.6096, -55.7949, 42.4555
3.495, 5, 35.6575, 49.2013, -13.7548, 96.6067, -55.8083, 42.4507
3.5, 5, 35.6565, 49.2045, -13.7534, 96.6036, -55.8217, 42.4459
3.504, 5, 35.6556, 49.2077, -13.752, 96.6006, -55.8351, 42.4411
3.508, 5, 35.6546, 49.2109, -13.7506, 96.5976, -55.8485, 42.4363
3.512, 5, 35.6537, 49.214, -13.7492, 96.5946, -55.8619, 42.4316
3.516, 5, 35.6528, 49.2172, -13.7477, 96.5916, -55.8752, 42.4268
3.52, 5, 35.6518, 49.2204, -13.7463, 96.5886, -55.8886, 42.422
3.524, 5, 35.6509, 49.2235, -13.7449, 96.5856, -55.902, 42.4172
3.528, 5, 35.6499, 49.2267, -13.7435, 96.5826, -55.9154, 42.4124
3.531, 5, 35.649, 49.2299, -13.742, 96.5795, -55.9288, 42.4076
3.536, 5, 35.648, 49.233, -13.7406, 96.5765, -55.9422, 42.4028
3.54, 5, 35.6471, 49.2362, -13.7392, 96.5735, -55.9555, 42.398
3.544, 5, 35.6462, 49.2393, -13.7377, 96.5705, -55.9689, 42.3932
3.548, 5, 35.6452, 49.2425, -13.7363, 96.5674, -55.9823, 42.3885
3.552, 5, 35.6443, 49.2457, -13.7349, 96.5644, -55.9957, 42.3837
3.556, 5, 35.6433, 49.2488, -13.7334, 96.5614, -56.009, 42.3789
3.56, 5, 35.6424, 49.252, -13.732, 96.5583, -56.0224, 42.3741
3.564, 5, 35.6414, 49.2551, -13.7305, 96.5553, -56.0358, 42.3693
3.568, 5, 35.6405, 49.2583, -13.7291, 96.5523, -56.0492, 42.3645
3.572, 5, 35.6395, 49.2614, -13.7276, 96.5492, -56.0625, 42.3598
3.576, 5, 35.6386, 49.2646, -13.7262, 96.5462, -56.0759, 42.355
3.58, 5, 35.6376, 49.2677, -13.7247, 96.5431, -56.0893, 42.3502
3.584, 5, 35.6367, 49.2709, -13.7232, 96.5401, -56.1026, 42.3454
3.587, 5, 35.6357, 49.274, -13.7218, 96.537, -56.116, 42.3407
3.592, 5, 35.6347, 49.2772, -13.7203, 96.534, -56.1294, 42.3359
3.596, 5, 35.6338, 49.2803, -13.7188, 96.5309, -56.1427, 42.3311
3.6, 5, 35.6328, 49.2835, -13.7174, 96.5279, -56.1561, 42.3263
3.604, 5, 35.6319, 49.2866, -13.7159, 96.5248, -56.1695, 42.3216
3.608, 5, 35.6309, 49.2897, -13.7144, 96.5218, -56.1828, 42.3168
3.612, 5, 35.63, 49.2929, -13.7129, 96.5187, -56.1962, 42.312
3.616, 5, 35.629, 49.296, -13.7115, 96.5156, -56.2096, 42.3073
3.62, 5, 35.628, 49.2991, -13.71, 96.5126, -56.2229, 42.3025
3.624, 5, 35.6271, 49.3023, -13.7085, 96.5095, -56.2363, 42.2977
3.628, 5, 35.6261, 49.3054, -13.707, 96.5064, -56.2496, 42.293
3.632, 5, 35.6252, 49.3085, -13.7055, 96.5034, -56.263, 42.2882
3.636, 5, 35.6242, 49.3117, -13.704, 96.5003, -56.2764, 42.2835
3.64, 5, 35.6232, 49.3148, -13.7025, 96.4972, -56.2897, 42.2787
3.644, 5, 35.6223, 49.3179, -13.701, 96.4941, -56.3031, 42.2739
3.648, 5, 35.6213, 49.321, -13.6995, 96.4911, -56.3164, 42.2692
3.652, 5, 35.6203, 49.3242, -13.698, 96.488, -56.3298, 42.2644
3.656, 5, 35.6194, 49.3273, -13.6965, 96.4849, -56.3431, 42.2597
3.66, 5, 35.6184, 49.3304, -13.695, 96.4818, -56.3565, 42.2549
3.664, 5, 35.6174, 49.3335, -13.6935, 96.4787, -56.3698, 42.2502
3.668, 5, 35.6165, 49.3366, -13.692, 96.4756, -56.3832, 42.2454
3.672, 5, 35.6155, 49.3397, -13.6905, 96.4726, -56.3965, 42.2407
3.676, 5, 35.6145, 49.3429, -13.689, 96.4695, -56.4099, 42.2359
3.679, 5, 35.6135, 49.346, -13.6874, 96.4664, -56.4232, 42.2312
3.684, 5, 35.6126, 49.3491, -13.6859, 96.4633, -56.4366, 42.2264
3.688, 5, 35.6116, 49.3522, -13.6844, 96.4602, -56.4499, 42.2217
3.692, 5, 35.6106, 49.3553, -13.6829, 96.4571, -56.4633, 42.2169
3.696, 5, 35.6096, 49.3584, -13.6813, 96.454, -56.4766, 42.2122
3.7, 5, 35.6087, 49.3615, -13.6798, 96.4509, -56.49, 42.2074
3.704, 5, 35.6077, 49.3646, -13.6783, 96.4478, -56.5033, 42.2027
3.708, 5, 35.6067, 49.3677, -13.6767, 96.4447, -56.5167, 42.1979
3.712, 5, 35.6057, 49.3708, -13.6752, 96.4415, -56.53, 42.1932
3.716, 5, 35.6048, 49.3739, -13.6737, 96.4384, -56.5433, 42.1885
3.72, 5, 35.6038, 49.377, -13.6721, 96.4353, -56.5567, 42.1837
3.724, 5, 35.6028, 49.3801, -13.6706, 96.4322, -56.57, 42.179
3.728, 5, 35.6018, 49.3832, -13.669, 96.4291, -56.5834, 42.1742
3.732, 5, 35.6008, 49.3863, -13.6675, 96.426, -56.5967, 42.1695
3.735, 5, 35.5999, 49.3894, -13.6659, 96.4228, -56.61, 42.1648
3.74, 5, 35.5989, 49.3925, -13.6644, 96.4197, -56.6234, 42.16
3.744, 5, 35.5979, 49.3956, -13.6628, 96.4166, -56.6367, 42.1553
3.748, 5, 35.5969, 49.3987, -13.6612, 96.4135, -56.65, 42.1506
3.752, 5, 35.5959, 49.4018, -13.6597, 96.4103, -56.6634, 42.1458
3.756, 5, 35.5949, 49.4048, -13.6581, 96.4072, -56.6767, 42.1411
3.76, 5, 35.5939, 49.4079, -13.6565, 96.4041, -56.69, 42.1364
3.764, 5, 35.593, 49.411, -13.655, 96.4009, -56.7034, 42.1317
3.768, 5, 35.592, 49.4141, -13.6534, 96.3978, -56.7167, 42.1269
3.772, 5, 35.591, 49.4172, -13.6518, 96.3947, -56.73, 42.1222
3.776, 5, 35.59, 49.4202, -13.6502, 96.3915, -56.7434, 42.1175
3.78, 5, 35.589, 49.4233, -13.6487, 96.3884, -56.7567, 42.1128
3.784, 5, 35.588, 49.4264, -13.6471, 96.3852, -56.77, 42.108
3.788, 5, 35.587, 49.4295, -13.6455, 96.3821, -56.7833, 42.1033
3.792, 5, 35.586, 49.4325, -13.6439, 96.3789, -56.7967, 42.0986
3.796, 5, 35.585, 49.4356, -13.6423, 96.3758, -56.81, 42.0939
3.8, 5, 35.584, 49.4387, -13.6407, 96.3726, -56.8233, 42.0892
3.804, 5, 35.583, 49.4418, -13.6391, 96.3695, -56.8366, 42.0844
3.808, 5, 35.582, 49.4448, -13.6375, 96.3663, -56.85, 42.0797
3.812, 5, 35.581, 49.4479, -13.6359, 96.3632, -56.8633, 42.075
3.816, 5, 35.58, 49.451, -13.6343, 96.36, -56.8766, 42.0703
3.82, 5, 35.579, 49.454, -13.6327, 96.3568, -56.8899, 42.0656
3.824, 5, 35.578, 49.4571, -13.6311, 96.3537, -56.9032, 42.0609
3.828, 5, 35.577, 49.4601, -13.6295, 96.3505, -56.9166, 42.0562
3.832, 5, 35.576, 49.4632, -13.6279, 96.3473, -56.9299, 42.0515
3.836, 5, 35.575, 49.4663, -13.6263, 96.3442, -56.9432, 42.0467
3.84, 5, 35.574, 49.4693, -13.6247, 96.341, -56.9565, 42.042
3.844, 5, 35.573, 49.4724, -13.6231, 96.3378, -56.9698, 42.0373
3.848, 5, 35.572, 49.4754, -13.6214, 96.3346, -56.9831, 42.0326
3.852, 5, 35.571, 49.4785, -13.6198, 96.3315, -56.9964, 42.0279
3.856, 5, 35.57, 49.4815, -13.6182, 96.3283, -57.0098, 42.0232
3.86, 5, 35.569, 49.4846, -13.6166, 96.3251, -57.0231, 42.0185
3.864, 5, 35.568, 49.4876, -13.6149, 96.3219, -57.0364, 42.0138
3.868, 5, 35.567, 49.4907, -13.6133, 96.3187, -57.0497, 42.0091
3.872, 5, 35.566, 49.4937, -13.6117, 96.3155, -57.063, 42.0044
3.876, 5, 35.565, 49.4967, -13.61, 96.3124, -57.0763, 41.9997
3.88, 5, 35.564, 49.4998, -13.6084, 96.3092, -57.0896, 41.995
3.884, 5, 35.563, 49.5028, -13.6067, 96.306, -57.1029, 41.9903
3.888, 5, 35.5619, 49.5059, -13.6051, 96.3028, -57.1162, 41.9856
3.892, 5, 35.5609, 49.5089, -13.6034, 96.2996, -57.1295, 41.9809
3.896, 5, 35.5599, 49.5119, -13.6018, 96.2964, -57.1428, 41.9762
3.9, 5, 35.5589, 49.515, -13.6001, 96.2932, -57.1561, 41.9715
3.904, 5, 35.5579, 49.518, -13.5985, 96.29, -57.1694, 41.9669
3.908, 5, 35.5569, 49.521, -13.5968, 96.2868, -57.1827, 41.9622
3.912, 5, 35.5559, 49.5241, -13.5952, 96.2836, -57.196, 41.9575
3.916, 5, 35.5548, 49.5271, -13.5935, 96.2804, -57.2093, 41.9528
3.92, 5, 35.5538, 49.5301, -13.5918, 96.2771, -57.2226, 41.9481
3.924, 5, 35.5528, 49.5331, -13.5902, 96.2739, -57.2359, 41.9434
3.928, 5, 35.5518, 49.5362, -13.5885, 96.2707, -57.2492, 41.9387
3.932, 5, 35.5508, 49.5392, -13.5868, 96.2675, -57.2625, 41.934
3.936, 5, 35.5498, 49.5422, -13.5852, 96.2643, -57.2758, 41.9294
3.94, 5, 35.5487, 49.5452, -13.5835, 96.2611, -57.2891, 41.9247
3.944, 5, 35.5477, 49.5483, -13.5818, 96.2578, -57.3024, 41.92
3.948, 5, 35.5467, 49.5513, -13.5801, 96.2546, -57.3157, 41.9153
3.952, 5, 35.5457, 49.5543, -13.5784, 96.2514, -57.329, 41.9106
3.956, 5, 35.5446, 49.5573, -13.5767, 96.2482, -57.3423, 41.9059
3.96, 5, 35.5436, 49.5603, -13.5751, 96.2449, -57.3556, 41.9013
3.964, 5, 35.5426, 49.5633, -13.5734, 96.2417, -57.3689, 41.8966
3.968, 5, 35.5416, 49.5663, -13.5717, 96.2385, -57.3821, 41.8919
3.972, 5, 35.5405, 49.5693, -13.57, 96.2352, -57.3954, 41.8872
3.976, 5, 35.5395, 49.5724, -13.5683, 96.232, -57.4087, 41.8826
3.98, 5, 35.5385, 49.5754, -13.5666, 96.2288, -57.422, 41.8779
3.984, 5, 35.5374, 49.5784, -13.5649, 96.2255, -57.4353, 41.8732
3.988, 5, 35.5364, 49.5814, -13.5632, 96.2223, -57.4486, 41.8685
3.992, 5, 35.5354, 49.5844, -13.5615, 96.219, -57.4619, 41.8639
3.996, 5, 35.5343, 49.5874, -13.5597, 96.2158, -57.4751, 41.8592
3.999, 5, 35.5333, 49.5904, -13.558, 96.2125, -57.4884, 41.8545
4.004, 5, 35.5323, 49.5934, -13.5563, 96.2093, -57.5017, 41.8499
4.008, 5, 35.5312, 49.5964, -13.5546, 96.206, -57.515, 41.8452
4.012, 5, 35.5302, 49.5994, -13.5529, 96.2028, -57.5283, 41.8405
4.016, 5, 35.5292, 49.6023, -13.5512, 96.1995, -57.5415, 41.8359
4.02, 5, 35.5281, 49.6053, -13.5494, 96.1963, -57.5548, 41.8312
4.024, 5, 35.5271, 49.6083, -13.5477, 96.193, -57.5681, 41.8265
4.028, 5, 35.5261, 49.6113, -13.546, 96.1897, -57.5814, 41.8219
4.032, 5, 35.525, 49.6143, -13.5442, 96.1865, -57.5947, 41.8172
4.036, 5, 35.524, 49.6173, -13.5425, 96.1832, -57.6079, 41.8126
4.04, 5, 35.5229, 49.6203, -13.5408, 96.1799, -57.6212, 41.8079
4.044, 5, 35.5219, 49.6233, -13.539, 96.1767, -57.6345, 41.8032
4.048, 5, 35.5209, 49.6262, -13.5373, 96.1734, -57.6477, 41.7986
4.052, 5, 35.5198, 49.6292, -13.5355, 96.1701, -57.661, 41.7939
4.056, 5, 35.5188, 49.6322, -13.5338, 96.1668, -57.6743, 41.7893
4.06, 5, 35.5177, 49.6352, -13.532, 96.1636, -57.6876, 41.7846
4.064, 5, 35.5167, 49.6381, -13.5303, 96.1603, -57.7008, 41.78
4.068, 5, 35.5156, 49.6411, -13.5285, 96.157, -57.7141, 41.7753
4.072, 5, 35.5146, 49.6441, -13.5268, 96.1537, -57.7274, 41.7707
4.076, 5, 35.5135, 49.6471, -13.525, 96.1505, -57.7406, 41.766
4.08, 5, 35.5125, 49.65, -13.5233, 96.1472, -57.7539, 41.7614
4.084, 5, 35.5115, 49.653, -13.5215, 96.1439, -57.7672, 41.7567
4.088, 5, 35.5104, 49.656, -13.5197, 96.1406, -57.7804, 41.7521
4.092, 5, 35.5093, 49.6589, -13.518, 96.1373, -57.7937, 41.7474
4.096, 5, 35.5083, 49.6619, -13.5162, 96.134, -57.8069, 41.7428
4.1, 5, 35.5072, 49.6649, -13.5144, 96.1307, -57.8202, 41.7381
4.104, 5, 35.5062, 49.6678, -13.5126, 96.1274, -57.8335, 41.7335
4.108, 5, 35.5051, 49.6708, -13.5109, 96.1241, -57.8467, 41.7289
4.112, 5, 35.5041, 49.6737, -13.5091, 96.1208, -57.86, 41.7242
4.116, 5, 35.503, 49.6767, -13.5073, 96.1175, -57.8732, 41.7196
4.12, 5, 35.502, 49.6797, -13.5055, 96.1142, -57.8865, 41.7149
4.124, 5, 35.5009, 49.6826, -13.5037, 96.1109, -57.8998, 41.7103
4.128, 5, 35.4999, 49.6856, -13.5019, 96.1076, -57.913, 41.7057
4.132, 5, 35.4988, 49.6885, -13.5001, 96.1043, -57.9263, 41.701
4.136, 5, 35.4978, 49.6915, -13.4983, 96.101, -57.9395, 41.6964
4.14, 5, 35.4967, 49.6944, -13.4965, 96.0977, -57.9528, 41.6917
4.144, 5, 35.4956, 49.6974, -13.4947, 96.0943, -57.966, 41.6871
4.148, 5, 35.4946, 49.7003, -13.4929, 96.091, -57.9793, 41.6825
4.152, 5, 35.4935, 49.7032, -13.4911, 96.0877, -57.9925, 41.6778
4.156, 5, 35.4925, 49.7062, -13.4893, 96.0844, -58.0058, 41.6732
4.16, 5, 35.4914, 49.7091, -13.4875, 96.0811, -58.019, 41.6686
4.164, 5, 35.4903, 49.7121, -13.4857, 96.0777, -58.0323, 41.6639
4.168, 5, 35.4893, 49.715, -13.4839, 96.0744, -58.0455, 41.6593
4.172, 5, 35.4882, 49.7179, -13.4821, 96.0711, -58.0588, 41.6547
4.176, 5, 35.4871, 49.7209, -13.4802, 96.0677, -58.072, 41.6501
4.18, 5, 35.4861, 49.7238, -13.4784, 96.0644, -58.0853, 41.6454
4.184, 5, 35.485, 49.7267, -13.4766, 96.0611, -58.0985, 41.6408
4.188, 5, 35.4839, 49.7297, -13.4748, 96.0577, -58.1118, 41.6362
4.192, 5, 35.4829, 49.7326, -13.4729, 96.0544, -58.125, 41.6316
4.196, 5, 35.4818, 49.7355, -13.4711, 96.0511, -58.1382, 41.6269
4.2, 5, 35.4807, 49.7385, -13.4693, 96.0477, -58.1515, 41.6223
4.204, 5, 35.4796, 49.7414, -13.4674, 96.0444, -58.1647, 41.6177
4.208, 5, 35.4786, 49.7443, -13.4656, 96.041, -58.178, 41.6131
4.212, 5, 35.4775, 49.7472, -13.4638, 96.0377, -58.1912, 41.6085
4.216, 5, 35.4764, 49.7501, -13.4619, 96.0343, -58.2044, 41.6038
4.22, 5, 35.4753, 49.7531, -13.4601, 96.031, -58.2177, 41.5992
4.224, 5, 35.4743, 49.756, -13.4582, 96.0276, -58.2309, 41.5946
4.228, 5, 35.4732, 49.7589, -13.4564, 96.0243, -58.2441, 41.59
4.232, 5, 35.4721, 49.7618, -13.4545, 96.0209, -58.2574, 41.5854
4.236, 5, 35.471, 49.7647, -13.4527, 96.0176, -58.2706, 41.5808
4.24, 5, 35.47, 49.7676, -13.4508, 96.0142, -58.2838, 41.5762
4.244, 5, 35.4689, 49.7706, -13.4489, 96.0109, -58.2971, 41.5715
4.248, 5, 35.4678, 49.7735, -13.4471, 96.0075, -58.3103, 41.5669
4.252, 5, 35.4667, 49.7764, -13.4452, 96.0041, -58.3235, 41.5623
4.256, 5, 35.4656, 49.7793, -13.4433, 96.0008, -58.3368, 41.5577
4.26, 5, 35.4646, 49.7822, -13.4415, 95.9974, -58.35, 41.5531
4.264, 5, 35.4635, 49.7851, -13.4396, 95.994, -58.3632, 41.5485
4.268, 5, 35.4624, 49.788, -13.4377, 95.9907, -58.3764, 41.5439
4.272, 5, 35.4613, 49.7909, -13.4358, 95.9873, -58.3897, 41.5393
4.276, 5, 35.4602, 49.7938, -13.434, 95.9839, -58.4029, 41.5347
4.28, 5, 35.4591, 49.7967, -13.4321, 95.9805, -58.4161, 41.5301
4.284, 5, 35.4581, 49.7996, -13.4302, 95.9771, -58.4293, 41.5255
4.288, 5, 35.457, 49.8025, -13.4283, 95.9738, -58.4426, 41.5209
4.292, 5, 35.4559, 49.8054, -13.4264, 95.9704, -58.4558, 41.5163
4.296, 5, 35.4548, 49.8083, -13.4245, 95.967, -58.469, 41.5117
4.3, 5, 35.4537, 49.8111, -13.4226, 95.9636, -58.4822, 41.5071
4.304, 5, 35.4526, 49.814, -13.4207, 95.9602, -58.4955, 41.5025
4.308, 5, 35.4515, 49.8169, -13.4188, 95.9568, -58.5087, 41.4979
4.312, 5, 35.4504, 49.8198, -13.4169, 95.9534, -58.5219, 41.4933
4.316, 5, 35.4493, 49.8227, -13.415, 95.9501, -58.5351, 41.4887
4.32, 5, 35.4482, 49.8256, -13.4131, 95.9466, -58.5483, 41.4841
4.324, 5, 35.4472, 49.8285, -13.4112, 95.9433, -58.5615, 41.4795
4.328, 5, 35.4461, 49.8313, -13.4093, 95.9399, -58.5748, 41.4749
4.332, 5, 35.445, 49.8342, -13.4074, 95.9365, -58.588, 41.4703
4.336, 5, 35.4439, 49.8371, -13.4055, 95.9331, -58.6012, 41.4657
4.34, 5, 35.4428, 49.84, -13.4035, 95.9296, -58.6144, 41.4611
4.344, 5, 35.4417, 49.8428, -13.4016, 95.9262, -58.6276, 41.4565
4.348, 5, 35.4406, 49.8457, -13.3997, 95.9228, -58.6408, 41.4519
4.352, 5, 35.4395, 49.8486, -13.3978, 95.9194, -58.654, 41.4473
4.356, 5, 35.4384, 49.8515, -13.3958, 95.916, -58.6672, 41.4428
4.36, 5, 35.4373, 49.8543, -13.3939, 95.9126, -58.6804, 41.4382
4.364, 5, 35.4362, 49.8572, -13.392, 95.9092, -58.6936, 41.4336
4.368, 5, 35.4351, 49.8601, -13.39, 95.9058, -58.7069, 41.429
4.372, 5, 35.434, 49.8629, -13.3881, 95.9023, -58.7201, 41.4244
4.376, 5, 35.4329, 49.8658, -13.3862, 95.8989, -58.7333, 41.4198
4.38, 5, 35.4318, 49.8686, -13.3842, 95.8955, -58.7465, 41.4153
4.384, 5, 35.4307, 49.8715, -13.3823, 95.8921, -58.7597, 41.4107
4.388, 5, 35.4296, 49.8744, -13.3803, 95.8887, -58.7729, 41.4061
4.392, 5, 35.4284, 49.8772, -13.3784, 95.8852, -58.7861, 41.4015
4.396, 5, 35.4273, 49.8801, -13.3764, 95.8818, -58.7993, 41.3969
4.4, 5, 35.4262, 49.8829, -13.3745, 95.8784, -58.8125, 41.3924
4.404, 5, 35.4251, 49.8858, -13.3725, 95.8749, -58.8257, 41.3878
4.408, 5, 35.424, 49.8886, -13.3705, 95.8715, -58.8389, 41.3832
4.412, 5, 35.4229, 49.8915, -13.3686, 95.8681, -58.8521, 41.3786
4.416, 5, 35.4218, 49.8943, -13.3666, 95.8646, -58.8653, 41.374
4.42, 5, 35.4207, 49.8972, -13.3646, 95.8612, -58.8785, 41.3695
4.424, 5, 35.4196, 49.9, -13.3627, 95.8577, -58.8917, 41.3649
4.428, 5, 35.4185, 49.9029, -13.3607, 95.8543, -58.9049, 41.3603
4.432, 5, 35.4173, 49.9057, -13.3587, 95.8509, -58.918, 41.3558
4.436, 5, 35.4162, 49.9085, -13.3568, 95.8474, -58.9312, 41.3512
4.44, 5, 35.4151, 49.9114, -13.3548, 95.844, -58.9444, 41.3466
4.444, 5, 35.414, 49.9142, -13.3528, 95.8405, -58.9576, 41.342
4.448, 5, 35.4129, 49.9171, -13.3508, 95.8371, -58.9708, 41.3375
4.452, 5, 35.4118, 49.9199, -13.3488, 95.8336, -58.984, 41.3329
4.456, 5, 35.4106, 49.9227, -13.3468, 95.8301, -58.9972, 41.3283
4.46, 5, 35.4095, 49.9255, -13.3448, 95.8267, -59.0104, 41.3238
4.464, 5, 35.4084, 49.9284, -13.3428, 95.8232, -59.0236, 41.3192
4.468, 5, 35.4073, 49.9312, -13.3408, 95.8198, -59.0368, 41.3146
4.472, 5, 35.4062, 49.934, -13.3388, 95.8163, -59.0499, 41.3101
4.476, 5, 35.405, 49.9369, -13.3368, 95.8128, -59.0631, 41.3055
4.48, 5, 35.4039, 49.9397, -13.3348, 95.8094, -59.0763, 41.301
4.484, 5, 35.4028, 49.9425, -13.3328, 95.8059, -59.0895, 41.2964
4.488, 5, 35.4017, 49.9453, -13.3308, 95.8024, -59.1027, 41.2918
4.492, 5, 35.4005, 49.9481, -13.3288, 95.799, -59.1159, 41.2873
4.496, 5, 35.3994, 49.951, -13.3268, 95.7955, -59.129, 41.2827
4.5, 5, 35.3983, 49.9538, -13.3248, 95.792, -59.1422, 41.2782
4.504, 5, 35.3972, 49.9566, -13.3228, 95.7885, -59.1554, 41.2736
4.508, 5, 35.396, 49.9594, -13.3207, 95.7851, -59.1686, 41.2691
4.512, 5, 35.3949, 49.9622, -13.3187, 95.7816, -59.1818, 41.2645
4.516, 5, 35.3938, 49.965, -13.3167, 95.7781, -59.1949, 41.2599
4.52, 5, 35.3926, 49.9678, -13.3147, 95.7746, -59.2081, 41.2554
4.524, 5, 35.3915, 49.9706, -13.3126, 95.7711, -59.2213, 41.2508
4.528, 5, 35.3904, 49.9735, -13.3106, 95.7676, -59.2345, 41.2463
4.532, 5, 35.3892, 49.9763, -13.3086, 95.7642, -59.2476, 41.2417
4.536, 5, 35.3881, 49.9791, -13.3065, 95.7607, -59.2608, 41.2372
4.54, 5, 35.387, 49.9819, -13.3045, 95.7572, -59.274, 41.2326
4.544, 5, 35.3858, 49.9847, -13.3024, 95.7537, -59.2871, 41.2281
4.548, 5, 35.3847, 49.9875, -13.3004, 95.7502, -59.3003, 41.2235
4.552, 5, 35.3836, 49.9903, -13.2983, 95.7467, -59.3135, 41.219
4.556, 5, 35.3824, 49.9931, -13.2963, 95.7432, -59.3267, 41.2144
4.56, 5, 35.3813, 49.9959, -13.2942, 95.7397, -59.3398, 41.2099
4.564, 5, 35.3802, 49.9986, -13.2922, 95.7362, -59.353, 41.2054
4.568, 5, 35.379, 50.0014, -13.2901, 95.7327, -59.3661, 41.2008
4.572, 5, 35.3779, 50.0042, -13.2881, 95.7292, -59.3793, 41.1963
4.576, 5, 35.3767, 50.007, -13.286, 95.7257, -59.3925, 41.1917
4.58, 5, 35.3756, 50.0098, -13.2839, 95.7222, -59.4056, 41.1872
4.584, 5, 35.3745, 50.0126, -13.2819, 95.7186, -59.4188, 41.1826
4.588, 5, 35.3733, 50.0154, -13.2798, 95.7151, -59.432, 41.1781
4.592, 5, 35.3722, 50.0182, -13.2777, 95.7116, -59.4451, 41.1736
4.596, 5, 35.371, 50.0209, -13.2757, 95.7081, -59.4583, 41.169
4.6, 5, 35.3699, 50.0237, -13.2736, 95.7046, -59.4715, 41.1645
4.604, 5, 35.3687, 50.0265, -13.2715, 95.7011, -59.4846, 41.16
4.608, 5, 35.3676, 50.0293, -13.2694, 95.6975, -59.4978, 41.1554
4.612, 5, 35.3664, 50.032, -13.2673, 95.694, -59.5109, 41.1509
4.616, 5, 35.3653, 50.0348, -13.2653, 95.6905, -59.5241, 41.1463
4.62, 5, 35.3641, 50.0376, -13.2632, 95.687, -59.5372, 41.1418
4.624, 5, 35.363, 50.0404, -13.2611, 95.6834, -59.5504, 41.1373
4.628, 5, 35.3618, 50.0431, -13.259, 95.6799, -59.5636, 41.1327
4.632, 5, 35.3607, 50.0459, -13.2569, 95.6764, -59.5767, 41.1282
4.636, 5, 35.3595, 50.0487, -13.2548, 95.6728, -59.5899, 41.1237
4.64, 5, 35.3584, 50.0514, -13.2527, 95.6693, -59.603, 41.1192
4.644, 5, 35.3572, 50.0542, -13.2506, 95.6658, -59.6162, 41.1146
4.648, 5, 35.3561, 50.057, -13.2485, 95.6622, -59.6293, 41.1101
4.652, 5, 35.3549, 50.0597, -13.2464, 95.6587, -59.6425, 41.1056
4.656, 5, 35.3538, 50.0625, -13.2443, 95.6551, -59.6556, 41.101
4.66, 5, 35.3526, 50.0652, -13.2421, 95.6516, -59.6688, 41.0965
4.664, 5, 35.3515, 50.068, -13.24, 95.648, -59.6819, 41.092
4.668, 5, 35.3503, 50.0707, -13.2379, 95.6445, -59.695, 41.0875
4.672, 5, 35.3491, 50.0735, -13.2358, 95.641, -59.7082, 41.0829
4.676, 5, 35.348, 50.0762, -13.2337, 95.6374, -59.7213, 41.0784
4.68, 5, 35.3468, 50.079, -13.2315, 95.6338, -59.7345, 41.0739
4.684, 5, 35.3457, 50.0817, -13.2294, 95.6303, -59.7476, 41.0694
4.688, 5, 35.3445, 50.0845, -13.2273, 95.6267, -59.7608, 41.0649
4.692, 5, 35.3433, 50.0872, -13.2251, 95.6232, -59.7739, 41.0603
4.696, 5, 35.3422, 50.09, -13.223, 95.6196, -59.787, 41.0558
4.7, 5, 35.341, 50.0927, -13.2209, 95.6161, -59.8002, 41.0513
4.704, 5, 35.3398, 50.0955, -13.2187, 95.6125, -59.8133, 41.0468
4.708, 5, 35.3387, 50.0982, -13.2166, 95.6089, -59.8265, 41.0423
4.712, 5, 35.3375, 50.1009, -13.2144, 95.6054, -59.8396, 41.0377
4.716, 5, 35.3363, 50.1037, -13.2123, 95.6018, -59.8527, 41.0332
4.72, 5, 35.3352, 50.1064, -13.2101, 95.5982, -59.8659, 41.0287
4.724, 5, 35.334, 50.1091, -13.208, 95.5947, -59.879, 41.0242
4.728, 5, 35.3328, 50.1119, -13.2058, 95.5911, -59.8921, 41.0197
4.732, 5, 35.3317, 50.1146, -13.2037, 95.5875, -59.9053, 41.0152
4.736, 5, 35.3305, 50.1173, -13.2015, 95.5839, -59.9184, 41.0107
4.74, 5, 35.3293, 50.1201, -13.1994, 95.5804, -59.9315, 41.0062
4.744, 5, 35.3282, 50.1228, -13.1972, 95.5768, -59.9447, 41.0016
4.748, 5, 35.327, 50.1255, -13.195, 95.5732, -59.9578, 40.9971
4.752, 5, 35.3258, 50.1282, -13.1929, 95.5696, -59.9709, 40.9926
4.756, 5, 35.3246, 50.131, -13.1907, 95.566, -59.9841, 40.9881
4.76, 5, 35.3235, 50.1337, -13.1885, 95.5624, -59.9972, 40.9836
4.764, 5, 35.3223, 50.1364, -13.1863, 95.5589, -60.0103, 40.9791
4.768, 5, 35.3211, 50.1391, -13.1842, 95.5553, -60.0234, 40.9746
4.772, 5, 35.3199, 50.1418, -13.182, 95.5517, -60.0366, 40.9701
4.776, 5, 35.3187, 50.1445, -13.1798, 95.5481, -60.0497, 40.9656
4.78, 5, 35.3176, 50.1473, -13.1776, 95.5445, -60.0628, 40.9611
4.784, 5, 35.3164, 50.15, -13.1754, 95.5409, -60.0759, 40.9566
4.788, 5, 35.3152, 50.1527, -13.1732, 95.5373, -60.0891, 40.9521
4.792, 5, 35.314, 50.1554, -13.171, 95.5337, -60.1022, 40.9476
4.796, 5, 35.3128, 50.1581, -13.1688, 95.5301, -60.1153, 40.9431
4.8, 5, 35.3117, 50.1608, -13.1666, 95.5265, -60.1284, 40.9386
4.804, 5, 35.3105, 50.1635, -13.1644, 95.5229, -60.1415, 40.9341
4.808, 5, 35.3093, 50.1662, -13.1622, 95.5193, -60.1547, 40.9296
4.812, 5, 35.3081, 50.1689, -13.16, 95.5157, -60.1678, 40.9251
4.816, 5, 35.3069, 50.1716, -13.1578, 95.5121, -60.1809, 40.9206
4.82, 5, 35.3057, 50.1743, -13.1556, 95.5084, -60.194, 40.9161
4.824, 5, 35.3046, 50.177, -13.1534, 95.5048, -60.2071, 40.9116
4.828, 5, 35.3034, 50.1797, -13.1512, 95.5012, -60.2202, 40.9071
4.832, 5, 35.3022, 50.1824, -13.149, 95.4976, -60.2333, 40.9026
4.836, 5, 35.301, 50.1851, -13.1467, 95.494, -60.2465, 40.8981
4.84, 5, 35.2998, 50.1878, -13.1445, 95.4904, -60.2596, 40.8936
4.844, 5, 35.2986, 50.1904, -13.1423, 95.4867, -60.2727, 40.8891
4.848, 5, 35.2974, 50.1931, -13.1401, 95.4831, -60.2858, 40.8846
4.852, 5, 35.2962, 50.1958, -13.1378, 95.4795, -60.2989, 40.8801
4.856, 5, 35.295, 50.1985, -13.1356, 95.4759, -60.312, 40.8757
4.86, 5, 35.2938, 50.2012, -13.1334, 95.4722, -60.3251, 40.8712
4.864, 5, 35.2926, 50.2039, -13.1311, 95.4686, -60.3382, 40.8667
4.868, 5, 35.2914, 50.2066, -13.1289, 95.465, -60.3513, 40.8622
4.872, 5, 35.2903, 50.2092, -13.1266, 95.4613, -60.3644, 40.8577
4.876, 5, 35.2891, 50.2119, -13.1244, 95.4577, -60.3775, 40.8532
4.88, 5, 35.2879, 50.2146, -13.1221, 95.4541, -60.3907, 40.8487
4.884, 5, 35.2867, 50.2173, -13.1199, 95.4504, -60.4038, 40.8442
4.888, 5, 35.2855, 50.2199, -13.1176, 95.4468, -60.4169, 40.8398
4.892, 5, 35.2843, 50.2226, -13.1154, 95.4432, -60.43, 40.8353
4.896, 5, 35.2831, 50.2253, -13.1131, 95.4395, -60.4431, 40.8308
4.9, 5, 35.2819, 50.2279, -13.1109, 95.4359, -60.4562, 40.8263
4.904, 5, 35.2807, 50.2306, -13.1086, 95.4322, -60.4693, 40.8218
4.908, 5, 35.2795, 50.2333, -13.1063, 95.4286, -60.4824, 40.8173
4.912, 5, 35.2783, 50.2359, -13.1041, 95.4249, -60.4955, 40.8129
4.916, 5, 35.2771, 50.2386, -13.1018, 95.4213, -60.5086, 40.8084
4.92, 5, 35.2758, 50.2412, -13.0995, 95.4176, -60.5216, 40.8039
4.924, 5, 35.2746, 50.2439, -13.0973, 95.414, -60.5347, 40.7994
4.928, 5, 35.2734, 50.2466, -13.095, 95.4103, -60.5478, 40.795
4.932, 5, 35.2722, 50.2492, -13.0927, 95.4066, -60.5609, 40.7905
4.936, 5, 35.271, 50.2519, -13.0904, 95.403, -60.574, 40.786
4.94, 5, 35.2698, 50.2545, -13.0881, 95.3993, -60.5871, 40.7815
4.944, 5, 35.2686, 50.2572, -13.0859, 95.3957, -60.6002, 40.7771
4.948, 5, 35.2674, 50.2598, -13.0836, 95.392, -60.6133, 40.7726
4.952, 5, 35.2662, 50.2625, -13.0813, 95.3883, -60.6264, 40.7681
4.956, 5, 35.265, 50.2651, -13.079, 95.3847, -60.6395, 40.7636
4.96, 5, 35.2638, 50.2678, -13.0767, 95.381, -60.6526, 40.7592
4.964, 5, 35.2625, 50.2704, -13.0744, 95.3773, -60.6657, 40.7547
4.968, 5, 35.2613, 50.273, -13.0721, 95.3737, -60.6787, 40.7502
4.972, 5, 35.2601, 50.2757, -13.0698, 95.37, -60.6918, 40.7457
4.976, 5, 35.2589, 50.2783, -13.0675, 95.3663, -60.7049, 40.7413
4.98, 5, 35.2577, 50.281, -13.0652, 95.3626, -60.718, 40.7368
4.984, 5, 35.2565, 50.2836, -13.0629, 95.3589, -60.7311, 40.7323
4.988, 5, 35.2553, 50.2862, -13.0605, 95.3553, -60.7442, 40.7279
4.992, 5, 35.254, 50.2889, -13.0582, 95.3516, -60.7572, 40.7234
4.996, 5, 35.2528, 50.2915, -13.0559, 95.3479, -60.7703, 40.7189
5, 5, 35.2516, 50.2941, -13.0536, 95.3442, -60.7834, 40.7145
5.004, 5, 35.2504, 50.2967, -13.0513, 95.3405, -60.7965, 40.71
5.008, 5, 35.2492, 50.2994, -13.0489, 95.3368, -60.8096, 40.7056
5.012, 5, 35.2479, 50.302, -13.0466, 95.3332, -60.8226, 40.7011
5.016, 5, 35.2467, 50.3046, -13.0443, 95.3295, -60.8357, 40.6966
5.02, 5, 35.2455, 50.3072, -13.0419, 95.3258, -60.8488, 40.6922
5.024, 5, 35.2443, 50.3099, -13.0396, 95.3221, -60.8619, 40.6877
5.028, 5, 35.243, 50.3125, -13.0373, 95.3184, -60.8749, 40.6832
5.032, 5, 35.2418, 50.3151, -13.0349, 95.3147, -60.888, 40.6788
5.036, 5, 35.2406, 50.3177, -13.0326, 95.311, -60.9011, 40.6743
5.04, 5, 35.2394, 50.3203, -13.0302, 95.3073, -60.9142, 40.6699
5.044, 5, 35.2381, 50.3229, -13.0279, 95.3036, -60.9272, 40.6654
5.048, 5, 35.2369, 50.3256, -13.0255, 95.2999, -60.9403, 40.6609
5.052, 5, 35.2357, 50.3282, -13.0232, 95.2962, -60.9534, 40.6565
5.056, 5, 35.2344, 50.3308, -13.0208, 95.2924, -60.9664, 40.652
5.06, 5, 35.2332, 50.3334, -13.0185, 95.2887, -60.9795, 40.6476
5.064, 5, 35.232, 50.336, -13.0161, 95.285, -60.9926, 40.6431
5.068, 5, 35.2308, 50.3386, -13.0138, 95.2813, -61.0056, 40.6387
5.072, 5, 35.2295, 50.3412, -13.0114, 95.2776, -61.0187, 40.6342
5.076, 5, 35.2283, 50.3438, -13.009, 95.2739, -61.0318, 40.6298
5.08, 5, 35.227, 50.3464, -13.0067, 95.2702, -61.0448, 40.6253
5.084, 5, 35.2258, 50.349, -13.0043, 95.2664, -61.0579, 40.6209
5.088, 5, 35.2246, 50.3516, -13.0019, 95.2627, -61.071, 40.6164
5.092, 5, 35.2233, 50.3542, -12.9995, 95.259, -61.084, 40.612
5.096, 5, 35.2221, 50.3568, -12.9972, 95.2553, -61.0971, 40.6075
5.1, 5, 35.2209, 50.3594, -12.9948, 95.2516, -61.1101, 40.6031
5.104, 5, 35.2196, 50.3619, -12.9924, 95.2478, -61.1232, 40.5986
5.108, 5, 35.2184, 50.3645, -12.99, 95.2441, -61.1363, 40.5942
5.112, 5, 35.2171, 50.3671, -12.9876, 95.2404, -61.1493, 40.5897
5.116, 5, 35.2159, 50.3697, -12.9852, 95.2366, -61.1624, 40.5853
5.12, 5, 35.2147, 50.3723, -12.9828, 95.2329, -61.1754, 40.5808
5.124, 5, 35.2134, 50.3749, -12.9804, 95.2292, -61.1885, 40.5764
5.128, 5, 35.2122, 50.3774, -12.978, 95.2254, -61.2015, 40.5719
5.132, 5, 35.2109, 50.38, -12.9756, 95.2217, -61.2146, 40.5675
5.136, 5, 35.2097, 50.3826, -12.9732, 95.2179, -61.2277, 40.5631
5.14, 5, 35.2084, 50.3852, -12.9708, 95.2142, -61.2407, 40.5586
5.144, 5, 35.2072, 50.3878, -12.9684, 95.2105, -61.2538, 40.5542
5.148, 5, 35.206, 50.3903, -12.966, 95.2067, -61.2668, 40.5497
5.152, 5, 35.2047, 50.3929, -12.9636, 95.203, -61.2799, 40.5453
5.156, 5, 35.2035, 50.3955, -12.9612, 95.1992, -61.2929, 40.5409
5.16, 5, 35.2022, 50.398, -12.9588, 95.1955, -61.306, 40.5364
5.164, 5, 35.201, 50.4006, -12.9563, 95.1917, -61.319, 40.532
5.168, 5, 35.1997, 50.4032, -12.9539, 95.188, -61.3321, 40.5275
5.172, 5, 35.1985, 50.4057, -12.9515, 95.1842, -61.3451, 40.5231
5.176, 5, 35.1972, 50.4083, -12.9491, 95.1805, -61.3581, 40.5187
5.18, 5, 35.1959, 50.4109, -12.9466, 95.1767, -61.3712, 40.5142
5.184, 5, 35.1947, 50.4134, -12.9442, 95.1729, -61.3842, 40.5098
5.188, 5, 35.1934, 50.416, -12.9418, 95.1692, -61.3973, 40.5054
5.192, 5, 35.1922, 50.4185, -12.9393, 95.1654, -61.4103, 40.5009
5.196, 5, 35.1909, 50.4211, -12.9369, 95.1617, -61.4234, 40.4965
5.2, 5, 35.1897, 50.4236, -12.9344, 95.1579, -61.4364, 40.4921
5.204, 5, 35.1884, 50.4262, -12.932, 95.1541, -61.4494, 40.4876
5.208, 5, 35.1872, 50.4287, -12.9295, 95.1504, -61.4625, 40.4832
5.212, 5, 35.1859, 50.4313, -12.9271, 95.1466, -61.4755, 40.4788
5.216, 5, 35.1846, 50.4338, -12.9246, 95.1428, -61.4886, 40.4743
5.22, 5, 35.1834, 50.4364, -12.9222, 95.139, -61.5016, 40.4699
5.224, 5, 35.1821, 50.4389, -12.9197, 95.1353, -61.5146, 40.4655
5.228, 5, 35.1809, 50.4415, -12.9173, 95.1315, -61.5277, 40.461
5.232, 5, 35.1796, 50.444, -12.9148, 95.1277, -61.5407, 40.4566
5.236, 5, 35.1783, 50.4465, -12.9123, 95.1239, -61.5537, 40.4522
5.24, 5, 35.1771, 50.4491, -12.9099, 95.1202, -61.5668, 40.4478
5.244, 5, 35.1758, 50.4516, -12.9074, 95.1164, -61.5798, 40.4433
5.248, 5, 35.1745, 50.4542, -12.9049, 95.1126, -61.5928, 40.4389
5.252, 5, 35.1733, 50.4567, -12.9024, 95.1088, -61.6059, 40.4345
5.256, 5, 35.172, 50.4592, -12.9, 95.105, -61.6189, 40.4301
5.26, 5, 35.1707, 50.4617, -12.8975, 95.1012, -61.6319, 40.4256
5.264, 5, 35.1695, 50.4643, -12.895, 95.0974, -61.645, 40.4212
5.268, 5, 35.1682, 50.4668, -12.8925, 95.0937, -61.658, 40.4168
5.272, 5, 35.1669, 50.4693, -12.89, 95.0899, -61.671, 40.4124
5.276, 5, 35.1657, 50.4718, -12.8875, 95.0861, -61.684, 40.4079
5.28, 5, 35.1644, 50.4744, -12.8851, 95.0823, -61.6971, 40.4035
5.284, 5, 35.1631, 50.4769, -12.8826, 95.0785, -61.7101, 40.3991
5.288, 5, 35.1618, 50.4794, -12.8801, 95.0747, -61.7231, 40.3947
5.292, 5, 35.1606, 50.4819, -12.8776, 95.0709, -61.7361, 40.3903
5.296, 5, 35.1593, 50.4844, -12.8751, 95.0671, -61.7491, 40.3858
5.3, 5, 35.158, 50.487, -12.8726, 95.0633, -61.7622, 40.3814
5.304, 5, 35.1567, 50.4895, -12.87, 95.0594, -61.7752, 40.377
5.308, 5, 35.1555, 50.492, -12.8675, 95.0556, -61.7882, 40.3726
5.312, 5, 35.1542, 50.4945, -12.865, 95.0518, -61.8012, 40.3682
5.316, 5, 35.1529, 50.497, -12.8625, 95.048, -61.8142, 40.3638
5.32, 5, 35.1516, 50.4995, -12.86, 95.0442, -61.8273, 40.3593
5.324, 5, 35.1504, 50.502, -12.8575, 95.0404, -61.8403, 40.3549
5.328, 5, 35.1491, 50.5045, -12.855, 95.0366, -61.8533, 40.3505
5.332, 5, 35.1478, 50.507, -12.8524, 95.0328, -61.8663, 40.3461
5.336, 5, 35.1465, 50.5095, -12.8499, 95.0289, -61.8793, 40.3417
5.34, 5, 35.1452, 50.512, -12.8474, 95.0251, -61.8923, 40.3373
5.344, 5, 35.144, 50.5145, -12.8448, 95.0213, -61.9053, 40.3329
5.348, 5, 35.1427, 50.517, -12.8423, 95.0175, -61.9184, 40.3284
5.352, 5, 35.1414, 50.5195, -12.8398, 95.0136, -61.9314, 40.324
5.356, 5, 35.1401, 50.522, -12.8372, 95.0098, -61.9444, 40.3196
5.36, 5, 35.1388, 50.5245, -12.8347, 95.006, -61.9574, 40.3152
5.364, 5, 35.1375, 50.527, -12.8321, 95.0022, -61.9704, 40.3108
5.368, 5, 35.1362, 50.5295, -12.8296, 94.9983, -61.9834, 40.3064
5.372, 5, 35.1349, 50.5319, -12.8271, 94.9945, -61.9964, 40.302
5.376, 5, 35.1337, 50.5344, -12.8245, 94.9907, -62.0094, 40.2976
5.38, 5, 35.1324, 50.5369, -12.8219, 94.9868, -62.0224, 40.2932
5.384, 5, 35.1311, 50.5394, -12.8194, 94.983, -62.0354, 40.2888
5.388, 5, 35.1298, 50.5419, -12.8168, 94.9792, -62.0484, 40.2844
5.392, 5, 35.1285, 50.5443, -12.8143, 94.9753, -62.0614, 40.28
5.396, 5, 35.1272, 50.5468, -12.8117, 94.9715, -62.0744, 40.2756
5.4, 5, 35.1259, 50.5493, -12.8091, 94.9676, -62.0874, 40.2712
5.404, 5, 35.1246, 50.5518, -12.8066, 94.9638, -62.1004, 40.2668
5.408, 5, 35.1233, 50.5542, -12.804, 94.9599, -62.1134, 40.2624
5.412, 5, 35.122, 50.5567, -12.8014, 94.9561, -62.1264, 40.2579
5.416, 5, 35.1207, 50.5592, -12.7989, 94.9522, -62.1394, 40.2535
5.42, 5, 35.1194, 50.5617, -12.7963, 94.9484, -62.1524, 40.2491
5.424, 5, 35.1181, 50.5641, -12.7937, 94.9445, -62.1654, 40.2447
5.428, 5, 35.1168, 50.5666, -12.7911, 94.9407, -62.1784, 40.2403
5.432, 5, 35.1155, 50.569, -12.7885, 94.9368, -62.1914, 40.236
5.436, 5, 35.1142, 50.5715, -12.7859, 94.933, -62.2044, 40.2315
5.44, 5, 35.1129, 50.574, -12.7833, 94.9291, -62.2174, 40.2271
5.444, 5, 35.1116, 50.5764, -12.7808, 94.9253, -62.2304, 40.2228
5.448, 5, 35.1103, 50.5789, -12.7782, 94.9214, -62.2434, 40.2184
5.452, 5, 35.109, 50.5813, -12.7756, 94.9175, -62.2564, 40.214
5.456, 5, 35.1077, 50.5838, -12.773, 94.9137, -62.2694, 40.2096
5.46, 5, 35.1064, 50.5862, -12.7704, 94.9098, -62.2824, 40.2052
5.464, 5, 35.1051, 50.5887, -12.7678, 94.9059, -62.2954, 40.2008
5.468, 5, 35.1038, 50.5911, -12.7651, 94.9021, -62.3083, 40.1964
5.472, 5, 35.1025, 50.5936, -12.7625, 94.8982, -62.3213, 40.192
5.476, 5, 35.1012, 50.596, -12.7599, 94.8943, -62.3343, 40.1876
5.48, 5, 35.0999, 50.5985, -12.7573, 94.8905, -62.3473, 40.1832
5.484, 5, 35.0986, 50.6009, -12.7547, 94.8866, -62.3603, 40.1788
5.488, 5, 35.0973, 50.6034, -12.7521, 94.8827, -62.3733, 40.1744
5.492, 5, 35.096, 50.6058, -12.7494, 94.8788, -62.3863, 40.17
5.496, 5, 35.0947, 50.6082, -12.7468, 94.875, -62.3992, 40.1656
5.5, 5, 35.0933, 50.6107, -12.7442, 94.8711, -62.4122, 40.1612
5.504, 5, 35.092, 50.6131, -12.7416, 94.8672, -62.4252, 40.1569
5.508, 5, 35.0907, 50.6155, -12.7389, 94.8633, -62.4382, 40.1525
5.512, 5, 35.0894, 50.618, -12.7363, 94.8594, -62.4512, 40.1481
5.516, 5, 35.0881, 50.6204, -12.7337, 94.8555, -62.4641, 40.1437
5.52, 5, 35.0868, 50.6228, -12.731, 94.8516, -62.4771, 40.1393
5.524, 5, 35.0855, 50.6253, -12.7284, 94.8478, -62.4901, 40.1349
5.528, 5, 35.0841, 50.6277, -12.7257, 94.8439, -62.5031, 40.1305
5.532, 5, 35.0828, 50.6301, -12.7231, 94.84, -62.5161, 40.1261
5.536, 5, 35.0815, 50.6325, -12.7204, 94.8361, -62.529, 40.1218
5.54, 5, 35.0802, 50.6349, -12.7178, 94.8322, -62.542, 40.1174
5.544, 5, 35.0789, 50.6374, -12.7151, 94.8283, -62.555, 40.113
5.548, 5, 35.0775, 50.6398, -12.7125, 94.8244, -62.568, 40.1086
5.552, 5, 35.0762, 50.6422, -12.7098, 94.8205, -62.5809, 40.1042
5.556, 5, 35.0749, 50.6446, -12.7071, 94.8166, -62.5939, 40.0998
5.56, 5, 35.0736, 50.647, -12.7045, 94.8127, -62.6069, 40.0955
5.564, 5, 35.0723, 50.6494, -12.7018, 94.8088, -62.6198, 40.0911
5.568, 5, 35.0709, 50.6518, -12.6991, 94.8049, -62.6328, 40.0867
5.572, 5, 35.0696, 50.6542, -12.6965, 94.801, -62.6458, 40.0823
5.576, 5, 35.0683, 50.6567, -12.6938, 94.797, -62.6587, 40.0779
5.58, 5, 35.067, 50.6591, -12.6911, 94.7931, -62.6717, 40.0736
5.584, 5, 35.0656, 50.6615, -12.6884, 94.7892, -62.6847, 40.0692
5.588, 5, 35.0643, 50.6639, -12.6858, 94.7853, -62.6976, 40.0648
5.592, 5, 35.063, 50.6663, -12.6831, 94.7814, -62.7106, 40.0604
5.596, 5, 35.0616, 50.6687, -12.6804, 94.7775, -62.7236, 40.056
5.6, 5, 35.0603, 50.6711, -12.6777, 94.7736, -62.7365, 40.0517
5.604, 5, 35.059, 50.6735, -12.675, 94.7696, -62.7495, 40.0473
5.608, 5, 35.0576, 50.6758, -12.6723, 94.7657, -62.7625, 40.0429
5.612, 5, 35.0563, 50.6782, -12.6696, 94.7618, -62.7754, 40.0385
5.616, 5, 35.055, 50.6806, -12.6669, 94.7579, -62.7884, 40.0342
5.62, 5, 35.0536, 50.683, -12.6642, 94.754, -62.8013, 40.0298
5.624, 5, 35.0523, 50.6854, -12.6615, 94.75, -62.8143, 40.0254
5.628, 5, 35.051, 50.6878, -12.6588, 94.7461, -62.8273, 40.021
5.632, 5, 35.0496, 50.6902, -12.6561, 94.7422, -62.8402, 40.0167
5.636, 5, 35.0483, 50.6926, -12.6534, 94.7382, -62.8532, 40.0123
5.64, 5, 35.047, 50.6949, -12.6507, 94.7343, -62.8661, 40.0079
5.644, 5, 35.0456, 50.6973, -12.648, 94.7304, -62.8791, 40.0035
5.648, 5, 35.0443, 50.6997, -12.6452, 94.7264, -62.892, 39.9992
5.652, 5, 35.0429, 50.7021, -12.6425, 94.7225, -62.905, 39.9948
5.656, 5, 35.0416, 50.7044, -12.6398, 94.7186, -62.9179, 39.9904
5.66, 5, 35.0403, 50.7068, -12.6371, 94.7146, -62.9309, 39.9861
5.664, 5, 35.0389, 50.7092, -12.6343, 94.7107, -62.9438, 39.9817
5.668, 5, 35.0376, 50.7116, -12.6316, 94.7067, -62.9568, 39.9773
5.672, 5, 35.0362, 50.7139, -12.6289, 94.7028, -62.9697, 39.973
5.676, 5, 35.0349, 50.7163, -12.6261, 94.6988, -62.9827, 39.9686
5.68, 5, 35.0335, 50.7187, -12.6234, 94.6949, -62.9956, 39.9642
5.684, 5, 35.0322, 50.721, -12.6206, 94.6909, -63.0086, 39.9599
5.688, 5, 35.0309, 50.7234, -12.6179, 94.687, -63.0215, 39.9555
5.692, 5, 35.0295, 50.7257, -12.6152, 94.683, -63.0345, 39.9511
5.696, 5, 35.0282, 50.7281, -12.6124, 94.6791, -63.0474, 39.9468
5.7, 5, 35.0268, 50.7305, -12.6097, 94.6751, -63.0604, 39.9424
5.704, 5, 35.0255, 50.7328, -12.6069, 94.6712, -63.0733, 39.938
5.708, 5, 35.0241, 50.7352, -12.6041, 94.6672, -63.0862, 39.9337
5.712, 5, 35.0228, 50.7375, -12.6014, 94.6632, -63.0992, 39.9293
5.716, 5, 35.0214, 50.7399, -12.5986, 94.6593, -63.1121, 39.9249
5.72, 5, 35.0201, 50.7422, -12.5959, 94.6553, -63.1251, 39.9206
5.724, 5, 35.0187, 50.7446, -12.5931, 94.6514, -63.138, 39.9162
5.728, 5, 35.0173, 50.7469, -12.5903, 94.6474, -63.1509, 39.9118
5.732, 5, 35.016, 50.7493, -12.5876, 94.6434, -63.1639, 39.9075
5.736, 5, 35.0146, 50.7516, -12.5848, 94.6395, -63.1768, 39.9031
5.74, 5, 35.0133, 50.7539, -12.582, 94.6355, -63.1897, 39.8988
5.744, 5, 35.0119, 50.7563, -12.5792, 94.6315, -63.2027, 39.8944
5.748, 5, 35.0106, 50.7586, -12.5764, 94.6275, -63.2156, 39.89
5.752, 5, 35.0092, 50.7609, -12.5737, 94.6236, -63.2285, 39.8857
5.756, 5, 35.0079, 50.7633, -12.5709, 94.6196, -63.2415, 39.8813
5.76, 5, 35.0065, 50.7656, -12.5681, 94.6156, -63.2544, 39.877
5.764, 5, 35.0051, 50.7679, -12.5653, 94.6116, -63.2673, 39.8726
5.768, 5, 35.0038, 50.7703, -12.5625, 94.6077, -63.2803, 39.8683
5.772, 5, 35.0024, 50.7726, -12.5597, 94.6037, -63.2932, 39.8639
5.776, 5, 35.0011, 50.7749, -12.5569, 94.5997, -63.3061, 39.8595
5.78, 5, 34.9997, 50.7773, -12.5541, 94.5957, -63.3191, 39.8552
5.784, 5, 34.9983, 50.7796, -12.5513, 94.5917, -63.332, 39.8508
5.788, 5, 34.997, 50.7819, -12.5485, 94.5877, -63.3449, 39.8465
5.792, 5, 34.9956, 50.7842, -12.5457, 94.5838, -63.3578, 39.8421
5.796, 5, 34.9942, 50.7865, -12.5429, 94.5798, -63.3708, 39.8378
5.8, 5, 34.9929, 50.7889, -12.5401, 94.5758, -63.3837, 39.8334
5.804, 5, 34.9915, 50.7912, -12.5373, 94.5718, -63.3966, 39.8291
5.808, 5, 34.9901, 50.7935, -12.5344, 94.5678, -63.4095, 39.8247
5.812, 5, 34.9888, 50.7958, -12.5316, 94.5638, -63.4225, 39.8204
5.816, 5, 34.9874, 50.7981, -12.5288, 94.5598, -63.4354, 39.816
5.82, 5, 34.986, 50.8004, -12.526, 94.5558, -63.4483, 39.8116
5.824, 5, 34.9846, 50.8027, -12.5232, 94.5518, -63.4612, 39.8073
5.828, 5, 34.9833, 50.805, -12.5203, 94.5478, -63.4742, 39.8029
5.832, 5, 34.9819, 50.8074, -12.5175, 94.5438, -63.4871, 39.7986
5.836, 5, 34.9805, 50.8097, -12.5147, 94.5398, -63.5, 39.7942
5.84, 5, 34.9792, 50.812, -12.5119, 94.5359, -63.5129, 39.7899
5.844, 5, 34.9778, 50.8143, -12.509, 94.5318, -63.5258, 39.7855
5.848, 5, 34.9764, 50.8166, -12.5062, 94.5278, -63.5388, 39.7812
5.852, 5, 34.975, 50.8189, -12.5034, 94.5238, -63.5517, 39.7768
5.856, 5, 34.9737, 50.8212, -12.5005, 94.5199, -63.5646, 39.7725
5.86, 5, 34.9723, 50.8235, -12.4977, 94.5159, -63.5775, 39.7681
5.864, 5, 34.9709, 50.8258, -12.4948, 94.5119, -63.5905, 39.7638
5.868, 5, 34.9695, 50.8281, -12.492, 94.5079, -63.6034, 39.7594
5.872, 5, 34.9682, 50.8304, -12.4891, 94.5039, -63.6163, 39.7551
5.876, 5, 34.9668, 50.8326, -12.4863, 94.4998, -63.6292, 39.7507
5.88, 5, 34.9654, 50.8349, -12.4835, 94.4958, -63.6421, 39.7464
5.884, 5, 34.964, 50.8372, -12.4806, 94.4919, -63.6551, 39.742
5.888, 5, 34.9626, 50.8395, -12.4778, 94.4878, -63.668, 39.7377
5.892, 5, 34.9612, 50.8418, -12.4749, 94.4838, -63.6809, 39.7333
5.896, 5, 34.9599, 50.8441, -12.4721, 94.4798, -63.6938, 39.729
5.9, 5, 34.9585, 50.8464, -12.4692, 94.4758, -63.7067, 39.7247
5.904, 5, 34.9571, 50.8487, -12.4663, 94.4718, -63.7197, 39.7203
5.908, 5, 34.9557, 50.8509, -12.4635, 94.4678, -63.7326, 39.716
5.912, 5, 34.9543, 50.8532, -12.4606, 94.4638, -63.7455, 39.7116
5.916, 5, 34.9529, 50.8555, -12.4578, 94.4598, -63.7584, 39.7073
5.92, 5, 34.9516, 50.8578, -12.4549, 94.4558, -63.7713, 39.7029
5.924, 5, 34.9502, 50.8601, -12.452, 94.4518, -63.7842, 39.6986
5.928, 5, 34.9488, 50.8624, -12.4492, 94.4478, -63.7972, 39.6942
5.932, 5, 34.9474, 50.8646, -12.4463, 94.4438, -63.8101, 39.6899
5.936, 5, 34.946, 50.8669, -12.4434, 94.4398, -63.823, 39.6855
5.94, 5, 34.9446, 50.8692, -12.4406, 94.4358, -63.8359, 39.6812
5.944, 5, 34.9432, 50.8714, -12.4377, 94.4318, -63.8488, 39.6768
5.948, 5, 34.9418, 50.8737, -12.4348, 94.4278, -63.8618, 39.6725
5.952, 5, 34.9404, 50.876, -12.432, 94.4238, -63.8747, 39.6681
5.956, 5, 34.939, 50.8783, -12.4291, 94.4198, -63.8876, 39.6638
5.96, 5, 34.9377, 50.8805, -12.4262, 94.4158, -63.9005, 39.6595
5.964, 5, 34.9363, 50.8828, -12.4233, 94.4118, -63.9134, 39.6551
5.968, 5, 34.9349, 50.8851, -12.4204, 94.4078, -63.9263, 39.6508
5.972, 5, 34.9335, 50.8873, -12.4176, 94.4037, -63.9393, 39.6464
5.976, 5, 34.9321, 50.8896, -12.4147, 94.3997, -63.9522, 39.6421
5.98, 5, 34.9307, 50.8919, -12.4118, 94.3957, -63.9651, 39.6377
5.984, 5, 34.9293, 50.8941, -12.4089, 94.3917, -63.978, 39.6334
5.988, 5, 34.9279, 50.8964, -12.406, 94.3877, -63.9909, 39.629
5.992, 5, 34.9265, 50.8986, -12.4031, 94.3837, -64.0039, 39.6247
5.996, 5, 34.9251, 50.9009, -12.4003, 94.3797, -64.0168, 39.6204
6, 5, 34.9237, 50.9031, -12.3974, 94.3757, -64.0297, 39.616
6.004, 5, 34.9223, 50.9054, -12.3945, 94.3717, -64.0426, 39.6117
6.008, 5, 34.9209, 50.9077, -12.3916, 94.3677, -64.0555, 39.6073
6.012, 5, 34.9195, 50.9099, -12.3887, 94.3637, -64.0685, 39.603
6.016, 5, 34.9181, 50.9122, -12.3858, 94.3597, -64.0814, 39.5986
6.02, 5, 34.9167, 50.9144, -12.3829, 94.3557, -64.0943, 39.5943
6.024, 5, 34.9153, 50.9167, -12.38, 94.3517, -64.1072, 39.5899
6.028, 5, 34.9139, 50.9189, -12.3771, 94.3477, -64.1202, 39.5856
6.032, 5, 34.9125, 50.9212, -12.3742, 94.3437, -64.1331, 39.5812
6.036, 5, 34.9111, 50.9234, -12.3713, 94.3397, -64.146, 39.5769
6.04, 5, 34.9097, 50.9256, -12.3684, 94.3357, -64.1589, 39.5726
6.044, 5, 34.9083, 50.9279, -12.3655, 94.3317, -64.1719, 39.5682
6.048, 5, 34.9069, 50.9301, -12.3626, 94.3277, -64.1848, 39.5639
