hehonglu123/ABB_Primitive_Study/execution/movec+movel_smooth/curve_exe_v300_z10.csv
timestamp, cmd_num, J1, J2, J3, J4, J5, J6
0, -1, 32.7465, 54.2623, -9.50115, 89.6875, -78.664, 35.1143
0.002, -1, 32.7465, 54.2623, -9.50115, 89.6875, -78.664, 35.1143
0.006, -1, 32.7465, 54.2623, -9.50115, 89.6875, -78.664, 35.1143
0.008, -1, 32.7465, 54.2623, -9.50115, 89.6875, -78.664, 35.1143
0.011, -1, 32.7465, 54.2623, -9.50115, 89.6875, -78.664, 35.1143
0.016, -1, 32.7465, 54.2623, -9.50115, 89.6875, -78.664, 35.1143
0.02, -1, 32.7465, 54.2623, -9.50115, 89.6875, -78.664, 35.1143
0.024, -1, 32.7465, 54.2623, -9.50115, 89.6875, -78.664, 35.1143
0.028, -1, 32.7465, 54.2623, -9.50115, 89.6875, -78.664, 35.1143
0.032, -1, 32.7465, 54.2623, -9.50115, 89.6875, -78.664, 35.1143
0.036, -1, 32.7466, 54.2623, -9.50115, 89.6875, -78.664, 35.1143
0.04, -1, 32.7467, 54.2621, -9.50116, 89.6875, -78.664, 35.1143
0.044, -1, 32.7471, 54.2618, -9.50116, 89.6875, -78.6639, 35.1143
0.048, -1, 32.7479, 54.2611, -9.50118, 89.6876, -78.6638, 35.1144
0.052, -1, 32.7491, 54.2598, -9.50124, 89.6877, -78.6634, 35.1145
0.056, -1, 32.7507, 54.2577, -9.50136, 89.6879, -78.6626, 35.1147
0.06, -1, 32.7529, 54.2547, -9.50159, 89.6883, -78.6611, 35.1152
0.064, -1, 32.7556, 54.2507, -9.502, 89.689, -78.6586, 35.1161
0.068, -1, 32.7588, 54.2455, -9.50267, 89.6902, -78.6545, 35.1174
0.072, -1, 32.7625, 54.2391, -9.5037, 89.692, -78.6482, 35.1195
0.076, -1, 32.7668, 54.2314, -9.50521, 89.6946, -78.6391, 35.1225
0.08, -1, 32.7718, 54.2224, -9.50734, 89.6982, -78.6262, 35.1267
0.084, -1, 32.7776, 54.212, -9.51024, 89.7032, -78.6088, 35.1325
0.088, -1, 32.784, 54.2002, -9.5141, 89.7098, -78.5857, 35.1401
0.092, -1, 32.7912, 54.1873, -9.51908, 89.7183, -78.5559, 35.1499
0.096, -1, 32.7988, 54.1733, -9.52538, 89.729, -78.5183, 35.1622
0.1, -1, 32.8067, 54.1585, -9.53315, 89.7422, -78.472, 35.1774
0.104, -1, 32.815, 54.143, -9.54252, 89.7581, -78.4163, 35.1957
0.108, -1, 32.8235, 54.1267, -9.55357, 89.7769, -78.3507, 35.2173
0.112, -1, 32.8324, 54.1096, -9.56636, 89.7986, -78.2748, 35.2423
0.116, -1, 32.8415, 54.0916, -9.58087, 89.8232, -78.1888, 35.2705
0.12, -1, 32.8511, 54.0725, -9.59706, 89.8507, -78.0929, 35.3021
0.124, -1, 32.8611, 54.0525, -9.61485, 89.8808, -77.9875, 35.3367
0.128, -1, 32.8716, 54.0317, -9.63411, 89.9134, -77.8735, 35.3742
0.131, -1, 32.8823, 54.0101, -9.65471, 89.9483, -77.7516, 35.4142
0.136, -1, 32.8932, 53.9877, -9.67648, 89.9852, -77.6227, 35.4566
0.139, -1, 32.9045, 53.9644, -9.69923, 90.0237, -77.4881, 35.5008
0.144, -1, 32.9163, 53.9399, -9.72278, 90.0636, -77.3487, 35.5466
0.148, -1, 32.9288, 53.914, -9.74695, 90.1045, -77.2057, 35.5936
0.152, -1, 32.942, 53.8866, -9.77157, 90.1462, -77.0599, 35.6415
0.156, -1, 32.9561, 53.8575, -9.79651, 90.1885, -76.9123, 35.6901
0.16, -1, 32.9711, 53.8271, -9.82165, 90.231, -76.7634, 35.739
0.164, -1, 32.9869, 53.7955, -9.84692, 90.2739, -76.6137, 35.7882
0.168, -1, 33.0032, 53.7631, -9.87226, 90.3168, -76.4636, 35.8375
0.172, -1, 33.02, 53.7302, -9.89762, 90.3598, -76.3133, 35.8869
0.176, -1, 33.037, 53.6969, -9.92299, 90.4028, -76.163, 35.9363
0.18, -1, 33.0541, 53.6634, -9.94833, 90.4457, -76.0128, 35.9857
0.184, -1, 33.0714, 53.6298, -9.97365, 90.4886, -75.8628, 36.035
0.188, -1, 33.0888, 53.5962, -9.99894, 90.5315, -75.713, 36.0842
0.192, -1, 33.1061, 53.5625, -10.0242, 90.5743, -75.5634, 36.1334
0.196, -1, 33.1235, 53.5289, -10.0494, 90.617, -75.4141, 36.1825
0.2, -1, 33.1409, 53.4952, -10.0745, 90.6596, -75.265, 36.2315
0.204, -1, 33.1582, 53.4616, -10.0996, 90.7021, -75.1163, 36.2804
0.208, -1, 33.1755, 53.4281, -10.1247, 90.7446, -74.9678, 36.3292
0.212, -1, 33.1928, 53.3946, -10.1497, 90.787, -74.8197, 36.3779
0.216, -1, 33.2101, 53.3612, -10.1746, 90.8292, -74.6718, 36.4265
0.22, -1, 33.2273, 53.3278, -10.1995, 90.8714, -74.5242, 36.475
0.224, -1, 33.2446, 53.2945, -10.2244, 90.9136, -74.377, 36.5234
0.228, -1, 33.2617, 53.2613, -10.2492, 90.9556, -74.23, 36.5717
0.232, -1, 33.2789, 53.2282, -10.2739, 90.9975, -74.0834, 36.6199
0.236, -1, 33.296, 53.1951, -10.2986, 91.0394, -73.937, 36.668
0.24, -1, 33.313, 53.162, -10.3233, 91.0812, -73.7909, 36.716
0.244, -1, 33.3301, 53.1291, -10.3479, 91.1229, -73.6451, 36.7639
0.248, -1, 33.3471, 53.0962, -10.3724, 91.1645, -73.4996, 36.8117
0.252, -1, 33.364, 53.0633, -10.3969, 91.206, -73.3544, 36.8595
0.256, -1, 33.381, 53.0306, -10.4214, 91.2474, -73.2095, 36.9071
0.26, -1, 33.3979, 52.9979, -10.4458, 91.2888, -73.0649, 36.9546
0.264, -1, 33.4147, 52.9652, -10.4701, 91.3301, -72.9206, 37.0021
0.268, -1, 33.4316, 52.9327, -10.4944, 91.3713, -72.7765, 37.0494
0.272, -1, 33.4484, 52.9002, -10.5187, 91.4124, -72.6327, 37.0967
0.276, -1, 33.4651, 52.8677, -10.5429, 91.4534, -72.4893, 37.1438
0.28, -1, 33.4819, 52.8353, -10.5671, 91.4944, -72.346, 37.1909
0.284, -1, 33.4986, 52.803, -10.5912, 91.5353, -72.2031, 37.2379
0.288, -1, 33.5152, 52.7708, -10.6153, 91.5761, -72.0604, 37.2848
0.292, -1, 33.5319, 52.7386, -10.6393, 91.6168, -71.9181, 37.3316
0.296, -1, 33.5485, 52.7065, -10.6633, 91.6574, -71.776, 37.3783
0.3, -1, 33.5651, 52.6744, -10.6872, 91.698, -71.6341, 37.4249
0.304, -1, 33.5816, 52.6424, -10.7111, 91.7385, -71.4925, 37.4714
0.308, -1, 33.5981, 52.6104, -10.7349, 91.7789, -71.3513, 37.5179
0.312, -1, 33.6146, 52.5785, -10.7587, 91.8192, -71.2102, 37.5642
0.316, -1, 33.631, 52.5467, -10.7825, 91.8595, -71.0695, 37.6105
0.32, -1, 33.6474, 52.5149, -10.8062, 91.8997, -70.929, 37.6567
0.324, -1, 33.6638, 52.4832, -10.8299, 91.9398, -70.7887, 37.7028
0.328, -1, 33.6802, 52.4516, -10.8535, 91.9798, -70.6488, 37.7488
0.332, -1, 33.6965, 52.42, -10.8771, 92.0198, -70.509, 37.7947
0.336, -1, 33.7128, 52.3885, -10.9006, 92.0597, -70.3696, 37.8405
0.34, -1, 33.7291, 52.357, -10.9241, 92.0995, -70.2304, 37.8863
0.344, -1, 33.7453, 52.3256, -10.9475, 92.1392, -70.0914, 37.9319
0.348, -1, 33.7615, 52.2942, -10.9709, 92.1789, -69.9528, 37.9775
0.352, -1, 33.7777, 52.2629, -10.9943, 92.2185, -69.8143, 38.023
0.356, -1, 33.7938, 52.2317, -11.0176, 92.258, -69.6762, 38.0685
0.36, -1, 33.8099, 52.2005, -11.0409, 92.2974, -69.5382, 38.1138
0.364, -1, 33.826, 52.1694, -11.0641, 92.3368, -69.4006, 38.159
0.368, -1, 33.8421, 52.1383, -11.0873, 92.3761, -69.2631, 38.2042
0.372, -1, 33.8581, 52.1073, -11.1104, 92.4153, -69.126, 38.2493
0.376, -1, 33.8741, 52.0763, -11.1336, 92.4545, -68.989, 38.2943
0.38, -1, 33.8901, 52.0454, -11.1566, 92.4936, -68.8523, 38.3392
0.384, -1, 33.906, 52.0146, -11.1796, 92.5326, -68.7159, 38.3841
0.388, -1, 33.9219, 51.9838, -11.2026, 92.5716, -68.5797, 38.4288
0.392, -1, 33.9378, 51.953, -11.2256, 92.6104, -68.4437, 38.4735
0.396, -1, 33.9537, 51.9224, -11.2485, 92.6493, -68.308, 38.5181
0.4, -1, 33.9695, 51.8917, -11.2713, 92.688, -68.1725, 38.5627
0.404, -1, 33.9853, 51.8611, -11.2942, 92.7267, -68.0373, 38.6071
0.408, -1, 34.0011, 51.8306, -11.3169, 92.7653, -67.9023, 38.6515
0.412, -1, 34.0168, 51.8002, -11.3397, 92.8038, -67.7675, 38.6958
0.416, -1, 34.0326, 51.7697, -11.3624, 92.8423, -67.633, 38.74
0.42, -1, 34.0483, 51.7394, -11.385, 92.8807, -67.4987, 38.7842
0.424, -1, 34.0639, 51.7091, -11.4077, 92.9191, -67.3646, 38.8282
0.428, -1, 34.0796, 51.6788, -11.4302, 92.9574, -67.2307, 38.8722
0.432, -1, 34.0952, 51.6486, -11.4528, 92.9956, -67.0971, 38.9161
0.436, -1, 34.1108, 51.6184, -11.4753, 93.0337, -66.9637, 38.96
0.44, -1, 34.1263, 51.5883, -11.4978, 93.0718, -66.8306, 39.0038
0.444, -1, 34.1418, 51.5583, -11.5202, 93.1098, -66.6976, 39.0474
0.448, -1, 34.1573, 51.5282, -11.5426, 93.1478, -66.5649, 39.0911
0.452, -1, 34.1728, 51.4983, -11.565, 93.1857, -66.4324, 39.1346
0.456, -1, 34.1883, 51.4684, -11.5873, 93.2235, -66.3002, 39.1781
0.46, -1, 34.2037, 51.4385, -11.6096, 93.2613, -66.1681, 39.2215
0.464, -1, 34.2191, 51.4087, -11.6318, 93.299, -66.0363, 39.2648
0.468, -1, 34.2345, 51.379, -11.654, 93.3366, -65.9047, 39.3081
0.472, -1, 34.2498, 51.3493, -11.6762, 93.3742, -65.7733, 39.3513
0.476, -1, 34.2652, 51.3196, -11.6983, 93.4117, -65.6421, 39.3944
0.48, -1, 34.2805, 51.29, -11.7204, 93.4492, -65.5111, 39.4374
0.484, -1, 34.2957, 51.2604, -11.7425, 93.4865, -65.3804, 39.4804
0.488, -1, 34.311, 51.2309, -11.7645, 93.5239, -65.2498, 39.5233
0.492, -1, 34.3262, 51.2014, -11.7865, 93.5611, -65.1195, 39.5662
0.496, -1, 34.3414, 51.172, -11.8085, 93.5984, -64.9894, 39.6089
0.5, -1, 34.3566, 51.1426, -11.8304, 93.6355, -64.8595, 39.6516
0.504, -1, 34.3718, 51.1133, -11.8523, 93.6726, -64.7298, 39.6943
0.508, -1, 34.3869, 51.084, -11.8741, 93.7096, -64.6003, 39.7368
0.512, -1, 34.402, 51.0548, -11.8959, 93.7466, -64.471, 39.7793
0.516, -1, 34.4171, 51.0256, -11.9177, 93.7835, -64.3419, 39.8217
0.52, -1, 34.4321, 50.9965, -11.9395, 93.8204, -64.213, 39.8641
0.524, -1, 34.4472, 50.9674, -11.9612, 93.8572, -64.0844, 39.9064
0.528, -1, 34.4622, 50.9384, -11.9828, 93.8939, -63.9559, 39.9486
0.532, -1, 34.4771, 50.9094, -12.0045, 93.9306, -63.8276, 39.9908
0.536, -1, 34.4921, 50.8804, -12.0261, 93.9672, -63.6996, 40.0329
0.54, -1, 34.507, 50.8515, -12.0477, 94.0038, -63.5717, 40.0749
0.544, -1, 34.522, 50.8226, -12.0692, 94.0403, -63.444, 40.1169
0.548, -1, 34.5369, 50.7938, -12.0907, 94.0768, -63.3166, 40.1588
0.552, -1, 34.5517, 50.765, -12.1122, 94.1132, -63.1893, 40.2006
0.556, -1, 34.5666, 50.7363, -12.1337, 94.1495, -63.0622, 40.2424
0.56, -1, 34.5814, 50.7076, -12.1551, 94.1858, -62.9353, 40.2841
0.564, -1, 34.5962, 50.679, -12.1764, 94.2221, -62.8086, 40.3257
0.568, -1, 34.611, 50.6504, -12.1978, 94.2582, -62.6821, 40.3673
0.572, -1, 34.6257, 50.6218, -12.2191, 94.2943, -62.5558, 40.4088
0.576, -1, 34.6405, 50.5933, -12.2404, 94.3304, -62.4297, 40.4502
0.58, -1, 34.6552, 50.5648, -12.2616, 94.3664, -62.3038, 40.4916
0.584, -1, 34.6699, 50.5364, -12.2828, 94.4024, -62.1781, 40.533
0.588, -1, 34.6845, 50.508, -12.304, 94.4383, -62.0525, 40.5742
0.592, -1, 34.6992, 50.4797, -12.3252, 94.4741, -61.9272, 40.6154
0.596, -1, 34.7138, 50.4514, -12.3463, 94.5099, -61.802, 40.6566
0.6, -1, 34.7284, 50.4231, -12.3674, 94.5457, -61.677, 40.6977
0.604, -1, 34.743, 50.3949, -12.3884, 94.5814, -61.5522, 40.7387
0.608, -1, 34.7575, 50.3667, -12.4095, 94.617, -61.4276, 40.7796
0.612, -1, 34.7721, 50.3386, -12.4305, 94.6526, -61.3032, 40.8205
0.616, -1, 34.7866, 50.3105, -12.4514, 94.6881, -61.1789, 40.8614
0.62, -1, 34.8011, 50.2824, -12.4724, 94.7236, -61.0548, 40.9022
0.624, -1, 34.8155, 50.2544, -12.4933, 94.7591, -60.931, 40.9429
0.628, -1, 34.83, 50.2265, -12.5142, 94.7944, -60.8073, 40.9835
0.632, -1, 34.8444, 50.1985, -12.535, 94.8298, -60.6837, 41.0241
0.636, -1, 34.8588, 50.1707, -12.5558, 94.865, -60.5604, 41.0647
0.64, -1, 34.8732, 50.1428, -12.5766, 94.9003, -60.4372, 41.1052
0.644, -1, 34.8876, 50.115, -12.5973, 94.9354, -60.3142, 41.1456
0.648, -1, 34.9019, 50.0872, -12.6181, 94.9706, -60.1914, 41.1859
0.652, -1, 34.9163, 50.0595, -12.6388, 95.0056, -60.0688, 41.2263
0.656, -1, 34.9306, 50.0318, -12.6594, 95.0407, -59.9463, 41.2665
0.66, -1, 34.9449, 50.0042, -12.6801, 95.0756, -59.824, 41.3067
0.664, -1, 34.9591, 49.9766, -12.7007, 95.1106, -59.7019, 41.3468
0.668, -1, 34.9734, 49.949, -12.7212, 95.1454, -59.58, 41.3869
0.672, -1, 34.9876, 49.9215, -12.7418, 95.1803, -59.4582, 41.427
0.676, -1, 35.0018, 49.894, -12.7623, 95.215, -59.3366, 41.4669
0.68, -1, 35.016, 49.8665, -12.7828, 95.2498, -59.2151, 41.5068
0.684, -1, 35.0301, 49.8391, -12.8033, 95.2844, -59.0939, 41.5467
0.688, -1, 35.0443, 49.8117, -12.8237, 95.3191, -58.9728, 41.5865
0.692, -1, 35.0584, 49.7844, -12.8441, 95.3537, -58.8519, 41.6262
0.696, -1, 35.0725, 49.7571, -12.8645, 95.3882, -58.7311, 41.6659
0.7, -1, 35.0866, 49.7298, -12.8848, 95.4227, -58.6105, 41.7056
0.704, -1, 35.1007, 49.7026, -12.9051, 95.4571, -58.4901, 41.7451
0.708, -1, 35.1147, 49.6754, -12.9254, 95.4915, -58.3698, 41.7847
0.712, -1, 35.1288, 49.6482, -12.9457, 95.5259, -58.2497, 41.8241
0.716, -1, 35.1428, 49.6211, -12.9659, 95.5602, -58.1298, 41.8636
0.72, -1, 35.1568, 49.5941, -12.9862, 95.5944, -58.01, 41.9029
0.724, -1, 35.1707, 49.567, -13.0063, 95.6286, -57.8904, 41.9422
0.728, -1, 35.1847, 49.54, -13.0265, 95.6628, -57.771, 41.9815
0.732, -1, 35.1986, 49.513, -13.0466, 95.6969, -57.6517, 42.0207
0.736, -1, 35.2125, 49.4861, -13.0667, 95.731, -57.5326, 42.0599
0.74, -1, 35.2264, 49.4592, -13.0868, 95.765, -57.4136, 42.099
0.744, -1, 35.2403, 49.4324, -13.1068, 95.799, -57.2948, 42.138
0.748, -1, 35.2542, 49.4055, -13.1269, 95.8329, -57.1762, 42.177
0.752, -1, 35.268, 49.3787, -13.1468, 95.8668, -57.0577, 42.2159
0.756, -1, 35.2818, 49.352, -13.1668, 95.9006, -56.9394, 42.2548
0.76, -1, 35.2956, 49.3253, -13.1868, 95.9344, -56.8212, 42.2937
0.764, -1, 35.3094, 49.2986, -13.2067, 95.9682, -56.7032, 42.3325
0.768, -1, 35.3232, 49.272, -13.2266, 96.0019, -56.5854, 42.3712
0.772, -1, 35.3369, 49.2453, -13.2464, 96.0355, -56.4676, 42.4099
0.776, -1, 35.3507, 49.2188, -13.2663, 96.0692, -56.3501, 42.4485
0.78, -1, 35.3644, 49.1922, -13.2861, 96.1027, -56.2327, 42.4871
0.784, -1, 35.3781, 49.1657, -13.3058, 96.1363, -56.1155, 42.5257
0.788, -1, 35.3917, 49.1392, -13.3256, 96.1698, -55.9984, 42.5641
0.792, -1, 35.4054, 49.1128, -13.3453, 96.2032, -55.8814, 42.6026
0.796, -1, 35.4191, 49.0864, -13.365, 96.2366, -55.7646, 42.641
0.8, -1, 35.4327, 49.06, -13.3847, 96.27, -55.648, 42.6793
0.804, -1, 35.4463, 49.0337, -13.4044, 96.3033, -55.5315, 42.7176
0.808, -1, 35.4599, 49.0074, -13.424, 96.3365, -55.4151, 42.7558
0.812, -1, 35.4734, 48.9811, -13.4436, 96.3698, -55.2989, 42.794
0.816, -1, 35.487, 48.9549, -13.4632, 96.403, -55.1829, 42.8322
0.82, -1, 35.5005, 48.9287, -13.4828, 96.4361, -55.067, 42.8703
0.824, -1, 35.5141, 48.9025, -13.5023, 96.4692, -54.9512, 42.9083
0.828, -1, 35.5276, 48.8764, -13.5218, 96.5023, -54.8356, 42.9463
0.832, -1, 35.5411, 48.8503, -13.5413, 96.5353, -54.7201, 42.9843
0.836, -1, 35.5545, 48.8242, -13.5608, 96.5683, -54.6048, 43.0222
0.84, -1, 35.568, 48.7981, -13.5802, 96.6012, -54.4896, 43.06
0.844, -1, 35.5814, 48.7721, -13.5996, 96.6341, -54.3746, 43.0979
0.848, -1, 35.5949, 48.7461, -13.619, 96.667, -54.2597, 43.1356
0.852, -1, 35.6083, 48.7202, -13.6384, 96.6998, -54.1449, 43.1733
0.856, -1, 35.6216, 48.6943, -13.6577, 96.7326, -54.0303, 43.211
0.86, -1, 35.635, 48.6684, -13.677, 96.7654, -53.9158, 43.2486
0.864, -1, 35.6483, 48.6426, -13.6963, 96.798, -53.8015, 43.2862
0.868, -1, 35.6616, 48.6169, -13.7156, 96.8307, -53.6873, 43.3238
0.872, -1, 35.6747, 48.5912, -13.7348, 96.8633, -53.5732, 43.3612
0.876, -1, 35.6878, 48.5656, -13.754, 96.8959, -53.4594, 43.3987
0.88, -1, 35.7008, 48.5402, -13.7732, 96.9284, -53.3457, 43.436
0.884, -1, 35.7135, 48.515, -13.7924, 96.9608, -53.2323, 43.4733
0.888, -1, 35.726, 48.4902, -13.8115, 96.9932, -53.1192, 43.5105
0.892, -1, 35.738, 48.466, -13.8305, 97.0254, -53.0066, 43.5475
0.896, -1, 35.7494, 48.4426, -13.8494, 97.0574, -52.8946, 43.5843
0.9, -1, 35.7603, 48.4201, -13.8682, 97.0892, -52.7836, 43.6208
0.904, -1, 35.7705, 48.3986, -13.8867, 97.1205, -52.6741, 43.6568
0.908, -1, 35.7802, 48.3781, -13.9049, 97.1513, -52.5665, 43.6922
0.912, -1, 35.7894, 48.3586, -13.9227, 97.1813, -52.4615, 43.7267
0.916, -1, 35.7982, 48.3399, -13.9399, 97.2104, -52.3599, 43.7602
0.92, -1, 35.8067, 48.3221, -13.9564, 97.2383, -52.2624, 43.7923
0.924, -1, 35.8148, 48.3051, -13.9721, 97.2649, -52.1697, 43.8228
0.928, -1, 35.8225, 48.2891, -13.9869, 97.2898, -52.0824, 43.8514
0.932, -1, 35.8299, 48.274, -14.0006, 97.313, -52.0014, 43.8781
0.936, -1, 35.837, 48.2597, -14.0132, 97.3343, -51.927, 43.9026
0.94, -1, 35.8438, 48.2461, -14.0246, 97.3535, -51.8598, 43.9247
0.944, -1, 35.8505, 48.233, -14.0347, 97.3706, -51.8, 43.9443
0.948, -1, 35.8571, 48.2204, -14.0435, 97.3856, -51.7476, 43.9615
0.952, -1, 35.8636, 48.2083, -14.0511, 97.3985, -51.7026, 43.9763
0.956, -1, 35.8699, 48.1968, -14.0574, 97.4093, -51.6646, 43.9888
0.96, -1, 35.8759, 48.1861, -14.0627, 97.4183, -51.633, 43.9991
0.964, -1, 35.8815, 48.1763, -14.067, 97.4257, -51.6074, 44.0075
0.968, -1, 35.8866, 48.1676, -14.0704, 97.4315, -51.5869, 44.0143
0.972, -1, 35.8914, 48.16, -14.073, 97.436, -51.5709, 44.0195
0.976, -1, 35.8957, 48.1533, -14.075, 97.4395, -51.5587, 44.0235
0.98, -1, 35.8997, 48.1475, -14.0765, 97.4421, -51.5496, 44.0264
0.984, -1, 35.9032, 48.1427, -14.0776, 97.444, -51.543, 44.0286
0.988, 2, 35.9062, 48.1387, -14.0784, 97.4453, -51.5382, 44.0302
0.992, 2, 35.9087, 48.1355, -14.0789, 97.4463, -51.5349, 44.0312
0.996, 2, 35.9106, 48.1332, -14.0793, 97.4469, -51.5327, 44.032
1, 2, 35.912, 48.1315, -14.0795, 97.4474, -51.5311, 44.0325
1.004, 2, 35.913, 48.1303, -14.0797, 97.4477, -51.5301, 44.0328
1.008, 2, 35.9137, 48.1295, -14.0798, 97.4479, -51.5293, 44.033
1.012, 2, 35.9142, 48.1289, -14.0799, 97.448, -51.5289, 44.0332
1.016, 2, 35.9145, 48.1286, -14.0799, 97.4481, -51.5285, 44.0333
1.02, 2, 35.9147, 48.1283, -14.08, 97.4482, -51.5283, 44.0334
1.024, 2, 35.9148, 48.1281, -14.08, 97.4482, -51.5282, 44.0334
1.027, 2, 35.9149, 48.128, -14.08, 97.4482, -51.5281, 44.0335
1.032, 2, 35.915, 48.1279, -14.08, 97.4482, -51.528, 44.0335
1.036, 2, 35.915, 48.1279, -14.08, 97.4483, -51.5279, 44.0335
1.04, 2, 35.9151, 48.1279, -14.08, 97.4483, -51.5279, 44.0335
1.044, 2, 35.9151, 48.1278, -14.08, 97.4483, -51.5279, 44.0335
1.048, 2, 35.9151, 48.1278, -14.08, 97.4483, -51.5279, 44.0335
1.052, 2, 35.9151, 48.1278, -14.08, 97.4483, -51.5279, 44.0335
1.055, 2, 35.9151, 48.1278, -14.08, 97.4483, -51.5279, 44.0335
1.06, 2, 35.9151, 48.1278, -14.08, 97.4483, -51.5279, 44.0335
1.064, 2, 35.9151, 48.1278, -14.08, 97.4483, -51.5278, 44.0335
1.068, 2, 35.9151, 48.1278, -14.08, 97.4483, -51.5278, 44.0335
1.072, 2, 35.9151, 48.1278, -14.08, 97.4483, -51.5278, 44.0335
1.076, 2, 35.9151, 48.1278, -14.08, 97.4483, -51.5278, 44.0335
1.08, 2, 35.9151, 48.1278, -14.08, 97.4483, -51.5278, 44.0335
1.084, 2, 35.9151, 48.1278, -14.08, 97.4483, -51.5278, 44.0335
1.088, 2, 35.9151, 48.1278, -14.08, 97.4483, -51.5278, 44.0335
1.091, 2, 35.9151, 48.1278, -14.08, 97.4483, -51.5278, 44.0335
1.096, 2, 35.9151, 48.1278, -14.08, 97.4483, -51.5278, 44.0335
1.1, 2, 35.9151, 48.1278, -14.08, 97.4483, -51.5278, 44.0335
1.104, 2, 35.9151, 48.1278, -14.08, 97.4483, -51.5278, 44.0335
1.108, 2, 35.9151, 48.1278, -14.08, 97.4483, -51.5278, 44.0335
1.112, 2, 35.9151, 48.1278, -14.08, 97.4483, -51.5278, 44.0335
1.116, 2, 35.9151, 48.1278, -14.08, 97.4483, -51.5278, 44.0335
1.119, 2, 35.9151, 48.1278, -14.08, 97.4483, -51.5278, 44.0335
1.124, 2, 35.9151, 48.1278, -14.08, 97.4483, -51.5278, 44.0335
1.128, 2, 35.9151, 48.1278, -14.08, 97.4483, -51.5278, 44.0335
1.132, 2, 35.9151, 48.1278, -14.08, 97.4483, -51.5278, 44.0335
1.136, 2, 35.9151, 48.1278, -14.08, 97.4483, -51.5278, 44.0335
1.14, 2, 35.9151, 48.1278, -14.08, 97.4483, -51.5278, 44.0335
1.144, 2, 35.9151, 48.1278, -14.08, 97.4483, -51.5278, 44.0335
1.147, 2, 35.9151, 48.1278, -14.08, 97.4483, -51.5278, 44.0335
1.152, 2, 35.9151, 48.1278, -14.08, 97.4483, -51.5278, 44.0335
1.156, 2, 35.9151, 48.1278, -14.08, 97.4483, -51.5278, 44.0335
1.16, 2, 35.9151, 48.1278, -14.08, 97.4483, -51.5278, 44.0335
1.164, 2, 35.9151, 48.1278, -14.08, 97.4483, -51.5278, 44.0335
1.168, 2, 35.9151, 48.1278, -14.08, 97.4483, -51.5278, 44.0335
1.172, 2, 35.9151, 48.1278, -14.08, 97.4483, -51.5278, 44.0335
1.175, 2, 35.9151, 48.1278, -14.08, 97.4483, -51.5278, 44.0335
1.18, 2, 35.9151, 48.1278, -14.08, 97.4483, -51.5278, 44.0335
1.184, 2, 35.9151, 48.1278, -14.08, 97.4483, -51.5278, 44.0335
1.188, 2, 35.9151, 48.1278, -14.08, 97.4483, -51.5278, 44.0335
1.192, 2, 35.9151, 48.1278, -14.08, 97.4483, -51.5278, 44.0335
1.196, 2, 35.9151, 48.1278, -14.08, 97.4483, -51.5278, 44.0335
1.2, 2, 35.9151, 48.1278, -14.08, 97.4483, -51.5278, 44.0335
1.204, 2, 35.9151, 48.1278, -14.08, 97.4483, -51.5278, 44.0335
1.208, 2, 35.9151, 48.1278, -14.08, 97.4483, -51.5278, 44.0335
1.212, 2, 35.9151, 48.1278, -14.08, 97.4483, -51.5278, 44.0335
1.216, 2, 35.9151, 48.1278, -14.08, 97.4483, -51.5278, 44.0335
1.22, 2, 35.9151, 48.1278, -14.08, 97.4483, -51.5278, 44.0335
1.224, 2, 35.9151, 48.1278, -14.08, 97.4483, -51.5278, 44.0335
1.228, 2, 35.9151, 48.1278, -14.08, 97.4483, -51.5278, 44.0335
1.232, 2, 35.9151, 48.1278, -14.08, 97.4483, -51.5278, 44.0335
1.236, 2, 35.9151, 48.1278, -14.08, 97.4483, -51.5278, 44.0335
1.24, 2, 35.9151, 48.1278, -14.08, 97.4483, -51.5278, 44.0335
1.244, 2, 35.9151, 48.1278, -14.08, 97.4483, -51.5278, 44.0335
1.248, 2, 35.9151, 48.1278, -14.08, 97.4483, -51.5278, 44.0335
1.252, 2, 35.9151, 48.1278, -14.08, 97.4483, -51.5278, 44.0335
1.256, 2, 35.9151, 48.1278, -14.08, 97.4483, -51.5278, 44.0335
1.26, 2, 35.9151, 48.1278, -14.08, 97.4483, -51.5278, 44.0335
1.264, 2, 35.9151, 48.1278, -14.08, 97.4483, -51.5278, 44.0335
1.267, 2, 35.9151, 48.1278, -14.08, 97.4483, -51.5278, 44.0335
1.272, 2, 35.9151, 48.1278, -14.08, 97.4483, -51.5278, 44.0335
1.276, 2, 35.9151, 48.1278, -14.08, 97.4483, -51.5278, 44.0335
1.28, 2, 35.9151, 48.1278, -14.08, 97.4483, -51.5278, 44.0335
1.284, 2, 35.9151, 48.1278, -14.08, 97.4483, -51.5278, 44.0335
1.288, 2, 35.9151, 48.1278, -14.08, 97.4483, -51.5278, 44.0335
1.292, 2, 35.9151, 48.1278, -14.08, 97.4483, -51.5278, 44.0335
1.295, 2, 35.9151, 48.1278, -14.08, 97.4483, -51.5278, 44.0335
1.3, 2, 35.9151, 48.1278, -14.08, 97.4483, -51.5278, 44.0335
1.304, 2, 35.9151, 48.1278, -14.08, 97.4483, -51.5278, 44.0335
1.308, 2, 35.9151, 48.1278, -14.08, 97.4483, -51.5278, 44.0335
1.312, 2, 35.9151, 48.1278, -14.08, 97.4483, -51.5278, 44.0335
1.316, 2, 35.9151, 48.1278, -14.08, 97.4483, -51.5278, 44.0335
1.32, 2, 35.9151, 48.1278, -14.08, 97.4483, -51.5278, 44.0335
1.324, 2, 35.9151, 48.1278, -14.08, 97.4483, -51.5278, 44.0335
1.328, 2, 35.9151, 48.1278, -14.08, 97.4483, -51.5278, 44.0335
1.332, 2, 35.9151, 48.1278, -14.08, 97.4483, -51.5278, 44.0335
1.336, 2, 35.9151, 48.1278, -14.08, 97.4483, -51.5278, 44.0335
1.34, 2, 35.9151, 48.1278, -14.08, 97.4483, -51.5278, 44.0335
1.344, 2, 35.9151, 48.1278, -14.08, 97.4483, -51.5278, 44.0335
1.348, 2, 35.9151, 48.1278, -14.08, 97.4483, -51.5278, 44.0335
1.352, 2, 35.9151, 48.1278, -14.08, 97.4483, -51.5278, 44.0335
1.356, 2, 35.9151, 48.1278, -14.08, 97.4483, -51.5278, 44.0335
1.36, 2, 35.9151, 48.1278, -14.08, 97.4483, -51.5278, 44.0335
1.364, 2, 35.9151, 48.1278, -14.08, 97.4483, -51.5278, 44.0335
1.368, 2, 35.9151, 48.1278, -14.08, 97.4483, -51.5278, 44.0335
1.372, 2, 35.9151, 48.1278, -14.08, 97.4483, -51.5278, 44.0335
1.376, 2, 35.9151, 48.1278, -14.08, 97.4483, -51.5278, 44.0335
1.38, 2, 35.9151, 48.1278, -14.08, 97.4483, -51.5278, 44.0335
1.384, 2, 35.9151, 48.1278, -14.08, 97.4483, -51.5278, 44.0335
1.388, 2, 35.9151, 48.1278, -14.08, 97.4483, -51.5278, 44.0335
1.392, 2, 35.9151, 48.1278, -14.08, 97.4483, -51.5278, 44.0335
1.396, 2, 35.9151, 48.1278, -14.08, 97.4483, -51.5278, 44.0335
1.4, 2, 35.9151, 48.1278, -14.08, 97.4483, -51.5278, 44.0335
1.404, 2, 35.9151, 48.1278, -14.08, 97.4483, -51.5278, 44.0335
1.408, 2, 35.9151, 48.1278, -14.08, 97.4483, -51.5278, 44.0335
1.412, 2, 35.9151, 48.1278, -14.08, 97.4483, -51.5278, 44.0335
1.416, 2, 35.9151, 48.1278, -14.08, 97.4483, -51.5278, 44.0335
1.42, 2, 35.9151, 48.1278, -14.08, 97.4483, -51.5278, 44.0335
1.424, 2, 35.9151, 48.1278, -14.08, 97.4483, -51.5278, 44.0335
1.428, 2, 35.9151, 48.1278, -14.08, 97.4483, -51.5278, 44.0335
1.432, 2, 35.9151, 48.1278, -14.08, 97.4483, -51.5278, 44.0335
1.436, 2, 35.9151, 48.1278, -14.08, 97.4483, -51.5278, 44.0335
1.44, 2, 35.9151, 48.1278, -14.08, 97.4483, -51.5278, 44.0335
1.444, 2, 35.9151, 48.1278, -14.08, 97.4483, -51.5278, 44.0335
1.448, 2, 35.9151, 48.1278, -14.08, 97.4483, -51.5278, 44.0335
1.452, 2, 35.9151, 48.1278, -14.08, 97.4483, -51.5278, 44.0335
1.456, 2, 35.9151, 48.1278, -14.08, 97.4483, -51.5278, 44.0335
1.46, 2, 35.9151, 48.1278, -14.08, 97.4483, -51.5278, 44.0335
1.464, 2, 35.9151, 48.1278, -14.08, 97.4483, -51.5278, 44.0335
1.468, 2, 35.9151, 48.1278, -14.08, 97.4483, -51.5278, 44.0335
1.472, 2, 35.9151, 48.1278, -14.08, 97.4483, -51.5278, 44.0335
1.476, 2, 35.9151, 48.1278, -14.08, 97.4483, -51.5278, 44.0335
1.48, 2, 35.9151, 48.1278, -14.08, 97.4483, -51.5278, 44.0335
1.484, 2, 35.9151, 48.1278, -14.08, 97.4483, -51.5278, 44.0335
1.488, 2, 35.9151, 48.1278, -14.08, 97.4483, -51.5278, 44.0335
1.492, 2, 35.9151, 48.1278, -14.08, 97.4483, -51.5278, 44.0335
1.496, 2, 35.9151, 48.1278, -14.08, 97.4483, -51.5278, 44.0335
1.5, 2, 35.9151, 48.1278, -14.08, 97.4483, -51.5278, 44.0335
1.504, 2, 35.9151, 48.1278, -14.08, 97.4483, -51.5278, 44.0335
1.508, 2, 35.9151, 48.1278, -14.08, 97.4483, -51.5278, 44.0335
1.512, 2, 35.9151, 48.1278, -14.08, 97.4483, -51.5278, 44.0335
1.516, 2, 35.9151, 48.1278, -14.08, 97.4483, -51.5278, 44.0335
1.52, 2, 35.9151, 48.1278, -14.08, 97.4483, -51.5278, 44.0335
1.524, 2, 35.9151, 48.1278, -14.08, 97.4483, -51.5278, 44.0335
1.528, 2, 35.9151, 48.1278, -14.08, 97.4483, -51.5278, 44.0335
1.532, 2, 35.9151, 48.1278, -14.08, 97.4483, -51.5278, 44.0335
1.536, 2, 35.9151, 48.1278, -14.08, 97.4483, -51.5278, 44.0335
1.54, 2, 35.9151, 48.1278, -14.08, 97.4483, -51.5278, 44.0335
1.544, 2, 35.9151, 48.1278, -14.08, 97.4483, -51.5278, 44.0335
1.548, 2, 35.9151, 48.1278, -14.08, 97.4483, -51.5278, 44.0335
1.552, 2, 35.9151, 48.1278, -14.08, 97.4483, -51.5278, 44.0335
1.556, 2, 35.9151, 48.1278, -14.08, 97.4483, -51.5278, 44.0335
1.56, 2, 35.9151, 48.1278, -14.08, 97.4483, -51.5278, 44.0335
1.564, 2, 35.9151, 48.1278, -14.08, 97.4483, -51.5278, 44.0335
1.568, 2, 35.9151, 48.1278, -14.08, 97.4483, -51.5278, 44.0335
1.572, 2, 35.9151, 48.1278, -14.08, 97.4483, -51.5278, 44.0335
1.576, 2, 35.9151, 48.1278, -14.08, 97.4483, -51.5278, 44.0335
1.58, 2, 35.9151, 48.1278, -14.08, 97.4483, -51.5278, 44.0335
1.584, 2, 35.9151, 48.1278, -14.08, 97.4483, -51.5278, 44.0335
1.588, 2, 35.9151, 48.1278, -14.08, 97.4483, -51.5278, 44.0335
1.592, 2, 35.9151, 48.1278, -14.08, 97.4483, -51.5278, 44.0335
1.596, 2, 35.9151, 48.1278, -14.08, 97.4483, -51.5278, 44.0335
1.6, 2, 35.9151, 48.1278, -14.08, 97.4483, -51.5278, 44.0335
1.604, 2, 35.9151, 48.1278, -14.08, 97.4483, -51.5278, 44.0335
1.608, 2, 35.9151, 48.1278, -14.08, 97.4483, -51.5278, 44.0335
1.612, 2, 35.9151, 48.1278, -14.08, 97.4483, -51.5278, 44.0335
1.616, 2, 35.9151, 48.1278, -14.08, 97.4483, -51.5278, 44.0335
1.62, 2, 35.9151, 48.1278, -14.08, 97.4483, -51.5278, 44.0335
1.624, 2, 35.9151, 48.1278, -14.08, 97.4483, -51.5278, 44.0335
1.628, 2, 35.9151, 48.1278, -14.08, 97.4483, -51.5278, 44.0335
1.632, 2, 35.9151, 48.1278, -14.08, 97.4483, -51.5278, 44.0335
1.636, 2, 35.9151, 48.1278, -14.08, 97.4483, -51.5278, 44.0335
1.64, 2, 35.9151, 48.1278, -14.08, 97.4483, -51.5278, 44.0335
1.644, 2, 35.9151, 48.1278, -14.08, 97.4483, -51.5278, 44.0335
1.648, 2, 35.9151, 48.1278, -14.08, 97.4483, -51.5278, 44.0335
1.652, 2, 35.9151, 48.1278, -14.08, 97.4483, -51.5278, 44.0335
1.656, 2, 35.9151, 48.1278, -14.08, 97.4483, -51.5278, 44.0335
1.66, 2, 35.9151, 48.1278, -14.08, 97.4483, -51.5278, 44.0335
1.664, 2, 35.9151, 48.1278, -14.08, 97.4483, -51.5278, 44.0335
1.668, 2, 35.9151, 48.1278, -14.08, 97.4483, -51.5278, 44.0335
1.672, 2, 35.9151, 48.1278, -14.08, 97.4483, -51.5278, 44.0335
1.676, 2, 35.9151, 48.1278, -14.08, 97.4483, -51.5278, 44.0335
1.68, 2, 35.9151, 48.1278, -14.08, 97.4483, -51.5278, 44.0335
1.684, 2, 35.9151, 48.1278, -14.08, 97.4483, -51.5278, 44.0335
1.688, 2, 35.9151, 48.1278, -14.08, 97.4483, -51.5278, 44.0335
1.692, 2, 35.9151, 48.1278, -14.08, 97.4483, -51.5278, 44.0335
1.696, 2, 35.9151, 48.1278, -14.08, 97.4483, -51.5278, 44.0335
1.7, 2, 35.9151, 48.1278, -14.08, 97.4483, -51.5278, 44.0335
1.704, 2, 35.9151, 48.1278, -14.08, 97.4483, -51.5278, 44.0335
1.708, 2, 35.9151, 48.1278, -14.08, 97.4483, -51.5278, 44.0335
1.712, 2, 35.9151, 48.1278, -14.08, 97.4483, -51.5278, 44.0335
1.716, 2, 35.9151, 48.1278, -14.08, 97.4483, -51.5278, 44.0335
1.72, 2, 35.9151, 48.1278, -14.08, 97.4483, -51.5278, 44.0335
1.724, 2, 35.9151, 48.1278, -14.08, 97.4483, -51.5278, 44.0335
1.728, 2, 35.9151, 48.1278, -14.08, 97.4483, -51.5278, 44.0335
1.732, 2, 35.9151, 48.1278, -14.08, 97.4483, -51.5278, 44.0335
1.736, 2, 35.9151, 48.1278, -14.08, 97.4483, -51.5278, 44.0335
1.74, 2, 35.9151, 48.1278, -14.08, 97.4483, -51.5278, 44.0335
1.744, 2, 35.9151, 48.1278, -14.08, 97.4483, -51.5278, 44.0335
1.748, 2, 35.9151, 48.1278, -14.08, 97.4483, -51.5278, 44.0335
1.752, 2, 35.9151, 48.1278, -14.08, 97.4483, -51.5278, 44.0335
1.756, 2, 35.9151, 48.1278, -14.08, 97.4483, -51.5278, 44.0335
1.76, 2, 35.9151, 48.1278, -14.08, 97.4483, -51.5278, 44.0335
1.764, 2, 35.9151, 48.1278, -14.08, 97.4483, -51.5278, 44.0335
1.768, 2, 35.9151, 48.1278, -14.08, 97.4483, -51.5278, 44.0335
1.772, 2, 35.9151, 48.1278, -14.08, 97.4483, -51.5278, 44.0335
1.776, 2, 35.9151, 48.1278, -14.08, 97.4483, -51.5278, 44.0335
1.78, 2, 35.9151, 48.1278, -14.08, 97.4483, -51.5278, 44.0335
1.784, 2, 35.9151, 48.1278, -14.08, 97.4483, -51.5278, 44.0335
1.788, 2, 35.9151, 48.1278, -14.08, 97.4483, -51.5278, 44.0335
1.792, 2, 35.9151, 48.1278, -14.08, 97.4483, -51.5278, 44.0335
1.796, 2, 35.9151, 48.1278, -14.08, 97.4483, -51.5278, 44.0335
1.8, 2, 35.9151, 48.1278, -14.08, 97.4483, -51.5278, 44.0335
1.804, 2, 35.9151, 48.1278, -14.08, 97.4483, -51.5278, 44.0335
1.808, 2, 35.9151, 48.1278, -14.08, 97.4483, -51.5278, 44.0335
1.812, 2, 35.9151, 48.1278, -14.08, 97.4483, -51.5278, 44.0335
1.816, 2, 35.9151, 48.1278, -14.08, 97.4483, -51.5278, 44.0335
1.82, 2, 35.9151, 48.1278, -14.08, 97.4483, -51.5278, 44.0335
1.824, 2, 35.9151, 48.1278, -14.08, 97.4483, -51.5278, 44.0335
1.828, 2, 35.9151, 48.1278, -14.08, 97.4483, -51.5278, 44.0335
1.832, 2, 35.9151, 48.1278, -14.08, 97.4483, -51.5278, 44.0335
1.836, 2, 35.9151, 48.1278, -14.08, 97.4483, -51.5278, 44.0335
1.84, 2, 35.9151, 48.1278, -14.08, 97.4483, -51.5278, 44.0335
1.844, 2, 35.9151, 48.1278, -14.08, 97.4483, -51.5278, 44.0335
1.848, 2, 35.9151, 48.1278, -14.08, 97.4483, -51.5278, 44.0335
1.852, 2, 35.9151, 48.1278, -14.08, 97.4483, -51.5278, 44.0335
1.856, 2, 35.9151, 48.1278, -14.08, 97.4483, -51.5278, 44.0335
1.86, 2, 35.9151, 48.1278, -14.08, 97.4483, -51.5278, 44.0335
1.864, 2, 35.9151, 48.1278, -14.08, 97.4483, -51.5278, 44.0335
1.868, 2, 35.9151, 48.1278, -14.08, 97.4483, -51.5278, 44.0335
1.872, 2, 35.9151, 48.1278, -14.08, 97.4483, -51.5278, 44.0335
1.876, 2, 35.9151, 48.1278, -14.08, 97.4483, -51.5278, 44.0335
1.88, 2, 35.9151, 48.1278, -14.08, 97.4483, -51.5278, 44.0335
1.884, 2, 35.9151, 48.1278, -14.08, 97.4483, -51.5278, 44.0335
1.888, 2, 35.9151, 48.1278, -14.08, 97.4483, -51.5278, 44.0335
1.892, 2, 35.9151, 48.1278, -14.08, 97.4483, -51.5278, 44.0335
1.896, 2, 35.9151, 48.1278, -14.08, 97.4483, -51.5278, 44.0335
1.9, 2, 35.9151, 48.1278, -14.08, 97.4483, -51.5278, 44.0335
1.904, 2, 35.9151, 48.1278, -14.08, 97.4483, -51.5278, 44.0335
1.908, 2, 35.9151, 48.1278, -14.08, 97.4483, -51.5278, 44.0335
1.912, 2, 35.9151, 48.1278, -14.08, 97.4483, -51.5278, 44.0335
1.916, 2, 35.9151, 48.1278, -14.08, 97.4483, -51.5278, 44.0335
1.92, 2, 35.9151, 48.1278, -14.08, 97.4483, -51.5278, 44.0335
1.924, 2, 35.9151, 48.1278, -14.08, 97.4483, -51.5278, 44.0335
1.928, 2, 35.9151, 48.1278, -14.08, 97.4483, -51.5278, 44.0335
1.932, 2, 35.9151, 48.1278, -14.08, 97.4483, -51.5278, 44.0335
1.936, 2, 35.9151, 48.1278, -14.08, 97.4483, -51.5278, 44.0335
1.94, 2, 35.9151, 48.1278, -14.08, 97.4483, -51.5278, 44.0335
1.944, 2, 35.9151, 48.1278, -14.08, 97.4483, -51.5278, 44.0335
1.948, 2, 35.9151, 48.1278, -14.08, 97.4483, -51.5278, 44.0335
1.952, 2, 35.9151, 48.1278, -14.08, 97.4483, -51.5278, 44.0335
1.956, 2, 35.9151, 48.1278, -14.08, 97.4483, -51.5278, 44.0335
1.96, 2, 35.9151, 48.1278, -14.08, 97.4483, -51.5278, 44.0335
1.964, 2, 35.9151, 48.1278, -14.08, 97.4483, -51.5278, 44.0335
1.968, 2, 35.9151, 48.1278, -14.08, 97.4483, -51.5278, 44.0335
1.972, 2, 35.9151, 48.1278, -14.08, 97.4483, -51.5278, 44.0335
1.976, 2, 35.9151, 48.1278, -14.08, 97.4483, -51.5278, 44.0335
1.98, 2, 35.9151, 48.1278, -14.08, 97.4483, -51.5278, 44.0335
1.984, 2, 35.9151, 48.1278, -14.08, 97.4483, -51.5278, 44.0335
1.988, 2, 35.9151, 48.1278, -14.08, 97.4483, -51.5278, 44.0335
1.992, 2, 35.9151, 48.1278, -14.08, 97.4483, -51.5278, 44.0335
1.996, 2, 35.9151, 48.1278, -14.08, 97.4483, -51.5278, 44.0335
1.999, 2, 35.9151, 48.1278, -14.08, 97.4483, -51.5278, 44.0335
2.004, 2, 35.9151, 48.1278, -14.08, 97.4483, -51.5278, 44.0335
2.008, 2, 35.9151, 48.1278, -14.08, 97.4483, -51.5278, 44.0335
2.012, 2, 35.9151, 48.1278, -14.08, 97.4483, -51.5278, 44.0335
2.015, 2, 35.9151, 48.1278, -14.08, 97.4483, -51.5278, 44.0335
2.019, 2, 35.9151, 48.1278, -14.08, 97.4483, -51.5278, 44.0335
2.024, 2, 35.9151, 48.1278, -14.08, 97.4483, -51.5278, 44.0335
2.028, 2, 35.9151, 48.1278, -14.08, 97.4483, -51.5278, 44.0335
2.031, 2, 35.9151, 48.1278, -14.08, 97.4483, -51.5278, 44.0335
2.036, 2, 35.9151, 48.1278, -14.08, 97.4483, -51.5278, 44.0335
2.04, 2, 35.9151, 48.1278, -14.08, 97.4483, -51.5278, 44.0335
2.044, 4, 35.9151, 48.1278, -14.08, 97.4483, -51.5278, 44.0335
2.048, 4, 35.9151, 48.1278, -14.08, 97.4483, -51.5278, 44.0335
2.051, 4, 35.9151, 48.1278, -14.08, 97.4483, -51.5278, 44.0335
2.055, 4, 35.9151, 48.1278, -14.08, 97.4483, -51.5278, 44.0335
2.06, 4, 35.9151, 48.1278, -14.08, 97.4483, -51.5278, 44.0335
2.064, 4, 35.9151, 48.1278, -14.08, 97.4483, -51.5278, 44.0335
2.068, 4, 35.9151, 48.1278, -14.08, 97.4483, -51.5278, 44.0335
2.071, 4, 35.9151, 48.1278, -14.08, 97.4483, -51.5278, 44.0335
2.076, 4, 35.9151, 48.1278, -14.08, 97.4483, -51.5278, 44.0335
2.08, 4, 35.9151, 48.1278, -14.08, 97.4483, -51.5278, 44.0335
2.084, 4, 35.9151, 48.1278, -14.08, 97.4483, -51.5278, 44.0335
2.087, 4, 35.9151, 48.1278, -14.08, 97.4483, -51.5278, 44.0335
2.092, 4, 35.9151, 48.1278, -14.08, 97.4483, -51.5278, 44.0335
2.096, 4, 35.9151, 48.1278, -14.08, 97.4483, -51.5278, 44.0335
2.1, 4, 35.9151, 48.1278, -14.08, 97.4483, -51.5278, 44.0335
2.104, 4, 35.9151, 48.1278, -14.08, 97.4483, -51.5278, 44.0335
2.107, 4, 35.9151, 48.1278, -14.08, 97.4483, -51.5278, 44.0335
2.111, 4, 35.9151, 48.1278, -14.08, 97.4483, -51.5278, 44.0335
2.116, 4, 35.9151, 48.1278, -14.08, 97.4483, -51.5278, 44.0335
2.12, 4, 35.9151, 48.1278, -14.08, 97.4483, -51.5278, 44.0335
2.124, 4, 35.9151, 48.1278, -14.08, 97.4483, -51.5278, 44.0335
2.127, 4, 35.9151, 48.1278, -14.08, 97.4483, -51.5278, 44.0335
2.132, 4, 35.9151, 48.1278, -14.08, 97.4483, -51.5278, 44.0335
2.136, 4, 35.9151, 48.1278, -14.08, 97.4483, -51.5278, 44.0335
2.14, 4, 35.9151, 48.1278, -14.08, 97.4483, -51.5278, 44.0335
2.143, 4, 35.9151, 48.1278, -14.08, 97.4483, -51.5278, 44.0335
2.149, 4, 35.9151, 48.1278, -14.08, 97.4483, -51.5278, 44.0335
2.152, 4, 35.9151, 48.1278, -14.08, 97.4483, -51.5278, 44.0335
2.156, 4, 35.9151, 48.1278, -14.08, 97.4483, -51.5278, 44.0335
2.16, 4, 35.9151, 48.1278, -14.08, 97.4483, -51.5278, 44.0335
2.163, 4, 35.9151, 48.1278, -14.08, 97.4483, -51.5278, 44.0335
2.168, 4, 35.9151, 48.1278, -14.08, 97.4483, -51.5278, 44.0335
2.172, 4, 35.9151, 48.1278, -14.08, 97.4483, -51.5278, 44.0335
2.176, 4, 35.9151, 48.1278, -14.08, 97.4483, -51.5278, 44.0335
2.179, 4, 35.9151, 48.1278, -14.08, 97.4483, -51.5278, 44.0335
2.184, 4, 35.915, 48.128, -14.08, 97.4483, -51.5279, 44.0335
2.188, 4, 35.9148, 48.1283, -14.08, 97.4483, -51.5279, 44.0335
2.192, 4, 35.9144, 48.1291, -14.08, 97.4483, -51.5281, 44.0334
2.196, 4, 35.9137, 48.1303, -14.08, 97.4482, -51.5284, 44.0333
2.199, 4, 35.9128, 48.1322, -14.0799, 97.4481, -51.5292, 44.033
2.204, 4, 35.9115, 48.1347, -14.0798, 97.4478, -51.5306, 44.0325
2.208, 4, 35.91, 48.1379, -14.0797, 97.4474, -51.533, 44.0316
2.212, 4, 35.9083, 48.1418, -14.0795, 97.4468, -51.5368, 44.0301
2.216, 5, 35.9064, 48.1464, -14.0792, 97.4459, -51.5426, 44.0279
2.219, 5, 35.9045, 48.1518, -14.0787, 97.4445, -51.5508, 44.0248
2.224, 5, 35.9025, 48.1578, -14.0782, 97.4426, -51.562, 44.0205
2.228, 5, 35.9003, 48.1647, -14.0774, 97.4401, -51.5768, 44.0149
2.232, 5, 35.8981, 48.1724, -14.0764, 97.4369, -51.5956, 44.0077
2.235, 5, 35.8959, 48.1809, -14.0752, 97.4329, -51.619, 43.9988
2.24, 5, 35.8936, 48.19, -14.0738, 97.4281, -51.6474, 43.988
2.244, 5, 35.8914, 48.1997, -14.072, 97.4223, -51.681, 43.9752
2.248, 5, 35.8893, 48.21, -14.07, 97.4156, -51.72, 43.9603
2.252, 5, 35.8872, 48.2208, -14.0677, 97.408, -51.7645, 43.9434
2.255, 5, 35.8851, 48.2323, -14.0651, 97.3993, -51.8142, 43.9245
2.259, 5, 35.8831, 48.2443, -14.0622, 97.3898, -51.869, 43.9037
2.264, 5, 35.8809, 48.2572, -14.059, 97.3794, -51.9285, 43.8811
2.268, 5, 35.8787, 48.271, -14.0556, 97.3683, -51.9921, 43.857
2.272, 5, 35.8763, 48.2855, -14.0519, 97.3565, -52.0595, 43.8314
2.275, 5, 35.8738, 48.3008, -14.048, 97.344, -52.13, 43.8047
2.28, 5, 35.8712, 48.3169, -14.0439, 97.331, -52.2033, 43.777
2.284, 5, 35.8684, 48.3337, -14.0395, 97.3175, -52.2786, 43.7486
2.288, 5, 35.8654, 48.3512, -14.0351, 97.3037, -52.3557, 43.7195
2.291, 5, 35.8621, 48.3693, -14.0304, 97.2896, -52.4341, 43.6899
2.296, 5, 35.8587, 48.388, -14.0257, 97.2752, -52.5135, 43.66
2.3, 5, 35.8549, 48.4073, -14.0208, 97.2606, -52.5935, 43.6299
2.304, 5, 35.8509, 48.427, -14.0158, 97.2459, -52.674, 43.5997
2.308, 5, 35.8468, 48.4471, -14.0107, 97.231, -52.7548, 43.5694
2.311, 5, 35.8424, 48.4674, -14.0055, 97.216, -52.8358, 43.5391
2.316, 5, 35.838, 48.4878, -14.0002, 97.2009, -52.917, 43.5087
2.32, 5, 35.8335, 48.5083, -13.9948, 97.1857, -52.9982, 43.4784
2.324, 5, 35.8289, 48.5289, -13.9894, 97.1704, -53.0794, 43.4481
2.328, 5, 35.8243, 48.5495, -13.9838, 97.155, -53.1607, 43.4178
2.331, 5, 35.8196, 48.57, -13.9782, 97.1395, -53.242, 43.3876
2.336, 5, 35.8149, 48.5906, -13.9724, 97.1239, -53.3232, 43.3574
2.34, 5, 35.8101, 48.6111, -13.9666, 97.1082, -53.4044, 43.3272
2.344, 5, 35.8053, 48.6316, -13.9607, 97.0925, -53.4857, 43.2971
2.347, 5, 35.8005, 48.652, -13.9547, 97.0766, -53.5669, 43.267
2.352, 5, 35.7956, 48.6724, -13.9486, 97.0607, -53.648, 43.237
2.356, 5, 35.7908, 48.6927, -13.9425, 97.0447, -53.7292, 43.2071
2.36, 5, 35.7858, 48.7131, -13.9362, 97.0287, -53.8103, 43.1771
2.364, 5, 35.7809, 48.7333, -13.9299, 97.0125, -53.8914, 43.1473
2.367, 5, 35.7759, 48.7535, -13.9235, 96.9963, -53.9724, 43.1175
2.372, 5, 35.7709, 48.7737, -13.917, 96.9799, -54.0534, 43.0877
2.376, 5, 35.7659, 48.7938, -13.9104, 96.9635, -54.1344, 43.058
2.38, 5, 35.7608, 48.8139, -13.9037, 96.9471, -54.2154, 43.0283
2.383, 5, 35.7558, 48.8339, -13.8969, 96.9305, -54.2963, 42.9986
2.388, 5, 35.7507, 48.8539, -13.8901, 96.9139, -54.3772, 42.9691
2.392, 5, 35.7455, 48.8738, -13.8831, 96.8972, -54.4581, 42.9395
2.396, 5, 35.7403, 48.8936, -13.8761, 96.8804, -54.5389, 42.91
2.4, 5, 35.7351, 48.9135, -13.869, 96.8635, -54.6197, 42.8806
2.403, 5, 35.7299, 48.9332, -13.8617, 96.8466, -54.7005, 42.8512
2.408, 5, 35.7247, 48.9529, -13.8545, 96.8295, -54.7812, 42.8218
2.412, 5, 35.7194, 48.9726, -13.8471, 96.8124, -54.8619, 42.7925
2.416, 5, 35.7141, 48.9922, -13.8396, 96.7952, -54.9426, 42.7632
2.42, 5, 35.7088, 49.0118, -13.832, 96.778, -55.0232, 42.734
2.423, 5, 35.7034, 49.0313, -13.8244, 96.7607, -55.1038, 42.7048
2.428, 5, 35.698, 49.0508, -13.8167, 96.7433, -55.1844, 42.6757
2.432, 5, 35.6926, 49.0702, -13.8088, 96.7258, -55.2649, 42.6466
2.436, 5, 35.6871, 49.0896, -13.8009, 96.7082, -55.3455, 42.6175
2.439, 5, 35.6817, 49.1089, -13.7929, 96.6906, -55.4259, 42.5885
2.444, 5, 35.6762, 49.1282, -13.7848, 96.6729, -55.5064, 42.5595
2.448, 5, 35.6706, 49.1474, -13.7767, 96.6551, -55.5868, 42.5306
2.452, 5, 35.6651, 49.1666, -13.7684, 96.6373, -55.6672, 42.5017
2.456, 5, 35.6595, 49.1857, -13.7601, 96.6194, -55.7476, 42.4729
2.459, 5, 35.6539, 49.2048, -13.7516, 96.6014, -55.8279, 42.4441
2.464, 5, 35.6482, 49.2238, -13.7431, 96.5833, -55.9082, 42.4153
2.468, 5, 35.6426, 49.2427, -13.7345, 96.5651, -55.9885, 42.3866
2.472, 5, 35.6369, 49.2617, -13.7258, 96.5469, -56.0687, 42.3579
2.476, 5, 35.6311, 49.2805, -13.717, 96.5286, -56.1489, 42.3292
2.479, 5, 35.6254, 49.2993, -13.7081, 96.5103, -56.2291, 42.3006
2.484, 5, 35.6196, 49.3181, -13.6992, 96.4918, -56.3093, 42.272
2.488, 5, 35.6138, 49.3368, -13.6901, 96.4733, -56.3894, 42.2435
2.492, 5, 35.608, 49.3555, -13.681, 96.4548, -56.4695, 42.215
2.495, 5, 35.6021, 49.3741, -13.6717, 96.4361, -56.5495, 42.1866
2.5, 5, 35.5962, 49.3927, -13.6624, 96.4174, -56.6296, 42.1581
2.504, 5, 35.5903, 49.4112, -13.653, 96.3986, -56.7095, 42.1297
2.508, 5, 35.5843, 49.4296, -13.6435, 96.3798, -56.7895, 42.1014
2.512, 5, 35.5784, 49.448, -13.634, 96.3608, -56.8695, 42.0731
2.515, 5, 35.5724, 49.4664, -13.6243, 96.3418, -56.9494, 42.0448
2.52, 5, 35.5663, 49.4847, -13.6146, 96.3228, -57.0292, 42.0166
2.524, 5, 35.5603, 49.5029, -13.6047, 96.3036, -57.1091, 41.9884
2.528, 5, 35.5542, 49.5211, -13.5948, 96.2844, -57.1889, 41.9602
2.531, 5, 35.5481, 49.5393, -13.5848, 96.2652, -57.2687, 41.9321
2.536, 5, 35.542, 49.5574, -13.5747, 96.2458, -57.3484, 41.904
2.54, 5, 35.5358, 49.5754, -13.5645, 96.2264, -57.4282, 41.876
2.544, 5, 35.5296, 49.5934, -13.5542, 96.2069, -57.5079, 41.8479
2.548, 5, 35.5234, 49.6114, -13.5439, 96.1874, -57.5875, 41.8199
2.551, 5, 35.5171, 49.6293, -13.5334, 96.1678, -57.6672, 41.792
2.556, 5, 35.5109, 49.6471, -13.5229, 96.1481, -57.7468, 41.7641
2.56, 5, 35.5046, 49.6649, -13.5123, 96.1284, -57.8264, 41.7362
2.564, 5, 35.4982, 49.6826, -13.5016, 96.1086, -57.9059, 41.7083
2.568, 5, 35.4919, 49.7003, -13.4908, 96.0887, -57.9854, 41.6805
2.571, 5, 35.4855, 49.718, -13.4799, 96.0687, -58.0649, 41.6527
2.576, 5, 35.4791, 49.7355, -13.4689, 96.0487, -58.1444, 41.625
2.58, 5, 35.4726, 49.7531, -13.4579, 96.0287, -58.2238, 41.5973
2.584, 5, 35.4662, 49.7705, -13.4467, 96.0085, -58.3032, 41.5696
2.587, 5, 35.4597, 49.788, -13.4355, 95.9883, -58.3826, 41.5419
2.592, 5, 35.4532, 49.8053, -13.4242, 95.968, -58.4619, 41.5143
2.596, 5, 35.4466, 49.8226, -13.4128, 95.9477, -58.5412, 41.4867
2.6, 5, 35.4401, 49.8399, -13.4013, 95.9273, -58.6205, 41.4591
2.604, 5, 35.4335, 49.8571, -13.3897, 95.9068, -58.6998, 41.4316
2.607, 5, 35.4268, 49.8743, -13.378, 95.8863, -58.779, 41.4041
2.612, 5, 35.4202, 49.8914, -13.3663, 95.8657, -58.8582, 41.3766
2.616, 5, 35.4135, 49.9085, -13.3544, 95.845, -58.9374, 41.3492
2.62, 5, 35.4068, 49.9255, -13.3425, 95.8243, -59.0165, 41.3218
2.624, 5, 35.4001, 49.9424, -13.3305, 95.8035, -59.0956, 41.2944
2.627, 5, 35.3933, 49.9593, -13.3184, 95.7827, -59.1747, 41.2671
2.632, 5, 35.3865, 49.9761, -13.3062, 95.7618, -59.2538, 41.2397
2.636, 5, 35.3797, 49.9929, -13.2939, 95.7408, -59.3328, 41.2124
2.64, 5, 35.3729, 50.0097, -13.2815, 95.7198, -59.4118, 41.1852
2.643, 5, 35.366, 50.0263, -13.2691, 95.6987, -59.4908, 41.1579
2.648, 5, 35.3591, 50.043, -13.2565, 95.6775, -59.5697, 41.1307
2.652, 5, 35.3522, 50.0596, -13.2439, 95.6563, -59.6486, 41.1036
2.656, 5, 35.3452, 50.0761, -13.2312, 95.635, -59.7275, 41.0764
2.66, 5, 35.3383, 50.0925, -13.2184, 95.6137, -59.8063, 41.0493
2.663, 5, 35.3313, 50.109, -13.2055, 95.5923, -59.8852, 41.0222
2.668, 5, 35.3242, 50.1253, -13.1925, 95.5708, -59.9639, 40.9951
2.672, 5, 35.3172, 50.1416, -13.1795, 95.5493, -60.0427, 40.9681
2.676, 5, 35.3101, 50.1579, -13.1663, 95.5277, -60.1214, 40.941
2.679, 5, 35.303, 50.1741, -13.1531, 95.506, -60.2002, 40.9141
2.684, 5, 35.2959, 50.1902, -13.1397, 95.4843, -60.2788, 40.8871
2.688, 5, 35.2887, 50.2063, -13.1263, 95.4626, -60.3575, 40.8601
2.692, 5, 35.2815, 50.2224, -13.1128, 95.4407, -60.4361, 40.8332
2.696, 5, 35.2743, 50.2383, -13.0992, 95.4188, -60.5147, 40.8063
2.699, 5, 35.2671, 50.2543, -13.0856, 95.3969, -60.5933, 40.7795
2.704, 5, 35.2598, 50.2702, -13.0718, 95.3749, -60.6718, 40.7526
2.708, 5, 35.2525, 50.286, -13.0579, 95.3528, -60.7503, 40.7258
2.712, 5, 35.2452, 50.3017, -13.044, 95.3307, -60.8288, 40.699
2.716, 5, 35.2378, 50.3175, -13.03, 95.3085, -60.9073, 40.6723
2.719, 5, 35.2304, 50.3331, -13.0159, 95.2863, -60.9857, 40.6455
2.724, 5, 35.223, 50.3487, -13.0016, 95.264, -61.0641, 40.6188
2.728, 5, 35.2156, 50.3643, -12.9874, 95.2416, -61.1424, 40.5921
2.732, 5, 35.2082, 50.3797, -12.973, 95.2192, -61.2208, 40.5654
2.735, 5, 35.2007, 50.3952, -12.9585, 95.1968, -61.2991, 40.5388
2.74, 5, 35.1932, 50.4106, -12.944, 95.1742, -61.3774, 40.5122
2.744, 5, 35.1856, 50.4259, -12.9293, 95.1516, -61.4556, 40.4856
2.748, 5, 35.1781, 50.4412, -12.9146, 95.129, -61.5339, 40.459
2.752, 5, 35.1705, 50.4564, -12.8998, 95.1063, -61.6121, 40.4324
2.755, 5, 35.1629, 50.4715, -12.8849, 95.0836, -61.6902, 40.4059
2.76, 5, 35.1553, 50.4866, -12.8699, 95.0608, -61.7684, 40.3793
2.764, 5, 35.1476, 50.5017, -12.8548, 95.0379, -61.8465, 40.3529
2.768, 5, 35.1399, 50.5167, -12.8396, 95.015, -61.9246, 40.3264
2.772, 5, 35.1322, 50.5316, -12.8244, 94.992, -62.0026, 40.2999
2.775, 5, 35.1244, 50.5465, -12.809, 94.969, -62.0807, 40.2735
2.78, 5, 35.1167, 50.5613, -12.7936, 94.9459, -62.1587, 40.2471
2.784, 5, 35.1089, 50.5761, -12.7781, 94.9227, -62.2366, 40.2207
2.788, 5, 35.101, 50.5908, -12.7625, 94.8995, -62.3146, 40.1943
2.791, 5, 35.0932, 50.6055, -12.7468, 94.8763, -62.3925, 40.1679
2.796, 5, 35.0853, 50.6201, -12.731, 94.853, -62.4704, 40.1416
2.8, 5, 35.0774, 50.6346, -12.7151, 94.8296, -62.5483, 40.1153
2.804, 5, 35.0695, 50.6491, -12.6991, 94.8062, -62.6261, 40.089
2.808, 5, 35.0615, 50.6635, -12.6831, 94.7827, -62.7039, 40.0627
2.811, 5, 35.0535, 50.6779, -12.6669, 94.7592, -62.7817, 40.0364
2.816, 5, 35.0455, 50.6922, -12.6507, 94.7356, -62.8595, 40.0102
2.82, 5, 35.0375, 50.7065, -12.6344, 94.712, -62.9372, 39.984
2.824, 5, 35.0294, 50.7207, -12.618, 94.6883, -63.0149, 39.9578
2.828, 5, 35.0213, 50.7348, -12.6015, 94.6646, -63.0926, 39.9316
2.831, 5, 35.0132, 50.7489, -12.5849, 94.6408, -63.1702, 39.9054
2.836, 5, 35.0051, 50.763, -12.5682, 94.617, -63.2478, 39.8792
2.84, 5, 34.9969, 50.7769, -12.5515, 94.5931, -63.3254, 39.8531
2.844, 5, 34.9887, 50.7909, -12.5346, 94.5691, -63.403, 39.827
2.847, 5, 34.9805, 50.8047, -12.5177, 94.5451, -63.4805, 39.8009
2.852, 5, 34.9723, 50.8185, -12.5006, 94.5211, -63.558, 39.7748
2.856, 5, 34.964, 50.8323, -12.4835, 94.497, -63.6355, 39.7487
2.86, 5, 34.9557, 50.846, -12.4663, 94.4729, -63.7129, 39.7227
2.864, 5, 34.9474, 50.8596, -12.449, 94.4487, -63.7904, 39.6966
2.867, 5, 34.9391, 50.8732, -12.4317, 94.4244, -63.8678, 39.6706
2.872, 5, 34.9307, 50.8867, -12.4142, 94.4001, -63.9451, 39.6446
2.876, 5, 34.9224, 50.9002, -12.3967, 94.3758, -64.0225, 39.6185
2.88, 5, 34.914, 50.9137, -12.3791, 94.3515, -64.0999, 39.5926
2.883, 5, 34.9056, 50.9271, -12.3614, 94.3271, -64.1772, 39.5666
2.888, 5, 34.8972, 50.9404, -12.3437, 94.3027, -64.2545, 39.5406
2.892, 5, 34.8888, 50.9537, -12.326, 94.2784, -64.3319, 39.5146
2.896, 5, 34.8803, 50.967, -12.3082, 94.254, -64.4092, 39.4886
2.9, 5, 34.8718, 50.9803, -12.2904, 94.2296, -64.4866, 39.4627
2.903, 5, 34.8633, 50.9936, -12.2725, 94.2053, -64.5639, 39.4367
2.908, 5, 34.8548, 51.0069, -12.2547, 94.1811, -64.6413, 39.4107
2.912, 6, 34.8462, 51.0201, -12.2368, 94.1568, -64.7188, 39.3847
2.916, 6, 34.8376, 51.0334, -12.219, 94.1327, -64.7963, 39.3587
2.92, 6, 34.829, 51.0467, -12.2012, 94.1086, -64.8738, 39.3327
2.923, 6, 34.8204, 51.06, -12.1834, 94.0846, -64.9513, 39.3067
2.928, 6, 34.8117, 51.0733, -12.1657, 94.0607, -65.029, 39.2807
2.932, 6, 34.803, 51.0866, -12.148, 94.0368, -65.1066, 39.2547
2.936, 6, 34.7943, 51.1, -12.1304, 94.0131, -65.1844, 39.2287
2.939, 6, 34.7855, 51.1135, -12.1129, 93.9894, -65.2622, 39.2027
2.944, 6, 34.7767, 51.1269, -12.0955, 93.9659, -65.34, 39.1767
2.948, 6, 34.7679, 51.1405, -12.0781, 93.9425, -65.4179, 39.1506
2.952, 6, 34.7591, 51.1541, -12.0609, 93.9191, -65.4959, 39.1246
2.956, 6, 34.7502, 51.1677, -12.0437, 93.8959, -65.5739, 39.0986
2.959, 6, 34.7413, 51.1814, -12.0266, 93.8727, -65.652, 39.0726
2.964, 6, 34.7324, 51.1952, -12.0097, 93.8496, -65.7302, 39.0466
2.968, 6, 34.7235, 51.209, -11.9928, 93.8266, -65.8084, 39.0207
2.972, 6, 34.7145, 51.2229, -11.976, 93.8037, -65.8866, 38.9947
2.976, 6, 34.7055, 51.2369, -11.9593, 93.7808, -65.9649, 38.9688
2.98, 6, 34.6965, 51.2509, -11.9427, 93.758, -66.0432, 38.9429
2.984, 6, 34.6874, 51.265, -11.9262, 93.7353, -66.1216, 38.917
2.988, 6, 34.6784, 51.2792, -11.9097, 93.7125, -66.1999, 38.8911
2.992, 6, 34.6693, 51.2935, -11.8933, 93.6898, -66.2783, 38.8652
2.995, 6, 34.6602, 51.3078, -11.877, 93.6671, -66.3567, 38.8394
3, 6, 34.651, 51.3222, -11.8607, 93.6444, -66.4351, 38.8136
3.004, 6, 34.6419, 51.3367, -11.8445, 93.6217, -66.5135, 38.7879
3.008, 6, 34.6327, 51.3512, -11.8283, 93.599, -66.5919, 38.7621
3.012, 6, 34.6234, 51.3658, -11.8121, 93.5762, -66.6703, 38.7364
3.015, 6, 34.6142, 51.3805, -11.7959, 93.5535, -66.7487, 38.7108
3.02, 6, 34.6049, 51.3952, -11.7798, 93.5307, -66.8271, 38.6852
3.024, 6, 34.5956, 51.41, -11.7637, 93.5079, -66.9055, 38.6596
3.028, 6, 34.5863, 51.4248, -11.7476, 93.485, -66.9838, 38.634
3.031, 6, 34.5769, 51.4397, -11.7315, 93.4622, -67.0622, 38.6085
3.036, 6, 34.5675, 51.4547, -11.7155, 93.4393, -67.1405, 38.583
3.04, 6, 34.558, 51.4697, -11.6995, 93.4163, -67.2188, 38.5576
3.044, 6, 34.5486, 51.4847, -11.6834, 93.3933, -67.2971, 38.5321
3.048, 6, 34.5391, 51.4999, -11.6674, 93.3703, -67.3754, 38.5068
3.051, 6, 34.5295, 51.515, -11.6515, 93.3473, -67.4536, 38.4814
3.056, 6, 34.5199, 51.5303, -11.6355, 93.3242, -67.5319, 38.4561
3.06, 6, 34.5103, 51.5455, -11.6195, 93.3011, -67.6101, 38.4308
3.064, 6, 34.5007, 51.5609, -11.6036, 93.278, -67.6883, 38.4056
3.068, 6, 34.491, 51.5763, -11.5877, 93.2548, -67.7665, 38.3804
3.071, 6, 34.4813, 51.5917, -11.5718, 93.2316, -67.8447, 38.3552
3.076, 6, 34.4715, 51.6072, -11.5559, 93.2084, -67.9229, 38.3301
3.08, 6, 34.4617, 51.6228, -11.54, 93.1851, -68.001, 38.305
3.084, 6, 34.4519, 51.6384, -11.5241, 93.1618, -68.0791, 38.2799
3.087, 6, 34.442, 51.654, -11.5083, 93.1384, -68.1573, 38.2549
3.092, 6, 34.4321, 51.6697, -11.4925, 93.1151, -68.2354, 38.2299
3.096, 6, 34.4222, 51.6855, -11.4767, 93.0916, -68.3135, 38.2049
3.1, 6, 34.4122, 51.7013, -11.4609, 93.0682, -68.3916, 38.18
3.104, 6, 34.4022, 51.7172, -11.4451, 93.0447, -68.4696, 38.1551
3.107, 6, 34.3921, 51.7331, -11.4293, 93.0212, -68.5477, 38.1302
3.112, 6, 34.382, 51.7491, -11.4136, 92.9977, -68.6257, 38.1054
3.116, 6, 34.3719, 51.7651, -11.3978, 92.9741, -68.7037, 38.0806
3.12, 6, 34.3618, 51.7812, -11.3821, 92.9505, -68.7817, 38.0558
3.124, 6, 34.3516, 51.7974, -11.3664, 92.9269, -68.8597, 38.0311
3.128, 6, 34.3413, 51.8135, -11.3507, 92.9032, -68.9377, 38.0064
3.132, 6, 34.3311, 51.8298, -11.335, 92.8795, -69.0156, 37.9817
3.136, 6, 34.3208, 51.8461, -11.3194, 92.8558, -69.0936, 37.9571
3.14, 6, 34.3104, 51.8624, -11.3037, 92.832, -69.1715, 37.9325
3.143, 6, 34.3001, 51.8788, -11.2881, 92.8082, -69.2494, 37.9079
3.148, 6, 34.2896, 51.8953, -11.2725, 92.7844, -69.3273, 37.8834
3.152, 6, 34.2792, 51.9118, -11.2569, 92.7605, -69.4052, 37.8588
3.156, 6, 34.2687, 51.9284, -11.2413, 92.7366, -69.4831, 37.8344
3.16, 6, 34.2582, 51.945, -11.2257, 92.7127, -69.5609, 37.8099
3.163, 6, 34.2476, 51.9616, -11.2102, 92.6888, -69.6388, 37.7855
3.168, 6, 34.237, 51.9783, -11.1947, 92.6648, -69.7166, 37.7611
3.172, 6, 34.2264, 51.9951, -11.1791, 92.6408, -69.7944, 37.7368
3.176, 6, 34.2157, 52.0119, -11.1636, 92.6167, -69.8722, 37.7125
3.179, 6, 34.205, 52.0288, -11.1481, 92.5926, -69.95, 37.6882
3.184, 6, 34.1943, 52.0457, -11.1327, 92.5685, -70.0277, 37.6639
3.188, 6, 34.1835, 52.0627, -11.1172, 92.5444, -70.1055, 37.6397
3.192, 6, 34.1727, 52.0798, -11.1018, 92.5202, -70.1832, 37.6155
3.196, 6, 34.1618, 52.0968, -11.0864, 92.496, -70.261, 37.5914
3.199, 6, 34.1509, 52.114, -11.071, 92.4718, -70.3387, 37.5672
3.204, 6, 34.14, 52.1312, -11.0556, 92.4475, -70.4164, 37.5431
3.208, 6, 34.129, 52.1484, -11.0402, 92.4232, -70.494, 37.5191
3.212, 6, 34.118, 52.1657, -11.0248, 92.3989, -70.5717, 37.495
3.216, 6, 34.107, 52.183, -11.0095, 92.3745, -70.6494, 37.471
3.22, 6, 34.0959, 52.2004, -10.9941, 92.3501, -70.727, 37.447
3.224, 6, 34.0848, 52.2179, -10.9788, 92.3257, -70.8046, 37.4231
3.228, 6, 34.0736, 52.2354, -10.9635, 92.3013, -70.8822, 37.3992
3.232, 6, 34.0624, 52.2529, -10.9483, 92.2768, -70.9598, 37.3753
3.235, 6, 34.0512, 52.2705, -10.933, 92.2523, -71.0374, 37.3514
3.24, 6, 34.0399, 52.2882, -10.9177, 92.2277, -71.115, 37.3276
3.244, 6, 34.0286, 52.3059, -10.9025, 92.2032, -71.1926, 37.3038
3.248, 6, 34.0173, 52.3236, -10.8873, 92.1786, -71.2701, 37.28
3.252, 6, 34.0059, 52.3414, -10.8721, 92.154, -71.3476, 37.2562
3.255, 6, 33.9945, 52.3593, -10.8569, 92.1293, -71.4251, 37.2325
3.26, 6, 33.983, 52.3772, -10.8417, 92.1046, -71.5026, 37.2088
3.264, 6, 33.9715, 52.3952, -10.8266, 92.0799, -71.5801, 37.1852
3.268, 6, 33.96, 52.4132, -10.8114, 92.0551, -71.6576, 37.1616
3.272, 6, 33.9484, 52.4313, -10.7963, 92.0304, -71.7351, 37.138
3.276, 6, 33.9368, 52.4494, -10.7812, 92.0056, -71.8125, 37.1144
3.28, 6, 33.9252, 52.4675, -10.7661, 91.9808, -71.89, 37.0908
3.284, 6, 33.9135, 52.4858, -10.751, 91.9559, -71.9674, 37.0673
3.288, 6, 33.9018, 52.504, -10.736, 91.931, -72.0448, 37.0438
3.291, 6, 33.89, 52.5223, -10.7209, 91.9061, -72.1222, 37.0204
3.296, 6, 33.8782, 52.5407, -10.7059, 91.8811, -72.1996, 36.997
3.3, 6, 33.8664, 52.5591, -10.6909, 91.8562, -72.2769, 36.9735
3.304, 6, 33.8545, 52.5776, -10.6759, 91.8312, -72.3543, 36.9502
3.308, 6, 33.8426, 52.5961, -10.6609, 91.8061, -72.4316, 36.9268
3.312, 6, 33.8306, 52.6147, -10.646, 91.7811, -72.5089, 36.9035
3.316, 6, 33.8186, 52.6333, -10.631, 91.756, -72.5863, 36.8802
3.32, 6, 33.8066, 52.652, -10.6161, 91.7308, -72.6636, 36.8569
3.324, 6, 33.7945, 52.6707, -10.6012, 91.7057, -72.7409, 36.8337
3.328, 6, 33.7824, 52.6895, -10.5863, 91.6805, -72.8181, 36.8105
3.332, 6, 33.7702, 52.7083, -10.5714, 91.6553, -72.8954, 36.7873
3.336, 6, 33.7581, 52.7272, -10.5565, 91.6301, -72.9726, 36.7641
3.34, 6, 33.7458, 52.7461, -10.5417, 91.6048, -73.0499, 36.741
3.344, 6, 33.7336, 52.7651, -10.5268, 91.5795, -73.1271, 36.7179
3.347, 6, 33.7213, 52.7841, -10.512, 91.5542, -73.2043, 36.6948
3.352, 6, 33.7089, 52.8032, -10.4972, 91.5289, -73.2815, 36.6718
3.356, 6, 33.6965, 52.8223, -10.4824, 91.5035, -73.3587, 36.6487
3.36, 6, 33.6841, 52.8415, -10.4676, 91.4781, -73.4359, 36.6257
3.364, 6, 33.6716, 52.8608, -10.4529, 91.4527, -73.513, 36.6028
3.368, 6, 33.6591, 52.88, -10.4382, 91.4273, -73.5902, 36.5798
3.372, 6, 33.6466, 52.8994, -10.4234, 91.4018, -73.6673, 36.5569
3.376, 6, 33.634, 52.9188, -10.4087, 91.3763, -73.7444, 36.534
3.38, 6, 33.6214, 52.9382, -10.394, 91.3507, -73.8215, 36.5111
3.383, 6, 33.6087, 52.9577, -10.3794, 91.3252, -73.8986, 36.4883
3.388, 6, 33.596, 52.9772, -10.3647, 91.2996, -73.9757, 36.4655
3.392, 6, 33.5833, 52.9968, -10.3501, 91.274, -74.0528, 36.4427
3.396, 6, 33.5705, 53.0164, -10.3354, 91.2483, -74.1299, 36.4199
3.4, 6, 33.5577, 53.0361, -10.3208, 91.2227, -74.2069, 36.3971
3.403, 6, 33.5448, 53.0558, -10.3063, 91.197, -74.2839, 36.3744
3.408, 6, 33.5319, 53.0756, -10.2917, 91.1713, -74.361, 36.3517
3.412, 6, 33.519, 53.0954, -10.2771, 91.1455, -74.438, 36.329
3.416, 6, 33.506, 53.1153, -10.2626, 91.1197, -74.515, 36.3064
3.42, 6, 33.493, 53.1352, -10.2481, 91.0939, -74.592, 36.2838
3.424, 6, 33.4799, 53.1552, -10.2335, 91.0681, -74.6689, 36.2612
3.428, 6, 33.4668, 53.1753, -10.2191, 91.0423, -74.7459, 36.2386
3.432, 6, 33.4537, 53.1953, -10.2046, 91.0164, -74.8228, 36.216
3.436, 6, 33.4405, 53.2155, -10.1901, 90.9905, -74.8998, 36.1935
3.439, 6, 33.4273, 53.2356, -10.1757, 90.9645, -74.9767, 36.171
3.444, 6, 33.414, 53.2559, -10.1613, 90.9386, -75.0536, 36.1485
3.448, 6, 33.4007, 53.2762, -10.1468, 90.9126, -75.1305, 36.1261
3.452, 6, 33.3874, 53.2965, -10.1325, 90.8866, -75.2074, 36.1036
3.456, 6, 33.374, 53.3169, -10.1181, 90.8606, -75.2843, 36.0812
3.46, 6, 33.3606, 53.3373, -10.1037, 90.8345, -75.3612, 36.0588
3.464, 6, 33.3471, 53.3578, -10.0894, 90.8084, -75.438, 36.0365
3.468, 6, 33.3336, 53.3783, -10.0751, 90.7823, -75.5149, 36.0141
3.472, 6, 33.3201, 53.3989, -10.0608, 90.7562, -75.5917, 35.9918
3.476, 6, 33.3065, 53.4195, -10.0465, 90.73, -75.6685, 35.9695
3.48, 6, 33.2928, 53.4402, -10.0322, 90.7038, -75.7453, 35.9473
3.484, 6, 33.2792, 53.4609, -10.0179, 90.6776, -75.8221, 35.925
3.488, 6, 33.2655, 53.4816, -10.0037, 90.6513, -75.8989, 35.9028
3.492, 6, 33.2517, 53.5025, -9.98948, 90.6251, -75.9757, 35.8806
3.495, 6, 33.2379, 53.5233, -9.97528, 90.5988, -76.0524, 35.8584
3.5, 6, 33.2241, 53.5442, -9.96109, 90.5725, -76.1292, 35.8362
3.504, 6, 33.2102, 53.5652, -9.94692, 90.5461, -76.2059, 35.8141
3.508, 6, 33.1963, 53.5862, -9.93277, 90.5197, -76.2827, 35.792
3.512, 6, 33.1824, 53.6073, -9.91864, 90.4933, -76.3594, 35.7699
3.516, 6, 33.1684, 53.6284, -9.90452, 90.4669, -76.4361, 35.7478
3.52, 6, 33.1543, 53.6496, -9.89042, 90.4405, -76.5128, 35.7258
3.524, 6, 33.1403, 53.6708, -9.87634, 90.414, -76.5895, 35.7038
3.528, 6, 33.1261, 53.692, -9.86228, 90.3875, -76.6662, 35.6817
3.531, 6, 33.112, 53.7133, -9.84824, 90.361, -76.7428, 35.6598
3.536, 6, 33.0978, 53.7347, -9.83421, 90.3344, -76.8195, 35.6378
3.54, 6, 33.0835, 53.7561, -9.8202, 90.3079, -76.8961, 35.6158
3.544, 6, 33.0692, 53.7775, -9.80621, 90.2813, -76.9727, 35.5939
3.548, 6, 33.0549, 53.799, -9.79223, 90.2547, -77.0494, 35.572
3.552, 6, 33.0406, 53.8206, -9.77827, 90.228, -77.126, 35.5501
3.556, 6, 33.0262, 53.8422, -9.76433, 90.2013, -77.2026, 35.5283
3.56, 6, 33.0117, 53.8638, -9.75041, 90.1746, -77.2792, 35.5064
3.564, 6, 32.9974, 53.8854, -9.73651, 90.1479, -77.3558, 35.4846
3.568, 6, 32.9833, 53.9069, -9.72261, 90.1212, -77.4323, 35.4628
3.572, 6, 32.9695, 53.9282, -9.70873, 90.0944, -77.5088, 35.4411
3.576, 6, 32.9561, 53.9491, -9.69487, 90.0677, -77.5851, 35.4194
3.58, 6, 32.9433, 53.9695, -9.68104, 90.041, -77.6613, 35.3977
3.584, 6, 32.931, 53.9892, -9.66728, 90.0145, -77.737, 35.3763
3.587, 6, 32.9192, 54.008, -9.65361, 89.9881, -77.812, 35.355
3.592, 6, 32.9079, 54.0259, -9.64011, 89.9621, -77.8861, 35.334
3.596, 6, 32.897, 54.0429, -9.62683, 89.9365, -77.9589, 35.3134
3.6, 6, 32.8865, 54.0591, -9.61386, 89.9115, -78.03, 35.2933
3.604, 6, 32.8763, 54.0743, -9.60127, 89.8872, -78.0988, 35.2738
3.608, 6, 32.8667, 54.0888, -9.58917, 89.8639, -78.165, 35.2551
3.612, 6, 32.8575, 54.1026, -9.57765, 89.8417, -78.228, 35.2373
3.616, 6, 32.8487, 54.1158, -9.56681, 89.8208, -78.2874, 35.2205
3.62, 6, 32.8403, 54.1285, -9.55675, 89.8013, -78.3425, 35.205
3.624, 6, 32.8322, 54.1407, -9.54756, 89.7834, -78.3931, 35.1907
3.628, 6, 32.8243, 54.1525, -9.53928, 89.7672, -78.4389, 35.1778
3.632, 6, 32.8166, 54.1639, -9.53197, 89.7528, -78.4797, 35.1663
3.636, 6, 32.8092, 54.1749, -9.52562, 89.7402, -78.5154, 35.1562
3.64, 6, 32.802, 54.1855, -9.52022, 89.7293, -78.5461, 35.1475
3.644, 6, 32.7952, 54.1956, -9.51571, 89.7201, -78.5721, 35.1402
3.648, 6, 32.7888, 54.2052, -9.51202, 89.7124, -78.5936, 35.1341
3.652, 6, 32.7828, 54.2142, -9.50908, 89.7062, -78.6111, 35.1292
3.656, 6, 32.7772, 54.2227, -9.50679, 89.7013, -78.625, 35.1253
3.66, 6, 32.772, 54.2304, -9.50507, 89.6975, -78.6358, 35.1222
3.664, 6, 32.7672, 54.2374, -9.50382, 89.6946, -78.644, 35.1199
3.668, 6, 32.7627, 54.2434, -9.50294, 89.6925, -78.65, 35.1182
3.672, 6, 32.7589, 54.2484, -9.50234, 89.6909, -78.6543, 35.117
3.676, 7, 32.7556, 54.2524, -9.50194, 89.6898, -78.6574, 35.1161
3.679, 7, 32.753, 54.2554, -9.50168, 89.6891, -78.6595, 35.1155
3.684, 7, 32.751, 54.2576, -9.50151, 89.6886, -78.6609, 35.1151
3.688, 7, 32.7495, 54.2591, -9.50139, 89.6882, -78.6619, 35.1149
3.692, 7, 32.7486, 54.2601, -9.50132, 89.688, -78.6626, 35.1147
3.696, 7, 32.7479, 54.2608, -9.50126, 89.6878, -78.663, 35.1145
3.7, 7, 32.7474, 54.2613, -9.50123, 89.6877, -78.6633, 35.1145
3.704, 7, 32.7471, 54.2616, -9.50121, 89.6877, -78.6635, 35.1144
3.708, 7, 32.7469, 54.2619, -9.50119, 89.6876, -78.6637, 35.1144
3.712, 7, 32.7468, 54.262, -9.50118, 89.6876, -78.6638, 35.1143
3.716, 7, 32.7467, 54.2621, -9.50117, 89.6875, -78.6638, 35.1143
3.72, 7, 32.7466, 54.2622, -9.50117, 89.6875, -78.6639, 35.1143
3.724, 7, 32.7466, 54.2622, -9.50116, 89.6875, -78.6639, 35.1143
3.728, 7, 32.7466, 54.2622, -9.50116, 89.6875, -78.6639, 35.1143
3.732, 7, 32.7465, 54.2623, -9.50116, 89.6875, -78.6639, 35.1143
3.735, 7, 32.7465, 54.2623, -9.50116, 89.6875, -78.664, 35.1143
3.74, 7, 32.7465, 54.2623, -9.50116, 89.6875, -78.664, 35.1143
3.744, 7, 32.7465, 54.2623, -9.50116, 89.6875, -78.664, 35.1143
3.748, 7, 32.7465, 54.2623, -9.50116, 89.6875, -78.664, 35.1143
3.752, 7, 32.7465, 54.2623, -9.50116, 89.6875, -78.664, 35.1143
3.756, 7, 32.7465, 54.2623, -9.50115, 89.6875, -78.664, 35.1143
3.76, 7, 32.7465, 54.2623, -9.50115, 89.6875, -78.664, 35.1143
3.764, 7, 32.7465, 54.2623, -9.50115, 89.6875, -78.664, 35.1143
3.768, 7, 32.7465, 54.2623, -9.50115, 89.6875, -78.664, 35.1143
3.772, 7, 32.7465, 54.2623, -9.50115, 89.6875, -78.664, 35.1143
3.776, 7, 32.7465, 54.2623, -9.50115, 89.6875, -78.664, 35.1143
3.78, 7, 32.7465, 54.2623, -9.50115, 89.6875, -78.664, 35.1143
3.784, 7, 32.7465, 54.2623, -9.50115, 89.6875, -78.664, 35.1143
3.788, 7, 32.7465, 54.2623, -9.50115, 89.6875, -78.664, 35.1143
3.792, 7, 32.7465, 54.2623, -9.50115, 89.6875, -78.664, 35.1143
