hehonglu123/ABB_Primitive_Study/execution/movec+movel_smooth/curve_exe_vmax_z5.csv
timestamp, cmd_num, J1, J2, J3, J4, J5, J6
0, 1, 32.7465, 54.2623, -9.50115, 89.6875, -78.664, 35.1143
0.002, 1, 32.7465, 54.2623, -9.50115, 89.6875, -78.664, 35.1143
0.004, 1, 32.7465, 54.2623, -9.50115, 89.6875, -78.664, 35.1143
0.008, 1, 32.7465, 54.2623, -9.50115, 89.6875, -78.664, 35.1143
0.011, 1, 32.7465, 54.2623, -9.50115, 89.6875, -78.664, 35.1143
0.016, 1, 32.7465, 54.2623, -9.50115, 89.6875, -78.664, 35.1143
0.02, 1, 32.7465, 54.2623, -9.50115, 89.6875, -78.664, 35.1143
0.024, 1, 32.7465, 54.2623, -9.50115, 89.6875, -78.664, 35.1143
0.028, 1, 32.7465, 54.2623, -9.50115, 89.6875, -78.664, 35.1143
0.032, 1, 32.7465, 54.2623, -9.50115, 89.6875, -78.664, 35.1143
0.036, 1, 32.7465, 54.2623, -9.50115, 89.6875, -78.664, 35.1143
0.04, 1, 32.7466, 54.2623, -9.50115, 89.6875, -78.664, 35.1143
0.044, 1, 32.7467, 54.2621, -9.50116, 89.6875, -78.664, 35.1143
0.048, 1, 32.7471, 54.2618, -9.50116, 89.6875, -78.6639, 35.1143
0.052, 1, 32.7479, 54.2611, -9.50118, 89.6876, -78.6638, 35.1144
0.056, 1, 32.7491, 54.2598, -9.50124, 89.6877, -78.6634, 35.1145
0.06, 1, 32.7507, 54.2577, -9.50136, 89.6879, -78.6626, 35.1147
0.064, 1, 32.7529, 54.2547, -9.50159, 89.6883, -78.6611, 35.1152
0.068, 1, 32.7556, 54.2507, -9.502, 89.689, -78.6586, 35.1161
0.072, 1, 32.7588, 54.2455, -9.50267, 89.6902, -78.6545, 35.1174
0.076, 1, 32.7625, 54.2391, -9.5037, 89.692, -78.6482, 35.1195
0.08, 1, 32.7668, 54.2314, -9.50521, 89.6946, -78.6391, 35.1225
0.084, 1, 32.7718, 54.2224, -9.50734, 89.6982, -78.6262, 35.1267
0.088, 1, 32.7776, 54.212, -9.51024, 89.7032, -78.6088, 35.1325
0.092, 1, 32.784, 54.2002, -9.5141, 89.7098, -78.5857, 35.1401
0.096, 1, 32.7912, 54.1873, -9.51908, 89.7183, -78.5559, 35.1499
0.1, 1, 32.7988, 54.1733, -9.52538, 89.729, -78.5183, 35.1622
0.104, 1, 32.8067, 54.1585, -9.53315, 89.7422, -78.472, 35.1774
0.108, 1, 32.815, 54.143, -9.54252, 89.7581, -78.4163, 35.1957
0.112, 1, 32.8235, 54.1267, -9.55357, 89.7769, -78.3507, 35.2173
0.116, 1, 32.8324, 54.1096, -9.56636, 89.7986, -78.2748, 35.2423
0.12, 1, 32.8415, 54.0916, -9.58087, 89.8232, -78.1888, 35.2705
0.124, 1, 32.8511, 54.0725, -9.59706, 89.8507, -78.0929, 35.3021
0.128, 1, 32.8611, 54.0525, -9.61485, 89.8808, -77.9875, 35.3367
0.131, 1, 32.8716, 54.0317, -9.63411, 89.9134, -77.8735, 35.3742
0.136, 1, 32.8823, 54.0101, -9.65471, 89.9483, -77.7516, 35.4142
0.139, 1, 32.8932, 53.9877, -9.67648, 89.9852, -77.6227, 35.4566
0.144, 1, 32.9045, 53.9644, -9.69923, 90.0237, -77.4881, 35.5008
0.148, 1, 32.9163, 53.9399, -9.72278, 90.0636, -77.3487, 35.5466
0.152, 1, 32.9288, 53.914, -9.74695, 90.1045, -77.2057, 35.5936
0.156, 1, 32.942, 53.8866, -9.77157, 90.1462, -77.0599, 35.6415
0.16, 1, 32.9561, 53.8575, -9.79651, 90.1885, -76.9123, 35.6901
0.164, 1, 32.9711, 53.8271, -9.82165, 90.231, -76.7634, 35.739
0.168, 1, 32.9869, 53.7955, -9.84692, 90.2739, -76.6137, 35.7882
0.172, 1, 33.0032, 53.7631, -9.87226, 90.3168, -76.4636, 35.8375
0.176, 1, 33.02, 53.7302, -9.89762, 90.3598, -76.3133, 35.8869
0.18, 1, 33.037, 53.6969, -9.92299, 90.4028, -76.163, 35.9363
0.184, 1, 33.0541, 53.6634, -9.94833, 90.4457, -76.0128, 35.9857
0.188, 1, 33.0714, 53.6298, -9.97365, 90.4886, -75.8628, 36.035
0.192, 1, 33.0888, 53.5962, -9.99894, 90.5315, -75.713, 36.0842
0.196, 1, 33.1061, 53.5625, -10.0242, 90.5743, -75.5634, 36.1334
0.2, 1, 33.1235, 53.5289, -10.0494, 90.617, -75.4141, 36.1825
0.204, 1, 33.1409, 53.4952, -10.0745, 90.6596, -75.265, 36.2315
0.208, 1, 33.1582, 53.4616, -10.0996, 90.7021, -75.1163, 36.2804
0.212, 1, 33.1755, 53.4281, -10.1247, 90.7446, -74.9678, 36.3292
0.216, 1, 33.1928, 53.3946, -10.1497, 90.787, -74.8197, 36.3779
0.22, 1, 33.2101, 53.3612, -10.1746, 90.8292, -74.6718, 36.4265
0.224, 1, 33.2273, 53.3278, -10.1995, 90.8714, -74.5242, 36.475
0.228, 1, 33.2446, 53.2945, -10.2244, 90.9136, -74.377, 36.5234
0.232, 1, 33.2617, 53.2613, -10.2492, 90.9556, -74.23, 36.5717
0.236, 1, 33.2789, 53.2282, -10.2739, 90.9975, -74.0834, 36.6199
0.24, 1, 33.296, 53.1951, -10.2986, 91.0394, -73.937, 36.668
0.244, 1, 33.313, 53.162, -10.3233, 91.0812, -73.7909, 36.716
0.248, 1, 33.3301, 53.1291, -10.3479, 91.1229, -73.6451, 36.7639
0.252, 1, 33.3471, 53.0962, -10.3724, 91.1645, -73.4996, 36.8117
0.256, 1, 33.364, 53.0633, -10.3969, 91.206, -73.3544, 36.8595
0.26, 1, 33.381, 53.0306, -10.4214, 91.2474, -73.2095, 36.9071
0.264, 1, 33.3979, 52.9979, -10.4458, 91.2888, -73.0649, 36.9546
0.268, 1, 33.4147, 52.9652, -10.4701, 91.3301, -72.9206, 37.0021
0.272, 1, 33.4316, 52.9327, -10.4944, 91.3713, -72.7765, 37.0494
0.276, 1, 33.4484, 52.9002, -10.5187, 91.4124, -72.6327, 37.0967
0.28, 1, 33.4651, 52.8677, -10.5429, 91.4534, -72.4893, 37.1438
0.284, 1, 33.4819, 52.8353, -10.5671, 91.4944, -72.346, 37.1909
0.288, 1, 33.4986, 52.803, -10.5912, 91.5353, -72.2031, 37.2379
0.292, 1, 33.5152, 52.7708, -10.6153, 91.5761, -72.0604, 37.2848
0.296, 1, 33.5319, 52.7386, -10.6393, 91.6168, -71.9181, 37.3316
0.3, 1, 33.5485, 52.7065, -10.6633, 91.6574, -71.776, 37.3783
0.304, 1, 33.5651, 52.6744, -10.6872, 91.698, -71.6341, 37.4249
0.308, 1, 33.5816, 52.6424, -10.7111, 91.7385, -71.4925, 37.4714
0.312, 1, 33.5981, 52.6104, -10.7349, 91.7789, -71.3513, 37.5179
0.316, 1, 33.6146, 52.5785, -10.7587, 91.8192, -71.2102, 37.5642
0.32, 1, 33.631, 52.5467, -10.7825, 91.8595, -71.0695, 37.6105
0.324, 1, 33.6474, 52.5149, -10.8062, 91.8997, -70.929, 37.6567
0.328, 1, 33.6638, 52.4832, -10.8299, 91.9398, -70.7887, 37.7028
0.332, 1, 33.6802, 52.4516, -10.8535, 91.9798, -70.6488, 37.7488
0.336, 1, 33.6965, 52.42, -10.8771, 92.0198, -70.509, 37.7947
0.34, 1, 33.7128, 52.3885, -10.9006, 92.0597, -70.3696, 37.8405
0.344, 1, 33.7291, 52.357, -10.9241, 92.0995, -70.2304, 37.8863
0.348, 1, 33.7453, 52.3256, -10.9475, 92.1392, -70.0914, 37.9319
0.352, 1, 33.7615, 52.2942, -10.9709, 92.1789, -69.9528, 37.9775
0.356, 1, 33.7777, 52.2629, -10.9943, 92.2185, -69.8143, 38.023
0.36, 1, 33.7938, 52.2317, -11.0176, 92.258, -69.6762, 38.0685
0.364, 1, 33.8099, 52.2005, -11.0409, 92.2974, -69.5382, 38.1138
0.368, 1, 33.826, 52.1694, -11.0641, 92.3368, -69.4006, 38.159
0.372, 1, 33.8421, 52.1383, -11.0873, 92.3761, -69.2631, 38.2042
0.376, 1, 33.8581, 52.1073, -11.1104, 92.4153, -69.126, 38.2493
0.38, 1, 33.8741, 52.0763, -11.1336, 92.4545, -68.989, 38.2943
0.384, 1, 33.8901, 52.0454, -11.1566, 92.4936, -68.8523, 38.3392
0.388, 1, 33.906, 52.0146, -11.1796, 92.5326, -68.7159, 38.3841
0.392, 1, 33.9219, 51.9838, -11.2026, 92.5716, -68.5797, 38.4288
0.396, 1, 33.9378, 51.953, -11.2256, 92.6104, -68.4437, 38.4735
0.4, 1, 33.9537, 51.9224, -11.2485, 92.6493, -68.308, 38.5181
0.404, 1, 33.9695, 51.8917, -11.2713, 92.688, -68.1725, 38.5627
0.408, 1, 33.9853, 51.8611, -11.2942, 92.7267, -68.0373, 38.6071
0.412, 1, 34.0011, 51.8306, -11.3169, 92.7653, -67.9023, 38.6515
0.416, 1, 34.0168, 51.8002, -11.3397, 92.8038, -67.7675, 38.6958
0.42, 1, 34.0326, 51.7697, -11.3624, 92.8423, -67.633, 38.74
0.424, 1, 34.0483, 51.7394, -11.385, 92.8807, -67.4987, 38.7842
0.428, 1, 34.0639, 51.7091, -11.4077, 92.9191, -67.3646, 38.8282
0.432, 1, 34.0796, 51.6788, -11.4302, 92.9574, -67.2307, 38.8722
0.436, 1, 34.0952, 51.6486, -11.4528, 92.9956, -67.0971, 38.9161
0.44, 1, 34.1108, 51.6184, -11.4753, 93.0337, -66.9637, 38.96
0.444, 1, 34.1263, 51.5883, -11.4978, 93.0718, -66.8306, 39.0038
0.448, 1, 34.1418, 51.5583, -11.5202, 93.1098, -66.6976, 39.0474
0.452, 1, 34.1573, 51.5282, -11.5426, 93.1478, -66.5649, 39.0911
0.456, 1, 34.1728, 51.4983, -11.565, 93.1857, -66.4324, 39.1346
0.46, 1, 34.1883, 51.4684, -11.5873, 93.2235, -66.3002, 39.1781
0.464, 1, 34.2037, 51.4385, -11.6096, 93.2613, -66.1681, 39.2215
0.468, 1, 34.2191, 51.4087, -11.6318, 93.299, -66.0363, 39.2648
0.472, 1, 34.2345, 51.379, -11.654, 93.3366, -65.9047, 39.3081
0.476, 1, 34.2498, 51.3493, -11.6762, 93.3742, -65.7733, 39.3513
0.48, 1, 34.2652, 51.3196, -11.6983, 93.4117, -65.6421, 39.3944
0.484, 1, 34.2805, 51.29, -11.7204, 93.4492, -65.5111, 39.4374
0.488, 1, 34.2957, 51.2604, -11.7425, 93.4865, -65.3804, 39.4804
0.492, 1, 34.311, 51.2309, -11.7645, 93.5239, -65.2498, 39.5233
0.496, 1, 34.3262, 51.2014, -11.7865, 93.5611, -65.1195, 39.5662
0.5, 1, 34.3414, 51.172, -11.8085, 93.5984, -64.9894, 39.6089
0.504, 1, 34.3566, 51.1426, -11.8304, 93.6355, -64.8595, 39.6516
0.508, 1, 34.3718, 51.1133, -11.8523, 93.6726, -64.7298, 39.6943
0.512, 1, 34.3869, 51.084, -11.8741, 93.7096, -64.6003, 39.7368
0.516, 1, 34.402, 51.0548, -11.8959, 93.7466, -64.471, 39.7793
0.52, 1, 34.4171, 51.0256, -11.9177, 93.7835, -64.3419, 39.8217
0.524, 1, 34.4321, 50.9965, -11.9395, 93.8204, -64.213, 39.8641
0.528, 1, 34.4472, 50.9674, -11.9612, 93.8572, -64.0844, 39.9064
0.532, 1, 34.4622, 50.9384, -11.9828, 93.8939, -63.9559, 39.9486
0.536, 1, 34.4771, 50.9094, -12.0045, 93.9306, -63.8276, 39.9908
0.54, 1, 34.4921, 50.8804, -12.0261, 93.9672, -63.6996, 40.0329
0.544, 1, 34.507, 50.8515, -12.0477, 94.0038, -63.5717, 40.0749
0.548, 1, 34.522, 50.8226, -12.0692, 94.0403, -63.444, 40.1169
0.552, 1, 34.5369, 50.7938, -12.0907, 94.0768, -63.3166, 40.1588
0.556, 1, 34.5517, 50.765, -12.1122, 94.1132, -63.1893, 40.2006
0.56, 1, 34.5666, 50.7363, -12.1337, 94.1495, -63.0622, 40.2424
0.564, 1, 34.5814, 50.7076, -12.1551, 94.1858, -62.9353, 40.2841
0.568, 1, 34.5962, 50.679, -12.1764, 94.2221, -62.8086, 40.3257
0.572, 1, 34.611, 50.6504, -12.1978, 94.2582, -62.6821, 40.3673
0.576, 1, 34.6257, 50.6218, -12.2191, 94.2943, -62.5558, 40.4088
0.58, 1, 34.6405, 50.5933, -12.2404, 94.3304, -62.4297, 40.4502
0.584, 1, 34.6552, 50.5648, -12.2616, 94.3664, -62.3038, 40.4916
0.588, 1, 34.6699, 50.5364, -12.2828, 94.4024, -62.1781, 40.533
0.592, 1, 34.6845, 50.508, -12.304, 94.4383, -62.0525, 40.5742
0.596, 1, 34.6992, 50.4797, -12.3252, 94.4741, -61.9272, 40.6154
0.6, 1, 34.7138, 50.4514, -12.3463, 94.5099, -61.802, 40.6566
0.604, 1, 34.7284, 50.4231, -12.3674, 94.5457, -61.677, 40.6977
0.608, 1, 34.743, 50.3949, -12.3884, 94.5814, -61.5522, 40.7387
0.612, 1, 34.7575, 50.3667, -12.4095, 94.617, -61.4276, 40.7796
0.616, 1, 34.7721, 50.3386, -12.4305, 94.6526, -61.3032, 40.8205
0.62, 1, 34.7866, 50.3105, -12.4514, 94.6881, -61.1789, 40.8614
0.624, 1, 34.8011, 50.2824, -12.4724, 94.7236, -61.0548, 40.9022
0.628, 1, 34.8155, 50.2544, -12.4933, 94.7591, -60.931, 40.9429
0.632, 1, 34.83, 50.2265, -12.5142, 94.7944, -60.8073, 40.9835
0.636, 1, 34.8444, 50.1985, -12.535, 94.8298, -60.6837, 41.0241
0.64, 1, 34.8588, 50.1707, -12.5558, 94.865, -60.5604, 41.0647
0.644, 1, 34.8732, 50.1428, -12.5766, 94.9003, -60.4372, 41.1052
0.648, 1, 34.8876, 50.115, -12.5973, 94.9354, -60.3142, 41.1456
0.652, 1, 34.9019, 50.0872, -12.6181, 94.9706, -60.1914, 41.1859
0.656, 1, 34.9163, 50.0595, -12.6388, 95.0056, -60.0688, 41.2263
0.66, 1, 34.9306, 50.0318, -12.6594, 95.0407, -59.9463, 41.2665
0.664, 1, 34.9449, 50.0042, -12.6801, 95.0756, -59.824, 41.3067
0.668, 1, 34.9591, 49.9766, -12.7007, 95.1106, -59.7019, 41.3468
0.672, 1, 34.9734, 49.949, -12.7212, 95.1454, -59.58, 41.3869
0.676, 1, 34.9876, 49.9215, -12.7418, 95.1803, -59.4582, 41.427
0.68, 1, 35.0018, 49.894, -12.7623, 95.215, -59.3366, 41.4669
0.684, 1, 35.016, 49.8665, -12.7828, 95.2498, -59.2151, 41.5068
0.688, 1, 35.0301, 49.8391, -12.8033, 95.2844, -59.0939, 41.5467
0.692, 1, 35.0443, 49.8117, -12.8237, 95.3191, -58.9728, 41.5865
0.696, 1, 35.0584, 49.7844, -12.8441, 95.3537, -58.8519, 41.6262
0.7, 1, 35.0725, 49.7571, -12.8645, 95.3882, -58.7311, 41.6659
0.704, 1, 35.0866, 49.7298, -12.8848, 95.4227, -58.6105, 41.7056
0.708, 1, 35.1007, 49.7026, -12.9051, 95.4571, -58.4901, 41.7451
0.712, 1, 35.1147, 49.6754, -12.9254, 95.4915, -58.3698, 41.7847
0.716, 1, 35.1288, 49.6482, -12.9457, 95.5259, -58.2497, 41.8241
0.72, 1, 35.1428, 49.6211, -12.9659, 95.5602, -58.1298, 41.8636
0.724, 1, 35.1568, 49.5941, -12.9862, 95.5944, -58.01, 41.9029
0.728, 1, 35.1707, 49.567, -13.0063, 95.6286, -57.8904, 41.9422
0.732, 1, 35.1847, 49.54, -13.0265, 95.6628, -57.771, 41.9815
0.736, 1, 35.1986, 49.513, -13.0466, 95.6969, -57.6517, 42.0207
0.74, 1, 35.2125, 49.4861, -13.0667, 95.731, -57.5326, 42.0599
0.744, 1, 35.2264, 49.4592, -13.0868, 95.765, -57.4136, 42.099
0.748, 1, 35.2403, 49.4324, -13.1068, 95.799, -57.2948, 42.138
0.752, 1, 35.2542, 49.4055, -13.1269, 95.8329, -57.1762, 42.177
0.756, 1, 35.268, 49.3787, -13.1468, 95.8668, -57.0577, 42.2159
0.76, 1, 35.2818, 49.352, -13.1668, 95.9006, -56.9394, 42.2548
0.764, 1, 35.2956, 49.3253, -13.1868, 95.9344, -56.8212, 42.2937
0.768, 1, 35.3094, 49.2986, -13.2067, 95.9682, -56.7032, 42.3325
0.772, 1, 35.3232, 49.272, -13.2266, 96.0019, -56.5854, 42.3712
0.776, 1, 35.3369, 49.2453, -13.2464, 96.0355, -56.4676, 42.4099
0.78, 1, 35.3507, 49.2188, -13.2663, 96.0692, -56.3501, 42.4485
0.784, 1, 35.3644, 49.1922, -13.2861, 96.1027, -56.2327, 42.4871
0.788, 1, 35.3781, 49.1657, -13.3058, 96.1363, -56.1155, 42.5257
0.792, 1, 35.3917, 49.1392, -13.3256, 96.1698, -55.9984, 42.5641
0.796, 1, 35.4054, 49.1128, -13.3453, 96.2032, -55.8814, 42.6026
0.8, 1, 35.4191, 49.0864, -13.365, 96.2366, -55.7646, 42.641
0.804, 1, 35.4327, 49.06, -13.3847, 96.27, -55.648, 42.6793
0.808, 1, 35.4463, 49.0337, -13.4044, 96.3033, -55.5315, 42.7176
0.812, 1, 35.4599, 49.0074, -13.424, 96.3365, -55.4151, 42.7558
0.816, 1, 35.4734, 48.9811, -13.4436, 96.3698, -55.2989, 42.794
0.82, 1, 35.487, 48.9549, -13.4632, 96.403, -55.1829, 42.8322
0.824, 1, 35.5005, 48.9287, -13.4828, 96.4361, -55.067, 42.8703
0.828, 1, 35.5141, 48.9025, -13.5023, 96.4692, -54.9512, 42.9083
0.832, 1, 35.5276, 48.8764, -13.5218, 96.5023, -54.8356, 42.9463
0.836, 1, 35.5411, 48.8503, -13.5413, 96.5353, -54.7201, 42.9843
0.84, 1, 35.5545, 48.8242, -13.5608, 96.5683, -54.6048, 43.0222
0.844, 1, 35.568, 48.7981, -13.5802, 96.6012, -54.4896, 43.06
0.848, 1, 35.5814, 48.7721, -13.5996, 96.6341, -54.3746, 43.0979
0.852, 1, 35.5949, 48.7461, -13.619, 96.667, -54.2597, 43.1356
0.856, 1, 35.6083, 48.7202, -13.6384, 96.6998, -54.1449, 43.1733
0.86, 1, 35.6216, 48.6943, -13.6577, 96.7326, -54.0303, 43.211
0.864, 1, 35.635, 48.6684, -13.677, 96.7654, -53.9158, 43.2486
0.868, 1, 35.6483, 48.6426, -13.6963, 96.798, -53.8015, 43.2862
0.872, 1, 35.6616, 48.6169, -13.7156, 96.8307, -53.6873, 43.3238
0.876, 1, 35.6747, 48.5912, -13.7348, 96.8633, -53.5732, 43.3612
0.88, 1, 35.6878, 48.5656, -13.754, 96.8959, -53.4594, 43.3987
0.884, 1, 35.7008, 48.5402, -13.7732, 96.9284, -53.3457, 43.436
0.888, 1, 35.7135, 48.515, -13.7924, 96.9608, -53.2323, 43.4733
0.892, 1, 35.726, 48.4902, -13.8115, 96.9932, -53.1192, 43.5105
0.896, 1, 35.738, 48.466, -13.8305, 97.0254, -53.0066, 43.5475
0.9, 1, 35.7494, 48.4426, -13.8494, 97.0574, -52.8946, 43.5843
0.904, 1, 35.7603, 48.4201, -13.8682, 97.0892, -52.7836, 43.6208
0.908, 1, 35.7705, 48.3986, -13.8867, 97.1205, -52.6741, 43.6568
0.912, 1, 35.7802, 48.3781, -13.9049, 97.1513, -52.5665, 43.6922
0.916, 1, 35.7894, 48.3586, -13.9227, 97.1813, -52.4615, 43.7267
0.92, 1, 35.7982, 48.3399, -13.9399, 97.2104, -52.3599, 43.7602
0.924, 1, 35.8067, 48.3221, -13.9564, 97.2383, -52.2624, 43.7923
0.928, 1, 35.8148, 48.3051, -13.9721, 97.2649, -52.1697, 43.8228
0.932, 1, 35.8225, 48.2891, -13.9869, 97.2898, -52.0824, 43.8514
0.936, 1, 35.8299, 48.274, -14.0006, 97.313, -52.0014, 43.8781
0.94, 1, 35.837, 48.2597, -14.0132, 97.3343, -51.927, 43.9026
0.944, 1, 35.8438, 48.2461, -14.0246, 97.3535, -51.8598, 43.9247
0.948, 1, 35.8505, 48.233, -14.0347, 97.3706, -51.8, 43.9443
0.952, 1, 35.8571, 48.2204, -14.0435, 97.3856, -51.7476, 43.9615
0.956, 1, 35.8636, 48.2083, -14.0511, 97.3985, -51.7026, 43.9763
0.96, 1, 35.8699, 48.1968, -14.0574, 97.4093, -51.6646, 43.9888
0.964, 1, 35.8759, 48.1861, -14.0627, 97.4183, -51.633, 43.9991
0.968, 2, 35.8815, 48.1763, -14.067, 97.4257, -51.6074, 44.0075
0.972, 2, 35.8866, 48.1676, -14.0704, 97.4315, -51.5869, 44.0143
0.976, 2, 35.8914, 48.16, -14.073, 97.436, -51.5709, 44.0195
0.98, 2, 35.8957, 48.1533, -14.075, 97.4395, -51.5587, 44.0235
0.984, 2, 35.8997, 48.1475, -14.0765, 97.4421, -51.5496, 44.0264
0.988, 2, 35.9032, 48.1427, -14.0776, 97.444, -51.543, 44.0286
0.992, 2, 35.9062, 48.1387, -14.0784, 97.4453, -51.5382, 44.0302
0.996, 2, 35.9087, 48.1355, -14.0789, 97.4463, -51.5349, 44.0312
1, 2, 35.9106, 48.1332, -14.0793, 97.4469, -51.5327, 44.032
1.004, 2, 35.912, 48.1315, -14.0795, 97.4474, -51.5311, 44.0325
1.008, 2, 35.913, 48.1303, -14.0797, 97.4477, -51.5301, 44.0328
1.012, 2, 35.9137, 48.1295, -14.0798, 97.4479, -51.5293, 44.033
1.016, 2, 35.9142, 48.1289, -14.0799, 97.448, -51.5289, 44.0332
1.02, 2, 35.9145, 48.1286, -14.0799, 97.4481, -51.5285, 44.0333
1.024, 2, 35.9147, 48.1283, -14.08, 97.4482, -51.5283, 44.0334
1.027, 2, 35.9148, 48.1281, -14.08, 97.4482, -51.5282, 44.0334
1.032, 2, 35.9149, 48.128, -14.08, 97.4482, -51.5281, 44.0335
1.036, 2, 35.915, 48.1279, -14.08, 97.4482, -51.528, 44.0335
1.04, 2, 35.915, 48.1279, -14.08, 97.4483, -51.5279, 44.0335
1.044, 2, 35.9151, 48.1279, -14.08, 97.4483, -51.5279, 44.0335
1.048, 2, 35.9151, 48.1278, -14.08, 97.4483, -51.5279, 44.0335
1.052, 2, 35.9151, 48.1278, -14.08, 97.4483, -51.5279, 44.0335
1.055, 2, 35.9151, 48.1278, -14.08, 97.4483, -51.5279, 44.0335
1.06, 2, 35.9151, 48.1278, -14.08, 97.4483, -51.5279, 44.0335
1.064, 2, 35.9151, 48.1278, -14.08, 97.4483, -51.5279, 44.0335
1.068, 2, 35.9151, 48.1278, -14.08, 97.4483, -51.5278, 44.0335
1.072, 2, 35.9151, 48.1278, -14.08, 97.4483, -51.5278, 44.0335
1.076, 2, 35.9151, 48.1278, -14.08, 97.4483, -51.5278, 44.0335
1.08, 2, 35.9151, 48.1278, -14.08, 97.4483, -51.5278, 44.0335
1.084, 2, 35.9151, 48.1278, -14.08, 97.4483, -51.5278, 44.0335
1.088, 2, 35.9151, 48.1278, -14.08, 97.4483, -51.5278, 44.0335
1.091, 2, 35.9151, 48.1278, -14.08, 97.4483, -51.5278, 44.0335
1.096, 2, 35.9151, 48.1278, -14.08, 97.4483, -51.5278, 44.0335
1.1, 2, 35.9151, 48.1278, -14.08, 97.4483, -51.5278, 44.0335
1.104, 2, 35.9151, 48.1278, -14.08, 97.4483, -51.5278, 44.0335
1.108, 2, 35.9151, 48.1278, -14.08, 97.4483, -51.5278, 44.0335
1.112, 2, 35.9151, 48.1278, -14.08, 97.4483, -51.5278, 44.0335
1.116, 2, 35.9151, 48.1278, -14.08, 97.4483, -51.5278, 44.0335
1.119, 2, 35.9151, 48.1278, -14.08, 97.4483, -51.5278, 44.0335
1.124, 2, 35.9151, 48.1278, -14.08, 97.4483, -51.5278, 44.0335
1.128, 2, 35.9151, 48.1278, -14.08, 97.4483, -51.5278, 44.0335
1.132, 2, 35.9151, 48.1278, -14.08, 97.4483, -51.5278, 44.0335
1.136, 2, 35.9151, 48.1278, -14.08, 97.4483, -51.5278, 44.0335
1.14, 2, 35.9151, 48.1278, -14.08, 97.4483, -51.5278, 44.0335
1.144, 2, 35.9151, 48.1278, -14.08, 97.4483, -51.5278, 44.0335
1.147, 2, 35.9151, 48.1278, -14.08, 97.4483, -51.5278, 44.0335
1.152, 2, 35.9151, 48.1278, -14.08, 97.4483, -51.5278, 44.0335
1.156, 2, 35.9151, 48.1278, -14.08, 97.4483, -51.5278, 44.0335
1.16, 2, 35.9151, 48.1278, -14.08, 97.4483, -51.5278, 44.0335
1.164, 2, 35.9151, 48.1278, -14.08, 97.4483, -51.5278, 44.0335
1.168, 2, 35.9151, 48.1278, -14.08, 97.4483, -51.5278, 44.0335
1.172, 2, 35.9151, 48.1278, -14.08, 97.4483, -51.5278, 44.0335
1.175, 2, 35.9151, 48.1278, -14.08, 97.4483, -51.5278, 44.0335
1.18, 2, 35.9151, 48.1278, -14.08, 97.4483, -51.5278, 44.0335
1.184, 2, 35.9151, 48.1278, -14.08, 97.4483, -51.5278, 44.0335
1.188, 2, 35.9151, 48.1278, -14.08, 97.4483, -51.5278, 44.0335
1.192, 2, 35.9151, 48.1278, -14.08, 97.4483, -51.5278, 44.0335
1.196, 2, 35.9151, 48.1278, -14.08, 97.4483, -51.5278, 44.0335
1.2, 2, 35.9151, 48.1278, -14.08, 97.4483, -51.5278, 44.0335
1.204, 2, 35.9151, 48.1278, -14.08, 97.4483, -51.5278, 44.0335
1.208, 2, 35.9151, 48.1278, -14.08, 97.4483, -51.5278, 44.0335
1.212, 2, 35.9151, 48.1278, -14.08, 97.4483, -51.5278, 44.0335
1.216, 2, 35.9151, 48.1278, -14.08, 97.4483, -51.5278, 44.0335
1.22, 2, 35.9151, 48.1278, -14.08, 97.4483, -51.5278, 44.0335
1.224, 2, 35.9151, 48.1278, -14.08, 97.4483, -51.5278, 44.0335
1.228, 2, 35.9151, 48.1278, -14.08, 97.4483, -51.5278, 44.0335
1.232, 2, 35.9151, 48.1278, -14.08, 97.4483, -51.5278, 44.0335
1.236, 2, 35.9151, 48.1278, -14.08, 97.4483, -51.5278, 44.0335
1.24, 2, 35.9151, 48.1278, -14.08, 97.4483, -51.5278, 44.0335
1.244, 2, 35.9151, 48.1278, -14.08, 97.4483, -51.5278, 44.0335
1.248, 2, 35.9151, 48.1278, -14.08, 97.4483, -51.5278, 44.0335
1.252, 2, 35.9151, 48.1278, -14.08, 97.4483, -51.5278, 44.0335
1.256, 2, 35.9151, 48.1278, -14.08, 97.4483, -51.5278, 44.0335
1.26, 2, 35.9151, 48.1278, -14.08, 97.4483, -51.5278, 44.0335
1.264, 2, 35.9151, 48.1278, -14.08, 97.4483, -51.5278, 44.0335
1.267, 2, 35.9151, 48.1278, -14.08, 97.4483, -51.5278, 44.0335
1.272, 2, 35.9151, 48.1278, -14.08, 97.4483, -51.5278, 44.0335
1.276, 2, 35.9151, 48.1278, -14.08, 97.4483, -51.5278, 44.0335
1.28, 2, 35.9151, 48.1278, -14.08, 97.4483, -51.5278, 44.0335
1.284, 2, 35.9151, 48.1278, -14.08, 97.4483, -51.5278, 44.0335
1.288, 2, 35.9151, 48.1278, -14.08, 97.4483, -51.5278, 44.0335
1.292, 2, 35.9151, 48.1278, -14.08, 97.4483, -51.5278, 44.0335
1.295, 2, 35.9151, 48.1278, -14.08, 97.4483, -51.5278, 44.0335
1.3, 2, 35.9151, 48.1278, -14.08, 97.4483, -51.5278, 44.0335
1.304, 2, 35.9151, 48.1278, -14.08, 97.4483, -51.5278, 44.0335
1.308, 2, 35.9151, 48.1278, -14.08, 97.4483, -51.5278, 44.0335
1.312, 2, 35.9151, 48.1278, -14.08, 97.4483, -51.5278, 44.0335
1.316, 2, 35.9151, 48.1278, -14.08, 97.4483, -51.5278, 44.0335
1.32, 2, 35.9151, 48.1278, -14.08, 97.4483, -51.5278, 44.0335
1.324, 2, 35.9151, 48.1278, -14.08, 97.4483, -51.5278, 44.0335
1.328, 2, 35.9151, 48.1278, -14.08, 97.4483, -51.5278, 44.0335
1.332, 2, 35.9151, 48.1278, -14.08, 97.4483, -51.5278, 44.0335
1.336, 2, 35.9151, 48.1278, -14.08, 97.4483, -51.5278, 44.0335
1.34, 2, 35.9151, 48.1278, -14.08, 97.4483, -51.5278, 44.0335
1.344, 2, 35.9151, 48.1278, -14.08, 97.4483, -51.5278, 44.0335
1.348, 2, 35.9151, 48.1278, -14.08, 97.4483, -51.5278, 44.0335
1.352, 2, 35.9151, 48.1278, -14.08, 97.4483, -51.5278, 44.0335
1.356, 2, 35.9151, 48.1278, -14.08, 97.4483, -51.5278, 44.0335
1.36, 2, 35.9151, 48.1278, -14.08, 97.4483, -51.5278, 44.0335
1.364, 2, 35.9151, 48.1278, -14.08, 97.4483, -51.5278, 44.0335
1.368, 2, 35.9151, 48.1278, -14.08, 97.4483, -51.5278, 44.0335
1.372, 2, 35.9151, 48.1278, -14.08, 97.4483, -51.5278, 44.0335
1.376, 2, 35.9151, 48.1278, -14.08, 97.4483, -51.5278, 44.0335
1.38, 2, 35.9151, 48.1278, -14.08, 97.4483, -51.5278, 44.0335
1.384, 2, 35.9151, 48.1278, -14.08, 97.4483, -51.5278, 44.0335
1.388, 2, 35.9151, 48.1278, -14.08, 97.4483, -51.5278, 44.0335
1.392, 2, 35.9151, 48.1278, -14.08, 97.4483, -51.5278, 44.0335
1.396, 2, 35.9151, 48.1278, -14.08, 97.4483, -51.5278, 44.0335
1.4, 2, 35.9151, 48.1278, -14.08, 97.4483, -51.5278, 44.0335
1.404, 2, 35.9151, 48.1278, -14.08, 97.4483, -51.5278, 44.0335
1.408, 2, 35.9151, 48.1278, -14.08, 97.4483, -51.5278, 44.0335
1.412, 2, 35.9151, 48.1278, -14.08, 97.4483, -51.5278, 44.0335
1.416, 2, 35.9151, 48.1278, -14.08, 97.4483, -51.5278, 44.0335
1.42, 2, 35.9151, 48.1278, -14.08, 97.4483, -51.5278, 44.0335
1.424, 2, 35.9151, 48.1278, -14.08, 97.4483, -51.5278, 44.0335
1.428, 2, 35.9151, 48.1278, -14.08, 97.4483, -51.5278, 44.0335
1.432, 2, 35.9151, 48.1278, -14.08, 97.4483, -51.5278, 44.0335
1.436, 2, 35.9151, 48.1278, -14.08, 97.4483, -51.5278, 44.0335
1.44, 2, 35.9151, 48.1278, -14.08, 97.4483, -51.5278, 44.0335
1.444, 2, 35.9151, 48.1278, -14.08, 97.4483, -51.5278, 44.0335
1.448, 2, 35.9151, 48.1278, -14.08, 97.4483, -51.5278, 44.0335
1.452, 2, 35.9151, 48.1278, -14.08, 97.4483, -51.5278, 44.0335
1.456, 2, 35.9151, 48.1278, -14.08, 97.4483, -51.5278, 44.0335
1.46, 2, 35.9151, 48.1278, -14.08, 97.4483, -51.5278, 44.0335
1.464, 2, 35.9151, 48.1278, -14.08, 97.4483, -51.5278, 44.0335
1.468, 2, 35.9151, 48.1278, -14.08, 97.4483, -51.5278, 44.0335
1.472, 2, 35.9151, 48.1278, -14.08, 97.4483, -51.5278, 44.0335
1.476, 2, 35.9151, 48.1278, -14.08, 97.4483, -51.5278, 44.0335
1.48, 2, 35.9151, 48.1278, -14.08, 97.4483, -51.5278, 44.0335
1.484, 2, 35.9151, 48.1278, -14.08, 97.4483, -51.5278, 44.0335
1.488, 2, 35.9151, 48.1278, -14.08, 97.4483, -51.5278, 44.0335
1.492, 2, 35.9151, 48.1278, -14.08, 97.4483, -51.5278, 44.0335
1.496, 2, 35.9151, 48.1278, -14.08, 97.4483, -51.5278, 44.0335
1.5, 2, 35.9151, 48.1278, -14.08, 97.4483, -51.5278, 44.0335
1.504, 2, 35.9151, 48.1278, -14.08, 97.4483, -51.5278, 44.0335
1.508, 2, 35.9151, 48.1278, -14.08, 97.4483, -51.5278, 44.0335
1.512, 2, 35.9151, 48.1278, -14.08, 97.4483, -51.5278, 44.0335
1.516, 2, 35.9151, 48.1278, -14.08, 97.4483, -51.5278, 44.0335
1.52, 2, 35.9151, 48.1278, -14.08, 97.4483, -51.5278, 44.0335
1.524, 2, 35.9151, 48.1278, -14.08, 97.4483, -51.5278, 44.0335
1.528, 2, 35.9151, 48.1278, -14.08, 97.4483, -51.5278, 44.0335
1.532, 2, 35.9151, 48.1278, -14.08, 97.4483, -51.5278, 44.0335
1.536, 2, 35.9151, 48.1278, -14.08, 97.4483, -51.5278, 44.0335
1.54, 2, 35.9151, 48.1278, -14.08, 97.4483, -51.5278, 44.0335
1.544, 2, 35.9151, 48.1278, -14.08, 97.4483, -51.5278, 44.0335
1.548, 2, 35.9151, 48.1278, -14.08, 97.4483, -51.5278, 44.0335
1.552, 2, 35.9151, 48.1278, -14.08, 97.4483, -51.5278, 44.0335
1.556, 2, 35.9151, 48.1278, -14.08, 97.4483, -51.5278, 44.0335
1.56, 2, 35.9151, 48.1278, -14.08, 97.4483, -51.5278, 44.0335
1.564, 2, 35.9151, 48.1278, -14.08, 97.4483, -51.5278, 44.0335
1.568, 2, 35.9151, 48.1278, -14.08, 97.4483, -51.5278, 44.0335
1.572, 2, 35.9151, 48.1278, -14.08, 97.4483, -51.5278, 44.0335
1.576, 2, 35.9151, 48.1278, -14.08, 97.4483, -51.5278, 44.0335
1.58, 2, 35.9151, 48.1278, -14.08, 97.4483, -51.5278, 44.0335
1.584, 2, 35.9151, 48.1278, -14.08, 97.4483, -51.5278, 44.0335
1.588, 2, 35.9151, 48.1278, -14.08, 97.4483, -51.5278, 44.0335
1.592, 2, 35.9151, 48.1278, -14.08, 97.4483, -51.5278, 44.0335
1.596, 2, 35.9151, 48.1278, -14.08, 97.4483, -51.5278, 44.0335
1.6, 2, 35.9151, 48.1278, -14.08, 97.4483, -51.5278, 44.0335
1.604, 2, 35.9151, 48.1278, -14.08, 97.4483, -51.5278, 44.0335
1.608, 2, 35.9151, 48.1278, -14.08, 97.4483, -51.5278, 44.0335
1.612, 2, 35.9151, 48.1278, -14.08, 97.4483, -51.5278, 44.0335
1.616, 2, 35.9151, 48.1278, -14.08, 97.4483, -51.5278, 44.0335
1.62, 2, 35.9151, 48.1278, -14.08, 97.4483, -51.5278, 44.0335
1.624, 2, 35.9151, 48.1278, -14.08, 97.4483, -51.5278, 44.0335
1.628, 2, 35.9151, 48.1278, -14.08, 97.4483, -51.5278, 44.0335
1.632, 2, 35.9151, 48.1278, -14.08, 97.4483, -51.5278, 44.0335
1.636, 2, 35.9151, 48.1278, -14.08, 97.4483, -51.5278, 44.0335
1.64, 2, 35.9151, 48.1278, -14.08, 97.4483, -51.5278, 44.0335
1.644, 2, 35.9151, 48.1278, -14.08, 97.4483, -51.5278, 44.0335
1.648, 2, 35.9151, 48.1278, -14.08, 97.4483, -51.5278, 44.0335
1.652, 2, 35.9151, 48.1278, -14.08, 97.4483, -51.5278, 44.0335
1.656, 2, 35.9151, 48.1278, -14.08, 97.4483, -51.5278, 44.0335
1.66, 2, 35.9151, 48.1278, -14.08, 97.4483, -51.5278, 44.0335
1.664, 2, 35.9151, 48.1278, -14.08, 97.4483, -51.5278, 44.0335
1.668, 2, 35.9151, 48.1278, -14.08, 97.4483, -51.5278, 44.0335
1.672, 2, 35.9151, 48.1278, -14.08, 97.4483, -51.5278, 44.0335
1.676, 2, 35.9151, 48.1278, -14.08, 97.4483, -51.5278, 44.0335
1.68, 2, 35.9151, 48.1278, -14.08, 97.4483, -51.5278, 44.0335
1.684, 2, 35.9151, 48.1278, -14.08, 97.4483, -51.5278, 44.0335
1.688, 2, 35.9151, 48.1278, -14.08, 97.4483, -51.5278, 44.0335
1.692, 2, 35.9151, 48.1278, -14.08, 97.4483, -51.5278, 44.0335
1.696, 2, 35.9151, 48.1278, -14.08, 97.4483, -51.5278, 44.0335
1.7, 2, 35.9151, 48.1278, -14.08, 97.4483, -51.5278, 44.0335
1.704, 2, 35.9151, 48.1278, -14.08, 97.4483, -51.5278, 44.0335
1.708, 2, 35.9151, 48.1278, -14.08, 97.4483, -51.5278, 44.0335
1.712, 2, 35.9151, 48.1278, -14.08, 97.4483, -51.5278, 44.0335
1.716, 2, 35.9151, 48.1278, -14.08, 97.4483, -51.5278, 44.0335
1.72, 2, 35.9151, 48.1278, -14.08, 97.4483, -51.5278, 44.0335
1.724, 2, 35.9151, 48.1278, -14.08, 97.4483, -51.5278, 44.0335
1.728, 2, 35.9151, 48.1278, -14.08, 97.4483, -51.5278, 44.0335
1.732, 2, 35.9151, 48.1278, -14.08, 97.4483, -51.5278, 44.0335
1.736, 2, 35.9151, 48.1278, -14.08, 97.4483, -51.5278, 44.0335
1.74, 2, 35.9151, 48.1278, -14.08, 97.4483, -51.5278, 44.0335
1.744, 2, 35.9151, 48.1278, -14.08, 97.4483, -51.5278, 44.0335
1.748, 2, 35.9151, 48.1278, -14.08, 97.4483, -51.5278, 44.0335
1.752, 2, 35.9151, 48.1278, -14.08, 97.4483, -51.5278, 44.0335
1.756, 2, 35.9151, 48.1278, -14.08, 97.4483, -51.5278, 44.0335
1.76, 2, 35.9151, 48.1278, -14.08, 97.4483, -51.5278, 44.0335
1.764, 2, 35.9151, 48.1278, -14.08, 97.4483, -51.5278, 44.0335
1.768, 2, 35.9151, 48.1278, -14.08, 97.4483, -51.5278, 44.0335
1.772, 2, 35.9151, 48.1278, -14.08, 97.4483, -51.5278, 44.0335
1.776, 2, 35.9151, 48.1278, -14.08, 97.4483, -51.5278, 44.0335
1.78, 2, 35.9151, 48.1278, -14.08, 97.4483, -51.5278, 44.0335
1.784, 2, 35.9151, 48.1278, -14.08, 97.4483, -51.5278, 44.0335
1.788, 2, 35.9151, 48.1278, -14.08, 97.4483, -51.5278, 44.0335
1.792, 2, 35.9151, 48.1278, -14.08, 97.4483, -51.5278, 44.0335
1.796, 2, 35.9151, 48.1278, -14.08, 97.4483, -51.5278, 44.0335
1.8, 2, 35.9151, 48.1278, -14.08, 97.4483, -51.5278, 44.0335
1.804, 2, 35.9151, 48.1278, -14.08, 97.4483, -51.5278, 44.0335
1.808, 2, 35.9151, 48.1278, -14.08, 97.4483, -51.5278, 44.0335
1.812, 2, 35.9151, 48.1278, -14.08, 97.4483, -51.5278, 44.0335
1.816, 2, 35.9151, 48.1278, -14.08, 97.4483, -51.5278, 44.0335
1.82, 2, 35.9151, 48.1278, -14.08, 97.4483, -51.5278, 44.0335
1.824, 2, 35.9151, 48.1278, -14.08, 97.4483, -51.5278, 44.0335
1.828, 2, 35.9151, 48.1278, -14.08, 97.4483, -51.5278, 44.0335
1.832, 2, 35.9151, 48.1278, -14.08, 97.4483, -51.5278, 44.0335
1.836, 2, 35.9151, 48.1278, -14.08, 97.4483, -51.5278, 44.0335
1.84, 2, 35.9151, 48.1278, -14.08, 97.4483, -51.5278, 44.0335
1.844, 2, 35.9151, 48.1278, -14.08, 97.4483, -51.5278, 44.0335
1.848, 2, 35.9151, 48.1278, -14.08, 97.4483, -51.5278, 44.0335
1.852, 2, 35.9151, 48.1278, -14.08, 97.4483, -51.5278, 44.0335
1.856, 2, 35.9151, 48.1278, -14.08, 97.4483, -51.5278, 44.0335
1.86, 2, 35.9151, 48.1278, -14.08, 97.4483, -51.5278, 44.0335
1.864, 2, 35.9151, 48.1278, -14.08, 97.4483, -51.5278, 44.0335
1.868, 2, 35.9151, 48.1278, -14.08, 97.4483, -51.5278, 44.0335
1.872, 2, 35.9151, 48.1278, -14.08, 97.4483, -51.5278, 44.0335
1.876, 2, 35.9151, 48.1278, -14.08, 97.4483, -51.5278, 44.0335
1.88, 2, 35.9151, 48.1278, -14.08, 97.4483, -51.5278, 44.0335
1.884, 2, 35.9151, 48.1278, -14.08, 97.4483, -51.5278, 44.0335
1.888, 2, 35.9151, 48.1278, -14.08, 97.4483, -51.5278, 44.0335
1.892, 2, 35.9151, 48.1278, -14.08, 97.4483, -51.5278, 44.0335
1.896, 2, 35.9151, 48.1278, -14.08, 97.4483, -51.5278, 44.0335
1.9, 2, 35.9151, 48.1278, -14.08, 97.4483, -51.5278, 44.0335
1.904, 2, 35.9151, 48.1278, -14.08, 97.4483, -51.5278, 44.0335
1.908, 2, 35.9151, 48.1278, -14.08, 97.4483, -51.5278, 44.0335
1.912, 2, 35.9151, 48.1278, -14.08, 97.4483, -51.5278, 44.0335
1.916, 2, 35.9151, 48.1278, -14.08, 97.4483, -51.5278, 44.0335
1.92, 2, 35.9151, 48.1278, -14.08, 97.4483, -51.5278, 44.0335
1.924, 2, 35.9151, 48.1278, -14.08, 97.4483, -51.5278, 44.0335
1.928, 2, 35.9151, 48.1278, -14.08, 97.4483, -51.5278, 44.0335
1.932, 2, 35.9151, 48.1278, -14.08, 97.4483, -51.5278, 44.0335
1.936, 2, 35.9151, 48.1278, -14.08, 97.4483, -51.5278, 44.0335
1.94, 2, 35.9151, 48.1278, -14.08, 97.4483, -51.5278, 44.0335
1.944, 2, 35.9151, 48.1278, -14.08, 97.4483, -51.5278, 44.0335
1.948, 2, 35.9151, 48.1278, -14.08, 97.4483, -51.5278, 44.0335
1.952, 2, 35.9151, 48.1278, -14.08, 97.4483, -51.5278, 44.0335
1.956, 2, 35.9151, 48.1278, -14.08, 97.4483, -51.5278, 44.0335
1.96, 2, 35.9151, 48.1278, -14.08, 97.4483, -51.5278, 44.0335
1.964, 2, 35.9151, 48.1278, -14.08, 97.4483, -51.5278, 44.0335
1.968, 3, 35.9151, 48.1278, -14.08, 97.4483, -51.5278, 44.0335
1.972, 3, 35.9151, 48.1278, -14.08, 97.4483, -51.5278, 44.0335
1.976, 3, 35.9151, 48.1278, -14.08, 97.4483, -51.5278, 44.0335
1.98, 3, 35.9151, 48.1278, -14.08, 97.4483, -51.5278, 44.0335
1.984, 3, 35.9151, 48.1278, -14.08, 97.4483, -51.5278, 44.0335
1.988, 3, 35.9151, 48.1278, -14.08, 97.4483, -51.5278, 44.0335
1.992, 3, 35.9151, 48.1278, -14.08, 97.4483, -51.5278, 44.0335
1.996, 3, 35.9151, 48.1278, -14.08, 97.4483, -51.5278, 44.0335
1.999, 3, 35.9151, 48.1278, -14.08, 97.4483, -51.5278, 44.0335
2.004, 4, 35.9151, 48.1278, -14.08, 97.4483, -51.5278, 44.0335
2.008, 4, 35.9151, 48.1278, -14.08, 97.4483, -51.5278, 44.0335
2.012, 4, 35.9151, 48.1278, -14.08, 97.4483, -51.5278, 44.0335
2.015, 4, 35.9151, 48.1278, -14.08, 97.4483, -51.5278, 44.0335
2.019, 4, 35.9151, 48.1278, -14.08, 97.4483, -51.5278, 44.0335
2.024, 4, 35.9151, 48.1278, -14.08, 97.4483, -51.5278, 44.0335
2.028, 4, 35.9151, 48.1278, -14.08, 97.4483, -51.5278, 44.0335
2.031, 4, 35.9151, 48.1278, -14.08, 97.4483, -51.5278, 44.0335
2.036, 4, 35.9151, 48.1278, -14.08, 97.4483, -51.5278, 44.0335
2.04, 4, 35.9151, 48.1278, -14.08, 97.4483, -51.5278, 44.0335
2.044, 4, 35.9151, 48.1278, -14.08, 97.4483, -51.5278, 44.0335
2.048, 4, 35.9151, 48.1278, -14.08, 97.4483, -51.5278, 44.0335
2.051, 4, 35.9151, 48.1278, -14.08, 97.4483, -51.5278, 44.0335
2.055, 4, 35.9151, 48.1278, -14.08, 97.4483, -51.5278, 44.0335
2.06, 4, 35.9151, 48.1278, -14.08, 97.4483, -51.5278, 44.0335
2.064, 4, 35.9151, 48.1278, -14.08, 97.4483, -51.5278, 44.0335
2.068, 4, 35.9151, 48.1278, -14.08, 97.4483, -51.5278, 44.0335
2.071, 4, 35.9151, 48.1278, -14.08, 97.4483, -51.5278, 44.0335
2.076, 4, 35.9151, 48.1278, -14.08, 97.4483, -51.5278, 44.0335
2.08, 4, 35.9151, 48.1278, -14.08, 97.4483, -51.5278, 44.0335
2.084, 4, 35.9151, 48.1278, -14.08, 97.4483, -51.5278, 44.0335
2.087, 4, 35.9151, 48.1278, -14.08, 97.4483, -51.5278, 44.0335
2.092, 4, 35.9151, 48.1278, -14.08, 97.4483, -51.5278, 44.0335
2.096, 4, 35.9151, 48.1278, -14.08, 97.4483, -51.5278, 44.0335
2.1, 4, 35.9151, 48.1278, -14.08, 97.4483, -51.5278, 44.0335
2.104, 5, 35.9151, 48.1278, -14.08, 97.4483, -51.5278, 44.0335
2.107, 6, 35.9151, 48.1278, -14.08, 97.4483, -51.5278, 44.0335
2.112, 6, 35.9151, 48.1278, -14.08, 97.4483, -51.5278, 44.0335
2.116, 6, 35.9151, 48.1278, -14.08, 97.4483, -51.5278, 44.0335
2.12, 6, 35.9151, 48.1278, -14.08, 97.4483, -51.5278, 44.0335
2.124, 6, 35.9151, 48.1278, -14.08, 97.4483, -51.5278, 44.0335
2.127, 6, 35.9151, 48.1278, -14.08, 97.4483, -51.5278, 44.0335
2.132, 6, 35.9151, 48.1278, -14.08, 97.4483, -51.5278, 44.0335
2.136, 6, 35.9151, 48.1278, -14.08, 97.4483, -51.5278, 44.0335
2.14, 6, 35.9151, 48.1278, -14.08, 97.4483, -51.5278, 44.0335
2.143, 6, 35.9151, 48.1278, -14.08, 97.4483, -51.5278, 44.0335
2.148, 6, 35.9151, 48.1278, -14.08, 97.4483, -51.5278, 44.0335
2.152, 6, 35.9151, 48.1278, -14.08, 97.4483, -51.5278, 44.0335
2.156, 6, 35.915, 48.128, -14.08, 97.4483, -51.5279, 44.0335
2.16, 6, 35.9148, 48.1283, -14.08, 97.4483, -51.5279, 44.0335
2.163, 6, 35.9144, 48.1291, -14.08, 97.4483, -51.5281, 44.0334
2.168, 6, 35.9137, 48.1303, -14.08, 97.4482, -51.5284, 44.0333
2.172, 6, 35.9128, 48.1322, -14.0799, 97.4481, -51.5292, 44.033
2.176, 6, 35.9115, 48.1347, -14.0798, 97.4478, -51.5306, 44.0325
2.179, 6, 35.9099, 48.1381, -14.0797, 97.4474, -51.533, 44.0316
2.184, 6, 35.9081, 48.1424, -14.0795, 97.4468, -51.5369, 44.0301
2.188, 6, 35.9059, 48.1478, -14.0792, 97.4458, -51.5429, 44.0278
2.192, 6, 35.9035, 48.1545, -14.0787, 97.4444, -51.5515, 44.0245
2.196, 6, 35.9006, 48.1627, -14.078, 97.4423, -51.5637, 44.0199
2.199, 6, 35.8975, 48.1726, -14.0772, 97.4395, -51.5802, 44.0136
2.204, 6, 35.8939, 48.1843, -14.076, 97.4358, -51.6021, 44.0053
2.208, 6, 35.8899, 48.1979, -14.0745, 97.431, -51.6305, 43.9945
2.212, 6, 35.8855, 48.2135, -14.0725, 97.4248, -51.6663, 43.9809
2.216, 6, 35.8807, 48.2312, -14.07, 97.4172, -51.7108, 43.964
2.219, 6, 35.8755, 48.251, -14.0669, 97.4077, -51.765, 43.9434
2.224, 6, 35.8699, 48.2732, -14.0631, 97.3964, -51.83, 43.9188
2.228, 6, 35.8637, 48.298, -14.0584, 97.3829, -51.9068, 43.8897
2.232, 6, 35.8569, 48.3254, -14.0528, 97.367, -51.9961, 43.856
2.235, 6, 35.8495, 48.3556, -14.0462, 97.3486, -52.0989, 43.8172
2.24, 6, 35.8414, 48.3888, -14.0385, 97.3275, -52.2158, 43.7732
2.244, 6, 35.8325, 48.4251, -14.0296, 97.3035, -52.3473, 43.7238
2.248, 6, 35.8228, 48.4646, -14.0195, 97.2764, -52.4941, 43.6688
2.252, 6, 35.8121, 48.5074, -14.0081, 97.246, -52.6565, 43.6081
2.255, 6, 35.8005, 48.5537, -13.9952, 97.2123, -52.8349, 43.5416
2.259, 6, 35.7878, 48.6035, -13.9808, 97.175, -53.0295, 43.4693
2.264, 6, 35.7739, 48.657, -13.9646, 97.134, -53.2404, 43.3911
2.268, 6, 35.7587, 48.7141, -13.9464, 97.0891, -53.468, 43.3071
2.272, 6, 35.7421, 48.775, -13.9262, 97.0401, -53.7123, 43.2172
2.275, 6, 35.7241, 48.8395, -13.9036, 96.9868, -53.9734, 43.1214
2.28, 6, 35.7046, 48.9076, -13.8786, 96.9292, -54.2516, 43.0199
2.284, 6, 35.6835, 48.9793, -13.8509, 96.8668, -54.5469, 42.9124
2.288, 6, 35.6609, 49.0544, -13.8204, 96.7997, -54.8595, 42.7992
2.291, 6, 35.6366, 49.1324, -13.7869, 96.7274, -55.1894, 42.6801
2.296, 6, 35.6109, 49.2131, -13.7503, 96.6499, -55.5367, 42.5554
2.3, 6, 35.5837, 49.2959, -13.7106, 96.5669, -55.9013, 42.4249
2.304, 6, 35.5553, 49.3804, -13.6675, 96.4784, -56.2829, 42.289
2.308, 6, 35.5257, 49.4664, -13.6207, 96.3842, -56.681, 42.1479
2.311, 6, 35.4948, 49.5535, -13.57, 96.2844, -57.0947, 42.0017
2.316, 6, 35.4627, 49.6416, -13.515, 96.1791, -57.5231, 41.8511
2.32, 6, 35.4292, 49.7305, -13.4555, 96.0683, -57.9649, 41.6963
2.324, 6, 35.3943, 49.8198, -13.3913, 95.9524, -58.4188, 41.5379
2.328, 6, 35.3579, 49.9095, -13.3225, 95.8315, -58.8832, 41.3765
2.331, 6, 35.32, 49.9994, -13.2491, 95.706, -59.3566, 41.2126
2.336, 6, 35.2805, 50.0897, -13.1713, 95.5762, -59.8374, 41.0467
2.34, 6, 35.2392, 50.1807, -13.0894, 95.4426, -60.324, 40.8793
2.344, 6, 35.1961, 50.2729, -13.0035, 95.3054, -60.8153, 40.7109
2.347, 6, 35.1509, 50.3667, -12.914, 95.1651, -61.31, 40.5418
2.352, 6, 35.1036, 50.4626, -12.8212, 95.0223, -61.8075, 40.3724
2.356, 6, 35.0539, 50.5604, -12.7253, 94.8771, -62.3071, 40.2027
2.36, 6, 35.002, 50.66, -12.6268, 94.73, -62.8088, 40.033
2.364, 6, 34.948, 50.761, -12.5259, 94.5812, -63.3127, 39.8631
2.367, 6, 34.8922, 50.8626, -12.4229, 94.4308, -63.8189, 39.6931
2.372, 6, 34.835, 50.9643, -12.3182, 94.2789, -64.3278, 39.5228
2.376, 6, 34.7767, 51.0658, -12.212, 94.1257, -64.8398, 39.3523
2.38, 6, 34.7176, 51.1669, -12.1046, 93.9712, -65.3549, 39.1815
2.383, 6, 34.658, 51.2674, -11.9965, 93.8155, -65.873, 39.0107
2.388, 6, 34.5979, 51.3672, -11.888, 93.6588, -66.3938, 38.8399
2.392, 6, 34.5376, 51.4664, -11.7794, 93.5014, -66.9163, 38.6695
2.396, 6, 34.4771, 51.5648, -11.6711, 93.3434, -67.4396, 38.4998
2.4, 6, 34.4168, 51.6625, -11.5636, 93.1852, -67.9623, 38.3314
2.403, 6, 34.3568, 51.7595, -11.457, 93.0271, -68.4828, 38.1648
2.408, 6, 34.2972, 51.8558, -11.3519, 92.8694, -68.9993, 38.0005
2.412, 6, 34.2381, 51.9516, -11.2486, 92.7126, -69.5101, 37.8391
2.416, 6, 34.1792, 52.0472, -11.1473, 92.5572, -70.0132, 37.6811
2.42, 6, 34.1202, 52.1429, -11.0485, 92.4036, -70.5069, 37.5271
2.423, 6, 34.061, 52.2388, -10.9523, 92.2524, -70.9894, 37.3775
2.428, 6, 34.0013, 52.3351, -10.8592, 92.104, -71.4593, 37.2326
2.432, 6, 33.9413, 52.4314, -10.7692, 91.959, -71.9153, 37.0929
2.436, 6, 33.881, 52.5274, -10.6826, 91.8177, -72.3566, 36.9585
2.439, 6, 33.821, 52.6226, -10.5994, 91.6805, -72.7823, 36.8295
2.444, 6, 33.7615, 52.7166, -10.5197, 91.5475, -73.192, 36.706
2.448, 6, 33.7029, 52.8089, -10.4435, 91.4189, -73.5853, 36.5881
2.452, 6, 33.6454, 52.8992, -10.3709, 91.295, -73.9622, 36.4756
2.456, 6, 33.5892, 52.9872, -10.3018, 91.1759, -74.3226, 36.3686
2.459, 6, 33.5345, 53.0726, -10.2361, 91.0615, -74.6665, 36.2669
2.464, 6, 33.4814, 53.1553, -10.1738, 90.9521, -74.9939, 36.1704
2.468, 6, 33.43, 53.2351, -10.1149, 90.8475, -75.3051, 36.0792
2.472, 6, 33.3805, 53.3117, -10.0593, 90.7479, -75.6002, 35.9929
2.476, 6, 33.333, 53.3851, -10.0068, 90.6533, -75.8794, 35.9116
2.479, 6, 33.2876, 53.4551, -9.95749, 90.5636, -76.1429, 35.835
2.484, 6, 33.2444, 53.5215, -9.91123, 90.4788, -76.391, 35.7632
2.488, 6, 33.2034, 53.5845, -9.86797, 90.399, -76.6238, 35.696
2.492, 6, 33.1646, 53.6439, -9.82765, 90.3241, -76.8415, 35.6333
2.495, 6, 33.128, 53.6999, -9.79022, 90.2541, -77.0443, 35.575
2.5, 6, 33.0935, 53.7525, -9.75562, 90.1889, -77.2324, 35.5211
2.504, 6, 33.061, 53.8019, -9.72379, 90.1287, -77.4061, 35.4714
2.508, 6, 33.0306, 53.848, -9.69467, 90.0732, -77.5656, 35.4259
2.512, 6, 33.0021, 53.891, -9.66817, 90.0224, -77.7113, 35.3843
2.515, 6, 32.9755, 53.9309, -9.6442, 89.9762, -77.8436, 35.3467
2.52, 6, 32.9509, 53.9677, -9.62266, 89.9344, -77.963, 35.3128
2.524, 6, 32.9283, 54.0015, -9.60344, 89.8969, -78.0699, 35.2824
2.528, 6, 32.9075, 54.0323, -9.58643, 89.8636, -78.165, 35.2554
2.531, 6, 32.8885, 54.0605, -9.57151, 89.8341, -78.2488, 35.2317
2.536, 6, 32.8711, 54.086, -9.55855, 89.8083, -78.322, 35.2109
2.54, 6, 32.8552, 54.1093, -9.54742, 89.786, -78.3854, 35.193
2.544, 6, 32.8408, 54.1302, -9.53798, 89.7669, -78.4396, 35.1777
2.548, 6, 32.8277, 54.1491, -9.53006, 89.7507, -78.4854, 35.1647
2.551, 6, 32.816, 54.166, -9.5235, 89.7371, -78.5238, 35.1539
2.556, 6, 32.8057, 54.181, -9.51814, 89.7259, -78.5555, 35.1449
2.56, 6, 32.7966, 54.1943, -9.51383, 89.7168, -78.5813, 35.1376
2.564, 6, 32.7886, 54.2061, -9.51042, 89.7095, -78.602, 35.1318
2.568, 7, 32.7816, 54.2165, -9.50777, 89.7037, -78.6183, 35.1272
2.571, 7, 32.7754, 54.2256, -9.50578, 89.6992, -78.6309, 35.1236
2.576, 7, 32.7698, 54.2337, -9.50432, 89.6958, -78.6404, 35.1209
2.58, 7, 32.7648, 54.2405, -9.50328, 89.6934, -78.6475, 35.1189
2.584, 7, 32.7605, 54.2462, -9.50257, 89.6916, -78.6526, 35.1175
2.587, 7, 32.7569, 54.2508, -9.50209, 89.6903, -78.6562, 35.1165
2.592, 7, 32.7539, 54.2542, -9.50178, 89.6894, -78.6587, 35.1158
2.596, 7, 32.7517, 54.2567, -9.50157, 89.6888, -78.6604, 35.1153
2.6, 7, 32.75, 54.2585, -9.50144, 89.6884, -78.6615, 35.115
2.604, 7, 32.7489, 54.2597, -9.50135, 89.6881, -78.6623, 35.1147
2.607, 7, 32.7481, 54.2606, -9.50128, 89.6879, -78.6628, 35.1146
2.612, 7, 32.7476, 54.2611, -9.50124, 89.6878, -78.6632, 35.1145
2.616, 7, 32.7472, 54.2615, -9.50121, 89.6877, -78.6635, 35.1144
2.62, 7, 32.747, 54.2618, -9.50119, 89.6876, -78.6636, 35.1144
2.624, 7, 32.7468, 54.2619, -9.50118, 89.6876, -78.6637, 35.1143
2.627, 7, 32.7467, 54.2621, -9.50117, 89.6876, -78.6638, 35.1143
2.632, 7, 32.7467, 54.2621, -9.50117, 89.6875, -78.6639, 35.1143
2.636, 7, 32.7466, 54.2622, -9.50116, 89.6875, -78.6639, 35.1143
2.64, 7, 32.7466, 54.2622, -9.50116, 89.6875, -78.6639, 35.1143
2.643, 7, 32.7465, 54.2623, -9.50116, 89.6875, -78.6639, 35.1143
2.648, 7, 32.7465, 54.2623, -9.50116, 89.6875, -78.6639, 35.1143
2.652, 7, 32.7465, 54.2623, -9.50116, 89.6875, -78.664, 35.1143
2.656, 7, 32.7465, 54.2623, -9.50116, 89.6875, -78.664, 35.1143
2.66, 7, 32.7465, 54.2623, -9.50116, 89.6875, -78.664, 35.1143
2.663, 7, 32.7465, 54.2623, -9.50116, 89.6875, -78.664, 35.1143
