hehonglu123/ABB_Primitive_Study/execution/movec+movel_smooth/curve_exe_v300_z1.csv
timestamp, cmd_num, J1, J2, J3, J4, J5, J6
0, -1, 32.7465, 54.2623, -9.50115, 89.6875, -78.664, 35.1143
0.002, -1, 32.7465, 54.2623, -9.50115, 89.6875, -78.664, 35.1143
0.006, -1, 32.7465, 54.2623, -9.50115, 89.6875, -78.664, 35.1143
0.008, -1, 32.7465, 54.2623, -9.50115, 89.6875, -78.664, 35.1143
0.011, -1, 32.7465, 54.2623, -9.50115, 89.6875, -78.664, 35.1143
0.016, -1, 32.7465, 54.2623, -9.50115, 89.6875, -78.664, 35.1143
0.02, -1, 32.7465, 54.2623, -9.50115, 89.6875, -78.664, 35.1143
0.024, -1, 32.7465, 54.2623, -9.50115, 89.6875, -78.664, 35.1143
0.028, -1, 32.7465, 54.2623, -9.50115, 89.6875, -78.664, 35.1143
0.032, -1, 32.7465, 54.2623, -9.50115, 89.6875, -78.664, 35.1143
0.036, -1, 32.7466, 54.2623, -9.50115, 89.6875, -78.664, 35.1143
0.04, -1, 32.7467, 54.2621, -9.50116, 89.6875, -78.664, 35.1143
0.044, -1, 32.7471, 54.2618, -9.50116, 89.6875, -78.6639, 35.1143
0.048, -1, 32.7479, 54.2611, -9.50118, 89.6876, -78.6638, 35.1144
0.052, -1, 32.7491, 54.2598, -9.50124, 89.6877, -78.6634, 35.1145
0.056, -1, 32.7507, 54.2577, -9.50136, 89.6879, -78.6626, 35.1147
0.06, -1, 32.7529, 54.2547, -9.50159, 89.6883, -78.6611, 35.1152
0.064, -1, 32.7556, 54.2507, -9.502, 89.689, -78.6586, 35.1161
0.068, -1, 32.7588, 54.2455, -9.50267, 89.6902, -78.6545, 35.1174
0.072, -1, 32.7625, 54.2391, -9.5037, 89.692, -78.6482, 35.1195
0.076, -1, 32.7668, 54.2314, -9.50521, 89.6946, -78.6391, 35.1225
0.08, -1, 32.7718, 54.2224, -9.50734, 89.6982, -78.6262, 35.1267
0.084, -1, 32.7776, 54.212, -9.51024, 89.7032, -78.6088, 35.1325
0.088, -1, 32.784, 54.2002, -9.5141, 89.7098, -78.5857, 35.1401
0.092, -1, 32.7912, 54.1873, -9.51908, 89.7183, -78.5559, 35.1499
0.096, -1, 32.7988, 54.1733, -9.52538, 89.729, -78.5183, 35.1622
0.1, -1, 32.8067, 54.1585, -9.53315, 89.7422, -78.472, 35.1774
0.104, -1, 32.815, 54.143, -9.54252, 89.7581, -78.4163, 35.1957
0.108, -1, 32.8235, 54.1267, -9.55357, 89.7769, -78.3507, 35.2173
0.112, -1, 32.8324, 54.1096, -9.56636, 89.7986, -78.2748, 35.2423
0.116, -1, 32.8415, 54.0916, -9.58087, 89.8232, -78.1888, 35.2705
0.12, -1, 32.8511, 54.0725, -9.59706, 89.8507, -78.0929, 35.3021
0.124, -1, 32.8611, 54.0525, -9.61485, 89.8808, -77.9875, 35.3367
0.128, -1, 32.8716, 54.0317, -9.63411, 89.9134, -77.8735, 35.3742
0.131, -1, 32.8823, 54.0101, -9.65471, 89.9483, -77.7516, 35.4142
0.136, -1, 32.8932, 53.9877, -9.67648, 89.9852, -77.6227, 35.4566
0.139, -1, 32.9045, 53.9644, -9.69923, 90.0237, -77.4881, 35.5008
0.144, -1, 32.9163, 53.9399, -9.72278, 90.0636, -77.3487, 35.5466
0.148, -1, 32.9288, 53.914, -9.74695, 90.1045, -77.2057, 35.5936
0.152, -1, 32.942, 53.8866, -9.77157, 90.1462, -77.0599, 35.6415
0.156, -1, 32.9561, 53.8575, -9.79651, 90.1885, -76.9123, 35.6901
0.16, -1, 32.9711, 53.8271, -9.82165, 90.231, -76.7634, 35.739
0.164, -1, 32.9869, 53.7955, -9.84692, 90.2739, -76.6137, 35.7882
0.168, -1, 33.0032, 53.7631, -9.87226, 90.3168, -76.4636, 35.8375
0.172, -1, 33.02, 53.7302, -9.89762, 90.3598, -76.3133, 35.8869
0.176, -1, 33.037, 53.6969, -9.92299, 90.4028, -76.163, 35.9363
0.18, -1, 33.0541, 53.6634, -9.94833, 90.4457, -76.0128, 35.9857
0.184, -1, 33.0714, 53.6298, -9.97365, 90.4886, -75.8628, 36.035
0.188, -1, 33.0888, 53.5962, -9.99894, 90.5315, -75.713, 36.0842
0.192, -1, 33.1061, 53.5625, -10.0242, 90.5743, -75.5634, 36.1334
0.196, -1, 33.1235, 53.5289, -10.0494, 90.617, -75.4141, 36.1825
0.2, -1, 33.1409, 53.4952, -10.0745, 90.6596, -75.265, 36.2315
0.204, -1, 33.1582, 53.4616, -10.0996, 90.7021, -75.1163, 36.2804
0.208, -1, 33.1755, 53.4281, -10.1247, 90.7446, -74.9678, 36.3292
0.212, -1, 33.1928, 53.3946, -10.1497, 90.787, -74.8197, 36.3779
0.216, -1, 33.2101, 53.3612, -10.1746, 90.8292, -74.6718, 36.4265
0.22, -1, 33.2273, 53.3278, -10.1995, 90.8714, -74.5242, 36.475
0.224, -1, 33.2446, 53.2945, -10.2244, 90.9136, -74.377, 36.5234
0.228, -1, 33.2617, 53.2613, -10.2492, 90.9556, -74.23, 36.5717
0.232, -1, 33.2789, 53.2282, -10.2739, 90.9975, -74.0834, 36.6199
0.236, -1, 33.296, 53.1951, -10.2986, 91.0394, -73.937, 36.668
0.24, -1, 33.313, 53.162, -10.3233, 91.0812, -73.7909, 36.716
0.244, -1, 33.3301, 53.1291, -10.3479, 91.1229, -73.6451, 36.7639
0.248, -1, 33.3471, 53.0962, -10.3724, 91.1645, -73.4996, 36.8117
0.252, -1, 33.364, 53.0633, -10.3969, 91.206, -73.3544, 36.8595
0.256, -1, 33.381, 53.0306, -10.4214, 91.2474, -73.2095, 36.9071
0.26, -1, 33.3979, 52.9979, -10.4458, 91.2888, -73.0649, 36.9546
0.264, -1, 33.4147, 52.9652, -10.4701, 91.3301, -72.9206, 37.0021
0.268, -1, 33.4316, 52.9327, -10.4944, 91.3713, -72.7765, 37.0494
0.272, -1, 33.4484, 52.9002, -10.5187, 91.4124, -72.6327, 37.0967
0.276, -1, 33.4651, 52.8677, -10.5429, 91.4534, -72.4893, 37.1438
0.28, -1, 33.4819, 52.8353, -10.5671, 91.4944, -72.346, 37.1909
0.284, -1, 33.4986, 52.803, -10.5912, 91.5353, -72.2031, 37.2379
0.288, -1, 33.5152, 52.7708, -10.6153, 91.5761, -72.0604, 37.2848
0.292, -1, 33.5319, 52.7386, -10.6393, 91.6168, -71.9181, 37.3316
0.296, -1, 33.5485, 52.7065, -10.6633, 91.6574, -71.776, 37.3783
0.3, -1, 33.5651, 52.6744, -10.6872, 91.698, -71.6341, 37.4249
0.304, -1, 33.5816, 52.6424, -10.7111, 91.7385, -71.4925, 37.4714
0.308, -1, 33.5981, 52.6104, -10.7349, 91.7789, -71.3513, 37.5179
0.312, -1, 33.6146, 52.5785, -10.7587, 91.8192, -71.2102, 37.5642
0.316, -1, 33.631, 52.5467, -10.7825, 91.8595, -71.0695, 37.6105
0.32, -1, 33.6474, 52.5149, -10.8062, 91.8997, -70.929, 37.6567
0.324, -1, 33.6638, 52.4832, -10.8299, 91.9398, -70.7887, 37.7028
0.328, -1, 33.6802, 52.4516, -10.8535, 91.9798, -70.6488, 37.7488
0.332, -1, 33.6965, 52.42, -10.8771, 92.0198, -70.509, 37.7947
0.336, -1, 33.7128, 52.3885, -10.9006, 92.0597, -70.3696, 37.8405
0.34, -1, 33.7291, 52.357, -10.9241, 92.0995, -70.2304, 37.8863
0.344, -1, 33.7453, 52.3256, -10.9475, 92.1392, -70.0914, 37.9319
0.348, -1, 33.7615, 52.2942, -10.9709, 92.1789, -69.9528, 37.9775
0.352, -1, 33.7777, 52.2629, -10.9943, 92.2185, -69.8143, 38.023
0.356, -1, 33.7938, 52.2317, -11.0176, 92.258, -69.6762, 38.0685
0.36, -1, 33.8099, 52.2005, -11.0409, 92.2974, -69.5382, 38.1138
0.364, -1, 33.826, 52.1694, -11.0641, 92.3368, -69.4006, 38.159
0.368, -1, 33.8421, 52.1383, -11.0873, 92.3761, -69.2631, 38.2042
0.372, -1, 33.8581, 52.1073, -11.1104, 92.4153, -69.126, 38.2493
0.376, -1, 33.8741, 52.0763, -11.1336, 92.4545, -68.989, 38.2943
0.38, -1, 33.8901, 52.0454, -11.1566, 92.4936, -68.8523, 38.3392
0.384, -1, 33.906, 52.0146, -11.1796, 92.5326, -68.7159, 38.3841
0.388, -1, 33.9219, 51.9838, -11.2026, 92.5716, -68.5797, 38.4288
0.392, -1, 33.9378, 51.953, -11.2256, 92.6104, -68.4437, 38.4735
0.396, -1, 33.9537, 51.9224, -11.2485, 92.6493, -68.308, 38.5181
0.4, -1, 33.9695, 51.8917, -11.2713, 92.688, -68.1725, 38.5627
0.404, -1, 33.9853, 51.8611, -11.2942, 92.7267, -68.0373, 38.6071
0.408, -1, 34.0011, 51.8306, -11.3169, 92.7653, -67.9023, 38.6515
0.412, -1, 34.0168, 51.8002, -11.3397, 92.8038, -67.7675, 38.6958
0.416, -1, 34.0326, 51.7697, -11.3624, 92.8423, -67.633, 38.74
0.42, -1, 34.0483, 51.7394, -11.385, 92.8807, -67.4987, 38.7842
0.424, -1, 34.0639, 51.7091, -11.4077, 92.9191, -67.3646, 38.8282
0.428, -1, 34.0796, 51.6788, -11.4302, 92.9574, -67.2307, 38.8722
0.432, -1, 34.0952, 51.6486, -11.4528, 92.9956, -67.0971, 38.9161
0.436, -1, 34.1108, 51.6184, -11.4753, 93.0337, -66.9637, 38.96
0.44, -1, 34.1263, 51.5883, -11.4978, 93.0718, -66.8306, 39.0038
0.444, -1, 34.1418, 51.5583, -11.5202, 93.1098, -66.6976, 39.0474
0.448, -1, 34.1573, 51.5282, -11.5426, 93.1478, -66.5649, 39.0911
0.452, -1, 34.1728, 51.4983, -11.565, 93.1857, -66.4324, 39.1346
0.456, -1, 34.1883, 51.4684, -11.5873, 93.2235, -66.3002, 39.1781
0.46, -1, 34.2037, 51.4385, -11.6096, 93.2613, -66.1681, 39.2215
0.464, -1, 34.2191, 51.4087, -11.6318, 93.299, -66.0363, 39.2648
0.468, -1, 34.2345, 51.379, -11.654, 93.3366, -65.9047, 39.3081
0.472, -1, 34.2498, 51.3493, -11.6762, 93.3742, -65.7733, 39.3513
0.476, -1, 34.2652, 51.3196, -11.6983, 93.4117, -65.6421, 39.3944
0.48, -1, 34.2805, 51.29, -11.7204, 93.4492, -65.5111, 39.4374
0.484, -1, 34.2957, 51.2604, -11.7425, 93.4865, -65.3804, 39.4804
0.488, -1, 34.311, 51.2309, -11.7645, 93.5239, -65.2498, 39.5233
0.492, -1, 34.3262, 51.2014, -11.7865, 93.5611, -65.1195, 39.5662
0.496, -1, 34.3414, 51.172, -11.8085, 93.5984, -64.9894, 39.6089
0.5, -1, 34.3566, 51.1426, -11.8304, 93.6355, -64.8595, 39.6516
0.504, -1, 34.3718, 51.1133, -11.8523, 93.6726, -64.7298, 39.6943
0.508, -1, 34.3869, 51.084, -11.8741, 93.7096, -64.6003, 39.7368
0.512, -1, 34.402, 51.0548, -11.8959, 93.7466, -64.471, 39.7793
0.516, -1, 34.4171, 51.0256, -11.9177, 93.7835, -64.3419, 39.8217
0.52, -1, 34.4321, 50.9965, -11.9395, 93.8204, -64.213, 39.8641
0.524, -1, 34.4472, 50.9674, -11.9612, 93.8572, -64.0844, 39.9064
0.528, -1, 34.4622, 50.9384, -11.9828, 93.8939, -63.9559, 39.9486
0.532, -1, 34.4771, 50.9094, -12.0045, 93.9306, -63.8276, 39.9908
0.536, -1, 34.4921, 50.8804, -12.0261, 93.9672, -63.6996, 40.0329
0.54, -1, 34.507, 50.8515, -12.0477, 94.0038, -63.5717, 40.0749
0.544, -1, 34.522, 50.8226, -12.0692, 94.0403, -63.444, 40.1169
0.548, -1, 34.5369, 50.7938, -12.0907, 94.0768, -63.3166, 40.1588
0.552, -1, 34.5517, 50.765, -12.1122, 94.1132, -63.1893, 40.2006
0.556, -1, 34.5666, 50.7363, -12.1337, 94.1495, -63.0622, 40.2424
0.56, -1, 34.5814, 50.7076, -12.1551, 94.1858, -62.9353, 40.2841
0.564, -1, 34.5962, 50.679, -12.1764, 94.2221, -62.8086, 40.3257
0.568, -1, 34.611, 50.6504, -12.1978, 94.2582, -62.6821, 40.3673
0.572, -1, 34.6257, 50.6218, -12.2191, 94.2943, -62.5558, 40.4088
0.576, -1, 34.6405, 50.5933, -12.2404, 94.3304, -62.4297, 40.4502
0.58, -1, 34.6552, 50.5648, -12.2616, 94.3664, -62.3038, 40.4916
0.584, -1, 34.6699, 50.5364, -12.2828, 94.4024, -62.1781, 40.533
0.588, -1, 34.6845, 50.508, -12.304, 94.4383, -62.0525, 40.5742
0.592, -1, 34.6992, 50.4797, -12.3252, 94.4741, -61.9272, 40.6154
0.596, -1, 34.7138, 50.4514, -12.3463, 94.5099, -61.802, 40.6566
0.6, -1, 34.7284, 50.4231, -12.3674, 94.5457, -61.677, 40.6977
0.604, -1, 34.743, 50.3949, -12.3884, 94.5814, -61.5522, 40.7387
0.608, -1, 34.7575, 50.3667, -12.4095, 94.617, -61.4276, 40.7796
0.612, -1, 34.7721, 50.3386, -12.4305, 94.6526, -61.3032, 40.8205
0.616, -1, 34.7866, 50.3105, -12.4514, 94.6881, -61.1789, 40.8614
0.62, -1, 34.8011, 50.2824, -12.4724, 94.7236, -61.0548, 40.9022
0.624, -1, 34.8155, 50.2544, -12.4933, 94.7591, -60.931, 40.9429
0.628, -1, 34.83, 50.2265, -12.5142, 94.7944, -60.8073, 40.9835
0.632, -1, 34.8444, 50.1985, -12.535, 94.8298, -60.6837, 41.0241
0.636, -1, 34.8588, 50.1707, -12.5558, 94.865, -60.5604, 41.0647
0.64, -1, 34.8732, 50.1428, -12.5766, 94.9003, -60.4372, 41.1052
0.644, -1, 34.8876, 50.115, -12.5973, 94.9354, -60.3142, 41.1456
0.648, -1, 34.9019, 50.0872, -12.6181, 94.9706, -60.1914, 41.1859
0.652, -1, 34.9163, 50.0595, -12.6388, 95.0056, -60.0688, 41.2263
0.656, -1, 34.9306, 50.0318, -12.6594, 95.0407, -59.9463, 41.2665
0.66, -1, 34.9449, 50.0042, -12.6801, 95.0756, -59.824, 41.3067
0.664, -1, 34.9591, 49.9766, -12.7007, 95.1106, -59.7019, 41.3468
0.668, -1, 34.9734, 49.949, -12.7212, 95.1454, -59.58, 41.3869
0.672, -1, 34.9876, 49.9215, -12.7418, 95.1803, -59.4582, 41.427
0.676, -1, 35.0018, 49.894, -12.7623, 95.215, -59.3366, 41.4669
0.68, -1, 35.016, 49.8665, -12.7828, 95.2498, -59.2151, 41.5068
0.684, -1, 35.0301, 49.8391, -12.8033, 95.2844, -59.0939, 41.5467
0.688, -1, 35.0443, 49.8117, -12.8237, 95.3191, -58.9728, 41.5865
0.692, -1, 35.0584, 49.7844, -12.8441, 95.3537, -58.8519, 41.6262
0.696, -1, 35.0725, 49.7571, -12.8645, 95.3882, -58.7311, 41.6659
0.7, -1, 35.0866, 49.7298, -12.8848, 95.4227, -58.6105, 41.7056
0.704, -1, 35.1007, 49.7026, -12.9051, 95.4571, -58.4901, 41.7451
0.708, -1, 35.1147, 49.6754, -12.9254, 95.4915, -58.3698, 41.7847
0.712, -1, 35.1288, 49.6482, -12.9457, 95.5259, -58.2497, 41.8241
0.716, -1, 35.1428, 49.6211, -12.9659, 95.5602, -58.1298, 41.8636
0.72, -1, 35.1568, 49.5941, -12.9862, 95.5944, -58.01, 41.9029
0.724, -1, 35.1707, 49.567, -13.0063, 95.6286, -57.8904, 41.9422
0.728, -1, 35.1847, 49.54, -13.0265, 95.6628, -57.771, 41.9815
0.732, -1, 35.1986, 49.513, -13.0466, 95.6969, -57.6517, 42.0207
0.736, -1, 35.2125, 49.4861, -13.0667, 95.731, -57.5326, 42.0599
0.74, -1, 35.2264, 49.4592, -13.0868, 95.765, -57.4136, 42.099
0.744, -1, 35.2403, 49.4324, -13.1068, 95.799, -57.2948, 42.138
0.748, -1, 35.2542, 49.4055, -13.1269, 95.8329, -57.1762, 42.177
0.752, -1, 35.268, 49.3787, -13.1468, 95.8668, -57.0577, 42.2159
0.756, -1, 35.2818, 49.352, -13.1668, 95.9006, -56.9394, 42.2548
0.76, -1, 35.2956, 49.3253, -13.1868, 95.9344, -56.8212, 42.2937
0.764, -1, 35.3094, 49.2986, -13.2067, 95.9682, -56.7032, 42.3325
0.768, -1, 35.3232, 49.272, -13.2266, 96.0019, -56.5854, 42.3712
0.772, -1, 35.3369, 49.2453, -13.2464, 96.0355, -56.4676, 42.4099
0.776, -1, 35.3507, 49.2188, -13.2663, 96.0692, -56.3501, 42.4485
0.78, -1, 35.3644, 49.1922, -13.2861, 96.1027, -56.2327, 42.4871
0.784, -1, 35.3781, 49.1657, -13.3058, 96.1363, -56.1155, 42.5257
0.788, -1, 35.3917, 49.1392, -13.3256, 96.1698, -55.9984, 42.5641
0.792, -1, 35.4054, 49.1128, -13.3453, 96.2032, -55.8814, 42.6026
0.796, -1, 35.4191, 49.0864, -13.365, 96.2366, -55.7646, 42.641
0.8, -1, 35.4327, 49.06, -13.3847, 96.27, -55.648, 42.6793
0.804, -1, 35.4463, 49.0337, -13.4044, 96.3033, -55.5315, 42.7176
0.808, -1, 35.4599, 49.0074, -13.424, 96.3365, -55.4151, 42.7558
0.812, -1, 35.4734, 48.9811, -13.4436, 96.3698, -55.2989, 42.794
0.816, -1, 35.487, 48.9549, -13.4632, 96.403, -55.1829, 42.8322
0.82, -1, 35.5005, 48.9287, -13.4828, 96.4361, -55.067, 42.8703
0.824, -1, 35.5141, 48.9025, -13.5023, 96.4692, -54.9512, 42.9083
0.828, -1, 35.5276, 48.8764, -13.5218, 96.5023, -54.8356, 42.9463
0.832, -1, 35.5411, 48.8503, -13.5413, 96.5353, -54.7201, 42.9843
0.836, -1, 35.5545, 48.8242, -13.5608, 96.5683, -54.6048, 43.0222
0.84, -1, 35.568, 48.7981, -13.5802, 96.6012, -54.4896, 43.06
0.844, -1, 35.5814, 48.7721, -13.5996, 96.6341, -54.3746, 43.0979
0.848, -1, 35.5949, 48.7461, -13.619, 96.667, -54.2597, 43.1356
0.852, -1, 35.6083, 48.7202, -13.6384, 96.6998, -54.1449, 43.1733
0.856, -1, 35.6216, 48.6943, -13.6577, 96.7326, -54.0303, 43.211
0.86, -1, 35.635, 48.6684, -13.677, 96.7654, -53.9158, 43.2486
0.864, -1, 35.6483, 48.6426, -13.6963, 96.798, -53.8015, 43.2862
0.868, -1, 35.6616, 48.6169, -13.7156, 96.8307, -53.6873, 43.3238
0.872, -1, 35.6747, 48.5912, -13.7348, 96.8633, -53.5732, 43.3612
0.876, -1, 35.6878, 48.5656, -13.754, 96.8959, -53.4594, 43.3987
0.88, -1, 35.7008, 48.5402, -13.7732, 96.9284, -53.3457, 43.436
0.884, -1, 35.7135, 48.515, -13.7924, 96.9608, -53.2323, 43.4733
0.888, -1, 35.726, 48.4902, -13.8115, 96.9932, -53.1192, 43.5105
0.892, -1, 35.738, 48.466, -13.8305, 97.0254, -53.0066, 43.5475
0.896, -1, 35.7494, 48.4426, -13.8494, 97.0574, -52.8946, 43.5843
0.9, -1, 35.7603, 48.4201, -13.8682, 97.0892, -52.7836, 43.6208
0.904, -1, 35.7705, 48.3986, -13.8867, 97.1205, -52.6741, 43.6568
0.908, -1, 35.7802, 48.3781, -13.9049, 97.1513, -52.5665, 43.6922
0.912, -1, 35.7894, 48.3586, -13.9227, 97.1813, -52.4615, 43.7267
0.916, -1, 35.7982, 48.3399, -13.9399, 97.2104, -52.3599, 43.7602
0.92, -1, 35.8067, 48.3221, -13.9564, 97.2383, -52.2624, 43.7923
0.924, -1, 35.8148, 48.3051, -13.9721, 97.2649, -52.1697, 43.8228
0.928, -1, 35.8225, 48.2891, -13.9869, 97.2898, -52.0824, 43.8514
0.932, -1, 35.8299, 48.274, -14.0006, 97.313, -52.0014, 43.8781
0.936, -1, 35.837, 48.2597, -14.0132, 97.3343, -51.927, 43.9026
0.94, -1, 35.8438, 48.2461, -14.0246, 97.3535, -51.8598, 43.9247
0.944, -1, 35.8505, 48.233, -14.0347, 97.3706, -51.8, 43.9443
0.948, -1, 35.8571, 48.2204, -14.0435, 97.3856, -51.7476, 43.9615
0.952, -1, 35.8636, 48.2083, -14.0511, 97.3985, -51.7026, 43.9763
0.956, -1, 35.8699, 48.1968, -14.0574, 97.4093, -51.6646, 43.9888
0.96, -1, 35.8759, 48.1861, -14.0627, 97.4183, -51.633, 43.9991
0.964, -1, 35.8815, 48.1763, -14.067, 97.4257, -51.6074, 44.0075
0.968, -1, 35.8866, 48.1676, -14.0704, 97.4315, -51.5869, 44.0143
0.972, -1, 35.8914, 48.16, -14.073, 97.436, -51.5709, 44.0195
0.976, -1, 35.8957, 48.1533, -14.075, 97.4395, -51.5587, 44.0235
0.98, -1, 35.8997, 48.1475, -14.0765, 97.4421, -51.5496, 44.0264
0.984, -1, 35.9032, 48.1427, -14.0776, 97.444, -51.543, 44.0286
0.988, 2, 35.9062, 48.1387, -14.0784, 97.4453, -51.5382, 44.0302
0.992, 2, 35.9087, 48.1355, -14.0789, 97.4463, -51.5349, 44.0312
0.996, 2, 35.9106, 48.1332, -14.0793, 97.4469, -51.5327, 44.032
1, 2, 35.912, 48.1315, -14.0795, 97.4474, -51.5311, 44.0325
1.004, 2, 35.913, 48.1303, -14.0797, 97.4477, -51.5301, 44.0328
1.008, 2, 35.9137, 48.1295, -14.0798, 97.4479, -51.5293, 44.033
1.012, 2, 35.9142, 48.1289, -14.0799, 97.448, -51.5289, 44.0332
1.016, 2, 35.9145, 48.1286, -14.0799, 97.4481, -51.5285, 44.0333
1.02, 2, 35.9147, 48.1283, -14.08, 97.4482, -51.5283, 44.0334
1.024, 2, 35.9148, 48.1281, -14.08, 97.4482, -51.5282, 44.0334
1.027, 2, 35.9149, 48.128, -14.08, 97.4482, -51.5281, 44.0335
1.032, 2, 35.915, 48.1279, -14.08, 97.4482, -51.528, 44.0335
1.036, 2, 35.915, 48.1279, -14.08, 97.4483, -51.5279, 44.0335
1.04, 2, 35.9151, 48.1279, -14.08, 97.4483, -51.5279, 44.0335
1.044, 2, 35.9151, 48.1278, -14.08, 97.4483, -51.5279, 44.0335
1.048, 2, 35.9151, 48.1278, -14.08, 97.4483, -51.5279, 44.0335
1.052, 2, 35.9151, 48.1278, -14.08, 97.4483, -51.5279, 44.0335
1.055, 2, 35.9151, 48.1278, -14.08, 97.4483, -51.5279, 44.0335
1.06, 2, 35.9151, 48.1278, -14.08, 97.4483, -51.5279, 44.0335
1.064, 2, 35.9151, 48.1278, -14.08, 97.4483, -51.5278, 44.0335
1.068, 2, 35.9151, 48.1278, -14.08, 97.4483, -51.5278, 44.0335
1.072, 2, 35.9151, 48.1278, -14.08, 97.4483, -51.5278, 44.0335
1.076, 2, 35.9151, 48.1278, -14.08, 97.4483, -51.5278, 44.0335
1.08, 2, 35.9151, 48.1278, -14.08, 97.4483, -51.5278, 44.0335
1.084, 2, 35.9151, 48.1278, -14.08, 97.4483, -51.5278, 44.0335
1.088, 2, 35.9151, 48.1278, -14.08, 97.4483, -51.5278, 44.0335
1.091, 2, 35.9151, 48.1278, -14.08, 97.4483, -51.5278, 44.0335
1.096, 2, 35.9151, 48.1278, -14.08, 97.4483, -51.5278, 44.0335
1.1, 2, 35.9151, 48.1278, -14.08, 97.4483, -51.5278, 44.0335
1.104, 2, 35.9151, 48.1278, -14.08, 97.4483, -51.5278, 44.0335
1.108, 2, 35.9151, 48.1278, -14.08, 97.4483, -51.5278, 44.0335
1.112, 2, 35.9151, 48.1278, -14.08, 97.4483, -51.5278, 44.0335
1.116, 2, 35.9151, 48.1278, -14.08, 97.4483, -51.5278, 44.0335
1.119, 2, 35.9151, 48.1278, -14.08, 97.4483, -51.5278, 44.0335
1.124, 2, 35.9151, 48.1278, -14.08, 97.4483, -51.5278, 44.0335
1.128, 2, 35.9151, 48.1278, -14.08, 97.4483, -51.5278, 44.0335
1.132, 2, 35.9151, 48.1278, -14.08, 97.4483, -51.5278, 44.0335
1.136, 2, 35.9151, 48.1278, -14.08, 97.4483, -51.5278, 44.0335
1.14, 2, 35.9151, 48.1278, -14.08, 97.4483, -51.5278, 44.0335
1.144, 2, 35.9151, 48.1278, -14.08, 97.4483, -51.5278, 44.0335
1.147, 2, 35.9151, 48.1278, -14.08, 97.4483, -51.5278, 44.0335
1.152, 2, 35.9151, 48.1278, -14.08, 97.4483, -51.5278, 44.0335
1.156, 2, 35.9151, 48.1278, -14.08, 97.4483, -51.5278, 44.0335
1.16, 2, 35.9151, 48.1278, -14.08, 97.4483, -51.5278, 44.0335
1.164, 2, 35.9151, 48.1278, -14.08, 97.4483, -51.5278, 44.0335
1.168, 2, 35.9151, 48.1278, -14.08, 97.4483, -51.5278, 44.0335
1.172, 2, 35.9151, 48.1278, -14.08, 97.4483, -51.5278, 44.0335
1.175, 2, 35.9151, 48.1278, -14.08, 97.4483, -51.5278, 44.0335
1.18, 2, 35.9151, 48.1278, -14.08, 97.4483, -51.5278, 44.0335
1.184, 2, 35.9151, 48.1278, -14.08, 97.4483, -51.5278, 44.0335
1.188, 2, 35.9151, 48.1278, -14.08, 97.4483, -51.5278, 44.0335
1.192, 2, 35.9151, 48.1278, -14.08, 97.4483, -51.5278, 44.0335
1.196, 2, 35.9151, 48.1278, -14.08, 97.4483, -51.5278, 44.0335
1.2, 2, 35.9151, 48.1278, -14.08, 97.4483, -51.5278, 44.0335
1.204, 2, 35.9151, 48.1278, -14.08, 97.4483, -51.5278, 44.0335
1.208, 2, 35.9151, 48.1278, -14.08, 97.4483, -51.5278, 44.0335
1.212, 2, 35.9151, 48.1278, -14.08, 97.4483, -51.5278, 44.0335
1.216, 2, 35.9151, 48.1278, -14.08, 97.4483, -51.5278, 44.0335
1.22, 2, 35.9151, 48.1278, -14.08, 97.4483, -51.5278, 44.0335
1.224, 2, 35.9151, 48.1278, -14.08, 97.4483, -51.5278, 44.0335
1.228, 2, 35.9151, 48.1278, -14.08, 97.4483, -51.5278, 44.0335
1.232, 2, 35.9151, 48.1278, -14.08, 97.4483, -51.5278, 44.0335
1.236, 2, 35.9151, 48.1278, -14.08, 97.4483, -51.5278, 44.0335
1.24, 2, 35.9151, 48.1278, -14.08, 97.4483, -51.5278, 44.0335
1.244, 2, 35.9151, 48.1278, -14.08, 97.4483, -51.5278, 44.0335
1.248, 2, 35.9151, 48.1278, -14.08, 97.4483, -51.5278, 44.0335
1.252, 2, 35.9151, 48.1278, -14.08, 97.4483, -51.5278, 44.0335
1.256, 2, 35.9151, 48.1278, -14.08, 97.4483, -51.5278, 44.0335
1.26, 2, 35.9151, 48.1278, -14.08, 97.4483, -51.5278, 44.0335
1.264, 2, 35.9151, 48.1278, -14.08, 97.4483, -51.5278, 44.0335
1.267, 2, 35.9151, 48.1278, -14.08, 97.4483, -51.5278, 44.0335
1.272, 2, 35.9151, 48.1278, -14.08, 97.4483, -51.5278, 44.0335
1.276, 2, 35.9151, 48.1278, -14.08, 97.4483, -51.5278, 44.0335
1.28, 2, 35.9151, 48.1278, -14.08, 97.4483, -51.5278, 44.0335
1.284, 2, 35.9151, 48.1278, -14.08, 97.4483, -51.5278, 44.0335
1.288, 2, 35.9151, 48.1278, -14.08, 97.4483, -51.5278, 44.0335
1.292, 2, 35.9151, 48.1278, -14.08, 97.4483, -51.5278, 44.0335
1.295, 2, 35.9151, 48.1278, -14.08, 97.4483, -51.5278, 44.0335
1.3, 2, 35.9151, 48.1278, -14.08, 97.4483, -51.5278, 44.0335
1.304, 2, 35.9151, 48.1278, -14.08, 97.4483, -51.5278, 44.0335
1.308, 2, 35.9151, 48.1278, -14.08, 97.4483, -51.5278, 44.0335
1.312, 2, 35.9151, 48.1278, -14.08, 97.4483, -51.5278, 44.0335
1.316, 2, 35.9151, 48.1278, -14.08, 97.4483, -51.5278, 44.0335
1.32, 2, 35.9151, 48.1278, -14.08, 97.4483, -51.5278, 44.0335
1.324, 2, 35.9151, 48.1278, -14.08, 97.4483, -51.5278, 44.0335
1.328, 2, 35.9151, 48.1278, -14.08, 97.4483, -51.5278, 44.0335
1.332, 2, 35.9151, 48.1278, -14.08, 97.4483, -51.5278, 44.0335
1.336, 2, 35.9151, 48.1278, -14.08, 97.4483, -51.5278, 44.0335
1.34, 2, 35.9151, 48.1278, -14.08, 97.4483, -51.5278, 44.0335
1.344, 2, 35.9151, 48.1278, -14.08, 97.4483, -51.5278, 44.0335
1.348, 2, 35.9151, 48.1278, -14.08, 97.4483, -51.5278, 44.0335
1.352, 2, 35.9151, 48.1278, -14.08, 97.4483, -51.5278, 44.0335
1.356, 2, 35.9151, 48.1278, -14.08, 97.4483, -51.5278, 44.0335
1.36, 2, 35.9151, 48.1278, -14.08, 97.4483, -51.5278, 44.0335
1.364, 2, 35.9151, 48.1278, -14.08, 97.4483, -51.5278, 44.0335
1.368, 2, 35.9151, 48.1278, -14.08, 97.4483, -51.5278, 44.0335
1.372, 2, 35.9151, 48.1278, -14.08, 97.4483, -51.5278, 44.0335
1.376, 2, 35.9151, 48.1278, -14.08, 97.4483, -51.5278, 44.0335
1.38, 2, 35.9151, 48.1278, -14.08, 97.4483, -51.5278, 44.0335
1.384, 2, 35.9151, 48.1278, -14.08, 97.4483, -51.5278, 44.0335
1.388, 2, 35.9151, 48.1278, -14.08, 97.4483, -51.5278, 44.0335
1.392, 2, 35.9151, 48.1278, -14.08, 97.4483, -51.5278, 44.0335
1.396, 2, 35.9151, 48.1278, -14.08, 97.4483, -51.5278, 44.0335
1.4, 2, 35.9151, 48.1278, -14.08, 97.4483, -51.5278, 44.0335
1.404, 2, 35.9151, 48.1278, -14.08, 97.4483, -51.5278, 44.0335
1.408, 2, 35.9151, 48.1278, -14.08, 97.4483, -51.5278, 44.0335
1.412, 2, 35.9151, 48.1278, -14.08, 97.4483, -51.5278, 44.0335
1.416, 2, 35.9151, 48.1278, -14.08, 97.4483, -51.5278, 44.0335
1.42, 2, 35.9151, 48.1278, -14.08, 97.4483, -51.5278, 44.0335
1.424, 2, 35.9151, 48.1278, -14.08, 97.4483, -51.5278, 44.0335
1.428, 2, 35.9151, 48.1278, -14.08, 97.4483, -51.5278, 44.0335
1.432, 2, 35.9151, 48.1278, -14.08, 97.4483, -51.5278, 44.0335
1.436, 2, 35.9151, 48.1278, -14.08, 97.4483, -51.5278, 44.0335
1.44, 2, 35.9151, 48.1278, -14.08, 97.4483, -51.5278, 44.0335
1.444, 2, 35.9151, 48.1278, -14.08, 97.4483, -51.5278, 44.0335
1.448, 2, 35.9151, 48.1278, -14.08, 97.4483, -51.5278, 44.0335
1.452, 2, 35.9151, 48.1278, -14.08, 97.4483, -51.5278, 44.0335
1.456, 2, 35.9151, 48.1278, -14.08, 97.4483, -51.5278, 44.0335
1.46, 2, 35.9151, 48.1278, -14.08, 97.4483, -51.5278, 44.0335
1.464, 2, 35.9151, 48.1278, -14.08, 97.4483, -51.5278, 44.0335
1.468, 2, 35.9151, 48.1278, -14.08, 97.4483, -51.5278, 44.0335
1.472, 2, 35.9151, 48.1278, -14.08, 97.4483, -51.5278, 44.0335
1.476, 2, 35.9151, 48.1278, -14.08, 97.4483, -51.5278, 44.0335
1.48, 2, 35.9151, 48.1278, -14.08, 97.4483, -51.5278, 44.0335
1.484, 2, 35.9151, 48.1278, -14.08, 97.4483, -51.5278, 44.0335
1.488, 2, 35.9151, 48.1278, -14.08, 97.4483, -51.5278, 44.0335
1.492, 2, 35.9151, 48.1278, -14.08, 97.4483, -51.5278, 44.0335
1.496, 2, 35.9151, 48.1278, -14.08, 97.4483, -51.5278, 44.0335
1.5, 2, 35.9151, 48.1278, -14.08, 97.4483, -51.5278, 44.0335
1.504, 2, 35.9151, 48.1278, -14.08, 97.4483, -51.5278, 44.0335
1.508, 2, 35.9151, 48.1278, -14.08, 97.4483, -51.5278, 44.0335
1.512, 2, 35.9151, 48.1278, -14.08, 97.4483, -51.5278, 44.0335
1.516, 2, 35.9151, 48.1278, -14.08, 97.4483, -51.5278, 44.0335
1.52, 2, 35.9151, 48.1278, -14.08, 97.4483, -51.5278, 44.0335
1.524, 2, 35.9151, 48.1278, -14.08, 97.4483, -51.5278, 44.0335
1.528, 2, 35.9151, 48.1278, -14.08, 97.4483, -51.5278, 44.0335
1.532, 2, 35.9151, 48.1278, -14.08, 97.4483, -51.5278, 44.0335
1.536, 2, 35.9151, 48.1278, -14.08, 97.4483, -51.5278, 44.0335
1.54, 2, 35.9151, 48.1278, -14.08, 97.4483, -51.5278, 44.0335
1.544, 2, 35.9151, 48.1278, -14.08, 97.4483, -51.5278, 44.0335
1.548, 2, 35.9151, 48.1278, -14.08, 97.4483, -51.5278, 44.0335
1.552, 2, 35.9151, 48.1278, -14.08, 97.4483, -51.5278, 44.0335
1.556, 2, 35.9151, 48.1278, -14.08, 97.4483, -51.5278, 44.0335
1.56, 2, 35.9151, 48.1278, -14.08, 97.4483, -51.5278, 44.0335
1.564, 2, 35.9151, 48.1278, -14.08, 97.4483, -51.5278, 44.0335
1.568, 2, 35.9151, 48.1278, -14.08, 97.4483, -51.5278, 44.0335
1.572, 2, 35.9151, 48.1278, -14.08, 97.4483, -51.5278, 44.0335
1.576, 2, 35.9151, 48.1278, -14.08, 97.4483, -51.5278, 44.0335
1.58, 2, 35.9151, 48.1278, -14.08, 97.4483, -51.5278, 44.0335
1.584, 2, 35.9151, 48.1278, -14.08, 97.4483, -51.5278, 44.0335
1.588, 2, 35.9151, 48.1278, -14.08, 97.4483, -51.5278, 44.0335
1.592, 2, 35.9151, 48.1278, -14.08, 97.4483, -51.5278, 44.0335
1.596, 2, 35.9151, 48.1278, -14.08, 97.4483, -51.5278, 44.0335
1.6, 2, 35.9151, 48.1278, -14.08, 97.4483, -51.5278, 44.0335
1.604, 2, 35.9151, 48.1278, -14.08, 97.4483, -51.5278, 44.0335
1.608, 2, 35.9151, 48.1278, -14.08, 97.4483, -51.5278, 44.0335
1.612, 2, 35.9151, 48.1278, -14.08, 97.4483, -51.5278, 44.0335
1.616, 2, 35.9151, 48.1278, -14.08, 97.4483, -51.5278, 44.0335
1.62, 2, 35.9151, 48.1278, -14.08, 97.4483, -51.5278, 44.0335
1.624, 2, 35.9151, 48.1278, -14.08, 97.4483, -51.5278, 44.0335
1.628, 2, 35.9151, 48.1278, -14.08, 97.4483, -51.5278, 44.0335
1.632, 2, 35.9151, 48.1278, -14.08, 97.4483, -51.5278, 44.0335
1.636, 2, 35.9151, 48.1278, -14.08, 97.4483, -51.5278, 44.0335
1.64, 2, 35.9151, 48.1278, -14.08, 97.4483, -51.5278, 44.0335
1.644, 2, 35.9151, 48.1278, -14.08, 97.4483, -51.5278, 44.0335
1.648, 2, 35.9151, 48.1278, -14.08, 97.4483, -51.5278, 44.0335
1.652, 2, 35.9151, 48.1278, -14.08, 97.4483, -51.5278, 44.0335
1.656, 2, 35.9151, 48.1278, -14.08, 97.4483, -51.5278, 44.0335
1.66, 2, 35.9151, 48.1278, -14.08, 97.4483, -51.5278, 44.0335
1.664, 2, 35.9151, 48.1278, -14.08, 97.4483, -51.5278, 44.0335
1.668, 2, 35.9151, 48.1278, -14.08, 97.4483, -51.5278, 44.0335
1.672, 2, 35.9151, 48.1278, -14.08, 97.4483, -51.5278, 44.0335
1.676, 2, 35.9151, 48.1278, -14.08, 97.4483, -51.5278, 44.0335
1.68, 2, 35.9151, 48.1278, -14.08, 97.4483, -51.5278, 44.0335
1.684, 2, 35.9151, 48.1278, -14.08, 97.4483, -51.5278, 44.0335
1.688, 2, 35.9151, 48.1278, -14.08, 97.4483, -51.5278, 44.0335
1.692, 2, 35.9151, 48.1278, -14.08, 97.4483, -51.5278, 44.0335
1.696, 2, 35.9151, 48.1278, -14.08, 97.4483, -51.5278, 44.0335
1.7, 2, 35.9151, 48.1278, -14.08, 97.4483, -51.5278, 44.0335
1.704, 2, 35.9151, 48.1278, -14.08, 97.4483, -51.5278, 44.0335
1.708, 2, 35.9151, 48.1278, -14.08, 97.4483, -51.5278, 44.0335
1.712, 2, 35.9151, 48.1278, -14.08, 97.4483, -51.5278, 44.0335
1.716, 2, 35.9151, 48.1278, -14.08, 97.4483, -51.5278, 44.0335
1.72, 2, 35.9151, 48.1278, -14.08, 97.4483, -51.5278, 44.0335
1.724, 2, 35.9151, 48.1278, -14.08, 97.4483, -51.5278, 44.0335
1.728, 2, 35.9151, 48.1278, -14.08, 97.4483, -51.5278, 44.0335
1.732, 2, 35.9151, 48.1278, -14.08, 97.4483, -51.5278, 44.0335
1.736, 2, 35.9151, 48.1278, -14.08, 97.4483, -51.5278, 44.0335
1.74, 2, 35.9151, 48.1278, -14.08, 97.4483, -51.5278, 44.0335
1.744, 2, 35.9151, 48.1278, -14.08, 97.4483, -51.5278, 44.0335
1.748, 2, 35.9151, 48.1278, -14.08, 97.4483, -51.5278, 44.0335
1.752, 2, 35.9151, 48.1278, -14.08, 97.4483, -51.5278, 44.0335
1.756, 2, 35.9151, 48.1278, -14.08, 97.4483, -51.5278, 44.0335
1.76, 2, 35.9151, 48.1278, -14.08, 97.4483, -51.5278, 44.0335
1.764, 2, 35.9151, 48.1278, -14.08, 97.4483, -51.5278, 44.0335
1.768, 2, 35.9151, 48.1278, -14.08, 97.4483, -51.5278, 44.0335
1.772, 2, 35.9151, 48.1278, -14.08, 97.4483, -51.5278, 44.0335
1.776, 2, 35.9151, 48.1278, -14.08, 97.4483, -51.5278, 44.0335
1.78, 2, 35.9151, 48.1278, -14.08, 97.4483, -51.5278, 44.0335
1.784, 2, 35.9151, 48.1278, -14.08, 97.4483, -51.5278, 44.0335
1.788, 2, 35.9151, 48.1278, -14.08, 97.4483, -51.5278, 44.0335
1.792, 2, 35.9151, 48.1278, -14.08, 97.4483, -51.5278, 44.0335
1.796, 2, 35.9151, 48.1278, -14.08, 97.4483, -51.5278, 44.0335
1.8, 2, 35.9151, 48.1278, -14.08, 97.4483, -51.5278, 44.0335
1.804, 2, 35.9151, 48.1278, -14.08, 97.4483, -51.5278, 44.0335
1.808, 2, 35.9151, 48.1278, -14.08, 97.4483, -51.5278, 44.0335
1.812, 2, 35.9151, 48.1278, -14.08, 97.4483, -51.5278, 44.0335
1.816, 2, 35.9151, 48.1278, -14.08, 97.4483, -51.5278, 44.0335
1.82, 2, 35.9151, 48.1278, -14.08, 97.4483, -51.5278, 44.0335
1.824, 2, 35.9151, 48.1278, -14.08, 97.4483, -51.5278, 44.0335
1.828, 2, 35.9151, 48.1278, -14.08, 97.4483, -51.5278, 44.0335
1.832, 2, 35.9151, 48.1278, -14.08, 97.4483, -51.5278, 44.0335
1.836, 2, 35.9151, 48.1278, -14.08, 97.4483, -51.5278, 44.0335
1.84, 2, 35.9151, 48.1278, -14.08, 97.4483, -51.5278, 44.0335
1.844, 2, 35.9151, 48.1278, -14.08, 97.4483, -51.5278, 44.0335
1.848, 2, 35.9151, 48.1278, -14.08, 97.4483, -51.5278, 44.0335
1.852, 2, 35.9151, 48.1278, -14.08, 97.4483, -51.5278, 44.0335
1.856, 2, 35.9151, 48.1278, -14.08, 97.4483, -51.5278, 44.0335
1.86, 2, 35.9151, 48.1278, -14.08, 97.4483, -51.5278, 44.0335
1.864, 2, 35.9151, 48.1278, -14.08, 97.4483, -51.5278, 44.0335
1.868, 2, 35.9151, 48.1278, -14.08, 97.4483, -51.5278, 44.0335
1.872, 2, 35.9151, 48.1278, -14.08, 97.4483, -51.5278, 44.0335
1.876, 2, 35.9151, 48.1278, -14.08, 97.4483, -51.5278, 44.0335
1.88, 2, 35.9151, 48.1278, -14.08, 97.4483, -51.5278, 44.0335
1.884, 2, 35.9151, 48.1278, -14.08, 97.4483, -51.5278, 44.0335
1.888, 2, 35.9151, 48.1278, -14.08, 97.4483, -51.5278, 44.0335
1.892, 2, 35.9151, 48.1278, -14.08, 97.4483, -51.5278, 44.0335
1.896, 2, 35.9151, 48.1278, -14.08, 97.4483, -51.5278, 44.0335
1.9, 2, 35.9151, 48.1278, -14.08, 97.4483, -51.5278, 44.0335
1.904, 2, 35.9151, 48.1278, -14.08, 97.4483, -51.5278, 44.0335
1.908, 2, 35.9151, 48.1278, -14.08, 97.4483, -51.5278, 44.0335
1.912, 2, 35.9151, 48.1278, -14.08, 97.4483, -51.5278, 44.0335
1.916, 2, 35.9151, 48.1278, -14.08, 97.4483, -51.5278, 44.0335
1.92, 2, 35.9151, 48.1278, -14.08, 97.4483, -51.5278, 44.0335
1.924, 2, 35.9151, 48.1278, -14.08, 97.4483, -51.5278, 44.0335
1.928, 2, 35.9151, 48.1278, -14.08, 97.4483, -51.5278, 44.0335
1.932, 2, 35.9151, 48.1278, -14.08, 97.4483, -51.5278, 44.0335
1.936, 2, 35.9151, 48.1278, -14.08, 97.4483, -51.5278, 44.0335
1.94, 2, 35.9151, 48.1278, -14.08, 97.4483, -51.5278, 44.0335
1.944, 2, 35.9151, 48.1278, -14.08, 97.4483, -51.5278, 44.0335
1.948, 2, 35.9151, 48.1278, -14.08, 97.4483, -51.5278, 44.0335
1.952, 2, 35.9151, 48.1278, -14.08, 97.4483, -51.5278, 44.0335
1.956, 2, 35.9151, 48.1278, -14.08, 97.4483, -51.5278, 44.0335
1.96, 2, 35.9151, 48.1278, -14.08, 97.4483, -51.5278, 44.0335
1.964, 2, 35.9151, 48.1278, -14.08, 97.4483, -51.5278, 44.0335
1.968, 2, 35.9151, 48.1278, -14.08, 97.4483, -51.5278, 44.0335
1.972, 2, 35.9151, 48.1278, -14.08, 97.4483, -51.5278, 44.0335
1.976, 2, 35.9151, 48.1278, -14.08, 97.4483, -51.5278, 44.0335
1.98, 2, 35.9151, 48.1278, -14.08, 97.4483, -51.5278, 44.0335
1.984, 2, 35.9151, 48.1278, -14.08, 97.4483, -51.5278, 44.0335
1.988, 2, 35.9151, 48.1278, -14.08, 97.4483, -51.5278, 44.0335
1.992, 2, 35.9151, 48.1278, -14.08, 97.4483, -51.5278, 44.0335
1.996, 2, 35.9151, 48.1278, -14.08, 97.4483, -51.5278, 44.0335
1.999, 2, 35.9151, 48.1278, -14.08, 97.4483, -51.5278, 44.0335
2.004, 2, 35.9151, 48.1278, -14.08, 97.4483, -51.5278, 44.0335
2.008, 2, 35.9151, 48.1278, -14.08, 97.4483, -51.5278, 44.0335
2.012, 2, 35.9151, 48.1278, -14.08, 97.4483, -51.5278, 44.0335
2.015, 2, 35.9151, 48.1278, -14.08, 97.4483, -51.5278, 44.0335
2.019, 2, 35.9151, 48.1278, -14.08, 97.4483, -51.5278, 44.0335
2.024, 2, 35.9151, 48.1278, -14.08, 97.4483, -51.5278, 44.0335
2.028, 2, 35.9151, 48.1278, -14.08, 97.4483, -51.5278, 44.0335
2.031, 2, 35.9151, 48.1278, -14.08, 97.4483, -51.5278, 44.0335
2.036, 2, 35.9151, 48.1278, -14.08, 97.4483, -51.5278, 44.0335
2.04, 2, 35.9151, 48.1278, -14.08, 97.4483, -51.5278, 44.0335
2.044, 4, 35.9151, 48.1278, -14.08, 97.4483, -51.5278, 44.0335
2.048, 4, 35.9151, 48.1278, -14.08, 97.4483, -51.5278, 44.0335
2.051, 4, 35.9151, 48.1278, -14.08, 97.4483, -51.5278, 44.0335
2.055, 4, 35.9151, 48.1278, -14.08, 97.4483, -51.5278, 44.0335
2.06, 4, 35.9151, 48.1278, -14.08, 97.4483, -51.5278, 44.0335
2.064, 4, 35.9151, 48.1278, -14.08, 97.4483, -51.5278, 44.0335
2.068, 4, 35.9151, 48.1278, -14.08, 97.4483, -51.5278, 44.0335
2.071, 4, 35.9151, 48.1278, -14.08, 97.4483, -51.5278, 44.0335
2.076, 4, 35.9151, 48.1278, -14.08, 97.4483, -51.5278, 44.0335
2.08, 4, 35.9151, 48.1278, -14.08, 97.4483, -51.5278, 44.0335
2.084, 4, 35.9151, 48.1278, -14.08, 97.4483, -51.5278, 44.0335
2.087, 4, 35.9151, 48.1278, -14.08, 97.4483, -51.5278, 44.0335
2.092, 4, 35.9151, 48.1278, -14.08, 97.4483, -51.5278, 44.0335
2.096, 4, 35.9151, 48.1278, -14.08, 97.4483, -51.5278, 44.0335
2.1, 4, 35.9151, 48.1278, -14.08, 97.4483, -51.5278, 44.0335
2.104, 4, 35.9151, 48.1278, -14.08, 97.4483, -51.5278, 44.0335
2.107, 4, 35.9151, 48.1278, -14.08, 97.4483, -51.5278, 44.0335
2.111, 4, 35.9151, 48.1278, -14.08, 97.4483, -51.5278, 44.0335
2.116, 4, 35.9151, 48.1278, -14.08, 97.4483, -51.5278, 44.0335
2.12, 4, 35.9151, 48.1278, -14.08, 97.4483, -51.5278, 44.0335
2.124, 4, 35.9151, 48.1278, -14.08, 97.4483, -51.5278, 44.0335
2.127, 4, 35.9151, 48.1278, -14.08, 97.4483, -51.5278, 44.0335
2.132, 4, 35.9151, 48.1278, -14.08, 97.4483, -51.5278, 44.0335
2.136, 4, 35.9151, 48.1278, -14.08, 97.4483, -51.5278, 44.0335
2.14, 4, 35.9151, 48.1278, -14.08, 97.4483, -51.5278, 44.0335
2.143, 4, 35.9151, 48.1278, -14.08, 97.4483, -51.5278, 44.0335
2.149, 4, 35.9151, 48.1278, -14.08, 97.4483, -51.5278, 44.0335
2.152, 4, 35.9151, 48.1278, -14.08, 97.4483, -51.5278, 44.0335
2.156, 4, 35.9151, 48.1278, -14.08, 97.4483, -51.5278, 44.0335
2.16, 4, 35.9151, 48.1278, -14.08, 97.4483, -51.5278, 44.0335
2.163, 4, 35.9151, 48.1278, -14.08, 97.4483, -51.5278, 44.0335
2.168, 4, 35.9151, 48.1278, -14.08, 97.4483, -51.5278, 44.0335
2.172, 4, 35.9151, 48.1278, -14.08, 97.4483, -51.5278, 44.0335
2.176, 4, 35.9151, 48.1278, -14.08, 97.4483, -51.5278, 44.0335
2.179, 4, 35.9151, 48.1278, -14.08, 97.4483, -51.5278, 44.0335
2.184, 4, 35.915, 48.128, -14.08, 97.4483, -51.5279, 44.0335
2.188, 4, 35.9148, 48.1283, -14.08, 97.4483, -51.5279, 44.0335
2.192, 4, 35.9144, 48.1291, -14.08, 97.4483, -51.5281, 44.0334
2.196, 4, 35.9137, 48.1303, -14.08, 97.4482, -51.5284, 44.0333
2.199, 4, 35.9128, 48.1322, -14.0799, 97.4481, -51.5292, 44.033
2.204, 4, 35.9115, 48.1347, -14.0798, 97.4478, -51.5306, 44.0325
2.208, 4, 35.91, 48.1379, -14.0797, 97.4474, -51.533, 44.0316
2.212, 4, 35.9083, 48.1418, -14.0795, 97.4468, -51.5368, 44.0301
2.216, 5, 35.9064, 48.1464, -14.0792, 97.4459, -51.5426, 44.0279
2.219, 5, 35.9045, 48.1518, -14.0787, 97.4445, -51.5508, 44.0248
2.224, 5, 35.9025, 48.1578, -14.0782, 97.4426, -51.562, 44.0205
2.228, 5, 35.9003, 48.1647, -14.0774, 97.4401, -51.5768, 44.0149
2.232, 5, 35.8981, 48.1724, -14.0764, 97.4369, -51.5956, 44.0077
2.235, 5, 35.8959, 48.1809, -14.0752, 97.4329, -51.619, 43.9988
2.24, 5, 35.8936, 48.19, -14.0738, 97.4281, -51.6474, 43.988
2.244, 5, 35.8914, 48.1997, -14.072, 97.4223, -51.681, 43.9752
2.248, 5, 35.8893, 48.21, -14.07, 97.4156, -51.72, 43.9603
2.252, 5, 35.8872, 48.2208, -14.0677, 97.408, -51.7645, 43.9434
2.255, 5, 35.8851, 48.2323, -14.0651, 97.3993, -51.8142, 43.9245
2.259, 5, 35.8831, 48.2443, -14.0622, 97.3898, -51.869, 43.9037
2.264, 5, 35.8809, 48.2572, -14.059, 97.3794, -51.9285, 43.8811
2.268, 5, 35.8787, 48.271, -14.0556, 97.3683, -51.9921, 43.857
2.272, 5, 35.8763, 48.2855, -14.0519, 97.3565, -52.0595, 43.8314
2.275, 5, 35.8738, 48.3008, -14.048, 97.344, -52.13, 43.8047
2.28, 5, 35.8712, 48.3169, -14.0439, 97.331, -52.2033, 43.777
2.284, 5, 35.8684, 48.3337, -14.0395, 97.3175, -52.2786, 43.7486
2.288, 5, 35.8654, 48.3512, -14.0351, 97.3037, -52.3557, 43.7195
2.291, 5, 35.8621, 48.3693, -14.0304, 97.2896, -52.4341, 43.6899
2.296, 5, 35.8587, 48.388, -14.0257, 97.2752, -52.5135, 43.66
2.3, 5, 35.8549, 48.4073, -14.0208, 97.2606, -52.5935, 43.6299
2.304, 5, 35.8509, 48.427, -14.0158, 97.2459, -52.674, 43.5997
2.308, 5, 35.8468, 48.4471, -14.0107, 97.231, -52.7548, 43.5694
2.311, 5, 35.8424, 48.4674, -14.0055, 97.216, -52.8358, 43.5391
2.316, 5, 35.838, 48.4878, -14.0002, 97.2009, -52.917, 43.5087
2.32, 5, 35.8335, 48.5083, -13.9948, 97.1857, -52.9982, 43.4784
2.324, 5, 35.8289, 48.5289, -13.9894, 97.1704, -53.0794, 43.4481
2.328, 5, 35.8243, 48.5495, -13.9838, 97.155, -53.1607, 43.4178
2.331, 5, 35.8196, 48.57, -13.9782, 97.1395, -53.242, 43.3876
2.336, 5, 35.8149, 48.5906, -13.9724, 97.1239, -53.3232, 43.3574
2.34, 5, 35.8101, 48.6111, -13.9666, 97.1082, -53.4044, 43.3272
2.344, 5, 35.8053, 48.6316, -13.9607, 97.0925, -53.4857, 43.2971
2.347, 5, 35.8005, 48.652, -13.9547, 97.0766, -53.5669, 43.267
2.352, 5, 35.7956, 48.6724, -13.9486, 97.0607, -53.648, 43.237
2.356, 5, 35.7908, 48.6927, -13.9425, 97.0447, -53.7292, 43.2071
2.36, 5, 35.7858, 48.7131, -13.9362, 97.0287, -53.8103, 43.1771
2.364, 5, 35.7809, 48.7333, -13.9299, 97.0125, -53.8914, 43.1473
2.367, 5, 35.7759, 48.7535, -13.9235, 96.9963, -53.9724, 43.1175
2.372, 5, 35.7709, 48.7737, -13.917, 96.9799, -54.0534, 43.0877
2.376, 5, 35.7659, 48.7938, -13.9104, 96.9635, -54.1344, 43.058
2.38, 5, 35.7608, 48.8139, -13.9037, 96.9471, -54.2154, 43.0283
2.383, 5, 35.7558, 48.8339, -13.8969, 96.9305, -54.2963, 42.9986
2.388, 5, 35.7506, 48.8538, -13.8901, 96.9139, -54.3772, 42.9691
2.392, 5, 35.7455, 48.8738, -13.8831, 96.8972, -54.4581, 42.9395
2.396, 5, 35.7403, 48.8936, -13.8761, 96.8804, -54.5389, 42.91
2.4, 5, 35.7351, 48.9135, -13.869, 96.8635, -54.6197, 42.8806
2.403, 5, 35.7299, 48.9332, -13.8617, 96.8466, -54.7005, 42.8512
2.408, 5, 35.7247, 48.9529, -13.8544, 96.8295, -54.7812, 42.8218
2.412, 5, 35.7194, 48.9726, -13.8471, 96.8124, -54.8619, 42.7925
2.416, 5, 35.7141, 48.9922, -13.8396, 96.7952, -54.9426, 42.7632
2.42, 5, 35.7087, 49.0118, -13.832, 96.778, -55.0232, 42.734
2.423, 5, 35.7034, 49.0313, -13.8244, 96.7607, -55.1038, 42.7048
2.428, 5, 35.698, 49.0508, -13.8166, 96.7433, -55.1844, 42.6757
2.432, 5, 35.6926, 49.0702, -13.8088, 96.7258, -55.2649, 42.6466
2.436, 5, 35.6871, 49.0896, -13.8009, 96.7082, -55.3455, 42.6175
2.439, 5, 35.6816, 49.1089, -13.7929, 96.6906, -55.4259, 42.5885
2.444, 5, 35.6761, 49.1282, -13.7848, 96.6729, -55.5064, 42.5595
2.448, 5, 35.6706, 49.1474, -13.7766, 96.6551, -55.5868, 42.5306
2.452, 5, 35.6651, 49.1665, -13.7684, 96.6373, -55.6672, 42.5017
2.456, 5, 35.6595, 49.1857, -13.76, 96.6194, -55.7476, 42.4729
2.459, 5, 35.6539, 49.2047, -13.7516, 96.6014, -55.8279, 42.444
2.464, 5, 35.6482, 49.2237, -13.743, 96.5833, -55.9082, 42.4153
2.468, 5, 35.6425, 49.2427, -13.7344, 96.5651, -55.9885, 42.3865
2.472, 5, 35.6368, 49.2616, -13.7257, 96.5469, -56.0687, 42.3578
2.476, 5, 35.6311, 49.2805, -13.7169, 96.5286, -56.1489, 42.3292
2.479, 5, 35.6254, 49.2993, -13.708, 96.5103, -56.2291, 42.3006
2.484, 5, 35.6196, 49.3181, -13.6991, 96.4919, -56.3092, 42.272
2.488, 5, 35.6138, 49.3368, -13.69, 96.4734, -56.3894, 42.2435
2.492, 5, 35.6079, 49.3554, -13.6809, 96.4548, -56.4695, 42.215
2.495, 5, 35.6021, 49.374, -13.6716, 96.4361, -56.5495, 42.1865
2.5, 5, 35.5962, 49.3926, -13.6623, 96.4174, -56.6295, 42.1581
2.504, 5, 35.5903, 49.4111, -13.6529, 96.3986, -56.7095, 42.1297
2.508, 5, 35.5843, 49.4296, -13.6434, 96.3798, -56.7895, 42.1014
2.512, 5, 35.5783, 49.448, -13.6338, 96.3609, -56.8694, 42.0731
2.515, 5, 35.5723, 49.4663, -13.6242, 96.3419, -56.9493, 42.0448
2.52, 5, 35.5663, 49.4846, -13.6144, 96.3228, -57.0292, 42.0165
2.524, 5, 35.5602, 49.5029, -13.6046, 96.3037, -57.1091, 41.9883
2.528, 5, 35.5542, 49.5211, -13.5946, 96.2845, -57.1889, 41.9602
2.531, 5, 35.548, 49.5392, -13.5846, 96.2652, -57.2687, 41.9321
2.536, 5, 35.5419, 49.5573, -13.5745, 96.2459, -57.3484, 41.904
2.54, 5, 35.5357, 49.5753, -13.5643, 96.2265, -57.4281, 41.8759
2.544, 5, 35.5296, 49.5933, -13.554, 96.207, -57.5078, 41.8479
2.548, 5, 35.5233, 49.6113, -13.5437, 96.1874, -57.5875, 41.8199
2.551, 5, 35.5171, 49.6292, -13.5332, 96.1678, -57.6672, 41.7919
2.556, 5, 35.5108, 49.647, -13.5227, 96.1481, -57.7468, 41.764
2.56, 5, 35.5045, 49.6648, -13.512, 96.1284, -57.8263, 41.7361
2.564, 5, 35.4982, 49.6825, -13.5013, 96.1086, -57.9059, 41.7083
2.568, 5, 35.4918, 49.7002, -13.4905, 96.0887, -57.9854, 41.6804
2.571, 5, 35.4854, 49.7178, -13.4796, 96.0688, -58.0649, 41.6527
2.576, 5, 35.479, 49.7354, -13.4686, 96.0488, -58.1444, 41.6249
2.58, 5, 35.4726, 49.7529, -13.4576, 96.0287, -58.2238, 41.5972
2.584, 5, 35.4661, 49.7704, -13.4464, 96.0086, -58.3032, 41.5695
2.587, 5, 35.4596, 49.7878, -13.4352, 95.9883, -58.3826, 41.5418
2.592, 5, 35.4531, 49.8052, -13.4239, 95.9681, -58.4619, 41.5142
2.596, 5, 35.4466, 49.8225, -13.4124, 95.9477, -58.5412, 41.4866
2.6, 5, 35.44, 49.8398, -13.4009, 95.9273, -58.6205, 41.459
2.604, 5, 35.4334, 49.857, -13.3893, 95.9069, -58.6998, 41.4315
2.607, 5, 35.4268, 49.8741, -13.3777, 95.8863, -58.779, 41.404
2.612, 5, 35.4201, 49.8912, -13.3659, 95.8658, -58.8582, 41.3765
2.616, 5, 35.4134, 49.9083, -13.3541, 95.8451, -58.9374, 41.3491
2.62, 5, 35.4067, 49.9253, -13.3421, 95.8244, -59.0165, 41.3217
2.624, 5, 35.4, 49.9422, -13.3301, 95.8036, -59.0956, 41.2943
2.627, 5, 35.3932, 49.9591, -13.318, 95.7827, -59.1747, 41.2669
2.632, 5, 35.3864, 49.976, -13.3058, 95.7618, -59.2537, 41.2396
2.636, 5, 35.3796, 49.9927, -13.2935, 95.7409, -59.3328, 41.2123
2.64, 5, 35.3728, 50.0095, -13.2811, 95.7198, -59.4118, 41.1851
2.643, 5, 35.3659, 50.0262, -13.2687, 95.6987, -59.4907, 41.1578
2.648, 5, 35.359, 50.0428, -13.2561, 95.6776, -59.5697, 41.1306
2.652, 5, 35.3521, 50.0594, -13.2435, 95.6563, -59.6486, 41.1034
2.656, 5, 35.3451, 50.0759, -13.2308, 95.6351, -59.7275, 41.0763
2.66, 5, 35.3382, 50.0924, -13.218, 95.6137, -59.8063, 41.0491
2.663, 5, 35.3312, 50.1088, -13.2051, 95.5923, -59.8851, 41.022
2.668, 5, 35.3241, 50.1251, -13.1921, 95.5709, -59.9639, 40.995
2.672, 5, 35.3171, 50.1414, -13.179, 95.5493, -60.0427, 40.9679
2.676, 5, 35.31, 50.1577, -13.1658, 95.5277, -60.1214, 40.9409
2.679, 5, 35.3029, 50.1739, -13.1526, 95.5061, -60.2001, 40.9139
2.684, 5, 35.2957, 50.19, -13.1393, 95.4844, -60.2788, 40.8869
2.688, 5, 35.2886, 50.2061, -13.1259, 95.4626, -60.3575, 40.86
2.692, 5, 35.2814, 50.2222, -13.1123, 95.4408, -60.4361, 40.8331
2.696, 5, 35.2742, 50.2381, -13.0988, 95.4189, -60.5147, 40.8062
2.699, 5, 35.2669, 50.2541, -13.0851, 95.397, -60.5933, 40.7793
2.704, 5, 35.2597, 50.2699, -13.0713, 95.375, -60.6718, 40.7525
2.708, 5, 35.2524, 50.2858, -13.0574, 95.3529, -60.7503, 40.7257
2.712, 5, 35.2451, 50.3015, -13.0435, 95.3308, -60.8288, 40.6989
2.716, 5, 35.2377, 50.3172, -13.0295, 95.3086, -60.9073, 40.6721
2.719, 5, 35.2303, 50.3329, -13.0154, 95.2863, -60.9857, 40.6454
2.724, 5, 35.2229, 50.3485, -13.0012, 95.2641, -61.0641, 40.6186
2.728, 5, 35.2155, 50.364, -12.9869, 95.2417, -61.1425, 40.5919
2.732, 5, 35.2081, 50.3795, -12.9725, 95.2193, -61.2208, 40.5653
2.735, 5, 35.2006, 50.395, -12.958, 95.1968, -61.2991, 40.5386
2.74, 5, 35.1931, 50.4104, -12.9435, 95.1743, -61.3774, 40.512
2.744, 5, 35.1855, 50.4257, -12.9288, 95.1517, -61.4557, 40.4854
2.748, 5, 35.178, 50.441, -12.9141, 95.1291, -61.5339, 40.4588
2.752, 5, 35.1704, 50.4562, -12.8993, 95.1064, -61.6121, 40.4322
2.755, 5, 35.1628, 50.4713, -12.8844, 95.0836, -61.6903, 40.4057
2.76, 5, 35.1551, 50.4864, -12.8694, 95.0608, -61.7684, 40.3792
2.764, 5, 35.1475, 50.5015, -12.8543, 95.0379, -61.8465, 40.3527
2.768, 5, 35.1398, 50.5165, -12.8391, 95.015, -61.9246, 40.3262
2.772, 5, 35.1321, 50.5314, -12.8239, 94.992, -62.0027, 40.2997
2.775, 5, 35.1243, 50.5463, -12.8085, 94.969, -62.0807, 40.2733
2.78, 5, 35.1165, 50.5611, -12.7931, 94.9459, -62.1588, 40.2469
2.784, 5, 35.1088, 50.5759, -12.7776, 94.9228, -62.2367, 40.2205
2.788, 5, 35.1009, 50.5906, -12.762, 94.8996, -62.3147, 40.1941
2.791, 5, 35.0931, 50.6053, -12.7463, 94.8763, -62.3926, 40.1678
2.796, 5, 35.0852, 50.6199, -12.7305, 94.853, -62.4705, 40.1414
2.8, 5, 35.0773, 50.6344, -12.7146, 94.8297, -62.5484, 40.1151
2.804, 5, 35.0694, 50.6489, -12.6987, 94.8062, -62.6262, 40.0888
2.808, 5, 35.0614, 50.6634, -12.6826, 94.7828, -62.704, 40.0625
2.811, 5, 35.0534, 50.6777, -12.6665, 94.7592, -62.7818, 40.0363
2.816, 5, 35.0454, 50.6921, -12.6503, 94.7356, -62.8596, 40.01
2.82, 5, 35.0374, 50.7063, -12.634, 94.712, -62.9373, 39.9838
2.824, 5, 35.0293, 50.7205, -12.6176, 94.6883, -63.015, 39.9576
2.828, 5, 35.0213, 50.7347, -12.6011, 94.6646, -63.0927, 39.9314
2.831, 5, 35.0131, 50.7488, -12.5845, 94.6408, -63.1704, 39.9052
2.836, 5, 35.005, 50.7628, -12.5678, 94.617, -63.248, 39.8791
2.84, 5, 34.9968, 50.7768, -12.5511, 94.5931, -63.3256, 39.8529
2.844, 5, 34.9886, 50.7907, -12.5342, 94.5691, -63.4032, 39.8268
2.847, 5, 34.9804, 50.8046, -12.5173, 94.5451, -63.4807, 39.8007
2.852, 5, 34.9722, 50.8184, -12.5003, 94.5211, -63.5582, 39.7746
2.856, 5, 34.9639, 50.8322, -12.4832, 94.497, -63.6357, 39.7486
2.86, 5, 34.9556, 50.8459, -12.466, 94.4728, -63.7132, 39.7225
2.864, 5, 34.9473, 50.8595, -12.4487, 94.4486, -63.7906, 39.6964
2.867, 5, 34.9389, 50.8731, -12.4313, 94.4243, -63.868, 39.6704
2.872, 5, 34.9306, 50.8866, -12.4139, 94.4, -63.9454, 39.6444
2.876, 5, 34.9222, 50.9001, -12.3963, 94.3757, -64.0227, 39.6184
2.88, 5, 34.9137, 50.9135, -12.3787, 94.3513, -64.1001, 39.5924
2.883, 5, 34.9053, 50.9268, -12.361, 94.3268, -64.1774, 39.5665
2.888, 5, 34.8968, 50.9401, -12.3431, 94.3023, -64.2546, 39.5405
2.892, 5, 34.8883, 50.9534, -12.3252, 94.2777, -64.3319, 39.5146
2.896, 5, 34.8798, 50.9666, -12.3073, 94.2531, -64.4091, 39.4886
2.9, 5, 34.8713, 50.9797, -12.2892, 94.2285, -64.4863, 39.4627
2.903, 5, 34.8629, 50.9929, -12.2711, 94.2038, -64.5635, 39.4368
2.908, 5, 34.8544, 51.0061, -12.253, 94.1791, -64.6407, 39.4109
2.912, 6, 34.846, 51.0193, -12.2348, 94.1545, -64.7178, 39.385
2.916, 6, 34.8375, 51.0325, -12.2167, 94.1299, -64.7951, 39.3591
2.92, 6, 34.829, 51.0457, -12.1986, 94.1054, -64.8724, 39.3332
2.923, 6, 34.8204, 51.0589, -12.1805, 94.081, -64.9497, 39.3073
2.928, 6, 34.8118, 51.0722, -12.1626, 94.0568, -65.0272, 39.2813
2.932, 6, 34.8031, 51.0855, -12.1447, 94.0328, -65.1047, 39.2553
2.936, 6, 34.7944, 51.0989, -12.127, 94.0089, -65.1824, 39.2293
2.939, 6, 34.7857, 51.1123, -12.1095, 93.9852, -65.2602, 39.2033
2.944, 6, 34.7769, 51.1258, -12.0921, 93.9617, -65.3381, 39.1773
2.948, 6, 34.768, 51.1394, -12.0749, 93.9384, -65.4161, 39.1512
2.952, 6, 34.7591, 51.153, -12.0578, 93.9154, -65.4942, 39.1252
2.956, 6, 34.7501, 51.1667, -12.0409, 93.8924, -65.5724, 39.0991
2.959, 6, 34.7411, 51.1805, -12.0241, 93.8696, -65.6507, 39.073
2.964, 6, 34.7321, 51.1943, -12.0074, 93.847, -65.7291, 39.047
2.968, 6, 34.7231, 51.2082, -11.9908, 93.8244, -65.8076, 39.0209
2.972, 6, 34.7141, 51.2222, -11.9744, 93.8018, -65.886, 38.9949
2.976, 6, 34.7051, 51.2363, -11.958, 93.7793, -65.9645, 38.9689
2.98, 6, 34.696, 51.2504, -11.9416, 93.7568, -66.043, 38.9429
2.984, 6, 34.687, 51.2646, -11.9253, 93.7343, -66.1215, 38.917
2.988, 6, 34.678, 51.2789, -11.909, 93.7118, -66.2, 38.8911
2.992, 6, 34.669, 51.2932, -11.8928, 93.6893, -66.2785, 38.8652
2.995, 6, 34.6599, 51.3077, -11.8766, 93.6667, -66.3569, 38.8393
3, 6, 34.6508, 51.3221, -11.8604, 93.6441, -66.4354, 38.8135
3.004, 6, 34.6417, 51.3366, -11.8442, 93.6214, -66.5139, 38.7877
3.008, 6, 34.6325, 51.3512, -11.828, 93.5988, -66.5923, 38.762
3.012, 6, 34.6233, 51.3658, -11.8119, 93.5761, -66.6707, 38.7363
3.015, 6, 34.6141, 51.3805, -11.7957, 93.5534, -66.7491, 38.7106
3.02, 6, 34.6048, 51.3953, -11.7796, 93.5306, -66.8275, 38.685
3.024, 6, 34.5955, 51.4101, -11.7635, 93.5078, -66.9059, 38.6594
3.028, 6, 34.5862, 51.4249, -11.7475, 93.485, -66.9842, 38.6339
3.031, 6, 34.5768, 51.4398, -11.7314, 93.4621, -67.0625, 38.6083
3.036, 6, 34.5674, 51.4548, -11.7154, 93.4392, -67.1409, 38.5829
3.04, 6, 34.558, 51.4698, -11.6993, 93.4162, -67.2192, 38.5574
3.044, 6, 34.5485, 51.4849, -11.6833, 93.3933, -67.2975, 38.532
3.048, 6, 34.539, 51.5, -11.6673, 93.3703, -67.3757, 38.5066
3.051, 6, 34.5294, 51.5152, -11.6513, 93.3472, -67.454, 38.4813
3.056, 6, 34.5198, 51.5304, -11.6353, 93.3242, -67.5322, 38.456
3.06, 6, 34.5102, 51.5457, -11.6194, 93.3011, -67.6105, 38.4307
3.064, 6, 34.5006, 51.561, -11.6035, 93.2779, -67.6887, 38.4054
3.068, 6, 34.4909, 51.5764, -11.5875, 93.2547, -67.7669, 38.3802
3.071, 6, 34.4812, 51.5918, -11.5716, 93.2315, -67.8451, 38.3551
3.076, 6, 34.4714, 51.6073, -11.5557, 93.2083, -67.9232, 38.3299
3.08, 6, 34.4616, 51.6229, -11.5399, 93.185, -68.0014, 38.3048
3.084, 6, 34.4518, 51.6385, -11.524, 93.1617, -68.0795, 38.2798
3.087, 6, 34.4419, 51.6541, -11.5081, 93.1384, -68.1576, 38.2547
3.092, 6, 34.432, 51.6699, -11.4923, 93.115, -68.2358, 38.2297
3.096, 6, 34.4221, 51.6856, -11.4765, 93.0916, -68.3139, 38.2048
3.1, 6, 34.4121, 51.7014, -11.4607, 93.0681, -68.3919, 38.1798
3.104, 6, 34.4021, 51.7173, -11.4449, 93.0447, -68.47, 38.1549
3.107, 6, 34.392, 51.7332, -11.4292, 93.0212, -68.548, 38.1301
3.112, 6, 34.3819, 51.7492, -11.4134, 92.9976, -68.6261, 38.1052
3.116, 6, 34.3718, 51.7653, -11.3977, 92.9741, -68.7041, 38.0804
3.12, 6, 34.3617, 51.7813, -11.3819, 92.9504, -68.7821, 38.0557
3.124, 6, 34.3515, 51.7975, -11.3662, 92.9268, -68.8601, 38.0309
3.128, 6, 34.3412, 51.8137, -11.3505, 92.9031, -68.938, 38.0062
3.132, 6, 34.331, 51.8299, -11.3349, 92.8794, -69.016, 37.9816
3.136, 6, 34.3207, 51.8462, -11.3192, 92.8557, -69.0939, 37.9569
3.14, 6, 34.3103, 51.8626, -11.3036, 92.8319, -69.1719, 37.9323
3.143, 6, 34.3, 51.879, -11.2879, 92.8082, -69.2498, 37.9077
3.148, 6, 34.2896, 51.8954, -11.2723, 92.7843, -69.3277, 37.8832
3.152, 6, 34.2791, 51.9119, -11.2567, 92.7605, -69.4056, 37.8587
3.156, 6, 34.2686, 51.9285, -11.2412, 92.7366, -69.4834, 37.8342
3.16, 6, 34.2581, 51.9451, -11.2256, 92.7126, -69.5613, 37.8098
3.163, 6, 34.2475, 51.9618, -11.21, 92.6887, -69.6391, 37.7854
3.168, 6, 34.2369, 51.9785, -11.1945, 92.6647, -69.717, 37.761
3.172, 6, 34.2263, 51.9952, -11.179, 92.6407, -69.7948, 37.7366
3.176, 6, 34.2156, 52.0121, -11.1635, 92.6166, -69.8726, 37.7123
3.179, 6, 34.2049, 52.0289, -11.148, 92.5925, -69.9504, 37.688
3.184, 6, 34.1942, 52.0459, -11.1325, 92.5684, -70.0281, 37.6638
3.188, 6, 34.1834, 52.0628, -11.1171, 92.5443, -70.1059, 37.6396
3.192, 6, 34.1726, 52.0799, -11.1016, 92.5201, -70.1836, 37.6154
3.196, 6, 34.1617, 52.097, -11.0862, 92.4959, -70.2613, 37.5912
3.199, 6, 34.1508, 52.1141, -11.0708, 92.4717, -70.3391, 37.5671
3.204, 6, 34.1399, 52.1313, -11.0554, 92.4474, -70.4167, 37.543
3.208, 6, 34.1289, 52.1485, -11.0401, 92.4231, -70.4944, 37.5189
3.212, 6, 34.1179, 52.1658, -11.0247, 92.3988, -70.5721, 37.4949
3.216, 6, 34.1069, 52.1831, -11.0093, 92.3744, -70.6498, 37.4709
3.22, 6, 34.0958, 52.2005, -10.994, 92.35, -70.7274, 37.4469
3.224, 6, 34.0847, 52.218, -10.9787, 92.3256, -70.805, 37.4229
3.228, 6, 34.0735, 52.2355, -10.9634, 92.3012, -70.8826, 37.399
3.232, 6, 34.0624, 52.253, -10.9481, 92.2767, -70.9602, 37.3751
3.235, 6, 34.0511, 52.2706, -10.9329, 92.2522, -71.0378, 37.3513
3.24, 6, 34.0399, 52.2883, -10.9176, 92.2276, -71.1154, 37.3274
3.244, 6, 34.0286, 52.306, -10.9024, 92.2031, -71.193, 37.3036
3.248, 6, 34.0172, 52.3238, -10.8872, 92.1785, -71.2705, 37.2799
3.252, 6, 34.0058, 52.3416, -10.872, 92.1538, -71.348, 37.2561
3.255, 6, 33.9944, 52.3594, -10.8568, 92.1292, -71.4255, 37.2324
3.26, 6, 33.983, 52.3773, -10.8416, 92.1045, -71.5031, 37.2087
3.264, 6, 33.9715, 52.3953, -10.8265, 92.0798, -71.5805, 37.1851
3.268, 6, 33.9599, 52.4133, -10.8113, 92.055, -71.658, 37.1614
3.272, 6, 33.9484, 52.4314, -10.7962, 92.0303, -71.7355, 37.1378
3.276, 6, 33.9367, 52.4495, -10.7811, 92.0055, -71.8129, 37.1143
3.28, 6, 33.9251, 52.4676, -10.766, 91.9806, -71.8904, 37.0907
3.284, 6, 33.9134, 52.4859, -10.7509, 91.9558, -71.9678, 37.0672
3.288, 6, 33.9017, 52.5041, -10.7359, 91.9309, -72.0452, 37.0437
3.291, 6, 33.8899, 52.5224, -10.7208, 91.9059, -72.1226, 37.0203
3.296, 6, 33.8781, 52.5408, -10.7058, 91.881, -72.2, 36.9968
3.3, 6, 33.8663, 52.5592, -10.6908, 91.856, -72.2773, 36.9734
3.304, 6, 33.8544, 52.5777, -10.6758, 91.831, -72.3547, 36.95
3.308, 6, 33.8425, 52.5962, -10.6608, 91.806, -72.432, 36.9267
3.312, 6, 33.8305, 52.6148, -10.6459, 91.7809, -72.5094, 36.9034
3.316, 6, 33.8185, 52.6334, -10.6309, 91.7558, -72.5867, 36.8801
3.32, 6, 33.8065, 52.6521, -10.616, 91.7307, -72.664, 36.8568
3.324, 6, 33.7944, 52.6708, -10.6011, 91.7056, -72.7413, 36.8336
3.328, 6, 33.7823, 52.6896, -10.5862, 91.6804, -72.8186, 36.8104
3.332, 6, 33.7702, 52.7084, -10.5713, 91.6552, -72.8958, 36.7872
3.336, 6, 33.758, 52.7273, -10.5564, 91.63, -72.9731, 36.764
3.34, 6, 33.7458, 52.7462, -10.5416, 91.6047, -73.0503, 36.7409
3.344, 6, 33.7335, 52.7652, -10.5267, 91.5794, -73.1275, 36.7178
3.347, 6, 33.7212, 52.7842, -10.5119, 91.5541, -73.2047, 36.6947
3.352, 6, 33.7088, 52.8033, -10.4971, 91.5288, -73.2819, 36.6716
3.356, 6, 33.6965, 52.8225, -10.4823, 91.5034, -73.3591, 36.6486
3.36, 6, 33.684, 52.8416, -10.4676, 91.478, -73.4363, 36.6256
3.364, 6, 33.6716, 52.8609, -10.4528, 91.4526, -73.5135, 36.6026
3.368, 6, 33.6591, 52.8801, -10.4381, 91.4271, -73.5906, 36.5797
3.372, 6, 33.6465, 52.8995, -10.4234, 91.4016, -73.6677, 36.5568
3.376, 6, 33.6339, 52.9189, -10.4087, 91.3761, -73.7449, 36.5339
3.38, 6, 33.6213, 52.9383, -10.394, 91.3506, -73.822, 36.511
3.383, 6, 33.6087, 52.9578, -10.3793, 91.325, -73.8991, 36.4882
3.388, 6, 33.596, 52.9773, -10.3646, 91.2994, -73.9762, 36.4653
3.392, 6, 33.5832, 52.9969, -10.35, 91.2738, -74.0532, 36.4425
3.396, 6, 33.5704, 53.0165, -10.3354, 91.2482, -74.1303, 36.4198
3.4, 6, 33.5576, 53.0362, -10.3208, 91.2225, -74.2073, 36.397
3.403, 6, 33.5448, 53.0559, -10.3062, 91.1968, -74.2844, 36.3743
3.408, 6, 33.5319, 53.0757, -10.2916, 91.1711, -74.3614, 36.3516
3.412, 6, 33.5189, 53.0955, -10.277, 91.1454, -74.4384, 36.3289
3.416, 6, 33.5059, 53.1154, -10.2625, 91.1196, -74.5154, 36.3063
3.42, 6, 33.4929, 53.1354, -10.248, 91.0938, -74.5924, 36.2836
3.424, 6, 33.4799, 53.1553, -10.2335, 91.068, -74.6694, 36.2611
3.428, 6, 33.4668, 53.1754, -10.219, 91.0421, -74.7463, 36.2385
3.432, 6, 33.4536, 53.1955, -10.2045, 91.0162, -74.8233, 36.2159
3.436, 6, 33.4404, 53.2156, -10.19, 90.9903, -74.9002, 36.1934
3.439, 6, 33.4272, 53.2358, -10.1756, 90.9644, -74.9771, 36.1709
3.444, 6, 33.4139, 53.256, -10.1612, 90.9384, -75.054, 36.1484
3.448, 6, 33.4006, 53.2763, -10.1468, 90.9125, -75.1309, 36.126
3.452, 6, 33.3873, 53.2966, -10.1324, 90.8865, -75.2078, 36.1035
3.456, 6, 33.3739, 53.317, -10.118, 90.8604, -75.2847, 36.0811
3.46, 6, 33.3605, 53.3374, -10.1036, 90.8344, -75.3616, 36.0587
3.464, 6, 33.347, 53.3579, -10.0893, 90.8083, -75.4384, 36.0364
3.468, 6, 33.3335, 53.3784, -10.075, 90.7822, -75.5153, 36.014
3.472, 6, 33.32, 53.399, -10.0607, 90.756, -75.5921, 35.9917
3.476, 6, 33.3064, 53.4196, -10.0464, 90.7298, -75.6689, 35.9694
3.48, 6, 33.2928, 53.4403, -10.0321, 90.7037, -75.7457, 35.9471
3.484, 6, 33.2791, 53.461, -10.0179, 90.6774, -75.8225, 35.9249
3.488, 6, 33.2654, 53.4818, -10.0036, 90.6512, -75.8993, 35.9027
3.492, 6, 33.2516, 53.5026, -9.9894, 90.6249, -75.9761, 35.8805
3.495, 6, 33.2378, 53.5235, -9.9752, 90.5986, -76.0529, 35.8583
3.5, 6, 33.224, 53.5444, -9.96102, 90.5723, -76.1296, 35.8361
3.504, 6, 33.2101, 53.5653, -9.94685, 90.546, -76.2063, 35.814
3.508, 6, 33.1962, 53.5864, -9.9327, 90.5196, -76.2831, 35.7919
3.512, 6, 33.1823, 53.6074, -9.91856, 90.4932, -76.3598, 35.7698
3.516, 6, 33.1683, 53.6285, -9.90445, 90.4668, -76.4365, 35.7477
3.52, 6, 33.1542, 53.6497, -9.89035, 90.4403, -76.5132, 35.7257
3.524, 6, 33.1402, 53.6709, -9.87627, 90.4139, -76.5899, 35.7036
3.528, 6, 33.126, 53.6922, -9.86221, 90.3874, -76.6666, 35.6816
3.531, 6, 33.1119, 53.7135, -9.84816, 90.3608, -76.7432, 35.6596
3.536, 6, 33.0977, 53.7348, -9.83414, 90.3343, -76.8199, 35.6377
3.54, 6, 33.0834, 53.7562, -9.82013, 90.3077, -76.8965, 35.6157
3.544, 6, 33.0692, 53.7777, -9.80613, 90.2811, -76.9732, 35.5938
3.548, 6, 33.0548, 53.7992, -9.79216, 90.2545, -77.0498, 35.5719
3.552, 6, 33.0405, 53.8207, -9.7782, 90.2279, -77.1264, 35.55
3.556, 6, 33.0261, 53.8423, -9.76426, 90.2012, -77.203, 35.5282
3.56, 6, 33.0117, 53.8639, -9.75034, 90.1745, -77.2796, 35.5063
3.564, 6, 32.9972, 53.8856, -9.73644, 90.1478, -77.3562, 35.4845
3.568, 6, 32.9827, 53.9073, -9.72255, 90.121, -77.4327, 35.4627
3.572, 6, 32.9684, 53.9289, -9.70868, 90.0943, -77.5093, 35.4409
3.576, 6, 32.9543, 53.9503, -9.69482, 90.0675, -77.5858, 35.4192
3.58, 6, 32.9408, 53.9713, -9.68097, 90.0407, -77.6622, 35.3975
3.584, 6, 32.9279, 53.9913, -9.66713, 90.014, -77.7383, 35.3759
3.587, 6, 32.9159, 54.0104, -9.65335, 89.9874, -77.8141, 35.3544
3.592, 6, 32.9046, 54.0283, -9.63966, 89.961, -77.8892, 35.3331
3.596, 6, 32.8941, 54.0451, -9.62615, 89.935, -77.9631, 35.3122
3.6, 6, 32.8841, 54.0609, -9.6129, 89.9096, -78.0355, 35.2917
3.604, 6, 32.8745, 54.0758, -9.60004, 89.8848, -78.1057, 35.2719
3.608, 6, 32.8653, 54.0901, -9.58767, 89.861, -78.1732, 35.2528
3.612, 6, 32.8563, 54.1039, -9.57591, 89.8384, -78.2374, 35.2347
3.616, 6, 32.8477, 54.1171, -9.56488, 89.8171, -78.2977, 35.2176
3.62, 6, 32.8394, 54.1297, -9.55466, 89.7973, -78.3536, 35.2018
3.624, 6, 32.8315, 54.1418, -9.54535, 89.7793, -78.4048, 35.1874
3.628, 6, 32.8237, 54.1535, -9.53703, 89.763, -78.4507, 35.1744
3.632, 6, 32.8161, 54.1649, -9.52974, 89.7487, -78.4913, 35.163
3.636, 6, 32.8086, 54.176, -9.52349, 89.7362, -78.5266, 35.1531
3.64, 6, 32.8013, 54.1869, -9.51825, 89.7256, -78.5565, 35.1446
3.644, 6, 32.7943, 54.1974, -9.51397, 89.7168, -78.5814, 35.1376
3.648, 6, 32.7875, 54.2075, -9.51055, 89.7096, -78.6017, 35.1319
3.652, 6, 32.7812, 54.217, -9.50789, 89.7039, -78.6179, 35.1273
3.656, 6, 32.7753, 54.2257, -9.50587, 89.6994, -78.6305, 35.1238
3.66, 6, 32.7699, 54.2336, -9.50439, 89.696, -78.64, 35.121
3.664, 6, 32.765, 54.2403, -9.50333, 89.6935, -78.6472, 35.119
3.668, 6, 32.7607, 54.246, -9.50261, 89.6916, -78.6523, 35.1176
3.672, 6, 32.7571, 54.2505, -9.50212, 89.6903, -78.656, 35.1165
3.676, 7, 32.7541, 54.254, -9.50179, 89.6894, -78.6585, 35.1158
3.679, 7, 32.7518, 54.2566, -9.50158, 89.6888, -78.6603, 35.1153
3.684, 7, 32.7501, 54.2584, -9.50144, 89.6884, -78.6615, 35.115
3.688, 7, 32.749, 54.2597, -9.50135, 89.6881, -78.6623, 35.1148
3.692, 7, 32.7482, 54.2605, -9.50129, 89.6879, -78.6628, 35.1146
3.696, 7, 32.7476, 54.2611, -9.50124, 89.6878, -78.6632, 35.1145
3.7, 7, 32.7473, 54.2615, -9.50122, 89.6877, -78.6634, 35.1144
3.704, 7, 32.747, 54.2618, -9.5012, 89.6876, -78.6636, 35.1144
3.708, 7, 32.7469, 54.2619, -9.50118, 89.6876, -78.6637, 35.1143
3.712, 7, 32.7467, 54.2621, -9.50117, 89.6876, -78.6638, 35.1143
3.716, 7, 32.7467, 54.2621, -9.50117, 89.6875, -78.6639, 35.1143
3.72, 7, 32.7466, 54.2622, -9.50116, 89.6875, -78.6639, 35.1143
3.724, 7, 32.7466, 54.2622, -9.50116, 89.6875, -78.6639, 35.1143
3.728, 7, 32.7466, 54.2623, -9.50116, 89.6875, -78.6639, 35.1143
3.732, 7, 32.7465, 54.2623, -9.50116, 89.6875, -78.6639, 35.1143
3.735, 7, 32.7465, 54.2623, -9.50116, 89.6875, -78.664, 35.1143
3.74, 7, 32.7465, 54.2623, -9.50116, 89.6875, -78.664, 35.1143
3.744, 7, 32.7465, 54.2623, -9.50116, 89.6875, -78.664, 35.1143
3.748, 7, 32.7465, 54.2623, -9.50116, 89.6875, -78.664, 35.1143
3.752, 7, 32.7465, 54.2623, -9.50115, 89.6875, -78.664, 35.1143
3.756, 7, 32.7465, 54.2623, -9.50115, 89.6875, -78.664, 35.1143
3.76, 7, 32.7465, 54.2623, -9.50115, 89.6875, -78.664, 35.1143
3.764, 7, 32.7465, 54.2623, -9.50115, 89.6875, -78.664, 35.1143
3.768, 7, 32.7465, 54.2623, -9.50115, 89.6875, -78.664, 35.1143
3.772, 7, 32.7465, 54.2623, -9.50115, 89.6875, -78.664, 35.1143
3.776, 7, 32.7465, 54.2623, -9.50115, 89.6875, -78.664, 35.1143
3.78, 7, 32.7465, 54.2623, -9.50115, 89.6875, -78.664, 35.1143
3.784, 7, 32.7465, 54.2623, -9.50115, 89.6875, -78.664, 35.1143
3.788, 7, 32.7465, 54.2623, -9.50115, 89.6875, -78.664, 35.1143
3.792, 7, 32.7465, 54.2623, -9.50115, 89.6875, -78.664, 35.1143
