hehonglu123/ABB_Primitive_Study/execution/movec+movel_smooth/curve_exe_vmax_z1.csv
timestamp, cmd_num, J1, J2, J3, J4, J5, J6
0, -1, 32.7465, 54.2623, -9.50115, 89.6875, -78.664, 35.1143
0.002, -1, 32.7465, 54.2623, -9.50115, 89.6875, -78.664, 35.1143
0.006, -1, 32.7465, 54.2623, -9.50115, 89.6875, -78.664, 35.1143
0.008, -1, 32.7465, 54.2623, -9.50115, 89.6875, -78.664, 35.1143
0.011, -1, 32.7465, 54.2623, -9.50115, 89.6875, -78.664, 35.1143
0.016, -1, 32.7465, 54.2623, -9.50115, 89.6875, -78.664, 35.1143
0.02, -1, 32.7465, 54.2623, -9.50115, 89.6875, -78.664, 35.1143
0.024, -1, 32.7465, 54.2623, -9.50115, 89.6875, -78.664, 35.1143
0.028, -1, 32.7465, 54.2623, -9.50115, 89.6875, -78.664, 35.1143
0.032, -1, 32.7465, 54.2623, -9.50115, 89.6875, -78.664, 35.1143
0.036, -1, 32.7466, 54.2623, -9.50115, 89.6875, -78.664, 35.1143
0.04, -1, 32.7467, 54.2621, -9.50116, 89.6875, -78.664, 35.1143
0.044, -1, 32.7471, 54.2618, -9.50116, 89.6875, -78.6639, 35.1143
0.048, -1, 32.7479, 54.2611, -9.50118, 89.6876, -78.6638, 35.1144
0.052, -1, 32.7491, 54.2598, -9.50124, 89.6877, -78.6634, 35.1145
0.056, -1, 32.7507, 54.2577, -9.50136, 89.6879, -78.6626, 35.1147
0.06, -1, 32.7529, 54.2547, -9.50159, 89.6883, -78.6611, 35.1152
0.064, -1, 32.7556, 54.2507, -9.502, 89.689, -78.6586, 35.1161
0.068, -1, 32.7588, 54.2455, -9.50267, 89.6902, -78.6545, 35.1174
0.072, -1, 32.7625, 54.2391, -9.5037, 89.692, -78.6482, 35.1195
0.076, -1, 32.7668, 54.2314, -9.50521, 89.6946, -78.6391, 35.1225
0.08, -1, 32.7718, 54.2224, -9.50734, 89.6982, -78.6262, 35.1267
0.084, -1, 32.7776, 54.212, -9.51024, 89.7032, -78.6088, 35.1325
0.088, -1, 32.784, 54.2002, -9.5141, 89.7098, -78.5857, 35.1401
0.092, -1, 32.7912, 54.1873, -9.51908, 89.7183, -78.5559, 35.1499
0.096, -1, 32.7988, 54.1733, -9.52538, 89.729, -78.5183, 35.1622
0.1, -1, 32.8067, 54.1585, -9.53315, 89.7422, -78.472, 35.1774
0.104, -1, 32.815, 54.143, -9.54252, 89.7581, -78.4163, 35.1957
0.108, -1, 32.8235, 54.1267, -9.55357, 89.7769, -78.3507, 35.2173
0.112, -1, 32.8324, 54.1096, -9.56636, 89.7986, -78.2748, 35.2423
0.116, -1, 32.8415, 54.0916, -9.58087, 89.8232, -78.1888, 35.2705
0.12, -1, 32.8511, 54.0725, -9.59706, 89.8507, -78.0929, 35.3021
0.124, -1, 32.8611, 54.0525, -9.61485, 89.8808, -77.9875, 35.3367
0.128, -1, 32.8716, 54.0317, -9.63411, 89.9134, -77.8735, 35.3742
0.131, -1, 32.8823, 54.0101, -9.65471, 89.9483, -77.7516, 35.4142
0.136, -1, 32.8932, 53.9877, -9.67648, 89.9852, -77.6227, 35.4566
0.139, -1, 32.9045, 53.9644, -9.69923, 90.0237, -77.4881, 35.5008
0.144, -1, 32.9163, 53.9399, -9.72278, 90.0636, -77.3487, 35.5466
0.148, -1, 32.9288, 53.914, -9.74695, 90.1045, -77.2057, 35.5936
0.152, -1, 32.942, 53.8866, -9.77157, 90.1462, -77.0599, 35.6415
0.156, -1, 32.9561, 53.8575, -9.79651, 90.1885, -76.9123, 35.6901
0.16, -1, 32.9711, 53.8271, -9.82165, 90.231, -76.7634, 35.739
0.164, -1, 32.9869, 53.7955, -9.84692, 90.2739, -76.6137, 35.7882
0.168, -1, 33.0032, 53.7631, -9.87226, 90.3168, -76.4636, 35.8375
0.172, -1, 33.02, 53.7302, -9.89762, 90.3598, -76.3133, 35.8869
0.176, -1, 33.037, 53.6969, -9.92299, 90.4028, -76.163, 35.9363
0.18, -1, 33.0541, 53.6634, -9.94833, 90.4457, -76.0128, 35.9857
0.184, -1, 33.0714, 53.6298, -9.97365, 90.4886, -75.8628, 36.035
0.188, -1, 33.0888, 53.5962, -9.99894, 90.5315, -75.713, 36.0842
0.192, -1, 33.1061, 53.5625, -10.0242, 90.5743, -75.5634, 36.1334
0.196, -1, 33.1235, 53.5289, -10.0494, 90.617, -75.4141, 36.1825
0.2, -1, 33.1409, 53.4952, -10.0745, 90.6596, -75.265, 36.2315
0.204, -1, 33.1582, 53.4616, -10.0996, 90.7021, -75.1163, 36.2804
0.208, -1, 33.1755, 53.4281, -10.1247, 90.7446, -74.9678, 36.3292
0.212, -1, 33.1928, 53.3946, -10.1497, 90.787, -74.8197, 36.3779
0.216, -1, 33.2101, 53.3612, -10.1746, 90.8292, -74.6718, 36.4265
0.22, -1, 33.2273, 53.3278, -10.1995, 90.8714, -74.5242, 36.475
0.224, -1, 33.2446, 53.2945, -10.2244, 90.9136, -74.377, 36.5234
0.228, -1, 33.2617, 53.2613, -10.2492, 90.9556, -74.23, 36.5717
0.232, -1, 33.2789, 53.2282, -10.2739, 90.9975, -74.0834, 36.6199
0.236, -1, 33.296, 53.1951, -10.2986, 91.0394, -73.937, 36.668
0.24, -1, 33.313, 53.162, -10.3233, 91.0812, -73.7909, 36.716
0.244, -1, 33.3301, 53.1291, -10.3479, 91.1229, -73.6451, 36.7639
0.248, -1, 33.3471, 53.0962, -10.3724, 91.1645, -73.4996, 36.8117
0.252, -1, 33.364, 53.0633, -10.3969, 91.206, -73.3544, 36.8595
0.256, -1, 33.381, 53.0306, -10.4214, 91.2474, -73.2095, 36.9071
0.26, -1, 33.3979, 52.9979, -10.4458, 91.2888, -73.0649, 36.9546
0.264, -1, 33.4147, 52.9652, -10.4701, 91.3301, -72.9206, 37.0021
0.268, -1, 33.4316, 52.9327, -10.4944, 91.3713, -72.7765, 37.0494
0.272, -1, 33.4484, 52.9002, -10.5187, 91.4124, -72.6327, 37.0967
0.276, -1, 33.4651, 52.8677, -10.5429, 91.4534, -72.4893, 37.1438
0.28, -1, 33.4819, 52.8353, -10.5671, 91.4944, -72.346, 37.1909
0.284, -1, 33.4986, 52.803, -10.5912, 91.5353, -72.2031, 37.2379
0.288, -1, 33.5152, 52.7708, -10.6153, 91.5761, -72.0604, 37.2848
0.292, -1, 33.5319, 52.7386, -10.6393, 91.6168, -71.9181, 37.3316
0.296, -1, 33.5485, 52.7065, -10.6633, 91.6574, -71.776, 37.3783
0.3, -1, 33.5651, 52.6744, -10.6872, 91.698, -71.6341, 37.4249
0.304, -1, 33.5816, 52.6424, -10.7111, 91.7385, -71.4925, 37.4714
0.308, -1, 33.5981, 52.6104, -10.7349, 91.7789, -71.3513, 37.5179
0.312, -1, 33.6146, 52.5785, -10.7587, 91.8192, -71.2102, 37.5642
0.316, -1, 33.631, 52.5467, -10.7825, 91.8595, -71.0695, 37.6105
0.32, -1, 33.6474, 52.5149, -10.8062, 91.8997, -70.929, 37.6567
0.324, -1, 33.6638, 52.4832, -10.8299, 91.9398, -70.7887, 37.7028
0.328, -1, 33.6802, 52.4516, -10.8535, 91.9798, -70.6488, 37.7488
0.332, -1, 33.6965, 52.42, -10.8771, 92.0198, -70.509, 37.7947
0.336, -1, 33.7128, 52.3885, -10.9006, 92.0597, -70.3696, 37.8405
0.34, -1, 33.7291, 52.357, -10.9241, 92.0995, -70.2304, 37.8863
0.344, -1, 33.7453, 52.3256, -10.9475, 92.1392, -70.0914, 37.9319
0.348, -1, 33.7615, 52.2942, -10.9709, 92.1789, -69.9528, 37.9775
0.352, -1, 33.7777, 52.2629, -10.9943, 92.2185, -69.8143, 38.023
0.356, -1, 33.7938, 52.2317, -11.0176, 92.258, -69.6762, 38.0685
0.36, -1, 33.8099, 52.2005, -11.0409, 92.2974, -69.5382, 38.1138
0.364, -1, 33.826, 52.1694, -11.0641, 92.3368, -69.4006, 38.159
0.368, -1, 33.8421, 52.1383, -11.0873, 92.3761, -69.2631, 38.2042
0.372, -1, 33.8581, 52.1073, -11.1104, 92.4153, -69.126, 38.2493
0.376, -1, 33.8741, 52.0763, -11.1336, 92.4545, -68.989, 38.2943
0.38, -1, 33.8901, 52.0454, -11.1566, 92.4936, -68.8523, 38.3392
0.384, -1, 33.906, 52.0146, -11.1796, 92.5326, -68.7159, 38.3841
0.388, -1, 33.9219, 51.9838, -11.2026, 92.5716, -68.5797, 38.4288
0.392, -1, 33.9378, 51.953, -11.2256, 92.6104, -68.4437, 38.4735
0.396, -1, 33.9537, 51.9224, -11.2485, 92.6493, -68.308, 38.5181
0.4, -1, 33.9695, 51.8917, -11.2713, 92.688, -68.1725, 38.5627
0.404, -1, 33.9853, 51.8611, -11.2942, 92.7267, -68.0373, 38.6071
0.408, -1, 34.0011, 51.8306, -11.3169, 92.7653, -67.9023, 38.6515
0.412, -1, 34.0168, 51.8002, -11.3397, 92.8038, -67.7675, 38.6958
0.416, -1, 34.0326, 51.7697, -11.3624, 92.8423, -67.633, 38.74
0.42, -1, 34.0483, 51.7394, -11.385, 92.8807, -67.4987, 38.7842
0.424, -1, 34.0639, 51.7091, -11.4077, 92.9191, -67.3646, 38.8282
0.428, -1, 34.0796, 51.6788, -11.4302, 92.9574, -67.2307, 38.8722
0.432, -1, 34.0952, 51.6486, -11.4528, 92.9956, -67.0971, 38.9161
0.436, -1, 34.1108, 51.6184, -11.4753, 93.0337, -66.9637, 38.96
0.44, -1, 34.1263, 51.5883, -11.4978, 93.0718, -66.8306, 39.0038
0.444, -1, 34.1418, 51.5583, -11.5202, 93.1098, -66.6976, 39.0474
0.448, -1, 34.1573, 51.5282, -11.5426, 93.1478, -66.5649, 39.0911
0.452, -1, 34.1728, 51.4983, -11.565, 93.1857, -66.4324, 39.1346
0.456, -1, 34.1883, 51.4684, -11.5873, 93.2235, -66.3002, 39.1781
0.46, -1, 34.2037, 51.4385, -11.6096, 93.2613, -66.1681, 39.2215
0.464, -1, 34.2191, 51.4087, -11.6318, 93.299, -66.0363, 39.2648
0.468, -1, 34.2345, 51.379, -11.654, 93.3366, -65.9047, 39.3081
0.472, -1, 34.2498, 51.3493, -11.6762, 93.3742, -65.7733, 39.3513
0.476, -1, 34.2652, 51.3196, -11.6983, 93.4117, -65.6421, 39.3944
0.48, -1, 34.2805, 51.29, -11.7204, 93.4492, -65.5111, 39.4374
0.484, -1, 34.2957, 51.2604, -11.7425, 93.4865, -65.3804, 39.4804
0.488, -1, 34.311, 51.2309, -11.7645, 93.5239, -65.2498, 39.5233
0.492, -1, 34.3262, 51.2014, -11.7865, 93.5611, -65.1195, 39.5662
0.496, -1, 34.3414, 51.172, -11.8085, 93.5984, -64.9894, 39.6089
0.5, -1, 34.3566, 51.1426, -11.8304, 93.6355, -64.8595, 39.6516
0.504, -1, 34.3718, 51.1133, -11.8523, 93.6726, -64.7298, 39.6943
0.508, -1, 34.3869, 51.084, -11.8741, 93.7096, -64.6003, 39.7368
0.512, -1, 34.402, 51.0548, -11.8959, 93.7466, -64.471, 39.7793
0.516, -1, 34.4171, 51.0256, -11.9177, 93.7835, -64.3419, 39.8217
0.52, -1, 34.4321, 50.9965, -11.9395, 93.8204, -64.213, 39.8641
0.524, -1, 34.4472, 50.9674, -11.9612, 93.8572, -64.0844, 39.9064
0.528, -1, 34.4622, 50.9384, -11.9828, 93.8939, -63.9559, 39.9486
0.532, -1, 34.4771, 50.9094, -12.0045, 93.9306, -63.8276, 39.9908
0.536, -1, 34.4921, 50.8804, -12.0261, 93.9672, -63.6996, 40.0329
0.54, -1, 34.507, 50.8515, -12.0477, 94.0038, -63.5717, 40.0749
0.544, -1, 34.522, 50.8226, -12.0692, 94.0403, -63.444, 40.1169
0.548, -1, 34.5369, 50.7938, -12.0907, 94.0768, -63.3166, 40.1588
0.552, -1, 34.5517, 50.765, -12.1122, 94.1132, -63.1893, 40.2006
0.556, -1, 34.5666, 50.7363, -12.1337, 94.1495, -63.0622, 40.2424
0.56, -1, 34.5814, 50.7076, -12.1551, 94.1858, -62.9353, 40.2841
0.564, -1, 34.5962, 50.679, -12.1764, 94.2221, -62.8086, 40.3257
0.568, -1, 34.611, 50.6504, -12.1978, 94.2582, -62.6821, 40.3673
0.572, -1, 34.6257, 50.6218, -12.2191, 94.2943, -62.5558, 40.4088
0.576, -1, 34.6405, 50.5933, -12.2404, 94.3304, -62.4297, 40.4502
0.58, -1, 34.6552, 50.5648, -12.2616, 94.3664, -62.3038, 40.4916
0.584, -1, 34.6699, 50.5364, -12.2828, 94.4024, -62.1781, 40.533
0.588, -1, 34.6845, 50.508, -12.304, 94.4383, -62.0525, 40.5742
0.592, -1, 34.6992, 50.4797, -12.3252, 94.4741, -61.9272, 40.6154
0.596, -1, 34.7138, 50.4514, -12.3463, 94.5099, -61.802, 40.6566
0.6, -1, 34.7284, 50.4231, -12.3674, 94.5457, -61.677, 40.6977
0.604, -1, 34.743, 50.3949, -12.3884, 94.5814, -61.5522, 40.7387
0.608, -1, 34.7575, 50.3667, -12.4095, 94.617, -61.4276, 40.7796
0.612, -1, 34.7721, 50.3386, -12.4305, 94.6526, -61.3032, 40.8205
0.616, -1, 34.7866, 50.3105, -12.4514, 94.6881, -61.1789, 40.8614
0.62, -1, 34.8011, 50.2824, -12.4724, 94.7236, -61.0548, 40.9022
0.624, -1, 34.8155, 50.2544, -12.4933, 94.7591, -60.931, 40.9429
0.628, -1, 34.83, 50.2265, -12.5142, 94.7944, -60.8073, 40.9835
0.632, -1, 34.8444, 50.1985, -12.535, 94.8298, -60.6837, 41.0241
0.636, -1, 34.8588, 50.1707, -12.5558, 94.865, -60.5604, 41.0647
0.64, -1, 34.8732, 50.1428, -12.5766, 94.9003, -60.4372, 41.1052
0.644, -1, 34.8876, 50.115, -12.5973, 94.9354, -60.3142, 41.1456
0.648, -1, 34.9019, 50.0872, -12.6181, 94.9706, -60.1914, 41.1859
0.652, -1, 34.9163, 50.0595, -12.6388, 95.0056, -60.0688, 41.2263
0.656, -1, 34.9306, 50.0318, -12.6594, 95.0407, -59.9463, 41.2665
0.66, -1, 34.9449, 50.0042, -12.6801, 95.0756, -59.824, 41.3067
0.664, -1, 34.9591, 49.9766, -12.7007, 95.1106, -59.7019, 41.3468
0.668, -1, 34.9734, 49.949, -12.7212, 95.1454, -59.58, 41.3869
0.672, -1, 34.9876, 49.9215, -12.7418, 95.1803, -59.4582, 41.427
0.676, -1, 35.0018, 49.894, -12.7623, 95.215, -59.3366, 41.4669
0.68, -1, 35.016, 49.8665, -12.7828, 95.2498, -59.2151, 41.5068
0.684, -1, 35.0301, 49.8391, -12.8033, 95.2844, -59.0939, 41.5467
0.688, -1, 35.0443, 49.8117, -12.8237, 95.3191, -58.9728, 41.5865
0.692, -1, 35.0584, 49.7844, -12.8441, 95.3537, -58.8519, 41.6262
0.696, -1, 35.0725, 49.7571, -12.8645, 95.3882, -58.7311, 41.6659
0.7, -1, 35.0866, 49.7298, -12.8848, 95.4227, -58.6105, 41.7056
0.704, -1, 35.1007, 49.7026, -12.9051, 95.4571, -58.4901, 41.7451
0.708, -1, 35.1147, 49.6754, -12.9254, 95.4915, -58.3698, 41.7847
0.712, -1, 35.1288, 49.6482, -12.9457, 95.5259, -58.2497, 41.8241
0.716, -1, 35.1428, 49.6211, -12.9659, 95.5602, -58.1298, 41.8636
0.72, -1, 35.1568, 49.5941, -12.9862, 95.5944, -58.01, 41.9029
0.724, -1, 35.1707, 49.567, -13.0063, 95.6286, -57.8904, 41.9422
0.728, -1, 35.1847, 49.54, -13.0265, 95.6628, -57.771, 41.9815
0.732, -1, 35.1986, 49.513, -13.0466, 95.6969, -57.6517, 42.0207
0.736, -1, 35.2125, 49.4861, -13.0667, 95.731, -57.5326, 42.0599
0.74, -1, 35.2264, 49.4592, -13.0868, 95.765, -57.4136, 42.099
0.744, -1, 35.2403, 49.4324, -13.1068, 95.799, -57.2948, 42.138
0.748, -1, 35.2542, 49.4055, -13.1269, 95.8329, -57.1762, 42.177
0.752, -1, 35.268, 49.3787, -13.1468, 95.8668, -57.0577, 42.2159
0.756, -1, 35.2818, 49.352, -13.1668, 95.9006, -56.9394, 42.2548
0.76, -1, 35.2956, 49.3253, -13.1868, 95.9344, -56.8212, 42.2937
0.764, -1, 35.3094, 49.2986, -13.2067, 95.9682, -56.7032, 42.3325
0.768, -1, 35.3232, 49.272, -13.2266, 96.0019, -56.5854, 42.3712
0.772, -1, 35.3369, 49.2453, -13.2464, 96.0355, -56.4676, 42.4099
0.776, -1, 35.3507, 49.2188, -13.2663, 96.0692, -56.3501, 42.4485
0.78, -1, 35.3644, 49.1922, -13.2861, 96.1027, -56.2327, 42.4871
0.784, -1, 35.3781, 49.1657, -13.3058, 96.1363, -56.1155, 42.5257
0.788, -1, 35.3917, 49.1392, -13.3256, 96.1698, -55.9984, 42.5641
0.792, -1, 35.4054, 49.1128, -13.3453, 96.2032, -55.8814, 42.6026
0.796, -1, 35.4191, 49.0864, -13.365, 96.2366, -55.7646, 42.641
0.8, -1, 35.4327, 49.06, -13.3847, 96.27, -55.648, 42.6793
0.804, -1, 35.4463, 49.0337, -13.4044, 96.3033, -55.5315, 42.7176
0.808, -1, 35.4599, 49.0074, -13.424, 96.3365, -55.4151, 42.7558
0.812, -1, 35.4734, 48.9811, -13.4436, 96.3698, -55.2989, 42.794
0.816, -1, 35.487, 48.9549, -13.4632, 96.403, -55.1829, 42.8322
0.82, -1, 35.5005, 48.9287, -13.4828, 96.4361, -55.067, 42.8703
0.824, -1, 35.5141, 48.9025, -13.5023, 96.4692, -54.9512, 42.9083
0.828, -1, 35.5276, 48.8764, -13.5218, 96.5023, -54.8356, 42.9463
0.832, -1, 35.5411, 48.8503, -13.5413, 96.5353, -54.7201, 42.9843
0.836, -1, 35.5545, 48.8242, -13.5608, 96.5683, -54.6048, 43.0222
0.84, -1, 35.568, 48.7981, -13.5802, 96.6012, -54.4896, 43.06
0.844, -1, 35.5814, 48.7721, -13.5996, 96.6341, -54.3746, 43.0979
0.848, -1, 35.5949, 48.7461, -13.619, 96.667, -54.2597, 43.1356
0.852, -1, 35.6083, 48.7202, -13.6384, 96.6998, -54.1449, 43.1733
0.856, -1, 35.6216, 48.6943, -13.6577, 96.7326, -54.0303, 43.211
0.86, -1, 35.635, 48.6684, -13.677, 96.7654, -53.9158, 43.2486
0.864, -1, 35.6483, 48.6426, -13.6963, 96.798, -53.8015, 43.2862
0.868, -1, 35.6616, 48.6169, -13.7156, 96.8307, -53.6873, 43.3238
0.872, -1, 35.6747, 48.5912, -13.7348, 96.8633, -53.5732, 43.3612
0.876, -1, 35.6878, 48.5656, -13.754, 96.8959, -53.4594, 43.3987
0.88, -1, 35.7008, 48.5402, -13.7732, 96.9284, -53.3457, 43.436
0.884, -1, 35.7135, 48.515, -13.7924, 96.9608, -53.2323, 43.4733
0.888, -1, 35.726, 48.4902, -13.8115, 96.9932, -53.1192, 43.5105
0.892, -1, 35.738, 48.466, -13.8305, 97.0254, -53.0066, 43.5475
0.896, -1, 35.7494, 48.4426, -13.8494, 97.0574, -52.8946, 43.5843
0.9, -1, 35.7603, 48.4201, -13.8682, 97.0892, -52.7836, 43.6208
0.904, -1, 35.7705, 48.3986, -13.8867, 97.1205, -52.6741, 43.6568
0.908, -1, 35.7802, 48.3781, -13.9049, 97.1513, -52.5665, 43.6922
0.912, -1, 35.7894, 48.3586, -13.9227, 97.1813, -52.4615, 43.7267
0.916, -1, 35.7982, 48.3399, -13.9399, 97.2104, -52.3599, 43.7602
0.92, -1, 35.8067, 48.3221, -13.9564, 97.2383, -52.2624, 43.7923
0.924, -1, 35.8148, 48.3051, -13.9721, 97.2649, -52.1697, 43.8228
0.928, -1, 35.8225, 48.2891, -13.9869, 97.2898, -52.0824, 43.8514
0.932, -1, 35.8299, 48.274, -14.0006, 97.313, -52.0014, 43.8781
0.936, -1, 35.837, 48.2597, -14.0132, 97.3343, -51.927, 43.9026
0.94, -1, 35.8438, 48.2461, -14.0246, 97.3535, -51.8598, 43.9247
0.944, -1, 35.8505, 48.233, -14.0347, 97.3706, -51.8, 43.9443
0.948, -1, 35.8571, 48.2204, -14.0435, 97.3856, -51.7476, 43.9615
0.952, -1, 35.8636, 48.2083, -14.0511, 97.3985, -51.7026, 43.9763
0.956, -1, 35.8699, 48.1968, -14.0574, 97.4093, -51.6646, 43.9888
0.96, -1, 35.8759, 48.1861, -14.0627, 97.4183, -51.633, 43.9991
0.964, -1, 35.8815, 48.1763, -14.067, 97.4257, -51.6074, 44.0075
0.968, -1, 35.8866, 48.1676, -14.0704, 97.4315, -51.5869, 44.0143
0.972, -1, 35.8914, 48.16, -14.073, 97.436, -51.5709, 44.0195
0.976, -1, 35.8957, 48.1533, -14.075, 97.4395, -51.5587, 44.0235
0.98, -1, 35.8997, 48.1475, -14.0765, 97.4421, -51.5496, 44.0264
0.984, -1, 35.9032, 48.1427, -14.0776, 97.444, -51.543, 44.0286
0.988, 2, 35.9062, 48.1387, -14.0784, 97.4453, -51.5382, 44.0302
0.992, 2, 35.9087, 48.1355, -14.0789, 97.4463, -51.5349, 44.0312
0.996, 2, 35.9106, 48.1332, -14.0793, 97.4469, -51.5327, 44.032
1, 2, 35.912, 48.1315, -14.0795, 97.4474, -51.5311, 44.0325
1.004, 2, 35.913, 48.1303, -14.0797, 97.4477, -51.5301, 44.0328
1.008, 2, 35.9137, 48.1295, -14.0798, 97.4479, -51.5293, 44.033
1.012, 2, 35.9142, 48.1289, -14.0799, 97.448, -51.5289, 44.0332
1.016, 2, 35.9145, 48.1286, -14.0799, 97.4481, -51.5285, 44.0333
1.02, 2, 35.9147, 48.1283, -14.08, 97.4482, -51.5283, 44.0334
1.024, 2, 35.9148, 48.1281, -14.08, 97.4482, -51.5282, 44.0334
1.027, 2, 35.9149, 48.128, -14.08, 97.4482, -51.5281, 44.0335
1.032, 2, 35.915, 48.1279, -14.08, 97.4482, -51.528, 44.0335
1.036, 2, 35.915, 48.1279, -14.08, 97.4483, -51.5279, 44.0335
1.04, 2, 35.9151, 48.1279, -14.08, 97.4483, -51.5279, 44.0335
1.044, 2, 35.9151, 48.1278, -14.08, 97.4483, -51.5279, 44.0335
1.048, 2, 35.9151, 48.1278, -14.08, 97.4483, -51.5279, 44.0335
1.052, 2, 35.9151, 48.1278, -14.08, 97.4483, -51.5279, 44.0335
1.055, 2, 35.9151, 48.1278, -14.08, 97.4483, -51.5279, 44.0335
1.06, 2, 35.9151, 48.1278, -14.08, 97.4483, -51.5279, 44.0335
1.064, 2, 35.9151, 48.1278, -14.08, 97.4483, -51.5278, 44.0335
1.068, 2, 35.9151, 48.1278, -14.08, 97.4483, -51.5278, 44.0335
1.072, 2, 35.9151, 48.1278, -14.08, 97.4483, -51.5278, 44.0335
1.076, 2, 35.9151, 48.1278, -14.08, 97.4483, -51.5278, 44.0335
1.08, 2, 35.9151, 48.1278, -14.08, 97.4483, -51.5278, 44.0335
1.084, 2, 35.9151, 48.1278, -14.08, 97.4483, -51.5278, 44.0335
1.088, 2, 35.9151, 48.1278, -14.08, 97.4483, -51.5278, 44.0335
1.091, 2, 35.9151, 48.1278, -14.08, 97.4483, -51.5278, 44.0335
1.096, 2, 35.9151, 48.1278, -14.08, 97.4483, -51.5278, 44.0335
1.1, 2, 35.9151, 48.1278, -14.08, 97.4483, -51.5278, 44.0335
1.104, 2, 35.9151, 48.1278, -14.08, 97.4483, -51.5278, 44.0335
1.108, 2, 35.9151, 48.1278, -14.08, 97.4483, -51.5278, 44.0335
1.112, 2, 35.9151, 48.1278, -14.08, 97.4483, -51.5278, 44.0335
1.116, 2, 35.9151, 48.1278, -14.08, 97.4483, -51.5278, 44.0335
1.119, 2, 35.9151, 48.1278, -14.08, 97.4483, -51.5278, 44.0335
1.124, 2, 35.9151, 48.1278, -14.08, 97.4483, -51.5278, 44.0335
1.128, 2, 35.9151, 48.1278, -14.08, 97.4483, -51.5278, 44.0335
1.132, 2, 35.9151, 48.1278, -14.08, 97.4483, -51.5278, 44.0335
1.136, 2, 35.9151, 48.1278, -14.08, 97.4483, -51.5278, 44.0335
1.14, 2, 35.9151, 48.1278, -14.08, 97.4483, -51.5278, 44.0335
1.144, 2, 35.9151, 48.1278, -14.08, 97.4483, -51.5278, 44.0335
1.147, 2, 35.9151, 48.1278, -14.08, 97.4483, -51.5278, 44.0335
1.152, 2, 35.9151, 48.1278, -14.08, 97.4483, -51.5278, 44.0335
1.156, 2, 35.9151, 48.1278, -14.08, 97.4483, -51.5278, 44.0335
1.16, 2, 35.9151, 48.1278, -14.08, 97.4483, -51.5278, 44.0335
1.164, 2, 35.9151, 48.1278, -14.08, 97.4483, -51.5278, 44.0335
1.168, 2, 35.9151, 48.1278, -14.08, 97.4483, -51.5278, 44.0335
1.172, 2, 35.9151, 48.1278, -14.08, 97.4483, -51.5278, 44.0335
1.175, 2, 35.9151, 48.1278, -14.08, 97.4483, -51.5278, 44.0335
1.18, 2, 35.9151, 48.1278, -14.08, 97.4483, -51.5278, 44.0335
1.184, 2, 35.9151, 48.1278, -14.08, 97.4483, -51.5278, 44.0335
1.188, 2, 35.9151, 48.1278, -14.08, 97.4483, -51.5278, 44.0335
1.192, 2, 35.9151, 48.1278, -14.08, 97.4483, -51.5278, 44.0335
1.196, 2, 35.9151, 48.1278, -14.08, 97.4483, -51.5278, 44.0335
1.2, 2, 35.9151, 48.1278, -14.08, 97.4483, -51.5278, 44.0335
1.204, 2, 35.9151, 48.1278, -14.08, 97.4483, -51.5278, 44.0335
1.208, 2, 35.9151, 48.1278, -14.08, 97.4483, -51.5278, 44.0335
1.212, 2, 35.9151, 48.1278, -14.08, 97.4483, -51.5278, 44.0335
1.216, 2, 35.9151, 48.1278, -14.08, 97.4483, -51.5278, 44.0335
1.22, 2, 35.9151, 48.1278, -14.08, 97.4483, -51.5278, 44.0335
1.224, 2, 35.9151, 48.1278, -14.08, 97.4483, -51.5278, 44.0335
1.228, 2, 35.9151, 48.1278, -14.08, 97.4483, -51.5278, 44.0335
1.232, 2, 35.9151, 48.1278, -14.08, 97.4483, -51.5278, 44.0335
1.236, 2, 35.9151, 48.1278, -14.08, 97.4483, -51.5278, 44.0335
1.24, 2, 35.9151, 48.1278, -14.08, 97.4483, -51.5278, 44.0335
1.244, 2, 35.9151, 48.1278, -14.08, 97.4483, -51.5278, 44.0335
1.248, 2, 35.9151, 48.1278, -14.08, 97.4483, -51.5278, 44.0335
1.252, 2, 35.9151, 48.1278, -14.08, 97.4483, -51.5278, 44.0335
1.256, 2, 35.9151, 48.1278, -14.08, 97.4483, -51.5278, 44.0335
1.26, 2, 35.9151, 48.1278, -14.08, 97.4483, -51.5278, 44.0335
1.264, 2, 35.9151, 48.1278, -14.08, 97.4483, -51.5278, 44.0335
1.267, 2, 35.9151, 48.1278, -14.08, 97.4483, -51.5278, 44.0335
1.272, 2, 35.9151, 48.1278, -14.08, 97.4483, -51.5278, 44.0335
1.276, 2, 35.9151, 48.1278, -14.08, 97.4483, -51.5278, 44.0335
1.28, 2, 35.9151, 48.1278, -14.08, 97.4483, -51.5278, 44.0335
1.284, 2, 35.9151, 48.1278, -14.08, 97.4483, -51.5278, 44.0335
1.288, 2, 35.9151, 48.1278, -14.08, 97.4483, -51.5278, 44.0335
1.292, 2, 35.9151, 48.1278, -14.08, 97.4483, -51.5278, 44.0335
1.295, 2, 35.9151, 48.1278, -14.08, 97.4483, -51.5278, 44.0335
1.3, 2, 35.9151, 48.1278, -14.08, 97.4483, -51.5278, 44.0335
1.304, 2, 35.9151, 48.1278, -14.08, 97.4483, -51.5278, 44.0335
1.308, 2, 35.9151, 48.1278, -14.08, 97.4483, -51.5278, 44.0335
1.312, 2, 35.9151, 48.1278, -14.08, 97.4483, -51.5278, 44.0335
1.316, 2, 35.9151, 48.1278, -14.08, 97.4483, -51.5278, 44.0335
1.32, 2, 35.9151, 48.1278, -14.08, 97.4483, -51.5278, 44.0335
1.324, 2, 35.9151, 48.1278, -14.08, 97.4483, -51.5278, 44.0335
1.328, 2, 35.9151, 48.1278, -14.08, 97.4483, -51.5278, 44.0335
1.332, 2, 35.9151, 48.1278, -14.08, 97.4483, -51.5278, 44.0335
1.336, 2, 35.9151, 48.1278, -14.08, 97.4483, -51.5278, 44.0335
1.34, 2, 35.9151, 48.1278, -14.08, 97.4483, -51.5278, 44.0335
1.344, 2, 35.9151, 48.1278, -14.08, 97.4483, -51.5278, 44.0335
1.348, 2, 35.9151, 48.1278, -14.08, 97.4483, -51.5278, 44.0335
1.352, 2, 35.9151, 48.1278, -14.08, 97.4483, -51.5278, 44.0335
1.356, 2, 35.9151, 48.1278, -14.08, 97.4483, -51.5278, 44.0335
1.36, 2, 35.9151, 48.1278, -14.08, 97.4483, -51.5278, 44.0335
1.364, 2, 35.9151, 48.1278, -14.08, 97.4483, -51.5278, 44.0335
1.368, 2, 35.9151, 48.1278, -14.08, 97.4483, -51.5278, 44.0335
1.372, 2, 35.9151, 48.1278, -14.08, 97.4483, -51.5278, 44.0335
1.376, 2, 35.9151, 48.1278, -14.08, 97.4483, -51.5278, 44.0335
1.38, 2, 35.9151, 48.1278, -14.08, 97.4483, -51.5278, 44.0335
1.384, 2, 35.9151, 48.1278, -14.08, 97.4483, -51.5278, 44.0335
1.388, 2, 35.9151, 48.1278, -14.08, 97.4483, -51.5278, 44.0335
1.392, 2, 35.9151, 48.1278, -14.08, 97.4483, -51.5278, 44.0335
1.396, 2, 35.9151, 48.1278, -14.08, 97.4483, -51.5278, 44.0335
1.4, 2, 35.9151, 48.1278, -14.08, 97.4483, -51.5278, 44.0335
1.404, 2, 35.9151, 48.1278, -14.08, 97.4483, -51.5278, 44.0335
1.408, 2, 35.9151, 48.1278, -14.08, 97.4483, -51.5278, 44.0335
1.412, 2, 35.9151, 48.1278, -14.08, 97.4483, -51.5278, 44.0335
1.416, 2, 35.9151, 48.1278, -14.08, 97.4483, -51.5278, 44.0335
1.42, 2, 35.9151, 48.1278, -14.08, 97.4483, -51.5278, 44.0335
1.424, 2, 35.9151, 48.1278, -14.08, 97.4483, -51.5278, 44.0335
1.428, 2, 35.9151, 48.1278, -14.08, 97.4483, -51.5278, 44.0335
1.432, 2, 35.9151, 48.1278, -14.08, 97.4483, -51.5278, 44.0335
1.436, 2, 35.9151, 48.1278, -14.08, 97.4483, -51.5278, 44.0335
1.44, 2, 35.9151, 48.1278, -14.08, 97.4483, -51.5278, 44.0335
1.444, 2, 35.9151, 48.1278, -14.08, 97.4483, -51.5278, 44.0335
1.448, 2, 35.9151, 48.1278, -14.08, 97.4483, -51.5278, 44.0335
1.452, 2, 35.9151, 48.1278, -14.08, 97.4483, -51.5278, 44.0335
1.456, 2, 35.9151, 48.1278, -14.08, 97.4483, -51.5278, 44.0335
1.46, 2, 35.9151, 48.1278, -14.08, 97.4483, -51.5278, 44.0335
1.464, 2, 35.9151, 48.1278, -14.08, 97.4483, -51.5278, 44.0335
1.468, 2, 35.9151, 48.1278, -14.08, 97.4483, -51.5278, 44.0335
1.472, 2, 35.9151, 48.1278, -14.08, 97.4483, -51.5278, 44.0335
1.476, 2, 35.9151, 48.1278, -14.08, 97.4483, -51.5278, 44.0335
1.48, 2, 35.9151, 48.1278, -14.08, 97.4483, -51.5278, 44.0335
1.484, 2, 35.9151, 48.1278, -14.08, 97.4483, -51.5278, 44.0335
1.488, 2, 35.9151, 48.1278, -14.08, 97.4483, -51.5278, 44.0335
1.492, 2, 35.9151, 48.1278, -14.08, 97.4483, -51.5278, 44.0335
1.496, 2, 35.9151, 48.1278, -14.08, 97.4483, -51.5278, 44.0335
1.5, 2, 35.9151, 48.1278, -14.08, 97.4483, -51.5278, 44.0335
1.504, 2, 35.9151, 48.1278, -14.08, 97.4483, -51.5278, 44.0335
1.508, 2, 35.9151, 48.1278, -14.08, 97.4483, -51.5278, 44.0335
1.512, 2, 35.9151, 48.1278, -14.08, 97.4483, -51.5278, 44.0335
1.516, 2, 35.9151, 48.1278, -14.08, 97.4483, -51.5278, 44.0335
1.52, 2, 35.9151, 48.1278, -14.08, 97.4483, -51.5278, 44.0335
1.524, 2, 35.9151, 48.1278, -14.08, 97.4483, -51.5278, 44.0335
1.528, 2, 35.9151, 48.1278, -14.08, 97.4483, -51.5278, 44.0335
1.532, 2, 35.9151, 48.1278, -14.08, 97.4483, -51.5278, 44.0335
1.536, 2, 35.9151, 48.1278, -14.08, 97.4483, -51.5278, 44.0335
1.54, 2, 35.9151, 48.1278, -14.08, 97.4483, -51.5278, 44.0335
1.544, 2, 35.9151, 48.1278, -14.08, 97.4483, -51.5278, 44.0335
1.548, 2, 35.9151, 48.1278, -14.08, 97.4483, -51.5278, 44.0335
1.552, 2, 35.9151, 48.1278, -14.08, 97.4483, -51.5278, 44.0335
1.556, 2, 35.9151, 48.1278, -14.08, 97.4483, -51.5278, 44.0335
1.56, 2, 35.9151, 48.1278, -14.08, 97.4483, -51.5278, 44.0335
1.564, 2, 35.9151, 48.1278, -14.08, 97.4483, -51.5278, 44.0335
1.568, 2, 35.9151, 48.1278, -14.08, 97.4483, -51.5278, 44.0335
1.572, 2, 35.9151, 48.1278, -14.08, 97.4483, -51.5278, 44.0335
1.576, 2, 35.9151, 48.1278, -14.08, 97.4483, -51.5278, 44.0335
1.58, 2, 35.9151, 48.1278, -14.08, 97.4483, -51.5278, 44.0335
1.584, 2, 35.9151, 48.1278, -14.08, 97.4483, -51.5278, 44.0335
1.588, 2, 35.9151, 48.1278, -14.08, 97.4483, -51.5278, 44.0335
1.592, 2, 35.9151, 48.1278, -14.08, 97.4483, -51.5278, 44.0335
1.596, 2, 35.9151, 48.1278, -14.08, 97.4483, -51.5278, 44.0335
1.6, 2, 35.9151, 48.1278, -14.08, 97.4483, -51.5278, 44.0335
1.604, 2, 35.9151, 48.1278, -14.08, 97.4483, -51.5278, 44.0335
1.608, 2, 35.9151, 48.1278, -14.08, 97.4483, -51.5278, 44.0335
1.612, 2, 35.9151, 48.1278, -14.08, 97.4483, -51.5278, 44.0335
1.616, 2, 35.9151, 48.1278, -14.08, 97.4483, -51.5278, 44.0335
1.62, 2, 35.9151, 48.1278, -14.08, 97.4483, -51.5278, 44.0335
1.624, 2, 35.9151, 48.1278, -14.08, 97.4483, -51.5278, 44.0335
1.628, 2, 35.9151, 48.1278, -14.08, 97.4483, -51.5278, 44.0335
1.632, 2, 35.9151, 48.1278, -14.08, 97.4483, -51.5278, 44.0335
1.636, 2, 35.9151, 48.1278, -14.08, 97.4483, -51.5278, 44.0335
1.64, 2, 35.9151, 48.1278, -14.08, 97.4483, -51.5278, 44.0335
1.644, 2, 35.9151, 48.1278, -14.08, 97.4483, -51.5278, 44.0335
1.648, 2, 35.9151, 48.1278, -14.08, 97.4483, -51.5278, 44.0335
1.652, 2, 35.9151, 48.1278, -14.08, 97.4483, -51.5278, 44.0335
1.656, 2, 35.9151, 48.1278, -14.08, 97.4483, -51.5278, 44.0335
1.66, 2, 35.9151, 48.1278, -14.08, 97.4483, -51.5278, 44.0335
1.664, 2, 35.9151, 48.1278, -14.08, 97.4483, -51.5278, 44.0335
1.668, 2, 35.9151, 48.1278, -14.08, 97.4483, -51.5278, 44.0335
1.672, 2, 35.9151, 48.1278, -14.08, 97.4483, -51.5278, 44.0335
1.676, 2, 35.9151, 48.1278, -14.08, 97.4483, -51.5278, 44.0335
1.68, 2, 35.9151, 48.1278, -14.08, 97.4483, -51.5278, 44.0335
1.684, 2, 35.9151, 48.1278, -14.08, 97.4483, -51.5278, 44.0335
1.688, 2, 35.9151, 48.1278, -14.08, 97.4483, -51.5278, 44.0335
1.692, 2, 35.9151, 48.1278, -14.08, 97.4483, -51.5278, 44.0335
1.696, 2, 35.9151, 48.1278, -14.08, 97.4483, -51.5278, 44.0335
1.7, 2, 35.9151, 48.1278, -14.08, 97.4483, -51.5278, 44.0335
1.704, 2, 35.9151, 48.1278, -14.08, 97.4483, -51.5278, 44.0335
1.708, 2, 35.9151, 48.1278, -14.08, 97.4483, -51.5278, 44.0335
1.712, 2, 35.9151, 48.1278, -14.08, 97.4483, -51.5278, 44.0335
1.716, 2, 35.9151, 48.1278, -14.08, 97.4483, -51.5278, 44.0335
1.72, 2, 35.9151, 48.1278, -14.08, 97.4483, -51.5278, 44.0335
1.724, 2, 35.9151, 48.1278, -14.08, 97.4483, -51.5278, 44.0335
1.728, 2, 35.9151, 48.1278, -14.08, 97.4483, -51.5278, 44.0335
1.732, 2, 35.9151, 48.1278, -14.08, 97.4483, -51.5278, 44.0335
1.736, 2, 35.9151, 48.1278, -14.08, 97.4483, -51.5278, 44.0335
1.74, 2, 35.9151, 48.1278, -14.08, 97.4483, -51.5278, 44.0335
1.744, 2, 35.9151, 48.1278, -14.08, 97.4483, -51.5278, 44.0335
1.748, 2, 35.9151, 48.1278, -14.08, 97.4483, -51.5278, 44.0335
1.752, 2, 35.9151, 48.1278, -14.08, 97.4483, -51.5278, 44.0335
1.756, 2, 35.9151, 48.1278, -14.08, 97.4483, -51.5278, 44.0335
1.76, 2, 35.9151, 48.1278, -14.08, 97.4483, -51.5278, 44.0335
1.764, 2, 35.9151, 48.1278, -14.08, 97.4483, -51.5278, 44.0335
1.768, 2, 35.9151, 48.1278, -14.08, 97.4483, -51.5278, 44.0335
1.772, 2, 35.9151, 48.1278, -14.08, 97.4483, -51.5278, 44.0335
1.776, 2, 35.9151, 48.1278, -14.08, 97.4483, -51.5278, 44.0335
1.78, 2, 35.9151, 48.1278, -14.08, 97.4483, -51.5278, 44.0335
1.784, 2, 35.9151, 48.1278, -14.08, 97.4483, -51.5278, 44.0335
1.788, 2, 35.9151, 48.1278, -14.08, 97.4483, -51.5278, 44.0335
1.792, 2, 35.9151, 48.1278, -14.08, 97.4483, -51.5278, 44.0335
1.796, 2, 35.9151, 48.1278, -14.08, 97.4483, -51.5278, 44.0335
1.8, 2, 35.9151, 48.1278, -14.08, 97.4483, -51.5278, 44.0335
1.804, 2, 35.9151, 48.1278, -14.08, 97.4483, -51.5278, 44.0335
1.808, 2, 35.9151, 48.1278, -14.08, 97.4483, -51.5278, 44.0335
1.812, 2, 35.9151, 48.1278, -14.08, 97.4483, -51.5278, 44.0335
1.816, 2, 35.9151, 48.1278, -14.08, 97.4483, -51.5278, 44.0335
1.82, 2, 35.9151, 48.1278, -14.08, 97.4483, -51.5278, 44.0335
1.824, 2, 35.9151, 48.1278, -14.08, 97.4483, -51.5278, 44.0335
1.828, 2, 35.9151, 48.1278, -14.08, 97.4483, -51.5278, 44.0335
1.832, 2, 35.9151, 48.1278, -14.08, 97.4483, -51.5278, 44.0335
1.836, 2, 35.9151, 48.1278, -14.08, 97.4483, -51.5278, 44.0335
1.84, 2, 35.9151, 48.1278, -14.08, 97.4483, -51.5278, 44.0335
1.844, 2, 35.9151, 48.1278, -14.08, 97.4483, -51.5278, 44.0335
1.848, 2, 35.9151, 48.1278, -14.08, 97.4483, -51.5278, 44.0335
1.852, 2, 35.9151, 48.1278, -14.08, 97.4483, -51.5278, 44.0335
1.856, 2, 35.9151, 48.1278, -14.08, 97.4483, -51.5278, 44.0335
1.86, 2, 35.9151, 48.1278, -14.08, 97.4483, -51.5278, 44.0335
1.864, 2, 35.9151, 48.1278, -14.08, 97.4483, -51.5278, 44.0335
1.868, 2, 35.9151, 48.1278, -14.08, 97.4483, -51.5278, 44.0335
1.872, 2, 35.9151, 48.1278, -14.08, 97.4483, -51.5278, 44.0335
1.876, 2, 35.9151, 48.1278, -14.08, 97.4483, -51.5278, 44.0335
1.88, 2, 35.9151, 48.1278, -14.08, 97.4483, -51.5278, 44.0335
1.884, 2, 35.9151, 48.1278, -14.08, 97.4483, -51.5278, 44.0335
1.888, 2, 35.9151, 48.1278, -14.08, 97.4483, -51.5278, 44.0335
1.892, 2, 35.9151, 48.1278, -14.08, 97.4483, -51.5278, 44.0335
1.896, 2, 35.9151, 48.1278, -14.08, 97.4483, -51.5278, 44.0335
1.9, 2, 35.9151, 48.1278, -14.08, 97.4483, -51.5278, 44.0335
1.904, 2, 35.9151, 48.1278, -14.08, 97.4483, -51.5278, 44.0335
1.908, 2, 35.9151, 48.1278, -14.08, 97.4483, -51.5278, 44.0335
1.912, 2, 35.9151, 48.1278, -14.08, 97.4483, -51.5278, 44.0335
1.916, 2, 35.9151, 48.1278, -14.08, 97.4483, -51.5278, 44.0335
1.92, 2, 35.9151, 48.1278, -14.08, 97.4483, -51.5278, 44.0335
1.924, 2, 35.9151, 48.1278, -14.08, 97.4483, -51.5278, 44.0335
1.928, 2, 35.9151, 48.1278, -14.08, 97.4483, -51.5278, 44.0335
1.932, 2, 35.9151, 48.1278, -14.08, 97.4483, -51.5278, 44.0335
1.936, 2, 35.9151, 48.1278, -14.08, 97.4483, -51.5278, 44.0335
1.94, 2, 35.9151, 48.1278, -14.08, 97.4483, -51.5278, 44.0335
1.944, 2, 35.9151, 48.1278, -14.08, 97.4483, -51.5278, 44.0335
1.948, 2, 35.9151, 48.1278, -14.08, 97.4483, -51.5278, 44.0335
1.952, 2, 35.9151, 48.1278, -14.08, 97.4483, -51.5278, 44.0335
1.956, 2, 35.9151, 48.1278, -14.08, 97.4483, -51.5278, 44.0335
1.96, 2, 35.9151, 48.1278, -14.08, 97.4483, -51.5278, 44.0335
1.964, 2, 35.9151, 48.1278, -14.08, 97.4483, -51.5278, 44.0335
1.968, 2, 35.9151, 48.1278, -14.08, 97.4483, -51.5278, 44.0335
1.972, 2, 35.9151, 48.1278, -14.08, 97.4483, -51.5278, 44.0335
1.976, 2, 35.9151, 48.1278, -14.08, 97.4483, -51.5278, 44.0335
1.98, 2, 35.9151, 48.1278, -14.08, 97.4483, -51.5278, 44.0335
1.984, 2, 35.9151, 48.1278, -14.08, 97.4483, -51.5278, 44.0335
1.988, 2, 35.9151, 48.1278, -14.08, 97.4483, -51.5278, 44.0335
1.992, 2, 35.9151, 48.1278, -14.08, 97.4483, -51.5278, 44.0335
1.996, 2, 35.9151, 48.1278, -14.08, 97.4483, -51.5278, 44.0335
1.999, 2, 35.9151, 48.1278, -14.08, 97.4483, -51.5278, 44.0335
2.004, 2, 35.9151, 48.1278, -14.08, 97.4483, -51.5278, 44.0335
2.008, 2, 35.9151, 48.1278, -14.08, 97.4483, -51.5278, 44.0335
2.012, 2, 35.9151, 48.1278, -14.08, 97.4483, -51.5278, 44.0335
2.015, 2, 35.9151, 48.1278, -14.08, 97.4483, -51.5278, 44.0335
2.019, 2, 35.9151, 48.1278, -14.08, 97.4483, -51.5278, 44.0335
2.024, 2, 35.9151, 48.1278, -14.08, 97.4483, -51.5278, 44.0335
2.028, 2, 35.9151, 48.1278, -14.08, 97.4483, -51.5278, 44.0335
2.031, 2, 35.9151, 48.1278, -14.08, 97.4483, -51.5278, 44.0335
2.036, 2, 35.9151, 48.1278, -14.08, 97.4483, -51.5278, 44.0335
2.04, 2, 35.9151, 48.1278, -14.08, 97.4483, -51.5278, 44.0335
2.044, 4, 35.9151, 48.1278, -14.08, 97.4483, -51.5278, 44.0335
2.048, 4, 35.9151, 48.1278, -14.08, 97.4483, -51.5278, 44.0335
2.051, 4, 35.9151, 48.1278, -14.08, 97.4483, -51.5278, 44.0335
2.055, 4, 35.9151, 48.1278, -14.08, 97.4483, -51.5278, 44.0335
2.06, 4, 35.9151, 48.1278, -14.08, 97.4483, -51.5278, 44.0335
2.064, 4, 35.9151, 48.1278, -14.08, 97.4483, -51.5278, 44.0335
2.068, 4, 35.9151, 48.1278, -14.08, 97.4483, -51.5278, 44.0335
2.071, 4, 35.9151, 48.1278, -14.08, 97.4483, -51.5278, 44.0335
2.076, 4, 35.9151, 48.1278, -14.08, 97.4483, -51.5278, 44.0335
2.08, 4, 35.9151, 48.1278, -14.08, 97.4483, -51.5278, 44.0335
2.084, 4, 35.9151, 48.1278, -14.08, 97.4483, -51.5278, 44.0335
2.087, 4, 35.9151, 48.1278, -14.08, 97.4483, -51.5278, 44.0335
2.092, 4, 35.9151, 48.1278, -14.08, 97.4483, -51.5278, 44.0335
2.096, 4, 35.9151, 48.1278, -14.08, 97.4483, -51.5278, 44.0335
2.1, 4, 35.9151, 48.1278, -14.08, 97.4483, -51.5278, 44.0335
2.104, 4, 35.9151, 48.1278, -14.08, 97.4483, -51.5278, 44.0335
2.107, 4, 35.9151, 48.1278, -14.08, 97.4483, -51.5278, 44.0335
2.111, 4, 35.9151, 48.1278, -14.08, 97.4483, -51.5278, 44.0335
2.116, 4, 35.9151, 48.1278, -14.08, 97.4483, -51.5278, 44.0335
2.12, 4, 35.9151, 48.1278, -14.08, 97.4483, -51.5278, 44.0335
2.124, 4, 35.9151, 48.1278, -14.08, 97.4483, -51.5278, 44.0335
2.127, 4, 35.9151, 48.1278, -14.08, 97.4483, -51.5278, 44.0335
2.132, 4, 35.9151, 48.1278, -14.08, 97.4483, -51.5278, 44.0335
2.136, 4, 35.9151, 48.1278, -14.08, 97.4483, -51.5278, 44.0335
2.14, 4, 35.9151, 48.1278, -14.08, 97.4483, -51.5278, 44.0335
2.143, 4, 35.9151, 48.1278, -14.08, 97.4483, -51.5278, 44.0335
2.149, 4, 35.9151, 48.1278, -14.08, 97.4483, -51.5278, 44.0335
2.154, 4, 35.9151, 48.1278, -14.08, 97.4483, -51.5278, 44.0335
2.156, 4, 35.9151, 48.1278, -14.08, 97.4483, -51.5278, 44.0335
2.16, 4, 35.9151, 48.1278, -14.08, 97.4483, -51.5278, 44.0335
2.163, 4, 35.9151, 48.1278, -14.08, 97.4483, -51.5278, 44.0335
2.168, 4, 35.9151, 48.1278, -14.08, 97.4483, -51.5278, 44.0335
2.172, 4, 35.9151, 48.1278, -14.08, 97.4483, -51.5278, 44.0335
2.176, 4, 35.9151, 48.1278, -14.08, 97.4483, -51.5278, 44.0335
2.179, 4, 35.9151, 48.1278, -14.08, 97.4483, -51.5278, 44.0335
2.184, 4, 35.9151, 48.1278, -14.08, 97.4483, -51.5278, 44.0335
2.188, 4, 35.9151, 48.1278, -14.08, 97.4483, -51.5278, 44.0335
2.192, 4, 35.915, 48.128, -14.08, 97.4483, -51.5279, 44.0335
2.196, 4, 35.9148, 48.1283, -14.08, 97.4483, -51.5279, 44.0335
2.199, 4, 35.9144, 48.1291, -14.08, 97.4483, -51.5281, 44.0334
2.204, 4, 35.9137, 48.1303, -14.08, 97.4482, -51.5284, 44.0333
2.208, 4, 35.9128, 48.1322, -14.0799, 97.4481, -51.5292, 44.033
2.212, 4, 35.9115, 48.1347, -14.0798, 97.4478, -51.5306, 44.0325
2.216, 5, 35.9099, 48.1381, -14.0797, 97.4474, -51.533, 44.0316
2.219, 5, 35.9081, 48.1424, -14.0795, 97.4468, -51.5369, 44.0301
2.224, 5, 35.9059, 48.1478, -14.0792, 97.4458, -51.5429, 44.0278
2.228, 5, 35.9035, 48.1545, -14.0787, 97.4444, -51.5515, 44.0245
2.232, 5, 35.9006, 48.1627, -14.078, 97.4423, -51.5637, 44.0199
2.235, 5, 35.8975, 48.1726, -14.0772, 97.4395, -51.5802, 44.0136
2.24, 5, 35.8939, 48.1843, -14.076, 97.4358, -51.6021, 44.0053
2.244, 5, 35.8899, 48.1979, -14.0745, 97.431, -51.6305, 43.9945
2.248, 5, 35.8855, 48.2135, -14.0725, 97.4248, -51.6663, 43.9809
2.252, 5, 35.8807, 48.2312, -14.07, 97.4172, -51.7108, 43.964
2.255, 5, 35.8755, 48.251, -14.0669, 97.4077, -51.765, 43.9434
2.259, 5, 35.8699, 48.2732, -14.0631, 97.3964, -51.83, 43.9188
2.264, 5, 35.8637, 48.298, -14.0584, 97.3829, -51.9068, 43.8897
2.268, 5, 35.8569, 48.3254, -14.0528, 97.367, -51.9961, 43.856
2.272, 5, 35.8495, 48.3556, -14.0462, 97.3486, -52.0989, 43.8172
2.275, 5, 35.8414, 48.3888, -14.0385, 97.3275, -52.2158, 43.7732
2.28, 5, 35.8325, 48.4251, -14.0296, 97.3035, -52.3473, 43.7238
2.284, 5, 35.8228, 48.4646, -14.0195, 97.2764, -52.4941, 43.6688
2.288, 5, 35.8121, 48.5074, -14.0081, 97.246, -52.6565, 43.6081
2.291, 5, 35.8005, 48.5537, -13.9952, 97.2123, -52.8349, 43.5416
2.296, 5, 35.7878, 48.6035, -13.9808, 97.175, -53.0295, 43.4693
2.3, 5, 35.7739, 48.6568, -13.9646, 97.134, -53.2404, 43.3911
2.304, 5, 35.7589, 48.7136, -13.9467, 97.0891, -53.4679, 43.3071
2.308, 5, 35.7427, 48.7737, -13.9269, 97.0401, -53.712, 43.2173
2.311, 5, 35.7253, 48.8369, -13.9051, 96.987, -53.9728, 43.1217
2.316, 5, 35.7067, 48.903, -13.8812, 96.9295, -54.25, 43.0204
2.32, 5, 35.687, 48.9718, -13.855, 96.8676, -54.5436, 42.9135
2.324, 5, 35.6662, 49.0431, -13.8263, 96.8012, -54.8531, 42.8013
2.328, 5, 35.6442, 49.1165, -13.7949, 96.7303, -55.178, 42.684
2.331, 5, 35.6212, 49.1918, -13.7605, 96.6547, -55.5177, 42.5619
2.336, 5, 35.5973, 49.2684, -13.723, 96.5747, -55.8713, 42.4352
2.34, 5, 35.5727, 49.3458, -13.6822, 96.4902, -56.2377, 42.3045
2.344, 5, 35.5473, 49.4235, -13.6381, 96.4016, -56.6156, 42.1702
2.347, 5, 35.5214, 49.5011, -13.5908, 96.3089, -57.0035, 42.0329
2.352, 5, 35.495, 49.5784, -13.5404, 96.2127, -57.3996, 41.8932
2.356, 5, 35.4682, 49.6553, -13.4871, 96.1132, -57.8018, 41.7519
2.36, 5, 35.4411, 49.7319, -13.4311, 96.0111, -58.2081, 41.6096
2.364, 5, 35.4137, 49.8081, -13.3726, 95.9068, -58.6162, 41.4672
2.367, 5, 35.3863, 49.8837, -13.3121, 95.8009, -59.0241, 41.3254
2.372, 5, 35.3587, 49.9585, -13.2498, 95.694, -59.4296, 41.1849
2.376, 5, 35.3311, 50.0323, -13.1861, 95.5867, -59.8306, 41.0463
2.38, 5, 35.3033, 50.1048, -13.1214, 95.4795, -60.2252, 40.9104
2.383, 5, 35.2752, 50.1757, -13.056, 95.3731, -60.6115, 40.7777
2.388, 5, 35.2467, 50.2449, -12.9904, 95.268, -60.988, 40.6486
2.392, 5, 35.2178, 50.3122, -12.9249, 95.1647, -61.3532, 40.5238
2.396, 5, 35.1887, 50.3774, -12.8598, 95.0637, -61.7058, 40.4035
2.4, 5, 35.1597, 50.4403, -12.7957, 94.9654, -62.0449, 40.2881
2.403, 5, 35.1309, 50.5007, -12.7327, 94.8702, -62.3697, 40.1778
2.408, 5, 35.1025, 50.5585, -12.6711, 94.7784, -62.6796, 40.0727
2.412, 5, 35.0746, 50.6136, -12.6113, 94.6902, -62.9744, 39.9729
2.416, 5, 35.0471, 50.6665, -12.5535, 94.6058, -63.2537, 39.8784
2.42, 5, 35.0197, 50.7175, -12.4978, 94.5254, -63.5178, 39.7892
2.423, 6, 34.9924, 50.7671, -12.4444, 94.4491, -63.767, 39.7052
2.428, 6, 34.9648, 50.8159, -12.3933, 94.3768, -64.002, 39.626
2.432, 6, 34.9366, 50.8641, -12.3446, 94.3083, -64.2241, 39.5513
2.436, 6, 34.9078, 50.912, -12.2979, 94.2432, -64.4348, 39.4805
2.439, 6, 34.8784, 50.9596, -12.2532, 94.1812, -64.6359, 39.413
2.444, 6, 34.8484, 51.0069, -12.21, 94.1217, -64.8297, 39.3481
2.448, 6, 34.8181, 51.0541, -12.1681, 94.0641, -65.0184, 39.285
2.452, 6, 34.7875, 51.1012, -12.1268, 94.0077, -65.2045, 39.2229
2.456, 6, 34.7567, 51.1483, -12.0858, 93.9517, -65.3905, 39.1609
2.459, 6, 34.7258, 51.1954, -12.0443, 93.8954, -65.579, 39.0984
2.464, 6, 34.6949, 51.2427, -12.002, 93.8381, -65.7722, 39.0344
2.468, 6, 34.6639, 51.2903, -11.9584, 93.7791, -65.9725, 38.9682
2.472, 6, 34.6327, 51.3383, -11.9132, 93.7176, -66.1817, 38.8994
2.476, 6, 34.6013, 51.3868, -11.8662, 93.6531, -66.4016, 38.8272
2.479, 6, 34.5693, 51.4363, -11.8173, 93.5851, -66.6334, 38.7515
2.484, 6, 34.5365, 51.4871, -11.7663, 93.5132, -66.8778, 38.6719
2.488, 6, 34.5028, 51.5396, -11.7133, 93.4372, -67.1356, 38.5882
2.492, 6, 34.4676, 51.5943, -11.6581, 93.3568, -67.4068, 38.5006
2.495, 6, 34.431, 51.6514, -11.6006, 93.2721, -67.6916, 38.4089
2.5, 6, 34.3926, 51.7112, -11.5409, 93.1829, -67.9895, 38.3134
2.504, 6, 34.3525, 51.7738, -11.4791, 93.0894, -68.3005, 38.2141
2.508, 6, 34.3106, 51.8391, -11.415, 92.9915, -68.6239, 38.1114
2.512, 6, 34.2671, 51.9071, -11.3488, 92.8894, -68.9591, 38.0053
2.515, 6, 34.222, 51.9774, -11.2805, 92.7833, -69.3055, 37.8962
2.52, 6, 34.1757, 52.0498, -11.2102, 92.6733, -69.6621, 37.7845
2.524, 6, 34.1284, 52.1239, -11.1382, 92.5598, -70.028, 37.6704
2.528, 6, 34.0804, 52.1992, -11.0647, 92.443, -70.4017, 37.5544
2.531, 6, 34.0321, 52.2754, -10.99, 92.3235, -70.7819, 37.4369
2.536, 6, 33.9836, 52.3522, -10.9144, 92.2018, -71.1669, 37.3186
2.54, 6, 33.9351, 52.4296, -10.8384, 92.0784, -71.5547, 37.1999
2.544, 6, 33.8865, 52.5075, -10.7624, 91.9539, -71.9435, 37.0814
2.548, 6, 33.8379, 52.5858, -10.6868, 91.8291, -72.3311, 36.9639
2.551, 6, 33.7891, 52.6644, -10.6119, 91.7046, -72.7156, 36.8478
2.556, 6, 33.7402, 52.7432, -10.5383, 91.581, -73.0951, 36.7337
2.56, 6, 33.691, 52.822, -10.4663, 91.4591, -73.4676, 36.6222
2.564, 6, 33.6418, 52.9007, -10.3962, 91.3393, -73.8314, 36.5138
2.568, 6, 33.5924, 52.9791, -10.3283, 91.2223, -74.1849, 36.4088
2.571, 6, 33.543, 53.057, -10.2629, 91.1087, -74.5267, 36.3077
2.576, 6, 33.4939, 53.1342, -10.2002, 90.9987, -74.8557, 36.2108
2.58, 6, 33.4453, 53.2102, -10.1404, 90.8929, -75.171, 36.1183
2.584, 6, 33.3974, 53.2848, -10.0835, 90.7915, -75.4719, 36.0302
2.587, 6, 33.3506, 53.3575, -10.0296, 90.6945, -75.7581, 35.9468
2.592, 6, 33.3052, 53.4277, -9.97879, 90.6023, -76.0293, 35.868
2.596, 6, 33.2615, 53.495, -9.93094, 90.5149, -76.2855, 35.7937
2.6, 6, 33.2197, 53.5593, -9.88606, 90.4323, -76.5266, 35.724
2.604, 6, 33.18, 53.6203, -9.84411, 90.3546, -76.7528, 35.6589
2.607, 6, 33.1424, 53.6779, -9.80505, 90.2818, -76.9641, 35.5981
2.612, 6, 33.1069, 53.7321, -9.76884, 90.2138, -77.1605, 35.5418
2.616, 6, 33.0735, 53.783, -9.73544, 90.1508, -77.3424, 35.4897
2.62, 6, 33.0421, 53.8306, -9.7048, 90.0925, -77.5099, 35.4418
2.624, 6, 33.0127, 53.875, -9.67684, 90.0391, -77.6632, 35.3981
2.627, 6, 32.9854, 53.9163, -9.6515, 89.9904, -77.8027, 35.3583
2.632, 6, 32.96, 53.9545, -9.6287, 89.9463, -77.9288, 35.3225
2.636, 6, 32.9365, 53.9896, -9.60833, 89.9067, -78.0419, 35.2904
2.64, 6, 32.9149, 54.0217, -9.59028, 89.8714, -78.1425, 35.2618
2.643, 6, 32.8951, 54.0511, -9.57446, 89.8402, -78.2312, 35.2367
2.648, 6, 32.877, 54.0778, -9.56072, 89.813, -78.3087, 35.2147
2.652, 6, 32.8604, 54.102, -9.54895, 89.7894, -78.3755, 35.1958
2.656, 6, 32.8452, 54.1241, -9.539, 89.7693, -78.4326, 35.1797
2.66, 6, 32.8315, 54.144, -9.53069, 89.7523, -78.4808, 35.1661
2.663, 6, 32.8191, 54.1619, -9.52385, 89.7382, -78.5208, 35.1547
2.668, 6, 32.808, 54.1778, -9.51831, 89.7265, -78.5537, 35.1454
2.672, 6, 32.7983, 54.192, -9.51388, 89.7171, -78.5803, 35.1379
2.676, 6, 32.7898, 54.2046, -9.51042, 89.7096, -78.6015, 35.1319
2.679, 6, 32.7823, 54.2156, -9.50775, 89.7037, -78.6181, 35.1272
2.684, 6, 32.7758, 54.2252, -9.50575, 89.6992, -78.6309, 35.1236
2.688, 6, 32.77, 54.2335, -9.5043, 89.6958, -78.6405, 35.1209
2.692, 6, 32.7649, 54.2405, -9.50327, 89.6933, -78.6476, 35.1189
2.696, 6, 32.7605, 54.2463, -9.50256, 89.6915, -78.6526, 35.1175
2.699, 7, 32.7568, 54.2508, -9.50209, 89.6902, -78.6562, 35.1165
2.704, 7, 32.7539, 54.2543, -9.50178, 89.6894, -78.6587, 35.1158
2.708, 7, 32.7516, 54.2568, -9.50157, 89.6888, -78.6604, 35.1153
2.712, 7, 32.75, 54.2586, -9.50144, 89.6884, -78.6616, 35.115
2.716, 7, 32.7489, 54.2598, -9.50134, 89.6881, -78.6623, 35.1147
2.719, 7, 32.7481, 54.2606, -9.50128, 89.6879, -78.6629, 35.1146
2.724, 7, 32.7476, 54.2611, -9.50124, 89.6878, -78.6632, 35.1145
2.728, 7, 32.7472, 54.2615, -9.50121, 89.6877, -78.6635, 35.1144
2.732, 7, 32.747, 54.2618, -9.50119, 89.6876, -78.6636, 35.1144
2.735, 7, 32.7468, 54.262, -9.50118, 89.6876, -78.6637, 35.1143
2.74, 7, 32.7467, 54.2621, -9.50117, 89.6876, -78.6638, 35.1143
2.744, 7, 32.7467, 54.2621, -9.50117, 89.6875, -78.6639, 35.1143
2.748, 7, 32.7466, 54.2622, -9.50116, 89.6875, -78.6639, 35.1143
2.752, 7, 32.7466, 54.2622, -9.50116, 89.6875, -78.6639, 35.1143
2.755, 7, 32.7465, 54.2623, -9.50116, 89.6875, -78.6639, 35.1143
2.76, 7, 32.7465, 54.2623, -9.50116, 89.6875, -78.6639, 35.1143
2.764, 7, 32.7465, 54.2623, -9.50116, 89.6875, -78.664, 35.1143
2.768, 7, 32.7465, 54.2623, -9.50116, 89.6875, -78.664, 35.1143
2.772, 7, 32.7465, 54.2623, -9.50116, 89.6875, -78.664, 35.1143
2.775, 7, 32.7465, 54.2623, -9.50116, 89.6875, -78.664, 35.1143
2.78, 7, 32.7465, 54.2623, -9.50115, 89.6875, -78.664, 35.1143
2.784, 7, 32.7465, 54.2623, -9.50115, 89.6875, -78.664, 35.1143
2.788, 7, 32.7465, 54.2623, -9.50115, 89.6875, -78.664, 35.1143
2.791, 7, 32.7465, 54.2623, -9.50115, 89.6875, -78.664, 35.1143
2.796, 7, 32.7465, 54.2623, -9.50115, 89.6875, -78.664, 35.1143
2.8, 7, 32.7465, 54.2623, -9.50115, 89.6875, -78.664, 35.1143
2.804, 7, 32.7465, 54.2623, -9.50115, 89.6875, -78.664, 35.1143
2.808, 7, 32.7465, 54.2623, -9.50115, 89.6875, -78.664, 35.1143
2.811, 7, 32.7465, 54.2623, -9.50115, 89.6875, -78.664, 35.1143
2.816, 7, 32.7465, 54.2623, -9.50115, 89.6875, -78.664, 35.1143
