hehonglu123/ABB_Primitive_Study/execution/movec+movel_smooth/curve_exe_v100_z10.csv
timestamp, cmd_num, J1, J2, J3, J4, J5, J6
0, 1, 32.7465, 54.2623, -9.50115, 89.6875, -78.664, 35.1143
0.002, 1, 32.7465, 54.2623, -9.50115, 89.6875, -78.664, 35.1143
0.004, 1, 32.7465, 54.2623, -9.50115, 89.6875, -78.664, 35.1143
0.008, 1, 32.7465, 54.2623, -9.50115, 89.6875, -78.664, 35.1143
0.011, 1, 32.7465, 54.2623, -9.50115, 89.6875, -78.664, 35.1143
0.016, 1, 32.7465, 54.2623, -9.50115, 89.6875, -78.664, 35.1143
0.02, 1, 32.7465, 54.2623, -9.50115, 89.6875, -78.664, 35.1143
0.024, 1, 32.7465, 54.2623, -9.50115, 89.6875, -78.664, 35.1143
0.028, 1, 32.7465, 54.2623, -9.50115, 89.6875, -78.664, 35.1143
0.032, 1, 32.7465, 54.2623, -9.50115, 89.6875, -78.664, 35.1143
0.036, 1, 32.7465, 54.2623, -9.50115, 89.6875, -78.664, 35.1143
0.04, 1, 32.7466, 54.2623, -9.50115, 89.6875, -78.664, 35.1143
0.044, 1, 32.7467, 54.2621, -9.50116, 89.6875, -78.664, 35.1143
0.048, 1, 32.7471, 54.2618, -9.50116, 89.6875, -78.6639, 35.1143
0.052, 1, 32.7479, 54.2611, -9.50118, 89.6876, -78.6638, 35.1144
0.056, 1, 32.7491, 54.2598, -9.50124, 89.6877, -78.6634, 35.1145
0.06, 1, 32.7507, 54.2577, -9.50136, 89.6879, -78.6626, 35.1147
0.064, 1, 32.7529, 54.2547, -9.50159, 89.6883, -78.6611, 35.1152
0.068, 1, 32.7556, 54.2507, -9.502, 89.689, -78.6586, 35.1161
0.072, 1, 32.7588, 54.2455, -9.50267, 89.6902, -78.6545, 35.1174
0.076, 1, 32.7625, 54.2391, -9.5037, 89.692, -78.6482, 35.1195
0.08, 1, 32.7668, 54.2314, -9.50521, 89.6946, -78.6391, 35.1225
0.084, 1, 32.7718, 54.2224, -9.50734, 89.6982, -78.6262, 35.1267
0.088, 1, 32.7776, 54.212, -9.51024, 89.7032, -78.6088, 35.1325
0.092, 1, 32.784, 54.2002, -9.5141, 89.7098, -78.5857, 35.1401
0.096, 1, 32.7912, 54.1873, -9.51908, 89.7183, -78.5559, 35.1499
0.1, 1, 32.7988, 54.1733, -9.52538, 89.729, -78.5183, 35.1622
0.104, 1, 32.8067, 54.1585, -9.53315, 89.7422, -78.472, 35.1774
0.108, 1, 32.815, 54.143, -9.54252, 89.7581, -78.4163, 35.1957
0.112, 1, 32.8235, 54.1267, -9.55357, 89.7769, -78.3507, 35.2173
0.116, 1, 32.8324, 54.1096, -9.56636, 89.7986, -78.2748, 35.2423
0.12, 1, 32.8415, 54.0916, -9.58087, 89.8232, -78.1888, 35.2705
0.124, 1, 32.8511, 54.0725, -9.59706, 89.8507, -78.0929, 35.3021
0.128, 1, 32.8611, 54.0525, -9.61485, 89.8808, -77.9875, 35.3367
0.131, 1, 32.8716, 54.0317, -9.63411, 89.9134, -77.8735, 35.3742
0.136, 1, 32.8823, 54.0101, -9.65471, 89.9483, -77.7516, 35.4142
0.139, 1, 32.8932, 53.9877, -9.67648, 89.9852, -77.6227, 35.4566
0.144, 1, 32.9045, 53.9644, -9.69923, 90.0237, -77.4881, 35.5008
0.148, 1, 32.9163, 53.9399, -9.72278, 90.0636, -77.3487, 35.5466
0.152, 1, 32.9288, 53.914, -9.74695, 90.1045, -77.2057, 35.5936
0.156, 1, 32.942, 53.8866, -9.77157, 90.1462, -77.0599, 35.6415
0.16, 1, 32.9561, 53.8575, -9.79651, 90.1885, -76.9123, 35.6901
0.164, 1, 32.9711, 53.8271, -9.82165, 90.231, -76.7634, 35.739
0.168, 1, 32.9869, 53.7955, -9.84692, 90.2739, -76.6137, 35.7882
0.172, 1, 33.0032, 53.7631, -9.87226, 90.3168, -76.4636, 35.8375
0.176, 1, 33.02, 53.7302, -9.89762, 90.3598, -76.3133, 35.8869
0.18, 1, 33.037, 53.6969, -9.92299, 90.4028, -76.163, 35.9363
0.184, 1, 33.0541, 53.6634, -9.94833, 90.4457, -76.0128, 35.9857
0.188, 1, 33.0714, 53.6298, -9.97365, 90.4886, -75.8628, 36.035
0.192, 1, 33.0888, 53.5962, -9.99894, 90.5315, -75.713, 36.0842
0.196, 1, 33.1061, 53.5625, -10.0242, 90.5743, -75.5634, 36.1334
0.2, 1, 33.1235, 53.5289, -10.0494, 90.617, -75.4141, 36.1825
0.204, 1, 33.1409, 53.4952, -10.0745, 90.6596, -75.265, 36.2315
0.208, 1, 33.1582, 53.4616, -10.0996, 90.7021, -75.1163, 36.2804
0.212, 1, 33.1755, 53.4281, -10.1247, 90.7446, -74.9678, 36.3292
0.216, 1, 33.1928, 53.3946, -10.1497, 90.787, -74.8197, 36.3779
0.22, 1, 33.2101, 53.3612, -10.1746, 90.8292, -74.6718, 36.4265
0.224, 1, 33.2273, 53.3278, -10.1995, 90.8714, -74.5242, 36.475
0.228, 1, 33.2446, 53.2945, -10.2244, 90.9136, -74.377, 36.5234
0.232, 1, 33.2617, 53.2613, -10.2492, 90.9556, -74.23, 36.5717
0.236, 1, 33.2789, 53.2282, -10.2739, 90.9975, -74.0834, 36.6199
0.24, 1, 33.296, 53.1951, -10.2986, 91.0394, -73.937, 36.668
0.244, 1, 33.313, 53.162, -10.3233, 91.0812, -73.7909, 36.716
0.248, 1, 33.3301, 53.1291, -10.3479, 91.1229, -73.6451, 36.7639
0.252, 1, 33.3471, 53.0962, -10.3724, 91.1645, -73.4996, 36.8117
0.256, 1, 33.364, 53.0633, -10.3969, 91.206, -73.3544, 36.8595
0.26, 1, 33.381, 53.0306, -10.4214, 91.2474, -73.2095, 36.9071
0.264, 1, 33.3979, 52.9979, -10.4458, 91.2888, -73.0649, 36.9546
0.268, 1, 33.4147, 52.9652, -10.4701, 91.3301, -72.9206, 37.0021
0.272, 1, 33.4316, 52.9327, -10.4944, 91.3713, -72.7765, 37.0494
0.276, 1, 33.4484, 52.9002, -10.5187, 91.4124, -72.6327, 37.0967
0.28, 1, 33.4651, 52.8677, -10.5429, 91.4534, -72.4893, 37.1438
0.284, 1, 33.4819, 52.8353, -10.5671, 91.4944, -72.346, 37.1909
0.288, 1, 33.4986, 52.803, -10.5912, 91.5353, -72.2031, 37.2379
0.292, 1, 33.5152, 52.7708, -10.6153, 91.5761, -72.0604, 37.2848
0.296, 1, 33.5319, 52.7386, -10.6393, 91.6168, -71.9181, 37.3316
0.3, 1, 33.5485, 52.7065, -10.6633, 91.6574, -71.776, 37.3783
0.304, 1, 33.5651, 52.6744, -10.6872, 91.698, -71.6341, 37.4249
0.308, 1, 33.5816, 52.6424, -10.7111, 91.7385, -71.4925, 37.4714
0.312, 1, 33.5981, 52.6104, -10.7349, 91.7789, -71.3513, 37.5179
0.316, 1, 33.6146, 52.5785, -10.7587, 91.8192, -71.2102, 37.5642
0.32, 1, 33.631, 52.5467, -10.7825, 91.8595, -71.0695, 37.6105
0.324, 1, 33.6474, 52.5149, -10.8062, 91.8997, -70.929, 37.6567
0.328, 1, 33.6638, 52.4832, -10.8299, 91.9398, -70.7887, 37.7028
0.332, 1, 33.6802, 52.4516, -10.8535, 91.9798, -70.6488, 37.7488
0.336, 1, 33.6965, 52.42, -10.8771, 92.0198, -70.509, 37.7947
0.34, 1, 33.7128, 52.3885, -10.9006, 92.0597, -70.3696, 37.8405
0.344, 1, 33.7291, 52.357, -10.9241, 92.0995, -70.2304, 37.8863
0.348, 1, 33.7453, 52.3256, -10.9475, 92.1392, -70.0914, 37.9319
0.352, 1, 33.7615, 52.2942, -10.9709, 92.1789, -69.9528, 37.9775
0.356, 1, 33.7777, 52.2629, -10.9943, 92.2185, -69.8143, 38.023
0.36, 1, 33.7938, 52.2317, -11.0176, 92.258, -69.6762, 38.0685
0.364, 1, 33.8099, 52.2005, -11.0409, 92.2974, -69.5382, 38.1138
0.368, 1, 33.826, 52.1694, -11.0641, 92.3368, -69.4006, 38.159
0.372, 1, 33.8421, 52.1383, -11.0873, 92.3761, -69.2631, 38.2042
0.376, 1, 33.8581, 52.1073, -11.1104, 92.4153, -69.126, 38.2493
0.38, 1, 33.8741, 52.0763, -11.1336, 92.4545, -68.989, 38.2943
0.384, 1, 33.8901, 52.0454, -11.1566, 92.4936, -68.8523, 38.3392
0.388, 1, 33.906, 52.0146, -11.1796, 92.5326, -68.7159, 38.3841
0.392, 1, 33.9219, 51.9838, -11.2026, 92.5716, -68.5797, 38.4288
0.396, 1, 33.9378, 51.953, -11.2256, 92.6104, -68.4437, 38.4735
0.4, 1, 33.9537, 51.9224, -11.2485, 92.6493, -68.308, 38.5181
0.404, 1, 33.9695, 51.8917, -11.2713, 92.688, -68.1725, 38.5627
0.408, 1, 33.9853, 51.8611, -11.2942, 92.7267, -68.0373, 38.6071
0.412, 1, 34.0011, 51.8306, -11.3169, 92.7653, -67.9023, 38.6515
0.416, 1, 34.0168, 51.8002, -11.3397, 92.8038, -67.7675, 38.6958
0.42, 1, 34.0326, 51.7697, -11.3624, 92.8423, -67.633, 38.74
0.424, 1, 34.0483, 51.7394, -11.385, 92.8807, -67.4987, 38.7842
0.428, 1, 34.0639, 51.7091, -11.4077, 92.9191, -67.3646, 38.8282
0.432, 1, 34.0796, 51.6788, -11.4302, 92.9574, -67.2307, 38.8722
0.436, 1, 34.0952, 51.6486, -11.4528, 92.9956, -67.0971, 38.9161
0.44, 1, 34.1108, 51.6184, -11.4753, 93.0337, -66.9637, 38.96
0.444, 1, 34.1263, 51.5883, -11.4978, 93.0718, -66.8306, 39.0038
0.448, 1, 34.1418, 51.5583, -11.5202, 93.1098, -66.6976, 39.0474
0.452, 1, 34.1573, 51.5282, -11.5426, 93.1478, -66.5649, 39.0911
0.456, 1, 34.1728, 51.4983, -11.565, 93.1857, -66.4324, 39.1346
0.46, 1, 34.1883, 51.4684, -11.5873, 93.2235, -66.3002, 39.1781
0.464, 1, 34.2037, 51.4385, -11.6096, 93.2613, -66.1681, 39.2215
0.468, 1, 34.2191, 51.4087, -11.6318, 93.299, -66.0363, 39.2648
0.472, 1, 34.2345, 51.379, -11.654, 93.3366, -65.9047, 39.3081
0.476, 1, 34.2498, 51.3493, -11.6762, 93.3742, -65.7733, 39.3513
0.48, 1, 34.2652, 51.3196, -11.6983, 93.4117, -65.6421, 39.3944
0.484, 1, 34.2805, 51.29, -11.7204, 93.4492, -65.5111, 39.4374
0.488, 1, 34.2957, 51.2604, -11.7425, 93.4865, -65.3804, 39.4804
0.492, 1, 34.311, 51.2309, -11.7645, 93.5239, -65.2498, 39.5233
0.496, 1, 34.3262, 51.2014, -11.7865, 93.5611, -65.1195, 39.5662
0.5, 1, 34.3414, 51.172, -11.8085, 93.5984, -64.9894, 39.6089
0.504, 1, 34.3566, 51.1426, -11.8304, 93.6355, -64.8595, 39.6516
0.508, 1, 34.3718, 51.1133, -11.8523, 93.6726, -64.7298, 39.6943
0.512, 1, 34.3869, 51.084, -11.8741, 93.7096, -64.6003, 39.7368
0.516, 1, 34.402, 51.0548, -11.8959, 93.7466, -64.471, 39.7793
0.52, 1, 34.4171, 51.0256, -11.9177, 93.7835, -64.3419, 39.8217
0.524, 1, 34.4321, 50.9965, -11.9395, 93.8204, -64.213, 39.8641
0.528, 1, 34.4472, 50.9674, -11.9612, 93.8572, -64.0844, 39.9064
0.532, 1, 34.4622, 50.9384, -11.9828, 93.8939, -63.9559, 39.9486
0.536, 1, 34.4771, 50.9094, -12.0045, 93.9306, -63.8276, 39.9908
0.54, 1, 34.4921, 50.8804, -12.0261, 93.9672, -63.6996, 40.0329
0.544, 1, 34.507, 50.8515, -12.0477, 94.0038, -63.5717, 40.0749
0.548, 1, 34.522, 50.8226, -12.0692, 94.0403, -63.444, 40.1169
0.552, 1, 34.5369, 50.7938, -12.0907, 94.0768, -63.3166, 40.1588
0.556, 1, 34.5517, 50.765, -12.1122, 94.1132, -63.1893, 40.2006
0.56, 1, 34.5666, 50.7363, -12.1337, 94.1495, -63.0622, 40.2424
0.564, 1, 34.5814, 50.7076, -12.1551, 94.1858, -62.9353, 40.2841
0.568, 1, 34.5962, 50.679, -12.1764, 94.2221, -62.8086, 40.3257
0.572, 1, 34.611, 50.6504, -12.1978, 94.2582, -62.6821, 40.3673
0.576, 1, 34.6257, 50.6218, -12.2191, 94.2943, -62.5558, 40.4088
0.58, 1, 34.6405, 50.5933, -12.2404, 94.3304, -62.4297, 40.4502
0.584, 1, 34.6552, 50.5648, -12.2616, 94.3664, -62.3038, 40.4916
0.588, 1, 34.6699, 50.5364, -12.2828, 94.4024, -62.1781, 40.533
0.592, 1, 34.6845, 50.508, -12.304, 94.4383, -62.0525, 40.5742
0.596, 1, 34.6992, 50.4797, -12.3252, 94.4741, -61.9272, 40.6154
0.6, 1, 34.7138, 50.4514, -12.3463, 94.5099, -61.802, 40.6566
0.604, 1, 34.7284, 50.4231, -12.3674, 94.5457, -61.677, 40.6977
0.608, 1, 34.743, 50.3949, -12.3884, 94.5814, -61.5522, 40.7387
0.612, 1, 34.7575, 50.3667, -12.4095, 94.617, -61.4276, 40.7796
0.616, 1, 34.7721, 50.3386, -12.4305, 94.6526, -61.3032, 40.8205
0.62, 1, 34.7866, 50.3105, -12.4514, 94.6881, -61.1789, 40.8614
0.624, 1, 34.8011, 50.2824, -12.4724, 94.7236, -61.0548, 40.9022
0.628, 1, 34.8155, 50.2544, -12.4933, 94.7591, -60.931, 40.9429
0.632, 1, 34.83, 50.2265, -12.5142, 94.7944, -60.8073, 40.9835
0.636, 1, 34.8444, 50.1985, -12.535, 94.8298, -60.6837, 41.0241
0.64, 1, 34.8588, 50.1707, -12.5558, 94.865, -60.5604, 41.0647
0.644, 1, 34.8732, 50.1428, -12.5766, 94.9003, -60.4372, 41.1052
0.648, 1, 34.8876, 50.115, -12.5973, 94.9354, -60.3142, 41.1456
0.652, 1, 34.9019, 50.0872, -12.6181, 94.9706, -60.1914, 41.1859
0.656, 1, 34.9163, 50.0595, -12.6388, 95.0056, -60.0688, 41.2263
0.66, 1, 34.9306, 50.0318, -12.6594, 95.0407, -59.9463, 41.2665
0.664, 1, 34.9449, 50.0042, -12.6801, 95.0756, -59.824, 41.3067
0.668, 1, 34.9591, 49.9766, -12.7007, 95.1106, -59.7019, 41.3468
0.672, 1, 34.9734, 49.949, -12.7212, 95.1454, -59.58, 41.3869
0.676, 1, 34.9876, 49.9215, -12.7418, 95.1803, -59.4582, 41.427
0.68, 1, 35.0018, 49.894, -12.7623, 95.215, -59.3366, 41.4669
0.684, 1, 35.016, 49.8665, -12.7828, 95.2498, -59.2151, 41.5068
0.688, 1, 35.0301, 49.8391, -12.8033, 95.2844, -59.0939, 41.5467
0.692, 1, 35.0443, 49.8117, -12.8237, 95.3191, -58.9728, 41.5865
0.696, 1, 35.0584, 49.7844, -12.8441, 95.3537, -58.8519, 41.6262
0.7, 1, 35.0725, 49.7571, -12.8645, 95.3882, -58.7311, 41.6659
0.704, 1, 35.0866, 49.7298, -12.8848, 95.4227, -58.6105, 41.7056
0.708, 1, 35.1007, 49.7026, -12.9051, 95.4571, -58.4901, 41.7451
0.712, 1, 35.1147, 49.6754, -12.9254, 95.4915, -58.3698, 41.7847
0.716, 1, 35.1288, 49.6482, -12.9457, 95.5259, -58.2497, 41.8241
0.72, 1, 35.1428, 49.6211, -12.9659, 95.5602, -58.1298, 41.8636
0.724, 1, 35.1568, 49.5941, -12.9862, 95.5944, -58.01, 41.9029
0.728, 1, 35.1707, 49.567, -13.0063, 95.6286, -57.8904, 41.9422
0.732, 1, 35.1847, 49.54, -13.0265, 95.6628, -57.771, 41.9815
0.736, 1, 35.1986, 49.513, -13.0466, 95.6969, -57.6517, 42.0207
0.74, 1, 35.2125, 49.4861, -13.0667, 95.731, -57.5326, 42.0599
0.744, 1, 35.2264, 49.4592, -13.0868, 95.765, -57.4136, 42.099
0.748, 1, 35.2403, 49.4324, -13.1068, 95.799, -57.2948, 42.138
0.752, 1, 35.2542, 49.4055, -13.1269, 95.8329, -57.1762, 42.177
0.756, 1, 35.268, 49.3787, -13.1468, 95.8668, -57.0577, 42.2159
0.76, 1, 35.2818, 49.352, -13.1668, 95.9006, -56.9394, 42.2548
0.764, 1, 35.2956, 49.3253, -13.1868, 95.9344, -56.8212, 42.2937
0.768, 1, 35.3094, 49.2986, -13.2067, 95.9682, -56.7032, 42.3325
0.772, 1, 35.3232, 49.272, -13.2266, 96.0019, -56.5854, 42.3712
0.776, 1, 35.3369, 49.2453, -13.2464, 96.0355, -56.4676, 42.4099
0.78, 1, 35.3507, 49.2188, -13.2663, 96.0692, -56.3501, 42.4485
0.784, 1, 35.3644, 49.1922, -13.2861, 96.1027, -56.2327, 42.4871
0.788, 1, 35.3781, 49.1657, -13.3058, 96.1363, -56.1155, 42.5257
0.792, 1, 35.3917, 49.1392, -13.3256, 96.1698, -55.9984, 42.5641
0.796, 1, 35.4054, 49.1128, -13.3453, 96.2032, -55.8814, 42.6026
0.8, 1, 35.4191, 49.0864, -13.365, 96.2366, -55.7646, 42.641
0.804, 1, 35.4327, 49.06, -13.3847, 96.27, -55.648, 42.6793
0.808, 1, 35.4463, 49.0337, -13.4044, 96.3033, -55.5315, 42.7176
0.812, 1, 35.4599, 49.0074, -13.424, 96.3365, -55.4151, 42.7558
0.816, 1, 35.4734, 48.9811, -13.4436, 96.3698, -55.2989, 42.794
0.82, 1, 35.487, 48.9549, -13.4632, 96.403, -55.1829, 42.8322
0.824, 1, 35.5005, 48.9287, -13.4828, 96.4361, -55.067, 42.8703
0.828, 1, 35.5141, 48.9025, -13.5023, 96.4692, -54.9512, 42.9083
0.832, 1, 35.5276, 48.8764, -13.5218, 96.5023, -54.8356, 42.9463
0.836, 1, 35.5411, 48.8503, -13.5413, 96.5353, -54.7201, 42.9843
0.84, 1, 35.5545, 48.8242, -13.5608, 96.5683, -54.6048, 43.0222
0.844, 1, 35.568, 48.7981, -13.5802, 96.6012, -54.4896, 43.06
0.848, 1, 35.5814, 48.7721, -13.5996, 96.6341, -54.3746, 43.0979
0.852, 1, 35.5949, 48.7461, -13.619, 96.667, -54.2597, 43.1356
0.856, 1, 35.6083, 48.7202, -13.6384, 96.6998, -54.1449, 43.1733
0.86, 1, 35.6216, 48.6943, -13.6577, 96.7326, -54.0303, 43.211
0.864, 1, 35.635, 48.6684, -13.677, 96.7654, -53.9158, 43.2486
0.868, 1, 35.6483, 48.6426, -13.6963, 96.798, -53.8015, 43.2862
0.872, 1, 35.6616, 48.6169, -13.7156, 96.8307, -53.6873, 43.3238
0.876, 1, 35.6747, 48.5912, -13.7348, 96.8633, -53.5732, 43.3612
0.88, 1, 35.6878, 48.5656, -13.754, 96.8959, -53.4594, 43.3987
0.884, 1, 35.7008, 48.5402, -13.7732, 96.9284, -53.3457, 43.436
0.888, 1, 35.7135, 48.515, -13.7924, 96.9608, -53.2323, 43.4733
0.892, 1, 35.726, 48.4902, -13.8115, 96.9932, -53.1192, 43.5105
0.896, 1, 35.738, 48.466, -13.8305, 97.0254, -53.0066, 43.5475
0.9, 1, 35.7494, 48.4426, -13.8494, 97.0574, -52.8946, 43.5843
0.904, 1, 35.7603, 48.4201, -13.8682, 97.0892, -52.7836, 43.6208
0.908, 1, 35.7705, 48.3986, -13.8867, 97.1205, -52.6741, 43.6568
0.912, 1, 35.7802, 48.3781, -13.9049, 97.1513, -52.5665, 43.6922
0.916, 1, 35.7894, 48.3586, -13.9227, 97.1813, -52.4615, 43.7267
0.92, 1, 35.7982, 48.3399, -13.9399, 97.2104, -52.3599, 43.7602
0.924, 1, 35.8067, 48.3221, -13.9564, 97.2383, -52.2624, 43.7923
0.928, 1, 35.8148, 48.3051, -13.9721, 97.2649, -52.1697, 43.8228
0.932, 1, 35.8225, 48.2891, -13.9869, 97.2898, -52.0824, 43.8514
0.936, 1, 35.8299, 48.274, -14.0006, 97.313, -52.0014, 43.8781
0.94, 1, 35.837, 48.2597, -14.0132, 97.3343, -51.927, 43.9026
0.944, 1, 35.8438, 48.2461, -14.0246, 97.3535, -51.8598, 43.9247
0.948, 1, 35.8505, 48.233, -14.0347, 97.3706, -51.8, 43.9443
0.952, 1, 35.8571, 48.2204, -14.0435, 97.3856, -51.7476, 43.9615
0.956, 1, 35.8636, 48.2083, -14.0511, 97.3985, -51.7026, 43.9763
0.96, 1, 35.8699, 48.1968, -14.0574, 97.4093, -51.6646, 43.9888
0.964, 1, 35.8759, 48.1861, -14.0627, 97.4183, -51.633, 43.9991
0.968, 2, 35.8815, 48.1763, -14.067, 97.4257, -51.6074, 44.0075
0.972, 2, 35.8866, 48.1676, -14.0704, 97.4315, -51.5869, 44.0143
0.976, 2, 35.8914, 48.16, -14.073, 97.436, -51.5709, 44.0195
0.98, 2, 35.8957, 48.1533, -14.075, 97.4395, -51.5587, 44.0235
0.984, 2, 35.8997, 48.1475, -14.0765, 97.4421, -51.5496, 44.0264
0.988, 2, 35.9032, 48.1427, -14.0776, 97.444, -51.543, 44.0286
0.992, 2, 35.9062, 48.1387, -14.0784, 97.4453, -51.5382, 44.0302
0.996, 2, 35.9087, 48.1355, -14.0789, 97.4463, -51.5349, 44.0312
1, 2, 35.9106, 48.1332, -14.0793, 97.4469, -51.5327, 44.032
1.004, 2, 35.912, 48.1315, -14.0795, 97.4474, -51.5311, 44.0325
1.008, 2, 35.913, 48.1303, -14.0797, 97.4477, -51.5301, 44.0328
1.012, 2, 35.9137, 48.1295, -14.0798, 97.4479, -51.5293, 44.033
1.016, 2, 35.9142, 48.1289, -14.0799, 97.448, -51.5289, 44.0332
1.02, 2, 35.9145, 48.1286, -14.0799, 97.4481, -51.5285, 44.0333
1.024, 2, 35.9147, 48.1283, -14.08, 97.4482, -51.5283, 44.0334
1.027, 2, 35.9148, 48.1281, -14.08, 97.4482, -51.5282, 44.0334
1.032, 2, 35.9149, 48.128, -14.08, 97.4482, -51.5281, 44.0335
1.036, 2, 35.915, 48.1279, -14.08, 97.4482, -51.528, 44.0335
1.04, 2, 35.915, 48.1279, -14.08, 97.4483, -51.5279, 44.0335
1.044, 2, 35.9151, 48.1279, -14.08, 97.4483, -51.5279, 44.0335
1.048, 2, 35.9151, 48.1278, -14.08, 97.4483, -51.5279, 44.0335
1.052, 2, 35.9151, 48.1278, -14.08, 97.4483, -51.5279, 44.0335
1.055, 2, 35.9151, 48.1278, -14.08, 97.4483, -51.5279, 44.0335
1.06, 2, 35.9151, 48.1278, -14.08, 97.4483, -51.5279, 44.0335
1.064, 2, 35.9151, 48.1278, -14.08, 97.4483, -51.5279, 44.0335
1.068, 2, 35.9151, 48.1278, -14.08, 97.4483, -51.5278, 44.0335
1.072, 2, 35.9151, 48.1278, -14.08, 97.4483, -51.5278, 44.0335
1.076, 2, 35.9151, 48.1278, -14.08, 97.4483, -51.5278, 44.0335
1.08, 2, 35.9151, 48.1278, -14.08, 97.4483, -51.5278, 44.0335
1.084, 2, 35.9151, 48.1278, -14.08, 97.4483, -51.5278, 44.0335
1.088, 2, 35.9151, 48.1278, -14.08, 97.4483, -51.5278, 44.0335
1.091, 2, 35.9151, 48.1278, -14.08, 97.4483, -51.5278, 44.0335
1.096, 2, 35.9151, 48.1278, -14.08, 97.4483, -51.5278, 44.0335
1.1, 2, 35.9151, 48.1278, -14.08, 97.4483, -51.5278, 44.0335
1.104, 2, 35.9151, 48.1278, -14.08, 97.4483, -51.5278, 44.0335
1.108, 2, 35.9151, 48.1278, -14.08, 97.4483, -51.5278, 44.0335
1.112, 2, 35.9151, 48.1278, -14.08, 97.4483, -51.5278, 44.0335
1.116, 2, 35.9151, 48.1278, -14.08, 97.4483, -51.5278, 44.0335
1.119, 2, 35.9151, 48.1278, -14.08, 97.4483, -51.5278, 44.0335
1.124, 2, 35.9151, 48.1278, -14.08, 97.4483, -51.5278, 44.0335
1.128, 2, 35.9151, 48.1278, -14.08, 97.4483, -51.5278, 44.0335
1.132, 2, 35.9151, 48.1278, -14.08, 97.4483, -51.5278, 44.0335
1.136, 2, 35.9151, 48.1278, -14.08, 97.4483, -51.5278, 44.0335
1.14, 2, 35.9151, 48.1278, -14.08, 97.4483, -51.5278, 44.0335
1.144, 2, 35.9151, 48.1278, -14.08, 97.4483, -51.5278, 44.0335
1.147, 2, 35.9151, 48.1278, -14.08, 97.4483, -51.5278, 44.0335
1.152, 2, 35.9151, 48.1278, -14.08, 97.4483, -51.5278, 44.0335
1.156, 2, 35.9151, 48.1278, -14.08, 97.4483, -51.5278, 44.0335
1.16, 2, 35.9151, 48.1278, -14.08, 97.4483, -51.5278, 44.0335
1.164, 2, 35.9151, 48.1278, -14.08, 97.4483, -51.5278, 44.0335
1.168, 2, 35.9151, 48.1278, -14.08, 97.4483, -51.5278, 44.0335
1.172, 2, 35.9151, 48.1278, -14.08, 97.4483, -51.5278, 44.0335
1.175, 2, 35.9151, 48.1278, -14.08, 97.4483, -51.5278, 44.0335
1.18, 2, 35.9151, 48.1278, -14.08, 97.4483, -51.5278, 44.0335
1.184, 2, 35.9151, 48.1278, -14.08, 97.4483, -51.5278, 44.0335
1.188, 2, 35.9151, 48.1278, -14.08, 97.4483, -51.5278, 44.0335
1.192, 2, 35.9151, 48.1278, -14.08, 97.4483, -51.5278, 44.0335
1.196, 2, 35.9151, 48.1278, -14.08, 97.4483, -51.5278, 44.0335
1.2, 2, 35.9151, 48.1278, -14.08, 97.4483, -51.5278, 44.0335
1.204, 2, 35.9151, 48.1278, -14.08, 97.4483, -51.5278, 44.0335
1.208, 2, 35.9151, 48.1278, -14.08, 97.4483, -51.5278, 44.0335
1.212, 2, 35.9151, 48.1278, -14.08, 97.4483, -51.5278, 44.0335
1.216, 2, 35.9151, 48.1278, -14.08, 97.4483, -51.5278, 44.0335
1.22, 2, 35.9151, 48.1278, -14.08, 97.4483, -51.5278, 44.0335
1.224, 2, 35.9151, 48.1278, -14.08, 97.4483, -51.5278, 44.0335
1.228, 2, 35.9151, 48.1278, -14.08, 97.4483, -51.5278, 44.0335
1.232, 2, 35.9151, 48.1278, -14.08, 97.4483, -51.5278, 44.0335
1.236, 2, 35.9151, 48.1278, -14.08, 97.4483, -51.5278, 44.0335
1.24, 2, 35.9151, 48.1278, -14.08, 97.4483, -51.5278, 44.0335
1.244, 2, 35.9151, 48.1278, -14.08, 97.4483, -51.5278, 44.0335
1.248, 2, 35.9151, 48.1278, -14.08, 97.4483, -51.5278, 44.0335
1.252, 2, 35.9151, 48.1278, -14.08, 97.4483, -51.5278, 44.0335
1.256, 2, 35.9151, 48.1278, -14.08, 97.4483, -51.5278, 44.0335
1.26, 2, 35.9151, 48.1278, -14.08, 97.4483, -51.5278, 44.0335
1.264, 2, 35.9151, 48.1278, -14.08, 97.4483, -51.5278, 44.0335
1.267, 2, 35.9151, 48.1278, -14.08, 97.4483, -51.5278, 44.0335
1.272, 2, 35.9151, 48.1278, -14.08, 97.4483, -51.5278, 44.0335
1.276, 2, 35.9151, 48.1278, -14.08, 97.4483, -51.5278, 44.0335
1.28, 2, 35.9151, 48.1278, -14.08, 97.4483, -51.5278, 44.0335
1.284, 2, 35.9151, 48.1278, -14.08, 97.4483, -51.5278, 44.0335
1.288, 2, 35.9151, 48.1278, -14.08, 97.4483, -51.5278, 44.0335
1.292, 2, 35.9151, 48.1278, -14.08, 97.4483, -51.5278, 44.0335
1.295, 2, 35.9151, 48.1278, -14.08, 97.4483, -51.5278, 44.0335
1.3, 2, 35.9151, 48.1278, -14.08, 97.4483, -51.5278, 44.0335
1.304, 2, 35.9151, 48.1278, -14.08, 97.4483, -51.5278, 44.0335
1.308, 2, 35.9151, 48.1278, -14.08, 97.4483, -51.5278, 44.0335
1.312, 2, 35.9151, 48.1278, -14.08, 97.4483, -51.5278, 44.0335
1.316, 2, 35.9151, 48.1278, -14.08, 97.4483, -51.5278, 44.0335
1.32, 2, 35.9151, 48.1278, -14.08, 97.4483, -51.5278, 44.0335
1.324, 2, 35.9151, 48.1278, -14.08, 97.4483, -51.5278, 44.0335
1.328, 2, 35.9151, 48.1278, -14.08, 97.4483, -51.5278, 44.0335
1.332, 2, 35.9151, 48.1278, -14.08, 97.4483, -51.5278, 44.0335
1.336, 2, 35.9151, 48.1278, -14.08, 97.4483, -51.5278, 44.0335
1.34, 2, 35.9151, 48.1278, -14.08, 97.4483, -51.5278, 44.0335
1.344, 2, 35.9151, 48.1278, -14.08, 97.4483, -51.5278, 44.0335
1.348, 2, 35.9151, 48.1278, -14.08, 97.4483, -51.5278, 44.0335
1.352, 2, 35.9151, 48.1278, -14.08, 97.4483, -51.5278, 44.0335
1.356, 2, 35.9151, 48.1278, -14.08, 97.4483, -51.5278, 44.0335
1.36, 2, 35.9151, 48.1278, -14.08, 97.4483, -51.5278, 44.0335
1.364, 2, 35.9151, 48.1278, -14.08, 97.4483, -51.5278, 44.0335
1.368, 2, 35.9151, 48.1278, -14.08, 97.4483, -51.5278, 44.0335
1.372, 2, 35.9151, 48.1278, -14.08, 97.4483, -51.5278, 44.0335
1.376, 2, 35.9151, 48.1278, -14.08, 97.4483, -51.5278, 44.0335
1.38, 2, 35.9151, 48.1278, -14.08, 97.4483, -51.5278, 44.0335
1.384, 2, 35.9151, 48.1278, -14.08, 97.4483, -51.5278, 44.0335
1.388, 2, 35.9151, 48.1278, -14.08, 97.4483, -51.5278, 44.0335
1.392, 2, 35.9151, 48.1278, -14.08, 97.4483, -51.5278, 44.0335
1.396, 2, 35.9151, 48.1278, -14.08, 97.4483, -51.5278, 44.0335
1.4, 2, 35.9151, 48.1278, -14.08, 97.4483, -51.5278, 44.0335
1.404, 2, 35.9151, 48.1278, -14.08, 97.4483, -51.5278, 44.0335
1.408, 2, 35.9151, 48.1278, -14.08, 97.4483, -51.5278, 44.0335
1.412, 2, 35.9151, 48.1278, -14.08, 97.4483, -51.5278, 44.0335
1.416, 2, 35.9151, 48.1278, -14.08, 97.4483, -51.5278, 44.0335
1.42, 2, 35.9151, 48.1278, -14.08, 97.4483, -51.5278, 44.0335
1.424, 2, 35.9151, 48.1278, -14.08, 97.4483, -51.5278, 44.0335
1.428, 2, 35.9151, 48.1278, -14.08, 97.4483, -51.5278, 44.0335
1.432, 2, 35.9151, 48.1278, -14.08, 97.4483, -51.5278, 44.0335
1.436, 2, 35.9151, 48.1278, -14.08, 97.4483, -51.5278, 44.0335
1.44, 2, 35.9151, 48.1278, -14.08, 97.4483, -51.5278, 44.0335
1.444, 2, 35.9151, 48.1278, -14.08, 97.4483, -51.5278, 44.0335
1.448, 2, 35.9151, 48.1278, -14.08, 97.4483, -51.5278, 44.0335
1.452, 2, 35.9151, 48.1278, -14.08, 97.4483, -51.5278, 44.0335
1.456, 2, 35.9151, 48.1278, -14.08, 97.4483, -51.5278, 44.0335
1.46, 2, 35.9151, 48.1278, -14.08, 97.4483, -51.5278, 44.0335
1.464, 2, 35.9151, 48.1278, -14.08, 97.4483, -51.5278, 44.0335
1.468, 2, 35.9151, 48.1278, -14.08, 97.4483, -51.5278, 44.0335
1.472, 2, 35.9151, 48.1278, -14.08, 97.4483, -51.5278, 44.0335
1.476, 2, 35.9151, 48.1278, -14.08, 97.4483, -51.5278, 44.0335
1.48, 2, 35.9151, 48.1278, -14.08, 97.4483, -51.5278, 44.0335
1.484, 2, 35.9151, 48.1278, -14.08, 97.4483, -51.5278, 44.0335
1.488, 2, 35.9151, 48.1278, -14.08, 97.4483, -51.5278, 44.0335
1.492, 2, 35.9151, 48.1278, -14.08, 97.4483, -51.5278, 44.0335
1.496, 2, 35.9151, 48.1278, -14.08, 97.4483, -51.5278, 44.0335
1.5, 2, 35.9151, 48.1278, -14.08, 97.4483, -51.5278, 44.0335
1.504, 2, 35.9151, 48.1278, -14.08, 97.4483, -51.5278, 44.0335
1.508, 2, 35.9151, 48.1278, -14.08, 97.4483, -51.5278, 44.0335
1.512, 2, 35.9151, 48.1278, -14.08, 97.4483, -51.5278, 44.0335
1.516, 2, 35.9151, 48.1278, -14.08, 97.4483, -51.5278, 44.0335
1.52, 2, 35.9151, 48.1278, -14.08, 97.4483, -51.5278, 44.0335
1.524, 2, 35.9151, 48.1278, -14.08, 97.4483, -51.5278, 44.0335
1.528, 2, 35.9151, 48.1278, -14.08, 97.4483, -51.5278, 44.0335
1.532, 2, 35.9151, 48.1278, -14.08, 97.4483, -51.5278, 44.0335
1.536, 2, 35.9151, 48.1278, -14.08, 97.4483, -51.5278, 44.0335
1.54, 2, 35.9151, 48.1278, -14.08, 97.4483, -51.5278, 44.0335
1.544, 2, 35.9151, 48.1278, -14.08, 97.4483, -51.5278, 44.0335
1.548, 2, 35.9151, 48.1278, -14.08, 97.4483, -51.5278, 44.0335
1.552, 2, 35.9151, 48.1278, -14.08, 97.4483, -51.5278, 44.0335
1.556, 2, 35.9151, 48.1278, -14.08, 97.4483, -51.5278, 44.0335
1.56, 2, 35.9151, 48.1278, -14.08, 97.4483, -51.5278, 44.0335
1.564, 2, 35.9151, 48.1278, -14.08, 97.4483, -51.5278, 44.0335
1.568, 2, 35.9151, 48.1278, -14.08, 97.4483, -51.5278, 44.0335
1.572, 2, 35.9151, 48.1278, -14.08, 97.4483, -51.5278, 44.0335
1.576, 2, 35.9151, 48.1278, -14.08, 97.4483, -51.5278, 44.0335
1.58, 2, 35.9151, 48.1278, -14.08, 97.4483, -51.5278, 44.0335
1.584, 2, 35.9151, 48.1278, -14.08, 97.4483, -51.5278, 44.0335
1.588, 2, 35.9151, 48.1278, -14.08, 97.4483, -51.5278, 44.0335
1.592, 2, 35.9151, 48.1278, -14.08, 97.4483, -51.5278, 44.0335
1.596, 2, 35.9151, 48.1278, -14.08, 97.4483, -51.5278, 44.0335
1.6, 2, 35.9151, 48.1278, -14.08, 97.4483, -51.5278, 44.0335
1.604, 2, 35.9151, 48.1278, -14.08, 97.4483, -51.5278, 44.0335
1.608, 2, 35.9151, 48.1278, -14.08, 97.4483, -51.5278, 44.0335
1.612, 2, 35.9151, 48.1278, -14.08, 97.4483, -51.5278, 44.0335
1.616, 2, 35.9151, 48.1278, -14.08, 97.4483, -51.5278, 44.0335
1.62, 2, 35.9151, 48.1278, -14.08, 97.4483, -51.5278, 44.0335
1.624, 2, 35.9151, 48.1278, -14.08, 97.4483, -51.5278, 44.0335
1.628, 2, 35.9151, 48.1278, -14.08, 97.4483, -51.5278, 44.0335
1.632, 2, 35.9151, 48.1278, -14.08, 97.4483, -51.5278, 44.0335
1.636, 2, 35.9151, 48.1278, -14.08, 97.4483, -51.5278, 44.0335
1.64, 2, 35.9151, 48.1278, -14.08, 97.4483, -51.5278, 44.0335
1.644, 2, 35.9151, 48.1278, -14.08, 97.4483, -51.5278, 44.0335
1.648, 2, 35.9151, 48.1278, -14.08, 97.4483, -51.5278, 44.0335
1.652, 2, 35.9151, 48.1278, -14.08, 97.4483, -51.5278, 44.0335
1.656, 2, 35.9151, 48.1278, -14.08, 97.4483, -51.5278, 44.0335
1.66, 2, 35.9151, 48.1278, -14.08, 97.4483, -51.5278, 44.0335
1.664, 2, 35.9151, 48.1278, -14.08, 97.4483, -51.5278, 44.0335
1.668, 2, 35.9151, 48.1278, -14.08, 97.4483, -51.5278, 44.0335
1.672, 2, 35.9151, 48.1278, -14.08, 97.4483, -51.5278, 44.0335
1.676, 2, 35.9151, 48.1278, -14.08, 97.4483, -51.5278, 44.0335
1.68, 2, 35.9151, 48.1278, -14.08, 97.4483, -51.5278, 44.0335
1.684, 2, 35.9151, 48.1278, -14.08, 97.4483, -51.5278, 44.0335
1.688, 2, 35.9151, 48.1278, -14.08, 97.4483, -51.5278, 44.0335
1.692, 2, 35.9151, 48.1278, -14.08, 97.4483, -51.5278, 44.0335
1.696, 2, 35.9151, 48.1278, -14.08, 97.4483, -51.5278, 44.0335
1.7, 2, 35.9151, 48.1278, -14.08, 97.4483, -51.5278, 44.0335
1.704, 2, 35.9151, 48.1278, -14.08, 97.4483, -51.5278, 44.0335
1.708, 2, 35.9151, 48.1278, -14.08, 97.4483, -51.5278, 44.0335
1.712, 2, 35.9151, 48.1278, -14.08, 97.4483, -51.5278, 44.0335
1.716, 2, 35.9151, 48.1278, -14.08, 97.4483, -51.5278, 44.0335
1.72, 2, 35.9151, 48.1278, -14.08, 97.4483, -51.5278, 44.0335
1.724, 2, 35.9151, 48.1278, -14.08, 97.4483, -51.5278, 44.0335
1.728, 2, 35.9151, 48.1278, -14.08, 97.4483, -51.5278, 44.0335
1.732, 2, 35.9151, 48.1278, -14.08, 97.4483, -51.5278, 44.0335
1.736, 2, 35.9151, 48.1278, -14.08, 97.4483, -51.5278, 44.0335
1.74, 2, 35.9151, 48.1278, -14.08, 97.4483, -51.5278, 44.0335
1.744, 2, 35.9151, 48.1278, -14.08, 97.4483, -51.5278, 44.0335
1.748, 2, 35.9151, 48.1278, -14.08, 97.4483, -51.5278, 44.0335
1.752, 2, 35.9151, 48.1278, -14.08, 97.4483, -51.5278, 44.0335
1.756, 2, 35.9151, 48.1278, -14.08, 97.4483, -51.5278, 44.0335
1.76, 2, 35.9151, 48.1278, -14.08, 97.4483, -51.5278, 44.0335
1.764, 2, 35.9151, 48.1278, -14.08, 97.4483, -51.5278, 44.0335
1.768, 2, 35.9151, 48.1278, -14.08, 97.4483, -51.5278, 44.0335
1.772, 2, 35.9151, 48.1278, -14.08, 97.4483, -51.5278, 44.0335
1.776, 2, 35.9151, 48.1278, -14.08, 97.4483, -51.5278, 44.0335
1.78, 2, 35.9151, 48.1278, -14.08, 97.4483, -51.5278, 44.0335
1.784, 2, 35.9151, 48.1278, -14.08, 97.4483, -51.5278, 44.0335
1.788, 2, 35.9151, 48.1278, -14.08, 97.4483, -51.5278, 44.0335
1.792, 2, 35.9151, 48.1278, -14.08, 97.4483, -51.5278, 44.0335
1.796, 2, 35.9151, 48.1278, -14.08, 97.4483, -51.5278, 44.0335
1.8, 2, 35.9151, 48.1278, -14.08, 97.4483, -51.5278, 44.0335
1.804, 2, 35.9151, 48.1278, -14.08, 97.4483, -51.5278, 44.0335
1.808, 2, 35.9151, 48.1278, -14.08, 97.4483, -51.5278, 44.0335
1.812, 2, 35.9151, 48.1278, -14.08, 97.4483, -51.5278, 44.0335
1.816, 2, 35.9151, 48.1278, -14.08, 97.4483, -51.5278, 44.0335
1.82, 2, 35.9151, 48.1278, -14.08, 97.4483, -51.5278, 44.0335
1.824, 2, 35.9151, 48.1278, -14.08, 97.4483, -51.5278, 44.0335
1.828, 2, 35.9151, 48.1278, -14.08, 97.4483, -51.5278, 44.0335
1.832, 2, 35.9151, 48.1278, -14.08, 97.4483, -51.5278, 44.0335
1.836, 2, 35.9151, 48.1278, -14.08, 97.4483, -51.5278, 44.0335
1.84, 2, 35.9151, 48.1278, -14.08, 97.4483, -51.5278, 44.0335
1.844, 2, 35.9151, 48.1278, -14.08, 97.4483, -51.5278, 44.0335
1.848, 2, 35.9151, 48.1278, -14.08, 97.4483, -51.5278, 44.0335
1.852, 2, 35.9151, 48.1278, -14.08, 97.4483, -51.5278, 44.0335
1.856, 2, 35.9151, 48.1278, -14.08, 97.4483, -51.5278, 44.0335
1.86, 2, 35.9151, 48.1278, -14.08, 97.4483, -51.5278, 44.0335
1.864, 2, 35.9151, 48.1278, -14.08, 97.4483, -51.5278, 44.0335
1.868, 2, 35.9151, 48.1278, -14.08, 97.4483, -51.5278, 44.0335
1.872, 2, 35.9151, 48.1278, -14.08, 97.4483, -51.5278, 44.0335
1.876, 2, 35.9151, 48.1278, -14.08, 97.4483, -51.5278, 44.0335
1.88, 2, 35.9151, 48.1278, -14.08, 97.4483, -51.5278, 44.0335
1.884, 2, 35.9151, 48.1278, -14.08, 97.4483, -51.5278, 44.0335
1.888, 2, 35.9151, 48.1278, -14.08, 97.4483, -51.5278, 44.0335
1.892, 2, 35.9151, 48.1278, -14.08, 97.4483, -51.5278, 44.0335
1.896, 2, 35.9151, 48.1278, -14.08, 97.4483, -51.5278, 44.0335
1.9, 2, 35.9151, 48.1278, -14.08, 97.4483, -51.5278, 44.0335
1.904, 2, 35.9151, 48.1278, -14.08, 97.4483, -51.5278, 44.0335
1.908, 2, 35.9151, 48.1278, -14.08, 97.4483, -51.5278, 44.0335
1.912, 2, 35.9151, 48.1278, -14.08, 97.4483, -51.5278, 44.0335
1.916, 2, 35.9151, 48.1278, -14.08, 97.4483, -51.5278, 44.0335
1.92, 2, 35.9151, 48.1278, -14.08, 97.4483, -51.5278, 44.0335
1.924, 2, 35.9151, 48.1278, -14.08, 97.4483, -51.5278, 44.0335
1.928, 2, 35.9151, 48.1278, -14.08, 97.4483, -51.5278, 44.0335
1.932, 2, 35.9151, 48.1278, -14.08, 97.4483, -51.5278, 44.0335
1.936, 2, 35.9151, 48.1278, -14.08, 97.4483, -51.5278, 44.0335
1.94, 2, 35.9151, 48.1278, -14.08, 97.4483, -51.5278, 44.0335
1.944, 2, 35.9151, 48.1278, -14.08, 97.4483, -51.5278, 44.0335
1.948, 2, 35.9151, 48.1278, -14.08, 97.4483, -51.5278, 44.0335
1.952, 2, 35.9151, 48.1278, -14.08, 97.4483, -51.5278, 44.0335
1.956, 2, 35.9151, 48.1278, -14.08, 97.4483, -51.5278, 44.0335
1.96, 2, 35.9151, 48.1278, -14.08, 97.4483, -51.5278, 44.0335
1.964, 2, 35.9151, 48.1278, -14.08, 97.4483, -51.5278, 44.0335
1.968, 3, 35.9151, 48.1278, -14.08, 97.4483, -51.5278, 44.0335
1.972, 3, 35.9151, 48.1278, -14.08, 97.4483, -51.5278, 44.0335
1.976, 3, 35.9151, 48.1278, -14.08, 97.4483, -51.5278, 44.0335
1.98, 3, 35.9151, 48.1278, -14.08, 97.4483, -51.5278, 44.0335
1.984, 3, 35.9151, 48.1278, -14.08, 97.4483, -51.5278, 44.0335
1.988, 3, 35.9151, 48.1278, -14.08, 97.4483, -51.5278, 44.0335
1.992, 3, 35.9151, 48.1278, -14.08, 97.4483, -51.5278, 44.0335
1.996, 3, 35.9151, 48.1278, -14.08, 97.4483, -51.5278, 44.0335
1.999, 3, 35.9151, 48.1278, -14.08, 97.4483, -51.5278, 44.0335
2.004, 4, 35.9151, 48.1278, -14.08, 97.4483, -51.5278, 44.0335
2.008, 4, 35.9151, 48.1278, -14.08, 97.4483, -51.5278, 44.0335
2.012, 4, 35.9151, 48.1278, -14.08, 97.4483, -51.5278, 44.0335
2.015, 4, 35.9151, 48.1278, -14.08, 97.4483, -51.5278, 44.0335
2.019, 4, 35.9151, 48.1278, -14.08, 97.4483, -51.5278, 44.0335
2.024, 4, 35.9151, 48.1278, -14.08, 97.4483, -51.5278, 44.0335
2.028, 4, 35.9151, 48.1278, -14.08, 97.4483, -51.5278, 44.0335
2.031, 4, 35.9151, 48.1278, -14.08, 97.4483, -51.5278, 44.0335
2.036, 4, 35.9151, 48.1278, -14.08, 97.4483, -51.5278, 44.0335
2.04, 4, 35.9151, 48.1278, -14.08, 97.4483, -51.5278, 44.0335
2.044, 4, 35.9151, 48.1278, -14.08, 97.4483, -51.5278, 44.0335
2.048, 4, 35.9151, 48.1278, -14.08, 97.4483, -51.5278, 44.0335
2.051, 4, 35.9151, 48.1278, -14.08, 97.4483, -51.5278, 44.0335
2.055, 4, 35.9151, 48.1278, -14.08, 97.4483, -51.5278, 44.0335
2.06, 4, 35.9151, 48.1278, -14.08, 97.4483, -51.5278, 44.0335
2.064, 4, 35.9151, 48.1278, -14.08, 97.4483, -51.5278, 44.0335
2.068, 4, 35.9151, 48.1278, -14.08, 97.4483, -51.5278, 44.0335
2.071, 4, 35.9151, 48.1278, -14.08, 97.4483, -51.5278, 44.0335
2.076, 4, 35.9151, 48.1278, -14.08, 97.4483, -51.5278, 44.0335
2.08, 4, 35.9151, 48.1278, -14.08, 97.4483, -51.5278, 44.0335
2.084, 4, 35.9151, 48.1278, -14.08, 97.4483, -51.5278, 44.0335
2.087, 4, 35.9151, 48.1278, -14.08, 97.4483, -51.5278, 44.0335
2.092, 4, 35.9151, 48.1278, -14.08, 97.4483, -51.5278, 44.0335
2.096, 4, 35.9151, 48.1278, -14.08, 97.4483, -51.5278, 44.0335
2.1, 4, 35.9151, 48.1278, -14.08, 97.4483, -51.5278, 44.0335
2.104, 5, 35.9151, 48.1278, -14.08, 97.4483, -51.5278, 44.0335
2.107, 5, 35.9151, 48.1278, -14.08, 97.4483, -51.5278, 44.0335
2.111, 5, 35.9151, 48.1278, -14.08, 97.4483, -51.5278, 44.0335
2.116, 5, 35.9151, 48.1278, -14.08, 97.4483, -51.5278, 44.0335
2.12, 5, 35.9151, 48.1278, -14.08, 97.4483, -51.5278, 44.0335
2.124, 5, 35.9151, 48.1278, -14.08, 97.4483, -51.5278, 44.0335
2.127, 5, 35.9151, 48.1278, -14.08, 97.4483, -51.5278, 44.0335
2.132, 5, 35.9151, 48.1278, -14.08, 97.4483, -51.5278, 44.0335
2.136, 5, 35.9151, 48.1278, -14.08, 97.4483, -51.5278, 44.0335
2.14, 5, 35.9151, 48.1278, -14.08, 97.4483, -51.5278, 44.0335
2.143, 5, 35.915, 48.128, -14.08, 97.4483, -51.5279, 44.0335
2.148, 5, 35.9148, 48.1283, -14.08, 97.4483, -51.5279, 44.0335
2.152, 5, 35.9144, 48.1291, -14.08, 97.4483, -51.528, 44.0334
2.156, 5, 35.9138, 48.1302, -14.08, 97.4482, -51.5284, 44.0333
2.16, 5, 35.9129, 48.1318, -14.0799, 97.4481, -51.5291, 44.033
2.163, 5, 35.9119, 48.1339, -14.0799, 97.4479, -51.5304, 44.0325
2.168, 5, 35.9107, 48.1362, -14.0797, 97.4475, -51.5326, 44.0317
2.172, 5, 35.9096, 48.1388, -14.0796, 97.447, -51.5359, 44.0305
2.176, 5, 35.9085, 48.1415, -14.0793, 97.4462, -51.5405, 44.0287
2.179, 5, 35.9076, 48.1443, -14.079, 97.4451, -51.5468, 44.0263
2.184, 5, 35.9067, 48.1472, -14.0786, 97.4438, -51.555, 44.0232
2.188, 5, 35.9058, 48.1504, -14.0781, 97.4421, -51.565, 44.0193
2.192, 5, 35.905, 48.1539, -14.0775, 97.44, -51.5772, 44.0147
2.196, 5, 35.9043, 48.1576, -14.0768, 97.4376, -51.5914, 44.0093
2.199, 5, 35.9037, 48.1614, -14.076, 97.4348, -51.6077, 44.003
2.204, 5, 35.9032, 48.1654, -14.0751, 97.4317, -51.6261, 43.996
2.208, 5, 35.9029, 48.1694, -14.0741, 97.4283, -51.6462, 43.9883
2.212, 5, 35.9027, 48.1735, -14.073, 97.4246, -51.6681, 43.98
2.216, 5, 35.9025, 48.1779, -14.0719, 97.4206, -51.6913, 43.9711
2.219, 5, 35.9022, 48.1826, -14.0707, 97.4165, -51.7157, 43.9618
2.224, 5, 35.9017, 48.1877, -14.0694, 97.4121, -51.7409, 43.9522
2.228, 5, 35.9011, 48.1933, -14.0681, 97.4077, -51.7668, 43.9423
2.232, 5, 35.9002, 48.1993, -14.0668, 97.4032, -51.7932, 43.9323
2.235, 5, 35.8992, 48.2056, -14.0654, 97.3986, -51.8198, 43.9221
2.24, 5, 35.898, 48.2122, -14.064, 97.394, -51.8466, 43.9119
2.244, 5, 35.8968, 48.219, -14.0626, 97.3893, -51.8736, 43.9017
2.248, 5, 35.8955, 48.2259, -14.0612, 97.3846, -51.9007, 43.8914
2.252, 5, 35.8941, 48.2329, -14.0598, 97.3799, -51.9278, 43.8811
2.255, 5, 35.8928, 48.2399, -14.0583, 97.3752, -51.955, 43.8707
2.259, 5, 35.8914, 48.2469, -14.0569, 97.3705, -51.9822, 43.8604
2.264, 5, 35.89, 48.254, -14.0554, 97.3658, -52.0095, 43.8501
2.268, 5, 35.8885, 48.261, -14.0539, 97.361, -52.0367, 43.8397
2.272, 5, 35.8871, 48.2681, -14.0524, 97.3562, -52.0639, 43.8294
2.275, 5, 35.8857, 48.2752, -14.051, 97.3514, -52.0912, 43.8191
2.28, 5, 35.8842, 48.2823, -14.0494, 97.3467, -52.1184, 43.8087
2.284, 5, 35.8828, 48.2894, -14.0479, 97.3419, -52.1457, 43.7984
2.288, 5, 35.8813, 48.2964, -14.0464, 97.3371, -52.1729, 43.7881
2.291, 5, 35.8799, 48.3035, -14.0449, 97.3322, -52.2002, 43.7778
2.296, 5, 35.8784, 48.3106, -14.0433, 97.3274, -52.2274, 43.7675
2.3, 5, 35.877, 48.3176, -14.0418, 97.3226, -52.2546, 43.7572
2.304, 5, 35.8755, 48.3247, -14.0402, 97.3177, -52.2819, 43.7469
2.308, 5, 35.874, 48.3318, -14.0387, 97.3129, -52.3091, 43.7366
2.311, 5, 35.8726, 48.3388, -14.0371, 97.308, -52.3363, 43.7264
2.316, 5, 35.8711, 48.3459, -14.0355, 97.3031, -52.3635, 43.7161
2.32, 5, 35.8696, 48.3529, -14.0339, 97.2982, -52.3908, 43.7058
2.324, 5, 35.8681, 48.3599, -14.0323, 97.2933, -52.418, 43.6956
2.328, 5, 35.8666, 48.367, -14.0307, 97.2884, -52.4452, 43.6853
2.331, 5, 35.8651, 48.374, -14.0291, 97.2835, -52.4724, 43.6751
2.336, 5, 35.8637, 48.381, -14.0274, 97.2786, -52.4996, 43.6648
2.34, 5, 35.8622, 48.388, -14.0258, 97.2737, -52.5268, 43.6546
2.344, 5, 35.8607, 48.395, -14.0241, 97.2687, -52.554, 43.6444
2.347, 5, 35.8592, 48.402, -14.0225, 97.2638, -52.5812, 43.6341
2.352, 5, 35.8577, 48.409, -14.0208, 97.2588, -52.6084, 43.6239
2.356, 5, 35.8562, 48.416, -14.0191, 97.2538, -52.6356, 43.6137
2.36, 5, 35.8546, 48.423, -14.0174, 97.2489, -52.6628, 43.6035
2.364, 5, 35.8531, 48.43, -14.0157, 97.2439, -52.6899, 43.5933
2.367, 5, 35.8516, 48.437, -14.014, 97.2389, -52.7171, 43.5831
2.372, 5, 35.8501, 48.444, -14.0123, 97.2339, -52.7443, 43.5729
2.376, 5, 35.8486, 48.4509, -14.0106, 97.2289, -52.7715, 43.5627
2.38, 5, 35.847, 48.4579, -14.0088, 97.2238, -52.7986, 43.5526
2.383, 5, 35.8455, 48.4648, -14.0071, 97.2188, -52.8258, 43.5424
2.388, 5, 35.844, 48.4718, -14.0053, 97.2137, -52.8529, 43.5322
2.392, 5, 35.8425, 48.4787, -14.0036, 97.2087, -52.8801, 43.5221
2.396, 5, 35.8409, 48.4857, -14.0018, 97.2036, -52.9073, 43.5119
2.4, 5, 35.8394, 48.4926, -14, 97.1985, -52.9344, 43.5018
2.403, 5, 35.8378, 48.4996, -13.9982, 97.1935, -52.9616, 43.4916
2.408, 5, 35.8363, 48.5065, -13.9964, 97.1884, -52.9887, 43.4815
2.412, 5, 35.8347, 48.5134, -13.9946, 97.1833, -53.0158, 43.4714
2.416, 5, 35.8332, 48.5203, -13.9928, 97.1782, -53.043, 43.4612
2.42, 5, 35.8316, 48.5272, -13.9909, 97.173, -53.0701, 43.4511
2.423, 5, 35.8301, 48.5341, -13.9891, 97.1679, -53.0972, 43.441
2.428, 5, 35.8285, 48.541, -13.9872, 97.1628, -53.1244, 43.4309
2.432, 5, 35.8269, 48.5479, -13.9854, 97.1576, -53.1515, 43.4208
2.436, 5, 35.8254, 48.5548, -13.9835, 97.1525, -53.1786, 43.4107
2.439, 5, 35.8238, 48.5617, -13.9816, 97.1473, -53.2057, 43.4006
2.444, 5, 35.8222, 48.5686, -13.9797, 97.1421, -53.2328, 43.3905
2.448, 5, 35.8206, 48.5755, -13.9778, 97.137, -53.2599, 43.3805
2.452, 5, 35.8191, 48.5823, -13.9759, 97.1318, -53.287, 43.3704
2.456, 5, 35.8175, 48.5892, -13.974, 97.1266, -53.3141, 43.3603
2.459, 5, 35.8159, 48.5961, -13.9721, 97.1213, -53.3412, 43.3503
2.464, 5, 35.8143, 48.6029, -13.9702, 97.1161, -53.3683, 43.3402
2.468, 5, 35.8127, 48.6098, -13.9682, 97.1109, -53.3954, 43.3301
2.472, 5, 35.8111, 48.6166, -13.9663, 97.1057, -53.4225, 43.3201
2.476, 5, 35.8095, 48.6234, -13.9643, 97.1004, -53.4496, 43.3101
2.479, 5, 35.8079, 48.6303, -13.9623, 97.0951, -53.4766, 43.3
2.484, 5, 35.8063, 48.6371, -13.9603, 97.0899, -53.5037, 43.29
2.488, 5, 35.8047, 48.6439, -13.9583, 97.0846, -53.5308, 43.28
2.492, 5, 35.8031, 48.6507, -13.9563, 97.0793, -53.5579, 43.27
2.495, 5, 35.8015, 48.6575, -13.9543, 97.074, -53.5849, 43.2599
2.5, 5, 35.7999, 48.6643, -13.9523, 97.0687, -53.612, 43.2499
2.504, 5, 35.7982, 48.6711, -13.9503, 97.0634, -53.639, 43.2399
2.508, 5, 35.7966, 48.6779, -13.9482, 97.0581, -53.6661, 43.2299
2.512, 5, 35.795, 48.6847, -13.9462, 97.0528, -53.6931, 43.22
2.515, 5, 35.7933, 48.6915, -13.9441, 97.0474, -53.7202, 43.21
2.52, 5, 35.7917, 48.6983, -13.9421, 97.0421, -53.7472, 43.2
2.524, 5, 35.7901, 48.7051, -13.94, 97.0367, -53.7743, 43.19
2.528, 5, 35.7884, 48.7118, -13.9379, 97.0313, -53.8013, 43.18
2.531, 5, 35.7868, 48.7186, -13.9358, 97.026, -53.8283, 43.1701
2.536, 5, 35.7851, 48.7253, -13.9337, 97.0206, -53.8554, 43.1601
2.54, 5, 35.7835, 48.7321, -13.9316, 97.0152, -53.8824, 43.1502
2.544, 5, 35.7818, 48.7388, -13.9294, 97.0098, -53.9094, 43.1402
2.548, 5, 35.7802, 48.7456, -13.9273, 97.0044, -53.9364, 43.1303
2.551, 5, 35.7785, 48.7523, -13.9252, 96.999, -53.9635, 43.1204
2.556, 5, 35.7769, 48.7591, -13.923, 96.9935, -53.9905, 43.1104
2.56, 5, 35.7752, 48.7658, -13.9208, 96.9881, -54.0175, 43.1005
2.564, 5, 35.7735, 48.7725, -13.9187, 96.9827, -54.0445, 43.0906
2.568, 5, 35.7719, 48.7792, -13.9165, 96.9772, -54.0715, 43.0807
2.571, 5, 35.7702, 48.7859, -13.9143, 96.9717, -54.0985, 43.0708
2.576, 5, 35.7685, 48.7926, -13.9121, 96.9663, -54.1255, 43.0608
2.58, 5, 35.7668, 48.7993, -13.9099, 96.9608, -54.1525, 43.0509
2.584, 5, 35.7651, 48.806, -13.9076, 96.9553, -54.1794, 43.0411
2.587, 5, 35.7635, 48.8127, -13.9054, 96.9498, -54.2064, 43.0312
2.592, 5, 35.7618, 48.8194, -13.9032, 96.9443, -54.2334, 43.0213
2.596, 5, 35.7601, 48.826, -13.9009, 96.9388, -54.2604, 43.0114
2.6, 5, 35.7584, 48.8327, -13.8986, 96.9332, -54.2874, 43.0015
2.604, 5, 35.7567, 48.8394, -13.8964, 96.9277, -54.3143, 42.9917
2.607, 5, 35.755, 48.846, -13.8941, 96.9222, -54.3413, 42.9818
2.612, 5, 35.7533, 48.8527, -13.8918, 96.9166, -54.3683, 42.972
2.616, 5, 35.7516, 48.8593, -13.8895, 96.911, -54.3952, 42.9621
2.62, 5, 35.7498, 48.866, -13.8872, 96.9055, -54.4222, 42.9523
2.624, 5, 35.7481, 48.8726, -13.8849, 96.8999, -54.4491, 42.9424
2.627, 5, 35.7464, 48.8793, -13.8825, 96.8943, -54.4761, 42.9326
2.632, 5, 35.7447, 48.8859, -13.8802, 96.8887, -54.503, 42.9227
2.636, 5, 35.743, 48.8925, -13.8778, 96.8831, -54.5299, 42.9129
2.64, 5, 35.7412, 48.8991, -13.8755, 96.8775, -54.5569, 42.9031
2.643, 5, 35.7395, 48.9057, -13.8731, 96.8719, -54.5838, 42.8933
2.648, 5, 35.7378, 48.9123, -13.8707, 96.8662, -54.6107, 42.8835
2.652, 5, 35.736, 48.9189, -13.8683, 96.8606, -54.6377, 42.8737
2.656, 5, 35.7343, 48.9255, -13.8659, 96.855, -54.6646, 42.8639
2.66, 5, 35.7326, 48.9321, -13.8635, 96.8493, -54.6915, 42.8541
2.663, 5, 35.7308, 48.9387, -13.8611, 96.8436, -54.7184, 42.8443
2.668, 5, 35.7291, 48.9453, -13.8587, 96.838, -54.7453, 42.8345
2.672, 5, 35.7273, 48.9518, -13.8563, 96.8323, -54.7723, 42.8247
2.676, 5, 35.7255, 48.9584, -13.8538, 96.8266, -54.7992, 42.8149
2.679, 5, 35.7238, 48.965, -13.8514, 96.8209, -54.8261, 42.8052
2.684, 5, 35.722, 48.9715, -13.8489, 96.8152, -54.853, 42.7954
2.688, 5, 35.7203, 48.9781, -13.8464, 96.8095, -54.8799, 42.7856
2.692, 5, 35.7185, 48.9846, -13.8439, 96.8037, -54.9067, 42.7759
2.696, 5, 35.7167, 48.9911, -13.8414, 96.798, -54.9336, 42.7661
2.699, 5, 35.7149, 48.9977, -13.8389, 96.7923, -54.9605, 42.7564
2.704, 5, 35.7132, 49.0042, -13.8364, 96.7865, -54.9874, 42.7466
2.708, 5, 35.7114, 49.0107, -13.8339, 96.7808, -55.0143, 42.7369
2.712, 5, 35.7096, 49.0172, -13.8313, 96.775, -55.0412, 42.7272
2.716, 5, 35.7078, 49.0237, -13.8288, 96.7692, -55.068, 42.7174
2.719, 5, 35.706, 49.0302, -13.8262, 96.7635, -55.0949, 42.7077
2.724, 5, 35.7042, 49.0367, -13.8237, 96.7577, -55.1218, 42.698
2.728, 5, 35.7024, 49.0432, -13.8211, 96.7519, -55.1486, 42.6883
2.732, 5, 35.7006, 49.0497, -13.8185, 96.746, -55.1755, 42.6786
2.735, 5, 35.6988, 49.0562, -13.8159, 96.7402, -55.2023, 42.6689
2.74, 5, 35.697, 49.0627, -13.8133, 96.7344, -55.2292, 42.6592
2.744, 5, 35.6952, 49.0692, -13.8107, 96.7286, -55.256, 42.6495
2.748, 5, 35.6934, 49.0756, -13.8081, 96.7227, -55.2829, 42.6398
2.752, 5, 35.6916, 49.0821, -13.8054, 96.7169, -55.3097, 42.6301
2.755, 5, 35.6898, 49.0885, -13.8028, 96.711, -55.3365, 42.6204
2.76, 5, 35.688, 49.095, -13.8001, 96.7052, -55.3634, 42.6107
2.764, 5, 35.6861, 49.1014, -13.7975, 96.6993, -55.3902, 42.6011
2.768, 5, 35.6843, 49.1079, -13.7948, 96.6934, -55.417, 42.5914
2.772, 5, 35.6825, 49.1143, -13.7921, 96.6875, -55.4439, 42.5817
2.775, 5, 35.6806, 49.1207, -13.7894, 96.6816, -55.4707, 42.5721
2.78, 5, 35.6788, 49.1271, -13.7867, 96.6757, -55.4975, 42.5624
2.784, 5, 35.677, 49.1335, -13.784, 96.6698, -55.5243, 42.5528
2.788, 5, 35.6751, 49.14, -13.7813, 96.6639, -55.5511, 42.5431
2.791, 5, 35.6733, 49.1464, -13.7786, 96.6579, -55.5779, 42.5335
2.796, 5, 35.6714, 49.1528, -13.7758, 96.652, -55.6047, 42.5238
2.8, 5, 35.6696, 49.1591, -13.7731, 96.646, -55.6315, 42.5142
2.804, 5, 35.6677, 49.1655, -13.7703, 96.6401, -55.6583, 42.5046
2.808, 5, 35.6658, 49.1719, -13.7675, 96.6341, -55.6851, 42.495
2.811, 5, 35.664, 49.1783, -13.7648, 96.6282, -55.7119, 42.4853
2.816, 5, 35.6621, 49.1847, -13.762, 96.6222, -55.7387, 42.4757
2.82, 5, 35.6603, 49.191, -13.7592, 96.6162, -55.7655, 42.4661
2.824, 5, 35.6584, 49.1974, -13.7564, 96.6102, -55.7922, 42.4565
2.828, 5, 35.6565, 49.2037, -13.7535, 96.6042, -55.819, 42.4469
2.831, 5, 35.6546, 49.2101, -13.7507, 96.5982, -55.8458, 42.4373
2.836, 5, 35.6528, 49.2164, -13.7479, 96.5921, -55.8725, 42.4277
2.84, 5, 35.6509, 49.2228, -13.745, 96.5861, -55.8993, 42.4182
2.844, 5, 35.649, 49.2291, -13.7422, 96.5801, -55.9261, 42.4086
2.847, 5, 35.6471, 49.2354, -13.7393, 96.574, -55.9528, 42.399
2.852, 5, 35.6452, 49.2417, -13.7364, 96.568, -55.9796, 42.3894
2.856, 5, 35.6433, 49.2481, -13.7335, 96.5619, -56.0063, 42.3799
2.86, 5, 35.6414, 49.2544, -13.7306, 96.5559, -56.0331, 42.3703
2.864, 5, 35.6395, 49.2607, -13.7277, 96.5498, -56.0598, 42.3607
2.867, 5, 35.6376, 49.267, -13.7248, 96.5437, -56.0866, 42.3512
2.872, 5, 35.6357, 49.2732, -13.7219, 96.5376, -56.1133, 42.3416
2.876, 5, 35.6338, 49.2795, -13.719, 96.5315, -56.14, 42.3321
2.88, 5, 35.6319, 49.2858, -13.716, 96.5254, -56.1668, 42.3225
2.883, 5, 35.6299, 49.2921, -13.7131, 96.5193, -56.1935, 42.313
2.888, 5, 35.628, 49.2984, -13.7101, 96.5131, -56.2202, 42.3035
2.892, 5, 35.6261, 49.3046, -13.7071, 96.507, -56.2469, 42.2939
2.896, 5, 35.6242, 49.3109, -13.7041, 96.5009, -56.2737, 42.2844
2.9, 5, 35.6222, 49.3171, -13.7011, 96.4947, -56.3004, 42.2749
2.903, 5, 35.6203, 49.3234, -13.6981, 96.4885, -56.3271, 42.2654
2.908, 5, 35.6184, 49.3296, -13.6951, 96.4824, -56.3538, 42.2559
2.912, 5, 35.6164, 49.3358, -13.6921, 96.4762, -56.3805, 42.2464
2.916, 5, 35.6145, 49.3421, -13.6891, 96.47, -56.4072, 42.2369
2.92, 5, 35.6126, 49.3483, -13.686, 96.4638, -56.4339, 42.2274
2.923, 5, 35.6106, 49.3545, -13.683, 96.4576, -56.4606, 42.2179
2.928, 5, 35.6087, 49.3607, -13.6799, 96.4514, -56.4873, 42.2084
2.932, 5, 35.6067, 49.3669, -13.6768, 96.4452, -56.514, 42.1989
2.936, 5, 35.6047, 49.3731, -13.6738, 96.439, -56.5406, 42.1894
2.939, 5, 35.6028, 49.3793, -13.6707, 96.4328, -56.5673, 42.1799
2.944, 5, 35.6008, 49.3855, -13.6676, 96.4265, -56.594, 42.1705
2.948, 5, 35.5989, 49.3917, -13.6645, 96.4203, -56.6207, 42.161
2.952, 5, 35.5969, 49.3979, -13.6613, 96.414, -56.6473, 42.1515
2.956, 5, 35.5949, 49.4041, -13.6582, 96.4078, -56.674, 42.1421
2.959, 5, 35.5929, 49.4102, -13.6551, 96.4015, -56.7007, 42.1326
2.964, 5, 35.591, 49.4164, -13.6519, 96.3952, -56.7273, 42.1232
2.968, 5, 35.589, 49.4225, -13.6488, 96.389, -56.754, 42.1137
2.972, 5, 35.587, 49.4287, -13.6456, 96.3827, -56.7806, 42.1043
2.976, 5, 35.585, 49.4348, -13.6424, 96.3764, -56.8073, 42.0948
2.98, 5, 35.583, 49.441, -13.6392, 96.3701, -56.8339, 42.0854
2.984, 5, 35.581, 49.4471, -13.636, 96.3637, -56.8606, 42.076
2.988, 5, 35.579, 49.4532, -13.6328, 96.3574, -56.8872, 42.0665
2.992, 5, 35.577, 49.4593, -13.6296, 96.3511, -56.9139, 42.0571
2.995, 5, 35.575, 49.4655, -13.6264, 96.3447, -56.9405, 42.0477
3, 5, 35.573, 49.4716, -13.6231, 96.3384, -56.9671, 42.0383
3.004, 5, 35.571, 49.4777, -13.6199, 96.3321, -56.9937, 42.0289
3.008, 5, 35.569, 49.4838, -13.6166, 96.3257, -57.0204, 42.0194
3.012, 5, 35.567, 49.4899, -13.6134, 96.3193, -57.047, 42.01
3.015, 5, 35.565, 49.496, -13.6101, 96.313, -57.0736, 42.0006
3.02, 5, 35.5629, 49.502, -13.6068, 96.3066, -57.1002, 41.9912
3.024, 5, 35.5609, 49.5081, -13.6035, 96.3002, -57.1268, 41.9819
3.028, 5, 35.5589, 49.5142, -13.6002, 96.2938, -57.1534, 41.9725
3.031, 5, 35.5569, 49.5202, -13.5969, 96.2874, -57.18, 41.9631
3.036, 5, 35.5548, 49.5263, -13.5936, 96.281, -57.2066, 41.9537
3.04, 5, 35.5528, 49.5324, -13.5902, 96.2745, -57.2332, 41.9443
3.044, 5, 35.5508, 49.5384, -13.5869, 96.2681, -57.2598, 41.935
3.048, 5, 35.5487, 49.5444, -13.5835, 96.2617, -57.2864, 41.9256
3.051, 5, 35.5467, 49.5505, -13.5802, 96.2552, -57.313, 41.9162
3.056, 5, 35.5446, 49.5565, -13.5768, 96.2488, -57.3396, 41.9069
3.06, 5, 35.5426, 49.5625, -13.5734, 96.2423, -57.3662, 41.8975
3.064, 5, 35.5405, 49.5685, -13.57, 96.2358, -57.3927, 41.8881
3.068, 5, 35.5385, 49.5746, -13.5666, 96.2294, -57.4193, 41.8788
3.071, 5, 35.5364, 49.5806, -13.5632, 96.2229, -57.4459, 41.8695
3.076, 5, 35.5343, 49.5866, -13.5598, 96.2164, -57.4725, 41.8601
3.08, 5, 35.5323, 49.5926, -13.5564, 96.2099, -57.499, 41.8508
3.084, 5, 35.5302, 49.5986, -13.5529, 96.2034, -57.5256, 41.8414
3.087, 5, 35.5281, 49.6045, -13.5495, 96.1969, -57.5521, 41.8321
3.092, 5, 35.526, 49.6105, -13.546, 96.1904, -57.5787, 41.8228
3.096, 5, 35.524, 49.6165, -13.5426, 96.1838, -57.6052, 41.8135
3.1, 5, 35.5219, 49.6225, -13.5391, 96.1773, -57.6318, 41.8041
3.104, 5, 35.5198, 49.6284, -13.5356, 96.1708, -57.6583, 41.7948
3.107, 5, 35.5177, 49.6344, -13.5321, 96.1642, -57.6849, 41.7855
3.112, 5, 35.5156, 49.6403, -13.5286, 96.1576, -57.7114, 41.7762
3.116, 5, 35.5135, 49.6463, -13.5251, 96.1511, -57.7379, 41.7669
3.12, 5, 35.5114, 49.6522, -13.5215, 96.1445, -57.7645, 41.7576
3.124, 5, 35.5093, 49.6581, -13.518, 96.1379, -57.791, 41.7483
3.128, 5, 35.5072, 49.6641, -13.5145, 96.1313, -57.8175, 41.739
3.132, 5, 35.5051, 49.67, -13.5109, 96.1247, -57.844, 41.7297
3.136, 5, 35.503, 49.6759, -13.5073, 96.1181, -57.8706, 41.7205
3.14, 5, 35.5009, 49.6818, -13.5038, 96.1115, -57.8971, 41.7112
3.143, 5, 35.4988, 49.6877, -13.5002, 96.1049, -57.9236, 41.7019
3.148, 5, 35.4967, 49.6936, -13.4966, 96.0983, -57.9501, 41.6926
3.152, 5, 35.4945, 49.6995, -13.493, 96.0917, -57.9766, 41.6834
3.156, 5, 35.4924, 49.7054, -13.4894, 96.085, -58.0031, 41.6741
3.16, 5, 35.4903, 49.7113, -13.4857, 96.0784, -58.0296, 41.6648
3.163, 5, 35.4882, 49.7171, -13.4821, 96.0717, -58.0561, 41.6556
3.168, 5, 35.486, 49.723, -13.4784, 96.0651, -58.0826, 41.6463
3.172, 5, 35.4839, 49.7289, -13.4748, 96.0584, -58.1091, 41.6371
3.176, 5, 35.4818, 49.7347, -13.4711, 96.0517, -58.1355, 41.6278
3.179, 5, 35.4796, 49.7406, -13.4675, 96.045, -58.162, 41.6186
3.184, 5, 35.4775, 49.7464, -13.4638, 96.0383, -58.1885, 41.6093
3.188, 5, 35.4753, 49.7523, -13.4601, 96.0316, -58.215, 41.6001
3.192, 5, 35.4732, 49.7581, -13.4564, 96.0249, -58.2415, 41.5909
3.196, 5, 35.471, 49.7639, -13.4527, 96.0182, -58.2679, 41.5816
3.199, 5, 35.4689, 49.7697, -13.4489, 96.0115, -58.2944, 41.5724
3.204, 5, 35.4667, 49.7756, -13.4452, 96.0048, -58.3208, 41.5632
3.208, 5, 35.4645, 49.7814, -13.4415, 95.998, -58.3473, 41.554
3.212, 5, 35.4624, 49.7872, -13.4377, 95.9913, -58.3738, 41.5448
3.216, 5, 35.4602, 49.793, -13.434, 95.9846, -58.4002, 41.5355
3.22, 5, 35.458, 49.7988, -13.4302, 95.9778, -58.4267, 41.5263
3.224, 5, 35.4559, 49.8045, -13.4264, 95.971, -58.4531, 41.5171
3.228, 5, 35.4537, 49.8103, -13.4226, 95.9643, -58.4795, 41.5079
3.232, 5, 35.4515, 49.8161, -13.4188, 95.9575, -58.506, 41.4987
3.235, 5, 35.4493, 49.8219, -13.415, 95.9507, -58.5324, 41.4895
3.24, 5, 35.4471, 49.8276, -13.4112, 95.9439, -58.5589, 41.4803
3.244, 5, 35.4449, 49.8334, -13.4074, 95.9371, -58.5853, 41.4712
3.248, 5, 35.4427, 49.8391, -13.4035, 95.9303, -58.6117, 41.462
3.252, 5, 35.4405, 49.8449, -13.3997, 95.9235, -58.6381, 41.4528
3.255, 5, 35.4383, 49.8506, -13.3958, 95.9167, -58.6646, 41.4436
3.26, 5, 35.4361, 49.8564, -13.392, 95.9099, -58.691, 41.4344
3.264, 5, 35.4339, 49.8621, -13.3881, 95.903, -58.7174, 41.4253
3.268, 5, 35.4317, 49.8678, -13.3842, 95.8962, -58.7438, 41.4161
3.272, 5, 35.4295, 49.8735, -13.3803, 95.8893, -58.7702, 41.4069
3.276, 5, 35.4273, 49.8792, -13.3764, 95.8825, -58.7966, 41.3978
3.28, 5, 35.4251, 49.8849, -13.3725, 95.8756, -58.823, 41.3886
3.284, 5, 35.4229, 49.8906, -13.3686, 95.8687, -58.8494, 41.3795
3.288, 5, 35.4206, 49.8963, -13.3646, 95.8619, -58.8758, 41.3703
3.291, 5, 35.4184, 49.902, -13.3607, 95.855, -58.9022, 41.3612
3.296, 5, 35.4162, 49.9077, -13.3567, 95.8481, -58.9286, 41.352
3.3, 5, 35.414, 49.9134, -13.3528, 95.8412, -58.955, 41.3429
3.304, 5, 35.4117, 49.9191, -13.3488, 95.8343, -58.9813, 41.3337
3.308, 5, 35.4095, 49.9247, -13.3448, 95.8274, -59.0077, 41.3246
3.312, 5, 35.4072, 49.9304, -13.3408, 95.8204, -59.0341, 41.3155
3.316, 5, 35.405, 49.936, -13.3368, 95.8135, -59.0605, 41.3064
3.32, 5, 35.4028, 49.9417, -13.3328, 95.8066, -59.0868, 41.2972
3.324, 5, 35.4005, 49.9473, -13.3288, 95.7997, -59.1132, 41.2881
3.328, 5, 35.3983, 49.9529, -13.3248, 95.7927, -59.1395, 41.279
3.332, 5, 35.396, 49.9586, -13.3207, 95.7857, -59.1659, 41.2699
3.336, 5, 35.3937, 49.9642, -13.3167, 95.7788, -59.1923, 41.2608
3.34, 5, 35.3915, 49.9698, -13.3126, 95.7718, -59.2186, 41.2517
3.344, 5, 35.3892, 49.9754, -13.3085, 95.7648, -59.245, 41.2426
3.347, 5, 35.3869, 49.981, -13.3045, 95.7579, -59.2713, 41.2335
3.352, 5, 35.3847, 49.9866, -13.3004, 95.7509, -59.2976, 41.2244
3.356, 5, 35.3824, 49.9922, -13.2963, 95.7439, -59.324, 41.2153
3.36, 5, 35.3801, 49.9978, -13.2922, 95.7369, -59.3503, 41.2062
3.364, 5, 35.3778, 50.0034, -13.288, 95.7299, -59.3767, 41.1971
3.368, 5, 35.3756, 50.009, -13.2839, 95.7228, -59.403, 41.188
3.372, 5, 35.3733, 50.0145, -13.2798, 95.7158, -59.4293, 41.1789
3.376, 5, 35.371, 50.0201, -13.2756, 95.7088, -59.4556, 41.1698
3.38, 5, 35.3687, 50.0257, -13.2715, 95.7017, -59.482, 41.1608
3.383, 5, 35.3664, 50.0312, -13.2673, 95.6947, -59.5083, 41.1517
3.388, 5, 35.3641, 50.0368, -13.2631, 95.6877, -59.5346, 41.1426
3.392, 5, 35.3618, 50.0423, -13.2589, 95.6806, -59.5609, 41.1336
3.396, 5, 35.3595, 50.0478, -13.2547, 95.6735, -59.5872, 41.1245
3.4, 5, 35.3572, 50.0534, -13.2505, 95.6665, -59.6135, 41.1154
3.403, 5, 35.3549, 50.0589, -13.2463, 95.6594, -59.6398, 41.1064
3.408, 5, 35.3526, 50.0644, -13.2421, 95.6523, -59.6661, 41.0973
3.412, 5, 35.3503, 50.0699, -13.2379, 95.6452, -59.6924, 41.0883
3.416, 5, 35.3479, 50.0754, -13.2336, 95.6381, -59.7187, 41.0792
3.42, 5, 35.3456, 50.0809, -13.2294, 95.631, -59.745, 41.0702
3.424, 5, 35.3433, 50.0864, -13.2251, 95.6239, -59.7713, 41.0611
3.428, 5, 35.341, 50.0919, -13.2208, 95.6168, -59.7975, 41.0521
3.432, 5, 35.3386, 50.0974, -13.2165, 95.6096, -59.8238, 41.0431
3.436, 5, 35.3363, 50.1028, -13.2122, 95.6025, -59.8501, 41.034
3.439, 5, 35.334, 50.1083, -13.2079, 95.5954, -59.8764, 41.025
3.444, 5, 35.3316, 50.1138, -13.2036, 95.5882, -59.9026, 41.016
3.448, 5, 35.3293, 50.1192, -13.1993, 95.5811, -59.9289, 41.007
3.452, 5, 35.3269, 50.1247, -13.195, 95.5739, -59.9552, 40.9979
3.456, 5, 35.3246, 50.1301, -13.1906, 95.5667, -59.9814, 40.9889
3.46, 5, 35.3222, 50.1356, -13.1863, 95.5596, -60.0077, 40.9799
3.464, 5, 35.3199, 50.141, -13.1819, 95.5524, -60.0339, 40.9709
3.468, 5, 35.3175, 50.1464, -13.1775, 95.5452, -60.0602, 40.9619
3.472, 5, 35.3152, 50.1518, -13.1732, 95.538, -60.0864, 40.9529
3.476, 5, 35.3128, 50.1573, -13.1688, 95.5308, -60.1127, 40.9439
3.48, 5, 35.3104, 50.1627, -13.1644, 95.5236, -60.1389, 40.9349
3.484, 5, 35.3081, 50.1681, -13.16, 95.5164, -60.1651, 40.9259
3.488, 5, 35.3057, 50.1735, -13.1555, 95.5091, -60.1914, 40.9169
3.492, 5, 35.3033, 50.1789, -13.1511, 95.5019, -60.2176, 40.9079
3.495, 5, 35.301, 50.1842, -13.1467, 95.4947, -60.2438, 40.8989
3.5, 5, 35.2986, 50.1896, -13.1422, 95.4875, -60.2701, 40.8899
3.504, 5, 35.2962, 50.195, -13.1378, 95.4802, -60.2963, 40.8809
3.508, 5, 35.2938, 50.2004, -13.1333, 95.4729, -60.3225, 40.8719
3.512, 5, 35.2914, 50.2057, -13.1288, 95.4657, -60.3487, 40.863
3.516, 5, 35.289, 50.2111, -13.1243, 95.4584, -60.3749, 40.854
3.52, 5, 35.2866, 50.2164, -13.1198, 95.4511, -60.4011, 40.845
3.524, 6, 35.2842, 50.2218, -13.1153, 95.4439, -60.4273, 40.8361
3.528, 6, 35.2818, 50.2271, -13.1108, 95.4366, -60.4535, 40.8271
3.531, 6, 35.2794, 50.2324, -13.1063, 95.4293, -60.4797, 40.8181
3.536, 6, 35.277, 50.2378, -13.1018, 95.422, -60.5059, 40.8092
3.54, 6, 35.2746, 50.2431, -13.0972, 95.4147, -60.5321, 40.8002
3.544, 6, 35.2722, 50.2484, -13.0927, 95.4074, -60.5583, 40.7913
3.548, 6, 35.2698, 50.2537, -13.0881, 95.4, -60.5845, 40.7823
3.552, 6, 35.2674, 50.259, -13.0835, 95.3927, -60.6107, 40.7734
3.556, 6, 35.2649, 50.2643, -13.0789, 95.3854, -60.6369, 40.7644
3.56, 6, 35.2625, 50.2696, -13.0743, 95.378, -60.6631, 40.7555
3.564, 6, 35.2601, 50.2749, -13.0697, 95.3707, -60.6892, 40.7465
3.568, 6, 35.2576, 50.2801, -13.0651, 95.3633, -60.7154, 40.7376
3.572, 6, 35.2552, 50.2854, -13.0605, 95.356, -60.7416, 40.7286
3.576, 6, 35.2528, 50.2907, -13.0559, 95.3486, -60.7677, 40.7197
3.58, 6, 35.2503, 50.2959, -13.0512, 95.3412, -60.7939, 40.7108
3.584, 6, 35.2479, 50.3012, -13.0466, 95.3339, -60.82, 40.7019
3.587, 6, 35.2455, 50.3064, -13.0419, 95.3265, -60.8462, 40.6929
3.592, 6, 35.243, 50.3117, -13.0372, 95.3191, -60.8723, 40.684
3.596, 6, 35.2406, 50.3169, -13.0325, 95.3117, -60.8985, 40.6751
3.6, 6, 35.2381, 50.3221, -13.0279, 95.3043, -60.9246, 40.6662
3.604, 6, 35.2356, 50.3274, -13.0232, 95.2969, -60.9508, 40.6573
3.608, 6, 35.2332, 50.3326, -13.0184, 95.2895, -60.9769, 40.6483
3.612, 6, 35.2307, 50.3378, -13.0137, 95.282, -61.0031, 40.6394
3.616, 6, 35.2283, 50.343, -13.009, 95.2746, -61.0292, 40.6305
3.62, 6, 35.2258, 50.3482, -13.0043, 95.2672, -61.0553, 40.6216
3.624, 6, 35.2233, 50.3534, -12.9995, 95.2597, -61.0815, 40.6127
3.628, 6, 35.2208, 50.3586, -12.9947, 95.2523, -61.1076, 40.6038
3.632, 6, 35.2184, 50.3637, -12.99, 95.2448, -61.1337, 40.5949
3.636, 6, 35.2159, 50.3689, -12.9852, 95.2374, -61.1598, 40.586
3.64, 6, 35.2134, 50.3741, -12.9804, 95.2299, -61.1859, 40.5771
3.644, 6, 35.2109, 50.3792, -12.9756, 95.2224, -61.212, 40.5683
3.648, 6, 35.2084, 50.3844, -12.9708, 95.2149, -61.2381, 40.5594
3.652, 6, 35.2059, 50.3895, -12.966, 95.2074, -61.2642, 40.5505
3.656, 6, 35.2034, 50.3947, -12.9611, 95.2, -61.2904, 40.5416
3.66, 6, 35.2009, 50.3998, -12.9563, 95.1925, -61.3165, 40.5327
3.664, 6, 35.1984, 50.4049, -12.9515, 95.1849, -61.3425, 40.5239
3.668, 6, 35.1959, 50.4101, -12.9466, 95.1774, -61.3686, 40.515
3.672, 6, 35.1934, 50.4152, -12.9417, 95.1699, -61.3947, 40.5061
3.676, 6, 35.1909, 50.4203, -12.9369, 95.1624, -61.4208, 40.4972
3.679, 6, 35.1884, 50.4254, -12.932, 95.1549, -61.4469, 40.4884
3.684, 6, 35.1859, 50.4305, -12.9271, 95.1473, -61.473, 40.4795
3.688, 6, 35.1834, 50.4356, -12.9222, 95.1398, -61.4991, 40.4707
3.692, 6, 35.1808, 50.4407, -12.9173, 95.1322, -61.5251, 40.4618
3.696, 6, 35.1783, 50.4458, -12.9123, 95.1247, -61.5512, 40.4529
3.7, 6, 35.1758, 50.4508, -12.9074, 95.1171, -61.5773, 40.4441
3.704, 6, 35.1733, 50.4559, -12.9024, 95.1095, -61.6033, 40.4352
3.708, 6, 35.1707, 50.461, -12.8975, 95.1019, -61.6294, 40.4264
3.712, 6, 35.1682, 50.466, -12.8925, 95.0944, -61.6554, 40.4175
3.716, 6, 35.1656, 50.4711, -12.8876, 95.0868, -61.6815, 40.4087
3.72, 6, 35.1631, 50.4761, -12.8826, 95.0792, -61.7076, 40.3999
3.724, 6, 35.1606, 50.4812, -12.8776, 95.0716, -61.7336, 40.391
3.728, 6, 35.158, 50.4862, -12.8726, 95.064, -61.7596, 40.3822
3.732, 6, 35.1555, 50.4912, -12.8676, 95.0564, -61.7857, 40.3733
3.735, 6, 35.1529, 50.4962, -12.8625, 95.0487, -61.8117, 40.3645
3.74, 6, 35.1503, 50.5012, -12.8575, 95.0411, -61.8378, 40.3557
3.744, 6, 35.1478, 50.5063, -12.8525, 95.0335, -61.8638, 40.3468
3.748, 6, 35.1452, 50.5113, -12.8474, 95.0258, -61.8898, 40.338
3.752, 6, 35.1427, 50.5162, -12.8423, 95.0182, -61.9159, 40.3292
3.756, 6, 35.1401, 50.5212, -12.8373, 95.0105, -61.9419, 40.3204
3.76, 6, 35.1375, 50.5262, -12.8322, 95.0029, -61.9679, 40.3116
3.764, 6, 35.1349, 50.5312, -12.8271, 94.9952, -61.9939, 40.3027
3.768, 6, 35.1324, 50.5362, -12.822, 94.9875, -62.0199, 40.2939
3.772, 6, 35.1298, 50.5411, -12.8169, 94.9799, -62.0459, 40.2851
3.776, 6, 35.1272, 50.5461, -12.8118, 94.9722, -62.072, 40.2763
3.78, 6, 35.1246, 50.551, -12.8066, 94.9645, -62.098, 40.2675
3.784, 6, 35.122, 50.556, -12.8015, 94.9568, -62.124, 40.2587
3.788, 6, 35.1194, 50.5609, -12.7963, 94.9491, -62.15, 40.2499
3.792, 6, 35.1168, 50.5658, -12.7912, 94.9414, -62.176, 40.2411
3.796, 6, 35.1142, 50.5708, -12.786, 94.9337, -62.202, 40.2323
3.8, 6, 35.1116, 50.5757, -12.7808, 94.926, -62.2279, 40.2235
3.804, 6, 35.109, 50.5806, -12.7756, 94.9183, -62.2539, 40.2147
3.808, 6, 35.1064, 50.5855, -12.7704, 94.9105, -62.2799, 40.2059
3.812, 6, 35.1038, 50.5904, -12.7652, 94.9028, -62.3059, 40.1971
3.816, 6, 35.1012, 50.5953, -12.76, 94.895, -62.3319, 40.1883
3.82, 6, 35.0986, 50.6002, -12.7548, 94.8873, -62.3578, 40.1796
3.824, 6, 35.096, 50.6051, -12.7495, 94.8795, -62.3838, 40.1708
3.828, 6, 35.0933, 50.61, -12.7443, 94.8718, -62.4098, 40.162
3.832, 6, 35.0907, 50.6148, -12.739, 94.864, -62.4357, 40.1532
3.836, 6, 35.0881, 50.6197, -12.7338, 94.8562, -62.4617, 40.1444
3.84, 6, 35.0855, 50.6245, -12.7285, 94.8485, -62.4877, 40.1357
3.844, 6, 35.0828, 50.6294, -12.7232, 94.8407, -62.5136, 40.1269
3.848, 6, 35.0802, 50.6342, -12.7179, 94.8329, -62.5396, 40.1181
3.852, 6, 35.0775, 50.6391, -12.7126, 94.8251, -62.5655, 40.1093
3.856, 6, 35.0749, 50.6439, -12.7073, 94.8173, -62.5915, 40.1006
3.86, 6, 35.0723, 50.6487, -12.7019, 94.8095, -62.6174, 40.0918
3.864, 6, 35.0696, 50.6536, -12.6966, 94.8017, -62.6433, 40.0831
3.868, 6, 35.067, 50.6584, -12.6913, 94.7938, -62.6693, 40.0743
3.872, 6, 35.0643, 50.6632, -12.6859, 94.786, -62.6952, 40.0655
3.876, 6, 35.0616, 50.668, -12.6805, 94.7782, -62.7212, 40.0568
3.88, 6, 35.059, 50.6728, -12.6752, 94.7703, -62.7471, 40.048
3.884, 6, 35.0563, 50.6776, -12.6698, 94.7625, -62.773, 40.0393
3.888, 6, 35.0537, 50.6823, -12.6644, 94.7546, -62.7989, 40.0305
3.892, 6, 35.051, 50.6871, -12.659, 94.7468, -62.8248, 40.0218
3.896, 6, 35.0483, 50.6919, -12.6536, 94.7389, -62.8508, 40.013
3.9, 6, 35.0456, 50.6967, -12.6481, 94.7311, -62.8767, 40.0043
3.904, 6, 35.043, 50.7014, -12.6427, 94.7232, -62.9026, 39.9955
3.908, 6, 35.0403, 50.7062, -12.6372, 94.7153, -62.9285, 39.9868
3.912, 6, 35.0376, 50.7109, -12.6318, 94.7074, -62.9544, 39.9781
3.916, 6, 35.0349, 50.7156, -12.6263, 94.6995, -62.9803, 39.9693
3.92, 6, 35.0322, 50.7204, -12.6208, 94.6916, -63.0062, 39.9606
3.924, 6, 35.0295, 50.7251, -12.6154, 94.6837, -63.0321, 39.9519
3.928, 6, 35.0268, 50.7298, -12.6099, 94.6758, -63.058, 39.9431
3.932, 6, 35.0241, 50.7345, -12.6044, 94.6679, -63.0839, 39.9344
3.936, 6, 35.0214, 50.7392, -12.5988, 94.66, -63.1098, 39.9257
3.94, 6, 35.0187, 50.7439, -12.5933, 94.652, -63.1356, 39.917
3.944, 6, 35.016, 50.7486, -12.5878, 94.6441, -63.1615, 39.9082
3.948, 6, 35.0133, 50.7533, -12.5822, 94.6362, -63.1874, 39.8995
3.952, 6, 35.0106, 50.758, -12.5767, 94.6282, -63.2133, 39.8908
3.956, 6, 35.0079, 50.7627, -12.5711, 94.6203, -63.2391, 39.8821
3.96, 6, 35.0052, 50.7673, -12.5656, 94.6123, -63.265, 39.8734
3.964, 6, 35.0024, 50.772, -12.56, 94.6044, -63.2909, 39.8647
3.968, 6, 34.9997, 50.7766, -12.5544, 94.5964, -63.3167, 39.8559
3.972, 6, 34.997, 50.7813, -12.5488, 94.5884, -63.3426, 39.8472
3.976, 6, 34.9943, 50.7859, -12.5432, 94.5804, -63.3684, 39.8385
3.98, 6, 34.9915, 50.7906, -12.5375, 94.5724, -63.3943, 39.8298
3.984, 6, 34.9888, 50.7952, -12.5319, 94.5645, -63.4201, 39.8211
3.988, 6, 34.9861, 50.7998, -12.5263, 94.5565, -63.446, 39.8124
3.992, 6, 34.9833, 50.8044, -12.5206, 94.5485, -63.4718, 39.8037
3.996, 6, 34.9806, 50.8091, -12.5149, 94.5404, -63.4977, 39.795
3.999, 6, 34.9778, 50.8137, -12.5093, 94.5324, -63.5235, 39.7863
4.004, 6, 34.9751, 50.8183, -12.5036, 94.5244, -63.5493, 39.7776
4.008, 6, 34.9723, 50.8228, -12.4979, 94.5164, -63.5752, 39.7689
4.012, 6, 34.9696, 50.8274, -12.4922, 94.5084, -63.601, 39.7602
4.016, 6, 34.9668, 50.832, -12.4865, 94.5003, -63.6268, 39.7515
4.02, 6, 34.964, 50.8366, -12.4808, 94.4923, -63.6526, 39.7429
4.024, 6, 34.9613, 50.8411, -12.475, 94.4842, -63.6785, 39.7342
4.028, 6, 34.9585, 50.8457, -12.4693, 94.4762, -63.7043, 39.7255
4.032, 6, 34.9557, 50.8503, -12.4635, 94.4681, -63.7301, 39.7168
4.036, 6, 34.953, 50.8548, -12.4578, 94.46, -63.7559, 39.7081
4.04, 6, 34.9502, 50.8593, -12.452, 94.452, -63.7817, 39.6994
4.044, 6, 34.9474, 50.8639, -12.4462, 94.4439, -63.8075, 39.6908
4.048, 6, 34.9446, 50.8684, -12.4404, 94.4358, -63.8333, 39.6821
4.052, 6, 34.9418, 50.8729, -12.4346, 94.4277, -63.8591, 39.6734
4.056, 6, 34.939, 50.8774, -12.4288, 94.4196, -63.8849, 39.6647
4.06, 6, 34.9363, 50.8819, -12.423, 94.4115, -63.9107, 39.6561
4.064, 6, 34.9335, 50.8864, -12.4172, 94.4034, -63.9365, 39.6474
4.068, 6, 34.9307, 50.8909, -12.4113, 94.3953, -63.9622, 39.6387
4.072, 6, 34.9279, 50.8954, -12.4055, 94.3872, -63.988, 39.6301
4.076, 6, 34.9251, 50.8999, -12.3996, 94.3791, -64.0138, 39.6214
4.08, 6, 34.9222, 50.9044, -12.3937, 94.3709, -64.0396, 39.6127
4.084, 6, 34.9194, 50.9089, -12.3879, 94.3628, -64.0654, 39.6041
4.088, 6, 34.9166, 50.9133, -12.382, 94.3547, -64.0911, 39.5954
4.092, 6, 34.9138, 50.9178, -12.3761, 94.3465, -64.1169, 39.5868
4.096, 6, 34.911, 50.9222, -12.3702, 94.3384, -64.1427, 39.5781
4.1, 6, 34.9082, 50.9267, -12.3642, 94.3302, -64.1684, 39.5695
4.104, 6, 34.9054, 50.9311, -12.3583, 94.3221, -64.1942, 39.5608
4.108, 6, 34.9025, 50.9355, -12.3524, 94.3139, -64.2199, 39.5521
4.112, 6, 34.8997, 50.94, -12.3464, 94.3057, -64.2457, 39.5435
4.116, 6, 34.8969, 50.9444, -12.3405, 94.2976, -64.2714, 39.5348
4.12, 6, 34.894, 50.9488, -12.3345, 94.2894, -64.2972, 39.5262
4.124, 6, 34.8912, 50.9532, -12.3285, 94.2812, -64.3229, 39.5175
4.128, 6, 34.8884, 50.9576, -12.3226, 94.273, -64.3487, 39.5089
4.132, 6, 34.8855, 50.962, -12.3166, 94.2649, -64.3744, 39.5002
4.136, 6, 34.8827, 50.9664, -12.3106, 94.2567, -64.4002, 39.4916
4.14, 6, 34.8799, 50.9708, -12.3046, 94.2485, -64.4259, 39.4829
4.144, 6, 34.877, 50.9752, -12.2986, 94.2403, -64.4517, 39.4743
4.148, 6, 34.8742, 50.9796, -12.2926, 94.2322, -64.4774, 39.4657
4.152, 6, 34.8713, 50.984, -12.2866, 94.224, -64.5032, 39.457
4.156, 6, 34.8685, 50.9884, -12.2806, 94.2159, -64.529, 39.4484
4.16, 6, 34.8656, 50.9927, -12.2746, 94.2077, -64.5547, 39.4397
4.164, 6, 34.8628, 50.9971, -12.2687, 94.1996, -64.5805, 39.4311
4.168, 6, 34.8599, 51.0015, -12.2627, 94.1914, -64.6063, 39.4224
4.172, 6, 34.857, 51.0059, -12.2567, 94.1833, -64.632, 39.4138
4.176, 6, 34.8542, 51.0102, -12.2507, 94.1752, -64.6578, 39.4051
4.18, 6, 34.8513, 51.0146, -12.2447, 94.167, -64.6836, 39.3964
4.184, 6, 34.8485, 51.019, -12.2387, 94.1589, -64.7094, 39.3878
4.188, 6, 34.8456, 51.0233, -12.2327, 94.1508, -64.7352, 39.3791
4.192, 6, 34.8427, 51.0277, -12.2267, 94.1427, -64.761, 39.3705
4.196, 6, 34.8398, 51.032, -12.2207, 94.1347, -64.7868, 39.3618
4.2, 6, 34.837, 51.0364, -12.2147, 94.1266, -64.8126, 39.3531
4.204, 6, 34.8341, 51.0408, -12.2087, 94.1185, -64.8385, 39.3445
4.208, 6, 34.8312, 51.0451, -12.2028, 94.1105, -64.8643, 39.3358
4.212, 6, 34.8283, 51.0495, -12.1968, 94.1025, -64.8901, 39.3271
4.216, 6, 34.8255, 51.0539, -12.1908, 94.0944, -64.916, 39.3185
4.22, 6, 34.8226, 51.0582, -12.1849, 94.0864, -64.9418, 39.3098
4.224, 6, 34.8197, 51.0626, -12.1789, 94.0784, -64.9677, 39.3011
4.228, 6, 34.8168, 51.067, -12.173, 94.0704, -64.9935, 39.2925
4.232, 6, 34.8139, 51.0713, -12.167, 94.0624, -65.0194, 39.2838
4.236, 6, 34.811, 51.0757, -12.1611, 94.0545, -65.0453, 39.2751
4.24, 6, 34.8081, 51.0801, -12.1552, 94.0465, -65.0712, 39.2664
4.244, 6, 34.8052, 51.0845, -12.1492, 94.0386, -65.0971, 39.2578
4.248, 6, 34.8023, 51.0889, -12.1433, 94.0306, -65.123, 39.2491
4.252, 6, 34.7994, 51.0932, -12.1374, 94.0227, -65.1489, 39.2404
4.256, 6, 34.7965, 51.0976, -12.1315, 94.0148, -65.1748, 39.2317
4.26, 6, 34.7936, 51.102, -12.1256, 94.0069, -65.2007, 39.2231
4.264, 6, 34.7907, 51.1064, -12.1198, 93.999, -65.2266, 39.2144
4.268, 6, 34.7878, 51.1108, -12.1139, 93.9911, -65.2526, 39.2057
4.272, 6, 34.7849, 51.1153, -12.108, 93.9833, -65.2785, 39.197
4.276, 6, 34.782, 51.1197, -12.1022, 93.9754, -65.3045, 39.1883
4.28, 6, 34.7791, 51.1241, -12.0963, 93.9676, -65.3304, 39.1797
4.284, 6, 34.7762, 51.1285, -12.0905, 93.9597, -65.3564, 39.171
4.288, 6, 34.7733, 51.133, -12.0847, 93.9519, -65.3823, 39.1623
4.292, 6, 34.7703, 51.1374, -12.0789, 93.9441, -65.4083, 39.1536
4.296, 6, 34.7674, 51.1419, -12.0731, 93.9363, -65.4343, 39.1449
4.3, 6, 34.7645, 51.1463, -12.0673, 93.9285, -65.4603, 39.1363
4.304, 6, 34.7616, 51.1508, -12.0615, 93.9207, -65.4863, 39.1276
4.308, 6, 34.7586, 51.1553, -12.0558, 93.913, -65.5123, 39.1189
4.312, 6, 34.7557, 51.1598, -12.05, 93.9052, -65.5383, 39.1102
4.316, 6, 34.7528, 51.1643, -12.0443, 93.8975, -65.5643, 39.1016
4.32, 6, 34.7498, 51.1688, -12.0385, 93.8898, -65.5903, 39.0929
4.324, 6, 34.7469, 51.1733, -12.0328, 93.882, -65.6164, 39.0842
4.328, 6, 34.744, 51.1779, -12.0271, 93.8743, -65.6424, 39.0755
4.332, 6, 34.741, 51.1824, -12.0215, 93.8666, -65.6685, 39.0669
4.336, 6, 34.7381, 51.187, -12.0158, 93.859, -65.6945, 39.0582
4.34, 6, 34.7351, 51.1915, -12.0101, 93.8513, -65.7206, 39.0495
4.344, 6, 34.7322, 51.1961, -12.0045, 93.8436, -65.7467, 39.0409
4.348, 6, 34.7292, 51.2007, -11.9989, 93.836, -65.7727, 39.0322
4.352, 6, 34.7263, 51.2053, -11.9933, 93.8283, -65.7988, 39.0235
4.356, 6, 34.7233, 51.2099, -11.9877, 93.8207, -65.8249, 39.0149
4.36, 6, 34.7204, 51.2145, -11.9821, 93.8131, -65.851, 39.0062
4.364, 6, 34.7174, 51.2192, -11.9765, 93.8055, -65.8771, 38.9975
4.368, 6, 34.7144, 51.2238, -11.971, 93.7979, -65.9032, 38.9889
4.372, 6, 34.7115, 51.2285, -11.9654, 93.7903, -65.9293, 38.9802
4.376, 6, 34.7085, 51.2331, -11.9599, 93.7827, -65.9554, 38.9716
4.38, 6, 34.7055, 51.2378, -11.9544, 93.7752, -65.9816, 38.9629
4.384, 6, 34.7025, 51.2425, -11.9489, 93.7676, -66.0077, 38.9543
4.388, 6, 34.6995, 51.2472, -11.9434, 93.7601, -66.0338, 38.9456
4.392, 6, 34.6966, 51.2519, -11.9379, 93.7525, -66.06, 38.937
4.396, 6, 34.6936, 51.2566, -11.9325, 93.745, -66.0861, 38.9283
4.4, 6, 34.6906, 51.2614, -11.927, 93.7374, -66.1123, 38.9197
4.404, 6, 34.6876, 51.2661, -11.9216, 93.7299, -66.1384, 38.9111
4.408, 6, 34.6846, 51.2709, -11.9161, 93.7224, -66.1646, 38.9024
4.412, 6, 34.6816, 51.2756, -11.9107, 93.7149, -66.1907, 38.8938
4.416, 6, 34.6786, 51.2804, -11.9053, 93.7073, -66.2169, 38.8852
4.42, 6, 34.6756, 51.2852, -11.8998, 93.6998, -66.243, 38.8765
4.424, 6, 34.6726, 51.2899, -11.8944, 93.6923, -66.2692, 38.8679
4.428, 6, 34.6695, 51.2947, -11.889, 93.6848, -66.2954, 38.8593
4.432, 6, 34.6665, 51.2995, -11.8836, 93.6772, -66.3215, 38.8507
4.436, 6, 34.6635, 51.3043, -11.8782, 93.6697, -66.3477, 38.8421
4.44, 6, 34.6605, 51.3091, -11.8728, 93.6622, -66.3738, 38.8335
4.444, 6, 34.6575, 51.314, -11.8674, 93.6546, -66.4, 38.8249
4.448, 6, 34.6544, 51.3188, -11.862, 93.6471, -66.4261, 38.8163
4.452, 6, 34.6514, 51.3236, -11.8566, 93.6396, -66.4523, 38.8077
4.456, 6, 34.6483, 51.3285, -11.8512, 93.632, -66.4784, 38.7991
4.46, 6, 34.6453, 51.3333, -11.8458, 93.6245, -66.5046, 38.7905
4.464, 6, 34.6423, 51.3382, -11.8405, 93.6169, -66.5307, 38.7819
4.468, 6, 34.6392, 51.343, -11.8351, 93.6094, -66.5569, 38.7733
4.472, 6, 34.6362, 51.3479, -11.8297, 93.6018, -66.583, 38.7647
4.476, 6, 34.6331, 51.3527, -11.8243, 93.5943, -66.6092, 38.7562
4.48, 6, 34.63, 51.3576, -11.8189, 93.5867, -66.6353, 38.7476
4.484, 6, 34.627, 51.3625, -11.8135, 93.5791, -66.6614, 38.739
4.488, 6, 34.6239, 51.3674, -11.8082, 93.5716, -66.6876, 38.7305
4.492, 6, 34.6208, 51.3723, -11.8028, 93.564, -66.7137, 38.7219
4.496, 6, 34.6178, 51.3772, -11.7974, 93.5564, -66.7399, 38.7134
4.5, 6, 34.6147, 51.3821, -11.7921, 93.5488, -66.766, 38.7048
4.504, 6, 34.6116, 51.387, -11.7867, 93.5412, -66.7921, 38.6963
4.508, 6, 34.6085, 51.3919, -11.7813, 93.5336, -66.8182, 38.6877
4.512, 6, 34.6054, 51.3968, -11.7759, 93.5261, -66.8444, 38.6792
4.516, 6, 34.6023, 51.4018, -11.7706, 93.5185, -66.8705, 38.6707
4.52, 6, 34.5992, 51.4067, -11.7652, 93.5108, -66.8966, 38.6621
4.524, 6, 34.5961, 51.4117, -11.7599, 93.5032, -66.9227, 38.6536
4.528, 6, 34.593, 51.4166, -11.7545, 93.4956, -66.9489, 38.6451
4.532, 6, 34.5899, 51.4216, -11.7491, 93.488, -66.975, 38.6366
4.536, 6, 34.5868, 51.4265, -11.7438, 93.4804, -67.0011, 38.6281
4.54, 6, 34.5836, 51.4315, -11.7384, 93.4728, -67.0272, 38.6196
4.544, 6, 34.5805, 51.4365, -11.7331, 93.4651, -67.0533, 38.611
4.548, 6, 34.5774, 51.4414, -11.7277, 93.4575, -67.0794, 38.6026
4.552, 6, 34.5743, 51.4464, -11.7224, 93.4499, -67.1055, 38.5941
4.556, 6, 34.5711, 51.4514, -11.717, 93.4423, -67.1316, 38.5856
4.56, 6, 34.568, 51.4564, -11.7117, 93.4346, -67.1577, 38.5771
4.564, 6, 34.5648, 51.4614, -11.7063, 93.427, -67.1838, 38.5686
4.568, 6, 34.5617, 51.4664, -11.701, 93.4193, -67.2099, 38.5601
4.572, 6, 34.5585, 51.4714, -11.6957, 93.4117, -67.236, 38.5516
4.576, 6, 34.5554, 51.4765, -11.6903, 93.404, -67.2621, 38.5432
4.58, 6, 34.5522, 51.4815, -11.685, 93.3963, -67.2882, 38.5347
4.584, 6, 34.5491, 51.4865, -11.6796, 93.3887, -67.3143, 38.5262
4.588, 6, 34.5459, 51.4916, -11.6743, 93.381, -67.3404, 38.5178
4.592, 6, 34.5427, 51.4966, -11.669, 93.3733, -67.3665, 38.5093
4.596, 6, 34.5396, 51.5016, -11.6636, 93.3657, -67.3926, 38.5009
4.6, 6, 34.5364, 51.5067, -11.6583, 93.358, -67.4187, 38.4924
4.604, 6, 34.5332, 51.5118, -11.653, 93.3503, -67.4448, 38.484
4.608, 6, 34.53, 51.5168, -11.6477, 93.3426, -67.4709, 38.4755
4.612, 6, 34.5268, 51.5219, -11.6423, 93.3349, -67.4969, 38.4671
4.616, 6, 34.5236, 51.527, -11.637, 93.3272, -67.523, 38.4586
4.62, 6, 34.5204, 51.5321, -11.6317, 93.3195, -67.5491, 38.4502
4.624, 6, 34.5172, 51.5372, -11.6264, 93.3118, -67.5752, 38.4418
4.628, 6, 34.514, 51.5423, -11.6211, 93.3041, -67.6013, 38.4334
4.632, 6, 34.5108, 51.5474, -11.6158, 93.2964, -67.6273, 38.425
4.636, 6, 34.5076, 51.5525, -11.6104, 93.2887, -67.6534, 38.4165
4.64, 6, 34.5044, 51.5576, -11.6051, 93.281, -67.6795, 38.4081
4.644, 6, 34.5011, 51.5627, -11.5998, 93.2733, -67.7055, 38.3997
4.648, 6, 34.4979, 51.5679, -11.5945, 93.2655, -67.7316, 38.3913
4.652, 6, 34.4947, 51.573, -11.5892, 93.2578, -67.7577, 38.3829
4.656, 6, 34.4915, 51.5781, -11.5839, 93.2501, -67.7837, 38.3745
4.66, 6, 34.4882, 51.5833, -11.5786, 93.2423, -67.8098, 38.3661
4.664, 6, 34.485, 51.5884, -11.5733, 93.2346, -67.8359, 38.3577
4.668, 6, 34.4817, 51.5936, -11.568, 93.2269, -67.8619, 38.3494
4.672, 6, 34.4785, 51.5988, -11.5627, 93.2191, -67.888, 38.341
4.676, 6, 34.4752, 51.6039, -11.5574, 93.2114, -67.914, 38.3326
4.68, 6, 34.472, 51.6091, -11.5521, 93.2036, -67.9401, 38.3242
4.684, 6, 34.4687, 51.6143, -11.5468, 93.1959, -67.9661, 38.3159
4.688, 6, 34.4654, 51.6195, -11.5415, 93.1881, -67.9922, 38.3075
4.692, 6, 34.4622, 51.6247, -11.5362, 93.1803, -68.0182, 38.2991
4.696, 6, 34.4589, 51.6299, -11.5309, 93.1726, -68.0443, 38.2908
4.7, 6, 34.4556, 51.6351, -11.5257, 93.1648, -68.0703, 38.2824
4.704, 6, 34.4523, 51.6403, -11.5204, 93.157, -68.0964, 38.2741
4.708, 6, 34.449, 51.6455, -11.5151, 93.1492, -68.1224, 38.2657
4.712, 6, 34.4458, 51.6507, -11.5098, 93.1415, -68.1485, 38.2574
4.716, 6, 34.4425, 51.656, -11.5045, 93.1337, -68.1745, 38.2491
4.72, 6, 34.4392, 51.6612, -11.4993, 93.1259, -68.2005, 38.2407
4.724, 6, 34.4359, 51.6664, -11.494, 93.1181, -68.2266, 38.2324
4.728, 6, 34.4325, 51.6717, -11.4887, 93.1103, -68.2526, 38.2241
4.732, 6, 34.4292, 51.6769, -11.4834, 93.1025, -68.2786, 38.2157
4.736, 6, 34.4259, 51.6822, -11.4782, 93.0947, -68.3046, 38.2074
4.74, 6, 34.4226, 51.6875, -11.4729, 93.0869, -68.3307, 38.1991
4.744, 6, 34.4193, 51.6927, -11.4676, 93.0791, -68.3567, 38.1908
4.748, 6, 34.416, 51.698, -11.4624, 93.0712, -68.3827, 38.1825
4.752, 6, 34.4126, 51.7033, -11.4571, 93.0634, -68.4088, 38.1742
4.756, 6, 34.4093, 51.7086, -11.4518, 93.0556, -68.4348, 38.1659
4.76, 6, 34.406, 51.7139, -11.4466, 93.0478, -68.4608, 38.1576
4.764, 6, 34.4026, 51.7192, -11.4413, 93.0399, -68.4868, 38.1493
4.768, 6, 34.3993, 51.7245, -11.4361, 93.0321, -68.5128, 38.141
4.772, 6, 34.3959, 51.7298, -11.4308, 93.0243, -68.5388, 38.1327
4.776, 6, 34.3926, 51.7351, -11.4256, 93.0164, -68.5648, 38.1244
4.78, 6, 34.3892, 51.7404, -11.4203, 93.0086, -68.5909, 38.1162
4.784, 6, 34.3858, 51.7458, -11.4151, 93.0007, -68.6169, 38.1079
4.788, 6, 34.3825, 51.7511, -11.4098, 92.9929, -68.6429, 38.0996
4.792, 6, 34.3791, 51.7565, -11.4046, 92.985, -68.6689, 38.0913
4.796, 6, 34.3757, 51.7618, -11.3993, 92.9772, -68.6949, 38.0831
4.8, 6, 34.3723, 51.7672, -11.3941, 92.9693, -68.7209, 38.0748
4.804, 6, 34.369, 51.7725, -11.3888, 92.9614, -68.7469, 38.0666
4.808, 6, 34.3656, 51.7779, -11.3836, 92.9536, -68.7729, 38.0583
4.812, 6, 34.3622, 51.7833, -11.3784, 92.9457, -68.7989, 38.0501
4.816, 6, 34.3588, 51.7886, -11.3731, 92.9378, -68.8249, 38.0418
4.82, 6, 34.3554, 51.794, -11.3679, 92.9299, -68.8509, 38.0336
4.824, 6, 34.352, 51.7994, -11.3627, 92.922, -68.8769, 38.0253
4.828, 6, 34.3486, 51.8048, -11.3574, 92.9142, -68.9029, 38.0171
4.832, 6, 34.3452, 51.8102, -11.3522, 92.9063, -68.9289, 38.0089
4.836, 6, 34.3418, 51.8156, -11.347, 92.8984, -68.9548, 38.0006
4.84, 6, 34.3383, 51.821, -11.3417, 92.8905, -68.9808, 37.9924
4.844, 6, 34.3349, 51.8264, -11.3365, 92.8826, -69.0068, 37.9842
4.848, 6, 34.3315, 51.8319, -11.3313, 92.8747, -69.0328, 37.976
4.852, 6, 34.328, 51.8373, -11.3261, 92.8668, -69.0588, 37.9678
4.856, 6, 34.3246, 51.8427, -11.3209, 92.8588, -69.0848, 37.9596
4.86, 6, 34.3212, 51.8482, -11.3156, 92.8509, -69.1107, 37.9514
4.864, 6, 34.3177, 51.8536, -11.3104, 92.843, -69.1367, 37.9432
4.868, 6, 34.3143, 51.8591, -11.3052, 92.8351, -69.1627, 37.935
4.872, 6, 34.3108, 51.8645, -11.3, 92.8271, -69.1887, 37.9268
4.876, 6, 34.3074, 51.87, -11.2948, 92.8192, -69.2146, 37.9186
4.88, 6, 34.3039, 51.8755, -11.2896, 92.8113, -69.2406, 37.9104
4.884, 6, 34.3004, 51.881, -11.2844, 92.8033, -69.2666, 37.9022
4.888, 6, 34.297, 51.8864, -11.2792, 92.7954, -69.2925, 37.894
4.892, 6, 34.2935, 51.8919, -11.274, 92.7875, -69.3185, 37.8858
4.896, 6, 34.29, 51.8974, -11.2688, 92.7795, -69.3445, 37.8777
4.9, 6, 34.2866, 51.9029, -11.2636, 92.7716, -69.3704, 37.8695
4.904, 6, 34.2831, 51.9084, -11.2584, 92.7636, -69.3964, 37.8613
4.908, 6, 34.2796, 51.9139, -11.2532, 92.7556, -69.4223, 37.8532
4.912, 6, 34.2761, 51.9195, -11.248, 92.7477, -69.4483, 37.845
4.916, 6, 34.2726, 51.925, -11.2428, 92.7397, -69.4743, 37.8369
4.92, 6, 34.2691, 51.9305, -11.2376, 92.7317, -69.5002, 37.8287
4.924, 6, 34.2656, 51.9361, -11.2324, 92.7238, -69.5262, 37.8206
4.928, 6, 34.2621, 51.9416, -11.2272, 92.7158, -69.5521, 37.8124
4.932, 6, 34.2586, 51.9471, -11.222, 92.7078, -69.5781, 37.8043
4.936, 6, 34.255, 51.9527, -11.2169, 92.6998, -69.604, 37.7961
4.94, 6, 34.2515, 51.9583, -11.2117, 92.6918, -69.6299, 37.788
4.944, 6, 34.248, 51.9638, -11.2065, 92.6838, -69.6559, 37.7799
4.948, 6, 34.2445, 51.9694, -11.2013, 92.6759, -69.6818, 37.7717
4.952, 6, 34.2409, 51.975, -11.1961, 92.6679, -69.7078, 37.7636
4.956, 6, 34.2374, 51.9806, -11.191, 92.6599, -69.7337, 37.7555
4.96, 6, 34.2339, 51.9861, -11.1858, 92.6518, -69.7597, 37.7474
4.964, 6, 34.2303, 51.9917, -11.1806, 92.6438, -69.7856, 37.7393
4.968, 6, 34.2268, 51.9973, -11.1754, 92.6358, -69.8115, 37.7312
4.972, 6, 34.2232, 52.0029, -11.1703, 92.6278, -69.8375, 37.723
4.976, 6, 34.2197, 52.0086, -11.1651, 92.6198, -69.8634, 37.7149
4.98, 6, 34.2161, 52.0142, -11.1599, 92.6118, -69.8893, 37.7068
4.984, 6, 34.2125, 52.0198, -11.1548, 92.6037, -69.9152, 37.6987
4.988, 6, 34.209, 52.0254, -11.1496, 92.5957, -69.9412, 37.6907
4.992, 6, 34.2054, 52.0311, -11.1445, 92.5877, -69.9671, 37.6826
4.996, 6, 34.2018, 52.0367, -11.1393, 92.5797, -69.993, 37.6745
5, 6, 34.1982, 52.0424, -11.1342, 92.5716, -70.0189, 37.6664
5.004, 6, 34.1946, 52.048, -11.129, 92.5636, -70.0449, 37.6583
5.008, 6, 34.191, 52.0537, -11.1238, 92.5555, -70.0708, 37.6502
5.012, 6, 34.1874, 52.0593, -11.1187, 92.5475, -70.0967, 37.6422
5.016, 6, 34.1838, 52.065, -11.1135, 92.5394, -70.1226, 37.6341
5.02, 6, 34.1802, 52.0707, -11.1084, 92.5314, -70.1485, 37.626
5.024, 6, 34.1766, 52.0764, -11.1033, 92.5233, -70.1744, 37.618
5.028, 6, 34.173, 52.082, -11.0981, 92.5152, -70.2003, 37.6099
5.032, 6, 34.1694, 52.0877, -11.093, 92.5072, -70.2262, 37.6019
5.036, 6, 34.1658, 52.0934, -11.0878, 92.4991, -70.2522, 37.5938
5.04, 6, 34.1622, 52.0991, -11.0827, 92.491, -70.2781, 37.5858
5.044, 6, 34.1585, 52.1049, -11.0775, 92.4829, -70.304, 37.5777
5.048, 6, 34.1549, 52.1106, -11.0724, 92.4749, -70.3299, 37.5697
5.052, 6, 34.1513, 52.1163, -11.0673, 92.4668, -70.3558, 37.5616
5.056, 6, 34.1476, 52.122, -11.0622, 92.4587, -70.3817, 37.5536
5.06, 6, 34.144, 52.1278, -11.057, 92.4506, -70.4076, 37.5456
5.064, 6, 34.1403, 52.1335, -11.0519, 92.4425, -70.4335, 37.5375
5.068, 6, 34.1367, 52.1392, -11.0468, 92.4344, -70.4594, 37.5295
5.072, 6, 34.133, 52.145, -11.0416, 92.4263, -70.4852, 37.5215
5.076, 6, 34.1294, 52.1507, -11.0365, 92.4182, -70.5111, 37.5135
5.08, 6, 34.1257, 52.1565, -11.0314, 92.4101, -70.537, 37.5055
5.084, 6, 34.122, 52.1623, -11.0263, 92.402, -70.5629, 37.4975
5.088, 6, 34.1183, 52.168, -11.0212, 92.3939, -70.5888, 37.4895
5.092, 6, 34.1147, 52.1738, -11.016, 92.3858, -70.6147, 37.4815
5.096, 6, 34.111, 52.1796, -11.0109, 92.3776, -70.6406, 37.4734
5.1, 6, 34.1073, 52.1854, -11.0058, 92.3695, -70.6665, 37.4655
5.104, 6, 34.1036, 52.1912, -11.0007, 92.3614, -70.6923, 37.4575
5.108, 6, 34.0999, 52.197, -10.9956, 92.3532, -70.7182, 37.4495
5.112, 6, 34.0962, 52.2028, -10.9905, 92.3451, -70.7441, 37.4415
5.116, 6, 34.0925, 52.2086, -10.9854, 92.337, -70.77, 37.4335
5.12, 6, 34.0888, 52.2144, -10.9803, 92.3288, -70.7958, 37.4255
5.124, 6, 34.0851, 52.2203, -10.9752, 92.3207, -70.8217, 37.4175
5.128, 6, 34.0814, 52.2261, -10.9701, 92.3125, -70.8476, 37.4096
5.132, 6, 34.0777, 52.2319, -10.965, 92.3044, -70.8735, 37.4016
5.136, 6, 34.0739, 52.2378, -10.9599, 92.2962, -70.8993, 37.3936
5.14, 6, 34.0702, 52.2436, -10.9548, 92.2881, -70.9252, 37.3857
5.144, 6, 34.0665, 52.2495, -10.9497, 92.2799, -70.9511, 37.3777
5.148, 6, 34.0627, 52.2553, -10.9446, 92.2718, -70.9769, 37.3697
5.152, 6, 34.059, 52.2612, -10.9395, 92.2636, -71.0028, 37.3618
5.156, 6, 34.0553, 52.2671, -10.9344, 92.2554, -71.0286, 37.3538
5.16, 6, 34.0515, 52.273, -10.9293, 92.2472, -71.0545, 37.3459
5.164, 6, 34.0477, 52.2788, -10.9243, 92.2391, -71.0804, 37.3379
5.168, 6, 34.044, 52.2847, -10.9192, 92.2309, -71.1062, 37.33
5.172, 6, 34.0402, 52.2906, -10.9141, 92.2227, -71.1321, 37.3221
5.176, 6, 34.0365, 52.2965, -10.909, 92.2145, -71.1579, 37.3141
5.18, 6, 34.0327, 52.3024, -10.9039, 92.2063, -71.1838, 37.3062
5.184, 6, 34.0289, 52.3083, -10.8989, 92.1981, -71.2096, 37.2983
5.188, 6, 34.0251, 52.3143, -10.8938, 92.1899, -71.2355, 37.2903
5.192, 6, 34.0214, 52.3202, -10.8887, 92.1817, -71.2613, 37.2824
5.196, 6, 34.0176, 52.3261, -10.8837, 92.1735, -71.2872, 37.2745
5.2, 6, 34.0138, 52.3321, -10.8786, 92.1653, -71.313, 37.2666
5.204, 6, 34.01, 52.338, -10.8735, 92.1571, -71.3388, 37.2587
5.208, 6, 34.0062, 52.3439, -10.8685, 92.1489, -71.3647, 37.2508
5.212, 6, 34.0024, 52.3499, -10.8634, 92.1407, -71.3905, 37.2429
5.216, 6, 33.9986, 52.3559, -10.8583, 92.1324, -71.4164, 37.235
5.22, 6, 33.9948, 52.3618, -10.8533, 92.1242, -71.4422, 37.2271
5.224, 6, 33.9909, 52.3678, -10.8482, 92.116, -71.468, 37.2192
5.228, 6, 33.9871, 52.3738, -10.8432, 92.1078, -71.4939, 37.2113
5.232, 6, 33.9833, 52.3797, -10.8381, 92.0995, -71.5197, 37.2034
5.236, 6, 33.9795, 52.3857, -10.833, 92.0913, -71.5455, 37.1955
5.24, 6, 33.9756, 52.3917, -10.828, 92.0831, -71.5714, 37.1876
5.244, 6, 33.9718, 52.3977, -10.823, 92.0748, -71.5972, 37.1797
5.248, 6, 33.968, 52.4037, -10.8179, 92.0666, -71.623, 37.1719
5.252, 6, 33.9641, 52.4097, -10.8129, 92.0583, -71.6488, 37.164
5.256, 6, 33.9603, 52.4157, -10.8078, 92.0501, -71.6747, 37.1561
5.26, 6, 33.9564, 52.4218, -10.8028, 92.0418, -71.7005, 37.1482
5.264, 6, 33.9526, 52.4278, -10.7977, 92.0335, -71.7263, 37.1404
5.268, 6, 33.9487, 52.4338, -10.7927, 92.0253, -71.7521, 37.1325
5.272, 6, 33.9448, 52.4398, -10.7877, 92.017, -71.7779, 37.1247
5.276, 6, 33.9409, 52.4459, -10.7826, 92.0087, -71.8037, 37.1168
5.28, 6, 33.9371, 52.4519, -10.7776, 92.0005, -71.8296, 37.109
5.284, 6, 33.9332, 52.458, -10.7726, 91.9922, -71.8554, 37.1011
5.288, 6, 33.9293, 52.4641, -10.7675, 91.9839, -71.8812, 37.0933
5.292, 6, 33.9254, 52.4701, -10.7625, 91.9756, -71.907, 37.0854
5.296, 6, 33.9215, 52.4762, -10.7575, 91.9673, -71.9328, 37.0776
5.3, 6, 33.9176, 52.4823, -10.7525, 91.9591, -71.9586, 37.0697
5.304, 6, 33.9137, 52.4884, -10.7474, 91.9508, -71.9844, 37.0619
5.308, 6, 33.9098, 52.4944, -10.7424, 91.9425, -72.0102, 37.0541
5.312, 6, 33.9059, 52.5005, -10.7374, 91.9342, -72.036, 37.0463
5.316, 6, 33.902, 52.5066, -10.7324, 91.9259, -72.0618, 37.0384
5.32, 6, 33.8981, 52.5127, -10.7274, 91.9176, -72.0876, 37.0306
5.324, 6, 33.8942, 52.5188, -10.7223, 91.9092, -72.1134, 37.0228
5.328, 6, 33.8902, 52.525, -10.7173, 91.9009, -72.1392, 37.015
5.332, 6, 33.8863, 52.5311, -10.7123, 91.8926, -72.165, 37.0072
5.336, 6, 33.8824, 52.5372, -10.7073, 91.8843, -72.1908, 36.9994
5.34, 6, 33.8784, 52.5434, -10.7023, 91.876, -72.2166, 36.9916
5.344, 6, 33.8745, 52.5495, -10.6973, 91.8677, -72.2424, 36.9838
5.348, 6, 33.8705, 52.5556, -10.6923, 91.8593, -72.2682, 36.976
5.352, 6, 33.8666, 52.5618, -10.6873, 91.851, -72.2939, 36.9682
5.356, 6, 33.8626, 52.5679, -10.6823, 91.8427, -72.3197, 36.9604
5.36, 6, 33.8587, 52.5741, -10.6773, 91.8343, -72.3455, 36.9526
5.364, 6, 33.8547, 52.5803, -10.6723, 91.826, -72.3713, 36.9448
5.368, 6, 33.8507, 52.5864, -10.6673, 91.8176, -72.3971, 36.937
5.372, 6, 33.8468, 52.5926, -10.6623, 91.8093, -72.4228, 36.9292
5.376, 6, 33.8428, 52.5988, -10.6573, 91.8009, -72.4486, 36.9215
5.38, 6, 33.8388, 52.605, -10.6523, 91.7926, -72.4744, 36.9137
5.384, 6, 33.8348, 52.6112, -10.6474, 91.7842, -72.5002, 36.9059
5.388, 6, 33.8308, 52.6174, -10.6424, 91.7759, -72.526, 36.8981
5.392, 6, 33.8268, 52.6236, -10.6374, 91.7675, -72.5517, 36.8904
5.396, 6, 33.8228, 52.6298, -10.6324, 91.7592, -72.5775, 36.8826
5.4, 6, 33.8188, 52.636, -10.6274, 91.7508, -72.6033, 36.8749
5.404, 6, 33.8148, 52.6423, -10.6225, 91.7424, -72.629, 36.8671
5.408, 6, 33.8108, 52.6485, -10.6175, 91.734, -72.6548, 36.8593
5.412, 6, 33.8068, 52.6547, -10.6125, 91.7257, -72.6806, 36.8516
5.416, 6, 33.8028, 52.661, -10.6075, 91.7173, -72.7063, 36.8438
5.42, 6, 33.7987, 52.6672, -10.6026, 91.7089, -72.7321, 36.8361
5.424, 6, 33.7947, 52.6735, -10.5976, 91.7005, -72.7579, 36.8284
5.428, 6, 33.7907, 52.6797, -10.5926, 91.6921, -72.7836, 36.8206
5.432, 6, 33.7866, 52.686, -10.5877, 91.6837, -72.8094, 36.8129
5.436, 6, 33.7826, 52.6922, -10.5827, 91.6753, -72.8351, 36.8052
5.44, 6, 33.7785, 52.6985, -10.5777, 91.6669, -72.8609, 36.7974
5.444, 6, 33.7745, 52.7048, -10.5728, 91.6585, -72.8866, 36.7897
5.448, 6, 33.7704, 52.7111, -10.5678, 91.6501, -72.9124, 36.782
5.452, 6, 33.7664, 52.7174, -10.5629, 91.6417, -72.9381, 36.7743
5.456, 6, 33.7623, 52.7237, -10.5579, 91.6333, -72.9639, 36.7665
5.46, 6, 33.7582, 52.73, -10.553, 91.6249, -72.9896, 36.7588
5.464, 6, 33.7542, 52.7363, -10.548, 91.6165, -73.0154, 36.7511
5.468, 6, 33.7501, 52.7426, -10.5431, 91.608, -73.0411, 36.7434
5.472, 6, 33.746, 52.7489, -10.5381, 91.5996, -73.0669, 36.7357
5.476, 6, 33.7419, 52.7552, -10.5332, 91.5912, -73.0926, 36.728
5.48, 6, 33.7378, 52.7616, -10.5282, 91.5827, -73.1183, 36.7203
5.484, 6, 33.7337, 52.7679, -10.5233, 91.5743, -73.1441, 36.7126
5.488, 6, 33.7296, 52.7743, -10.5183, 91.5659, -73.1698, 36.7049
5.492, 6, 33.7255, 52.7806, -10.5134, 91.5574, -73.1955, 36.6972
5.496, 6, 33.7214, 52.787, -10.5085, 91.549, -73.2213, 36.6895
5.5, 6, 33.7173, 52.7933, -10.5035, 91.5406, -73.247, 36.6818
5.504, 6, 33.7132, 52.7997, -10.4986, 91.5321, -73.2728, 36.6742
5.508, 6, 33.7091, 52.806, -10.4937, 91.5237, -73.2985, 36.6665
5.512, 6, 33.705, 52.8124, -10.4887, 91.5152, -73.3242, 36.6588
5.516, 6, 33.7008, 52.8188, -10.4838, 91.5067, -73.3499, 36.6511
5.52, 6, 33.6967, 52.8252, -10.4789, 91.4983, -73.3757, 36.6435
5.524, 6, 33.6926, 52.8316, -10.474, 91.4898, -73.4014, 36.6358
5.528, 6, 33.6884, 52.838, -10.469, 91.4813, -73.4271, 36.6281
5.532, 6, 33.6843, 52.8444, -10.4641, 91.4729, -73.4528, 36.6205
5.536, 6, 33.6801, 52.8508, -10.4592, 91.4644, -73.4786, 36.6128
5.54, 6, 33.676, 52.8572, -10.4543, 91.4559, -73.5043, 36.6051
5.544, 6, 33.6718, 52.8636, -10.4494, 91.4474, -73.53, 36.5975
5.548, 6, 33.6676, 52.8701, -10.4444, 91.439, -73.5557, 36.5898
5.552, 6, 33.6635, 52.8765, -10.4395, 91.4305, -73.5814, 36.5822
5.556, 6, 33.6593, 52.8829, -10.4346, 91.422, -73.6071, 36.5746
5.56, 6, 33.6551, 52.8894, -10.4297, 91.4135, -73.6328, 36.5669
5.564, 6, 33.6509, 52.8958, -10.4248, 91.405, -73.6586, 36.5593
5.568, 6, 33.6467, 52.9023, -10.4199, 91.3965, -73.6843, 36.5516
5.572, 6, 33.6426, 52.9087, -10.415, 91.388, -73.71, 36.544
5.576, 6, 33.6384, 52.9152, -10.4101, 91.3795, -73.7357, 36.5364
5.58, 6, 33.6342, 52.9217, -10.4052, 91.371, -73.7614, 36.5287
5.584, 6, 33.63, 52.9281, -10.4003, 91.3625, -73.7871, 36.5211
5.588, 6, 33.6257, 52.9346, -10.3954, 91.354, -73.8128, 36.5135
5.592, 6, 33.6215, 52.9411, -10.3905, 91.3455, -73.8385, 36.5059
5.596, 6, 33.6173, 52.9476, -10.3856, 91.3369, -73.8642, 36.4983
5.6, 6, 33.6131, 52.9541, -10.3807, 91.3284, -73.8899, 36.4906
5.604, 6, 33.6089, 52.9606, -10.3759, 91.3199, -73.9156, 36.483
5.608, 6, 33.6046, 52.9671, -10.371, 91.3114, -73.9413, 36.4754
5.612, 6, 33.6004, 52.9736, -10.3661, 91.3028, -73.967, 36.4678
5.616, 6, 33.5962, 52.9801, -10.3612, 91.2943, -73.9927, 36.4602
5.62, 6, 33.5919, 52.9867, -10.3563, 91.2858, -74.0184, 36.4526
5.624, 6, 33.5877, 52.9932, -10.3514, 91.2772, -74.044, 36.445
5.628, 6, 33.5834, 52.9997, -10.3466, 91.2687, -74.0697, 36.4374
5.632, 6, 33.5792, 53.0063, -10.3417, 91.2601, -74.0954, 36.4298
5.636, 6, 33.5749, 53.0128, -10.3368, 91.2516, -74.1211, 36.4223
5.64, 6, 33.5706, 53.0194, -10.3319, 91.243, -74.1468, 36.4147
5.644, 6, 33.5664, 53.0259, -10.3271, 91.2345, -74.1725, 36.4071
5.648, 6, 33.5621, 53.0325, -10.3222, 91.2259, -74.1982, 36.3995
5.652, 6, 33.5578, 53.0391, -10.3173, 91.2173, -74.2238, 36.3919
5.656, 6, 33.5535, 53.0456, -10.3125, 91.2088, -74.2495, 36.3843
5.66, 6, 33.5492, 53.0522, -10.3076, 91.2002, -74.2752, 36.3768
5.664, 6, 33.5449, 53.0588, -10.3028, 91.1916, -74.3009, 36.3692
5.668, 6, 33.5406, 53.0654, -10.2979, 91.1831, -74.3265, 36.3616
5.672, 6, 33.5363, 53.072, -10.293, 91.1745, -74.3522, 36.3541
5.676, 6, 33.532, 53.0786, -10.2882, 91.1659, -74.3779, 36.3465
5.68, 6, 33.5277, 53.0852, -10.2833, 91.1573, -74.4036, 36.339
5.684, 6, 33.5234, 53.0918, -10.2785, 91.1488, -74.4292, 36.3314
5.688, 6, 33.5191, 53.0984, -10.2736, 91.1402, -74.4549, 36.3239
5.692, 6, 33.5148, 53.1051, -10.2688, 91.1316, -74.4806, 36.3163
5.696, 6, 33.5104, 53.1117, -10.2639, 91.123, -74.5062, 36.3088
5.7, 6, 33.5061, 53.1183, -10.2591, 91.1144, -74.5319, 36.3012
5.704, 6, 33.5018, 53.125, -10.2542, 91.1058, -74.5575, 36.2937
5.708, 6, 33.4974, 53.1316, -10.2494, 91.0972, -74.5832, 36.2861
5.712, 6, 33.4931, 53.1383, -10.2446, 91.0886, -74.6089, 36.2786
5.716, 6, 33.4887, 53.1449, -10.2397, 91.08, -74.6345, 36.2711
5.72, 6, 33.4844, 53.1516, -10.2349, 91.0714, -74.6602, 36.2635
5.724, 6, 33.48, 53.1583, -10.2301, 91.0628, -74.6858, 36.256
5.728, 6, 33.4757, 53.165, -10.2252, 91.0541, -74.7115, 36.2485
5.732, 6, 33.4713, 53.1716, -10.2204, 91.0455, -74.7371, 36.2409
5.736, 6, 33.4669, 53.1783, -10.2156, 91.0369, -74.7628, 36.2334
5.74, 6, 33.4625, 53.185, -10.2107, 91.0283, -74.7884, 36.2259
5.744, 6, 33.4582, 53.1917, -10.2059, 91.0196, -74.8141, 36.2184
5.748, 6, 33.4538, 53.1984, -10.2011, 91.011, -74.8397, 36.2109
5.752, 6, 33.4494, 53.2051, -10.1963, 91.0024, -74.8654, 36.2034
5.756, 6, 33.445, 53.2118, -10.1915, 90.9937, -74.891, 36.1959
5.76, 6, 33.4406, 53.2186, -10.1866, 90.9851, -74.9167, 36.1884
5.764, 6, 33.4362, 53.2253, -10.1818, 90.9764, -74.9423, 36.1809
5.768, 6, 33.4318, 53.232, -10.177, 90.9678, -74.968, 36.1734
5.772, 6, 33.4274, 53.2387, -10.1722, 90.9592, -74.9936, 36.1659
5.776, 6, 33.4229, 53.2455, -10.1674, 90.9505, -75.0192, 36.1584
5.78, 6, 33.4185, 53.2522, -10.1626, 90.9418, -75.0449, 36.1509
5.784, 6, 33.4141, 53.259, -10.1578, 90.9332, -75.0705, 36.1434
5.788, 6, 33.4097, 53.2657, -10.153, 90.9245, -75.0961, 36.1359
5.792, 6, 33.4052, 53.2725, -10.1482, 90.9159, -75.1218, 36.1284
5.796, 6, 33.4008, 53.2793, -10.1434, 90.9072, -75.1474, 36.1209
5.8, 6, 33.3963, 53.286, -10.1386, 90.8985, -75.173, 36.1135
5.804, 6, 33.3919, 53.2928, -10.1338, 90.8899, -75.1987, 36.106
5.808, 6, 33.3874, 53.2996, -10.129, 90.8812, -75.2243, 36.0985
5.812, 6, 33.383, 53.3064, -10.1242, 90.8725, -75.2499, 36.091
5.816, 6, 33.3785, 53.3132, -10.1194, 90.8638, -75.2755, 36.0836
5.82, 6, 33.3741, 53.32, -10.1146, 90.8551, -75.3012, 36.0761
5.824, 6, 33.3696, 53.3268, -10.1098, 90.8465, -75.3268, 36.0686
5.828, 6, 33.3651, 53.3336, -10.105, 90.8378, -75.3524, 36.0612
5.832, 6, 33.3606, 53.3404, -10.1003, 90.8291, -75.378, 36.0537
5.836, 6, 33.3561, 53.3473, -10.0955, 90.8204, -75.4036, 36.0463
5.84, 6, 33.3516, 53.3541, -10.0907, 90.8117, -75.4293, 36.0388
5.844, 6, 33.3471, 53.3609, -10.0859, 90.803, -75.4549, 36.0314
5.848, 6, 33.3426, 53.3678, -10.0812, 90.7943, -75.4805, 36.0239
5.852, 6, 33.3381, 53.3746, -10.0764, 90.7856, -75.5061, 36.0165
5.856, 6, 33.3336, 53.3815, -10.0716, 90.7769, -75.5317, 36.009
5.86, 6, 33.3291, 53.3883, -10.0668, 90.7682, -75.5573, 36.0016
5.864, 6, 33.3246, 53.3952, -10.0621, 90.7594, -75.5829, 35.9942
5.868, 6, 33.3201, 53.4021, -10.0573, 90.7507, -75.6086, 35.9867
5.872, 6, 33.3156, 53.4089, -10.0525, 90.742, -75.6342, 35.9793
5.876, 6, 33.311, 53.4158, -10.0478, 90.7333, -75.6598, 35.9719
5.88, 6, 33.3065, 53.4227, -10.043, 90.7245, -75.6854, 35.9644
5.884, 6, 33.302, 53.4296, -10.0383, 90.7158, -75.711, 35.957
5.888, 6, 33.2974, 53.4365, -10.0335, 90.7071, -75.7366, 35.9496
5.892, 6, 33.2929, 53.4434, -10.0288, 90.6983, -75.7622, 35.9422
5.896, 6, 33.2883, 53.4503, -10.024, 90.6896, -75.7878, 35.9348
5.9, 6, 33.2837, 53.4572, -10.0192, 90.6809, -75.8134, 35.9273
5.904, 6, 33.2792, 53.4641, -10.0145, 90.6721, -75.839, 35.9199
5.908, 6, 33.2746, 53.471, -10.0098, 90.6634, -75.8646, 35.9125
5.912, 6, 33.27, 53.478, -10.005, 90.6546, -75.8902, 35.9051
5.916, 6, 33.2655, 53.4849, -10.0003, 90.6459, -75.9157, 35.8977
5.92, 6, 33.2609, 53.4918, -9.99553, 90.6371, -75.9413, 35.8903
5.924, 6, 33.2563, 53.4988, -9.99079, 90.6284, -75.9669, 35.8829
5.928, 6, 33.2517, 53.5057, -9.98605, 90.6196, -75.9925, 35.8755
5.932, 6, 33.2471, 53.5127, -9.98132, 90.6108, -76.0181, 35.8681
5.936, 6, 33.2425, 53.5196, -9.97658, 90.6021, -76.0437, 35.8607
5.94, 6, 33.2379, 53.5266, -9.97185, 90.5933, -76.0693, 35.8533
5.944, 6, 33.2333, 53.5336, -9.96712, 90.5845, -76.0949, 35.846
5.948, 6, 33.2287, 53.5406, -9.9624, 90.5758, -76.1204, 35.8386
5.952, 6, 33.2241, 53.5475, -9.95767, 90.567, -76.146, 35.8312
5.956, 6, 33.2195, 53.5545, -9.95295, 90.5582, -76.1716, 35.8238
5.96, 6, 33.2148, 53.5615, -9.94822, 90.5494, -76.1972, 35.8164
5.964, 6, 33.2102, 53.5685, -9.94351, 90.5406, -76.2228, 35.8091
5.968, 6, 33.2056, 53.5755, -9.93879, 90.5318, -76.2483, 35.8017
5.972, 6, 33.2009, 53.5825, -9.93407, 90.523, -76.2739, 35.7943
5.976, 6, 33.1963, 53.5895, -9.92936, 90.5143, -76.2995, 35.7869
5.98, 6, 33.1916, 53.5966, -9.92465, 90.5055, -76.3251, 35.7796
5.984, 6, 33.187, 53.6036, -9.91994, 90.4967, -76.3506, 35.7722
5.988, 6, 33.1823, 53.6106, -9.91523, 90.4879, -76.3762, 35.7649
5.992, 6, 33.1777, 53.6177, -9.91052, 90.479, -76.4018, 35.7575
5.996, 6, 33.173, 53.6247, -9.90582, 90.4702, -76.4274, 35.7501
6, 6, 33.1683, 53.6317, -9.90112, 90.4614, -76.4529, 35.7428
6.004, 6, 33.1636, 53.6388, -9.89642, 90.4526, -76.4785, 35.7354
6.008, 6, 33.159, 53.6459, -9.89172, 90.4438, -76.5041, 35.7281
6.012, 6, 33.1543, 53.6529, -9.88702, 90.435, -76.5296, 35.7208
6.016, 6, 33.1496, 53.66, -9.88233, 90.4261, -76.5552, 35.7134
6.02, 6, 33.1449, 53.6671, -9.87764, 90.4173, -76.5807, 35.7061
6.024, 6, 33.1402, 53.6741, -9.87295, 90.4085, -76.6063, 35.6987
6.028, 6, 33.1355, 53.6812, -9.86826, 90.3997, -76.6319, 35.6914
6.032, 6, 33.1308, 53.6883, -9.86357, 90.3908, -76.6574, 35.6841
6.036, 6, 33.1261, 53.6954, -9.85889, 90.382, -76.683, 35.6767
6.04, 6, 33.1213, 53.7025, -9.8542, 90.3731, -76.7085, 35.6694
6.044, 6, 33.1166, 53.7096, -9.84952, 90.3643, -76.7341, 35.6621
6.048, 6, 33.1119, 53.7167, -9.84484, 90.3555, -76.7596, 35.6548
6.052, 6, 33.1072, 53.7238, -9.84017, 90.3466, -76.7852, 35.6474
6.056, 6, 33.1024, 53.731, -9.83549, 90.3378, -76.8107, 35.6401
6.06, 6, 33.0977, 53.7381, -9.83082, 90.3289, -76.8363, 35.6328
