hehonglu123/ABB_Primitive_Study/execution/movec+movel_smooth/curve_exe_v100_z1.csv
timestamp, cmd_num, J1, J2, J3, J4, J5, J6
0, 1, 32.7465, 54.2623, -9.50115, 89.6875, -78.664, 35.1143
0.002, 1, 32.7465, 54.2623, -9.50115, 89.6875, -78.664, 35.1143
0.004, 1, 32.7465, 54.2623, -9.50115, 89.6875, -78.664, 35.1143
0.01, 1, 32.7465, 54.2623, -9.50115, 89.6875, -78.664, 35.1143
0.012, 1, 32.7465, 54.2623, -9.50115, 89.6875, -78.664, 35.1143
0.016, 1, 32.7465, 54.2623, -9.50115, 89.6875, -78.664, 35.1143
0.02, 1, 32.7465, 54.2623, -9.50115, 89.6875, -78.664, 35.1143
0.024, 1, 32.7465, 54.2623, -9.50115, 89.6875, -78.664, 35.1143
0.028, 1, 32.7465, 54.2623, -9.50115, 89.6875, -78.664, 35.1143
0.032, 1, 32.7465, 54.2623, -9.50115, 89.6875, -78.664, 35.1143
0.036, 1, 32.7465, 54.2623, -9.50115, 89.6875, -78.664, 35.1143
0.04, 1, 32.7466, 54.2623, -9.50115, 89.6875, -78.664, 35.1143
0.044, 1, 32.7467, 54.2621, -9.50116, 89.6875, -78.664, 35.1143
0.048, 1, 32.7471, 54.2618, -9.50116, 89.6875, -78.6639, 35.1143
0.052, 1, 32.7479, 54.2611, -9.50118, 89.6876, -78.6638, 35.1144
0.056, 1, 32.7491, 54.2598, -9.50124, 89.6877, -78.6634, 35.1145
0.06, 1, 32.7507, 54.2577, -9.50136, 89.6879, -78.6626, 35.1147
0.064, 1, 32.7529, 54.2547, -9.50159, 89.6883, -78.6611, 35.1152
0.068, 1, 32.7556, 54.2507, -9.502, 89.689, -78.6586, 35.1161
0.072, 1, 32.7588, 54.2455, -9.50267, 89.6902, -78.6545, 35.1174
0.076, 1, 32.7625, 54.2391, -9.5037, 89.692, -78.6482, 35.1195
0.08, 1, 32.7668, 54.2314, -9.50521, 89.6946, -78.6391, 35.1225
0.084, 1, 32.7718, 54.2224, -9.50734, 89.6982, -78.6262, 35.1267
0.088, 1, 32.7776, 54.212, -9.51024, 89.7032, -78.6088, 35.1325
0.092, 1, 32.784, 54.2002, -9.5141, 89.7098, -78.5857, 35.1401
0.096, 1, 32.7912, 54.1873, -9.51908, 89.7183, -78.5559, 35.1499
0.1, 1, 32.7988, 54.1733, -9.52538, 89.729, -78.5183, 35.1622
0.104, 1, 32.8067, 54.1585, -9.53315, 89.7422, -78.472, 35.1774
0.108, 1, 32.815, 54.143, -9.54252, 89.7581, -78.4163, 35.1957
0.112, 1, 32.8235, 54.1267, -9.55357, 89.7769, -78.3507, 35.2173
0.116, 1, 32.8324, 54.1096, -9.56636, 89.7986, -78.2748, 35.2423
0.12, 1, 32.8415, 54.0916, -9.58087, 89.8232, -78.1888, 35.2705
0.124, 1, 32.8511, 54.0725, -9.59706, 89.8507, -78.0929, 35.3021
0.128, 1, 32.8611, 54.0525, -9.61485, 89.8808, -77.9875, 35.3367
0.131, 1, 32.8716, 54.0317, -9.63411, 89.9134, -77.8735, 35.3742
0.136, 1, 32.8823, 54.0101, -9.65471, 89.9483, -77.7516, 35.4142
0.139, 1, 32.8932, 53.9877, -9.67648, 89.9852, -77.6227, 35.4566
0.144, 1, 32.9045, 53.9644, -9.69923, 90.0237, -77.4881, 35.5008
0.148, 1, 32.9163, 53.9399, -9.72278, 90.0636, -77.3487, 35.5466
0.152, 1, 32.9288, 53.914, -9.74695, 90.1045, -77.2057, 35.5936
0.156, 1, 32.942, 53.8866, -9.77157, 90.1462, -77.0599, 35.6415
0.16, 1, 32.9561, 53.8575, -9.79651, 90.1885, -76.9123, 35.6901
0.164, 1, 32.9711, 53.8271, -9.82165, 90.231, -76.7634, 35.739
0.168, 1, 32.9869, 53.7955, -9.84692, 90.2739, -76.6137, 35.7882
0.172, 1, 33.0032, 53.7631, -9.87226, 90.3168, -76.4636, 35.8375
0.176, 1, 33.02, 53.7302, -9.89762, 90.3598, -76.3133, 35.8869
0.18, 1, 33.037, 53.6969, -9.92299, 90.4028, -76.163, 35.9363
0.184, 1, 33.0541, 53.6634, -9.94833, 90.4457, -76.0128, 35.9857
0.188, 1, 33.0714, 53.6298, -9.97365, 90.4886, -75.8628, 36.035
0.192, 1, 33.0888, 53.5962, -9.99894, 90.5315, -75.713, 36.0842
0.196, 1, 33.1061, 53.5625, -10.0242, 90.5743, -75.5634, 36.1334
0.2, 1, 33.1235, 53.5289, -10.0494, 90.617, -75.4141, 36.1825
0.204, 1, 33.1409, 53.4952, -10.0745, 90.6596, -75.265, 36.2315
0.208, 1, 33.1582, 53.4616, -10.0996, 90.7021, -75.1163, 36.2804
0.212, 1, 33.1755, 53.4281, -10.1247, 90.7446, -74.9678, 36.3292
0.216, 1, 33.1928, 53.3946, -10.1497, 90.787, -74.8197, 36.3779
0.22, 1, 33.2101, 53.3612, -10.1746, 90.8292, -74.6718, 36.4265
0.224, 1, 33.2273, 53.3278, -10.1995, 90.8714, -74.5242, 36.475
0.228, 1, 33.2446, 53.2945, -10.2244, 90.9136, -74.377, 36.5234
0.232, 1, 33.2617, 53.2613, -10.2492, 90.9556, -74.23, 36.5717
0.236, 1, 33.2789, 53.2282, -10.2739, 90.9975, -74.0834, 36.6199
0.24, 1, 33.296, 53.1951, -10.2986, 91.0394, -73.937, 36.668
0.244, 1, 33.313, 53.162, -10.3233, 91.0812, -73.7909, 36.716
0.248, 1, 33.3301, 53.1291, -10.3479, 91.1229, -73.6451, 36.7639
0.252, 1, 33.3471, 53.0962, -10.3724, 91.1645, -73.4996, 36.8117
0.256, 1, 33.364, 53.0633, -10.3969, 91.206, -73.3544, 36.8595
0.26, 1, 33.381, 53.0306, -10.4214, 91.2474, -73.2095, 36.9071
0.264, 1, 33.3979, 52.9979, -10.4458, 91.2888, -73.0649, 36.9546
0.268, 1, 33.4147, 52.9652, -10.4701, 91.3301, -72.9206, 37.0021
0.272, 1, 33.4316, 52.9327, -10.4944, 91.3713, -72.7765, 37.0494
0.276, 1, 33.4484, 52.9002, -10.5187, 91.4124, -72.6327, 37.0967
0.28, 1, 33.4651, 52.8677, -10.5429, 91.4534, -72.4893, 37.1438
0.284, 1, 33.4819, 52.8353, -10.5671, 91.4944, -72.346, 37.1909
0.288, 1, 33.4986, 52.803, -10.5912, 91.5353, -72.2031, 37.2379
0.292, 1, 33.5152, 52.7708, -10.6153, 91.5761, -72.0604, 37.2848
0.296, 1, 33.5319, 52.7386, -10.6393, 91.6168, -71.9181, 37.3316
0.3, 1, 33.5485, 52.7065, -10.6633, 91.6574, -71.776, 37.3783
0.304, 1, 33.5651, 52.6744, -10.6872, 91.698, -71.6341, 37.4249
0.308, 1, 33.5816, 52.6424, -10.7111, 91.7385, -71.4925, 37.4714
0.312, 1, 33.5981, 52.6104, -10.7349, 91.7789, -71.3513, 37.5179
0.316, 1, 33.6146, 52.5785, -10.7587, 91.8192, -71.2102, 37.5642
0.32, 1, 33.631, 52.5467, -10.7825, 91.8595, -71.0695, 37.6105
0.324, 1, 33.6474, 52.5149, -10.8062, 91.8997, -70.929, 37.6567
0.328, 1, 33.6638, 52.4832, -10.8299, 91.9398, -70.7887, 37.7028
0.332, 1, 33.6802, 52.4516, -10.8535, 91.9798, -70.6488, 37.7488
0.336, 1, 33.6965, 52.42, -10.8771, 92.0198, -70.509, 37.7947
0.34, 1, 33.7128, 52.3885, -10.9006, 92.0597, -70.3696, 37.8405
0.344, 1, 33.7291, 52.357, -10.9241, 92.0995, -70.2304, 37.8863
0.348, 1, 33.7453, 52.3256, -10.9475, 92.1392, -70.0914, 37.9319
0.352, 1, 33.7615, 52.2942, -10.9709, 92.1789, -69.9528, 37.9775
0.356, 1, 33.7777, 52.2629, -10.9943, 92.2185, -69.8143, 38.023
0.36, 1, 33.7938, 52.2317, -11.0176, 92.258, -69.6762, 38.0685
0.364, 1, 33.8099, 52.2005, -11.0409, 92.2974, -69.5382, 38.1138
0.368, 1, 33.826, 52.1694, -11.0641, 92.3368, -69.4006, 38.159
0.372, 1, 33.8421, 52.1383, -11.0873, 92.3761, -69.2631, 38.2042
0.376, 1, 33.8581, 52.1073, -11.1104, 92.4153, -69.126, 38.2493
0.38, 1, 33.8741, 52.0763, -11.1336, 92.4545, -68.989, 38.2943
0.384, 1, 33.8901, 52.0454, -11.1566, 92.4936, -68.8523, 38.3392
0.388, 1, 33.906, 52.0146, -11.1796, 92.5326, -68.7159, 38.3841
0.392, 1, 33.9219, 51.9838, -11.2026, 92.5716, -68.5797, 38.4288
0.396, 1, 33.9378, 51.953, -11.2256, 92.6104, -68.4437, 38.4735
0.4, 1, 33.9537, 51.9224, -11.2485, 92.6493, -68.308, 38.5181
0.404, 1, 33.9695, 51.8917, -11.2713, 92.688, -68.1725, 38.5627
0.408, 1, 33.9853, 51.8611, -11.2942, 92.7267, -68.0373, 38.6071
0.412, 1, 34.0011, 51.8306, -11.3169, 92.7653, -67.9023, 38.6515
0.416, 1, 34.0168, 51.8002, -11.3397, 92.8038, -67.7675, 38.6958
0.42, 1, 34.0326, 51.7697, -11.3624, 92.8423, -67.633, 38.74
0.424, 1, 34.0483, 51.7394, -11.385, 92.8807, -67.4987, 38.7842
0.428, 1, 34.0639, 51.7091, -11.4077, 92.9191, -67.3646, 38.8282
0.432, 1, 34.0796, 51.6788, -11.4302, 92.9574, -67.2307, 38.8722
0.436, 1, 34.0952, 51.6486, -11.4528, 92.9956, -67.0971, 38.9161
0.44, 1, 34.1108, 51.6184, -11.4753, 93.0337, -66.9637, 38.96
0.444, 1, 34.1263, 51.5883, -11.4978, 93.0718, -66.8306, 39.0038
0.448, 1, 34.1418, 51.5583, -11.5202, 93.1098, -66.6976, 39.0474
0.452, 1, 34.1573, 51.5282, -11.5426, 93.1478, -66.5649, 39.0911
0.456, 1, 34.1728, 51.4983, -11.565, 93.1857, -66.4324, 39.1346
0.46, 1, 34.1883, 51.4684, -11.5873, 93.2235, -66.3002, 39.1781
0.464, 1, 34.2037, 51.4385, -11.6096, 93.2613, -66.1681, 39.2215
0.468, 1, 34.2191, 51.4087, -11.6318, 93.299, -66.0363, 39.2648
0.472, 1, 34.2345, 51.379, -11.654, 93.3366, -65.9047, 39.3081
0.476, 1, 34.2498, 51.3493, -11.6762, 93.3742, -65.7733, 39.3513
0.48, 1, 34.2652, 51.3196, -11.6983, 93.4117, -65.6421, 39.3944
0.484, 1, 34.2805, 51.29, -11.7204, 93.4492, -65.5111, 39.4374
0.488, 1, 34.2957, 51.2604, -11.7425, 93.4865, -65.3804, 39.4804
0.492, 1, 34.311, 51.2309, -11.7645, 93.5239, -65.2498, 39.5233
0.496, 1, 34.3262, 51.2014, -11.7865, 93.5611, -65.1195, 39.5662
0.5, 1, 34.3414, 51.172, -11.8085, 93.5984, -64.9894, 39.6089
0.504, 1, 34.3566, 51.1426, -11.8304, 93.6355, -64.8595, 39.6516
0.508, 1, 34.3718, 51.1133, -11.8523, 93.6726, -64.7298, 39.6943
0.512, 1, 34.3869, 51.084, -11.8741, 93.7096, -64.6003, 39.7368
0.516, 1, 34.402, 51.0548, -11.8959, 93.7466, -64.471, 39.7793
0.52, 1, 34.4171, 51.0256, -11.9177, 93.7835, -64.3419, 39.8217
0.524, 1, 34.4321, 50.9965, -11.9395, 93.8204, -64.213, 39.8641
0.528, 1, 34.4472, 50.9674, -11.9612, 93.8572, -64.0844, 39.9064
0.532, 1, 34.4622, 50.9384, -11.9828, 93.8939, -63.9559, 39.9486
0.536, 1, 34.4771, 50.9094, -12.0045, 93.9306, -63.8276, 39.9908
0.54, 1, 34.4921, 50.8804, -12.0261, 93.9672, -63.6996, 40.0329
0.544, 1, 34.507, 50.8515, -12.0477, 94.0038, -63.5717, 40.0749
0.548, 1, 34.522, 50.8226, -12.0692, 94.0403, -63.444, 40.1169
0.552, 1, 34.5369, 50.7938, -12.0907, 94.0768, -63.3166, 40.1588
0.556, 1, 34.5517, 50.765, -12.1122, 94.1132, -63.1893, 40.2006
0.56, 1, 34.5666, 50.7363, -12.1337, 94.1495, -63.0622, 40.2424
0.564, 1, 34.5814, 50.7076, -12.1551, 94.1858, -62.9353, 40.2841
0.568, 1, 34.5962, 50.679, -12.1764, 94.2221, -62.8086, 40.3257
0.572, 1, 34.611, 50.6504, -12.1978, 94.2582, -62.6821, 40.3673
0.576, 1, 34.6257, 50.6218, -12.2191, 94.2943, -62.5558, 40.4088
0.58, 1, 34.6405, 50.5933, -12.2404, 94.3304, -62.4297, 40.4502
0.584, 1, 34.6552, 50.5648, -12.2616, 94.3664, -62.3038, 40.4916
0.588, 1, 34.6699, 50.5364, -12.2828, 94.4024, -62.1781, 40.533
0.592, 1, 34.6845, 50.508, -12.304, 94.4383, -62.0525, 40.5742
0.596, 1, 34.6992, 50.4797, -12.3252, 94.4741, -61.9272, 40.6154
0.6, 1, 34.7138, 50.4514, -12.3463, 94.5099, -61.802, 40.6566
0.604, 1, 34.7284, 50.4231, -12.3674, 94.5457, -61.677, 40.6977
0.608, 1, 34.743, 50.3949, -12.3884, 94.5814, -61.5522, 40.7387
0.612, 1, 34.7575, 50.3667, -12.4095, 94.617, -61.4276, 40.7796
0.616, 1, 34.7721, 50.3386, -12.4305, 94.6526, -61.3032, 40.8205
0.62, 1, 34.7866, 50.3105, -12.4514, 94.6881, -61.1789, 40.8614
0.624, 1, 34.8011, 50.2824, -12.4724, 94.7236, -61.0548, 40.9022
0.628, 1, 34.8155, 50.2544, -12.4933, 94.7591, -60.931, 40.9429
0.632, 1, 34.83, 50.2265, -12.5142, 94.7944, -60.8073, 40.9835
0.636, 1, 34.8444, 50.1985, -12.535, 94.8298, -60.6837, 41.0241
0.64, 1, 34.8588, 50.1707, -12.5558, 94.865, -60.5604, 41.0647
0.644, 1, 34.8732, 50.1428, -12.5766, 94.9003, -60.4372, 41.1052
0.648, 1, 34.8876, 50.115, -12.5973, 94.9354, -60.3142, 41.1456
0.652, 1, 34.9019, 50.0872, -12.6181, 94.9706, -60.1914, 41.1859
0.656, 1, 34.9163, 50.0595, -12.6388, 95.0056, -60.0688, 41.2263
0.66, 1, 34.9306, 50.0318, -12.6594, 95.0407, -59.9463, 41.2665
0.664, 1, 34.9449, 50.0042, -12.6801, 95.0756, -59.824, 41.3067
0.668, 1, 34.9591, 49.9766, -12.7007, 95.1106, -59.7019, 41.3468
0.672, 1, 34.9734, 49.949, -12.7212, 95.1454, -59.58, 41.3869
0.676, 1, 34.9876, 49.9215, -12.7418, 95.1803, -59.4582, 41.427
0.68, 1, 35.0018, 49.894, -12.7623, 95.215, -59.3366, 41.4669
0.684, 1, 35.016, 49.8665, -12.7828, 95.2498, -59.2151, 41.5068
0.688, 1, 35.0301, 49.8391, -12.8033, 95.2844, -59.0939, 41.5467
0.692, 1, 35.0443, 49.8117, -12.8237, 95.3191, -58.9728, 41.5865
0.696, 1, 35.0584, 49.7844, -12.8441, 95.3537, -58.8519, 41.6262
0.7, 1, 35.0725, 49.7571, -12.8645, 95.3882, -58.7311, 41.6659
0.704, 1, 35.0866, 49.7298, -12.8848, 95.4227, -58.6105, 41.7056
0.708, 1, 35.1007, 49.7026, -12.9051, 95.4571, -58.4901, 41.7451
0.712, 1, 35.1147, 49.6754, -12.9254, 95.4915, -58.3698, 41.7847
0.716, 1, 35.1288, 49.6482, -12.9457, 95.5259, -58.2497, 41.8241
0.72, 1, 35.1428, 49.6211, -12.9659, 95.5602, -58.1298, 41.8636
0.724, 1, 35.1568, 49.5941, -12.9862, 95.5944, -58.01, 41.9029
0.728, 1, 35.1707, 49.567, -13.0063, 95.6286, -57.8904, 41.9422
0.732, 1, 35.1847, 49.54, -13.0265, 95.6628, -57.771, 41.9815
0.736, 1, 35.1986, 49.513, -13.0466, 95.6969, -57.6517, 42.0207
0.74, 1, 35.2125, 49.4861, -13.0667, 95.731, -57.5326, 42.0599
0.744, 1, 35.2264, 49.4592, -13.0868, 95.765, -57.4136, 42.099
0.748, 1, 35.2403, 49.4324, -13.1068, 95.799, -57.2948, 42.138
0.752, 1, 35.2542, 49.4055, -13.1269, 95.8329, -57.1762, 42.177
0.756, 1, 35.268, 49.3787, -13.1468, 95.8668, -57.0577, 42.2159
0.76, 1, 35.2818, 49.352, -13.1668, 95.9006, -56.9394, 42.2548
0.764, 1, 35.2956, 49.3253, -13.1868, 95.9344, -56.8212, 42.2937
0.768, 1, 35.3094, 49.2986, -13.2067, 95.9682, -56.7032, 42.3325
0.772, 1, 35.3232, 49.272, -13.2266, 96.0019, -56.5854, 42.3712
0.776, 1, 35.3369, 49.2453, -13.2464, 96.0355, -56.4676, 42.4099
0.78, 1, 35.3507, 49.2188, -13.2663, 96.0692, -56.3501, 42.4485
0.784, 1, 35.3644, 49.1922, -13.2861, 96.1027, -56.2327, 42.4871
0.788, 1, 35.3781, 49.1657, -13.3058, 96.1363, -56.1155, 42.5257
0.792, 1, 35.3917, 49.1392, -13.3256, 96.1698, -55.9984, 42.5641
0.796, 1, 35.4054, 49.1128, -13.3453, 96.2032, -55.8814, 42.6026
0.8, 1, 35.4191, 49.0864, -13.365, 96.2366, -55.7646, 42.641
0.804, 1, 35.4327, 49.06, -13.3847, 96.27, -55.648, 42.6793
0.808, 1, 35.4463, 49.0337, -13.4044, 96.3033, -55.5315, 42.7176
0.812, 1, 35.4599, 49.0074, -13.424, 96.3365, -55.4151, 42.7558
0.816, 1, 35.4734, 48.9811, -13.4436, 96.3698, -55.2989, 42.794
0.82, 1, 35.487, 48.9549, -13.4632, 96.403, -55.1829, 42.8322
0.824, 1, 35.5005, 48.9287, -13.4828, 96.4361, -55.067, 42.8703
0.828, 1, 35.5141, 48.9025, -13.5023, 96.4692, -54.9512, 42.9083
0.832, 1, 35.5276, 48.8764, -13.5218, 96.5023, -54.8356, 42.9463
0.836, 1, 35.5411, 48.8503, -13.5413, 96.5353, -54.7201, 42.9843
0.84, 1, 35.5545, 48.8242, -13.5608, 96.5683, -54.6048, 43.0222
0.844, 1, 35.568, 48.7981, -13.5802, 96.6012, -54.4896, 43.06
0.848, 1, 35.5814, 48.7721, -13.5996, 96.6341, -54.3746, 43.0979
0.852, 1, 35.5949, 48.7461, -13.619, 96.667, -54.2597, 43.1356
0.856, 1, 35.6083, 48.7202, -13.6384, 96.6998, -54.1449, 43.1733
0.86, 1, 35.6216, 48.6943, -13.6577, 96.7326, -54.0303, 43.211
0.864, 1, 35.635, 48.6684, -13.677, 96.7654, -53.9158, 43.2486
0.868, 1, 35.6483, 48.6426, -13.6963, 96.798, -53.8015, 43.2862
0.872, 1, 35.6616, 48.6169, -13.7156, 96.8307, -53.6873, 43.3238
0.876, 1, 35.6747, 48.5912, -13.7348, 96.8633, -53.5732, 43.3612
0.88, 1, 35.6878, 48.5656, -13.754, 96.8959, -53.4594, 43.3987
0.884, 1, 35.7008, 48.5402, -13.7732, 96.9284, -53.3457, 43.436
0.888, 1, 35.7135, 48.515, -13.7924, 96.9608, -53.2323, 43.4733
0.892, 1, 35.726, 48.4902, -13.8115, 96.9932, -53.1192, 43.5105
0.896, 1, 35.738, 48.466, -13.8305, 97.0254, -53.0066, 43.5475
0.9, 1, 35.7494, 48.4426, -13.8494, 97.0574, -52.8946, 43.5843
0.904, 1, 35.7603, 48.4201, -13.8682, 97.0892, -52.7836, 43.6208
0.908, 1, 35.7705, 48.3986, -13.8867, 97.1205, -52.6741, 43.6568
0.912, 1, 35.7802, 48.3781, -13.9049, 97.1513, -52.5665, 43.6922
0.916, 1, 35.7894, 48.3586, -13.9227, 97.1813, -52.4615, 43.7267
0.92, 1, 35.7982, 48.3399, -13.9399, 97.2104, -52.3599, 43.7602
0.924, 1, 35.8067, 48.3221, -13.9564, 97.2383, -52.2624, 43.7923
0.928, 1, 35.8148, 48.3051, -13.9721, 97.2649, -52.1697, 43.8228
0.932, 1, 35.8225, 48.2891, -13.9869, 97.2898, -52.0824, 43.8514
0.936, 1, 35.8299, 48.274, -14.0006, 97.313, -52.0014, 43.8781
0.94, 1, 35.837, 48.2597, -14.0132, 97.3343, -51.927, 43.9026
0.944, 1, 35.8438, 48.2461, -14.0246, 97.3535, -51.8598, 43.9247
0.948, 1, 35.8505, 48.233, -14.0347, 97.3706, -51.8, 43.9443
0.952, 1, 35.8571, 48.2204, -14.0435, 97.3856, -51.7476, 43.9615
0.956, 1, 35.8636, 48.2083, -14.0511, 97.3985, -51.7026, 43.9763
0.96, 1, 35.8699, 48.1968, -14.0574, 97.4093, -51.6646, 43.9888
0.964, 1, 35.8759, 48.1861, -14.0627, 97.4183, -51.633, 43.9991
0.968, 2, 35.8815, 48.1763, -14.067, 97.4257, -51.6074, 44.0075
0.972, 2, 35.8866, 48.1676, -14.0704, 97.4315, -51.5869, 44.0143
0.976, 2, 35.8914, 48.16, -14.073, 97.436, -51.5709, 44.0195
0.98, 2, 35.8957, 48.1533, -14.075, 97.4395, -51.5587, 44.0235
0.984, 2, 35.8997, 48.1475, -14.0765, 97.4421, -51.5496, 44.0264
0.988, 2, 35.9032, 48.1427, -14.0776, 97.444, -51.543, 44.0286
0.992, 2, 35.9062, 48.1387, -14.0784, 97.4453, -51.5382, 44.0302
0.996, 2, 35.9087, 48.1355, -14.0789, 97.4463, -51.5349, 44.0312
1, 2, 35.9106, 48.1332, -14.0793, 97.4469, -51.5327, 44.032
1.004, 2, 35.912, 48.1315, -14.0795, 97.4474, -51.5311, 44.0325
1.008, 2, 35.913, 48.1303, -14.0797, 97.4477, -51.5301, 44.0328
1.012, 2, 35.9137, 48.1295, -14.0798, 97.4479, -51.5293, 44.033
1.016, 2, 35.9142, 48.1289, -14.0799, 97.448, -51.5289, 44.0332
1.02, 2, 35.9145, 48.1286, -14.0799, 97.4481, -51.5285, 44.0333
1.024, 2, 35.9147, 48.1283, -14.08, 97.4482, -51.5283, 44.0334
1.027, 2, 35.9148, 48.1281, -14.08, 97.4482, -51.5282, 44.0334
1.032, 2, 35.9149, 48.128, -14.08, 97.4482, -51.5281, 44.0335
1.036, 2, 35.915, 48.1279, -14.08, 97.4482, -51.528, 44.0335
1.04, 2, 35.915, 48.1279, -14.08, 97.4483, -51.5279, 44.0335
1.044, 2, 35.9151, 48.1279, -14.08, 97.4483, -51.5279, 44.0335
1.048, 2, 35.9151, 48.1278, -14.08, 97.4483, -51.5279, 44.0335
1.052, 2, 35.9151, 48.1278, -14.08, 97.4483, -51.5279, 44.0335
1.055, 2, 35.9151, 48.1278, -14.08, 97.4483, -51.5279, 44.0335
1.06, 2, 35.9151, 48.1278, -14.08, 97.4483, -51.5279, 44.0335
1.064, 2, 35.9151, 48.1278, -14.08, 97.4483, -51.5279, 44.0335
1.068, 2, 35.9151, 48.1278, -14.08, 97.4483, -51.5278, 44.0335
1.072, 2, 35.9151, 48.1278, -14.08, 97.4483, -51.5278, 44.0335
1.076, 2, 35.9151, 48.1278, -14.08, 97.4483, -51.5278, 44.0335
1.08, 2, 35.9151, 48.1278, -14.08, 97.4483, -51.5278, 44.0335
1.084, 2, 35.9151, 48.1278, -14.08, 97.4483, -51.5278, 44.0335
1.088, 2, 35.9151, 48.1278, -14.08, 97.4483, -51.5278, 44.0335
1.091, 2, 35.9151, 48.1278, -14.08, 97.4483, -51.5278, 44.0335
1.096, 2, 35.9151, 48.1278, -14.08, 97.4483, -51.5278, 44.0335
1.1, 2, 35.9151, 48.1278, -14.08, 97.4483, -51.5278, 44.0335
1.104, 2, 35.9151, 48.1278, -14.08, 97.4483, -51.5278, 44.0335
1.108, 2, 35.9151, 48.1278, -14.08, 97.4483, -51.5278, 44.0335
1.112, 2, 35.9151, 48.1278, -14.08, 97.4483, -51.5278, 44.0335
1.116, 2, 35.9151, 48.1278, -14.08, 97.4483, -51.5278, 44.0335
1.119, 2, 35.9151, 48.1278, -14.08, 97.4483, -51.5278, 44.0335
1.124, 2, 35.9151, 48.1278, -14.08, 97.4483, -51.5278, 44.0335
1.128, 2, 35.9151, 48.1278, -14.08, 97.4483, -51.5278, 44.0335
1.132, 2, 35.9151, 48.1278, -14.08, 97.4483, -51.5278, 44.0335
1.136, 2, 35.9151, 48.1278, -14.08, 97.4483, -51.5278, 44.0335
1.14, 2, 35.9151, 48.1278, -14.08, 97.4483, -51.5278, 44.0335
1.144, 2, 35.9151, 48.1278, -14.08, 97.4483, -51.5278, 44.0335
1.147, 2, 35.9151, 48.1278, -14.08, 97.4483, -51.5278, 44.0335
1.152, 2, 35.9151, 48.1278, -14.08, 97.4483, -51.5278, 44.0335
1.156, 2, 35.9151, 48.1278, -14.08, 97.4483, -51.5278, 44.0335
1.16, 2, 35.9151, 48.1278, -14.08, 97.4483, -51.5278, 44.0335
1.164, 2, 35.9151, 48.1278, -14.08, 97.4483, -51.5278, 44.0335
1.168, 2, 35.9151, 48.1278, -14.08, 97.4483, -51.5278, 44.0335
1.172, 2, 35.9151, 48.1278, -14.08, 97.4483, -51.5278, 44.0335
1.175, 2, 35.9151, 48.1278, -14.08, 97.4483, -51.5278, 44.0335
1.18, 2, 35.9151, 48.1278, -14.08, 97.4483, -51.5278, 44.0335
1.184, 2, 35.9151, 48.1278, -14.08, 97.4483, -51.5278, 44.0335
1.188, 2, 35.9151, 48.1278, -14.08, 97.4483, -51.5278, 44.0335
1.192, 2, 35.9151, 48.1278, -14.08, 97.4483, -51.5278, 44.0335
1.196, 2, 35.9151, 48.1278, -14.08, 97.4483, -51.5278, 44.0335
1.2, 2, 35.9151, 48.1278, -14.08, 97.4483, -51.5278, 44.0335
1.204, 2, 35.9151, 48.1278, -14.08, 97.4483, -51.5278, 44.0335
1.208, 2, 35.9151, 48.1278, -14.08, 97.4483, -51.5278, 44.0335
1.212, 2, 35.9151, 48.1278, -14.08, 97.4483, -51.5278, 44.0335
1.216, 2, 35.9151, 48.1278, -14.08, 97.4483, -51.5278, 44.0335
1.22, 2, 35.9151, 48.1278, -14.08, 97.4483, -51.5278, 44.0335
1.224, 2, 35.9151, 48.1278, -14.08, 97.4483, -51.5278, 44.0335
1.228, 2, 35.9151, 48.1278, -14.08, 97.4483, -51.5278, 44.0335
1.232, 2, 35.9151, 48.1278, -14.08, 97.4483, -51.5278, 44.0335
1.236, 2, 35.9151, 48.1278, -14.08, 97.4483, -51.5278, 44.0335
1.24, 2, 35.9151, 48.1278, -14.08, 97.4483, -51.5278, 44.0335
1.244, 2, 35.9151, 48.1278, -14.08, 97.4483, -51.5278, 44.0335
1.248, 2, 35.9151, 48.1278, -14.08, 97.4483, -51.5278, 44.0335
1.252, 2, 35.9151, 48.1278, -14.08, 97.4483, -51.5278, 44.0335
1.256, 2, 35.9151, 48.1278, -14.08, 97.4483, -51.5278, 44.0335
1.26, 2, 35.9151, 48.1278, -14.08, 97.4483, -51.5278, 44.0335
1.264, 2, 35.9151, 48.1278, -14.08, 97.4483, -51.5278, 44.0335
1.267, 2, 35.9151, 48.1278, -14.08, 97.4483, -51.5278, 44.0335
1.272, 2, 35.9151, 48.1278, -14.08, 97.4483, -51.5278, 44.0335
1.276, 2, 35.9151, 48.1278, -14.08, 97.4483, -51.5278, 44.0335
1.28, 2, 35.9151, 48.1278, -14.08, 97.4483, -51.5278, 44.0335
1.284, 2, 35.9151, 48.1278, -14.08, 97.4483, -51.5278, 44.0335
1.288, 2, 35.9151, 48.1278, -14.08, 97.4483, -51.5278, 44.0335
1.292, 2, 35.9151, 48.1278, -14.08, 97.4483, -51.5278, 44.0335
1.295, 2, 35.9151, 48.1278, -14.08, 97.4483, -51.5278, 44.0335
1.3, 2, 35.9151, 48.1278, -14.08, 97.4483, -51.5278, 44.0335
1.304, 2, 35.9151, 48.1278, -14.08, 97.4483, -51.5278, 44.0335
1.308, 2, 35.9151, 48.1278, -14.08, 97.4483, -51.5278, 44.0335
1.312, 2, 35.9151, 48.1278, -14.08, 97.4483, -51.5278, 44.0335
1.316, 2, 35.9151, 48.1278, -14.08, 97.4483, -51.5278, 44.0335
1.32, 2, 35.9151, 48.1278, -14.08, 97.4483, -51.5278, 44.0335
1.324, 2, 35.9151, 48.1278, -14.08, 97.4483, -51.5278, 44.0335
1.328, 2, 35.9151, 48.1278, -14.08, 97.4483, -51.5278, 44.0335
1.332, 2, 35.9151, 48.1278, -14.08, 97.4483, -51.5278, 44.0335
1.336, 2, 35.9151, 48.1278, -14.08, 97.4483, -51.5278, 44.0335
1.34, 2, 35.9151, 48.1278, -14.08, 97.4483, -51.5278, 44.0335
1.344, 2, 35.9151, 48.1278, -14.08, 97.4483, -51.5278, 44.0335
1.348, 2, 35.9151, 48.1278, -14.08, 97.4483, -51.5278, 44.0335
1.352, 2, 35.9151, 48.1278, -14.08, 97.4483, -51.5278, 44.0335
1.356, 2, 35.9151, 48.1278, -14.08, 97.4483, -51.5278, 44.0335
1.36, 2, 35.9151, 48.1278, -14.08, 97.4483, -51.5278, 44.0335
1.364, 2, 35.9151, 48.1278, -14.08, 97.4483, -51.5278, 44.0335
1.368, 2, 35.9151, 48.1278, -14.08, 97.4483, -51.5278, 44.0335
1.372, 2, 35.9151, 48.1278, -14.08, 97.4483, -51.5278, 44.0335
1.376, 2, 35.9151, 48.1278, -14.08, 97.4483, -51.5278, 44.0335
1.38, 2, 35.9151, 48.1278, -14.08, 97.4483, -51.5278, 44.0335
1.384, 2, 35.9151, 48.1278, -14.08, 97.4483, -51.5278, 44.0335
1.388, 2, 35.9151, 48.1278, -14.08, 97.4483, -51.5278, 44.0335
1.392, 2, 35.9151, 48.1278, -14.08, 97.4483, -51.5278, 44.0335
1.396, 2, 35.9151, 48.1278, -14.08, 97.4483, -51.5278, 44.0335
1.4, 2, 35.9151, 48.1278, -14.08, 97.4483, -51.5278, 44.0335
1.404, 2, 35.9151, 48.1278, -14.08, 97.4483, -51.5278, 44.0335
1.408, 2, 35.9151, 48.1278, -14.08, 97.4483, -51.5278, 44.0335
1.412, 2, 35.9151, 48.1278, -14.08, 97.4483, -51.5278, 44.0335
1.416, 2, 35.9151, 48.1278, -14.08, 97.4483, -51.5278, 44.0335
1.42, 2, 35.9151, 48.1278, -14.08, 97.4483, -51.5278, 44.0335
1.424, 2, 35.9151, 48.1278, -14.08, 97.4483, -51.5278, 44.0335
1.428, 2, 35.9151, 48.1278, -14.08, 97.4483, -51.5278, 44.0335
1.432, 2, 35.9151, 48.1278, -14.08, 97.4483, -51.5278, 44.0335
1.436, 2, 35.9151, 48.1278, -14.08, 97.4483, -51.5278, 44.0335
1.44, 2, 35.9151, 48.1278, -14.08, 97.4483, -51.5278, 44.0335
1.444, 2, 35.9151, 48.1278, -14.08, 97.4483, -51.5278, 44.0335
1.448, 2, 35.9151, 48.1278, -14.08, 97.4483, -51.5278, 44.0335
1.452, 2, 35.9151, 48.1278, -14.08, 97.4483, -51.5278, 44.0335
1.456, 2, 35.9151, 48.1278, -14.08, 97.4483, -51.5278, 44.0335
1.46, 2, 35.9151, 48.1278, -14.08, 97.4483, -51.5278, 44.0335
1.464, 2, 35.9151, 48.1278, -14.08, 97.4483, -51.5278, 44.0335
1.468, 2, 35.9151, 48.1278, -14.08, 97.4483, -51.5278, 44.0335
1.472, 2, 35.9151, 48.1278, -14.08, 97.4483, -51.5278, 44.0335
1.476, 2, 35.9151, 48.1278, -14.08, 97.4483, -51.5278, 44.0335
1.48, 2, 35.9151, 48.1278, -14.08, 97.4483, -51.5278, 44.0335
1.484, 2, 35.9151, 48.1278, -14.08, 97.4483, -51.5278, 44.0335
1.488, 2, 35.9151, 48.1278, -14.08, 97.4483, -51.5278, 44.0335
1.492, 2, 35.9151, 48.1278, -14.08, 97.4483, -51.5278, 44.0335
1.496, 2, 35.9151, 48.1278, -14.08, 97.4483, -51.5278, 44.0335
1.5, 2, 35.9151, 48.1278, -14.08, 97.4483, -51.5278, 44.0335
1.504, 2, 35.9151, 48.1278, -14.08, 97.4483, -51.5278, 44.0335
1.508, 2, 35.9151, 48.1278, -14.08, 97.4483, -51.5278, 44.0335
1.512, 2, 35.9151, 48.1278, -14.08, 97.4483, -51.5278, 44.0335
1.516, 2, 35.9151, 48.1278, -14.08, 97.4483, -51.5278, 44.0335
1.52, 2, 35.9151, 48.1278, -14.08, 97.4483, -51.5278, 44.0335
1.524, 2, 35.9151, 48.1278, -14.08, 97.4483, -51.5278, 44.0335
1.528, 2, 35.9151, 48.1278, -14.08, 97.4483, -51.5278, 44.0335
1.532, 2, 35.9151, 48.1278, -14.08, 97.4483, -51.5278, 44.0335
1.536, 2, 35.9151, 48.1278, -14.08, 97.4483, -51.5278, 44.0335
1.54, 2, 35.9151, 48.1278, -14.08, 97.4483, -51.5278, 44.0335
1.544, 2, 35.9151, 48.1278, -14.08, 97.4483, -51.5278, 44.0335
1.548, 2, 35.9151, 48.1278, -14.08, 97.4483, -51.5278, 44.0335
1.552, 2, 35.9151, 48.1278, -14.08, 97.4483, -51.5278, 44.0335
1.556, 2, 35.9151, 48.1278, -14.08, 97.4483, -51.5278, 44.0335
1.56, 2, 35.9151, 48.1278, -14.08, 97.4483, -51.5278, 44.0335
1.564, 2, 35.9151, 48.1278, -14.08, 97.4483, -51.5278, 44.0335
1.568, 2, 35.9151, 48.1278, -14.08, 97.4483, -51.5278, 44.0335
1.572, 2, 35.9151, 48.1278, -14.08, 97.4483, -51.5278, 44.0335
1.576, 2, 35.9151, 48.1278, -14.08, 97.4483, -51.5278, 44.0335
1.58, 2, 35.9151, 48.1278, -14.08, 97.4483, -51.5278, 44.0335
1.584, 2, 35.9151, 48.1278, -14.08, 97.4483, -51.5278, 44.0335
1.588, 2, 35.9151, 48.1278, -14.08, 97.4483, -51.5278, 44.0335
1.592, 2, 35.9151, 48.1278, -14.08, 97.4483, -51.5278, 44.0335
1.596, 2, 35.9151, 48.1278, -14.08, 97.4483, -51.5278, 44.0335
1.6, 2, 35.9151, 48.1278, -14.08, 97.4483, -51.5278, 44.0335
1.604, 2, 35.9151, 48.1278, -14.08, 97.4483, -51.5278, 44.0335
1.608, 2, 35.9151, 48.1278, -14.08, 97.4483, -51.5278, 44.0335
1.612, 2, 35.9151, 48.1278, -14.08, 97.4483, -51.5278, 44.0335
1.616, 2, 35.9151, 48.1278, -14.08, 97.4483, -51.5278, 44.0335
1.62, 2, 35.9151, 48.1278, -14.08, 97.4483, -51.5278, 44.0335
1.624, 2, 35.9151, 48.1278, -14.08, 97.4483, -51.5278, 44.0335
1.628, 2, 35.9151, 48.1278, -14.08, 97.4483, -51.5278, 44.0335
1.632, 2, 35.9151, 48.1278, -14.08, 97.4483, -51.5278, 44.0335
1.636, 2, 35.9151, 48.1278, -14.08, 97.4483, -51.5278, 44.0335
1.64, 2, 35.9151, 48.1278, -14.08, 97.4483, -51.5278, 44.0335
1.644, 2, 35.9151, 48.1278, -14.08, 97.4483, -51.5278, 44.0335
1.648, 2, 35.9151, 48.1278, -14.08, 97.4483, -51.5278, 44.0335
1.652, 2, 35.9151, 48.1278, -14.08, 97.4483, -51.5278, 44.0335
1.656, 2, 35.9151, 48.1278, -14.08, 97.4483, -51.5278, 44.0335
1.66, 2, 35.9151, 48.1278, -14.08, 97.4483, -51.5278, 44.0335
1.664, 2, 35.9151, 48.1278, -14.08, 97.4483, -51.5278, 44.0335
1.668, 2, 35.9151, 48.1278, -14.08, 97.4483, -51.5278, 44.0335
1.672, 2, 35.9151, 48.1278, -14.08, 97.4483, -51.5278, 44.0335
1.676, 2, 35.9151, 48.1278, -14.08, 97.4483, -51.5278, 44.0335
1.68, 2, 35.9151, 48.1278, -14.08, 97.4483, -51.5278, 44.0335
1.684, 2, 35.9151, 48.1278, -14.08, 97.4483, -51.5278, 44.0335
1.688, 2, 35.9151, 48.1278, -14.08, 97.4483, -51.5278, 44.0335
1.692, 2, 35.9151, 48.1278, -14.08, 97.4483, -51.5278, 44.0335
1.696, 2, 35.9151, 48.1278, -14.08, 97.4483, -51.5278, 44.0335
1.7, 2, 35.9151, 48.1278, -14.08, 97.4483, -51.5278, 44.0335
1.704, 2, 35.9151, 48.1278, -14.08, 97.4483, -51.5278, 44.0335
1.708, 2, 35.9151, 48.1278, -14.08, 97.4483, -51.5278, 44.0335
1.712, 2, 35.9151, 48.1278, -14.08, 97.4483, -51.5278, 44.0335
1.716, 2, 35.9151, 48.1278, -14.08, 97.4483, -51.5278, 44.0335
1.72, 2, 35.9151, 48.1278, -14.08, 97.4483, -51.5278, 44.0335
1.724, 2, 35.9151, 48.1278, -14.08, 97.4483, -51.5278, 44.0335
1.728, 2, 35.9151, 48.1278, -14.08, 97.4483, -51.5278, 44.0335
1.732, 2, 35.9151, 48.1278, -14.08, 97.4483, -51.5278, 44.0335
1.736, 2, 35.9151, 48.1278, -14.08, 97.4483, -51.5278, 44.0335
1.74, 2, 35.9151, 48.1278, -14.08, 97.4483, -51.5278, 44.0335
1.744, 2, 35.9151, 48.1278, -14.08, 97.4483, -51.5278, 44.0335
1.748, 2, 35.9151, 48.1278, -14.08, 97.4483, -51.5278, 44.0335
1.752, 2, 35.9151, 48.1278, -14.08, 97.4483, -51.5278, 44.0335
1.756, 2, 35.9151, 48.1278, -14.08, 97.4483, -51.5278, 44.0335
1.76, 2, 35.9151, 48.1278, -14.08, 97.4483, -51.5278, 44.0335
1.764, 2, 35.9151, 48.1278, -14.08, 97.4483, -51.5278, 44.0335
1.768, 2, 35.9151, 48.1278, -14.08, 97.4483, -51.5278, 44.0335
1.772, 2, 35.9151, 48.1278, -14.08, 97.4483, -51.5278, 44.0335
1.776, 2, 35.9151, 48.1278, -14.08, 97.4483, -51.5278, 44.0335
1.78, 2, 35.9151, 48.1278, -14.08, 97.4483, -51.5278, 44.0335
1.784, 2, 35.9151, 48.1278, -14.08, 97.4483, -51.5278, 44.0335
1.788, 2, 35.9151, 48.1278, -14.08, 97.4483, -51.5278, 44.0335
1.792, 2, 35.9151, 48.1278, -14.08, 97.4483, -51.5278, 44.0335
1.796, 2, 35.9151, 48.1278, -14.08, 97.4483, -51.5278, 44.0335
1.8, 2, 35.9151, 48.1278, -14.08, 97.4483, -51.5278, 44.0335
1.804, 2, 35.9151, 48.1278, -14.08, 97.4483, -51.5278, 44.0335
1.808, 2, 35.9151, 48.1278, -14.08, 97.4483, -51.5278, 44.0335
1.812, 2, 35.9151, 48.1278, -14.08, 97.4483, -51.5278, 44.0335
1.816, 2, 35.9151, 48.1278, -14.08, 97.4483, -51.5278, 44.0335
1.82, 2, 35.9151, 48.1278, -14.08, 97.4483, -51.5278, 44.0335
1.824, 2, 35.9151, 48.1278, -14.08, 97.4483, -51.5278, 44.0335
1.828, 2, 35.9151, 48.1278, -14.08, 97.4483, -51.5278, 44.0335
1.832, 2, 35.9151, 48.1278, -14.08, 97.4483, -51.5278, 44.0335
1.836, 2, 35.9151, 48.1278, -14.08, 97.4483, -51.5278, 44.0335
1.84, 2, 35.9151, 48.1278, -14.08, 97.4483, -51.5278, 44.0335
1.844, 2, 35.9151, 48.1278, -14.08, 97.4483, -51.5278, 44.0335
1.848, 2, 35.9151, 48.1278, -14.08, 97.4483, -51.5278, 44.0335
1.852, 2, 35.9151, 48.1278, -14.08, 97.4483, -51.5278, 44.0335
1.856, 2, 35.9151, 48.1278, -14.08, 97.4483, -51.5278, 44.0335
1.86, 2, 35.9151, 48.1278, -14.08, 97.4483, -51.5278, 44.0335
1.864, 2, 35.9151, 48.1278, -14.08, 97.4483, -51.5278, 44.0335
1.868, 2, 35.9151, 48.1278, -14.08, 97.4483, -51.5278, 44.0335
1.872, 2, 35.9151, 48.1278, -14.08, 97.4483, -51.5278, 44.0335
1.876, 2, 35.9151, 48.1278, -14.08, 97.4483, -51.5278, 44.0335
1.88, 2, 35.9151, 48.1278, -14.08, 97.4483, -51.5278, 44.0335
1.884, 2, 35.9151, 48.1278, -14.08, 97.4483, -51.5278, 44.0335
1.888, 2, 35.9151, 48.1278, -14.08, 97.4483, -51.5278, 44.0335
1.892, 2, 35.9151, 48.1278, -14.08, 97.4483, -51.5278, 44.0335
1.896, 2, 35.9151, 48.1278, -14.08, 97.4483, -51.5278, 44.0335
1.9, 2, 35.9151, 48.1278, -14.08, 97.4483, -51.5278, 44.0335
1.904, 2, 35.9151, 48.1278, -14.08, 97.4483, -51.5278, 44.0335
1.908, 2, 35.9151, 48.1278, -14.08, 97.4483, -51.5278, 44.0335
1.912, 2, 35.9151, 48.1278, -14.08, 97.4483, -51.5278, 44.0335
1.916, 2, 35.9151, 48.1278, -14.08, 97.4483, -51.5278, 44.0335
1.92, 2, 35.9151, 48.1278, -14.08, 97.4483, -51.5278, 44.0335
1.924, 2, 35.9151, 48.1278, -14.08, 97.4483, -51.5278, 44.0335
1.928, 2, 35.9151, 48.1278, -14.08, 97.4483, -51.5278, 44.0335
1.932, 2, 35.9151, 48.1278, -14.08, 97.4483, -51.5278, 44.0335
1.936, 2, 35.9151, 48.1278, -14.08, 97.4483, -51.5278, 44.0335
1.94, 2, 35.9151, 48.1278, -14.08, 97.4483, -51.5278, 44.0335
1.944, 2, 35.9151, 48.1278, -14.08, 97.4483, -51.5278, 44.0335
1.948, 2, 35.9151, 48.1278, -14.08, 97.4483, -51.5278, 44.0335
1.952, 2, 35.9151, 48.1278, -14.08, 97.4483, -51.5278, 44.0335
1.956, 2, 35.9151, 48.1278, -14.08, 97.4483, -51.5278, 44.0335
1.96, 2, 35.9151, 48.1278, -14.08, 97.4483, -51.5278, 44.0335
1.964, 2, 35.9151, 48.1278, -14.08, 97.4483, -51.5278, 44.0335
1.968, 3, 35.9151, 48.1278, -14.08, 97.4483, -51.5278, 44.0335
1.972, 3, 35.9151, 48.1278, -14.08, 97.4483, -51.5278, 44.0335
1.976, 3, 35.9151, 48.1278, -14.08, 97.4483, -51.5278, 44.0335
1.98, 3, 35.9151, 48.1278, -14.08, 97.4483, -51.5278, 44.0335
1.984, 3, 35.9151, 48.1278, -14.08, 97.4483, -51.5278, 44.0335
1.988, 3, 35.9151, 48.1278, -14.08, 97.4483, -51.5278, 44.0335
1.992, 3, 35.9151, 48.1278, -14.08, 97.4483, -51.5278, 44.0335
1.996, 3, 35.9151, 48.1278, -14.08, 97.4483, -51.5278, 44.0335
1.999, 3, 35.9151, 48.1278, -14.08, 97.4483, -51.5278, 44.0335
2.004, 4, 35.9151, 48.1278, -14.08, 97.4483, -51.5278, 44.0335
2.008, 4, 35.9151, 48.1278, -14.08, 97.4483, -51.5278, 44.0335
2.012, 4, 35.9151, 48.1278, -14.08, 97.4483, -51.5278, 44.0335
2.015, 4, 35.9151, 48.1278, -14.08, 97.4483, -51.5278, 44.0335
2.019, 4, 35.9151, 48.1278, -14.08, 97.4483, -51.5278, 44.0335
2.024, 4, 35.9151, 48.1278, -14.08, 97.4483, -51.5278, 44.0335
2.028, 4, 35.9151, 48.1278, -14.08, 97.4483, -51.5278, 44.0335
2.031, 4, 35.9151, 48.1278, -14.08, 97.4483, -51.5278, 44.0335
2.036, 4, 35.9151, 48.1278, -14.08, 97.4483, -51.5278, 44.0335
2.04, 4, 35.9151, 48.1278, -14.08, 97.4483, -51.5278, 44.0335
2.044, 4, 35.9151, 48.1278, -14.08, 97.4483, -51.5278, 44.0335
2.048, 4, 35.9151, 48.1278, -14.08, 97.4483, -51.5278, 44.0335
2.051, 4, 35.9151, 48.1278, -14.08, 97.4483, -51.5278, 44.0335
2.055, 4, 35.9151, 48.1278, -14.08, 97.4483, -51.5278, 44.0335
2.06, 4, 35.9151, 48.1278, -14.08, 97.4483, -51.5278, 44.0335
2.064, 4, 35.9151, 48.1278, -14.08, 97.4483, -51.5278, 44.0335
2.068, 4, 35.9151, 48.1278, -14.08, 97.4483, -51.5278, 44.0335
2.071, 4, 35.9151, 48.1278, -14.08, 97.4483, -51.5278, 44.0335
2.076, 4, 35.9151, 48.1278, -14.08, 97.4483, -51.5278, 44.0335
2.08, 4, 35.9151, 48.1278, -14.08, 97.4483, -51.5278, 44.0335
2.084, 4, 35.9151, 48.1278, -14.08, 97.4483, -51.5278, 44.0335
2.087, 4, 35.9151, 48.1278, -14.08, 97.4483, -51.5278, 44.0335
2.092, 4, 35.9151, 48.1278, -14.08, 97.4483, -51.5278, 44.0335
2.096, 4, 35.9151, 48.1278, -14.08, 97.4483, -51.5278, 44.0335
2.1, 4, 35.9151, 48.1278, -14.08, 97.4483, -51.5278, 44.0335
2.104, 5, 35.9151, 48.1278, -14.08, 97.4483, -51.5278, 44.0335
2.108, 5, 35.9151, 48.1278, -14.08, 97.4483, -51.5278, 44.0335
2.111, 5, 35.9151, 48.1278, -14.08, 97.4483, -51.5278, 44.0335
2.116, 5, 35.9151, 48.1278, -14.08, 97.4483, -51.5278, 44.0335
2.12, 5, 35.9151, 48.1278, -14.08, 97.4483, -51.5278, 44.0335
2.124, 5, 35.9151, 48.1278, -14.08, 97.4483, -51.5278, 44.0335
2.127, 5, 35.9151, 48.1278, -14.08, 97.4483, -51.5278, 44.0335
2.132, 5, 35.9151, 48.1278, -14.08, 97.4483, -51.5278, 44.0335
2.136, 5, 35.9151, 48.1278, -14.08, 97.4483, -51.5278, 44.0335
2.14, 5, 35.9151, 48.1278, -14.08, 97.4483, -51.5278, 44.0335
2.143, 5, 35.915, 48.128, -14.08, 97.4483, -51.5279, 44.0335
2.148, 5, 35.9148, 48.1283, -14.08, 97.4483, -51.5279, 44.0335
2.152, 5, 35.9144, 48.1291, -14.08, 97.4483, -51.528, 44.0334
2.156, 5, 35.9138, 48.1302, -14.08, 97.4482, -51.5284, 44.0333
2.16, 5, 35.9129, 48.1318, -14.0799, 97.4481, -51.5291, 44.033
2.163, 5, 35.9119, 48.1339, -14.0799, 97.4479, -51.5304, 44.0325
2.168, 5, 35.9107, 48.1362, -14.0797, 97.4475, -51.5326, 44.0317
2.172, 5, 35.9096, 48.1388, -14.0796, 97.447, -51.5359, 44.0305
2.176, 5, 35.9085, 48.1415, -14.0793, 97.4462, -51.5405, 44.0287
2.179, 5, 35.9076, 48.1443, -14.079, 97.4451, -51.5468, 44.0263
2.184, 5, 35.9067, 48.1472, -14.0786, 97.4438, -51.555, 44.0232
2.188, 5, 35.9058, 48.1504, -14.0781, 97.4421, -51.565, 44.0193
2.192, 5, 35.905, 48.1539, -14.0775, 97.44, -51.5772, 44.0147
2.196, 5, 35.9043, 48.1576, -14.0768, 97.4376, -51.5914, 44.0093
2.199, 5, 35.9037, 48.1614, -14.076, 97.4348, -51.6077, 44.003
2.204, 5, 35.9032, 48.1654, -14.0751, 97.4317, -51.6261, 43.996
2.208, 5, 35.9029, 48.1694, -14.0741, 97.4283, -51.6462, 43.9883
2.212, 5, 35.9027, 48.1735, -14.073, 97.4246, -51.6681, 43.98
2.216, 5, 35.9025, 48.1779, -14.0719, 97.4206, -51.6913, 43.9711
2.219, 5, 35.9022, 48.1826, -14.0707, 97.4165, -51.7157, 43.9618
2.224, 5, 35.9017, 48.1877, -14.0694, 97.4121, -51.7409, 43.9522
2.228, 5, 35.9011, 48.1933, -14.0681, 97.4077, -51.7668, 43.9423
2.232, 5, 35.9002, 48.1993, -14.0668, 97.4032, -51.7932, 43.9323
2.235, 5, 35.8992, 48.2056, -14.0654, 97.3986, -51.8198, 43.9221
2.24, 5, 35.898, 48.2122, -14.064, 97.394, -51.8466, 43.9119
2.244, 5, 35.8968, 48.219, -14.0626, 97.3893, -51.8736, 43.9017
2.248, 5, 35.8955, 48.2259, -14.0612, 97.3846, -51.9007, 43.8914
2.252, 5, 35.8941, 48.2329, -14.0598, 97.3799, -51.9278, 43.8811
2.255, 5, 35.8928, 48.2399, -14.0583, 97.3752, -51.955, 43.8707
2.259, 5, 35.8914, 48.2469, -14.0569, 97.3705, -51.9822, 43.8604
2.264, 5, 35.89, 48.254, -14.0554, 97.3658, -52.0095, 43.8501
2.268, 5, 35.8885, 48.261, -14.0539, 97.361, -52.0367, 43.8397
2.272, 5, 35.8871, 48.2681, -14.0524, 97.3562, -52.0639, 43.8294
2.275, 5, 35.8857, 48.2752, -14.051, 97.3514, -52.0912, 43.8191
2.28, 5, 35.8842, 48.2823, -14.0494, 97.3467, -52.1184, 43.8087
2.284, 5, 35.8828, 48.2894, -14.0479, 97.3419, -52.1457, 43.7984
2.288, 5, 35.8813, 48.2964, -14.0464, 97.3371, -52.1729, 43.7881
2.291, 5, 35.8799, 48.3035, -14.0449, 97.3322, -52.2002, 43.7778
2.296, 5, 35.8784, 48.3106, -14.0433, 97.3274, -52.2274, 43.7675
2.3, 5, 35.877, 48.3176, -14.0418, 97.3226, -52.2546, 43.7572
2.304, 5, 35.8755, 48.3247, -14.0402, 97.3177, -52.2819, 43.7469
2.308, 5, 35.874, 48.3318, -14.0387, 97.3129, -52.3091, 43.7366
2.311, 5, 35.8726, 48.3388, -14.0371, 97.308, -52.3363, 43.7264
2.316, 5, 35.8711, 48.3459, -14.0355, 97.3031, -52.3635, 43.7161
2.32, 5, 35.8696, 48.3529, -14.0339, 97.2982, -52.3908, 43.7058
2.324, 5, 35.8681, 48.3599, -14.0323, 97.2933, -52.418, 43.6956
2.328, 5, 35.8666, 48.367, -14.0307, 97.2884, -52.4452, 43.6853
2.331, 5, 35.8651, 48.374, -14.0291, 97.2835, -52.4724, 43.6751
2.336, 5, 35.8637, 48.381, -14.0274, 97.2786, -52.4996, 43.6648
2.34, 5, 35.8622, 48.388, -14.0258, 97.2737, -52.5268, 43.6546
2.344, 5, 35.8607, 48.395, -14.0241, 97.2687, -52.554, 43.6444
2.347, 5, 35.8592, 48.402, -14.0225, 97.2638, -52.5812, 43.6341
2.352, 5, 35.8577, 48.409, -14.0208, 97.2588, -52.6084, 43.6239
2.356, 5, 35.8562, 48.416, -14.0191, 97.2538, -52.6356, 43.6137
2.36, 5, 35.8546, 48.423, -14.0174, 97.2489, -52.6628, 43.6035
2.364, 5, 35.8531, 48.43, -14.0157, 97.2439, -52.6899, 43.5933
2.367, 5, 35.8516, 48.437, -14.014, 97.2389, -52.7171, 43.5831
2.372, 5, 35.8501, 48.444, -14.0123, 97.2339, -52.7443, 43.5729
2.376, 5, 35.8486, 48.4509, -14.0106, 97.2289, -52.7715, 43.5627
2.38, 5, 35.847, 48.4579, -14.0088, 97.2238, -52.7986, 43.5526
2.383, 5, 35.8455, 48.4648, -14.0071, 97.2188, -52.8258, 43.5424
2.388, 5, 35.844, 48.4718, -14.0053, 97.2137, -52.8529, 43.5322
2.392, 5, 35.8425, 48.4787, -14.0036, 97.2087, -52.8801, 43.5221
2.396, 5, 35.8409, 48.4857, -14.0018, 97.2036, -52.9073, 43.5119
2.4, 5, 35.8394, 48.4926, -14, 97.1985, -52.9344, 43.5018
2.403, 5, 35.8378, 48.4996, -13.9982, 97.1935, -52.9616, 43.4916
2.408, 5, 35.8363, 48.5065, -13.9964, 97.1884, -52.9887, 43.4815
2.412, 5, 35.8347, 48.5134, -13.9946, 97.1833, -53.0158, 43.4714
2.416, 5, 35.8332, 48.5203, -13.9928, 97.1782, -53.043, 43.4612
2.42, 5, 35.8316, 48.5272, -13.9909, 97.173, -53.0701, 43.4511
2.423, 5, 35.8301, 48.5341, -13.9891, 97.1679, -53.0972, 43.441
2.428, 5, 35.8285, 48.541, -13.9872, 97.1628, -53.1244, 43.4309
2.432, 5, 35.8269, 48.5479, -13.9854, 97.1576, -53.1515, 43.4208
2.436, 5, 35.8254, 48.5548, -13.9835, 97.1525, -53.1786, 43.4107
2.439, 5, 35.8238, 48.5617, -13.9816, 97.1473, -53.2057, 43.4006
2.444, 5, 35.8222, 48.5686, -13.9797, 97.1421, -53.2328, 43.3905
2.448, 5, 35.8206, 48.5755, -13.9778, 97.137, -53.2599, 43.3805
2.452, 5, 35.8191, 48.5823, -13.9759, 97.1318, -53.287, 43.3704
2.456, 5, 35.8175, 48.5892, -13.974, 97.1266, -53.3141, 43.3603
2.459, 5, 35.8159, 48.5961, -13.9721, 97.1213, -53.3412, 43.3503
2.464, 5, 35.8143, 48.6029, -13.9702, 97.1161, -53.3683, 43.3402
2.468, 5, 35.8127, 48.6098, -13.9682, 97.1109, -53.3954, 43.3301
2.472, 5, 35.8111, 48.6166, -13.9663, 97.1057, -53.4225, 43.3201
2.476, 5, 35.8095, 48.6234, -13.9643, 97.1004, -53.4496, 43.3101
2.479, 5, 35.8079, 48.6303, -13.9623, 97.0951, -53.4766, 43.3
2.484, 5, 35.8063, 48.6371, -13.9603, 97.0899, -53.5037, 43.29
2.488, 5, 35.8047, 48.6439, -13.9583, 97.0846, -53.5308, 43.28
2.492, 5, 35.8031, 48.6507, -13.9563, 97.0793, -53.5579, 43.27
2.495, 5, 35.8015, 48.6575, -13.9543, 97.074, -53.5849, 43.2599
2.5, 5, 35.7999, 48.6643, -13.9523, 97.0687, -53.612, 43.2499
2.504, 5, 35.7982, 48.6711, -13.9503, 97.0634, -53.639, 43.2399
2.508, 5, 35.7966, 48.6779, -13.9482, 97.0581, -53.6661, 43.2299
2.512, 5, 35.795, 48.6847, -13.9462, 97.0528, -53.6931, 43.22
2.515, 5, 35.7933, 48.6915, -13.9441, 97.0474, -53.7202, 43.21
2.52, 5, 35.7917, 48.6983, -13.9421, 97.0421, -53.7472, 43.2
2.524, 5, 35.7901, 48.7051, -13.94, 97.0367, -53.7743, 43.19
2.528, 5, 35.7884, 48.7118, -13.9379, 97.0313, -53.8013, 43.18
2.531, 5, 35.7868, 48.7186, -13.9358, 97.026, -53.8283, 43.1701
2.536, 5, 35.7851, 48.7253, -13.9337, 97.0206, -53.8554, 43.1601
2.54, 5, 35.7835, 48.7321, -13.9316, 97.0152, -53.8824, 43.1502
2.544, 5, 35.7818, 48.7388, -13.9294, 97.0098, -53.9094, 43.1402
2.548, 5, 35.7802, 48.7456, -13.9273, 97.0044, -53.9364, 43.1303
2.551, 5, 35.7785, 48.7523, -13.9252, 96.999, -53.9635, 43.1204
2.556, 5, 35.7769, 48.7591, -13.923, 96.9935, -53.9905, 43.1104
2.56, 5, 35.7752, 48.7658, -13.9208, 96.9881, -54.0175, 43.1005
2.564, 5, 35.7735, 48.7725, -13.9187, 96.9827, -54.0445, 43.0906
2.568, 5, 35.7719, 48.7792, -13.9165, 96.9772, -54.0715, 43.0807
2.571, 5, 35.7702, 48.7859, -13.9143, 96.9717, -54.0985, 43.0708
2.576, 5, 35.7685, 48.7926, -13.9121, 96.9663, -54.1255, 43.0608
2.58, 5, 35.7668, 48.7993, -13.9099, 96.9608, -54.1525, 43.0509
2.584, 5, 35.7651, 48.806, -13.9076, 96.9553, -54.1794, 43.0411
2.587, 5, 35.7635, 48.8127, -13.9054, 96.9498, -54.2064, 43.0312
2.592, 5, 35.7618, 48.8194, -13.9032, 96.9443, -54.2334, 43.0213
2.596, 5, 35.7601, 48.826, -13.9009, 96.9388, -54.2604, 43.0114
2.6, 5, 35.7584, 48.8327, -13.8986, 96.9332, -54.2874, 43.0015
2.604, 5, 35.7567, 48.8394, -13.8964, 96.9277, -54.3143, 42.9917
2.607, 5, 35.755, 48.846, -13.8941, 96.9222, -54.3413, 42.9818
2.612, 5, 35.7533, 48.8527, -13.8918, 96.9166, -54.3683, 42.972
2.616, 5, 35.7516, 48.8593, -13.8895, 96.911, -54.3952, 42.9621
2.62, 5, 35.7498, 48.866, -13.8872, 96.9055, -54.4222, 42.9523
2.624, 5, 35.7481, 48.8726, -13.8849, 96.8999, -54.4491, 42.9424
2.627, 5, 35.7464, 48.8793, -13.8825, 96.8943, -54.4761, 42.9326
2.632, 5, 35.7447, 48.8859, -13.8802, 96.8887, -54.503, 42.9227
2.636, 5, 35.743, 48.8925, -13.8778, 96.8831, -54.5299, 42.9129
2.64, 5, 35.7412, 48.8991, -13.8755, 96.8775, -54.5569, 42.9031
2.643, 5, 35.7395, 48.9057, -13.8731, 96.8719, -54.5838, 42.8933
2.648, 5, 35.7378, 48.9123, -13.8707, 96.8662, -54.6107, 42.8835
2.652, 5, 35.736, 48.9189, -13.8683, 96.8606, -54.6377, 42.8737
2.656, 5, 35.7343, 48.9255, -13.8659, 96.855, -54.6646, 42.8639
2.66, 5, 35.7326, 48.9321, -13.8635, 96.8493, -54.6915, 42.8541
2.663, 5, 35.7308, 48.9387, -13.8611, 96.8436, -54.7184, 42.8443
2.668, 5, 35.7291, 48.9453, -13.8587, 96.838, -54.7453, 42.8345
2.672, 5, 35.7273, 48.9518, -13.8562, 96.8323, -54.7723, 42.8247
2.676, 5, 35.7255, 48.9584, -13.8538, 96.8266, -54.7992, 42.8149
2.679, 5, 35.7238, 48.965, -13.8513, 96.8209, -54.8261, 42.8052
2.684, 5, 35.722, 48.9715, -13.8489, 96.8152, -54.853, 42.7954
2.688, 5, 35.7203, 48.9781, -13.8464, 96.8095, -54.8799, 42.7856
2.692, 5, 35.7185, 48.9846, -13.8439, 96.8037, -54.9067, 42.7759
2.696, 5, 35.7167, 48.9911, -13.8414, 96.798, -54.9336, 42.7661
2.699, 5, 35.7149, 48.9977, -13.8389, 96.7923, -54.9605, 42.7564
2.704, 5, 35.7132, 49.0042, -13.8364, 96.7865, -54.9874, 42.7466
2.708, 5, 35.7114, 49.0107, -13.8339, 96.7808, -55.0143, 42.7369
2.712, 5, 35.7096, 49.0172, -13.8313, 96.775, -55.0411, 42.7271
2.716, 5, 35.7078, 49.0237, -13.8288, 96.7692, -55.068, 42.7174
2.719, 5, 35.706, 49.0302, -13.8262, 96.7635, -55.0949, 42.7077
2.724, 5, 35.7042, 49.0367, -13.8237, 96.7577, -55.1218, 42.698
2.728, 5, 35.7024, 49.0432, -13.8211, 96.7519, -55.1486, 42.6883
2.732, 5, 35.7006, 49.0497, -13.8185, 96.7461, -55.1755, 42.6786
2.735, 5, 35.6988, 49.0562, -13.8159, 96.7402, -55.2023, 42.6688
2.74, 5, 35.697, 49.0627, -13.8133, 96.7344, -55.2292, 42.6591
2.744, 5, 35.6952, 49.0691, -13.8107, 96.7286, -55.256, 42.6495
2.748, 5, 35.6934, 49.0756, -13.8081, 96.7227, -55.2829, 42.6398
2.752, 5, 35.6916, 49.0821, -13.8054, 96.7169, -55.3097, 42.6301
2.755, 5, 35.6898, 49.0885, -13.8028, 96.711, -55.3365, 42.6204
2.76, 5, 35.6879, 49.095, -13.8001, 96.7052, -55.3634, 42.6107
2.764, 5, 35.6861, 49.1014, -13.7975, 96.6993, -55.3902, 42.601
2.768, 5, 35.6843, 49.1078, -13.7948, 96.6934, -55.417, 42.5914
2.772, 5, 35.6825, 49.1143, -13.7921, 96.6875, -55.4438, 42.5817
2.775, 5, 35.6806, 49.1207, -13.7894, 96.6816, -55.4707, 42.5721
2.78, 5, 35.6788, 49.1271, -13.7867, 96.6757, -55.4975, 42.5624
2.784, 5, 35.6769, 49.1335, -13.784, 96.6698, -55.5243, 42.5528
2.788, 5, 35.6751, 49.1399, -13.7813, 96.6639, -55.5511, 42.5431
2.791, 5, 35.6733, 49.1463, -13.7785, 96.6579, -55.5779, 42.5335
2.796, 5, 35.6714, 49.1527, -13.7758, 96.652, -55.6047, 42.5238
2.8, 5, 35.6696, 49.1591, -13.773, 96.6461, -55.6315, 42.5142
2.804, 5, 35.6677, 49.1655, -13.7703, 96.6401, -55.6583, 42.5046
2.808, 5, 35.6658, 49.1719, -13.7675, 96.6341, -55.6851, 42.495
2.811, 5, 35.664, 49.1783, -13.7647, 96.6282, -55.7119, 42.4853
2.816, 5, 35.6621, 49.1846, -13.7619, 96.6222, -55.7387, 42.4757
2.82, 5, 35.6602, 49.191, -13.7591, 96.6162, -55.7654, 42.4661
2.824, 5, 35.6584, 49.1974, -13.7563, 96.6102, -55.7922, 42.4565
2.828, 5, 35.6565, 49.2037, -13.7535, 96.6042, -55.819, 42.4469
2.831, 5, 35.6546, 49.2101, -13.7507, 96.5982, -55.8458, 42.4373
2.836, 5, 35.6527, 49.2164, -13.7478, 96.5922, -55.8725, 42.4277
2.84, 5, 35.6509, 49.2227, -13.745, 96.5861, -55.8993, 42.4181
2.844, 5, 35.649, 49.2291, -13.7421, 96.5801, -55.9261, 42.4086
2.847, 5, 35.6471, 49.2354, -13.7392, 96.574, -55.9528, 42.399
2.852, 5, 35.6452, 49.2417, -13.7364, 96.568, -55.9796, 42.3894
2.856, 5, 35.6433, 49.248, -13.7335, 96.5619, -56.0063, 42.3798
2.86, 5, 35.6414, 49.2543, -13.7306, 96.5559, -56.0331, 42.3703
2.864, 5, 35.6395, 49.2606, -13.7277, 96.5498, -56.0598, 42.3607
2.867, 5, 35.6376, 49.2669, -13.7248, 96.5437, -56.0866, 42.3512
2.872, 5, 35.6357, 49.2732, -13.7218, 96.5376, -56.1133, 42.3416
2.876, 5, 35.6338, 49.2795, -13.7189, 96.5315, -56.14, 42.3321
2.88, 5, 35.6318, 49.2858, -13.7159, 96.5254, -56.1668, 42.3225
2.883, 5, 35.6299, 49.292, -13.713, 96.5193, -56.1935, 42.313
2.888, 5, 35.628, 49.2983, -13.71, 96.5132, -56.2202, 42.3034
2.892, 5, 35.6261, 49.3046, -13.707, 96.507, -56.2469, 42.2939
2.896, 5, 35.6242, 49.3108, -13.7041, 96.5009, -56.2736, 42.2844
2.9, 5, 35.6222, 49.3171, -13.7011, 96.4947, -56.3004, 42.2749
2.903, 5, 35.6203, 49.3233, -13.698, 96.4886, -56.3271, 42.2654
2.908, 5, 35.6184, 49.3296, -13.695, 96.4824, -56.3538, 42.2558
2.912, 5, 35.6164, 49.3358, -13.692, 96.4762, -56.3805, 42.2463
2.916, 5, 35.6145, 49.342, -13.689, 96.47, -56.4072, 42.2368
2.92, 5, 35.6125, 49.3483, -13.6859, 96.4639, -56.4339, 42.2273
2.923, 5, 35.6106, 49.3545, -13.6829, 96.4577, -56.4606, 42.2178
2.928, 5, 35.6086, 49.3607, -13.6798, 96.4515, -56.4873, 42.2083
2.932, 5, 35.6067, 49.3669, -13.6767, 96.4452, -56.5139, 42.1989
2.936, 5, 35.6047, 49.3731, -13.6737, 96.439, -56.5406, 42.1894
2.939, 5, 35.6028, 49.3793, -13.6706, 96.4328, -56.5673, 42.1799
2.944, 5, 35.6008, 49.3855, -13.6675, 96.4266, -56.594, 42.1704
2.948, 5, 35.5988, 49.3916, -13.6643, 96.4203, -56.6207, 42.161
2.952, 5, 35.5969, 49.3978, -13.6612, 96.4141, -56.6473, 42.1515
2.956, 5, 35.5949, 49.404, -13.6581, 96.4078, -56.674, 42.142
2.959, 5, 35.5929, 49.4102, -13.6549, 96.4015, -56.7006, 42.1326
2.964, 5, 35.5909, 49.4163, -13.6518, 96.3953, -56.7273, 42.1231
2.968, 5, 35.5889, 49.4225, -13.6486, 96.389, -56.754, 42.1137
2.972, 5, 35.587, 49.4286, -13.6455, 96.3827, -56.7806, 42.1042
2.976, 5, 35.585, 49.4348, -13.6423, 96.3764, -56.8073, 42.0948
2.98, 5, 35.583, 49.4409, -13.6391, 96.3701, -56.8339, 42.0853
2.984, 5, 35.581, 49.447, -13.6359, 96.3638, -56.8606, 42.0759
2.988, 5, 35.579, 49.4532, -13.6327, 96.3575, -56.8872, 42.0665
2.992, 5, 35.577, 49.4593, -13.6295, 96.3511, -56.9138, 42.0571
2.995, 5, 35.575, 49.4654, -13.6262, 96.3448, -56.9405, 42.0476
3, 5, 35.573, 49.4715, -13.623, 96.3384, -56.9671, 42.0382
3.004, 5, 35.571, 49.4776, -13.6197, 96.3321, -56.9937, 42.0288
3.008, 5, 35.569, 49.4837, -13.6165, 96.3257, -57.0203, 42.0194
3.012, 5, 35.5669, 49.4898, -13.6132, 96.3194, -57.047, 42.01
3.015, 5, 35.5649, 49.4959, -13.6099, 96.313, -57.0736, 42.0006
3.02, 5, 35.5629, 49.502, -13.6066, 96.3066, -57.1002, 41.9912
3.024, 5, 35.5609, 49.508, -13.6034, 96.3002, -57.1268, 41.9818
3.028, 5, 35.5589, 49.5141, -13.6, 96.2938, -57.1534, 41.9724
3.031, 5, 35.5568, 49.5202, -13.5967, 96.2874, -57.18, 41.963
3.036, 5, 35.5548, 49.5262, -13.5934, 96.281, -57.2066, 41.9537
3.04, 5, 35.5527, 49.5323, -13.5901, 96.2746, -57.2332, 41.9443
3.044, 5, 35.5507, 49.5383, -13.5867, 96.2681, -57.2598, 41.9349
3.048, 5, 35.5487, 49.5444, -13.5834, 96.2617, -57.2864, 41.9255
3.051, 5, 35.5466, 49.5504, -13.58, 96.2553, -57.313, 41.9162
3.056, 5, 35.5446, 49.5564, -13.5766, 96.2488, -57.3396, 41.9068
3.06, 5, 35.5425, 49.5624, -13.5732, 96.2423, -57.3661, 41.8974
3.064, 5, 35.5405, 49.5685, -13.5698, 96.2359, -57.3927, 41.8881
3.068, 5, 35.5384, 49.5745, -13.5664, 96.2294, -57.4193, 41.8787
3.071, 5, 35.5363, 49.5805, -13.563, 96.2229, -57.4459, 41.8694
3.076, 5, 35.5343, 49.5865, -13.5596, 96.2164, -57.4724, 41.8601
3.08, 5, 35.5322, 49.5925, -13.5562, 96.2099, -57.499, 41.8507
3.084, 5, 35.5301, 49.5985, -13.5527, 96.2034, -57.5255, 41.8414
3.087, 5, 35.5281, 49.6044, -13.5493, 96.1969, -57.5521, 41.8321
3.092, 5, 35.526, 49.6104, -13.5458, 96.1904, -57.5787, 41.8227
3.096, 5, 35.5239, 49.6164, -13.5423, 96.1839, -57.6052, 41.8134
3.1, 5, 35.5218, 49.6223, -13.5389, 96.1773, -57.6318, 41.8041
3.104, 5, 35.5197, 49.6283, -13.5354, 96.1708, -57.6583, 41.7948
3.107, 5, 35.5177, 49.6343, -13.5319, 96.1642, -57.6848, 41.7855
3.112, 5, 35.5156, 49.6402, -13.5284, 96.1577, -57.7114, 41.7762
3.116, 5, 35.5135, 49.6462, -13.5248, 96.1511, -57.7379, 41.7669
3.12, 5, 35.5114, 49.6521, -13.5213, 96.1445, -57.7644, 41.7576
3.124, 5, 35.5093, 49.658, -13.5178, 96.138, -57.791, 41.7483
3.128, 5, 35.5072, 49.6639, -13.5142, 96.1314, -57.8175, 41.739
3.132, 5, 35.5051, 49.6699, -13.5107, 96.1248, -57.844, 41.7297
3.136, 5, 35.503, 49.6758, -13.5071, 96.1182, -57.8705, 41.7204
3.14, 5, 35.5008, 49.6817, -13.5035, 96.1116, -57.897, 41.7111
3.143, 5, 35.4987, 49.6876, -13.4999, 96.105, -57.9236, 41.7018
3.148, 5, 35.4966, 49.6935, -13.4963, 96.0983, -57.9501, 41.6926
3.152, 5, 35.4945, 49.6994, -13.4927, 96.0917, -57.9766, 41.6833
3.156, 5, 35.4924, 49.7053, -13.4891, 96.0851, -58.0031, 41.674
3.16, 5, 35.4902, 49.7111, -13.4855, 96.0784, -58.0296, 41.6648
3.163, 5, 35.4881, 49.717, -13.4818, 96.0718, -58.0561, 41.6555
3.168, 5, 35.486, 49.7229, -13.4782, 96.0651, -58.0825, 41.6462
3.172, 5, 35.4838, 49.7287, -13.4745, 96.0584, -58.109, 41.637
3.176, 5, 35.4817, 49.7346, -13.4709, 96.0518, -58.1355, 41.6277
3.179, 5, 35.4796, 49.7404, -13.4672, 96.0451, -58.162, 41.6185
3.184, 5, 35.4774, 49.7463, -13.4635, 96.0384, -58.1885, 41.6093
3.188, 5, 35.4753, 49.7521, -13.4598, 96.0317, -58.215, 41.6
3.192, 5, 35.4731, 49.758, -13.4561, 96.025, -58.2414, 41.5908
3.196, 5, 35.471, 49.7638, -13.4524, 96.0183, -58.2679, 41.5816
3.199, 5, 35.4688, 49.7696, -13.4487, 96.0116, -58.2944, 41.5723
3.204, 5, 35.4666, 49.7754, -13.4449, 96.0048, -58.3208, 41.5631
3.208, 5, 35.4645, 49.7812, -13.4412, 95.9981, -58.3473, 41.5539
3.212, 5, 35.4623, 49.787, -13.4374, 95.9914, -58.3737, 41.5447
3.216, 5, 35.4601, 49.7928, -13.4337, 95.9846, -58.4002, 41.5355
3.22, 5, 35.458, 49.7986, -13.4299, 95.9779, -58.4266, 41.5262
3.224, 5, 35.4558, 49.8044, -13.4261, 95.9711, -58.4531, 41.517
3.228, 5, 35.4536, 49.8102, -13.4223, 95.9643, -58.4795, 41.5078
3.232, 5, 35.4514, 49.816, -13.4185, 95.9575, -58.506, 41.4986
3.235, 5, 35.4492, 49.8217, -13.4147, 95.9508, -58.5324, 41.4894
3.24, 5, 35.4471, 49.8275, -13.4109, 95.944, -58.5588, 41.4803
3.244, 5, 35.4449, 49.8332, -13.4071, 95.9372, -58.5853, 41.4711
3.248, 5, 35.4427, 49.839, -13.4032, 95.9304, -58.6117, 41.4619
3.252, 5, 35.4405, 49.8447, -13.3994, 95.9235, -58.6381, 41.4527
3.255, 5, 35.4383, 49.8505, -13.3955, 95.9167, -58.6645, 41.4435
3.26, 5, 35.4361, 49.8562, -13.3916, 95.9099, -58.6909, 41.4343
3.264, 5, 35.4339, 49.8619, -13.3878, 95.9031, -58.7174, 41.4252
3.268, 5, 35.4317, 49.8677, -13.3839, 95.8962, -58.7438, 41.416
3.272, 5, 35.4294, 49.8734, -13.38, 95.8894, -58.7702, 41.4068
3.276, 5, 35.4272, 49.8791, -13.3761, 95.8825, -58.7966, 41.3977
3.28, 5, 35.425, 49.8848, -13.3721, 95.8757, -58.823, 41.3885
3.284, 5, 35.4228, 49.8905, -13.3682, 95.8688, -58.8494, 41.3794
3.288, 5, 35.4206, 49.8962, -13.3643, 95.8619, -58.8758, 41.3702
3.291, 5, 35.4183, 49.9019, -13.3603, 95.855, -58.9022, 41.3611
3.296, 5, 35.4161, 49.9075, -13.3564, 95.8481, -58.9285, 41.3519
3.3, 5, 35.4139, 49.9132, -13.3524, 95.8412, -58.9549, 41.3428
3.304, 5, 35.4116, 49.9189, -13.3484, 95.8343, -58.9813, 41.3336
3.308, 5, 35.4094, 49.9245, -13.3445, 95.8274, -59.0077, 41.3245
3.312, 5, 35.4072, 49.9302, -13.3405, 95.8205, -59.0341, 41.3154
3.316, 5, 35.4049, 49.9359, -13.3365, 95.8136, -59.0604, 41.3063
3.32, 5, 35.4027, 49.9415, -13.3324, 95.8066, -59.0868, 41.2971
3.324, 5, 35.4004, 49.9471, -13.3284, 95.7997, -59.1132, 41.288
3.328, 5, 35.3982, 49.9528, -13.3244, 95.7928, -59.1395, 41.2789
3.332, 5, 35.3959, 49.9584, -13.3203, 95.7858, -59.1659, 41.2698
3.336, 5, 35.3937, 49.964, -13.3163, 95.7788, -59.1922, 41.2607
3.34, 5, 35.3914, 49.9696, -13.3122, 95.7719, -59.2186, 41.2516
3.344, 5, 35.3891, 49.9753, -13.3081, 95.7649, -59.2449, 41.2425
3.347, 5, 35.3869, 49.9809, -13.3041, 95.7579, -59.2713, 41.2333
3.352, 5, 35.3846, 49.9865, -13.3, 95.7509, -59.2976, 41.2243
3.356, 5, 35.3823, 49.992, -13.2959, 95.7439, -59.324, 41.2152
3.36, 5, 35.38, 49.9976, -13.2918, 95.7369, -59.3503, 41.2061
3.364, 5, 35.3778, 50.0032, -13.2876, 95.7299, -59.3766, 41.197
3.368, 5, 35.3755, 50.0088, -13.2835, 95.7229, -59.403, 41.1879
3.372, 5, 35.3732, 50.0144, -13.2794, 95.7159, -59.4293, 41.1788
3.376, 5, 35.3709, 50.0199, -13.2752, 95.7088, -59.4556, 41.1697
3.38, 5, 35.3686, 50.0255, -13.2711, 95.7018, -59.4819, 41.1606
3.383, 5, 35.3663, 50.031, -13.2669, 95.6948, -59.5083, 41.1516
3.388, 5, 35.364, 50.0366, -13.2627, 95.6877, -59.5346, 41.1425
3.392, 5, 35.3617, 50.0421, -13.2585, 95.6807, -59.5609, 41.1334
3.396, 5, 35.3594, 50.0476, -13.2543, 95.6736, -59.5872, 41.1244
3.4, 5, 35.3571, 50.0532, -13.2501, 95.6665, -59.6135, 41.1153
3.403, 5, 35.3548, 50.0587, -13.2459, 95.6594, -59.6398, 41.1063
3.408, 5, 35.3525, 50.0642, -13.2417, 95.6524, -59.6661, 41.0972
3.412, 5, 35.3502, 50.0697, -13.2374, 95.6453, -59.6924, 41.0881
3.416, 5, 35.3478, 50.0752, -13.2332, 95.6382, -59.7187, 41.0791
3.42, 5, 35.3455, 50.0807, -13.2289, 95.6311, -59.745, 41.0701
3.424, 5, 35.3432, 50.0862, -13.2247, 95.6239, -59.7712, 41.061
3.428, 5, 35.3409, 50.0917, -13.2204, 95.6168, -59.7975, 41.052
3.432, 5, 35.3385, 50.0972, -13.2161, 95.6097, -59.8238, 41.0429
3.436, 5, 35.3362, 50.1026, -13.2118, 95.6026, -59.8501, 41.0339
3.439, 5, 35.3339, 50.1081, -13.2075, 95.5954, -59.8764, 41.0249
3.444, 5, 35.3315, 50.1136, -13.2032, 95.5883, -59.9026, 41.0158
3.448, 5, 35.3292, 50.119, -13.1989, 95.5811, -59.9289, 41.0068
3.452, 5, 35.3268, 50.1245, -13.1945, 95.574, -59.9552, 40.9978
3.456, 5, 35.3245, 50.1299, -13.1902, 95.5668, -59.9814, 40.9888
3.46, 5, 35.3221, 50.1354, -13.1858, 95.5596, -60.0077, 40.9798
3.464, 5, 35.3198, 50.1408, -13.1815, 95.5524, -60.0339, 40.9708
3.468, 5, 35.3174, 50.1462, -13.1771, 95.5453, -60.0602, 40.9617
3.472, 5, 35.3151, 50.1516, -13.1727, 95.5381, -60.0864, 40.9527
3.476, 5, 35.3127, 50.1571, -13.1683, 95.5309, -60.1127, 40.9437
3.48, 5, 35.3103, 50.1625, -13.1639, 95.5237, -60.1389, 40.9347
3.484, 5, 35.308, 50.1679, -13.1595, 95.5164, -60.1651, 40.9257
3.488, 5, 35.3056, 50.1733, -13.1551, 95.5092, -60.1914, 40.9167
3.492, 5, 35.3032, 50.1787, -13.1507, 95.502, -60.2176, 40.9077
3.495, 5, 35.3008, 50.184, -13.1462, 95.4948, -60.2438, 40.8988
3.5, 5, 35.2985, 50.1894, -13.1418, 95.4875, -60.2701, 40.8898
3.504, 5, 35.2961, 50.1948, -13.1373, 95.4803, -60.2963, 40.8808
3.508, 5, 35.2937, 50.2002, -13.1328, 95.473, -60.3225, 40.8718
3.512, 5, 35.2913, 50.2055, -13.1284, 95.4658, -60.3487, 40.8628
3.516, 5, 35.2889, 50.2109, -13.1239, 95.4585, -60.3749, 40.8539
3.52, 5, 35.2865, 50.2162, -13.1194, 95.4512, -60.4011, 40.8449
3.524, 5, 35.2841, 50.2216, -13.1149, 95.4439, -60.4273, 40.8359
3.528, 5, 35.2817, 50.2269, -13.1103, 95.4366, -60.4535, 40.8269
3.531, 5, 35.2793, 50.2322, -13.1058, 95.4294, -60.4797, 40.818
3.536, 5, 35.2769, 50.2376, -13.1013, 95.422, -60.5059, 40.809
3.54, 5, 35.2745, 50.2429, -13.0967, 95.4147, -60.5321, 40.8001
3.544, 5, 35.2721, 50.2482, -13.0922, 95.4074, -60.5583, 40.7911
3.548, 5, 35.2697, 50.2535, -13.0876, 95.4001, -60.5845, 40.7822
3.552, 5, 35.2672, 50.2588, -13.083, 95.3928, -60.6107, 40.7732
3.556, 5, 35.2648, 50.2641, -13.0784, 95.3855, -60.6369, 40.7643
3.56, 5, 35.2624, 50.2694, -13.0738, 95.3781, -60.6631, 40.7553
3.564, 5, 35.26, 50.2747, -13.0692, 95.3708, -60.6892, 40.7464
3.568, 5, 35.2575, 50.2799, -13.0646, 95.3634, -60.7154, 40.7374
3.572, 5, 35.2551, 50.2852, -13.06, 95.356, -60.7416, 40.7285
3.576, 5, 35.2527, 50.2905, -13.0554, 95.3487, -60.7677, 40.7196
3.58, 5, 35.2502, 50.2957, -13.0507, 95.3413, -60.7939, 40.7106
3.584, 5, 35.2478, 50.301, -13.0461, 95.3339, -60.82, 40.7017
3.587, 5, 35.2453, 50.3062, -13.0414, 95.3265, -60.8462, 40.6928
3.592, 5, 35.2429, 50.3115, -13.0367, 95.3192, -60.8724, 40.6839
3.596, 5, 35.2404, 50.3167, -13.0321, 95.3118, -60.8985, 40.6749
3.6, 5, 35.238, 50.3219, -13.0274, 95.3044, -60.9247, 40.666
3.604, 5, 35.2355, 50.3271, -13.0227, 95.2969, -60.9508, 40.6571
3.608, 5, 35.2331, 50.3324, -13.0179, 95.2895, -60.9769, 40.6482
3.612, 5, 35.2306, 50.3376, -13.0132, 95.2821, -61.0031, 40.6393
3.616, 5, 35.2281, 50.3428, -13.0085, 95.2747, -61.0292, 40.6304
3.62, 5, 35.2257, 50.348, -13.0038, 95.2672, -61.0553, 40.6215
3.624, 5, 35.2232, 50.3532, -12.999, 95.2598, -61.0815, 40.6126
3.628, 5, 35.2207, 50.3583, -12.9942, 95.2523, -61.1076, 40.6037
3.632, 5, 35.2182, 50.3635, -12.9895, 95.2449, -61.1337, 40.5948
3.636, 5, 35.2158, 50.3687, -12.9847, 95.2374, -61.1598, 40.5859
3.64, 5, 35.2133, 50.3739, -12.9799, 95.2299, -61.186, 40.577
3.644, 5, 35.2108, 50.379, -12.9751, 95.2225, -61.2121, 40.5681
3.648, 5, 35.2083, 50.3842, -12.9703, 95.215, -61.2382, 40.5592
3.652, 5, 35.2058, 50.3893, -12.9655, 95.2075, -61.2643, 40.5503
3.656, 5, 35.2033, 50.3945, -12.9606, 95.2, -61.2904, 40.5414
3.66, 5, 35.2008, 50.3996, -12.9558, 95.1925, -61.3165, 40.5326
3.664, 5, 35.1983, 50.4047, -12.951, 95.185, -61.3426, 40.5237
3.668, 6, 35.1958, 50.4099, -12.9461, 95.1775, -61.3687, 40.5148
3.674, 6, 35.1933, 50.415, -12.9412, 95.17, -61.3948, 40.5059
3.676, 6, 35.1908, 50.4201, -12.9364, 95.1624, -61.4208, 40.4971
3.679, 6, 35.1883, 50.4252, -12.9315, 95.1549, -61.4469, 40.4882
3.684, 6, 35.1858, 50.4303, -12.9266, 95.1474, -61.473, 40.4793
3.688, 6, 35.1832, 50.4354, -12.9217, 95.1398, -61.4991, 40.4705
3.692, 6, 35.1807, 50.4405, -12.9167, 95.1323, -61.5252, 40.4616
3.696, 6, 35.1782, 50.4456, -12.9118, 95.1247, -61.5512, 40.4528
3.7, 6, 35.1757, 50.4506, -12.9069, 95.1171, -61.5773, 40.4439
3.704, 6, 35.1731, 50.4557, -12.9019, 95.1096, -61.6034, 40.4351
3.708, 6, 35.1706, 50.4608, -12.897, 95.102, -61.6294, 40.4262
3.712, 6, 35.1681, 50.4658, -12.892, 95.0944, -61.6555, 40.4174
3.716, 6, 35.1655, 50.4709, -12.887, 95.0868, -61.6815, 40.4085
3.72, 6, 35.163, 50.4759, -12.8821, 95.0792, -61.7076, 40.3997
3.724, 6, 35.1604, 50.4809, -12.8771, 95.0716, -61.7337, 40.3908
3.728, 6, 35.1579, 50.486, -12.8721, 95.064, -61.7597, 40.382
3.732, 6, 35.1553, 50.491, -12.8671, 95.0564, -61.7857, 40.3732
3.735, 6, 35.1528, 50.496, -12.862, 95.0488, -61.8118, 40.3643
3.74, 6, 35.1502, 50.501, -12.857, 95.0412, -61.8378, 40.3555
3.744, 6, 35.1477, 50.5061, -12.852, 95.0335, -61.8639, 40.3467
3.748, 6, 35.1451, 50.5111, -12.8469, 95.0259, -61.8899, 40.3379
3.752, 6, 35.1425, 50.516, -12.8418, 95.0182, -61.9159, 40.329
3.756, 6, 35.14, 50.521, -12.8368, 95.0106, -61.9419, 40.3202
3.76, 6, 35.1374, 50.526, -12.8317, 95.0029, -61.968, 40.3114
3.764, 6, 35.1348, 50.531, -12.8266, 94.9953, -61.994, 40.3026
3.768, 6, 35.1322, 50.536, -12.8215, 94.9876, -62.02, 40.2938
3.772, 6, 35.1297, 50.5409, -12.8164, 94.9799, -62.046, 40.2849
3.776, 6, 35.1271, 50.5459, -12.8113, 94.9722, -62.072, 40.2761
3.78, 6, 35.1245, 50.5508, -12.8061, 94.9645, -62.098, 40.2673
3.784, 6, 35.1219, 50.5558, -12.801, 94.9569, -62.124, 40.2585
3.788, 6, 35.1193, 50.5607, -12.7958, 94.9492, -62.15, 40.2497
3.792, 6, 35.1167, 50.5657, -12.7907, 94.9414, -62.176, 40.2409
3.796, 6, 35.1141, 50.5706, -12.7855, 94.9337, -62.202, 40.2321
3.8, 6, 35.1115, 50.5755, -12.7803, 94.926, -62.228, 40.2233
3.804, 6, 35.1089, 50.5804, -12.7751, 94.9183, -62.254, 40.2145
3.808, 6, 35.1063, 50.5853, -12.7699, 94.9106, -62.28, 40.2057
3.812, 6, 35.1037, 50.5902, -12.7647, 94.9028, -62.306, 40.1969
3.816, 6, 35.1011, 50.5951, -12.7595, 94.8951, -62.332, 40.1882
3.82, 6, 35.0985, 50.6, -12.7543, 94.8873, -62.3579, 40.1794
3.824, 6, 35.0958, 50.6049, -12.7491, 94.8796, -62.3839, 40.1706
3.828, 6, 35.0932, 50.6098, -12.7438, 94.8718, -62.4099, 40.1618
3.832, 6, 35.0906, 50.6146, -12.7386, 94.864, -62.4358, 40.153
3.836, 6, 35.088, 50.6195, -12.7333, 94.8563, -62.4618, 40.1443
3.84, 6, 35.0853, 50.6244, -12.728, 94.8485, -62.4878, 40.1355
3.844, 6, 35.0827, 50.6292, -12.7227, 94.8407, -62.5137, 40.1267
3.848, 6, 35.0801, 50.6341, -12.7174, 94.8329, -62.5397, 40.1179
3.852, 6, 35.0774, 50.6389, -12.7121, 94.8251, -62.5656, 40.1092
3.856, 6, 35.0748, 50.6437, -12.7068, 94.8173, -62.5916, 40.1004
3.86, 6, 35.0721, 50.6486, -12.7015, 94.8095, -62.6175, 40.0916
3.864, 6, 35.0695, 50.6534, -12.6961, 94.8017, -62.6435, 40.0829
3.868, 6, 35.0668, 50.6582, -12.6908, 94.7939, -62.6694, 40.0741
3.872, 6, 35.0642, 50.663, -12.6854, 94.786, -62.6954, 40.0654
3.876, 6, 35.0615, 50.6678, -12.6801, 94.7782, -62.7213, 40.0566
3.88, 6, 35.0589, 50.6726, -12.6747, 94.7704, -62.7472, 40.0479
3.884, 6, 35.0562, 50.6774, -12.6693, 94.7625, -62.7731, 40.0391
3.888, 6, 35.0535, 50.6822, -12.6639, 94.7547, -62.7991, 40.0304
3.892, 6, 35.0509, 50.687, -12.6585, 94.7468, -62.825, 40.0216
3.896, 6, 35.0482, 50.6917, -12.6531, 94.7389, -62.8509, 40.0129
3.9, 6, 35.0455, 50.6965, -12.6477, 94.7311, -62.8768, 40.0041
3.904, 6, 35.0429, 50.7013, -12.6422, 94.7232, -62.9027, 39.9954
3.908, 6, 35.0402, 50.706, -12.6368, 94.7153, -62.9286, 39.9866
3.912, 6, 35.0375, 50.7108, -12.6314, 94.7074, -62.9545, 39.9779
3.916, 6, 35.0348, 50.7155, -12.6259, 94.6995, -62.9804, 39.9692
3.92, 6, 35.0321, 50.7202, -12.6204, 94.6916, -63.0063, 39.9604
3.924, 6, 35.0294, 50.725, -12.6149, 94.6837, -63.0322, 39.9517
3.928, 6, 35.0267, 50.7297, -12.6094, 94.6758, -63.0581, 39.943
3.932, 6, 35.024, 50.7344, -12.6039, 94.6679, -63.084, 39.9342
3.936, 6, 35.0213, 50.7391, -12.5984, 94.66, -63.1099, 39.9255
3.94, 6, 35.0186, 50.7438, -12.5929, 94.652, -63.1358, 39.9168
3.944, 6, 35.0159, 50.7485, -12.5874, 94.6441, -63.1617, 39.9081
3.948, 6, 35.0132, 50.7532, -12.5818, 94.6362, -63.1876, 39.8993
3.952, 6, 35.0105, 50.7579, -12.5763, 94.6282, -63.2134, 39.8906
3.956, 6, 35.0078, 50.7625, -12.5707, 94.6203, -63.2393, 39.8819
3.96, 6, 35.0051, 50.7672, -12.5652, 94.6123, -63.2652, 39.8732
3.964, 6, 35.0023, 50.7719, -12.5596, 94.6043, -63.291, 39.8645
3.968, 6, 34.9996, 50.7765, -12.554, 94.5964, -63.3169, 39.8558
3.972, 6, 34.9969, 50.7812, -12.5484, 94.5884, -63.3428, 39.8471
3.976, 6, 34.9942, 50.7858, -12.5428, 94.5804, -63.3686, 39.8384
3.98, 6, 34.9914, 50.7905, -12.5372, 94.5724, -63.3945, 39.8297
3.984, 6, 34.9887, 50.7951, -12.5315, 94.5644, -63.4203, 39.8209
3.988, 6, 34.986, 50.7997, -12.5259, 94.5564, -63.4462, 39.8122
3.992, 6, 34.9832, 50.8043, -12.5202, 94.5484, -63.472, 39.8035
3.996, 6, 34.9805, 50.809, -12.5146, 94.5404, -63.4979, 39.7948
3.999, 6, 34.9777, 50.8136, -12.5089, 94.5324, -63.5237, 39.7862
4.004, 6, 34.975, 50.8182, -12.5032, 94.5244, -63.5495, 39.7775
4.008, 6, 34.9722, 50.8228, -12.4975, 94.5164, -63.5754, 39.7688
4.012, 6, 34.9695, 50.8273, -12.4918, 94.5083, -63.6012, 39.7601
4.016, 6, 34.9667, 50.8319, -12.4861, 94.5003, -63.627, 39.7514
4.02, 6, 34.9639, 50.8365, -12.4804, 94.4922, -63.6529, 39.7427
4.024, 6, 34.9612, 50.8411, -12.4747, 94.4842, -63.6787, 39.734
4.028, 6, 34.9584, 50.8456, -12.469, 94.4761, -63.7045, 39.7253
4.032, 6, 34.9556, 50.8502, -12.4632, 94.4681, -63.7303, 39.7166
4.036, 6, 34.9529, 50.8547, -12.4574, 94.46, -63.7561, 39.708
4.04, 6, 34.9501, 50.8593, -12.4517, 94.4519, -63.7819, 39.6993
4.044, 6, 34.9473, 50.8638, -12.4459, 94.4439, -63.8077, 39.6906
4.048, 6, 34.9445, 50.8683, -12.4401, 94.4358, -63.8335, 39.6819
4.052, 6, 34.9417, 50.8729, -12.4343, 94.4277, -63.8593, 39.6733
4.056, 6, 34.939, 50.8774, -12.4285, 94.4196, -63.8851, 39.6646
4.06, 6, 34.9362, 50.8819, -12.4227, 94.4115, -63.9109, 39.6559
4.064, 6, 34.9334, 50.8864, -12.4169, 94.4034, -63.9367, 39.6472
4.068, 6, 34.9306, 50.8909, -12.411, 94.3952, -63.9625, 39.6386
4.072, 6, 34.9278, 50.8954, -12.4052, 94.3871, -63.9883, 39.6299
4.076, 6, 34.925, 50.8999, -12.3993, 94.379, -64.0141, 39.6212
4.08, 6, 34.9222, 50.9043, -12.3935, 94.3709, -64.0399, 39.6126
4.084, 6, 34.9194, 50.9088, -12.3876, 94.3627, -64.0656, 39.6039
4.088, 6, 34.9166, 50.9133, -12.3817, 94.3546, -64.0914, 39.5953
4.092, 6, 34.9137, 50.9177, -12.3758, 94.3465, -64.1172, 39.5866
4.096, 6, 34.9109, 50.9222, -12.3699, 94.3383, -64.1429, 39.578
4.1, 6, 34.9081, 50.9266, -12.364, 94.3302, -64.1687, 39.5693
4.104, 6, 34.9053, 50.9311, -12.3581, 94.322, -64.1945, 39.5606
4.108, 6, 34.9025, 50.9355, -12.3521, 94.3138, -64.2202, 39.552
4.112, 6, 34.8996, 50.9399, -12.3462, 94.3056, -64.246, 39.5433
4.116, 6, 34.8968, 50.9444, -12.3402, 94.2975, -64.2717, 39.5347
4.12, 6, 34.894, 50.9488, -12.3343, 94.2893, -64.2975, 39.5261
4.124, 6, 34.8911, 50.9532, -12.3283, 94.2811, -64.3232, 39.5174
4.128, 6, 34.8883, 50.9576, -12.3223, 94.2729, -64.349, 39.5088
4.132, 6, 34.8854, 50.962, -12.3163, 94.2647, -64.3747, 39.5001
4.136, 6, 34.8826, 50.9664, -12.3103, 94.2565, -64.4004, 39.4915
4.14, 6, 34.8797, 50.9707, -12.3043, 94.2483, -64.4262, 39.4828
4.144, 6, 34.8769, 50.9751, -12.2983, 94.24, -64.4519, 39.4742
4.148, 6, 34.874, 50.9795, -12.2922, 94.2318, -64.4776, 39.4656
4.152, 6, 34.8712, 50.9838, -12.2862, 94.2236, -64.5034, 39.4569
4.156, 6, 34.8683, 50.9882, -12.2801, 94.2153, -64.5291, 39.4483
4.16, 6, 34.8655, 50.9925, -12.2741, 94.2071, -64.5548, 39.4397
4.164, 6, 34.8626, 50.9969, -12.268, 94.1989, -64.5805, 39.431
4.168, 6, 34.8597, 51.0012, -12.2619, 94.1906, -64.6062, 39.4224
4.172, 6, 34.8568, 51.0056, -12.2558, 94.1823, -64.6319, 39.4138
4.176, 6, 34.854, 51.0099, -12.2497, 94.1741, -64.6576, 39.4052
4.18, 6, 34.8511, 51.0142, -12.2436, 94.1658, -64.6833, 39.3965
4.184, 6, 34.8482, 51.0185, -12.2375, 94.1575, -64.709, 39.3879
4.188, 6, 34.8453, 51.0228, -12.2313, 94.1493, -64.7347, 39.3793
4.192, 6, 34.8424, 51.0271, -12.2252, 94.141, -64.7604, 39.3707
4.196, 6, 34.8395, 51.0314, -12.2191, 94.1327, -64.7861, 39.362
4.2, 6, 34.8367, 51.0357, -12.2129, 94.1244, -64.8118, 39.3534
4.204, 6, 34.8338, 51.04, -12.2067, 94.1161, -64.8375, 39.3448
4.208, 6, 34.8309, 51.0442, -12.2005, 94.1078, -64.8632, 39.3362
4.212, 6, 34.828, 51.0485, -12.1943, 94.0995, -64.8889, 39.3276
4.216, 6, 34.8251, 51.0527, -12.1881, 94.0911, -64.9145, 39.319
4.22, 6, 34.8222, 51.057, -12.1819, 94.0828, -64.9402, 39.3104
4.224, 6, 34.8193, 51.0613, -12.1757, 94.0745, -64.9659, 39.3018
4.228, 6, 34.8164, 51.0655, -12.1695, 94.0662, -64.9916, 39.2931
4.232, 6, 34.8135, 51.0698, -12.1633, 94.0578, -65.0172, 39.2845
4.236, 6, 34.8106, 51.074, -12.1571, 94.0495, -65.0429, 39.2759
4.24, 6, 34.8077, 51.0783, -12.1508, 94.0412, -65.0686, 39.2673
4.244, 6, 34.8049, 51.0826, -12.1447, 94.033, -65.0943, 39.2587
4.248, 6, 34.802, 51.0869, -12.1385, 94.0247, -65.12, 39.2501
4.252, 6, 34.7991, 51.0912, -12.1324, 94.0165, -65.1458, 39.2414
4.256, 6, 34.7963, 51.0955, -12.1263, 94.0084, -65.1716, 39.2328
4.26, 6, 34.7934, 51.0999, -12.1203, 94.0003, -65.1974, 39.2241
4.264, 6, 34.7905, 51.1042, -12.1143, 93.9923, -65.2232, 39.2155
4.268, 6, 34.7876, 51.1086, -12.1083, 93.9844, -65.2491, 39.2068
4.272, 6, 34.7847, 51.113, -12.1025, 93.9765, -65.2751, 39.1981
4.276, 6, 34.7818, 51.1175, -12.0967, 93.9688, -65.3011, 39.1894
4.28, 6, 34.7788, 51.1219, -12.0909, 93.961, -65.3271, 39.1807
4.284, 6, 34.7759, 51.1264, -12.0852, 93.9534, -65.3532, 39.172
4.288, 6, 34.7729, 51.1309, -12.0795, 93.9458, -65.3793, 39.1633
4.292, 6, 34.77, 51.1354, -12.0739, 93.9382, -65.4054, 39.1545
4.296, 6, 34.767, 51.1399, -12.0684, 93.9307, -65.4316, 39.1458
4.3, 6, 34.7641, 51.1445, -12.0628, 93.9233, -65.4577, 39.1371
4.304, 6, 34.7611, 51.149, -12.0573, 93.9158, -65.4839, 39.1283
4.308, 6, 34.7582, 51.1536, -12.0518, 93.9084, -65.5101, 39.1196
4.312, 6, 34.7553, 51.1582, -12.0463, 93.901, -65.5363, 39.1108
4.316, 6, 34.7524, 51.1628, -12.0409, 93.8935, -65.5625, 39.1021
4.32, 6, 34.7494, 51.1674, -12.0354, 93.8861, -65.5887, 39.0934
4.324, 6, 34.7465, 51.1721, -12.0299, 93.8787, -65.6149, 39.0847
4.328, 6, 34.7436, 51.1767, -12.0245, 93.8713, -65.6411, 39.0759
4.332, 6, 34.7407, 51.1814, -12.019, 93.8639, -65.6673, 39.0672
4.336, 6, 34.7378, 51.186, -12.0136, 93.8565, -65.6935, 39.0585
4.34, 6, 34.7348, 51.1907, -12.0082, 93.849, -65.7197, 39.0498
4.344, 6, 34.7319, 51.1953, -12.0027, 93.8416, -65.7459, 39.0411
4.348, 6, 34.729, 51.2, -11.9973, 93.8342, -65.7721, 39.0324
4.352, 6, 34.726, 51.2047, -11.9918, 93.8267, -65.7983, 39.0237
4.356, 6, 34.7231, 51.2094, -11.9864, 93.8193, -65.8245, 39.015
4.36, 6, 34.7201, 51.2141, -11.981, 93.8118, -65.8507, 39.0063
4.364, 6, 34.7172, 51.2188, -11.9755, 93.8044, -65.8769, 38.9976
4.368, 6, 34.7142, 51.2235, -11.9701, 93.7969, -65.9031, 38.9889
4.372, 6, 34.7113, 51.2282, -11.9647, 93.7895, -65.9293, 38.9802
4.376, 6, 34.7083, 51.2329, -11.9593, 93.782, -65.9555, 38.9716
4.38, 6, 34.7053, 51.2376, -11.9538, 93.7745, -65.9817, 38.9629
4.384, 6, 34.7024, 51.2424, -11.9484, 93.7671, -66.0078, 38.9542
4.388, 6, 34.6994, 51.2471, -11.943, 93.7596, -66.034, 38.9456
4.392, 6, 34.6964, 51.2518, -11.9376, 93.7521, -66.0602, 38.9369
4.396, 6, 34.6934, 51.2566, -11.9322, 93.7446, -66.0864, 38.9282
4.4, 6, 34.6905, 51.2613, -11.9267, 93.7372, -66.1126, 38.9196
4.404, 6, 34.6875, 51.2661, -11.9213, 93.7297, -66.1387, 38.9109
4.408, 6, 34.6845, 51.2709, -11.9159, 93.7222, -66.1649, 38.9023
4.412, 6, 34.6815, 51.2756, -11.9105, 93.7147, -66.1911, 38.8937
4.416, 6, 34.6785, 51.2804, -11.9051, 93.7072, -66.2172, 38.885
4.42, 6, 34.6755, 51.2852, -11.8997, 93.6997, -66.2434, 38.8764
4.424, 6, 34.6725, 51.29, -11.8943, 93.6922, -66.2696, 38.8678
4.428, 6, 34.6695, 51.2948, -11.8889, 93.6846, -66.2957, 38.8592
4.432, 6, 34.6665, 51.2996, -11.8835, 93.6771, -66.3219, 38.8505
4.436, 6, 34.6634, 51.3044, -11.8781, 93.6696, -66.3481, 38.8419
4.44, 6, 34.6604, 51.3092, -11.8727, 93.6621, -66.3742, 38.8333
4.444, 6, 34.6574, 51.314, -11.8673, 93.6546, -66.4004, 38.8247
4.448, 6, 34.6544, 51.3189, -11.8619, 93.647, -66.4265, 38.8161
4.452, 6, 34.6513, 51.3237, -11.8565, 93.6395, -66.4527, 38.8075
4.456, 6, 34.6483, 51.3286, -11.8511, 93.632, -66.4788, 38.7989
4.46, 6, 34.6452, 51.3334, -11.8457, 93.6244, -66.505, 38.7903
4.464, 6, 34.6422, 51.3382, -11.8403, 93.6169, -66.5311, 38.7818
4.468, 6, 34.6391, 51.3431, -11.8349, 93.6093, -66.5573, 38.7732
4.472, 6, 34.6361, 51.348, -11.8296, 93.6018, -66.5834, 38.7646
4.476, 6, 34.633, 51.3528, -11.8242, 93.5942, -66.6096, 38.756
4.48, 6, 34.63, 51.3577, -11.8188, 93.5866, -66.6357, 38.7475
4.484, 6, 34.6269, 51.3626, -11.8134, 93.5791, -66.6618, 38.7389
4.488, 6, 34.6238, 51.3675, -11.808, 93.5715, -66.688, 38.7303
4.492, 6, 34.6208, 51.3724, -11.8027, 93.5639, -66.7141, 38.7218
4.496, 6, 34.6177, 51.3773, -11.7973, 93.5563, -66.7402, 38.7132
4.5, 6, 34.6146, 51.3822, -11.7919, 93.5488, -66.7664, 38.7047
4.504, 6, 34.6115, 51.3871, -11.7866, 93.5412, -66.7925, 38.6961
4.508, 6, 34.6084, 51.392, -11.7812, 93.5336, -66.8186, 38.6876
4.512, 6, 34.6053, 51.3969, -11.7758, 93.526, -66.8447, 38.6791
4.516, 6, 34.6022, 51.4019, -11.7704, 93.5184, -66.8709, 38.6705
4.52, 6, 34.5991, 51.4068, -11.7651, 93.5108, -66.897, 38.662
4.524, 6, 34.596, 51.4118, -11.7597, 93.5032, -66.9231, 38.6535
4.528, 6, 34.5929, 51.4167, -11.7544, 93.4956, -66.9492, 38.645
4.532, 6, 34.5898, 51.4217, -11.749, 93.4879, -66.9753, 38.6364
4.536, 6, 34.5867, 51.4266, -11.7436, 93.4803, -67.0015, 38.6279
4.54, 6, 34.5836, 51.4316, -11.7383, 93.4727, -67.0276, 38.6194
4.544, 6, 34.5804, 51.4366, -11.7329, 93.4651, -67.0537, 38.6109
4.548, 6, 34.5773, 51.4415, -11.7276, 93.4575, -67.0798, 38.6024
4.552, 6, 34.5742, 51.4465, -11.7222, 93.4498, -67.1059, 38.5939
4.556, 6, 34.571, 51.4515, -11.7169, 93.4422, -67.132, 38.5854
4.56, 6, 34.5679, 51.4565, -11.7115, 93.4345, -67.1581, 38.5769
4.564, 6, 34.5648, 51.4615, -11.7062, 93.4269, -67.1842, 38.5684
4.568, 6, 34.5616, 51.4665, -11.7009, 93.4193, -67.2103, 38.56
4.572, 6, 34.5585, 51.4715, -11.6955, 93.4116, -67.2364, 38.5515
4.576, 6, 34.5553, 51.4766, -11.6902, 93.4039, -67.2625, 38.543
4.58, 6, 34.5521, 51.4816, -11.6848, 93.3963, -67.2886, 38.5345
4.584, 6, 34.549, 51.4866, -11.6795, 93.3886, -67.3147, 38.5261
4.588, 6, 34.5458, 51.4917, -11.6742, 93.381, -67.3408, 38.5176
4.592, 6, 34.5426, 51.4967, -11.6688, 93.3733, -67.3669, 38.5092
4.596, 6, 34.5395, 51.5018, -11.6635, 93.3656, -67.393, 38.5007
4.6, 6, 34.5363, 51.5068, -11.6582, 93.3579, -67.4191, 38.4923
4.604, 6, 34.5331, 51.5119, -11.6529, 93.3502, -67.4451, 38.4838
4.608, 6, 34.5299, 51.5169, -11.6475, 93.3426, -67.4712, 38.4754
4.612, 6, 34.5267, 51.522, -11.6422, 93.3349, -67.4973, 38.4669
4.616, 6, 34.5235, 51.5271, -11.6369, 93.3272, -67.5234, 38.4585
4.62, 6, 34.5203, 51.5322, -11.6316, 93.3195, -67.5495, 38.4501
4.624, 6, 34.5171, 51.5373, -11.6262, 93.3118, -67.5755, 38.4417
4.628, 6, 34.5139, 51.5424, -11.6209, 93.3041, -67.6016, 38.4332
4.632, 6, 34.5107, 51.5475, -11.6156, 93.2964, -67.6277, 38.4248
4.636, 6, 34.5075, 51.5526, -11.6103, 93.2887, -67.6538, 38.4164
4.64, 6, 34.5043, 51.5577, -11.605, 93.2809, -67.6798, 38.408
4.644, 6, 34.5011, 51.5628, -11.5997, 93.2732, -67.7059, 38.3996
4.648, 6, 34.4978, 51.568, -11.5944, 93.2655, -67.732, 38.3912
4.652, 6, 34.4946, 51.5731, -11.5891, 93.2578, -67.758, 38.3828
4.656, 6, 34.4914, 51.5782, -11.5838, 93.25, -67.7841, 38.3744
4.66, 6, 34.4881, 51.5834, -11.5784, 93.2423, -67.8102, 38.366
4.664, 6, 34.4849, 51.5885, -11.5731, 93.2346, -67.8362, 38.3576
4.668, 6, 34.4816, 51.5937, -11.5678, 93.2268, -67.8623, 38.3492
4.672, 6, 34.4784, 51.5989, -11.5625, 93.2191, -67.8883, 38.3408
4.676, 6, 34.4751, 51.604, -11.5573, 93.2113, -67.9144, 38.3325
4.68, 6, 34.4719, 51.6092, -11.552, 93.2036, -67.9404, 38.3241
4.684, 6, 34.4686, 51.6144, -11.5467, 93.1958, -67.9665, 38.3157
4.688, 6, 34.4653, 51.6196, -11.5414, 93.188, -67.9925, 38.3074
4.692, 6, 34.4621, 51.6248, -11.5361, 93.1803, -68.0186, 38.299
4.696, 6, 34.4588, 51.63, -11.5308, 93.1725, -68.0446, 38.2906
4.7, 6, 34.4555, 51.6352, -11.5255, 93.1647, -68.0707, 38.2823
4.704, 6, 34.4522, 51.6404, -11.5202, 93.157, -68.0967, 38.2739
4.708, 6, 34.4489, 51.6456, -11.5149, 93.1492, -68.1228, 38.2656
4.712, 6, 34.4457, 51.6508, -11.5097, 93.1414, -68.1488, 38.2573
4.716, 6, 34.4424, 51.6561, -11.5044, 93.1336, -68.1748, 38.2489
4.72, 6, 34.4391, 51.6613, -11.4991, 93.1258, -68.2009, 38.2406
4.724, 6, 34.4358, 51.6666, -11.4938, 93.118, -68.2269, 38.2323
4.728, 6, 34.4324, 51.6718, -11.4886, 93.1102, -68.2529, 38.2239
4.732, 6, 34.4291, 51.6771, -11.4833, 93.1024, -68.279, 38.2156
4.736, 6, 34.4258, 51.6823, -11.478, 93.0946, -68.305, 38.2073
4.74, 6, 34.4225, 51.6876, -11.4727, 93.0868, -68.331, 38.199
4.744, 6, 34.4192, 51.6929, -11.4675, 93.079, -68.3571, 38.1907
4.748, 6, 34.4159, 51.6981, -11.4622, 93.0712, -68.3831, 38.1823
4.752, 6, 34.4125, 51.7034, -11.457, 93.0634, -68.4091, 38.174
4.756, 6, 34.4092, 51.7087, -11.4517, 93.0555, -68.4351, 38.1657
4.76, 6, 34.4059, 51.714, -11.4464, 93.0477, -68.4612, 38.1574
4.764, 6, 34.4025, 51.7193, -11.4412, 93.0399, -68.4872, 38.1492
4.768, 6, 34.3992, 51.7246, -11.4359, 93.0321, -68.5132, 38.1409
4.772, 6, 34.3958, 51.7299, -11.4307, 93.0242, -68.5392, 38.1326
4.776, 6, 34.3925, 51.7352, -11.4254, 93.0164, -68.5652, 38.1243
4.78, 6, 34.3891, 51.7406, -11.4202, 93.0085, -68.5912, 38.116
4.784, 6, 34.3857, 51.7459, -11.4149, 93.0007, -68.6172, 38.1077
4.788, 6, 34.3824, 51.7512, -11.4097, 92.9928, -68.6432, 38.0995
4.792, 6, 34.379, 51.7566, -11.4044, 92.985, -68.6692, 38.0912
4.796, 6, 34.3756, 51.7619, -11.3992, 92.9771, -68.6952, 38.0829
4.8, 6, 34.3722, 51.7673, -11.3939, 92.9693, -68.7213, 38.0747
4.804, 6, 34.3689, 51.7726, -11.3887, 92.9614, -68.7473, 38.0664
4.808, 6, 34.3655, 51.778, -11.3834, 92.9535, -68.7732, 38.0582
4.812, 6, 34.3621, 51.7834, -11.3782, 92.9456, -68.7992, 38.0499
4.816, 6, 34.3587, 51.7887, -11.373, 92.9378, -68.8252, 38.0417
4.82, 6, 34.3553, 51.7941, -11.3677, 92.9299, -68.8512, 38.0334
4.824, 6, 34.3519, 51.7995, -11.3625, 92.922, -68.8772, 38.0252
4.828, 6, 34.3485, 51.8049, -11.3573, 92.9141, -68.9032, 38.017
4.832, 6, 34.3451, 51.8103, -11.352, 92.9062, -68.9292, 38.0087
4.836, 6, 34.3417, 51.8157, -11.3468, 92.8983, -68.9552, 38.0005
4.84, 6, 34.3382, 51.8211, -11.3416, 92.8904, -68.9812, 37.9923
4.844, 6, 34.3348, 51.8266, -11.3364, 92.8825, -69.0072, 37.9841
4.848, 6, 34.3314, 51.832, -11.3312, 92.8746, -69.0331, 37.9758
4.852, 6, 34.3279, 51.8374, -11.3259, 92.8667, -69.0591, 37.9676
4.856, 6, 34.3245, 51.8429, -11.3207, 92.8588, -69.0851, 37.9594
4.86, 6, 34.3211, 51.8483, -11.3155, 92.8509, -69.1111, 37.9512
4.864, 6, 34.3176, 51.8537, -11.3103, 92.8429, -69.1371, 37.943
4.868, 6, 34.3142, 51.8592, -11.3051, 92.835, -69.163, 37.9348
4.872, 6, 34.3107, 51.8647, -11.2999, 92.8271, -69.189, 37.9266
4.876, 6, 34.3073, 51.8701, -11.2946, 92.8192, -69.215, 37.9184
4.88, 6, 34.3038, 51.8756, -11.2894, 92.8112, -69.241, 37.9102
4.884, 6, 34.3004, 51.8811, -11.2842, 92.8033, -69.2669, 37.9021
4.888, 6, 34.2969, 51.8866, -11.279, 92.7953, -69.2929, 37.8939
4.892, 6, 34.2934, 51.8921, -11.2738, 92.7874, -69.3189, 37.8857
4.896, 6, 34.2899, 51.8975, -11.2686, 92.7794, -69.3448, 37.8775
4.9, 6, 34.2865, 51.903, -11.2634, 92.7715, -69.3708, 37.8694
4.904, 6, 34.283, 51.9086, -11.2582, 92.7635, -69.3967, 37.8612
4.908, 6, 34.2795, 51.9141, -11.253, 92.7556, -69.4227, 37.853
4.912, 6, 34.276, 51.9196, -11.2478, 92.7476, -69.4487, 37.8449
4.916, 6, 34.2725, 51.9251, -11.2426, 92.7396, -69.4746, 37.8367
4.92, 6, 34.269, 51.9306, -11.2375, 92.7317, -69.5006, 37.8286
4.924, 6, 34.2655, 51.9362, -11.2323, 92.7237, -69.5265, 37.8204
4.928, 6, 34.262, 51.9417, -11.2271, 92.7157, -69.5525, 37.8123
4.932, 6, 34.2585, 51.9473, -11.2219, 92.7077, -69.5784, 37.8041
4.936, 6, 34.255, 51.9528, -11.2167, 92.6998, -69.6044, 37.796
4.94, 6, 34.2514, 51.9584, -11.2115, 92.6918, -69.6303, 37.7879
4.944, 6, 34.2479, 51.9639, -11.2064, 92.6838, -69.6563, 37.7797
4.948, 6, 34.2444, 51.9695, -11.2012, 92.6758, -69.6822, 37.7716
4.952, 6, 34.2408, 51.9751, -11.196, 92.6678, -69.7081, 37.7635
4.956, 6, 34.2373, 51.9807, -11.1908, 92.6598, -69.7341, 37.7554
4.96, 6, 34.2338, 51.9863, -11.1856, 92.6518, -69.76, 37.7472
4.964, 6, 34.2302, 51.9919, -11.1805, 92.6438, -69.7859, 37.7391
4.968, 6, 34.2267, 51.9975, -11.1753, 92.6358, -69.8119, 37.731
4.972, 6, 34.2231, 52.0031, -11.1701, 92.6277, -69.8378, 37.7229
4.976, 6, 34.2196, 52.0087, -11.165, 92.6197, -69.8637, 37.7148
4.98, 6, 34.216, 52.0143, -11.1598, 92.6117, -69.8897, 37.7067
4.984, 6, 34.2124, 52.0199, -11.1546, 92.6037, -69.9156, 37.6986
4.988, 6, 34.2089, 52.0255, -11.1495, 92.5956, -69.9415, 37.6905
4.992, 6, 34.2053, 52.0312, -11.1443, 92.5876, -69.9675, 37.6824
4.996, 6, 34.2017, 52.0368, -11.1392, 92.5796, -69.9934, 37.6743
5, 6, 34.1981, 52.0425, -11.134, 92.5715, -70.0193, 37.6663
5.004, 6, 34.1945, 52.0481, -11.1289, 92.5635, -70.0452, 37.6582
5.008, 6, 34.1909, 52.0538, -11.1237, 92.5554, -70.0711, 37.6501
5.012, 6, 34.1874, 52.0594, -11.1186, 92.5474, -70.0971, 37.642
5.016, 6, 34.1838, 52.0651, -11.1134, 92.5393, -70.123, 37.634
5.02, 6, 34.1801, 52.0708, -11.1083, 92.5313, -70.1489, 37.6259
5.024, 6, 34.1765, 52.0765, -11.1031, 92.5232, -70.1748, 37.6178
5.028, 6, 34.1729, 52.0822, -11.098, 92.5152, -70.2007, 37.6098
5.032, 6, 34.1693, 52.0878, -11.0928, 92.5071, -70.2266, 37.6017
5.036, 6, 34.1657, 52.0936, -11.0877, 92.499, -70.2525, 37.5937
5.04, 6, 34.1621, 52.0993, -11.0826, 92.491, -70.2784, 37.5856
5.044, 6, 34.1584, 52.105, -11.0774, 92.4829, -70.3043, 37.5776
5.048, 6, 34.1548, 52.1107, -11.0723, 92.4748, -70.3302, 37.5695
5.052, 6, 34.1512, 52.1164, -11.0672, 92.4667, -70.3561, 37.5615
5.056, 6, 34.1475, 52.1221, -11.062, 92.4586, -70.382, 37.5535
5.06, 6, 34.1439, 52.1279, -11.0569, 92.4505, -70.4079, 37.5454
5.064, 6, 34.1402, 52.1336, -11.0518, 92.4424, -70.4338, 37.5374
5.068, 6, 34.1366, 52.1394, -11.0466, 92.4343, -70.4597, 37.5294
5.072, 6, 34.1329, 52.1451, -11.0415, 92.4262, -70.4856, 37.5214
5.076, 6, 34.1293, 52.1509, -11.0364, 92.4181, -70.5115, 37.5134
5.08, 6, 34.1256, 52.1566, -11.0313, 92.41, -70.5374, 37.5053
5.084, 6, 34.1219, 52.1624, -11.0262, 92.4019, -70.5633, 37.4973
5.088, 6, 34.1183, 52.1682, -11.021, 92.3938, -70.5892, 37.4893
5.092, 6, 34.1146, 52.1739, -11.0159, 92.3857, -70.6151, 37.4813
5.096, 6, 34.1109, 52.1797, -11.0108, 92.3775, -70.6409, 37.4733
5.1, 6, 34.1072, 52.1855, -11.0057, 92.3694, -70.6668, 37.4653
5.104, 6, 34.1035, 52.1913, -11.0006, 92.3613, -70.6927, 37.4573
5.108, 6, 34.0998, 52.1971, -10.9955, 92.3532, -70.7186, 37.4493
5.112, 6, 34.0961, 52.2029, -10.9904, 92.345, -70.7445, 37.4413
5.116, 6, 34.0924, 52.2087, -10.9853, 92.3369, -70.7703, 37.4334
5.12, 6, 34.0887, 52.2146, -10.9802, 92.3287, -70.7962, 37.4254
5.124, 6, 34.085, 52.2204, -10.9751, 92.3206, -70.8221, 37.4174
5.128, 6, 34.0813, 52.2262, -10.97, 92.3125, -70.848, 37.4094
5.132, 6, 34.0776, 52.2321, -10.9649, 92.3043, -70.8738, 37.4015
5.136, 6, 34.0739, 52.2379, -10.9598, 92.2962, -70.8997, 37.3935
5.14, 6, 34.0701, 52.2437, -10.9547, 92.288, -70.9256, 37.3855
5.144, 6, 34.0664, 52.2496, -10.9496, 92.2798, -70.9514, 37.3776
5.148, 6, 34.0627, 52.2555, -10.9445, 92.2717, -70.9773, 37.3696
5.152, 6, 34.0589, 52.2613, -10.9394, 92.2635, -71.0032, 37.3617
5.156, 6, 34.0552, 52.2672, -10.9343, 92.2553, -71.029, 37.3537
5.16, 6, 34.0514, 52.2731, -10.9292, 92.2471, -71.0549, 37.3458
5.164, 6, 34.0477, 52.279, -10.9241, 92.239, -71.0807, 37.3378
5.168, 6, 34.0439, 52.2848, -10.9191, 92.2308, -71.1066, 37.3299
5.172, 6, 34.0402, 52.2907, -10.914, 92.2226, -71.1324, 37.3219
5.176, 6, 34.0364, 52.2966, -10.9089, 92.2144, -71.1583, 37.314
5.18, 6, 34.0326, 52.3025, -10.9038, 92.2062, -71.1842, 37.3061
5.184, 6, 34.0288, 52.3085, -10.8988, 92.198, -71.21, 37.2981
5.188, 6, 34.0251, 52.3144, -10.8937, 92.1898, -71.2358, 37.2902
5.192, 6, 34.0213, 52.3203, -10.8886, 92.1816, -71.2617, 37.2823
5.196, 6, 34.0175, 52.3262, -10.8835, 92.1734, -71.2875, 37.2744
5.2, 6, 34.0137, 52.3322, -10.8785, 92.1652, -71.3134, 37.2665
5.204, 6, 34.0099, 52.3381, -10.8734, 92.157, -71.3392, 37.2585
5.208, 6, 34.0061, 52.344, -10.8683, 92.1488, -71.3651, 37.2506
5.212, 6, 34.0023, 52.35, -10.8633, 92.1406, -71.3909, 37.2427
5.216, 6, 33.9985, 52.356, -10.8582, 92.1323, -71.4167, 37.2348
5.22, 6, 33.9947, 52.3619, -10.8532, 92.1241, -71.4426, 37.2269
5.224, 6, 33.9909, 52.3679, -10.8481, 92.1159, -71.4684, 37.219
5.228, 6, 33.987, 52.3739, -10.8431, 92.1077, -71.4942, 37.2111
5.232, 6, 33.9832, 52.3798, -10.838, 92.0994, -71.5201, 37.2033
5.236, 6, 33.9794, 52.3858, -10.8329, 92.0912, -71.5459, 37.1954
5.24, 6, 33.9756, 52.3918, -10.8279, 92.0829, -71.5717, 37.1875
5.244, 6, 33.9717, 52.3978, -10.8228, 92.0747, -71.5976, 37.1796
5.248, 6, 33.9679, 52.4038, -10.8178, 92.0664, -71.6234, 37.1717
5.252, 6, 33.964, 52.4098, -10.8128, 92.0582, -71.6492, 37.1639
5.256, 6, 33.9602, 52.4158, -10.8077, 92.0499, -71.675, 37.156
5.26, 6, 33.9563, 52.4219, -10.8027, 92.0417, -71.7009, 37.1481
5.264, 6, 33.9525, 52.4279, -10.7976, 92.0334, -71.7267, 37.1403
5.268, 6, 33.9486, 52.4339, -10.7926, 92.0252, -71.7525, 37.1324
5.272, 6, 33.9447, 52.44, -10.7876, 92.0169, -71.7783, 37.1245
5.276, 6, 33.9409, 52.446, -10.7825, 92.0086, -71.8041, 37.1167
5.28, 6, 33.937, 52.452, -10.7775, 92.0004, -71.8299, 37.1088
5.284, 6, 33.9331, 52.4581, -10.7725, 91.9921, -71.8558, 37.101
5.288, 6, 33.9292, 52.4642, -10.7674, 91.9838, -71.8816, 37.0931
5.292, 6, 33.9254, 52.4702, -10.7624, 91.9755, -71.9074, 37.0853
5.296, 6, 33.9215, 52.4763, -10.7574, 91.9672, -71.9332, 37.0775
5.3, 6, 33.9176, 52.4824, -10.7524, 91.9589, -71.959, 37.0696
5.304, 6, 33.9137, 52.4885, -10.7473, 91.9506, -71.9848, 37.0618
5.308, 6, 33.9098, 52.4945, -10.7423, 91.9423, -72.0106, 37.054
5.312, 6, 33.9058, 52.5006, -10.7373, 91.934, -72.0364, 37.0461
5.316, 6, 33.9019, 52.5067, -10.7323, 91.9257, -72.0622, 37.0383
5.32, 6, 33.898, 52.5128, -10.7273, 91.9174, -72.088, 37.0305
5.324, 6, 33.8941, 52.519, -10.7223, 91.9091, -72.1138, 37.0227
5.328, 6, 33.8902, 52.5251, -10.7172, 91.9008, -72.1396, 37.0149
5.332, 6, 33.8862, 52.5312, -10.7122, 91.8925, -72.1654, 37.007
5.336, 6, 33.8823, 52.5373, -10.7072, 91.8842, -72.1912, 36.9992
5.34, 6, 33.8784, 52.5435, -10.7022, 91.8759, -72.217, 36.9914
5.344, 6, 33.8744, 52.5496, -10.6972, 91.8675, -72.2428, 36.9836
5.348, 6, 33.8705, 52.5557, -10.6922, 91.8592, -72.2685, 36.9758
5.352, 6, 33.8665, 52.5619, -10.6872, 91.8509, -72.2943, 36.968
5.356, 6, 33.8626, 52.568, -10.6822, 91.8425, -72.3201, 36.9602
5.36, 6, 33.8586, 52.5742, -10.6772, 91.8342, -72.3459, 36.9525
5.364, 6, 33.8546, 52.5804, -10.6722, 91.8259, -72.3717, 36.9447
5.368, 6, 33.8507, 52.5865, -10.6672, 91.8175, -72.3975, 36.9369
5.372, 6, 33.8467, 52.5927, -10.6622, 91.8092, -72.4232, 36.9291
5.376, 6, 33.8427, 52.5989, -10.6572, 91.8008, -72.449, 36.9213
5.38, 6, 33.8387, 52.6051, -10.6523, 91.7925, -72.4748, 36.9136
5.384, 6, 33.8347, 52.6113, -10.6473, 91.7841, -72.5006, 36.9058
5.388, 6, 33.8308, 52.6175, -10.6423, 91.7757, -72.5264, 36.898
5.392, 6, 33.8268, 52.6237, -10.6373, 91.7674, -72.5521, 36.8902
5.396, 6, 33.8228, 52.6299, -10.6323, 91.759, -72.5779, 36.8825
5.4, 6, 33.8188, 52.6361, -10.6273, 91.7506, -72.6037, 36.8747
5.404, 6, 33.8148, 52.6424, -10.6224, 91.7423, -72.6294, 36.867
5.408, 6, 33.8107, 52.6486, -10.6174, 91.7339, -72.6552, 36.8592
5.412, 6, 33.8067, 52.6548, -10.6124, 91.7255, -72.681, 36.8515
5.416, 6, 33.8027, 52.6611, -10.6074, 91.7171, -72.7067, 36.8437
5.42, 6, 33.7987, 52.6673, -10.6025, 91.7088, -72.7325, 36.836
5.424, 6, 33.7946, 52.6736, -10.5975, 91.7004, -72.7582, 36.8282
5.428, 6, 33.7906, 52.6798, -10.5925, 91.692, -72.784, 36.8205
5.432, 6, 33.7866, 52.6861, -10.5876, 91.6836, -72.8098, 36.8128
5.436, 6, 33.7825, 52.6923, -10.5826, 91.6752, -72.8355, 36.805
5.44, 6, 33.7785, 52.6986, -10.5777, 91.6668, -72.8613, 36.7973
5.444, 6, 33.7744, 52.7049, -10.5727, 91.6584, -72.887, 36.7896
5.448, 6, 33.7704, 52.7112, -10.5677, 91.65, -72.9128, 36.7819
5.452, 6, 33.7663, 52.7175, -10.5628, 91.6416, -72.9385, 36.7741
5.456, 6, 33.7622, 52.7238, -10.5578, 91.6332, -72.9643, 36.7664
5.46, 6, 33.7582, 52.7301, -10.5529, 91.6247, -72.99, 36.7587
5.464, 6, 33.7541, 52.7364, -10.5479, 91.6163, -73.0158, 36.751
5.468, 6, 33.75, 52.7427, -10.543, 91.6079, -73.0415, 36.7433
5.472, 6, 33.746, 52.749, -10.538, 91.5995, -73.0673, 36.7356
5.476, 6, 33.7419, 52.7553, -10.5331, 91.591, -73.093, 36.7279
5.48, 6, 33.7378, 52.7617, -10.5281, 91.5826, -73.1188, 36.7202
5.484, 6, 33.7337, 52.768, -10.5232, 91.5742, -73.1445, 36.7125
5.488, 6, 33.7296, 52.7744, -10.5183, 91.5657, -73.1702, 36.7048
5.492, 6, 33.7255, 52.7807, -10.5133, 91.5573, -73.196, 36.6971
5.496, 6, 33.7214, 52.7871, -10.5084, 91.5489, -73.2217, 36.6894
5.5, 6, 33.7173, 52.7934, -10.5034, 91.5404, -73.2474, 36.6817
5.504, 6, 33.7131, 52.7998, -10.4985, 91.532, -73.2732, 36.674
5.508, 6, 33.709, 52.8061, -10.4936, 91.5235, -73.2989, 36.6664
5.512, 6, 33.7049, 52.8125, -10.4887, 91.5151, -73.3246, 36.6587
5.516, 6, 33.7008, 52.8189, -10.4837, 91.5066, -73.3503, 36.651
5.52, 6, 33.6966, 52.8253, -10.4788, 91.4981, -73.3761, 36.6433
5.524, 6, 33.6925, 52.8317, -10.4739, 91.4897, -73.4018, 36.6357
5.528, 6, 33.6884, 52.8381, -10.469, 91.4812, -73.4275, 36.628
5.532, 6, 33.6842, 52.8445, -10.464, 91.4727, -73.4532, 36.6203
5.536, 6, 33.68, 52.8509, -10.4591, 91.4643, -73.479, 36.6127
5.54, 6, 33.6759, 52.8573, -10.4542, 91.4558, -73.5047, 36.605
5.544, 6, 33.6717, 52.8637, -10.4493, 91.4473, -73.5304, 36.5974
5.548, 6, 33.6676, 52.8701, -10.4444, 91.4388, -73.5561, 36.5897
5.552, 6, 33.6634, 52.8766, -10.4395, 91.4303, -73.5818, 36.5821
5.556, 6, 33.6592, 52.883, -10.4346, 91.4218, -73.6075, 36.5744
5.56, 6, 33.6551, 52.8895, -10.4296, 91.4134, -73.6333, 36.5668
5.564, 6, 33.6509, 52.8959, -10.4247, 91.4049, -73.659, 36.5592
5.568, 6, 33.6467, 52.9024, -10.4198, 91.3964, -73.6847, 36.5515
5.572, 6, 33.6425, 52.9088, -10.4149, 91.3878, -73.7104, 36.5439
5.576, 6, 33.6383, 52.9153, -10.41, 91.3793, -73.7361, 36.5363
5.58, 6, 33.6341, 52.9218, -10.4051, 91.3708, -73.7618, 36.5286
5.584, 6, 33.6299, 52.9282, -10.4002, 91.3623, -73.7875, 36.521
5.588, 6, 33.6257, 52.9347, -10.3953, 91.3538, -73.8132, 36.5134
5.592, 6, 33.6215, 52.9412, -10.3905, 91.3453, -73.8389, 36.5058
5.596, 6, 33.6173, 52.9477, -10.3856, 91.3368, -73.8646, 36.4981
5.6, 6, 33.613, 52.9542, -10.3807, 91.3283, -73.8903, 36.4905
5.604, 6, 33.6088, 52.9607, -10.3758, 91.3197, -73.916, 36.4829
5.608, 6, 33.6046, 52.9672, -10.3709, 91.3112, -73.9417, 36.4753
5.612, 6, 33.6003, 52.9737, -10.366, 91.3027, -73.9674, 36.4677
5.616, 6, 33.5961, 52.9802, -10.3611, 91.2941, -73.9931, 36.4601
5.62, 6, 33.5919, 52.9868, -10.3562, 91.2856, -74.0188, 36.4525
5.624, 6, 33.5876, 52.9933, -10.3514, 91.2771, -74.0445, 36.4449
5.628, 6, 33.5834, 52.9998, -10.3465, 91.2685, -74.0701, 36.4373
5.632, 6, 33.5791, 53.0064, -10.3416, 91.26, -74.0958, 36.4297
5.636, 6, 33.5748, 53.0129, -10.3367, 91.2514, -74.1215, 36.4221
5.64, 6, 33.5706, 53.0195, -10.3319, 91.2429, -74.1472, 36.4145
5.644, 6, 33.5663, 53.026, -10.327, 91.2343, -74.1729, 36.407
5.648, 6, 33.562, 53.0326, -10.3221, 91.2258, -74.1986, 36.3994
5.652, 6, 33.5577, 53.0392, -10.3173, 91.2172, -74.2242, 36.3918
5.656, 6, 33.5535, 53.0457, -10.3124, 91.2086, -74.2499, 36.3842
5.66, 6, 33.5492, 53.0523, -10.3075, 91.2001, -74.2756, 36.3767
5.664, 6, 33.5449, 53.0589, -10.3027, 91.1915, -74.3013, 36.3691
5.668, 6, 33.5406, 53.0655, -10.2978, 91.1829, -74.327, 36.3615
5.672, 6, 33.5363, 53.0721, -10.293, 91.1744, -74.3526, 36.354
5.676, 6, 33.532, 53.0787, -10.2881, 91.1658, -74.3783, 36.3464
5.68, 6, 33.5277, 53.0853, -10.2833, 91.1572, -74.404, 36.3388
5.684, 6, 33.5233, 53.0919, -10.2784, 91.1486, -74.4296, 36.3313
5.688, 6, 33.519, 53.0986, -10.2736, 91.14, -74.4553, 36.3237
5.692, 6, 33.5147, 53.1052, -10.2687, 91.1314, -74.481, 36.3162
5.696, 6, 33.5104, 53.1118, -10.2639, 91.1228, -74.5066, 36.3086
5.7, 6, 33.506, 53.1184, -10.259, 91.1142, -74.5323, 36.3011
5.704, 6, 33.5017, 53.1251, -10.2542, 91.1057, -74.558, 36.2935
5.708, 6, 33.4974, 53.1317, -10.2493, 91.097, -74.5836, 36.286
5.712, 6, 33.493, 53.1384, -10.2445, 91.0884, -74.6093, 36.2785
5.716, 6, 33.4887, 53.145, -10.2397, 91.0798, -74.6349, 36.2709
5.72, 6, 33.4843, 53.1517, -10.2348, 91.0712, -74.6606, 36.2634
5.724, 6, 33.48, 53.1584, -10.23, 91.0626, -74.6862, 36.2559
5.728, 6, 33.4756, 53.1651, -10.2252, 91.054, -74.7119, 36.2484
5.732, 6, 33.4712, 53.1717, -10.2203, 91.0454, -74.7375, 36.2408
5.736, 6, 33.4668, 53.1784, -10.2155, 91.0367, -74.7632, 36.2333
5.74, 6, 33.4625, 53.1851, -10.2107, 91.0281, -74.7889, 36.2258
5.744, 6, 33.4581, 53.1918, -10.2058, 91.0195, -74.8145, 36.2183
5.748, 6, 33.4537, 53.1985, -10.201, 91.0109, -74.8401, 36.2108
5.752, 6, 33.4493, 53.2052, -10.1962, 91.0022, -74.8658, 36.2033
5.756, 6, 33.4449, 53.2119, -10.1914, 90.9936, -74.8914, 36.1957
5.76, 6, 33.4405, 53.2187, -10.1866, 90.985, -74.9171, 36.1882
5.764, 6, 33.4361, 53.2254, -10.1818, 90.9763, -74.9427, 36.1807
5.768, 6, 33.4317, 53.2321, -10.1769, 90.9677, -74.9684, 36.1732
5.772, 6, 33.4273, 53.2389, -10.1721, 90.959, -74.994, 36.1657
5.776, 6, 33.4229, 53.2456, -10.1673, 90.9504, -75.0196, 36.1583
5.78, 6, 33.4184, 53.2523, -10.1625, 90.9417, -75.0453, 36.1508
5.784, 6, 33.414, 53.2591, -10.1577, 90.9331, -75.0709, 36.1433
5.788, 6, 33.4096, 53.2659, -10.1529, 90.9244, -75.0965, 36.1358
5.792, 6, 33.4052, 53.2726, -10.1481, 90.9157, -75.1222, 36.1283
5.796, 6, 33.4007, 53.2794, -10.1433, 90.9071, -75.1478, 36.1208
5.8, 6, 33.3963, 53.2862, -10.1385, 90.8984, -75.1734, 36.1133
5.804, 6, 33.3918, 53.2929, -10.1337, 90.8897, -75.1991, 36.1059
5.808, 6, 33.3874, 53.2997, -10.1289, 90.8811, -75.2247, 36.0984
5.812, 6, 33.3829, 53.3065, -10.1241, 90.8724, -75.2503, 36.0909
5.816, 6, 33.3784, 53.3133, -10.1193, 90.8637, -75.2759, 36.0835
5.82, 6, 33.374, 53.3201, -10.1145, 90.855, -75.3016, 36.076
5.824, 6, 33.3695, 53.3269, -10.1098, 90.8463, -75.3272, 36.0685
5.828, 6, 33.365, 53.3337, -10.105, 90.8376, -75.3528, 36.0611
5.832, 6, 33.3605, 53.3406, -10.1002, 90.8289, -75.3784, 36.0536
5.836, 6, 33.3561, 53.3474, -10.0954, 90.8202, -75.4041, 36.0462
5.84, 6, 33.3516, 53.3542, -10.0906, 90.8115, -75.4297, 36.0387
5.844, 6, 33.3471, 53.3611, -10.0859, 90.8028, -75.4553, 36.0313
5.848, 6, 33.3426, 53.3679, -10.0811, 90.7941, -75.4809, 36.0238
5.852, 6, 33.3381, 53.3747, -10.0763, 90.7854, -75.5065, 36.0164
5.856, 6, 33.3336, 53.3816, -10.0715, 90.7767, -75.5321, 36.0089
5.86, 6, 33.329, 53.3884, -10.0668, 90.768, -75.5577, 36.0015
5.864, 6, 33.3245, 53.3953, -10.062, 90.7593, -75.5833, 35.994
5.868, 6, 33.32, 53.4022, -10.0572, 90.7506, -75.6089, 35.9866
5.872, 6, 33.3155, 53.409, -10.0525, 90.7419, -75.6346, 35.9792
5.876, 6, 33.3109, 53.4159, -10.0477, 90.7331, -75.6602, 35.9718
5.88, 6, 33.3064, 53.4228, -10.0429, 90.7244, -75.6858, 35.9643
5.884, 6, 33.3019, 53.4297, -10.0382, 90.7157, -75.7114, 35.9569
5.888, 6, 33.2973, 53.4366, -10.0334, 90.7069, -75.737, 35.9495
5.892, 6, 33.2928, 53.4435, -10.0287, 90.6982, -75.7626, 35.9421
5.896, 6, 33.2882, 53.4504, -10.0239, 90.6895, -75.7882, 35.9346
5.9, 6, 33.2837, 53.4573, -10.0192, 90.6807, -75.8138, 35.9272
5.904, 6, 33.2791, 53.4642, -10.0144, 90.672, -75.8394, 35.9198
5.908, 6, 33.2745, 53.4712, -10.0097, 90.6632, -75.865, 35.9124
5.912, 6, 33.27, 53.4781, -10.0049, 90.6545, -75.8906, 35.905
5.916, 6, 33.2654, 53.485, -10.0002, 90.6457, -75.9162, 35.8976
5.92, 6, 33.2608, 53.492, -9.99546, 90.637, -75.9417, 35.8902
5.924, 6, 33.2562, 53.4989, -9.99072, 90.6282, -75.9673, 35.8828
5.928, 6, 33.2516, 53.5059, -9.98598, 90.6195, -75.9929, 35.8754
5.932, 6, 33.247, 53.5128, -9.98125, 90.6107, -76.0185, 35.868
5.936, 6, 33.2424, 53.5198, -9.97651, 90.6019, -76.0441, 35.8606
5.94, 6, 33.2378, 53.5267, -9.97178, 90.5932, -76.0697, 35.8532
5.944, 6, 33.2332, 53.5337, -9.96705, 90.5844, -76.0953, 35.8458
5.948, 6, 33.2286, 53.5407, -9.96233, 90.5756, -76.1208, 35.8385
5.952, 6, 33.224, 53.5477, -9.9576, 90.5668, -76.1464, 35.8311
5.956, 6, 33.2194, 53.5547, -9.95288, 90.5581, -76.172, 35.8237
5.96, 6, 33.2147, 53.5616, -9.94816, 90.5493, -76.1976, 35.8163
5.964, 6, 33.2101, 53.5686, -9.94344, 90.5405, -76.2232, 35.8089
5.968, 6, 33.2055, 53.5756, -9.93872, 90.5317, -76.2487, 35.8016
5.972, 6, 33.2008, 53.5827, -9.934, 90.5229, -76.2743, 35.7942
5.976, 6, 33.1962, 53.5897, -9.92929, 90.5141, -76.2999, 35.7868
5.98, 6, 33.1915, 53.5967, -9.92458, 90.5053, -76.3255, 35.7795
5.984, 6, 33.1869, 53.6037, -9.91987, 90.4965, -76.351, 35.7721
5.988, 6, 33.1822, 53.6107, -9.91516, 90.4877, -76.3766, 35.7648
5.992, 6, 33.1776, 53.6178, -9.91045, 90.4789, -76.4022, 35.7574
5.996, 6, 33.1729, 53.6248, -9.90575, 90.4701, -76.4277, 35.75
6, 6, 33.1682, 53.6319, -9.90105, 90.4613, -76.4533, 35.7427
6.004, 6, 33.1636, 53.6389, -9.89635, 90.4525, -76.4789, 35.7353
6.008, 6, 33.1589, 53.646, -9.89165, 90.4436, -76.5044, 35.728
6.012, 6, 33.1542, 53.653, -9.88695, 90.4348, -76.53, 35.7206
6.016, 6, 33.1495, 53.6601, -9.88226, 90.426, -76.5556, 35.7133
6.02, 6, 33.1448, 53.6672, -9.87757, 90.4172, -76.5811, 35.706
6.024, 6, 33.1401, 53.6743, -9.87288, 90.4083, -76.6067, 35.6986
6.028, 6, 33.1354, 53.6814, -9.86819, 90.3995, -76.6323, 35.6913
6.032, 6, 33.1307, 53.6884, -9.8635, 90.3907, -76.6578, 35.6839
6.036, 6, 33.126, 53.6955, -9.85882, 90.3818, -76.6834, 35.6766
6.04, 6, 33.1213, 53.7026, -9.85414, 90.373, -76.7089, 35.6693
6.044, 6, 33.1165, 53.7097, -9.84945, 90.3642, -76.7345, 35.662
6.048, 6, 33.1118, 53.7169, -9.84478, 90.3553, -76.76, 35.6546
6.052, 6, 33.1071, 53.724, -9.8401, 90.3465, -76.7856, 35.6473
6.056, 6, 33.1023, 53.7311, -9.83542, 90.3376, -76.8111, 35.64
6.06, 6, 33.0976, 53.7382, -9.83075, 90.3288, -76.8367, 35.6327
6.064, 6, 33.0929, 53.7453, -9.82608, 90.3199, -76.8622, 35.6254
