hehonglu123/ABB_Primitive_Study/execution/movec+movel_smooth/curve_exe_v50_z20.csv
timestamp, cmd_num, J1, J2, J3, J4, J5, J6
0, -1, -18.7697, 34.1307, 27.9437, -19.9675, -90.5849, -2.05479
0.003, -1, -18.7697, 34.1307, 27.9437, -19.9675, -90.5849, -2.05479
0.006, -1, -18.7697, 34.1307, 27.9437, -19.9675, -90.5849, -2.05479
0.008, -1, -18.7697, 34.1307, 27.9437, -19.9675, -90.5849, -2.05479
0.011, -1, -18.7697, 34.1307, 27.9437, -19.9675, -90.5849, -2.05479
0.016, -1, -18.7697, 34.1307, 27.9437, -19.9675, -90.5849, -2.05479
0.02, -1, -18.7697, 34.1307, 27.9437, -19.9675, -90.5849, -2.05479
0.024, -1, -18.7697, 34.1307, 27.9437, -19.9675, -90.5849, -2.05479
0.028, -1, -18.7697, 34.1307, 27.9437, -19.9675, -90.5849, -2.05479
0.032, -1, -18.7697, 34.1307, 27.9437, -19.9675, -90.5849, -2.05479
0.036, -1, -18.7697, 34.1306, 27.9437, -19.9675, -90.5849, -2.05479
0.04, -1, -18.7694, 34.1306, 27.9437, -19.9675, -90.5849, -2.05479
0.044, -1, -18.7688, 34.1304, 27.9437, -19.9675, -90.5848, -2.05481
0.048, -1, -18.7677, 34.13, 27.9438, -19.9674, -90.5848, -2.05485
0.052, -1, -18.7659, 34.1293, 27.9439, -19.9672, -90.5846, -2.05494
0.056, -1, -18.7633, 34.1282, 27.9441, -19.9669, -90.5841, -2.05514
0.06, -1, -18.7599, 34.1267, 27.9443, -19.9661, -90.5833, -2.05552
0.064, -1, -18.7555, 34.1248, 27.9446, -19.9648, -90.5819, -2.05618
0.068, -1, -18.7501, 34.1222, 27.9448, -19.9626, -90.5796, -2.05723
0.072, -1, -18.7435, 34.119, 27.945, -19.9593, -90.576, -2.05884
0.076, -1, -18.7354, 34.115, 27.9452, -19.9545, -90.5709, -2.06119
0.08, -1, -18.7256, 34.11, 27.9454, -19.9477, -90.5636, -2.06449
0.084, -1, -18.7137, 34.104, 27.9453, -19.9384, -90.5537, -2.06898
0.088, -1, -18.6996, 34.0968, 27.9451, -19.9261, -90.5406, -2.07492
0.092, -1, -18.6829, 34.0883, 27.9446, -19.9102, -90.5236, -2.08261
0.096, -1, -18.6635, 34.0784, 27.9438, -19.89, -90.502, -2.09234
0.1, -1, -18.6412, 34.0671, 27.9426, -19.8649, -90.4752, -2.10442
0.104, -1, -18.6159, 34.0542, 27.9408, -19.8342, -90.4426, -2.11914
0.108, -1, -18.5871, 34.0396, 27.9385, -19.7974, -90.4034, -2.13679
0.112, -1, -18.5548, 34.0233, 27.9355, -19.754, -90.3571, -2.15761
0.116, -1, -18.519, 34.0053, 27.9318, -19.7034, -90.3033, -2.18184
0.12, -1, -18.4795, 33.9854, 27.9274, -19.6454, -90.2415, -2.20966
0.124, -1, -18.4364, 33.9638, 27.9221, -19.5795, -90.1714, -2.24119
0.128, -1, -18.3897, 33.9405, 27.916, -19.5056, -90.0928, -2.27653
0.131, -1, -18.3395, 33.9154, 27.909, -19.4238, -90.0058, -2.31566
0.136, -1, -18.2858, 33.8886, 27.9012, -19.3341, -89.9103, -2.35855
0.139, -1, -18.2285, 33.8601, 27.8926, -19.2369, -89.8069, -2.40506
0.144, -1, -18.1677, 33.8299, 27.8833, -19.1324, -89.6957, -2.45501
0.148, -1, -18.1034, 33.798, 27.8733, -19.0212, -89.5774, -2.50817
0.152, -1, -18.0358, 33.7644, 27.8627, -18.9038, -89.4525, -2.56429
0.156, -1, -17.9651, 33.7293, 27.8515, -18.7808, -89.3217, -2.62308
0.16, -1, -17.8915, 33.6928, 27.8399, -18.6529, -89.1856, -2.68422
0.164, -1, -17.8153, 33.6549, 27.828, -18.5207, -89.045, -2.74741
0.168, -1, -17.7365, 33.6157, 27.8158, -18.3849, -88.9005, -2.81233
0.172, -1, -17.6553, 33.5753, 27.8034, -18.2462, -88.7528, -2.87868
0.176, -1, -17.572, 33.5337, 27.7909, -18.105, -88.6026, -2.94619
0.18, -1, -17.4867, 33.4912, 27.7784, -17.9619, -88.4503, -3.01463
0.184, -1, -17.3998, 33.4477, 27.7658, -17.8172, -88.2964, -3.0838
0.188, -1, -17.3114, 33.4034, 27.7532, -17.6715, -88.1413, -3.15353
0.192, -1, -17.2218, 33.3586, 27.7406, -17.5248, -87.9852, -3.2237
0.196, -1, -17.1312, 33.3132, 27.728, -17.3774, -87.8284, -3.2942
0.2, -1, -17.0399, 33.2675, 27.7155, -17.2295, -87.671, -3.36496
0.204, -1, -16.9478, 33.2215, 27.7029, -17.0812, -87.5132, -3.43592
0.208, -1, -16.8552, 33.1752, 27.6903, -16.9326, -87.355, -3.50704
0.212, -1, -16.7621, 33.1287, 27.6778, -16.7836, -87.1965, -3.5783
0.216, -1, -16.6687, 33.0821, 27.6652, -16.6345, -87.0378, -3.64966
0.22, -1, -16.5751, 33.0353, 27.6527, -16.4851, -86.8788, -3.72113
0.224, -1, -16.4812, 32.9885, 27.6401, -16.3356, -86.7197, -3.79268
0.228, -1, -16.3872, 32.9416, 27.6275, -16.1859, -86.5604, -3.8643
0.232, -1, -16.2931, 32.8947, 27.6149, -16.0361, -86.4009, -3.936
0.236, -1, -16.1988, 32.8477, 27.6023, -15.8861, -86.2413, -4.00777
0.24, -1, -16.1045, 32.8006, 27.5897, -15.736, -86.0815, -4.0796
0.244, -1, -16.01, 32.7535, 27.5771, -15.5857, -85.9216, -4.15149
0.248, -1, -15.9155, 32.7064, 27.5645, -15.4354, -85.7616, -4.22345
0.252, -1, -15.8209, 32.6592, 27.5518, -15.2849, -85.6014, -4.29546
0.256, -1, -15.7262, 32.6119, 27.5392, -15.1343, -85.4411, -4.36752
0.26, -1, -15.6314, 32.5647, 27.5265, -14.9836, -85.2807, -4.43964
0.264, -1, -15.5366, 32.5174, 27.5139, -14.8327, -85.1202, -4.5118
0.268, -1, -15.4417, 32.4701, 27.5012, -14.6818, -84.9596, -4.58402
0.272, -1, -15.3467, 32.4227, 27.4885, -14.5308, -84.7989, -4.65628
0.276, -1, -15.2517, 32.3753, 27.4758, -14.3797, -84.638, -4.72859
0.28, -1, -15.1566, 32.3279, 27.4631, -14.2285, -84.4771, -4.80094
0.284, -1, -15.0615, 32.2805, 27.4504, -14.0772, -84.3161, -4.87333
0.288, -1, -14.9663, 32.233, 27.4377, -13.9258, -84.155, -4.94576
0.292, -1, -14.8711, 32.1855, 27.425, -13.7744, -83.9938, -5.01823
0.296, -1, -14.7758, 32.138, 27.4123, -13.6229, -83.8326, -5.09074
0.3, -1, -14.6805, 32.0905, 27.3995, -13.4713, -83.6712, -5.16327
0.304, -1, -14.5851, 32.0429, 27.3868, -13.3196, -83.5098, -5.23584
0.308, -1, -14.4897, 31.9953, 27.3741, -13.1679, -83.3484, -5.30844
0.312, -1, -14.3943, 31.9478, 27.3613, -13.0161, -83.1868, -5.38107
0.316, -1, -14.2988, 31.9001, 27.3486, -12.8643, -83.0252, -5.45372
0.32, -1, -14.2033, 31.8525, 27.3358, -12.7124, -82.8636, -5.5264
0.324, -1, -14.1078, 31.8049, 27.3231, -12.5604, -82.7019, -5.5991
0.328, -1, -14.0122, 31.7572, 27.3103, -12.4085, -82.5401, -5.67183
0.332, -1, -13.9167, 31.7096, 27.2975, -12.2564, -82.3784, -5.74457
0.336, -1, -13.8211, 31.6619, 27.2848, -12.1044, -82.2165, -5.81732
0.34, -1, -13.7255, 31.6142, 27.272, -11.9523, -82.0547, -5.89009
0.344, -1, -13.6298, 31.5665, 27.2592, -11.8002, -81.8928, -5.96287
0.348, -1, -13.5342, 31.5188, 27.2464, -11.6481, -81.7309, -6.03567
0.352, -1, -13.4385, 31.4711, 27.2337, -11.4959, -81.569, -6.10847
0.356, -1, -13.3429, 31.4234, 27.2209, -11.3438, -81.4071, -6.18127
0.36, -1, -13.2472, 31.3757, 27.2081, -11.1916, -81.2451, -6.25408
0.364, -1, -13.1516, 31.328, 27.1953, -11.0395, -81.0832, -6.32689
0.368, -1, -13.0559, 31.2803, 27.1825, -10.8873, -80.9212, -6.3997
0.372, -1, -12.9603, 31.2326, 27.1697, -10.7352, -80.7593, -6.47251
0.376, -1, -12.8646, 31.1849, 27.157, -10.583, -80.5974, -6.54531
0.38, -1, -12.769, 31.1372, 27.1442, -10.4309, -80.4355, -6.6181
0.384, -1, -12.6734, 31.0895, 27.1314, -10.2788, -80.2736, -6.69088
0.388, -1, -12.5777, 31.0418, 27.1186, -10.1267, -80.1118, -6.76365
0.392, -1, -12.4822, 30.9941, 27.1059, -9.97466, -79.9499, -6.8364
0.396, -1, -12.3866, 30.9465, 27.0931, -9.82266, -79.7882, -6.90914
0.4, -1, -12.291, 30.8988, 27.0803, -9.67069, -79.6264, -6.98185
0.404, -1, -12.1955, 30.8512, 27.0676, -9.51877, -79.4647, -7.05455
0.408, -1, -12.1, 30.8036, 27.0548, -9.36689, -79.3031, -7.12722
0.412, -1, -12.0046, 30.756, 27.0421, -9.21508, -79.1415, -7.19987
0.416, -1, -11.9092, 30.7084, 27.0293, -9.06332, -78.98, -7.27248
0.42, -1, -11.8138, 30.6608, 27.0166, -8.91163, -78.8186, -7.34507
0.424, -1, -11.7184, 30.6133, 27.0038, -8.76, -78.6572, -7.41762
0.428, -1, -11.6231, 30.5658, 26.9911, -8.60845, -78.4959, -7.49014
0.432, -1, -11.5279, 30.5183, 26.9784, -8.45698, -78.3347, -7.56262
0.436, -1, -11.4326, 30.4708, 26.9657, -8.30559, -78.1736, -7.63506
0.44, -1, -11.3375, 30.4234, 26.953, -8.15429, -78.0126, -7.70745
0.444, -1, -11.2424, 30.376, 26.9403, -8.00308, -77.8517, -7.77981
0.448, -1, -11.1473, 30.3286, 26.9276, -7.85197, -77.6908, -7.85211
0.452, -1, -11.0524, 30.2813, 26.9149, -7.70096, -77.5301, -7.92437
0.456, -1, -10.9574, 30.2339, 26.9022, -7.55005, -77.3695, -7.99658
0.46, -1, -10.8626, 30.1867, 26.8895, -7.39926, -77.209, -8.06874
0.464, -1, -10.7678, 30.1394, 26.8769, -7.24857, -77.0487, -8.14084
0.468, -1, -10.6731, 30.0922, 26.8642, -7.09801, -76.8884, -8.21289
0.472, -1, -10.5785, 30.045, 26.8516, -6.94757, -76.7283, -8.28487
0.476, -1, -10.4839, 29.9979, 26.839, -6.79726, -76.5683, -8.3568
0.48, -1, -10.3895, 29.9508, 26.8264, -6.64708, -76.4085, -8.42866
0.484, -1, -10.2951, 29.9038, 26.8138, -6.49703, -76.2488, -8.50046
0.488, -1, -10.2008, 29.8568, 26.8012, -6.34712, -76.0893, -8.57219
0.492, -1, -10.1066, 29.8098, 26.7886, -6.19736, -75.9299, -8.64385
0.496, -1, -10.0125, 29.7629, 26.776, -6.04775, -75.7707, -8.71544
0.5, -1, -9.91844, 29.716, 26.7635, -5.89829, -75.6116, -8.78695
0.504, -1, -9.82452, 29.6692, 26.7509, -5.74898, -75.4527, -8.8584
0.508, -1, -9.73069, 29.6225, 26.7384, -5.59984, -75.294, -8.92976
0.512, -1, -9.63697, 29.5757, 26.7259, -5.45086, -75.1354, -9.00105
0.516, -1, -9.54335, 29.5291, 26.7134, -5.30204, -74.977, -9.07226
0.52, -1, -9.44984, 29.4825, 26.7009, -5.1534, -74.8188, -9.14339
0.524, -1, -9.35644, 29.4359, 26.6884, -5.00493, -74.6608, -9.21443
0.528, -1, -9.26314, 29.3894, 26.676, -4.85664, -74.503, -9.28539
0.532, -1, -9.16997, 29.343, 26.6635, -4.70853, -74.3454, -9.35626
0.536, -1, -9.0769, 29.2966, 26.6511, -4.56061, -74.188, -9.42704
0.54, -1, -8.98396, 29.2503, 26.6387, -4.41288, -74.0307, -9.49773
0.544, -1, -8.89113, 29.204, 26.6263, -4.26534, -73.8737, -9.56833
0.548, -1, -8.79843, 29.1578, 26.6139, -4.11799, -73.7169, -9.63883
0.552, -1, -8.70584, 29.1116, 26.6016, -3.97084, -73.5603, -9.70924
0.556, -1, -8.61339, 29.0656, 26.5892, -3.82389, -73.4039, -9.77956
0.56, -1, -8.52106, 29.0196, 26.5769, -3.67715, -73.2477, -9.84978
0.564, -1, -8.42886, 28.9736, 26.5646, -3.53062, -73.0918, -9.91989
0.568, -1, -8.3368, 28.9277, 26.5523, -3.38429, -72.936, -9.98991
0.572, -1, -8.24486, 28.8819, 26.54, -3.23818, -72.7805, -10.0598
0.576, -1, -8.15307, 28.8361, 26.5278, -3.09229, -72.6253, -10.1296
0.58, -1, -8.06141, 28.7905, 26.5155, -2.94661, -72.4702, -10.1993
0.584, -1, -7.96988, 28.7448, 26.5033, -2.80116, -72.3154, -10.2689
0.588, -1, -7.8785, 28.6993, 26.4911, -2.65593, -72.1609, -10.3384
0.592, -1, -7.78726, 28.6538, 26.4789, -2.51093, -72.0065, -10.4078
0.596, -1, -7.69617, 28.6084, 26.4668, -2.36616, -71.8525, -10.4771
0.6, -1, -7.60522, 28.5631, 26.4546, -2.22162, -71.6986, -10.5463
0.604, -1, -7.51441, 28.5178, 26.4425, -2.07732, -71.5451, -10.6153
0.608, -1, -7.42376, 28.4727, 26.4304, -1.93325, -71.3917, -10.6842
0.612, -1, -7.33326, 28.4276, 26.4183, -1.78942, -71.2387, -10.7531
0.616, -1, -7.2429, 28.3825, 26.4063, -1.64584, -71.0859, -10.8218
0.62, -1, -7.1527, 28.3376, 26.3942, -1.5025, -70.9333, -10.8904
0.624, -1, -7.06265, 28.2927, 26.3822, -1.3594, -70.781, -10.9588
0.628, -1, -6.97276, 28.2479, 26.3702, -1.21656, -70.629, -11.0272
0.632, -1, -6.88303, 28.2032, 26.3582, -1.07396, -70.4772, -11.0954
0.636, -1, -6.79346, 28.1585, 26.3463, -0.931622, -70.3257, -11.1635
0.64, -1, -6.70404, 28.114, 26.3344, -0.789537, -70.1745, -11.2315
0.644, -1, -6.61479, 28.0695, 26.3224, -0.647708, -70.0236, -11.2994
0.648, -1, -6.5257, 28.0251, 26.3106, -0.506139, -69.8729, -11.3671
0.652, -1, -6.43677, 27.9808, 26.2987, -0.364831, -69.7225, -11.4347
0.656, -1, -6.34801, 27.9366, 26.2868, -0.223785, -69.5724, -11.5022
0.66, -1, -6.25941, 27.8924, 26.275, -0.0830049, -69.4226, -11.5696
0.664, -1, -6.17098, 27.8483, 26.2632, 0.057509, -69.273, -11.6368
0.668, -1, -6.08272, 27.8044, 26.2514, 0.197755, -69.1238, -11.7039
0.672, -1, -5.99463, 27.7605, 26.2397, 0.33773, -68.9748, -11.7709
0.676, -1, -5.9067, 27.7166, 26.2279, 0.477435, -68.8261, -11.8378
0.68, -1, -5.81895, 27.6729, 26.2162, 0.616866, -68.6777, -11.9045
0.684, -1, -5.73137, 27.6293, 26.2045, 0.756022, -68.5296, -11.9711
0.688, -1, -5.64396, 27.5857, 26.1929, 0.894902, -68.3818, -12.0375
0.692, -1, -5.55673, 27.5422, 26.1812, 1.0335, -68.2343, -12.1038
0.696, -1, -5.46968, 27.4988, 26.1696, 1.17183, -68.0871, -12.17
0.7, -1, -5.38279, 27.4556, 26.158, 1.30987, -67.9402, -12.2361
0.704, -1, -5.29609, 27.4123, 26.1465, 1.44763, -67.7936, -12.302
0.708, -1, -5.20956, 27.3692, 26.1349, 1.58511, -67.6473, -12.3678
0.712, -1, -5.12321, 27.3262, 26.1234, 1.72231, -67.5013, -12.4334
0.716, -1, -5.03704, 27.2833, 26.1119, 1.85921, -67.3555, -12.4989
0.72, -1, -4.95105, 27.2404, 26.1004, 1.99584, -67.2101, -12.5643
0.724, -1, -4.86524, 27.1976, 26.089, 2.13217, -67.065, -12.6296
0.728, -1, -4.77961, 27.155, 26.0775, 2.26822, -66.9203, -12.6947
0.732, -1, -4.69416, 27.1124, 26.0661, 2.40397, -66.7758, -12.7596
0.736, -1, -4.6089, 27.0699, 26.0548, 2.53944, -66.6316, -12.8244
0.74, -1, -4.52381, 27.0275, 26.0434, 2.67461, -66.4877, -12.8891
0.744, -1, -4.43891, 26.9852, 26.0321, 2.8095, -66.3442, -12.9537
0.748, -1, -4.3542, 26.943, 26.0208, 2.94408, -66.201, -13.0181
0.752, -1, -4.26966, 26.9009, 26.0095, 3.07838, -66.058, -13.0823
0.756, -1, -4.18531, 26.8588, 25.9983, 3.21238, -65.9154, -13.1464
0.76, -1, -4.10115, 26.8169, 25.987, 3.34609, -65.7731, -13.2104
0.764, -1, -4.01717, 26.775, 25.9758, 3.4795, -65.6311, -13.2743
0.768, -1, -3.93337, 26.7333, 25.9646, 3.61261, -65.4895, -13.338
0.772, -1, -3.84976, 26.6916, 25.9535, 3.74543, -65.3481, -13.4015
0.776, -1, -3.76633, 26.65, 25.9424, 3.87795, -65.2071, -13.4649
0.78, -1, -3.68309, 26.6086, 25.9313, 4.01018, -65.0664, -13.5282
0.784, -1, -3.60003, 26.5672, 25.9202, 4.14211, -64.9259, -13.5913
0.788, -1, -3.51716, 26.5259, 25.9091, 4.27375, -64.7858, -13.6543
0.792, -1, -3.43447, 26.4847, 25.8981, 4.40509, -64.6461, -13.7172
0.796, -1, -3.35197, 26.4436, 25.8871, 4.53613, -64.5066, -13.7799
0.8, -1, -3.26966, 26.4026, 25.8761, 4.66688, -64.3674, -13.8424
0.804, -1, -3.18753, 26.3616, 25.8652, 4.79734, -64.2286, -13.9049
0.808, -1, -3.10558, 26.3208, 25.8542, 4.9275, -64.0901, -13.9671
0.812, -1, -3.02382, 26.2801, 25.8433, 5.05736, -63.9519, -14.0293
0.816, -1, -2.94225, 26.2394, 25.8324, 5.18693, -63.814, -14.0913
0.82, -1, -2.86085, 26.1989, 25.8216, 5.31621, -63.6764, -14.1531
0.824, -1, -2.77965, 26.1584, 25.8108, 5.4452, -63.5391, -14.2149
0.828, -1, -2.69862, 26.118, 25.8, 5.57389, -63.4021, -14.2764
0.832, -1, -2.61778, 26.0777, 25.7892, 5.70229, -63.2655, -14.3379
0.836, -1, -2.53713, 26.0375, 25.7784, 5.8304, -63.1292, -14.3992
0.84, -1, -2.45665, 25.9974, 25.7677, 5.95822, -62.9931, -14.4603
0.844, -1, -2.37636, 25.9574, 25.757, 6.08575, -62.8574, -14.5214
0.848, -1, -2.29625, 25.9175, 25.7463, 6.21298, -62.722, -14.5823
0.852, -1, -2.21633, 25.8777, 25.7356, 6.33993, -62.5869, -14.643
0.856, -1, -2.13658, 25.838, 25.725, 6.46659, -62.4521, -14.7036
0.86, -1, -2.05702, 25.7983, 25.7144, 6.59296, -62.3176, -14.7641
0.864, -1, -1.97764, 25.7588, 25.7038, 6.71904, -62.1834, -14.8244
0.868, -1, -1.89844, 25.7193, 25.6932, 6.84484, -62.0495, -14.8846
0.872, -1, -1.81942, 25.6799, 25.6827, 6.97035, -61.916, -14.9447
0.876, -1, -1.74058, 25.6406, 25.6722, 7.09557, -61.7827, -15.0046
0.88, -1, -1.66192, 25.6014, 25.6617, 7.2205, -61.6497, -15.0644
0.884, -1, -1.58344, 25.5623, 25.6512, 7.34516, -61.5171, -15.124
0.888, -1, -1.50513, 25.5233, 25.6408, 7.46952, -61.3847, -15.1835
0.892, -1, -1.42701, 25.4844, 25.6304, 7.5936, -61.2526, -15.2429
0.896, -1, -1.34906, 25.4456, 25.62, 7.7174, -61.1209, -15.3021
0.9, -1, -1.2713, 25.4068, 25.6096, 7.84092, -60.9894, -15.3612
0.904, -1, -1.19371, 25.3681, 25.5993, 7.96415, -60.8583, -15.4202
0.908, -1, -1.11629, 25.3296, 25.5889, 8.08711, -60.7274, -15.479
0.912, -1, -1.03905, 25.2911, 25.5786, 8.20978, -60.5969, -15.5377
0.916, -1, -0.961994, 25.2527, 25.5684, 8.33217, -60.4666, -15.5963
0.92, -1, -0.885109, 25.2144, 25.5581, 8.45428, -60.3366, -15.6547
0.924, -1, -0.808399, 25.1762, 25.5479, 8.57612, -60.207, -15.713
0.928, -1, -0.731865, 25.138, 25.5377, 8.69767, -60.0776, -15.7712
0.932, -1, -0.655505, 25.1, 25.5275, 8.81895, -59.9485, -15.8292
0.936, -1, -0.579319, 25.062, 25.5173, 8.93995, -59.8198, -15.8871
0.94, -1, -0.503307, 25.0241, 25.5072, 9.06068, -59.6913, -15.9449
0.944, -1, -0.427468, 24.9863, 25.4971, 9.18113, -59.5631, -16.0025
0.948, -1, -0.351802, 24.9486, 25.487, 9.30131, -59.4352, -16.06
0.952, -1, -0.276308, 24.911, 25.4769, 9.42121, -59.3076, -16.1174
0.956, -1, -0.200986, 24.8735, 25.4669, 9.54084, -59.1803, -16.1746
0.96, -1, -0.125835, 24.8361, 25.4569, 9.66019, -59.0532, -16.2318
0.964, -1, -0.0508559, 24.7987, 25.4469, 9.77928, -58.9265, -16.2887
0.968, -1, 0.023953, 24.7614, 25.4369, 9.89809, -58.8001, -16.3456
0.972, -1, 0.0985918, 24.7242, 25.4269, 10.0166, -58.6739, -16.4023
0.976, -1, 0.173061, 24.6871, 25.417, 10.1349, -58.548, -16.4589
0.98, -1, 0.247361, 24.6501, 25.4071, 10.2529, -58.4224, -16.5154
0.984, -1, 0.321492, 24.6132, 25.3972, 10.3706, -58.2971, -16.5717
0.988, -1, 0.395455, 24.5763, 25.3873, 10.4881, -58.1721, -16.6279
0.992, -1, 0.469251, 24.5395, 25.3775, 10.6053, -58.0474, -16.684
0.996, -1, 0.542879, 24.5028, 25.3677, 10.7223, -57.9229, -16.74
1, -1, 0.61634, 24.4662, 25.3579, 10.8389, -57.7988, -16.7958
1.004, -1, 0.689635, 24.4297, 25.3481, 10.9553, -57.6749, -16.8515
1.008, -1, 0.762764, 24.3933, 25.3384, 11.0715, -57.5513, -16.9071
1.012, -1, 0.835728, 24.3569, 25.3286, 11.1874, -57.4279, -16.9625
1.016, -1, 0.908526, 24.3207, 25.3189, 11.303, -57.3049, -17.0178
1.02, -1, 0.981161, 24.2845, 25.3092, 11.4183, -57.1821, -17.073
1.024, -1, 1.05363, 24.2484, 25.2996, 11.5334, -57.0596, -17.1281
1.027, -1, 1.12594, 24.2123, 25.2899, 11.6483, -56.9374, -17.1831
1.032, -1, 1.19808, 24.1764, 25.2803, 11.7629, -56.8155, -17.2379
1.036, -1, 1.27007, 24.1405, 25.2707, 11.8772, -56.6938, -17.2926
1.04, -1, 1.34189, 24.1047, 25.2611, 11.9912, -56.5724, -17.3472
1.044, -1, 1.41355, 24.069, 25.2516, 12.105, -56.4513, -17.4016
1.048, -1, 1.48505, 24.0334, 25.2421, 12.2186, -56.3304, -17.456
1.052, -1, 1.55639, 23.9978, 25.2325, 12.3319, -56.2098, -17.5102
1.055, -1, 1.62757, 23.9624, 25.2231, 12.4449, -56.0895, -17.5643
1.06, -1, 1.69859, 23.927, 25.2136, 12.5577, -55.9695, -17.6182
1.064, -1, 1.76945, 23.8917, 25.2041, 12.6703, -55.8497, -17.6721
1.068, -1, 1.84016, 23.8565, 25.1947, 12.7826, -55.7302, -17.7258
1.072, -1, 1.91071, 23.8213, 25.1853, 12.8946, -55.611, -17.7794
1.076, -1, 1.9811, 23.7862, 25.1759, 13.0064, -55.492, -17.8329
1.08, -1, 2.05134, 23.7512, 25.1666, 13.1179, -55.3733, -17.8863
1.084, -1, 2.12143, 23.7163, 25.1572, 13.2292, -55.2549, -17.9396
1.088, -1, 2.19136, 23.6815, 25.1479, 13.3403, -55.1367, -17.9927
1.091, -1, 2.26113, 23.6467, 25.1386, 13.4511, -55.0187, -18.0457
1.096, -1, 2.33076, 23.612, 25.1293, 13.5616, -54.9011, -18.0986
1.1, -1, 2.40023, 23.5774, 25.12, 13.672, -54.7837, -18.1514
1.104, -1, 2.46955, 23.5429, 25.1108, 13.7821, -54.6665, -18.2041
1.108, -1, 2.53871, 23.5084, 25.1016, 13.8919, -54.5496, -18.2567
1.112, -1, 2.60773, 23.474, 25.0924, 14.0015, -54.4329, -18.3091
1.116, -1, 2.6766, 23.4397, 25.0832, 14.1109, -54.3166, -18.3614
1.119, -1, 2.74532, 23.4055, 25.074, 14.22, -54.2004, -18.4137
1.124, -1, 2.8139, 23.3713, 25.0649, 14.3289, -54.0845, -18.4658
1.128, -1, 2.88232, 23.3372, 25.0558, 14.4376, -53.9689, -18.5178
1.132, -1, 2.9506, 23.3032, 25.0467, 14.546, -53.8535, -18.5696
1.136, -1, 3.01874, 23.2692, 25.0376, 14.6542, -53.7383, -18.6214
1.14, -1, 3.08673, 23.2353, 25.0285, 14.7622, -53.6234, -18.6731
1.144, -1, 3.15457, 23.2015, 25.0195, 14.8699, -53.5087, -18.7246
1.147, -1, 3.22227, 23.1678, 25.0104, 14.9774, -53.3943, -18.7761
1.152, -1, 3.28983, 23.1341, 25.0014, 15.0847, -53.2801, -18.8274
1.156, -1, 3.35725, 23.1006, 24.9925, 15.1918, -53.1662, -18.8786
1.16, -1, 3.42452, 23.067, 24.9835, 15.2986, -53.0525, -18.9298
1.164, -1, 3.49165, 23.0336, 24.9745, 15.4052, -52.939, -18.9808
1.168, -1, 3.55865, 23.0002, 24.9656, 15.5116, -52.8258, -19.0317
1.172, -1, 3.6255, 22.9669, 24.9567, 15.6178, -52.7128, -19.0825
1.175, -1, 3.69221, 22.9337, 24.9478, 15.7237, -52.6001, -19.1332
1.18, -1, 3.75879, 22.9005, 24.9389, 15.8294, -52.4876, -19.1838
1.184, -1, 3.82523, 22.8674, 24.9301, 15.9349, -52.3753, -19.2343
1.188, -1, 3.89153, 22.8343, 24.9212, 16.0402, -52.2632, -19.2846
1.192, -1, 3.95769, 22.8014, 24.9124, 16.1453, -52.1514, -19.3349
1.196, -1, 4.02372, 22.7685, 24.9036, 16.2501, -52.0398, -19.3851
1.2, -1, 4.08961, 22.7356, 24.8948, 16.3548, -51.9284, -19.4352
1.204, -1, 4.15537, 22.7029, 24.886, 16.4592, -51.8173, -19.4851
1.208, -1, 4.221, 22.6702, 24.8773, 16.5634, -51.7064, -19.535
1.212, -1, 4.28649, 22.6376, 24.8686, 16.6674, -51.5957, -19.5848
1.216, -1, 4.35185, 22.605, 24.8599, 16.7712, -51.4852, -19.6344
1.22, -1, 4.41707, 22.5725, 24.8512, 16.8748, -51.375, -19.684
1.224, -1, 4.48217, 22.54, 24.8425, 16.9782, -51.265, -19.7335
1.228, -1, 4.54713, 22.5077, 24.8338, 17.0814, -51.1552, -19.7828
1.232, -1, 4.61196, 22.4754, 24.8252, 17.1843, -51.0456, -19.8321
1.236, -1, 4.67667, 22.4431, 24.8166, 17.2871, -50.9362, -19.8813
1.24, -1, 4.74124, 22.411, 24.8079, 17.3896, -50.8271, -19.9303
1.244, -1, 4.80569, 22.3788, 24.7994, 17.492, -50.7182, -19.9793
1.248, -1, 4.87, 22.3468, 24.7908, 17.5941, -50.6095, -20.0282
1.252, -1, 4.93419, 22.3148, 24.7822, 17.696, -50.501, -20.077
1.256, -1, 4.99826, 22.2829, 24.7737, 17.7978, -50.3927, -20.1256
1.26, -1, 5.06219, 22.251, 24.7652, 17.8993, -50.2846, -20.1742
1.264, -1, 5.126, 22.2192, 24.7566, 18.0007, -50.1768, -20.2227
1.267, -1, 5.18969, 22.1875, 24.7482, 18.1018, -50.0692, -20.2711
1.272, -1, 5.25325, 22.1558, 24.7397, 18.2027, -49.9617, -20.3194
1.276, -1, 5.31669, 22.1242, 24.7312, 18.3035, -49.8545, -20.3676
1.28, -1, 5.38, 22.0927, 24.7228, 18.404, -49.7475, -20.4157
1.284, -1, 5.44319, 22.0612, 24.7144, 18.5044, -49.6407, -20.4638
1.288, -1, 5.50626, 22.0298, 24.706, 18.6045, -49.5341, -20.5117
1.292, -1, 5.56921, 21.9984, 24.6976, 18.7045, -49.4277, -20.5595
1.295, -1, 5.63203, 21.9671, 24.6892, 18.8043, -49.3215, -20.6073
1.3, -1, 5.69473, 21.9359, 24.6808, 18.9038, -49.2156, -20.6549
1.304, -1, 5.75732, 21.9047, 24.6725, 19.0032, -49.1098, -20.7025
1.308, -1, 5.81978, 21.8736, 24.6642, 19.1024, -49.0042, -20.7499
1.312, -1, 5.88212, 21.8425, 24.6558, 19.2014, -48.8988, -20.7973
1.316, -1, 5.94435, 21.8115, 24.6475, 19.3003, -48.7937, -20.8446
1.32, -1, 6.00646, 21.7805, 24.6393, 19.3989, -48.6887, -20.8918
1.324, -1, 6.06845, 21.7497, 24.631, 19.4973, -48.5839, -20.9389
1.328, -1, 6.13032, 21.7188, 24.6228, 19.5956, -48.4794, -20.9859
1.332, -1, 6.19207, 21.6881, 24.6145, 19.6937, -48.375, -21.0328
1.336, -1, 6.25371, 21.6573, 24.6063, 19.7916, -48.2708, -21.0797
1.34, -1, 6.31523, 21.6267, 24.5981, 19.8893, -48.1668, -21.1264
1.344, -1, 6.37664, 21.5961, 24.5899, 19.9868, -48.063, -21.1731
1.348, -1, 6.43793, 21.5655, 24.5817, 20.0841, -47.9594, -21.2197
1.352, -1, 6.49911, 21.5351, 24.5736, 20.1813, -47.856, -21.2662
1.356, -1, 6.56018, 21.5046, 24.5654, 20.2783, -47.7528, -21.3126
1.36, -1, 6.62113, 21.4743, 24.5573, 20.3751, -47.6498, -21.3589
1.364, -1, 6.68197, 21.4439, 24.5492, 20.4717, -47.547, -21.4051
1.368, -1, 6.74269, 21.4137, 24.5411, 20.5681, -47.4443, -21.4513
1.372, -1, 6.80331, 21.3835, 24.533, 20.6644, -47.3419, -21.4973
1.376, -1, 6.86381, 21.3533, 24.525, 20.7605, -47.2396, -21.5433
1.38, -1, 6.9242, 21.3232, 24.5169, 20.8564, -47.1375, -21.5892
1.384, -1, 6.98448, 21.2932, 24.5089, 20.9521, -47.0357, -21.635
1.388, -1, 7.04465, 21.2632, 24.5009, 21.0477, -46.934, -21.6807
1.392, -1, 7.10471, 21.2333, 24.4928, 21.1431, -46.8324, -21.7264
1.396, -1, 7.16467, 21.2034, 24.4849, 21.2383, -46.7311, -21.7719
1.4, -1, 7.22451, 21.1736, 24.4769, 21.3333, -46.63, -21.8174
1.404, -1, 7.28425, 21.1438, 24.4689, 21.4282, -46.529, -21.8628
1.408, -1, 7.34387, 21.1141, 24.461, 21.5229, -46.4282, -21.9081
1.412, -1, 7.4034, 21.0845, 24.453, 21.6174, -46.3276, -21.9534
1.416, -1, 7.46281, 21.0549, 24.4451, 21.7118, -46.2272, -21.9985
1.42, -1, 7.52212, 21.0253, 24.4372, 21.806, -46.1269, -22.0436
1.424, -1, 7.58133, 20.9958, 24.4293, 21.9, -46.0269, -22.0886
1.428, -1, 7.64043, 20.9664, 24.4214, 21.9938, -45.927, -22.1335
1.432, -1, 7.69943, 20.937, 24.4136, 22.0875, -45.8273, -22.1783
1.436, -1, 7.75832, 20.9076, 24.4057, 22.181, -45.7278, -22.2231
1.44, -1, 7.81711, 20.8783, 24.3979, 22.2744, -45.6284, -22.2677
1.444, -1, 7.8758, 20.8491, 24.3901, 22.3676, -45.5292, -22.3123
1.448, -1, 7.93438, 20.8199, 24.3822, 22.4606, -45.4302, -22.3568
1.452, -1, 7.99287, 20.7908, 24.3744, 22.5535, -45.3314, -22.4013
1.456, -1, 8.05125, 20.7617, 24.3667, 22.6462, -45.2327, -22.4456
1.46, -1, 8.10953, 20.7326, 24.3589, 22.7387, -45.1342, -22.4899
1.464, -1, 8.16771, 20.7037, 24.3511, 22.8311, -45.0359, -22.5341
1.468, -1, 8.22578, 20.6747, 24.3434, 22.9234, -44.9378, -22.5783
1.472, -1, 8.28376, 20.6458, 24.3357, 23.0154, -44.8398, -22.6223
1.476, -1, 8.34164, 20.617, 24.328, 23.1073, -44.742, -22.6663
1.48, -1, 8.39942, 20.5882, 24.3203, 23.1991, -44.6443, -22.7102
1.484, -1, 8.4571, 20.5595, 24.3126, 23.2907, -44.5468, -22.754
1.488, -1, 8.51469, 20.5308, 24.3049, 23.3821, -44.4495, -22.7978
1.492, -1, 8.57218, 20.5021, 24.2972, 23.4734, -44.3523, -22.8415
1.496, -1, 8.62957, 20.4735, 24.2896, 23.5645, -44.2554, -22.8851
1.5, -1, 8.68686, 20.445, 24.2819, 23.6555, -44.1585, -22.9286
1.504, -1, 8.74406, 20.4165, 24.2743, 23.7464, -44.0619, -22.9721
1.508, -1, 8.80116, 20.388, 24.2667, 23.837, -43.9654, -23.0155
1.512, -1, 8.85816, 20.3596, 24.2591, 23.9276, -43.869, -23.0588
1.516, -1, 8.91508, 20.3313, 24.2515, 24.0179, -43.7728, -23.102
1.52, -1, 8.97189, 20.303, 24.2439, 24.1082, -43.6768, -23.1452
1.524, -1, 9.02862, 20.2747, 24.2364, 24.1982, -43.5809, -23.1883
1.528, -1, 9.08525, 20.2465, 24.2288, 24.2882, -43.4852, -23.2313
1.532, -1, 9.14179, 20.2183, 24.2213, 24.378, -43.3897, -23.2743
1.536, -1, 9.19823, 20.1902, 24.2138, 24.4676, -43.2943, -23.3172
1.54, -1, 9.25459, 20.1621, 24.2063, 24.5571, -43.199, -23.36
1.544, -1, 9.31085, 20.1341, 24.1988, 24.6464, -43.1039, -23.4028
1.548, -1, 9.36702, 20.1061, 24.1913, 24.7356, -43.009, -23.4454
1.552, -1, 9.4231, 20.0782, 24.1838, 24.8247, -42.9142, -23.4881
1.556, -1, 9.47909, 20.0503, 24.1763, 24.9136, -42.8196, -23.5306
1.56, -1, 9.53499, 20.0224, 24.1689, 25.0024, -42.7251, -23.5731
1.564, -1, 9.5908, 19.9946, 24.1614, 25.091, -42.6308, -23.6155
1.568, -1, 9.64652, 19.9668, 24.154, 25.1795, -42.5366, -23.6578
1.572, -1, 9.70215, 19.9391, 24.1466, 25.2678, -42.4426, -23.7001
1.576, -1, 9.7577, 19.9114, 24.1392, 25.3561, -42.3487, -23.7423
1.58, -1, 9.81316, 19.8838, 24.1318, 25.4441, -42.255, -23.7845
1.584, -1, 9.86852, 19.8562, 24.1244, 25.5321, -42.1614, -23.8265
1.588, -1, 9.92381, 19.8287, 24.117, 25.6198, -42.068, -23.8685
1.592, -1, 9.979, 19.8012, 24.1097, 25.7075, -41.9747, -23.9105
1.596, -1, 10.0341, 19.7737, 24.1023, 25.795, -41.8816, -23.9524
1.6, -1, 10.0891, 19.7463, 24.095, 25.8824, -41.7886, -23.9942
1.604, -1, 10.1441, 19.7189, 24.0877, 25.9696, -41.6957, -24.0359
1.608, -1, 10.1989, 19.6916, 24.0804, 26.0567, -41.603, -24.0776
1.612, -1, 10.2537, 19.6643, 24.0731, 26.1437, -41.5104, -24.1192
1.616, -1, 10.3084, 19.6371, 24.0658, 26.2306, -41.418, -24.1608
1.62, -1, 10.363, 19.6099, 24.0585, 26.3173, -41.3257, -24.2023
1.624, -1, 10.4175, 19.5827, 24.0512, 26.4038, -41.2336, -24.2437
1.628, -1, 10.4719, 19.5556, 24.044, 26.4903, -41.1416, -24.2851
1.632, -1, 10.5263, 19.5285, 24.0367, 26.5766, -41.0497, -24.3264
1.636, -1, 10.5806, 19.5015, 24.0295, 26.6628, -40.958, -24.3676
1.64, -1, 10.6347, 19.4745, 24.0223, 26.7488, -40.8664, -24.4088
1.644, -1, 10.6888, 19.4475, 24.0151, 26.8348, -40.775, -24.4499
1.648, -1, 10.7429, 19.4206, 24.0079, 26.9205, -40.6837, -24.4909
1.652, -1, 10.7968, 19.3937, 24.0007, 27.0062, -40.5925, -24.5319
1.656, -1, 10.8507, 19.3669, 23.9935, 27.0917, -40.5015, -24.5729
1.66, -1, 10.9044, 19.3401, 23.9863, 27.1771, -40.4106, -24.6137
1.664, -1, 10.9581, 19.3133, 23.9792, 27.2624, -40.3198, -24.6545
1.668, -1, 11.0118, 19.2866, 23.972, 27.3476, -40.2292, -24.6953
1.672, -1, 11.0653, 19.2599, 23.9649, 27.4326, -40.1387, -24.736
1.676, -1, 11.1188, 19.2333, 23.9577, 27.5175, -40.0484, -24.7766
1.68, -1, 11.1722, 19.2067, 23.9506, 27.6023, -39.9581, -24.8172
1.684, -1, 11.2255, 19.1801, 23.9435, 27.6869, -39.868, -24.8577
1.688, -1, 11.2787, 19.1536, 23.9364, 27.7715, -39.7781, -24.8981
1.692, -1, 11.3318, 19.1271, 23.9293, 27.8559, -39.6883, -24.9385
1.696, -1, 11.3849, 19.1007, 23.9223, 27.9401, -39.5986, -24.9788
1.7, -1, 11.4379, 19.0743, 23.9152, 28.0243, -39.509, -25.0191
1.704, -1, 11.4908, 19.0479, 23.9081, 28.1083, -39.4196, -25.0593
1.708, -1, 11.5437, 19.0216, 23.9011, 28.1923, -39.3303, -25.0995
1.712, -1, 11.5964, 18.9953, 23.8941, 28.2761, -39.2411, -25.1396
1.716, -1, 11.6491, 18.969, 23.887, 28.3597, -39.152, -25.1796
1.72, -1, 11.7017, 18.9428, 23.88, 28.4433, -39.0631, -25.2196
1.724, -1, 11.7543, 18.9166, 23.873, 28.5267, -38.9743, -25.2595
1.728, -1, 11.8067, 18.8905, 23.866, 28.61, -38.8856, -25.2994
1.732, -1, 11.8591, 18.8644, 23.859, 28.6932, -38.7971, -25.3392
1.736, -1, 11.9114, 18.8383, 23.8521, 28.7763, -38.7087, -25.3789
1.74, -1, 11.9637, 18.8123, 23.8451, 28.8593, -38.6204, -25.4186
1.744, -1, 12.0158, 18.7863, 23.8381, 28.9421, -38.5322, -25.4583
1.748, -1, 12.0679, 18.7604, 23.8312, 29.0248, -38.4442, -25.4979
1.752, -1, 12.1199, 18.7344, 23.8243, 29.1075, -38.3562, -25.5374
1.756, -1, 12.1719, 18.7086, 23.8173, 29.19, -38.2684, -25.5769
1.76, -1, 12.2238, 18.6827, 23.8104, 29.2723, -38.1808, -25.6163
1.764, -1, 12.2756, 18.6569, 23.8035, 29.3546, -38.0932, -25.6556
1.768, -1, 12.3273, 18.6311, 23.7966, 29.4368, -38.0058, -25.695
1.772, -1, 12.379, 18.6054, 23.7897, 29.5188, -37.9185, -25.7342
1.776, -1, 12.4305, 18.5797, 23.7829, 29.6007, -37.8313, -25.7734
1.78, -1, 12.4821, 18.554, 23.776, 29.6825, -37.7442, -25.8126
1.784, -1, 12.5335, 18.5284, 23.7691, 29.7642, -37.6573, -25.8517
1.788, -1, 12.5849, 18.5028, 23.7623, 29.8458, -37.5704, -25.8907
1.792, -1, 12.6362, 18.4772, 23.7554, 29.9273, -37.4837, -25.9297
1.796, -1, 12.6874, 18.4517, 23.7486, 30.0087, -37.3971, -25.9686
1.8, -1, 12.7386, 18.4262, 23.7418, 30.0899, -37.3106, -26.0075
1.804, -1, 12.7897, 18.4007, 23.735, 30.1711, -37.2243, -26.0463
1.808, -1, 12.8407, 18.3753, 23.7282, 30.2521, -37.1381, -26.0851
1.812, -1, 12.8916, 18.3499, 23.7214, 30.333, -37.0519, -26.1238
1.816, -1, 12.9425, 18.3246, 23.7146, 30.4138, -36.9659, -26.1625
1.82, -1, 12.9933, 18.2992, 23.7078, 30.4945, -36.88, -26.2011
1.824, -1, 13.0441, 18.274, 23.7011, 30.5751, -36.7942, -26.2397
1.828, -1, 13.0948, 18.2487, 23.6943, 30.6556, -36.7086, -26.2782
1.832, -1, 13.1454, 18.2235, 23.6876, 30.736, -36.623, -26.3167
1.836, -1, 13.1959, 18.1983, 23.6808, 30.8163, -36.5376, -26.3551
1.84, -1, 13.2464, 18.1731, 23.6741, 30.8965, -36.4523, -26.3934
1.844, -1, 13.2968, 18.148, 23.6674, 30.9765, -36.3671, -26.4317
1.848, -1, 13.3472, 18.1229, 23.6607, 31.0565, -36.282, -26.47
1.852, -1, 13.3975, 18.0979, 23.654, 31.1363, -36.197, -26.5082
1.856, -1, 13.4477, 18.0729, 23.6473, 31.2161, -36.1121, -26.5464
1.86, -1, 13.4978, 18.0479, 23.6406, 31.2957, -36.0273, -26.5845
1.864, -1, 13.5479, 18.0229, 23.6339, 31.3753, -35.9427, -26.6225
1.868, -1, 13.5979, 17.998, 23.6272, 31.4547, -35.8582, -26.6606
1.872, -1, 13.6479, 17.9731, 23.6206, 31.534, -35.7737, -26.6985
1.876, -1, 13.6978, 17.9482, 23.6139, 31.6133, -35.6894, -26.7364
1.88, -1, 13.7476, 17.9234, 23.6073, 31.6924, -35.6052, -26.7743
1.884, -1, 13.7974, 17.8986, 23.6006, 31.7714, -35.5211, -26.8121
1.888, -1, 13.8471, 17.8739, 23.594, 31.8504, -35.4371, -26.8499
1.892, -1, 13.8967, 17.8491, 23.5874, 31.9292, -35.3532, -26.8876
1.896, -1, 13.9463, 17.8244, 23.5808, 32.0079, -35.2694, -26.9253
1.9, -1, 13.9958, 17.7998, 23.5742, 32.0865, -35.1857, -26.9629
1.904, -1, 14.0452, 17.7751, 23.5676, 32.1651, -35.1021, -27.0005
1.908, -1, 14.0946, 17.7505, 23.561, 32.2435, -35.0187, -27.038
1.912, -1, 14.144, 17.7259, 23.5544, 32.3218, -34.9353, -27.0755
1.916, -1, 14.1932, 17.7014, 23.5479, 32.4001, -34.852, -27.1129
1.92, -1, 14.2424, 17.6769, 23.5413, 32.4782, -34.7689, -27.1503
1.924, -1, 14.2916, 17.6524, 23.5348, 32.5563, -34.6858, -27.1877
1.928, -1, 14.3406, 17.6279, 23.5282, 32.6342, -34.6029, -27.2249
1.932, -1, 14.3896, 17.6035, 23.5217, 32.712, -34.52, -27.2622
1.936, -1, 14.4386, 17.5791, 23.5152, 32.7898, -34.4373, -27.2994
1.94, -1, 14.4875, 17.5547, 23.5086, 32.8674, -34.3546, -27.3366
1.944, -1, 14.5363, 17.5304, 23.5021, 32.945, -34.2721, -27.3737
1.948, -1, 14.5851, 17.5061, 23.4956, 33.0225, -34.1896, -27.4107
1.952, -1, 14.6338, 17.4818, 23.4891, 33.0998, -34.1073, -27.4478
1.956, -1, 14.6825, 17.4576, 23.4826, 33.1771, -34.0251, -27.4847
1.96, -1, 14.7311, 17.4334, 23.4762, 33.2543, -33.9429, -27.5217
1.964, -1, 14.7796, 17.4092, 23.4697, 33.3314, -33.8609, -27.5586
1.968, -1, 14.8281, 17.385, 23.4632, 33.4084, -33.7789, -27.5954
1.972, -1, 14.8765, 17.3609, 23.4568, 33.4853, -33.6971, -27.6322
1.976, -1, 14.9249, 17.3368, 23.4503, 33.5621, -33.6153, -27.6689
1.98, -1, 14.9732, 17.3127, 23.4439, 33.6388, -33.5337, -27.7057
1.984, -1, 15.0214, 17.2887, 23.4375, 33.7154, -33.4521, -27.7423
1.988, -1, 15.0696, 17.2647, 23.431, 33.792, -33.3707, -27.7789
1.992, -1, 15.1178, 17.2407, 23.4246, 33.8684, -33.2893, -27.8155
1.996, -1, 15.1658, 17.2167, 23.4182, 33.9448, -33.2081, -27.8521
1.999, -1, 15.2139, 17.1928, 23.4118, 34.021, -33.1269, -27.8886
2.004, -1, 15.2618, 17.1689, 23.4054, 34.0972, -33.0458, -27.925
2.008, -1, 15.3097, 17.145, 23.399, 34.1733, -32.9649, -27.9614
2.012, -1, 15.3576, 17.1212, 23.3926, 34.2493, -32.884, -27.9978
2.015, -1, 15.4054, 17.0974, 23.3863, 34.3252, -32.8032, -28.0341
2.019, -1, 15.4531, 17.0736, 23.3799, 34.401, -32.7225, -28.0704
2.024, -1, 15.5008, 17.0498, 23.3735, 34.4767, -32.6419, -28.1066
2.028, -1, 15.5484, 17.0261, 23.3672, 34.5524, -32.5614, -28.1428
2.031, -1, 15.596, 17.0024, 23.3609, 34.6279, -32.481, -28.179
2.036, -1, 15.6435, 16.9787, 23.3545, 34.7034, -32.4007, -28.2151
2.04, -1, 15.691, 16.9551, 23.3482, 34.7788, -32.3205, -28.2511
2.044, -1, 15.7384, 16.9314, 23.3419, 34.8541, -32.2403, -28.2872
2.048, -1, 15.7857, 16.9079, 23.3356, 34.9293, -32.1603, -28.3232
2.051, -1, 15.833, 16.8843, 23.3293, 35.0044, -32.0803, -28.3591
2.055, -1, 15.8803, 16.8607, 23.323, 35.0794, -32.0005, -28.395
2.06, -1, 15.9275, 16.8372, 23.3167, 35.1544, -31.9207, -28.4309
2.064, -1, 15.9746, 16.8137, 23.3104, 35.2293, -31.841, -28.4667
2.068, -1, 16.0217, 16.7903, 23.3041, 35.304, -31.7615, -28.5025
2.071, -1, 16.0687, 16.7668, 23.2978, 35.3787, -31.682, -28.5382
2.076, -1, 16.1157, 16.7434, 23.2916, 35.4533, -31.6026, -28.5739
2.08, -1, 16.1626, 16.72, 23.2853, 35.5279, -31.5232, -28.6096
2.084, -1, 16.2095, 16.6967, 23.2791, 35.6023, -31.444, -28.6452
2.087, -1, 16.2563, 16.6734, 23.2728, 35.6767, -31.3649, -28.6808
2.092, -1, 16.3031, 16.6501, 23.2666, 35.751, -31.2858, -28.7163
2.096, -1, 16.3498, 16.6268, 23.2604, 35.8252, -31.2068, -28.7518
2.1, -1, 16.3965, 16.6035, 23.2541, 35.8993, -31.128, -28.7873
2.104, -1, 16.4431, 16.5803, 23.2479, 35.9733, -31.0492, -28.8227
2.107, -1, 16.4896, 16.5571, 23.2417, 36.0473, -30.9705, -28.8581
2.111, -1, 16.5361, 16.5339, 23.2355, 36.1211, -30.8919, -28.8935
2.116, -1, 16.5826, 16.5108, 23.2293, 36.1949, -30.8133, -28.9288
2.12, -1, 16.629, 16.4876, 23.2231, 36.2686, -30.7349, -28.964
2.124, -1, 16.6754, 16.4645, 23.2169, 36.3422, -30.6565, -28.9993
2.127, -1, 16.7217, 16.4415, 23.2108, 36.4158, -30.5783, -29.0345
2.132, -1, 16.7679, 16.4184, 23.2046, 36.4893, -30.5001, -29.0696
2.136, -1, 16.8141, 16.3954, 23.1984, 36.5626, -30.422, -29.1047
2.14, -1, 16.8603, 16.3724, 23.1923, 36.636, -30.3439, -29.1398
2.143, -1, 16.9064, 16.3494, 23.1861, 36.7092, -30.266, -29.1749
2.148, -1, 16.9525, 16.3265, 23.18, 36.7823, -30.1882, -29.2099
2.152, -1, 16.9985, 16.3035, 23.1739, 36.8554, -30.1104, -29.2448
2.156, -1, 17.0444, 16.2806, 23.1677, 36.9284, -30.0327, -29.2798
2.16, -1, 17.0903, 16.2578, 23.1616, 37.0013, -29.9551, -29.3146
2.163, -1, 17.136, 16.235, 23.1555, 37.0742, -29.8776, -29.3495
2.168, -1, 17.1814, 16.2123, 23.1494, 37.1469, -29.8002, -29.3843
2.172, -1, 17.2261, 16.1899, 23.1432, 37.2195, -29.7229, -29.4191
2.176, -1, 17.2699, 16.168, 23.1369, 37.2919, -29.6459, -29.4537
2.179, -1, 17.3126, 16.1465, 23.1306, 37.364, -29.5692, -29.4882
2.184, -1, 17.3541, 16.1257, 23.1243, 37.4355, -29.4931, -29.5224
2.188, -1, 17.3942, 16.1056, 23.1179, 37.5062, -29.4179, -29.5563
2.192, -1, 17.4331, 16.0862, 23.1116, 37.5758, -29.344, -29.5895
2.196, -1, 17.4706, 16.0676, 23.1053, 37.6437, -29.2717, -29.6221
2.199, -1, 17.5068, 16.0498, 23.0992, 37.7096, -29.2017, -29.6536
2.204, -1, 17.5414, 16.0329, 23.0933, 37.7731, -29.1342, -29.684
2.208, -1, 17.5743, 16.017, 23.0876, 37.8335, -29.07, -29.7129
2.212, -1, 17.6054, 16.0022, 23.0823, 37.8904, -29.0095, -29.7402
2.216, -1, 17.6346, 15.9882, 23.0774, 37.9435, -28.9531, -29.7656
2.219, -1, 17.662, 15.9751, 23.0729, 37.9922, -28.9013, -29.7889
2.224, -1, 17.6877, 15.9626, 23.0689, 38.0363, -28.8544, -29.81
2.228, -1, 17.7118, 15.9507, 23.0656, 38.0756, -28.8126, -29.8288
2.232, -1, 17.7344, 15.9393, 23.0628, 38.11, -28.7759, -29.8453
2.235, -1, 17.7552, 15.9285, 23.0605, 38.1397, -28.7443, -29.8594
2.24, -1, 17.7743, 15.9185, 23.0588, 38.1648, -28.7176, -29.8714
2.244, -1, 17.7915, 15.9094, 23.0575, 38.1856, -28.6954, -29.8814
2.248, -1, 17.8067, 15.9013, 23.0566, 38.2025, -28.6773, -29.8895
2.252, -1, 17.8202, 15.8942, 23.056, 38.216, -28.6629, -29.8959
2.255, -1, 17.832, 15.8881, 23.0557, 38.2265, -28.6516, -29.9009
2.259, -1, 17.8423, 15.8828, 23.0556, 38.2345, -28.643, -29.9048
2.264, -1, 17.8512, 15.8784, 23.0556, 38.2404, -28.6366, -29.9076
2.268, -1, 17.8587, 15.8748, 23.0557, 38.2447, -28.632, -29.9096
2.272, -1, 17.8648, 15.8719, 23.0559, 38.2477, -28.6287, -29.9111
2.275, 2, 17.8697, 15.8697, 23.056, 38.2499, -28.6264, -29.9121
2.28, 2, 17.8733, 15.8681, 23.0561, 38.2513, -28.6248, -29.9128
2.284, 2, 17.876, 15.867, 23.0562, 38.2523, -28.6238, -29.9132
2.288, 2, 17.8778, 15.8662, 23.0563, 38.253, -28.623, -29.9136
2.291, 2, 17.879, 15.8657, 23.0563, 38.2534, -28.6226, -29.9138
2.296, 2, 17.8798, 15.8653, 23.0563, 38.2537, -28.6222, -29.9139
2.3, 2, 17.8804, 15.8651, 23.0563, 38.2539, -28.622, -29.914
2.304, 2, 17.8808, 15.8649, 23.0564, 38.2541, -28.6218, -29.9141
2.308, 2, 17.881, 15.8648, 23.0564, 38.2542, -28.6217, -29.9141
2.311, 2, 17.8812, 15.8647, 23.0564, 38.2542, -28.6217, -29.9142
2.316, 2, 17.8813, 15.8647, 23.0564, 38.2543, -28.6216, -29.9142
2.32, 2, 17.8814, 15.8646, 23.0564, 38.2543, -28.6216, -29.9142
2.324, 2, 17.8815, 15.8646, 23.0564, 38.2543, -28.6216, -29.9142
2.328, 2, 17.8815, 15.8646, 23.0564, 38.2543, -28.6215, -29.9142
2.331, 2, 17.8815, 15.8646, 23.0564, 38.2543, -28.6215, -29.9142
2.336, 2, 17.8815, 15.8646, 23.0564, 38.2544, -28.6215, -29.9142
2.34, 2, 17.8815, 15.8646, 23.0564, 38.2544, -28.6215, -29.9142
2.344, 2, 17.8816, 15.8646, 23.0564, 38.2544, -28.6215, -29.9142
2.347, 2, 17.8816, 15.8646, 23.0564, 38.2544, -28.6215, -29.9142
2.352, 2, 17.8816, 15.8646, 23.0564, 38.2544, -28.6215, -29.9142
2.356, 2, 17.8816, 15.8646, 23.0564, 38.2544, -28.6215, -29.9142
2.36, 2, 17.8816, 15.8645, 23.0564, 38.2544, -28.6215, -29.9142
2.364, 2, 17.8816, 15.8645, 23.0564, 38.2544, -28.6215, -29.9142
2.367, 2, 17.8816, 15.8645, 23.0564, 38.2544, -28.6215, -29.9142
2.372, 2, 17.8816, 15.8645, 23.0564, 38.2544, -28.6215, -29.9142
2.376, 2, 17.8816, 15.8645, 23.0564, 38.2544, -28.6215, -29.9142
2.38, 2, 17.8816, 15.8645, 23.0564, 38.2544, -28.6215, -29.9142
2.383, 2, 17.8816, 15.8645, 23.0564, 38.2544, -28.6215, -29.9142
2.388, 2, 17.8816, 15.8645, 23.0564, 38.2544, -28.6215, -29.9142
2.392, 2, 17.8816, 15.8645, 23.0564, 38.2544, -28.6215, -29.9142
2.396, 2, 17.8816, 15.8645, 23.0564, 38.2544, -28.6215, -29.9142
2.4, 2, 17.8816, 15.8645, 23.0564, 38.2544, -28.6215, -29.9142
2.403, 2, 17.8816, 15.8645, 23.0564, 38.2544, -28.6215, -29.9142
2.408, 2, 17.8816, 15.8645, 23.0564, 38.2544, -28.6215, -29.9142
2.412, 2, 17.8816, 15.8645, 23.0564, 38.2544, -28.6215, -29.9142
2.416, 2, 17.8816, 15.8645, 23.0564, 38.2544, -28.6215, -29.9142
2.42, 2, 17.8816, 15.8645, 23.0564, 38.2544, -28.6215, -29.9142
2.423, 2, 17.8816, 15.8645, 23.0564, 38.2544, -28.6215, -29.9142
2.428, 2, 17.8816, 15.8645, 23.0564, 38.2544, -28.6215, -29.9142
2.432, 2, 17.8816, 15.8645, 23.0564, 38.2544, -28.6215, -29.9142
2.436, 2, 17.8816, 15.8645, 23.0564, 38.2544, -28.6215, -29.9142
2.439, 2, 17.8816, 15.8645, 23.0564, 38.2544, -28.6215, -29.9142
2.444, 2, 17.8816, 15.8645, 23.0564, 38.2544, -28.6215, -29.9142
2.448, 2, 17.8816, 15.8645, 23.0564, 38.2544, -28.6215, -29.9142
2.452, 2, 17.8816, 15.8645, 23.0564, 38.2544, -28.6215, -29.9142
2.456, 2, 17.8816, 15.8645, 23.0564, 38.2544, -28.6215, -29.9142
2.459, 2, 17.8816, 15.8645, 23.0564, 38.2544, -28.6215, -29.9142
2.464, 2, 17.8816, 15.8645, 23.0564, 38.2544, -28.6215, -29.9142
2.468, 2, 17.8816, 15.8645, 23.0564, 38.2544, -28.6215, -29.9142
2.472, 2, 17.8816, 15.8645, 23.0564, 38.2544, -28.6215, -29.9142
2.476, 2, 17.8816, 15.8645, 23.0564, 38.2544, -28.6215, -29.9142
2.479, 2, 17.8816, 15.8645, 23.0564, 38.2544, -28.6215, -29.9142
2.484, 2, 17.8816, 15.8645, 23.0564, 38.2544, -28.6215, -29.9142
2.488, 2, 17.8816, 15.8645, 23.0564, 38.2544, -28.6215, -29.9142
2.492, 2, 17.8816, 15.8645, 23.0564, 38.2544, -28.6215, -29.9142
2.495, 2, 17.8816, 15.8645, 23.0564, 38.2544, -28.6215, -29.9142
2.5, 2, 17.8816, 15.8645, 23.0564, 38.2544, -28.6215, -29.9142
2.504, 2, 17.8816, 15.8645, 23.0564, 38.2544, -28.6215, -29.9142
2.508, 2, 17.8816, 15.8645, 23.0564, 38.2544, -28.6215, -29.9142
2.512, 2, 17.8816, 15.8645, 23.0564, 38.2544, -28.6215, -29.9142
2.515, 2, 17.8816, 15.8645, 23.0564, 38.2544, -28.6215, -29.9142
2.52, 2, 17.8816, 15.8645, 23.0564, 38.2544, -28.6215, -29.9142
2.524, 2, 17.8816, 15.8645, 23.0564, 38.2544, -28.6215, -29.9142
2.528, 2, 17.8816, 15.8645, 23.0564, 38.2544, -28.6215, -29.9142
2.531, 2, 17.8816, 15.8645, 23.0564, 38.2544, -28.6215, -29.9142
2.536, 2, 17.8816, 15.8645, 23.0564, 38.2544, -28.6215, -29.9142
2.54, 2, 17.8816, 15.8645, 23.0564, 38.2544, -28.6215, -29.9142
2.544, 2, 17.8816, 15.8645, 23.0564, 38.2544, -28.6215, -29.9142
2.548, 2, 17.8816, 15.8645, 23.0564, 38.2544, -28.6215, -29.9142
2.551, 2, 17.8816, 15.8645, 23.0564, 38.2544, -28.6215, -29.9142
2.556, 2, 17.8816, 15.8645, 23.0564, 38.2544, -28.6215, -29.9142
2.56, 2, 17.8816, 15.8645, 23.0564, 38.2544, -28.6215, -29.9142
2.564, 2, 17.8816, 15.8645, 23.0564, 38.2544, -28.6215, -29.9142
2.568, 2, 17.8816, 15.8645, 23.0564, 38.2544, -28.6215, -29.9142
2.571, 2, 17.8816, 15.8645, 23.0564, 38.2544, -28.6215, -29.9142
2.576, 2, 17.8816, 15.8645, 23.0564, 38.2544, -28.6215, -29.9142
2.58, 2, 17.8816, 15.8645, 23.0564, 38.2544, -28.6215, -29.9142
2.584, 2, 17.8816, 15.8645, 23.0564, 38.2544, -28.6215, -29.9142
2.587, 2, 17.8816, 15.8645, 23.0564, 38.2544, -28.6215, -29.9142
2.592, 2, 17.8816, 15.8645, 23.0564, 38.2544, -28.6215, -29.9142
2.596, 2, 17.8816, 15.8645, 23.0564, 38.2544, -28.6215, -29.9142
2.6, 2, 17.8816, 15.8645, 23.0564, 38.2544, -28.6215, -29.9142
2.604, 2, 17.8816, 15.8645, 23.0564, 38.2544, -28.6215, -29.9142
2.607, 2, 17.8816, 15.8645, 23.0564, 38.2544, -28.6215, -29.9142
2.612, 2, 17.8816, 15.8645, 23.0564, 38.2544, -28.6215, -29.9142
2.616, 2, 17.8816, 15.8645, 23.0564, 38.2544, -28.6215, -29.9142
2.62, 2, 17.8816, 15.8645, 23.0564, 38.2544, -28.6215, -29.9142
2.624, 2, 17.8816, 15.8645, 23.0564, 38.2544, -28.6215, -29.9142
2.627, 2, 17.8816, 15.8645, 23.0564, 38.2544, -28.6215, -29.9142
2.632, 2, 17.8816, 15.8645, 23.0564, 38.2544, -28.6215, -29.9142
2.636, 2, 17.8816, 15.8645, 23.0564, 38.2544, -28.6215, -29.9142
2.64, 2, 17.8816, 15.8645, 23.0564, 38.2544, -28.6215, -29.9142
2.643, 2, 17.8816, 15.8645, 23.0564, 38.2544, -28.6215, -29.9142
2.648, 2, 17.8816, 15.8645, 23.0564, 38.2544, -28.6215, -29.9142
2.652, 2, 17.8816, 15.8645, 23.0564, 38.2544, -28.6215, -29.9142
2.656, 2, 17.8816, 15.8645, 23.0564, 38.2544, -28.6215, -29.9142
2.66, 2, 17.8816, 15.8645, 23.0564, 38.2544, -28.6215, -29.9142
2.663, 2, 17.8816, 15.8645, 23.0564, 38.2544, -28.6215, -29.9142
2.668, 2, 17.8816, 15.8645, 23.0564, 38.2544, -28.6215, -29.9142
2.672, 2, 17.8816, 15.8645, 23.0564, 38.2544, -28.6215, -29.9142
2.676, 2, 17.8816, 15.8645, 23.0564, 38.2544, -28.6215, -29.9142
2.679, 2, 17.8816, 15.8645, 23.0564, 38.2544, -28.6215, -29.9142
2.684, 2, 17.8816, 15.8645, 23.0564, 38.2544, -28.6215, -29.9142
2.688, 2, 17.8816, 15.8645, 23.0564, 38.2544, -28.6215, -29.9142
2.692, 2, 17.8816, 15.8645, 23.0564, 38.2544, -28.6215, -29.9142
2.696, 2, 17.8816, 15.8645, 23.0564, 38.2544, -28.6215, -29.9142
2.699, 2, 17.8816, 15.8645, 23.0564, 38.2544, -28.6215, -29.9142
2.704, 2, 17.8816, 15.8645, 23.0564, 38.2544, -28.6215, -29.9142
2.708, 2, 17.8816, 15.8645, 23.0564, 38.2544, -28.6215, -29.9142
2.712, 2, 17.8816, 15.8645, 23.0564, 38.2544, -28.6215, -29.9142
2.716, 2, 17.8816, 15.8645, 23.0564, 38.2544, -28.6215, -29.9142
2.719, 2, 17.8816, 15.8645, 23.0564, 38.2544, -28.6215, -29.9142
2.724, 2, 17.8816, 15.8645, 23.0564, 38.2544, -28.6215, -29.9142
2.728, 2, 17.8816, 15.8645, 23.0564, 38.2544, -28.6215, -29.9142
2.732, 2, 17.8816, 15.8645, 23.0564, 38.2544, -28.6215, -29.9142
2.735, 2, 17.8816, 15.8645, 23.0564, 38.2544, -28.6215, -29.9142
2.74, 2, 17.8816, 15.8645, 23.0564, 38.2544, -28.6215, -29.9142
2.744, 2, 17.8816, 15.8645, 23.0564, 38.2544, -28.6215, -29.9142
2.748, 2, 17.8816, 15.8645, 23.0564, 38.2544, -28.6215, -29.9142
2.752, 2, 17.8816, 15.8645, 23.0564, 38.2544, -28.6215, -29.9142
2.755, 2, 17.8816, 15.8645, 23.0564, 38.2544, -28.6215, -29.9142
2.76, 2, 17.8816, 15.8645, 23.0564, 38.2544, -28.6215, -29.9142
2.764, 2, 17.8816, 15.8645, 23.0564, 38.2544, -28.6215, -29.9142
2.768, 2, 17.8816, 15.8645, 23.0564, 38.2544, -28.6215, -29.9142
2.772, 2, 17.8816, 15.8645, 23.0564, 38.2544, -28.6215, -29.9142
2.775, 2, 17.8816, 15.8645, 23.0564, 38.2544, -28.6215, -29.9142
2.78, 2, 17.8816, 15.8645, 23.0564, 38.2544, -28.6215, -29.9142
2.784, 2, 17.8816, 15.8645, 23.0564, 38.2544, -28.6215, -29.9142
2.788, 2, 17.8816, 15.8645, 23.0564, 38.2544, -28.6215, -29.9142
2.791, 2, 17.8816, 15.8645, 23.0564, 38.2544, -28.6215, -29.9142
2.796, 2, 17.8816, 15.8645, 23.0564, 38.2544, -28.6215, -29.9142
2.8, 2, 17.8816, 15.8645, 23.0564, 38.2544, -28.6215, -29.9142
2.804, 2, 17.8816, 15.8645, 23.0564, 38.2544, -28.6215, -29.9142
2.808, 2, 17.8816, 15.8645, 23.0564, 38.2544, -28.6215, -29.9142
2.811, 2, 17.8816, 15.8645, 23.0564, 38.2544, -28.6215, -29.9142
2.816, 2, 17.8816, 15.8645, 23.0564, 38.2544, -28.6215, -29.9142
2.82, 2, 17.8816, 15.8645, 23.0564, 38.2544, -28.6215, -29.9142
2.824, 2, 17.8816, 15.8645, 23.0564, 38.2544, -28.6215, -29.9142
2.828, 2, 17.8816, 15.8645, 23.0564, 38.2544, -28.6215, -29.9142
2.831, 2, 17.8816, 15.8645, 23.0564, 38.2544, -28.6215, -29.9142
2.836, 2, 17.8816, 15.8645, 23.0564, 38.2544, -28.6215, -29.9142
2.84, 2, 17.8816, 15.8645, 23.0564, 38.2544, -28.6215, -29.9142
2.844, 2, 17.8816, 15.8645, 23.0564, 38.2544, -28.6215, -29.9142
2.847, 2, 17.8816, 15.8645, 23.0564, 38.2544, -28.6215, -29.9142
2.852, 2, 17.8816, 15.8645, 23.0564, 38.2544, -28.6215, -29.9142
2.856, 2, 17.8816, 15.8645, 23.0564, 38.2544, -28.6215, -29.9142
2.86, 2, 17.8816, 15.8645, 23.0564, 38.2544, -28.6215, -29.9142
2.864, 2, 17.8816, 15.8645, 23.0564, 38.2544, -28.6215, -29.9142
2.867, 2, 17.8816, 15.8645, 23.0564, 38.2544, -28.6215, -29.9142
2.872, 2, 17.8816, 15.8645, 23.0564, 38.2544, -28.6215, -29.9142
2.876, 2, 17.8816, 15.8645, 23.0564, 38.2544, -28.6215, -29.9142
2.88, 2, 17.8816, 15.8645, 23.0564, 38.2544, -28.6215, -29.9142
2.883, 2, 17.8816, 15.8645, 23.0564, 38.2544, -28.6215, -29.9142
2.888, 2, 17.8816, 15.8645, 23.0564, 38.2544, -28.6215, -29.9142
2.892, 2, 17.8816, 15.8645, 23.0564, 38.2544, -28.6215, -29.9142
2.896, 2, 17.8816, 15.8645, 23.0564, 38.2544, -28.6215, -29.9142
2.9, 2, 17.8816, 15.8645, 23.0564, 38.2544, -28.6215, -29.9142
2.903, 2, 17.8816, 15.8645, 23.0564, 38.2544, -28.6215, -29.9142
2.908, 2, 17.8816, 15.8645, 23.0564, 38.2544, -28.6215, -29.9142
2.912, 2, 17.8816, 15.8645, 23.0564, 38.2544, -28.6215, -29.9142
2.916, 2, 17.8816, 15.8645, 23.0564, 38.2544, -28.6215, -29.9142
2.92, 2, 17.8816, 15.8645, 23.0564, 38.2544, -28.6215, -29.9142
2.923, 2, 17.8816, 15.8645, 23.0564, 38.2544, -28.6215, -29.9142
2.928, 2, 17.8816, 15.8645, 23.0564, 38.2544, -28.6215, -29.9142
2.932, 2, 17.8816, 15.8645, 23.0564, 38.2544, -28.6215, -29.9142
2.936, 2, 17.8816, 15.8645, 23.0564, 38.2544, -28.6215, -29.9142
2.939, 2, 17.8816, 15.8645, 23.0564, 38.2544, -28.6215, -29.9142
2.944, 2, 17.8816, 15.8645, 23.0564, 38.2544, -28.6215, -29.9142
2.948, 2, 17.8816, 15.8645, 23.0564, 38.2544, -28.6215, -29.9142
2.952, 2, 17.8816, 15.8645, 23.0564, 38.2544, -28.6215, -29.9142
2.956, 2, 17.8816, 15.8645, 23.0564, 38.2544, -28.6215, -29.9142
2.959, 2, 17.8816, 15.8645, 23.0564, 38.2544, -28.6215, -29.9142
2.964, 2, 17.8816, 15.8645, 23.0564, 38.2544, -28.6215, -29.9142
2.968, 2, 17.8816, 15.8645, 23.0564, 38.2544, -28.6215, -29.9142
2.972, 2, 17.8816, 15.8645, 23.0564, 38.2544, -28.6215, -29.9142
2.976, 2, 17.8816, 15.8645, 23.0564, 38.2544, -28.6215, -29.9142
2.98, 2, 17.8816, 15.8645, 23.0564, 38.2544, -28.6215, -29.9142
2.984, 2, 17.8816, 15.8645, 23.0564, 38.2544, -28.6215, -29.9142
2.988, 2, 17.8816, 15.8645, 23.0564, 38.2544, -28.6215, -29.9142
2.992, 2, 17.8816, 15.8645, 23.0564, 38.2544, -28.6215, -29.9142
2.995, 2, 17.8816, 15.8645, 23.0564, 38.2544, -28.6215, -29.9142
3, 2, 17.8816, 15.8645, 23.0564, 38.2544, -28.6215, -29.9142
3.004, 2, 17.8816, 15.8645, 23.0564, 38.2544, -28.6215, -29.9142
3.008, 2, 17.8816, 15.8645, 23.0564, 38.2544, -28.6215, -29.9142
3.012, 2, 17.8816, 15.8645, 23.0564, 38.2544, -28.6215, -29.9142
3.015, 2, 17.8816, 15.8645, 23.0564, 38.2544, -28.6215, -29.9142
3.02, 2, 17.8816, 15.8645, 23.0564, 38.2544, -28.6215, -29.9142
3.024, 2, 17.8816, 15.8645, 23.0564, 38.2544, -28.6215, -29.9142
3.028, 2, 17.8816, 15.8645, 23.0564, 38.2544, -28.6215, -29.9142
3.031, 2, 17.8816, 15.8645, 23.0564, 38.2544, -28.6215, -29.9142
3.036, 2, 17.8816, 15.8645, 23.0564, 38.2544, -28.6215, -29.9142
3.04, 2, 17.8816, 15.8645, 23.0564, 38.2544, -28.6215, -29.9142
3.044, 2, 17.8816, 15.8645, 23.0564, 38.2544, -28.6215, -29.9142
3.048, 2, 17.8816, 15.8645, 23.0564, 38.2544, -28.6215, -29.9142
3.051, 2, 17.8816, 15.8645, 23.0564, 38.2544, -28.6215, -29.9142
3.056, 2, 17.8816, 15.8645, 23.0564, 38.2544, -28.6215, -29.9142
3.06, 2, 17.8816, 15.8645, 23.0564, 38.2544, -28.6215, -29.9142
3.064, 2, 17.8816, 15.8645, 23.0564, 38.2544, -28.6215, -29.9142
3.068, 2, 17.8816, 15.8645, 23.0564, 38.2544, -28.6215, -29.9142
3.071, 2, 17.8816, 15.8645, 23.0564, 38.2544, -28.6215, -29.9142
3.076, 2, 17.8816, 15.8645, 23.0564, 38.2544, -28.6215, -29.9142
3.08, 2, 17.8816, 15.8645, 23.0564, 38.2544, -28.6215, -29.9142
3.084, 2, 17.8816, 15.8645, 23.0564, 38.2544, -28.6215, -29.9142
3.087, 2, 17.8816, 15.8645, 23.0564, 38.2544, -28.6215, -29.9142
3.092, 2, 17.8816, 15.8645, 23.0564, 38.2544, -28.6215, -29.9142
3.096, 2, 17.8816, 15.8645, 23.0564, 38.2544, -28.6215, -29.9142
3.1, 2, 17.8816, 15.8645, 23.0564, 38.2544, -28.6215, -29.9142
3.104, 2, 17.8816, 15.8645, 23.0564, 38.2544, -28.6215, -29.9142
3.107, 2, 17.8816, 15.8645, 23.0564, 38.2544, -28.6215, -29.9142
3.112, 2, 17.8816, 15.8645, 23.0564, 38.2544, -28.6215, -29.9142
3.116, 2, 17.8816, 15.8645, 23.0564, 38.2544, -28.6215, -29.9142
3.12, 2, 17.8816, 15.8645, 23.0564, 38.2544, -28.6215, -29.9142
3.124, 2, 17.8816, 15.8645, 23.0564, 38.2544, -28.6215, -29.9142
3.128, 2, 17.8816, 15.8645, 23.0564, 38.2544, -28.6215, -29.9142
3.132, 2, 17.8816, 15.8645, 23.0564, 38.2544, -28.6215, -29.9142
3.136, 2, 17.8816, 15.8645, 23.0564, 38.2544, -28.6215, -29.9142
3.14, 2, 17.8816, 15.8645, 23.0564, 38.2544, -28.6215, -29.9142
3.143, 2, 17.8816, 15.8645, 23.0564, 38.2544, -28.6215, -29.9142
3.148, 2, 17.8816, 15.8645, 23.0564, 38.2544, -28.6215, -29.9142
3.152, 2, 17.8816, 15.8645, 23.0564, 38.2544, -28.6215, -29.9142
3.156, 2, 17.8816, 15.8645, 23.0564, 38.2544, -28.6215, -29.9142
3.16, 2, 17.8816, 15.8645, 23.0564, 38.2544, -28.6215, -29.9142
3.163, 2, 17.8816, 15.8645, 23.0564, 38.2544, -28.6215, -29.9142
3.168, 2, 17.8816, 15.8645, 23.0564, 38.2544, -28.6215, -29.9142
3.172, 2, 17.8816, 15.8645, 23.0564, 38.2544, -28.6215, -29.9142
3.176, 2, 17.8816, 15.8645, 23.0564, 38.2544, -28.6215, -29.9142
3.179, 2, 17.8816, 15.8645, 23.0564, 38.2544, -28.6215, -29.9142
3.184, 2, 17.8816, 15.8645, 23.0564, 38.2544, -28.6215, -29.9142
3.188, 2, 17.8816, 15.8645, 23.0564, 38.2544, -28.6215, -29.9142
3.192, 2, 17.8816, 15.8645, 23.0564, 38.2544, -28.6215, -29.9142
3.196, 2, 17.8816, 15.8645, 23.0564, 38.2544, -28.6215, -29.9142
3.199, 2, 17.8816, 15.8645, 23.0564, 38.2544, -28.6215, -29.9142
3.204, 2, 17.8816, 15.8645, 23.0564, 38.2544, -28.6215, -29.9142
3.208, 2, 17.8816, 15.8645, 23.0564, 38.2544, -28.6215, -29.9142
3.212, 2, 17.8816, 15.8645, 23.0564, 38.2544, -28.6215, -29.9142
3.216, 2, 17.8816, 15.8645, 23.0564, 38.2544, -28.6215, -29.9142
3.22, 2, 17.8816, 15.8645, 23.0564, 38.2544, -28.6215, -29.9142
3.224, 2, 17.8816, 15.8645, 23.0564, 38.2544, -28.6215, -29.9142
3.228, 2, 17.8816, 15.8645, 23.0564, 38.2544, -28.6215, -29.9142
3.232, 2, 17.8816, 15.8645, 23.0564, 38.2544, -28.6215, -29.9142
3.235, 2, 17.8816, 15.8645, 23.0564, 38.2544, -28.6215, -29.9142
3.24, 2, 17.8816, 15.8645, 23.0564, 38.2544, -28.6215, -29.9142
3.244, 2, 17.8816, 15.8645, 23.0564, 38.2544, -28.6215, -29.9142
3.248, 2, 17.8816, 15.8645, 23.0564, 38.2544, -28.6215, -29.9142
3.252, 2, 17.8816, 15.8645, 23.0564, 38.2544, -28.6215, -29.9142
3.255, 2, 17.8816, 15.8645, 23.0564, 38.2544, -28.6215, -29.9142
3.26, 2, 17.8816, 15.8645, 23.0564, 38.2544, -28.6215, -29.9142
3.264, 2, 17.8816, 15.8645, 23.0564, 38.2544, -28.6215, -29.9142
3.268, 2, 17.8816, 15.8645, 23.0564, 38.2544, -28.6215, -29.9142
3.272, 2, 17.8816, 15.8645, 23.0564, 38.2544, -28.6215, -29.9142
3.276, 2, 17.8816, 15.8645, 23.0564, 38.2544, -28.6215, -29.9142
3.28, 2, 17.8816, 15.8645, 23.0564, 38.2544, -28.6215, -29.9142
3.284, 2, 17.8816, 15.8645, 23.0564, 38.2544, -28.6215, -29.9142
3.288, 2, 17.8816, 15.8645, 23.0564, 38.2544, -28.6215, -29.9142
3.291, 2, 17.8816, 15.8645, 23.0564, 38.2544, -28.6215, -29.9142
3.296, 2, 17.8816, 15.8645, 23.0564, 38.2544, -28.6215, -29.9142
3.3, 2, 17.8816, 15.8645, 23.0564, 38.2544, -28.6215, -29.9142
3.304, 2, 17.8816, 15.8645, 23.0564, 38.2544, -28.6215, -29.9142
3.308, 2, 17.8816, 15.8645, 23.0564, 38.2544, -28.6215, -29.9142
3.312, 2, 17.8816, 15.8645, 23.0564, 38.2544, -28.6215, -29.9142
3.316, 2, 17.8816, 15.8645, 23.0564, 38.2544, -28.6215, -29.9142
3.32, 2, 17.8816, 15.8645, 23.0564, 38.2544, -28.6215, -29.9142
3.324, 2, 17.8816, 15.8645, 23.0564, 38.2544, -28.6215, -29.9142
3.328, 2, 17.8816, 15.8645, 23.0564, 38.2544, -28.6215, -29.9142
3.332, 2, 17.8816, 15.8645, 23.0564, 38.2544, -28.6215, -29.9142
3.336, 2, 17.8816, 15.8645, 23.0564, 38.2544, -28.6215, -29.9142
3.34, 2, 17.8816, 15.8645, 23.0564, 38.2544, -28.6215, -29.9142
3.344, 2, 17.8816, 15.8645, 23.0564, 38.2544, -28.6215, -29.9142
3.347, 2, 17.8816, 15.8645, 23.0564, 38.2544, -28.6215, -29.9142
3.352, 4, 17.8816, 15.8645, 23.0564, 38.2544, -28.6215, -29.9142
3.356, 4, 17.8816, 15.8645, 23.0564, 38.2544, -28.6215, -29.9142
3.36, 4, 17.8816, 15.8645, 23.0564, 38.2544, -28.6215, -29.9142
3.364, 4, 17.8816, 15.8645, 23.0564, 38.2544, -28.6215, -29.9142
3.368, 4, 17.8816, 15.8645, 23.0564, 38.2544, -28.6215, -29.9142
3.372, 4, 17.8816, 15.8645, 23.0564, 38.2544, -28.6215, -29.9142
3.376, 4, 17.8816, 15.8645, 23.0564, 38.2544, -28.6215, -29.9142
3.38, 4, 17.8816, 15.8645, 23.0564, 38.2544, -28.6215, -29.9142
3.383, 4, 17.8816, 15.8645, 23.0564, 38.2544, -28.6215, -29.9142
3.388, 4, 17.8816, 15.8645, 23.0564, 38.2544, -28.6215, -29.9142
3.392, 4, 17.8816, 15.8645, 23.0564, 38.2544, -28.6215, -29.9142
3.396, 4, 17.8816, 15.8645, 23.0564, 38.2544, -28.6215, -29.9142
3.4, 4, 17.8816, 15.8645, 23.0564, 38.2544, -28.6215, -29.9142
3.403, 4, 17.8816, 15.8645, 23.0564, 38.2544, -28.6215, -29.9142
3.408, 4, 17.8816, 15.8645, 23.0564, 38.2544, -28.6215, -29.9142
3.412, 4, 17.8816, 15.8645, 23.0564, 38.2544, -28.6215, -29.9142
3.416, 4, 17.8816, 15.8645, 23.0564, 38.2544, -28.6215, -29.9142
3.42, 4, 17.8816, 15.8645, 23.0564, 38.2544, -28.6215, -29.9142
3.424, 4, 17.8816, 15.8645, 23.0564, 38.2544, -28.6215, -29.9142
3.428, 4, 17.8816, 15.8645, 23.0564, 38.2544, -28.6215, -29.9142
3.432, 4, 17.8816, 15.8645, 23.0564, 38.2544, -28.6215, -29.9142
3.436, 4, 17.8816, 15.8645, 23.0564, 38.2544, -28.6215, -29.9142
3.439, 4, 17.8816, 15.8645, 23.0564, 38.2544, -28.6215, -29.9142
3.444, 4, 17.8816, 15.8645, 23.0564, 38.2544, -28.6215, -29.9142
3.448, 4, 17.8816, 15.8645, 23.0564, 38.2544, -28.6215, -29.9142
3.452, 4, 17.8816, 15.8645, 23.0564, 38.2544, -28.6215, -29.9142
3.458, 4, 17.8816, 15.8645, 23.0564, 38.2544, -28.6215, -29.9142
3.46, 4, 17.8816, 15.8645, 23.0564, 38.2544, -28.6215, -29.9142
3.464, 4, 17.8816, 15.8645, 23.0564, 38.2544, -28.6215, -29.9142
3.468, 4, 17.8816, 15.8645, 23.0564, 38.2544, -28.6215, -29.9142
3.472, 4, 17.8816, 15.8645, 23.0564, 38.2544, -28.6215, -29.9142
3.476, 4, 17.8816, 15.8645, 23.0564, 38.2544, -28.6215, -29.9142
3.48, 4, 17.8816, 15.8645, 23.0564, 38.2544, -28.6215, -29.9142
3.484, 4, 17.8816, 15.8645, 23.0564, 38.2544, -28.6215, -29.9142
3.488, 4, 17.8816, 15.8645, 23.0564, 38.2544, -28.6215, -29.9142
3.492, 4, 17.8816, 15.8646, 23.0564, 38.2544, -28.6215, -29.9142
3.495, 4, 17.8815, 15.8646, 23.0564, 38.2544, -28.6215, -29.9142
3.5, 4, 17.8813, 15.8647, 23.0563, 38.2543, -28.6215, -29.9142
3.504, 4, 17.8809, 15.865, 23.0563, 38.2543, -28.6215, -29.9142
3.508, 4, 17.88, 15.8657, 23.0561, 38.2541, -28.6216, -29.9141
3.512, 4, 17.8788, 15.8666, 23.0558, 38.2538, -28.6217, -29.9138
3.516, 4, 17.8773, 15.8679, 23.0554, 38.2531, -28.6219, -29.9132
3.52, 4, 17.8755, 15.8695, 23.0549, 38.2519, -28.6223, -29.9122
3.524, 4, 17.8735, 15.8714, 23.0542, 38.25, -28.623, -29.9106
3.528, 4, 17.8714, 15.8735, 23.0532, 38.2472, -28.6239, -29.9083
3.531, 4, 17.8694, 15.8759, 23.052, 38.2434, -28.6251, -29.905
3.536, 4, 17.8673, 15.8785, 23.0506, 38.2383, -28.6268, -29.9007
3.54, 5, 17.8651, 15.8814, 23.0489, 38.2319, -28.6289, -29.8952
3.544, 5, 17.8628, 15.8848, 23.0468, 38.2241, -28.6314, -29.8885
3.548, 5, 17.8604, 15.8885, 23.0444, 38.2148, -28.6344, -29.8806
3.552, 5, 17.8579, 15.8925, 23.0417, 38.2041, -28.6379, -29.8715
3.556, 5, 17.8554, 15.8968, 23.0386, 38.192, -28.6419, -29.8611
3.56, 5, 17.853, 15.9014, 23.0353, 38.1785, -28.6463, -29.8496
3.564, 5, 17.8505, 15.9062, 23.0318, 38.1638, -28.6511, -29.837
3.568, 5, 17.848, 15.9113, 23.028, 38.148, -28.6562, -29.8236
3.572, 5, 17.8454, 15.9167, 23.0239, 38.1314, -28.6617, -29.8094
3.576, 5, 17.8424, 15.9225, 23.0197, 38.1141, -28.6673, -29.7947
3.58, 5, 17.8391, 15.9287, 23.0153, 38.0964, -28.6731, -29.7795
3.584, 5, 17.8354, 15.9352, 23.0108, 38.0782, -28.679, -29.764
3.587, 5, 17.8313, 15.942, 23.0062, 38.0599, -28.685, -29.7483
3.592, 5, 17.827, 15.9491, 23.0015, 38.0414, -28.6911, -29.7325
3.596, 5, 17.8226, 15.9562, 22.9967, 38.0227, -28.6972, -29.7166
3.6, 5, 17.8181, 15.9635, 22.9919, 38.004, -28.7033, -29.7007
3.604, 5, 17.8135, 15.9708, 22.9871, 37.9853, -28.7095, -29.6847
3.608, 5, 17.8088, 15.9781, 22.9823, 37.9665, -28.7157, -29.6687
3.612, 5, 17.8041, 15.9855, 22.9775, 37.9477, -28.7218, -29.6527
3.616, 5, 17.7994, 15.9929, 22.9726, 37.9289, -28.728, -29.6366
3.62, 5, 17.7947, 16.0003, 22.9678, 37.9101, -28.7342, -29.6206
3.624, 5, 17.7899, 16.0077, 22.9629, 37.8912, -28.7404, -29.6045
3.628, 5, 17.7852, 16.0151, 22.9581, 37.8724, -28.7466, -29.5885
3.632, 5, 17.7804, 16.0225, 22.9533, 37.8536, -28.7528, -29.5725
3.636, 5, 17.7756, 16.0299, 22.9484, 37.8348, -28.759, -29.5564
3.64, 5, 17.7708, 16.0373, 22.9436, 37.816, -28.7652, -29.5404
3.644, 5, 17.7661, 16.0448, 22.9387, 37.7972, -28.7714, -29.5244
3.648, 5, 17.7613, 16.0522, 22.9339, 37.7784, -28.7776, -29.5084
3.652, 5, 17.7565, 16.0596, 22.9291, 37.7596, -28.7838, -29.4924
3.656, 5, 17.7517, 16.067, 22.9242, 37.7408, -28.79, -29.4764
3.66, 5, 17.747, 16.0744, 22.9194, 37.722, -28.7962, -29.4603
3.664, 5, 17.7422, 16.0818, 22.9145, 37.7032, -28.8024, -29.4444
3.668, 5, 17.7374, 16.0893, 22.9097, 37.6844, -28.8086, -29.4284
3.672, 5, 17.7326, 16.0967, 22.9049, 37.6657, -28.8149, -29.4124
3.676, 5, 17.7278, 16.1041, 22.9, 37.6469, -28.8211, -29.3964
3.679, 5, 17.723, 16.1115, 22.8952, 37.6281, -28.8273, -29.3804
3.684, 5, 17.7183, 16.1189, 22.8904, 37.6094, -28.8335, -29.3645
3.688, 5, 17.7135, 16.1263, 22.8856, 37.5906, -28.8397, -29.3485
3.692, 5, 17.7087, 16.1337, 22.8807, 37.5719, -28.846, -29.3325
3.696, 5, 17.7039, 16.1411, 22.8759, 37.5532, -28.8522, -29.3166
3.7, 5, 17.6991, 16.1485, 22.8711, 37.5344, -28.8584, -29.3006
3.704, 5, 17.6943, 16.1559, 22.8662, 37.5157, -28.8646, -29.2847
3.708, 5, 17.6895, 16.1633, 22.8614, 37.497, -28.8709, -29.2688
3.712, 5, 17.6847, 16.1707, 22.8566, 37.4783, -28.8771, -29.2528
3.716, 5, 17.6799, 16.1781, 22.8518, 37.4595, -28.8833, -29.2369
3.72, 5, 17.6751, 16.1855, 22.847, 37.4408, -28.8896, -29.221
3.724, 5, 17.6703, 16.1929, 22.8421, 37.4221, -28.8958, -29.2051
3.728, 5, 17.6655, 16.2003, 22.8373, 37.4034, -28.9021, -29.1892
3.732, 5, 17.6607, 16.2077, 22.8325, 37.3848, -28.9083, -29.1733
3.735, 5, 17.6559, 16.2151, 22.8277, 37.3661, -28.9146, -29.1574
3.74, 5, 17.6511, 16.2224, 22.8229, 37.3474, -28.9208, -29.1415
3.744, 5, 17.6463, 16.2298, 22.8181, 37.3287, -28.927, -29.1256
3.748, 5, 17.6415, 16.2372, 22.8132, 37.31, -28.9333, -29.1097
3.752, 5, 17.6367, 16.2446, 22.8084, 37.2914, -28.9395, -29.0938
3.756, 5, 17.6319, 16.252, 22.8036, 37.2727, -28.9458, -29.078
3.76, 5, 17.627, 16.2594, 22.7988, 37.2541, -28.9521, -29.0621
3.764, 5, 17.6222, 16.2667, 22.794, 37.2354, -28.9583, -29.0462
3.768, 5, 17.6174, 16.2741, 22.7892, 37.2168, -28.9646, -29.0304
3.772, 5, 17.6126, 16.2815, 22.7844, 37.1981, -28.9708, -29.0145
3.776, 5, 17.6078, 16.2889, 22.7796, 37.1795, -28.9771, -28.9987
3.78, 5, 17.603, 16.2962, 22.7748, 37.1609, -28.9834, -28.9829
3.784, 5, 17.5981, 16.3036, 22.77, 37.1423, -28.9896, -28.967
3.788, 5, 17.5933, 16.311, 22.7652, 37.1236, -28.9959, -28.9512
3.792, 5, 17.5885, 16.3184, 22.7604, 37.105, -29.0022, -28.9354
3.796, 5, 17.5837, 16.3257, 22.7556, 37.0864, -29.0084, -28.9196
3.8, 5, 17.5789, 16.3331, 22.7508, 37.0678, -29.0147, -28.9038
3.804, 5, 17.574, 16.3405, 22.746, 37.0492, -29.021, -28.888
3.808, 5, 17.5692, 16.3478, 22.7412, 37.0306, -29.0273, -28.8722
3.812, 5, 17.5644, 16.3552, 22.7364, 37.012, -29.0335, -28.8564
3.816, 5, 17.5596, 16.3625, 22.7316, 36.9935, -29.0398, -28.8406
3.82, 5, 17.5547, 16.3699, 22.7268, 36.9749, -29.0461, -28.8248
3.824, 5, 17.5499, 16.3773, 22.722, 36.9563, -29.0524, -28.809
3.828, 5, 17.5451, 16.3846, 22.7173, 36.9378, -29.0587, -28.7933
3.832, 5, 17.5402, 16.392, 22.7125, 36.9192, -29.065, -28.7775
3.836, 5, 17.5354, 16.3993, 22.7077, 36.9006, -29.0712, -28.7617
3.84, 5, 17.5306, 16.4067, 22.7029, 36.8821, -29.0775, -28.746
3.844, 5, 17.5257, 16.414, 22.6981, 36.8636, -29.0838, -28.7303
3.848, 5, 17.5209, 16.4214, 22.6933, 36.845, -29.0901, -28.7145
3.852, 5, 17.5161, 16.4287, 22.6885, 36.8265, -29.0964, -28.6988
3.856, 5, 17.5112, 16.4361, 22.6838, 36.808, -29.1027, -28.683
3.86, 5, 17.5064, 16.4434, 22.679, 36.7894, -29.109, -28.6673
3.864, 5, 17.5015, 16.4508, 22.6742, 36.7709, -29.1153, -28.6516
3.868, 5, 17.4967, 16.4581, 22.6694, 36.7524, -29.1216, -28.6359
3.872, 5, 17.4918, 16.4654, 22.6647, 36.7339, -29.1279, -28.6202
3.876, 5, 17.487, 16.4728, 22.6599, 36.7154, -29.1342, -28.6045
3.88, 5, 17.4821, 16.4801, 22.6551, 36.6969, -29.1405, -28.5888
3.884, 5, 17.4773, 16.4874, 22.6503, 36.6784, -29.1468, -28.5731
3.888, 5, 17.4725, 16.4948, 22.6456, 36.6599, -29.1532, -28.5574
3.892, 5, 17.4676, 16.5021, 22.6408, 36.6415, -29.1595, -28.5417
3.896, 5, 17.4627, 16.5094, 22.636, 36.623, -29.1658, -28.5261
3.9, 5, 17.4579, 16.5168, 22.6313, 36.6045, -29.1721, -28.5104
3.904, 5, 17.453, 16.5241, 22.6265, 36.586, -29.1784, -28.4947
3.908, 5, 17.4482, 16.5314, 22.6217, 36.5676, -29.1847, -28.4791
3.912, 5, 17.4433, 16.5388, 22.617, 36.5491, -29.1911, -28.4634
3.916, 5, 17.4385, 16.5461, 22.6122, 36.5307, -29.1974, -28.4478
3.92, 5, 17.4336, 16.5534, 22.6074, 36.5122, -29.2037, -28.4321
3.924, 5, 17.4288, 16.5607, 22.6027, 36.4938, -29.21, -28.4165
3.928, 5, 17.4239, 16.568, 22.5979, 36.4754, -29.2164, -28.4009
3.932, 5, 17.419, 16.5754, 22.5932, 36.457, -29.2227, -28.3852
3.936, 5, 17.4142, 16.5827, 22.5884, 36.4385, -29.229, -28.3696
3.94, 5, 17.4093, 16.59, 22.5837, 36.4201, -29.2354, -28.354
3.944, 5, 17.4044, 16.5973, 22.5789, 36.4017, -29.2417, -28.3384
3.948, 5, 17.3996, 16.6046, 22.5742, 36.3833, -29.2481, -28.3228
3.952, 5, 17.3947, 16.6119, 22.5694, 36.3649, -29.2544, -28.3072
3.956, 5, 17.3898, 16.6193, 22.5647, 36.3465, -29.2607, -28.2916
3.96, 5, 17.385, 16.6266, 22.5599, 36.3281, -29.2671, -28.276
3.964, 5, 17.3801, 16.6339, 22.5552, 36.3097, -29.2734, -28.2604
3.968, 5, 17.3752, 16.6412, 22.5504, 36.2914, -29.2798, -28.2449
3.972, 5, 17.3703, 16.6485, 22.5457, 36.273, -29.2861, -28.2293
3.976, 5, 17.3655, 16.6558, 22.5409, 36.2546, -29.2925, -28.2137
3.98, 5, 17.3606, 16.6631, 22.5362, 36.2363, -29.2988, -28.1982
3.984, 5, 17.3557, 16.6704, 22.5314, 36.2179, -29.3052, -28.1826
3.988, 5, 17.3508, 16.6777, 22.5267, 36.1995, -29.3115, -28.1671
3.992, 5, 17.346, 16.685, 22.522, 36.1812, -29.3179, -28.1515
3.996, 5, 17.3411, 16.6923, 22.5172, 36.1629, -29.3243, -28.136
3.999, 5, 17.3362, 16.6996, 22.5125, 36.1445, -29.3306, -28.1205
4.004, 5, 17.3313, 16.7069, 22.5077, 36.1262, -29.337, -28.1049
4.008, 5, 17.3264, 16.7142, 22.503, 36.1079, -29.3433, -28.0894
4.012, 5, 17.3215, 16.7214, 22.4983, 36.0895, -29.3497, -28.0739
4.016, 5, 17.3167, 16.7287, 22.4935, 36.0712, -29.3561, -28.0584
4.02, 5, 17.3118, 16.736, 22.4888, 36.0529, -29.3625, -28.0429
4.024, 5, 17.3069, 16.7433, 22.4841, 36.0346, -29.3688, -28.0274
4.028, 5, 17.302, 16.7506, 22.4794, 36.0163, -29.3752, -28.0119
4.032, 5, 17.2971, 16.7579, 22.4746, 35.998, -29.3816, -27.9964
4.036, 5, 17.2922, 16.7652, 22.4699, 35.9797, -29.388, -27.9809
4.04, 5, 17.2873, 16.7724, 22.4652, 35.9614, -29.3943, -27.9654
4.044, 5, 17.2824, 16.7797, 22.4605, 35.9432, -29.4007, -27.95
4.048, 5, 17.2775, 16.787, 22.4557, 35.9249, -29.4071, -27.9345
4.052, 5, 17.2726, 16.7943, 22.451, 35.9066, -29.4135, -27.9191
4.056, 5, 17.2677, 16.8015, 22.4463, 35.8884, -29.4199, -27.9036
4.06, 5, 17.2628, 16.8088, 22.4416, 35.8701, -29.4263, -27.8881
4.064, 5, 17.2579, 16.8161, 22.4369, 35.8518, -29.4326, -27.8727
4.068, 5, 17.253, 16.8234, 22.4321, 35.8336, -29.439, -27.8573
4.072, 5, 17.2481, 16.8306, 22.4274, 35.8154, -29.4454, -27.8418
4.076, 5, 17.2432, 16.8379, 22.4227, 35.7971, -29.4518, -27.8264
4.08, 5, 17.2383, 16.8452, 22.418, 35.7789, -29.4582, -27.811
4.084, 5, 17.2334, 16.8524, 22.4133, 35.7607, -29.4646, -27.7956
4.088, 5, 17.2285, 16.8597, 22.4086, 35.7424, -29.471, -27.7802
4.092, 5, 17.2236, 16.8669, 22.4039, 35.7242, -29.4774, -27.7648
4.096, 5, 17.2187, 16.8742, 22.3992, 35.706, -29.4838, -27.7494
4.1, 5, 17.2138, 16.8815, 22.3945, 35.6878, -29.4902, -27.734
4.104, 5, 17.2088, 16.8887, 22.3898, 35.6696, -29.4967, -27.7186
4.108, 5, 17.2039, 16.896, 22.3851, 35.6514, -29.5031, -27.7032
4.112, 5, 17.199, 16.9032, 22.3804, 35.6332, -29.5095, -27.6878
4.116, 5, 17.1941, 16.9105, 22.3757, 35.615, -29.5159, -27.6724
4.12, 5, 17.1892, 16.9177, 22.371, 35.5969, -29.5223, -27.6571
4.124, 5, 17.1843, 16.925, 22.3663, 35.5787, -29.5287, -27.6417
4.128, 5, 17.1793, 16.9322, 22.3616, 35.5605, -29.5351, -27.6264
4.132, 5, 17.1744, 16.9395, 22.3569, 35.5424, -29.5416, -27.611
4.136, 5, 17.1695, 16.9467, 22.3522, 35.5242, -29.548, -27.5957
4.14, 5, 17.1646, 16.954, 22.3475, 35.506, -29.5544, -27.5803
4.144, 5, 17.1597, 16.9612, 22.3428, 35.4879, -29.5608, -27.565
4.148, 5, 17.1547, 16.9685, 22.3381, 35.4698, -29.5673, -27.5497
4.152, 5, 17.1498, 16.9757, 22.3334, 35.4516, -29.5737, -27.5343
4.156, 5, 17.1449, 16.9829, 22.3287, 35.4335, -29.5801, -27.519
4.16, 5, 17.1399, 16.9902, 22.324, 35.4154, -29.5866, -27.5037
4.164, 5, 17.135, 16.9974, 22.3193, 35.3972, -29.593, -27.4884
4.168, 5, 17.1301, 17.0046, 22.3147, 35.3791, -29.5994, -27.4731
4.172, 5, 17.1251, 17.0119, 22.31, 35.361, -29.6059, -27.4578
4.176, 5, 17.1202, 17.0191, 22.3053, 35.3429, -29.6123, -27.4425
4.18, 5, 17.1153, 17.0263, 22.3006, 35.3248, -29.6187, -27.4272
4.184, 5, 17.1103, 17.0336, 22.2959, 35.3067, -29.6252, -27.4119
4.188, 5, 17.1054, 17.0408, 22.2913, 35.2886, -29.6316, -27.3967
4.192, 5, 17.1005, 17.048, 22.2866, 35.2705, -29.6381, -27.3814
4.196, 5, 17.0955, 17.0552, 22.2819, 35.2524, -29.6445, -27.3661
4.2, 5, 17.0906, 17.0625, 22.2772, 35.2344, -29.651, -27.3509
4.204, 5, 17.0856, 17.0697, 22.2726, 35.2163, -29.6574, -27.3356
4.208, 5, 17.0807, 17.0769, 22.2679, 35.1982, -29.6639, -27.3204
4.212, 5, 17.0758, 17.0841, 22.2632, 35.1802, -29.6703, -27.3051
4.216, 5, 17.0708, 17.0913, 22.2585, 35.1621, -29.6768, -27.2899
4.22, 5, 17.0659, 17.0986, 22.2539, 35.1441, -29.6833, -27.2747
4.224, 5, 17.0609, 17.1058, 22.2492, 35.126, -29.6897, -27.2594
4.228, 5, 17.056, 17.113, 22.2445, 35.108, -29.6962, -27.2442
4.232, 5, 17.051, 17.1202, 22.2399, 35.0899, -29.7027, -27.229
4.236, 5, 17.0461, 17.1274, 22.2352, 35.0719, -29.7091, -27.2138
4.24, 5, 17.0411, 17.1346, 22.2305, 35.0539, -29.7156, -27.1986
4.244, 5, 17.0362, 17.1418, 22.2259, 35.0359, -29.7221, -27.1834
4.248, 5, 17.0312, 17.149, 22.2212, 35.0179, -29.7285, -27.1682
4.252, 5, 17.0263, 17.1562, 22.2166, 34.9999, -29.735, -27.153
4.256, 5, 17.0213, 17.1634, 22.2119, 34.9818, -29.7415, -27.1378
4.26, 5, 17.0163, 17.1706, 22.2073, 34.9638, -29.748, -27.1227
4.264, 5, 17.0114, 17.1778, 22.2026, 34.9459, -29.7544, -27.1075
4.268, 5, 17.0064, 17.185, 22.1979, 34.9279, -29.7609, -27.0923
4.272, 5, 17.0015, 17.1922, 22.1933, 34.9099, -29.7674, -27.0771
4.276, 5, 16.9965, 17.1994, 22.1886, 34.8919, -29.7739, -27.062
4.28, 5, 16.9915, 17.2066, 22.184, 34.8739, -29.7804, -27.0468
4.284, 5, 16.9866, 17.2138, 22.1793, 34.856, -29.7869, -27.0317
4.288, 5, 16.9816, 17.221, 22.1747, 34.838, -29.7934, -27.0166
4.292, 5, 16.9766, 17.2282, 22.17, 34.82, -29.7998, -27.0014
4.296, 5, 16.9717, 17.2354, 22.1654, 34.8021, -29.8063, -26.9863
4.3, 5, 16.9667, 17.2426, 22.1608, 34.7841, -29.8128, -26.9712
4.304, 5, 16.9617, 17.2498, 22.1561, 34.7662, -29.8193, -26.956
4.308, 5, 16.9568, 17.2569, 22.1515, 34.7483, -29.8258, -26.9409
4.312, 5, 16.9518, 17.2641, 22.1468, 34.7303, -29.8323, -26.9258
4.316, 5, 16.9468, 17.2713, 22.1422, 34.7124, -29.8388, -26.9107
4.32, 5, 16.9418, 17.2785, 22.1376, 34.6945, -29.8453, -26.8956
4.324, 5, 16.9369, 17.2857, 22.1329, 34.6766, -29.8518, -26.8805
4.328, 5, 16.9319, 17.2928, 22.1283, 34.6586, -29.8583, -26.8654
4.332, 5, 16.9269, 17.3, 22.1236, 34.6407, -29.8649, -26.8503
4.336, 5, 16.9219, 17.3072, 22.119, 34.6228, -29.8714, -26.8353
4.34, 5, 16.917, 17.3144, 22.1144, 34.6049, -29.8779, -26.8202
4.344, 5, 16.912, 17.3215, 22.1098, 34.587, -29.8844, -26.8051
4.348, 5, 16.907, 17.3287, 22.1051, 34.5692, -29.8909, -26.7901
4.352, 5, 16.902, 17.3359, 22.1005, 34.5513, -29.8974, -26.775
4.356, 5, 16.897, 17.343, 22.0959, 34.5334, -29.9039, -26.76
4.36, 5, 16.892, 17.3502, 22.0912, 34.5155, -29.9105, -26.7449
4.364, 5, 16.8871, 17.3574, 22.0866, 34.4977, -29.917, -26.7299
4.368, 5, 16.8821, 17.3645, 22.082, 34.4798, -29.9235, -26.7148
4.372, 5, 16.8771, 17.3717, 22.0774, 34.4619, -29.93, -26.6998
4.376, 5, 16.8721, 17.3789, 22.0728, 34.4441, -29.9366, -26.6848
4.38, 5, 16.8671, 17.386, 22.0681, 34.4263, -29.9431, -26.6698
4.384, 5, 16.8621, 17.3932, 22.0635, 34.4084, -29.9496, -26.6548
4.388, 5, 16.8571, 17.4003, 22.0589, 34.3906, -29.9562, -26.6397
4.392, 5, 16.8521, 17.4075, 22.0543, 34.3727, -29.9627, -26.6247
4.396, 5, 16.8471, 17.4146, 22.0497, 34.3549, -29.9692, -26.6097
4.4, 5, 16.8421, 17.4218, 22.0451, 34.3371, -29.9758, -26.5947
4.404, 5, 16.8371, 17.4289, 22.0404, 34.3193, -29.9823, -26.5798
4.408, 5, 16.8321, 17.4361, 22.0358, 34.3015, -29.9889, -26.5648
4.412, 5, 16.8271, 17.4432, 22.0312, 34.2837, -29.9954, -26.5498
4.416, 5, 16.8221, 17.4504, 22.0266, 34.2659, -30.0019, -26.5348
4.42, 5, 16.8171, 17.4575, 22.022, 34.2481, -30.0085, -26.5199
4.424, 5, 16.8121, 17.4647, 22.0174, 34.2303, -30.015, -26.5049
4.428, 5, 16.8071, 17.4718, 22.0128, 34.2125, -30.0216, -26.4899
4.432, 5, 16.8021, 17.4789, 22.0082, 34.1947, -30.0281, -26.475
4.436, 5, 16.7971, 17.4861, 22.0036, 34.1769, -30.0347, -26.4601
4.44, 5, 16.7921, 17.4932, 21.999, 34.1592, -30.0413, -26.4451
4.444, 5, 16.7871, 17.5004, 21.9944, 34.1414, -30.0478, -26.4302
4.448, 5, 16.7821, 17.5075, 21.9898, 34.1236, -30.0544, -26.4152
4.452, 5, 16.7771, 17.5146, 21.9852, 34.1059, -30.0609, -26.4003
4.456, 5, 16.772, 17.5218, 21.9806, 34.0881, -30.0675, -26.3854
4.46, 5, 16.767, 17.5289, 21.976, 34.0704, -30.0741, -26.3705
4.464, 5, 16.762, 17.536, 21.9714, 34.0527, -30.0806, -26.3556
4.468, 5, 16.757, 17.5431, 21.9668, 34.0349, -30.0872, -26.3407
4.472, 5, 16.752, 17.5503, 21.9622, 34.0172, -30.0938, -26.3258
4.476, 5, 16.747, 17.5574, 21.9577, 33.9995, -30.1003, -26.3109
4.48, 5, 16.7419, 17.5645, 21.9531, 33.9817, -30.1069, -26.296
4.484, 5, 16.7369, 17.5716, 21.9485, 33.964, -30.1135, -26.2811
4.488, 5, 16.7319, 17.5788, 21.9439, 33.9463, -30.1201, -26.2662
4.492, 5, 16.7269, 17.5859, 21.9393, 33.9286, -30.1267, -26.2514
4.496, 5, 16.7219, 17.593, 21.9347, 33.9109, -30.1332, -26.2365
4.5, 5, 16.7168, 17.6001, 21.9301, 33.8932, -30.1398, -26.2216
4.504, 5, 16.7118, 17.6072, 21.9256, 33.8755, -30.1464, -26.2068
4.508, 5, 16.7068, 17.6143, 21.921, 33.8578, -30.153, -26.1919
4.512, 5, 16.7017, 17.6214, 21.9164, 33.8402, -30.1596, -26.1771
4.516, 5, 16.6967, 17.6286, 21.9118, 33.8225, -30.1662, -26.1622
4.52, 5, 16.6917, 17.6357, 21.9073, 33.8048, -30.1728, -26.1474
4.524, 5, 16.6867, 17.6428, 21.9027, 33.7872, -30.1794, -26.1326
4.528, 5, 16.6816, 17.6499, 21.8981, 33.7695, -30.186, -26.1178
4.532, 5, 16.6766, 17.657, 21.8935, 33.7519, -30.1925, -26.1029
4.536, 5, 16.6716, 17.6641, 21.889, 33.7342, -30.1991, -26.0881
4.54, 5, 16.6665, 17.6712, 21.8844, 33.7166, -30.2057, -26.0733
4.544, 5, 16.6615, 17.6783, 21.8798, 33.6989, -30.2123, -26.0585
4.548, 5, 16.6564, 17.6854, 21.8753, 33.6813, -30.219, -26.0437
4.552, 5, 16.6514, 17.6925, 21.8707, 33.6637, -30.2256, -26.0289
4.556, 5, 16.6464, 17.6996, 21.8661, 33.646, -30.2322, -26.0141
4.56, 5, 16.6413, 17.7067, 21.8616, 33.6284, -30.2388, -25.9993
4.564, 5, 16.6363, 17.7138, 21.857, 33.6108, -30.2454, -25.9846
4.568, 5, 16.6312, 17.7209, 21.8525, 33.5932, -30.252, -25.9698
4.572, 5, 16.6262, 17.7279, 21.8479, 33.5756, -30.2586, -25.955
4.576, 5, 16.6211, 17.735, 21.8434, 33.558, -30.2652, -25.9403
4.58, 5, 16.6161, 17.7421, 21.8388, 33.5404, -30.2718, -25.9255
4.584, 5, 16.611, 17.7492, 21.8342, 33.5228, -30.2785, -25.9107
4.588, 5, 16.606, 17.7563, 21.8297, 33.5052, -30.2851, -25.896
4.592, 5, 16.6009, 17.7634, 21.8251, 33.4876, -30.2917, -25.8813
4.596, 5, 16.5959, 17.7705, 21.8206, 33.4701, -30.2983, -25.8665
4.6, 5, 16.5908, 17.7775, 21.816, 33.4525, -30.305, -25.8518
4.604, 5, 16.5858, 17.7846, 21.8115, 33.4349, -30.3116, -25.8371
4.608, 5, 16.5807, 17.7917, 21.807, 33.4174, -30.3182, -25.8223
4.612, 5, 16.5757, 17.7988, 21.8024, 33.3998, -30.3249, -25.8076
4.616, 5, 16.5706, 17.8058, 21.7979, 33.3823, -30.3315, -25.7929
4.62, 5, 16.5656, 17.8129, 21.7933, 33.3647, -30.3381, -25.7782
4.624, 5, 16.5605, 17.82, 21.7888, 33.3472, -30.3448, -25.7635
4.628, 5, 16.5554, 17.827, 21.7842, 33.3297, -30.3514, -25.7488
4.632, 5, 16.5504, 17.8341, 21.7797, 33.3121, -30.358, -25.7341
4.636, 5, 16.5453, 17.8412, 21.7752, 33.2946, -30.3647, -25.7194
4.64, 5, 16.5403, 17.8482, 21.7706, 33.2771, -30.3713, -25.7048
4.644, 5, 16.5352, 17.8553, 21.7661, 33.2596, -30.378, -25.6901
4.648, 5, 16.5301, 17.8624, 21.7616, 33.2421, -30.3846, -25.6754
4.652, 5, 16.5251, 17.8694, 21.757, 33.2246, -30.3913, -25.6608
4.656, 5, 16.52, 17.8765, 21.7525, 33.2071, -30.3979, -25.6461
4.66, 5, 16.5149, 17.8836, 21.748, 33.1896, -30.4046, -25.6314
4.664, 5, 16.5099, 17.8906, 21.7435, 33.1721, -30.4112, -25.6168
4.668, 5, 16.5048, 17.8977, 21.7389, 33.1546, -30.4179, -25.6021
4.672, 5, 16.4997, 17.9047, 21.7344, 33.1371, -30.4246, -25.5875
4.676, 5, 16.4946, 17.9118, 21.7299, 33.1196, -30.4312, -25.5729
4.68, 5, 16.4896, 17.9188, 21.7254, 33.1022, -30.4379, -25.5582
4.684, 5, 16.4845, 17.9259, 21.7208, 33.0847, -30.4445, -25.5436
4.688, 5, 16.4794, 17.9329, 21.7163, 33.0673, -30.4512, -25.529
4.692, 5, 16.4743, 17.94, 21.7118, 33.0498, -30.4579, -25.5144
4.696, 5, 16.4693, 17.947, 21.7073, 33.0324, -30.4645, -25.4998
4.7, 5, 16.4642, 17.9541, 21.7028, 33.0149, -30.4712, -25.4852
4.704, 5, 16.4591, 17.9611, 21.6983, 32.9975, -30.4779, -25.4706
4.708, 5, 16.454, 17.9681, 21.6937, 32.98, -30.4846, -25.456
4.712, 5, 16.4489, 17.9752, 21.6892, 32.9626, -30.4912, -25.4414
4.716, 5, 16.4439, 17.9822, 21.6847, 32.9452, -30.4979, -25.4268
4.72, 5, 16.4388, 17.9892, 21.6802, 32.9278, -30.5046, -25.4123
4.724, 5, 16.4337, 17.9963, 21.6757, 32.9104, -30.5113, -25.3977
4.728, 5, 16.4286, 18.0033, 21.6712, 32.8929, -30.518, -25.3831
4.732, 5, 16.4235, 18.0103, 21.6667, 32.8755, -30.5247, -25.3686
4.736, 5, 16.4184, 18.0174, 21.6622, 32.8581, -30.5313, -25.354
4.74, 5, 16.4133, 18.0244, 21.6577, 32.8407, -30.538, -25.3394
4.744, 5, 16.4082, 18.0314, 21.6532, 32.8234, -30.5447, -25.3249
4.748, 5, 16.4031, 18.0385, 21.6487, 32.806, -30.5514, -25.3104
4.752, 5, 16.3981, 18.0455, 21.6442, 32.7886, -30.5581, -25.2958
4.756, 5, 16.393, 18.0525, 21.6397, 32.7712, -30.5648, -25.2813
4.76, 5, 16.3879, 18.0595, 21.6352, 32.7539, -30.5715, -25.2668
4.764, 5, 16.3828, 18.0665, 21.6307, 32.7365, -30.5782, -25.2522
4.768, 5, 16.3777, 18.0736, 21.6262, 32.7191, -30.5849, -25.2377
4.772, 5, 16.3726, 18.0806, 21.6217, 32.7018, -30.5916, -25.2232
4.776, 5, 16.3675, 18.0876, 21.6172, 32.6844, -30.5983, -25.2087
4.78, 5, 16.3624, 18.0946, 21.6127, 32.6671, -30.605, -25.1942
4.784, 5, 16.3573, 18.1016, 21.6083, 32.6497, -30.6117, -25.1797
4.788, 5, 16.3522, 18.1086, 21.6038, 32.6324, -30.6184, -25.1652
4.792, 5, 16.3471, 18.1156, 21.5993, 32.6151, -30.6251, -25.1507
4.796, 5, 16.342, 18.1227, 21.5948, 32.5978, -30.6319, -25.1363
4.8, 5, 16.3368, 18.1297, 21.5903, 32.5804, -30.6386, -25.1218
4.804, 5, 16.3317, 18.1367, 21.5858, 32.5631, -30.6453, -25.1073
4.808, 5, 16.3266, 18.1437, 21.5814, 32.5458, -30.652, -25.0929
4.812, 5, 16.3215, 18.1507, 21.5769, 32.5285, -30.6587, -25.0784
4.816, 5, 16.3164, 18.1577, 21.5724, 32.5112, -30.6655, -25.0639
4.82, 5, 16.3113, 18.1647, 21.5679, 32.4939, -30.6722, -25.0495
4.824, 5, 16.3062, 18.1717, 21.5635, 32.4766, -30.6789, -25.0351
4.828, 5, 16.3011, 18.1787, 21.559, 32.4593, -30.6856, -25.0206
4.832, 5, 16.296, 18.1857, 21.5545, 32.4421, -30.6924, -25.0062
4.836, 5, 16.2908, 18.1927, 21.55, 32.4248, -30.6991, -24.9918
4.84, 5, 16.2857, 18.1997, 21.5456, 32.4075, -30.7058, -24.9773
4.844, 5, 16.2806, 18.2066, 21.5411, 32.3902, -30.7126, -24.9629
4.848, 5, 16.2755, 18.2136, 21.5366, 32.373, -30.7193, -24.9485
4.852, 5, 16.2704, 18.2206, 21.5322, 32.3557, -30.726, -24.9341
4.856, 5, 16.2652, 18.2276, 21.5277, 32.3385, -30.7328, -24.9197
4.86, 5, 16.2601, 18.2346, 21.5233, 32.3212, -30.7395, -24.9053
4.864, 5, 16.255, 18.2416, 21.5188, 32.304, -30.7463, -24.8909
4.868, 5, 16.2499, 18.2486, 21.5143, 32.2868, -30.753, -24.8765
4.872, 5, 16.2448, 18.2555, 21.5099, 32.2695, -30.7597, -24.8621
4.876, 5, 16.2396, 18.2625, 21.5054, 32.2523, -30.7665, -24.8478
4.88, 5, 16.2345, 18.2695, 21.501, 32.2351, -30.7732, -24.8334
4.884, 5, 16.2294, 18.2765, 21.4965, 32.2179, -30.78, -24.819
4.888, 5, 16.2242, 18.2834, 21.4921, 32.2007, -30.7868, -24.8047
4.892, 5, 16.2191, 18.2904, 21.4876, 32.1834, -30.7935, -24.7903
4.896, 5, 16.214, 18.2974, 21.4832, 32.1662, -30.8003, -24.7759
4.9, 5, 16.2088, 18.3044, 21.4787, 32.1491, -30.807, -24.7616
4.904, 5, 16.2037, 18.3113, 21.4743, 32.1319, -30.8138, -24.7473
4.908, 5, 16.1986, 18.3183, 21.4698, 32.1147, -30.8206, -24.7329
4.912, 5, 16.1934, 18.3253, 21.4654, 32.0975, -30.8273, -24.7186
4.916, 5, 16.1883, 18.3322, 21.4609, 32.0803, -30.8341, -24.7043
4.92, 5, 16.1832, 18.3392, 21.4565, 32.0631, -30.8408, -24.6899
4.924, 5, 16.178, 18.3462, 21.4521, 32.046, -30.8476, -24.6756
4.928, 5, 16.1729, 18.3531, 21.4476, 32.0288, -30.8544, -24.6613
4.932, 5, 16.1677, 18.3601, 21.4432, 32.0117, -30.8612, -24.647
4.936, 5, 16.1626, 18.367, 21.4388, 31.9945, -30.8679, -24.6327
4.94, 5, 16.1575, 18.374, 21.4343, 31.9774, -30.8747, -24.6184
4.944, 5, 16.1523, 18.3809, 21.4299, 31.9602, -30.8815, -24.6041
4.948, 5, 16.1472, 18.3879, 21.4255, 31.9431, -30.8883, -24.5898
4.952, 5, 16.142, 18.3948, 21.421, 31.9259, -30.8951, -24.5755
4.956, 5, 16.1369, 18.4018, 21.4166, 31.9088, -30.9018, -24.5613
4.96, 5, 16.1317, 18.4087, 21.4122, 31.8917, -30.9086, -24.547
4.964, 5, 16.1266, 18.4157, 21.4078, 31.8746, -30.9154, -24.5327
4.968, 5, 16.1214, 18.4226, 21.4033, 31.8575, -30.9222, -24.5185
4.972, 5, 16.1163, 18.4296, 21.3989, 31.8404, -30.929, -24.5042
4.976, 5, 16.1111, 18.4365, 21.3945, 31.8233, -30.9358, -24.49
4.98, 5, 16.106, 18.4435, 21.3901, 31.8062, -30.9426, -24.4757
4.984, 5, 16.1008, 18.4504, 21.3856, 31.7891, -30.9494, -24.4615
4.988, 5, 16.0957, 18.4573, 21.3812, 31.772, -30.9562, -24.4472
4.992, 5, 16.0905, 18.4643, 21.3768, 31.7549, -30.963, -24.433
4.996, 5, 16.0854, 18.4712, 21.3724, 31.7378, -30.9698, -24.4188
5, 5, 16.0802, 18.4781, 21.368, 31.7207, -30.9766, -24.4046
5.004, 5, 16.075, 18.4851, 21.3636, 31.7037, -30.9834, -24.3903
5.008, 5, 16.0699, 18.492, 21.3592, 31.6866, -30.9902, -24.3761
5.012, 5, 16.0647, 18.4989, 21.3548, 31.6696, -30.997, -24.3619
5.016, 5, 16.0596, 18.5059, 21.3503, 31.6525, -31.0038, -24.3477
5.02, 5, 16.0544, 18.5128, 21.3459, 31.6354, -31.0106, -24.3335
5.024, 5, 16.0492, 18.5197, 21.3415, 31.6184, -31.0174, -24.3193
5.028, 5, 16.0441, 18.5266, 21.3371, 31.6014, -31.0243, -24.3052
5.032, 5, 16.0389, 18.5336, 21.3327, 31.5843, -31.0311, -24.291
5.036, 5, 16.0337, 18.5405, 21.3283, 31.5673, -31.0379, -24.2768
5.04, 5, 16.0286, 18.5474, 21.3239, 31.5503, -31.0447, -24.2626
5.044, 5, 16.0234, 18.5543, 21.3195, 31.5333, -31.0515, -24.2485
5.048, 5, 16.0182, 18.5612, 21.3151, 31.5162, -31.0584, -24.2343
5.052, 5, 16.013, 18.5682, 21.3107, 31.4992, -31.0652, -24.2201
5.056, 5, 16.0079, 18.5751, 21.3064, 31.4822, -31.072, -24.206
5.06, 5, 16.0027, 18.582, 21.302, 31.4652, -31.0788, -24.1918
5.064, 5, 15.9975, 18.5889, 21.2976, 31.4482, -31.0857, -24.1777
5.068, 5, 15.9923, 18.5958, 21.2932, 31.4312, -31.0925, -24.1636
5.072, 5, 15.9872, 18.6027, 21.2888, 31.4143, -31.0993, -24.1494
5.076, 5, 15.982, 18.6096, 21.2844, 31.3973, -31.1062, -24.1353
5.08, 5, 15.9768, 18.6165, 21.28, 31.3803, -31.113, -24.1212
5.084, 5, 15.9716, 18.6234, 21.2756, 31.3633, -31.1199, -24.1071
5.088, 5, 15.9664, 18.6303, 21.2713, 31.3464, -31.1267, -24.093
5.092, 5, 15.9613, 18.6372, 21.2669, 31.3294, -31.1335, -24.0789
5.096, 5, 15.9561, 18.6441, 21.2625, 31.3124, -31.1404, -24.0648
5.1, 5, 15.9509, 18.651, 21.2581, 31.2955, -31.1472, -24.0507
5.104, 5, 15.9457, 18.6579, 21.2537, 31.2785, -31.1541, -24.0366
5.108, 5, 15.9405, 18.6648, 21.2494, 31.2616, -31.1609, -24.0225
5.112, 5, 15.9353, 18.6717, 21.245, 31.2447, -31.1678, -24.0084
5.116, 5, 15.9302, 18.6786, 21.2406, 31.2277, -31.1746, -23.9943
5.12, 5, 15.925, 18.6855, 21.2362, 31.2108, -31.1815, -23.9802
5.124, 5, 15.9198, 18.6924, 21.2319, 31.1939, -31.1884, -23.9662
5.128, 5, 15.9146, 18.6993, 21.2275, 31.177, -31.1952, -23.9521
5.132, 5, 15.9094, 18.7061, 21.2231, 31.1601, -31.2021, -23.9381
5.136, 5, 15.9042, 18.713, 21.2188, 31.1431, -31.2089, -23.924
5.14, 5, 15.899, 18.7199, 21.2144, 31.1262, -31.2158, -23.91
5.144, 5, 15.8938, 18.7268, 21.2101, 31.1093, -31.2227, -23.8959
5.148, 5, 15.8886, 18.7337, 21.2057, 31.0924, -31.2295, -23.8819
5.152, 5, 15.8834, 18.7406, 21.2013, 31.0756, -31.2364, -23.8679
5.156, 5, 15.8782, 18.7474, 21.197, 31.0587, -31.2433, -23.8538
5.16, 5, 15.873, 18.7543, 21.1926, 31.0418, -31.2502, -23.8398
5.164, 5, 15.8678, 18.7612, 21.1883, 31.0249, -31.257, -23.8258
5.168, 5, 15.8626, 18.768, 21.1839, 31.0081, -31.2639, -23.8118
5.172, 5, 15.8574, 18.7749, 21.1796, 30.9912, -31.2708, -23.7978
5.176, 5, 15.8522, 18.7818, 21.1752, 30.9743, -31.2777, -23.7838
5.18, 5, 15.847, 18.7887, 21.1709, 30.9575, -31.2846, -23.7698
5.184, 5, 15.8418, 18.7955, 21.1665, 30.9406, -31.2914, -23.7558
5.188, 5, 15.8366, 18.8024, 21.1622, 30.9238, -31.2983, -23.7418
5.192, 5, 15.8314, 18.8093, 21.1578, 30.9069, -31.3052, -23.7278
5.196, 5, 15.8262, 18.8161, 21.1535, 30.8901, -31.3121, -23.7138
5.2, 5, 15.821, 18.823, 21.1491, 30.8733, -31.319, -23.6999
5.204, 5, 15.8158, 18.8298, 21.1448, 30.8564, -31.3259, -23.6859
5.208, 5, 15.8105, 18.8367, 21.1404, 30.8396, -31.3328, -23.6719
5.212, 5, 15.8053, 18.8435, 21.1361, 30.8228, -31.3397, -23.658
5.216, 5, 15.8001, 18.8504, 21.1318, 30.806, -31.3466, -23.644
5.22, 5, 15.7949, 18.8573, 21.1274, 30.7892, -31.3535, -23.6301
5.224, 5, 15.7897, 18.8641, 21.1231, 30.7724, -31.3604, -23.6161
5.228, 5, 15.7845, 18.871, 21.1188, 30.7556, -31.3673, -23.6022
5.232, 5, 15.7793, 18.8778, 21.1144, 30.7388, -31.3742, -23.5883
5.236, 5, 15.774, 18.8847, 21.1101, 30.722, -31.3811, -23.5743
5.24, 5, 15.7688, 18.8915, 21.1058, 30.7052, -31.388, -23.5604
5.244, 5, 15.7636, 18.8983, 21.1015, 30.6884, -31.3949, -23.5465
5.248, 5, 15.7584, 18.9052, 21.0971, 30.6717, -31.4018, -23.5326
5.252, 5, 15.7531, 18.912, 21.0928, 30.6549, -31.4087, -23.5187
5.256, 5, 15.7479, 18.9189, 21.0885, 30.6381, -31.4157, -23.5048
5.26, 5, 15.7427, 18.9257, 21.0842, 30.6214, -31.4226, -23.4909
5.264, 5, 15.7375, 18.9325, 21.0798, 30.6046, -31.4295, -23.477
5.268, 5, 15.7322, 18.9394, 21.0755, 30.5879, -31.4364, -23.4631
5.272, 5, 15.727, 18.9462, 21.0712, 30.5711, -31.4433, -23.4492
5.276, 5, 15.7218, 18.953, 21.0669, 30.5544, -31.4503, -23.4353
5.28, 5, 15.7166, 18.9599, 21.0626, 30.5377, -31.4572, -23.4214
5.284, 5, 15.7113, 18.9667, 21.0583, 30.5209, -31.4641, -23.4076
5.288, 5, 15.7061, 18.9735, 21.054, 30.5042, -31.471, -23.3937
5.292, 5, 15.7009, 18.9804, 21.0496, 30.4875, -31.478, -23.3799
5.296, 5, 15.6956, 18.9872, 21.0453, 30.4708, -31.4849, -23.366
5.3, 5, 15.6904, 18.994, 21.041, 30.4541, -31.4918, -23.3522
5.304, 5, 15.6852, 19.0008, 21.0367, 30.4374, -31.4988, -23.3383
5.308, 5, 15.6799, 19.0077, 21.0324, 30.4207, -31.5057, -23.3245
5.312, 5, 15.6747, 19.0145, 21.0281, 30.404, -31.5127, -23.3106
5.316, 5, 15.6695, 19.0213, 21.0238, 30.3873, -31.5196, -23.2968
5.32, 5, 15.6642, 19.0281, 21.0195, 30.3706, -31.5265, -23.283
5.324, 5, 15.659, 19.0349, 21.0152, 30.3539, -31.5335, -23.2692
5.328, 5, 15.6537, 19.0417, 21.0109, 30.3372, -31.5404, -23.2553
5.332, 5, 15.6485, 19.0485, 21.0066, 30.3206, -31.5474, -23.2415
5.336, 5, 15.6432, 19.0554, 21.0023, 30.3039, -31.5543, -23.2277
5.34, 5, 15.638, 19.0622, 20.998, 30.2872, -31.5613, -23.2139
5.344, 5, 15.6328, 19.069, 20.9938, 30.2706, -31.5682, -23.2001
5.348, 5, 15.6275, 19.0758, 20.9895, 30.2539, -31.5752, -23.1863
5.352, 5, 15.6223, 19.0826, 20.9852, 30.2373, -31.5822, -23.1726
5.356, 5, 15.617, 19.0894, 20.9809, 30.2206, -31.5891, -23.1588
5.36, 5, 15.6118, 19.0962, 20.9766, 30.204, -31.5961, -23.145
5.364, 5, 15.6065, 19.103, 20.9723, 30.1873, -31.603, -23.1312
5.368, 5, 15.6013, 19.1098, 20.968, 30.1707, -31.61, -23.1175
5.372, 5, 15.596, 19.1166, 20.9638, 30.1541, -31.617, -23.1037
5.376, 5, 15.5908, 19.1234, 20.9595, 30.1375, -31.6239, -23.0899
5.38, 5, 15.5855, 19.1302, 20.9552, 30.1209, -31.6309, -23.0762
5.384, 5, 15.5802, 19.137, 20.9509, 30.1042, -31.6379, -23.0624
5.388, 5, 15.575, 19.1438, 20.9466, 30.0876, -31.6449, -23.0487
5.392, 5, 15.5697, 19.1505, 20.9424, 30.071, -31.6518, -23.035
5.396, 5, 15.5645, 19.1573, 20.9381, 30.0544, -31.6588, -23.0212
5.4, 5, 15.5592, 19.1641, 20.9338, 30.0379, -31.6658, -23.0075
5.404, 5, 15.554, 19.1709, 20.9296, 30.0213, -31.6728, -22.9938
5.408, 5, 15.5487, 19.1777, 20.9253, 30.0047, -31.6797, -22.9801
5.412, 5, 15.5434, 19.1845, 20.921, 29.9881, -31.6867, -22.9663
5.416, 5, 15.5382, 19.1913, 20.9168, 29.9715, -31.6937, -22.9526
5.42, 5, 15.5329, 19.198, 20.9125, 29.955, -31.7007, -22.9389
5.424, 5, 15.5276, 19.2048, 20.9082, 29.9384, -31.7077, -22.9252
5.428, 5, 15.5224, 19.2116, 20.904, 29.9219, -31.7147, -22.9115
5.432, 5, 15.5171, 19.2184, 20.8997, 29.9053, -31.7217, -22.8979
5.436, 5, 15.5118, 19.2251, 20.8955, 29.8888, -31.7287, -22.8842
5.44, 5, 15.5066, 19.2319, 20.8912, 29.8722, -31.7357, -22.8705
5.444, 5, 15.5013, 19.2387, 20.8869, 29.8557, -31.7427, -22.8568
5.448, 5, 15.496, 19.2454, 20.8827, 29.8391, -31.7497, -22.8431
5.452, 5, 15.4908, 19.2522, 20.8784, 29.8226, -31.7567, -22.8295
5.456, 5, 15.4855, 19.259, 20.8742, 29.8061, -31.7637, -22.8158
5.46, 5, 15.4802, 19.2657, 20.8699, 29.7896, -31.7707, -22.8022
5.464, 5, 15.4749, 19.2725, 20.8657, 29.773, -31.7777, -22.7885
5.468, 5, 15.4697, 19.2793, 20.8615, 29.7565, -31.7847, -22.7749
5.472, 5, 15.4644, 19.286, 20.8572, 29.74, -31.7917, -22.7612
5.476, 5, 15.4591, 19.2928, 20.853, 29.7235, -31.7987, -22.7476
5.48, 5, 15.4538, 19.2995, 20.8487, 29.707, -31.8057, -22.734
5.484, 5, 15.4486, 19.3063, 20.8445, 29.6905, -31.8127, -22.7203
5.488, 5, 15.4433, 19.3131, 20.8402, 29.6741, -31.8198, -22.7067
5.492, 5, 15.438, 19.3198, 20.836, 29.6576, -31.8268, -22.6931
5.496, 5, 15.4327, 19.3266, 20.8318, 29.6411, -31.8338, -22.6795
5.5, 5, 15.4274, 19.3333, 20.8275, 29.6246, -31.8408, -22.6659
5.504, 5, 15.4221, 19.3401, 20.8233, 29.6082, -31.8478, -22.6523
5.508, 5, 15.4169, 19.3468, 20.8191, 29.5917, -31.8549, -22.6387
5.512, 5, 15.4116, 19.3535, 20.8148, 29.5752, -31.8619, -22.6251
5.516, 5, 15.4063, 19.3603, 20.8106, 29.5588, -31.8689, -22.6115
5.52, 5, 15.401, 19.367, 20.8064, 29.5423, -31.876, -22.5979
5.524, 5, 15.3957, 19.3738, 20.8022, 29.5259, -31.883, -22.5843
5.528, 5, 15.3904, 19.3805, 20.7979, 29.5094, -31.89, -22.5708
5.532, 5, 15.3851, 19.3873, 20.7937, 29.493, -31.8971, -22.5572
5.536, 5, 15.3798, 19.394, 20.7895, 29.4766, -31.9041, -22.5436
5.54, 5, 15.3745, 19.4007, 20.7853, 29.4602, -31.9111, -22.5301
5.544, 5, 15.3692, 19.4075, 20.7811, 29.4437, -31.9182, -22.5165
5.548, 5, 15.3639, 19.4142, 20.7768, 29.4273, -31.9252, -22.503
5.552, 5, 15.3587, 19.4209, 20.7726, 29.4109, -31.9323, -22.4894
5.556, 5, 15.3534, 19.4277, 20.7684, 29.3945, -31.9393, -22.4759
5.56, 5, 15.3481, 19.4344, 20.7642, 29.3781, -31.9464, -22.4623
5.564, 5, 15.3428, 19.4411, 20.76, 29.3617, -31.9534, -22.4488
5.568, 5, 15.3375, 19.4478, 20.7558, 29.3453, -31.9605, -22.4353
5.572, 5, 15.3322, 19.4546, 20.7516, 29.3289, -31.9675, -22.4218
5.576, 5, 15.3269, 19.4613, 20.7474, 29.3125, -31.9746, -22.4083
5.58, 5, 15.3216, 19.468, 20.7432, 29.2962, -31.9816, -22.3947
5.584, 5, 15.3163, 19.4747, 20.739, 29.2798, -31.9887, -22.3812
5.588, 5, 15.3109, 19.4814, 20.7348, 29.2634, -31.9958, -22.3677
5.592, 5, 15.3056, 19.4881, 20.7306, 29.2471, -32.0028, -22.3542
5.596, 5, 15.3003, 19.4949, 20.7264, 29.2307, -32.0099, -22.3407
5.6, 5, 15.295, 19.5016, 20.7222, 29.2143, -32.017, -22.3273
5.604, 5, 15.2897, 19.5083, 20.718, 29.198, -32.024, -22.3138
5.608, 5, 15.2844, 19.515, 20.7138, 29.1816, -32.0311, -22.3003
5.612, 5, 15.2791, 19.5217, 20.7096, 29.1653, -32.0382, -22.2868
5.616, 5, 15.2738, 19.5284, 20.7054, 29.149, -32.0452, -22.2734
5.62, 5, 15.2685, 19.5351, 20.7012, 29.1326, -32.0523, -22.2599
5.624, 5, 15.2632, 19.5418, 20.697, 29.1163, -32.0594, -22.2464
5.628, 5, 15.2578, 19.5485, 20.6928, 29.1, -32.0665, -22.233
5.632, 5, 15.2525, 19.5552, 20.6886, 29.0837, -32.0735, -22.2195
5.636, 5, 15.2472, 19.5619, 20.6845, 29.0674, -32.0806, -22.2061
5.64, 5, 15.2419, 19.5686, 20.6803, 29.051, -32.0877, -22.1926
5.644, 5, 15.2366, 19.5753, 20.6761, 29.0347, -32.0948, -22.1792
5.648, 5, 15.2313, 19.582, 20.6719, 29.0184, -32.1019, -22.1658
5.652, 5, 15.2259, 19.5887, 20.6677, 29.0021, -32.109, -22.1524
5.656, 5, 15.2206, 19.5954, 20.6636, 28.9859, -32.1161, -22.1389
5.66, 5, 15.2153, 19.6021, 20.6594, 28.9696, -32.1231, -22.1255
5.664, 5, 15.21, 19.6088, 20.6552, 28.9533, -32.1302, -22.1121
5.668, 5, 15.2047, 19.6155, 20.651, 28.937, -32.1373, -22.0987
5.672, 5, 15.1993, 19.6222, 20.6469, 28.9207, -32.1444, -22.0853
5.676, 5, 15.194, 19.6288, 20.6427, 28.9045, -32.1515, -22.0719
5.68, 5, 15.1887, 19.6355, 20.6385, 28.8882, -32.1586, -22.0585
5.684, 5, 15.1834, 19.6422, 20.6344, 28.872, -32.1657, -22.0451
5.688, 5, 15.178, 19.6489, 20.6302, 28.8557, -32.1728, -22.0317
5.692, 5, 15.1727, 19.6556, 20.626, 28.8395, -32.18, -22.0184
5.696, 5, 15.1674, 19.6622, 20.6219, 28.8232, -32.1871, -22.005
5.7, 5, 15.162, 19.6689, 20.6177, 28.807, -32.1942, -21.9916
5.704, 5, 15.1567, 19.6756, 20.6136, 28.7908, -32.2013, -21.9783
5.708, 5, 15.1514, 19.6823, 20.6094, 28.7745, -32.2084, -21.9649
5.712, 5, 15.146, 19.6889, 20.6052, 28.7583, -32.2155, -21.9515
5.716, 5, 15.1407, 19.6956, 20.6011, 28.7421, -32.2226, -21.9382
5.72, 5, 15.1354, 19.7023, 20.5969, 28.7259, -32.2297, -21.9248
5.724, 5, 15.13, 19.7089, 20.5928, 28.7097, -32.2369, -21.9115
5.728, 5, 15.1247, 19.7156, 20.5886, 28.6934, -32.244, -21.8982
5.732, 5, 15.1194, 19.7223, 20.5845, 28.6772, -32.2511, -21.8848
5.736, 5, 15.114, 19.7289, 20.5803, 28.6611, -32.2582, -21.8715
5.74, 5, 15.1087, 19.7356, 20.5762, 28.6449, -32.2654, -21.8582
5.744, 5, 15.1033, 19.7423, 20.572, 28.6287, -32.2725, -21.8449
5.748, 5, 15.098, 19.7489, 20.5679, 28.6125, -32.2796, -21.8316
5.752, 5, 15.0926, 19.7556, 20.5638, 28.5963, -32.2867, -21.8182
5.756, 5, 15.0873, 19.7622, 20.5596, 28.5801, -32.2939, -21.8049
5.76, 5, 15.082, 19.7689, 20.5555, 28.564, -32.301, -21.7916
5.764, 5, 15.0766, 19.7755, 20.5513, 28.5478, -32.3082, -21.7784
5.768, 5, 15.0713, 19.7822, 20.5472, 28.5317, -32.3153, -21.7651
5.772, 5, 15.0659, 19.7888, 20.5431, 28.5155, -32.3224, -21.7518
5.776, 5, 15.0606, 19.7955, 20.5389, 28.4993, -32.3296, -21.7385
5.78, 5, 15.0552, 19.8021, 20.5348, 28.4832, -32.3367, -21.7252
5.784, 5, 15.0499, 19.8088, 20.5307, 28.4671, -32.3439, -21.712
5.788, 5, 15.0445, 19.8154, 20.5266, 28.4509, -32.351, -21.6987
5.792, 5, 15.0392, 19.8221, 20.5224, 28.4348, -32.3582, -21.6854
5.796, 5, 15.0338, 19.8287, 20.5183, 28.4187, -32.3653, -21.6722
5.8, 5, 15.0285, 19.8353, 20.5142, 28.4025, -32.3725, -21.6589
5.804, 5, 15.0231, 19.842, 20.5101, 28.3864, -32.3796, -21.6457
5.808, 5, 15.0177, 19.8486, 20.5059, 28.3703, -32.3868, -21.6324
5.812, 5, 15.0124, 19.8552, 20.5018, 28.3542, -32.3939, -21.6192
5.816, 5, 15.007, 19.8619, 20.4977, 28.3381, -32.4011, -21.606
5.82, 5, 15.0017, 19.8685, 20.4936, 28.322, -32.4083, -21.5927
5.824, 5, 14.9963, 19.8751, 20.4895, 28.3059, -32.4154, -21.5795
5.828, 5, 14.9909, 19.8818, 20.4854, 28.2898, -32.4226, -21.5663
5.832, 5, 14.9856, 19.8884, 20.4813, 28.2737, -32.4297, -21.5531
5.836, 5, 14.9802, 19.895, 20.4771, 28.2577, -32.4369, -21.5399
5.84, 5, 14.9749, 19.9016, 20.473, 28.2416, -32.4441, -21.5267
5.844, 5, 14.9695, 19.9083, 20.4689, 28.2255, -32.4513, -21.5135
5.848, 5, 14.9641, 19.9149, 20.4648, 28.2094, -32.4584, -21.5003
5.852, 5, 14.9588, 19.9215, 20.4607, 28.1934, -32.4656, -21.4871
5.856, 5, 14.9534, 19.9281, 20.4566, 28.1773, -32.4728, -21.4739
5.86, 5, 14.948, 19.9347, 20.4525, 28.1613, -32.48, -21.4607
5.864, 5, 14.9427, 19.9414, 20.4484, 28.1452, -32.4871, -21.4475
5.868, 5, 14.9373, 19.948, 20.4443, 28.1292, -32.4943, -21.4344
5.872, 5, 14.9319, 19.9546, 20.4402, 28.1131, -32.5015, -21.4212
5.876, 5, 14.9265, 19.9612, 20.4361, 28.0971, -32.5087, -21.408
5.88, 5, 14.9212, 19.9678, 20.432, 28.0811, -32.5159, -21.3949
5.884, 5, 14.9158, 19.9744, 20.428, 28.065, -32.5231, -21.3817
5.888, 5, 14.9104, 19.981, 20.4239, 28.049, -32.5303, -21.3686
5.892, 5, 14.905, 19.9876, 20.4198, 28.033, -32.5375, -21.3554
5.896, 5, 14.8997, 19.9942, 20.4157, 28.017, -32.5447, -21.3423
5.9, 5, 14.8943, 20.0008, 20.4116, 28.001, -32.5518, -21.3292
5.904, 5, 14.8889, 20.0074, 20.4075, 27.985, -32.559, -21.316
5.908, 5, 14.8835, 20.014, 20.4034, 27.969, -32.5662, -21.3029
5.912, 5, 14.8782, 20.0206, 20.3994, 27.953, -32.5734, -21.2898
5.916, 5, 14.8728, 20.0272, 20.3953, 27.937, -32.5806, -21.2767
5.92, 5, 14.8674, 20.0338, 20.3912, 27.921, -32.5879, -21.2636
5.924, 5, 14.862, 20.0404, 20.3871, 27.9051, -32.5951, -21.2504
5.928, 5, 14.8566, 20.047, 20.383, 27.8891, -32.6023, -21.2373
5.932, 5, 14.8512, 20.0536, 20.379, 27.8731, -32.6095, -21.2242
5.936, 5, 14.8459, 20.0602, 20.3749, 27.8571, -32.6167, -21.2112
5.94, 5, 14.8405, 20.0668, 20.3708, 27.8412, -32.6239, -21.1981
5.944, 5, 14.8351, 20.0734, 20.3668, 27.8252, -32.6311, -21.185
5.948, 5, 14.8297, 20.0799, 20.3627, 27.8093, -32.6383, -21.1719
5.952, 5, 14.8243, 20.0865, 20.3586, 27.7933, -32.6455, -21.1588
5.956, 5, 14.8189, 20.0931, 20.3546, 27.7774, -32.6528, -21.1458
5.96, 5, 14.8135, 20.0997, 20.3505, 27.7614, -32.66, -21.1327
5.964, 5, 14.8081, 20.1063, 20.3464, 27.7455, -32.6672, -21.1196
